JuanDHNZ/ProyectoFinalCD/preprocessing/sports_trials_csv/01_01.csv
root1,root2,root3,root4,root5,root6,lowerback1,lowerback2,lowerback3,upperback1,upperback2,upperback3,thorax1,thorax2,thorax3,lowerneck1,lowerneck2,lowerneck3,upperneck1,upperneck2,upperneck3,head1,head2,head3,rclavicle1,rclavicle2,rhumerus1,rhumerus2,rhumerus3,rradius1,rwrist1,rhand1,rhand2,rfingers1,rthumb1,rthumb2,lclavicle1,lclavicle2,lhumerus1,lhumerus2,lhumerus3,lradius1,lwrist1,lhand1,lhand2,lfingers1,lthumb1,lthumb2,rfemur1,rfemur2,rfemur3,rtibia1,rfoot1,rfoot2,rtoes1,lfemur1,lfemur2,lfemur3,ltibia1,lfoot1,lfoot2,ltoes1
9.37216,17.8693,-17.3198,-2.01677,-7.59696,-3.23164,2.30193,-0.395121,1.17299,0.0030495,-0.462657,2.70388,-1.27453,-0.231833,2.13151,-9.32819,-3.76531,-6.70788,27.8377,-3.2335,-3.01318,10.556,-2.55728,-0.318388,3.64024e-15,-6.75868e-15,-29.5133,-11.7797,-80.4307,21.1829,-7.55893,-17.4806,-21.0413,7.12502,8.77158,-50.8391,3.64024e-15,-6.75868e-15,17.2039,-14.515,62.7889,136.231,10.1195,-37.631,-17.4438,7.12502,-10.6834,12.2646,-0.629535,4.65229,22.5467,26.4457,-15.2124,-9.97437,3.93605,4.00236,1.20472,-13.8412,20.088,-16.1868,6.57726,-4.61789
9.37285,17.8666,-17.3192,-2.06376,-7.58832,-3.1009,2.29991,-0.349181,1.09181,0.0947876,-0.407398,2.60055,-1.18102,-0.204204,2.06826,-9.38789,-3.85899,-6.63958,27.573,-3.42999,-2.83518,10.4723,-2.61267,-0.285962,-1.76297e-14,2.0276e-14,-29.4939,-11.6907,-80.6889,21.2821,-8.65953,-17.8293,-21.0633,7.12502,8.43505,-50.8749,-1.76297e-14,2.0276e-14,17.6594,-14.5367,62.772,136.154,10.1235,-37.5333,-17.5104,7.12502,-10.5891,12.2028,-0.610476,4.56991,22.3851,26.5313,-15.263,-9.92583,3.88232,4.09038,1.19687,-14.0011,19.9922,-16.3203,6.5712,-4.29676
9.36924,17.8658,-17.3215,-2.08624,-7.53541,-3.20952,2.40927,-0.341368,1.15325,0.0914609,-0.391867,2.6267,-1.24644,-0.196673,2.06109,-9.29056,-3.91364,-6.80735,27.3923,-3.57141,-2.52178,10.3988,-2.65388,-0.15793,1.11071e-14,-7.15625e-15,-29.4949,-11.4934,-80.8962,21.0916,-9.76415,-18.6086,-20.6482,7.12502,7.68291,-50.4886,1.11071e-14,-7.15625e-15,18.0329,-14.7893,62.8649,136.077,10.2479,-37.5642,-18.6327,7.12502,-10.6189,11.079,-0.584382,4.63926,22.5698,26.6186,-15.2777,-10.1364,3.73231,4.15146,1.15468,-13.8566,19.9336,-16.299,6.62697,-5.03798
9.37257,17.8597,-17.326,-2.19936,-7.38318,-2.9561,2.57814,-0.391672,0.860793,0.0854141,-0.462952,2.59317,-1.3433,-0.230351,2.19494,-9.19978,-3.86999,-6.93745,27.3482,-3.53605,-2.35956,10.3704,-2.63105,-0.0716203,-3.59552e-14,1.98785e-15,-29.5008,-12.085,-80.5794,20.5984,-8.58146,-18.669,-20.6674,7.12502,7.62465,-50.51,-3.59552e-14,1.98785e-15,18.1608,-15.012,62.8968,135.987,9.91931,-37.9202,-20.0086,7.12502,-10.9623,9.68521,-0.494681,4.48758,22.2688,26.686,-15.4208,-10.1225,3.86776,4.23306,0.937041,-14.1641,19.9121,-16.348,6.69497,-5.39028
9.37326,17.8536,-17.3317,-2.26876,-7.3527,-2.91098,2.68069,-0.422154,0.745096,0.109155,-0.504697,2.6374,-1.37374,-0.250414,2.30795,-9.03979,-3.79209,-7.08472,27.181,-3.45259,-2.21513,10.282,-2.58658,0.0202544,3.97569e-15,-2.78299e-14,-29.5129,-12.2041,-80.4556,20.4393,-7.49431,-18.6715,-22.4402,7.12502,7.62223,-52.2829,3.97569e-15,-2.78299e-14,18.1722,-14.9233,63.0134,135.909,9.16555,-38.2145,-19.1171,7.12502,-11.2462,10.5614,-0.437386,4.48759,22.2324,26.7092,-15.4479,-10.237,3.53431,4.26185,0.818434,-14.2309,19.9462,-16.4514,6.68937,-4.91302
9.36894,17.853,-17.335,-2.27502,-7.38075,-3.04336,2.70333,-0.418993,0.76871,0.130219,-0.498534,2.74008,-1.36437,-0.247388,2.40035,-8.92491,-3.79578,-7.24291,26.9579,-3.47485,-2.09024,10.185,-2.59255,0.0939518,9.54166e-15,7.95139e-16,-29.5845,-11.8025,-80.5141,20.2988,-7.56873,-18.9703,-21.9571,7.12502,7.33378,-51.81,9.54166e-15,7.95139e-16,18.4209,-14.7522,63.1773,135.98,9.06085,-37.9464,-17.1405,7.12502,-10.9876,12.5519,-0.457306,4.73247,22.4631,26.6999,-15.4113,-10.5301,3.34243,4.19808,0.919717,-14.0503,20.0274,-16.4786,6.58214,-4.48082
9.36763,17.8526,-17.3375,-2.26856,-7.25299,-3.03823,2.67127,-0.444251,0.70364,0.171168,-0.535811,2.76618,-1.3022,-0.265945,2.4646,-9.02001,-3.81909,-7.27759,26.8645,-3.51813,-1.9964,10.1726,-2.60282,0.127185,-1.75427e-14,-4.37326e-15,-29.7043,-11.9214,-80.3662,20.097,-7.51205,-18.846,-20.1601,7.12502,7.45376,-50.0088,-1.75427e-14,-4.37326e-15,18.7566,-14.7586,63.23,136.063,9.36891,-37.7204,-16.4464,7.12502,-10.7696,13.2575,-0.430117,4.82015,22.5066,26.5765,-15.4658,-10.7129,3.71316,4.01514,0.896774,-14.0393,20.2716,-16.5941,6.50533,-4.31087
9.36475,17.8499,-17.3463,-2.21579,-7.08747,-3.30204,2.69367,-0.508644,0.89111,0.215853,-0.615875,2.84819,-1.26701,-0.307184,2.44659,-9.00787,-3.77974,-7.30619,26.6336,-3.50955,-1.81427,10.0884,-2.57514,0.200847,5.29264e-15,-1.98785e-15,-29.7041,-12.1718,-80.3228,20.2033,-7.30904,-18.8505,-21.4742,7.12502,7.44948,-51.323,5.29264e-15,-1.98785e-15,18.8069,-14.7972,63.2476,135.909,9.12862,-37.9562,-17.2697,7.12502,-10.997,12.4222,-0.357426,4.96686,22.8782,26.365,-15.5339,-10.927,4.23023,3.77334,0.834315,-13.7017,20.5971,-16.7765,6.37146,-4.06583
9.35985,17.8506,-17.3603,-2.09165,-7.07998,-3.91433,2.74467,-0.530213,1.40167,0.31353,-0.629059,3.02054,-1.19854,-0.316564,2.3376,-8.99324,-3.72195,-7.32522,26.2203,-3.49388,-1.5739,9.93775,-2.53213,0.296232,2.56556e-15,-1.98785e-14,-29.4944,-12.9795,-80.0231,19.9865,-5.79825,-18.015,-21.7907,7.12502,8.25581,-51.6093,2.56556e-15,-1.98785e-14,18.9418,-14.774,63.1856,135.648,8.3747,-38.3758,-18.4723,7.12502,-11.4017,11.1978,-0.366742,5.15676,23.6352,26.1566,-15.4337,-11.0847,4.41292,3.50454,0.878785,-12.959,20.8981,-16.9368,6.20812,-3.68556
9.35943,17.8548,-17.3683,-1.98557,-7.06781,-4.14612,2.76184,-0.536844,1.5993,0.343768,-0.632023,3.05995,-1.17876,-0.318983,2.26729,-8.80013,-3.71539,-7.09166,25.7276,-3.54318,-1.62053,9.71589,-2.52503,0.245886,-1.94902e-14,-4.17448e-14,-29.5265,-12.9496,-80.0683,20.0737,-5.67669,-17.7089,-21.7353,7.12502,8.55125,-51.5422,-1.94902e-14,-4.17448e-14,19.0947,-14.8221,63.0933,135.574,7.89424,-38.3655,-19.6315,7.12502,-11.3918,10.0391,-0.408369,5.03299,23.8686,25.9829,-15.2295,-11.0401,4.35879,3.22468,0.910344,-12.6933,21.1904,-17.0561,6.15363,-3.7327
9.36099,17.855,-17.3711,-1.96894,-6.97702,-4.00201,2.79638,-0.573242,1.44539,0.304688,-0.683202,3.00782,-1.23562,-0.343825,2.30269,-8.41569,-3.67718,-6.92457,25.2978,-3.55668,-1.64438,9.48351,-2.50753,0.221806,1.7375e-14,-1.94809e-14,-29.7863,-12.3904,-80.2924,20.3255,-6.69355,-17.7007,-21.4378,7.12502,8.55914,-51.2444,1.7375e-14,-1.94809e-14,19.1137,-14.8812,63.1242,135.631,7.64254,-37.8905,-21.7886,7.12502,-10.9336,7.90672,-0.395644,4.94363,23.6824,25.8753,-15.1329,-11.0545,4.5467,3.04304,0.918651,-12.8578,21.4375,-17.1859,6.13233,-3.93503
9.36491,17.8511,-17.3802,-1.98636,-6.8873,-3.92857,2.89253,-0.603056,1.3649,0.374708,-0.724713,3.00184,-1.21551,-0.364377,2.34397,-8.48273,-3.62319,-6.93836,25.1252,-3.50447,-1.52135,9.43523,-2.46695,0.273211,2.8361e-14,-2.38542e-14,-29.8032,-11.6837,-80.6535,20.6308,-8.16666,-18.1554,-21.7335,7.12502,8.12038,-51.5575,2.8361e-14,-2.38542e-14,19.352,-14.8602,63.1762,135.621,7.27421,-37.6858,-23.4045,7.12502,-10.7363,6.30117,-0.404833,4.88589,23.5835,25.8562,-15.1553,-11.0297,4.48406,2.952,0.780088,-12.9675,21.5753,-17.3078,6.17955,-3.731
9.36861,17.847,-17.3957,-1.99558,-6.80225,-3.92441,3.03757,-0.625495,1.31116,0.439255,-0.753513,3.02717,-1.22863,-0.378673,2.40284,-8.4039,-3.56523,-6.77743,24.817,-3.43537,-1.63426,9.30276,-2.42395,0.220609,1.26663e-14,1.43125e-14,-29.7948,-11.4553,-80.7739,20.6228,-8.69847,-18.3461,-21.1424,7.12502,7.93627,-50.9734,1.26663e-14,1.43125e-14,19.5562,-14.7952,63.2275,135.6,6.94592,-37.7033,-23.4982,7.12502,-10.7531,6.20655,-0.452799,4.71061,23.5541,25.8611,-15.145,-10.9714,4.01711,2.82492,0.559565,-13.0048,21.6999,-17.36,6.32059,-3.75747
9.36501,17.8439,-17.4052,-1.97112,-6.72357,-4.06245,3.16686,-0.619544,1.30486,0.413164,-0.739799,3.09581,-1.32732,-0.371528,2.47876,-8.14158,-3.48461,-6.7011,24.5888,-3.36457,-1.62195,9.16877,-2.37664,0.227728,3.22559e-15,1.11319e-14,-29.9382,-11.8368,-80.5388,20.404,-8.1187,-17.7216,-20.4059,7.12502,8.53904,-50.2132,3.22559e-15,1.11319e-14,19.5641,-14.8591,63.3309,135.586,6.71275,-37.9114,-23.6,7.12502,-10.9538,6.09424,-0.492333,4.73203,23.7527,25.8745,-15.1431,-11.1526,4.11563,2.69383,0.576225,-12.8046,21.8303,-17.3827,6.33913,-4.81788
9.35818,17.841,-17.4103,-1.89637,-6.58522,-4.32984,3.25245,-0.591102,1.41985,0.330624,-0.690946,3.17051,-1.46215,-0.347216,2.49117,-7.83148,-3.44869,-6.65825,24.4317,-3.38272,-1.48582,9.05619,-2.36289,0.273114,-1.95989e-15,-5.96354e-15,-30.2401,-12.0405,-80.4127,20.4505,-7.77037,-17.3774,-20.2709,7.12502,8.87117,-50.0644,-1.95989e-15,-5.96354e-15,19.5432,-15.0977,63.4437,135.534,6.36235,-38.2872,-24.1621,7.12502,-11.3163,5.51265,-0.548562,4.84322,24.1358,25.926,-15.1675,-11.5456,4.07956,2.56443,0.782131,-12.4088,21.8922,-17.3869,6.02157,-5.28242
9.35686,17.8409,-17.4189,-1.93679,-6.37323,-4.25168,3.37066,-0.612904,1.22223,0.341953,-0.723364,3.18807,-1.51303,-0.362141,2.62348,-7.45165,-3.38351,-6.65274,24.0343,-3.35473,-1.37979,8.84706,-2.32857,0.322724,-1.40236e-15,-1.27222e-14,-30.3559,-11.6544,-80.5733,20.5815,-8.1506,-18.0019,-20.2618,7.12502,8.26852,-50.08,-1.40236e-15,-1.27222e-14,19.6122,-15.2153,63.6012,135.469,5.80532,-38.5334,-24.5857,7.12502,-11.5537,5.07589,-0.56027,4.75307,24.0834,25.9909,-15.1824,-11.8121,3.59523,2.4981,0.849978,-12.4466,21.9115,-17.3555,5.66911,-4.47506
9.36285,17.8425,-17.43,-2.02282,-6.28201,-3.92038,3.59136,-0.641606,0.839674,0.461849,-0.77346,3.19955,-1.50647,-0.385451,2.85507,-7.87168,-3.30338,-6.91681,24.0906,-3.19415,-1.22977,8.94961,-2.26239,0.425798,-3.17326e-14,1.82882e-14,-30.1909,-11.2171,-80.6534,20.6477,-8.20248,-18.2631,-20.0253,7.12502,8.01642,-49.8532,-3.17326e-14,1.82882e-14,19.9557,-15.0553,63.92,135.468,5.1882,-38.3485,-24.3246,7.12502,-11.3754,5.34685,-0.587766,4.57762,23.6703,26.0415,-15.1706,-11.6945,3.44975,2.47814,0.698166,-12.8554,21.9384,-17.3551,5.66641,-4.0537
9.36661,17.8451,-17.4445,-1.9117,-6.35571,-3.89232,3.85935,-0.617852,0.770813,0.345144,-0.732229,3.26394,-1.7767,-0.362533,2.96393,-8.06309,-3.24197,-7.04395,24.3059,-3.05882,-1.25593,9.05974,-2.21827,0.446685,8.39477e-15,-2.0276e-14,-30.5053,-11.1136,-80.4611,20.8784,-7.58923,-17.097,-20.034,7.12502,9.14172,-49.8158,8.39477e-15,-2.0276e-14,19.9257,-14.9916,64.3169,135.601,4.66933,-38.0544,-23.8835,7.12502,-11.0918,5.80338,-0.823806,4.68556,23.6256,26.1328,-15.0967,-11.6894,3.35543,2.33397,0.562172,-12.9261,21.898,-17.3061,5.85048,-4.40815
9.36703,17.8486,-17.458,-1.83051,-6.29238,-4.05187,4.15906,-0.625538,0.845235,0.132259,-0.721625,3.35807,-2.16404,-0.354702,3.02631,-7.38276,-3.17525,-7.09733,23.9703,-3.01494,-1.2917,8.81578,-2.1973,0.462428,1.32797e-14,-1.43125e-14,-31.0824,-10.4004,-80.6119,21.4698,-8.36249,-17.1554,-21.677,7.12502,9.08536,-51.4613,1.32797e-14,-1.43125e-14,19.1364,-15.0632,64.556,135.817,4.52546,-38.2878,-24.1984,7.12502,-11.3168,5.47626,-1.00673,4.75812,23.8203,26.2774,-15.1047,-11.8792,3.27826,2.24945,0.530928,-12.7376,21.7726,-17.1753,5.84454,-4.93022
9.36956,17.8509,-17.4719,-1.87939,-5.97065,-3.78878,4.42953,-0.694024,0.553084,0.0808154,-0.819115,3.31664,-2.36072,-0.399056,3.15942,-6.98618,-3.17749,-7.28154,23.6123,-3.04991,-1.20437,8.62581,-2.2115,0.528736,-1.42721e-15,7.95139e-15,-31.3153,-9.6027,-80.9405,21.7954,-9.58838,-18.1048,-21.2002,7.12502,8.16914,-51.0223,-1.42721e-15,7.95139e-15,18.6423,-14.9351,64.6683,136.009,4.48543,-38.3613,-24.4204,7.12502,-11.3877,5.25036,-1.07404,4.43805,23.494,26.3923,-15.1369,-11.8683,3.42044,2.19175,0.370581,-13.0388,21.6959,-17.0528,5.74334,-5.33148
9.37563,17.8545,-17.4876,-1.86469,-5.59851,-3.22713,4.47589,-0.770741,0.0647129,0.213748,-0.952806,3.15502,-2.23767,-0.463024,3.27469,-7.28305,-3.19048,-7.39369,23.5855,-3.03009,-1.16427,8.67446,-2.20677,0.558113,4.76462e-15,4.77083e-15,-31.0453,-9.13458,-81.2565,21.6961,-10.5624,-18.7465,-20.2072,7.12502,7.54983,-50.0525,4.76462e-15,4.77083e-15,19.2206,-14.722,64.8468,135.981,4.14874,-37.939,-23.9478,7.12502,-10.9805,5.74503,-1.22278,3.98191,22.7681,26.4633,-15.2132,-11.5955,3.97255,1.98344,0.135427,-13.7175,21.6937,-16.9344,5.64533,-4.9073
9.3804,17.8569,-17.5011,-1.84074,-5.35105,-3.106,4.44662,-0.793675,0.0543812,0.525836,-0.994423,3.08353,-1.89876,-0.489002,3.20385,-7.8704,-3.18993,-7.27783,23.5706,-2.9695,-1.25764,8.77221,-2.17637,0.504041,-2.07481e-14,-6.75868e-15,-30.4221,-9.12778,-81.4056,21.5432,-10.6668,-18.4409,-20.0312,7.12502,7.8448,-49.8656,-2.07481e-14,-6.75868e-15,20.2865,-14.5594,65.0341,135.874,3.88766,-37.4983,-23.3823,7.12502,-10.5554,6.33265,-1.30697,3.6832,22.5499,26.5054,-15.3689,-11.3455,4.64903,1.80792,0.142357,-13.8608,21.7468,-16.8318,5.3836,-4.0842
9.37864,17.857,-17.5139,-1.84648,-5.22445,-3.42068,4.54622,-0.748181,0.381647,0.758886,-0.920864,3.16523,-1.72273,-0.45706,3.09835,-8.15962,-3.25907,-7.17061,23.4756,-3.02907,-1.37784,8.79103,-2.20383,0.435595,-2.11954e-14,-1.59028e-15,-30.0464,-9.04328,-81.48,21.7765,-10.4851,-17.9035,-21.3526,7.12502,8.36351,-51.167,-2.11954e-14,-1.59028e-15,20.7921,-14.5306,65.2008,135.906,3.91782,-37.377,-23.077,7.12502,-10.4383,6.64388,-1.3061,3.70577,22.9354,26.4722,-15.3254,-11.5009,4.83157,1.66586,0.254799,-13.4528,21.9083,-16.7803,5.17687,-3.98428
9.37551,17.8585,-17.5294,-1.82507,-5.17355,-3.83083,4.74542,-0.611902,0.807413,0.951464,-0.717799,3.23885,-1.65079,-0.359079,2.9236,-8.77588,-3.42921,-7.02296,23.6588,-3.20941,-1.46885,8.96986,-2.28875,0.348917,-6.12505e-15,-6.75868e-15,-29.8139,-8.81239,-81.7171,22.2277,-10.9798,-18.0474,-24.2419,7.12502,8.22457,-54.0619,-6.12505e-15,-6.75868e-15,21.1236,-14.7714,65.3322,135.947,3.87994,-37.5967,-23.2383,7.12502,-10.6502,6.47177,-1.30842,3.88799,23.4744,26.3372,-15.0717,-11.8685,4.44998,1.44983,0.114252,-12.9722,22.1969,-16.844,5.2471,-4.01977
9.37662,17.8613,-17.5453,-1.80921,-5.021,-4.13813,5.05091,-0.422451,1.32167,1.22288,-0.441134,3.10228,-1.55978,-0.224062,2.47717,-9.86544,-3.59009,-6.4697,23.9479,-3.42798,-1.50156,9.26445,-2.35133,0.199374,6.70898e-15,-2.22639e-14,-29.58,-8.89233,-82.214,22.8768,-11.9761,-19.0006,-26.9209,7.12502,7.30458,-56.7749,6.70898e-15,-2.22639e-14,21.8115,-15.1383,65.2985,136.037,3.75354,-37.7456,-23.3295,7.12502,-10.7939,6.37315,-1.28895,3.87951,23.836,26.2098,-14.9049,-12.0334,4.47475,1.22455,-0.124083,-12.6379,22.493,-16.991,5.23988,-3.99138
9.38019,17.8637,-17.561,-1.76173,-4.8522,-4.25084,5.43219,-0.603077,1.36171,0.909378,-0.652103,3.27816,-2.08693,-0.327747,2.65899,-8.81172,-3.2467,-6.78699,23.5746,-3.0018,-1.42839,8.93463,-2.1635,0.346368,-2.06612e-14,2.78299e-14,-30.2814,-8.33521,-82.0295,23.0542,-11.1981,-17.8382,-25.6224,7.12502,8.42645,-55.4343,-2.06612e-14,2.78299e-14,20.4442,-14.9879,65.6942,136.346,3.40674,-37.9361,-23.3686,7.12502,-10.9777,6.3244,-1.36041,3.73756,23.9329,26.1817,-14.8337,-12.0208,4.55945,0.991738,-0.195114,-12.52,22.6816,-17.0311,5.07705,-3.69691
9.38208,17.8683,-17.5825,-1.56884,-4.98559,-4.22216,5.59884,-0.619816,1.18616,0.75836,-0.670883,3.40316,-2.33164,-0.334369,2.8934,-8.11866,-3.05753,-6.99034,23.1072,-2.77867,-1.39962,8.64356,-2.061,0.428493,-5.61567e-15,-2.18663e-14,-30.5277,-7.42341,-82.2928,23.5887,-11.8479,-18.1772,-25.7034,7.12502,8.09933,-55.5282,-5.61567e-15,-2.18663e-14,19.4713,-14.8231,65.8971,136.524,2.75123,-38.057,-23.3957,7.12502,-11.0942,6.29102,-1.70241,3.89536,23.8974,26.2318,-14.7951,-12.0412,4.25531,0.670932,-0.17824,-12.5773,22.7572,-16.9262,5.15819,-2.98689
9.38252,17.872,-17.6027,-1.37606,-4.99688,-3.91756,5.60733,-0.545898,0.799301,0.820103,-0.598018,3.38854,-2.27189,-0.295329,3.09034,-8.03193,-3.08416,-7.142,22.7325,-2.81328,-1.35625,8.50466,-2.07541,0.469203,-1.86858e-14,1.51076e-14,-30.508,-7.25145,-82.3127,24.0221,-11.6573,-18.007,-25.2546,7.12502,8.26361,-55.073,-1.86858e-14,1.51076e-14,19.2136,-14.6365,66.1269,136.666,2.2373,-37.9099,-22.9665,7.12502,-10.9524,6.72786,-2.06894,3.95034,23.5476,26.3233,-14.8418,-12.0232,4.28659,0.346738,-0.166978,-12.914,22.7561,-16.8171,5.21531,-3.01612
9.38374,17.8736,-17.6206,-1.32395,-4.43941,-3.54037,5.87515,-0.647954,0.388275,0.895036,-0.754759,3.3854,-2.33159,-0.370297,3.33464,-8.34385,-3.14649,-7.30847,22.4916,-2.82301,-1.4568,8.48399,-2.09713,0.458814,-9.44227e-15,1.55052e-14,-30.2716,-7.81083,-81.7233,23.6355,-9.46191,-15.5909,-22.6336,7.12502,10.5948,-52.3465,-9.44227e-15,1.55052e-14,19.0551,-14.5255,66.587,136.797,2.08682,-37.9563,-22.7307,7.12502,-10.9971,6.96124,-2.22297,3.41778,23.0819,26.4362,-14.9673,-11.9208,4.53622,0.0809188,-0.247542,-13.2755,22.7159,-16.6929,4.81857,-3.63942
9.38735,17.8796,-17.6442,-1.24352,-4.1018,-3.56304,6.28745,-0.755798,0.355091,0.915192,-0.888052,3.5118,-2.53151,-0.434819,3.50345,-8.439,-3.10414,-7.36397,22.0271,-2.70543,-1.67993,8.33968,-2.05511,0.407313,-1.0138e-14,-2.54444e-14,-30.1166,-6.392,-82.217,23.765,-11.8933,-17.8562,-21.0192,7.12502,8.40916,-50.8318,-1.0138e-14,-2.54444e-14,18.6348,-14.6036,67.0252,136.804,1.6125,-38.4956,-23.4608,7.12502,-11.5172,6.20283,-2.41114,3.0287,23.0566,26.4941,-14.9058,-11.8659,4.38521,-0.18459,-0.282505,-13.2225,22.7258,-16.5614,4.5395,-4.03802
9.39602,17.8921,-17.674,-0.894534,-4.67007,-3.72027,6.48923,-0.585445,0.520301,0.821107,-0.638591,3.61039,-2.75678,-0.309313,3.49701,-8.03724,-2.99361,-7.42447,21.4268,-2.59204,-1.69135,8.06141,-1.98922,0.435923,-1.23495e-14,-5.56597e-15,-30.2183,-5.70584,-82.3993,24.3117,-11.9787,-17.9494,-22.2456,7.12502,8.31916,-52.0617,-1.23495e-14,-5.56597e-15,17.9439,-14.8756,67.2767,136.686,0.709935,-39.4375,-24.3371,7.12502,-12.4255,5.27356,-3.01313,3.10461,23.0931,26.542,-14.5846,-11.4569,3.95732,-0.570906,-0.00410362,-13.1257,22.7735,-16.5054,4.95839,-4.89992
9.38443,17.881,-17.6812,-1.34717,-3.07485,-3.66421,7.07722,-1.0281,0.363455,0.965106,-1.22894,3.61677,-2.89938,-0.601697,3.65642,-7.92045,-2.94495,-7.34304,21.1765,-2.57997,-1.56825,7.9544,-1.95755,0.468519,3.62782e-14,-3.33958e-14,-30.395,-5.20878,-82.6761,25.1074,-12.1674,-18.9421,-24.1951,7.12502,7.36101,-54.047,3.62782e-14,-3.33958e-14,17.2946,-15.1841,67.7154,136.645,-0.123222,-40.2817,-24.7426,7.12502,-13.2393,4.81694,-2.35347,2.3936,23.2283,26.5382,-14.9484,-12.2949,4.52096,-0.523786,-0.633185,-12.9994,22.9234,-16.5287,3.99208,-4.94417
9.39915,17.903,-17.7222,-0.647594,-4.30297,-3.4969,7.11413,-0.391351,0.408286,1.01258,-0.383523,3.42502,-2.92301,-0.181663,3.35154,-8.62563,-3.03458,-6.979,21.1203,-2.71625,-1.4828,8.05917,-1.98446,0.414068,-1.73937e-15,-1.31198e-14,-30.1685,-5.38496,-82.9757,25.9944,-12.7938,-22.0406,-24.3497,7.12502,4.36957,-54.2846,-1.73937e-15,-1.31198e-14,17.1995,-15.4892,68.2876,136.725,-0.631236,-40.8394,-25.2168,7.12502,-13.7768,4.30705,-3.46148,2.86857,22.8365,26.5411,-14.658,-11.5112,4.39458,-1.33569,-0.0629254,-13.3583,23.1408,-16.422,4.6134,-3.33044
9.40114,17.9104,-17.7536,-0.426959,-4.17063,-3.68576,7.36769,-0.431072,0.547418,1.02048,-0.414214,3.58523,-3.05475,-0.196964,3.44673,-8.45075,-2.92821,-7.18935,20.6863,-2.57507,-1.40179,7.88364,-1.91396,0.495058,-1.2275e-14,7.95139e-16,-30.1177,-5.18136,-82.9446,26.506,-12.7489,-17.7696,-24.8125,7.12502,8.49267,-54.6217,-1.2275e-14,7.95139e-16,16.2918,-15.2984,69.0743,136.899,-1.20257,-41.2479,-25.2338,7.12502,-14.1705,4.26291,-3.79557,2.97995,23.0743,26.4997,-14.6682,-11.6838,4.99198,-1.86863,-0.080395,-13.1343,23.4241,-16.2889,4.52477,-3.13656
9.40605,17.9109,-17.7791,-0.324379,-4.09667,-4.01949,7.61071,-0.449949,0.909432,1.13945,-0.402291,3.73879,-3.06947,-0.195115,3.40343,-8.3403,-2.92646,-7.26061,20.1378,-2.57518,-1.4393,7.68259,-1.9074,0.499899,-7.15625e-15,2.46493e-14,-30.041,-4.73276,-83.0727,27.2139,-12.6926,-17.5263,-24.5426,7.12502,8.72747,-54.3422,-7.15625e-15,2.46493e-14,15.361,-15.1269,69.7693,137.019,-1.56442,-41.6518,-25.1069,7.12502,-14.5597,4.36215,-3.99573,2.77457,23.397,26.4783,-14.4034,-11.614,4.9798,-2.21748,-0.119132,-12.7686,23.6999,-16.2908,4.57821,-3.98028
9.40625,17.9084,-17.7948,-0.25431,-3.90754,-4.29213,7.78991,-0.473313,1.20292,1.21974,-0.402206,3.85733,-3.0876,-0.198115,3.36315,-8.08029,-3.00623,-7.20459,19.5021,-2.70144,-1.5966,7.42719,-1.95923,0.43614,-2.88238e-15,1.11319e-14,-30.2407,-3.84385,-83.4101,28.3643,-13.4209,-18.3972,-24.7676,7.12502,7.88702,-54.6005,-2.88238e-15,1.11319e-14,14.1028,-15.0327,70.5457,137.23,-1.79438,-41.9258,-25.1257,7.12502,-14.8237,4.32403,-4.09923,2.53324,23.6864,26.4485,-14.1441,-11.6866,4.15771,-2.5245,-0.18803,-12.4334,23.9966,-16.4378,4.50203,-4.50271
9.40669,17.9114,-17.8154,-0.0245414,-3.75643,-4.42919,7.94752,-0.48627,1.40329,1.18981,-0.39365,3.90379,-3.20813,-0.195208,3.30055,-7.81292,-3.03146,-7.25624,18.9264,-2.77858,-1.53263,7.19469,-1.97743,0.467057,-1.94312e-14,-1.59028e-15,-30.398,-2.99606,-83.7801,29.3949,-14.1738,-18.7554,-24.4528,7.12502,7.54124,-54.2984,-1.94312e-14,-1.59028e-15,12.8645,-14.9142,71.2124,137.437,-1.89154,-41.9204,-24.5838,7.12502,-14.8185,4.86632,-4.44868,2.39054,23.8244,26.4928,-14.1061,-11.6573,4.35361,-3.00784,-0.284307,-12.2635,24.2419,-16.4752,4.48263,-4.89873
9.40747,17.9202,-17.85,0.276272,-3.75955,-4.3937,8.27648,-0.447536,1.41623,1.18091,-0.328232,3.88844,-3.40421,-0.162147,3.27556,-8.02003,-3.01717,-7.35322,18.5469,-2.776,-1.30585,7.11161,-1.95338,0.556351,1.6847e-14,-1.74931e-14,-30.3989,-2.27668,-84.171,30.4993,-14.5481,-19.2296,-25.2483,7.12502,7.08355,-55.1097,1.6847e-14,-1.74931e-14,11.9132,-14.8854,71.7684,137.485,-1.51776,-42.3027,-24.6317,7.12502,-15.1867,4.79098,-4.9796,2.45714,23.7777,26.5837,-14.1098,-11.5997,5.2755,-3.60896,-0.380199,-12.3065,24.4531,-16.393,4.59998,-5.04281
9.41131,17.9276,-17.8843,0.497781,-3.6516,-4.19099,8.57752,-0.428328,1.25436,1.28808,-0.311785,3.8483,-3.46087,-0.152427,3.32655,-8.33121,-3.0672,-7.47955,18.0492,-2.8589,-1.02282,7.01269,-1.96458,0.659923,1.39149e-15,-2.38542e-15,-30.3303,-1.65067,-84.4761,31.6894,-15.0957,-19.3814,-26.6327,7.12502,6.93702,-56.499,1.39149e-15,-2.38542e-15,10.9481,-14.7811,72.2236,137.474,-1.16472,-43.1994,-25.4637,7.12502,-16.0504,3.89156,-5.40354,2.3938,23.5264,26.6554,-14.0839,-11.583,5.43301,-4.15567,-0.493724,-12.5433,24.6953,-16.3608,4.60725,-5.02943
9.41485,17.9304,-17.91,0.702881,-3.54115,-4.2582,8.64647,-0.352551,1.42503,1.50481,-0.202607,3.81836,-3.28015,-0.101849,3.18445,-8.50149,-3.2425,-7.56467,17.33,-3.15251,-0.637491,6.82546,-2.06002,0.774243,3.8763e-15,-1.35174e-14,-30.1477,-1.33836,-84.7136,32.7841,-15.8774,-19.486,-25.798,7.12502,6.83601,-55.6676,3.8763e-15,-1.35174e-14,10.1654,-14.7573,72.5107,137.285,-0.671636,-43.6105,-26.6773,7.12502,-16.4462,2.64559,-5.75047,2.29444,23.577,26.7129,-14.0296,-11.5819,5.33814,-4.63096,-0.45892,-12.4593,24.9506,-16.3495,4.5111,-5.22751
9.4134,17.9318,-17.931,0.947494,-3.57643,-4.70277,8.79242,-0.342211,1.8853,1.59051,-0.138743,3.9706,-3.2761,-0.0747606,3.07737,-8.35813,-3.3256,-7.50583,16.4776,-3.30123,-0.649423,6.52952,-2.10748,0.75585,8.64713e-15,-1.11319e-14,-30.2315,-0.73564,-84.9179,33.9953,-16.3528,-19.4613,-24.5715,7.12502,6.8599,-54.4403,8.64713e-15,-1.11319e-14,9.08139,-14.697,73.064,137.029,0.275057,-43.3676,-27.3317,7.12502,-16.2123,2.01037,-6.08215,2.49026,24.102,26.7568,-14.0714,-11.7986,4.88225,-5.1007,-0.282954,-11.9351,25.2194,-16.2831,4.41479,-4.79328
9.41176,17.9358,-17.955,1.18842,-3.55155,-4.82666,9.05245,-0.410551,1.9168,1.60239,-0.21055,4.10788,-3.40528,-0.110255,3.21537,-8.16234,-2.9789,-7.39605,15.8762,-2.86361,-0.71327,6.28446,-1.87948,0.76118,-5.46658e-15,3.10104e-14,-30.5448,-0.0587842,-85.0706,35.6158,-16.467,-18.4692,-26.6495,7.12502,7.81747,-56.485,-5.46658e-15,3.10104e-14,7.64127,-14.6747,73.7356,136.98,0.993148,-43.821,-26.1584,7.12502,-16.6489,3.14753,-6.43586,2.61352,24.2596,26.8076,-14.0977,-11.9707,4.55634,-5.60336,-0.165889,-11.789,25.4794,-16.1938,4.2697,-4.01581
9.41352,17.9382,-17.9853,1.50482,-3.52415,-4.71686,9.19043,-0.263526,1.82348,1.65048,-0.0238396,4.00111,-3.43975,-0.0169103,3.13513,-8.08031,-3.05228,-6.74016,15.1311,-3.04657,-0.919494,6.02246,-1.92735,0.581281,4.96962e-15,-3.65764e-14,-31.014,-0.0514683,-85.3096,37.7781,-17.1875,-17.4595,-29.8888,7.12502,8.79196,-59.6856,4.96962e-15,-3.65764e-14,6.64974,-15.1257,74.1677,136.728,1.46914,-44.6934,-25.4288,7.12502,-17.4886,3.80454,-6.9536,2.55939,24.1081,26.898,-13.9772,-11.906,4.83612,-6.18871,-0.115222,-11.9088,25.6847,-16.1956,4.24775,-4.20136
9.42507,17.9383,-18.0123,1.81247,-3.53155,-4.46402,9.33426,-0.398647,1.60296,1.57919,-0.211823,4.10603,-3.58502,-0.106835,3.39578,-7.86442,-3.04014,-7.21703,14.4879,-3.00462,-0.856473,5.79198,-1.91288,0.688583,6.95746e-16,3.4191e-14,-31.4972,1.54821,-85.6585,39.6733,-19.078,-18.8338,-27.9274,7.12502,7.46556,-57.7757,6.95746e-16,3.4191e-14,4.99762,-14.4414,74.837,136.313,1.88121,-44.9452,-26.2837,7.12502,-17.731,2.92795,-7.47266,2.22235,23.7234,27.0372,-13.9871,-11.5753,4.63262,-6.69256,-0.180151,-12.2521,25.8124,-16.1796,4.46139,-4.82564
9.43745,17.9404,-18.039,2.01446,-3.52594,-4.12529,9.57049,-0.484166,1.42496,1.63485,-0.338024,4.06043,-3.65163,-0.167662,3.46751,-7.58159,-2.94071,-7.54719,13.5668,-2.91634,-0.536612,5.46138,-1.84108,0.858339,2.33572e-14,-1.19271e-14,-31.5071,2.30406,-85.8462,41.6299,-19.0097,-19.7825,-23.2366,7.12502,6.54983,-53.1153,2.33572e-14,-1.19271e-14,3.49403,-13.9308,75.2722,136.002,2.25292,-45.155,-26.699,7.12502,-17.9328,2.49427,-7.89412,1.92856,23.2601,27.2013,-14.1594,-11.2709,4.64976,-7.08462,-0.26703,-12.7036,25.9085,-16.0618,4.65219,-5.18094
9.43694,17.9427,-18.0626,2.14017,-3.55005,-4.13667,9.8158,-0.478698,1.42875,1.91458,-0.331633,4.09654,-3.49657,-0.166557,3.5027,-7.88008,-2.79545,-7.49761,12.7486,-2.73881,-0.366078,5.25025,-1.72006,0.916889,2.0773e-14,-5.32743e-14,-31.4597,2.71447,-86.0018,43.7967,-19.3292,-19.4151,-24.6847,7.12502,6.9045,-54.5521,2.0773e-14,-5.32743e-14,2.43119,-13.6794,75.6416,135.542,2.21665,-45.4597,-26.1706,7.12502,-18.2259,2.99555,-8.21812,2.02027,23.2867,27.3715,-14.2727,-11.2954,5.08811,-7.37563,-0.200841,-12.6743,25.9944,-15.9921,4.63218,-5.10044
9.44112,17.9418,-18.0829,2.25908,-3.52996,-4.17958,10.1001,-0.458866,1.56043,2.1111,-0.288164,4.11271,-3.45217,-0.147399,3.44167,-8.10756,-2.74891,-7.58518,12.0186,-2.69478,-0.0810141,5.06373,-1.66589,1.02348,2.5842e-15,-1.59028e-15,-31.6132,3.26605,-86.19,45.938,-20.146,-19.6208,-24.5042,7.12502,6.70585,-54.378,2.5842e-15,-1.59028e-15,1.35465,-13.5244,76.1043,134.89,2.17064,-45.0961,-24.871,7.12502,-17.8761,4.32737,-8.48674,1.86171,23.3006,27.5094,-14.2066,-11.1733,4.94112,-7.66154,-0.21469,-12.6411,26.1419,-15.9767,4.60623,-4.64745
9.45563,17.9412,-18.1063,2.48877,-3.49435,-4.01189,10.3083,-0.466111,1.62444,2.11109,-0.28426,4.05757,-3.56831,-0.145832,3.35051,-7.35094,-2.71994,-8.10666,10.7139,-2.76222,0.588086,4.5513,-1.64876,1.32467,9.34288e-15,-4.69132e-14,-31.6433,3.80254,-86.3619,47.4522,-20.622,-19.9112,-22.8442,7.12502,6.42556,-52.7268,9.34288e-15,-4.69132e-14,-0.270757,-13.3571,76.5598,134.361,2.14422,-44.7383,-23.9757,7.12502,-17.5318,5.25378,-8.86169,1.47932,23.0154,27.5709,-13.9787,-10.8945,4.05148,-8.15785,-0.346386,-12.8891,26.4418,-16.0522,4.70171,-4.71798
9.46115,17.9432,-18.1346,2.83235,-3.50221,-4.20086,10.4396,-0.411853,1.92992,2.1384,-0.175031,4.04822,-3.61856,-0.0946953,3.15501,-6.75594,-2.69397,-8.1346,9.43173,-2.84326,1.02361,4.06672,-1.63654,1.47042,-5.96354e-15,-1.66979e-14,-31.4079,3.86645,-86.5211,48.7854,-20.5169,-19.59,-20.9718,7.12502,6.73565,-50.8447,-5.96354e-15,-1.66979e-14,-1.78592,-13.3123,76.7872,133.8,2.06859,-44.5123,-23.5217,7.12502,-17.3143,5.72708,-9.34055,1.5276,23.2145,27.5804,-13.7016,-11.0204,3.31952,-8.83037,-0.308436,-12.6677,26.8168,-16.12,4.75619,-5.29737
9.45876,17.9417,-18.1653,3.17648,-3.45987,-4.64168,10.5642,-0.313759,2.39759,2.24838,0.00659764,4.04115,-3.57999,-0.00945968,2.85918,-6.91175,-2.70077,-7.52137,8.38171,-2.90573,0.980307,4.16817,-1.63709,1.50673,5.96354e-15,-2.94201e-14,-31.4078,3.62589,-86.7388,50.8342,-20.3068,-19.3347,-20.5645,7.12502,6.98206,-50.4294,5.96354e-15,-2.94201e-14,-2.83714,-13.3935,76.9413,133.286,2.65946,-43.5653,-22.8316,7.12502,-16.4027,6.49486,-9.78391,1.80032,23.7429,27.5653,-13.5118,-11.3104,3.38253,-9.51891,-0.156977,-12.1269,27.1797,-16.0826,4.65289,-5.20973
9.45927,17.9408,-18.1841,3.38328,-3.46024,-4.75503,10.6593,-0.253502,2.55859,2.36157,0.101879,4.00383,-3.51712,0.0361711,2.7161,-7.18797,-2.73559,-7.05916,7.95778,-2.98178,0.952284,4.06076,-1.6513,1.40683,1.19271e-14,3.97569e-15,-31.7648,3.60816,-86.9181,53.3978,-20.2955,-19.3554,-20.9106,7.12502,6.96211,-50.7761,1.19271e-14,3.97569e-15,-4.11253,-13.3139,77.3021,132.832,3.3096,-42.6232,-22.9072,7.12502,-15.4955,6.49182,-10.0432,1.84345,23.8636,27.5366,-13.5067,-11.3215,3.03375,-9.97849,0.0388719,-11.9974,27.4902,-16.1102,4.46266,-4.60827
9.46127,17.939,-18.1937,3.40405,-3.62607,-4.65152,10.8933,-0.205595,2.44743,2.42995,0.162049,4.01755,-3.57714,0.066632,2.78682,-7.17171,-2.77259,-7.0155,7.54261,-3.04217,0.959904,3.91095,-1.67095,1.39804,-6.75868e-15,3.26007e-14,-32.0561,3.9717,-86.9918,55.692,-20.47,-18.9507,-20.3169,7.12502,7.3527,-50.1692,-6.75868e-15,3.26007e-14,-5.75003,-12.8224,77.7993,132.417,4.29795,-40.7539,-22.7352,7.12502,-13.6945,6.79419,-10.1269,1.74582,23.7119,27.5492,-13.6838,-11.0308,2.93818,-10.109,0.189615,-12.1325,27.7128,-16.2329,4.46688,-4.71818
9.45929,17.9365,-18.2057,3.37654,-3.77215,-4.59149,11.2118,-0.185308,2.29189,2.47736,0.186599,4.06426,-3.70488,0.0798438,2.92325,-6.67812,-2.69249,-7.30145,6.72738,-2.97838,1.26841,3.53867,-1.61873,1.56068,5.56597e-15,7.95139e-15,-32.1817,4.44475,-87.0978,57.5873,-20.4082,-18.5534,-19.3046,7.12502,7.73618,-49.1431,5.56597e-15,7.95139e-15,-7.37179,-11.8632,78.0834,132.432,7.32045,-36.5288,-21.0172,7.12502,-9.61999,8.74314,-10.212,1.85205,23.6366,27.6453,-13.8927,-10.8673,4.21278,-10.1342,0.295512,-12.1784,27.7989,-16.2793,4.53867,-5.49338
9.45603,17.9367,-18.2223,3.47965,-3.77878,-4.59861,11.387,-0.215809,2.26005,2.55802,0.147449,4.07482,-3.71593,0.0604637,2.95909,-6.61966,-2.61823,-7.42253,6.11444,-2.89375,1.48764,3.3181,-1.5589,1.66051,-1.33186e-14,-3.33958e-14,-32.1512,4.86408,-87.2846,59.3306,-20.2114,-18.5953,-18.5811,7.12502,7.69579,-48.4211,-1.33186e-14,-3.33958e-14,-9.04251,-11.923,78.3332,130.946,4.9217,-38.4038,-21.7183,7.12502,-11.4288,7.95021,-10.4573,2.04167,23.6662,27.7826,-14.0087,-10.946,5.42362,-10.3459,0.498892,-12.1247,27.8462,-16.2399,4.36971,-5.78761
9.456,17.9355,-18.2371,3.62373,-3.82728,-4.54964,11.4686,-0.182555,2.22871,2.69311,0.183328,4.035,-3.62079,0.0780977,2.92923,-6.96889,-2.66818,-7.22604,5.77653,-2.95463,1.49598,3.26613,-1.57637,1.622,-1.41137e-14,7.95139e-15,-31.7851,5.12344,-87.4207,60.828,-20.2192,-18.8498,-17.9238,7.12502,7.45013,-47.7726,-1.41137e-14,7.95139e-15,-10.4072,-11.6671,78.6738,129.951,4.2739,-38.1514,-22.5696,7.12502,-11.1853,7.11221,-10.7474,2.07995,23.6114,27.9129,-14.0652,-10.8905,5.6412,-10.6353,0.666696,-12.1589,27.9901,-16.2483,4.26314,-5.67492
9.45917,17.9342,-18.2564,3.81488,-4.0443,-4.66497,11.6453,-0.141946,2.3052,2.71418,0.255125,4.07636,-3.69838,0.112743,2.92067,-6.64388,-2.62438,-7.15285,4.96034,-2.9434,1.62893,2.92378,-1.5496,1.65424,-3.97569e-16,-1.59028e-14,-31.3362,5.52056,-87.534,62.1441,-20.1472,-19.4632,-16.6251,7.12502,6.85807,-46.494,-3.97569e-16,-1.59028e-14,-11.9566,-11.1452,79.0482,129.106,3.97047,-37.501,-23.0311,7.12502,-10.5579,6.68373,-11.0861,2.25803,23.7137,28.0096,-14.0145,-10.8393,5.33096,-10.9856,0.792711,-12.0404,28.2342,-16.2748,4.4282,-6.03808
9.46222,17.9315,-18.2786,4.08408,-4.37673,-4.89747,11.709,-0.105233,2.45569,2.66313,0.330776,4.16521,-3.78915,0.148746,2.9191,-6.08749,-2.51102,-7.0982,4.1699,-2.84689,1.65756,2.54552,-1.48647,1.65993,1.47101e-14,-5.00937e-14,-31.1065,6.00317,-87.6373,63.6847,-19.9452,-19.9671,-15.269,7.12502,6.37157,-45.1532,1.47101e-14,-5.00937e-14,-13.5971,-10.5614,79.3054,128.118,3.40658,-37.5708,-23.7432,7.12502,-10.6253,5.96819,-11.5078,2.62956,23.9389,28.0837,-13.9774,-10.8072,5.48399,-11.4353,1.04381,-11.8105,28.5289,-16.2875,4.59393,-6.13616
9.46076,17.9279,-18.2922,4.23102,-4.64345,-4.97979,11.6687,-0.0733802,2.43753,2.79698,0.363391,4.21988,-3.62844,0.164895,2.98061,-6.23458,-2.42663,-7.0192,3.84066,-2.72708,1.57327,2.45244,-1.42151,1.62175,-2.06736e-14,4.77083e-14,-30.6836,6.46185,-87.6648,65.3045,-19.7658,-19.4011,-15.3543,7.12502,6.91794,-45.2213,-2.06736e-14,4.77083e-14,-14.75,-9.94567,79.4846,126.989,2.95656,-37.8784,-24.5634,7.12502,-10.922,5.13254,-11.775,2.94121,24.0206,28.1677,-14.0023,-10.777,5.93058,-11.7515,1.39334,-11.7312,28.8269,-16.3605,4.51397,-5.53713
9.45997,17.9255,-18.3058,4.31439,-4.60844,-5.05438,11.8483,-0.167487,2.49773,2.93908,0.250032,4.27787,-3.5744,0.107942,3.02481,-6.64243,-2.30751,-7.18358,3.54885,-2.53536,1.78955,2.4299,-1.31558,1.72902,-5.96354e-15,-3.26007e-14,-30.2114,7.07442,-87.726,66.9287,-19.6118,-20.9985,-13.164,7.12502,5.37582,-43.0758,-5.96354e-15,-3.26007e-14,-15.7341,-9.29804,79.658,126.051,2.99324,-37.7743,-24.7935,7.12502,-10.8216,4.90773,-11.9596,2.91396,24.1046,28.2767,-14.0231,-10.7587,6.30438,-12.0438,1.66089,-11.6266,29.1062,-16.4468,4.1632,-5.11597
9.46047,17.9231,-18.3192,4.39757,-4.48585,-5.1031,12.1327,-0.231508,2.61056,2.89699,0.195025,4.2379,-3.77222,0.0794727,2.9307,-6.58964,-2.28536,-7.1661,3.21306,-2.52911,2.10693,2.31441,-1.29704,1.8306,-1.31198e-14,1.74931e-14,-30.2272,7.34901,-87.8926,68.7323,-19.4534,-19.3908,-13.118,7.12502,6.92796,-42.9847,-1.31198e-14,1.74931e-14,-16.9978,-8.94173,79.7848,125.257,3.515,-37.0124,-24.3506,7.12502,-10.0866,5.38763,-12.1549,2.77154,24.1547,28.4171,-14.0437,-10.6863,6.71331,-12.317,1.7616,-11.5498,29.3219,-16.5245,3.90158,-4.78069
9.46522,17.9187,-18.3317,4.49569,-4.78363,-5.06417,12.3455,-0.148764,2.57862,2.79229,0.312392,4.1305,-4.00233,0.137034,2.82072,-6.39088,-2.32554,-7.09741,3.03724,-2.61678,2.36756,2.22829,-1.33035,1.90105,3.57812e-15,4.77083e-15,-30.3993,7.42321,-88.0589,70.5258,-19.1023,-20.6783,-14.3517,7.12502,5.68498,-44.2554,3.57812e-15,4.77083e-15,-18.3562,-8.68863,79.8555,124.036,3.1157,-37.5961,-24.4476,7.12502,-10.6496,5.26255,-12.4114,2.88319,24.0622,28.5644,-13.972,-10.525,6.58002,-12.4828,1.94481,-11.6284,29.4531,-16.5648,4.05206,-4.42729
9.47581,17.9142,-18.3435,4.65544,-5.31723,-5.04219,12.4277,-0.0432255,2.53095,2.72336,0.451462,4.09454,-4.12425,0.205596,2.78926,-6.37847,-2.22774,-7.32082,3.05546,-2.48153,2.64426,2.23656,-1.25872,2.03982,4.57205e-15,6.36111e-15,-30.3407,7.74627,-88.0867,72.1483,-18.6195,-20.5583,-14.5747,7.12502,5.80083,-44.4753,4.57205e-15,6.36111e-15,-19.6443,-8.21141,79.9833,122.698,2.16186,-38.9993,-25.3018,7.12502,-12.003,4.334,-12.7543,3.0369,23.9421,28.6876,-13.9098,-10.2618,5.65476,-12.6299,2.28463,-11.7355,29.5199,-16.6053,4.34454,-4.42272
9.48218,17.9146,-18.3412,4.7222,-5.53147,-4.94962,12.3199,-0.0215635,2.47317,2.75722,0.463202,4.05406,-4.02989,0.211945,2.77623,-6.37129,-2.07133,-7.41153,3.05397,-2.27641,2.86914,2.23047,-1.15158,2.1404,2.62396e-14,1.98785e-14,-30.0692,8.0913,-88.0466,73.5851,-18.4238,-20.4284,-13.7219,7.12502,5.92624,-43.619,2.62396e-14,1.98785e-14,-20.6972,-7.62599,80.0602,121.765,2.56872,-39.016,-26.4012,7.12502,-12.0191,3.23371,-12.8773,2.9908,23.7815,28.7568,-13.9829,-10.0575,4.89973,-12.6581,2.423,-11.8954,29.5589,-16.7534,4.51559,-4.87196
9.48863,17.9151,-18.3327,4.64697,-5.47062,-4.7993,12.1676,-0.0710461,2.44908,2.91102,0.374489,3.95076,-3.78162,0.168478,2.6922,-6.40068,-2.04783,-7.22637,2.9027,-2.26434,3.00495,2.18391,-1.13693,2.15159,1.53064e-14,1.59028e-15,-29.5853,8.34038,-88.0319,74.8965,-18.2557,-20.0973,-12.5299,7.12502,6.24585,-42.4178,1.53064e-14,1.59028e-15,-21.5058,-7.09408,79.9848,120.999,3.68553,-38.4712,-27.0224,7.12502,-11.4937,2.64252,-12.7455,2.67588,23.5754,28.7663,-14.0403,-9.82236,5.03399,-12.5335,2.39309,-12.1011,29.567,-16.9302,4.54462,-5.30291
9.49421,17.9108,-18.3314,4.60239,-5.44596,-4.8287,12.0941,-0.145985,2.53419,3.03933,0.274722,3.93482,-3.60338,0.118682,2.64076,-6.51278,-2.0721,-7.19354,2.75067,-2.29609,3.12742,2.15783,-1.14614,2.18434,-1.19271e-15,-1.66979e-14,-29.2248,8.63843,-87.9582,76.3369,-17.8673,-19.6798,-11.9563,7.12502,6.64895,-41.8319,-1.19271e-15,-1.66979e-14,-22.3564,-6.51008,79.8985,120.153,4.23425,-38.1348,-26.1318,7.12502,-11.1693,3.55095,-12.6416,2.46266,23.573,28.7318,-14.176,-9.56409,5.69742,-12.4385,2.45271,-12.0866,29.5302,-17.0664,4.49537,-5.4433
9.49586,17.9053,-18.3249,4.63006,-5.66174,-4.94255,12.0054,-0.171905,2.59896,3.04238,0.245163,3.98548,-3.55054,0.103614,2.66107,-6.47555,-2.00758,-7.35592,2.70877,-2.20418,3.24694,2.13793,-1.09878,2.25804,-1.68967e-14,5.08889e-14,-29.2506,8.94837,-87.8693,77.8811,-17.5015,-19.4537,-11.6807,7.12502,6.86722,-41.5493,-1.68967e-14,5.08889e-14,-23.4215,-5.79483,79.9094,119.303,4.38215,-38.0894,-24.8928,7.12502,-11.1255,4.79229,-12.6206,2.59778,23.6769,28.6841,-14.4409,-9.45027,5.61368,-12.3674,2.56863,-11.9655,29.508,-17.2117,4.60047,-5.72678
9.49539,17.8994,-18.3182,4.5737,-5.86172,-4.99451,12.0725,-0.103313,2.58967,3.03177,0.339441,4.00752,-3.60131,0.150075,2.6761,-6.43377,-1.99169,-7.29835,2.71581,-2.19076,3.24118,2.13047,-1.09193,2.24611,-2.78299e-15,-2.3059e-14,-29.1476,9.08279,-87.7141,79.1557,-17.2498,-19.9327,-11.5512,7.12502,6.40483,-41.4344,-2.78299e-15,-2.3059e-14,-24.3413,-5.26418,79.9959,118.511,4.55231,-38.1587,-24.1358,7.12502,-11.1923,5.5457,-12.5232,2.675,23.7403,28.6649,-14.545,-9.51747,4.23815,-12.2417,2.66453,-11.894,29.5554,-17.3741,4.72345,-6.09053
9.49063,17.8922,-18.326,4.49083,-5.75153,-5.04521,12.3906,-0.0315721,2.64405,3.0054,0.456683,3.94339,-3.8058,0.206985,2.56257,-6.53618,-2.08795,-6.94581,2.63677,-2.34119,3.24395,2.12418,-1.16082,2.17533,1.59028e-14,1.11319e-14,-28.744,8.87555,-87.5567,80.1727,-16.7813,-20.4185,-11.3156,7.12502,5.93575,-41.2124,1.59028e-14,1.11319e-14,-24.9104,-5.09939,79.8836,117.768,5.01596,-37.8623,-23.7167,7.12502,-10.9065,5.9801,-12.4389,2.48031,23.847,28.7031,-14.5661,-9.55399,3.49184,-12.2383,2.73639,-11.7776,29.6545,-17.4243,4.55099,-6.23124
9.48572,17.8835,-18.3289,4.48092,-5.68692,-5.21365,12.5519,0.0743672,2.85147,3.05733,0.624563,3.84254,-3.84058,0.28802,2.31362,-6.90001,-2.24232,-6.44685,2.556,-2.56646,3.2696,2.16597,-1.26304,2.08169,-6.75868e-15,-7.95139e-16,-28.1915,8.3706,-87.4282,81.2084,-16.2627,-19.8913,-10.7925,7.12502,6.44479,-40.6745,-6.75868e-15,-7.95139e-16,-25.1756,-5.01437,79.628,116.952,5.38106,-37.0822,-23.6643,7.12502,-10.1539,6.07067,-12.4503,2.47353,24.0715,28.793,-14.6449,-9.55163,4.16069,-12.3139,2.77454,-11.5401,29.7952,-17.4491,4.44715,-6.31083
9.47982,17.8755,-18.327,4.51916,-5.89206,-5.34425,12.563,0.096964,2.72745,2.90379,0.65332,3.98147,-4.01158,0.302687,2.52642,-6.27712,-2.15578,-6.75496,2.32119,-2.47451,3.51407,1.98206,-1.21632,2.22416,3.37934e-15,-4.77083e-15,-28.294,8.65776,-87.1983,82.427,-16.0623,-19.2732,-10.6615,7.12502,7.04144,-40.5244,3.37934e-15,-4.77083e-15,-26.2756,-4.30137,79.6569,116.284,5.34662,-36.4241,-23.8885,7.12502,-9.51899,5.87652,-12.5497,2.80046,24.2347,28.923,-14.6511,-9.63428,4.53147,-12.3859,2.90404,-11.3734,29.9658,-17.5518,4.58439,-6.67897
9.47325,17.8712,-18.3305,4.48172,-6.09655,-5.30033,12.6843,0.172928,2.49746,2.87316,0.732698,4.0005,-4.11554,0.343686,2.66449,-6.17728,-2.14356,-6.93807,2.22515,-2.45915,3.75372,1.94098,-1.20448,2.33869,-7.35503e-15,-3.33958e-14,-28.1171,8.70778,-86.975,83.5611,-16.0907,-19.1054,-10.7362,7.12502,7.20338,-40.5936,-7.35503e-15,-3.33958e-14,-26.9855,-3.86234,79.5683,115.683,5.46479,-36.5328,-24.1513,7.12502,-9.62394,5.6089,-12.6007,2.96351,24.2155,29.0579,-14.6753,-9.63719,4.3901,-12.3941,3.1682,-11.4033,30.1274,-17.5891,4.54946,-6.84134
9.46942,17.8685,-18.3256,4.34686,-6.16108,-5.23036,12.7642,0.22791,2.33117,2.912,0.784864,3.9824,-4.12218,0.370922,2.73107,-6.12508,-2.22376,-6.85464,2.03351,-2.57353,3.73761,1.87286,-1.25941,2.3126,-1.19271e-14,2.14687e-14,-27.7548,8.65322,-86.7126,84.5549,-16.0385,-18.9914,-10.6452,7.12502,7.31343,-40.4989,-1.19271e-14,2.14687e-14,-27.453,-3.51432,79.4902,115.128,5.60828,-36.7847,-23.8927,7.12502,-9.8669,5.85611,-12.4502,2.94198,24.1685,29.1468,-14.8421,-9.55431,4.59727,-12.2691,3.31734,-11.4562,30.2419,-17.635,4.39543,-6.57604
9.46876,17.8675,-18.3196,4.31485,-6.23544,-5.26477,12.7762,0.261304,2.29451,2.88932,0.825698,3.97779,-4.15432,0.391396,2.7405,-5.98544,-2.30919,-6.74281,1.78621,-2.70138,3.70072,1.77037,-1.32155,2.27416,2.52457e-14,5.725e-14,-27.4904,8.83128,-86.5531,85.4736,-15.35,-19.5636,-11.016,7.12502,6.76109,-40.8881,2.52457e-14,5.725e-14,-27.974,-3.03974,79.3733,114.606,5.52986,-36.7309,-23.6436,7.12502,-9.81503,6.10765,-12.375,2.97145,24.2092,29.1881,-14.8947,-9.48767,4.75111,-12.228,3.35357,-11.4079,30.3283,-17.7858,4.33646,-6.31723
9.46973,17.8697,-18.3169,4.32451,-6.36201,-5.32247,12.9154,0.271764,2.34328,2.80901,0.855272,3.94904,-4.31491,0.40502,2.6785,-6.05779,-2.29683,-6.94868,1.79389,-2.67582,4.01484,1.79684,-1.30309,2.41838,1.92821e-14,2.06736e-14,-27.1574,8.96519,-86.4195,86.2982,-15.245,-19.2101,-11.359,7.12502,7.10237,-41.2199,1.92821e-14,2.06736e-14,-28.5181,-2.49417,79.1591,114.126,5.45782,-36.5994,-23.6383,7.12502,-9.68812,6.11887,-12.4156,3.00954,24.2543,29.1946,-14.777,-9.44368,4.42312,-12.2399,3.44492,-11.3631,30.4345,-17.8684,4.28995,-5.56513
9.46632,17.8688,-18.3161,4.28775,-6.58199,-5.34545,13.1639,0.35987,2.30761,2.72424,0.980488,3.89689,-4.54402,0.466332,2.62351,-6.37996,-2.26342,-7.31375,2.13945,-2.60651,4.56281,1.98692,-1.25966,2.67577,5.76476e-15,-5.96354e-15,-26.8868,8.80155,-86.1896,87.1361,-15.5649,-19.3893,-11.6721,7.12502,6.92935,-41.5387,5.76476e-15,-5.96354e-15,-29.0695,-2.17153,78.9808,113.717,5.60636,-36.5786,-23.6289,7.12502,-9.66807,6.12922,-12.4131,3.22343,24.2802,29.2001,-14.6888,-9.44657,4.14197,-12.1754,3.65861,-11.34,30.5048,-17.8301,4.30913,-5.12387
9.46046,17.8642,-18.3194,4.29772,-6.84001,-5.47477,13.3212,0.501216,2.33536,2.69337,1.17765,3.85246,-4.66725,0.562366,2.52726,-6.56211,-2.29762,-7.29419,2.23186,-2.65146,4.7722,2.05872,-1.27573,2.74188,1.55052e-14,3.45885e-14,-26.6864,8.6028,-85.9792,87.9667,-15.3202,-20.4106,-11.5106,7.12502,5.9434,-41.4072,1.55052e-14,3.45885e-14,-29.4986,-1.96207,78.7858,113.282,5.76157,-36.6579,-23.8259,7.12502,-9.74456,5.9287,-12.4414,3.58455,24.4432,29.2332,-14.7129,-9.52043,4.02372,-12.1269,3.86044,-11.1778,30.5014,-17.8088,4.38107,-5.53333
9.46012,17.8627,-18.311,4.2043,-6.93068,-5.36696,13.2491,0.616183,2.30516,2.80545,1.30728,3.67585,-4.50956,0.626282,2.33565,-6.51417,-2.3856,-6.98244,1.94382,-2.79494,4.83044,1.95813,-1.34092,2.69546,6.36111e-15,-1.07344e-14,-26.3373,8.36457,-85.873,88.6101,-14.5661,-21.5889,-11.1715,7.12502,4.8057,-41.097,6.36111e-15,-1.07344e-14,-29.5818,-1.84489,78.514,112.831,5.63552,-36.6561,-23.5461,7.12502,-9.74283,6.20853,-12.3571,3.637,24.3109,29.32,-14.9162,-9.44261,4.27908,-11.9551,3.75316,-11.3035,30.4762,-17.9002,4.47393,-5.96268
9.46289,17.861,-18.2986,4.04981,-6.92215,-5.11505,13.2677,0.708362,2.12536,2.83215,1.39628,3.5178,-4.49419,0.671841,2.25531,-6.65838,-2.49724,-6.91467,2.04193,-2.95159,5.05157,2.03153,-1.41213,2.7516,-1.59028e-15,-2.62396e-14,-26.115,8.07671,-85.6671,89.1989,-14.1667,-21.9214,-10.6086,7.12502,4.48466,-40.5411,-1.59028e-15,-2.62396e-14,-29.8316,-1.78071,78.3527,112.547,5.4266,-36.802,-22.8885,7.12502,-9.88366,6.85946,-12.23,3.54142,24.013,29.4541,-15.0219,-9.38557,4.35865,-11.7486,3.52823,-11.5888,30.4804,-18.0045,4.62366,-6.25327
9.46253,17.8569,-18.2979,4.07491,-6.94945,-5.18233,13.5052,0.717337,2.07173,2.6533,1.42355,3.59429,-4.81704,0.685419,2.36015,-7.00214,-2.58164,-6.91204,2.45172,-3.0465,4.93721,2.23403,-1.46107,2.70903,-6.4605e-15,2.50469e-14,-26.036,8.0947,-85.3219,89.7329,-14.1892,-21.3738,-9.68161,7.12502,5.0134,-39.6023,-6.4605e-15,2.50469e-14,-30.4555,-1.36558,78.3293,112.334,5.26638,-36.9017,-22.4902,7.12502,-9.97977,7.25324,-12.3285,3.67469,24.1081,29.605,-14.9805,-9.55766,4.08305,-11.7754,3.54587,-11.5077,30.5046,-17.9104,4.72262,-6.24532
9.4598,17.8495,-18.2991,4.14388,-7.02747,-5.36035,13.6552,0.688416,2.12118,2.54832,1.40801,3.67165,-5.01066,0.676882,2.41599,-7.18293,-2.60527,-6.76312,2.55547,-3.06928,4.66437,2.29188,-1.47676,2.58694,-4.87022e-15,-1.98785e-14,-25.744,8.15637,-85.0466,90.2028,-14.4924,-20.8163,-8.92534,7.12502,5.55175,-38.8326,-4.87022e-15,-1.98785e-14,-30.9155,-0.7639,78.1822,112.1,5.23822,-36.4133,-22.5454,7.12502,-9.50863,7.22004,-12.4556,3.86867,24.3227,29.7335,-14.934,-9.68569,4.15427,-11.8735,3.70539,-11.3084,30.597,-17.8089,4.75704,-6.26126
9.45802,17.8431,-18.2955,4.14357,-7.08005,-5.37439,13.6677,0.73451,2.1078,2.55032,1.46362,3.60286,-5.01544,0.70397,2.3408,-7.08374,-2.6071,-6.76203,2.37493,-3.08328,4.8546,2.21958,-1.47845,2.65023,2.03754e-14,2.54444e-14,-25.404,7.89619,-84.8598,90.7237,-14.6827,-20.7114,-8.84731,7.12502,5.65296,-38.7519,2.03754e-14,2.54444e-14,-31.1496,-0.510443,77.9393,111.949,5.45886,-35.8726,-22.6509,7.12502,-8.98691,7.13769,-12.4651,3.96406,24.3322,29.7945,-14.9054,-9.68495,4.45243,-11.9459,3.82785,-11.2917,30.7854,-17.9518,4.71685,-6.42183
9.45783,17.8417,-18.2908,4.08645,-7.02855,-5.41184,13.7037,0.765264,2.16957,2.54914,1.51169,3.54637,-5.0345,0.726216,2.23728,-6.55123,-2.57361,-6.922,1.86548,-3.06404,5.25399,1.9668,-1.46364,2.8168,-2.39536e-14,1.07344e-14,-25.2438,7.67143,-84.6564,91.2731,-14.4897,-20.7339,-8.87609,7.12502,5.63124,-38.7813,-2.39536e-14,1.07344e-14,-31.3783,-0.42202,77.7936,111.784,5.65636,-36.1334,-22.5178,7.12502,-9.23851,7.25985,-12.375,4.03289,24.3748,29.7944,-14.9533,-9.72429,4.93862,-11.9627,3.88615,-11.2504,30.9687,-18.1029,4.569,-6.06951
9.46023,17.8403,-18.2827,3.98723,-6.89288,-5.56582,13.7253,0.722265,2.3687,2.61991,1.48249,3.5741,-4.96657,0.709103,2.15907,-6.412,-2.61227,-7.05478,1.5659,-3.1124,5.40979,1.85351,-1.48538,2.89237,4.07509e-15,2.98177e-14,-24.997,7.69244,-84.3439,91.7786,-14.3234,-20.9136,-8.83632,7.12502,5.45773,-38.746,4.07509e-15,2.98177e-14,-31.4794,-0.13019,77.7378,111.564,5.78712,-36.694,-22.6964,7.12502,-9.77945,7.0565,-12.197,3.93801,24.5592,29.7397,-14.8429,-9.86135,4.71008,-11.902,3.86911,-11.076,31.0921,-18.0497,4.38976,-5.49588
9.46025,17.8399,-18.2728,3.92003,-6.75715,-5.67412,13.7672,0.734332,2.48191,2.66848,1.51507,3.58729,-4.93638,0.72361,2.10292,-6.72265,-2.73586,-7.00089,1.65997,-3.2635,5.3915,1.94967,-1.55734,2.86851,1.98785e-15,-4.49253e-14,-24.8953,7.47356,-84.0153,92.4183,-14.3546,-21.0787,-8.99842,7.12502,5.29839,-38.9122,1.98785e-15,-4.49253e-14,-31.4301,0.0758262,77.6898,111.337,6.0451,-36.5554,-22.7489,7.12502,-9.64567,7.01027,-12.0359,3.76496,24.6872,29.6526,-14.6954,-9.88065,4.45125,-11.8623,3.84093,-10.9318,31.1699,-17.9393,4.26645,-5.73701
9.45846,17.8422,-18.2652,3.91738,-6.70276,-5.76145,13.8743,0.844605,2.53164,2.5813,1.67749,3.5833,-5.08904,0.801815,2.0405,-6.4642,-2.81148,-6.89022,1.44396,-3.38604,5.42798,1.83769,-1.61891,2.85521,1.2921e-15,2.0276e-14,-25.0636,6.94293,-83.6881,93.0088,-14.2818,-21.0358,-8.44479,7.12502,5.33976,-38.3575,1.2921e-15,2.0276e-14,-31.4628,-0.0332346,77.7204,111.158,6.44666,-36.2061,-22.4985,7.12502,-9.3087,7.27602,-11.9523,3.7614,24.7739,29.573,-14.7433,-9.79132,4.84656,-11.8788,3.75367,-10.8301,31.2443,-17.962,4.33694,-6.21206
9.46036,17.8471,-18.2563,3.89973,-6.60977,-5.73056,13.971,0.924326,2.55435,2.46622,1.79349,3.52312,-5.26341,0.85698,1.94173,-6.18455,-2.88062,-6.89872,1.31715,-3.498,5.59409,1.75799,-1.67436,2.91026,1.5207e-14,3.18055e-15,-25.1237,6.52933,-83.3483,93.4219,-14.1374,-21.0878,-7.80892,7.12502,5.28955,-37.7229,1.5207e-14,3.18055e-15,-31.6415,-0.251933,77.7375,111.053,6.79937,-36.1323,-22.5373,7.12502,-9.2375,7.24033,-11.8881,3.70938,24.718,29.5338,-14.8641,-9.7083,5.36188,-11.9078,3.61536,-10.8932,31.3151,-17.9761,4.37006,-5.73795
9.46235,17.8491,-18.2484,3.91213,-6.39654,-5.79251,14.0067,0.889901,2.69484,2.3701,1.77399,3.49436,-5.37919,0.84398,1.83497,-6.06626,-2.93841,-6.90333,1.35369,-3.58738,5.70727,1.75826,-1.71841,2.94715,-6.95746e-15,-5.96354e-15,-25.1231,6.36101,-83.0698,93.9621,-14.205,-21.0909,-8.4698,7.12502,5.28656,-38.3839,-6.95746e-15,-5.96354e-15,-31.8336,-0.299117,77.6576,110.913,6.90511,-36.1911,-22.3424,7.12502,-9.29419,7.43277,-11.8939,3.52834,24.7786,29.5604,-14.8862,-9.7076,5.64943,-12.002,3.56706,-10.8188,31.3647,-17.9286,4.1402,-5.29081
9.46302,17.8467,-18.2413,3.98614,-6.30435,-5.90548,13.9205,0.811302,2.80834,2.33824,1.68802,3.55855,-5.36305,0.80043,1.85548,-5.90938,-2.9105,-7.18524,1.21309,-3.54001,5.8514,1.69242,-1.69538,3.05286,7.85199e-15,4.13472e-14,-25.0314,6.46382,-82.7697,94.4947,-14.3476,-20.5353,-8.99231,7.12502,5.82297,-38.8923,7.85199e-15,4.13472e-14,-31.9604,0.0321157,77.6236,110.823,6.90268,-36.3772,-21.7317,7.12502,-9.47373,8.03538,-11.9892,3.45311,24.8933,29.6461,-14.8518,-9.68638,5.97975,-12.1248,3.67643,-10.6833,31.4258,-17.9418,3.91691,-5.51919
9.46257,17.8446,-18.2339,4.00849,-6.3514,-5.7574,13.8363,0.827037,2.67608,2.39664,1.67923,3.50875,-5.25698,0.798992,1.87993,-6.13086,-2.92687,-7.5191,1.22536,-3.53278,6.15489,1.75455,-1.68494,3.2206,2.08724e-15,1.78906e-14,-24.7049,6.3565,-82.5109,94.8084,-14.2943,-19.588,-8.25813,7.12502,6.73759,-38.1309,2.08724e-15,1.78906e-14,-31.8795,0.299018,77.5772,110.826,6.99388,-36.2097,-21.0997,7.12502,-9.31219,8.67465,-12.069,3.44445,24.7129,29.7843,-14.9187,-9.55443,6.32157,-12.1469,3.84327,-10.866,31.4744,-17.9113,3.85985,-5.83895
9.46628,17.8391,-18.2306,4.01327,-6.10644,-5.67835,13.7729,0.880563,2.7695,2.50202,1.74631,3.35173,-5.10359,0.830686,1.65011,-6.46086,-3.08023,-7.29698,1.20778,-3.73833,6.3177,1.82317,-1.77774,3.22342,1.00386e-14,6.36111e-15,-24.2771,5.64391,-82.3425,95.0212,-14.1289,-18.9215,-7.6304,7.12502,7.38097,-37.4816,1.00386e-14,6.36111e-15,-31.4712,0.0248122,77.5081,110.673,6.92437,-36.1202,-20.8708,7.12502,-9.22581,8.90735,-12.1718,3.2132,24.6293,29.9841,-14.9841,-9.65038,5.68703,-12.2032,3.71015,-10.9575,31.4414,-17.8089,3.84596,-5.99856
9.47125,17.8381,-18.2278,4.01915,-5.68078,-5.60629,13.6838,0.874373,2.81199,2.5784,1.73334,3.29377,-4.9706,0.824816,1.56858,-6.46167,-3.16606,-7.245,1.00116,-3.85504,6.4528,1.76676,-1.83224,3.25458,-1.68967e-14,-1.82882e-14,-24.0159,5.07669,-82.0621,95.2916,-14.0945,-18.7717,-7.47941,7.12502,7.52556,-37.3255,-1.68967e-14,-1.82882e-14,-31.2271,-0.194094,77.5882,110.514,6.83591,-36.0707,-20.9405,7.12502,-9.17807,8.83976,-12.3031,2.9034,24.5618,30.2234,-14.9429,-9.8287,5.20648,-12.307,3.37453,-11.0276,31.3685,-17.7475,3.74089,-5.77745
9.47549,17.8451,-18.2191,3.98589,-5.42868,-5.21788,13.6689,0.890138,2.40004,2.59752,1.69351,3.27951,-4.95352,0.81191,1.79316,-6.38654,-3.16074,-7.49663,0.803869,-3.83008,6.56588,1.6972,-1.81956,3.34352,-1.72943e-14,-4.77083e-14,-23.9129,4.84666,-81.6466,95.6349,-14.0506,-18.8627,-7.53332,7.12502,7.43769,-37.3826,-1.72943e-14,-4.77083e-14,-31.2416,-0.120813,77.7866,110.573,7.23535,-35.7705,-20.9229,7.12502,-8.88833,8.86991,-12.3989,2.51411,24.1065,30.4446,-14.8939,-9.70026,4.75156,-12.3404,3.22409,-11.4827,31.3501,-17.7686,3.5938,-5.60391
9.48094,17.8453,-18.2142,3.96333,-5.30035,-4.93784,13.7629,0.920139,2.16316,2.64647,1.69831,3.22533,-4.95877,0.817526,1.86793,-6.54543,-3.22729,-7.46339,0.610988,-3.90136,6.46754,1.66384,-1.85375,3.29806,6.55989e-15,-2.78299e-15,-23.6327,4.60739,-81.3306,95.9316,-14.0179,-18.8837,-8.11632,7.12502,7.41745,-37.9663,6.55989e-15,-2.78299e-15,-31.0057,-0.0662266,77.8851,110.53,7.57245,-35.9244,-21.2623,7.12502,-9.03685,8.52412,-12.4751,2.05784,23.7581,30.5833,-14.8115,-9.54699,3.71225,-12.394,3.25295,-11.8384,31.42,-17.7969,3.52193,-5.57289
9.47726,17.8405,-18.2144,3.94136,-5.2148,-5.03105,13.8578,0.883376,2.18223,2.7361,1.65499,3.27159,-4.91624,0.796253,1.91291,-6.70686,-3.24853,-7.4174,0.444399,-3.9126,6.32025,1.63296,-1.85895,3.23592,7.55382e-15,4.09496e-14,-23.2547,4.56459,-81.159,96.1948,-14.2437,-19.3344,-8.61113,7.12502,6.98238,-38.476,7.55382e-15,4.09496e-14,-30.7669,0.180321,77.8698,110.404,7.55056,-35.9408,-21.7961,7.12502,-9.05267,7.98964,-12.4854,2.00108,23.8834,30.6312,-14.7595,-9.61064,3.70395,-12.4844,3.33887,-11.7087,31.5895,-17.8452,3.33523,-5.03454
9.46932,17.8401,-18.2109,3.89914,-5.04705,-5.33224,13.7935,0.805272,2.30883,2.84773,1.57073,3.42886,-4.76276,0.754637,2.02329,-6.70127,-3.22367,-7.48474,0.329647,-3.86809,6.23064,1.58991,-1.83831,3.21955,-7.65321e-15,-3.10104e-14,-23.0005,4.54026,-80.9611,96.4767,-14.4599,-19.7269,-8.65436,7.12502,6.60346,-38.5314,-7.65321e-15,-3.10104e-14,-30.6716,0.45418,77.8895,110.372,7.57864,-35.7199,-22.1452,7.12502,-8.83949,7.64969,-12.3897,2.18348,24.2796,30.6076,-14.7582,-9.86656,4.31115,-12.5951,3.40987,-11.2961,31.8477,-17.8766,2.9174,-4.41442
9.46804,17.8412,-18.2084,3.8844,-4.82317,-5.63903,13.6692,0.784838,2.55392,2.93718,1.57582,3.56478,-4.59772,0.755678,2.02873,-6.51193,-3.28378,-7.51197,0.119253,-3.9521,6.20491,1.49294,-1.88271,3.2136,-1.32192e-14,3.57812e-15,-22.8132,4.29429,-80.6441,96.7528,-14.6092,-19.6873,-8.70564,7.12502,6.64171,-38.5815,-1.32192e-14,3.57812e-15,-30.4925,0.433923,78.0243,110.352,7.66564,-35.7261,-22.2215,7.12502,-8.84549,7.57306,-12.3069,2.18198,24.6534,30.545,-14.6483,-10.1072,4.45573,-12.747,3.42794,-10.9381,32.0914,-17.8091,2.67666,-4.35842
9.46981,17.8444,-18.2061,3.93281,-4.6671,-5.65316,13.6893,0.820317,2.61535,2.89353,1.63476,3.56422,-4.65408,0.783687,1.9829,-6.25356,-3.35995,-7.49036,-0.118659,-4.06635,6.22019,1.37702,-1.94224,3.21236,-1.40143e-14,-3.89618e-14,-22.7484,3.98334,-80.3742,97.0308,-14.8055,-20.3152,-8.88911,7.12502,6.03554,-38.7831,-1.40143e-14,-3.89618e-14,-30.417,0.276841,78.1621,110.357,7.77555,-35.6401,-21.8628,7.12502,-8.76254,7.93534,-12.3498,2.03095,24.6652,30.517,-14.5934,-10.1337,4.67162,-12.9272,3.39901,-10.9434,32.2401,-17.7482,2.5965,-3.95711
9.46801,17.8522,-18.2063,4.03989,-4.58924,-5.54528,13.8589,0.865431,2.56063,2.75841,1.69709,3.47896,-4.88963,0.813063,1.9107,-6.31615,-3.44937,-7.65674,0.00536788,-4.17949,6.4727,1.45076,-1.99458,3.32654,-1.55052e-14,1.43125e-14,-22.8329,3.7042,-80.2635,97.3846,-14.8986,-21.0982,-9.04292,7.12502,5.27955,-38.9572,-1.55052e-14,1.43125e-14,-30.4603,0.081222,78.1879,110.42,7.99306,-35.4505,-21.4598,7.12502,-8.57952,8.34589,-12.5325,1.99604,24.5563,30.5846,-14.6201,-10.1611,4.90852,-13.1507,3.39896,-11.0571,32.3166,-17.6776,2.47715,-3.49611
9.46548,17.8567,-18.209,4.1002,-4.42785,-5.5486,14.003,0.871879,2.57144,2.74969,1.71368,3.46057,-4.97722,0.820318,1.88059,-6.83542,-3.51971,-7.96521,0.404493,-4.23555,6.80472,1.70158,-2.01106,3.49498,4.96962e-15,1.94809e-14,-22.6729,3.51296,-80.1212,97.7041,-14.9782,-21.3931,-8.98045,7.12502,4.9948,-38.9016,4.96962e-15,1.94809e-14,-30.2788,-0.0481142,78.227,110.463,8.26658,-35.2951,-21.409,7.12502,-8.42954,8.40278,-12.6857,2.04044,24.5748,30.7507,-14.7177,-10.1957,5.68862,-13.3099,3.38032,-11.0345,32.3377,-17.5645,2.37159,-4.01106
9.47055,17.8549,-18.2081,4.11423,-4.11552,-5.5627,14.0518,0.788863,2.70062,2.78989,1.62283,3.446,-4.95586,0.77396,1.80825,-7.11023,-3.51066,-7.88847,0.507462,-4.21211,6.75564,1.77969,-1.99595,3.46171,6.95746e-15,1.94809e-14,-22.341,3.37179,-80.015,97.8782,-15.0257,-21.0772,-8.86556,7.12502,5.29982,-38.7793,6.95746e-15,1.94809e-14,-30.0085,-0.11714,78.275,110.397,8.54198,-35.1275,-21.6088,7.12502,-8.26781,8.20946,-12.7561,1.77583,24.5524,30.9721,-15.0028,-9.92929,6.88487,-13.4049,3.20068,-11.0244,32.3371,-17.4912,2.28196,-4.36031
9.47537,17.8509,-18.2035,4.09169,-3.9021,-5.50335,14.1015,0.717413,2.72267,2.75608,1.53389,3.4051,-5.01582,0.729348,1.76819,-6.89698,-3.48111,-7.70806,0.406801,-4.19527,6.62953,1.6961,-1.99228,3.38514,-9.64106e-15,-3.77691e-14,-22.2343,3.21663,-80.01,98.074,-15.0102,-20.7352,-8.82298,7.12502,5.63003,-38.7282,-9.64106e-15,-3.77691e-14,-29.9786,-0.173421,78.2802,110.305,8.71049,-35.0667,-21.7988,7.12502,-8.20916,8.02172,-12.8226,1.40944,24.4375,31.2326,-15.304,-9.58626,7.29997,-13.4328,3.0499,-11.0939,32.3526,-17.5298,2.23792,-4.30828
9.47475,17.8457,-18.1972,4.03707,-3.7916,-5.35917,14.1529,0.701172,2.47538,2.71223,1.4828,3.43671,-5.09703,0.707768,1.95015,-6.57954,-3.47505,-7.66995,0.33719,-4.20615,6.50146,1.61078,-2.00468,3.33553,-1.02374e-14,-5.52621e-14,-22.3179,3.117,-79.886,98.3879,-15.149,-21.1934,-8.86432,7.12502,5.18765,-38.7808,-1.02374e-14,-5.52621e-14,-30.0798,-0.141949,78.366,110.228,8.70252,-35.0715,-21.8243,7.12502,-8.21377,7.99608,-12.8778,1.26333,24.2729,31.4766,-15.4061,-9.59985,6.93457,-13.4034,2.97768,-11.2307,32.3842,-17.6567,2.19226,-4.60964
9.47422,17.8406,-18.1985,4.0715,-3.68562,-5.24881,14.1932,0.720999,2.26306,2.69896,1.48338,3.48955,-5.1401,0.711576,2.1257,-6.52038,-3.52696,-7.40603,0.269662,-4.28696,6.11516,1.5625,-2.05174,3.14799,-2.99171e-14,-4.21423e-14,-22.3536,3.01115,-79.7214,98.6947,-15.1316,-21.0392,-8.16456,7.12502,5.33648,-38.0774,-2.99171e-14,-4.21423e-14,-29.951,-0.202186,78.508,110.104,8.7837,-34.9666,-21.6811,7.12502,-8.11257,8.14317,-13.0176,1.2027,24.1564,31.6545,-15.3759,-9.70212,6.69131,-13.5037,2.89803,-11.3436,32.4318,-17.6823,2.15097,-4.86734
9.47376,17.8417,-18.2021,4.11409,-3.57193,-5.28093,14.2605,0.764489,2.27046,2.73983,1.54427,3.50904,-5.13549,0.741464,2.13041,-6.91153,-3.63778,-7.28166,0.407111,-4.4188,5.9766,1.67913,-2.11464,3.06662,-2.68359e-15,1.19271e-15,-22.1901,2.73318,-79.6302,98.9538,-15.1901,-21.1742,-7.96033,7.12502,5.20617,-37.8764,-2.68359e-15,1.19271e-15,-29.5905,-0.416399,78.5839,109.974,8.93988,-34.8187,-21.5196,7.12502,-7.96974,8.31016,-13.1417,1.11422,24.1984,31.7831,-15.3601,-9.73729,6.63199,-13.6045,2.86769,-11.3069,32.4622,-17.6486,2.09514,-5.05758
9.47445,17.8428,-18.2008,4.12821,-3.44642,-5.38835,14.3615,0.773638,2.40494,2.69502,1.5831,3.50438,-5.23532,0.757842,2.04141,-6.98268,-3.70977,-7.35898,0.456441,-4.51019,6.13205,1.72308,-2.15668,3.13,-1.69961e-14,-1.90833e-14,-22.1723,2.47761,-79.6181,99.1808,-15.2105,-21.3069,-8.09323,7.12502,5.07802,-38.0124,-1.69961e-14,-1.90833e-14,-29.4772,-0.647536,78.5981,109.947,9.08367,-34.877,-21.6536,7.12502,-8.0261,8.174,-13.1825,0.970048,24.326,31.8575,-15.2891,-9.80143,6.1211,-13.6436,2.90036,-11.1853,32.473,-17.6945,1.98579,-5.14278
9.47644,17.8414,-18.1963,4.10314,-3.34824,-5.30079,14.3593,0.783248,2.37824,2.72809,1.58656,3.44165,-5.198,0.759829,1.98945,-7.0092,-3.77489,-7.26175,0.403094,-4.60183,6.12709,1.7136,-2.20155,3.10516,-1.38155e-14,-1.59028e-15,-22.1336,2.2428,-79.6418,99.4871,-15.1051,-21.2309,-8.25781,7.12502,5.1514,-38.1752,-1.38155e-14,-1.59028e-15,-29.302,-0.851798,78.679,109.93,9.28091,-35.1823,-21.964,7.12502,-8.3207,7.85217,-13.1493,0.756322,24.2095,31.8709,-15.266,-9.60832,6.41574,-13.6408,2.9223,-11.293,32.4956,-17.7687,1.88518,-4.80071
9.4741,17.8417,-18.1874,3.96691,-3.31457,-5.22477,14.3492,0.803861,2.31311,2.88178,1.59329,3.389,-5.03018,0.764691,1.96955,-7.17942,-3.81114,-7.10481,0.382013,-4.64989,6.06577,1.7334,-2.22359,3.05002,-1.33186e-14,1.07344e-14,-21.8609,2.02369,-79.7204,99.7437,-15.1011,-21.0459,-8.30769,7.12502,5.33002,-38.2207,-1.33186e-14,1.07344e-14,-28.9371,-0.953165,78.7368,109.84,9.43102,-35.1792,-22.0011,7.12502,-8.31774,7.81516,-12.9742,0.626756,24.1178,31.8557,-15.3523,-9.42321,6.84075,-13.4776,2.922,-11.3712,32.5203,-17.8199,1.86452,-4.56101
9.46796,17.8391,-18.181,3.97275,-3.25056,-5.565,14.4008,0.808,2.64225,2.85347,1.65333,3.41878,-5.08095,0.789091,1.80346,-7.07216,-3.81543,-7.03497,0.368023,-4.67237,6.20455,1.71383,-2.23331,3.08469,-1.2921e-14,-7.95139e-16,-21.6809,1.76002,-79.8503,99.8875,-15.1266,-21.0393,-8.34052,7.12502,5.33639,-38.2533,-1.2921e-14,-7.95139e-16,-28.8113,-1.16926,78.6769,109.783,9.49393,-34.8,-21.6718,7.12502,-7.95178,8.15859,-12.9651,0.716571,24.5421,31.8575,-15.3552,-9.65117,6.18266,-13.4673,2.95704,-10.9486,32.5322,-17.8577,1.80705,-4.74938
9.46951,17.8377,-18.1779,4.07155,-3.08964,-5.73773,14.4465,0.804824,2.86229,2.78652,1.69003,3.45397,-5.17204,0.803207,1.70907,-7.19458,-3.84124,-7.24693,0.543082,-4.69517,6.46244,1.8125,-2.23886,3.21183,7.95139e-15,4.45278e-14,-21.5738,1.49412,-79.8317,100.048,-15.0655,-21.2709,-8.5005,7.12502,5.11281,-38.4188,7.95139e-15,4.45278e-14,-28.7195,-1.39766,78.7562,109.745,9.48966,-34.4631,-21.1403,7.12502,-7.6266,8.70223,-13.07,0.618951,24.743,31.8667,-15.277,-9.78385,5.6879,-13.6057,2.89111,-10.7488,32.5407,-17.9017,1.72104,-4.63041
9.47576,17.8381,-18.1748,4.08648,-2.98833,-5.48808,14.5443,0.808024,2.6422,2.73748,1.66738,3.43353,-5.28305,0.794633,1.81487,-7.20884,-3.78763,-7.66766,0.723551,-4.60224,6.75021,1.89314,-2.18878,3.39754,-1.18277e-14,-3.61788e-14,-21.5096,1.38195,-79.7327,100.256,-15.045,-21.1922,-8.48606,7.12502,5.18875,-38.4025,-1.18277e-14,-3.61788e-14,-28.6665,-1.44522,78.9369,109.676,9.51414,-34.2361,-20.8254,7.12502,-7.40748,9.02493,-13.0791,0.415414,24.4242,31.8919,-15.3232,-9.67348,5.93688,-13.6381,2.76048,-11.0605,32.5361,-17.9295,1.69499,-4.19157
9.47874,17.8372,-18.1694,4.10688,-2.86135,-5.35523,14.5289,0.807899,2.53885,2.71138,1.65128,3.416,-5.30449,0.788306,1.85782,-6.99132,-3.76387,-7.828,0.665656,-4.57568,6.92065,1.84393,-2.17623,3.49172,1.40143e-14,3.26007e-14,-21.3657,1.22826,-79.6465,100.466,-15.0565,-21.0543,-8.09729,7.12502,5.32192,-38.0105,1.40143e-14,3.26007e-14,-28.574,-1.55443,79.0689,109.526,9.54587,-34.0918,-21.126,7.12502,-7.26817,8.72916,-13.1029,0.304378,24.2673,31.9571,-15.4735,-9.65386,6.41988,-13.6381,2.66425,-11.2201,32.4805,-17.9771,1.63789,-4.33663
9.48039,17.8363,-18.1597,4.07645,-2.74649,-5.2502,14.3846,0.784831,2.43623,2.83774,1.59382,3.43473,-5.09412,0.7634,1.94784,-6.96775,-3.76182,-7.70308,0.430602,-4.57319,6.82048,1.75356,-2.17613,3.43247,-8.05078e-15,-1.74931e-14,-21.094,1.18591,-79.5356,100.713,-14.9714,-21.1779,-7.73608,7.12502,5.20263,-37.6522,-8.05078e-15,-1.74931e-14,-28.2818,-1.53394,79.2047,109.357,9.58315,-33.941,-21.4361,7.12502,-7.12258,8.42407,-13.0691,0.125374,24.1482,32.0404,-15.6006,-9.66703,6.37789,-13.5468,2.66811,-11.3515,32.3807,-18.0502,1.58008,-4.95044
9.48235,17.8342,-18.15,4.06225,-2.69272,-5.08727,14.2186,0.728407,2.23465,2.97589,1.47663,3.45366,-4.86079,0.710139,2.1048,-6.96022,-3.69279,-7.51958,0.208815,-4.48257,6.62048,1.65835,-2.13357,3.33145,2.43511e-14,2.3059e-14,-20.8072,1.2982,-79.5232,100.926,-14.7316,-21.2439,-7.52736,7.12502,5.13888,-37.4451,2.43511e-14,2.3059e-14,-27.952,-1.36492,79.2879,109.269,9.67805,-33.821,-21.1317,7.12502,-7.00682,8.73229,-13.0413,0.0195566,23.9512,32.1017,-15.6862,-9.69472,5.9901,-13.4834,2.70618,-11.5585,32.3015,-18.069,1.54173,-5.02529
9.48371,17.8322,-18.1411,4.07742,-2.62065,-5.02189,14.1052,0.704248,2.13674,3.02721,1.42386,3.46441,-4.7461,0.686101,2.1819,-6.94364,-3.69711,-7.48568,0.186464,-4.49108,6.60533,1.64697,-2.13822,3.31942,2.127e-14,2.0276e-14,-20.6323,1.24172,-79.5773,101.14,-14.4917,-21.0346,-7.29945,7.12502,5.34095,-37.2121,2.127e-14,2.0276e-14,-27.6773,-1.39572,79.3338,109.203,9.71793,-33.8852,-20.9495,7.12502,-7.06878,8.91247,-13.022,-0.0377542,23.8693,32.107,-15.7813,-9.62933,6.04913,-13.4756,2.63387,-11.6408,32.2739,-18.091,1.51879,-4.57372
9.48011,17.832,-18.1333,4.10571,-2.61067,-5.05619,14.1123,0.767194,2.11577,2.99155,1.50597,3.46545,-4.79022,0.726666,2.17998,-6.99628,-3.77541,-7.53559,0.340699,-4.59824,6.7577,1.72303,-2.18853,3.3766,-1.36167e-14,3.97569e-15,-20.7382,0.999493,-79.6245,101.543,-14.4503,-20.7454,-7.4506,7.12502,5.62019,-37.3561,-1.36167e-14,3.97569e-15,-27.5004,-1.64539,79.3461,109.091,9.79141,-33.8421,-21.15,7.12502,-7.02718,8.71333,-12.9935,0.034557,23.924,32.08,-15.8907,-9.55503,6.68907,-13.4748,2.63408,-11.5869,32.279,-18.1444,1.51543,-4.59784
9.4747,17.8305,-18.1273,4.16101,-2.55978,-5.24978,14.1059,0.807746,2.27717,2.95509,1.58587,3.4906,-4.82348,0.763872,2.1009,-7.10621,-3.82261,-7.39381,0.542666,-4.67318,6.7527,1.81069,-2.22404,3.34293,-9.93923e-17,-3.97569e-15,-20.8907,0.771223,-79.728,101.978,-14.4493,-21.2106,-7.67592,7.12502,5.171,-37.5928,-9.93923e-17,-3.97569e-15,-27.3519,-1.92843,79.3387,108.931,9.94936,-33.6519,-21.3826,7.12502,-6.84355,8.48679,-12.9773,0.19455,24.1804,32.0322,-15.8977,-9.74494,6.8612,-13.5328,2.70808,-11.3505,32.2928,-18.1204,1.48836,-4.82985
9.47544,17.8318,-18.1231,4.21748,-2.44527,-5.22581,13.9604,0.787461,2.29752,3.02241,1.55103,3.46392,-4.67072,0.747254,2.06884,-7.40313,-3.84827,-7.25532,0.763212,-4.70498,6.65682,1.93201,-2.23676,3.27846,-4.07509e-15,-4.37326e-15,-20.7447,0.630774,-79.8548,102.218,-14.3592,-21.9817,-7.39835,7.12502,4.42645,-37.3321,-4.07509e-15,-4.37326e-15,-27.1414,-2.0608,79.3694,108.792,9.95442,-33.6739,-21.6033,7.12502,-6.86474,8.26544,-12.9935,0.154377,24.1572,31.9579,-15.7604,-9.88866,6.39257,-13.6453,2.68713,-11.4019,32.3296,-18.0335,1.47332,-4.72767
9.47951,17.8383,-18.1201,4.29,-2.38531,-5.02305,13.8581,0.767896,2.16111,3.0753,1.49523,3.3956,-4.55948,0.72175,2.08465,-7.57755,-3.88289,-7.22661,0.769242,-4.74142,6.61578,1.96609,-2.25291,3.25499,1.3418e-14,8.34896e-15,-20.5276,0.528985,-79.9302,102.435,-14.3343,-22.1592,-7.50941,7.12502,4.255,-37.4467,1.3418e-14,8.34896e-15,-26.9877,-2.10252,79.3716,108.749,9.84501,-33.7589,-21.6426,7.12502,-6.94678,8.2234,-13.0579,0.0263179,23.9123,31.8656,-15.5176,-9.94725,5.58813,-13.7838,2.64523,-11.6638,32.4034,-18,1.41535,-4.54013
9.47992,17.8389,-18.1175,4.29768,-2.41251,-5.27307,13.9495,0.770112,2.39441,3.04444,1.54046,3.46399,-4.6387,0.741021,2.01619,-7.41594,-3.92367,-7.1493,0.612631,-4.80475,6.5338,1.88342,-2.28826,3.21007,-8.44835e-15,-1.74931e-14,-20.5459,0.475169,-79.9878,102.762,-14.4464,-21.9856,-7.84737,7.12502,4.42271,-37.7812,-8.44835e-15,-1.74931e-14,-27.0089,-2.21116,79.32,108.796,9.82441,-33.8163,-21.6419,7.12502,-7.00222,8.22224,-13.0258,0.138878,24.202,31.7728,-15.3836,-10.0992,5.20367,-13.8089,2.67137,-11.3609,32.4896,-18.0868,1.34945,-4.40125
9.47901,17.8348,-18.1174,4.31072,-2.4014,-5.75175,14.0417,0.715629,2.82663,3.01184,1.54528,3.62205,-4.71652,0.738058,1.93738,-7.21351,-3.94472,-7.1208,0.371978,-4.83768,6.46971,1.7659,-2.30876,3.18301,-9.34288e-15,1.86858e-14,-20.4435,0.574009,-80.0585,103.068,-14.6158,-21.8122,-7.73364,7.12502,4.59014,-37.6639,-9.34288e-15,1.86858e-14,-27.0335,-2.17689,79.2914,108.807,9.80401,-33.9341,-21.6626,7.12502,-7.11597,8.19777,-12.9766,0.317823,24.7505,31.6954,-15.444,-10.1621,5.80927,-13.8269,2.67169,-10.7749,32.555,-18.2006,1.32645,-4.43443
9.47893,17.8337,-18.1154,4.35568,-2.31181,-5.9457,14.0587,0.668051,3.00048,2.99715,1.51394,3.70541,-4.73861,0.720626,1.93281,-7.04617,-3.97346,-7.1344,0.0813337,-4.87689,6.51531,1.64487,-2.3297,3.20161,-1.91827e-14,-1.63003e-14,-20.2078,0.597436,-80.0739,103.284,-14.6553,-21.9618,-7.59748,7.12502,4.44565,-37.5308,-1.91827e-14,-1.63003e-14,-26.9235,-2.15399,79.3531,108.742,9.77343,-33.9562,-21.4822,7.12502,-7.13726,8.3775,-12.9613,0.32524,24.9743,31.635,-15.4662,-10.1598,6.26492,-13.9075,2.62354,-10.5249,32.5829,-18.2054,1.20001,-4.31267
9.48626,17.8397,-18.1068,4.43442,-2.22112,-5.68187,13.9328,0.681932,2.84385,3.00143,1.49785,3.61105,-4.66648,0.715031,1.92533,-6.93564,-3.97387,-7.11506,-0.051261,-4.8854,6.65787,1.58674,-2.33287,3.24834,1.18277e-14,-2.06736e-14,-20.1101,0.455448,-80.1074,103.492,-14.6302,-22.333,-7.32224,7.12502,4.08717,-37.2628,1.18277e-14,-2.06736e-14,-26.6791,-2.28056,79.4243,108.615,9.75917,-33.7952,-21.197,7.12502,-6.9819,8.66784,-13.0054,0.0426938,24.639,31.6184,-15.4195,-10.0378,6.03278,-13.9963,2.51751,-10.861,32.5766,-18.1903,1.16309,-4.09531
9.49602,17.8468,-18.0947,4.51263,-2.17244,-5.33617,13.8175,0.663988,2.63343,2.97756,1.43345,3.49615,-4.62985,0.685848,1.93502,-6.81957,-3.85925,-7.23547,-0.0537036,-4.73507,6.85691,1.56525,-2.25639,3.3489,-5.96354e-15,1.07344e-14,-20.0932,0.458581,-80.2156,103.735,-14.7562,-22.3966,-6.93678,7.12502,4.02582,-36.8785,-5.96354e-15,1.07344e-14,-26.5175,-2.28753,79.46,108.427,9.63433,-33.6468,-21.0259,7.12502,-6.83858,8.84369,-13.0674,-0.326124,24.1869,31.6418,-15.4533,-9.83374,5.56434,-14.0167,2.42733,-11.3175,32.5426,-18.2206,1.28285,-4.33293
9.49092,17.8423,-18.0912,4.48185,-2.22468,-5.46129,14.0386,0.694771,2.60491,2.82439,1.49275,3.57528,-4.91657,0.713744,2.02247,-6.45557,-3.75255,-7.26167,-0.00518715,-4.61621,6.89512,1.50859,-2.20248,3.37695,-6.55989e-15,-2.90226e-14,-20.3391,0.48865,-80.2735,104.04,-14.993,-22.0547,-6.697,7.12502,4.35595,-36.6322,-6.55989e-15,-2.90226e-14,-26.7721,-2.39986,79.5258,108.373,9.49116,-33.7893,-21.0671,7.12502,-6.97619,8.79799,-13.0232,-0.16658,24.3572,31.6602,-15.4896,-9.9524,5.54365,-13.9341,2.51447,-11.1419,32.5141,-18.1585,1.25159,-4.50936
9.48416,17.8368,-18.095,4.45741,-2.30533,-5.70424,14.3272,0.763832,2.63975,2.68241,1.61779,3.70062,-5.23009,0.773156,2.11035,-6.07421,-3.74992,-7.16261,-0.068192,-4.63998,6.82817,1.41542,-2.22146,3.33833,-2.38542e-15,1.55052e-14,-20.5981,0.432443,-80.2702,104.385,-15.0969,-21.7013,-6.7185,7.12502,4.69717,-36.6464,-2.38542e-15,1.55052e-14,-27.0915,-2.60234,79.5761,108.483,9.53321,-34.0561,-21.2785,7.12502,-7.23367,8.57789,-13.0005,0.1564,24.6787,31.6601,-15.4962,-10.0724,6.28814,-13.926,2.6176,-10.8087,32.5331,-18.0665,1.15734,-3.98701
9.48541,17.8423,-18.0935,4.51602,-2.30438,-5.7434,14.432,0.758603,2.63603,2.70033,1.61726,3.74486,-5.27004,0.772888,2.15862,-6.17176,-3.78773,-7.1731,-0.167735,-4.68054,6.84892,1.40458,-2.23976,3.34471,-4.77083e-15,-1.98785e-15,-20.4788,0.394619,-80.2916,104.761,-15.0941,-21.189,-7.02478,7.12502,5.1919,-36.9412,-4.77083e-15,-1.98785e-15,-27.0022,-2.59318,79.5632,108.538,9.63081,-34.0805,-21.3901,7.12502,-7.25724,8.46544,-13.0452,0.187692,24.7153,31.6367,-15.5691,-9.92943,6.98104,-14.0299,2.62831,-10.7665,32.5756,-18.0432,1.19262,-3.99589
9.48784,17.8463,-18.0892,4.54964,-2.29187,-5.73497,14.4994,0.73671,2.65321,2.75519,1.59067,3.73162,-5.24738,0.759504,2.13933,-6.3738,-3.82136,-7.08494,-0.186935,-4.71782,6.81196,1.4332,-2.2555,3.31081,2.08724e-14,1.31198e-14,-20.3396,0.365354,-80.3697,105.171,-15.2,-21.0052,-7.20099,7.12502,5.3693,-37.113,2.08724e-14,1.31198e-14,-26.7733,-2.55798,79.5452,108.495,9.59892,-33.9717,-21.2674,7.12502,-7.15228,8.59179,-13.0495,0.186666,24.6857,31.6154,-15.6262,-9.85961,7.13925,-14.0412,2.62113,-10.7988,32.5356,-18.0038,1.34016,-4.81506
9.4954,17.8473,-18.0827,4.53046,-2.22778,-5.59131,14.5065,0.700583,2.57356,2.68951,1.53292,3.70002,-5.32094,0.731926,2.16173,-5.87446,-3.78978,-6.94608,-0.367414,-4.70567,6.64798,1.27339,-2.25978,3.23491,-1.63003e-14,-1.47101e-14,-20.5106,0.459772,-80.3986,105.494,-15.2876,-21.483,-7.23337,7.12502,4.90795,-37.1565,-1.63003e-14,-1.47101e-14,-26.8779,-2.62686,79.5638,108.481,9.56943,-33.8568,-20.8792,7.12502,-7.04129,8.98366,-12.9887,0.00695191,24.4808,31.6041,-15.5789,-9.77985,6.80939,-13.9438,2.54173,-10.9989,32.4159,-17.9432,1.42417,-5.15702
9.50678,17.8549,-18.0729,4.50398,-2.09579,-5.20705,14.4318,0.698538,2.37441,2.91184,1.47725,3.55532,-5.04438,0.70835,2.1317,-6.52971,-3.86761,-6.74772,-0.281644,-4.78589,6.5575,1.41468,-2.29062,3.15364,1.39149e-15,8.74653e-15,-20.0095,0.287405,-80.429,105.667,-15.2867,-21.5305,-7.38665,7.12502,4.86209,-37.3109,1.39149e-15,8.74653e-15,-26.2191,-2.7438,79.5364,108.3,9.69214,-33.8074,-20.5937,7.12502,-6.9936,9.27072,-12.9122,-0.376153,23.9811,31.5777,-15.4934,-9.57566,6.11921,-13.8676,2.38809,-11.4832,32.3403,-17.9567,1.32721,-4.77399
9.51221,17.8599,-18.069,4.51706,-2.05884,-5.06236,14.5266,0.691719,2.34247,2.92323,1.4623,3.46895,-5.08221,0.700725,2.06045,-6.79634,-3.90437,-6.98227,-0.0765023,-4.81666,6.86971,1.55169,-2.29675,3.30129,1.0138e-14,1.27222e-14,-19.8847,0.250929,-80.5165,105.849,-15.35,-21.3314,-7.27142,7.12502,5.05435,-37.1911,1.0138e-14,1.27222e-14,-25.9446,-2.74275,79.5201,108.06,9.79444,-33.9984,-20.7981,7.12502,-7.17803,9.06012,-12.8959,-0.443355,23.7896,31.5438,-15.3986,-9.57938,5.67157,-13.8713,2.37983,-11.6732,32.308,-17.9157,1.17697,-4.00674
9.51223,17.8579,-18.0727,4.64263,-2.10427,-5.51275,14.6414,0.642929,2.73523,2.83451,1.475,3.60326,-5.23294,0.70065,1.97763,-7.13975,-3.92499,-7.30205,0.457468,-4.82495,7.115,1.81129,-2.29148,3.44381,-5.1684e-15,1.70955e-14,-19.8387,0.380587,-80.6212,106.024,-15.3951,-21.4334,-6.99377,7.12502,4.95587,-36.9158,-5.1684e-15,1.70955e-14,-26.0772,-2.59477,79.491,108.011,9.82333,-34.0972,-20.9828,7.12502,-7.27339,8.87215,-13.0221,-0.270921,24.3085,31.5128,-15.2989,-9.71964,5.78958,-14.0021,2.5816,-11.1668,32.2796,-17.7242,1.08009,-3.63466
9.51534,17.8593,-18.076,4.82844,-2.16667,-5.76748,14.6623,0.642365,2.94807,2.74913,1.51624,3.67239,-5.332,0.716963,1.92283,-7.25224,-3.89448,-7.23504,0.745862,-4.79476,7.12526,1.92317,-2.27391,3.43509,0,-2.06736e-14,-19.7665,0.409003,-80.693,106.16,-15.3595,-21.5901,-7.05383,7.12502,4.80461,-36.9794,0,-2.06736e-14,-26.2806,-2.60836,79.4617,108.146,9.87909,-33.9523,-20.9845,7.12502,-7.13351,8.8753,-13.2444,-0.200812,24.5877,31.4953,-15.2972,-9.64534,5.9251,-14.1758,2.62938,-10.8806,32.266,-17.6924,1.11102,-3.59061
9.52071,17.8641,-18.0767,4.92675,-2.24405,-5.59679,14.6828,0.708681,2.87095,2.75807,1.58464,3.54459,-5.33294,0.750838,1.81773,-6.97677,-3.77682,-7.04783,0.428867,-4.66067,7.22902,1.75476,-2.20896,3.44433,-2.5842e-15,1.47101e-14,-19.5961,0.23372,-80.7504,106.169,-15.2089,-21.6583,-6.97554,7.12502,4.73874,-36.9025,-2.5842e-15,1.47101e-14,-26.1408,-2.87091,79.3805,108.131,9.90289,-34.0667,-21.1497,7.12502,-7.24396,8.70629,-13.3774,-0.150084,24.3612,31.5001,-15.3237,-9.4735,6.00528,-14.2524,2.5303,-11.075,32.2405,-17.8283,1.18713,-3.86117
9.5222,17.8672,-18.0763,4.97092,-2.38582,-5.56002,14.6777,0.720481,2.80032,2.83914,1.58399,3.53321,-5.24574,0.752211,1.84575,-6.74715,-3.62667,-7.01884,0.029161,-4.45959,7.24275,1.5651,-2.11271,3.45498,7.35503e-15,1.39149e-14,-19.3388,0.2884,-80.7906,106.164,-15.0172,-21.8901,-6.44915,7.12502,4.51494,-36.381,7.35503e-15,1.39149e-14,-25.9464,-2.88575,79.3061,107.99,9.90196,-34.3997,-21.4625,7.12502,-7.56537,8.38218,-13.4607,0.00685243,24.2855,31.5493,-15.3056,-9.3909,6.37777,-14.215,2.58638,-11.1183,32.1246,-17.8444,1.2276,-4.10857
9.52098,17.8712,-18.0749,5.06248,-2.5447,-5.64247,14.7602,0.697015,2.72194,2.83823,1.55255,3.65975,-5.29729,0.738263,2.02958,-6.70844,-3.54274,-7.18782,-0.157278,-4.32722,7.18858,1.48987,-2.04876,3.47499,-1.68967e-14,-4.25399e-14,-19.2351,0.573925,-80.7799,106.201,-14.9174,-22.2591,-6.11361,7.12502,4.1586,-36.0528,-1.68967e-14,-4.25399e-14,-26.0239,-2.64749,79.3466,107.955,9.9745,-34.5222,-21.634,7.12502,-7.68366,8.20638,-13.602,0.21514,24.3616,31.6233,-15.3396,-9.36123,6.85562,-14.1789,2.69128,-11.0256,31.9621,-17.7929,1.2563,-3.65049
9.52324,17.876,-18.069,5.09704,-2.50204,-5.53874,14.8724,0.653399,2.62666,2.83292,1.487,3.67128,-5.36593,0.707254,2.10755,-6.73064,-3.53367,-7.18389,-0.206498,-4.30855,7.05128,1.47135,-2.0414,3.42686,3.18055e-15,-1.03368e-14,-19.1071,0.651427,-80.7791,106.135,-14.8779,-22.4277,-6.11974,7.12502,3.99577,-36.062,3.18055e-15,-1.03368e-14,-26.0289,-2.56109,79.3884,107.896,10.0863,-34.5761,-21.486,7.12502,-7.73567,8.35247,-13.6392,0.0855441,24.2317,31.6657,-15.374,-9.23554,7.12568,-14.1481,2.61686,-11.1496,31.8778,-17.7917,1.28245,-3.52062
9.53045,17.8781,-18.066,5.08067,-2.3573,-5.29654,14.9127,0.5696,2.5032,2.90019,1.35297,3.61877,-5.31544,0.643553,2.14712,-6.79863,-3.54947,-7.02257,-0.160762,-4.33218,6.74595,1.48477,-2.05707,3.28782,-1.39149e-15,1.74931e-14,-18.8949,0.742779,-80.7607,106.079,-14.9321,-22.6373,-5.92718,7.12502,3.79336,-35.8732,-1.39149e-15,1.74931e-14,-25.9243,-2.42065,79.4182,107.752,10.091,-34.6345,-21.2107,7.12502,-7.79202,8.62574,-13.614,-0.232698,23.9396,31.6778,-15.2522,-9.11363,6.85849,-14.1417,2.46153,-11.4554,31.858,-17.7479,1.35028,-3.65649
9.5368,17.8784,-18.0696,5.1502,-2.3197,-5.38843,14.8746,0.507447,2.64992,3.03132,1.28853,3.67563,-5.15226,0.610859,2.13661,-6.94239,-3.55206,-7.03522,-0.227952,-4.3213,6.66283,1.4853,-2.0508,3.2604,-1.2921e-14,-4.05521e-14,-18.6948,0.85159,-80.7225,106.171,-15.0666,-22.5589,-5.81667,7.12502,3.86908,-35.7613,-1.2921e-14,-4.05521e-14,-25.8829,-2.19988,79.4289,107.742,10.0474,-34.3397,-20.9393,7.12502,-7.50749,8.90747,-13.6888,-0.281991,24.0181,31.6878,-15.2197,-9.07659,6.65812,-14.2291,2.4531,-11.3906,31.8479,-17.6571,1.34439,-3.38284
9.53943,17.879,-18.0679,5.24312,-2.42781,-5.53368,14.8214,0.515326,2.79277,3.14948,1.31428,3.72083,-4.99629,0.622532,2.09879,-6.84521,-3.52928,-7.17961,-0.50741,-4.28004,6.8584,1.38433,-2.02846,3.35888,-3.77691e-15,2.78299e-15,-18.5508,0.853974,-80.7088,106.283,-15.1705,-22.047,-6.07715,7.12502,4.36341,-36.0122,-3.77691e-15,2.78299e-15,-25.7685,-2.14215,79.3997,107.739,10.089,-34.0777,-20.7483,7.12502,-7.25455,9.10735,-13.7855,-0.240541,24.136,31.7284,-15.3508,-8.93952,6.86162,-14.2845,2.54283,-11.257,31.8465,-17.6761,1.29952,-3.18234
9.53937,17.8816,-18.0647,5.32243,-2.66707,-5.38898,14.9566,0.587463,2.54287,3.14193,1.37609,3.69076,-5.08435,0.655348,2.19598,-6.64933,-3.52998,-7.21069,-0.704804,-4.28485,6.91074,1.2877,-2.03318,3.38508,1.98785e-15,1.39149e-14,-18.6105,0.918586,-80.737,106.4,-15.2468,-21.7045,-6.37367,7.12502,4.69415,-36.3017,1.98785e-15,1.39149e-14,-25.6698,-2.16887,79.3761,107.607,10.1612,-34.4307,-20.9134,7.12502,-7.59527,8.93021,-13.935,-0.13015,23.9288,31.8094,-15.3629,-8.75215,7.13262,-14.3285,2.62471,-11.4438,31.8774,-17.741,1.39718,-3.11609
9.54078,17.883,-18.0679,5.38421,-2.83554,-5.23833,15.1933,0.641922,2.28475,3.12476,1.41672,3.64422,-5.23758,0.6777,2.28384,-6.6676,-3.53051,-7.0932,-0.716013,-4.29172,6.8482,1.28218,-2.03733,3.34022,-2.5842e-14,-2.3059e-14,-18.7285,0.962628,-80.7801,106.492,-15.3001,-21.789,-6.30887,7.12502,4.61253,-36.2386,-2.5842e-14,-2.3059e-14,-25.7263,-2.21454,79.3201,107.447,10.2611,-34.6992,-21.3028,7.12502,-7.85448,8.53131,-14.14,-0.0876531,23.7333,31.9675,-15.3386,-8.56258,7.11729,-14.3971,2.65399,-11.6324,31.895,-17.7353,1.49864,-3.1009
9.54634,17.8811,-18.0756,5.46059,-2.83841,-5.2726,15.3298,0.649778,2.35399,3.21656,1.43856,3.62689,-5.2128,0.68709,2.22114,-7.33529,-3.6348,-6.8362,-0.266574,-4.42183,6.59327,1.54205,-2.09588,3.18956,-1.33186e-14,1.70955e-14,-18.5526,0.883015,-80.7164,106.435,-15.4096,-22.1011,-5.93695,7.12502,4.3111,-35.8731,-1.33186e-14,1.70955e-14,-25.7494,-2.30974,79.3006,107.398,10.3617,-34.6942,-21.5848,7.12502,-7.84964,8.24947,-14.3851,-0.196391,23.7551,32.2253,-15.3304,-8.48073,6.81734,-14.5266,2.65146,-11.6163,31.9126,-17.666,1.53217,-3.3763
9.55219,17.885,-18.0844,5.68188,-2.86232,-5.36529,15.4592,0.698754,2.50087,3.21116,1.533,3.63457,-5.28744,0.730679,2.12683,-8.03978,-3.80614,-6.55791,0.201295,-4.64152,6.26524,1.81798,-2.2006,3.00581,-1.72943e-14,-3.81667e-14,-18.31,0.736152,-80.6105,106.314,-15.591,-22.2151,-5.84812,7.12502,4.20108,-35.7864,-1.72943e-14,-3.81667e-14,-25.7329,-2.51593,79.3793,107.365,10.201,-35.1465,-21.8683,7.12502,-8.28614,7.94923,-14.8129,-0.218945,23.8465,32.5463,-15.2486,-8.52315,6.32971,-14.8414,2.61913,-11.5455,31.9923,-17.501,1.70028,-3.71457
9.55851,17.8893,-18.0948,5.94198,-2.88791,-5.29501,15.6918,0.697155,2.45921,3.08415,1.53995,3.60906,-5.54968,0.732936,2.12058,-7.54865,-3.70128,-6.7197,-0.351594,-4.50341,6.52492,1.55223,-2.1344,3.13766,-5.56597e-15,5.96354e-15,-18.3274,0.76298,-80.6437,106.264,-15.5506,-22.1767,-6.07022,7.12502,4.23818,-36.0078,-5.56597e-15,5.96354e-15,-25.6066,-2.67484,79.3343,107.081,10.0273,-35.612,-22.0553,7.12502,-8.7354,7.74392,-15.2984,-0.296947,23.7512,32.9058,-15.2353,-8.51235,5.52999,-15.2352,2.53665,-11.6603,32.1376,-17.3429,1.86064,-3.96671
9.56607,17.8862,-18.1068,6.13969,-2.82928,-5.22265,15.8414,0.582089,2.46825,3.07148,1.39518,3.57079,-5.6403,0.661077,2.10342,-6.88213,-3.47486,-7.21061,-1.11178,-4.18659,7.17759,1.19776,-1.97631,3.48005,2.34566e-14,4.65156e-14,-18.3533,0.943545,-80.7496,106.303,-15.4949,-22.2309,-6.18979,7.12502,4.18581,-36.1284,2.34566e-14,4.65156e-14,-25.4583,-2.527,79.2101,106.901,10.423,-35.604,-22.1842,7.12502,-8.7277,7.61532,-15.7463,-0.40827,23.6485,33.3107,-15.4415,-8.45917,5.3988,-15.6412,2.50241,-11.7686,32.3719,-17.3429,1.96943,-4.75243
9.57229,17.8854,-18.1218,6.42752,-2.77981,-5.24699,15.9351,0.518896,2.54265,2.99339,1.33155,3.55421,-5.77111,0.62779,2.05659,-6.76597,-3.52506,-7.39197,-1.18345,-4.24881,7.41275,1.17168,-2.00596,3.59631,-1.11319e-14,-1.59028e-15,-18.4698,1.01463,-80.7561,106.384,-15.7444,-22.3642,-6.28689,7.12502,4.05704,-36.228,-1.11319e-14,-1.59028e-15,-25.787,-2.36731,79.2761,107.05,10.95,-35.7332,-22.4535,7.12502,-8.85236,7.34085,-16.3592,-0.409872,23.6546,33.7556,-15.6536,-8.37906,6.03302,-16.2207,2.51794,-11.7664,32.7166,-17.4016,2.06185,-5.43517
9.5749,17.8791,-18.1482,6.80378,-2.90104,-5.42316,16.2244,0.589691,2.62574,2.84439,1.46381,3.61078,-6.09001,0.688955,2.04173,-7.34373,-3.75921,-7.01427,-0.679697,-4.56497,6.86506,1.43406,-2.16292,3.31119,-1.98785e-16,1.43125e-14,-18.5578,0.973028,-80.6809,106.371,-15.95,-22.5641,-6.38215,7.12502,3.86402,-36.3269,-1.98785e-16,1.43125e-14,-26.0131,-2.44139,79.3525,106.969,10.9425,-36.0673,-22.7862,7.12502,-9.17474,6.99424,-17.1419,-0.192538,23.8377,34.2412,-15.5776,-8.38061,6.13321,-16.9536,2.65624,-11.5921,33.1435,-17.3916,2.05549,-5.20944
9.57157,17.8664,-18.1782,7.06898,-3.1032,-5.70231,16.6586,0.697338,2.75506,2.90091,1.65092,3.68203,-6.2682,0.776103,2.00209,-6.68515,-3.60311,-7.31204,-1.91159,-4.33501,7.38606,0.923495,-2.0515,3.57043,-8.54774e-15,1.15295e-14,-18.3077,0.850698,-80.6565,106.234,-15.9877,-22.7399,-6.09862,7.12502,3.69431,-36.0464,-8.54774e-15,1.15295e-14,-25.582,-2.62382,79.2621,106.668,10.8214,-36.3794,-23.066,7.12502,-9.47591,6.70098,-17.8472,0.23789,24.1481,34.8063,-15.3874,-8.53571,5.49693,-17.571,2.83359,-11.2647,33.5918,-17.4515,2.03191,-4.77059
9.56913,17.8565,-18.1963,7.22938,-2.99281,-5.70311,16.948,0.682701,2.73758,3.01121,1.63555,3.65492,-6.30673,0.768108,1.98433,-6.5794,-3.55406,-7.16981,-2.4965,-4.26335,7.48268,0.708136,-2.01793,3.58311,3.57812e-15,4.77083e-15,-18.1526,0.703487,-80.6675,106.17,-16.1079,-22.8042,-5.9293,7.12502,3.63217,-35.8781,3.57812e-15,4.77083e-15,-25.2621,-2.81227,79.1698,106.565,10.8443,-36.6963,-22.9246,7.12502,-9.78166,6.82824,-18.4488,0.362605,24.1668,35.4708,-15.4106,-8.65718,5.15266,-18.0795,2.71568,-11.2211,34.0386,-17.6713,1.95265,-4.45339
9.57458,17.8418,-18.209,7.36767,-2.70499,-5.49612,17.2766,0.574348,2.63863,2.99247,1.48887,3.59263,-6.50367,0.696899,2.00492,-6.5637,-3.52008,-6.89308,-2.68125,-4.22962,7.26411,0.628455,-2.00555,3.45568,-1.35174e-14,4.37326e-15,-18.2439,0.647031,-80.6198,106.216,-16.3252,-22.612,-5.97009,7.12502,3.81784,-35.9156,-1.35174e-14,4.37326e-15,-25.4272,-2.79168,79.1737,106.535,10.7848,-36.6937,-22.4913,7.12502,-9.77917,7.26162,-19.0836,0.183815,23.9286,36.2376,-15.664,-8.65894,5.27348,-18.5741,2.51611,-11.452,34.4936,-17.9362,1.86938,-4.50508
9.58058,17.8257,-18.2255,7.57736,-2.69778,-5.37551,17.6856,0.583396,2.56923,2.96079,1.50641,3.55106,-6.76085,0.704495,1.99434,-6.60002,-3.47086,-6.80235,-2.928,-4.15799,7.18696,0.544854,-1.97082,3.41484,1.33186e-14,2.82274e-14,-18.2082,0.57553,-80.5023,106.119,-16.5412,-22.2701,-5.73453,7.12502,4.14797,-35.6739,1.33186e-14,2.82274e-14,-25.5267,-2.72819,79.2122,106.44,10.7437,-36.526,-22.5769,7.12502,-9.61732,7.18356,-19.8937,0.234368,23.7381,37.0876,-15.9205,-8.60046,5.17129,-19.122,2.64749,-11.6209,35.0112,-18.2612,1.77828,-4.42238
9.58627,17.8087,-18.2472,7.98413,-2.86195,-5.33982,17.9491,0.679257,2.50317,2.8873,1.63419,3.53146,-6.98688,0.765888,1.98007,-6.77517,-3.57481,-6.91962,-3.09747,-4.27263,7.31707,0.536641,-2.02359,3.47701,9.93923e-16,-1.70955e-14,-18.1906,0.550063,-80.3431,105.954,-16.8446,-22.2786,-5.7257,7.12502,4.13975,-35.6652,9.93923e-16,-1.70955e-14,-25.6105,-2.81223,79.258,106.406,10.7689,-36.5751,-23.0017,7.12502,-9.66476,6.75661,-20.9822,0.30841,23.634,38.0181,-16.025,-8.43765,5.12333,-19.9273,3.04824,-11.7234,35.6356,-18.7541,1.6616,-4.18265
9.59688,17.7814,-18.2783,8.43126,-2.97488,-5.46641,18.2669,0.696567,2.65135,2.79069,1.70647,3.5486,-7.26172,0.79488,1.89584,-6.88115,-3.70819,-7.0794,-3.32895,-4.42503,7.43241,0.500104,-2.09627,3.54223,1.07344e-14,2.78299e-15,-18.2775,0.654715,-80.2703,105.965,-17.2119,-22.3712,-5.9705,7.12502,4.05033,-35.9117,1.07344e-14,2.78299e-15,-25.7555,-2.80862,79.2949,106.399,10.8425,-36.8618,-23.2189,7.12502,-9.9413,6.52636,-22.1312,0.245823,23.7368,39.0128,-16.0449,-8.43871,4.30248,-20.8916,3.42458,-11.6686,36.3797,-19.2685,1.62123,-4.39035
9.60944,17.743,-18.3054,8.71997,-3.08941,-5.48685,18.5015,0.664557,2.72772,2.87874,1.68401,3.52708,-7.29035,0.780977,1.83308,-7.08035,-3.72745,-6.93794,-3.56543,-4.44047,7.26922,0.450535,-2.10375,3.45611,6.55989e-15,7.95139e-16,-18.1484,0.760031,-80.2446,106.002,-17.5804,-21.9665,-6.01507,7.12502,4.44107,-35.9485,6.55989e-15,7.95139e-16,-25.6372,-2.45925,79.394,106.227,10.7934,-37.1411,-23.6692,7.12502,-10.2108,6.06302,-23.0702,0.149041,23.7241,40.0628,-16.1453,-8.49548,2.61583,-21.7064,3.64981,-11.7165,37.2261,-19.7514,1.60632,-4.81135
9.61882,17.6993,-18.3294,8.98517,-3.15339,-5.48922,18.6668,0.636317,2.72736,2.96544,1.64953,3.51938,-7.28514,0.763879,1.83224,-7.99886,-3.72936,-6.51504,-3.01842,-4.4434,6.81313,0.761722,-2.09737,3.20106,-3.57812e-15,-3.65764e-14,-18.093,0.853769,-80.1633,105.978,-17.7785,-21.6899,-6.00321,7.12502,4.70825,-35.9309,-3.57812e-15,-3.65764e-14,-25.5703,-2.14258,79.5167,106.017,10.7029,-37.3116,-24.2142,7.12502,-10.3752,5.50984,-24.0189,0.00127473,23.6966,41.1852,-16.3697,-8.33951,1.61105,-22.5122,3.85992,-11.7456,38.119,-20.2986,1.4697,-5.01247
9.62544,17.6569,-18.3588,9.37842,-3.09484,-5.67694,18.9725,0.614365,2.96388,2.91621,1.68593,3.51996,-7.49795,0.772948,1.68818,-7.10415,-3.48732,-6.90454,-4.14177,-4.09636,7.46989,0.247141,-1.93128,3.53625,-1.98785e-15,1.07344e-14,-18.2077,0.799041,-80.1268,105.922,-17.8004,-21.8665,-5.83416,7.12502,4.53766,-35.7656,-1.98785e-15,1.07344e-14,-25.5537,-2.38818,79.4626,105.906,10.8985,-37.2913,-24.0815,7.12502,-10.3557,5.64354,-25.1772,-0.084145,23.8931,42.3831,-16.7921,-8.14575,1.95345,-23.5541,4.05614,-11.5519,39.0686,-20.8979,1.35824,-5.419
9.62928,17.6135,-18.3793,9.69582,-2.99812,-5.57929,19.2832,0.617207,2.96951,2.96825,1.69703,3.43535,-7.60661,0.775674,1.58869,-7.06834,-3.50273,-6.94024,-4.79264,-4.08758,7.72983,0.037939,-1.92769,3.64046,-1.78906e-15,-1.70955e-14,-18.1191,0.604717,-80.1052,105.808,-17.9908,-22.2469,-5.46905,7.12502,4.17038,-35.408,-1.78906e-15,-1.70955e-14,-25.3323,-2.62781,79.3762,105.836,11.1263,-36.8316,-23.865,7.12502,-9.91214,5.88167,-26.2567,-0.233412,23.7851,43.6455,-17.3412,-7.94354,2.66333,-24.5472,4.15756,-11.6836,40.1326,-21.6389,1.36345,-6.27407
9.62481,17.5588,-18.4057,9.9682,-3.00505,-5.61821,19.6251,0.653085,2.92559,3.04802,1.74756,3.43036,-7.70606,0.799631,1.59303,-7.13705,-3.58728,-6.91977,-5.30268,-4.17639,7.8099,-0.106473,-1.97285,3.66553,-9.93923e-16,-7.55382e-15,-18.0505,0.485418,-80.0819,105.746,-18.1335,-22.6043,-5.4277,7.12502,3.82525,-35.3731,-9.93923e-16,-7.55382e-15,-25.2894,-2.63124,79.3046,105.937,11.1796,-36.6959,-24.1888,7.12502,-9.7813,5.56404,-27.3421,-0.206846,23.877,44.9507,-17.7744,-8.03686,2.36545,-25.5406,4.44557,-11.6217,41.3176,-22.3831,1.10916,-6.38009
9.61915,17.4915,-18.4465,10.3502,-3.08266,-6.00085,20.0177,0.651255,3.09187,3.03086,1.81098,3.54532,-7.93632,0.82387,1.60461,-6.85442,-3.6673,-7.15889,-6.01769,-4.24832,8.1598,-0.366589,-2.01239,3.84648,1.8487e-14,4.45278e-14,-18.0944,0.595626,-80.066,105.774,-18.0992,-22.5638,-5.66491,7.12502,3.86434,-35.6096,1.8487e-14,4.45278e-14,-25.6068,-2.64487,79.2312,106.213,11.2935,-37.0465,-24.4022,7.12502,-10.1195,5.33441,-28.6044,0.0725718,24.3598,46.2868,-18.1776,-8.4467,1.37289,-26.7567,4.9495,-11.1823,42.5927,-22.8932,0.653181,-5.75463
9.62616,17.4263,-18.4759,10.6964,-3.10032,-5.88528,20.2881,0.588974,2.91057,3.07355,1.70548,3.57875,-8.04097,0.777682,1.77072,-6.8962,-3.42708,-7.35935,-6.29326,-3.8973,8.22762,-0.472288,-1.83231,3.92417,1.90833e-14,3.73715e-14,-17.8883,0.896219,-79.9603,105.664,-18.1583,-22.6265,-5.71327,7.12502,3.8038,-35.6591,1.90833e-14,3.73715e-14,-25.842,-2.43437,79.3525,106.334,11.3712,-37.0283,-24.4745,7.12502,-10.1019,5.26298,-29.7932,-0.122688,24.2486,47.5525,-18.651,-8.51358,0.634301,-27.8991,5.29906,-11.3974,43.8329,-23.3527,0.283086,-4.81676
9.63981,17.3631,-18.497,10.9773,-3.15153,-5.43197,20.5641,0.566505,2.55132,3.12426,1.59786,3.4524,-8.13845,0.733799,1.86545,-6.91756,-3.33813,-7.21249,-6.70205,-3.77283,8.06727,-0.619074,-1.7733,3.84772,1.31198e-14,3.97569e-16,-17.8137,1.00308,-79.9038,105.54,-18.2386,-23.0122,-5.47816,7.12502,3.43131,-35.4303,1.31198e-14,3.97569e-16,-25.9968,-2.19821,79.4697,106.367,11.3128,-36.8581,-24.7608,7.12502,-9.93773,4.98458,-30.8445,-0.600599,23.727,48.8417,-19.3835,-8.07923,1.24792,-28.9659,5.56086,-12.0393,45.1279,-23.9616,-0.0413999,-4.12155
9.64399,17.3185,-18.5183,11.2619,-3.07773,-5.1358,20.8632,0.578832,2.38614,3.12582,1.57578,3.28155,-8.29634,0.724337,1.77832,-7.08333,-3.44128,-6.79068,-6.95375,-3.92428,7.84499,-0.673521,-1.8561,3.68335,-1.59028e-15,-6.36111e-15,-18.0898,0.71298,-79.9766,105.6,-18.0998,-23.1039,-5.17899,7.12502,3.34277,-35.1325,-1.59028e-15,-6.36111e-15,-26.1633,-2.31324,79.4695,106.399,11.4377,-36.7554,-24.9293,7.12502,-9.83865,4.8208,-31.7858,-0.874275,23.4351,50.0856,-20.2072,-7.90661,1.68663,-30.0585,5.81052,-12.4379,46.3689,-24.5037,-0.412368,-3.66774
9.64259,17.2394,-18.5446,11.5658,-2.77726,-4.89187,21.0359,0.556738,2.24812,3.25414,1.51145,3.20821,-8.24824,0.696808,1.79346,-7.67772,-3.61151,-6.69739,-6.99713,-4.12301,7.8951,-0.569802,-1.948,3.66639,-2.06736e-14,-2.34566e-14,-18.1319,0.37787,-79.9705,105.609,-17.8042,-22.7101,-5.01056,7.12502,3.72308,-34.9578,-2.06736e-14,-2.34566e-14,-25.9484,-2.45503,79.5991,106.259,11.6089,-36.9187,-25.1703,7.12502,-9.99616,4.57237,-32.9275,-1.2428,23.2643,51.4461,-20.8483,-8.10412,0.750305,-31.3592,5.91786,-12.7075,47.7547,-25.0685,-0.709774,-3.68692
9.64303,17.1583,-18.5746,11.8421,-2.57837,-4.71544,21.2364,0.520295,2.14494,3.47498,1.43698,3.18405,-8.1133,0.664068,1.84486,-7.8481,-3.59937,-6.94665,-7.55474,-4.04557,8.23782,-0.714474,-1.90349,3.8436,-6.95746e-15,3.97569e-16,-18.0666,0.254459,-79.9212,105.603,-17.6248,-22.4351,-4.92122,7.12502,3.98863,-34.8636,-6.95746e-15,3.97569e-16,-25.6553,-2.44612,79.7658,106.138,11.7163,-37.4354,-25.5051,7.12502,-10.4947,4.21289,-34.0404,-1.56107,23.134,52.8096,-21.5084,-8.29327,0.172443,-32.6247,6.02677,-12.932,49.2608,-25.7379,-0.867873,-4.02987
9.64101,17.0733,-18.6016,12.015,-2.52485,-4.72304,21.6128,0.479608,2.08984,3.62904,1.38206,3.21047,-8.14563,0.638746,1.91928,-7.73854,-3.49297,-7.0458,-8.23075,-3.8676,8.37998,-0.964607,-1.81714,3.9326,-2.78299e-15,4.77083e-15,-18.1449,0.347157,-79.8996,105.636,-17.614,-22.707,-5.08279,7.12502,3.72603,-35.03,-2.78299e-15,4.77083e-15,-25.7413,-2.41257,79.8558,106.065,11.9735,-37.6729,-25.6299,7.12502,-10.7237,4.07642,-34.9518,-1.62862,23.2078,54.183,-22.4304,-8.62223,-0.403214,-33.8047,6.31667,-12.9697,50.9222,-26.384,-1.10899,-3.96954
9.63491,16.9714,-18.628,12.3111,-2.51669,-5.02068,22.1192,0.460973,2.09789,3.57077,1.40206,3.41519,-8.4855,0.648871,2.13436,-7.67092,-3.43938,-7.29325,-8.63118,-3.76398,8.44572,-1.1112,-1.76129,4.01641,-9.93923e-16,-7.95139e-15,-18.4554,0.602147,-79.8325,105.606,-17.5744,-23.0743,-5.32231,7.12502,3.37131,-35.2754,-9.93923e-16,-7.95139e-15,-26.1658,-2.2396,80.0894,105.921,12.1819,-37.5739,-25.7109,7.12502,-10.6283,4.0003,-35.9609,-1.55949,23.629,55.4798,-23.4305,-8.94676,-1.11728,-35.1803,6.78904,-12.6805,52.6366,-26.971,-1.40786,-4.23061
9.62646,16.8734,-18.6513,12.5732,-2.54358,-5.37374,22.9323,0.518013,2.10333,3.29954,1.5466,3.63192,-9.23003,0.717867,2.33181,-7.4145,-3.40499,-7.52295,-8.83257,-3.70723,8.52753,-1.22179,-1.73202,4.10151,-1.09332e-14,-1.74931e-14,-19.2756,0.713099,-79.786,105.567,-17.4696,-23.2814,-5.0309,7.12502,3.17135,-34.9871,-1.09332e-14,-1.74931e-14,-26.9877,-2.15468,80.3374,105.875,12.3137,-37.3079,-25.5772,7.12502,-10.3717,4.14698,-36.9364,-1.47476,24.0959,56.7274,-24.4149,-9.11397,-1.15858,-36.461,7.34271,-12.3125,54.3267,-27.6046,-1.79057,-4.28308
9.62037,16.7836,-18.6655,12.5411,-2.34066,-5.34786,23.0341,0.503039,2.24221,3.73633,1.53425,3.54505,-8.791,0.706122,2.15545,-7.59253,-3.49872,-7.2426,-9.39542,-3.81522,8.53103,-1.37251,-1.79371,4.05239,1.39149e-15,-1.35174e-14,-19.1509,0.244703,-79.892,105.351,-17.3482,-23.4301,-4.61385,7.12502,3.02773,-34.5721,1.39149e-15,-1.35174e-14,-26.7109,-2.29235,80.3392,105.752,12.5218,-37.2952,-25.4192,7.12502,-10.3594,4.30558,-37.5691,-1.79178,24.1839,58.003,-25.4104,-9.42702,-1.73281,-37.3763,7.56676,-12.296,55.9624,-28.4024,-2.20152,-4.0338
9.61969,16.6857,-18.6814,12.7139,-2.19169,-5.02203,23.1028,0.492591,2.01001,4.02854,1.44609,3.46985,-8.50427,0.670297,2.22937,-7.78428,-3.57593,-7.16188,-9.88354,-3.89039,8.56846,-1.49556,-1.83311,4.05447,4.37326e-15,3.37934e-14,-19.094,0.0549033,-79.9064,105.146,-17.1278,-23.3742,-4.72362,7.12502,3.08177,-34.6811,4.37326e-15,3.37934e-14,-26.5588,-2.21908,80.5633,105.405,12.5732,-37.8635,-25.7309,7.12502,-10.9076,3.96583,-38.4524,-2.16434,23.9274,59.3499,-26.4631,-9.73331,-2.43701,-38.5281,7.63253,-12.6595,57.585,-29.2602,-2.45028,-3.91487
9.62151,16.5793,-18.7022,13.1911,-2.30678,-4.89996,23.3334,0.598502,1.85647,3.99104,1.55219,3.42479,-8.67293,0.723421,2.23636,-7.8883,-3.63868,-7.13189,-10.2681,-3.95124,8.62318,-1.59992,-1.86506,4.07311,2.5842e-15,9.54166e-15,-19.4465,-0.0743538,-79.8783,105.062,-17.0165,-23.3574,-5.00683,7.12502,3.09792,-34.9641,2.5842e-15,9.54166e-15,-26.6413,-2.26422,80.8294,104.758,12.5559,-38.2777,-26.2925,7.12502,-11.3071,3.38267,-39.7383,-2.26185,23.8599,60.7534,-27.5986,-10.0303,-3.40326,-40.0077,7.99834,-12.9098,59.2246,-29.995,-2.67061,-3.83854
9.6212,16.4692,-18.7188,13.5066,-2.13274,-5.028,23.5593,0.550377,2.07748,4.0769,1.55188,3.45687,-8.6913,0.716586,2.14448,-8.28909,-3.70554,-6.94789,-10.4884,-4.02696,8.51461,-1.60294,-1.90203,3.99236,1.27222e-14,3.77691e-14,-19.7417,-0.179509,-79.8183,104.904,-17.1561,-23.6411,-4.93968,7.12502,2.82394,-34.9007,1.27222e-14,3.77691e-14,-26.5309,-2.26858,81.0448,104.028,12.5608,-38.3433,-26.8302,7.12502,-11.3704,2.84152,-40.8243,-2.57898,24.1543,62.1782,-28.5426,-10.6407,-5.3768,-41.3629,8.23223,-12.8083,60.9017,-30.6589,-2.98815,-3.7929
9.61599,16.3643,-18.7344,13.6119,-2.0589,-5.01722,23.7567,0.545078,2.0017,4.35877,1.52797,3.53272,-8.48507,0.707756,2.27697,-8.6394,-3.7833,-7.00579,-10.9125,-4.0899,8.53111,-1.67773,-1.92743,4.01008,-1.03368e-14,-3.26007e-14,-19.8506,-0.224485,-79.7343,104.586,-17.2505,-23.7521,-4.78754,7.12502,2.71677,-34.75,-1.03368e-14,-3.26007e-14,-26.4317,-2.02464,81.3857,103.499,12.4468,-38.3574,-27.2012,7.12502,-11.384,2.46983,-41.6846,-2.73123,24.2669,63.6085,-29.2281,-10.9769,-6.21001,-42.4195,8.50798,-12.824,62.5355,-31.3256,-3.25348,-3.77831
9.61346,16.2563,-18.7482,13.6956,-2.20301,-4.82256,24.1283,0.678376,1.70665,4.53216,1.63098,3.51513,-8.49669,0.762569,2.39425,-8.38899,-3.83449,-6.88828,-11.8046,-4.15064,8.43926,-2.02118,-1.96954,3.98229,5.96354e-16,5.96354e-15,-20.4595,-0.356545,-79.6687,104.539,-17.3602,-23.8355,-4.91232,7.12502,2.63627,-34.8758,5.96354e-16,5.96354e-15,-26.6311,-1.90244,81.7934,103.144,12.4538,-38.1574,-27.3795,7.12502,-11.1911,2.30207,-42.6027,-2.74464,24.0954,65.0778,-29.7976,-11.199,-6.57382,-43.382,8.97688,-13.1239,64.113,-32.0358,-3.38313,-3.96994
9.61663,16.1476,-18.7487,13.8334,-2.05385,-4.61895,24.429,0.63663,1.73131,4.58858,1.57884,3.38189,-8.58363,0.734888,2.2482,-7.96058,-3.83443,-6.52116,-12.6494,-4.17341,8.28512,-2.39125,-2.0049,3.89195,-6.16232e-15,2.38542e-15,-21.5975,-0.481449,-79.777,104.789,-17.2908,-23.8961,-4.9829,7.12502,2.57767,-34.9471,-6.16232e-15,2.38542e-15,-26.9354,-1.93676,81.9785,102.749,12.6778,-37.6807,-27.2116,7.12502,-10.7313,2.49429,-43.6078,-3.14235,23.9682,66.5654,-30.1681,-11.9126,-7.95091,-44.4011,9.13492,-13.4117,65.6455,-32.729,-3.50651,-4.02178
9.61871,16.048,-18.7396,14.0782,-1.84857,-4.56988,24.5388,0.505009,1.92662,4.59792,1.45266,3.28357,-8.61857,0.66877,2.06639,-7.7249,-3.78239,-6.626,-13.1036,-4.0677,8.58296,-2.59074,-1.95954,4.0421,3.37934e-15,2.38542e-14,-22.3579,-0.468913,-79.9435,104.504,-16.9495,-23.4643,-4.97799,7.12502,2.99472,-34.9367,3.37934e-15,2.38542e-14,-27.3576,-1.99647,82.0768,102.393,13.1363,-37.4776,-26.9904,7.12502,-10.5354,2.7256,-44.6941,-3.5532,24.04,68.0758,-30.5161,-12.4721,-8.57405,-45.4644,9.18919,-13.5036,67.1336,-33.4058,-3.60782,-3.99986
9.61354,15.9479,-18.7355,14.2973,-1.82282,-4.69705,24.6792,0.520092,2.00336,4.74406,1.49451,3.33205,-8.52881,0.686521,2.06197,-7.97856,-3.73183,-6.81158,-13.6075,-3.88891,9.12898,-2.40132,-1.89383,3.88929,-1.09332e-14,-8.74653e-15,-22.6973,-0.490729,-79.8993,103.989,-16.829,-23.5225,-4.73179,7.12502,2.93848,-34.6913,-1.09332e-14,-8.74653e-15,-27.5211,-2.18672,82.4593,101.929,14.1168,-38.2133,-27.8877,7.12502,-11.245,1.79088,-45.696,-3.66499,24.2624,69.6386,-31.0365,-12.497,-8.13824,-46.4937,9.50509,-13.3924,68.6401,-34.0566,-3.84139,-3.85622
9.60267,15.8389,-18.7389,14.3723,-1.85787,-4.73911,25.0732,0.622244,1.809,4.94553,1.59196,3.43628,-8.51844,0.737028,2.25736,-8.41844,-3.7092,-6.7479,-13.8692,-3.83223,9.05031,-2.41892,-1.85951,3.85382,-1.5704e-14,-1.19271e-14,-23.3107,-0.596711,-79.7398,103.875,-16.7938,-23.9827,-4.39694,7.12502,2.49403,-34.3621,-1.5704e-14,-1.19271e-14,-27.5886,-1.58692,82.678,101.182,13.1842,-37.7106,-28.4659,7.12502,-10.7601,1.23855,-46.6244,-3.68513,24.3865,71.2524,-31.5961,-12.153,-6.7734,-47.4375,9.94041,-13.366,70.1415,-34.53,-4.05886,-3.71722
9.5967,15.7244,-18.7403,14.518,-1.84184,-4.63703,25.4073,0.657536,1.5652,5.04035,1.58926,3.50757,-8.59302,0.74142,2.4774,-8.69655,-3.71085,-6.76031,-14.1022,-3.8167,8.95917,-2.4493,-1.84527,3.82867,0,1.27222e-14,-23.8643,-0.662671,-79.6078,103.544,-16.4948,-23.8351,-4.64498,7.12502,2.63661,-34.6084,0,1.27222e-14,-27.972,-1.08842,83.0252,100.508,13.1426,-37.1437,-28.7852,7.12502,-10.2133,0.946827,-47.7015,-3.89651,24.3916,72.877,-31.9207,-11.9405,-5.69921,-48.4772,10.2409,-13.5497,71.6139,-34.8945,-3.99014,-4.22216
9.60144,15.6205,-18.7323,14.7921,-1.7642,-4.6054,25.521,0.599473,1.61372,5.09129,1.53191,3.53724,-8.59192,0.713021,2.50074,-9.05558,-3.73904,-6.77538,-14.2032,-3.83499,8.91043,-2.42375,-1.84643,3.81232,1.07344e-14,-3.18055e-15,-24.2341,-0.616408,-79.5661,102.902,-16.4513,-23.784,-4.9566,7.12502,2.68595,-34.9194,1.07344e-14,-3.18055e-15,-28.3403,-0.823345,83.3999,99.7496,13.2195,-37.3987,-29.2133,7.12502,-10.4593,0.506483,-48.7927,-4.274,24.4736,74.402,-32.1613,-12.2644,-6.84287,-49.5453,10.3511,-13.6798,73.0384,-35.4193,-3.85058,-4.86605
9.60591,15.5265,-18.7194,14.9406,-1.66744,-4.70155,25.8084,0.527358,1.84181,5.11339,1.51039,3.55573,-8.70816,0.696539,2.39744,-9.17151,-3.73501,-6.71215,-14.4575,-3.81924,8.87867,-2.48536,-1.84071,3.79595,1.19271e-15,-1.98785e-15,-24.8841,-0.597647,-79.7013,102.393,-16.8566,-23.9209,-4.49082,7.12502,2.55379,-34.4553,1.19271e-15,-1.98785e-15,-28.8755,-0.690654,83.7424,99.1636,13.2354,-38.0265,-29.2479,7.12502,-11.0648,0.440411,-49.6289,-4.55206,24.6621,75.7904,-32.4663,-12.7903,-8.40426,-50.354,10.4195,-13.6104,74.4058,-36.0414,-3.73792,-4.93116
9.59705,15.4213,-18.7115,14.9883,-1.74692,-4.78948,26.1945,0.602415,1.81345,5.16876,1.60923,3.54381,-8.84677,0.742042,2.3684,-8.7664,-3.64749,-6.58262,-15.2586,-3.68362,8.98194,-2.79723,-1.79675,3.83243,-2.54444e-14,-2.62396e-14,-25.6146,-0.795839,-79.9565,101.86,-17.0175,-23.7912,-3.95677,7.12502,2.67904,-33.9197,-2.54444e-14,-2.62396e-14,-29.39,-0.631902,83.9637,98.5812,13.266,-38.4021,-29.2252,7.12502,-11.427,0.443439,-50.3728,-4.49691,24.8158,77.1297,-32.8368,-12.9874,-8.81153,-51.0433,10.6708,-13.4883,75.7618,-36.5386,-3.76615,-4.73895
9.58242,15.3113,-18.7041,15.0627,-1.84638,-5.01143,26.5074,0.709864,1.82893,5.25574,1.76028,3.56992,-8.91352,0.811182,2.33805,-8.33551,-3.57843,-6.43681,-16.1736,-3.56549,9.09558,-3.14729,-1.76568,3.8726,2.46493e-14,3.1408e-14,-26.2956,-1.05169,-80.141,101.227,-16.907,-23.9555,-3.88249,7.12502,2.52035,-33.8473,2.46493e-14,3.1408e-14,-29.8084,-0.648247,84.1447,97.8471,13.4795,-38.502,-30.34,7.12502,-11.5235,-0.676767,-51.1005,-4.33596,25.1413,78.3876,-33.3103,-13.0422,-8.92426,-51.8032,11.0039,-13.1865,77.1008,-37.0504,-3.92451,-4.69637
9.57569,15.2156,-18.6885,15.1386,-1.69964,-5.31401,26.7174,0.639059,2.10312,5.41161,1.75755,3.7001,-8.84059,0.803303,2.32554,-8.2537,-3.55504,-6.45636,-16.8196,-3.50485,9.12255,-3.35845,-1.74288,3.90167,2.38542e-15,-2.10712e-14,-26.7002,-1.12612,-80.1976,100.512,-16.8434,-24.4018,-3.78465,7.12502,2.08934,-33.7542,2.38542e-15,-2.10712e-14,-30.2164,-0.347502,84.4784,97.2497,13.9046,-38.3486,-31.5529,7.12502,-11.3755,-1.88147,-51.6915,-4.48468,25.6005,79.4908,-33.5679,-13.5847,-10.0086,-52.555,11.172,-12.8118,78.3796,-37.6805,-3.92042,-5.06882
