JuanDHNZ/ProyectoFinalCD/preprocessing/sports_trials_csv/01_05.csv
root1,root2,root3,root4,root5,root6,lowerback1,lowerback2,lowerback3,upperback1,upperback2,upperback3,thorax1,thorax2,thorax3,lowerneck1,lowerneck2,lowerneck3,upperneck1,upperneck2,upperneck3,head1,head2,head3,rclavicle1,rclavicle2,rhumerus1,rhumerus2,rhumerus3,rradius1,rwrist1,rhand1,rhand2,rfingers1,rthumb1,rthumb2,lclavicle1,lclavicle2,lhumerus1,lhumerus2,lhumerus3,lradius1,lwrist1,lhand1,lhand2,lfingers1,lthumb1,lthumb2,rfemur1,rfemur2,rfemur3,rtibia1,rfoot1,rfoot2,rtoes1,lfemur1,lfemur2,lfemur3,ltibia1,lfoot1,lfoot2,ltoes1
15.19,17.8785,17.1506,143.319,-81.8495,-141.532,3.84463,2.10068,0.810891,-0.343684,2.86983,1.80594,-2.56006,1.42555,1.22852,-8.88637,-2.13885,-4.03788,10.9846,-2.77966,3.30253,4.85646,-1.34136,1.4905,-4.54968e-14,-1.12313e-14,-29.0923,-10.6896,-82.8163,22.6078,-8.90046,-15.0485,-23.549,7.12502,11.118,-53.2345,-4.54968e-14,-1.12313e-14,-32.0135,6.83722,83.9625,27.1899,-0.127177,-14.5025,-7.81789,7.12502,11.6446,21.8385,-7.98756,4.82193,24.2601,30.1492,-16.6925,-9.8318,5.11573,-6.75534,2.09921,-15.5438,29.3626,-19.8497,3.06778,8.1989
15.1916,17.8715,17.1543,142.792,-81.6908,-140.908,3.76601,2.17968,1.02529,-0.375468,2.98354,1.80481,-2.53958,1.47908,1.10336,-8.78719,-2.17401,-3.97397,10.9065,-2.8411,3.32869,4.81745,-1.36813,1.4849,1.66358e-14,2.78299e-15,-29.1068,-10.5226,-82.8738,22.74,-9.336,-15.3264,-23.6044,7.12502,10.8499,-53.3041,1.66358e-14,2.78299e-15,-31.9865,6.61451,84.0129,27.1403,-0.0783495,-14.4222,-7.83964,7.12502,11.722,21.8124,-8.34476,2.56441,24.1487,30.3597,-16.7005,-7.92116,3.86515,-6.88228,1.94491,-15.402,29.4309,-19.8281,3.13374,9.3512
15.1957,17.8706,17.1526,144.003,-81.7381,-142.12,3.77481,2.23025,0.761819,-0.363621,3.03963,1.79283,-2.54613,1.51113,1.23454,-8.85727,-2.19518,-3.98216,10.9886,-2.86265,3.28385,4.85487,-1.3813,1.47004,-8.95152e-15,6.55989e-15,-29.0028,-10.4899,-82.7927,22.7281,-9.56214,-14.9829,-23.5922,7.12502,11.1813,-53.2743,-8.95152e-15,6.55989e-15,-31.9443,6.57384,84.0932,27.1368,-0.0579159,-14.402,-7.8452,7.12502,11.7415,21.8057,-8.31527,4.14534,24.1489,30.4272,-16.7872,-9.14329,4.88209,-6.88981,2.12319,-15.5688,29.4143,-19.8059,3.09064,9.36867
15.2008,17.8725,17.1494,145.255,-81.7015,-143.397,3.83739,2.2543,0.518171,-0.369036,3.06265,1.803,-2.60062,1.52635,1.37676,-8.87478,-2.17408,-4.06918,11.0508,-2.82472,3.2936,4.87698,-1.36583,1.48964,-3.54147e-14,-7.7526e-15,-29.0015,-10.4098,-82.7541,22.7826,-9.58981,-15.3525,-23.352,7.12502,10.8247,-53.053,-3.54147e-14,-7.7526e-15,-31.9924,6.66869,84.1007,27.1858,-0.0378896,-14.3885,-7.82562,7.12502,11.7545,21.8246,-8.34979,4.66343,24.071,30.4863,-16.7952,-9.53123,5.13203,-6.90326,2.36316,-15.6815,29.4622,-19.7671,3.11252,8.9918
15.2038,17.8705,17.1516,144.344,-81.5309,-142.591,3.97559,2.22502,0.725648,-0.354411,3.03497,1.83197,-2.65334,1.509,1.28712,-8.83268,-2.12583,-3.961,11.0452,-2.76883,3.23332,4.86367,-1.33831,1.45761,-4.49999e-14,-7.15625e-15,-29.0582,-10.2719,-82.8938,22.8695,-9.43322,-16.0459,-23.0982,7.12502,10.1559,-52.8331,-4.49999e-14,-7.15625e-15,-32.0222,6.89895,83.9423,27.1557,-0.231246,-14.2464,-7.90209,7.12502,11.8915,21.7402,-8.26394,4.38926,24.2736,30.4613,-16.6272,-9.59734,3.02696,-6.80718,2.37558,-15.4715,29.5173,-19.7076,3.20129,8.7403
15.2035,17.8705,17.1548,143.594,-81.6169,-141.919,4.02113,2.14065,0.744447,-0.325594,2.92323,1.82276,-2.64567,1.45285,1.27306,-8.80866,-2.09486,-3.78947,11.0337,-2.73723,3.12002,4.85101,-1.32309,1.39694,2.29845e-16,8.94531e-16,-29.0113,-10.1577,-83.037,22.8743,-9.57113,-15.7035,-23.2106,7.12502,10.4862,-52.929,2.29845e-16,8.94531e-16,-32.0326,7.1269,83.7972,27.1415,-0.445166,-14.1309,-7.96536,7.12502,12.0028,21.6705,-8.13899,3.97962,24.2832,30.4136,-16.5024,-9.41329,1.8259,-6.7976,2.19525,-15.4522,29.6279,-19.6696,3.15365,9.04065
15.205,17.8711,17.1604,142.351,-81.6383,-140.737,4.08471,2.11309,0.929356,-0.283179,2.89523,1.85169,-2.62952,1.43582,1.1998,-8.92776,-2.15371,-3.90572,11.1368,-2.80602,3.17657,4.90775,-1.35713,1.42737,-5.24916e-15,-1.28216e-14,-28.9528,-10.3052,-82.9601,22.9105,-9.63638,-15.6818,-23.0375,7.12502,10.5071,-52.7549,-5.24916e-15,-1.28216e-14,-32.009,7.06802,83.8611,27.1755,-0.441366,-14.162,-7.95555,7.12502,11.9729,21.682,-8.03029,3.83445,24.3859,30.3594,-16.491,-9.14875,3.02842,-6.80893,1.89987,-15.364,29.7364,-19.6376,3.30004,9.31045
15.2104,17.8759,17.1654,141.793,-81.4485,-140.101,4.0818,2.16863,1.20987,-0.296318,2.9827,1.88901,-2.63051,1.47501,1.07595,-9.04656,-2.23797,-4.12943,11.2365,-2.9031,3.30722,4.9673,-1.40479,1.49624,-3.0091e-14,5.26779e-15,-28.941,-10.4088,-82.8468,22.9657,-9.50498,-15.8483,-22.7536,7.12502,10.3465,-52.479,-3.0091e-14,5.26779e-15,-31.9743,6.86192,84.001,27.1902,-0.279248,-14.2474,-7.93836,7.12502,11.8905,21.704,-8.14216,3.86646,24.5445,30.3212,-16.5987,-8.75104,4.80589,-6.92762,1.82812,-15.2021,29.8052,-19.6437,3.61148,8.92895
15.2168,17.8847,17.1664,143.448,-81.3611,-141.617,4.02831,2.22834,1.06915,-0.361785,3.0559,1.82775,-2.67271,1.51372,1.08757,-9.05069,-2.21567,-4.12367,11.2944,-2.88012,3.33982,4.98534,-1.39162,1.50696,2.50282e-14,4.27387e-15,-28.9369,-10.121,-82.9766,22.9828,-9.64625,-15.4745,-22.8675,7.12502,10.707,-52.5747,2.50282e-14,4.27387e-15,-32.0407,6.63978,84.0483,27.2698,0.0527892,-14.3447,-7.87746,7.12502,11.7968,21.7703,-8.36519,3.71707,24.354,30.2951,-16.6664,-8.24744,5.43162,-7.12481,2.01337,-15.349,29.8709,-19.6743,3.64791,8.98854
15.2245,17.8863,17.1696,143.68,-81.3808,-141.89,4.17776,2.23008,1.08171,-0.37724,3.06133,1.74319,-2.76726,1.51561,0.98682,-9.07989,-2.1884,-3.92372,11.3886,-2.86697,3.28361,5.01512,-1.38063,1.4574,6.80837e-15,-4.37326e-15,-28.9549,-10.319,-83.0198,22.9665,-9.20604,-15.0868,-23.0608,7.12502,11.081,-52.7482,6.80837e-15,-4.37326e-15,-32.1,6.34342,84.0256,27.3631,0.310047,-14.354,-7.88706,7.12502,11.7877,21.7612,-8.3645,3.50154,24.2808,30.2869,-16.5916,-8.09736,5.32228,-7.16029,2.25878,-15.3687,29.9271,-19.583,3.27992,9.60785
15.2294,17.8823,17.18,141.759,-81.4511,-140.158,4.42161,2.12235,1.61302,-0.305168,2.94457,1.57655,-2.79299,1.44779,0.519005,-9.04441,-2.15944,-3.71686,11.2974,-2.87033,3.39436,4.97956,-1.3667,1.45835,-2.7159e-14,-7.55382e-15,-29.0123,-10.8026,-83.1315,23.1421,-8.44597,-14.1506,-23.4372,7.12502,11.9838,-53.0741,-2.7159e-14,-7.55382e-15,-32.0645,6.19753,83.7604,27.3947,0.236445,-14.2359,-8.04707,7.12502,11.9016,21.5946,-8.17567,3.25527,24.4292,30.3138,-16.496,-8.16521,5.25604,-7.0085,2.22372,-15.1978,29.934,-19.5469,3.07606,9.97029
15.2333,17.8845,17.1813,142.769,-81.1502,-141.111,4.28075,2.16237,2.04828,-0.215331,3.00788,1.28212,-2.58302,1.47398,-0.0216241,-8.98207,-2.10644,-3.4658,11.0096,-2.85984,3.65608,4.87984,-1.33492,1.50045,-2.86374e-14,-2.78299e-15,-28.9268,-11.1742,-83.5707,23.3886,-8.11731,-13.5125,-23.8333,7.12502,12.5992,-53.4334,-2.86374e-14,-2.78299e-15,-31.8462,6.15947,83.2845,27.3837,0.172439,-14.1659,-8.16809,7.12502,11.9691,21.4697,-8.30603,3.69684,24.519,30.3788,-16.4893,-8.33002,5.0334,-7.01459,2.49689,-15.1322,29.879,-19.6086,3.23551,9.90804
15.2387,17.8879,17.188,144.337,-81.2409,-142.731,4.25458,2.15707,2.05651,-0.102681,2.99343,1.03838,-2.43896,1.46805,-0.271302,-8.97354,-2.10978,-3.41714,10.7859,-2.88784,3.85529,4.81266,-1.33424,1.55273,6.95746e-16,-7.15625e-15,-28.7581,-11.3838,-83.8182,23.4918,-8.15775,-13.6616,-23.9058,7.12502,12.4554,-53.5146,6.95746e-16,-7.15625e-15,-31.6229,6.14186,83.0691,27.3385,0.190099,-14.1422,-8.24378,7.12502,11.992,21.3927,-8.30702,4.29181,24.284,30.4692,-16.5445,-8.78117,5.02655,-6.93704,2.47122,-15.4543,29.7838,-19.5631,3.36214,10.0802
15.2438,17.8924,17.1997,145.711,-81.5721,-144.171,4.33442,2.10768,1.8111,-0.0670939,2.91543,0.937011,-2.45535,1.43218,-0.236259,-8.94504,-2.11876,-3.53257,10.7112,-2.88613,3.89269,4.78699,-1.3359,1.58362,-3.25634e-14,-2.14687e-14,-28.7243,-11.1796,-83.8335,23.5956,-8.4187,-13.8234,-23.9382,7.12502,12.2994,-53.5565,-3.25634e-14,-2.14687e-14,-31.5953,6.22604,83.0819,27.3078,0.00413775,-13.9334,-8.44472,7.12502,12.1934,21.1799,-8.31122,4.40436,23.8633,30.5716,-16.6177,-8.81649,5.90769,-6.87473,2.2072,-15.927,29.675,-19.4674,3.36095,10.5741
15.2483,17.8944,17.2159,144.539,-81.8427,-143.016,4.45013,1.99546,2.00249,-0.0942104,2.77832,0.89826,-2.53936,1.36016,-0.379409,-8.90996,-2.09767,-3.53837,10.7504,-2.85534,3.85732,4.79154,-1.32375,1.576,-6.21202e-17,8.74653e-15,-28.7852,-11.0107,-83.8628,23.6694,-8.58466,-13.8481,-23.9568,7.12502,12.2756,-53.5765,-6.21202e-17,8.74653e-15,-31.6411,6.42009,83.0067,27.2696,-0.399117,-13.6558,-8.70533,7.12502,12.461,20.9032,-8.35903,3.99319,23.7574,30.6813,-16.7258,-8.71475,5.56314,-6.87845,1.86839,-16.0169,29.5746,-19.2835,3.39944,10.786
15.254,17.8938,17.2191,144.215,-81.5867,-142.664,4.51228,2.05642,2.19625,-0.118935,2.87243,0.942066,-2.59066,1.40368,-0.451489,-8.86787,-2.10408,-3.65899,10.7244,-2.86582,3.99968,4.78059,-1.32569,1.63947,3.12837e-14,9.54166e-15,-28.8282,-10.9239,-83.9031,23.7116,-8.68148,-14.3229,-23.781,7.12502,11.8178,-53.4276,3.12837e-14,9.54166e-15,-31.6527,6.31085,83.0788,27.3021,-0.22854,-13.6986,-8.50635,7.12502,12.4197,21.1047,-8.47618,3.94292,23.934,30.8005,-16.5403,-8.72672,4.03939,-6.85926,2.08762,-15.8066,29.4898,-19.1534,3.43661,10.8253
15.2616,17.8911,17.228,144.607,-81.705,-143.172,4.67227,2.02434,2.15682,-0.0578631,2.82964,0.896547,-2.618,1.38252,-0.478467,-8.89386,-2.1282,-3.784,10.7047,-2.89428,4.12002,4.78353,-1.33692,1.69502,-7.85199e-15,1.07344e-14,-28.7724,-10.6329,-83.994,23.7866,-8.79673,-14.9083,-23.7184,7.12502,11.2532,-53.3965,-7.85199e-15,1.07344e-14,-31.642,5.59217,83.4471,27.5074,0.863454,-14.2362,-7.881,7.12502,11.9014,21.7607,-8.43591,3.71659,23.7399,30.891,-16.348,-8.38669,4.86495,-6.77254,2.19234,-15.9616,29.4587,-19.0626,3.28015,10.4641
15.271,17.8908,17.2327,146.488,-81.9603,-145.181,4.78281,1.93246,1.85048,0.0236975,2.68849,0.728228,-2.60496,1.31629,-0.473462,-8.93025,-2.03337,-3.53834,10.7709,-2.78048,3.94903,4.79962,-1.28135,1.60947,-1.56046e-14,-1.15295e-14,-28.6251,-10.2697,-84.2927,23.834,-8.88748,-14.568,-23.9182,7.12502,11.5814,-53.5782,-1.56046e-14,-1.15295e-14,-31.7024,4.83591,83.6117,27.8138,1.96492,-14.878,-7.42768,7.12502,11.2825,22.2489,-8.38596,3.59174,23.2844,30.9373,-16.2278,-8.03052,6.21992,-6.70517,2.34012,-16.3752,29.4545,-18.9564,3.11713,9.33655
15.2809,17.8932,17.2366,146.587,-81.9767,-145.287,4.75177,1.85344,1.83753,0.0775234,2.57965,0.69391,-2.53329,1.26298,-0.49183,-8.76066,-1.93129,-3.29016,10.6096,-2.65036,3.74116,4.71049,-1.22234,1.51501,3.27249e-14,0,-28.4788,-10.079,-84.4954,23.8345,-8.94587,-14.1402,-23.9074,7.12502,11.9939,-53.5438,3.27249e-14,0,-31.7234,4.63633,83.5874,27.9701,2.35912,-15.0971,-7.29911,7.12502,11.0711,22.3889,-8.41459,3.89487,23.2976,30.9582,-16.0161,-8.51822,4.95807,-6.73815,2.46248,-16.4022,29.4348,-18.8397,3.0908,8.21809
15.2924,17.8983,17.2423,144.571,-81.803,-143.196,4.79652,1.87137,1.92232,0.0369513,2.61589,1.00295,-2.61021,1.27962,-0.226968,-8.53827,-1.99588,-3.55884,10.4554,-2.69853,3.70933,4.63076,-1.26084,1.54765,1.49585e-14,1.78906e-14,-28.5217,-9.93356,-84.1275,23.9378,-9.18506,-13.8505,-23.7345,7.12502,12.2732,-53.3543,1.49585e-14,1.78906e-14,-31.7524,4.87821,83.8779,27.9681,2.23602,-15.0035,-7.22665,7.12502,11.1614,22.4565,-8.4711,4.72777,23.7637,30.9468,-15.8701,-9.43526,4.12566,-6.8585,2.45574,-16.0438,29.4255,-18.7562,3.16167,9.15914
15.3045,17.9041,17.2442,144.072,-81.6795,-142.613,4.91048,1.94958,1.71529,-0.0498917,2.71946,1.28158,-2.78516,1.33294,0.161246,-8.43164,-2.09065,-3.96202,10.4829,-2.79175,3.82342,4.63205,-1.31699,1.64326,-3.1644e-14,-1.47101e-14,-28.6372,-9.89392,-83.6625,24.0769,-9.42909,-13.302,-23.842,7.12502,12.8021,-53.4294,-3.1644e-14,-1.47101e-14,-31.7547,5.37282,84.1105,27.7711,1.83153,-15.0585,-7.23978,7.12502,11.1083,22.4462,-8.54891,5.32141,23.9628,30.8732,-15.7097,-9.75617,4.85163,-7.03214,2.58597,-15.8911,29.4798,-18.67,3.27745,8.74944
15.3157,17.9061,17.2449,144.521,-81.6943,-143.035,4.98322,1.9796,1.54781,-0.0678463,2.75287,1.2955,-2.85276,1.3516,0.263426,-8.38169,-2.10998,-4.01112,10.4648,-2.82156,3.89465,4.62099,-1.33005,1.67174,7.87684e-15,-6.75868e-15,-28.6108,-10.1392,-83.5441,24.0403,-9.22849,-13.2981,-23.8186,7.12502,12.8058,-53.4059,7.87684e-15,-6.75868e-15,-31.5553,6.19157,83.8872,27.2752,0.921782,-15.0676,-7.62925,7.12502,11.0996,22.0572,-8.59512,5.35388,23.8957,30.7875,-15.5284,-9.71689,5.36999,-7.15384,2.72609,-15.9484,29.5417,-18.5576,3.30529,7.79769
15.328,17.9067,17.2508,143.684,-81.7082,-142.227,5.07965,1.93305,1.64249,-0.0294209,2.69711,1.29015,-2.86291,1.32211,0.206403,-8.38967,-2.10002,-3.82661,10.4717,-2.8141,3.74385,4.61948,-1.32796,1.59543,-2.68608e-14,5.96354e-15,-28.5412,-10.1159,-83.6593,24.0005,-9.05127,-14.0869,-23.7044,7.12502,12.0453,-53.3377,-2.68608e-14,5.96354e-15,-31.302,6.98268,83.5976,26.8639,0.0301446,-14.659,-7.96175,7.12502,11.4936,21.7032,-8.58613,5.20121,23.9702,30.7466,-15.4838,-9.63614,5.61961,-7.19301,2.68759,-15.8475,29.5776,-18.4859,3.07482,8.34839
15.3401,17.9133,17.2599,143.169,-81.7185,-141.724,5.12382,1.9027,1.51699,0.0227183,2.6516,1.43375,-2.84679,1.30163,0.426791,-8.3539,-2.11561,-3.87628,10.4824,-2.81032,3.58065,4.61513,-1.33795,1.55361,1.21756e-15,-1.31198e-14,-28.5653,-9.68332,-83.6645,24.2245,-9.27982,-14.9133,-23.7582,7.12502,11.2483,-53.4366,1.21756e-15,-1.31198e-14,-31.1994,7.34332,83.7078,26.814,-0.189418,-14.273,-7.83123,7.12502,11.8658,21.8126,-8.64871,5.01871,23.9803,30.763,-15.4407,-9.42509,5.65819,-7.24162,2.75326,-15.7978,29.5986,-18.3533,2.91897,8.38431
15.352,17.9167,17.2703,142.993,-81.7713,-141.559,5.11348,1.94928,1.07837,0.107205,2.69206,1.78175,-2.79101,1.32891,1.02848,-8.32663,-2.21894,-4.37064,10.4727,-2.88458,3.57808,4.61775,-1.39374,1.62863,9.59757e-15,-4.27387e-15,-28.6151,-9.50209,-83.1445,24.6066,-9.25021,-15.0774,-23.8526,7.12502,11.0901,-53.5396,9.59757e-15,-4.27387e-15,-31.2131,7.35795,84.3314,26.9855,-0.0639285,-14.142,-7.72357,7.12502,11.9922,21.9129,-8.74899,4.82769,23.9038,30.8293,-15.374,-9.26467,5.72903,-7.30495,2.84592,-15.8533,29.5933,-18.1812,2.99441,7.41206
15.3625,17.9125,17.2795,142.929,-81.8201,-141.567,5.42325,1.8092,1.83827,0.0427555,2.54788,1.19471,-2.96931,1.24317,-0.000588573,-8.29961,-2.19348,-4.17828,10.5512,-2.96286,4.24091,4.64694,-1.38761,1.79729,2.36554e-14,-1.19271e-15,-28.6494,-10.1625,-83.8092,24.6119,-8.82392,-14.6618,-23.7726,7.12502,11.4909,-53.4376,2.36554e-14,-1.19271e-15,-31.812,3.91753,84.4972,28.3134,3.17319,-14.3067,-7.01783,7.12502,11.8334,22.6278,-8.76582,4.65527,23.8121,30.933,-15.4433,-9.02868,6.4691,-7.29392,2.89751,-15.9377,29.5654,-18.0621,3.12955,7.19411
15.3727,17.9105,17.286,143.893,-81.9101,-142.604,5.54086,1.78968,1.80602,0.0931208,2.51834,1.05311,-2.97857,1.2284,-0.128943,-8.30954,-2.28951,-4.35284,10.5671,-3.11278,4.58348,4.66792,-1.44822,1.92167,1.95803e-14,1.86858e-14,-28.4084,-10.0126,-83.9256,24.4482,-9.27998,-14.3122,-23.2781,7.12502,11.828,-52.9241,1.95803e-14,1.86858e-14,-31.2512,6.4948,83.5236,27.2969,0.530233,-13.8599,-7.90983,7.12502,12.2642,21.7106,-8.80383,4.54147,23.5709,31.0767,-15.582,-8.84699,6.28602,-7.25079,2.95022,-16.1676,29.5127,-17.9196,3.27483,7.05898
15.3859,17.9116,17.2965,144.559,-81.9907,-143.217,5.51282,1.81749,1.56504,0.145528,2.54051,1.15289,-2.92347,1.24379,0.108465,-8.25945,-2.46829,-4.72306,10.534,-3.32675,4.75112,4.66816,-1.55844,2.02003,2.67241e-14,8.74653e-15,-28.2539,-9.93779,-83.6485,24.4635,-9.48692,-14.1032,-23.0531,7.12502,12.0296,-52.6874,2.67241e-14,8.74653e-15,-31.944,3.04187,84.9414,28.9364,4.07961,-14.2621,-6.86693,7.12502,11.8764,22.7762,-9.01113,4.33375,23.3745,31.243,-15.5548,-8.85754,4.69467,-7.33723,2.93545,-16.3463,29.4384,-17.7266,3.32539,6.87927
15.3973,17.9202,17.311,144.72,-81.9897,-143.262,5.42442,1.87109,1.5622,0.173077,2.60987,1.20152,-2.84736,1.27911,0.15837,-8.02232,-2.68819,-5.1044,10.2909,-3.61122,5.04906,4.57999,-1.69894,2.158,2.1506e-14,-7.55382e-15,-28.2119,-10.4648,-83.3349,24.5509,-8.94273,-14.1169,-23.5251,7.12502,12.0164,-53.1601,2.1506e-14,-7.55382e-15,-30.9926,6.74128,83.938,27.2789,0.297794,-13.6958,-8.07357,7.12502,12.4224,21.5373,-9.23639,3.93372,23.2691,31.3512,-15.5352,-8.48401,4.54877,-7.50163,3.00342,-16.3916,29.4027,-17.5954,3.1646,7.47096
15.4099,17.9283,17.3211,145.301,-81.9744,-143.841,5.47424,1.96,1.48046,0.224671,2.72285,1.19864,-2.82493,1.33652,0.191628,-7.7992,-2.95604,-5.31071,10.0169,-3.97886,5.32646,4.48761,-1.87515,2.2558,-9.86469e-15,-3.97569e-15,-28.1291,-10.7451,-83.2214,24.5764,-8.75603,-14.5061,-23.9174,7.12502,11.6411,-53.5741,-9.86469e-15,-3.97569e-15,-31.5133,3.35215,85.1498,28.7254,3.56083,-14.1857,-7.10926,7.12502,11.95,22.5297,-9.32967,3.70803,23.1305,31.3868,-15.4927,-7.9838,5.78914,-7.57162,3.0718,-16.4804,29.4254,-17.5937,3.10584,8.04101
15.4255,17.9217,17.3261,145.18,-81.9243,-143.796,5.66005,2.00102,1.40989,0.271141,2.77633,1.23592,-2.88601,1.36336,0.259111,-7.75155,-3.21164,-5.29742,10.0037,-4.33575,5.38954,4.49635,-2.04757,2.24977,4.96962e-15,-1.61016e-14,-28.1247,-10.4442,-83.3206,24.755,-9.40802,-15.4113,-23.987,7.12502,10.768,-53.691,4.96962e-15,-1.61016e-14,-30.6828,6.62164,84.1619,27.207,0.00931364,-13.8881,-8.12788,7.12502,12.237,21.4941,-9.3503,4.16193,23.2094,31.4108,-15.3247,-8.37525,5.73756,-7.55959,3.01569,-16.4738,29.4455,-17.5825,3.2622,7.88782
15.4398,17.9153,17.3324,144.848,-81.9551,-143.532,5.81886,1.96842,1.3016,0.308196,2.7297,1.31405,-2.94585,1.34109,0.39845,-7.76974,-3.4459,-5.37338,10.1437,-4.64493,5.35221,4.56028,-2.20415,2.22876,-1.35049e-14,-1.03368e-14,-28.196,-10.0266,-83.3301,25.007,-10.0661,-16.4859,-23.7368,7.12502,9.7314,-53.492,-1.35049e-14,-1.03368e-14,-30.8222,6.30238,84.3553,27.5735,0.349734,-13.837,-8.03984,7.12502,12.2863,21.5792,-9.33878,4.50985,23.2572,31.4107,-15.246,-8.84778,4.91764,-7.5648,2.87338,-16.4914,29.4852,-17.5858,3.22082,8.32876
15.4567,17.9159,17.3421,145.733,-82.1566,-144.468,5.98333,1.90174,1.00543,0.334715,2.62368,1.29725,-3.0232,1.29188,0.549964,-7.6098,-3.66079,-5.54939,10.0554,-4.93339,5.47895,4.52998,-2.34831,2.27952,-4.2279e-14,-6.55989e-15,-28.1621,-9.86186,-83.2899,25.0071,-10.106,-16.6011,-23.2565,7.12502,9.62022,-53.0168,-4.2279e-14,-6.55989e-15,-30.8978,6.24854,84.4308,27.8418,0.550232,-13.8284,-7.90982,7.12502,12.2945,21.7088,-9.35506,4.35964,22.9596,31.3908,-15.2089,-8.73025,5.36659,-7.63789,2.80401,-16.7726,29.5537,-17.602,3.17869,8.22519
15.4768,17.9164,17.3534,145.566,-82.2075,-144.212,6.06834,1.85781,1.00276,0.30389,2.56545,1.21641,-3.09877,1.26239,0.469634,-7.33123,-3.92046,-5.47935,9.8263,-5.32101,5.68036,4.43884,-2.53114,2.30964,4.79568e-15,-2.18663e-15,-28.1678,-9.93196,-83.4199,25.0741,-9.9312,-15.6302,-23.3409,7.12502,10.5569,-53.0558,4.79568e-15,-2.18663e-15,-30.9277,6.02187,84.3609,28.03,0.722032,-13.9854,-7.76175,7.12502,12.1432,21.8658,-9.51096,4.5515,22.9551,31.4091,-14.9967,-9.1434,4.76245,-7.85908,3.08069,-16.7912,29.5747,-17.5156,3.09015,7.53221
15.4975,17.9195,17.3622,145.747,-82.2024,-144.266,6.09469,1.8903,0.957818,0.290052,2.60476,1.14079,-3.12636,1.2823,0.412329,-7.28117,-4.33083,-5.48647,9.87175,-5.91236,5.9359,4.48628,-2.81003,2.34962,8.69683e-16,-3.57812e-15,-28.2535,-9.70323,-83.6134,25.3842,-10.241,-14.6457,-23.8523,7.12502,11.5065,-53.5165,8.69683e-16,-3.57812e-15,-30.8693,5.63182,84.3758,28.1227,0.914004,-14.142,-7.93548,7.12502,11.9922,21.701,-9.74562,4.74937,22.963,31.4925,-14.7783,-9.67757,3.1024,-8.1299,3.49189,-16.7878,29.6355,-17.491,2.77596,8.14287
15.5203,17.9217,17.374,145.934,-82.2312,-144.45,6.24287,1.87725,0.924391,0.3466,2.58517,1.12811,-3.15181,1.27236,0.415595,-7.24266,-4.7468,-5.87862,9.93083,-6.48947,6.38076,4.55936,-3.08506,2.50969,-2.18415e-14,-9.34288e-15,-28.2433,-9.35529,-83.6973,25.6435,-10.6967,-14.3374,-23.7154,7.12502,11.8038,-53.3627,-2.18415e-14,-9.34288e-15,-30.7846,5.57854,84.424,28.2399,0.970425,-14.2258,-8.05756,7.12502,11.9114,21.5836,-9.83738,4.78586,22.8705,31.4475,-14.7662,-9.61684,3.76149,-8.258,3.47851,-16.8576,29.6707,-17.4969,2.63028,9.0246
15.5436,17.9134,17.396,143.05,-82.0464,-141.596,6.45688,1.78463,1.61234,0.431312,2.51042,1.13916,-3.15492,1.22395,0.0435305,-7.08266,-5.08661,-6.29491,9.81108,-6.97316,6.94999,4.5613,-3.31202,2.72181,-3.82412e-14,-1.15295e-14,-28.1954,-10.1779,-83.5717,25.8148,-10.032,-14.0647,-23.0461,7.12502,12.0667,-52.6782,-3.82412e-14,-1.15295e-14,-30.656,5.84561,84.2773,28.3034,0.727875,-14.3647,-8.0693,7.12502,11.7775,21.5796,-10.0811,2.54206,23.0036,31.5451,-14.8149,-7.19138,4.77183,-8.37683,3.04086,-16.4923,29.7795,-17.5209,2.82809,9.3884
15.5615,17.927,17.3897,145.871,-81.4293,-144.247,6.27472,2.01746,1.43181,0.486592,2.8009,1.07967,-2.99874,1.37226,0.0654759,-6.98269,-5.46124,-6.72302,9.81822,-7.51418,7.5525,4.62297,-3.56466,2.93891,1.72694e-14,-1.39149e-14,-28.0045,-10.6057,-83.6823,25.7196,-9.59907,-13.4753,-22.8113,7.12502,12.635,-52.4091,1.72694e-14,-1.39149e-14,-30.4858,6.0519,84.0631,28.2747,0.449715,-14.6204,-8.20118,7.12502,11.5308,21.4616,-10.1252,7.09078,23.4823,31.5007,-14.7642,-10.8044,5.05036,-8.51465,3.53168,-16.4301,29.7528,-17.5395,3.02777,9.47185
15.5766,17.9109,17.4101,146.43,-81.9426,-145.016,6.43986,1.869,1.08119,0.631993,2.57538,0.997738,-2.95432,1.26412,0.193693,-6.76916,-5.9186,-7.151,9.8028,-8.14533,7.91847,4.66177,-3.87639,3.07818,-7.92654e-15,-4.57205e-15,-27.8403,-10.5313,-83.6592,25.7271,-9.52132,-13.5067,-23.3913,7.12502,12.6047,-52.991,-7.92654e-15,-4.57205e-15,-30.3723,6.09172,84.1229,28.3326,0.529593,-14.8341,-8.10827,7.12502,11.3248,21.566,-10.2914,2.4533,22.5958,31.6547,-14.4315,-7.17915,2.77204,-8.46274,3.093,-16.9357,29.8323,-17.54,3.07735,9.73125
15.596,17.9258,17.4238,148.129,-81.7654,-146.706,6.47148,1.92785,0.707201,0.704589,2.62857,1.10995,-2.91912,1.29527,0.513813,-6.3845,-6.34237,-7.46335,9.5533,-8.7229,8.15406,4.59022,-4.17018,3.16936,2.70596e-14,-4.77083e-15,-27.6233,-10.1591,-83.5813,25.7635,-9.76393,-14.3213,-24.1123,7.12502,11.8193,-53.7588,2.70596e-14,-4.77083e-15,-30.3295,6.03991,84.3317,28.4891,0.832153,-14.9758,-8.04043,7.12502,11.1881,21.6413,-10.1906,6.42414,22.808,31.6345,-14.39,-10.588,3.32376,-8.49961,3.00362,-17.1392,29.7819,-17.5247,3.41455,10.1538
15.6245,17.9256,17.4337,149.628,-81.6579,-147.924,6.39529,1.95112,0.455491,0.665612,2.64236,1.09314,-2.92745,1.30571,0.637881,-5.89848,-6.7454,-7.62787,9.16033,-9.30445,8.53892,4.4619,-4.45907,3.28821,1.52319e-14,-3.18055e-15,-27.4477,-9.80807,-83.6854,25.8524,-9.95691,-14.0781,-24.3896,7.12502,12.0538,-54.0224,1.52319e-14,-3.18055e-15,-30.3067,5.92565,84.3406,28.6115,0.982955,-14.8717,-8.31586,7.12502,11.2885,21.3604,-10.9359,2.73838,22.2778,31.7279,-14.1848,-6.735,3.38459,-8.96554,3.22494,-17.2902,29.8732,-17.3966,3.47048,10.3255
15.6557,17.9346,17.4428,149.254,-81.4331,-147.348,6.48438,1.98409,0.534526,0.627754,2.69372,1.10459,-3.01374,1.33005,0.596864,-5.46626,-7.27681,-7.58187,8.83319,-10.0748,8.86017,4.3686,-4.83738,3.33848,1.81391e-14,1.15295e-14,-27.3949,-9.43061,-83.7953,26.0088,-10.3291,-14.0184,-24.0752,7.12502,12.1113,-53.7047,1.81391e-14,1.15295e-14,-30.2304,6.02913,84.2539,28.5957,0.757237,-14.5848,-8.69737,7.12502,11.5652,20.9635,-11.1553,4.25013,22.5679,31.6231,-14.0081,-7.85796,4.14867,-9.3192,3.57116,-17.089,29.9336,-17.2797,3.25643,10.4415
15.6842,17.9398,17.4534,147.385,-81.0949,-145.261,6.48448,1.97545,0.769761,0.619355,2.70292,1.28748,-3.02059,1.33174,0.652634,-5.1225,-7.81477,-7.70897,8.67109,-10.8405,9.15262,4.34997,-5.21708,3.40269,5.51627e-15,1.45113e-14,-27.3057,-9.17953,-83.7365,26.1036,-10.5118,-14.5629,-23.5175,7.12502,11.5863,-53.1772,5.51627e-15,1.45113e-14,-30.187,6.33236,84.2899,28.6202,0.489914,-14.5626,-8.85282,7.12502,11.5866,20.8069,-11.3999,5.50009,23.1165,31.5773,-13.7922,-8.99594,4.32975,-9.69555,3.75325,-16.6107,30.0294,-17.2132,3.1283,10.6543
15.7052,17.9416,17.4687,147.569,-80.9969,-145.366,6.4922,1.9309,0.652615,0.64614,2.63609,1.35174,-3.00512,1.30001,0.790554,-4.62671,-8.24194,-8.17095,8.55003,-11.4676,9.65616,4.34106,-5.53517,3.59941,-9.11925e-15,-8.34896e-15,-27.2553,-9.31441,-83.6254,26.2071,-10.1786,-14.2915,-23.3922,7.12502,11.848,-53.0371,-9.11925e-15,-8.34896e-15,-30.2649,6.41787,84.3174,28.7985,0.499702,-14.6983,-8.72766,7.12502,11.4557,20.9394,-11.5944,4.55623,23.0225,31.4732,-13.5544,-8.16571,3.65971,-9.88365,3.7775,-16.6345,30.055,-17.1061,3.26032,10.8995
15.7253,17.9497,17.4832,148.648,-80.992,-146.458,6.60819,1.91017,0.418423,0.672582,2.59132,1.30512,-3.05043,1.28029,0.87407,-4.08001,-8.7037,-8.74502,8.43578,-12.1742,10.4075,4.3621,-5.88955,3.88388,-1.01629e-14,5.96354e-16,-27.3338,-9.52,-83.623,26.4316,-10.0231,-14.0951,-23.6109,7.12502,12.0374,-53.2447,-1.01629e-14,5.96354e-16,-30.3476,6.40557,84.2601,28.9996,0.576456,-14.8568,-8.54513,7.12502,11.3029,21.1303,-11.5856,5.96975,22.9122,31.4342,-13.5648,-9.422,3.14661,-9.96045,3.80071,-16.8526,30.0687,-17.0167,3.38117,11.2721
15.7534,17.9529,17.4997,148.989,-80.95,-146.764,6.73034,1.83474,0.367863,0.739788,2.48533,1.27809,-3.04876,1.22732,0.881525,-3.74699,-9.23701,-9.20079,8.33093,-12.9698,11.0918,4.42881,-6.28099,4.11066,1.33931e-14,-1.78906e-14,-27.1172,-9.13925,-83.7952,26.5352,-10.4749,-14.0275,-23.9362,7.12502,12.1026,-53.5662,1.33931e-14,-1.78906e-14,-30.3031,6.45184,84.2266,29.1581,0.728869,-15.0419,-8.3923,7.12502,11.1243,21.2928,-11.8236,5.38106,22.7799,31.489,-13.4791,-8.69854,2.9633,-10.1059,3.82404,-16.9355,30.0305,-16.906,3.35414,11.6145
15.7867,17.9557,17.5195,149.628,-80.8625,-147.312,6.81947,1.73964,0.281211,0.824715,2.35034,1.28318,-3.01263,1.16034,0.946647,-3.50867,-9.72066,-9.47016,8.25664,-13.6644,11.4188,4.4808,-6.627,4.20176,-1.71949e-14,-2.8625e-14,-26.7647,-8.31725,-84.0016,26.7298,-11.3332,-14.1928,-24.5783,7.12502,11.9432,-54.2176,-1.71949e-14,-2.8625e-14,-30.2567,6.35088,84.2917,29.3717,1.03535,-14.8244,-8.27757,7.12502,11.3341,21.3962,-12.1881,4.36498,22.5917,31.5635,-13.3349,-7.49187,3.30803,-10.3002,3.90466,-17.0452,29.9419,-16.7567,3.35374,11.6819
15.8155,17.9608,17.5347,150.647,-80.7514,-148.231,6.83216,1.70933,-0.00846384,0.907536,2.2878,1.3415,-2.94702,1.13202,1.17597,-3.17385,-10.156,-9.69232,8.19752,-14.2962,11.6515,4.50807,-6.94791,4.26606,-2.93207e-15,1.98785e-16,-26.6086,-7.9247,-84.0222,27.0328,-11.8477,-14.8499,-24.6752,7.12502,11.3096,-54.3503,-2.93207e-15,1.98785e-16,-30.281,6.10541,84.4774,29.6017,1.36388,-14.4574,-8.08153,7.12502,11.688,21.5724,-12.5067,4.45106,22.447,31.6723,-13.2079,-7.39362,3.18287,-10.491,3.94363,-17.1839,29.9058,-16.643,3.41302,12.1151
15.844,17.96,17.5497,152.786,-80.4957,-150.525,7.07813,1.78893,-0.463048,1.05404,2.35582,1.34026,-2.95292,1.16884,1.41813,-2.73248,-10.6023,-9.82969,8.01147,-14.9663,12.0396,4.49215,-7.28717,4.36862,8.99501e-15,-7.95139e-16,-26.4488,-8.16353,-83.915,27.0733,-11.5048,-15.1493,-23.6529,7.12502,11.0207,-53.3436,8.99501e-15,-7.95139e-16,-30.2651,6.04882,84.5888,29.6804,1.52672,-14.6156,-7.8317,7.12502,11.5355,21.8309,-12.5563,4.93952,22.1756,31.7372,-13.0094,-7.45914,3.04488,-10.399,3.85358,-17.488,29.9009,-16.6067,3.78558,12.5014
15.8835,17.9658,17.569,154.121,-80.2827,-151.598,7.06277,1.79391,-0.743767,1.06414,2.34216,1.37526,-2.94629,1.16515,1.61363,-2.24192,-11.0728,-10.1163,7.70172,-15.677,12.6293,4.46742,-7.64882,4.55449,2.54444e-14,8.94531e-15,-26.2466,-8.40255,-83.7716,27.1819,-10.9403,-14.8393,-23.1251,7.12502,11.3198,-52.7997,2.54444e-14,8.94531e-15,-30.1671,6.18064,84.6932,29.6573,1.54783,-15.0738,-7.60605,7.12502,11.0935,22.0807,-13.0519,5.11296,22.0083,31.7294,-12.811,-7.26804,3.74708,-10.8572,3.86626,-17.6397,29.9364,-16.4741,4.1415,12.1749
15.9125,17.9723,17.5782,152.763,-80.1927,-150.063,6.96567,1.66725,-0.841768,1.18008,2.16857,1.60596,-2.77899,1.07761,1.92829,-1.85943,-11.5345,-10.6206,7.4539,-16.3631,13.2249,4.50167,-7.9988,4.76647,-1.46604e-14,-1.61016e-14,-25.9975,-8.15451,-83.658,27.5451,-11.1036,-14.0894,-23.8866,7.12502,12.0429,-53.5201,-1.46604e-14,-1.61016e-14,-30.0022,6.4322,84.8731,29.6274,1.57157,-15.32,-7.57576,7.12502,10.8561,22.1236,-13.2907,5.12349,22.2696,31.6825,-12.7954,-7.40128,3.43288,-11.2051,4.10851,-17.3361,30.0289,-16.4207,3.97613,12.2095
15.9481,17.9803,17.5888,152.21,-79.7242,-149.174,6.81948,1.67139,-0.861461,1.23617,2.17578,1.83019,-2.64941,1.07985,2.17519,-1.57389,-12.0117,-11.2155,7.41497,-17.0921,13.8387,4.63825,-8.36466,4.97852,-1.28216e-14,6.36111e-15,-25.7939,-7.30215,-83.6919,27.9938,-12.2959,-14.2168,-24.5669,7.12502,11.92,-54.2075,-1.28216e-14,6.36111e-15,-29.8515,6.86835,84.935,29.5708,1.49535,-15.1875,-7.96176,7.12502,10.9839,21.7309,-13.8088,4.95116,22.6049,31.5945,-12.5236,-7.12349,1.60681,-11.7292,4.82715,-16.9499,30.1176,-16.3168,3.50593,12.9061
15.9827,17.9792,17.6075,151.934,-79.3406,-148.911,7.06445,1.65284,-0.851601,1.33618,2.14928,1.96747,-2.68655,1.06416,2.30918,-1.12949,-12.4716,-11.6936,7.33567,-17.8154,14.4075,4.72991,-8.73539,5.16874,2.43511e-15,-8.74653e-15,-25.6867,-6.60305,-83.7121,28.366,-13.0327,-14.3536,-24.5252,7.12502,11.7881,-54.1735,2.43511e-15,-8.74653e-15,-29.8203,7.37991,84.889,29.5051,1.32834,-14.8875,-8.34024,7.12502,11.2732,21.3368,-13.9286,5.14164,22.8166,31.5038,-12.0945,-7.03995,1.15627,-11.8199,4.78161,-16.7651,30.1605,-16.2796,3.67355,13.5932
16.0179,17.993,17.6318,152.927,-79.147,-149.624,7.01673,1.5779,-1.00683,1.3325,2.03853,1.95994,-2.66358,1.01047,2.40042,-0.649514,-12.9145,-11.6193,7.15251,-18.4851,14.631,4.69908,-9.08202,5.18726,1.68967e-14,-1.51076e-14,-25.5774,-6.79073,-83.7261,28.5612,-12.6634,-13.4953,-24.3308,7.12502,12.6157,-53.9298,1.68967e-14,-1.51076e-14,-29.8493,7.65136,84.795,29.4867,1.35739,-14.5465,-8.35184,7.12502,11.6021,21.307,-14.3839,5.59247,22.6693,31.464,-11.776,-6.99889,2.73702,-12.2433,4.55714,-16.9214,30.1461,-16.1826,4.14689,13.6606
16.0519,18.0056,17.6509,154.685,-78.9149,-151.148,6.9549,1.56828,-1.32898,1.36889,2.00059,1.87412,-2.59753,0.993562,2.49849,-0.393267,-13.4182,-11.4062,7.24299,-19.2522,14.7753,4.78117,-9.46074,5.12922,2.13197e-14,5.36719e-15,-25.4721,-7.28432,-83.7847,28.8648,-12.3714,-13.227,-24.4151,7.12502,12.8744,-53.998,2.13197e-14,5.36719e-15,-29.8396,7.50557,84.7246,29.5236,1.62182,-14.1303,-8.21695,7.12502,12.0035,21.4188,-14.845,5.71143,22.3746,31.4497,-11.639,-6.69855,3.14491,-12.5888,4.76094,-17.1776,30.0429,-16.0377,4.34073,13.863
16.085,18.0038,17.6635,155.975,-78.6075,-152.275,6.94252,1.50881,-1.52094,1.45525,1.90308,1.76248,-2.49856,0.944078,2.5016,0.312525,-13.6767,-11.4392,6.49776,-19.6528,15.4123,4.56257,-9.69465,5.34789,-2.11706e-14,1.59028e-15,-25.2934,-7.49698,-84.0112,29.2695,-12.2712,-13.565,-24.5104,7.12502,12.5485,-54.1135,-2.11706e-14,1.59028e-15,-29.8719,7.30051,84.5346,29.656,1.76944,-14.1441,-8.11864,7.12502,11.9902,21.5179,-15.2336,5.9706,22.2566,31.5209,-11.4656,-6.81896,1.34737,-12.8238,4.9844,-17.2927,29.9573,-15.9643,4.46195,14.5803
16.1178,18.0121,17.6869,157.167,-78.3553,-153.3,7.07218,1.31042,-1.46813,1.47955,1.63593,1.55145,-2.52308,0.810115,2.27612,0.685007,-13.8891,-11.6869,6.32911,-20.0536,16.1086,4.60496,-9.90738,5.57271,-1.78906e-14,7.95139e-16,-25.1487,-7.10669,-84.535,29.6534,-12.3398,-13.9089,-24.3714,7.12502,12.2169,-53.9946,-1.78906e-14,7.95139e-16,-30.0664,7.34114,84.148,29.821,1.73909,-14.7076,-7.99465,7.12502,11.4468,21.6729,-15.5632,6.75661,22.0653,31.5447,-11.2897,-7.21012,1.22486,-13.0516,4.9202,-17.4825,29.8568,-15.9015,4.87947,14.75
16.1572,18.0168,17.7166,158.262,-77.9857,-154.163,7.33989,1.13558,-1.49322,1.34772,1.40086,1.53118,-2.79639,0.697644,2.28588,0.953713,-14.0956,-12.2235,6.70923,-20.499,16.6035,4.84858,-10.1331,5.74845,1.3418e-15,-5.96354e-15,-25.2299,-6.20977,-84.7859,30.119,-12.7608,-14.1522,-24.4372,7.12502,11.9823,-54.0742,1.3418e-15,-5.96354e-15,-30.479,7.582,83.9915,29.8991,1.6979,-15.2395,-8.03668,7.12502,10.9338,21.6586,-16.2577,3.69634,21.8862,31.5886,-11.14,-3.61251,2.97481,-13.4097,4.80253,-17.6285,29.7972,-15.8303,5.38386,14.7758
16.2021,18.0271,17.7442,158.618,-77.8418,-154.373,7.68304,0.935938,-1.73692,1.22984,1.11949,1.74878,-3.10418,0.565051,2.67218,1.48085,-14.2891,-12.9499,6.91353,-20.8983,16.9261,4.99479,-10.3588,5.92793,1.17283e-14,-2.98177e-14,-25.2899,-5.3205,-84.6495,30.5581,-13.2711,-14.1223,-24.7956,7.12502,12.0112,-54.4309,1.17283e-14,-2.98177e-14,-30.9311,7.80585,84.1922,29.9731,1.8072,-15.3325,-8.30343,7.12502,10.844,21.3966,-16.5854,4.83565,21.8046,31.5779,-10.9514,-4.44687,3.95718,-13.7071,4.62185,-17.6943,29.7063,-15.674,5.6206,15.1458
16.2464,18.0308,17.7674,159.33,-77.4286,-154.885,7.84915,0.93455,-1.8621,1.24879,1.10552,1.81218,-3.18004,0.559608,2.80866,1.90166,-14.6547,-13.1074,6.6782,-21.457,17.2285,4.99185,-10.6566,6.00546,-2.39039e-14,-1.27222e-14,-25.2132,-5.04172,-84.6706,31.1043,-13.663,-14.1118,-24.8519,7.12502,12.0213,-54.4866,-2.39039e-14,-1.27222e-14,-31.0465,7.68331,84.2982,29.9909,1.88726,-14.876,-8.38478,7.12502,11.2843,21.2917,-17.0359,5.52993,21.785,31.5752,-10.761,-4.70969,3.37049,-14.0462,4.84801,-17.7057,29.6465,-15.5527,5.7649,15.5111
16.2854,18.0289,17.7902,160.008,-76.8065,-155.447,8.06735,1.0636,-1.72383,1.3738,1.27615,1.63025,-3.17575,0.639182,2.52142,1.96867,-15.1593,-12.5924,6.48373,-22.1698,17.4205,4.9988,-11.0021,5.91084,4.96962e-15,3.57812e-15,-25.1065,-5.52539,-84.9341,31.71,-13.8138,-14.3104,-24.7785,7.12502,11.8298,-54.4243,4.96962e-15,3.57812e-15,-30.8349,7.24025,84.1408,29.8638,1.82336,-13.4104,-8.45192,7.12502,12.6976,21.1421,-17.3692,5.84223,21.8283,31.4863,-10.5044,-4.37123,2.90243,-14.2117,4.99354,-17.6611,29.5732,-15.546,6.19093,15.711
16.3206,18.0334,17.8032,160.318,-76.2545,-155.462,8.05408,1.10283,-1.67367,1.44997,1.32748,1.5333,-3.08895,0.661393,2.38768,1.96852,-15.5094,-12.2564,6.47522,-22.7097,17.7001,5.07601,-11.2583,5.87715,2.48481e-15,1.11319e-14,-24.8992,-5.93906,-85.2048,32.0997,-13.8071,-14.7347,-24.8501,7.12502,11.4206,-54.519,2.48481e-15,1.11319e-14,-30.5807,6.92141,83.9675,29.6776,1.84787,-12.5478,-8.44298,7.12502,13.5291,21.0975,-17.8284,6.49154,21.9774,31.4122,-10.1327,-4.4192,2.95205,-14.5467,4.83279,-17.4854,29.5465,-15.636,6.82571,15.955
16.3638,18.0365,17.8339,160.43,-75.5501,-155.278,8.1707,1.13451,-1.44885,1.51202,1.38505,1.57454,-3.08852,0.685727,2.29632,2.07915,-15.6843,-12.403,6.2985,-23.042,18.353,5.15516,-11.4263,6.05441,-1.21259e-14,1.11319e-14,-24.6804,-5.88541,-85.2933,32.5936,-13.9578,-14.7466,-25.2163,7.12502,11.4091,-54.8859,-1.21259e-14,1.11319e-14,-30.4613,6.62821,83.9675,29.5706,2.09888,-15.1015,-7.70315,7.12502,11.0668,21.9851,-18.3681,6.45338,22.1858,31.3058,-9.76304,-3.67033,3.53196,-14.9225,4.54017,-17.2511,29.5109,-15.7528,7.63893,16.804
16.4091,18.0433,17.8596,161.212,-74.971,-155.652,8.11639,1.1451,-1.59119,1.55955,1.38874,1.68744,-3.0155,0.687253,2.49453,2.27095,-15.826,-12.5247,5.88346,-23.2626,18.8682,5.11311,-11.5529,6.21688,-5.42682e-14,9.14409e-15,-24.575,-5.43102,-85.2957,33.3045,-14.4668,-13.9984,-25.7377,7.12502,12.1306,-55.3661,-5.42682e-14,9.14409e-15,-30.5356,6.12979,84.1291,29.6622,2.56975,-13.0407,-7.8221,7.12502,13.0539,21.7494,-19.0467,6.53449,22.1969,31.2157,-9.51638,-3.04851,4.75941,-15.5185,5.05446,-17.1938,29.5011,-15.5498,7.70443,16.8467
16.4533,18.0565,17.8866,161.918,-74.8724,-156.1,8.28125,0.997093,-1.77537,1.57216,1.17343,1.69805,-3.08599,0.582063,2.63099,2.53933,-16.0575,-12.361,5.49965,-23.545,18.9318,4.98673,-11.7147,6.2099,5.46658e-15,6.75868e-15,-24.5862,-5.13739,-85.3386,33.8508,-14.6378,-14.1319,-25.0374,7.12502,12.0019,-54.6733,5.46658e-15,6.75868e-15,-30.6153,5.71593,84.2229,29.6644,2.85026,-12.1285,-7.80582,7.12502,13.9331,21.7074,-19.4668,7.75349,21.9303,31.1162,-9.27135,-3.97582,5.12457,-16.019,5.19045,-17.3483,29.5269,-15.3081,7.78751,16.581
16.5006,18.0605,17.9101,163.333,-73.9149,-157.244,8.44752,1.11938,-2.00878,1.53667,1.31446,1.74224,-3.23,0.656449,2.79078,2.88215,-16.3003,-12.422,5.22463,-23.8916,19.1114,4.93353,-11.9113,6.25952,-1.18277e-14,7.95139e-15,-24.6033,-4.96003,-85.3338,34.2806,-14.4598,-14.7049,-24.1522,7.12502,11.4494,-53.8196,-1.18277e-14,7.95139e-15,-30.6367,5.67648,84.2707,29.4425,2.96586,-12.557,-7.75292,7.12502,13.5202,21.7882,-20.1267,7.306,21.9228,31.0461,-8.85592,-2.54064,4.76411,-16.3968,5.20729,-17.3788,29.534,-15.4336,8.70411,17.1625
16.5429,18.0633,17.9362,163.362,-73.3809,-157.142,8.69766,1.00219,-2.06709,1.60782,1.15013,1.92207,-3.28973,0.573518,3.02756,3.11538,-16.4134,-12.8081,5.10106,-24.1142,19.4998,4.99267,-12.0387,6.41126,3.48867e-14,7.15625e-15,-24.5064,-4.29868,-85.3633,34.801,-14.8314,-15.0893,-24.1566,7.12502,11.0786,-53.8442,3.48867e-14,7.15625e-15,-30.6864,5.90757,84.3399,29.2744,3.12524,-12.9924,-7.59995,7.12502,13.1005,21.9686,-20.504,6.67727,22.1265,30.9857,-8.68752,-1.43793,5.53225,-16.6254,5.34284,-17.2107,29.4877,-15.2881,9.07233,16.8962
16.5942,18.08,17.9619,163.769,-73.0717,-157.178,8.79581,0.858518,-2.15025,1.58982,0.950778,1.9538,-3.35119,0.476346,3.13018,3.19821,-16.5476,-12.7743,5.081,-24.3452,19.7114,5.0358,-12.1565,6.44283,1.35174e-14,-2.54444e-14,-24.4746,-4.04687,-85.5236,35.4315,-15.1662,-16.2837,-24.0172,7.12502,9.92648,-53.7632,1.35174e-14,-2.54444e-14,-30.7677,5.84937,84.2257,29.2569,3.17494,-12.9452,-7.49468,7.12502,13.1461,22.0709,-21.1394,6.45359,22.1401,30.9357,-8.57663,-0.692631,7.88966,-17.2388,5.64336,-17.1766,29.5231,-14.9967,9.13665,16.0791
16.6416,18.0916,17.9977,165.47,-72.3956,-158.577,8.90567,0.904452,-2.32511,1.56859,0.988838,1.77505,-3.43675,0.498551,3.03735,3.26477,-16.6765,-12.3568,4.90654,-24.5072,19.772,4.95573,-12.2431,6.39873,-4.87022e-14,1.74931e-14,-24.5038,-4.26544,-85.7586,36.0737,-15.1157,-17.0863,-24.0893,7.12502,9.15203,-53.8708,-4.87022e-14,1.74931e-14,-30.8581,5.49201,84.0563,29.2696,3.00129,-12.8056,-7.72858,7.12502,13.2806,21.8283,-21.7444,6.66728,21.7941,30.8029,-8.51355,-0.00200163,9.40441,-17.7545,5.40466,-17.4826,29.6121,-15.138,10.0487,16.3408
16.6845,18.0825,18.0173,166.359,-71.6402,-159.364,9.0857,0.911297,-2.63008,1.66873,0.961728,1.80082,-3.43635,0.485232,3.23927,3.31652,-16.6809,-12.2969,4.75738,-24.5187,19.9508,4.92114,-12.2569,6.45097,7.60351e-14,-6.36111e-15,-24.2634,-3.97352,-85.9346,36.383,-15.2378,-17.1473,-24.2645,7.12502,9.09316,-54.0484,7.60351e-14,-6.36111e-15,-30.8224,5.48344,84.0078,29.0378,2.55496,-12.7251,-7.85591,7.12502,13.3582,21.6959,-21.999,6.81129,21.8258,30.6442,-8.629,0.0648365,6.98413,-18.0083,5.56231,-17.5246,29.7145,-15.2972,10.4764,17.5221
16.7399,18.0826,18.0328,166.142,-71.2644,-158.695,9.08692,0.67769,-2.74069,1.64983,0.648578,2.07225,-3.43709,0.33149,3.62366,3.39577,-16.65,-12.6826,4.77572,-24.5294,20.1787,4.99446,-12.2687,6.56773,4.54223e-14,-9.93923e-15,-23.9806,-3.40421,-85.9791,36.5776,-15.3059,-17.2129,-23.9036,7.12502,9.02995,-53.6903,4.54223e-14,-9.93923e-15,-30.798,6.01823,83.9885,28.72,2.11709,-12.6867,-7.68601,7.12502,13.3952,21.8633,-22.5519,6.46362,22.2639,30.5409,-8.67924,0.00729883,4.84986,-18.7239,6.50523,-17.2268,29.8212,-15.0579,9.86009,18.1973
16.7878,18.0919,18.0631,166.476,-70.5474,-158.488,8.91412,0.535407,-2.66291,1.5939,0.476846,2.24796,-3.38565,0.246036,3.78403,3.43661,-16.6344,-13.0161,4.8141,-24.546,20.3109,5.06176,-12.2804,6.64568,5.05907e-14,3.97569e-15,-23.9686,-2.93586,-86.1161,37.0409,-15.322,-17.2339,-23.5677,7.12502,9.00964,-53.3553,5.05907e-14,3.97569e-15,-30.9561,6.1054,84.0132,28.6247,2.08333,-12.926,-7.76896,7.12502,13.1646,21.7954,-23.239,6.4587,22.4613,30.4305,-8.76633,0.431028,6.25196,-19.4908,6.89788,-17.0321,30.0003,-15.142,10.249,18.1624
16.8363,18.0914,18.0926,166.739,-69.7,-158.697,9.29294,0.58468,-2.46849,1.63691,0.546812,2.16238,-3.55504,0.278696,3.57597,3.43422,-16.6934,-13.0132,4.91032,-24.7084,20.6058,5.15989,-12.3582,6.70351,-1.72943e-14,-5.56597e-15,-24.0125,-2.69037,-86.4453,37.528,-15.5245,-17.4254,-23.6396,7.12502,8.82481,-53.4351,-1.72943e-14,-5.56597e-15,-31.0136,4.86264,84.0774,28.4218,2.48258,-13.7407,-7.86513,7.12502,12.3791,21.7483,-23.3362,6.97233,22.5343,30.2864,-9.19884,0.313718,6.24389,-19.7433,6.9983,-16.8599,30.2483,-15.4792,10.8969,18.2866
16.8874,18.0896,18.1177,166.195,-68.8187,-157.785,9.39621,0.651223,-1.85205,1.63566,0.690114,2.10714,-3.61745,0.342105,3.15076,3.57458,-16.7974,-12.8025,4.78769,-24.9186,21.0005,5.16498,-12.475,6.77868,-2.10712e-14,2.94201e-14,-23.9329,-2.88709,-86.7064,37.8748,-15.7094,-17.1833,-23.5367,7.12502,9.05844,-53.3222,-2.10712e-14,2.94201e-14,-30.8784,3.3255,84.1501,28.1322,3.15941,-14.6972,-7.25924,7.12502,11.4568,22.4077,-23.6594,7.49915,23.1118,30.1924,-9.8741,-0.383615,4.58772,-20.2723,6.91691,-16.239,30.4885,-15.8348,11.502,19.3739
16.9345,18.0887,18.1396,164.702,-68.0665,-155.758,9.25892,0.579278,-1.00146,1.6638,0.679441,2.29728,-3.50364,0.323357,2.86926,3.87529,-16.8847,-12.5243,4.35761,-24.9909,21.1183,4.97913,-12.5443,6.81131,-8.74653e-15,-2.38542e-15,-23.8905,-3.16278,-86.8332,38.2616,-15.6847,-16.7221,-23.4447,7.12502,9.50347,-53.2104,-8.74653e-15,-2.38542e-15,-30.7815,2.71965,84.1333,28.0308,3.42837,-14.9921,-6.63101,7.12502,11.1724,23.0515,-24.0046,7.64628,24.2092,30.1763,-10.7396,-1.0278,4.52997,-20.9177,6.88775,-15.1914,30.7195,-15.8632,12.0573,19.5168
16.9805,18.0863,18.1668,165.188,-67.3963,-155.953,9.15973,0.59145,-1.03881,1.70849,0.691918,2.39944,-3.40458,0.32763,2.99567,4.06177,-16.9495,-12.4818,4.1533,-25.0411,21.0729,4.88352,-12.5867,6.81016,3.49861e-14,3.89618e-14,-23.9704,-2.99695,-86.8152,38.8457,-15.6593,-16.8828,-24.134,7.12502,9.34846,-53.9067,3.49861e-14,3.89618e-14,-30.7387,3.22817,83.9108,27.8664,2.52424,-14.3183,-6.84891,7.12502,11.8222,22.7974,-24.2845,7.1006,24.5227,30.2034,-11.5121,-0.789645,5.44705,-21.4106,6.81243,-15.0557,30.9093,-15.8611,12.9326,19.0509
17.0271,18.0785,18.1915,166.504,-66.9578,-157.477,9.50137,0.585169,-1.71441,1.8557,0.608991,2.40137,-3.44339,0.289913,3.39041,3.96146,-16.9368,-12.7043,4.28531,-25.0602,21.1505,4.9825,-12.5857,6.84125,-4.51241e-14,6.52014e-14,-23.8476,-2.5526,-86.7585,39.1882,-15.7938,-17.0604,-24.8173,7.12502,9.17702,-54.5976,-4.51241e-14,6.52014e-14,-30.6122,4.03446,83.6445,27.599,1.40772,-13.7439,-7.09305,7.12502,12.376,22.5206,-24.1827,6.64422,24.2187,30.416,-12.3003,-1.03143,4.77981,-21.3737,6.8556,-15.5253,30.9013,-16.014,13.422,19.6585
17.0743,18.0832,18.2217,167.256,-66.4594,-158.181,9.67761,0.548901,-1.89145,1.9564,0.53513,2.38183,-3.43254,0.251485,3.47965,3.87401,-16.9684,-12.831,4.3701,-25.1487,21.3175,5.07809,-12.6216,6.87906,-1.39149e-14,-1.27222e-14,-23.3789,-2.21157,-86.8565,38.7795,-15.8602,-17.1521,-24.6938,7.12502,9.08857,-54.4779,-1.39149e-14,-1.27222e-14,-30.2532,3.87368,83.5577,27.1519,1.31508,-13.8643,-6.84153,7.12502,12.26,22.7791,-24.3156,6.85582,24.1206,30.8306,-13.0362,-2.21277,4.05922,-21.4983,7.33746,-15.7282,30.6814,-15.8063,13.5742,19.8405
17.1184,18.0985,18.2369,169.083,-65.7694,-159.946,9.60087,0.710011,-2.60495,2.03001,0.67378,2.21106,-3.3296,0.324727,3.68839,3.80422,-17.1188,-12.694,4.42005,-25.3689,21.3397,5.12906,-12.7219,6.82592,-2.90226e-14,-1.59028e-15,-23.6184,-2.32124,-86.9542,39.5555,-15.789,-16.7238,-25.1177,7.12502,9.50187,-54.8835,-2.90226e-14,-1.59028e-15,-29.6167,3.14951,83.5068,26.2015,1.28125,-14.0142,-6.74103,7.12502,12.1154,22.8882,-24.5178,7.16141,23.6512,31.3296,-13.6476,-3.39436,4.3104,-21.5935,7.94723,-16.3536,30.394,-15.5377,13.9453,19.0335
17.1544,18.1028,18.2665,169.555,-65.8071,-160.799,10.1312,0.499286,-2.85326,2.15642,0.346022,2.10342,-3.46501,0.161252,3.75906,3.73373,-17.1473,-12.661,4.60507,-25.4304,21.2424,5.1891,-12.7412,6.77195,2.98177e-14,-4.53229e-14,-23.5603,-1.87118,-87.0093,39.6961,-16.2452,-15.9034,-25.6712,7.12502,10.2934,-55.3993,2.98177e-14,-4.53229e-14,-29.5157,3.20727,83.3278,25.8922,0.695918,-13.5972,-6.87293,7.12502,12.5175,22.7321,-24.0835,6.66729,23.4251,31.8746,-14.273,-4.607,4.03612,-21.2395,7.50638,-16.7055,30.1144,-15.5636,14.2496,19.3744
17.2084,18.1155,18.2924,170.362,-65.3841,-160.88,9.68099,0.266195,-2.99006,1.95222,0.048074,2.24119,-3.40233,0.0215617,4.01754,3.80707,-17.0523,-12.9185,4.80991,-25.3425,21.1561,5.24411,-12.6984,6.79314,-2.92213e-14,-2.3059e-14,-23.3117,-0.807692,-87.0569,39.3223,-16.9844,-16.0027,-25.7271,7.12502,10.1976,-55.4599,-2.92213e-14,-2.3059e-14,-29.5228,3.74687,83.2028,25.4178,0.413802,-13.1647,-7.39265,7.12502,12.9344,22.1865,-24.8567,6.43705,23.6398,32.4703,-14.4125,-5.72011,4.19552,-22.1116,7.9689,-16.7344,29.8567,-15.407,14.087,20.2755
17.2489,18.12,18.3234,170.944,-64.6895,-161.575,9.93935,0.231024,-3.21413,2.01359,-0.0319689,2.25855,-3.47405,-0.0175738,4.17546,3.83717,-17.061,-13.1037,4.94111,-25.3953,21.1628,5.31291,-12.7232,6.80766,1.78906e-15,-1.19271e-14,-23.2199,-0.881147,-87.0543,39.2143,-16.5604,-15.5219,-25.7488,7.12502,10.6613,-55.4583,1.78906e-15,-1.19271e-14,-29.4081,4.34976,82.9631,24.9517,-0.22699,-13.013,-7.6389,7.12502,13.0806,21.9309,-24.7056,5.7373,23.7847,33.068,-14.4161,-6.37988,4.44205,-22.0267,8.21325,-16.9218,29.6857,-15.3647,14.5797,19.8825
17.2833,18.1207,18.3409,171.523,-63.8181,-162.36,10.0026,0.321033,-3.52861,2.19647,0.0434028,2.18878,-3.32567,0.0127592,4.27097,3.87735,-17.121,-13.1343,5.00567,-25.5404,21.3431,5.38171,-12.7961,6.84282,-6.81831e-14,-7.95139e-15,-23.3725,-1.85983,-87.076,39.5834,-15.4522,-12.5125,-26.7297,7.12502,13.5631,-56.2679,-6.81831e-14,-7.95139e-15,-29.1175,4.6592,82.5744,24.5233,-1.01371,-12.7928,-7.64341,7.12502,13.2929,21.9127,-24.3622,5.5747,23.8993,33.6198,-14.4421,-7.59305,3.0296,-21.8217,8.6455,-17.074,29.6028,-15.3879,15.1289,18.8495
17.3186,18.1179,18.3661,171.914,-63.2155,-162.978,10.1823,0.30396,-3.72989,2.32154,-0.0142339,2.12626,-3.28878,-0.0204073,4.3281,4.05985,-17.1011,-13.144,5.01542,-25.579,21.5303,5.38971,-12.8295,6.91178,4.07509e-14,-2.8625e-14,-23.529,-2.15922,-87.1004,39.862,-14.9331,-24.4393,-28.9681,7.12502,2.05314,-58.938,4.07509e-14,-2.8625e-14,-28.9142,4.72875,82.2722,24.1545,-1.26771,-12.6143,-7.6018,7.12502,13.465,21.943,-23.9492,5.53951,23.9418,34.1772,-14.5029,-9.04699,1.6811,-21.6335,8.72587,-17.2003,29.5469,-15.6966,15.554,18.9643
17.3528,18.1251,18.3996,171.933,-63.0145,-162.816,10.1382,0.100286,-3.50769,2.2971,-0.25793,2.18794,-3.26578,-0.143124,4.29721,4.37449,-17.073,-13.2407,4.8004,-25.5668,21.7308,5.31164,-12.8546,7.02226,2.36554e-14,-5.1684e-14,-23.6395,-2.23022,-87.0047,39.8504,-14.2338,-22.9359,-23.4934,7.12502,3.50497,-53.4443,2.36554e-14,-5.1684e-14,-28.7835,5.01287,82.0567,23.8748,-1.59484,-12.4767,-7.44291,7.12502,13.5976,22.093,-23.8205,5.08821,24.2062,34.6892,-14.4774,-10.3471,0.996213,-21.9049,8.37359,-17.0801,29.5154,-15.9149,15.8216,20.0444
17.3919,18.1253,18.4273,171.825,-62.3342,-162.749,10.3294,0.0977028,-3.28443,2.33316,-0.248048,2.18148,-3.33626,-0.141068,4.16428,4.58201,-17.123,-13.2482,4.66812,-25.6714,21.9188,5.28444,-12.9267,7.08637,-6.83819e-14,4.13472e-14,-23.8601,-2.76791,-87.0285,39.6743,-13.6156,-22.4574,-22.682,7.12502,3.96711,-52.6248,-6.83819e-14,4.13472e-14,-28.5131,5.26974,81.7349,23.5387,-2.17964,-12.4117,-7.21848,7.12502,13.6603,22.3132,-23.4568,4.81082,24.6028,35.1895,-14.2475,-11.5511,0.372856,-21.8777,8.17794,-16.8065,29.4864,-16.2392,16.3698,21.6755
17.4267,18.1265,18.4528,171.785,-61.8022,-162.86,10.5102,0.050235,-3.12442,2.39302,-0.305518,2.12357,-3.36962,-0.173347,4.02176,4.58377,-17.1749,-13.2395,4.90938,-25.8237,21.9604,5.38996,-12.995,7.06719,2.5842e-15,9.54166e-15,-24.119,-3.07875,-87.1153,39.5827,-13.7384,-20.0615,-24.091,7.12502,6.28041,-53.9779,2.5842e-15,9.54166e-15,-28.2265,5.594,81.3469,23.0994,-2.69643,-12.7521,-7.31552,7.12502,13.3322,22.238,-22.9347,4.29835,24.9318,35.6854,-14.3929,-12.433,0.82413,-21.743,8.04455,-16.6642,29.4438,-16.798,16.7485,23.7927
17.4618,18.1323,18.4766,172.045,-61.2509,-163.124,10.4789,-0.0177035,-3.19916,2.40082,-0.401468,2.21143,-3.33407,-0.221932,4.16873,4.52094,-17.1999,-13.3825,5.16576,-25.8792,21.7422,5.4748,-13.0085,6.99745,1.2921e-14,1.59028e-15,-24.2563,-2.55019,-87.0803,39.4172,-14.9954,-17.983,-24.3897,7.12502,8.28672,-54.2072,1.2921e-14,1.59028e-15,-28.0434,6.67564,80.9531,22.6471,-3.55485,-12.9947,-7.46101,7.12502,13.0983,22.1077,-22.5628,3.81904,25.1488,36.2206,-15.1107,-12.7339,3.47357,-21.7742,8.07225,-16.6354,29.3909,-17.3665,16.9872,25.3431
17.5068,18.1393,18.5019,172.669,-60.6191,-163.355,10.189,-0.0978104,-3.28659,2.24748,-0.498418,2.30442,-3.32255,-0.263386,4.32575,4.47694,-17.1849,-13.4887,5.43244,-25.8829,21.5156,5.54423,-12.9993,6.93164,-1.03368e-14,8.74653e-15,-24.43,-1.837,-87.1441,39.2653,-16.5551,-18.9014,-23.223,7.12502,7.40035,-53.0736,-1.03368e-14,8.74653e-15,-27.9717,7.79902,80.4719,22.3819,-4.30967,-12.8704,-7.18877,7.12502,13.2182,22.3722,-22.6834,3.52564,25.3423,36.7848,-15.596,-13.1228,6.17072,-22.2662,8.28755,-16.6307,29.2864,-17.6506,17.1605,25.9506
17.5382,18.1399,18.5237,173.094,-59.7928,-163.618,9.93174,-0.055483,-3.22995,2.20549,-0.42823,2.24049,-3.23186,-0.228688,4.21363,4.68142,-17.1512,-13.3929,5.43073,-25.9039,21.6748,5.52422,-13.0271,6.98665,-2.16675e-14,9.54166e-15,-24.6306,-1.58999,-87.3665,39.2223,-18.0145,-20.3933,-22.439,7.12502,5.96009,-52.3352,-2.16675e-14,9.54166e-15,-27.8167,8.01078,80.0156,22.2058,-4.33038,-12.5753,-7.38227,7.12502,13.5025,22.16,-22.5,3.13508,25.5743,37.3564,-15.634,-13.723,6.38076,-22.3916,8.44876,-16.587,29.1628,-18.097,17.5225,26.6427
17.5656,18.1431,18.5406,173.301,-59.1383,-163.895,9.76834,-0.0127416,-3.30505,2.29548,-0.377894,2.25017,-3.05197,-0.210151,4.25698,4.88057,-17.1594,-13.3916,5.22875,-25.9383,21.8856,5.4668,-13.0665,7.06895,-4.8901e-14,-2.62396e-14,-24.7237,-1.42917,-87.4366,39.151,-19.1836,-19.7608,-23.7346,7.12502,6.57072,-53.6126,-4.8901e-14,-2.62396e-14,-27.489,8.09683,79.7424,21.8253,-4.31406,-12.4714,-8.21746,7.12502,13.6027,21.3181,-22.011,2.58112,25.7876,37.942,-15.7245,-14.2975,6.81555,-22.2531,8.66001,-16.5764,29.0088,-18.1463,17.9403,26.7693
17.5956,18.1453,18.5695,173.227,-58.6569,-164.189,10.0598,-0.0201586,-3.33128,2.42208,-0.406216,2.30265,-3.07802,-0.230024,4.3338,4.7439,-17.2077,-13.5294,5.39217,-26.0468,21.9006,5.5797,-13.1053,7.05225,1.70955e-14,-5.40694e-14,-24.7084,-1.19721,-87.3604,38.8507,-20.0386,-19.3007,-24.8848,7.12502,7.01488,-54.7486,1.70955e-14,-5.40694e-14,-27.1697,8.4515,79.5896,21.4978,-4.30514,-12.5579,-8.45648,7.12502,13.5193,21.0847,-21.2343,1.91212,25.8901,38.54,-15.8308,-14.7727,7.90442,-21.8508,8.55681,-16.5664,28.8382,-18.2943,18.4217,27.4211
17.6237,18.1481,18.5972,173.481,-58.1716,-164.779,10.2915,-0.0501974,-3.38415,2.48724,-0.465554,2.21612,-3.13262,-0.261223,4.28339,4.5508,-17.2144,-13.5525,5.68419,-26.1243,21.8976,5.71788,-13.1223,7.01379,4.96962e-14,-3.57812e-14,-24.7206,-1.17781,-87.3289,38.4861,-20.5799,-18.7241,-26.2438,7.12502,7.57147,-56.0883,4.96962e-14,-3.57812e-14,-27.0055,9.01874,79.2407,21.4446,-4.49147,-12.5311,-8.41314,7.12502,13.5452,21.1263,-20.4944,1.02446,25.812,39.1264,-15.8045,-15.124,8.17865,-21.5267,8.78258,-16.7772,28.6618,-18.4503,18.5489,28.3575
17.6517,18.148,18.6276,173.56,-57.6269,-165.087,10.5125,-0.187105,-3.37564,2.47858,-0.653954,2.26541,-3.24458,-0.353538,4.35864,4.5832,-17.1265,-13.827,5.84024,-26.0582,21.8867,5.78259,-13.0919,7.05357,5.52621e-14,-3.97569e-15,-24.8612,-0.943442,-87.1709,38.2181,-20.5677,-17.856,-28.115,7.12502,8.40927,-57.9276,5.52621e-14,-3.97569e-15,-27.1491,10.2133,78.741,21.5302,-5.17686,-12.4692,-9.08625,7.12502,13.6048,20.4492,-19.7923,-0.0753732,25.8924,39.6972,-15.7666,-15.2867,8.56777,-21.2624,9.05768,-16.8455,28.4737,-18.3723,18.7846,28.2419
17.6846,18.1446,18.6563,173.495,-57.0288,-165.224,10.7303,-0.257173,-3.43357,2.4679,-0.758358,2.41216,-3.3626,-0.403862,4.56471,4.65831,-17.1474,-14.0094,5.92827,-26.1043,21.7556,5.8099,-13.1181,7.03378,-5.52621e-14,3.97569e-14,-24.9755,-0.863884,-86.819,37.8927,-19.5889,-16.6813,-30.8311,7.12502,9.54288,-60.595,-5.52621e-14,3.97569e-14,-27.2836,11.147,78.42,21.6888,-5.60414,-12.3669,-9.5924,7.12502,13.7034,19.9364,-19.0703,-0.794596,26.0536,40.2407,-16.0142,-15.4625,10.2641,-21.0224,9.2069,-16.764,28.3138,-18.443,19.136,28.107
17.719,18.1465,18.6815,173.978,-56.4712,-166.056,10.9266,-0.172535,-3.67199,2.50659,-0.686121,2.24425,-3.43718,-0.365972,4.51756,4.72263,-17.2953,-13.6136,5.83553,-26.2807,21.6424,5.7333,-13.209,6.93444,4.23411e-14,7.95139e-15,-25.0285,-1.82388,-86.46,37.5372,-17.6598,-14.8042,-34.1956,7.12502,11.3536,-63.8682,4.23411e-14,7.95139e-15,-27.1135,11.1188,78.1981,21.8881,-5.52788,-12.3713,-8.95326,7.12502,13.6992,20.5758,-18.3223,-1.27165,25.7587,40.7283,-16.0611,-15.9696,11.0918,-20.7741,9.38653,-17.091,28.2215,-18.6642,19.4284,28.4359
17.7565,18.1493,18.7033,174.029,-55.7996,-166.376,11.1322,-0.14826,-3.65581,2.55539,-0.666531,2.14819,-3.50316,-0.357752,4.40792,4.90075,-17.3157,-13.2972,5.57434,-26.283,21.6957,5.58965,-13.2322,6.93989,3.75703e-14,-3.10104e-14,-25.1137,-2.59562,-86.3061,37.142,-16.8856,-14.4406,-35.5341,7.12502,11.7042,-65.1871,3.75703e-14,-3.10104e-14,-26.9642,10.6873,78.0936,22.223,-4.82593,-12.7065,-7.59788,7.12502,13.3761,21.9527,-17.5495,-1.5749,25.8108,41.127,-15.6094,-16.9486,10.4395,-20.5466,9.77339,-17.0768,28.151,-18.718,19.6608,28.5405
17.793,18.1484,18.7221,173.625,-54.9309,-166.077,11.2335,-0.139971,-3.49407,2.58863,-0.641107,2.28791,-3.52719,-0.34919,4.46135,5.02082,-17.2168,-13.3694,5.49156,-26.1876,21.8581,5.56061,-13.2017,7.02708,2.3059e-14,-2.70347e-14,-25.1866,-2.56686,-86.2381,36.5601,-16.8382,-15.4296,-35.6582,7.12502,10.7504,-65.3631,2.3059e-14,-2.70347e-14,-26.873,11.1879,77.6717,22.2255,-5.4939,-12.2146,-8.10407,7.12502,13.8502,21.4148,-16.7502,-1.5987,26.3153,41.4536,-15.3295,-17.8682,10.2486,-20.3258,10.1876,-16.6287,28.0468,-18.5792,20.0827,28.2826
17.8231,18.1532,18.7397,173.518,-54.1091,-166.042,11.1328,-0.0638611,-3.4077,2.64719,-0.529466,2.36326,-3.42208,-0.300103,4.47357,4.96811,-17.2066,-13.4371,5.61919,-26.2465,21.988,5.64756,-13.2261,7.05466,9.93923e-16,-1.19271e-14,-25.0514,-2.97256,-86.0264,35.7291,-16.4727,-15.9834,-35.602,7.12502,10.2162,-65.3339,9.93923e-16,-1.19271e-14,-26.6672,10.6615,77.795,22.5227,-4.1606,-12.6282,-7.90468,7.12502,13.4516,21.641,-15.9979,-1.90435,26.595,41.7304,-15.334,-18.2244,11.8198,-20.1458,10.6358,-16.3922,27.9324,-18.5315,20.444,28.3826
17.8523,18.1623,18.7584,173.461,-53.4523,-166.121,11.009,-0.0422185,-3.28957,2.76054,-0.490053,2.40339,-3.24037,-0.290721,4.43957,4.89714,-17.2112,-13.6074,5.78382,-26.3426,22.1548,5.77557,-13.266,7.09563,-5.02925e-14,2.3059e-14,-24.8513,-3.88947,-85.6083,35.005,-15.5604,-15.615,-35.5124,7.12502,10.5716,-65.2265,-5.02925e-14,2.3059e-14,-26.4994,10.1939,77.9377,22.9983,-2.91115,-12.8274,-8.10216,7.12502,13.2595,21.4561,-15.2136,-2.70342,26.6989,41.997,-15.2722,-18.2396,13.9721,-19.9204,11.064,-16.2736,27.7693,-18.7024,20.6034,28.9251
17.8865,18.1704,18.7786,173.633,-52.7874,-166.42,11.0218,0.00382402,-3.30774,2.7342,-0.431163,2.39943,-3.28079,-0.259843,4.43838,5.05112,-17.1967,-13.806,5.87013,-26.4382,22.386,5.85604,-13.3262,7.1856,-8.78628e-14,-3.97569e-15,-24.9992,-4.61849,-85.1997,34.4564,-14.6849,-15.4166,-35.2175,7.12502,10.7629,-64.9218,-8.78628e-14,-3.97569e-15,-26.5741,9.62968,78.0266,23.6215,-1.89377,-12.8838,-8.68114,7.12502,13.2052,20.8806,-14.5211,-3.44685,26.662,42.2898,-15.3218,-18.2765,15.2807,-19.7094,11.1239,-16.2665,27.5271,-18.8846,21.035,28.7827
17.9236,18.1776,18.7991,174.031,-52.0623,-166.835,11.2044,0.0705969,-3.34689,2.45863,-0.341195,2.31323,-3.6787,-0.194937,4.36346,5.41102,-17.2227,-13.7056,5.89264,-26.5281,22.3055,5.79343,-13.3983,7.17455,0,-1.43125e-14,-25.4495,-5.21893,-84.9613,33.8687,-13.9965,-15.7978,-35.1878,7.12502,10.3952,-64.9108,0,-1.43125e-14,-26.9266,8.93711,77.9279,24.1991,-1.11971,-13.1787,-8.83744,7.12502,12.9209,20.7425,-13.9938,-3.84063,26.5632,42.5562,-15.7207,-18.4418,16.9821,-19.6811,11.2124,-16.3502,27.3429,-18.9521,21.539,28.4816
17.9592,18.1791,18.82,174.355,-51.3539,-167.21,11.2096,0.00437782,-3.47522,2.34383,-0.437996,2.34169,-3.79064,-0.234729,4.48179,5.59067,-17.1666,-13.7154,5.86701,-26.4164,22.0443,5.69579,-13.3585,7.13811,-6.83819e-14,1.82882e-14,-25.5586,-5.36468,-84.7899,33.171,-13.1371,-16.2883,-34.9536,7.12502,9.92202,-64.6997,-6.83819e-14,1.82882e-14,-27.0879,9.22201,77.6227,24.4628,-1.05013,-13.0369,-8.98456,7.12502,13.0576,20.5867,-13.392,-4.26214,26.4199,42.7468,-16.1543,-18.5917,19.3801,-19.6886,11.5184,-16.4385,27.2974,-19.0935,21.8554,28.7237
17.9959,18.1717,18.8394,174.413,-50.5865,-167.271,11.0845,-0.0751227,-3.45936,2.34786,-0.535007,2.48879,-3.706,-0.285917,4.6395,5.60531,-17.0487,-14.1011,5.9581,-26.3055,22.0861,5.75816,-13.308,7.21293,1.98785e-16,-2.14687e-14,-25.5485,-5.37882,-84.5319,32.4716,-11.9881,-16.3099,-34.1459,7.12502,9.90115,-63.8931,1.98785e-16,-2.14687e-14,-27.0738,9.77168,77.4375,24.6804,-0.789762,-13.1418,-9.06635,7.12502,12.9565,20.5114,-12.7809,-4.80007,26.4705,42.9027,-16.5869,-18.5917,21.2368,-19.7068,11.7523,-16.279,27.2991,-19.3391,22.2554,28.9303
18.0367,18.1648,18.8597,174.466,-49.8297,-167.127,10.8493,-0.0545457,-3.20191,2.31272,-0.468933,2.54927,-3.62158,-0.256331,4.54334,5.5331,-17.0243,-14.2338,6.18259,-26.3748,22.2128,5.88905,-13.3351,7.24182,1.86858e-14,0,-25.5245,-6.55184,-83.974,31.8521,-11.6747,-17.301,-32.3519,7.12502,8.94489,-62.1423,1.86858e-14,0,-26.9089,10.1254,77.1425,25.0126,-1.33937,-12.5162,-8.922,7.12502,13.5595,20.6165,-12.3522,-5.27059,26.7235,43.0766,-17.1369,-18.6669,22.6252,-19.9381,12.1781,-16.0216,27.2837,-19.1788,22.6388,29.0008
18.0789,18.1715,18.8831,174.908,-49.218,-167.364,10.5462,0.00693903,-3.14882,2.2187,-0.368262,2.48695,-3.56321,-0.203077,4.42948,5.67939,-17.0795,-14.1062,6.22723,-26.5077,22.2458,5.89128,-13.4106,7.22973,1.31198e-14,-7.15625e-15,-25.6264,-7.2289,-83.765,31.3835,-11.9854,-19.7532,-31.6542,7.12502,6.57803,-61.532,1.31198e-14,-7.15625e-15,-26.6565,9.9658,76.9824,25.2568,-0.87157,-12.2653,-9.73046,7.12502,13.8013,19.7917,-12.0872,-6.11078,26.7161,43.3036,-16.9662,-19.1127,22.9238,-20.2663,12.6956,-16.1145,27.227,-19.045,22.789,29.4729
18.1182,18.1831,18.9093,175.377,-48.6109,-167.727,10.2549,-0.0286245,-3.22074,2.17937,-0.412283,2.46924,-3.43821,-0.22437,4.45317,5.92847,-17.0587,-14.1602,6.06734,-26.5036,22.3496,5.8227,-13.4344,7.29851,1.32987e-13,1.66979e-14,-25.6633,-7.09928,-83.7758,31.063,-12.8616,-22.4181,-30.4219,7.12502,4.00507,-60.364,1.32987e-13,1.66979e-14,-26.484,10.1896,76.7774,25.6497,-0.454257,-11.4374,-9.71096,7.12502,14.5991,19.7552,-11.8262,-7.3107,26.5745,43.5632,-15.9225,-20.279,20.1413,-20.415,13.0012,-16.279,27.0307,-19.3267,22.9732,30.2541
18.1553,18.1887,18.9387,175.554,-47.9002,-167.882,10.1524,-0.0599174,-3.02772,2.17164,-0.432528,2.41131,-3.38955,-0.236886,4.2831,6.11562,-17.0764,-14.0479,5.95556,-26.5403,22.3728,5.75231,-13.4713,7.30973,-1.66979e-14,8.74653e-15,-25.7286,-7.46767,-83.7017,30.5818,-13.1561,-23.8179,-27.2749,7.12502,2.65319,-57.2382,-1.66979e-14,8.74653e-15,-26.4101,10.1078,76.5688,26.1978,0.164179,-11.1202,-9.47988,7.12502,14.9047,19.9639,-11.417,-8.2768,26.5042,43.795,-15.4259,-21.1126,19.1781,-20.325,13.192,-16.2391,26.6493,-19.5232,23.3548,30.6844
18.1931,18.2028,18.9665,175.913,-47.1084,-167.819,9.64335,-0.0464294,-2.71205,2.08014,-0.364102,2.42111,-3.21154,-0.204614,4.09803,6.24717,-17.1337,-13.9418,6.00063,-26.6468,22.2952,5.73811,-13.5316,7.27045,1.18476e-13,-2.38542e-14,-25.8347,-8.04362,-83.5103,30.0261,-13.1559,-25.1642,-25.2792,7.12502,1.353,-55.2547,1.18476e-13,-2.38542e-14,-26.2967,9.88977,76.482,26.6755,0.710595,-11.1736,-9.42118,7.12502,14.8533,20.0264,-11.3795,-9.08694,26.6244,43.9542,-15.4465,-20.8956,20.8416,-20.5603,13.4468,-16.1003,26.1586,-19.7028,23.7042,31.0338
18.2309,18.215,18.9978,176.081,-46.4688,-168.04,9.58755,-0.0466659,-2.59761,2.06883,-0.352378,2.41366,-3.19426,-0.199946,4.02298,6.31184,-17.1376,-14.0817,6.18708,-26.7354,22.2963,5.82042,-13.5771,7.27489,-4.53229e-14,-2.22639e-14,-25.8721,-9.09005,-82.9413,29.2885,-11.2291,-24.2244,-24.8934,7.12502,2.2606,-54.8612,-4.53229e-14,-2.22639e-14,-26.1093,10.0228,76.3432,26.9179,0.707862,-11.6449,-9.37553,7.12502,14.3992,20.105,-10.868,-10.1458,26.4051,44.0085,-15.6883,-20.4705,20.997,-20.2856,13.1941,-16.0666,25.6303,-20.4557,24.123,31.9941
18.262,18.2291,19.032,176.685,-45.8085,-168.676,9.40643,0.00288723,-2.56167,1.99545,-0.278382,2.2075,-3.17794,-0.159468,3.77568,6.40916,-17.1732,-14.1249,6.36422,-26.8974,22.3934,5.91044,-13.6627,7.28829,-4.94974e-14,-2.38542e-15,-26.0361,-9.06718,-83.0058,28.9017,-12.8241,-25.7322,-24.111,7.12502,0.804407,-54.0893,-4.94974e-14,-2.38542e-15,-25.9404,9.84696,76.1762,27.1599,0.505883,-13.9612,-8.55176,7.12502,12.1666,21.0744,-10.5288,-10.9134,25.8731,44.0265,-16.1561,-20.1694,23.3645,-20.1448,12.5541,-16.3622,25.1273,-21.425,24.954,33.146
18.3098,18.2396,19.0388,177.027,-45.1782,-169.22,9.32517,0.0819891,-2.91548,2.00926,-0.207357,2.09186,-3.12349,-0.121617,3.846,6.53136,-17.199,-13.9792,6.49865,-27.0081,22.3913,5.93222,-13.7246,7.26392,-2.38542e-15,-7.15625e-15,-26.2053,-10.441,-82.4124,28.4058,-10.3882,-22.9247,-24.9441,7.12502,3.51584,-54.8949,-2.38542e-15,-7.15625e-15,-25.7821,9.58255,76.0398,27.4673,0.454998,-12.9235,-10.0313,7.12502,13.1669,19.5329,-9.90247,-11.4572,25.566,43.9667,-15.8583,-20.7157,25.7622,-19.9119,12.878,-16.5377,24.7722,-21.3634,25.3273,33.499
18.3638,18.236,19.0533,177.039,-44.5085,-169.497,9.49693,0.13025,-3.10779,2.03191,-0.16923,2.08162,-3.19794,-0.101208,3.94182,6.72256,-17.2025,-13.8588,6.58964,-27.0413,22.2376,5.89421,-13.7528,7.21956,-4.23411e-14,4.77083e-14,-26.4758,-10.6786,-82.1958,28.2559,-10.5382,-21.2872,-25.6555,7.12502,5.09703,-55.5742,-4.23411e-14,4.77083e-14,-25.6011,9.65742,75.8758,27.7749,0.351318,-15.0108,-8.51658,7.12502,11.1543,21.1669,-9.12174,-12.2158,25.3898,43.8423,-15.293,-21.4257,25.3607,-19.6882,13.3332,-16.5133,24.6305,-21.4341,25.4384,33.6817
18.4147,18.2228,19.0693,176.882,-43.8754,-169.558,9.63688,0.140736,-3.1395,2.07673,-0.164842,2.15708,-3.22899,-0.10113,4.03978,6.83779,-17.1886,-13.9345,6.77555,-27.0868,22.1337,5.93513,-13.7804,7.19895,-4.85035e-14,-7.15625e-15,-26.6035,-10.168,-82.2922,27.9453,-13.2892,-22.2466,-26.4085,7.12502,4.17062,-56.3474,-4.85035e-14,-7.15625e-15,-25.5369,9.53724,75.8076,28.4108,0.911726,-14.8284,-7.4557,7.12502,11.3302,22.2182,-8.26431,-13.0497,25.2967,43.6108,-15.4055,-21.8123,26.2069,-19.5459,13.8788,-16.3444,24.6571,-21.5255,25.3874,33.8108
18.4554,18.2175,19.1097,176.93,-43.2852,-169.346,9.41363,0.0520066,-2.63246,2.08128,-0.227209,2.2449,-3.09666,-0.13966,3.84845,6.73836,-17.1776,-14.115,7.08813,-27.1656,22.0931,6.0817,-13.8058,7.17589,2.78299e-15,-3.33958e-14,-26.4209,-10.3954,-82.0153,27.4246,-13.7819,-21.4527,-29.3473,7.12502,4.93724,-59.2698,2.78299e-15,-3.33958e-14,-25.4005,9.46475,75.806,29.0857,1.77434,-14.6936,-6.8029,7.12502,11.4603,22.8639,-7.96581,-14.023,25.3795,43.3865,-15.191,-22.3548,27.6501,-19.8696,13.6287,-16.0781,24.6858,-22.191,25.9203,34.5838
18.5096,18.2202,19.1257,177.111,-42.6212,-169.442,9.17916,0.0492631,-2.69288,2.12243,-0.231573,2.3344,-2.92287,-0.146095,3.97388,6.80304,-17.2387,-14.1645,7.17848,-27.2738,21.9725,6.10762,-13.86,7.13209,-1.40143e-13,-6.36111e-15,-26.3475,-10.918,-81.5914,27.068,-13.2978,-20.5335,-32.2234,7.12502,5.8248,-62.1234,-1.40143e-13,-6.36111e-15,-25.1158,9.42912,75.8011,29.3749,1.8787,-15.2085,-6.76442,7.12502,10.9636,22.9293,-7.45817,-14.7485,25.3344,43.1288,-15.3535,-23.1286,28.5256,-20.1196,14.6432,-16.0523,24.7358,-21.7552,25.8063,34.2278
18.5553,18.2193,19.1442,177.769,-41.9909,-170.462,9.12367,0.0553444,-3.2669,2.14276,-0.277683,2.16133,-2.86459,-0.165289,4.12325,6.92498,-17.2428,-14.1129,7.25338,-27.2909,21.8026,6.07995,-13.8757,7.08574,-1.0953e-13,-3.97569e-15,-26.4805,-11.3114,-81.2555,26.8587,-12.9047,-20.5644,-26.3922,7.12502,5.79488,-56.293,-1.0953e-13,-3.97569e-15,-24.9034,9.27061,75.7144,29.6369,1.85777,-15.5708,-6.70548,7.12502,10.6142,23.0065,-6.84777,-15.7264,24.3413,42.9149,-15.8979,-23.3552,29.7475,-20.0976,15.3929,-16.7774,24.6483,-21.4588,25.8516,33.8271
18.6176,18.2174,19.1743,177.688,-41.2653,-170.23,9.20599,0.0749418,-2.94819,2.08495,-0.222612,2.22474,-2.9768,-0.137076,4.00372,7.14112,-17.1803,-14.1452,7.28537,-27.2842,21.8844,6.06965,-13.8928,7.13956,1.29011e-13,-1.66979e-14,-26.6504,-11.6421,-81.0099,26.8188,-12.7903,-19.5544,-24.8574,7.12502,6.76998,-54.7291,1.29011e-13,-1.66979e-14,-24.7289,9.19533,75.5799,30.0765,2.23722,-15.1466,-6.6823,7.12502,11.0234,23.0083,-6.55496,-16.2218,24.6086,42.6331,-16.6288,-24.2103,29.3511,-20.2033,15.3973,-16.3454,24.4808,-22.0514,26.1657,34.8565
18.6731,18.2229,19.195,177.907,-40.5989,-170.593,9.16023,0.232234,-2.96287,2.09992,-0.0185106,1.99836,-2.95459,-0.0352625,3.75086,7.75978,-17.2398,-13.844,6.82495,-27.4192,22.2669,5.86869,-14.0211,7.2785,8.13029e-14,1.35174e-14,-26.8952,-12.757,-80.7919,26.8684,-12.4752,-18.2454,-25.3293,7.12502,8.03346,-55.1566,8.13029e-14,1.35174e-14,-24.3458,8.65894,75.3941,30.4261,2.58872,-14.8236,-6.73035,7.12502,11.3348,22.9433,-6.03024,-16.7992,24.2826,42.2613,-17.1851,-25.2442,28.6158,-20.2067,15.8733,-16.4596,24.4286,-22.3741,26.1295,35.6938
18.7369,18.2264,19.2092,178.039,-39.8309,-170.772,8.98692,0.430985,-2.99572,2.18463,0.240665,1.83747,-2.79257,0.0887703,3.57031,8.16353,-17.2983,-13.4909,6.49949,-27.5315,22.558,5.7199,-14.1189,7.36211,1.09729e-13,0,-26.9363,-13.8943,-80.5102,26.8089,-11.6436,-17.2013,-26.0574,7.12502,9.04114,-55.8437,1.09729e-13,0,-23.7871,8.13769,75.2455,30.6409,2.76305,-15.462,-6.17579,7.12502,10.7191,23.5307,-5.48322,-17.3173,24.1862,41.7167,-17.8629,-25.8203,31.5495,-20.4251,16.3335,-16.3679,24.7532,-22.7294,26.2747,35.9906
18.8101,18.2126,19.2248,177.184,-38.9503,-169.572,8.91627,0.418978,-2.29359,2.37501,0.282309,2.35014,-2.55918,0.089644,3.70215,8.07381,-17.1592,-13.8933,6.67763,-27.3989,22.551,5.81829,-14.0452,7.41249,9.30312e-14,-4.21423e-14,-26.5705,-13.5726,-80.2154,26.5339,-11.1722,-16.8033,-26.6263,7.12502,9.4251,-56.3956,9.30312e-14,-4.21423e-14,-23.5148,8.56059,75.3717,31.1157,3.18242,-16.3491,-5.35888,7.12502,9.86337,24.3901,-4.87371,-17.5538,25.3984,41.1175,-18.9795,-25.9926,34.7141,-20.5822,16.5336,-14.9353,25.126,-23.3828,26.4883,36.4856
18.876,18.1879,19.2467,176.048,-37.9716,-168.037,8.94633,0.448198,-0.967935,2.57271,0.416852,2.74924,-2.3759,0.1338,3.35183,8.12919,-17.133,-13.8526,6.69648,-27.3617,22.4666,5.7887,-14.0297,7.39577,-4.29375e-14,-3.18055e-15,-26.3174,-13.3211,-80.2919,26.1713,-11.0091,-17.9807,-25.5694,7.12502,8.28898,-55.3868,-4.29375e-14,-3.18055e-15,-23.3018,8.56465,75.2988,31.7626,3.96002,-16.3142,-5.89755,7.12502,9.89706,23.8498,-4.19311,-17.6047,26.8572,40.5516,-19.6055,-26.564,35.9782,-20.5579,16.6975,-13.1574,25.4188,-24.2093,26.6295,37.1884
18.9355,18.1755,19.2763,176.392,-36.8968,-168.459,8.83244,1.05375,-0.515461,2.60122,1.25522,2.01478,-2.3121,0.556716,2.24135,8.58051,-17.6611,-12.0968,6.2557,-27.9854,22.4841,5.45672,-14.372,7.17415,-9.74045e-15,2.22639e-14,-26.8989,-15.6806,-80.4285,26.3339,-9.65099,-19.1991,-23.6191,7.12502,7.11295,-53.4796,-9.74045e-15,2.22639e-14,-22.4993,6.41575,74.839,32.1859,4.69239,-16.0121,-6.78057,7.12502,10.1885,22.9527,-3.84638,-17.6776,26.5171,40.0807,-19.6238,-27.3262,36.261,-20.6411,16.7017,-13.1604,25.6499,-25.7051,26.7814,38.4337
18.9961,18.1744,19.3017,177.704,-36.3936,-169.989,8.37084,0.472865,-1.96411,2.65066,0.371485,2.27854,-1.97697,0.115038,3.42901,7.99032,-17.0388,-14.0357,7.15711,-27.3264,22.2306,5.93502,-13.9939,7.32673,-3.97569e-16,-1.90833e-14,-26.4439,-13.3554,-80.3575,26.5146,-8.91196,-19.0872,-22.9422,7.12502,7.22099,-52.799,-3.97569e-16,-1.90833e-14,-22.9997,9.1775,74.6952,32.7147,4.22139,-15.9159,-7.14729,7.12502,10.2813,22.5814,-3.86806,-18.2176,25.2286,39.6812,-20.093,-27.7385,37.0117,-21.098,16.6175,-14.3736,25.7318,-26.6959,26.7511,39.4299
19.057,18.1691,19.3401,178.354,-35.7747,-170.836,8.32522,0.927372,-1.92753,2.52969,0.98168,1.56336,-2.10918,0.431916,2.60332,8.74904,-17.3295,-12.7905,6.59962,-27.724,22.5603,5.59379,-14.26,7.325,7.39479e-14,-8.74653e-15,-27.2307,-14.8229,-80.4924,26.8936,-8.9262,-18.7073,-23.6126,7.12502,7.58772,-53.4564,7.39479e-14,-8.74653e-15,-22.2959,7.58158,74.3723,32.9276,4.31878,-15.6964,-7.28021,7.12502,10.493,22.4379,-3.73918,-18.6858,24.4594,39.3207,-20.513,-27.987,38.3281,-21.3037,16.7985,-14.9948,25.6319,-26.8964,27.1427,39.4414
19.1194,18.1593,19.3751,178.415,-35.029,-170.878,8.367,0.377296,-2.17094,2.68841,0.223513,2.19951,-1.92519,0.0393359,3.47862,7.80225,-16.6474,-14.2811,7.19026,-26.6978,21.9713,5.84739,-13.6772,7.36188,-1.69961e-14,1.59028e-15,-26.2646,-12.0362,-80.6004,26.5431,-9.43275,-18.533,-24.0904,7.12502,7.75586,-53.9281,-1.69961e-14,1.59028e-15,-22.6779,10.1031,74.406,33.5121,4.46214,-15.8822,-7.19264,7.12502,10.3138,22.5345,-3.51761,-18.8797,24.4442,38.9132,-20.7922,-28.5086,38.3283,-21.4131,17.4968,-14.8969,25.511,-26.6463,27.3941,39.3186
19.1908,18.1499,19.3993,178.434,-33.8924,-170.534,8.19584,0.9886,-1.524,2.60026,1.09272,1.858,-1.96962,0.479292,2.67163,8.04199,-17.1748,-12.8509,7.32369,-27.4663,21.7811,5.77093,-14.0536,7.04543,-3.18055e-15,-7.95139e-15,-26.3381,-14.1841,-80.509,25.8014,-8.72026,-17.6943,-23.3833,7.12502,8.5654,-53.1895,-3.18055e-15,-7.95139e-15,-22.0407,7.97936,74.2825,33.8565,5.0256,-16.274,-6.72041,7.12502,9.93583,23.0251,-3.47104,-18.5363,24.9446,38.4266,-20.7672,-29.3662,36.8244,-21.6635,18.1204,-14.2995,25.5763,-27.4246,27.3805,40.1129
19.2657,18.1457,19.4258,178.753,-32.8135,-170.619,7.95438,0.781416,-1.77748,2.56367,0.805268,2.23941,-1.86547,0.333054,3.24075,7.98276,-16.7377,-14.1579,7.94936,-27.0728,21.6836,6.0637,-13.8603,7.20579,2.34566e-14,4.77083e-15,-26.1801,-12.4189,-80.6031,26.0183,-9.29783,-17.3009,-23.2709,7.12502,8.945,-53.0613,2.34566e-14,4.77083e-15,-22.4799,9.65725,74.1652,34.3721,4.77458,-15.9458,-6.4753,7.12502,10.2525,23.2548,-3.46048,-18.2983,25.0444,37.8865,-20.6341,-29.9093,35.0774,-22.0125,18.231,-14.0325,25.8242,-28.7353,27.5104,40.979
19.3411,18.1356,19.4554,179.083,-31.8504,-170.844,7.79821,0.868541,-1.77473,2.54856,0.924296,2.16617,-1.80165,0.393251,3.15267,8.25627,-16.6513,-14.367,8.09223,-27.0905,21.7801,6.1095,-13.8945,7.28454,-1.91827e-14,7.15625e-15,-26.1974,-11.2061,-81.2701,26.2325,-12.2882,-20.6459,-21.5362,7.12502,5.71626,-51.4391,-1.91827e-14,7.15625e-15,-22.4278,10.0167,73.9008,34.9136,4.70004,-15.2183,-6.41566,7.12502,10.9542,23.2786,-3.3556,-18.2154,24.9901,37.2944,-21.227,-29.5978,34.2595,-22.3877,18.2579,-13.899,26.1771,-29.7232,27.7907,41.5761
19.4199,18.1089,19.4907,179.121,-30.8463,-170.711,7.84955,1.01072,-1.43073,2.55584,1.13474,2.08412,-1.82887,0.497633,2.85278,8.14383,-16.6288,-14.0979,8.43428,-27.1321,21.6377,6.18344,-13.9006,7.18636,4.39314e-14,-1.82882e-14,-26.1853,-12.69,-80.8078,26.5058,-8.09293,-17.1464,-23.1329,7.12502,9.0941,-52.9168,4.39314e-14,-1.82882e-14,-22.3778,9.70441,73.5853,35.6008,5.06797,-14.9975,-6.2023,7.12502,11.1671,23.4805,-3.20476,-17.9757,25.3015,36.6809,-21.6919,-29.1072,33.2576,-22.7298,18.299,-13.3888,26.5935,-30.7919,28.0675,42.1552
19.5201,18.082,19.5104,179.102,-29.9218,-170.634,7.87417,0.970446,-1.66639,2.64861,1.05575,2.26284,-1.74932,0.451266,3.17935,7.93511,-16.3751,-14.3122,8.7683,-26.814,21.4404,6.25916,-13.7312,7.17586,9.74045e-15,-3.73715e-14,-26.0387,-12.5753,-80.7851,26.7762,-6.26429,-15.3312,-23.763,7.12502,10.8453,-53.463,9.74045e-15,-3.73715e-14,-22.5519,10.1323,73.3066,36.2509,5.42979,-15.0239,-6.04501,7.12502,11.1417,23.6392,-2.93471,-17.5398,25.7123,35.9902,-21.8159,-29.178,31.0046,-23.1231,19.6162,-12.9937,27.1144,-30.2353,28.0243,41.8325
19.5968,18.0647,19.5717,179.122,-29.3384,-170.459,8.15366,0.856368,-0.991723,2.60448,0.950076,2.21538,-1.93101,0.399334,2.75648,8.21803,-16.2137,-14.4515,8.69516,-26.6277,21.4852,6.1785,-13.6699,7.27048,-2.70347e-14,1.51076e-14,-25.8901,-12.5854,-80.9216,26.6012,-5.91302,-15.1893,-22.9614,7.12502,10.9821,-52.6541,-2.70347e-14,1.51076e-14,-22.4531,10.4292,73.0879,36.6485,5.85228,-14.8027,-5.49845,7.12502,11.355,24.1741,-3.00555,-17.6692,26.0363,35.3719,-21.2861,-29.3414,28.4838,-23.6249,19.0531,-12.5617,27.5808,-31.7601,28.0536,42.7152
19.6996,18.0389,19.5971,178.763,-28.3295,-170.198,8.60885,1.02663,-0.752139,2.67771,1.18173,2.19498,-2.11481,0.509713,2.57292,8.19115,-16.1615,-14.294,8.96413,-26.6354,21.4138,6.23595,-13.6705,7.22269,-1.5704e-14,-7.15625e-15,-26.2103,-12.155,-81.4679,27.3394,-7.65074,-16.7345,-22.1557,7.12502,9.4915,-51.9219,-1.5704e-14,-7.15625e-15,-22.2495,10.3172,72.7733,37.0026,6.24792,-14.8157,-5.52889,7.12502,11.3425,24.1444,-2.50769,-17.0638,26.5817,34.8146,-21.6293,-29.2263,27.4448,-23.5143,19.8872,-11.766,27.8181,-31.9128,27.9642,42.9581
19.7723,18.0285,19.639,179.43,-27.1885,-170.523,8.31364,1.01831,-0.708678,2.557,1.18474,2.06784,-2.07288,0.51757,2.41861,8.26732,-16.0167,-14.4141,9.29544,-26.5491,21.2787,6.30539,-13.6379,7.21373,1.09332e-14,3.97569e-15,-25.9328,-11.6715,-81.9421,27.2249,-8.99034,-18.232,-20.9181,7.12502,8.0464,-50.745,1.09332e-14,3.97569e-15,-22.4444,10.8215,72.3323,37.512,5.74385,-14.7184,-5.71535,7.12502,11.4364,23.9527,-2.94027,-16.7474,26.5096,34.4096,-21.8664,-28.435,26.4094,-23.9338,18.9252,-11.6579,27.8849,-34.6438,28.2547,44.2407
19.8514,18.0119,19.6425,179.952,-26.3606,-171.864,8.05128,0.968938,-2.0497,2.77535,1.00678,1.88149,-1.71302,0.422552,3.00386,8.75267,-15.8736,-14.7442,9.1464,-26.4436,21.4166,6.22207,-13.6358,7.36928,3.37934e-14,-7.15625e-15,-26.0643,-9.95212,-82.4793,28.371,-10.5901,-17.7276,-22.2261,7.12502,8.53321,-52.0337,3.37934e-14,-7.15625e-15,-22.5781,11.0586,72.2613,38.0517,6.67128,-15.888,-5.20183,7.12502,10.3082,24.5255,-2.52495,-16.9446,25.1673,34.05,-21.7728,-28.0178,22.6976,-23.6061,18.9742,-12.5099,27.8466,-35.6392,28.2993,44.8729
19.953,17.988,19.678,179.901,-25.5455,-172.205,8.27094,1.03369,-2.4326,3.00551,1.03951,1.80994,-1.60416,0.426053,3.14217,8.71093,-15.7433,-14.7217,9.19787,-26.3003,21.4945,6.22467,-13.5664,7.40997,4.96962e-14,-2.8625e-14,-25.91,-9.39551,-82.9101,29.0598,-11.5139,-17.3237,-24.1064,7.12502,8.92297,-53.8977,4.96962e-14,-2.8625e-14,-22.3673,11.1665,72.1626,38.4887,6.90688,-16.1524,-4.44664,7.12502,10.0532,25.2932,-2.23304,-16.6122,25.0463,33.7378,-22.0694,-28.0877,19.0912,-23.3119,18.6758,-12.2708,27.7221,-37.0562,28.2291,45.851
20.0299,17.9793,19.721,180.211,-24.557,-172.394,7.93624,1.13103,-2.15466,3.13455,1.18796,1.56738,-1.28659,0.49485,2.7241,8.31021,-15.5936,-14.353,9.47204,-26.0584,21.3141,6.25312,-13.4125,7.30318,-4.4329e-14,2.06736e-14,-25.7861,-9.1618,-83.4189,29.5228,-12.4021,-19.8989,-21.195,7.12502,6.43742,-51.0771,-4.4329e-14,2.06736e-14,-22.1033,10.9883,71.9149,38.8882,7.13396,-16.4212,-4.42386,7.12502,9.79377,25.3284,-2.34926,-16.4622,24.9505,33.3354,-22.5863,-27.3528,17.5183,-23.4649,18.3352,-12.0946,27.612,-38.6423,28.448,46.4189
20.1072,17.9729,19.7582,180.393,-23.4633,-172.481,7.79875,1.15653,-2.01157,3.20916,1.22852,1.57039,-1.13345,0.510538,2.64522,8.06498,-15.4398,-14.4933,9.87673,-25.8852,21.0538,6.36677,-13.3092,7.23565,-1.53064e-14,1.03368e-14,-25.641,-8.25516,-83.739,29.8837,-13.247,-16.2722,-25.0437,7.12502,9.93757,-54.7891,-1.53064e-14,1.03368e-14,-22.2269,11.0099,71.8306,39.4215,7.76182,-17.0745,-4.3931,7.12502,9.16348,25.3878,-2.37181,-16.1675,24.9291,32.8908,-22.3889,-26.9422,15.0994,-23.4648,17.7609,-11.666,27.5857,-40.7982,28.5198,47.0483
20.2137,17.9518,19.7709,180.134,-22.5391,-172.474,8.00544,1.1184,-2.44503,3.34855,1.12836,1.8311,-1.11035,0.446245,3.1677,8.00896,-15.2556,-14.9849,10.4148,-25.7907,20.8592,6.56224,-13.2684,7.23741,-9.14409e-15,0,-25.5012,-7.80112,-83.7437,30.2547,-12.1946,-16.434,-25.8164,7.12502,9.78144,-55.5692,-9.14409e-15,0,-22.6546,11.2808,71.8238,39.9927,8.50829,-18.1619,-4.71643,7.12502,8.11405,25.1078,-1.81352,-15.7466,25.114,32.4223,-21.9238,-26.8623,11.6136,-22.9911,18.4878,-11.0717,27.5467,-41.5775,27.5549,47.6866
20.2995,17.9335,19.8097,180.319,-21.6918,-172.564,7.91213,1.01685,-2.30459,3.37031,1.00261,1.77659,-1.02406,0.382481,3.04419,7.9938,-15.0718,-15.0583,10.7651,-25.5928,20.5855,6.60571,-13.1767,7.1881,4.81059e-14,-1.27222e-14,-25.3912,-7.87485,-83.8823,30.7067,-10.7145,-18.1789,-24.4467,7.12502,8.09769,-54.2715,4.81059e-14,-1.27222e-14,-22.8421,11.4722,71.5414,40.3779,8.89408,-18.8208,-5.78116,7.12502,7.4781,24.0667,-1.79655,-15.6749,25.1451,31.9641,-21.3833,-26.2376,8.62906,-23.0995,18.4558,-10.7922,27.5174,-42.831,27.1663,48.2548
20.3908,17.9182,19.8434,180.455,-20.7582,-172.877,7.85631,1.03839,-2.45318,3.4774,1.01257,1.63864,-0.883458,0.380747,2.9854,8.19612,-14.952,-14.9391,10.7725,-25.4425,20.4751,6.51289,-13.1219,7.18563,-5.725e-14,-5.56597e-15,-25.371,-7.1682,-84.3989,31.194,-12.0891,-20.0036,-22.1854,7.12502,6.33634,-52.0706,-5.725e-14,-5.56597e-15,-22.876,11.5255,71.2553,40.6923,8.94273,-18.8692,-6.59784,7.12502,7.43141,23.2516,-1.64113,-15.4047,24.9056,31.5109,-21.5081,-25.3982,7.69097,-23.0021,18.0088,-10.5826,27.5266,-44.3672,27.2565,48.5703
20.4872,17.906,19.8767,180.576,-19.9261,-172.745,7.81048,1.01644,-2.14348,3.44198,1.00685,1.53697,-0.887819,0.382582,2.70606,8.74014,-14.8078,-14.8069,10.6962,-25.4186,20.7277,6.41081,-13.1641,7.31321,3.81667e-14,7.15625e-15,-25.614,-6.17372,-85.1646,31.8924,-14.2216,-20.465,-23.2812,7.12502,5.89092,-53.1793,3.81667e-14,7.15625e-15,-23.0789,11.3952,70.9262,41.0255,8.89861,-18.8927,-7.04058,7.12502,7.40874,22.8097,-1.67977,-15.2711,25.1681,31.078,-21.9933,-24.2245,8.14998,-23.1122,17.3882,-9.9117,27.5806,-46.0526,27.3957,48.6319
20.5841,17.8872,19.9108,180.526,-19.0947,-172.475,7.94195,0.840048,-1.73327,3.47081,0.791349,1.55288,-0.9122,0.274629,2.50892,8.78617,-14.5205,-14.9347,11.033,-25.203,20.7849,6.48934,-13.0801,7.3841,7.7526e-15,-3.97569e-15,-25.7115,-4.85569,-85.8192,32.8354,-15.4966,-15.9387,-30.5818,7.12502,10.2593,-60.3116,7.7526e-15,-3.97569e-15,-23.3959,11.6908,70.5814,41.3482,8.98962,-19.2711,-7.46144,7.12502,7.04346,22.4014,-1.55214,-15.3435,25.5396,30.6212,-22.0438,-23.1113,8.00129,-23.1237,17.3863,-9.13069,27.6922,-47.2483,26.82,48.8571
20.6812,17.8641,19.9425,180.341,-18.0278,-172.233,8.06279,0.773102,-1.55423,3.692,0.68773,1.72021,-0.744618,0.207376,2.59025,8.4309,-14.4043,-14.9982,11.3399,-24.9586,20.3176,6.53995,-12.9331,7.24181,-3.12092e-14,7.95139e-15,-25.5513,-3.99617,-85.9966,33.5643,-15.3964,-22.3555,-23.0851,7.12502,4.0655,-53.026,-3.12092e-14,7.95139e-15,-23.5335,12.1413,70.4484,41.6379,9.22033,-19.4593,-7.6265,7.12502,6.86184,22.2423,-1.27653,-15.3964,25.844,30.1754,-21.4275,-22.4368,6.40142,-22.8767,17.8335,-8.32982,27.8161,-48.1903,25.944,49.3427
20.7805,17.8457,19.9722,180.349,-17.1032,-171.864,7.94478,0.819827,-1.22949,3.77299,0.763259,1.83117,-0.597512,0.24044,2.51645,8.30744,-14.2335,-15.0792,11.5181,-24.8179,20.4322,6.61416,-12.8655,7.29707,-3.3197e-14,-1.43125e-14,-25.6169,-3.66586,-86.2186,34.2946,-15.2414,-27.1281,-20.8982,7.12502,-0.543829,-50.8772,-3.3197e-14,-1.43125e-14,-23.559,12.1487,70.3406,41.7842,9.23262,-19.1084,-7.61168,7.12502,7.20051,22.2458,-1.29744,-15.4446,26.4161,29.7913,-21.3272,-21.6048,5.62124,-22.8853,17.9131,-7.41809,27.8719,-49.2882,25.3412,49.9168
20.8867,17.8326,19.9895,180.403,-16.0505,-171.865,7.69283,0.894839,-1.45126,3.88472,0.840786,1.88877,-0.351107,0.268942,2.69703,8.4689,-14.0278,-14.9557,11.4434,-24.5577,20.4608,6.49929,-12.7594,7.3497,-1.96797e-14,4.77083e-15,-25.6526,-2.74587,-86.5821,34.9243,-15.8729,-20.9996,-24.0836,7.12502,5.37472,-53.9955,-1.96797e-14,4.77083e-15,-23.7912,12.1493,70.256,41.9652,9.29137,-19.1936,-7.37215,7.12502,7.11825,22.4881,-1.20573,-15.2238,26.64,29.477,-21.7585,-20.538,6.1039,-22.6596,18.154,-6.81285,27.8668,-50.1636,24.8859,50.4097
20.9645,17.8281,20.025,180.721,-14.9876,-171.793,7.27641,0.838597,-1.05836,3.86139,0.798809,1.8649,-0.137353,0.253833,2.45709,8.73008,-13.7208,-15.1664,11.5289,-24.2664,20.5562,6.46204,-12.6578,7.47975,-9.54166e-15,2.78299e-14,-25.6826,-2.23043,-86.6705,35.0995,-15.6588,-18.5454,-23.8837,7.12502,7.7439,-53.7219,-9.54166e-15,2.78299e-14,-24.3268,12.0305,70.1515,42.3324,9.6364,-19.2624,-7.49338,7.12502,7.05188,22.3691,-1.59661,-15.4686,26.7931,29.2578,-21.6935,-19.2382,6.50467,-22.6095,17.0399,-6.18223,27.7696,-52.9023,23.562,51.3631
21.0586,17.8048,20.0579,180.321,-13.9929,-171.59,7.87165,0.848369,-0.916148,3.73464,0.816251,1.96275,-0.597014,0.265624,2.4718,9.18939,-13.3866,-15.2569,11.9409,-24.004,20.2742,6.43442,-12.5898,7.48488,-6.04305e-14,-4.77083e-15,-26.3107,-1.94483,-86.719,35.5355,-15.4479,-18.745,-23.477,7.12502,7.55129,-53.3222,-6.04305e-14,-4.77083e-15,-25.178,11.8816,69.9821,42.6056,9.85688,-18.5082,-7.69009,7.12502,7.77981,22.1468,-1.26188,-15.3869,27.0698,29.1252,-21.945,-18.3702,7.54577,-21.7866,15.8935,-5.13083,27.6467,-55.3107,21.8901,52.1065
21.1443,17.7977,20.1032,180.65,-13.0111,-171.196,7.61939,0.771214,-0.503139,3.94674,0.711613,2.23543,-0.231425,0.199016,2.53197,8.04621,-13.4625,-15.037,12.4189,-23.8169,19.4553,6.60742,-12.3948,7.10071,1.47101e-14,-6.36111e-15,-25.8062,-0.794448,-86.8023,36.1183,-15.8185,-18.2383,-23.0975,7.12502,8.04031,-52.9246,1.47101e-14,-6.36111e-15,-25.0179,12.6884,70.3085,42.7304,9.685,-18.6488,-7.4203,7.12502,7.64412,22.4215,-1.94249,-15.1317,27.8215,29.0751,-21.8524,-17.6736,8.25928,-21.8559,14.5064,-4.09946,27.5064,-57.7986,20.2248,52.9146
21.2605,17.7656,20.1205,180.172,-12.1022,-170.713,7.98758,0.762552,-0.485315,4.06276,0.67302,2.47817,-0.314957,0.16397,2.77496,8.15513,-13.095,-15.098,12.5927,-23.4631,19.5947,6.59858,-12.2545,7.21709,1.0138e-14,2.3059e-14,-26.1489,-0.144676,-87.0391,36.717,-15.8396,-17.3445,-22.6335,7.12502,8.90289,-52.4256,1.0138e-14,2.3059e-14,-25.5648,12.6879,70.2511,42.9632,9.53005,-19.469,-7.1795,7.12502,6.85238,22.6896,-1.5347,-14.668,28.6646,29.1106,-22.466,-17.0605,9.92486,-21.1368,15.0331,-2.82685,27.3717,-57.2017,19.8953,52.9407
21.3727,17.7462,20.1342,180.048,-11.1451,-170.447,7.89365,0.78994,-0.595288,4.19629,0.680366,2.62405,-0.128287,0.153519,2.98858,8.08402,-12.7361,-15.3276,12.7898,-23.1838,20.0182,6.69662,-12.1415,7.42113,-1.96797e-14,7.15625e-15,-26.2597,0.0591472,-87.1724,37.205,-15.6956,-17.1018,-22.7905,7.12502,9.13707,-52.5726,-1.96797e-14,7.15625e-15,-25.7548,12.7648,70.1061,42.7884,9.32793,-19.1927,-7.36656,7.12502,7.11914,22.4937,-1.46831,-14.0448,29.375,29.2029,-23.31,-16.4264,11.8375,-20.6698,15.564,-1.85832,27.2122,-56.2401,20.2996,52.2951
21.4358,17.7508,20.1851,180.503,-9.62172,-170.483,7.70336,0.830614,-0.252121,4.19691,0.75122,2.60814,-0.0219353,0.191738,2.77377,7.6449,-12.5807,-15.1347,12.9976,-22.7841,19.4387,6.66288,-11.9138,7.22059,-5.1684e-15,2.22639e-14,-26.0386,0.692861,-87.1928,37.4874,-15.5524,-16.6753,-22.7175,7.12502,9.54862,-52.4811,-5.1684e-15,2.22639e-14,-26.1083,13.5009,70.0856,42.7325,8.92421,-18.5854,-7.73091,7.12502,7.70529,22.1087,-2.19878,-13.5041,29.5416,29.3283,-23.0227,-15.7328,11.7361,-20.4645,14.0798,-1.29383,27.036,-57.9208,19.6555,52.3651
21.5277,17.7399,20.2152,180.555,-8.13482,-170.393,7.79618,0.97954,-0.238721,4.10421,0.95509,2.61906,-0.17916,0.296129,2.76049,8.17249,-12.3557,-14.8921,12.9011,-22.5319,19.2862,6.4462,-11.8427,7.22449,1.31198e-14,-6.36111e-15,-26.3372,1.35149,-87.4492,37.9105,-16.312,-17.0955,-23.2726,7.12502,9.14323,-53.0544,1.31198e-14,-6.36111e-15,-26.9916,13.6285,69.996,43.031,8.58634,-18.3339,-7.84205,7.12502,7.94809,21.9885,-2.37241,-12.5776,29.9745,29.4543,-22.7782,-15.7135,10.9951,-19.8304,13.1524,-0.389772,26.8448,-58.0828,19.4756,52.3867
21.6214,17.7349,20.2444,180.705,-6.66705,-170.298,7.72257,1.35258,-0.0897624,4.28115,1.43943,2.45559,0.0278068,0.532782,2.47172,7.63298,-12.5584,-13.8263,13.0137,-22.6635,18.9226,6.43173,-11.8361,6.89117,2.98177e-14,2.14687e-14,-26.1205,1.4303,-87.8792,38.4567,-18.0729,-18.96,-23.8599,7.12502,7.34372,-53.7124,2.98177e-14,2.14687e-14,-26.6583,12.9746,70.1058,42.9767,8.47625,-17.9976,-7.9073,7.12502,8.27262,21.9107,-2.62689,-11.5052,30.4468,29.5642,-22.8758,-15.4265,11.1651,-19.305,11.9119,0.520696,26.6622,-57.8531,19.9531,51.9117
21.7231,17.7124,20.2647,180.324,-5.77918,-170.343,7.94749,1.17345,-0.768688,4.60242,1.09857,2.84833,0.231396,0.318019,3.28812,7.15772,-12.22,-14.1976,13.3742,-22.0755,18.3738,6.49373,-11.5371,6.79809,1.0138e-14,3.33958e-14,-25.817,2.77859,-87.8817,38.5083,-18.9518,-19.6945,-23.0861,7.12502,6.63476,-52.9622,1.0138e-14,3.33958e-14,-27.1637,14.0142,70.2468,42.9176,8.19724,-17.6478,-8.0861,7.12502,8.61024,21.7183,-2.17692,-10.6551,30.7666,29.6,-23.6516,-15.0574,13.0251,-18.5384,11.1478,1.23435,26.5382,-55.4811,21.1423,50.8885
21.8039,17.7096,20.3017,180.845,-4.57518,-170.172,7.436,1.58331,-0.0521986,4.8937,1.66305,2.42237,0.811839,0.607765,2.41231,6.39063,-12.6961,-12.5846,13.2727,-22.5732,18.2861,6.48935,-11.6635,6.4131,-1.98785e-15,-5.56597e-15,-24.8674,0.903867,-88.052,38.1852,-18.4227,-18.9594,-22.3461,7.12502,7.34437,-52.1986,-1.98785e-15,-5.56597e-15,-25.9952,13.0575,70.3021,42.409,8.04244,-17.525,-8.71293,7.12502,8.72874,21.0866,-2.83599,-9.98536,31.3111,29.6435,-23.7633,-14.4566,13.9885,-18.6833,10.3358,1.92634,26.3687,-53.2171,22.7409,49.4231
21.8844,17.7045,20.3373,180.966,-3.55177,-170.174,8.17102,1.23086,0.327984,4.48722,1.26393,2.18809,0.0169794,0.436093,1.96938,6.6323,-12.0517,-12.9569,13.9032,-22.109,18.5598,6.63679,-11.5152,6.63019,-1.19271e-15,2.38542e-15,-25.2589,1.58181,-88.6086,38.1446,-18.3154,-18.475,-23.1176,7.12502,7.81193,-52.9533,-1.19271e-15,2.38542e-15,-27.1945,13.4055,69.5178,42.249,7.99364,-17.4956,-9.13073,7.12502,8.75715,20.6676,-3.00655,-9.61328,31.5862,29.6347,-23.4755,-14.1848,13.8539,-18.4772,9.34745,2.45127,26.1202,-50.3321,25.1657,46.8902
21.9419,17.7195,20.3773,181.618,-2.19758,-170.252,7.37797,1.61376,0.314791,4.5842,1.76098,2.2464,0.536149,0.68254,2.01485,6.70868,-12.3791,-11.9507,13.4042,-22.1487,17.7233,6.26567,-11.4961,6.23244,1.49089e-14,-5.56597e-15,-24.9263,1.08846,-88.0502,38.1957,-18.1271,-18.1813,-24.6162,7.12502,8.09536,-54.4412,1.49089e-14,-5.56597e-15,-26.9463,12.9153,70.2395,42.0703,7.65654,-17.3622,-8.97469,7.12502,8.88581,20.8182,-3.82303,-9.16852,31.6634,29.6283,-22.9813,-13.2947,14.1613,-18.6821,7.75018,2.78848,25.8211,-48.8304,26.4675,45.2307
22.0596,17.7159,20.3686,181.371,-2.40866,-170.681,6.97869,1.41694,-0.790492,4.96139,1.39514,2.43688,1.1272,0.453419,2.86925,6.1751,-12.3383,-11.5756,13.6486,-21.9762,17.2763,6.31131,-11.3674,6.01066,-1.90833e-14,2.38542e-14,-24.6523,0.954731,-87.753,38.0572,-17.8044,-18.11,-24.4922,7.12502,8.16414,-54.3145,-1.90833e-14,2.38542e-14,-27.1789,13.0148,70.6671,42.0861,7.07993,-17.2591,-9.34289,7.12502,8.98533,20.4458,-3.40502,-8.78546,31.7747,29.5711,-23.6658,-13.5561,15.5345,-18.5901,7.64339,2.76957,25.4725,-42.3016,28.2326,41.684
22.1282,17.7135,20.3872,180.842,-1.03632,-171.034,7.88333,1.49002,-1.06493,4.99646,1.44857,2.32568,0.657057,0.467258,2.89054,5.73894,-12.0531,-11.529,14.3159,-21.6809,16.8966,6.49849,-11.2186,5.8728,9.34288e-15,-9.54166e-15,-24.7804,0.937136,-87.7629,37.7327,-17.3836,-17.8012,-23.2666,7.12502,8.46218,-53.0771,9.34288e-15,-9.54166e-15,-27.9007,13.375,70.6075,41.8263,6.56712,-17.3926,-9.86489,7.12502,8.85653,19.9293,-2.69154,-8.1391,31.467,29.5106,-23.5833,-13.0455,15.4189,-17.5128,6.81504,2.92654,25.1457,-38.1436,29.168,38.4055
22.2014,17.726,20.4094,181.109,-0.474416,-171.089,8.11606,0.891834,-0.461034,4.77068,0.717932,1.9925,0.349329,0.133567,2.25664,5.45984,-11.4948,-11.6647,14.935,-21.0659,16.7302,6.63716,-10.9445,5.88229,-6.36111e-15,-2.62396e-14,-24.7043,1.22729,-88.3552,37.2417,-16.8635,-17.2501,-23.4156,7.12502,8.994,-53.2039,-6.36111e-15,-2.62396e-14,-28.7932,14.0895,69.7618,41.4621,6.50029,-17.4589,-9.74179,7.12502,8.79253,20.0551,-2.97898,-7.95851,31.65,29.3989,-23.3512,-12.6563,15.7239,-17.7115,5.03434,3.28321,24.8199,-35.1903,29.1109,36.3215
22.2687,17.731,20.4242,181.304,0.437126,-171.027,7.90386,0.371796,-0.392516,4.80748,0.92348,1.9862,0.499222,0.618505,2.20113,6.01715,-13.9994,-11.7334,15.4929,-20.1095,16.0904,6.58118,-9.37738,5.89937,-5.36719e-15,-2.62396e-14,-24.608,0.546535,-87.9837,36.9458,-16.5841,-16.734,-23.7498,7.12502,9.49203,-53.516,-5.36719e-15,-2.62396e-14,-29.0271,13.9582,69.9767,41.0471,6.32559,-17.2613,-9.31122,7.12502,8.9832,20.4775,-3.09948,-7.6784,31.9025,29.2673,-23.1578,-11.9974,16.2861,-17.7487,4.32029,3.73294,24.5939,-31.2937,28.6325,33.9114
22.3355,17.7429,20.4425,181.374,1.40053,-171.35,7.87294,0.384868,-0.548289,4.86942,0.927163,1.88296,0.580005,0.616513,2.18305,5.37271,-13.925,-11.4389,16.0337,-19.9531,15.5836,6.7551,-9.25637,5.66108,3.37934e-15,2.38542e-15,-24.4416,-0.235946,-87.5801,36.4906,-15.4951,-15.9198,-22.8705,7.12502,10.2775,-52.5994,3.37934e-15,2.38542e-15,-29.2808,13.904,70.1654,40.5874,5.94526,-16.9722,-9.05503,7.12502,9.26215,20.7215,-3.0531,-7.21294,31.7437,29.0129,-22.8404,-11.6238,16.2452,-17.7544,3.25674,3.73119,24.5192,-27.1715,28.3003,30.9858
22.4058,17.7604,20.4624,181.514,2.1677,-171.709,7.95792,0.474363,-0.977054,4.78567,1.00653,1.92122,0.43745,0.643046,2.45588,4.93129,-13.9748,-11.0156,16.4592,-19.9355,14.9402,6.85294,-9.21755,5.36113,8.15017e-15,9.54166e-15,-24.3964,-1.38947,-86.8205,35.912,-13.7585,-16.9049,-20.5097,7.12502,9.32708,-50.2834,8.15017e-15,9.54166e-15,-29.5319,13.8648,70.6297,39.9425,5.23802,-16.4896,-9.356,7.12502,9.72785,20.3993,-3.07511,-6.74819,31.5861,28.6968,-22.7022,-11.2043,16.4973,-18.0333,1.9435,3.69117,24.5855,-23.5622,27.3956,27.8812
22.4624,17.771,20.4658,181.577,3.31184,-171.534,7.926,0.448413,-0.505915,4.77345,0.998478,1.92445,0.448195,0.646601,2.19476,4.11558,-13.8221,-10.9035,17.3042,-19.6763,14.3899,7.15971,-9.03837,5.13364,2.78299e-15,-7.95139e-16,-24.4066,-1.93274,-86.5582,35.4849,-13.4636,-17.2115,-22.7918,7.12502,9.03125,-52.5784,2.78299e-15,-7.95139e-16,-29.9482,14.2747,70.6683,39.251,4.6624,-15.9269,-9.84583,7.12502,10.2707,19.8834,-2.85185,-6.34134,31.8524,28.3308,-22.6082,-10.3543,16.9638,-18.0223,1.1469,4.18224,24.7343,-21.0615,25.6665,25.7163
22.5262,17.777,20.4848,181.802,4.24249,-171.34,7.70628,0.445117,-0.16744,4.85669,1.01686,1.96133,0.658341,0.66221,2.04527,3.88959,-13.7248,-10.7843,17.5428,-19.5318,14.2746,7.23122,-8.94685,5.07948,9.93923e-15,-1.19271e-14,-24.2059,-2.5034,-86.3643,35.1025,-14.4408,-17.6534,-22.7328,7.12502,8.60487,-52.5375,9.93923e-15,-1.19271e-14,-29.8314,14.343,70.8786,38.3603,4.51626,-15.6822,-10.328,7.12502,10.5067,19.3895,-2.86299,-6.14076,32.2343,27.9347,-22.2264,-9.86869,16.9561,-18.4745,1.03607,4.59054,25.0136,-18.0996,23.2933,23.1372
22.5806,17.7906,20.4818,182.017,5.52153,-171.372,8.06545,0.402369,0.195609,4.4688,0.947678,1.8059,0.0684484,0.621383,1.67594,3.14418,-13.5868,-10.8206,19.1172,-19.2695,13.5869,7.77721,-8.73758,4.83762,-1.05356e-14,4.77083e-15,-24.8065,-2.3574,-86.4255,34.8121,-14.932,-17.6721,-23.0012,7.12502,8.58682,-52.8066,-1.05356e-14,4.77083e-15,-30.7422,14.477,70.6411,37.7193,4.41311,-15.8136,-10.2167,7.12502,10.38,19.5071,-2.77692,-5.67396,32.2678,27.5438,-21.7906,-9.28482,17.1151,-18.6905,0.456385,4.70405,25.385,-16.1286,21.2039,20.5145
22.6309,17.7994,20.4841,182.053,6.69395,-171.275,8.0821,0.484984,0.495241,4.51629,1.08257,1.83736,0.10865,0.695471,1.52972,3.13768,-13.4341,-10.5289,18.9781,-19.0193,13.3623,7.64352,-8.62401,4.75248,-1.68967e-14,-2.8625e-14,-24.9894,-2.56508,-86.1616,34.8506,-14.9952,-18.4043,-25.3313,7.12502,7.88012,-55.1644,-1.68967e-14,-2.8625e-14,-30.9405,14.8882,70.9461,37.0111,3.61708,-15.7866,-9.30794,7.12502,10.406,20.4146,-2.5348,-5.27799,32.4198,27.2006,-21.4227,-8.70667,17.3107,-18.7236,-0.140579,4.88882,25.7172,-14.7594,19.0194,17.7627
22.6864,17.8049,20.4912,182.211,7.99189,-171.151,7.88372,0.637407,0.702531,4.59081,1.29777,1.89943,0.292615,0.807008,1.46513,3.51195,-13.2154,-10.5826,18.4373,-18.7422,13.5988,7.38994,-8.52775,4.89699,-1.98785e-15,3.97569e-15,-25.0483,-3.22438,-85.7505,34.7686,-15.1544,-18.7371,-26.4995,7.12502,7.55892,-56.3444,-1.98785e-15,3.97569e-15,-31.0155,15.4267,71.2484,36.2245,2.72586,-15.5479,-9.12481,7.12502,10.6363,20.586,-2.42558,-4.89866,32.646,26.8658,-21.0072,-8.15309,16.634,-18.8631,-0.08123,5.02713,26.0706,-13.6281,17.099,13.6609
22.7347,17.8251,20.4952,182.418,8.84217,-171.21,7.73619,0.627464,0.908844,4.53904,1.28482,1.90327,0.324582,0.799586,1.35615,3.54829,-13.1112,-10.5683,18.4723,-18.5799,13.4659,7.35829,-8.45877,4.87282,8.15017e-15,1.66979e-14,-25.1559,-4.11623,-85.1413,34.4503,-15.544,-17.8676,-24.0598,7.12502,8.39807,-53.8728,8.15017e-15,1.66979e-14,-31.2523,15.7664,71.5157,35.4724,2.2288,-15.3282,-9.4476,7.12502,10.8482,20.2522,-2.44895,-4.62803,32.6685,26.5505,-20.6873,-7.70804,16.2615,-19.3317,-0.898602,4.89225,26.4612,-13.0795,15.8154,10.4158
22.7878,17.8326,20.4944,182.431,10.0691,-171.246,7.86935,0.753085,0.990044,4.51327,1.45756,1.90984,0.223324,0.886007,1.30148,3.37129,-13.0441,-10.4645,18.6563,-18.4527,13.1969,7.39561,-8.39419,4.77192,7.35503e-15,1.74931e-14,-25.2106,-5.08886,-84.5682,33.9556,-15.4633,-17.0246,-22.0438,7.12502,9.21162,-51.8226,7.35503e-15,1.74931e-14,-31.5523,16.1227,71.7178,34.7136,1.81559,-14.7861,-9.51201,7.12502,11.3711,20.1597,-2.14282,-4.06221,32.7224,26.2447,-20.4343,-7.15218,16.3466,-19.3697,-0.881068,4.7493,26.8779,-12.4807,13.7806,8.32784
22.8413,17.8393,20.4989,182.539,11.1899,-171.27,8.00194,0.807335,1.13503,4.45003,1.53626,1.89625,0.0875974,0.924721,1.19625,3.02794,-12.9283,-10.4767,19.0573,-18.2778,13.0443,7.55035,-8.28684,4.71991,3.67752e-14,7.15625e-15,-25.1924,-5.95414,-84.1069,33.3337,-14.9768,-16.9898,-23.0912,7.12502,9.24519,-52.8685,3.67752e-14,7.15625e-15,-31.859,16.5546,71.7867,33.9529,1.5102,-13.9519,-9.86537,7.12502,12.1755,19.7603,-1.993,-3.36499,32.8121,25.9594,-20.2317,-6.77913,16.5145,-19.6081,-0.89785,4.54289,27.2809,-11.5324,12.0208,5.19944
22.8886,17.8482,20.5012,182.366,12.2218,-171.535,8.4292,0.859615,1.06545,4.41275,1.61085,1.85358,-0.18755,0.960766,1.17515,3.09888,-12.7836,-10.4766,18.998,-18.0726,13.0221,7.48837,-8.19634,4.74121,1.23246e-14,2.78299e-14,-25.2997,-6.80205,-83.5325,32.7943,-14.5978,-17.0145,-23.9704,7.12502,9.22137,-53.7488,1.23246e-14,2.78299e-14,-32.1969,16.8963,71.9311,33.2787,1.14494,-13.1834,-10.0891,7.12502,12.9164,19.4911,-1.58673,-2.99023,32.5736,25.7027,-20.054,-6.28419,16.2705,-19.6802,-0.856172,3.97806,27.6932,-10.8147,10.2373,2.17119
22.9265,17.8748,20.5011,182.843,14.0891,-171.838,8.20158,1.23514,1.04662,4.21155,2.07121,1.72676,-0.272092,1.17656,1.0186,3.49064,-12.6801,-10.3099,18.5856,-17.905,12.8997,7.23458,-8.15179,4.72264,-1.09332e-15,9.93923e-15,-25.3381,-7.77342,-82.9429,32.0646,-13.8874,-16.7412,-23.2823,7.12502,9.48502,-53.0488,-1.09332e-15,9.93923e-15,-32.5968,16.9426,72.226,32.7618,1.07749,-12.6776,-10.08,7.12502,13.4039,19.4688,-1.87033,-2.64231,32.0758,25.4723,-19.6226,-4.77143,15.9785,-20.0093,-0.373632,3.34078,28.1415,-10.2916,8.8771,1.11173
22.9637,17.8951,20.4886,183.093,15.6684,-171.971,7.89327,1.41401,1.23184,4.26586,2.30552,1.62753,-0.0375956,1.29479,0.804931,3.1698,-12.558,-10.1865,18.7432,-17.7093,12.6546,7.28112,-8.0518,4.62377,-3.08116e-15,-2.38542e-14,-25.0523,-8.68399,-82.4466,31.1923,-12.5054,-16.382,-22.3276,7.12502,9.83162,-52.078,-3.08116e-15,-2.38542e-14,-32.7449,17.0627,72.5143,32.1998,1.21774,-12.5869,-10.3127,7.12502,13.4914,19.2303,-1.8173,-2.25983,31.789,25.1563,-19.3214,-3.36272,16.4851,-20.2566,-0.164018,2.82422,28.7252,-9.72716,7.3651,1.26056
23.0084,17.8994,20.4832,183.257,17.0535,-171.743,7.92337,1.54868,1.56387,4.28078,2.51042,1.703,-0.0293324,1.40261,0.680465,2.6608,-12.415,-10.16,19.1435,-17.4722,12.3255,7.43754,-7.92473,4.50358,-3.00165e-14,-1.74931e-14,-24.9643,-9.73466,-81.7082,30.4301,-10.4704,-16.0962,-21.4485,7.12502,10.1074,-51.1857,-3.00165e-14,-1.74931e-14,-32.8685,17.4995,72.7638,31.4755,0.59191,-12.8318,-10.2918,7.12502,13.2553,19.2667,-1.53251,-1.48901,32.045,24.7699,-19.0774,-2.54788,17.0851,-20.5148,0.0767471,2.70516,29.4657,-9.31217,5.72239,1.23119
23.05,17.8989,20.4684,183.381,18.1706,-171.367,8.15997,1.64255,2.17363,4.16682,2.68575,1.78659,-0.253866,1.4955,0.400369,2.99555,-12.2896,-10.1189,18.9097,-17.2775,12.2006,7.26261,-7.86121,4.50055,-3.04141e-14,-5.1684e-15,-25.1833,-10.3969,-81.144,29.9318,-9.86433,-16.9428,-21.6947,7.12502,9.29056,-51.47,-3.04141e-14,-5.1684e-15,-33.2904,17.5225,73.0124,30.9655,0.0530379,-11.6064,-9.02002,7.12502,14.4363,20.4579,-1.1319,-0.946815,32.4644,24.3673,-18.8825,-1.99213,17.3379,-20.7683,-0.234393,2.74295,30.2944,-9.17647,4.51913,0.435707
23.0903,17.8997,20.4559,183.558,17.9982,-171.301,8.01387,1.24019,2.73426,4.1772,2.18571,1.79142,-0.145915,1.25528,0.137326,3.35502,-12.0817,-10.1646,18.3084,-17.0254,12.4265,6.99526,-7.77682,4.63113,-1.27222e-14,0,-24.984,-10.2779,-81.0844,29.6379,-11.0895,-18.6789,-23.0367,7.12502,7.61506,-52.8797,-1.27222e-14,0,-33.5525,17.6744,73.1793,30.6599,-0.395638,-9.12197,-7.4125,7.12502,16.829,21.8782,-1.01913,-1.43472,32.6832,23.9781,-18.7639,-1.82582,17.656,-21.7712,-0.959585,2.43361,31.1056,-8.93071,2.73764,1.16123
23.1349,17.9079,20.4393,183.755,19.4182,-171.487,7.72873,1.38503,2.67777,4.2976,2.35814,1.7481,0.138273,1.34423,0.123715,2.92062,-11.9179,-10.1024,18.2953,-16.7949,12.3317,7.02168,-7.66309,4.58599,-5.63555e-14,-3.97569e-16,-24.5621,-10.521,-80.8411,29.2318,-11.5801,-19.3797,-23.7127,7.12502,6.93862,-53.579,-5.63555e-14,-3.97569e-16,-33.6403,18.1446,73.3564,30.2922,-0.992282,-8.51169,-7.14406,7.12502,17.4164,22.0957,-0.833165,-1.31227,32.353,23.6127,-18.5075,-0.568821,17.9902,-22.1037,-0.438637,1.71671,31.8576,-8.6245,1.64658,1.60187
23.1725,17.9241,20.4258,183.887,20.4607,-171.673,7.87081,1.42535,2.78751,4.23283,2.41827,1.69681,0.000980888,1.37135,-0.00117527,2.45113,-11.8136,-9.90197,18.5287,-16.6052,11.9692,7.10572,-7.56049,4.42761,1.17283e-14,-1.59028e-15,-24.4447,-11.0196,-80.392,28.6965,-11.2513,-19.068,-23.3612,7.12502,7.23951,-53.2173,1.17283e-14,-1.59028e-15,-33.8867,18.3939,73.5526,29.9101,-1.42671,-9.29505,-7.48453,7.12502,16.6624,21.8203,-0.711933,-1.28466,32.0234,23.3973,-18.4269,0.571899,17.9476,-22.6674,-0.306474,0.899256,32.5341,-8.08061,1.08062,-0.128707
23.2139,17.9291,20.4079,184.172,21.6292,-171.418,7.99656,1.5097,3.19907,4.11151,2.56271,1.79292,-0.176778,1.44309,-0.150383,2.40552,-11.6141,-9.82719,18.4423,-16.2977,11.7378,7.0213,-7.42958,4.37015,-6.20208e-14,9.54166e-15,-24.435,-11.2717,-79.8944,28.1179,-10.7921,-18.591,-22.7675,7.12502,7.69993,-52.6073,-6.20208e-14,9.54166e-15,-34.2375,18.768,73.7202,29.4604,-2.07371,-9.66472,-7.37345,7.12502,16.3065,21.9609,-0.551985,-1.15253,32.1704,23.1721,-18.3738,1.64153,17.7279,-23.1504,0.240842,0.541772,33.2146,-7.79902,0.236231,-0.813991
23.2551,17.924,20.4048,184.493,22.4732,-171.161,8.18548,1.48792,3.49602,3.98828,2.5676,1.94815,-0.401992,1.44302,-0.166798,2.20833,-11.4163,-9.62539,18.429,-15.9641,11.2925,6.95681,-7.28561,4.21706,7.9812e-14,1.11319e-14,-24.3538,-11.6713,-79.3362,27.6323,-10.1635,-18.6647,-22.7101,7.12502,7.62883,-52.5525,7.9812e-14,1.11319e-14,-34.5565,19.0806,73.9552,29.0699,-2.37572,-9.35778,-8.00938,7.12502,16.602,21.3005,-0.498965,-0.906311,32.4473,22.8907,-18.244,2.27194,17.8097,-23.8591,0.904211,0.150482,33.9636,-7.62193,-0.799151,-2.15328
23.2894,17.9292,20.3631,184.407,24.0221,-170.957,8.26226,1.6234,3.96819,4.2104,2.7994,1.97133,-0.186051,1.57939,-0.420927,1.75565,-11.2387,-9.49114,18.5943,-15.6761,10.9508,7.0159,-7.14695,4.08684,4.57205e-15,-2.8625e-14,-24.0776,-11.9889,-78.9298,27.2221,-9.70716,-19.1906,-23.1962,7.12502,7.12119,-53.0564,4.57205e-15,-2.8625e-14,-34.8069,19.1847,74.2845,28.9732,-2.15027,-8.5537,-9.30976,7.12502,17.376,19.9336,0.176305,-0.505401,32.4036,22.5315,-18.0926,3.43034,18.4421,-23.7883,1.45361,-0.414995,34.7984,-7.93315,-1.06792,-3.85168
23.3315,17.93,20.356,184.683,24.6697,-170.655,8.37261,1.49868,4.43552,4.213,2.68426,2.09366,-0.231919,1.53034,-0.550206,1.48664,-11.0284,-9.57829,18.755,-15.3646,10.7977,7.07393,-7.00289,4.06478,-1.23743e-14,1.39149e-14,-23.797,-12.1721,-78.6156,26.8609,-9.47845,-19.4048,-23.9837,7.12502,6.91436,-53.8508,-1.23743e-14,1.39149e-14,-35.0955,19.2709,74.6272,28.8955,-2.1196,-8.14793,-9.3361,7.12502,17.7665,19.8723,0.341402,-0.621372,32.6744,22.1799,-17.9536,4.20036,19.1922,-24.6489,1.9052,-0.820458,35.6505,-7.74747,-2.06271,-5.00961
23.378,17.932,20.3299,185.031,25.9313,-170.333,8.36742,1.63082,4.82162,4.16396,2.89141,2.21074,-0.25737,1.63684,-0.661554,1.29515,-10.8546,-9.5252,18.8898,-15.073,10.4472,7.08655,-6.87541,3.96058,1.39646e-14,1.39149e-14,-23.734,-12.514,-78.2249,26.6233,-9.0543,-19.2662,-24.3455,7.12502,7.04822,-54.2081,1.39646e-14,1.39149e-14,-35.4325,19.352,74.936,28.7401,-2.39677,-8.17296,-8.70958,7.12502,17.7424,20.501,0.628552,-0.430057,32.8305,21.7005,-17.7073,5.39724,19.8236,-25.2028,2.69796,-1.30262,36.4499,-7.61782,-2.53202,-8.1284
