JuanDHNZ/ProyectoFinalCD/preprocessing/sports_trials_csv/01_04.csv
root1,root2,root3,root4,root5,root6,lowerback1,lowerback2,lowerback3,upperback1,upperback2,upperback3,thorax1,thorax2,thorax3,lowerneck1,lowerneck2,lowerneck3,upperneck1,upperneck2,upperneck3,head1,head2,head3,rclavicle1,rclavicle2,rhumerus1,rhumerus2,rhumerus3,rradius1,rwrist1,rhand1,rhand2,rfingers1,rthumb1,rthumb2,lclavicle1,lclavicle2,lhumerus1,lhumerus2,lhumerus3,lradius1,lwrist1,lhand1,lhand2,lfingers1,lthumb1,lthumb2,rfemur1,rfemur2,rfemur3,rtibia1,rfoot1,rfoot2,rtoes1,lfemur1,lfemur2,lfemur3,ltibia1,lfoot1,lfoot2,ltoes1
12.7274,17.7984,16.0108,74.6653,-83.9566,-72.42,-1.77314,-1.17219,1.57372,-3.647,-1.59769,3.47274,-2.69806,-0.834088,2.70399,-5.18009,-5.86742,-9.13065,13.3425,-7.01169,-1.63776,5.159,-4.06035,0.520933,-2.88238e-15,1.59028e-15,-29.4623,-6.65887,-82.0674,25.3942,-10.8175,-17.2912,-24.3339,7.12502,8.95433,-54.1239,-2.88238e-15,1.59028e-15,23.3947,-9.06903,57.776,129.207,-11.4378,-45.3994,-35.0298,7.12502,-18.1679,-5.8583,-4.70525,3.02964,29.7063,28.5195,-19.3597,-7.51269,19.61,-4.96524,0.502986,-12.2725,28.9716,-20.9126,6.28226,-3.6259
12.7288,17.8002,16.018,75.6676,-83.7512,-73.2203,-2.03881,-1.27181,1.93654,-3.62957,-1.74593,3.53956,-2.53452,-0.919033,2.56236,-5.47571,-5.75872,-9.1417,13.4327,-6.83161,-1.59614,5.23209,-3.97274,0.537118,1.13307e-14,-3.97569e-16,-29.2949,-6.21378,-82.3352,25.7181,-11.3617,-17.4407,-24.3791,7.12502,8.81013,-54.1752,1.13307e-14,-3.97569e-16,23.702,-8.97379,57.8073,129.124,-11.8724,-46.1875,-35.6994,7.12502,-18.926,-6.60012,-4.8025,2.97264,29.9558,28.3173,-19.1471,-7.74827,18.3258,-5.28557,0.542567,-12.02,29.1733,-21.0663,6.04364,-2.52764
12.733,17.7998,16.0226,80.0427,-83.6452,-77.5213,-2.01949,-1.26317,2.19075,-3.6826,-1.73663,3.66224,-2.60483,-0.922115,2.54895,-5.72199,-5.58521,-9.28537,13.7418,-6.57214,-1.44213,5.37115,-3.85545,0.612532,3.18552e-14,-2.5842e-14,-29.3632,-5.81539,-82.5482,26.1297,-12.0685,-18.1351,-24.1848,7.12502,8.13993,-54.008,3.18552e-14,-2.5842e-14,23.7895,-8.80752,57.9977,129.108,-12.2613,-46.8445,-35.2485,7.12502,-19.5578,-6.21216,-4.90084,3.14273,30.1405,28.275,-18.9013,-7.80948,17.4055,-5.31945,0.443803,-11.8999,29.2124,-21.1665,6.29693,-0.998139
12.7321,17.7997,16.0261,84.5338,-83.6635,-81.9036,-2.02794,-1.29481,2.22081,-3.80805,-1.77968,3.77199,-2.72659,-0.946218,2.64898,-5.88972,-5.38654,-9.22708,14.0594,-6.2927,-1.43278,5.48626,-3.72922,0.616657,8.89561e-15,-1.39149e-14,-29.5152,-5.79231,-82.6188,26.4517,-12.197,-17.9443,-24.137,7.12502,8.32412,-53.953,8.89561e-15,-1.39149e-14,23.6778,-8.54801,58.2003,129.245,-12.3477,-46.1992,-35.1869,7.12502,-18.9373,-6.08876,-5.04387,3.44895,30.1583,28.2781,-18.8386,-7.64261,17.3352,-5.32622,0.417203,-11.9165,29.2067,-21.1822,6.89326,-1.35414
12.7308,17.7989,16.0325,87.6104,-83.8003,-84.977,-2.03582,-1.36569,2.14401,-3.83016,-1.87464,3.78856,-2.73926,-0.991929,2.70979,-5.97786,-5.28543,-8.90054,14.0801,-6.164,-1.56589,5.48629,-3.65963,0.531421,-3.926e-15,4.05521e-14,-29.2356,-5.00646,-82.9995,26.1007,-13.0894,-16.9801,-24.4204,7.12502,9.25452,-54.1973,-3.926e-15,4.05521e-14,23.7359,-8.41247,58.1819,129.394,-12.0102,-45.3766,-35.3118,7.12502,-18.146,-6.13828,-5.08725,3.65035,29.9963,28.3565,-18.9273,-7.34381,17.8339,-5.20986,0.365587,-12.0905,29.1457,-21.2558,7.22929,-0.833815
12.7311,17.7955,16.04,88.8129,-84.1513,-86.4093,-1.86527,-1.48719,1.87244,-3.73469,-2.02741,3.71741,-2.72441,-1.05904,2.79148,-6.04854,-5.19713,-8.66709,13.98,-6.05001,-1.6536,5.45132,-3.59389,0.476077,-4.02042e-14,3.49861e-14,-29.0563,-5.8558,-82.8847,26.1066,-12.3957,-15.8084,-24.5981,7.12502,10.385,-54.3217,-4.02042e-14,3.49861e-14,23.9011,-8.31326,58.1103,129.432,-11.8249,-45.6733,-34.0485,7.12502,-18.4314,-4.90172,-4.85266,3.97808,29.6429,28.4337,-19.0419,-7.44443,17.9215,-4.87672,0.450304,-12.4963,29.0456,-21.2717,7.21472,-0.397227
12.7328,17.7925,16.0456,90.0144,-84.2885,-87.8303,-1.64829,-1.57374,1.80779,-3.67159,-2.13335,3.71022,-2.77545,-1.10891,2.82645,-6.08589,-5.10198,-8.46618,13.8826,-5.91598,-1.83613,5.41007,-3.52733,0.398469,4.57205e-15,3.10104e-14,-28.972,-6.11318,-82.8842,26.1925,-12.3121,-15.5607,-24.2241,7.12502,10.6239,-53.9355,4.57205e-15,3.10104e-14,23.9439,-8.22401,58.2595,129.472,-11.8493,-46.1318,-33.7287,7.12502,-18.8725,-4.62423,-4.67993,3.7248,29.4437,28.5563,-19.1084,-7.09184,17.6882,-4.56132,0.584104,-12.6511,28.9189,-21.0644,7.2721,-1.43508
12.7268,17.8031,16.0431,96.0306,-84.0976,-93.4071,-2.07818,-1.45507,2.02466,-3.8042,-1.99674,3.76406,-2.6814,-1.04995,2.74939,-6.14079,-5.01257,-8.18684,13.8988,-5.80231,-1.9689,5.407,-3.46731,0.320252,1.87852e-14,-3.57812e-15,-29.1308,-5.29008,-83.2885,26.574,-13.232,-16.2603,-24.1944,7.12502,9.94902,-53.9393,1.87852e-14,-3.57812e-15,23.9342,-8.24183,58.5158,129.613,-11.8536,-45.6653,-35.1954,7.12502,-18.4238,-6.04789,-5.24412,3.74336,29.5421,28.717,-19.069,-6.58288,17.7845,-4.84226,0.766277,-12.51,28.7708,-20.8518,7.72828,-2.14517
12.7265,17.7975,16.0478,100.779,-84.3304,-98.2798,-1.96679,-1.45526,1.79592,-3.7731,-1.9904,3.71489,-2.70574,-1.03976,2.82932,-6.20068,-4.85961,-8.1104,13.8597,-5.60314,-1.92007,5.39712,-3.36154,0.337004,1.14301e-15,-2.74323e-14,-29.2938,-4.85362,-83.534,26.9156,-13.4027,-17.3665,-24.6,7.12502,8.88169,-54.3931,1.14301e-15,-2.74323e-14,23.8776,-8.13464,58.6187,129.751,-11.9465,-44.5506,-37.2018,7.12502,-17.3512,-7.95627,-5.17795,4.04605,29.2113,28.84,-19.0903,-6.56611,17.8951,-4.56016,0.619422,-12.9486,28.6725,-20.8456,8.35075,-2.47813
12.7299,17.7903,16.0542,105.148,-84.6551,-102.954,-1.66837,-1.52047,1.38532,-3.67938,-2.06328,3.6934,-2.76025,-1.06255,3.04484,-6.1522,-4.68258,-8.10137,13.5736,-5.37234,-1.90786,5.29208,-3.23722,0.361744,1.07344e-14,-7.95139e-16,-29.5499,-5.07526,-83.4583,27.4917,-12.9031,-18.9693,-24.7432,7.12502,7.3348,-54.596,1.07344e-14,-7.95139e-16,23.832,-7.89757,58.6196,129.819,-11.9638,-43.9225,-38.278,7.12502,-16.7466,-8.98031,-4.91133,4.24047,28.7396,28.9279,-19.1561,-6.39993,17.7259,-4.14474,0.63164,-13.4676,28.6132,-20.9609,8.43948,-1.91556
12.7305,17.7938,16.0613,106.926,-84.5406,-104.691,-1.69749,-1.58567,1.52013,-3.66767,-2.15315,3.75755,-2.73068,-1.1115,3.03489,-6.22297,-4.55026,-7.91899,13.4329,-5.2025,-1.92738,5.24827,-3.14072,0.339585,-3.77691e-15,-1.07344e-14,-29.3209,-4.48915,-83.6403,27.0048,-13.4324,-17.3253,-24.3317,7.12502,8.92148,-54.1231,-3.77691e-15,-1.07344e-14,23.8877,-7.61528,58.6205,129.933,-11.7569,-43.5806,-38.4703,7.12502,-16.4174,-9.14509,-4.9826,4.48687,28.8125,29.0343,-19.241,-6.38347,17.1288,-4.15538,1.03156,-13.3375,28.5722,-21.0698,7.85502,-0.565179
12.7323,17.793,16.0669,108.985,-84.3927,-106.682,-1.75848,-1.60886,1.61484,-3.62836,-2.1897,3.90956,-2.6523,-1.13248,3.1362,-6.51704,-4.46785,-7.97023,13.5019,-5.05902,-1.87035,5.31833,-3.07142,0.367189,1.28216e-14,-1.86858e-14,-29.1534,-4.43337,-83.5043,26.7723,-13.4216,-17.7289,-24.1136,7.12502,8.53197,-53.9213,1.28216e-14,-1.86858e-14,23.9291,-7.24982,58.8346,130.117,-11.5427,-43.6069,-37.9115,7.12502,-16.4427,-8.58835,-5.06713,4.47548,28.8689,29.0752,-19.1517,-6.3416,16.4655,-4.21992,1.55335,-13.1801,28.5778,-21.136,7.46414,-0.0392539
12.7343,17.7899,16.0669,113.377,-84.3443,-111.122,-1.73876,-1.51396,1.44889,-3.53482,-2.06447,4.03741,-2.56175,-1.06475,3.3595,-6.76632,-4.44653,-8.12896,13.464,-4.97853,-1.9145,5.35053,-3.04151,0.378473,1.51573e-14,2.5842e-14,-29.0181,-4.63756,-83.2246,26.7298,-13.3804,-18.0734,-24.0583,7.12502,8.19947,-53.8792,1.51573e-14,2.5842e-14,24.0477,-7.03978,59.2649,130.263,-11.5511,-44.3693,-36.5,7.12502,-17.1766,-7.23921,-5.04013,4.51244,28.7046,29.0413,-19.0358,-6.11852,16.5045,-4.14279,1.82382,-13.2912,28.6253,-21.2297,7.51419,0.288538
12.7339,17.7947,16.0721,115.347,-84.2153,-112.914,-1.91925,-1.45645,1.614,-3.53205,-1.99792,4.07635,-2.46484,-1.03695,3.30094,-6.95918,-4.41597,-8.01551,13.4172,-4.90545,-2.09706,5.35891,-3.01066,0.305112,2.01269e-14,-1.43125e-14,-28.8727,-4.99377,-83.0738,26.4579,-13.267,-17.9342,-23.9819,7.12502,8.33387,-53.7975,2.01269e-14,-1.43125e-14,24.2574,-6.96018,59.5196,130.38,-11.7171,-44.8362,-35.7106,7.12502,-17.626,-6.48952,-5.26851,4.481,28.7028,29.0399,-19.0126,-5.86443,16.6523,-4.29357,1.71643,-13.281,28.6235,-21.2735,7.67374,0.65648
12.7356,17.7999,16.0848,115.479,-84.0824,-112.805,-2.09547,-1.47891,2.02394,-3.58952,-2.03881,4.03082,-2.4392,-1.0698,3.01955,-7.08373,-4.29887,-7.79603,13.4531,-4.75459,-2.12129,5.37952,-2.92854,0.270783,8.19987e-15,-3.06128e-14,-29.1503,-5.39668,-83.0433,26.8243,-12.9896,-17.9529,-24.3432,7.12502,8.31577,-54.1595,8.19987e-15,-3.06128e-14,24.4053,-6.90191,59.4506,130.53,-11.837,-44.3389,-36.477,7.12502,-17.1474,-7.2137,-5.61684,3.6605,28.6555,29.0803,-18.9021,-5.06167,16.3732,-4.51746,1.46236,-13.2323,28.5782,-21.2189,8.02884,0.334764
12.7383,17.8017,16.0948,117.67,-84.0689,-115.029,-2.0299,-1.47211,2.2108,-3.56537,-2.02651,3.87899,-2.46312,-1.06844,2.75908,-7.14114,-4.13281,-7.48225,13.5087,-4.56987,-2.03484,5.39374,-2.81772,0.259994,5.06901e-15,-1.59028e-15,-28.9631,-4.77991,-83.4156,26.1293,-13.794,-17.7693,-24.3615,7.12502,8.49299,-54.1707,5.06901e-15,-1.59028e-15,24.5624,-6.88213,59.2282,130.716,-11.7117,-42.9452,-38.1885,7.12502,-15.8056,-8.81373,-5.65669,3.23845,28.4031,29.0969,-18.7746,-4.43382,15.9594,-4.4524,1.36373,-13.44,28.5554,-21.2158,8.38993,0.158912
12.737,17.7985,16.0868,123.7,-83.7697,-121.205,-1.92532,-1.29992,2.04243,-3.47769,-1.79185,3.86014,-2.4338,-0.945652,2.83457,-7.27616,-4.01242,-7.16157,13.5807,-4.4265,-2.06015,5.42553,-2.7351,0.208113,-1.49089e-16,-3.97569e-16,-29.1876,-6.06398,-83.0947,26.2357,-12.6967,-16.8495,-24.4288,7.12502,9.38054,-54.2001,-1.49089e-16,-3.97569e-16,24.7258,-6.86942,59.1314,130.882,-11.6746,-42.1819,-38.8007,7.12502,-15.0704,-9.36924,-5.4805,3.90438,28.3756,29.1184,-18.8227,-4.39652,15.8228,-4.16559,1.95109,-13.483,28.5596,-21.336,8.35206,0.519227
12.7356,17.7978,16.0816,126.82,-83.3442,-124.293,-1.94509,-1.1517,2.06271,-3.4617,-1.59803,3.98178,-2.41018,-0.849518,2.94819,-7.37791,-3.91963,-6.94538,13.5934,-4.30015,-2.18732,5.43515,-2.67178,0.141117,1.48592e-14,-6.36111e-15,-29.3698,-5.4095,-83.1916,26.1764,-13.5142,-16.7817,-24.1073,7.12502,9.44601,-53.8756,1.48592e-14,-6.36111e-15,24.83,-6.87299,59.2389,130.973,-11.9297,-42.4717,-38.4275,7.12502,-15.3495,-9.01725,-5.51287,4.31023,28.5486,29.147,-18.9144,-4.22532,15.8711,-4.11316,2.44044,-13.2739,28.5777,-21.4374,8.26595,0.685032
12.7347,17.7964,16.0783,128.73,-83.1913,-126.145,-2.00672,-1.10201,1.94379,-3.44734,-1.53615,4.0916,-2.35709,-0.815672,3.12689,-7.38809,-3.78447,-6.92452,13.5034,-4.11602,-2.21165,5.40334,-2.57969,0.144633,-1.25234e-14,-1.03368e-14,-29.5406,-5.42113,-83.0231,26.1043,-13.5407,-16.8846,-23.754,7.12502,9.34671,-53.5268,-1.25234e-14,-1.03368e-14,24.9232,-6.75285,59.4566,131.049,-12.09,-42.4843,-38.2543,7.12502,-15.3617,-8.845,-5.53447,4.53884,28.5818,29.1114,-18.8223,-4.56614,14.0563,-4.16476,2.77445,-13.2414,28.6476,-21.5379,8.0843,1.03805
12.7357,17.7953,16.0804,130.125,-83.1829,-127.537,-1.97217,-1.10969,1.83528,-3.41467,-1.54503,4.13414,-2.33848,-0.816974,3.23211,-7.43832,-3.67089,-7.08525,13.3908,-3.96201,-2.0161,5.38053,-2.49458,0.242792,-3.97569e-15,-1.74931e-14,-29.6218,-5.63225,-82.8141,25.9805,-13.4906,-17.4364,-23.5886,7.12502,8.81425,-53.3845,-3.97569e-15,-1.74931e-14,25.0218,-6.50237,59.6158,131.202,-12.0289,-42.5938,-37.3635,7.12502,-15.4671,-7.96225,-5.48592,4.49976,28.4972,29.0463,-18.6865,-5.09688,12.1189,-4.17878,2.8633,-13.3624,28.7174,-21.5255,8.13161,1.27313
12.7348,17.8018,16.0854,129.099,-82.8944,-126.29,-2.10593,-1.12192,2.23204,-3.46324,-1.57397,4.24378,-2.32032,-0.843191,3.12088,-7.42384,-3.54336,-7.16273,13.268,-3.80794,-1.80225,5.34107,-2.40346,0.334837,2.10215e-14,-1.66979e-14,-29.7557,-6.34925,-82.4795,25.7082,-12.8157,-17.4666,-23.472,7.12502,8.78509,-53.2692,2.10215e-14,-1.66979e-14,25.0425,-6.29384,59.6951,131.415,-11.9997,-43.3234,-35.6472,7.12502,-16.1698,-6.30167,-5.72134,4.65458,28.8011,29.0038,-18.7219,-4.9427,13.7549,-4.41868,2.98996,-13.0314,28.7478,-21.3692,8.3426,0.310125
12.7363,17.8054,16.09,128.381,-82.8802,-125.482,-2.07576,-1.18155,2.36863,-3.52352,-1.65313,4.29481,-2.39927,-0.887152,3.09957,-7.27447,-3.35921,-7.16314,13.0983,-3.59109,-1.66773,5.2588,-2.28238,0.397106,1.97791e-14,-2.38542e-14,-29.9841,-6.43251,-82.3202,25.6232,-12.4184,-16.4558,-23.5813,7.12502,9.76038,-53.3351,1.97791e-14,-2.38542e-14,24.9847,-6.21789,59.8419,131.619,-12.1404,-43.8005,-34.511,7.12502,-16.6292,-5.20335,-5.82141,4.94515,28.8732,28.9501,-18.7385,-4.53459,16.2304,-4.56378,3.06975,-12.9406,28.7848,-21.3075,8.31152,-0.292912
12.7396,17.8029,16.0937,129.004,-82.9799,-126.142,-1.93018,-1.22467,2.35267,-3.52942,-1.70114,4.24136,-2.48649,-0.91033,3.05736,-7.33415,-3.21457,-7.18362,13.1015,-3.40836,-1.48649,5.26779,-2.18133,0.468889,2.6339e-15,2.3059e-14,-30.2386,-6.52588,-82.2589,25.5034,-12.0321,-16.0286,-23.6746,7.12502,10.1725,-53.4087,2.6339e-15,2.3059e-14,24.9983,-6.18803,59.9056,131.78,-12.2136,-43.7333,-34.0534,7.12502,-16.5644,-4.74037,-5.78291,5.01464,28.7519,28.9093,-18.6586,-4.50985,16.4935,-4.5684,3.13344,-13.0638,28.8202,-21.3731,8.03827,0.504311
12.7373,17.8028,16.0959,129.847,-82.6914,-126.906,-2.01977,-1.19286,2.60926,-3.49759,-1.66796,4.26626,-2.41117,-0.900882,2.936,-7.49761,-3.09419,-7.19187,13.2035,-3.25414,-1.2655,5.32595,-2.09383,0.546687,-3.69739e-14,2.62396e-14,-30.3187,-6.80451,-82.1523,25.1203,-11.6593,-16.7136,-23.7598,7.12502,9.5117,-53.5251,-3.69739e-14,2.62396e-14,25.1112,-6.0985,59.8765,131.878,-12.2203,-43.5591,-33.7737,7.12502,-16.3967,-4.44674,-5.85688,4.89028,28.909,28.9091,-18.5746,-4.53795,15.2246,-4.60893,3.30401,-12.8786,28.8341,-21.487,7.87568,1.33369
12.7363,17.7994,16.097,131.682,-82.5552,-128.761,-2.04253,-1.15799,2.52977,-3.45761,-1.62377,4.29347,-2.35541,-0.876374,3.00711,-7.47667,-2.95864,-7.10927,13.2079,-3.09121,-1.19871,5.3179,-2.00572,0.566412,2.05245e-14,-4.37326e-14,-30.4551,-7.72583,-81.6825,24.7436,-10.7776,-17.0799,-23.5311,7.12502,9.15823,-53.3122,2.05245e-14,-4.37326e-14,25.1627,-5.93448,59.9251,132.022,-12.0466,-43.2916,-33.6468,7.12502,-16.1391,-4.29879,-5.81704,4.70918,28.834,28.9267,-18.5164,-4.52733,13.591,-4.5373,3.29261,-12.9715,28.8334,-21.6389,8.12032,1.31096
12.7376,17.7995,16.0949,133.106,-82.4325,-130.076,-2.12342,-1.14281,2.42875,-3.47808,-1.60778,4.32945,-2.32788,-0.866329,3.09941,-7.38753,-2.82042,-6.86672,13.1459,-2.93419,-1.26578,5.27295,-1.91969,0.519744,4.52235e-15,-6.12257e-14,-30.6927,-8.35374,-81.3455,24.5543,-10.5197,-16.9081,-23.6153,7.12502,9.32402,-53.3891,4.52235e-15,-6.12257e-14,25.1149,-5.66968,59.9379,132.235,-11.5965,-42.9857,-33.6705,7.12502,-15.8446,-4.29884,-5.94389,4.83585,28.8091,28.9344,-18.4774,-4.62224,12.8085,-4.61875,3.24514,-13.042,28.8233,-21.7125,8.46947,1.294
12.7386,17.8026,16.0955,133.794,-82.3562,-130.697,-2.14822,-1.21811,2.39198,-3.50395,-1.70869,4.31045,-2.33652,-0.916261,3.10008,-7.25114,-2.62113,-6.35744,13.0864,-2.72164,-1.40308,5.21396,-1.79812,0.412671,4.13969e-14,-1.27222e-14,-30.8387,-8.26315,-81.3947,24.1964,-11.0062,-16.8547,-23.6415,7.12502,9.37557,-53.413,4.13969e-14,-1.27222e-14,24.9773,-5.38748,59.77,132.377,-11.228,-42.9017,-33.6621,7.12502,-15.7637,-4.28404,-6.07062,4.95719,28.763,28.9213,-18.4808,-4.31849,13.8419,-4.66772,3.18521,-13.0804,28.8275,-21.6777,8.7232,1.34634
12.7416,17.8002,16.1007,133.772,-82.5162,-130.768,-1.99492,-1.42008,2.25549,-3.529,-1.96601,4.22516,-2.43745,-1.04093,3.09321,-7.1775,-2.3651,-5.62777,13.206,-2.42418,-1.76491,5.21519,-1.64588,0.203045,-1.0635e-14,1.43125e-14,-30.9233,-8.12529,-81.5422,23.5737,-11.1692,-16.9357,-23.2445,7.12502,9.29743,-53.0195,-1.0635e-14,1.43125e-14,24.6903,-5.09478,59.4539,132.522,-10.9105,-42.9112,-33.3056,7.12502,-15.7729,-3.92821,-5.98576,4.86474,28.5978,28.8644,-18.4821,-4.1755,14.2705,-4.61434,3.00418,-13.246,28.8704,-21.6524,8.83349,1.18872
12.7455,17.7988,16.1022,132.038,-82.4647,-128.922,-1.99425,-1.55957,2.41767,-3.60901,-2.15294,4.26602,-2.51844,-1.1399,3.04735,-7.19223,-2.17781,-5.16281,13.4339,-2.18967,-2.04858,5.27425,-1.53572,0.0535193,-2.60905e-14,3.65764e-14,-31.0993,-8.1404,-81.5154,23.0875,-11.2368,-17.0964,-23.0499,7.12502,9.14236,-52.8318,-2.60905e-14,3.65764e-14,24.4378,-4.8915,59.2777,132.751,-10.5399,-42.7644,-32.8109,7.12502,-15.6315,-3.42245,-6.0147,4.91229,28.885,28.7682,-18.3845,-4.85847,12.5562,-4.81308,2.98081,-13.0043,28.9479,-21.6745,8.72299,0.991743
12.748,17.7991,16.1017,131.191,-82.3823,-128.018,-1.96889,-1.58794,2.523,-3.634,-2.1907,4.31386,-2.5596,-1.1621,3.03986,-7.1627,-2.04461,-4.99395,13.5691,-2.02889,-2.07168,5.30606,-1.45487,0.0292227,2.91716e-14,2.22639e-14,-31.3513,-8.47155,-81.2082,22.7645,-10.9244,-18.3428,-22.722,7.12502,7.93948,-52.5529,2.91716e-14,2.22639e-14,24.3825,-4.84194,59.3122,132.969,-10.1089,-42.2708,-32.5284,7.12502,-15.156,-3.1034,-5.99865,4.95743,29.0929,28.6827,-18.2768,-5.39948,11.0238,-4.93197,3.05043,-12.8222,29.0309,-21.7813,8.64369,1.13508
12.747,17.8016,16.1019,131.374,-82.344,-128.242,-1.91239,-1.57112,2.51905,-3.59333,-2.16603,4.32785,-2.54946,-1.14904,3.05732,-7.03645,-1.92739,-4.90364,13.528,-1.89755,-2.01819,5.26885,-1.38102,0.0419354,1.27222e-14,3.73715e-14,-31.5908,-9.30968,-80.6878,22.3834,-10.1134,-20.4102,-22.1373,7.12502,5.94379,-52.0339,1.27222e-14,3.73715e-14,24.4525,-4.78738,59.412,133.073,-9.70002,-41.7371,-32.518,7.12502,-14.6419,-3.05495,-5.94563,5.10358,29.0909,28.653,-18.3314,-5.26893,11.4901,-4.8739,3.22133,-12.7928,29.0558,-21.8819,8.5574,1.46009
12.7473,17.8036,16.1001,131.506,-82.2344,-128.291,-1.96534,-1.51262,2.5912,-3.57416,-2.09232,4.33265,-2.50479,-1.11416,3.01932,-7.00031,-1.90296,-4.82248,13.4732,-1.88538,-1.94535,5.24475,-1.36356,0.0531809,8.19987e-15,2.46493e-14,-31.7657,-10.7706,-79.9684,21.8212,-8.91608,-20.7662,-21.7631,7.12502,5.60008,-51.6691,8.19987e-15,2.46493e-14,24.578,-4.78999,59.4916,133.11,-9.53241,-41.6847,-32.4369,7.12502,-14.5914,-2.97012,-6.10297,5.22074,29.1444,28.7685,-18.4876,-4.8384,12.7844,-4.87858,3.40004,-12.6989,28.9384,-21.8384,8.62886,0.969974
12.7519,17.8014,16.0985,132.947,-82.4359,-129.887,-1.74495,-1.4516,2.29191,-3.4857,-1.99482,4.19444,-2.53446,-1.05514,3.04806,-7.19671,-1.97239,-4.65091,13.5666,-1.98823,-1.9075,5.30648,-1.40402,0.027527,5.91384e-15,-1.90833e-14,-31.8253,-12.0619,-79.3679,21.1446,-7.90278,-20.1883,-22.0536,7.12502,6.15803,-51.9441,5.91384e-15,-1.90833e-14,24.7685,-4.91183,59.5979,133.187,-9.37737,-41.6182,-31.7618,7.12502,-14.5273,-2.29049,-6.06388,5.17913,28.8205,28.988,-18.6643,-4.57018,13.6684,-4.60243,3.11318,-13.0701,28.7249,-21.7866,8.96712,1.31324
12.7639,17.7924,16.1,134.034,-83.1246,-131.56,-1.02262,-1.52521,1.63306,-3.31364,-2.05332,3.94716,-2.74598,-1.06163,3.18085,-7.43428,-2.00511,-4.45282,13.7662,-2.04189,-1.87905,5.40717,-1.42287,-0.00351667,9.93923e-17,4.77083e-15,-31.9031,-12.5233,-79.0565,20.6253,-7.71096,-20.2662,-22.4377,7.12502,6.08286,-52.3304,9.93923e-17,4.77083e-15,24.9178,-5.02556,59.7129,133.289,-9.03024,-41.2943,-31.0457,7.12502,-14.2152,-1.55212,-5.60278,5.00137,28.1782,29.2417,-18.8228,-4.76325,13.9519,-3.96485,2.66306,-13.8005,28.5221,-21.7134,9.09242,1.93297
12.777,17.7881,16.0926,134.002,-83.5758,-131.665,-0.715228,-1.64308,1.14265,-3.26771,-2.19847,3.85831,-2.8504,-1.11873,3.37549,-7.56562,-1.93315,-4.30394,13.8954,-1.95366,-1.87528,5.46666,-1.37516,-0.0227561,-3.27498e-14,8.34896e-15,-32.0232,-12.532,-78.8506,20.2629,-7.8242,-20.2511,-22.4043,7.12502,6.09742,-52.2966,-3.27498e-14,8.34896e-15,24.9551,-5.00183,59.7278,133.379,-8.74116,-41.0455,-30.9863,7.12502,-13.9754,-1.47604,-5.61022,4.746,27.8902,29.4643,-18.8781,-5.03468,13.4868,-3.86878,2.85696,-14.0522,28.3544,-21.5318,8.74219,1.50105
12.7922,17.784,16.0911,130.426,-84.0733,-128.291,-0.305455,-1.87125,0.948752,-3.22684,-2.48891,3.84273,-3.01735,-1.2559,3.48823,-7.53141,-1.8301,-4.15294,13.8706,-1.81951,-1.99406,5.44858,-1.30981,-0.0744696,-4.58199e-14,-2.38542e-15,-32.1747,-12.7962,-78.4849,19.9471,-7.47504,-19.821,-22.3651,7.12502,6.51259,-52.245,-4.58199e-14,-2.38542e-15,24.9985,-4.91134,59.7378,133.394,-8.49943,-40.8935,-31.2259,7.12502,-13.829,-1.70556,-5.47608,3.97914,27.7581,29.5148,-18.9284,-4.98599,13.5158,-3.84663,2.81471,-14.0759,28.3536,-21.3113,8.22403,1.09332
12.7924,17.7862,16.078,131.903,-83.7018,-129.469,-0.566556,-1.73493,0.97034,-3.28547,-2.31693,3.96793,-2.93593,-1.17213,3.59437,-7.46016,-1.75073,-4.04786,13.9605,-1.72136,-2.06325,5.46158,-1.26449,-0.106347,-2.78299e-15,1.82882e-14,-32.437,-13.5517,-77.887,19.6039,-6.6993,-19.4544,-22.5156,7.12502,6.86653,-52.3843,-2.78299e-15,1.82882e-14,25.0201,-4.88465,59.8004,133.4,-8.21355,-40.7033,-31.2731,7.12502,-13.6457,-1.74041,-5.74693,4.19819,27.9912,29.4031,-18.7769,-4.98668,13.3258,-4.18216,3.16811,-13.8114,28.5026,-21.2863,8.28749,0.909225
12.7779,17.79,16.0784,130.346,-82.7092,-127.297,-1.2862,-1.58287,1.94492,-3.40732,-2.1465,4.29122,-2.68999,-1.11898,3.35774,-7.39766,-1.61996,-4.26012,14.1791,-1.5484,-1.87724,5.52111,-1.18558,-0.0025912,2.55935e-14,-2.38542e-14,-32.675,-14.1597,-77.3492,19.0935,-6.18831,-19.912,-22.5972,7.12502,6.42475,-52.4798,2.55935e-14,-2.38542e-14,24.8218,-4.74191,59.8598,133.523,-8.03315,-40.3468,-30.9176,7.12502,-13.302,-1.36212,-6.24785,4.7424,28.9369,29.2364,-18.6299,-5.04804,13.1363,-4.74238,3.15463,-12.9345,28.6887,-21.4901,8.85362,1.03033
12.7676,17.7888,16.0718,129.627,-82.15,-126.431,-1.53642,-1.55888,2.35642,-3.37912,-2.13523,4.5339,-2.52712,-1.12627,3.36936,-7.39939,-1.43713,-4.50708,14.3207,-1.29222,-1.71729,5.566,-1.06769,0.104754,1.15792e-14,-3.97569e-14,-32.7683,-14.6002,-76.8872,18.4784,-5.62569,-20.0382,-22.7139,7.12502,6.30292,-52.6002,1.15792e-14,-3.97569e-14,24.5909,-4.49498,59.8547,133.628,-7.94159,-40.1322,-30.6039,7.12502,-13.0952,-1.03503,-6.23835,5.26783,29.5294,29.0715,-18.592,-5.08825,13.9137,-4.82411,3.17963,-12.3966,28.8378,-21.6068,9.21076,0.342247
12.7726,17.7841,16.076,127.585,-82.638,-124.677,-1.18104,-1.71103,2.18166,-3.21703,-2.31927,4.45825,-2.54789,-1.21056,3.39806,-7.88843,-1.38391,-4.59985,14.6909,-1.18266,-1.63587,5.76582,-1.02395,0.147559,-9.39258e-15,4.77083e-15,-32.8562,-15.2367,-76.3387,18.0641,-4.74843,-19.4892,-22.6861,7.12502,6.83295,-52.5558,-9.39258e-15,4.77083e-15,24.7396,-4.3839,59.9144,133.61,-7.84188,-40.0663,-30.6531,7.12502,-13.0317,-1.08016,-5.91433,4.78832,29.2508,28.9633,-18.6134,-5.09176,14.4073,-4.66726,2.61341,-12.7275,28.9427,-21.5288,9.43776,-0.33147
12.7751,17.7845,16.0701,127.096,-82.7735,-124.077,-1.21686,-1.74236,2.03528,-3.16877,-2.36475,4.51795,-2.46762,-1.22939,3.53955,-8.52218,-1.37882,-4.84373,15.3433,-1.11205,-1.5236,6.08278,-1.01482,0.22001,6.9028e-14,-4.29375e-14,-33.0592,-15.6153,-75.8021,17.8776,-4.25614,-19.1622,-22.6306,7.12502,7.14858,-52.4899,6.9028e-14,-4.29375e-14,24.7827,-4.31227,60.0633,133.603,-7.78768,-40.1393,-30.6611,7.12502,-13.1021,-1.09264,-6.05337,4.75144,29.2026,28.9849,-18.6526,-5.18098,14.6822,-4.80746,2.44017,-12.792,28.9236,-21.6206,9.26411,0.963252
12.7806,17.7838,16.0611,128.735,-82.6807,-125.772,-1.05404,-1.78544,1.78329,-3.1643,-2.41756,4.7059,-2.53442,-1.24939,3.88362,-8.59338,-1.23346,-5.27533,15.6909,-0.861528,-1.45094,6.20538,-0.9267,0.330837,-2.89729e-14,1.90833e-14,-33.2854,-15.901,-75.1593,17.5937,-3.73985,-18.9934,-22.8875,7.12502,7.31153,-52.7412,-2.89729e-14,1.90833e-14,24.2798,-4.09135,60.2069,133.636,-7.93119,-40.5284,-30.5457,7.12502,-13.4771,-1.00179,-6.05153,4.97605,29.1717,29.0768,-18.6959,-5.04759,14.4769,-4.6846,2.47683,-12.824,28.8528,-21.7757,9.12707,2.25199
12.7834,17.785,16.0638,127.163,-83.1202,-124.17,-1.0236,-1.66191,1.63286,-3.15643,-2.24421,4.38171,-2.55878,-1.15697,3.62974,-8.62279,-1.38665,-4.59477,15.9734,-1.1581,-1.50498,6.29814,-1.04105,0.177382,-9.49197e-15,-2.8625e-14,-33.8594,-17.7674,-74.3902,17.2843,-2.78192,-19.3082,-23.088,7.12502,7.00763,-52.952,-9.49197e-15,-2.8625e-14,24.7025,-4.8609,60.2073,133.492,-8.1199,-40.9626,-30.6265,7.12502,-13.8956,-1.11078,-6.11224,4.69705,28.916,29.1022,-18.7137,-5.21989,13.1326,-4.82801,2.46222,-13.0428,28.8452,-21.6574,8.79995,1.7617
12.7862,17.7825,16.0601,125.849,-83.1775,-122.753,-1.05412,-1.6417,1.58854,-3.18714,-2.2179,4.39045,-2.57271,-1.14275,3.6633,-8.71304,-1.35772,-4.46577,16.4002,-1.13995,-1.4729,6.44814,-1.03534,0.164803,-7.10655e-15,1.35174e-14,-34.1153,-17.9809,-74.0307,16.9459,-2.7813,-19.7633,-23.2115,7.12502,6.5683,-53.0897,-7.10655e-15,1.35174e-14,24.7405,-5.14817,60.2472,133.5,-7.95564,-41.19,-30.7912,7.12502,-14.1147,-1.29064,-6.23332,4.5538,28.991,29.0974,-18.5932,-5.41958,12.5716,-5.01775,2.79634,-12.9203,28.8988,-21.4932,8.71125,0.0800248
12.7908,17.7819,16.0586,122.981,-83.0115,-119.786,-1.03986,-1.68589,1.86329,-3.21691,-2.27829,4.55461,-2.61302,-1.18075,3.68204,-8.68917,-1.32038,-4.49372,16.641,-1.08454,-1.50819,6.52026,-1.02193,0.161287,-1.73937e-14,1.59028e-15,-34.2726,-18.0702,-73.5905,16.5249,-2.63483,-19.8334,-22.9694,7.12502,6.50061,-52.8497,-1.73937e-14,1.59028e-15,24.6632,-5.21361,60.3208,133.527,-7.67882,-41.0936,-30.6201,7.12502,-14.0218,-1.11308,-6.3433,4.36131,29.3691,29.0699,-18.4842,-5.5144,13.039,-5.18811,2.83995,-12.5055,28.9421,-21.3776,8.74635,-1.10217
12.7974,17.7787,16.0563,121.354,-82.8928,-118.252,-0.841988,-1.66185,2.0297,-3.13137,-2.23859,4.61151,-2.64226,-1.16435,3.65236,-8.85938,-1.3456,-4.47102,16.9184,-1.11763,-1.47463,6.63922,-1.04193,0.162727,-1.39149e-15,-1.90833e-14,-34.4671,-18.7672,-73.0409,16.1306,-1.97002,-20.1567,-22.7864,7.12502,6.18854,-52.676,-1.39149e-15,-1.90833e-14,24.7241,-5.20239,60.411,133.705,-7.01108,-40.368,-30.4109,7.12502,-13.3225,-0.856771,-6.24794,4.26067,29.6075,29.0375,-18.5005,-5.68277,12.5839,-5.1528,2.72317,-12.2518,28.9941,-21.4158,8.58326,-0.636462
12.7972,17.7821,16.0519,120.072,-83.1931,-116.877,-0.839406,-1.72407,1.86736,-3.12994,-2.32007,4.53719,-2.63472,-1.2003,3.66708,-9.15431,-1.34411,-4.53809,17.3698,-1.1065,-1.36258,6.83698,-1.04496,0.205933,-8.19987e-15,-3.89618e-14,-34.6418,-19.1385,-72.7015,15.8448,-1.78399,-20.4032,-22.8348,7.12502,5.95053,-52.7312,-8.19987e-15,-3.89618e-14,24.585,-5.20886,60.4411,133.823,-6.8539,-40.2047,-30.4515,7.12502,-13.1651,-0.887172,-6.31261,4.32659,29.4657,28.9955,-18.6034,-6.03224,12.1498,-5.34669,2.67265,-12.3905,29.0391,-21.4386,8.40942,-0.745705
12.7988,17.7845,16.05,120.079,-83.4738,-116.971,-0.616008,-1.73418,1.71913,-3.11106,-2.32093,4.411,-2.73996,-1.19521,3.62718,-9.22767,-1.31767,-4.50646,17.5927,-1.07633,-1.34082,6.92099,-1.03355,0.208537,9.74045e-15,-2.22639e-14,-34.9399,-19.7511,-72.1631,15.5372,-1.04931,-19.7792,-22.7387,7.12502,6.55293,-52.6174,9.74045e-15,-2.22639e-14,24.2976,-5.27874,60.3962,133.78,-7.18221,-40.691,-31.1535,7.12502,-13.6338,-1.61996,-6.23045,4.31282,29.2016,29.0147,-18.6724,-6.10343,11.5941,-5.29482,2.76517,-12.6558,29.0333,-21.3966,8.45566,-1.47904
12.7984,17.7847,16.0455,120.093,-83.3975,-116.959,-0.586835,-1.67573,1.88407,-3.09529,-2.24047,4.37537,-2.75169,-1.15918,3.49693,-9.10812,-1.27272,-4.53037,17.6787,-1.04686,-1.19512,6.92761,-1.01151,0.262393,-1.18774e-14,3.73715e-14,-35.3906,-20.7333,-71.3935,15.308,0.561157,-18.9886,-22.9803,7.12502,7.31618,-52.8338,-1.18774e-14,3.73715e-14,24.0695,-5.36066,60.3487,133.747,-7.21284,-40.826,-31.7989,7.12502,-13.764,-2.27421,-6.26867,4.32999,29.2878,29.0676,-18.7123,-6.03024,11.7662,-5.30342,3.03181,-12.5483,28.9882,-21.3606,8.44361,-1.93086
12.8005,17.7809,16.0392,120.357,-83.3226,-117.202,-0.524008,-1.59805,1.97826,-3.10687,-2.13277,4.37799,-2.80742,-1.10771,3.44781,-8.96136,-1.24723,-4.75268,17.8402,-1.02438,-1.00842,6.956,-1.00575,0.361265,-3.26504e-14,1.19271e-14,-35.8181,-21.0163,-70.9092,15.3288,1.13979,-18.948,-23.0855,7.12502,7.35537,-52.9376,-3.26504e-14,1.19271e-14,23.8195,-5.49954,60.4401,133.718,-7.21632,-40.7487,-31.8739,7.12502,-13.6894,-2.3441,-6.30535,4.49704,29.3642,29.1135,-18.7918,-5.8209,13.6047,-5.31442,3.16089,-12.4463,28.9633,-21.4231,8.43835,-1.94952
12.8063,17.7773,16.0366,119.552,-83.5348,-116.506,-0.261986,-1.62021,1.89681,-3.0858,-2.1488,4.30843,-2.93214,-1.11209,3.43062,-9.00785,-1.26209,-4.86077,18.064,-1.03995,-0.941939,7.03821,-1.02218,0.397793,-1.33683e-14,2.14687e-14,-36.073,-20.5605,-70.9646,15.4506,0.21823,-19.4335,-22.5972,7.12502,6.88672,-52.4652,-1.33683e-14,2.14687e-14,23.5013,-5.60293,60.5339,133.762,-7.06881,-40.6726,-31.8227,7.12502,-13.6161,-2.28798,-6.19571,4.55362,29.2439,29.1173,-18.8481,-5.90119,14.3406,-5.24954,3.05462,-12.5729,28.9605,-21.4153,8.22596,-1.74002
12.81,17.7765,16.0302,119.251,-83.6385,-116.257,-0.141739,-1.6666,1.7772,-3.01264,-2.20685,4.25003,-2.91922,-1.13695,3.44043,-9.18683,-1.19058,-4.85412,18.3367,-0.970257,-0.733127,7.15706,-0.977484,0.468377,1.78906e-15,-2.78299e-14,-36.2204,-20.1753,-71.2305,15.4833,-0.262688,-19.939,-21.8893,7.12502,6.39872,-51.7726,1.78906e-15,-2.78299e-14,23.1568,-5.56942,60.4759,133.926,-6.7344,-40.5614,-31.8097,7.12502,-13.5089,-2.26789,-6.13005,4.79014,29.1915,29.0804,-19.0247,-5.79815,16.6126,-5.22198,3.06248,-12.6357,28.9724,-21.4116,8.03646,-2.21757
12.8117,17.7798,16.0198,119.811,-83.4795,-116.651,-0.2866,-1.6154,1.76174,-2.95662,-2.14729,4.27069,-2.78094,-1.10733,3.46206,-9.25447,-1.04332,-4.65573,18.4721,-0.802113,-0.703138,7.20756,-0.884194,0.459586,1.32192e-14,-2.78299e-15,-36.3256,-19.6213,-71.6087,15.6564,-0.586753,-20.3202,-21.9154,7.12502,6.03073,-51.8096,1.32192e-14,-2.78299e-15,22.9376,-5.54635,60.3856,134.038,-6.72807,-40.7977,-31.7011,7.12502,-13.7367,-2.17451,-6.27421,5.21207,29.3097,28.9909,-19.2109,-5.42498,19.6518,-5.40659,3.15406,-12.4858,29.0148,-21.6509,7.842,-0.738501
12.8144,17.784,16.0114,118.007,-83.315,-114.609,-0.459762,-1.57622,1.93806,-2.91829,-2.1045,4.36136,-2.64888,-1.09132,3.44905,-9.19209,-0.969815,-4.37528,18.4007,-0.704887,-0.948387,7.16889,-0.837957,0.342845,-1.66979e-14,-3.57812e-15,-36.3855,-19.1299,-71.7777,15.911,-1.17353,-19.8295,-22.9448,7.12502,6.5044,-52.8249,-1.66979e-14,-3.57812e-15,22.8259,-5.55152,60.4651,134.115,-6.84654,-41.0898,-31.4394,7.12502,-14.0181,-1.93213,-6.45946,5.27719,29.613,28.8558,-19.1253,-5.59389,19.0195,-5.745,3.35144,-12.1182,29.0718,-21.8224,7.39046,-0.298765
12.8193,17.7835,16.0059,114.888,-83.4549,-111.438,-0.424754,-1.60644,1.94711,-2.83758,-2.14482,4.37829,-2.58309,-1.11114,3.46103,-9.06337,-0.957541,-4.35609,18.1662,-0.691558,-0.968856,7.06948,-0.824392,0.3359,2.2736e-14,-1.59028e-14,-36.4678,-19.6112,-71.3801,15.8836,-0.899731,-19.0623,-23.4234,7.12502,7.24505,-53.2794,2.2736e-14,-1.59028e-14,22.6745,-5.60915,60.6952,134.232,-6.95966,-41.1131,-31.4134,7.12502,-14.0406,-1.90762,-6.45499,5.16752,29.7253,28.7223,-19.016,-6.01371,17.8601,-5.93725,3.3993,-11.9853,29.129,-21.8412,7.00781,-1.0326
12.8218,17.7852,16.0053,111.741,-83.721,-108.248,-0.373337,-1.69649,1.98376,-2.77854,-2.26239,4.322,-2.54927,-1.17005,3.38397,-8.91877,-0.911109,-4.53259,17.9274,-0.618326,-0.898061,6.96665,-0.787629,0.395941,-3.10601e-14,-9.54166e-15,-36.6116,-20.4524,-70.8055,15.7551,-0.143837,-19.0451,-23.1533,7.12502,7.26165,-53.0087,-3.10601e-14,-9.54166e-15,22.3311,-5.59138,60.8921,134.261,-7.27922,-41.1461,-32.1002,7.12502,-14.0724,-2.59668,-6.4492,5.08491,29.6444,28.5891,-19.0253,-6.24854,18.0099,-6.09979,2.87435,-12.1249,29.1871,-21.8225,7.09486,-1.07725
12.8226,17.7869,15.985,116.022,-83.3899,-112.401,-0.465963,-1.48142,2.00014,-2.71362,-1.9832,4.38859,-2.4405,-1.03139,3.43429,-8.86629,-0.840037,-4.66137,17.9391,-0.518854,-0.817749,6.96012,-0.742239,0.451895,8.62228e-15,-5.56597e-15,-36.7665,-20.8185,-70.5047,15.7494,0.101825,-19.2503,-22.7765,7.12502,7.06354,-52.6386,8.62228e-15,-5.56597e-15,21.8524,-5.42802,61.0538,134.215,-7.71299,-41.2649,-33.0782,7.12502,-14.1869,-3.58269,-6.53331,5.673,29.8328,28.4912,-18.9788,-6.15148,18.6714,-6.13885,3.06302,-11.9693,29.2217,-21.9104,7.33018,-0.452343
12.826,17.7883,15.9767,114.366,-83.3005,-110.732,-0.409051,-1.4577,2.14283,-2.59119,-1.95188,4.42096,-2.35123,-1.01855,3.38586,-9.0556,-0.759069,-4.66683,18.1078,-0.420539,-0.66389,7.04596,-0.685636,0.510148,2.77802e-14,-2.66371e-14,-36.7592,-20.8304,-70.5586,15.7959,-0.121722,-19.6329,-22.2171,7.12502,6.69416,-52.0913,2.77802e-14,-2.66371e-14,21.4971,-5.36936,61.2206,134.165,-8.3189,-41.4005,-33.6166,7.12502,-14.3176,-4.13026,-6.51011,5.73317,30.0529,28.4236,-19.0336,-6.30741,19.4289,-6.18643,2.93225,-11.7565,29.2287,-21.9966,7.25231,-0.0913454
12.8311,17.7873,15.9721,112.549,-83.2486,-108.964,-0.250656,-1.43618,2.26146,-2.41805,-1.92008,4.46534,-2.26554,-1.00434,3.36544,-9.40799,-0.699393,-4.68837,18.2847,-0.306756,-0.672422,7.16378,-0.6365,0.519728,4.69629e-15,-3.93594e-14,-36.6242,-20.8853,-70.6114,15.8444,-0.119311,-20.0101,-22.0107,7.12502,6.33011,-51.8962,4.69629e-15,-3.93594e-14,21.1844,-5.4388,61.4604,134.154,-9.00685,-41.8155,-33.4134,7.12502,-14.7174,-3.95578,-6.45183,5.77533,30.2436,28.4054,-19.1377,-6.51836,19.8199,-6.17363,2.71148,-11.5838,29.2292,-22.0568,7.22232,-0.12842
12.8349,17.785,15.9683,111.631,-83.2363,-108.096,-0.138679,-1.42367,2.34328,-2.29897,-1.90056,4.46181,-2.2093,-0.995532,3.31601,-9.45556,-0.640771,-4.69428,18.3409,-0.216185,-0.70383,7.18874,-0.597864,0.518383,-7.91411e-15,4.13472e-14,-36.6064,-20.845,-70.6573,15.908,-0.0983025,-19.9949,-22.266,7.12502,6.34478,-52.1509,-7.91411e-15,4.13472e-14,20.6063,-5.51176,61.6756,134.213,-9.57771,-43.1301,-31.6708,7.12502,-15.9837,-2.31024,-6.41207,5.83328,30.3295,28.4335,-19.2891,-6.48271,20.1972,-6.11866,2.51064,-11.5143,29.2087,-22.0971,7.17067,-0.00787777
12.8395,17.7827,15.9631,111.348,-83.3802,-107.912,-0.00318096,-1.45016,2.19226,-2.20715,-1.93092,4.38325,-2.18714,-1.00631,3.32163,-9.26279,-0.522382,-4.51935,18.2926,-0.0985473,-0.693712,7.13521,-0.527833,0.503694,-3.23398e-14,2.42517e-14,-36.6074,-20.5233,-70.894,15.9435,-0.263862,-19.6812,-22.4861,7.12502,6.6476,-52.3618,-3.23398e-14,2.42517e-14,19.8282,-5.43649,61.7885,134.223,-9.92296,-42.4533,-33.5303,7.12502,-15.3318,-4.11871,-6.36004,5.74282,30.2093,28.5224,-19.3523,-6.36541,20.3376,-5.97936,2.43126,-11.6213,29.1524,-22.1208,7.03805,0.326145
12.8474,17.7818,15.9569,111.84,-83.5469,-108.458,0.183968,-1.44123,1.92787,-2.15059,-1.91209,4.33092,-2.22794,-0.990355,3.42003,-9.04458,-0.37364,-4.23012,18.2175,0.0647394,-0.811073,7.06798,-0.438754,0.432539,2.41896e-14,-1.39149e-14,-36.543,-19.9809,-71.2423,16.0186,-0.698899,-19.5633,-22.5207,7.12502,6.7614,-52.3927,2.41896e-14,-1.39149e-14,19.0138,-5.2525,62.0063,134.185,-9.91005,-42.197,-34.3998,7.12502,-15.0849,-4.96942,-6.3845,5.45597,30.0027,28.6131,-19.3019,-6.19627,20.0834,-5.88054,2.32794,-11.7796,29.1037,-22.1905,6.8587,0.857183
12.8522,17.7834,15.9455,115.516,-83.5023,-112.044,0.195332,-1.22781,1.70658,-2.11021,-1.62955,4.32339,-2.19938,-0.844315,3.53046,-8.826,-0.235282,-4.06071,18.1374,0.231016,-0.908879,7.00021,-0.354308,0.387507,-1.18028e-15,-2.42517e-14,-36.5232,-19.4273,-71.6024,16.2174,-1.59228,-20.1786,-22.0292,7.12502,6.16739,-51.9194,-1.18028e-15,-2.42517e-14,18.166,-5.23822,62.4569,134.16,-10.0221,-42.2859,-34.6663,7.12502,-15.1706,-5.24241,-6.5424,5.49267,29.8663,28.6743,-19.2266,-6.06313,18.8986,-5.89044,2.49028,-11.8884,29.0958,-22.3115,6.84847,1.20272
12.8554,17.785,15.9442,113.847,-83.6118,-110.378,0.276594,-1.14227,1.83308,-2.01327,-1.51232,4.27989,-2.15516,-0.787668,3.41178,-8.80343,-0.137658,-4.05628,18.1791,0.374318,-0.969484,7.00771,-0.291625,0.379446,2.32578e-14,-2.54444e-14,-36.5579,-19.3613,-71.7105,16.4723,-2.24747,-20.5735,-21.6184,7.12502,5.78609,-51.5194,2.32578e-14,-2.54444e-14,17.3263,-5.42325,63.134,134.137,-10.3532,-42.9971,-34.5683,7.12502,-15.8556,-5.19751,-6.56059,5.40897,29.8695,28.6979,-19.2408,-6.42031,17.7709,-5.97012,2.37504,-11.9098,29.1455,-22.3373,6.74786,1.37456
12.8601,17.7843,15.9389,111.014,-83.6013,-107.551,0.43929,-1.08959,2.0099,-1.92879,-1.4356,4.32741,-2.16638,-0.752551,3.3626,-8.84141,-0.0437392,-4.03068,18.2623,0.534066,-1.14881,7.04007,-0.231584,0.33081,1.16848e-14,0,-36.6251,-19.5949,-71.5248,16.6738,-2.25273,-20.0235,-21.9192,7.12502,6.31708,-51.805,1.16848e-14,0,16.3566,-5.69025,63.872,134.118,-10.5206,-45.1054,-33.912,7.12502,-17.8851,-4.7144,-6.5836,4.79301,29.9897,28.6765,-19.1756,-6.18428,17.9696,-6.09329,2.25323,-11.7251,29.2415,-22.3753,6.50488,1.96572
12.8646,17.7812,15.9324,109.202,-83.4815,-105.763,0.674173,-1.0771,2.23058,-1.88918,-1.40644,4.37641,-2.2633,-0.742215,3.29412,-8.79319,0.133836,-3.8219,18.351,0.788697,-1.41717,7.05853,-0.122414,0.23103,1.57739e-14,-1.31198e-14,-36.6624,-19.8233,-71.3751,16.7338,-1.90269,-19.4714,-22.3632,7.12502,6.85015,-52.2324,1.57739e-14,-1.31198e-14,15.1138,-5.87702,64.4453,134.094,-10.525,-45.0265,-34.2558,7.12502,-17.8091,-5.05125,-6.63585,3.42388,30.0463,28.6663,-19.1133,-4.95969,18.3805,-6.16901,2.22204,-11.4736,29.3567,-22.4108,6.28747,2.4177
12.8697,17.7821,15.9279,107.539,-83.4414,-103.998,0.752749,-1.14523,2.46527,-1.90195,-1.48929,4.3576,-2.3239,-0.788316,3.14737,-8.65968,0.380339,-3.57671,18.4761,1.11161,-1.60759,7.07346,0.0271822,0.155899,2.96896e-14,3.97569e-15,-36.588,-19.8113,-71.4992,16.7547,-1.81943,-19.3609,-22.6858,7.12502,6.95676,-52.5515,2.96896e-14,3.97569e-15,13.6358,-5.81878,64.9151,134.026,-10.2489,-45.4349,-34.4023,7.12502,-18.2021,-5.23397,-6.72814,3.81881,30.2366,28.6494,-19.1583,-5.4192,18.6908,-6.38512,2.17699,-11.3275,29.452,-22.3876,6.18671,2.08187
12.8742,17.7859,15.9175,108.071,-83.4888,-104.286,0.612732,-1.1422,2.37892,-1.92723,-1.49369,4.39347,-2.26783,-0.789182,3.22995,-8.46731,0.594973,-3.55324,18.551,1.39274,-1.63528,7.06108,0.157463,0.166175,1.87952e-14,-2.66371e-14,-36.507,-19.6868,-71.5501,16.8536,-1.78665,-19.3228,-22.9889,7.12502,6.9936,-52.8534,1.87952e-14,-2.66371e-14,12.1466,-5.68382,65.479,133.876,-9.61804,-44.9793,-34.4071,7.12502,-17.7638,-5.19844,-7.07659,3.23366,30.1082,28.6797,-19.0949,-4.69438,19.221,-6.72173,2.32101,-11.3542,29.5452,-22.358,6.20008,1.38974
12.8802,17.791,15.8981,111.127,-83.4673,-107.142,0.567744,-1.02701,2.02655,-1.94686,-1.34833,4.5455,-2.25682,-0.710276,3.58192,-8.25148,0.831944,-3.54602,18.6261,1.72976,-1.80055,7.04602,0.300719,0.138744,3.66665e-15,-2.14687e-14,-36.4282,-19.6825,-71.3558,16.8989,-1.41701,-19.3821,-22.9623,7.12502,6.9363,-52.8287,3.66665e-15,-2.14687e-14,10.5383,-5.61736,66.185,133.732,-9.12855,-45.0856,-34.3179,7.12502,-17.866,-5.11857,-7.17427,5.85411,30.368,28.6832,-19.2661,-6.79639,19.5507,-6.96449,2.80843,-11.3864,29.6535,-22.3056,6.28914,1.10064
12.8879,17.7874,15.8923,108.957,-83.5044,-105.08,0.90579,-1.08414,1.99645,-1.90361,-1.41121,4.6785,-2.39601,-0.741003,3.74708,-8.02535,1.10924,-3.34716,18.6733,2.13882,-2.22217,7.02533,0.470164,0.00210159,-3.9788e-15,2.38542e-15,-36.1908,-19.358,-71.4558,16.8331,-1.73649,-20.019,-22.3913,7.12502,6.32144,-52.2769,-3.9788e-15,2.38542e-15,8.74498,-5.59388,66.9495,133.577,-9.00897,-45.6058,-33.809,7.12502,-18.3665,-4.65602,-7.15852,4.29346,30.2633,28.6587,-19.0842,-5.59244,19.2895,-7.0086,2.76805,-11.3088,29.8205,-22.1881,6.36703,0.821289
12.8943,17.7827,15.8859,107.719,-83.3924,-103.811,1.06996,-1.06289,2.18084,-1.86991,-1.37385,4.7595,-2.45818,-0.72641,3.73035,-7.81435,1.33861,-3.30449,18.6894,2.4621,-2.38969,6.99453,0.612176,-0.0339869,-1.80894e-14,6.36111e-14,-35.9521,-18.9144,-71.753,16.8841,-2.51733,-20.7892,-22.1876,7.12502,5.57786,-52.0942,-1.80894e-14,6.36111e-14,6.99238,-5.60405,67.7169,133.303,-8.69721,-45.9082,-33.8817,7.12502,-18.6574,-4.75647,-7.18976,3.88769,30.3908,28.5549,-18.9575,-5.29803,19.7742,-7.19606,2.67096,-11.1168,30.0487,-22.1436,6.41089,0.708601
12.8989,17.7866,15.8761,107.812,-83.2008,-103.799,1.14416,-1.03312,2.4414,-1.83248,-1.3281,4.8034,-2.46859,-0.709397,3.62923,-7.77986,1.59726,-3.42102,18.8736,2.79249,-2.16864,7.04141,0.774818,0.0836684,-1.94933e-14,8.98507e-14,-35.8063,-18.6607,-71.9857,17.1854,-2.69605,-20.5932,-22.8158,7.12502,5.76715,-52.7173,-1.94933e-14,8.98507e-14,5.1822,-5.5748,68.4146,132.999,-8.00833,-45.9103,-33.8268,7.12502,-18.6594,-4.70176,-7.25435,4.20082,30.6241,28.432,-18.9235,-5.48567,19.6101,-7.4647,2.55129,-10.899,30.3592,-22.1856,6.53329,0.805503
12.9002,17.7955,15.864,110.186,-83.088,-106.147,1.19023,-0.966288,2.51019,-1.70211,-1.24082,4.78912,-2.36557,-0.666979,3.5711,-7.82981,1.93003,-3.28334,19.0494,3.23073,-2.15266,7.10605,0.989248,0.103092,2.31087e-14,-4.05521e-14,-35.6423,-18.6931,-72.1647,17.5272,-2.33528,-19.8788,-23.1349,7.12502,6.45678,-53.0164,2.31087e-14,-4.05521e-14,3.32434,-5.49288,69.0153,132.632,-7.17561,-45.9535,-33.4659,7.12502,-18.7009,-4.34486,-7.18622,4.65168,30.6796,28.2606,-18.847,-5.60215,19.2882,-7.63055,2.64139,-10.8717,30.735,-22.1654,6.71542,0.719324
12.9027,17.7948,15.8525,112.933,-83.0514,-108.86,1.2094,-0.87037,2.41635,-1.54109,-1.12027,4.77239,-2.21387,-0.604542,3.59975,-7.70556,2.26234,-2.99797,18.8827,3.68639,-2.41938,7.03799,1.21122,0.00535759,7.81472e-15,-3.10104e-14,-35.4216,-18.9759,-72.2322,17.7468,-1.79212,-19.3151,-22.6923,7.12502,7.00094,-52.5565,7.81472e-15,-3.10104e-14,1.53243,-5.35711,69.6183,132.102,-6.45278,-46.0303,-33.1686,7.12502,-18.7748,-4.05462,-7.12223,5.02236,30.6288,28.0639,-18.7687,-5.60805,19.6547,-7.85984,3.03783,-10.9153,31.1819,-22.1206,6.49954,1.26867
12.9079,17.7915,15.8459,112.733,-82.9336,-108.503,1.17515,-0.871129,2.51011,-1.41907,-1.12949,4.86164,-2.06848,-0.611673,3.63709,-7.82101,2.56216,-3.03386,18.9194,4.10387,-2.36792,7.06764,1.41217,0.0640284,-8.22472e-15,0,-35.0068,-18.5482,-72.6621,17.9851,-2.31964,-19.0298,-22.5934,7.12502,7.27639,-52.4483,-8.22472e-15,0,-0.22361,-5.13564,70.3593,131.434,-5.76079,-45.8317,-32.6525,7.12502,-18.5839,-3.52018,-7.21236,5.16877,30.7929,27.8738,-18.7112,-5.72929,19.5934,-8.373,3.28266,-10.723,31.7038,-22.1103,6.16288,0.917781
12.9165,17.797,15.8443,110.329,-82.7906,-105.919,1.17812,-0.883598,2.83487,-1.34712,-1.14697,4.9591,-1.99971,-0.627024,3.55521,-8.1651,2.7561,-3.25648,19.3623,4.38154,-2.10166,7.26093,1.53476,0.217673,-9.7653e-15,1.98785e-14,-34.4821,-17.1017,-73.5964,18.2244,-4.26388,-19.7043,-22.8482,7.12502,6.62533,-52.7245,-9.7653e-15,1.98785e-14,-2.06212,-5.07501,71.3751,130.605,-4.72847,-45.2957,-32.3369,7.12502,-18.0682,-3.15617,-7.35836,5.0271,31.0467,27.6986,-18.6781,-5.66555,20.2248,-9.02954,3.12202,-10.4411,32.2938,-22.0234,6.09337,-0.272148
12.9303,17.7998,15.8446,107.514,-82.8968,-103.149,1.4977,-0.885492,3.00474,-1.24929,-1.13098,4.95461,-2.08282,-0.621514,3.45999,-8.35076,2.89261,-3.12087,19.6454,4.60071,-2.29902,7.39405,1.61911,0.154914,9.64106e-15,-3.57812e-14,-33.8656,-15.5146,-74.526,18.2193,-6.21469,-20.6101,-23.0512,7.12502,5.75077,-52.9532,9.64106e-15,-3.57812e-14,-4.07091,-5.08943,72.5684,129.673,-3.82164,-44.6038,-32.0826,7.12502,-17.4024,-2.84162,-7.27325,4.51956,31.0387,27.5181,-18.661,-5.26383,21.6009,-9.49661,2.86025,-10.4127,32.9412,-21.8045,6.00234,-0.672023
12.9418,17.7958,15.844,105.413,-83.0679,-101.263,1.99799,-0.974522,2.98817,-1.08992,-1.22726,4.99565,-2.19535,-0.669309,3.52429,-8.42635,3.15421,-2.81546,19.749,5.01024,-2.77842,7.46203,1.78703,-0.0135357,7.05686e-15,-2.22639e-14,-33.1452,-14.6983,-74.9732,18.0035,-7.02938,-20.77,-23.3736,7.12502,5.59641,-53.2797,7.05686e-15,-2.22639e-14,-6.23812,-4.74646,73.6965,128.659,-3.36874,-44.0205,-31.203,7.12502,-16.841,-1.91327,-6.98155,3.91505,30.9309,27.3139,-18.6535,-4.88125,22.4283,-9.78061,2.71832,-10.4848,33.6517,-21.3923,5.91831,-1.235
12.949,17.796,15.8402,103.854,-83.0906,-99.8591,2.37823,-1.05732,3.10956,-0.921644,-1.32039,5.02278,-2.23432,-0.718016,3.49442,-8.46909,3.4753,-2.5949,19.8256,5.45721,-2.95925,7.50674,1.99626,-0.0679084,-7.8023e-15,1.43125e-14,-32.7844,-15.2381,-74.9172,18.1344,-6.44207,-20.3731,-23.4401,7.12502,5.97966,-53.3358,-7.8023e-15,1.43125e-14,-8.25677,-4.45715,74.5992,127.35,-2.90248,-44.0096,-30.084,7.12502,-16.8304,-0.793363,-6.72027,3.642,30.9679,27.0659,-18.6033,-4.90385,22.3568,-10.1512,2.59172,-10.4403,34.46,-20.97,5.928,-1.60759
12.9547,17.8009,15.8354,102.369,-82.9787,-98.4675,2.5947,-1.09424,3.48596,-0.700792,-1.35726,4.96439,-2.13691,-0.741504,3.22491,-8.64086,3.77178,-2.32734,19.9518,5.85141,-3.02542,7.58985,2.1926,-0.0936112,8.29926e-15,-7.95139e-15,-32.6396,-16.1871,-74.9052,18.6157,-5.54057,-20.1567,-23.1531,7.12502,6.18853,-53.0427,8.29926e-15,-7.95139e-15,-9.97409,-4.24202,75.2816,125.8,-2.16495,-44.0684,-29.0499,7.12502,-16.8871,0.235911,-6.4756,3.69662,31.1781,26.7537,-18.4192,-5.33175,21.5854,-10.659,2.62186,-10.2402,35.3935,-20.8604,5.78986,-2.12116
12.9595,17.8043,15.8298,101.237,-82.6778,-97.3114,2.6295,-1.16953,3.94507,-0.466467,-1.46053,5.04429,-1.92087,-0.799663,3.05139,-8.80544,4.09206,-2.20375,20.0084,6.32367,-3.22368,7.65186,2.40419,-0.131416,2.6339e-15,1.35174e-14,-32.1134,-15.8214,-75.395,18.8613,-5.69923,-20.5681,-22.9565,7.12502,5.79139,-52.8573,2.6339e-15,1.35174e-14,-11.75,-3.54128,76.0701,124.208,-1.26149,-43.1988,-27.8996,7.12502,-16.0498,1.45565,-6.32477,3.87393,31.5898,26.3789,-18.2118,-5.62523,21.3226,-11.4757,2.76928,-9.79875,36.7061,-20.8366,5.44582,-2.69
12.9649,17.8096,15.8194,100.447,-82.5151,-96.471,2.72058,-1.15459,4.15953,-0.278102,-1.44319,5.12228,-1.78126,-0.793714,3.01038,-8.77593,4.30884,-2.21733,19.8398,6.64894,-3.36692,7.59861,2.55239,-0.148062,-2.13694e-14,5.56597e-15,-31.518,-15.0326,-75.9005,19.0603,-6.58474,-20.418,-23.0282,7.12502,5.93628,-52.9251,-2.13694e-14,5.56597e-15,-13.5498,-3.02888,77.1256,122.381,-0.627046,-42.2022,-27.0362,7.12502,-15.09,2.39376,-6.77622,4.01982,31.8387,27.1946,-18.7008,-5.80565,20.8389,-12.0173,2.92552,-9.47331,37.2904,-19.8932,4.83301,-2.07853
13.0498,17.8093,15.805,80.6704,-81.5588,-75.6941,3.01636,-1.88757,5.25049,-0.714426,-2.33639,5.386,-2.41245,-1.26536,2.74306,-8.70178,4.38228,-2.19936,19.5781,6.73077,-3.31133,7.49802,2.61257,-0.129257,5.46658e-16,-2.06736e-14,-31.0318,-14.7112,-76.29,19.3552,-7.3296,-20.2386,-23.4209,7.12502,6.10942,-53.3128,5.46658e-16,-2.06736e-14,-15.0789,-2.99459,78.1689,120.143,-0.255131,-41.5717,-26.6679,7.12502,-14.4825,2.80668,-8.07521,3.86645,33.2205,26.7879,-18.4851,-8.31557,20.2875,-15.1591,1.94965,-8.0841,38.7169,-18.08,3.12247,-2.1783
13.0774,17.7252,15.6634,-8.3047,-86.3105,6.10503,11.0033,-1.90136,-5.70481,1.28446,-3.11605,3.34791,-4.32752,-1.45599,7.21707,-8.76702,4.5465,-2.02234,19.5274,6.95332,-3.41094,7.50458,2.7254,-0.168778,-2.80783e-14,1.59028e-14,-30.5401,-13.5319,-77.0925,19.8161,-8.48579,-20.9368,-24.0074,7.12502,5.43539,-53.9177,-2.80783e-14,1.59028e-14,-16.5129,-2.55444,79.0437,117.564,0.214435,-40.8453,-26.5486,7.12502,-13.7825,2.97489,-0.226807,3.07136,24.843,26.7616,-19.307,-10.2251,19.6009,-8.24952,0.405092,-17.2471,39.5378,-17.5152,2.79034,-3.47683
12.9746,17.8374,15.8053,-74.9466,-97.7339,79.3128,2.82005,-0.663045,4.59708,0.221395,-0.805795,5.11417,-1.34099,-0.475549,2.72435,-8.72443,4.81787,-1.64183,19.5084,7.35269,-3.87546,7.52769,2.90082,-0.345778,2.13694e-14,-8.11041e-14,-30.34,-12.5306,-77.6304,20.5555,-9.42348,-20.8787,-24.206,7.12502,5.49143,-54.1148,2.13694e-14,-8.11041e-14,-18.0178,-1.76421,79.8948,114.813,0.557533,-40.4096,-26.3944,7.12502,-13.3626,3.15706,-6.65704,4.4568,31.9641,26.03,-17.9827,-6.09303,17.8355,-14.8831,4.3762,-9.1323,41.2858,-17.9219,4.39994,-4.1526
12.9852,17.8446,15.796,-76.4021,-97.855,80.8911,2.96186,-0.636231,4.7965,0.339179,-0.764497,5.17405,-1.30113,-0.457096,2.67452,-8.5073,5.01982,-1.34494,19.204,7.64472,-4.29464,7.42235,3.03884,-0.511034,2.28602e-15,2.14687e-14,-30.1783,-12.6314,-77.6974,21.1145,-9.51464,-20.2836,-23.9702,7.12502,6.066,-53.8634,2.28602e-15,2.14687e-14,-19.3941,-1.09612,80.7442,111.953,0.902679,-39.4524,-26.3182,7.12502,-12.4398,3.29159,-6.64485,4.20292,32.1786,25.6318,-17.9216,-5.88035,19.1203,-16.0195,4.78485,-8.77416,42.5831,-16.6214,3.36426,-1.56967
12.978,17.851,15.798,-73.1655,-97.8183,77.4327,3.15224,-0.411216,4.86515,0.675995,-0.470712,5.05709,-1.06514,-0.305887,2.50143,-8.37156,5.1673,-1.2013,18.8869,7.83241,-4.40585,7.30794,3.14597,-0.559368,-3.8763e-15,-3.81667e-14,-29.7943,-12.5428,-77.9803,21.4555,-10.0077,-20.4099,-23.8297,7.12502,5.94409,-53.7263,-3.8763e-15,-3.81667e-14,-20.6162,-0.470662,81.4331,109.007,1.66704,-37.709,-26.3335,7.12502,-10.7586,3.37095,-5.51212,3.37304,31.9061,23.8515,-17.0786,-4.86599,18.7896,-16.8054,5.42825,-8.87405,44.5773,-15.9485,3.02642,-3.35852
12.9954,17.855,15.7939,-78.0079,-97.9766,82.5174,3.18231,-0.52181,5.29628,0.784438,-0.617757,5.1751,-0.971146,-0.382537,2.38912,-8.39591,5.2597,-1.2949,18.7998,7.9658,-4.36236,7.28091,3.21176,-0.518314,4.96962e-16,1.27222e-14,-29.4324,-12.2549,-78.1702,21.9638,-10.6923,-20.4852,-23.978,7.12502,5.87136,-53.8766,4.96962e-16,1.27222e-14,-21.7012,0.205448,82.213,105.935,2.51336,-36.4255,-25.907,7.12502,-9.52034,3.85795,-5.6251,2.74037,32.2756,23.354,-16.7534,-5.03727,17.4981,-18.398,5.3272,-8.44697,46.1799,-14.721,2.62442,-3.84135
13.0025,17.8673,15.7925,-79.8176,-97.9677,84.3578,3.31816,-0.43204,5.46511,0.985224,-0.499614,5.19425,-0.841077,-0.322431,2.31009,-8.60724,5.252,-1.24179,18.9263,7.99201,-4.51409,7.36958,3.20646,-0.56577,-4.87022e-15,5.40694e-14,-29.1888,-12.1568,-78.2141,22.6148,-11.2726,-20.2151,-23.5861,7.12502,6.13215,-53.4773,-4.87022e-15,5.40694e-14,-22.5647,0.774113,83.0895,102.597,2.87246,-35.6824,-25.4055,7.12502,-8.80333,4.39088,-5.44794,2.73356,32.3243,22.8441,-16.3784,-5.26357,17.5397,-19.5752,5.20236,-8.37293,47.7049,-13.6711,2.54148,-3.6915
13.0007,17.8775,15.7882,-79.4521,-98.374,84.3434,3.06589,-0.198391,6.10035,1.10027,-0.206542,5.1344,-0.581528,-0.172373,1.88049,-8.69052,5.29859,-0.725896,19.0216,8.02396,-4.71405,7.44511,3.23677,-0.706881,1.59028e-15,-7.95139e-16,-29.0755,-12.0078,-78.5886,23.2885,-12.1971,-20.4121,-22.6115,7.12502,5.94199,-52.5081,1.59028e-15,-7.95139e-16,-23.3236,1.18428,83.5892,99.0509,2.73428,-35.072,-25.179,7.12502,-8.21423,4.64136,-5.57324,2.65961,32.731,22.293,-15.9064,-5.15372,17.2058,-21.0192,5.6297,-7.86996,49.262,-12.6473,2.13494,-3.71375
13,17.8829,15.781,-77.5228,-98.6118,82.6306,3.01607,0.00598293,6.44441,1.18288,0.0617675,5.06561,-0.463515,-0.035386,1.60851,-8.40142,5.43429,-0.456731,18.8452,8.16287,-4.77559,7.35211,3.32943,-0.767093,1.68967e-15,2.8625e-14,-29.0569,-11.7838,-78.9525,23.8967,-12.7824,-20.7223,-22.4249,7.12502,5.64243,-52.3298,1.68967e-15,2.8625e-14,-24.1125,1.74551,83.8674,95.3594,2.48929,-34.2807,-25.3416,7.12502,-7.4505,4.50724,-5.54343,3.44235,33.0214,21.8746,-15.5096,-5.84853,15.4959,-22.1844,6.3471,-7.54816,50.6845,-11.6864,1.42347,-1.86132
12.996,17.8793,15.7935,-79.803,-98.8889,84.5474,3.40543,-0.0122085,7.04324,1.45212,0.0594417,5.1737,-0.400017,-0.0374769,1.39001,-7.95059,5.50567,-0.584441,18.3245,8.26908,-4.92373,7.10685,3.38697,-0.802275,1.49089e-15,-2.06736e-14,-28.8621,-11.274,-79.0399,24.3111,-13.3051,-20.4972,-22.702,7.12502,5.85983,-52.601,1.49089e-15,-2.06736e-14,-24.7609,2.44753,84.3602,91.4421,2.07995,-33.6342,-25.8951,7.12502,-6.82643,3.97489,-4.77629,5.59178,33.6287,21.4863,-15.3528,-8.37357,15.3751,-22.7743,6.39499,-7.15049,52.0627,-10.9118,0.901405,0.472659
12.9839,17.8884,15.7843,-75.2796,-99.0057,80.354,3.01881,0.378045,6.76671,1.63623,0.505051,5.35799,0.0153521,0.190432,1.72025,-7.73019,5.5313,-0.606062,17.9742,8.34805,-5.28076,6.97242,3.4104,-0.915304,1.12313e-14,7.07673e-14,-28.5024,-10.3479,-79.054,24.678,-14.3857,-20.4044,-22.2375,7.12502,5.94936,-52.134,1.12313e-14,7.07673e-14,-25.2742,3.32668,85.1071,87.8294,1.41761,-33.5108,-26.3663,7.12502,-6.70737,3.50743,-5.02574,3.75225,33.3386,21.1198,-15.313,-5.72734,16.7698,-23.8562,7.44487,-7.14589,53.3748,-10.2716,0.60485,1.76916
12.9802,17.8903,15.7946,-77.2107,-98.8974,82.014,3.53521,0.370545,6.65889,1.78882,0.524396,5.53713,-0.118267,0.192752,1.96373,-7.72202,5.5804,-0.540144,18.1113,8.47602,-5.65493,7.03951,3.43617,-1.03332,1.0138e-14,4.92986e-14,-28.3686,-8.9267,-79.1638,25.2331,-15.8099,-21.0684,-21.7054,7.12502,5.30835,-51.6189,1.0138e-14,4.92986e-14,-26.0616,4.18215,85.7981,84.3511,1.00308,-33.3501,-27.2677,7.12502,-6.55223,2.61094,-4.58397,2.87335,33.1924,20.7458,-15.2241,-4.91254,17.6914,-24.5889,7.46514,-7.21204,54.6458,-9.75749,0.446991,1.78254
12.9757,17.8889,15.7981,-79.6853,-99.4276,84.7761,2.94655,0.334518,7.90586,2.14752,0.402902,5.28732,0.599605,0.162611,1.02406,-7.85464,5.62566,-0.329832,17.8576,8.45407,-5.3427,6.97355,3.48049,-0.966927,7.95139e-16,-3.18055e-14,-27.7479,-8.64231,-80.0109,25.5837,-16.2743,-21.4258,-21.0806,7.12502,4.96326,-51.0024,7.95139e-16,-3.18055e-14,-26.0461,4.31846,85.4178,80.6315,0.902704,-33.1738,-27.964,7.12502,-6.38196,1.91986,-4.78107,2.25979,33.8105,20.4363,-14.9838,-4.45579,17.8987,-26.0015,7.69215,-6.59702,55.8655,-9.30781,0.156211,2.1377
12.9689,17.883,15.8105,-83.3069,-99.761,88.5218,2.8833,0.272655,8.62567,2.22142,0.310647,5.32318,0.717559,0.12448,0.668599,-7.79746,5.60508,-0.569051,17.8598,8.39571,-4.98631,6.93601,3.4696,-0.821885,-1.98785e-15,-3.97569e-14,-27.6099,-8.99453,-79.8431,25.7983,-16.2987,-20.5323,-20.2277,7.12502,5.8259,-50.1276,-1.98785e-15,-3.97569e-14,-26.4036,4.38033,85.563,76.9013,0.64861,-33.6942,-28.4617,7.12502,-6.88436,1.40636,-4.74246,1.35978,34.2007,20.0194,-14.8334,-4.15657,17.7778,-27.1553,7.56812,-6.23711,56.8886,-9.13534,-0.14751,3.08882
12.9545,17.8917,15.8082,-80.976,-99.8848,86.3606,2.76144,0.517243,8.69443,2.3342,0.602804,5.39892,0.919683,0.275183,0.705681,-7.85594,5.66395,-0.707395,18.0838,8.49484,-4.92028,7.01262,3.50293,-0.766253,-1.25234e-14,-4.37326e-14,-27.5655,-8.9361,-79.7261,26.3496,-16.2785,-20.215,-20.6571,7.12502,6.13226,-50.5483,-1.25234e-14,-4.37326e-14,-26.7142,4.71184,85.819,73.2264,0.50288,-34.0614,-29.4003,7.12502,-7.23879,0.455849,-4.66932,2.05936,34.3031,19.6801,-14.6597,-4.5641,16.7104,-27.9595,8.13359,-6.19481,57.6592,-9.42931,-0.430111,3.30376
12.9407,17.8986,15.8197,-81.9423,-99.7225,86.9242,3.37383,0.541448,8.48355,2.46064,0.686802,5.56233,0.706477,0.304448,0.985075,-7.70725,5.70775,-0.899646,18.2619,8.60147,-5.04501,7.04499,3.52276,-0.769112,1.64991e-14,6.75868e-14,-27.7693,-7.88556,-79.7318,27.3076,-16.0486,-20.717,-22.1122,7.12502,5.64755,-52.0169,1.64991e-14,6.75868e-14,-27.127,5.35714,86.256,69.5973,0.165138,-33.8123,-30.2832,7.12502,-6.99839,-0.418904,-4.03731,2.76693,34.1943,19.4964,-14.6962,-5.46439,16.1757,-28.1892,8.03339,-6.4184,58.1987,-9.95251,-0.628146,2.70124
12.9276,17.904,15.822,-81.5126,-99.5347,86.7029,3.31111,0.593472,8.40686,2.50603,0.749054,5.42959,0.791384,0.341863,0.88877,-7.56173,5.79785,-1.03583,18.1029,8.69494,-4.83956,6.95419,3.58659,-0.680148,-2.18663e-15,-3.73715e-14,-27.5887,-7.34091,-80.0255,27.6592,-15.6943,-20.6659,-22.6809,7.12502,5.69694,-52.5843,-2.18663e-15,-3.73715e-14,-27.4953,6.15038,86.1694,66.3463,-0.465816,-33.4884,-30.0461,7.12502,-6.68573,-0.171654,-4.12569,3.09009,34.0019,19.3607,-14.723,-5.58651,16.9892,-29.0682,8.42398,-6.75683,58.5878,-10.3217,-0.934368,2.11805
12.9181,17.9013,15.8226,-82.5535,-99.6709,88.0669,3.04541,0.579804,8.70886,2.63499,0.688137,5.38066,1.07907,0.32563,0.677721,-7.62787,5.93402,-1.22007,17.8681,8.86841,-4.6362,6.87589,3.68647,-0.571887,4.17448e-15,8.74653e-15,-26.9896,-6.97621,-80.2452,27.4719,-15.5448,-21.1961,-22.4767,7.12502,5.18497,-52.3933,4.17448e-15,8.74653e-15,-27.7035,7.14528,86.1062,63.3871,-0.868478,-33.3265,-29.6339,7.12502,-6.52945,0.245452,-4.41212,2.79963,34.1516,19.2539,-14.6353,-5.33733,17.4051,-30.1803,8.82396,-6.70254,58.8904,-10.445,-1.48895,2.76114
12.9013,17.8991,15.8226,-82.0977,-99.9462,87.7325,3.11795,0.689234,9.00882,2.64594,0.843398,5.38912,1.06495,0.404863,0.518793,-7.35278,6.05776,-0.922621,17.7395,9.01959,-4.87196,6.81371,3.76857,-0.691705,-6.55989e-15,-3.02153e-14,-26.753,-6.36903,-80.4518,27.3315,-15.4521,-21.6098,-22.2566,7.12502,4.78553,-52.1826,-6.55989e-15,-3.02153e-14,-28.1782,7.99752,86.017,60.4644,-1.10242,-32.8444,-29.6085,7.12502,-6.06395,0.284715,-4.50118,2.52557,34.4117,19.2761,-14.5496,-5.06701,16.4562,-30.904,9.33141,-6.47071,59.039,-10.7683,-1.94272,2.32067
12.8794,17.9001,15.8242,-80.4192,-100.126,86.1494,3.23759,0.881619,9.2171,2.60783,1.12562,5.30393,0.981322,0.546325,0.309,-7.16786,6.11395,-0.509731,17.8678,9.06543,-5.03495,6.84955,3.80141,-0.809866,-7.7526e-15,-3.97569e-14,-26.8226,-7.88396,-80.0579,27.3503,-13.0898,-19.912,-21.7486,7.12502,6.42478,-51.6311,-7.7526e-15,-3.97569e-14,-28.784,8.74598,85.7246,57.6815,-1.63501,-32.0848,-28.8181,7.12502,-5.3306,1.09487,-4.52708,2.20461,34.5027,19.2755,-14.6534,-4.68727,15.0835,-31.4419,9.84795,-6.39125,58.9673,-11.3893,-2.07331,-1.78626
12.8624,17.8934,15.8275,-82.0445,-100.09,87.9477,3.28988,0.787948,9.30276,2.55883,1.0214,5.19842,0.89789,0.495323,0.153176,-7.27025,6.21311,-0.34732,18.1544,9.19034,-5.01281,6.96942,3.85999,-0.811486,1.59028e-15,7.95139e-15,-26.6384,-7.60432,-80.1589,27.2711,-12.5539,-18.4882,-21.5147,7.12502,7.79915,-51.3509,1.59028e-15,7.95139e-15,-29.3948,9.72703,85.3051,55.0088,-2.08808,-31.6219,-27.58,7.12502,-4.88367,2.34371,-4.63487,1.95653,34.5054,19.1913,-14.8337,-4.89771,13.7506,-32.2217,9.84274,-6.54056,58.723,-11.9401,-2.24729,-5.96254
12.8282,17.8975,15.8411,-83.7756,-99.6833,89.6078,3.33599,0.621548,9.19001,2.6752,0.806635,4.92098,0.979785,0.40022,-0.0678117,-7.1782,6.32255,-0.239816,17.9787,9.30729,-4.96502,6.90183,3.93725,-0.808511,-4.57205e-15,-1.90833e-14,-26.6279,-7.34424,-80.4618,27.6547,-12.5312,-17.6692,-21.755,7.12502,8.58958,-51.5602,-4.57205e-15,-1.90833e-14,-29.8634,10.8488,84.7667,52.4001,-2.24002,-31.101,-26.3964,7.12502,-4.38069,3.53826,-4.40808,1.7076,34.0371,19.1284,-14.9512,-4.95456,13.6438,-32.5209,9.63152,-7.15218,58.2807,-11.7957,-2.28815,-2.68063
12.8014,17.903,15.834,-80.2025,-99.6321,85.8175,3.74229,0.878032,8.99019,2.81854,1.18464,4.79966,0.923844,0.588496,-0.0966609,-7.03445,6.32583,-0.36459,17.6336,9.273,-4.74232,6.74723,3.95003,-0.730301,-1.27222e-14,-4.21423e-14,-26.2652,-5.08434,-81.0519,27.5773,-14.5941,-17.1221,-22.0541,7.12502,9.11748,-51.837,-1.27222e-14,-4.21423e-14,-30.2385,11.9172,84.2824,49.8919,-2.4571,-29.7851,-25.2404,7.12502,-3.10991,4.71663,-4.03649,1.79689,33.8526,19.0745,-14.8542,-4.29191,14.914,-32.4707,10.4269,-7.3032,57.754,-12.152,-2.72022,-0.0168043
12.7774,17.9087,15.8478,-82.5203,-99.4532,88.4659,3.62359,0.884724,9.05734,2.71142,1.19637,4.73854,0.882214,0.594977,-0.196583,-7.13235,6.31336,-0.605447,17.7008,9.26914,-4.58883,6.76731,3.9416,-0.639769,7.15625e-15,4.92986e-14,-26.3691,-5.02927,-80.8201,27.8332,-14.4203,-16.2498,-21.9742,7.12502,9.95919,-51.7186,7.15625e-15,4.92986e-14,-30.6674,12.9338,83.9536,47.3241,-2.61981,-29.0447,-25.8572,7.12502,-2.39487,4.10913,-4.26537,1.63407,33.6686,18.9427,-14.787,-4.53171,14.8388,-33.324,10.2735,-7.679,57.126,-12.5227,-2.83684,-0.652097
12.7539,17.9105,15.8575,-83.4474,-99.324,89.6037,3.63594,0.899115,8.93678,2.65558,1.22404,4.70144,0.815825,0.606164,-0.170704,-7.23294,6.38185,-0.594083,17.8411,9.39045,-4.70042,6.83945,3.98336,-0.66125,1.19271e-15,4.77083e-15,-26.3897,-4.87896,-80.7408,28.007,-14.5304,-15.9421,-21.832,7.12502,10.256,-51.562,1.19271e-15,4.77083e-15,-31.0956,14.0412,83.5786,44.7209,-2.25505,-28.8111,-26.2661,7.12502,-2.16927,3.70259,-4.26666,2.17891,33.5798,18.7297,-14.6548,-5.47731,13.9098,-33.9628,10.4413,-8.02708,56.3814,-12.6503,-2.46284,-3.8541
12.7269,17.9027,15.8626,-84.2569,-99.6401,90.6562,3.53388,0.859247,9.16577,2.61325,1.16314,4.77194,0.830133,0.575938,-0.220432,-6.96802,6.45904,-0.415034,17.5962,9.50306,-5.00518,6.74111,4.03748,-0.788777,1.03368e-14,6.12257e-14,-26.3913,-4.82392,-80.7177,28.1908,-14.5145,-16.6346,-22.0337,7.12502,9.58787,-51.7956,1.03368e-14,6.12257e-14,-31.5834,15.6618,82.8084,42.1584,-3.0471,-28.05,-25.7998,7.12502,-1.43424,4.17516,-4.29013,2.35445,33.9368,18.4884,-14.5802,-5.77822,14.3478,-34.6221,10.7429,-7.86425,55.56,-12.6493,-2.20914,-6.96238
12.6884,17.9029,15.8642,-83.4126,-99.7202,89.8506,3.52894,0.956369,9.17037,2.66698,1.28829,4.706,0.899444,0.643038,-0.293137,-6.82324,6.48934,-0.283023,17.4597,9.51737,-5.01039,6.67849,4.06136,-0.816946,-2.98177e-15,-2.78299e-14,-26.4303,-5.03514,-80.6878,28.3406,-14.5435,-17.3125,-22.2181,7.12502,8.93384,-52.009,-2.98177e-15,-2.78299e-14,-32.0004,17.0507,82.0036,39.6205,-3.49763,-28.2308,-25.7874,7.12502,-1.60881,4.18627,-4.04262,2.28606,33.98,18.2053,-14.5839,-5.5358,14.7856,-34.8274,11.081,-7.85599,54.6098,-12.7736,-2.37055,-5.36171
12.6477,17.9154,15.8675,-82.8139,-99.3062,89.059,3.81156,1.09875,8.75961,2.75292,1.50906,4.4443,0.838472,0.755271,-0.348616,-7.04778,6.51785,-0.14089,17.7402,9.51393,-4.74227,6.80024,4.07795,-0.743516,2.52457e-14,-5.56597e-15,-26.5168,-5.27795,-80.7375,28.4146,-14.7497,-16.766,-21.9118,7.12502,9.46115,-51.6794,2.52457e-14,-5.56597e-15,-32.3339,18.1667,81.1601,37.2158,-3.58379,-28.6973,-25.5479,7.12502,-2.05936,4.42189,-3.57842,2.03225,33.4615,17.9478,-14.5693,-5.38321,14.009,-34.7125,11.1001,-8.34955,53.589,-12.8886,-2.28218,-2.04397
12.6161,17.9197,15.8739,-85.6342,-99.4143,92.0349,3.89678,1.04782,8.87473,2.64766,1.46763,4.42688,0.682098,0.730044,-0.432267,-7.21886,6.6135,0.124386,18.1008,9.65933,-4.91046,6.97214,4.13316,-0.815375,-2.38542e-15,8.74653e-15,-26.8419,-5.23621,-80.6225,28.9136,-14.8948,-16.4669,-22.0546,7.12502,9.74971,-51.8089,-2.38542e-15,8.74653e-15,-32.8357,19.3682,80.2886,35.0138,-3.54597,-28.9848,-24.955,7.12502,-2.337,5.01199,-3.55385,1.56356,33.5458,17.6674,-14.6151,-5.09442,13.9057,-35.2326,11.1425,-8.41611,52.5112,-12.7577,-2.19829,-1.32943
12.5852,17.909,15.8825,-88.7966,-99.928,95.6583,3.56947,0.94377,9.38395,2.52468,1.3064,4.54949,0.738853,0.651796,-0.575458,-7.17749,6.70487,0.154164,18.0766,9.80537,-5.06431,6.97114,4.19336,-0.857889,-6.55989e-15,-3.81667e-14,-26.9947,-5.29786,-80.3729,29.2501,-15.0088,-16.6973,-22.5381,7.12502,9.52738,-52.3027,-6.55989e-15,-3.81667e-14,-33.2966,20.7045,79.4078,32.8832,-3.40927,-28.9712,-24.0383,7.12502,-2.32393,5.92883,-3.85227,1.43404,34.0947,17.4468,-14.7159,-4.86077,14.9735,-36.1299,11.227,-8.12955,51.3608,-12.3818,-2.05345,-1.00736
12.5437,17.908,15.8847,-87.8297,-99.841,94.7121,3.53677,1.08829,9.16325,2.62629,1.48139,4.49533,0.870947,0.74449,-0.512356,-6.83526,6.68208,-0.163615,17.4648,9.74629,-4.86835,6.68636,4.19327,-0.771501,1.64991e-14,4.69132e-14,-27.1112,-5.87193,-80.1347,29.5568,-14.6028,-16.907,-22.6411,7.12502,9.32505,-52.4149,1.64991e-14,4.69132e-14,-33.5684,21.9402,78.5785,30.797,-2.90216,-28.6349,-22.4638,7.12502,-1.99906,7.50653,-3.54044,1.82488,34.0116,17.1967,-14.8139,-5.16802,15.0619,-36.1914,11.6223,-8.287,50.1603,-12.0218,-1.68986,-1.0376
12.5033,17.9119,15.8977,-89.13,-99.2953,95.6451,4.03368,1.10623,8.54544,2.73378,1.54972,4.36392,0.69111,0.771489,-0.320638,-6.5508,6.64137,-0.339629,17.0792,9.69114,-4.89416,6.50481,4.17432,-0.772087,1.11319e-14,1.19271e-14,-26.9508,-5.30414,-80.0429,29.1318,-15.0228,-17.322,-22.1256,7.12502,8.92461,-51.9168,1.11319e-14,1.19271e-14,-33.9945,23.3006,77.7322,28.8407,-2.58215,-28.5385,-21.3738,7.12502,-1.90601,8.59742,-2.74444,1.06863,33.313,16.6717,-14.8046,-5.21337,13.246,-35.8731,11.4171,-8.91796,48.9795,-11.74,-1.08469,-2.44876
12.4685,17.9096,15.9007,-90.3186,-99.7954,97.2722,3.7878,1.21523,8.94432,2.59126,1.68721,4.40297,0.703369,0.841579,-0.499181,-6.69664,6.64211,-0.0393895,17.3432,9.68938,-4.99616,6.6342,4.17154,-0.842488,-1.45113e-14,-2.38542e-14,-27.2764,-6.43378,-79.6836,29.3959,-14.3649,-17.7165,-22.1212,7.12502,8.5439,-51.9284,-1.45113e-14,-2.38542e-14,-34.5263,24.725,76.507,26.9714,-3.33428,-28.8603,-20.6729,7.12502,-2.21681,9.2953,-2.9288,0.423752,33.7857,16.1999,-14.5055,-4.78482,12.8915,-36.6437,11.5436,-8.56371,47.6768,-11.2351,-0.833988,-2.87672
12.4232,17.8934,15.8924,-91.3347,-101.431,98.7854,3.15428,1.35058,10.4483,2.5558,1.79574,4.65229,1.08347,0.91546,-1.04779,-6.68841,6.70723,0.29327,17.3032,9.72022,-4.8925,6.63087,4.22035,-0.860465,2.62396e-14,1.63003e-14,-27.2688,-7.75455,-79.5542,29.3187,-13.899,-19.3874,-22.5092,7.12502,6.93116,-52.3758,2.62396e-14,1.63003e-14,-34.8837,26.0372,75.1472,25.2468,-4.30818,-29.4312,-17.388,7.12502,-2.7681,12.5737,-3.03026,0.392765,35.5988,15.5893,-14.1685,-4.5707,15.3565,-37.6103,11.9804,-6.93863,46.5225,-10.7777,-0.965249,-2.55853
12.3813,17.9124,15.9072,-91.0445,-100.127,97.9971,3.85466,1.41391,9.00704,2.73025,1.95001,4.29291,0.836851,0.982119,-0.652474,-6.71172,6.6721,-0.0381232,17.0991,9.63858,-4.47332,6.52941,4.20346,-0.685522,2.48481e-14,7.07673e-14,-27.0082,-3.91873,-80.362,28.9673,-17.7827,-21.2619,-22.6836,7.12502,5.12151,-52.6017,2.48481e-14,7.07673e-14,-35.565,27.7796,73.7904,23.9925,-4.63476,-29.0942,-15.3472,7.12502,-2.44273,14.6186,-2.10564,0.50164,34.1009,15.2678,-14.3091,-4.20049,17.8698,-36.8082,12.0556,-8.39281,44.9599,-10.7969,-0.126385,-3.56014
12.3323,17.8961,15.9041,-91.9937,-101.23,99.3153,3.56561,1.38896,9.74983,2.57199,1.89375,4.65457,0.848928,0.94906,-0.67768,-6.50217,6.70522,-0.350529,16.8816,9.67416,-4.27684,6.39921,4.2285,-0.583418,1.19271e-14,-3.33958e-14,-27.2253,-5.60514,-79.685,28.9688,-15.983,-20.8712,-22.2241,7.12502,5.49868,-52.1327,1.19271e-14,-3.33958e-14,-36.6499,29.7056,72.1034,23.0889,-4.80792,-28.2857,-12.9807,7.12502,-1.66182,16.9926,-2.16278,0.804498,35.3018,14.9045,-14.3393,-4.6352,17.667,-37.4243,12.3398,-7.36554,43.5911,-10.47,0.190889,-1.61505
12.2961,17.9074,15.9491,-97.0899,-99.4607,103.986,4.39695,1.29633,8.22737,2.63012,1.86479,4.0248,0.398639,0.925019,-0.516835,-6.61103,6.63163,-0.279243,16.9692,9.56727,-4.23521,6.44475,4.18075,-0.584535,9.64106e-15,3.73715e-14,-27.6352,-5.86722,-79.4813,29.4209,-16.0251,-21.3971,-22.7805,7.12502,4.99097,-52.7018,9.64106e-15,3.73715e-14,-37.5101,31.3277,70.4169,22.125,-5.29755,-26.7265,-10.9789,7.12502,-0.155905,19.0008,-1.49887,0.265445,33.2379,14.8273,-14.5471,-5.10357,15.8762,-36.7464,11.4407,-9.41435,41.8675,-10.4722,0.877539,2.9086
12.2511,17.9041,15.9616,-97.8589,-99.8329,104.899,4.35129,1.49168,8.40814,2.60999,2.12198,4.13925,0.424906,1.05234,-0.505082,-6.9417,6.54751,-0.283805,17.393,9.47218,-4.1792,6.63268,4.11857,-0.555366,-2.92213e-14,-5.04913e-14,-27.8932,-6.62965,-78.9057,29.422,-15.5035,-21.2433,-22.887,7.12502,5.13942,-52.8047,-2.92213e-14,-5.04913e-14,-38.4813,33.2528,68.7257,21.2073,-6.36551,-25.126,-9.25021,7.12502,1.38987,20.725,-1.41849,0.209654,33.5694,14.6231,-14.5843,-5.17749,15.9296,-36.924,11.3528,-9.06833,40.4643,-10.3019,1.49897,2.24525
12.2055,17.9024,15.9553,-94.7512,-100.287,102.227,3.97508,1.77756,8.36348,2.53483,2.45467,4.3929,0.567897,1.2153,-0.217387,-6.96945,6.61433,-0.282049,17.4553,9.59849,-4.36494,6.67041,4.1609,-0.601607,-3.60794e-14,-5.28767e-14,-27.9496,-7.6374,-78.2939,29.0193,-14.5213,-20.4499,-22.2121,7.12502,5.90543,-52.1098,-3.60794e-14,-5.28767e-14,-39.7632,35.3278,66.8187,20.5113,-7.55234,-24.0055,-7.55866,7.12502,2.47207,22.4068,-1.71868,0.792558,34.1,14.5677,-14.6253,-5.09755,16.9887,-37.3205,11.8291,-8.49809,39.0125,-10.8546,2.40659,0.806453
12.1602,17.8832,16.0092,-107.675,-100.677,114.826,4.29472,1.0274,8.79487,2.61516,1.50665,4.26355,0.428648,0.747358,-0.56754,-6.91564,6.68576,-0.00296924,17.2587,9.72922,-4.81782,6.63872,4.21312,-0.781398,1.98785e-15,1.03368e-14,-27.5099,-6.04123,-78.5786,28.0843,-16.3132,-21.0975,-22.0726,7.12502,5.28019,-51.9869,1.98785e-15,1.03368e-14,-40.6993,36.297,65.4577,20.0754,-8.00687,-23.3174,-5.60254,7.12502,3.13661,24.3541,-1.03166,-0.967564,33.888,14.1524,-14.8116,-5.7627,16.9785,-37.4348,9.73987,-8.87716,37.7419,-11.1139,2.96814,0.153833
12.1063,17.8865,15.9757,-96.9012,-100.417,104.77,3.68405,1.96178,8.15181,2.5189,2.66837,4.30481,0.72088,1.32798,-0.18704,-6.87342,6.51915,-0.259816,17.0661,9.47336,-4.49518,6.53393,4.10991,-0.664921,4.88016e-14,5.1684e-14,-27.6605,-6.06386,-78.4425,28.0196,-16.7931,-21.5047,-22.5222,7.12502,4.88703,-52.4459,4.88016e-14,5.1684e-14,-41.2333,36.3119,64.6931,19.8777,-7.90697,-22.708,-3.66069,7.12502,3.72511,26.2865,-1.19878,0.824206,34.2113,13.5356,-14.3113,-5.68256,16.0823,-37.9122,11.8365,-8.5712,36.5199,-11.5541,3.47367,0.345371
12.0581,17.8823,16.0075,-101.757,-100.614,109.347,4.06063,1.86075,8.51215,2.59027,2.58503,4.13624,0.605099,1.29057,-0.568715,-6.83086,6.41868,-0.219086,17.0295,9.3176,-4.42308,6.50911,4.04635,-0.663292,-8.74653e-15,2.8625e-14,-27.938,-7.45993,-77.9792,28.1276,-15.8247,-21.2384,-22.8351,7.12502,5.14418,-52.7526,-8.74653e-15,2.8625e-14,-41.6354,36.2228,64.061,19.8513,-7.69542,-22.1275,-1.88122,7.12502,4.28562,28.0554,-0.279283,0.126338,34.1114,12.5762,-14.1916,-5.7669,16.103,-37.8127,10.938,-8.56307,35.3293,-11.798,3.98891,0.376984
12.0041,17.8941,16.0198,-104.142,-100.465,111.188,4.64943,1.89339,8.21044,2.79886,2.67292,3.963,0.491287,1.33416,-0.601591,-6.48848,6.45647,-0.105902,16.6819,9.32647,-4.3915,6.34231,4.07974,-0.687647,-8.64713e-15,-1.59028e-14,-28.2696,-8.73367,-77.6091,28.371,-14.7885,-21.1679,-23.0494,7.12502,5.21221,-52.9653,-8.64713e-15,-1.59028e-14,-41.9449,36.1599,63.4932,19.8699,-7.38146,-21.8275,-0.558738,7.12502,4.57538,29.3718,1.04825,-0.0480594,33.8228,11.5129,-14.1107,-5.81646,17.296,-37.1083,9.9338,-8.21796,34.2392,-12.8304,4.09563,8.10956
11.9488,17.9206,16.0272,-103.647,-100.65,111.261,3.98654,2.05287,8.22571,2.74973,2.81972,3.87567,0.826278,1.42096,-0.678909,-6.59139,6.42623,-0.114874,16.5812,9.24003,-4.09147,6.3104,4.06532,-0.597073,3.02153e-14,-2.10712e-14,-27.5118,-7.07852,-78.0845,26.8014,-16.7016,-21.9428,-22.4872,7.12502,4.46397,-52.4201,3.02153e-14,-2.10712e-14,-42.3907,36.5145,62.625,19.822,-7.63597,-21.4043,0.0452787,7.12502,4.98396,29.9667,0.939339,0.403414,34.0104,10.9043,-13.9098,-6.10882,17.2503,-37.596,9.29418,-7.57501,33.1111,-13.6618,4.5451,12.4514
11.8934,17.8928,16.0675,-108.839,-101.219,116.189,4.27252,1.79776,8.70361,2.83383,2.51648,3.88257,0.756293,1.27309,-0.935113,-6.75818,6.39853,-0.340568,16.6944,9.20403,-3.86555,6.35302,4.04619,-0.486202,1.36167e-14,-5.64548e-14,-27.7071,-8.24248,-77.586,26.6265,-15.5821,-22.1749,-22.3356,7.12502,4.23985,-52.2732,1.36167e-14,-5.64548e-14,-42.9083,36.8751,61.9118,19.8044,-8.22027,-20.615,0.648591,7.12502,5.74608,30.5507,1.66368,-0.576405,34.1635,10.394,-13.7775,-6.3011,15.5829,-37.6671,9.06337,-7.85616,31.9944,-12.5258,5.40042,2.04073
11.8435,17.8542,16.0851,-106.184,-101.319,113.997,3.97799,2.13855,8.62214,2.71975,2.93975,4.0056,0.825085,1.48104,-0.76459,-6.62415,6.34818,-0.639973,16.5654,9.15723,-3.82445,6.27245,4.01499,-0.436634,1.09332e-15,6.36111e-15,-28.0643,-9.53777,-76.8106,26.6168,-14.0195,-22.4313,-22.3124,7.12502,3.99226,-52.2547,1.09332e-15,6.36111e-15,-43.1372,36.4744,61.9853,19.932,-7.91228,-19.9723,1.21992,7.12502,6.36659,31.1042,1.48782,-0.610306,34.2906,10.0849,-13.4855,-5.98048,14.0786,-38.2377,9.8798,-8.0076,30.9007,-11.4152,6.90851,-7.27208
11.7806,17.8337,16.1099,-108.568,-101.9,116.623,3.69531,2.08955,8.86575,2.67215,2.84752,4.11817,0.93506,1.43852,-0.7691,-6.45861,6.33439,-0.689374,16.3852,9.14309,-3.88764,6.18734,4.00947,-0.458211,-2.68359e-15,-3.57812e-14,-27.7711,-8.75258,-76.7035,25.689,-14.6682,-22.6704,-21.9004,7.12502,3.76135,-51.8469,-2.68359e-15,-3.57812e-14,-43.3634,35.8609,62.1424,20.1734,-7.43491,-19.6024,1.25394,7.12502,6.72365,31.1272,1.40913,-0.227304,34.7943,10.2234,-13.7342,-7.22096,12.9544,-38.6307,9.39687,-7.61455,29.81,-11.589,7.4045,-5.26496
11.7275,17.837,16.1326,-109.612,-102.315,117.783,3.78212,2.10592,9.03576,2.58662,2.89144,4.15088,0.808705,1.45562,-0.83503,-6.46696,6.29967,-0.702114,16.4002,9.08933,-3.82698,6.18892,3.98722,-0.440838,-3.24019e-14,-2.70347e-14,-27.7289,-8.78835,-76.5423,25.1218,-14.6489,-21.8854,-21.9272,7.12502,4.51943,-51.8589,-3.24019e-14,-2.70347e-14,-43.4757,34.6937,62.5744,20.6188,-6.68213,-19.0178,0.938607,7.12502,7.28793,30.7931,1.2434,-0.46413,35.038,10.5852,-14.1125,-7.33198,12.6713,-38.7924,8.71219,-7.07618,28.7028,-12.0399,8.12524,-2.21146
11.6657,17.8345,16.1288,-106.911,-102.309,115.425,3.53334,2.432,8.58645,2.51575,3.29222,4.19802,0.875043,1.65162,-0.538883,-6.51063,6.28661,-0.615438,16.4084,9.06097,-3.80765,6.20137,3.98001,-0.448888,5.4467e-14,3.65764e-14,-27.9954,-9.47395,-76.2916,25.0618,-13.805,-21.1844,-22.5224,7.12502,5.19627,-52.4387,5.4467e-14,3.65764e-14,-43.1117,32.3255,63.9225,21.4617,-4.47236,-18.4034,0.876666,7.12502,7.88098,30.7098,1.31717,0.226872,35.2473,10.2309,-14.2372,-7.15863,14.3257,-38.981,9.07565,-6.61997,27.7518,-12.8691,8.57471,1.28587
11.6104,17.827,16.1345,-104.031,-102.026,112.97,3.25504,2.80467,7.99275,2.43055,3.75842,4.12118,0.938574,1.88193,-0.288983,-6.4233,6.2987,-0.338024,16.3012,9.05718,-3.92429,6.17015,3.99175,-0.533761,-4.63168e-14,-5.4467e-14,-27.6891,-10.7872,-75.8195,23.8045,-12.4635,-21.5631,-21.9725,7.12502,4.83063,-51.8974,-4.63168e-14,-5.4467e-14,-43.1112,31.1081,64.4092,22.1161,-3.34194,-18.0399,0.542682,7.12502,8.23183,30.3623,1.38219,1.15674,35.0996,9.71937,-14.174,-7.29067,15.5248,-39.2719,9.51438,-6.6017,26.9302,-13.5159,9.15152,4.0337
11.5478,17.7983,16.2138,-116.355,-102.556,123.781,4.94551,2.00595,8.43777,2.78954,2.8718,3.8842,0.346737,1.43383,-0.825867,-6.31287,6.27651,-0.550902,16.1549,9.00024,-3.6426,6.08035,3.98068,-0.423162,3.08116e-15,5.64548e-14,-27.6704,-10.0127,-75.9461,23.389,-13.4967,-22.0569,-22.3403,7.12502,4.35381,-52.2756,3.08116e-15,5.64548e-14,-43.5079,31.7731,63.5997,22.1433,-4.37524,-17.7077,-0.498427,7.12502,8.55246,29.3084,3.73276,-1.2988,34.5567,8.74596,-14.2455,-7.76478,14.906,-38.1566,7.59919,-7.36887,26.268,-13.5757,8.85207,3.95981
11.4823,17.7981,16.2078,-111.849,-102.49,120.013,4.25203,2.52284,8.15208,2.64985,3.48338,3.96223,0.611348,1.74208,-0.579702,-6.5113,6.27513,-0.862899,16.3914,9.01173,-3.39535,6.16386,3.97585,-0.285696,-1.2921e-15,2.38542e-14,-27.7835,-9.54016,-76.0124,23.202,-14.1186,-22.8022,-23.5813,7.12502,3.63415,-53.53,-1.2921e-15,2.38542e-14,-43.5901,31.8582,63.3515,22.1701,-4.77359,-17.547,-1.31558,7.12502,8.70753,28.4848,3.61784,-0.0940622,35.0091,7.87967,-13.5191,-8.3611,13.4446,-38.8956,8.67434,-7.01795,25.5357,-13.6828,9.27595,3.49765
11.4048,17.7839,16.2583,-115.529,-103.209,122.95,4.92183,2.27234,8.71318,2.85326,3.21962,4.03677,0.461886,1.60996,-0.827315,-6.64492,6.31175,-0.764579,16.6725,9.0932,-3.58011,6.29109,3.99441,-0.343192,1.54058e-14,-9.14409e-15,-27.7907,-9.49309,-75.881,22.7883,-13.7659,-23.3539,-24.0072,7.12502,3.10136,-53.9644,1.54058e-14,-9.14409e-15,-43.6456,31.3101,63.6413,22.4621,-4.29868,-17.3704,-1.66171,7.12502,8.87792,28.1315,5.31433,-0.904473,35.2632,6.58128,-13.2266,-8.68651,13.057,-38.1602,6.88362,-6.25431,24.869,-14.6216,10.3095,5.01179
11.3329,17.7856,16.2621,-112.459,-102.958,120.725,4.01677,2.7235,8.12737,2.66814,3.71906,4.0532,0.770785,1.86291,-0.464607,-6.52401,6.29153,-0.82543,16.5608,9.05321,-3.50184,6.22739,3.98373,-0.318352,-6.76862e-14,-4.45278e-14,-27.6319,-11.7128,-74.9785,21.6059,-11.0029,-22.6386,-23.307,7.12502,3.79213,-53.253,-6.76862e-14,-4.45278e-14,-43.6604,30.912,63.8246,22.7314,-4.01724,-17.0171,-1.89746,7.12502,9.21886,27.881,5.43849,0.128876,35.2206,5.04215,-12.6938,-8.64938,14.9286,-38.6538,5.7294,-5.32208,24.2438,-15.7112,12.8931,4.84691
11.261,17.7793,16.2828,-111.925,-102.975,120.395,3.83061,2.97632,8.01045,2.63252,4.03965,3.94624,0.858181,2.02674,-0.507384,-6.41255,6.23131,-0.902412,16.405,8.93732,-3.27908,6.14249,3.94847,-0.252091,3.12092e-14,2.42517e-14,-27.5413,-12.0808,-74.8558,20.9422,-10.9095,-22.488,-23.4184,7.12502,3.93755,-53.3617,3.12092e-14,2.42517e-14,-43.4591,30.216,64.0961,23.0969,-3.4635,-16.7852,-2.47493,7.12502,9.44259,27.2935,6.59851,0.500602,35.22,2.77017,-11.8427,-8.70404,16.1132,-38.6519,4.49499,-4.55999,23.677,-16.6207,14.6669,6.06913
11.1972,17.7714,16.318,-112.293,-103.596,121.017,3.65156,3.03732,8.5899,2.54883,4.12105,3.90735,0.924639,2.07455,-0.855927,-6.43569,6.22098,-0.672003,16.3785,8.90162,-3.30609,6.14882,3.94469,-0.298924,-2.20651e-14,-1.25234e-14,-27.5787,-12.2898,-74.8619,20.6713,-11.2107,-22.4218,-23.6569,7.12502,4.00145,-53.599,-2.20651e-14,-1.25234e-14,-43.3596,29.5156,64.3528,23.7195,-2.77796,-16.8796,-3.02656,7.12502,9.35156,26.746,7.68629,0.464558,35.7455,0.436382,-10.6412,-9.06397,14.7004,-38.9625,3.75307,-3.77594,23.1094,-16.6311,15.689,5.01525
11.1281,17.7725,16.3489,-112.472,-103.876,121.352,3.56864,3.16698,8.69385,2.50386,4.29108,3.88387,0.947618,2.16097,-0.934925,-6.58255,6.15264,-0.854601,16.4854,8.76803,-2.85301,6.17621,3.90015,-0.132384,6.22196e-14,9.74045e-15,-27.5011,-13.1752,-74.4985,19.7875,-10.4475,-21.9549,-23.5787,7.12502,4.45228,-53.5119,6.22196e-14,9.74045e-15,-43.2013,28.8004,64.7759,24.3319,-2.12,-17.0515,-3.20888,7.12502,9.18569,26.5711,7.98862,0.585905,35.9238,6.36111e-15,-10.5415,-9.22975,14.6265,-39.1556,3.53727,-3.49884,22.7949,-16.274,16.6927,1.91291
11.0491,17.7757,16.3809,-112.857,-103.709,121.655,3.66972,3.33556,8.34138,2.52872,4.52213,3.78194,0.91377,2.2747,-0.856423,-6.62295,6.07861,-0.881934,16.7058,8.6491,-2.67759,6.24207,3.84702,-0.0772941,-9.22361e-14,-3.89618e-14,-27.7105,-13.52,-74.3757,19.4792,-9.66554,-22.2701,-24.7495,7.12502,4.14797,-54.6888,-9.22361e-14,-3.89618e-14,-42.9602,28.0992,65.1991,24.7154,-1.57681,-16.7709,-3.56918,7.12502,9.45645,26.1987,8.38743,0.820549,35.6109,4.77083e-14,-10.8867,-9.28596,15.8887,-38.9547,2.93415,-3.42761,22.6677,-16.6339,17.8331,1.98243
10.9744,17.7576,16.4246,-113.615,-103.896,122.234,3.90114,3.3591,8.47906,2.57592,4.57999,3.70881,0.855638,2.30484,-1.02016,-6.42684,6.0501,-0.822764,16.5358,8.59961,-2.72479,6.1584,3.83078,-0.114595,2.08724e-15,-1.49089e-14,-27.9524,-13.0675,-74.6187,19.7472,-9.56646,-22.8644,-26.1221,7.12502,3.57403,-56.0719,2.08724e-15,-1.49089e-14,-42.8392,27.7132,65.3966,25.1922,-1.15408,-16.3996,-3.9833,7.12502,9.81461,25.768,8.87364,0.836184,35.6091,3.18055e-15,-11.0526,-9.51922,15.3086,-38.6987,2.05018,-3.02647,22.5952,-18.3542,17.8287,9.00598
10.8974,17.7428,16.4676,-113.81,-103.927,122.195,4.21376,3.46047,8.54918,2.66604,4.74588,3.59467,0.804014,2.38959,-1.19487,-6.26999,6.06363,-0.873905,16.1738,8.59653,-2.62917,6.01009,3.84805,-0.0884855,2.68856e-14,1.33186e-14,-27.6765,-14.1592,-74.2829,18.7203,-8.31972,-22.3422,-25.2386,7.12502,4.07832,-55.1793,2.68856e-14,1.33186e-14,-42.746,27.1426,65.7241,25.9363,-0.569565,-16.355,-4.03078,7.12502,9.85767,25.7185,9.44458,1.02857,35.5687,-1.27222e-14,-10.97,-9.78802,13.1838,-38.3653,1.77422,-2.96142,22.673,-18.5332,18.7264,8.14886
10.8204,17.7465,16.4985,-112.449,-103.886,121.329,3.80586,3.75705,8.3921,2.52387,5.1074,3.51435,0.906325,2.57209,-1.17391,-6.18871,5.99882,-1.21781,15.9469,8.48471,-2.25841,5.89172,3.81057,0.0658715,-2.5345e-15,-8.74653e-15,-27.8143,-14.7972,-74.0836,18.536,-7.99709,-22.9598,-24.8493,7.12502,3.48189,-54.8006,-2.5345e-15,-8.74653e-15,-42.5541,26.2537,66.2666,26.5535,0.0214773,-16.3666,-3.78819,7.12502,9.84643,25.9616,9.17932,1.62147,35.5759,-6.36111e-15,-10.7139,-10.1559,11.452,-38.86,2.50355,-3.18732,22.8455,-18.7368,19.1062,8.17649
10.7472,17.7366,16.56,-116.634,-104.904,125.41,4.09292,3.39292,9.07046,2.44941,4.67881,3.56462,0.687748,2.35449,-1.50844,-6.27916,5.98243,-1.21706,16.0723,8.47818,-2.31623,5.94952,3.79831,0.0527864,9.31306e-14,5.12864e-14,-28.1247,-17.0783,-73.2614,18.2694,-5.86175,-23.8154,-24.556,7.12502,2.65564,-54.5193,9.31306e-14,5.12864e-14,-42.5188,25.6457,66.634,27.1543,0.610278,-16.0945,-3.79044,7.12502,10.109,25.9467,9.44005,0.530503,35.9153,-3.18055e-14,-10.9475,-10.3883,12.6868,-39.1754,1.47324,-3.06163,23.086,-18.0738,19.9749,6.4495
10.6728,17.7412,16.6002,-116.255,-105.432,125.618,3.66168,3.39256,9.33131,2.19188,4.65694,3.61017,0.676762,2.34022,-1.58452,-6.32811,6.11137,-0.786282,16.32,8.67537,-2.73625,6.07602,3.87841,-0.125271,5.0044e-14,3.29983e-14,-28.0412,-16.2561,-73.5878,17.8142,-6.40723,-22.6692,-23.6254,7.12502,3.76259,-53.572,5.0044e-14,3.29983e-14,-42.7411,25.4218,66.6727,27.8339,1.0581,-15.9941,-3.99929,7.12502,10.2058,25.7331,9.00666,0.677785,36.2581,-2.8625e-14,-11.1689,-10.2633,15.8294,-39.8871,2.42212,-3.29728,23.2912,-17.3395,19.8782,6.39705
10.5906,17.7423,16.6464,-117.034,-105.456,126.376,3.83481,3.41959,9.19026,2.10542,4.72399,3.49296,0.493392,2.36701,-1.64535,-6.15515,6.11079,-0.814391,16.2945,8.65199,-2.61772,6.03096,3.87691,-0.0923366,-5.25785e-14,-2.27608e-14,-28.2871,-15.259,-74.0068,17.8627,-7.1183,-21.7316,-23.1401,7.12502,4.66794,-53.0687,-5.25785e-14,-2.27608e-14,-42.8329,25.0695,66.7861,28.3904,1.33344,-16.4866,-4.11828,7.12502,9.73068,25.6369,9.35892,0.745053,36.0436,4.45278e-14,-11.3333,-10.2361,16.5575,-39.8006,3.20493,-4.05399,23.5478,-16.9308,19.4335,6.84979
10.5093,17.7441,16.6885,-117.048,-105.406,126.684,3.65945,3.62451,9.00616,2.02321,4.98333,3.35854,0.525636,2.49802,-1.67795,-6.13461,6.007,-0.996885,16.1542,8.48734,-2.34526,5.96098,3.81259,0.00612191,-5.44173e-14,1.19271e-14,-28.3397,-15.368,-74.0124,17.8494,-7.06773,-22.0077,-23.517,7.12502,4.40134,-53.4512,-5.44173e-14,1.19271e-14,-42.529,24.4783,67.2517,28.8941,1.79766,-16.9841,-4.46493,7.12502,9.25073,25.3121,9.37131,1.03676,35.8354,3.18055e-15,-11.1925,-10.495,15.1587,-39.9748,3.30151,-4.3753,23.8059,-17.0617,19.7451,8.5701
10.4232,17.7405,16.728,-115.707,-105.626,125.862,3.14918,3.86253,9.12641,1.92748,5.25007,3.34714,0.749294,2.63845,-1.72197,-6.2226,6.04434,-0.811885,16.0686,8.54284,-2.49281,5.96431,3.84221,-0.0631042,1.54804e-14,-8.05078e-15,-28.3496,-14.5564,-74.3327,18.0673,-8.04562,-21.8597,-24.1189,7.12502,4.54427,-54.0501,1.54804e-14,-8.05078e-15,-42.2166,24.0375,67.7063,29.4142,2.33034,-17.1024,-4.79663,7.12502,9.13653,24.9855,9.11792,1.53998,36.0595,9.54166e-15,-11.1255,-10.6506,15.1581,-40.4759,4.22173,-4.58708,24.0596,-17.1082,19.3745,10.8857
10.331,17.7424,16.7762,-115.007,-105.633,124.932,3.48876,3.95498,9.15071,1.94192,5.41461,3.26616,0.600482,2.71635,-1.84441,-6.13673,6.18053,-0.56902,15.9899,8.70702,-2.5694,5.94046,3.93389,-0.117808,4.87022e-15,-4.4975e-14,-28.6257,-16.5669,-73.7586,18.0107,-5.76407,-21.0865,-24.149,7.12502,5.2908,-54.0629,4.87022e-15,-4.4975e-14,-42.181,23.7045,67.853,29.9161,2.81799,-17.3276,-5.06012,7.12502,8.91925,24.7314,9.66008,1.96384,36.036,-1.59028e-14,-11.1777,-10.5831,16.143,-40.1738,5.60039,-5.25296,24.3188,-16.4745,18.4947,10.964
10.2407,17.7499,16.8423,-118.272,-106.054,127.988,3.83904,3.67084,9.30779,1.9108,5.09127,3.11432,0.368073,2.55011,-2.11137,-6.12536,6.2475,-0.488449,16.0233,8.77645,-2.48786,5.94939,3.97764,-0.100228,-1.46529e-13,-3.35449e-14,-28.4766,-15.6522,-74.4298,17.764,-6.71877,-21.4005,-24.0788,7.12502,4.98761,-54.0001,-1.46529e-13,-3.35449e-14,-42.1829,23.3557,67.9681,30.4062,3.06674,-17.6117,-5.38434,7.12502,8.64505,24.4187,10.1708,1.24801,35.8382,3.81667e-14,-11.2088,-10.6876,15.2311,-40.0246,4.90891,-5.64613,24.5497,-15.8266,18.4391,10.9688
10.153,17.748,16.9083,-120.649,-106.373,130.206,4.14081,3.57236,9.35221,1.93201,4.99869,3.03892,0.222417,2.50043,-2.23305,-6.22411,6.19264,-0.593658,16.018,8.71467,-2.46088,5.9582,3.94336,-0.0762086,2.8625e-14,-1.84124e-14,-28.2663,-14.5799,-74.9283,17.6535,-8.1109,-21.957,-24.1149,7.12502,4.45032,-54.0481,2.8625e-14,-1.84124e-14,-41.9883,23.1393,68.3042,30.881,2.91158,-17.5703,-5.25127,7.12502,8.68501,24.5501,10.6532,0.777811,35.6859,-1.27222e-14,-10.7584,-11.2353,11.0768,-39.8711,4.13114,-5.87967,24.7426,-15.0345,18.6331,11.836
10.0559,17.7561,16.9527,-119.263,-105.883,129.242,3.74686,4.00779,8.74297,1.89799,5.52026,2.95483,0.410591,2.76611,-1.9675,-6.35498,6.10011,-0.81551,15.8935,8.60749,-2.38376,5.92728,3.88794,-0.0224521,2.16427e-14,-2.77802e-14,-28.0813,-13.5947,-75.2452,17.6406,-9.32039,-22.045,-24.0426,7.12502,4.36532,-53.9776,2.16427e-14,-2.77802e-14,-41.5598,22.9438,68.8055,31.2112,2.83515,-17.7074,-5.15384,7.12502,8.55269,24.6529,10.5604,1.61652,35.3463,-6.36111e-15,-9.84361,-11.9015,6.14687,-39.9128,3.98783,-5.98091,24.8191,-14.6931,19.3745,12.8413
9.95582,17.7549,17.0398,-124.165,-106.307,133.622,4.29796,3.70119,8.8094,2.09104,5.16323,2.83582,0.285963,2.58987,-2.15454,-6.54086,6.06249,-1.03955,15.8449,8.58045,-2.31488,5.93103,3.86772,0.0379793,4.33599e-15,-2.27111e-14,-28.0222,-12.4656,-75.6645,17.7916,-10.7665,-22.3579,-23.7264,7.12502,4.06321,-53.6674,4.33599e-15,-2.27111e-14,-41.2571,22.7565,69.2909,31.5699,3.00691,-17.9356,-5.33479,7.12502,8.3325,24.4809,11.4813,0.510849,34.7692,3.49861e-14,-10.0012,-12.0866,5.87842,-39.2598,2.96419,-6.82143,24.8681,-14.3402,18.7818,13.3483
9.85101,17.7846,17.048,-116.74,-105.353,127.192,3.27682,4.56856,7.86755,1.83696,6.2023,2.93001,0.582424,3.10742,-1.48832,-6.6518,6.1417,-1.07423,15.8176,8.70153,-2.34502,5.94248,3.92239,0.0461892,8.70925e-15,-2.77802e-14,-27.9132,-11.5513,-76.1414,17.8932,-11.8948,-21.6605,-23.5725,7.12502,4.73662,-53.4995,8.70925e-15,-2.77802e-14,-41.1543,22.4845,69.7007,32.0243,3.44767,-18.0399,-5.61392,7.12502,8.23179,24.2057,10.7591,3.00031,34.8537,-4.77083e-14,-9.72059,-12.0718,7.42292,-39.6327,4.58046,-6.42462,24.8996,-13.9503,19.2173,12.9772
9.7592,17.7909,17.1167,-118.495,-105.685,129,3.31656,4.38871,7.89944,1.80411,5.97311,2.86402,0.517296,2.99239,-1.57745,-6.66478,6.29584,-0.821659,15.7099,8.90307,-2.50159,5.93109,4.02664,-0.0288471,-1.46417e-14,-1.07095e-14,-27.7533,-10.9893,-76.6081,17.9329,-12.4641,-19.6537,-23.4004,7.12502,6.67409,-53.2752,-1.46417e-14,-1.07095e-14,-41.0356,22.0895,70.0191,32.4068,3.82694,-18.2185,-5.98071,7.12502,8.05941,23.8456,10.9636,2.70402,34.7418,6.36111e-15,-9.04136,-12.4066,5.70424,-39.604,4.8285,-7.04356,24.9175,-12.5063,18.2697,11.1072
9.65684,17.7972,17.1954,-122.227,-105.998,132.292,3.91021,4.15632,7.86706,1.8382,5.72546,2.72329,0.21102,2.86178,-1.75056,-6.61548,6.30628,-0.824659,15.676,8.887,-2.31435,5.90244,4.0349,0.0258231,4.19265e-14,2.93207e-15,-27.8333,-10.5114,-76.9224,18.0545,-13.1334,-18.8524,-22.766,7.12502,7.44758,-52.6149,4.19265e-14,2.93207e-15,-40.9363,21.5744,70.3721,32.8183,3.87022,-18.3165,-6.15011,7.12502,7.96491,23.6798,11.7595,1.93579,34.3637,-3.18055e-14,-8.26096,-12.8264,2.63535,-39.0308,4.59165,-7.91759,25.0004,-11.8191,17.2391,10.5409
9.55198,17.8129,17.2715,-123.542,-106.066,133.654,4.04285,4.2227,7.86364,1.68485,5.84366,2.54063,0.00662488,2.91445,-1.9565,-6.59153,6.22297,-0.990971,15.7535,8.73435,-1.91754,5.89498,3.97953,0.164037,-1.13633e-14,-1.91454e-14,-28.0621,-10.2167,-77.1119,18.1767,-13.391,-18.643,-22.0662,7.12502,7.6497,-51.9079,-1.13633e-14,-1.91454e-14,-40.8583,21.0671,70.7204,33.3229,4.01033,-18.2803,-6.32257,7.12502,7.99977,23.506,12.0498,1.87556,33.9366,3.81667e-14,-7.99292,-12.9484,2.60408,-38.7679,3.50115,-8.01758,25.0809,-11.9211,17.7037,11.3647
9.43965,17.8214,17.3396,-124.424,-106.044,134.443,4.10839,4.27642,7.59679,1.71348,5.91316,2.44832,-0.0120645,2.94992,-1.91188,-6.81457,6.25811,-0.877881,15.8727,8.77928,-1.91659,5.97602,4.00321,0.160171,-8.19614e-14,6.21202e-15,-28.019,-9.76225,-77.3599,18.316,-13.229,-17.5981,-21.6853,7.12502,8.65819,-51.4878,-8.19614e-14,6.21202e-15,-40.6556,21.1003,70.9314,33.7298,3.91363,-18.1318,-6.39612,7.12502,8.14311,23.427,12.3671,1.96281,33.5377,1.27222e-14,-7.35358,-13.0395,3.00266,-38.5543,5.31232,-9.30355,25.2068,-11.1504,15.5193,11.4742
9.32964,17.8424,17.4062,-125.24,-106.049,135.367,3.89627,4.30013,7.28935,1.77206,5.91297,2.35778,0.144444,2.95685,-1.81665,-6.97811,6.35578,-0.828763,15.815,8.90672,-1.8875,5.98751,4.07118,0.175562,3.62782e-14,-6.60959e-15,-27.813,-9.05904,-77.7494,18.6249,-13.604,-18.2387,-21.7505,7.12502,8.03996,-51.5776,3.62782e-14,-6.60959e-15,-40.3376,21.1904,71.176,34.0038,3.56222,-17.8875,-6.17533,7.12502,8.3789,23.6385,12.7379,2.05589,33.1775,1.27222e-14,-6.83885,-12.9648,3.57643,-38.1921,3.17741,-8.74245,25.3778,-12.0149,17.3418,12.8167
9.22228,17.8426,17.4808,-126.321,-106.479,136.656,3.65001,4.20629,7.45063,1.69286,5.77787,2.26156,0.214687,2.89326,-1.98358,-6.92714,6.43337,-0.77245,15.7445,8.98113,-1.75207,5.95276,4.12369,0.210599,-2.89729e-14,4.32357e-15,-27.7999,-8.39522,-78.2738,19.0643,-14.5012,-21.7478,-22.691,7.12502,4.65228,-52.6199,-2.89729e-14,4.32357e-15,-40.1806,20.7081,71.4876,34.3561,3.73495,-17.6407,-5.93758,7.12502,8.61704,23.8666,12.862,1.84363,33.0887,1.90833e-14,-6.20704,-13.0179,3.27445,-38.3612,4.91929,-9.88371,25.4116,-10.9487,15.1626,11.9202
9.10949,17.8448,17.561,-128.368,-107.243,138.314,3.99379,3.96345,7.73996,1.69358,5.4957,2.33506,0.0194227,2.74592,-2.0897,-6.9394,6.47676,-0.616034,15.9665,9.03327,-1.80539,6.03495,4.14731,0.178318,-3.49861e-14,-3.86636e-14,-27.9593,-7.9452,-78.464,19.4272,-14.9656,-23.8193,-23.28,7.12502,2.65187,-53.2432,-3.49861e-14,-3.86636e-14,-40.1414,20.2484,71.8422,34.6295,4.01333,-17.614,-6.02018,7.12502,8.64282,23.7829,13.6104,1.20253,33.1856,-3.18055e-15,-5.63218,-13.0164,2.28389,-37.7285,4.80701,-10.0692,25.4899,-10.2173,14.4631,11.068
8.99507,17.8739,17.6197,-129.699,-106.38,139.496,4.21327,4.13469,6.35959,1.66938,5.70472,2.21103,-0.2352,2.8409,-1.49099,-7.01544,6.56709,-0.448269,16.2599,9.16275,-1.93,6.15582,4.20094,0.131795,7.40473e-15,1.87852e-14,-28.1073,-7.30407,-78.5549,19.826,-15.4673,-23.4866,-22.7881,7.12502,2.97317,-52.7471,7.40473e-15,1.87852e-14,-40.1099,20.0842,72.1709,34.8076,3.89206,-17.6917,-6.55761,7.12502,8.5679,23.2486,14.1205,1.71955,32.0179,-5.08889e-14,-4.74523,-13.1184,0.93989,-37.0335,5.65315,-11.4786,25.544,-9.7569,13.9518,9.60296
8.88283,17.8731,17.7039,-131.734,-107.143,140.829,4.88636,3.88178,6.77648,1.77688,5.4316,2.28974,-0.486309,2.69735,-1.67815,-7.19608,6.68886,-0.130161,16.5354,9.32772,-2.10924,6.30004,4.2763,0.0514361,-2.59911e-14,-4.67144e-15,-28.1741,-6.74415,-78.8979,20.3616,-16.3291,-23.2331,-22.6022,7.12502,3.21797,-52.5576,-2.59911e-14,-4.67144e-15,-40.0174,19.6685,72.5658,35.1286,3.8082,-17.4095,-6.94731,7.12502,8.84018,22.8475,15.1555,1.07362,32.1965,-3.49861e-14,-4.00023,-13.3833,0.322086,-36.0407,5.38816,-11.4839,25.6526,-9.61026,13.2857,9.50541
8.7764,17.8925,17.7796,-130.893,-107.211,140.104,4.78666,4.04474,6.94836,1.69106,5.65289,2.25253,-0.481662,2.80728,-1.81286,-7.33675,6.72855,0.0565712,16.6787,9.3789,-2.19481,6.38384,4.3005,0.0079644,1.58531e-14,-2.47487e-14,-28.205,-6.64724,-79.1789,20.9292,-16.8166,-23.54,-23.4306,7.12502,2.92157,-53.3903,1.58531e-14,-2.47487e-14,-39.6842,19.1072,73.0131,35.3755,3.73708,-16.7292,-6.73501,7.12502,9.49664,23.031,12.9512,1.42947,32.0479,4.4524,-4.87816,-13.1644,-0.689805,-35.7484,5.08601,-11.2783,25.6181,-9.78371,13.49,11.094
8.65553,17.9129,17.8503,-131.814,-107.214,140.917,4.75899,4.07131,6.55271,1.70622,5.67018,2.22731,-0.486074,2.81643,-1.62136,-7.32933,6.74883,-0.00540367,16.6796,9.40071,-2.10763,6.37565,4.3145,0.0461759,5.32494e-14,-1.47101e-14,-28.2391,-6.32715,-79.3891,21.5207,-17.105,-23.5206,-24.259,7.12502,2.94033,-54.2185,5.32494e-14,-1.47101e-14,-39.2804,18.7955,73.3355,35.336,3.46405,-15.9854,-6.4792,7.12502,10.2143,23.2528,11.2837,1.43136,31.5727,8.57442,-5.78079,-12.7161,-0.287899,-35.2342,5.3277,-11.7287,25.6875,-9.82818,12.8727,12.6136
8.53772,17.9293,17.9241,-132.638,-107.203,141.661,4.73103,4.08343,6.15571,1.65409,5.67312,2.23169,-0.564288,2.81528,-1.40178,-7.34014,6.80599,-0.0663179,16.8375,9.4559,-1.90164,6.41484,4.34939,0.127539,8.41356e-14,-2.21645e-14,-28.3225,-6.07203,-79.4853,22.0375,-17.347,-22.396,-23.8657,7.12502,4.02633,-53.8074,8.41356e-14,-2.21645e-14,-38.9875,18.3401,73.7125,35.2135,3.2697,-15.5908,-6.63314,7.12502,10.5949,23.0798,9.8839,1.46422,31.17,12.0879,-6.04779,-12.4919,-0.927463,-34.6984,5.84168,-12.2937,25.6002,-9.581,12.1675,14.0106
8.42313,17.9407,17.9992,-133.675,-106.882,142.516,4.8621,4.15178,5.5432,1.63232,5.75203,2.12986,-0.705549,2.85206,-1.18746,-7.27858,6.90048,0.119249,16.9903,9.55152,-1.84506,6.45991,4.40778,0.124352,7.60351e-15,9.44227e-15,-28.359,-6.04715,-79.6268,22.5283,-17.5585,-22.0421,-23.6031,7.12502,4.36815,-53.538,7.60351e-15,9.44227e-15,-38.7768,17.7865,74.0887,35.2755,3.11387,-15.5134,-7.01123,7.12502,10.6695,22.6979,8.91089,2.27219,30.7528,15.0749,-5.28045,-13.3689,-6.28286,-34.0209,6.59332,-13.1536,25.5243,-9.19859,11.4465,14.0433
8.3091,17.9604,18.0795,-135.058,-106.884,143.869,4.8269,4.08239,5.12864,1.5759,5.64516,2.02077,-0.780459,2.79837,-1.06887,-6.95331,7.03199,0.513417,16.8389,9.703,-2.04863,6.38736,4.49597,-0.00445853,8.60241e-14,3.67752e-14,-28.3146,-6.05345,-79.8804,22.9787,-17.4374,-23.0893,-23.9468,7.12502,3.35686,-53.9001,8.60241e-14,3.67752e-14,-38.6346,17.4461,74.3226,35.483,2.7939,-15.1739,-7.24426,7.12502,10.9971,22.4477,7.54226,-1.29685,29.2055,17.8976,-3.09137,-9.96878,-12.939,-33.5312,7.1193,-13.9175,25.405,-8.79185,10.5797,14.2844
8.19711,17.9668,18.1608,-136.443,-107.661,145.029,4.87697,3.86794,5.41484,1.53162,5.37875,2.09042,-0.848534,2.66279,-1.14931,-6.7054,7.10329,0.670375,16.8872,9.76952,-2.00981,6.36655,4.54161,-0.0207511,-2.33572e-15,-3.22031e-14,-28.3186,-6.54272,-79.8368,23.287,-16.6422,-22.7288,-23.3878,7.12502,3.70497,-53.3354,-2.33572e-15,-3.22031e-14,-38.4689,16.9769,74.6429,35.6287,2.51198,-14.7659,-7.8041,7.12502,11.3905,21.8665,6.73442,1.58724,30.237,20.5494,-2.9755,-13.0585,-10.9886,-33.0558,7.24569,-14.0876,25.4072,-8.43333,9.54036,15.02
8.08579,17.9894,18.2426,-137.662,-108.222,146.061,4.90199,3.76358,5.56972,1.49461,5.25118,2.1706,-0.901508,2.59673,-1.15044,-6.95277,7.08557,0.203927,17.3491,9.73158,-1.49458,6.50538,4.52085,0.228437,-1.0133e-13,1.08338e-14,-28.3764,-6.83613,-79.6603,23.808,-16.3986,-22.0413,-23.0469,7.12502,4.36891,-52.9818,-1.0133e-13,1.08338e-14,-38.1985,16.3736,75.1361,35.7098,2.2621,-14.3181,-8.32813,7.12502,11.8224,21.3182,5.59779,-1.16869,29.3042,23.2093,-1.77369,-10.3136,-8.37956,-32.4842,7.50833,-14.3943,25.2655,-8.03821,8.63465,15.5645
7.97418,18.0029,18.3207,-138.281,-108.493,146.413,4.98894,3.7134,5.55978,1.50185,5.19004,2.25863,-0.955204,2.56416,-1.05875,-6.95307,7.13205,0.0472027,17.4562,9.79121,-1.33967,6.524,4.5494,0.307897,4.11733e-14,1.19271e-14,-28.4293,-6.54458,-79.7349,24.5545,-16.8938,-22.8257,-23.6031,7.12502,3.61145,-53.5522,4.11733e-14,1.19271e-14,-37.9337,15.9299,75.5274,35.866,1.90908,-13.3834,-7.88654,7.12502,12.7236,21.7058,4.67251,-0.986321,29.1609,25.8338,-0.968447,-10.3788,-4.59283,-31.7797,8.04444,-14.688,25.1312,-7.495,7.79872,15.4788
7.86749,18.025,18.4018,-140.142,-108.201,147.778,5.49669,3.71052,4.90826,1.54764,5.18825,2.18104,-1.24249,2.55859,-0.817372,-6.82846,7.25132,0.303233,17.4857,9.95473,-1.5487,6.53779,4.6277,0.211455,-2.73577e-14,-4.87022e-15,-28.4671,-6.8318,-79.6741,25.0402,-16.4608,-21.2213,-23.1455,7.12502,5.16068,-53.0626,-2.73577e-14,-4.87022e-15,-37.7475,15.567,75.8155,36.0417,1.63905,-12.3457,-7.42475,7.12502,13.7238,22.1027,3.75408,-2.95853,27.585,28.7048,1.18251,-8.10261,-5.85886,-30.4951,8.2356,-15.4536,24.7924,-7.1439,7.46292,14.9505
7.76485,18.0216,18.4819,-143.483,-108.286,150.391,6.1873,3.58001,4.29094,1.70302,5.01398,2.09262,-1.52057,2.46842,-0.602469,-6.83727,7.30226,0.421056,17.7426,10.0128,-1.54437,6.6281,4.65641,0.205115,5.46658e-16,-8.94531e-16,-28.4976,-6.90186,-79.7914,25.7738,-17.3885,-19.1981,-22.4858,7.12502,7.11393,-52.3463,5.46658e-16,-8.94531e-16,-37.4581,15.1424,76.1751,36.178,1.48326,-11.7701,-7.57047,7.12502,14.2785,21.9186,3.3074,-0.494098,27.6535,31.635,3.24806,-10.3335,-11.6314,-29.0043,8.28304,-16.377,24.3772,-6.96044,6.81043,14.5327
7.67712,18.0234,18.5667,-147.632,-108.26,154.266,6.66369,3.38791,3.37181,1.74506,4.72308,1.80297,-1.80442,2.32345,-0.404271,-6.79252,7.35956,0.521309,17.9107,10.0754,-1.5221,6.67897,4.69037,0.203239,-5.80948e-14,-1.73937e-14,-28.417,-7.07389,-79.9022,26.3851,-17.4161,-18.619,-21.5395,7.12502,7.67293,-51.3804,-5.80948e-14,-1.73937e-14,-37.1282,14.7922,76.4031,36.2639,1.11362,-11.4502,-7.99014,7.12502,14.5868,21.4769,2.30924,-0.326292,26.5649,34.5685,7.02687,-9.20747,-22.005,-27.8859,8.51425,-17.9118,23.7624,-6.84502,5.98239,13.221
7.55422,18.0587,18.644,-148.19,-108.189,154.429,6.77071,3.39081,3.08643,1.79005,4.71143,1.83156,-1.8435,2.31802,-0.222213,-6.79096,7.46648,0.593304,18.1616,10.2147,-1.51726,6.76461,4.75515,0.210223,-2.89977e-14,1.78906e-14,-28.3735,-6.79491,-80.2014,27.0973,-17.7975,-20.5756,-25.4269,7.12502,5.7841,-55.3279,-2.89977e-14,1.78906e-14,-36.9405,14.4616,76.5672,36.3685,0.547523,-10.7229,-8.2145,7.12502,15.2875,21.2005,1.32489,-0.668159,25.9383,37.1442,8.2787,-8.37139,-15.7756,-26.8495,9.27329,-18.262,23.6087,-6.70118,5.10112,17.1324
7.45264,18.0714,18.7234,-151.281,-107.939,157.044,7.26593,3.40894,2.24118,1.87413,4.68996,1.67886,-2.08783,2.3076,0.0602578,-6.92283,7.49894,0.437964,18.4534,10.2697,-1.41501,6.86831,4.77058,0.282951,-2.14687e-14,8.94531e-15,-28.3592,-6.69936,-80.3046,27.9209,-18.3793,-22.539,-25.4645,7.12502,3.88828,-55.4088,-2.14687e-14,8.94531e-15,-36.6799,13.99,76.9383,36.6284,0.131265,-9.82507,-7.89558,7.12502,16.1521,21.4514,0.494868,-1.51772,24.4561,39.7658,9.88123,-6.68877,-14.0734,-25.5456,9.74463,-19.3905,23.2589,-6.63674,4.2608,15.7379
7.34635,18.0663,18.8042,-148.316,-109.017,153.955,6.87248,3.32512,3.70945,1.8128,4.6712,2.11802,-1.85105,2.29332,-0.27491,-6.94456,7.47842,0.277328,18.5688,10.2709,-1.43372,6.90189,4.75562,0.305696,6.83819e-14,3.8763e-15,-28.3055,-7.22655,-79.9927,28.5486,-17.8067,-22.7099,-23.2976,7.12502,3.7232,-53.2448,6.83819e-14,3.8763e-15,-36.3431,13.4566,77.4049,36.9093,-0.184649,-9.01634,-7.70428,7.12502,16.9307,21.5778,-0.92983,-2.09249,25.6746,42.1641,12.0493,-4.44977,-19.8795,-25.0599,9.54486,-18.0328,22.8854,-6.54613,3.97559,16.2438
7.24688,18.0739,18.8882,-152.821,-108.775,157.823,7.61304,3.31235,2.50734,1.94488,4.59232,1.90065,-2.20573,2.25444,0.129488,-6.87985,7.4926,0.170692,18.721,10.2969,-1.37887,6.93116,4.76184,0.342122,-1.36341e-13,-1.53561e-14,-28.2967,-7.67897,-79.6957,29.1691,-17.2048,-21.8301,-22.7216,7.12502,4.57285,-52.6522,-1.36341e-13,-1.53561e-14,-36.0837,12.8999,77.7913,37.1366,-0.465366,-8.51036,-8.02795,7.12502,17.4177,21.2117,-1.48971,-1.92661,23.981,44.7336,13.2079,-4.67609,-14.3004,-23.4271,9.80851,-19.5531,22.3383,-6.54458,3.2307,16.2674
7.14753,18.0757,18.9648,-157.246,-108.61,161.563,8.33513,3.27022,1.23995,2.13051,4.44369,1.68102,-2.49556,2.18285,0.581826,-6.77893,7.58243,0.221766,18.7506,10.4016,-1.32401,6.92367,4.82044,0.356088,-1.14078e-13,1.32192e-14,-28.2017,-8.09973,-79.6636,29.838,-16.5817,-20.6307,-22.8576,7.12502,5.73091,-52.7601,-1.14078e-13,1.32192e-14,-35.7967,12.319,78.068,37.4313,-0.415778,-8.35445,-8.047,7.12502,17.5678,21.1793,-2.04153,-2.64746,22.3088,47.1392,15.0676,-1.32518,-19.219,-21.7875,9.10636,-20.7529,22.0255,-6.76374,3.47315,16.6968
7.05208,18.0765,19.0385,-161.092,-108.343,164.977,8.75032,3.29705,0.0523547,2.28318,4.37164,1.43642,-2.63685,2.15097,0.977572,-6.64141,7.69289,0.108632,18.5573,10.5256,-1.12295,6.82041,4.89677,0.43543,7.50412e-15,1.72943e-14,-27.9883,-8.79229,-79.5752,30.3295,-15.1676,-19.0841,-22.1908,7.12502,7.22397,-52.0475,7.50412e-15,1.72943e-14,-35.4673,11.6764,78.2998,37.7906,-0.265364,-7.96104,-7.84402,7.12502,17.9463,21.348,-2.9613,-2.92426,20.7567,49.6133,16.0337,1.20469,-21.4098,-20.2966,9.90133,-22.1613,21.1758,-6.32779,2.56375,17.8401
6.93987,18.0802,19.1286,-159.745,-108.179,163.333,8.47201,3.38587,0.605671,2.32942,4.53561,1.54524,-2.40424,2.23058,0.783405,-6.40019,7.81643,0.074526,18.536,10.7112,-1.2226,6.77701,4.97755,0.412725,1.39895e-14,1.52567e-14,-27.9087,-9.3186,-79.4459,30.8778,-13.8915,-17.8237,-21.3399,7.12502,8.44045,-51.1513,1.39895e-14,1.52567e-14,-35.2445,11.1961,78.42,38.166,-0.340132,-7.50504,-7.78243,7.12502,18.385,21.3688,-4.12204,-1.95384,21.2124,51.7166,16.5509,2.60955,-23.8967,-19.2039,10.0111,-21.7396,20.5476,-6.41782,2.781,17.9082
6.83231,18.0778,19.2059,-163.144,-108.031,166.007,8.99815,3.37091,-0.188221,2.51233,4.43768,1.34295,-2.54855,2.18157,1.0012,-6.06537,7.96423,0.281927,18.4417,10.9152,-1.4328,6.71451,5.07724,0.313696,7.96878e-14,-7.60351e-15,-27.8886,-9.7592,-79.4193,31.4907,-12.801,-16.7287,-20.7675,7.12502,9.49709,-50.5335,7.96878e-14,-7.60351e-15,-35.0617,10.9856,78.3784,38.5407,-0.520199,-7.16443,-7.63583,7.12502,18.7127,21.4841,-4.52356,-1.84522,20.0139,53.6539,16.1497,3.73934,-25.7005,-17.5364,10.4585,-22.7012,20.0821,-6.61602,2.23656,18.0688
6.74563,18.0837,19.2799,-164.633,-108.955,167.206,9.27478,3.01902,-0.0852778,2.53399,3.97784,1.2874,-2.65783,1.95168,0.924392,-5.99536,8.09542,0.535078,18.477,11.1029,-1.65642,6.74404,5.16539,0.217873,-3.01904e-15,9.93923e-16,-27.7463,-10.2953,-79.4628,32.0188,-11.9885,-16.2566,-20.2262,7.12502,9.9526,-49.9709,-3.01904e-15,9.93923e-16,-34.7322,10.8658,78.3194,38.8232,-0.862967,-6.98189,-7.80538,7.12502,18.8882,21.2975,-5.43414,-1.98229,19.9186,55.3757,15.8296,3.65145,-26.8297,-16.6307,10.2019,-22.9371,19.6862,-6.47701,1.51276,18.8963
