JuanDHNZ/ProyectoFinalCD/preprocessing/sports_trials_csv/01_06.csv
root1,root2,root3,root4,root5,root6,lowerback1,lowerback2,lowerback3,upperback1,upperback2,upperback3,thorax1,thorax2,thorax3,lowerneck1,lowerneck2,lowerneck3,upperneck1,upperneck2,upperneck3,head1,head2,head3,rclavicle1,rclavicle2,rhumerus1,rhumerus2,rhumerus3,rradius1,rwrist1,rhand1,rhand2,rfingers1,rthumb1,rthumb2,lclavicle1,lclavicle2,lhumerus1,lhumerus2,lhumerus3,lradius1,lwrist1,lhand1,lhand2,lfingers1,lthumb1,lthumb2,rfemur1,rfemur2,rfemur3,rtibia1,rfoot1,rfoot2,rtoes1,lfemur1,lfemur2,lfemur3,ltibia1,lfoot1,lfoot2,ltoes1
23.1604,18.1365,14.5682,3.91268,-22.9187,-0.364102,11.4894,1.41797,1.15581,2.94419,2.06517,2.07727,-3.39753,1.00558,1.21719,-8.8994,0.915563,-2.03252,16.7239,2.80366,-7.32109,6.65544,0.606428,-1.77834,-6.16232e-15,-2.38542e-15,-22.0297,-13.7956,-73.1351,20.7396,-7.3234,-20.7131,-23.7904,7.12502,5.65139,-53.695,-6.16232e-15,-2.38542e-15,-29.3998,15.7131,78.9859,20.1097,-4.88759,-21.3986,-5.32602,7.12502,4.98948,24.5952,3.81974,-3.66291,22.2054,16.9656,-11.9622,-22.2064,39.4497,-24.9002,1.35115,-10.5955,21.5876,-11.2509,7.8011,4.30418
23.1821,18.1246,14.6284,4.1618,-22.5875,-0.489242,11.4425,1.44535,1.19167,2.7966,2.10853,2.03474,-3.52338,1.02716,1.14568,-8.8922,0.894261,-2.26639,16.8655,2.77345,-7.04179,6.6923,0.595631,-1.6533,-8.68689e-14,4.77083e-15,-22.3157,-13.4321,-73.245,21.6345,-7.54985,-20.501,-23.8114,7.12502,5.85612,-53.7105,-8.68689e-14,4.77083e-15,-29.7769,16.9975,78.1644,19.457,-5.46086,-21.8399,-5.61045,7.12502,4.56332,24.3204,3.73029,-3.81976,22.2134,17.1791,-12.203,-22.2795,39.2791,-24.9409,1.16589,-10.3051,21.0392,-11.234,8.87401,4.79288
23.1887,18.1146,14.6994,3.96898,-22.2311,-0.545529,11.5506,1.45197,1.07688,2.82009,2.1034,1.9695,-3.55993,1.02527,1.14076,-9.01071,0.928675,-2.22588,17.1376,2.83383,-7.00347,6.80203,0.618441,-1.64432,2.98177e-15,7.15625e-15,-22.0447,-13.1867,-73.4332,21.405,-7.34508,-20.273,-23.2574,7.12502,6.07624,-53.1503,2.98177e-15,7.15625e-15,-30.3328,18.2427,77.2629,19.1484,-6.23217,-22.2252,-4.92066,7.12502,4.19133,25.0179,4.44574,-4.22622,22.088,16.7099,-11.9353,-22.2429,38.8559,-24.6913,0.876112,-10.1061,20.9675,-11.7107,9.8914,5.42158
23.1917,18.0987,14.7854,3.63286,-21.8154,-0.761733,11.5809,1.46713,1.20433,2.97487,2.1313,1.89524,-3.4079,1.03838,0.989244,-8.92205,1.02896,-1.77565,17.2377,2.96594,-7.3529,6.83186,0.680253,-1.82164,6.55989e-15,-3.97569e-15,-22.1196,-13.225,-73.6401,21.8017,-7.04818,-20.0405,-23.3848,7.12502,6.30075,-53.2711,6.55989e-15,-3.97569e-15,-30.7038,18.7669,76.5788,18.8715,-6.69843,-22.1259,-3.85227,7.12502,4.28723,26.0843,5.32109,-4.20548,22.2148,16.3912,-11.8846,-22.6592,38.4895,-24.1775,0.663036,-9.80147,20.8533,-12.3208,10.6871,7.62708
23.2044,18.0859,14.8768,3.37683,-21.2965,-0.992053,11.5294,1.44271,1.40908,3.1157,2.11739,1.89957,-3.22531,1.03116,0.88398,-8.66024,0.813265,-2.18807,16.9507,2.6408,-7.00069,6.67452,0.543236,-1.66516,-1.13307e-14,3.97569e-15,-21.8909,-13.0216,-73.7645,21.8957,-7.07284,-20.4937,-23.3101,7.12502,5.86314,-53.209,-1.13307e-14,3.97569e-15,-31.0773,19.6715,75.9237,18.4707,-7.2034,-21.8108,-3.53899,7.12502,4.59143,26.3912,6.19903,-3.95627,22.4057,15.9703,-12.0854,-23.231,38.5585,-23.8047,0.637139,-9.58694,20.8525,-12.6208,11.2809,8.67439
23.2882,18.1017,14.9004,4.69891,-20.6625,-1.03997,11.1673,1.31712,1.9543,2.59161,2.01617,1.72536,-3.54645,0.976625,0.412237,-8.34901,0.852139,-2.30019,16.5642,2.67193,-7.01709,6.49624,0.570527,-1.64691,3.20043e-14,-6.36111e-15,-21.3922,-12.6865,-73.9218,21.8741,-7.41448,-20.7104,-22.5515,7.12502,5.65398,-52.456,3.20043e-14,-6.36111e-15,-31.4238,20.8353,75.2128,18.1825,-7.88885,-21.2498,-3.34114,7.12502,5.13317,26.5767,5.23589,-3.91373,22.4849,15.6188,-11.9857,-23.6724,38.383,-25.2582,0.631564,-9.57661,20.869,-12.5433,12.0814,8.01532
23.3132,18.0908,14.987,4.73259,-20.1837,-1.02782,10.9203,1.28622,2.00154,2.64406,1.9684,1.63238,-3.35106,0.954785,0.302366,-8.23765,1.06817,-1.92713,16.5805,2.98565,-7.46913,6.50138,0.710559,-1.82872,-1.98785e-14,-2.38542e-15,-20.984,-12.2205,-74.1511,21.906,-7.9539,-20.4212,-22.1894,7.12502,5.93319,-52.0863,-1.98785e-14,-2.38542e-15,-31.7851,21.303,74.7538,18.088,-8.04859,-20.8391,-3.25255,7.12502,5.52974,26.6553,5.54286,-4.05727,22.3759,15.4691,-11.5963,-24.0967,37.3927,-25.2379,0.620825,-9.69125,20.8122,-12.4508,12.8003,6.19118
23.3418,18.0806,15.0695,4.7715,-19.8843,-1.02935,10.888,1.332,1.9985,2.55034,2.02922,1.57645,-3.42842,0.984346,0.237256,-8.28994,0.79863,-2.4014,16.7019,2.62384,-7.02304,6.52815,0.537642,-1.63705,5.46658e-14,2.3059e-14,-20.9849,-11.6181,-74.2718,22.2847,-8.37617,-20.2711,-22.5534,7.12502,6.07808,-52.4462,5.46658e-14,2.3059e-14,-32.4118,21.464,74.4391,18.2076,-7.88545,-20.221,-3.39003,7.12502,6.12644,26.5014,5.6896,-4.43216,22.1673,15.5241,-11.1722,-24.1729,36.3912,-25.1212,0.827998,-9.85708,20.6628,-12.3311,13.4334,4.52497
23.371,18.0767,15.152,4.80914,-19.5231,-1.03202,10.9314,1.376,1.99332,2.44589,2.08934,1.50501,-3.55813,1.0129,0.15515,-8.2869,0.687477,-2.40289,16.7364,2.47248,-7.00359,6.5343,0.465648,-1.64303,-4.27387e-15,-7.95139e-16,-21.0487,-11.2865,-74.3086,22.8374,-8.26933,-19.6678,-23.3208,7.12502,6.66055,-53.196,-4.27387e-15,-7.95139e-16,-32.9178,21.6126,74.1015,18.2427,-7.68442,-19.5258,-3.33003,7.12502,6.79761,26.5408,5.96531,-4.47438,21.9917,15.4718,-11.6453,-24.199,36.888,-25.0211,1.68512,-10.2298,20.5596,-12.1121,13.4029,3.6684
23.3998,18.0743,15.2379,4.84617,-19.1054,-1.04555,10.9118,1.44492,2.04341,2.39598,2.18381,1.40695,-3.59254,1.05886,0.0120904,-8.34433,0.641144,-2.37182,16.8592,2.40759,-6.94201,6.58118,0.436626,-1.6345,1.35174e-14,-1.19271e-14,-20.8127,-11.5339,-74.1975,23.0325,-7.18935,-17.9674,-24.881,7.12502,8.30176,-54.6979,1.35174e-14,-1.19271e-14,-33.2495,21.7704,73.8306,18.1907,-7.83639,-19.2406,-3.12305,7.12502,7.07287,26.7388,6.33387,-4.14012,21.9049,15.3489,-12.3858,-24.4069,37.7407,-24.9708,2.41033,-10.5891,20.5376,-11.7045,13.4154,3.94984
23.432,18.0709,15.3285,4.8834,-18.7635,-1.03491,10.8517,1.56063,2.08651,2.36884,2.33862,1.3389,-3.58102,1.13525,-0.102457,-8.43618,0.489549,-2.60344,17.0211,2.21756,-6.73478,6.64062,0.340783,-1.54623,2.60408e-14,1.23246e-14,-20.7459,-11.4188,-74.2099,23.1373,-8.24253,-19.4005,-23.7897,7.12502,6.91859,-53.6567,2.60408e-14,1.23246e-14,-33.6305,22.0009,73.6482,18.2948,-8.30801,-18.9313,-3.29952,7.12502,7.37151,26.5521,6.71028,-3.92648,21.7534,15.0911,-12.463,-24.7732,37.669,-24.9124,2.38141,-10.7804,20.6293,-11.4427,14.0421,5.24786
23.469,18.0679,15.4239,4.9209,-18.4462,-1.0143,10.8526,1.63217,2.16282,2.31607,2.4419,1.28955,-3.62948,1.18502,-0.211437,-8.52862,0.378577,-2.80325,17.163,2.09518,-6.63352,6.69783,0.271382,-1.49176,-2.05742e-14,2.0276e-14,-20.9527,-11.3412,-74.1318,24.0299,-8.37434,-18.2228,-21.5139,7.12502,8.05532,-51.3403,-2.05742e-14,2.0276e-14,-34.043,22.126,73.5485,18.3683,-8.34531,-18.301,-3.65938,7.12502,7.97984,26.17,7.13584,-3.77377,21.5522,14.7264,-12.7157,-25.1445,37.9217,-24.8259,2.39269,-11.043,20.8096,-11.2815,14.6955,5.38355
23.5091,18.0659,15.5197,4.95852,-18.0696,-1.0222,10.8568,1.57617,2.2455,2.21758,2.37743,1.21021,-3.72874,1.15084,-0.333342,-8.37708,0.435725,-2.85411,17.2081,2.15543,-6.51513,6.68491,0.30831,-1.44063,-2.8128e-14,5.96354e-15,-21.0519,-11.3358,-74.1772,24.687,-8.02457,-17.7037,-24.2115,7.12502,8.55627,-54.0182,-2.8128e-14,5.96354e-15,-34.5255,21.5931,73.6641,18.5829,-7.39212,-17.7397,-3.47017,7.12502,8.52157,26.3379,7.59343,-3.66728,21.3826,14.3881,-13.1145,-25.3699,38.4404,-24.7636,2.7678,-11.4214,20.9931,-10.9283,15.0099,4.36739
23.55,18.0678,15.6202,4.99626,-17.7813,-0.976479,10.7923,1.72675,2.36354,2.16952,2.58772,1.15738,-3.73115,1.25348,-0.481652,-8.33786,0.24934,-3.30519,17.2281,1.91272,-6.18691,6.67436,0.19069,-1.28045,1.88845e-14,1.11319e-14,-21.0294,-11.8003,-73.8769,25.009,-7.60213,-17.8461,-28.5384,7.12502,8.41883,-58.3506,1.88845e-14,1.11319e-14,-34.7948,20.5336,74.3107,19.0204,-6.28387,-17.3998,-3.47524,7.12502,8.84953,26.3192,7.98153,-3.62911,21.119,14.1533,-13.1543,-25.5148,38.3702,-24.67,2.94158,-11.7841,21.145,-10.6448,15.3256,3.55285
23.5884,18.0735,15.7263,5.03516,-17.6108,-0.84526,10.5765,1.78495,2.24501,2.18406,2.63794,0.982778,-3.5926,1.28133,-0.595103,-8.49505,0.148116,-3.03429,17.1925,1.75432,-6.26136,6.68894,0.124796,-1.36192,-5.75482e-14,3.97569e-16,-20.8664,-11.0759,-74.3216,25.1939,-8.99818,-18.0333,-25.5556,7.12502,8.23822,-55.375,-5.75482e-14,3.97569e-16,-35.1917,20.1229,74.3117,19.5425,-5.67857,-17.0854,-4.07055,7.12502,9.15297,25.7108,8.26044,-3.49783,20.7378,14.0195,-13.0747,-25.668,38.0461,-24.5639,3.11254,-12.2213,21.2673,-10.2173,15.6713,1.92674
23.6281,18.0741,15.8308,5.07394,-17.3985,-0.662032,10.2974,1.84901,2.08095,2.24264,2.68963,0.816249,-3.37567,1.3115,-0.670895,-8.7704,0.0169934,-2.7987,17.2749,1.57833,-6.36133,6.76192,0.0399729,-1.44882,-7.25564e-15,-5.1684e-15,-20.7538,-10.2033,-74.7656,25.5172,-10.837,-19.4084,-23.9222,7.12502,6.91092,-53.7894,-7.25564e-15,-5.1684e-15,-35.3797,19.6493,74.5054,19.8976,-4.99953,-16.9413,-4.48233,7.12502,9.292,25.2929,8.41571,-3.5194,20.2808,14.0135,-12.6584,-25.8308,37.3264,-24.533,3.49841,-12.7841,21.3479,-9.44078,15.7864,0.050108
23.6716,18.0677,15.9349,5.11357,-17.0608,-0.572045,10.1776,1.94618,2.06219,2.23011,2.81147,0.749784,-3.31703,1.37288,-0.740252,-8.85779,-0.14655,-2.97612,17.404,1.36633,-6.18569,6.81304,-0.0636684,-1.38198,-9.15403e-14,-5.96354e-15,-20.8303,-10.4466,-74.6611,25.9293,-11.086,-20.2725,-24.309,7.12502,6.07669,-54.2018,-9.15403e-14,-5.96354e-15,-35.5096,19.0001,74.9956,20.1336,-4.14053,-16.5381,-4.58224,7.12502,9.68104,25.1753,8.58321,-3.51586,19.9835,14.077,-11.9314,-26.2702,35.9624,-24.4844,3.93543,-13.2735,21.4242,-8.8183,15.4911,-1.18198
23.7149,18.0623,16.0413,5.15486,-16.7301,-0.510488,10.1078,2.05365,2.00781,2.16828,2.94856,0.754157,-3.34222,1.44097,-0.721159,-8.57622,-0.269623,-3.3858,17.3314,1.18872,-5.88123,6.73452,-0.142145,-1.22938,9.29318e-14,8.74653e-15,-21.1335,-10.8486,-74.3878,26.5675,-11.0758,-20.3446,-23.4616,7.12502,6.0071,-53.3564,9.29318e-14,8.74653e-15,-35.9187,19.0279,75.1661,20.4547,-4.30386,-15.4852,-4.57547,7.12502,10.6967,25.1322,8.76372,-3.41395,19.7241,14.1703,-11.4475,-26.6845,34.8876,-24.4434,4.74468,-13.8287,21.5161,-8.28623,14.5765,-1.84886
23.757,18.0628,16.1501,5.19681,-16.3889,-0.428102,9.95959,2.15252,1.90847,2.11887,3.06656,0.731471,-3.31272,1.50079,-0.698727,-8.13281,-0.33965,-3.54737,17.099,1.05351,-5.74332,6.57868,-0.190416,-1.16589,1.42131e-14,2.18663e-14,-21.45,-10.6021,-74.3301,27.3327,-11.8114,-20.3855,-22.8078,7.12502,5.96762,-52.7037,1.42131e-14,2.18663e-14,-36.3575,19.006,75.3169,20.7843,-4.45344,-14.7956,-4.719,7.12502,11.3619,24.9532,8.90817,-3.53047,19.3793,14.3565,-11.5331,-26.7216,34.7799,-24.4586,5.58983,-14.4191,21.5896,-7.53705,13.4809,-1.97514
23.8008,18.0683,16.2672,5.23812,-15.9845,-0.373285,9.73641,2.18234,1.90015,2.16266,3.09563,0.629293,-3.13784,1.51781,-0.792287,-8.1485,-0.398112,-3.32871,16.9984,0.939036,-5.75261,6.54684,-0.22863,-1.21321,2.80286e-14,6.75868e-15,-21.4517,-10.412,-74.5089,27.8824,-12.4207,-20.0204,-22.4147,7.12502,6.32009,-52.3004,2.80286e-14,6.75868e-15,-36.473,18.788,75.5347,21.0217,-4.08501,-14.6202,-5.07018,7.12502,11.531,24.5926,9.05883,-3.57614,19.099,14.631,-11.756,-26.8084,34.667,-24.3981,6.05429,-14.8999,21.6247,-7.38849,12.5799,-1.30959
23.85,18.0774,16.3894,5.28439,-15.683,-0.217454,9.49291,2.30161,1.8832,2.14429,3.24426,0.539563,-3.01415,1.59344,-0.882391,-8.10562,-0.559826,-3.4873,17.0387,0.704786,-5.52927,6.54798,-0.333181,-1.13428,5.06901e-15,-2.94201e-14,-21.6357,-10.5021,-74.4232,28.4137,-12.9255,-19.7358,-22.0127,7.12502,6.59484,-51.89,5.06901e-15,-2.94201e-14,-36.6704,18.6331,75.7954,21.3526,-4.01949,-14.1181,-5.36851,7.12502,12.0152,24.2666,9.13832,-3.55465,18.6702,14.9349,-11.7175,-26.8859,34.1934,-24.2932,6.30654,-15.4427,21.6653,-7.28106,11.834,-0.0733245
23.8992,18.0896,16.5077,5.33205,-15.3871,-0.109893,9.32242,2.32962,1.74798,2.17512,3.26289,0.495461,-2.89244,1.60545,-0.845715,-8.25044,-0.587136,-3.45571,17.0648,0.660557,-5.45109,6.58061,-0.348683,-1.11882,6.24184e-14,1.98785e-15,-21.6271,-10.5087,-74.4887,29.0281,-13.3225,-19.6977,-22.7907,7.12502,6.63168,-52.6669,6.24184e-14,1.98785e-15,-36.7887,18.7689,75.8785,21.6254,-3.98348,-13.108,-5.7423,7.12502,12.9891,23.8333,9.1756,-3.55889,18.266,15.3228,-11.8696,-26.8316,34.1558,-24.2152,6.55774,-15.9188,21.7451,-6.9573,11.118,0.398637
23.9477,18.0951,16.624,5.37351,-14.9621,-0.149267,9.22805,2.48857,1.89877,2.0598,3.49105,0.557961,-2.94885,1.7169,-0.8899,-7.70281,-0.836834,-3.96293,16.9937,0.314342,-5.19498,6.45954,-0.515528,-0.977172,-2.31584e-14,1.19271e-14,-22.1776,-10.7472,-74.0581,29.8108,-13.7677,-20.1834,-24.2378,7.12502,6.16277,-54.1281,-2.31584e-14,1.19271e-14,-37.139,18.5354,76.2139,21.7996,-4.13529,-12.0429,-6.46886,7.12502,14.0156,23.0386,9.18213,-3.55681,18.079,15.9144,-11.8217,-27.0048,33.625,-24.1242,6.95481,-16.2854,21.8216,-6.61575,10.298,-0.646215
24.0025,18.0948,16.7446,5.41506,-14.499,-0.140272,9.17297,2.37873,1.99703,2.02723,3.34849,0.38113,-2.93953,1.64543,-1.10937,-8.01343,-0.852336,-3.50426,17.324,0.27602,-5.26501,6.61665,-0.524985,-1.083,1.83876e-14,9.93923e-15,-22.2266,-10.8197,-74.4646,30.2921,-13.955,-20.8985,-24.69,7.12502,5.47237,-54.5994,1.83876e-14,9.93923e-15,-37.4176,18.3934,76.1152,22.2257,-3.85227,-11.9416,-6.90717,7.12502,14.1132,22.5935,9.06212,-3.79725,17.7862,16.6785,-11.4405,-27.2355,32.5099,-23.979,7.03198,-16.6546,21.8665,-6.59407,9.76311,-1.56326
24.0607,18.1068,16.868,5.46464,-14.0823,0.0202256,9.21148,2.39001,1.97107,1.90712,3.36074,0.266,-3.07952,1.64913,-1.22052,-8.26074,-0.998111,-3.38892,17.6325,0.0894458,-5.25186,6.75652,-0.618318,-1.11761,-3.6477e-14,2.10712e-14,-22.4835,-11.0152,-74.5028,30.8708,-14.2348,-20.7634,-24.488,7.12502,5.60278,-54.3939,-3.6477e-14,2.10712e-14,-37.6768,18.1999,76.2935,22.5943,-3.8286,-12.1148,-6.88119,7.12502,13.9464,22.6311,8.7814,-4.08526,17.2738,17.5988,-11.5489,-27.3318,32.062,-23.8281,7.07845,-17.1854,21.9043,-6.69937,9.19323,-0.595825
24.1189,18.1289,16.991,5.51797,-13.728,0.175172,9.13856,2.42953,1.88415,1.75215,3.4049,0.212785,-3.20024,1.6695,-1.23304,-7.873,-1.14964,-3.52515,17.5753,-0.152247,-5.08185,6.66763,-0.721861,-1.05651,-2.52457e-14,3.57812e-15,-22.8453,-10.7077,-74.4576,31.479,-14.9939,-20.7512,-24.0293,7.12502,5.61452,-53.9349,-2.52457e-14,3.57812e-15,-38.0765,18.2734,76.3576,22.843,-3.91309,-11.8164,-7.09807,7.12502,14.2339,22.3942,8.36473,-4.1656,16.797,18.7775,-11.9408,-27.4891,31.8578,-23.6494,7.44358,-17.792,21.8977,-6.64832,8.40235,0.604981
24.1761,18.1443,17.1131,5.56296,-13.328,0.172077,8.85301,2.56397,2.0095,1.79306,3.58999,0.256877,-2.98853,1.76393,-1.26198,-7.58118,-1.38898,-3.99523,17.493,-0.493077,-4.72475,6.59148,-0.880058,-0.888281,-2.90226e-14,-1.90833e-14,-22.9881,-10.734,-74.1524,31.871,-15.2431,-21.1148,-24.0968,7.12502,5.26346,-54.0114,-2.90226e-14,-1.90833e-14,-38.0322,18.0977,76.8811,22.8963,-3.59041,-12.0529,-7.44056,7.12502,14.006,22.0676,7.8529,-4.49455,16.4344,20.1773,-11.7038,-27.4849,30.9659,-23.3962,7.72597,-18.2073,21.8296,-6.63074,7.71557,0.376807
24.2315,18.1502,17.2333,5.60648,-12.8998,0.160763,8.67327,2.72003,2.09448,1.82938,3.80254,0.326943,-2.84322,1.87151,-1.24878,-7.67804,-1.61725,-4.40663,17.685,-0.780954,-4.41701,6.67431,-1.02587,-0.747615,-2.48481e-15,-9.14409e-15,-23.1447,-11.0633,-73.773,32.3287,-15.0894,-20.722,-24.6709,7.12502,5.64275,-54.5758,-2.48481e-15,-9.14409e-15,-37.7545,17.7045,77.5458,22.8219,-3.39698,-12.4056,-7.17285,7.12502,13.6661,22.3585,7.26237,-4.9921,16.0402,21.6874,-10.875,-27.2479,29.2851,-23.1176,7.86697,-18.5827,21.7654,-6.64569,7.16804,-0.248673
24.2878,18.1586,17.3532,5.65219,-12.5409,0.156039,8.64695,2.79004,2.12726,1.66582,3.90264,0.356342,-2.99452,1.91803,-1.25143,-7.33693,-1.71074,-4.38846,17.7988,-0.924361,-4.43354,6.65028,-1.09367,-0.764967,9.6013e-14,1.66979e-14,-23.5794,-10.87,-73.6199,32.9997,-15.5497,-20.1087,-24.8493,7.12502,6.23487,-54.7375,9.6013e-14,1.66979e-14,-37.8929,17.4263,77.8175,22.8954,-3.35418,-12.0982,-6.88894,7.12502,13.9624,22.6222,6.61225,-5.14122,15.7266,23.3185,-10.8414,-27.0882,28.5349,-22.8047,8.11868,-18.9752,21.6767,-6.63166,6.5718,-0.152017
24.3454,18.1739,17.4754,5.69292,-12.1397,0.107282,8.43028,2.73067,2.1787,1.64757,3.82537,0.402745,-2.89569,1.88102,-1.21269,-6.95323,-1.7064,-4.07613,17.55,-0.93768,-4.78222,6.49792,-1.09566,-0.922201,5.98342e-14,-8.34896e-15,-23.6864,-10.4325,-73.7053,33.5311,-16.0198,-20.1898,-24.8421,7.12502,6.1566,-54.7327,5.98342e-14,-8.34896e-15,-38.0526,17.6499,77.8737,23.0667,-3.41367,-11.7549,-7.39277,7.12502,14.2932,22.0953,5.86301,-5.18053,15.5111,25.0985,-11.8381,-27.0792,29.3494,-22.4804,8.50182,-19.3136,21.5345,-6.62524,5.7395,0.221964
24.4015,18.1917,17.5959,5.73428,-11.6754,0.0956574,8.18086,2.68622,2.1698,1.67588,3.76052,0.449913,-2.73398,1.85183,-1.13799,-6.83708,-1.78244,-4.01123,17.5016,-1.0494,-4.83969,6.46038,-1.1466,-0.957862,-1.98785e-14,-7.95139e-16,-23.8076,-10.5023,-73.6996,33.9762,-15.9431,-20.3505,-24.6568,7.12502,6.00139,-54.5518,-1.98785e-14,-7.95139e-16,-38.0551,17.5345,78.1684,23.1954,-3.22573,-11.4545,-7.52261,7.12502,14.5826,21.9448,5.01657,-5.2496,15.2828,26.9754,-12.3663,-27.2101,29.2209,-22.164,8.57586,-19.6128,21.4134,-6.60099,5.14163,0.396496
24.457,18.2055,17.7119,5.77008,-11.2082,0.0311918,8.11722,2.73942,2.29603,1.6396,3.84131,0.452475,-2.72532,1.89112,-1.21119,-6.99375,-1.99583,-4.2337,17.8706,-1.34657,-4.46402,6.60958,-1.28568,-0.829983,1.03368e-14,9.54166e-15,-24.156,-11.1412,-73.5477,34.6392,-15.6876,-20.0667,-24.0531,7.12502,6.27541,-53.9401,1.03368e-14,9.54166e-15,-37.9292,17.1661,78.5339,23.2742,-3.00704,-11.2776,-7.26685,7.12502,14.753,22.1881,4.15086,-5.28252,15.1562,28.9384,-11.7469,-27.589,26.9525,-21.8249,8.62363,-19.8455,21.2926,-6.59033,4.61118,0.447147
24.5104,18.2173,17.8284,5.79147,-10.715,-0.151545,8.1561,2.78865,2.57188,1.56141,3.93406,0.479399,-2.80777,1.93331,-1.35078,-6.96081,-2.23092,-4.60487,18.0497,-1.68702,-4.02158,6.66958,-1.442,-0.655454,2.0276e-14,-1.07344e-14,-24.5413,-11.3495,-73.4957,35.3463,-15.5159,-19.9968,-23.6118,7.12502,6.34293,-53.4969,2.0276e-14,-1.07344e-14,-37.8205,16.9442,78.7778,23.2708,-2.875,-11.3693,-7.27059,7.12502,14.6648,22.1908,3.23022,-5.36331,15.1696,31.0257,-11.3621,-27.964,25.0493,-21.4209,9.07605,-20.0091,21.0909,-6.52646,3.63857,0.285797
24.5577,18.2372,17.9449,5.79956,-10.2356,-0.427772,8.07453,2.74812,2.77663,1.56504,3.89838,0.583157,-2.75369,1.91519,-1.34959,-6.82025,-2.35251,-4.77395,18.0128,-1.87388,-3.8305,6.63768,-1.52491,-0.578782,-6.33129e-14,8.74653e-15,-24.6105,-10.805,-73.6992,35.8346,-16.0047,-20.0571,-24.4908,7.12502,6.28473,-54.3776,-6.33129e-14,8.74653e-15,-37.6967,16.8661,78.9534,23.3447,-2.67535,-11.3139,-7.02849,7.12502,14.7181,22.429,2.24609,-5.41461,15.3198,33.1934,-12.0774,-28.0833,24.9972,-20.944,9.5383,-20.0347,20.852,-6.52399,2.65457,0.654367
24.6057,18.261,18.0605,5.81853,-9.80616,-0.589106,7.90062,2.68445,2.81524,1.59442,3.81277,0.652042,-2.63243,1.875,-1.28135,-6.77045,-2.35946,-4.56776,18.1005,-1.9023,-3.87951,6.65295,-1.5304,-0.630736,-1.37161e-14,0,-24.518,-10.1019,-74.0115,36.1838,-17.003,-20.6152,-25.3227,7.12502,5.74584,-55.2248,-1.37161e-14,0,-37.5922,16.9423,79.0529,23.5815,-2.69887,-11.3608,-6.75003,7.12502,14.6729,22.7108,1.14939,-5.36033,15.3992,35.4133,-12.7764,-28.2841,24.8555,-20.4311,9.52891,-20.0836,20.5843,-6.68778,2.14664,1.99936
24.657,18.2844,18.1759,5.85409,-9.35316,-0.596244,7.85151,2.62126,2.75911,1.50599,3.72609,0.677927,-2.70552,1.83065,-1.21565,-6.85989,-2.5064,-4.71466,18.3931,-2.11377,-3.60786,6.76853,-1.62791,-0.54084,-3.43897e-14,1.15295e-14,-24.6409,-9.97237,-74.0137,36.4438,-16.4316,-20.3697,-25.1935,7.12502,5.9829,-55.0891,-3.43897e-14,1.15295e-14,-37.4907,16.9619,79.1235,23.5952,-2.87861,-11.3463,-6.7831,7.12502,14.6869,22.6767,-0.0813013,-5.2407,15.3625,37.6947,-13.4124,-28.6217,24.5549,-19.8623,9.28768,-20.2679,20.1759,-6.91512,1.80762,4.0405
24.7029,18.3039,18.2896,5.88198,-8.86856,-0.650012,7.70019,2.52055,2.74361,1.46145,3.58864,0.715897,-2.67625,1.76293,-1.14856,-6.77516,-2.58664,-4.83869,18.4715,-2.2456,-3.40467,6.78373,-1.68415,-0.465369,1.16289e-14,9.14409e-15,-24.8,-9.5899,-74.1664,36.8577,-16.065,-21.4535,-25.2892,7.12502,4.93647,-55.2117,1.16289e-14,9.14409e-15,-37.3256,16.8128,79.1819,23.5143,-2.81747,-11.0141,-7.02358,7.12502,15.0069,22.4126,-1.30943,-5.13498,15.416,39.9876,-14.9534,-28.5584,25.6922,-19.2776,9.34382,-20.4419,19.6884,-7.2174,1.19533,6.17069
24.7428,18.3198,18.4027,5.91597,-8.41066,-0.660005,7.39527,2.4339,2.65395,1.49445,3.45608,0.726689,-2.48357,1.70134,-1.05904,-6.73837,-2.65201,-4.91415,18.5719,-2.36097,-3.19656,6.8138,-1.72964,-0.39589,2.45499e-14,1.23246e-14,-24.8693,-9.39228,-74.4485,37.3779,-15.8364,-22.1562,-24.8102,7.12502,4.25797,-54.7474,2.45499e-14,1.23246e-14,-37.1206,16.4143,79.3801,23.6138,-2.41173,-10.8492,-7.06033,7.12502,15.1657,22.3639,-2.57206,-5.13343,15.4049,42.2368,-16.7179,-28.1052,27.367,-18.7783,9.79008,-20.7039,19.2465,-7.12408,0.226587,7.41059
24.7808,18.3327,18.5125,5.93725,-7.90232,-0.740617,7.26484,2.38199,2.57566,1.54023,3.37888,0.832224,-2.37752,1.66567,-0.892511,-7.13488,-2.80165,-5.16933,19.0436,-2.53931,-2.90674,7.04683,-1.82215,-0.286739,3.78685e-14,1.59028e-14,-24.9355,-9.20989,-74.6413,38.1161,-16.1177,-22.6112,-24.6086,7.12502,3.8186,-54.5542,3.78685e-14,1.59028e-14,-36.6823,16.2322,79.724,23.5564,-2.3266,-11.1371,-6.84544,7.12502,14.8884,22.5996,-3.85245,-5.221,15.5038,44.4192,-17.2166,-28.052,26.7044,-18.3199,10.2538,-20.8746,18.8729,-6.85618,-0.727507,9.43366
24.8206,18.3412,18.6227,5.94658,-7.40784,-0.888333,7.18773,2.32986,2.58398,1.56736,3.31145,0.990345,-2.31782,1.6334,-0.724428,-7.46222,-2.97304,-5.74129,19.5236,-2.747,-2.39904,7.28281,-1.93121,-0.0568042,1.21259e-14,1.07344e-14,-25.0329,-8.33219,-74.8058,38.8698,-17.0767,-22.6489,-24.2223,7.12502,3.78212,-54.1685,1.21259e-14,1.07344e-14,-36.1467,16.344,79.9727,23.3383,-2.74179,-11.4348,-6.60671,7.12502,14.6016,22.8593,-5.07272,-5.22967,15.722,46.5146,-17.0347,-28.2472,24.48,-17.8512,10.209,-20.8943,18.6043,-6.82111,-1.12273,10.1398
24.8609,18.3508,18.736,5.97287,-7.0428,-0.943186,6.96883,2.30696,2.59537,1.59197,3.27435,1.00426,-2.17193,1.6173,-0.7024,-7.35611,-3.07903,-5.91957,19.5368,-2.92427,-2.132,7.27846,-2.00501,0.0453976,1.63003e-14,-1.63003e-14,-25.1387,-7.02484,-75.276,39.8639,-19.0862,-22.4339,-24.9001,7.12502,3.98973,-54.8425,1.63003e-14,-1.63003e-14,-35.698,16.0121,80.161,23.2743,-3.08406,-11.4061,-6.4644,7.12502,14.6293,22.9996,-6.27194,-5.20261,15.7881,48.5154,-16.5838,-28.1504,21.8883,-17.4412,9.98782,-20.9819,18.4723,-7.06191,-1.32023,9.93609
24.8993,18.3576,18.8426,5.98877,-6.59598,-1.0367,6.89534,2.2592,2.72357,1.54787,3.21694,0.92807,-2.16669,1.58793,-0.845086,-7.12375,-3.11932,-5.37903,19.3669,-3.02404,-2.42656,7.16652,-2.03428,-0.141168,-5.71506e-14,1.11319e-14,-25.3561,-6.77854,-75.6101,40.4008,-19.1517,-21.3288,-24.1652,7.12502,5.05692,-54.0848,-5.71506e-14,1.11319e-14,-35.363,14.8785,80.4672,23.325,-2.72307,-11.4895,-6.58806,7.12502,14.5489,22.8817,-7.4361,-5.33426,15.9056,50.4207,-15.478,-27.9085,17.972,-17.1018,9.915,-21.0239,18.4536,-7.32429,-1.78505,9.99868
24.938,18.3599,18.948,6.00656,-6.03437,-1.0922,6.87952,2.14217,2.81052,1.44091,3.06914,0.88489,-2.26612,1.51172,-0.927922,-7.08767,-3.16462,-5.13222,19.5576,-3.10593,-2.49584,7.21648,-2.06548,-0.21248,-1.5207e-14,-1.47101e-14,-25.6848,-6.99228,-75.7504,40.7419,-17.9003,-20.0761,-23.1181,7.12502,6.26636,-53.0054,-1.5207e-14,-1.47101e-14,-35.0212,13.752,80.7901,23.2913,-2.13205,-11.4731,-6.38987,7.12502,14.5647,23.0788,-8.57848,-5.50562,16.0442,52.2064,-14.1409,-27.6347,13.2982,-16.8071,9.79493,-21.0964,18.5179,-7.5847,-2.3089,10.3201
24.9733,18.3588,19.0564,6.02934,-5.50732,-1.12125,6.71192,2.05487,2.80788,1.41839,2.94859,0.917376,-2.20213,1.45275,-0.876645,-7.1404,-3.27451,-5.30744,19.7508,-3.25742,-2.31093,7.29814,-2.13847,-0.14002,-3.07122e-14,1.19271e-14,-25.8098,-7.07461,-75.8616,40.9895,-17.1961,-19.3755,-22.4677,7.12502,6.94271,-52.3338,-3.07122e-14,1.19271e-14,-34.4818,13.3983,80.969,23.1238,-2.30664,-11.2941,-6.04427,7.12502,14.7372,23.4119,-9.71197,-5.64731,16.1703,53.8559,-12.6739,-27.2411,8.39373,-16.5613,9.7656,-21.1927,18.6589,-7.87767,-2.87493,10.2991
25.0066,18.3598,19.1625,6.01395,-4.92046,-1.32725,6.59668,1.93339,2.96906,1.3963,2.79697,1.0053,-2.16256,1.37703,-0.85989,-6.7896,-3.30501,-5.10639,19.5227,-3.31229,-2.54615,7.15344,-2.16384,-0.24442,-7.95139e-16,7.95139e-16,-25.8024,-6.93105,-76.0615,41.1384,-16.8485,-19.1486,-22.3107,7.12502,7.16168,-52.1696,-7.95139e-16,7.95139e-16,-34.0622,13.4438,80.9656,23.0012,-3.02842,-11.4675,-6.28262,7.12502,14.5701,23.1857,-10.7767,-5.80618,16.5161,55.3424,-11.2235,-26.8561,3.79296,-16.2664,9.98057,-21.0942,18.794,-8.21976,-3.69563,9.9838
25.0407,18.3647,19.2638,5.98156,-4.305,-1.59332,6.50129,1.78705,3.21368,1.44431,2.61547,1.06962,-2.05824,1.28756,-0.911226,-6.71959,-3.33643,-4.88361,19.4853,-3.36222,-2.70284,7.12132,-2.18374,-0.333794,5.86415e-15,7.95139e-16,-25.6623,-6.6952,-76.3035,41.211,-16.7104,-19.3783,-21.2633,7.12502,6.93995,-51.1296,5.86415e-15,7.95139e-16,-33.4363,13.2709,81.0285,22.8729,-3.5923,-11.7901,-6.71299,7.12502,14.2593,22.7775,-11.8156,-5.88625,16.9666,56.6793,-9.5871,-26.6301,-0.699939,-15.9433,10.004,-20.895,18.9248,-8.54466,-4.32051,9.78436
25.0752,18.3652,19.3632,5.96196,-3.76825,-1.79022,6.40148,1.6964,3.39772,1.55313,2.50083,1.12435,-1.88922,1.23351,-0.942919,-7.44153,-3.51807,-5.46703,20.2036,-3.60631,-1.94767,7.5161,-2.29386,-0.0373099,-3.44891e-14,-2.14687e-14,-25.6455,-6.53264,-76.5446,41.5677,-16.4808,-19.9799,-19.9817,7.12502,6.35919,-49.8662,-3.44891e-14,-2.14687e-14,-32.5373,12.8823,81.2334,22.6479,-4.02209,-11.8722,-7.03305,7.12502,14.1802,22.463,-12.8895,-5.82815,17.354,57.8887,-7.39196,-26.372,-5.65869,-15.6863,9.60842,-20.7198,19.1468,-8.70315,-4.50834,8.77445
25.112,18.3615,19.4686,5.94225,-3.18407,-1.96638,6.28394,1.59093,3.64844,1.58493,2.37115,1.1532,-1.78699,1.17022,-1.03883,-7.74728,-3.63925,-5.8188,20.5924,-3.78747,-1.45726,7.72089,-2.37005,0.153693,-3.05134e-14,-1.90833e-14,-25.9066,-6.95245,-76.7471,42.1712,-15.5926,-19.7637,-20.1604,7.12502,6.56795,-50.0386,-3.05134e-14,-1.90833e-14,-31.8461,11.7756,81.7345,23.0425,-3.71445,-11.8815,-4.99693,7.12502,14.1712,24.4997,-13.9645,-5.72005,17.7138,58.9709,-5.61955,-25.8989,-9.10419,-15.4841,9.45268,-20.5897,19.4483,-8.99494,-5.00245,8.8401
25.1469,18.3548,19.5779,5.92773,-2.57745,-2.10444,6.03628,1.46454,3.91374,1.61815,2.20574,1.11394,-1.6101,1.09086,-1.20677,-7.73173,-3.68537,-5.7679,20.727,-3.8826,-1.3334,7.76539,-2.40226,0.17609,-7.55382e-15,9.54166e-15,-26.1254,-7.33031,-77.0352,42.6734,-14.7966,-19.0904,-20.9706,7.12502,7.2179,-50.8275,-7.55382e-15,9.54166e-15,-31.2557,10.9541,81.9219,23.1229,-3.50398,-12.0867,-4.58384,7.12502,13.9735,24.9266,-15.0246,-5.6563,18.0004,59.9385,-4.72204,-25.2144,-10.4862,-15.3497,9.71438,-20.5312,19.7923,-9.31956,-5.89992,9.03082
25.1769,18.3484,19.6852,5.92538,-2.08541,-2.19529,6.01185,1.33605,3.90995,1.4943,2.03892,1.15811,-1.7341,1.00417,-1.14924,-7.43302,-3.65584,-5.5745,20.6849,-3.86196,-1.48779,7.68892,-2.3906,0.10223,1.19271e-15,3.18055e-15,-26.5264,-6.78487,-77.279,43.0748,-14.6944,-19.2064,-21.0138,7.12502,7.10588,-50.8746,1.19271e-15,3.18055e-15,-30.8781,10.7138,81.881,22.8676,-3.7172,-12.255,-4.94548,7.12502,13.8113,24.576,-16.0791,-5.50136,18.2194,60.7915,-4.19381,-24.4456,-11.0976,-15.2439,9.95243,-20.4953,20.2298,-9.69214,-6.80575,9.78541
25.2025,18.342,19.7846,5.92377,-1.51176,-2.267,6.10087,1.13924,3.86949,1.39768,1.78274,1.14949,-1.89663,0.872784,-1.12126,-7.34228,-3.59856,-5.20192,20.6549,-3.81537,-1.64584,7.64823,-2.35406,-0.00410708,-8.15017e-15,1.43125e-14,-26.7025,-6.20074,-77.6644,43.2476,-14.5751,-19.9992,-20.4743,7.12502,6.34055,-50.3594,-8.15017e-15,1.43125e-14,-30.3089,10.6708,81.62,22.57,-4.12999,-12.4339,-5.32795,7.12502,13.6388,24.2052,-17.1115,-5.30781,18.5174,61.5495,-3.1558,-23.8848,-12.5366,-15.1816,10.0434,-20.4396,20.7796,-10.1087,-7.65374,10.6344
25.2292,18.3277,19.8834,5.92011,-0.897672,-2.33679,6.1004,1.16281,4.06374,1.34072,1.82882,1.16823,-1.94735,0.893362,-1.21466,-7.30129,-3.80938,-5.48719,20.8399,-4.11443,-1.37643,7.72135,-2.49555,0.102441,4.67144e-15,-5.96354e-15,-26.9531,-6.59006,-77.5301,43.3156,-14.1423,-20.0597,-19.9917,7.12502,6.28213,-49.8785,4.67144e-15,-5.96354e-15,-29.6998,10.1226,81.879,22.5704,-4.39877,-12.6261,-5.55154,7.12502,13.4536,23.994,-18.1642,-5.23222,18.8037,62.2038,-0.986453,-23.0377,-14.9668,-15.1338,9.93016,-20.3868,21.3425,-10.632,-8.18211,10.6408
25.2578,18.3094,19.989,5.91099,-0.463016,-2.44026,6.04537,1.10907,4.2397,1.28746,1.76725,1.15764,-1.9689,0.860843,-1.31876,-7.1195,-3.92115,-5.71305,20.826,-4.28859,-1.16712,7.6988,-2.57599,0.196169,-3.18055e-15,-1.98785e-14,-27.2948,-6.7595,-77.6173,43.6032,-13.6584,-19.6347,-19.8662,7.12502,6.6925,-49.7405,-3.18055e-15,-1.98785e-14,-29.3939,9.85622,81.8986,22.8663,-4.47236,-12.7139,-5.66277,7.12502,13.3689,23.8883,-19.2858,-5.13846,19.0155,62.7232,0.083438,-22.1526,-15.4536,-15.02,9.6585,-20.3224,21.8787,-11.2699,-8.3002,10.3894
25.2823,18.295,20.0995,5.89645,-0.134671,-2.56692,5.91312,1.08501,4.31336,1.34553,1.73122,1.19026,-1.83587,0.846053,-1.31965,-7.30284,-3.94962,-5.68455,20.8755,-4.31148,-1.19819,7.74739,-2.58799,0.174697,-3.79679e-14,-1.35174e-14,-27.5152,-6.69342,-77.7581,43.9449,-13.7191,-19.6997,-19.6528,7.12502,6.62969,-49.529,-3.79679e-14,-1.35174e-14,-28.8252,9.54149,82.015,23.0383,-4.21347,-13.0241,-6.11192,7.12502,13.0699,23.4586,-20.342,-4.92196,19.2823,63.071,0.900363,-21.3309,-15.3993,-14.8867,9.56717,-20.2321,22.4172,-11.7133,-8.39875,7.54719
25.308,18.284,20.2056,5.87372,0.303474,-2.70351,5.82178,1.04127,4.44233,1.46507,1.67041,1.14355,-1.65958,0.820519,-1.43163,-7.85833,-4.11671,-5.56217,21.1335,-4.55984,-1.00884,7.93941,-2.68276,0.178233,-2.90226e-14,-2.78299e-15,-27.5464,-6.92358,-78.1342,44.1063,-13.7436,-19.7073,-19.5311,7.12502,6.62234,-49.4076,-2.90226e-14,-2.78299e-15,-27.8862,8.99525,82.0569,22.9806,-4.11062,-13.2514,-6.32382,7.12502,12.8508,23.2606,-21.2743,-4.75627,19.6465,63.252,2.16724,-20.5625,-15.6558,-14.7844,9.67633,-20.1114,22.9205,-12.1866,-9.06243,7.87134
25.3355,18.2748,20.2983,5.82977,0.951277,-2.8848,6.08149,0.770548,4.57333,1.22735,1.34351,1.17314,-2.06612,0.645557,-1.45971,-7.44405,-4.04259,-5.42653,21.1986,-4.50799,-1.00147,7.88051,-2.64856,0.171974,2.13694e-15,9.54166e-15,-28.1315,-6.64017,-78.509,44.4344,-13.3966,-19.1071,-19.9666,7.12502,7.20178,-49.824,2.13694e-15,9.54166e-15,-27.6728,8.68406,81.8764,23.0047,-4.04784,-13.4926,-6.51128,7.12502,12.6184,23.0876,-22.2486,-4.76991,20.0835,63.3506,2.93659,-19.8843,-14.979,-14.7161,9.76688,-19.921,23.3979,-12.4991,-9.85449,8.52976
25.3584,18.2641,20.3918,5.79083,1.53688,-3.04443,6.32807,0.567901,4.61343,1.0253,1.09966,1.18522,-2.4264,0.51363,-1.45693,-7.33685,-4.03477,-5.14295,21.4829,-4.52736,-1.08995,7.94544,-2.64793,0.0935479,-6.80837e-15,4.57205e-15,-28.5922,-6.32562,-78.8112,44.632,-13.5037,-18.7259,-20.1904,7.12502,7.56972,-50.035,-6.80837e-15,4.57205e-15,-27.5528,8.21597,81.7306,23.3474,-3.57931,-14.0327,-7.14334,7.12502,12.0975,22.4869,-23.3532,-4.80105,20.4095,63.4028,2.65111,-19.2855,-12.9946,-14.6349,9.96084,-19.7526,23.8701,-12.8062,-10.6073,9.25249
25.3771,18.2462,20.4881,5.75778,2.01943,-3.18448,6.45374,0.694733,4.80941,1.1987,1.28569,1.29863,-2.30463,0.61012,-1.46492,-8.04298,-4.3769,-5.82333,21.6041,-4.93335,-0.655627,8.15687,-2.85242,0.291309,-8.39865e-15,1.55052e-14,-28.411,-6.47894,-78.5341,44.6297,-14.0348,-19.1089,-20.2392,7.12502,7.20003,-50.0968,-8.39865e-15,1.55052e-14,-26.5931,7.61088,82.3259,23.8571,-3.2932,-14.2824,-7.05118,7.12502,11.8568,22.5931,-24.4338,-4.84736,20.7381,63.383,2.79319,-18.7613,-11.3665,-14.5266,10.289,-19.598,24.3174,-13.2699,-11.4022,9.17656
25.3985,18.2257,20.594,5.75927,2.30144,-3.22336,6.44297,0.597,4.75469,1.04094,1.15795,1.30356,-2.47073,0.541196,-1.42018,-7.12805,-4.29296,-6.15253,21.1276,-4.91674,-0.254589,7.85091,-2.82894,0.506026,1.00883e-14,7.15625e-15,-28.9265,-5.85433,-78.811,44.6418,-14.2596,-19.2415,-20.04,7.12502,7.07207,-49.9019,1.00883e-14,7.15625e-15,-26.5895,7.32784,82.3308,24.895,-2.30021,-13.8092,-4.93293,7.12502,12.3131,24.6845,-25.4279,-4.64889,21.0077,63.2623,3.68206,-18.2807,-10.3144,-14.3631,10.3035,-19.5728,24.7373,-14.0342,-11.6338,7.82777
25.421,18.2068,20.7152,5.81625,2.30469,-3.11104,6.25467,0.610761,4.47414,1.03118,1.14618,1.30163,-2.38182,0.539384,-1.26154,-7.29665,-4.29292,-6.56643,21.4423,-4.9416,0.230877,8.01206,-2.83239,0.724345,-4.17448e-15,-1.70955e-14,-29.1131,-5.58639,-78.9955,44.4763,-14.4143,-18.9769,-19.4467,7.12502,7.32741,-49.2998,-4.17448e-15,-1.70955e-14,-26.2898,7.10077,82.3911,25.3638,-1.9845,-14.3607,-4.79791,7.12502,11.7813,24.8507,-26.421,-4.06721,21.0184,63.0208,3.81131,-17.8671,-8.16351,-14.1674,10.1769,-19.7538,25.1562,-14.8688,-11.4954,6.66113
25.435,18.1898,20.8258,5.82615,2.5389,-3.127,6.25922,0.702079,4.35087,1.01611,1.26245,1.38096,-2.39817,0.59798,-1.12031,-7.50245,-4.44334,-6.76518,21.5323,-5.10576,0.254373,8.0935,-2.9232,0.743036,-8.94531e-15,-5.1684e-15,-29.3298,-5.85518,-78.8252,44.4378,-14.3536,-18.8361,-19.5692,7.12502,7.46332,-49.4175,-8.94531e-15,-5.1684e-15,-25.8053,6.29391,82.7903,25.8382,-1.21186,-15.0112,-4.73457,7.12502,11.154,24.949,-27.3787,-3.6571,21.1968,62.649,2.8994,-17.4896,-4.57837,-14.0066,10.3382,-19.7297,25.5942,-15.4317,-11.9588,6.94657
25.4456,18.1729,20.9226,5.75619,3.07902,-3.35177,6.44063,0.607236,4.40953,1.05894,1.15229,1.47823,-2.46176,0.542385,-1.04646,-7.6941,-4.50455,-6.64532,21.3748,-5.16836,0.13099,8.07076,-2.95172,0.673485,2.6985e-14,-3.18055e-15,-29.348,-5.84679,-78.9042,44.3919,-14.1467,-18.9133,-19.9656,7.12502,7.38886,-49.8166,2.6985e-14,-3.18055e-15,-25.2173,5.71013,82.9807,26.3711,-0.416597,-15.5508,-4.53138,7.12502,10.6335,25.1796,-28.2438,-3.44239,21.6691,62.1282,3.65057,-17.4618,-3.21675,-13.8195,10.4553,-19.3987,26.0143,-15.8513,-12.687,7.57065
25.4596,18.1485,21.0231,5.67682,3.53936,-3.59879,6.55088,0.44689,4.44652,1.12221,0.947621,1.53337,-2.46851,0.441231,-0.994362,-7.66433,-4.50092,-6.53267,21.1821,-5.20322,0.218738,7.99988,-2.94914,0.683374,-6.01324e-15,4.96962e-15,-29.2808,-5.26465,-79.2859,44.0603,-14.3538,-18.924,-20.1112,7.12502,7.37853,-49.9626,-6.01324e-15,4.96962e-15,-24.8654,5.45041,82.913,27.221,0.277406,-15.6952,-4.23206,7.12502,10.4942,25.486,-29.0289,-3.17305,22.1417,61.4698,4.37576,-17.2966,-1.63211,-13.5603,10.2497,-19.0519,26.3913,-16.3613,-13.0057,7.94105
25.4749,18.1296,21.1297,5.652,3.86077,-3.69066,6.62962,0.571138,4.47833,1.1332,1.12182,1.61628,-2.49361,0.527563,-0.94222,-7.61914,-4.73531,-6.95529,21.1373,-5.51919,0.495518,8.01117,-3.10449,0.814081,-1.46604e-14,6.75868e-15,-29.4689,-5.32748,-79.0783,43.6982,-14.6087,-18.7369,-20.3846,7.12502,7.55909,-50.2295,-1.46604e-14,6.75868e-15,-24.4385,4.72998,83.3539,27.9203,0.981787,-15.8025,-4.2579,7.12502,10.3906,25.4654,-29.8262,-2.90599,22.4216,60.6806,4.62027,-17.1609,0.607034,-13.2777,9.96696,-18.9065,26.6986,-16.7675,-13.1123,8.28725
25.4894,18.1245,21.2399,5.65315,4.05575,-3.71585,6.70902,0.310082,4.23602,1.06104,0.760434,1.45198,-2.63102,0.345957,-0.946641,-7.50275,-4.44972,-5.92962,20.981,-5.20963,0.0732487,7.87865,-2.91756,0.542606,-1.90336e-14,-2.22639e-14,-29.5272,-5.28146,-79.8577,43.2398,-14.0736,-18.5666,-20.5925,7.12502,7.72352,-50.4315,-1.90336e-14,-2.22639e-14,-24.3342,4.55178,82.6757,28.5453,1.89607,-16.1571,-4.3355,7.12502,10.0486,25.4046,-30.6489,-2.5017,22.5777,59.7387,4.31314,-17.3379,3.7483,-12.9665,9.82991,-18.8617,26.8992,-17.149,-13.2775,8.64671
25.5024,18.1231,21.352,5.60868,4.1903,-3.86682,6.8185,0.0632538,4.10655,0.949233,0.430426,1.36039,-2.82363,0.17804,-0.940475,-7.10265,-4.18176,-5.25483,20.7964,-4.93617,-0.10031,7.70944,-2.75268,0.41244,1.07592e-14,1.44119e-14,-29.7372,-5.22701,-80.4958,42.9267,-13.2292,-18.0708,-20.8547,7.12502,8.20196,-50.6755,1.07592e-14,1.44119e-14,-24.411,4.36985,82.0695,29.3024,2.55159,-16.5639,-4.22105,7.12502,9.65612,25.5376,-31.3506,-1.98716,22.8675,58.6191,5.14036,-17.1739,5.23411,-12.5553,9.57375,-18.6827,26.9564,-17.5557,-13.1945,8.78589
25.5155,18.1228,21.4639,5.57584,4.39531,-3.97479,6.74928,-0.190079,3.87347,0.977015,0.0713361,1.34124,-2.773,0.00304419,-0.797152,-6.90427,-3.93307,-4.87028,20.7159,-4.66423,-0.102097,7.62715,-2.59528,0.378764,-9.92681e-15,2.48481e-14,-29.6452,-4.40308,-81.1389,42.3951,-13.1282,-16.1908,-20.9531,7.12502,10.0161,-50.6948,-9.92681e-15,2.48481e-14,-24.3649,4.39339,81.6247,30.1785,3.07799,-16.9624,-4.20669,7.12502,9.27159,25.5694,-31.9728,-1.60821,23.1547,57.3361,4.94153,-17.4806,8.67994,-12.1314,9.35032,-18.5473,26.9314,-17.7878,-13.1587,9.4767
25.5288,18.1215,21.5755,5.57638,4.6101,-3.99085,6.78209,-0.375638,3.58015,0.958623,-0.195924,1.295,-2.8208,-0.127945,-0.65618,-6.56545,-3.70543,-4.25839,20.4355,-4.40061,-0.392713,7.44305,-2.44842,0.21682,1.37286e-14,1.59152e-14,-29.6467,-3.37068,-81.7504,41.7271,-13.5047,-16.2889,-20.5057,7.12502,9.9214,-50.2519,1.37286e-14,1.59152e-14,-24.3693,4.21385,81.2809,31.0279,3.85801,-17.4961,-4.38056,7.12502,8.75663,25.4178,-32.5893,-1.31018,23.3317,55.9195,5.07913,-17.4254,11.4966,-11.7496,9.38737,-18.5151,26.9234,-18.0401,-13.3301,9.3757
25.5406,18.1131,21.6845,5.56217,4.88267,-4.03855,7.02514,-0.521836,3.46406,0.821152,-0.386838,1.17883,-3.10612,-0.227425,-0.690928,-5.93624,-3.58424,-3.80296,20.0247,-4.33087,-0.37842,7.18204,-2.37891,0.169609,-4.37947e-15,-8.44835e-15,-29.9745,-3.25317,-82.2571,41.3363,-13.442,-17.0253,-19.9417,7.12502,9.21092,-49.7206,-4.37947e-15,-8.44835e-15,-24.4537,3.68633,80.9339,31.8571,4.63233,-18.0103,-4.58531,7.12502,8.26039,25.2332,-33.0892,-1.05043,23.5568,54.3763,5.52272,-17.34,14.056,-11.3337,9.24543,-18.4215,26.9136,-18.4551,-13.4576,9.06083
25.5475,18.1005,21.7896,5.51386,5.24149,-4.16175,7.29457,-0.695037,3.39571,0.737525,-0.609874,1.10814,-3.3519,-0.341763,-0.700515,-5.59625,-3.55407,-4.02815,19.9746,-4.43178,0.42586,7.13015,-2.37744,0.46544,9.26834e-15,-9.93923e-16,-30.1151,-3.43235,-82.6865,40.903,-13.2546,-17.5228,-19.7806,7.12502,8.73085,-49.58,9.26834e-15,-9.93923e-16,-24.4715,3.18144,80.6134,32.6874,4.95949,-18.2796,-4.97475,7.12502,8.0005,24.8538,-33.4916,-0.886562,23.8916,52.7328,6.03443,-17.482,16.4218,-10.8896,9.07501,-18.2067,26.8735,-18.9032,-13.5934,8.95204
25.5539,18.0945,21.9008,5.45193,5.46825,-4.32187,7.45713,-0.839451,3.27276,0.756539,-0.804486,1.12106,-3.42853,-0.437288,-0.596406,-5.42412,-3.45044,-3.85471,19.7061,-4.31503,0.407019,7.00441,-2.31025,0.44568,5.34234e-15,5.1684e-15,-30.167,-3.32704,-82.9718,40.5345,-12.9817,-17.311,-20.1868,7.12502,8.93529,-49.9775,5.34234e-15,5.1684e-15,-24.3954,3.01589,80.3511,33.4379,5.0219,-18.2846,-5.42259,7.12502,7.99563,24.4062,-33.8549,-0.655629,24.2191,50.9752,6.20087,-17.8949,19.1274,-10.4118,8.95994,-17.957,26.8262,-19.1781,-13.6613,8.59068
25.5648,18.0894,22.0227,5.43916,5.61878,-4.36364,7.47137,-0.913454,3.1096,0.810165,-0.918537,1.08141,-3.38291,-0.490847,-0.534423,-5.45888,-3.37831,-3.14466,19.6326,-4.17436,-0.277968,6.95126,-2.24788,0.11941,-1.98785e-15,-5.76476e-15,-30.3752,-3.50978,-83.1383,40.443,-12.2936,-16.6504,-20.9276,7.12502,9.57266,-50.6901,-1.98785e-15,-5.76476e-15,-24.2471,2.78354,80.1603,34.1842,5.35762,-18.4207,-5.79702,7.12502,7.86434,24.0367,-34.1512,-0.397971,24.4133,49.0966,6.58158,-18.0348,21.6763,-9.92225,8.91445,-17.8554,26.7305,-19.3354,-13.8591,9.15387
25.5777,18.0744,22.1438,5.42647,5.84272,-4.398,7.40511,-0.986706,2.9375,0.934298,-1.03583,1.0804,-3.21804,-0.543963,-0.429415,-5.56957,-3.31119,-2.45828,19.6096,-4.04162,-0.9344,6.93076,-2.1888,-0.196133,3.10104e-14,5.96354e-16,-30.4156,-3.38306,-83.3873,40.2015,-12.301,-16.7976,-21.3128,7.12502,9.43064,-51.0818,3.10104e-14,5.96354e-16,-24.0472,2.41149,80.0967,35.0892,5.79494,-18.8241,-5.88237,7.12502,7.47498,23.9656,-34.3734,-0.30621,24.6367,47.0885,7.85094,-17.3352,23.2703,-9.39037,9.2116,-17.7623,26.4824,-19.4698,-14.3992,10.7398
25.5925,18.0623,22.2668,5.39185,5.94841,-4.48898,7.32896,-1.02707,2.80128,1.08484,-1.1052,1.13576,-3.01809,-0.573336,-0.292098,-5.69618,-3.27234,-2.36894,19.5668,-3.98921,-0.97228,6.93586,-2.16014,-0.220935,2.33075e-14,5.96354e-15,-30.3075,-3.1333,-83.6371,39.7752,-12.9448,-17.8357,-21.4375,7.12502,8.42889,-51.2493,2.33075e-14,5.96354e-15,-23.7871,2.13399,80.1113,35.9661,6.00708,-18.8572,-5.522,7.12502,7.443,24.3271,-34.5422,-0.287696,24.9175,44.9345,8.56802,-17.5824,25.2046,-8.74052,9.42161,-17.6412,26.1285,-19.6682,-14.6716,11.8061
25.61,18.0642,22.395,5.37554,6.05081,-4.53534,7.45437,-1.04955,2.7813,1.04228,-1.13108,1.12327,-3.13269,-0.58741,-0.288369,-5.71403,-3.30652,-2.70458,19.7122,-4.07911,-0.512615,7.00472,-2.18997,-0.0268712,2.27111e-14,3.18055e-15,-30.535,-3.4129,-83.6883,39.3395,-12.7031,-18.0846,-21.799,7.12502,8.18869,-51.6204,2.27111e-14,3.18055e-15,-23.7594,1.70989,80.0901,36.6664,6.18187,-18.8244,-5.59054,7.12502,7.4746,24.2574,-34.6723,-0.190199,25.0857,42.6681,9.54853,-17.4021,27.0052,-8.06325,9.01689,-17.6087,25.8004,-19.7535,-14.4944,13.251
25.6257,18.0578,22.5207,5.37691,6.30904,-4.5299,7.59366,-1.10924,2.7379,1.00249,-1.20815,1.10399,-3.25321,-0.626616,-0.272852,-5.67785,-3.37265,-3.03088,19.8904,-4.20414,-0.117421,7.07434,-2.2413,0.143175,-3.19546e-14,-1.78906e-15,-30.7528,-3.65042,-83.6715,38.8216,-12.2564,-17.8878,-21.5862,7.12502,8.37864,-51.4,-3.19546e-14,-1.78906e-15,-23.6989,1.3477,80.0641,37.2085,6.2967,-19.1418,-6.34893,7.12502,7.16825,23.5097,-34.7287,-0.0867212,25.2065,40.2991,10.0543,-18.0762,29.2936,-7.45644,8.48681,-17.612,25.4997,-19.731,-14.3629,14.9326
25.634,18.0349,22.6436,5.3999,6.43208,-4.48651,7.5217,-1.08522,2.48778,1.16645,-1.20268,1.11403,-3.03781,-0.617992,-0.126509,-5.7607,-3.40872,-2.89838,19.8289,-4.23628,-0.277871,7.06281,-2.25962,0.0661421,-2.09221e-14,7.35503e-15,-30.7154,-3.85598,-83.6711,38.5379,-12.1743,-18.041,-20.8632,7.12502,8.23078,-50.6829,-2.09221e-14,7.35503e-15,-23.2741,1.08861,80.1221,37.7604,6.37388,-19.2803,-6.69414,7.12502,7.0346,23.169,-34.6876,-0.233317,25.5389,37.8238,11.5817,-17.412,30.3578,-6.90066,8.50038,-17.6318,25.1926,-20.0908,-14.2498,13.68
25.6415,18.0234,22.7671,5.41037,6.477,-4.47641,7.56295,-1.0019,2.27985,1.27754,-1.10929,1.12523,-2.93978,-0.567986,-0.00849937,-5.86458,-3.43546,-2.65045,19.7633,-4.24527,-0.568328,7.04743,-2.26928,-0.0702156,-7.55382e-15,8.54774e-15,-30.9236,-4.15897,-83.589,38.617,-11.9836,-17.8114,-20.9787,7.12502,8.45233,-50.7896,-7.55382e-15,8.54774e-15,-22.9623,0.655566,80.2426,38.481,6.62448,-19.3588,-6.48423,7.12502,6.95883,23.3814,-34.5488,-0.5499,26.0142,35.1855,12.9797,-16.7897,31.4475,-6.36072,8.59114,-17.6141,24.9276,-20.6383,-13.9983,10.804
25.6511,18.0242,22.8973,5.39876,6.7027,-4.50007,7.64402,-0.986271,2.15787,1.33697,-1.09512,1.17744,-2.91998,-0.559051,0.113077,-6.03998,-3.51253,-2.96486,19.9055,-4.35593,-0.291896,7.14057,-2.32154,0.056727,1.06847e-14,-7.95139e-15,-31.0892,-4.20063,-83.4888,38.4054,-11.9547,-17.5272,-21.4588,7.12502,8.72664,-51.2584,1.06847e-14,-7.95139e-15,-22.8152,0.328616,80.4002,39.1787,6.70804,-19.5494,-6.35407,7.12502,6.77478,23.5175,-34.3897,-0.728146,26.3133,32.4767,13.6086,-17.4963,33.5154,-5.57734,8.7866,-17.4737,24.218,-20.6102,-14.3465,10.1343
25.659,18.019,23.0288,5.37616,7.06259,-4.53581,7.74164,-1.03814,2.06069,1.38088,-1.16672,1.26414,-2.92629,-0.593122,0.26561,-5.89398,-3.55189,-3.2702,19.6499,-4.41162,-0.0912113,7.04516,-2.35234,0.172828,-2.0773e-14,3.08116e-14,-31.1881,-4.02248,-83.4405,37.9968,-12.1577,-17.6231,-21.451,7.12502,8.63408,-51.2544,-2.0773e-14,3.08116e-14,-22.7048,0.0472226,80.5686,39.6703,6.77917,-19.6501,-6.63056,7.12502,6.67755,23.2441,-34.165,-0.661696,26.4055,29.5996,13.7933,-19.1521,36.0971,-4.84601,9.16564,-17.253,23.6645,-20.5787,-15.0563,10.2287
25.6667,18.0804,23.1492,5.30741,7.49488,-4.65856,8.06632,-1.10254,2.18835,1.35037,-1.22796,1.32159,-3.14082,-0.625702,0.266758,-5.96597,-3.66091,-3.72728,19.8188,-4.58784,0.378413,7.13928,-2.43044,0.382021,4.82053e-15,-7.15625e-15,-31.4153,-4.19897,-83.3436,37.7104,-12.0368,-17.7434,-21.6017,7.12502,8.51799,-51.4099,4.82053e-15,-7.15625e-15,-22.6591,-0.480382,80.7298,40.1126,7.31957,-19.6846,-7.04272,7.12502,6.64433,22.833,-34.1016,-0.321511,26.3921,26.6484,13.3533,-21.466,39.1572,-3.98121,9.07883,-16.9788,22.8842,-20.6655,-15.1128,8.99344
25.6773,18.0321,23.2756,5.29473,7.7518,-4.67652,8.20033,-1.07281,2.20531,1.41651,-1.1831,1.33779,-3.14641,-0.603069,0.270945,-6.39381,-3.81121,-3.88714,20.2905,-4.79292,0.562516,7.38321,-2.52377,0.437555,-4.87022e-15,1.94809e-14,-31.432,-4.45544,-83.2228,37.315,-11.8623,-17.9485,-22.0103,7.12502,8.32,-51.8265,-4.87022e-15,1.94809e-14,-22.4458,-0.937767,80.9238,40.6333,7.84729,-19.7157,-7.21198,7.12502,6.61425,22.6647,-33.5046,-1.53605,27.3721,23.6602,16.251,-20.0637,38.7088,-3.23225,8.76836,-16.9031,22.3867,-20.8528,-15.0218,8.95558
25.6886,18.0186,23.4162,5.35944,7.9005,-4.54829,8.06754,-0.985125,1.9663,1.57397,-1.09404,1.36094,-2.90355,-0.55448,0.414701,-6.76068,-3.9886,-3.82634,20.44,-4.96372,0.232959,7.49248,-2.62744,0.296327,2.89729e-14,1.74931e-14,-31.2837,-4.84076,-82.9891,36.7467,-11.5465,-17.9692,-21.9488,7.12502,8.30003,-51.7657,2.89729e-14,1.74931e-14,-22.0668,-1.24493,81.1297,41.0988,7.9509,-19.4665,-7.13887,7.12502,6.8548,22.7302,-33.3104,-1.84995,27.5926,20.7769,17.5567,-20.599,39.9014,-2.48392,8.62433,-16.9898,21.8477,-20.8876,-15.2325,10.3501
25.6992,17.9852,23.557,5.37828,8.23888,-4.49977,8.03976,-0.944361,1.841,1.66929,-1.05105,1.42353,-2.78579,-0.530941,0.543418,-6.97573,-4.11043,-3.97905,20.6117,-5.10667,0.271051,7.5967,-2.70245,0.314522,1.2424e-15,-1.82882e-14,-31.2194,-5.4762,-82.6091,36.1659,-11.0166,-17.7218,-21.3821,7.12502,8.53879,-51.1895,1.2424e-15,-1.82882e-14,-21.8032,-1.72037,81.3521,41.5523,7.73413,-19.0628,-6.73958,7.12502,7.24451,23.1164,-32.6805,-3.14028,28.571,17.8464,18.9703,-19.004,40.569,-1.98435,8.6485,-16.904,21.8113,-21.1539,-15.5614,10.573
25.7094,17.9703,23.7012,5.4021,8.55472,-4.44398,8.05223,-0.917703,1.70896,1.69909,-1.02379,1.51709,-2.7578,-0.515911,0.711163,-6.86896,-4.18518,-4.27725,20.4999,-5.19739,0.416211,7.55624,-2.75441,0.406336,-1.46604e-14,-1.0138e-14,-31.3723,-5.56262,-82.3077,35.8324,-11.1149,-17.6985,-21.3556,7.12502,8.56129,-51.162,-1.46604e-14,-1.0138e-14,-21.7589,-2.10912,81.6503,42.0468,7.47476,-19.0684,-6.38856,7.12502,7.23908,23.4676,-32.1235,-3.78095,29.1463,15.0031,19.2574,-18.712,42.1957,-1.36582,8.74993,-16.8057,21.4804,-21.0755,-15.8697,10.083
25.7213,17.9648,23.8418,5.41594,8.8345,-4.41036,8.02194,-0.92712,1.6138,1.76831,-1.04273,1.63247,-2.6656,-0.523879,0.88424,-6.84342,-4.32888,-4.95959,20.5117,-5.38836,0.875778,7.59545,-2.85541,0.651197,2.69353e-14,1.21259e-14,-31.4379,-5.49478,-82.0613,35.4128,-11.3704,-17.9116,-21.6042,7.12502,8.35564,-51.4189,2.69353e-14,1.21259e-14,-21.6711,-2.22158,81.9758,42.3308,7.36801,-19.3089,-6.63233,7.12502,7.00694,23.2317,-31.5391,-4.14297,29.5173,12.1765,19.6423,-20.2857,43.675,-0.817141,8.82299,-16.7057,21.2377,-20.6866,-16.3028,10.5698
25.7367,17.9516,23.9664,5.73171,9.122,-4.46551,7.86291,-0.931426,1.75804,1.76239,-1.03836,1.71919,-2.58428,-0.522159,0.889502,-7.02136,-4.46462,-5.36918,20.5814,-5.55423,1.12058,7.67659,-2.94193,0.778132,1.2921e-15,1.88845e-15,-31.4418,-6.02128,-81.7252,34.9794,-11.0194,-17.9037,-21.299,7.12502,8.36327,-51.1134,1.2921e-15,1.88845e-15,-21.3556,-2.53416,82.2417,42.3712,7.42419,-19.4688,-7.04869,7.12502,6.85258,22.8204,-31.1448,-4.23174,29.8477,9.28496,19.7877,-20.8428,45.2537,-0.552141,8.83502,-16.5934,20.9032,-20.1258,-16.7043,12.0059
25.7528,17.9238,24.113,5.65068,9.29357,-4.46853,7.90485,-0.874875,1.8562,1.87118,-0.955118,1.75545,-2.4963,-0.48048,0.862989,-7.0888,-4.59549,-5.45404,20.4764,-5.70165,1.05247,7.6606,-3.02267,0.75541,1.94312e-14,-1.63997e-14,-31.7639,-6.71055,-81.3557,34.9885,-10.6236,-17.6072,-21.1896,7.12502,8.64945,-50.9924,1.94312e-14,-1.63997e-14,-21.1804,-3.06991,82.4726,42.5051,7.66838,-19.6709,-7.22773,7.12502,6.65752,22.6476,-32.539,-4.26838,30.1027,11.1902,17.2878,-22.4501,46.725,1.33167,8.69665,-16.5309,18.3328,-19.1935,-16.3915,11.3933
25.7709,17.8997,24.2636,5.68586,9.33286,-4.36705,7.97399,-0.758026,1.8549,1.82394,-0.79695,1.7456,-2.5838,-0.402276,0.83936,-6.88511,-4.70157,-5.38169,20.2762,-5.83157,0.878168,7.55528,-3.09393,0.681949,-1.04113e-14,1.33683e-14,-32.0684,-6.74277,-81.1456,34.7056,-11.0891,-17.7639,-21.3291,7.12502,8.49822,-51.1381,-1.04113e-14,1.33683e-14,-21.3415,-3.52987,82.7258,42.8283,7.76066,-19.8061,-6.96032,7.12502,6.52704,22.9191,-33.8816,-4.00617,30.1376,13.1539,15.1565,-24.6499,47.7015,3.26639,8.60754,-16.6232,15.502,-18.2656,-15.9267,9.90149
25.8056,17.8508,24.4281,5.08997,9.13666,4.34927,9.72636,-0.340963,-6.66719,2.34048,-1.12564,-0.583797,-2.89294,-0.518564,3.27751,-6.67904,-4.79295,-5.48709,20.2309,-5.96938,0.965072,7.51464,-3.1601,0.720667,5.00689e-15,3.75206e-15,-32.1528,-6.77557,-80.9317,33.847,-11.4358,-18.0726,-21.4491,7.12502,8.20024,-51.27,5.00689e-15,3.75206e-15,-21.4609,-3.77571,82.9217,43.255,6.7625,-18.9924,-5.03637,7.12502,7.31245,24.8173,-33.1145,-4.70799,20.6363,15.5595,11.3929,-26.418,49.1139,8.07866,9.72586,-25.3229,11.6753,-15.9883,-17.6403,12.1835
25.8149,17.839,24.5755,5.06664,9.25028,4.14812,9.76797,-0.275221,-6.53899,2.36398,-1.02259,-0.423753,-2.90167,-0.468376,3.36115,-6.72486,-4.9014,-5.81545,20.4248,-6.1126,1.18226,7.61074,-3.23371,0.828514,-1.39374e-14,-3.49116e-15,-32.1978,-7.25263,-80.5665,33.1296,-11.1903,-17.9288,-21.7272,7.12502,8.33904,-51.5426,-1.39374e-14,-3.49116e-15,-21.373,-3.52727,83.0053,43.7253,4.13433,-16.7222,-1.90147,7.12502,9.50336,27.8642,-34.3134,-4.58067,21.144,18.0558,9.28334,-27.2969,49.4594,11.7736,9.41537,-24.9888,5.41246,-12.6828,-17.1229,12.7023
25.8305,17.8331,24.7332,5.05315,9.37033,4.29494,9.59181,-0.222445,-6.74977,2.52645,-0.948733,-0.320907,-2.63596,-0.443277,3.5741,-7.08013,-5.07532,-6.59042,20.8631,-6.34088,1.77816,7.87746,-3.34661,1.11447,2.12575e-14,4.22417e-15,-32.1606,-7.73143,-80.159,32.7087,-11.0917,-17.7161,-21.9811,7.12502,8.54428,-51.7882,2.12575e-14,4.22417e-15,-21.3356,-4.26841,83.5446,42.7097,7.63881,-19.5737,-8.52131,7.12502,6.75138,21.3511,-35.3645,-5.13183,21.5271,20.5099,7.34387,-27.3312,49.7585,15.1076,9.07399,-25.0417,2.8625e-14,-10.0034,-16.6475,12.5836
25.8678,17.8224,24.8959,5.00024,9.51962,4.79709,9.42403,-0.198159,-6.95007,2.7287,-0.915373,-0.418563,-2.33318,-0.440987,3.57636,-6.85633,-5.14868,-6.17376,20.372,-6.37296,1.10258,7.63913,-3.38835,0.833384,1.36664e-15,2.21645e-14,-32.1833,-8.33743,-79.7588,32.3194,-10.9943,-18.0057,-21.5599,7.12502,8.26486,-51.3783,1.36664e-15,2.21645e-14,-21.2159,-4.52633,83.7901,42.9433,6.92074,-19.0545,-6.43479,7.12502,7.25252,23.4209,-35.3241,-7.05482,21.9791,20.9081,8.15398,-25.2697,48.999,15.8111,8.71117,-25.5506,-1.59028e-14,-9.64303,-16.65,13.8103
25.8975,17.8064,25.049,5.04172,9.4179,4.71065,9.28163,-0.151408,-6.64312,2.75046,-0.811737,-0.378258,-2.2484,-0.393445,3.43242,-7.16344,-5.30392,-6.91401,21.0168,-6.58407,1.69935,7.96642,-3.49254,1.11355,-1.48592e-14,-1.86858e-14,-32.374,-8.86134,-79.426,31.902,-10.9335,-18.3024,-20.9994,7.12502,7.97851,-50.8288,-1.48592e-14,-1.86858e-14,-21.2689,-4.55274,83.9808,42.8267,6.72613,-18.7472,-6.00946,7.12502,7.54912,23.8358,-35.4468,-8.17155,22.9232,21.4117,9.10654,-23.2596,47.9291,16.2995,8.60527,-25.4205,-3.18055e-15,-9.16231,-16.6835,15.2605
25.9116,17.7894,25.1935,5.10157,9.15998,4.6842,9.33058,-0.0566405,-6.64479,2.6824,-0.691091,-0.292584,-2.3583,-0.328638,3.51092,-7.07914,-5.32366,-6.85711,20.9708,-6.54743,1.33132,7.92075,-3.50401,0.989558,4.79568e-15,9.0447e-15,-32.5208,-9.26859,-79.0822,31.4022,-10.7465,-18.2553,-21.3231,7.12502,8.02392,-51.1508,4.79568e-15,9.0447e-15,-21.4404,-4.39588,84.1704,42.404,6.5209,-18.6726,-6.39373,7.12502,7.62119,23.449,-35.4102,-7.68045,23.1767,21.8325,9.59516,-22.5439,47.2068,16.7354,8.62744,-25.273,1.90833e-14,-8.75617,-16.791,15.7091
25.9287,17.7863,25.3422,5.02969,9.03995,4.56944,9.38115,-0.0142756,-6.54075,2.73616,-0.623496,-0.170153,-2.33749,-0.297397,3.57305,-7.1733,-5.33951,-6.70324,21.0268,-6.51019,0.970314,7.93755,-3.50661,0.846368,5.56597e-15,-1.55052e-14,-32.3559,-9.61257,-78.7765,30.6249,-10.4954,-18.5318,-21.5283,7.12502,7.75709,-51.3661,5.56597e-15,-1.55052e-14,-21.4917,-4.4071,84.2626,42.172,5.81369,-18.4701,-5.38977,7.12502,7.81667,24.4457,-35.1568,-6.94993,23.2326,22.1244,9.74954,-22.3261,46.7806,17.2787,8.52927,-25.0044,1.90833e-14,-8.31847,-16.8464,15.1814
25.9468,17.7864,25.5002,4.88925,8.89626,3.99679,9.37766,0.0115768,-5.99325,2.77843,-0.530245,0.0583517,-2.30647,-0.254227,3.49264,-7.29394,-5.37809,-6.79464,21.2228,-6.52587,0.895919,8.02732,-3.52843,0.829407,2.02263e-14,2.38542e-14,-32.2314,-10.1248,-78.4337,29.7829,-9.99646,-18.585,-21.0501,7.12502,7.70575,-50.8897,2.02263e-14,2.38542e-14,-21.6278,-4.01421,84.4429,41.6656,5.46341,-19.0818,-6.31381,7.12502,7.22617,23.5428,-34.8529,-6.0843,23.7574,22.4117,10.7416,-22.1759,45.8826,17.8592,8.48189,-24.2499,-4.13472e-14,-7.9592,-16.85,13.619
25.9742,17.785,25.6664,4.79447,8.79328,3.93869,9.46724,0.0326901,-5.75875,2.72941,-0.487776,0.0769721,-2.41424,-0.22929,3.37645,-6.95319,-5.35148,-6.68528,20.9917,-6.51025,0.805083,7.88047,-3.52105,0.795915,4.96962e-17,-5.1684e-15,-32.3891,-10.8855,-77.9884,28.9934,-9.36965,-18.3689,-20.8591,7.12502,7.91433,-50.6909,4.96962e-17,-5.1684e-15,-21.9612,-3.76966,84.5136,41.2774,5.04706,-19.1545,-6.26045,7.12502,7.15599,23.5986,-34.5361,-5.52658,23.7232,22.8264,11.3784,-21.2153,44.9716,18.525,8.36904,-24.0754,-3.18055e-14,-7.31133,-16.9408,13.1555
25.9967,17.7875,25.8386,4.62191,8.76045,3.89128,9.43724,0.0277418,-5.62772,2.82008,-0.475383,0.132393,-2.30542,-0.228415,3.35815,-7.18269,-5.36819,-7.46826,21.5141,-6.60057,1.74545,8.16268,-3.54169,1.21195,-9.93923e-16,-6.36111e-15,-32.3423,-11.7512,-77.5089,28.1214,-8.9005,-18.8055,-20.9128,7.12502,7.49287,-50.7601,-9.93923e-16,-6.36111e-15,-22.1629,-3.67262,84.568,40.9117,4.67956,-18.5769,-5.29022,7.12502,7.71351,24.5491,-34.0655,-4.88239,23.5884,23.2611,11.0604,-21.4805,44.6678,19.2318,8.18203,-23.8634,-6.04305e-14,-6.00064,-16.937,14.6969
26.0063,17.7742,26.0103,4.38948,8.66399,3.54707,9.5003,0.0234203,-5.42924,2.86339,-0.459737,0.322579,-2.29717,-0.222345,3.44321,-7.05365,-5.306,-7.06871,21.3641,-6.45465,1.13731,8.04684,-3.49685,0.965715,-6.95746e-16,-1.39149e-15,-32.3667,-12.8355,-76.9174,27.3742,-8.01706,-19.0714,-20.764,7.12502,7.23627,-50.6203,-6.95746e-16,-1.39149e-15,-22.4967,-3.33846,84.6365,40.2639,4.86116,-18.9865,-6.29964,7.12502,7.31816,23.5538,-33.5083,-3.8976,23.7841,23.5479,10.993,-22.3416,44.3319,19.9224,8.06791,-23.3183,6.04305e-14,-4.98664,-16.7598,13.5637
26.0228,17.7781,26.1849,4.25103,8.66749,2.77179,9.65644,-0.0415368,-4.66106,2.68379,-0.478811,0.582378,-2.57496,-0.222808,3.28549,-6.98438,-5.31582,-6.81332,21.4976,-6.41649,0.680329,8.05327,-3.5025,0.777886,4.12478e-15,3.33958e-14,-32.743,-13.8659,-76.2837,26.8153,-7.17926,-18.6972,-20.9725,7.12502,7.59743,-50.816,4.12478e-15,3.33958e-14,-23.2588,-3.04483,84.7765,39.5932,5.84364,-19.595,-8.11347,7.12502,6.73083,21.7596,-33.0385,-3.04365,24.4518,23.7526,11.4948,-22.3876,43.3999,20.4552,7.86948,-22.35,-1.90833e-14,-3.82258,-16.4417,12.3196
26.0377,17.8014,26.3579,4.16457,8.70429,1.61911,9.7635,-0.0964315,-3.53762,2.45979,-0.438122,0.968613,-2.87878,-0.196486,3.05127,-7.03155,-5.3458,-7.17486,21.9869,-6.49745,1.1202,8.25857,-3.53329,0.967228,-1.2921e-14,1.0138e-14,-33.0999,-14.5574,-75.7396,26.2282,-7.20172,-19.1255,-21.0183,7.12502,7.18398,-50.8764,-1.2921e-14,1.0138e-14,-24.1131,-2.32599,84.8759,39.2894,5.28415,-19.4219,-8.17268,7.12502,6.89788,21.6949,-32.7659,-1.72657,25.3247,24.1889,11.4342,-23.7342,42.8652,17.9184,7.67837,-20.8862,5.64858,-5.04727,-17.1406,10.7379
26.0505,17.815,26.5333,4.14618,8.83896,1.70081,9.95828,-0.148852,-3.66227,2.26307,-0.527255,1.04374,-3.18202,-0.230526,3.21487,-6.60127,-5.25301,-6.59824,21.6896,-6.34473,0.458411,8.02979,-3.47629,0.685715,-1.1281e-14,1.39149e-14,-33.3793,-15.1507,-75.1944,25.4149,-7.41422,-19.9425,-20.4999,7.12502,6.39535,-50.3834,-1.1281e-14,1.39149e-14,-24.8691,-1.62722,84.931,38.8656,4.54677,-19.1175,-7.88364,7.12502,7.19177,21.9742,-32.4786,-0.569398,24.7849,24.6762,10.8304,-26.1357,42.7599,17.0478,7.31983,-20.7688,8.14455,-4.29575,-17.635,9.40437
26.077,17.829,26.7333,4.07702,9.3795,2.61124,9.91386,-0.329785,-4.36599,2.22867,-0.844016,0.87179,-3.15832,-0.382803,3.47186,-6.72228,-5.39005,-7.53524,22.3326,-6.58038,1.34143,8.34553,-3.58674,1.09619,-6.06293e-15,1.78906e-14,-33.6833,-16.1283,-74.4241,24.6016,-6.94869,-19.8953,-20.44,7.12502,6.44088,-50.3221,-6.06293e-15,1.78906e-14,-25.3633,-1.2021,84.9828,38.2778,3.89253,-18.4406,-6.66476,7.12502,7.84508,23.1697,-31.9298,-0.983028,23.6746,25.2047,9.55375,-26.7451,42.766,16.3731,6.53773,-21.5661,10.6529,-2.9566,-17.9605,9.5717
26.1081,17.859,26.9386,3.87331,9.93419,2.34361,9.59079,-0.560601,-3.80396,2.32256,-1.07486,0.975837,-2.86997,-0.509336,3.2828,-6.67957,-5.36154,-7.24719,22.3585,-6.5318,1.08366,8.32389,-3.56499,0.969638,3.63776e-14,-1.47101e-14,-33.9169,-17.2511,-73.7244,24.0601,-6.19867,-19.785,-21.0224,7.12502,6.54735,-50.9012,3.63776e-14,-1.47101e-14,-25.7252,-0.766923,85.032,37.5016,3.83748,-18.4032,-6.87914,7.12502,7.8812,22.954,-31.4386,-1.9739,24.1132,26.0007,9.22922,-26.1759,42.124,15.7521,5.84328,-21.0791,12.8726,-1.06751,-17.9942,9.95861
26.1322,17.8873,27.1235,3.80034,10.1776,2.02275,9.44299,-0.72205,-3.34152,2.31829,-1.23488,1.09829,-2.78701,-0.593,3.16425,-6.82562,-5.42053,-7.4047,22.5629,-6.60906,1.2098,8.43437,-3.60364,1.02302,1.05356e-14,1.07344e-14,-34.021,-18.1057,-73.1976,23.6057,-5.65101,-19.7789,-21.5568,7.12502,6.55322,-51.4354,1.05356e-14,1.07344e-14,-26.2208,-0.267335,85.0122,36.8792,3.76945,-18.2177,-6.67503,7.12502,8.0602,23.1513,-31.1195,-2.49585,24.6133,26.605,10.0513,-25.4897,40.9504,14.5287,5.48411,-20.5397,15.7568,0.584684,-17.9855,9.31945
26.1586,17.9053,27.3038,3.62822,10.4115,2.7004,9.44675,-0.863509,-3.93867,2.4745,-1.48092,0.982914,-2.59404,-0.719334,3.40652,-7.20142,-5.44778,-7.66844,22.9011,-6.64743,1.50738,8.64146,-3.61587,1.14738,-6.65929e-15,1.55052e-14,-33.8873,-18.718,-72.7887,23.0658,-5.55746,-19.7246,-21.2639,7.12502,6.60564,-51.1409,-6.65929e-15,1.55052e-14,-26.602,0.289545,84.981,36.3131,3.7644,-18.1136,-6.56108,7.12502,8.16073,23.2613,-30.3228,-3.01721,23.9417,26.7081,11.0616,-24.757,39.7971,13.0502,5.19793,-21.0453,19.5455,2.10641,-17.8135,8.64322
26.1792,17.922,27.4837,3.09815,10.6557,1.80955,9.39522,-1.01105,-3.02287,2.71938,-1.57566,1.28054,-2.32108,-0.778483,3.20398,-6.95128,-5.38548,-6.76051,22.2592,-6.50819,0.56447,8.302,-3.56105,0.71378,2.49475e-14,-5.56597e-15,-33.8366,-19.2604,-72.4837,22.6668,-5.62109,-19.78,-20.8047,7.12502,6.55222,-50.6833,2.49475e-14,-5.56597e-15,-26.8215,0.67526,84.9969,35.6407,3.60969,-17.8579,-6.30322,7.12502,8.40744,23.5094,-29.2753,-3.12002,24.9279,26.725,11.4951,-24.3633,39.0032,11.6649,4.8928,-19.7863,23.3022,3.4867,-17.8553,6.17794
26.1897,17.9246,27.6503,2.59683,10.6622,0.146121,9.65207,-1.06021,-1.49608,2.66561,-1.483,1.82195,-2.55233,-0.731173,2.90276,-7.00614,-5.48717,-7.21434,22.6616,-6.69678,1.09844,8.49328,-3.64,0.939653,-2.29596e-14,-1.19271e-15,-34.1447,-19.8409,-71.9415,22.4279,-5.27505,-19.1328,-21.3242,7.12502,7.177,-51.1825,-2.29596e-14,-1.19271e-15,-27.2612,0.939927,85.1192,34.7274,3.46588,-17.7215,-6.22363,7.12502,8.53915,23.5837,-28.4646,-2.81924,26.8084,26.8083,11.6098,-24.2331,38.4825,10.2127,4.86324,-17.6119,26.8423,5.08844,-17.9038,6.00237
26.2017,17.92,27.8209,2.21894,10.5564,0.314978,10.1056,-1.00689,-1.88621,2.64549,-1.45188,1.89907,-2.81278,-0.710267,3.21294,-6.68713,-5.48045,-7.20853,22.4882,-6.72879,1.17064,8.3793,-3.64897,0.970774,1.43125e-14,-8.74653e-15,-34.3096,-20.2901,-71.3799,22.0382,-5.00578,-17.127,-23.4055,7.12502,9.11278,-53.1887,1.43125e-14,-8.74653e-15,-27.6575,1.28558,85.2245,33.6842,3.10303,-17.7868,-6.64601,7.12502,8.47609,23.1639,-27.4667,-2.58384,26.612,26.8012,11.3199,-24.3931,38.3003,8.99589,4.89139,-17.4588,30.2648,7.11827,-17.8234,6.33948
26.216,17.9271,27.9985,1.75776,10.4043,0.409223,10.2515,-0.945032,-2.16783,2.84515,-1.39844,1.96121,-2.68036,-0.687291,3.43123,-6.46769,-5.50384,-7.43945,22.2006,-6.82449,1.54688,8.26829,-3.67741,1.13297,1.96797e-14,0,-34.1767,-20.4154,-71.1637,21.605,-5.304,-15.0245,-26.052,7.12502,11.1411,-55.7363,1.96797e-14,0,-27.8236,1.43024,85.298,32.8464,2.4757,-17.4703,-6.50893,7.12502,8.78153,23.2884,-26.3756,-2.14767,26.3852,26.7817,10.7006,-24.9443,38.3212,7.92623,4.87349,-17.2598,33.5052,8.68414,-17.5509,5.5325
26.2404,17.9452,28.171,1.3212,10.2864,-0.304173,10.1806,-0.935464,-1.3643,3.02223,-1.29838,2.13123,-2.48,-0.643985,3.13698,-6.19209,-5.54791,-7.09758,21.8544,-6.92398,1.41268,8.08668,-3.70889,1.0351,-7.95139e-15,8.34896e-15,-34.1458,-20.6596,-71.0132,21.3179,-5.5981,-14.7129,-26.6604,7.12502,11.4416,-56.3282,-7.95139e-15,8.34896e-15,-28.0205,1.33604,85.3606,32.1972,2.37062,-17.1454,-5.91179,7.12502,9.09501,23.8721,-25.4322,-2.03926,27.1051,26.7772,10.1356,-25.1074,38.2275,6.77323,4.70058,-16.2822,36.6166,10.1213,-17.2951,4.8718
26.2562,17.9697,28.3371,1.03281,10.308,-1.0719,10.1289,-0.953812,-0.498376,3.08268,-1.23168,2.27444,-2.40922,-0.612653,2.78646,-6.22024,-5.78043,-7.91088,22.1818,-7.38602,2.57967,8.30249,-3.88787,1.50368,-2.24627e-14,1.59028e-15,-34.2072,-21.4255,-70.6865,20.9256,-5.43583,-15.5021,-25.6318,7.12502,10.6804,-55.3404,-2.24627e-14,1.59028e-15,-28.1564,1.13204,85.3724,31.2736,2.45885,-16.748,-5.62638,7.12502,9.47849,24.1405,-24.5367,-1.96493,27.9309,26.5986,9.68529,-25.3239,38.1329,5.31022,4.32957,-15.2286,39.7229,11.6739,-17.3422,3.58178
26.2555,17.989,28.4909,0.805043,10.2485,-1.83198,10.3821,-0.959367,-0.00133753,2.97098,-1.17482,2.53701,-2.67199,-0.582182,2.78043,-6.03339,-5.76376,-7.21121,21.9747,-7.36065,2.05275,8.14628,-3.86912,1.22585,-2.21645e-14,-1.82882e-14,-34.368,-22.0201,-70.2637,20.5584,-4.88396,-15.8424,-25.3188,7.12502,10.3522,-55.044,-2.21645e-14,-1.82882e-14,-28.5493,1.06034,85.4136,30.4641,2.1413,-16.1168,-5.89485,7.12502,10.0875,23.8434,-23.6213,-1.35871,28.7661,26.2185,9.13587,-26.1726,38.2362,3.56864,4.0751,-14.071,42.8449,13.698,-17.7281,1.63554
26.2705,18.0088,28.6466,0.535813,10.0946,-2.04171,10.6765,-0.937282,0.0691337,2.91103,-1.12797,2.65526,-2.89735,-0.556974,2.86639,-6.04748,-5.88818,-7.66633,22.3338,-7.57403,2.50306,8.31906,-3.96737,1.42367,-1.31198e-14,1.43125e-14,-34.5323,-22.3278,-69.8781,20.4881,-4.17316,-15.2196,-26.5131,7.12502,10.953,-56.2074,-1.31198e-14,1.43125e-14,-29.0009,1.03591,85.4967,29.9293,1.81351,-15.4856,-6.09559,7.12502,10.6964,23.6121,-22.4997,-1.23348,29.0639,25.7446,8.57741,-26.5162,38.2467,2.06801,3.91645,-13.663,45.7936,15.2663,-18.5246,-1.78637
26.2798,18.0296,28.8098,0.123387,9.85339,-2.49618,10.6655,-0.776177,0.489315,3.10388,-0.869489,2.77948,-2.70776,-0.431714,2.72231,-5.87192,-6.07571,-7.53604,22.1294,-7.86036,2.50075,8.22785,-4.09273,1.38043,2.52457e-14,1.43125e-14,-34.5543,-23.1516,-69.4193,20.5115,-3.37154,-13.8836,-27.9159,7.12502,12.2414,-57.5376,2.52457e-14,1.43125e-14,-28.8579,0.980509,85.5502,29.1916,0.836775,-14.3563,-5.51594,7.12502,11.7855,24.1325,-21.3373,-1.005,29.6453,25.4085,8.45387,-26.6369,37.9754,0.820044,3.94284,-12.9231,48.4003,16.841,-19.2465,-2.51715
26.2826,18.0443,28.9767,-0.3597,9.70624,-2.99111,11.1241,-0.717208,0.387162,2.97495,-0.771427,3.24094,-3.0899,-0.379654,3.2618,-5.66537,-6.23326,-8.39105,22.4534,-8.10492,3.04599,8.37835,-4.23168,1.6783,6.07287e-14,-1.90833e-14,-34.8166,-23.0907,-68.6684,20.3296,-2.6823,-13.2674,-27.8465,7.12502,12.8354,-57.4318,6.07287e-14,-1.90833e-14,-29.446,1.65434,85.83,28.503,0.304701,-13.8797,-5.95272,7.12502,12.2451,23.6688,-20.0001,-0.775513,30.2708,24.8416,8.68566,-26.7272,37.6294,-0.465627,3.9016,-12.0589,51.0724,18.3693,-19.4976,0.590826
26.3151,18.0664,29.1666,-0.682434,9.82348,-2.3361,10.2209,-0.660736,0.0702876,3.66112,-0.776445,2.93044,-1.88067,-0.394832,3.08954,-5.94668,-6.48496,-8.34311,22.3088,-8.49625,3.33168,8.41459,-4.38077,1.71683,-1.02374e-14,-3.06128e-14,-34.016,-23.756,-68.9194,20.0442,-2.69955,-15.2547,-24.9599,7.12502,10.9191,-54.656,-1.02374e-14,-3.06128e-14,-28.7921,1.54313,85.7598,27.907,-0.336446,-12.5478,-5.81651,7.12502,13.5291,23.724,-18.6592,-1.72419,29.5892,24.6043,8.37665,-25.9946,37.2265,-1.30049,3.36752,-12.8122,53.1816,18.4528,-19.7969,2.49353
26.3068,18.0639,29.2813,-0.688311,8.97574,-4.62564,10.8423,-0.529378,1.79683,3.04891,-0.362435,3.678,-2.88573,-0.182349,2.86126,-5.59315,-6.45992,-8.04383,22.7405,-8.43619,2.83703,8.45761,-4.38046,1.5187,7.35503e-15,1.63003e-14,-34.2992,-22.6016,-69.1822,20.0595,-3.80305,-19.3095,-19.2951,7.12502,7.00644,-49.1592,7.35503e-15,1.63003e-14,-29.6087,1.83505,85.6507,27.4439,-0.971318,-11.3485,-5.61062,7.12502,14.6848,23.8493,-18.1579,-0.189034,32.2501,23.7992,9.00511,-26.5151,37.0153,-3.63371,3.93491,-9.84772,56.0705,17.698,-20.864,2.93416
26.3266,18.089,29.4728,-1.20133,9.05096,-2.7687,11.0118,-0.368568,0.241586,3.33199,-0.348911,2.9423,-2.68016,-0.174206,2.96883,-5.52988,-6.63651,-8.14388,23.0783,-8.81288,3.41251,8.61443,-4.51452,1.68723,-3.08116e-15,1.51076e-14,-34.2995,-23.4421,-69.1706,19.8071,-3.21674,-16.5353,-25.1006,7.12502,9.6837,-54.858,-3.08116e-15,1.51076e-14,-29.66,1.3361,85.4306,26.8504,-1.48297,-10.9572,-6.07482,7.12502,15.0618,23.3573,-16.4338,-0.753163,30.2676,23.6135,8.41716,-26.2497,36.7892,-3.83483,3.09291,-11.9693,57.7989,16.1105,-20.5049,3.74646
26.312,18.0548,29.5448,-1.13495,8.04874,-6.48343,11.4965,-0.263531,3.38524,2.85221,0.227766,4.06196,-3.46669,0.101719,2.29685,-5.41554,-6.69616,-8.38804,23.3345,-8.93493,3.64588,8.71311,-4.57322,1.79388,6.65929e-15,-2.0276e-14,-34.1464,-23.6795,-68.9295,19.5081,-2.25241,-15.897,-25.9659,7.12502,10.2995,-55.6937,6.65929e-15,-2.0276e-14,-30.1028,1.84473,85.3306,26.5343,-2.29767,-10.525,-6.28702,7.12502,15.4781,23.1134,-16.567,1.32515,34.495,23.2687,8.68406,-27.3181,36.9054,-6.60053,3.99721,-7.25115,60.3009,14.6889,-21.5776,3.87873
26.3613,18.0992,29.7707,-1.30597,8.54729,-3.96993,10.6559,-0.275727,1.31546,3.27819,-0.107528,3.29728,-2.55419,-0.0557018,2.69733,-5.50053,-6.8401,-7.70698,23.357,-9.0448,2.86324,8.67159,-4.63872,1.40725,2.32578e-14,-2.74323e-14,-33.6131,-22.5707,-69.6981,19.6752,-3.32408,-18.2471,-22.752,7.12502,8.03189,-52.5794,2.32578e-14,-2.74323e-14,-30.2483,1.99527,85.2684,26.4555,-3.00727,-9.78355,-5.71687,7.12502,16.1921,23.6269,-15.1268,-0.394192,31.6859,23.3396,7.63388,-26.3482,36.5488,-6.75197,2.7103,-10.491,61.2465,11.951,-20.2665,1.23334
26.3831,18.1187,29.9424,-1.32846,8.54592,-3.1746,10.9434,-0.152113,0.650987,2.88368,-0.00393371,3.04721,-3.12665,0.000511343,2.80405,-5.17585,-6.97395,-7.86778,24.0894,-9.24387,2.80863,8.88407,-4.75616,1.3979,-9.24349e-15,-1.15295e-14,-34.217,-24.1971,-68.5911,19.0705,-1.31609,-19.8376,-19.6842,7.12502,6.49658,-49.5645,-9.24349e-15,-1.15295e-14,-31.2391,1.92849,85.2352,26.4008,-3.44145,-9.24813,-5.5758,7.12502,16.7076,23.7252,-14.1522,-0.958784,30.8359,23.0234,7.53148,-25.8297,36.0737,-7.80092,2.16982,-11.4278,62.4647,10.2454,-19.1296,0.363109
26.3914,18.1286,30.0912,-1.47431,8.4333,-3.89222,9.90942,-0.125443,1.31141,3.57133,0.053788,3.2351,-1.84588,0.0229896,2.6071,-5.59128,-7.11389,-8.00694,23.8315,-9.46564,3.18276,8.91047,-4.82902,1.50865,1.59028e-14,-5.56597e-15,-32.9495,-24.4313,-69.3281,19.3716,-1.47324,-19.7841,-20.4745,7.12502,6.54829,-50.3533,1.59028e-14,-5.56597e-15,-30.2428,2.47665,85.0714,26.0337,-3.80841,-8.5659,-5.26978,7.12502,17.3643,23.9746,-13.5076,-0.981222,31.6852,22.9756,7.35217,-25.7928,35.7858,-9.14619,1.90477,-10.4452,63.5957,8.83531,-18.106,0.515802
26.4157,18.1549,30.2728,-1.84546,8.45589,-3.61732,10.2083,-0.22129,0.848776,3.44407,-0.104482,3.24416,-2.13539,-0.0564097,2.89951,-5.67338,-7.06149,-8.14822,24.5414,-9.39335,3.17983,9.17703,-4.80771,1.52785,7.25564e-15,2.10712e-14,-33.141,-22.6663,-70.0046,20.2366,-3.1554,-20.2841,-21.6607,7.12502,6.06556,-51.5538,7.25564e-15,2.10712e-14,-30.976,3.08457,84.8465,25.7838,-3.78365,-8.24672,-4.97963,7.12502,17.6714,24.2373,-12.0471,-1.67907,31.3243,22.3754,6.53344,-25.3561,35.901,-9.76039,1.39734,-10.7733,64.5687,7.00846,-16.5716,-0.206976
26.3947,18.134,30.3355,-1.81395,7.19093,-5.58614,11.1441,0.107991,2.24986,3.0614,0.548772,3.8184,-3.06837,0.268053,2.63311,-5.64104,-7.09359,-8.00007,24.772,-9.46344,3.14183,9.246,-4.832,1.48243,5.56597e-15,-1.98785e-14,-33.1027,-21.6769,-70.7108,20.9807,-4.63968,-21.931,-21.237,7.12502,4.47544,-51.1697,5.56597e-15,-1.98785e-14,-31.314,3.2148,84.6374,25.4307,-3.48866,-8.80259,-5.48826,7.12502,17.1365,23.776,-11.753,0.84326,33.7565,21.7051,6.603,-26.74,36.3961,-11.9931,2.61536,-7.91574,66.0622,5.9447,-15.9368,-1.04958
26.4128,18.1374,30.4818,-1.86394,6.82077,-6.62639,11.9686,0.170095,3.27011,2.25882,0.847953,4.07093,-4.36026,0.401282,2.2853,-4.47073,-7.09712,-7.8059,24.8128,-9.50122,2.78746,9.01743,-4.88566,1.37305,1.09332e-15,-1.35174e-14,-33.9444,-20.7545,-70.7139,21.0675,-5.70969,-22.9208,-20.5881,7.12502,3.51962,-50.5388,1.09332e-15,-1.35174e-14,-32.8899,3.59494,84.3509,25.4818,-3.77559,-9.16752,-5.56963,7.12502,16.7852,23.7248,-10.9853,1.00118,34.93,21.2158,6.1495,-26.7845,36.4435,-13.3419,2.67995,-6.60636,66.8744,4.83126,-14.5706,0.195146
26.4099,18.1437,30.6098,-1.88281,6.31333,-6.28576,12.2939,0.445293,2.65433,2.14961,1.15411,4.0062,-4.67076,0.55851,2.51646,-4.25838,-7.20369,-8.10827,24.969,-9.72085,3.15499,9.08278,-4.98358,1.52893,8.15017e-15,-1.55052e-14,-33.9919,-20.3351,-71.0571,21.6938,-6.30113,-22.6373,-21.2908,7.12502,3.79334,-51.2368,8.15017e-15,-1.55052e-14,-33.278,4.17284,84.0567,25.5725,-4.38489,-9.05713,-5.12981,7.12502,16.8914,24.1556,-10.2646,2.04925,34.6698,20.9395,5.16647,-27.6712,36.9673,-14.5572,2.80392,-6.85551,67.41,3.86904,-13.0062,1.34562
26.421,18.1722,30.7836,-1.90813,6.32229,-6.14741,11.8217,0.42721,2.5922,2.28876,1.08066,3.81933,-4.25906,0.523914,2.36671,-4.42141,-7.36691,-7.97943,24.9734,-9.97947,3.24767,9.12798,-5.08215,1.50501,-1.34677e-14,-9.54166e-15,-33.7563,-20.2157,-71.6621,22.2074,-6.35156,-21.7174,-21.8113,7.12502,4.68167,-51.7396,-1.34677e-14,-9.54166e-15,-33.3917,4.06423,83.7506,25.6687,-4.05271,-9.08427,-4.66022,7.12502,16.8653,24.6274,-9.51539,1.96875,34.4892,20.7673,4.21618,-27.8384,37.1336,-15.4774,2.4726,-6.96211,67.5548,2.92004,-11.2867,3.98473
26.4487,18.1798,30.9364,-2.02052,6.14968,-5.81125,11.9178,0.328365,2.04133,2.25611,0.887944,3.84276,-4.35058,0.4355,2.73247,-4.56764,-7.29237,-8.18193,25.3291,-9.87001,3.30575,9.2888,-5.04262,1.55899,2.5842e-15,-5.52621e-14,-33.4691,-18.8698,-72.2702,22.753,-6.96126,-20.2977,-22.6014,7.12502,6.05239,-52.495,2.5842e-15,-5.52621e-14,-33.972,4.46537,83.6698,25.7573,-3.02415,-9.77206,-4.8138,7.12502,16.2031,24.529,-8.73154,1.33043,34.1624,20.6464,4.32837,-27.0972,36.598,-16.1668,2.1848,-7.30608,67.4179,1.90841,-9.36583,6.99893
26.4583,18.1285,31.0185,-1.84982,5.11026,-7.64163,12.2798,0.516429,3.56108,2.01038,1.39305,4.38822,-4.80436,0.663153,2.37028,-4.3124,-7.23252,-7.95477,25.2901,-9.75179,2.96787,9.18927,-5.00403,1.43164,1.09829e-14,-3.97569e-16,-33.3423,-17.9431,-72.8087,23.63,-7.536,-18.9574,-24.4942,7.12502,7.34627,-54.3466,1.09829e-14,-3.97569e-16,-34.3455,5.37806,83.2889,25.8555,-2.84346,-10.397,-5.20093,7.12502,15.6013,24.1899,-8.56636,2.13863,36.3652,20.4554,4.95793,-26.8515,36.1204,-17.8778,3.10313,-4.89352,67.5191,0.600787,-8.41124,6.15685
26.4973,18.1397,31.2112,-1.94832,5.09746,-7.57706,11.6045,0.444091,3.74372,2.13151,1.26564,4.35125,-4.29597,0.602339,2.25072,-4.15077,-7.21872,-7.88249,25.334,-9.67631,2.64153,9.15003,-4.99633,1.32356,-1.5704e-14,-3.69739e-14,-33.1685,-16.7954,-73.4655,23.8963,-9.46311,-20.1933,-22.402,7.12502,6.15322,-52.2927,-1.5704e-14,-3.69739e-14,-34.8482,6.59585,82.7836,26.1431,-3.44124,-10.5103,-4.83644,7.12502,15.4922,24.5629,-7.60598,1.07079,36.1582,20.4627,4.18728,-26.0073,35.7493,-18.2876,2.70252,-5.08067,66.7691,-0.874856,-7.08082,6.33337
26.5215,18.1571,31.4,-2.31625,4.91529,-6.42295,11.6118,0.55368,2.61221,2.22967,1.25469,4.0937,-4.21521,0.610899,2.61855,-3.8934,-7.25512,-8.08594,25.3184,-9.72137,2.64065,9.11247,-5.0401,1.36144,1.04362e-14,3.65764e-14,-33.0054,-15.5477,-73.9784,24.3343,-10.417,-20.0077,-22.7489,7.12502,6.33235,-52.6343,1.04362e-14,3.65764e-14,-35.3849,6.22464,83.0043,26.4184,-2.40889,-10.7525,-3.97381,7.12502,15.2589,25.4434,-6.21921,0.563927,34.8282,20.2915,3.50218,-25.5625,35.5242,-18.2315,2.20044,-6.4494,66.0273,-2.55059,-5.75725,5.83519
26.5577,18.1849,31.6084,-2.83553,5.0485,-4.27703,11.4976,0.647771,0.688249,2.51102,1.10432,3.52999,-3.87778,0.554874,3.13648,-3.92674,-7.35183,-8.88826,25.5959,-9.94729,3.39234,9.31887,-5.14682,1.71578,-8.74653e-15,5.96354e-15,-32.7785,-14.5202,-74.4486,24.8511,-11.0875,-19.7626,-23.4877,7.12502,6.56904,-53.3658,-8.74653e-15,5.96354e-15,-35.9182,6.95765,82.8034,26.9013,-2.33267,-10.9387,-3.56947,7.12502,15.0795,25.8613,-4.66186,-0.929576,32.2174,20.4252,2.45382,-24.4576,35.1796,-17.6256,1.14591,-9.17168,64.8687,-4.31446,-4.07285,5.99498
26.5404,18.1259,31.6402,-2.44341,4.09954,-7.14783,12.3079,0.791755,3.0364,2.13274,1.6822,4.37259,-4.71041,0.814615,2.60217,-4.09664,-7.47733,-9.09531,25.6629,-10.1332,3.58154,9.41071,-5.23159,1.78489,1.14301e-14,-1.07344e-14,-32.3518,-13.9092,-75.0887,25.5958,-11.6932,-19.9669,-24.6359,7.12502,6.37173,-54.52,1.14301e-14,-1.07344e-14,-35.8593,6.73251,82.8572,26.712,-1.40865,-11.7899,-3.92455,7.12502,14.2594,25.5659,-5.50397,1.42695,35.8152,20.9647,2.59232,-25.9862,35.3751,-20.154,2.0987,-5.33805,64.6647,-4.38688,-3.88698,9.76463
26.5415,18.0788,31.7102,-2.29003,3.45469,-8.37038,12.921,0.890622,3.9723,2.03619,2.001,4.66939,-5.13874,0.953487,2.32986,-4.29494,-7.45257,-8.82686,25.6786,-10.0981,3.49936,9.42903,-5.19546,1.70966,-1.96797e-14,-3.4191e-14,-31.7203,-13.3769,-75.8393,26.3173,-12.0201,-19.7314,-25.9905,7.12502,6.59916,-55.8677,-1.96797e-14,-3.4191e-14,-35.7732,6.75379,82.6878,26.686,-0.877299,-12.3742,-4.06194,7.12502,13.6964,25.4674,-5.72983,2.56566,37.3531,21.4553,1.45767,-26.9566,36.0134,-21.7154,2.49554,-3.67716,63.9854,-5.01596,-3.55568,8.45928
26.5536,18.04,31.7906,-2.19043,2.30529,-8.51994,13.5696,1.27751,3.89092,1.99327,2.55413,4.74175,-5.55779,1.22156,2.34551,-4.2082,-7.41499,-8.38273,25.538,-9.97652,2.98304,9.30027,-5.14909,1.48141,-2.16178e-14,-4.05521e-14,-31.2562,-12.5828,-76.3566,26.917,-12.1621,-19.9618,-25.4957,7.12502,6.37674,-55.3797,-2.16178e-14,-4.05521e-14,-35.7433,6.9766,82.6496,26.7086,-0.465933,-12.8392,-4.04083,7.12502,13.2482,25.5181,-5.59878,3.92175,37.7002,21.8911,-0.0289307,-27.6801,36.783,-22.6538,3.05788,-3.32971,63.0188,-5.92039,-2.84524,10.4603
26.6027,18.0598,32.0162,-2.14074,2.76015,-7.4735,12.2041,1.15229,3.40468,2.23305,2.19626,4.42304,-4.54827,1.06368,2.36668,-3.93407,-7.46752,-8.23216,25.4866,-9.94746,2.411,9.19193,-5.18027,1.27852,2.98177e-16,3.49861e-14,-31.1669,-11.5221,-76.7746,27.6207,-12.597,-21.1984,-23.7709,7.12502,5.18277,-53.6875,2.98177e-16,3.49861e-14,-35.9599,7.30088,82.6672,26.8309,-0.0123392,-13.2893,-4.13691,7.12502,12.8143,25.4498,-4.80501,2.06005,36.2419,22.1509,-1.54883,-26.585,36.6953,-22.7434,2.04385,-4.76304,61.3452,-7.4529,-2.01236,7.37682
26.6471,18.0734,32.242,-2.66338,2.94395,-5.28029,11.81,1.02795,1.50013,2.58161,1.72204,3.76039,-3.9907,0.852246,2.82412,-4.44232,-7.4215,-8.74909,26.2236,-9.91863,2.87639,9.6034,-5.16498,1.4916,1.0635e-14,-1.63003e-14,-31.0909,-10.1764,-77.5545,28.4288,-12.9864,-21.5198,-23.038,7.12502,4.87245,-52.962,1.0635e-14,-1.63003e-14,-36.3483,7.76361,82.3635,26.9793,0.564407,-13.5175,-4.15489,7.12502,12.5943,25.4455,-3.12869,0.0471244,33.4939,22.2202,-2.57622,-25.0901,36.2237,-21.8323,1.09618,-7.47691,59.2416,-8.47366,-1.00176,7.62726
26.6652,18.0307,32.3767,-2.6211,2.4718,-6.66008,12.0425,0.870544,2.62616,2.37885,1.69215,4.16697,-4.31046,0.825388,2.61762,-4.40325,-7.2601,-8.27305,26.3116,-9.61041,2.25355,9.54681,-5.04191,1.2369,2.03257e-14,7.87187e-14,-31.1703,-8.73,-78.2975,29.3166,-13.1775,-20.9475,-23.3709,7.12502,5.42507,-53.2814,2.03257e-14,7.87187e-14,-36.8914,8.24052,82.0356,27.1367,0.883442,-13.8689,-4.26355,7.12502,12.2555,25.3573,-2.5187,0.282506,35.1232,21.9603,-1.58138,-25.0314,35.1909,-22.487,1.17178,-5.69369,57.3976,-8.87732,-0.884065,9.86261
26.6781,18.0291,32.5277,-2.65248,2.20763,-6.48876,12.0658,0.946527,2.43898,2.34576,1.77052,4.13832,-4.36505,0.866041,2.68051,-4.26382,-7.22284,-8.21691,26.4104,-9.52581,2.03969,9.53739,-5.02094,1.1684,2.5842e-15,-7.15625e-15,-31.0454,-7.42965,-78.868,29.9517,-13.7398,-20.9321,-23.1766,7.12502,5.43988,-53.0868,2.5842e-15,-7.15625e-15,-37.2902,8.70347,81.8426,27.5023,0.702849,-14.3653,-4.41319,7.12502,11.7769,25.2357,-1.88165,0.503157,34.9388,21.8677,-0.587377,-24.8971,34.0569,-22.6063,0.685272,-5.79513,55.1635,-8.47448,-0.487606,11.0156
26.6933,18.0258,32.6616,-2.35116,1.95814,-7.10269,11.787,0.927454,3.12689,2.34226,1.81935,4.22304,-4.1976,0.882691,2.37746,-4.43418,-7.21783,-8.34065,26.5195,-9.55454,2.28552,9.62966,-5.02001,1.26085,1.03368e-14,3.97569e-16,-30.5096,-6.17265,-79.6429,30.3019,-14.1243,-21.3497,-22.1835,7.12502,5.03673,-52.1036,1.03368e-14,3.97569e-16,-37.4654,9.61777,81.3185,27.9112,0.00752104,-14.3637,-4.4267,7.12502,11.7784,25.2221,-1.70519,0.860066,35.5486,21.731,-1.00654,-24.9101,34.1409,-23.2681,0.432657,-4.96438,52.9013,-7.82359,-0.460558,11.626
26.7078,18.0318,32.7875,-2.12313,1.93004,-6.63458,11.57,0.936539,2.70014,2.47861,1.75247,4.07127,-3.9414,0.85565,2.47137,-4.74951,-7.25829,-7.96215,26.3904,-9.54446,1.92889,9.60087,-5.01006,1.06788,2.28105e-14,-2.5842e-14,-29.8126,-4.9857,-80.3002,30.7419,-14.3119,-21.2354,-21.7908,7.12502,5.14702,-51.7083,2.28105e-14,-2.5842e-14,-36.9463,8.8131,81.7564,27.5895,1.07785,-14.6422,-4.30341,7.12502,11.5099,25.3606,-1.50494,0.982294,34.9847,21.8324,-2.09828,-25.035,34.5446,-23.6645,-0.19096,-5.37785,50.1922,-6.8771,-0.460937,12.7066
26.7324,18.0502,32.9365,-2.08745,1.64556,-5.51471,11.3482,1.11481,1.76896,2.64837,1.84608,3.76119,-3.66288,0.910736,2.66108,-4.94747,-7.36212,-8.18731,26.4686,-9.66257,2.00132,9.69121,-5.07562,1.10573,3.47873e-16,4.21423e-14,-29.4681,-3.81218,-80.7622,31.4265,-14.7803,-20.6336,-22.0662,7.12502,5.72807,-51.9687,3.47873e-16,4.21423e-14,-36.7591,8.97375,81.8709,27.5914,1.05476,-14.8944,-4.41512,7.12502,11.2666,25.2623,-0.879044,0.995661,33.6439,21.9015,-3.03974,-24.8905,34.6253,-23.4202,-0.89783,-6.58543,47.3348,-6.00313,-0.354855,16.0567
26.7533,18.0485,33.0845,-2.04776,1.45169,-5.37848,11.2426,1.18715,1.75721,2.67924,1.93315,3.72421,-3.57462,0.953963,2.61824,-4.63229,-7.39848,-7.90803,26.1107,-9.67873,1.65186,9.46983,-5.09462,0.958778,5.96354e-16,9.14409e-15,-29.3961,-2.92305,-81.1158,32.1439,-14.9528,-20.2028,-21.8594,7.12502,6.14398,-51.7503,5.96354e-16,9.14409e-15,-36.8852,9.95266,81.5444,27.7477,0.106588,-14.9208,-4.80734,7.12502,11.2411,24.8715,-0.326906,1.10591,33.4497,21.9501,-3.90155,-24.9512,34.745,-23.2996,-1.43309,-6.62058,44.4047,-5.07901,-0.540671,21.2088
26.7735,18.0389,33.2283,-1.89054,1.38002,-5.90139,11.0367,1.12092,2.32375,2.6888,1.90717,3.89904,-3.43773,0.937628,2.48902,-4.63675,-7.40607,-8.22106,26.094,-9.68896,1.82564,9.49378,-5.1113,1.06642,-2.78299e-14,-3.02153e-14,-29.2078,-1.70458,-81.5152,32.7737,-15.0598,-19.6951,-21.6732,7.12502,6.63417,-51.5493,-2.78299e-14,-3.02153e-14,-36.4937,9.44488,81.9183,27.033,0.862519,-15.1349,-4.98188,7.12502,11.0347,24.7081,0.0706964,1.0244,33.9805,21.8643,-4.24435,-24.9566,34.585,-23.4664,-1.86533,-5.84892,41.447,-3.98135,-1.08162,27.8805
26.7867,18.0328,33.3698,-1.81338,1.37962,-5.65535,11.042,1.10992,1.99752,2.66394,1.85909,3.93803,-3.47706,0.916279,2.7203,-4.5768,-7.42125,-8.56482,26.0598,-9.68829,1.91098,9.49664,-5.13519,1.15287,3.27995e-15,-1.82882e-14,-29.0575,-0.241452,-81.83,33.3307,-15.2948,-19.1227,-21.7524,7.12502,7.18668,-51.6104,3.27995e-15,-1.82882e-14,-36.7409,10.223,81.8054,27.4444,0.42636,-14.7238,-4.68564,7.12502,11.4311,24.9827,0.611827,1.03877,33.7368,21.6633,-4.0398,-25.2034,34.0366,-23.5207,-2.46167,-5.93245,38.4946,-2.87082,-1.70488,36.4924
26.8088,18.0237,33.5125,-1.70362,0.835396,-5.32442,11.0572,1.29579,1.76132,2.65554,2.0745,3.82091,-3.50557,1.02432,2.70028,-4.68949,-7.46533,-8.873,26.213,-9.77438,2.19622,9.61178,-5.17492,1.28266,-2.88238e-15,-2.14687e-14,-28.8263,0.392504,-82.0719,33.7206,-15.201,-18.8117,-21.2951,7.12502,7.48693,-51.1426,-2.88238e-15,-2.14687e-14,-36.8628,10.6943,81.6307,27.7727,-0.0142833,-14.3322,-4.51702,7.12502,11.8088,25.1301,1.27273,1.37546,33.3367,21.3405,-4.20936,-25.0898,33.8198,-23.3276,-3.09409,-6.08594,35.6352,-2.2807,-2.40671,47.2521
26.8335,18.0105,33.6626,-1.73128,0.240343,-5.33562,11.031,1.41405,1.91419,2.75511,2.23815,3.72864,-3.38343,1.10387,2.49606,-4.95645,-7.5052,-8.64138,26.4292,-9.79082,1.97157,9.71487,-5.18084,1.15246,2.11706e-14,8.74653e-15,-28.5686,1.08328,-82.52,34.105,-15.5435,-19.1739,-20.6499,7.12502,7.13728,-50.5095,2.11706e-14,8.74653e-15,-36.672,10.1549,81.7976,27.6647,0.663385,-14.408,-4.61537,7.12502,11.7357,25.0359,2.02962,1.5962,33.2383,21.1691,-4.76828,-24.8156,33.7821,-22.851,-3.92613,-5.83186,32.7202,-1.88041,-3.07353,53.6919
26.8385,17.9901,33.8009,-1.4814,0.185777,-6.15424,10.9873,1.32301,2.52031,2.60533,2.20203,4.01278,-3.503,1.08169,2.45675,-5.01823,-7.49049,-8.56965,26.6445,-9.73369,1.77812,9.78681,-5.16787,1.07509,-1.42131e-14,-9.54166e-15,-28.5543,1.95281,-82.8045,34.4455,-15.3186,-18.7668,-20.116,7.12502,7.53029,-49.9619,-1.42131e-14,-9.54166e-15,-36.7179,10.0794,81.8711,27.4357,0.743785,-14.3182,-4.80623,7.12502,11.8222,24.8401,2.35277,1.78066,34.1954,20.9388,-5.08879,-25.1035,33.801,-23.1955,-4.63195,-4.58059,30.0425,-0.790381,-3.36239,57.5204
26.85,17.9806,33.9507,-1.28072,0.0941684,-5.45412,10.865,1.3814,1.70618,2.48645,2.18346,3.88322,-3.58454,1.0791,2.78361,-4.67791,-7.48945,-8.45805,26.3856,-9.7072,1.52698,9.60841,-5.17385,0.992743,-1.82882e-14,-1.31198e-14,-28.5781,2.0532,-82.8545,34.6789,-14.8514,-18.6322,-19.4293,7.12502,7.66015,-49.2706,-1.82882e-14,-1.31198e-14,-37.1884,11.2532,81.4274,27.9212,-0.606456,-13.7436,-4.92094,7.12502,12.3764,24.6927,2.93932,1.71952,33.3999,20.4985,-5.26274,-25.0169,33.6114,-23.4567,-5.42748,-5.10517,27.7493,0.141462,-3.5673,59.9549
26.8766,17.9562,34.0967,-1.11156,-0.442878,-5.72779,10.6629,1.43901,2.05908,2.51884,2.28945,3.92443,-3.43101,1.12892,2.61771,-4.53515,-7.44264,-8.24335,26.1369,-9.6284,1.32774,9.46448,-5.13808,0.909738,3.27995e-15,2.50469e-14,-28.2013,1.22968,-82.823,34.6952,-13.7201,-18.0393,-18.557,7.12502,8.23239,-48.3766,3.27995e-15,2.50469e-14,-36.9819,10.949,81.6452,27.7229,-0.0626393,-13.5916,-4.3807,7.12502,12.5228,25.224,3.56406,2.02147,33.6241,20.1467,-5.09129,-24.8766,33.1265,-23.5835,-5.86048,-4.55333,25.7451,0.820562,-3.85446,60.682
26.8931,17.9323,34.2504,-0.666656,-0.223507,-6.86359,10.1336,1.11006,3.09649,2.45246,1.95038,4.22607,-3.17235,0.955148,2.40383,-4.70523,-7.34683,-8.10072,26.2401,-9.49653,1.28808,9.51468,-5.06768,0.879079,-2.37548e-14,-3.97569e-14,-27.6605,3.49626,-83.5676,34.5071,-15.2583,-18.1153,-17.935,7.12502,8.15901,-47.7575,-2.37548e-14,-3.97569e-14,-36.9162,10.619,81.7836,27.748,0.847141,-13.4432,-3.86052,7.12502,12.666,25.7354,3.70377,1.77066,34.7894,19.9577,-4.78541,-24.8888,32.4571,-24.3488,-5.76622,-3.19356,23.9372,2.20958,-3.34938,60.8909
26.9101,17.9332,34.406,-0.408185,-0.469032,-5.87176,9.909,1.10575,1.90472,2.34703,1.80884,4.01445,-3.18521,0.893117,2.87413,-4.55927,-7.26887,-8.05333,26.1863,-9.40115,1.25741,9.4584,-5.02514,0.878477,-9.34288e-15,-3.29983e-14,-27.4527,4.1375,-83.7548,34.4807,-14.7211,-17.0066,-17.7083,7.12502,9.22898,-47.4863,-9.34288e-15,-3.29983e-14,-37.2319,11.4594,81.4535,28.0285,0.478457,-13.3965,-4.29297,7.12502,12.7109,25.3002,4.19985,1.91843,33.64,19.6428,-5.03105,-24.7597,32.3249,-24.6968,-5.83487,-4.25995,22.6266,2.9279,-3.38983,60.7567
26.9264,17.9198,34.5485,-0.401335,-1.0404,-5.15346,10.0159,1.29341,1.09563,2.31347,1.97541,3.86746,-3.30757,0.981745,3.15388,-4.2185,-7.23022,-8.05653,25.9489,-9.37624,1.28146,9.31022,-5.01466,0.908066,-5.96354e-16,-1.43125e-14,-27.5091,3.66394,-83.606,34.7926,-13.5673,-15.7626,-17.4734,7.12502,10.4292,-47.1948,-5.96354e-16,-1.43125e-14,-37.3121,11.7945,81.4618,28.0269,0.281984,-13.6624,-4.87918,7.12502,12.4546,24.7297,4.98277,2.50616,32.8758,19.276,-5.09813,-24.9607,31.9915,-24.8593,-5.00647,-5.26294,21.7524,3.95216,-3.20315,60.7362
26.9446,17.8918,34.6968,-0.495453,-1.34952,-5.38708,9.98161,1.38419,1.47607,2.43967,2.12809,3.88022,-3.15132,1.05389,2.93451,-4.45641,-7.32229,-8.49515,26.3223,-9.56429,1.79546,9.55046,-5.09126,1.11661,1.39149e-14,-2.66371e-14,-27.565,3.07016,-83.6433,35.1075,-13.6149,-16.6203,-16.4153,7.12502,9.60172,-46.1765,1.39149e-14,-2.66371e-14,-37.183,10.9383,81.9221,28.2603,0.825647,-13.6437,-4.82066,7.12502,12.4726,24.7871,5.73858,2.65014,33.1151,19.2889,-6.09611,-25.0484,32.2465,-24.8389,-3.17834,-5.58809,20.8634,5.81065,-2.21658,60.8169
26.9635,17.8604,34.8467,-0.534754,-1.40762,-5.74588,9.86919,1.39622,1.94627,2.546,2.18434,3.95774,-2.96638,1.07893,2.74677,-4.0988,-7.43671,-8.12322,25.6463,-9.72539,1.55007,9.21696,-5.15658,0.982468,1.98785e-16,-2.78299e-15,-27.103,3.72485,-83.8636,34.5948,-14.8484,-18.585,-16.2283,7.12502,7.70568,-46.0679,1.98785e-16,-2.78299e-15,-36.9748,11.0926,81.9697,28.2888,0.257368,-13.2641,-4.90412,7.12502,12.8386,24.681,6.35475,2.48168,33.4789,19.4445,-6.05697,-25.3099,31.443,-24.872,-1.98123,-5.65825,20.1932,7.20944,-1.37734,61.1615
26.9704,17.8376,34.9678,-0.665051,-1.49563,-5.22907,10.3022,1.41524,1.1868,2.57443,2.14459,3.86553,-3.19889,1.06317,3.07533,-3.63289,-7.4823,-9.35193,24.8849,-10.0968,3.38106,9.05371,-5.27194,1.78635,-2.5842e-14,2.78299e-15,-26.7337,4.19489,-84.0335,34.4366,-15.2231,-17.9263,-16.014,7.12502,8.34145,-45.8293,-2.5842e-14,2.78299e-15,-36.8403,11.0665,82.1418,28.2239,0.617079,-13.7464,-5.75005,7.12502,12.3736,23.8638,6.71865,3.17165,33.1515,19.9534,-6.89162,-25.9104,31.7727,-24.6932,-1.87033,-6.3409,19.446,7.20987,-1.02297,61.2031
27.002,17.829,35.1127,-0.830377,-1.691,-4.30752,10.3321,1.39461,0.320963,2.76935,2.00935,3.5735,-3.02502,0.998685,3.27808,-4.30227,-7.6822,-8.59843,25.0358,-10.2213,2.54066,9.1484,-5.33249,1.33874,7.65321e-15,3.4191e-14,-26.5636,4.5634,-84.2606,34.8698,-15.4011,-17.1616,-17.4784,7.12502,9.07941,-47.263,7.65321e-15,3.4191e-14,-36.5384,11.1836,82.1498,28.3168,0.218476,-13.4148,-5.31175,7.12502,12.6934,24.2825,7.29497,3.49584,32.0799,20.3062,-7.10675,-25.9364,31.251,-24.2454,-1.6646,-7.69448,19.2793,7.21659,-1.06198,61.0607
27.0292,17.8199,35.2347,-1.13833,-1.87452,-2.76299,10.6768,1.51372,-1.18954,2.98016,1.99284,3.18466,-3.03045,0.99479,3.72481,-4.55162,-7.74762,-8.61466,25.3521,-10.2541,2.3528,9.30009,-5.36387,1.25848,-1.72943e-14,-1.63003e-14,-26.637,4.69671,-84.2244,35.5853,-15.5741,-16.9502,-18.2434,7.12502,9.28343,-48.019,-1.72943e-14,-1.63003e-14,-36.069,10.9049,82.5345,28.2877,0.265217,-13.329,-4.94058,7.12502,12.776,24.6485,7.46525,3.90975,30.4439,21.5617,-6.50258,-26.3682,29.6968,-23.2606,-1.84044,-9.63311,18.3589,6.3693,-0.094799,61.2858
27.0588,17.7962,35.3873,-0.413366,-1.12028,-4.94373,9.66994,0.980955,1.15183,2.97896,1.52229,3.76222,-2.39825,0.750688,3.07778,-4.70571,-7.78031,-9.05597,25.5002,-10.3605,2.86717,9.44417,-5.40194,1.48187,-4.37326e-15,1.98785e-15,-26.5187,5.17433,-84.3717,35.9326,-15.917,-17.2511,-18.1706,7.12502,8.993,-47.9589,-4.37326e-15,1.98785e-15,-35.6383,10.6715,82.8143,28.2229,0.548046,-13.4528,-4.86795,7.12502,12.6567,24.7286,6.54437,3.22754,32.6593,22.7632,-6.64994,-26.639,28.7531,-23.9728,-0.983306,-7.78738,17.8674,6.58047,1.44617,60.8298
27.0799,17.7768,35.4741,-1.07111,-0.0157944,-2.19753,10.9686,0.566783,-1.78176,3.10659,0.665774,3.0339,-2.962,0.334523,4.08115,-4.74766,-7.58649,-8.47409,25.4237,-10.1009,2.60255,9.35502,-5.25515,1.3288,-5.56597e-15,-2.18663e-14,-26.195,5.81917,-84.7587,35.9381,-15.9381,-17.4297,-18.3913,7.12502,8.82074,-48.187,-5.56597e-15,-2.18663e-14,-35.3088,11.3757,82.5783,28.2213,0.527114,-13.8852,-5.2385,7.12502,12.2398,24.3833,6.83777,4.154,30.6218,24.1795,-7.84627,-28.7228,28.9673,-23.3188,-1.51359,-11.0068,17.5546,6.92466,3.10415,60.8973
27.116,17.7638,35.6137,-1.04646,-0.149442,-2.11694,10.8953,0.466675,-1.8935,3.20671,0.520494,3.0692,-2.80604,0.258433,4.20109,-4.48389,-7.45841,-8.44064,24.9338,-9.97345,2.77241,9.1308,-5.18022,1.41292,8.74653e-15,-3.18055e-15,-26.1502,6.04945,-84.7493,36.0918,-15.861,-17.4398,-18.956,7.12502,8.81092,-48.7521,8.74653e-15,-3.18055e-15,-34.9313,11.9022,82.5851,28.0545,0.0748075,-13.5927,-5.38105,7.12502,12.5218,24.2238,6.63622,4.03651,30.4713,25.4836,-7.96343,-28.8404,27.6311,-23.0463,-1.99477,-11.1958,17.7685,7.05453,3.25645,60.6543
27.1499,17.761,35.7564,-1.05654,-0.35038,-2.16361,10.9016,0.519423,-1.80971,3.21631,0.603256,3.18724,-2.80718,0.29917,4.26662,-4.39979,-7.75759,-9.24148,24.9473,-10.4551,3.42495,9.23863,-5.41512,1.71009,7.65321e-15,1.78906e-14,-26.4242,5.88938,-84.4745,36.4483,-16.0812,-17.7565,-20.1357,7.12502,8.50529,-49.9444,7.65321e-15,1.78906e-14,-34.7137,11.7135,82.987,28.0102,-0.0651102,-13.0998,-5.1366,7.12502,12.997,24.4385,6.27878,3.98413,30.4991,27.2771,-7.8254,-29.0046,25.7899,-22.4657,-2.41299,-11.2489,17.4443,7.256,3.52889,60.2386
27.1799,17.7649,35.9091,-1.05325,-0.693539,-2.1571,10.8103,0.631178,-1.76772,3.18683,0.758798,3.25197,-2.80178,0.376742,4.29014,-4.29122,-7.95015,-10.0957,25.2125,-10.8059,4.11619,9.43423,-5.59177,2.0419,1.98785e-16,-2.38542e-15,-26.7549,5.45837,-84.2037,36.3365,-16.4198,-18.6759,-19.5196,7.12502,7.61798,-49.3624,1.98785e-16,-2.38542e-15,-34.6646,11.5354,83.2795,28.0701,-0.302052,-12.9813,-5.29054,7.12502,13.1113,24.2773,5.98585,4.03439,30.4018,28.8163,-7.83462,-28.863,24.16,-22.3299,-2.6373,-11.3976,18.0163,7.73249,3.36044,59.6736
27.2023,17.774,36.0666,-1.05666,-1.10953,-2.17547,10.6165,0.660596,-1.82413,3.23161,0.791925,3.27717,-2.65247,0.390094,4.34454,-4.19889,-7.9729,-9.75874,25.3414,-10.8104,3.75415,9.42075,-5.6009,1.86728,2.38542e-15,-1.66979e-14,-27.0204,5.07582,-84.1709,36.3493,-16.4058,-18.9035,-19.4062,7.12502,7.39827,-49.2569,2.38542e-15,-1.66979e-14,-34.5221,12.0114,83.1507,28.0732,-0.930893,-12.9474,-5.40295,7.12502,13.1439,24.1628,5.53883,4.1607,30.2953,30.5382,-8.51125,-28.627,22.7996,-22.1044,-2.74429,-11.5129,18.5227,8.18176,3.27678,58.6885
27.2175,17.7914,36.2264,-1.07966,-1.59211,-2.27348,10.4131,0.557102,-1.96417,3.33204,0.636304,3.21394,-2.42276,0.307048,4.37756,-4.18324,-7.80852,-9.16213,25.3497,-10.6169,3.55604,9.35417,-5.47916,1.72874,-1.39149e-15,5.1684e-15,-27.2967,4.66687,-84.5315,36.5677,-15.7281,-18.4492,-19.7338,7.12502,7.83683,-49.5685,-1.39149e-15,5.1684e-15,-34.2787,12.5213,82.6991,28.0223,-1.10433,-12.6432,-4.87622,7.12502,13.4371,24.6704,4.99983,4.26174,30.2614,32.4362,-8.96686,-28.4086,21.0154,-21.6926,-2.71815,-11.5199,18.8649,8.52372,3.27526,56.8399
27.2252,17.8093,36.3898,-1.08099,-2.16332,-2.28318,10.2091,0.904621,-1.98616,3.26452,1.10015,3.30168,-2.42492,0.539287,4.42491,-3.25274,-8.02463,-9.43973,24.7092,-11.0006,3.8165,9.01861,-5.6736,1.86652,1.98785e-15,3.53837e-14,-28.2314,4.12519,-84.1879,37.0632,-16.6948,-19.4748,-19.3921,7.12502,6.84683,-49.2614,1.98785e-15,3.53837e-14,-34.079,11.8137,83.2848,27.8355,-1.0791,-12.367,-4.37844,7.12502,13.7033,25.1504,4.34657,4.5231,30.1768,34.4289,-8.74511,-28.3846,18.6632,-21.4438,-2.65133,-11.5975,19.5953,8.48463,2.90993,55.0204
27.23,17.8261,36.5526,-1.05843,-2.75972,-2.19011,9.97639,0.999248,-2.25939,3.24394,1.19761,3.21033,-2.33032,0.586579,4.47407,-3.01273,-8.09603,-10.1141,24.9529,-11.2821,4.73084,9.17995,-5.78814,2.25949,5.1684e-15,1.39149e-14,-27.6471,5.65972,-84.7602,35.0095,-18.6638,-20.5156,-18.9758,7.12502,5.84205,-48.8753,5.1684e-15,1.39149e-14,-33.9961,11.6441,83.2194,27.7728,-0.82297,-12.7078,-4.52896,7.12502,13.3748,25.0217,3.50915,5.14404,30.1315,36.6538,-7.99279,-28.5726,15.7204,-21.1833,-2.45463,-11.8087,20.2702,8.39518,2.44371,54.4509
27.2427,17.7891,36.7047,-1.01888,-3.37963,-2.01682,9.85255,1.28257,-2.46753,3.12894,1.55597,3.18841,-2.42017,0.768923,4.52649,-2.32632,-8.21512,-9.41931,24.619,-11.3781,3.92565,8.85173,-5.85791,1.90313,2.23633e-14,1.63003e-14,-28.4069,4.00476,-84.3254,34.9848,-18.0758,-20.1915,-19.4012,7.12502,6.15498,-49.2918,2.23633e-14,1.63003e-14,-33.9345,11.0433,83.6488,27.6049,-0.131264,-13.8284,-5.08431,7.12502,12.2945,24.5343,2.77624,4.46871,29.745,38.9861,-3.99233,-28.1633,9.23667,-21.1448,-2.03312,-12.115,21.1321,8.23054,1.58054,55.9401
27.246,17.8103,36.8534,-0.991175,-3.88762,-1.89119,9.74259,1.04828,-2.91757,3.23566,1.19285,2.9017,-2.21515,0.581895,4.5273,-2.8796,-7.98418,-8.75121,25.164,-11.1563,4.07501,9.08768,-5.6759,1.84108,4.96962e-16,-3.97569e-15,-28.334,4.36073,-85.3282,34.7221,-18.4699,-19.3049,-21.0614,7.12502,7.01084,-50.9253,4.96962e-16,-3.97569e-15,-33.6553,11.7016,82.6658,27.5581,-0.349295,-13.9736,-5.15482,7.12502,12.1545,24.4721,1.50537,4.35433,29.4433,41.5273,-3.16262,-27.4644,5.28839,-21.0186,-1.30171,-12.4043,22.0509,8.51642,0.549642,53.8684
27.2522,17.8237,36.9939,-1.00069,-4.12463,-1.93929,9.72947,1.11643,-2.84872,3.16271,1.29008,2.88088,-2.29186,0.633287,4.45429,-2.80916,-8.19822,-10.1931,25.8381,-11.6572,5.35862,9.53151,-5.9227,2.44738,-1.48095e-14,-1.39149e-14,-28.8203,4.00619,-85.3176,34.6836,-19.2346,-19.7362,-21.5494,7.12502,6.5945,-51.4267,-1.48095e-14,-1.39149e-14,-33.5109,11.6807,82.622,27.5623,-0.543286,-13.7844,-4.74116,7.12502,12.337,24.8749,0.205956,3.89858,29.3474,44.1644,-1.36742,-26.945,0.428482,-20.9572,-0.37979,-12.5684,23.0424,9.1856,-0.557764,52.6301
27.2627,17.8429,37.1321,-0.993792,-4.28782,-1.91387,9.6503,0.782956,-3.03974,3.2572,0.823723,2.68098,-2.10311,0.395041,4.40896,-3.09826,-8.0746,-10.0276,25.9756,-11.5872,5.71823,9.63657,-5.83911,2.53979,-7.50412e-15,-1.98785e-15,-28.549,4.37534,-86.076,33.7158,-19.6981,-20.2594,-21.0201,7.12502,6.08942,-50.9126,-7.50412e-15,-1.98785e-15,-33.3437,12.5331,81.7719,27.6823,-0.395213,-13.5714,-4.692,7.12502,12.5423,24.9116,-1.21399,3.27989,29.1053,46.9338,-0.0621566,-26.3806,-3.98771,-20.7662,0.232253,-12.7573,23.6009,9.63517,-1.36824,52.3874
27.2751,17.8642,37.2715,-0.945152,-4.57464,-1.67727,9.53359,0.880941,-3.13641,3.18594,0.946356,2.62956,-2.12556,0.458017,4.39623,-2.45127,-8.27423,-10.7901,25.4929,-12.0031,6.47875,9.48434,-6.04981,2.90589,-4.57205e-15,-1.07344e-14,-28.8624,3.60557,-85.72,32.905,-19.3768,-19.2574,-19.8986,7.12502,7.05667,-49.7609,-4.57205e-15,-1.07344e-14,-33.2401,12.2174,82.0238,27.4576,-0.0238199,-14.1926,-5.45728,7.12502,11.9434,24.182,-2.77959,2.69737,28.5545,49.6954,0.602044,-25.7675,-7.5661,-20.5252,0.707722,-13.1405,24.0405,9.6643,-2.1713,52.1123
27.2911,17.8786,37.4102,-0.909479,-4.83042,-1.49314,9.40812,0.821394,-3.18169,3.14465,0.862663,2.50843,-2.08984,0.41643,4.30499,-2.05198,-8.31283,-10.7488,25.2477,-12.1172,6.59658,9.33846,-6.10171,2.94576,-9.44227e-16,-1.59028e-15,-29.391,2.50633,-85.5199,32.5515,-18.2084,-18.0473,-18.3214,7.12502,8.22471,-48.1413,-9.44227e-16,-1.59028e-15,-33.1418,11.6306,82.1727,27.2872,1.18229,-15.6039,-6.18487,7.12502,10.5822,23.5287,-4.40018,2.05075,28.0725,52.4176,2.17266,-25.1322,-11.6646,-20.1349,1.2079,-13.4865,24.2129,9.72246,-2.93224,51.7145
27.3075,17.8937,37.5478,-0.917372,-4.99805,-1.52848,9.34311,0.695972,-3.00783,3.14325,0.712286,2.48077,-2.03878,0.340572,4.19416,-1.97473,-8.30346,-10.6835,25.3944,-12.1007,6.46435,9.36191,-6.10342,2.89479,6.55989e-15,-1.43125e-14,-30.2393,1.80846,-85.4918,33.7125,-18.4036,-19.3917,-20.0615,7.12502,6.92704,-49.9282,6.55989e-15,-1.43125e-14,-33.0832,11.7423,81.9994,27.5898,0.71742,-14.703,-4.83015,7.12502,11.4512,24.8371,-5.93885,1.31885,27.862,55.0553,3.79349,-24.4773,-15.5468,-19.651,1.62767,-13.5917,24.1671,9.88394,-3.54571,51.5338
27.3195,17.9179,37.6874,-0.939856,-5.20537,-1.64459,9.28758,0.565023,-2.76552,3.12814,0.560861,2.47356,-2.0078,0.264933,4.06563,-1.93443,-8.27941,-11.0394,25.533,-12.1378,6.81659,9.45526,-6.12449,3.07007,-9.93923e-17,-1.47101e-14,-30.6791,1.25224,-85.3525,33.6367,-17.8045,-20.1148,-20.8011,7.12502,6.22902,-50.6895,-9.93923e-17,-1.47101e-14,-33.0778,11.6308,81.9557,28.0745,1.18369,-13.9785,-3.25306,7.12502,12.1498,26.3741,-7.38015,0.595493,27.746,57.5396,4.60612,-23.9386,-18.4001,-19.0605,1.9574,-13.5656,24.0241,9.97002,-4.08895,51.39
27.33,17.9464,37.824,-0.943102,-5.6345,-1.65374,9.22139,0.522791,-2.67563,3.10302,0.513078,2.44838,-1.99231,0.241259,3.99341,-1.92262,-8.32834,-11.154,25.7337,-12.2275,6.85492,9.54556,-6.17528,3.09102,-1.59525e-14,2.62396e-14,-30.9412,1.22155,-85.3467,33.1689,-17.6228,-20.3352,-22.2552,7.12502,6.01619,-52.1498,-1.59525e-14,2.62396e-14,-33.0804,11.5767,81.8667,28.2085,1.42704,-13.9521,-3.40262,7.12502,12.1753,26.2231,-8.79959,-0.0382675,27.5322,59.8804,5.60015,-23.5682,-21.1243,-18.3591,2.25083,-13.6258,23.7897,9.74277,-4.50148,50.8848
27.3433,17.9697,37.9533,-0.933683,-6.48058,-1.57678,9.21527,0.604931,-2.71843,3.06777,0.617606,2.43451,-2.03507,0.294462,3.99178,-1.75656,-8.36221,-11.1728,25.6659,-12.2706,6.77062,9.49133,-6.21123,3.06707,1.22253e-14,-2.62396e-14,-31.3781,1.29002,-85.3441,32.972,-17.8025,-20.2764,-22.9917,7.12502,6.07293,-52.8847,1.22253e-14,-2.62396e-14,-33.1188,11.9186,81.6574,28.1507,0.975893,-14.2694,-4.61013,7.12502,11.8693,25.0335,-10.4235,-0.265,27.1487,62.087,6.43281,-23.4705,-23.3308,-17.5338,2.54848,-13.7909,23.444,8.97105,-4.7106,50.413
27.3554,17.9926,38.0943,-0.948672,-6.79173,-1.65892,9.12184,0.479664,-2.50918,3.04178,0.471278,2.43792,-1.9963,0.221285,3.8924,-1.4627,-8.38937,-11.2985,25.5401,-12.3401,6.83548,9.41283,-6.25995,3.11497,-1.02374e-14,-1.19271e-15,-31.699,0.900345,-85.2389,32.365,-17.3446,-19.7863,-22.0892,7.12502,6.54608,-51.968,-1.02374e-14,-1.19271e-15,-33.0937,11.8838,81.553,28.0244,0.943241,-14.6017,-5.32838,7.12502,11.5489,24.3334,-11.8111,-1.08789,27.0172,64.1367,6.50985,-23.5642,-24.6939,-16.6195,2.55775,-13.7857,23.0081,8.3419,-5.06963,50.2923
27.3661,18.0214,38.2322,-0.966956,-7.38536,-1.75795,9.0667,0.464112,-2.25336,3.03354,0.472087,2.38717,-1.97277,0.221682,3.69398,-1.31394,-8.44428,-11.2789,25.5302,-12.4593,6.90676,9.3975,-6.31406,3.12957,-1.53064e-14,1.98785e-15,-31.7843,1.05524,-85.3571,31.7981,-17.1902,-19.3144,-21.8559,7.12502,7.00165,-51.7201,-1.53064e-14,1.98785e-15,-32.9231,11.3102,81.5696,27.856,1.43383,-14.6809,-5.4356,7.12502,11.4725,24.2305,-13.1968,-1.64339,26.9333,66.0737,6.60992,-23.6379,-25.6145,-15.713,2.69356,-13.7464,22.6363,7.59205,-5.35796,49.8847
27.3754,18.0553,38.3703,-0.973945,-7.95311,-1.79227,9.00711,0.416174,-2.10167,3.03224,0.421238,2.36518,-1.93628,0.195801,3.59035,-1.34146,-8.49455,-11.3071,25.6432,-12.551,6.94234,9.45727,-6.35773,3.13377,1.63997e-15,-8.34896e-15,-32.1214,1.71974,-85.5041,31.8225,-17.3503,-18.7505,-21.9758,7.12502,7.54597,-51.8212,1.63997e-15,-8.34896e-15,-32.7117,10.7979,81.6162,27.6869,1.78559,-14.5731,-5.2568,7.12502,11.5765,24.4035,-14.4762,-1.99235,26.802,67.8005,3.93572,-24.72,-23.0926,-14.951,2.88368,-13.7733,22.4054,7.0169,-5.61225,49.0852
27.3787,18.0753,38.4969,-0.969414,-8.66815,-1.74609,9.02959,0.425273,-2.12837,3.00329,0.429708,2.33959,-1.97933,0.200861,3.57794,-1.30812,-8.54778,-11.4391,25.6986,-12.6609,7.0647,9.50085,-6.41355,3.18526,4.22417e-15,7.95139e-16,-32.4686,1.69254,-85.4349,31.6121,-17.0248,-18.1728,-21.3491,7.12502,8.10359,-51.1737,4.22417e-15,7.95139e-16,-32.4652,10.0997,81.7283,27.346,2.18335,-15.1486,-5.8471,7.12502,11.0214,23.8436,-15.7436,-2.15297,26.5802,69.3612,-1.10012,-25.5717,-16.1431,-14.2753,3.19841,-13.8574,22.2117,6.53236,-5.7474,48.2033
27.3775,18.0902,38.6236,-0.989401,-9.14832,-1.87751,9.08962,0.366871,-1.92635,2.97688,0.367886,2.29743,-2.03397,0.171322,3.42611,-1.16524,-8.60235,-11.2952,25.614,-12.7656,7.056,9.44375,-6.45699,3.1541,-5.71506e-15,2.38542e-15,-32.1679,1.02516,-85.3461,29.6509,-16.4445,-18.284,-19.3881,7.12502,7.99626,-49.2168,-5.71506e-15,2.38542e-15,-32.2555,9.64406,81.6391,27.1017,2.40104,-15.8609,-6.5864,7.12502,10.3343,23.1397,-16.8605,-2.74126,26.6441,70.7304,-4.65662,-25.2211,-10.2753,-13.5256,3.45685,-13.7299,21.9656,6.17327,-5.96586,47.4639
