JuanDHNZ/ProyectoFinalCD/preprocessing/sports_trials_csv/01_08.csv
root1,root2,root3,root4,root5,root6,lowerback1,lowerback2,lowerback3,upperback1,upperback2,upperback3,thorax1,thorax2,thorax3,lowerneck1,lowerneck2,lowerneck3,upperneck1,upperneck2,upperneck3,head1,head2,head3,rclavicle1,rclavicle2,rhumerus1,rhumerus2,rhumerus3,rradius1,rwrist1,rhand1,rhand2,rfingers1,rthumb1,rthumb2,lclavicle1,lclavicle2,lhumerus1,lhumerus2,lhumerus3,lradius1,lwrist1,lhand1,lhand2,lfingers1,lthumb1,lthumb2,rfemur1,rfemur2,rfemur3,rtibia1,rfoot1,rfoot2,rtoes1,lfemur1,lfemur2,lfemur3,ltibia1,lfoot1,lfoot2,ltoes1
14.748,17.4792,17.9194,137.567,-74.0161,-130.087,8.29686,1.18981,9.09366,2.13257,2.22591,4.93832,-2.26601,0.962629,-0.171736,-2.38003,-8.11351,-9.81878,2.09393,-10.6986,6.79887,2.10066,-5.33166,3.61817,7.55382e-15,2.10712e-14,-26.8694,-11.89,-80.7458,19.8991,-11.3087,-18.9678,-27.897,7.12502,7.33618,-57.7498,7.55382e-15,2.10712e-14,-38.6121,20.207,72.4312,22.1402,-5.49893,-17.3757,0.352638,7.12502,8.8728,30.1461,2.74649,1.51576,37.8281,20.4336,-21.1192,-6.37054,10.3635,-37.0548,2.5723,-4.95135,40.2852,-11.7724,2.08206,10.038
14.6573,17.4803,17.9304,138.754,-74.0676,-131.222,8.27503,1.31819,8.88168,2.13372,2.3786,4.91954,-2.25122,1.04126,-0.0890172,-2.48181,-8.14102,-9.90612,2.19169,-10.7269,6.81636,2.16196,-5.34537,3.63292,-9.83984e-15,-3.49861e-14,-27.1526,-13.9598,-79.2771,19.247,-7.36234,-22.1373,-27.1398,7.12502,4.27616,-57.0767,-9.83984e-15,-3.49861e-14,-39.1608,20.4541,72.1411,22.1849,-5.32543,-17.1755,0.13788,7.12502,9.06601,29.923,2.90363,1.66614,37.4229,20.5336,-21.0715,-6.38034,10.3656,-36.8498,2.34578,-5.26043,40.3981,-11.7399,2.38202,9.44298
14.5615,17.4854,17.9509,139.746,-73.9276,-132.203,8.34073,1.36268,8.84722,2.09799,2.4451,4.99741,-2.3259,1.06938,0.00269398,-2.37897,-8.03091,-10.0365,2.09044,-10.5735,6.63456,2.09074,-5.27356,3.60873,-1.86858e-14,-1.70955e-14,-27.4582,-12.3988,-79.536,19.5003,-11.0668,-17.7573,-28.6168,7.12502,8.50459,-58.4256,-1.86858e-14,-1.70955e-14,-39.8888,20.9649,71.8131,22.2184,-5.35178,-17.2039,-0.0526281,7.12502,9.03862,29.7337,3.16617,1.71294,37.0522,20.5326,-20.9001,-5.72097,11.2411,-36.5872,2.26095,-5.46143,40.6043,-11.6753,2.79972,8.67525
14.4601,17.4902,17.9635,139.689,-74.0893,-132.238,8.34372,1.24841,8.7926,2.093,2.29078,5.00486,-2.34527,0.992747,0.0548805,-2.22034,-7.90387,-9.84317,1.96775,-10.4109,6.35431,1.97301,-5.19576,3.49382,-4.67144e-15,2.46493e-14,-27.8249,-11.9963,-79.409,19.4797,-12.257,-22.2979,-28.9287,7.12502,4.12112,-58.8685,-4.67144e-15,2.46493e-14,-40.5038,21.2397,71.3663,22.2694,-4.7597,-16.5557,-0.517042,7.12502,9.66403,29.2413,3.53285,1.5494,36.7835,20.6289,-20.8191,-5.42845,11.736,-36.2721,2.08326,-5.72014,40.7311,-11.3281,2.9369,8.54419
14.3583,17.4915,17.9592,139.466,-73.9655,-132.132,8.29162,1.26195,8.85493,2.1771,2.29572,5.00939,-2.22492,0.999169,0.0272805,-2.2287,-7.85362,-9.4705,1.93007,-10.3475,6.16455,1.91839,-5.16271,3.36391,-3.34952e-14,1.98785e-14,-28.1451,-13.3172,-78.5816,19.1731,-9.98552,-15.785,-28.6296,7.12502,10.4075,-58.352,-3.34952e-14,1.98785e-14,-40.8689,21.1462,71.0248,22.3547,-3.99906,-15.8428,-0.657902,7.12502,10.3518,29.0673,3.96257,1.84902,36.897,20.7224,-20.7105,-5.58615,11.313,-35.9203,2.18036,-5.69647,40.8787,-10.9663,2.90406,7.93946
14.2578,17.5085,17.9782,141.656,-73.9601,-134.11,8.08095,1.41106,8.74563,2.10035,2.47405,4.80876,-2.17365,1.09489,-0.134044,-2.27024,-7.85868,-9.28899,1.90774,-10.3513,6.03231,1.8976,-5.16391,3.28403,5.36719e-15,4.6118e-14,-28.5397,-16.1364,-76.8866,18.4751,-4.69286,-30.4886,-33.6226,7.12502,-3.7893,-63.5687,5.36719e-15,4.6118e-14,-41.3001,21.2335,70.7474,22.4311,-3.78728,-15.7703,-0.527942,7.12502,10.4217,29.1938,3.92741,2.08677,36.2169,20.8654,-20.4601,-5.21746,10.4819,-35.869,2.50944,-6.36562,40.977,-10.5187,3.20225,7.45357
14.1549,17.5012,17.9822,141.369,-73.7013,-134.008,8.28307,1.46556,8.9285,2.10312,2.58103,4.88629,-2.27077,1.14016,-0.168734,-2.31084,-7.8809,-9.08118,1.97151,-10.3796,5.83601,1.90102,-5.17864,3.17535,-2.26615e-14,-3.97569e-16,-28.8231,-16.4074,-76.4503,18.1437,-4.55236,-18.3307,-27.09,7.12502,7.95116,-56.9204,-2.26615e-14,-3.97569e-16,-41.8249,21.3574,70.5033,22.6285,-3.43911,-15.4009,-0.634738,7.12502,10.7781,29.0687,4.43988,2.53963,36.4344,21.0011,-20.2412,-5.62577,9.17689,-35.4118,2.81152,-6.30919,41.1434,-10.2079,3.25828,8.90314
14.0526,17.4923,17.9808,141.077,-73.4365,-133.982,8.46719,1.53249,9.0077,2.17022,2.68684,4.98738,-2.29624,1.1882,-0.120826,-2.32353,-7.82976,-9.06912,2.03233,-10.3128,5.85069,1.91832,-5.14534,3.18005,1.71949e-14,1.19271e-14,-29.0309,-14.4729,-77.2203,18.5001,-9.29555,-22.6637,-28.5099,7.12502,3.76783,-58.4563,1.71949e-14,1.19271e-14,-42.2754,21.3166,70.4328,22.9451,-2.98838,-14.8733,-0.659496,7.12502,11.287,29.0168,5.06764,2.97121,36.6695,21.1405,-19.9554,-6.04578,7.80076,-34.8318,3.10307,-6.21467,41.319,-10.27,3.0519,10.8739
13.9521,17.495,17.978,140.906,-73.2701,-133.994,8.59086,1.57471,8.97961,2.19282,2.74901,5.15402,-2.34656,1.21316,0.0591866,-2.24344,-7.70606,-9.43821,1.97801,-10.1427,5.9162,1.90031,-5.06379,3.28231,3.4191e-14,1.59028e-14,-29.4116,-14.585,-76.6819,18.5283,-9.60059,-26.6957,-28.2024,7.12502,-0.126211,-58.1821,3.4191e-14,1.59028e-14,-42.7908,21.4969,70.4515,23.1687,-2.76325,-14.6656,-0.451532,7.12502,11.4873,29.2137,5.52954,3.35256,36.7957,21.3277,-19.6209,-6.25448,7.53087,-34.3645,3.52017,-6.23369,41.5137,-10.5815,2.50539,10.8609
13.8381,17.4997,17.9872,140.969,-73.3741,-134.472,8.85396,1.53884,8.88027,2.24111,2.72044,5.17358,-2.44999,1.19555,0.129677,-2.26402,-7.65229,-9.53184,2.08158,-10.0658,5.8309,1.93217,-5.02819,3.27181,-3.40916e-14,-5.68524e-14,-29.8959,-16.2833,-75.321,18.1738,-6.23958,-27.8174,-27.2408,7.12502,-1.20958,-57.2172,-3.40916e-14,-5.68524e-14,-43.334,21.7978,70.2525,23.314,-2.59635,-14.3069,-0.560817,7.12502,11.8331,29.0849,6.12087,3.60463,36.567,21.6665,-19.4193,-6.31122,8.14553,-33.5753,3.45855,-6.55734,41.643,-11.127,2.39708,9.79852
13.7221,17.5122,18.0025,142.415,-73.8099,-135.983,8.68371,1.53747,8.49635,2.20114,2.68054,4.94068,-2.40867,1.18741,0.105,-2.43462,-7.65605,-9.38351,2.35497,-10.0693,5.85987,2.04682,-5.0282,3.24361,7.95139e-16,5.96354e-15,-30.3715,-17.1934,-74.6645,18.147,-4.9242,-27.9496,-27.2432,7.12502,-1.33722,-57.2188,7.95139e-16,5.96354e-15,-43.6146,21.7219,70.1014,23.4709,-2.27041,-14.0469,-0.586193,7.12502,12.0839,29.0449,6.2385,3.68296,35.786,22.1056,-19.0649,-6.48267,7.14715,-33.141,3.2971,-7.41122,41.699,-11.4442,2.59776,9.44491
13.6077,17.5235,18.0193,143.322,-74.0153,-136.872,8.39183,1.50651,8.55459,2.22792,2.6112,4.70226,-2.20856,1.16579,-0.159809,-2.71848,-7.55138,-9.30132,2.60748,-9.91679,5.92143,2.16899,-4.94845,3.24317,-1.51076e-14,9.14409e-15,-30.6858,-17.6223,-74.5078,18.253,-4.69187,-28.0521,-27.4091,7.12502,-1.43624,-57.384,-1.51076e-14,9.14409e-15,-43.6738,21.6535,69.9863,23.5467,-2.22159,-13.9896,-0.608602,7.12502,12.1391,29.0192,6.25412,3.73303,35.3079,22.6387,-18.6032,-6.8191,5.05653,-32.7638,3.47609,-7.9829,41.7209,-11.6508,2.48278,9.76501
13.4983,17.529,18.024,143.327,-73.8978,-137.023,8.33716,1.49807,8.88507,2.27966,2.61387,4.53298,-2.09933,1.17234,-0.514866,-2.89257,-7.41267,-9.10228,2.7871,-9.72565,5.82959,2.22603,-4.85145,3.17663,-3.88624e-14,1.23246e-14,-31.0328,-18.4952,-74.1921,18.2585,-3.52892,-27.554,-27.4017,7.12502,-0.95512,-57.3793,-3.88624e-14,1.23246e-14,-43.7678,21.828,69.5977,23.5021,-2.59032,-13.6668,-1.04986,7.12502,12.4504,28.5593,6.41571,3.88061,35.2721,23.2843,-18.3176,-6.6928,4.6728,-32.1845,3.81289,-8.05987,41.756,-11.9823,2.25172,10.0334
13.3878,17.5326,18.0245,143.501,-73.9344,-137.65,8.65263,1.60709,8.32494,2.26529,2.75196,4.80038,-2.32208,1.23117,0.0476629,-2.70044,-7.39633,-9.15013,2.80612,-9.70415,5.46325,2.17396,-4.85072,3.06835,-2.78299e-14,1.51076e-14,-31.5254,-18.2063,-73.5755,18.472,-4.00856,-27.6811,-27.8215,7.12502,-1.07792,-57.7986,-2.78299e-14,1.51076e-14,-44.214,22.0261,69.7968,23.5657,-2.704,-13.6106,-1.26425,7.12502,12.5046,28.3416,6.84305,3.56676,34.9321,23.9144,-17.9272,-6.21378,3.45616,-31.2962,3.71198,-8.27704,41.8348,-12.387,2.36034,9.79154
13.2777,17.5288,18.0306,143.794,-74.0778,-138.441,8.99924,1.5107,8.24319,2.28319,2.65857,4.65453,-2.4987,1.18219,-0.0603606,-2.54316,-7.29905,-8.93575,2.75714,-9.59147,5.36867,2.10033,-4.79529,3.0094,3.97569e-16,3.33958e-14,-31.8657,-17.6855,-73.808,18.7238,-5.2447,-28.0885,-27.9364,7.12502,-1.47134,-57.911,3.97569e-16,3.33958e-14,-44.5038,21.8821,69.6335,23.6835,-2.32922,-13.5903,-1.14322,7.12502,12.5242,28.4614,7.19999,3.06046,34.4425,24.7376,-17.2758,-6.16833,-0.154807,-30.3338,3.49056,-8.63295,41.7757,-12.7076,2.56013,9.55466
13.1637,17.5324,18.0487,144.088,-74.249,-139.009,9.07824,1.44855,8.08653,2.2802,2.57222,4.72331,-2.56164,1.13738,0.104011,-2.63363,-7.24864,-8.94801,2.97173,-9.50685,5.00909,2.15889,-4.76078,2.88783,5.86415e-15,2.78299e-15,-32.0816,-17.0179,-73.6079,18.9813,-6.12445,-28.0066,-27.1726,7.12502,-1.39229,-57.1478,5.86415e-15,2.78299e-15,-44.7337,22.4411,69.4903,23.5219,-2.69686,-13.0709,-1.3569,7.12502,13.0248,28.2165,7.29155,2.72239,33.9227,25.6172,-16.6097,-5.74311,-1.24497,-29.6402,3.55011,-9.04356,41.6931,-12.9164,2.54204,9.60419
13.0441,17.5641,18.0731,148.681,-75.1777,-143.648,8.76633,1.45086,6.78654,2.20959,2.45693,4.3415,-2.51303,1.10398,0.441766,-2.89221,-7.16973,-8.87242,3.34339,-9.37801,4.7092,2.29626,-4.70253,2.76526,-3.75703e-14,-5.52621e-14,-32.2897,-16.8635,-73.3309,19.173,-6.32815,-27.9962,-26.5632,7.12502,-1.38228,-56.5385,-3.75703e-14,-5.52621e-14,-44.8728,23.0432,69.2297,23.3454,-3.286,-12.6793,-1.75923,7.12502,13.4023,27.7897,6.84264,2.38833,31.8293,26.7421,-15.9983,-4.74383,-0.865527,-29.098,3.21659,-10.9611,41.3785,-13.0509,2.95387,9.72884
12.9293,17.5696,18.0703,147.337,-74.889,-142.754,8.96848,1.44135,7.16331,2.32887,2.47804,4.44647,-2.48652,1.10874,0.33719,-2.98358,-7.03915,-8.78512,3.41651,-9.19999,4.68936,2.31759,-4.61279,2.74779,-1.39149e-14,1.15295e-14,-32.5181,-17.0897,-73.141,19.3979,-6.29702,-27.8237,-26.7941,7.12502,-1.21567,-56.7703,-1.39149e-14,1.15295e-14,-44.8165,23.1039,69.2161,23.3248,-3.30818,-12.3775,-1.6871,7.12502,13.6932,27.8424,6.93491,2.47121,32.1163,27.9883,-15.1909,-4.65632,-2.09409,-27.9671,3.13138,-10.6003,41.1224,-13.2218,3.04387,10.2705
12.8124,17.5851,18.0712,148.804,-75.1323,-144.555,8.91709,1.44985,6.69983,2.38639,2.44399,4.30757,-2.41488,1.10104,0.454209,-2.83666,-6.96121,-8.61587,3.28179,-9.10882,4.5922,2.22264,-4.56715,2.69576,8.15017e-15,1.35174e-14,-32.646,-16.5319,-73.4703,19.7327,-7.71419,-27.5965,-27.692,7.12502,-0.996224,-57.6695,8.15017e-15,1.35174e-14,-44.6968,23.1394,69.2648,23.2408,-3.21846,-11.901,-1.53708,7.12502,14.1524,27.9609,6.77492,2.56672,31.4363,29.3682,-14.3445,-4.55965,-3.81241,-27.0372,3.36319,-11.3046,40.7858,-13.4272,2.79442,10.5885
12.6998,17.5981,18.0754,149.451,-75.2369,-145.384,8.84645,1.43297,6.49034,2.3949,2.39834,4.28592,-2.37723,1.08184,0.554165,-2.9945,-6.89213,-8.6375,3.49247,-8.99898,4.41697,2.30423,-4.51716,2.63818,2.84262e-14,4.77083e-15,-32.6341,-15.9111,-73.7915,19.9266,-8.8932,-25.1275,-29.1541,7.12502,1.38844,-59.1293,2.84262e-14,4.77083e-15,-44.5874,23.3315,69.3231,23.133,-3.23319,-11.6373,-1.56992,7.12502,14.4065,27.9101,6.41252,2.72787,31.0536,30.8576,-13.4794,-4.18805,-4.33676,-26.3365,3.75491,-11.7048,40.5414,-13.6364,2.47766,10.2967
12.5874,17.6215,18.0842,149.341,-75.2546,-145.459,8.89416,1.41161,6.55943,2.36771,2.38259,4.30555,-2.43038,1.07168,0.536392,-3.313,-6.79475,-8.74089,3.90902,-8.83966,4.30524,2.49028,-4.44381,2.6119,-1.54058e-14,2.38542e-14,-32.7164,-16.0701,-73.482,19.96,-8.29575,-27.797,-26.7602,7.12502,-1.18988,-56.7366,-1.54058e-14,2.38542e-14,-44.3928,23.3035,69.5149,22.9904,-3.34855,-11.8812,-1.61828,7.12502,14.1715,27.8783,5.92675,2.58887,30.7678,32.4938,-12.5497,-3.47649,-3.4404,-25.597,3.78667,-11.8321,40.2237,-13.8263,2.45243,10.3098
12.4784,17.6187,18.0977,150.113,-75.43,-146.592,9.03373,1.41681,6.45598,2.37065,2.39591,4.16309,-2.50291,1.07979,0.440449,-3.34122,-6.73812,-8.50235,4.01431,-8.77014,4.18626,2.50444,-4.40913,2.53041,-2.87244e-14,1.90833e-14,-32.8812,-16.4326,-73.1649,20.0614,-7.88494,-27.952,-25.4476,7.12502,-1.33955,-55.4232,-2.87244e-14,1.90833e-14,-44.1426,23.3646,69.5696,22.7558,-3.79875,-12.178,-1.69905,7.12502,13.8855,27.8174,5.40678,2.17092,30.0405,34.4259,-11.5364,-2.82355,-4.04897,-24.5208,3.63638,-12.3374,39.7363,-14.0695,2.6583,9.90422
12.3642,17.6493,18.1151,152.185,-75.8212,-148.877,9.00139,1.35155,6.04535,2.34575,2.279,3.93632,-2.524,1.0293,0.444858,-3.33665,-6.69327,-8.42187,3.92599,-8.71082,4.14853,2.46268,-4.37805,2.50743,-1.59028e-14,-2.38542e-14,-32.9049,-16.6682,-73.0672,20.2303,-7.74936,-27.7087,-25.304,7.12502,-1.10459,-55.2809,-1.59028e-14,-2.38542e-14,-43.9179,23.4094,69.7164,22.6309,-3.95998,-12.3571,-1.93206,7.12502,13.7129,27.5961,4.63475,1.82438,28.9035,36.4173,-10.4023,-2.20375,-4.25947,-23.6861,3.3746,-13.2421,39.2198,-14.2524,2.90131,9.70384
12.2594,17.6602,18.1324,155.139,-76.2758,-151.862,8.86536,1.25059,5.4055,2.23879,2.09605,3.64865,-2.58109,0.948515,0.522333,-3.57597,-6.56681,-8.42264,4.15861,-8.52475,4.12647,2.57098,-4.28639,2.49969,3.97569e-16,-1.43125e-14,-32.844,-16.2383,-73.3087,20.5332,-7.81447,-26.9083,-26.1284,7.12502,-0.331549,-56.1079,3.97569e-16,-1.43125e-14,-43.6314,23.192,69.9524,22.4845,-3.85388,-12.7147,-2.38662,7.12502,13.3682,27.1645,3.47143,1.56865,27.5904,38.6507,-9.11752,-1.48926,-2.24992,-22.9522,3.25216,-14.3518,38.5479,-14.3403,3.0524,9.48355
12.1554,17.6836,18.14,157.152,-76.4901,-153.877,8.74712,1.19624,4.96276,2.10931,1.9931,3.45171,-2.6628,0.903721,0.576109,-3.79529,-6.4248,-8.20504,4.54989,-8.33035,4.00085,2.71056,-4.19176,2.41787,-1.04362e-14,-5.00937e-14,-32.9106,-15.381,-73.7244,21.0579,-8.49598,-26.196,-26.4964,7.12502,0.356458,-56.4758,-1.04362e-14,-5.00937e-14,-43.3796,23.2979,69.9837,22.3039,-4.27135,-12.7789,-2.46278,7.12502,13.3063,27.0924,2.31252,1.40477,26.7096,40.7852,-7.58591,-1.0555,-0.738815,-22.3288,3.39583,-15.057,37.9527,-14.3639,3.05308,9.31185
12.0553,17.6883,18.1467,157.77,-76.5838,-154.61,8.70744,1.14265,4.83605,2.0459,1.91507,3.38804,-2.71104,0.866616,0.588992,-3.77145,-6.33671,-8.0939,4.6427,-8.22136,3.9657,2.7218,-4.13801,2.39158,-1.68967e-15,-3.18055e-15,-33.0968,-15.2342,-73.8506,21.5195,-8.90231,-26.3854,-25.714,7.12502,0.173491,-55.6936,-1.68967e-15,-3.18055e-15,-43.127,23.4121,70.1568,22.2955,-4.74946,-12.7469,-2.24939,7.12502,13.3372,27.3038,1.25402,1.46603,26.362,43.0611,-6.20394,-1.22312,-2.23741,-21.4831,3.37866,-15.3701,37.2978,-14.4203,3.12541,9.33673
11.9503,17.708,18.1541,159.19,-76.848,-156.469,8.91355,1.08265,4.47602,2.11316,1.81379,3.26013,-2.76578,0.819664,0.664455,-3.7919,-6.25495,-8.21195,4.62196,-8.10738,4.04751,2.72233,-4.08095,2.44595,-6.06293e-15,2.70347e-14,-33.0919,-15.2584,-73.9318,21.8525,-8.96664,-26.388,-25.4428,7.12502,0.171024,-55.4224,-6.06293e-15,2.70347e-14,-42.6581,23.0533,70.7095,22.3894,-4.61572,-13.0716,-2.23537,7.12502,13.0242,27.338,0.596644,1.43589,25.6984,45.2448,-4.60361,-1.45517,-6.96892,-20.366,3.12702,-16.0084,36.7071,-14.641,3.22367,9.33094
11.8573,17.705,18.1559,161.341,-77.0365,-158.902,9.0735,1.02633,3.9109,2.11163,1.70094,3.16504,-2.87318,0.768162,0.890874,-3.83708,-6.15504,-8.48364,4.54891,-7.957,4.13608,2.71589,-4.00754,2.53228,-1.19271e-15,-3.18055e-14,-32.9572,-15.1653,-73.9682,22.2142,-8.60755,-25.6737,-26.3072,7.12502,0.86087,-56.2852,-1.19271e-15,-3.18055e-14,-42.2387,22.6792,71.3062,22.5418,-4.19981,-13.1532,-2.2567,7.12502,12.9455,27.3217,-0.35987,1.39292,24.878,47.5037,-2.7419,-1.16034,-10.2565,-19.3836,3.21146,-16.7201,36.0251,-14.756,3.06021,9.4192
11.7618,17.7121,18.155,163.43,-77.0938,-161.062,9.01453,0.978004,3.42501,2.0561,1.59628,3.06514,-2.91082,0.72229,1.07115,-3.91002,-6.08894,-8.66203,4.50922,-7.85294,4.18026,2.72106,-3.95663,2.58349,1.5704e-14,-1.74931e-14,-32.8096,-14.9116,-74.2265,22.711,-9.08137,-25.5796,-26.9129,7.12502,0.951804,-56.8905,1.5704e-14,-1.74931e-14,-41.891,22.3473,71.7599,22.7761,-3.92854,-12.8209,-2.1705,7.12502,13.2658,27.3873,-1.55602,1.53577,24.1772,49.6903,-0.915845,-0.711036,-8.77356,-18.619,3.52991,-17.2939,35.3534,-14.7754,2.74044,9.78134
11.66,17.7223,18.1578,165.364,-77.2251,-163.223,8.98156,0.905716,3.0318,2.0814,1.46234,2.90883,-2.87337,0.661526,1.14478,-4.04888,-6.02805,-8.72103,4.55682,-7.75602,4.17603,2.75921,-3.90878,2.59388,1.3418e-14,-7.95139e-15,-32.5799,-13.7108,-75.065,23.4015,-11.3883,-25.7646,-27.2259,7.12502,0.77308,-57.2043,1.3418e-14,-7.95139e-15,-41.412,22.0011,72.222,23.0284,-3.8082,-12.7632,-1.9735,7.12502,13.3214,27.5807,-2.56118,1.5674,23.4703,51.8338,0.71,-0.526305,-7.99818,-17.6603,3.56958,-17.9104,34.6367,-14.8346,2.61209,10.1369
11.5668,17.7304,18.1559,166.668,-77.3076,-164.722,9.034,0.821525,2.62154,2.07765,1.31738,2.8699,-2.91548,0.59328,1.35005,-4.01565,-5.90755,-8.65575,4.38281,-7.59198,4.06636,2.67253,-3.82677,2.55556,2.93207e-14,1.66979e-14,-32.4742,-12.6536,-75.64,24.0787,-12.8091,-25.2766,-27.1299,7.12502,1.24441,-57.106,2.93207e-14,1.66979e-14,-40.9028,21.5987,72.8518,23.3228,-3.52867,-13.0325,-1.79274,7.12502,13.0618,27.7783,-3.59094,1.5076,22.9473,53.8508,2.2976,-0.306253,-8.68257,-16.7779,3.49278,-18.3319,33.9375,-14.8236,2.63328,10.4967
11.4734,17.7525,18.1474,168.447,-77.3513,-166.653,9.0528,0.755245,1.99618,2.06207,1.17623,2.80716,-2.95338,0.52958,1.65187,-4.04629,-5.82238,-8.36487,4.19364,-7.47607,3.82145,2.5774,-3.76717,2.42647,1.45113e-14,1.11319e-14,-32.3237,-12.3154,-75.9138,24.4724,-12.8436,-25.8246,-25.9603,7.12502,0.715116,-55.9388,1.45113e-14,1.11319e-14,-40.3142,21.0521,73.4321,23.4202,-3.23123,-13.3994,-1.90875,7.12502,12.7082,27.6846,-4.72217,1.57169,22.3537,55.8052,3.89906,-0.324929,-4.89566,-15.9195,3.61069,-18.8159,33.1764,-14.7413,2.56593,10.7552
11.372,17.7849,18.1436,170.643,-77.4762,-169.086,9.0876,0.669182,1.50127,2.07925,1.01609,2.58972,-2.95759,0.456089,1.72244,-4.11325,-5.8023,-8.21619,4.04186,-7.44821,3.80197,2.52795,-3.74822,2.39386,-1.59028e-15,1.03368e-14,-32.0579,-11.9994,-76.4769,24.8382,-13.425,-26.2529,-25.4141,7.12502,0.301508,-55.3937,-1.59028e-15,1.03368e-14,-39.536,20.2755,73.9408,23.2714,-2.84441,-13.824,-2.28123,7.12502,12.2988,27.3371,-5.73251,1.53704,21.6171,57.6695,5.31046,-0.463479,-2.1006,-14.9654,3.79278,-19.4665,32.4123,-14.7008,2.46402,10.6041
11.2804,17.7871,18.1426,172.502,-77.5748,-171.226,9.21264,0.575209,1.04118,2.06466,0.851541,2.41898,-3.04322,0.379539,1.82233,-3.65005,-5.75532,-7.96214,3.42044,-7.42173,3.66291,2.21272,-3.73041,2.31978,-2.71341e-14,-1.70955e-14,-31.9966,-11.824,-76.9031,25.4398,-13.6353,-23.375,-26.3416,7.12502,3.08096,-56.2991,-2.71341e-14,-1.70955e-14,-38.9117,19.2026,74.6146,23.4039,-2.27482,-14.0116,-2.42839,7.12502,12.1179,27.2007,-6.71885,1.27365,20.9391,59.5414,6.32408,-0.232522,-4.92915,-13.9194,3.93187,-20.0274,31.6161,-14.7111,2.28721,10.9968
11.1904,17.8006,18.1358,174.14,-77.5913,-173.051,9.30564,0.46592,0.472047,1.98751,0.659033,2.34756,-3.17593,0.291031,2.0912,-2.99492,-5.70964,-7.44515,2.57133,-7.40923,3.19745,1.76428,-3.7216,2.09932,2.21645e-14,7.55382e-15,-31.9526,-11.5299,-77.2552,25.9721,-13.4177,-25.525,-26.0731,7.12502,1.00447,-56.0505,2.21645e-14,7.55382e-15,-38.4937,18.2468,75.2607,23.748,-1.95582,-14.2389,-2.35647,7.12502,11.8988,27.2854,-7.75823,1.23932,20.4356,61.291,6.84013,-0.319701,-6.89068,-13.0691,4.34893,-20.4507,30.9085,-14.6492,1.88583,11.0228
11.1024,17.8111,18.1307,175.342,-77.6322,-174.333,9.3115,0.30506,0.175406,1.96289,0.418289,2.30679,-3.19855,0.175105,2.24493,-2.91703,-5.66337,-7.52667,2.13023,-7.3454,3.17249,1.60552,-3.68598,2.11479,-7.35503e-15,3.57812e-15,-31.5383,-10.6935,-77.863,26.4006,-14.176,-25.0944,-26.5757,7.12502,1.42042,-56.5508,-7.35503e-15,3.57812e-15,-37.9292,18.1964,75.5622,23.9206,-2.29484,-14.5703,-2.69677,7.12502,11.5791,26.9634,-8.88849,1.33535,20.0453,63.0102,6.7038,-0.873746,-5.04185,-12.3541,4.76295,-20.7482,30.2218,-14.4698,1.419,10.821
11.0113,17.8261,18.1313,176.296,-77.7464,-175.424,9.32376,0.158441,0.0577567,1.99704,0.209908,2.26788,-3.16224,0.0720346,2.29563,-3.02618,-5.59951,-8.06741,1.96488,-7.23686,3.47951,1.60511,-3.62895,2.3155,4.96962e-16,-3.18055e-15,-31.1273,-10.0371,-78.2715,26.9405,-14.9828,-24.1885,-27.0274,7.12502,2.29535,-56.9948,4.96962e-16,-3.18055e-15,-37.2177,18.7205,75.672,23.8963,-3.29963,-14.5562,-2.9883,7.12502,11.5928,26.671,-9.83537,1.07163,19.5695,64.52,6.00724,-1.20342,-2.808,-11.6168,4.62379,-21.0578,29.6838,-14.1057,1.29206,11.8872
10.9281,17.8171,18.1333,176.88,-77.8332,-176.107,9.3474,0.107894,-0.0294883,1.98665,0.135069,2.25511,-3.18334,0.036027,2.34067,-2.98386,-5.59315,-8.35151,1.7202,-7.22198,3.60241,1.53615,-3.61912,2.41166,-5.1684e-15,5.56597e-15,-31.0558,-10.066,-78.3471,27.636,-14.8406,-23.6033,-26.7836,7.12502,2.86043,-56.7442,-5.1684e-15,5.56597e-15,-36.3928,18.4375,76.1518,23.881,-3.96885,-14.3077,-2.97137,7.12502,11.8324,26.6743,-10.8955,0.590725,19.2438,65.996,5.05172,-0.997603,-5.30034,-10.8621,4.27516,-21.3093,29.1171,-14.659,1.7343,11.3915
10.8461,17.8186,18.1303,176.95,-77.8388,-176.291,9.43925,0.043747,-0.166313,1.98843,0.037986,2.29961,-3.22857,-0.0111541,2.47655,-3.09646,-5.58484,-8.29099,1.50787,-7.20108,3.55104,1.48036,-3.60515,2.38364,-2.09718e-14,9.54166e-15,-30.902,-9.97512,-78.5023,28.21,-14.3235,-22.6268,-26.1386,7.12502,3.80346,-56.0844,-2.09718e-14,9.54166e-15,-35.6045,17.6142,76.8151,24.0559,-3.95611,-14.1432,-3.20163,7.12502,11.991,26.4349,-11.9043,0.126851,19.2225,67.2844,4.24507,-0.695017,-14.9752,-10.1464,4.21616,-21.3875,28.5442,-14.4599,1.77585,12.0193
10.76,17.8239,18.1223,178.411,-77.9127,-177.951,9.58084,-0.0904376,-0.539609,1.95489,-0.176166,2.19967,-3.33159,-0.112204,2.61089,-3.08679,-5.5264,-8.18576,1.32117,-7.12714,3.56824,1.40938,-3.56462,2.37536,7.65321e-15,7.95139e-16,-30.6694,-9.55438,-78.9321,28.5763,-13.5644,-21.8109,-25.7775,7.12502,4.59138,-55.7077,7.65321e-15,7.95139e-16,-34.9813,16.7487,77.3122,24.3396,-3.6546,-14.057,-3.59481,7.12502,12.0741,26.0368,-12.733,0.496561,18.6909,68.4662,2.85366,-2.39463,-0.631287,-9.34293,4.20128,-21.7799,27.9565,-14.8464,1.82465,11.8264
10.6686,17.8501,18.1146,180.667,-78.0068,-180.153,9.45558,-0.182467,-0.897838,1.85208,-0.331664,2.01956,-3.36025,-0.182016,2.64402,-2.97924,-5.4847,-8.39266,1.04331,-7.07629,3.84603,1.31963,-3.53381,2.51286,-7.05686e-15,7.95139e-16,-30.4216,-9.07134,-79.4561,29.0109,-13.0116,-21.2022,-26.4399,7.12502,5.17912,-56.3567,-7.05686e-15,7.95139e-16,-34.3693,15.5329,77.9189,24.8099,-3.17973,-14.1325,-3.73001,7.12502,12.0014,25.9059,-13.9588,0.587865,17.9826,69.4233,1.1679,-3.5106,15.6605,-9.0051,4.34754,-22.3088,27.7574,-15.2292,1.65768,11.5886
10.5896,17.8427,18.099,179.177,-77.9475,-178.51,9.27816,-0.251005,-0.661047,1.80161,-0.396077,2.07977,-3.31198,-0.215731,2.57886,-3.01318,-5.47276,-8.49534,0.777971,-7.05544,4.04389,1.25226,-3.51775,2.60032,-9.0447e-15,-3.97569e-15,-30.1374,-8.83939,-79.9189,29.4982,-12.6529,-20.303,-26.7295,7.12502,6.0473,-56.6232,-9.0447e-15,-3.97569e-15,-33.7462,14.3526,78.4916,25.3887,-2.67218,-14.6531,-3.39561,7.12502,11.4993,26.269,-15.2861,0.350132,18.4314,70.28,0.445013,-4.1506,11.862,-8.60917,4.53657,-21.9176,27.2862,-15.252,1.50086,11.0239
10.5146,17.816,18.0779,173.349,-77.7622,-172.86,9.55874,-0.355077,0.218278,1.82109,-0.443536,2.46595,-3.44857,-0.251454,2.49411,-2.9553,-5.47515,-8.37927,0.540304,-7.065,3.96731,1.15707,-3.52045,2.55746,3.16068e-14,-1.03368e-14,-30.1119,-8.7629,-80.1861,30.1557,-12.2495,-19.5341,-26.4494,7.12502,6.78954,-56.3205,3.16068e-14,-1.03368e-14,-33.1485,13.3388,79.0563,25.7852,-1.96096,-15.5019,-3.16652,7.12502,10.6807,26.542,-15.921,-0.187749,20.1696,70.724,1.41385,-4.60422,-10.4669,-8.00114,4.43633,-20.5495,27.346,-15.4094,1.54792,11.1697
10.4335,17.8321,18.0933,178.556,-78.057,-178.082,9.58518,-0.531201,-0.765187,1.69747,-0.77094,2.26818,-3.56799,-0.397543,2.88601,-2.99951,-5.40481,-8.53942,0.41357,-6.96043,3.88757,1.12022,-3.46804,2.56379,-2.77305e-14,-1.43125e-14,-30.0616,-7.96215,-80.433,31.0513,-13.4228,-20.4406,-25.7194,7.12502,5.91447,-55.6169,-2.77305e-14,-1.43125e-14,-32.5477,12.7121,79.6799,26.1065,-1.41354,-15.3116,-3.82437,7.12502,10.8642,25.8746,-17.2365,-0.194434,18.4601,71.5039,-0.497241,-5.09849,9.26644,-7.68351,4.25574,-21.9389,27.2685,-15.6964,2.0485,8.93581
10.367,17.7539,18.0885,180.95,-78.0186,-180.308,9.31567,-0.603145,-1.44036,1.64598,-0.928033,2.27959,-3.45216,-0.466807,3.29424,-3.31712,-5.34118,-8.8349,0.454328,-6.83881,3.971,1.19774,-3.40589,2.6411,-2.45499e-14,-2.94201e-14,-29.8473,-7.00115,-80.9176,31.8475,-15.6471,-12.7,-28.5469,7.12502,13.3823,-58.0971,-2.45499e-14,-2.94201e-14,-31.9029,12.1387,80.1371,26.5535,-1.35355,-14.1109,-4.90732,7.12502,12.0222,24.7274,-18.4478,-1.99883,18.4391,71.8163,2.24095,-4.68724,-28.0787,-7.8548,4.8265,-22.4925,27.5997,-15.9677,2.07811,7.15437
10.2847,17.7676,18.0694,181.219,-77.9717,-180.379,9.10259,-0.642517,-1.55247,1.61138,-0.987916,2.25614,-3.36416,-0.49507,3.33602,-3.53905,-5.36235,-8.8775,0.33639,-6.84797,4.13953,1.20899,-3.40537,2.70066,-2.95195e-14,-3.18055e-15,-29.4093,-6.36794,-81.4124,32.1566,-16.5338,-10.9965,-28.8343,7.12502,15.0238,-58.2692,-2.95195e-14,-3.18055e-15,-31.1515,11.0768,80.5071,27.0324,-1.10063,-14.1216,-4.88526,7.12502,12.0119,24.75,-19.7703,-0.942545,18.1092,72.1465,-0.56904,-6.37086,-2.64877,-7.74467,5.27326,-22.4645,27.4689,-16.2671,1.85816,6.1742
10.21,17.7811,18.0667,180.628,-77.9569,-179.698,9.22417,-0.731687,-1.40212,1.51179,-1.08975,2.25412,-3.53109,-0.543074,3.26522,-3.46008,-5.31192,-8.63806,0.00210398,-6.79606,4.14512,1.07335,-3.37509,2.66613,-5.06901e-15,6.36111e-15,-28.9476,-6.57231,-81.5267,32.1306,-15.2448,-2.23263,-31.3207,7.12502,23.4503,-59.9117,-5.06901e-15,6.36111e-15,-30.5079,10.1925,80.8141,27.4614,-0.542419,-14.8675,-4.06699,7.12502,11.2926,25.609,-20.9072,-1.4452,18.4373,72.0868,0.492157,-7.08343,-16.3752,-7.68309,4.96425,-22.2712,27.7261,-16.8216,1.34385,9.66136
10.1379,17.7772,18.0603,179.37,-77.8061,-178.273,9.27977,-0.784402,-1.21516,1.37602,-1.13388,2.39563,-3.70105,-0.562627,3.31634,-3.42851,-5.24957,-8.55143,-0.274464,-6.71798,4.10735,0.967978,-3.33343,2.64421,-2.8625e-14,3.49861e-14,-29.1024,-5.26865,-82.046,33.205,-16.4141,-22.37,-27.236,7.12502,4.05149,-57.1772,-2.8625e-14,3.49861e-14,-30.0349,9.65896,81.0918,27.9281,-0.470144,-14.9177,-3.93331,7.12502,11.2441,25.7453,-22.2204,-1.36328,18.7221,72.1306,-0.740556,-7.74937,-8.65093,-7.48152,4.84461,-21.9452,27.5527,-16.8959,1.32433,11.032
10.0562,17.7676,18.0471,180.102,-77.7919,-178.995,9.19496,-0.811872,-1.46105,1.42416,-1.19524,2.40431,-3.59453,-0.592142,3.46895,-3.73907,-5.285,-8.66341,-0.398784,-6.73649,4.25458,0.994827,-3.33799,2.70676,-4.07509e-15,-2.38542e-15,-28.9088,-4.5712,-82.4712,33.9407,-17.6687,-21.792,-26.5475,7.12502,4.60963,-56.4774,-4.07509e-15,-2.38542e-15,-29.2203,9.79136,81.1037,28.0681,-1.6538,-14.3509,-4.4625,7.12502,11.7907,25.1856,-23.2393,-1.38454,18.478,71.9539,-2.17416,-8.07321,-1.01669,-7.16552,4.87363,-22.1137,27.5905,-16.8395,1.2316,11.377
9.97164,17.752,18.0337,182.068,-77.9088,-181.075,9.17108,-0.914995,-1.98561,1.51343,-1.38791,2.29854,-3.46497,-0.684958,3.6758,-4.02604,-5.23006,-8.64997,-0.462609,-6.64174,4.42137,1.0251,-3.28619,2.7572,-3.18055e-15,5.56597e-15,-28.6881,-4.06576,-82.9343,34.6788,-18.0098,-20.2879,-26.9699,7.12502,6.06189,-56.8632,-3.18055e-15,5.56597e-15,-28.4824,8.67474,81.5624,28.7348,0.0100625,-15.3139,-3.91687,7.12502,10.862,25.7822,-24.0599,-1.54922,17.9759,71.7204,-3.38705,-8.41278,3.20834,-6.5567,4.87243,-22.5945,27.2839,-17.4014,1.30263,10.657
9.88467,17.7561,18.0241,180.316,-78.0072,-179.116,8.99783,-1.10407,-1.6506,1.47067,-1.60151,2.43391,-3.40183,-0.795502,3.64781,-4.20064,-5.13276,-8.61715,-0.513355,-6.5004,4.54168,1.03363,-3.21245,2.79317,3.20043e-14,-1.11319e-14,-28.4981,-3.78417,-83.3564,35.1359,-17.8008,-19.222,-27.5431,7.12502,7.09082,-57.4043,3.20043e-14,-1.11319e-14,-27.9942,7.79965,81.7766,29.4584,0.783013,-15.7472,-3.84585,7.12502,10.444,25.8747,-24.9948,-1.68524,18.4846,71.2155,-4.64293,-8.77067,7.05125,-6.31884,4.84967,-22.1664,27.0817,-17.6327,1.42331,9.56541
9.81034,17.7372,18.0146,183.758,-77.9449,-182.6,9.11648,-1.10957,-2.46237,1.40215,-1.68874,2.245,-3.51468,-0.824265,3.92541,-4.45028,-5.18313,-8.64354,-0.496924,-6.54799,4.691,1.09405,-3.23288,2.84042,1.56046e-14,1.98785e-14,-28.4227,-3.87902,-83.4565,35.707,-17.0421,-18.7655,-27.0919,7.12502,7.53149,-56.9378,1.56046e-14,1.98785e-14,-27.5027,6.94235,81.9695,30.0725,1.02816,-15.9653,-4.06324,7.12502,10.2337,25.6678,-26.1126,-1.85931,17.6615,70.9007,-5.99732,-8.72545,12.4044,-5.86789,4.45884,-23.0246,26.7523,-17.8363,1.85182,9.37586
9.7327,17.7465,18.0001,183.886,-77.8599,-182.634,9.15671,-1.08598,-2.60935,1.35213,-1.67003,2.27218,-3.58567,-0.810295,4.03754,-4.35248,-5.2124,-8.4093,-0.960649,-6.60475,4.64466,0.919137,-3.25915,2.78647,-5.96354e-16,-1.35174e-14,-28.0434,-3.28206,-83.5567,35.6438,-16.5637,-18.0022,-26.2189,7.12502,8.26822,-56.0371,-5.96354e-16,-1.35174e-14,-26.9367,5.90168,82.3006,30.6522,1.54466,-16.4711,-3.83545,7.12502,9.74564,25.9191,-27.1819,-1.84592,17.6788,70.3361,-7.01875,-8.81526,15.0152,-5.52623,4.44023,-23.0425,26.51,-18.1038,1.9933,9.30218
9.65167,17.7345,17.9899,182.586,-77.8378,-181.305,9.16352,-1.13935,-2.455,1.39293,-1.72504,2.39241,-3.54302,-0.842079,4.08174,-4.00562,-5.17123,-8.16005,-1.81764,-6.58695,4.64188,0.571703,-3.24821,2.75937,-2.47487e-14,-3.97569e-15,-28.3593,-3.37636,-83.6005,36.9677,-15.4928,-17.1179,-26.292,7.12502,9.12154,-56.0748,-2.47487e-14,-3.97569e-15,-26.2717,5.34498,82.5034,31.0307,1.68399,-17.2187,-4.12506,7.12502,9.02428,25.6619,-28.1094,-1.99338,18.0687,69.7906,-7.42446,-9.18238,9.70294,-4.91664,4.55242,-22.7273,25.9755,-18.3445,1.92136,9.3051
9.56753,17.7396,17.9809,183.283,-77.8602,-181.934,9.24333,-1.23231,-2.6047,1.29967,-1.86253,2.36578,-3.66856,-0.903218,4.15979,-3.75766,-5.1135,-8.33974,-2.36036,-6.52095,4.95158,0.369913,-3.21184,2.91292,3.8763e-15,-1.35174e-14,-28.1773,-2.4713,-84.0145,37.1371,-16.3083,-18.5648,-25.4866,7.12502,7.72524,-55.3255,3.8763e-15,-1.35174e-14,-25.7527,4.76406,82.5565,31.3619,1.99425,-17.944,-4.86795,7.12502,8.32437,24.948,-28.9153,-2.32917,18.0538,68.7954,-7.5943,-9.6986,8.22324,-4.57119,4.56339,-22.883,25.6724,-18.5871,1.90677,9.12544
9.49069,17.7182,17.9684,185.107,-77.8131,-183.592,9.3239,-1.2745,-2.90455,1.12677,-1.94825,2.23748,-3.88037,-0.931681,4.21261,-3.56626,-5.10411,-8.38788,-2.76851,-6.52117,5.01674,0.210312,-3.21099,2.95515,4.35338e-14,-2.78299e-14,-28.1269,-2.07429,-84.3804,37.4269,-16.6995,-19.9439,-24.4181,7.12502,6.39398,-54.3015,4.35338e-14,-2.78299e-14,-25.3581,3.52469,82.7204,31.9217,2.92666,-18.2825,-4.61678,7.12502,7.99769,25.2119,-29.9324,-2.77939,17.8448,67.8616,-7.82265,-10.0316,4.15795,-4.3543,4.42694,-23.3167,25.5236,-18.8,2.11974,8.90596
9.40799,17.6876,17.9549,186.627,-77.7386,-184.908,9.11632,-1.32461,-3.32073,1.15596,-2.05102,2.23006,-3.7103,-0.980928,4.44414,-3.70429,-5.14641,-8.11995,-3.12197,-6.58023,4.86357,0.109214,-3.24115,2.85386,-1.90833e-14,-1.19271e-15,-27.6551,-1.3307,-84.6125,37.5462,-16.8147,-19.8261,-23.7446,7.12502,6.50772,-53.6246,-1.90833e-14,-1.19271e-15,-24.8228,2.35616,83.0624,32.6345,3.0036,-18.8066,-3.98941,7.12502,7.49182,25.8579,-31.0585,-1.7705,16.9206,65.929,-9.44862,-8.71132,19.8107,-4.34294,4.22279,-23.6808,25.6861,-19.1644,2.31163,9.14229
9.32812,17.6563,17.9425,187.083,-77.7136,-185.345,9.21655,-1.32714,-3.41192,1.1356,-2.06786,2.16034,-3.78508,-0.985556,4.42907,-3.66626,-5.18851,-7.78653,-3.31378,-6.64807,5.0689,0.0423287,-3.27802,2.86385,-1.67973e-14,1.43125e-14,-27.3683,-0.714672,-84.8504,37.5767,-17.0756,-19.4257,-23.28,7.12502,6.89418,-53.1478,-1.67973e-14,1.43125e-14,-24.5769,0.960519,83.2282,33.5546,3.0184,-19.7876,-3.92694,7.12502,6.54487,25.9519,-31.4916,-2.25049,16.9535,64.3059,-9.4203,-9.11111,14.4953,-4.21667,4.22143,-23.7821,25.9669,-19.6893,2.33336,9.30966
9.24507,17.6497,17.9239,186.061,-77.695,-184.287,9.17885,-1.43772,-3.48521,1.25107,-2.21877,2.36053,-3.61774,-1.06753,4.69385,-3.74884,-5.06498,-8.29853,-3.75344,-6.45967,5.33586,-0.0685805,-3.17792,3.05911,4.81059e-14,-1.82882e-14,-26.6771,0.0359757,-84.9912,37.3937,-17.2174,-19.7697,-22.3825,7.12502,6.56212,-52.2608,4.81059e-14,-1.82882e-14,-24.0216,0.844678,83.1413,34.5948,4.83919,-18.7567,-3.99408,7.12502,7.53995,25.8515,-31.8375,-2.50181,17.3708,62.2277,-9.03682,-9.76301,8.89195,-4.15495,4.14803,-23.5351,26.4585,-20.3121,2.62401,8.51155
9.16452,17.6135,17.9065,185.225,-77.6784,-183.237,9.34963,-1.43163,-3.22361,1.0323,-2.18337,2.39079,-3.95351,-1.03891,4.58638,-3.70036,-5.14059,-8.33301,-3.83012,-6.56281,5.35737,-0.0921133,-3.22938,3.07263,-2.75317e-14,2.34566e-14,-27.5444,-0.850464,-84.9118,38.9977,-16.4592,-19.6216,-22.4908,7.12502,6.70512,-52.3646,-2.75317e-14,2.34566e-14,-23.8582,-0.493178,83.3933,35.2177,4.76584,-19.9712,-3.77298,7.12502,6.36764,26.1113,-32.4731,-2.65465,17.7955,60.3104,-8.646,-10.2418,4.88091,-4.14095,3.74145,-23.351,26.7579,-20.7241,2.9979,8.47215
9.0796,17.6114,17.8909,185.351,-77.6933,-183.243,9.19424,-1.47084,-3.44806,1.18957,-2.25409,2.52099,-3.68167,-1.08232,4.84808,-4.08451,-5.17978,-8.16564,-4.03313,-6.59951,5.20122,-0.100373,-3.24764,2.97979,-2.28602e-15,3.33958e-14,-26.9442,-1.43353,-84.7467,38.9638,-15.4627,-19.2363,-22.0321,7.12502,7.07702,-51.8938,-2.28602e-15,3.33958e-14,-22.9578,-0.54581,83.4458,35.6149,4.44607,-19.4606,-4.15861,7.12502,6.86051,25.7102,-32.8331,-2.48043,17.6923,58.1345,-9.55646,-9.71678,11.3474,-4.02165,3.69461,-23.3817,26.9478,-21.0286,3.26047,7.88959
8.99597,17.5992,17.8766,184.36,-77.6747,-182.233,9.15727,-1.54964,-3.44568,1.41145,-2.3602,2.70763,-3.41047,-1.1501,5.04724,-4.66226,-5.1788,-8.22463,-4.01827,-6.55734,5.26554,0.00574643,-3.22357,2.99658,9.93923e-16,1.27222e-14,-25.8811,-0.184211,-84.907,38.4087,-15.6549,-19.431,-21.2932,7.12502,6.88911,-51.1611,9.93923e-16,1.27222e-14,-21.9055,0.142658,83.3697,35.6562,3.77375,-19.0755,-5.00737,7.12502,7.23231,24.849,-33.3103,-2.59759,18.0687,56.0041,-8.71664,-10.4588,7.56946,-3.5871,3.45044,-23.1517,26.8441,-21.4148,3.21407,9.69907
8.90906,17.5987,17.8601,183.608,-77.6223,-181.497,9.26231,-1.60268,-3.45915,1.48522,-2.43496,2.85441,-3.37666,-1.19146,5.2207,-4.81424,-5.22222,-8.43909,-4.05731,-6.59404,5.439,0.0368085,-3.23893,3.0903,-2.73329e-14,-1.35174e-14,-25.6949,-1.30113,-84.6564,38.5352,-13.4941,-18.5317,-20.992,7.12502,7.75717,-50.8297,-2.73329e-14,-1.35174e-14,-21.2245,0.391419,83.433,35.7868,3.56946,-19.25,-5.6644,7.12502,7.06386,24.1977,-33.4886,-2.44148,18.2861,53.712,-8.51974,-10.7757,9.02301,-3.09779,3.56872,-22.9638,26.6792,-21.7419,3.28626,10.1039
8.82257,17.5685,17.8414,184.977,-77.5641,-182.801,9.24585,-1.61173,-3.8569,1.51191,-2.48617,2.82229,-3.31804,-1.21457,5.41744,-4.62933,-5.25718,-8.42824,-4.51529,-6.65709,5.50209,-0.135768,-3.27216,3.12105,-5.84427e-14,1.11319e-14,-24.8073,0.570193,-84.8487,37.6265,-14.6834,-18.9183,-20.8182,7.12502,7.38398,-50.6693,-5.84427e-14,1.11319e-14,-20.6779,-0.00923291,83.5046,36.1971,3.75944,-19.3169,-5.89837,7.12502,6.99923,23.9659,-33.8608,-2.41132,17.9937,51.5315,-8.57907,-10.8132,10.5014,-2.68314,3.57266,-23.2762,26.2858,-21.8276,3.39135,9.79037
8.73193,17.5633,17.819,185.944,-77.5048,-183.626,9.15617,-1.64909,-4.18858,1.53113,-2.56525,2.80768,-3.22441,-1.25345,5.59472,-4.53862,-5.19081,-8.19507,-4.89829,-6.58831,5.48282,-0.288511,-3.24221,3.08318,-5.94366e-14,1.11319e-14,-23.9865,2.57253,-85.1596,36.7642,-16.343,-19.8807,-21.514,7.12502,6.45501,-51.3957,-5.94366e-14,1.11319e-14,-20.2485,-0.44349,83.5107,36.6778,3.62342,-19.7139,-6.1303,7.12502,6.61598,23.7464,-34.2236,-2.44703,17.8279,49.2431,-8.43361,-10.953,11.1083,-2.30771,3.92024,-23.4188,25.8963,-21.8776,3.28442,8.67025
8.63641,17.5642,17.7964,185.85,-77.4428,-183.434,9.10737,-1.65452,-4.26509,1.57541,-2.57869,2.83204,-3.14481,-1.26346,5.66178,-4.74226,-5.23188,-7.98808,-4.89685,-6.6389,5.48593,-0.256359,-3.27009,3.03811,-2.48481e-14,2.3059e-14,-23.1833,4.41917,-85.4106,35.964,-18.0623,-16.7478,-23.5883,7.12502,9.47866,-53.3551,-2.48481e-14,2.3059e-14,-19.8014,-0.753556,83.5139,37.1296,3.40875,-20.1472,-6.47653,7.12502,6.19769,23.4128,-34.4872,-2.43447,17.8758,46.9608,-8.14128,-11.0466,12.2082,-1.74344,4.36316,-23.2691,25.3596,-21.9766,2.87028,8.76991
8.54019,17.5611,17.7754,185.827,-77.3824,-183.257,9.02925,-1.66547,-4.28829,1.60678,-2.59343,2.82337,-3.06613,-1.27399,5.66255,-4.91503,-5.30806,-7.8704,-4.98561,-6.7366,5.49078,-0.252257,-3.3208,3.01139,3.54831e-14,-7.95139e-16,-22.4421,6.09292,-85.6515,35.1903,-19.724,-16.7772,-23.4538,7.12502,9.45028,-53.2219,3.54831e-14,-7.95139e-16,-19.3667,-1.34061,83.4421,37.7144,3.91893,-20.0584,-6.34469,7.12502,6.28344,23.5421,-34.75,-2.26684,17.8711,44.5684,-7.6479,-11.2033,13.1918,-1.26141,4.52785,-23.1747,24.8359,-22.0581,2.63407,9.63345
8.44438,17.5524,17.7489,186.724,-77.2964,-183.941,8.97778,-1.69937,-4.54185,1.50234,-2.65835,2.76275,-3.12922,-1.29739,5.75056,-4.67688,-5.26812,-7.91084,-5.29034,-6.69539,5.65771,-0.385959,-3.30254,3.09004,7.95139e-15,5.56597e-15,-22.0071,7.9953,-85.9004,34.5241,-21.4378,-18.9291,-22.239,7.12502,7.37354,-52.0905,7.95139e-15,5.56597e-15,-19.163,-1.65359,83.3238,38.3467,4.28697,-19.8677,-5.99551,7.12502,6.46753,23.8857,-35.0659,-1.88862,17.6546,42.1366,-7.01449,-11.7521,11.6103,-0.854158,4.62351,-23.3235,24.2703,-22.0537,2.735,9.05737
8.34752,17.5461,17.7225,186.382,-77.2374,-183.442,8.94826,-1.71664,-4.5649,1.46879,-2.68015,2.83168,-3.14049,-1.3067,5.83856,-4.58774,-5.3014,-7.96672,-5.41524,-6.73968,5.8462,-0.428903,-3.32588,3.16847,-6.85807e-15,1.51076e-14,-21.6,9.83691,-85.9452,34.001,-23.2694,-21.0054,-21.3525,7.12502,5.36912,-51.2645,-6.85807e-15,1.51076e-14,-18.9202,-1.94633,83.3223,38.8818,4.57934,-19.8776,-6.11235,7.12502,6.45793,23.7692,-35.2756,-1.60101,17.7604,39.7435,-6.52898,-12.1852,8.09657,-0.329293,4.77468,-23.1724,23.6845,-22.026,2.84593,7.4494
8.24815,17.537,17.6985,185.333,-77.2253,-182.183,8.82051,-1.81701,-4.35665,1.50295,-2.78872,2.93879,-3.02405,-1.36858,5.83646,-4.81913,-5.34164,-8.00124,-5.32989,-6.77572,5.95868,-0.353129,-3.34285,3.20296,4.4329e-14,1.27222e-14,-21.1272,11.394,-86.1319,33.4199,-24.7061,-21.9392,-20.8391,7.12502,4.46749,-50.772,4.4329e-14,1.27222e-14,-18.5429,-2.16653,83.2473,39.3047,4.7926,-19.958,-6.28786,7.12502,6.38039,23.596,-35.5449,-1.4974,18.0731,37.4389,-6.35226,-12.2986,7.40158,0.169492,4.9205,-22.8175,23.1195,-22.0574,2.87212,6.29514
8.1432,17.5246,17.673,186.391,-77.188,-182.993,8.65954,-1.94918,-4.56443,1.41651,-2.97584,2.88277,-2.99221,-1.45706,5.90857,-5.01153,-5.37637,-7.97869,-5.1746,-6.81273,5.89496,-0.270648,-3.36017,3.16675,-2.51463e-14,-3.18055e-15,-20.901,13.0138,-86.5041,32.8707,-26.1159,-22.2046,-20.9989,7.12502,4.21117,-50.937,-2.51463e-14,-3.18055e-15,-18.3729,-2.25726,83.1172,39.6605,4.79761,-20.0035,-6.36195,7.12502,6.33645,23.5233,-35.9359,-1.43956,17.8756,35.2795,-6.20492,-12.3848,9.07726,0.573592,4.9515,-22.997,22.5661,-22.1192,2.91497,5.88375
8.03832,17.5121,17.6505,187.293,-77.1575,-183.798,8.69951,-1.98346,-4.79199,1.33351,-3.04205,2.86975,-3.0808,-1.48153,6.0362,-5.04735,-5.48216,-7.81075,-5.13305,-6.96615,5.58717,-0.259124,-3.43851,3.02444,-1.58034e-14,1.31198e-14,-20.7965,14.5216,-86.5907,32.448,-27.7709,-22.543,-21.5412,7.12502,3.88441,-51.4855,-1.58034e-14,1.31198e-14,-18.301,-2.43869,83.1003,40.0571,5.02257,-19.6758,-6.7088,7.12502,6.65282,23.1667,-36.1515,-1.29176,17.6104,33.2382,-6.15247,-12.503,10.5971,1.06635,5.02293,-23.1678,22.1482,-22.3436,2.90484,5.66334
7.93532,17.4835,17.6255,189.015,-77.073,-185.508,8.7743,-1.94012,-5.2446,1.29169,-3.02996,2.7845,-3.14861,-1.46602,6.20861,-4.72984,-5.51029,-7.79379,-5.43913,-7.02581,5.60659,-0.407707,-3.47153,3.0426,-8.94531e-15,2.42517e-14,-20.6818,15.7224,-86.6123,31.999,-29.4484,-23.2615,-21.8849,7.12502,3.19058,-51.8408,-8.94531e-15,2.42517e-14,-18.2217,-2.81479,83.1001,40.5948,5.472,-19.4666,-7.04339,7.12502,6.85472,22.8256,-36.3933,-1.23352,17.2404,31.4388,-6.11897,-12.7175,9.70214,1.67916,5.43786,-23.4722,21.6188,-22.5018,2.56948,5.37573
7.82549,17.4399,17.5968,191.103,-76.9592,-187.465,8.61935,-1.93792,-5.71233,1.27185,-3.06446,2.63369,-3.0615,-1.4796,6.31095,-4.56008,-5.52686,-7.86004,-5.63029,-7.05218,5.80959,-0.485754,-3.48655,3.13252,-2.51463e-14,3.45885e-14,-20.5668,16.6486,-86.746,31.5214,-30.6982,-23.7051,-22.1514,7.12502,2.76216,-52.1132,-2.51463e-14,3.45885e-14,-18.091,-3.20502,83.0827,41.1095,5.80376,-19.5212,-7.12816,7.12502,6.80208,22.7426,-36.7973,-1.43892,17.0406,29.8298,-5.24515,-13.1469,1.28937,2.19027,5.74909,-23.8645,21.0867,-22.6621,2.10732,5.26397
7.71209,17.4529,17.5711,189.831,-77.0777,-185.958,8.33734,-2.0517,-5.31869,1.36621,-3.16566,2.73248,-2.80676,-1.5475,6.18118,-4.98268,-5.62031,-7.90171,-5.40729,-7.14725,5.90173,-0.328962,-3.53139,3.14957,-4.47266e-15,1.23246e-14,-20.3261,17.5937,-86.8148,31.0884,-31.7389,-23.9327,-22.4926,7.12502,2.54236,-52.4572,-4.47266e-15,1.23246e-14,-17.7477,-3.30324,83.037,41.4584,5.86817,-19.5153,-6.8001,7.12502,6.80774,23.0705,-37.0644,0.0529451,16.569,28.5937,-8.8376,-13.533,10.2433,2.78559,5.68677,-23.4432,20.3371,-22.7203,1.98539,4.83081
7.60107,17.447,17.5461,188.753,-77.2223,-184.823,8.33271,-2.15503,-5.00492,1.42636,-3.27563,2.82789,-2.73784,-1.61069,6.11078,-5.15464,-5.69261,-8.14641,-5.26965,-7.21661,6.15039,-0.229839,-3.56171,3.26866,1.03368e-14,1.90833e-14,-20.2817,18.9875,-86.9685,30.7591,-34.0108,-25.431,-22.5608,7.12502,1.09525,-52.5377,1.03368e-14,1.90833e-14,-17.5258,-3.32422,82.9986,41.8351,5.82118,-19.5222,-6.4995,7.12502,6.80105,23.3713,-37.3426,0.731229,16.4362,27.6317,-11.3984,-13.4575,11.3026,3.57962,5.55348,-23.1126,19.5173,-22.583,2.09314,4.11119
7.49321,17.4334,17.519,190.351,-77.1734,-186.544,8.55724,-2.13588,-5.42585,1.39086,-3.29918,2.72679,-2.87837,-1.61176,6.26037,-4.86165,-5.73134,-8.28388,-5.34957,-7.27729,6.29808,-0.289897,-3.59241,3.35406,7.55382e-15,-2.22639e-14,-20.487,20.2579,-87.1466,30.3416,-36.4489,-33.0416,-15.1747,7.12502,-6.2544,-45.0623,7.55382e-15,-2.22639e-14,-17.5056,-3.67798,83.0517,42.2099,5.86814,-19.6062,-6.6149,7.12502,6.72,23.2585,-37.625,1.66763,15.5472,26.9851,-13.8212,-13.6169,10.1908,4.57266,5.46102,-23.4992,18.55,-22.3801,2.26627,3.63052
7.38579,17.407,17.4889,192.058,-77.1102,-188.255,8.59982,-2.07014,-5.89811,1.41743,-3.25852,2.63122,-2.85903,-1.58832,6.42615,-4.90739,-5.84895,-8.1086,-5.32682,-7.44195,6.16291,-0.274993,-3.67697,3.2676,-1.96797e-14,8.34896e-15,-20.2137,20.0554,-86.7996,29.608,-35.5875,-25.1096,-21.8254,7.12502,1.40572,-51.8005,-1.96797e-14,8.34896e-15,-17.2563,-4.19361,83.17,42.3746,5.85417,-19.6964,-6.61686,7.12502,6.63295,23.2593,-37.9476,1.99612,14.9958,26.401,-15.3642,-13.723,5.52797,5.25927,5.51329,-23.8622,17.9852,-22.4313,2.3499,3.65681
7.28289,17.3864,17.4572,193.359,-77.1064,-189.61,8.79881,-2.03397,-6.21377,1.46653,-3.25324,2.55926,-2.90557,-1.58286,6.53927,-5.0928,-6.01209,-8.06692,-5.30716,-7.65408,6.02804,-0.228902,-3.78268,3.19979,-9.34288e-15,1.78906e-14,-20.6115,21.6512,-87.2362,29.895,-39.7484,-31.15,-21.575,7.12502,-4.42797,-51.5087,-9.34288e-15,1.78906e-14,-16.9779,-4.39439,83.2809,42.5452,5.69257,-19.6561,-6.46021,7.12502,6.6718,23.4147,-38.1384,2.51335,14.3699,25.9875,-17.4276,-13.6437,3.26016,5.93949,5.67911,-24.0581,17.4978,-22.3663,1.99631,4.50184
7.17595,17.3521,17.4255,194.063,-77.1049,-190.502,9.1211,-2.05533,-6.33861,1.52328,-3.31749,2.43668,-3.01566,-1.61164,6.50331,-4.9898,-6.10688,-8.18497,-5.40904,-7.78116,6.12679,-0.260737,-3.84623,3.25651,-3.37934e-14,1.07344e-14,-20.2324,19.5773,-86.7718,28.371,-35.5635,-28.5091,-22.2797,7.12502,-1.87762,-52.2512,-3.37934e-14,1.07344e-14,-16.8775,-4.39805,83.2303,42.837,5.63949,-19.8071,-6.32311,7.12502,6.526,23.5563,-38.1546,-0.350631,15.8276,25.6264,-15.7382,-13.339,-12.62,6.74657,5.7684,-24.1483,17.138,-22.4275,1.63471,5.19901
7.06678,17.3398,17.3926,194.144,-77.1221,-190.633,9.16937,-2.13803,-6.32221,1.62539,-3.43224,2.36376,-2.92318,-1.67711,6.42666,-5.07799,-6.15696,-8.2817,-5.32203,-7.83504,6.28621,-0.201807,-3.87177,3.3216,2.95195e-14,-1.19271e-14,-20.0507,18.7354,-86.7447,27.3534,-33.9206,-27.2959,-22.5659,7.12502,-0.705923,-52.5445,2.95195e-14,-1.19271e-14,-16.7465,-4.39989,83.0562,43.0838,5.69191,-20.0318,-6.32126,7.12502,6.30909,23.5648,-38.1534,-0.152943,15.6611,25.3657,-17.2799,-12.1119,-9.12454,7.34185,5.59486,-24.1404,16.8979,-22.565,1.8322,4.85164
6.96622,17.3417,17.3599,193.256,-77.1624,-189.702,9.2646,-2.17153,-6.14808,1.70836,-3.46552,2.44025,-2.88982,-1.70067,6.41456,-5.33512,-6.21814,-8.22636,-5.10433,-7.90494,6.16249,-0.0901811,-3.90496,3.25273,-5.73494e-14,9.54166e-15,-19.9258,18.9167,-86.5969,26.6796,-33.9619,-27.0372,-22.4147,7.12502,-0.456013,-52.394,-5.73494e-14,9.54166e-15,-16.5517,-4.53909,83.0169,43.1917,5.67803,-20.0453,-6.48535,7.12502,6.29607,23.4011,-38.2122,3.26395,13.9422,25.3778,-21.0353,-10.2603,10.734,7.9313,5.39024,-23.8704,16.4189,-22.3628,1.95811,4.96162
6.86542,17.3267,17.3303,192.591,-77.1605,-189.02,9.43263,-2.0877,-5.9201,1.78496,-3.34322,2.43781,-2.93544,-1.64325,6.27726,-5.44854,-6.3521,-7.99945,-4.99753,-8.09141,5.94145,-0.0431968,-4.00039,3.12258,-2.16675e-14,7.55382e-15,-19.6318,18.4455,-86.1736,25.8641,-33.722,-26.0457,-22.5992,7.12502,0.501559,-52.5784,-2.16675e-14,7.55382e-15,-16.2776,-4.8635,83.1012,43.2177,5.60884,-19.7614,-6.92207,7.12502,6.57012,22.956,-38.4246,2.56157,14.6653,25.7483,-19.569,-10.0533,9.2337,8.78787,5.38188,-23.625,15.479,-21.9655,1.77786,5.43335
6.75508,17.3268,17.2976,194.123,-77.1534,-190.727,9.54599,-2.04172,-6.15641,1.97184,-3.31978,2.25418,-2.80372,-1.64246,6.2145,-5.59652,-6.54418,-8.05687,-5.0076,-8.33673,5.96849,0.000493857,-4.12235,3.12739,8.45829e-14,-1.23246e-14,-19.2631,17.7378,-85.898,24.9911,-33.3754,-25.4598,-22.9894,7.12502,1.06747,-52.9665,8.45829e-14,-1.23246e-14,-15.9414,-4.97178,83.1565,43.2265,5.5603,-19.4468,-7.27154,7.12502,6.87383,22.5969,-38.444,2.9106,14.0341,26.3444,-19.1857,-9.36746,13.306,9.88066,5.1153,-23.9906,14.4023,-21.4263,1.74461,5.58977
6.63948,17.3152,17.2624,196.908,-77.2038,-193.912,9.76442,-2.08008,-6.81304,2.23072,-3.45949,2.07982,-2.60319,-1.72825,6.42068,-5.85372,-6.67364,-8.44337,-4.95731,-8.47135,6.13685,0.0972406,-4.18325,3.23907,1.00386e-13,-7.95139e-15,-19.19,17.5277,-85.9099,24.3062,-33.8631,-27.1819,-21.98,7.12502,-0.595776,-51.9589,1.00386e-13,-7.95139e-15,-15.7335,-4.91467,83.2126,43.2773,5.51431,-19.6448,-7.17123,7.12502,6.68272,22.7033,-38.254,2.18539,13.6156,27.085,-18.0541,-8.37683,14.1392,11.2432,4.858,-24.6552,13.2584,-20.6922,1.90897,4.4448
6.5238,17.2973,17.2274,198.633,-77.234,-195.916,9.96437,-2.05954,-7.24195,2.4199,-3.49467,2.02742,-2.48617,-1.75869,6.61773,-5.93118,-6.71631,-8.70861,-4.97568,-8.50875,6.18777,0.122433,-4.19808,3.30111,-1.49089e-15,1.35174e-14,-19.2615,17.9014,-85.8297,23.8141,-35.4673,-29.4437,-20.3736,7.12502,-2.78022,-50.3353,-1.49089e-15,1.35174e-14,-15.5884,-4.81875,83.4159,43.2812,5.41481,-19.9491,-7.25335,7.12502,6.38892,22.6303,-38.1926,1.44368,13.5786,27.9053,-16.7334,-7.73625,14.3057,12.6237,5.14282,-24.9213,11.8356,-19.882,2.11125,1.54797
6.40252,17.2989,17.1925,198.377,-77.2975,-195.693,9.96238,-2.03903,-7.10343,2.54776,-3.45456,2.04605,-2.36515,-1.75086,6.54978,-5.7804,-6.73653,-8.73245,-5.18318,-8.54837,6.12774,0.0300228,-4.21956,3.29351,1.58034e-14,-1.35174e-14,-18.8714,16.2997,-85.1757,22.665,-33.0925,-27.5889,-20.5428,7.12502,-0.988836,-50.5203,1.58034e-14,-1.35174e-14,-15.419,-4.59522,83.6571,43.109,5.23098,-20.1141,-7.51382,7.12502,6.22963,22.3746,-38.1446,2.10182,13.3419,28.527,-16.4375,-7.17363,19.5219,13.5115,5.13832,-24.7637,10.9736,-19.3485,2.18036,0.451602
6.27491,17.2982,17.1528,198.24,-77.4212,-195.551,9.83015,-2.10037,-6.99007,2.68326,-3.51723,2.02845,-2.14836,-1.79799,6.45947,-5.63478,-6.74394,-8.78802,-5.37445,-8.5695,6.08134,-0.0554274,-4.23121,3.29693,-7.08667e-14,3.22031e-14,-18.7036,14.2483,-84.8711,21.5804,-30.8145,-25.8208,-20.2907,7.12502,0.7188,-50.2693,-7.08667e-14,3.22031e-14,-15.3201,-4.12525,83.7853,42.9049,4.85306,-20.0412,-7.76702,7.12502,6.3,22.1193,-37.962,1.85352,13.6169,28.7607,-15.3026,-6.55907,20.079,13.8574,4.41247,-24.7928,11.2255,-19.3777,2.37321,1.1893
6.14524,17.2777,17.1048,197.82,-77.5602,-195.074,9.63725,-2.15393,-6.99529,2.78913,-3.57453,2.10443,-1.91618,-1.842,6.53251,-5.50175,-6.77913,-8.96848,-5.55652,-8.62456,5.92507,-0.133337,-4.25737,3.28414,1.99779e-14,0,-18.5797,12.2941,-84.4808,20.4674,-28.7409,-21.8805,-19.8877,7.12502,4.52412,-49.8193,1.99779e-14,0,-15.4372,-4.28026,83.845,42.7721,5.08378,-19.8511,-7.94501,7.12502,6.48357,21.9357,-37.9075,0.26104,14.8754,28.9916,-13.0066,-6.28529,12.05,14.2607,4.38378,-24.4721,11.3314,-19.3679,2.00202,1.33084
6.01721,17.233,17.057,196.541,-77.7589,-193.795,9.62704,-2.1633,-6.85809,2.87404,-3.57194,2.26095,-1.82046,-1.85032,6.61652,-5.65502,-6.79391,-8.52804,-5.21886,-8.66151,5.42678,-0.0418314,-4.28038,3.02033,5.51627e-14,-6.36111e-15,-18.4625,10.8183,-84.0022,19.4286,-27.2767,-22.6834,-20.1128,7.12502,3.74887,-50.0595,5.51627e-14,-6.36111e-15,-15.6201,-4.29879,84.0475,42.6758,5.06289,-19.9017,-7.78693,7.12502,6.4347,22.0953,-37.8436,-1.77658,16.7189,29.1416,-9.7372,-6.85325,-6.18563,14.6563,3.83342,-24.1663,11.6312,-19.2592,2.54481,0.395747
5.89023,17.2456,17.0114,196.602,-77.9775,-194.141,9.98335,-2.15849,-6.92913,2.97416,-3.60045,2.28336,-1.90117,-1.86759,6.70194,-5.74039,-6.8854,-8.42143,-4.91994,-8.78494,5.12158,0.0563599,-4.34282,2.88384,-3.74709e-14,2.34566e-14,-18.5859,9.30069,-83.6493,18.6479,-26.2325,-25.3234,-19.8034,7.12502,1.19919,-49.7797,-3.74709e-14,2.34566e-14,-15.8478,-4.2947,84.3344,42.4936,4.95026,-20.2003,-7.7505,7.12502,6.14642,22.1403,-37.1622,-1.06948,16.3381,29.369,-9.82943,-5.98435,6.28798,15.1596,3.29452,-24.2126,12.0302,-18.906,3.26084,-1.85944
5.75923,17.2424,16.962,196.712,-78.1502,-194.412,10.2542,-2.16312,-7.02241,3.01093,-3.63623,2.31974,-1.99709,-1.8845,6.81306,-5.70704,-6.96281,-8.41802,-4.79197,-8.89346,4.89698,0.0867638,-4.39751,2.80237,2.94201e-14,-2.62396e-14,-18.7504,7.51535,-83.2007,17.8531,-24.8042,-26.4808,-19.1863,7.12502,0.0814146,-49.166,2.94201e-14,-2.62396e-14,-16.0978,-3.97973,84.6236,42.2005,4.75695,-20.2642,-7.83565,7.12502,6.08476,22.057,-36.8079,-1.12003,16.5233,29.6545,-8.67523,-5.77614,6.28094,15.7028,2.84651,-24.2107,12.1377,-18.3397,3.51765,-3.27756
5.62483,17.2519,16.9052,195.894,-78.3563,-193.49,10.2405,-2.20147,-6.98649,3.00409,-3.68006,2.43776,-1.98346,-1.90773,6.92198,-5.85602,-7.05224,-8.18132,-4.57411,-9.0203,4.47869,0.155759,-4.4648,2.60595,-1.32192e-14,-2.38542e-15,-18.9247,6.19519,-82.8441,17.1931,-24.2747,-26.7467,-19.1506,7.12502,-0.175417,-49.1303,-1.32192e-14,-2.38542e-15,-16.3638,-3.48091,84.835,41.8923,4.58336,-20.3683,-7.78944,7.12502,5.98421,22.106,-36.761,-0.679402,16.7887,30.1154,-8.02345,-5.78002,8.64308,16.268,2.48712,-23.8694,11.658,-17.3665,3.34726,-3.65306
5.48537,17.2683,16.8477,195.135,-78.6293,-192.68,10.1915,-2.27862,-6.91247,3.01194,-3.77032,2.51172,-1.93277,-1.95601,6.96368,-5.91294,-7.14263,-7.99941,-4.34036,-9.15023,4.09233,0.217702,-4.53353,2.43433,-2.28602e-15,-1.70955e-14,-19.4952,5.50382,-82.8409,17.0227,-25.5787,-28.7429,-18.6883,7.12502,-2.10341,-48.6576,-2.28602e-15,-1.70955e-14,-16.7315,-3.03548,85.0171,41.5365,4.40858,-20.5759,-7.94889,7.12502,5.78381,21.9522,-36.4803,0.109351,16.8006,30.4254,-8.01936,-5.9024,15.641,16.5886,2.50489,-23.3618,11.7555,-16.7605,3.04218,-5.30405
5.33824,17.2853,16.7904,193.181,-78.8822,-190.707,10.101,-2.31417,-6.62437,3.02616,-3.78019,2.69336,-1.87335,-1.96566,6.98721,-5.6254,-7.19706,-8.39884,-4.21597,-9.21633,4.19004,0.238357,-4.56207,2.54233,4.29375e-14,-1.86858e-14,-19.4733,0.546954,-81.272,15.5429,-18.8905,-25.5309,-18.9756,7.12502,0.998819,-48.953,4.29375e-14,-1.86858e-14,-17.1775,-2.70284,85.3464,41.1348,4.22658,-20.7307,-7.9815,7.12502,5.63433,21.9236,-36.1093,0.370045,17.3363,30.6821,-7.50753,-5.8045,18.8365,16.9202,1.59948,-23.0436,12.0822,-16.4305,3.872,-6.80474
5.188,17.3064,16.7252,190.357,-79.0591,-187.943,10.0881,-2.25642,-6.34122,3.05432,-3.6726,2.93296,-1.85725,-1.91651,7.06893,-5.33072,-7.24524,-8.65115,-4.06064,-9.28501,4.19852,0.255704,-4.59416,2.59498,-3.00165e-14,2.3059e-14,-19.9569,-0.873429,-80.718,15.0713,-18.6515,-26.4897,-18.2667,7.12502,0.072734,-48.2464,-3.00165e-14,2.3059e-14,-17.6346,-2.82433,85.7119,40.7035,4.32713,-21.0461,-7.86333,7.12502,5.3298,22.0496,-35.6361,0.462952,18.2055,30.9413,-6.47383,-5.88548,18.0181,17.2676,1.39821,-22.3043,12.4792,-15.9575,3.98608,-7.95654
5.03737,17.3307,16.6619,189.019,-79.2151,-186.648,10.1594,-2.25053,-6.21877,3.00112,-3.65465,2.98912,-1.9596,-1.90123,7.06392,-5.13049,-7.31782,-8.51067,-3.86455,-9.40576,3.84338,0.264533,-4.65829,2.45239,2.17669e-14,-1.27222e-14,-20.4345,-3.33461,-79.94,14.4451,-16.4321,-26.1525,-18.721,7.12502,0.398441,-48.7003,2.17669e-14,-1.27222e-14,-18.2476,-2.87369,85.9025,40.2832,4.3351,-21.5138,-7.88758,7.12502,4.8782,22.0363,-35.1033,0.892536,18.5679,31.1284,-5.79649,-6.27356,18.8562,17.3671,1.23484,-21.8643,13.1662,-15.2498,4.08074,-9.97765
4.88308,17.3568,16.6063,187.169,-79.3665,-184.59,10.034,-2.32585,-5.68678,2.85806,-3.68997,2.98265,-2.0711,-1.90639,6.75358,-4.9138,-7.39688,-8.65377,-3.55571,-9.51429,3.79639,0.338141,-4.71297,2.45951,3.18055e-15,4.77083e-15,-20.941,-6.63656,-78.966,13.7925,-13.6574,-25.0422,-19.4149,7.12502,1.47085,-49.3896,3.18055e-15,4.77083e-15,-18.9148,-2.44932,85.9191,39.8078,3.90812,-21.2987,-7.86898,7.12502,5.08598,22.05,-34.8298,1.3488,18.954,31.2986,-5.49404,-6.66832,20.9281,17.0197,0.701203,-21.4401,14.2803,-14.4919,4.3411,-12.1671
4.73077,17.3776,16.5458,183.983,-79.445,-181.196,9.81055,-2.31993,-4.98105,2.83016,-3.60024,3.06156,-2.03227,-1.86194,6.41231,-4.72461,-7.45363,-8.96369,-3.22094,-9.57957,4.00882,0.446584,-4.74392,2.58121,-6.39093e-14,-8.34896e-15,-21.4985,-9.63014,-78.0476,13.2307,-10.5621,-24.3627,-20.2275,7.12502,2.1271,-50.1966,-6.39093e-14,-8.34896e-15,-19.3506,-2.17226,85.9667,39.2793,3.79832,-20.4156,-7.94998,7.12502,5.93862,21.9468,-34.6097,1.67197,19.6972,31.4917,-5.09183,-7.13175,20.7143,16.6468,0.257741,-20.6786,15.5395,-13.7809,4.17873,-13.3345
4.59825,17.381,16.479,185.326,-79.2583,-182.592,10.0258,-2.13554,-5.48951,2.76698,-3.41292,3.0061,-2.21614,-1.75803,6.64149,-4.53116,-7.5377,-9.2502,-2.94677,-9.68854,4.08998,0.529263,-4.79818,2.65577,5.48646e-14,-2.54444e-14,-22.2582,-12.3031,-77.0376,12.8529,-8.62946,-24.3559,-20.2499,7.12502,2.13367,-50.219,5.48646e-14,-2.54444e-14,-19.8305,-1.92007,86.1485,38.796,4.09045,-19.5911,-8.09376,7.12502,6.73457,21.7791,-34.2744,2.17253,19.5528,31.5688,-4.44597,-7.6368,18.8455,16.1185,0.613577,-20.6334,17.2289,-13.0736,3.48937,-13.5312
4.44167,17.3926,16.4144,185.242,-79.4777,-182.583,10.0091,-2.18965,-5.41063,2.73636,-3.47655,2.86995,-2.24317,-1.78569,6.45805,-4.64809,-7.6982,-9.38128,-2.25016,-9.87411,4.12601,0.796901,-4.89471,2.66295,6.4605e-15,1.27222e-14,-23.1062,-13.4738,-76.6737,12.7361,-9.08434,-24.978,-20.2383,7.12502,1.53281,-50.2125,6.4605e-15,1.27222e-14,-20.4625,-1.64876,86.0561,38.3117,3.99118,-18.9989,-8.22186,7.12502,7.30621,21.632,-33.6886,1.89095,19.8194,31.6606,-3.97073,-7.58792,15.5786,15.5476,0.780273,-20.244,19.1817,-12.376,2.79629,-13.527
4.29291,17.4238,16.3578,177.12,-79.1025,-174.067,9.80662,-2.10272,-3.68573,2.63414,-3.1781,3.11127,-2.36777,-1.6339,5.69122,-4.90567,-7.87073,-9.36288,-1.45209,-10.0712,4.05335,1.1089,-4.99919,2.59964,5.36719e-15,3.57812e-14,-23.8989,-14.0782,-76.4954,12.7537,-10.0754,-25.637,-21.1127,7.12502,0.896364,-51.0906,5.36719e-15,3.57812e-14,-21.0934,-1.83228,85.9827,37.8351,3.90879,-18.5516,-8.34975,7.12502,7.738,21.4887,-33.3928,2.77794,21.6272,31.7303,-3.46085,-7.97527,12.4313,14.5873,0.382412,-18.5902,21.3016,-11.7473,3.22806,-14.1135
4.14953,17.4387,16.2998,173.743,-78.9729,-170.829,10.0706,-2.02726,-3.01692,2.66208,-3.02101,3.15301,-2.5375,-1.55522,5.3518,-4.86795,-7.94084,-9.21826,-1.0613,-10.1699,3.77028,1.20909,-5.05559,2.47002,1.98785e-15,-6.75868e-15,-24.7216,-15.8556,-75.7621,12.6286,-8.8006,-26.0768,-21.4325,7.12502,0.471531,-51.4117,1.98785e-15,-6.75868e-15,-21.6388,-2.31313,86.0355,37.4275,4.44284,-18.0805,-8.20013,7.12502,8.19268,21.621,-32.6864,3.32845,22.3527,31.8396,-3.26488,-8.16505,12.8837,13.9796,0.135168,-17.8142,23.376,-10.8277,3.41527,-16.8326
4.00379,17.4491,16.2225,172.265,-78.8709,-169.564,10.202,-1.94187,-3.10038,2.74922,-2.92275,3.22028,-2.52222,-1.51089,5.46375,-4.54015,-7.88196,-9.17937,-0.854074,-10.1188,3.43235,1.19142,-5.03783,2.36424,-4.77083e-14,3.65764e-14,-25.7113,-21.1263,-73.3086,11.9864,-1.22855,-24.089,-22.1219,7.12502,2.39143,-52.0883,-4.77083e-14,3.65764e-14,-22.1484,-2.48844,86.1292,37.0024,4.87116,-17.6869,-7.72783,7.12502,8.57245,22.0781,-31.9996,3.59651,22.7901,31.9574,-3.55892,-8.18472,16.9922,13.3414,0.346605,-17.1921,25.4583,-9.52911,3.08471,-19.5678
3.84165,17.4665,16.1563,172.147,-79.0123,-169.631,9.90633,-1.95075,-3.31317,2.98785,-2.95965,3.22599,-2.0949,-1.54903,5.5707,-4.2246,-7.83783,-9.19987,-0.829552,-10.0873,3.13709,1.1243,-5.0277,2.28521,3.6477e-14,-1.90833e-14,-26.0385,-21.5126,-73.2516,11.792,-2.85986,-26.3854,-20.457,7.12502,0.173497,-50.4367,3.6477e-14,-1.90833e-14,-22.4077,-2.30185,86.2986,36.3938,4.69083,-17.703,-7.09277,7.12502,8.55692,22.7138,-31.4269,3.07155,22.9951,32.2546,-3.86729,-7.73171,21.2727,12.7057,0.24701,-16.9987,27.4689,-7.86906,2.80451,-19.2573
3.67071,17.4688,16.0997,174.239,-79.3635,-172.193,9.77231,-2.01854,-3.72231,3.2508,-3.098,2.98854,-1.72184,-1.63588,5.5508,-4.01113,-7.83083,-9.46861,-0.598002,-10.0829,3.1274,1.17741,-5.0299,2.33292,2.29596e-14,-4.77083e-15,-26.5337,-22.5447,-72.8162,11.5824,-2.48777,-23.2366,-21.9864,7.12502,3.21461,-51.9419,2.29596e-14,-4.77083e-15,-22.7557,-2.2128,86.3979,35.6078,4.05498,-17.9246,-6.85971,7.12502,8.34306,22.9555,-30.5347,2.16808,22.6586,32.4828,-4.00735,-6.9322,23.6454,12.2388,0.0940639,-17.3786,29.709,-6.27324,2.48833,-17.1495
3.50952,17.4715,16.0416,174.439,-79.5414,-172.78,9.89147,-2.0629,-3.62309,3.30813,-3.15576,2.72382,-1.74227,-1.66268,5.22596,-3.62972,-7.81729,-9.67911,-0.202336,-10.0866,3.17271,1.25551,-5.03841,2.392,-9.54166e-15,-1.78906e-15,-27.5796,-24.1059,-72.0103,11.6051,-0.878613,-22.9163,-23.3493,7.12502,3.5239,-53.2999,-9.54166e-15,-1.78906e-15,-23.3743,-2.44496,86.3039,34.767,3.30298,-17.877,-7.02629,7.12502,8.38905,22.7871,-29.5818,1.24945,22.831,32.5247,-4.00708,-6.13365,23.9031,11.5419,0.250938,-17.1814,32.1892,-4.51138,1.70152,-13.6395
3.35705,17.4907,15.9805,170.972,-79.5406,-169.336,9.78628,-2.03471,-3.01239,3.31456,-3.05835,2.76689,-1.72046,-1.6131,4.90896,-3.15829,-7.90097,-9.69127,0.0353488,-10.2401,3.06196,1.25408,-5.12203,2.36564,1.04362e-15,-2.38542e-15,-28.6494,-25.7737,-71.0104,11.6908,0.718681,-22.9633,-23.6639,7.12502,3.47856,-53.6152,1.04362e-15,-2.38542e-15,-23.8669,-2.58616,86.2832,33.9635,2.5795,-17.7545,-7.20589,7.12502,8.50728,22.6027,-28.8834,0.400099,23.9057,32.5164,-3.80244,-5.55255,21.8088,10.3788,0.564298,-16.0467,34.7239,-2.28791,0.800874,-10.1785
3.20654,17.5217,15.9185,165.936,-79.4949,-164.237,9.58776,-2.01451,-2.29733,3.36577,-2.96481,3.06949,-1.58913,-1.57293,4.79948,-3.02581,-8.03946,-10.0844,0.581589,-10.4194,3.0749,1.44644,-5.22356,2.42444,3.83654e-14,-1.98785e-16,-29.4747,-26.9392,-70.0787,11.7405,1.74894,-25.2096,-22.6682,7.12502,1.30913,-52.644,3.83654e-14,-1.98785e-16,-24.2242,-2.42596,86.4698,33.1942,1.87275,-17.4792,-7.29778,7.12502,8.77297,22.4999,-28.2003,0.044071,25.1577,32.4156,-3.79904,-5.3996,20.3382,8.98288,0.795485,-14.5735,37.3693,-0.121638,0.161684,-9.0082
3.05893,17.5517,15.8553,165.733,-79.4175,-164.299,9.67368,-1.90813,-2.50662,3.45173,-2.84856,3.08054,-1.54726,-1.52026,4.92004,-3.15046,-8.1117,-10.4376,1.40034,-10.481,2.9021,1.75304,-5.27518,2.40442,-2.52953e-14,1.59028e-14,-30.1159,-27.6202,-69.429,11.8035,2.41127,-23.3455,-23.2058,7.12502,3.10944,-53.1629,-2.52953e-14,1.59028e-14,-24.5993,-2.45852,86.6826,32.3952,1.71037,-17.1636,-6.82378,7.12502,9.07748,22.9609,-27.2677,0.662894,25.136,32.2051,-4.30337,-5.75722,22.9867,7.85257,1.02659,-14.2306,39.9922,2.12376,0.00507249,-7.1341
2.91358,17.5655,15.791,164.335,-79.4927,-163.312,9.90331,-1.85155,-2.40856,3.55703,-2.77478,2.97697,-1.58196,-1.48518,4.75657,-2.84821,-8.13295,-10.6149,1.88463,-10.5309,2.7965,1.86735,-5.3156,2.40114,-9.79014e-15,1.78906e-14,-30.8302,-28.6496,-68.7637,11.7011,3.88026,-23.0302,-23.5495,7.12502,3.4139,-53.5019,-9.79014e-15,1.78906e-14,-24.8829,-2.29226,86.6196,31.3864,1.18821,-16.909,-6.38068,7.12502,9.32319,23.3932,-26.1158,0.793764,25.3521,31.9723,-4.88754,-5.85571,25.1389,6.87348,1.07232,-13.6952,42.5565,4.79304,-0.274624,-2.99743
2.76837,17.5771,15.7319,160.927,-79.5465,-160.201,10.0267,-1.84995,-1.90717,3.64256,-2.73366,3.00966,-1.58774,-1.46635,4.50581,-2.51039,-8.22777,-10.9886,2.48638,-10.6801,2.78944,2.04233,-5.41052,2.45863,3.29983e-14,-1.94809e-14,-31.5913,-29.6634,-68.0505,11.5913,5.37084,-23.8114,-23.2856,7.12502,2.65951,-53.2487,3.29983e-14,-1.94809e-14,-25.0246,-1.34632,86.2637,30.1496,-0.67205,-15.9421,-6.78218,7.12502,10.256,22.9478,-24.9869,0.525177,26.0806,31.715,-5.34615,-5.83034,25.622,5.74087,0.954388,-12.7699,45.1423,7.47047,-0.59855,1.46965
2.62467,17.6027,15.676,159.138,-79.5368,-158.453,9.84799,-1.86774,-1.74639,3.6996,-2.74421,3.06336,-1.43457,-1.47598,4.46158,-2.42558,-8.28045,-11.2888,3.20157,-10.7424,2.53945,2.27402,-5.47029,2.41401,-2.14936e-14,9.93923e-15,-31.9436,-29.9901,-67.7227,11.6507,5.90629,-24.431,-23.0547,7.12502,2.06113,-53.0244,-2.14936e-14,9.93923e-15,-25.3172,-1.50028,86.3242,29.5984,-0.10967,-15.971,-5.46991,7.12502,10.2281,24.2614,-24.1396,0.490726,26.5485,31.3828,-5.68703,-5.97108,25.631,4.2991,0.767263,-12.2145,47.6636,9.94227,-0.380676,4.83032
2.48296,17.634,15.6002,155.311,-79.1238,-154.551,9.5966,-1.78271,-1.2449,3.71427,-2.58691,3.22437,-1.31052,-1.3991,4.3178,-2.0245,-8.2446,-11.5847,3.68719,-10.7352,2.57458,2.38756,-5.48681,2.48532,2.25621e-14,6.36111e-15,-32.3406,-30.2003,-67.536,11.8165,6.37757,-24.4566,-23.0242,7.12502,2.0364,-52.9942,2.25621e-14,6.36111e-15,-25.6813,-1.55669,86.2433,28.9607,-0.261114,-15.943,-4.88761,7.12502,10.2551,24.8424,-23.2761,0.680526,27.6758,30.8918,-5.83503,-6.096,25.2652,2.72134,1.29668,-10.6408,50.2231,12.4117,-0.462817,8.49435
2.34939,17.6336,15.542,151.215,-78.7393,-151.03,10.1408,-1.65365,-0.565414,3.81725,-2.36319,3.29023,-1.54585,-1.28707,4.00067,-1.41672,-8.28628,-11.8163,4.18069,-10.8664,2.67978,2.47808,-5.5726,2.57045,2.56308e-14,-1.20265e-14,-33.0407,-30.8547,-67.0614,11.9132,7.50981,-23.8396,-23.2421,7.12502,2.63224,-53.2056,2.56308e-14,-1.20265e-14,-25.9699,-0.995183,86.0125,28.0626,-1.80492,-15.6052,-5.00061,7.12502,10.581,24.713,-21.6899,1.93288,28.5687,30.3273,-6.16665,-7.30727,24.9854,1.93318,1.67462,-9.36323,52.5189,14.9197,-1.32325,7.29817
2.21794,17.6342,15.4816,147.291,-78.2481,-147.446,10.3501,-1.51236,0.180823,3.96578,-2.11747,3.3886,-1.54708,-1.16796,3.65948,-0.836031,-8.52344,-11.7251,4.29513,-11.2448,2.14919,2.3939,-5.77921,2.38079,-9.64727e-15,3.85145e-15,-33.2919,-31.2569,-66.8727,11.8854,8.31726,-23.5926,-23.5435,7.12502,2.87082,-53.5039,-9.64727e-15,3.85145e-15,-26.0054,-0.231205,85.6961,27.169,-3.07099,-14.9103,-5.30726,7.12502,11.2512,24.371,-20.4547,1.53758,29.7848,29.7795,-6.11876,-7.04719,23.4702,0.857328,1.68354,-8.06967,54.7469,17.5834,-1.64152,8.64878
2.07846,17.641,15.4264,141.931,-77.7275,-142.167,10.1917,-1.48872,1.36907,4.11406,-1.99597,3.59592,-1.34492,-1.10948,3.18219,-0.496434,-8.62973,-11.7957,4.74487,-11.422,1.87454,2.48211,-5.89193,2.29826,-4.28843e-14,-1.65954e-14,-33.1676,-30.9932,-67.0434,11.9319,8.83419,-23.0064,-23.904,7.12502,3.43693,-53.856,-4.28843e-14,-1.65954e-14,-25.9832,0.254555,85.5338,26.4025,-3.41889,-14.5042,-5.26748,7.12502,11.6429,24.389,-19.4581,1.7203,31.2352,29.3724,-6.33029,-7.55,22.3787,-0.488873,1.51524,-6.40219,56.8653,19.0847,-1.1589,13.2168
1.94435,17.6554,15.3721,142.856,-77.741,-143.606,10.3586,-1.29191,0.888973,4.3526,-1.79374,3.49671,-1.18677,-1.0179,3.32804,0.278474,-8.4242,-11.8929,4.76207,-11.2497,1.78899,2.33504,-5.81653,2.33096,-5.01621e-15,-4.39811e-15,-33.2444,-31.4723,-66.6426,11.9905,11.2113,-20.8779,-24.2383,7.12502,5.49223,-54.1471,-5.01621e-15,-4.39811e-15,-25.9346,0.897206,85.4323,25.6844,-3.78512,-14.0611,-4.96561,7.12502,12.0702,24.6663,-18.2009,2.45157,31.0927,29.0971,-6.65972,-8.19015,22.2273,-1.32393,1.66268,-6.40312,58.7857,20.1564,-1.22511,13.8793
1.80381,17.673,15.3241,143.513,-78.1703,-144.519,10.1523,-1.24074,0.456031,4.55264,-1.78145,3.27946,-0.861776,-1.01755,3.3332,1.01102,-8.18578,-10.1768,4.84252,-11.0029,0.801752,2.02155,-5.68507,1.76084,-1.51325e-14,-1.89342e-14,-33.3644,-32.1852,-66.3105,12.0314,13.3242,-19.3627,-24.341,7.12502,6.95502,-54.2067,-1.51325e-14,-1.89342e-14,-25.8605,1.80452,85.0412,25.0231,-4.71127,-13.2897,-4.88642,7.12502,12.8139,24.7003,-17.3844,-0.0555452,30.8719,28.8666,-6.7161,-6.10719,21.6856,-2.61853,1.50261,-6.58123,60.7329,20.6231,-1.19348,14.3664
1.66971,17.6793,15.2718,144.193,-78.2962,-145.378,10.0755,-1.08376,0.198141,4.60217,-1.597,3.06201,-0.7786,-0.924646,3.22939,1.3318,-8.23546,-10.7441,5.46379,-11.1132,0.937422,2.2274,-5.77254,1.89536,-5.04416e-15,-2.09718e-14,-33.3968,-31.7445,-66.7357,12.1767,13.1142,-19.4088,-24.2744,7.12502,6.91052,-54.1416,-5.04416e-15,-2.09718e-14,-25.9831,2.82574,84.4809,24.3775,-5.75514,-12.6381,-4.96934,7.12502,13.4421,24.5769,-16.5439,0.939151,30.7143,28.7564,-7.1557,-7.14388,21.313,-3.80595,1.76642,-6.62678,62.4643,20.4065,-2.52173,11.3206
1.54064,17.6831,15.2253,141.554,-77.9673,-142.633,9.90182,-1.04604,0.85133,4.53879,-1.48825,3.08976,-0.770747,-0.860576,2.87434,1.58709,-8.33832,-11.4316,6.16833,-11.2939,1.11202,2.4932,-5.90253,2.05566,1.03617e-14,-8.05078e-15,-33.425,-31.2658,-67.1346,12.3857,13.1306,-19.0668,-24.06,7.12502,7.24072,-53.9162,1.03617e-14,-8.05078e-15,-26.2442,3.86671,83.9698,23.7941,-6.47112,-12.3571,-4.95249,7.12502,13.7129,24.5757,-15.9794,1.08096,31.5396,28.6082,-7.51795,-7.39912,20.7837,-5.2988,1.8564,-5.70895,64.2616,19.8248,-3.15328,10.9682
1.41193,17.6871,15.1748,139.199,-77.5109,-140.27,9.768,-0.983099,1.43079,4.54487,-1.36066,3.15427,-0.707489,-0.791401,2.59812,1.82483,-8.3865,-12.0603,6.916,-11.4004,1.15887,2.76314,-6.00238,2.16582,-3.17559e-14,3.95581e-14,-33.3255,-31.174,-67.2961,12.5412,13.8605,-17.9242,-23.6918,7.12502,8.34346,-53.507,-3.17559e-14,3.95581e-14,-26.5413,4.83584,83.4904,23.3544,-7.08241,-12.3031,-4.91798,7.12502,13.7649,24.6067,-15.2359,1.04846,32.4176,28.293,-7.82903,-7.37192,20.8906,-6.67885,2.02066,-4.66313,65.9282,18.4873,-2.37326,15.1305
1.27544,17.6935,15.1247,137.263,-77.5559,-138.633,9.73257,-0.935785,1.60617,4.71054,-1.29814,3.11867,-0.522571,-0.761194,2.45278,2.32975,-8.30261,-11.9926,7.36136,-11.3541,0.920709,2.79737,-6.0058,2.09057,1.09332e-14,4.27387e-14,-32.8786,-30.2103,-68.0495,12.8871,12.9591,-17.0318,-23.5717,7.12502,9.20465,-53.3508,1.09332e-14,4.27387e-14,-26.6559,6.03441,83.0338,22.9474,-7.87038,-12.216,-4.89291,7.12502,13.8488,24.626,-14.1357,0.110841,32.8058,27.7862,-8.00777,-6.89327,20.2323,-7.84735,1.8497,-4.1438,67.4786,17.1973,-2.96004,14.9216
1.14726,17.7026,15.0786,135.984,-77.1561,-137.371,9.49237,-0.764182,2.14437,4.81044,-1.04181,3.01306,-0.305582,-0.624012,2.00871,2.95734,-8.29972,-11.7398,7.59575,-11.4413,1.0147,2.75804,-6.05314,2.0994,-2.53947e-14,-1.49089e-14,-32.4053,-28.727,-69.3603,13.4756,11.0626,-16.7101,-24.3347,7.12502,9.51503,-54.0998,-2.53947e-14,-1.49089e-14,-26.7855,6.72581,82.5442,22.7459,-7.93659,-12.5189,-4.56568,7.12502,13.5569,24.973,-13.1882,1.43588,33.4574,27.1651,-8.12784,-8.19672,19.6262,-9.04276,2.17831,-3.43636,68.6781,16.1232,-4.32844,12.6557
1.01915,17.7197,15.0325,134.776,-76.8877,-136.168,9.53965,-0.648552,2.38954,4.7159,-0.859337,3.07013,-0.434946,-0.529122,1.91447,3.19527,-8.11416,-12.6743,8.6053,-11.2856,1.5231,3.16293,-6.03984,2.42269,-6.90777e-15,1.98785e-15,-31.7658,-25.4959,-71.1789,13.7888,6.23539,-18.9088,-23.422,7.12502,7.3932,-53.2729,-6.90777e-15,1.98785e-15,-27.3305,7.32258,82.314,22.7632,-7.72081,-12.9838,-4.07504,7.12502,13.1088,25.493,-12.3216,2.50325,34.0218,26.6909,-8.41887,-9.33966,19.616,-10.2878,2.32482,-2.84117,69.765,14.5066,-4.40505,14.3405
0.887062,17.7327,14.9911,134.363,-76.9857,-135.968,9.56559,-0.601224,2.31451,4.79096,-0.807171,3.01183,-0.372256,-0.504053,1.89082,3.44874,-8.00655,-13.5322,9.58808,-11.2589,2.03926,3.21195,-6.07058,2.45938,-1.33683e-14,5.08889e-14,-31.7559,-24.8494,-71.5446,14.5374,5.57646,-19.2459,-23.2833,7.12502,7.06777,-53.1453,-1.33683e-14,5.08889e-14,-27.6714,8.06504,82.0087,22.7375,-7.59928,-13.0891,-3.8821,7.12502,13.0073,25.6924,-11.2843,3.52142,34.1609,26.312,-8.79729,-10.673,18.5567,-11.3322,2.32485,-2.80154,70.6314,12.9515,-4.79282,13.0976
0.764025,17.7038,14.9564,135.254,-76.7958,-137.011,9.53219,-0.39533,2.19577,4.84694,-0.548053,2.92767,-0.300457,-0.374988,1.84425,4.0005,-8.04246,-12.5948,9.46351,-11.2868,0.748358,3.24999,-6.10669,2.16464,8.99501e-15,-1.39149e-14,-31.4003,-23.128,-72.4904,15.4011,3.93077,-19.9837,-23.9685,7.12502,6.35554,-53.8532,8.99501e-15,-1.39149e-14,-27.9249,8.71423,81.666,22.5449,-7.26078,-13.4639,-4.28622,7.12502,12.646,25.311,-10.6084,1.83163,34.1867,26.1322,-8.85311,-9.08635,16.0205,-12.4263,2.76263,-2.81385,71.4503,11.8085,-5.38607,12.7013
0.629008,17.6987,14.907,136.806,-77.167,-138.811,9.46054,-0.190692,1.48873,4.89605,-0.332656,2.69137,-0.214176,-0.272327,1.97514,4.79849,-8.1852,-11.803,9.46437,-11.5374,0.0552139,3.00842,-6.22634,1.82869,-1.5207e-14,-8.34896e-15,-31.1559,-21.2059,-73.5184,16.2598,1.42631,-21.9944,-24.2061,7.12502,4.41413,-54.1401,-1.5207e-14,-8.34896e-15,-28.2935,9.03149,81.3556,22.4423,-6.66238,-13.8496,-4.96815,7.12502,12.2741,24.6516,-9.7689,1.02138,33.6921,25.9699,-9.16504,-8.55039,14.7793,-13.3809,2.83656,-3.41927,72.0786,10.1796,-5.45971,10.0124
0.491841,17.7273,14.8603,140.207,-78.0657,-142.527,9.43123,-0.00224179,0.405114,5.01648,-0.16895,2.14416,-0.0791105,-0.198542,2.00214,5.02651,-8.1418,-12.4825,10.173,-11.5832,0.704432,3.32241,-6.29287,2.14899,1.93815e-14,-1.98785e-15,-31.2448,-20.5586,-74.1604,17.1691,0.529481,-22.9991,-24.4368,7.12502,3.44397,-54.3887,1.93815e-14,-1.98785e-15,-28.5105,9.1247,80.9631,22.5351,-6.07114,-13.88,-4.98748,7.12502,12.2448,24.6341,-8.91372,1.31221,32.5249,25.9283,-9.6749,-9.10964,14.8776,-14.3125,2.50508,-4.86549,72.5141,8.54483,-4.95868,8.71835
0.370265,17.7095,14.8276,135.007,-77.0135,-136.961,9.04925,0.0198736,2.08999,5.033,-0.0248892,2.40094,0.146761,-0.10157,1.30541,5.15963,-8.0776,-13.2951,11.0876,-11.6276,1.48612,3.38171,-6.35025,2.28907,-1.20265e-14,-1.98785e-14,-31.2727,-20.3277,-74.5504,18.0349,0.428585,-22.626,-24.77,7.12502,3.80431,-54.7158,-1.20265e-14,-1.98785e-14,-28.6381,9.72032,80.5466,22.6893,-5.70994,-13.8914,-4.38443,7.12502,12.2339,25.2378,-8.64983,0.499185,34.28,25.7741,-10.103,-8.30725,16.0687,-16.0406,2.75236,-2.88459,73.2461,6.99028,-5.23147,7.28583
0.245237,17.6908,14.7982,132.762,-76.6682,-134.913,9.18831,0.0836008,2.6413,5.1124,0.0943665,2.52259,0.155637,-0.0374892,1.11188,5.23046,-8.01352,-14.6049,11.9659,-11.6786,2.18823,3.76547,-6.44911,2.66663,2.31584e-14,4.41302e-14,-31.0859,-19.7548,-74.7365,18.6489,-0.282228,-21.8924,-24.4824,7.12502,4.51264,-54.4143,2.31584e-14,4.41302e-14,-28.927,9.66286,80.6335,23.0198,-4.10417,-14.5337,-3.80103,7.12502,11.6144,25.8571,-7.89862,-0.307263,34.8816,25.6912,-10.6177,-7.63876,17.6227,-17.06,2.80949,-2.22456,73.6115,6.23628,-5.4809,8.75913
0.136427,17.6725,14.7462,133.378,-75.7873,-134.917,8.6501,0.520505,3.01941,4.93661,0.696792,2.59367,0.273575,0.275821,0.922844,5.68434,-7.94924,-15.7909,12.4043,-11.799,3.03296,3.96092,-6.55937,3.09806,8.84592e-15,3.65764e-14,-30.9626,-19.1738,-75.0674,19.2728,-1.30677,-21.6496,-24.503,7.12502,4.74709,-54.4298,8.84592e-15,3.65764e-14,-29.232,8.59762,80.8631,23.3946,-2.19428,-15.5806,-3.63952,7.12502,10.6047,26.0729,-7.97016,0.249615,35.7574,25.547,-10.8334,-7.51111,18.315,-18.8026,3.88296,-1.28936,74.0023,5.08563,-5.97499,9.44364
0.00259033,17.6807,14.7134,134.917,-76.8187,-136.721,8.63762,0.585435,2.21954,5.04038,0.729704,2.09981,0.379998,0.288947,0.859059,6.13806,-8.21897,-13.7373,12.5012,-12.0906,2.1197,3.75959,-6.65431,2.53542,1.12313e-14,7.15625e-15,-30.8506,-17.9026,-75.9073,20.1077,-2.82723,-21.7022,-24.3852,7.12502,4.69629,-54.3132,1.12313e-14,7.15625e-15,-29.533,8.42583,80.5721,23.6525,-2.0146,-15.5323,-3.9731,7.12502,10.6513,25.7369,-7.247,-0.29463,34.6316,25.5412,-11.4191,-7.41958,18.4558,-19.723,3.29254,-2.6639,73.9115,3.78411,-5.66526,10.3851
-0.108263,17.6581,14.6787,133.11,-76.0164,-134.532,8.39256,0.684013,3.08919,4.97347,0.913098,2.23635,0.461201,0.396638,0.500319,6.30822,-8.06037,-15.0457,12.9249,-12.0449,2.9001,3.98882,-6.6871,2.95879,2.06736e-14,-1.59028e-15,-30.5912,-16.4567,-76.7229,20.8797,-4.33736,-21.8173,-24.1122,7.12502,4.58518,-54.0426,2.06736e-14,-1.59028e-15,-29.8647,9.25974,80.0334,23.8593,-2.27592,-15.0313,-4.79267,7.12502,11.1345,24.8919,-7.07608,0.247141,35.7801,25.4944,-11.7294,-7.75527,18.3638,-21.3353,3.78645,-1.52824,73.9747,2.73321,-6.04324,9.52697
-0.226214,17.6289,14.6469,131.581,-75.4796,-133.029,8.51262,0.753394,3.71131,5.00164,1.04504,2.33575,0.439681,0.470132,0.243775,6.5391,-8.2125,-14.2654,12.9753,-12.1919,2.15456,3.88811,-6.75465,2.62451,2.97183e-14,7.95139e-15,-30.2628,-15.5689,-77.1308,21.4524,-5.02456,-21.8975,-23.5524,7.12502,4.50771,-53.4844,2.97183e-14,7.95139e-15,-30.2574,9.65537,79.7706,24.2253,-1.866,-15.4006,-5.19352,7.12502,10.7783,24.5099,-6.55217,0.845223,36.6159,25.6348,-12.2166,-8.30213,18.3155,-22.4069,4.00297,-0.798456,73.7813,1.65865,-6.41698,8.04608
-0.348474,17.6235,14.6149,130.933,-75.2609,-132.412,8.6332,0.892533,3.97981,4.98418,1.25398,2.36199,0.367136,0.577451,0.10261,6.86727,-8.21467,-15.4532,13.2433,-12.3564,2.62817,4.04111,-6.89185,2.93714,2.3556e-14,1.35174e-14,-30.2414,-14.6484,-77.3591,22.3324,-5.97512,-21.8899,-23.409,7.12502,4.51505,-53.3408,2.3556e-14,1.35174e-14,-30.7055,9.36388,79.865,24.7315,-1.14725,-17.2167,-4.34483,7.12502,9.0262,25.4421,-6.01327,1.95527,37.0683,25.7266,-12.8624,-9.12264,19.9488,-23.3529,4.08889,-0.58064,73.3349,0.571056,-6.71015,6.02468
-0.470429,17.6102,14.5841,130.714,-75.1398,-131.948,8.40267,1.07776,4.1603,4.95037,1.505,2.32136,0.472388,0.710544,-0.0557173,7.02329,-8.35013,-14.2121,13.6388,-12.4789,2.10056,4.03434,-6.93321,2.59534,1.72943e-14,7.95139e-15,-30.1651,-14.5128,-77.439,23.0616,-6.66534,-22.1106,-23.2331,7.12502,4.30194,-53.1694,1.72943e-14,7.95139e-15,-30.9718,9.0674,79.9471,25.0621,-0.693636,-17.7798,-4.70568,7.12502,8.48287,25.1039,-5.95006,0.874813,37.1187,25.8549,-13.4176,-7.67524,21.7741,-24.6006,4.22348,-0.508452,72.7235,-0.222093,-6.7898,4.71744
-0.586101,17.5859,14.5621,129.81,-74.8228,-131.095,8.52251,1.19654,4.68734,5.03651,1.6937,2.31081,0.522063,0.813769,-0.375639,7.45313,-8.28347,-14.546,13.5196,-12.5025,2.4387,3.97387,-6.95017,2.76901,1.78906e-15,-2.38542e-15,-29.8088,-14.2911,-77.6568,23.6371,-7.83795,-23.0647,-22.8931,7.12502,3.38063,-52.8461,1.78906e-15,-2.38542e-15,-31.1188,8.96805,79.9191,25.3265,-0.254851,-18.2087,-4.53968,7.12502,8.06887,25.2863,-5.51693,1.67149,37.6693,26.0801,-14.0419,-8.33355,22.8414,-25.4842,4.2521,-0.147131,71.9895,-0.847527,-6.76941,5.90951
-0.707641,17.5708,14.5395,127.888,-74.6777,-128.973,8.35942,1.16313,5.38088,5.05238,1.68225,2.30826,0.654315,0.824571,-0.75928,7.73968,-8.2614,-15.0624,13.6666,-12.5992,2.91055,4.04534,-7.01812,2.99196,1.35174e-14,-2.62396e-14,-29.3851,-13.5871,-77.9541,24.2458,-7.41944,-22.9465,-24.0351,7.12502,3.49477,-53.9862,1.35174e-14,-2.62396e-14,-31.3441,8.74599,79.8923,25.7308,0.448248,-18.1803,-4.07094,7.12502,8.09628,25.754,-5.29248,2.42529,38.3604,26.2426,-14.6009,-9.45317,22.5024,-26.7158,3.88669,0.26814,71.0958,-1.75591,-6.69033,6.22952
-0.833883,17.5497,14.5035,127.786,-74.4482,-128.655,8.12192,1.34929,5.52481,5.068,1.92211,2.27855,0.821087,0.952733,-0.880326,7.78431,-8.40003,-15.2359,14.0268,-12.8289,3.04325,4.19145,-7.15054,3.03878,1.78906e-14,7.95139e-16,-28.9673,-12.6066,-78.2594,24.8684,-7.84659,-21.9676,-24.757,7.12502,4.44008,-54.6905,1.78906e-14,7.95139e-16,-31.5223,8.54304,79.8044,26.1198,0.720815,-17.6409,-4.12819,7.12502,8.61688,25.676,-5.2263,-1.1382,38.1587,26.3848,-14.8268,-6.02566,20.9224,-27.8756,4.00134,0.424998,70.1575,-2.50688,-6.44213,6.07862
-0.954074,17.5365,14.4757,128.037,-74.4947,-129.087,8.35332,1.51876,5.41157,5.19552,2.14398,2.1602,0.838614,1.06257,-0.958559,7.96265,-8.41307,-15.0249,14.0868,-12.8688,3.06858,4.17208,-7.16405,3.02319,-1.8487e-14,-1.19271e-14,-28.5426,-10.2603,-79.2726,25.9211,-12.0733,-23.0349,-25.2582,7.12502,3.40937,-55.2107,-1.8487e-14,-1.19271e-14,-31.6067,8.5263,79.7219,26.475,0.840961,-17.1417,-4.21206,7.12502,9.09861,25.5717,-4.24267,3.92961,38.8606,26.364,-15.7727,-10.8201,21.8639,-28.2169,3.9508,0.176201,68.7329,-3.24773,-6.05339,5.54184
-1.07225,17.5123,14.4547,128.288,-74.6471,-129.362,8.47185,1.62445,5.35805,5.26535,2.2835,2.03815,0.856663,1.1336,-1.06651,7.58017,-8.91634,-14.0608,14.5689,-13.3468,2.08636,4.29749,-7.3946,2.53166,-1.25234e-14,1.59028e-14,-28.184,-10.1486,-79.2097,26.3328,-11.3807,-25.3313,-26.4332,7.12502,1.19162,-56.4097,-1.25234e-14,1.59028e-14,-31.8405,8.40497,79.7856,26.9272,1.20311,-17.1809,-4.0397,7.12502,9.06081,25.7457,-4.01521,1.52755,38.3578,26.5634,-16.0045,-8.79559,21.0323,-28.9087,3.79459,-0.208326,67.321,-3.69019,-5.3811,5.29757
-1.19542,17.498,14.4203,127.387,-74.421,-128.275,8.34879,1.69644,5.73537,5.25901,2.3946,2.0679,0.942387,1.19896,-1.24878,8.4433,-8.65853,-14.0417,13.9472,-13.156,2.51705,3.97712,-7.27455,2.73275,2.68359e-14,1.35174e-14,-27.9096,-10.2968,-79.0633,26.698,-9.98675,-24.3823,-26.2972,7.12502,2.10818,-56.2666,2.68359e-14,1.35174e-14,-32.1318,8.20835,79.8092,27.2111,1.18515,-17.3563,-4.21773,7.12502,8.89151,25.5749,-3.6302,2.06225,38.9432,26.5221,-16.3104,-9.5897,19.9434,-29.7227,3.75581,0.0640509,65.754,-4.00229,-4.65165,5.38053
-1.31649,17.4932,14.3976,129.026,-74.6974,-129.625,8.14901,1.87465,5.34319,5.2123,2.60439,1.88239,1.00378,1.30314,-1.23018,8.91435,-8.63497,-13.7401,13.6683,-13.1618,2.46459,3.79328,-7.26019,2.7073,-2.98177e-15,4.77083e-15,-27.5074,-9.43414,-79.1847,27.2265,-11.0857,-20.2596,-22.5981,7.12502,6.08921,-52.4906,-2.98177e-15,4.77083e-15,-32.2526,8.27263,79.7875,27.2521,0.899645,-17.479,-4.57519,7.12502,8.7731,25.2225,-3.5717,1.30845,38.3519,26.616,-16.5384,-8.73228,19.2776,-30.5675,3.7528,-0.589297,64.0799,-4.6526,-3.79756,4.78633
-1.43864,17.4737,14.3744,128.23,-74.4241,-128.696,8.08972,1.93455,5.57343,5.28313,2.68317,2.02559,1.12139,1.34614,-1.21105,8.77443,-8.33645,-15.3824,14.3089,-12.9909,3.6131,4.18221,-7.24816,3.27254,-2.38542e-15,-1.90833e-14,-26.9956,-8.58649,-79.1562,27.8126,-11.8231,-20.2837,-22.0964,7.12502,6.06591,-51.9896,-2.38542e-15,-1.90833e-14,-32.3429,8.53751,79.8764,27.3184,0.998562,-17.9075,-4.81377,7.12502,8.35964,25.0008,-3.00955,3.56181,39.2003,26.4793,-17.1289,-10.9342,19.7318,-31.1655,3.7284,-0.278822,62.2591,-5.13927,-3.23988,4.46286
-1.56767,17.4461,14.3503,127.604,-74.3189,-127.836,7.88569,1.96712,5.75013,5.31846,2.71868,2.07728,1.2806,1.37103,-1.24887,8.65027,-8.52916,-14.8571,14.4989,-13.1526,3.12325,4.21024,-7.32096,3.02931,1.31198e-14,-1.59028e-15,-26.5913,-8.44746,-79.0513,28.3511,-11.2611,-19.7953,-22.3074,7.12502,6.53744,-52.1865,1.31198e-14,-1.59028e-15,-32.4255,8.66744,79.9559,27.3651,1.225,-18.1616,-5.04134,7.12502,8.1144,24.7829,-2.85269,1.596,39.1217,26.458,-17.6169,-9.20851,18.373,-31.8243,3.62374,-0.193176,60.2831,-5.2947,-2.36301,1.96246
-1.69117,17.4531,14.3219,129.028,-74.423,-128.894,7.65772,2.19084,5.51168,5.23687,3.00004,1.95637,1.3306,1.51229,-1.25018,8.67549,-8.38711,-16.0312,14.8959,-13.1437,3.94376,4.46218,-7.36724,3.43896,-8.74653e-15,-1.98785e-14,-26.2534,-8.50709,-78.8607,28.7884,-11.2011,-19.1221,-22.9231,7.12502,7.18732,-52.7811,-8.74653e-15,-1.98785e-14,-32.5333,8.38655,80.1021,27.4861,1.55615,-18.0861,-5.0264,7.12502,8.18722,24.795,-2.5854,3.07912,39.1116,26.2803,-18.0421,-10.3129,18.1123,-32.3641,3.47513,-0.621879,58.0186,-5.2545,-1.09175,1.4988
-1.81327,17.4425,14.3006,128.586,-74.5804,-128.57,7.95011,2.21492,5.4934,5.30865,3.04267,1.90304,1.24904,1.53083,-1.30801,8.97409,-8.46413,-15.9178,14.6256,-13.2721,3.92657,4.3355,-7.41688,3.43247,-2.48481e-14,-2.8625e-14,-25.7923,-7.64718,-78.8556,29.2101,-11.7356,-19.0645,-23.6134,7.12502,7.2429,-53.4694,-2.48481e-14,-2.8625e-14,-32.6605,8.18323,80.1883,27.6678,1.89108,-18.0686,-4.86928,7.12502,8.20413,24.9514,-2.03477,1.88148,38.8905,26.1983,-18.167,-9.34784,19.6244,-32.4752,2.83017,-0.78672,55.6562,-5.07433,0.170763,3.65258
-1.93916,17.4352,14.2769,128.543,-74.7636,-128.583,8.06344,2.21398,5.40336,5.42151,3.03448,1.76973,1.30591,1.52804,-1.39663,9.09051,-8.36933,-16.3285,14.5706,-13.2155,4.2132,4.34111,-7.39969,3.58917,1.21259e-14,2.62396e-14,-25.3731,-6.20419,-79.0981,29.7776,-12.6403,-19.4982,-24.1213,7.12502,6.82427,-53.9913,1.21259e-14,2.62396e-14,-32.6822,8.2286,80.1102,27.726,1.95983,-17.9795,-4.88675,7.12502,8.29015,24.9306,-1.357,3.86375,39.1979,26.0787,-18.6642,-11.1566,22.1527,-32.5298,2.58441,-1.09193,53.1637,-4.8991,1.33756,3.25307
-2.0708,17.4214,14.275,127.909,-74.9892,-127.991,8.20736,2.1804,5.80322,5.50547,3.01785,1.53735,1.35186,1.53541,-1.86046,9.00101,-8.80341,-14.591,14.6901,-13.5723,3.25938,4.24303,-7.5176,3.02695,3.69739e-14,2.70347e-14,-25.1855,-5.86166,-79.1506,30.65,-13.1894,-20.6386,-24.8098,7.12502,5.72332,-54.7125,3.69739e-14,2.70347e-14,-32.75,8.15195,80.0094,27.795,1.97073,-17.9435,-5.04779,7.12502,8.32482,24.7682,-0.866713,2.3702,38.7793,25.9529,-19.0157,-9.82361,22.3884,-32.5832,2.12178,-1.4226,50.6481,-4.91177,2.4976,3.37878
-2.20429,17.3987,14.2203,128.862,-74.5338,-128.444,7.70676,2.43512,5.64414,5.42581,3.32262,1.61949,1.55108,1.68919,-1.68381,8.87844,-8.98005,-14.3394,15.0471,-13.7568,2.93862,4.35202,-7.61674,2.86883,2.42517e-14,-2.8625e-14,-24.9845,-6.3581,-78.8807,31.4316,-12.7132,-21.5078,-25.3043,7.12502,4.884,-55.228,2.42517e-14,-2.8625e-14,-33.0119,8.30023,79.9108,27.9049,1.7641,-17.964,-5.24425,7.12502,8.30512,24.5725,-0.846196,0.657992,38.7513,25.7071,-19.0681,-7.96416,20.8835,-33.0393,2.43156,-1.05298,48.1074,-4.82102,3.2517,3.36797
-2.32669,17.3916,14.1865,129.408,-74.4506,-128.6,7.52522,2.53421,5.43121,5.34419,3.43854,1.70395,1.55369,1.74097,-1.47879,9.54968,-9.12576,-12.5014,14.1494,-13.7856,1.9392,3.77164,-7.54462,2.37371,-4.41302e-14,-1.66979e-14,-24.6357,-6.16678,-78.576,32.0099,-12.3051,-20.2836,-24.3543,7.12502,6.06599,-54.2474,-4.41302e-14,-1.66979e-14,-33.208,8.46218,80.0507,27.921,1.80938,-17.9369,-5.41319,7.12502,8.33127,24.4025,-0.535547,2.51596,39.216,25.4421,-19.5081,-9.58842,20.7905,-33.4206,2.46509,-1.03758,45.4956,-4.874,3.84961,2.38695
-2.45279,17.3879,14.1643,129.177,-74.3448,-128.053,7.4619,2.60916,5.55687,5.27312,3.54513,1.81144,1.52344,1.79448,-1.44205,9.72808,-8.95859,-13.2845,14.1047,-13.6851,2.39085,3.80897,-7.52098,2.63298,4.53229e-14,1.74931e-14,-24.3109,-6.10086,-78.3264,32.6577,-11.8612,-18.5674,-23.6013,7.12502,7.72267,-53.4403,4.53229e-14,1.74931e-14,-33.3055,8.56224,80.2801,27.8221,1.97674,-18.1505,-5.59269,7.12502,8.1251,24.2311,-0.0817076,5.22246,40.0005,25.2483,-20.2065,-11.765,22.1848,-33.7105,2.3435,-0.934027,42.9035,-5.27542,4.3255,4.60501
-2.5929,17.3774,14.1542,129.078,-74.3962,-127.717,7.36817,2.63107,5.7726,5.19457,3.58815,1.77331,1.51403,1.82288,-1.60024,9.08147,-8.97657,-14.9027,15.3691,-13.8864,3.36517,4.50226,-7.71197,3.07366,-1.05356e-14,1.43125e-14,-23.9019,-7.91358,-77.9034,33.0721,-10.2004,-18.1688,-23.8411,7.12502,8.10743,-53.6656,-1.05356e-14,1.43125e-14,-33.5132,8.55471,80.3243,27.8163,1.93336,-18.0985,-5.50386,7.12502,8.1753,24.318,0.288448,3.9465,39.6888,24.8992,-20.3143,-10.459,22.2122,-33.877,1.82932,-1.00261,40.337,-5.90731,4.86335,7.25455
-2.7328,17.3616,14.1474,129.497,-74.6427,-127.869,7.18151,2.63858,5.77247,5.15829,3.59358,1.64049,1.58823,1.8321,-1.72854,9.81961,-8.78839,-15.4005,14.5172,-13.7746,3.69233,4.16974,-7.6493,3.31085,2.82274e-14,-2.38542e-15,-23.1152,-7.41611,-77.794,32.7615,-10.8152,-19.6105,-23.616,7.12502,6.71587,-53.4895,2.82274e-14,-2.38542e-15,-33.631,8.59544,80.2745,27.8393,1.80253,-17.3604,-5.00935,7.12502,8.88762,24.7835,0.431593,-0.371197,38.4262,24.5808,-20.0985,-6.50853,20.9682,-34.1462,1.08895,-1.25581,37.9298,-6.80439,5.47666,6.23656
-2.86717,17.3551,14.1223,129.377,-74.4226,-127.527,7.04889,2.74011,5.87908,5.18131,3.72061,1.71577,1.69787,1.89918,-1.70746,9.34123,-8.47324,-16.5865,15.6043,-13.611,5.35165,4.75225,-7.61968,3.95084,-3.73715e-14,-3.49861e-14,-22.9773,-7.21414,-77.5467,34.1047,-10.8786,-19.9886,-24.4555,7.12502,6.35081,-54.3402,-3.73715e-14,-3.49861e-14,-33.626,9.01025,80.2102,27.7285,1.52461,-16.8155,-4.70936,7.12502,9.41335,25.0604,0.933468,0.876372,38.9608,24.3359,-20.4909,-7.64498,20.9519,-34.3279,0.790395,-0.95727,35.6907,-7.88152,5.57768,3.61559
-3.00328,17.3388,14.0952,129.586,-74.1325,-127.607,7.00934,2.88486,5.91175,5.20923,3.90624,1.79831,1.75943,1.99175,-1.64494,9.49484,-8.91563,-14.6118,15.029,-13.8847,3.86374,4.33953,-7.67324,3.21842,8.94531e-15,-8.74653e-15,-22.5787,-6.78076,-77.3347,34.7573,-11.3271,-19.6096,-24.7692,7.12502,6.71673,-54.6427,8.94531e-15,-8.74653e-15,-33.6641,9.17969,80.2706,27.6326,1.43757,-16.7774,-4.80333,7.12502,9.45016,24.9648,1.51568,1.90549,39.4389,24.1011,-20.8283,-8.59296,20.6316,-34.4377,0.493399,-0.615711,33.7051,-9.41139,5.47978,3.26964
-3.1408,17.3263,14.077,130.411,-74.0978,-128.247,6.92295,2.97101,5.80632,5.16844,4.01447,1.78861,1.76465,2.04402,-1.59781,9.23787,-9.11853,-14.5309,15.3642,-14.1009,3.61103,4.48321,-7.78915,3.09509,-1.88845e-14,7.95139e-16,-22.0858,-5.84571,-77.0818,35.0679,-11.8007,-20.0192,-23.9609,7.12502,6.32123,-53.8465,-1.88845e-14,7.95139e-16,-33.8882,9.34365,80.3571,27.6161,1.21925,-16.7821,-4.76039,7.12502,9.44556,25.0079,2.03066,2.19408,39.4253,23.7364,-20.8108,-9.23803,19.0037,-34.7047,-0.0851191,-0.551057,32.0063,-11.3122,5.45039,5.84905
-3.28818,17.3156,14.0648,131.129,-74.0216,-128.68,6.68118,2.99813,5.84592,5.07468,4.04585,1.79438,1.8053,2.06287,-1.60425,9.82159,-8.99786,-13.5755,14.7746,-13.8705,3.00005,4.07694,-7.63707,2.83711,-2.66371e-14,2.38542e-14,-22.015,-6.4959,-76.6047,35.8485,-10.5075,-20.2562,-23.2796,7.12502,6.09247,-53.172,-2.66371e-14,2.38542e-14,-34.2612,9.72661,80.392,27.6323,0.985862,-16.4004,-4.37246,7.12502,9.8139,25.3788,2.36854,1.45961,39.1658,23.4873,-20.7626,-8.80774,17.3216,-35.184,-0.395668,-0.5188,30.6448,-13.1044,5.00709,6.94526
-3.43991,17.3002,14.0575,131.936,-73.6927,-129.087,6.30864,3.12772,6.19977,4.96934,4.21876,1.74696,1.9473,2.16435,-1.83475,9.72847,-8.76997,-15.3019,15.3827,-13.872,4.45233,4.50034,-7.70656,3.50169,-3.33958e-14,-2.54444e-14,-22.0362,-6.75683,-76.3801,37.1836,-10.3929,-20.3167,-23.5967,7.12502,6.03402,-53.4908,-3.33958e-14,-2.54444e-14,-34.5052,9.55103,80.4977,27.616,1.19266,-15.646,-4.23657,7.12502,10.5417,25.4791,2.57053,0.787273,39.0124,23.3173,-20.8243,-7.90211,16.3607,-35.7626,-0.266944,-0.380381,29.5439,-14.78,4.28576,5.08985
-3.58921,17.2828,14.0508,132.471,-73.6314,-129.517,6.24329,3.25114,6.42152,4.92892,4.39434,1.60454,1.98596,2.26262,-2.10539,9.60283,-9.10072,-14.5984,15.6787,-14.2285,4.12927,4.57423,-7.86121,3.2702,1.27222e-14,1.11319e-14,-22.195,-7.55472,-76.1728,38.2523,-10.0379,-20.2032,-23.2299,7.12502,6.1436,-53.1209,1.27222e-14,1.11319e-14,-34.6426,9.05869,80.5522,27.5102,1.37543,-15.3108,-4.85134,7.12502,10.865,24.8476,3.09713,1.07262,38.9266,23.1731,-21.0265,-7.93193,16.5007,-36.0789,0.575529,-0.867551,28.7007,-16.3232,2.38933,3.54068
-3.73762,17.2701,14.0381,133.66,-73.8882,-130.592,6.08691,3.31606,6.0901,4.88044,4.4658,1.49675,2.0075,2.29436,-2.02807,9.2267,-9.2735,-15.3534,16.4431,-14.5272,4.34691,4.97723,-8.0604,3.3834,-5.64548e-14,-3.97569e-15,-22.0123,-8.16917,-75.7105,39.0294,-9.1946,-19.6511,-22.3811,7.12502,6.67668,-52.2559,-5.64548e-14,-3.97569e-15,-34.8601,9.41549,80.53,27.3032,0.796707,-15.8871,-5.87564,7.12502,10.3091,23.8517,3.58846,1.52658,38.5262,23.0901,-21.298,-8.11271,17.2252,-36.3513,1.86992,-1.97663,28.074,-17.5833,-0.0859238,1.26942
-3.88071,17.2532,14.0262,134.662,-74.0975,-131.501,6.0379,3.32727,5.83585,4.84941,4.47434,1.382,1.98992,2.29516,-2.00468,9.36776,-8.97767,-15.4257,16.4816,-14.214,4.71808,4.96234,-7.90773,3.53655,3.4191e-14,-1.03368e-14,-21.676,-8.88647,-75.3928,39.6372,-8.33862,-19.4387,-21.559,7.12502,6.8817,-51.4271,3.4191e-14,-1.03368e-14,-35.0894,10.0693,80.4188,27.1906,0.0186976,-16.4636,-6.06093,7.12502,9.75286,23.6932,4.00377,1.72395,38.1243,23.1309,-21.7726,-7.75113,18.8005,-36.4641,2.61941,-2.8215,27.6205,-18.688,-1.51701,-2.78772
-4.01699,17.2315,14.016,134.709,-74.0641,-131.515,6.18751,3.27427,5.9531,4.83778,4.41958,1.32832,1.90501,2.26922,-2.13301,9.31111,-8.7554,-16.3691,16.406,-14.0435,5.41979,5.04555,-7.84797,3.89712,-7.23576e-14,-1.27222e-14,-20.892,-6.72459,-75.4169,40.051,-10.484,-19.5719,-21.8551,7.12502,6.75309,-51.7275,-7.23576e-14,-1.27222e-14,-35.2655,10.3886,80.2773,27.1917,-0.241554,-16.3039,-5.29167,7.12502,9.90702,24.4552,4.40856,1.78756,38.0768,23.2629,-22.2254,-7.32987,19.8296,-36.3737,2.76202,-3.02391,27.3842,-19.2098,-2.43329,-3.90542
-4.14946,17.2075,14.0095,134.31,-74.0511,-130.894,6.20208,3.13244,6.05716,4.77054,4.23937,1.44327,1.81154,2.17637,-2.0706,9.15892,-9.05267,-14.7243,16.2252,-14.1777,4.38785,4.83465,-7.84777,3.33215,-4.92986e-14,1.27222e-14,-21.3559,-7.75818,-75.0401,42.1765,-9.14309,-17.5227,-22.2042,7.12502,8.73095,-52.0037,-4.92986e-14,1.27222e-14,-35.5046,10.6665,80.3248,27.216,-0.218582,-16.0217,-4.89899,7.12502,10.1792,24.8347,4.6462,1.41382,38.0743,23.2844,-22.1824,-7.33849,18.1683,-36.5522,3.07801,-3.25872,27.5096,-18.4287,-3.55949,-3.32895
-4.27635,17.1887,13.9969,134.401,-73.9349,-130.549,6.02746,3.11496,6.24607,4.63896,4.22364,1.45074,1.78476,2.17265,-2.1608,8.93606,-9.09153,-14.9495,16.5179,-14.2508,4.55939,4.99736,-7.89528,3.39263,-3.69739e-14,-1.59028e-15,-21.118,-8.46125,-74.7986,43.1395,-8.18123,-17.1522,-22.4219,7.12502,9.08851,-52.206,-3.69739e-14,-1.59028e-15,-35.6126,10.7715,80.2901,27.1514,-0.394623,-15.9637,-4.9807,7.12502,10.2352,24.7503,4.64863,1.71758,38.2707,23.312,-21.9108,-7.98797,16.1987,-36.9962,3.98267,-3.67146,27.8312,-16.9987,-4.41019,-5.47459
-4.41064,17.1693,13.9808,132.834,-73.6728,-129.326,6.57123,3.0635,6.78117,4.7225,4.20454,1.51599,1.60894,2.16618,-2.41765,8.84691,-9.20381,-14.724,16.7144,-14.4289,4.83706,5.09076,-7.9646,3.4266,-6.71892e-14,7.95139e-16,-21.3131,-9.46171,-74.5894,44.6098,-7.49885,-17.5727,-22.6191,7.12502,8.68269,-52.4206,-6.71892e-14,7.95139e-16,-35.656,10.9731,80.1325,26.9746,-0.906448,-15.9004,-4.98562,7.12502,10.2962,24.7423,5.52959,2.37922,39.002,23.3186,-21.803,-9.17998,14.8664,-36.6103,3.93803,-3.45528,28.3956,-15.8075,-4.69245,-7.69087
-4.55192,17.17,13.9828,133.026,-74.0948,-129.587,6.70166,2.94338,6.60971,4.71997,4.04908,1.46519,1.50938,2.08293,-2.37825,9.17007,-8.38136,-17.4038,16.9918,-13.9017,7.32258,5.42593,-7.79766,4.64267,8.0309e-14,1.82882e-14,-20.9816,-8.10668,-74.1689,45.5567,-9.00029,-16.8479,-22.337,7.12502,9.38208,-52.1082,8.0309e-14,1.82882e-14,-35.8866,10.9257,80.2211,26.9649,-0.724663,-15.6848,-4.80272,7.12502,10.5042,24.9148,6.06703,2.21223,38.5809,23.2589,-21.7015,-9.50491,13.9644,-36.5348,3.26445,-4.02216,29.118,-14.7071,-4.97318,-5.7245
-4.70117,17.1619,13.9541,133.992,-73.8569,-130.454,6.499,3.07164,6.24736,4.71671,4.18568,1.62875,1.58788,2.14177,-2.00347,9.1191,-7.84291,-19.4723,17.5519,-13.6001,9.07718,5.82852,-7.73613,5.5322,-6.36111e-15,-1.03368e-14,-21.0268,-9.0868,-73.6873,46.927,-8.43155,-15.66,-21.5031,7.12502,10.5282,-51.2195,-6.36111e-15,-1.03368e-14,-36.0488,10.7746,80.4478,26.9096,-0.259173,-15.7257,-4.64411,7.12502,10.4647,25.0754,6.55264,2.59546,38.6924,23.2123,-21.4657,-9.77513,13.6607,-36.5261,3.44001,-4.11339,29.8693,-13.9991,-5.55942,-2.13907
-4.85148,17.1406,13.9351,134.121,-73.4346,-130.747,6.57696,3.16847,6.27402,4.82309,4.30446,1.82263,1.6528,2.19744,-1.82353,8.85869,-7.64563,-20.8232,18.0609,-13.5757,10.1639,6.19459,-7.78002,6.08269,3.598e-14,-4.05521e-14,-20.9296,-9.5738,-73.1852,48.1465,-8.25228,-17.3842,-21.5521,7.12502,8.86463,-51.3459,3.598e-14,-4.05521e-14,-35.9912,11.0983,80.5419,26.5519,-0.549355,-15.9392,-4.65973,7.12502,10.2588,25.0701,7.16795,3.04314,39.1026,23.5138,-21.1118,-10.4776,11.7673,-36.152,3.33441,-3.8908,30.337,-13.5667,-5.954,-0.313214
-5.0037,17.1258,13.936,134.235,-73.2387,-131.159,6.82801,3.1772,6.47439,4.95774,4.32584,1.8973,1.6679,2.20944,-1.86769,8.66719,-7.67508,-21.7048,18.3843,-13.7515,10.7563,6.46358,-7.90323,6.38928,-4.01545e-14,-1.27222e-14,-20.7715,-9.10879,-72.6864,49.3317,-8.64065,-19.1504,-21.8638,7.12502,7.16002,-51.7227,-4.01545e-14,-1.27222e-14,-35.857,11.6783,80.4292,26.0993,-1.17769,-15.6255,-4.7032,7.12502,10.5614,25.0114,7.73756,3.34569,39.2372,24.0302,-20.6955,-11.1055,9.64697,-35.5534,2.70955,-3.83301,30.6187,-12.3588,-6.74138,4.27532
-5.16415,17.1442,13.9423,137.22,-73.5258,-134.295,6.7871,3.33783,5.87349,5.01411,4.51048,1.66512,1.73017,2.29545,-1.77829,8.68731,-7.8782,-21.8852,18.5556,-14.0774,10.8204,6.59256,-8.076,6.40735,-1.43125e-14,2.14687e-14,-20.7539,-9.56151,-72.3205,50.452,-8.23022,-19.1912,-21.7274,7.12502,7.12059,-51.5876,-1.43125e-14,2.14687e-14,-35.7507,11.8284,80.4193,25.7531,-1.32112,-15.3039,-4.5946,7.12502,10.8716,25.104,8.01199,3.59442,38.2686,24.6975,-20.1381,-11.5535,7.64305,-34.9221,2.20653,-4.77191,30.7255,-10.6205,-7.43014,9.77296
-5.32895,17.1695,13.9479,141.089,-73.7541,-138.368,6.6932,3.55068,5.02464,5.09887,4.75021,1.35648,1.83744,2.40468,-1.62771,8.77266,-8.16459,-21.1218,18.5058,-14.3561,10.2589,6.51509,-8.18332,6.07969,-3.77691e-14,2.78299e-14,-20.7997,-10.3129,-72.2476,51.6137,-7.68186,-19.778,-22.2768,7.12502,6.55414,-52.1554,-3.77691e-14,2.78299e-14,-35.6483,11.3048,80.6186,25.5312,-0.86093,-15.3514,-4.40224,7.12502,10.8258,25.2987,8.28722,4.03567,37.1674,25.5408,-19.3976,-12.4034,4.85746,-34.1513,1.79898,-5.85409,30.7206,-9.55827,-7.08122,11.0486
-5.49159,17.1827,13.9541,142.588,-73.5044,-140.012,6.67273,3.61041,4.96169,5.16795,4.81967,1.3174,1.92323,2.43987,-1.63111,8.78728,-8.41384,-19.9294,18.3624,-14.4499,9.16385,6.31705,-8.19046,5.52855,1.03567e-13,1.27222e-14,-20.7319,-10.7192,-72.0964,52.7654,-7.09559,-20.6217,-23.0055,7.12502,5.73956,-52.9078,1.03567e-13,1.27222e-14,-35.5838,11.176,80.7117,25.2383,-0.613986,-15.1757,-4.28399,7.12502,10.9953,25.4081,8.44576,4.43411,36.9209,26.5005,-18.6301,-12.9635,2.24582,-33.4655,1.29996,-6.01623,30.7349,-8.95543,-6.07095,10.962
-5.6595,17.1904,13.9521,143.12,-73.1377,-140.528,6.55004,3.60347,5.19258,5.1215,4.81645,1.36119,1.95995,2.44445,-1.70618,8.8958,-8.75071,-19.0513,18.1709,-14.7425,8.34525,6.15927,-8.3048,5.11167,2.16675e-14,-2.38542e-15,-20.7436,-10.9184,-71.6204,53.8988,-6.19838,-19.817,-23.2207,7.12502,6.51648,-53.1004,2.16675e-14,-2.38542e-15,-35.6177,11.4158,80.6015,24.7827,-0.758543,-14.9838,-4.35321,7.12502,11.1803,25.3289,8.34482,4.51068,36.8696,27.5475,-17.9335,-12.8584,0.543485,-32.9974,1.08555,-5.92409,30.8537,-8.13649,-5.41199,11.4713
-5.83004,17.2052,13.9436,144.998,-73.0246,-142.331,6.33942,3.57799,4.92329,5.01458,4.77421,1.19783,1.95135,2.42176,-1.71457,8.90783,-8.69106,-16.9373,18.1245,-14.3415,6.89376,5.82134,-8.04518,4.37342,5.12864e-14,7.95139e-16,-20.7872,-10.917,-71.2171,55.1024,-5.6338,-18.4835,-23.6602,7.12502,7.80364,-53.4962,5.12864e-14,7.95139e-16,-35.771,11.611,80.3017,24.4408,-1.09067,-15.0109,-4.51817,7.12502,11.1542,25.1654,8.03613,4.63677,36.2989,28.813,-17.2158,-12.6552,-0.403417,-32.5959,1.16584,-6.36539,30.9535,-7.1606,-5.08098,11.5889
-5.99379,17.2321,13.9333,147.993,-73.1535,-145.311,6.21626,3.56536,4.13484,4.90228,4.7358,0.922518,1.85249,2.38837,-1.55865,9.01029,-8.81747,-14.8853,17.9294,-14.2183,5.55971,5.48123,-7.91517,3.67484,-3.51849e-14,-1.82882e-14,-20.8091,-11.4964,-71.0116,56.4408,-5.11757,-24.5823,-22.8533,7.12502,1.91498,-52.8244,-3.51849e-14,-1.82882e-14,-35.9311,12.0175,79.9132,24.1797,-1.76329,-14.7797,-4.5547,7.12502,11.3772,25.1167,7.5454,4.84481,35.2993,30.3669,-16.2409,-12.5963,-2.0536,-32.1204,1.45742,-7.32737,30.9312,-6.32764,-4.68787,10.8868
-6.15806,17.2618,13.9219,150.476,-73.4201,-147.945,6.22271,3.54417,3.33212,4.84529,4.6834,0.722534,1.73311,2.34505,-1.32279,9.20142,-8.63015,-16.2945,18.2501,-14.2515,6.47506,5.72521,-8.00189,4.16934,-3.81667e-14,3.65764e-14,-20.977,-11.2339,-70.6907,57.5198,-5.22679,-25.8705,-21.5859,7.12502,0.670867,-51.5645,-3.81667e-14,3.65764e-14,-36.0197,12.2865,79.7041,23.8678,-2.10824,-14.4896,-4.454,7.12502,11.657,25.2017,7.0451,4.78423,34.2889,32.1474,-15.241,-12.3686,-4.11613,-31.43,1.60076,-8.31553,30.8735,-5.73654,-4.25593,11.5852
-6.32155,17.2843,13.9141,151.269,-73.5454,-149.019,6.35345,3.394,2.95698,4.90447,4.46679,0.750965,1.67816,2.22489,-1.08508,9.30597,-8.6729,-15.9216,18.2309,-14.2757,6.18962,5.65791,-8.00811,4.02949,-1.47101e-14,-1.59028e-15,-20.8354,-11.3301,-70.4754,58.6993,-4.62183,-26.0298,-21.8933,7.12502,0.516921,-51.8725,-1.47101e-14,-1.59028e-15,-36.1177,12.5837,79.6696,23.7043,-2.02071,-14.4426,-4.31352,7.12502,11.7023,25.3396,6.57898,4.41752,33.7219,34.1131,-14.0397,-12.0776,-7.19278,-30.568,1.52585,-8.77138,30.8879,-5.39071,-4.00016,12.6643
-6.47712,17.2938,13.9085,150.873,-73.4713,-148.946,6.68518,3.20895,3.00109,4.95186,4.22564,0.844512,1.53016,2.0994,-1.02261,9.13427,-8.64335,-15.4789,18.4558,-14.1744,5.90054,5.69126,-7.95152,3.86779,-1.19271e-15,0,-20.839,-11.351,-70.1774,60.1524,-4.04847,-26.5891,-22.8927,7.12502,-0.0232227,-52.8725,-1.19271e-15,0,-36.3189,13.1466,79.4541,23.684,-2.42519,-14.2382,-4.2177,7.12502,11.8994,25.4242,6.06875,3.94395,33.4964,36.2462,-12.6734,-11.5111,-9.56661,-29.7362,1.89798,-8.88617,30.9803,-5.06819,-4.37014,12.7493
-6.62436,17.2956,13.8995,150.148,-73.3159,-148.411,7.05648,3.04947,3.15981,4.86938,4.03559,0.940303,1.23662,2.00135,-1.0285,8.91494,-8.3213,-16.5258,19.2411,-13.9489,6.53122,6.07111,-7.91393,4.21225,4.4329e-14,-1.19271e-14,-21.0766,-11.2564,-69.6749,61.7422,-3.36946,-26.4881,-24.0562,7.12502,0.0743091,-54.0359,4.4329e-14,-1.19271e-14,-36.6589,13.6787,79.1013,23.7367,-2.90051,-13.8317,-4.18013,7.12502,12.2914,25.4386,5.28185,3.5748,33.4328,38.5404,-11.2489,-10.6869,-9.29562,-29.0996,2.92297,-8.92064,31.0408,-4.44753,-5.32582,13.9633
-6.76741,17.3084,13.886,150.542,-73.2407,-148.842,7.20095,2.91508,2.93455,4.78808,3.85508,0.942071,1.04858,1.90381,-0.903683,8.64172,-8.58197,-16.5398,19.5115,-14.2629,6.36086,6.23294,-8.07584,4.1144,-2.68359e-14,9.54166e-15,-20.9715,-10.8509,-69.5003,63.1093,-4.24863,-28.1126,-25.0131,7.12502,-1.49462,-54.9876,-2.68359e-14,9.54166e-15,-36.8152,13.9793,78.7558,23.7138,-3.06048,-13.1168,-4.16266,7.12502,12.9806,25.4135,4.13,3.43565,33.137,40.9851,-9.57917,-10.207,-7.85147,-28.58,3.98021,-9.20618,30.9972,-3.65622,-6.17771,15.9448
-6.91936,17.3398,13.865,153.601,-73.4204,-152.023,7.12315,2.88481,1.88202,4.80262,3.75902,0.678502,1.04793,1.8379,-0.580364,8.42758,-8.59263,-16.4035,19.7535,-14.3044,6.57014,6.35156,-8.08348,4.14364,-4.81059e-14,-1.82882e-14,-20.6996,-9.60613,-69.5744,64.3966,-9.49225,-33.7481,-22.9642,7.12502,-6.93642,-52.8305,-4.81059e-14,-1.82882e-14,-36.6934,14.335,78.3223,23.5725,-3.32447,-11.7826,-3.88065,7.12502,14.2665,25.6093,2.89523,3.31651,31.912,43.5584,-7.76564,-9.85467,-6.37466,-27.8537,4.80707,-10.3098,30.8203,-3.17045,-6.77606,16.8183
-7.07856,17.3749,13.8458,155.923,-73.4948,-154.646,7.16616,2.87022,1.09979,4.8937,3.6929,0.540433,1.07402,1.78792,-0.283355,8.54518,-8.48799,-16.436,19.5608,-14.229,6.91205,6.28313,-8.03375,4.27525,7.15625e-15,-2.06736e-14,-20.6273,-8.51882,-69.3546,66.542,-13.243,-36.8093,-23.9193,7.12502,-9.89066,-53.667,7.15625e-15,-2.06736e-14,-36.5537,14.264,78.2869,23.5415,-3.12982,-12.4523,-3.48571,7.12502,13.6211,26.0486,1.81702,3.08566,30.8201,46.1812,-5.93496,-9.3242,-3.39537,-26.8331,5.76208,-11.2682,30.5304,-2.91393,-7.58905,17.2792
-7.23203,17.4012,13.8428,156.59,-73.5324,-155.802,7.54672,2.84975,0.982088,5.02625,3.65057,0.499947,0.996211,1.75973,-0.272678,9.01253,-8.49079,-16.3009,18.9564,-14.2601,6.99648,6.01131,-8.0295,4.31592,-7.23576e-14,-9.54166e-15,-20.8677,-8.22894,-68.8385,68.2427,-13.1621,-37.7514,-24.2951,7.12502,-10.7995,-53.9975,-7.23576e-14,-9.54166e-15,-36.3535,13.2323,78.7463,23.5582,-2.40737,-12.7349,-3.54379,7.12502,13.3487,26.0086,0.919872,2.66034,30.0587,48.7454,-3.87439,-8.70194,0.34116,-25.6051,6.24996,-11.7817,30.1581,-2.97272,-8.08923,17.4806
