JuanDHNZ/ProyectoFinalCD/preprocessing/sports_trials_csv/01_09.csv
root1,root2,root3,root4,root5,root6,lowerback1,lowerback2,lowerback3,upperback1,upperback2,upperback3,thorax1,thorax2,thorax3,lowerneck1,lowerneck2,lowerneck3,upperneck1,upperneck2,upperneck3,head1,head2,head3,rclavicle1,rclavicle2,rhumerus1,rhumerus2,rhumerus3,rradius1,rwrist1,rhand1,rhand2,rfingers1,rthumb1,rthumb2,lclavicle1,lclavicle2,lhumerus1,lhumerus2,lhumerus3,lradius1,lwrist1,lhand1,lhand2,lfingers1,lthumb1,lthumb2,rfemur1,rfemur2,rfemur3,rtibia1,rfoot1,rfoot2,rtoes1,lfemur1,lfemur2,lfemur3,ltibia1,lfoot1,lfoot2,ltoes1
11.6562,17.3847,13.933,70.2373,-88.5734,-66.0737,9.03896,0.18036,-3.40634,3.38239,-0.116974,1.72859,-1.54683,-0.128181,3.72288,-3.29785,-6.30576,-6.79116,11.6938,-8.702,4.91597,4.55485,-4.36588,2.14808,1.63997e-15,-3.08116e-15,-31.2129,-8.39917,-81.2028,27.5902,-9.54867,-14.216,-23.7809,7.12502,11.9208,-53.4215,1.63997e-15,-3.08116e-15,-24.9586,7.52879,82.9351,41.5746,5.32704,-20.4594,-4.0701,7.12502,5.89634,25.8279,-36.6646,-0.738274,21.747,27.4315,-4.25994,-11.9821,5.58072,5.0846,5.16757,-21.019,20.765,-24.9657,-2.73594,6.31424
11.5663,17.3813,13.929,60.3659,-88.6484,-55.9821,8.97409,-0.00422576,-3.5881,3.35343,-0.375697,1.59912,-1.51721,-0.256477,3.71654,-3.22765,-6.25915,-7.1607,12.0386,-8.69335,5.33535,4.68212,-4.36075,2.33283,7.92654e-15,2.23633e-15,-31.4202,-7.66105,-81.5577,27.9688,-9.97437,-13.8017,-24.0793,7.12502,12.3203,-53.6964,7.92654e-15,2.23633e-15,-24.9184,7.55317,82.8324,41.6264,5.42118,-20.7488,-4.86967,7.12502,5.61689,25.0359,-36.9998,-0.843011,21.65,26.6365,-4.75285,-12.0257,3.13392,5.53853,5.11453,-21.1493,20.0322,-24.7617,-3.01664,6.95785
11.4769,17.3799,13.9117,24.2449,-89.0398,-19.4605,8.77391,-0.0393296,-4.53502,3.29522,-0.493625,1.3799,-1.44729,-0.317168,4.03416,-2.95521,-6.35855,-7.36718,11.9853,-8.85579,5.53288,4.64855,-4.44474,2.42502,2.2736e-15,-1.9133e-15,-31.766,-7.85164,-81.4703,28.4319,-9.62985,-13.6803,-24.3612,7.12502,12.4373,-53.9711,2.2736e-15,-1.9133e-15,-24.7627,7.03729,82.8965,41.8552,5.17773,-20.5605,-4.71502,7.12502,5.79865,25.1856,-37.6182,-0.24566,20.5224,26.117,-5.819,-12.5179,4.49524,5.83378,5.16962,-21.9036,19.1434,-24.3413,-3.79786,9.38915
11.4004,17.3783,13.9462,20.1987,-89.2401,-14.8625,8.66611,0.0258414,-4.1234,3.171,-0.369826,1.13421,-1.53572,-0.245239,3.53255,-2.79682,-6.54315,-7.12161,11.9108,-9.1143,5.40938,4.5997,-4.56973,2.33825,-4.72735e-15,-2.78174e-14,-32.0335,-8.184,-81.4733,28.7694,-9.76122,-14.2423,-24.2783,7.12502,11.8955,-53.9204,-4.72735e-15,-2.78174e-14,-24.4457,6.48954,82.9467,42.1364,4.26732,-19.9589,-3.65872,7.12502,6.37946,26.2252,-38.3914,-1.16805,20.8597,25.4922,-6.25889,-11.3515,4.89464,5.96994,5.01183,-22.2845,18.4582,-24.2441,-3.54843,9.89593
11.3206,17.3653,13.9357,-28.9409,-88.9901,34.3662,8.97358,0.0113469,-4.9466,3.22535,-0.483223,0.806575,-1.63228,-0.304112,3.67102,-3.0756,-6.6783,-6.84807,12.2531,-9.31733,5.38782,4.75043,-4.65409,2.26062,-2.42269e-15,-1.1281e-14,-32.0069,-7.74442,-81.9118,28.9033,-10.3938,-14.877,-24.2088,7.12502,11.2834,-53.8853,-2.42269e-15,-1.1281e-14,-24.0148,6.25566,82.8632,42.0619,4.1482,-19.996,-3.87518,7.12502,6.34368,26.0098,-38.628,-1.09309,20.1034,24.9521,-6.60658,-11.7323,3.33076,6.45435,4.81968,-23.0624,17.8576,-23.981,-3.10454,7.55595
11.2251,17.3614,13.9178,-3.06929,-89.1189,8.74075,8.89545,-0.167755,-4.73766,3.32418,-0.697548,0.908098,-1.46702,-0.418035,3.67805,-3.49494,-6.66632,-7.15123,12.4474,-9.26996,5.48156,4.89643,-4.62973,2.32214,6.41081e-15,8.84592e-15,-31.9029,-7.12528,-82.2271,29.0907,-10.2017,-14.4032,-23.8785,7.12502,11.7403,-53.5295,6.41081e-15,8.84592e-15,-23.637,6.39532,82.7328,42.1312,4.16623,-19.7653,-3.47703,7.12502,6.56636,26.4012,-38.8476,-0.490377,20.4623,24.4167,-7.68157,-12.1765,4.84846,6.73932,4.85741,-22.4616,17.4126,-23.6858,-2.96326,6.59673
11.1267,17.363,13.9011,16.4073,-89.0631,-10.5422,8.93131,-0.282292,-4.6927,3.34936,-0.844874,1.05907,-1.44433,-0.493665,3.82464,-3.63059,-6.60806,-7.50768,12.4463,-9.15907,5.55287,4.93183,-4.5836,2.40288,-1.88845e-15,-3.37934e-15,-32.0854,-6.53399,-82.2764,29.5215,-10.2761,-14.085,-23.819,7.12502,12.0471,-53.4522,-1.88845e-15,-3.37934e-15,-23.4956,6.17293,82.8209,42.3049,4.72193,-20.0201,-3.41533,7.12502,6.32041,26.4704,-39.0105,-0.0265903,20.6607,23.9977,-8.88037,-12.3692,7.3771,7.04104,5.14774,-21.9415,17.0617,-23.4185,-3.35816,7.31613
11.029,17.3545,13.8843,11.6749,-89.0008,-5.79617,9.15969,-0.211344,-4.8986,3.38888,-0.782336,1.04615,-1.53207,-0.463283,3.925,-3.20093,-6.72444,-6.63858,11.9812,-9.29507,4.85329,4.65278,-4.65536,2.0657,-8.94531e-15,3.27995e-15,-32.3902,-6.77482,-82.1248,29.8188,-10.3707,-14.6626,-23.8889,7.12502,11.4902,-53.554,-8.94531e-15,3.27995e-15,-23.3025,5.42703,83.0836,42.3735,5.39002,-20.8275,-3.94072,7.12502,5.54093,25.9668,-38.9456,0.299846,20.5553,23.6582,-8.96086,-12.8281,5.85241,7.4913,5.2978,-21.8474,16.8245,-23.2598,-3.86476,8.5022
10.9345,17.3417,13.8715,14.3366,-88.8763,-8.32418,9.26736,-0.15512,-4.8903,3.4088,-0.714559,0.998978,-1.5786,-0.42893,3.86576,-2.62663,-6.8761,-6.20617,11.3053,-9.50073,4.64958,4.33208,-4.75611,1.95585,-1.0138e-14,3.08116e-15,-32.5431,-7.43135,-81.9891,29.8124,-10.1038,-14.729,-23.6155,7.12502,11.4261,-53.2841,-1.0138e-14,3.08116e-15,-22.9253,4.60486,83.2393,42.225,5.90852,-21.3117,-4.36364,7.12502,5.07334,25.5556,-39.0033,0.267848,20.8321,23.4882,-8.17588,-13.0753,3.19802,7.81671,5.18754,-21.6747,16.5619,-23.1749,-4.33957,10.1488
10.8345,17.3324,13.8595,9.00427,-88.6444,-2.9341,9.47238,-0.318238,-5.07456,3.45554,-0.960857,0.964504,-1.61442,-0.553744,3.96239,-2.3955,-6.94057,-6.11769,10.9385,-9.57221,4.54034,4.17661,-4.79513,1.91991,9.64106e-15,2.10712e-14,-32.5545,-6.84063,-82.2465,29.844,-10.4049,-14.7951,-23.6822,7.12502,11.3623,-53.3543,9.64106e-15,2.10712e-14,-22.642,4.47282,83.1624,42.1274,6.182,-21.2257,-4.3401,7.12502,5.15643,25.5772,-38.9673,-0.101228,21.0072,23.4701,-7.32527,-12.7077,2.99552,8.21481,5.0676,-21.6075,16.3254,-23.1285,-4.65403,9.82538
10.7269,17.3255,13.8429,14.2137,-88.2499,-8.08444,9.5924,-0.689395,-5.03653,3.6254,-1.45503,1.15949,-1.44688,-0.812611,4.19544,-3.10656,-6.64879,-7.48299,11.5096,-9.14193,5.16948,4.53769,-4.59644,2.31413,2.26118e-14,3.27995e-15,-32.3484,-5.57166,-82.4475,30.1153,-10.7277,-14.9264,-24.3398,7.12502,11.2357,-54.0189,2.26118e-14,3.27995e-15,-22.4242,5.0666,83.1411,42.298,6.255,-21.1548,-4.09652,7.12502,5.22492,25.8191,-38.8603,-0.17084,21.2457,23.5618,-6.73578,-12.4856,4.57117,8.60012,5.04969,-21.1443,16.1199,-22.9518,-4.80474,7.89607
10.625,17.3197,13.8228,17.5809,-87.8514,-11.259,9.64606,-1.00978,-5.13919,3.81775,-1.89006,1.47196,-1.21294,-1.04763,4.62182,-3.77061,-6.72307,-7.57195,11.5892,-9.15674,4.94915,4.6689,-4.60353,2.23464,-2.28602e-15,-2.68359e-15,-32.1451,-4.89113,-82.2218,30.7432,-10.4374,-14.9042,-25.2933,7.12502,11.2572,-54.9712,-2.28602e-15,-2.68359e-15,-22.0185,5.70531,83.2961,42.3975,6.33851,-20.9753,-4.08773,7.12502,5.39823,25.8235,-38.9857,-0.326877,21.5797,23.8766,-5.85273,-12.3603,4.81361,8.89669,5.12206,-20.6617,15.7087,-22.5122,-5.39598,8.3383
10.5261,17.3208,13.8223,24.606,-88.1368,-17.8431,9.50655,-0.957979,-5.05441,3.84554,-1.80536,1.56057,-1.11719,-1.00916,4.65319,-3.79927,-6.65839,-7.26555,11.2759,-9.03759,4.67238,4.54343,-4.54306,2.11424,9.64106e-15,-2.127e-14,-31.3624,-3.19983,-82.4821,29.5603,-12.2206,-15.5659,-24.7721,7.12502,10.6189,-54.4838,9.64106e-15,-2.127e-14,-21.5758,5.82318,83.3428,42.248,6.20235,-20.5492,-4.20292,7.12502,5.80955,25.6974,-39.4834,-0.34452,22.0269,24.3303,-4.92604,-11.5709,5.0329,9.07278,4.93168,-20.6495,15.1598,-22.1334,-5.22647,9.64196
10.4201,17.3258,13.8182,15.9994,-88.1105,-9.06877,9.71489,-0.997931,-5.06299,3.80828,-1.8744,1.29478,-1.27194,-1.03558,4.39411,-3.58631,-6.68889,-8.5187,10.909,-9.09951,5.72744,4.50543,-4.57106,2.64006,3.72224e-14,-6.75868e-15,-31.8521,-4.93615,-81.975,30.0103,-11.4868,-14.2391,-23.9427,7.12502,11.8985,-53.5846,3.72224e-14,-6.75868e-15,-21.4599,5.31009,83.0874,42.1931,6.12495,-20.2752,-4.16896,7.12502,6.07417,25.724,-39.6349,0.0873499,21.4618,24.8829,-4.54634,-11.6212,8.66512,9.56801,4.48903,-20.9665,14.5002,-21.6868,-5.03992,9.26462
10.3079,17.324,13.8036,11.9319,-87.9904,-4.93277,10.0187,-1.0698,-5.04843,3.80365,-1.98944,1.11148,-1.43836,-1.08707,4.21624,-3.15191,-6.80333,-6.65744,10.1235,-9.23372,4.44953,4.05727,-4.62986,1.98158,7.65321e-15,1.68967e-14,-32.3416,-6.56643,-81.5034,30.3579,-10.2789,-13.0608,-23.6065,7.12502,13.0346,-53.1793,7.65321e-15,1.68967e-14,-21.4119,4.87146,82.9079,42.2159,6.17054,-19.8789,-4.19063,7.12502,6.45671,25.691,-39.7059,0.500347,21.125,25.5312,-4.20262,-11.7691,13.4119,10.3159,4.58599,-20.8813,13.5908,-21.1681,-5.2412,7.90946
10.1976,17.3268,13.7909,18.0977,-88.0401,-10.8556,10.0697,-1.07815,-5.071,3.84827,-2.00349,1.26094,-1.41152,-1.09824,4.38764,-3.32795,-6.806,-7.07713,9.97937,-9.20489,4.6293,4.06903,-4.61745,2.09836,5.81445e-15,-8.34896e-15,-31.8659,-5.19511,-81.7146,29.5938,-11.3224,-13.0946,-23.3503,7.12502,13.002,-52.9251,5.81445e-15,-8.34896e-15,-21.1715,4.99333,83.038,42.1145,6.01203,-19.3532,-4.37905,7.12502,6.96425,25.4864,-40.0547,0.778951,21.3577,26.2362,-3.99304,-11.639,16.8615,11.0302,4.62694,-20.5972,12.4002,-20.4335,-5.02521,6.49491
10.0851,17.3387,13.7737,19.1391,-87.9524,-11.7164,10.1402,-1.05453,-5.28008,3.90285,-1.9942,1.41334,-1.38,-1.09992,4.66612,-3.29323,-6.79961,-7.4005,9.70517,-9.18612,4.87303,4.00513,-4.60682,2.22883,1.58531e-14,3.8763e-14,-32.1471,-7.60451,-80.6319,29.7307,-9.13353,-12.4506,-22.6984,7.12502,13.6228,-52.2327,1.58531e-14,3.8763e-14,-21.0272,4.78577,83.2416,42.0537,5.98645,-19.525,-4.70851,7.12502,6.79837,25.1623,-40.239,1.19499,21.2815,26.8039,-3.99685,-11.9733,19.8879,11.6166,4.24645,-20.5293,11.5302,-19.5597,-4.67721,5.76508
9.95628,17.3462,13.7496,19.8973,-87.6865,-12.7443,10.5964,-1.02033,-5.2006,4.04744,-1.97273,1.36785,-1.48671,-1.09234,4.58424,-3.23012,-6.99568,-7.70915,9.59937,-9.47217,5.30638,4.01575,-4.73908,2.39358,-2.98177e-14,1.19271e-15,-31.9931,-6.26059,-81.0959,29.4419,-11.2593,-13.1084,-22.9696,7.12502,12.9887,-52.5452,-2.98177e-14,1.19271e-15,-21.0606,4.05523,83.2093,42.1291,6.16304,-19.87,-4.84606,7.12502,6.46535,25.0353,-39.8261,1.11917,21.4592,27.3496,-3.63226,-11.9903,21.4472,12.6302,3.85964,-20.2724,10.8437,-18.7511,-4.63826,5.43854
9.83095,17.3455,13.752,18.26,-87.3029,-10.9409,10.6231,-1.25062,-4.87784,4.12721,-2.25084,1.24741,-1.40514,-1.23268,4.3045,-3.58683,-7.08413,-7.45359,9.51899,-9.55313,5.10336,4.0338,-4.7707,2.27556,1.54058e-14,4.57205e-15,-31.6452,-5.16324,-81.5768,28.8507,-12.4128,-13.2347,-23.2706,7.12502,12.867,-52.854,1.54058e-14,4.57205e-15,-20.9885,3.92941,83.0206,42.1217,6.14908,-19.5911,-4.54894,7.12502,6.7346,25.324,-40.0118,-0.431343,22.1255,27.9511,-2.37228,-10.6985,19.205,13.2837,3.35646,-20.229,9.88021,-17.7776,-4.64777,5.8449
9.69783,17.3417,13.7404,13.6387,-86.9955,-6.34797,10.7871,-1.42834,-5.22782,4.27626,-2.53137,1.38102,-1.28452,-1.3874,4.67548,-3.91556,-7.07546,-7.44653,9.3139,-9.46603,4.73912,4.00299,-4.73537,2.16115,1.25234e-14,-3.97569e-15,-31.7497,-5.83216,-81.1209,28.8775,-11.2449,-13.1792,-23.1975,7.12502,12.9204,-52.7775,1.25234e-14,-3.97569e-15,-20.8814,4.40859,83.1616,41.9569,5.85422,-19.2514,-4.44831,7.12502,7.06244,25.4139,-39.8945,-1.56044,22.4328,28.45,-1.66749,-9.87822,17.3773,14.0737,2.8705,-20.2971,9.17679,-17.0174,-4.72327,6.99516
9.55402,17.3617,13.7107,17.6319,-86.7035,-10.5043,11.045,-1.51944,-5.38556,4.39692,-2.68067,1.70585,-1.25598,-1.47442,5.13051,-3.90721,-7.01672,-7.98246,9.02305,-9.3421,4.83135,3.93562,-4.68556,2.28442,1.03368e-14,-4.17448e-15,-31.7217,-6.61131,-80.4007,28.5316,-9.77571,-12.7578,-23.0405,7.12502,13.3266,-52.5943,1.03368e-14,-4.17448e-15,-21.0453,4.77609,83.4211,41.9164,5.63526,-19.2175,-4.78217,7.12502,7.09522,25.0789,-39.3558,-1.16917,22.5189,28.7119,-2.02386,-10.6,21.1543,14.5726,2.48891,-19.7997,9.32724,-16.6679,-4.62755,6.29744
9.41099,17.3893,13.6725,31.7228,-86.458,-24.4002,10.8992,-1.50554,-4.86677,4.41358,-2.59793,1.97122,-1.18238,-1.4338,5.0993,-3.81844,-7.04405,-8.18017,8.7465,-9.36827,4.93756,3.85319,-4.6992,2.35301,-3.71727e-14,2.52457e-14,-31.5757,-5.06456,-80.7505,28.296,-11.1544,-12.3673,-23.2825,7.12502,13.703,-52.8113,-3.71727e-14,2.52457e-14,-21.2542,4.37104,83.4465,41.9481,5.58651,-19.335,-4.72089,7.12502,6.98174,25.144,-39.1865,0.177853,23.0903,28.9333,-2.27901,-12.0431,23.6236,14.6634,2.42372,-18.6399,9.46229,-15.9567,-4.4839,3.5521
9.27308,17.4122,13.6534,46.8891,-86.0916,-39.1864,10.5592,-1.35728,-3.80379,4.41922,-2.28077,2.08568,-1.07244,-1.26777,4.56778,-3.72982,-7.26266,-7.90837,8.31215,-9.65853,4.85009,3.70856,-4.83504,2.27743,8.15017e-15,1.70955e-14,-31.6514,-7.72815,-79.9358,27.922,-9.05216,-12.4747,-22.9054,7.12502,13.5996,-52.4412,8.15017e-15,1.70955e-14,-21.2435,3.42316,83.4339,41.825,5.36854,-19.7126,-4.23047,7.12502,6.61729,25.6461,-39.1005,0.924948,24.1577,28.7938,-1.88099,-12.5496,23.5868,14.0981,2.58832,-17.4225,10.5121,-15.3672,-4.84339,3.13873
9.13562,17.4285,13.6468,41.2893,-86.0601,-33.5559,10.7127,-1.41373,-3.92192,4.42929,-2.37443,1.95068,-1.13666,-1.3129,4.50923,-3.62546,-7.39777,-7.95754,7.97323,-9.83386,4.90514,3.60526,-4.91983,2.30067,2.34566e-14,-7.95139e-15,-31.7675,-8.07749,-79.7447,27.7343,-8.99825,-13.6356,-23.5493,7.12502,12.4804,-53.1566,2.34566e-14,-7.95139e-15,-21.3676,3.21173,83.4267,41.6133,5.09191,-19.8478,-4.37416,7.12502,6.48679,25.5065,-38.6199,-0.0593394,24.2538,28.6071,-1.20823,-11.7998,22.7664,13.6829,1.93773,-17.6644,11.9001,-14.8942,-5.07278,3.93324
8.99707,17.4223,13.6197,50.7899,-85.4026,-43.2581,11.1151,-1.47703,-3.2479,4.39663,-2.40141,2.24909,-1.40405,-1.31776,4.461,-3.6976,-7.49074,-8.47673,8.21441,-9.94866,5.12829,3.73515,-4.98299,2.43217,2.90226e-14,-1.03368e-14,-31.7627,-8.49614,-79.4414,27.0319,-8.28382,-13.8783,-23.8615,7.12502,12.2465,-53.4829,2.90226e-14,-1.03368e-14,-21.7483,3.47823,83.3461,41.4051,4.99965,-19.4309,-4.95225,7.12502,6.88921,24.9157,-37.8375,-0.403702,25.7836,28.2582,-0.0325373,-11.3855,18.1947,13.4229,1.57795,-16.4685,13.5438,-14.6078,-5.02099,2.20383
8.85908,17.4278,13.6103,47.3991,-85.9061,-39.6585,11.1279,-1.39714,-3.85733,4.30473,-2.35651,2.08551,-1.49163,-1.2926,4.63293,-3.38363,-7.45444,-8.50299,7.86281,-9.89957,5.01623,3.56954,-4.96682,2.42439,1.25234e-14,-1.64991e-14,-31.7845,-8.80099,-79.1513,26.4685,-7.85236,-13.3492,-23.3779,7.12502,12.7565,-52.9682,1.25234e-14,-1.64991e-14,-21.9457,3.21772,83.3827,41.1743,5.14697,-19.2207,-5.08368,7.12502,7.0921,24.7775,-37.6415,-0.996112,25.626,28.056,0.842436,-10.6091,14.5557,12.7285,1.04952,-17.185,15.1548,-14.1667,-4.59324,0.298956
8.71438,17.4457,13.587,56.6945,-85.2719,-48.9824,11.1529,-1.35834,-3.15082,4.40001,-2.23455,2.39296,-1.43562,-1.23546,4.53943,-4.15247,-7.94382,-8.60108,8.26468,-10.4673,4.68042,3.84408,-5.25195,2.26246,1.39149e-14,1.05356e-14,-31.5724,-9.04667,-78.8532,25.8937,-7.9148,-13.2673,-23.0019,7.12502,12.8356,-52.5873,1.39149e-14,1.05356e-14,-21.9693,2.77889,83.4557,40.8516,5.38241,-19.3072,-5.06661,7.12502,7.00865,24.7974,-37.0245,-0.519098,26.703,27.8668,0.883275,-10.8072,14.4928,12.2616,0.865998,-15.9955,16.761,-13.4974,-4.74375,-0.126444
8.5732,17.4657,13.5605,60.5002,-84.8244,-52.6687,11.096,-1.41936,-2.90721,4.39616,-2.28694,2.60059,-1.40442,-1.26309,4.62288,-3.05119,-7.49111,-8.44641,6.7243,-9.89276,4.47946,3.4766,-4.99159,2.53498,1.00386e-14,1.05356e-14,-31.3753,-9.24974,-78.6158,25.2856,-7.60056,-13.6546,-23.0979,7.12502,12.4622,-52.7063,1.00386e-14,1.05356e-14,-22.1465,2.63929,83.3887,40.5038,5.25247,-19.3299,-5.1078,7.12502,6.98673,24.7569,-36.6666,0.239175,27.2008,27.9722,0.710695,-11.3549,14.8853,11.7205,1.01282,-15.0613,18.0299,-12.3021,-5.18887,-0.114151
8.42358,17.4908,13.5418,57.7397,-84.9661,-50.0391,11.2771,-1.45771,-3.23444,4.40434,-2.37767,2.47648,-1.47653,-1.30849,4.69635,-2.85043,-7.47389,-8.31669,6.61733,-9.87177,4.22403,3.37246,-4.98731,2.43502,-2.67365e-14,9.14409e-15,-31.3868,-9.67878,-78.3696,24.7531,-6.88686,-13.5739,-23.4204,7.12502,12.54,-53.024,-2.67365e-14,9.14409e-15,-22.4046,2.40166,83.266,40.2027,4.97366,-19.0785,-5.23398,7.12502,7.22936,24.6225,-35.986,0.474965,26.8838,27.983,0.3282,-11.5936,15.9316,11.3,0.748887,-15.1626,19.5567,-11.1834,-5.24949,-2.87986
8.27635,17.5205,13.5225,56.136,-84.9477,-48.5443,11.4796,-1.4398,-3.22272,4.40515,-2.36017,2.35656,-1.5939,-1.29569,4.57039,-2.78309,-7.59403,-8.4533,6.61184,-10.0374,4.31636,3.38582,-5.07072,2.48325,-5.66536e-15,-1.11319e-14,-31.4019,-10.342,-78.1036,24.2382,-6.39894,-13.5571,-23.7019,7.12502,12.5561,-53.3046,-5.66536e-15,-1.11319e-14,-22.5214,1.951,83.2297,39.8446,4.77376,-18.5981,-5.40872,7.12502,7.69312,24.4313,-35.3219,0.247485,26.9562,27.9523,-0.167962,-11.4174,17.1659,10.6822,0.415526,-15.0811,21.3615,-10.0027,-5.50275,-5.11615
8.1245,17.5432,13.5013,62.4652,-84.4615,-55.0187,11.5443,-1.27454,-2.53444,4.47248,-2.07249,2.53783,-1.60781,-1.15217,4.33648,-2.68991,-7.83153,-8.84476,6.49243,-10.3532,4.51517,3.39245,-5.23064,2.60629,-2.8128e-14,-1.86858e-14,-31.3177,-10.9673,-77.7017,23.7401,-6.17278,-13.7402,-23.8616,7.12502,12.3796,-53.475,-2.8128e-14,-1.86858e-14,-22.5436,1.65456,83.382,39.4672,4.36643,-17.9258,-5.36429,7.12502,8.34197,24.451,-34.6816,0.328599,27.9366,28.1587,-0.860781,-11.256,18.4849,10.2502,0.537804,-14.0396,22.9537,-8.52069,-5.99059,-4.30567
8.01429,17.5773,13.521,69.4422,-84.4026,-61.2959,11.3994,-1.09183,-1.73963,4.13258,-1.72678,2.44826,-1.94413,-0.95497,3.75128,-2.64131,-8.02686,-9.12172,6.44388,-10.614,4.66742,3.41817,-5.36209,2.69378,2.15681e-14,-1.11319e-14,-31.3512,-11.4362,-77.4149,23.3138,-6.25413,-13.8428,-23.9879,7.12502,12.2807,-53.6073,2.15681e-14,-1.11319e-14,-22.6844,1.49215,83.3236,39.1493,3.86133,-17.1355,-5.20789,7.12502,9.10459,24.5756,-34.9962,0.00990217,28.5959,28.1036,-1.05513,-10.3528,19.5455,8.56543,0.628753,-13.756,25.0255,-6.9382,-5.74329,-4.36401
7.85615,17.6175,13.5087,53.4554,-84.9969,-45.6521,11.5717,-1.42942,-3.11433,4.30437,-2.33501,2.15973,-1.76561,-1.27172,4.30575,-2.73776,-7.95057,-9.14255,6.30717,-10.4839,4.4869,3.36656,-5.3003,2.6422,-1.47101e-14,-3.57812e-15,-31.0596,-11.6738,-77.2063,22.8127,-5.8273,-14.0801,-24.2291,7.12502,12.0519,-53.8621,-1.47101e-14,-3.57812e-15,-22.7891,2.05732,83.0874,38.8854,3.28027,-16.4828,-5.02737,7.12502,9.73441,24.7277,-34.1052,-1.78321,27.4773,28.1492,-1.69013,-9.55113,20.6952,7.87408,-0.140496,-14.8766,27.1306,-5.03928,-6.02819,-2.951
7.71638,17.6504,13.4913,60.7022,-84.324,-52.7941,11.5368,-1.36353,-2.10905,4.20159,-2.13327,2.21138,-1.91092,-1.15894,3.76659,-2.4158,-8.10343,-8.84057,5.97648,-10.7066,4.25285,3.16833,-5.40975,2.51371,-2.15681e-14,-1.39149e-14,-31.1925,-12.9307,-76.7905,22.3947,-4.91832,-13.96,-24.1757,7.12502,12.1676,-53.8019,-2.15681e-14,-1.39149e-14,-23.0024,1.81868,82.8659,38.7892,2.89488,-15.8635,-4.93119,7.12502,10.3318,24.795,-33.6384,-1.4371,28.5276,28.1229,-2.26224,-9.5564,21.5401,6.62068,0.0220404,-13.5807,29.4902,-3.38683,-6.10661,-0.33779
7.56514,17.6815,13.4749,56.5883,-84.0714,-48.8293,11.6127,-1.3994,-1.89949,4.21539,-2.1621,2.02147,-1.95172,-1.1693,3.45562,-2.09526,-8.41135,-8.7731,5.70634,-11.1444,4.29298,3.04555,-5.62463,2.50747,1.63003e-14,8.74653e-15,-31.3345,-14.0587,-76.3683,22.05,-4.50727,-13.2766,-23.6218,7.12502,12.8265,-53.2077,1.63003e-14,8.74653e-15,-23.2181,1.43148,82.7214,38.8086,2.65347,-15.2085,-5.12233,7.12502,10.9637,24.5714,-32.8406,-1.99044,28.5683,28.0666,-2.88072,-9.40047,22.2186,5.5572,-0.049195,-13.2422,31.8508,-1.6639,-6.52564,-0.264288
7.44514,17.7136,13.4771,57.324,-84.229,-49.3697,11.6558,-1.37106,-1.85102,4.06902,-2.11575,1.85373,-2.13977,-1.13647,3.25227,-1.80916,-8.50879,-9.0096,5.49533,-11.3025,4.58683,2.97225,-5.70206,2.65439,8.74653e-15,5.56597e-15,-31.3123,-13.6621,-76.5621,21.8344,-4.15716,-13.7008,-23.4824,7.12502,12.4175,-53.0935,8.74653e-15,5.56597e-15,-23.4848,1.58983,82.4804,38.7266,2.12723,-14.2797,-5.81452,7.12502,11.8594,23.8296,-32.39,-2.41592,28.6742,27.6477,-2.95713,-8.82461,21.7441,3.92953,0.0472178,-13.2255,34.4946,0.157759,-6.61595,0.0108403
7.30444,17.7412,13.4546,61.8423,-83.5028,-54.0736,11.6921,-1.39792,-1.26574,4.15811,-2.08861,2.08386,-2.08118,-1.12703,3.15771,-1.79819,-8.48502,-9.33896,5.34726,-11.2749,4.93158,2.96912,-5.68543,2.83339,-1.78906e-14,-4.37326e-15,-31.0786,-12.7802,-76.8054,21.9035,-4.74756,-13.9772,-24.3338,7.12502,12.1511,-53.9609,-1.78906e-14,-4.37326e-15,-23.6434,1.65294,82.357,38.5979,2.21635,-13.3092,-5.97288,7.12502,12.7951,23.615,-31.3839,-2.42013,29.7639,27.1043,-3.14435,-8.83322,21.1372,2.66695,-0.0609187,-11.9535,37.203,2.11985,-6.94502,2.38603
7.16042,17.7654,13.4462,59.3464,-82.8669,-52.1905,12.1082,-1.52141,-0.796455,4.4167,-2.21652,2.13569,-2.04564,-1.19838,2.97354,-1.90982,-8.5721,-9.68994,5.2381,-11.3886,5.35427,3.02202,-5.73612,3.02956,-2.98177e-15,-1.98785e-14,-30.8541,-12.5857,-76.8033,22.1633,-4.63111,-13.4543,-25.8201,7.12502,12.6553,-55.4167,-2.98177e-15,-1.98785e-14,-23.6156,1.79474,82.2363,38.5061,1.74098,-12.018,-5.01273,7.12502,14.0396,24.4931,-29.8086,-3.99268,30.4946,26.3328,-3.16313,-7.89503,21.2993,1.813,-0.699737,-11.2524,39.94,4.20906,-7.38198,12.1567
7.03044,17.7777,13.419,66.8576,-82.1928,-59.7477,12.079,-1.22937,-0.00143586,4.43722,-1.74161,2.34071,-2.05203,-0.961675,2.67396,-1.60219,-8.82049,-9.98943,4.82954,-11.748,5.74116,2.90987,-5.91181,3.21356,4.57205e-15,-1.51076e-14,-30.7864,-12.9639,-76.6518,22.423,-3.85264,-12.565,-26.914,7.12502,13.5124,-56.4556,4.57205e-15,-1.51076e-14,-23.674,1.80771,82.162,38.5686,1.30311,-11.8785,-4.42544,7.12502,14.1741,25.071,-28.8326,-3.49579,31.819,25.4794,-2.92666,-7.78155,21.4618,0.40544,-0.287183,-9.74742,42.6312,6.42345,-7.70182,10.1468
6.89826,17.7912,13.3885,73.1273,-81.2775,-66.1278,12.0235,-0.990326,0.843814,4.49856,-1.33603,2.60754,-1.98799,-0.761802,2.41824,-1.20886,-9.12811,-10.0701,4.19817,-12.1767,5.8124,2.67126,-6.12373,3.25558,-2.22639e-14,-1.74931e-14,-30.6648,-12.5682,-76.7044,22.751,-3.70756,-11.6341,-27.508,7.12502,14.4096,-56.9878,-2.22639e-14,-1.74931e-14,-23.7948,1.81608,82.1022,38.7621,1.03775,-11.5391,-3.97662,7.12502,14.5011,25.4966,-27.8624,-2.6699,33.1872,24.7958,-2.84833,-8.0296,21.2873,-0.850416,0.23455,-8.02616,45.1106,8.39683,-8.11829,8.72599
6.76483,17.813,13.3812,73.0602,-80.882,-66.1289,11.9685,-1.03883,1.14956,4.51297,-1.36845,2.62201,-1.94824,-0.776611,2.26346,-0.894672,-9.26959,-9.95806,3.69395,-12.3762,5.68471,2.44035,-6.22244,3.20576,-8.74653e-15,8.74653e-15,-30.6316,-11.7575,-76.8002,23.2148,-3.19263,-10.1797,-28.4918,7.12502,15.8106,-57.8661,-8.74653e-15,8.74653e-15,-23.9889,2.0325,81.8708,38.7818,0.945253,-11.0727,-3.94456,7.12502,14.9505,25.4958,-27.0038,-2.98192,33.6864,24.2029,-2.8184,-7.83941,20.1796,-2.13817,0.184264,-7.36872,47.3862,10.1587,-8.74855,6.93288
6.63142,17.828,13.3709,74.2897,-80.896,-67.4722,12.0725,-0.913236,1.10867,4.40212,-1.19805,2.50438,-2.12758,-0.687871,2.1454,-0.651481,-9.38202,-9.96185,3.60869,-12.5479,5.70269,2.38395,-6.31039,3.2167,7.15625e-15,-6.36111e-15,-30.8169,-10.878,-77.0012,23.6246,-3.88322,-9.81518,-28.5192,7.12502,16.1616,-57.8654,7.15625e-15,-6.36111e-15,-24.3479,2.21432,81.5851,38.5953,0.913416,-11.3982,-5.24644,7.12502,14.6368,24.217,-26.0576,-3.00464,33.8422,23.5748,-2.7587,-7.65599,18.719,-3.26935,0.390465,-7.10047,49.5611,11.6542,-9.59193,5.3859
6.48962,17.8416,13.3576,73.6684,-80.6885,-67.1266,12.156,-0.836504,1.3101,4.44792,-1.07666,2.44355,-2.13323,-0.627016,1.95313,-0.728487,-9.65711,-10.0442,3.65183,-12.9132,5.82825,2.46179,-6.49064,3.24725,5.96354e-16,8.74653e-15,-30.73,-10.0794,-77.316,23.8345,-6.23199,-11.3629,-27.1752,7.12502,14.6709,-56.6362,5.96354e-16,8.74653e-15,-24.5053,2.11497,81.5302,38.5858,1.15104,-11.7489,-5.86435,7.12502,14.299,23.6233,-25.0175,-3.26492,34.0995,23.1971,-3.05709,-7.63327,17.8018,-4.22847,0.209285,-6.64084,51.5373,13.0412,-10.2215,5.85445
6.37738,17.8249,13.3462,76.447,-79.2127,-70.8128,13.0188,-0.789498,2.75163,4.72628,-0.846058,2.7728,-2.32556,-0.522351,1.46727,-0.899612,-9.911,-10.1465,3.43835,-13.2317,5.95032,2.46793,-6.64382,3.28247,-7.95139e-16,3.18055e-15,-30.2912,-9.48192,-77.6265,24.0018,-7.77682,-13.3168,-26.1408,7.12502,12.7878,-55.7291,-7.95139e-16,3.18055e-15,-24.433,2.21409,81.3451,38.7556,0.998433,-11.8505,-5.34957,7.12502,14.201,24.145,-23.4491,-2.96432,35.8523,22.9383,-3.19119,-8.03967,16.3293,-4.64933,0.290592,-4.45195,53.5481,14.1294,-10.774,7.97508
6.25127,17.8329,13.3197,81.1131,-79.9941,-75.2744,12.5984,-0.324833,1.73274,4.66353,-0.363505,2.51186,-2.1657,-0.279975,1.69224,-0.574091,-10.0765,-10.2477,2.93671,-13.4709,6.05287,2.27821,-6.76294,3.34959,2.98177e-15,-1.59028e-15,-30.1241,-9.16935,-77.7132,24.2408,-7.6798,-13.8927,-25.466,7.12502,12.2326,-55.0883,2.98177e-15,-1.59028e-15,-24.5954,2.45887,81.0648,38.938,0.515025,-12.0037,-4.83676,7.12502,14.0534,24.6681,-23.0345,-2.56494,35.479,22.7635,-3.20143,-7.53509,15.3399,-5.77211,1.18533,-4.84607,55.3142,14.403,-11.0366,8.88045
6.1123,17.8481,13.3184,76.7502,-80.3694,-71.2574,12.7126,-0.473365,1.29605,4.72496,-0.613312,2.30455,-2.15814,-0.404354,1.75884,-0.147172,-10.1193,-10.1186,2.45739,-13.5545,5.98761,2.03106,-6.8056,3.33617,-3.37934e-15,-4.05521e-14,-30.0547,-8.97783,-77.5049,24.5547,-6.67476,-12.8314,-24.7676,7.12502,13.2557,-54.3261,-3.37934e-15,-4.05521e-14,-24.9642,2.4494,81.0599,39.1735,1.44743,-13.4934,-4.44878,7.12502,12.6175,25.1501,-22.066,-3.29085,34.8629,22.5912,-3.77121,-7.45731,16.777,-6.60626,0.419563,-5.27485,56.9591,14.204,-11.3136,9.28749
5.97341,17.8563,13.2948,77.9079,-80.2243,-72.5173,12.4609,-0.421672,0.978656,4.76565,-0.588206,2.36595,-1.97672,-0.39485,1.994,-0.0382046,-10.0757,-9.82342,2.30846,-13.5006,5.84903,1.92051,-6.7772,3.25169,9.54166e-15,-9.54166e-15,-29.8147,-8.18402,-77.6295,25.031,-6.70564,-11.6444,-24.4216,7.12502,14.3997,-53.9021,9.54166e-15,-9.54166e-15,-25.3166,2.62665,80.9306,39.3984,2.58471,-14.98,-4.22385,7.12502,11.184,25.4581,-21.3986,-2.99819,35.0819,22.5756,-4.28104,-7.56797,17.6772,-7.53165,0.533562,-4.75678,58.5313,13.9415,-11.4683,10.8436
5.84448,17.8624,13.2925,79.4129,-80.1039,-74.2423,12.4894,-0.35174,1.03485,4.73411,-0.487864,2.32379,-2.02864,-0.343579,1.90506,0.229873,-10.1323,-10.0271,2.16554,-13.6023,6.05027,1.8684,-6.83079,3.36792,7.55382e-15,-1.51076e-14,-29.5706,-6.4095,-78.0831,25.4376,-8.06091,-13.448,-24.0396,7.12502,12.6613,-53.6359,7.55382e-15,-1.51076e-14,-25.6998,2.7795,80.7199,39.5123,3.10648,-15.4071,-4.59036,7.12502,10.7721,25.1134,-20.5484,-3.19055,35.318,22.3455,-4.64307,-7.17507,18.0341,-8.34507,0.648492,-4.37702,60.0972,13.3291,-11.2377,12.6463
5.72593,17.8581,13.3122,76.257,-79.0789,-71.6411,13.0241,-0.628798,2.30112,4.77625,-0.694969,2.47557,-2.2776,-0.44536,1.38751,0.388473,-10.3382,-10.7437,2.05324,-13.9012,6.53844,1.93349,-6.98437,3.65253,-1.19271e-15,1.51076e-14,-29.3836,-4.36099,-78.3487,25.9625,-9.59116,-13.3614,-24.3407,7.12502,12.7448,-53.9318,-1.19271e-15,1.51076e-14,-25.9861,2.72427,80.7258,39.5641,3.64932,-15.9703,-5.17106,7.12502,10.2288,24.5602,-19.4314,-3.91944,36.1552,22.0522,-5.12411,-7.20486,18.9918,-9.22735,-0.223625,-3.21931,61.6578,12.4158,-11.277,13.1284
5.6015,17.8521,13.2824,81.4977,-78.0909,-76.433,12.3536,-0.353413,2.95262,4.59192,-0.262643,2.75697,-2.10922,-0.225464,1.24444,0.223112,-10.4766,-11.0064,2.21556,-14.0807,6.77405,2.07919,-7.07374,3.75343,-2.78299e-15,-2.8625e-14,-29.2735,-3.5211,-78.424,26.7146,-10.3148,-12.8067,-24.475,7.12502,13.2795,-54.0319,-2.78299e-15,-2.8625e-14,-26.2683,3.08638,80.5303,39.5399,3.90481,-16.6026,-5.51829,7.12502,9.61876,24.2421,-19.2672,-3.06166,37.58,21.8233,-5.17468,-7.22282,18.2249,-10.7118,0.704348,-1.42077,63.0935,11.3603,-11.9521,11.8789
5.46361,17.8616,13.3035,78.0437,-78.3912,-73.6089,12.7979,-0.591923,2.86759,4.67003,-0.57891,2.4364,-2.27113,-0.381734,1.00819,0.143033,-10.4754,-10.6149,2.37957,-14.0711,6.54303,2.09242,-7.06721,3.59812,-3.18055e-15,-1.43125e-14,-29.0929,-4.10083,-78.3215,27.4367,-9.67406,-12.9731,-24.6473,7.12502,13.1191,-54.2146,-3.18055e-15,-1.43125e-14,-26.6592,3.79986,80.0788,39.4655,4.0122,-17.0032,-6.27665,7.12502,9.2323,23.5012,-17.9901,-4.53476,37.0742,21.5928,-5.55286,-6.46493,17.3723,-11.122,-0.144231,-1.90752,64.1989,10.1302,-11.784,10.634
5.31926,17.8742,13.3072,77.5224,-78.8739,-73.215,12.4556,-0.527945,2.46832,4.74181,-0.560683,2.15742,-2.01184,-0.368167,0.93362,0.248613,-10.5578,-10.2093,2.18004,-14.1794,6.29989,1.95891,-7.1189,3.45118,-2.78299e-15,-1.11319e-14,-28.8791,-6.16444,-77.6887,28.407,-7.48809,-12.7687,-24.8702,7.12502,13.3162,-54.4248,-2.78299e-15,-1.11319e-14,-26.8359,4.07695,79.8293,39.4337,4.26837,-17.4192,-6.80722,7.12502,8.83082,22.988,-17.1944,-4.85402,36.51,21.4077,-5.97606,-6.17072,17.1798,-11.8851,-0.254461,-2.41648,65.1371,8.9387,-11.7637,9.69883
5.19472,17.8707,13.2877,82.7956,-78.4776,-78.2234,11.9108,-0.186347,2.63135,4.64725,-0.101968,2.27912,-1.81365,-0.136425,0.900974,0.231016,-10.6971,-10.3912,2.04576,-14.363,6.43162,1.96175,-7.2097,3.51843,-3.18055e-15,-1.98785e-14,-28.4875,-6.03259,-77.4973,28.7603,-7.51394,-12.4298,-24.6273,7.12502,13.6428,-54.1602,-3.18055e-15,-1.98785e-14,-27.0466,4.19666,79.7327,39.4832,4.49624,-17.9582,-6.61968,7.12502,8.3107,23.1968,-16.8974,-3.28172,37.1541,21.4012,-6.18444,-6.86742,16.5514,-13.0272,0.689401,-1.48501,66.0757,7.87465,-12.188,8.63201
5.05861,17.8672,13.2867,82.1275,-77.9387,-77.7127,11.7693,-0.306861,2.98394,4.61856,-0.224934,2.43349,-1.76611,-0.196199,0.878515,-0.01159,-10.7931,-10.6661,2.25803,-14.4728,6.46921,2.11433,-7.2649,3.55083,6.75868e-15,-7.95139e-16,-28.203,-5.3735,-77.3603,29.4157,-8.22063,-12.5149,-24.7171,7.12502,13.5608,-54.2555,6.75868e-15,-7.95139e-16,-27.4543,4.57589,79.6565,39.5287,4.75718,-18.5981,-6.26426,7.12502,7.69308,23.5758,-16.1854,-3.11171,37.656,21.3757,-6.68596,-7.27029,16.4353,-13.9518,0.35511,-0.701439,66.896,7.09404,-12.2019,9.59282
4.93401,17.8593,13.3133,76.2149,-77.637,-72.5192,12.4449,-0.784936,3.44057,4.65608,-0.780684,2.32863,-2.10182,-0.473784,0.597096,-0.11753,-10.8711,-10.522,2.41474,-14.5701,6.39049,2.17474,-7.31244,3.48262,1.15295e-14,1.59028e-14,-28.0325,-5.46854,-77.1682,29.9912,-8.24738,-12.943,-24.489,7.12502,13.1481,-54.0545,1.15295e-14,1.59028e-14,-27.8637,4.8214,79.5452,39.5157,4.93785,-19.603,-5.72176,7.12502,6.72308,24.1515,-14.9847,-4.19001,37.5541,21.266,-7.28763,-7.53892,16.3365,-14.6604,-1.20121,-0.608998,67.6711,6.44068,-11.9549,10.85
4.81737,17.8543,13.292,79.1359,-77.8477,-75.3909,12.3577,-0.517058,3.13725,4.42907,-0.448515,2.1236,-2.28812,-0.305608,0.507829,0.115154,-10.9512,-10.4823,2.45598,-14.7127,6.65966,2.18254,-7.38516,3.5707,-6.36111e-15,1.35174e-14,-27.9827,-6.06935,-77.0397,30.4564,-7.92155,-13.7922,-23.8058,7.12502,12.3295,-53.4222,-6.36111e-15,1.35174e-14,-28.3465,4.76188,79.2474,39.5461,4.89865,-20.5561,-4.9783,7.12502,5.80296,24.9222,-14.5212,-3.44594,37.5509,21.273,-7.62295,-7.73231,15.973,-15.5804,-0.644264,-0.400656,68.2884,5.59335,-12.1473,10.1319
4.68951,17.8436,13.304,77.3068,-77.2097,-73.6522,12.2785,-0.681281,3.6801,4.30082,-0.592962,2.29612,-2.3822,-0.376644,0.403139,0.247105,-11.0538,-10.8068,2.54811,-14.8689,6.79245,2.24729,-7.46837,3.66701,1.19271e-15,-1.51076e-14,-27.8306,-6.01853,-76.6448,31.1137,-8.398,-13.1969,-23.7716,7.12502,12.9034,-53.3527,1.19271e-15,-1.51076e-14,-28.7462,4.97002,79.2866,39.4875,4.80143,-21.0103,-4.26246,7.12502,5.3644,25.6496,-14.0007,-3.94504,38.0713,21.3361,-8.23227,-7.78719,16.0816,-16.6637,-1.15858,0.385402,68.813,4.61849,-12.1682,9.29258
4.56088,17.8389,13.2976,79.8251,-77.1578,-75.9585,11.8329,-0.487383,3.57732,4.14263,-0.355728,2.27792,-2.30059,-0.254392,0.404499,0.141699,-11.1561,-10.8875,2.80553,-15.0178,7.1954,2.16716,-7.52516,3.40119,-4.77083e-15,-2.94201e-14,-27.8282,-6.22855,-76.4769,31.8398,-8.68404,-13.2836,-23.8949,7.12502,12.8199,-53.4812,-4.77083e-15,-2.94201e-14,-29,5.34859,79.1095,39.2254,4.62354,-21.4008,-3.99389,7.12502,4.98732,25.9274,-13.7048,-3.5889,38.2581,21.3616,-8.85011,-7.52785,17.1826,-17.739,-0.485483,0.830718,69.1998,3.58421,-12.2728,8.73005
4.43597,17.8331,13.2971,80.5936,-76.949,-76.8392,11.7876,-0.40641,3.72775,4.05548,-0.22723,2.27997,-2.36441,-0.190036,0.304818,0.23006,-11.2934,-11.1055,2.76298,-15.2184,7.45836,2.19516,-7.62566,3.50079,4.37326e-15,3.18055e-15,-27.7675,-6.27753,-76.3438,32.5941,-9.23523,-13.8899,-24.385,7.12502,12.2352,-54.0071,4.37326e-15,3.18055e-15,-29.1895,5.9316,78.9129,38.7978,4.36073,-21.5617,-4.55979,7.12502,4.83195,25.3651,-13.1178,-3.46625,38.477,21.3835,-9.63206,-7.33957,19.1905,-18.6006,-0.231641,1.3311,69.48,2.39914,-12.5002,7.55433
4.31392,17.8239,13.3025,80.5058,-76.6817,-77.047,11.9175,-0.426013,3.95383,4.04859,-0.221615,2.2882,-2.44196,-0.188623,0.187006,0.519334,-11.278,-11.2376,2.43357,-15.2249,7.72982,2.08246,-7.63167,3.62556,-7.55382e-15,2.54444e-14,-27.5167,-5.92411,-76.3899,33.3608,-10.1545,-14.6447,-24.7516,7.12502,11.5074,-54.4157,-7.55382e-15,2.54444e-14,-29.3759,6.55633,78.5998,38.4407,4.62812,-21.1945,-5.48924,7.12502,5.18652,24.4273,-12.4434,-3.52314,38.7172,21.5727,-10.4617,-7.24022,20.6946,-19.2444,-0.411212,1.80331,69.5606,1.33711,-12.447,7.22012
4.19425,17.8088,13.3107,79.7027,-76.532,-76.4363,11.9653,-0.472746,4.1088,4.02911,-0.262691,2.20628,-2.48974,-0.208238,0.0210243,0.692901,-11.3053,-11.0589,2.12839,-15.2699,7.79555,1.95969,-7.65449,3.63823,1.23246e-14,1.27222e-14,-27.4093,-5.42492,-76.5815,34.4047,-11.348,-15.6274,-24.8482,7.12502,10.5596,-54.5629,1.23246e-14,1.27222e-14,-29.5027,6.85419,78.2886,38.1112,4.88037,-20.6328,-5.9165,7.12502,5.72889,23.9861,-11.9325,-3.95937,38.7959,21.8748,-11.1928,-7.06754,20.7761,-20.0117,-0.689377,2.07848,69.5022,0.532583,-12.2076,8.37858
4.06815,17.7914,13.3182,79.6947,-76.7101,-76.4911,11.8466,-0.34668,4.02925,3.95533,-0.106715,2.01318,-2.49836,-0.127203,-0.157574,0.571836,-11.6441,-10.829,2.17503,-15.7095,7.68547,2.00676,-7.87038,3.5385,-1.98785e-15,-1.59028e-14,-27.6369,-6.54761,-76.3346,35.4029,-11.0363,-15.4758,-24.5343,7.12502,10.7058,-54.2415,-1.98785e-15,-1.59028e-14,-29.5367,6.99946,78.0642,37.6683,4.56705,-20.1757,-5.59542,7.12502,6.17021,24.2947,-11.5517,-4.36057,38.5576,22.2354,-11.7128,-6.7295,20.3597,-20.762,-0.718729,1.99898,69.3245,-0.366833,-11.8876,8.73403
3.94345,17.7659,13.3238,80.5694,-76.6011,-77.3554,11.6947,-0.224303,4.18457,3.80848,0.0755394,1.92528,-2.56218,-0.0348571,-0.361444,0.31437,-11.8057,-10.8119,2.63829,-15.9201,7.66175,2.20214,-7.97171,3.48293,-4.77083e-15,-2.06736e-14,-27.6558,-6.08371,-76.3074,36.1473,-11.9777,-15.4075,-24.5772,7.12502,10.7717,-54.281,-4.77083e-15,-2.06736e-14,-29.7108,7.12516,77.8755,37.2996,4.53539,-20.2651,-5.3183,7.12502,6.08387,24.5743,-11.3042,-4.06993,38.679,22.7492,-12.2254,-6.88588,19.8337,-21.5822,-0.562265,2.32564,69.1042,-1.64537,-11.768,5.9824
3.83003,17.7263,13.328,80.9033,-76.0296,-77.8637,11.601,-0.30255,4.18271,3.87673,-0.03384,2.34043,-2.44327,-0.0929893,0.0858596,0.302597,-11.6719,-11.1913,2.47401,-15.7315,7.72008,2.17165,-7.8795,3.56825,-5.96354e-15,-3.89618e-14,-27.1581,-5.1369,-76.0882,36.8766,-12.9251,-16.4695,-24.3998,7.12502,9.74721,-54.1542,-5.96354e-15,-3.89618e-14,-29.8881,8.12533,77.9293,37.0998,4.43857,-20.4178,-5.01081,7.12502,5.93648,24.886,-10.9586,-3.47861,39.3058,23.3435,-12.7893,-7.69914,18.3572,-22.4072,-0.37835,3.2253,68.8665,-3.51254,-11.6354,0.971153
3.71569,17.706,13.3365,80.2198,-76.4525,-77.3521,11.9282,-0.166697,3.95167,3.66243,0.152044,2.07297,-2.84166,-0.00225233,-0.0865176,1.09353,-11.7274,-11.4096,1.97232,-15.88,8.06359,1.95496,-7.96669,3.75524,-1.07344e-14,-2.94201e-14,-27.068,-5.06783,-75.9602,37.4993,-14.2193,-17.3566,-24.5851,7.12502,8.89124,-54.3778,-1.07344e-14,-2.94201e-14,-30.1574,8.18227,77.774,36.806,4.02099,-19.9919,-4.71183,7.12502,6.34765,25.1731,-10.5502,-3.57978,38.8025,23.7672,-13.3108,-7.95674,17.0742,-23.1409,-0.368678,2.86313,68.4654,-5.00224,-11.0998,-0.448661
3.59845,17.7026,13.349,80.0155,-77.157,-77.1085,11.8446,-0.0417869,3.24497,3.59407,0.236131,1.8728,-2.86979,0.0439643,0.0899055,1.26293,-11.8851,-11.3706,1.62514,-16.0883,7.93859,1.83046,-8.07264,3.72462,-2.78299e-15,-1.43125e-14,-27.0451,-5.13034,-75.6996,38.4197,-14.8927,-17.2387,-24.8086,7.12502,9.00499,-54.5964,-2.78299e-15,-1.43125e-14,-30.1097,8.79257,77.7024,36.24,3.81472,-19.4302,-5.21234,7.12502,6.88992,24.6555,-10.2935,-3.67357,37.9863,24.1143,-13.8845,-7.81331,16.8367,-23.9819,-0.324478,2.16776,67.9163,-5.68432,-10.7431,1.92674
3.47179,17.6808,13.3473,80.6696,-76.6045,-77.8954,11.7111,-0.00996928,3.82593,3.63616,0.334341,1.9095,-2.74537,0.0926507,-0.211917,1.04647,-12.1189,-11.385,1.72096,-16.3806,7.89949,1.91864,-8.21461,3.6786,-5.1684e-15,-1.11319e-14,-26.7464,-5.12172,-75.6971,39.0409,-15.2474,-17.5492,-24.8817,7.12502,8.70534,-54.6822,-5.1684e-15,-1.11319e-14,-29.978,9.09287,77.454,35.6708,3.7049,-19.4306,-5.48538,7.12502,6.88952,24.3825,-9.88214,-2.97297,38.6248,24.5754,-14.575,-8.53498,16.4943,-24.7262,-0.0871702,3.08825,67.3245,-6.28578,-10.6631,2.77032
3.35123,17.6824,13.3831,80.3359,-77.1657,-77.4852,11.7701,0.117483,3.34631,3.39313,0.470786,1.87758,-3.0327,0.160292,0.00503569,1.12432,-12.2093,-12.5559,2.19264,-16.5551,8.47413,2.20803,-8.30956,3.97391,1.11319e-14,-7.95139e-16,-26.742,-4.47698,-75.2448,39.6983,-15.9666,-18.2593,-25.0696,7.12502,8.02007,-54.8974,1.11319e-14,-7.95139e-16,-30.2974,9.4932,77.659,35.2901,3.23514,-19.5778,-5.05507,7.12502,6.74743,24.8174,-9.6464,-3.52509,37.8615,24.9186,-15.2126,-7.97798,16.3973,-25.5276,-0.104762,2.49022,66.5762,-6.49846,-10.2213,4.89584
3.24096,17.6319,13.4003,81.3139,-76.9963,-78.6167,11.8012,0.212265,3.86153,3.40713,0.648745,1.62677,-3.02027,0.248317,-0.57056,1.32249,-12.1411,-13.1845,2.30378,-16.5396,9.45443,2.34448,-8.3058,4.3498,3.97569e-15,4.77083e-15,-26.5794,-4.51314,-75.5042,40.3756,-16.5586,-18.26,-24.9563,7.12502,8.0194,-54.7842,3.97569e-15,4.77083e-15,-30.1479,9.43222,77.1964,34.8633,3.19459,-18.8417,-5.01891,7.12502,7.45798,24.8296,-9.1349,-3.25338,38.0348,25.1122,-15.6971,-7.94331,16.8994,-26.0415,0.519059,2.79027,65.6937,-6.88789,-10.0829,4.74635
3.1208,17.5981,13.4083,82.2174,-76.4369,-79.6285,11.8027,0.31481,4.39473,3.37899,0.848395,1.71798,-3.03452,0.343957,-0.802867,1.67009,-12.1299,-13.4638,2.0265,-16.5656,9.72548,2.25545,-8.32656,4.49659,-2.38542e-15,4.77083e-15,-26.4741,-4.67824,-75.3588,40.988,-16.7989,-17.9393,-24.6001,7.12502,8.32893,-54.4159,-2.38542e-15,4.77083e-15,-30.0379,9.70597,77.0126,34.3599,3.14695,-18.2862,-5.33624,7.12502,7.9941,24.4926,-8.61766,-2.62533,38.6748,25.3077,-16.1866,-8.47081,17.2311,-26.7072,0.920159,3.63807,64.7911,-7.56613,-9.75484,5.47104
2.98992,17.5797,13.4222,82.0518,-76.0747,-79.4102,11.6234,0.314935,4.45574,3.25657,0.862726,2.04181,-3.06783,0.348637,-0.500827,1.92421,-12.1637,-14.2648,1.99958,-16.6493,9.78143,2.28636,-8.37882,4.63147,-7.95139e-16,3.18055e-15,-26.3692,-4.3672,-74.9222,41.56,-16.8645,-18.224,-24.6385,7.12502,8.05419,-54.465,-7.95139e-16,3.18055e-15,-30.2771,10.3923,77.2208,33.9805,3.62081,-18.7037,-5.59382,7.12502,7.59116,24.2499,-8.25647,-3.17482,38.9679,25.4724,-16.8327,-8.05711,18.0345,-27.4994,1.08952,4.15875,63.7851,-8.50592,-9.03413,5.75113
2.86345,17.5518,13.435,81.8325,-75.7668,-79.2969,11.4332,0.23361,4.8846,3.33419,0.784027,1.98339,-2.87714,0.31238,-0.789455,2.00887,-12.2128,-14.6899,1.96139,-16.7365,9.98802,2.32478,-8.42592,4.74796,-1.98785e-15,-1.59028e-14,-26.0604,-4.07904,-75.1484,42.1492,-17.1278,-18.6532,-25.0806,7.12502,7.63991,-54.9226,-1.98785e-15,-1.59028e-14,-30.2155,11.0773,76.6919,33.5005,2.95693,-17.8243,-5.72958,7.12502,8.43993,24.0818,-7.67031,-3.35842,39.2316,25.4657,-17.2884,-8.06938,18.0397,-28.0917,1.37716,4.58373,62.6819,-9.31744,-8.21335,2.61727
2.74409,17.5312,13.4569,81.8221,-75.7066,-79.4365,11.5533,0.254844,5.11433,3.33278,0.8422,1.85437,-2.93519,0.339881,-1.06132,2.23006,-12.2874,-14.6168,1.66076,-16.843,9.84956,2.19414,-8.48176,4.71539,3.18055e-15,-2.06736e-14,-25.9319,-3.61405,-75.2791,42.79,-17.8251,-19.1009,-25.2841,7.12502,7.20776,-55.1414,3.18055e-15,-2.06736e-14,-30.2346,10.9287,76.4964,33.2969,3.19459,-17.5207,-5.29946,7.12502,8.73291,24.4999,-7.03194,-2.98708,39.2645,25.4444,-17.5467,-8.78739,16.5186,-28.5802,1.68715,4.70189,61.423,-10.007,-7.35693,-1.54499
2.61983,17.5215,13.4715,82.0899,-75.8872,-79.7299,11.6087,0.351953,4.93175,3.2558,0.958638,1.7704,-3.04208,0.396873,-1.06344,2.58569,-12.285,-14.5648,1.26095,-16.8614,9.71367,2.00393,-8.49574,4.70706,2.78299e-15,-2.06736e-14,-25.7341,-3.30659,-75.2535,43.2359,-18.2524,-19.3892,-25.3104,7.12502,6.9295,-55.177,2.78299e-15,-2.06736e-14,-30.4652,12.2192,76.0935,33.2885,2.05507,-16.9637,-5.01496,7.12502,9.27034,24.7612,-6.484,-2.38862,39.1132,25.4043,-17.8969,-9.67035,15.3455,-29.0502,2.00427,4.58267,59.9976,-10.0341,-6.667,-1.14078
2.49097,17.5151,13.4914,82.1853,-76.1946,-79.8163,11.4647,0.420461,4.75596,3.23855,1.02018,1.6197,-2.97894,0.431535,-1.12889,2.70378,-12.3522,-14.7809,1.28792,-16.9736,9.74835,2.02745,-8.55558,4.7441,5.56597e-15,-6.36111e-15,-25.4496,-3.3059,-75.2457,43.5045,-18.0084,-19.3441,-25.6147,7.12502,6.97303,-55.4799,5.56597e-15,-6.36111e-15,-30.5813,12.7822,75.9031,33.1548,1.67736,-16.8027,-4.82163,7.12502,9.42574,24.9476,-5.94583,-2.29935,38.7367,25.3532,-18.3298,-9.87785,14.4494,-29.4364,2.12832,4.28783,58.3887,-9.09031,-5.95498,4.00746
2.36336,17.5124,13.515,82.4115,-76.3712,-79.9993,11.1876,0.476729,4.98223,3.29728,1.09295,1.31937,-2.75035,0.475346,-1.57405,2.62772,-12.5671,-14.8837,1.49014,-17.2698,9.94953,2.16248,-8.70366,4.77901,7.15625e-15,3.18055e-14,-25.2598,-3.18438,-75.3988,43.9183,-17.9341,-18.727,-25.8622,7.12502,7.5687,-55.7068,7.15625e-15,3.18055e-14,-30.3678,12.7873,75.6372,32.8056,1.62166,-16.7477,-4.43091,7.12502,9.4788,25.3359,-5.38773,-2.5323,38.4308,25.1396,-18.5613,-9.73717,12.8817,-29.8636,2.12417,4.14393,56.7394,-9.40395,-5.14172,4.00844
2.2412,17.5105,13.5358,82.0732,-76.7933,-79.4817,11.1315,0.619991,4.55272,3.18268,1.24096,1.23067,-2.83905,0.549533,-1.44507,2.81006,-12.7112,-15.0315,1.49666,-17.4932,10.008,2.18054,-8.82011,4.80966,-1.03368e-14,-2.70347e-14,-25.1678,-2.83474,-75.0807,44.3828,-18.1867,-17.5555,-26.0543,7.12502,8.69934,-55.8551,-1.03368e-14,-2.70347e-14,-30.3,12.8256,75.7868,32.4125,1.58797,-16.6621,-4.19153,7.12502,9.56138,25.5715,-4.95416,-2.12472,37.9561,24.882,-18.5852,-10.4505,11.5553,-30.4466,2.06528,3.66869,54.9616,-9.89921,-4.24996,1.50969
2.1185,17.4678,13.5507,81.7958,-75.7247,-79.4666,11.3629,0.526701,5.5541,3.25228,1.23837,1.49885,-2.87363,0.540198,-1.72962,2.69213,-12.7641,-14.7614,1.71263,-17.5495,9.89003,2.23671,-8.84601,4.71952,2.0276e-14,2.22639e-14,-24.7779,-2.61203,-75.1182,44.6038,-18.0078,-17.4408,-26.4067,7.12502,8.80999,-56.2028,2.0276e-14,2.22639e-14,-30.3271,12.9261,75.7508,32.2545,1.85661,-16.6549,-4.108,7.12502,9.56835,25.6547,-4.05564,-1.48699,39.1807,24.5601,-18.6842,-11.5731,11.0941,-30.78,2.4232,4.92314,53.2133,-9.64714,-3.97605,1.25523
1.9921,17.4497,13.5732,81.6182,-75.6858,-79.372,11.4343,0.505646,5.56181,3.24849,1.21673,1.52213,-2.91854,0.527827,-1.70793,2.60252,-12.8007,-14.4512,1.95769,-17.5899,9.77023,2.29147,-8.86463,4.6261,7.55382e-15,-1.59028e-14,-24.5634,-2.09667,-75.1362,44.8156,-17.8549,-18.1225,-26.352,7.12502,8.15213,-56.1747,7.55382e-15,-1.59028e-14,-30.4638,13.2325,75.7004,32.0776,1.88329,-16.6393,-3.97245,7.12502,9.58341,25.7896,-3.34888,-1.63023,39.1172,24.26,-19.0878,-11.348,12.1264,-31.035,2.60464,4.96968,51.2895,-9.24971,-3.51954,2.91725
1.86264,17.4501,13.5961,81.2772,-76.1301,-78.9249,11.2821,0.592843,5.11124,3.22834,1.27423,1.44296,-2.86237,0.560988,-1.54352,2.71443,-12.8695,-14.0399,1.93104,-17.6854,9.67938,2.23323,-8.91263,4.54839,-1.07344e-14,-5.40694e-14,-24.3965,-1.89566,-74.9781,44.9733,-17.6922,-18.3238,-25.6558,7.12502,7.9578,-55.486,-1.07344e-14,-5.40694e-14,-30.4435,13.3902,75.862,31.7423,1.87545,-16.9473,-3.93211,7.12502,9.28616,25.8434,-2.78704,-2.03653,38.4642,23.9276,-19.5703,-10.6132,13.9477,-31.3599,2.57783,4.46489,49.2768,-9.01469,-2.89874,4.48497
1.73197,17.4403,13.6196,80.7503,-76.1924,-78.2632,11.0346,0.576502,5.13759,3.27578,1.23545,1.33553,-2.67629,0.548087,-1.66063,2.95363,-12.9503,-13.8945,1.57893,-17.7945,9.50608,2.07378,-8.9692,4.50259,-1.63003e-14,-2.06736e-14,-23.978,-1.55886,-75.0976,45.0031,-17.6439,-18.6917,-25.3667,7.12502,7.60272,-55.21,-1.63003e-14,-2.06736e-14,-30.3367,13.4833,75.79,31.4456,1.97673,-17.2675,-4.21912,7.12502,8.97721,25.5699,-2.30219,-2.07771,38.2935,23.6993,-20.0061,-10.5284,14.589,-31.7453,2.56718,4.38059,47.1466,-8.80209,-2.34779,5.25974
1.60278,17.4229,13.6511,80.5809,-76.1481,-77.9986,10.9485,0.525406,5.46592,3.2458,1.19604,1.14291,-2.65037,0.530418,-2.03897,3.13426,-13.0225,-13.8306,1.51133,-17.9134,9.61894,2.04376,-9.03225,4.53326,-7.95139e-16,-5.24792e-14,-23.7034,-0.808482,-75.3523,45.152,-17.9282,-18.981,-25.7147,7.12502,7.32354,-55.568,-7.95139e-16,-5.24792e-14,-30.4274,13.4955,75.5173,31.3451,2.15428,-17.5247,-4.35776,7.12502,8.72901,25.4417,-1.78239,-2.01678,38.2462,23.4555,-20.4188,-10.488,15.2075,-32.0378,2.41432,4.42992,44.9675,-8.70925,-1.74053,5.28684
1.47468,17.4073,13.6838,80.6864,-76.2312,-78.0079,10.8426,0.557423,5.78902,3.24709,1.2601,0.879798,-2.57114,0.566238,-2.50037,3.24478,-12.973,-14.8215,1.92823,-17.9527,10.6383,2.33879,-9.06376,4.94128,1.11319e-14,1.74931e-14,-23.545,-0.654328,-75.5606,45.3393,-17.9405,-18.6089,-25.7597,7.12502,7.68264,-55.6002,1.11319e-14,1.74931e-14,-30.3498,13.1444,75.4072,31.3068,2.67085,-17.9899,-4.16583,7.12502,8.2801,25.6519,-1.22246,-1.69428,38.1231,23.178,-20.7461,-10.7074,15.6525,-32.2581,2.17104,4.37555,42.7965,-8.6947,-1.08472,6.93768
1.34561,17.3919,13.7106,80.4244,-76.2191,-77.7286,10.9224,0.638408,5.6168,3.23324,1.35801,1.00948,-2.62937,0.612156,-2.28256,2.94954,-13.2112,-14.6698,2.29645,-18.2285,10.1984,2.47414,-9.19456,4.73606,1.35174e-14,-1.11319e-14,-23.4635,-0.297301,-75.3529,45.5539,-18.0177,-18.4381,-25.475,7.12502,7.84752,-55.3094,1.35174e-14,-1.11319e-14,-30.4129,13.6329,75.5695,31.2727,2.68458,-18.1612,-4.19995,7.12502,8.11478,25.6242,-0.596846,-1.40265,38.1463,22.919,-20.941,-11.406,14.5828,-32.4104,1.8703,4.48156,40.6272,-8.79994,-0.630611,9.83002
1.21186,17.3824,13.7379,79.9299,-76.3216,-77.2072,10.8601,0.655563,5.51091,3.27626,1.36065,0.908191,-2.55038,0.617092,-2.3273,2.83302,-13.3467,-14.4418,2.60637,-18.399,10.0131,2.56781,-9.27729,4.61886,-5.56597e-15,-6.36111e-15,-23.3608,0.208767,-75.4642,45.8597,-18.1319,-18.8644,-25.2883,7.12502,7.43603,-55.1376,-5.56597e-15,-6.36111e-15,-30.6158,14.8779,75.193,31.5015,1.85137,-17.8598,-4.34578,7.12502,8.40564,25.467,0.0338061,-1.53407,37.9478,22.607,-21.1713,-11.6717,13.677,-32.5473,1.33209,4.51877,38.4945,-9.08537,-0.148191,10.091
1.07372,17.3806,13.7716,79.9525,-76.6842,-77.0697,10.6627,0.764087,5.47145,3.25426,1.48409,0.606779,-2.44796,0.684388,-2.63031,3.21823,-13.2841,-14.3058,2.55048,-18.3751,10.2822,2.50112,-9.27429,4.71197,7.15625e-15,1.43125e-14,-23.5536,0.606009,-75.6036,46.4233,-18.1735,-19.4827,-25.4641,7.12502,6.83923,-55.3337,7.15625e-15,1.43125e-14,-30.842,15.3916,74.9124,31.8479,1.38556,-17.711,-4.3758,7.12502,8.54928,25.4311,0.600473,-1.55563,37.4193,22.2158,-21.5342,-11.432,14.3069,-32.7323,0.493231,4.36892,36.4852,-9.83804,0.672749,9.27176
0.933428,17.3731,13.8076,80.4502,-76.8683,-77.5045,10.5586,0.926653,5.57844,3.2613,1.69938,0.429603,-2.3558,0.795444,-2.89796,3.6597,-13.3402,-14.491,2.3472,-18.5169,10.6195,2.43707,-9.35687,4.8611,1.82882e-14,1.59028e-14,-23.7585,0.74049,-75.5987,46.8238,-18.126,-19.2953,-25.0201,7.12502,7.02013,-54.8837,1.82882e-14,1.59028e-14,-30.9099,15.2895,74.9249,32.0262,1.51176,-17.7763,-4.43289,7.12502,8.48625,25.3766,1.2686,-1.49468,37.1099,21.8222,-21.6801,-11.5013,13.957,-32.8205,-0.597817,4.5485,34.6364,-11.0111,1.71468,9.85846
0.796562,17.3482,13.8441,81.1661,-76.6594,-78.217,10.512,1.02518,5.96701,3.30045,1.86198,0.404251,-2.25906,0.879295,-3.1595,3.96448,-13.4996,-14.6717,2.22491,-18.7707,10.7056,2.40861,-9.4918,4.91479,2.38542e-15,1.74931e-14,-23.6794,0.724322,-75.5724,46.7405,-18.0426,-18.5439,-23.6641,7.12502,7.74537,-53.5022,2.38542e-15,1.74931e-14,-30.9938,15.2718,74.8778,32.2285,1.67403,-17.6193,-4.54053,7.12502,8.6377,25.2628,2.0136,-1.35468,37.2817,21.3649,-21.5959,-12.0265,12.218,-32.9683,-1.29983,5.09107,33.0388,-12.0605,2.47797,9.13536
0.657892,17.3229,13.8816,81.6719,-76.6076,-78.6466,10.3508,1.06068,6.15487,3.34127,1.91312,0.357795,-2.11383,0.910467,-3.31375,4.2364,-13.5024,-14.9962,2.19513,-18.8342,11.0152,2.42517,-9.53347,5.06091,-1.78906e-14,6.36111e-15,-23.4819,1.23202,-75.6175,46.8229,-18.0401,-18.3186,-23.4026,7.12502,7.96289,-53.2327,-1.78906e-14,6.36111e-15,-31.1663,15.3816,74.8246,32.5218,1.98162,-17.5913,-4.47688,7.12502,8.66475,25.3253,2.80235,-1.11727,37.3055,20.7059,-21.4956,-12.5341,10.692,-33.3163,-1.68677,5.3445,31.8005,-12.7455,3.05708,5.91744
0.504655,17.3071,13.9104,82.4109,-76.5948,-79.3958,10.1019,1.17766,6.01494,3.42478,2.0333,0.42901,-1.88606,0.977744,-3.16512,4.66511,-13.4552,-15.3753,2.02265,-18.8497,11.3817,2.37917,-9.55581,5.2526,-1.59028e-14,-2.8625e-14,-23.3923,1.87958,-75.5968,47.181,-17.7009,-17.9709,-24.094,7.12502,8.29841,-53.911,-1.59028e-14,-2.8625e-14,-31.3588,15.6588,74.8956,32.6981,1.99871,-17.8363,-4.52197,7.12502,8.42827,25.2899,3.73147,-0.906559,37.3035,19.9965,-21.3429,-12.9078,9.43392,-33.6365,-2.0362,5.62236,30.8766,-13.3251,3.42536,3.10619
0.360763,17.2974,13.9641,83.0344,-76.2962,-79.9383,9.95964,1.22052,6.53058,3.40333,2.1316,0.508819,-1.80163,1.03,-3.37729,5.19867,-13.5116,-15.3621,1.62532,-18.9577,11.1059,2.16173,-9.61991,5.22008,-1.90833e-14,1.43125e-14,-23.3922,2.32516,-75.5413,47.3201,-17.3287,-17.8868,-24.4866,7.12502,8.37956,-54.3004,-1.90833e-14,1.43125e-14,-31.7369,15.8316,75.0029,33.0087,1.95679,-17.7809,-4.82972,7.12502,8.48174,24.98,4.52761,-1.23934,37.3516,19.3247,-21.3529,-12.5403,9.02897,-34.1148,-1.82523,5.89834,30.1759,-13.8027,3.11594,1.70281
0.22025,17.2851,14.005,84.254,-76.3153,-80.9869,9.83681,1.32351,6.60098,3.33693,2.27048,0.482344,-1.78455,1.0999,-3.45592,5.0945,-13.5623,-14.9894,2.01757,-19.0049,10.7602,2.23243,-9.64017,5.04732,-5.56597e-15,-4.45278e-14,-23.1191,2.99684,-75.5778,47.0149,-17.3596,-18.1825,-24.4023,7.12502,8.09417,-54.2273,-5.56597e-15,-4.45278e-14,-32.2454,15.7866,75.0546,33.5831,2.33288,-17.8569,-4.99889,7.12502,8.40843,24.8137,5.2297,-0.568141,37.3204,18.7069,-21.4579,-12.7586,9.74138,-34.5512,-1.36707,5.82215,29.6538,-14.0858,2.52298,1.4217
0.0854451,17.2713,14.0524,85.4893,-76.5563,-82.0814,9.76052,1.4755,6.62595,3.32016,2.46657,0.290436,-1.72891,1.20133,-3.68731,4.77839,-13.7676,-14.6236,2.62902,-19.2492,10.4976,2.43538,-9.75457,4.85712,1.03368e-14,1.74931e-14,-23.6007,3.45637,-75.6984,47.8324,-17.276,-17.4837,-23.9284,7.12502,8.7686,-53.7262,1.03368e-14,1.74931e-14,-32.4686,15.6592,75.0326,33.9504,2.52407,-18.0229,-5.22146,7.12502,8.24822,24.5975,5.8806,-0.123792,36.9795,18.1818,-21.3289,-13.02,9.42463,-34.8309,-1.47438,5.68037,29.3258,-14.3001,1.99461,3.0997
-0.0511077,17.2576,14.0986,86.6277,-76.9451,-83.1279,9.70805,1.57946,6.40644,3.32222,2.57655,0.0659331,-1.68585,1.25921,-3.8071,4.54948,-13.9099,-13.9998,3.0438,-19.3948,10.1141,2.51608,-9.81834,4.62448,2.62396e-14,4.77083e-15,-23.7594,3.69956,-75.9393,48.2073,-16.8995,-17.6465,-24.448,7.12502,8.61145,-54.2524,2.62396e-14,4.77083e-15,-32.5841,15.8112,74.8621,34.0964,2.58843,-17.8103,-5.45587,7.12502,8.45342,24.3549,6.49155,0.0435337,36.4447,17.8143,-21.0767,-13.3144,7.66233,-34.9459,-1.00291,5.08266,29.137,-14.2295,1.26115,2.0192
-0.197468,17.2343,14.1404,86.8899,-77.1168,-83.3864,9.69546,1.50182,6.2149,3.30188,2.45602,-0.00224003,-1.71983,1.19812,-3.75878,5.14579,-13.6131,-15.5961,3.08873,-19.1793,10.853,2.6333,-9.74276,5.09716,-1.86858e-14,-9.54166e-15,-23.7035,4.57972,-76.0795,48.4011,-16.7367,-19.0723,-26.6228,7.12502,7.23537,-56.4791,-1.86858e-14,-9.54166e-15,-33.0157,16.1552,74.6194,34.3491,2.86318,-17.9212,-5.42819,7.12502,8.34639,24.3869,7.22237,0.383322,36.2445,17.5153,-21.0803,-13.8357,6.4955,-34.9878,0.189911,4.32586,29.1348,-13.7391,-0.0988424,-2.31177
-0.343647,17.2088,14.1846,86.9011,-77.0181,-83.4131,9.71238,1.46506,6.34583,3.2611,2.42431,0.0446561,-1.77112,1.18019,-3.78182,5.06581,-13.5668,-15.3504,3.59274,-19.123,10.6723,2.74877,-9.71544,4.99484,-7.55382e-15,1.27222e-14,-23.8831,5.13391,-76.2161,48.5748,-16.2769,-19.2946,-27.1195,7.12502,7.0208,-56.9831,-7.55382e-15,1.27222e-14,-33.5411,16.4397,74.5298,34.6278,2.88269,-18.3392,-5.25242,7.12502,7.94301,24.5783,7.92539,0.933099,36.3841,17.3368,-21.2358,-14.4157,6.08376,-34.9226,0.355148,4.25616,29.277,-12.9149,-1.07419,-4.33652
-0.484693,17.1909,14.2297,87.577,-77.1248,-84.1508,9.78786,1.57646,6.31085,3.27401,2.57148,0.0152592,-1.7831,1.25284,-3.81022,5.15384,-13.6198,-15.1645,3.92021,-19.2069,10.4216,2.80165,-9.76118,4.88728,-7.95139e-16,-3.65764e-14,-24.119,5.2227,-76.217,48.8208,-15.8052,-18.4251,-26.1398,7.12502,7.8601,-55.9736,-7.95139e-16,-3.65764e-14,-33.8308,16.6855,74.5021,34.7332,2.83152,-18.581,-5.32442,7.12502,7.70955,24.515,8.5875,1.70923,36.3569,17.2947,-21.1866,-15.307,5.27087,-34.6282,0.220278,4.09305,29.4717,-11.3733,-1.70776,-4.87681
-0.621038,17.1817,14.283,88.3359,-77.5497,-84.909,9.87388,1.63659,6.06069,3.28703,2.62845,-0.16362,-1.8144,1.28076,-3.86525,5.33784,-13.6779,-14.9977,3.97719,-19.2872,10.1128,2.75355,-9.80523,4.78383,-6.36111e-15,-3.18055e-15,-24.3588,5.17381,-76.3411,49.1799,-15.0764,-17.6071,-25.4994,7.12502,8.64952,-55.3022,-6.36111e-15,-3.18055e-15,-34.0711,16.7919,74.3902,34.8387,3.21388,-18.5643,-5.51144,7.12502,7.72574,24.3274,9.10154,2.3048,35.9115,17.3174,-20.8018,-16.2743,3.74212,-34.3291,0.354051,3.36386,29.6843,-9.02776,-2.35706,-2.16095
-0.759245,17.1851,14.3418,88.8647,-78.2176,-85.3417,9.87291,1.67552,5.58494,3.26647,2.63217,-0.382609,-1.84835,1.28195,-3.82722,5.4281,-13.7644,-15.4293,4.31566,-19.4656,10.2658,2.91997,-9.90468,4.85932,-3.69739e-14,-1.43125e-14,-24.5905,5.54477,-76.4323,49.5129,-14.8472,-17.3428,-24.5065,7.12502,8.90455,-54.2986,-3.69739e-14,-1.43125e-14,-34.3638,16.8884,74.335,34.9425,3.54095,-18.1931,-5.34686,7.12502,8.08395,24.4785,9.47984,2.81211,35.128,17.3652,-20.5649,-16.7871,3.00162,-34.1546,0.00700149,2.46316,29.985,-8.28607,-2.00422,-6.14162
-0.909042,17.1875,14.3976,89.2398,-78.7049,-85.8095,9.87068,1.74864,5.255,3.34517,2.68959,-0.510141,-1.76949,1.31329,-3.77836,5.36633,-13.8627,-15.3766,4.74531,-19.6103,10.1583,3.06175,-9.97893,4.78784,3.18055e-15,-1.11319e-14,-24.855,5.82042,-76.4244,49.8796,-14.6946,-16.9502,-23.8305,7.12502,9.28335,-53.6061,3.18055e-15,-1.11319e-14,-34.5212,17.2648,74.2792,34.7555,3.24412,-17.9671,-5.50639,7.12502,8.30206,24.3105,10.0733,3.22719,34.525,17.4234,-20.6505,-16.8868,3.58264,-33.8463,-0.445636,1.80003,30.4229,-7.35848,-1.74874,-6.07303
-1.05956,17.1777,14.4517,89.3424,-78.394,-86.0566,9.84806,1.68233,5.74864,3.43385,2.64177,-0.458249,-1.64661,1.29528,-3.99365,5.41811,-13.8341,-15.4454,5.1542,-19.6201,10.25,3.19408,-9.99083,4.81094,2.94201e-14,-4.45278e-14,-25.15,5.59364,-76.61,50.2157,-13.4694,-15.5538,-23.7156,7.12502,10.6306,-53.4267,2.94201e-14,-4.45278e-14,-34.7526,17.7553,74.0477,34.4669,2.88612,-18.2714,-6.06388,7.12502,8.00837,23.7644,10.6673,3.39133,34.8057,17.5528,-20.265,-17.2828,3.4757,-33.6423,-0.222159,1.82683,30.9552,-6.30245,-2.08732,-4.6642
-1.20366,17.1686,14.5028,89.7236,-77.9689,-86.5464,9.89698,1.60288,6.25361,3.47486,2.58516,-0.354077,-1.61618,1.26931,-4.16416,5.42909,-13.7752,-15.6199,5.64902,-19.6003,10.3921,3.37042,-9.98928,4.85851,3.49861e-14,-1.11319e-14,-25.5283,4.17899,-76.7976,50.5491,-11.3866,-14.3706,-23.1914,7.12502,11.7718,-52.8406,3.49861e-14,-1.11319e-14,-35.0111,17.9649,73.9205,34.1745,3.0655,-18.7272,-6.25237,7.12502,7.56845,23.5922,11.0805,3.53586,35.2649,17.8867,-19.3189,-18.2671,1.83125,-33.5326,0.33629,1.9245,31.5263,-5.17821,-2.60835,-3.90852
-1.35182,17.1727,14.5437,91.834,-78.2323,-88.8805,10.0376,1.73158,5.84792,3.61201,2.71373,-0.401288,-1.55408,1.33382,-4.00054,5.11095,-13.699,-14.2113,5.86521,-19.3535,9.49333,3.23058,-9.84341,4.41635,2.78299e-14,1.43125e-14,-25.4891,5.49088,-77.0611,50.4177,-12.5645,-15.3354,-23.0642,7.12502,10.8412,-52.7644,2.78299e-14,1.43125e-14,-34.9993,18.122,73.9251,33.7751,3.34117,-19.2046,-6.28409,7.12502,7.10761,23.5766,11.4601,4.33755,35.1465,18.6074,-18.5417,-19.4883,0.192255,-33.0409,0.907992,1.3777,32.0675,-4.42314,-2.77299,-5.44152
-1.50845,17.1843,14.5833,94.6807,-78.7268,-91.9726,10.1289,1.91587,5.21569,3.73577,2.8896,-0.553629,-1.48245,1.42108,-3.82243,5.21094,-13.6338,-13.6747,5.86956,-19.2377,9.17702,3.12062,-9.78276,4.2776,-3.4191e-14,2.54444e-14,-25.5921,5.7006,-77.3981,50.3099,-12.7667,-15.7517,-23.0894,7.12502,10.4397,-52.8102,-3.4191e-14,2.54444e-14,-35.0248,18.3163,73.761,33.328,3.26799,-19.48,-6.27084,7.12502,6.84181,23.5986,11.5939,4.67469,34.5266,19.8158,-17.8891,-19.9278,-2.0041,-32.3098,1.25731,0.674487,32.4844,-4.0604,-2.71669,-6.78739
-1.66256,17.1955,14.6282,96.5496,-79.0617,-94.0227,10.216,2.05323,4.83995,3.78486,3.03406,-0.614188,-1.48243,1.49061,-3.69175,5.4454,-13.66,-14.7525,6.32423,-19.4308,9.8522,3.41307,-9.90333,4.58978,-4.37326e-15,9.54166e-15,-25.8699,5.2881,-77.5899,50.1144,-12.1387,-15.6589,-23.4537,7.12502,10.5292,-53.17,-4.37326e-15,9.54166e-15,-35.0987,18.5733,73.6115,32.6859,2.99451,-19.2696,-6.23992,7.12502,7.04494,23.6228,11.2931,3.83842,33.6505,21.4853,-17.0496,-19.6381,-5.93337,-31.6872,1.45446,0.135193,32.7916,-3.75587,-2.84943,-5.7059
-1.80739,17.2108,14.6723,97.9617,-79.2908,-95.4707,10.2263,2.20437,4.49016,3.84204,3.19695,-0.602921,-1.43436,1.57036,-3.49912,5.63644,-13.7403,-15.808,6.68296,-19.6948,10.5684,3.69897,-10.0568,4.90523,4.37326e-14,1.59028e-14,-26.1342,4.81464,-77.6958,49.9465,-11.8018,-15.9723,-23.8648,7.12502,10.2269,-53.5962,4.37326e-14,1.59028e-14,-34.9244,18.8982,73.5913,31.8443,2.67605,-19.0488,-6.47583,7.12502,7.25802,23.3797,10.7761,4.64496,33.6087,23.4318,-16.0628,-20.9587,-8.35322,-31.2556,1.96005,-0.400439,33.0462,-3.75215,-3.36458,-5.0276
-1.95451,17.2347,14.7218,98.6192,-79.532,-96.1211,10.1885,2.28655,4.30541,3.92181,3.27905,-0.704922,-1.32806,1.6136,-3.50541,5.81338,-13.8018,-15.7511,6.7409,-19.8151,10.6696,3.70901,-10.1205,4.92825,-4.21423e-14,4.13472e-14,-26.5123,4.51324,-77.9429,50.0362,-12.0447,-16.5678,-23.5576,7.12502,9.65235,-53.3164,-4.21423e-14,4.13472e-14,-34.6124,19.0673,73.4892,30.9595,2.18982,-19.1462,-6.66715,7.12502,7.164,23.1916,10.0057,4.55096,33.2264,25.5518,-15.2393,-21.0991,-9.02463,-30.8453,2.42599,-1.01834,33.3018,-4.02748,-3.89595,-3.70522
-2.10781,17.2701,14.775,99.4632,-79.9979,-97.0334,10.1787,2.29067,4.01199,4.01802,3.24629,-0.877792,-1.23288,1.59858,-3.51364,5.84731,-13.7816,-15.4475,6.89799,-19.7782,10.4769,3.69714,-10.101,4.8362,-1.03368e-14,4.45278e-14,-27.6735,1.7385,-78.138,50.5796,-10.1187,-16.4411,-22.4743,7.12502,9.77463,-52.2274,-1.03368e-14,4.45278e-14,-34.4226,19.3091,73.3342,30.0766,1.68208,-19.2386,-6.73527,7.12502,7.0748,23.1265,9.20767,4.17658,32.4326,27.7702,-14.8098,-20.7891,-8.67981,-30.2787,2.77151,-1.89612,33.5693,-4.4912,-4.22353,0.826572
-2.25464,17.2975,14.8209,100.875,-80.3404,-98.5725,10.3123,2.27018,3.63757,4.06353,3.18314,-0.911601,-1.28478,1.56189,-3.33759,5.43382,-13.6917,-14.5574,7.53544,-19.563,9.76779,3.77113,-9.97793,4.4868,-4.73108e-14,-4.77083e-15,-26.9481,4.714,-78.6374,49.9476,-13.2056,-18.3292,-23.7442,7.12502,7.95261,-53.5746,-4.73108e-14,-4.77083e-15,-34.4475,19.6031,73.2223,29.3312,1.33263,-18.9526,-6.34948,7.12502,7.35089,23.5028,8.40918,4.25517,31.9463,30.0627,-13.9569,-21.1765,-8.82193,-29.6558,3.2522,-2.58405,33.8528,-4.92189,-4.55431,5.83483
-2.39165,17.3134,14.8606,101.021,-79.988,-98.8469,10.5019,2.14403,3.87728,4.11585,3.04506,-0.738823,-1.34139,1.49129,-3.28594,5.41526,-13.6675,-15.066,7.89883,-19.5771,9.78351,3.9378,-9.99928,4.53912,-1.63003e-14,-3.18055e-15,-27.2403,5.76983,-79.0857,49.8577,-14.2367,-18.9393,-23.971,7.12502,7.36371,-53.8228,-1.63003e-14,-3.18055e-15,-34.3683,19.8619,73.0729,28.6354,1.17536,-18.2966,-5.43998,7.12502,7.9841,24.3892,7.48523,4.38613,32.3914,32.409,-12.2383,-22.045,-10.1022,-29.103,3.76127,-2.40378,34.0868,-5.08514,-5.05508,6.70975
-2.53098,17.3398,14.9038,100.613,-79.4825,-98.4774,10.522,1.98591,4.40058,4.19856,2.88474,-0.611634,-1.25737,1.41673,-3.42927,5.41827,-13.6172,-15.1175,8.05137,-19.5312,9.83985,3.98853,-9.97913,4.56164,9.54166e-15,4.77083e-15,-27.4029,5.70581,-79.6563,49.6261,-14.0849,-19.1102,-24.169,7.12502,7.19875,-54.0265,9.54166e-15,4.77083e-15,-34.1332,20.155,72.7917,27.856,0.923528,-17.8142,-4.88217,7.12502,8.44965,24.9288,6.36421,4.0228,32.8122,34.8255,-10.5729,-22.243,-10.3601,-28.615,4.05486,-2.01111,34.2495,-5.55902,-5.58094,4.35058
-2.6751,17.3776,14.9461,101.358,-79.703,-99.2821,10.5541,1.83868,4.16181,4.21977,2.66338,-0.74942,-1.27831,1.30473,-3.41601,5.44278,-13.4497,-15.2265,8.43192,-19.3741,10.0644,4.11284,-9.90774,4.64627,1.55052e-14,-4.77083e-15,-27.5665,5.49192,-80.3392,49.1443,-13.6375,-19.3176,-24.651,7.12502,6.99861,-54.5153,1.55052e-14,-4.77083e-15,-34.32,19.8882,72.4705,27.5857,0.978059,-17.4149,-4.42317,7.12502,8.83499,25.3719,5.22923,3.72634,32.3391,37.3151,-9.78415,-22.0981,-7.02646,-27.9743,4.09619,-2.44337,34.292,-6.19029,-5.70018,3.26511
-2.81905,17.4063,14.9778,103.194,-79.8655,-101.323,10.6844,1.70674,3.63232,4.2683,2.43523,-0.81888,-1.34133,1.18412,-3.16997,5.21923,-13.2871,-15.62,9.16699,-19.233,10.2949,4.41506,-9.84714,4.73814,7.95139e-16,2.38542e-14,-27.8305,5.76366,-80.9951,48.8592,-13.2621,-18.9646,-25.1575,7.12502,7.33934,-55.0103,7.95139e-16,2.38542e-14,-34.5841,20.1288,71.9227,27.2644,0.694419,-16.9101,-3.84403,7.12502,9.32205,25.9299,4.14379,3.77106,32.06,39.9395,-8.89598,-22.4527,-2.74911,-27.0016,4.35414,-2.81243,34.0187,-6.45993,-5.71961,3.34498
-2.96107,17.4342,15.0145,104.904,-79.8793,-103.308,10.8694,1.79167,3.49957,4.40889,2.52916,-0.806329,-1.29508,1.22853,-3.09642,5.19372,-13.2007,-15.8001,9.45584,-19.1519,10.3433,4.51897,-9.8142,4.77349,1.39149e-14,-6.36111e-15,-28.1351,5.79727,-81.2164,48.8174,-13.5648,-18.8578,-25.6368,7.12502,7.44237,-55.4858,1.39149e-14,-6.36111e-15,-34.0529,23.1838,70.5838,25.2013,-2.98075,-16.2542,-4.34438,7.12502,9.95495,25.4002,3.06863,3.5965,31.8807,42.6057,-7.49206,-22.7653,0.303358,-25.9061,4.55542,-3.02433,33.6828,-6.67481,-5.81688,3.34949
-3.099,17.4858,15.0607,107.528,-81.3617,-106.202,11.1366,1.91276,2.18495,4.50802,2.54267,-1.17634,-1.38255,1.22062,-2.75134,5.55305,-13.2564,-15.6982,9.39944,-19.2392,10.0498,4.41798,-9.87136,4.69441,-3.57812e-15,-2.70347e-14,-28.4597,5.47746,-81.2754,48.6179,-14.0991,-19.2697,-25.2999,7.12502,7.04485,-55.1627,-3.57812e-15,-2.70347e-14,-33.8596,21.4923,71.3763,25.2463,-2.27328,-16.1024,-3.39651,7.12502,10.1014,26.341,1.93941,2.91347,29.919,45.2678,-6.30632,-22.6622,5.34851,-24.7689,4.34241,-4.97102,33.2519,-6.97954,-5.78725,3.35041
-3.23358,17.5187,15.1043,107.207,-80.9014,-105.495,10.7737,1.67488,2.58174,4.37647,2.27692,-1.05694,-1.32654,1.09565,-2.80955,5.35895,-12.9366,-16.2831,10.1803,-18.9868,10.9251,4.79372,-9.75403,5.02119,4.49253e-14,3.65764e-14,-28.6552,5.5266,-81.8803,48.1695,-13.9934,-17.4135,-23.324,7.12502,8.83635,-53.119,4.49253e-14,3.65764e-14,-33.9738,20.8595,71.359,25.0683,-2.63564,-16.3268,-2.2184,7.12502,9.88485,27.5295,0.0674135,2.12896,30.2149,47.8198,-4.37051,-22.7521,10.5746,-24.4576,4.78845,-4.66714,32.8448,-7.01656,-6.16353,3.81513
-3.3793,17.5474,15.1428,108.437,-80.8631,-106.751,10.6572,1.50909,2.51027,4.42759,2.04428,-1.13399,-1.22519,0.981264,-2.81843,5.16929,-12.7641,-15.2187,10.3878,-18.6638,10.3944,4.69123,-9.57222,4.73815,-1.43125e-14,0,-28.7687,5.7423,-82.547,47.7279,-13.5902,-10.4411,-19.4541,7.12502,15.5589,-48.8482,-1.43125e-14,0,-33.9348,21.1141,70.6966,24.5307,-2.66323,-14.9491,-2.75362,7.12502,11.2138,26.9267,-1.37799,1.2813,30.0063,50.3043,-1.73886,-22.9021,12.9691,-23.523,5.02766,-4.8458,32.2139,-7.40638,-6.1236,2.66709
-3.52247,17.5848,15.1886,110.16,-81.3718,-108.646,10.7634,1.38875,2.05016,4.52359,1.83165,-1.25871,-1.2096,0.869742,-2.66665,5.0326,-12.8078,-15.3311,10.675,-18.7133,10.2035,4.80144,-9.60245,4.67233,-8.74653e-15,3.97569e-14,-28.9843,6.33505,-82.8779,47.5462,-13.4282,-10.9875,-20.4435,7.12502,15.0326,-49.8778,-8.74653e-15,3.97569e-14,-33.941,21.3821,70.474,24.2389,-3.22161,-13.9209,-2.87541,7.12502,12.2054,26.7485,-2.65764,0.424768,29.1671,52.6548,0.578371,-23.1902,15.3994,-22.4303,4.84027,-5.66319,31.5958,-7.84031,-5.70409,1.42775
-3.65976,17.6368,15.2274,112.163,-81.8697,-110.787,10.9182,1.3188,1.35627,4.57542,1.66676,-1.25298,-1.27297,0.777236,-2.2546,4.32668,-12.9726,-13.6804,11.3499,-18.6891,8.63754,4.81806,-9.55913,3.9231,7.95139e-16,5.725e-14,-29.3671,7.26982,-83.2374,47.6875,-13.6899,-10.9579,-21.0205,7.12502,15.061,-50.4526,7.95139e-16,5.725e-14,-34.0149,21.5193,70.4848,24.1063,-3.98379,-13.884,-2.94196,7.12502,12.241,26.6798,-3.93996,-0.0625766,28.3628,54.9183,0.529529,-23.9495,22.3088,-21.284,4.5418,-6.44239,30.8455,-7.82636,-5.20982,1.84983
-3.79486,17.6773,15.2532,114.293,-82.0775,-113.023,11.019,1.29884,0.853019,4.59771,1.58722,-1.23813,-1.32437,0.73018,-1.94888,5.01783,-12.61,-14.698,10.996,-18.4109,9.68962,4.75582,-9.45211,4.45717,2.38542e-14,2.38542e-14,-29.8686,7.82134,-83.5995,47.8855,-13.6602,-9.77244,-20.8313,7.12502,16.2028,-50.1742,2.38542e-14,2.38542e-14,-33.9027,20.9813,70.5701,23.8988,-4.19852,-13.6952,-3.062,7.12502,12.423,26.5488,-5.23024,-0.306785,27.9724,57.0235,-0.163893,-25.1626,26.9843,-20.1622,4.53534,-6.87565,30.0607,-7.79653,-4.93339,2.40585
-3.92841,17.6972,15.2768,115.263,-82.2498,-114.009,11.0478,1.20385,0.578182,4.5793,1.43394,-1.23838,-1.37282,0.650501,-1.77731,5.20104,-12.4692,-16.4506,11.4096,-18.506,11.0303,5.15481,-9.53875,5.08711,8.34896e-15,-1.27222e-14,-30.3157,8.05824,-83.8225,47.7377,-12.8848,-8.73997,-19.9963,7.12502,17.1967,-49.2553,8.34896e-15,-1.27222e-14,-33.8161,20.4798,70.531,23.7606,-4.47031,-12.8435,-3.11093,7.12502,13.244,26.4483,-6.57662,-0.884823,27.769,58.9158,-0.0113478,-26.3149,26.9104,-19.3078,4.6612,-7.20955,29.4265,-7.76419,-5.00276,3.71571
-4.06174,17.7128,15.3113,115.16,-82.6349,-113.985,11.1637,1.07275,0.383088,4.58829,1.23799,-1.27003,-1.43727,0.550036,-1.67931,5.00521,-12.6575,-14.7447,11.3906,-18.5356,9.76835,4.9066,-9.51861,4.46345,-1.31198e-14,-2.8625e-14,-30.7262,8.38172,-84.1165,47.7004,-12.9505,-8.52137,-20.4463,7.12502,17.4071,-49.6869,-1.31198e-14,-2.8625e-14,-33.6888,20.088,70.5551,23.6261,-4.91846,-12.4857,-3.53701,7.12502,13.5889,25.9995,-7.75274,-1.88206,27.2964,60.6285,-0.762951,-26.7863,27.6159,-18.5706,4.80662,-7.76074,29.0315,-7.82247,-5.41747,4.788
-4.18854,17.7257,15.3577,112.079,-82.8739,-111.006,11.391,0.769397,0.689044,4.62672,0.865587,-1.28929,-1.52695,0.366262,-1.82998,5.00595,-12.4756,-16.1653,12.0488,-18.5131,10.6748,5.32563,-9.54404,4.91126,-6.36111e-15,-1.74931e-14,-31.0236,8.63112,-84.5073,47.8165,-13.0602,-6.67676,-21.354,7.12502,19.1817,-50.4281,-6.36111e-15,-1.74931e-14,-33.4577,19.4462,70.68,23.5104,-5.04855,-12.4955,-4.05812,7.12502,13.5795,25.479,-8.83038,-3.24414,27.0518,62.141,-2.27971,-26.7087,28.7647,-17.9751,5.15724,-8.06253,28.7146,-8.19889,-6.16645,2.76237
-4.3124,17.7401,15.3677,117.041,-82.7164,-115.914,11.3818,0.841216,0.246494,4.61409,0.91388,-1.23898,-1.54231,0.384865,-1.53425,4.78369,-12.4053,-15.2772,12.1187,-18.2856,9.97761,5.20441,-9.4134,4.58756,1.63003e-14,-2.22639e-14,-31.2009,8.50897,-84.8217,47.4975,-11.7529,-3.93308,-20.7027,7.12502,21.8182,-49.4928,1.63003e-14,-2.22639e-14,-33.1907,19.0937,70.617,23.484,-5.17619,-11.9428,-4.02586,7.12502,14.1121,25.4749,-10.1205,-3.41345,27.035,63.5192,-3.78299,-26.7319,29.1163,-17.2557,6.41306,-8.21531,28.3774,-8.72205,-6.77272,3.10587
-4.44102,17.7603,15.3865,121.907,-83.1487,-120.921,11.5159,0.877944,-0.655552,4.65003,0.857812,-1.29599,-1.59319,0.345801,-1.08007,4.49665,-12.4231,-14.1482,12.3182,-18.1641,9.11103,5.11352,-9.33062,4.16301,6.36111e-15,9.54166e-15,-31.6083,8.58642,-85.0874,47.2952,-11.1941,6.64122,-10.9278,7.12502,31.9341,-38.1469,6.36111e-15,9.54166e-15,-32.9872,18.8471,70.6237,23.6179,-5.48316,-11.3462,-3.81294,7.12502,14.687,25.6469,-11.164,-4.02663,26.2273,64.7008,-4.89336,-26.4525,29.5678,-16.3743,6.83922,-9.01826,28.0985,-8.79926,-7.06715,8.57617
-4.56839,17.7792,15.4108,125.944,-83.4969,-124.925,11.4533,0.885403,-1.26142,4.63884,0.802526,-1.33161,-1.57975,0.312367,-0.76829,4.73464,-12.3222,-15.6867,12.6456,-18.2987,10.3689,5.45139,-9.4316,4.74472,3.57812e-15,4.6118e-14,-32.0635,8.8458,-85.26,47.2391,-11.0811,14.1963,-2.06417,7.12502,39.0946,-27.557,3.57812e-15,4.6118e-14,-32.8424,17.8096,71.0309,23.9188,-5.10781,-11.5816,-3.83641,7.12502,14.4601,25.6398,-12.3875,-4.79397,25.5415,65.6959,-5.36109,-26.0798,28.8603,-15.7358,7.11207,-9.70884,27.805,-8.79059,-7.22721,10.2847
-4.69293,17.7864,15.4376,126.693,-83.5539,-125.614,11.3936,0.782567,-1.22079,4.65794,0.671571,-1.36016,-1.52717,0.247532,-0.803461,4.98835,-12.2495,-16.2435,12.5995,-18.2955,10.7359,5.48125,-9.45067,4.95191,-1.78906e-14,2.8625e-14,-32.2837,8.69175,-85.4685,46.836,-10.6053,14.3405,4.08283,7.12502,39.2305,-21.3708,-1.78906e-14,2.8625e-14,-32.6002,16.7516,71.2694,24.2014,-4.30912,-12.1823,-3.78849,7.12502,13.8813,25.7282,-13.5268,-5.55953,25.4874,66.4931,-5.56386,-25.6047,29.8875,-15.2075,7.31195,-9.88523,27.5522,-9.36221,-7.29975,5.57376
-4.82141,17.7865,15.464,129.441,-83.9981,-128.621,11.6092,0.705623,-1.62044,4.77483,0.507873,-1.5401,-1.5253,0.158183,-0.746273,4.93009,-12.2318,-15.2857,12.5556,-18.1599,10.1292,5.31296,-9.36348,4.64942,-8.34896e-15,7.95139e-15,-32.4995,8.15637,-85.7324,46.4375,-10.1073,-5.53125,-18.427,7.12502,20.2829,-47.3879,-8.34896e-15,7.95139e-15,-32.3554,16.6668,71.0343,24.5379,-4.36065,-12.3032,-3.53298,7.12502,13.7648,25.9917,-14.2249,-6.37941,24.8564,67.1563,-5.86971,-24.6558,31.8555,-14.3539,7.3262,-10.5626,27.3658,-10.0538,-7.25984,2.33012
-4.92928,17.7877,15.4916,135.206,-84.0326,-134.192,11.6445,0.742934,-1.99366,4.6785,0.511961,-1.64439,-1.64689,0.158627,-0.645869,4.91384,-12.1743,-14.7992,12.6195,-18.0551,9.91487,5.2565,-9.30165,4.5276,4.77083e-15,1.27222e-14,-32.8225,8.04779,-86.0011,46.3607,-9.89659,-6.2617,-18.0228,7.12502,19.5808,-47.0568,4.77083e-15,1.27222e-14,-32.1599,17.1385,70.665,24.8211,-5.11834,-12.2507,-3.40947,7.12502,13.8154,26.1118,-15.6573,-6.6155,24.4441,67.7515,-6.10766,-23.6741,30.6651,-14.0356,7.51802,-11.1295,27.2969,-10.1898,-7.03386,2.92856
-5.04501,17.7944,15.5323,141.902,-84.2015,-140.725,11.601,0.710022,-2.33188,4.62734,0.424924,-1.84719,-1.67682,0.113375,-0.654815,4.72655,-12.1994,-15.0283,13.0193,-18.156,10.1793,5.46935,-9.35047,4.60612,0,-4.13472e-14,-33.3676,8.52997,-86.3863,46.1375,-10.5398,-5.58104,-17.1963,7.12502,20.2351,-46.1623,0,-4.13472e-14,-31.8878,17.0185,70.5067,25.0508,-5.10727,-12.3585,-3.43951,7.12502,13.7115,26.0888,-17.0187,-7.1471,23.626,68.1949,-5.79722,-22.4759,27.9566,-13.6594,7.61112,-11.9771,27.2514,-10.3082,-6.90138,5.13303
-5.17086,17.8028,15.5626,143.583,-84.0818,-142.442,11.6003,0.599417,-2.21879,4.68234,0.2885,-1.87743,-1.61782,0.0448012,-0.732094,4.76363,-12.0545,-15.91,13.233,-18.097,10.8088,5.66107,-9.34311,4.92351,2.78299e-15,2.22639e-14,-33.3973,8.54683,-86.6335,45.8141,-10.59,-4.34094,-16.8429,7.12502,21.4265,-45.678,2.78299e-15,2.22639e-14,-31.617,16.4788,70.4592,25.4895,-4.43244,-12.4146,-3.23368,7.12502,13.6574,26.2982,-18.0311,-7.67439,23.5182,68.4263,-5.51891,-21.3816,25.8765,-13.1538,7.59661,-12.1331,27.3644,-10.8923,-6.74627,5.19358
-5.30045,17.8113,15.5761,144.736,-83.8111,-143.641,11.5792,0.573724,-2.20047,4.70617,0.259116,-1.81089,-1.58172,0.0292548,-0.669376,5.02338,-11.9828,-15.8721,13.0742,-18.0176,10.7713,5.55053,-9.31375,4.9375,1.23246e-14,3.02153e-14,-33.9538,7.95486,-86.6483,45.6982,-9.8211,-4.78018,-17.397,7.12502,21.0046,-46.2795,1.23246e-14,3.02153e-14,-31.3993,16.2819,70.3293,25.9164,-4.25039,-13.0377,-3.04664,7.12502,13.0569,26.5247,-18.9484,-7.82569,23.7054,68.4006,-5.49835,-20.4308,24.5669,-12.6536,7.72979,-12.0901,27.5164,-11.467,-6.54889,3.89305
-5.41097,17.8126,15.5784,146.856,-83.5176,-145.457,11.4781,0.588245,-2.37972,4.54866,0.269674,-1.73765,-1.69181,0.03763,-0.493738,5.19836,-12.024,-15.3226,13.0156,-18.0304,10.3609,5.41748,-9.31763,4.74946,7.95139e-16,1.11319e-14,-34.4473,7.44354,-86.7262,45.525,-9.41926,-6.25281,-18.727,7.12502,19.5893,-47.7601,7.95139e-16,1.11319e-14,-31.1567,15.8719,70.3132,26.156,-3.52915,-14.4966,-3.22695,7.12502,11.6502,26.4292,-20.3114,-7.70243,24.0325,68.2006,-5.31103,-19.5612,24.1976,-12.6874,8.5262,-12.0758,27.7997,-11.7041,-6.91844,3.08119
-5.53067,17.8067,15.5853,149.824,-83.3874,-148.569,11.668,0.559001,-2.83477,4.58804,0.172154,-1.65925,-1.75432,-0.0173624,-0.145072,5.0046,-12.0277,-14.9135,13.1913,-17.9679,9.95707,5.42166,-9.27871,4.55905,9.93923e-15,6.36111e-15,-34.685,8.51264,-87.0407,45.2728,-10.4905,-6.936,-19.5477,7.12502,18.9324,-48.6463,9.93923e-15,6.36111e-15,-30.935,15.6568,70.2891,26.517,-2.80296,-14.9814,-3.1117,7.12502,11.1827,26.5703,-21.0809,-7.72068,24.0139,67.8685,-5.33952,-18.6069,23.1062,-12.2502,8.94946,-12.2681,28.2228,-12.2831,-7.09036,1.74427
-5.65426,17.7948,15.5968,153.51,-83.0861,-152.255,11.5816,0.589927,-3.26,4.6238,0.172494,-1.56111,-1.67086,-0.0237502,0.195999,4.79722,-11.9868,-14.585,13.3721,-17.8562,9.62521,5.43771,-9.21696,4.40564,-6.36111e-15,1.74931e-14,-34.9969,7.0662,-86.5791,45.1588,-9.20602,-5.6185,-19.2903,7.12502,20.1991,-48.2601,-6.36111e-15,1.74931e-14,-30.8557,16.3841,69.8413,27.2394,-4.2542,-13.5191,-2.19876,7.12502,12.5928,27.4017,-22.0187,-7.72973,23.9546,67.4563,-5.50464,-17.7307,20.8421,-11.9761,9.30183,-12.5165,28.7177,-12.8648,-7.10645,1.6056
-5.77267,17.777,15.6049,153.537,-82.771,-151.923,11.2028,0.492279,-3.12723,4.56091,0.0847718,-1.47092,-1.528,-0.0640257,0.227128,4.80684,-11.9742,-13.5871,13.1857,-17.7235,9.01346,5.21636,-9.13043,4.10371,-2.42517e-14,0,-35.0195,7.74753,-86.8832,44.4259,-9.88598,-4.89267,-18.6715,7.12502,20.8965,-47.566,-2.42517e-14,0,-30.6808,15.9318,69.9014,27.8787,-1.89184,-15.627,-2.71302,7.12502,10.56,27.0017,-23.3076,-7.77295,24.4439,66.9445,-5.63945,-16.864,18.6665,-12.1037,9.48231,-12.3508,29.1202,-13.2011,-7.12513,2.49211
-5.88776,17.7578,15.6113,152.006,-82.557,-150.493,11.3869,0.362505,-2.78809,4.63614,-0.0604976,-1.431,-1.54706,-0.135646,0.0957618,4.74598,-11.8404,-14.219,13.3728,-17.6527,9.61597,5.385,-9.10368,4.37043,-1.19271e-15,3.18055e-15,-35.0775,7.8923,-87.1967,43.7888,-9.939,-3.66198,-17.9323,7.12502,22.0785,-46.6919,-1.19271e-15,3.18055e-15,-30.2886,15.4929,69.7924,28.3189,-0.320996,-17.2714,-2.9405,7.12502,8.97346,26.8487,-24.0037,-7.69876,24.9845,66.3005,-5.9633,-15.9418,16.6208,-11.6956,9.22286,-12.0354,29.5111,-13.8649,-6.72154,1.41791
-6.0068,17.7495,15.6212,157.393,-82.5428,-155.819,11.3376,0.364947,-3.28932,4.62947,-0.116267,-1.59463,-1.5244,-0.168932,0.214542,4.68933,-11.7225,-14.6345,13.5793,-17.5743,9.99635,5.51881,-9.07229,4.54323,3.18055e-15,3.18055e-15,-34.8904,8.10279,-87.4579,42.7661,-10.2287,-15.2688,-21.9973,7.12502,10.9055,-51.6941,3.18055e-15,3.18055e-15,-30.0225,15.2381,69.6081,28.9281,0.633527,-17.7623,-2.87351,7.12502,8.49977,26.9354,-24.9527,-7.50973,24.5033,65.5639,-6.4794,-14.7718,14.8215,-11.4394,9.12831,-12.7848,29.8946,-14.6885,-6.12432,-0.579727
-6.11921,17.734,15.6405,163.263,-82.6399,-161.447,11.2131,0.34009,-3.8796,4.53075,-0.207848,-1.69461,-1.55368,-0.216917,0.453419,4.96783,-11.6752,-14.5822,13.3524,-17.524,9.98277,5.38983,-9.05485,4.56152,1.43125e-14,3.49861e-14,-35.1985,6.74126,-87.0012,42.422,-9.26657,-5.96451,-17.7536,7.12502,19.8665,-46.7582,1.43125e-14,3.49861e-14,-29.9419,14.9452,69.5621,29.8352,1.59233,-17.7264,-2.7046,7.12502,8.53436,27.1029,-26.0393,-7.84741,23.9052,64.719,-6.8754,-13.4575,13.1472,-11.412,9.04279,-13.6933,30.1497,-15.2041,-5.78436,-1.74161
-6.22957,17.7193,15.6441,163.05,-82.4065,-160.93,11.084,0.317279,-3.76409,4.42524,-0.212956,-1.63154,-1.59335,-0.213686,0.45467,5.09557,-11.8433,-14.114,13.2773,-17.718,9.70237,5.30377,-9.14272,4.40378,-1.27222e-14,1.59028e-15,-35.5539,5.69052,-86.6906,42.4134,-8.57769,-4.45837,-18.4459,7.12502,21.3137,-47.2939,-1.27222e-14,1.59028e-15,-29.7522,14.163,69.4947,30.6008,2.79514,-18.0713,-2.76666,7.12502,8.20153,27.0542,-27.0259,-7.92525,24.4041,63.6845,-7.34767,-12.618,13.5146,-11.3703,9.30169,-13.5301,30.3226,-15.3585,-5.95605,-1.377
-6.34927,17.7118,15.6422,164.931,-82.1949,-162.588,10.8866,0.253901,-3.84102,4.38984,-0.297492,-1.75888,-1.51974,-0.255813,0.375648,4.82604,-11.8064,-14.2169,13.7852,-17.7504,10.0234,5.5466,-9.15027,4.48299,1.15295e-14,2.22639e-14,-35.8588,5.35046,-86.8383,42.5031,-8.45608,-5.28094,-19.9328,7.12502,20.5235,-48.868,1.15295e-14,2.22639e-14,-29.3818,13.9157,69.0823,30.9373,3.58608,-18.6329,-3.14378,7.12502,7.65947,26.6975,-27.9826,-7.87172,24.5697,62.6025,-7.88092,-11.8932,14.3591,-11.1529,9.74019,-13.66,30.3855,-15.1962,-6.48132,0.746327
-6.47041,17.6945,15.6597,167.888,-82.279,-165.753,11.1662,0.097702,-3.9543,4.4874,-0.542257,-1.89998,-1.5625,-0.382654,0.323256,4.48175,-11.7694,-14.616,14.1541,-17.7694,10.4258,5.7926,-9.1543,4.62789,-1.23246e-14,0,-35.5055,4.99281,-86.8127,41.4599,-8.40202,-8.22094,-21.1832,7.12502,17.6962,-50.3979,-1.23246e-14,0,-28.9083,14.5694,68.6725,30.999,3.48486,-19.2281,-3.69258,7.12502,7.08494,26.1688,-28.3808,-8.34541,24.2596,61.2509,-8.22249,-11.0159,12.8268,-10.5671,9.60368,-14.1532,30.5798,-16.0385,-6.77448,3.28483
-6.57271,17.6766,15.7255,181.495,-82.2006,-178.958,11.175,0.00661976,-4.93427,4.2538,-0.797689,-2.47285,-1.79447,-0.509494,0.310218,4.40291,-11.8165,-14.5275,14.049,-17.7777,10.2292,5.74871,-9.15625,4.55017,2.62396e-14,-4.45278e-14,-36.1798,4.17235,-86.5728,42.1259,-7.74448,-10.035,-23.1923,7.12502,15.95,-52.5556,2.62396e-14,-4.45278e-14,-28.6319,14.9467,68.3995,31.3495,3.29473,-19.8863,-3.83176,7.12502,6.44956,26.05,-29.7122,-9.22518,22.3636,59.9927,-8.59579,-9.37961,11.7526,-10.6061,9.7143,-16.4482,30.5739,-16.4033,-6.35183,0.287955
-6.7124,17.6622,15.6604,169.739,-81.468,-167.503,11.248,0.121545,-4.28029,4.44898,-0.545026,-1.71351,-1.64105,-0.386038,0.700474,4.56295,-11.8307,-14.4353,13.6954,-17.7401,10.0163,5.58016,-9.14274,4.49418,-3.57812e-15,2.22639e-14,-36.2289,4.17003,-86.4995,41.4457,-7.69179,-12.3101,-23.8198,7.12502,13.7582,-53.3449,-3.57812e-15,2.22639e-14,-28.3733,14.7626,68.3508,31.9058,3.74075,-20.6659,-3.62551,7.12502,5.69697,26.2779,-29.5423,-8.00816,24.7304,58.2761,-9.32362,-9.6482,12.704,-9.56724,9.79497,-14.2338,30.6347,-16.6445,-5.93261,-1.03514
-6.82156,17.6531,15.6479,176.874,-81.46,-174.274,10.9827,0.154915,-5.38804,4.33443,-0.605856,-1.84777,-1.59897,-0.423434,1.1875,4.47358,-11.8618,-14.3683,13.7715,-17.7724,9.95566,5.61132,-9.15498,4.45515,-1.98785e-14,9.54166e-15,-36.3099,2.98272,-86.0908,40.7521,-6.78677,-15.2157,-22.4138,7.12502,10.9567,-52.1079,-1.98785e-14,9.54166e-15,-28,14.3487,68.418,32.4368,4.66413,-21.4904,-3.57514,7.12502,4.90084,26.3482,-30.5982,-8.09407,24.0775,56.6735,-9.40988,-9.2786,12.8851,-9.58561,10.0653,-15.3444,30.5831,-16.6549,-6.47348,2.65818
-6.94037,17.6379,15.6455,181.87,-81.406,-179.096,10.8199,0.0625141,-5.96336,4.30444,-0.78466,-2.04384,-1.52339,-0.51876,1.32536,4.27243,-11.8635,-14.1552,14.0299,-17.7905,9.98914,5.71026,-9.14984,4.41512,-2.14687e-14,2.38542e-14,-36.4072,3.28833,-85.7553,40.4557,-7.52656,-15.6693,-20.9377,7.12502,10.5192,-50.6545,-2.14687e-14,2.38542e-14,-27.7391,14.0442,68.2381,33.1065,5.61391,-22.1122,-3.32911,7.12502,4.30038,26.6072,-31.2127,-8.42735,23.738,54.7689,-9.29941,-9.30932,10.9897,-9.38732,10.5723,-16.1123,30.6017,-16.8884,-7.09271,4.25009
-7.06639,17.6314,15.6427,182.915,-81.3963,-180.105,10.7723,-0.130969,-6.00314,4.35419,-1.04291,-2.1081,-1.42889,-0.651696,1.30977,4.49733,-11.7598,-14.8737,13.7919,-17.7559,10.6357,5.71672,-9.14853,4.73755,1.07344e-14,2.06736e-14,-36.3504,3.42908,-85.7503,40.0659,-7.89511,-14.2327,-21.4528,7.12502,11.9047,-51.0943,1.07344e-14,2.06736e-14,-27.5533,14.0158,67.8692,33.7542,6.15758,-22.5095,-2.92507,7.12502,3.91679,27.0187,-31.5239,-8.73552,23.9559,52.8228,-9.60698,-9.30253,10.1635,-8.89281,11.026,-16.2196,30.4651,-17.3058,-7.25003,2.75051
-7.18646,17.6343,15.6324,184.15,-81.2428,-181.129,10.6042,-0.226494,-5.98193,4.36072,-1.15805,-2.23894,-1.32607,-0.711229,1.17266,4.56284,-11.6299,-15.4231,13.7705,-17.7281,11.4871,5.81934,-9.13446,5.08751,-1.82882e-14,2.22639e-14,-36.0667,3.10866,-85.774,39.3189,-7.6977,-13.8133,-22.4318,7.12502,12.3091,-52.0495,-1.82882e-14,2.22639e-14,-27.1772,13.7851,67.4739,34.1763,6.39398,-22.6317,-2.90324,7.12502,3.79879,27.0426,-31.9725,-8.68422,24.176,50.743,-10.0848,-9.26056,11.323,-8.60074,11.1404,-16.4056,30.3397,-17.8136,-6.79287,0.680851
-7.30119,17.621,15.6234,186.482,-81.2021,-183.148,10.617,-0.201947,-6.54085,4.14725,-1.17423,-2.00886,-1.53518,-0.710515,1.72773,4.68963,-11.8014,-15.5089,13.6829,-17.9301,11.2191,5.7852,-9.24755,5.00333,-5.96354e-15,-5.00937e-14,-36.8781,1.35653,-84.467,39.9974,-6.44809,-12.748,-22.362,7.12502,13.3361,-51.9153,-5.96354e-15,-5.00937e-14,-27.0073,13.7714,67.6622,34.4887,6.40579,-22.6486,-3.49092,7.12502,3.78245,26.4553,-32.5311,-9.0188,24.4042,48.5597,-9.84104,-9.65208,9.40603,-8.46518,11.0322,-16.7905,30.1809,-18.1688,-6.35978,-0.946117
-7.42289,17.6085,15.6119,187.592,-81.2738,-184.078,10.6208,-0.365042,-6.66996,4.03676,-1.40262,-1.98862,-1.63063,-0.817573,1.84814,4.64244,-11.8027,-15.5455,13.8649,-17.9647,11.2682,5.86252,-9.26602,5.01349,-1.63003e-14,2.06736e-14,-37.3712,-0.210584,-83.6823,40.2536,-5.94695,-12.1386,-21.6281,7.12502,13.9235,-51.1419,-1.63003e-14,2.06736e-14,-26.9018,13.8284,67.4044,35.0075,6.66208,-22.9741,-3.74485,7.12502,3.46814,26.2067,-32.9164,-9.56238,24.8214,46.3011,-9.30669,-10.145,7.62233,-8.13445,11.2411,-16.8762,29.9906,-18.3237,-6.62057,-1.47722
-7.54848,17.603,15.5954,187.573,-81.4638,-183.887,10.5049,-0.661268,-6.58114,4.03794,-1.77252,-1.99316,-1.53951,-1.00225,1.83271,4.50284,-11.6244,-16.799,14.3695,-17.9771,12.4166,6.26618,-9.29166,5.5323,-2.66371e-14,-1.19271e-14,-37.1862,0.437197,-83.9033,39.828,-7.50519,-13.0274,-21.5225,7.12502,13.0668,-51.0932,-2.66371e-14,-1.19271e-14,-26.7484,13.7783,66.9968,35.7058,7.18897,-23.3376,-3.26304,7.12502,3.11709,26.6939,-33.1918,-9.91692,25.3773,43.9474,-8.92586,-10.8198,6.27297,-7.75786,11.5241,-16.705,29.7865,-18.4894,-7.02216,-1.76723
-7.67099,17.5842,15.5804,188.674,-80.9407,-184.825,10.3461,-0.703574,-6.8688,4.02658,-1.84432,-2.00476,-1.44847,-1.04284,1.98478,4.19224,-11.7366,-14.7133,14.0826,-17.7607,10.7633,5.85404,-9.13424,4.72791,1.51076e-14,-7.95139e-16,-37.5817,-1.18561,-83.1004,40.1881,-6.38991,-12.113,-21.5915,7.12502,13.9481,-51.1037,1.51076e-14,-7.95139e-16,-26.5134,13.5647,66.7313,36.221,8.03656,-23.6131,-3.00829,7.12502,2.85097,26.9524,-33.4586,-9.7744,25.7214,41.5202,-8.1271,-11.5188,4.02735,-7.23487,11.3993,-16.9589,29.4953,-18.8149,-6.46275,-1.19111
-7.79213,17.5759,15.5662,190.016,-80.6397,-185.85,10.1561,-0.801688,-7.09172,3.91943,-1.97753,-1.97835,-1.43509,-1.10642,2.14712,4.21144,-11.7935,-13.4593,13.6269,-17.6017,9.65127,5.47663,-9.03734,4.24004,9.93923e-15,2.70347e-14,-37.5508,-2.04173,-82.4006,40.1036,-5.95861,-12.3735,-21.6584,7.12502,13.6971,-51.1876,9.93923e-15,2.70347e-14,-26.2986,13.4324,66.5277,36.5782,8.747,-24.009,-3.1178,7.12502,2.46866,26.8477,-33.8625,-9.72663,26.0883,39.0801,-7.36807,-12.3893,4.08528,-6.87889,11.1305,-17.2386,29.0813,-18.8581,-6.23802,0.230564
-7.92342,17.5791,15.5491,190.316,-80.6857,-185.862,10.0071,-0.989422,-6.97899,3.7815,-2.19851,-1.94381,-1.48096,-1.20702,2.14147,4.34545,-11.7259,-13.6305,13.5567,-17.5384,9.74975,5.44884,-9.01619,4.31076,-3.89618e-14,1.11319e-14,-37.5523,-1.67767,-82.2152,39.782,-7.21172,-14.5805,-21.2179,7.12502,11.5694,-50.8786,-3.89618e-14,1.11319e-14,-26.2043,13.5192,66.1724,37.0249,8.78695,-24.1939,-3.26711,7.12502,2.29008,26.7003,-34.1417,-9.7386,26.5584,36.7228,-7.17557,-13.56,5.27507,-6.4347,11.1328,-17.21,28.5675,-18.7017,-6.46491,0.723263
-8.05436,17.5748,15.519,191.161,-80.3703,-186.788,10.1394,-0.9863,-7.26886,3.7352,-2.2377,-1.93158,-1.58554,-1.22436,2.32462,4.15387,-11.8401,-15.1073,14.1894,-17.932,10.8158,5.9592,-9.23348,4.77462,-4.6118e-14,-4.69132e-14,-37.7563,-1.84012,-81.851,39.7021,-8.14651,-14.9664,-20.9216,7.12502,11.1972,-50.6028,-4.6118e-14,-4.69132e-14,-26.1477,13.5532,65.8734,37.5717,8.87494,-24.0236,-3.3336,7.12502,2.45452,26.632,-34.0464,-9.46036,26.7252,34.5564,-7.57706,-14.7843,6.71702,-5.42806,11.6309,-17.2456,27.9009,-18.5784,-6.90748,1.4975
-8.1868,17.5711,15.5058,192.948,-80.3607,-188.478,10.034,-1.1221,-7.23717,3.71931,-2.41031,-2.06954,-1.53612,-1.31099,2.17847,3.94663,-11.8266,-15.9795,14.6919,-18.117,11.7361,6.34317,-9.32738,5.14032,-2.74323e-14,2.62396e-14,-37.8135,-2.46887,-81.6079,39.4517,-8.89665,-14.8843,-21.1849,7.12502,11.2763,-50.8618,-2.74323e-14,2.62396e-14,-25.9226,13.377,65.5791,38.0594,9.1402,-23.6718,-3.04501,7.12502,2.79436,26.9164,-34.2536,-9.6428,26.8806,32.5935,-8.36752,-15.841,7.17635,-4.63729,11.2798,-17.577,27.1116,-18.5834,-6.64114,2.27989
-8.32239,17.5617,15.486,194.969,-80.0684,-190.441,9.89268,-1.15025,-7.52138,3.71163,-2.46851,-2.19717,-1.45388,-1.34517,2.20486,4.4933,-11.7294,-16.8519,14.226,-18.1422,12.5412,6.26426,-9.37039,5.56062,-5.80451e-14,-1.03368e-14,-38.2891,-3.85118,-80.8358,40.104,-8.89416,-16.3996,-21.9114,7.12502,9.81464,-51.6627,-5.80451e-14,-1.03368e-14,-25.7524,13.1918,65.313,38.5006,9.20596,-23.6393,-2.56815,7.12502,2.8257,27.3929,-34.4921,-9.74255,26.9855,30.8165,-8.56022,-16.8584,1.41517,-3.80918,11.1449,-18.0048,26.3975,-18.7269,-6.30667,2.83307
-8.46008,17.5496,15.4619,197.136,-79.8026,-192.577,9.72395,-1.19744,-7.99037,3.71452,-2.55839,-2.18632,-1.32607,-1.39821,2.47867,4.44891,-11.9519,-13.4569,13.4007,-17.8603,9.79844,5.41136,-9.16749,4.28127,-1.98785e-14,-1.11319e-14,-38.3245,-3.88788,-80.2018,40.211,-9.54136,-19.5834,-22.9085,7.12502,6.74196,-52.7811,-1.98785e-14,-1.11319e-14,-25.6741,13.0059,65.3275,38.9323,9.36277,-23.9626,-2.25084,7.12502,2.51346,27.7141,-34.6974,-9.97827,27.0068,29.1244,-8.59697,-17.9103,2.57304,-3.07898,11.3687,-18.3588,25.9692,-19.0105,-6.47245,2.20907
-8.59542,17.5163,15.4427,198.094,-79.6451,-193.376,9.50954,-1.2832,-8.04245,3.67225,-2.65224,-2.15915,-1.23863,-1.44582,2.53751,4.19323,-12.2248,-12.1297,13.3045,-17.9904,8.53083,5.2057,-9.20696,3.69185,3.73715e-14,5.88403e-14,-38.3498,-3.88336,-79.7112,40.3406,-10.5365,-20.7949,-23.3319,7.12502,5.57236,-53.2386,3.73715e-14,5.88403e-14,-25.5018,12.6246,65.3048,39.2563,9.63637,-24.0589,-2.40917,7.12502,2.42046,27.5568,-35.005,-10.7944,27.6824,27.5595,-8.43566,-18.864,1.86248,-2.54726,11.2621,-18.4948,25.7064,-19.3403,-6.4999,1.62802
-8.73039,17.4719,15.4059,198.223,-79.6479,-193.299,9.22957,-1.3767,-8.08406,3.63202,-2.74491,-2.08248,-1.11051,-1.49374,2.63847,4.08464,-12.3908,-11.2642,13.1271,-18.0858,7.8863,5.04192,-9.23453,3.37395,1.47101e-14,1.19271e-14,-38.6011,-4.35651,-79.1649,40.6793,-11.1949,-19.8854,-22.5561,7.12502,6.45049,-52.4378,1.47101e-14,1.19271e-14,-25.2848,12.1243,65.1276,39.584,9.90739,-23.8196,-2.87453,7.12502,2.65156,27.0887,-35.3002,-11.4066,28.6596,26.2663,-8.23255,-20.2321,-0.335206,-2.08101,11.4073,-18.2923,25.3802,-19.3547,-7.06565,2.65756
-8.86351,17.4605,15.37,198.301,-79.6686,-193.291,9.06178,-1.37079,-7.99044,3.69652,-2.70211,-1.94945,-0.952892,-1.47894,2.71246,3.93889,-12.5484,-11.2516,13.0012,-18.2707,7.91725,5.04707,-9.31481,3.35814,4.7112e-14,9.54166e-15,-38.7942,-5.69827,-78.1415,40.8274,-9.96004,-19.5439,-21.9679,7.12502,6.78015,-51.8394,4.7112e-14,9.54166e-15,-24.8341,11.7818,65.326,39.864,9.96398,-23.7142,-3.15479,7.12502,2.75337,26.8072,-35.3488,-10.444,28.5912,25.2791,-11.3772,-21.6985,5.5198,-1.48672,12.0101,-17.9838,24.9919,-19.2538,-7.92889,2.6419
-8.99928,17.4668,15.3351,200.655,-79.3835,-195.69,8.97742,-1.08283,-8.17972,3.84966,-2.32214,-1.84715,-0.772658,-1.30556,2.88434,3.40432,-12.9443,-12.1019,13.1843,-18.8073,8.25692,5.35924,-9.5736,3.47371,3.18055e-15,1.51076e-14,-38.7373,-6.91925,-76.6162,41.1098,-9.66959,-19.7705,-22.0593,7.12502,6.56132,-51.9377,3.18055e-15,1.51076e-14,-23.9406,11.4576,66.2128,39.9663,9.79673,-23.8991,-3.38426,7.12502,2.57476,26.5799,-35.3334,-7.90219,27.0625,24.5829,-15.4232,-23.8365,11.582,-0.725548,12.2636,-18.3278,24.5494,-19.3046,-8.08341,2.08091
-9.13384,17.4523,15.3035,202.779,-78.9559,-197.889,9.04832,-1.49461,-9.00551,3.49076,-2.96893,-2.08657,-1.08278,-1.60886,3.15924,4.42587,-12.3939,-11.5196,12.9148,-18.1437,8.05858,4.96553,-9.27968,3.48492,-4.21423e-14,1.59028e-14,-39.0837,-6.11651,-76.9593,41.4288,-10.5249,-20.2097,-22.301,7.12502,6.13733,-52.1921,-4.21423e-14,1.59028e-14,-25.106,11.9307,64.9467,40.549,10.0485,-23.8247,-3.40907,7.12502,2.64667,26.5543,-35.3605,-6.29524,26.0994,24.2151,-17.1048,-25.819,11.7833,0.178441,12.3599,-18.7686,23.9127,-19.215,-8.05391,2.71327
-9.26364,17.4203,15.267,200.949,-78.6473,-196.128,9.16268,-1.04942,-8.32853,3.64286,-2.31857,-1.86007,-1.08521,-1.28577,2.96447,3.89104,-12.8338,-12.7614,13.1196,-18.7943,8.7445,5.36691,-9.59712,3.74431,9.93923e-16,-9.54166e-15,-39.0925,-7.65418,-75.3199,41.7221,-10.6062,-20.3647,-22.6903,7.12502,5.98775,-52.5857,9.93923e-16,-9.54166e-15,-24.0853,11.0954,65.9686,40.6544,9.84959,-23.6551,-3.46352,7.12502,2.81045,26.4977,-35.2503,-5.25613,26.4173,24.1705,-17.954,-27.0435,12.3878,1.22532,12.6133,-18.3368,23.1887,-18.9156,-8.24971,3.59535
-9.3885,17.4113,15.2926,201.76,-78.5052,-196.515,8.87495,-1.15144,-7.16264,3.53095,-2.33011,-2.07314,-1.10459,-1.2744,2.09034,3.66326,-12.9769,-13.5626,13.3766,-19.0664,9.24949,5.64183,-9.73503,3.94666,2.06736e-14,-9.54166e-15,-39.073,-8.56576,-74.3545,41.848,-10.0839,-20.1444,-22.3987,7.12502,6.20041,-52.2879,2.06736e-14,-9.54166e-15,-23.7313,10.4964,66.0987,40.8223,9.86648,-23.8029,-3.61804,7.12502,2.66773,26.345,-35.8976,-5.89484,26.6344,24.1947,-18.1939,-26.0866,16.1113,1.34067,11.6437,-18.9671,22.7375,-18.8948,-7.0418,2.56877
-9.51549,17.4029,15.3358,204.928,-78.2893,-199.666,9.01148,-1.42833,-6.59442,3.44293,-2.67723,-2.39657,-1.28609,-1.43532,1.47872,3.62533,-12.7383,-14.1332,13.142,-18.7641,9.64309,5.63011,-9.59437,4.17485,-6.55989e-15,7.15625e-15,-39.0106,-8.95173,-73.7364,42.1763,-9.92295,-20.0463,-21.8966,7.12502,6.29509,-51.7831,-6.55989e-15,7.15625e-15,-23.7871,10.2738,66.0148,41.0497,10.0547,-23.8659,-3.56947,7.12502,2.60688,26.3943,-36.3033,-7.91292,26.6838,24.4488,-16.991,-23.8827,19.4664,1.75821,10.5975,-20.1857,22.3524,-18.9403,-5.49497,0.506196
-9.65553,17.3878,15.2972,204.836,-78.1124,-199.419,8.68693,-1.54103,-6.59488,3.3941,-2.78903,-2.25231,-1.14191,-1.49148,1.62655,3.38742,-12.664,-14.8745,13.5497,-18.7316,9.95227,5.89395,-9.59359,4.3419,-1.25234e-14,-7.95139e-16,-39.2971,-9.87469,-72.7999,43.063,-9.2422,-18.7329,-22.6959,7.12502,7.56298,-52.5407,-1.25234e-14,-7.95139e-16,-23.9027,10.178,66.027,41.2965,10.1847,-23.7108,-3.65835,7.12502,2.75668,26.3036,-36.5378,-9.05715,27.6565,24.9258,-14.6798,-22.9225,19.4312,2.3531,10.9745,-19.9872,21.9255,-18.6447,-5.73203,0.503523
-9.79825,17.3669,15.2259,203.602,-77.7747,-198.871,9.18916,-1.45023,-6.96791,3.56315,-2.74397,-2.13167,-1.22125,-1.47805,1.96952,3.18225,-12.7548,-15.542,14.152,-18.9577,10.256,6.24286,-9.71913,4.46765,-3.51849e-14,8.74653e-15,-39.8536,-11.2228,-71.7506,44.3562,-8.37087,-15.1545,-25.0718,7.12502,11.0158,-54.7627,-3.51849e-14,8.74653e-15,-23.9574,9.90493,65.8986,41.4857,10.2221,-24.0739,-3.97351,7.12502,2.40601,25.9927,-35.7363,-9.29085,28.0682,25.6708,-13.7846,-22.296,20.9422,4.04304,11.3929,-19.4767,21.43,-18.3637,-6.22614,1.10063
-9.93805,17.3636,15.2111,205.24,-77.6811,-200.07,8.65266,-1.65698,-6.57212,3.40402,-2.93873,-2.26293,-1.10324,-1.56762,1.61409,3.35116,-12.758,-15.9265,14.1136,-19.0453,10.6098,6.2867,-9.77204,4.6308,-9.74045e-15,7.95139e-15,-39.2389,-11.022,-71.2772,44.1692,-9.535,-21.9913,-19.8528,7.12502,4.41713,-49.7868,-9.74045e-15,7.95139e-15,-24.053,9.54079,65.8044,41.7135,10.1651,-24.5615,-3.92801,7.12502,1.93507,26.043,-36.3289,-9.90266,28.1544,26.2773,-13.2251,-21.1551,23.2231,4.09926,10.5411,-20.0415,21.1876,-18.3044,-5.34899,-0.229286
-10.0879,17.3432,15.1555,205.009,-77.6095,-200.33,8.94822,-1.65003,-6.78203,3.5155,-2.96918,-2.13845,-1.12968,-1.58864,1.87094,3.43688,-12.7221,-16.2765,14.1164,-19.075,10.9671,6.34662,-9.79294,4.79104,2.78299e-15,6.04305e-14,-39.2874,-11.533,-70.5174,44.8564,-10.08,-19.376,-22.6415,7.12502,6.94219,-52.5077,2.78299e-15,6.04305e-14,-24.2022,9.53669,65.9014,41.9894,9.8034,-24.2411,-3.72354,7.12502,2.24452,26.2444,-35.7219,-9.31218,27.8348,27.1569,-13.4445,-21.0507,25.5246,5.50041,10.7703,-19.7067,20.6543,-18.0392,-5.77491,-1.83016
-10.2317,17.36,15.1594,204.789,-77.5706,-199.33,8.12038,-1.8257,-5.71604,3.27717,-3.0379,-2.11292,-0.972395,-1.60588,1.28351,3.22877,-12.815,-16.9252,14.4952,-19.3044,11.4266,6.64634,-9.90975,4.96838,5.40694e-14,-7.95139e-15,-39.4352,-12.254,-69.5572,45.7619,-10.0747,-18.6453,-23.2355,7.12502,7.64753,-53.0772,5.40694e-14,-7.95139e-15,-24.3162,9.71522,66.0498,42.1909,9.07983,-23.671,-4.05759,7.12502,2.79511,25.9038,-36.717,-9.02896,27.9205,28.0747,-13.563,-20.4127,28.6996,5.31908,10.0621,-19.8733,20.083,-17.1723,-5.43657,-1.48396
-10.3907,17.3449,15.1205,208.063,-77.1487,-203.375,8.48894,-1.87339,-6.6061,3.47259,-3.20889,-2.1762,-0.91407,-1.71009,1.73547,3.30019,-12.8071,-16.5007,14.0039,-19.1215,10.7577,6.3433,-9.82456,4.74055,3.4191e-14,7.55382e-15,-39.1565,-12.6019,-68.6024,46.3755,-10.0014,-19.2982,-23.256,7.12502,7.01727,-53.1197,3.4191e-14,7.55382e-15,-24.5416,9.98333,66.2508,42.2663,8.40506,-23.2582,-4.61458,7.12502,3.1937,25.3412,-35.9859,-8.73556,26.5276,29.0468,-14.026,-20.5224,31.7245,6.87192,9.88288,-20.6852,19.5392,-16.3444,-5.75375,-0.97735
-10.5525,17.3187,15.0365,211.042,-77.1623,-207.344,9.08306,-2.03593,-7.92323,3.67897,-3.5892,-2.02271,-0.899656,-1.92368,2.67493,3.66085,-12.6976,-16.8116,13.4724,-18.9663,10.7909,6.1271,-9.77035,4.84876,-9.14409e-15,2.62396e-14,-39.0859,-12.7105,-67.6262,47.3102,-9.62103,-19.9854,-23.7621,7.12502,6.3539,-53.6468,-9.14409e-15,2.62396e-14,-24.9219,10.3196,66.422,42.2347,8.14615,-23.1351,-4.85493,7.12502,3.31262,25.0991,-34.7731,-8.83059,25.5487,29.6729,-13.6642,-21.2114,33.2411,8.32601,9.97324,-20.8398,19.724,-15.8417,-6.59903,-2.36147
-10.7178,17.3098,14.9382,210.035,-77.6947,-206.936,9.47468,-2.12962,-7.92625,3.73192,-3.74409,-1.80457,-1.02837,-1.99865,2.9347,3.84499,-12.6691,-16.4337,13.3289,-18.9042,10.5213,5.97914,-9.74243,4.74026,-1.0635e-14,-4.37326e-14,-39.7234,-13.7637,-66.4573,48.6224,-8.19681,-18.9334,-24.5784,7.12502,7.36947,-54.4301,-1.0635e-14,-4.37326e-14,-25.2255,10.1164,66.4642,42.2188,7.99906,-23.4497,-5.01109,7.12502,3.00881,24.9474,-33.6857,-8.10551,25.6483,30.3779,-13.1389,-22.6562,33.1081,9.41435,9.8088,-19.765,20.0425,-15.1353,-7.32265,-3.39953
-10.8648,17.3218,14.9357,205.16,-77.7389,-201.043,8.76819,-2.08956,-5.5004,3.2054,-3.41103,-1.82618,-1.3761,-1.77813,1.52273,4.02495,-12.9092,-16.2159,13.5089,-19.2954,10.5068,6.0381,-9.93487,4.67057,2.28602e-14,3.61788e-14,-40.4366,-14.1798,-65.9856,50.0739,-11.075,-21.1905,-24.9133,7.12502,5.19041,-54.8297,2.28602e-14,3.61788e-14,-25.4626,9.12803,66.533,42.2574,7.84206,-23.6197,-5.11211,7.12502,2.84468,24.8487,-34.5345,-8.12484,27.1891,30.8502,-10.8746,-22.693,31.0498,8.42186,9.21365,-18.9623,20.764,-14.4947,-6.45144,-4.77072
-11.0084,17.3207,14.9017,206.68,-77.6644,-202.848,8.81698,-2.23229,-6.02792,3.37019,-3.63962,-1.60111,-1.16718,-1.90678,2.06372,3.60887,-13.0482,-14.7843,13.0504,-19.118,8.9791,5.65016,-9.81938,4.02018,3.18055e-15,8.74653e-15,-39.6629,-14.2897,-64.9623,50.7973,-10.7812,-20.8019,-25.5087,7.12502,5.56565,-55.4156,3.18055e-15,8.74653e-15,-25.5841,9.53808,66.9685,42.2464,7.54537,-23.6214,-5.25571,7.12502,2.84297,24.7051,-34.1367,-8.29773,26.7243,31.2208,-10.0139,-22.8005,30.4383,8.37045,8.48592,-19.3641,21.9011,-13.8169,-6.10801,-6.36463
-11.1742,17.316,14.7843,205.479,-77.695,-202.241,9.18624,-2.05828,-6.11876,3.35372,-3.45018,-1.62407,-1.39858,-1.80726,2.09343,4.10118,-13.1725,-16.0262,13.4636,-19.6382,10.2875,6.0186,-10.1033,4.54437,-1.63997e-14,-3.97569e-15,-40.2299,-15.4661,-63.9781,51.5451,-9.75532,-21.1703,-25.4321,7.12502,5.20987,-55.348,-1.63997e-14,-3.97569e-15,-25.9222,8.56338,67.0072,42.1718,7.15668,-23.7396,-5.51401,7.12502,2.72881,24.4483,-32.8851,-7.86892,26.8419,31.5212,-10.6807,-22.9601,30.3471,8.82258,8.46204,-18.5284,23.4294,-12.995,-6.93947,-6.44394
-11.3288,17.3097,14.7222,202.149,-77.8493,-199.696,9.8267,-2.35897,-5.94927,3.54476,-3.86893,-1.23266,-1.50244,-2.01996,2.47067,4.15303,-13.007,-16.2249,13.3729,-19.4036,10.197,5.96018,-10.0048,4.5763,-6.50026e-14,1.51076e-14,-39.399,-15.3719,-63.5106,52.1444,-9.64669,-21.6717,-25.2598,7.12502,4.72576,-55.1871,-6.50026e-14,1.51076e-14,-26.6649,9.4499,66.8905,42.1401,6.56182,-23.5828,-5.78122,7.12502,2.88023,24.1791,-31.5327,-8.52743,27.5389,31.8269,-11.0563,-22.1946,30.5341,9.33793,7.98797,-17.572,25.0116,-11.962,-7.28795,-6.4064
-11.4759,17.3176,14.6991,200.537,-77.5228,-197.778,9.43631,-2.42649,-5.68579,3.40497,-3.88625,-0.826698,-1.42068,-2.02254,2.72811,4.31912,-13.0485,-16.1551,13.0477,-19.3972,9.84565,5.78894,-10.0129,4.4813,-9.29318e-15,-2.8625e-14,-38.8294,-15.611,-62.3673,53.0777,-9.40366,-20.7686,-26.5939,7.12502,5.59781,-56.4999,-9.29318e-15,-2.8625e-14,-27.0708,10.0679,67.3902,41.9436,6.04617,-23.2605,-5.98313,7.12502,3.19156,23.9727,-31.4692,-8.96047,28.0318,31.988,-10.6569,-21.5093,30.8129,8.36624,7.86865,-17.3101,26.7944,-10.5891,-7.23123,-6.65205
-11.6305,17.327,14.6733,194.079,-76.6645,-190.76,8.75086,-2.20418,-4.24571,3.2629,-3.40164,-0.367182,-1.29213,-1.7686,2.3254,4.39949,-13.1259,-15.5622,12.864,-19.4138,9.30071,5.60814,-10.0171,4.24996,-4.51738e-14,-2.56432e-14,-38.4493,-15.9304,-61.3977,54.1121,-9.1011,-20.6384,-27.6899,7.12502,5.7235,-57.5926,-4.51738e-14,-2.56432e-14,-27.3123,10.3755,67.801,41.7206,5.54435,-23.0694,-6.1767,7.12502,3.37612,23.7763,-31.2724,-8.17221,29.5543,32.0849,-10.2494,-21.2262,29.9927,7.43172,8.5329,-15.8929,28.6771,-9.0746,-7.15908,-6.58105
-11.7859,17.3287,14.575,190.242,-76.427,-187.314,8.86442,-2.16002,-4.19437,3.34748,-3.33486,0.0827345,-1.24698,-1.74113,2.75828,4.08368,-12.9905,-15.0514,12.529,-19.0325,8.6154,5.39086,-9.81832,4.00495,1.4064e-14,3.37934e-15,-38.0276,-16.0727,-60.7233,55.0484,-8.82632,-21.3267,-27.9417,7.12502,5.05888,-57.8613,1.4064e-14,3.37934e-15,-27.8601,10.8452,67.9071,41.6887,5.00847,-22.479,-6.44122,7.12502,3.94626,23.502,-29.9648,-7.60336,30.3892,32.0964,-10.5895,-21.45,29.1242,7.31135,9.20799,-14.2471,30.7486,-7.17835,-8.06094,-6.98983
-11.9455,17.3208,14.437,188.734,-76.2342,-187.155,9.73011,-2.02927,-5.37236,3.64215,-3.3202,0.343606,-1.3308,-1.7566,3.72135,5.38243,-12.9482,-15.655,11.8166,-19.2548,9.59549,5.13845,-9.95924,4.47351,3.67255e-14,-2.09718e-14,-37.7491,-16.3308,-60.1703,56.0546,-8.80283,-21.7761,-29.4472,7.12502,4.62495,-59.3767,3.67255e-14,-2.09718e-14,-28.5041,11.1189,67.784,41.5807,4.25554,-21.581,-6.71604,7.12502,4.81337,23.2093,-27.6386,-6.95161,30.3111,32.1249,-11.5979,-22.0016,29.2754,8.16426,9.64682,-13.025,32.8301,-5.09603,-9.04471,-6.81365
-12.0903,17.3475,14.4145,185.283,-75.6866,-183.613,9.75891,-2.03501,-3.96681,3.50638,-3.19354,0.418168,-1.57838,-1.67299,3.00514,5.19588,-13.0548,-15.9615,12.3889,-19.5178,9.98073,5.44872,-10.0923,4.57025,3.50606e-14,-1.88845e-15,-37.5604,-16.7671,-59.6732,57.3822,-9.07212,-23.0421,-26.0128,7.12502,3.40244,-55.9654,3.50606e-14,-1.88845e-15,-28.9212,11.1448,67.642,41.2668,3.2413,-20.9314,-6.76819,7.12502,5.44061,23.142,-27.1337,-7.16007,31.1764,32.2088,-12.0182,-21.1227,30.1365,7.1488,9.47519,-12.233,35.0791,-3.18625,-8.41501,-5.822
-12.2348,17.3692,14.3725,183.94,-74.9518,-181.99,9.44714,-1.92635,-3.29564,3.33263,-2.96792,0.438994,-1.63991,-1.54895,2.61848,4.90303,-13.2482,-15.9836,12.8359,-19.8195,10.0772,5.68857,-10.233,4.53304,2.98177e-15,-8.64713e-15,-37.4006,-17.2708,-59.1086,58.7945,-8.87985,-23.9621,-23.9906,7.12502,2.51393,-53.9555,2.98177e-15,-8.64713e-15,-29.3485,10.9776,67.6055,41.0929,2.42472,-20.5038,-6.54753,7.12502,5.8534,23.3516,-26.8279,-7.67066,31.7942,32.2423,-12.0221,-19.9566,30.3962,5.91069,10.1297,-11.5718,37.3636,-1.09255,-8.45257,-5.53131
