JuanDHNZ/ProyectoFinalCD/preprocessing/sports_trials_csv/01_02.csv
root1,root2,root3,root4,root5,root6,lowerback1,lowerback2,lowerback3,upperback1,upperback2,upperback3,thorax1,thorax2,thorax3,lowerneck1,lowerneck2,lowerneck3,upperneck1,upperneck2,upperneck3,head1,head2,head3,rclavicle1,rclavicle2,rhumerus1,rhumerus2,rhumerus3,rradius1,rwrist1,rhand1,rhand2,rfingers1,rthumb1,rthumb2,lclavicle1,lclavicle2,lhumerus1,lhumerus2,lhumerus3,lradius1,lwrist1,lhand1,lhand2,lfingers1,lthumb1,lthumb2,rfemur1,rfemur2,rfemur3,rtibia1,rfoot1,rfoot2,rtoes1,lfemur1,lfemur2,lfemur3,ltibia1,lfoot1,lfoot2,ltoes1
-7.4145,17.6804,24.0195,175.08,-50.7408,-172.035,7.30158,2.66607,5.7585,2.83839,3.78839,2.87908,-0.962548,1.8231,-0.544853,-6.36296,7.34039,0.0877498,6.6595,9.96286,-1.99093,3.37887,4.85379,-0.17048,-1.4064e-13,3.18055e-14,-30.2095,-21.3193,-68.2424,25.3632,-8.26987,-19.0621,-24.3782,7.12502,7.24522,-54.2342,-1.4064e-13,3.18055e-14,-29.0277,7.22109,81.1966,30.2418,-4.09316,-10.7349,-8.62996,7.12502,15.2759,20.7859,-9.39768,-1.63136,27.6901,29.8142,-16.7806,-10.1734,16.0823,-11.045,-0.14128,-12.2153,29.9047,-18.1694,-11.9293,0.480299
-7.41381,17.6668,23.9967,175.037,-50.653,-172.052,7.268,2.70359,5.71243,2.81007,3.83687,2.85572,-0.972614,1.84787,-0.546093,-6.36449,7.30417,0.0696519,6.78336,9.90599,-1.83278,3.41081,4.82976,-0.117017,8.05078e-14,-3.65764e-14,-30.2791,-21.6053,-68.0941,25.4308,-8.45451,-19.8558,-23.9894,7.12502,6.47906,-53.8703,8.05078e-14,-3.65764e-14,-29.2017,7.99578,80.884,29.4063,-4.60104,-10.4691,-8.83773,7.12502,15.5318,20.5585,-9.35385,-2.4678,27.674,29.9173,-16.8032,-9.37214,15.5997,-10.9032,-0.463155,-12.4918,29.9218,-18.3367,-10.1813,-0.066918
-7.41202,17.6632,23.974,174.315,-50.3925,-171.262,7.28988,2.76528,6.07737,2.80726,3.93519,3.08042,-0.97177,1.89123,-0.523799,-6.25818,7.22414,-0.0452896,6.85989,9.79881,-1.70149,3.40134,4.7785,-0.0646845,-4.53229e-14,2.06736e-14,-30.2478,-21.4411,-67.9978,25.5955,-8.94586,-20.6579,-23.9383,7.12502,5.7046,-53.8415,-4.53229e-14,2.06736e-14,-29.3776,9.04905,80.6231,28.5661,-5.13911,-10.1152,-9.07978,7.12502,15.8727,20.2896,-9.03349,-1.39061,28.4409,29.671,-16.7948,-10.212,15.8406,-10.6933,-0.837973,-12.0941,29.9966,-18.6901,-7.74418,-3.00435
-7.41202,17.6669,23.9528,173.752,-50.0496,-170.671,7.29781,2.85869,6.31597,2.81669,4.06626,3.27487,-0.95546,1.95167,-0.463875,-5.93892,7.12542,-0.0511105,6.68348,9.66073,-1.71371,3.27822,4.7146,-0.0926279,2.67365e-14,8.74653e-15,-30.3046,-21.4905,-67.7703,25.7064,-8.4282,-19.1163,-24.1299,7.12502,7.19292,-53.9877,2.67365e-14,8.74653e-15,-29.7539,9.0949,80.6478,28.1504,-4.70184,-10.2701,-8.94371,7.12502,15.7236,20.4375,-8.81707,-0.867726,29.0025,29.6071,-16.8044,-10.4974,16.1683,-10.3123,-1.77194,-11.7693,29.9326,-18.8441,-5.37496,-4.93328
-7.4193,17.6732,23.9425,174.544,-49.9983,-171.455,6.98493,2.84689,5.79333,2.76541,4.00711,3.17095,-0.869884,1.92882,-0.264442,-5.59311,7.10705,0.147172,6.47495,9.62874,-1.94613,3.16531,4.70025,-0.219813,-1.31198e-14,3.18055e-14,-30.2823,-21.5988,-67.5987,25.6598,-7.73609,-17.065,-23.8636,7.12502,9.17266,-53.6441,-1.31198e-14,3.18055e-14,-30.3288,8.68664,80.7835,28.138,-3.81122,-10.4825,-8.35701,7.12502,15.5189,21.0402,-8.93405,-1.1116,28.4211,29.4973,-16.6917,-10.188,16.5598,-10.2269,-3.00639,-12.5011,29.8175,-18.8663,-3.62824,-5.01087
-7.42494,17.6752,23.9317,175.042,-49.9761,-171.871,6.66671,2.78275,5.44454,2.72696,3.88486,3.1825,-0.764641,1.87149,-0.037051,-5.50914,7.16506,0.104974,6.47338,9.71546,-2.04013,3.15314,4.73881,-0.242166,7.7526e-15,-2.06736e-14,-30.0541,-20.9178,-67.812,25.9299,-8.4044,-16.3007,-24.9484,7.12502,9.91008,-54.6951,7.7526e-15,-2.06736e-14,-30.6949,9.09179,80.7555,27.791,-3.49126,-10.6169,-7.9079,7.12502,15.3895,21.4993,-9.06207,-1.1866,28.1334,29.4394,-16.6761,-10.054,16.7343,-10.2048,-3.7133,-12.8728,29.642,-18.8026,-2.62439,-5.84034
-7.42394,17.6752,23.9166,174.883,-49.8315,-171.704,6.66568,2.80646,5.49248,2.68929,3.92126,3.22199,-0.800966,1.88804,-0.0263656,-5.54781,7.16129,0.218406,6.61622,9.70788,-2.09087,3.21923,4.73299,-0.272183,-2.32578e-14,-3.18055e-15,-29.9976,-20.6352,-67.9244,26.3081,-8.45643,-15.7965,-26.3865,7.12502,10.3965,-56.1095,-2.32578e-14,-3.18055e-15,-30.8373,9.84393,80.4084,27.0171,-4.10312,-10.4124,-7.71108,7.12502,15.5865,21.6809,-8.97959,-0.859702,28.3429,29.4359,-16.7846,-10.1496,16.7481,-9.99749,-3.87881,-12.6927,29.4096,-18.6497,-2.19524,-6.85107
-7.42188,17.6828,23.8959,175.042,-49.6528,-171.935,6.60443,2.8989,5.25417,2.6794,4.03216,3.12408,-0.78351,1.94639,9.04168e-05,-5.87292,7.10843,0.530976,7.03068,9.62453,-2.13238,3.44458,4.68864,-0.317846,-1.92821e-14,1.59028e-14,-30.0275,-20.9886,-67.9098,26.4019,-8.00716,-15.4958,-26.4736,7.12502,10.6865,-56.1818,-1.92821e-14,1.59028e-14,-30.904,10.5898,79.871,26.1699,-5.08066,-9.51323,-7.75765,7.12502,16.4523,21.5647,-8.87859,-0.373801,28.2944,29.4018,-16.8716,-10.3488,16.8959,-9.83182,-3.64946,-12.7356,29.2319,-18.5056,-2.47029,-6.16369
-7.41973,17.6913,23.8677,175.251,-49.5351,-172.185,6.38508,2.97678,4.91166,2.70911,4.10451,3.04282,-0.648089,1.98767,0.113933,-6.16409,7.07454,0.551615,7.28695,9.56836,-1.93884,3.57887,4.66343,-0.244318,-5.76476e-15,-1.43125e-14,-30.0904,-21.1536,-68.0638,26.44,-8.35169,-16.1962,-25.377,7.12502,10.0109,-55.119,-5.76476e-15,-1.43125e-14,-30.9483,11.3994,79.3126,25.409,-6.00567,-8.52975,-7.9278,7.12502,17.3991,21.3135,-8.81054,0.0177861,28.2493,29.4029,-16.9281,-10.6639,16.7119,-9.74626,-3.03473,-12.7597,29.052,-18.3959,-3.10986,-5.76849
-7.41532,17.6901,23.845,175.419,-49.4667,-172.515,6.34698,3.01276,4.56244,2.74657,4.13201,2.97999,-0.608915,2.00298,0.243531,-6.09912,7.04892,0.387541,7.14693,9.5301,-1.7407,3.49541,4.65146,-0.161804,1.46107e-14,-9.54166e-15,-30.1414,-21.0871,-68.2656,26.7861,-8.83901,-16.8663,-25.3728,7.12502,9.36439,-55.1448,1.46107e-14,-9.54166e-15,-31.0378,12.5037,78.7395,24.7658,-6.96337,-7.92296,-7.79992,7.12502,17.983,21.3887,-8.72564,0.218934,28.1114,29.5231,-17.0586,-10.792,16.8592,-9.5666,-2.45555,-12.8568,28.8349,-18.2354,-3.73008,-5.26815
-7.40922,17.684,23.827,175.796,-49.3994,-173.221,6.43406,2.98427,3.89249,2.7918,4.06393,2.94606,-0.659148,1.96689,0.578895,-6.00517,7.08482,0.122038,7.05458,9.58927,-1.612,3.42292,4.68098,-0.0802913,1.35074e-13,-4.21423e-14,-30.0072,-20.4309,-68.6581,27.378,-9.05155,-17.2538,-27.0143,7.12502,8.99047,-56.8027,1.35074e-13,-4.21423e-14,-31.234,13.6617,78.2929,24.1466,-7.53127,-8.16921,-7.6575,7.12502,17.746,21.5527,-8.6183,0.532161,27.6949,29.7366,-17.2955,-10.8792,17.4339,-9.2658,-2.11896,-13.227,28.6325,-18.0039,-4.35482,-3.92767
-7.39997,17.6711,23.8054,176.096,-49.3695,-173.651,6.38379,2.93276,3.29953,2.76295,3.96678,2.96704,-0.706464,1.91678,0.935939,-5.91641,7.17127,-0.0456788,7.11046,9.71379,-1.54256,3.41272,4.7403,-0.0269795,-1.11319e-14,1.59028e-15,-29.9213,-19.4794,-69.2439,27.7223,-8.63039,-18.0047,-27.9938,7.12502,8.26582,-57.8121,-1.11319e-14,1.59028e-15,-31.5115,14.252,78.0007,23.5997,-7.82857,-8.71472,-7.4954,7.12502,17.221,21.7615,-8.66547,0.639949,27.5004,30.0067,-17.5006,-10.9589,17.049,-9.13042,-1.64925,-13.3471,28.4374,-17.786,-5.19836,-2.63779
-7.38913,17.6578,23.783,176.149,-49.3775,-173.606,6.25109,2.92726,3.12962,2.68206,3.95398,2.91958,-0.725144,1.91254,0.986468,-5.87577,7.19711,0.153979,7.21901,9.73269,-1.55627,3.45521,4.75296,-0.0621113,-3.16068e-14,2.78299e-14,-30.0676,-19.9835,-69.2697,27.9278,-9.41365,-17.6264,-27.5869,7.12502,8.63089,-57.3905,-3.16068e-14,2.78299e-14,-31.6936,14.3334,77.6575,23.1832,-8.04879,-8.74394,-7.06984,7.12502,17.1929,22.1895,-8.84446,0.414241,27.6297,30.2566,-17.6062,-10.9087,16.3608,-9.17735,-1.12065,-13.0951,28.2892,-17.5059,-6.33159,-0.404046
-7.38569,17.6539,23.7684,176.046,-49.3639,-173.404,6.18732,2.93101,3.34921,2.6065,3.97615,2.77736,-0.742095,1.92779,0.718654,-5.73807,7.14134,0.511042,7.17653,9.62626,-1.57583,3.4346,4.71113,-0.139136,8.56762e-14,2.22639e-14,-30.2164,-20.0964,-69.687,28.1147,-9.29482,-18.5339,-27.162,7.12502,7.75504,-56.9998,8.56762e-14,2.22639e-14,-31.8004,14.3745,77.1752,22.7625,-8.13053,-8.55,-7.03886,7.12502,17.3796,22.2041,-8.99096,0.365493,27.8216,30.4438,-17.6937,-10.8689,16.6093,-9.2205,-0.575067,-12.8047,28.2285,-17.2856,-7.18681,1.21531
-7.3885,17.6507,23.7587,175.768,-49.2936,-173.087,6.19314,2.95279,3.7261,2.56179,4.02861,2.69852,-0.758167,1.9562,0.424493,-5.40372,7.04063,0.784585,6.95738,9.46854,-1.64159,3.31208,4.64315,-0.231955,-1.40143e-14,-4.37326e-15,-30.2988,-20.8663,-69.5632,28.2052,-9.58374,-18.1869,-26.9119,7.12502,8.08991,-56.7371,-1.40143e-14,-4.37326e-15,-31.9251,14.6487,76.7137,22.3492,-8.39891,-8.32601,-7.20775,7.12502,17.5951,22.0161,-9.00553,0.196721,28.0321,30.5505,-17.8097,-10.511,17.4782,-9.17312,0.0996992,-12.5111,28.2291,-17.34,-7.47552,0.172436
-7.39122,17.648,23.7475,175.778,-49.2349,-173.1,6.12085,3.00115,3.78453,2.54157,4.09554,2.63,-0.728436,1.99199,0.321282,-5.19456,6.96767,0.892392,6.7738,9.3643,-1.70963,3.21745,4.59547,-0.289022,-4.86029e-14,-3.97569e-16,-30.3973,-21.2798,-69.5683,28.4696,-9.77493,-18.0577,-26.7101,7.12502,8.21466,-56.5304,-4.86029e-14,-3.97569e-16,-31.9717,15.0947,76.3555,21.9582,-8.8799,-7.84913,-6.88253,7.12502,18.054,22.2996,-8.99942,-0.283812,27.9767,30.5608,-17.8822,-9.87995,17.9744,-9.15488,0.776639,-12.4847,28.2603,-17.575,-7.44478,-2.31322
-7.39264,17.6493,23.7355,175.924,-49.2353,-173.217,5.97123,2.98506,3.74835,2.53496,4.06774,2.54256,-0.64913,1.98163,0.261577,-5.09654,6.96913,0.862109,6.5527,9.36709,-1.72623,3.12204,4.59919,-0.298081,-5.96354e-16,-2.66371e-14,-30.4497,-21.4755,-69.8171,28.7064,-10.0761,-18.5748,-25.9733,7.12502,7.71556,-55.8125,-5.96354e-16,-2.66371e-14,-31.9762,15.5744,76.0043,21.5938,-9.17246,-7.4077,-6.69437,7.12502,18.4787,22.448,-8.98561,-0.685711,27.8758,30.4759,-17.8849,-9.54421,17.6617,-9.21036,1.23626,-12.5437,28.3288,-17.8911,-7.28639,-3.9763
-7.39308,17.6497,23.7197,175.799,-49.2448,-173.178,5.97567,2.93986,3.78663,2.54474,4.01019,2.46945,-0.634829,1.95448,0.169029,-5.08177,6.99579,0.848538,6.49,9.39882,-1.66881,3.09402,4.61777,-0.278228,-1.31397e-13,5.56597e-15,-30.4966,-21.5237,-70.1861,28.8151,-10.2857,-18.6851,-25.5855,7.12502,7.60907,-55.4287,-1.31397e-13,5.56597e-15,-32.0698,15.9098,75.5543,21.2888,-9.30813,-7.27281,-7.09977,7.12502,18.6084,22.0302,-8.74122,-0.875436,27.9311,30.338,-17.9206,-9.47258,17.5419,-9.07197,1.21946,-12.4624,28.3866,-18.0315,-7.29036,-3.73799
-7.3949,17.6498,23.7014,175.69,-49.2795,-173.333,6.15801,2.89824,3.68003,2.52306,3.96181,2.3886,-0.76147,1.92929,0.137117,-5.11718,6.97843,0.758056,6.67383,9.37199,-1.50183,3.14873,4.60559,-0.206171,5.49143e-14,-1.19271e-15,-30.6816,-21.1503,-70.5839,29.0718,-10.7492,-18.7387,-25.3613,7.12502,7.55737,-55.2062,5.49143e-14,-1.19271e-15,-32.2969,16.102,75.0819,21.0461,-9.52673,-7.13762,-7.45558,7.12502,18.7385,21.6619,-8.33131,-0.767329,27.8696,30.1863,-18.0151,-9.56726,18.0142,-8.7603,0.958024,-12.539,28.3948,-17.9914,-7.32303,-3.16985
-7.3979,17.6516,23.6878,175.743,-49.338,-173.574,6.26357,2.86149,3.57048,2.48554,3.91687,2.31099,-0.862117,1.90665,0.113888,-5.10839,6.89039,0.528754,6.78007,9.2564,-1.28512,3.1572,4.54898,-0.103217,-3.84648e-14,1.35174e-14,-30.8922,-20.7545,-70.9078,29.4117,-11.14,-19.087,-24.4644,7.12502,7.22122,-54.3212,-3.84648e-14,1.35174e-14,-32.5067,16.3322,74.7618,20.9042,-9.86948,-7.07781,-7.55566,7.12502,18.796,21.5562,-8.07802,-0.612529,27.7356,30.0827,-18.0817,-9.70575,18.4493,-8.52674,0.658225,-12.7272,28.306,-17.9022,-7.1402,-3.00373
-7.3991,17.6552,23.6805,175.821,-49.3002,-173.693,6.26382,2.87649,3.59043,2.47188,3.93993,2.25039,-0.870187,1.91926,0.0388465,-5.14391,6.834,0.302496,6.82115,9.18613,-1.11181,3.15539,4.51407,-0.0120797,-4.47266e-16,-2.38542e-15,-30.9789,-20.63,-71.077,29.7932,-11.5175,-18.6167,-24.0775,7.12502,7.67515,-53.9182,-4.47266e-16,-2.38542e-15,-32.6029,16.6854,74.552,20.8186,-10.3734,-7.25755,-7.51466,7.12502,18.6231,21.6139,-8.04753,-0.441675,27.6916,30.0729,-18.1228,-9.81986,18.6694,-8.37634,0.281484,-12.8327,28.1228,-17.844,-6.69469,-3.45197
-7.39843,17.6621,23.6686,176.205,-49.308,-174.175,6.2096,2.87732,3.34375,2.45279,3.93026,2.10067,-0.866857,1.91724,0.0247944,-5.18439,6.833,0.165946,6.91488,9.18848,-1.00698,3.18218,4.51402,0.0474916,7.42958e-14,-2.74323e-14,-30.9769,-20.259,-71.4444,29.9333,-12.0924,-18.4576,-24.1759,7.12502,7.82864,-54.0109,7.42958e-14,-2.74323e-14,-32.6914,17.0219,74.2609,20.7462,-10.8439,-7.47427,-7.46984,7.12502,18.4146,21.6785,-8.07776,-0.0562346,27.4292,30.1285,-18.2175,-10.1521,18.5545,-8.24325,-0.149122,-13.1872,27.9292,-17.8052,-6.22943,-4.10537
-7.39905,17.6653,23.6538,176.655,-49.4562,-174.687,6.08823,2.82605,3.06987,2.39442,3.85084,1.9087,-0.867121,1.8815,-0.0106242,-5.21288,6.78846,0.0921746,7.043,9.12295,-0.84423,3.21845,4.48382,0.112521,-1.17184e-13,3.10104e-14,-31.1287,-20.0594,-71.8604,30.0965,-12.1745,-18.6352,-24.4998,7.12502,7.65724,-54.3411,-1.17184e-13,3.10104e-14,-32.7859,17.2547,73.9114,20.6948,-11.1956,-7.69498,-7.64945,7.12502,18.2023,21.5189,-8.15021,-0.0156063,27.1242,30.2273,-18.2543,-10.4648,17.7496,-8.17015,-0.496026,-13.5668,27.7137,-17.7372,-5.97611,-4.26281
-7.39717,17.6611,23.646,176.598,-49.487,-174.567,6.07005,2.79533,3.14181,2.32637,3.81782,1.92037,-0.92382,1.86489,-0.0377211,-5.14031,6.73886,-0.0961668,7.09506,9.0584,-0.68474,3.20373,4.45227,0.189266,5.91384e-14,-1.66979e-14,-31.3684,-19.9141,-72.0176,30.4559,-11.6637,-18.2942,-24.7429,7.12502,7.98643,-54.5721,5.91384e-14,-1.66979e-14,-32.928,17.3063,73.8261,20.7653,-11.0946,-7.86086,-7.79606,7.12502,18.0427,21.3871,-8.21749,0.0541949,27.2741,30.3429,-18.2791,-10.732,17.3265,-8.07462,-0.696863,-13.4806,27.4662,-17.6587,-5.73834,-4.47745
-7.39253,17.661,23.634,176.819,-49.45,-174.843,6.06702,2.82726,2.87328,2.27957,3.85059,1.89109,-0.985915,1.88126,0.0774854,-5.00841,6.66659,-0.211061,7.08177,8.9702,-0.706641,3.16909,4.40477,0.191448,6.7885e-14,-1.59028e-15,-31.5163,-19.6817,-72.0925,30.7671,-11.8772,-17.3248,-24.5314,7.12502,8.92189,-54.3228,6.7885e-14,-1.59028e-15,-33.0698,17.0417,73.9475,20.9656,-10.592,-8.13637,-7.66603,7.12502,17.7776,21.5413,-8.22287,0.808319,27.2295,30.4552,-18.4461,-11.4137,17.6571,-7.95603,-0.838366,-13.649,27.2749,-17.6276,-5.51616,-4.65832
-7.39266,17.6639,23.6192,177.426,-49.4573,-175.582,5.98524,2.8829,2.39882,2.23521,3.90323,1.68304,-1.00335,1.91086,0.126907,-5.02444,6.55004,-0.110415,7.19583,8.81236,-0.783787,3.22025,4.32407,0.147109,5.03422e-14,-2.66371e-14,-31.6554,-19.6597,-72.2544,30.9707,-11.804,-16.6631,-24.3144,7.12502,9.56036,-54.0775,5.03422e-14,-2.66371e-14,-33.1077,16.6861,73.9939,21.1178,-10.2541,-8.77091,-7.41178,7.12502,17.167,21.8499,-8.24802,1.3145,26.7981,30.5792,-18.7322,-11.7772,18.0005,-7.89422,-0.951138,-14.1682,27.1612,-17.5988,-5.37459,-4.6073
-7.39396,17.6591,23.6116,177.587,-49.3993,-175.743,5.95643,2.94088,2.37295,2.1838,3.98236,1.57885,-1.03357,1.95202,0.0294437,-5.15516,6.43299,-0.0851807,7.4491,8.65487,-0.77249,3.33292,4.24248,0.1509,3.83157e-14,7.55382e-15,-31.8707,-19.5266,-72.4972,31.2655,-11.3108,-16.6625,-24.0156,7.12502,9.56101,-53.7787,3.83157e-14,7.55382e-15,-33.0709,16.4328,74.0267,21.2136,-9.98342,-9.22414,-7.22543,7.12502,16.7307,22.0736,-8.34635,0.955709,26.6399,30.712,-18.9155,-11.2451,18.3291,-7.85964,-0.946602,-14.2746,27.0825,-17.5221,-5.38497,-4.33459
-7.39332,17.6471,23.6068,177.378,-49.386,-175.45,5.98566,2.95819,2.6282,2.12874,4.02277,1.58843,-1.08856,1.97189,-0.10818,-5.27453,6.2949,-0.271147,7.71554,8.47086,-0.574076,3.42843,4.14921,0.247749,1.83876e-15,2.54444e-14,-32.1864,-19.2944,-72.7504,31.6574,-11.4243,-16.6521,-23.7744,7.12502,9.57103,-53.537,1.83876e-15,2.54444e-14,-33.0517,16.27,74.0405,21.3911,-9.55765,-9.18182,-7.15354,7.12502,16.7714,22.1421,-8.38807,0.527819,26.8212,30.7539,-18.8919,-10.8981,18.0888,-7.90089,-0.682312,-14.0411,27.1489,-17.6359,-5.39658,-5.27816
-7.38935,17.6414,23.6014,177.031,-49.3573,-174.925,6.01099,2.94273,2.98725,2.05133,4.02617,1.6544,-1.16168,1.97211,-0.243687,-5.41594,6.13932,-0.47769,8.0574,8.26169,-0.336817,3.55315,4.04315,0.362326,2.65378e-14,2.38542e-15,-32.4394,-19.0074,-73.0054,31.9422,-11.1696,-16.4581,-24.0497,7.12502,9.75817,-53.8037,2.65378e-14,2.38542e-15,-33.0832,16.3339,73.9434,21.6148,-9.12909,-9.06899,-7.12967,7.12502,16.88,22.1567,-8.47029,0.549264,27.2431,30.8053,-18.8908,-10.9945,17.8084,-8.03085,-0.459138,-13.625,27.2873,-17.8358,-5.21337,-6.83623
-7.38114,17.6499,23.5934,176.63,-49.2225,-174.246,6.00704,2.94418,3.32955,2.00054,4.04771,1.80175,-1.19758,1.98017,-0.285101,-5.66535,5.98799,-0.650582,8.38791,8.06989,-0.245793,3.70552,3.94035,0.429319,2.1916e-14,-4.37326e-15,-32.3844,-18.242,-73.4975,31.9856,-10.0794,-16.7565,-24.5127,7.12502,9.47026,-54.2799,2.1916e-14,-4.37326e-15,-33.0263,16.9002,73.7851,21.7744,-8.97483,-8.90838,-7.01567,7.12502,17.0346,22.2574,-8.62,0.610687,27.7797,30.8175,-18.9019,-10.9091,18.447,-8.22637,-0.568199,-13.0332,27.4431,-17.8027,-5.40001,-5.8885
-7.37591,17.6316,23.5868,176.472,-49.1784,-173.974,6.00735,2.92996,3.44203,1.99258,4.03436,1.8731,-1.20347,1.97222,-0.273687,-5.85754,5.79565,-0.990012,8.57208,7.82587,-0.0175978,3.78298,3.81523,0.560304,-1.54058e-13,1.70955e-14,-32.3036,-18.2793,-73.4789,31.8861,-10.649,-15.9745,-23.6213,7.12502,10.2247,-53.3528,-1.54058e-13,1.70955e-14,-32.9506,17.3723,73.713,21.9852,-8.68028,-8.75043,-6.97234,7.12502,17.1867,22.2876,-8.70217,0.732031,28.0241,30.8804,-19.0043,-10.8923,19.0883,-8.34492,-0.200103,-12.814,27.5513,-18.0283,-5.13999,-8.30494
-7.37486,17.6236,23.5772,176.449,-49.2079,-174.017,6.04972,3.00703,3.51128,1.98428,4.14409,1.73057,-1.21685,2.0285,-0.467488,-6.0466,5.45788,-1.10548,8.85199,7.35694,0.297082,3.90382,3.58892,0.673164,-3.55328e-14,1.07344e-14,-32.4353,-18.3054,-73.7176,32.0257,-11.0714,-16.157,-23.2004,7.12502,10.0487,-52.9405,-3.55328e-14,1.07344e-14,-32.8094,17.0939,73.7196,22.2687,-8.23435,-9.00942,-7.07813,7.12502,16.9374,22.2033,-8.63607,0.654469,28.0234,30.9385,-19.0866,-10.8487,18.7139,-8.30827,-0.00032153,-12.8112,27.6406,-18.1757,-5.21416,-8.61602
-7.36905,17.6184,23.5665,176.42,-49.1962,-173.973,6.04374,3.10298,3.51094,1.97318,4.27277,1.67161,-1.21631,2.0936,-0.535772,-6.2825,5.16422,-1.23852,9.20062,6.9651,0.436087,4.06746,3.39082,0.738579,-1.41137e-14,-1.5704e-14,-32.414,-18.0965,-73.935,32.0517,-10.9203,-16.1835,-23.4848,7.12502,10.0232,-53.2261,-1.41137e-14,-1.5704e-14,-32.6966,17.1822,73.7018,22.5363,-8.30831,-9.28732,-7.20342,7.12502,16.6698,22.1008,-8.72625,-0.021772,28.0292,31.0606,-19.0614,-10.3408,18.1539,-8.32291,0.185764,-12.7239,27.6635,-18.2188,-5.33717,-8.7888
-7.36204,17.6193,23.5524,176.434,-49.2308,-173.928,5.93419,2.93204,3.14119,1.94475,4.02128,2.01836,-1.2442,1.96445,0.0445837,-6.25356,5.12857,-2.22772,9.4517,7.001,0.555945,4.10824,3.37226,0.954097,3.09607e-14,-1.82882e-14,-32.1922,-17.1569,-73.7559,31.889,-9.87787,-14.8311,-23.9089,7.12502,11.3276,-53.5829,3.09607e-14,-1.82882e-14,-33.074,17.9451,73.9646,22.9933,-7.93331,-9.63457,-7.08733,7.12502,16.3355,22.2447,-8.8373,-0.508381,28.0602,31.1363,-19.0962,-9.96946,18.6888,-8.40143,0.23725,-12.6124,27.6987,-18.1857,-5.60698,-8.31623
-7.35637,17.6182,23.5353,176.337,-49.2839,-173.908,5.94929,2.94292,3.00485,2.00083,4.02534,2.04563,-1.2063,1.96642,0.14871,-6.32817,4.81392,-2.21005,9.59482,6.59199,0.409378,4.18765,3.15991,0.887878,-3.54831e-14,2.10712e-14,-32.2465,-17.4472,-73.6486,31.8848,-8.75926,-13.3923,-24.3177,7.12502,12.7151,-53.9106,-3.54831e-14,2.10712e-14,-32.8387,17.4228,74.4035,23.3809,-6.79733,-10.4012,-6.70326,7.12502,15.5972,22.6879,-8.74095,-0.478241,28.1359,31.22,-19.2606,-10.0142,18.9924,-8.29865,0.381737,-12.4963,27.6951,-18.1921,-5.98875,-7.83216
-7.3494,17.6095,23.526,176.386,-49.2776,-174.014,6.01882,3.04274,3.00778,2.065,4.15797,1.86195,-1.16256,2.03487,-0.0510919,-6.52157,4.33402,-1.71005,9.75555,5.92842,0.133621,4.32076,2.83385,0.684405,4.14963e-14,3.57812e-15,-32.1045,-17.6203,-74.0235,31.7241,-9.26635,-13.8761,-24.7034,7.12502,12.2485,-54.3247,4.14963e-14,3.57812e-15,-32.3498,16.8657,74.594,23.61,-6.05893,-11.0005,-6.53001,7.12502,15.02,22.9052,-8.7203,-0.351779,28.1293,31.3046,-19.3307,-10.1733,18.6303,-8.2251,0.574755,-12.518,27.6064,-18.1869,-5.98179,-8.59446
-7.34206,17.609,23.5205,176.681,-49.3242,-174.261,5.97724,2.90235,2.69614,1.96036,3.96023,1.97055,-1.28086,1.935,0.243952,-6.51562,4.03797,-2.27648,10.2707,5.57483,0.21067,4.49097,2.62793,0.799035,7.29043e-14,-7.55382e-15,-31.8162,-16.5494,-74.2684,31.2331,-10.028,-14.5962,-24.844,7.12502,11.5542,-54.5055,7.29043e-14,-7.55382e-15,-32.6461,17.1606,74.7775,24.0666,-5.48284,-11.4357,-6.38336,7.12502,14.6007,23.0827,-8.89725,-0.340698,28.0046,31.3637,-19.2546,-10.3378,18.8405,-8.30904,0.548841,-12.6828,27.4757,-18.145,-5.69002,-9.73633
-7.33718,17.6158,23.5111,176.975,-49.4656,-174.644,6.01215,3.08364,2.62099,2.01156,4.19771,1.5936,-1.22141,2.05845,-0.115873,-7.15949,3.40942,-1.91132,11.3718,4.68276,0.395454,4.52661,2.20212,0.706514,-2.41026e-14,2.60408e-14,-31.8074,-17.5341,-74.4159,30.9414,-9.45621,-14.2075,-24.8493,7.12502,11.929,-54.4894,-2.41026e-14,2.60408e-14,-32.041,15.8442,75.1246,24.4943,-4.57018,-11.5901,-6.11793,7.12502,14.452,23.3588,-8.94035,-0.379254,27.7635,31.4207,-19.2829,-10.3942,19.031,-8.24292,0.263112,-12.947,27.3138,-18.0307,-5.6217,-9.54375
-7.33322,17.6232,23.4985,176.993,-49.5704,-174.821,6.10543,3.14706,2.53203,2.08526,4.27586,1.4389,-1.19056,2.09867,-0.232813,-7.36108,2.90532,-1.84002,11.7315,3.99024,0.439146,4.67956,1.86086,0.675879,-4.50247e-14,1.98785e-15,-31.7205,-17.7117,-74.6953,30.7378,-9.36298,-14.7122,-24.6748,7.12502,11.4423,-54.3426,-4.50247e-14,1.98785e-15,-31.6832,14.8853,75.4441,24.9457,-3.68716,-11.3832,-5.9815,7.12502,14.6513,23.4809,-8.80421,-0.268441,27.6823,31.4474,-19.3998,-10.4969,18.9509,-8.0245,-0.0661612,-13.0414,27.1531,-17.8235,-5.84462,-8.03248
-7.32689,17.6276,23.4825,177.032,-49.6313,-174.945,6.10047,3.15262,2.31223,2.10988,4.26996,1.43105,-1.17837,2.0959,-0.117743,-7.27151,2.40952,-2.0153,11.944,3.32127,0.537103,4.73299,1.5254,0.694876,8.00854e-14,-1.98785e-16,-31.5516,-17.2121,-75.1208,30.3877,-9.28365,-16.0983,-24.5514,7.12502,10.1054,-54.2888,8.00854e-14,-1.98785e-16,-31.5384,14.3327,75.7206,25.3725,-2.95051,-11.4052,-6.05987,7.12502,14.6302,23.4041,-8.67981,0.00442439,27.6836,31.3854,-19.4246,-10.8258,18.9469,-7.91479,-0.270458,-13.0798,27.0888,-17.7215,-5.96069,-6.93916
-7.31973,17.6269,23.4679,177.279,-49.7033,-175.143,5.97059,3.15151,2.01814,2.07828,4.25205,1.42671,-1.16057,2.08822,0.0482495,-7.19735,1.87492,-2.15051,12.21,2.59939,0.583668,4.8095,1.16148,0.688696,-4.90501e-14,-3.18055e-15,-31.5254,-18.0604,-74.7231,29.9597,-8.95141,-15.0901,-24.0805,7.12502,11.0778,-53.7682,-4.90501e-14,-3.18055e-15,-31.4542,14.214,75.9374,25.7236,-2.64838,-11.7576,-6.53915,7.12502,14.2906,22.9491,-8.6802,0.225075,27.6277,31.2436,-19.4493,-10.992,19.0553,-8.05173,-0.347223,-13.1867,27.1602,-17.8041,-5.73152,-7.54294
-7.31497,17.6314,23.4561,177.31,-49.7522,-175.008,5.84393,3.0855,1.95672,2.013,4.16205,1.53574,-1.1711,2.04331,0.204645,-7.41399,1.41793,-2.75306,12.8395,2.02132,0.792091,5.04023,0.850162,0.822154,1.85367e-14,-1.09332e-14,-31.5635,-18.5732,-74.4195,29.7262,-8.01953,-14.1024,-24.1974,7.12502,12.0304,-53.8316,1.85367e-14,-1.09332e-14,-31.5158,14.1353,76.2583,26.1574,-2.26473,-12.0203,-7.02863,7.12502,14.0374,22.4773,-8.70711,0.287065,27.7694,31.0601,-19.4795,-10.9091,19.5089,-8.27277,-0.48944,-13.0443,27.3309,-17.8665,-5.71307,-7.54247
-7.31023,17.6343,23.4441,177.055,-49.8242,-174.696,5.86776,3.02169,2.05048,1.98187,4.084,1.64869,-1.2187,2.00287,0.270805,-7.55588,0.934546,-3.40038,13.5002,1.39263,1.11075,5.27363,0.516834,0.991536,-1.06623e-13,4.96962e-15,-31.5448,-18.6504,-74.3593,29.4901,-7.64064,-13.762,-24.4381,7.12502,12.3586,-54.0528,-1.06623e-13,4.96962e-15,-31.5175,13.8813,76.563,26.6018,-1.97295,-11.975,-7.1955,7.12502,14.0811,22.3074,-8.5753,0.226922,28.035,30.8632,-19.4371,-10.9017,20.0615,-8.36379,-0.819652,-12.7787,27.5649,-17.9024,-5.77138,-6.72424
-7.30504,17.6295,23.4331,176.571,-49.9223,-174.135,5.93895,2.96735,2.42034,1.96395,4.03337,1.68743,-1.25393,1.97613,0.104335,-7.63415,0.371148,-3.7965,14.0295,0.62935,1.3657,5.46726,0.128785,1.08787,8.38374e-14,-1.35174e-14,-31.4532,-18.6947,-74.4618,29.049,-7.31167,-13.4088,-24.7638,7.12502,12.6991,-54.3576,8.38374e-14,-1.35174e-14,-31.3554,14.0223,76.5031,26.8237,-2.50928,-11.9967,-7.28904,7.12502,14.0602,22.2154,-8.4328,0.0562535,28.473,30.7054,-19.3838,-10.9021,20.2834,-8.45122,-1.21312,-12.3635,27.8421,-18.0089,-5.46138,-6.41618
-7.30164,17.6281,23.4203,176.187,-50.0032,-173.56,5.86645,2.8796,2.81399,1.93439,3.9361,1.70774,-1.21981,1.92751,-0.0834597,-7.79387,-0.220979,-4.14048,14.6275,-0.164536,1.50734,5.7034,-0.280024,1.13566,-1.86385e-13,1.70955e-14,-31.3222,-18.5519,-74.6856,28.6218,-7.13195,-13.3014,-24.3791,7.12502,12.8027,-53.9665,-1.86385e-13,1.70955e-14,-31.2337,13.93,76.4766,27.1607,-2.54171,-12.4444,-7.29392,7.12502,13.6287,22.2399,-8.49236,-0.461623,28.8647,30.677,-19.3263,-10.5573,19.9709,-8.57368,-1.57446,-11.9341,27.9721,-18.0679,-5.16732,-6.06506
-7.29827,17.6233,23.4066,176.122,-50.132,-173.378,5.76859,2.81777,2.89463,1.90262,3.85675,1.69134,-1.19318,1.88892,-0.135608,-7.84042,-0.81782,-4.45993,15.1799,-0.972791,1.61718,5.91117,-0.696704,1.16464,-7.51158e-14,1.64991e-14,-31.2892,-18.6137,-74.8018,28.4007,-7.10869,-13.9532,-23.2021,7.12502,12.1743,-52.8278,-7.51158e-14,1.64991e-14,-31.1656,13.0241,76.8291,27.7779,-1.39178,-12.8345,-7.28268,7.12502,13.2527,22.276,-8.62129,-1.68696,28.8849,30.6776,-19.2404,-9.53518,19.626,-8.70413,-1.80575,-11.7947,28.0646,-18.1503,-4.97411,-6.68454
-7.29187,17.6125,23.3924,176.346,-50.2681,-173.692,5.80179,2.83137,2.6691,1.87627,3.86717,1.56215,-1.24491,1.89556,-0.146248,-7.63774,-1.396,-4.58654,15.5745,-1.7893,1.67707,6.02831,-1.10905,1.14372,-7.92654e-15,4.07509e-15,-31.2895,-19.0962,-74.765,28.0986,-6.8424,-14.928,-21.9981,7.12502,11.2341,-51.6773,-7.92654e-15,4.07509e-15,-31.0635,11.8515,77.2857,28.4032,0.093371,-13.2121,-7.36709,7.12502,12.8887,22.2149,-8.56229,-1.26927,28.7679,30.705,-19.3681,-10.0423,20.1307,-8.67688,-1.6132,-12.0126,28.079,-18.3735,-4.67545,-9.44365
-7.28447,17.6228,23.3723,176.463,-50.328,-173.963,5.90662,2.84316,2.51689,1.87589,3.87864,1.38793,-1.30159,1.9024,-0.246655,-7.39772,-1.98083,-4.7578,15.9069,-2.62836,1.83748,6.12376,-1.52599,1.15968,4.08999e-14,-1.11319e-14,-31.161,-19.2055,-74.9462,27.6627,-6.81571,-14.1748,-23.0733,7.12502,11.9605,-52.7116,4.08999e-14,-1.11319e-14,-30.9729,11.4606,77.1575,28.9255,-0.470439,-12.3547,-7.40035,7.12502,13.7152,22.1277,-8.4314,-1.36829,28.6367,30.7872,-19.475,-10.114,20.2068,-8.54257,-1.72848,-12.1078,28.0809,-18.2827,-5.19186,-7.64102
-7.27796,17.6237,23.3575,176.365,-50.4101,-173.925,5.97551,2.78045,2.56114,1.90101,3.79793,1.31889,-1.30811,1.86219,-0.339455,-7.53594,-2.5717,-5.30462,16.5831,-3.44388,2.1493,6.40638,-1.94448,1.28022,-6.03808e-15,1.53064e-14,-31.0567,-18.9803,-75.1807,27.4749,-6.7993,-13.7198,-23.9964,7.12502,12.3993,-53.6087,-6.03808e-15,1.53064e-14,-30.8833,11.2596,77.1236,29.4666,-0.446299,-11.8076,-7.57281,7.12502,14.2424,21.9188,-8.37904,-1.39745,28.7166,30.8872,-19.5486,-10.2471,19.881,-8.37752,-1.80234,-12.0216,27.8887,-18.176,-5.33875,-6.95487
-7.27033,17.6122,23.3447,176.614,-50.4984,-174.328,6.03985,2.71348,2.15058,1.95603,3.68517,1.31916,-1.31633,1.80578,-0.105626,-7.76305,-3.11418,-6.04351,17.3478,-4.14881,2.34464,6.74019,-2.33145,1.39806,4.25151e-14,8.74653e-15,-31.1099,-18.9703,-75.1553,27.5089,-6.31211,-13.3466,-24.1307,7.12502,12.759,-53.7208,4.25151e-14,8.74653e-15,-30.7833,11.4662,77.2539,29.9463,-0.286708,-11.8532,-7.59053,7.12502,14.1984,21.9042,-8.32399,-2.30525,28.3701,30.8415,-19.4928,-9.42897,19.7749,-8.30209,-1.70999,-12.2621,27.827,-18.2742,-5.3775,-7.5461
-7.26054,17.6001,23.3289,176.928,-50.5877,-174.859,6.11176,2.61401,1.56053,2.03182,3.51779,1.35375,-1.31939,1.72154,0.26762,-7.7227,-3.59802,-6.58005,17.794,-4.76851,2.3083,6.91913,-2.68091,1.41761,-6.13375e-14,9.93923e-16,-30.9677,-18.5603,-75.2683,27.5156,-6.14806,-12.8813,-24.6227,7.12502,13.2076,-54.1844,-6.13375e-14,9.93923e-16,-30.7194,11.6332,77.4959,30.4684,0.360708,-12.7661,-7.14839,7.12502,13.3186,22.406,-8.1242,-0.366108,28.3139,30.8795,-19.8447,-11.1196,20.3229,-8.12301,-1.3542,-12.5831,27.6746,-18.4209,-5.34921,-9.60493
-7.25626,17.6126,23.3135,176.963,-50.7578,-174.943,6.10848,2.47525,1.41566,2.09999,3.32129,1.3938,-1.25927,1.62274,0.40503,-7.77917,-4.12265,-7.03844,18.2975,-5.45109,2.26855,7.13883,-3.05572,1.41235,-2.38666e-14,3.57812e-15,-30.6596,-18.025,-75.4395,27.2756,-6.25645,-13.021,-24.1892,7.12502,13.073,-53.7595,-2.38666e-14,3.57812e-15,-30.5966,11.6668,77.741,30.9979,1.10419,-13.1205,-6.93937,7.12502,12.9771,22.637,-8.02644,0.114712,28.3751,30.9001,-20.0524,-11.6715,20.3777,-8.05893,-1.75175,-12.5499,27.5555,-18.0218,-5.92193,-6.73893
-7.25316,17.6029,23.3013,177.169,-50.9138,-175.094,5.98542,2.4166,1.3328,2.13189,3.2352,1.30927,-1.15805,1.58121,0.376977,-7.8167,-4.7098,-7.20352,18.7762,-6.24429,2.1199,7.34337,-3.47176,1.31061,-1.20886e-14,-4.77083e-15,-30.5967,-17.6809,-75.6743,27.3617,-6.41063,-13.984,-22.4925,7.12502,12.1445,-52.12,-1.20886e-14,-4.77083e-15,-30.4241,11.6583,77.7873,31.4543,1.14665,-12.739,-7.14971,7.12502,13.3448,22.403,-8.10884,-0.315262,28.2668,30.8948,-20.092,-11.3731,20.8436,-8.12487,-1.74901,-12.638,27.4438,-18.002,-5.6964,-8.1059
-7.24898,17.604,23.2835,177.438,-50.9555,-175.193,5.75422,2.42963,1.21867,2.11914,3.24436,1.20748,-1.04322,1.58831,0.345798,-7.61651,-5.27392,-7.24843,19.0654,-7.04817,2.02669,7.44189,-3.87859,1.21181,-9.10061e-14,-4.57205e-15,-30.6276,-17.2659,-75.9742,27.5323,-6.90518,-13.9283,-24.6329,7.12502,12.1983,-54.2572,-9.10061e-14,-4.57205e-15,-30.296,11.3992,77.7844,31.9422,1.16753,-12.5666,-7.22608,7.12502,13.5109,22.3156,-8.26398,-0.527465,28.2284,30.8178,-20.1481,-11.0456,21.5332,-8.34799,-1.70389,-12.6314,27.5109,-18.0403,-5.84509,-7.7947
-7.24067,17.6058,23.2618,177.509,-50.8531,-175.084,5.61671,2.47738,1.12687,2.08541,3.30351,1.21101,-1.00682,1.61884,0.402102,-7.40393,-5.81366,-7.67118,19.4264,-7.81639,2.15452,7.58566,-4.27769,1.24638,-1.13829e-13,-2.43511e-15,-30.5986,-16.8896,-76.1663,27.5984,-7.36603,-13.6358,-24.8526,7.12502,12.4802,-54.46,-1.13829e-13,-2.43511e-15,-30.2786,11.2851,77.7611,32.4396,0.926894,-11.8117,-7.85315,7.12502,14.2385,21.6388,-8.43226,-0.712583,28.3593,30.8465,-20.273,-10.6135,21.4979,-8.50479,-1.48808,-12.4449,27.5673,-18.1444,-5.91449,-7.59087
-7.23327,17.606,23.244,177.427,-50.7452,-174.921,5.64516,2.51119,1.11716,2.06623,3.34927,1.2384,-1.04453,1.64137,0.430765,-7.31917,-6.33106,-8.1374,19.9399,-8.54037,2.22686,7.80566,-4.66503,1.26484,1.7139e-14,-3.37934e-15,-30.6227,-17.0443,-76.1189,27.6995,-7.14196,-12.5556,-25.3463,7.12502,13.5216,-54.8873,1.7139e-14,-3.37934e-15,-30.3507,11.3028,77.7081,32.9421,0.468175,-10.9994,-8.77675,7.12502,15.0211,20.6584,-8.45386,-0.84796,28.5242,30.8176,-20.3028,-10.3452,21.1402,-8.56001,-1.47032,-12.2673,27.6658,-18.2757,-5.76257,-7.46357
-7.22805,17.5962,23.2335,177.166,-50.7872,-174.52,5.67276,2.477,1.39994,2.08058,3.31727,1.26268,-1.03024,1.62511,0.299466,-7.11278,-6.82065,-8.37183,20.1214,-9.23778,2.25212,7.88256,-5.01952,1.24158,-5.28891e-14,1.41137e-14,-30.5907,-17.2056,-76.0866,27.7877,-6.95807,-13.2887,-24.2708,7.12502,12.8149,-53.8574,-5.28891e-14,1.41137e-14,-30.3034,11.2295,77.7056,33.3915,0.243456,-10.8074,-8.8736,7.12502,15.2061,20.5476,-8.4831,-1.15467,28.8256,30.7117,-20.1557,-10.289,20.8829,-8.70273,-1.51813,-11.9559,27.8333,-18.4516,-5.532,-8.16681
-7.22192,17.5918,23.2224,177.11,-50.8435,-174.325,5.66042,2.42282,1.5634,2.10838,3.25141,1.24788,-0.984941,1.59245,0.198886,-6.77454,-7.28695,-8.57079,20.0109,-9.89887,2.28364,7.83694,-5.3479,1.22882,-1.62662e-14,1.78906e-15,-30.4714,-16.6896,-76.3465,27.8862,-7.38343,-13.8002,-24.0977,7.12502,12.3218,-53.7146,-1.62662e-14,1.78906e-15,-30.189,10.5342,78.1002,34.0864,1.86515,-12.0321,-8.25192,7.12502,14.0261,21.2548,-8.54548,-1.57285,28.9669,30.5532,-19.9777,-10.2008,20.6321,-8.90845,-1.61317,-11.7556,28.0301,-18.5563,-5.48111,-8.76817
-7.21661,17.5963,23.2085,176.905,-50.7419,-173.967,5.66688,2.35627,1.78142,2.10866,3.17334,1.31298,-0.98038,1.55295,0.148808,-6.57192,-7.6774,-9.06515,20.1801,-10.4447,2.40138,7.92594,-5.64081,1.29005,5.1128e-14,1.963e-14,-30.4141,-15.9867,-76.5709,28.0209,-7.84081,-14.0196,-24.4676,7.12502,12.1103,-54.0971,5.1128e-14,1.963e-14,-30.2247,10.8391,78.0048,34.3828,1.26019,-11.8561,-9.38957,7.12502,14.1957,20.1054,-8.54775,-1.56678,29.2564,30.4388,-19.9799,-10.0937,20.7387,-9.05874,-1.68138,-11.4208,28.2553,-18.6122,-5.53179,-8.41733
-7.2118,17.5945,23.1922,176.499,-50.6052,-173.533,5.76166,2.28732,2.02173,2.16308,3.09158,1.40171,-0.969706,1.5104,0.108356,-6.39043,-8.01362,-9.45428,20.3528,-10.9103,2.41962,8.00644,-5.89674,1.30907,-3.2902e-14,-2.80783e-15,-30.3245,-15.7183,-76.6416,28.1283,-7.9572,-13.7744,-24.6427,7.12502,12.3467,-54.2581,-3.2902e-14,-2.80783e-15,-30.2782,10.9775,78.0913,34.7978,1.21222,-12.4198,-8.81922,7.12502,13.6524,20.713,-8.35832,-1.2694,29.6484,30.3341,-20.0323,-10.1235,21.0838,-9.02481,-1.68905,-11.0518,28.4677,-18.7617,-5.40714,-7.56083
-7.20208,17.5875,23.17,176.504,-50.56,-173.703,5.87374,2.25913,1.79072,2.30166,3.03628,1.36932,-0.900677,1.48117,0.20611,-6.20036,-8.3647,-9.53588,20.2954,-11.3933,2.33429,7.98541,-6.13986,1.25104,-6.67404e-14,-1.2511e-14,-30.1008,-15.7596,-76.7488,28.176,-7.86168,-13.8284,-24.6202,7.12502,12.2946,-54.2388,-6.67404e-14,-1.2511e-14,-30.1796,10.8991,78.2088,35.2589,1.51512,-12.9274,-8.23578,7.12502,13.1632,21.3287,-8.1804,-2.00091,29.5353,30.2911,-19.9891,-9.42726,21.1078,-8.91713,-1.91425,-11.0849,28.6556,-18.8527,-5.40801,-6.1902
-7.18632,17.5841,23.1452,176.525,-50.4951,-173.752,5.91575,2.23961,1.59197,2.41797,2.99378,1.3407,-0.813676,1.45853,0.291421,-6.0753,-8.70414,-9.81133,20.2259,-11.898,2.61851,8.00857,-6.37228,1.33644,3.29222e-14,-1.32937e-15,-29.8561,-15.6455,-76.9578,28.2887,-7.75474,-14.1034,-24.5043,7.12502,12.0294,-54.1386,3.29222e-14,-1.32937e-15,-30.0268,10.7008,78.2048,35.6806,1.91228,-13.0847,-8.22644,7.12502,13.0116,21.3478,-8.1568,-1.76063,29.6508,30.3596,-20.1521,-9.75633,20.9295,-8.9164,-2.03255,-11.0051,28.772,-18.9312,-5.3315,-6.76377
-7.17423,17.5767,23.1313,176.52,-50.427,-173.629,5.85263,2.18967,1.6269,2.51192,2.92209,1.31501,-0.679259,1.42282,0.255161,-5.90512,-8.96883,-10.0538,20.1464,-12.3242,2.97106,8.01954,-6.56145,1.44933,3.15881e-14,4.37326e-15,-29.5903,-15.2609,-77.2373,28.4303,-7.8944,-13.7252,-23.6468,7.12502,12.3941,-53.2594,3.15881e-14,4.37326e-15,-29.8803,10.626,78.1144,35.9981,1.96772,-13.1602,-8.59597,7.12502,12.9388,20.9829,-8.32701,-1.43714,29.8594,30.5212,-20.3247,-10.1019,20.7603,-9.05736,-2.045,-10.8861,28.8574,-19.0626,-4.73886,-8.98735
-7.16741,17.5659,23.1201,176.646,-50.387,-173.662,5.74514,2.14706,1.555,2.59834,2.85478,1.30495,-0.534242,1.389,0.295524,-5.66508,-9.15981,-10.0592,20.042,-12.6228,3.00863,7.96583,-6.70319,1.44363,3.72721e-17,4.27387e-15,-29.359,-14.8559,-77.3819,28.4994,-8.18395,-13.0008,-24.3884,7.12502,13.0924,-53.9575,3.72721e-17,4.27387e-15,-29.8558,10.2441,78.1954,36.4436,2.48952,-13.2781,-9.02948,7.12502,12.8251,20.5565,-8.49202,-1.54334,29.8857,30.6544,-20.3874,-9.88971,20.9082,-9.19744,-1.99629,-10.9032,28.9222,-19.2013,-4.20322,-10.8309
-7.15962,17.5557,23.1027,176.604,-50.2065,-173.529,5.66842,2.12566,1.4311,2.68696,2.81248,1.46626,-0.414936,1.36463,0.537526,-5.45327,-9.30045,-10.3848,19.9248,-12.8108,3.06881,7.93055,-6.81197,1.50366,-2.82166e-14,-1.05853e-14,-29.2098,-14.3824,-77.32,28.6965,-8.46682,-12.9796,-24.4946,7.12502,13.1128,-54.0624,-2.82166e-14,-1.05853e-14,-29.9253,9.99893,78.5166,36.9292,3.31852,-13.6887,-8.72877,7.12502,12.4292,20.8817,-8.58036,-1.50327,30.0527,30.7594,-20.4587,-9.59776,21.2334,-9.25843,-1.76648,-10.7345,29.025,-19.3453,-4.00224,-12.0179
-7.15266,17.5504,23.086,176.42,-49.9526,-173.279,5.74643,2.08972,1.51442,2.73803,2.76478,1.59329,-0.407899,1.33824,0.622239,-5.25763,-9.40263,-10.8276,19.8328,-12.9613,3.2693,7.92239,-6.89992,1.62852,8.33653e-14,-2.77739e-14,-29.1712,-14.1191,-77.2755,29.0119,-8.67139,-13.8647,-24.1598,7.12502,12.2596,-53.7805,8.33653e-14,-2.77739e-14,-30.011,10.2689,78.6137,37.2559,3.25297,-13.9183,-8.2748,7.12502,12.2078,21.3489,-8.57988,-1.22622,30.3098,30.79,-20.5433,-9.40144,21.8422,-9.27541,-1.69174,-10.4775,29.2189,-19.4236,-3.81312,-12.0953
-7.14812,17.5489,23.0703,176.297,-49.8047,-173.078,5.93652,2.0421,1.80265,2.68964,2.72208,1.47879,-0.543752,1.31904,0.338384,-4.97221,-9.49166,-10.7408,19.7263,-13.1535,3.39108,7.85225,-6.98114,1.65132,-5.19573e-14,-9.59136e-15,-29.352,-14.1129,-77.5164,29.4113,-8.57562,-14.3967,-23.8309,7.12502,11.7466,-53.4815,-5.19573e-14,-9.59136e-15,-30.2093,9.88014,78.4037,37.6617,3.42943,-13.8517,-8.1951,7.12502,12.2721,21.4248,-8.59053,-1.36376,30.4811,30.7705,-20.503,-9.12513,21.8095,-9.3765,-1.82231,-10.2599,29.4939,-19.4384,-3.86452,-10.6982
-7.14162,17.5507,23.0499,176.219,-49.6381,-172.864,6.01245,2.01183,1.93226,2.64986,2.69228,1.43341,-0.61866,1.30496,0.217686,-4.59932,-9.56753,-10.5212,19.4629,-13.3097,3.38125,7.69342,-7.04601,1.62578,-9.11925e-15,1.5704e-14,-29.5192,-13.6285,-77.8987,29.8953,-8.35359,-14.4679,-23.5308,7.12502,11.6779,-53.1853,-9.11925e-15,1.5704e-14,-30.4076,9.36232,78.3394,38.0258,4.02485,-14.0898,-8.55924,7.12502,12.0425,21.0743,-8.57545,-1.73078,30.6736,30.6085,-20.3499,-8.80701,21.3403,-9.59037,-1.91036,-9.99054,29.8839,-19.4319,-4.1543,-8.51398
-7.13312,17.5375,23.0304,176.067,-49.2902,-172.699,6.10362,2.02725,1.89618,2.72671,2.7062,1.54793,-0.597239,1.30857,0.352697,-4.3831,-9.62705,-10.7485,19.2345,-13.4037,3.52841,7.61414,-7.09426,1.71293,1.44616e-14,9.88954e-15,-29.4281,-13.2621,-77.8455,30.1509,-8.95177,-13.8891,-24.5342,7.12502,12.2361,-54.1562,1.44616e-14,9.88954e-15,-30.4231,9.62659,78.4308,38.117,4.08615,-14.5314,-9.04883,7.12502,11.6167,20.6092,-8.37859,-1.6704,30.8829,30.3422,-20.2626,-8.54471,21.5762,-9.70479,-1.54003,-9.8218,30.3284,-19.6841,-3.43882,-10.6383
-7.12885,17.5355,23.014,175.583,-48.9588,-172.179,6.19206,2.02295,2.22962,2.90237,2.70421,1.69779,-0.45642,1.30481,0.321471,-4.48268,-9.70452,-11.2345,19.2432,-13.5252,3.93981,7.70903,-7.14713,1.89553,3.35449e-15,1.99282e-14,-29.1592,-12.7905,-77.8836,30.3767,-9.48652,-14.2717,-24.2813,7.12502,11.8671,-53.9251,3.35449e-15,1.99282e-14,-30.235,9.87394,78.5437,38.1207,4.24127,-14.8694,-9.04503,7.12502,11.2907,20.6311,-8.07228,-1.36992,31.3428,30.0055,-20.1806,-8.43144,21.9809,-9.70429,-1.66471,-9.34999,30.7307,-19.7189,-3.45411,-8.89006
-7.12501,17.5366,22.9925,175.108,-48.7946,-171.567,6.16825,1.98983,2.64801,3.02323,2.66925,1.76374,-0.301862,1.2884,0.161943,-4.40211,-9.75838,-11.2878,19.1558,-13.6381,4.14916,7.69341,-7.18736,1.96412,-1.30477e-13,-1.83876e-15,-29.0126,-12.7487,-77.9477,30.5485,-9.68292,-15.1566,-23.6637,7.12502,11.0137,-53.3548,-1.30477e-13,-1.83876e-15,-30.0826,9.7976,78.4473,38.1442,3.87896,-14.6486,-8.5536,7.12502,11.5036,21.1107,-7.88259,-0.991256,31.9025,29.8032,-20.1403,-8.64289,22.1371,-9.80321,-1.79261,-8.77561,31.1212,-19.7123,-3.8964,-6.45953
-7.12093,17.5397,22.967,175.166,-48.5567,-171.576,6.12709,2.02502,2.63447,3.05434,2.71261,1.68162,-0.242987,1.31154,0.0849575,-4.0296,-9.74905,-10.81,18.8425,-13.6552,3.93963,7.47483,-7.18541,1.85465,3.18428e-14,-5.1684e-15,-29.013,-12.9585,-77.9756,30.6345,-9.83228,-16.6727,-23.2621,7.12502,9.55117,-53.0256,3.18428e-14,-5.1684e-15,-30.1433,9.22195,78.3588,38.202,4.07641,-14.766,-8.54061,7.12502,11.3905,21.13,-7.70705,-0.20938,32.0696,29.536,-20.0648,-9.12358,22.2485,-9.90059,-1.69874,-8.68766,31.4566,-19.7212,-3.80312,-6.50728
-7.11928,17.5272,22.9471,175.252,-48.1761,-171.632,6.07091,2.08634,2.59437,3.17404,2.781,1.66393,-0.0883688,1.34545,0.090222,-3.99214,-9.76353,-10.5141,18.6852,-13.657,3.75169,7.38126,-7.17843,1.75819,-8.92046e-15,-1.40143e-14,-28.8451,-12.9202,-78.0304,30.7495,-10.0844,-19.657,-22.1847,7.12502,6.67091,-52.0596,-8.92046e-15,-1.40143e-14,-30.0955,8.87121,78.3658,38.2807,4.07613,-14.7588,-8.50462,7.12502,11.3974,21.1656,-7.69733,-1.78115,31.8917,29.3506,-19.784,-7.34137,21.905,-9.98837,-1.6846,-8.69042,31.7964,-19.6657,-3.058,-8.04377
-7.11742,17.5281,22.9231,175.096,-47.8139,-171.347,6.01414,2.11041,2.77667,3.29614,2.80771,1.74883,0.0746669,1.35866,0.0795689,-4.19724,-9.7973,-10.6394,18.8098,-13.704,3.89176,7.48084,-7.19409,1.80099,-1.91579e-14,1.44119e-14,-28.7528,-12.7029,-78.0869,31.1113,-10.1019,-19.6821,-22.357,7.12502,6.64667,-52.2327,-1.91579e-14,1.44119e-14,-29.9335,9.06083,78.3531,38.1606,3.78686,-14.5738,-8.7245,7.12502,11.5757,20.9358,-7.58515,-1.15807,32.261,29.2311,-19.877,-7.57031,22.4227,-10.0521,-1.67951,-8.41569,32.0845,-19.6078,-2.40559,-8.93158
-7.11241,17.5266,22.8974,174.988,-47.5538,-171.083,6.03975,2.13045,2.9462,3.24824,2.84607,1.75553,0.0203082,1.37908,-0.0121908,-3.92231,-9.80115,-10.6002,18.7678,-13.7824,4.04555,7.43235,-7.22641,1.85207,1.78658e-14,-2.22639e-14,-28.9734,-12.5215,-78.1838,31.469,-10.0769,-17.7696,-23.1567,7.12502,8.49268,-52.9659,1.78658e-14,-2.22639e-14,-30.0135,9.02457,78.2402,38.0239,3.69552,-14.4642,-8.98102,7.12502,11.6815,20.6733,-7.52382,-0.703108,32.6144,29.1773,-20.0097,-7.65415,23.1248,-10.2014,-1.47435,-8.10281,32.4301,-19.5311,-2.12391,-8.96958
-7.11055,17.5279,22.8746,175.231,-47.4213,-171.327,6.0929,2.1271,2.77858,3.16755,2.84333,1.67843,-0.0973194,1.37722,-0.00200661,-3.49106,-9.79513,-10.4646,18.5974,-13.8252,4.00199,7.29099,-7.25306,1.84268,-3.25758e-14,2.18663e-15,-29.2045,-12.4077,-78.1917,31.6324,-10.2933,-16.6494,-23.2893,7.12502,9.57367,-53.0518,-3.25758e-14,2.18663e-15,-30.2274,8.81818,78.1788,37.8682,3.64176,-14.496,-8.99628,7.12502,11.6508,20.6598,-7.46565,-0.915874,32.4684,29.0642,-19.9855,-7.11653,23.6475,-10.3331,-1.46278,-8.20958,32.7383,-19.3584,-1.9869,-8.26027
-7.11129,17.5279,22.8525,175.554,-47.2488,-171.728,6.10801,2.08911,2.46187,3.18285,2.77728,1.66106,-0.106462,1.34132,0.160028,-3.54465,-9.70818,-10.5405,18.7688,-13.6889,3.86837,7.3425,-7.20704,1.81843,-4.33102e-14,-1.88845e-15,-29.1083,-12.3104,-78.0674,31.5317,-10.4742,-18.4705,-21.7254,7.12502,7.81627,-51.5609,-4.33102e-14,-1.88845e-15,-30.3196,9.05619,78.1645,37.5614,3.3167,-14.4812,-8.93397,7.12502,11.6651,20.7213,-7.43911,-1.14864,32.1823,29.052,-19.9664,-6.57142,23.7876,-10.4514,-1.59643,-8.47594,33.0776,-19.1935,-1.56397,-8.7165
-7.10577,17.53,22.8278,175.715,-46.9417,-171.834,6.11294,2.06926,2.26657,3.18654,2.74089,1.67244,-0.116226,1.32087,0.282464,-3.73768,-9.57141,-10.471,19.0912,-13.4883,3.69396,7.44928,-7.12485,1.75549,-9.18385e-14,-3.47873e-15,-28.9037,-12.1563,-78.0668,31.3392,-10.3918,-18.3701,-21.8199,7.12502,7.91315,-51.6518,-9.18385e-14,-3.47873e-15,-30.3867,9.31451,78.0261,37.2533,2.89105,-14.5956,-8.99791,7.12502,11.5548,20.6636,-7.49038,-1.29136,32.1828,29.0811,-19.9296,-6.28115,23.1274,-10.668,-1.49802,-8.46549,33.471,-18.8922,-1.01495,-10.8998
-7.10212,17.5351,22.8043,175.784,-46.6462,-171.715,6.10164,2.02083,2.28413,3.11888,2.68113,1.71414,-0.181478,1.29085,0.317761,-3.7554,-9.47824,-10.4581,19.2771,-13.3716,3.61775,7.49836,-7.08127,1.73613,3.49861e-14,-9.14409e-15,-28.9151,-11.6836,-78.1982,31.4436,-10.0142,-17.4335,-23.5075,7.12502,8.81703,-53.3033,3.49861e-14,-9.14409e-15,-30.577,9.49561,77.8177,36.9778,2.31062,-14.7507,-9.20725,7.12502,11.4052,20.4626,-7.60242,-1.5292,32.3345,29.0895,-19.8986,-5.85235,22.7482,-10.9923,-1.27204,-8.25701,33.937,-18.4974,-0.838855,-12.3886
-7.10439,17.5349,22.7838,175.79,-46.3608,-171.522,6.03853,1.95991,2.46071,3.13036,2.60371,1.80536,-0.131283,1.25225,0.320057,-3.88148,-9.40466,-10.6107,19.3633,-13.2552,3.64761,7.55336,-7.03325,1.77115,-3.80921e-14,1.54058e-14,-28.8914,-10.8185,-78.4746,31.7026,-9.39131,-16.8838,-25.5676,7.12502,9.34746,-55.3404,-3.80921e-14,1.54058e-14,-30.6251,9.86408,77.7183,36.6488,1.85884,-14.5546,-9.39515,7.12502,11.5943,20.2641,-7.64294,-1.53731,32.5224,29.0494,-19.9198,-5.45199,23.1367,-11.3495,-1.09954,-8.03782,34.5024,-18.1693,-0.632858,-13.3199
-7.10636,17.5306,22.7629,176.019,-45.9934,-171.622,5.89763,2.00922,2.43741,3.23964,2.6551,1.80927,0.0588543,1.27792,0.341835,-4.17517,-9.3596,-10.6006,19.397,-13.169,3.72726,7.61384,-6.97631,1.7877,-4.36705e-14,1.66979e-14,-28.6044,-11.4674,-78.0756,31.5668,-10.2972,-15.867,-24.8017,7.12502,10.3285,-54.5281,-4.36705e-14,1.66979e-14,-30.3849,9.99045,77.8072,36.3071,2.076,-14.5979,-9.33463,7.12502,11.5525,20.327,-7.62604,-1.28303,32.5145,28.9376,-19.9577,-5.09127,23.8929,-11.7287,-0.961579,-8.04456,35.1634,-17.9031,-0.522418,-13.1
-7.10765,17.5275,22.7383,176.144,-45.6226,-171.646,5.82408,2.1297,2.45568,3.28851,2.81056,1.77129,0.15469,1.35665,0.28833,-4.15662,-9.34252,-10.3659,19.2554,-13.1554,3.72987,7.54534,-6.95052,1.76014,3.60297e-15,-3.49861e-14,-28.5168,-12.0253,-77.8336,31.4884,-10.3328,-16.1125,-23.4837,7.12502,10.0916,-53.2217,3.60297e-15,-3.49861e-14,-30.2516,9.7717,77.8722,36.0219,2.32115,-14.8808,-8.94699,7.12502,11.2797,20.7297,-7.51758,-1.16936,32.5673,28.7246,-19.9034,-4.74265,24.175,-12.0836,-0.738076,-7.95352,35.8965,-17.6497,-0.712484,-12.1484
-7.11041,17.526,22.7117,175.983,-45.4334,-171.512,5.98515,2.12776,2.64601,3.2777,2.82187,1.72223,0.0666318,1.36345,0.124902,-3.98806,-9.24998,-10.104,19.1261,-13.0452,3.6306,7.43889,-6.89203,1.714,3.06625e-14,-2.09718e-14,-28.726,-12.2606,-77.7807,31.6171,-10.0966,-17.1427,-23.0386,7.12502,9.09764,-52.8224,3.06625e-14,-2.09718e-14,-30.4504,9.56151,77.7055,35.9013,2.46543,-14.4315,-8.40743,7.12502,11.713,21.2451,-7.19253,-1.39913,32.7177,28.3996,-19.774,-4.5076,23.6957,-12.3648,-0.499073,-7.73274,36.6814,-17.3202,-0.75565,-12.6385
-7.11379,17.5299,22.6827,175.843,-45.364,-171.562,6.27367,2.02425,2.73231,3.26748,2.69865,1.59981,-0.0958045,1.30182,-0.052987,-3.91109,-9.08985,-9.86137,19.1601,-12.8542,3.5661,7.40031,-6.79624,1.6809,-1.31198e-14,9.34288e-15,-28.997,-12.433,-77.8696,31.7801,-10.3468,-17.3613,-23.3858,7.12502,8.88667,-53.1786,-1.31198e-14,9.34288e-15,-30.7366,9.476,77.3992,35.7325,2.61199,-14.1482,-8.1726,7.12502,11.9862,21.4642,-6.65783,-1.52493,32.7324,27.9383,-19.6585,-4.3576,23.5698,-12.5887,-0.416929,-7.6388,37.5294,-16.929,-1.08657,-11.899
-7.11642,17.5471,22.6543,175.848,-45.1328,-171.676,6.45295,2.0206,2.75518,3.2612,2.70113,1.51726,-0.196453,1.30261,-0.157439,-3.81894,-9.00232,-9.7812,19.2241,-12.782,3.65031,7.39911,-6.75682,1.70655,3.50109e-14,-6.36111e-15,-29.1124,-12.7472,-77.8134,31.704,-10.3512,-15.7931,-23.8746,7.12502,10.3997,-53.5974,3.50109e-14,-6.36111e-15,-30.8266,9.78595,77.1916,35.2961,2.14973,-14.2517,-8.33515,7.12502,11.8864,21.3074,-6.16684,-1.27256,32.7243,27.3512,-19.4786,-4.23166,24.0337,-12.9162,-0.371835,-7.59774,38.4624,-16.474,-1.56107,-9.70232
-7.1211,17.5684,22.6333,175.974,-44.8288,-171.79,6.49805,2.00257,2.66873,3.30259,2.66791,1.66671,-0.190782,1.28152,0.0453339,-3.99007,-8.92069,-10.1182,19.3495,-12.6283,3.64811,7.48312,-6.70517,1.75963,-8.79374e-14,-2.08724e-15,-28.9647,-12.422,-77.5446,31.5599,-10.4464,-13.7578,-24.4102,7.12502,12.3626,-54.0247,-8.79374e-14,-2.08724e-15,-30.901,10.5949,77.2791,34.882,1.56513,-13.9639,-8.61952,7.12502,12.1639,21.0068,-5.83567,-1.17936,32.6708,26.7457,-19.1946,-3.94936,24.1389,-13.4291,-0.421119,-7.57977,39.4777,-15.9754,-1.93892,-6.91317
-7.13005,17.5787,22.6189,175.861,-44.695,-171.648,6.6478,1.86714,2.76798,3.35932,2.48738,1.9201,-0.22498,1.185,0.257486,-4.27949,-8.8167,-10.4218,19.4198,-12.3755,3.41299,7.54572,-6.61755,1.73922,-4.50868e-14,1.25731e-14,-28.8479,-11.6745,-77.2925,31.6134,-11.0133,-15.5909,-24.3678,7.12502,10.5948,-54.0807,-4.50868e-14,1.25731e-14,-31.0802,11.2369,77.4279,34.5418,1.21685,-13.9211,-8.78181,7.12502,12.2052,20.8421,-5.50945,-1.68476,32.7303,26.2176,-18.9081,-3.43799,23.4756,-13.9909,-0.663214,-7.37048,40.5585,-15.4867,-2.22142,-4.37859
-7.14312,17.5767,22.6131,175.519,-44.6023,-171.28,6.93436,1.77809,3.3335,3.40849,2.40213,1.95231,-0.309919,1.14263,-0.027357,-4.30085,-8.78364,-10.2363,19.1953,-12.2955,3.28704,7.44901,-6.56949,1.68386,3.41164e-14,-1.63997e-15,-28.8882,-11.6733,-77.3141,31.7879,-11.3409,-17.2219,-24.3556,7.12502,9.02126,-54.1427,3.41164e-14,-1.63997e-15,-31.0754,11.3555,77.3211,34.1145,0.985109,-14.1043,-8.8084,7.12502,12.0285,20.8259,-5.20592,-2.37489,32.9105,25.8306,-18.6955,-2.80693,22.9247,-14.5103,-0.746115,-7.06873,41.6532,-15.002,-1.99358,-4.87194
-7.15209,17.5737,22.5924,175.754,-44.6171,-171.082,6.57955,1.72873,3.68455,3.36681,2.34683,1.85417,-0.138184,1.12479,-0.309355,-4.18816,-8.74219,-9.90246,18.891,-12.2711,3.38404,7.31,-6.52272,1.68054,6.97734e-14,-1.53064e-14,-28.9968,-11.9918,-77.6096,32.0714,-12.2905,-18.1724,-24.182,7.12502,8.10396,-54.0066,6.97734e-14,-1.53064e-14,-30.9409,11.3662,77.1272,33.664,0.948343,-14.2071,-8.89106,7.12502,11.9294,20.749,-5.44522,-2.7677,33.0534,25.6038,-18.6328,-2.24688,23.3691,-15.504,-0.622863,-6.8682,42.7205,-14.4715,-1.8829,-5.26505
-7.14394,17.5626,22.5478,175.824,-44.0181,-171.162,6.6196,1.92743,3.41959,3.38569,2.59753,1.81564,-0.143998,1.24757,-0.217927,-4.26478,-8.67937,-9.76767,18.9947,-12.2408,3.59449,7.35821,-6.48464,1.72447,7.06679e-14,-8.34896e-15,-29.1379,-13.0416,-77.2938,32.0176,-10.4269,-16.6511,-24.3944,7.12502,9.57202,-54.1569,7.06679e-14,-8.34896e-15,-30.9461,11.2623,77.0068,33.3236,0.949335,-14.1269,-8.85843,7.12502,12.0067,20.7772,-5.20513,-2.6482,33.1272,25.48,-18.6671,-1.74939,23.6513,-15.8488,0.0594813,-6.71256,43.7469,-14.0094,-2.01064,-5.15307
-7.14663,17.5575,22.5162,175.799,-43.6175,-171.164,6.7778,2.00431,3.44217,3.41121,2.70374,1.80336,-0.200406,1.29868,-0.254997,-4.56206,-8.64968,-9.66649,19.2422,-12.193,3.55857,7.47893,-6.45595,1.68248,5.98839e-15,-1.83876e-14,-29.1206,-13.2917,-77.0695,31.8248,-9.9969,-16.5958,-23.4772,7.12502,9.62534,-53.2373,5.98839e-15,-1.83876e-14,-31.01,11.24,76.9097,33.0558,0.891295,-13.7262,-8.68759,7.12502,12.3931,20.925,-4.97733,-2.77943,33.1918,25.3618,-18.6416,-1.42257,23.3544,-16.25,0.517703,-6.60309,44.7582,-13.4791,-1.86565,-6.25171
-7.15367,17.5525,22.4904,175.579,-43.3473,-170.806,6.80025,1.98369,3.69974,3.50144,2.67813,1.95174,-0.11424,1.28434,-0.242936,-4.90952,-8.61828,-9.62333,19.3446,-12.0843,3.38365,7.55279,-6.407,1.61186,1.14028e-13,-3.3197e-14,-29.0097,-13.4223,-76.8111,31.7079,-10.2135,-15.9019,-23.434,7.12502,10.2948,-53.162,1.14028e-13,-3.3197e-14,-30.9645,11.6079,76.8462,32.6841,0.708751,-13.5125,-8.64484,7.12502,12.5992,20.9552,-4.8241,-2.78796,33.5343,25.226,-18.5847,-1.24968,22.9941,-16.7551,0.858778,-6.22422,45.7672,-12.9486,-1.79368,-6.23043
-7.16605,17.5521,22.4743,175.304,-43.1528,-170.534,6.96863,1.93956,3.98754,3.62115,2.62524,2.10018,-0.0775152,1.25458,-0.250405,-5.1454,-8.58933,-9.62605,19.3026,-11.975,3.22432,7.5638,-6.35922,1.56202,2.86871e-14,-1.86361e-14,-28.9179,-13.7233,-76.5268,31.5407,-10.2156,-14.8923,-23.8841,7.12502,11.2686,-53.5614,2.86871e-14,-1.86361e-14,-30.8733,12.1456,76.8875,32.1948,0.230314,-13.9017,-8.54304,7.12502,12.2239,21.0798,-4.53908,-2.80219,33.7382,25.0042,-18.4532,-0.995578,22.6881,-17.184,1.03637,-5.99407,46.7869,-12.4732,-1.6672,-5.51096
-7.1838,17.5523,22.4685,175.149,-42.8303,-170.842,7.60108,1.93972,4.04189,3.71029,2.64593,2.09205,-0.330706,1.25589,-0.311111,-5.06888,-8.51251,-9.74463,19.0827,-11.8366,3.20067,7.47502,-6.29999,1.59525,4.44408e-14,1.58531e-14,-28.9177,-13.6411,-76.3211,31.297,-10.3219,-15.3242,-23.2626,7.12502,10.852,-52.9622,4.44408e-14,1.58531e-14,-30.9859,12.6056,76.9092,31.7826,-0.290178,-14.1813,-8.44969,7.12502,11.9543,21.189,-3.88575,-2.93574,33.4002,24.6583,-18.256,-0.46692,22.9132,-17.2877,1.13838,-6.32489,47.8009,-12.1829,-1.3228,-5.19925
-7.19447,17.5539,22.426,175.339,-42.7709,-170.706,7.29919,1.90947,4.11783,3.58976,2.60796,2.14699,-0.288904,1.24071,-0.286124,-4.76403,-8.33904,-9.92863,18.9292,-11.6641,3.51486,7.38878,-6.21234,1.75915,-2.48574e-14,-2.13818e-14,-29.0827,-13.5209,-76.1534,31.1205,-10.4762,-17.6088,-21.4292,7.12502,8.64791,-51.2321,-2.48574e-14,-2.13818e-14,-31.2418,12.6976,76.7865,31.4475,-0.489816,-13.8925,-8.68738,7.12502,12.2328,20.9349,-3.78601,-2.82492,33.6282,24.201,-18.1662,-0.562193,22.8485,-18.1729,1.44385,-6.16489,48.7992,-11.883,-1.14391,-6.48458
-7.21164,17.5565,22.3964,175.035,-42.4398,-170.116,7.26929,1.93363,4.7539,3.55849,2.67432,2.21204,-0.272607,1.27773,-0.57664,-4.75226,-8.18688,-9.86212,18.9663,-11.5004,3.68135,7.39157,-6.12022,1.81908,-3.02525e-14,5.41937e-14,-29.1328,-13.8085,-75.9786,30.9156,-10.3374,-15.0992,-24.8235,7.12502,11.0691,-54.5116,-3.02525e-14,5.41937e-14,-31.3575,12.616,76.6821,31.1113,-0.442656,-13.7392,-8.83132,7.12502,12.3805,20.7821,-3.50528,-2.82568,34.1196,23.7251,-17.9506,-0.338583,22.6235,-18.8623,1.85711,-5.67287,49.7622,-11.6968,-0.706208,-8.47345
-7.23075,17.5603,22.3695,174.69,-42.0288,-169.734,7.46579,1.94846,5.25364,3.62897,2.72224,2.26171,-0.281586,1.30137,-0.811559,-4.91557,-8.102,-9.59799,18.9197,-11.3414,3.45587,7.36388,-6.03885,1.71648,-6.90218e-14,1.66731e-14,-29.0057,-14.0845,-75.8392,30.6345,-9.96108,-17.6122,-22.5429,7.12502,8.64455,-52.3459,-6.90218e-14,1.66731e-14,-31.461,12.5873,76.6526,30.9314,-0.235297,-13.856,-8.57035,7.12502,12.2679,21.0498,-3.02828,-2.68081,34.4207,23.2465,-17.6603,0.101239,23.3341,-19.2255,2.00997,-5.3376,50.6481,-11.8818,-0.457034,-8.01645
-7.24891,17.5648,22.3388,174.613,-41.6889,-169.631,7.55091,1.95871,5.46532,3.66171,2.74692,2.306,-0.283909,1.31275,-0.887367,-4.93236,-8.05685,-9.33005,18.8062,-11.2278,3.09595,7.28498,-5.99233,1.57381,2.26459e-14,-9.16894e-15,-28.9367,-14.1327,-75.6987,30.4173,-9.66552,-17.922,-23.3672,7.12502,8.34558,-53.1823,2.26459e-14,-9.16894e-15,-31.6155,12.7926,76.6115,30.7827,-0.21828,-13.7797,-8.28436,7.12502,12.3415,21.3314,-2.64465,-2.77157,34.4991,22.8328,-17.4854,0.595709,23.5517,-19.5879,2.11548,-5.23586,51.4075,-12.4171,-0.727939,-2.94276
-7.26835,17.5692,22.3072,174.834,-41.3436,-169.75,7.44449,2.03902,5.41509,3.65421,2.84274,2.36872,-0.23358,1.36011,-0.797609,-5.08403,-8.0793,-9.34814,18.9722,-11.2348,2.97647,7.36104,-6.00732,1.52703,-3.38276e-14,6.54747e-15,-29.0709,-14.3157,-75.3669,30.3736,-9.41242,-17.3079,-24.1335,7.12502,8.93824,-53.9242,-3.38276e-14,6.54747e-15,-31.6823,13.3099,76.6122,30.4354,-0.481472,-13.7996,-8.14476,7.12502,12.3223,21.4721,-2.44271,-2.77776,34.4159,22.5651,-17.5194,0.833709,22.8022,-20.0863,2.56733,-5.35922,52.0107,-12.6817,-0.756893,-3.34102
-7.29007,17.5687,22.2734,175.11,-41.012,-169.9,7.27608,2.16777,5.38045,3.6365,3.00259,2.39246,-0.153729,1.44178,-0.758256,-5.23383,-8.09715,-9.4542,19.1583,-11.2709,3.09183,7.464,-6.02359,1.56543,8.96643e-14,-3.13086e-15,-29.2963,-14.8373,-74.9883,30.3495,-9.51316,-16.5184,-24.8672,7.12502,9.70002,-54.6238,8.96643e-14,-3.13086e-15,-31.7317,13.4728,76.6923,30.0935,-0.682786,-14.0108,-7.93304,7.12502,12.1187,21.696,-2.31882,-2.53188,34.3382,22.3852,-17.5969,0.903114,22.7641,-20.6109,3.03383,-5.50462,52.4853,-12.9182,-0.848284,-4.01579
-7.31458,17.5703,22.2431,175.341,-40.7262,-170.157,7.31265,2.26463,5.46486,3.61508,3.14363,2.26783,-0.176754,1.51543,-0.944427,-5.22184,-8.05608,-9.30412,19.1894,-11.2449,3.12946,7.46259,-5.99999,1.55736,-7.31155e-15,-1.43125e-14,-29.4665,-15.4195,-74.8452,30.0537,-10.0841,-16.3426,-25.708,7.12502,9.86962,-55.4567,-7.31155e-15,-1.43125e-14,-31.825,13.1228,76.7384,29.8717,-0.732831,-14.1331,-7.92687,7.12502,12.0008,21.7091,-2.11799,-2.67441,34.1056,22.1554,-17.5157,1.40019,22.6777,-21.0076,3.23008,-5.74189,52.8746,-13.0451,-1.14389,-2.64361
-7.34238,17.5789,22.2182,175.23,-40.3591,-170.319,7.73311,2.27323,5.61176,3.64232,3.18651,2.20905,-0.365803,1.53167,-1.10674,-5.22975,-7.93512,-9.17925,19.2229,-11.0789,3.03241,7.45045,-5.92297,1.52304,6.73259e-14,8.39865e-15,-29.4882,-15.7878,-74.6213,29.5235,-9.94286,-16.4575,-25.2408,7.12502,9.75879,-54.9947,6.73259e-14,8.39865e-15,-32.034,13.1375,76.7202,29.615,-0.421307,-14.3276,-8.40742,7.12502,11.8132,21.2394,-1.5982,-2.94787,33.8874,21.8166,-17.3128,1.9159,21.7802,-21.0935,3.34526,-5.9043,53.2234,-13.173,-1.43468,-0.838784
-7.37349,17.5904,22.1886,175.024,-40.3058,-170.064,7.86809,2.12478,5.922,3.60256,3.0168,2.34139,-0.480418,1.44209,-1.13686,-5.15676,-7.7627,-9.26737,19.2332,-10.8438,3.02033,7.43002,-5.82341,1.55918,3.00165e-14,1.88845e-15,-29.5179,-15.9235,-74.2734,29.0468,-9.61733,-17.6401,-23.3926,7.12502,8.6177,-53.1967,3.00165e-14,1.88845e-15,-32.3883,13.7728,76.5737,29.3044,0.171914,-14.0612,-9.50734,7.12502,12.0701,20.1246,-1.23039,-3.01894,34.0589,21.4158,-17.264,1.89142,21.0175,-21.5119,3.366,-5.76016,53.5133,-13.2963,-1.71964,0.246894
-7.40104,17.5957,22.1575,174.945,-40.0326,-169.863,7.93064,2.13783,6.14414,3.55053,3.05327,2.47648,-0.560758,1.45561,-1.1271,-5.02374,-7.67535,-9.28424,19.169,-10.7281,2.97837,7.37655,-5.77663,1.56691,-7.52151e-14,6.06293e-15,-29.6695,-16.1351,-73.9234,28.4938,-9.56306,-15.9677,-24.4499,7.12502,10.2313,-54.1811,-7.52151e-14,6.06293e-15,-32.6599,14.4835,76.3615,28.9955,0.419504,-13.2701,-10.7204,7.12502,12.8328,18.8651,-0.893628,-2.81952,34.2193,21.0199,-17.3133,1.96507,20.6262,-21.9555,3.59406,-5.62227,53.7005,-13.3704,-2.05181,0.847173
-7.42041,17.6011,22.1085,175.264,-39.7847,-170.07,7.67546,2.19589,5.76981,3.58595,3.08212,2.622,-0.411658,1.46867,-0.760725,-5.21793,-7.60242,-9.35625,19.2681,-10.5827,2.8608,7.43205,-5.72019,1.54409,-7.13885e-14,-5.26779e-15,-29.6547,-16.3997,-73.5308,28.0103,-9.13474,-16.5253,-23.5148,7.12502,9.69335,-53.2718,-7.13885e-14,-5.26779e-15,-32.7923,14.8221,76.5067,28.9079,-0.049904,-13.4369,-10.2497,7.12502,12.672,19.3458,-0.620656,-2.36992,34.1605,20.6681,-17.4133,1.82445,20.1924,-22.4533,3.83691,-5.74197,53.7369,-13.4757,-2.6272,1.93923
-7.44764,17.6125,22.0679,175.789,-39.5783,-170.583,7.46844,2.21016,5.33635,3.62145,3.05804,2.66067,-0.28965,1.45633,-0.469994,-5.59182,-7.49387,-9.57758,19.5689,-10.3933,2.88556,7.59922,-5.64345,1.58304,6.10766e-14,3.97569e-16,-29.626,-16.5417,-73.2739,27.7639,-9.18447,-16.8993,-23.9548,7.12502,9.33256,-53.7283,6.10766e-14,3.97569e-16,-32.9469,14.3767,77.118,29.1836,-0.891037,-14.6849,-7.54107,7.12502,11.4686,22.1252,-0.421101,-2.11765,33.7547,20.3642,-17.401,1.98806,20.1977,-22.9431,4.01068,-6.22445,53.6129,-13.4941,-3.05835,2.8526
-7.47893,17.6222,22.0314,176.19,-39.3735,-171.013,7.49317,2.26082,5.2471,3.53501,3.13643,2.50872,-0.386541,1.49781,-0.585782,-5.76755,-7.44133,-9.56615,19.8748,-10.3494,2.96971,7.73187,-5.6209,1.59972,4.25896e-14,-5.96354e-15,-29.9146,-17.2112,-73.0332,27.4882,-9.19959,-18.1176,-23.5022,7.12502,8.15683,-53.3248,4.25896e-14,-5.96354e-15,-33.2196,14.7085,76.7257,28.8765,-0.911372,-13.4774,-9.10948,7.12502,12.6329,20.4885,-0.25339,-1.99924,33.3589,20.1279,-17.3442,2.35725,20.8214,-23.3545,4.22065,-6.67282,53.378,-13.2496,-3.31387,2.12729
-7.50857,17.6329,21.9929,176.44,-39.2489,-171.336,7.68696,2.25244,5.29553,3.41337,3.15875,2.3038,-0.604539,1.50992,-0.836738,-5.83133,-7.38282,-9.3908,20.0702,-10.3109,2.99586,7.79582,-5.59397,1.57882,-7.2954e-14,1.66979e-14,-30.2309,-18.2608,-72.7084,27.0712,-8.65923,-20.1242,-21.4263,7.12502,6.2199,-51.3149,-7.2954e-14,1.66979e-14,-33.5797,14.5129,76.4479,28.8597,-0.684486,-12.9771,-9.10051,7.12502,13.1153,20.4671,-0.0614917,-2.03234,33.0568,20.0278,-17.3194,2.61504,20.4192,-23.7117,4.28488,-6.99711,53.0571,-12.9449,-3.42431,-0.224773
-7.5379,17.6407,21.9564,176.599,-39.1057,-171.581,7.83618,2.22794,5.16222,3.38882,3.12905,2.31455,-0.722594,1.49086,-0.756784,-5.75191,-7.28851,-9.22913,19.9638,-10.1736,2.85007,7.72025,-5.53026,1.52605,-1.18426e-13,-3.10104e-14,-30.2579,-18.8104,-72.3115,26.5187,-8.35455,-21.4426,-20.1848,7.12502,4.947,-50.1071,-1.18426e-13,-3.10104e-14,-33.8925,14.4538,76.4912,28.8678,-0.871723,-12.6692,-8.55225,7.12502,13.412,20.996,0.188342,-2.10261,32.8156,19.9555,-17.3086,2.67909,18.6926,-24.0405,4.3255,-7.26989,52.6616,-12.565,-3.47202,-2.0637
-7.56841,17.634,21.922,176.683,-38.9355,-171.626,7.83725,2.25842,5.08445,3.39482,3.16078,2.43898,-0.726983,1.50295,-0.587944,-5.56311,-7.19645,-9.05283,19.7159,-10.0333,2.66946,7.57643,-5.46512,1.46714,4.22914e-14,-1.76918e-14,-30.2187,-18.9874,-72.008,26.0605,-8.4758,-21.9592,-21.1085,7.12502,4.44813,-51.0417,4.22914e-14,-1.76918e-14,-34.1188,14.6813,76.5941,28.7891,-1.43096,-12.0481,-8.69045,7.12502,14.0106,20.8174,0.39801,-2.17305,32.7167,19.8586,-17.4165,2.99288,19.1635,-24.4218,4.55925,-7.42477,52.1864,-12.2377,-3.36527,-6.85928
-7.60382,17.6254,21.8861,176.844,-38.9076,-171.666,7.7944,2.26184,5.22368,3.36164,3.17535,2.42041,-0.727634,1.51187,-0.684271,-5.6427,-7.12571,-8.8949,19.7323,-9.94008,2.64109,7.57941,-5.41084,1.4394,1.49089e-14,-3.45885e-14,-30.2167,-19.1274,-72.0111,25.598,-9.2464,-22.1639,-22.7466,7.12502,4.25054,-52.6839,1.49089e-14,-3.45885e-14,-34.2651,14.753,76.6163,28.7551,-1.76672,-11.6855,-8.88958,7.12502,14.36,20.5937,0.5082,-2.28829,32.6044,19.818,-17.4348,3.60863,22.8628,-24.8931,4.70248,-7.5943,51.6473,-12.0649,-4.03257,-3.60652
-7.64048,17.6291,21.8505,177.015,-38.7847,-171.77,7.86749,2.253,5.40067,3.32844,3.18346,2.36615,-0.788259,1.51635,-0.842752,-6.06271,-7.05934,-9.00569,20.1685,-9.86552,2.84015,7.80948,-5.36925,1.5035,-5.85421e-14,-1.0138e-14,-30.1797,-19.586,-71.8589,24.9964,-9.42608,-21.9094,-23.4366,7.12502,4.49629,-53.3688,-5.85421e-14,-1.0138e-14,-34.4046,14.5991,76.7445,28.7524,-1.90755,-12.0176,-8.70501,7.12502,14.0401,20.8008,0.621382,-2.41196,32.427,19.752,-17.2739,4.08633,24.9977,-25.3182,4.82938,-7.81764,51.0706,-12.2965,-4.32468,-2.72774
-7.67384,17.6386,21.8131,177.08,-38.5646,-171.806,7.97977,2.19376,5.46153,3.33981,3.11126,2.44749,-0.843069,1.47609,-0.791618,-6.35034,-6.89734,-9.2048,20.43,-9.62868,2.94952,7.94881,-5.26423,1.57877,-1.04412e-13,-2.14687e-14,-30.0753,-20.4651,-71.3088,24.3848,-8.00036,-21.5045,-23.2412,7.12502,4.88723,-53.1648,-1.04412e-13,-2.14687e-14,-34.5816,14.5465,77.0141,28.7434,-2.03703,-12.9326,-8.1154,7.12502,13.1581,21.4494,0.872609,-2.61578,32.2984,19.5002,-17.2717,4.36009,23.8852,-25.6827,5.06476,-7.96965,50.4758,-12.3112,-4.3179,-5.05632
-7.70885,17.6393,21.7734,177.134,-38.5133,-171.717,7.94496,2.1038,5.55374,3.35821,2.98942,2.56745,-0.812075,1.41306,-0.707708,-6.29398,-6.73353,-8.93535,20.1156,-9.3397,2.59826,7.78446,-5.13069,1.45974,-2.72335e-14,-2.38542e-14,-29.9544,-21.3133,-70.7941,23.8066,-6.6006,-21.8357,-21.9704,7.12502,4.56743,-51.9012,-2.72335e-14,-2.38542e-14,-34.7071,14.4302,77.3182,28.7947,-2.01328,-13.5593,-7.38545,7.12502,12.554,22.2174,1.13334,-2.78775,32.3114,19.1461,-17.3955,4.27875,22.1511,-26.1777,5.14322,-8.012,49.8693,-12.3068,-4.37761,-7.13138
-7.74494,17.6333,21.7352,177.358,-38.3903,-171.672,7.83575,2.18458,5.76258,3.29277,3.1114,2.50803,-0.797698,1.4777,-0.890956,-6.17428,-6.74206,-8.27044,19.7854,-9.34544,2.23017,7.60121,-5.10929,1.24673,1.37261e-13,-1.27222e-14,-30.1202,-22.1695,-70.5194,23.4554,-6.23858,-22.3439,-20.6646,7.12502,4.07668,-50.6053,1.37261e-13,-1.27222e-14,-34.7371,13.8803,77.4939,28.8506,-2.049,-13.0653,-7.36887,7.12502,13.0303,22.2042,1.19862,-2.54689,32.3368,18.8446,-17.3782,4.19612,21.8556,-26.8081,5.25385,-8.08627,49.2247,-12.36,-4.40867,-8.43115
-7.78027,17.6345,21.6966,177.633,-38.1179,-171.77,7.83122,2.33204,5.90055,3.21833,3.32621,2.41025,-0.845913,1.58704,-1.08587,-6.1463,-6.77524,-7.82308,19.6975,-9.41999,2.11046,7.54142,-5.12086,1.13387,-6.13251e-14,-3.77691e-15,-30.3278,-22.907,-70.3029,23.0907,-6.09323,-22.122,-21.3016,7.12502,4.29098,-51.2381,-6.13251e-14,-3.77691e-15,-34.77,13.1984,77.7096,28.8247,-2.09996,-12.5394,-7.61496,7.12502,13.5371,21.925,1.30914,-2.23318,32.2312,18.5453,-17.2119,4.51739,22.5689,-27.3027,5.51107,-8.2579,48.5228,-12.3511,-4.52866,-8.43508
-7.81607,17.637,21.6564,177.719,-37.9204,-171.847,7.95192,2.38646,5.98221,3.24146,3.40804,2.42619,-0.879147,1.6256,-1.12556,-6.26182,-6.7458,-7.69432,19.732,-9.37461,2.05319,7.56121,-5.09319,1.09461,2.1911e-13,0,-30.3756,-23.6873,-69.9373,22.531,-5.30258,-21.6788,-22.6593,7.12502,4.71895,-52.5867,2.1911e-13,0,-34.822,12.6887,78.0477,28.7905,-1.80982,-12.7357,-7.51742,7.12502,13.348,22.035,1.66956,-2.33663,32.0923,18.2115,-17.1149,4.97698,22.5686,-27.5976,5.71076,-8.43178,47.7588,-12.2869,-4.51022,-8.20719
-7.85388,17.6452,21.6147,177.685,-37.8056,-171.737,8.07574,2.40261,6.20387,3.25264,3.4488,2.47494,-0.921673,1.64294,-1.20623,-6.46775,-6.69946,-7.64652,19.8995,-9.31017,2.05622,7.64717,-5.05884,1.08318,7.26558e-14,-6.40087e-14,-30.4501,-24.2954,-69.7104,22.119,-5.09186,-21.503,-23.8476,7.12502,4.88863,-53.7712,7.26558e-14,-6.40087e-14,-34.9029,12.214,78.3541,28.869,-1.53239,-12.986,-7.32299,7.12502,13.1067,22.2451,2.02644,-2.51125,32.0894,17.9528,-17.3746,5.16055,21.2475,-27.9124,5.84898,-8.45515,46.9185,-12.1471,-4.51149,-7.44228
-7.89311,17.6596,21.5717,177.581,-37.7377,-171.393,8.11038,2.31787,6.50348,3.2275,3.35433,2.6734,-0.965493,1.58953,-1.16193,-6.50521,-6.5544,-7.93629,19.8965,-9.08817,2.16488,7.66124,-4.965,1.18434,-1.16289e-13,7.95139e-16,-30.284,-24.011,-69.7595,21.8071,-6.0667,-20.3993,-25.7198,7.12502,5.95436,-55.6161,-1.16289e-13,7.95139e-16,-35.1008,12.1693,78.614,28.9953,-1.48161,-12.98,-7.29271,7.12502,13.1125,22.275,2.23534,-2.55321,32.3162,17.7731,-17.8215,4.97475,18.9668,-28.2992,5.87197,-8.24062,45.9906,-11.9199,-4.72332,-6.33377
-7.93342,17.6668,21.5278,177.585,-37.6221,-171.306,8.13789,2.27146,6.492,3.2859,3.279,2.90075,-0.938547,1.54536,-0.91477,-6.53455,-6.42087,-8.30963,19.7181,-8.85653,2.29781,7.62002,-4.86419,1.31126,-1.18177e-13,3.1408e-14,-30.041,-24.0024,-69.4557,21.3365,-5.69587,-21.3998,-24.5765,7.12502,4.98835,-54.4978,-1.18177e-13,3.1408e-14,-35.1568,12.4748,78.8664,28.9262,-1.62266,-12.9572,-7.47984,7.12502,13.1344,22.0865,2.52325,-2.57427,32.3108,17.489,-17.9045,5.12156,18.1715,-28.5749,5.93215,-8.25893,44.9998,-11.8852,-4.80262,-5.91212
-7.97598,17.6724,21.4841,177.835,-37.479,-171.611,8.17846,2.35467,6.26692,3.35112,3.36886,2.94217,-0.904444,1.58853,-0.754943,-6.63413,-6.42103,-8.35267,19.6319,-8.84284,2.37507,7.61412,-4.84783,1.34248,3.94588e-14,4.33351e-14,-30.0868,-24.8647,-68.8428,20.7868,-3.74234,-21.6199,-22.7276,7.12502,4.77584,-52.6537,3.94588e-14,4.33351e-14,-35.0234,12.527,79.1095,28.7534,-2.00867,-12.8785,-7.73366,7.12502,13.2104,21.8278,2.89479,-2.49153,31.9654,17.0558,-17.6381,5.49246,19.0956,-28.8581,6.16731,-8.69533,43.9929,-11.8669,-4.64577,-6.15624
-8.01863,17.6766,21.4417,177.968,-37.3733,-171.659,8.27,2.39141,6.39738,3.29908,3.44027,2.89825,-0.993816,1.62298,-0.88346,-6.48841,-6.39182,-8.03717,19.4797,-8.8335,2.29719,7.51775,-4.82719,1.27662,-2.92213e-14,-1.51076e-14,-30.3757,-25.6482,-68.5318,20.4512,-2.40958,-22.3234,-21.4057,7.12502,4.09647,-51.346,-2.92213e-14,-1.51076e-14,-35.0475,12.0646,79.2732,28.7203,-2.01906,-12.7518,-8.12233,7.12502,13.3324,21.4312,3.25256,-2.40268,31.8734,16.6042,-17.3778,5.66829,19.4258,-29.2584,6.30723,-8.91914,42.998,-11.6363,-4.18173,-8.03758
-8.06148,17.6748,21.3978,177.843,-37.3256,-171.339,8.40092,2.36641,6.76891,3.25928,3.44318,2.96876,-1.08697,1.61932,-1.02274,-6.40128,-6.28412,-7.59268,19.3167,-8.68432,2.01557,7.40604,-4.74712,1.13639,-2.67365e-14,-1.94809e-14,-30.5252,-26.172,-68.39,20.2742,-1.92985,-22.9157,-20.8809,7.12502,3.52447,-50.8315,-2.67365e-14,-1.94809e-14,-35.1347,11.5273,79.5242,28.7847,-1.6701,-12.8642,-8.40895,7.12502,13.2241,21.1516,3.66565,-2.52507,32.0906,16.0897,-17.2073,5.72923,18.6343,-29.6507,6.35869,-8.80954,42.0197,-11.2644,-3.9943,-6.06017
-8.10571,17.6808,21.3523,177.832,-37.2835,-171.142,8.42552,2.36563,6.97621,3.27762,3.45079,3.08277,-1.07388,1.61963,-1.02027,-6.52869,-6.22089,-7.40016,19.3752,-8.57334,1.80432,7.42367,-4.69787,1.04299,-5.41688e-14,-3.22031e-14,-30.4325,-26.3521,-68.3434,20.1198,-1.78962,-22.9262,-21.6335,7.12502,3.51442,-51.5843,-5.41688e-14,-3.22031e-14,-35.1476,11.2421,79.8618,28.8785,-1.42934,-13.0826,-8.4242,7.12502,13.0136,21.1499,4.06443,-2.65192,32.1875,15.4344,-16.9761,5.77917,17.811,-30.0558,6.41795,-8.81483,41.0377,-10.7973,-3.83184,-5.98706
-8.15273,17.6926,21.305,178.011,-37.1922,-171.173,8.38119,2.39475,7.06127,3.28931,3.48768,3.12691,-1.03161,1.63794,-1.02201,-6.63873,-6.22937,-7.38813,19.4609,-8.57454,1.76011,7.46899,-4.70135,1.02117,-3.08116e-14,-2.82274e-14,-30.301,-25.9863,-68.5335,19.9562,-2.13851,-23.1778,-22.4436,7.12502,3.2714,-52.3983,-3.08116e-14,-2.82274e-14,-35.1276,11.036,80.1264,28.9172,-1.43109,-13.0414,-8.35494,7.12502,13.0533,21.2166,4.44648,-2.58144,32.0899,14.7386,-16.742,5.87995,17.3789,-30.4626,6.29195,-8.97616,40.0235,-10.5467,-3.63449,-3.44156
-8.2013,17.6952,21.2586,178.159,-37.0935,-171.186,8.37967,2.4468,7.15503,3.31686,3.55621,3.18975,-0.994709,1.67087,-1.01314,-6.67073,-6.25832,-7.29919,19.3058,-8.59587,1.70326,7.41808,-4.70372,0.988675,2.32578e-14,2.74323e-14,-30.1307,-25.7081,-68.6736,19.7409,-2.41894,-23.5325,-21.9838,7.12502,2.92884,-51.9435,2.32578e-14,2.74323e-14,-35.0143,10.9096,80.3829,28.8871,-1.75878,-12.5215,-8.25875,7.12502,13.5544,21.2801,4.85901,-2.64632,31.9839,14.0585,-16.5915,6.10274,16.4828,-30.8437,6.27128,-9.14555,38.9641,-10.3517,-2.9755,-8.54718
-8.24589,17.7028,21.2101,178.168,-36.9463,-170.986,8.4669,2.5051,7.33132,3.29502,3.65052,3.29613,-1.05349,1.71195,-1.01237,-6.63558,-6.22874,-7.16528,19.1565,-8.55507,1.66523,7.35274,-4.67438,0.963441,-8.17005e-14,-5.56597e-15,-30.1218,-25.8227,-68.6667,19.5947,-2.16385,-22.673,-21.8564,7.12502,3.75888,-51.803,-8.17005e-14,-5.56597e-15,-34.9615,10.5332,80.6857,28.9526,-1.6352,-12.2716,-7.91549,7.12502,13.7952,21.6071,5.30088,-2.65932,32.0815,13.3755,-16.4312,6.32219,15.772,-31.187,6.5275,-9.13098,37.8889,-10.1698,-2.79315,-9.70258
-8.28821,17.7119,21.1573,178.036,-36.742,-170.724,8.72124,2.51563,7.49964,3.26567,3.69685,3.40427,-1.21622,1.72439,-1.00998,-6.7288,-6.11999,-7.23735,19.2482,-8.4204,1.80745,7.40204,-4.6044,1.02844,5.04913e-14,9.54166e-15,-30.1347,-25.5382,-68.9543,19.5725,-2.7021,-21.5449,-22.9108,7.12502,4.84818,-52.8353,5.04913e-14,9.54166e-15,-35.1163,10.0099,80.9456,29.2333,-1.07258,-12.2981,-7.62583,7.12502,13.7697,21.8985,5.91388,-2.15796,32.3233,12.6639,-16.2454,6.21381,16.2882,-31.3575,6.61403,-8.96573,36.8527,-10.2001,-2.70866,-8.45381
-8.34164,17.7086,21.1112,178.135,-37.0027,-170.738,8.77666,2.37646,7.57696,3.25166,3.52233,3.4595,-1.27187,1.63379,-0.983626,-6.89533,-6.03248,-7.38032,19.3752,-8.3018,1.95868,7.48036,-4.54524,1.10325,-1.1609e-13,3.49861e-14,-30.0095,-24.7544,-69.4222,19.6788,-3.68558,-22.2046,-23.9002,7.12502,4.2112,-53.8383,-1.1609e-13,3.49861e-14,-35.2725,9.80453,81.1478,29.5026,-1.05951,-11.7591,-7.86826,7.12502,14.2891,21.6201,6.35897,-2.08021,32.2759,11.9819,-16.1096,5.98514,16.4889,-31.7313,6.00212,-9.1055,35.8198,-9.98594,-2.08867,-10.1501
-8.39542,17.6965,21.0636,178.344,-37.1102,-170.767,8.59356,2.38375,7.5759,3.32207,3.50168,3.5522,-1.1042,1.6265,-0.874929,-7.10284,-6.0775,-7.44364,19.3902,-8.33972,2.00564,7.52925,-4.55777,1.11749,-8.07066e-14,-6.36111e-15,-29.89,-24.5997,-69.5372,19.8567,-2.85681,-23.2326,-24.648,7.12502,3.21847,-54.6035,-8.07066e-14,-6.36111e-15,-35.0954,9.75319,81.4182,29.5717,-1.42808,-11.0525,-7.90083,7.12502,14.97,21.5381,6.65088,-2.3003,32.1483,11.4258,-15.9321,6.16195,15.9295,-32.1964,5.72914,-9.34094,34.7445,-9.99254,-1.38902,-11.6302
-8.44942,17.6889,21.0135,178.591,-37.0317,-170.916,8.38515,2.45999,7.52883,3.50644,3.5534,3.58272,-0.797622,1.66052,-0.806439,-7.43262,-6.19527,-7.67271,19.3596,-8.46534,2.22232,7.6048,-4.60271,1.20083,5.24792e-14,-7.15625e-15,-29.7437,-25.9574,-69.0121,19.6115,-1.48013,-21.2616,-22.65,7.12502,5.12179,-52.5681,5.24792e-14,-7.15625e-15,-34.7876,9.46154,81.7317,29.783,-1.31201,-10.5135,-7.70792,7.12502,15.4891,21.6916,6.99975,-2.56478,31.8753,10.9278,-15.5719,6.72966,16.1522,-32.5654,5.94719,-9.78088,33.6411,-10.3203,-1.09822,-12.3233
-8.50506,17.688,20.9615,178.762,-36.9605,-171.157,8.44072,2.40481,7.45309,3.63445,3.4632,3.55467,-0.703827,1.61761,-0.785644,-7.24503,-5.98156,-6.80508,18.7196,-8.08976,1.35982,7.26704,-4.42431,0.840135,7.55382e-15,2.46493e-14,-29.2634,-25.319,-69.673,19.6457,-1.51498,-20.4618,-23.4723,7.12502,5.89396,-53.3703,7.55382e-15,2.46493e-14,-34.7162,9.41866,81.838,30.0371,-1.07493,-10.1393,-7.8197,7.12502,15.8495,21.5516,7.57528,-2.69657,31.5521,10.2551,-15.1149,7.11891,17.1667,-32.7722,6.24734,-10.3145,32.5723,-10.3195,-1.05384,-13.6449
-8.56284,17.6812,20.9108,178.706,-36.825,-171.087,8.67332,2.288,7.5945,3.65919,3.33064,3.60992,-0.80866,1.54441,-0.80528,-7.75991,-5.84259,-7.49935,19.5074,-7.97655,2.21133,7.67697,-4.35772,1.20577,4.35338e-14,4.77083e-15,-28.8901,-24.5144,-70.2077,19.412,-1.97325,-22.487,-21.8441,7.12502,3.93854,-51.7875,4.35338e-14,4.77083e-15,-34.7807,9.98225,81.7643,30.0906,-1.47766,-10.1183,-8.04566,7.12502,15.8697,21.324,8.26185,-2.65761,31.5168,9.48941,-14.7105,7.40016,18.2225,-32.909,6.50258,-10.5426,31.5224,-10.6605,-0.823154,-12.0029
-8.61793,17.6785,20.8578,178.729,-36.6058,-170.958,8.78313,2.27372,7.58363,3.66496,3.31004,3.80238,-0.876134,1.52377,-0.602998,-7.33494,-5.75407,-6.81938,18.5875,-7.71931,1.15936,7.21683,-4.26192,0.812164,-2.20651e-14,6.67916e-14,-28.7626,-24.8531,-69.8659,19.3754,0.490764,-21.0466,-23.3116,7.12502,5.32932,-53.2245,-2.20651e-14,6.67916e-14,-34.9203,10.3238,81.961,30.2709,-1.72592,-10.6424,-8.14703,7.12502,15.365,21.2621,8.91538,-2.51717,31.5539,8.56503,-14.2452,7.60392,18.8168,-33.1102,6.6017,-10.5738,30.5111,-10.3327,0.137666,-16.9318
-8.67119,17.6831,20.8013,178.885,-36.4365,-170.851,8.78766,2.33126,7.57673,3.59837,3.38978,3.91915,-0.950518,1.55722,-0.486989,-7.1562,-5.61183,-6.22366,18.2854,-7.49671,0.575675,7.03029,-4.16063,0.562743,-4.4329e-14,-3.73715e-14,-28.6913,-23.3679,-70.7294,19.5239,-2.60481,-19.0985,-24.7767,7.12502,7.21009,-54.6338,-4.4329e-14,-3.73715e-14,-35.0978,9.88894,82.2626,30.582,-1.35954,-11.1375,-7.96982,7.12502,14.888,21.4752,9.65878,-2.40092,31.601,7.06366,-13.4023,7.68865,19.3238,-33.4604,6.44981,-10.5358,29.6255,-11.1068,0.230776,-10.0447
-8.71835,17.6749,20.7261,178.682,-36.5129,-170.74,8.96254,2.39015,7.50169,3.65465,3.46983,3.95469,-0.990231,1.5929,-0.421891,-6.86875,-5.57277,-5.4031,17.9545,-7.47801,0.131946,6.82008,-4.12986,0.309242,3.95581e-14,0,-28.9127,-23.37,-71.0456,19.8681,-2.80889,-19.6979,-22.8142,7.12502,6.63143,-52.6904,3.95581e-14,0,-35.0843,9.15765,82.4072,30.8197,-1.00251,-10.8499,-8.16055,7.12502,15.1651,21.2638,11.423,-2.61039,31.7168,4.42105,-12.2355,7.66876,19.1722,-33.5302,6.49905,-10.6207,28.8871,-10.8674,0.153689,-9.61565
-8.78008,17.6692,20.6669,178.519,-36.4216,-170.37,8.90727,2.42336,7.79622,3.77061,3.50131,4.11595,-0.825126,1.6065,-0.412947,-7.52151,-5.87103,-6.93752,18.7046,-7.95466,1.71312,7.32482,-4.33244,0.978732,-3.27995e-14,1.66979e-14,-28.6555,-23.1857,-71.2983,19.964,-3.13167,-19.0432,-23.1802,7.12502,7.26342,-53.0355,-3.27995e-14,1.66979e-14,-34.9488,8.91129,82.6948,31.0686,-0.52963,-10.3065,-8.76584,7.12502,15.6885,20.6182,13.8742,-2.60044,31.9328,9.54166e-15,-10.2241,7.63086,18.1371,-33.803,6.26222,-10.3988,28.2169,-11.3884,0.290694,-3.99398
-8.8451,17.6675,20.6058,178.533,-36.1439,-170.05,8.76889,2.44308,8.04267,3.82909,3.50983,4.27336,-0.678692,1.60901,-0.377319,-7.41532,-5.68996,-6.73544,18.3107,-7.66666,1.48119,7.1468,-4.19237,0.909777,-4.55217e-14,2.46493e-14,-28.2677,-22.7619,-71.5963,19.941,-3.29548,-20.3544,-20.1942,7.12502,5.9977,-50.0893,-4.55217e-14,2.46493e-14,-34.9479,8.99643,82.8477,31.295,-0.306557,-9.64414,-10.0213,7.12502,16.3263,19.3115,13.98,-2.38157,32.1325,4.77083e-14,-10.3338,7.92846,16.9161,-34.1722,5.90925,-10.0519,27.6605,-11.609,0.82031,-1.69026
-8.90544,17.6568,20.5427,178.662,-35.9324,-169.999,8.84597,2.48539,8.08512,3.77658,3.58416,4.25864,-0.767575,1.64333,-0.426841,-7.23142,-5.62251,-6.36767,18.0288,-7.5934,1.33158,6.99802,-4.1415,0.821145,2.54444e-14,-2.38542e-15,-28.2498,-22.5881,-71.9092,20.0976,-3.30832,-19.6573,-20.7391,7.12502,6.67064,-50.6141,2.54444e-14,-2.38542e-15,-35.0391,9.0665,82.6044,31.2969,-0.97716,-9.44386,-11.2986,7.12502,16.5191,18.0182,14.1512,-2.23629,32.1394,-2.22639e-14,-10.3312,8.10664,16.4811,-34.5053,5.58327,-9.9916,27.1493,-12.1383,1.31102,-0.827681
-8.96731,17.6422,20.4795,178.705,-35.6906,-169.893,8.92116,2.50161,8.07324,3.79024,3.60558,4.31987,-0.797799,1.64925,-0.361672,-7.31145,-5.66639,-6.25245,17.9317,-7.64008,1.25581,6.97477,-4.15782,0.773634,-1.27222e-13,-1.11319e-14,-28.2188,-22.6584,-72.1105,20.4018,-2.833,-18.5452,-22.3858,7.12502,7.74413,-52.224,-1.27222e-13,-1.11319e-14,-35.0689,9.11183,82.5159,31.3676,-1.14251,-11.0578,-8.64299,7.12502,14.9648,20.7963,14.3889,-2.07579,32.2027,2.8625e-14,-10.173,8.27525,17.7833,-34.7007,5.28594,-9.87036,26.5411,-12.3295,1.74478,-1.93874
-9.02971,17.6292,20.412,178.792,-35.3819,-169.803,8.88832,2.53358,8.01674,3.86283,3.62368,4.39918,-0.711174,1.65636,-0.246314,-7.13661,-5.33288,-5.24237,17.3749,-7.09571,0.115763,6.66226,-3.91465,0.314657,7.7526e-14,-6.36111e-15,-28.0058,-22.4528,-72.4971,20.6584,-2.58455,-18.5238,-22.177,7.12502,7.76475,-52.0144,7.7526e-14,-6.36111e-15,-35.0066,8.93793,82.7144,31.6907,-0.303459,-10.88,-8.78638,7.12502,15.1361,20.6401,14.6244,-1.84046,32.2447,-5.08889e-14,-10.1699,8.42212,19.0753,-34.8106,5.16527,-9.77449,25.7928,-12.794,2.12291,-3.46039
-9.08717,17.6124,20.3421,178.909,-35.1863,-169.792,8.90223,2.57003,7.79032,3.93074,3.64043,4.52802,-0.670997,1.65881,0.0110114,-8.38349,-5.76378,-7.85953,18.94,-7.76464,2.64536,7.62313,-4.20898,1.41526,6.54002e-14,-3.4191e-14,-27.6742,-21.4734,-73.1337,20.724,-3.90676,-19.2574,-18.9721,7.12502,7.05673,-48.8345,6.54002e-14,-3.4191e-14,-34.9175,8.85353,82.9255,31.8736,-0.0968105,-10.6207,-10.6724,7.12502,15.3858,18.7351,14.8668,-1.71948,32.2298,-2.54444e-14,-10.4393,8.44225,19.2973,-34.955,5.09293,-9.8369,25.1218,-13.207,2.70021,-5.52403
-9.15536,17.6044,20.2773,179.296,-34.9642,-170.01,8.76499,2.62321,7.52774,3.95406,3.67623,4.55008,-0.589721,1.67785,0.181617,-7.68885,-5.41827,-6.16254,17.6222,-7.18649,0.921959,6.90777,-3.94586,0.687727,3.598e-14,-3.89618e-14,-27.437,-21.452,-73.185,20.8941,-2.13721,-15.5622,-27.5507,7.12502,10.6225,-57.2622,3.598e-14,-3.89618e-14,-34.9082,8.76018,83.0362,32.0333,-0.381184,-12.422,-8.1344,7.12502,13.6503,21.398,14.9214,-1.52985,31.9761,-6.36111e-15,-10.6064,8.47397,19.4667,-35.2069,4.67694,-10.0075,24.5468,-13.6043,3.52912,-5.59572
-9.23102,17.5991,20.2028,179.457,-34.4349,-170.232,8.84914,2.77442,7.38975,3.98809,3.87771,4.41397,-0.591809,1.78157,0.0969146,-8.20759,-5.57319,-7.15837,18.3885,-7.50533,2.27579,7.35232,-4.05834,1.22311,-4.73108e-14,-1.59028e-14,-27.3076,-20.3783,-74.1139,21.0607,-4.13371,-18.4827,-23.8436,7.12502,7.80444,-53.6796,-4.73108e-14,-1.59028e-14,-35.0505,8.36049,82.9772,32.4043,-0.0438028,-11.2798,-9.34962,7.12502,14.7509,20.1055,15.3458,-1.09139,31.7303,-4.77083e-14,-10.7706,8.42324,19.0334,-35.0719,4.14558,-9.94851,24.1025,-14.3792,4.21949,-3.17568
-9.3196,17.5855,20.1399,179.526,-34.3129,-169.865,8.63969,2.77253,7.98095,3.93495,3.8979,4.39341,-0.483669,1.79879,-0.239819,-7.59821,-5.41423,-5.98649,17.4136,-7.23277,1.13046,6.82624,-3.9344,0.728652,5.26779e-14,-3.49861e-14,-27.3681,-20.4084,-74.5013,21.4098,-4.33672,-18.8173,-22.4358,7.12502,7.48155,-52.2835,5.26779e-14,-3.49861e-14,-35.104,8.12005,82.937,32.6054,0.285598,-11.1283,-9.03021,7.12502,14.8969,20.4142,15.4323,-0.996644,31.9256,1.27222e-14,-10.8174,8.47981,19.3235,-35.4191,3.31546,-9.50365,23.8072,-14.4795,5.42831,-7.09426
-9.39485,17.5602,20.0707,179.495,-34.0084,-169.4,8.55221,2.85032,8.3819,3.93424,4.0069,4.49119,-0.403802,1.85211,-0.360482,-7.68553,-5.40828,-5.845,17.2824,-7.20123,0.995571,6.7876,-3.91552,0.665749,3.3197e-14,-3.02153e-14,-27.3698,-21.1289,-74.3841,21.7753,-2.54196,-16.8087,-24.5342,7.12502,9.41996,-54.3037,3.3197e-14,-3.02153e-14,-35.0092,8.13823,82.9556,32.6034,0.136879,-11.2842,-9.53868,7.12502,14.7467,19.9167,15.5927,-0.738686,32.2325,1.59028e-14,-10.7252,8.67373,21.0039,-35.6731,3.36353,-9.21187,23.5369,-15.625,5.5014,-5.74215
-9.46648,17.5413,20.0012,179.578,-33.8052,-169.213,8.60667,2.82636,8.50448,3.90419,3.98759,4.54061,-0.460086,1.83789,-0.37842,-7.8508,-5.32188,-5.92494,17.2721,-7.07068,1.09776,6.81526,-3.84595,0.717952,3.4191e-14,-8.74653e-15,-27.1424,-19.9269,-75.1283,21.8994,-4.58566,-17.8829,-23.4048,7.12502,8.38338,-53.2184,3.4191e-14,-8.74653e-15,-35.0766,8.05394,82.9707,32.7286,0.243831,-11.4722,-10.1064,7.12502,14.5656,19.3622,15.7639,-0.585543,32.3057,-1.90833e-14,-10.5,8.81055,22.4496,-35.8339,3.5554,-9.23602,23.2979,-14.9679,5.97297,-10.2298
-9.54372,17.5397,19.9294,179.687,-33.5825,-168.987,8.61139,2.75813,8.6756,3.83498,3.91362,4.58122,-0.529501,1.79697,-0.426461,-7.88849,-5.20022,-5.82658,17.1494,-6.88443,0.97756,6.76757,-3.75681,0.681605,-6.71892e-14,2.70347e-14,-27.0712,-19.3088,-75.5862,22.2132,-4.70117,-17.8866,-23.0078,7.12502,8.37981,-52.8216,-6.71892e-14,2.70347e-14,-35.2282,7.93874,82.8882,32.8431,0.540164,-11.8334,-8.30006,7.12502,14.2176,21.1933,15.8016,-0.401478,32.4005,-1.90833e-14,-10.2148,8.97141,22.9606,-36.0088,4.33067,-9.51944,23.0918,-14.9312,5.46382,-9.53598
-9.62363,17.5132,19.8498,179.888,-33.1695,-168.966,8.59801,2.80208,8.67732,3.79576,3.97969,4.50409,-0.553372,1.83187,-0.512875,-7.87893,-5.10624,-5.21663,16.8323,-6.72039,0.387884,6.61537,-3.6799,0.417303,-5.96354e-16,8.50798e-14,-27.0364,-19.1679,-76.0451,22.483,-4.83102,-18.9897,-20.4152,7.12502,7.3151,-50.2688,-5.96354e-16,8.50798e-14,-35.2345,8.00994,82.6088,32.8076,0.432514,-11.3145,-11.0576,7.12502,14.7175,18.4,15.992,-0.0461627,32.3852,-6.36111e-15,-10.2371,8.87742,21.7484,-36.1628,5.2797,-9.98988,23.0629,-15.692,4.61032,-5.96073
-9.70372,17.5053,19.7641,180.028,-32.7936,-169.081,8.6697,2.85781,8.47528,3.8026,4.04924,4.47065,-0.594831,1.86499,-0.446428,-7.78614,-5.01804,-4.75217,16.3954,-6.5582,-0.135872,6.42055,-3.60557,0.202117,-9.30312e-14,-2.38542e-15,-26.8928,-19.2456,-76.2894,22.2876,-4.37801,-17.6851,-23.6658,7.12502,8.57423,-53.4717,-9.30312e-14,-2.38542e-15,-35.177,8.42265,82.3069,32.6399,-0.000535874,-11.5767,-9.09794,7.12502,14.4649,20.3779,16.3201,0.253957,32.207,4.77083e-14,-9.91592,8.96239,22.2454,-36.0007,5.37179,-10.1506,23.1247,-16.2113,4.34328,-3.37951
-9.78783,17.5041,19.6793,180.171,-32.5777,-169.179,8.64914,2.88637,8.27638,3.80102,4.07245,4.47931,-0.600325,1.87554,-0.33,-7.54867,-4.91931,-4.43925,15.9014,-6.40366,-0.469659,6.1966,-3.52917,0.0758986,9.06458e-14,7.39479e-14,-26.9698,-19.195,-76.4751,22.563,-4.00604,-17.9765,-22.7569,7.12502,8.29297,-52.5741,9.06458e-14,7.39479e-14,-35.0798,8.8419,82.134,32.3462,-0.207392,-11.6326,-10.998,7.12502,14.411,18.4817,16.628,0.40821,32.0034,-9.54166e-15,-9.56674,9.19449,23.2758,-35.8199,4.8904,-10.1312,23.3076,-16.2647,4.49886,-1.52222
-9.87274,17.4986,19.5934,180.4,-32.2927,-169.252,8.51375,2.98609,8.13694,3.77777,4.18918,4.42489,-0.550206,1.93816,-0.312727,-7.45146,-4.89898,-4.12204,15.6454,-6.3766,-0.691683,6.07958,-3.50901,-0.034355,9.52179e-14,6.36111e-14,-27.2311,-18.8846,-76.8316,23.3824,-4.57651,-17.949,-22.3468,7.12502,8.3196,-52.1629,9.52179e-14,6.36111e-14,-34.9481,8.77187,82.0624,32.1295,0.0837435,-13.0804,-8.06412,7.12502,13.0157,21.5098,16.8064,0.648053,31.83,-1.59028e-14,-9.41053,9.31456,23.2508,-35.7292,4.60591,-10.2153,23.5313,-16.0448,4.6107,0.833318
-9.96337,17.4864,19.5137,180.56,-31.7756,-169.278,8.53049,3.12872,8.06045,3.75192,4.38047,4.38452,-0.577919,2.03331,-0.328907,-7.45876,-4.94134,-3.90765,15.5839,-6.42236,-0.938958,6.04643,-3.5363,-0.148419,-8.74653e-15,-7.39479e-14,-27.3871,-18.5923,-77.1449,23.7834,-4.85385,-18.3819,-20.7143,7.12502,7.90176,-50.5466,-8.74653e-15,-7.39479e-14,-34.905,8.75548,81.9289,31.9642,0.11176,-11.8161,-11.1508,7.12502,14.2343,18.3414,17.0004,1.11029,31.6716,-8.5875e-14,-9.23821,9.44609,22.8055,-35.5758,4.54872,-10.3436,23.8199,-15.8005,4.49525,2.41398
-10.0203,17.4797,19.3802,180.842,-31.3347,-169.257,8.04715,3.29586,7.05282,3.75476,4.48495,4.65159,-0.410078,2.08038,0.516006,-7.53861,-4.90884,-3.98556,15.5196,-6.34081,-1.06763,6.03744,-3.50933,-0.171098,1.10524e-13,1.27222e-14,-27.3388,-17.9036,-77.3695,23.9314,-4.65998,-17.9363,-20.7922,7.12502,8.33186,-50.6079,1.10524e-13,1.27222e-14,-34.9389,9.12094,81.8074,31.7715,-0.035395,-12.0498,-10.1094,7.12502,14.009,19.3986,17.2511,1.48359,31.7794,-2.22639e-14,-9.17172,9.53058,22.5021,-35.6008,6.28224,-10.896,24.0786,-14.9753,2.18384,4.99393
-10.0988,17.4819,19.2707,180.958,-31.0758,-169.328,7.21419,3.3894,6.46063,4.31075,4.40917,4.88309,0.560368,2.04843,1.15464,-8.01875,-4.87359,-4.32892,15.0843,-6.20361,-0.92989,5.99718,-3.43225,-0.06771,-5.02925e-14,-4.69132e-14,-26.113,-15.9744,-78.0071,23.903,-6.08529,-16.9985,-22.7293,7.12502,9.23675,-52.5069,-5.02925e-14,-4.69132e-14,-34.0852,9.67202,82.0329,31.4689,-0.0245939,-12.7465,-8.3897,7.12502,13.3375,21.1634,17.6365,1.65926,31.6879,5.725e-14,-8.90799,9.50698,22.1748,-35.4164,6.91295,-11.2699,24.3141,-13.995,1.26994,7.03112
-10.1966,17.4789,19.1884,181.081,-30.922,-169.639,8.10008,3.26846,6.38783,3.86645,4.40253,4.62504,-0.380329,2.03684,0.858481,-7.86643,-4.74181,-4.28274,15.382,-6.07729,-0.800294,6.06501,-3.36976,-0.0259135,-1.64991e-14,-1.90833e-14,-26.8565,-16.3935,-78.1347,24.2716,-5.67069,-17.0056,-22.4552,7.12502,9.22994,-52.2332,-1.64991e-14,-1.90833e-14,-34.7604,9.56288,81.5365,31.384,0.212044,-12.789,-8.09115,7.12502,13.2966,21.4647,18.0628,1.73575,31.2455,2.54444e-14,-8.49627,9.63153,21.2409,-35.1979,6.55626,-11.7124,24.6276,-13.1659,1.86765,3.86371
-10.3111,17.4766,19.1164,181.302,-30.8414,-169.896,8.04385,3.25103,6.67161,3.9226,4.39876,4.31889,-0.243571,2.05106,0.393227,-8.04944,-4.81886,-4.16148,15.344,-6.20213,-0.642027,6.08731,-3.40565,-0.00960841,-4.7112e-14,-1.66979e-14,-26.7697,-16.5507,-78.4884,24.4437,-5.54219,-16.9553,-21.5273,7.12502,9.27849,-51.3031,-4.7112e-14,-1.66979e-14,-34.3865,9.66823,81.2155,30.9408,-0.0339416,-12.7184,-8.2501,7.12502,13.3647,21.3013,18.3204,1.78569,30.7538,4.77083e-14,-7.748,9.89264,21.1125,-35.0612,5.41169,-11.8567,24.8759,-12.3093,2.70072,1.08482
-10.433,17.4796,19.041,181.578,-30.6951,-169.948,6.17651,3.50834,6.7497,5.0155,4.40934,4.47802,1.92928,2.09423,0.674685,-8.78578,-5.15311,-4.53117,14.4832,-6.52955,-0.427093,5.96852,-3.53206,0.085475,-1.5863e-13,-1.90833e-14,-25.2362,-17.54,-78.2878,24.7342,-4.56303,-15.9062,-21.56,7.12502,10.2907,-51.2882,-1.5863e-13,-1.90833e-14,-32.2639,10.4923,81.8599,30.0715,-0.902702,-12.7492,-8.63286,7.12502,13.335,20.9205,18.3806,1.9264,30.4588,-3.18055e-15,-6.80867,9.98334,21.2194,-34.9907,4.16058,-11.7171,24.9444,-11.3106,3.22736,2.41721
-10.5488,17.4787,18.9556,181.571,-30.3942,-170.19,8.71782,3.13076,7.30413,3.4596,4.43043,3.72309,-0.99871,2.07071,-0.626171,-7.95687,-4.89379,-4.42614,15.5644,-6.40931,0.171764,6.18029,-3.46367,0.26989,-7.95139e-15,2.06736e-14,-27.3972,-15.3481,-79.4115,24.6905,-6.30926,-16.5467,-20.7365,7.12502,9.6727,-50.4944,-7.95139e-15,2.06736e-14,-34.6678,9.86711,80.3011,30.1084,-0.622172,-12.693,-8.62614,7.12502,13.3891,20.9236,18.8835,2.14356,30.0302,-2.22639e-14,-5.826,9.99679,21.293,-34.4617,3.2408,-11.8291,24.9357,-10.3899,3.90923,3.02655
-10.6575,17.4919,18.8552,181.765,-29.9868,-170.679,8.73196,3.12981,6.90142,3.54206,4.40061,3.54043,-0.941885,2.06277,-0.590047,-8.22487,-4.86043,-4.79403,15.8121,-6.37781,0.63695,6.33239,-3.43486,0.466138,-1.03368e-14,7.95139e-16,-27.8562,-17.0679,-79.1952,25.4081,-4.32016,-16.7727,-19.8362,7.12502,9.45469,-49.6041,-1.03368e-14,7.95139e-16,-34.5228,10.1005,80.0299,29.7353,-0.730542,-13.0615,-8.35185,7.12502,13.0339,21.2209,19.3631,2.47926,29.3686,3.18055e-15,-4.89463,9.96729,21.1548,-33.9199,2.86625,-12.273,24.934,-9.65026,4.23761,3.39091
-10.7669,17.5147,18.7442,181.789,-29.7728,-170.837,7.63227,3.32198,6.1851,4.31515,4.39695,3.96327,0.379071,2.07102,0.332694,-9.03138,-5.03083,-5.46495,15.8052,-6.45865,0.759602,6.50104,-3.48749,0.583209,-8.74653e-15,2.06736e-14,-26.6791,-15.5535,-79.2657,25.586,-5.72135,-16.7493,-20.8141,7.12502,9.47727,-50.581,-8.74653e-15,2.06736e-14,-33.252,10.9241,80.6809,29.0514,-1.32126,-13.1837,-8.33882,7.12502,12.9161,21.2415,19.7775,2.62598,29.0308,-3.18055e-15,-4.03138,9.83453,20.2366,-33.3244,2.77658,-12.4728,24.9316,-9.09767,3.98626,5.0765
-10.8803,17.5397,18.6345,181.704,-29.5597,-170.774,7.9093,3.20441,6.24558,4.12062,4.29579,3.88982,0.0296944,2.01699,0.20637,-9.29141,-4.95035,-5.81496,16.4348,-6.38328,1.18939,6.77166,-3.44956,0.765875,8.80616e-14,6.2816e-14,-26.9871,-14.8669,-79.5562,25.8589,-6.22812,-16.1266,-22.0045,7.12502,10.078,-51.7432,8.80616e-14,6.2816e-14,-33.4632,11.6309,80.1166,28.5764,-1.85396,-12.816,-8.52372,7.12502,13.2705,21.0338,20.1099,2.77433,28.9021,2.54444e-14,-2.84798,9.59186,19.0669,-32.6682,2.1397,-12.2165,24.9914,-8.79258,4.36237,7.72622
-10.9941,17.5586,18.5299,181.903,-29.376,-170.852,7.92675,3.10804,6.22744,3.87583,4.21073,3.74071,-0.229647,1.97795,0.0581825,-9.3193,-4.90796,-6.08457,16.8282,-6.38463,1.62918,6.92662,-3.44072,0.943193,3.12092e-14,-2.22639e-14,-27.3631,-14.655,-79.7776,26.0903,-6.2275,-15.7354,-22.3175,7.12502,10.4554,-52.0375,3.12092e-14,-2.22639e-14,-33.7046,12.0742,79.6201,28.2167,-2.2249,-12.9956,-8.40084,7.12502,13.0974,21.1679,20.2267,2.92757,28.6216,-4.13472e-14,-1.51295,9.47044,17,-32.3577,1.82261,-12.2496,25.1864,-8.41472,4.71133,9.08374
-11.1053,17.5704,18.4254,182.139,-29.2226,-171.139,7.93588,3.11603,5.99034,3.66219,4.24852,3.55959,-0.461872,2.00049,-0.00956792,-9.04199,-4.91703,-6.08946,16.9244,-6.47713,1.88216,6.92068,-3.47316,1.02213,4.57205e-14,-5.96354e-15,-27.6831,-14.6633,-79.8802,26.1594,-6.34238,-15.5238,-22.5528,7.12502,10.6595,-52.2625,4.57205e-14,-5.96354e-15,-33.8849,11.5447,79.4526,27.9733,-1.90629,-13.1443,-8.21369,7.12502,12.9541,21.3642,20.4296,3.03903,28.1467,-6.36111e-15,-0.0875624,9.49404,14.8962,-32.0822,2.26297,-12.7752,25.4153,-8.0254,4.68016,8.93507
-11.2153,17.5785,18.3201,182.289,-29.078,-171.605,8.09624,3.12184,5.59845,3.51679,4.27485,3.34706,-0.716563,2.01544,-0.0298999,-8.98164,-4.88645,-5.93306,17.2783,-6.50702,1.94035,7.02146,-3.48463,1.00962,-1.88845e-14,2.3059e-14,-27.9001,-14.6133,-79.9868,26.2756,-6.54089,-15.4462,-23.4001,7.12502,10.7343,-53.1058,-1.88845e-14,2.3059e-14,-33.9468,11.0986,79.2648,27.67,-1.5913,-12.8391,-7.96089,7.12502,13.2483,21.5981,20.7889,3.11859,27.4925,6.36111e-15,1.75058,9.34151,14.4334,-31.5852,2.66637,-13.4576,25.5643,-8.04557,4.79493,10.2317
-11.3241,17.5897,18.211,182.291,-28.9217,-171.712,8.19793,3.06862,5.47343,3.3963,4.22247,3.25759,-0.90349,1.98902,-0.0594506,-9.18459,-4.80978,-5.89126,17.8011,-6.4396,1.96664,7.22306,-3.45837,1.00553,-3.97569e-14,-3.18055e-15,-28.0874,-14.5555,-80.0828,26.4608,-6.50937,-15.6506,-23.8707,7.12502,10.5372,-53.5865,-3.97569e-14,-3.18055e-15,-33.9955,11.223,79.0175,27.4023,-1.7381,-12.364,-7.44851,7.12502,13.7062,22.0801,17.7982,3.13169,27.1043,6.47175,0.775744,10.1404,14.4472,-31.077,3.19572,-13.787,25.6522,-8.15171,4.52434,14.0013
-11.4326,17.6051,18.0957,182.404,-28.6911,-171.605,7.8684,3.05824,5.36275,3.33068,4.18596,3.32963,-0.805295,1.9736,0.0944809,-9.29206,-4.71629,-6.07231,17.9975,-6.31776,2.1222,7.31215,-3.40255,1.09159,7.95139e-15,-2.38542e-15,-28.1604,-14.6159,-80.0088,26.509,-6.49376,-16.1423,-22.2826,7.12502,10.0628,-52.022,7.95139e-15,-2.38542e-15,-33.9236,11.7675,78.8597,27.0664,-2.49108,-11.8835,-7.24101,7.12502,14.1692,22.2558,15.2722,3.24997,26.9456,11.5049,0.753751,10.8249,13.988,-30.7956,4.44157,-14.0926,25.6425,-7.61923,3.50422,16.1455
-11.5334,17.6072,17.9875,182.156,-28.641,-171.838,7.96057,2.9915,4.98783,3.51626,4.05856,3.31948,-0.695591,1.90816,0.301348,-9.29572,-4.61888,-6.13967,17.9364,-6.19914,2.29668,7.29523,-3.3338,1.17128,-1.07344e-14,2.26615e-14,-27.9563,-14.5814,-80.0886,26.39,-6.50671,-16.2463,-20.8569,7.12502,9.96253,-50.6012,-1.07344e-14,2.26615e-14,-33.633,11.9102,78.8348,26.8773,-2.75717,-11.7005,-7.02077,7.12502,14.3456,22.4636,13.7899,3.17512,26.5438,15.5559,1.55481,11.0739,13.6579,-29.9572,6.00447,-14.834,25.497,-6.75389,1.89039,16.0771
-11.6446,17.6222,17.8745,182.129,-28.5526,-172.348,8.45014,2.8785,4.5412,3.2642,3.94889,3.08687,-1.24758,1.85128,0.282571,-9.01643,-4.43492,-6.01544,18.1723,-6.04351,2.42315,7.31439,-3.25627,1.21096,6.21202e-14,2.70347e-14,-28.4736,-14.2583,-80.2892,26.3921,-6.57964,-16.1242,-20.8064,7.12502,10.0803,-50.5449,6.21202e-14,2.70347e-14,-34.025,11.6397,78.5103,26.8526,-2.54999,-11.4058,-6.99583,7.12502,14.6295,22.4681,12.392,3.17677,25.8246,19.2051,2.84066,11.0264,13.1061,-29.0479,7.01743,-15.6816,25.2738,-6.20925,0.929582,15.9669
-11.7553,17.6359,17.7616,182.376,-28.4686,-173.062,7.82044,2.91495,3.83878,3.62081,3.88691,2.93323,-0.572013,1.83161,0.561992,-9.23979,-4.4545,-5.62346,17.8887,-5.99315,1.93828,7.23225,-3.23388,0.993659,2.00773e-14,2.26615e-14,-28.0028,-14.2917,-80.3068,26.4528,-6.55028,-16.8382,-19.3391,7.12502,9.39149,-49.1099,2.00773e-14,2.26615e-14,-33.1589,11.9667,78.5219,26.3015,-3.18597,-11.0547,-7.06444,7.12502,14.9678,22.3747,10.9741,3.58846,24.9405,22.6611,4.68454,10.4367,14.8299,-28.3193,7.63831,-16.6674,24.955,-5.65751,0.583745,15.6028
-11.8626,17.6396,17.6521,182.599,-28.3358,-173.558,7.39153,2.90522,3.43207,3.79374,3.82096,2.74314,-0.173372,1.806,0.624486,-9.35768,-4.36364,-4.7976,17.6435,-5.79387,0.970113,7.11081,-3.15948,0.567432,-1.00684e-13,1.43125e-14,-27.6281,-14.2941,-80.4223,26.5073,-6.54875,-17.4707,-18.3722,7.12502,8.78111,-48.1696,-1.00684e-13,1.43125e-14,-32.5262,11.817,78.5175,25.8507,-3.54183,-10.8811,-6.77768,7.12502,15.135,22.6489,9.50632,4.00427,24.2852,26.0417,6.12643,10.2306,18.6178,-27.5742,7.96255,-17.3143,24.4381,-5.07604,0.437792,16.436
-11.973,17.6739,17.5357,182.756,-28.0217,-173.836,7.83893,2.79652,3.12472,3.27395,3.73763,2.58078,-0.969943,1.76646,0.594517,-9.66057,-4.3664,-5.83808,18.9717,-5.92474,2.07997,7.66998,-3.22773,1.05806,1.05654e-13,-1.19271e-14,-28.2139,-13.8888,-80.519,26.556,-6.63311,-17.034,-19.9796,7.12502,9.20252,-49.7588,1.05654e-13,-1.19271e-14,-33.2908,11.2705,78.2199,25.9788,-3.24125,-10.5498,-6.71772,7.12502,15.4541,22.6845,7.6853,3.99665,23.8652,29.3271,6.18791,11.3496,6.82559,-26.6963,8.41685,-17.6576,23.8503,-4.6196,0.156203,18.217
-12.077,17.7139,17.4314,182.5,-28.1077,-174.418,8.40458,2.60636,2.48313,3.24735,3.4647,2.52713,-1.34956,1.62358,0.891476,-9.28859,-4.29342,-5.95802,18.8146,-5.81218,1.97827,7.54809,-3.19811,1.06555,3.18055e-15,7.95139e-16,-28.1943,-13.5739,-80.4196,26.6517,-6.28399,-15.7621,-21.1817,7.12502,10.4297,-50.903,3.18055e-15,7.95139e-16,-33.5358,11.1464,78.178,26.1932,-3.13696,-10.4275,-6.84569,7.12502,15.5719,22.5474,6.22563,3.4492,23.2281,32.5242,6.78295,11.9121,0.273542,-25.3376,8.4402,-18.2778,23.309,-4.28364,-0.0870249,18.9925
-12.1855,17.7335,17.321,182.61,-27.929,-174.989,8.31648,2.57423,1.9071,3.25949,3.38181,2.39255,-1.31552,1.58514,1.0853,-9.13147,-4.22916,-5.63027,18.6269,-5.68746,1.50009,7.42942,-3.1579,0.874586,-3.00165e-14,3.97569e-16,-28.0935,-13.5408,-80.3027,26.856,-5.63034,-14.5116,-20.9624,7.12502,11.6357,-50.6193,-3.00165e-14,3.97569e-16,-33.4744,10.75,78.2315,26.3632,-2.96839,-10.4788,-6.89142,7.12502,15.5226,22.5055,4.6041,3.30311,22.5049,35.6492,8.30234,12.2212,-2.11326,-24.4035,9.02659,-19.0338,22.7732,-4.04203,-0.614729,18.55
-12.2918,17.7409,17.2159,182.543,-27.8547,-175.48,8.45636,2.53721,1.53808,3.31126,3.30641,2.22491,-1.35058,1.54764,1.1206,-9.72655,-4.18643,-5.92458,19.3218,-5.63899,1.80578,7.78051,-3.13636,1.0052,-5.33737e-14,1.07344e-14,-28.0226,-13.4787,-80.3331,27.2427,-5.59608,-14.5128,-21.0592,7.12502,11.6346,-50.7162,-5.33737e-14,1.07344e-14,-33.2574,10.2169,78.3288,26.5111,-2.86232,-10.2218,-6.80746,7.12502,15.7701,22.5701,3.45631,3.72668,21.8904,38.6957,10.4074,12.1102,-0.579881,-23.2479,9.27186,-19.6204,22.1686,-3.99458,-0.893627,18.7378
-12.3979,17.7505,17.1114,182.538,-27.7282,-175.961,8.33796,2.50308,1.09401,3.46737,3.21421,2.16928,-1.14531,1.49842,1.32872,-9.849,-4.08337,-5.59011,19.2579,-5.43327,1.28147,7.74856,-3.05944,0.797754,-3.77691e-15,-6.36111e-15,-27.8297,-13.1699,-80.2991,27.8985,-6.20767,-14.8422,-21.3452,7.12502,11.3169,-51.0199,-3.77691e-15,-6.36111e-15,-32.8786,10.144,78.5252,26.5737,-3.11511,-9.87449,-6.88857,7.12502,16.1045,22.4623,2.47956,5.07135,21.3096,41.6451,13.4337,9.43964,9.4729,-22.1074,9.18418,-20.1307,21.582,-4.07157,-0.781385,19.3471
-12.4963,17.7676,17.0126,182.414,-27.8306,-176.464,8.50698,2.37976,0.583973,3.54982,3.00796,2.12242,-1.17442,1.3905,1.5799,-10.2125,-4.03211,-6.27619,19.8987,-5.37764,1.85951,8.06144,-3.04263,1.09023,5.12864e-14,3.18055e-15,-27.6324,-12.7045,-80.2748,28.1491,-6.99089,-15.1991,-19.8724,7.12502,10.9728,-49.5657,5.12864e-14,3.18055e-15,-32.6281,10.1036,78.6277,26.6429,-3.3229,-9.71195,-6.92528,7.12502,16.261,22.4128,1.17185,5.29189,20.8263,44.5224,14.8725,9.58049,5.83927,-20.8095,8.92295,-20.6352,20.8981,-4.05555,-0.755808,18.6202
-12.6009,17.7894,16.9066,182.437,-27.6672,-177.157,8.58,2.36026,-0.0640632,3.56237,2.93533,1.93577,-1.22351,1.35373,1.75445,-9.58325,-3.95741,-5.8762,19.1166,-5.25049,1.39274,7.65917,-2.98611,0.906269,1.59028e-14,7.55382e-15,-27.3607,-11.9155,-80.5322,27.8895,-8.25503,-16.0665,-18.8413,7.12502,10.136,-48.5771,1.59028e-14,7.55382e-15,-32.4972,9.90129,78.5326,26.8159,-3.38619,-9.46963,-6.6911,7.12502,16.4943,22.6278,-0.142749,5.59579,20.0509,47.2499,16.4345,9.87921,4.36083,-19.4788,8.88095,-21.3151,20.1508,-4.17305,-0.664518,17.7872
-12.7022,17.8034,16.8124,182.368,-27.7759,-177.773,8.92609,2.1995,-0.483488,3.55211,2.68738,1.7404,-1.42687,1.22962,1.79997,-9.69741,-3.80998,-6.09682,19.2651,-5.07027,1.70181,7.73538,-2.89124,1.05767,-3.58806e-14,5.1684e-15,-27.0388,-11.6261,-80.675,27.8333,-8.61827,-15.6755,-19.9788,7.12502,10.5132,-49.6959,-3.58806e-14,5.1684e-15,-32.3855,9.53938,78.4563,27.1367,-3.19498,-8.82426,-6.90504,7.12502,17.1156,22.3611,-1.29918,5.60316,19.345,49.7918,17.4963,11.1177,0.674338,-18.1916,8.87529,-21.9874,19.4129,-4.20554,-0.844243,18.3972
-12.8042,17.812,16.7192,182.078,-27.9194,-177.796,9.13755,1.98879,-0.321719,3.5701,2.41536,1.70053,-1.50629,1.09297,1.68989,-9.63106,-3.68428,-5.99919,19.2017,-4.87061,1.46402,7.68592,-2.81231,0.985475,-1.02076e-13,1.51076e-14,-26.734,-11.6892,-80.581,27.9455,-7.70715,-14.7516,-20.6006,7.12502,11.4043,-50.2705,-1.02076e-13,1.51076e-14,-32.2487,9.02634,78.5263,27.5039,-3.02895,-8.47762,-7.34841,7.12502,17.4492,21.8884,-2.5597,5.71543,19.3102,52.2627,18.2022,11.1998,-2.9643,-17.1313,9.14214,-22.1283,18.8926,-4.25351,-1.35977,19.0633
-12.9039,17.827,16.6232,181.928,-28.0085,-177.849,9.10049,1.83581,-0.380536,3.59396,2.20562,1.75565,-1.45873,0.986512,1.80324,-9.68199,-3.65746,-6.254,19.3684,-4.79828,1.4446,7.75427,-2.8045,1.02497,3.17062e-14,0,-26.44,-11.2222,-80.4901,28.122,-7.35264,-15.6179,-20.2314,7.12502,10.5688,-49.9456,3.17062e-14,0,-32.0047,8.97703,78.6231,27.7259,-3.06605,-8.90938,-7.48378,7.12502,17.0337,21.7894,-4.02511,5.82683,19.2381,54.6189,18.8741,10.2606,-0.134864,-16.1877,9.01548,-22.2204,18.45,-4.50929,-1.43849,18.3519
-12.9999,17.8191,16.5334,181.933,-28.0515,-178.383,9.24029,1.73463,-0.872715,3.5603,2.03195,1.68065,-1.5789,0.900001,2.01648,-10.0355,-3.63137,-6.58972,20.0707,-4.78802,1.73657,8.06693,-2.81667,1.16354,-5.65542e-14,3.10104e-14,-26.5224,-11.592,-80.1484,28.8215,-6.35747,-15.9353,-20.9118,7.12502,10.2626,-50.6414,-5.65542e-14,3.10104e-14,-31.8024,8.99609,78.7003,27.9158,-2.69789,-9.42996,-8.47899,7.12502,16.5325,20.8367,-4.78834,5.97773,18.5574,56.9634,18.0608,9.1509,1.07059,-15.2145,8.54555,-22.7477,18.1055,-4.82734,-1.06387,17.2211
-13.0994,17.8138,16.4421,181.958,-28.0525,-178.951,9.30619,1.70227,-1.32523,3.5287,1.9518,1.52597,-1.6542,0.861741,2.11754,-9.39692,-3.49227,-5.53718,19.3839,-4.55612,0.536936,7.65918,-2.73303,0.638687,-1.5207e-14,-5.1684e-15,-27.0195,-13.3153,-79.4513,30.0238,-3.37281,-13.5248,-23.7417,7.12502,12.5873,-53.3425,-1.5207e-14,-5.1684e-15,-31.5703,8.43349,78.8811,28.2032,-2.17439,-9.40731,-11.0441,7.12502,16.5543,18.2698,-5.82645,6.08819,17.9183,59.1529,16.6897,8.46649,0.541829,-14.3453,8.52791,-23.3987,17.8514,-5.02475,-0.949921,16.3569
-13.2056,17.8194,16.3476,181.817,-27.987,-179.166,9.26429,1.68432,-1.36338,3.56294,1.92217,1.4395,-1.59268,0.84612,2.05414,-9.07998,-3.35537,-4.94944,19.1977,-4.37283,-0.0550673,7.50718,-2.65944,0.375156,-3.43897e-14,4.37326e-15,-26.4509,-11.5376,-80.0607,29.1553,-8.35262,-17.7325,-20.2409,7.12502,8.52853,-50.0487,-3.43897e-14,4.37326e-15,-31.3127,7.64187,79.1267,28.6707,-1.84612,-10.5937,-8.40831,7.12502,15.4119,20.9972,-6.9941,6.28419,17.7112,61.1304,14.7581,8.85448,-5.68942,-13.3758,8.71078,-23.7117,17.4533,-5.16758,-0.979477,16.7612
