JuanDHNZ/ProyectoFinalCD/preprocessing/sports_trials_csv/01_03.csv
root1,root2,root3,root4,root5,root6,lowerback1,lowerback2,lowerback3,upperback1,upperback2,upperback3,thorax1,thorax2,thorax3,lowerneck1,lowerneck2,lowerneck3,upperneck1,upperneck2,upperneck3,head1,head2,head3,rclavicle1,rclavicle2,rhumerus1,rhumerus2,rhumerus3,rradius1,rwrist1,rhand1,rhand2,rfingers1,rthumb1,rthumb2,lclavicle1,lclavicle2,lhumerus1,lhumerus2,lhumerus3,lradius1,lwrist1,lhand1,lhand2,lfingers1,lthumb1,lthumb2,rfemur1,rfemur2,rfemur3,rtibia1,rfoot1,rfoot2,rtoes1,lfemur1,lfemur2,lfemur3,ltibia1,lfoot1,lfoot2,ltoes1
-0.808516,17.8049,18.3516,176.53,-79.2921,-175.264,9.34381,2.11243,-4.13646,4.69801,2.24631,-1.079,-0.474854,0.983426,0.989801,2.52654,-5.80169,-9.94307,20.7912,-8.4808,0.370568,6.38731,-5.08486,1.30455,-2.18663e-14,9.54166e-15,-26.1132,-0.973325,-84.0651,44.7572,-16.1926,-16.5374,-23.3585,7.12502,9.68165,-53.116,-2.18663e-14,9.54166e-15,-22.0375,-0.305555,72.9171,41.153,7.30479,-18.5872,-6.85772,7.12502,7.70359,22.982,-25.4005,-2.15736,19.9665,56.7953,-6.91995,-7.03073,13.9191,-7.39938,11.0537,-18.8742,22.3783,-13.1743,-5.96839,16.3678
-0.901192,17.7964,18.3347,173.234,-79.1239,-171.974,9.38257,2.05496,-3.62676,4.796,2.21353,-0.899744,-0.382652,0.970001,0.893932,3.21859,-5.60153,-9.60602,19.9134,-8.29055,0.568849,5.9675,-4.93229,1.36766,-3.45885e-14,1.59028e-15,-25.9987,-1.24738,-84.2906,44.5391,-15.6311,-16.8076,-22.7679,7.12502,9.42101,-52.5374,-3.45885e-14,1.59028e-15,-21.7326,-0.643097,72.8676,42.0384,7.87863,-18.8932,-6.61361,7.12502,7.40821,23.2367,-25.708,-2.30682,20.8758,55.0512,-6.86481,-7.60449,12.1729,-7.42807,10.956,-18.0902,23.3117,-14.0209,-5.88505,15.7698
-0.986696,17.7931,18.3433,171.2,-78.8263,-169.667,9.34902,1.99862,-2.89117,4.74086,2.20519,-0.858491,-0.397452,0.980356,0.526355,3.33156,-5.60394,-9.40195,19.8376,-8.27347,0.335623,5.9048,-4.92377,1.26862,-9.34288e-15,-6.36111e-15,-25.9149,-1.45747,-84.4586,44.2732,-15.2905,-16.8387,-22.3711,7.12502,9.39096,-52.1419,-9.34288e-15,-6.36111e-15,-21.4967,-0.934606,72.8487,42.8659,8.18266,-19.3206,-6.06496,7.12502,6.99568,23.7994,-26.3921,-2.44123,21.5026,53.5374,-6.99302,-8.01542,10.2812,-7.42673,10.7471,-17.6468,23.5008,-14.6405,-5.43495,14.6405
-1.06813,17.7848,18.3897,179.551,-78.9987,-177.741,9.30747,1.90124,-3.77492,4.61446,1.99117,-1.41164,-0.506986,0.866658,0.469872,3.279,-5.60906,-9.64669,19.8701,-8.28775,0.428232,5.94065,-4.94272,1.33258,3.00165e-14,-2.14687e-14,-25.8862,-1.31607,-84.5008,44.1277,-15.1972,-16.1977,-22.1988,7.12502,10.0094,-51.9408,3.00165e-14,-2.14687e-14,-21.2242,-1.26588,72.8464,43.5301,8.44029,-19.528,-5.87138,7.12502,6.79545,23.9996,-27.4016,-3.66023,19.6468,52.047,-7.0034,-7.49415,10.0993,-7.66768,10.6058,-19.6872,23.6931,-15.2111,-5.15514,13.8636
-1.16177,17.7833,18.3745,180.519,-78.815,-178.566,9.18393,1.95153,-4.03966,4.62635,2.04223,-1.42858,-0.4364,0.886698,0.598964,3.35507,-5.59402,-9.87471,19.7227,-8.30784,0.704603,5.90356,-4.94563,1.45951,-9.93923e-15,4.77083e-15,-25.9824,-0.835626,-84.5892,44.1942,-15.7044,-16.1377,-22.3617,7.12502,10.0673,-52.1009,-9.93923e-15,4.77083e-15,-20.9151,-1.82035,72.8543,44.1257,8.66635,-19.873,-6.19797,7.12502,6.46246,23.6834,-27.9632,-3.93964,19.6868,50.4149,-6.87475,-7.94421,8.5941,-7.47456,10.4439,-19.8822,23.7747,-15.8665,-4.61031,12.5679
-1.25558,17.7828,18.3558,179.507,-78.5655,-177.32,9.07046,2.00438,-3.88669,4.57284,2.13545,-1.35527,-0.431189,0.937667,0.582706,3.43385,-5.5325,-10.0788,19.7875,-8.27247,0.92674,5.92719,-4.93377,1.56516,4.17448e-14,-2.8625e-14,-26.219,-0.662112,-84.7451,44.2714,-15.9578,-15.9489,-22.2226,7.12502,10.2495,-51.9529,4.17448e-14,-2.8625e-14,-20.7186,-2.17105,72.8559,44.7774,8.53643,-19.6662,-6.29728,7.12502,6.66201,23.5779,-28.5733,-4.03237,20.2347,48.7512,-6.80769,-8.62417,7.04877,-7.23519,10.1944,-19.6405,23.6585,-16.3583,-4.01059,11.9788
-1.34735,17.7753,18.3451,179.243,-78.4456,-176.826,9.0312,2.01904,-3.77325,4.50706,2.16861,-1.33359,-0.476188,0.95895,0.538642,3.18589,-5.56092,-10.081,20.2161,-8.28341,0.788675,6.10166,-4.9621,1.50506,-1.09332e-14,-4.45278e-14,-26.3898,-1.25984,-84.7772,44.1645,-15.0946,-16.0219,-22.3915,7.12502,10.179,-52.1253,-1.09332e-14,-4.45278e-14,-20.5478,-2.46645,72.8753,45.5145,8.43598,-19.2128,-5.98132,7.12502,7.09977,23.8796,-29.1412,-4.41969,20.6281,46.9279,-6.58334,-9.22024,7.46287,-7.09646,10.1742,-19.5727,23.5942,-16.602,-3.76363,11.7264
-1.44093,17.7634,18.3366,179.968,-78.5074,-177.384,8.98379,2.02817,-3.80574,4.53211,2.17887,-1.39431,-0.42333,0.962437,0.49511,2.83288,-5.73182,-9.63336,20.4327,-8.40787,0.299977,6.19685,-5.02261,1.25656,1.39149e-15,1.43125e-14,-26.4104,-1.57606,-84.7748,43.9826,-14.7999,-16.2294,-22.3487,7.12502,9.97883,-52.0922,1.39149e-15,1.43125e-14,-20.2376,-3.00689,72.8888,46.1724,8.59441,-19.4663,-6.01825,7.12502,6.85503,23.8508,-29.5774,-4.90252,20.7985,45.0254,-6.1443,-9.8544,8.18056,-6.88363,10.3373,-19.7087,23.4424,-16.782,-3.82391,10.584
-1.53114,17.7518,18.3178,180.88,-78.0283,-178.367,9.19291,2.21246,-4.07027,4.57792,2.38157,-1.47413,-0.504225,1.05717,0.534491,3.14357,-5.77281,-10.0669,19.9762,-8.56844,0.938136,6.05373,-5.07396,1.53624,-2.20651e-14,2.70347e-14,-26.4937,-1.31507,-84.8493,43.7946,-15.4632,-16.8099,-22.5074,7.12502,9.41873,-52.2769,-2.20651e-14,2.70347e-14,-20.0525,-3.50831,72.8387,46.8141,8.84039,-19.9104,-6.4265,7.12502,6.42629,23.456,-29.8111,-4.76874,20.8509,43.0598,-5.85943,-10.3832,8.77496,-6.30511,10.4875,-19.8864,23.255,-17.1648,-3.42094,9.37109
-1.63268,17.7534,18.3006,181.306,-78.3518,-178.671,9.18727,2.02623,-4.10778,4.58599,2.13422,-1.43956,-0.485588,0.933051,0.615849,3.30429,-5.73949,-10.2394,19.6738,-8.51805,0.898012,5.93508,-5.05451,1.56433,5.96354e-16,-1.35174e-14,-26.6062,-1.39857,-84.8379,43.5534,-15.4925,-16.5219,-22.3118,7.12502,9.6966,-52.0686,5.96354e-16,-1.35174e-14,-20.0015,-3.64555,72.8792,47.439,8.93739,-20.1279,-6.73499,7.12502,6.21638,23.1538,-30.0821,-5.2883,20.9933,41.0193,-5.951,-11.001,10.9496,-5.91822,10.0623,-19.9391,22.9981,-17.32,-3.2689,8.94166
-1.72979,17.747,18.2862,181.219,-78.1987,-178.356,9.09534,2.00568,-4.07402,4.59008,2.11805,-1.37191,-0.431736,0.924814,0.671286,3.36287,-5.86538,-9.16363,19.4648,-8.59401,0.190803,5.78013,-5.05321,1.17684,-1.59028e-14,-1.27222e-14,-26.6202,-1.40103,-84.8465,43.3009,-15.1531,-15.5664,-22.4266,7.12502,10.6184,-52.1384,-1.59028e-14,-1.27222e-14,-19.8747,-3.61789,73.0042,47.9585,8.66005,-20.259,-6.76296,7.12502,6.08978,23.1295,-30.4678,-5.46762,21.3124,38.9719,-6.03779,-11.4371,13.9108,-5.60423,10.0205,-19.9083,22.6776,-17.4884,-2.95934,8.29332
-1.8251,17.7448,18.2685,181.399,-78.1109,-178.166,8.84355,1.96599,-4.02368,4.56479,2.08758,-1.36283,-0.317296,0.910853,0.662684,2.83914,-5.67789,-10.8409,20.0113,-8.48762,1.5816,6.17466,-5.04426,1.85414,-7.15625e-15,-1.98785e-14,-26.6555,-0.970718,-84.9778,43.0264,-14.9588,-16.0406,-22.7475,7.12502,10.161,-52.4822,-7.15625e-15,-1.98785e-14,-19.7785,-3.89148,73.0086,48.4875,8.61229,-20.1229,-6.70282,7.12502,6.22117,23.1858,-30.978,-5.61525,21.6516,36.9326,-5.90293,-11.9276,14.165,-5.438,9.66355,-19.9502,22.3062,-17.6576,-2.43918,7.83421
-1.92451,17.7367,18.2448,182.544,-78.0711,-179.246,8.88489,1.93586,-4.36636,4.56464,2.01627,-1.38077,-0.346958,0.869584,0.840853,2.56128,-5.51531,-11.7644,20.3791,-8.36317,2.39904,6.40719,-5.00841,2.25295,0,-3.26007e-14,-26.8099,-0.778019,-85.0731,42.7174,-14.6476,-15.9337,-22.9412,7.12502,10.2641,-52.6708,0,-3.26007e-14,-19.7481,-4.35431,72.9183,49.0032,9.01153,-19.8904,-6.60569,7.12502,6.44562,23.2762,-31.2164,-5.97767,21.7269,34.9491,-5.81678,-12.2875,12.9349,-4.91723,9.41463,-20.1889,21.9283,-17.7981,-2.08623,7.19944
-2.02521,17.7295,18.2223,184.734,-77.9425,-181.216,8.74129,1.9387,-4.85371,4.49694,1.9883,-1.49669,-0.347229,0.850427,0.99873,2.29417,-5.46964,-11.955,20.802,-8.33621,2.68355,6.60624,-5.00399,2.36215,-2.94201e-14,0,-27.0636,-0.790697,-85.2106,42.4498,-14.8724,-16.4092,-22.9341,7.12502,9.80541,-52.6858,-2.94201e-14,0,-19.753,-4.63251,72.8755,49.4615,9.14467,-19.9911,-6.38008,7.12502,6.34842,23.5048,-31.6937,-6.4069,21.6542,33.0243,-5.97912,-12.5271,11.7059,-4.57366,9.77189,-20.6357,21.4597,-17.8577,-2.06546,6.05908
-2.12374,17.7302,18.1963,186.182,-77.7482,-182.306,8.47657,1.98298,-5.16824,4.43768,2.04154,-1.55332,-0.273299,0.873432,1.11737,2.8547,-5.75391,-10.4127,19.8331,-8.56288,1.39216,6.09043,-5.05528,1.72607,-5.50634e-14,-4.05521e-14,-27.2555,-0.704738,-85.313,42.185,-15.5062,-17.6865,-23.0067,7.12502,8.57292,-52.8127,-5.50634e-14,-4.05521e-14,-19.7904,-4.68215,72.9975,49.948,8.9734,-20.0954,-6.46372,7.12502,6.24772,23.4241,-32.2518,-6.65806,21.8205,31.1293,-6.12606,-12.9242,7.86901,-4.32825,10.1115,-20.8973,20.8934,-17.9199,-2.04924,5.55857
-2.22566,17.7338,18.1786,186.186,-77.9563,-182.289,8.67668,1.94699,-5.04034,4.46976,1.98981,-1.49758,-0.345354,0.849334,1.10313,2.79648,-5.81595,-10.7407,19.8969,-8.68735,1.71941,6.15818,-5.11744,1.87021,-1.41137e-14,-5.48646e-14,-27.4066,-0.849807,-85.1748,41.8061,-15.3359,-17.6549,-23.1732,7.12502,8.60337,-52.9779,-1.41137e-14,-5.48646e-14,-19.8161,-4.94566,73.2368,50.3936,8.98983,-19.814,-6.87249,7.12502,6.51935,23.0072,-32.3015,-7.1027,22.1131,29.26,-6.70654,-13.1584,4.36019,-3.64818,10.0732,-20.8105,20.2351,-17.9497,-2.01978,4.55787
-2.32944,17.7351,18.1543,185.82,-77.982,-181.698,8.60866,1.89399,-4.96479,4.42524,1.93512,-1.39285,-0.352492,0.825427,1.17544,2.73309,-5.84252,-11.1184,19.9824,-8.73832,1.87857,6.22605,-5.16031,1.97258,1.8487e-14,-2.3059e-14,-27.5925,-1.10449,-85.0275,41.4299,-14.5353,-16.4171,-23.0617,7.12502,9.79779,-52.8138,1.8487e-14,-2.3059e-14,-19.8434,-5.23465,73.3574,50.6266,9.12212,-19.4757,-7.13298,7.12502,6.84597,22.7363,-32.5459,-7.01155,22.4041,27.4242,-7.81282,-13.466,4.78003,-3.14999,10.1691,-20.6304,19.5498,-17.9088,-1.95285,3.55856
-2.43616,17.7292,18.1286,187.324,-78.0024,-182.879,8.34091,1.72794,-5.34428,4.38427,1.70772,-1.39785,-0.24359,0.70625,1.40888,2.60999,-5.72315,-11.4076,19.9297,-8.58032,2.0696,6.24069,-5.08905,2.08496,-2.78299e-15,-2.3059e-14,-27.597,-1.24263,-85.0464,40.9152,-13.6907,-15.4237,-22.6362,7.12502,10.756,-52.3409,-2.78299e-15,-2.3059e-14,-19.8772,-5.18693,73.2879,50.7697,9.07113,-19.3966,-7.03551,7.12502,6.9223,22.8313,-32.9753,-7.17796,22.4176,25.5846,-8.8045,-13.6464,5.61194,-2.81836,9.98822,-20.9052,18.9522,-17.868,-1.8455,3.66336
-2.53983,17.7206,18.1157,190.159,-78.0073,-185.647,8.49386,1.61003,-5.8122,4.35794,1.49707,-1.55812,-0.346888,0.596084,1.51935,2.92654,-5.60503,-10.7647,19.3488,-8.4058,1.83522,5.94709,-4.95886,1.94096,1.68967e-14,-1.35174e-14,-27.6377,-1.16935,-85.1084,40.3196,-13.2825,-15.1267,-22.5113,7.12502,11.0426,-52.2008,1.68967e-14,-1.35174e-14,-20.01,-5.28646,73.2621,51.0461,9.01676,-19.5,-6.775,7.12502,6.82246,23.0951,-33.1929,-7.97647,22.2307,23.6721,-9.21322,-13.3779,4.25738,-2.34164,9.77121,-21.5572,18.5114,-17.9309,-1.65014,3.61475
-2.64803,17.7175,18.0946,191.342,-78.2557,-186.743,8.57483,1.48158,-5.88386,4.35503,1.31322,-1.60475,-0.381949,0.504167,1.52624,2.61862,-5.80954,-10.2924,19.5367,-8.57469,1.27571,6.02542,-5.0434,1.66594,-1.23246e-14,2.54444e-14,-27.7767,-0.963282,-85.1426,39.7457,-13.6582,-15.363,-22.382,7.12502,10.8146,-52.0836,-1.23246e-14,2.54444e-14,-20.1862,-5.62825,73.3497,51.3808,9.12391,-19.499,-6.68695,7.12502,6.82343,23.1831,-33.2623,-8.45523,22.2559,21.8374,-9.82139,-13.6115,3.67684,-1.85198,9.6832,-21.7057,18.0451,-17.9749,-1.65902,2.70248
-2.75516,17.715,18.0495,190.79,-77.8238,-185.646,7.92618,1.62015,-5.98115,4.31115,1.55016,-1.50653,-0.09097,0.617803,1.67387,2.51324,-5.92543,-10.2921,19.5045,-8.70849,1.24543,6.04028,-5.10471,1.64479,3.55825e-14,1.11319e-14,-27.847,-1.36988,-85.0372,39.0826,-13.683,-15.6029,-21.8709,7.12502,10.5832,-51.5844,3.55825e-14,1.11319e-14,-20.1839,-6.04449,73.4852,51.5767,9.34784,-19.355,-6.779,7.12502,6.96244,23.0865,-33.7331,-7.72526,22.5957,20.1012,-10.5369,-14.0883,3.7797,-1.75923,10.2593,-21.4712,17.5982,-17.9926,-1.80156,2.81094
-2.86819,17.7103,18.0276,191.143,-78.3893,-186.09,8.14624,1.44015,-5.68743,4.38534,1.31607,-1.47548,-0.114147,0.50363,1.55823,2.53809,-5.92432,-10.8542,19.5046,-8.78455,1.80581,6.09197,-5.14409,1.90565,-7.95139e-16,-2.8625e-14,-28.0302,-1.88064,-84.8624,38.5342,-13.4119,-15.3769,-21.7933,7.12502,10.8012,-51.4956,-7.95139e-16,-2.8625e-14,-20.1468,-6.60888,73.6163,51.5722,9.63595,-19.3926,-6.86915,7.12502,6.9262,22.9975,-33.4462,-7.37441,22.2808,18.4593,-11.2452,-15.3459,3.22107,-1.06734,9.82913,-21.362,17.1502,-17.9611,-2.0693,3.95272
-2.98159,17.7025,17.9903,191.192,-78.3027,-186.032,8.16044,1.39554,-5.77691,4.36448,1.25038,-1.43067,-0.141416,0.470554,1.65962,1.88282,-5.73472,-12.6298,20.3639,-8.6901,3.33705,6.62218,-5.14648,2.64465,-3.77691e-15,-9.93923e-15,-28.1475,-1.89297,-84.8339,37.8987,-13.2972,-14.6967,-22.1648,7.12502,11.4573,-51.8317,-3.77691e-15,-9.93923e-15,-20.287,-6.82935,73.5933,51.4951,9.50251,-19.2624,-6.95195,7.12502,7.05182,22.9106,-33.417,-6.30168,21.9845,17.0394,-11.943,-16.8601,2.64754,-0.448135,9.90427,-21.2722,16.5908,-18.0054,-2.08519,4.33093
-3.09586,17.6952,17.964,191.21,-78.653,-185.917,8.21511,1.1606,-5.60091,4.34517,0.949713,-1.39951,-0.168862,0.325272,1.61821,2.17735,-5.8964,-11.3041,19.6372,-8.76026,2.22429,6.23284,-5.13542,2.09486,2.5842e-15,3.81667e-14,-28.2122,-2.11294,-84.8686,37.1708,-12.9994,-14.6383,-22.493,7.12502,11.5136,-52.1568,2.5842e-15,3.81667e-14,-20.5445,-6.60231,73.6417,51.4059,8.96157,-19.1632,-7.08331,7.12502,7.14758,22.776,-33.4489,-4.98313,21.3686,16.0435,-13.5375,-18.9076,3.13303,0.249543,9.59189,-21.1342,15.7932,-17.8605,-2.05435,4.43093
-3.20256,17.6821,17.9215,192.442,-78.4202,-186.923,8.13917,1.244,-5.96573,4.2349,1.03939,-1.39728,-0.251905,0.370223,1.8169,2.69798,-6.24782,-9.11136,18.9992,-9.09363,0.747824,5.78794,-5.22452,1.29903,1.11319e-14,2.5842e-14,-28.466,-2.70272,-84.7078,36.5163,-12.8791,-14.8428,-22.1784,7.12502,11.3163,-51.8531,1.11319e-14,2.5842e-14,-20.8032,-6.72986,73.9436,51.2411,8.65788,-19.4734,-6.9699,7.12502,6.84816,22.8993,-33.7682,-3.53702,20.6151,15.2854,-15.1922,-20.4254,3.83019,0.872069,9.66909,-21.3104,14.946,-17.7743,-1.99251,4.7224
-3.3151,17.6753,17.8907,194.752,-78.5325,-189.017,8.0381,1.18676,-6.21167,4.15247,0.952658,-1.46543,-0.276591,0.327541,1.89191,2.24016,-6.06726,-10.9477,19.6535,-8.94524,1.78846,6.20539,-5.22904,1.89052,1.78906e-14,2.38542e-15,-28.6411,-3.08136,-84.47,35.6707,-13.0714,-14.4976,-20.7683,7.12502,11.6493,-50.4245,1.78906e-14,2.38542e-15,-20.9417,-7.17963,74.1733,51.0325,8.61868,-19.5322,-6.78585,7.12502,6.79141,23.0852,-34.1615,-3.47466,20.1404,14.6725,-16.0375,-21.3686,3.70705,1.31384,9.68271,-21.6633,14.31,-17.6663,-2.1922,5.0383
-3.42672,17.675,17.859,195.019,-78.4587,-189.11,7.96641,1.11308,-6.21285,4.14092,0.862777,-1.42639,-0.24249,0.28259,1.94131,2.3175,-6.37107,-9.53615,19.2986,-9.21006,0.670779,5.9737,-5.31787,1.31233,2.04748e-14,-5.52621e-14,-28.5285,-3.14408,-84.3994,34.6042,-13.0071,-14.313,-19.8791,7.12502,11.8273,-49.5251,2.04748e-14,-5.52621e-14,-21.053,-7.32648,74.2461,50.7526,8.46392,-19.3393,-7.00586,7.12502,6.97761,22.8591,-34.6003,-3.0742,20.0847,14.2054,-15.293,-23.5674,0.0485168,1.76867,10.1965,-21.5928,13.8122,-17.56,-2.42883,4.4515
-3.53743,17.6512,17.8154,194.708,-78.5419,-188.873,8.1677,1.03283,-6.23379,4.17723,0.739541,-1.33737,-0.307241,0.220246,2.05352,1.81894,-6.17773,-10.9909,19.9617,-9.08284,1.93276,6.39294,-5.29286,1.91279,1.03368e-14,-2.38542e-15,-28.5916,-3.49524,-84.2813,33.8153,-12.2818,-13.9376,-20.3532,7.12502,12.1893,-49.9781,1.03368e-14,-2.38542e-15,-21.2343,-7.3642,74.3643,50.3179,8.01898,-19.1003,-7.37756,7.12502,7.20837,22.4797,-34.2625,-2.76008,20.2115,13.9764,-17.3537,-23.9176,3.71718,2.51299,10.3959,-21.3245,13.3447,-17.6194,-2.43654,2.73096
-3.65321,17.6331,17.7859,195.715,-78.7297,-189.995,8.39928,0.97241,-6.1576,4.1956,0.643533,-1.37647,-0.407369,0.174748,1.97682,1.47317,-6.13443,-12.3411,20.5023,-9.1478,3.03503,6.74961,-5.35972,2.4506,-6.95746e-15,2.14687e-14,-28.9667,-3.83949,-84.0552,33.4085,-11.8598,-13.3406,-21.3443,7.12502,12.7648,-50.9341,-6.95746e-15,2.14687e-14,-21.3737,-7.41727,74.6135,49.832,7.50034,-18.9877,-7.51545,7.12502,7.31703,22.338,-34.1309,-2.71586,20.0049,13.9823,-17.7138,-24.5201,4.51081,3.25725,9.94472,-21.4121,12.9006,-17.6417,-2.16904,1.89323
-3.7779,17.6165,17.7577,197.051,-78.6557,-191.451,8.51377,0.991201,-6.13517,4.25111,0.656327,-1.47413,-0.412787,0.1789,1.86126,1.54913,-6.42989,-11.4868,20.2209,-9.44707,2.2946,6.59177,-5.48001,2.06432,2.98177e-15,8.34896e-15,-29.0457,-4.02536,-83.9465,32.5916,-11.8374,-13.5858,-21.9187,7.12502,12.5285,-51.5231,2.98177e-15,8.34896e-15,-21.4903,-7.61601,74.8188,49.3674,7.23832,-19.0333,-7.40668,7.12502,7.27305,22.4483,-34.1046,-3.38976,20.1368,14.2019,-17.2075,-24.1757,4.62983,4.01049,9.85149,-21.6079,12.5472,-17.6814,-2.1515,2.05437
-3.89466,17.6057,17.72,199.234,-78.6565,-193.467,8.37333,0.94608,-6.21314,4.24203,0.599199,-1.60224,-0.339576,0.14842,1.77836,1.47519,-6.64801,-11.0629,20.1362,-9.67127,1.87404,6.55154,-5.5788,1.8466,-1.72943e-14,-4.37326e-15,-28.9159,-4.99439,-83.7018,31.428,-10.924,-14.1243,-21.5251,7.12502,12.0093,-51.1606,-1.72943e-14,-4.37326e-15,-21.5803,-8.12753,74.9563,48.8611,7.28855,-19.0919,-7.37848,7.12502,7.21647,22.4785,-34.431,-4.25806,20.337,14.6228,-16.8055,-23.7015,5.52259,4.47867,10.3825,-21.8011,12.0564,-17.5287,-2.71663,1.84637
-4.01513,17.5885,17.6824,200.426,-78.4641,-194.673,8.37035,1.02682,-6.2039,4.27593,0.705,-1.65615,-0.310148,0.199092,1.70833,1.23248,-6.86583,-11.2887,20.4367,-9.92747,1.77295,6.71827,-5.72877,1.81405,-9.34288e-15,6.36111e-15,-29.0227,-5.87544,-83.2765,30.5543,-10.1495,-14.1828,-21.0158,7.12502,11.9529,-50.6546,-9.34288e-15,6.36111e-15,-21.6959,-8.55473,75.2777,48.3887,7.43106,-19.0058,-7.54987,7.12502,7.2996,22.3042,-34.7349,-5.72328,21.011,15.3,-15.8737,-22.5744,6.16857,5.30779,10.4376,-22.0116,11.3862,-17.3372,-2.54076,1.28908
-4.14019,17.5713,17.6482,200.4,-78.398,-194.716,8.37547,1.01931,-6.04394,4.35775,0.708847,-1.60019,-0.227948,0.19832,1.67687,1.73012,-6.71839,-11.3897,19.8848,-9.80484,2.0512,6.46378,-5.64814,1.95823,-2.82274e-14,3.77691e-14,-29.0462,-6.02198,-83.0242,29.6969,-10.107,-14.0588,-20.5241,7.12502,12.0724,-50.1558,-2.82274e-14,3.77691e-14,-21.9318,-8.46691,75.5899,47.9457,7.20017,-18.5227,-7.63681,7.12502,7.76581,22.2006,-34.9155,-6.86698,21.7299,16.1419,-15.4487,-21.485,8.10892,6.32875,10.0655,-21.9889,10.5346,-16.9487,-2.22076,1.61642
-4.26951,17.5615,17.6163,200.546,-78.5114,-195.053,8.49275,0.834787,-5.95916,4.49532,0.461558,-1.56583,-0.131559,0.0682257,1.6858,1.67811,-6.393,-12.2009,20.003,-9.45372,2.75133,6.55965,-5.49676,2.32871,4.96962e-15,-2.18663e-14,-28.8151,-6.71522,-82.76,28.5639,-9.011,-13.7505,-19.844,7.12502,12.3697,-49.458,4.96962e-15,-2.18663e-14,-22.2381,-8.01084,75.6629,47.4513,6.65931,-18.0875,-7.49662,7.12502,8.18589,22.3248,-34.8751,-7.9055,22.2616,16.892,-14.7672,-20.7698,9.0532,7.4522,10.0325,-21.8316,9.66123,-16.4883,-2.45432,2.14104
-4.40254,17.5623,17.5725,200.905,-78.69,-195.483,8.5184,0.661807,-5.98608,4.54344,0.230841,-1.48957,-0.0789164,-0.0505874,1.79932,1.24102,-6.58118,-12.4666,20.1184,-9.63994,2.75481,6.70307,-5.59769,2.33708,-2.8128e-14,4.37326e-15,-28.6578,-7.35677,-82.4472,27.3936,-7.56358,-13.8557,-19.9357,7.12502,12.2683,-49.5558,-2.8128e-14,4.37326e-15,-22.6114,-7.8643,75.7734,46.9286,6.30354,-18.1329,-7.12922,7.12502,8.14205,22.6939,-34.7268,-9.24135,23.0666,16.9525,-11.9533,-20.5946,3.41746,7.88713,9.92256,-21.6452,9.85234,-16.5857,-2.52777,1.35275
-4.53792,17.5588,17.5209,200.459,-78.8862,-194.922,8.36264,0.579363,-5.82295,4.53099,0.153908,-1.3092,-0.00102786,-0.0868802,1.90155,1.91878,-6.79735,-10.4121,19.215,-9.79208,1.17326,6.12032,-5.61201,1.55208,6.95746e-16,-2.78299e-15,-28.6301,-7.57745,-82.1543,26.3438,-7.50154,-14.8253,-19.9275,7.12502,11.3333,-49.6013,6.95746e-16,-2.78299e-15,-22.9298,-7.86697,76.119,46.3151,6.00697,-18.0626,-6.84848,7.12502,8.20992,22.972,-34.2311,-8.31861,22.7542,16.661,-12.9991,-20.4625,9.26716,7.948,9.85931,-21.2949,10.4533,-16.849,-2.64939,-0.291077
-4.67675,17.6147,17.5316,206.651,-81.7381,-197.227,4.04754,-0.707022,-3.96656,3.69916,-1.12904,-1.01981,1.59159,-0.67658,1.2011,2.14427,-6.94153,-10.4853,18.8324,-9.97436,1.05288,5.97119,-5.7001,1.53052,6.55989e-15,-1.43125e-14,-28.7045,-8.35616,-81.4779,25.5828,-7.71074,-15.2778,-19.3054,7.12502,10.8968,-49.0027,6.55989e-15,-1.43125e-14,-23.1003,-7.61197,76.6763,45.563,5.71768,-17.4893,-6.92218,7.12502,8.76321,22.8759,-37.9478,-9.23428,23.3956,16.2929,-13.1617,-21.4516,14.1523,3.33957,8.23715,-20.8922,11.0252,-16.0439,-3.97821,-1.13733
-4.81273,17.5901,17.4696,205.911,-81.7668,-196.501,3.96284,-0.689525,-3.82509,3.78459,-1.09711,-0.960073,1.72351,-0.662028,1.18014,1.80517,-7.27862,-10.3649,18.9297,-10.3627,0.860848,6.06741,-5.88556,1.40942,1.60022e-14,-1.92821e-14,-28.8573,-9.85913,-80.8773,25.0012,-6.37065,-14.3586,-19.6943,7.12502,11.7833,-49.3428,1.60022e-14,-1.92821e-14,-23.236,-7.44365,76.8584,44.7337,5.713,-17.1957,-7.0512,7.12502,9.04648,22.7348,-37.3181,-7.92943,22.9275,15.826,-14.316,-21.6011,21.9592,3.49694,8.37234,-20.4885,11.7324,-16.0154,-4.17199,-1.02887
-4.95516,17.6001,17.4003,203.692,-81.9853,-194.512,4.18502,-0.691537,-3.51272,3.84008,-1.10292,-0.767869,1.65374,-0.660274,1.2063,1.55615,-7.28114,-10.4612,19.3952,-10.3507,0.793282,6.26045,-5.90487,1.38199,-1.64991e-14,-8.15017e-15,-29.0174,-11.5857,-80.0451,24.2245,-4.2025,-12.6223,-20.7156,7.12502,13.4573,-50.2609,-1.64991e-14,-8.15017e-15,-23.5564,-7.39431,77.2734,43.9244,5.90108,-17.4199,-6.80698,7.12502,8.83018,22.9883,-36.3978,-7.7115,23.4911,15.4816,-12.6752,-22.2549,22.1627,3.92242,8.21225,-19.7976,12.4284,-15.8617,-4.14618,-0.799785
-5.10332,17.6032,17.343,203.286,-82.4412,-194.173,4.27835,-0.770003,-3.21429,3.75855,-1.20135,-0.544703,1.5199,-0.700625,1.27393,1.80426,-7.18393,-11.2501,19.6869,-10.3784,1.56831,6.39913,-5.93921,1.74818,2.68856e-14,3.83654e-14,-29.3343,-12.8718,-79.0867,23.4972,-2.09855,-11.066,-22.0621,7.12502,14.9569,-51.502,2.68856e-14,3.83654e-14,-24.0789,-7.50597,77.8547,43.0818,5.73282,-17.4343,-6.49645,7.12502,8.81629,23.2994,-36.1238,-8.07484,23.9789,15.9274,-11.8793,-22.1364,24.2733,4.56746,7.90906,-19.2857,12.2471,-15.2774,-4.42014,-0.981589
-5.25145,17.6113,17.29,206.324,-82.6826,-196.979,3.95263,-0.866993,-3.4289,3.6534,-1.31921,-0.423789,1.60746,-0.762714,1.51612,1.82203,-6.97323,-13.1112,19.9892,-10.2783,2.91433,6.66318,-5.94523,2.46198,-4.96962e-15,1.46107e-14,-29.6592,-13.9032,-78.1284,22.9742,0.461522,-9.83317,-23.7558,7.12502,16.1443,-53.1034,-4.96962e-15,1.46107e-14,-24.4777,-6.99063,78.193,41.9886,4.42452,-16.5965,-7.08345,7.12502,9.62463,22.6767,-36.4679,-8.73387,24.1264,16.7845,-11.3116,-21.535,25.9748,5.04964,7.73644,-19.3085,11.5839,-14.3967,-4.81574,-1.63508
-5.3975,17.6253,17.2291,207.905,-82.5377,-198.459,3.73358,-0.828387,-3.7221,3.64146,-1.26433,-0.385055,1.72325,-0.743146,1.7146,2.36527,-7.40639,-10.9272,18.9847,-10.6619,1.15426,6.05921,-6.06278,1.58912,-1.17531e-14,-1.50082e-14,-29.9181,-14.8394,-77.4989,22.3704,1.04113,-10.8288,-24.3076,7.12502,15.1854,-53.7304,-1.17531e-14,-1.50082e-14,-24.8685,-6.72352,78.5527,41.3077,4.0627,-16.2729,-6.15454,7.12502,9.93684,23.5909,-36.6027,-8.70192,24.0516,17.516,-11.0448,-21.5091,27.9362,5.6663,7.91783,-19.2864,11.0224,-13.5811,-5.04731,-2.87301
-5.54249,17.6417,17.169,207.879,-82.2432,-198.499,3.73273,-0.755335,-3.75309,3.66961,-1.16829,-0.444843,1.74664,-0.69661,1.66829,2.16603,-7.37521,-11.6675,19.3929,-10.7288,1.9689,6.31396,-6.10492,1.93417,1.30452e-14,2.68359e-15,-30.0987,-14.5864,-77.8564,21.6424,-2.76145,-15.7285,-22.179,7.12502,10.4621,-51.8987,1.30452e-14,2.68359e-15,-25.2743,-6.50213,78.6384,40.5271,3.86281,-15.7121,-6.1143,7.12502,10.4778,23.6046,-36.4284,-7.85265,23.7118,18.1316,-11.2418,-22.1617,30.8903,6.38347,7.80627,-19.2134,10.6674,-12.8719,-4.82311,-3.70146
-5.68628,17.6567,17.1069,206.13,-82.0868,-196.88,3.8885,-0.736967,-3.51705,3.71337,-1.14669,-0.406945,1.69865,-0.681786,1.57702,2.18041,-7.65668,-10.6855,19.1832,-11.0413,1.41744,6.17573,-6.21574,1.59645,7.70291e-16,3.08116e-15,-30.325,-15.6859,-77.4318,21.2291,-2.0059,-15.7627,-23.2567,7.12502,10.4291,-52.9781,7.70291e-16,3.08116e-15,-25.7129,-6.16471,78.7143,39.7748,3.80563,-15.3579,-6.39922,7.12502,10.8196,23.3021,-35.9675,-6.35847,23.3589,18.588,-11.6726,-23.3076,33.079,6.98593,7.35036,-18.8861,10.6624,-12.2642,-4.3364,-4.31715
-5.83085,17.664,17.0415,203.788,-81.863,-194.54,3.94606,-0.64865,-3.43296,3.70032,-1.03028,-0.21998,1.64863,-0.622739,1.72078,1.78867,-7.55874,-12.1597,19.6716,-10.9993,2.39089,6.54059,-6.24246,2.09837,1.72197e-14,8.99501e-15,-30.5966,-16.0198,-77.019,20.843,-2.42226,-16.545,-23.1668,7.12502,9.67438,-52.9246,1.72197e-14,8.99501e-15,-26.1466,-5.72613,79.0084,38.9916,3.54133,-15.4893,-6.47732,7.12502,10.6928,23.2306,-35.5297,-4.89201,23.1883,18.8199,-11.9924,-24.1464,34.0168,7.21535,7.12457,-18.4572,11.1722,-11.898,-3.98707,-5.72416
-5.98255,17.6646,16.985,201.268,-81.5665,-192.109,4.04403,-0.545354,-3.20766,3.68225,-0.891905,-0.0570579,1.56603,-0.548995,1.76057,1.47432,-7.61568,-12.9577,20.1775,-11.1542,3.04558,6.85617,-6.34079,2.39063,-7.54139e-15,8.54774e-15,-30.8503,-16.0964,-76.6014,20.3003,-3.12095,-17.4453,-22.2224,7.12502,8.80562,-52.0187,-7.54139e-15,8.54774e-15,-26.704,-5.34809,79.2259,38.2344,3.3971,-15.6823,-6.43088,7.12502,10.5066,23.2865,-35.0587,-4.88317,23.711,18.9688,-10.8073,-23.7343,32.8707,7.35955,7.11669,-17.997,12.1437,-11.574,-4.00452,-6.90836
-6.13508,17.6718,16.9277,197.959,-81.4039,-189.044,4.31283,-0.512892,-2.58547,3.70338,-0.842972,0.0231946,1.42524,-0.51163,1.49659,1.32581,-7.41363,-13.9169,20.5504,-10.9572,3.66819,7.07975,-6.28596,2.7401,-1.43373e-14,1.27719e-14,-31.1361,-17.5793,-75.8158,19.7407,-1.24759,-16.9602,-22.4833,7.12502,9.27377,-52.2594,-1.43373e-14,1.27719e-14,-27.348,-5.0405,79.2476,37.5588,3.49703,-15.4035,-6.4163,7.12502,10.7756,23.2873,-34.4958,-5.47053,24.5951,19.2311,-9.46228,-22.9161,31.619,7.47168,7.09094,-17.3284,13.4248,-11.0203,-4.02481,-8.49371
-6.28276,17.6941,16.8614,197.053,-81.222,-188.201,4.38618,-0.551879,-2.39676,3.68126,-0.891544,0.0294616,1.3604,-0.531037,1.39989,1.91059,-7.70232,-11.1212,19.5745,-11.1494,1.75398,6.39941,-6.28776,1.73766,-1.00759e-14,-4.57702e-14,-31.3611,-19.1911,-75.1083,19.1011,0.756656,-16.9345,-21.9831,7.12502,9.29854,-51.7581,-1.00759e-14,-4.57702e-14,-27.9101,-4.31826,79.2037,36.8291,3.22568,-14.9563,-6.22594,7.12502,11.2069,23.4547,-34.1082,-5.53366,24.8754,19.5448,-9.39285,-22.467,32.9169,7.12374,6.70189,-17.0637,14.9527,-10.2839,-3.66545,-9.3699
-6.42965,17.7095,16.8021,197.219,-80.8778,-188.536,4.52725,-0.526397,-2.37792,3.69992,-0.862649,-0.0215593,1.29857,-0.51604,1.3378,2.29625,-7.62227,-10.7351,19.0267,-11.0236,1.47542,6.11085,-6.20853,1.6318,8.69683e-15,4.79568e-15,-31.5264,-20.3371,-74.5231,18.4172,1.88539,-16.9977,-21.9936,7.12502,9.23755,-51.7712,8.69683e-15,4.79568e-15,-28.4475,-3.65988,79.2185,36.0872,2.83053,-14.6958,-6.02361,7.12502,11.4582,23.6433,-33.5848,-5.89046,25.0774,19.8569,-9.06397,-21.8779,33.5521,6.78377,6.15387,-17.0999,16.6915,-9.58917,-3.20359,-8.74468
-6.57363,17.7084,16.7551,193.802,-80.5271,-185.627,5.10862,-0.39768,-1.6815,3.80981,-0.688664,0.0644149,1.0723,-0.418665,1.03571,2.63707,-8.10919,-8.40767,18.3763,-11.4811,-0.246525,5.63077,-6.36624,0.757319,-1.67989e-14,1.8018e-14,-31.7755,-21.4822,-73.8425,17.8262,2.83317,-16.6874,-22.3616,7.12502,9.537,-52.1257,-1.67989e-14,1.8018e-14,-29.0737,-3.45747,79.4035,35.4133,2.76309,-14.5359,-6.10011,7.12502,11.6123,23.5581,-32.6131,-6.64579,25.9235,20.1654,-8.58554,-20.8395,33.1944,6.80247,5.81178,-16.614,18.6482,-9.11696,-2.67003,-10.592
-6.71716,17.7144,16.7167,191.557,-80.387,-183.581,5.4004,-0.436942,-1.02923,3.79928,-0.721987,0.183271,0.892981,-0.423905,0.796794,2.1711,-7.78355,-10.2805,19.3488,-11.1786,0.884621,6.18528,-6.30196,1.35493,-9.50439e-15,-1.11816e-14,-31.8363,-21.0019,-73.8709,17.6256,1.98297,-16.7851,-22.7168,7.12502,9.4427,-52.4853,-9.50439e-15,-1.11816e-14,-29.7067,-2.92855,79.5662,34.5981,2.70617,-14.2383,-6.28785,7.12502,11.8994,23.354,-31.9096,-8.0163,26.7434,20.194,-8.29796,-19.1828,33.5055,6.21399,5.44738,-16.2234,20.9512,-8.42549,-2.49084,-11.9137
-6.8649,17.7337,16.6626,191.563,-80.2152,-183.518,5.28876,-0.526156,-0.867204,3.726,-0.829695,0.188795,0.879551,-0.47294,0.715626,1.98552,-7.56826,-11.4646,19.8706,-11.0513,2.00431,6.50991,-6.26758,1.87229,5.7896e-15,-8.82107e-15,-31.9099,-19.9848,-74.2109,17.6698,0.527431,-17.544,-23.109,7.12502,8.71041,-52.9092,5.7896e-15,-8.82107e-15,-30.2562,-2.21823,79.5268,33.6802,2.60698,-14.1184,-6.34666,7.12502,12.0149,23.2885,-31.3476,-8.79089,27.0975,19.9184,-7.95932,-18.1672,33.4498,5.07738,5.06296,-16.0751,23.5328,-7.17531,-2.62042,-9.89392
-7.00836,17.7528,16.5838,187.576,-79.604,-179.773,5.53235,-0.374246,-0.537679,3.78037,-0.621389,0.44308,0.795625,-0.367912,0.784777,1.89956,-7.60751,-11.4509,20.0035,-11.1297,2.12648,6.57816,-6.30059,1.89617,7.7526e-15,-3.97569e-16,-32.0344,-20.7787,-73.5429,17.3332,1.19069,-17.6766,-22.8887,7.12502,8.58242,-52.6943,7.7526e-15,-3.97569e-16,-30.8558,-1.80757,79.6459,33.0264,2.70225,-14.4576,-6.1422,7.12502,11.6878,23.5118,-30.2191,-7.51362,27.5791,19.6493,-8.24859,-18.6518,33.779,4.29885,5.15665,-15.1645,26.196,-5.75622,-2.49001,-9.08311
-7.14624,17.7683,16.5193,184.057,-78.9007,-176.558,5.92941,-0.211119,-0.209768,3.84294,-0.399245,0.784233,0.636261,-0.258294,0.94311,1.51921,-7.80918,-12.7852,20.4227,-11.4304,2.67205,6.92148,-6.50701,2.21804,5.01683e-14,-4.77083e-15,-31.8908,-21.977,-72.4983,16.7436,2.56534,-16.4905,-22.8395,7.12502,9.72689,-52.5949,5.01683e-14,-4.77083e-15,-31.4456,-1.39884,79.9969,32.3861,2.67365,-14.6072,-5.89087,7.12502,11.5435,23.7712,-29.1092,-6.83739,28.2057,19.368,-8.12008,-18.6638,33.5344,3.50594,5.63855,-14.3123,28.9266,-4.30714,-2.31402,-10.6657
-7.28475,17.7807,16.4692,181.764,-78.4634,-174.809,6.55947,-0.161989,0.252659,3.94029,-0.320128,0.900792,0.38453,-0.217072,0.80261,1.43255,-7.46147,-13.1121,21.0135,-11.101,3.29627,7.15337,-6.35777,2.4824,-1.17531e-14,1.68967e-15,-31.8456,-22.4994,-72.0106,16.5812,3.33588,-15.0427,-23.041,7.12502,11.1236,-52.7262,-1.17531e-14,1.68967e-15,-31.9779,-0.796706,80.0775,31.6149,2.08319,-14.3635,-5.7569,7.12502,11.7786,23.8919,-27.7994,-7.7075,28.9354,19.0498,-7.25385,-17.65,31.7944,2.89925,5.89724,-13.7279,31.6544,-2.72343,-2.1462,-12.0322
-7.42749,17.806,16.3995,179.329,-78.1068,-172.436,6.53645,-0.121295,0.761637,3.94739,-0.241358,0.999863,0.40264,-0.171356,0.613954,1.69643,-7.52089,-12.2699,20.7626,-11.155,2.81228,6.94977,-6.3544,2.21138,1.96548e-14,-6.95746e-16,-31.8733,-22.7251,-71.8304,16.564,3.70654,-14.1172,-22.9592,7.12502,12.0161,-52.5943,1.96548e-14,-6.95746e-16,-32.5189,-0.185124,79.9659,30.9604,1.41883,-14.0624,-5.57454,7.12502,12.0689,24.0574,-26.9904,-7.82592,29.7053,18.8155,-6.64981,-17.2871,30.8982,1.71606,6.18457,-12.8498,34.3902,-0.923335,-2.39541,-11.6212
-7.57598,17.8433,16.3343,179.893,-77.991,-172.936,6.25979,-0.1589,0.616167,3.93818,-0.299651,1.02672,0.54737,-0.201892,0.725147,1.82599,-7.81591,-10.9151,20.3727,-11.4187,1.77984,6.67719,-6.44243,1.67208,1.95554e-14,5.26779e-15,-31.6309,-22.6452,-71.7423,16.331,3.71352,-14.0047,-22.3675,7.12502,12.1246,-51.9962,1.95554e-14,5.26779e-15,-32.988,0.401841,79.966,30.3359,1.04053,-13.6881,-5.43424,7.12502,12.4299,24.1762,-26.4151,-7.69141,29.6467,18.554,-6.20891,-17.329,30.7026,0.237471,6.21923,-12.7129,37.0815,1.03919,-2.62646,-10.1059
-7.71858,17.8641,16.2757,179.893,-77.7567,-172.912,6.06428,-0.206868,0.535514,3.93867,-0.369159,1.1203,0.657937,-0.238793,0.869159,1.83823,-7.76566,-10.4563,20.2553,-11.2995,1.40348,6.57835,-6.37709,1.49684,-8.44835e-15,3.37934e-15,-31.8415,-24.1192,-71.2078,16.3719,5.606,-14.1765,-21.6101,7.12502,11.9589,-51.2485,-8.44835e-15,3.37934e-15,-33.4294,1.24478,79.9235,29.6769,0.613549,-13.6955,-5.40807,7.12502,12.4227,24.2028,-25.777,-8.16702,29.9378,18.1443,-5.65714,-16.5947,30.3347,-1.19386,6.16492,-12.5119,39.7453,3.23092,-2.49355,-6.64697
-7.85196,17.8683,16.219,177.162,-77.2622,-170.669,6.52144,-0.170755,1.0229,4.06112,-0.30508,1.31715,0.529767,-0.206492,0.796915,1.92881,-7.66053,-10.5097,20.2505,-11.1974,1.54695,6.56541,-6.32695,1.56205,4.42296e-15,-8.64713e-15,-30.6232,-20.143,-72.4809,16.5565,1.89711,-13.7817,-22.4519,7.12502,12.3396,-52.0678,4.42296e-15,-8.64713e-15,-33.9333,1.8903,79.9587,29.1769,0.468556,-13.8207,-5.37426,7.12502,12.302,24.2439,-24.479,-8.33161,30.5806,17.7022,-5.45301,-15.8933,30.9723,-1.93859,5.83643,-11.8119,42.328,5.49969,-1.97752,4.83634
-7.98031,17.879,16.1548,175.079,-76.8673,-169.319,7.25189,-0.144445,1.47814,4.24043,-0.249384,1.2915,0.309766,-0.17831,0.515229,1.94458,-7.63841,-10.0114,20.3773,-11.1766,1.40011,6.56158,-6.29893,1.44042,-4.22169e-14,6.95746e-15,-30.4108,-18.5536,-73.3886,17.1347,0.136068,-14.0319,-22.9857,7.12502,12.0983,-52.6159,-4.22169e-14,6.95746e-15,-34.4536,1.82426,79.8991,28.9284,0.608608,-13.1661,-5.16294,7.12502,12.9331,24.4163,-22.8511,-8.00421,30.8322,17.2455,-5.28641,-16.0109,31.0178,-2.41191,5.37067,-11.293,44.788,7.83577,-1.58629,3.28682
-8.10993,17.8933,16.0901,173.406,-76.4619,-168.264,7.81082,-0.115948,1.83156,4.4062,-0.193518,1.21262,0.172652,-0.150034,0.234172,1.47014,-8.10231,-9.81348,20.5138,-11.7835,1.50343,6.71691,-6.55859,1.37153,1.16786e-14,5.01931e-15,-30.4948,-18.5559,-73.9196,17.7386,-0.0938735,-14.2363,-23.2455,7.12502,11.9012,-52.8872,1.16786e-14,5.01931e-15,-34.8712,1.78579,79.6236,28.6496,0.324877,-12.0234,-5.32028,7.12502,14.0345,24.1859,-21.368,-7.7511,31.1266,16.8534,-4.92461,-16.2682,29.8694,-2.97349,5.29452,-10.7113,47.1171,10.1532,-1.60413,9.65592
-8.24421,17.9043,16.0337,172.338,-75.9235,-167.548,8.032,0.0496845,1.92338,4.49575,0.0273179,1.36794,0.14603,-0.0442392,0.326332,2.22089,-7.97934,-9.37188,19.6749,-11.6868,1.67399,6.2921,-6.46218,1.42467,5.73991e-15,-2.18663e-15,-30.6431,-18.426,-73.9392,18.4971,-0.328996,-14.1789,-23.8099,7.12502,11.9566,-53.4484,5.73991e-15,-2.18663e-15,-35.2115,1.94965,79.7658,28.2655,-0.0235452,-11.2961,-5.34864,7.12502,14.7352,24.1076,-20.2421,-7.47948,31.4086,16.5326,-4.79583,-16.2294,29.5027,-3.81351,5.55744,-10.1701,49.3472,12.2695,-1.82552,12.4936
-8.37399,17.9202,15.9711,172.266,-75.3586,-167.531,7.96906,0.203825,1.74189,4.47828,0.217842,1.56323,0.1623,0.0448093,0.614577,2.25741,-7.97847,-9.54521,19.7312,-11.7316,1.88132,6.32966,-6.4866,1.51248,-3.97072e-14,3.1408e-14,-30.661,-17.7553,-74.0193,19.1184,-1.10352,-14.4794,-23.5429,7.12502,11.6668,-53.1981,-3.97072e-14,3.1408e-14,-35.6149,2.25474,80.0895,27.8914,-0.304376,-11.0069,-4.36741,7.12502,15.0139,25.0683,-19.4329,-7.08766,31.5764,16.1925,-4.91794,-15.9698,29.9916,-5.03278,5.89095,-9.82442,51.4781,14.2234,-2.37245,11.558
-8.49538,17.9296,15.9091,171.026,-74.6854,-166.492,8.22815,0.255847,1.96745,4.44204,0.306114,1.74496,-0.016443,0.0868361,0.667963,1.85615,-8.06376,-10.2496,20.3544,-11.9044,2.2577,6.67875,-6.60569,1.68795,2.16178e-14,-6.55989e-15,-30.0322,-15.9103,-74.5799,18.9527,-2.89882,-14.6656,-22.7724,7.12502,11.4872,-52.4376,2.16178e-14,-6.55989e-15,-36.1324,2.73789,80.1808,27.598,-0.803491,-10.2608,-3.79729,7.12502,15.7325,25.5833,-18.3888,-6.7925,32.084,15.8477,-4.9919,-15.578,29.8504,-6.0561,6.11472,-9.16228,53.4825,16.0211,-3.38216,12.1047
-8.62173,17.9266,15.8554,169.081,-74.0439,-164.916,8.62975,0.276332,2.51513,4.46394,0.375212,1.92758,-0.209651,0.121162,0.542636,2.24055,-7.66387,-10.6168,20.1649,-11.5053,2.92811,6.58347,-6.4054,2.00851,-2.53947e-14,1.59028e-15,-29.8623,-14.5662,-74.7942,19.8899,-4.12012,-14.2282,-22.871,7.12502,11.9091,-52.5123,-2.53947e-14,1.59028e-15,-36.6583,3.01504,80.2922,27.4737,-1.05023,-9.3382,-4.03177,7.12502,16.6209,25.2765,-17.1215,-6.86699,32.745,15.4064,-4.94282,-15.0243,29.3798,-6.79647,5.99496,-8.39522,55.3541,17.1889,-3.79638,13.9645
-8.75485,17.9282,15.807,167.812,-73.5814,-164.036,8.87204,0.290291,2.8938,4.57769,0.414867,2.09076,-0.22085,0.138873,0.495047,1.59416,-7.80601,-11.6503,20.9586,-11.7814,3.61493,7.08045,-6.57376,2.31445,-1.21259e-14,6.95746e-15,-30.405,-16.3833,-74.3821,20.8819,-1.92219,-14.2838,-22.0805,7.12502,11.8555,-51.7249,-1.21259e-14,6.95746e-15,-37.0098,3.18214,80.5198,27.3892,-1.02652,-9.01704,-4.09528,7.12502,16.93,25.1868,-15.8478,-7.22684,33.1101,14.8374,-4.88222,-14.3264,29.4171,-7.47035,5.69418,-7.93672,57.0856,17.6574,-3.82409,16.5822
-8.87727,17.9259,15.7611,165.311,-72.7812,-162.225,9.59674,0.409168,3.66752,4.7668,0.634939,2.29019,-0.407781,0.244527,0.24523,1.58717,-7.54829,-11.6804,21.2081,-11.5155,3.92052,7.15796,-6.44092,2.43568,3.73715e-14,1.09332e-14,-30.0516,-15.4608,-74.6425,21.3495,-2.76982,-14.4526,-21.7735,7.12502,11.6927,-51.4272,3.73715e-14,1.09332e-14,-37.2285,3.13368,80.7195,27.2528,-1.00513,-8.99483,-3.8768,7.12502,16.9514,25.4035,-14.2894,-7.30718,33.8078,14.4943,-4.9205,-13.7563,29.1957,-7.69947,5.83893,-6.89073,58.6665,16.9226,-4.62288,14.7813
-8.99151,17.9081,15.703,162.981,-71.5581,-160.438,10.2603,0.680897,4.47196,4.87944,1.07418,2.46133,-0.625598,0.459612,-0.0763198,1.54586,-7.5244,-11.8446,21.4489,-11.5946,4.40316,7.28692,-6.46614,2.6046,-2.43511e-14,-1.8487e-14,-29.6917,-14.2846,-75.2398,21.8037,-4.43264,-14.4594,-22.2968,7.12502,11.6861,-51.9508,-2.43511e-14,-1.8487e-14,-37.4585,2.94587,80.8036,27.1218,-1.22639,-8.71653,-3.56622,7.12502,17.2193,25.6909,-12.895,-6.63976,34.772,14.3542,-5.13348,-13.6037,28.7313,-7.96093,6.60948,-5.42272,60.1005,16.0747,-5.89767,13.2309
-9.117,17.9109,15.644,163.504,-70.5999,-161.044,10.2197,0.96461,4.48063,4.8664,1.44821,2.43355,-0.603484,0.646794,-0.148008,1.32428,-7.85062,-12.0557,21.6643,-12.07,4.59747,7.46562,-6.69266,2.64312,8.64713e-15,3.97569e-15,-30.1479,-14.9629,-75.2411,23.4862,-3.93985,-14.0164,-22.8272,7.12502,12.1133,-52.4565,8.64713e-15,3.97569e-15,-37.7424,2.92474,80.8508,27.0989,-1.68004,-8.12382,-6.74019,7.12502,17.7897,22.4661,-11.8855,-5.52232,34.8059,13.8687,-5.92798,-13.614,31.2432,-8.78781,6.99959,-5.19905,61.3962,14.8913,-6.26927,13.6009
-9.25049,17.9291,15.6022,164.343,-69.9752,-162.085,10.2339,1.0791,4.47136,4.88867,1.59673,2.34591,-0.580635,0.722043,-0.248681,1.64879,-7.76138,-10.9214,21.3011,-11.8362,3.70676,7.14138,-6.56205,2.22542,2.72335e-14,-3.8763e-14,-29.459,-13.8864,-75.6672,23.3834,-5.01163,-14.1479,-22.3189,7.12502,11.9865,-51.9557,2.72335e-14,-3.8763e-14,-38.0755,2.94647,80.9789,27.207,-1.82252,-8.04368,-5.57475,7.12502,17.8668,23.6245,-10.9001,-5.13804,34.4653,13.4535,-6.50772,-13.2284,33.0347,-9.53153,6.62739,-5.60464,62.5475,13.4843,-6.31871,13.5817
-9.35936,17.9506,15.6142,166.432,-67.3899,-162.615,9.22307,1.74556,5.67514,4.31168,2.57636,2.1961,-0.523551,1.23873,-1.14941,2.1923,-7.84069,-9.05251,20.4529,-11.6814,1.96377,6.54026,-6.46297,1.44639,-1.04362e-15,-4.77083e-15,-29.117,-12.9968,-75.9076,23.8994,-6.44864,-15.2978,-21.8243,7.12502,10.8775,-51.5226,-1.04362e-15,-4.77083e-15,-38.5549,2.89922,81.1418,27.4259,-1.64931,-7.50796,-4.38733,7.12502,18.3822,24.7641,-11.997,-5.85843,35.1675,13.3019,-4.49394,-10.215,29.1432,-11.8195,8.13274,-5.89185,63.8079,11.9747,-5.94867,12.649
-9.48109,17.9278,15.5465,166.144,-66.8075,-162.651,9.45552,1.8619,5.62923,4.27715,2.74384,2.24484,-0.681805,1.3153,-1.09771,1.92127,-7.71536,-10.6495,21.2119,-11.7876,3.50259,7.03158,-6.54429,2.13725,-1.23743e-14,-3.27995e-14,-29.1452,-12.5459,-76.2047,24.9725,-7.78368,-17.7681,-21.2999,7.12502,8.49409,-51.1091,-1.23743e-14,-3.27995e-14,-39.0246,2.85525,81.158,27.7063,-1.4143,-6.61546,-4.54668,7.12502,19.2406,24.5215,-10.8499,-5.84799,35.4586,13.0419,-4.21756,-9.97068,26.6593,-12.3507,8.17171,-5.47469,64.7377,10.5881,-6.60633,11.7754
-9.60536,17.9273,15.4723,167.059,-66.375,-163.994,9.4988,2.05011,4.80476,4.39764,2.91852,2.25824,-0.617794,1.3941,-0.640988,1.6758,-7.71282,-10.7283,21.541,-11.8571,3.84583,7.21086,-6.5649,2.23548,1.93318e-14,5.56597e-15,-28.9964,-12.2459,-76.303,25.857,-8.18627,-18.1762,-21.7748,7.12502,8.10029,-51.5995,1.93318e-14,5.56597e-15,-39.2107,2.8723,81.3109,27.8975,-1.13277,-6.7185,-4.64409,7.12502,19.1415,24.434,-9.54968,-5.31354,34.9916,12.5645,-4.59259,-10.0275,27.2741,-12.8185,8.15063,-5.70935,65.4402,9.29307,-6.95477,12.4403
-9.72501,17.9192,15.4009,167.507,-66.0187,-165.007,9.66689,2.15221,4.02009,4.58589,2.97929,2.382,-0.562952,1.41069,-0.0850174,1.69948,-7.75335,-10.3633,21.283,-11.7888,3.24551,7.05939,-6.54036,1.9989,1.85864e-14,-1.72943e-14,-28.5769,-11.7756,-76.2894,26.5921,-8.23626,-17.2914,-22.5046,7.12502,8.95414,-52.2946,1.85864e-14,-1.72943e-14,-39.3646,3.21946,81.4949,27.9591,-1.07292,-8.14902,-4.62132,7.12502,17.7654,24.5872,-8.39196,-4.77087,34.6333,12.564,-4.97468,-10.1613,26.8916,-13.1477,7.89464,-5.82569,65.9235,8.12958,-7.13426,11.3384
-9.83963,17.9161,15.3807,167.68,-64.9311,-164.89,9.57044,2.3093,4.65854,4.39648,3.25079,2.33031,-0.656369,1.55427,-0.519133,1.71239,-7.74,-10.2449,21.3716,-11.7753,3.13895,7.0712,-6.53918,1.94653,-4.28381e-14,1.55052e-14,-28.298,-11.518,-76.5266,27.1777,-8.45212,-17.587,-22.0138,7.12502,8.66892,-51.8158,-4.28381e-14,1.55052e-14,-39.6961,3.73714,81.3397,28.0911,-1.23683,-9.11269,-4.58598,7.12502,16.838,24.704,-8.34139,-4.49914,34.8856,12.8581,-5.04673,-9.27839,27.2661,-14.368,8.10128,-5.68209,66.3557,7.25378,-7.25858,10.7669
-9.96,17.9235,15.3555,167.713,-63.985,-164.602,9.44947,2.5289,5.46662,4.18534,3.61951,2.24317,-0.732919,1.74759,-1.09039,1.58029,-7.83134,-10.6778,21.6864,-11.9832,3.54193,7.26547,-6.64902,2.11107,3.43897e-14,2.04748e-14,-28.1571,-10.5448,-76.6812,27.9724,-9.78548,-18.0494,-21.4004,7.12502,8.22269,-51.2204,3.43897e-14,2.04748e-14,-39.9845,3.50711,81.4793,28.3812,-0.772336,-9.19812,-4.32572,7.12502,16.7557,24.9712,-8.27975,-4.17621,35.1645,13.1059,-5.35531,-8.67025,27.9903,-15.5248,8.24677,-5.48172,66.631,6.7171,-7.64327,11.2103
-10.0793,17.9199,15.2762,167.609,-63.4947,-164.911,9.57162,2.68108,5.13265,4.30533,3.78794,2.3122,-0.693793,1.82588,-0.852088,1.24289,-7.86432,-10.6642,22.0991,-12.0774,3.74518,7.47792,-6.6829,2.14152,3.54831e-14,3.57812e-14,-27.9967,-11.046,-76.8487,28.7484,-9.84689,-18.1277,-20.6209,7.12502,8.14707,-50.4439,3.54831e-14,3.57812e-14,-40.0956,3.38771,81.6528,28.6626,-0.0531686,-9.0567,-4.0652,7.12502,16.8919,25.2202,-7.37421,-3.23324,35.1727,13.4309,-6.04603,-9.22864,27.7647,-15.7582,8.06219,-5.25956,66.683,6.05002,-7.84926,12.0088
-10.1978,17.9039,15.2218,167.973,-62.7533,-165.118,9.24512,2.76439,5.17323,4.27989,3.88449,2.2834,-0.531422,1.8802,-0.896289,1.08119,-7.75009,-10.3603,22.1424,-11.9036,3.64997,7.47942,-6.58412,2.07079,-6.36111e-15,-9.93923e-15,-27.6234,-10.8552,-77.2106,29.5512,-10.5402,-17.2884,-21.1517,7.12502,8.95703,-50.9416,-6.36111e-15,-9.93923e-15,-40.236,3.92037,81.3998,28.9097,0.0283129,-8.65352,-4.40984,7.12502,17.2799,24.8419,-7.27629,-2.71669,35.2855,13.9189,-6.24519,-9.09886,26.2802,-16.7232,8.01789,-5.19052,66.7381,4.98846,-7.35709,10.8601
-10.3317,17.8339,15.1929,164.687,-64.0198,-164.205,11.4555,2.01639,5.7989,4.85305,3.0135,2.34764,-1.14948,1.41494,-1.17502,1.06135,-7.56082,-10.6105,22.0354,-11.6208,3.68483,7.4437,-6.46485,2.14571,-5.72003e-14,-2.10712e-14,-27.4323,-10.3334,-77.5184,30.5385,-11.2711,-16.4539,-22.6819,7.12502,9.76224,-52.4357,-5.72003e-14,-2.10712e-14,-40.4672,4.26838,81.3104,29.1433,-0.109776,-8.42999,-4.72461,7.12502,17.4951,24.5082,-4.83075,-3.72467,35.3324,14.5823,-7.18075,-10.0782,25.5218,-15.5828,5.69914,-4.71391,66.6232,3.83885,-7.58029,8.38526
-10.4453,17.8158,15.1529,164.024,-63.2343,-163.774,11.8404,2.09663,6.28475,4.84507,3.19032,2.45407,-1.33067,1.49562,-1.37011,0.920995,-7.58997,-10.4325,22.206,-11.6491,3.53822,7.50686,-6.47912,2.05835,-9.69075e-15,1.11319e-14,-27.3993,-9.82485,-77.7502,31.6549,-12.0572,-16.4553,-23.4545,7.12502,9.76086,-53.2083,-9.69075e-15,1.11319e-14,-40.6421,4.48017,81.3811,29.3899,-0.00439121,-8.49127,-4.62621,7.12502,17.4361,24.6118,-4.35736,-3.40931,35.6794,15.1834,-7.87148,-9.72506,26.6887,-16.0559,5.71784,-4.23827,66.4453,2.89352,-7.73766,7.40099
-10.561,17.8093,15.1107,164.049,-62.5947,-164.013,12.0802,2.15338,6.46235,4.83133,3.29983,2.42294,-1.45392,1.54603,-1.52433,0.93942,-7.61951,-10.0755,22.1092,-11.6394,3.21021,7.42879,-6.47092,1.90117,1.6201e-14,3.20043e-14,-27.2857,-9.5523,-77.997,32.5626,-12.5304,-16.0449,-23.5682,7.12502,10.1568,-53.3031,1.6201e-14,3.20043e-14,-40.8485,4.2701,81.4718,29.8714,0.924697,-8.68409,-4.33823,7.12502,17.2505,24.9161,-3.94063,-2.60633,35.7126,15.8346,-8.72115,-9.85975,27.7109,-16.5878,5.71014,-4.19121,66.1167,2.04637,-7.56994,6.94953
-10.675,17.8003,15.0626,164.382,-62.0474,-164.244,11.9499,2.18682,6.52648,4.7459,3.35096,2.39228,-1.46326,1.57345,-1.5945,1.08101,-7.57947,-9.77218,21.8337,-11.5558,3.02906,7.27659,-6.41937,1.81593,6.68413e-14,-4.57205e-15,-26.9121,-9.08059,-78.1788,33.2386,-12.9714,-15.4265,-23.6566,7.12502,10.7534,-53.3614,6.68413e-14,-4.57205e-15,-41.0715,4.12085,81.5468,30.3324,1.72963,-8.94383,-4.34594,7.12502,17.0005,24.9301,-3.94708,-1.76174,35.8204,16.6567,-9.40204,-10.3097,26.9569,-17.5237,5.62908,-4.19574,65.6916,1.10053,-7.46259,5.24192
-10.7812,17.7897,15.0197,164.874,-61.3691,-164.5,11.8587,2.34183,6.46182,4.59872,3.55961,2.47619,-1.56329,1.67331,-1.49651,0.911657,-7.55306,-9.90018,22.001,-11.5373,3.13875,7.37413,-6.41486,1.8605,2.03754e-15,3.97569e-16,-26.4571,-8.49848,-78.0676,33.953,-13.384,-15.7156,-23.3212,7.12502,10.4745,-53.0402,2.03754e-15,3.97569e-16,-41.1334,4.57548,81.5438,30.4331,1.52289,-9.38561,-4.73993,7.12502,16.5752,24.5722,-4.15318,-1.05461,35.9241,17.4686,-9.79733,-10.4912,26.2095,-18.5764,5.60258,-4.18869,65.1584,-0.0564455,-7.49042,3.74873
-10.8833,17.7842,14.9832,165.907,-60.5711,-165.584,12.0995,2.56297,6.17009,4.47906,3.85188,2.37461,-1.81383,1.81101,-1.49147,0.806122,-7.5417,-9.69992,22.0314,-11.4929,2.97434,7.37688,-6.3904,1.77483,2.37051e-14,-5.04913e-14,-26.6178,-8.98412,-78.2378,35.0387,-13.0884,-15.9726,-22.6529,7.12502,10.2266,-52.3843,2.37051e-14,-5.04913e-14,-41.1124,5.03244,81.4062,30.5062,1.28385,-9.7113,-4.95888,7.12502,16.2616,24.3792,-3.95648,-0.574389,35.5354,17.9022,-9.98436,-10.1266,26.0914,-19.255,5.50278,-4.63576,64.4906,-1.1235,-7.2201,4.22803
-10.9953,17.7619,14.9447,165.967,-59.9985,-165.777,12.3308,2.61103,6.39691,4.40283,3.96318,2.3148,-1.99016,1.86137,-1.70715,1.15827,-7.49574,-9.34995,21.6528,-11.4089,2.7384,7.14935,-6.34199,1.67731,-7.18607e-14,2.54444e-14,-26.551,-8.25385,-78.4873,35.9836,-14.6081,-16.1989,-22.8769,7.12502,10.0083,-52.619,-7.18607e-14,2.54444e-14,-41.2182,5.09759,81.3981,30.7728,1.44216,-9.83562,-4.98494,7.12502,16.1419,24.3629,-3.30324,-0.535331,35.5204,18.1323,-10.4206,-9.63322,25.7811,-19.8176,5.06227,-4.61266,63.8141,-1.31155,-7.73472,9.53603
-11.1269,17.7344,14.9077,164.295,-59.9325,-164.352,12.6219,2.40612,7.47343,4.42824,3.82776,2.45864,-2.06032,1.78796,-2.1488,1.50827,-7.50201,-9.22751,21.355,-11.4188,2.63153,6.97856,-6.34729,1.64682,1.56046e-14,-4.57205e-15,-26.4623,-7.53572,-78.6669,36.8752,-15.6709,-16.6981,-23.0796,7.12502,9.52664,-52.8442,1.56046e-14,-4.57205e-15,-41.2938,4.69609,81.6715,31.0529,1.79687,-10.2061,-4.83809,7.12502,15.7852,24.5383,-2.44056,-1.503,36.0979,18.4878,-10.9726,-9.0042,25.5138,-20.1935,3.93042,-3.84034,63.0606,-1.66982,-7.63448,12.9921
-11.241,17.736,14.8673,164.511,-59.5115,-164.629,12.8237,2.4883,7.72251,4.35189,3.99014,2.2975,-2.20466,1.86568,-2.48796,1.36677,-7.51702,-8.67604,21.5195,-11.4609,2.59073,7.02065,-6.33275,1.536,-2.70347e-14,-7.95139e-16,-26.4791,-7.27669,-79.0588,37.9237,-16.0516,-16.5161,-23.1744,7.12502,9.70224,-52.9309,-2.70347e-14,-7.95139e-16,-41.1762,4.19731,81.7536,31.2993,2.08506,-10.5194,-4.73491,7.12502,15.4834,24.6651,-1.99799,-1.61749,35.9316,18.6942,-11.2217,-8.60105,25.1662,-20.7835,3.22013,-3.84306,62.1522,-2.23083,-7.07646,14.8757
-11.3563,17.7103,14.8159,165.693,-59.3942,-165.525,12.2921,2.51924,7.26756,4.26972,3.94849,2.17117,-2.03328,1.85797,-2.33777,0.822836,-7.5213,-9.17087,22.0183,-11.5535,3.18007,7.34898,-6.37177,1.75558,2.14439e-14,3.71727e-14,-26.4525,-6.96351,-79.3913,39.072,-16.4353,-16.562,-23.0676,7.12502,9.65792,-52.8262,2.14439e-14,3.71727e-14,-41.0225,4.32462,81.7233,31.5592,2.16155,-10.6845,-4.79252,7.12502,15.3244,24.6197,-1.9968,-1.33815,35.478,18.8734,-11.7782,-8.51029,24.3347,-21.8329,3.04789,-4.4244,60.9805,-3.40716,-6.68712,5.87262
-11.4735,17.6977,14.7605,166.115,-59.3809,-166.108,12.0913,2.4351,6.56338,4.38707,3.73157,2.39539,-1.88702,1.74915,-1.67499,0.653312,-7.46036,-9.28311,21.9435,-11.3934,2.9601,7.33811,-6.31467,1.70857,-9.18385e-14,9.74045e-15,-26.0296,-6.17031,-79.3575,39.7963,-16.658,-17.135,-22.5296,7.12502,9.10504,-52.313,-9.18385e-14,9.74045e-15,-40.875,4.8368,82.0241,31.8466,2.46491,-10.9229,-4.72825,7.12502,15.0947,24.7014,-1.5524,-1.13833,35.185,19.2535,-12.5258,-8.68456,23.8046,-22.3317,2.40625,-4.73858,59.6346,-3.77216,-6.02211,8.80595
-11.5884,17.6854,14.7248,165.594,-59.0585,-165.945,12.6555,2.45702,7.04654,4.39044,3.85295,2.37897,-2.14294,1.79778,-2.00236,0.851292,-7.55973,-9.13735,21.761,-11.5222,2.84462,7.23674,-6.37363,1.6519,-6.60959e-14,-3.06128e-14,-25.8799,-6.02502,-79.3634,40.4236,-16.7199,-17.1709,-22.626,7.12502,9.07039,-52.411,-6.60959e-14,-3.06128e-14,-40.738,4.11431,82.3441,32.1491,3.04627,-11.0712,-4.63626,7.12502,14.9519,24.804,-0.895497,-1.20517,35.2495,19.8255,-12.7745,-9.1765,23.2964,-22.4148,1.79697,-4.57898,58.1503,-3.94288,-5.59972,11.5124
-11.7011,17.6561,14.6855,165.611,-58.8076,-166.019,12.853,2.39733,7.34383,4.33947,3.82858,2.29537,-2.27764,1.78156,-2.26224,0.614649,-7.58613,-9.31864,21.9372,-11.5764,3.01768,7.361,-6.39968,1.71522,-3.96575e-14,2.20651e-14,-25.8136,-5.49647,-79.5702,41.2903,-17.304,-16.9654,-22.9642,7.12502,9.26877,-52.7405,-3.96575e-14,2.20651e-14,-40.5389,3.96958,82.2887,32.3103,3.04422,-10.8715,-4.87769,7.12502,15.1443,24.5482,-0.381023,-1.22121,35.1866,19.7508,-12.5116,-9.58476,22.0803,-22.8924,1.25965,-4.61018,56.7034,-4.26855,-5.0784,11.075
-11.8126,17.6006,14.6325,165.175,-58.7392,-165.735,13.0042,2.22539,7.45481,4.38437,3.61943,2.40897,-2.33032,1.67158,-2.18341,0.393643,-7.4312,-9.40134,22.0569,-11.3553,3.05928,7.43092,-6.29782,1.74672,-3.08613e-14,1.33186e-14,-25.6996,-4.72193,-79.7132,42.3156,-17.8264,-16.4121,-23.2452,7.12502,9.80257,-52.9971,-3.08613e-14,1.33186e-14,-40.2925,4.31718,82.2255,32.4621,3.09204,-10.7684,-5.17885,7.12502,15.2436,24.2395,0.435603,-1.23448,35.3514,19.3167,-12.8576,-8.9367,21.5449,-23.2446,0.705448,-4.50444,55.2284,-4.76385,-4.54298,7.57656
-11.9195,17.5825,14.5731,163.118,-58.1046,-163.886,13.5754,2.1857,8.10082,4.46515,3.67679,2.95669,-2.53772,1.67259,-1.99954,0.423305,-7.30161,-9.34936,22.0742,-11.1512,2.85486,7.40289,-6.21688,1.69089,2.06239e-14,-1.37161e-14,-25.571,-4.33582,-79.5815,43.0565,-17.3003,-16.4246,-23.5709,7.12502,9.79051,-53.3233,2.06239e-14,-1.37161e-14,-40.116,4.77138,82.3898,32.7072,2.95231,-10.8932,-5.14053,7.12502,15.1234,24.2869,1.71591,-0.958901,36.581,18.8152,-13.3736,-8.44115,23.2433,-23.2155,0.121613,-3.0522,53.806,-4.975,-4.35011,8.49825
-12.0373,17.5697,14.5484,161.92,-57.241,-162.4,13.8689,2.24592,9.30583,4.34295,3.94496,3.17887,-2.72299,1.78574,-2.4846,0.629108,-7.34443,-8.71823,21.84,-11.139,2.30068,7.21933,-6.20392,1.43171,-4.40308e-14,1.39149e-14,-25.5381,-4.05077,-79.6577,43.509,-17.3267,-17.3503,-23.6306,7.12502,8.89728,-53.423,-4.40308e-14,1.39149e-14,-39.8955,5.02131,82.2933,32.8955,2.35242,-10.6394,-5.05473,7.12502,15.3678,24.3541,2.40421,-1.10101,37.4319,18.3252,-13.4522,-7.93551,23.8956,-23.5957,-0.37918,-1.87196,52.2044,-5.14927,-3.67318,9.78753
-12.149,17.5757,14.4959,163.407,-57.2361,-163.641,13.5559,2.35598,8.88693,4.1521,4.03815,2.84493,-2.75639,1.84397,-2.60835,0.809437,-7.37509,-8.33358,21.7858,-11.2067,2.22568,7.14561,-6.2174,1.35318,-5.11871e-15,5.36719e-15,-25.5741,-3.60219,-79.8347,44.2402,-18.2341,-17.5439,-23.2427,7.12502,8.71053,-53.0429,-5.11871e-15,5.36719e-15,-39.6137,4.58963,82.1477,33.0322,2.33949,-10.3449,-5.23113,7.12502,15.6515,24.1558,2.68302,-0.912469,36.6667,17.8705,-13.6625,-7.86376,23.2099,-24.2684,-0.923466,-2.57755,50.2527,-5.28593,-3.07751,9.68649
-12.2648,17.5736,14.4547,164.298,-57.1259,-164.275,13.3751,2.3814,8.91583,3.94903,4.08703,2.56589,-2.84639,1.87261,-2.92084,0.605492,-7.33769,-8.5827,22.398,-11.3146,2.80715,7.43653,-6.26093,1.54537,-5.82439e-14,4.37326e-15,-26.2823,-5.7903,-80.7987,45.3481,-16.0788,-17.4835,-22.0567,7.12502,8.76882,-51.8546,-5.82439e-14,4.37326e-15,-39.4024,3.92323,82.1041,33.2353,2.65474,-10.9187,-5.2561,7.12502,15.0988,24.1732,3.01016,-1.19943,36.1419,17.4768,-13.7728,-7.46416,22.1897,-24.8238,-1.26519,-2.95153,48.1951,-5.11556,-2.84358,6.03446
-12.3966,17.5996,14.4228,166.86,-57.6512,-166.496,12.6715,2.30384,8.14051,3.72838,3.85825,2.08068,-2.74823,1.78389,-2.94119,0.330005,-7.3545,-8.69918,22.8676,-11.4039,3.00057,7.6647,-6.30603,1.59476,3.4191e-14,3.47873e-14,-26.0692,-3.72555,-80.3375,45.9502,-17.8693,-16.9674,-22.3807,7.12502,9.26677,-52.157,3.4191e-14,3.47873e-14,-39.2484,3.70217,82.1243,33.5938,2.76781,-11.7062,-4.85194,7.12502,14.3401,24.6328,2.92577,-2.27851,34.3059,17.0989,-13.9549,-6.47274,21.8064,-25.674,-2.45369,-4.51194,45.9752,-4.93229,-1.74012,4.0865
-12.4969,17.5666,14.3456,164.719,-57.1694,-164.703,13.4649,2.31157,8.66014,3.80807,3.993,2.5981,-3.07823,1.81653,-2.74299,0.303552,-7.39288,-8.70462,22.9793,-11.4531,2.90215,7.70502,-6.34123,1.55564,-1.23992e-13,-1.70955e-14,-26.0398,-2.76404,-80.0704,46.461,-18.4078,-16.4937,-22.8712,7.12502,9.72385,-52.6267,-1.23992e-13,-1.70955e-14,-39.0472,3.90638,82.1694,33.9364,2.77043,-11.2339,-4.67855,7.12502,14.7951,24.7733,4.43461,-1.35802,35.7312,16.5087,-14.1952,-7.34092,22.2033,-25.1789,-2.85425,-3.00977,43.9307,-5.45861,-1.19198,8.33721
-12.6053,17.5398,14.3151,163.025,-56.0944,-162.991,14.3083,2.38491,9.94025,3.73477,4.34798,2.93257,-3.49528,1.94652,-3.19379,0.264299,-7.43148,-8.69632,23.0891,-11.5166,2.87534,7.75089,-6.37621,1.5357,1.02324e-13,1.39149e-15,-26.1975,-2.11667,-80.0448,47.1693,-18.7573,-16.5521,-22.9504,7.12502,9.6675,-52.7086,1.02324e-13,1.39149e-15,-38.8222,4.01568,82.1399,34.2582,3.04682,-10.7136,-4.97565,7.12502,15.2963,24.4387,5.67185,-1.11879,36.8904,15.7299,-14.0618,-7.09072,21.1793,-24.9313,-3.1692,-1.51214,41.9303,-6.34822,-0.32776,13.4573
-12.7358,17.5345,14.2519,163.361,-56.3009,-163.171,13.9465,2.28391,9.94177,3.69144,4.18123,2.84411,-3.35898,1.87608,-3.24493,0.298645,-7.4664,-8.53406,23.0401,-11.574,2.85828,7.72039,-6.39258,1.5029,-2.04251e-14,-1.49089e-14,-26.3683,-1.72199,-80.1549,47.9158,-18.9509,-15.6107,-23.6449,7.12502,10.5757,-53.3589,-2.04251e-14,-1.49089e-14,-38.5733,4.00914,81.9802,34.6142,3.27705,-10.9693,-5.22643,7.12502,15.0501,24.2065,6.55291,-1.68277,36.5293,14.6344,-14.0701,-6.67329,20.4138,-25.3491,-3.8509,-1.65621,39.9662,-6.89554,0.0627153,14.3171
-12.8521,17.5068,14.2009,162.624,-55.7533,-162.374,14.2135,2.23156,10.5341,3.69479,4.21629,3.00721,-3.4597,1.87559,-3.41674,0.441419,-7.37893,-8.47951,22.8987,-11.4287,2.71196,7.6269,-6.3329,1.4695,-9.0447e-15,2.54444e-14,-26.0892,-1.72783,-80.2297,48.0411,-18.7505,-14.5786,-24.3745,7.12502,11.5712,-54.0351,-9.0447e-15,2.54444e-14,-38.3575,4.50745,81.7171,34.9634,2.94539,-10.7118,-5.31501,7.12502,15.2981,24.0992,7.5064,-1.39179,37.0731,13.8641,-14.1793,-6.43701,21.0208,-25.3625,-3.36332,-1.04315,37.9177,-7.11747,-0.0952523,10.9124
-12.973,17.4892,14.1447,162.554,-55.5273,-162.151,14.0209,2.17044,10.5699,3.76367,4.10399,3.18328,-3.30589,1.82435,-3.22137,0.461406,-7.30473,-8.53548,22.7533,-11.2642,2.4948,7.55635,-6.27318,1.42592,8.51792e-14,-3.77691e-14,-25.6296,-1.47786,-80.1388,48.166,-18.7834,-14.5948,-24.1943,7.12502,11.5555,-53.8557,8.51792e-14,-3.77691e-14,-38.086,5.01278,81.6566,35.3527,2.81848,-10.3662,-5.55423,7.12502,15.631,23.8343,8.12208,-0.70836,37.3661,13.4349,-14.3662,-6.98423,20.9168,-25.5249,-2.88055,-0.890998,35.7551,-7.45832,-0.386173,7.34205
-13.0945,17.4879,14.0763,163.678,-55.5425,-162.948,13.3607,2.30516,9.92378,3.73488,4.12965,3.12047,-3.02221,1.86318,-2.9037,0.39636,-7.33319,-8.45635,22.7957,-11.3401,2.64431,7.58938,-6.29129,1.45157,4.38817e-14,1.74931e-14,-25.6682,-1.87775,-80.0055,48.6702,-18.2713,-14.4377,-23.6085,7.12502,11.7071,-53.2614,4.38817e-14,1.74931e-14,-37.7784,4.71276,81.7412,35.8216,3.13821,-10.6986,-5.95937,7.12502,15.3108,23.4539,8.36932,-0.0050445,37.017,13.0828,-14.4325,-7.70213,20.2016,-25.9761,-2.90933,-1.36284,33.6675,-8.15705,-0.200832,5.06141
-13.2182,17.4741,14.0131,164.546,-55.3382,-163.412,12.8919,2.4231,9.66647,3.58865,4.22465,3.01917,-2.92508,1.92229,-2.8615,0.202157,-7.3086,-8.74507,23.2183,-11.4297,3.13603,7.81617,-6.32786,1.62904,6.90777e-15,1.64991e-14,-25.8967,-2.47955,-80.0828,48.9209,-17.4427,-14.0005,-23.1539,7.12502,12.1286,-52.7823,6.90777e-15,1.64991e-14,-37.7066,4.50843,81.6529,36.4185,3.40358,-11.1933,-5.88943,7.12502,14.8342,23.5596,8.59499,0.42478,36.7741,12.7735,-14.6366,-7.79948,20.0614,-26.44,-2.23312,-1.70836,31.6128,-8.8095,-0.31232,2.91462
-13.3464,17.4577,13.9506,165.086,-55.2971,-163.758,12.658,2.38944,9.57733,3.48451,4.15981,2.9225,-2.91592,1.89516,-2.8964,0.158642,-7.32389,-8.7884,23.382,-11.4622,3.09757,7.8819,-6.35525,1.61457,-9.06955e-14,1.59028e-15,-26.0267,-2.33433,-80.2611,49.0642,-17.4187,-14.2398,-22.8794,7.12502,11.8979,-52.5213,-9.06955e-14,1.59028e-15,-37.679,4.77252,81.3942,37.0625,3.77275,-11.5162,-5.22333,7.12502,14.5232,24.2483,8.99943,0.303535,36.4505,12.512,-14.9786,-7.44974,20.0418,-26.6714,-2.66509,-1.86381,29.6092,-9.71281,0.374326,2.78794
-13.4685,17.4529,13.8841,165.546,-55.1334,-164.195,12.5378,2.46417,9.31625,3.51152,4.21183,2.90876,-2.8356,1.92751,-2.76688,0.306897,-7.49304,-8.46119,23.0951,-11.62,2.71968,7.72754,-6.42785,1.44132,-3.07619e-14,-2.18663e-14,-25.9012,-1.79362,-80.21,49.2327,-18.0159,-14.7646,-22.9283,7.12502,11.3918,-52.5989,-3.07619e-14,-2.18663e-14,-37.5133,4.90691,81.2449,37.7819,4.16409,-11.6582,-4.86012,7.12502,14.3863,24.6213,9.54052,-0.259473,35.9892,12.2812,-15.2609,-6.60872,20.1162,-26.7283,-2.65225,-2.05781,27.7802,-10.5902,0.209086,4.25491
-13.5897,17.4503,13.8146,166.056,-54.7421,-164.488,12.1188,2.61702,8.99586,3.58262,4.32269,2.99675,-2.55206,1.99715,-2.48709,0.284044,-7.52995,-8.86263,23.0511,-11.721,3.09945,7.77183,-6.47541,1.617,-1.07294e-13,-1.55052e-14,-25.6912,-1.29692,-80.1348,49.2796,-18.3344,-14.7964,-22.8462,7.12502,11.3611,-52.5185,-1.07294e-13,-1.55052e-14,-37.4082,4.91771,81.2357,38.5599,4.08818,-11.7877,-5.03996,7.12502,14.2616,24.4503,9.97613,-0.425243,35.7238,11.981,-15.489,-5.92954,20.3358,-26.8995,-3.08022,-1.95913,26.1447,-11.7213,0.562437,4.35173
-13.7161,17.4372,13.7477,166.556,-54.4349,-164.811,11.8853,2.65367,8.86194,3.52869,4.34037,2.9225,-2.48511,2.01255,-2.48196,-0.054884,-7.2829,-9.84218,23.6471,-11.601,4.22076,8.15146,-6.42099,2.11773,-1.70955e-14,3.18055e-14,-25.8639,-1.1553,-80.3525,49.398,-18.1985,-14.725,-22.7253,7.12502,11.43,-52.3938,-1.70955e-14,3.18055e-14,-37.5133,4.52622,81.1479,39.3526,4.30018,-12.0693,-5.17179,7.12502,13.9902,24.3374,10.4358,-0.137809,35.548,11.6958,-15.7536,-5.76333,20.3644,-27.103,-3.7071,-1.88582,24.7221,-12.8401,1.10687,3.87352
-13.8429,17.4123,13.6902,166.697,-54.0911,-165.086,12.1834,2.59666,8.84432,3.48252,4.2994,2.83026,-2.69554,1.98306,-2.58238,0.133508,-7.14951,-9.67024,23.5228,-11.3899,3.99551,8.03511,-6.33134,2.04725,1.94312e-14,1.37161e-14,-26.137,-1.29287,-80.5136,49.7232,-18.1133,-13.674,-23.6937,7.12502,12.4434,-53.3033,1.94312e-14,1.37161e-14,-37.6094,4.34101,80.9443,40.1096,5.10306,-12.4411,-4.99655,7.12502,13.6319,24.5371,11.2443,0.38306,35.4879,11.4898,-15.9961,-6.01561,19.972,-27.0627,-3.94504,-1.91894,23.6242,-13.9505,1.053,5.66186
-13.9754,17.3906,13.6349,166.973,-53.8754,-165.331,12.0947,2.58641,8.7287,3.49643,4.26155,2.85802,-2.64782,1.96669,-2.47984,0.201815,-7.14011,-9.49134,23.5379,-11.3522,3.74196,7.99976,-6.32394,1.94222,4.28878e-14,3.00165e-14,-26.4408,-1.53264,-80.3799,50.1946,-17.8649,-12.8993,-24.1727,7.12502,13.1903,-53.7354,4.28878e-14,3.00165e-14,-37.4864,4.66945,80.807,40.6389,5.24245,-13.0928,-4.8143,7.12502,13.0037,24.7604,11.9442,0.42563,35.2662,11.1665,-16.082,-6.02869,19.3546,-27.341,-2.55147,-2.5397,22.9196,-14.6497,-0.347133,5.41806
-14.1122,17.3641,13.5864,166.787,-53.7886,-164.879,11.956,2.53255,9.21593,3.43293,4.23598,2.88648,-2.60451,1.95286,-2.70832,0.321732,-7.20236,-9.4011,23.5125,-11.4423,3.64852,7.96589,-6.37045,1.89538,-8.91549e-14,-2.52457e-14,-26.6601,-1.50128,-80.3763,50.2835,-17.7204,-13.728,-23.846,7.12502,12.3914,-53.4587,-8.91549e-14,-2.52457e-14,-37.4177,4.8531,80.4927,41.1068,4.38048,-13.1846,-5.32087,7.12502,12.9152,24.2595,12.5669,-0.224827,35.2183,10.5011,-15.9823,-5.37138,19.1696,-27.9983,0.393359,-3.41335,22.6007,-14.7995,-2.82506,-1.18439
-14.2468,17.3361,13.5361,166.1,-53.7676,-164.052,12.0464,2.32845,9.97313,3.36593,4.0659,2.83827,-2.68089,1.8602,-3.16022,0.364478,-7.1024,-9.30711,23.6902,-11.3845,3.81358,8.01628,-6.33379,1.93856,-1.17432e-13,-1.76918e-14,-26.5845,-1.35298,-80.6887,49.9152,-17.8735,-13.0551,-24.9899,7.12502,13.0401,-54.5623,-1.17432e-13,-1.76918e-14,-37.5777,4.27584,80.3042,41.9811,5.77373,-13.998,-5.35744,7.12502,12.1311,24.2709,13.1957,-0.518557,35.5558,10.1796,-16.189,-5.12564,19.4282,-28.0591,0.308982,-3.0208,22.1352,-15.4503,-4.0363,-0.420192
-14.3734,17.3105,13.4631,165.399,-53.6329,-163.533,12.098,2.20561,10.0864,3.55399,3.89113,2.98729,-2.53207,1.77613,-3.04138,0.0947084,-6.95037,-9.60886,24.0736,-11.2415,4.1014,8.21802,-6.27461,2.0742,-1.44815e-13,2.66371e-14,-26.3651,-1.22473,-80.8406,49.4958,-17.6767,-13.7844,-24.7183,7.12502,12.337,-54.3343,-1.44815e-13,2.66371e-14,-37.5133,4.25928,80.1335,42.6344,6.20721,-14.0797,-5.46687,7.12502,12.0522,24.1661,14.3237,-0.322321,36.0111,9.62702,-16.3506,-5.35358,19.7139,-27.7818,-0.288044,-2.5215,22.003,-16.122,-4.42712,0.195481
-14.5043,17.3413,13.4176,168.604,-54.1636,-165.969,10.5855,2.17693,8.60883,3.49468,3.55795,2.73055,-1.89526,1.66189,-2.38847,0.241417,-7.07821,-8.6503,23.2725,-11.0986,2.78953,7.77966,-6.20809,1.5297,-2.52953e-14,-2.70347e-14,-25.9477,-0.5877,-80.6162,48.9995,-17.5015,-14.0072,-25.0798,7.12502,12.1222,-54.7087,-2.52953e-14,-2.70347e-14,-37.2163,4.99126,80.1688,43.0923,5.5715,-14.0653,-5.61236,7.12502,12.0662,24.0198,13.819,0.123007,34.2318,8.99094,-16.152,-5.62322,19.0665,-29.0325,0.117337,-4.61529,21.8162,-15.6736,-5.19378,-1.07261
-14.611,17.3002,13.3464,166.776,-53.5688,-164.422,11.3911,2.09561,9.25269,3.68703,3.55803,3.14438,-2.11406,1.63386,-2.34261,0.203081,-7.00798,-9.04095,23.1709,-10.9844,2.91087,7.77615,-6.17174,1.63989,-4.91495e-14,-2.14687e-14,-25.7499,-0.365781,-80.5099,48.5385,-17.3435,-13.8829,-25.2874,7.12502,12.242,-54.9091,-4.91495e-14,-2.14687e-14,-37.0543,5.58889,79.809,43.4531,4.68958,-13.8526,-5.87486,7.12502,12.2712,23.7451,15.2746,0.509907,35.636,8.34775,-15.8969,-6.03111,18.4941,-28.4552,1.43817,-3.83675,21.8976,-14.3336,-6.90671,-0.873241
-14.6869,17.3535,13.2077,170.245,-52.1176,-164.352,7.6356,2.85085,8.29361,2.92284,4.18562,3.28378,-0.871098,2.01097,-1.55967,0.127152,-6.84035,-9.33787,23.3816,-10.8365,3.29097,7.88785,-6.10396,1.81542,-7.2457e-14,-6.83819e-14,-25.9264,-0.895333,-80.6118,48.44,-16.896,-12.8234,-25.6457,7.12502,13.2634,-55.2036,-7.2457e-14,-6.83819e-14,-36.8987,5.65256,79.4172,43.772,4.5822,-13.8174,-6.06306,7.12502,12.3051,23.5549,12.4766,3.03141,36.1088,8.2523,-15.5318,-6.45555,17.7859,-31.2493,1.98905,-3.01354,22.0072,-13.7214,-5.48047,-1.42965
-14.8222,17.3375,13.1722,170.24,-51.9738,-164.437,7.8236,2.79813,8.55457,2.98914,4.14319,3.22586,-0.884567,1.98998,-1.76736,0.0630485,-6.84283,-9.3788,23.5139,-10.8885,3.4573,7.95839,-6.12244,1.86631,-2.16178e-14,9.93923e-15,-26.2013,-1.61889,-80.5911,48.5326,-16.6261,-10.0516,-27.1655,7.12502,15.9339,-56.5301,-2.16178e-14,9.93923e-15,-36.7039,5.26042,79.5208,44.1656,5.70736,-14.7801,-6.05552,7.12502,11.3769,23.6159,13.3705,3.42438,35.9837,7.52166,-15.0825,-6.90875,15.9737,-31.2564,1.2799,-3.14195,22.6599,-12.4378,-5.00512,-1.6676
-14.9465,17.3313,13.1509,170.039,-50.9169,-163.98,8.20723,3.07791,9.31007,2.89648,4.61051,3.25175,-1.08738,2.20909,-2.21012,0.233417,-6.99557,-8.85022,23.4124,-11.0858,3.15171,7.85867,-6.19935,1.67608,-7.35006e-14,1.07344e-14,-26.4927,-2.18195,-80.4376,48.2628,-16.7628,-11.9404,-25.6329,7.12502,14.1145,-55.1335,-7.35006e-14,1.07344e-14,-36.6955,4.49504,79.8448,44.6341,7.69101,-16.7064,-6.43517,7.12502,9.51864,23.3298,13.9887,4.68352,36.3895,6.91339,-14.2483,-7.42695,14.0244,-31.2138,0.590333,-2.39647,23.2772,-11.1665,-3.96886,0.165133
-15.0761,17.3123,13.0661,169.185,-50.8537,-163.408,8.42194,3.02226,9.32212,3.02936,4.53713,3.46508,-1.09005,2.16562,-1.99902,0.593969,-7.04567,-8.07464,23.1005,-11.0788,2.5169,7.60734,-6.18639,1.3734,3.08116e-14,-1.66979e-14,-26.5698,-2.2155,-80.2429,47.5773,-17.0446,-13.0587,-24.7001,7.12502,13.0366,-54.2727,3.08116e-14,-1.66979e-14,-36.6856,4.74918,79.5096,44.8993,6.27008,-15.8514,-6.39028,7.12502,10.3435,23.3353,15.1456,4.76009,37.0203,6.81267,-14.0125,-8.10745,12.6846,-30.7775,0.00448711,-2.03023,24.0159,-10.3102,-4.07146,-0.0148943
-15.2157,17.2988,12.9915,168.817,-50.678,-163.245,8.47366,2.97136,9.34177,3.17614,4.45343,3.545,-0.977098,2.12624,-1.91836,0.808161,-7.02345,-7.82121,22.9549,-11.0318,2.30585,7.49134,-6.16404,1.28305,-4.83047e-14,9.93923e-15,-26.5838,-2.49747,-80.1539,46.9001,-16.8849,-13.2924,-24.5094,7.12502,12.8113,-54.0962,-4.83047e-14,9.93923e-15,-36.6759,4.50378,79.4019,45.2326,6.58561,-16.3997,-6.55932,7.12502,9.81458,23.1919,15.7742,5.05622,37.2994,7.37706,-14.0772,-8.65154,12.6843,-30.3803,0.422218,-2.26457,24.5901,-9.31135,-4.89627,-2.06839
-15.3627,17.299,12.9541,169.412,-50.0303,-163.599,8.2828,3.0897,9.54779,3.18816,4.59968,3.48195,-0.820828,2.20742,-2.09297,0.482292,-6.9212,-8.8049,23.551,-11.0671,3.18493,7.85864,-6.20341,1.68958,1.46902e-13,1.66979e-14,-26.6528,-2.98136,-80.002,46.2308,-16.545,-13.2372,-24.1961,7.12502,12.8646,-53.7796,1.46902e-13,1.66979e-14,-36.7059,4.19739,79.3366,45.7949,6.79536,-15.4893,-6.44371,7.12502,10.6928,23.2642,15.4317,6.07755,37.0724,8.43,-13.9201,-9.14912,12.8505,-30.4108,1.39364,-2.88179,24.9396,-7.89667,-5.93641,-2.82324
-15.5115,17.298,12.8864,170.195,-49.5711,-164.676,8.20046,3.20444,8.85762,3.33147,4.68294,3.40616,-0.671503,2.25732,-1.7912,-0.0589038,-6.82736,-10.3421,24.5719,-11.2386,4.58747,8.48889,-6.32015,2.33505,1.89342e-14,-2.78299e-15,-26.6062,-3.2007,-79.783,45.2106,-16.2992,-13.5913,-23.6204,7.12502,12.5232,-53.2251,1.89342e-14,-2.78299e-15,-36.7032,4.10555,79.332,46.2702,7.32947,-16.0275,-5.85256,7.12502,10.1737,23.8815,15.2655,6.88346,36.4213,10.0247,-14.2438,-9.39251,13.7554,-29.8911,1.58148,-3.79674,25.1795,-6.87185,-6.41269,-3.87294
-15.6637,17.3133,12.8232,171.048,-49.0218,-165.592,7.99331,3.35782,8.4368,3.37242,4.84056,3.20238,-0.520519,2.34765,-1.76755,0.394258,-6.79531,-9.56501,23.8342,-11.0023,3.73447,8.04213,-6.20194,1.98452,1.80397e-14,-7.15625e-15,-26.5759,-3.51372,-79.6687,44.1486,-16.0822,-13.7853,-23.6634,7.12502,12.3361,-53.2794,1.80397e-14,-7.15625e-15,-36.5441,4.19323,79.0627,46.4135,7.21551,-16.8054,-5.21753,7.12502,9.42315,24.5518,14.5636,7.7338,35.764,12.071,-14.8687,-8.92876,15.7906,-29.417,0.664545,-4.16541,25.3269,-6.0453,-5.47404,-3.64282
-15.811,17.3167,12.7444,170.831,-48.624,-165.406,7.95506,3.46708,8.55175,3.4151,4.98233,3.19003,-0.429665,2.42217,-1.84677,0.705899,-6.82737,-8.72658,23.3776,-10.9305,3.07351,7.74077,-6.14588,1.66615,-4.00551e-14,1.23246e-14,-26.8395,-4.30031,-79.5406,43.4019,-15.9096,-13.4362,-24.6476,7.12502,12.6727,-54.2432,-4.00551e-14,1.23246e-14,-36.5955,3.05056,79.3021,46.94,9.95936,-18.8795,-5.11796,7.12502,7.42142,24.7319,14.1289,7.98523,36.0154,14.2715,-14.9736,-9.26711,12.047,-28.7936,0.654139,-3.99675,25.4027,-4.92273,-5.33935,-2.49734
-15.9617,17.3161,12.6857,170.897,-48.0389,-165.469,8.06249,3.58071,8.77568,3.37932,5.16294,3.12021,-0.481317,2.51164,-2.06021,0.99454,-6.85747,-8.93267,23.2961,-11.0578,3.36268,7.69974,-6.2093,1.79634,-5.66536e-15,-2.36554e-14,-27.2039,-5.24941,-79.3864,42.5636,-15.5323,-13.7656,-24.8373,7.12502,12.3551,-54.4523,-5.66536e-15,-2.36554e-14,-36.7439,3.167,78.7391,47.0975,8.52147,-16.9825,-5.19102,7.12502,9.25218,24.586,13.5062,7.87251,35.8877,16.6523,-14.4987,-9.74078,4.34976,-28.2407,1.00931,-4.10484,25.4858,-3.86866,-5.14926,-2.3686
-16.1127,17.3359,12.6299,171.722,-47.5622,-166.177,7.89957,3.61338,8.5113,3.29528,5.18816,2.99643,-0.491553,2.52714,-2.03811,1.27275,-6.79333,-9.30759,23.2071,-11.04,3.6194,7.657,-6.22157,1.95396,-8.50798e-14,-4.53229e-14,-27.3632,-5.95891,-79.1735,41.4536,-14.9802,-15.4333,-22.3605,7.12502,10.7468,-52.0656,-8.50798e-14,-4.53229e-14,-36.9128,3.63415,78.4197,47.087,8.13671,-16.856,-5.3402,7.12502,9.37428,24.4313,12.287,8.48748,35.2181,19.1424,-14.5084,-9.15424,4.73509,-27.9714,1.00179,-4.60189,25.6535,-3.2029,-4.55067,-2.34604
-16.2561,17.358,12.5604,172.187,-47.2085,-166.48,7.68544,3.62486,8.20633,3.2057,5.17526,3.00148,-0.498479,2.52018,-1.85543,1.06041,-6.72613,-8.80983,23.6269,-10.9001,3.07105,7.76506,-6.16981,1.69079,1.01728e-13,7.35503e-15,-27.5612,-6.42845,-78.9446,40.3627,-14.8273,-15.9675,-20.8441,7.12502,10.2315,-50.5753,1.01728e-13,7.35503e-15,-37.1077,4.32105,78.0184,47.0424,7.14679,-15.6631,-5.491,7.12502,10.5252,24.2255,11.0098,9.20743,34.9049,21.7182,-14.4757,-8.42706,7.89415,-27.6781,1.25527,-4.84508,25.7921,-2.79681,-4.16356,-2.52051
-16.3919,17.3711,12.4823,172.759,-46.8698,-167.253,7.70165,3.64589,7.43324,3.19632,5.16374,2.93736,-0.587013,2.51121,-1.50267,0.550752,-6.61329,-8.77304,24.4256,-10.8049,3.06339,8.11517,-6.13976,1.65088,4.96962e-14,-1.33186e-14,-27.5729,-6.31615,-78.8656,38.9617,-15.3354,-12.8864,-24.6546,7.12502,13.2027,-54.2165,4.96962e-14,-1.33186e-14,-36.9269,5.81342,77.2286,46.0869,5.16621,-14.2426,-6.35913,7.12502,11.8952,23.283,10.1277,9.26728,34.3164,24.3568,-13.1933,-9.36361,1.73085,-27.0951,1.66554,-5.44481,25.9169,-2.37946,-4.14545,-1.82534
-16.5254,17.4011,12.4076,173.606,-46.6377,-168.513,7.87171,3.58305,6.34952,3.20511,5.03341,2.79368,-0.77032,2.44127,-1.06344,0.256024,-6.39965,-9.30963,25.0145,-10.6515,3.5785,8.4173,-6.09006,1.89488,-4.22417e-14,-3.8763e-14,-27.3024,-5.62173,-78.9077,37.1886,-15.9206,-14.9799,-23.3733,7.12502,11.1841,-53.0552,-4.22417e-14,-3.8763e-14,-36.7163,3.76801,79.2925,47.8876,16.7742,-26.5373,5.1372,7.12502,0.0267558,35.1169,9.18295,9.19658,33.3141,27.0266,-11.3361,-10.3545,-3.60444,-26.4308,2.1257,-6.44644,26.0593,-2.18086,-4.45377,1.47155
-16.6656,17.4385,12.3675,174.066,-46.1656,-169.304,8.36332,3.54651,6.06468,3.1553,5.01099,2.61535,-1.10512,2.42195,-1.12586,0.230176,-6.28828,-9.40711,25.3096,-10.6014,3.80142,8.53661,-6.07348,1.98255,-9.16397e-14,-3.45885e-14,-27.2494,-5.72442,-78.7942,35.684,-15.6896,-16.0059,-22.9102,7.12502,10.1944,-52.6432,-9.16397e-14,-3.45885e-14,-36.2302,7.81954,76.4372,43.9928,5.30536,-15.8578,-5.52098,7.12502,10.3373,24.2049,7.91838,9.20337,32.3483,29.869,-9.97089,-9.67118,-3.42434,-25.7219,2.54168,-7.1845,26.2148,-2.64999,-4.38972,3.34457
-16.7999,17.4582,12.295,174.002,-46.3263,-169.947,8.83942,3.3003,5.55579,3.3061,4.6662,2.45091,-1.26163,2.24555,-1.01363,0.280356,-6.27089,-9.21957,25.3745,-10.6895,4.06593,8.55776,-6.08659,2.03376,-1.35671e-14,1.98785e-14,-27.4341,-8.28743,-78.4167,34.5458,-13.3372,-16.1335,-22.5983,7.12502,10.0714,-52.3373,-1.35671e-14,1.98785e-14,-36.2381,8.07625,75.9716,43.6785,5.3853,-16.3115,-5.1106,7.12502,9.89966,24.6366,7.07141,8.80841,31.7404,32.946,-8.95606,-8.94013,-3.97916,-24.6922,3.18916,-8.02893,26.3332,-2.81663,-5.41805,2.38336
-16.9329,17.4718,12.223,174.066,-46.4245,-170.463,9.08131,3.06217,5.13263,3.3901,4.3259,2.28289,-1.3471,2.07474,-0.935659,0.267536,-6.16717,-9.13848,25.5091,-10.6938,4.50065,8.62305,-6.05739,2.16315,-4.58199e-14,-2.48481e-14,-27.3614,-8.97278,-78.4545,33.0068,-12.4684,-15.701,-23.3457,7.12502,10.4886,-53.064,-4.58199e-14,-2.48481e-14,-36.3573,8.7986,75.1358,43.1539,3.66744,-15.3156,-5.36592,7.12502,10.8604,24.3333,5.89357,8.22494,31.0788,36.1416,-7.61458,-8.16703,-5.1401,-23.9263,3.86238,-8.69909,26.4169,-2.644,-6.47006,2.83408
-17.0629,17.4794,12.161,174.393,-46.4346,-170.881,9.1486,2.98883,4.88499,3.36318,4.2171,2.198,-1.4306,2.01998,-0.881567,0.0565212,-6.12442,-9.37542,25.8409,-10.7633,4.94214,8.81923,-6.0818,2.32956,-4.48259e-14,-1.2921e-14,-27.5094,-10.1253,-78.0155,31.6463,-11.2913,-15.7175,-23.393,7.12502,10.4727,-53.1122,-4.48259e-14,-1.2921e-14,-36.3759,7.78031,75.6169,43.2493,6.01417,-17.494,-3.52913,7.12502,8.75869,26.2691,4.25862,7.90609,30.4389,39.353,-5.9583,-7.72227,-4.87003,-23.5839,4.28452,-9.29241,26.49,-2.90217,-6.8807,2.37046
-17.1769,17.4979,12.0752,174.324,-45.9898,-171.074,9.46137,3.1291,4.63671,3.44206,4.39095,2.10982,-1.52476,2.10251,-0.867229,-0.318687,-6.18041,-9.5186,26.2348,-10.9694,5.39742,9.07636,-6.15258,2.46614,-1.40143e-13,-2.08724e-14,-27.8453,-11.9218,-77.5783,30.7703,-10.3697,-16.6427,-22.3396,7.12502,9.58013,-52.1018,-1.40143e-13,-2.08724e-14,-36.057,7.57831,75.1758,42.5385,4.9873,-16.2111,-4.45303,7.12502,9.99647,25.2896,2.91992,8.25285,30.3494,42.4588,-3.95411,-7.85647,-6.95116,-22.6691,4.99256,-9.46503,26.3522,-2.87293,-7.47481,4.37584
-17.3169,17.5397,12.0424,174.587,-45.4839,-170.855,9.34561,2.78763,5.50685,3.24064,4.0236,1.81888,-1.60229,1.92599,-1.61277,-0.360887,-5.7926,-9.70842,26.3887,-10.5254,5.71434,9.12491,-5.9517,2.64588,-7.50661e-14,-2.78299e-15,-27.9492,-12.5339,-77.7906,29.8052,-9.87757,-16.6013,-22.4965,7.12502,9.62006,-52.2569,-7.50661e-14,-2.78299e-15,-36.2613,8.03965,74.298,42.1575,5.24389,-15.1609,-4.93227,7.12502,11.0095,24.759,0.666948,8.2923,30.0466,45.5258,-1.54212,-7.45225,-8.64489,-22.2844,4.9817,-9.34727,25.8612,-2.28413,-7.36478,9.86447
-17.4471,17.5798,11.9691,175.131,-45.1729,-172.034,8.53111,2.77962,3.5725,4.00494,3.74119,2.40485,-0.552362,1.78064,0.153613,-0.415615,-5.71612,-10.1307,25.7828,-10.1439,5.24738,8.8902,-5.82267,2.59638,5.12864e-14,-9.93923e-16,-27.0755,-12.2023,-76.9416,28.9622,-10.0985,-16.7043,-23.2611,7.12502,9.52066,-53.0261,5.12864e-14,-9.93923e-16,-35.7495,9.14753,75.0892,41.8613,5.83166,-14.8182,-4.66865,7.12502,11.3401,25.0048,-0.535634,8.61713,29.121,48.4599,0.471053,-7.67543,-4.94751,-20.9506,5.4507,-10.3538,25.1839,-2.29317,-7.64097,9.37829
-17.5834,17.626,11.9054,176.722,-44.7667,-173.867,8.50439,2.68827,2.61286,3.80881,3.57984,1.87675,-0.774151,1.70513,0.151819,-0.580322,-5.6966,-9.7656,26.0192,-10.1219,5.00205,8.96753,-5.81002,2.44554,-6.5102e-14,-4.96962e-15,-27.4762,-12.9565,-76.8035,28.3841,-9.86416,-17.1017,-23.4276,7.12502,9.13723,-53.2096,-6.5102e-14,-4.96962e-15,-36.0618,9.17374,74.6569,41.5673,5.42223,-14.5388,-4.42618,7.12502,11.6096,25.2322,-2.58401,8.61707,27.243,51.3695,2.67365,-7.39914,0.663317,-20.1421,5.28239,-11.9769,24.281,-2.72637,-6.77962,5.07796
-17.7081,17.6339,11.8361,176.849,-44.6454,-174.773,10.1315,2.23973,3.66137,3.25708,3.15872,0.480495,-2.10612,1.49677,-1.92077,-0.758427,-5.38592,-9.93577,26.9498,-10.1972,6.35901,9.4098,-5.79342,2.91739,8.69186e-14,-9.93923e-16,-28.6289,-14.7002,-77.7939,27.497,-8.80221,-17.111,-23.3183,7.12502,9.12827,-53.1007,8.69186e-14,-9.93923e-16,-36.6207,7.96829,72.7672,41.0741,5.1051,-13.7826,-5.01739,7.12502,12.3387,24.5985,-3.66693,7.57727,26.0667,54.1647,4.8861,-6.77423,4.20832,-18.4547,5.02028,-12.7645,23.1983,-2.90588,-6.22412,3.92497
-17.8256,17.6647,11.7597,177.174,-44.507,-175.508,10.4222,1.9061,3.59579,3.19794,2.71065,-0.0913057,-2.32801,1.27255,-2.43985,0.125685,-5.2492,-7.96403,25.8552,-9.78918,5.15036,8.65538,-5.53021,2.26007,2.93207e-15,8.15017e-15,-28.8717,-15.3937,-78.1894,26.4097,-7.89336,-17.5856,-22.8517,7.12502,8.67022,-52.6537,2.93207e-15,8.15017e-15,-36.6363,7.2801,71.8932,40.5478,5.15494,-13.3123,-5.37356,7.12502,12.7921,24.2145,-4.85941,7.46049,25.4666,56.7159,6.72675,-7.18932,6.38575,-17.1211,5.45065,-13.4816,22.0996,-2.86129,-6.40776,4.06255
-17.9494,17.6855,11.7115,177.828,-44.1806,-176.495,10.4227,1.81553,3.1367,3.37759,2.52169,-0.361918,-2.16292,1.1803,-2.43678,-1.01345,-5.02249,-9.97612,27.0978,-9.88849,7.07677,9.51329,-5.60232,3.19636,-7.45443e-15,1.25234e-14,-28.6604,-15.6691,-78.1656,25.6995,-7.54993,-18.1796,-22.8198,7.12502,8.09702,-52.6447,-7.45443e-15,1.25234e-14,-36.1321,6.94729,71.7628,39.9721,4.64501,-13.5696,-4.94772,7.12502,12.5441,24.6557,-6.3994,7.27953,24.3939,59.0669,8.21225,-7.46629,7.3362,-16.0993,5.48094,-14.447,21.236,-2.79185,-6.17414,4.40496
-18.0684,17.7047,11.6598,178.22,-43.9312,-177.256,10.3406,1.9241,2.46774,3.72472,2.57213,-0.241996,-1.79163,1.20321,-1.93158,-0.9378,-5.46545,-8.5714,26.3219,-10.1115,5.59584,9.09475,-5.66725,2.43534,1.89342e-14,1.46107e-14,-28.4906,-15.875,-77.5956,25.543,-7.67583,-18.4522,-23.4319,7.12502,7.83393,-53.2667,1.89342e-14,1.46107e-14,-35.2995,6.68861,72.3125,39.3981,4.1544,-13.2836,-4.86883,7.12502,12.8198,24.7175,-7.78574,7.03658,23.5539,61.2923,9.0311,-7.94509,7.06075,-15.0416,5.3696,-15.1739,20.4884,-2.70377,-5.8795,5.45976
-18.1698,17.7291,11.5594,178.306,-44.1458,-177.771,10.009,1.91911,1.08159,4.13025,2.41155,0.272704,-1.28235,1.1083,-0.585222,-1.08435,-5.62338,-8.60792,26.1384,-10.1302,5.02453,9.03357,-5.71098,2.24074,-1.89839e-14,-1.45858e-14,-28.3861,-15.8419,-76.8009,25.3759,-7.83365,-18.0684,-24.4825,7.12502,8.20428,-54.3032,-1.89839e-14,-1.45858e-14,-34.8098,6.40822,73.0334,39.0065,4.02099,-12.5132,-5.0635,7.12502,13.5624,24.4748,-8.66205,6.49107,23.2538,63.2669,8.85746,-8.75523,7.78946,-13.8062,5.85795,-15.5705,19.6646,-2.51252,-6.49829,6.63266
-18.2901,17.7398,11.5338,178.734,-43.2527,-177.811,9.46298,2.08646,0.723012,4.26046,2.59902,0.744701,-0.884452,1.19496,0.103923,-1.23077,-5.73414,-9.07817,26.0452,-10.0943,4.56667,9.03099,-5.76433,2.15992,-9.05464e-14,1.83876e-14,-28.0845,-15.3368,-75.9762,25.0303,-8.24057,-17.4789,-25.2891,7.12502,8.77325,-55.0868,-9.05464e-14,1.83876e-14,-34.4035,6.49787,73.8732,38.547,3.49325,-12.3374,-4.63422,7.12502,13.7319,24.8927,-10.8918,6.5013,22.6792,65.2724,8.25711,-9.01043,10.7005,-13.307,6.03755,-15.7866,18.8311,-2.39209,-5.66196,8.50828
-18.3907,17.763,11.4392,178.522,-43.2776,-178.013,9.14621,2.05327,-0.552813,4.71097,2.42143,1.39777,-0.327435,1.06766,1.52773,-1.45198,-5.76219,-9.67003,25.9237,-9.99282,4.42889,9.04964,-5.76742,2.21167,-1.49089e-14,1.64991e-14,-27.7825,-15.3376,-75.0389,24.5812,-7.786,-17.4094,-24.5077,7.12502,8.84026,-54.3025,-1.49089e-14,1.64991e-14,-33.8781,7.11912,74.6036,37.9701,2.42833,-12.1513,-4.27315,7.12502,13.9112,25.2415,-11.6314,6.08166,22.6581,66.8743,6.44334,-9.95853,14.9474,-11.92,6.36954,-15.8961,18.0464,-2.44862,-6.0284,9.26492
-18.4955,17.7882,11.3813,178.664,-43.3194,-178.367,9.08245,1.92034,-1.31825,4.91204,2.17018,1.72601,-0.116653,0.91539,2.32543,-1.49238,-5.58211,-9.96904,25.5145,-9.64794,4.49506,8.90491,-5.61017,2.32101,-8.91549e-14,8.74653e-15,-27.5846,-16.1506,-74.1455,23.8965,-6.44729,-16.8287,-23.7366,7.12502,9.40067,-53.5069,-8.91549e-14,8.74653e-15,-33.4709,7.73459,74.9078,37.4722,1.50272,-11.2645,-4.53995,7.12502,14.7657,24.9141,-12.806,5.57545,22.285,68.4183,5.09617,-10.0198,15.6597,-11.1038,5.89416,-16.2926,17.565,-2.71836,-5.53535,8.40348
-18.6016,17.8118,11.3158,178.677,-43.0339,-178.309,9.01375,1.8173,-1.49695,4.89876,2.02125,1.85112,-0.0954522,0.836097,2.57082,-1.27736,-5.82012,-10.3536,25.7513,-10.0727,4.55758,9.01096,-5.86102,2.3657,-2.57426e-14,-7.95139e-16,-27.4787,-16.7167,-73.6471,22.9252,-5.63652,-16.0837,-23.7698,7.12502,10.1195,-53.5064,-2.57426e-14,-7.95139e-16,-33.3106,7.81135,74.7938,37.0741,1.20218,-10.2594,-4.94439,7.12502,15.7338,24.436,-14.11,5.30878,22.3343,69.6066,4.3768,-9.84201,13.1385,-10.3635,6.05041,-16.2749,16.9734,-2.68234,-5.49085,8.98606
-18.7127,17.8354,11.2583,178.864,-42.4902,-178.002,8.90869,1.7321,-0.918877,4.55809,1.98191,1.6143,-0.361525,0.845977,2.00181,-1.00467,-5.76443,-9.97436,25.9481,-10.1543,4.63632,9.01703,-5.88727,2.33047,-7.01213e-14,1.55052e-14,-28.8803,-19.1663,-72.9161,23.6803,-2.84813,-14.9655,-24.0261,7.12502,11.198,-53.7073,-7.01213e-14,1.55052e-14,-33.4167,7.14848,74.3448,36.8239,1.41244,-10.0732,-5.0557,7.12502,15.9132,24.3105,-16.0121,5.01919,22.4373,70.7305,3.87828,-9.4506,11.7064,-10.2521,6.21829,-16.0845,16.9499,-3.03867,-5.26587,9.71759
-18.8041,17.8682,11.131,178.307,-43.0758,-177.998,9.67119,1.31156,-1.01314,4.37518,1.41431,1.30791,-0.93969,0.571373,1.77641,-1.15786,-5.39514,-9.52261,26.6088,-9.89413,5.01902,9.24542,-5.72891,2.39931,8.49804e-15,-5.26779e-15,-29.9085,-19.4085,-73.1987,23.4534,-2.21417,-14.7199,-23.2532,7.12502,11.4349,-52.9214,8.49804e-15,-5.26779e-15,-33.9222,5.83741,73.8473,37.0563,2.6547,-10.8977,-4.26716,7.12502,15.119,25.1606,-16.0731,4.1044,22.8156,71.3629,2.62048,-9.6587,12.8991,-8.91625,6.27778,-15.7992,16.7523,-3.29404,-6.15429,12.4705
-18.9205,17.8809,11.1062,179.069,-42.0245,-178.099,8.89439,1.48716,-1.17856,4.37903,1.65073,1.5954,-0.531685,0.68516,2.15711,-0.928962,-5.34489,-8.80393,25.8936,-9.50719,3.90014,8.8286,-5.55796,1.95634,4.18442e-14,-1.07344e-14,-29.6349,-14.8546,-74.1352,23.5444,-6.95386,-16.3234,-22.7511,7.12502,9.88815,-52.4989,4.18442e-14,-1.07344e-14,-33.6226,6.53195,74.0989,36.8222,0.780443,-9.16937,-4.98635,7.12502,16.7834,24.3083,-18.3726,4.42005,22.3324,72.2387,2.4002,-8.95843,12.7976,-9.08277,5.95514,-16.1284,16.6661,-3.93432,-4.88333,13.5162
-19.0044,17.8877,11.0257,178.957,-42.2954,-178.439,8.51701,1.33446,-2.09269,5.01109,1.33744,1.94479,0.317849,0.473344,3.07531,-1.1174,-5.45837,-8.93468,25.3031,-9.48437,3.76125,8.65733,-5.5327,1.93531,2.3059e-14,-2.78299e-15,-28.9697,-15.2885,-73.7117,23.2783,-7.23613,-17.1849,-22.1853,7.12502,9.05695,-51.9708,2.3059e-14,-2.78299e-15,-32.7909,6.80754,74.6208,36.8498,1.25368,-9.32718,-4.40036,7.12502,16.6315,24.9071,-19.107,3.78814,22.2438,72.8563,1.67066,-8.89856,12.2663,-8.29164,6.57189,-16.4639,16.5241,-4.30473,-5.58289,9.93538
-19.0777,17.8757,10.9731,179.298,-41.7624,-178.429,9.11354,1.25132,-1.95121,4.47494,1.26296,1.70655,-0.552518,0.47372,2.74201,-1.08699,-5.35122,-9.26223,25.6775,-9.55104,4.38786,8.83222,-5.56671,2.18864,5.24295e-14,-1.33186e-14,-29.7852,-15.1462,-73.9041,23.2801,-7.75313,-17.0938,-22.3715,7.12502,9.14487,-52.1532,5.24295e-14,-1.33186e-14,-33.315,6.27307,74.0718,37.0312,1.61847,-9.30092,-4.08797,7.12502,16.6568,25.2173,-20.9165,3.81519,22.3625,73.4949,1.17017,-8.73476,12.2922,-8.17296,7.71399,-16.581,16.1186,-4.42927,-5.85463,6.61791
-19.1525,17.879,10.9152,179.416,-41.1617,-178.047,9.31584,1.27648,-1.70538,4.12127,1.33696,1.64529,-1.02773,0.533209,2.52666,-1.57895,-5.11225,-9.17411,26.4535,-9.35273,4.59156,9.18233,-5.47072,2.23467,-1.2275e-14,2.72335e-14,-30.4859,-15.4558,-73.7798,23.4807,-7.54393,-16.1948,-23.5201,7.12502,10.0122,-53.262,-1.2275e-14,2.72335e-14,-33.4445,5.72084,73.7777,37.0155,1.34875,-9.73052,-3.87076,7.12502,16.2431,25.4688,-22.6681,3.99629,22.8155,73.8488,0.938116,-8.54241,11.2805,-7.88292,8.47816,-16.2763,15.4981,-4.35136,-5.96591,6.5069
-19.248,17.9082,10.8402,179.341,-41.1737,-178.356,9.53539,1.15933,-2.09399,4.24902,1.13181,1.6371,-1.01096,0.419633,2.75702,-1.36991,-5.19834,-9.27474,26.2857,-9.52747,4.7676,9.11208,-5.55031,2.30321,4.88016e-14,4.17448e-15,-30.8435,-15.8358,-73.5196,23.643,-7.40909,-15.6995,-24.0951,7.12502,10.4901,-53.8133,4.88016e-14,4.17448e-15,-33.202,5.71219,73.6754,36.9017,1.05625,-10.2915,-3.65673,7.12502,15.703,25.7261,-23.5296,3.64997,22.629,74.0033,0.441328,-8.01343,9.3616,-7.12161,8.2491,-16.4919,15.6099,-5.01343,-5.85226,5.64199
-19.3641,17.8683,10.7966,180.535,-40.4215,-179.827,9.09889,1.2334,-2.98693,4.34639,1.16368,1.3096,-0.682141,0.423185,2.9236,-1.15543,-5.3036,-9.41536,25.8802,-9.66713,4.90681,8.95583,-5.60875,2.37244,-4.40805e-14,1.5704e-14,-31.1789,-15.8103,-73.4221,24.1225,-7.75777,-17.7682,-22.8646,7.12502,8.49401,-52.6737,-4.40805e-14,1.5704e-14,-33.0738,5.50122,73.7395,37.1502,1.62143,-10.7247,-3.54983,7.12502,15.2856,25.8653,-24.7682,3.51219,21.1403,73.919,0.241684,-6.56183,6.1786,-6.96528,8.3054,-18.0353,15.7947,-5.8976,-4.95058,2.60322
-19.4659,17.8912,10.7146,181.14,-40.3649,-180.905,8.85516,1.07251,-4.02569,4.56267,0.865033,1.21115,-0.312285,0.244298,3.44008,-1.80807,-5.24579,-10.291,26.2928,-9.65071,5.57071,9.29959,-5.6159,2.71758,1.75924e-14,-4.37326e-15,-31.3405,-15.769,-73.2844,24.5678,-7.45193,-19.1259,-21.6618,7.12502,7.18364,-51.5198,1.75924e-14,-4.37326e-15,-33.0655,5.29553,73.843,37.5813,2.20117,-11.3309,-3.4928,7.12502,14.7017,25.9659,-25.3444,2.74976,20.2213,73.5222,-0.314992,-5.44397,4.89761,-6.16653,7.30903,-18.7484,15.8967,-6.2617,-4.65284,10.2961
-19.5495,17.8579,10.6444,181.382,-40.0271,-181.202,9.28275,0.964143,-4.13203,4.21282,0.704953,0.91362,-0.893543,0.192958,3.20222,-1.10828,-5.46653,-8.50383,25.4635,-9.7203,4.04545,8.71581,-5.61699,1.93316,-7.84206e-14,9.34288e-15,-32.2845,-15.9286,-73.3866,24.8188,-7.17342,-16.8732,-22.7535,7.12502,9.3577,-52.5258,-7.84206e-14,9.34288e-15,-33.5492,4.7997,73.3508,37.8591,2.57004,-12.0225,-3.5582,7.12502,14.0353,25.9479,-26.3049,2.42766,20.0531,73.1798,-1.0239,-4.61005,3.7202,-6.13946,7.90752,-19.0742,16.4558,-6.87778,-4.83046,8.98745
-19.6335,17.8288,10.5736,181.675,-39.6797,-181.495,9.4202,0.938534,-4.25538,4.01486,0.657821,0.664104,-1.16882,0.184448,3.01604,-1.16331,-5.14739,-9.21119,26.2429,-9.69291,5.322,9.09268,-5.60196,2.47194,-6.38844e-14,8.74653e-15,-33.0364,-15.9008,-73.5316,25.0772,-7.49937,-15.1324,-23.9009,7.12502,11.0371,-53.5907,-6.38844e-14,8.74653e-15,-33.5713,4.51468,72.9817,37.8528,2.66593,-12.1802,-4.19352,7.12502,13.8833,25.3231,-27.2025,2.31717,19.9375,72.625,-1.74653,-3.83204,3.77442,-6.25126,8.98557,-19.4039,17.1177,-7.47522,-5.30921,4.90623
-19.7186,17.8106,10.4968,181.682,-39.428,-181.654,9.56353,0.800719,-4.4118,4.06461,0.445227,0.553969,-1.17815,0.0736277,3.01173,-1.53818,-5.08731,-9.74386,26.621,-9.82289,6.19078,9.37692,-5.64314,2.82909,-2.00276e-14,2.48481e-15,-33.0288,-15.1072,-74.0046,25.0638,-8.48965,-15.7627,-23.7749,7.12502,10.4291,-53.4962,-2.00276e-14,2.48481e-15,-33.4285,4.52865,72.6272,37.9117,2.93349,-12.1716,-4.83381,7.12502,13.8917,24.6822,-27.8547,2.12595,19.9934,71.9474,-2.57336,-3.12954,0.876408,-5.81226,9.06398,-19.3996,17.4989,-7.70078,-5.62739,6.78772
-19.8019,17.7889,10.4268,181.614,-39.1744,-181.661,9.525,0.822845,-4.8099,4.19355,0.438184,0.741638,-1.02481,0.0544094,3.43263,-1.35133,-5.16804,-9.96927,26.2616,-9.93777,6.41393,9.24858,-5.69172,2.94099,1.04113e-13,-2.00773e-14,-33.1003,-14.5834,-74.0087,25.4307,-10.0833,-16.7803,-23.7455,7.12502,9.44736,-53.5138,1.04113e-13,-2.00773e-14,-33.0967,4.30627,72.8904,38.0254,3.51235,-12.6931,-4.77794,7.12502,13.389,24.7718,-28.5723,1.8853,20.1164,71.1567,-3.45774,-2.17786,-3.85822,-5.5801,9.13941,-19.4058,18.0939,-8.29888,-5.54068,5.80242
-19.8785,17.7659,10.3548,181.562,-39.0618,-181.706,10.315,0.689679,-4.44149,3.74571,0.251998,0.243691,-1.90464,0.00432004,2.72686,-0.90271,-5.09451,-9.4433,26.5352,-10.1664,6.82547,9.27289,-5.76452,2.98603,6.28719e-14,4.62174e-15,-34.5494,-15.6945,-74.0714,26.1024,-9.6295,-16.9349,-23.5121,7.12502,9.29815,-53.2871,6.28719e-14,4.62174e-15,-33.5938,3.08362,72.2089,38.3705,4.19347,-13.3876,-4.44504,7.12502,12.7196,25.1476,-29.2022,1.50238,20.2237,70.2229,-4.21443,-0.862873,-3.64103,-5.50613,9.58967,-19.4651,18.8622,-9.14249,-5.51969,0.953409
-19.9655,17.7436,10.3089,181.849,-38.3263,-181.472,9.30389,0.854678,-4.76279,4.16972,0.499709,0.764741,-0.933935,0.0853118,3.42416,-1.37257,-5.23003,-9.88631,26.2504,-10.1529,6.77715,9.2815,-5.75832,3.02957,-3.94836e-14,2.03754e-14,-33.9307,-16.1714,-73.1734,26.3166,-9.13105,-16.3512,-23.9368,7.12502,9.86134,-53.6859,-3.94836e-14,2.03754e-14,-32.6517,3.50442,73.0582,38.4003,4.27618,-14.0165,-4.4805,7.12502,12.1132,25.1489,-30.6302,1.50872,20.4313,69.1405,-4.58773,0.753745,-0.00850679,-5.98442,10.0242,-19.5029,19.5795,-9.91508,-4.7782,-4.17653
-20.0505,17.7373,10.2527,181.921,-37.6936,-181.264,9.5516,0.81117,-4.43262,3.9178,0.465838,0.697709,-1.32669,0.0921635,3.17071,-1.23273,-5.14287,-9.40963,26.1859,-9.97144,6.29933,9.16495,-5.6812,2.80867,-1.58779e-14,3.67752e-15,-34.2812,-15.7623,-73.3209,26.367,-9.4168,-15.3487,-24.7854,7.12502,10.8284,-54.4862,-1.58779e-14,3.67752e-15,-32.8514,3.35197,72.8722,38.6392,4.68048,-14.3198,-4.99156,7.12502,11.8207,24.6548,-31.679,1.54052,20.6375,67.7815,-5.04629,2.36792,2.43639,-6.22561,10.2822,-19.4101,20.3994,-10.5438,-4.54469,-2.77587
-20.1262,17.7419,10.1652,181.816,-38.0089,-181.624,9.9205,0.61422,-4.93542,4.02005,0.127106,0.685964,-1.39239,-0.0875251,3.47941,-0.725426,-5.20048,-8.43795,25.6204,-9.90821,5.50461,8.77631,-5.63396,2.40668,-4.45029e-14,6.70898e-15,-34.5019,-15.5841,-73.4084,26.2531,-9.10479,-16.0083,-23.1864,7.12502,10.1921,-52.9195,-4.45029e-14,6.70898e-15,-32.7343,3.2665,72.7339,38.7742,4.91549,-14.6397,-5.39982,7.12502,11.5123,24.264,-31.696,0.848836,20.5004,66.0927,-5.91535,3.79179,1.99706,-5.78553,9.66088,-19.48,21.2463,-11.4291,-5.3599,8.2801
-20.2063,17.7339,10.1032,182.622,-37.288,-181.822,9.28492,0.696756,-5.12855,3.91618,0.267537,0.608464,-1.16435,-0.0151511,3.4916,-2.16076,-5.09422,-11.5719,26.9498,-10.1773,8.05406,9.84208,-5.81906,3.72666,3.97694e-14,-1.71452e-14,-34.654,-16.0397,-73.2019,26.7227,-10.3232,-16.5586,-22.7326,7.12502,9.66123,-52.491,3.97694e-14,-1.71452e-14,-32.3285,3.03287,72.7307,38.827,5.43675,-15.2522,-5.04386,7.12502,10.9215,24.6521,-33.0284,0.805591,20.4482,64.2805,-6.21253,5.1593,0.0626089,-6.33022,8.78455,-19.8134,22.0636,-12.2451,-4.74696,12.7867
-20.2761,17.7277,10.0182,182.195,-37.4363,-181.552,9.61205,0.499405,-5.16825,4.07949,-0.0281892,0.733036,-1.14493,-0.175631,3.67512,-1.08715,-5.20409,-8.50799,25.5615,-9.89338,5.66671,8.83182,-5.60325,2.46158,-2.59787e-14,1.28216e-14,-34.6632,-15.7239,-73.4816,26.7713,-10.5322,-16.5868,-22.776,7.12502,9.634,-52.5357,-2.59787e-14,1.28216e-14,-31.9713,2.96106,72.719,38.8968,5.91556,-15.7397,-5.06966,7.12502,10.4513,24.6506,-32.8686,0.330391,20.9718,62.2681,-6.62119,6.17641,0.812632,-5.66573,8.61004,-19.3695,22.3931,-12.8535,-5.13834,14.345
-20.3506,17.7146,9.94988,182.15,-36.9884,-181.316,9.67815,0.413976,-5.11177,4.05247,-0.139823,0.787664,-1.19812,-0.229207,3.71242,-0.599006,-5.15677,-7.24714,24.7862,-9.57279,4.53238,8.33049,-5.43012,1.93098,-1.33931e-14,2.08724e-15,-34.8283,-15.6203,-73.5785,26.887,-9.69485,-15.7257,-23.6206,7.12502,10.4647,-53.3401,-1.33931e-14,2.08724e-15,-31.8222,3.25126,72.5524,38.9497,5.60995,-16.0594,-5.48811,7.12502,10.1429,24.2474,-33.2962,0.469162,21.2701,60.3304,-6.84612,7.77175,4.20613,-5.33505,8.72386,-19.1917,22.4164,-13.3645,-4.87593,14.5992
-20.4231,17.7129,9.86847,182.489,-36.7509,-181.728,9.71413,0.321846,-5.66427,4.01452,-0.314045,0.781113,-1.23385,-0.318928,4.03694,-1.33244,-4.91291,-9.41676,25.8811,-9.6648,6.4942,9.05469,-5.52212,2.90477,8.35268e-14,-2.12203e-14,-34.9757,-15.5881,-73.4636,27.114,-9.63867,-15.555,-23.7373,7.12502,10.6294,-53.4485,8.35268e-14,-2.12203e-14,-31.7277,3.52209,72.5114,39.087,5.53816,-16.3481,-5.14235,7.12502,9.86435,24.6066,-33.7856,0.510195,20.9667,58.3657,-6.79001,9.22834,7.87023,-4.96894,9.55404,-19.5517,22.2765,-13.5837,-5.14667,13.1083
-20.4987,17.6898,9.80215,183.185,-36.2804,-182.312,9.61956,0.3623,-6.15805,3.88212,-0.295564,0.653163,-1.31754,-0.303231,4.18045,-1.6504,-4.94798,-9.98435,26.0716,-9.75608,6.88597,9.23859,-5.57686,3.11307,1.49461e-14,2.37548e-14,-35.0452,-15.6881,-73.3358,27.1991,-9.98387,-15.3813,-23.9839,7.12502,10.797,-53.6864,1.49461e-14,2.37548e-14,-31.5407,3.38806,72.5659,39.3119,6.10004,-16.3183,-5.01042,7.12502,9.89305,24.7371,-34.7302,0.349927,20.5914,56.4238,-6.66252,10.1813,9.35504,-4.89373,11.1675,-20.2962,21.8127,-13.6686,-4.94339,7.11586
-20.5804,17.691,9.73765,183.616,-35.8131,-182.59,9.51694,0.382614,-6.28744,3.80467,-0.273791,0.497842,-1.34422,-0.287442,4.08834,-2.41047,-4.91971,-11.9753,26.7571,-9.9532,8.46797,9.83398,-5.71205,3.9576,-1.5002e-14,-1.93815e-15,-35.2117,-16.2812,-73.1746,27.3924,-9.56372,-14.7291,-24.7559,7.12502,11.426,-54.4245,-1.5002e-14,-1.93815e-15,-31.3324,3.39518,72.348,39.4718,6.02825,-15.8077,-5.70546,7.12502,10.3857,24.0181,-35.1578,-0.178132,20.7214,54.2165,-7.57563,10.4975,5.63829,-4.30432,9.92407,-20.601,21.2966,-13.7436,-4.66523,14.0414
-20.6264,17.6885,9.59269,183.184,-36.1872,-182.816,9.72077,0.230851,-7.41638,4.16674,-0.608568,0.704505,-1.01746,-0.502048,4.97804,-1.17565,-5.06557,-10.8526,25.7434,-10.2063,8.08743,9.1858,-5.78348,3.6461,4.13441e-14,-2.0276e-14,-35.1746,-16.411,-73.2241,27.3888,-9.0114,-15.4211,-24.0259,7.12502,10.7585,-53.7304,4.13441e-14,-2.0276e-14,-31.0235,3.70733,72.1897,39.5283,5.84499,-15.531,-6.29931,7.12502,10.6526,23.4107,-34.1804,-0.639526,21.1616,51.9779,-9.34348,9.50887,0.855072,-2.91869,10.8325,-20.1065,21.0532,-13.75,-6.28041,14.8485
-20.7214,17.6756,9.55009,183.856,-35.8112,-182.928,9.33232,0.14312,-7.00463,4.0684,-0.649393,0.593282,-0.909973,-0.512224,4.62714,-0.0383333,-5.40998,-10.0468,24.0887,-10.2544,6.81802,8.30614,-5.81179,3.12078,-5.28208e-14,-7.7526e-15,-35.1349,-16.4685,-73.2592,27.0566,-8.70213,-17.01,-22.914,7.12502,9.22565,-52.6922,-5.28208e-14,-7.7526e-15,-30.5147,3.81413,72.3287,39.4796,6.23208,-15.6308,-6.33832,7.12502,10.5564,23.3766,-35.0326,-1.37338,21.2989,49.5387,-9.20883,9.82726,1.55444,-3.29554,10.3909,-20.7065,21.0278,-14.3067,-4.81105,11.6203
-20.8006,17.633,9.51079,184.649,-34.7276,-182.763,8.83075,0.335705,-6.58396,3.71156,-0.300749,0.457853,-1.05681,-0.303784,4.21092,-0.446196,-5.22375,-10.0338,24.8056,-10.224,7.32347,8.64431,-5.77624,3.2731,-5.84116e-14,8.27441e-15,-35.4203,-17.1916,-72.9516,27.0756,-8.53479,-16.4562,-23.7459,7.12502,9.76007,-53.4997,-5.84116e-14,8.27441e-15,-30.1863,3.80841,72.3292,39.4558,6.30154,-15.3851,-6.16214,7.12502,10.7933,23.5405,-36.4663,-1.43779,21.7607,47.2959,-8.75417,10.0951,3.75724,-3.97346,10.9639,-21.2168,20.6969,-14.6553,-2.91188,4.66648
-20.8555,17.6592,9.40152,184.333,-35.1758,-182.915,9.42763,0.173775,-7.00949,3.73089,-0.608652,0.467417,-1.32142,-0.457241,4.49853,-0.584158,-5.10311,-10.0571,25.1496,-10.1936,7.60684,8.79926,-5.75642,3.37,6.75961e-14,-8.87077e-15,-35.6708,-17.7579,-72.6547,27.1466,-8.67178,-15.0382,-24.495,7.12502,11.1279,-54.1799,6.75961e-14,-8.87077e-15,-30.1455,3.73155,72.1505,39.5279,6.19656,-14.8422,-6.66847,7.12502,11.317,23.0062,-35.7783,-2.15111,22.0784,44.9618,-9.27275,9.11301,5.03043,-2.71875,10.0173,-20.9269,20.3903,-14.8959,-3.83735,9.89341
-20.9409,17.6175,9.34454,185.178,-34.1334,-183.282,9.06255,0.417804,-6.85285,3.50829,-0.241988,0.116208,-1.40346,-0.255572,4.00305,-1.01666,-5.20823,-10.4655,25.6888,-10.5692,8.33415,9.16674,-5.91359,3.63419,4.13224e-14,8.49804e-15,-35.8625,-18.1621,-72.6486,27.1106,-8.88342,-15.1047,-24.4276,7.12502,11.0637,-54.116,4.13224e-14,8.49804e-15,-29.8622,3.20839,72.0854,39.6451,6.32054,-14.4577,-7.45843,7.12502,11.6877,22.1955,-36.7816,-2.47265,22.2196,42.8188,-8.92334,8.96845,6.5174,-2.84558,10.8488,-21.7479,19.8524,-15.1263,-2.58085,4.69509
-21.0191,17.6041,9.2636,185.265,-33.9035,-183.599,9.31849,0.472106,-6.87466,3.57982,-0.208068,-0.0869145,-1.47566,-0.243051,3.8013,-0.734341,-5.35035,-9.7559,25.1016,-10.5732,7.71535,8.83809,-5.8884,3.31412,2.08972e-14,-1.73937e-15,-36.0713,-18.6824,-72.6802,27.2543,-8.67589,-15.4572,-24.4691,7.12502,10.7238,-54.1754,2.08972e-14,-1.73937e-15,-29.4641,2.72868,72.1007,39.8276,6.49258,-14.3267,-7.28914,7.12502,11.8141,22.3576,-36.5933,-3.17843,22.4246,40.4933,-8.93322,8.42049,7.41342,-1.95134,11.1178,-22.04,19.0642,-15.0857,-2.3652,3.4911
-21.0873,17.6024,9.15684,185.311,-34.089,-183.596,9.16295,0.199218,-7.16937,3.64925,-0.578493,0.0517018,-1.26791,-0.439984,4.14756,-0.367299,-5.26513,-9.31008,24.5054,-10.2567,7.09992,8.47825,-5.74588,3.07845,1.19283e-13,-1.15295e-14,-36.0223,-18.7694,-72.6124,27.295,-8.40756,-14.9005,-24.5137,7.12502,11.2607,-54.1914,1.19283e-13,-1.15295e-14,-29.2944,3.18931,72.0813,39.8402,6.18496,-14.7766,-6.51007,7.12502,11.3802,23.1611,-36.4641,-3.86517,22.9552,38.2973,-9.20751,7.29876,8.13594,-1.15429,12.0903,-21.8088,18.1919,-14.8244,-3.13762,1.91805
-21.154,17.6029,9.05809,185.386,-33.9761,-183.48,8.95912,-0.848931,-7.87449,4.27349,-2.01031,1.11695,-0.251515,-1.24763,5.77784,-2.8048,-4.48247,-11.903,24.7634,-8.39049,6.70984,8.94674,-5.01841,3.47876,-2.55935e-14,-3.18055e-15,-33.1089,-15.6786,-72.9913,26.8159,-8.42629,-14.4175,-24.3479,7.12502,11.7265,-53.9996,-2.55935e-14,-3.18055e-15,-29.0538,7.92697,72.5082,39.8377,5.21877,-15.5412,-6.10865,7.12502,10.6427,23.6018,-36.4443,-4.43229,23.632,36.0113,-9.0092,6.14461,9.70712,-0.404021,12.8535,-21.5933,17.2283,-14.5899,-3.51181,0.775831
-21.216,17.6042,8.96453,185.597,-33.737,-183.587,8.88812,-0.903792,-8.09983,4.1988,-2.09194,1.08642,-0.268708,-1.28554,5.87896,-2.40333,-4.47441,-12.117,24.5942,-8.47861,6.96638,8.84242,-5.07062,3.60546,-3.77691e-15,-1.10325e-14,-33.3941,-15.7965,-73.1191,26.8868,-8.34984,-15.1357,-24.1907,7.12502,11.0339,-53.8807,-3.77691e-15,-1.10325e-14,-29.0165,7.60864,72.5377,40.0588,5.52367,-15.6568,-6.26265,7.12502,10.5312,23.4535,-36.426,-4.91401,24.1112,33.7351,-8.76879,4.82016,11.0018,0.398764,13.0072,-21.6138,16.251,-14.3396,-3.52701,0.340825
-21.2848,17.6119,8.87391,185.784,-33.5971,-183.871,9.12282,-1.04229,-8.21985,4.15181,-2.31221,0.959182,-0.412108,-1.38894,5.8402,-2.00055,-4.6525,-12.987,24.3773,-8.89862,7.77446,8.81502,-5.2865,3.99932,5.27276e-14,-5.96354e-15,-33.2995,-15.4793,-73.4122,26.8458,-8.72747,-15.6359,-24.709,7.12502,10.5514,-54.4241,5.27276e-14,-5.96354e-15,-28.8742,7.28874,72.5457,40.2156,6.12608,-15.3556,-6.65146,7.12502,10.8218,23.0497,-36.3035,-5.78133,24.4959,31.5346,-8.82008,3.35317,10.5173,1.34101,12.6848,-21.8116,15.363,-14.1779,-3.33511,0.178716
-21.3533,17.6109,8.77981,185.727,-33.5746,-183.794,9.30468,-1.1373,-8.03827,4.14926,-2.44298,0.927988,-0.504785,-1.44868,5.72263,-2.01752,-4.79774,-13.2378,24.4275,-9.13763,7.93441,8.88423,-5.40936,4.07117,7.56873e-14,-1.43125e-14,-33.2422,-15.5445,-73.4826,26.711,-8.79959,-15.4822,-24.3369,7.12502,10.6997,-54.0444,7.56873e-14,-1.43125e-14,-28.6327,6.90435,72.6072,40.2761,6.40232,-15.6488,-6.73922,7.12502,10.5389,22.9766,-36.1273,-6.79277,25.2747,29.4078,-8.74143,1.99829,10.5006,2.28835,12.4594,-21.6593,14.5604,-14.1215,-3.22934,1.66166
-21.4155,17.5949,8.68637,185.828,-33.4593,-183.645,8.88144,-0.960762,-8.15531,4.10986,-2.16942,1.0185,-0.346061,-1.31524,5.84656,-1.95959,-4.83559,-12.5855,24.7178,-9.2269,7.4904,8.93203,-5.45023,3.80029,-2.98177e-16,-3.40916e-14,-33.715,-16.0993,-73.1496,26.647,-8.74802,-15.5905,-23.357,7.12502,10.5951,-53.07,-2.98177e-16,-3.40916e-14,-28.3393,6.07686,73.0082,40.3121,6.31471,-16.5793,-6.18701,7.12502,9.64124,23.5724,-36.1966,-7.31001,26.0058,27.3795,-8.55734,0.441667,12.8397,2.91527,12.7866,-21.4562,13.821,-13.9641,-3.30683,2.27013
-21.4802,17.5884,8.59965,186.311,-33.2515,-183.941,9.4232,-1.33262,-7.75701,3.873,-2.68264,0.739044,-0.846508,-1.53144,5.39745,-3.11877,-4.51038,-12.7849,25.2175,-8.58233,7.40932,9.25439,-5.14872,3.83991,-5.05162e-14,1.75924e-14,-33.4121,-15.1785,-73.8991,26.5672,-8.99639,-15.3455,-24.3,7.12502,10.8315,-54.0007,-5.05162e-14,1.75924e-14,-28.614,6.19769,72.6846,40.8779,6.73695,-17.1915,-5.18298,7.12502,9.05052,24.6029,-36.381,-7.76098,26.2885,25.322,-8.44703,-1.46669,15.8748,3.06649,12.967,-21.8165,13.4354,-13.9698,-2.9295,0.110876
-21.5474,17.5709,8.51305,186.789,-33.074,-184.124,9.33151,-1.49907,-7.5255,3.74678,-2.87258,0.605226,-0.919975,-1.61132,5.1418,-2.02847,-4.35393,-11.3859,23.5407,-8.02652,5.97881,8.29688,-4.84495,3.20139,4.641e-14,-4.09993e-15,-33.412,-15.0087,-74.1779,26.6227,-9.17126,-14.9163,-25.7237,7.12502,11.2455,-55.4023,4.641e-14,-4.09993e-15,-28.6852,5.55013,72.7123,41.3602,7.29546,-17.337,-4.85214,7.12502,8.91018,24.9397,-36.628,-8.46463,26.8808,23.3894,-8.26603,-3.54851,13.8921,3.13392,12.9159,-22.1287,13.1648,-14.1433,-2.34564,-2.06392
-21.613,17.5683,8.4271,187.024,-32.7654,-184.082,8.87534,-1.10609,-7.72325,3.69426,-2.31753,0.677904,-0.789791,-1.33545,5.26506,-1.46872,-4.73373,-11.7512,23.6011,-8.8431,6.76958,8.34454,-5.22224,3.46951,6.89037e-14,-1.49089e-15,-34.011,-15.8988,-73.6767,26.6639,-9.23358,-14.8759,-26.2698,7.12502,11.2844,-55.9462,6.89037e-14,-1.49089e-15,-28.1063,4.47441,73.2694,41.0455,6.96858,-17.0747,-5.54189,7.12502,9.16325,24.239,-36.6857,-8.88906,27.6093,21.6281,-7.94244,-5.70631,9.04438,3.51027,12.398,-22.1716,12.8011,-14.2883,-2.08904,0.122338
