JuanDHNZ/ProyectoFinalCD/preprocessing/sports_trials_csv/01_13.csv
root1,root2,root3,root4,root5,root6,lowerback1,lowerback2,lowerback3,upperback1,upperback2,upperback3,thorax1,thorax2,thorax3,lowerneck1,lowerneck2,lowerneck3,upperneck1,upperneck2,upperneck3,head1,head2,head3,rclavicle1,rclavicle2,rhumerus1,rhumerus2,rhumerus3,rradius1,rwrist1,rhand1,rhand2,rfingers1,rthumb1,rthumb2,lclavicle1,lclavicle2,lhumerus1,lhumerus2,lhumerus3,lradius1,lwrist1,lhand1,lhand2,lfingers1,lthumb1,lthumb2,rfemur1,rfemur2,rfemur3,rtibia1,rfoot1,rfoot2,rtoes1,lfemur1,lfemur2,lfemur3,ltibia1,lfoot1,lfoot2,ltoes1
17.3022,17.8576,14.0149,34.0548,-83.0689,-30.3006,5.32294,-0.0110969,0.470671,0.909595,0.026199,4.96015,-2.05142,-0.0189941,4.87159,-5.74023,-3.76107,-4.06544,3.03672,-5.07949,7.21555,2.31566,-2.40792,2.87151,-1.35174e-14,6.36111e-15,-30.2566,-52.4814,-61.5063,10.3625,18.1207,-17.3208,-33.0727,7.12502,8.9258,-62.8639,-1.35174e-14,6.36111e-15,-24.1261,20.2996,81.1997,15.9136,-14.3066,-18.9452,-3.6609,7.12502,7.35805,26.1911,-10.7256,-1.33762,25.0718,32.7576,-23.3415,-19.7255,18.1158,-10.6622,-2.44643,-11.5319,29.8502,-20.3107,2.33432,-19.2945
17.3227,17.8642,14.0504,32.9957,-82.8686,-29.2251,5.44064,0.0434358,0.519811,0.886866,0.106864,4.97601,-2.14731,0.0220388,4.85578,-5.99402,-3.86079,-3.97948,3.19819,-5.20118,6.88606,2.40724,-2.46775,2.73458,6.75868e-15,2.14687e-14,-32.5874,-55.5436,-57.7101,7.72143,21.498,-17.006,-37.3777,7.12502,9.2296,-67.1557,6.75868e-15,2.14687e-14,-24.5417,21.2818,80.3001,15.3523,-15.7229,-18.137,-3.49903,7.12502,8.13809,26.3243,-10.7394,-1.63552,24.9078,32.6585,-23.1802,-19.6516,18.1275,-10.9075,-2.25594,-11.661,30.0247,-20.406,1.96698,-19.2402
17.3517,17.8701,14.0877,34.1537,-82.815,-30.1704,5.48299,0.200488,0.823992,0.805979,0.338884,4.98232,-2.27147,0.1371,4.67301,-6.26834,-4.11376,-4.18505,3.34977,-5.53524,7.07625,2.54579,-2.62504,2.81832,-3.97569e-15,3.65764e-14,-37.934,-58.1356,-52.2206,8.52657,25.0167,-16.9851,-42.4883,7.12502,9.24975,-72.2654,-3.97569e-15,3.65764e-14,-25.0055,23.7974,78.8675,14.6406,-18.6936,-17.2425,-3.5111,7.12502,9.00133,26.2769,-11.073,-1.6461,24.8967,32.619,-22.9397,-19.5441,18.3708,-11.338,-2.13556,-11.6748,30.1514,-20.3073,1.99293,-19.4049
17.3809,17.8743,14.1226,35.5916,-82.7598,-31.4194,5.44576,0.350343,1.07221,0.828791,0.548198,5.08773,-2.24146,0.237378,4.62694,-6.65019,-4.33316,-4.8026,3.51519,-5.81029,7.65786,2.74349,-2.74616,3.11585,5.56597e-15,-3.49861e-14,-43.9443,-60.1315,-45.5254,8.85714,27.6103,-21.885,-45.6719,7.12502,4.51983,-75.6037,5.56597e-15,-3.49861e-14,-25.0782,19.6003,80.0022,15.2367,-14.7098,-16.5544,-2.62739,7.12502,9.6653,27.1309,-11.3949,-1.23161,24.9727,32.6251,-22.9036,-19.8066,18.2109,-11.7241,-1.87014,-11.6389,30.2246,-20.2227,1.96163,-19.8479
17.4083,17.8825,14.1624,35.6059,-82.6879,-31.2952,5.41673,0.459216,1.18544,0.901065,0.692509,5.20382,-2.16114,0.305596,4.67379,-6.9752,-4.45153,-5.14739,3.49426,-5.92774,7.72726,2.82427,-2.80073,3.19434,1.59028e-15,-1.35174e-14,-51.5258,-61.5089,-37.7938,10.1963,29.5502,-29.437,-47.2264,7.12502,-2.77377,-77.1881,1.59028e-15,-1.35174e-14,-25.3128,19.1962,79.9976,15.3067,-14.7014,-15.7287,-2.47911,7.12502,10.4619,27.2406,-11.6936,-1.15611,24.8563,32.7304,-22.8703,-19.9313,17.7683,-12.0019,-1.79868,-11.7673,30.1747,-20.0348,1.83445,-19.7639
17.4346,17.8917,14.2085,33.3432,-82.8517,-28.8876,5.45058,0.607158,1.01022,0.935165,0.88099,5.18444,-2.16107,0.401627,4.73902,-7.17132,-4.58172,-5.32875,3.30431,-6.05778,7.61298,2.80861,-2.86839,3.17809,-2.70347e-14,-2.38542e-14,-45.991,-57.0624,-44.4037,9.87197,21.6876,-35.7651,-50.9611,7.12502,-8.88312,-80.7541,-2.70347e-14,-2.38542e-14,-25.7141,19.5062,79.7421,15.4438,-15.5492,-14.8081,-2.33228,7.12502,11.3498,27.3406,-12.066,-2.00811,24.2231,32.9074,-22.4099,-19.3203,17.4769,-12.1824,-2.158,-12.3627,30.0398,-19.7092,2.09885,-19.8906
17.4618,17.9032,14.2566,29.0262,-83.214,-24.4318,5.57363,0.833275,0.585126,0.960962,1.16605,5.01816,-2.23001,0.550806,4.78374,-7.47237,-4.78083,-5.46131,3.17402,-6.29422,7.64188,2.84587,-2.982,3.19451,-4.96962e-15,3.81667e-14,-43.9016,-51.8184,-48.2689,10.9314,16.2623,-35.615,-44.8283,7.12502,-8.73833,-74.6274,-4.96962e-15,3.81667e-14,-26.0065,19.017,79.6807,15.6353,-15.639,-13.8968,-2.10008,7.12502,12.2286,27.5224,-12.4411,-2.46019,23.2834,33.1558,-21.963,-19.1013,16.7322,-12.2743,-2.5769,-13.3246,29.8524,-19.362,2.55771,-20.1441
17.4888,17.9083,14.3002,27.7355,-83.2384,-23.144,5.80884,1.04963,0.647871,1.03446,1.46224,4.95635,-2.30597,0.698098,4.65774,-7.64819,-5.0492,-5.26782,2.80295,-6.63547,7.47086,2.75947,-3.15404,3.07442,-1.66979e-14,-7.95139e-15,-43.469,-49.8669,-48.5026,9.95008,17.7694,-33.2805,-48.4049,7.12502,-6.48496,-78.2856,-1.66979e-14,-7.95139e-15,-26.1502,18.6767,79.5363,15.7315,-15.8052,-13.1182,-1.84065,7.12502,12.9792,27.7356,-12.6635,-2.31934,22.9876,33.5029,-21.7163,-19.6925,14.7908,-12.2322,-2.60679,-13.6833,29.5962,-19.1013,2.58097,-20.1596
17.5137,17.9031,14.3345,26.5388,-83.2163,-22.1615,6.21099,1.20677,0.637131,1.16809,1.67637,4.96227,-2.40977,0.803311,4.64795,-7.63323,-5.27492,-5.1145,2.29463,-6.91418,7.25387,2.58491,-3.30229,2.95456,-4.77083e-15,0,-45.0679,-47.446,-48.4406,12.2791,18.4369,-29.1045,-48.4794,7.12502,-2.45261,-78.445,-4.77083e-15,0,-26.4811,18.4553,79.4234,16.1949,-15.7535,-12.5056,-1.68036,7.12502,13.5697,27.8574,-12.6178,-2.19381,22.7727,33.8327,-21.6165,-20.2155,13.2474,-12.001,-2.40726,-13.9427,29.4057,-18.9327,2.30633,-20.0278
17.547,17.8998,14.3687,19.6742,-83.4225,-15.4311,6.71689,1.2917,-0.0830964,1.22695,1.75697,4.78958,-2.65434,0.853961,4.86221,-7.62887,-5.34725,-5.33077,2.02962,-6.98398,7.37777,2.5166,-3.33902,3.03398,4.17448e-15,0,-46.6067,-46.8108,-47.1191,12.3089,20.8819,-24.7385,-45.5757,7.12502,1.7641,-75.5482,4.17448e-15,0,-27.0488,17.6216,79.4904,17.0064,-14.5935,-11.878,-1.83402,7.12502,14.1746,27.6624,-12.6001,-2.00111,21.7696,33.9991,-21.6421,-20.4558,13.2341,-11.9953,-2.36304,-14.9711,29.4989,-18.8303,2.00303,-19.3164
17.5835,17.8977,14.4077,19.4487,-83.1492,-15.1591,6.97025,1.19586,0.121041,1.23929,1.64764,4.8167,-2.76867,0.797051,4.78162,-7.59471,-5.27242,-5.47775,1.78298,-6.87006,7.57113,2.43649,-3.2827,3.13608,6.36111e-15,-4.77083e-15,-46.5228,-44.5181,-48.0733,12.3655,21.5295,-22.2883,-42.0438,7.12502,4.13042,-71.9835,6.36111e-15,-4.77083e-15,-27.6029,16.8929,79.379,17.7399,-13.1454,-11.1845,-2.20867,7.12502,14.8428,27.2397,-12.8262,-1.91938,21.7083,34.0929,-21.6582,-20.6402,13.6934,-12.3532,-2.44355,-14.997,29.7003,-18.8054,1.54915,-18.3422
17.6078,17.8926,14.448,29.0639,-82.349,-24.6528,6.75637,1.04872,1.71645,1.34612,1.53824,5.16538,-2.49616,0.716793,4.25513,-7.64361,-5.22101,-5.18567,1.40706,-6.8033,7.43953,2.29371,-3.25433,3.03949,-1.21259e-14,-3.49861e-14,-46.7613,-43.2163,-48.3484,12.1616,22.4407,-21.3422,-38.5354,7.12502,5.04389,-68.4553,-1.21259e-14,-3.49861e-14,-27.9422,16.7503,79.0826,18.3565,-12.1067,-10.9818,-2.27839,7.12502,15.038,27.1555,-13.152,-2.40021,23.1245,34.096,-21.2105,-20.7125,12.7955,-12.9049,-2.358,-13.4866,29.9974,-18.9561,0.936348,-17.6211
17.6113,17.8907,14.5029,29.1253,-82.4868,-24.7622,6.50618,1.11524,1.99283,1.56433,1.61618,5.0838,-2.12513,0.750708,4.00993,-7.57297,-5.26968,-5.00701,0.954908,-6.86488,7.38919,2.12286,-3.29239,2.98801,1.09332e-14,-2.8625e-14,-48.2296,-43.3071,-46.8424,11.9549,24.2058,-20.2412,-34.7062,7.12502,6.10697,-64.5982,1.09332e-14,-2.8625e-14,-28.4291,15.9653,79.1501,19.2553,-10.4729,-11.2023,-2.19091,7.12502,14.8256,27.2587,-13.1178,-3.43743,22.7674,34.0859,-20.5905,-20.057,11.1394,-12.9346,-2.41723,-13.7818,30.3264,-19.1987,1.12398,-17.6656
17.6227,17.8895,14.5515,26.9664,-82.4356,-22.7207,6.58557,1.11253,1.95658,1.65296,1.60786,5.07631,-2.07808,0.745698,4.02271,-7.27648,-5.30445,-5.1235,0.552216,-6.8932,7.41223,1.94365,-3.31693,3.02367,1.43125e-14,-6.36111e-15,-47.9392,-40.905,-47.8998,11.9284,23.3774,-18.4649,-31.5516,7.12502,7.82166,-61.3869,1.43125e-14,-6.36111e-15,-29.2216,15.1808,79.3088,20.2558,-9.01439,-11.3013,-2.51337,7.12502,14.7303,26.9433,-12.9921,-4.25977,22.2639,34.0744,-20.531,-19.4534,10.8364,-13.0046,-2.04348,-14.2081,30.6313,-19.4519,0.745033,-18.0298
17.6419,17.8806,14.5849,26.7403,-82.6992,-22.8489,7.03324,1.18936,1.76759,1.78153,1.70886,5.14501,-2.20817,0.79421,4.18771,-7.05413,-5.23583,-5.18199,0.389614,-6.79233,7.31566,1.84059,-3.27433,3.01222,2.38542e-14,1.27222e-14,-47.9291,-39.0137,-48.3861,11.8324,23.9654,-16.3864,-29.1343,7.12502,9.8274,-58.885,2.38542e-14,1.27222e-14,-30.0502,14.9451,79.133,21.1194,-7.98789,-11.3242,-2.9103,7.12502,14.7082,26.548,-12.7333,-4.25455,21.9725,34.2138,-20.5156,-19.2678,10.215,-12.6992,-1.18166,-14.441,30.7406,-19.6857,0.12262,-17.6934
17.6638,17.8863,14.6371,26.8481,-82.4914,-22.5597,6.66385,1.02551,2.16072,1.73773,1.50085,5.06389,-2.02217,0.68933,3.90281,-6.96945,-5.139,-5.00478,0.248369,-6.6743,7.28734,1.76145,-3.21908,2.97796,-2.34566e-14,1.59028e-15,-48.1155,-38.1439,-48.5913,11.692,24.8314,-15.7181,-27.3449,7.12502,10.4721,-57.064,-2.34566e-14,1.59028e-15,-30.8157,14.6033,78.7781,22.121,-6.43839,-11.2965,-3.42904,7.12502,14.7348,26.0273,-13.3134,-4.23934,21.8989,34.3881,-20.3972,-19.515,9.61413,-13.2807,-1.33484,-14.5687,30.7767,-19.5736,0.00930719,-17.0685
17.6805,17.8742,14.6772,23.5362,-82.0818,-19.7263,7.04333,0.821914,2.25478,2.01049,1.23445,4.92292,-1.93211,0.553426,3.72218,-6.91175,-5.16606,-4.70586,-0.0461098,-6.7227,7.2086,1.64033,-3.24935,2.89608,5.1684e-15,3.33958e-14,-47.9765,-37.0301,-49.5377,11.9076,23.8146,-15.1902,-26.1341,7.12502,10.9813,-55.8268,5.1684e-15,3.33958e-14,-31.3887,14.1738,78.5281,23.123,-4.67376,-11.4555,-4.01793,7.12502,14.5816,25.4495,-12.803,-3.89598,21.5642,34.5857,-20.9375,-20.0384,10.5738,-12.8849,-1.33836,-14.8999,30.7783,-19.6729,-0.581829,-16.4936
17.6948,17.8696,14.717,19.8817,-82.4238,-16.213,7.10855,0.889868,1.82115,2.1851,1.28883,4.77495,-1.7972,0.58221,3.80755,-6.76009,-5.15638,-4.70387,-0.292403,-6.69909,7.06635,1.52414,-3.24556,2.8534,-3.18055e-15,6.52014e-14,-47.1618,-34.1828,-51.8855,12.6926,20.301,-14.2357,-25.5117,7.12502,11.9018,-55.1534,-3.18055e-15,6.52014e-14,-32.0163,14.1286,78.3695,23.932,-3.37731,-12.0872,-4.2639,7.12502,13.973,25.2465,-12.7408,-3.47273,20.7711,34.7679,-21.0904,-20.1611,10.9631,-12.7006,-0.768945,-15.6912,30.7621,-19.7954,-1.00598,-16.0315
17.7092,17.8672,14.7572,18.2373,-83.0111,-14.5831,7.12776,0.986282,1.45326,2.25364,1.38977,4.73892,-1.75064,0.6332,3.96931,-6.60111,-4.97371,-5.06653,-0.340404,-6.43134,7.14511,1.48227,-3.11394,2.96336,2.38542e-15,-2.54444e-14,-46.4441,-31.5861,-53.7167,13.0623,17.2365,-14.3922,-25.4018,7.12502,11.7509,-55.0521,2.38542e-15,-2.54444e-14,-32.8464,14.5471,78.1373,24.6399,-2.56284,-12.7472,-4.66737,7.12502,13.3369,24.8858,-12.9295,-3.30742,20.1618,34.9935,-20.7276,-20.1058,9.86274,-12.6055,-0.144364,-16.2876,30.7112,-19.8262,-1.24169,-15.751
17.7272,17.8615,14.79,18.6475,-83.3634,-15.0537,7.21099,1.03022,1.32936,2.33536,1.43685,4.76625,-1.71899,0.654881,4.06357,-6.62926,-4.90057,-5.30022,-0.216005,-6.32483,7.31985,1.53883,-3.05641,3.07024,5.1684e-15,-1.11319e-14,-46.0613,-29.4535,-55.3304,13.718,14.5873,-13.8598,-25.8519,7.12502,12.2643,-55.4723,5.1684e-15,-1.11319e-14,-33.5432,14.6349,77.934,25.293,-1.50724,-13.4312,-5.29015,7.12502,12.6775,24.3051,-13.0704,-3.16298,19.968,35.2269,-20.3989,-20.1613,8.70289,-12.5197,0.595329,-16.4455,30.6271,-19.8935,-1.78216,-15.1918
17.7464,17.8547,14.8285,17.1384,-83.5093,-13.4677,7.13741,0.998367,1.15417,2.36876,1.37894,4.68708,-1.64238,0.62681,4.08589,-6.62467,-4.97415,-5.1127,-0.131221,-6.43947,7.25052,1.5623,-3.11355,3.00583,-3.77691e-14,-5.56597e-14,-46.1113,-28.0506,-56.2152,14.5382,13.0001,-12.0773,-26.4349,7.12502,13.9825,-55.9446,-3.77691e-14,-5.56597e-14,-34.1952,14.52,77.6428,25.9302,-0.289923,-14.0084,-5.8794,7.12502,12.121,23.7495,-13.3334,-3.22766,19.5859,35.4717,-20.1747,-20.1753,7.94764,-12.6141,1.03627,-16.8035,30.5666,-19.9617,-2.18001,-14.753
17.7621,17.853,14.886,15.2971,-83.243,-11.2422,6.70277,0.754452,1.26274,2.27667,1.05258,4.60931,-1.47173,0.466381,3.97352,-6.52315,-4.92289,-4.97216,-0.0296134,-6.38555,7.13539,1.5625,-3.08857,2.94454,-9.54166e-15,-6.36111e-15,-45.6775,-25.4314,-57.9569,15.492,9.76491,-10.998,-27.3279,7.12502,15.0224,-56.763,-9.54166e-15,-6.36111e-15,-34.9397,14.8911,77.2469,26.4221,0.67992,-14.3497,-6.75939,7.12502,11.7919,22.8887,-13.8922,-3.63805,19.1916,35.7451,-20.2016,-20.0661,7.34744,-13.0763,0.973808,-17.2041,30.4728,-19.9004,-2.36664,-14.7947
17.7811,17.8426,14.9294,13.9194,-83.6592,-9.96763,6.85982,0.777519,1.06812,2.35485,1.07153,4.58014,-1.48262,0.474771,4.05096,-6.45974,-4.83588,-5.01234,0.0358955,-6.26813,7.06456,1.56335,-3.03124,2.93429,9.74045e-15,1.59028e-14,-45.714,-24.6675,-58.2001,16.075,7.54109,-10.8675,-27.6538,7.12502,15.1481,-57.0794,9.74045e-15,1.59028e-14,-35.5038,15.5674,76.9532,26.6907,1.32248,-15.0976,-7.61178,7.12502,11.0706,22.0763,-14.0279,-3.65042,18.7281,36.06,-20.1033,-19.7972,6.13999,-12.8934,1.51966,-17.6219,30.3181,-19.884,-2.52052,-14.8697
17.799,17.8382,14.9713,8.37711,-83.714,-4.45836,6.96681,0.761704,0.592797,2.40988,1.0233,4.39886,-1.48762,0.452849,4.13418,-6.46126,-4.90326,-4.90943,-0.0386433,-6.36024,6.97716,1.53687,-3.07924,2.88166,-6.55989e-15,-1.59028e-14,-45.408,-22.9398,-59.5398,16.384,3.45013,-12.2699,-27.4022,7.12502,13.7969,-56.9247,-6.55989e-15,-1.59028e-14,-35.9224,16.3529,76.5811,26.8717,1.45213,-16.0505,-8.2096,7.12502,10.1515,21.5255,-14.1383,-4.17246,17.8656,36.3196,-19.8655,-19.5349,5.22174,-12.8298,1.90576,-18.4231,30.1785,-19.9089,-3.09302,-14.5767
17.8151,17.8339,15.0081,3.63406,-83.8339,0.216756,7.10352,0.790223,0.0952601,2.42983,1.03399,4.21413,-1.54936,0.461197,4.22152,-6.63561,-4.9445,-4.59339,0.200919,-6.43578,6.73261,1.6263,-3.11447,2.73246,-1.0138e-14,-3.18055e-14,-45.5956,-22.1421,-60.1065,17.0374,1.43822,-13.4728,-27.5811,7.12502,12.6374,-57.1788,-1.0138e-14,-3.18055e-14,-36.4642,16.6815,76.1866,27.099,1.92671,-16.621,-8.53147,7.12502,9.60102,21.2298,-14.1775,-4.05847,17.1391,36.5067,-19.9153,-19.4965,5.65633,-12.7189,2.07374,-19.1122,30.0975,-19.8661,-3.45674,-13.7732
17.8292,17.8343,15.0422,4.52629,-84.0823,-0.668039,7.03882,0.779213,0.13389,2.44352,1.01919,4.21267,-1.4975,0.453013,4.19976,-6.73189,-4.89346,-4.28585,0.442136,-6.38726,6.41478,1.69172,-3.09029,2.56846,-1.43125e-14,-3.18055e-15,-45.5062,-21.2826,-60.6141,17.4476,0.114714,-13.3001,-28.8166,7.12502,12.8039,-58.404,-1.43125e-14,-3.18055e-15,-36.9516,16.6695,75.8749,27.1827,2.88762,-16.9794,-8.6413,7.12502,9.2552,21.1356,-14.3224,-3.53895,17.1128,36.6336,-20.0863,-19.6009,6.23978,-12.7164,2.24655,-19.1472,30.0247,-19.7945,-3.6256,-13.1931
17.8441,17.8375,15.0763,6.99953,-84.1626,-3.10652,6.91156,0.685469,0.459595,2.49294,0.907433,4.23646,-1.36292,0.394609,4.04991,-6.64348,-4.86074,-4.23829,0.344138,-6.34805,6.45593,1.64153,-3.07268,2.5776,5.96354e-15,-1.90833e-14,-45.4439,-20.9231,-60.7609,17.7941,-0.441446,-12.7525,-29.8755,7.12502,13.3317,-59.4291,5.96354e-15,-1.90833e-14,-37.2058,17.2367,75.4038,26.897,3.1926,-17.498,-8.91274,7.12502,8.75483,20.8857,-14.5089,-3.85172,17.2193,36.7297,-20.0087,-19.2164,6.06832,-12.8027,2.56717,-18.9997,29.9727,-19.9098,-3.83735,-13.3818
17.8601,17.8359,15.1131,5.87378,-84.1784,-1.94281,6.8545,0.521439,0.465354,2.52346,0.686296,4.14912,-1.28372,0.28406,3.97342,-6.53168,-4.71116,-4.31922,0.297018,-6.14917,6.61301,1.60516,-2.97368,2.65644,3.97569e-16,7.95139e-15,-45.3085,-20.6859,-60.926,17.8858,-0.523461,-13.3776,-30.179,7.12502,12.7292,-59.7711,3.97569e-16,7.95139e-15,-37.5267,18.2577,74.7974,26.5177,3.00484,-18.2636,-9.02411,7.12502,8.01589,20.8039,-14.6156,-3.61805,16.935,36.8048,-20.1951,-19.2209,6.6823,-12.891,2.89075,-19.2671,29.9597,-20.0187,-3.99615,-13.572
17.8778,17.8352,15.1497,3.70558,-84.382,0.294419,6.81073,0.400718,0.203336,2.54232,0.507637,4.11826,-1.23013,0.194069,4.10412,-6.47606,-4.46414,-4.45455,0.318984,-5.80856,6.5524,1.58507,-2.80568,2.67692,2.78299e-15,1.59028e-15,-45.1675,-21.6128,-60.0168,17.3531,1.27138,-14.3663,-29.3633,7.12502,11.7759,-59.0123,2.78299e-15,1.59028e-15,-37.9075,19.1829,74.3411,26.1967,2.9018,-18.8153,-8.90833,7.12502,7.48344,20.9393,-14.8082,-3.57215,16.5005,36.8924,-20.4211,-18.8045,7.86356,-12.9831,3.35447,-19.6601,29.9485,-20.0134,-4.2173,-13.4791
17.8952,17.8356,15.182,2.82185,-84.7408,1.16676,6.86519,0.418664,-0.00505616,2.53423,0.520187,4.13448,-1.27155,0.20018,4.23851,-6.33406,-4.36171,-4.4516,0.291346,-5.6683,6.37045,1.5347,-2.74087,2.62384,-9.14409e-15,-1.90833e-14,-45.1334,-22.8103,-58.7851,16.7803,2.8046,-14.8697,-28.5312,7.12502,11.2904,-58.2074,-9.14409e-15,-1.90833e-14,-38.215,19.7789,73.9601,25.778,2.63706,-18.9112,-8.80266,7.12502,7.39089,21.0482,-14.9346,-3.17415,16.2778,36.957,-20.5242,-18.7517,8.40679,-12.9896,3.83757,-19.8732,29.9593,-19.9439,-4.51237,-12.8952
17.9081,17.8361,15.2134,2.90653,-85.0198,1.01675,6.94721,0.45045,-0.0400522,2.4799,0.565153,4.10973,-1.37668,0.224851,4.22889,-6.1455,-4.46569,-4.3141,0.364948,-5.82508,6.35524,1.52822,-2.82081,2.5899,-1.19271e-15,-4.77083e-15,-45.2421,-23.5137,-58.0593,16.4994,3.266,-15.1943,-28.2269,7.12502,10.9773,-57.9199,-1.19271e-15,-4.77083e-15,-38.4893,20.2367,73.5254,25.2785,2.12366,-19.1811,-8.39784,7.12502,7.13031,21.462,-14.9545,-2.92967,16.1798,36.9813,-20.2909,-18.8988,7.46303,-12.9548,4.11992,-19.9861,29.9956,-19.864,-4.69653,-12.2297
17.923,17.8373,15.2448,5.49488,-85.2495,-1.63525,7.02267,0.417085,0.241428,2.44943,0.540972,4.08056,-1.44545,0.213896,4.04045,-6.023,-4.54764,-4.18252,0.398438,-5.95148,6.41815,1.52209,-2.88413,2.58368,3.37934e-15,4.45278e-14,-45.3331,-24.3365,-57.4518,16.2421,4.06518,-15.8043,-28.3098,7.12502,10.3889,-58.0331,3.37934e-15,4.45278e-14,-38.6699,20.6721,73.0864,24.7243,1.63987,-19.5347,-7.7735,7.12502,6.78896,22.0977,-14.9603,-2.73031,16.3058,36.9487,-20.0663,-18.955,6.76045,-12.9535,4.10804,-19.8949,30.0486,-19.8866,-4.3581,-12.577
17.9415,17.8375,15.2773,6.55979,-85.5393,-2.71267,7.13554,0.374463,0.363957,2.39947,0.497222,4.02339,-1.55525,0.194019,3.91492,-5.8586,-4.4548,-3.94389,0.242588,-5.8326,6.10181,1.41315,-2.83329,2.4433,-1.98785e-16,4.77083e-14,-45.3142,-25.3523,-56.6562,15.8411,5.24921,-16.3866,-28.665,7.12502,9.82718,-58.4157,-1.98785e-16,4.77083e-14,-38.8158,21.2917,72.5596,23.9189,1.0484,-19.2232,-7.56927,7.12502,7.08969,22.292,-15.0296,-2.42881,16.2646,36.8742,-20.0297,-18.9226,6.59834,-12.9844,3.8944,-19.9755,30.0844,-19.7885,-3.77186,-12.8959
17.9564,17.8393,15.3102,5.58195,-85.7713,-1.65517,7.11781,0.299896,0.15892,2.36281,0.385934,4.09428,-1.57768,0.138483,4.11495,-5.97463,-4.26708,-4.03153,0.33077,-5.56122,5.67617,1.43373,-2.7015,2.32613,-4.37326e-15,-3.81667e-14,-45.1402,-26.5145,-55.4958,15.3717,6.7082,-16.6769,-28.7918,7.12502,9.54712,-58.5555,-4.37326e-15,-3.81667e-14,-38.9457,22.5127,72.0198,22.9237,-0.0695655,-18.6477,-7.83702,7.12502,7.64519,22.0048,-15.1684,-2.44529,16.0256,36.7739,-19.8738,-18.7012,6.01317,-13.0898,3.71706,-20.234,30.1027,-19.6183,-3.36733,-12.7274
17.9688,17.8441,15.3384,6.46735,-85.9724,-2.49676,7.0645,0.201989,0.0604829,2.35248,0.24766,4.19231,-1.54962,0.0679922,4.28506,-6.02134,-4.37004,-3.5614,0.520894,-5.73848,5.66435,1.49459,-2.78642,2.22869,1.96797e-14,2.70347e-14,-45.3096,-28.3457,-53.8316,15.1016,9.38255,-16.5504,-28.8475,7.12502,9.6691,-58.6056,1.96797e-14,2.70347e-14,-39.0698,23.6383,71.4648,22.0123,-1.38549,-18.3506,-8.0165,7.12502,7.93197,21.8147,-15.2365,-2.41639,15.9583,36.6381,-19.6745,-18.5555,5.36697,-13.1563,3.57727,-20.3204,30.1285,-19.5749,-2.87807,-13.2844
17.9837,17.8481,15.3662,9.79961,-86.3858,-5.82739,7.16186,0.19581,0.166288,2.26456,0.252978,4.18726,-1.6945,0.0731732,4.22002,-6.16559,-4.59073,-4.57547,0.724674,-6.00073,6.73863,1.68651,-2.89897,2.75757,1.03368e-14,-7.95139e-15,-46.3196,-31.9065,-50.617,14.4218,13.8697,-16.4357,-28.6751,7.12502,9.77984,-58.428,1.03368e-14,-7.95139e-15,-39.1936,24.103,70.9379,21.1336,-2.41202,-18.0802,-7.82968,7.12502,8.19292,21.9915,-15.2945,-1.96538,16.0511,36.4876,-19.5188,-18.5774,5.06228,-13.1623,3.34999,-20.256,30.1514,-19.4495,-2.28126,-13.3268
17.9996,17.8506,15.3971,18.7574,-86.8563,-14.797,7.26609,0.223796,0.4953,2.18769,0.317346,4.29323,-1.8352,0.104982,4.13941,-5.97983,-4.51178,-4.57149,0.662171,-5.90093,6.79415,1.62893,-2.85213,2.78354,-1.98785e-16,-4.77083e-14,-45.2434,-30.1722,-52.4465,14.7208,10.41,-17.8093,-29.145,7.12502,8.45439,-58.9558,-1.98785e-16,-4.77083e-14,-39.342,24.8592,70.3963,20.2385,-3.71446,-17.6481,-7.43609,7.12502,8.60994,22.3684,-15.3683,-1.35363,16.4113,36.3466,-19.3885,-18.5927,5.16059,-13.1537,3.15846,-19.9224,30.1755,-19.2847,-1.7288,-12.434
18.0154,17.85,15.4248,24.5829,-87.2508,-20.6861,7.31288,0.270603,0.518311,2.22185,0.37883,4.38164,-1.83046,0.133301,4.21371,-5.91044,-4.42426,-4.54678,0.586068,-5.77847,6.63176,1.57629,-2.79539,2.73088,7.15625e-15,-7.95139e-15,-45.3384,-32.1321,-51.0554,14.4646,11.3902,-18.999,-29.1926,7.12502,7.30613,-59.0465,7.15625e-15,-7.95139e-15,-39.35,25.8851,69.9547,19.391,-5.44681,-17.1505,-6.91277,7.12502,9.09011,22.8713,-15.3805,-0.856719,16.4822,36.2519,-19.4223,-18.4876,6.01667,-13.0807,3.17018,-19.8728,30.1865,-19.2025,-1.23105,-12.141
18.0334,17.8478,15.4509,24.2982,-87.7021,-20.4343,7.33789,0.386444,0.222863,2.2969,0.509423,4.33504,-1.77813,0.198058,4.32105,-6.03247,-4.48983,-4.40817,0.472309,-5.86068,6.41717,1.55135,-2.83876,2.628,5.36719e-15,2.38542e-14,-45.3338,-33.9166,-50.0208,14.6386,12.2472,-18.4914,-30.7724,7.12502,7.79604,-60.6087,5.36719e-15,2.38542e-14,-39.0352,26.6598,69.6917,18.4529,-7.31233,-16.464,-6.46897,7.12502,9.75247,23.2852,-15.4457,-0.664341,16.1638,36.2122,-19.4177,-18.1808,6.80898,-13.0157,2.99161,-20.2074,30.1614,-19.0261,-0.550222,-12.2786
18.0505,17.8497,15.4753,24.9326,-88.1041,-21.0491,7.2948,0.442962,-0.040083,2.36573,0.562458,4.25256,-1.68874,0.224036,4.37921,-6.15919,-4.54077,-4.16849,0.31536,-5.93576,6.34608,1.51474,-2.87712,2.55551,-4.77083e-15,0,-45.0217,-34.6654,-49.9726,14.8268,12.9244,-17.79,-31.5491,7.12502,8.47302,-61.3591,-4.77083e-15,0,-38.6696,27.5189,69.2144,17.4281,-9.2925,-15.7541,-6.41778,7.12502,10.4374,23.3031,-15.6938,-0.565839,15.9006,36.4695,-19.4477,-17.8424,6.77334,-12.9101,2.8354,-20.4606,29.8879,-18.7319,-0.256563,-11.58
18.0647,17.854,15.497,24.4082,-88.4615,-20.43,7.18482,0.398767,-0.273161,2.35793,0.487632,4.12589,-1.6309,0.18848,4.38532,-6.11218,-4.44058,-4.17958,0.20145,-5.80859,6.61747,1.47412,-2.81245,2.65512,-2.38542e-15,-1.90833e-14,-44.7721,-35.6556,-49.812,14.8101,13.6089,-17.7725,-31.8693,7.12502,8.48989,-61.6786,-2.38542e-15,-1.90833e-14,-38.4821,28.2205,68.6451,16.6202,-11.0338,-15.0519,-6.22587,7.12502,11.1147,23.4598,-15.8492,-0.617398,15.6239,36.3282,-19.2681,-17.4082,6.58866,-13.0832,3.03206,-20.7108,29.97,-18.67,-0.362399,-10.5709
18.1023,17.8439,15.582,-60.9677,-88.0046,65.51,7.00537,0.415091,-1.72114,2.11716,0.429695,3.18908,-1.7787,0.181599,4.23341,-6.18877,-4.36425,-4.28515,0.339992,-5.70715,6.74771,1.5364,-2.75733,2.7207,7.95139e-16,-6.36111e-15,-44.109,-35.8989,-50.4834,14.8622,13.4156,-18.722,-32.775,7.12502,7.57347,-62.6194,7.95139e-16,-6.36111e-15,-38.2536,28.2817,68.6291,16.1151,-12.6484,-14.3846,-5.39844,7.12502,11.7583,24.2515,-16.7622,-2.28532,12.5719,36.3294,-18.6847,-15.5103,5.44768,-13.7049,3.14813,-23.7113,29.9941,-18.4475,0.0451308,-10.1352
18.0823,17.8591,15.516,-93.1152,-91.903,96.7549,7.42259,0.582456,0.521668,2.48082,0.775768,4.44275,-1.652,0.322459,4.24041,-6.42371,-4.33428,-4.17677,0.611403,-5.67435,6.5876,1.6541,-2.73603,2.64335,-5.36719e-15,-3.10104e-14,-43.2149,-36.0344,-51.323,14.9984,13.2405,-18.9768,-33.5505,7.12502,7.32754,-63.4037,-5.36719e-15,-3.10104e-14,-37.9319,28.0169,69.0349,15.8161,-14.1856,-13.7696,-4.31741,7.12502,12.3512,25.2977,-15.5757,0.490201,17.0092,35.8896,-19.0647,-17.2882,5.96924,-12.8568,3.60462,-19.3149,30.3384,-18.6684,0.250812,-10.0094
18.096,17.8622,15.5386,-72.5699,-91.7827,76.4155,7.28794,0.642646,0.244367,2.37584,0.842476,4.32879,-1.69295,0.360763,4.27278,-6.52382,-4.33527,-4.18201,0.828434,-5.68749,6.72244,1.74978,-2.73615,2.68688,-4.17448e-15,-1.59028e-15,-41.8002,-34.6496,-53.4094,15.3484,11.8262,-19.2774,-33.7284,7.12502,7.03738,-63.5914,-4.17448e-15,-1.59028e-15,-37.7909,28.1186,69.0664,15.5365,-15.6377,-12.8158,-3.41415,7.12502,13.2708,26.1434,-15.8288,0.834307,16.728,35.5832,-18.6925,-17.0985,5.51573,-13.2276,3.78503,-19.6261,30.6943,-18.8249,0.682724,-10.5163
18.1095,17.8666,15.5584,-67.7322,-92.5721,71.8909,7.02546,0.569637,0.809437,2.24127,0.780471,4.51647,-1.67631,0.328214,4.15455,-6.56354,-4.32918,-4.5335,1.03963,-5.67484,7.09599,1.85527,-2.72156,2.87814,-1.98785e-16,-1.59028e-14,-41.4711,-35.8113,-52.8088,15.2574,11.0008,-18.0412,-32.8541,7.12502,8.23059,-62.6738,-1.98785e-16,-1.59028e-14,-37.6216,28.1379,69.1926,15.214,-16.6497,-11.9507,-3.17804,7.12502,14.1046,26.3233,-15.9857,0.980283,17.4482,34.9376,-18.1449,-16.9922,5.05338,-13.9086,4.20301,-18.9458,31.3188,-19.0557,0.883121,-11.1075
18.1237,17.8676,15.5802,-68.4517,-93.631,72.7762,6.86596,0.456593,1.6677,2.20545,0.673087,4.82718,-1.6102,0.266895,4.00287,-6.53386,-4.30831,-4.74689,1.01123,-5.63083,7.14283,1.84808,-2.70065,2.9365,1.51076e-14,7.71285e-14,-39.5946,-33.7718,-55.5521,15.8791,8.91432,-19.2463,-34.7597,7.12502,7.06737,-64.6217,1.51076e-14,7.71285e-14,-37.2483,27.4548,69.8841,15.165,-16.6989,-10.9393,-3.61277,7.12502,15.0789,25.818,-16.1982,0.866223,18.5016,34.7805,-17.6762,-16.8481,4.2756,-14.2352,4.4789,-17.9043,31.5384,-19.0715,0.96655,-10.8234
18.1407,17.8676,15.6076,-63.0779,-93.844,67.2979,7.05546,0.456607,1.6727,2.20126,0.681243,4.79435,-1.71999,0.271065,3.96489,-6.2556,-4.35145,-4.69525,0.739746,-5.68866,7.1207,1.70942,-2.73783,2.92162,-1.98785e-16,2.54444e-14,-39.375,-35.0762,-55.4681,16.1589,9.81669,-21.591,-34.2852,7.12502,4.80368,-64.2108,-1.98785e-16,2.54444e-14,-36.7444,26.1068,70.8054,15.4423,-15.9431,-9.14348,-3.42614,7.12502,16.8083,25.8664,-16.2004,0.617083,18.4614,34.6929,-17.2915,-16.3735,3.87248,-14.1933,4.456,-17.9346,31.6907,-19.0798,1.33858,-10.84
18.163,17.8686,15.6316,-49.5767,-93.5267,53.6456,7.42118,0.561737,0.891775,2.14083,0.792359,4.46337,-1.99909,0.336448,4.05046,-5.81807,-4.36212,-4.78435,0.545575,-5.71697,7.50343,1.58885,-2.75698,3.0755,3.37934e-15,1.59028e-15,-39.1329,-35.614,-55.5498,16.5289,7.45459,-22.9981,-32.4607,7.12502,3.44498,-62.4126,3.37934e-15,1.59028e-15,-36.2163,24.6173,71.6168,15.7635,-15.0989,-7.16799,-2.74811,7.12502,18.7092,26.3722,-16.291,0.522714,17.545,34.7422,-17.2165,-15.6709,3.93034,-14.0371,4.52039,-18.8361,31.6933,-19.0282,1.85399,-10.8851
18.1817,17.8681,15.6496,-39.0282,-93.7084,43.0538,7.62168,0.65121,0.468284,2.09592,0.892147,4.23647,-2.16664,0.392922,4.04315,-5.55709,-4.36379,-5.26479,0.515269,-5.72752,8.36199,1.58802,-2.75832,3.46697,-2.38542e-15,-3.49861e-14,-37.4837,-33.3059,-58.4394,17.4117,3.81732,-24.0493,-32.8473,7.12502,2.42974,-62.8132,-2.38542e-15,-3.49861e-14,-35.6691,23.559,72.2746,15.9708,-14.8541,-5.90839,-2.71085,7.12502,19.9204,26.2882,-16.5424,0.494584,17.1039,34.8967,-17.1451,-15.1439,3.50893,-13.9329,4.65497,-19.2755,31.5536,-18.8859,2.29345,-10.6191
18.1893,17.8662,15.6676,-31.1251,-93.9975,35.0871,7.55477,0.70897,0.0536637,2.19674,0.932329,4.14082,-2.03304,0.413227,4.17486,-5.44984,-4.44651,-5.90589,0.381565,-5.82555,9.19239,1.59375,-2.80373,3.8803,-7.7526e-15,-3.18055e-15,-35.8171,-31.6967,-60.5882,18.0806,1.48619,-21.6294,-31.8614,7.12502,4.76661,-61.7878,-7.7526e-15,-3.18055e-15,-35.0559,22.8217,73.1168,16.1922,-14.7774,-5.56998,-2.56594,7.12502,20.2457,26.3989,-16.7073,0.425986,16.745,35.067,-17.0508,-14.7195,2.6899,-13.7502,4.83877,-19.6397,31.3694,-18.776,2.6081,-10.738
18.1955,17.8664,15.68,-24.5033,-94.3848,28.429,7.36648,0.716383,-0.505888,2.32333,0.893337,4.11427,-1.80275,0.391289,4.46979,-5.50719,-4.693,-6.23108,0.306765,-6.13907,9.47286,1.63221,-2.95762,4.02828,-1.41137e-14,-7.15625e-15,-34.2217,-29.7001,-62.7434,19.0751,-0.446136,-17.8069,-30.1917,7.12502,8.45667,-60.0024,-1.41137e-14,-7.15625e-15,-34.5635,22.3994,73.8042,16.4728,-14.7761,-5.22363,-2.38028,7.12502,20.5785,26.549,-16.8791,0.448835,16.429,35.1954,-16.9656,-14.2981,2.08582,-13.6073,5.17559,-19.9509,31.2193,-18.7335,2.81512,-10.7717
18.2047,17.8692,15.6877,-20.6179,-94.7891,24.558,7.24946,0.689726,-0.925131,2.36453,0.826667,4.06182,-1.69467,0.357445,4.66003,-5.81604,-5.17999,-6.45772,0.567825,-6.78675,9.64321,1.85057,-3.26831,4.09453,-7.35503e-15,-1.43125e-14,-33.1002,-27.756,-64.7537,20.3516,-1.27466,-18.4907,-34.2129,7.12502,7.79674,-64.0491,-7.35503e-15,-1.43125e-14,-34.0511,21.847,74.3694,16.6734,-14.7072,-4.63606,-2.92842,7.12502,21.1431,25.9387,-17.0874,0.583927,16.2538,35.2709,-17.0077,-13.8844,2.51489,-13.5768,5.75913,-20.0979,31.1098,-18.6934,2.68336,-10.149
18.2138,17.8663,15.7036,-16.3125,-95.0122,20.1166,7.42637,0.664996,-1.26211,2.34224,0.773806,3.90066,-1.81346,0.335557,4.68725,-5.96937,-5.67694,-6.81399,0.985502,-7.47033,10.3847,1.92325,-3.57526,3.93392,2.5842e-15,-3.18055e-15,-32.5136,-26.7721,-66.0316,21.4629,-1.29552,-14.0234,-36.3152,7.12502,12.1065,-65.9449,2.5842e-15,-3.18055e-15,-33.4989,20.1264,75.4602,17.1101,-13.373,-4.71643,-3.28889,7.12502,21.0658,25.5869,-17.0669,0.666927,15.8626,35.2836,-17.0697,-13.538,3.1196,-13.4311,6.37724,-20.4406,31.0627,-18.6822,2.33916,-9.25341
18.227,17.8613,15.7224,-15.6545,-95.3756,19.2459,7.86919,0.668534,-1.25727,2.22647,0.785304,3.78925,-2.17869,0.349603,4.56559,-5.73636,-6.12658,-7.20018,1.1772,-8.10351,10.989,2.0401,-3.88461,4.14744,-6.16232e-15,0,-32.1922,-25.9062,-67.141,22.5073,-2.06273,-13.6769,-34.0843,7.12502,12.4407,-63.6941,-6.16232e-15,0,-33.2023,19.0665,76.0179,17.4687,-12.8577,-5.35197,-3.42876,7.12502,20.4552,25.5138,-16.9259,0.782277,15.8435,35.2443,-16.9304,-13.3665,3.00121,-13.2287,6.77536,-20.4333,31.1052,-18.7068,2.36915,-9.46607
18.2455,17.8679,15.7336,-18.6338,-96.0852,22.3725,7.91872,0.747427,-1.04639,2.10585,0.912285,3.9031,-2.34105,0.415639,4.5523,-5.47984,-6.66284,-7.47406,1.1397,-8.8409,11.4287,2.0886,-4.25346,4.28976,5.56597e-15,1.74931e-14,-31.6473,-24.2074,-68.683,23.7225,-4.15201,-14.716,-32.485,7.12502,11.4386,-62.153,5.56597e-15,1.74931e-14,-32.7874,19.8087,75.8422,17.2849,-14.2872,-5.94102,-3.90118,7.12502,19.889,25.1011,-17.1958,1.21655,16.4194,35.1742,-16.7474,-13.3531,2.67023,-13.4536,6.96977,-19.8981,31.2345,-18.6809,2.81245,-10.3039
18.2638,17.869,15.7406,-20.9642,-96.7685,24.6819,7.97059,0.791488,-0.970875,2.17584,0.971916,4.11536,-2.30497,0.439793,4.72648,-5.4606,-7.2433,-7.87912,1.08309,-9.60934,11.7735,2.17967,-4.63278,4.41242,7.95139e-15,2.38542e-14,-30.7622,-21.7237,-70.4335,25.0185,-7.39103,-15.9628,-30.6958,7.12502,10.2361,-60.4268,7.95139e-15,2.38542e-14,-32.1667,19.7528,76.3719,17.3844,-14.482,-6.59064,-4.22125,7.12502,19.2645,24.8446,-17.2924,1.49381,16.9672,35.1213,-16.6677,-13.1508,2.5593,-13.5074,6.95019,-19.3723,31.4113,-18.6042,3.31778,-10.2829
18.2768,17.8637,15.7506,-21.2687,-97.0969,24.9026,8.07135,0.701243,-1.04429,2.18858,0.8452,4.15596,-2.33796,0.37602,4.82389,-5.30644,-7.77166,-8.25958,1.08974,-10.324,12.1125,2.26601,-4.98824,4.53341,-9.34288e-15,-1.82882e-14,-30.1442,-20.5104,-71.2468,26.4004,-5.75404,-11.6636,-33.2965,7.12502,14.3812,-62.7783,-9.34288e-15,-1.82882e-14,-31.7084,18.5229,77.2545,17.9185,-13.2224,-7.30343,-4.3604,7.12502,18.579,24.7724,-17.3195,1.10155,17.1337,35.1524,-16.5297,-12.6529,1.59099,-13.4954,7.00133,-19.2366,31.5227,-18.5539,3.54426,-10.0067
18.2884,17.8557,15.7633,-18.221,-97.2006,21.8426,8.11856,0.573182,-1.49139,2.11048,0.644874,3.97289,-2.42927,0.284173,4.90709,-4.86869,-8.26676,-8.48321,0.94646,-11.0089,12.389,2.25121,-5.34201,4.62528,-4.57205e-15,-2.46493e-14,-29.5748,-17.3933,-73.2018,27.7849,-9.23412,-13.0193,-31.866,7.12502,13.0746,-61.4361,-4.57205e-15,-2.46493e-14,-31.3792,17.3913,77.8534,18.5265,-12.0549,-8.12625,-4.36486,7.12502,17.7874,24.8416,-17.4037,0.551054,16.782,35.1403,-16.2081,-12.3391,-0.987101,-13.6379,7.1633,-19.6455,31.726,-18.6392,3.65593,-9.95895
18.2983,17.8463,15.7804,-12.6817,-97.2497,16.1804,8.23745,0.486582,-2.20998,2.06439,0.473979,3.65734,-2.52923,0.209608,5.00351,-4.34042,-8.85866,-8.65548,0.656066,-11.8267,12.724,2.19672,-5.76797,4.72447,-8.64713e-15,-5.56597e-15,-29.149,-15.0748,-74.7078,29.2554,-10.7899,-12.8964,-31.4272,7.12502,13.1931,-60.9897,-8.64713e-15,-5.56597e-15,-31.0156,16.5528,78.3004,19.0953,-11.264,-9.29408,-4.40819,7.12502,16.6633,24.8966,-17.4076,0.222099,15.9913,35.1268,-16.0057,-12.0648,-2.16043,-13.6248,7.02607,-20.4529,31.9191,-18.7185,4.09454,-10.0908
18.32,17.8476,15.791,-20.2552,-97.8937,24.105,8.25125,0.406291,-1.14366,1.83424,0.463737,3.89203,-2.7687,0.203612,4.64371,-3.79703,-9.49623,-8.96176,0.477819,-12.7237,13.2499,2.20779,-6.23072,4.89331,9.93923e-17,-3.4191e-14,-28.9649,-13.3825,-75.7714,30.726,-11.346,-13.4535,-29.2916,7.12502,12.6561,-58.8882,9.93923e-17,-3.4191e-14,-30.5592,16.2115,78.5384,19.2483,-11.1161,-10.6118,-4.98748,7.12502,15.3944,24.4194,-17.8257,0.625815,17.3193,35.0498,-15.8865,-12.1683,-1.73419,-14.1174,6.89015,-19.1812,32.1441,-18.6503,4.55891,-10.5235
18.3349,17.8477,15.7994,-22.238,-98.5081,26.2654,8.23072,0.430064,-0.847495,1.72649,0.52482,4.01441,-2.8731,0.233941,4.59761,-3.42079,-10.088,-9.55253,0.539924,-13.5712,13.944,2.35105,-6.65737,5.14184,-1.88845e-15,-4.45278e-14,-28.7889,-11.6707,-76.5968,32.2508,-11.3604,-14.7071,-26.6848,7.12502,11.4472,-56.3523,-1.88845e-15,-4.45278e-14,-30.2418,14.472,79.5025,20.2031,-9.46027,-11.7567,-5.23128,7.12502,14.2914,24.2569,-18.1007,0.933484,17.8909,35.0289,-15.822,-12.0607,-1.98245,-14.3615,7.06963,-18.6446,32.2682,-18.6117,4.78442,-10.4683
18.3446,17.8477,15.8133,-20.785,-98.8686,24.7223,8.22913,0.477698,-1.09444,1.83654,0.561828,3.95378,-2.76297,0.250963,4.67017,-3.00688,-10.7289,-9.86715,0.175773,-14.4478,14.3969,2.33799,-7.11251,5.28397,1.799e-14,-1.98785e-14,-28.4275,-10.2884,-77.2925,33.7663,-10.8345,-14.6986,-25.4153,7.12502,11.4554,-55.0823,1.799e-14,-1.98785e-14,-29.4294,13.5726,80.2834,20.5323,-8.15432,-12.9929,-5.69553,7.12502,13.1,23.873,-18.0884,0.975657,17.7685,34.9832,-15.7761,-11.6665,-2.16968,-14.3165,7.30886,-18.7675,32.3957,-18.6363,4.91258,-10.0213
18.3512,17.8451,15.8256,-18.0151,-99.1055,21.7262,8.29743,0.467339,-1.66479,1.95476,0.495307,3.80381,-2.67561,0.219422,4.84472,-2.44973,-11.4384,-10.0294,-0.366936,-15.4128,14.7673,2.24782,-7.62336,5.38365,-2.88238e-15,1.07344e-14,-28.1317,-9.12058,-77.9269,35.2591,-10.0157,-13.6082,-25.0418,7.12502,12.5069,-54.6475,-2.88238e-15,1.07344e-14,-28.7728,12.5964,80.9862,21.0745,-6.50258,-14.4362,-5.42091,7.12502,11.7085,24.2319,-17.9746,0.966663,17.3395,35.0228,-15.7781,-11.2507,-1.89073,-14.0528,7.66007,-19.1799,32.3927,-18.6811,5.13601,-10.4477
18.3546,17.8465,15.8245,-16.4109,-99.3969,20.0147,8.2561,0.443367,-2.18573,1.98727,0.41968,3.68937,-2.61409,0.184881,5.02962,-1.9168,-12.0775,-10.3728,-0.502028,-16.3417,15.4444,2.32512,-8.10621,5.58699,-1.88845e-15,-1.63003e-14,-27.9437,-8.01216,-78.5394,36.7589,-9.10149,-11.1446,-24.8142,7.12502,14.8812,-54.2597,-1.88845e-15,-1.63003e-14,-28.3922,11.7935,81.3424,21.8398,-5.63837,-15.7799,-4.72911,7.12502,10.4125,24.9931,-17.9403,1.2871,17.163,35.0224,-15.727,-11.2344,-0.717997,-13.9364,8.05906,-19.3477,32.4208,-18.7587,5.19641,-10.6878
18.36,17.8501,15.8195,-17.8558,-99.6124,21.2214,8.4271,0.391606,-2.21081,2.0924,0.340777,3.62113,-2.59154,0.142023,4.98074,-1.47058,-12.6446,-10.4283,-0.613631,-17.179,16.047,2.38917,-8.54332,5.72612,-2.21645e-14,-2.42517e-14,-27.6998,-7.21885,-79.1551,38.313,-7.82114,-6.4036,-24.8354,7.12502,19.4443,-53.8832,-2.21645e-14,-2.42517e-14,-27.755,11.3958,81.2924,22.2139,-5.32737,-16.3533,-5.17142,7.12502,9.85935,24.5777,-17.7182,1.67255,17.4888,35.0584,-15.6866,-11.5401,0.254719,-13.6816,8.05479,-19.0022,32.4249,-18.6937,5.18518,-10.1909
18.3709,17.8487,15.8046,-21.3382,-100.01,24.5292,8.63242,0.317848,-1.98079,2.18896,0.254199,3.73222,-2.59606,0.0923612,4.97658,-1.07365,-13.2578,-10.4164,-0.862434,-18.0453,16.4327,2.40225,-8.99771,5.78877,9.64106e-15,-5.56597e-15,-27.4806,-6.25869,-79.7489,39.9844,-6.45354,-2.85006,-24.669,7.12502,22.8579,-53.3344,9.64106e-15,-5.56597e-15,-27.0932,11.1915,81.2237,22.5391,-4.44192,-16.5968,-6.17414,7.12502,9.62434,23.586,-17.5334,2.20723,18.367,35.0729,-15.4828,-12.2073,-0.485202,-13.5009,8.07438,-18.1477,32.4664,-18.6213,5.23029,-10.1068
18.3874,17.8418,15.8301,-17.363,-99.8014,20.6456,8.6942,0.100697,-2.53446,2.08862,-0.0797613,3.38516,-2.69996,-0.0621916,4.96467,-0.520814,-13.7618,-10.684,-1.1587,-18.7718,16.9341,2.39919,-9.39095,5.94803,-2.33572e-15,3.57812e-15,-27.3856,-4.97693,-80.3225,41.7467,-5.2782,-1.69985,-24.3276,7.12502,23.9612,-52.8524,-2.33572e-15,3.57812e-15,-26.6367,11.0142,81.2772,23.1105,-2.82605,-17.164,-6.62894,7.12502,9.07707,23.1557,-17.8402,1.47262,17.5435,35.1693,-15.2522,-11.7591,-1.51449,-13.688,8.04368,-19.0385,32.4567,-18.589,5.3448,-10.2908
18.393,17.8389,15.8418,-15.3343,-99.9716,18.6596,8.61855,-0.0797645,-2.87106,2.04278,-0.347663,3.17274,-2.67644,-0.190717,4.96139,0.205149,-14.1056,-11.0591,-1.46982,-19.3079,17.6129,2.3729,-9.70099,6.20503,1.74434e-14,1.82882e-14,-27.2602,-3.75717,-80.877,43.4346,-4.03537,-0.866714,-24.9229,7.12502,24.76,-53.3403,1.74434e-14,1.82882e-14,-26.2768,9.90018,81.5347,23.8165,-0.722312,-18.0705,-6.50971,7.12502,8.20231,23.3111,-18.0689,1.29656,17.2098,35.298,-15.1558,-11.4595,-1.61829,-13.7318,8.12996,-19.4042,32.422,-18.5115,5.53988,-10.4322
18.3952,17.8382,15.8497,-14.177,-100.18,17.5062,8.50145,-0.1846,-3.13736,2.04667,-0.50929,2.99871,-2.58906,-0.270171,4.94524,0.854883,-14.5887,-11.0967,-1.85018,-19.9985,17.9706,2.297,-10.088,6.3059,2.03257e-14,-1.78906e-15,-27.098,-2.85685,-81.337,44.9168,-3.28221,-1.41832,-24.556,7.12502,24.2312,-53.045,2.03257e-14,-1.78906e-15,-25.8953,7.77721,82.0591,24.5916,1.4175,-19.4044,-5.8753,7.12502,6.91482,23.9918,-18.2563,1.34308,17.041,35.4871,-15.1334,-11.4288,-1.88785,-13.6896,8.21799,-19.6017,32.3107,-18.3671,5.65738,-10.0965
18.4009,17.8353,15.8561,-13.2209,-100.331,16.4626,8.53694,-0.228833,-3.46895,2.07571,-0.599688,2.88218,-2.56622,-0.314008,5.02166,1.24908,-14.9064,-10.5538,-2.06954,-20.4057,17.6099,2.12919,-10.3157,6.13389,-5.1684e-15,4.57205e-15,-27.0544,-2.18941,-81.5604,46.5188,-2.50736,-0.797619,-23.8749,7.12502,24.8262,-52.2832,-5.1684e-15,4.57205e-15,-25.4067,7.09789,82.3285,25.177,2.17394,-20.3115,-5.62289,7.12502,6.0391,24.271,-18.3065,1.34395,16.8805,35.5969,-15.1397,-11.3736,-1.78158,-13.5867,8.187,-19.7788,32.2681,-18.2391,5.80372,-9.46265
18.406,17.8354,15.8617,-12.7302,-100.473,15.8857,8.58725,-0.289147,-3.75454,2.11401,-0.707216,2.88925,-2.53821,-0.36824,5.20406,1.79341,-15.3057,-11.1949,-2.24801,-21.0201,18.2473,2.21627,-10.6515,6.38236,8.94531e-16,2.06736e-14,-27.0584,-1.31962,-81.5423,48.242,-1.67613,-0.275885,-22.9727,7.12502,25.3261,-51.3112,8.94531e-16,2.06736e-14,-24.7563,8.30343,82.3077,25.4057,1.39903,-20.5218,-6.02618,7.12502,5.83601,23.8734,-18.3105,1.36824,16.7963,35.6707,-15.1762,-11.3324,-1.0998,-13.505,8.17387,-19.8664,32.2751,-18.2073,5.92046,-9.0304
18.4108,17.8379,15.87,-11.9673,-100.525,15.0912,8.60007,-0.381128,-4.00905,2.14162,-0.852868,2.88769,-2.49531,-0.441731,5.36297,2.14606,-15.7736,-11.8275,-2.30712,-21.7238,18.7204,2.36983,-11.0169,6.54688,-7.03201e-15,-3.37934e-15,-26.9913,-0.335021,-81.4198,49.8765,-1.13273,-2.57782,-22.2709,7.12502,23.1191,-50.9038,-7.03201e-15,-3.37934e-15,-24.0602,8.9318,82.4624,25.6183,1.20506,-20.6984,-6.36416,7.12502,5.66559,23.5401,-18.3606,1.29802,16.637,35.7382,-15.1812,-11.2869,-0.600437,-13.5098,8.17356,-20.0437,32.2769,-18.2482,5.88198,-8.64318
18.4165,17.8338,15.8713,-11.5133,-100.755,14.6244,8.56737,-0.388145,-4.22769,2.19287,-0.882296,2.81426,-2.41777,-0.458832,5.41208,2.31685,-16.2535,-11.9336,-2.36192,-22.409,18.9503,2.46889,-11.3679,6.55973,-3.90115e-15,5.56597e-15,-26.9313,0.164694,-81.4379,51.4946,-0.792414,1.32077,-21.1381,7.12502,26.8548,-49.2509,-3.90115e-15,5.56597e-15,-23.3541,8.45823,82.6214,26.0095,1.75958,-20.5348,-6.30325,7.12502,5.82353,23.5967,-18.4576,1.35024,16.6114,35.8178,-15.2006,-11.1372,0.0569359,-13.4788,8.21296,-20.0883,32.2275,-18.2213,5.99774,-8.57139
18.4207,17.8353,15.8668,-11.636,-101.165,14.7061,8.53712,-0.378705,-4.44625,2.24451,-0.889843,2.73661,-2.34387,-0.465208,5.4545,2.62237,-16.5619,-11.7226,-2.52588,-22.8459,19.1021,2.43248,-11.6103,6.55997,4.21051e-14,-7.40473e-15,-26.9207,0.326895,-81.5842,53.0074,-0.383701,1.71942,-20.8975,7.12502,27.2362,-48.9511,4.21051e-14,-7.40473e-15,-22.6771,8.32465,82.5588,26.3391,1.74122,-20.2403,-5.87511,7.12502,6.10785,24.0168,-18.5455,1.74162,16.7344,35.9206,-15.335,-11.0777,1.38435,-13.3394,8.49077,-19.9394,32.1189,-18.0832,6.15277,-8.52624
18.4236,17.8455,15.868,-10.9548,-101.368,13.9133,8.62494,-0.48558,-4.82377,2.23993,-1.06949,2.64248,-2.36862,-0.552099,5.59138,3.18166,-16.7388,-11.8372,-2.75849,-23.1359,19.4517,2.37674,-11.7948,6.69899,3.76759e-15,3.926e-15,-26.8602,0.846014,-81.658,54.3256,-0.206671,-7.27785,-21.8699,7.12502,18.6036,-51.0003,3.76759e-15,3.926e-15,-22.1352,8.38698,82.5237,26.6162,1.8862,-20.3361,-5.72809,7.12502,6.01533,24.1665,-18.5691,2.14172,16.5773,36.0395,-15.5586,-11.1314,2.86662,-13.1378,8.83344,-20.0361,31.9673,-17.9929,6.13025,-8.7841
18.4273,17.8482,15.8721,-9.69479,-101.435,12.4643,8.79942,-0.581884,-5.28511,2.24201,-1.24829,2.53721,-2.43106,-0.637317,5.76687,3.7472,-16.9883,-12.0708,-3.01207,-23.5262,19.8108,2.34625,-12.0285,6.84357,-9.13788e-15,1.73378e-14,-26.749,1.34641,-81.5055,55.5797,-0.0489681,-10.4899,-22.1108,7.12502,15.5119,-51.5086,-9.13788e-15,1.73378e-14,-21.6455,7.94654,82.6273,27.0087,2.52841,-20.4341,-5.9247,7.12502,5.92076,23.9726,-18.4934,2.3554,16.2555,36.1538,-15.695,-11.2009,3.60378,-12.8769,8.94778,-20.3188,31.8111,-18.0302,6.11923,-9.01084
18.4325,17.8465,15.8746,-9.27022,-101.553,11.9188,8.92973,-0.653632,-5.53737,2.24137,-1.37477,2.46403,-2.4818,-0.697564,5.85054,4.09904,-17.2422,-12.1075,-3.06534,-23.9077,19.9068,2.35037,-12.2382,6.86408,-2.71341e-14,3.26504e-14,-26.6482,1.6626,-81.2542,56.7882,0.078826,-10.8956,-21.9713,7.12502,15.121,-51.399,-2.71341e-14,3.26504e-14,-21.2018,7.2576,82.6931,27.4145,3.06849,-20.3921,-5.86586,7.12502,5.96129,24.0303,-18.4617,2.52184,16.1753,36.2611,-15.6779,-11.474,3.15246,-12.7047,9.12368,-20.3931,31.6883,-18.016,6.04069,-8.76898
18.4369,17.8458,15.88,-9.33692,-101.703,12.0101,8.95562,-0.760271,-5.57289,2.20854,-1.52252,2.37407,-2.51108,-0.768401,5.79215,4.25667,-17.4715,-12.0849,-2.95005,-24.2639,19.984,2.42177,-12.4216,6.84809,1.08089e-15,2.73329e-14,-26.6107,1.91736,-81.0624,58.0209,-0.0991702,-10.9642,-21.7082,7.12502,15.055,-51.1408,1.08089e-15,2.73329e-14,-20.8068,6.51771,82.6956,27.7706,3.62446,-20.5205,-5.4576,7.12502,5.8373,24.442,-18.5546,2.55918,16.2318,36.3421,-15.7313,-11.5834,2.86235,-12.7226,9.35739,-20.3499,31.643,-18.0077,5.94359,-8.67078
18.4425,17.8438,15.8888,-8.61453,-101.882,11.2633,9.0448,-0.840367,-5.74957,2.19675,-1.65209,2.28738,-2.55186,-0.830146,5.81787,4.34403,-17.6863,-12.3048,-2.84606,-24.6164,20.2249,2.55355,-12.5997,6.89534,-4.67144e-15,-1.26228e-14,-26.5695,2.08557,-80.7733,59.2467,-0.557552,-11.5841,-21.6729,7.12502,14.4578,-51.1493,-4.67144e-15,-1.26228e-14,-20.333,5.92061,82.8407,28.1613,4.16389,-20.4569,-5.03833,7.12502,5.89866,24.8596,-18.6007,2.44993,16.0874,36.3743,-15.8635,-11.2658,3.36916,-12.7222,9.23212,-20.5173,31.6688,-18.0575,6.10958,-8.54619
18.4488,17.8413,15.8978,-8.27456,-102.182,10.859,9.14726,-0.857536,-5.91349,2.23227,-1.69706,2.29785,-2.55967,-0.853475,5.93013,4.4333,-17.8519,-12.629,-2.80564,-24.8926,20.453,2.66713,-12.7397,6.962,2.95941e-14,-2.80286e-14,-26.4217,2.27404,-80.3027,60.4046,-1.23503,-11.332,-21.751,7.12502,14.7006,-51.2098,2.95941e-14,-2.80286e-14,-19.6354,5.57235,83.1232,28.4373,4.70682,-20.034,-5.33296,7.12502,6.30695,24.5531,-18.611,2.54911,16.0332,36.3604,-15.8616,-10.985,3.79695,-12.6943,8.99465,-20.6005,31.7469,-18.0324,6.59262,-8.60647
18.4493,17.8459,15.8898,-8.74392,-102.747,11.4654,8.91136,-0.784983,-6.07592,2.24201,-1.59886,2.40165,-2.42477,-0.809242,6.11506,4.69222,-18.0066,-12.7976,-3.0064,-25.1204,20.6385,2.651,-12.874,7.03555,-2.07233e-14,2.26615e-14,-26.3506,2.39574,-79.7461,61.5315,-1.89443,-8.34712,-21.4502,7.12502,17.5748,-50.6758,-2.07233e-14,2.26615e-14,-18.919,5.47528,83.3141,28.5163,4.7704,-19.7833,-5.95354,7.12502,6.54901,23.9252,-18.8164,3.07799,16.3228,36.3309,-15.7179,-11.0247,3.6225,-12.8096,9.32308,-20.336,31.8144,-18.0335,6.83996,-8.65515
18.4506,17.8482,15.9007,-9.40865,-103.082,12.2031,8.90225,-0.811946,-5.86419,2.19534,-1.61475,2.3933,-2.47282,-0.814332,5.98718,5.01559,-18.1194,-12.8173,-3.36069,-25.2638,20.7897,2.54303,-12.9772,7.11014,1.62506e-14,4.77083e-15,-26.3635,2.386,-79.2603,62.5827,-2.89785,-6.58362,-21.4921,7.12502,19.2712,-50.5572,1.62506e-14,4.77083e-15,-18.4363,5.04381,83.3736,28.6543,4.55198,-19.6886,-5.98714,7.12502,6.64046,23.8887,-18.9518,3.13588,16.5394,36.2948,-15.4961,-10.9296,3.16911,-12.8863,9.20458,-20.157,31.8843,-18.0357,7.18919,-8.30368
18.4508,17.8474,15.9083,-8.81494,-103.256,11.5581,8.97623,-0.849468,-5.97317,2.15714,-1.68162,2.24048,-2.54541,-0.842371,5.89762,5.18317,-18.1766,-12.6501,-3.46922,-25.3371,20.7953,2.47598,-13.0301,7.10776,1.2598e-14,-2.96189e-14,-26.3037,2.21061,-78.8208,63.5193,-3.97378,-6.76142,-21.8013,7.12502,19.1003,-50.8834,1.2598e-14,-2.96189e-14,-18.0088,4.22087,83.354,28.858,4.68705,-19.2662,-6.09746,7.12502,7.04815,23.7652,-18.9397,3.12386,16.3944,36.2693,-15.5139,-10.6966,3.47482,-12.8512,9.11921,-20.3163,31.9446,-18.0629,7.48173,-8.36731
18.4526,17.8472,15.9068,-7.78993,-103.914,10.6169,8.86315,-0.711497,-6.24979,2.06641,-1.51786,2.09381,-2.59742,-0.752644,5.88185,5.17615,-18.256,-12.3828,-3.22924,-25.4561,20.5627,2.49872,-13.0803,6.98939,-1.08338e-14,-1.43125e-14,-26.3154,1.94635,-78.261,64.4885,-4.55008,-7.33121,-22.1227,7.12502,18.5522,-51.258,-1.08338e-14,-1.43125e-14,-17.6497,3.42223,83.3495,29.13,4.82974,-19.0751,-6.34708,7.12502,7.23263,23.5093,-19.2003,3.528,16.2802,36.3029,-15.5727,-10.3759,3.75593,-12.9166,9.43452,-20.4582,31.9599,-18.0597,7.85797,-8.62553
18.4522,17.8431,15.9062,-8.12403,-104.204,10.8644,9.01904,-0.720336,-6.22841,2.02525,-1.5394,2.02715,-2.72642,-0.757173,5.80698,5.10341,-18.3533,-12.2571,-2.98418,-25.6082,20.4043,2.56716,-13.1427,6.89373,7.55382e-15,2.5842e-15,-26.2917,1.9109,-77.7601,65.537,-5.72877,-9.85793,-23.2189,7.12502,16.1205,-52.5684,7.55382e-15,2.5842e-15,-17.3326,2.62538,83.3875,29.4321,4.92467,-19.3465,-6.29509,7.12502,6.97064,23.5701,-19.1905,3.8166,16.4263,36.4053,-15.6142,-10.4037,3.69213,-12.7543,9.54992,-20.315,31.8992,-17.9876,8.05165,-8.84998
18.451,17.8387,15.9117,-7.51428,-104.373,10.1928,9.12317,-0.805919,-6.34369,2.01368,-1.67494,1.88225,-2.77762,-0.821569,5.73718,5.24877,-18.3713,-12.4104,-3.07601,-25.678,20.7593,2.59939,-13.1966,7.01512,4.87022e-14,1.15295e-14,-26.2819,2.128,-77.4686,66.5855,-8.02291,-13.2074,-24.5912,7.12502,12.8933,-54.1729,4.87022e-14,1.15295e-14,-16.8729,2.07189,83.3754,29.6718,4.92722,-19.2595,-6.18554,7.12502,7.05462,23.6769,-19.2713,3.71797,16.2641,36.5637,-15.6223,-10.0908,4.00878,-12.6299,9.68035,-20.4779,31.7872,-17.8849,8.22216,-9.05815
18.4485,17.8354,15.9199,-5.91659,-104.574,8.5361,9.10939,-0.862992,-6.76524,2.05155,-1.79409,1.7384,-2.70397,-0.882702,5.83652,5.36554,-18.3717,-12.6618,-3.2282,-25.7209,21.1804,2.6371,-13.2379,7.16782,-2.33572e-14,8.34896e-15,-25.019,2.38991,-76.2891,66.3831,-7.1956,-11.1203,-24.1715,7.12502,14.9046,-53.6153,-2.33572e-14,8.34896e-15,-16.3375,1.72577,83.4252,29.8988,4.71665,-18.9372,-6.08969,7.12502,7.36576,23.7621,-19.4089,3.33253,15.8105,36.7204,-15.6706,-9.45694,4.33902,-12.5438,10.065,-20.9189,31.6752,-17.8157,8.22867,-9.44869
18.4473,17.8342,15.9231,-3.92751,-104.863,6.52203,9.04073,-0.84661,-7.46814,2.06268,-1.8351,1.66705,-2.62645,-0.902837,6.16347,5.33042,-18.3908,-12.8446,-3.24147,-25.764,21.3034,2.68756,-13.2584,7.20998,2.93207e-14,-1.35174e-14,-25.2075,1.43928,-75.2824,67.4345,-6.61693,-10.9845,-24.5922,7.12502,15.0354,-54.0263,2.93207e-14,-1.35174e-14,-15.9156,1.45648,83.6038,30.0703,4.35023,-18.7384,-6.49482,7.12502,7.5577,23.3502,-19.6093,3.01361,15.2697,36.8506,-15.6683,-9.09027,3.92958,-12.546,10.5845,-21.4647,31.6104,-17.7736,8.19117,-10.002
18.4452,17.8342,15.9257,-3.52138,-105.229,6.14374,9.04283,-0.861269,-7.69175,1.99042,-1.87655,1.63893,-2.68985,-0.916149,6.26712,5.42965,-18.3736,-12.8157,-3.25093,-25.7443,21.2478,2.65368,-13.2542,7.20662,2.4699e-14,-5.1684e-15,-24.8545,1.29165,-74.4319,68.1352,-7.43694,-12.2115,-25.2473,7.12502,13.8532,-54.766,2.4699e-14,-5.1684e-15,-15.7337,0.996922,83.7427,30.4069,4.06474,-18.7993,-6.67811,7.12502,7.49891,23.169,-19.7633,2.87292,15.2008,36.9196,-15.5767,-8.99075,3.01806,-12.5633,10.9051,-21.5569,31.6053,-17.7873,8.22618,-9.97945
18.4464,17.8298,15.9275,-4.91664,-106.061,7.4062,9.22963,-0.745482,-7.41814,2.00135,-1.71229,1.66739,-2.81707,-0.831704,6.13055,5.54321,-18.3316,-12.6955,-3.29566,-25.6891,21.2525,2.59852,-13.2386,7.21845,-3.14577e-14,4.77083e-15,-25.1352,0.682806,-73.7318,69.1001,-7.69922,-12.6423,-25.2074,7.12502,13.438,-54.7539,-3.14577e-14,4.77083e-15,-15.517,0.258657,83.7994,30.9826,3.91775,-18.865,-5.58298,7.12502,7.43546,24.2664,-19.7102,3.1981,15.6834,36.9412,-15.4457,-8.75153,2.70233,-12.3134,11.2333,-21.0712,31.6579,-17.8254,8.57527,-9.83566
18.4445,17.8306,15.9374,-5.24747,-106.401,7.78491,9.20714,-0.81243,-7.15624,2.0001,-1.77723,1.58487,-2.807,-0.866119,5.8996,5.68109,-18.2248,-12.7523,-3.47135,-25.5617,21.544,2.55415,-13.1992,7.34483,1.10325e-14,-7.55382e-15,-25.0015,0.199305,-73.0012,69.9256,-7.71375,-12.1469,-26.3461,7.12502,13.9154,-55.8605,1.10325e-14,-7.55382e-15,-15.1763,-0.409429,83.7685,31.4706,3.87063,-18.7371,-4.64262,7.12502,7.55896,25.2023,-19.8034,3.10134,15.8136,36.917,-15.3744,-8.57708,2.78946,-12.3774,11.2302,-20.9677,31.7754,-17.8377,8.874,-9.96723
18.4421,17.8303,15.942,-4.68745,-106.637,7.23064,9.14876,-0.91976,-7.25042,2.00509,-1.92817,1.46546,-2.74716,-0.943349,5.84025,5.87624,-18.091,-12.9166,-3.66983,-25.4041,21.8494,2.50431,-13.1476,7.49842,-4.4329e-14,-7.95139e-15,-24.135,-3.32744,-70.8939,68.8116,1.80102,2.7681,-19.7335,7.12502,28.2389,-47.6256,-4.4329e-14,-7.95139e-15,-14.8768,-0.812436,83.6814,31.7811,4.07419,-18.6441,-4.81236,7.12502,7.64867,25.0293,-19.8677,3.02265,15.6649,36.8954,-15.3098,-8.59978,3.0568,-12.4571,11.5487,-21.1129,31.907,-17.9424,8.82953,-10.0524
18.4425,17.8271,15.9409,-5.05469,-107.403,7.65726,9.01356,-0.862075,-7.2739,2.01739,-1.84156,1.51678,-2.66984,-0.90377,5.89402,5.92313,-18.0329,-13.0838,-3.69894,-25.349,21.9842,2.52001,-13.1267,7.56721,1.27222e-14,-1.78906e-14,-23.8822,-2.9885,-70.4811,69.3696,-1.23013,-4.87953,-22.1902,7.12502,20.9092,-51.0833,1.27222e-14,-1.78906e-14,-14.6363,-1.02891,83.666,32.1501,4.0867,-18.3032,-5.1252,7.12502,7.97771,24.7042,-20.0282,3.32568,15.9315,36.9428,-15.1449,-8.76588,3.80232,-12.4688,11.9078,-20.8784,31.9893,-17.9977,9.16676,-9.84492
18.4372,17.8243,15.953,-5.24092,-107.783,7.98207,8.86775,-0.98739,-7.08312,1.99443,-1.9788,1.51513,-2.59865,-0.974807,5.7926,5.80246,-17.9668,-13.2737,-3.5915,-25.2904,22.0837,2.59943,-13.0889,7.60463,1.73937e-14,9.54166e-15,-23.9148,-0.939581,-70.1378,70.8382,-6.66934,-13.9349,-26.2063,7.12502,12.1919,-55.831,1.73937e-14,9.54166e-15,-14.4463,-1.16358,83.6332,32.6268,3.82826,-17.7478,-5.09768,7.12502,8.51376,24.7107,-20.2347,2.93143,16.1024,37.0445,-15.0157,-8.94296,3.26816,-12.564,11.5131,-20.8253,32.028,-17.9439,9.82708,-9.24748
18.4333,17.8115,15.9606,-4.72724,-108.066,7.08828,9.2293,-1.06988,-7.32469,2.09172,-2.14466,1.41868,-2.66702,-1.05887,5.85623,5.61857,-17.9029,-13.4817,-3.41422,-25.2404,22.1718,2.71138,-13.0488,7.62991,1.35174e-14,-1.19271e-14,-23.4455,-0.882078,-69.2369,71.0766,-6.84624,-14.0051,-25.8744,7.12502,12.1242,-55.5031,1.35174e-14,-1.19271e-14,-14.1917,-1.43137,83.6014,33.0629,3.74027,-17.1276,-4.79333,7.12502,9.1122,24.9898,-19.9576,2.30813,15.8998,37.1821,-15.0137,-8.99517,1.73635,-12.1575,11.5751,-21.0519,32.0626,-18.0168,10.0981,-9.09227
18.4297,17.811,15.9603,-4.11806,-108.524,6.63411,9.04174,-1.09514,-7.59979,2.0533,-2.18766,1.44462,-2.58426,-1.0803,6.03804,5.42725,-17.8866,-13.6968,-3.23492,-25.2475,22.2053,2.828,-13.0335,7.63196,1.20265e-14,1.98785e-15,-22.8018,-1.35483,-68.0489,71.2317,-5.47481,-12.6322,-26.2539,7.12502,13.4477,-55.7998,1.20265e-14,1.98785e-15,-13.931,-1.88748,83.7008,33.4482,3.64655,-16.9435,-4.63064,7.12502,9.28984,25.1447,-20.2724,1.94627,15.8513,37.3181,-15.0804,-9.04427,0.960388,-12.3363,11.9886,-21.1901,32.0974,-18.0418,10.2715,-9.58833
18.4282,17.8115,15.963,-4.58783,-108.765,7.04586,9.20819,-1.19174,-7.59418,2.09663,-2.32695,1.55181,-2.60463,-1.15156,6.16816,5.21233,-17.8526,-13.7902,-3.20765,-25.1799,22.1282,2.85942,-12.9837,7.60578,-5.77469e-14,1.43125e-14,-22.1956,-2.21162,-66.7652,71.4953,-3.23696,-12.6339,-26.7222,7.12502,13.446,-56.2682,-5.77469e-14,1.43125e-14,-13.6628,-2.20754,83.8349,33.7977,3.47342,-17.3095,-4.97877,7.12502,8.93668,24.812,-20.2431,1.6303,16.0748,37.4779,-15.3559,-9.27822,1.32841,-12.2374,12.0924,-21.0001,32.1195,-18.0942,10.372,-9.65808
18.4266,17.8095,15.9678,-5.03511,-109.078,7.45721,9.30793,-1.22035,-7.50399,2.13768,-2.36439,1.5841,-2.61344,-1.17268,6.158,5.13691,-17.8497,-13.682,-3.30676,-25.1423,22.0767,2.81485,-12.9656,7.58148,-6.32135e-14,2.42517e-14,-21.8282,-3.00543,-65.5858,71.8271,-2.03574,-14.0596,-26.6053,7.12502,12.0716,-56.2371,-6.32135e-14,2.42517e-14,-13.3114,-2.6811,83.8906,34.1161,3.38231,-17.0142,-5.37992,7.12502,9.22161,24.3984,-20.2194,1.31422,16.319,37.6162,-15.6012,-9.63286,1.72169,-12.1305,12.3782,-20.7908,32.1135,-18.1844,10.3048,-9.51057
18.4276,17.8043,15.9719,-4.32022,-109.526,6.67845,9.37364,-1.10508,-7.68377,2.13508,-2.24008,1.41536,-2.67241,-1.10732,6.0716,5.20093,-17.9185,-13.4896,-3.40363,-25.2277,22.125,2.77361,-13.0207,7.57269,-1.0138e-14,-7.95139e-15,-21.6228,-3.58517,-64.4186,72.1278,-1.98582,-14.2452,-26.4047,7.12502,11.8926,-56.0469,-1.0138e-14,-7.95139e-15,-12.8623,-3.51835,83.8914,34.334,3.19558,-16.3109,-5.26844,7.12502,9.90017,24.4788,-20.325,1.01782,16.1244,37.7644,-15.7891,-9.87716,1.76499,-12.0504,12.6821,-21.0257,32.0882,-18.2062,10.4657,-9.31782
18.4263,17.8094,15.9736,-3.23988,-109.583,5.70648,9.24492,-1.16735,-7.88228,2.124,-2.33695,1.22335,-2.59704,-1.15706,5.98563,5.0754,-18.0013,-13.356,-3.37071,-25.3347,22.1341,2.80615,-13.0694,7.52952,3.01159e-14,-1.11319e-14,-20.9418,-4.03671,-63.2685,72.0676,-2.08118,-13.7975,-26.5097,7.12502,12.3243,-56.1265,3.01159e-14,-1.11319e-14,-12.3024,-4.37979,83.8557,34.4603,2.94383,-15.9916,-4.81971,7.12502,10.2083,24.9126,-20.5759,0.830036,15.7634,37.9265,-16.0188,-10.3482,2.95707,-12.2035,12.6514,-21.4255,32.0223,-18.1568,10.5476,-9.04604
18.4185,17.8163,15.9718,-2.4289,-110.787,5.23544,8.60091,-0.954954,-8.13321,2.11467,-2.02002,1.19789,-2.29114,-1.01018,6.04563,4.86479,-17.947,-13.5148,-3.24683,-25.2832,22.2469,2.90431,-13.0297,7.55645,-3.99557e-14,-1.55052e-14,-19.723,-4.10615,-62.1142,71.7583,-2.22674,-14.3602,-27.1386,7.12502,11.7817,-56.7873,-3.99557e-14,-1.55052e-14,-11.8206,-4.88669,83.8351,34.6716,2.8123,-15.5663,-4.95947,7.12502,10.6186,24.7522,-21.2375,1.11721,15.7343,38.1283,-16.1515,-10.3175,3.67366,-12.4572,13.8593,-21.5393,31.9092,-18.1887,10.4845,-9.22342
18.4105,17.8164,15.9791,-2.10309,-111.168,4.93738,8.51115,-1.0048,-8.24485,2.11445,-2.08772,1.20459,-2.22573,-1.04647,6.11904,4.7511,-17.8138,-13.7406,-3.15704,-25.1309,22.3827,2.97112,-12.9463,7.6252,-2.8128e-14,2.62396e-14,-18.8185,-4.1829,-60.979,71.7043,-2.3256,-15.0783,-27.4972,7.12502,11.0892,-57.1842,-2.8128e-14,2.62396e-14,-11.5499,-5.61371,83.9502,35.0946,2.10768,-15.5145,-4.60282,7.12502,10.6685,25.1063,-21.386,0.404781,15.6828,38.2994,-16.2509,-10.2832,3.17033,-12.3919,13.8676,-21.6769,31.8103,-18.1325,10.8381,-9.43718
18.4055,17.808,15.9859,-1.52657,-111.572,4.29225,8.66655,-0.996002,-8.42688,2.05274,-2.11114,1.10678,-2.36981,-1.04849,6.12833,4.70203,-17.7479,-13.7218,-3.06383,-25.0565,22.3846,2.991,-12.9055,7.62603,-6.16232e-14,-6.75868e-15,-18.7122,-4.84444,-59.9679,72.1134,-2.00179,-14.8287,-27.0407,7.12502,11.33,-56.7147,-6.16232e-14,-6.75868e-15,-11.1793,-5.92811,83.9724,35.2803,1.41706,-14.3199,-5.01394,7.12502,11.8206,24.6325,-21.4876,-0.166986,15.4808,38.4221,-15.8282,-10.5913,1.89351,-12.3125,13.6958,-21.9758,31.8095,-18.082,11.4531,-9.49332
18.4002,17.7993,15.9895,-1.66787,-111.964,4.36683,8.88805,-0.950877,-8.34944,1.99513,-2.0678,1.06633,-2.56533,-1.01607,6.04709,4.75165,-17.7447,-13.6529,-2.98111,-25.0768,22.4002,3.00408,-12.9182,7.62195,3.88624e-14,-1.11319e-14,-18.2722,-5.68833,-58.9301,71.9975,-1.4437,-14.6057,-25.7441,7.12502,11.545,-55.4061,3.88624e-14,-1.11319e-14,-10.7077,-6.16702,84.0385,35.3366,0.813566,-13.4673,-5.74319,7.12502,12.6427,23.8542,-21.5194,-0.496081,15.5816,38.5091,-15.3486,-11.2801,0.35552,-12.2069,13.6767,-21.9494,31.8688,-18.1225,11.8766,-9.70956
18.397,17.7959,15.9899,-2.34659,-112.369,4.98542,9.08784,-0.876708,-8.07191,2.00169,-1.96172,1.09062,-2.69629,-0.959648,5.91188,4.7203,-17.8143,-13.526,-2.89756,-25.1721,22.3068,3.02027,-12.9603,7.56087,-3.65764e-14,3.97569e-15,-18.1526,-6.30391,-57.8624,72.1151,-0.993259,-14.9803,-24.6192,7.12502,11.1838,-54.3011,-3.65764e-14,3.97569e-15,-10.191,-6.83374,84.1507,35.5233,0.32961,-13.3918,-6.09766,7.12502,12.7155,23.4952,-21.5078,-0.690067,15.9096,38.5987,-15.411,-11.7188,1.47636,-12.0761,13.8617,-21.6422,31.9508,-18.2192,12.0841,-9.91105
18.3968,17.792,15.9888,-2.62569,-112.918,5.2064,9.22743,-0.824313,-7.88956,2.02206,-1.89069,1.02394,-2.77282,-0.923647,5.73495,4.73525,-17.7982,-13.369,-2.98272,-25.1274,22.2597,2.95832,-12.9451,7.54286,4.82053e-14,-9.54166e-15,-17.8976,-6.74356,-57.0054,72.3652,-0.638556,-14.8,-24.954,7.12502,11.3577,-54.6264,4.82053e-14,-9.54166e-15,-9.66175,-7.57349,84.0955,35.8097,-0.215302,-13.6574,-5.8242,7.12502,12.4595,23.7844,-21.5755,-0.596593,16.0852,38.7272,-15.6273,-12.0847,3.99468,-11.98,14.1561,-21.4942,32.0018,-18.2807,12.4002,-9.79101
18.3976,17.79,15.9908,-2.71564,-113.452,5.29114,9.32758,-0.877786,-7.76014,2.01295,-1.96212,0.937871,-2.83484,-0.95748,5.58167,4.87484,-17.6444,-13.3114,-3.20492,-24.9055,22.385,2.84338,-12.8593,7.62941,-1.59028e-15,-3.18055e-15,-16.6371,-6.69758,-56.2735,72.0846,-0.957212,-14.6596,-26.2398,7.12502,11.4931,-55.9048,-1.59028e-15,-3.18055e-15,-9.12229,-8.03816,83.8847,36.1015,-0.577924,-13.5835,-6.11547,7.12502,12.5307,23.4888,-21.754,-0.56379,16.2006,38.907,-15.5584,-12.7196,3.89518,-11.9277,14.1938,-21.4531,31.9986,-18.2737,12.9482,-9.80501
18.396,17.7957,15.9944,-2.30506,-113.791,4.80592,9.41323,-0.966074,-7.92701,2.07342,-2.10725,0.859945,-2.79361,-1.03403,5.61097,4.78951,-17.5055,-13.2528,-3.34336,-24.6852,22.4232,2.77683,-12.7553,7.66282,8.34896e-15,3.49861e-14,-15.7138,-6.95102,-55.5739,71.9732,-1.07919,-14.9964,-26.9298,7.12502,11.1682,-56.6126,8.34896e-15,3.49861e-14,-8.43506,-8.4261,83.7738,36.3108,-0.876269,-13.8286,-6.86996,7.12502,12.2943,22.7486,-21.924,-1.02063,16.0444,39.1404,-15.5222,-13.0212,3.55044,-11.7992,13.9314,-21.6609,31.9346,-18.3039,13.3315,-9.4006
18.394,17.8052,15.9974,-1.94388,-114.033,4.41386,9.46468,-1.01709,-8.13166,2.1642,-2.19981,0.87601,-2.70375,-1.08773,5.7535,4.61488,-17.4069,-13.1849,-3.50312,-24.4959,22.3878,2.71243,-12.6587,7.66093,-2.31584e-14,1.03368e-14,-14.7381,-7.17494,-54.6373,71.8494,-1.14611,-16.0511,-26.4101,7.12502,10.1508,-56.1453,-2.31584e-14,1.03368e-14,-7.60403,-8.86177,83.8934,36.4416,-1.2284,-14.6324,-7.24171,7.12502,11.5193,22.4218,-22.111,-1.55388,15.9282,39.3785,-15.5255,-13.0938,4.30619,-11.7215,13.9558,-21.8065,31.8654,-18.3234,13.3126,-8.85596
18.3939,17.8088,15.9988,-2.0444,-114.298,4.63097,9.54302,-1.02305,-8.07965,2.12008,-2.20717,0.9539,-2.79119,-1.08565,5.8114,4.52451,-17.3685,-13.154,-3.52259,-24.4173,22.28,2.6886,-12.6128,7.63,-2.5345e-14,-1.35174e-14,-14.4193,-7.35639,-53.5577,71.9863,-1.17783,-16.9207,-25.2311,7.12502,9.31186,-55.0054,-2.5345e-14,-1.35174e-14,-6.86678,-9.59298,84.0525,36.5313,-1.27133,-14.7803,-7.96857,7.12502,11.3766,21.7028,-22.4006,-1.73215,16.0632,39.5963,-15.4162,-13.4405,4.55183,-11.7947,14.3898,-21.6932,31.8361,-18.2806,13.1858,-9.10106
18.3935,17.8061,15.9982,-2.08477,-114.645,4.77109,9.64511,-0.988011,-7.99411,2.02378,-2.16226,0.947479,-2.95978,-1.05191,5.75764,4.51758,-17.3791,-13.0107,-3.50728,-24.4108,22.101,2.64974,-12.6062,7.56386,-3.96575e-14,-1.82882e-14,-14.015,-7.37177,-52.6528,72.1603,-2.03206,-17.9102,-26.2744,7.12502,8.35698,-56.0891,-3.96575e-14,-1.82882e-14,-6.27746,-10.7627,84.0739,36.7505,-1.23788,-13.9123,-8.66319,7.12502,12.2137,20.9602,-22.7112,-1.86528,16.1473,39.8136,-15.2832,-13.7523,4.96014,-11.8663,14.5627,-21.6374,31.8454,-18.3732,13.3234,-8.83145
18.3931,17.8043,15.9969,-2.30388,-115.054,5.13591,9.6253,-0.96152,-7.84348,2.02689,-2.10794,1.0033,-2.9576,-1.02605,5.72456,4.47287,-17.3747,-12.8312,-3.71419,-24.3459,21.9893,2.54777,-12.5794,7.52623,-8.00108e-14,-1.98785e-14,-13.1468,-8.22841,-51.6603,71.5914,-1.13275,-17.2102,-26.2147,7.12502,9.03254,-56.0013,-8.00108e-14,-1.98785e-14,-5.58762,-11.7746,84.1586,37.1406,-1.58571,-18.6046,-7.1116,7.12502,7.68676,22.7287,-23.044,-2.01745,16.3628,40.035,-15.1069,-13.9819,5.16451,-11.976,14.5807,-21.4869,31.8687,-18.4006,13.6631,-8.3675
18.392,17.8047,15.9941,-2.27264,-115.353,5.19843,9.57729,-1.05237,-7.82358,2.09603,-2.21955,1.07885,-2.83864,-1.09011,5.80168,4.33114,-17.2266,-13.0146,-3.83747,-24.1272,22.1266,2.5399,-12.4699,7.60604,-1.16289e-14,6.36111e-15,-11.92,-8.62509,-50.8876,71.1935,-0.329678,-16.3436,-26.5652,7.12502,9.86866,-56.314,-1.16289e-14,6.36111e-15,-4.74838,-12.3624,84.2809,37.4622,-1.73406,-20.7864,-7.70252,7.12502,5.58059,22.204,-23.3135,-2.16442,16.4374,40.2761,-15.1435,-14.1294,5.5836,-12.0434,14.7216,-21.4503,31.87,-18.3291,13.9256,-8.64198
18.3897,17.8114,15.9904,-2.0849,-115.662,5.07462,9.51286,-1.16078,-7.75465,2.16683,-2.35431,0.997012,-2.71421,-1.1665,5.68569,4.24239,-17.0089,-13.1057,-3.89525,-23.8434,22.3897,2.53703,-12.3368,7.72356,2.13694e-14,-7.95139e-15,-10.768,-8.80439,-50.4086,71.0057,0.167275,-15.4551,-26.6038,7.12502,10.7258,-56.31,2.13694e-14,-7.95139e-15,-3.7613,-13.0694,84.139,37.6289,-1.32015,-20.929,-8.97202,7.12502,5.4429,20.9381,-23.6114,-2.38864,16.4107,40.5194,-15.4024,-13.9703,7.40991,-12.0493,14.8407,-21.4882,31.8322,-18.3857,14.1067,-8.81511
18.3868,17.8148,15.9856,-2.18273,-116.08,5.21741,9.50235,-1.15546,-7.60104,2.2367,-2.3345,0.924399,-2.64811,-1.16384,5.51766,4.10264,-16.9279,-12.811,-4.02242,-23.6896,22.3693,2.45792,-12.2658,7.69647,7.45443e-14,1.66979e-14,-9.81052,-9.1389,-49.8564,70.3671,-0.600905,-18.2743,-26.703,7.12502,8.00558,-56.5314,7.45443e-14,1.66979e-14,-2.72506,-13.8251,84.0141,37.7711,-0.972801,-21.0838,-10.6802,7.12502,5.29348,19.2337,-23.9241,-2.66398,16.5089,40.7544,-15.2563,-13.8983,7.65951,-11.963,15.1394,-21.3765,31.735,-18.3393,14.2711,-9.27458
18.3828,17.8125,15.9839,-2.23598,-116.429,5.22356,9.63043,-1.20546,-7.66377,2.26385,-2.41578,1.01746,-2.67142,-1.20481,5.66467,3.97169,-16.8626,-12.749,-4.04351,-23.5573,22.1394,2.41124,-12.1879,7.6305,6.47044e-14,-3.4191e-14,-8.69256,-9.31411,-49.0869,70.2029,-0.478135,-17.9168,-27.1018,7.12502,8.35063,-56.9168,6.47044e-14,-3.4191e-14,-1.90631,-14.3174,84.081,38.0678,-0.770995,-21.621,-12.8337,7.12502,4.77473,17.0925,-24.126,-2.89211,16.4971,40.9819,-15.0567,-14.0308,7.07698,-11.777,15.2911,-21.3385,31.6021,-18.2642,14.5382,-9.58367
18.3786,17.8171,15.9825,-2.20831,-116.729,5.20344,9.70396,-1.31722,-7.84357,2.2598,-2.58219,1.21056,-2.6729,-1.28689,5.99176,3.97274,-16.7479,-12.926,-4.0515,-23.3801,21.9523,2.37417,-12.0899,7.62349,-1.93815e-14,-1.59028e-15,-7.37381,-9.20853,-48.2587,69.8695,-1.02896,-18.663,-27.2831,7.12502,7.63046,-57.1254,-1.93815e-14,-1.59028e-15,-1.11296,-14.7739,84.2163,38.4664,-0.455744,-24.742,-12.2381,7.12502,1.76079,17.7344,-24.3734,-2.9183,16.448,41.1942,-15.1396,-14.1509,7.27531,-11.6633,15.0222,-21.3514,31.468,-18.3134,15.011,-9.16652
18.3755,17.82,15.9773,-2.14617,-117.025,5.10279,9.85352,-1.36752,-8.05055,2.25669,-2.68003,1.32855,-2.72723,-1.33267,6.25188,3.95625,-16.6513,-12.9308,-4.07329,-23.2229,21.7761,2.32042,-12.006,7.59536,1.36167e-14,-1.59028e-15,-6.15321,-9.53531,-47.53,69.5289,0.202402,-17.0262,-27.0836,7.12502,9.21002,-56.8624,1.36167e-14,-1.59028e-15,-0.254735,-15.5197,84.3484,38.8219,-0.218375,-25.9561,-13.1816,7.12502,0.58816,16.7973,-24.5808,-2.84884,16.3766,41.3878,-15.0178,-14.2268,6.76472,-11.5184,14.8849,-21.3723,31.3376,-18.3463,15.3582,-8.43293
18.3724,17.8153,15.9754,-2.21894,-117.283,5.06587,10.1439,-1.41714,-8.04049,2.25174,-2.77266,1.32054,-2.87899,-1.37253,6.26183,3.82367,-16.5593,-12.78,-3.9298,-23.0842,21.5609,2.31331,-11.9226,7.51643,5.73494e-14,-1.66979e-14,-5.03776,-9.79447,-47.0525,69.1078,1.11237,-17.2008,-27.2716,7.12502,9.04162,-57.0578,5.73494e-14,-1.66979e-14,0.569454,-16.4195,84.3656,39.1618,-0.410587,-27.4609,-14.6926,7.12502,-0.865247,15.2854,-24.689,-2.82072,16.2889,41.5567,-15.1126,-14.2182,7.07251,-11.3239,14.9322,-21.3684,31.2365,-18.1453,15.7513,-8.55866
18.3664,17.8153,15.9773,-2.42822,-117.478,5.28868,10.2931,-1.64916,-7.91944,2.2631,-3.07538,1.50437,-2.89549,-1.52439,6.42859,3.53294,-16.36,-13.1496,-3.63077,-22.8174,21.3594,2.4188,-11.7514,7.49736,-8.24956e-15,-7.95139e-15,-3.3866,-9.38803,-46.5884,68.5381,0.378512,-19.7955,-28.6932,7.12502,6.53728,-58.5723,-8.24956e-15,-7.95139e-15,1.49883,-16.5195,84.57,39.3907,-0.971681,-28.8312,-16.2224,7.12502,-2.18869,13.7461,-24.9036,-2.99787,16.2905,41.7096,-15.2763,-13.9274,7.73638,-11.2611,14.78,-21.2857,31.1832,-17.9693,16.2344,-9.04026
18.3572,17.8177,15.9789,-2.24483,-117.625,5.23238,10.2011,-1.89386,-7.98707,2.2867,-3.3914,1.76123,-2.74607,-1.69032,6.76784,3.44777,-16.0859,-13.6523,-3.75435,-22.4112,21.3054,2.37911,-11.5378,7.59381,2.20651e-14,-3.53837e-14,-1.51795,-9.60158,-45.9103,68.042,1.90354,-16.0608,-26.5082,7.12502,10.1415,-56.2438,2.20651e-14,-3.53837e-14,2.69067,-16.5991,84.9327,39.452,-1.45294,-30.6957,-16.9034,7.12502,-3.98932,13.039,-25.2775,-3.47196,16.1965,41.8522,-15.0224,-13.4229,7.76415,-11.3393,14.6529,-21.3582,31.136,-18.132,16.2958,-7.99918
18.3448,17.8137,15.9763,-1.89567,-117.874,4.90138,10.0962,-1.82507,-7.99566,2.35924,-3.29477,1.69166,-2.63238,-1.65108,6.67987,3.62658,-16.0394,-13.1287,-4.36682,-22.2438,21.1727,2.06771,-11.491,7.55784,-5.56597e-14,-7.15625e-15,-0.452008,-9.98754,-45.2561,67.3714,1.35985,-18.1499,-29.8176,7.12502,8.12562,-59.6414,-5.56597e-14,-7.15625e-15,4.03778,-18.161,84.9697,39.7605,-1.36676,-33.8157,-15.7462,7.12502,-7.00165,14.118,-25.5555,-3.92216,15.9952,41.9524,-14.8092,-13.112,7.8433,-11.3151,14.9407,-21.5302,31.0897,-18.0651,16.3195,-8.08094
18.331,17.8103,15.9665,-1.87762,-118.139,4.75133,10.1306,-1.66697,-7.95146,2.50971,-3.08969,1.56181,-2.53883,-1.56145,6.49228,3.49645,-16.2004,-12.2864,-4.63619,-22.3681,20.8814,1.89759,-11.5646,7.35768,-2.03754e-14,-1.47101e-14,0.434454,-10.8329,-44.783,66.8272,1.79885,-17.5987,-27.3872,7.12502,8.6576,-57.1896,-2.03754e-14,-1.47101e-14,5.36222,-19.632,84.9579,40.3174,-1.37052,-34.0314,-16.649,7.12502,-7.20984,13.2082,-25.6243,-4.1814,15.8823,41.9881,-14.6515,-12.9698,7.41123,-11.091,15.2646,-21.5419,31.0574,-17.7718,16.5881,-9.5386
18.3175,17.8111,15.9537,-2.21709,-118.436,5.02531,10.1116,-1.66417,-7.86159,2.64007,-3.07539,1.62712,-2.39513,-1.56876,6.50376,3.45925,-16.182,-12.0711,-4.67228,-22.3249,20.8262,1.85461,-11.546,7.31984,-7.92157e-14,1.11319e-14,1.68528,-11.1953,-44.4099,66.0373,1.64137,-17.9762,-29.1073,7.12502,8.29334,-58.9245,-7.92157e-14,1.11319e-14,6.58146,-19.7344,85.205,40.6189,-2.70764,-33.0854,-17.918,7.12502,-6.29666,11.9684,-25.6826,-4.1598,16.0086,41.9795,-14.4823,-13.1458,6.52326,-10.8557,15.4588,-21.3055,30.9873,-17.7048,16.7684,-9.97186
18.3016,17.8128,15.9456,-2.64609,-118.845,5.45784,10.0584,-1.78198,-7.59512,2.66819,-3.19828,1.72805,-2.32514,-1.6358,6.46793,3.71648,-15.9403,-12.2903,-4.64876,-22.0339,20.9389,1.81207,-11.4132,7.43787,1.02573e-13,1.59028e-15,3.19144,-10.9856,-44.0863,65.156,1.32834,-19.0939,-29.8101,7.12502,7.21456,-59.6671,1.02573e-13,1.59028e-15,7.62198,-20.5175,85.1686,41.0368,-2.28391,-34.0135,-18.6933,7.12502,-7.1926,11.1644,-25.799,-4.04316,16.2083,41.9661,-14.5286,-13.2953,6.91945,-10.6321,15.5084,-21.0179,30.8463,-17.8537,16.9475,-9.72546
18.2851,17.8136,15.938,-2.53091,-119.168,5.23878,10.1536,-1.9699,-7.62574,2.65702,-3.45854,1.77692,-2.34106,-1.76515,6.56923,3.73142,-15.6556,-12.6996,-4.39887,-21.7021,21.0265,1.88448,-11.2361,7.54411,1.33385e-13,-4.45278e-14,4.93036,-10.7788,-43.9033,64.2603,1.35842,-18.7257,-29.287,7.12502,7.5699,-59.1315,1.33385e-13,-4.45278e-14,8.65701,-21.3562,84.9242,41.5227,-1.8417,-34.7845,-19.3296,7.12502,-7.93675,10.5014,-25.9374,-4.25782,16.0266,41.972,-14.571,-12.9835,8.11465,-10.3536,15.3111,-21.1088,30.6992,-18.01,17.2933,-9.38322
18.2676,17.8126,15.9318,-2.06804,-119.467,4.63366,10.3127,-2.12008,-7.85584,2.65639,-3.69638,1.78867,-2.37329,-1.88283,6.74616,3.61474,-15.4094,-12.7572,-4.36031,-21.3485,20.8711,1.84325,-11.0482,7.53722,-2.89232e-14,2.14687e-14,6.59791,-10.8331,-43.8664,63.3664,1.46839,-18.677,-28.5742,7.12502,7.61688,-58.4171,-2.89232e-14,2.14687e-14,9.7433,-22.1817,84.7287,42.0766,-1.57339,-34.8826,-19.7574,7.12502,-8.03142,10.07,-26.1241,-4.61411,15.6529,41.9778,-14.2302,-12.9739,6.22466,-10.1008,14.9502,-21.4396,30.606,-18.0732,17.8871,-8.97505
18.2479,17.812,15.9309,-1.95807,-119.788,4.53224,10.3407,-2.17535,-7.73509,2.66356,-3.75938,1.82713,-2.37594,-1.91534,6.72626,3.6268,-15.318,-12.392,-4.64196,-21.1386,20.4645,1.63588,-10.9476,7.41348,-2.9122e-14,-1.19271e-14,8.20647,-11.1492,-43.784,62.2782,1.6843,-18.9306,-28.994,7.12502,7.37214,-58.8456,-2.9122e-14,-1.19271e-14,11.0003,-23.1891,84.6495,42.5187,-1.55407,-34.6584,-20.1905,7.12502,-7.81505,9.6451,-26.3733,-4.90384,15.5949,41.9583,-13.8601,-13.2186,3.93409,-9.97904,14.3198,-21.5501,30.5434,-18.265,18.6003,-7.95004
18.2312,17.8091,15.9247,-2.19278,-120.114,4.89988,10.3095,-2.20304,-7.36386,2.6327,-3.7528,1.89345,-2.41303,-1.90984,6.58439,3.5964,-15.3036,-12.2178,-4.67281,-21.0914,20.2602,1.58052,-10.9204,7.33749,-6.07287e-14,3.65764e-14,9.91034,-11.4333,-43.6189,60.9341,1.81354,-18.5933,-29.4428,7.12502,7.6977,-59.2827,-6.07287e-14,3.65764e-14,12.3189,-24.1901,84.608,42.9082,-1.8588,-34.4564,-20.5915,7.12502,-7.62009,9.25124,-26.644,-5.02339,15.8025,41.872,-13.939,-13.1512,5.75085,-9.97798,14.0002,-21.3782,30.5186,-18.4951,18.9849,-7.32088
18.2143,17.8059,15.9133,-2.19391,-120.485,4.99682,10.428,-2.30193,-7.13363,2.4497,-3.86646,1.87221,-2.66935,-1.94624,6.45793,3.44026,-15.1797,-12.256,-4.03917,-20.9986,20.1615,1.76612,-10.8436,7.28324,-3.68746e-14,-2.06736e-14,11.4829,-11.3391,-43.6379,59.6217,1.77131,-19.0245,-29.2421,7.12502,7.28148,-59.0968,-3.68746e-14,-2.06736e-14,13.25,-24.9095,84.5665,43.3605,-2.53379,-33.9291,-21.6686,7.12502,-7.11114,8.19196,-26.8888,-5.09627,15.859,41.7243,-14.2818,-12.8316,8.58601,-9.9865,14.3749,-21.2765,30.517,-18.6683,18.8879,-7.28459
18.1914,17.8079,15.904,-2.15325,-120.84,4.96949,10.1802,-2.31571,-7.30353,2.57664,-3.88123,2.08113,-2.36962,-1.97448,6.75614,3.11605,-15.1097,-12.2263,-3.74257,-20.8791,19.7642,1.83481,-10.7462,7.13745,2.66371e-14,-6.36111e-15,13.2625,-11.5428,-43.4088,58.4212,2.04831,-19.7024,-29.7041,7.12502,6.62709,-59.5804,2.66371e-14,-6.36111e-15,14.6679,-26.6717,83.8235,44.4754,-1.8774,-33.4338,-22.2503,7.12502,-6.63302,7.62585,-27.0595,-5.21176,15.8296,41.5819,-14.3433,-12.7554,9.31522,-9.83934,14.652,-21.2302,30.4538,-18.9347,18.8136,-6.76799
18.1636,17.812,15.8975,-2.27299,-121.158,5.03183,10.0627,-2.29078,-7.22666,2.73011,-3.83359,2.17543,-2.15037,-1.96995,6.79399,2.9788,-15.025,-11.9071,-3.82736,-20.7076,19.4738,1.73761,-10.6544,7.0247,-1.4551e-13,9.93923e-15,14.849,-11.8815,-43.1998,57.1684,2.35672,-19.8921,-30.3331,7.12502,6.44402,-60.2151,-1.4551e-13,9.93923e-15,16.3454,-27.835,83.5061,44.7826,-1.7433,-33.2356,-22.4789,7.12502,-6.44165,7.40312,-27.1775,-5.35004,15.8018,41.5116,-14.5511,-12.7004,10.3892,-9.50115,14.4743,-21.183,30.2513,-19.1657,19.1266,-6.34591
18.1347,17.815,15.8855,-1.8623,-121.426,4.5028,9.90464,-2.28321,-7.33313,2.88502,-3.82825,2.06148,-1.90252,-1.98568,6.71607,2.99154,-14.956,-11.3836,-4.14507,-20.5469,19.2881,1.54232,-10.591,6.93787,7.15625e-15,1.59028e-15,16.5079,-12.4036,-43.2768,55.6709,2.31743,-20.1521,-29.9686,7.12502,6.19302,-59.8581,7.15625e-15,1.59028e-15,18.1634,-29.2357,82.8549,45.0733,-2.02781,-33.8149,-21.7333,7.12502,-7.00089,8.13095,-27.3318,-5.6761,15.464,41.4879,-14.8063,-12.7426,10.9149,-9.18218,14.3623,-21.4939,29.9833,-19.1164,19.5276,-6.45037
18.1088,17.8101,15.8663,-0.979126,-121.603,3.34445,10.1042,-2.42236,-7.61831,2.83203,-4.06463,1.72603,-2.03312,-2.09301,6.55908,2.92394,-14.824,-10.9192,-3.98678,-20.358,18.9847,1.48726,-10.4914,6.79996,3.38928e-14,-1.11319e-14,18.1011,-12.6441,-43.8011,54.217,2.45968,-20.3461,-29.4503,7.12502,6.00569,-59.3452,3.38928e-14,-1.11319e-14,19.6186,-30.7344,81.5325,45.7454,-1.75849,-33.8329,-21.389,7.12502,-7.0183,8.47468,-27.4257,-6.08793,14.797,41.4347,-14.7292,-13.0855,10.5108,-8.85699,14.4011,-22.128,29.8009,-18.8167,19.9374,-7.0642
18.089,17.8,15.8444,-0.876175,-121.872,3.00973,10.4568,-2.54273,-7.6878,2.73854,-4.26323,1.64842,-2.29334,-2.17572,6.56388,2.86559,-14.6208,-10.8215,-3.60239,-20.1083,18.6932,1.52808,-10.3467,6.70861,-1.0635e-14,9.14409e-15,19.6157,-12.5533,-44.0189,52.9018,2.64424,-20.5583,-29.3437,7.12502,5.80081,-59.2443,-1.0635e-14,9.14409e-15,20.8777,-31.7977,80.5766,46.2688,-2.13147,-33.496,-21.1476,7.12502,-6.69308,8.72657,-27.4595,-6.26476,14.6384,41.3367,-14.7192,-13.5382,9.77501,-8.49385,14.566,-22.2169,29.714,-18.6408,20.2238,-7.89262
18.0716,17.7994,15.823,-1.68005,-122.422,3.94022,10.5067,-2.6542,-7.49601,2.70995,-4.38455,2.11996,-2.30655,-2.23886,6.97327,2.88181,-14.2871,-11.4054,-3.49023,-19.663,18.5557,1.53626,-10.1062,6.78564,-7.05686e-15,3.97569e-15,21.6063,-12.1231,-43.8462,51.6221,2.82808,-20.549,-29.4947,7.12502,5.80974,-59.395,-7.05686e-15,3.97569e-15,22.0001,-31.9373,80.5279,46.701,-3.31284,-33.0253,-21.0856,7.12502,-6.2386,8.80249,-27.6446,-6.11311,15.3109,41.1899,-14.8955,-14.0489,9.51714,-8.31816,15.0467,-21.5416,29.6674,-18.7978,20.1936,-8.18708
18.0461,17.8063,15.8095,-1.69369,-122.884,4.16364,10.2945,-2.81955,-7.52723,2.75485,-4.58572,2.54003,-2.06842,-2.35803,7.43964,2.68196,-14.0338,-11.9807,-3.64992,-19.2703,18.3978,1.50384,-9.8899,6.84391,2.06239e-14,1.98785e-16,23.9156,-11.7946,-43.6777,50.2933,3.56749,-19.7033,-29.6138,7.12502,6.62621,-59.4902,2.06239e-14,1.98785e-16,23.4635,-31.961,80.3431,47.1627,-4.38462,-32.4155,-21.154,7.12502,-5.64994,8.75071,-28.0301,-6.34595,15.5606,41.0214,-14.9363,-14.1993,10.9032,-8.34386,15.5084,-21.3726,29.6303,-19.0248,20.1464,-7.87242
18.0144,17.8074,15.7981,-0.849613,-123.159,3.33912,10.5367,-2.84739,-7.48408,2.50551,-4.63583,2.26047,-2.48316,-2.34635,7.1526,2.52966,-14.0604,-11.3101,-3.42659,-19.2818,17.8827,1.47284,-9.88177,6.58531,-5.56597e-14,-1.64991e-14,25.0089,-11.8128,-43.7996,48.7872,4.22491,-19.6463,-29.0131,7.12502,6.68126,-58.8877,-5.56597e-14,-1.64991e-14,25.1047,-33.3086,79.3398,47.3492,-4.74026,-32.3264,-21.4211,7.12502,-5.56384,8.48587,-28.437,-7.00164,15.1375,40.8578,-14.7982,-14.1449,11.0875,-8.32361,15.7577,-21.9003,29.5581,-19.0306,20.3094,-8.05891
17.9849,17.8027,15.7815,-0.434652,-123.627,2.8122,11.1517,-2.89718,-7.02665,2.12308,-4.70612,1.72152,-3.29833,-2.32292,6.39566,2.44745,-13.9727,-10.4522,-2.7829,-19.2069,17.4113,1.52784,-9.82907,6.31289,9.88954e-15,-5.56597e-15,25.7504,-11.6924,-44.5574,47.2222,4.69316,-20.631,-28.0856,7.12502,5.73064,-57.9881,9.88954e-15,-5.56597e-15,26.4223,-34.5494,78.1173,47.4062,-5.14545,-32.2156,-21.8511,7.12502,-5.45685,8.05861,-28.7252,-7.40997,14.9284,40.7021,-14.6014,-14.4631,8.76465,-8.06642,16.0123,-22.2033,29.4239,-18.8846,20.6423,-8.60768
17.9576,17.8038,15.7679,-0.5792,-124.219,2.87845,11.1387,-2.86727,-7.08518,2.34562,-4.67018,2.00005,-3.03357,-2.33075,6.70868,1.88427,-13.8609,-10.73,-2.71693,-19.0066,17.2643,1.62229,-9.69474,6.2764,-1.26725e-14,-3.57812e-15,28.1163,-12.2551,-45.128,45.3703,5.8561,-20.941,-27.422,7.12502,5.43133,-57.3324,-1.26725e-14,-3.57812e-15,28.3572,-34.4581,77.6752,47.7531,-6.54799,-30.6578,-21.8166,7.12502,-3.95273,8.12651,-28.9579,-7.55461,15.0943,40.5282,-14.6208,-14.9273,7.61693,-7.74979,16.1464,-22.1393,29.2806,-18.8292,21.1058,-8.3431
17.9318,17.8089,15.7583,-0.83671,-124.733,3.22993,10.9752,-2.95094,-6.72481,2.55817,-4.73131,2.1588,-2.72627,-2.38995,6.65636,1.58143,-13.7282,-10.8579,-2.88636,-18.7798,17.2681,1.6038,-9.57247,6.29734,9.00495e-14,-1.19271e-14,30.3703,-12.7675,-45.8698,43.5653,6.83448,-21.2473,-27.1954,7.12502,5.13559,-57.1132,9.00495e-14,-1.19271e-14,30.626,-35.4023,75.9828,48.5465,-4.96853,-31.1956,-21.6915,7.12502,-4.472,8.24127,-29.2384,-7.76197,15.4614,40.3081,-14.9366,-15.1679,8.69457,-7.59428,16.0513,-21.9406,29.1684,-19.0679,21.4963,-7.39368
17.9042,17.8104,15.7455,-0.929854,-125.193,3.45375,10.7766,-2.98788,-6.61493,2.69549,-4.75483,2.42038,-2.45499,-2.42433,6.85161,1.59708,-13.6182,-10.8945,-3.35915,-18.5549,17.0551,1.41387,-9.46761,6.28199,3.49364e-14,-1.0138e-14,31.7278,-12.2906,-45.0844,42.5691,6.36481,-22.2911,-27.5578,7.12502,4.12768,-57.4975,3.49364e-14,-1.0138e-14,32.7612,-35.7121,74.9375,48.9109,-5.42122,-30.4356,-21.3273,7.12502,-3.73808,8.6197,-29.6075,-8.34464,15.8462,40.0727,-14.9356,-15.2487,8.69502,-7.48418,16.0862,-21.8052,29.0647,-19.2972,21.6611,-6.68165
17.8729,17.8095,15.7245,-0.72591,-125.645,3.40801,10.549,-2.91284,-6.67863,2.76926,-4.64642,2.62458,-2.24687,-2.38567,7.0725,1.65053,-13.5333,-10.7245,-3.8694,-18.3599,16.7168,1.17918,-9.37998,6.20509,-1.6688e-13,3.00165e-14,32.8747,-12.1114,-44.2985,41.5201,6.32941,-23.8413,-28.3691,7.12502,2.63064,-58.3326,-1.6688e-13,3.00165e-14,34.9774,-36.2647,73.9664,49.0951,-5.81708,-30.3115,-21.2239,7.12502,-3.61829,8.72515,-30.0987,-8.97203,16.1098,39.8332,-14.6272,-15.4423,7.18501,-7.4504,16.2723,-21.8462,28.9632,-19.2605,21.8809,-6.42519
17.8388,17.8069,15.7018,-0.378169,-126.06,3.17394,10.5186,-2.98829,-6.5223,2.73047,-4.72825,2.56481,-2.27574,-2.42265,6.92742,1.54967,-13.3963,-10.3433,-4.00182,-18.1283,16.3036,1.04859,-9.26164,6.05367,4.35835e-14,-1.78906e-15,34.4038,-12.2283,-44.777,39.991,7.0295,-25.929,-29.3115,7.12502,0.614307,-59.2903,4.35835e-14,-1.78906e-15,36.9747,-36.777,72.5277,49.4268,-5.8224,-30.37,-21.0605,7.12502,-3.67473,8.88753,-30.5162,-9.54404,16.2519,39.522,-14.4139,-15.7083,6.15975,-7.43218,16.502,-22.0087,28.9062,-19.3637,22.0842,-6.22003
17.8065,17.798,15.681,0.0707752,-126.488,2.61723,10.633,-3.04139,-6.95614,2.78757,-4.85441,2.77667,-2.20055,-2.49611,7.41852,1.19973,-13.2633,-10.486,-4.04033,-17.8955,15.9023,1.03582,-9.12032,5.95197,4.82426e-14,-2.86747e-14,36.2579,-12.0457,-44.8416,38.6021,7.30981,-27.055,-29.8641,7.12502,-0.473209,-59.8433,4.82426e-14,-2.86747e-14,38.7656,-36.7039,71.6897,49.8939,-5.81513,-30.0749,-20.813,7.12502,-3.38977,9.13975,-30.7899,-10.1184,16.1744,39.0849,-14.1198,-16.0712,5.30729,-7.26281,16.7382,-22.3251,28.9285,-19.7524,22.1272,-5.73909
17.7802,17.7867,15.6572,0.444152,-126.94,2.23124,11.4461,-3.21576,-6.53656,2.28359,-5.08513,2.43114,-3.20829,-2.53644,6.93195,1.16285,-12.9143,-10.3449,-3.48764,-17.4755,15.7586,1.122,-8.89688,5.90055,3.52843e-15,1.66979e-14,37.1847,-11.6116,-45.7906,37.3618,8.05644,-26.1413,-30.0321,7.12502,0.40931,-60.0115,3.52843e-15,1.66979e-14,39.6057,-37.0857,70.5872,50.2923,-6.10633,-29.6899,-20.6631,7.12502,-3.01798,9.29531,-31.1405,-10.2571,16.1352,38.5308,-14.2707,-16.5599,6.50499,-7.21696,16.7467,-22.5698,29.0151,-20.0388,22.3906,-5.20853
17.752,17.7814,15.6315,0.332771,-127.333,2.5988,11.4299,-3.12236,-6.26123,2.28862,-4.92392,2.62694,-3.22642,-2.45977,6.96504,0.892012,-12.7979,-10.1362,-3.64884,-17.2717,15.5633,1.05577,-8.7891,5.81836,-2.39908e-14,2.05742e-14,38.4782,-12.1541,-46.1273,36.0104,9.19493,-25.482,-29.72,7.12502,1.046,-59.6972,-2.39908e-14,2.05742e-14,41.7799,-37.5602,69.427,50.6142,-6.18901,-29.412,-20.3677,7.12502,-2.74964,9.59429,-31.5269,-10.4779,16.6548,37.925,-14.8179,-16.7927,9.65521,-7.30782,16.7892,-22.3649,29.0991,-20.0064,22.7803,-5.49442
17.7124,17.7811,15.6054,0.204254,-127.698,3.00197,11.2177,-3.14771,-5.96914,2.34609,-4.90915,2.88034,-3.05365,-2.46793,7.04674,0.791909,-12.698,-10.0388,-3.86681,-17.0993,15.404,0.963021,-8.70304,5.77403,-2.65874e-14,-1.08213e-14,39.9022,-12.3498,-46.4134,34.7008,10.0785,-25.9361,-29.4042,7.12502,0.607438,-59.383,-2.65874e-14,-1.08213e-14,43.5636,-37.5362,68.7368,50.9732,-6.25626,-28.9114,-19.8152,7.12502,-2.26614,10.1525,-31.85,-11.2823,17.324,37.336,-14.9846,-16.622,11.546,-7.32273,16.9367,-22.146,29.1174,-19.8358,23.1628,-6.62404
17.6719,17.7803,15.5738,0.548255,-128.115,2.685,10.8799,-3.25218,-5.94697,2.5821,-5.03688,2.86311,-2.60288,-2.56331,6.98738,0.646923,-12.6052,-9.96235,-4.18902,-16.935,15.4236,0.867633,-8.62782,5.78372,5.62972e-14,-1.87727e-14,41.4113,-12.4483,-46.9838,33.7388,10.5569,-25.7963,-29.2899,7.12502,0.742529,-59.2684,5.62972e-14,-1.87727e-14,45.6357,-37.247,67.5214,51.0913,-6.25206,-28.3787,-19.1424,7.12502,-1.75167,10.8302,-32.0905,-11.9202,17.4352,36.8288,-15.3392,-16.4169,12.7667,-7.1522,17.11,-22.3696,29.0209,-19.6924,23.6341,-7.51696
17.6403,17.7749,15.5386,0.843551,-128.589,2.2264,11.4045,-3.18838,-6.33457,2.47722,-5.0237,3.02274,-2.95418,-2.53806,7.42854,0.546938,-12.5389,-10.0691,-4.36775,-16.8106,15.1836,0.802277,-8.55874,5.73902,1.23644e-13,-1.16289e-14,42.4166,-12.1761,-46.8842,32.9201,10.7893,-25.4396,-29.0495,7.12502,1.08698,-59.0265,1.23644e-13,-1.16289e-14,47.4589,-37.2642,66.439,51.1266,-5.79814,-27.975,-18.8661,7.12502,-1.36179,11.1093,-32.2677,-12.184,17.4043,36.4075,-15.5712,-16.5844,12.3215,-6.75679,17.4085,-22.5911,28.7996,-19.8193,23.8562,-7.17439
17.6124,17.7712,15.5054,0.920227,-129.1,2.07927,11.5765,-3.19287,-6.37638,2.58949,-5.05223,3.03694,-2.92066,-2.56146,7.47981,0.383384,-12.3307,-10.067,-4.58935,-16.5047,15.2831,0.735846,-8.41097,5.78673,3.41413e-14,9.0447e-15,43.6338,-12.1578,-47.3646,31.9779,11.3382,-25.5378,-29.0266,7.12502,0.992105,-59.0041,3.41413e-14,9.0447e-15,49.2529,-37.0364,65.1504,51.3744,-5.45373,-27.1874,-19.0549,7.12502,-0.601095,10.924,-32.5239,-12.5655,17.7011,35.9835,-15.4519,-16.8089,10.9048,-6.37763,17.7552,-22.5837,28.5231,-19.7234,24.0223,-7.47653
17.5771,17.7768,15.477,1.19674,-129.536,2.05015,11.4278,-3.20691,-6.25568,2.6083,-5.04831,3.08736,-2.82592,-2.56605,7.45045,0.276327,-12.2064,-9.89845,-4.73463,-16.3151,15.1887,0.664776,-8.31871,5.74807,-3.75206e-15,1.66979e-14,44.6788,-12.1785,-47.7148,31.1284,11.9116,-25.4319,-28.9454,7.12502,1.09446,-58.9223,-3.75206e-15,1.66979e-14,50.7803,-36.7783,64.4891,51.5679,-5.63854,-26.108,-18.6847,7.12502,0.441445,11.2945,-33.074,-13.234,18.1961,35.4833,-15.38,-17.1297,10.5013,-6.35339,17.7686,-22.6618,28.2889,-19.429,24.446,-8.31527
17.5359,17.7851,15.4466,1.47504,-129.964,2.03568,11.3459,-3.22402,-6.01637,2.58111,-5.03728,3.16749,-2.8253,-2.56143,7.39312,-0.0409106,-12.2009,-9.71056,-4.66759,-16.2802,14.8311,0.682535,-8.2846,5.5969,6.50523e-14,2.51463e-14,45.6082,-11.984,-47.6664,30.3931,12.0489,-25.0238,-28.9231,7.12502,1.48855,-58.8976,6.50523e-14,2.51463e-14,52.315,-36.4871,63.9822,51.4361,-6.08652,-25.4515,-18.1554,7.12502,1.07549,11.8216,-33.5616,-13.7204,18.6534,34.8923,-15.3904,-17.7531,11.0001,-6.3534,17.6071,-22.7744,28.1325,-19.6713,24.7919,-7.88898
17.4984,17.7892,15.416,1.5345,-130.343,2.20348,11.4728,-3.31357,-5.68121,2.52589,-5.12272,3.31199,-2.95534,-2.60035,7.38094,-0.405122,-12.1196,-9.68391,-4.51032,-16.1493,14.5372,0.74222,-8.19787,5.48675,1.05256e-13,-3.00165e-14,46.6144,-11.5746,-47.6159,29.7537,11.9644,-24.1987,-29.5699,7.12502,2.28543,-59.5374,1.05256e-13,-3.00165e-14,53.746,-36.0671,63.4417,51.1175,-6.44972,-25.3303,-18.165,7.12502,1.19258,11.8114,-33.9013,-14.0254,19.1803,34.2393,-15.3703,-18.3384,11.1479,-6.30212,17.566,-22.7158,28.0132,-19.8141,25.1299,-7.84556
17.4624,17.7872,15.3801,1.53326,-130.773,2.4811,11.4921,-3.38429,-5.36834,2.4964,-5.18052,3.44536,-3.00312,-2.63022,7.35566,-0.591739,-11.9632,-9.66704,-4.46235,-15.9297,14.4971,0.755585,-8.08151,5.47369,8.54774e-15,1.49089e-14,47.6447,-11.4936,-48.1321,29.1347,12.3558,-23.196,-30.005,7.12502,3.25378,-59.9599,8.54774e-15,1.49089e-14,55.3314,-35.726,62.5195,50.9218,-6.42833,-25.0585,-17.8226,7.12502,1.45507,12.1522,-34.287,-14.3324,19.8373,33.5699,-15.0684,-18.7722,9.8255,-6.27038,17.7424,-22.5406,27.8945,-19.7034,25.4787,-8.06832
17.4224,17.7841,15.3377,1.67229,-131.323,2.42788,11.5604,-3.31514,-5.51896,2.51762,-5.11161,3.69684,-2.99192,-2.60196,7.70893,-0.748337,-11.8262,-9.83985,-4.55049,-15.7191,14.3661,0.732134,-7.96766,5.46802,-2.87244e-14,2.22639e-14,48.6874,-11.4987,-48.4613,28.5428,12.7893,-22.4906,-29.7137,7.12502,3.93502,-59.6571,-2.87244e-14,2.22639e-14,56.827,-35.3422,61.8745,50.8994,-6.37402,-24.6912,-16.9078,7.12502,1.80983,13.0642,-34.5519,-14.629,20.2709,32.931,-14.7125,-19.0613,8.97933,-6.06283,17.9349,-22.5681,27.7623,-19.693,25.9536,-8.16027
17.3856,17.7873,15.299,1.95218,-131.949,2.27433,11.8219,-3.01525,-6.20947,2.39039,-4.80213,4.35248,-3.20441,-2.43928,8.81311,-0.886741,-11.8174,-10.3553,-4.67905,-15.6591,13.8926,0.706949,-7.9143,5.40472,-1.10325e-14,2.26615e-14,49.444,-11.095,-47.2934,28.1122,12.4023,-21.9871,-29.5941,7.12502,4.42121,-59.528,-1.10325e-14,2.26615e-14,58.0111,-34.9794,62.3925,50.7164,-6.60827,-24.339,-16.1285,7.12502,2.15,13.8404,-34.9408,-14.8137,20.6919,32.381,-14.1811,-19.5627,7.7363,-5.91682,17.8155,-22.7591,27.5592,-19.747,26.7721,-8.51061
17.3506,17.7955,15.2638,2.17905,-132.478,2.37069,11.9427,-3.22827,-5.33586,2.18728,-4.97556,3.92732,-3.56807,-2.49759,7.89149,-0.978755,-11.5696,-9.95266,-4.29606,-15.3615,14.0221,0.779755,-7.76618,5.38501,-7.45443e-14,1.59028e-14,49.9205,-10.698,-48.2714,27.5072,12.3341,-21.842,-29.5127,7.12502,4.56138,-59.4436,-7.45443e-14,1.59028e-14,59.1238,-34.7932,60.8557,50.5882,-6.61002,-23.8495,-15.5324,7.12502,2.62273,14.4312,-35.5585,-15.056,21.3799,31.9356,-13.4197,-20.3202,4.64118,-5.90399,17.6732,-22.7991,27.273,-19.87,27.3641,-8.33317
17.3122,17.798,15.2219,2.39023,-132.859,2.22072,12.0738,-3.29017,-5.38914,2.13047,-5.06869,4.05216,-3.66774,-2.53893,8.08403,-0.976489,-11.3925,-10.0463,-4.28231,-15.112,13.752,0.7378,-7.63419,5.33714,-2.15681e-14,-3.49861e-14,50.7791,-10.4096,-48.674,26.9539,12.4217,-21.63,-29.2764,7.12502,4.76607,-59.2028,-2.15681e-14,-3.49861e-14,60.249,-34.2507,60.2209,50.4257,-6.78473,-23.5793,-15.1747,7.12502,2.88367,14.7855,-35.9003,-15.43,21.7879,31.5178,-13.2979,-20.7744,3.43404,-5.64752,17.9508,-22.8729,26.9999,-19.659,27.5663,-8.844
17.2741,17.7867,15.1714,2.72895,-133.366,1.87003,12.1372,-3.22754,-5.65884,2.11682,-5.02193,4.10211,-3.69682,-2.51179,8.29418,-0.806951,-11.2856,-9.80075,-4.52763,-14.9534,13.2981,0.562835,-7.56081,5.20156,8.59744e-14,7.95139e-15,51.5484,-10.394,-49.3031,26.4366,12.8221,-21.2425,-29.2561,7.12502,5.14016,-59.1738,8.59744e-14,7.95139e-15,61.5448,-33.8672,59.4205,50.228,-6.82058,-23.2045,-14.5322,7.12502,3.24564,15.4228,-36.1886,-15.7145,22.0357,31.0538,-13.2716,-21.1277,4.17042,-5.39781,18.2502,-23.1091,26.8046,-19.1204,28.1281,-10.5685
17.2374,17.7765,15.1207,2.93156,-133.982,2.00848,11.9955,-3.07254,-5.60578,2.11821,-4.802,4.25433,-3.64794,-2.40756,8.38929,-0.931348,-11.3865,-9.51958,-4.57868,-15.0727,12.9628,0.531062,-7.61658,5.05169,3.27995e-15,5.96354e-15,52.1762,-10.5193,-49.5691,26.0647,13.1635,-20.7033,-29.356,7.12502,5.66086,-59.2604,3.27995e-15,5.96354e-15,63.0349,-33.5713,58.6137,49.9465,-6.8958,-22.8051,-13.946,7.12502,3.63127,16.0028,-36.7054,-15.8667,22.785,30.6039,-12.846,-21.6698,4.69205,-5.4175,18.2149,-23.1138,26.6371,-18.6801,29.0284,-11.9384
17.1982,17.7782,15.0729,2.85771,-134.544,2.41143,11.9784,-3.03652,-5.18763,2.14629,-4.70576,4.43305,-3.6454,-2.37019,8.32793,-1.26162,-11.4446,-9.57931,-4.35611,-15.1383,12.8506,0.651206,-7.63251,4.99432,4.77083e-15,3.57812e-15,52.9686,-10.4617,-49.7819,25.6485,13.7057,-19.905,-29.5299,7.12502,6.43153,-59.4123,4.77083e-15,3.57812e-15,64.2426,-33.089,58.038,49.595,-6.83621,-22.8259,-13.9498,7.12502,3.61123,15.9993,-36.9587,-15.7451,23.5859,30.2171,-13.627,-22.0152,6.19914,-5.31864,18.2609,-22.8502,26.4666,-18.3993,29.6063,-12.5738
17.1553,17.7794,15.0243,3.03471,-135.04,2.24433,12.1385,-3.03718,-5.17439,2.14357,-4.71402,4.51901,-3.72861,-2.37347,8.42974,-1.42912,-11.3572,-9.77389,-4.16803,-15.0145,12.7969,0.729679,-7.55758,4.99683,-5.04913e-14,-1.39149e-14,53.6699,-10.1369,-49.8612,25.3469,13.9959,-19.2132,-29.9258,7.12502,7.09932,-59.7867,-5.04913e-14,-1.39149e-14,65.2696,-32.562,57.5408,49.3044,-6.3898,-22.9781,-13.3563,7.12502,3.46423,16.5953,-36.953,-15.4708,23.7684,29.8461,-14.9528,-22.593,7.04356,-5.05112,18.6062,-22.9166,26.3426,-18.5341,29.6903,-12.3776
17.1142,17.775,14.9695,3.55436,-135.486,1.64349,12.227,-3.03776,-5.56343,2.1452,-4.76838,4.51801,-3.73333,-2.39639,8.66821,-1.57664,-11.2155,-9.73873,-4.15425,-14.8116,12.6366,0.719027,-7.45064,4.94914,-2.06736e-14,7.55382e-15,54.4258,-9.96099,-50.4786,25.0644,14.378,-18.9745,-29.8833,7.12502,7.32981,-59.7363,-2.06736e-14,7.55382e-15,66.31,-31.9624,57.0527,48.8928,-6.32891,-22.7905,-12.6948,7.12502,3.64542,17.2538,-36.9775,-15.0324,23.5495,29.496,-15.8092,-23.8883,7.12428,-4.839,18.9547,-23.3149,26.2547,-18.7968,29.6915,-12.1153
17.0798,17.7675,14.9134,3.76312,-135.904,1.54371,12.3139,-3.08563,-5.53489,2.12149,-4.83262,4.53741,-3.79499,-2.42561,8.69043,-1.63391,-11.0134,-9.47626,-4.31762,-14.5269,12.3051,0.602846,-7.31096,4.83657,-9.93923e-15,2.62396e-14,55.1082,-9.85346,-51.3798,24.7395,15.0355,-18.675,-29.5149,7.12502,7.61886,-59.3577,-9.93923e-15,2.62396e-14,67.3034,-31.3886,56.2901,48.4697,-6.497,-22.6581,-12.5769,7.12502,3.77324,17.3694,-37.06,-14.6007,23.7778,29.1974,-16.3948,-25.2622,6.29414,-4.69883,19.0616,-23.353,26.1842,-18.6545,30.0028,-12.6577
17.0445,17.7554,14.8593,3.91174,-136.271,1.57077,12.4022,-3.17408,-5.31447,2.08301,-4.92579,4.56356,-3.88362,-2.46981,8.61413,-1.72867,-10.7508,-9.27917,-4.4712,-14.1615,12.0397,0.499012,-7.13012,4.75354,-1.43125e-14,-2.06736e-14,55.6891,-9.64177,-51.9957,24.5156,15.6089,-18.1464,-29.043,7.12502,8.12901,-58.8666,-1.43125e-14,-2.06736e-14,68.3927,-30.811,54.9445,48.3344,-6.06599,-22.4814,-11.8946,7.12502,3.94387,18.0486,-37.191,-14.5822,24.2553,28.8854,-17.0749,-25.8567,6.43241,-4.62784,18.9847,-23.3268,26.1969,-18.5655,30.3764,-13.0813
17.0017,17.7365,14.8006,4.27802,-136.597,1.23717,12.4278,-3.25914,-5.35658,2.09093,-5.04751,4.5544,-3.86417,-2.53174,8.64576,-2.01035,-10.5105,-9.26451,-4.29553,-13.8304,11.9902,0.556779,-6.95458,4.73358,3.97569e-15,-3.57812e-15,56.4409,-9.59161,-52.8921,24.2789,16.6576,-17.9881,-28.7053,7.12502,8.28181,-58.523,3.97569e-15,-3.57812e-15,69.198,-30.2058,54.4496,47.9494,-6.18071,-21.4796,-11.6656,7.12502,4.91128,18.2575,-37.1981,-14.642,24.3988,28.5254,-19.7504,-24.9695,14.6579,-4.5215,19.0599,-23.5407,26.3097,-18.8642,30.4489,-12.926
16.9562,17.7159,14.7401,4.51685,-136.951,1.08513,12.4464,-3.31928,-5.20057,2.05862,-5.1074,4.5124,-3.91555,-2.55892,8.52143,-2.09746,-10.3461,-8.90524,-4.13055,-13.6159,11.6754,0.548351,-6.84325,4.59179,5.84427e-14,-7.95139e-16,57.0028,-9.57554,-53.7651,24.0701,17.7542,-17.9592,-29.044,7.12502,8.30974,-58.8605,5.84427e-14,-7.95139e-16,69.9375,-29.7597,54.1149,47.4492,-6.59023,-20.8272,-11.8174,7.12502,5.54123,18.0901,-37.1324,-14.1533,24.4655,28.206,-20.8392,-25.7949,17.0322,-4.41398,19.2192,-23.6031,26.4429,-19.3951,30.3909,-12.318
16.9167,17.703,14.6794,4.78923,-137.436,0.898905,12.513,-3.35581,-5.02972,2.01044,-5.13452,4.39045,-4.02527,-2.56502,8.30331,-1.98972,-10.2564,-8.54624,-4.26342,-13.5002,11.3731,0.433082,-6.79283,4.46918,-7.87187e-14,7.15625e-15,57.3745,-9.35295,-54.3185,23.9919,18.2442,-17.6246,-29.3214,7.12502,8.6326,-59.1249,-7.87187e-14,7.15625e-15,71.1989,-29.1882,52.1374,47.3548,-5.89049,-21.2142,-10.77,7.12502,5.16754,19.147,-37.0174,-12.7948,24.1474,27.9902,-21.811,-26.856,20.0725,-4.33265,19.3844,-23.7347,26.538,-19.8344,30.5387,-11.9217
16.8824,17.699,14.6163,4.94387,-137.933,0.750072,12.6796,-3.36658,-5.01964,2.01434,-5.15649,4.38609,-4.1103,-2.57342,8.31177,-1.94759,-10.1727,-8.97574,-4.40623,-13.3762,11.5236,0.412274,-6.73057,4.58936,-5.64548e-14,-1.66979e-14,57.8808,-9.12204,-55.0072,23.9502,18.8116,-17.1781,-29.2222,7.12502,9.06349,-59.0074,-5.64548e-14,-1.66979e-14,72.1016,-28.496,50.9572,47.1727,-5.60533,-21.2147,-10.0036,7.12502,5.167,19.9134,-36.7532,-11.4956,23.8653,27.8224,-23.205,-26.88,25.8445,-4.1524,19.703,-23.7688,26.622,-19.8007,30.7252,-12.3995
16.8429,17.6914,14.5523,5.24602,-138.318,0.511141,12.6477,-3.38211,-5.09,2.05874,-5.18936,4.44271,-4.0282,-2.59664,8.41222,-2.24679,-9.98608,-8.95041,-4.31521,-13.1094,11.2483,0.437999,-6.58617,4.50051,6.52014e-14,-1.43125e-14,58.4241,-8.96524,-55.4544,23.9538,19.1395,-16.9699,-29.0684,7.12502,9.26442,-58.8449,6.52014e-14,-1.43125e-14,72.5348,-27.8738,51.4623,46.6014,-6.58494,-20.0457,-10.5306,7.12502,6.29571,19.3559,-36.727,-11.0685,23.8892,27.7724,-21.9257,-27.927,25.5027,-4.04969,19.9212,-23.9047,26.6809,-19.2796,30.8981,-13.1947
16.8017,17.6815,14.4882,5.83025,-138.749,0.107314,12.4422,-3.37969,-5.22237,2.04094,-5.19338,4.45174,-3.9204,-2.60048,8.47951,-2.5049,-9.9125,-9.1896,-4.09118,-12.9979,11.3045,0.553888,-6.51722,4.53651,-7.17613e-14,4.77083e-14,58.8209,-8.73648,-55.5047,24.0528,18.8847,-16.9541,-28.7154,7.12502,9.27966,-58.4912,-7.17613e-14,4.77083e-14,73.3059,-27.1916,51.291,45.9237,-7.16752,-19.333,-10.7483,7.12502,6.98371,19.1165,-36.9475,-10.5268,23.6996,27.7029,-20.916,-28.4792,26.0831,-4.19226,20.0045,-24.275,26.8183,-19.0858,31.0891,-13.5374
16.7638,17.6806,14.4086,5.7443,-138.607,-0.0291633,12.8177,-3.52275,-5.21988,2.06489,-5.40427,4.54799,-4.05407,-2.7046,8.64639,-2.49965,-9.85975,-9.4168,-4.0613,-12.9231,11.4291,0.578211,-6.47692,4.60973,-7.7526e-14,-6.36111e-15,59.2322,-8.59553,-56.2346,24.1615,19.3121,-16.7343,-28.7322,7.12502,9.4917,-58.4984,-7.7526e-14,-6.36111e-15,74.2605,-26.5188,50.258,45.3864,-6.72515,-19.9434,-10.3981,7.12502,6.3945,19.4853,-36.4296,-9.36416,23.0974,27.7239,-22.3897,-28.7538,30.437,-3.69525,19.8181,-24.015,26.9792,-19.239,30.8619,-13.8443
16.7222,17.6821,14.3579,6.03933,-139.64,0.176088,12.7043,-3.35868,-4.88879,1.95514,-5.13096,4.62543,-4.18022,-2.56249,8.50057,-2.55139,-9.74723,-9.39267,-4.13877,-12.7643,11.2727,0.534537,-6.39698,4.56922,2.82274e-14,-5.56597e-15,59.6734,-8.47365,-57.3099,24.316,20.1398,-16.6467,-29.345,7.12502,9.57627,-59.1073,2.82274e-14,-5.56597e-15,74.9437,-25.8509,49.5224,44.9365,-6.55135,-20.5299,-10.699,7.12502,5.82823,19.2009,-36.9025,-8.19614,23.1568,27.7454,-22.5058,-28.3057,33.5437,-4.08195,20.0657,-24.1198,27.1956,-19.0467,31.4292,-14.3687
16.6817,17.6722,14.2876,6.09178,-139.977,0.12666,12.9323,-3.40869,-4.68128,1.92488,-5.17838,4.60466,-4.35003,-2.58067,8.3896,-2.49942,-9.64488,-9.36363,-4.04896,-12.6326,11.162,0.529535,-6.32924,4.53963,-1.32391e-13,1.43125e-14,59.8542,-8.23781,-58.0604,24.599,20.4914,-17.0779,-29.5294,7.12502,9.16013,-59.3105,-1.32391e-13,1.43125e-14,75.4015,-25.2475,49.1047,44.4075,-6.90199,-20.8087,-10.8568,7.12502,5.55902,19.0503,-36.8905,-7.88682,23.1106,27.8936,-22.2235,-27.8599,35.2404,-4.03311,20.0811,-24.0663,27.5915,-18.7839,31.7517,-14.9853
16.6452,17.6781,14.205,6.31908,-140.092,0.0909476,12.7964,-3.54231,-4.58353,1.8919,-5.33699,4.65249,-4.2869,-2.66303,8.39544,-2.49761,-9.5582,-9.46748,-3.77807,-12.5237,11.2097,0.608018,-6.26771,4.56631,-6.87795e-14,2.38542e-14,59.9282,-7.92088,-58.6574,25.1758,20.7466,-17.9753,-29.2328,7.12502,8.2942,-59.05,-6.87795e-14,2.38542e-14,75.783,-24.6503,48.8528,43.8665,-7.09053,-21.1348,-10.5651,7.12502,5.24419,19.35,-36.9217,-7.47666,23.0594,28.026,-20.0161,-28.9011,32.3748,-4.25669,20.2401,-23.9177,28.2153,-18.7779,31.681,-15.1085
16.6096,17.6709,14.1347,6.53731,-140.455,0.0727053,12.6716,-3.61801,-4.50118,1.96919,-5.43095,4.76768,-4.11627,-2.726,8.46819,-2.80313,-9.35498,-9.87545,-3.4535,-12.2362,11.5027,0.769109,-6.10854,4.70347,4.13472e-14,5.32743e-14,60.233,-7.48668,-59.0711,25.9994,20.9546,-19.6595,-28.9381,7.12502,6.66849,-58.8131,4.13472e-14,5.32743e-14,76.104,-23.7933,48.6051,43.4533,-6.9863,-21.4881,-11.179,7.12502,4.90309,18.7443,-37.1461,-7.6034,23.2998,28.2778,-18.1161,-28.7435,30.8105,-4.63095,20.4743,-23.8559,29.0371,-18.3531,31.88,-15.6435
16.5735,17.659,14.0628,6.60701,-140.854,0.137775,12.6161,-3.69542,-4.3399,2.08305,-5.52337,4.84899,-3.9563,-2.79066,8.46279,-2.60643,-9.20449,-9.5692,-4.03675,-12.0287,11.1042,0.498262,-6.02198,4.57976,4.13472e-14,2.94201e-14,60.5308,-7.05718,-59.5832,26.8687,21.375,-21.5807,-28.3315,7.12502,4.81367,-58.2568,4.13472e-14,2.94201e-14,76.3505,-22.938,48.5089,42.9771,-6.92364,-21.7194,-11.4041,7.12502,4.67969,18.5242,-37.3411,-7.89477,23.6518,28.558,-17.3319,-27.9746,31.7223,-5.07105,20.683,-23.6851,30.1619,-17.7744,32.0985,-16.5523
16.5351,17.6501,13.983,6.18119,-141.171,0.512182,12.9606,-3.75785,-3.88741,2.16913,-5.56904,4.90528,-4.08441,-2.82287,8.30134,-2.55618,-9.05758,-9.48072,-3.91217,-11.8409,11.0288,0.49764,-5.92692,4.55275,1.80298e-13,-2.3059e-14,61.1243,-7.45734,-62.8114,27.796,24.8775,-22.63,-27.4164,7.12502,3.80044,-57.3622,1.80298e-13,-2.3059e-14,76.5993,-22.402,48.7617,42.2235,-7.03428,-21.4271,-10.5158,7.12502,4.96193,19.4061,-37.1491,-8.12749,24.1475,28.8795,-18.1622,-26.7985,35.3741,-5.27688,21.1189,-23.0384,31.6097,-17.439,32.0729,-17.5079
16.4954,17.6399,13.9124,5.75686,-141.708,1.01147,13.4421,-3.75848,-3.26007,2.17346,-5.50173,4.9615,-4.40915,-2.78995,8.04521,-3.11799,-9.01972,-9.50997,-3.00193,-11.7851,10.9196,0.844328,-5.86824,4.47371,-1.63003e-14,1.27222e-14,59.989,-6.03399,-59.9543,29.7567,22.3856,-24.0014,-28.6737,7.12502,2.47599,-58.6391,-1.63003e-14,1.27222e-14,76.8134,-21.9091,48.7547,41.6235,-6.67348,-21.2275,-9.49565,7.12502,5.15465,20.4217,-37.1218,-8.38659,24.8062,29.2747,-16.9893,-26.4971,34.8775,-5.68434,21.6589,-22.4109,33.2803,-17.2629,32.1262,-18.3533
16.4574,17.6334,13.8473,5.81937,-142.568,1.31243,13.6017,-3.66769,-2.91142,2.07142,-5.32931,5.01991,-4.6584,-2.69746,7.90817,-3.74475,-9.01336,-9.44075,-2.02985,-11.7704,10.6405,1.20698,-5.82887,4.32479,3.35946e-14,-1.82882e-14,59.9975,-5.77789,-61.4228,31.3221,24.0028,-24.3251,-29.551,7.12502,2.1634,-59.5198,3.35946e-14,-1.82882e-14,76.8199,-21.385,48.7395,41.2051,-6.26863,-21.6414,-8.20243,7.12502,4.75507,21.7242,-37.6391,-8.82455,25.5425,29.7628,-14.5626,-26.2575,31.6427,-6.64111,22.3204,-22.1605,35.1236,-16.9822,32.1275,-18.7507
16.4239,17.6185,13.775,6.04398,-143.309,1.32593,13.9109,-3.73718,-2.5643,1.83462,-5.35423,4.75071,-5.13439,-2.68098,7.46992,-3.96739,-8.8114,-8.88708,-1.27317,-11.5395,10.3568,1.39354,-5.69967,4.14072,-1.94809e-14,3.26007e-14,59.904,-5.30319,-62.769,32.5777,24.9065,-24.5746,-29.9571,7.12502,1.92242,-59.9282,-1.94809e-14,3.26007e-14,76.5228,-21.0107,48.5908,40.6813,-6.23695,-21.6425,-7.11409,7.12502,4.75397,22.8126,-38.0571,-8.75816,25.8121,30.3085,-13.856,-25.9408,31.5249,-7.72073,22.843,-22.083,37.1326,-16.2019,32.1521,-19.2053
16.3902,17.6035,13.7032,6.00603,-143.908,1.32429,14.3846,-3.85004,-2.38277,1.794,-5.4819,4.58189,-5.45375,-2.73293,7.25695,-4.31231,-8.54262,-8.5995,-0.591997,-11.2071,10.2985,1.59957,-5.51645,4.06681,4.77083e-14,-2.22639e-14,59.1875,-4.04323,-61.0038,34.0662,22.8686,-24.9694,-30.3395,7.12502,1.5411,-60.3136,4.77083e-14,-2.22639e-14,76.2408,-20.3048,48.6535,40.0934,-6.34154,-21.2335,-6.74227,7.12502,5.14891,23.1752,-38.2042,-8.75806,25.9641,30.9826,-12.7796,-25.6079,31.6636,-8.64164,23.0852,-21.8978,39.4023,-15.337,32.2334,-19.9501
16.3579,17.6009,13.6348,6.06478,-144.549,1.28503,14.7121,-3.94112,-2.20767,1.80577,-5.58361,4.41178,-5.64124,-2.77944,7.02453,-4.67322,-8.28236,-8.76015,0.0567136,-10.8843,10.7151,1.85409,-5.33364,4.20367,6.95746e-14,-6.48038e-14,59.5925,-4.00067,-63.3431,35.6964,24.9387,-23.6261,-30.1354,7.12502,2.83848,-60.0962,6.95746e-14,-6.48038e-14,76.0678,-19.5463,49.0405,39.343,-6.77897,-20.9363,-6.4206,7.12502,5.43581,23.4897,-38.5215,-9.75079,26.5228,31.5587,-11.5796,-24.0469,33.7703,-9.7686,23.3733,-21.7485,41.8242,-14.4798,32.0482,-20.7942
