JuanDHNZ/ProyectoFinalCD/preprocessing/sports_trials_csv/01_14.csv
root1,root2,root3,root4,root5,root6,lowerback1,lowerback2,lowerback3,upperback1,upperback2,upperback3,thorax1,thorax2,thorax3,lowerneck1,lowerneck2,lowerneck3,upperneck1,upperneck2,upperneck3,head1,head2,head3,rclavicle1,rclavicle2,rhumerus1,rhumerus2,rhumerus3,rradius1,rwrist1,rhand1,rhand2,rfingers1,rthumb1,rthumb2,lclavicle1,lclavicle2,lhumerus1,lhumerus2,lhumerus3,lradius1,lwrist1,lhand1,lhand2,lfingers1,lthumb1,lthumb2,rfemur1,rfemur2,rfemur3,rtibia1,rfoot1,rfoot2,rtoes1,lfemur1,lfemur2,lfemur3,ltibia1,lfoot1,lfoot2,ltoes1
13.3271,31.7893,45.6724,141.454,7.00558,-170.636,38.9786,-11.0184,0.0325992,20.9503,-5.98728,-5.50849,3.53349,0.967458,-3.79653,-8.24805,4.23545,-5.50984,11.6957,6.02316,4.81755,4.53448,3.087,2.75182,5.725e-14,4.92986e-14,53.2576,23.9784,-84.3082,101.992,21.6494,0.97805,-30.3885,7.12502,26.5268,-58.5512,5.725e-14,4.92986e-14,40.0431,10.5797,51.9884,103.72,-20.1091,23.8463,12.3699,7.12502,48.0998,34.536,-62.5505,-17.8191,34.0889,141.925,-28.1599,-16.4764,19.7355,-69.1356,21.2962,-9.05249,120.719,-18.6849,-7.70343,-8.78628
13.3284,31.6987,45.6344,140.877,7.0163,-170.627,39.0647,-11.0243,0.0577021,20.9732,-5.94904,-5.39369,3.54873,1.002,-3.69607,-7.92911,4.11311,-5.76569,11.2936,5.85965,4.87529,4.35729,2.99736,2.78233,-4.77083e-15,3.97569e-14,53.6094,23.6181,-83.8872,101.579,21.8692,1.44268,-30.336,7.12502,26.9715,-58.4308,-4.77083e-15,3.97569e-14,39.7003,10.4765,52.1809,103.709,-18.7894,22.6214,11.57,7.12502,46.9688,34.25,-63.9048,-17.5723,34.4567,142.167,-28.109,-16.6642,18.3973,-69.1944,21.8951,-8.97755,121.477,-18.7861,-7.86555,-7.53947
13.3297,31.608,45.5939,140.435,7.00196,-170.598,38.9575,-11.0649,0.123639,21.0731,-5.93901,-5.33663,3.69324,1.03237,-3.67324,-7.76741,4.00667,-5.91029,10.8302,5.71127,4.88853,4.19232,2.9164,2.78592,-4.29375e-14,2.8625e-14,54.1669,23.2255,-83.5118,101.145,22.2587,2.17633,-30.2355,7.12502,27.6732,-58.2197,-4.29375e-14,2.8625e-14,39.4262,10.4436,52.343,103.531,-18.2027,20.0213,10.6119,7.12502,44.555,34.2847,-65.3328,-17.154,34.8387,142.128,-27.5793,-16.8947,16.7026,-69.4127,22.3782,-8.95215,122.26,-19.1274,-7.72028,-8.18062
13.3335,31.5161,45.5546,140.054,6.8775,-170.682,38.8271,-11.0591,0.0784425,21.1019,-5.94806,-5.29988,3.77379,1.02595,-3.61216,-7.57711,3.9205,-6.12897,10.5233,5.59997,4.93328,4.06577,2.85406,2.81653,3.4191e-14,9.38264e-14,54.6232,22.8809,-83.31,100.945,22.8163,3.19141,-30.0558,7.12502,28.6434,-57.8803,3.4191e-14,9.38264e-14,39.2547,10.3532,52.637,103.057,-18.5192,16.2667,9.35138,7.12502,41.0427,34.2542,-66.5715,-16.667,34.9511,141.893,-26.9197,-16.8225,14.4763,-69.7531,22.7489,-9.11633,123.067,-19.3033,-7.90327,-7.97431
13.338,31.4217,45.5166,139.739,6.90378,-170.548,38.6411,-11.1435,0.346463,21.1318,-5.98331,-5.24284,3.83571,1.028,-3.68094,-7.44694,3.85617,-6.43777,10.3661,5.52813,5.03925,3.98853,2.8122,2.88771,-2.74323e-14,-2.38542e-14,55.0586,22.645,-83.006,100.514,22.5531,2.86572,-30.0264,7.12502,28.3322,-57.903,-2.74323e-14,-2.38542e-14,39.4822,10.2666,52.9212,102.054,-19.5265,13.1249,7.90359,7.12502,38.0838,33.68,-67.8863,-15.7762,35.1304,141.264,-26.1986,-15.9815,13.709,-70.2185,23.3454,-8.97911,123.908,-19.166,-8.60393,-6.12232
13.3394,31.3254,45.476,139.548,7.14713,-170.08,38.2907,-11.3807,1.05627,21.2574,-6.05811,-5.19755,3.9988,1.06097,-3.97633,-7.64279,3.7738,-6.67143,10.3932,5.43308,5.22132,4.02286,2.76677,2.98256,-4.01545e-14,3.49861e-14,55.6861,22.4556,-82.6804,100.074,21.8581,1.72536,-30.0352,7.12502,27.2419,-58.0879,-4.01545e-14,3.49861e-14,40.2026,10.2755,53.1227,100.852,-20.6631,11.689,7.1733,7.12502,36.7265,33.308,-68.9531,-14.764,35.7102,140.408,-25.6134,-15.3301,12.7391,-70.9099,24.1364,-8.44213,124.807,-19.6473,-8.38372,-8.2312
13.34,31.2307,45.4375,139.426,7.37532,-169.6,37.9025,-11.6452,1.82792,21.3705,-6.16887,-5.1994,4.14456,1.08112,-4.3441,-7.97958,3.65108,-6.92835,10.5697,5.27799,5.58842,4.12386,2.70286,3.14278,6.04305e-14,1.11319e-14,56.3324,22.2525,-82.4019,99.6282,20.9901,0.578846,-30.0878,7.12502,26.1447,-58.3077,6.04305e-14,1.11319e-14,40.9355,10.3589,53.4863,100.21,-21.238,12.1345,7.11922,7.12502,37.148,33.1453,-69.8299,-13.8133,36.0948,139.374,-25.23,-14.4593,8.76453,-71.7117,24.7892,-7.94402,125.697,-19.8926,-8.45753,-8.93832
13.3442,31.1362,45.3995,139.21,7.27192,-169.54,37.5997,-11.7783,2.11909,21.3912,-6.29823,-5.31848,4.1983,1.04172,-4.58816,-8.11362,3.53962,-7.12592,10.7748,5.12438,5.94954,4.20251,2.6427,3.28742,-2.8625e-14,-1.74931e-14,56.7574,22.0344,-82.3548,99.2279,20.4843,0.261003,-30.1816,7.12502,25.8403,-58.4462,-2.8625e-14,-1.74931e-14,41.6249,10.4677,53.8481,99.8187,-20.8747,13.6793,7.44559,7.12502,38.607,33.077,-70.5508,-13.256,35.6395,138.369,-25.2574,-12.8442,7.73999,-72.3426,25.0696,-8.01454,126.53,-19.9632,-8.51902,-9.04848
13.35,31.0436,45.3593,138.926,6.98683,-169.719,37.2496,-11.8414,2.11255,21.4474,-6.42445,-5.5287,4.32844,0.989409,-4.78245,-8.09033,3.53223,-7.10048,10.7566,5.08868,6.16553,4.18945,2.64001,3.34728,-2.54444e-14,1.59028e-15,57.1365,21.7909,-82.4785,98.8833,20.3516,0.507304,-30.3386,7.12502,26.0762,-58.5686,-2.54444e-14,1.59028e-15,42.4687,10.6183,54.0393,99.243,-19.7557,15.2314,8.02717,7.12502,40.0694,33.2322,-71.0513,-12.932,34.7027,137.338,-25.4558,-10.8529,7.5449,-72.8376,25.3978,-8.42742,127.279,-20.1102,-8.68614,-9.4175
13.3548,30.9498,45.3186,138.706,6.76529,-169.849,36.875,-11.8855,2.15189,21.4899,-6.52414,-5.68113,4.45661,0.944114,-4.94909,-8.01011,3.53737,-7.17633,10.6037,5.06991,6.46267,4.1197,2.64564,3.44436,7.03698e-14,-3.97569e-14,57.5028,21.5086,-82.5774,98.5507,20.3488,1.00159,-30.4753,7.12502,26.5494,-58.6347,7.03698e-14,-3.97569e-14,43.139,10.7153,54.2807,98.8208,-18.6857,16.5994,8.62699,7.12502,41.355,33.4295,-71.524,-12.5376,33.8996,136.213,-25.4436,-9.31128,5.5566,-73.4391,25.9455,-8.79019,128.013,-20.2217,-9.09589,-9.30837
13.3603,30.8576,45.2861,138.542,6.53053,-169.977,36.5599,-11.8749,2.13091,21.4604,-6.59365,-5.72245,4.51207,0.885475,-4.97594,-7.89346,3.48236,-7.47414,10.4825,4.98499,6.86574,4.04975,2.61588,3.60696,2.66371e-14,-4.77083e-14,57.8136,21.2228,-82.4568,98.1809,20.176,0.804155,-30.6643,7.12502,26.3604,-58.8521,2.66371e-14,-4.77083e-14,43.6119,10.744,54.7078,98.5647,-18.3459,17.5551,8.90819,7.12502,42.251,33.4136,-72.0037,-12.5087,33.1682,135.049,-25.3487,-7.82311,3.55176,-74.0941,26.3029,-9.18541,128.709,-20.129,-9.39441,-8.86375
13.3652,30.7568,45.2449,138.42,6.35003,-170.002,36.1332,-11.8855,2.1765,21.5134,-6.65026,-5.7257,4.6963,0.849868,-5.00475,-7.7855,3.48405,-7.68736,10.2261,4.97462,7.18753,3.9396,2.62011,3.73094,-2.18663e-14,-1.04958e-13,58.2555,20.9065,-82.1319,97.8224,19.8597,0.457262,-30.8477,7.12502,26.0283,-59.0848,-2.18663e-14,-1.04958e-13,44.1225,10.8482,55.0145,98.131,-18.6384,17.5933,8.53234,7.12502,42.2868,33.0256,-72.4577,-12.159,32.5387,134.04,-25.323,-6.49858,2.93146,-74.9646,26.6757,-9.48379,129.517,-19.9216,-9.9091,-8.03948
13.3705,30.6621,45.2053,138.326,6.19696,-169.995,35.6644,-11.9112,2.29363,21.5583,-6.72034,-5.75897,4.87216,0.811069,-5.10069,-7.58132,3.50447,-7.76708,9.99039,4.98659,7.33958,3.82667,2.62969,3.77979,-4.33351e-14,-3.81667e-14,58.691,20.6096,-82.2576,97.4034,19.7146,0.774964,-30.7152,7.12502,26.3324,-58.9072,-4.33351e-14,-3.81667e-14,44.552,10.9281,55.1176,97.5354,-19.0816,17,7.76491,7.12502,41.7308,32.4445,-72.8229,-11.8295,32.024,133.067,-25.1161,-5.60373,1.05178,-75.9564,27.1842,-9.78635,130.318,-19.7105,-10.4723,-7.3233
13.3754,30.5728,45.1746,138.232,6.04146,-170.004,35.2667,-11.9517,2.46305,21.5393,-6.81358,-5.81095,4.94236,0.755791,-5.23424,-7.498,3.43877,-7.9083,10.0355,4.89713,7.47738,3.82587,2.58817,3.84062,-5.4467e-14,-9.54166e-15,59.0646,20.2939,-82.3125,96.9916,19.2977,1.24187,-30.7074,7.12502,26.7793,-58.8317,-5.4467e-14,-9.54166e-15,44.9815,10.951,55.223,96.9198,-19.1917,16.4366,7.20199,7.12502,41.2022,32.0538,-73.0416,-11.7636,31.7014,132.041,-24.5766,-5.37235,0.219017,-76.9235,27.6175,-10.1752,131.061,-19.6094,-10.5536,-7.61249
13.3767,30.476,45.1388,138.127,5.92651,-170.006,34.8234,-12.0375,2.68102,21.6223,-6.9096,-5.90143,5.13181,0.730989,-5.43482,-7.80771,3.35369,-7.98906,10.1732,4.79444,7.61517,3.92136,2.54539,3.90388,8.42847e-14,5.88403e-14,59.5057,19.9877,-82.3103,96.5068,19.068,1.86507,-30.666,7.12502,27.3755,-58.6976,8.42847e-14,5.88403e-14,45.5652,11.1011,55.1599,96.2265,-18.7725,15.9195,6.99987,7.12502,40.7164,32.0057,-73.2358,-11.6545,31.6192,131.046,-23.8912,-5.76737,-4.05089,-77.9067,28.0442,-10.5763,131.833,-19.5303,-10.6442,-7.94227
13.3774,30.3806,45.1035,138.002,5.67334,-170.186,34.3917,-12.1041,2.71506,21.7253,-7.01979,-6.09808,5.34668,0.696406,-5.65181,-8.17212,3.28209,-7.93671,10.2415,4.69852,7.74213,4.00825,2.51097,3.94204,6.2816e-14,2.06736e-14,60.097,19.6765,-82.3999,96.0011,19.207,2.37617,-30.5316,7.12502,27.8643,-58.485,6.2816e-14,2.06736e-14,46.2508,11.3033,54.9502,95.4176,-18.1274,15.58,6.79452,7.12502,40.3974,31.8995,-73.3376,-11.7562,31.0327,130.459,-23.8853,-4.59259,-1.82592,-78.8083,28.2919,-11.2582,132.541,-19.5003,-10.6862,-8.10891
13.378,30.2847,45.0666,137.893,5.43512,-170.311,34.0052,-12.1684,2.85492,21.7095,-7.15022,-6.25318,5.40272,0.630284,-5.8721,-8.03235,3.21429,-8.03654,10.0492,4.59587,7.91472,3.92786,2.4648,3.99889,-1.19271e-15,1.59028e-15,60.3713,19.3956,-82.3824,95.5118,19.1451,2.1268,-30.4026,7.12502,27.6258,-58.3944,-1.19271e-15,1.59028e-15,46.9595,11.4218,54.8645,94.5518,-17.7509,15.9517,6.40923,7.12502,40.7467,31.4056,-73.3022,-11.8472,30.5305,129.917,-23.4828,-3.93021,-1.64382,-79.7227,28.5367,-11.9065,133.266,-19.5707,-10.7068,-8.41802
13.3769,30.1836,45.027,137.704,5.44316,-170.159,33.6886,-12.2955,3.3084,21.6941,-7.26722,-6.31326,5.41072,0.599053,-6.15052,-7.58009,3.22696,-8.14105,9.57078,4.59205,8.03771,3.70231,2.45932,4.03017,-7.51406e-14,-1.43125e-14,60.7347,19.1491,-82.3558,95.0624,18.8971,1.7841,-30.6309,7.12502,27.2981,-58.6747,-7.51406e-14,-1.43125e-14,47.6649,11.5059,54.7397,93.648,-17.6457,16.5506,6.15516,7.12502,41.3092,30.9725,-73.284,-12.0272,30.8335,129.79,-21.343,-4.73055,-5.00159,-80.5953,29.0839,-12.0908,134.056,-19.6234,-10.9149,-8.48676
13.3763,30.0824,44.9816,137.424,5.42607,-170.049,39.4573,-10.3534,3.74497,16.429,-5.54689,-2.85537,-1.49488,0.461698,-3.0544,-3.38073,2.00835,-12.3532,11.9049,3.02115,8.70411,3.76498,1.54899,4.84676,-3.1408e-14,-4.53229e-14,54.103,17.5922,-79.1274,94.5614,18.2958,1.7286,-30.8906,7.12502,27.245,-58.9428,-3.1408e-14,-4.53229e-14,43.7535,5.99618,59.2198,92.8332,-17.8033,16.3954,6.27411,7.12502,41.1635,31.1383,-73.2752,-12.4739,31.2531,129.913,-19.6744,-5.93675,-7.77208,-81.2736,29.5381,-12.235,134.865,-19.6924,-10.9881,-8.20404
13.3754,29.9838,44.9327,137.173,5.35962,-170.002,39.2314,-10.4886,4.09983,16.3615,-5.6713,-2.96919,-1.55531,0.400017,-3.31434,-3.15672,1.87323,-12.8141,11.9865,2.80054,9.23521,3.75763,1.44767,5.0833,-3.10104e-14,3.65764e-14,54.2928,17.2895,-79.1478,94.0027,18.3246,2.05015,-30.8117,7.12502,27.5525,-58.8152,-3.10104e-14,3.65764e-14,44.3575,5.89822,58.7011,91.7314,-17.4506,15.8223,6.54383,7.12502,40.6251,31.5782,-74.0086,-13.0696,31.6746,130.827,-19.3268,-6.63244,-6.09763,-81.8864,29.8505,-12.4524,135.666,-19.7689,-11.0641,-7.77444
13.3767,29.884,44.8862,136.8,5.2736,-169.956,39.1536,-10.6589,4.437,16.307,-5.80822,-3.10485,-1.6485,0.346577,-3.57879,-3.00567,1.76118,-13.0957,12.0812,2.63056,9.50712,3.77074,1.36588,5.2119,-6.75868e-15,-1.03368e-14,54.4808,17.0191,-79.2109,93.3519,18.6784,2.32858,-30.4323,7.12502,27.8188,-58.393,-6.75868e-15,-1.03368e-14,44.2948,5.71921,56.8979,90.5442,-16.336,13.9012,6.89596,7.12502,38.8163,32.4684,-74.683,-13.5728,31.6445,131.838,-20.3371,-5.63937,-6.25796,-82.4453,30.2425,-12.677,136.463,-19.7179,-11.1883,-7.19731
13.3838,29.7866,44.8423,136.213,4.94712,-170.114,39.053,-10.8261,4.44968,16.4504,-5.98717,-3.38529,-1.51216,0.309102,-3.81985,-3.09906,1.73778,-13.1801,12.0526,2.5856,9.7636,3.77559,1.35352,5.30715,2.87244e-14,4.13472e-14,54.8999,16.6928,-79.131,92.7395,18.6492,2.13052,-30.1932,7.12502,27.6294,-58.1844,2.87244e-14,4.13472e-14,45.0384,5.76074,56.6041,89.5393,-16.4181,13.4978,6.89014,7.12502,38.4358,32.5695,-75.2587,-14.3839,30.9431,133.09,-21.5597,-3.54017,-1.90334,-82.8641,30.5147,-13.2276,137.232,-19.5323,-11.1368,-6.47753
13.3946,29.6862,44.7774,136.078,4.43066,-170.346,38.1479,-10.8937,4.52677,16.5246,-6.23343,-3.65683,-1.22129,0.166111,-4.09152,-2.83449,1.78552,-13.3986,11.9005,2.59646,10.1904,3.6712,1.36944,5.4714,-7.03698e-14,-7.95139e-15,55.2334,16.4264,-79.3159,92.0514,18.2585,1.86614,-30.2183,7.12502,27.3766,-58.2498,-7.03698e-14,-7.95139e-15,46.4204,5.81645,57.7052,88.3168,-17.4353,14.5036,6.3257,7.12502,39.3842,31.7346,-76.518,-15.3134,30.0646,134.463,-22.0018,-1.27442,0.346897,-84.1379,30.7927,-14.3059,138.173,-19.3152,-11.1905,-6.31652
13.4254,29.5743,44.734,135.305,4.45289,-170.577,38.6779,-10.756,4.20101,16.3822,-6.13071,-3.73135,-1.50983,0.206646,-4.02334,-2.39251,1.81497,-13.68,11.7607,2.58232,10.502,3.54631,1.36275,5.60644,2.32578e-14,-7.95139e-16,55.4751,16.1837,-79.3989,91.4441,17.5644,1.98933,-30.4942,7.12502,27.4944,-58.507,2.32578e-14,-7.95139e-16,46.8342,5.76099,57.4738,87.2811,-17.1853,14.5013,6.12258,7.12502,39.3821,31.5321,-76.5896,-15.1594,29.8726,135.144,-21.5405,-1.11683,-3.71591,-84.4246,31.9425,-14.2398,138.983,-19.2921,-11.8784,-6.4823
13.4539,29.4689,44.6896,134.598,4.64056,-170.592,39.0544,-10.6842,4.09102,16.3636,-6.00657,-3.72246,-1.62161,0.286036,-3.98998,-2.28986,1.76566,-13.8649,11.741,2.50043,10.671,3.52744,1.32184,5.68741,2.3556e-14,-3.10104e-14,55.9544,15.9247,-79.3753,90.8515,17.0933,2.48063,-30.7787,7.12502,27.9642,-58.7159,2.3556e-14,-3.10104e-14,47.4584,5.77457,57.1987,86.2,-16.6106,14.4711,6.26644,7.12502,39.3536,31.6843,-76.6734,-15.0566,30.0406,135.737,-20.887,-0.824871,-3.12278,-84.7037,33.248,-13.8125,139.74,-19.2011,-12.7701,-5.90724
13.4654,29.3609,44.6455,133.857,4.74131,-170.548,39.4079,-10.7688,4.17787,16.3857,-5.99043,-3.74954,-1.71236,0.337482,-4.05531,-2.19881,1.74421,-14.1018,11.6856,2.45974,10.8331,3.49451,1.29827,5.77516,-2.82274e-14,2.14687e-14,56.4365,15.7554,-79.3107,90.2472,17.0568,2.83632,-30.9807,7.12502,28.3041,-58.862,-2.82274e-14,2.14687e-14,48.1491,5.80952,57.1426,85.1053,-16.2618,14.4576,6.43503,7.12502,39.3409,31.8566,-76.7308,-15.2111,30.0646,136.255,-20.1023,-0.590033,-2.41745,-84.9446,34.1831,-13.5629,140.51,-19.0727,-13.3196,-5.28632
13.4947,29.2666,44.6137,132.876,5.07261,-170.69,40.0698,-10.6047,3.84074,16.434,-5.73937,-3.69485,-1.79426,0.501369,-3.89935,-2.23297,1.70275,-14.2594,11.7847,2.41436,10.8707,3.53352,1.27231,5.81597,3.77691e-14,-3.18055e-15,56.8353,15.7183,-79.9495,89.6298,17.7165,3.3632,-30.8292,7.12502,28.8076,-58.6259,3.77691e-14,-3.18055e-15,48.8392,5.88836,57.3501,83.9957,-16.3889,14.3919,6.20282,7.12502,39.2789,31.6424,-76.1402,-14.7373,30.4271,136.619,-19.5209,-1.6148,-2.78211,-84.3669,35.8308,-12.7152,141.096,-19.4829,-14.0357,-5.20582
13.5009,29.1647,44.5662,132.497,5.21119,-170.499,39.882,-10.7532,4.24593,16.505,-5.7809,-3.69716,-1.70088,0.512851,-4.09438,-2.23861,1.66761,-14.3144,11.8469,2.37848,10.8002,3.55918,1.24941,5.80364,1.13307e-14,1.82882e-14,57.2509,15.6083,-80.1761,88.9721,18.1198,3.71109,-30.6324,7.12502,29.1398,-58.372,1.13307e-14,1.82882e-14,49.5558,5.97691,57.6196,82.849,-17.0627,14.0035,5.69345,7.12502,38.9128,31.2384,-76.5648,-15.0925,30.9307,137.226,-19.269,-2.36374,-3.11021,-85.1974,36.4674,-12.7036,141.89,-19.377,-14.1441,-4.96122
13.5103,29.0691,44.5279,132.253,5.41476,-170.289,39.6328,-10.8458,4.6677,16.5209,-5.78555,-3.64843,-1.64147,0.521187,-4.25946,-2.08108,1.63073,-14.6019,11.7404,2.30826,10.9907,3.50292,1.20912,5.90616,-1.19271e-14,-2.78299e-14,57.5623,15.4638,-80.1805,88.3528,18.2106,4.14743,-30.5723,7.12502,29.5564,-58.239,-1.19271e-14,-2.78299e-14,50.1752,6.01054,57.8152,81.7351,-17.9506,13.4159,5.35672,7.12502,38.3586,31.0575,-77.1212,-15.2844,31.5746,137.822,-19.17,-3.00794,-3.96572,-86.2564,37.1133,-12.704,142.61,-19.1882,-14.3585,-4.83755
13.5242,28.9841,44.4911,131.873,5.43311,-170.376,39.4563,-10.7818,4.6157,16.5872,-5.73684,-3.6539,-1.50854,0.548888,-4.26295,-2.05315,1.53417,-14.6445,11.7492,2.16739,11.0883,3.5168,1.14188,5.94167,-4.77083e-15,-2.94201e-14,57.9519,15.2615,-79.9368,87.5262,18.1149,4.02058,-30.432,7.12502,29.4353,-58.12,-4.77083e-15,-2.94201e-14,50.7177,6.06031,57.7891,80.714,-18.3,12.8932,5.34821,7.12502,37.8649,31.184,-77.4051,-15.4935,31.8811,138.432,-19.1911,-3.82002,-6.26813,-86.8274,37.9964,-12.8076,143.254,-19.2832,-14.7449,-3.66839
13.5509,28.9072,44.4702,131.058,5.36321,-170.802,39.9081,-10.5316,3.94392,16.6269,-5.55972,-3.72523,-1.53253,0.645772,-4.05308,-2.00392,1.57866,-14.6793,11.8601,2.22154,11.1686,3.53241,1.17316,5.97688,1.93815e-14,-3.18055e-14,58.4399,14.9928,-79.2623,86.4051,17.6665,3.22435,-30.259,7.12502,28.6749,-58.0782,1.93815e-14,-3.18055e-14,51.224,6.0765,57.5778,79.6467,-18.1927,12.4786,5.4593,7.12502,37.4732,31.3999,-77.0436,-15.509,31.6338,139.004,-19.5285,-3.81102,-5.19038,-86.3265,39.0157,-12.5666,143.712,-19.5979,-15.2421,-0.537338
13.5674,28.8197,44.4358,130.622,5.26369,-170.938,39.8463,-10.4611,3.83201,16.593,-5.54962,-3.80508,-1.55131,0.638494,-4.08746,-1.5112,1.6036,-14.6472,11.5615,2.1896,11.2765,3.36248,1.15709,5.99003,-3.22031e-14,-3.49861e-14,58.5228,14.8337,-79.2727,85.5753,17.6001,2.98947,-30.128,7.12502,28.4505,-57.9849,-3.22031e-14,-3.49861e-14,51.7474,6.01543,57.4234,78.4511,-18.2278,12.1534,5.29537,7.12502,37.1658,31.3168,-77.4136,-15.8369,31.6256,139.683,-19.645,-3.65276,-4.27171,-86.794,39.5006,-12.7505,144.313,-19.6592,-15.3771,-5.57643
13.5757,28.725,44.39,130.468,5.16587,-170.879,39.3935,-10.5402,4.12631,16.5833,-5.65574,-3.93252,-1.48014,0.577073,-4.34516,-1.34508,1.68748,-14.5312,11.6046,2.2715,11.439,3.33353,1.21148,6.02302,-1.67973e-14,-7.15625e-15,58.7738,14.6502,-79.429,84.6585,17.6156,2.90427,-30.0269,7.12502,28.3691,-57.8974,-1.67973e-14,-7.15625e-15,52.4216,5.99916,57.4075,77.2589,-18.4055,11.9942,4.88203,7.12502,37.0152,30.9426,-78.3423,-16.4144,31.7484,140.476,-19.5827,-3.24801,-4.13418,-88.0794,39.8244,-13.2942,145.042,-19.5638,-15.4055,-0.165772
13.5853,28.6367,44.3485,130.458,5.08853,-170.839,38.7689,-10.5835,4.43502,16.5921,-5.74405,-4.04211,-1.33351,0.515295,-4.6046,-1.23793,1.67518,-14.6329,11.7084,2.22302,11.7858,3.34357,1.20151,6.15254,9.29318e-15,-3.26007e-14,59.1346,14.4629,-79.6212,83.7077,17.6599,2.85334,-29.9222,7.12502,28.3204,-57.8008,9.29318e-15,-3.26007e-14,53.0737,6.01373,57.4107,76.124,-18.4593,11.9232,4.5869,7.12502,36.948,30.6648,-79.3621,-16.7998,31.9294,141.218,-19.6076,-3.33112,-5.10025,-89.5935,40.3436,-14.0193,145.717,-19.4108,-15.5966,-1.50628
13.6029,28.5602,44.3301,129.839,5.12728,-171,39.1183,-10.4939,4.23849,16.5375,-5.6531,-4.08046,-1.47735,0.564856,-4.56807,-0.917293,1.72085,-14.7315,11.5475,2.24288,11.9468,3.23442,1.21023,6.21217,1.16786e-14,4.77083e-15,59.3836,14.3423,-79.6426,82.793,17.6996,2.7286,-29.8784,7.12502,28.2012,-57.7767,1.16786e-14,4.77083e-15,53.5477,5.96499,57.4269,75.0192,-18.3814,11.8712,4.59974,7.12502,36.8989,30.6903,-79.2937,-16.9512,31.898,141.721,-19.8676,-3.62575,-4.88255,-89.6356,41.2047,-13.8947,146.137,-19.4993,-16.1114,-1.96653
13.6181,28.4795,44.3086,129.321,5.13277,-171.133,39.3501,-10.4321,4.11034,16.4935,-5.59381,-4.11906,-1.58296,0.597438,-4.55906,-1.03276,1.67221,-14.6014,11.6875,2.19346,11.8551,3.30564,1.19057,6.16555,-5.0044e-14,2.78299e-14,59.6807,14.198,-79.5521,81.8657,17.6844,2.59487,-29.8024,7.12502,28.0734,-57.7218,-5.0044e-14,2.78299e-14,53.987,5.90269,57.4593,73.966,-18.4288,11.7259,4.71066,7.12502,36.7614,30.8364,-79.4338,-17.2255,31.8473,142.245,-19.8931,-3.24124,-3.40907,-90.0123,41.8744,-13.8608,146.649,-19.5016,-16.6822,-2.06461
13.6376,28.4035,44.2903,128.741,5.30655,-171.195,39.6659,-10.3728,4.02787,16.5084,-5.47473,-4.12242,-1.64178,0.680405,-4.55496,-1.3073,1.52619,-14.5926,11.9886,2.02432,11.8758,3.46417,1.11517,6.18057,-4.17448e-15,1.27222e-14,60.1039,14.023,-79.463,80.9778,17.605,2.61036,-29.6378,7.12502,28.0882,-57.5547,-4.17448e-15,1.27222e-14,54.4845,5.90527,57.5713,72.9324,-18.7326,11.5838,4.54095,7.12502,36.627,30.7009,-79.4453,-17.1023,32.0553,142.65,-19.6944,-3.05633,-1.70354,-90.2027,42.9509,-13.5479,147.078,-20.028,-17.1242,-3.48791
13.6417,28.3238,44.2621,128.611,5.39852,-171.063,39.376,-10.4625,4.41723,16.4878,-5.51985,-4.13629,-1.6185,0.65638,-4.75738,-1.19586,1.40197,-14.8735,12.0347,1.82752,12.2195,3.47649,1.02174,6.33588,-5.76476e-15,4.69132e-14,60.4778,13.8656,-79.3026,80.07,17.5296,2.61834,-29.4666,7.12502,28.0958,-57.3823,-5.76476e-15,4.69132e-14,54.9971,5.90363,57.7219,71.8521,-19.0126,11.6323,4.25307,7.12502,36.6728,30.4014,-80.2778,-17.371,32.4107,143.156,-19.3262,-2.86929,-0.650763,-91.4864,43.3737,-14.028,147.604,-20.064,-17.2409,-4.68816
13.6531,28.2595,44.2652,127.81,5.48267,-171.241,40.114,-10.4411,4.24725,16.4039,-5.43404,-4.22528,-1.9153,0.730345,-4.77679,-0.99348,1.41882,-15.0116,12.0098,1.81278,12.5106,3.42945,1.0214,6.45036,8.44835e-16,-1.66979e-14,60.7716,13.7139,-79.0205,79.0801,17.384,2.35062,-29.4625,7.12502,27.8399,-57.4199,8.44835e-16,-1.66979e-14,55.4894,5.84514,57.7783,70.7038,-19.1268,11.4345,3.98148,7.12502,36.4856,30.1772,-79.9397,-17.5795,32.2302,143.429,-19.2172,-2.25982,1.74424,-90.9874,43.8971,-13.6014,147.79,-20.0914,-17.7073,-4.42186
13.6514,28.179,44.2288,128.017,5.38695,-171.178,39.3079,-10.4899,4.64142,16.3927,-5.53991,-4.25595,-1.7394,0.640493,-4.99223,-0.938162,1.47904,-14.9523,11.9807,1.88259,12.5764,3.40027,1.06198,6.46126,2.2736e-14,-4.77083e-15,61.089,13.5905,-78.872,78.1574,17.2645,2.07872,-29.4493,7.12502,27.5799,-57.4485,2.2736e-14,-4.77083e-15,55.9698,5.80074,57.8368,69.6067,-19.2302,11.0096,3.70849,7.12502,36.0833,30.0045,-81.3777,-18.079,32.3762,144.082,-18.9326,-1.73191,2.61273,-92.9455,43.7449,-14.5995,148.412,-19.5129,-17.9412,-4.27125
13.6888,28.1231,44.2465,126.91,5.6678,-171.656,40.5122,-10.0625,3.67856,16.3663,-5.10389,-4.1592,-1.98528,0.878711,-4.53339,-0.876581,1.4376,-15.004,11.9644,1.8189,12.6129,3.393,1.02894,6.47962,-2.40281e-14,-6.52014e-14,61.4326,13.5055,-78.8672,77.3314,17.3315,2.17369,-29.352,7.12502,27.6707,-57.3367,-2.40281e-14,-6.52014e-14,56.4192,5.80389,57.9767,68.71,-19.3747,10.848,3.48926,7.12502,35.9302,29.8229,-80.305,-17.1389,32.7303,144.059,-18.7887,-3.59196,-0.876105,-91.3679,45.3455,-13.162,148.421,-20.0668,-18.9993,-3.93153
13.6894,28.0619,44.2301,126.855,5.4322,-171.711,40.0378,-10.0608,3.69679,16.4146,-5.17119,-4.15001,-1.80159,0.827418,-4.51959,-0.722284,1.38721,-15.1472,11.9142,1.73945,12.6124,3.36288,0.98017,6.49905,3.43649e-14,-9.54166e-15,61.7528,13.4315,-78.7627,76.4815,17.3847,2.27389,-29.1778,7.12502,27.7665,-57.147,3.43649e-14,-9.54166e-15,56.8767,5.84338,58.1188,67.7326,-19.5041,10.7239,3.13937,7.12502,35.8126,29.5017,-80.9799,-17.8167,33.0976,144.255,-18.2225,-5.38943,-7.0565,-92.3493,45.3138,-13.8906,148.81,-19.3943,-19.3438,-2.26535
13.7119,28.0131,44.2396,126.356,5.53725,-171.834,40.357,-9.91711,3.43246,16.4213,-5.01311,-4.0821,-1.84281,0.914199,-4.36465,-0.578448,1.38146,-15.2446,11.7577,1.71539,12.643,3.2944,0.960855,6.51888,3.53899e-14,-4.13472e-14,62.0589,13.3397,-78.695,75.5612,17.4819,2.33258,-28.8933,7.12502,27.8226,-56.8535,3.53899e-14,-4.13472e-14,57.3209,5.86692,58.1254,66.6087,-19.4741,10.3915,2.72369,7.12502,35.4975,29.1621,-81.1858,-17.6705,32.9105,144.666,-18.458,-4.07142,-3.32811,-92.0698,46.0698,-13.5191,148.871,-19.5049,-19.7065,-0.15016
13.7128,27.9605,44.2351,126.266,5.63989,-171.633,40.1724,-10.0723,3.90248,16.3897,-5.0866,-4.10744,-1.87231,0.885896,-4.60572,-0.510358,1.36962,-15.2471,11.7143,1.68141,12.7822,3.27167,0.949568,6.56215,-7.58053e-14,3.02153e-14,62.3407,13.2158,-78.7903,74.6276,17.7598,2.59689,-28.6638,7.12502,28.0753,-56.5829,-7.58053e-14,3.02153e-14,57.6482,5.82137,57.956,65.6389,-19.223,9.96471,2.4518,7.12502,35.0929,28.9861,-81.9322,-17.7187,33.273,144.991,-18.2535,-3.97279,-2.17969,-92.9097,46.0366,-14.0395,149.084,-20.0553,-18.9801,2.77303
13.7203,27.9069,44.2358,126.077,5.71563,-171.67,40.0825,-10.054,3.96318,16.452,-5.03683,-4.15855,-1.78378,0.92621,-4.71047,-0.473178,1.31038,-15.2191,11.5604,1.58424,12.9,3.23114,0.904686,6.58967,5.31718e-14,7.15625e-15,62.7576,13.0593,-78.9686,73.6983,18.0655,2.69853,-28.3866,7.12502,28.1724,-56.2897,5.31718e-14,7.15625e-15,58.119,5.84086,57.7633,64.7775,-18.9827,9.58574,2.30352,7.12502,34.7333,28.9214,-81.7222,-17.7454,33.7822,144.907,-18.1341,-5.54763,-6.13583,-93.6396,46.1673,-14.0702,149.448,-19.8889,-19.4708,1.14063
13.727,27.8559,44.2351,126.036,5.52919,-171.802,39.7082,-10.0123,3.854,16.5952,-5.04289,-4.22412,-1.51589,0.932166,-4.73104,-0.439267,1.23646,-15.2562,11.2885,1.47247,12.9503,3.15961,0.843383,6.60297,2.39132e-14,-4.29375e-14,63.2742,12.928,-79.0446,72.7953,18.1717,2.42806,-28.0942,7.12502,27.9139,-56.0396,2.39132e-14,-4.29375e-14,58.7337,5.95859,57.6817,63.9419,-18.9205,9.28004,2.22116,7.12502,34.4432,28.9054,-82.7615,-18.2104,33.4896,145.454,-18.3347,-4.08779,-2.7062,-94.498,45.7536,-14.8119,149.682,-19.9794,-19.096,-1.62322
13.7377,27.8055,44.2408,125.904,5.4443,-171.972,39.6766,-9.88516,3.66044,16.5624,-4.97533,-4.22132,-1.52028,0.94475,-4.65614,-0.46428,1.13766,-15.3161,11.3663,1.33263,13.0888,3.20422,0.779587,6.65883,4.15087e-14,2.38542e-14,63.592,12.8468,-78.9846,71.9763,18.1351,2.18977,-28.0744,7.12502,27.6861,-56.0566,4.15087e-14,2.38542e-14,59.1066,5.98489,57.6722,63.2152,-19.0482,9.11113,2.18946,7.12502,34.2828,28.91,-83.2412,-18.2341,33.7083,145.586,-17.8772,-5.18818,-5.82364,-95.4185,45.7374,-15.124,150.087,-19.9825,-19.4519,-3.10469
13.7489,27.7683,44.2496,125.601,5.5246,-172.065,39.8301,-9.83155,3.62026,16.5558,-4.8947,-4.24502,-1.56467,0.994222,-4.68658,-0.471667,1.14244,-15.0557,11.2196,1.34091,12.9551,3.16444,0.786224,6.56696,-4.74909e-15,-4.13472e-14,63.8427,12.7694,-79.0249,71.2319,18.2336,2.04682,-28.0218,7.12502,27.5494,-56.0258,-4.74909e-15,-4.13472e-14,59.4468,5.97355,57.6538,62.5045,-19.2007,9.05669,2.20318,7.12502,34.2311,28.9353,-83.1859,-17.9765,33.9856,145.575,-17.5021,-6.07622,-7.20886,-95.4381,46.2511,-15.1023,150.18,-21.1594,-18.9477,-7.52454
13.7641,27.7294,44.2679,125.175,5.59453,-172.25,40.1778,-9.71319,3.35935,16.5849,-4.75202,-4.22506,-1.59755,1.08385,-4.57729,-0.588638,1.12643,-15.0153,11.1557,1.33256,12.8934,3.16768,0.780801,6.53947,-9.67212e-15,6.20208e-14,64.1131,12.7262,-79.0219,70.5207,18.2657,1.88418,-27.8127,7.12502,27.3938,-55.8414,-9.67212e-15,6.20208e-14,59.8565,6.00179,57.6803,61.6694,-19.2382,8.82493,2.11378,7.12502,34.011,28.8951,-83.0553,-17.7849,33.925,145.705,-17.6532,-5.8166,-5.79112,-95.059,46.302,-14.8651,150.126,-21.617,-18.8058,-8.0634
13.7771,27.693,44.2834,124.903,5.61413,-172.386,40.3524,-9.55744,3.1097,16.5401,-4.6235,-4.09723,-1.65256,1.12939,-4.35915,-0.626429,1.09316,-15.231,11.3383,1.29825,12.9117,3.23215,0.759081,6.58697,1.64929e-14,-3.10104e-14,64.3369,12.7185,-78.7883,69.7352,18.1399,1.66687,-27.6122,7.12502,27.186,-55.6736,1.64929e-14,-3.10104e-14,60.0763,6.00541,57.7124,60.8937,-19.1521,8.53868,2.05834,7.12502,33.739,28.8997,-83.4328,-17.7657,33.7795,146.034,-17.9181,-4.84203,-2.96156,-95.0554,46.1493,-14.6821,150.148,-21.5011,-19.1923,-7.92083
13.7733,27.6573,44.282,124.954,5.61111,-172.282,40.0703,-9.60128,3.33017,16.5288,-4.65391,-4.02772,-1.59584,1.10106,-4.39159,-0.681726,1.04507,-15.1631,11.3621,1.24698,12.7687,3.25914,0.730582,6.5291,-2.95257e-14,2.22639e-14,64.6061,12.6423,-78.6339,68.9568,18.1942,1.53946,-27.3413,7.12502,27.0641,-55.4217,-2.95257e-14,2.22639e-14,60.274,6.01378,57.6682,60.232,-19.0208,8.31434,1.981,7.12502,33.5258,28.8688,-83.9044,-17.976,34.0577,146.073,-17.5799,-5.4388,-5.01992,-95.9235,45.989,-15.0631,150.352,-21.0089,-19.745,-7.1092
13.76,27.617,44.2668,125.337,5.58458,-172.034,39.2802,-9.78696,3.93168,16.586,-4.80716,-4.0346,-1.36192,1.01828,-4.66488,-0.900627,0.946807,-15.0678,11.4023,1.13606,12.7027,3.32541,0.6792,6.49282,1.08959e-14,-3.73715e-14,64.8856,12.5403,-78.5858,68.334,18.3866,1.43857,-27.0559,7.12502,26.9675,-55.1513,1.08959e-14,-3.73715e-14,60.6319,6.03985,57.6888,59.5045,-19.0051,7.92873,1.74351,7.12502,33.1593,28.71,-85.1595,-18.3585,34.3162,146.34,-17.1355,-5.02489,-4.30738,-97.6776,45.4635,-15.9222,150.758,-20.2924,-19.9029,-5.86575
13.7803,27.6003,44.2986,124.532,5.95175,-172.215,40.2801,-9.60548,3.54051,16.5781,-4.50593,-3.94698,-1.59676,1.21142,-4.46054,-0.993299,0.936334,-15.058,11.3759,1.12693,12.7434,3.33362,0.677726,6.50457,6.88292e-15,2.62396e-14,65.1107,12.4623,-78.4106,67.7307,18.5285,1.27619,-26.8435,7.12502,26.8122,-54.9628,6.88292e-15,2.62396e-14,60.9431,6.04028,57.7594,58.77,-19.0225,7.40735,1.39158,7.12502,32.6633,28.4622,-83.9158,-17.6036,34.4276,146.095,-17.0954,-5.32997,-3.2795,-96.0947,46.4485,-14.3688,150.596,-20.7405,-20.5169,-3.87138
13.7833,27.5791,44.3045,124.433,6.02195,-172.221,40.2701,-9.5827,3.61927,16.5467,-4.46028,-3.89996,-1.62553,1.22797,-4.46758,-0.755701,0.949043,-15.0107,11.0922,1.11742,12.733,3.21112,0.666552,6.48301,-1.11816e-14,3.97569e-15,65.3256,12.3843,-78.216,67.1,18.6774,1.38766,-26.7635,7.12502,26.9188,-54.8664,-1.11816e-14,3.97569e-15,61.0767,6.015,57.7646,58.1709,-18.96,6.98822,1.02018,7.12502,32.2645,28.1727,-84.1387,-17.8001,34.5044,146.204,-17.0025,-4.80878,-1.88596,-96.2974,46.1045,-14.4253,150.554,-20.1166,-20.6383,-4.57208
13.7801,27.5526,44.2966,124.617,5.92487,-172.23,39.8014,-9.59012,3.78558,16.5531,-4.50393,-3.89061,-1.49739,1.1837,-4.53543,-0.591816,0.897944,-15.0611,10.9245,1.03363,12.7017,3.14643,0.615806,6.47403,3.71479e-15,-5.24792e-14,65.5624,12.3416,-78.0769,66.5531,18.7207,1.4275,-26.7932,7.12502,26.957,-54.8903,3.71479e-15,-5.24792e-14,61.2045,6.0189,57.7642,57.7349,-18.9181,6.73009,0.90622,7.12502,32.0187,28.1084,-84.9366,-18.2057,34.4413,146.465,-16.7902,-4.13986,-0.618328,-97.3613,45.1749,-15.2572,150.624,-19.0954,-20.5125,-4.27716
13.7949,27.5446,44.3164,123.906,6.35656,-172.314,40.5938,-9.46266,3.59623,16.5639,-4.23293,-3.78385,-1.6658,1.36149,-4.40876,-0.735423,0.900996,-14.902,11.0676,1.05793,12.5821,3.21213,0.633861,6.41346,2.20154e-14,1.98785e-14,65.6897,12.3165,-77.9193,66.1252,18.6048,1.25273,-26.7401,7.12502,26.7897,-54.8629,2.20154e-14,1.98785e-14,61.3111,6.00365,57.7828,57.3734,-18.9616,6.35615,0.791675,7.12502,31.6626,28.0647,-83.7936,-17.3974,34.8484,146.142,-16.4756,-5.08348,-1.58645,-96.1082,46.0249,-13.8934,150.412,-19.5208,-20.7925,-8.0001
13.8073,27.519,44.3221,123.402,7.46355,-171.883,41.2674,-9.54309,4.24905,16.5438,-3.92988,-3.495,-1.86631,1.57161,-4.53029,-0.914688,0.922365,-14.7216,11.2067,1.11596,12.3771,3.27965,0.66567,6.32255,-3.45513e-14,-2.70347e-14,65.7378,12.3104,-77.7196,65.7724,18.5517,1.16908,-26.5819,7.12502,26.7097,-54.7169,-3.45513e-14,-2.70347e-14,61.2945,5.96459,57.8636,57.0586,-19.1154,6.00162,0.580881,7.12502,31.3249,27.9199,-82.9391,-16.2543,35.9498,146.03,-16.3945,-4.7955,2.30769,-95.8023,47.4087,-11.7667,150.391,-17.62,-22.9442,-0.932667
13.8133,27.5192,44.3231,123.418,6.4985,-172.558,41.0715,-9.20107,3.19911,16.512,-3.96398,-3.61441,-1.79202,1.48567,-4.11957,-1.2076,0.851071,-14.7501,11.5274,1.05921,12.2867,3.434,0.6407,6.30815,-4.5969e-16,-6.44062e-14,65.8361,12.2843,-77.5444,65.5056,18.6883,1.31195,-26.5,7.12502,26.8464,-54.6141,-4.5969e-16,-6.44062e-14,61.2606,5.94265,57.9623,56.8425,-19.2639,5.92514,0.513158,7.12502,31.252,27.8663,-83.3819,-17.1834,34.9115,146.107,-15.7786,-4.82246,0.580449,-95.5943,46.8324,-13.4113,150.143,-17.1346,-22.1932,-3.60971
13.811,27.5038,44.3084,123.663,5.9715,-172.823,40.6772,-9.06797,2.87116,16.4373,-4.03669,-3.66105,-1.75011,1.38944,-3.9843,-1.2486,0.74128,-14.6453,11.5319,0.919456,12.1583,3.46434,0.569644,6.24603,-3.55328e-15,2.62396e-14,65.8474,12.2317,-77.4709,65.3222,18.9849,1.68138,-26.476,7.12502,27.1998,-54.5353,-3.55328e-15,2.62396e-14,61.187,5.87813,58.0482,56.7694,-19.3101,5.95829,0.507381,7.12502,31.2836,27.8544,-84.147,-17.7986,34.5879,146.163,-14.8294,-5.11629,-1.5189,-95.9895,44.774,-14.3251,150.167,-16.2827,-21.1015,-6.63035
13.8168,27.5039,44.2969,123.448,5.75961,-173.068,40.808,-8.89128,2.46383,16.3946,-3.95826,-3.6492,-1.79847,1.40669,-3.79305,-1.1282,0.719973,-14.6519,11.381,0.874481,12.1916,3.40479,0.544666,6.252,1.66731e-14,-5.40694e-14,65.7817,12.2261,-77.4195,65.1589,19.2677,1.90744,-26.5207,7.12502,27.4161,-54.546,1.66731e-14,-5.40694e-14,61.0513,5.78869,58.1423,56.7959,-19.5489,5.80271,0.408584,7.12502,31.1353,27.7842,-83.7598,-17.8575,34.4785,145.951,-13.6371,-6.08583,-4.94707,-95.3501,44.4286,-14.2075,150.168,-16.4507,-20.8215,-7.95295
13.8248,27.5044,44.2972,123.071,6.04952,-173.016,41.1623,-8.86346,2.51345,16.4139,-3.81759,-3.56329,-1.86301,1.50551,-3.77312,-1.15056,0.649953,-14.6435,11.3387,0.779342,12.1997,3.40904,0.497374,6.25023,-1.97542e-14,2.8625e-14,65.7584,12.2114,-77.323,65.0293,19.5027,1.86824,-26.4826,7.12502,27.3786,-54.5138,-1.97542e-14,2.8625e-14,60.9708,5.72,58.1207,56.8258,-19.739,5.56903,0.37759,7.12502,30.9126,27.7957,-83.5475,-17.7196,34.2972,146.002,-12.9857,-4.38488,0.665326,-94.5838,45.2277,-13.2978,150.182,-16.987,-21.2694,-7.78838
13.8277,27.5046,44.2698,122.812,6.89233,-172.602,41.2126,-8.98326,3.19565,16.5373,-3.63078,-3.35236,-1.7532,1.65394,-3.95836,-1.29666,0.633775,-14.5311,11.2898,0.771656,12.1252,3.42137,0.495343,6.20685,4.57453e-14,-3.33958e-14,65.7229,12.1724,-77.1528,65.0406,19.5919,1.79401,-26.4584,7.12502,27.3076,-54.5008,4.57453e-14,-3.33958e-14,60.9292,5.69085,58.115,56.9091,-19.6122,5.73608,0.576637,7.12502,31.0718,27.9644,-82.8688,-16.6538,35.3893,145.679,-11.6971,-5.05914,0.170629,-94.3593,47.2673,-11.5751,150.511,-17.7933,-22.584,-6.49316
13.8188,27.5035,44.24,122.767,7.44286,-172.173,41.0799,-9.23026,4.00754,16.5859,-3.62444,-3.22395,-1.70074,1.69899,-4.23424,-1.24717,0.643825,-14.4738,11.0206,0.780404,12.0523,3.33282,0.492964,6.16659,-8.22472e-15,3.26007e-14,65.5965,12.1584,-76.9268,65.1262,19.4585,1.58465,-26.5667,7.12502,27.1073,-54.6404,-8.22472e-15,3.26007e-14,60.7962,5.63329,58.2486,57.0421,-19.5964,5.95487,0.706346,7.12502,31.2803,28.054,-82.7566,-16.6127,35.8351,145.643,-10.7406,-4.04981,5.75508,-94.6077,48.2037,-10.5999,150.862,-18.0508,-23.3666,-5.44553
13.8382,27.5061,44.219,122.547,7.73353,-172.353,41.3289,-8.92224,3.7098,16.4941,-3.33663,-3.03573,-1.81471,1.80226,-3.9881,-1.1652,0.600998,-14.4303,11.0146,0.720405,11.958,3.32718,0.459558,6.12646,-1.635e-14,2.3059e-14,65.3632,12.2009,-76.746,65.1642,19.3859,1.42337,-26.5564,7.12502,26.953,-54.6541,-1.635e-14,2.3059e-14,60.4925,5.50717,58.4638,57.2313,-19.7417,5.82221,0.654415,7.12502,31.1539,28.0264,-82.3219,-15.5852,36.0589,145.498,-9.33802,-4.20321,8.8319,-93.7145,49.1762,-9.38199,150.917,-18.7424,-23.8474,-5.43848
13.8242,27.5143,44.1643,122.788,7.57924,-172.224,40.7353,-9.01293,4.02488,16.462,-3.46566,-2.97674,-1.70678,1.7054,-4.04558,-1.27949,0.611343,-14.3655,11.2268,0.756984,11.824,3.40691,0.479436,6.07898,-4.77083e-15,-2.14687e-14,65.1334,12.2505,-76.5969,65.2677,19.4292,1.58459,-26.5611,7.12502,27.1072,-54.6348,-4.77083e-15,-2.14687e-14,60.1589,5.39669,58.7313,57.4971,-19.9289,5.70267,0.589223,7.12502,31.04,27.9831,-82.7613,-16.2384,36.0024,145.566,-7.93296,-3.88029,8.1289,-94.2395,49.0045,-9.76381,151.281,-19.1201,-23.4514,-7.48324
13.822,27.5271,44.1197,122.808,7.32246,-172.298,40.47,-8.99776,3.97952,16.4448,-3.52641,-2.98646,-1.65324,1.65351,-4.01523,-1.32548,0.619871,-14.2592,11.1907,0.779891,11.6787,3.4032,0.488217,6.014,-5.2827e-14,-6.36111e-15,64.8875,12.2415,-76.4418,65.4678,19.4295,1.70788,-26.6145,7.12502,27.2252,-54.6698,-5.2827e-14,-6.36111e-15,59.8893,5.27906,58.983,57.7756,-20.1152,5.69311,0.489465,7.12502,31.0309,27.8851,-83.0004,-16.7817,35.2581,145.812,-6.92155,-2.63581,13.1843,-94.1554,48.6762,-9.9696,151.497,-18.0783,-23.7946,-5.83515
13.8412,27.5511,44.0972,122.262,7.11265,-172.762,41.0758,-8.64584,3.15873,16.3463,-3.31201,-2.9579,-1.86726,1.73083,-3.64274,-0.843225,0.653084,-14.0334,10.7369,0.790452,11.372,3.19109,0.476305,5.86254,4.47266e-16,-3.73715e-14,64.517,12.2854,-76.357,65.6736,19.4142,1.72484,-26.5977,7.12502,27.2414,-54.6504,4.47266e-16,-3.73715e-14,59.5158,5.10869,59.1912,58.1276,-20.238,5.72838,0.479092,7.12502,31.0645,27.8683,-81.6642,-16.4793,34.7835,145.477,-5.81751,-3.1108,11.9201,-92.1527,48.9306,-9.06464,151.364,-18.3541,-23.7537,-5.85126
13.8309,27.5517,44.0298,122.717,6.98298,-172.597,40.3925,-8.67953,3.51218,16.1842,-3.43036,-2.87324,-1.87439,1.59803,-3.70063,0.434401,0.644749,-13.2746,9.46956,0.692737,10.4575,2.62934,0.386953,5.40659,3.77691e-14,3.29983e-14,64.036,12.3877,-76.3809,65.9588,19.467,1.85383,-26.5585,7.12502,27.3648,-54.5918,3.77691e-14,3.29983e-14,59.0314,4.90473,59.3311,58.5683,-20.3163,5.74384,0.589101,7.12502,31.0792,27.9755,-82.4825,-16.9725,34.5231,145.744,-4.59658,-2.33589,13.9636,-93.297,48.7678,-9.82747,151.783,-17.3849,-23.5341,-3.90069
13.8477,27.5827,43.995,122.09,7.21382,-172.734,41.0571,-8.41491,3.09681,16.0686,-3.1612,-2.69201,-2.13465,1.71552,-3.39107,-0.256098,0.565028,-13.5523,10.5255,0.642336,10.8538,3.05798,0.391394,5.60336,2.38542e-14,-3.57812e-14,63.4282,12.4735,-76.3116,66.4001,19.4879,2.0104,-26.6718,7.12502,27.5145,-54.6814,2.38542e-14,-3.57812e-14,58.4835,4.67579,59.5455,59.0254,-20.4311,5.70217,0.654572,7.12502,31.0395,28.0485,-80.941,-16.7904,34.4322,145.847,-4.65935,-2.46416,13.4691,-90.8625,50.3805,-7.71325,151.677,-18.9878,-23.7969,-6.00841
13.8435,27.5977,43.9244,122.216,7.20232,-172.68,40.6345,-8.34649,3.21585,15.964,-3.15713,-2.55455,-2.12586,1.6601,-3.3136,-0.0644382,0.55815,-13.6464,10.7889,0.625947,10.8635,3.10677,0.384149,5.62619,-2.35063e-14,3.81667e-14,62.8193,12.5639,-76.1083,66.8596,19.4371,1.9226,-26.8187,7.12502,27.4306,-54.8416,-2.35063e-14,3.81667e-14,57.8853,4.46465,59.9222,59.5388,-20.7278,5.69794,0.663441,7.12502,31.0355,28.0582,-80.9716,-16.8031,34.5034,146.041,-4.10483,-2.64888,10.5373,-91.0246,50.7023,-7.58016,151.994,-18.484,-24.2945,-5.12103
13.8391,27.6164,43.8553,122.256,7.1839,-172.634,40.3174,-8.30935,3.3427,15.8655,-3.16526,-2.45175,-2.14299,1.61155,-3.27159,0.458512,0.470764,-13.6163,10.5167,0.471813,10.6657,2.96145,0.291668,5.54622,-2.23136e-14,1.55052e-14,62.22,12.6721,-76.0481,67.2967,19.5161,1.72828,-26.7378,7.12502,27.2447,-54.79,-2.23136e-14,1.55052e-14,57.2939,4.24746,60.3288,60.1613,-21.1139,5.61522,0.590815,7.12502,30.9566,28.0006,-80.6811,-17.198,34.506,146.23,-3.76481,-2.71227,8.42422,-90.8742,51.0092,-7.33864,152.256,-19.6724,-23.5258,-10.7294
13.8454,27.631,43.7822,122.2,6.81451,-172.947,40.2199,-8.02657,2.81533,15.6898,-3.10743,-2.41372,-2.27227,1.56108,-2.98948,0.652954,0.446386,-13.5032,10.4681,0.428304,10.5552,2.92178,0.268342,5.48922,4.27387e-15,2.78299e-15,61.5307,12.7754,-76.0645,67.7575,19.6498,1.65797,-26.6097,7.12502,27.1774,-54.6725,4.27387e-15,2.78299e-15,56.6186,3.98029,60.7765,60.9576,-21.5595,5.67121,0.588491,7.12502,31.01,27.9881,-80.3757,-17.5962,33.9044,146.603,-3.69259,-2.62369,8.24392,-90.1763,50.7862,-7.32901,152.416,-18.343,-23.6184,-11.8239
13.8446,27.6536,43.6976,122.221,6.07645,-173.317,39.882,-7.81051,2.22015,15.5177,-3.20138,-2.45932,-2.33618,1.42755,-2.70828,0.861324,0.431296,-13.545,10.4812,0.395765,10.5117,2.89609,0.248229,5.48101,4.42296e-15,6.36111e-15,60.787,12.91,-75.9644,68.2964,19.6428,1.53121,-26.6479,7.12502,27.0562,-54.7295,4.42296e-15,6.36111e-15,55.796,3.71021,61.2681,61.8612,-22.1026,5.96244,0.742252,7.12502,31.2875,28.0885,-80.1022,-19.0302,32.4868,147.309,-4.20082,-1.74331,11.4222,-89.4996,49.9063,-7.90513,152.608,-17.5812,-23.301,-10.3211
13.8455,27.676,43.6157,122.35,5.83165,-173.383,39.4703,-7.68436,2.14016,15.2947,-3.24239,-2.36126,-2.44904,1.31923,-2.55739,1.35191,0.437808,-13.6787,10.4092,0.369307,10.4538,2.7984,0.224209,5.48086,7.30534e-15,2.94201e-14,59.9392,13.0984,-75.8187,68.9712,19.4959,1.31703,-26.8265,7.12502,26.8512,-54.9398,7.30534e-15,2.94201e-14,54.9435,3.42056,61.7221,62.5685,-22.6627,6.11346,0.789945,7.12502,31.4314,28.1083,-80.0899,-18.7497,31.8032,147.753,-3.90754,-1.46837,14.3234,-89.1216,50.2009,-7.5533,152.939,-15.9883,-24.2923,-4.79803
13.8445,27.6994,43.5267,122.272,5.87517,-173.296,39.2513,-7.66447,2.34769,15.127,-3.25439,-2.31914,-2.57766,1.26787,-2.61944,1.47292,0.421892,-13.5492,10.6739,0.349246,10.417,2.86026,0.223722,5.4517,-2.83765e-14,-1.90833e-14,59.0634,13.2017,-75.7914,69.6791,19.2754,1.04446,-27.022,7.12502,26.5904,-55.1752,-2.83765e-14,-1.90833e-14,54.204,3.06594,62.0346,63.1709,-23.1747,5.97534,0.751484,7.12502,31.2998,28.0954,-79.2278,-19.014,31.5247,148.106,-4.0801,-1.2928,16.21,-88.2052,51.7436,-6.12124,153.377,-16.4323,-25.2696,-3.87664
13.8386,27.7147,43.4229,122.245,5.84993,-173.239,38.9139,-7.67879,2.60492,14.9917,-3.30644,-2.37482,-2.6461,1.20361,-2.79682,1.11948,0.398508,-13.415,11.5589,0.367718,10.5204,3.17875,0.265161,5.48223,2.0276e-14,-2.94201e-14,58.1614,13.2689,-75.8845,70.3766,19.1145,0.837645,-27.1701,7.12502,26.3924,-55.3531,2.0276e-14,-2.94201e-14,53.452,2.67178,62.2051,63.9111,-23.6133,5.71003,0.767581,7.12502,31.047,28.1601,-78.7493,-19.5013,31.6104,148.384,-3.75857,-1.60207,13.8991,-87.4192,53.1083,-5.10591,153.885,-16.9349,-25.3689,-5.15217
13.8243,27.7384,43.3021,122.462,5.62251,-173.112,38.0737,-7.7397,2.95395,14.8383,-3.48083,-2.3746,-2.58462,1.04608,-2.92678,1.56327,0.330802,-13.358,11.589,0.2569,10.3685,3.13058,0.206194,5.42072,-6.36111e-15,-1.94809e-14,57.1457,13.4327,-75.8614,71.09,19.0941,0.747542,-27.1799,7.12502,26.3062,-55.3758,-6.36111e-15,-1.94809e-14,52.5023,2.28803,62.504,64.7294,-23.9947,5.41446,0.76496,7.12502,30.7652,28.2109,-78.5333,-20.7442,31.2295,148.745,-3.3255,-1.58468,10.4662,-87.0237,54.0443,-4.87884,154.446,-18.3958,-24.5827,-6.52022
13.8321,27.7622,43.2085,122.074,5.62767,-173.292,38.3148,-7.50909,2.64732,14.608,-3.34835,-2.25819,-2.8776,1.05386,-2.69302,2.3641,0.285736,-13.3682,11.0784,0.128171,10.2305,2.8644,0.122372,5.36329,-1.54058e-15,1.66979e-14,56.1171,13.6216,-75.7837,71.8189,19.1651,0.547209,-27.1041,7.12502,26.1144,-55.3285,-1.54058e-15,1.66979e-14,51.5021,1.90518,62.9359,65.5453,-24.1945,5.01355,0.8504,7.12502,30.3829,28.3677,-77.6712,-20.7982,30.9936,148.927,-0.341198,-3.39463,14.5512,-84.5598,55.6097,-2.68986,154.695,-20.1383,-24.0757,-10.1593
13.8258,27.7845,43.0927,122.129,5.56012,-173.218,37.8542,-7.49489,2.90432,14.3655,-3.42275,-2.21355,-3.01418,0.942956,-2.76011,2.39879,0.366927,-13.6578,11.8062,0.244662,10.5414,3.05852,0.200085,5.5274,-3.51849e-14,2.5842e-14,55.0339,13.8065,-75.8257,72.6272,19.165,0.31159,-27.181,7.12502,25.8888,-55.4385,-3.51849e-14,2.5842e-14,50.455,1.47354,63.3193,66.3087,-24.3141,4.51052,0.866868,7.12502,29.903,28.4717,-77.2095,-21.5925,30.277,149.217,2.42882,-4.36551,16.6672,-83.4765,57.1995,-1.30151,155.217,-20.2966,-24.719,-9.11899
13.8461,27.8208,43.0024,121.475,5.72886,-173.511,38.5146,-7.11585,2.3877,14.0484,-3.1442,-2.0988,-3.51638,1.01998,-2.46772,2.87087,0.332803,-13.3769,11.8724,0.190175,10.2968,3.01092,0.178421,5.40096,-9.19379e-15,-3.97569e-15,53.8671,13.9769,-75.9116,73.4436,19.1676,0.129484,-27.283,7.12502,25.7144,-55.5659,-9.19379e-15,-3.97569e-15,49.2859,1.03569,63.8287,67.2005,-24.7929,4.21471,0.645119,7.12502,29.6207,28.3004,-75.2561,-20.5543,30.4822,148.772,6.41558,-5.87388,17.2156,-78.8307,59.0001,3.4331,155.32,-21.7816,-25.8563,-8.3453
13.8215,27.8461,42.8624,122.072,5.31202,-173.266,37.3068,-7.31379,3.03736,13.7872,-3.48855,-2.22007,-3.48309,0.753306,-2.8243,2.97066,0.351029,-13.1515,12.1461,0.228047,10.2555,3.07195,0.215089,5.35578,-2.15681e-14,-5.1684e-15,52.7467,14.1395,-75.9934,74.1602,19.3123,-0.096158,-27.2852,7.12502,25.4983,-55.5992,-2.15681e-14,-5.1684e-15,48.2156,0.654326,64.5756,68.1867,-25.4336,4.0244,0.377407,7.12502,29.439,28.0648,-75.9007,-22.11,28.6073,149.387,8.80841,-5.41278,21.551,-78.9197,59.8487,3.77988,156.209,-21.0462,-26.5982,-5.64928
13.8112,27.8746,42.7353,122.379,4.98447,-173.329,36.4993,-7.24149,3.14224,13.5595,-3.60506,-2.30747,-3.48639,0.605218,-2.94391,2.82521,0.288126,-12.8841,12.7765,0.20007,10.1049,3.2898,0.227477,5.27675,4.67144e-15,2.54444e-14,51.6496,14.2654,-76.1686,74.9344,19.4987,-0.188353,-27.3525,7.12502,25.41,-55.6791,4.67144e-15,2.54444e-14,47.2348,0.258331,65.2455,69.137,-25.8899,3.47309,0.137485,7.12502,28.9125,27.9163,-75.6826,-22.4403,28.479,148.982,13.5034,-3.89688,19.8275,-78.0276,59.8614,4.15828,156.455,-21.0123,-26.2275,-8.99178
13.8142,27.9083,42.6029,122.33,5.04422,-173.58,35.9168,-6.98849,3.0841,13.4867,-3.47983,-2.36268,-3.50378,0.595522,-3.0205,2.90185,0.161473,-12.6784,13.2466,0.0589673,10.0188,3.43594,0.179694,5.22286,-1.08338e-14,-1.47101e-14,50.5472,14.3441,-76.4272,75.8226,19.641,-0.0583204,-27.5627,7.12502,25.5345,-55.8715,-1.08338e-14,-1.47101e-14,46.2122,-0.173555,65.7763,70.2287,-26.4669,3.22111,0.0947571,7.12502,28.6718,27.9145,-74.7286,-21.3024,27.971,148.891,16.5679,-1.55296,15.6028,-74.445,61.2706,7.80901,156.619,-21.1223,-26.8277,-8.42609
13.812,27.9407,42.4653,122.53,4.96247,-173.463,35.1913,-6.92264,3.30731,13.2375,-3.54081,-2.30229,-3.54081,0.476188,-3.06578,3.36242,0.126073,-12.6174,13.2672,-0.00432745,9.94082,3.3754,0.151228,5.18584,2.67365e-14,-3.10104e-14,49.4206,14.5836,-76.4841,76.6914,19.6126,-0.169221,-27.8127,7.12502,25.4283,-56.1367,2.67365e-14,-3.10104e-14,45.0031,-0.523127,66.6176,71.4637,-27.2793,3.26901,-0.106691,7.12502,28.7176,27.7053,-74.0652,-20.8227,27.3122,148.435,20.1693,-2.30042,16.7448,-72.3125,61.6102,10.3241,156.792,-19.9808,-27.6742,-6.08862
13.8165,27.9854,42.3352,122.511,4.96907,-173.74,34.7526,-6.61535,3.0747,12.944,-3.4113,-2.17602,-3.67456,0.437237,-2.86488,3.42419,0.140568,-12.8348,14.0054,0.0576981,9.96893,3.58189,0.199932,5.24971,-2.04748e-14,3.97569e-15,48.2708,14.948,-76.3561,77.512,19.448,-0.500238,-28.0793,7.12502,25.1111,-56.448,-2.04748e-14,3.97569e-15,43.6995,-0.831485,67.6637,72.6169,-27.8647,2.74636,-0.580038,7.12502,28.2182,27.3155,-73.1404,-19.873,26.6549,147.918,23.3528,-4.01882,19.0494,-68.9588,61.9798,13.3034,156.63,-19.0435,-28.0896,-7.97685
13.8027,28.0311,42.192,122.729,4.64214,-173.913,33.8143,-6.49645,3.08654,12.6987,-3.50459,-2.19244,-3.61665,0.291552,-2.87485,3.74998,-0.011595,-12.7824,14.2771,-0.109422,9.59001,3.63673,0.114557,5.1226,1.63997e-14,-4.73108e-14,47.1674,15.2776,-76.2199,78.2808,19.2921,-0.787151,-28.4644,7.12502,24.8362,-56.8714,1.63997e-14,-4.73108e-14,42.4749,-1.15506,68.5379,73.7265,-28.1965,2.22176,-0.758047,7.12502,27.7167,27.2192,-72.7233,-20.0457,25.744,147.461,26.108,-5.77991,20.4374,-67.7621,61.0616,13.7155,156.495,-16.5967,-28.1898,-2.69046
13.7937,28.0888,42.0436,122.693,4.47064,-174.112,33.1096,-6.31426,2.98323,12.4572,-3.5054,-2.13892,-3.61221,0.199781,-2.77865,4.02769,-0.122306,-12.8625,14.7822,-0.205721,9.30401,3.76162,0.0709089,5.05468,-1.30204e-14,1.47101e-14,45.9706,15.6591,-76.0693,78.9958,19.3162,-1.03829,-28.7706,7.12502,24.5955,-57.2105,-1.30204e-14,1.47101e-14,41.0672,-1.4279,69.3773,75.0038,-28.8584,2.29095,-0.715205,7.12502,27.7828,27.2514,-71.7849,-19.8199,25.0487,146.889,28.9029,-3.72738,13.4914,-64.8214,60.312,16.1887,156.238,-12.9872,-29.6328,-1.78913
13.787,28.1461,41.8965,122.438,4.9531,-174.67,32.3522,-5.86502,2.82082,12.5346,-3.17011,-1.88979,-3.66024,0.271114,-2.75246,4.19254,-0.227323,-12.8742,15.409,-0.257845,8.89424,3.93907,0.0516098,4.93974,4.03533e-14,6.75868e-15,44.7881,16.0783,-75.9475,79.7138,19.6105,-1.09915,-28.9279,7.12502,24.5372,-57.3757,4.03533e-14,6.75868e-15,39.628,-1.665,70.1457,76.2329,-29.5199,2.56899,-0.449884,7.12502,28.0486,27.4735,-70.9141,-18.0596,24.9973,146.297,29.7943,-12.3174,25.6161,-58.9978,61.1029,22.2294,155.927,-10.4796,-30.9615,0.96176
13.767,28.1813,41.7228,122.928,4.76363,-174.389,31.0876,-5.91327,3.27664,12.2086,-3.37755,-1.77284,-3.5116,0.0645244,-2.82814,4.50567,-0.315625,-12.7197,15.7187,-0.303043,8.38593,3.99532,0.0314546,4.75743,1.18277e-14,-7.35503e-15,43.745,16.4747,-75.8145,80.4068,19.8607,-0.982487,-29.1379,7.12502,24.649,-57.5705,1.18277e-14,-7.35503e-15,38.3107,-1.94882,70.6455,77.3065,-29.7183,2.41673,-0.132092,7.12502,27.9031,27.815,-71.3245,-18.3417,24.9862,146.061,30.7944,-15.448,28.7603,-59.7394,59.4871,20.1803,155.321,-8.68265,-29.8342,-2.7256
13.7692,28.2518,41.5811,122.429,4.86999,-175.136,30.9869,-5.43482,2.6083,11.9988,-3.05268,-1.72707,-3.64096,0.151807,-2.50352,4.52125,-0.332574,-12.7369,16.4478,-0.223497,8.15371,4.21268,0.0893781,4.70608,-7.15625e-15,2.66371e-14,42.6528,16.8925,-75.7123,81.1157,19.9973,-0.744307,-29.3952,7.12502,24.8773,-57.7965,-7.15625e-15,2.66371e-14,36.9402,-2.23419,71.0217,78.4495,-30.028,1.93774,-0.170644,7.12502,27.445,27.85,-70.2462,-17.2043,24.409,145.768,29.1261,-21.2508,38.5759,-55.1764,57.9917,22.6527,154.027,-3.68019,-30.4815,-0.0836445
13.7449,28.3145,41.4221,122.137,4.60721,-175.117,30.5355,-5.47002,2.64202,11.8185,-3.19957,-1.63297,-3.64928,0.029122,-2.37505,4.42534,-0.360258,-12.887,17.212,-0.132464,7.84324,4.46207,0.1405,4.65428,1.77912e-14,1.90833e-14,41.6105,17.3966,-75.5822,81.8614,20.1244,-0.603295,-29.5719,7.12502,25.0124,-57.9545,1.77912e-14,1.90833e-14,35.5642,-2.36229,71.5019,79.7198,-30.5909,1.77016,-0.257123,7.12502,27.2848,27.7888,-69.1039,-17.4525,24.0945,145.031,32.3355,-17.3133,31.0801,-53.6874,54.855,22.6535,152.847,1.00206,-31.9532,0.1471
13.7352,28.3716,41.2636,121.586,4.7567,-175.486,30.4155,-5.18812,2.2386,11.6005,-3.02895,-1.37103,-3.7939,0.0477279,-1.91045,4.91295,-0.349686,-13.1445,17.4532,-0.0482812,7.40184,4.46092,0.166293,4.56303,-2.13694e-15,2.51463e-14,40.5986,17.9976,-75.3469,82.5136,20.3283,-0.535434,-29.6384,7.12502,25.0774,-58.0118,-2.13694e-15,2.51463e-14,34.0836,-2.40364,72.1155,80.9875,-31.0386,1.57512,-0.331077,7.12502,27.0982,27.7441,-68.02,-17.2698,24.4222,144.274,32.3201,-14.5577,25.6352,-51.1064,51.6379,23.7558,151.317,5.23342,-34.1451,-3.10528
13.7247,28.4236,41.1035,120.945,4.79582,-175.787,30.401,-4.98629,1.90219,11.3612,-2.93661,-1.16599,-4.02267,0.0352934,-1.51988,5.45383,-0.330592,-13.3401,17.7008,0.0459083,6.98146,4.45253,0.205574,4.46832,1.34892e-14,1.3555e-14,39.5305,18.5795,-75.2922,83.1953,20.6145,-0.424132,-29.7052,7.12502,25.1841,-58.0637,1.34892e-14,1.3555e-14,32.5579,-2.55013,72.6485,82.1245,-31.3903,1.31192,-0.166235,7.12502,26.8464,27.9479,-67.0539,-17.4373,24.0167,144.037,27.5246,-19.1352,35.3065,-49.6368,46.935,23.1651,149.556,7.73767,-37.1101,-10.0392
13.7048,28.4747,40.9302,120.643,4.66158,-175.996,29.9006,-4.88371,1.78592,11.1386,-2.96482,-1.08212,-4.03681,-0.0411175,-1.35779,5.71612,-0.389377,-13.2416,18.0369,0.0843331,6.40955,4.52233,0.226202,4.27788,1.75427e-14,-4.22417e-15,38.4874,19.0972,-75.4774,84.0277,20.7962,-0.40124,-29.9017,7.12502,25.206,-58.2571,1.75427e-14,-4.22417e-15,31.1814,-2.78114,72.9964,83.1471,-31.6859,1.20498,0.196544,7.12502,26.744,28.3263,-66.5499,-17.7777,23.8511,143.626,30.6805,-11.6928,24.6074,-49.2378,41.5959,21.3972,147.79,9.56076,-40.7262,-17.6256
13.6869,28.5359,40.7606,120.175,4.65258,-176.23,29.5494,-4.77602,1.70475,10.9482,-2.94724,-0.989011,-4.0805,-0.0828101,-1.21869,5.7779,-0.323085,-13.2331,18.8104,0.34048,6.07095,4.73748,0.37424,4.19463,8.79622e-15,3.10104e-14,37.3431,19.6324,-75.7626,84.8668,20.9452,-0.487596,-29.9822,7.12502,25.1233,-58.3492,8.79622e-15,3.10104e-14,29.8751,-2.96293,73.3571,84.0699,-31.9597,0.853357,0.241256,7.12502,26.4075,28.422,-65.5831,-17.9252,23.9226,142.903,29.3698,-9.57872,22.0444,-47.8529,36.3302,20.2122,145.761,11.3708,-44.1848,-24.1782
13.6605,28.5808,40.583,119.83,4.55799,-176.228,29.1152,-4.8393,1.89152,10.7202,-3.08684,-0.872839,-4.14639,-0.200904,-1.15872,5.89968,-0.269563,-13.3984,19.422,0.560325,5.73504,4.90008,0.488414,4.13652,-1.59028e-14,3.08116e-14,36.166,20.2396,-76.0672,85.7101,21.1616,-0.447647,-30.0557,7.12502,25.1615,-58.4174,-1.59028e-14,3.08116e-14,28.6451,-3.04579,73.8243,84.9204,-32.335,0.548236,0.373241,7.12502,26.1154,28.5975,-65.0633,-18.234,23.8607,142.344,27.9987,-9.75713,24.4195,-46.4948,31.9368,19.0991,143.911,11.467,-47.3293,-28.9549
13.6417,28.6295,40.4155,119.434,4.30275,-176.284,28.8077,-4.87652,1.8666,10.5049,-3.23431,-0.804737,-4.24488,-0.318163,-1.02679,5.96224,-0.253823,-13.5821,19.9439,0.718138,5.4244,5.051,0.565408,4.08633,-2.89232e-14,2.40529e-14,35.1013,20.8355,-76.4052,86.5907,21.5731,-0.234891,-30.4345,7.12502,25.3654,-58.7674,-2.89232e-14,2.40529e-14,27.5495,-3.12305,74.2358,85.7705,-32.6249,0.527633,0.731006,7.12502,26.0957,28.9582,-64.5422,-19.2331,23.5845,141.746,25.6846,-10.8604,31.7591,-44.9285,28.2499,17.9284,142.162,10.4005,-49.3833,-32.4706
13.626,28.6791,40.2422,119.049,4.16096,-176.54,28.4122,-4.81318,1.82287,10.2972,-3.27291,-0.801464,-4.29158,-0.385592,-0.992416,5.93028,-0.23179,-13.7056,20.6492,0.905119,5.23526,5.27055,0.670716,4.073,-3.8763e-15,1.19271e-15,33.9925,21.2963,-76.888,87.4278,22.0602,-0.209032,-30.699,7.12502,25.3901,-59.0284,-3.8763e-15,1.19271e-15,26.4103,-3.22611,74.5787,86.731,-32.8203,0.715221,1.0315,7.12502,26.2753,29.232,-63.9273,-19.6532,23.5796,141.019,25.5299,-5.31418,21.5718,-43.0233,25.3237,16.8694,140.549,8.99063,-50.6486,-34.8808
13.6081,28.7288,40.06,119,4.07221,-176.864,27.5474,-4.69233,1.78692,10.0471,-3.29028,-0.740621,-4.15949,-0.466212,-0.917759,6.08262,-0.380426,-13.7562,20.9388,0.835146,4.71769,5.36049,0.624533,3.92125,-1.13307e-14,1.11319e-14,32.8697,21.6897,-77.4935,88.3326,22.5268,-0.0367672,-30.702,7.12502,25.5552,-59.0078,-1.13307e-14,1.11319e-14,25.2274,-3.17007,74.9773,87.7532,-33.1793,0.932522,1.15174,7.12502,26.4833,29.3211,-63.8149,-19.7226,23.7963,140.356,24.3838,-5.74311,25.1187,-41.5414,23.0315,15.6021,139.037,10.7716,-50.8657,-36.2937
13.579,28.7637,39.8755,118.871,3.66779,-176.965,26.9161,-4.7244,1.62244,9.77407,-3.50239,-0.622265,-4.15118,-0.633312,-0.644217,5.80148,-0.127694,-14.0934,21.9749,1.4465,4.51704,5.69513,0.932179,3.96469,2.60408e-14,-3.57812e-15,31.8456,22.0981,-78.194,89.4265,23.2916,0.613805,-30.5556,7.12502,26.1782,-58.7705,2.60408e-14,-3.57812e-15,24.1574,-2.94467,75.4316,88.5659,-33.5474,0.895693,1.08834,7.12502,26.448,29.263,-63.7045,-20.5524,23.595,139.696,22.8304,-6.71494,29.1157,-40.5847,19.9763,14.0546,137.866,21.0531,-47.7985,-36.5267
13.5614,28.7946,39.6976,118.356,3.46172,-177.32,26.852,-4.59321,1.10557,9.50887,-3.52955,-0.429749,-4.36703,-0.696258,-0.129434,6.1339,-0.0784124,-14.3944,22.1439,1.64122,4.01954,5.69949,1.00671,3.86167,-2.38542e-14,1.19271e-14,31.0302,22.7211,-78.2791,89.9389,23.6195,0.595103,-30.3366,7.12502,26.1603,-58.5542,-2.38542e-14,1.19271e-14,23.055,-2.71424,75.9178,89.2559,-33.8938,0.76946,1.0665,7.12502,26.3272,29.2593,-63.1002,-20.7156,23.4859,138.795,21.367,-7.23003,31.3121,-38.8954,17.6334,12.6496,136.714,24.626,-45.1004,-34.9619
13.5489,28.8353,39.5251,118.146,3.42505,-177.17,26.3923,-4.64402,1.05712,9.2411,-3.69089,-0.120977,-4.42006,-0.826511,0.271733,6.59617,-0.0411988,-14.5288,22.0206,1.77468,3.41477,5.59574,1.05467,3.68319,-2.34566e-14,1.27222e-14,30.4055,23.301,-78.4353,90.8599,23.7605,1.15024,-30.6901,7.12502,26.6916,-58.8279,-2.34566e-14,1.27222e-14,21.9772,-2.46247,76.3544,90.1101,-34.2572,0.768083,1.12239,7.12502,26.3259,29.3154,-62.5161,-21.2838,23.8342,137.822,19.5661,-8.2529,33.998,-37.7246,15.6708,12.2392,135.809,27.9661,-41.8096,-30.0478
13.5461,28.877,39.3546,117.947,3.52327,-177.393,25.8326,-4.48799,0.754549,9.01292,-3.65385,0.146071,-4.36202,-0.864049,0.706814,6.93298,-0.0346122,-14.5779,21.9805,1.87576,2.86207,5.53989,1.09453,3.51104,0,-7.95139e-15,29.8334,23.8753,-78.4635,91.6031,24.0206,1.46685,-31.0388,7.12502,26.9946,-59.1301,0,-7.95139e-15,21.0455,-2.25226,76.6695,91.0276,-34.4823,1.01627,1.36814,7.12502,26.5634,29.5254,-61.9631,-21.1478,24.3317,136.846,17.7037,-9.41617,37.0358,-36.3317,14.4853,11.8482,134.702,31.2631,-37.4695,-20.7235
13.5372,28.909,39.1768,117.689,3.19826,-177.411,25.3676,-4.46079,0.404629,8.67857,-3.81404,0.280889,-4.46783,-1.00093,1.0869,7.42535,0.0671927,-14.7486,22.1915,2.07801,2.68765,5.52398,1.2118,3.49015,7.95139e-15,-1.19271e-14,29.0051,24.413,-78.5857,92.243,24.3596,1.38578,-31.2378,7.12502,26.917,-59.341,7.95139e-15,-1.19271e-14,20.0409,-2.22231,76.8674,91.7863,-34.528,1.14466,1.66424,7.12502,26.6863,29.8028,-61.2866,-22.5639,24.3953,135.83,16.6648,-8.92767,37.2948,-35.1456,12.8941,10.6796,133.671,32.8582,-32.8968,-16.0202
13.5275,28.9316,39.0022,117.286,3.05737,-177.786,25.1879,-4.27351,-0.0563221,8.28697,-3.7902,0.372636,-4.77012,-1.04538,1.44496,8.20952,0.230103,-14.9583,22.2993,2.29806,2.65562,5.42469,1.3541,3.51461,-5.4467e-14,3.57812e-14,28.1158,24.8899,-78.7462,92.8608,24.4604,1.39774,-31.2975,7.12502,26.9285,-59.3989,-5.4467e-14,3.57812e-14,19.0288,-2.25733,76.9866,92.4027,-34.4798,0.944723,1.73194,7.12502,26.4949,29.8995,-60.5393,-23.0373,24.4908,134.749,15.9397,-8.64273,36.4239,-33.8198,11.6028,9.06452,132.147,35.3256,-26.4143,-11.8458
13.5233,28.9492,38.8272,116.956,2.75089,-177.81,24.8,-4.24337,-0.434328,8.05279,-3.91771,0.463007,-4.79804,-1.14737,1.78238,8.46723,0.251281,-14.9744,22.5964,2.41851,2.47986,5.47972,1.43329,3.47068,2.22639e-14,-2.46493e-14,27.5546,25.2071,-78.8017,93.4882,24.6548,1.7431,-31.4188,7.12502,27.2589,-59.4688,2.22639e-14,-2.46493e-14,18.3374,-2.229,77.0198,92.9645,-34.4783,1.09146,1.95729,7.12502,26.6354,30.1036,-59.7649,-23.7322,24.4696,133.754,14.593,-8.97284,35.548,-32.73,10.5342,8.39347,131.342,34.8994,-21.943,-11.6383
13.5173,28.962,38.6553,116.446,2.61313,-177.978,24.5547,-4.18697,-0.687342,7.97669,-3.93987,0.493309,-4.73799,-1.17735,1.95535,8.57861,0.232369,-14.8727,22.7585,2.46574,2.27963,5.51815,1.47,3.39505,3.33958e-14,-2.3059e-14,27.2973,25.4201,-78.7658,94.0362,24.8956,1.78073,-31.6134,7.12502,27.2949,-59.6578,3.33958e-14,-2.3059e-14,17.9115,-2.23084,76.891,93.4602,-34.3731,1.40237,2.40845,7.12502,26.9329,30.5092,-58.5205,-23.8841,24.6374,132.409,13.6889,-9.07326,32.0896,-31.4129,9.4754,7.04069,129.922,33.2344,-19.6634,-15.544
13.4922,28.9582,38.471,116.208,2.47833,-177.964,23.9712,-4.26539,-0.503068,7.84416,-4.06887,0.467104,-4.60694,-1.27045,1.83386,8.9987,0.274017,-14.7187,22.6511,2.52052,2.09389,5.41916,1.52258,3.30264,7.95139e-16,4.77083e-15,27.1402,25.6312,-78.6681,94.3924,24.7547,1.46286,-31.7353,7.12502,26.9908,-59.8271,7.95139e-16,4.77083e-15,17.5476,-2.34647,76.6142,93.8653,-34.0228,1.42994,2.76955,7.12502,26.9593,30.8662,-57.4592,-24.3107,25.0569,130.915,13.7312,-8.37142,25.4784,-30.983,8.21633,6.21584,129.414,32.6937,-15.5625,-10.9893
13.4772,28.9616,38.3016,115.638,2.24147,-178.019,23.8218,-4.29041,-0.715004,7.76145,-4.17709,0.490973,-4.60043,-1.33708,2.00342,9.28973,0.348082,-14.7555,22.6851,2.62925,2.04089,5.38043,1.59292,3.2912,3.18055e-14,1.35174e-14,27.1338,25.9396,-78.3496,94.6224,24.5235,1.46978,-31.9554,7.12502,26.9974,-60.0462,3.18055e-14,1.35174e-14,17.2451,-2.37173,76.2754,94.1599,-33.6873,1.50403,3.01203,7.12502,27.0302,31.0977,-56.088,-24.8938,24.7951,129.671,12.9387,-8.62732,24.0531,-30.0152,6.95266,5.09306,128.336,32.0617,-12.2499,-6.07244
13.4763,28.9736,38.1519,114.756,2.23993,-178.576,24.12,-4.06806,-1.31049,7.69306,-4.02563,0.577944,-4.77432,-1.26713,2.41131,9.70383,0.458691,-15.0465,22.595,2.72897,2.07218,5.2838,1.6463,3.34205,-1.03368e-14,-1.59028e-15,27.1936,26.3459,-77.8637,94.8022,24.4435,1.88082,-32.2707,7.12502,27.3906,-60.3,-1.03368e-14,-1.59028e-15,16.9334,-2.2821,75.8907,94.304,-33.4536,1.58991,3.22793,7.12502,27.1123,31.3009,-54.8576,-24.6771,23.995,128.807,10.9388,-10.5034,31.5016,-28.1765,6.45623,4.05839,126.585,31.0846,-11.2752,-4.85732
13.4403,28.943,37.9552,114.767,2.29411,-178.325,23.4199,-4.26603,-0.780502,7.40142,-4.24902,0.684106,-4.76956,-1.41724,2.2597,10.1841,0.545823,-15.179,22.5896,2.83149,2.02422,5.20627,1.71679,3.34339,-1.74931e-14,-9.54166e-15,27.0979,26.617,-77.5886,94.9437,24.3754,2.44101,-32.4873,7.12502,27.9263,-60.4307,-1.74931e-14,-9.54166e-15,16.5946,-2.2805,75.4397,94.3686,-33.0911,1.74286,3.59147,7.12502,27.2586,31.6415,-54.1067,-25.6802,24.9421,127.185,12.3289,-8.95369,19.1016,-28.2303,5.84158,3.31829,125.458,29.738,-11.9972,-7.74199
13.4285,28.9213,37.7821,114.064,2.57609,-178.654,23.5305,-4.13203,-0.926533,7.27671,-4.11977,0.837232,-4.94246,-1.36342,2.48411,10.6575,0.605631,-15.1643,22.6019,2.93996,1.81629,5.13989,1.79652,3.2698,-4.45278e-14,1.74931e-14,27.0059,26.8322,-77.4171,95.029,24.2486,2.85986,-32.5003,7.12502,28.3266,-60.3779,-4.45278e-14,1.74931e-14,16.3405,-2.19094,75.03,94.4493,-32.7565,2.12102,3.95925,7.12502,27.6203,31.952,-51.9009,-25.4776,25.4973,125.231,13.4918,-7.44823,4.60727,-26.8944,5.47109,2.8912,123.941,28.4228,-11.5019,-7.93066
13.3946,28.8648,37.5774,113.678,2.49305,-178.771,23.3004,-4.17175,-1.00813,7.10036,-4.22803,0.949544,-4.99871,-1.43641,2.67414,11.1337,0.714404,-15.3092,22.5042,3.06867,1.68351,5.03541,1.87516,3.24184,3.97569e-15,2.62396e-14,27.1477,27.18,-76.9953,95.0375,23.9463,3.02951,-32.5567,7.12502,28.4888,-60.4073,3.97569e-15,2.62396e-14,16.1652,-1.92117,74.7422,94.5448,-32.4287,2.76228,4.35489,7.12502,28.2334,32.2479,-49.8054,-26.1942,26.0049,123.099,15.5242,-0.987145,-25.3291,-26.6073,5.04969,1.94387,122.927,26.7144,-12.3555,-10.2908
13.3823,28.8772,37.4239,113.506,2.56913,-178.762,22.7163,-4.25188,-0.916788,6.88459,-4.36462,1.15009,-4.92381,-1.53521,2.8488,11.4153,0.86163,-15.6774,22.7842,3.28437,1.82863,5.06956,1.99459,3.35543,7.15625e-14,-7.55382e-14,27.4622,27.5723,-76.3897,94.9101,23.4722,3.16148,-32.8043,7.12502,28.6149,-60.6336,7.15625e-14,-7.55382e-14,15.9276,-1.66581,74.4673,94.5689,-31.809,3.40019,4.79221,7.12502,28.8429,32.5829,-49.0451,-26.2557,25.2602,121.996,13.6867,-7.04988,-1.57591,-26.1104,4.90866,1.36554,121.258,23.4465,-17.2791,-18.6846
13.3925,28.9392,37.3176,112.62,2.92897,-178.977,22.7945,-4.19102,-1.0876,6.85365,-4.30055,1.41918,-4.96337,-1.50322,3.22444,11.5258,0.879668,-15.8746,23.3183,3.47942,1.61108,5.22753,2.10401,3.33745,5.00937e-14,-3.18055e-14,27.8397,27.913,-75.778,94.6656,22.9536,3.41685,-32.9472,7.12502,28.8588,-60.7351,5.00937e-14,-3.18055e-14,15.6628,-1.49696,74.0473,94.4267,-30.9739,3.58591,5.10867,7.12502,29.0203,32.8689,-47.4605,-25.5671,24.3005,120.69,10.5717,-11.2324,22.358,-23.8157,4.66554,1.42923,118.79,22.5716,-16.7969,-16.0888
13.3703,28.9156,37.1352,112.102,3.2234,-179.095,22.4995,-4.21735,-1.03921,6.74078,-4.33438,1.66914,-4.91798,-1.53404,3.46166,11.529,0.809454,-15.813,23.8175,3.64242,1.04458,5.40505,2.19681,3.16597,4.92986e-14,-5.08889e-14,28.3392,28.236,-75.0761,94.3479,22.5432,3.99611,-33.087,7.12502,29.412,-60.7791,4.92986e-14,-5.08889e-14,15.4674,-1.30767,73.5434,94.187,-30.1474,3.56921,5.41865,7.12502,29.0043,33.1817,-44.9464,-25.3523,23.9176,119.119,8.53663,-12.036,28.4524,-22.6738,4.54817,1.54664,117.232,21.6235,-16.4672,-14.1177
13.3603,28.8981,36.9517,112.092,3.40763,-179.263,21.6953,-4.17002,-1.24238,6.44222,-4.38356,1.97374,-4.78723,-1.60184,3.87843,11.9685,0.853426,-15.8577,23.9316,3.79625,0.671021,5.38603,2.29778,3.05162,-3.49861e-14,-3.18055e-15,28.9349,28.6862,-74.1922,93.9193,22.1234,4.51002,-33.4357,7.12502,29.9025,-61.0406,-3.49861e-14,-3.18055e-15,15.1843,-1.04721,73.1002,93.9529,-29.4936,3.7442,5.76781,7.12502,29.1715,33.5019,-43.3385,-25.1562,23.9482,117.492,8.22836,-12.3389,29.4713,-22.0915,4.68909,1.47984,115.696,20.4384,-16.8581,-13.4425
13.3454,28.8869,36.7718,111.82,3.53952,-179.517,21.2241,-4.13899,-1.52371,6.11689,-4.45145,2.26834,-4.84395,-1.66549,4.35463,12.6197,1.01907,-16.1913,23.9484,4.01555,0.535847,5.29455,2.43118,3.0526,-2.22639e-14,2.54444e-14,29.4961,29.3292,-73.2182,93.4754,21.5643,4.77428,-33.9122,7.12502,30.1546,-61.4713,-2.22639e-14,2.54444e-14,14.7172,-0.731659,72.6638,93.6775,-28.705,3.97429,6.21777,7.12502,29.3912,33.9136,-41.526,-25.2863,23.4712,115.86,8.49125,-12.8594,28.3739,-21.0258,4.83791,1.25307,114.162,19.118,-17.1097,-14.0581
13.314,28.8663,36.5823,111.853,3.74891,-179.599,20.498,-4.27205,-1.41399,5.72312,-4.65394,2.60689,-4.85834,-1.7971,4.67204,12.9089,1.25342,-16.7393,24.2218,4.38762,0.509745,5.32852,2.61778,3.13824,2.54444e-14,-7.95139e-15,30.1735,30.0422,-72.1524,93.0149,20.9779,5.22486,-34.219,7.12502,30.5844,-61.6989,2.54444e-14,-7.95139e-15,14.2832,-0.25513,72.1575,93.4339,-27.7482,4.21519,6.71768,7.12502,29.6211,34.3729,-39.9797,-25.2925,23.1417,114.234,8.81237,-13.135,26.7337,-20.5214,5.03863,1.11566,112.877,17.6231,-17.2465,-16.9328
13.288,28.84,36.3931,112.207,3.97826,-179.606,19.539,-4.42904,-1.38322,5.24405,-4.90879,3.02936,-4.81736,-1.95863,5.11778,13.3997,1.47411,-17.1785,24.0936,4.67943,0.215144,5.21665,2.76465,3.09818,2.54444e-14,-6.52014e-14,31.0611,30.7966,-70.9259,92.4786,20.3524,5.84354,-34.3635,7.12502,31.1742,-61.7316,2.54444e-14,-6.52014e-14,13.8899,0.297431,71.5005,93.2582,-27.0713,4.63608,7.22635,7.12502,30.0228,34.8095,-38.7211,-25.1379,23.017,112.668,8.63028,-13.6609,28.4524,-20.3754,5.42955,1.15123,111.651,16.3032,-17.2789,-19.2023
13.3053,28.8129,36.2229,111.543,4.46678,-180.212,19.5388,-4.07672,-1.82349,5.07772,-4.54225,3.29866,-4.96897,-1.78623,5.58657,14.2565,1.48683,-17.1934,23.6918,4.55786,0.0436945,4.98127,2.74759,3.01343,-3.49861e-14,9.38264e-14,31.7168,30.8745,-69.8993,91.9795,19.863,6.4711,-34.629,7.12502,31.7721,-61.8804,-3.49861e-14,9.38264e-14,13.9292,0.0558449,70.6704,92.8604,-26.4803,4.92594,7.69572,7.12502,30.2993,35.2284,-36.0061,-24.156,22.6931,110.883,8.33695,-14.4923,29.9983,-18.3752,6.10828,1.70675,109.895,15.5974,-16.9042,-19.3761
13.2695,28.7663,36.0243,112.116,4.66271,-180.008,18.3974,-4.23957,-0.978546,4.58016,-4.67531,3.44445,-4.95256,-1.8928,5.23099,14.4351,1.53039,-17.4468,24.0011,4.61412,0.300593,5.04883,2.79152,3.14567,-2.70347e-14,1.59028e-15,32.4503,30.8972,-68.8257,91.4563,19.4696,6.96166,-34.9769,7.12502,32.2392,-62.1346,-2.70347e-14,1.59028e-15,14.0711,-0.119134,70.023,92.4761,-25.7993,5.17753,8.04202,7.12502,30.5393,35.5303,-35.0539,-24.1881,22.5537,109.478,8.59177,-14.9018,30.3229,-18.5193,6.26409,1.68998,108.737,15.5513,-15.696,-19.3034
13.2538,28.7256,35.8399,112.148,4.56707,-180.294,17.9005,-4.12714,-1.0464,4.20071,-4.6061,3.50412,-5.0919,-1.88398,5.30107,14.3179,1.52751,-17.6305,24.5816,4.70948,0.548615,5.2448,2.84977,3.28217,3.65764e-14,2.70347e-14,33.2788,30.8368,-67.7044,90.8349,18.8282,7.04321,-35.2422,7.12502,32.3168,-62.3841,3.65764e-14,2.70347e-14,14.2125,-0.212168,69.3904,92.2507,-25.1119,5.5943,8.3479,7.12502,30.9367,35.7614,-33.2671,-23.8643,21.6418,108.009,8.56757,-15.2287,30.7994,-17.6353,6.55046,1.26371,107.186,15.0565,-15.4542,-21.0315
13.2406,28.6756,35.655,112.209,4.69749,-180.544,17.532,-4.00673,-0.989051,3.73432,-4.48949,3.64425,-5.39966,-1.84504,5.3927,14.8554,1.51925,-17.6248,24.4506,4.64753,0.421009,5.13912,2.85359,3.22495,6.83819e-14,-4.92986e-14,34.0177,30.8309,-66.5875,90.3024,17.8982,7.04825,-35.5648,7.12502,32.3216,-62.7057,6.83819e-14,-4.92986e-14,14.2616,-0.339917,68.666,91.9885,-24.4013,5.7639,8.64787,7.12502,31.0983,36.0306,-31.4645,-23.4619,21.0431,106.547,8.85744,-15.3882,30.0371,-16.7625,6.92022,1.255,105.669,15.0591,-14.9602,-20.8701
13.2181,28.6204,35.4551,112.777,5.26631,-180.181,16.632,-4.14136,-0.0287923,3.15133,-4.53141,3.94631,-5.59125,-1.89177,5.14366,15.2913,1.42354,-17.7335,24.6926,4.56276,0.315761,5.17726,2.84446,3.21246,1.43125e-14,1.11319e-14,34.6428,30.8228,-65.5574,89.9478,17.0216,7.33168,-35.9342,7.12502,32.5914,-63.0198,1.43125e-14,1.11319e-14,14.3689,-0.520714,67.9343,91.6108,-23.5717,5.75253,9.01065,7.12502,31.0875,36.3954,-30.1431,-23.3888,21.3405,105.143,9.4468,-15.4076,29.0674,-16.6649,6.92573,1.96815,104.374,14.7908,-15.1313,-22.1135
13.2223,28.5689,35.2616,112.59,5.88925,-180.465,16.4237,-3.9422,0.110644,2.79477,-4.24535,4.24784,-5.87144,-1.75588,5.33542,15.7715,1.41763,-17.8389,24.7382,4.50519,0.37534,5.13271,2.8496,3.24271,6.52014e-14,-5.56597e-14,35.2447,30.738,-64.6542,89.604,16.1003,7.59258,-36.2678,7.12502,32.8396,-63.3018,6.52014e-14,-5.56597e-14,14.5771,-0.630148,67.3881,91.1876,-22.9158,5.98368,9.41266,7.12502,31.3078,36.755,-27.7572,-22.7308,21.1289,103.647,9.99556,-15.2613,28.4358,-15.0433,7.22539,2.70028,102.633,14.2183,-15.652,-23.8687
13.2032,28.5117,35.0581,113.053,6.03104,-180.477,15.6882,-3.91452,0.490381,2.22118,-4.19525,4.39302,-6.10747,-1.75507,5.24229,16.2225,1.5544,-18.1199,24.7119,4.52981,0.797082,5.04655,2.88644,3.41401,8.11041e-14,-3.33958e-14,35.8309,30.5664,-63.927,89.2487,15.3136,7.86471,-36.6451,7.12502,33.0984,-63.6245,8.11041e-14,-3.33958e-14,14.8906,-0.610476,67.0694,90.7277,-22.616,6.50581,9.73249,7.12502,31.8052,36.9773,-26.1976,-22.5909,20.5284,102.369,10.4123,-14.8818,28.4094,-14.4234,7.31484,2.69058,101.006,14.0252,-16.2212,-25.0084
13.1812,28.4419,34.8477,113.692,6.08415,-180.336,14.9281,-3.93985,0.895219,1.58118,-4.20757,4.52915,-6.3948,-1.78301,5.14013,16.4937,1.65472,-18.495,24.9045,4.54588,1.30787,5.05615,2.908,3.64312,-2.06736e-14,1.11319e-14,36.2701,30.3045,-63.3985,88.9835,14.8499,8.37423,-36.8495,7.12502,33.5828,-63.7249,-2.06736e-14,1.11319e-14,15.3216,-0.57186,66.7528,90.2315,-22.2458,7.025,10.0284,7.12502,32.2995,37.1739,-24.8587,-22.2885,20.1069,101.218,10.3528,-14.8942,29.4946,-14.0865,7.19778,2.60194,99.4023,14.1355,-16.7788,-24.9133
13.1729,28.3623,34.6432,113.691,6.19572,-180.605,14.9018,-3.78139,0.763756,1.08147,-4.02668,4.66753,-6.91048,-1.69151,5.35758,16.7254,1.5508,-18.7263,25.351,4.45196,1.42448,5.18563,2.88332,3.73757,6.20208e-14,-8.26944e-14,36.6362,30.0567,-62.8793,88.6937,14.3918,8.80821,-36.8301,7.12502,33.9951,-63.615,6.20208e-14,-8.26944e-14,15.6626,-0.484941,66.4858,89.899,-21.7664,7.35232,10.2567,7.12502,32.611,37.3382,-22.6701,-21.8667,19.2672,100.025,10.3654,-14.8206,30.9856,-12.6998,7.18201,2.52009,97.5744,14.4224,-17.151,-24.1263
13.1518,28.278,34.4286,114.072,6.01538,-180.56,14.5245,-3.79295,0.822409,0.458881,-4.05652,4.73934,-7.36709,-1.71042,5.41758,16.8249,1.3494,-18.8785,26.0627,4.3881,1.25704,5.43669,2.87853,3.74285,-7.4743e-14,5.88403e-14,37.1105,29.8479,-62.38,88.3327,13.8784,8.84745,-36.6959,7.12502,34.0324,-63.4725,-7.4743e-14,5.88403e-14,15.9437,-0.303287,66.285,89.6593,-21.3832,7.72498,10.2996,7.12502,32.9655,37.3071,-20.8348,-21.7485,18.2871,98.9621,10.0913,-15.0665,35.5772,-11.8998,6.98712,2.19262,95.8814,14.7391,-17.6482,-23.6864
13.1288,28.1948,34.2147,114.453,6.13971,-180.812,14.1951,-3.68517,1.02286,-0.104814,-3.89152,4.84158,-7.81194,-1.63539,5.39268,17.1112,1.28225,-18.9175,26.2119,4.35146,1.07875,5.46574,2.88669,3.69439,6.52014e-14,-6.20208e-14,37.629,29.5173,-62.06,87.9928,13.3662,8.81201,-36.5271,7.12502,33.9987,-63.3112,6.52014e-14,-6.20208e-14,16.4093,-0.0116747,66.1421,89.3451,-21.0192,8.35409,10.2687,7.12502,33.5636,37.1483,-19.0319,-21.1628,17.5193,97.8225,9.9534,-15.2911,39.3473,-10.7775,7.31272,2.2247,94.0897,14.743,-18.4948,-23.7831
13.104,28.0805,33.9744,115.088,6.31338,-180.936,13.5559,-3.60648,1.28314,-0.685153,-3.75518,4.98613,-8.09855,-1.57672,5.36198,17.631,1.36382,-18.9183,25.9008,4.33401,1.07164,5.29378,2.90865,3.66807,6.36111e-15,-1.27222e-14,38.1154,29.0788,-61.8585,87.5925,13.096,8.94933,-36.2135,7.12502,34.1291,-62.9685,6.36111e-15,-1.27222e-14,16.9706,0.347245,66.1568,89.067,-20.6781,8.9275,10.3164,7.12502,34.1084,37.076,-17.637,-20.664,16.9966,96.7747,10.307,-15.3086,38.5437,-10.065,7.58683,2.30051,92.4649,15.1608,-18.9224,-23.0387
13.086,27.9851,33.756,115.765,6.1922,-181.17,13.0245,-3.50425,1.17279,-1.29848,-3.65425,5.05836,-8.45772,-1.52217,5.4821,17.8308,1.43984,-19.0154,25.9683,4.41228,1.16488,5.28288,2.96751,3.71278,-9.54166e-14,1.30403e-13,38.722,28.6818,-61.6307,87.1365,12.9432,8.89859,-35.8984,7.12502,34.081,-62.6642,-9.54166e-14,1.30403e-13,17.5119,0.769155,66.1756,88.8651,-20.463,9.3651,10.3603,7.12502,34.5239,37.0262,-16.111,-20.1178,16.146,95.4804,10.3199,-15.8973,35.931,-9.20351,7.76156,1.82434,90.5618,16.0909,-18.7137,-21.505
13.0795,27.8474,33.5405,115.398,6.26272,-181.656,13.703,-3.27457,0.678546,-1.56383,-3.39096,5.16405,-9.12135,-1.35287,5.89906,17.6886,1.42945,-19.184,26.3591,4.47322,1.28567,5.42874,2.99956,3.80109,1.27222e-14,1.59028e-15,39.5294,28.2063,-61.3505,86.7845,12.5652,8.82953,-35.9479,7.12502,34.0154,-62.7282,1.27222e-14,1.59028e-15,18.228,1.29928,66.1057,88.6592,-20.3671,9.71607,10.2415,7.12502,34.857,36.8308,-13.4011,-19.0817,15.1918,93.9989,11.3846,-17.1957,35.7453,-7.06434,7.87117,1.66906,88.5721,16.6273,-18.8512,-21.4077
13.0644,27.6921,33.3118,115.428,6.8141,-181.795,14.0746,-3.14988,0.944582,-1.89145,-3.10841,5.39574,-9.72675,-1.19633,5.99509,17.9381,1.42898,-19.2762,26.2886,4.40584,1.33176,5.37831,2.97693,3.82435,9.22361e-14,-9.70069e-14,40.3258,27.6177,-61.1175,86.5357,12.2807,9.04528,-35.8703,7.12502,34.2203,-62.6049,9.22361e-14,-9.70069e-14,19.1543,1.79398,65.9561,88.3918,-20.1828,10.0912,10.2555,7.12502,35.2128,36.7616,-11.0019,-18.3163,15.0534,92.3354,12.7159,-18.1464,35.558,-5.4227,8.08683,2.24136,86.7433,17.2268,-19.3636,-22.3444
13.0517,27.5526,33.0891,115.754,7.13773,-181.864,14.2697,-3.05332,1.0637,-2.34184,-2.9022,5.56498,-10.3586,-1.07351,6.11708,18.4461,1.46501,-19.0688,25.8974,4.34374,1.23642,5.18488,2.98302,3.73246,-4.77083e-14,6.36111e-15,41.1018,27.0175,-60.8603,86.3058,11.9709,9.0283,-35.6048,7.12502,34.2041,-62.343,-4.77083e-14,6.36111e-15,20.1239,2.20029,65.7722,88.167,-19.9507,10.4131,10.5072,7.12502,35.518,36.9407,-8.81694,-18.0285,14.6075,90.5672,14.6799,-17.8993,31.9089,-4.03505,8.23316,2.52725,84.8358,18.0719,-19.013,-21.9986
13.0398,27.4159,32.87,116.362,7.10862,-181.98,14.2508,-2.95923,0.878596,-2.84517,-2.78343,5.64313,-10.9094,-0.984208,6.31959,18.4734,1.55874,-19.1339,25.9604,4.3826,1.63893,5.17945,3.01127,3.87644,-4.29375e-14,4.45278e-14,42.122,26.3404,-60.4451,86.081,11.3876,8.97795,-35.5211,7.12502,34.1563,-62.27,-4.29375e-14,4.45278e-14,21.2147,2.58296,65.4142,87.9643,-19.5958,10.1373,10.769,7.12502,35.2565,37.2648,-7.16015,-17.3298,14.2226,88.8325,15.6439,-18.5316,29.6701,-2.95943,8.33673,2.25196,82.9085,18.5317,-18.9513,-23.9087
13.0257,27.2752,32.6497,117.446,7.20183,-181.975,13.7736,-2.91265,0.983266,-3.4097,-2.67158,5.76174,-11.2763,-0.913329,6.37197,18.4336,1.67291,-19.7036,26.1254,4.30641,2.52641,5.21157,2.94529,4.2698,-4.77083e-15,-5.24792e-14,43.4068,25.5455,-59.8574,85.7814,10.7426,9.17086,-35.2908,7.12502,34.3395,-61.9986,-4.77083e-15,-5.24792e-14,22.5609,2.99551,64.9088,87.6366,-19.2464,9.82268,10.8632,7.12502,34.9581,37.429,-6.04785,-16.9708,13.8277,87.1565,15.0344,-19.9307,29.7904,-2.40573,8.62523,2.16407,81.0575,19.0013,-19.0024,-25.7748
13.0093,27.129,32.4321,118.575,7.34511,-181.873,13.2664,-2.8862,1.21412,-3.92286,-2.55888,5.87123,-11.5751,-0.850244,6.33634,18.8577,1.63363,-19.8262,25.7095,4.03273,2.70278,5.03439,2.80422,4.32499,4.13472e-14,6.36111e-15,44.9014,24.6122,-59.1452,85.3698,10.0385,8.87768,-34.9914,7.12502,34.0611,-61.7615,4.13472e-14,6.36111e-15,24.1098,3.49437,64.6117,87.3369,-19.3317,9.80311,10.8184,7.12502,34.9396,37.3886,-4.96256,-16.1152,13.8765,85.4086,14.7421,-22.1291,34.5313,-1.83245,8.92795,2.25009,79.2159,20.0438,-18.4457,-25.5917
12.9905,26.9584,32.2108,119.335,7.49557,-181.86,13.1814,-2.81883,1.32899,-4.25634,-2.40985,5.94921,-11.9219,-0.765167,6.34375,18.7775,1.59421,-19.767,25.6095,3.94217,2.77047,5.01297,2.75155,4.33624,5.24792e-14,-4.05521e-14,46.5153,23.5718,-58.4576,84.9576,9.31966,7.91808,-34.9196,7.12502,33.1491,-61.8882,5.24792e-14,-4.05521e-14,25.7683,3.98011,64.3185,87.1285,-19.6635,9.22156,10.9305,7.12502,34.3876,37.6274,-3.42251,-15.2785,13.7581,83.5089,14.2191,-24,37.383,-0.838546,9.07714,2.22421,77.3637,21.5411,-17.2033,-23.7613
12.9704,26.765,31.9864,119.934,7.7503,-181.938,13.3644,-2.69038,1.42286,-4.51869,-2.17808,6.01204,-12.3584,-0.639896,6.34235,18.1302,1.58143,-19.9106,26.1248,3.96946,3.32537,5.24012,2.74358,4.57961,1.11319e-14,2.62396e-14,48.2131,22.4097,-57.7525,84.488,8.65289,7.15097,-34.9215,7.12502,32.4194,-62.0424,1.11319e-14,2.62396e-14,27.5135,4.38345,63.9344,86.8398,-20.2097,8.0005,10.96,7.12502,33.2275,37.9119,-1.76347,-14.4466,13.7299,81.3869,14.8032,-25.231,37.5469,0.279452,9.22428,2.16346,75.5087,23.4703,-15.0599,-20.6311
12.9504,26.5522,31.7593,120.709,7.91882,-181.896,13.4978,-2.59181,1.50666,-4.84964,-1.98547,6.05397,-12.8434,-0.530989,6.3326,17.8511,1.52269,-19.9172,26.3123,3.86141,3.72555,5.3279,2.68431,4.73047,-1.11319e-13,1.60618e-13,49.9959,21.1707,-57.0069,83.8835,8.00167,6.96643,-34.8339,7.12502,32.2437,-61.9906,-1.11319e-13,1.60618e-13,29.4145,4.80686,63.6695,86.2536,-21.0124,6.9297,10.8713,7.12502,32.2088,38.0351,-0.275297,-13.8931,13.7622,79.0854,17.2771,-25.2849,34.6755,1.0378,9.41002,2.11376,73.7045,23.4168,-16.4025,-23.2336
12.9279,26.3357,31.5381,121.729,7.57563,-181.915,13.4552,-2.52501,1.25078,-5.25,-1.93757,5.96222,-13.2801,-0.476719,6.39293,18.0455,1.46531,-19.8675,25.8486,3.61049,3.84736,5.16108,2.54704,4.74012,7.31528e-14,-8.42847e-14,51.8877,19.9002,-56.1136,83.1842,7.26677,6.37147,-34.4715,7.12502,31.6772,-61.7417,7.31528e-14,-8.42847e-14,31.5602,5.39678,63.4668,85.3172,-21.8221,6.23181,10.5642,7.12502,31.5442,37.8605,0.973688,-13.5517,13.2302,76.7808,18.7118,-25.387,33.4649,1.47414,9.45731,1.38718,71.9254,23.7995,-15.95,-22.5451
12.9008,26.1562,31.3183,123.598,6.99829,-181.566,12.5062,-2.65277,1.31622,-5.85357,-2.09726,5.84936,-13.3924,-0.546056,6.24114,18.4878,1.38104,-19.7627,25.0019,3.26778,3.70299,4.85614,2.35672,4.63308,-4.77083e-15,4.85035e-14,53.925,18.4998,-54.9456,82.4788,6.46494,4.98463,-34.0179,7.12502,30.3553,-61.5403,-4.77083e-15,4.85035e-14,33.9586,6.22818,63.5158,84.1316,-22.4695,5.74119,9.7682,7.12502,31.0767,37.155,1.51482,-13.6189,12.8612,74.4118,18.2139,-26.4171,35.5128,0.960563,9.30244,0.38832,70.0834,24.277,-15.7126,-22.3801
12.8902,25.9277,31.1033,124.332,7.15094,-181.825,12.7135,-2.44595,1.0796,-6.05681,-1.84034,5.85601,-13.7758,-0.389704,6.3559,18.6239,1.33946,-19.637,24.4184,3.06944,3.64472,4.66076,2.23899,4.56778,-9.54166e-15,2.3059e-14,55.9792,16.9839,-53.7088,81.8282,5.94375,3.28973,-33.765,7.12502,28.7374,-61.5736,-9.54166e-15,2.3059e-14,36.7032,7.13417,63.8238,82.6732,-22.542,5.11001,8.92927,7.12502,30.4749,36.4295,2.91874,-12.6759,12.8256,72.0525,17.6255,-27.4087,36.9362,1.92413,9.58548,0.115086,68.161,24.7322,-16.61,-23.9516
12.8768,25.6866,30.881,125.314,7.16837,-181.816,12.6587,-2.33719,0.974641,-6.26192,-1.70346,5.82592,-13.9953,-0.307011,6.36143,18.4501,1.31486,-19.4985,24.0605,2.93979,3.79294,4.56359,2.15191,4.58248,-3.18055e-14,6.75868e-14,58.0283,15.3167,-52.5092,81.1599,5.94379,1.41978,-33.5829,7.12502,26.9496,-61.6811,-3.18055e-14,6.75868e-14,39.8294,7.94899,63.932,81.0253,-22.0562,4.26044,8.33593,7.12502,29.6643,35.9835,4.21226,-12.096,12.8012,69.6549,16.7558,-27.9697,38.8957,2.46969,9.57688,-0.235937,66.3465,25.1125,-17.1795,-23.9412
12.8603,25.4374,30.6672,126.374,7.52054,-181.404,12.712,-2.32106,1.4462,-6.44915,-1.53741,5.89992,-14.2837,-0.245682,6.15294,18.2515,1.21283,-19.3025,23.7494,2.73474,3.88966,4.49503,2.02947,4.57575,4.13472e-14,-4.29375e-14,60.1101,13.4835,-51.2288,80.4127,6.08643,-0.715491,-33.2255,7.12502,24.9049,-61.623,4.13472e-14,-4.29375e-14,43.1312,8.74049,63.9048,79.4391,-21.8369,3.92271,8.10359,7.12502,29.3419,35.808,5.3917,-11.5101,13.3664,67.3472,12.6505,-29.6438,44.1257,2.84929,9.35458,-0.0863998,64.571,25.6427,-17.7398,-23.4365
12.8419,25.1579,30.4475,127.753,8.15421,-180.676,12.5617,-2.37548,2.32375,-6.6522,-1.34772,6.10748,-14.4786,-0.195369,5.84537,17.888,1.0879,-19.0412,23.5039,2.55417,3.90043,4.46999,1.91654,4.53447,-4.77083e-15,5.40694e-14,62.2454,11.4711,-49.9667,79.5475,6.3387,-3.07011,-32.694,7.12502,22.6467,-61.3853,-4.77083e-15,5.40694e-14,46.425,9.53156,63.8813,78.285,-22.0636,4.24843,8.68827,7.12502,29.6529,36.3378,6.12853,-11.2273,14.6211,64.8918,11.58,-30.2261,43.007,2.70287,9.28527,0.587764,62.9933,25.855,-18.6529,-23.9027
12.8313,24.8967,30.2394,129.214,8.20622,-180.486,12.2496,-2.31757,2.35101,-6.83486,-1.25479,6.10765,-14.5101,-0.146503,5.80015,17.7207,1.01474,-18.7221,22.8087,2.33699,3.85509,4.27559,1.77653,4.44428,1.90833e-14,-4.85035e-14,64.3928,9.28762,-48.9393,78.5725,6.86224,-5.31039,-32.2037,7.12502,20.4952,-61.1419,1.90833e-14,-4.85035e-14,49.5864,10.3074,63.6045,77.7336,-22.2567,4.87457,9.72197,7.12502,30.2503,37.2636,6.62639,-10.5617,15.0663,62.6534,12.1334,-29.1988,38.9174,2.52593,9.42852,0.310591,61.308,26.3222,-18.428,-23.5948
12.8228,24.6316,30.032,130.606,7.98729,-180.617,11.9723,-2.20515,1.92671,-6.97649,-1.21731,5.99132,-14.495,-0.1002,5.8937,17.7849,1.01117,-18.4864,21.7784,2.09764,3.89022,3.94378,1.61741,4.38015,1.43125e-14,-5.48646e-14,66.5415,7.02148,-47.9434,77.4786,7.24959,-7.27009,-31.6626,7.12502,18.611,-60.7923,1.43125e-14,-5.48646e-14,52.6577,11.2174,63.2883,77.5173,-22.7665,6.3254,10.1553,7.12502,31.6333,37.4341,7.15513,-9.8718,14.9798,60.3957,8.45124,-29.9607,42.2234,2.44543,9.48997,-0.528818,59.6618,27.0338,-17.1104,-21.5095
12.8118,24.3353,29.8233,132.024,7.85647,-180.687,11.6984,-2.1146,1.60219,-7.05541,-1.18464,5.91113,-14.4102,-0.0642327,5.96855,17.3504,1.04179,-18.4111,21.2085,1.9848,4.22315,3.80887,1.5102,4.46045,2.8625e-14,1.59028e-14,68.719,4.64902,-47.0938,76.3317,7.6039,-8.36967,-31.2636,7.12502,17.5531,-60.4912,2.8625e-14,1.59028e-14,55.7499,12.2842,63.0657,77.4723,-23.5473,8.98818,10.4844,7.12502,34.166,37.2311,7.57021,-9.36392,14.9887,58.1357,7.47254,-30.0435,44.5042,2.21241,9.45947,-1.30836,58.1012,27.3872,-16.3558,-20.0455
12.7964,24.0199,29.6215,133.429,7.93207,-180.563,11.6357,-2.07239,1.59522,-7.11835,-1.12108,5.91677,-14.4519,-0.0291037,5.96447,16.4813,1.03156,-18.2956,21.0789,1.97119,4.47613,3.86848,1.455,4.52674,-2.06736e-14,-1.98785e-14,70.8449,2.28494,-46.6682,75.2669,7.93934,-8.40408,-31.1139,7.12502,17.52,-60.3444,-2.06736e-14,-1.98785e-14,58.6527,13.4071,62.7265,77.7523,-23.9159,12.4159,11.1999,7.12502,37.414,37.1562,7.87023,-8.85108,15.3678,55.8565,9.34168,-29.3617,43.918,1.8591,9.54559,-1.70927,56.6584,27.4994,-16.5472,-19.8947
12.7782,23.6923,29.422,134.681,8.33139,-180.307,11.8485,-2.0283,1.89832,-7.10888,-0.966277,6.0148,-14.5978,0.0302455,5.87851,15.8122,0.980336,-17.8543,20.6073,1.92824,4.26205,3.80743,1.39685,4.37481,1.74931e-14,-7.95139e-15,72.903,-0.00820848,-46.4133,74.4127,7.96525,-7.7966,-31.3167,7.12502,18.1045,-60.4941,1.74931e-14,-7.95139e-15,61.3583,14.5787,62.4253,78.3525,-24.1445,15.2614,11.455,7.12502,40.0977,36.6516,8.22202,-8.12176,16.1659,53.5614,12.4085,-28.086,40.6023,1.71773,9.70124,-1.66461,55.3339,27.2396,-17.1159,-20.686
12.7626,23.3477,29.2218,135.758,8.56399,-180.514,12.0706,-1.85026,1.67702,-6.96931,-0.801701,5.95636,-14.5797,0.110866,5.90353,15.4432,0.917397,-17.2192,19.5852,1.73906,4.08154,3.54011,1.26696,4.18493,-1.11319e-14,-1.43125e-14,74.7996,-2.32122,-46.4224,73.8805,8.22463,-7.0812,-31.558,7.12502,18.7927,-60.6703,-1.11319e-14,-1.43125e-14,64.0161,15.693,62.1341,79.1266,-24.4712,15.4727,11.1106,7.12502,40.2964,36.2466,8.6309,-6.92973,16.5586,51.3852,14.1317,-27.1436,38.7922,1.78063,9.68792,-2.2618,54.0043,26.5295,-17.3248,-22.2431
12.7467,22.997,29.0294,136.853,8.57144,-180.856,12.292,-1.67824,1.22395,-6.86371,-0.713202,5.80164,-14.5906,0.168105,5.97221,13.6076,1.46604,-17.8428,20.6637,2.55917,5.52947,4.00757,1.62932,4.79383,5.40694e-14,-1.09729e-13,76.4404,-4.53315,-46.6817,73.6129,8.88396,-7.67043,-31.1113,7.12502,18.2259,-60.2774,5.40694e-14,-1.09729e-13,66.5134,16.749,61.7412,79.918,-24.6989,13.1867,10.489,7.12502,38.1421,36.2494,8.91216,-5.48886,16.7956,49.3918,14.8033,-26.5481,38.6075,1.68136,9.68285,-3.18256,52.6479,25.8803,-17.7174,-23.3249
12.729,22.6495,28.843,138.22,8.77386,-180.952,12.3455,-1.56082,1.0973,-6.86677,-0.597966,5.73385,-14.6366,0.225446,5.94318,13.8924,1.30071,-16.9879,19.0789,2.15724,4.93693,3.51358,1.40378,4.40911,1.43125e-14,-7.15625e-14,77.92,-6.6264,-46.9923,73.6625,9.92303,-9.49366,-30.6525,7.12502,16.4712,-59.9733,1.43125e-14,-7.15625e-14,68.8298,17.7922,61.3314,80.6058,-24.5277,8.79526,9.74646,7.12502,33.9828,36.534,8.81561,-3.99037,17.4203,47.5745,15.6033,-25.7367,37.3148,1.26956,10.1947,-3.53437,51.2789,26.0991,-16.7464,-20.6405
12.7118,22.2872,28.6567,139.655,9.18988,-181.033,12.298,-1.3896,1.10438,-6.85209,-0.382952,5.68944,-14.6096,0.316796,5.83291,13.5915,1.21866,-16.437,18.1218,1.95172,4.7604,3.27089,1.2701,4.23839,1.59028e-15,-4.13472e-14,79.2778,-8.65721,-47.424,74.0654,11.5401,-11.7369,-30.6304,7.12502,14.3105,-60.1172,1.59028e-15,-4.13472e-14,70.9713,18.7557,60.9381,81.2981,-23.7851,2.3934,9.04287,7.12502,27.8808,36.9936,8.568,-2.30749,18.1964,45.9202,15.5001,-25.4427,36.896,0.733989,9.79669,-4.22191,49.9827,26.0573,-15.5683,-19.847
12.6949,21.9226,28.4734,141.172,9.67018,-181.117,12.1629,-1.19247,1.19075,-6.88351,-0.112953,5.64409,-14.5881,0.428904,5.66141,13.2985,1.26315,-16.1565,17.1795,1.84715,4.98795,3.01402,1.18195,4.24105,-2.22639e-14,1.01778e-13,80.4235,-10.5436,-47.8709,74.6171,13.1612,-14.6525,-31.0024,7.12502,11.4999,-60.667,-2.22639e-14,1.01778e-13,73.0094,19.5428,60.7655,81.9291,-22.66,-4.78088,7.57947,7.12502,21.0039,36.4621,8.20731,-0.476179,19.0058,44.3997,14.0947,-25.8196,38.3362,0.0965847,9.2046,-4.97414,48.7811,26.005,-14.8285,-20.4429
12.6684,21.5579,28.2892,142.791,10.3363,-180.934,12.0109,-1.04104,1.74673,-6.9831,0.211731,5.63579,-14.6431,0.533027,5.25283,13.3104,1.35957,-15.8953,15.9636,1.75358,5.24135,2.63005,1.102,4.24661,1.59028e-14,6.36111e-15,81.432,-12.2651,-48.3919,75.2008,14.4112,-17.9064,-31.9569,7.12502,8.36063,-61.7715,1.59028e-14,6.36111e-15,74.9612,20.2071,60.5726,82.4458,-21.0216,-12.0063,5.33388,7.12502,14.0509,34.8389,7.7243,1.08792,19.9274,43.021,13.5251,-25.3753,39.489,-0.620951,9.0934,-5.13906,47.729,25.9878,-14.4663,-21.0256
12.657,21.1822,28.1111,144.193,10.8859,-180.936,11.962,-0.791293,1.70051,-7.012,0.545988,5.65848,-14.676,0.696126,5.22378,15.0799,0.749497,-14.5067,12.337,0.516063,3.84899,1.39168,0.469275,3.53325,-3.18055e-14,-4.77083e-14,82.3719,-13.8681,-48.9411,75.949,15.0964,-21.3966,-33.0335,7.12502,4.99139,-62.9547,-3.18055e-14,-4.77083e-14,76.7432,20.7873,60.5378,83.1546,-18.9167,-18.9015,3.06056,7.12502,7.40025,32.9111,7.30745,2.6603,20.6658,41.874,15.6137,-23.2841,37.1043,-1.21614,8.0842,-5.82335,46.7883,25.6235,-13.5133,-21.4241
12.6419,20.7984,27.9388,145.554,11.4341,-180.74,12.4645,-0.628486,1.89748,-7.31837,0.886411,5.68659,-15.3957,0.863092,5.09161,14.3994,0.593143,-14.5782,13.0548,0.417459,4.17912,1.71163,0.409718,3.66502,-3.97569e-14,4.45278e-14,82.8607,-14.9549,-49.6839,76.9827,14.8562,-24.9049,-33.2986,7.12502,1.60346,-63.2723,-3.97569e-14,4.45278e-14,78.0053,20.9657,60.862,84.1196,-16.707,-25.3423,-0.0236692,7.12502,1.18099,29.9528,6.88825,4.17447,21.5504,40.9486,17.3434,-21.2474,34.288,-1.86589,8.13684,-5.87786,45.9863,25.0654,-14.1934,-21.8436
12.6225,20.4009,27.7645,147.115,11.8363,-180.784,10.9697,-0.365206,2.03508,-6.6499,1.0805,5.64476,-13.6593,0.8848,4.84311,12.9069,0.0170886,-14.3583,13.1302,-0.20733,3.90338,2.00425,0.0487964,3.56144,-5.56597e-14,2.70347e-14,84.639,-16.8218,-51.0755,78.2005,14.0983,-27.8768,-32.8671,7.12502,-1.26688,-62.8431,-5.56597e-14,2.70347e-14,80.9212,22.2091,60.5092,84.7205,-12.7524,-32.3148,-2.02733,7.12502,-5.55265,27.8799,6.11947,5.50807,21.9003,40.2916,17.7174,-20.1419,34.6895,-2.85943,7.34889,-6.71614,45.3318,24.388,-13.8239,-22.7529
12.6055,19.9962,27.5971,148.631,11.9737,-181.204,10.0309,0.0923213,2.34142,-6.38908,1.49623,4.88773,-12.7561,0.959422,3.70815,12.3399,0.651157,-14.7382,12.3729,0.320241,6.3177,1.76649,0.268223,4.35802,2.3059e-14,2.54444e-14,85.3415,-18.9566,-52.5071,79.4626,13.2036,-29.9537,-33.0073,7.12502,-3.27279,-62.9619,2.3059e-14,2.54444e-14,83.2469,21.5343,61.4043,86.6775,-9.86867,-37.1686,-4.48992,7.12502,-10.2373,25.241,5.2248,6.5027,21.5988,39.8648,18.307,-18.7731,34.9128,-3.97142,6.87339,-7.92458,44.8156,24.1108,-13.0116,-21.6144
12.5899,19.5838,27.4423,149.997,12.2813,-181.261,9.87857,0.408496,2.55234,-6.37575,1.86647,4.49542,-12.639,1.07867,3.07745,11.2663,0.572849,-14.8466,13.4088,0.311213,7.36435,2.22031,0.277284,4.72778,-4.53229e-14,-2.3059e-14,85.7528,-20.3933,-53.6568,81.1024,11.951,-31.0844,-33.6694,7.12502,-4.36461,-63.6044,-4.53229e-14,-2.3059e-14,85.1948,21.6272,61.1549,87.6695,-6.21551,-41.4938,-5.77058,7.12502,-14.4075,23.7094,4.42297,7.32603,21.7343,39.7276,19.1249,-17.302,33.0026,-4.8897,6.4702,-8.54976,44.4296,24.0887,-12.1359,-19.6992
12.5722,19.1567,27.2934,151.227,12.7533,-181.024,10.0066,0.647552,3.09697,-6.35211,2.22593,4.21297,-12.6708,1.17585,2.38412,12.4041,-0.435579,-12.7034,10.6907,-1.08697,5.5824,1.36423,-0.426861,3.8066,5.56597e-15,4.92986e-14,85.6707,-20.6189,-56.3304,83.5881,11.359,-31.1164,-33.0133,7.12502,-4.39555,-62.9477,5.56597e-15,4.92986e-14,86.7741,21.5728,61.2377,89.022,-2.67465,-45.0518,-7.90017,7.12502,-17.8335,21.3021,3.686,8.05096,22.1826,39.8889,19.3215,-16.2515,30.2875,-5.58704,6.29582,-8.72996,44.1534,23.7161,-11.8631,-19.9479
12.5563,18.7125,27.149,152.265,13.1678,-181.028,10.1106,0.897633,3.51326,-6.19146,2.53536,3.81818,-12.5154,1.24721,1.65066,11.9558,-0.421903,-12.764,10.3609,-1.15394,6.59818,1.32843,-0.482825,4.12983,-7.95139e-15,-6.36111e-15,86.1241,-21.7264,-57.4007,85.205,9.19864,-31.4911,-33.8012,7.12502,-4.75733,-63.7278,-7.95139e-15,-6.36111e-15,87.9931,21.5339,61.3434,90.7692,0.839428,-48.0498,-10.6983,7.12502,-20.7162,18.216,3.16191,8.72268,22.3687,40.3735,18.1446,-15.7764,29.142,-6.21526,6.43096,-9.09092,44.1645,23.118,-12.1159,-21.1169
12.5415,18.2824,27.0184,153.452,13.6132,-181.066,9.91389,1.15369,3.97763,-6.00141,2.82418,3.3225,-12.1251,1.30523,0.794166,12.0693,-0.61936,-12.1142,9.03775,-1.49817,6.92505,0.93342,-0.678065,4.12371,-1.90833e-14,2.8625e-14,86.391,-22.7174,-58.6695,86.9232,7.25402,-31.6731,-34.5498,7.12502,-4.93309,-64.4724,-1.90833e-14,2.8625e-14,89.3266,21.5663,61.2543,92.3338,4.21077,-50.3946,-12.6361,7.12502,-22.9678,16.0157,2.71404,8.90448,22.4473,41.407,9.68329,-14.4592,21.4862,-7.12646,6.39817,-9.49116,44.4367,23.0983,-11.3164,-19.4302
12.5136,17.8534,26.9278,155.19,14.4078,-179.4,10.2516,1.1214,5.58497,-6.17459,3.16555,3.65271,-12.4869,1.36552,0.177412,12.7181,-0.719271,-12.0293,7.57898,-1.7879,7.32053,0.422536,-0.860465,4.23856,2.3059e-14,-3.18055e-14,86.2073,-23.0299,-59.5664,88.8151,5.73288,-31.5572,-34.9405,7.12502,-4.82121,-64.8657,2.3059e-14,-3.18055e-14,89.9781,21.6187,61.4994,93.5376,6.99768,-52.0938,-14.2721,7.12502,-24.5974,14.1675,2.23515,8.35363,24.3219,43.0649,0.0563234,-10.142,14.3245,-8.60168,6.21114,-7.9894,45.0688,23.4987,-10.4974,-17.644
12.479,17.4046,26.846,156.123,14.4386,-179.442,10.8821,1.22759,5.52331,-6.17353,3.30506,3.44751,-12.8558,1.40429,-0.0578084,13.1959,-0.794659,-11.9447,6.24583,-2.0071,7.7924,-0.0303577,-1.00811,4.38062,2.66371e-14,-3.4191e-14,85.8604,-23.2451,-60.5199,90.8422,4.78167,-31.5138,-35.1728,7.12502,-4.77926,-65.0989,2.66371e-14,-3.4191e-14,90.4022,21.4639,61.9078,94.6935,8.93585,-52.9898,-15.4918,7.12502,-25.456,12.8281,2.37129,7.91093,24.1991,45.3209,-10.974,-9.06388,11.2772,-9.83844,5.85881,-8.63358,46.4177,19.4153,-9.19524,-26.2509
12.4501,17.0364,26.7759,156.661,14.4282,-179.854,11.756,1.39343,5.07937,-5.9576,3.42272,3.16934,-13.1353,1.45284,-0.164318,12.603,-0.443031,-10.6007,2.87785,-1.50155,8.11186,-1.01627,-0.832561,4.24254,-3.89618e-14,-2.8625e-14,85.5228,-23.4173,-61.3708,92.8075,4.26973,-31.9907,-35.5602,7.12502,-5.23973,-65.4754,-3.89618e-14,-2.8625e-14,90.655,21.2739,62.383,95.9738,10.2138,-53.415,-15.7977,7.12502,-25.8632,12.4636,1.51299,8.31344,24.0097,47.8806,-18.5036,-10.7787,11.3423,-10.0759,6.448,-9.46704,48.6012,9.00491,-8.37318,-26.8501
12.4136,16.6989,26.7381,157.255,14.5522,-179.666,12.8264,1.44161,5.10741,-5.83372,3.54374,3.13191,-13.6425,1.48114,-0.281634,13.1731,-0.927236,-10.6439,3.46457,-2.16091,7.60681,-0.865188,-1.13686,4.12192,-1.59028e-14,1.51076e-14,84.6048,-23.2723,-61.9154,94.9169,4.08249,-32.4898,-35.8803,7.12502,-5.72164,-65.7831,-1.59028e-14,1.51076e-14,90.2701,20.9759,62.7317,97.3042,11.1805,-53.4108,-15.3923,7.12502,-25.8592,12.8696,-0.0983192,9.34221,24.6715,51.1541,-21.9537,-13.5302,7.60248,-9.02664,6.68819,-9.07323,51.7064,-5.74069,-7.31209,-8.43705
12.3823,16.4205,26.6747,157.763,14.8771,-178.722,14.2085,1.35617,5.87117,-5.72196,3.71846,3.32383,-14.3391,1.48436,-0.583297,14.9313,-0.906698,-10.5389,1.5931,-2.27596,7.85952,-1.68412,-1.23704,4.22217,5.1684e-15,-7.15625e-15,83.0223,-23,-62.1261,97.3637,3.79482,-32.7361,-35.9625,7.12502,-5.95948,-65.8587,5.1684e-15,-7.15625e-15,89.3155,20.394,63.0418,98.8103,12.1734,-52.5691,-14.6589,7.12502,-25.0529,13.718,-1.56318,10.891,26.4002,54.6459,-22.9872,-16.8351,3.4811,-10.8751,6.54582,-8.07169,55.4908,-13.8912,-7.7095,5.30638
12.3557,16.2024,26.6258,157.804,15.1379,-177.844,15.9391,1.24308,6.55891,-5.26766,3.858,3.52563,-14.8451,1.4771,-0.834635,15.5185,-1.08489,-10.2514,0.647505,-2.53211,7.73679,-2.03946,-1.37911,4.16695,5.48646e-14,4.29375e-14,80.7802,-22.3718,-62.0515,100.505,3.67526,-33.572,-36.189,7.12502,-6.76644,-66.0609,5.48646e-14,4.29375e-14,88.1597,19.8473,63.5042,100.636,13.2634,-51.4766,-14.7405,7.12502,-24.0057,13.7784,-3.90533,11.4262,27.981,59.3915,-23.634,-19.164,1.47044,-12.338,6.70747,-7.11601,59.2073,-16.8108,-8.00327,18.3361
12.3357,15.97,26.5885,157.647,15.5766,-176.619,17.2886,1.2215,7.78515,-4.02268,4.1129,3.53775,-14.0988,1.51631,-1.62247,12.9475,-1.49936,-9.38251,1.29313,-2.79167,7.93142,-1.44187,-1.49895,4.05402,2.98177e-14,-1.82882e-14,79.0623,-23.0776,-62.1574,103.673,3.38522,-34.8023,-36.2992,7.12502,-7.95395,-66.1295,2.98177e-14,-1.82882e-14,87.6397,19.3194,64.099,103.071,14.3605,-50.5426,-15.7956,7.12502,-23.1098,12.8384,-6.28405,11.4717,29.8697,64.6911,-23.7066,-20.6981,0.960942,-13.704,7.15413,-5.62857,62.9071,-17.5398,-7.29346,19.0174
12.3388,15.7543,26.5624,157.458,14.2781,-179.355,17.3166,1.52911,4.26141,-3.5259,3.4958,2.8615,-13.6922,1.4653,-0.223938,13.362,-1.70076,-8.77279,-0.163242,-3.02603,7.69183,-1.93443,-1.63935,3.91266,1.82882e-14,-6.36111e-15,75.4627,-22.3952,-61.5194,107.55,3.07797,-35.6812,-35.7828,7.12502,-8.80218,-65.5792,1.82882e-14,-6.36111e-15,85.0328,19.3995,63.9592,105.519,15.6606,-49.6237,-16.8945,7.12502,-22.2279,11.8473,-10.2323,11.3055,26.6654,70.7412,-23.4679,-21.0089,1.50711,-16.1306,6.67825,-9.49674,66.1254,-18.7991,-5.75781,14.9
12.3437,15.4576,26.5278,156.86,12.4334,-181.763,17.3883,1.67126,1.06547,-2.59865,2.76498,2.03672,-12.768,1.32332,0.877405,11.7536,-1.22574,-9.89648,0.815461,-2.38722,9.64662,-1.41962,-1.34327,4.6411,1.15295e-14,-1.35174e-14,71.6146,-22.3514,-60.7191,111.366,3.01821,-36.479,-35.4649,7.12502,-9.57198,-65.2275,1.15295e-14,-1.35174e-14,82.4688,19.4099,63.8281,108.067,16.8315,-48.932,-17.3967,7.12502,-21.5637,11.4228,-13.9289,10.5996,23.6518,76.7939,-21.9081,-21.7933,-0.132711,-18.5267,6.91443,-12.7727,69.5683,-18.772,-4.96448,7.8662
12.3507,15.1782,26.4856,155.602,10.8359,-181.76,18.1925,1.38382,0.404965,-1.08584,2.22105,1.76616,-11.5154,1.12213,1.09221,11.7704,-1.62816,-9.39381,-1.30925,-2.83526,9.8094,-2.01597,-1.61363,4.6496,-1.78906e-15,-2.70347e-14,67.3599,-22.6715,-59.5749,114.991,3.45944,-37.5205,-36.1498,7.12502,-10.5767,-65.8636,-1.78906e-15,-2.70347e-14,79.8322,19.061,63.8397,110.501,16.983,-48.6716,-17.3777,7.12502,-21.3136,11.4703,-16.0089,9.12018,23.5633,81.9601,-18.4664,-23.8238,-4.89651,-19.6706,6.65849,-13.2098,72.7858,-18.2517,-4.48043,-2.32252
12.3507,14.9355,26.4358,153.934,9.36852,-181.141,19.1185,0.988844,0.564611,0.743384,1.8293,1.61894,-9.97251,0.982313,0.93107,11.5615,-2.02633,-9.19109,-3.05272,-3.2516,10.3383,-2.45755,-1.86179,4.81961,2.44505e-14,-1.19271e-15,62.4733,-22.8228,-58.0728,118.347,4.74221,-38.4168,-36.7742,7.12502,-11.4413,-66.4421,2.44505e-14,-1.19271e-15,77.0059,18.415,63.974,112.585,15.9202,-49.1089,-17.1892,7.12502,-21.7336,11.6107,-17.1417,7.16121,24.0542,86.2178,-15.3704,-25.0193,-4.32633,-20.1261,6.39295,-12.8392,75.7665,-18.2058,-2.85806,-16.2598
12.3645,14.7687,26.3811,151.849,7.75399,-181.321,19.3943,0.74286,0.260638,3.12309,1.61172,0.995859,-7.49724,0.995604,0.487327,11.1204,-2.4744,-8.84162,-4.72523,-3.62531,11.1986,-2.83902,-2.08913,5.06661,1.31198e-14,-3.97569e-16,57.3938,-23.057,-57.0707,121.21,7.24253,-39.0037,-36.4387,7.12502,-12.0073,-66.0743,1.31198e-14,-3.97569e-16,74.7757,17.3176,64.1729,113.883,14.1426,-50.4493,-17.0022,7.12502,-23.0203,11.6431,-17.2541,4.84092,23.415,89.3533,-13.7868,-25.5375,1.04507,-19.6586,6.39631,-13.1591,78.1017,-17.3411,-3.29795,-21.6735
12.3892,14.6008,26.3153,149.871,6.28879,-181.683,21.4192,0.774046,-1.44396,3.80034,1.45169,1.07495,-7.87596,1.03131,1.55245,11.8958,-2.63108,-8.53554,-5.07333,-3.83595,10.944,-3.05796,-2.20963,4.97147,-6.75868e-15,-1.82882e-14,50.5307,-20.8292,-55.3407,123.304,10.3041,-39.8618,-35.6872,7.12502,-12.8345,-65.2726,-6.75868e-15,-1.82882e-14,69.5778,15.6776,64.1794,114.251,12.2664,-52.0768,-16.8147,7.12502,-24.5811,11.6272,-17.0958,2.3126,22.4507,91.7831,-13.5911,-26.4934,6.87353,-19.3712,6.73011,-13.3858,80.3163,-16.6314,-5.09635,-24.3554
12.3932,14.4539,26.2399,148.679,6.21361,-180.176,23.1568,0.637175,-0.669253,3.92552,1.61222,1.76217,-8.66744,1.14138,1.78463,12.4417,-2.75695,-8.61994,-4.32213,-4.07986,10.8884,-2.89626,-2.32713,4.97721,-1.53064e-14,-1.74931e-14,43.3246,-17.8033,-53.7679,124.382,13.5531,-40.099,-36.7843,7.12502,-13.0632,-66.3552,-1.53064e-14,-1.74931e-14,63.8275,13.5272,64.7072,113.708,10.2157,-53.1303,-16.2319,7.12502,-25.5905,12.0688,-16.9094,0.145745,24.0125,93.2949,-14.0194,-28.2719,14.9515,-19.3807,7.46223,-10.8221,82.5099,-16.1429,-8.36686,-23.6487
12.3735,14.3395,26.1599,147.813,6.9445,-177.689,24.3023,0.190129,1.82822,4.22377,1.90016,2.58086,-8.9138,1.27981,1.14323,12.374,-2.79317,-9.00961,-3.07252,-4.20201,11.1797,-2.48622,-2.36963,5.11096,-1.5704e-14,1.47101e-14,36.6743,-14.5817,-52.9271,124.292,16.334,-41.421,-35.9394,7.12502,-14.3373,-65.4243,-1.5704e-14,1.47101e-14,58.5269,11.5388,65.7505,112.279,8.2358,-53.3896,-15.4024,7.12502,-25.8389,12.8624,-16.2954,-1.90107,26.8274,94.031,-14.7501,-29.9379,21.3198,-19.3745,8.4454,-6.78868,84.5501,-15.3599,-12.08,-19.6946
12.3709,14.2699,26.0782,147.315,6.74574,-177.292,24.3416,0.245407,1.98587,4.68889,2.12003,2.79045,-8.42415,1.4315,1.21292,12.1728,-3.0343,-8.77758,-2.83486,-4.52018,10.7552,-2.36324,-2.50922,4.94296,-2.13694e-14,9.54166e-15,30.6748,-11.5942,-53.0463,123.166,18.3328,-42.2362,-34.878,7.12502,-15.1227,-64.3055,-2.13694e-14,9.54166e-15,53.6283,9.69485,67.0924,110.313,7.1565,-52.4653,-14.0566,7.12502,-24.9534,14.3341,-16.0275,-3.96382,26.8836,94.6215,-16.333,-30.8665,22.4443,-19.3952,9.5317,-5.46499,85.9367,-15.0181,-14.7228,-18.9628
12.3612,14.2127,25.985,147.192,6.78774,-176.286,24.0862,0.16223,2.99804,4.97779,2.35932,3.15823,-7.95811,1.56764,0.968578,12.0583,-3.21626,-8.85407,-2.64129,-4.77931,10.7065,-2.25987,-2.63076,4.94315,-1.98785e-16,-2.50469e-14,24.9276,-9.13268,-54.0554,121.537,18.9732,-41.462,-34.0088,7.12502,-14.3769,-63.4909,-1.98785e-16,-2.50469e-14,48.6093,7.91139,68.7494,108.137,7.91413,-49.8158,-10.8967,7.12502,-22.4123,17.823,-15.6215,-6.14985,27.5222,94.799,-18.3221,-32.2593,21.3834,-19.4261,10.4524,-3.42554,87.0739,-14.9778,-17.3284,-17.1968
12.3516,14.1857,25.89,147.353,6.34027,-176.481,23.5146,0.344918,2.82628,5.09658,2.52302,3.19208,-7.5393,1.65644,1.06818,12.1918,-3.22988,-9.18972,-2.75877,-4.84646,10.8422,-2.29788,-2.67116,5.0488,-1.82882e-14,-2.22639e-14,19.5717,-6.81432,-55.0403,118.858,17.3633,-39.7653,-33.0076,7.12502,-12.7415,-62.5988,-1.82882e-14,-2.22639e-14,43.5043,6.74492,70.5328,105.967,10.8805,-46.2478,-6.90443,7.12502,-18.984,22.1891,-15.3982,-8.02049,26.6047,94.9313,-21.0831,-33.4082,21.1148,-19.615,11.2873,-3.1726,87.7606,-15.9483,-19.0734,-15.6613
12.3409,14.1705,25.7895,147.444,6.25657,-176.482,23.1623,0.487706,3.01815,5.19963,2.76041,3.33976,-7.24479,1.77944,1.0602,12.1366,-2.92118,-9.52511,-3.0275,-4.92347,10.8631,-2.36085,-2.86493,5.1252,2.47487e-14,-1.11319e-14,14.5621,-4.75139,-56.5229,115.855,13.5505,-36.3867,-31.2686,7.12502,-9.48293,-61.0352,2.47487e-14,-1.11319e-14,38.1869,6.1631,72.239,104.029,15.01,-42.179,-3.11639,7.12502,-15.0676,26.3153,-14.7278,-9.34331,26.0852,94.8729,-24.047,-33.7927,21.7264,-19.45,12.1234,-2.51926,88.2734,-16.8783,-20.8579,-12.0942
12.3232,14.1677,25.6894,148.003,5.2984,-177.458,22.4891,0.800677,2.10615,4.98267,2.82991,3.17454,-7.16155,1.79035,1.39777,12.2271,-3.0068,-9.80853,-3.30974,-5.05532,10.6405,-2.44203,-2.90818,5.11448,1.03368e-14,6.75868e-15,9.67627,-3.49266,-58.4271,112.6,7.83502,-32.0768,-29.9887,7.12502,-5.32289,-59.9019,1.03368e-14,6.75868e-15,32.7186,5.64348,73.7418,102.28,19.4632,-40.4789,2.03018,7.12502,-13.4294,31.5773,-14.5359,-10.598,23.93,94.9086,-26.6125,-32.6799,23.9257,-19.8888,12.4459,-3.89799,88.5909,-17.7467,-21.8125,-10.6161
