JuanDHNZ/ProyectoFinalCD/preprocessing/sports_trials_csv/01_10.csv
root1,root2,root3,root4,root5,root6,lowerback1,lowerback2,lowerback3,upperback1,upperback2,upperback3,thorax1,thorax2,thorax3,lowerneck1,lowerneck2,lowerneck3,upperneck1,upperneck2,upperneck3,head1,head2,head3,rclavicle1,rclavicle2,rhumerus1,rhumerus2,rhumerus3,rradius1,rwrist1,rhand1,rhand2,rfingers1,rthumb1,rthumb2,lclavicle1,lclavicle2,lhumerus1,lhumerus2,lhumerus3,lradius1,lwrist1,lhand1,lhand2,lfingers1,lthumb1,lthumb2,rfemur1,rfemur2,rfemur3,rtibia1,rfoot1,rfoot2,rtoes1,lfemur1,lfemur2,lfemur3,ltibia1,lfoot1,lfoot2,ltoes1
11.7028,17.7281,12.6634,138.715,-85.2291,-138.453,2.60415,1.46517,2.51926,1.10472,1.98473,2.41942,-0.326024,0.975913,1.01229,-7.03334,0.321332,-4.21319,11.4157,0.753728,0.850098,4.5576,0.210519,0.992188,-8.82107e-15,-4.77083e-15,-26.7252,1.5468,-49.6607,10.9092,39.7667,-19.8338,-15.4733,7.12502,6.50031,-45.3535,-8.82107e-15,-4.77083e-15,-41.7547,-47.6872,76.1394,21.6496,-28.914,-10.5937,-13.6658,7.12502,15.4118,15.7397,-3.42162,3.93626,13.9395,26.45,-16.5853,-13.4855,-0.831323,-3.67666,4.14592,-11.3954,26.65,-18.2735,3.72427,-1.76803
11.7024,17.7288,12.6647,137.099,-85.1328,-136.846,2.60375,1.4706,2.76218,1.12777,1.99481,2.45176,-0.294749,0.980839,0.910074,-7.01642,0.360373,-4.19837,11.3366,0.812718,0.781023,4.52948,0.237524,0.971535,-7.20594e-15,1.70955e-14,-26.7106,-2.81076,-47.9263,10.963,45.1549,-19.9855,-15.6461,7.12502,6.35381,-45.5308,-7.20594e-15,1.70955e-14,-41.62,-47.9277,76.0779,21.5847,-29.2964,-10.9912,-13.5998,7.12502,15.029,15.8347,-3.33834,4.02037,14.1482,26.3295,-16.485,-13.6728,-0.403398,-3.67709,3.98749,-11.2175,26.6927,-18.3035,3.87599,-2.15703
11.7013,17.7284,12.6664,136.984,-85.1847,-136.748,2.60213,1.45358,2.77873,1.14313,1.97174,2.44373,-0.277328,0.969543,0.893538,-7.07285,0.357928,-4.22913,11.3485,0.81711,0.773097,4.54248,0.237911,0.974633,-2.78547e-14,-1.27222e-14,-26.7371,1.47076,-49.5698,11.2488,41.0767,-19.6377,-15.8303,7.12502,6.68959,-45.7046,-2.78547e-14,-1.27222e-14,-41.4711,-47.9013,75.8313,21.6845,-29.6806,-10.8889,-13.7966,7.12502,15.1275,15.6305,-3.26995,3.85423,14.088,26.2491,-16.4704,-13.5246,-0.725384,-3.62593,3.73227,-11.2751,26.6516,-18.2882,3.91901,-1.71135
11.699,17.7308,12.6688,137.38,-85.1753,-137.171,2.6021,1.44541,2.81711,1.15863,1.9609,2.43395,-0.259788,0.964384,0.862658,-6.89405,0.426539,-4.32012,11.1228,0.898326,0.891096,4.44007,0.284918,1.02877,1.71203e-14,1.19271e-15,-26.6364,1.0226,-49.3966,11.3068,41.8171,-19.1182,-15.1081,7.12502,7.19108,-44.9659,1.71203e-14,1.19271e-15,-41.0386,-47.3999,75.2415,21.7609,-29.9814,-10.6153,-14.0127,7.12502,15.391,15.3944,-3.16291,4.2136,14.1136,26.1575,-16.4551,-13.8011,-1.06878,-3.56118,3.76519,-11.3146,26.6073,-18.2141,3.88071,-1.36361
11.6979,17.7306,12.6689,138.124,-85.2006,-137.919,2.57284,1.45605,2.83664,1.17669,1.97427,2.37084,-0.221935,0.972139,0.787842,-6.76467,0.496751,-4.21169,10.9101,0.982557,0.829754,4.35184,0.331117,0.995448,-7.95139e-16,7.55382e-15,-26.8364,5.30761,-51.1712,11.7047,37.1525,-18.7845,-14.9971,7.12502,7.51314,-44.8436,-7.95139e-16,7.55382e-15,-40.336,-46.6075,74.3501,21.8075,-30.2136,-10.325,-14.116,7.12502,15.6707,15.2693,-3.16381,3.97268,13.9928,26.1327,-16.4529,-13.5468,-1.40843,-3.52665,3.60868,-11.42,26.5858,-18.1896,4.15888,-2.24974
11.6968,17.7332,12.6698,138.701,-85.307,-138.497,2.51272,1.43776,2.80503,1.2122,1.94605,2.30716,-0.150976,0.959408,0.743176,-6.80995,0.48548,-4.14793,10.5069,0.98364,0.668804,4.70642,0.322145,1.03216,-2.5842e-15,1.19271e-15,-26.5434,1.00436,-49.651,11.471,41.4972,-18.5039,-14.5579,7.12502,7.78395,-44.3946,-2.5842e-15,1.19271e-15,-39.6004,-45.7264,73.4357,21.8584,-30.2968,-9.8549,-14.3442,7.12502,16.1234,15.0052,-3.12666,4.24768,13.9239,26.1036,-16.5865,-13.7749,-1.05979,-3.48193,3.18984,-11.5938,26.5376,-18.2295,4.51203,-2.89622
11.6956,17.7291,12.668,138.686,-85.2151,-138.418,2.39442,1.46408,2.89508,1.22845,1.97647,2.31753,-0.0650727,0.975528,0.706466,-6.80281,0.48901,-4.16731,10.8569,0.982486,0.71729,4.34295,0.327629,0.953586,-1.2275e-14,-2.46493e-14,-26.7694,5.8768,-51.6289,11.9918,35.5914,-17.7085,-16.14,7.12502,8.55167,-45.9468,-1.2275e-14,-2.46493e-14,-38.8267,-44.7129,72.4914,21.9612,-30.1868,-9.88319,-14.3439,7.12502,16.0961,15.0076,-3.25771,3.9253,13.9299,26.1421,-16.5978,-13.4032,-0.319635,-3.52669,3.26131,-11.5201,26.5146,-18.2444,4.52108,-2.3216
11.6941,17.7319,12.6653,139.284,-85.1385,-138.95,2.35049,1.52504,2.87786,1.19013,2.05703,2.33931,-0.080512,1.01542,0.737182,-6.88612,0.465101,-4.17522,11.0046,0.958215,0.684965,4.40296,0.310708,0.944598,1.03617e-14,1.19271e-14,-26.5929,2.07062,-50.2577,11.932,38.4634,-16.7272,-16.2363,7.12502,9.49852,-46.0022,1.03617e-14,1.19271e-14,-38.0524,-43.4629,71.5046,22.16,-29.8078,-10.5166,-14.1232,7.12502,15.4862,15.2766,-3.30696,4.59666,14.0655,26.1512,-16.6705,-13.9685,-0.231117,-3.58078,3.55656,-11.4825,26.487,-18.1898,4.47488,-2.21525
11.6952,17.7324,12.6652,139.69,-85.1743,-139.373,2.41533,1.55576,2.82804,1.17495,2.10075,2.34242,-0.133978,1.03663,0.764945,-6.91495,0.412518,-4.23148,11.0556,0.896494,0.670358,4.42491,0.276154,0.946074,1.54058e-15,0,-26.716,0.748269,-49.9058,12.1601,38.5403,-16.517,-15.2504,7.12502,9.70136,-45.007,1.54058e-15,0,-37.267,-42.0888,70.5244,22.4335,-28.9781,-10.3513,-14.2851,7.12502,15.6453,15.1023,-3.30463,4.58171,14.0057,26.1794,-16.7386,-13.8945,-0.929694,-3.59776,3.78479,-11.4994,26.5178,-18.198,4.13972,-1.65089
11.6957,17.7328,12.6659,138.155,-85.0872,-137.839,2.43074,1.56336,3.077,1.1988,2.11444,2.33694,-0.108524,1.04408,0.620287,-7.03534,0.350057,-4.19754,11.0592,0.824997,0.587478,4.44865,0.238002,0.911428,-5.69021e-15,4.37326e-15,-26.563,-2.13857,-49.1264,11.8392,39.6372,-16.9977,-14.4037,7.12502,9.23755,-44.1814,-5.69021e-15,4.37326e-15,-35.9403,-39.7681,68.9089,22.5197,-28.5942,-9.50671,-15.1875,7.12502,16.4586,14.1343,-3.2895,4.43547,14.15,26.1461,-16.7297,-13.7422,-0.773234,-3.59743,3.67599,-11.321,26.5395,-18.2745,3.96629,-0.417906
11.6946,17.7301,12.6661,136.968,-85.0038,-136.621,2.37885,1.56202,3.28072,1.21889,2.11259,2.32129,-0.0506709,1.04433,0.492777,-7.30031,0.300795,-4.01633,11.1977,0.77536,0.38333,4.53849,0.20714,0.817628,-1.64494e-14,-1.82882e-14,-26.6633,-0.856155,-49.9597,12.3558,35.5159,-17.2761,-15.4306,7.12502,8.96891,-45.22,-1.64494e-14,-1.82882e-14,-34.5451,-36.8478,67.1497,22.5986,-28.1625,-8.83584,-16.0885,7.12502,17.1045,13.1786,-3.30135,4.01546,14.246,26.0938,-16.4256,-13.6215,-1.20773,-3.63563,3.32271,-11.2253,26.6082,-18.2432,4.5122,-1.84465
11.6935,17.7294,12.6658,137.001,-84.9979,-136.64,2.35161,1.54114,3.26794,1.19014,2.08426,2.34601,-0.0667421,1.02967,0.526102,-7.25284,0.355217,-3.94666,11.2346,0.849332,0.27998,4.54104,0.239046,0.778779,-9.83984e-15,4.77083e-15,-26.4012,-0.749961,-50.2323,12.1718,32.3264,-17.6185,-16.3601,7.12502,8.63854,-46.1634,-9.83984e-15,4.77083e-15,-33.7596,-34.1456,65.93,22.9923,-27.0302,-8.62237,-16.3526,7.12502,17.3099,12.8966,-3.26383,4.02015,14.2662,25.9956,-16.2432,-13.7583,-1.75174,-3.69879,3.34193,-11.2246,26.6962,-18.2324,4.60366,-2.72828
11.6943,17.7295,12.6617,136.372,-84.8995,-136.04,2.42915,1.47331,3.25799,1.0909,2.00061,2.45512,-0.217424,0.984696,0.641304,-6.76711,0.522693,-3.98283,11.0638,1.05632,0.240061,4.40297,0.338442,0.781703,-1.04362e-15,-9.54166e-15,-26.6584,1.05675,-51.1236,12.8674,27.2586,-17.4072,-17.1402,7.12502,8.84238,-46.9349,-1.04362e-15,-9.54166e-15,-33.2628,-30.8522,64.7413,23.4204,-25.9766,-8.80243,-16.7255,7.12502,17.1366,12.5388,-3.20613,4.11493,14.4137,25.8928,-16.2872,-13.7554,-2.22414,-3.7286,3.44244,-11.0637,26.7849,-18.4155,4.21742,-0.873162
11.6953,17.7311,12.6541,135.399,-84.7297,-135.084,2.48954,1.41701,3.26792,1.04666,1.92884,2.57604,-0.301301,0.946379,0.759078,-6.38613,0.641623,-3.9278,10.4023,1.20784,0.0858775,4.57676,0.41052,0.801444,-6.85807e-15,1.31198e-14,-26.8094,-4.35155,-49.4322,13.4378,29.388,-16.6261,-17.3033,7.12502,9.59614,-47.0648,-6.85807e-15,1.31198e-14,-32.9632,-27.8204,63.7531,24.1353,-24.0915,-9.3025,-16.4562,7.12502,16.6552,12.8493,-3.12052,4.51236,14.7374,25.7733,-16.0703,-14.3101,-3.23651,-3.74128,3.37482,-10.851,26.8632,-18.5143,4.28462,-0.488362
11.6967,17.7317,12.655,134.493,-84.6679,-134.192,2.55285,1.36729,3.32018,1.05778,1.86525,2.62085,-0.325725,0.913724,0.776049,-6.02094,0.692467,-3.80111,9.91472,1.25021,0.0350936,4.32439,0.444579,0.756943,-1.14301e-15,-1.94809e-14,-26.9221,-4.56049,-49.7744,14.257,25.11,-16.0235,-18.7281,7.12502,10.1774,-48.462,-1.14301e-15,-1.94809e-14,-32.8902,-25.6685,63.1663,25.2602,-21.1655,-10.1516,-15.2989,7.12502,15.8376,14.0733,-3.03127,4.53669,14.8829,25.6764,-15.796,-14.5842,-3.57758,-3.75094,3.35021,-10.7541,26.9316,-18.4624,4.53249,-1.89201
11.7006,17.7303,12.6607,133.63,-84.6658,-133.335,2.69358,1.29771,3.43882,1.01402,1.78465,2.59826,-0.445821,0.872054,0.684694,-5.8412,0.755144,-3.60505,9.71199,1.30955,0.00502397,4.2141,0.484288,0.711895,2.27111e-14,1.94809e-14,-27.1258,-5.99131,-49.7933,15.0686,21.6882,-15.766,-19.9806,7.12502,10.4259,-49.7021,2.27111e-14,1.94809e-14,-32.6486,-22.8868,62.3383,26.1808,-18.7843,-10.6852,-14.6086,7.12502,15.3237,14.8036,-2.98533,4.37899,14.8853,25.5905,-15.8688,-14.3344,-2.6692,-3.79019,3.55128,-10.6651,26.9884,-18.3798,4.48066,-2.87905
11.7041,17.7288,12.6629,133.7,-84.7258,-133.37,2.77726,1.22984,3.4454,0.986457,1.70084,2.5537,-0.520537,0.829657,0.635331,-5.92706,0.772516,-3.60082,9.64993,1.32773,0.104943,4.20812,0.500121,0.746172,-1.53313e-14,9.54166e-15,-27.2598,-7.61976,-49.852,15.7624,18.9042,-15.813,-20.5875,7.12502,10.3806,-50.3112,-1.53313e-14,9.54166e-15,-32.2384,-19.3811,61.3043,26.9267,-16.9848,-10.5294,-14.4291,7.12502,15.4738,14.9716,-2.99319,4.36809,14.8038,25.5137,-15.999,-14.1778,-1.83028,-3.8692,3.70225,-10.6945,27.0288,-18.3951,4.16192,-2.26093
11.7061,17.7283,12.6646,133.154,-84.6993,-132.802,2.82335,1.20682,3.50094,1.01428,1.67172,2.58428,-0.517411,0.814699,0.635948,-6.07095,0.684196,-3.79496,9.48946,1.21776,0.299282,4.18076,0.452229,0.840575,-3.04389e-14,-1.86858e-14,-27.3545,-7.69465,-50.399,16.602,14.8427,-15.7649,-21.331,7.12502,10.427,-51.0524,-3.04389e-14,-1.86858e-14,-31.9453,-16.2629,60.5806,27.8898,-14.7562,-10.2831,-14.1007,7.12502,15.711,15.2816,-3.01156,4.15884,14.8212,25.4878,-16.0734,-13.9901,-1.46471,-3.8936,3.73478,-10.6289,27.0309,-18.5081,3.76614,-0.87486
11.7074,17.7297,12.6626,132.802,-84.6777,-132.41,2.87201,1.26054,3.44332,1.01993,1.74386,2.61645,-0.540581,0.850168,0.69781,-6.22337,0.565405,-3.80372,9.41727,1.06196,0.359827,4.18913,0.380195,0.855099,-1.85118e-14,-2.94201e-14,-27.7073,-7.20513,-51.1169,17.7288,9.96969,-16.0073,-22.5458,7.12502,10.1931,-52.2789,-1.85118e-14,-2.94201e-14,-31.7973,-13.9544,60.2627,29.1463,-11.9247,-10.662,-13.3592,7.12502,15.3461,16.0514,-3.06456,3.93429,14.8288,25.4933,-16.2951,-13.6785,-0.491207,-3.92055,3.80874,-10.56,26.9892,-18.5435,3.66058,-0.529202
11.709,17.7296,12.6571,134.885,-84.9077,-134.446,2.90281,1.32732,3.01544,1.01572,1.82629,2.55461,-0.572933,0.892408,0.869505,-6.3432,0.489646,-3.7365,9.39305,0.957397,0.388081,4.20707,0.333564,0.847861,-1.10325e-14,-7.95139e-16,-28.1475,-7.50412,-51.6058,18.8251,5.88205,-16.1118,-23.1893,7.12502,10.0923,-52.9273,-1.10325e-14,-7.95139e-16,-31.7438,-11.9593,60.1611,30.5288,-8.84301,-11.299,-12.3756,7.12502,14.7324,17.0809,-3.09678,4.04991,14.5375,25.4923,-16.5036,-13.6867,0.400693,-3.9526,3.58323,-10.918,26.9148,-18.4669,4.15155,-1.63969
11.7123,17.7312,12.654,135.669,-85.0511,-135.175,2.93653,1.35875,2.82504,0.993593,1.86709,2.52072,-0.619402,0.913065,0.938428,-6.35122,0.42525,-3.77756,9.31126,0.865616,0.496475,4.18144,0.293999,0.886173,-6.16232e-15,-1.98785e-15,-28.384,-8.341,-51.8918,19.5721,2.49541,-15.8656,-23.2348,7.12502,10.3298,-52.9611,-6.16232e-15,-1.98785e-15,-31.7437,-9.67937,60.0324,31.8259,-5.98291,-11.7368,-11.4634,7.12502,14.3106,18.0234,-3.11343,4.35061,14.4439,25.4799,-16.6901,-13.9486,1.13379,-3.98979,3.2957,-11.1212,26.8241,-18.3581,4.60775,-2.92444
11.7155,17.7334,12.6532,135.26,-85.0999,-134.727,3.00596,1.33062,2.78609,1.00217,1.83116,2.53343,-0.65126,0.894693,0.972768,-6.54076,0.393083,-3.90829,9.29492,0.829478,0.667793,4.2147,0.280946,0.967026,1.35422e-14,2.78299e-15,-29.1686,-12.553,-51.0539,21.1562,2.67796,-15.1893,-23.275,7.12502,10.9821,-52.9678,1.35422e-14,2.78299e-15,-31.7939,-7.05804,59.8571,33.0174,-3.56416,-12.4372,-10.8869,7.12502,13.6356,18.6465,-3.101,4.62692,14.4775,25.4096,-16.8398,-14.1006,2.06318,-4.0225,3.20019,-11.1495,26.7541,-18.3452,4.87298,-4.03246
11.7201,17.7339,12.6535,136.018,-85.0906,-135.408,3.05844,1.28271,2.67799,1.02529,1.76558,2.54663,-0.660863,0.861802,1.04797,-6.84704,0.421136,-3.92272,9.32706,0.878953,0.728393,4.28673,0.30835,0.996128,2.80286e-14,1.27222e-14,-28.9049,-12.9656,-51.6646,21.8287,-0.728951,-15.332,-23.9693,7.12502,10.8445,-53.6693,2.80286e-14,1.27222e-14,-31.9992,-4.46703,59.761,34.2586,-1.07906,-13.5289,-10.3487,7.12502,12.5833,19.2523,-3.15113,4.54697,14.3869,25.2439,-16.6759,-13.8554,2.00714,-4.1001,3.02553,-11.2436,26.7479,-18.521,5.17382,-4.2336
11.7264,17.7406,12.6546,134.255,-84.856,-133.435,3.04511,1.29239,2.90693,0.940348,1.78644,2.63772,-0.736254,0.87016,1.01206,-6.84659,0.39743,-3.80218,9.21395,0.841047,0.66694,4.24677,0.293272,0.950598,-2.46245e-14,-2.46493e-14,-28.988,-12.9055,-52.3926,22.7326,-4.22816,-15.7031,-24.7654,7.12502,10.4866,-54.4838,-2.46245e-14,-2.46493e-14,-32.2886,-2.38725,59.9354,35.5454,1.72646,-14.8854,-9.72149,7.12502,11.2752,19.9555,-3.29052,5.09835,14.7777,25.0414,-16.5432,-14.2953,1.99193,-4.34372,2.87426,-10.9508,26.7671,-18.6966,5.13184,-3.48992
11.7313,17.7468,12.6601,131.357,-84.7309,-130.396,3.09548,1.3554,3.24427,0.868043,1.884,2.70965,-0.829598,0.916115,0.891981,-6.80051,0.267303,-3.83124,9.04674,0.665339,0.696676,4.18214,0.210187,0.954178,8.89561e-15,1.11319e-14,-29.1536,-12.6989,-53.094,23.4369,-7.55049,-16.8358,-24.8692,7.12502,9.39378,-54.6399,8.89561e-15,1.11319e-14,-32.3848,-0.859857,60.4183,36.7659,4.44108,-16.3788,-9.27864,7.12502,9.8347,20.4717,-3.30823,5.3324,15.1359,24.8732,-16.6053,-14.6364,2.45871,-4.54705,2.76757,-10.6546,26.7836,-18.7112,4.99896,-3.23725
11.7306,17.7467,12.6671,131.202,-84.9696,-130.243,3.1691,1.39402,3.21946,0.869647,1.94021,2.58084,-0.865151,0.945178,0.769662,-6.8626,0.156764,-3.81642,8.93844,0.504116,0.857285,4.1603,0.141592,0.996341,-7.40473e-15,-2.06736e-14,-29.8426,-13.7159,-53.5486,24.7872,-9.28667,-18.1613,-25.2515,7.12502,8.11462,-55.0757,-7.40473e-15,-2.06736e-14,-32.4759,0.393409,60.8428,38.0388,7.00202,-17.6701,-8.83396,7.12502,8.58872,20.9713,-3.15754,5.1896,14.9194,24.7245,-16.7217,-14.6323,2.71976,-4.59226,2.5935,-10.9044,26.8071,-18.6373,5.16539,-3.22256
11.7274,17.7453,12.6695,132.43,-85.2411,-131.464,3.17212,1.36159,2.99142,0.892163,1.89177,2.43107,-0.84675,0.92346,0.745166,-6.87735,0.142417,-3.44355,8.68512,0.457519,0.758903,4.07234,0.131502,0.892019,2.01269e-14,2.78299e-14,-30.169,-15.0275,-54.1144,25.684,-10.6423,-19.2771,-25.645,7.12502,7.03764,-55.508,2.01269e-14,2.78299e-14,-32.7435,1.84125,61.1304,39.3085,9.27621,-18.8864,-8.40952,7.12502,7.41476,21.4405,-3.09056,5.0892,14.5799,24.633,-16.7739,-14.5838,2.86863,-4.62727,2.53218,-11.2478,26.8233,-18.6122,5.21106,-3.29096
11.7262,17.745,12.6699,132.186,-85.2724,-131.19,3.1599,1.3268,2.96208,0.927388,1.8428,2.38728,-0.80368,0.899943,0.719239,-6.93178,0.133801,-2.99853,8.46869,0.425519,0.515331,4.00514,0.122871,0.728024,-1.70955e-14,-7.95139e-16,-30.346,-15.5666,-55.0666,26.6068,-12.8727,-19.9789,-25.5913,7.12502,6.36015,-55.4758,-1.70955e-14,-7.95139e-16,-32.9623,3.25302,61.5097,40.4193,11.2623,-20.2134,-8.00953,7.12502,6.13382,21.8817,-3.10008,5.137,14.5672,24.601,-16.7759,-14.6744,2.70456,-4.65976,2.66794,-11.2453,26.8119,-18.677,4.89167,-3.1021
11.7268,17.7483,12.6687,131.235,-85.179,-130.127,3.09032,1.32743,3.043,0.90591,1.84355,2.38924,-0.784234,0.900312,0.677514,-7.32867,0.0349422,-3.3375,8.82811,0.291964,1.05818,4.21892,0.0679853,0.9687,-7.95139e-16,-2.18663e-14,-30.6498,-16.1871,-55.964,27.5089,-14.4315,-19.9611,-25.73,7.12502,6.37736,-55.614,-7.95139e-16,-2.18663e-14,-33.1336,4.32387,61.9953,41.4075,13.1714,-21.2433,-7.42536,7.12502,5.13944,22.4923,-3.18805,5.30036,14.7385,24.571,-16.5699,-14.9006,1.92325,-4.76625,2.70864,-11.0924,26.7651,-18.6472,4.68059,-2.45346
11.7282,17.7537,12.6713,131.1,-85.1869,-129.843,3.01247,1.31969,3.06157,0.843165,1.83342,2.36664,-0.80385,0.895223,0.645358,-6.90157,0.095878,-2.84616,8.30078,0.347899,0.632234,3.94068,0.0977237,0.734537,-1.61016e-14,-2.98177e-14,-31.1307,-16.535,-56.86,28.6287,-15.5323,-20.5394,-26.158,7.12502,5.81909,-56.0581,-1.61016e-14,-2.98177e-14,-33.327,5.36673,62.5187,42.216,14.7841,-22.0706,-6.87389,7.12502,4.34059,23.0616,-3.33068,5.45369,14.7695,24.5723,-16.2955,-15.2374,0.988782,-4.94016,2.68456,-11.1049,26.7489,-18.5828,4.76141,-2.67409
11.7288,17.7565,12.6763,133.149,-85.4108,-131.903,3.07107,1.30327,2.8482,0.831002,1.81054,2.25334,-0.852524,0.884972,0.64734,-7.00398,0.0238472,-3.25165,8.36666,0.250361,1.14798,3.98952,0.0600984,0.975454,-7.7526e-15,-1.47101e-14,-31.2886,-17.3093,-57.6216,29.1583,-16.1445,-21.5026,-25.9878,7.12502,4.88909,-55.9113,-7.7526e-15,-1.47101e-14,-33.4985,6.29994,63.1292,42.8742,16.0381,-23.0749,-6.76732,7.12502,3.37075,23.1858,-3.2418,6.41835,14.5976,24.5501,-16.5468,-16.1999,1.52548,-4.95285,2.75654,-11.4463,26.7719,-18.6241,5.01002,-4.03735
11.7309,17.7528,12.676,133.906,-85.5601,-132.654,3.13684,1.26777,2.66388,0.810484,1.76255,2.20344,-0.914954,0.861441,0.698879,-7.25881,-0.041172,-3.55045,8.59958,0.164086,1.56665,4.12939,0.0256004,1.16916,-1.09083e-14,-9.54166e-15,-31.0408,-17.6417,-58.513,29.1354,-16.8926,-21.6667,-25.9779,7.12502,4.73062,-55.9051,-1.09083e-14,-9.54166e-15,-33.6617,7.1294,63.8126,43.4878,16.7934,-23.9935,-6.75816,7.12502,2.48361,23.2071,-3.3047,5.58648,14.2909,24.5391,-16.6324,-15.3485,2.17679,-5.01493,2.78063,-11.6021,26.8198,-18.6657,5.02431,-3.80219
11.7369,17.7534,12.6771,131.19,-85.2822,-129.808,3.20194,1.26401,3.00764,0.703136,1.77429,2.25743,-1.05257,0.863889,0.558917,-7.27771,-0.0950342,-3.49385,8.59209,0.0721751,1.71296,4.13374,-0.0105012,1.20323,1.59028e-15,-3.57812e-15,-30.3183,-15.9875,-60.1164,28.5239,-19.2041,-22.5167,-26.518,7.12502,3.90979,-56.4619,1.59028e-15,-3.57812e-15,-33.7792,7.71996,64.4958,43.9186,17.1561,-24.7992,-6.46918,7.12502,1.70547,23.5037,-3.46512,5.66042,14.6889,24.5095,-16.655,-15.312,2.5723,-5.20279,2.75598,-11.1963,26.8764,-18.6396,4.90995,-3.14325
11.7425,17.7536,12.6812,129.83,-85.0428,-128.391,3.34279,1.30057,3.29155,0.613343,1.84193,2.29068,-1.21486,0.89368,0.427275,-7.22719,-0.196475,-3.64815,8.50635,-0.0776572,2.02328,4.10075,-0.0739848,1.32642,7.0817e-15,-9.93923e-15,-31.2442,-17.3202,-60.746,29.838,-18.3377,-23.287,-27.2997,7.12502,3.16589,-57.256,7.0817e-15,-9.93923e-15,-33.8412,7.70368,65.3732,44.223,17.5604,-25.5857,-6.01412,7.12502,0.945886,23.9635,-3.50013,6.11581,15.0354,24.4424,-16.7669,-15.7012,2.59375,-5.34994,2.89882,-10.9091,27.0296,-18.6508,4.85482,-3.87674
11.7372,17.7513,12.6845,128.643,-85.2234,-127.225,3.399,1.27253,3.12192,0.59812,1.80225,2.39588,-1.27131,0.873448,0.629921,-7.28705,-0.298207,-4.13832,8.46703,-0.183112,2.30387,4.10877,-0.128242,1.50471,-3.85145e-15,-7.55382e-15,-31.9277,-18.7395,-61.0088,30.8637,-16.8731,-23.5516,-27.5441,7.12502,2.91042,-57.504,-3.85145e-15,-7.55382e-15,-33.9353,7.47929,66.5965,44.5086,17.8324,-26.3486,-5.60915,7.12502,0.209065,24.3705,-3.24884,6.82797,15.075,24.2408,-16.9855,-16.453,3.21624,-5.46996,3.21458,-10.9582,27.2383,-18.7749,4.40981,-3.68325
11.7427,17.7535,12.6933,127.773,-84.8103,-126.259,3.47969,1.37096,3.42316,0.559285,1.94654,2.66759,-1.35402,0.940065,0.732193,-7.33109,-0.394397,-4.66598,8.28828,-0.262482,2.45964,4.06347,-0.174866,1.64788,-1.68718e-14,-1.03368e-14,-31.979,-18.2303,-61.7541,31.3494,-17.2069,-23.843,-27.1609,7.12502,2.62898,-57.1245,-1.68718e-14,-1.03368e-14,-33.943,7.25625,67.9444,44.6779,17.8473,-27.1232,-5.70897,7.12502,-0.539125,24.2701,-3.3633,6.83833,15.4321,24.0737,-16.7489,-16.3083,3.4083,-5.63573,3.13896,-10.5785,27.4164,-18.9915,4.5731,-3.09301
11.7404,17.7524,12.7057,124.599,-84.5604,-123.053,3.40929,1.36313,3.87906,0.604871,1.94256,2.77,-1.25588,0.935362,0.58612,-7.36084,-0.47724,-4.65068,8.04727,-0.368338,2.44753,3.98773,-0.223576,1.63251,2.93207e-15,-7.95139e-15,-31.0734,-16.52,-63.211,30.5266,-18.754,-24.5201,-26.7576,7.12502,1.97503,-56.7282,2.93207e-15,-7.95139e-15,-33.742,6.84962,69.0506,44.664,17.2889,-27.5081,-5.86509,7.12502,-0.910837,24.1127,-3.28496,7.26024,15.8698,23.957,-16.8698,-16.7218,3.88746,-5.72439,2.99706,-10.2086,27.5124,-19.1359,4.65094,-3.71258
11.7355,17.7488,12.7207,125.929,-84.7313,-124.336,3.33069,1.37279,3.78635,0.611138,1.94942,2.61707,-1.20314,0.941633,0.482506,-7.38626,-0.527997,-4.29973,7.91312,-0.461946,2.33976,3.94402,-0.261641,1.52541,1.22004e-14,-1.94809e-14,-31.7444,-17.9376,-63.8484,31.2728,-16.586,-24.904,-27.6033,7.12502,1.60432,-57.5771,1.22004e-14,-1.94809e-14,-33.6203,6.193,70.0025,44.6339,16.3932,-27.2094,-5.53132,7.12502,-0.622299,24.4475,-3.3104,6.55934,15.4526,23.8444,-16.7315,-16.0483,3.73417,-5.82359,2.87848,-10.5358,27.6757,-19.2993,4.77023,-4.0655
11.7249,17.7487,12.7301,129.176,-85.1719,-127.57,3.23851,1.37105,3.32427,0.624699,1.9303,2.39534,-1.14587,0.937734,0.515683,-7.41994,-0.572711,-4.07752,7.76074,-0.542492,2.34071,3.89733,-0.29236,1.47953,-2.14439e-14,-2.82274e-14,-31.3946,-17.3347,-65.0969,30.8927,-16.1539,-25.9758,-28.5,7.12502,0.569164,-58.479,-2.14439e-14,-2.82274e-14,-33.5867,5.33524,70.9866,44.5763,15.159,-26.8094,-5.50932,7.12502,-0.236043,24.4703,-3.22603,6.60093,14.8401,23.7938,-16.6792,-16.2043,3.11037,-5.85358,2.88378,-11.1712,27.7779,-19.4728,4.59228,-3.68414
11.728,17.7512,12.7401,127.934,-84.6273,-126.094,3.18422,1.46516,3.94715,0.516091,2.07559,2.41812,-1.20334,1.00494,0.186311,-7.39636,-0.652005,-3.89864,7.56999,-0.674401,2.42948,3.82904,-0.346199,1.46774,-2.89977e-14,-2.06736e-14,-31.3372,-16.7377,-66.332,30.9698,-15.7629,-25.8019,-28.9375,7.12502,0.737062,-58.916,-2.89977e-14,-2.06736e-14,-33.489,4.43321,71.9117,44.2528,12.934,-26.4054,-6.082,7.12502,0.154161,23.8977,-3.59433,6.34102,15.296,23.8582,-16.5133,-15.8637,2.43323,-6.08972,3.10413,-10.6202,27.82,-19.5719,4.50921,-3.31599
11.7264,17.7504,12.7522,128.634,-84.6989,-126.661,3.22279,1.46467,3.94047,0.369788,2.08549,2.29786,-1.37096,1.00753,0.0627638,-7.29234,-0.69782,-3.7555,7.42551,-0.765371,2.5645,3.76073,-0.380364,1.4804,-1.97542e-14,-3.26007e-14,-30.6872,-14.6641,-67.9729,30.1685,-16.6006,-25.2099,-28.6184,7.12502,1.30887,-58.5941,-1.97542e-14,-3.26007e-14,-33.4954,3.35126,72.7669,43.8821,10.5928,-25.3281,-6.78677,7.12502,1.19472,23.1896,-3.76909,6.5829,15.1657,23.9227,-16.6668,-15.9862,3.19944,-6.26474,3.29966,-10.7602,27.8567,-19.5917,4.44114,-3.5857
11.7212,17.7498,12.7624,130.5,-85.0675,-128.469,3.28002,1.43477,3.54824,0.269579,2.04259,2.14826,-1.51557,0.987786,0.12621,-7.24413,-0.713487,-3.66032,7.23633,-0.804525,2.67437,3.68628,-0.390997,1.49605,-7.33018e-15,-3.81667e-14,-31.1445,-14.7266,-68.8491,30.8848,-14.7252,-23.5678,-27.6502,7.12502,2.8948,-57.6103,-7.33018e-15,-3.81667e-14,-33.5231,2.09028,73.6701,43.5261,8.356,-23.8743,-8.07546,7.12502,2.59875,21.8885,-3.76709,6.69544,14.713,23.886,-16.7061,-16.1346,3.49137,-6.4257,3.44982,-11.2286,28.0094,-19.6342,4.3278,-3.84511
11.7177,17.7496,12.7703,130.44,-85.012,-128.357,3.35754,1.47333,3.47212,0.201925,2.09838,2.2454,-1.63368,1.01379,0.262622,-7.06901,-0.80918,-3.82881,6.81753,-0.918891,2.74163,3.51263,-0.447544,1.53839,2.54196e-14,3.26007e-14,-31.0247,-14.2492,-69.6221,30.7205,-12.9579,-21.7446,-25.9955,7.12502,4.65534,-55.9244,2.54196e-14,3.26007e-14,-33.5648,1.06159,74.7457,43.1295,5.42954,-22.3657,-10.1898,7.12502,4.05566,19.7514,-3.75718,6.69107,14.7436,23.8132,-16.6647,-16.1494,3.03482,-6.53568,3.52795,-11.1899,28.1624,-19.7908,4.0072,-2.72969
11.7136,17.7501,12.7804,127.815,-84.5327,-125.64,3.40007,1.49603,3.86545,0.112338,2.14717,2.47677,-1.74321,1.03062,0.276381,-6.88961,-0.893352,-3.89361,6.4726,-1.02267,2.70698,3.36217,-0.500797,1.52934,-2.03506e-14,-1.03368e-14,-30.7791,-13.1042,-70.616,30.5173,-11.8103,-20.9931,-24.8208,7.12502,5.381,-54.7325,-2.03506e-14,-1.03368e-14,-33.6838,0.269659,75.7003,42.7229,1.94007,-20.5562,-12.4639,7.12502,5.80286,17.4366,-3.81195,6.70654,15.2877,23.7091,-16.6482,-16.1046,2.98769,-6.67436,3.46078,-10.646,28.3374,-19.9767,4.03248,-2.53846
11.7086,17.7442,12.7949,126.036,-84.267,-123.851,3.42644,1.45519,4.24504,0.0907096,2.10791,2.47817,-1.76759,1.00628,0.0673736,-7.07633,-0.911014,-3.60981,6.54162,-1.06849,2.69316,3.42009,-0.515825,1.47241,3.11098e-14,7.55382e-15,-30.5518,-12.5185,-71.7414,30.309,-10.1361,-20.5654,-23.6908,7.12502,5.79391,-53.5916,3.11098e-14,7.55382e-15,-33.7665,-0.797327,76.3682,42.3772,-1.66796,-18.946,-14.476,7.12502,7.35727,15.3761,-3.72878,7.09858,15.6297,23.5672,-16.7136,-16.382,3.32018,-6.77621,3.49681,-10.3553,28.5515,-20.0436,4.38897,-4.20848
11.7021,17.737,12.8134,126.159,-84.3447,-124.04,3.44081,1.4609,4.38388,0.166122,2.11775,2.3323,-1.68717,1.01256,-0.159335,-7.39867,-1.0197,-3.63734,6.65512,-1.22528,2.9789,3.53296,-0.580729,1.567,-1.14301e-15,5.1684e-15,-30.1753,-12.5781,-72.6092,29.7263,-7.7968,-19.6591,-21.808,7.12502,6.6689,-51.683,-1.14301e-15,5.1684e-15,-33.6919,-1.97389,77.053,42.1048,-5.46131,-17.4458,-16.7709,7.12502,8.80515,13.0254,-3.55726,7.26148,15.4988,23.4313,-16.7325,-16.4836,3.31488,-6.78773,3.58344,-10.5042,28.7358,-20.1011,4.40918,-4.59989
11.6917,17.7338,12.8318,126.694,-84.3142,-124.628,3.4347,1.50593,4.58851,0.232804,2.18097,2.23357,-1.60144,1.04478,-0.375977,-7.57241,-1.16117,-3.81712,6.61132,-1.41598,3.31322,3.5675,-0.664432,1.70211,-2.01269e-15,1.31198e-14,-29.7838,-12.156,-73.4675,29.176,-5.44948,-18.7998,-19.8671,7.12502,7.49835,-49.7142,-2.01269e-15,1.31198e-14,-33.5382,-2.84161,77.6717,41.7057,-9.3823,-15.5883,-19.4622,7.12502,10.5973,10.2506,-3.44031,7.18739,15.4112,23.3654,-16.6086,-16.4768,2.55411,-6.73932,3.62013,-10.5798,28.8597,-20.2568,4.14579,-3.36184
11.6792,17.7305,12.8489,128.393,-84.2572,-126.38,3.5681,1.59347,4.09192,0.164184,2.29121,2.58634,-1.77643,1.09888,0.252161,-7.68694,-1.26095,-4.1754,6.75351,-1.49579,3.16698,3.64663,-0.71926,1.71523,-8.4732e-15,-5.80451e-14,-29.7756,-10.8305,-73.7576,29.2445,-3.04279,-17.925,-18.507,7.12502,8.34273,-48.3222,-8.4732e-15,-5.80451e-14,-33.7226,-3.464,78.8374,41.3375,-12.945,-14.1061,-21.4061,7.12502,12.0268,8.22833,-3.33347,7.34094,15.2956,23.3256,-16.5291,-16.5667,2.06913,-6.64089,3.8133,-10.6977,28.9481,-20.3931,4.0132,-2.61172
11.667,17.7255,12.8714,129.831,-84.2139,-127.897,3.61485,1.58482,4.00933,0.20406,2.277,2.67093,-1.76859,1.09239,0.384911,-7.85339,-1.28929,-4.29416,6.76539,-1.50666,3.09001,3.68473,-0.729742,1.71085,-9.26834e-15,6.75868e-15,-29.6392,-10.1704,-74.3034,29.477,-0.429808,-17.7724,-17.2019,7.12502,8.48998,-47.0112,-9.26834e-15,6.75868e-15,-33.8035,-4.3408,79.5844,41.1922,-15.8303,-12.6526,-22.0571,7.12502,13.4281,7.4901,-3.21113,7.19737,15.1124,23.2573,-16.2898,-16.3452,1.83096,-6.51447,3.939,-10.845,29.0409,-20.4904,4.09348,-2.62608
11.6544,17.7221,12.8979,129.675,-84.0623,-127.806,3.64415,1.6072,4.32933,0.258899,2.31665,2.64423,-1.71387,1.11006,0.177766,-8.02353,-1.36015,-4.24252,6.74486,-1.60116,3.1067,3.71453,-0.772809,1.70191,3.35946e-14,-3.97569e-16,-29.396,-10.0463,-74.8959,29.6491,1.82597,-18.3285,-16.2996,7.12502,7.95326,-46.13,3.35946e-14,-3.97569e-16,-33.7379,-5.33263,80.173,41.1198,-17.9283,-10.596,-22.3775,7.12502,15.4097,7.02813,-3.11018,6.91678,15.1048,23.1872,-15.9808,-16.0928,1.25739,-6.41309,3.71199,-10.8354,29.1414,-20.5805,4.35073,-2.47341
11.6422,17.7188,12.9241,129.978,-83.9706,-128.149,3.65751,1.6892,4.59525,0.301455,2.43427,2.50732,-1.65721,1.16827,-0.115677,-8.14716,-1.45213,-4.01832,6.64216,-1.74984,3.18148,3.70645,-0.835505,1.67703,1.31695e-15,-3.45885e-14,-29.1887,-9.92503,-75.5823,29.8373,3.80724,-17.9895,-15.7741,7.12502,8.28048,-45.5918,1.31695e-15,-3.45885e-14,-33.6056,-6.46826,80.6234,41.1681,-18.9451,-8.66531,-23.0997,7.12502,17.2686,6.15311,-3.0579,6.81678,15.0291,23.15,-16.0929,-15.8293,1.35709,-6.34593,3.50899,-10.9023,29.2193,-20.5836,4.59187,-2.22132
11.6315,17.7112,12.9489,130.783,-83.9662,-129.1,3.77816,1.6835,4.63995,0.374935,2.4324,2.4309,-1.64399,1.16816,-0.2215,-7.9838,-1.4932,-3.89021,6.13456,-1.8136,3.16548,3.49652,-0.863401,1.64043,8.97016e-15,2.3059e-14,-28.8159,-9.24915,-76.3486,29.783,5.26963,-17.4427,-14.8474,7.12502,8.80812,-44.6436,8.97016e-15,2.3059e-14,-33.633,-7.1352,80.9571,41.3669,-19.7668,-6.59552,-23.8679,7.12502,19.2598,5.19835,-2.93113,6.76102,14.8518,23.1823,-16.3379,-15.4994,1.76229,-6.13791,3.62185,-11.0459,29.2275,-20.5795,4.59485,-1.98188
11.6204,17.7048,12.969,132.801,-84.0969,-131.304,3.94248,1.64445,4.30437,0.451937,2.37413,2.47537,-1.67444,1.14177,0.0094091,-8.26788,-1.50879,-4.21047,6.24796,-1.80657,3.3828,3.60174,-0.85695,1.77404,-1.61513e-14,-8.34896e-15,-28.41,-8.14989,-77.0024,29.7656,6.06823,-17.4929,-14.2193,7.12502,8.75974,-44.0175,-1.61513e-14,-8.34896e-15,-33.7591,-7.47851,81.4222,41.4564,-20.3034,-4.80612,-24.2563,7.12502,20.9797,4.62905,-2.78514,6.91065,14.5223,23.3074,-16.5249,-15.4016,2.1812,-5.8412,3.6168,-11.4058,29.1602,-20.6417,4.63848,-1.51142
11.6104,17.7111,12.99,136.048,-84.1338,-134.482,3.94616,1.68269,3.90458,0.401101,2.41289,2.54253,-1.74717,1.16303,0.297627,-8.36601,-1.55656,-4.47959,6.25536,-1.84783,3.53927,3.63385,-0.876753,1.87437,-1.12065e-14,-3.57812e-15,-28.2428,-6.85865,-77.5415,30.1765,6.16385,-17.0056,-14.0473,7.12502,9.22989,-43.8253,-1.12065e-14,-3.57812e-15,-33.9008,-7.72027,81.8862,41.4781,-20.5303,-3.83346,-24.2914,7.12502,21.9139,4.48754,-2.9806,7.31471,14.2198,23.4967,-16.5186,-15.7124,1.9589,-5.81909,3.41426,-11.8244,29.0874,-20.6616,5.0457,-1.40834
11.5996,17.7201,13.0168,138.434,-83.9655,-136.689,3.85292,1.73761,3.77746,0.319229,2.4801,2.58627,-1.78508,1.19667,0.411407,-8.29285,-1.58449,-4.50061,6.08236,-1.89227,3.66164,3.5639,-0.894035,1.91553,2.24875e-14,2.46493e-14,-28.168,-5.63288,-78.0546,30.7424,5.83663,-16.2612,-14.0172,7.12502,9.94817,-43.7622,2.24875e-14,2.46493e-14,-34.0289,-7.66086,82.0631,41.5636,-20.6837,-2.76984,-24.1995,7.12502,22.9348,4.45636,-3.39306,7.37177,14.0449,23.7562,-16.3047,-15.7203,1.02622,-5.91287,3.34768,-12.0302,29.0237,-20.6513,5.34691,-0.700783
11.5869,17.7136,13.0449,139.787,-83.8125,-138.044,3.8391,1.77241,3.7785,0.342055,2.52454,2.55505,-1.75151,1.21958,0.377447,-8.26918,-1.62438,-4.31072,5.85139,-1.96635,3.69426,3.47896,-0.924155,1.88534,-2.65874e-15,2.74323e-14,-28.1366,-4.97608,-78.5661,31.3844,5.60106,-16.1757,-14.3723,7.12502,10.0307,-44.1133,-2.65874e-15,2.74323e-14,-34.0259,-7.53716,81.9948,41.7649,-20.3992,-0.94068,-23.7702,7.12502,24.6891,4.6569,-3.65547,6.76273,13.7879,24.0965,-16.2689,-14.8511,0.932796,-5.77898,3.44483,-12.1549,28.9179,-20.6526,5.43589,0.420497
11.5743,17.7033,13.0748,142.34,-83.8037,-140.75,3.955,1.83711,3.56464,0.451004,2.60341,2.5609,-1.71251,1.2618,0.496518,-8.07073,-1.7305,-4.55392,5.20782,-2.09256,3.93706,3.23342,-0.982558,1.99926,2.36057e-14,9.14409e-15,-27.9863,-4.69907,-78.8008,31.9583,5.35992,-15.3101,-13.9155,7.12502,10.8656,-43.6144,2.36057e-14,9.14409e-15,-33.9137,-7.23524,82.1156,41.9535,-19.6705,0.0910913,-22.8195,7.12502,25.6776,5.4687,-3.74549,6.10995,13.306,24.4862,-16.2496,-14.0803,0.36598,-5.47739,3.62255,-12.5163,28.7839,-20.6349,5.66741,0.0955046
11.5562,17.6946,13.11,149.456,-84.1859,-148.072,4.01079,1.91076,2.86578,0.648276,2.66901,2.3729,-1.56286,1.30405,0.691053,-8.61091,-1.91139,-4.68647,5.37553,-2.29825,3.91262,3.40863,-1.08365,2.00565,-1.58531e-14,-2.8625e-14,-27.5745,-4.62335,-78.9126,32.3611,4.7763,-13.3128,-13.0977,7.12502,12.7916,-42.6858,-1.58531e-14,-2.8625e-14,-33.6887,-6.75697,82.1929,42.0484,-19.0715,-0.35478,-22.3961,7.12502,25.2505,5.953,-3.71256,6.32794,12.2327,24.8953,-16.4013,-14.1489,-0.656017,-5.17366,3.81557,-13.6111,28.7297,-20.693,5.80412,-0.535221
11.5322,17.6834,13.1457,157.049,-84.468,-155.841,3.96926,1.94468,2.35882,0.805685,2.68742,1.97865,-1.38227,1.32106,0.573029,-9.02339,-1.97693,-4.33075,5.50171,-2.41556,3.91149,3.53071,-1.13038,1.93391,9.24349e-15,3.97569e-15,-27.3302,-4.52426,-79.3581,33.0028,3.6743,-14.0211,-14.2017,7.12502,12.1088,-43.8313,9.24349e-15,3.97569e-15,-33.5596,-6.51875,81.8415,42.2314,-18.2,-0.508938,-22.2171,7.12502,25.1028,6.15283,-3.806,5.85139,11.0723,25.3976,-16.4482,-13.5346,-2.23742,-4.82709,4.04394,-14.652,28.5862,-20.772,5.71568,-0.368026
11.5323,17.678,13.1655,155.114,-84.1169,-153.914,4.21842,2.02287,2.63507,0.771567,2.81283,2.03622,-1.54534,1.37959,0.461656,-9.03756,-2.00816,-4.01612,5.34284,-2.47579,3.70525,3.46857,-1.16134,1.80136,3.63279e-14,-1.15295e-14,-27.4436,-4.29314,-79.6195,33.9847,2.3918,-17.4853,-16.592,7.12502,8.767,-46.3899,3.63279e-14,-1.15295e-14,-33.6262,-6.43054,81.693,42.5659,-16.7075,-0.693957,-21.0191,7.12502,24.9255,7.37546,-4.12917,5.75294,11.3743,25.8255,-16.0883,-13.6095,-4.4698,-4.7233,4.297,-14.3112,28.4405,-20.7203,5.509,0.193331
11.511,17.662,13.1852,160.201,-84.5256,-159.294,4.39189,1.95421,1.91007,0.884737,2.69305,1.94121,-1.55636,1.32478,0.770511,-8.91966,-2.09758,-4.2612,4.9842,-2.57186,3.83713,3.3341,-1.20969,1.88273,1.18774e-14,1.07344e-14,-27.617,-4.07941,-79.6959,35.0974,1.08848,-19.1561,-18.3914,7.12502,7.15449,-48.2505,1.18774e-14,1.07344e-14,-33.7055,-6.06914,81.5905,42.9165,-15.2729,-1.39246,-19.9175,7.12502,24.256,8.56817,-3.92881,5.14531,10.5337,26.2486,-16.0444,-13.4017,-5.33249,-4.32906,4.56532,-15.0292,28.3152,-20.7143,5.07693,0.152102
11.5088,17.6731,13.2124,159.446,-84.121,-158.308,4.40627,1.99463,2.14873,0.841459,2.75897,1.98356,-1.59963,1.35554,0.675783,-8.92917,-2.18903,-4.60639,4.61355,-2.68326,4.36428,3.2348,-1.25156,2.1156,-1.59028e-15,-1.11319e-14,-27.5287,-3.85351,-79.9355,36.0791,-0.312826,-19.0593,-19.5953,7.12502,7.24788,-49.4512,-1.59028e-15,-1.11319e-14,-33.6418,-5.46052,81.1203,43.2625,-14.1332,-1.25284,-19.1865,7.12502,24.3898,9.2812,-4.35612,7.2639,11.0074,26.6393,-15.8274,-15.2207,-5.18863,-4.50981,4.86999,-14.8669,28.2384,-20.6285,5.18071,-0.26558
11.4968,17.6792,13.2413,158.747,-83.8671,-157.572,4.44937,2.03694,2.33722,0.90855,2.82155,1.98244,-1.54534,1.3857,0.566042,-8.98582,-2.29297,-4.55922,4.19461,-2.83146,4.58009,3.11341,-1.31631,2.16822,-4.41799e-14,-6.75868e-15,-27.2603,-3.70965,-80.112,36.9166,-1.60066,-19.056,-20.4363,7.12502,7.25114,-50.292,-4.41799e-14,-6.75868e-15,-33.4966,-5.05869,80.6545,43.7185,-12.9297,-1.05016,-18.1354,7.12502,24.5841,10.306,-4.69483,6.86355,11.0212,27.0864,-15.321,-14.9391,-6.7512,-4.42509,5.06587,-14.7775,28.0803,-20.594,5.15279,-0.26088
11.4833,17.6741,13.2695,162.575,-83.7043,-161.528,4.62944,2.19076,1.99512,0.986297,3.01397,1.82862,-1.57432,1.48402,0.582615,-8.97653,-2.44604,-4.29198,3.80079,-3.05964,4.59022,2.98141,-1.42607,2.10642,2.48481e-16,-7.95139e-15,-27.1358,-3.97201,-80.0679,37.7716,-2.41173,-18.4499,-20.6296,7.12502,7.83612,-50.4643,2.48481e-16,-7.95139e-15,-33.4138,-5.02818,80.3177,44.2544,-11.494,-1.76292,-17.5777,7.12502,23.9008,10.955,-4.83769,7.32702,10.5501,27.489,-15.5083,-14.9401,-5.79098,-4.1541,5.11479,-15.2695,27.9568,-20.6709,4.9713,1.72818
11.4745,17.6659,13.2906,166.055,-83.7621,-165.065,4.77754,2.24808,1.51765,1.04172,3.07053,1.77703,-1.62231,1.51464,0.787437,-9.09997,-2.62902,-4.46757,3.53491,-3.28648,4.79914,2.93631,-1.53404,2.19435,-1.13307e-14,1.11319e-14,-27.028,-4.17578,-79.8286,38.6501,-2.98954,-17.4724,-19.8557,7.12502,8.77951,-49.6531,-1.13307e-14,1.11319e-14,-33.2437,-4.62005,79.9813,44.6368,-10.3481,-2.28888,-17.7545,7.12502,23.3963,10.8433,-5.10471,7.04031,9.95242,27.9648,-15.8386,-14.2874,-3.5444,-4.04134,5.15604,-15.7539,27.8801,-20.69,4.58476,3.56565
11.4702,17.6633,13.3142,167.507,-83.7862,-166.677,5.04676,2.18164,1.28288,1.16845,2.97208,1.8213,-1.65635,1.46525,0.961719,-9.35339,-2.74272,-4.64386,3.41057,-3.40591,4.81482,2.95362,-1.5932,2.22357,1.49089e-16,1.86858e-14,-26.7479,-3.58575,-79.7348,39.608,-4.10986,-16.6366,-17.2718,7.12502,9.58596,-47.0337,1.49089e-16,1.86858e-14,-33.0543,-3.91573,79.5861,44.9605,-10.3476,-3.66341,-17.5755,7.12502,22.0771,11.1842,-5.17796,7.67759,9.73615,28.4388,-16.1766,-14.3307,-1.18055,-3.85659,5.26456,-16.0018,27.8341,-20.5765,4.55464,3.20455
11.4648,17.666,13.3439,166.676,-83.6001,-165.964,5.27419,2.17505,1.4761,1.30053,2.97215,1.86007,-1.63962,1.46272,0.887737,-9.41034,-2.84008,-4.56057,3.12886,-3.53016,4.70223,2.86862,-1.65817,2.16093,-5.1684e-15,4.77083e-15,-26.4472,-3.01455,-79.6555,40.6162,-5.07919,-16.762,-18.4514,7.12502,9.46496,-48.2188,-5.1684e-15,4.77083e-15,-32.8139,-3.60659,79.2055,45.4489,-9.59979,-4.84808,-16.9964,7.12502,20.9394,11.8934,-5.33879,7.93305,9.73919,28.9284,-16.0126,-14.1079,-0.905047,-3.70142,5.436,-15.963,27.8314,-20.36,4.69493,2.4555
11.4582,17.6717,13.372,165.077,-83.4704,-164.251,5.30648,2.21163,1.75508,1.35705,3.03299,1.90451,-1.58765,1.49124,0.773976,-9.23466,-2.9771,-4.61839,2.45402,-3.70835,4.88161,2.62272,-1.74694,2.21956,1.78906e-15,5.1684e-15,-26.2097,-2.54269,-79.5158,41.5694,-5.53559,-17.675,-18.8508,7.12502,8.58401,-48.6563,1.78906e-15,5.1684e-15,-32.5556,-4.07107,79.0577,46.0629,-7.99916,-6.49724,-15.8955,7.12502,19.3543,13.1613,-5.84392,8.07945,9.86849,29.5529,-15.4119,-14.3757,-2.57269,-3.81011,5.52674,-15.835,27.8587,-20.272,4.72502,2.3224
11.4581,17.6763,13.3972,164.234,-83.3697,-163.242,5.40281,2.13987,1.81321,1.32918,2.94414,1.93873,-1.66872,1.44575,0.777915,-9.0926,-3.02472,-4.77201,1.94181,-3.7713,5.30217,2.44507,-1.77233,2.38497,-8.24956e-15,3.18055e-15,-25.9482,-1.51363,-79.5634,42.3872,-5.97154,-17.7129,-19.0523,7.12502,8.5474,-48.8592,-8.24956e-15,3.18055e-15,-32.5159,-4.36969,78.6186,46.6249,-7.74881,-8.11016,-15.3918,7.12502,17.8028,13.8133,-6.5047,8.26718,9.91232,30.2844,-15.1939,-14.4119,-2.92598,-3.97661,5.54121,-15.7901,27.8253,-20.2773,4.72909,2.46578
11.4608,17.6701,13.4206,165.871,-83.2996,-164.851,5.58996,2.10623,1.58282,1.34045,2.8911,1.84714,-1.76818,1.41995,0.808791,-9.07789,-3.10859,-4.82863,1.70259,-3.89348,5.70177,2.38394,-1.82487,2.52321,2.98177e-15,1.98785e-15,-25.6497,-0.942537,-79.5398,43.1589,-6.05916,-16.033,-19.0916,7.12502,10.1683,-48.8259,2.98177e-15,1.98785e-15,-32.3539,-4.17945,77.8716,46.9695,-9.22432,-8.85619,-15.701,7.12502,17.0849,13.5678,-7.08527,8.06293,9.5885,31.1021,-15.035,-13.9749,-2.90945,-4.00195,5.65635,-16.0464,27.7718,-20.2558,4.71181,2.34097
11.4485,17.6723,13.4422,168.507,-83.4963,-167.623,5.71747,2.10706,1.25913,1.47521,2.87044,1.66001,-1.70698,1.41141,0.796892,-9.08026,-3.25202,-4.70024,1.1911,-4.09002,5.77009,2.22261,-1.9249,2.50981,6.31141e-15,9.54166e-15,-25.3911,-1.07105,-79.311,44.0988,-5.9093,-14.3745,-18.9654,7.12502,11.768,-48.6148,6.31141e-15,9.54166e-15,-31.9073,-4.22396,77.2373,47.3134,-10.2562,-9.47091,-15.9006,7.12502,16.4931,13.4184,-7.45171,7.79747,9.09979,31.9948,-14.8128,-13.8402,-2.42098,-3.79173,5.68475,-16.5053,27.6582,-20.2619,4.56511,2.54515
11.4461,17.6849,13.4627,166.729,-83.3784,-165.826,5.92448,2.10782,1.41266,1.53382,2.88143,1.6837,-1.75565,1.41481,0.728054,-9.08437,-3.36361,-4.81178,0.608943,-4.22014,5.94451,2.04637,-1.99219,2.58089,1.48592e-14,-1.98785e-15,-25.1478,-1.2426,-79.0431,45.1357,-5.5657,-14.1125,-19.0429,7.12502,12.0207,-48.6777,1.48592e-14,-1.98785e-15,-31.5734,-4.44856,76.7211,47.8928,-10.4635,-10.3447,-15.2002,7.12502,15.6517,14.1866,-8.11019,8.26802,9.31097,32.9573,-14.507,-14.1613,-1.76755,-3.75985,5.52858,-16.3676,27.5833,-20.2741,4.74755,3.13413
11.4416,17.6899,13.4861,166.966,-83.3263,-166.037,6.0414,2.05239,1.26536,1.59993,2.799,1.7496,-1.76287,1.37311,0.880983,-9.08065,-3.43815,-5.15736,0.178963,-4.28631,6.29781,1.93043,-2.02323,2.76093,-1.13804e-14,-1.43125e-14,-24.7639,-0.946922,-78.683,45.9795,-5.19493,-16.2963,-19.4044,7.12502,9.91433,-49.151,-1.13804e-14,-1.43125e-14,-31.3081,-3.99,76.0568,48.4439,-11.956,-10.1835,-15.0342,7.12502,15.8069,14.3405,-8.7504,8.307,9.17763,33.8977,-13.7203,-14.3277,-3.47785,-3.73665,5.29796,-16.5287,27.4994,-20.3039,5.02008,3.55281
11.4407,17.687,13.5077,167.489,-83.3006,-166.522,6.17316,2.05971,1.05692,1.62152,2.79882,1.85223,-1.82924,1.37264,1.09832,-8.87179,-3.60403,-5.46508,-0.307973,-4.4795,6.56009,1.76314,-2.12265,2.89927,-2.16675e-14,-1.11319e-14,-24.3531,-0.44839,-78.1271,46.6499,-5.13972,-18.94,-19.4948,7.12502,7.36302,-49.3467,-2.16675e-14,-1.11319e-14,-31.0773,-3.98463,75.734,48.9949,-12.2716,-10.6125,-14.9687,7.12502,15.3938,14.4382,-9.42253,7.9096,8.98307,34.8639,-12.6379,-14.2788,-6.25994,-3.74932,5.1936,-16.6997,27.4122,-20.2384,5.33371,3.02777
11.4365,17.683,13.5245,167.082,-83.3445,-166.11,6.33178,2.16169,0.963146,1.65739,2.93053,1.90782,-1.88992,1.43757,1.19231,-8.71491,-3.89696,-5.62061,-0.834194,-4.85308,6.75388,1.5984,-2.31347,2.97733,-7.50412e-15,3.57812e-15,-24.0919,-0.546724,-77.5489,47.4981,-5.42601,-20.3854,-19.4761,7.12502,5.96777,-49.372,-7.50412e-15,3.57812e-15,-30.596,-4.44681,75.452,49.4756,-12.1518,-10.8967,-15.156,7.12502,15.12,14.2717,-10.0031,7.77852,8.97359,35.8907,-11.9663,-14.3979,-7.77063,-3.68997,5.40107,-16.6841,27.2557,-20.1797,5.18478,2.97772
11.4238,17.6855,13.5382,169.237,-83.4524,-168.225,6.30231,2.2052,0.519813,1.75608,2.95675,1.84773,-1.79171,1.45215,1.37955,-8.69814,-4.09395,-5.64682,-1.34785,-5.10584,6.89682,1.44987,-2.44409,3.01932,1.82385e-14,-3.18055e-15,-23.8072,-0.577985,-77.2016,48.5457,-5.90329,-20.6228,-19.625,7.12502,5.73855,-49.5273,1.82385e-14,-3.18055e-15,-30.0021,-4.47451,74.9002,49.9721,-12.2815,-10.5894,-15.3186,7.12502,15.416,14.0866,-10.6476,7.7637,8.63997,36.9446,-11.6896,-14.5328,-7.61161,-3.65283,5.58391,-17.0022,27.142,-20.3193,4.67292,4.65308
11.4109,17.6963,13.5611,170.523,-83.5537,-169.425,6.24738,2.0511,0.21569,1.79256,2.73192,1.89421,-1.73528,1.34051,1.61792,-8.52647,-4.10387,-5.87059,-1.77078,-5.09981,7.13878,1.2976,-2.44471,3.14836,-4.2689e-14,-3.4191e-14,-23.4612,0.0222915,-76.8294,49.5056,-6.0802,-19.6748,-19.7876,7.12502,6.65376,-49.6631,-4.2689e-14,-3.4191e-14,-29.796,-3.89263,74.2796,50.6221,-12.3705,-10.6056,-15.3007,7.12502,15.4004,14.1057,-11.3995,7.48955,8.35649,38.0732,-10.956,-14.6109,-9.32586,-3.61496,5.40137,-17.3083,26.9379,-20.3618,4.56021,5.81613
11.4039,17.7061,13.5783,166.309,-83.3943,-164.922,6.16963,1.96432,0.525769,1.70545,2.63886,2.12391,-1.77585,1.29279,1.68893,-8.37353,-4.14523,-5.96882,-2.07751,-5.1489,7.33862,1.18481,-2.47256,3.23663,3.37437e-14,4.77083e-15,-23.1181,0.79029,-76.3358,50.3567,-6.63334,-18.7388,-20.0353,7.12502,7.55726,-49.8802,3.37437e-14,4.77083e-15,-29.6041,-3.72609,73.7201,51.2427,-12.2074,-11.0882,-15.0192,7.12502,14.9356,14.4223,-12.4334,7.20883,8.84083,39.2283,-9.86501,-14.6017,-11.8814,-3.80918,5.39717,-16.8095,26.7645,-20.2926,4.55367,5.96978
11.3968,17.7036,13.5927,171.534,-83.4725,-170.26,6.41268,2.04362,-0.153997,1.74915,2.7017,1.83625,-1.88542,1.3276,1.76075,-8.32524,-4.33983,-5.71806,-2.39594,-5.43215,7.58139,1.09325,-2.61894,3.26117,-3.23025e-15,3.57812e-15,-22.7392,1.1515,-76.0707,51.2168,-7.61935,-17.9705,-20.2993,7.12502,8.29884,-50.1163,-3.23025e-15,3.57812e-15,-28.9844,-4.27647,72.971,51.7217,-12.0215,-11.2161,-14.8731,7.12502,14.8123,14.5775,-13.1546,6.94951,8.0485,40.4418,-9.19334,-14.2809,-12.3294,-3.6404,5.50521,-17.5488,26.6243,-20.3074,4.48199,6.12207
11.3906,17.7076,13.6081,170.999,-83.5089,-169.747,6.53675,2.05106,-0.148613,1.80761,2.70887,1.74849,-1.88998,1.33033,1.66363,-8.19296,-4.51067,-5.57841,-2.81075,-5.67283,7.87759,0.958956,-2.74692,3.33002,-8.24956e-15,-3.97569e-16,-22.1362,1.46098,-75.7927,51.8807,-8.34021,-16.7659,-20.1969,7.12502,9.46118,-49.9645,-8.24956e-15,-3.97569e-16,-28.3039,-4.62453,72.2093,52.2487,-11.9838,-10.948,-14.9967,7.12502,15.0706,14.4347,-13.8601,6.87994,8.08542,41.6372,-8.56704,-14.371,-11.6353,-3.563,5.63414,-17.5365,26.536,-20.367,4.40281,6.27074
11.3837,17.7119,13.6216,169.961,-83.5108,-168.658,6.54482,2.05938,-0.305599,1.89162,2.70863,1.91865,-1.82344,1.32848,1.92829,-8.09976,-4.57905,-5.70574,-3.22327,-5.74487,7.93785,0.820642,-2.78989,3.37639,1.58531e-14,1.98785e-15,-21.2957,2.26911,-75.1204,52.2742,-9.307,-16.7763,-20.1054,7.12502,9.45119,-49.8735,1.58531e-14,1.98785e-15,-27.6327,-4.62231,71.8493,52.7619,-12.0243,-11.2018,-14.8589,7.12502,14.8261,14.5907,-14.6669,6.62897,8.20029,42.871,-7.91332,-14.3138,-10.0901,-3.46598,5.77819,-17.4392,26.3016,-20.3223,4.45919,5.91643
11.3743,17.7154,13.6321,169.947,-83.5455,-168.64,6.60341,2.08684,-0.603177,1.97576,2.72515,2.10598,-1.7929,1.33504,2.28655,-8.10268,-4.62933,-5.97778,-3.46333,-5.78068,7.92299,0.754927,-2.8088,3.4233,-2.81777e-14,1.07344e-14,-20.4711,3.24683,-74.2816,52.6599,-10.2921,-17.857,-20.5759,7.12502,8.40833,-50.3885,-2.81777e-14,1.07344e-14,-26.9015,-4.58489,71.6429,53.1723,-12.3429,-11.8707,-14.791,7.12502,14.1816,14.7049,-15.4622,6.27226,8.1391,44.1122,-7.68726,-13.91,-6.9331,-3.28589,5.83436,-17.4807,26.0155,-20.2325,4.53565,5.32756
11.3625,17.719,13.6398,170.082,-83.7306,-168.915,6.82686,2.00815,-0.875312,2.05483,2.5998,2.15672,-1.84429,1.2713,2.49641,-8.06397,-4.70329,-6.05275,-3.71617,-5.86891,7.98268,0.677647,-2.85674,3.4572,-3.72721e-15,-2.3059e-14,-20.0267,3.46677,-73.6927,53.6692,-10.1091,-17.4235,-20.622,7.12502,8.82667,-50.4174,-3.72721e-15,-2.3059e-14,-26.2195,-4.54696,71.1276,53.682,-12.8529,-12.1166,-14.9558,7.12502,13.9446,14.5566,-16.0564,5.85302,8.07154,45.3583,-7.47948,-13.7257,-4.28012,-2.98068,5.70029,-17.5726,25.759,-20.2175,4.43396,5.64688
11.3496,17.7219,13.6465,172.397,-84.0374,-171.353,7.03475,1.87384,-1.35902,2.10347,2.385,2.06799,-1.91437,1.16509,2.69002,-7.98156,-4.81119,-6.06598,-3.98398,-6.01125,8.21619,0.597111,-2.93303,3.53853,-3.79182e-14,-1.39149e-14,-19.4128,3.69938,-73.2616,54.3754,-9.5051,-17.2814,-20.327,7.12502,8.96379,-50.1166,-3.79182e-14,-1.39149e-14,-25.5523,-4.60845,70.3862,54.2881,-13.2568,-12.4189,-15.0039,7.12502,13.6533,14.5283,-16.6571,5.27863,7.78436,46.6601,-6.97094,-13.7621,-3.53241,-2.64523,5.58173,-17.9247,25.3482,-20.1084,4.1247,6.4543
11.3453,17.7375,13.6522,166.131,-83.8554,-164.766,6.97055,1.83154,-0.787826,2.01999,2.37185,2.24274,-1.9485,1.15768,2.55107,-8.14221,-4.90984,-6.1189,-3.93122,-6.13684,8.38017,0.66091,-2.99151,3.59579,-1.21259e-14,2.78299e-15,-18.607,4.06685,-72.7658,54.7897,-9.05734,-19.3477,-20.6516,7.12502,6.96955,-50.5168,-1.21259e-14,2.78299e-15,-24.7936,-4.87651,69.7012,54.8065,-13.4857,-12.9857,-15.0871,7.12502,13.107,14.481,-17.7903,5.14204,8.70376,47.8861,-6.49423,-14.0542,-2.34069,-2.83668,5.55985,-17.1755,25.1347,-20.0709,4.12375,6.58026
11.3237,17.7448,13.6636,171.23,-84.2038,-169.921,6.95646,1.83985,-1.36677,2.10878,2.3399,2.06853,-1.86311,1.14224,2.70136,-8.30771,-5.09403,-6.2967,-3.94293,-6.3629,8.54355,0.71775,-3.09919,3.67233,-3.1408e-14,2.38542e-15,-18.0548,4.21766,-72.0195,55.6693,-8.83796,-21.5319,-20.9351,7.12502,4.86076,-50.8594,-3.1408e-14,2.38542e-15,-23.8482,-5.40664,69.2648,55.3486,-13.5351,-13.413,-15.2833,7.12502,12.6951,14.3109,-18.4671,4.18543,8.0259,49.1155,-6.22555,-13.5917,-0.000612093,-2.70457,5.39511,-17.9278,25.0289,-20.1471,4.19296,6.37217
11.3234,17.7512,13.6633,164.34,-83.7547,-162.677,6.87203,1.97155,-0.74479,2.01634,2.56235,2.3382,-1.90976,1.25212,2.61169,-8.20045,-5.2866,-6.72136,-4.14544,-6.5846,8.90668,0.684279,-3.20792,3.87503,3.94588e-14,4.37326e-15,-17.5841,4.03569,-71.2939,56.5912,-8.1969,-20.0696,-20.8456,7.12502,6.27261,-50.7327,3.94588e-14,4.37326e-15,-22.9448,-5.78735,68.8239,56.0009,-13.6595,-13.4954,-15.4706,7.12502,12.6157,14.1284,-19.6106,4.25617,9.15238,50.179,-5.88895,-13.8665,2.53634,-2.99837,5.22364,-17.0483,25.0414,-20.1704,4.56925,6.55976
11.3127,17.7329,13.6608,162.185,-83.8452,-160.7,7.15365,1.87461,-0.769292,2.07302,2.42913,2.40547,-2.00476,1.18406,2.69938,-8.32856,-5.31055,-7.01363,-4.00541,-6.59472,9.25502,0.781879,-3.20327,4.04994,-1.04362e-15,-4.37326e-15,-17.0592,3.90608,-70.9701,57.551,-7.51049,-14.0165,-20.3917,7.12502,12.1132,-50.0211,-1.04362e-15,-4.37326e-15,-22.1377,-5.98325,68.0921,56.6476,-13.8144,-13.4073,-15.4726,7.12502,12.7006,14.1212,-20.0399,3.88856,9.49781,51.1944,-5.65352,-14.0575,3.73541,-2.75659,5.03096,-16.8346,25.0437,-20.2205,4.57605,6.70496
11.2998,17.7321,13.6672,160.644,-83.6574,-159.388,7.52993,1.90154,-0.655179,2.17068,2.46772,2.42,-2.11085,1.20028,2.63715,-8.11705,-5.09118,-5.54331,-4.3825,-6.42137,8.61598,0.519497,-3.15167,3.56007,1.3418e-14,1.15295e-14,-16.0411,4.69718,-70.4521,57.9014,-8.10725,-17.8122,-20.8488,7.12502,8.45161,-50.6597,1.3418e-14,1.15295e-14,-21.1132,-6.4291,67.3617,57.2067,-13.7534,-13.6542,-15.2696,7.12502,12.4625,14.3388,-20.428,4.25052,9.91287,52.0403,-5.6754,-14.7268,5.53374,-2.50235,4.94988,-16.6414,25.2186,-20.4586,4.7086,6.99499
11.2834,17.7288,13.6776,157.954,-83.501,-156.723,7.62241,1.89665,-0.30772,2.21961,2.48395,2.46621,-2.09985,1.20522,2.48616,-7.93504,-5.1977,-6.07441,-4.85237,-6.51412,9.16217,0.386953,-3.20215,3.85872,5.56597e-15,2.3059e-14,-15.6305,4.50079,-69.9066,59.0614,-7.96971,-20.3773,-21.4366,7.12502,5.97561,-51.3323,5.56597e-15,2.3059e-14,-20.0156,-6.83094,66.6758,57.7636,-13.4363,-13.7838,-14.959,7.12502,12.3376,14.657,-21.0535,3.75768,10.3493,52.8164,-6.0267,-14.6647,7.97542,-2.39385,4.74295,-16.3249,25.2558,-20.6502,4.72299,7.28343
11.2639,17.7321,13.6883,157.938,-83.1611,-156.46,7.40805,1.92685,-0.1413,2.1551,2.53777,2.44994,-2.04204,1.23296,2.37609,-7.73855,-5.26604,-6.41665,-5.11697,-6.57737,9.44,0.297225,-3.23707,4.02868,-1.47101e-14,-1.59028e-14,-15.1017,4.28365,-69.5242,59.934,-8.09234,-21.8102,-21.2149,7.12502,4.592,-51.1451,-1.47101e-14,-1.59028e-14,-19.0977,-6.93166,65.9585,58.4636,-12.6161,-13.3643,-14.7445,7.12502,12.742,14.8467,-22.0058,3.59396,10.5828,53.4764,-6.25041,-14.5611,8.64385,-2.50348,4.66891,-16.2718,25.1839,-20.807,4.89622,7.64991
11.2316,17.7356,13.6843,157.753,-83.3733,-156.246,7.31696,1.85795,-0.28209,2.12664,2.43759,2.45655,-2.02262,1.18432,2.4736,-7.52035,-5.34937,-6.66498,-5.32875,-6.6701,9.49315,0.209878,-3.28679,4.10042,-1.11816e-14,-4.37326e-15,-14.4035,4.9526,-68.9115,60.7133,-9.34769,-22.9239,-20.7943,7.12502,3.51658,-50.7451,-1.11816e-14,-4.37326e-15,-18.1579,-7.06586,65.4483,59.2022,-11.2136,-12.8352,-14.5606,7.12502,13.252,14.9981,-22.4369,3.20564,10.7363,54.0266,-6.56217,-14.8502,7.0618,-2.3523,4.51269,-16.3301,25.0189,-20.8672,4.8633,7.80942
11.2074,17.7226,13.6899,162.114,-83.3632,-160.83,7.56342,1.96941,-0.801956,2.15689,2.54697,2.33384,-2.15022,1.24129,2.62159,-7.23956,-5.42609,-6.7115,-5.60486,-6.77072,9.47011,0.0800901,-3.34611,4.10901,3.4837e-14,1.55052e-14,-13.7313,5.49071,-68.1838,61.6686,-10.0957,-22.9903,-20.879,7.12502,3.45243,-50.8308,3.4837e-14,1.55052e-14,-17.0762,-7.22449,64.9944,59.9567,-9.34157,-12.287,-14.0168,7.12502,13.7804,15.5068,-22.8426,2.74764,10.2691,54.4489,-7.05158,-14.7639,6.58077,-1.95768,4.5001,-16.9597,24.906,-21.0313,5.20603,7.1278
11.1709,17.7115,13.6883,168.143,-83.6742,-167.211,7.74793,1.96475,-1.709,2.24735,2.46659,2.1183,-2.18318,1.20386,2.91272,-7.10162,-5.4947,-6.56429,-5.62548,-6.87768,9.47223,0.0528314,-3.40525,4.08067,-2.73329e-14,-3.97569e-15,-13.6668,4.46879,-67.9443,62.7632,-9.03854,-22.1253,-20.5557,7.12502,4.28776,-50.4923,-2.73329e-14,-3.97569e-15,-16.0287,-7.18989,64.4005,60.8558,-6.67839,-11.4556,-13.0909,7.12502,14.5816,16.3765,-22.9358,2.00922,9.45603,54.705,-7.77274,-14.4548,7.92004,-1.35818,4.38845,-17.8437,24.6994,-21.1622,5.33733,6.21027
11.1604,17.708,13.684,164.695,-82.9971,-163.56,7.8864,2.11896,-1.33447,2.0772,2.70657,2.24618,-2.4404,1.32698,2.80247,-7.03672,-5.5705,-6.67023,-5.52686,-6.97689,9.65836,0.0949653,-3.45261,4.16276,-2.45002e-14,9.54166e-15,-12.6753,4.70485,-67.4221,62.9962,-8.83191,-22.2553,-20.8938,7.12502,4.1622,-50.8329,-2.45002e-14,9.54166e-15,-15.1,-6.90812,63.8764,61.8694,-3.02028,-10.4445,-11.8074,7.12502,15.5556,17.5869,-23.8447,2.33854,10.309,54.7792,-8.10599,-14.5791,8.62918,-1.40941,4.44996,-17.2418,24.6751,-21.2881,5.76054,6.15677
11.1354,17.6994,13.6797,165.279,-82.9455,-164.197,8.02847,2.13284,-1.52674,2.04946,2.70945,2.23135,-2.5562,1.33093,2.8898,-6.95377,-5.59387,-6.69584,-5.63151,-7.00629,9.66036,0.0499589,-3.47047,4.17148,-7.00716e-15,-4.77083e-15,-12.1165,4.69426,-66.9872,64.2153,-8.62008,-22.2866,-21.6709,7.12502,4.13199,-51.6105,-7.00716e-15,-4.77083e-15,-14.0649,-6.42151,63.4218,62.9067,1.40319,-9.10733,-10.2246,7.12502,16.8431,19.065,-24.2941,2.03644,10.4099,54.6826,-8.3893,-14.6081,8.36677,-1.21346,4.45944,-17.2964,24.6179,-21.4066,5.80779,6.30516
11.1043,17.6868,13.6885,165.216,-82.6671,-164.101,7.95362,2.17082,-1.35975,2.08127,2.77174,2.19889,-2.47624,1.35968,2.75871,-6.97937,-5.51563,-6.15213,-5.6383,-6.94001,9.29177,0.00822909,-3.44649,3.9386,1.1281e-14,-1.94809e-14,-10.5181,4.80285,-66.4697,64.5828,-8.99165,-22.2385,-22.2048,7.12502,4.17845,-52.1436,1.1281e-14,-1.94809e-14,-12.8878,-5.72193,62.9205,63.9266,6.3136,-7.53677,-8.79486,7.12502,18.3545,20.3592,-24.8215,1.77511,10.6504,54.4307,-8.22056,-14.9298,6.27689,-1.17291,4.2921,-17.3138,24.8226,-21.7991,6.12932,6.43747
11.0642,17.6845,13.6969,166.049,-82.7629,-164.99,7.92526,2.06028,-1.39779,2.10386,2.6202,2.14552,-2.42729,1.28372,2.74196,-6.79534,-5.3488,-5.53264,-5.66227,-6.76548,9.01911,-0.0814088,-3.37409,3.73793,-1.14301e-14,2.38542e-15,-10.0406,4.65049,-65.9785,65.5946,-9.15609,-21.9704,-21.685,7.12502,4.43737,-51.6185,-1.14301e-14,2.38542e-15,-11.9395,-4.59833,62.5162,64.9935,11.2108,-6.2685,-7.72263,7.12502,19.5742,21.312,-25.1236,0.98181,10.6292,54.0799,-8.13828,-14.8779,4.08974,-0.863147,3.87364,-17.558,24.6434,-21.891,6.46506,5.82633
11.0454,17.6748,13.6946,165.116,-81.4468,-163.682,7.80107,2.373,-1.03625,1.94444,3.07227,2.22824,-2.53564,1.51072,2.57862,-6.49405,-5.27997,-5.28047,-5.90777,-6.68985,9.13414,-0.223546,-3.35321,3.74666,5.36719e-15,1.55052e-14,-8.83211,5.17647,-65.2261,66.0184,-9.75742,-22.3852,-21.378,7.12502,4.0368,-51.3195,5.36719e-15,1.55052e-14,-11.0325,-3.33187,62.1115,66.047,15.9138,-5.30467,-6.679,7.12502,20.5007,22.2586,-26.3594,1.62707,11.3463,53.6231,-8.44758,-14.5011,5.80316,-1.03489,4.38432,-17.1093,24.7247,-22.0388,7.17956,5.20402
10.9853,17.6651,13.6883,169.729,-82.5767,-168.85,8.02891,2.05935,-1.80963,2.14666,2.57881,1.87626,-2.44356,1.26497,2.69646,-6.61085,-5.48447,-6.10207,-6.09793,-6.89947,9.66875,-0.194293,-3.44714,4.08364,1.78906e-15,1.23246e-14,-7.76801,4.98713,-64.7737,66.5741,-9.89798,-23.2903,-21.42,7.12502,3.16279,-51.3763,1.78906e-15,1.23246e-14,-9.90745,-2.02486,61.7587,67.0432,20.3473,-4.48322,-5.32032,7.12502,21.2899,23.5303,-25.8294,0.209753,10.3501,53.0626,-9.29,-13.8851,7.71452,-0.341164,3.92482,-18.0872,24.7127,-22.1914,6.81593,5.10011
10.9662,17.6575,13.692,165.487,-81.6085,-164.328,8.04736,2.20752,-1.07454,2.05518,2.84019,2.09617,-2.54034,1.39267,2.48101,-6.72009,-5.5484,-6.37368,-6.2218,-6.96147,9.60721,-0.202591,-3.47296,4.11097,-1.51076e-14,6.36111e-15,-6.53527,4.79655,-64.3464,67.051,-10.0025,-23.1817,-22.0122,7.12502,3.26764,-51.9669,-1.51076e-14,6.36111e-15,-8.95255,-0.401497,61.7016,68.0212,24.4002,-4.25534,-3.85444,7.12502,21.5087,24.9713,-26.7235,0.884601,11.4721,52.3137,-9.03166,-14.1933,7.04159,-0.471121,3.9501,-17.3169,24.8275,-22.5509,7.4213,5.71701
10.9271,17.6458,13.6936,164.23,-81.2884,-163.109,8.14105,2.17867,-0.929176,2.0533,2.81468,2.23151,-2.59281,1.37847,2.53894,-6.71497,-5.45551,-6.3916,-6.17078,-6.83884,9.50287,-0.201208,-3.4096,4.08181,-9.93923e-17,-1.51076e-14,-5.31915,4.83402,-63.8573,67.5746,-10.3254,-20.953,-22.6241,7.12502,5.41977,-52.5348,-9.93923e-17,-1.51076e-14,-8.1102,0.963415,61.6196,68.9386,28.3993,-4.87481,-2.80698,7.12502,20.9137,26.0856,-27.0553,0.830462,11.9112,51.4666,-8.86936,-14.2646,5.96065,-0.178231,3.68259,-17.1185,24.772,-22.8229,7.75319,6.29751
10.878,17.6383,13.6889,165.053,-80.966,-163.906,8.09116,2.22154,-0.924233,2.00879,2.87291,2.15764,-2.61017,1.40881,2.45425,-6.53631,-5.22033,-5.31563,-6.07444,-6.60569,9.02461,-0.279909,-3.31416,3.72052,1.88845e-14,6.75868e-15,-4.48222,4.79929,-63.4438,68.4118,-10.9281,-19.7958,-21.1777,7.12502,6.53699,-51.0568,1.88845e-14,6.75868e-15,-7.2082,2.0136,61.4489,69.8952,32.1291,-5.5738,-1.74869,7.12502,20.242,27.2166,-27.4633,0.46793,12.0399,50.5481,-8.92023,-13.8745,5.20425,-0.030118,3.73984,-17.1896,24.9028,-23.1854,7.76753,7.20881
10.8285,17.6249,13.6636,168.845,-80.2246,-167.445,7.64363,2.44503,-1.62128,1.96524,3.12129,2.05028,-2.45039,1.5386,2.72442,-6.54194,-5.41971,-6.23599,-6.29261,-6.80377,9.59242,-0.276127,-3.40248,4.09268,-1.51573e-14,3.57812e-15,-3.48838,4.71339,-63.0201,69.2027,-11.5809,-18.884,-19.8432,7.12502,7.41708,-49.6931,-1.51573e-14,3.57812e-15,-6.28466,3.22927,61.4351,70.8607,35.5094,-6.37268,-0.369303,7.12502,19.4741,28.6755,-28.3429,0.55828,11.8445,49.6507,-8.78836,-13.3806,4.13754,-0.0117658,4.39842,-17.5945,24.8784,-23.4281,7.87997,7.51826
10.782,17.5985,13.6607,172.477,-80.2505,-171.456,7.93554,2.35828,-2.20351,2.07837,2.94696,1.79775,-2.50041,1.45264,2.79954,-6.84158,-5.26959,-5.71827,-5.86279,-6.64411,9.68787,-0.11272,-3.32098,4.01534,-2.36554e-14,-2.24627e-14,-2.2442,4.53531,-62.881,69.8307,-12.1033,-18.1466,-19.1915,7.12502,8.12884,-49.0152,-2.36554e-14,-2.24627e-14,-5.28842,4.35006,61.2209,71.607,38.7693,-7.83807,0.689901,7.12502,18.0646,29.871,-28.4229,0.283619,11.1714,48.7136,-8.80756,-12.9392,3.36382,0.665174,4.29146,-18.3888,24.6667,-23.5322,8.1897,7.30751
10.7378,17.5787,13.6479,172.305,-79.9732,-171.288,8.01461,2.27892,-2.12416,2.0272,2.845,1.69544,-2.58142,1.40331,2.6558,-6.6713,-5.38008,-6.30286,-6.3008,-6.74347,9.9981,-0.24164,-3.37431,4.24831,-2.28851e-14,-2.78299e-15,-1.18799,4.44806,-63.032,70.5477,-12.8056,-17.7925,-19.1249,7.12502,8.4706,-48.9351,-2.28851e-14,-2.78299e-15,-4.31141,5.46476,60.9312,72.2354,41.6129,-9.62177,1.43926,7.12502,16.3478,30.7703,-28.8647,0.364931,11.3943,47.7082,-8.91869,-12.7658,3.0543,1.01905,4.45329,-18.2862,24.4509,-23.6025,8.35455,6.88788
10.6838,17.5723,13.6473,173.571,-79.6556,-172.623,8.04588,2.30262,-2.299,2.02847,2.86101,1.66666,-2.60542,1.41248,2.72143,-6.39489,-5.11146,-5.4969,-6.5051,-6.44136,9.37987,-0.436315,-3.24608,3.89859,1.40889e-14,2.00773e-14,-0.17015,4.49327,-62.7044,71.3746,-14.0195,-17.8832,-19.5354,7.12502,8.3831,-49.3491,1.40889e-14,2.00773e-14,-3.27103,6.69777,61.2308,72.9039,43.9564,-11.455,2.25748,7.12502,14.5821,31.7249,-29.1692,0.166809,11.3206,46.5399,-8.8386,-12.3674,1.72738,1.37464,4.56734,-18.5716,24.3684,-23.8146,8.6659,6.44304
10.6285,17.5586,13.6331,174.899,-79.3734,-173.907,7.90371,2.37759,-2.72146,2.03448,2.93284,1.74414,-2.54991,1.45038,3.03688,-6.72411,-5.13659,-6.21184,-6.1892,-6.42827,9.54673,-0.245389,-3.21149,4.07948,-9.39258e-15,-1.8487e-14,0.936724,4.00804,-62.1796,71.9454,-14.4283,-16.6785,-19.3328,7.12502,9.54551,-49.0966,-9.39258e-15,-1.8487e-14,-2.09545,7.66145,61.6656,73.4757,45.9392,-13.5093,3.05458,7.12502,12.6022,32.6545,-29.5424,0.268135,11.2295,45.285,-8.79122,-12.2223,0.880235,1.59875,4.75335,-18.7942,24.3397,-24.0403,8.91273,6.35163
10.5849,17.5445,13.6212,174.642,-78.6006,-173.088,7.46844,2.49371,-2.57774,1.85633,3.11597,1.75761,-2.49927,1.5459,2.96343,-6.73247,-5.1204,-6.41045,-6.33392,-6.38987,9.60024,-0.285232,-3.19183,4.14123,2.76311e-14,7.95139e-15,2.12174,3.49873,-61.9508,72.3719,-14.8918,-15.6934,-19.2474,7.12502,10.4959,-48.9653,2.76311e-14,7.95139e-15,-0.940299,8.39583,61.739,74.0347,47.7324,-15.7473,3.90792,7.12502,10.4439,33.6285,-30.5818,0.796926,11.6443,43.8865,-8.62761,-12.1143,0.191574,1.29833,5.05478,-18.6485,24.2629,-24.1454,9.56699,5.87419
10.5291,17.5347,13.6129,175.884,-78.2554,-174.248,7.4089,2.52635,-2.75626,1.83442,3.14672,1.67876,-2.49605,1.56304,2.98073,-6.57336,-5.01088,-6.19695,-6.60481,-6.25652,9.47891,-0.424981,-3.13819,4.07216,2.95692e-14,5.1684e-15,3.4651,3.06753,-61.6129,72.6133,-15.1083,-15.2661,-19.4761,7.12502,10.9081,-49.1727,2.95692e-14,5.1684e-15,0.25774,9.04822,61.9517,74.6985,49.4347,-18.0878,4.82113,7.12502,8.18563,34.6426,-30.9904,0.619578,11.6328,42.4244,-8.37658,-11.8739,-2.16896,1.44155,5.05759,-18.9608,24.2734,-24.4593,9.90071,5.35357
10.4721,17.5295,13.6042,175.32,-78.0722,-173.742,7.60319,2.53409,-2.62899,1.83149,3.16283,1.76998,-2.60668,1.5711,2.99416,-6.91177,-4.90326,-5.99334,-6.18617,-6.12909,9.37673,-0.251179,-3.06373,3.98368,4.33848e-14,1.63003e-14,4.72508,2.58223,-61.2705,72.9892,-15.1326,-15.0242,-20.1779,7.12502,11.1414,-49.8621,4.33848e-14,1.63003e-14,1.48519,9.60053,62.3134,75.2691,50.6975,-20.3189,5.47541,7.12502,6.03198,35.3695,-31.1253,0.275284,11.9882,40.8585,-8.00601,-11.7806,-4.465,1.78828,4.85498,-18.9043,24.2131,-24.7453,10.2291,5.01325
10.4078,17.5154,13.5911,174.176,-78.0631,-172.506,7.54432,2.3345,-2.26787,1.75409,2.92858,1.7903,-2.62005,1.45398,2.83722,-6.88502,-4.8124,-6.15031,-6.22696,-5.99788,9.35137,-0.275733,-2.9962,4.01176,-2.31087e-14,-3.18055e-15,5.87733,2.33591,-61.2764,73.5188,-15.4683,-14.7083,-20.8513,7.12502,11.446,-50.5188,-2.31087e-14,-3.18055e-15,2.4749,10.141,62.1668,75.7748,51.6474,-22.4925,6.0452,7.12502,3.93323,35.9886,-31.3299,0.346285,12.3231,39.31,-8.26922,-11.964,-3.22764,2.10872,4.64452,-18.6806,23.9196,-24.7366,10.6897,4.18767
10.3322,17.5063,13.5734,175.667,-78.4516,-174.115,7.53666,2.03784,-2.48116,1.73147,2.51453,1.60308,-2.61158,1.24995,2.80558,-6.69215,-4.65638,-5.92236,-6.42161,-5.80701,9.24761,-0.39969,-2.9133,3.947,1.56791e-14,-4.17448e-15,7.07884,2.19986,-61.2443,73.9373,-16.0076,-14.6443,-21.4284,7.12502,11.5078,-51.0925,1.56791e-14,-4.17448e-15,3.51202,10.6512,61.9363,76.2427,52.7162,-24.5327,6.74894,7.12502,1.96291,36.7197,-31.1462,0.355463,11.8489,37.5692,-9.07267,-12.0104,1.49832,2.50745,4.46109,-19.0526,23.8553,-24.8872,10.7718,3.49119
10.2742,17.4946,13.5526,178.232,-78.4753,-176.936,7.91878,2.02233,-3.09095,1.7442,2.4308,1.46856,-2.82427,1.2145,3.00668,-6.71648,-4.64044,-6.04098,-6.55869,-5.77364,9.33229,-0.436091,-2.89776,4.00315,1.3741e-14,1.8487e-14,8.33118,1.90784,-60.8804,74.2609,-16.5812,-14.8967,-22.0787,7.12502,11.2643,-51.7562,1.3741e-14,1.8487e-14,4.82774,11.0505,62.247,76.6451,53.7381,-26.3892,7.28611,7.12502,0.169832,37.2658,-31.204,-0.0347361,11.3885,36.145,-9.20111,-11.4513,3.03305,3.26229,4.37734,-19.6507,23.2779,-24.7944,11.0878,2.91175
10.236,17.4952,13.5282,171.39,-77.7395,-169.443,7.87339,2.13597,-1.64379,1.50883,2.71742,1.9415,-3.02117,1.35184,2.64879,-6.77562,-4.66604,-6.24243,-6.63832,-5.79065,9.3921,-0.441884,-2.90299,4.06285,5.39203e-15,5.96354e-15,9.50321,1.63559,-60.3691,74.656,-17.4092,-15.3116,-22.6097,7.12502,10.8642,-52.3086,5.39203e-15,5.96354e-15,6.1461,11.3032,62.6913,77.0715,54.3255,-28.0747,7.58594,7.12502,-1.45803,37.5607,-32.1061,0.737662,13.3625,34.6362,-8.68217,-11.8982,0.57445,3.20915,4.39482,-17.8984,22.7176,-24.6177,11.5653,2.90973
10.1244,17.4651,13.5038,181.492,-78.8045,-180.5,8.10052,1.90397,-3.78055,1.80589,2.20548,1.35506,-2.86505,1.1062,3.29808,-6.93062,-4.64362,-6.28324,-6.51784,-5.75738,9.31783,-0.37979,-2.87972,4.03929,4.07012e-14,-1.11319e-14,10.6634,1.34187,-59.951,75.1305,-18.2497,-15.7825,-22.9875,7.12502,10.41,-52.7098,4.07012e-14,-1.11319e-14,7.49519,11.6267,63.0891,77.2824,53.9988,-29.1112,8.10962,7.12502,-2.45907,38.0752,-31.1483,-0.739528,10.8751,33.0956,-8.82438,-11.2986,-0.990571,4.6169,3.98331,-20.3845,22.2346,-24.5946,11.5915,1.69682
10.0517,17.4587,13.4886,180.708,-78.7726,-179.456,7.90835,1.79729,-3.47841,1.735,2.09903,1.40208,-2.81363,1.05258,3.19209,-7.21766,-4.57241,-6.39424,-6.33474,-5.65118,9.31529,-0.275674,-2.81611,4.05348,-2.70347e-14,-2.98177e-15,12.0102,1.11685,-59.7762,75.5917,-18.9382,-16.4115,-23.409,7.12502,9.80316,-53.1608,-2.70347e-14,-2.98177e-15,8.86195,12.063,63.3714,77.4234,53.3199,-29.9741,8.96608,7.12502,-3.29244,38.9204,-31.3345,-0.642012,11.0957,31.1445,-8.83452,-11.03,0.49227,4.64635,3.88144,-20.2119,22.2605,-24.7153,12.0378,0.768765
9.99132,17.4864,13.4682,172.415,-78.0646,-170.263,7.3991,1.76847,-1.62855,1.49986,2.23472,1.84566,-2.73274,1.11029,2.60549,-7.45257,-4.51045,-6.37948,-6.27839,-5.56547,9.3031,-0.224577,-2.76964,4.04302,5.25785e-14,8.54774e-15,13.4134,1.09428,-59.6046,75.9143,-19.7447,-17.5488,-23.6346,7.12502,8.70577,-53.435,5.25785e-14,8.54774e-15,10.1818,12.3289,63.3018,77.7341,53.2481,-31.0737,9.70144,7.12502,-4.35434,39.6367,-32.211,1.32671,12.9121,29.4955,-9.08481,-12.2068,2.86823,4.48074,3.94845,-18.1909,21.6557,-24.5981,12.4645,1.06599
9.93456,17.4875,13.4146,164.501,-77.5059,-161.726,7.18746,1.76002,-0.22348,1.32368,2.34311,2.43009,-2.7717,1.15279,2.41273,-7.52241,-4.46056,-6.01843,-6.35077,-5.52501,9.02178,-0.260609,-2.75695,3.87456,1.83876e-15,-6.16232e-15,14.5675,1.00503,-59.1272,76.2869,-20.7513,-18.8548,-23.8608,7.12502,7.44529,-53.7098,1.83876e-15,-6.16232e-15,11.6439,12.3521,63.3776,77.9333,53.2232,-31.784,10.1042,7.12502,-5.0402,40.0243,-32.5808,1.77852,15.2087,27.5643,-8.74797,-12.6676,1.93382,4.3384,4.08389,-15.8946,21.5443,-24.7268,12.378,1.27022
9.85134,17.47,13.375,171.116,-78.4705,-168.9,7.71859,1.6963,-2.06517,1.3384,2.11111,2.11813,-3.09673,1.06014,3.1369,-7.49874,-4.57616,-6.35613,-6.43746,-5.652,9.0518,-0.271039,-2.81452,3.94769,-3.2054e-14,-1.68967e-14,15.4198,0.978784,-58.3328,76.907,-21.8912,-20.7178,-24.4898,7.12502,5.64683,-54.3946,-3.2054e-14,-1.68967e-14,13.0337,12.1961,63.826,78.0019,52.6376,-32.0133,10.4252,7.12502,-5.26156,40.3399,-31.9738,0.810303,13.5891,25.8171,-8.45739,-12.5366,-0.330013,5.20987,3.62186,-17.6291,21.1299,-24.7851,12.4025,0.773999
9.76169,17.4568,13.3476,172.367,-78.8019,-170.132,7.44844,1.5594,-2.006,1.47903,1.92917,1.89262,-2.77777,0.962588,2.89621,-7.83022,-4.59987,-6.20226,-6.37481,-5.68758,9.19163,-0.189919,-2.83162,3.95668,-3.91109e-14,-7.35503e-15,16.7302,1.00362,-57.8265,77.4277,-22.9056,-23.0552,-26.3115,7.12502,3.38981,-56.2643,-3.91109e-14,-7.35503e-15,14.7046,12.1293,63.8473,78.1198,51.7528,-32.2454,10.9442,7.12502,-5.48568,40.8532,-31.9806,0.279644,13.3782,24.3346,-8.45173,-12.224,-0.576041,5.80989,3.38857,-17.9044,20.4928,-24.718,12.3878,0.669625
9.6798,17.4439,13.3202,176.898,-79.1248,-174.559,7.65029,1.53762,-2.98728,1.20092,1.82373,1.7696,-3.19766,0.933039,3.32568,-7.91679,-4.58451,-5.64942,-6.13736,-5.71609,8.71724,-0.130691,-2.8487,3.67619,-1.62506e-14,-8.54774e-15,17.6961,0.758657,-57.1424,77.5117,-21.3245,-23.3687,-26.0635,7.12502,3.08702,-56.0209,-1.62506e-14,-8.54774e-15,15.6664,11.7885,64.0271,78.4592,50.7704,-32.6192,11.3207,7.12502,-5.8466,41.22,-32.3417,1.08534,12.0328,23.2604,-8.84043,-12.9825,-1.80226,6.47454,3.00693,-18.8835,19.3477,-24.3079,12.6003,1.15416
9.59293,17.4432,13.2732,174.227,-79.1932,-171.897,7.81894,1.4589,-2.69436,1.15729,1.74347,1.94231,-3.3273,0.892488,3.34507,-8.26248,-4.74734,-6.38537,-6.20848,-5.8622,9.01697,-0.0470013,-2.90411,3.91,-7.40473e-15,1.45113e-14,18.8321,0.114036,-56.9801,77.6682,-18.645,-21.8732,-26.1168,7.12502,4.5312,-56.0484,-7.40473e-15,1.45113e-14,16.8553,11.5334,63.8828,78.6403,49.8084,-32.8742,10.9274,7.12502,-6.09278,40.8198,-32.1996,0.945068,12.7704,21.7527,-9.00232,-12.9639,-5.5888,7.19138,2.92181,-18.1922,18.6736,-24.1005,12.6951,0.844712
9.50323,17.4355,13.2394,177.344,-79.374,-174.6,7.37057,1.37728,-3.19376,1.0651,1.60529,1.75865,-3.16985,0.830577,3.45799,-8.61242,-4.74506,-6.27217,-6.12628,-5.86136,9.05947,0.0381905,-2.90039,3.89364,1.62506e-14,3.77691e-15,19.9711,-0.0810159,-56.5089,78.2099,-17.5333,-23.1259,-26.4973,7.12502,3.32153,-56.4512,1.62506e-14,3.77691e-15,18.365,11.3113,63.6994,78.5794,48.8948,-32.6597,10.2457,7.12502,-5.8857,40.144,-32.6834,0.830202,12.2371,20.4664,-9.20972,-12.9772,-6.37632,7.43156,3.14794,-18.6206,17.8063,-23.8021,12.3832,0.484946
9.41981,17.4249,13.1898,172.582,-79.4511,-169.658,7.37063,1.37211,-2.37395,1.02567,1.66891,2.00394,-3.20015,0.853523,3.24291,-8.61431,-4.85984,-6.21748,-6.40967,-6.01402,9.0053,-0.0456822,-2.98443,3.86144,-3.61291e-14,-9.93923e-15,21.143,-0.944806,-55.9793,77.9975,-14.9724,-21.8679,-24.8872,7.12502,4.53636,-54.8186,-3.61291e-14,-9.93923e-15,19.9513,10.7496,63.6471,78.605,48.2151,-32.2233,9.80891,7.12502,-5.46435,39.7185,-32.4571,2.99408,12.4669,18.8833,-9.47809,-14.7699,-5.14524,7.86057,3.47923,-17.3028,17.3934,-23.8096,11.7333,0.443162
9.30518,17.4084,13.1434,174.737,-80.1411,-171.936,7.16843,1.27427,-2.73065,1.20497,1.51019,1.91539,-2.89638,0.770437,3.37359,-8.9468,-4.97658,-6.23612,-6.49098,-6.15774,8.91991,-0.0061806,-3.0532,3.82162,9.93923e-17,8.15017e-15,22.8377,-2.42414,-55.6671,77.2278,-11.546,-20.3008,-22.4952,7.12502,6.0494,-52.3888,9.93923e-17,8.15017e-15,21.5355,10.1728,63.6271,78.8202,47.6658,-32.0067,9.50611,7.12502,-5.25524,39.4209,-32.2353,2.05745,12.1794,17.9128,-9.43524,-14.1229,-7.09012,8.74828,3.54586,-17.5402,16.521,-23.4358,11.2308,-0.254716
9.23485,17.3917,13.1044,171.297,-79.9503,-168.105,7.16133,1.29802,-2.03774,1.17756,1.59851,2.14995,-2.91579,0.807535,3.21697,-9.69028,-5.05078,-6.3579,-6.1474,-6.23067,8.96492,0.246595,-3.0698,3.83444,-1.08835e-14,-2.14687e-14,23.6733,-1.77707,-54.0649,78.7369,-13.3462,-22.5232,-22.5663,7.12502,3.9035,-52.5103,-1.08835e-14,-2.14687e-14,23.061,9.96745,63.3963,79.0377,47.3134,-31.7239,9.29887,7.12502,-4.98212,39.2203,-32.5253,2.67555,12.8976,16.6012,-8.78084,-14.4792,-9.47343,8.8909,3.31638,-16.7373,16.0657,-23.1876,11.5342,-0.567497
9.11373,17.3659,13.0617,178.863,-80.9179,-176.276,7.40686,1.04208,-3.31672,1.37619,1.14152,1.71769,-2.82983,0.58672,3.53433,-9.70129,-5.03111,-6.59217,-6.52526,-6.17546,9.00811,0.130273,-3.04637,3.90315,-2.73329e-14,1.59028e-15,25.3581,-2.01021,-53.2991,78.4563,-12.2231,-22.1527,-20.5005,7.12502,4.26133,-50.4376,-2.73329e-14,1.59028e-15,24.4856,9.73739,62.9236,79.1078,47.2239,-31.537,9.00214,7.12502,-4.80166,38.9277,-31.7663,1.21958,11.7268,15.8696,-8.7739,-13.4985,-11.6702,10.2423,2.95225,-18.1296,15.1897,-22.8939,11.3915,-1.44321
9.03326,17.3455,13.012,174.238,-80.642,-171.195,7.37705,1.04243,-2.49472,1.16786,1.21385,1.86563,-3.02157,0.622604,3.21506,-9.42514,-4.94455,-6.8529,-7.22959,-6.03605,8.92719,-0.154565,-2.99031,3.95018,-1.11568e-14,-1.78906e-15,26.7342,-2.71587,-53.1124,78.1483,-10.0448,-21.5435,-18.0313,7.12502,4.84959,-47.9558,-1.11568e-14,-1.78906e-15,25.8789,9.3511,62.2522,79.068,46.9762,-31.3797,8.63385,7.12502,-4.64981,38.5628,-32.3029,2.32436,12.549,15.3122,-8.95532,-13.8746,-12.0175,10.622,2.96581,-17.1072,14.3406,-22.6042,11.6465,-1.03668
8.92859,17.3193,12.9633,177.304,-81.2235,-174.166,7.22913,0.793827,-2.92437,1.14633,0.849048,1.63374,-2.93633,0.445126,3.25453,-9.73183,-5.05969,-7.16736,-7.3373,-6.14953,8.99922,-0.114061,-3.03915,4.02561,-1.77415e-14,1.63003e-14,27.8716,-2.51502,-52.504,79.0092,-10.0065,-22.8161,-20.7199,7.12502,3.62069,-50.6689,-1.77415e-14,1.63003e-14,27.1933,9.07397,61.4407,79.108,46.2857,-30.7512,8.19368,7.12502,-4.04289,38.1351,-32.5943,2.97349,11.6024,15.3635,-9.28229,-14.7485,-13.0831,11.5302,2.97272,-17.4122,12.9009,-22.2759,10.881,0.498127
8.81937,17.3004,12.9148,184.911,-81.8897,-181.946,7.31748,0.587517,-3.93441,1.17253,0.483103,1.25088,-2.93441,0.272092,3.46315,-10.088,-4.97216,-6.45679,-6.98271,-6.09727,8.89628,0.030389,-3.01857,3.83975,8.3738e-15,7.95139e-16,29.006,-2.63352,-51.6691,79.1266,-9.79849,-23.7721,-20.5084,7.12502,2.69747,-50.4711,8.3738e-15,7.95139e-16,28.5306,8.78405,60.6923,79.1473,45.3868,-30.1832,7.74418,7.12502,-3.49439,37.6953,-32.411,1.83986,10.6748,15.0428,-9.2914,-13.6634,-14.4847,12.3645,2.83678,-18.3943,12.067,-22.3016,10.0973,1.48242
8.71019,17.293,12.8646,186.006,-82.4726,-183.223,7.57439,0.446314,-3.92506,1.19214,0.28321,1.20184,-3.03933,0.173683,3.42669,-9.65976,-4.85526,-5.84643,-7.81304,-6.00904,8.47108,-0.359639,-3.01468,3.60305,-1.98785e-14,1.19271e-15,30.2897,-3.17787,-50.9453,79.0447,-8.69874,-23.1196,-20.458,7.12502,3.32763,-50.4117,-1.98785e-14,1.19271e-15,30.0099,8.41294,59.9843,79.0918,44.6971,-29.87,7.45526,7.12502,-3.19187,37.4111,-32.2035,1.63131,10.534,15.1733,-9.4735,-12.8895,-14.4862,13.5082,2.53606,-18.2938,10.8771,-21.7556,9.86312,0.532248
8.60418,17.2829,12.8142,182.076,-82.8633,-179.247,7.72863,0.246875,-3.31206,1.08756,0.0649964,1.26443,-3.21397,0.0643638,3.16823,-9.71364,-4.69528,-6.57735,-7.56746,-5.71598,9.23692,-0.240003,-2.84502,4.02101,8.82107e-15,4.37326e-15,31.5297,-3.06402,-49.9095,79.3613,-8.39146,-23.4185,-21.7291,7.12502,3.03893,-51.6872,8.82107e-15,4.37326e-15,31.2365,8.15784,58.8336,79.1035,43.9535,-29.3137,7.19903,7.12502,-2.65465,37.1623,-32.1181,2.59573,10.7636,15.3184,-8.7192,-12.8626,-15.7846,14.3635,2.06229,-17.5382,9.87222,-21.0219,10.2107,-1.60286
8.49837,17.2641,12.7545,181.022,-83.2602,-178.122,7.83303,0.0924969,-3.21796,0.945349,-0.134292,1.26412,-3.40414,-0.0289379,3.1368,-8.94734,-4.43527,-4.6204,-8.45755,-5.5733,8.07606,-0.773348,-2.85426,3.28433,-1.64743e-14,-4.96962e-16,32.8662,-3.6673,-49.2888,78.6026,-6.45914,-22.3227,-14.1713,7.12502,4.09719,-44.1117,-1.64743e-14,-4.96962e-16,32.4497,7.82837,57.6912,79.1155,42.7456,-28.7965,7.2233,7.12502,-2.15515,37.1922,-32.0351,3.28196,10.705,15.352,-6.65602,-12.4858,-18.965,14.9064,1.56304,-17.2174,9.3189,-20.4637,10.6339,-3.7154
8.39246,17.2428,12.6917,179.944,-83.6265,-176.994,8.00094,0.247434,-3.06193,0.870585,0.0852131,1.3955,-3.59278,0.0835199,3.1631,-9.19088,-4.72688,-5.58059,-8.34781,-5.86666,8.36667,-0.63702,-2.96744,3.54523,-1.635e-14,6.75868e-15,33.734,-3.89816,-47.456,79.3057,-7.4171,-23.4167,-18.6541,7.12502,3.04067,-48.6122,-1.635e-14,6.75868e-15,34.2639,7.02115,57.3733,79.0119,41.4037,-28.6364,7.35815,7.12502,-2.00052,37.3285,-31.9797,3.61074,10.8472,15.4817,-4.00924,-11.5061,-22.0678,15.4088,1.07838,-16.9061,8.93304,-20.0203,11.1037,-5.29035
8.28483,17.23,12.6282,179.279,-83.9663,-176.192,8.25861,0.358909,-2.85722,0.645486,0.249687,1.46038,-3.98314,0.173895,3.09806,-9.49743,-5.03593,-6.31562,-7.99898,-6.20001,8.61817,-0.412048,-3.10105,3.74295,3.72721e-15,-2.18663e-15,34.7934,-4.98007,-46.378,78.5299,-6.23603,-22.5566,-16.3632,7.12502,3.87129,-46.3078,3.72721e-15,-2.18663e-15,35.8577,6.29107,56.8863,78.895,40.3445,-27.9889,6.77846,7.12502,-1.37521,36.7538,-32.1106,3.88051,10.958,15.883,-2.00645,-10.3279,-23.736,15.9683,0.61995,-16.6163,8.22128,-19.8003,11.1655,-4.97641
8.17346,17.2253,12.5682,180.201,-84.3833,-176.996,8.0899,0.0619496,-3.58948,0.69186,-0.192983,1.86473,-3.80396,-0.0355045,3.98505,-9.91029,-4.81525,-6.37635,-7.90698,-5.89832,8.23938,-0.348133,-2.94159,3.62397,6.75868e-15,3.18055e-15,37.0045,-4.25166,-44.7837,79.1884,-7.33628,-23.079,-19.8337,7.12502,3.36683,-49.7869,6.75868e-15,3.18055e-15,36.8269,6.92419,55.9704,78.7565,38.6973,-27.0687,6.00254,7.12502,-0.486447,35.9817,-32.2919,3.71543,11.0328,16.4381,-0.960394,-9.23453,-23.2115,16.6661,0.101474,-16.5676,7.21729,-19.3935,11.2159,-4.89247
8.06446,17.2213,12.5129,182.645,-84.8074,-179.465,8.15407,-0.116605,-3.74908,0.73219,-0.450225,1.78818,-3.77265,-0.16277,4.02452,-10.097,-4.75309,-6.20589,-8.04731,-5.83024,8.12137,-0.377664,-2.91416,3.55168,3.77691e-15,-7.55382e-15,38.6287,-4.44162,-43.7757,79.0939,-7.29076,-23.0948,-19.4053,7.12502,3.35152,-49.3587,3.77691e-15,-7.55382e-15,38.2518,6.86684,54.6036,78.4164,36.3854,-26.8681,5.61648,7.12502,-0.292709,35.596,-32.3489,3.38778,10.981,17.0164,-0.706875,-8.43531,-18.2235,17.5461,-0.419846,-16.7326,6.15573,-18.455,11.6621,-7.19795
7.95308,17.2173,12.4589,182.385,-85.1051,-179.277,8.33963,-0.0795761,-3.03878,0.738212,-0.353439,1.48038,-3.88528,-0.12599,3.29129,-10.0947,-4.96748,-6.37866,-8.26565,-6.09171,8.41453,-0.412792,-3.04601,3.67888,1.25234e-14,-3.77691e-15,39.6064,-5.17804,-42.8032,78.9042,-6.90168,-22.8945,-19.6284,7.12502,3.54496,-49.5786,1.25234e-14,-3.77691e-15,40.1527,6.22313,53.337,77.9459,34.349,-26.8953,4.74341,7.12502,-0.318959,34.7229,-32.33,2.98227,11.3379,17.632,0.0366258,-7.48432,-15.1321,18.6266,-0.827988,-16.5999,4.91647,-17.9074,11.4414,-6.17257
7.82978,17.2099,12.4031,177.926,-85.377,-174.927,8.59553,-0.103349,-2.64442,0.639945,-0.358955,1.34845,-4.13334,-0.130091,2.93485,-9.96139,-4.88045,-5.28783,-8.4186,-6.09047,8.06192,-0.53478,-3.08024,3.35681,4.5472e-15,-1.59028e-15,40.6956,-5.67954,-42.1808,78.4086,-6.43728,-22.878,-19.3017,7.12502,3.56088,-49.2517,4.5472e-15,-1.59028e-15,41.662,5.71502,51.7437,77.528,32.3909,-26.8632,3.66813,7.12502,-0.287959,33.6477,-32.2646,2.19732,12.3372,18.3428,1.6874,-5.9374,-18.8764,20.1232,-1.23013,-16.1049,3.07976,-17.1195,11.0795,-4.34111
7.70712,17.204,12.3456,176.945,-85.6463,-173.96,8.60948,0.336917,-2.34491,0.799603,0.251033,1.30945,-4.01593,0.161521,2.65128,-10.6343,-5.38317,-5.1307,-8.42791,-6.76591,7.80843,-0.395129,-3.41377,3.19214,3.18055e-15,-1.25234e-14,41.2876,-7.21764,-40.3943,78.0179,-6.24239,-23.0916,-19.7153,7.12502,3.35461,-49.6687,3.18055e-15,-1.25234e-14,44.2867,4.73341,51.2544,77.0331,30.0107,-26.7796,2.99568,7.12502,-0.207235,32.9753,-32.367,1.65261,12.7972,19.0941,2.89229,-4.84338,-18.2974,22.1082,-1.61354,-15.9891,9.54166e-15,-14.8536,11.491,-6.58944
7.59197,17.2034,12.2817,178.067,-85.7252,-175.032,8.70309,-0.0564306,-2.70286,0.572722,-0.296667,1.53825,-4.26692,-0.0933113,3.16046,-10.179,-4.8891,-5.393,-8.42852,-6.09434,7.67811,-0.512625,-3.07434,3.23902,-6.4605e-15,-5.96354e-16,43.5504,-6.34684,-39.767,77.5364,-5.91793,-23.3825,-20.2216,7.12502,3.07372,-50.1792,-6.4605e-15,-5.96354e-16,44.3834,5.53851,49.5243,76.6208,27.5379,-26.5088,2.45553,7.12502,0.0543515,32.4353,-32.6029,1.58114,12.9422,19.9236,3.60608,-4.23577,-14.6227,22.4324,-1.79647,-15.9535,9.54166e-15,-14.164,11.7173,-7.45254
7.47398,17.206,12.2125,176.217,-85.7879,-173.257,8.9226,-0.117783,-2.6045,0.502145,-0.369047,1.64651,-4.45811,-0.125874,3.23025,-10.1533,-4.79906,-5.63897,-8.35503,-5.95077,7.66719,-0.495296,-2.99351,3.2867,-2.64632e-14,2.42517e-14,45.1111,-6.39618,-38.8365,76.9801,-5.40932,-23.4407,-21.0095,7.12502,3.01755,-50.9679,-2.64632e-14,2.42517e-14,45.4395,5.70755,48.2359,75.9353,24.7664,-26.1346,1.57004,7.12502,0.415771,31.5494,-32.6704,1.45966,13.4222,20.8199,4.37061,-3.3432,-15.6225,22.9185,-2.00878,-15.6351,-2.54444e-14,-13.7736,11.6291,-6.63089
7.35072,17.2172,12.1464,173.923,-86.0079,-171.046,9.0134,-0.114759,-2.40399,0.519839,-0.348023,1.6305,-4.49322,-0.119632,3.0983,-10.3245,-4.81731,-5.3611,-8.2664,-6.00311,7.44642,-0.451427,-3.02293,3.15088,-7.20594e-15,5.1684e-15,46.2917,-6.84035,-38.119,76.3573,-4.88648,-23.3399,-20.9939,7.12502,3.11488,-50.9509,-7.20594e-15,5.1684e-15,47.0121,5.59411,46.9052,75.1263,22.0927,-25.7523,0.0158268,7.12502,0.784968,29.9941,-32.6204,1.25825,13.8106,21.6667,4.69372,-3.39786,-11.9513,23.3546,-2.38133,-15.3214,7.31528e-14,-13.0207,11.9075,-8.54418
7.23173,17.2286,12.0841,168.912,-86.0319,-166.015,9.07774,-0.0350199,-1.92825,0.493345,-0.195373,1.61403,-4.56909,-0.0526709,2.79338,-10.4337,-4.81888,-5.19681,-8.16443,-6.01827,7.4309,-0.404828,-3.03109,3.10974,-1.75676e-14,1.59028e-15,47.466,-7.37623,-37.4071,75.6985,-4.48352,-23.8835,-18.188,7.12502,2.58988,-48.152,-1.75676e-14,1.59028e-15,48.7146,5.43842,45.4866,74.2794,19.3813,-25.6127,-1.52576,7.12502,0.919773,28.452,-32.683,1.09224,14.4806,22.4556,4.85777,-3.39464,-7.7035,23.6693,-2.58635,-14.814,-9.54166e-14,-12.0038,12.426,-11.8266
7.11532,17.2307,12.0207,163.319,-85.8332,-160.49,9.2694,-0.0875043,-1.38761,0.502177,-0.211933,1.64333,-4.66778,-0.0716787,2.52232,-10.5947,-4.65809,-5.26123,-8.01097,-5.79383,7.50732,-0.33765,-2.9126,3.15123,3.97569e-15,-1.2921e-14,49.1187,-7.61174,-36.7807,75.1407,-4.22458,-22.4823,-24.7951,7.12502,3.94307,-54.7384,3.97569e-15,-1.2921e-14,49.9704,5.7922,43.9028,73.3325,16.3105,-25.46,-2.92068,7.12502,1.06729,27.0564,-32.6761,0.790535,15.4819,23.1288,5.38279,-2.34389,-11.2889,24.1081,-2.63359,-14.2078,3.18055e-15,-11.1674,12.7368,-12.4964
6.99432,17.234,11.9515,159.276,-85.7257,-156.689,9.56812,-0.00756348,-1.04401,0.546963,-0.0743577,1.62125,-4.79607,-0.0113517,2.28917,-10.8643,-4.65441,-4.87743,-7.75748,-5.82906,7.24257,-0.230192,-2.93138,2.9776,1.46107e-14,-1.59028e-15,50.278,-8.06758,-36.1686,74.5044,-4.06269,-22.5285,-25.3073,7.12502,3.89841,-55.2513,1.46107e-14,-1.59028e-15,51.4632,5.85191,42.6149,72.2862,13.205,-25.1518,-4.42262,7.12502,1.36495,25.5528,-32.3603,0.515298,16.2705,23.6533,5.57536,-1.86571,-12.3252,22.5305,-2.74994,-13.6911,4.30351,-12.5711,12.9077,-12.3761
6.87353,17.2467,11.8866,153.124,-85.6787,-150.681,9.75053,0.180979,-0.511513,0.579914,0.231023,1.60296,-4.87581,0.127114,1.92844,-11.246,-4.6733,-4.2624,-7.22773,-5.91921,6.90847,-0.0227236,-2.97442,2.7307,1.67476e-14,-4.17448e-15,51.0532,-8.78014,-35.5356,73.7312,-4.01406,-23.3358,-17.1884,7.12502,3.11884,-47.1453,1.67476e-14,-4.17448e-15,53.318,5.59487,41.5141,71.2792,10.2182,-25.1187,-5.37015,7.12502,1.39694,24.605,-31.9824,1.35156,16.6761,24.1123,5.59882,-2.90219,-10.2131,21.7543,-3.01162,-13.081,6.81837,-12.5728,13.091,-14.4578
6.75478,17.269,11.8294,146.57,-85.6693,-144.109,9.6992,0.0218997,-0.185102,0.549793,0.0656146,1.86808,-4.87242,0.0398646,2.04397,-10.8456,-4.42548,-3.98016,-7.58443,-5.63438,6.2462,-0.253835,-2.85137,2.4851,9.31803e-15,-1.70955e-14,52.7036,-8.76688,-34.9532,72.8649,-4.24505,-23.493,-21.4171,7.12502,2.96703,-51.3762,9.31803e-15,-1.70955e-14,54.2034,6.04575,40.2978,70.2616,7.36345,-25.1383,-6.08639,7.12502,1.378,23.8889,-31.8988,0.199304,17.7154,24.66,5.25781,-1.85896,-6.27061,21.231,-3.35575,-12.4879,8.35987,-11.5582,13.3713,-17.0067
6.63623,17.2989,11.7648,144.68,-85.8442,-142.248,9.67678,-0.0615561,-0.402186,0.534711,-0.059756,2.09412,-4.87088,-0.0156591,2.42029,-10.5448,-4.28646,-4.0794,-7.7006,-5.44746,5.93736,-0.358227,-2.75902,2.41643,-1.26228e-14,5.36719e-15,54.2962,-8.81652,-34.344,71.8317,-4.1374,-23.183,-20.0681,7.12502,3.26639,-50.0228,-1.26228e-14,5.36719e-15,55.1312,6.5303,39.2051,69.0807,4.61169,-25.2745,-7.15111,7.12502,1.24649,22.825,-31.5806,2.13479,17.1683,25.1923,4.97982,-4.13763,0.553053,20.7384,-3.67307,-12.3501,9.79635,-10.7379,13.5958,-18.1375
6.51344,17.3264,11.6917,146.533,-86.2548,-144.231,9.81595,-0.0681425,-0.724155,0.513958,-0.105728,1.9965,-4.96818,-0.0302572,2.50797,-10.5868,-4.30652,-4.22992,-7.43447,-5.45371,5.98616,-0.259234,-2.75117,2.45434,7.45443e-17,1.05356e-14,55.5752,-8.99547,-34.2482,70.5761,-3.11,-22.7893,-18.8362,7.12502,3.64662,-48.7847,7.45443e-17,1.05356e-14,56.2783,6.72035,37.8396,67.9407,1.77937,-26.2432,-7.97456,7.12502,0.310814,22.005,-31.2015,1.79956,17.0354,25.6144,4.66781,-4.1117,4.85904,20.2495,-4.02887,-12.607,11.4116,-10.7028,13.469,-16.1979
6.39339,17.3419,11.6223,144.269,-86.5365,-142.081,9.95287,-0.183505,-0.738278,0.495672,-0.262622,1.93667,-5.05654,-0.106769,2.47694,-10.818,-4.18364,-4.06386,-7.01057,-5.30535,5.80742,-0.103466,-2.67026,2.3604,-1.08338e-14,-6.36111e-15,57.0324,-9.06961,-34.3617,69.435,-2.07843,-22.5124,-19.8626,7.12502,3.91397,-49.8064,-1.08338e-14,-6.36111e-15,57.1895,6.95851,36.4514,66.8956,-0.741284,-27.5036,-8.44557,7.12502,-0.906476,21.5322,-30.7978,1.37091,17.3618,25.9488,4.62396,-3.80825,3.25416,19.6815,-4.2075,-12.4029,13.0673,-9.92709,13.2773,-18.7721
6.28074,17.3628,11.5587,134.569,-86.3705,-132.447,10.0349,-0.315962,-0.448172,0.553559,-0.39307,2.35482,-5.03499,-0.177437,2.77043,-11.2302,-3.99779,-4.35463,-6.51938,-5.02157,5.48479,0.106001,-2.51055,2.30455,-2.18663e-15,-1.78906e-15,58.8576,-9.18245,-33.9011,68.569,-1.30782,-21.5388,-21.8523,7.12502,4.85411,-51.7767,-2.18663e-15,-1.78906e-15,58.0079,7.58104,35.7312,65.7125,-2.27163,-27.842,-9.27101,7.12502,-1.23332,20.7052,-30.3103,2.15436,18.0304,26.1963,4.59025,-4.51634,0.570241,18.9748,-4.1337,-11.4507,14.7788,-9.25292,13.0631,-19.3012
6.16765,17.3952,11.4993,127.064,-86.3021,-125.012,10.1155,-0.417637,-0.247527,0.65365,-0.497415,2.71762,-4.9688,-0.235029,3.0528,-11.7897,-3.90036,-4.81272,-5.98874,-4.82532,5.27384,0.366619,-2.39216,2.31225,2.13694e-15,3.10104e-14,60.5862,-9.34572,-33.3072,66.6983,-2.6769,-23.8425,-17.2888,7.12502,2.62943,-47.2523,2.13694e-15,3.10104e-14,59.0497,8.31172,35.3034,64.346,-2.81794,-27.303,-10.6842,7.12502,-0.712706,19.2944,-29.7391,1.95626,18.6764,26.2725,4.31353,-4.42287,0.768109,18.1267,-4.19408,-10.8262,16.7405,-8.41686,13.0928,-19.0633
6.05396,17.4359,11.4405,124.795,-86.6791,-122.803,10.4164,-0.44818,-0.0778641,0.510212,-0.518393,2.47813,-5.29004,-0.245576,2.7157,-12.1207,-3.99752,-4.91581,-5.27059,-4.9255,5.42598,0.669488,-2.42335,2.36619,-2.43511e-15,-3.97569e-16,61.5149,-9.46031,-33.214,65.8348,-2.35198,-23.7555,-18.861,7.12502,2.71353,-48.8234,-2.43511e-15,-3.97569e-16,60.3036,8.41293,34.6139,63.0596,-2.6362,-26.5593,-12.4517,7.12502,0.00558474,17.5281,-29.2355,0.0449627,19.1539,26.1924,4.10036,-2.51836,-1.0389,17.2234,-4.30021,-10.8768,18.7178,-7.87844,12.9011,-17.2901
5.94499,17.4707,11.378,118.726,-86.6812,-116.793,10.3154,-0.608469,-0.265867,0.720157,-0.751282,2.81326,-4.9957,-0.360864,3.20305,-12.8936,-3.90787,-5.12643,-4.67352,-4.75643,5.26871,0.98823,-2.32492,2.34759,2.16178e-14,-2.66371e-14,63.5176,-9.49611,-33.0541,64.91,-2.34863,-24.1942,-19.8042,7.12502,2.2898,-49.7716,2.16178e-14,-2.66371e-14,61.1109,9.30045,34.2531,61.875,-1.93031,-26.3778,-13.6802,7.12502,0.180866,16.2995,-28.6167,0.483737,19.4357,26.1231,4.05259,-3.00391,-3.52126,16.3718,-4.25404,-10.3643,20.5832,-7.40714,12.4229,-14.4357
5.83631,17.5041,11.3158,109.819,-86.3061,-107.944,10.3208,-0.750007,0.186835,0.876335,-0.888806,3.07011,-4.83013,-0.443324,3.23374,-13.6432,-3.86654,-5.23391,-4.01208,-4.65999,5.1286,1.32913,-2.26441,2.31494,-6.95746e-16,-9.93923e-15,65.2517,-9.7106,-32.9616,63.6636,-2.57201,-25.2296,-19.6995,7.12502,1.28979,-49.6754,-6.95746e-16,-9.93923e-15,62.1789,9.94075,33.862,60.7331,-0.191062,-26.3352,-14.027,7.12502,0.222021,15.9526,-27.9711,0.557849,20.2112,26.0012,3.80592,-3.46368,-3.23208,15.5075,-4.12828,-9.36741,22.4208,-6.79563,12.0032,-10.5638
5.73117,17.5415,11.2564,104.811,-86.2631,-102.972,10.4133,-0.835373,0.403696,0.927777,-0.978876,3.08335,-4.82637,-0.493655,3.13907,-14.2267,-3.80738,-5.19434,-3.29347,-4.5632,5.02289,1.66095,-2.20504,2.271,-1.80397e-14,2.3059e-14,66.4233,-9.89745,-32.8123,62.5661,-3.3721,-27.0936,-18.5395,7.12502,-0.510538,-48.5186,-1.80397e-14,2.3059e-14,63.395,10.5143,33.6561,59.4903,2.51906,-25.0939,-14.8947,7.12502,1.42092,15.0803,-27.3668,0.190059,20.6795,25.712,3.81162,-3.36323,-4.22911,14.5677,-4.18085,-8.9988,24.2602,-6.03006,11.9582,-5.39598
5.63208,17.5837,11.1999,101.987,-86.266,-100.191,10.7172,-0.805927,0.510772,0.835028,-0.915995,3.11415,-5.09787,-0.461828,3.11186,-14.4037,-3.82015,-5.17825,-2.79213,-4.56832,4.87059,1.85519,-2.20264,2.21439,9.64106e-15,-2.10712e-14,67.1596,-9.97212,-32.2658,61.5855,-4.56371,-29.2816,-15.8103,7.12502,-2.62371,-45.7739,9.64106e-15,-2.10712e-14,64.3583,10.6717,33.3207,58.4645,4.30045,-26.5082,-14.0805,7.12502,0.0549331,15.8993,-26.7718,-0.471513,21.1157,25.3754,3.63396,-3.00259,-4.12371,13.6702,-4.26471,-8.84689,26.0238,-4.96231,12.1048,-1.05028
5.53258,17.6286,11.152,97.3161,-86.03,-95.5272,10.8779,-0.795767,0.949195,0.801526,-0.842178,3.23902,-5.23108,-0.434822,2.98933,-14.4943,-3.87102,-5.2279,-2.51968,-4.61631,4.69052,1.96077,-2.22644,2.15866,-5.31749e-15,3.85642e-14,68.0709,-10.2853,-31.6238,60.7238,-4.59747,-29.5775,-15.3721,7.12502,-2.9094,-45.332,-5.31749e-15,3.85642e-14,65.4897,10.9984,33.697,57.401,7.32856,-26.0087,-14.1253,7.12502,0.53738,15.8538,-26.1163,-0.394689,21.4917,25.0387,3.28344,-3.57535,-1.66041,12.7013,-4.12914,-8.32631,27.7765,-3.52979,11.9578,0.0050493
5.43227,17.6699,11.105,92.4732,-86.1618,-90.6523,10.8012,-0.80877,0.97468,0.867261,-0.861963,3.23235,-5.11868,-0.446535,2.96742,-14.6461,-3.84065,-4.99969,-2.26661,-4.59546,4.35096,2.05223,-2.22289,2.00296,2.57426e-14,-4.17448e-14,69.3156,-10.5559,-32.0301,59.0685,-4.25557,-30.2129,-15.2493,7.12502,-3.52305,-45.1999,2.57426e-14,-4.17448e-14,66.7424,11.413,34.127,56.2366,10.422,-25.7021,-13.9961,7.12502,0.833439,15.982,-25.4948,-0.792013,21.5215,24.6121,3.03278,-3.52841,-0.196189,11.628,-3.90192,-8.17542,29.5513,-2.1235,11.5106,0.476649
5.33751,17.7066,11.0512,88.6782,-86.4059,-86.858,10.8739,-0.730226,0.710638,0.860732,-0.786857,3.19271,-5.16648,-0.402653,3.06573,-14.596,-3.81822,-4.89491,-2.0218,-4.57533,4.19448,2.11625,-2.21427,1.93335,-4.37326e-15,-5.56597e-15,70.1435,-10.86,-31.5413,58.4845,-4.76869,-30.4321,-17.5833,7.12502,-3.73472,-47.5303,-4.37326e-15,-5.56597e-15,67.9961,11.6827,34.6462,55.1015,12.9852,-26.145,-13.6487,7.12502,0.405699,16.3306,-24.7664,0.388539,21.1251,24.1306,3.15092,-4.84694,-0.63508,10.6024,-3.95452,-8.31667,31.3179,-1.51087,11.5621,4.93428
5.24702,17.7428,11.0022,84.6485,-86.1923,-82.8019,11.0271,-0.653881,1.02859,0.834623,-0.643032,3.17069,-5.28999,-0.338572,2.84486,-14.5842,-3.84582,-4.81573,-1.80568,-4.62259,4.22529,2.18862,-2.23358,1.92591,2.83268e-15,4.49253e-14,71.6344,-11.1529,-32.4202,56.0633,-4.19018,-32.2141,-15.8217,7.12502,-5.45541,-45.7315,2.83268e-15,4.49253e-14,69.4271,11.893,35.3715,53.9137,15.1237,-26.7117,-13.6166,7.12502,-0.141677,16.3631,-24.2201,-0.801768,21.7703,23.6487,3.08193,-3.70094,-3.41703,9.53201,-3.89825,-7.93682,33.0602,-1.11478,11.7861,10.1005
5.16213,17.7755,10.9569,82.4715,-86.143,-80.6254,11.2499,-0.653032,1.19051,0.776928,-0.616291,3.07374,-5.47904,-0.328325,2.65298,-14.3327,-3.73207,-4.47659,-1.77403,-4.52973,4.1385,2.13549,-2.19091,1.84464,6.5102e-15,-3.26007e-14,73.2297,-11.1883,-33.5511,53.8623,-3.64993,-32.2267,-16.0785,7.12502,-5.46764,-45.9879,6.5102e-15,-3.26007e-14,70.5319,12.1684,35.7812,52.585,16.5104,-28.1446,-13.5418,7.12502,-1.52555,16.4325,-23.5869,-1.00577,22.0287,23.078,3.2047,-3.58751,-4.76671,8.5288,-3.53866,-7.70566,34.7654,-0.413354,11.9254,13.389
5.07992,17.8132,10.9126,80.8202,-86.2268,-79.04,11.5619,-0.644075,1.13012,0.738518,-0.60063,3.09165,-5.69396,-0.318027,2.71132,-14.1886,-3.63594,-4.60268,-1.64502,-4.38461,4.16414,2.15188,-2.11586,1.88731,-9.79014e-15,-1.07344e-14,74.7011,-11.0719,-34.419,52.2312,-3.19553,-32.0855,-16.3059,7.12502,-5.33133,-46.2189,-9.79014e-15,-1.07344e-14,71.4224,12.5514,36.4275,51.3349,17.2748,-29.5618,-12.4666,7.12502,-2.89423,17.4935,-22.8655,-1.00564,22.0632,22.4926,3.04146,-3.99329,-2.09661,7.6932,-3.60142,-7.87349,36.3463,0.164385,12.4256,15.3021
4.99817,17.8483,10.874,76.1122,-86.2265,-74.3717,11.8217,-0.575777,1.3279,0.769348,-0.478716,3.09719,-5.81298,-0.263789,2.59034,-14.3198,-3.7394,-4.8857,-1.39995,-4.46763,4.12239,2.2705,-2.15406,1.91762,-3.27995e-15,-1.07344e-14,75.7236,-11.3492,-34.8082,50.9927,-2.92157,-32.7449,-16.4495,7.12502,-5.9679,-46.3455,-3.27995e-15,-1.07344e-14,72.7701,12.7959,37.5751,50.1774,18.0124,-30.1473,-11.0996,7.12502,-3.45969,18.8521,-22.2038,-1.35547,22.1691,21.9572,2.89352,-4.09388,-2.05514,6.79113,-3.72412,-7.95012,37.7955,0.59741,12.7058,17.0038
4.91981,17.8793,10.8315,70.8764,-86.3424,-69.0637,12.0128,-0.526774,1.36227,0.736207,-0.407713,2.93092,-5.95862,-0.229723,2.3875,-14.0935,-3.8012,-4.61158,-1.43241,-4.59614,4.02916,2.21193,-2.22207,1.83028,9.64106e-15,9.14409e-15,76.6752,-11.641,-35.4852,49.7439,-2.58638,-32.8442,-16.4292,7.12502,-6.06376,-46.3224,9.64106e-15,9.14409e-15,74.294,12.9765,38.6434,48.7623,18.6575,-30.3709,-11.1164,7.12502,-3.67561,18.8316,-21.6868,-1.51384,22.082,21.4325,3.10214,-3.9863,-4.6132,5.77342,-3.55278,-8.03231,39.1156,0.769337,12.6698,18.2908
4.84383,17.9123,10.7877,68.7096,-86.1071,-66.7367,12.1292,-0.577278,1.58122,0.640076,-0.438362,2.89465,-6.12654,-0.249934,2.23457,-13.9299,-3.77384,-4.25909,-1.27261,-4.62115,4.0918,2.22861,-2.23125,1.78738,5.01931e-15,-1.59028e-15,77.7739,-11.6929,-36.2443,48.7071,-2.29703,-32.0468,-17.5927,7.12502,-5.29395,-47.5066,5.01931e-15,-1.59028e-15,75.576,13.3445,39.5908,47.1754,18.6893,-30.2349,-12.2104,7.12502,-3.54431,17.7398,-21.2849,-1.31465,22.3172,20.9919,3.26291,-4.16039,-4.51365,4.7125,-3.15418,-7.61085,40.3091,0.755764,12.2175,16.3697
4.76879,17.9372,10.7536,67.6964,-85.7627,-65.6351,12.2053,-0.611351,1.98058,0.680671,-0.42461,3.03504,-6.12861,-0.25506,2.15599,-14.175,-3.79683,-4.37617,-0.939435,-4.62643,4.12496,2.39227,-2.22732,1.81618,-1.5207e-14,2.90226e-14,78.8386,-11.8273,-36.5425,47.8798,-1.94102,-31.3718,-18.4258,7.12502,-4.64215,-48.3549,-1.5207e-14,2.90226e-14,76.6983,13.9299,40.6789,45.6436,18.3161,-29.9145,-13.1968,7.12502,-3.23491,16.7584,-20.8762,-1.41236,22.7404,20.6281,3.27075,-4.27144,-3.94472,3.79257,-2.8651,-7.1833,41.3984,0.481398,11.6742,13.4963
4.69853,17.954,10.7161,64.696,-85.8113,-62.6404,12.3682,-0.53846,1.99322,0.830731,-0.325893,3.11974,-6.06261,-0.208554,2.22186,-14.4507,-3.86664,-4.72867,-0.821334,-4.65084,4.08485,2.49465,-2.2384,1.86188,7.85199e-15,-2.18663e-14,79.9493,-12.1573,-36.8146,46.6419,-1.25381,-30.9774,-17.1159,7.12502,-4.26133,-47.053,7.85199e-15,-2.18663e-14,77.7621,14.5644,41.758,44.2881,17.8169,-29.6661,-13.604,7.12502,-2.99495,16.3547,-20.3901,-1.67668,22.7565,20.2087,3.31441,-4.2628,-4.11684,3.02934,-2.68386,-7.31959,42.3492,-0.318731,11.2846,13.1087
4.63465,17.9725,10.6736,63.3213,-85.7118,-61.2187,12.598,-0.407796,2.17392,0.905957,-0.122975,3.14288,-6.11639,-0.115486,2.11144,-14.6201,-3.89575,-4.75135,-0.691604,-4.67024,3.87925,2.56421,-2.25299,1.79381,4.87022e-15,5.1684e-15,81.039,-12.4744,-37.3676,44.9446,-0.455751,-30.256,-18.0493,7.12502,-3.56472,-47.9992,4.87022e-15,5.1684e-15,79.4519,14.6249,43.163,42.4389,16.5322,-29.3732,-14.3103,7.12502,-2.71211,15.6522,-20.0264,-1.82513,22.9717,19.8881,3.21199,-4.29785,-3.93375,2.23104,-2.45047,-7.23306,43.1284,-1.16491,10.7737,12.5579
4.57066,17.9985,10.6412,63.2302,-85.5846,-61.0257,12.8332,-0.292074,2.52999,0.891783,0.0874955,3.07485,-6.26643,-0.0238128,1.80425,-14.5701,-4.01455,-4.46097,-0.635937,-4.87091,3.73956,2.56766,-2.35655,1.68038,2.28602e-15,-2.26615e-14,81.923,-12.6155,-38.1644,43.1433,0.437317,-29.302,-20.2096,7.12502,-2.64334,-50.1729,2.28602e-15,-2.26615e-14,80.6635,14.7091,43.879,40.8422,15.3935,-29.4157,-14.7206,7.12502,-2.75322,15.2414,-19.8381,-1.80245,23.2129,19.7632,3.0141,-4.44951,-3.88675,1.43396,-2.11219,-7.11826,43.6994,-1.6348,10.0964,9.39427
4.50212,18.0232,10.6127,59.5466,-85.7788,-57.2969,13.0729,-0.261789,2.51652,0.901752,0.128608,2.91615,-6.38966,-0.00490334,1.63882,-14.3006,-3.99588,-4.15,-0.782682,-4.89309,3.44327,2.44645,-2.37989,1.52836,-1.00386e-14,2.0276e-14,83.0457,-12.595,-39.1001,41.367,1.43235,-28.5369,-20.3435,7.12502,-1.90448,-50.3147,-1.00386e-14,2.0276e-14,81.4081,15.0195,44.0763,39.569,14.3296,-29.4678,-13.9592,7.12502,-2.80349,16.0021,-19.5832,-1.35711,22.8266,19.7124,2.76931,-5.20412,-1.64944,0.751295,-1.92537,-7.54219,44.0815,-1.89069,9.44656,6.17752
4.43359,18.0458,10.5757,53.6775,-85.9252,-51.2936,13.1091,-0.313298,2.24854,0.964296,0.0157492,2.82197,-6.34206,-0.0527819,1.71057,-14.2729,-3.86508,-4.327,-0.768163,-4.68913,3.39321,2.44235,-2.28027,1.55825,5.06901e-15,2.78299e-15,84.3489,-12.6163,-39.5847,39.6467,1.65201,-28.2007,-19.2701,7.12502,-1.5798,-49.244,5.06901e-15,2.78299e-15,82.0818,15.478,44.3257,38.3393,13.2487,-28.6716,-12.8353,7.12502,-2.03458,17.1347,-19.449,-1.52387,22.4619,19.7146,2.43489,-5.35855,0.380247,-0.0473287,-1.80495,-7.96577,44.3024,-1.93092,8.7102,4.91241
4.37174,18.0672,10.5384,49.3503,-85.9912,-46.7967,13.1892,-0.305042,2.01397,0.985286,-0.00692648,2.77708,-6.36406,-0.0574063,1.80041,-14.3207,-3.83209,-4.20357,-0.573527,-4.66907,3.55005,2.51895,-2.26216,1.58857,5.96354e-16,-1.11319e-14,85.2116,-12.7173,-39.6236,38.2632,1.2081,-27.2753,-29.7277,7.12502,-0.685997,-59.7064,5.96354e-16,-1.11319e-14,82.6127,15.8898,44.6044,37.2086,12.3106,-27.0569,-12.307,7.12502,-0.475026,17.6722,-19.4872,-1.46916,22.2503,19.9116,2.18387,-5.64371,1.66154,-0.857558,-1.81867,-8.3016,44.3858,-2.05733,8.16094,4.68869
4.30928,18.0824,10.513,48.1441,-85.9826,-45.5724,13.491,-0.231987,2.17145,0.970996,0.123658,2.76192,-6.54953,0.000638092,1.67483,-14.331,-3.95129,-4.4735,-0.375293,-4.78812,3.72844,2.60999,-2.31307,1.68745,-1.2921e-15,1.43125e-14,85.639,-12.8432,-39.2916,37.1166,0.887036,-26.8324,-18.4938,7.12502,-0.258192,-48.4734,-1.2921e-15,1.43125e-14,82.9721,16.1371,44.7559,36.1516,11.471,-25.4069,-12.8213,7.12502,1.11853,17.1555,-19.426,-1.55843,22.2825,20.2149,1.79649,-5.73172,2.97559,-1.39883,-1.85476,-8.51643,44.3349,-2.34876,7.64689,3.77169
4.24653,18.0932,10.488,48.3679,-85.97,-45.7782,13.7152,-0.168853,2.38129,0.988178,0.246687,2.7855,-6.65724,0.0532094,1.56003,-14.3637,-3.96675,-4.63877,-0.0442127,-4.77586,3.68709,2.73405,-2.30529,1.70352,-3.57812e-15,7.15625e-15,86.0882,-13.0378,-38.7921,36.0337,0.846714,-25.7432,-18.1303,7.12502,0.793766,-48.1086,-3.57812e-15,7.15625e-15,83.2432,16.425,44.4926,35.3323,10.3594,-24.075,-10.9898,7.12502,2.40492,18.9764,-19.3828,-1.47696,22.3321,20.5469,1.24491,-6.00694,6.07464,-1.89872,-1.54811,-8.58953,44.1704,-2.5164,6.81526,2.20995
4.18669,18.1097,10.4547,44.8612,-86.0466,-42.2217,13.897,-0.168198,2.24832,1.07919,0.223867,2.68882,-6.66125,0.0443647,1.5375,-14.2826,-3.85967,-4.10902,-0.217032,-4.70522,3.24595,2.62165,-2.28674,1.46777,-4.17448e-15,-4.77083e-15,86.6638,-13.2373,-38.7342,34.9066,1.10569,-24.349,-17.818,7.12502,2.14032,-47.787,-4.17448e-15,-4.77083e-15,83.3545,16.8868,43.7205,34.5175,9.44715,-22.7627,-10.3053,7.12502,3.67228,19.6428,-19.4218,-1.004,22.0105,20.9927,0.441603,-6.72475,11.5019,-2.44728,-1.32244,-8.89426,43.8809,-2.60941,6.04026,1.53537
4.12794,18.117,10.4263,39.4169,-85.9926,-36.7157,14.0409,-0.217049,2.15493,1.15039,0.139348,2.56032,-6.66424,0.00430816,1.47076,-14.1772,-3.74763,-3.69217,-0.278665,-4.61552,2.95704,2.55354,-2.25228,1.30583,-6.65929e-15,-1.15295e-14,87.1469,-13.3624,-38.6098,33.7571,1.1325,-23.1143,-17.2486,7.12502,3.33269,-47.2023,-6.65929e-15,-1.15295e-14,83.03,17.3293,42.4785,34.193,8.97205,-21.0643,-10.2176,7.12502,5.31229,19.6959,-19.5841,-0.977614,21.7607,21.6581,-0.210856,-7.04877,13.322,-2.99989,-1.31028,-9.28378,43.5026,-2.75015,5.4287,0.144532
4.07477,18.114,10.4003,37.189,-86.0465,-34.3551,14.1546,-0.0756746,2.0819,1.08087,0.326476,2.60778,-6.80445,0.0981679,1.52758,-13.7624,-3.83518,-4.01362,-0.212817,-4.6859,2.91004,2.51098,-2.28959,1.34783,8.44835e-15,3.10104e-14,87.0472,-13.6176,-37.1775,32.951,0.168606,-21.9403,-16.5776,7.12502,4.46644,-46.5105,8.44835e-15,3.10104e-14,82.6335,17.5147,41.4993,33.8055,8.49552,-19.266,-9.83266,7.12502,7.04836,20.03,-19.8713,-0.651865,21.639,22.3209,-0.593128,-7.46102,13.1305,-3.50625,-1.17654,-9.6339,43.0246,-3.1018,4.907,-2.23848
4.02381,18.1069,10.3738,34.0047,-86.2511,-31.0187,14.2353,0.15452,1.88327,1.0683,0.605589,2.62721,-6.86844,0.240378,1.60588,-13.4758,-4.05335,-4.41163,-0.251741,-4.92163,2.93402,2.46786,-2.40784,1.41436,4.77083e-15,3.4191e-14,86.6663,-14.129,-35.2076,32.4056,-1.09637,-20.3426,-16.1214,7.12502,6.00905,-46.0162,4.77083e-15,3.4191e-14,82.7084,17.6619,40.931,32.9287,7.7823,-17.1518,-9.89986,7.12502,9.08886,19.8843,-20.1988,-1.41576,21.5342,22.8804,-0.966928,-6.62676,13.8525,-3.96938,-1.36043,-10.2381,42.5125,-3.88633,4.73133,-3.55589
3.97005,18.1053,10.3535,32.4024,-86.2482,-29.2691,14.1366,0.193739,1.89643,1.2055,0.64719,2.61401,-6.66711,0.259444,1.57468,-13.7642,-4.06704,-4.68828,0.243805,-4.8985,3.30213,2.71438,-2.37959,1.58188,4.67144e-15,2.54444e-14,86.6355,-14.5429,-33.6846,31.8283,-2.027,-18.9941,-16.0626,7.12502,7.31083,-45.9163,4.67144e-15,2.54444e-14,82.4085,18.1812,39.4554,32.4094,7.24243,-14.9671,-9.74874,7.12502,11.1964,19.9325,-20.4033,-1.63153,21.5612,23.3454,-1.42036,-6.58838,15.4033,-4.45927,-1.56419,-10.5743,41.9584,-4.71523,4.31633,-3.43085
3.91635,18.0985,10.3313,37.8027,-86.0445,-34.5183,14.0731,0.217124,2.39359,1.23782,0.750141,2.62813,-6.59238,0.29476,1.28808,-13.4945,-3.99113,-4.39807,0.262923,-4.85698,3.40374,2.66296,-2.35429,1.57001,-1.98785e-15,-4.77083e-15,86.199,-14.829,-31.9382,31.4291,-3.20943,-18.1504,-16.6256,7.12502,8.12521,-46.4494,-1.98785e-15,-4.77083e-15,81.8178,18.3033,37.6112,32.398,6.19867,-13.4065,-8.33388,7.12502,12.7014,21.2599,-20.6686,-2.38826,22.2476,23.7981,-1.71445,-5.90907,15.8986,-5.02245,-0.860879,-10.0839,41.3699,-5.25086,2.99962,-2.16107
3.86644,18.0902,10.3069,41.8081,-85.8732,-38.4509,14.3314,0.19507,3.03722,1.16846,0.83127,2.56378,-6.80048,0.312313,0.84093,-13.1364,-3.97251,-4.47655,0.224859,-4.84487,3.70824,2.59749,-2.33928,1.69083,-1.02374e-14,-1.51076e-14,85.4611,-15.0211,-29.7925,31.2033,-4.81051,-16.9761,-17.2216,7.12502,9.25844,-46.9983,-1.02374e-14,-1.51076e-14,81.7905,18.2199,37.1726,31.6012,4.71071,-11.0144,-9.94702,7.12502,15.0066,19.4892,-20.7153,-1.67578,22.6084,24.1284,-2.00043,-6.51305,15.958,-5.48905,0.00164849,-9.68644,40.715,-5.79337,1.64486,-2.00392
