JuanDHNZ/ProyectoFinalCD/preprocessing/sports_trials_csv/01_11.csv
root1,root2,root3,root4,root5,root6,lowerback1,lowerback2,lowerback3,upperback1,upperback2,upperback3,thorax1,thorax2,thorax3,lowerneck1,lowerneck2,lowerneck3,upperneck1,upperneck2,upperneck3,head1,head2,head3,rclavicle1,rclavicle2,rhumerus1,rhumerus2,rhumerus3,rradius1,rwrist1,rhand1,rhand2,rfingers1,rthumb1,rthumb2,lclavicle1,lclavicle2,lhumerus1,lhumerus2,lhumerus3,lradius1,lwrist1,lhand1,lhand2,lfingers1,lthumb1,lthumb2,rfemur1,rfemur2,rfemur3,rtibia1,rfoot1,rfoot2,rtoes1,lfemur1,lfemur2,lfemur3,ltibia1,lfoot1,lfoot2,ltoes1
4.22859,17.4615,17.9286,26.7559,-62.6469,-22.74,14.1274,4.34003,13.6603,2.73806,7.76909,5.91459,-3.96967,3.56385,-2.55572,-8.66179,4.93187,-0.215552,16.959,8.13455,-8.35381,6.96275,3.15797,-1.95083,-9.30312e-14,-7.31528e-14,-25.8927,-10.4466,-76.0262,22.1423,-7.57011,-9.01521,-9.54937,7.12502,16.9318,-38.8313,-9.30312e-14,-7.31528e-14,-33.7377,6.31386,86.2825,32.2579,1.21963,-15.4136,-6.27073,7.12502,10.7658,23.4334,-5.52062,-8.48022,32.2007,26.9274,-22.9952,-22.2816,7.44268,-39.6071,8.45042,-8.10132,32.2631,-15.0684,16.9469,-8.46739
4.1717,17.4762,17.9788,24.8654,-63.0346,-20.2882,13.9294,4.5013,12.2055,2.70891,7.75593,5.53145,-4.03785,3.58669,-2.18113,-8.70708,4.98862,-0.241833,16.9981,8.19085,-8.17644,6.97668,3.19605,-1.88316,1.43523e-13,-1.27222e-14,-25.6905,-9.83712,-76.3169,22.1097,-8.20829,-10.4967,-3.97457,7.12502,15.5053,-33.3729,1.43523e-13,-1.27222e-14,-34.0304,6.61163,85.9821,32.1796,1.23378,-15.7629,-6.11439,7.12502,10.4289,23.607,-5.3465,-8.2846,30.8531,26.4769,-22.6453,-22.5385,7.06346,-39.9125,7.65496,-9.10099,32.008,-14.2485,19.5813,-11.7223
4.10136,17.432,18.0124,28.6683,-61.6662,-25.1152,14.3617,4.38309,14.2926,2.78566,7.95168,6.23787,-3.98128,3.63543,-2.58594,-8.80128,4.98899,-0.354988,17.0972,8.18539,-7.97605,7.01169,3.19705,-1.79832,2.54444e-14,-3.02153e-14,-25.6165,-9.05549,-76.7119,22.4351,-8.74826,-12.7507,-1.42205,7.12502,13.3335,-30.9755,2.54444e-14,-3.02153e-14,-34.1695,6.82788,85.7684,31.9452,1.42337,-15.9867,-6.19787,7.12502,10.213,23.5342,-4.36539,-7.90201,33.7028,26.1016,-22.7675,-23.2797,7.34957,-39.4874,6.99487,-5.63117,31.9511,-14.4249,20.9781,-10.8769
4.05782,17.446,18.0847,26.7911,-62.1553,-22.2235,13.8638,4.5887,12.762,2.64014,7.949,5.7718,-4.01168,3.66816,-2.24209,-8.70496,5.06681,-0.280339,17.0813,8.29497,-8.08166,7.00193,3.24867,-1.83666,-1.66979e-14,-8.26944e-14,-25.4213,-8.63623,-76.9339,22.4318,-7.71751,-14.5755,-1.06683,7.12502,11.5742,-30.7272,-1.66979e-14,-8.26944e-14,-34.3085,7.20828,85.6008,31.5943,1.60734,-15.9938,-6.36595,7.12502,10.2062,23.3665,-4.72553,-8.6744,31.9503,25.8308,-22.2577,-22.8921,6.47813,-40.0521,5.39744,-6.69956,31.746,-13.4631,24.1398,-12.3463
4.01212,17.4447,18.154,27.0165,-62.3019,-22.1051,13.6866,4.73689,12.5138,2.58305,8.08806,5.63763,-3.97403,3.74447,-2.25649,-8.61093,5.16109,-0.193612,17.0135,8.41625,-8.15742,6.97549,3.31166,-1.86638,1.31198e-14,2.70347e-14,-25.1694,-9.19,-76.905,22.2668,-7.02124,-15.3935,-1.31262,7.12502,10.7852,-31.0157,1.31198e-14,2.70347e-14,-34.4779,7.68845,85.3464,31.2981,1.42589,-16.0639,-6.23461,7.12502,10.1386,23.5011,-4.64075,-9.06176,31.6382,25.4452,-21.2229,-23.0943,3.91995,-40.2113,4.32997,-6.34499,31.8309,-13.3978,26.7224,-11.657
3.96187,17.4453,18.2249,27.4666,-62.4483,-22.3216,13.5781,4.8587,12.4927,2.53562,8.22992,5.43714,-3.92087,3.81951,-2.46401,-8.51548,5.22516,-0.243767,16.9499,8.45582,-7.8894,6.92478,3.35605,-1.77148,9.02482e-14,2.54444e-14,-24.9743,-10.1796,-76.9204,22.1852,-6.56914,-16.0225,-2.29749,7.12502,10.1785,-32.0313,9.02482e-14,2.54444e-14,-34.6101,8.12807,84.9039,30.937,1.11729,-16.0405,-6.09125,7.12502,10.1611,23.6434,-4.62918,-9.11145,31.4802,25.4405,-21.0182,-22.9934,3.01388,-40.2083,3.90508,-5.96867,31.5855,-14.6595,28.1781,-7.08868
3.90516,17.4307,18.2882,28.2729,-62.1828,-22.847,13.3422,4.9223,12.5855,2.41266,8.30467,5.39716,-3.89542,3.85498,-2.5456,-8.34332,5.2549,-0.292354,16.8353,8.45353,-7.69143,6.84571,3.37832,-1.70568,6.36111e-15,3.02153e-14,-24.7931,-11.0204,-76.8505,22.0077,-5.44101,-16.4155,-4.62929,7.12502,9.79934,-34.3813,6.36111e-15,3.02153e-14,-34.7372,8.55527,84.5352,30.4768,0.893629,-16.0192,-6.07975,7.12502,10.1816,23.6539,-4.64344,-9.06824,31.7426,25.2906,-21.4886,-22.6927,4.10408,-40.5348,4.16663,-5.75405,31.5306,-17.06,28.6119,-0.396522
3.84656,17.423,18.3544,28.209,-62.1127,-22.6914,13.303,5.01925,12.251,2.43109,8.38153,5.37163,-3.88902,3.90044,-2.40246,-8.47504,5.26345,-0.257542,16.8887,8.49056,-7.80798,6.89484,3.38295,-1.74132,-1.78906e-14,1.27222e-14,-24.7052,-10.0252,-77.1217,22.2584,-6.5741,-16.8147,-8.08756,7.12502,9.41416,-37.8573,-1.78906e-14,1.27222e-14,-34.8667,8.98954,84.351,30.1402,0.758828,-15.7444,-5.9621,7.12502,10.4467,23.7583,-4.26235,-8.47504,31.6198,25.0481,-22.0171,-22.8454,5.64239,-40.4535,4.21825,-5.92087,31.5891,-20.3214,28.658,6.86766
3.78218,17.4251,18.4249,27.3142,-62.0351,-21.7973,13.3687,4.98649,11.6424,2.50002,8.2609,5.22765,-3.93088,3.85368,-2.22402,-8.66743,5.40204,0.0740404,16.9704,8.69586,-8.08948,6.99118,3.47025,-1.8604,-6.99722e-14,-1.43125e-14,-24.6176,-9.61947,-77.3978,22.6705,-7.42256,-16.9721,-12.0377,7.12502,9.26223,-41.8142,-6.99722e-14,-1.43125e-14,-35.0648,9.10447,84.1536,29.952,1.10504,-15.3274,-5.77457,7.12502,10.8489,23.9252,-3.64237,-7.73728,31.1982,24.7336,-22.4692,-23.4859,6.80431,-40.2238,4.3718,-6.57582,31.7698,-23.1861,27.6911,14.0076
3.71169,17.4225,18.4962,27.8128,-61.4866,-22.3522,13.2713,4.89601,11.8186,2.46053,8.15706,5.27724,-3.9144,3.80015,-2.24378,-8.44209,5.5588,0.346565,16.7559,8.85841,-8.15649,6.90359,3.57565,-1.91776,6.36111e-15,-3.81667e-14,-24.6152,-9.49465,-77.5992,23.0424,-7.59625,-16.6326,-15.9174,7.12502,9.58979,-45.6791,6.36111e-15,-3.81667e-14,-35.2999,9.08627,84.0033,29.6602,1.49311,-15.2896,-5.81888,7.12502,10.8854,23.879,-3.14132,-7.54341,31.6373,24.3353,-22.5289,-24.0178,6.22011,-40.3514,5.63271,-6.86616,32.0666,-25.3139,25.0862,22.3705
3.64737,17.4129,18.5675,28.6899,-61.1212,-23.3026,13.2763,5.04798,12.1813,2.39053,8.41692,5.41865,-3.93168,3.91645,-2.32152,-8.03034,5.47438,0.0550379,16.4133,8.70889,-7.95291,6.69185,3.52869,-1.83252,-3.22031e-14,-2.22639e-14,-24.4404,-10.0258,-77.3305,22.9137,-7.42987,-16.0649,-19.088,7.12502,10.1375,-48.8238,-3.22031e-14,-2.22639e-14,-35.5007,8.99686,84.1981,29.3168,1.38695,-15.2972,-5.99778,7.12502,10.8781,23.7005,-2.70328,-7.55829,32.093,23.9596,-22.1711,-24.1571,5.00155,-40.4528,6.89748,-6.94317,32.3697,-27.3822,22.3797,29.7908
3.58273,17.4103,18.6489,28.717,-61.1088,-23.197,13.2053,5.33611,12.1266,2.30614,8.79026,5.38394,-3.94182,4.09889,-2.37123,-7.80723,5.27969,-0.438107,16.3737,8.45493,-7.68926,6.59717,3.40531,-1.69803,-1.22054e-13,-9.54166e-15,-24.7246,-10.516,-76.7428,23.0776,-7.89166,-15.5417,-21.5009,7.12502,10.6422,-51.2114,-1.22054e-13,-9.54166e-15,-35.6187,8.86119,84.4791,28.9326,0.902028,-15.2005,-6.26612,7.12502,10.9714,23.4272,-2.35418,-7.48394,31.8383,23.6842,-21.8224,-24.2484,4.32147,-40.4022,7.24158,-7.27005,32.5996,-23.5106,25.4492,19.8497
3.51725,17.423,18.7284,27.6495,-61.2241,-21.9444,13.2978,5.53792,11.441,2.20215,8.9972,5.20155,-4.1562,4.20137,-2.24896,-7.68797,5.15308,-0.933812,16.5671,8.30329,-7.36282,6.59832,3.32255,-1.52999,-7.23576e-14,-2.54444e-14,-25.0485,-11.3394,-76.26,23.4554,-7.78324,-15.0016,-23.5463,7.12502,11.1632,-53.2294,-7.23576e-14,-2.54444e-14,-35.8261,9.11788,84.472,28.5766,0.121108,-15.2834,-6.75394,7.12502,10.8914,22.9436,-2.00537,-7.08814,31.0588,23.5863,-21.9801,-24.6161,4.95679,-40.2129,7.39937,-8.20281,32.6763,-26.298,23.5383,28.189
3.45615,17.4317,18.8151,26.635,-60.8338,-20.7495,13.1602,4.88234,10.6079,2.17418,8.00319,4.76581,-4.27205,3.7305,-2.12939,-8.27666,5.69091,0.10394,16.9989,8.95144,-7.38801,6.90793,3.66356,-1.62868,-8.26944e-14,3.18055e-15,-24.4947,-10.6276,-77.7279,23.3256,-7.36449,-14.7174,-24.8544,7.12502,11.4373,-54.5224,-8.26944e-14,3.18055e-15,-36.2881,10.4154,82.9298,28.5463,0.024985,-14.9931,-7.13219,7.12502,11.1714,22.5504,-1.79823,-6.83697,30.5647,23.6286,-22.4064,-24.9889,6.64968,-40.1861,7.26196,-8.96125,32.6498,-22.8439,25.5174,21.6636
3.38551,17.4312,18.8995,26.3309,-60.7257,-20.364,13.1197,5.08548,10.3621,2.12401,8.24184,4.76209,-4.31291,3.84998,-2.03379,-7.52589,5.68956,0.475236,16.2978,8.95945,-8.18732,6.60581,3.67393,-1.96774,-3.77691e-14,-6.36111e-14,-24.867,-11.5282,-77.1948,23.926,-6.99814,-14.4368,-25.682,7.12502,11.7079,-55.3348,-3.77691e-14,-6.36111e-14,-36.3875,10.0374,83.3203,28.1155,-0.00408786,-14.6694,-7.42762,7.12502,11.4836,22.2378,-1.58652,-6.21687,30.3336,23.7547,-22.5574,-25.5657,7.26785,-40.0245,7.58255,-9.42122,32.6305,-21.9582,25.2256,21.7971
3.31448,17.4381,18.9885,26.1254,-60.5768,-19.9323,12.8882,5.03295,10.0012,2.04262,8.10326,4.5989,-4.31266,3.79105,-1.97623,-8.0399,5.77368,0.111263,16.9107,9.06084,-7.44757,6.84552,3.72146,-1.64655,-1.11319e-14,1.90833e-14,-24.8076,-10.5812,-77.6494,23.936,-8.31011,-14.6644,-25.5896,7.12502,11.4884,-55.2548,-1.11319e-14,1.90833e-14,-36.5792,10.3616,82.9834,27.8249,-0.341997,-14.5483,-7.16593,7.12502,11.6004,22.493,-1.60069,-6.19241,30.0116,23.9829,-22.146,-26.0713,5.88371,-40.0845,8.54824,-10.261,32.6237,-21.1693,24.104,22.5997
3.24077,17.4477,19.0822,26.2218,-60.2643,-19.9116,12.6702,4.96521,9.91118,1.96388,7.98164,4.47249,-4.28244,3.73602,-2.02656,-8.04594,5.92085,0.464018,16.9057,9.22209,-7.49981,6.86951,3.81717,-1.70495,-1.59425e-13,7.95139e-16,-24.9522,-10.0032,-77.9796,24.3649,-9.30457,-14.4306,-25.7076,7.12502,11.7139,-55.3601,-1.59425e-13,7.95139e-16,-36.7878,10.5221,82.6684,27.6857,-0.669969,-13.877,-6.13467,7.12502,12.2477,23.4867,-1.61607,-6.9655,29.8016,24.3203,-20.7917,-26.1853,2.83603,-40.0978,9.3967,-10.8198,32.6307,-22.2108,21.8262,28.1686
3.17548,17.4501,19.1939,26.0263,-60.0979,-19.6543,12.5423,5.03924,9.97907,1.91749,8.07192,4.2881,-4.21572,3.78397,-2.25418,-8.00394,5.87861,0.618955,16.8938,9.14608,-7.52736,6.86278,3.7902,-1.74683,2.10712e-14,-2.54444e-14,-25.2533,-10.0868,-77.9057,24.9033,-9.6352,-14.1522,-25.6909,7.12502,11.9823,-55.3279,2.10712e-14,-2.54444e-14,-36.9926,10.0914,82.7922,27.5702,-0.72409,-13.4742,-5.60495,7.12502,12.636,23.9928,-1.5905,-7.98048,29.2557,24.7995,-19.5717,-25.6525,0.328125,-39.8623,9.58939,-11.2561,32.5865,-23.5338,19.7286,33.4658
3.10219,17.452,19.2998,25.1729,-59.8393,-18.6829,12.384,4.94777,9.49536,1.88281,7.87286,4.10857,-4.22531,3.69759,-2.14575,-7.9872,6.01316,0.877212,16.9232,9.31505,-7.63503,6.89382,3.87795,-1.80743,3.81667e-14,-7.95139e-16,-25.4383,-9.77068,-78.094,25.4109,-9.98415,-14.5126,-24.7873,7.12502,11.6348,-54.4443,3.81667e-14,-7.95139e-16,-37.3199,10.0924,82.7167,27.5861,-0.711952,-13.4606,-5.64089,7.12502,12.6492,23.9561,-1.515,-8.13554,28.5847,25.4359,-20.2113,-25.3295,1.07837,-39.5863,9.90163,-12.1499,32.4662,-18.7602,21.6381,22.4056
3.02786,17.4561,19.4075,23.9226,-59.415,-17.4382,12.3535,4.75432,9.00791,1.88763,7.55095,3.94222,-4.27498,3.54887,-2.01567,-8.01751,6.11335,0.82262,16.9759,9.44584,-7.52743,6.9143,3.94321,-1.75111,9.26337e-14,3.97569e-15,-25.5651,-9.12693,-78.3123,25.9577,-10.7547,-14.5726,-25.0498,7.12502,11.5769,-54.71,9.26337e-14,3.97569e-15,-37.5708,10.4982,82.5064,27.6032,-0.947229,-12.8372,-5.56041,7.12502,13.2501,23.9984,-1.29471,-7.83192,27.9465,26.1628,-20.7053,-25.7226,1.5667,-39.1513,10.0728,-13.1489,32.3069,-19.7506,19.7108,29.0177
2.95228,17.475,19.5071,23.8276,-59.7235,-17.1239,12.115,5.05454,8.56477,1.79461,7.87405,3.83248,-4.25639,3.71763,-1.9157,-7.94828,5.97464,0.219318,17.0711,9.26485,-7.06827,6.87436,3.85425,-1.52666,-2.70347e-14,3.89618e-14,-25.9203,-8.97651,-78.1097,26.5259,-11.227,-14.9706,-25.1666,7.12502,11.1931,-54.848,-2.70347e-14,3.89618e-14,-37.7757,10.7703,82.5028,27.4521,-1.5703,-12.1412,-5.76974,7.12502,13.9209,23.7443,-1.55239,-7.10082,27.4472,26.9138,-19.35,-26.2853,-0.425175,-38.8727,10.2498,-13.6008,32.194,-13.2574,22.6041,10.846
2.87734,17.4949,19.6295,22.7759,-59.2424,-16.3367,12.316,4.97827,8.67578,1.76543,7.8078,3.64587,-4.36262,3.67826,-2.18214,-7.81564,5.89819,0.0233895,17.1212,9.14415,-6.82295,6.84113,3.80568,-1.43208,-2.10712e-14,2.8625e-14,-26.3896,-9.64286,-77.8344,26.9719,-10.9161,-14.7655,-27.1354,7.12502,11.3909,-56.806,-2.10712e-14,2.8625e-14,-37.9803,10.5988,82.5427,27.2399,-1.8333,-11.8749,-5.76375,7.12502,14.1776,23.7325,-1.22412,-7.64028,26.7762,27.6649,-18.1701,-26.3277,-2.71646,-38.1235,9.62232,-13.96,32.1591,-20.6415,18.945,34.0449
2.79971,17.517,19.7517,22.4851,-58.8338,-16.3,12.1098,4.81084,8.65662,1.89877,7.5478,3.65493,-4.13465,3.56487,-2.10072,-7.91913,6.03733,0.293708,17.0622,9.33006,-7.0115,6.86925,3.89646,-1.51562,-9.26337e-14,-1.90833e-14,-26.282,-9.50586,-77.9378,27.1584,-11.3955,-15.5778,-26.7255,7.12502,10.6075,-56.4378,-9.26337e-14,-1.90833e-14,-37.9473,10.7347,82.5179,27.0357,-1.7546,-11.4723,-5.32108,7.12502,14.5655,24.1475,-1.07998,-8.58367,26.3474,28.5287,-17.0747,-25.8915,-5.67867,-37.4743,9.27425,-13.9608,32.1519,-15.3929,21.4898,20.2812
2.71928,17.5379,19.8693,22.3399,-58.5384,-16.3054,11.8549,4.67748,8.52411,1.93668,7.32307,3.60391,-3.98405,3.46604,-2.02765,-7.88852,6.19753,0.729642,17.099,9.51761,-7.16966,6.91126,4.00006,-1.61922,-3.67752e-14,1.90833e-14,-26.3088,-9.4262,-78.1792,27.6131,-11.865,-16.0172,-26.2986,7.12502,10.1835,-56.0322,-3.67752e-14,1.90833e-14,-37.9844,11.0158,82.2136,26.8338,-1.84703,-10.8293,-5.27188,7.12502,15.1849,24.1509,-1.13475,-9.07763,26.0041,29.54,-15.9312,-25.7257,-7.81681,-36.9829,9.40761,-14.1124,32.1528,-12.0101,21.9212,9.23127
2.63834,17.5588,19.9898,21.5903,-58.3299,-15.6269,11.7275,4.9076,8.30954,1.87711,7.59614,3.6064,-3.98089,3.60462,-1.93453,-7.65104,5.97232,0.098256,17.3299,9.24216,-6.80576,6.88534,3.85437,-1.43353,1.5704e-14,5.56597e-15,-26.7943,-9.85942,-77.4555,27.8552,-12.2471,-15.965,-26.1646,7.12502,10.2339,-55.8957,1.5704e-14,5.56597e-15,-38.0116,10.9267,82.5834,26.5006,-2.25824,-10.321,-5.46966,7.12502,15.6745,23.9154,-1.28955,-9.11877,25.3165,30.7927,-15.0548,-25.644,-8.15886,-36.4446,9.88837,-14.8311,32.078,-12.6928,20.8116,13.4838
2.56026,17.5688,20.1201,20.6687,-57.9523,-14.8669,11.6356,4.83595,7.95376,1.83874,7.45578,3.57954,-4.02497,3.54073,-1.74859,-7.66341,5.99174,0.0190724,17.6718,9.27426,-6.64145,6.98724,3.86406,-1.36269,3.99557e-14,-1.35174e-14,-27.1656,-9.01844,-77.4041,28.1871,-13.1893,-15.9847,-26.5933,7.12502,10.215,-56.3253,3.99557e-14,-1.35174e-14,-38.2486,11.5583,82.4013,26.3555,-2.69246,-9.922,-5.66684,7.12502,16.0588,23.6877,-1.42522,-9.29069,24.5609,32.2761,-14.7137,-25.3192,-7.16429,-35.6779,10.0229,-15.4779,31.8605,-18.732,17.0407,34.9718
2.48604,17.5859,20.2457,19.9067,-57.9475,-14.1403,11.5029,4.89326,7.43641,1.79368,7.46192,3.48881,-4.05282,3.55276,-1.55588,-7.74136,6.00813,-0.002191,17.9852,9.30323,-6.52746,7.09681,3.87163,-1.3153,-1.71154e-13,6.36111e-15,-27.511,-8.49512,-77.3388,28.6102,-13.4169,-17.0082,-24.8809,7.12502,9.22739,-54.659,-1.71154e-13,6.36111e-15,-38.3999,11.8648,82.3219,26.3136,-2.87815,-9.74483,-5.79773,7.12502,16.2294,23.543,-1.83974,-9.0939,23.7024,33.9138,-14.4614,-25.082,-6.06815,-34.916,10.0888,-16.0919,31.5676,-18.661,16.6437,34.3703
2.41483,17.6089,20.3732,18.0311,-57.58,-12.4629,11.6537,4.80481,6.8617,1.87281,7.27785,3.21604,-4.10143,3.47232,-1.51636,-7.73379,6.01911,0.157283,18.0352,9.31105,-6.58613,7.12198,3.87956,-1.35863,4.31363e-14,-1.43125e-14,-27.588,-9.40338,-76.9285,28.6754,-12.0108,-15.6742,-24.7216,7.12502,10.5144,-54.4387,4.31363e-14,-1.43125e-14,-38.1969,11.1713,82.63,26.1615,-2.26955,-9.71419,-5.59185,7.12502,16.2589,23.7464,-2.01762,-9.31375,22.3876,35.7062,-13.2685,-25.1484,-7.35418,-33.9247,10.2741,-17.3226,31.2362,-17.2403,16.4687,31.6104
2.34241,17.6212,20.4941,16.7284,-57.0442,-11.534,11.9199,4.6216,6.52727,1.9334,7.00967,3.05759,-4.22271,3.34216,-1.48713,-7.6735,6.08683,0.478676,18.0042,9.37662,-6.70114,7.12388,3.92545,-1.44302,-6.50026e-14,-4.37326e-14,-27.6471,-9.58811,-76.9655,29.2024,-12.2165,-15.6257,-25.8831,7.12502,10.5612,-55.5977,-6.50026e-14,-4.37326e-14,-38.186,11.1012,82.5299,26.3017,-2.1234,-9.32262,-5.21087,7.12502,16.6359,24.0962,-2.23715,-9.44095,21.6093,37.5661,-11.3594,-25.4065,-8.60319,-32.9339,10.8439,-18.1942,30.9444,-13.0699,17.188,19.4597
2.26759,17.6433,20.6103,16.9378,-56.7182,-11.7552,11.5768,4.61761,6.74297,1.87202,7.00201,2.92272,-4.05546,3.34246,-1.71288,-7.7355,6.07642,0.731002,18.0833,9.32485,-6.64825,7.16678,3.918,-1.46865,-7.93151e-14,-4.29375e-14,-27.9039,-8.84858,-77.2759,29.6865,-13.3237,-15.814,-26.5186,7.12502,10.3796,-56.2424,-7.93151e-14,-4.29375e-14,-38.2222,11.7166,81.9687,26.6569,-2.86456,-8.57693,-4.96073,7.12502,17.3537,24.2846,-3.13935,-9.0301,21.6195,39.4582,-10.2653,-25.5554,-5.45343,-32.5424,11.3949,-18.3951,30.8353,-12.6708,16.4943,19.7488
2.19128,17.6559,20.7414,16.3382,-56.2366,-11.3526,11.43,4.56007,6.71598,1.84238,6.91329,2.89964,-4.01237,3.30174,-1.69892,-7.82379,6.05455,0.571176,18.368,9.31707,-6.52409,7.26131,3.9013,-1.39899,-5.10877e-14,-3.97569e-15,-28.1489,-8.32185,-77.1648,29.7663,-13.9814,-16.2159,-26.2207,7.12502,9.99184,-55.9635,-5.10877e-14,-3.97569e-15,-38.3175,12.0904,81.8506,26.7753,-3.16527,-7.9911,-5.12034,7.12502,17.9174,24.0743,-3.70772,-9.07595,21.1379,41.4319,-8.19993,-25.793,-2.70347,-31.782,12.0355,-19.0153,30.65,-12.1188,15.557,19.4731
2.12753,17.6707,20.868,17.8576,-55.7051,-13.1081,11.2501,4.63032,7.87739,1.5973,7.15512,3.21135,-4.05306,3.39591,-2.02828,-7.77547,5.96233,0.205964,18.7067,9.22325,-6.30084,7.33191,3.83896,-1.27653,-9.34288e-14,-5.56597e-15,-28.45,-7.9891,-76.8463,29.7664,-14.6635,-16.4046,-25.9848,7.12502,9.80982,-55.7363,-9.34288e-14,-5.56597e-15,-38.471,11.7688,82.1692,26.8718,-2.96269,-7.72051,-5.60516,7.12502,18.1777,23.5654,-4.80911,-8.39495,22.1265,43.4103,-6.87519,-26.0908,2.72529,-31.5265,12.5106,-18.2307,30.6942,-11.8684,15.0518,17.9528
2.04816,17.7002,20.9959,15.7974,-55.4242,-11.1367,11.3326,4.65943,6.8919,1.55054,7.0875,2.97208,-4.24244,3.3738,-1.74812,-7.57322,5.88346,0.0465324,18.8733,9.11414,-6.14815,7.33136,3.78736,-1.21725,-1.59028e-14,2.22639e-14,-28.9107,-7.94271,-76.5884,30.2051,-15.0042,-15.9882,-26.5244,7.12502,10.2116,-56.2565,-1.59028e-14,2.22639e-14,-38.7133,11.3692,82.3475,27.1822,-2.83544,-7.61074,-6.36445,7.12502,18.2833,22.7963,-5.42678,-8.00674,20.6801,45.6492,-6.47765,-25.9388,9.13716,-30.3688,12.7651,-19.6699,30.2698,-12.038,14.1257,18.025
1.99496,17.7206,21.1082,17.9239,-54.9048,-13.4865,11.2005,4.61547,8.23237,1.26906,7.20704,3.26683,-4.33295,3.39832,-2.18157,-7.49972,5.92383,0.0525936,18.8664,9.14559,-6.03553,7.31149,3.81486,-1.18166,-5.34731e-14,1.66979e-14,-29.236,-8.0281,-76.4863,30.5469,-14.8085,-15.5874,-26.1228,7.12502,10.5981,-55.8356,-5.34731e-14,1.66979e-14,-38.9201,11.2717,82.2838,27.7898,-2.59281,-7.56572,-6.66434,7.12502,18.3267,22.4923,-7.01667,-6.83978,22.2974,47.8698,-5.23328,-26.7854,13.8138,-29.9966,12.8109,-18.2967,29.71,-12.0358,13.8375,19.2308
1.91997,17.7334,21.2109,12.7106,-54.6679,-8.22029,11.7132,4.43756,4.92276,1.53526,6.58361,2.6765,-4.69247,3.14856,-0.956476,-7.55261,6.04663,0.188867,18.8258,9.32463,-6.18913,7.32813,3.89694,-1.23495,5.40694e-14,-4.45278e-14,-29.2648,-8.14436,-76.3448,30.9037,-14.5125,-15.4478,-26.4815,7.12502,10.7328,-56.1874,5.40694e-14,-4.45278e-14,-38.9705,11.4074,82.3205,28.4213,-2.22791,-7.25205,-6.2038,7.12502,18.6284,22.9242,-7.3104,-7.12021,18.706,50.2862,-4.22792,-26.7955,18.8051,-28.2385,13.2773,-21.844,28.9263,-11.5357,12.4898,17.0615
1.83512,17.7435,21.336,8.73858,-54.079,-4.3632,11.8145,4.39752,3.04892,1.88224,6.25879,2.03394,-4.52523,3.02803,-0.542182,-7.63257,5.95855,0.29358,18.9073,9.18794,-6.13495,7.36573,3.83969,-1.24356,-9.34288e-14,1.35174e-14,-29.4043,-8.95836,-76.1579,31.3037,-14.3779,-15.9173,-26.0075,7.12502,10.28,-55.7363,-9.34288e-14,1.35174e-14,-38.6381,10.8401,82.4673,28.714,-2.11072,-6.46013,-5.9169,7.12502,19.39,23.1364,-7.41648,-7.60347,15.8054,52.5113,-3.35261,-26.4446,23.9353,-26.5031,13.6765,-24.455,28.3377,-11.4055,11.2941,14.9007
1.79108,17.7676,21.4271,10.368,-53.8863,-6.17867,11.9283,4.61928,4.12099,1.57738,6.72085,2.29248,-4.80558,3.2285,-0.953932,-7.52039,5.77866,-0.032397,19.1016,8.95487,-5.9081,7.37533,3.72124,-1.14171,-5.82439e-14,1.59028e-15,-29.9043,-9.49676,-75.6812,31.7032,-14.509,-16.2329,-24.9334,7.12502,9.97547,-54.677,-5.82439e-14,1.59028e-15,-38.5476,10.1827,82.8179,29.0817,-2.34471,-5.6399,-5.73522,7.12502,20.1785,23.2368,-9.1284,-6.49259,17.2057,54.6246,-2.10279,-27.4605,28.5526,-25.9957,13.0021,-23.1976,27.595,-11.6262,11.8274,16.9517
1.72363,17.7833,21.5365,10.058,-53.1776,-5.77475,11.7854,4.58362,3.82748,1.36374,6.6484,2.35178,-4.99532,3.19484,-0.720824,-7.39971,5.69527,-0.296708,19.2423,8.87005,-5.8334,7.38223,3.66602,-1.08554,9.00495e-14,3.33958e-14,-30.4133,-9.71513,-75.236,32.1212,-14.4874,-15.0814,-25.1677,7.12502,11.0862,-54.8549,9.00495e-14,3.33958e-14,-38.6242,9.67116,83.1518,29.5367,-2.41055,-5.48689,-5.73123,7.12502,20.3255,23.2252,-10.3296,-6.10458,17.0078,56.4917,-0.539282,-28.1324,31.302,-25.3616,12.794,-23.5712,27.1106,-12.5119,10.9045,22.7868
1.65669,17.7965,21.6464,9.17399,-52.5435,-4.9526,11.7076,4.39725,3.13446,1.35202,6.31552,2.38239,-5.05393,3.04596,-0.254848,-7.30086,5.76859,-0.443911,19.1811,8.98487,-5.83358,7.3421,3.71477,-1.05525,3.57812e-14,1.11319e-14,-30.5621,-9.39379,-75.1385,32.5561,-14.6881,-14.4018,-25.038,7.12502,11.7416,-54.689,3.57812e-14,1.11319e-14,-38.5598,9.56875,83.2832,30.1346,-1.73683,-4.98871,-5.0806,7.12502,20.8043,23.8241,-11.2102,-5.95857,16.3835,58.1899,2.21064,-27.8976,30.1302,-24.4808,12.5825,-24.1682,26.7597,-12.228,10.5674,20.6202
1.58852,17.8108,21.7595,8.5362,-51.8355,-4.51197,11.5145,4.31165,3.29133,1.47539,6.1949,2.14559,-4.7758,2.98942,-0.545577,-7.25453,5.68394,-0.483313,19.0288,8.82851,-5.6439,7.26785,3.66195,-1.00474,1.03964e-13,-2.38542e-15,-30.6105,-9.98809,-75.1926,32.976,-14.9898,-14.6868,-25.3208,7.12502,11.4668,-54.9872,1.03964e-13,-2.38542e-15,-38.1031,8.714,83.3549,30.6679,-1.44132,-4.80919,-4.90328,7.12502,20.9767,23.9824,-11.8679,-6.30515,15.9372,59.7207,5.45353,-26.5491,25.5973,-23.3981,12.3681,-24.5143,26.126,-12.4366,10.1261,21.6231
1.52423,17.8287,21.8601,7.77675,-50.8076,-3.97033,11.5356,4.1296,3.33012,1.57913,5.94315,1.90689,-4.65506,2.86695,-0.773753,-7.48605,5.63995,-0.304476,19.1626,8.75672,-5.61663,7.35672,3.63371,-1.02259,8.64713e-14,-1.66979e-14,-30.6601,-10.82,-75.2566,33.3913,-14.9979,-14.8225,-25.6402,7.12502,11.336,-55.3138,8.64713e-14,-1.66979e-14,-37.5714,8.09162,83.2829,31.0697,-1.55356,-5.00665,-5.67926,7.12502,20.787,23.2273,-12.5629,-6.83303,15.4402,61.1693,6.54184,-24.9947,23.6845,-22.255,12.1507,-24.9054,25.4013,-11.9448,9.56339,20.3681
1.45666,17.8407,21.9636,6.92134,-49.8385,-3.25367,11.9779,3.85936,2.67883,1.28596,5.53958,1.9122,-5.28387,2.66765,-0.396777,-7.36049,5.761,-0.183445,19.5791,8.9415,-5.68744,7.48529,3.7103,-1.04873,9.08446e-14,-1.98785e-14,-31.2504,-10.76,-75.1483,33.7172,-14.9847,-15.049,-25.5744,7.12502,11.1175,-55.2599,9.08446e-14,-1.98785e-14,-37.8487,8.20309,83.106,31.5413,-1.6665,-5.25586,-6.17673,7.12502,20.5476,22.7559,-13.2183,-7.25389,14.8138,62.6407,6.32044,-23.052,24.2918,-21.1818,11.8479,-25.4208,24.8375,-11.8171,8.94051,20.6021
1.38802,17.8425,22.0686,6.0544,-49.0627,-2.50529,11.6305,3.79141,2.13433,1.55237,5.35895,1.95691,-4.86884,2.59914,0.0145208,-7.56753,5.66013,-0.509367,19.6667,8.86384,-5.6821,7.53517,3.64304,-0.994118,4.85035e-14,-1.27222e-14,-30.8297,-10.8215,-74.9039,33.5094,-15.3166,-15.6116,-25.5933,7.12502,10.5748,-55.3073,4.85035e-14,-1.27222e-14,-37.2222,7.96741,83.4959,32.1144,-1.46446,-5.37859,-5.47873,7.12502,20.4296,23.4665,-13.9597,-7.10826,14.2392,64.2001,5.80497,-21.2537,24.388,-20.3438,11.8527,-25.9997,24.7205,-11.3302,8.67422,10.1116
1.32114,17.8275,22.1801,5.42811,-48.4421,-1.94722,11.4831,3.84439,1.86497,1.52042,5.39661,1.9965,-4.8493,2.62455,0.207661,-7.42881,5.48505,-1.06475,19.8118,8.67248,-5.49648,7.52076,3.52581,-0.865169,-9.38264e-14,2.38542e-15,-30.8596,-10.6975,-74.4704,33.2285,-15.6016,-15.2846,-25.7888,7.12502,10.8903,-55.4864,-9.38264e-14,2.38542e-15,-37.0268,7.24639,84.0382,32.7147,-1.08887,-5.97149,-5.64271,7.12502,19.8598,23.3626,-14.9096,-6.22721,13.9086,65.745,4.82613,-19.85,23.4962,-19.6913,11.3232,-26.4197,24.8396,-12.5233,7.98092,19.8408
1.25789,17.7876,22.2693,5.58078,-47.3368,-2.18618,11.3179,3.66935,2.18394,1.38646,5.20793,2.04116,-4.87489,2.52644,0.112229,-7.1233,5.42995,-1.21514,19.6895,8.57726,-5.38643,7.41181,3.49131,-0.824418,-4.90998e-14,1.19271e-14,-30.9781,-11.0172,-74.2619,33.1796,-15.5506,-14.9505,-25.7506,7.12502,11.2125,-55.4309,-4.90998e-14,1.19271e-14,-36.7872,6.63314,84.1762,33.222,-0.919235,-6.38514,-5.88009,7.12502,19.4621,23.1659,-16.0234,-5.11993,14.527,67.2144,3.6151,-18.9623,23.8463,-19.5128,11.3784,-26.3499,25.1567,-12.1532,7.60576,10.1
1.1861,17.7839,22.3707,5.48521,-46.2261,-2.36674,11.1837,3.30279,2.25803,1.4343,4.72413,2.02696,-4.74673,2.28912,0.138943,-7.29505,5.57574,-0.688806,19.8247,8.7608,-5.59206,7.52325,3.59005,-0.95266,-9.74045e-14,-2.3059e-14,-30.7584,-11.2902,-74.5098,32.9984,-15.5246,-15.2191,-24.7259,7.12502,10.9534,-54.4201,-9.74045e-14,-2.3059e-14,-36.4817,6.7461,83.7612,33.8841,-0.907438,-6.67567,-5.98934,7.12502,19.1827,23.0846,-16.7071,-4.91876,14.7929,68.3,3.31877,-17.2623,21.2634,-18.9804,11.7045,-26.2764,25.4152,-12.6748,5.94432,16.2623
1.11271,17.7764,22.48,4.66937,-45.2908,-1.74567,11.1938,2.99544,1.66165,1.52523,4.23705,1.90125,-4.69482,2.06053,0.414373,-7.61782,5.76281,-0.121375,20.1144,9.00953,-5.80016,7.71903,3.71334,-1.07597,6.97734e-14,-6.36111e-15,-30.4777,-10.9697,-75.0043,32.9956,-15.536,-15.8893,-25.5802,7.12502,10.3069,-55.3076,6.97734e-14,-6.36111e-15,-36.1967,7.1355,83.2653,34.5116,-0.995379,-7.13974,-6.24381,7.12502,18.7364,22.8738,-17.238,-4.56811,14.3681,69.2265,3.45123,-15.4959,17.2811,-18.1304,11.1399,-26.6718,25.6182,-12.9815,6.07247,9.82134
1.0488,17.7819,22.581,4.13616,-44.2497,-1.21811,11.1417,2.93347,1.43731,1.46948,4.12617,1.80927,-4.73331,2.00996,0.461252,-7.50904,5.64268,-0.343616,20.2383,8.82697,-5.52059,7.71086,3.63442,-0.968957,-1.7016e-13,1.35174e-14,-30.5485,-11.186,-74.8807,33.1401,-15.8058,-16.2629,-26.8572,7.12502,9.94653,-56.6022,-1.7016e-13,1.35174e-14,-35.85,6.82032,83.3612,35.2306,-0.898337,-7.18626,-5.79958,7.12502,18.6917,23.3224,-18.0138,-4.29177,14.1178,69.9662,3.71889,-14.0404,14.0723,-17.4745,10.8256,-27.0614,25.6185,-13.4005,4.74318,18.1932
0.988759,17.7786,22.6806,4.003,-43.3405,-1.34385,11.08,2.99872,1.93615,1.43401,4.26891,1.73453,-4.69405,2.0715,0.0870665,-7.38326,5.32298,-0.769043,20.467,8.35696,-5.00979,7.70812,3.42134,-0.779741,2.61402e-14,-2.38542e-15,-30.907,-11.8748,-74.5641,33.4569,-16.037,-16.269,-27.9038,7.12502,9.94063,-57.6491,2.61402e-14,-2.38542e-15,-35.4707,6.02739,83.5963,35.9968,-0.822176,-7.50172,-5.736,7.12502,18.3882,23.4149,-18.7681,-3.84447,14.3845,70.6621,3.62139,-12.9757,12.3737,-16.8185,11.0497,-26.9818,25.6161,-13.6832,2.65265,29.6959
0.92463,17.7479,22.776,3.63648,-42.4566,-1.10826,11.043,2.93106,1.84638,1.3891,4.16606,1.64315,-4.72087,2.02215,0.0577534,-7.38444,5.16492,-0.861552,20.7585,8.12378,-4.77865,7.78461,3.3147,-0.708472,-1.19271e-14,1.03368e-14,-31.2263,-12.2175,-74.3875,33.5252,-15.9178,-16.3034,-27.6707,7.12502,9.90746,-57.4176,-1.19271e-14,1.03368e-14,-35.252,5.66912,83.5527,36.7936,-0.778662,-8.32146,-5.92748,7.12502,17.5995,23.296,-19.5973,-3.29411,14.3116,71.2298,3.4277,-12.1763,10.9701,-16.24,11.1547,-27.1813,25.7221,-13.782,3.02038,15.8006
0.858087,17.7289,22.8729,3.07364,-41.5341,-0.448409,11.0046,2.81797,1.16665,1.27126,3.94003,1.63496,-4.87025,1.92331,0.459731,-7.23276,5.12191,-0.953328,20.9722,8.08237,-4.76328,7.82313,3.28466,-0.695037,-7.63333e-14,0,-31.375,-12.6428,-73.8349,32.8276,-14.6666,-15.4787,-25.2871,7.12502,10.703,-54.9945,-7.63333e-14,0,-35.1658,5.72299,83.5672,37.4753,-0.679056,-8.90678,-5.94768,7.12502,17.0362,23.3253,-20.4917,-2.94316,13.8925,71.8849,3.23101,-11.3006,9.77993,-15.7458,10.9543,-27.7126,25.9299,-13.8314,1.34993,26.4902
0.793248,17.7106,22.9734,2.79758,-40.6209,-0.114747,10.8181,2.73445,0.893355,1.18691,3.79705,1.62242,-4.87129,1.85946,0.62736,-7.10534,5.03549,-1.05904,21.1622,7.96702,-4.67134,7.85247,3.22631,-0.6605,-3.28989e-14,1.11319e-14,-31.4362,-12.4515,-73.784,32.7242,-14.8949,-16.1068,-25.7558,7.12502,10.0971,-55.4936,-3.28989e-14,1.11319e-14,-34.9735,5.4587,83.6575,38.1864,-0.151833,-9.19052,-6.22188,7.12502,16.763,23.0745,-21.3989,-2.45383,13.7038,72.2459,3.18242,-10.4377,8.71004,-15.3201,10.6951,-27.9781,26.1517,-14.4523,2.37101,9.27734
0.730169,17.6885,23.084,2.37095,-39.9192,0.113376,10.7611,2.60278,0.828738,1.23698,3.60567,1.47668,-4.77977,1.76606,0.544283,-7.0318,5.06018,-0.841746,21.195,7.96186,-4.63322,7.85609,3.24508,-0.685806,-5.78463e-14,1.98785e-14,-31.3897,-12.6242,-73.9054,32.4113,-14.5772,-16.1053,-24.7267,7.12502,10.0986,-54.4644,-5.78463e-14,1.98785e-14,-34.7646,5.0857,83.4783,39.1221,0.739784,-9.80935,-6.63564,7.12502,16.1672,22.7101,-22.0554,-1.72529,13.4861,72.4783,2.82521,-9.75887,8.96459,-14.5981,10.7057,-28.1407,26.312,-14.9774,1.84436,7.89863
0.66836,17.6749,23.1838,2.12771,-39.071,0.38676,10.697,2.41264,0.572263,1.15966,3.31954,1.35033,-4.82982,1.62957,0.599186,-6.80797,5.11062,-0.564012,21.0587,7.98252,-4.65981,7.78213,3.28335,-0.745492,-9.0447e-14,1.98785e-14,-31.322,-12.7951,-74.1058,32.3814,-14.3706,-15.6582,-25.4241,7.12502,10.5299,-55.1403,-9.0447e-14,1.98785e-14,-34.6219,4.85988,83.247,40.0863,1.7673,-10.5981,-6.78941,7.12502,15.4076,22.6164,-22.9665,-1.15383,13.2489,72.6002,2.33111,-9.48922,10.5547,-14.1831,10.5996,-28.3512,26.5862,-15.4792,1.1002,8.44162
0.604467,17.663,23.278,2.17934,-38.1159,0.468128,10.4856,2.32212,0.443906,1.02351,3.18764,1.3652,-4.86117,1.56853,0.71137,-6.8819,5.04034,-0.603713,21.3656,7.89241,-4.55988,7.88949,3.23573,-0.709919,-2.29596e-14,-9.54166e-15,-31.4475,-12.5919,-74.105,32.313,-14.8255,-15.6739,-25.0675,7.12502,10.5147,-54.7846,-2.29596e-14,-9.54166e-15,-34.5045,4.5946,83.3272,41.0098,2.45456,-12.3274,-6.39349,7.12502,13.7415,23.1328,-24.0228,-0.703369,13.2514,72.6747,1.90463,-9.23259,9.96829,-13.7646,10.3358,-28.3966,26.4565,-15.6401,0.202516,10.4218
0.538927,17.6491,23.372,2.49358,-37.1558,-0.0136608,10.3386,2.22937,0.796028,0.945977,3.11185,1.49651,-4.84809,1.52581,0.665936,-7.666,5.02961,-0.400865,22.3198,7.9288,-4.55256,8.36194,3.22436,-0.707328,-5.1684e-14,6.36111e-15,-31.6104,-12.2824,-74.0578,32.1403,-14.7165,-15.8036,-24.0757,7.12502,10.3896,-53.799,-5.1684e-14,6.36111e-15,-34.3022,4.32159,83.3809,41.8962,2.73637,-12.6888,-6.24247,7.12502,13.3932,23.307,-24.9372,-0.0531911,13.8221,72.6131,1.79624,-9.13674,8.89844,-13.3513,10.2596,-27.9225,26.4769,-15.7404,-0.823974,12.564
0.472697,17.6019,23.4964,-0.209712,-36.421,3.23873,10.6345,2.31892,-1.66906,1.19258,2.9052,0.735586,-4.83571,1.46498,1.28003,-7.55314,4.93842,-0.773622,22.3181,7.74319,-4.02726,8.298,3.16062,-0.493841,-1.16786e-13,-7.95139e-15,-31.6613,-12.34,-74.0677,32.326,-14.5436,-15.4327,-25.5571,7.12502,10.7474,-55.2621,-1.16786e-13,-7.95139e-15,-33.9375,4.13772,83.2908,42.6109,2.88752,-12.6004,-6.09299,7.12502,13.4784,23.4509,-24.9706,0.0948735,10.5607,72.6973,1.0633,-8.17078,9.16779,-11.7626,10.622,-30.6846,26.3918,-16.1216,-2.04931,15.2149
0.408404,17.5795,23.5805,0.39284,-35.5364,2.77289,10.4123,2.24919,-1.50979,0.998647,2.84437,0.874185,-4.9121,1.43628,1.34807,-7.56919,4.82696,-0.79698,22.4393,7.60003,-4.01745,8.33783,3.08893,-0.498833,-4.79071e-14,-4.77083e-15,-31.6953,-12.6796,-73.8538,32.0752,-14.0355,-15.5146,-25.3372,7.12502,10.6684,-55.0464,-4.79071e-14,-4.77083e-15,-33.6606,4.12792,83.318,43.5564,2.90765,-12.3305,-6.06795,7.12502,13.7385,23.4585,-26.3043,0.605641,11.042,72.5021,0.25437,-8.36369,9.49956,-11.6996,10.1343,-30.28,26.4845,-16.0619,-2.9314,18.4362
0.342743,17.5604,23.6966,0.426103,-34.7907,2.83361,10.0628,2.21936,-1.45458,0.970838,2.81443,0.821079,-4.73961,1.42021,1.27846,-7.72404,4.70533,-0.834423,22.7364,7.45113,-3.97315,8.46103,3.0086,-0.485564,-4.85035e-14,6.36111e-15,-31.8125,-12.4708,-73.8408,31.9144,-13.9866,-15.7537,-24.7874,7.12502,10.4377,-54.5083,-4.85035e-14,6.36111e-15,-33.557,3.82428,83.3311,44.7622,3.15243,-12.072,-6.64667,7.12502,13.9876,22.8627,-27.137,1.12891,10.9017,72.1617,-0.76868,-8.47446,12.1659,-11.1841,9.30663,-30.3808,26.4754,-16.1858,-3.08264,21.0161
0.280419,17.5365,23.7614,-0.0610138,-33.8317,3.36265,10.5902,2.18713,-2.07797,0.911211,2.6828,0.663767,-5.11302,1.36872,1.46353,-7.70541,4.64578,-0.637645,22.7826,7.34773,-3.99993,8.47922,2.97383,-0.536897,1.01678e-13,3.18055e-15,-31.9176,-11.9187,-74.132,31.946,-14.3893,-16.4155,-24.7158,7.12502,9.79929,-54.4678,1.01678e-13,3.18055e-15,-33.3168,3.26685,83.2817,45.7506,3.72438,-12.4511,-7.13841,7.12502,13.6223,22.3959,-27.9586,1.72155,10.5862,71.7257,-1.25749,-9.06445,13.6108,-10.9199,8.44097,-30.7412,27.025,-16.4056,-3.29689,22.6305
0.213273,17.5145,23.8716,-0.124153,-32.9113,3.25059,10.2796,2.14454,-1.94292,1.08523,2.64813,0.660865,-4.74945,1.34492,1.40444,-7.68444,4.53859,-0.655459,22.6604,7.17082,-3.87584,8.42404,2.90731,-0.511111,1.65985e-14,-1.82882e-14,-31.8995,-11.8746,-74.1742,31.9928,-14.5765,-17.1084,-24.6027,7.12502,9.13073,-54.385,1.65985e-14,-1.82882e-14,-32.7052,2.88427,83.4034,46.3885,3.95667,-12.9373,-7.16818,7.12502,13.1537,22.3969,-28.4269,2.01407,10.6583,71.0423,-2.08885,-9.31324,11.7681,-10.3834,8.33271,-30.5859,27.443,-16.8128,-4.21982,23.3645
0.146649,17.5096,23.9694,0.660434,-32.0224,1.79308,10.835,1.99256,-1.46904,0.565355,2.54075,1.45361,-5.61753,1.30097,1.95476,-7.25893,4.49588,-1.31611,23.0236,7.16243,-3.61948,8.43603,2.86845,-0.326509,7.28546e-14,-1.82882e-14,-32.5835,-11.0797,-73.5963,31.8654,-14.7189,-17.51,-24.137,7.12502,8.74324,-53.9359,7.28546e-14,-1.82882e-14,-33.2499,3.23045,83.8352,47.1307,3.83964,-13.7005,-7.26635,7.12502,12.4179,22.3448,-29.047,2.67669,12.1032,70.1829,-3.208,-10.0466,12.3597,-10.0528,7.95417,-29.1674,27.7954,-17.2873,-4.47744,21.4032
0.0823616,17.5011,24.0693,0.920019,-31.2365,1.24419,10.5317,2.06159,-0.826959,0.746321,2.71016,1.4794,-5.23654,1.36567,1.60677,-7.23619,4.25252,-1.49525,22.7867,6.79782,-3.40994,8.33141,2.71239,-0.263908,1.48095e-14,5.56597e-15,-32.3433,-11.7746,-73.4984,31.5282,-14.687,-18.2399,-23.8559,7.12502,8.0388,-53.683,1.48095e-14,5.56597e-15,-32.5417,2.51865,84.0227,47.8542,3.78998,-14.4566,-7.31137,7.12502,11.6888,22.3426,-29.7322,3.29862,12.6554,69.2319,-4.22792,-10.8729,15.761,-9.68923,7.39111,-28.6039,28.1221,-18.7304,-2.8881,7.44719
0.0158441,17.4685,24.1814,0.40526,-30.5004,2.15253,9.9064,2.12884,-1.29239,1.15055,2.7245,1.0444,-4.46485,1.37261,1.44191,-7.48342,4.1503,-1.25788,22.4883,6.62293,-3.42531,8.28119,2.65613,-0.320338,-1.91827e-14,-2.06736e-14,-31.7802,-12.1753,-73.8257,31.3559,-14.7935,-18.6582,-23.9421,7.12502,7.63505,-53.7842,-1.91827e-14,-2.06736e-14,-31.5659,2.05949,83.8321,48.7069,3.6399,-13.9504,-6.96362,7.12502,12.1769,22.662,-30.3319,3.47384,11.731,68.2453,-4.9883,-11.2106,15.524,-9.24079,7.08636,-29.4424,28.4902,-20.3088,-2.04941,0.918277
-0.050279,17.4446,24.2877,0.269036,-29.589,2.17102,10.4458,1.97598,-1.76593,0.78673,2.47861,1.30676,-5.16992,1.27117,1.99308,-7.20048,4.20972,-1.48229,22.8388,6.74828,-3.4277,8.34308,2.68985,-0.276641,7.7526e-15,0,-32.2235,-11.3852,-73.5469,31.2361,-14.4513,-17.8129,-24.2338,7.12502,8.45094,-54.0447,7.7526e-15,0,-32.0343,2.41999,83.8835,49.6251,3.61771,-13.5124,-6.94025,7.12502,12.5992,22.6598,-30.6381,3.72642,11.7058,67.0612,-5.40892,-11.5469,12.0473,-8.70031,6.6359,-29.3923,28.7347,-20.8486,-2.25873,4.23807
-0.107034,17.4437,24.3795,0.937358,-29.1415,1.45268,10.2049,2.15041,-1.14661,0.641725,2.79598,1.48177,-5.18229,1.41731,1.78498,-6.9635,3.97812,-1.79097,22.8303,6.4215,-3.21945,8.27526,2.53551,-0.192454,-1.03865e-13,1.35174e-14,-32.3547,-12.1668,-73.0086,31.0541,-13.2082,-16.1954,-25.1723,7.12502,10.0116,-54.9142,-1.03865e-13,1.35174e-14,-31.7029,1.70511,84.2417,49.9824,3.96656,-14.6574,-7.8317,7.12502,11.4951,21.8331,-31.7009,4.58732,12.3294,65.7731,-5.24361,-12.245,12.5996,-8.66643,6.05793,-28.6829,28.7245,-20.1638,-3.45729,8.65912
-0.164224,17.4447,24.4687,1.33783,-28.416,1.2192,10.1104,2.15628,-1.05106,0.524474,2.81894,1.50992,-5.25012,1.42838,1.75826,-7.03665,3.89954,-1.67056,22.931,6.29275,-3.16376,8.32273,2.48764,-0.203013,3.76697e-14,-2.14687e-14,-32.3056,-12.4773,-73.0206,30.8514,-13.678,-17.232,-25.1781,7.12502,9.01143,-54.9656,3.76697e-14,-2.14687e-14,-31.3407,1.29573,84.2382,50.4354,3.99877,-15.0066,-8.27495,7.12502,11.1584,21.4084,-32.7692,5.00669,12.4782,64.409,-5.27576,-13.089,13.821,-8.57179,5.56101,-28.3777,28.6542,-20.2016,-3.95339,9.74468
-0.229132,17.4426,24.6012,0.741917,-27.367,2.10957,9.8567,1.9683,-1.80599,0.790278,2.46829,1.19361,-4.83276,1.26436,1.9167,-7.68869,3.96055,-1.26939,23.3433,6.35215,-3.12688,8.5944,2.53305,-0.232939,3.35946e-14,4.77083e-15,-31.9805,-12.6366,-73.3386,30.8018,-13.9839,-17.7104,-24.7765,7.12502,8.5498,-54.5834,3.35946e-14,4.77083e-15,-30.7741,1.25773,83.8609,51.146,3.97622,-14.2347,-7.89587,7.12502,11.9028,21.7458,-32.8917,4.7417,11.4844,62.9309,-5.93473,-13.3338,13.2675,-7.60549,5.24448,-29.1852,28.4286,-20.4918,-4.23376,9.61187
-0.284701,17.4245,24.7289,0.190452,-27.0922,2.80605,9.71471,2.08615,-2.34592,1.0732,2.55722,0.976027,-4.47572,1.31035,1.99067,-8.0794,3.93844,-1.28065,23.4981,6.32993,-3.04986,8.71643,2.5208,-0.196791,-1.25234e-14,-5.56597e-15,-31.5446,-12.3725,-73.5405,30.4566,-14.6491,-17.9476,-24.1151,7.12502,8.32091,-53.9312,-1.25234e-14,-5.56597e-15,-30.263,1.13687,83.8734,51.7451,4.5327,-14.4542,-7.96909,7.12502,11.6912,21.6847,-33.019,5.14098,10.6073,61.315,-6.78391,-13.3405,16.4763,-6.66843,5.13374,-29.9316,28.2641,-21.0145,-3.79615,8.53532
-0.346783,17.419,24.8377,0.253416,-26.4337,2.59308,9.7426,2.14538,-2.1964,1.07312,2.65576,1.06684,-4.49428,1.35738,1.98657,-7.73979,3.81553,-1.53212,23.2643,6.14844,-2.90679,8.55851,2.44135,-0.134435,1.54058e-14,0,-31.4981,-12.3881,-73.3374,29.9926,-14.7496,-17.8546,-23.6734,7.12502,8.41067,-53.4859,1.54058e-14,0,-30.0959,0.740978,84.0941,52.1501,4.9821,-15.0951,-8.53929,7.12502,11.073,21.1486,-33.3475,5.52509,10.7729,59.4971,-7.23898,-14.1605,14.8214,-5.98887,4.79029,-29.6473,28.0117,-21.3047,-3.98289,8.12674
-0.412464,17.4071,24.9193,0.612596,-25.6757,1.82605,10.2271,2.28845,-1.63342,0.702159,2.91355,1.28168,-5.15018,1.48405,1.83246,-6.81995,3.61225,-1.66884,23.1522,5.79115,-2.64306,8.33405,2.30413,-0.0789565,4.77083e-15,-7.95139e-16,-32.3523,-13.0653,-72.6318,30.0545,-13.6135,-16.2098,-24.0568,7.12502,9.99773,-53.7994,4.77083e-15,-7.95139e-16,-30.3696,-0.0101348,84.3241,52.5239,4.96847,-15.2922,-8.90583,7.12502,10.8829,20.7922,-33.7357,6.17199,11.5666,57.555,-7.79662,-15.222,14.1773,-5.60086,4.1284,-28.7344,27.9014,-20.7305,-4.98047,13.1972
-0.470395,17.3951,25.0554,0.45444,-25.1819,1.83607,10.2733,2.10256,-1.77566,0.854761,2.64272,1.17965,-5.00463,1.34983,1.84768,-7.69225,3.85446,-0.888857,23.6306,6.10638,-2.86539,8.69154,2.47394,-0.229665,2.17669e-14,4.77083e-15,-31.9766,-12.8033,-73.1834,29.8466,-13.0115,-15.6724,-24.18,7.12502,10.5162,-53.8969,2.17669e-14,4.77083e-15,-30.2082,0.592941,83.7072,53.1485,4.91573,-15.3098,-9.00389,7.12502,10.866,20.695,-33.6969,6.3726,11.4366,55.5079,-8.49721,-15.3709,14.4688,-4.74759,3.65403,-28.7623,27.8335,-21.24,-4.83005,13.3053
-0.528146,17.3912,25.1802,0.471522,-24.6374,1.87736,10.1944,1.98884,-2.06725,0.877699,2.4656,1.29029,-4.94549,1.26939,2.15639,-8.04148,4.00462,-0.858422,23.879,6.35594,-2.95693,8.85003,2.57381,-0.230524,-4.34344e-14,-1.03368e-14,-31.6978,-12.4877,-73.2646,29.5394,-12.3062,-15.6688,-24.2172,7.12502,10.5197,-53.9339,-4.34344e-14,-1.03368e-14,-30.2894,1.26614,83.6024,53.8373,4.85901,-15.239,-8.74355,7.12502,10.9342,20.9517,-33.9673,6.42211,11.2987,53.4412,-8.63899,-15.6386,12.7479,-4.06122,3.5222,-28.7642,27.5487,-21.3369,-5.33081,14.1714
-0.588859,17.3869,25.2822,0.882778,-23.8679,1.21967,10.1172,1.88141,-1.61585,0.915048,2.38367,1.46996,-4.84785,1.22016,2.10471,-7.92758,4.00966,-0.903476,23.6117,6.3233,-2.80858,8.72899,2.57966,-0.181194,4.34344e-14,5.56597e-15,-31.3822,-12.607,-73.3552,29.2265,-11.939,-16.2071,-24.0663,7.12502,10.0004,-53.8087,4.34344e-14,5.56597e-15,-30.0041,1.36138,83.5003,54.2303,4.76863,-15.0653,-8.5429,7.12502,11.1018,21.1435,-34.3167,6.57413,11.9435,51.279,-8.77554,-16.315,11.2081,-3.58243,3.27699,-27.9656,27.1957,-21.8554,-5.28794,11.2329
-0.642546,17.3665,25.442,0.540799,-23.3709,1.7398,9.38424,1.92912,-1.60587,1.349,2.43645,1.08879,-3.97137,1.23272,1.72389,-7.75947,3.9185,-0.59795,23.0565,6.09693,-2.70641,8.50973,2.52761,-0.228236,-3.97569e-16,-1.98785e-15,-31.0405,-12.9573,-73.6739,29.112,-12.0276,-17.0672,-24.3435,7.12502,9.17046,-54.1241,-3.97569e-16,-1.98785e-15,-29.2864,1.0396,83.2389,54.2876,4.73588,-14.9898,-9.00302,7.12502,11.1746,20.6794,-34.1131,6.25384,11.3424,49.1814,-9.73552,-15.8554,13.3502,-2.46952,3.10014,-28.5226,26.7956,-21.241,-6.80134,17.4952
-0.701116,17.3533,25.5375,0.866519,-23.1845,1.67196,9.97545,2.0685,-1.99846,0.797981,2.58266,1.25562,-4.90834,1.32652,2.06963,-7.39478,3.9144,-0.563143,23.2842,6.0917,-2.72448,8.52172,2.52621,-0.247172,3.08116e-15,3.97569e-15,-31.6938,-12.5281,-73.4316,28.9289,-11.9473,-17.5831,-23.4293,7.12502,8.67268,-53.2311,3.08116e-15,3.97569e-15,-29.8192,1.2163,83.2511,54.4628,4.77874,-14.9487,-9.23643,7.12502,11.2142,20.4439,-34.7674,6.99426,11.3,46.9806,-9.50284,-16.2248,12.5408,-2.32285,3.17127,-28.3381,26.6039,-22.0666,-6.28006,13.3589
-0.749905,17.331,25.6609,0.905647,-23.1932,1.87359,10.0775,2.26388,-2.24207,0.63563,2.81425,1.25378,-5.15996,1.45041,2.16418,-7.3722,3.90136,-0.749981,23.5765,6.0728,-2.53106,8.60475,2.51468,-0.151359,-1.59028e-15,-1.27222e-14,-31.8643,-12.4021,-73.2627,28.9797,-11.3153,-17.1377,-24.6155,7.12502,9.10247,-54.399,-1.59028e-15,-1.27222e-14,-29.978,1.3896,83.2605,54.7186,4.78816,-14.7772,-8.95592,7.12502,11.3796,20.7153,-35.231,6.97455,11.0818,44.8315,-8.18437,-15.9007,6.86565,-1.77679,3.3788,-28.5693,26.3,-21.9048,-6.932,16.019
-0.805241,17.3198,25.7834,1.34009,-22.7288,1.3429,9.79575,2.24689,-1.68377,0.686559,2.86054,1.29421,-4.92577,1.459,1.89679,-7.65195,3.94058,-0.573994,23.7673,6.09406,-2.43643,8.72415,2.54258,-0.138498,-2.14687e-14,1.03368e-14,-31.5846,-12.5491,-73.4284,28.6164,-11.2696,-17.4429,-23.6134,7.12502,8.80798,-53.4096,-2.14687e-14,1.03368e-14,-29.841,1.46658,83.0065,55.1625,4.65052,-14.5362,-8.7521,7.12502,11.6121,20.9062,-35.6078,6.76033,11.643,42.6488,-7.47136,-15.6325,3.31602,-1.36219,3.14146,-27.9934,26.1288,-22.2279,-7.00413,15.3834
-0.860079,17.3176,25.9047,1.81915,-22.2559,1.05653,9.36824,2.29896,-1.32616,0.712407,2.97259,1.28445,-4.64602,1.50541,1.6865,-7.76557,3.8746,-0.535157,23.707,5.98171,-2.36072,8.72149,2.50236,-0.128202,-7.86193e-14,7.15625e-15,-31.4161,-12.766,-73.4725,28.7423,-11.1154,-16.4851,-24.3565,7.12502,9.73213,-54.1116,-7.86193e-14,7.15625e-15,-29.685,1.40387,82.9036,55.522,4.52167,-14.4151,-8.66587,7.12502,11.7289,20.9858,-36.1902,6.54646,11.8892,40.5456,-7.44302,-15.1415,1.77752,-1.08606,2.92341,-27.6571,25.8212,-22.3906,-7.13307,14.8095
-0.914357,17.3071,26.0267,1.7301,-21.6772,1.58741,9.45919,2.31982,-1.90389,0.629834,2.93673,1.22968,-4.80822,1.50117,1.95345,-7.43267,3.80811,-0.713958,23.4191,5.88773,-2.29821,8.55255,2.46073,-0.0967114,1.92821e-14,-1.03368e-14,-31.5143,-12.7817,-73.2644,28.7997,-10.8361,-15.7072,-24.6891,7.12502,10.4827,-54.4077,1.92821e-14,-1.03368e-14,-29.8432,1.55187,82.9462,55.6989,4.57929,-14.4396,-8.7605,7.12502,11.7052,20.8925,-36.4703,6.00704,11.3953,38.486,-13.0191,-13.3453,23.6596,-0.551995,2.86702,-28.0954,25.541,-22.5992,-7.36109,14.2827
-0.963856,17.291,26.1537,1.68068,-21.2861,1.79485,9.6405,2.30563,-2.14598,0.56872,2.88761,1.20107,-4.98189,1.48389,2.05855,-7.30475,3.85274,-0.63461,23.3123,5.94368,-2.35005,8.49716,2.49348,-0.125679,4.08502e-14,3.97569e-15,-31.4289,-12.6707,-73.2855,28.6309,-10.6233,-15.5638,-24.7331,7.12502,10.621,-54.4447,4.08502e-14,3.97569e-15,-29.9854,1.93895,82.7158,55.7917,4.65866,-14.4083,-8.90207,7.12502,11.7354,20.7492,-36.7393,5.29575,11.4094,36.5573,-11.7973,-12.3966,19.083,0.139913,2.82074,-28.2435,25.1766,-22.7701,-7.60477,14.913
-1.02014,17.2835,26.2804,2.0813,-21.0759,1.26968,9.33232,2.46399,-1.54408,0.611769,3.16984,1.25665,-4.74976,1.60891,1.7519,-7.26779,3.7782,-0.547855,23.2248,5.83811,-2.40416,8.46365,2.44982,-0.169482,3.69739e-14,-1.82882e-14,-31.2779,-13.2056,-73.1835,28.4309,-10.2705,-15.5437,-24.6819,7.12502,10.6403,-54.3925,3.69739e-14,-1.82882e-14,-29.7181,1.9867,82.5744,55.6163,4.62674,-14.2629,-9.01539,7.12502,11.8756,20.6278,-37.2707,5.0656,12.1505,34.7637,-13.3446,-11.1086,22.7355,0.62036,2.6767,-27.636,24.7462,-22.5843,-8.10118,17.2416
-1.08106,17.2724,26.4105,2.22756,-20.7276,1.12272,9.12274,2.62278,-1.33634,0.644399,3.40556,1.27562,-4.59797,1.72053,1.63297,-7.09585,3.65175,-0.6258,23.0981,5.66375,-2.3779,8.38371,2.37007,-0.16876,1.08338e-14,-3.10104e-14,-31.3754,-13.9226,-72.8704,28.398,-9.64983,-15.3256,-24.6103,7.12502,10.8507,-54.31,1.08338e-14,-3.10104e-14,-29.6945,1.99716,82.5467,55.5249,4.59736,-14.1465,-8.96996,7.12502,11.9879,20.6667,-37.6045,4.82615,12.4695,33.0404,-11.7053,-10.6982,13.9211,1.19905,2.59798,-27.3556,24.4038,-22.2835,-8.74103,19.7157
-1.13484,17.251,26.5563,2.14894,-20.2796,0.936174,9.20041,2.53971,-1.18686,0.704224,3.31339,1.36977,-4.57226,1.67211,1.65758,-7.18808,3.68957,-0.831903,23.1583,5.68905,-2.08912,8.40589,2.39093,-0.0334641,1.82882e-14,7.95139e-15,-31.3543,-13.7475,-72.9136,28.3977,-9.41358,-15.1941,-24.2496,7.12502,10.9776,-53.9426,1.82882e-14,7.95139e-15,-30.0059,2.50384,82.2869,55.6582,4.57847,-14.2776,-8.48053,7.12502,11.8614,21.1635,-37.5368,4.05387,12.9463,31.3878,-10.3393,-9.3078,5.83706,2.08223,2.48099,-27.0962,24.2363,-22.6439,-8.59799,18.2264
-1.18424,17.2315,26.707,2.29792,-19.8425,0.243031,9.20815,2.33509,-0.595629,0.822304,3.10967,1.58646,-4.42564,1.56031,1.58096,-7.63195,3.85219,-0.908398,23.4212,5.8901,-1.83431,8.56788,2.49369,0.0959501,-2.98177e-16,-7.95139e-16,-31.0333,-12.9841,-73.315,28.4545,-9.60079,-14.983,-24.4433,7.12502,11.1811,-54.1254,-2.98177e-16,-7.95139e-16,-30.2399,3.38478,81.8758,55.6763,4.60544,-14.5802,-8.34378,7.12502,11.5696,21.3169,-37.5115,3.06393,14.058,29.9646,-9.99779,-7.61252,-2.89511,2.93978,2.12271,-26.4007,24.06,-22.9752,-8.39311,17.2031
-1.24085,17.2144,26.8124,2.36866,-19.3938,0.26067,9.5836,2.24032,-0.876226,0.788349,2.95591,1.61382,-4.68135,1.49062,1.77258,-8.05468,3.96874,-0.722507,23.7594,6.0547,-1.87756,8.77072,2.57089,0.080443,1.69961e-14,2.06736e-14,-30.7991,-12.508,-73.6475,28.627,-9.79647,-14.5412,-25.1169,7.12502,11.6072,-54.7754,1.69961e-14,2.06736e-14,-30.2263,4.17125,81.4265,55.2362,4.69914,-14.7322,-8.9565,7.12502,11.4231,20.7123,-37.8723,3.64853,13.8631,28.8075,-10.5093,-7.40834,-8.12704,3.32048,1.7321,-26.3011,23.8678,-22.84,-8.53973,17.152
-1.29719,17.1944,26.9343,2.33133,-18.9804,0.839455,9.5108,2.29045,-1.3702,0.839535,2.96018,1.40361,-4.60115,1.49999,1.83426,-8.21399,4.01879,-0.406654,23.8027,6.12543,-2.07814,8.83308,2.60953,-0.0278,-8.94531e-16,-5.56597e-15,-30.7427,-12.5762,-73.7584,28.7712,-10.0285,-14.3996,-25.0264,7.12502,11.7438,-54.6772,-8.94531e-16,-5.56597e-15,-29.9271,4.55469,81.1124,54.6305,4.67598,-14.6884,-8.79324,7.12502,11.4652,20.8732,-38.3154,3.4102,13.3022,27.9722,-11.7857,-5.93896,-9.23041,3.70991,1.65547,-26.7554,23.6134,-22.6736,-9.19225,18.1986
-1.35362,17.173,27.0681,2.24155,-18.7193,1.4176,9.32776,2.52257,-1.82265,0.894415,3.21788,1.27968,-4.47102,1.63392,1.93241,-7.97371,4.0569,-0.155866,23.4915,6.20212,-2.40838,8.70221,2.6457,-0.181039,4.54223e-14,-7.95139e-15,-30.9216,-12.7777,-73.5106,28.9224,-10.2816,-14.7173,-24.8452,7.12502,11.4374,-54.5132,4.54223e-14,-7.95139e-15,-29.8693,4.67138,81.1394,54.2505,4.59907,-14.7084,-8.17989,7.12502,11.446,21.4877,-38.7191,2.65953,13.0393,27.4819,-13.4167,-4.00241,-11.77,4.30169,1.5948,-27.2691,23.2674,-22.7868,-9.60385,19.0255
-1.40598,17.1489,27.2094,2.07493,-18.5074,1.77213,9.47055,2.71563,-2.15436,0.783576,3.44012,1.31237,-4.69961,1.75358,2.11281,-7.33627,3.8175,-0.757298,23.2398,5.88186,-2.12476,8.46611,2.48622,-0.0347392,2.98177e-15,-1.51076e-14,-31.296,-12.6837,-73.0992,29.0501,-10.3635,-14.7342,-24.954,7.12502,11.4211,-54.6229,2.98177e-15,-1.51076e-14,-30.2898,5.02582,81.1714,53.7341,4.46915,-14.8471,-8.29641,7.12502,11.3122,21.3785,-38.8829,1.91511,13.0761,27.2533,-14.8483,-2.33144,-14.1975,5.2012,1.37543,-27.6671,22.8399,-22.56,-9.66095,19.3325
-1.45843,17.1244,27.3461,1.96772,-18.4051,1.81574,9.68134,2.81406,-2.23061,0.764164,3.56137,1.36432,-4.85272,1.8168,2.18244,-7.08806,3.8282,-0.869007,23.2309,5.90097,-2.08588,8.41295,2.49344,-0.00724622,1.68967e-15,-1.35174e-14,-31.4723,-12.6858,-72.9107,29.3192,-10.2516,-14.5622,-24.72,7.12502,11.587,-54.3796,1.68967e-15,-1.35174e-14,-30.5982,5.86512,80.9265,53.1573,4.08972,-14.79,-8.34451,7.12502,11.3673,21.3274,-38.9314,1.39384,13.444,27.1007,-15.5173,-0.732578,-15.5753,6.0805,1.25349,-27.7696,22.5116,-22.6863,-9.08356,17.3898
-1.51769,17.1142,27.4734,1.99518,-18.4613,1.39642,9.78814,2.9829,-1.94585,0.934379,3.82017,1.51178,-4.74079,1.93698,2.1389,-7.05587,3.74141,-1.19547,23.0083,5.77336,-1.862,8.31338,2.43355,0.106611,1.99779e-14,-2.38542e-15,-31.4833,-13.0838,-72.802,29.7686,-10.1917,-14.7418,-24.7287,7.12502,11.4137,-54.398,1.99779e-14,-2.38542e-15,-30.5492,6.66518,80.6479,52.5678,3.87837,-14.6129,-8.47506,7.12502,11.538,21.1874,-38.9525,1.81547,14.0065,27.0164,-15.6335,0.393633,-14.1913,6.79119,1.49682,-27.2277,22.2658,-22.6872,-9.0455,16.747
-1.57751,17.1139,27.5974,2.21177,-18.2669,0.924702,9.87788,3.04733,-1.65874,0.92542,3.94347,1.66806,-4.79892,1.99393,2.11838,-7.02878,3.66815,-1.24109,22.9845,5.67419,-1.84243,8.2979,2.38629,0.110848,-2.39536e-14,-1.19271e-14,-31.4901,-13.3411,-72.7612,29.8669,-10.1153,-14.8318,-24.948,7.12502,11.327,-54.6221,-2.39536e-14,-1.19271e-14,-30.7457,7.23946,80.2723,51.9558,4.18469,-14.7846,-8.5896,7.12502,11.3725,21.082,-39.0737,2.5725,14.3182,27.0248,-15.237,0.82149,-10.6559,7.23857,1.4344,-26.5956,22.0806,-22.1122,-9.36267,16.449
-1.6369,17.105,27.7343,2.20579,-18.1616,0.822956,10.0914,3.07907,-1.7036,0.850911,3.98103,1.70507,-5.00405,2.0155,2.1636,-7.15793,3.77378,-0.698692,23.4132,5.85869,-2.29029,8.49971,2.46519,-0.10387,-2.49475e-14,-5.56597e-15,-31.4439,-13.2274,-72.8456,29.6082,-9.89548,-14.5822,-25.1269,7.12502,11.5677,-54.7876,-2.49475e-14,-5.56597e-15,-31.2079,7.92747,79.7521,51.3246,4.44339,-15.2117,-8.22761,7.12502,10.9606,21.4663,-39.0562,3.2008,14.33,27.1713,-14.445,1.1457,-7.83164,7.89758,1.10681,-26.5066,21.8769,-21.8232,-9.14109,16.0635
-1.68947,17.0965,27.878,2.11838,-17.9945,0.915222,10.1047,3.08108,-1.77266,0.944489,3.97314,1.6784,-4.91572,2.01113,2.17768,-7.1726,3.87964,-0.399105,23.4389,6.03671,-2.61798,8.53383,2.54222,-0.245483,-2.62396e-14,2.38542e-15,-31.2913,-13.0005,-73.0193,29.5666,-9.9969,-14.5263,-25.2163,7.12502,11.6216,-54.874,-2.62396e-14,2.38542e-15,-31.3416,8.77722,79.2703,50.4416,4.455,-15.4686,-8.15738,7.12502,10.7128,21.5495,-38.9789,3.55616,14.2044,27.4795,-13.6223,1.64425,-7.50219,8.63227,0.663341,-26.693,21.6248,-21.7395,-8.58305,15.5276
-1.74081,17.082,28.0203,1.99616,-17.628,0.918333,10.1307,3.02573,-1.72314,1.14102,3.90263,1.69065,-4.718,1.97183,2.17756,-7.12887,3.95075,-0.355327,23.1461,6.13583,-2.70151,8.43166,2.59207,-0.274545,3.20043e-14,0,-31.0478,-13.0228,-73.1932,29.6239,-10.202,-14.9186,-24.7905,7.12502,11.2432,-54.4692,3.20043e-14,0,-31.4834,9.5999,78.8127,49.6755,4.55998,-15.5621,-8.05657,7.12502,10.6226,21.6549,-38.7967,3.78539,14.1889,27.9424,-13.2213,1.74263,-8.22829,9.46719,0.0843643,-26.7369,21.3331,-21.2976,-8.53675,16.1971
-1.803,17.0609,28.1655,1.87908,-17.2731,0.922707,10.2384,2.98783,-1.83551,1.23801,3.84071,1.76311,-4.6856,1.94257,2.32268,-7.14584,4.10287,-0.168443,23.1571,6.35631,-2.85839,8.45359,2.69675,-0.336302,-3.03147e-14,1.74931e-14,-30.9141,-13.3274,-73.1603,29.5774,-9.89302,-14.875,-24.7678,7.12502,11.2853,-54.4442,-3.03147e-14,1.74931e-14,-32.0278,10.3714,78.3847,49.1531,4.91124,-16.085,-7.39048,7.12502,10.1181,22.3462,-38.6027,4.40391,14.0761,28.5061,-13.2893,1.24259,-10.8571,10.2586,-0.272753,-26.6655,21.093,-20.6304,-8.77486,17.0215
-1.872,17.0508,28.3216,1.73145,-16.9298,1.11282,10.1127,2.9559,-2.16547,1.3765,3.76472,1.80992,-4.49091,1.90843,2.5775,-7.08368,4.24755,-0.0403866,23.1053,6.57896,-3.04833,8.4398,2.79673,-0.401416,6.36111e-15,1.74931e-14,-30.7988,-13.5245,-73.0795,29.5625,-9.64306,-14.5915,-24.9547,7.12502,11.5588,-54.6159,6.36111e-15,1.74931e-14,-32.3685,11.2115,77.9853,48.1389,5.28567,-16.9157,-6.77907,7.12502,9.31668,22.9951,-38.432,5.23014,13.677,29.2578,-13.2694,0.905919,-11.1346,11.0896,-0.419166,-26.7367,20.6948,-19.9906,-8.80171,16.1992
-1.94475,17.0483,28.4791,1.6161,-16.4778,1.62312,9.79207,2.92203,-2.80435,1.50459,3.65432,1.73863,-4.2067,1.85952,2.89594,-6.94973,4.23217,-0.140685,22.9906,6.55269,-2.98895,8.37016,2.78666,-0.371829,-1.70955e-14,-1.98785e-14,-30.6057,-13.6411,-73.093,29.4473,-9.77104,-14.6811,-24.8107,7.12502,11.4723,-54.4768,-1.70955e-14,-1.98785e-14,-32.3053,12.0028,77.4936,46.3657,5.32974,-17.1247,-6.95242,7.12502,9.11505,22.8306,-38.3024,6.01348,12.9072,29.9407,-12.7495,0.583632,-10.8363,11.7037,-0.610661,-27.1343,20.4594,-19.4542,-8.754,14.7386
-2.00759,17.0345,28.6657,1.53655,-15.8431,2.19909,9.2286,2.79391,-3.27051,1.58685,3.44922,1.64978,-3.81403,1.75826,3.12061,-6.88867,4.3721,-0.0053595,23.0619,6.79381,-3.26443,8.40305,2.88534,-0.463758,-8.74653e-15,-5.56597e-15,-30.5657,-13.8195,-72.959,29.2927,-9.75935,-14.6471,-24.8288,7.12502,11.5051,-54.4931,-8.74653e-15,-5.56597e-15,-32.4187,13.0482,76.9229,44.5353,5.14602,-17.0227,-7.71255,7.12502,9.21346,22.0662,-37.9889,5.56205,12.4404,30.5024,-12.0429,1.2048,-11.2655,12.3021,-0.96942,-27.7509,20.4841,-19.2357,-8.52221,12.9828
-2.07648,17.0267,28.8198,1.90257,-15.0707,1.58897,9.19196,2.58255,-2.8521,1.42241,3.22491,1.97122,-3.94277,1.6485,3.24791,-6.74643,4.32024,-0.637867,23.1778,6.75167,-2.95369,8.38245,2.84201,-0.262547,-4.57205e-15,6.36111e-15,-30.7449,-13.7785,-72.7539,29.2213,-9.84449,-14.6219,-24.7033,7.12502,11.5294,-54.3662,-4.57205e-15,6.36111e-15,-32.7835,14.2655,76.33,42.8682,4.89657,-17.348,-7.8451,7.12502,8.89953,21.9472,-37.8194,5.9772,12.9759,30.8765,-10.8216,0.877289,-11.6625,12.4013,-1.79075,-27.0624,20.7866,-18.6415,-8.51627,11.6512
-2.14381,17.038,28.9719,2.1008,-14.2097,1.03612,9.32683,2.33752,-2.47109,1.33806,2.94611,2.22834,-4.07811,1.50973,3.33232,-7.0105,4.47265,-0.464005,23.6497,6.99316,-3.06024,8.60644,2.9451,-0.292427,-5.26779e-15,1.11319e-14,-30.7976,-13.8544,-72.7031,29.1161,-9.95548,-14.8798,-24.4735,7.12502,11.2807,-54.1502,-5.26779e-15,1.11319e-14,-32.9886,15.1414,75.6965,41.1441,4.63844,-17.6793,-6.85264,7.12502,8.57983,22.953,-37.4713,6.4148,13.4564,31.1705,-9.38766,0.506145,-11.2632,12.527,-2.7877,-26.3848,21.1788,-17.4981,-8.92893,11.3125
-2.19932,17.0564,29.1439,2.02457,-13.2958,1.18548,9.23225,2.10232,-2.52379,1.42336,2.63062,2.2598,-3.91537,1.35103,3.44144,-7.28732,4.4961,-0.33555,23.9194,7.09212,-3.33348,8.76841,2.96501,-0.385342,1.2921e-15,-3.73715e-14,-30.6618,-14.2805,-72.5932,28.9049,-9.80297,-15.0801,-24.2933,7.12502,11.0875,-53.9804,1.2921e-15,-3.73715e-14,-33.1947,16.0793,75.0902,39.6445,4.2021,-17.4887,-5.54676,7.12502,8.76381,24.2513,-36.9198,6.12098,13.3247,31.4415,-8.09139,0.843245,-8.24375,12.776,-3.56801,-26.4835,21.7082,-16.2747,-9.1268,10.6325
-2.25128,17.0711,29.3315,1.97797,-12.4573,1.30891,9.06131,1.92372,-2.4298,1.41824,2.40715,2.29285,-3.80501,1.23792,3.45657,-7.45207,4.56106,-0.3926,24.3266,7.22267,-3.33902,8.94103,3.00858,-0.356592,4.37326e-15,-2.38542e-14,-30.8502,-14.2985,-72.4247,28.863,-10.0437,-15.0944,-24.3377,7.12502,11.0737,-54.0255,4.37326e-15,-2.38542e-14,-33.7753,17.0548,74.4552,38.4193,3.57428,-17.5271,-3.8712,7.12502,8.7267,25.9284,-36.0942,5.73814,13.203,31.1211,-6.426,1.29962,-4.47401,12.4462,-4.22043,-26.6418,23.5305,-15.8772,-8.91613,8.94774
-2.30092,17.0703,29.5196,1.81965,-11.8021,1.47493,8.94797,1.81937,-2.3203,1.42977,2.27923,2.25075,-3.7136,1.17144,3.36991,-7.56037,4.6622,-0.386439,24.782,7.35411,-3.17555,9.11572,3.07496,-0.281881,4.07509e-14,-1.74931e-14,-31.2542,-14.4651,-72.2661,29.006,-10.2306,-15.1812,-24.6626,7.12502,10.99,-54.3549,4.07509e-14,-1.74931e-14,-34.3474,17.5856,73.8702,37.0059,3.85352,-18.4601,-2.99042,7.12502,7.82629,26.8447,-35.1845,5.39333,13.1128,30.7577,-4.71264,1.56538,-2.4075,12.1406,-4.64824,-26.892,25.6359,-15.7046,-8.43641,5.18608
-2.38755,17.1046,29.5714,3.31731,-10.9948,-1.79034,9.60771,1.64858,0.287367,0.871702,2.3727,3.26819,-4.60992,1.19528,2.9261,-7.54719,4.65314,-0.463487,24.6625,7.36067,-3.21706,9.07066,3.07129,-0.283768,6.26172e-15,-1.19271e-14,-31.4397,-15.1692,-72.0584,29.0389,-9.98539,-15.3794,-24.6203,7.12502,10.7989,-54.3227,6.26172e-15,-1.19271e-14,-34.6754,18.3354,73.2008,35.4676,3.35782,-18.1125,-3.29738,7.12502,8.16173,26.525,-35.6964,8.31644,15.8537,30.2651,-2.72717,-1.80172,0.0673604,9.5761,-4.96216,-22.5264,28.0639,-13.6649,-9.66884,6.81873
-2.44374,17.1229,29.7167,3.96096,-10.1847,-3.20045,9.575,1.4678,1.69299,0.63735,2.31247,3.73423,-4.79863,1.14184,2.62903,-7.41894,4.57358,-0.602393,24.6387,7.27481,-3.23633,9.03273,3.02047,-0.279563,3.67752e-15,-5.00937e-14,-31.7038,-15.4862,-71.8058,29.1047,-9.97185,-15.2812,-24.5123,7.12502,10.8936,-54.2097,3.67752e-15,-5.00937e-14,-35.1859,19.1366,72.5557,33.9965,2.63111,-17.4387,-4.0388,7.12502,8.812,25.7572,-35.5892,8.39746,17.3704,30.3215,-1.19481,-2.3107,1.70349,8.29194,-5.15076,-20.5821,29.937,-11.8501,-10.1818,7.12135
-2.49066,17.1351,29.8848,3.71204,-9.72252,-2.41649,9.85804,1.49569,1.06449,0.520633,2.2899,3.58454,-5.09699,1.14381,2.82305,-7.25051,4.4938,-0.644893,24.653,7.20786,-3.39092,9.01042,2.9735,-0.335612,-2.62396e-14,-5.1684e-14,-32.1614,-15.6494,-71.4622,29.1711,-10.0729,-14.8643,-24.7999,7.12502,11.2956,-54.4757,-2.62396e-14,-5.1684e-14,-35.6238,19.5696,72.0531,32.2408,2.60053,-17.7393,-4.52252,7.12502,8.52194,25.2855,-35.0898,7.71951,16.784,30.7851,-0.79026,-1.98088,-0.200044,7.73658,-5.0758,-21.265,31.7244,-10.2609,-10.1221,4.42114
-2.48941,17.1429,30.1679,2.86347,-9.56208,-1.20135,9.04519,1.51566,0.926551,0.949836,2.23871,3.11958,-4.17608,1.11508,2.44115,-6.96662,4.49285,-0.5217,24.4096,7.24759,-3.71609,8.89199,2.98334,-0.471048,-3.8763e-15,-1.59028e-14,-32.4771,-15.8454,-71.1797,29.0387,-10.1319,-14.6231,-24.9623,7.12502,11.5282,-54.6253,-3.8763e-15,-1.59028e-14,-35.8962,20.3187,71.3908,30.2554,2.16706,-17.8613,-5.10548,7.12502,8.40418,24.7073,-33.659,4.73213,16.2971,31.6911,-1.83532,0.946339,-4.38559,8.65521,-4.99411,-23.0649,33.1213,-8.60045,-9.74965,4.4566
-2.51237,17.1332,30.3761,1.55806,-9.37151,0.694998,9.58819,1.55639,-0.611437,1.27495,2.1161,2.63816,-4.17225,1.07415,2.81325,-7.07781,4.55444,-0.630301,24.6313,7.366,-3.69908,8.98795,3.02366,-0.430649,4.96962e-15,-1.11319e-14,-32.7233,-15.7258,-71.0808,28.8863,-10.2684,-14.7463,-24.8782,7.12502,11.4095,-54.5478,4.96962e-15,-1.11319e-14,-36.5391,21.4426,70.5025,28.8112,1.29922,-17.5032,-4.78132,7.12502,8.74976,25.0173,-32.2822,2.94176,14.7348,32.6251,-2.79801,2.72319,-7.63682,9.3061,-4.76318,-25.2622,34.7314,-6.10233,-9.69043,6.8642
-2.56704,17.1698,30.5083,2.08828,-9.14398,-1.92536,9.99831,1.52304,1.77034,1.13683,2.37379,3.43013,-4.49785,1.16687,2.253,-7.77812,4.4788,-1.34184,25.2753,7.27122,-3.0074,9.28788,2.95666,-0.0625838,-1.36167e-14,1.59028e-14,-32.9438,-15.3395,-71.1597,28.9576,-11.0233,-15.2278,-24.994,7.12502,10.945,-54.6887,-1.36167e-14,1.59028e-14,-37.0046,22.252,69.7838,27.5705,0.442321,-17.0737,-3.79309,7.12502,9.16426,25.9878,-31.9664,3.92615,17.5869,33.0606,-3.43959,1.7267,-5.3099,7.89182,-4.17251,-21.7541,37.0116,-3.22458,-10.383,8.96039
-2.61417,17.2005,30.669,2.13263,-8.86012,-3.57442,10.0893,1.58672,3.50843,1.31103,2.66348,3.89955,-4.3191,1.2834,1.72844,-7.32869,4.55488,-0.728507,24.5337,7.39416,-3.7077,8.99842,3.02863,-0.407733,2.98177e-15,-3.97569e-15,-33.0696,-15.0631,-71.1845,29.101,-11.9159,-15.2593,-25.5357,7.12502,10.9146,-55.232,2.98177e-15,-3.97569e-15,-37.0953,22.7788,69.3378,26.3216,-0.67685,-16.347,-3.03616,7.12502,9.86536,26.7127,-31.0252,4.07891,19.4965,33.1478,-3.84015,1.46937,3.10124,6.63256,-3.64099,-19.4311,39.8734,-0.846952,-10.6785,10.8983
-2.65493,17.2227,30.8337,2.05636,-8.41,-4.21828,9.90761,1.63327,4.36616,1.5586,2.79626,4.0672,-3.92746,1.34288,1.41485,-7.23012,4.54492,-0.525332,24.1719,7.3873,-3.96051,8.87251,3.03174,-0.532352,4.77083e-15,-1.82882e-14,-33.0172,-15.4071,-70.9983,28.9818,-11.7393,-14.6706,-25.761,7.12502,11.4824,-55.4265,4.77083e-15,-1.82882e-14,-37.3333,23.049,69.0677,25.6153,-1.59328,-15.5872,-2.05177,7.12502,10.5983,27.661,-29.9891,3.6217,20.3509,32.8435,-3.86147,1.63492,1.53156,5.19752,-3.27753,-18.319,42.9795,0.938589,-10.6818,10.9315
-2.68928,17.2472,30.9836,2.10297,-7.74838,-4.5282,10.1291,1.548,4.60448,1.43698,2.74489,4.31909,-4.18028,1.31076,1.54423,-7.27696,4.55632,-0.591431,24.2863,7.44499,-4.03861,8.92357,3.04255,-0.539518,1.15295e-14,2.46493e-14,-33.1317,-15.1971,-70.6748,28.7953,-11.6288,-14.4271,-25.6612,7.12502,11.7173,-55.3135,1.15295e-14,2.46493e-14,-38.1482,23.4134,68.7388,24.9436,-2.32292,-15.2174,-1.71172,7.12502,10.9551,27.9825,-29.3214,2.81209,20.8066,32.7213,-4.07011,1.92572,-0.12859,3.57805,-3.06258,-17.6189,45.7757,3.05381,-10.6285,10.6129
-2.7232,17.2761,31.1453,2.0363,-7.07424,-4.78978,9.89109,1.56886,5.03393,1.68422,2.78647,4.41814,-3.77323,1.33445,1.41259,-7.66198,4.46257,-0.45191,24.1643,7.33032,-4.17359,8.96139,2.98536,-0.60977,-2.14687e-14,-7.95139e-16,-32.8977,-15.2582,-70.6048,28.5453,-12.1117,-14.4806,-25.6917,7.12502,11.6656,-55.3469,-2.14687e-14,-7.95139e-16,-37.8277,23.7802,68.6363,23.6958,-3.36478,-14.9567,-1.98254,7.12502,11.2065,27.6982,-28.438,1.78863,21.2336,32.5506,-4.47937,2.39313,4.3074,2.06828,-3.0718,-17.0743,48.5901,5.53108,-10.2618,9.79253
-2.7583,17.3079,31.3287,1.83824,-6.51792,-5.28739,9.55204,1.63312,5.6771,1.97741,2.89226,4.57966,-3.25345,1.39282,1.22497,-7.77328,4.39678,-0.286819,23.9894,7.2442,-4.32928,8.93185,2.94845,-0.696209,-2.50469e-14,-3.33958e-14,-32.8094,-15.3575,-70.4558,28.2112,-12.3982,-14.6026,-25.3314,7.12502,11.548,-54.9933,-2.50469e-14,-3.33958e-14,-37.7095,23.7377,68.6939,22.9255,-4.40703,-14.5491,-1.30923,7.12502,11.5996,28.3497,-27.2673,0.958157,21.9092,32.3542,-4.96514,2.79885,3.52065,0.812181,-3.15981,-16.2956,51.3445,8.03152,-9.53512,11.9304
-2.81963,17.3276,31.442,1.81611,-6.07652,-6.33977,10.2478,1.72787,6.23487,1.84921,3.16996,5.03229,-3.76566,1.51283,1.3305,-7.58163,4.36815,-0.079751,23.9595,7.20831,-4.49909,8.8991,2.93928,-0.796269,-2.42517e-14,-3.73715e-14,-32.9399,-15.4205,-70.1503,27.8863,-12.1667,-14.4333,-25.122,7.12502,11.7113,-54.7746,-2.42517e-14,-3.73715e-14,-38.1178,23.2502,68.8385,22.6932,-5.26397,-13.7258,-0.177243,7.12502,12.3935,29.4354,-26.5147,2.0725,23.0864,32.0526,-5.14343,1.32028,3.6701,-1.17301,-2.68613,-14.3934,54.2699,10.7912,-9.31222,12.9341
-2.86807,17.342,31.5672,1.52746,-5.50595,-6.38848,10.7879,1.79621,5.92126,1.87196,3.28675,5.21138,-4.06872,1.56946,1.65924,-8.08604,4.02442,-1.04565,24.6699,6.70936,-3.50238,9.15654,2.69431,-0.332532,-3.37934e-15,1.51076e-14,-32.8882,-15.51,-69.8913,27.4618,-11.6637,-14.1414,-25.3307,7.12502,11.9927,-54.9671,-3.37934e-15,1.51076e-14,-38.3577,22.9126,69.0861,22.3798,-5.83568,-12.8532,-0.144737,7.12502,13.2347,29.4151,-25.499,2.33693,23.1897,31.6324,-5.27888,0.48315,3.22705,-2.77393,-2.23592,-13.8281,56.966,12.8711,-9.34747,11.251
-2.90737,17.3714,31.7099,1.36084,-4.86086,-6.58847,10.8327,1.82949,5.96692,2.05093,3.33351,5.36634,-3.91189,1.5981,1.79131,-8.14613,4.02659,-0.829247,24.4545,6.72762,-3.74724,9.10973,2.70343,-0.449404,2.16675e-14,3.65764e-14,-32.5178,-15.7614,-69.6871,26.9039,-10.9181,-14.1197,-25.1602,7.12502,12.0137,-54.7954,2.16675e-14,3.65764e-14,-38.1968,22.4066,69.5982,21.9722,-5.9049,-12.6447,-0.77802,7.12502,13.4357,28.7687,-24.4657,2.2384,23.4733,31.1774,-5.42129,-0.061075,3.02546,-4.30785,-2.1682,-13.2377,59.5341,14.6161,-8.62967,12.6014
-2.94276,17.422,31.8695,1.14579,-4.31239,-7.0825,10.4834,1.92165,6.57451,2.48709,3.45321,5.47767,-3.2293,1.67113,1.5755,-8.77982,3.91931,-1.09817,24.5768,6.57125,-3.40541,9.24683,2.62899,-0.288514,1.15295e-14,8.90555e-14,-31.8723,-16.5168,-69.4832,26.2823,-9.78025,-13.9112,-24.987,7.12502,12.2147,-54.6104,1.15295e-14,8.90555e-14,-37.7287,21.9428,70.1236,21.8163,-6.5149,-12.0498,-1.06583,7.12502,14.009,28.4421,-23.2484,2.05649,24.1132,30.7023,-5.69072,-0.51274,3.39752,-5.81657,-1.95508,-12.4124,61.8868,15.7404,-8.0291,13.5116
-2.97809,17.4432,32.0165,0.749075,-3.89369,-7.4574,10.2471,2.12212,7.11915,3.02188,3.70247,5.52703,-2.50042,1.8163,1.31785,-8.43958,3.6364,-1.0953,23.8407,6.10075,-3.30833,8.91499,2.44537,-0.317779,-2.98177e-15,3.97569e-14,-31.156,-17.3783,-69.3438,25.6165,-8.79541,-13.8289,-25.2856,7.12502,12.2941,-54.9042,-2.98177e-15,3.97569e-14,-37.1471,21.6626,70.5935,21.8394,-7.54091,-10.5438,-1.44434,7.12502,15.4599,27.9575,-21.8692,1.99609,24.6497,30.0871,-5.82318,-1.03889,2.51256,-6.81145,-1.28494,-11.6699,64.2614,14.4579,-8.57586,9.05941
-3.03107,17.4605,32.118,0.752145,-3.45034,-8.18599,11.5613,2.19082,7.20598,2.34582,4.03579,5.95481,-3.95626,1.93409,1.60568,-7.75655,3.83129,-0.793677,23.8096,6.38738,-3.64446,8.80304,2.58717,-0.467559,3.57812e-15,-1.90833e-14,-31.7079,-16.812,-68.9551,25.0728,-8.27493,-13.8118,-25.7481,7.12502,12.3105,-55.3657,3.57812e-15,-1.90833e-14,-38.2351,20.6835,70.8663,22.1118,-7.49806,-9.11052,-1.51646,7.12502,16.84,27.7733,-21.1407,2.92451,25.564,29.4862,-5.62147,-2.39878,2.38034,-8.90941,-0.679233,-10.216,66.3261,14.4028,-7.92572,12.0951
-3.09458,17.4921,32.1787,1.0175,-2.95687,-8.84982,12.2373,2.34577,7.46378,2.18572,4.37808,6.1318,-4.4886,2.08299,1.56812,-8.14216,3.4666,-1.79809,24.4246,5.76822,-2.27854,9.00116,2.32728,0.112173,-5.34731e-14,-7.4743e-14,-31.1862,-17.1551,-69.0164,24.4573,-7.67208,-13.5785,-26.1301,7.12502,12.5355,-55.7341,-5.34731e-14,-7.4743e-14,-38.0492,19.7566,71.4407,22.6277,-7.39777,-8.03597,-1.32338,7.12502,17.8742,27.8752,-21.027,4.45095,26.3656,29.0756,-5.30542,-4.2327,4.22558,-11.9553,-0.0740791,-8.70874,68.5865,13.8017,-7.69825,13.7037
-3.0641,17.5435,32.451,0.796548,-2.05223,-8.29934,10.3856,2.275,7.87312,2.65679,4.04977,5.86532,-2.92281,1.97025,1.202,-8.02851,3.37167,-2.00491,24.4332,5.63563,-2.12585,8.97143,2.26576,0.182974,-7.55382e-15,-2.06736e-14,-30.7885,-17.0059,-68.9567,23.8627,-7.3675,-13.6878,-26.231,7.12502,12.4301,-55.8414,-7.55382e-15,-2.06736e-14,-38.239,19.0847,71.983,23.3,-7.33398,-7.0113,-1.32111,7.12502,18.86,27.7846,-19.5124,1.62462,25.6936,28.9523,-6.38169,-2.32437,4.29559,-11.428,-0.201299,-9.9321,69.3503,10.3079,-7.35734,11.5849
-3.09807,17.5598,32.5708,0.536533,-1.60869,-7.98467,11.0031,2.44156,7.45691,2.56641,4.30946,5.83979,-3.38076,2.08754,1.33969,-7.8685,3.25834,-2.37097,24.6886,5.4594,-1.7429,9.00736,2.18833,0.355757,-3.24019e-14,9.54166e-15,-30.7068,-17.1806,-68.6802,23.3056,-6.55123,-14.1445,-25.8562,7.12502,11.9898,-55.4928,-3.24019e-14,9.54166e-15,-38.5018,18.2325,72.4922,23.608,-7.1408,-6.38661,-1.18386,7.12502,19.4607,27.8623,-18.7458,1.93486,25.4523,28.968,-6.731,-3.14116,3.40903,-12.7428,0.448557,-10.0519,70.6156,8.37242,-7.49805,9.55919
-3.14774,17.5763,32.6736,0.0375141,-1.35713,-6.57661,11.8704,2.71137,5.68396,2.69365,4.53057,5.53373,-3.83387,2.20335,1.92486,-7.70005,3.23793,-2.1387,24.5463,5.44653,-2.00656,8.94141,2.18336,0.221697,4.1546e-14,2.70347e-14,-30.3841,-17.7452,-68.5259,22.898,-5.57029,-14.601,-25.6222,7.12502,11.5496,-55.2839,4.1546e-14,2.70347e-14,-38.6349,17.7598,72.8425,23.9553,-6.96123,-6.27137,-0.971152,7.12502,19.5715,28.0637,-17.988,2.85779,24.0819,29.2437,-7.14686,-4.3832,2.94799,-13.9184,1.12189,-11.3574,71.4474,6.94608,-7.49836,8.00739
-3.16463,17.561,32.8265,0.220034,-0.730245,-7.65637,10.9667,2.65334,6.79435,2.97504,4.47855,5.86557,-2.98014,2.19334,1.72125,-7.45275,3.40211,-1.12313,23.9712,5.7806,-3.29225,8.77,2.31868,-0.358256,-8.34896e-15,1.90833e-14,-29.6079,-17.9219,-68.5469,22.478,-5.21753,-15.0984,-25.5854,7.12502,11.0698,-55.2735,-8.34896e-15,1.90833e-14,-38.6063,17.4572,73.3914,24.6654,-6.32685,-6.00242,-0.768142,7.12502,19.83,28.2402,-17.6305,2.34984,25.3213,29.3855,-7.71194,-4.58556,2.41533,-14.8797,1.88107,-10.0368,71.986,5.01118,-8.05034,5.61121
-3.19413,17.5582,32.9558,0.0664554,0.0287328,-7.91535,8.89998,2.91421,7.94454,4.58373,4.53265,5.48525,-0.0269453,2.33006,0.868026,-7.61316,3.01495,-0.582184,21.6189,5.18068,-3.9774,8.02507,2.06445,-0.741586,-7.33515e-14,-1.43125e-14,-27.109,-20.3584,-69.2603,21.8469,-4.38954,-15.5861,-25.1006,7.12502,10.5994,-54.8133,-7.33515e-14,-1.43125e-14,-35.6975,16.5349,74.5191,25.0121,-5.73498,-5.79018,-1.0815,7.12502,20.034,27.9057,-17.0518,2.29849,25.6936,29.5052,-8.248,-5.40277,1.99002,-15.9348,2.3788,-9.66677,72.4583,3.73011,-8.09378,2.96276
-3.18096,17.5907,33.156,-0.171013,0.762911,-7.84784,9.28227,2.81,8.10518,3.99439,4.51117,5.49501,-0.84414,2.28823,0.74437,-6.86518,3.03149,-0.955592,22.23,5.19628,-3.57365,8.07288,2.08112,-0.555065,1.11319e-14,1.01778e-13,-28.2207,-19.4322,-68.9251,21.9143,-4.27305,-16.1008,-25.0157,7.12502,10.1029,-54.7532,1.11319e-14,1.01778e-13,-37.4243,15.6101,74.6659,25.8166,-4.91956,-6.01082,-1.69909,7.12502,19.822,27.3101,-15.9022,0.739709,25.5252,29.4356,-9.10294,-4.77314,0.839127,-16.2855,2.3953,-10.1339,72.4446,2.68313,-7.14563,3.28325
-3.2119,17.5849,33.2521,-0.0788041,1.31879,-8.76731,11.3826,2.67455,8.36168,2.60404,4.77592,5.96578,-3.47435,2.3105,0.89833,-5.96419,3.1587,-1.17315,23.1822,5.41006,-3.42706,8.22308,2.17498,-0.462881,3.33958e-14,-1.11319e-14,-29.843,-17.8079,-68.532,22.2107,-4.49319,-16.27,-25.5704,7.12502,9.93966,-55.3157,3.33958e-14,-1.11319e-14,-39.8105,14.8046,74.7251,26.676,-3.9221,-6.25113,-1.87035,7.12502,19.5909,27.1626,-15.6555,1.31484,26.6889,29.3922,-9.18259,-5.94736,0.635352,-18.2318,2.98611,-8.87775,72.9123,2.76732,-6.92709,6.77108
-3.23048,17.5937,33.3782,-0.29614,2.08345,-8.6485,11.3915,2.77131,8.46766,2.81434,4.89038,5.82051,-3.22978,2.37823,0.679818,-6.12127,2.9312,-1.3425,23.1477,5.06425,-3.15503,8.22298,2.02288,-0.371857,-3.47873e-14,-2.38542e-14,-29.4072,-18.1483,-68.6426,22.1666,-4.4755,-15.6533,-25.7816,7.12502,10.5346,-55.4976,-3.47873e-14,-2.38542e-14,-39.3175,13.9658,75.3728,26.9937,-3.09427,-6.66381,-1.90267,7.12502,19.1941,27.1702,-14.8828,0.995203,26.6031,29.3522,-9.64815,-6.37749,1.69388,-19.3963,3.08165,-9.06878,73.0181,2.1912,-6.63859,7.52516
-3.23998,17.6068,33.5193,-0.408565,2.91442,-8.47939,11.2872,2.79601,8.33113,2.8545,4.89334,5.83142,-3.14255,2.38565,0.77224,-5.88487,2.79014,-1.46889,23.0121,4.89796,-3.24543,8.132,1.93385,-0.399757,1.80894e-14,3.81667e-14,-29.172,-17.8558,-68.6137,22.2099,-4.60259,-15.072,-25.7274,7.12502,11.0953,-55.4141,1.80894e-14,3.81667e-14,-39.3996,13.5645,75.9464,27.2761,-2.31824,-7.6756,-2.31256,7.12502,18.221,26.854,-14.2695,0.452981,26.3806,29.498,-10.4331,-6.42294,4.00545,-20.5039,3.11031,-9.43652,73.0338,0.584634,-6.95808,4.64834
-3.25278,17.6084,33.6587,-0.379977,3.61565,-8.67825,8.17324,3.11638,9.50283,4.9774,4.78774,5.43263,0.946146,2.52785,0.0225683,-7.42177,2.51569,-1.3081,21.6548,4.4403,-3.14714,7.95134,1.74302,-0.416158,9.74045e-15,1.90833e-14,-25.9814,-20.2981,-69.6878,22.2037,-4.11011,-15.0268,-25.7987,7.12502,11.1389,-55.4831,9.74045e-15,1.90833e-14,-35.6839,12.8691,77.1705,27.3862,-1.39847,-8.74205,-2.8536,7.12502,17.1947,26.4056,-13.9538,0.328582,26.5958,29.7879,-11.2261,-6.57828,6.80244,-21.9044,3.48762,-9.28846,72.8904,0.270205,-7.14884,5.04289
-3.26709,17.5951,33.7914,-0.417645,4.28452,-8.82177,9.26872,3.10702,9.47625,4.15695,5.00871,5.51417,-0.518523,2.5663,-0.00936386,-6.79914,2.52527,-1.52139,22.2421,4.4364,-2.82498,8.02178,1.75421,-0.28102,-6.69904e-14,3.18055e-14,-27.3231,-19.3326,-69.4647,22.97,-4.66942,-15.1086,-26.1071,7.12502,11.06,-55.7957,-6.69904e-14,3.18055e-14,-37.3131,11.5058,77.6177,28.4956,0.0212282,-9.27967,-3.36439,7.12502,16.6772,25.9392,-13.6202,0.00785787,26.7864,30.1546,-11.951,-6.76869,7.74641,-23.2429,3.90174,-9.20048,72.5795,0.0948631,-7.28731,6.28116
-3.2755,17.581,33.9192,-0.42226,4.97943,-8.72771,9.59373,3.12965,9.19688,3.94494,5.08637,5.63712,-0.953815,2.58212,0.230034,-6.7289,2.45845,-2.01437,22.4063,4.3817,-2.60626,8.04892,1.70839,-0.130942,-2.18663e-14,5.24792e-14,-27.4531,-18.4057,-69.4012,23.3939,-5.24154,-15.2577,-26.2028,7.12502,10.9162,-55.8991,-2.18663e-14,5.24792e-14,-37.8729,11.1267,78.2042,29.2163,0.541243,-9.40044,-3.59637,7.12502,16.5609,25.717,-13.3571,-0.705834,26.7022,30.5941,-12.6796,-6.82081,7.5101,-24.458,4.11229,-9.49496,72.0837,-0.479548,-7.4747,7.56356
-3.28186,17.5709,34.0452,-0.484026,5.60553,-8.74067,10.873,3.18498,9.16978,3.08342,5.41961,5.64328,-2.55068,2.66996,0.0938401,-6.04322,2.36111,-2.2677,22.8784,4.24088,-2.36831,8.07129,1.64629,-0.0293514,-6.20208e-14,-4.77083e-15,-28.7336,-16.987,-69.2537,23.976,-6.37709,-15.6913,-25.9464,7.12502,10.4979,-55.6642,-6.20208e-14,-4.77083e-15,-39.3731,10.2056,78.564,30.0672,0.983654,-9.79869,-3.16295,7.12502,16.1775,26.182,-12.9601,-1.23143,26.7402,30.8272,-13.1448,-6.91846,7.62417,-25.4538,4.29586,-9.68942,71.4433,-1.21148,-7.44297,7.80862
-3.28929,17.5561,34.1683,-0.518795,6.14901,-8.7433,9.25472,3.44758,9.56921,4.36391,5.4491,5.49608,-0.252053,2.80338,-0.0996632,-6.95552,2.16084,-2.30527,21.9672,3.96148,-2.39271,7.93107,1.51449,-0.0475037,-1.17283e-14,2.06736e-14,-26.7588,-17.5328,-69.8764,24.4129,-6.83842,-15.809,-25.7837,7.12502,10.3844,-55.5073,-1.17283e-14,2.06736e-14,-37.2806,9.53741,79.6394,30.5297,1.70133,-10.628,-3.01041,7.12502,15.3789,26.3976,-12.5747,-1.43678,26.7886,31.0367,-13.5231,-7.22427,7.46416,-26.3419,4.64635,-9.87621,70.7985,-2.36464,-7.71427,6.75548
-3.29252,17.5797,34.2988,-0.438559,6.75897,-8.86474,11.1107,3.3441,9.14687,2.92745,5.68138,5.69453,-2.8387,2.78648,0.10662,-5.84386,2.34465,-2.05286,22.7307,4.25654,-2.69914,7.99792,1.65052,-0.176702,5.64548e-14,4.77083e-14,-28.8892,-15.5118,-69.5141,25.4669,-7.33444,-15.1355,-25.8795,7.12502,11.0341,-55.5694,5.64548e-14,4.77083e-14,-39.8436,8.93391,79.8148,31.3289,2.44593,-11.2245,-3.59632,7.12502,14.8042,25.8549,-12.1686,-1.6283,26.9763,31.085,-13.9567,-7.72341,6.7662,-28.0649,5.20573,-10.1478,69.9678,-3.45868,-7.78403,1.66641
-3.2945,17.5535,34.42,-0.512891,7.36784,-9.24022,8.77993,3.55468,10.4215,4.72806,5.55182,5.36743,0.504075,2.90779,-0.637241,-7.30426,2.17606,-1.86791,21.5322,3.97349,-2.68412,7.86342,1.53369,-0.212781,4.81059e-14,-3.33958e-14,-25.9669,-16.2756,-70.6538,25.6657,-7.78453,-14.8085,-25.8583,7.12502,11.3494,-55.5312,4.81059e-14,-3.33958e-14,-36.6336,8.41664,80.5251,31.4093,2.78341,-11.5633,-4.11459,7.12502,14.4778,25.3603,-11.6944,-2.08737,27.4189,31.1287,-14.2819,-8.07972,5.72814,-29.0844,5.55289,-9.94778,69.2235,-4.31337,-8.07737,5.05625
-3.29165,17.5213,34.5449,-0.699204,7.93215,-9.81958,9.70209,3.59548,11.1064,4.18687,5.8607,5.52653,-0.492594,3.01139,-0.961401,-6.7441,2.03991,-2.43535,21.6985,3.77976,-2.26969,7.79784,1.44185,-0.00485231,4.1546e-14,3.81667e-14,-26.6672,-14.5305,-70.6588,26.2452,-9.40395,-15.2022,-25.8719,7.12502,10.9698,-55.5653,4.1546e-14,3.81667e-14,-37.7907,7.38371,81.1759,32.7514,3.30629,-11.7708,-3.83161,7.12502,14.2779,25.6575,-11.1134,-2.97642,28.0219,31.1668,-14.6335,-7.98934,4.82677,-30.2823,6.10718,-9.6212,68.3885,-5.74329,-8.83165,2.81002
-3.30332,17.498,34.6778,-0.737878,8.3588,-10.5582,7.92434,3.8228,11.8898,5.45969,5.79756,5.75939,1.90134,3.13668,-0.900762,-7.67352,1.86707,-3.08176,20.7372,3.5746,-2.0134,7.63247,1.32434,0.17518,-4.37326e-14,-4.77083e-14,-24.3538,-14.3269,-71.1309,26.4872,-10.0511,-15.4662,-25.9365,7.12502,10.7151,-55.6433,-4.37326e-14,-4.77083e-14,-35.3515,7.89306,81.9506,32.2751,2.84156,-12.209,-4.22754,7.12502,13.8556,25.2909,-10.8111,-2.98706,28.9502,31.4281,-15.1588,-8.52649,4.63727,-31.1801,6.84915,-9.00972,67.4113,-6.68957,-8.64776,1.79483
-3.31212,17.4675,34.8058,-0.790745,8.79748,-10.9366,9.26486,3.79524,11.9794,4.49636,6.1003,5.78641,0.171035,3.17969,-1.11338,-6.94203,1.92504,-2.97088,21.21,3.60508,-1.86839,7.65474,1.36185,0.200878,-6.50026e-14,-1.43125e-14,-25.7087,-12.944,-71.2546,27.3039,-10.926,-15.7277,-25.8259,7.12502,10.4628,-55.5455,-6.50026e-14,-1.43125e-14,-37.1112,7.27385,82.0116,33.1455,3.43309,-12.6588,-4.6001,7.12502,13.4221,24.9475,-10.4726,-2.98396,29.4759,31.7061,-15.9979,-8.84449,6.3649,-32.0976,7.44307,-8.86093,66.1944,-7.53885,-8.52814,0.0918484
-3.32051,17.4562,34.9353,-0.815228,9.17842,-10.3682,9.82187,3.93016,11.3332,4.29293,6.3333,5.51519,-0.373191,3.25855,-1.13024,-6.74054,1.89451,-2.91235,21.2274,3.52544,-1.74671,7.62237,1.34272,0.221847,-4.7112e-14,-3.18055e-15,-25.9215,-12.172,-71.5247,27.7897,-11.8515,-16.1836,-24.9006,7.12502,10.023,-54.6419,-4.7112e-14,-3.18055e-15,-37.4963,6.63728,82.2585,33.5842,4.29241,-13.1299,-5.80934,7.12502,12.968,23.7677,-9.96822,-3.04372,28.9807,31.9077,-16.9149,-9.06124,8.37354,-32.7786,7.90678,-9.81902,64.6774,-8.9231,-8.38954,-3.30939
-3.32463,17.4423,35.0695,-0.772918,9.61589,-10.1135,11.8988,3.95151,10.5629,2.80149,6.76839,5.51509,-3.15175,3.29806,-1.03098,-5.68156,1.97879,-3.00928,22.1337,3.62229,-1.53905,7.72527,1.39952,0.307374,-8.78628e-14,-3.73715e-14,-28.0251,-10.5289,-71.2613,28.4297,-12.538,-16.136,-24.2868,7.12502,10.069,-54.026,-8.78628e-14,-3.73715e-14,-40.0613,6.25641,82.209,34.6774,3.56422,-12.4208,-4.93285,7.12502,13.6515,24.5995,-9.54038,-3.10547,28.8257,32.0364,-17.442,-9.54426,8.58143,-33.5241,8.37633,-10.522,63.0618,-9.30089,-8.06475,-3.25694
-3.31989,17.4185,35.2052,-0.806371,9.98797,-10.8754,11.7102,4.032,11.2595,2.85558,6.92921,5.65502,-2.91009,3.3866,-1.25252,-5.75376,1.98608,-2.99797,21.9603,3.63354,-1.56111,7.68129,1.40717,0.298909,-8.52786e-14,-1.03368e-14,-27.5438,-10.1462,-71.2994,28.8282,-12.3406,-15.446,-25.0575,7.12502,10.7346,-54.7632,-8.52786e-14,-1.03368e-14,-40.0229,6.19224,82.4858,35.2837,3.08108,-11.8545,-4.72176,7.12502,14.1972,24.7731,-9.14569,-3.07961,29.734,32.0208,-17.8819,-9.94645,8.6026,-34.3231,8.93726,-10.0753,61.3922,-9.36591,-7.72488,-2.17569
-3.31544,17.4074,35.3378,-0.761854,10.3112,-11.3406,11.7006,4.15366,11.6427,2.7803,7.14423,5.69284,-2.92173,3.48747,-1.44142,-5.54769,2.01158,-2.6473,21.6359,3.69044,-1.97966,7.55123,1.43443,0.102912,-5.78463e-14,-3.49861e-14,-27.2691,-10.074,-71.2221,29.2443,-11.64,-14.4328,-25.9136,7.12502,11.7118,-55.5662,-5.78463e-14,-3.49861e-14,-40.1324,6.06893,82.7051,35.7583,3.05054,-11.5481,-4.72221,7.12502,14.4925,24.7517,-8.74153,-2.91209,30.3479,31.8648,-18.3313,-10.4584,8.49682,-35.0635,9.40552,-9.89872,59.6225,-9.6014,-7.52888,-1.08697
-3.3155,17.4082,35.4693,-0.602389,10.7238,-10.9305,11.7578,4.30154,11.0577,2.71711,7.28169,5.55195,-3.0613,3.55083,-1.30388,-5.44667,2.04052,-2.51379,21.4935,3.74284,-2.15625,7.49208,1.45956,0.0250189,1.17482e-13,1.66979e-14,-27.0074,-9.88123,-71.18,29.5767,-11.2865,-14.0042,-25.7183,7.12502,12.125,-55.347,1.17482e-13,1.66979e-14,-40.2419,6.06824,82.8981,36.1454,2.90653,-11.2868,-5.05997,7.12502,14.7442,24.3956,-8.24878,-2.78468,30.0459,31.6405,-18.6467,-11.0941,8.16854,-35.7338,9.68122,-10.7345,57.6852,-9.8818,-7.06072,-1.13202
-3.30975,17.3978,35.6078,-0.543015,11.1231,-10.7174,11.7983,4.40036,10.67,2.68368,7.37393,5.47601,-3.14945,3.59453,-1.19442,-5.54108,2.06467,-2.76435,21.6212,3.75948,-1.85448,7.54038,1.47209,0.168976,-4.57205e-14,7.95139e-16,-26.6723,-9.21118,-71.278,29.8384,-11.5078,-14.2676,-25.3856,7.12502,11.871,-55.0291,-4.57205e-14,7.95139e-16,-40.5297,6.04397,83.1675,36.871,2.70403,-10.969,-4.74326,7.12502,15.0503,24.6897,-7.62211,-2.9848,29.9108,31.4082,-18.907,-11.5748,7.21044,-36.2874,9.95861,-11.3903,55.6367,-9.76886,-6.45084,-0.070519
-3.29972,17.391,35.7481,-0.543484,11.4614,-10.939,11.8283,4.48793,10.7586,2.65547,7.51098,5.51765,-3.17799,3.65965,-1.21783,-5.68057,2.12911,-2.95254,21.6913,3.8671,-1.76301,7.58334,1.51509,0.241622,1.33186e-14,1.82882e-14,-26.2074,-8.58948,-71.3035,29.9841,-11.6611,-14.4215,-25.4438,7.12502,11.7227,-55.0958,1.33186e-14,1.82882e-14,-40.8369,5.98767,83.5514,37.7682,2.79548,-10.9905,-4.51247,7.12502,15.0296,24.922,-7.03303,-3.21123,30.2201,31.1239,-19.1941,-11.9504,6.55726,-36.707,10.2497,-11.5559,53.5103,-9.57769,-5.95324,2.04082
-3.28865,17.3926,35.8783,-0.51016,11.9131,-11.2192,11.8702,4.52255,11.0346,2.6019,7.60085,5.47961,-3.20848,3.69852,-1.41961,-5.36423,2.22068,-2.40394,21.1918,4.04209,-2.50905,7.38858,1.59057,-0.0871616,2.78299e-14,3.73715e-14,-25.657,-8.34139,-71.3451,30.0369,-11.5391,-14.7348,-25.8682,7.12502,11.4205,-55.5371,2.78299e-14,3.73715e-14,-40.7883,6.15753,83.6292,37.7065,2.95424,-11.1169,-6.78414,7.12502,14.9079,22.6594,-6.52171,-3.2218,30.599,30.7502,-19.4556,-12.2202,7.45775,-37.1813,10.4673,-11.6937,51.3289,-9.54362,-5.46889,2.05968
-3.26649,17.3865,36.0174,-0.578701,12.1188,-11.5275,11.8842,4.57928,11.417,2.61248,7.71661,5.3749,-3.12758,3.7563,-1.74177,-4.74549,2.31571,-1.35726,20.3915,4.20806,-3.63842,7.06223,1.67863,-0.627489,-7.95139e-15,3.26007e-14,-25.1045,-7.95484,-71.5734,30.0977,-11.701,-15.5257,-25.8908,7.12502,10.6577,-55.6005,-7.95139e-15,3.26007e-14,-40.7577,6.174,83.6808,37.9892,2.88555,-11.0064,-6.38021,7.12502,15.0143,23.0554,-5.71809,-3.22328,30.9471,30.1739,-19.4299,-12.291,7.88884,-37.4781,10.8316,-11.7702,49.1146,-9.69749,-4.79184,0.0895338
-3.2476,17.3708,36.1525,-0.745394,12.4789,-11.9938,12.0601,4.5437,11.7934,2.59255,7.74785,5.39914,-3.19598,3.76406,-1.93622,-4.39208,2.32985,-1.20554,19.93,4.20314,-3.78573,6.85577,1.68988,-0.707125,1.33186e-14,-2.14687e-14,-24.5534,-7.27575,-71.7957,30.1397,-12.1454,-16.2983,-24.9245,7.12502,9.91238,-54.6711,1.33186e-14,-2.14687e-14,-40.8914,6.08945,83.8724,38.3021,3.20998,-11.462,-6.4293,7.12502,14.5754,23.0386,-4.84556,-3.30469,31.4947,29.5286,-19.4737,-12.6796,7.3077,-37.763,10.9015,-11.6092,46.8669,-9.4989,-3.93299,0.830479
-3.22726,17.3666,36.2883,-0.896355,12.8871,-12.5844,10.5868,4.6026,12.6173,3.74159,7.53565,5.40392,-1.07051,3.81575,-2.11193,-5.3251,2.31381,-1.44759,19.1168,4.14886,-3.62439,6.74964,1.65717,-0.609207,-4.77083e-14,2.62396e-14,-22.1022,-7.64046,-72.0344,29.885,-12.2155,-16.7872,-24.4022,7.12502,9.44064,-54.1708,-4.77083e-14,2.62396e-14,-38.9668,6.2146,84.3698,38.351,3.53264,-11.9301,-6.2485,7.12502,14.1244,23.2514,-4.02592,-3.36771,32.1884,28.8709,-19.6237,-13.2011,6.73124,-38.0058,10.7597,-11.2957,44.54,-9.30208,-3.01456,3.9932
-3.20603,17.3532,36.4317,-0.800777,13.2101,-12.7121,12.0311,4.63047,12.4299,2.49986,7.94573,5.36371,-3.16519,3.85487,-2.32866,-4.49656,2.41408,-1.46092,19.9915,4.27647,-3.35552,6.88049,1.73986,-0.519179,6.55989e-14,2.70347e-14,-23.5176,-6.95026,-71.8326,30.1956,-12.2429,-16.749,-25.0874,7.12502,9.4775,-54.8543,6.55989e-14,2.70347e-14,-41.1599,5.81684,84.3972,39.1122,3.77143,-12.4592,-6.30419,7.12502,13.6145,23.2306,-3.35498,-3.40446,32.3866,28.275,-19.7483,-13.5188,6.85951,-38.3085,10.643,-11.5183,42.278,-9.68913,-2.26089,5.2062
-3.18294,17.3362,36.5773,-0.507119,13.3715,-12.3945,11.8305,4.83023,11.9702,2.40215,8.12394,5.20987,-3.17782,3.94325,-2.25171,-4.64062,2.37079,-2.06905,20.3538,4.17929,-2.65341,6.9951,1.69833,-0.195029,-1.03766e-13,-7.55382e-14,-23.0597,-6.80929,-71.7656,30.1968,-11.9551,-16.9475,-25.9841,7.12502,9.28601,-55.7596,-1.03766e-13,-7.55382e-14,-41.571,5.55993,84.7219,39.7924,3.94978,-13.1747,-6.33591,7.12502,12.9248,23.2438,-2.71917,-3.3281,32.0941,27.591,-19.8497,-13.7498,6.67115,-38.5578,10.3875,-12.1134,40.0827,-10.4865,-0.916724,2.87956
-3.15527,17.3167,36.7218,-0.412174,13.4123,-12.399,11.6899,5.03255,11.9216,2.42117,8.35501,5.12298,-3.0457,4.06574,-2.32215,-5.056,2.29377,-2.49437,20.8138,4.08641,-2.24789,7.20159,1.64328,0.00937272,8.54774e-15,-1.35174e-14,-22.4502,-6.90827,-71.6598,29.9596,-11.7391,-17.4539,-25.9319,7.12502,8.79732,-55.7286,8.54774e-15,-1.35174e-14,-41.4292,5.46405,84.9731,39.6119,3.86257,-13.6675,-6.25024,7.12502,12.4497,23.359,-1.93723,-3.19758,32.1288,26.9419,-19.9474,-14.0642,5.52788,-38.7779,10.5602,-12.3751,38.124,-11.1908,0.509857,1.05072
-3.12496,17.31,36.8686,-0.572176,13.4985,-12.6199,11.5954,5.19854,12.171,2.57004,8.56861,5.09481,-2.7675,4.19009,-2.47891,-5.38024,2.30338,-2.39549,20.9817,4.17656,-2.56777,7.32451,1.6608,-0.0974003,-5.00937e-14,-4.77083e-15,-21.7494,-7.35741,-71.4341,29.6582,-11.4722,-16.6788,-25.1817,7.12502,9.54527,-54.9455,-5.00937e-14,-4.77083e-15,-40.5747,5.83263,85.0844,38.0137,3.43404,-14.195,-7.26369,7.12502,11.9411,22.3757,-0.810385,-3.07648,32.4004,26.0793,-19.9612,-14.4026,4.77982,-38.8127,10.5007,-12.2511,36.3439,-12.7985,1.84989,-1.47225
-3.09199,17.29,37.0189,-0.720091,13.7263,-12.8532,11.5226,5.18849,12.0423,2.58445,8.53662,5.24399,-2.75884,4.17744,-2.2463,-5.37291,2.45957,-2.624,21.0239,4.43543,-2.61219,7.33519,1.76354,-0.0532578,-9.18385e-14,-8.18993e-14,-21.1259,-7.19708,-71.2674,29.4137,-11.2454,-16.3088,-25.1509,7.12502,9.90223,-54.898,-9.18385e-14,-8.18993e-14,-40.4908,6.21923,85.3575,37.2889,3.75954,-14.8376,-8.40115,7.12502,11.3214,21.2733,0.311218,-3.14429,32.6588,25.1835,-19.9435,-14.6339,4.40213,-38.9158,9.95725,-12.0106,34.8174,-13.866,2.65789,1.94567
-3.0578,17.288,37.1747,-0.735903,14.0035,-13.5296,11.1778,5.19573,12.4971,2.51303,8.55392,5.31831,-2.58826,4.1915,-2.37126,-5.48104,2.48879,-3.08361,21.252,4.41547,-1.93887,7.40286,1.77105,0.243742,1.03567e-13,2.8625e-14,-20.5563,-7.32437,-71.3363,29.0975,-10.9528,-17.032,-24.7583,7.12502,9.20444,-54.5374,1.03567e-13,2.8625e-14,-40.4597,6.80681,85.2779,36.8199,3.53562,-15.3311,-8.90296,7.12502,10.8454,20.797,1.12758,-3.4888,33.3335,24.2905,-19.7375,-14.6476,3.64763,-39.2156,8.8184,-11.0959,33.4166,-15.4853,4.96115,1.20392
-3.01918,17.2695,37.3334,-0.664859,13.9335,-13.3956,10.9501,5.37728,12.1586,2.51719,8.71073,5.17461,-2.46568,4.27877,-2.33041,-5.5204,2.50794,-3.06369,21.4255,4.41051,-1.73859,7.46174,1.7843,0.307482,4.17448e-14,-1.59028e-15,-19.9943,-8.03532,-71.289,28.8699,-9.85213,-16.0801,-24.7424,7.12502,10.1229,-54.4789,4.17448e-14,-1.59028e-15,-40.6641,6.49072,85.5002,36.9813,3.91801,-15.945,-8.31599,7.12502,10.2532,21.4141,2.02963,-3.61518,33.1004,23.6392,-19.653,-14.602,1.96208,-39.3271,8.38522,-11.1479,32.227,-17.3899,6.39494,1.08222
-2.97712,17.2432,37.4857,-0.680245,13.8923,-13.3113,10.8917,5.53482,11.9363,2.50725,8.88237,5.09146,-2.44325,4.36601,-2.30882,-5.37576,2.56841,-2.91725,21.3189,4.51626,-1.97909,7.40971,1.83011,0.209873,-3.00165e-14,2.22639e-14,-19.4843,-8.77632,-71.1099,28.7353,-9.4527,-15.2336,-25.2851,7.12502,10.9394,-54.9801,-3.00165e-14,2.22639e-14,-40.795,6.33767,85.721,36.918,3.90629,-16.2138,-8.45211,7.12502,9.9939,21.2906,2.88919,-3.60478,32.9385,23.2596,-19.6561,-14.7808,-0.455153,-39.1575,6.7988,-10.6182,31.1164,-19.7009,8.49797,2.41694
-2.92886,17.2195,37.633,-0.772016,13.8137,-13.6687,10.8537,5.6031,12.2005,2.4625,9.00103,5.11155,-2.41855,4.42296,-2.43223,-5.28287,2.71684,-2.86409,21.2913,4.73625,-2.09988,7.38793,1.93129,0.17708,7.7526e-14,7.07673e-14,-18.9712,-9.09194,-71.1418,28.2976,-9.48912,-16.2598,-24.7611,7.12502,9.94948,-54.506,7.7526e-14,7.07673e-14,-41.1218,6.17945,85.9266,37.0284,4.12764,-16.4294,-9.21026,7.12502,9.78588,20.5424,3.37384,-3.48192,33.2221,23.5054,-19.8484,-14.7448,-1.03648,-38.9609,4.8459,-9.39098,30.0087,-21.2222,10.5471,7.07256
-2.87673,17.1883,37.7825,-0.589525,13.7244,-13.5417,10.5777,5.65897,11.8993,2.42729,8.99572,4.9779,-2.32843,4.42665,-2.38254,-5.39568,2.93255,-2.73425,21.4507,5.02829,-2.08901,7.46232,2.07678,0.185457,-6.75868e-14,1.19271e-14,-18.3421,-9.0619,-71.3901,27.6666,-7.9181,-16.7712,-24.0231,7.12502,9.45607,-53.791,-6.75868e-14,1.19271e-14,-41.4693,6.18327,86.0329,37.2539,4.52831,-16.8279,-9.33945,7.12502,9.40144,20.4309,4.01449,-3.48983,32.937,23.0485,-19.4817,-14.4871,-1.07258,-39.3018,4.81689,-9.52507,29.7808,-22.7505,10.8162,8.55442
-2.83197,17.1239,37.9376,-0.427492,13.6543,-13.1571,10.3269,5.8157,11.3049,2.45341,9.08961,4.76519,-2.20748,4.48437,-2.26783,-5.58821,3.01829,-2.64625,21.6194,5.1337,-1.99836,7.5514,2.13593,0.214226,-1.8487e-14,-5.56597e-15,-17.7181,-9.25579,-71.5241,27.7936,-9.44298,-16.6566,-25.1419,7.12502,9.56667,-54.9047,-1.8487e-14,-5.56597e-15,-41.3345,6.10876,86.1967,36.7406,5.10818,-17.6027,-9.88449,7.12502,8.65379,19.9181,4.43154,-3.51564,32.4272,23.296,-19.3996,-14.5055,-1.75337,-39.21,4.77168,-9.90519,29.1207,-24.6195,10.1209,12.7342
-2.80129,17.1763,38.0845,-1.05655,13.567,-14.5065,10.5375,5.89447,12.4734,2.45388,9.35629,4.95083,-2.1377,4.6139,-2.72285,-5.57085,2.99855,-2.63117,21.6511,5.05862,-1.76526,7.55175,2.122,0.281567,-5.725e-14,-1.74931e-14,-17.3612,-9.9085,-71.6844,27.7705,-9.94283,-17.2951,-25.3082,7.12502,8.95057,-55.0983,-5.725e-14,-1.74931e-14,-41.0739,5.68788,86.3517,35.8744,5.38524,-18.5027,-10.8413,7.12502,7.78519,18.9954,5.03736,-3.14313,33.9311,23.7015,-19.6311,-14.7568,-1.44666,-37.91,4.89908,-8.38439,28.6436,-26.2926,10.4309,14.7742
-2.73662,17.1157,38.2307,-0.293049,13.9696,-13.3338,10.1058,5.96706,11.2771,2.17542,9.2741,4.53952,-2.32553,4.56133,-2.49144,-5.38714,3.06209,-2.7525,21.6709,5.14009,-1.67056,7.51946,2.16269,0.335528,1.34279e-13,3.18055e-14,-17.1996,-10.0832,-71.7241,27.4031,-9.44221,-17.785,-24.1765,7.12502,8.47779,-53.9863,1.34279e-13,3.18055e-14,-41.1404,6.14873,86.2039,35.2551,3.55946,-18.2061,-10.3439,7.12502,8.0714,19.482,4.98445,-3.65206,32.4095,23.9522,-19.9418,-14.1816,-1.93603,-38.9607,4.24699,-10.043,28.3921,-25.1413,13.7312,12.4021
-2.67607,17.045,38.3786,-0.367853,14.1311,-13.5303,10.1707,6.00462,11.5269,2.0273,9.37047,4.44002,-2.45046,4.59534,-2.74872,-5.39382,3.13893,-2.56297,21.7949,5.26551,-1.82854,7.57069,2.22221,0.264382,-8.33902e-14,-1.86858e-14,-17.0329,-10.5449,-71.7566,28.5333,-10.7442,-16.0453,-29.4676,7.12502,10.1565,-59.2025,-8.33902e-14,-1.86858e-14,-41.0468,6.4392,86.3047,34.2636,4.33474,-19.5905,-11.4925,7.12502,6.73517,18.3804,5.75698,-3.99358,32.3736,23.6222,-19.4098,-14.1216,-3.62801,-39.5094,5.49575,-10.809,28.9172,-23.1363,14.4431,9.27995
-2.62295,17.0694,38.5269,-0.729385,14.1806,-13.9956,10.3305,6.0926,12.0154,2.01995,9.56375,4.45482,-2.44605,4.68684,-3.01904,-5.48963,3.18015,-2.62821,21.9276,5.33327,-1.76826,7.6283,2.25217,0.303992,-7.31528e-14,-1.98785e-15,-16.8713,-11.7701,-71.5729,27.3287,-9.03657,-17.82,-24.4455,7.12502,8.44408,-54.2567,-7.31528e-14,-1.98785e-15,-41.3385,5.37287,86.9063,34.4544,5.32075,-19.7912,-11.1958,7.12502,6.54142,18.6832,6.34849,-3.99165,32.7227,24.005,-19.0858,-14.2397,-4.82025,-38.855,7.30214,-11.2402,29.1861,-21.9459,11.4163,16.1252
-2.58025,17.0948,38.6868,-0.752503,14.1981,-13.9717,10.104,6.31274,11.9365,2.08643,9.79518,4.28143,-2.20097,4.81892,-3.13387,-5.56552,3.1044,-2.98293,21.8469,5.17398,-1.28674,7.59204,2.19197,0.507506,-3.11098e-14,-1.51076e-14,-16.6344,-12.8392,-71.5864,27.4446,-9.04728,-17.665,-24.4825,7.12502,8.59368,-54.2876,-3.11098e-14,-1.51076e-14,-41.3074,4.77957,87.0355,34.4643,4.54637,-19.2069,-11.1985,7.12502,7.10546,18.6623,6.94151,-3.48616,32.7369,23.9234,-18.7906,-14.5059,-5.30807,-38.8178,8.72583,-11.9625,30.0127,-21.0879,9.90965,19.954
-2.53074,17.0874,38.8447,-0.590921,14.3595,-13.6825,9.91098,6.34316,11.3395,1.95842,9.75199,4.08899,-2.30053,4.79241,-3.00677,-5.50876,3.20488,-2.98673,21.8188,5.2632,-1.06559,7.56433,2.25478,0.585349,2.72335e-14,1.55052e-14,-16.5667,-13.4466,-71.8614,27.5949,-8.8198,-17.3714,-24.5303,7.12502,8.87693,-54.3236,2.72335e-14,1.55052e-14,-41.0742,5.28826,86.5047,33.1281,2.95844,-18.3387,-12.1792,7.12502,7.94348,17.6515,7.43182,-3.33238,32.3747,23.7924,-18.322,-14.7162,-7.13817,-39.1297,9.25898,-12.7678,31.0913,-20.4895,11.2532,19.332
-2.46461,17.0879,39.0008,-0.646251,14.5559,-13.4804,9.86002,6.2492,10.8578,1.91473,9.57598,4.04132,-2.41107,4.70205,-2.79363,-5.57318,3.4406,-2.90016,21.8724,5.60278,-1.15994,7.59621,2.41312,0.569245,6.16232e-15,2.74323e-14,-16.4356,-13.5518,-72.1065,27.7407,-8.81083,-17.3001,-24.5129,7.12502,8.94577,-54.3032,6.16232e-15,2.74323e-14,-41.233,5.62144,86.5324,32.9288,2.87827,-18.4769,-11.3031,7.12502,7.81003,18.5326,7.82678,-3.51585,31.929,24.2602,-17.8933,-14.586,-9.84366,-38.9692,10.1039,-13.6827,31.6081,-19.4782,9.04445,23.0811
-2.38985,17.0915,39.1633,-0.585731,14.614,-12.9305,9.76731,6.36079,10.3781,1.88863,9.65312,3.77056,-2.40845,4.74313,-2.81707,-5.59448,3.53757,-2.70474,21.8585,5.75681,-1.36409,7.60662,2.48452,0.483206,-4.48259e-14,-5.24792e-14,-16.5254,-13.4839,-72.2624,28.0249,-9.75191,-17.87,-24.3501,7.12502,8.39584,-54.1632,-4.48259e-14,-5.24792e-14,-41.4822,5.22116,86.8418,32.7419,4.11045,-19.0262,-12.9332,7.12502,7.27982,16.9216,7.98659,-3.61009,31.04,25.217,-17.6456,-14.1353,-11.9251,-38.4965,10.1483,-14.5544,31.9404,-18.5918,8.53758,25.8311
-2.31231,17.106,39.3312,-0.307419,14.6307,-11.7188,9.56263,6.5129,9.20709,1.87874,9.69416,3.31523,-2.41247,4.77165,-2.65076,-5.54065,3.58528,-2.65222,21.832,5.81428,-1.36257,7.58916,2.51788,0.477953,-1.69265e-13,-3.61788e-14,-16.5969,-13.355,-72.5039,28.3539,-10.6238,-18.153,-24.6042,7.12502,8.12264,-54.428,-1.69265e-13,-3.61788e-14,-41.7672,4.90471,86.9751,32.9728,4.82235,-19.0076,-12.3727,7.12502,7.29783,17.4815,8.13172,-3.78423,29.4156,26.1162,-16.8055,-13.5703,-13.7978,-38.1048,9.72323,-15.8337,32.2758,-17.5815,8.68952,28.3817
-2.24315,17.1013,39.5059,-0.472583,14.4479,-11.3509,9.56713,6.58296,8.68627,1.89214,9.72501,3.05841,-2.43777,4.7898,-2.64312,-5.62684,3.69906,-2.5835,21.987,5.92364,-1.12564,7.64855,2.59223,0.556552,-1.0138e-13,-3.06128e-14,-16.6208,-13.3555,-73.0201,28.6589,-11.1556,-18.1774,-25.0849,7.12502,8.09912,-54.9097,-1.0138e-13,-3.06128e-14,-41.8562,5.26047,86.5383,33.1983,3.84117,-17.9615,-8.20302,7.12502,8.30745,21.6136,8.40423,-3.53015,28.8562,27.1365,-15.7094,-13.3323,-15.6467,-37.5636,9.02656,-15.8287,32.8147,-17.0814,8.98194,30.6428
-2.17506,17.1005,39.6857,-1.2484,14.1347,-12.5506,9.76739,6.64245,9.82283,1.90616,9.9427,3.16573,-2.33882,4.89478,-3.16274,-5.79858,3.8452,-2.27122,22.254,6.09024,-1.05657,7.77335,2.69607,0.549415,-1.86659e-13,-1.8487e-14,-16.8051,-13.4729,-73.5287,29.0541,-11.9971,-18.8327,-25.2439,7.12502,7.46665,-55.0921,-1.86659e-13,-1.8487e-14,-41.4163,5.62277,85.9443,31.2216,3.9549,-18.1541,-9.61628,7.12502,8.12161,20.2077,8.79864,-2.97592,30.0345,28.2618,-14.8861,-13.08,-16.807,-36.7829,9.12932,-14.3344,33.4209,-16.5398,8.92093,30.9586
-2.09226,17.0977,39.8622,-1.79155,14.0221,-13.2272,9.776,6.73181,10.6221,1.93877,10.141,3.22962,-2.1598,4.9985,-3.51878,-5.87374,3.8604,-2.68725,22.5505,6.07068,-0.501994,7.85327,2.69933,0.80449,1.267e-13,6.02318e-14,-17.0785,-13.5343,-73.7304,29.5074,-12.7116,-19.8573,-25.4555,7.12502,6.47759,-55.3365,1.267e-13,6.02318e-14,-42.1025,4.38668,86.5187,32.3274,5.76029,-18.2656,-10.0085,7.12502,8.01401,19.8195,8.91987,-2.72356,30.4653,29.6609,-14.0753,-12.2924,-16.6762,-36.0951,8.84925,-13.4774,34.1074,-16.0764,9.2405,30.6286
-1.9991,17.1129,40.0365,-1.89307,14.0316,-12.7805,9.59577,6.7444,10.179,1.95825,10.0826,3.07371,-2.09446,4.97704,-3.41843,-5.75371,3.87645,-3.31325,22.6467,6.0538,0.0877378,7.82358,2.69481,1.09752,1.7667e-14,-2.97183e-14,-17.2163,-13.5305,-74.0141,29.7721,-12.6123,-20.0592,-25.4982,7.12502,6.28268,-55.385,1.7667e-14,-2.97183e-14,-41.7458,6.59573,85.4565,30.4729,4.29493,-18.2593,-10.545,7.12502,8.02007,19.2828,8.64235,-2.68189,29.5635,31.3453,-12.8728,-11.6466,-17.8217,-35.5112,8.78743,-14.0429,34.7072,-15.5291,9.38674,30.7671
-1.90795,17.1232,40.2032,-1.97195,14.0862,-11.9619,9.70552,6.68272,9.20243,1.86582,9.91917,2.87023,-2.4008,4.88401,-3.13566,-5.56811,4.05651,-3.00037,22.7676,6.35851,-0.350589,7.85259,2.82552,0.924609,-4.87395e-14,-2.64881e-14,-17.4925,-12.9688,-74.3448,30.0332,-12.6342,-20.0233,-25.2444,7.12502,6.31729,-55.1302,-4.87395e-14,-2.64881e-14,-42.2663,7.14282,85.1815,30.5603,4.69659,-18.4022,-10.5581,7.12502,7.88216,19.275,8.16481,-2.77294,28.2297,33.4868,-11.4615,-11.5702,-22.0036,-34.8009,9.09563,-15.1246,35.2079,-15.4634,8.92285,31.3959
-1.81692,17.1309,40.3687,-2.0466,14.324,-11.1633,9.77659,6.8017,9.10947,1.85996,10.0472,2.20364,-2.32421,4.95194,-3.78195,-5.79824,3.98713,-2.37402,23.1366,6.24191,-0.505473,8.04399,2.79995,0.774612,2.52829e-15,-2.25124e-14,-17.8465,-13.4802,-74.8027,30.4192,-12.767,-20.2403,-25.028,7.12502,6.10783,-54.92,2.52829e-15,-2.25124e-14,-42.6648,5.91986,85.2431,31.4876,5.81739,-18.4615,-10.7694,7.12502,7.82489,19.0658,7.4507,-2.94265,26.9236,35.9999,-9.39219,-10.3268,-20.7256,-34.0809,9.36767,-16.2281,35.5908,-15.8486,8.11211,30.7925
-1.73219,17.1408,40.5325,-2.12707,14.8114,-10.7945,9.63531,6.68113,8.48995,1.83654,9.81757,2.29978,-2.42066,4.83736,-3.33021,-5.97866,4.15398,-2.5096,23.6599,6.60265,-0.806142,8.25947,2.92188,0.743632,1.33388e-14,-1.16475e-14,-18.0271,-12.9773,-74.7759,30.6977,-12.7833,-19.6181,-24.7981,7.12502,6.70848,-54.6718,1.33388e-14,-1.16475e-14,-43.576,5.69337,85.8047,32.852,7.03315,-18.5175,-9.08524,7.12502,7.7709,20.752,6.39634,-3.12195,26.1559,38.7554,-7.16545,-9.65881,-20.5365,-33.5267,9.57432,-16.9263,35.9355,-16.1641,7.20582,29.2417
-1.66025,17.1482,40.6844,-2.24575,15.4569,-10.2216,9.7951,6.54726,7.72379,1.77383,9.58294,2.23899,-2.71525,4.71177,-3.00347,-5.79866,4.36695,-2.47267,23.6493,6.9786,-1.17778,8.23806,3.07188,0.642036,5.6357e-14,4.53478e-15,-18.3291,-12.2737,-74.8584,31.1104,-13.3576,-19.8745,-24.784,7.12502,6.46097,-54.6654,5.6357e-14,4.53478e-15,-43.3827,7.2034,85.1735,31.5923,5.96646,-18.5824,-7.97488,7.12502,7.70823,21.8646,5.2621,-3.27686,25.2635,41.6688,-4.75066,-9.04461,-21.1177,-32.8717,9.62939,-17.7629,36.1833,-16.2384,6.45826,28.9593
-1.59404,17.1538,40.8306,-2.40234,16.1601,-9.49489,10.0749,6.43151,6.96608,1.74663,9.36838,1.9789,-2.99568,4.59882,-2.89306,-5.42473,4.40027,-2.52039,23.2976,6.99984,-1.1778,8.04934,3.09097,0.634115,-5.77097e-15,1.15295e-14,-18.7143,-11.6365,-75.1834,31.6639,-14.1149,-20.9373,-24.8616,7.12502,5.4349,-54.7719,-5.77097e-15,1.15295e-14,-43.3398,5.98393,85.7239,31.5227,7.5955,-18.9795,-7.91229,7.12502,7.32496,21.9409,4.13791,-3.36177,24.2923,44.6498,-2.3698,-8.47432,-20.9757,-32.0684,9.65641,-18.7036,36.3029,-15.9923,5.88506,29.8608
-1.5332,17.1724,40.979,-2.58337,16.9297,-9.15791,10.2266,6.40562,6.6005,1.74586,9.30362,1.85826,-3.12337,4.56479,-2.83802,-5.05927,4.11577,-3.48048,23.0374,6.52266,-0.346353,7.8351,2.87292,1.01003,9.62118e-14,-1.77912e-14,-19.1585,-11.7494,-75.2448,32.2683,-14.2733,-21.3642,-24.9699,7.12502,5.02273,-54.8904,9.62118e-14,-1.77912e-14,-43.1093,4.75164,86.4424,31.2179,8.68146,-19.504,-8.14692,7.12502,6.81869,21.7233,2.87464,-3.38495,23.8631,47.6119,0.145608,-8.07871,-19.3507,-31.3897,9.68282,-19.1938,36.3111,-15.5105,5.46374,29.6552
-1.47038,17.2044,41.1309,-2.76479,17.6858,-8.62551,10.3635,6.39366,6.08256,1.82481,9.23173,1.6935,-3.17581,4.5336,-2.7376,-5.18693,4.2505,-3.39845,23.0218,6.73315,-0.460054,7.85725,2.96965,0.979444,1.03368e-13,-1.88845e-14,-19.4846,-11.8656,-75.3012,32.8442,-14.344,-20.8749,-25.5187,7.12502,5.49516,-55.4275,1.03368e-13,-1.88845e-14,-42.6224,4.84643,86.4347,30.5431,8.06931,-19.7461,-8.2177,7.12502,6.58491,21.6599,1.68884,-3.40925,23.2007,50.4714,2.82746,-7.4526,-15.7793,-30.5933,9.75473,-19.8783,36.2329,-15.1219,5.0793,28.1866
-1.39931,17.2239,41.2811,-2.96407,18.36,-7.78024,10.5175,6.29262,5.34831,2.00075,9.00748,1.39722,-3.15887,4.43288,-2.63429,-5.49093,4.45228,-3.18749,23.1261,7.04054,-0.61821,7.95687,3.11277,0.928846,7.03449e-14,-1.71949e-14,-19.6026,-11.593,-75.6521,33.2947,-14.3215,-19.1012,-26.4957,7.12502,7.20748,-56.353,7.03449e-14,-1.71949e-14,-42.2929,4.76846,86.3856,30.2408,7.91711,-19.8607,-8.59613,7.12502,6.47426,21.2849,0.707637,-3.37546,22.0996,53.1589,5.14533,-6.93987,-9.21284,-29.5671,9.96909,-20.9202,36.2335,-15.1773,4.44541,27.0115
-1.32958,17.239,41.4303,-3.07428,19.0336,-7.21419,10.6024,6.23085,4.6436,2.0124,8.85138,1.34261,-3.303,4.35727,-2.30996,-5.61517,4.55667,-3.51142,23.4205,7.21256,-0.411646,8.05646,3.18096,1.07365,-7.2134e-14,-2.97183e-14,-20.0245,-11.0715,-75.6911,33.8296,-14.3442,-18.0911,-28.0413,7.12502,8.18237,-57.8629,-7.2134e-14,-2.97183e-14,-42.3083,4.24182,86.8308,30.3608,8.14745,-20.2207,-9.29521,7.12502,6.12679,20.5962,-0.426764,-3.39753,21.3563,55.6518,7.33108,-6.88986,-2.42113,-28.6276,9.98463,-21.6481,36.2404,-15.5698,3.87434,25.3198
