JuanDHNZ/ProyectoFinalCD/preprocessing/sports_trials_csv/01_12.csv
root1,root2,root3,root4,root5,root6,lowerback1,lowerback2,lowerback3,upperback1,upperback2,upperback3,thorax1,thorax2,thorax3,lowerneck1,lowerneck2,lowerneck3,upperneck1,upperneck2,upperneck3,head1,head2,head3,rclavicle1,rclavicle2,rhumerus1,rhumerus2,rhumerus3,rradius1,rwrist1,rhand1,rhand2,rfingers1,rthumb1,rthumb2,lclavicle1,lclavicle2,lhumerus1,lhumerus2,lhumerus3,lradius1,lwrist1,lhand1,lhand2,lfingers1,lthumb1,lthumb2,rfemur1,rfemur2,rfemur3,rtibia1,rfoot1,rfoot2,rtoes1,lfemur1,lfemur2,lfemur3,ltibia1,lfoot1,lfoot2,ltoes1
11.3329,17.7328,18.6183,168.362,-72.1183,-167.849,10.3226,3.72322,-1.9181,3.02654,4.67496,1.72958,-2.91911,2.27377,2.27192,-5.18991,-4.81787,-6.0011,-5.22528,-6.09598,9.97824,-0.219651,-3.06144,4.22913,6.21202e-16,-6.90777e-15,-34.973,-33.5357,-65.484,36.2554,-167.183,-27.0599,22.1237,7.12502,-0.477901,-7.85553,6.21202e-16,-6.90777e-15,-27.8907,9.1817,79.2325,25.3926,0.347198,-19.0871,-5.91528,7.12502,7.22108,23.9415,-18.7255,6.7781,20.7183,38.2189,-16.2956,-8.95076,-4.74021,-5.25767,7.12557,-13.8141,27.9751,-21.1858,3.68906,1.54924
11.3218,17.7356,18.6057,168.65,-71.795,-168.167,10.3415,3.73294,-2.01464,3.02153,4.67575,1.67097,-2.93741,2.27465,2.26358,-5.13742,-4.88468,-6.16449,-5.3726,-6.1738,10.2854,-0.252647,-3.10529,4.37262,-1.02871e-14,1.29707e-14,-35.0402,-33.1986,-65.7295,36.5855,-167.518,-26.9124,21.9994,7.12502,-0.335485,-7.98011,-1.02871e-14,1.29707e-14,-27.6471,9.37388,78.9667,24.9767,0.176763,-19.4535,-5.90055,7.12502,6.86738,23.9681,-19.1084,6.90136,20.6964,38.8077,-16.6721,-9.68041,-3.21797,-4.82178,7.15325,-13.8167,27.4101,-21.1214,3.98901,1.85622
11.3074,17.7482,18.5928,170.108,-71.5385,-169.551,10.151,3.75899,-2.52014,3.01681,4.66181,1.53784,-2.86534,2.2704,2.42062,-5.07719,-4.97358,-6.17626,-5.67834,-6.28321,10.4762,-0.345305,-3.17129,4.44754,-2.77553e-14,-1.68967e-15,-34.7662,-32.9736,-65.9607,36.6482,-167.55,-27.0671,21.6375,7.12502,-0.484901,-8.34169,-2.77553e-14,-1.68967e-15,-27.4206,9.81999,78.6345,24.6073,-0.264574,-19.365,-5.89278,7.12502,6.95285,23.973,-19.6773,6.79672,20.2159,39.2529,-17.0053,-9.8636,-0.218824,-4.58632,7.22165,-14.2367,26.9189,-21.0695,4.36773,1.42782
11.2901,17.7603,18.5792,170.663,-71.2085,-169.971,9.91207,3.72708,-2.91298,3.01072,4.59336,1.65692,-2.77596,2.23806,2.78631,-4.85528,-5.02468,-6.24713,-6.23465,-6.33457,10.4076,-0.561735,-3.21263,4.45427,-1.6114e-14,-6.75868e-15,-34.2757,-32.5056,-66.0635,36.5887,-167.483,-27.2747,21.0048,7.12502,-0.685414,-8.97385,-1.6114e-14,-6.75868e-15,-27.3795,11.0501,78.234,24.3335,-1.21519,-18.876,-5.97161,7.12502,7.42481,23.8781,-20.2251,6.65363,20.0803,39.6092,-16.8405,-10.2357,1.33514,-4.38332,7.27066,-14.3233,26.4829,-20.9556,4.73987,1.15037
11.2748,17.7679,18.5638,170.905,-70.8213,-170.078,9.76236,3.63146,-3.26498,2.9718,4.44742,1.9125,-2.76983,2.16838,3.27497,-4.65644,-5.00944,-6.67282,-6.69951,-6.28709,10.3102,-0.742937,-3.19151,4.52225,2.53761e-15,2.24875e-15,-33.8822,-31.5267,-66.0925,36.7113,-167.539,-27.7725,20.5898,7.12502,-1.16616,-9.38674,2.53761e-15,2.24875e-15,-27.5002,12.0688,78.0742,24.2015,-1.51249,-18.8025,-5.71172,7.12502,7.49581,24.1355,-20.7042,6.75879,20.0769,39.8404,-16.4237,-11.1408,0.668392,-4.1939,7.20321,-14.3041,26.1059,-20.9015,5.16973,1.29417
11.261,17.7754,18.5488,171.288,-70.4376,-170.364,9.61886,3.59118,-3.61708,2.9846,4.37146,2.11151,-2.71223,2.13081,3.69785,-4.79742,-5.00681,-7.12165,-6.79933,-6.25708,10.3413,-0.737657,-3.1657,4.62114,-2.25124e-14,1.09332e-14,-33.5028,-30.7053,-66.1351,36.8387,-167.655,-28.0641,20.5167,7.12502,-1.44786,-9.45813,-2.25124e-14,1.09332e-14,-27.4626,12.6428,78.0901,24.0856,-1.41994,-18.9607,-5.33093,7.12502,7.34313,24.5216,-21.121,7.07666,19.9522,39.9364,-16.3915,-11.7824,0.952129,-4.00933,7.15978,-14.3387,25.8125,-20.9519,5.52339,1.10524
11.2378,17.7779,18.5338,171.333,-70.1326,-170.404,9.55094,3.54798,-3.67544,2.9911,4.31098,2.11361,-2.66674,2.10003,3.74469,-5.10648,-5.01149,-7.07024,-6.6593,-6.25956,10.4394,-0.63458,-3.16246,4.63308,9.66125e-14,1.49958e-14,-33.6105,-30.506,-66.3285,37.2244,-167.358,-28.1377,20.407,7.12502,-1.51887,-9.5673,9.66125e-14,1.49958e-14,-27.3999,13.2274,77.7798,23.9332,-1.40119,-19.1312,-5.02506,7.12502,7.1785,24.8332,-21.3644,7.1459,19.8796,39.9606,-16.2171,-12.128,2.31595,-3.67564,7.2536,-14.26,25.4968,-21.0281,5.58672,1.03677
11.203,17.7793,18.5185,172.153,-69.9077,-171.249,9.48662,3.42937,-3.79175,2.89197,4.14287,1.86513,-2.70805,2.02168,3.5733,-5.20627,-4.97609,-6.76716,-6.58873,-6.22675,10.6074,-0.60065,-3.15424,4.63011,1.46852e-14,1.33683e-14,-33.8388,-30.2088,-66.7175,37.6564,-166.853,-28.3661,20.0515,7.12502,-1.73947,-9.92112,1.46852e-14,1.33683e-14,-27.5372,13.7797,77.1006,23.7706,-1.34865,-19.2224,-4.81544,7.12502,7.09051,25.0458,-21.6449,6.82631,19.4687,39.9649,-15.8842,-12.3169,3.2326,-3.29075,7.26613,-14.5452,25.0937,-21.0917,5.66621,1.38315
11.1674,17.783,18.5033,172.867,-69.723,-171.957,9.39924,3.34118,-3.89561,2.76592,4.02038,1.70243,-2.77482,1.9674,3.47861,-5.08651,-4.97342,-6.63448,-6.69639,-6.22987,10.7663,-0.655426,-3.16725,4.66761,1.4884e-14,-7.55382e-15,-33.1379,-29.1832,-67.0272,37.3373,-167.344,-28.1486,20.1188,7.12502,-1.52941,-9.85551,1.4884e-14,-7.55382e-15,-27.6606,14.0894,76.5931,23.5514,-1.37341,-18.9034,-4.99861,7.12502,7.39842,24.852,-21.9258,6.39056,19.0809,39.9089,-15.7596,-12.3257,4.2025,-2.93539,7.13259,-14.8235,24.6939,-21.1711,5.92025,1.65117
11.1367,17.7873,18.483,173.177,-69.621,-172.27,9.32852,3.29662,-4.02402,2.69457,3.95486,1.68355,-2.81103,1.93899,3.54085,-5.05608,-4.96983,-6.77271,-6.7468,-6.21625,10.9872,-0.665875,-3.16258,4.77819,2.52208e-14,-1.5704e-14,-33.6433,-28.515,-67.0267,37.9685,-168.078,-27.8739,20.1137,7.12502,-1.26415,-9.86229,2.52208e-14,-1.5704e-14,-27.7031,14.0295,76.4772,23.4796,-1.01829,-18.6315,-5.11592,7.12502,7.66086,24.7253,-22.1274,6.11741,18.8002,39.7965,-15.7543,-12.3092,5.58512,-2.58383,7.26559,-14.8827,24.3078,-21.1757,6.00675,1.1076
11.111,17.7905,18.4579,173.152,-69.4328,-172.048,9.15535,3.24653,-4.03237,2.59454,3.89993,1.70325,-2.81618,1.91623,3.57866,-5.32366,-4.93916,-6.94442,-6.66323,-6.1311,11.629,-0.489328,-3.12341,4.53145,-2.71093e-14,2.22639e-14,-33.1638,-28.0533,-67.0326,37.7967,-168.697,-28.4114,20.2938,7.12502,-1.78325,-9.67853,-2.71093e-14,2.22639e-14,-27.6501,14.1327,76.3402,23.3814,-0.806112,-18.7144,-4.91855,7.12502,7.58082,24.9256,-22.5973,6.13928,18.7159,39.6201,-15.6766,-12.5159,5.83856,-2.45712,7.62363,-14.6859,23.9537,-21.0808,6.04144,-0.0511865
11.0822,17.7915,18.4332,173.25,-69.2277,-171.929,8.96067,3.20214,-4.0234,2.48723,3.85365,1.67011,-2.81287,1.89776,3.55133,-5.46616,-4.9483,-6.93879,-6.65007,-6.13969,11.8793,-0.451221,-3.12932,4.60226,-3.2141e-14,-5.86415e-15,-33.5879,-28.1797,-67.0244,38.3561,-168.565,-29.0056,20.8695,7.12502,-2.35714,-9.09722,-3.2141e-14,-5.86415e-15,-27.4688,14.5077,76.0436,23.0646,-1.104,-18.7355,-5.04508,7.12502,7.56049,24.7998,-23.089,6.01725,18.638,39.3238,-15.3596,-12.9647,4.28714,-2.40988,7.95544,-14.5373,23.7269,-21.0491,6.10882,-0.886505
11.0478,17.7926,18.4109,173.769,-69.1059,-172.413,8.78552,3.16878,-4.17699,2.53423,3.8014,1.61808,-2.6684,1.86875,3.59984,-5.74508,-4.98146,-6.7397,-6.77356,-6.18418,11.921,-0.44273,-3.15641,4.57647,3.36692e-15,-1.02374e-14,-32.8307,-27.9716,-67.0741,38.1081,-168.925,-29.0895,21.9796,7.12502,-2.43812,-7.98623,3.36692e-15,-1.02374e-14,-27.1643,14.3546,76.0665,23.0027,-0.819126,-18.5812,-5.38151,7.12502,7.70939,24.458,-23.327,5.52687,18.2892,38.9046,-15.2543,-12.994,3.66925,-2.20362,7.84688,-14.6995,23.5798,-21.176,6.40782,-0.839375
11.0227,17.7954,18.3904,172.961,-68.824,-171.366,8.60376,3.13451,-3.81798,2.61913,3.79568,1.7672,-2.46681,1.85825,3.56544,-6.47937,-5.0011,-6.49859,-6.67801,-6.21526,11.7649,-0.30818,-3.15875,4.46871,2.33572e-15,-1.32192e-14,-33.136,-28.0475,-67.0742,38.8424,-169.413,-28.2723,22.3062,7.12502,-1.64886,-7.66713,2.33572e-15,-1.32192e-14,-26.7349,14.0608,76.2627,23.1179,-0.39167,-18.3062,-5.62465,7.12502,7.97478,24.2049,-23.7079,5.53855,18.4815,38.3881,-15.3519,-13.0566,4.63966,-2.14268,7.78635,-14.2192,23.4399,-21.2839,6.56653,-0.35692
10.9975,17.8009,18.3664,172.143,-68.5775,-170.302,8.46316,3.06445,-3.45441,2.62776,3.74025,1.87678,-2.35985,1.82757,3.48868,-6.86903,-4.96341,-6.21991,-6.64099,-6.20752,11.2838,-0.31828,-3.14604,4.71946,7.31652e-14,1.14301e-14,-33.1837,-27.891,-67.0788,39.4296,-169.834,-27.7152,22.1041,7.12502,-1.11081,-7.87272,7.31652e-14,1.14301e-14,-26.3523,14.0996,76.1985,22.9928,-0.526003,-18.138,-6.15962,7.12502,8.13713,23.6637,-24.081,5.92084,18.6638,37.834,-15.3915,-13.4626,4.71796,-2.03744,7.62748,-13.7262,23.2016,-21.3648,6.73229,0.202123
10.9624,17.804,18.3363,172.133,-68.4774,-170.176,8.29436,2.95376,-3.4502,2.62316,3.60105,1.91527,-2.26122,1.75725,3.54989,-6.86584,-4.88698,-6.06113,-6.94985,-6.10706,11.1973,-0.43893,-3.1096,4.66728,2.55314e-14,-9.93923e-15,-33.2099,-27.637,-66.8868,40.0485,-169.908,-28.2049,21.6855,7.12502,-1.58383,-8.28842,2.55314e-14,-9.93923e-15,-26.0955,13.9703,76.1465,22.9342,-0.556914,-17.825,-6.74039,7.12502,8.4392,23.071,-24.3343,6.03413,18.4685,37.2751,-15.3166,-13.8439,3.54797,-1.78328,7.9141,-13.5402,22.8563,-21.3149,6.44703,0.211638
10.9266,17.8061,18.3077,172.415,-68.4193,-170.416,8.21692,2.85752,-3.61455,2.64787,3.46379,1.99028,-2.19456,1.68727,3.73981,-7.02075,-4.87995,-6.18711,-7.21171,-6.07868,11.2093,-0.495908,-3.09848,4.69935,3.64646e-14,-1.59028e-14,-33.0843,-27.3092,-66.5436,40.4308,-170.303,-28.5847,21.2942,7.12502,-1.95066,-8.67659,3.64646e-14,-1.59028e-14,-25.8288,13.5642,76.3274,23.0929,-0.680494,-17.6701,-6.91482,7.12502,8.58871,22.8905,-24.616,5.96907,18.0809,36.7145,-15.2376,-13.9753,3.33466,-1.43702,7.96567,-13.5602,22.4168,-21.1789,6.56219,-0.899567
10.8951,17.8084,18.2805,173.227,-68.4556,-171.269,8.23446,2.72508,-3.9848,2.66841,3.25652,1.95677,-2.18142,1.5837,3.93634,-7.38224,-4.88794,-6.17736,-7.217,-6.0856,11.3457,-0.428491,-3.09927,4.73682,3.81045e-14,2.43511e-15,-32.8417,-26.7978,-66.3978,40.6995,-171.102,-28.9051,21.5309,7.12502,-2.26003,-8.43691,3.81045e-14,2.43511e-15,-25.5422,13.058,76.4301,23.255,-1.12092,-17.8135,-6.80146,7.12502,8.4503,23.0095,-24.9184,5.92319,17.3756,36.1627,-15.3438,-13.6577,4.89089,-1.08549,7.89199,-13.8577,21.9615,-20.9249,7.00604,-2.53735
10.8644,17.8099,18.2477,173.394,-68.4488,-171.321,8.10854,2.56875,-4.06095,2.67118,3.04866,1.97556,-2.09297,1.47865,4.02674,-7.69009,-4.90615,-6.204,-7.29024,-6.07148,11.9904,-0.306552,-3.10102,4.47789,5.03049e-14,1.25234e-14,-32.5804,-26.1051,-66.3863,41.019,-172.426,-28.8205,21.854,7.12502,-2.17836,-8.11463,5.03049e-14,1.25234e-14,-25.2434,12.5404,76.4221,23.589,-1.66038,-16.4635,-6.49458,7.12502,9.75301,23.2596,-25.2636,5.88672,17.0389,35.5704,-15.2844,-13.5313,5.07755,-0.845396,7.94492,-13.7766,21.5318,-20.7548,7.04777,-2.57091
10.827,17.8095,18.2127,172.984,-68.4291,-170.769,7.95772,2.52453,-3.88045,2.70098,3.01076,2.06477,-1.97067,1.45616,4.02822,-7.62728,-5.01396,-6.43409,-7.70457,-6.18131,12.2952,-0.407322,-3.17084,4.61391,-2.50593e-14,7.65321e-15,-32.4413,-25.8571,-66.0994,41.4434,-173.267,-28.8851,22.121,7.12502,-2.24073,-7.847,-2.50593e-14,7.65321e-15,-24.7846,11.5155,76.6537,23.948,-1.65472,-14.8726,-7.0017,7.12502,11.2876,22.6746,-25.5462,5.62838,17.0003,34.9308,-15.1367,-13.7294,4.21968,-0.557745,8.02637,-13.4293,21.1366,-20.9128,6.54753,-0.694648
10.7901,17.8036,18.1785,173.006,-68.4627,-170.812,7.99852,2.49784,-3.94534,2.72818,2.96822,2.10281,-1.96595,1.43357,4.10816,-7.57968,-4.94537,-6.1977,-8.12887,-6.09531,12.0631,-0.565191,-3.14914,4.51832,-6.62201e-15,1.48095e-14,-32.3275,-26.0196,-65.651,41.9067,-172.923,-30.2941,22.5408,7.12502,-3.60147,-7.40854,-6.62201e-15,1.48095e-14,-24.3234,10.4441,76.8762,24.3808,-1.56555,-14.3889,-6.93563,7.12502,11.7541,22.7146,-25.7076,5.63988,16.6351,34.2425,-15.1819,-14.0596,4.63156,-0.154555,8.04988,-13.3349,20.7352,-20.8867,6.47749,-1.11253
10.7537,17.7964,18.1437,173.213,-68.4279,-171.106,8.0942,2.40256,-4.14014,2.7518,2.82234,2.15701,-1.99115,1.35993,4.2876,-7.62896,-4.90035,-6.44029,-8.39828,-6.00398,12.3355,-0.62497,-3.11103,4.64895,-3.95022e-14,5.61567e-15,-31.9928,-25.8474,-65.3461,42.2404,-172.88,-29.5176,21.6555,7.12502,-2.85156,-8.3052,-3.95022e-14,5.61567e-15,-23.9107,10.1346,76.8522,24.7837,-1.98813,-14.3311,-7.04351,7.12502,11.8098,22.6035,-25.808,6.03391,16.1353,33.5528,-15.221,-14.493,4.97753,0.392667,8.02791,-13.3465,20.1538,-20.5959,6.76728,-2.73594
10.7122,17.7975,18.1087,173.614,-68.4674,-171.617,8.16573,2.31786,-4.27621,2.79389,2.69396,2.13477,-1.9783,1.29381,4.35369,-7.81053,-4.95087,-6.8839,-8.46585,-6.02614,12.8631,-0.576038,-3.11679,4.87909,3.38866e-14,-2.18912e-14,-31.6115,-25.3271,-65.198,42.6483,-173.579,-27.2164,20.8403,7.12502,-0.629052,-9.13853,3.38866e-14,-2.18912e-14,-23.3912,9.3642,76.9224,25.2529,-2.01986,-14.4159,-7.37076,7.12502,11.7281,22.2809,-25.8566,6.1565,15.5698,32.8645,-15.37,-14.6002,6.38961,1.01444,7.85034,-13.4872,19.4777,-20.3981,6.83419,-2.44522
10.6676,17.807,18.0748,174.239,-68.634,-172.323,8.176,2.21642,-4.39828,2.80667,2.54673,2.01509,-1.95438,1.2198,4.31346,-7.92156,-4.93431,-6.68507,-8.42529,-6.02167,12.8098,-0.555548,-3.11688,4.82674,-3.45823e-14,2.48481e-16,-31.4327,-24.7936,-65.1038,43.2345,-174.516,-27.5245,21.7172,7.12502,-0.926642,-8.26054,-3.45823e-14,2.48481e-16,-22.897,8.18016,77.0072,25.9062,-1.53739,-14.6548,-7.39884,7.12502,11.4977,22.2658,-25.9882,6.23478,14.7957,32.1518,-15.9583,-14.3838,9.91309,1.537,7.61609,-13.7515,18.8754,-20.1577,7.00618,-2.22767
10.6238,17.8084,18.0392,174.128,-68.642,-172.167,8.1524,2.14542,-4.26974,2.7772,2.46405,2.00104,-1.95729,1.17985,4.23497,-8.15367,-4.936,-6.13609,-8.3001,-6.0783,12.2786,-0.518084,-3.14494,4.56456,-1.2921e-15,1.63997e-15,-31.2812,-24.448,-64.8803,43.8541,-175.256,-28.8386,22.182,7.12502,-2.19584,-7.78641,-1.2921e-15,1.63997e-15,-22.4205,7.39256,76.9642,26.6112,-1.46368,-14.9265,-7.76575,7.12502,11.2357,21.9134,-26.2112,6.56754,14.372,31.4227,-16.4097,-14.5002,11.3858,1.99799,7.61354,-13.618,18.2745,-19.8994,7.12915,-1.9158
10.5832,17.7997,17.9976,173.776,-68.5604,-171.758,8.18172,2.14824,-4.13362,2.76624,2.4785,2.08014,-1.98448,1.18754,4.23794,-8.59355,-5.05995,-5.95716,-8.10991,-6.26576,11.9807,-0.395268,-3.22393,4.42318,1.86982e-15,1.26725e-14,-30.9863,-23.9389,-64.5643,44.5274,-175.772,-29.5011,21.9697,7.12502,-2.83568,-7.99116,1.86982e-15,1.26725e-14,-21.8251,6.5701,76.96,27.4164,-1.615,-15.071,-8.27915,7.12502,11.0962,21.4075,-26.3341,6.85828,14.1887,30.6837,-16.5271,-15.0366,10.2542,2.43316,7.84249,-13.2825,17.7705,-19.735,6.95286,-1.34727
10.5402,17.7984,17.9558,174.042,-68.6423,-172.052,8.15516,2.06648,-4.28968,2.83416,2.35793,2.16208,-1.89587,1.12249,4.42678,-8.96258,-5.1206,-6.08929,-7.9761,-6.3363,12.0147,-0.285711,-3.24383,4.44062,-3.68377e-14,1.28216e-14,-30.5722,-23.0232,-64.3497,45.4185,-176.414,-29.1384,22.0637,7.12502,-2.48536,-7.90159,-3.68377e-14,1.28216e-14,-21.1347,5.82498,76.9742,28.3268,-1.33389,-14.6277,-8.59678,7.12502,11.5238,21.0664,-26.404,6.88604,13.7306,29.9404,-16.4641,-15.6159,9.1133,2.7963,7.94009,-13.2484,17.4803,-19.7269,6.73563,-1.14512
10.4962,17.7931,17.9134,174.246,-68.8128,-172.285,8.16407,1.91685,-4.41064,2.88541,2.14862,2.24631,-1.83191,1.01393,4.60622,-9.072,-5.06457,-6.01594,-8.12621,-6.26441,11.9038,-0.326551,-3.21377,4.39884,-2.41523e-14,4.22417e-15,-30.102,-22.1503,-64.1344,46.3223,-177.178,-28.5278,22.1089,7.12502,-1.89563,-7.86243,-2.41523e-14,4.22417e-15,-20.493,4.80797,77.0121,29.2493,-1.30172,-15.0778,-8.27666,7.12502,11.0897,21.4103,-26.5235,6.63919,13.3388,29.2267,-16.2005,-16.1502,7.70362,3.17701,7.95673,-13.2057,17.1493,-19.7014,6.58287,-1.17186
10.4511,17.7783,17.8661,174.214,-68.9058,-172.242,8.22055,1.81069,-4.48764,2.85539,2.00147,2.36237,-1.88401,0.942059,4.78547,-8.93677,-4.9988,-6.03031,-8.48706,-6.16693,11.833,-0.465385,-3.18128,4.3948,-2.58544e-14,-8.99501e-15,-29.6964,-21.3286,-63.7801,47.1531,-178.003,-28.8099,22.3422,7.12502,-2.16816,-7.62656,-2.58544e-14,-8.99501e-15,-19.9049,3.98793,76.9416,30.1806,-1.24762,-15.729,-8.53132,7.12502,10.4616,21.1884,-26.6696,6.632,13.0308,28.5485,-16.2614,-16.7102,7.30606,3.6472,7.9773,-13.033,16.6346,-19.5423,6.44272,-0.865923
10.4043,17.7674,17.8168,174.603,-68.9798,-172.674,8.23754,1.71784,-4.76476,2.85839,1.85674,2.4378,-1.88358,0.869118,5.03749,-8.91146,-4.96903,-6.18292,-8.65194,-6.10874,11.9019,-0.51507,-3.15594,4.44724,-2.09966e-14,2.3059e-14,-29.1298,-20.5018,-63.4277,47.8924,-178.667,-29.1987,22.5155,7.12502,-2.54358,-7.44909,-2.09966e-14,2.3059e-14,-19.2556,3.32235,76.8321,31.2802,-0.785703,-16.0905,-8.81939,7.12502,10.1129,20.9176,-26.7745,7.06365,12.4038,27.8488,-16.7962,-17.2272,9.28771,4.11422,7.78126,-13.1027,16.1792,-19.3685,6.4494,-0.00194746
10.3595,17.7605,17.7668,174.872,-69.1463,-173.035,8.31692,1.64617,-4.84114,2.89817,1.74903,2.37352,-1.87303,0.813415,5.02379,-9.11792,-5.01286,-5.96007,-8.4741,-6.22905,11.4358,-0.531582,-3.20306,4.70036,-2.61899e-14,-7.05686e-15,-28.6252,-20.2199,-63.1649,48.6567,-179.048,-28.8999,21.8847,7.12502,-2.25506,-8.08314,-2.61899e-14,-7.05686e-15,-18.4056,2.2918,76.553,32.337,-0.366374,-16.4942,-9.22076,7.12502,9.72337,20.5348,-26.809,7.46664,11.7893,27.163,-17.2708,-17.8277,10.3136,4.58924,7.67458,-13.1386,15.7269,-19.0679,6.64371,-0.906187
10.314,17.7565,17.7178,174.448,-69.2866,-172.604,8.41746,1.60606,-4.56419,2.88817,1.71267,2.3825,-1.92772,0.796753,4.87743,-9.31411,-5.06784,-5.67892,-8.51319,-6.32805,11.2404,-0.518997,-3.25779,4.56417,-4.5472e-14,2.43511e-14,-28.3545,-20.0089,-62.8183,49.7207,-179.596,-28.486,21.5564,7.12502,-1.85532,-8.41526,-4.5472e-14,2.43511e-14,-17.4944,1.29433,76.2585,33.3068,-0.413577,-17.0618,-9.53953,7.12502,9.17568,20.2408,-26.8793,7.87375,11.5006,26.5275,-17.406,-18.6123,10.0841,5.08134,7.62758,-12.8543,15.1287,-18.7341,6.9506,-2.73592
10.2675,17.7522,17.6698,174.591,-69.3936,-172.744,8.51109,1.55831,-4.59132,2.85039,1.64499,2.46561,-2.01373,0.765958,4.98567,-9.36082,-5.09717,-5.82793,-8.65054,-6.34998,11.2388,-0.54932,-3.26838,4.59393,-2.1096e-14,1.92821e-14,-27.9199,-19.4259,-62.3692,50.7817,-180.363,-28.3787,21.3964,7.12502,-1.75162,-8.57617,-2.1096e-14,1.92821e-14,-16.592,1.08324,75.9327,34.3261,-0.781379,-16.6266,-9.7961,7.12502,9.59565,19.9654,-27.0041,8.22551,11.0098,25.902,-17.7597,-18.966,11.5573,5.55734,7.37821,-12.8293,14.5479,-18.5165,7.19444,-2.97544
10.2108,17.7411,17.6186,175.096,-69.3197,-173.393,8.49718,1.56932,-4.76608,2.9259,1.64342,2.4571,-1.93144,0.759908,5.07749,-9.44264,-5.13751,-5.96419,-8.69543,-6.3894,11.2987,-0.539164,-3.28507,4.63946,5.561e-14,-3.08116e-15,-27.2636,-19.2169,-62.0384,51.6369,-180.875,-28.0544,20.6214,7.12502,-1.43849,-9.35354,5.561e-14,-3.08116e-15,-15.6352,0.526639,75.5382,35.407,-2.01189,-17.2481,-9.39582,7.12502,8.99592,20.3924,-27.0299,7.99983,10.5945,25.2933,-17.7889,-18.8871,11.6559,6.24579,7.37795,-12.9243,14.024,-18.3996,7.2448,-3.13435
10.1522,17.7352,17.5646,174.641,-69.372,-173.016,8.43097,1.47757,-4.57298,3.03421,1.53602,2.49259,-1.76559,0.697268,5.01805,-9.3925,-5.07462,-5.85875,-8.92974,-6.31183,11.3412,-0.634988,-3.26095,4.64519,-2.77553e-14,-2.70347e-14,-26.4647,-19.1283,-61.8777,52.4934,-181.383,-27.485,20.1161,7.12502,-0.888542,-9.86177,-2.77553e-14,-2.70347e-14,-14.5355,0.207536,74.9533,36.5901,-2.01937,-16.9759,-9.40082,7.12502,9.25862,20.3759,-26.9568,8.01216,10.4915,24.737,-17.8136,-19.3622,11.1487,6.92325,7.28756,-12.6251,13.4825,-18.2363,7.20662,-3.70957
10.097,17.7246,17.5076,174.06,-69.4027,-172.44,8.4788,1.36457,-4.29857,3.01646,1.40577,2.53385,-1.79005,0.633285,4.91777,-9.20537,-4.96273,-5.611,-9.20376,-6.18401,11.1981,-0.784388,-3.21763,4.56283,4.24902e-14,-7.05686e-15,-25.8661,-18.7123,-61.649,53.5569,-181.951,-27.0915,19.7785,7.12502,-0.50844,-10.2007,4.24902e-14,-7.05686e-15,-13.6363,-0.295872,74.3042,37.8374,-1.68083,-17.1705,-9.85532,7.12502,9.07084,19.9296,-26.9335,8.74422,10.2804,24.2179,-18.2943,-20.3398,11.3502,7.53111,7.23998,-12.2379,12.8969,-18.0483,7.17695,-4.08483
10.0437,17.7001,17.4493,174.006,-69.419,-172.406,8.5997,1.35231,-4.1584,2.94836,1.39782,2.52506,-1.92358,0.635117,4.82747,-9.23143,-4.99744,-5.45565,-9.16849,-6.24794,10.9849,-0.775837,-3.24981,4.45049,-2.00027e-14,-8.44835e-15,-25.3408,-18.4453,-61.1757,54.6362,-182.374,-27.2386,19.8318,7.12502,-0.650515,-10.1469,-2.00027e-14,-8.44835e-15,-12.7067,-1.28919,73.7034,39.1275,-1.54595,-17.8938,-10.1129,7.12502,8.37282,19.7012,-26.9888,9.07631,9.99962,23.7311,-18.2809,-21.1376,10.1049,8.0844,7.30651,-12.0229,12.3483,-17.9349,7.14305,-4.21576
9.9861,17.6815,17.3897,174.301,-69.5063,-172.794,8.63163,1.36641,-4.16373,2.99763,1.41249,2.50134,-1.89134,0.639742,4.804,-9.52571,-5.10485,-5.57554,-8.95873,-6.38198,11.0118,-0.638358,-3.30055,4.46346,-6.24432e-14,6.65929e-15,-24.5566,-18.3155,-60.6628,55.6235,-183.069,-27.542,20.094,7.12502,-0.943596,-9.88371,-6.24432e-14,6.65929e-15,-11.4187,-2.04015,73.1973,40.234,-1.68896,-18.3978,-10.2143,7.12502,7.8864,19.6186,-26.9577,8.92949,9.65582,23.2636,-18.2641,-21.0766,9.50364,8.68585,6.66033,-12.1478,11.8728,-17.8705,7.67745,-3.83531
9.93109,17.6669,17.3278,175.116,-69.5562,-173.796,8.78897,1.34699,-4.47401,3.04555,1.35174,2.4656,-1.92687,0.607776,4.94844,-9.64812,-5.08128,-5.94688,-8.97856,-6.31217,11.1911,-0.610101,-3.25476,4.602,6.38596e-15,-1.09332e-14,-23.6056,-17.8561,-60.203,56.5421,-184.1,-28.4203,21.0869,7.12502,-1.79187,-8.88536,6.38596e-15,-1.09332e-14,-10.1495,-2.49831,72.6227,41.334,-1.69594,-18.7607,-10.5056,7.12502,7.5361,19.3401,-26.921,8.75821,9.1517,22.9484,-18.2035,-20.9285,8.97618,9.46882,6.46533,-12.388,11.1505,-17.5035,7.94365,-4.39697
9.86168,17.654,17.2595,173.92,-69.7076,-172.534,8.69378,1.15649,-4.03422,3.01448,1.14155,2.63987,-1.87759,0.501996,4.90412,-9.45817,-4.96111,-6.13188,-9.32711,-6.08954,11.6659,-0.642713,-3.16579,4.37095,4.52235e-15,9.93923e-16,-22.7388,-17.3087,-59.8736,57.5196,-184.908,-30.2242,23.2369,7.12502,-3.53398,-6.71352,4.52235e-15,9.93923e-16,-9.1194,-2.90157,71.7908,42.655,-1.796,-18.8422,-10.381,7.12502,7.45747,19.4675,-26.8523,8.53916,9.52667,22.7082,-18.204,-21.2645,8.32394,10.2828,6.48598,-11.6835,10.1804,-17.0903,8.00409,-6.36651
9.80226,17.633,17.198,175.334,-69.6933,-174.231,8.92278,1.16747,-4.5379,2.96662,1.10432,2.47717,-2.05444,0.490258,5.02252,-9.37418,-4.96979,-6.00217,-9.31076,-6.11514,11.67,-0.652628,-3.18391,4.35143,-2.08724e-15,-5.96354e-15,-22.1644,-17.1355,-59.6682,58.7384,-185.484,-30.9474,23.9571,7.12502,-4.2323,-5.98065,-2.08724e-15,-5.96354e-15,-8.03851,-3.08818,70.9897,43.8643,-2.26671,-19.1445,-10.5847,7.12502,7.16571,19.274,-26.7929,8.91065,8.66513,22.5985,-18.9168,-21.2641,9.85926,11.3916,6.13463,-12.2484,8.99265,-16.6713,8.53401,-7.57582
9.74132,17.6138,17.1311,175.839,-69.7087,-174.895,9.10335,1.16384,-4.66542,2.92152,1.08057,2.4238,-2.19924,0.483959,5.04033,-9.57228,-5.03533,-6.06356,-9.02726,-6.20214,11.6539,-0.529466,-3.20986,4.34209,-3.93594e-14,1.2921e-14,-21.4722,-17.0682,-59.4103,59.8767,-186.054,-29.9227,22.5857,7.12502,-3.24283,-7.36939,-3.93594e-14,1.2921e-14,-6.89128,-3.05207,70.3346,45.073,-2.80471,-19.3686,-10.9362,7.12502,6.94937,18.9297,-26.7619,9.33964,8.19567,22.5816,-19.3848,-21.1537,11.4401,12.5822,5.71025,-12.4047,7.52431,-16.0682,8.78294,-6.42569
9.67521,17.5929,17.057,176.079,-69.7582,-175.342,9.28523,1.12501,-4.69955,2.91222,1.01587,2.36107,-2.30095,0.454516,4.99995,-9.53893,-5.02199,-6.07067,-8.94666,-6.22429,11.2283,-0.620855,-3.20794,4.64673,5.54112e-14,-2.3059e-14,-20.4886,-16.8973,-59.1432,60.7642,-186.722,-27.9643,20.6483,7.12502,-1.3514,-9.32712,5.54112e-14,-2.3059e-14,-5.72891,-3.2912,69.5137,46.4449,-2.55744,-19.552,-10.9829,7.12502,6.77234,18.8888,-26.6445,9.49282,7.95571,22.6912,-19.3018,-21.0143,11.5279,14.1321,5.22828,-12.4565,5.47582,-15.1798,9.14743,-5.19482
9.61094,17.5739,16.9837,176.263,-69.7625,-175.778,9.56892,1.12241,-4.72807,2.89016,0.994623,2.297,-2.47739,0.44891,4.9496,-9.50963,-5.01681,-5.76495,-8.98767,-6.24991,10.9074,-0.660357,-3.22874,4.47052,-2.74074e-14,1.92821e-14,-19.416,-16.8654,-58.8271,61.6347,-187.521,-29.8137,21.6233,7.12502,-3.13759,-8.33341,-2.74074e-14,1.92821e-14,-4.42805,-3.45661,68.6874,47.6913,-2.2117,-19.4896,-10.9758,7.12502,6.83256,18.894,-26.5157,9.03475,7.95665,22.8412,-18.511,-20.5407,10.1931,16.2016,4.78367,-12.5243,2.45671,-13.6674,9.73607,-6.10795
9.54634,17.5621,16.9104,175.92,-69.7276,-175.502,9.73327,1.11864,-4.65887,2.8135,0.993048,2.41987,-2.6489,0.454598,5.03893,-9.50081,-5.01482,-5.82512,-8.89793,-6.24367,10.8107,-0.634444,-3.21864,4.44571,-7.65321e-15,-2.5842e-15,-18.3735,-17.1559,-58.4397,62.7399,-187.72,-31.6584,22.6341,7.12502,-4.91886,-7.28885,-7.65321e-15,-2.5842e-15,-3.14168,-3.26142,68.0642,48.8006,-2.23175,-19.3965,-11.0875,7.12502,6.92239,18.7793,-26.5812,8.69173,8.19888,23.1317,-17.4563,-20.1228,9.188,17.8591,4.37839,-12.3651,1.59028e-14,-12.3281,10.2275,-7.50896
9.47368,17.5426,16.8337,176.104,-69.7693,-175.812,9.8454,1.11696,-4.70309,2.77252,0.983468,2.46222,-2.7537,0.454029,5.10958,-9.25005,-4.98408,-6.18711,-9.15053,-6.16432,10.9954,-0.749593,-3.18128,4.60119,3.40916e-14,-2.54444e-14,-16.5123,-17.0069,-57.9979,62.8309,-188.126,-31.9247,22.5873,7.12502,-5.17603,-7.32953,3.40916e-14,-2.54444e-14,-1.78381,-3.10053,67.4093,49.898,-1.95597,-19.6309,-11.2745,7.12502,6.69614,18.5996,-26.5001,8.38063,8.19063,23.4581,-16.4452,-19.4469,8.66584,18.3199,3.91915,-12.4379,6.36111e-15,-12.3032,10.7074,-8.75008
9.40512,17.5135,16.7575,176.65,-69.796,-176.636,10.1315,1.10934,-4.78755,2.77083,0.947884,2.35835,-2.90856,0.440327,5.05153,-9.04638,-4.95465,-6.26597,-9.46738,-6.11617,10.9895,-0.892642,-3.16856,4.63116,-6.27166e-14,2.24627e-14,-16.2311,-16.5342,-57.687,64.8954,-189.403,-30.458,22.4557,7.12502,-3.75972,-7.49093,-6.27166e-14,2.24627e-14,-0.344312,-2.92366,66.5426,51.0917,-1.16352,-19.8994,-11.0046,7.12502,6.4369,18.8776,-26.2036,7.50836,8.22796,23.7079,-14.7752,-18.3783,5.71286,18.9089,3.47092,-12.6876,-9.54166e-15,-12.3809,11.2583,-10.2538
9.34228,17.4856,16.6782,176.295,-69.7493,-176.41,10.2917,1.06303,-4.67202,2.79366,0.889246,2.39057,-2.96499,0.410207,5.02674,-9.0787,-4.8754,-6.02708,-9.579,-6.03664,10.6752,-0.951033,-3.13662,4.4758,2.44008e-14,1.94809e-14,-14.5904,-16.7988,-57.7289,65.4347,-190.146,-29.8274,22.8564,7.12502,-3.15076,-7.10005,2.44008e-14,1.94809e-14,1.10941,-2.58893,65.6221,52.3514,-0.192479,-20.6097,-10.2407,7.12502,5.75115,19.6612,-25.9955,7.04168,8.61877,23.951,-13.3148,-17.5426,2.57327,19.4124,3.06093,-12.4974,6.67916e-14,-12.5996,11.8011,-10.9917
9.27186,17.4628,16.5926,175.119,-69.7237,-175.195,10.275,1.01115,-4.2693,2.80629,0.864451,2.54046,-2.93684,0.393715,4.95824,-8.98732,-4.77642,-6.04157,-9.81953,-5.90723,10.4465,-1.06658,-3.07758,4.411,2.45996e-14,-1.74931e-14,-12.7591,-16.7982,-57.6456,65.9087,-190.857,-29.769,24.0928,7.12502,-3.0944,-5.86452,2.45996e-14,-1.74931e-14,2.6625,-2.23166,64.8145,53.4342,0.577757,-21.3404,-9.75603,7.12502,5.04564,20.1639,-25.888,6.88336,9.28649,24.264,-12.7505,-16.6555,2.81693,19.8122,2.60501,-11.9366,-6.36111e-15,-12.7631,12.2953,-10.7248
9.19638,17.4448,16.5088,174.085,-69.7462,-174.229,10.4686,0.979539,-3.7775,2.73074,0.869005,2.61124,-3.11796,0.399392,4.751,-9.27249,-4.99277,-6.38727,-9.70293,-6.16412,10.4522,-0.944363,-3.18585,4.45794,1.54058e-15,-1.80894e-14,-11.8395,-17.1239,-57.5367,66.6367,-191.46,-29.2939,23.7565,7.12502,-2.63554,-6.20692,1.54058e-15,-1.80894e-14,4.11308,-2.01524,64.0162,54.4251,1.43081,-21.5479,-9.64691,7.12502,4.84528,20.2777,-25.6635,6.18417,9.9729,24.5397,-12.0342,-15.329,3.96852,20.2939,2.10031,-11.5114,2.54444e-14,-12.7026,12.8422,-10.9429
9.12279,17.4312,16.4276,174.419,-69.775,-174.825,10.8404,0.976025,-3.76461,2.62753,0.852769,2.49055,-3.42708,0.401591,4.61787,-9.11255,-5.16152,-6.46829,-10.0603,-6.38832,10.2919,-1.07438,-3.30619,4.4208,5.92875e-14,-3.26007e-14,-11.1203,-16.8641,-57.3061,67.946,-192.553,-28.1287,22.6621,7.12502,-1.51023,-7.31232,5.92875e-14,-3.26007e-14,5.47498,-1.77071,63.1601,55.3615,2.32974,-22.5305,-9.13867,7.12502,3.89645,20.8055,-25.4062,5.06938,10.1928,24.8254,-10.5838,-13.9264,3.68762,20.8718,1.65139,-11.7145,0,-12.3992,13.5374,-12.596
9.05209,17.4219,16.3439,173.879,-69.7176,-174.36,11.1798,0.95708,-3.42717,2.45485,0.859244,2.47266,-3.79097,0.415004,4.40515,-9.3109,-5.04571,-6.32187,-9.45138,-6.24424,10.3238,-0.853688,-3.21651,4.38719,4.14963e-14,-1.86858e-14,-9.97582,-17.1743,-57.3297,68.468,-192.61,-27.8298,21.708,7.12502,-1.22157,-8.26825,4.14963e-14,-1.86858e-14,6.87276,-1.54198,62.2926,56.2003,2.76354,-23.6688,-8.8432,7.12502,2.79718,21.1182,-25.3202,4.35019,10.7999,25.1876,-9.35664,-12.9841,4.95652,21.3397,1.24735,-11.4804,3.49861e-14,-12.0127,14.2067,-14.5787
8.98014,17.4177,16.2578,172.368,-69.6387,-172.77,11.1317,0.880562,-2.85747,2.5208,0.825649,2.71334,-3.68817,0.386787,4.33916,-9.26399,-4.98206,-5.75473,-9.63258,-6.21708,9.99608,-0.955216,-3.22565,4.16697,4.47762e-14,-3.69739e-14,-8.08172,-17.5459,-57.3687,69.2894,-191.964,-28.4258,22.2635,7.12502,-1.79713,-7.70867,4.47762e-14,-3.69739e-14,8.50666,-0.964535,61.6039,56.9779,2.62821,-23.8748,-9.66684,7.12502,2.59829,20.2971,-25.2869,3.64781,11.8619,25.5163,-8.18721,-12.2697,5.55792,21.7319,0.807356,-10.7962,-5.725e-14,-11.9008,14.665,-15.31
8.90348,17.41,16.1697,171.113,-69.5564,-171.527,11.2622,0.784942,-2.28994,2.50265,0.763111,2.875,-3.76839,0.350133,4.19529,-9.4939,-4.83559,-6.00614,-9.28788,-5.99913,9.95169,-0.813808,-3.09301,4.19395,5.4964e-14,1.59028e-15,-6.76858,-17.6702,-57.4632,70.3958,-191.776,-27.7878,22.0944,7.12502,-1.18094,-7.88212,5.4964e-14,1.59028e-15,9.96174,-0.384556,60.8695,57.6918,2.06966,-24.2645,-10.2784,7.12502,2.22196,19.6898,-25.1728,2.68718,12.8609,25.7384,-6.75918,-11.4473,3.37494,22.2169,0.367406,-10.2517,-2.54444e-14,-11.7801,15.0884,-16.0937
8.82756,17.3992,16.08,169.387,-69.409,-169.839,11.5083,0.709978,-1.5991,2.43264,0.745909,3.06927,-3.96999,0.336471,4.00981,-9.46138,-4.61857,-6.10625,-9.12302,-5.70335,9.82199,-0.791806,-2.93463,4.17713,-2.83268e-15,-1.19271e-14,-5.26727,-17.6065,-57.4896,70.9046,-192.202,-27.1938,21.1395,7.12502,-0.6073,-8.83938,-2.83268e-15,-1.19271e-14,11.4305,0.0627339,60.0326,58.3362,1.46574,-24.742,-10.3018,7.12502,1.76075,19.6707,-24.9694,2.3037,13.9078,25.917,-5.37438,-10.9632,1.92275,22.7674,-0.0708205,-9.50534,9.54166e-15,-11.6138,15.4912,-16.1797
8.75734,17.3986,15.9915,168.756,-69.2718,-169.282,11.7837,0.75141,-1.33486,2.353,0.835357,3.12915,-4.20985,0.381519,3.9098,-9.28496,-4.56392,-5.91264,-9.30159,-5.65376,9.58721,-0.899291,-2.92072,4.06688,5.55106e-14,1.90833e-14,-3.92413,-17.7557,-57.4567,71.5556,-192.379,-27.7962,19.6568,7.12502,-1.18907,-10.3196,5.55106e-14,1.90833e-14,12.976,0.22672,59.1479,59.0269,0.923914,-24.991,-10.6385,7.12502,1.52026,19.3358,-24.8276,2.0761,14.4494,26.1653,-4.13025,-10.3106,1.23669,23.2461,-0.440716,-9.18859,-1.27222e-14,-11.5263,15.797,-14.2266
8.68587,17.4038,15.9033,168.243,-69.0773,-168.806,11.9826,0.790458,-1.03874,2.30468,0.925039,3.16232,-4.37319,0.423876,3.76261,-9.32413,-4.64849,-5.60117,-9.41383,-5.80169,9.27642,-0.93761,-3.0047,3.89233,-3.82164e-14,2.90226e-14,-2.66118,-18.02,-57.5956,72.4495,-192.067,-28.237,17.1021,7.12502,-1.61482,-12.8715,-3.82164e-14,2.90226e-14,14.4515,0.313267,58.1592,59.7242,0.274173,-25.5548,-11.2763,7.12502,0.975739,18.7012,-24.7318,1.64187,15.0251,26.5309,-3.42063,-9.39943,0.595408,23.6726,-0.734237,-8.92415,2.22639e-14,-10.8942,16.2522,-13.859
8.60484,17.4071,15.8117,167.992,-69.0829,-168.682,12.103,0.746892,-0.77769,2.31316,0.896412,3.11072,-4.42369,0.405581,3.56401,-9.4586,-4.63165,-5.54649,-9.31674,-5.78551,9.18125,-0.888906,-2.99295,3.84291,1.87355e-14,-2.66371e-14,-1.14303,-18.3558,-57.925,72.9262,-191.707,-29.2223,13.9578,7.12502,-2.56643,-16.0065,1.87355e-14,-2.66371e-14,15.877,0.443278,56.9958,60.4458,-0.453489,-26.0526,-11.8679,7.12502,0.49495,18.1113,-24.4657,1.08371,15.4223,26.9307,-3.23659,-8.83956,1.62307,24.1547,-1.19109,-8.88333,-6.36111e-15,-9.68311,16.7489,-16.2446
8.51857,17.4123,15.7146,169.633,-69.4937,-170.713,12.3306,0.674767,-1.34626,2.31926,0.722797,2.86764,-4.53471,0.330187,3.65891,-9.56015,-4.58477,-5.7615,-9.11129,-5.69994,9.27079,-0.801092,-2.93606,3.91173,4.13969e-14,-2.38542e-15,0.624492,-18.0645,-57.8759,73.193,-192.363,-29.9229,13.8737,7.12502,-3.24299,-16.0814,4.13969e-14,-2.38542e-15,17.3207,0.809363,55.9322,61.0181,-1.20237,-25.9844,-12.6825,7.12502,0.560769,17.2965,-24.0342,0.0133245,14.9209,27.3035,-3.19956,-8.23313,3.38379,24.6975,-1.88539,-9.76112,-2.8625e-14,-8.74919,17.0265,-16.9971
8.44767,17.4269,15.6172,169.307,-69.3755,-170.445,12.5578,0.688087,-1.229,2.25857,0.760105,2.97293,-4.72653,0.349604,3.69849,-9.73705,-4.60953,-5.9929,-8.90654,-5.70902,9.27731,-0.695514,-2.9246,3.94901,4.12478e-14,7.15625e-15,2.08068,-18.266,-58.295,74.2719,-192.225,-28.3952,14.7014,7.12502,-1.76762,-15.271,4.12478e-14,7.15625e-15,18.9208,1.40617,55.2329,61.258,-2.09557,-25.7879,-13.3189,7.12502,0.750612,16.6595,-23.856,-0.390389,15.3969,27.55,-3.03757,-7.6995,4.47071,25.0603,-2.2492,-9.55681,-1.27222e-14,-8.17949,17.1696,-15.1657
8.37164,17.4502,15.5162,166.911,-69.1624,-167.933,12.5809,0.652187,-0.307533,2.2664,0.836453,3.25534,-4.7277,0.369385,3.46036,-9.79661,-4.63274,-6.01301,-8.91702,-5.73775,9.24183,-0.687175,-2.93762,3.93779,3.16068e-14,-2.0276e-14,3.60062,-17.7846,-58.2625,75.2614,-192.687,-27.434,17.5605,7.12502,-0.839216,-12.4176,3.16068e-14,-2.0276e-14,20.5856,1.93361,54.5947,61.5643,-2.93266,-25.9788,-13.591,7.12502,0.566199,16.388,-23.5029,-0.535675,16.7028,27.6674,-3.11821,-7.25306,5.60287,23.6171,-2.65449,-8.48035,3.44418,-8.81495,17.6183,-15.5634
8.29955,17.4636,15.4202,164.883,-68.9543,-165.736,12.59,0.583888,0.613251,2.23404,0.86869,3.43435,-4.75739,0.368412,3.12137,-9.76881,-4.61164,-6.24274,-8.90818,-5.68319,9.48844,-0.677695,-2.90533,4.07278,1.24737e-14,-3.18055e-15,5.10013,-17.3682,-58.4312,76.7743,-192.956,-26.9958,22.7271,7.12502,-0.415994,-7.25223,1.24737e-14,-3.18055e-15,22.0868,2.35529,53.6772,62.0043,-3.42573,-26.1128,-14.1037,7.12502,0.436844,15.8756,-23.1408,-0.561138,17.8549,27.6108,-3.24869,-7.13736,6.60422,21.3077,-3.02517,-7.51462,8.4601,-10.3174,18.1477,-15.9012
8.22531,17.4592,15.329,164.731,-68.9754,-165.56,12.6736,0.502097,0.840277,2.11496,0.798621,3.38314,-4.92124,0.333055,2.95094,-9.69672,-4.52964,-6.35789,-8.75249,-5.56407,9.49686,-0.644876,-2.83771,4.10195,-5.99833e-14,-3.26007e-14,6.49792,-16.8098,-58.6896,78.5693,-193.118,-26.1076,29.2466,7.12502,0.441809,-0.732694,-5.99833e-14,-3.26007e-14,23.3765,2.74498,52.72,62.4073,-3.81219,-25.7322,-14.5915,7.12502,0.804429,15.3868,-22.8457,-0.91106,18.1575,27.5153,-3.26317,-6.87601,7.22585,19.8348,-3.42882,-7.4194,11.8459,-11.2313,18.5027,-14.7752
8.14271,17.4689,15.2348,165.122,-69.1244,-166.033,12.7278,0.472184,0.792744,2.01053,0.758824,3.2455,-5.058,0.317987,2.83977,-9.56987,-4.50705,-5.89744,-8.76524,-5.58904,8.96256,-0.700993,-2.8607,3.82574,8.29926e-15,-1.59028e-14,7.75041,-16.3736,-58.9112,80.3891,-193.296,-24.8682,35.9117,7.12502,1.63884,5.93823,8.29926e-15,-1.59028e-14,24.7418,3.19216,52.0546,62.7229,-4.33707,-25.2175,-15.2272,7.12502,1.30155,14.7486,-22.4212,-1.46065,18.1823,27.4238,-3.39379,-6.26455,8.62021,18.5893,-3.67357,-7.57408,14.7551,-11.0555,18.933,-16.3629
8.06036,17.4964,15.1385,165.113,-69.1727,-166.035,12.6675,0.493629,0.855378,1.96289,0.797695,3.22691,-5.07542,0.337448,2.77807,-9.57458,-4.57777,-5.69486,-8.76382,-5.70664,8.71367,-0.705294,-2.92292,3.69439,2.68359e-14,-5.84427e-14,9.10829,-16.0164,-59.022,81.7816,-193.928,-23.7845,41.5325,7.12502,2.68549,11.5696,2.68359e-14,-5.84427e-14,26.2273,3.81363,51.6686,62.9125,-5.05141,-24.8436,-15.9173,7.12502,1.66261,14.0559,-21.94,-1.87463,18.4349,27.2857,-3.58243,-5.72742,9.62042,17.3179,-3.77468,-7.48767,17.5222,-10.2494,19.4207,-18.1159
7.98158,17.5241,15.0337,164.569,-69.1047,-165.49,12.6899,0.553388,0.98861,1.88305,0.904184,3.34675,-5.17648,0.388597,2.81179,-9.60874,-4.8439,-5.65662,-8.72073,-6.06693,8.5722,-0.664422,-3.1006,3.62045,-3.86636e-14,-1.59028e-15,10.4582,-15.0336,-58.8405,79.5776,-203.72,-14.0713,38.4267,7.12502,12.0603,8.7942,-3.86636e-14,-1.59028e-15,27.5582,3.90529,51.1429,63.3188,-4.8465,-25.1921,-14.5769,7.12502,1.32607,15.3987,-21.3617,-2.0315,18.9551,27.0179,-3.68379,-5.67397,9.4038,16.0204,-3.66614,-7.01659,20.3078,-9.46865,19.5687,-17.3304
7.90363,17.5527,14.9206,162.863,-68.9229,-163.824,12.773,0.668184,1.46838,1.89567,1.12631,3.60244,-5.21443,0.48559,2.77277,-9.77291,-5.20832,-5.60883,-8.68388,-6.55901,8.32573,-0.599592,-3.34268,3.49887,1.78906e-14,-2.18663e-14,11.3821,-0.976831,-55.6316,79.6944,-344.925,13.4553,-54.5569,7.12502,38.3957,-80.2474,1.78906e-14,-2.18663e-14,29.1522,3.87138,50.5664,63.5324,-4.57097,-25.7682,-13.801,7.12502,0.769606,16.1773,-20.5557,-1.82123,19.9252,26.6106,-3.77189,-5.92505,9.69887,14.8105,-3.40727,-5.94273,23.1125,-9.22086,19.2847,-14.8554
7.82762,17.5816,14.817,160.772,-68.6381,-161.593,12.4367,0.833907,2.11901,2.07471,1.41069,4.04132,-4.84578,0.606712,2.82147,-9.91336,-5.31446,-6.09229,-8.63374,-6.64804,8.37213,-0.534121,-3.36908,3.59671,-2.25124e-14,-5.88403e-14,12.799,-0.460674,-54.6043,82.1586,-361.264,1.09369,-60.3932,7.12502,26.6375,-88.5392,-2.25124e-14,-5.88403e-14,31.0353,4.23799,50.4208,63.5289,-4.53131,-27.2781,-12.651,7.12502,-0.688651,17.3276,-19.8617,-1.72691,21.1542,26.0836,-3.86797,-5.90664,9.80681,13.4697,-3.17647,-4.65606,25.8323,-8.9702,18.955,-12.9515
7.74973,17.6144,14.7167,159.436,-68.5479,-160.009,12.4326,0.740505,2.78927,1.81487,1.39494,4.12918,-5.10237,0.58754,2.53932,-9.57217,-5.10312,-6.31218,-8.37635,-6.34547,8.55826,-0.515215,-3.20677,3.72104,-2.35063e-14,2.74323e-14,13.8849,0.035987,-54.386,83.1931,-365.197,-2.1878,-62.4441,7.12502,23.4933,91.0296,-2.35063e-14,2.74323e-14,32.1387,4.55681,49.7391,63.5701,-4.63371,-28.4381,-11.9731,7.12502,-1.80902,17.9989,-19.2712,-2.15205,22.0856,25.4544,-3.9039,-5.59234,10.1729,11.942,-2.91481,-3.68031,28.4575,-7.94121,18.6589,-12.3472
7.66683,17.6488,14.6095,158.158,-68.6287,-158.716,12.5766,0.493602,3.50897,1.62953,1.1788,3.92704,-5.35254,0.466107,1.95658,-9.47079,-4.96002,-5.92084,-8.06988,-6.19276,8.5927,-0.45533,-3.13463,3.66162,6.35614e-14,9.14409e-15,15.1678,0.394486,-54.6217,83.3143,-366.275,-3.52245,-62.6763,7.12502,22.2125,91.42,6.35614e-14,9.14409e-15,33.2027,4.70415,48.2991,63.7072,-4.41477,-27.8745,-13.3717,7.12502,-1.26469,16.6043,-18.3747,-2.33031,22.7859,24.8043,-3.97584,-5.70951,10.811,10.6465,-2.78072,-2.88064,31.0122,-6.93611,18.2961,-9.79711
7.58884,17.6818,14.5056,157.069,-68.5278,-157.647,12.7019,0.626799,3.68545,1.54676,1.39853,4.19713,-5.51471,0.56682,2.10615,-9.61605,-5.18525,-6.04586,-7.78435,-6.47923,8.37175,-0.32011,-3.26225,3.58553,-2.28602e-15,7.95139e-16,16.3755,0.40509,-53.6358,83.1675,-366.54,-4.54057,-61.4284,7.12502,21.2348,90.2852,-2.28602e-15,7.95139e-16,34.6532,4.76345,48.031,63.6757,-4.33609,-27.7628,-14.9267,7.12502,-1.15683,15.0499,-17.4797,-2.02189,23.4863,24.1063,-3.79404,-6.13137,9.12736,9.4614,-2.66378,-2.14625,33.464,-6.4822,17.9166,-3.64627
7.51237,17.7207,14.4138,157.36,-68.5961,-158.012,12.785,0.757536,3.60626,1.44494,1.57623,4.1313,-5.67119,0.656505,2.05016,-9.34665,-5.28703,-6.04799,-7.78814,-6.61913,8.28814,-0.359925,-3.33258,3.55791,6.55989e-15,7.95139e-15,17.5316,0.327416,-52.93,82.9288,-366.694,-5.96605,-59.2926,7.12502,19.865,-88.2974,6.55989e-15,7.95139e-15,36.1985,4.84267,47.6617,63.5736,-4.52232,-28.4274,-15.477,7.12502,-1.79867,14.4952,-16.645,-2.43145,23.6062,23.2942,-3.34053,-5.76324,7.00432,8.21472,-2.59213,-2.15615,35.8388,-6.17282,17.7578,3.40421
7.42772,17.7622,14.3233,156.841,-68.7359,-157.756,12.8988,0.726923,3.80436,1.42622,1.56816,4.02361,-5.74543,0.647008,1.82529,-9.16596,-4.93421,-5.94218,-7.17757,-6.15986,8.30608,-0.22842,-3.09008,3.55766,-1.92821e-14,-2.38542e-15,18.8886,0.325588,-52.6637,82.41,-366.565,-7.41996,-56.573,7.12502,18.4669,-85.7164,-1.92821e-14,-2.38542e-15,37.5567,4.98035,46.8526,63.5179,-4.75232,-28.9019,-15.8142,7.12502,-2.257,14.1536,-15.4372,-2.44001,23.822,22.4418,-3.23747,-5.93142,6.50217,7.15517,-2.61888,-2.00326,38.1228,-5.38217,17.9437,7.71697
7.34652,17.7828,14.231,154.066,-68.3298,-155.206,13.1689,0.764958,4.86268,1.50991,1.77395,4.34665,-5.7853,0.713416,1.53569,-8.75528,-4.96735,-5.7988,-7.56965,-6.22731,7.98013,-0.438771,-3.13822,3.43319,1.44616e-14,-7.07673e-14,20.2482,0.285535,-51.8231,82.1088,-367.076,-8.79438,-54.0916,7.12502,17.1444,-83.3553,1.44616e-14,-7.07673e-14,38.9699,5.18269,46.3764,63.4477,-4.91484,-29.4814,-16.3545,7.12502,-2.8166,13.6067,-14.1457,-2.11839,25.1479,21.6395,-3.2514,-6.31821,6.05143,6.28577,-2.41204,-0.640452,40.3652,-4.17099,18.1199,10.2947
7.27245,17.8127,14.1489,153.961,-68.3082,-155.096,13.1828,0.910339,4.96952,1.527,1.98262,4.45163,-5.77359,0.811973,1.55002,-8.93068,-5.05627,-6.2379,-7.35486,-6.29918,8.14131,-0.312403,-3.15578,3.55983,1.53561e-14,2.42517e-14,21.7776,0.209199,-50.6235,81.7266,-367.855,-10.1147,-51.6896,7.12502,15.8732,-81.059,1.53561e-14,2.42517e-14,40.4889,5.51868,46.1804,63.35,-5.05587,-29.8088,-16.9974,7.12502,-3.1328,12.9594,-13.4212,-2.27895,25.4016,20.9387,-3.22886,-6.21517,6.1848,5.08881,-2.20907,-0.516265,42.4016,-3.16497,18.3494,13.9997
7.2005,17.845,14.0703,154.773,-68.4048,-155.806,13.0459,1.00918,4.6782,1.52149,2.06701,4.4893,-5.71497,0.862922,1.73973,-9.06669,-5.02622,-6.70566,-7.2183,-6.20987,8.35273,-0.226918,-3.09526,3.72048,-3.95085e-14,2.26615e-14,23.5162,0.309961,-49.7123,81.1949,-367.984,-11.2554,-49.4851,7.12502,14.7745,-78.9385,-3.95085e-14,2.26615e-14,41.8594,6.13625,46.0538,63.1274,-5.54041,-29.7252,-17.7237,7.12502,-3.0521,12.2342,-12.8929,-2.26688,25.2843,20.2614,-3.24603,-6.27778,6.60202,3.7196,-1.97782,-0.776419,44.3488,-2.4285,18.4981,17.9836
7.12043,17.8846,14.0089,156.819,-68.8939,-157.841,12.965,0.986176,4.16184,1.47457,1.96305,4.17345,-5.72629,0.829755,1.71322,-9.28874,-5.00402,-6.58656,-7.11225,-6.18751,8.12922,-0.169212,-3.08187,3.61321,6.26172e-14,3.02153e-14,25.0134,0.380346,-49.3267,80.8732,-367.92,-12.388,-46.4394,7.12502,13.683,-75.9696,6.26172e-14,3.02153e-14,43.1949,6.77576,45.7643,62.8704,-6.06114,-29.4892,-17.894,7.12502,-2.82411,12.067,-12.419,-2.61084,24.4382,19.7574,-3.38417,-6.08223,6.21537,2.38286,-2.06712,-1.95856,46.0926,-1.60641,18.814,21.561
7.03562,17.908,13.9236,155.615,-68.936,-156.965,13.3113,0.933886,4.73707,1.52515,1.9857,4.04203,-5.8397,0.822173,1.24323,-9.9556,-5.18059,-6.10281,-6.28222,-6.45468,7.76447,0.202724,-3.20117,3.3523,7.8023e-15,-7.23576e-14,26.2251,0.131062,-49.1724,80.4689,-368.331,-13.3077,-42.0795,7.12502,12.7966,-71.6673,7.8023e-15,-7.23576e-14,44.6601,7.0593,45.1889,62.654,-6.22697,-29.4074,-17.7681,7.12502,-2.74515,12.194,-11.316,-2.52554,24.8856,19.2775,-3.64058,-6.29582,6.7848,1.63933,-2.04725,-1.58646,47.7386,-0.814913,18.1531,23.3192
6.9509,17.9393,13.8523,156.45,-69.189,-158.02,13.4963,1.01771,4.65139,1.47167,2.0989,3.81413,-5.99243,0.878925,1.02645,-9.5151,-5.13632,-6.30273,-6.39685,-6.38333,8.12263,0.10794,-3.16646,3.52989,1.09829e-14,-3.61788e-14,27.5295,-0.0409902,-48.3698,79.9265,-368.801,-28.9861,-28.0119,7.12502,-2.33825,-57.9788,1.09829e-14,-3.61788e-14,46.0601,7.21038,44.7645,62.3463,-6.57645,-29.6458,-18.2664,7.12502,-2.97537,11.6925,-10.5176,-2.99772,24.5277,18.7853,-3.69405,-5.78646,7.99209,0.769612,-1.90833,-2.0805,49.1969,-0.742467,17.4017,24.3747
6.87274,17.957,13.779,156.597,-69.1483,-158.25,13.5759,1.11519,4.71178,1.44473,2.24522,3.82295,-6.06139,0.947523,0.973928,-9.51954,-5.2854,-6.53732,-6.21222,-6.55796,8.27726,0.19798,-3.24362,3.61653,-3.12092e-14,5.1684e-15,29.1043,0.0654078,-47.2708,79.397,-368.94,-15.8803,-36.0828,7.12502,10.3157,-65.8098,-3.12092e-14,5.1684e-15,47.2899,7.59497,44.4925,62.0443,-7.03111,-29.649,-19.0376,7.12502,-2.97846,10.9213,-9.83591,-3.28744,24.6341,18.2845,-3.60277,-5.37888,8.55106,-0.0745748,-1.47789,-2.05813,50.5326,-0.954074,16.2694,22.5047
6.79655,17.9618,13.7009,155.444,-68.9277,-157.149,13.6126,1.19854,5.2223,1.52175,2.42447,3.95523,-5.98122,1.02033,0.795561,-9.84145,-5.42419,-6.51331,-5.95052,-6.73637,7.90847,0.334643,-3.32436,3.46284,-2.92213e-14,-1.43125e-14,30.7191,-0.107072,-46.4728,78.8355,-369.329,-15.4939,-36.9656,7.12502,10.6883,-66.6737,-2.92213e-14,-1.43125e-14,48.5951,8.01374,44.2288,61.9051,-7.059,-29.3354,-19.2885,7.12502,-2.67565,10.6744,-9.07403,-3.00042,25.301,17.7998,-3.54872,-5.73765,9.25032,-0.890588,-1.19066,-1.49841,51.856,-1.16648,14.8846,18.5188
6.71612,17.9687,13.6308,155.319,-68.9676,-157.267,13.7295,1.30011,5.33307,1.63581,2.57118,3.9503,-5.91589,1.08915,0.699969,-9.64081,-5.3995,-6.30982,-6.22163,-6.7294,7.52513,0.185799,-3.33266,3.30205,6.50523e-14,-6.36111e-15,32.2891,-0.500453,-45.7245,78.3109,-370.161,-17.2228,-33.5353,7.12502,9.02032,-63.3225,6.50523e-14,-6.36111e-15,49.91,8.38619,44.0444,61.7883,-6.95987,-29.2796,-18.9406,7.12502,-2.62174,11.0231,-8.24433,-2.99671,25.3554,17.4158,-3.61319,-5.86809,9.54683,-1.55827,-1.25073,-1.70494,52.979,-1.40797,13.6331,16.3129
6.66078,17.9693,13.5744,153.131,-68.3378,-154.765,13.9212,1.35033,6.56817,1.4956,2.84815,4.23904,-6.11934,1.18078,0.26259,-9.11981,-5.2323,-6.17519,-6.61251,-6.53493,7.35109,-0.0563633,-3.24982,3.24647,-1.89839e-14,-2.10712e-14,33.7938,-0.755677,-45.0644,77.8487,-370.887,-18.008,-30.817,7.12502,8.26259,-60.6355,-1.89839e-14,-2.10712e-14,51.1322,8.80228,44.0488,61.4705,-6.99762,-29.2959,-19.1596,7.12502,-2.6375,10.8038,-7.89042,-2.47713,26.756,16.9141,-3.90035,-6.33696,12.0687,-2.80839,-0.804305,-0.411646,54.189,-1.4114,11.8548,15.6305
6.56154,17.9899,13.5032,153.444,-68.9134,-155.431,14.003,1.30052,6.38089,1.49767,2.75995,4.0524,-6.16554,1.14379,0.182633,-8.74246,-5.10877,-5.97778,-6.70341,-6.39745,7.27244,-0.169664,-3.1891,3.20029,-5.74985e-14,-1.82882e-14,35.1385,-1.12618,-44.8538,77.2352,-371.805,-18.5832,-29.2475,7.12502,7.70743,-59.0871,-5.74985e-14,-1.82882e-14,52.3652,9.10662,43.9703,61.0177,-6.59961,-29.0484,-20.0217,7.12502,-2.3985,9.94458,-6.99264,-3.00441,26.2956,16.7211,-4.62236,-6.43776,15.2575,-3.4015,-1.08994,-1.11303,54.9896,-1.75265,10.3022,15.6547
6.48397,17.9985,13.435,152.334,-68.3888,-154.057,13.9202,1.431,7.01046,1.35191,3.03667,4.28702,-6.24488,1.25591,0.0322585,-9.35557,-5.41508,-6.23588,-5.78821,-6.76328,7.18035,0.262257,-3.3427,3.16916,3.46382e-14,-1.90833e-14,36.6997,-1.54556,-44.3792,76.4939,-374.282,-21.6983,-13.0419,7.12502,4.70014,-42.9698,3.46382e-14,-1.90833e-14,53.4644,9.51107,43.8438,60.6155,-5.78869,-28.5762,-19.8937,7.12502,-1.94244,10.0772,-6.8691,-2.48679,27.2326,16.8339,-4.50205,-6.70839,12.8919,-4.38395,-0.561076,-0.321607,55.7255,-2.10861,8.46881,15.8729
6.39704,18.0135,13.3538,154.449,-68.8743,-156.008,13.4104,1.53921,5.77043,1.31759,2.96796,4.31357,-6.06675,1.26846,0.774812,-9.09652,-5.24269,-6.34899,-5.90554,-6.53161,6.98466,0.159655,-3.22865,3.1429,6.11263e-14,-1.03368e-14,38.3712,-1.12154,-42.9996,75.9434,-373.24,-23.2675,-22.1044,7.12502,3.18473,-52.0603,6.11263e-14,-1.03368e-14,54.4129,10.1294,44.0164,60.3631,-5.33067,-28.3355,-18.7045,7.12502,-1.70994,11.2684,-6.89951,-2.49453,26.4759,17.0785,-4.4864,-6.61019,9.54381,-5.42559,-0.426612,-1.42483,56.1066,-2.1462,7.02669,14.4029
6.31915,18.0231,13.2873,157.162,-69.5245,-159.148,13.6296,1.63241,4.47782,1.41607,2.91531,4.09416,-6.13861,1.28072,1.26821,-9.01769,-5.19798,-6.71511,-5.99795,-6.44039,7.03299,0.125389,-3.17751,3.2355,2.14687e-14,-2.06736e-14,40.0813,-1.59725,-42.9206,75.2729,-373.559,-24.6395,-16.3242,7.12502,1.85972,-46.2958,2.14687e-14,-2.06736e-14,55.4319,10.6897,44.1814,60.1933,-5.04805,-28.5577,-17.7581,7.12502,-1.92456,12.2129,-6.46149,-2.79766,25.1389,17.3169,-4.98617,-6.40144,10.4862,-5.98121,-0.524517,-3.1399,56.3519,-2.00426,5.60082,11.7317
6.24059,18.0257,13.2227,155.642,-69.2448,-157.412,13.4911,1.70046,5.37522,1.48179,3.11648,4.27921,-5.95199,1.35489,0.930971,-9.3556,-5.30627,-7.1525,-5.81164,-6.52847,7.14994,0.271523,-3.20697,3.34249,-2.54941e-14,-4.33351e-14,41.6985,-2.44057,-43.1531,74.6127,-374.13,-24.3476,-15.2118,7.12502,2.14165,-45.1808,-2.54941e-14,-4.33351e-14,56.7267,11.2565,44.4088,59.892,-4.34537,-28.4937,-17.7222,7.12502,-1.86269,12.2494,-6.42377,-2.56447,26.0297,17.6968,-5.56233,-6.64632,11.5002,-6.88431,-0.138598,-2.40737,56.5708,-1.95341,3.55457,8.59972
6.15958,18.0235,13.163,154.874,-69.1739,-156.634,13.5051,1.69685,5.84547,1.53918,3.17173,4.3544,-5.87571,1.36886,0.739193,-10.2772,-5.37133,-7.28062,-4.61444,-6.56023,7.19527,0.832125,-3.19391,3.34456,-6.16232e-15,-3.18055e-15,43.341,-2.96342,-43.1168,73.9565,-374.893,-23.976,-16.0204,7.12502,2.50052,-45.9855,-6.16232e-15,-3.18055e-15,57.9079,11.8265,44.6349,59.3776,-3.68494,-28.4753,-17.9966,7.12502,-1.84493,11.9751,-6.17356,-2.46623,26.4502,17.9753,-5.9516,-6.81758,11.3803,-7.60096,-0.142434,-2.2962,56.6947,-2.03174,1.98821,6.45677
6.07777,18.017,13.1085,154.616,-69.3869,-156.501,13.6959,1.64014,6.03554,1.51427,3.14108,4.31462,-5.99636,1.34505,0.591206,-9.98047,-5.24178,-7.24295,-5.04075,-6.40391,7.01592,0.619207,-3.12648,3.29535,-3.91109e-14,-1.27222e-14,44.9263,-3.41004,-43.3043,73.1595,-375.878,-23.333,-15.9409,7.12502,3.12154,-45.8978,-3.91109e-14,-1.27222e-14,58.9344,12.2427,44.774,58.8725,-3.35724,-28.9629,-17.6362,7.12502,-2.31587,12.331,-5.77268,-2.62214,26.466,18.1238,-6.22252,-6.91431,11.0935,-8.25469,-0.391837,-2.65,56.7253,-2.23623,0.807572,4.46565
5.99716,18.0105,13.0492,154.683,-69.7251,-156.576,13.8644,1.62225,6.17995,1.3152,3.17154,4.12313,-6.2831,1.34994,0.295254,-9.57382,-5.18978,-6.97848,-5.10728,-6.37763,6.84244,0.507662,-3.12196,3.19721,9.44227e-16,-2.22639e-14,46.1112,-3.88095,-43.5395,72.3954,-376.623,-23.2458,-15.9527,7.12502,3.20568,-45.9084,9.44227e-16,-2.22639e-14,59.9063,12.3978,44.896,58.553,-2.74741,-29.1899,-17.0001,7.12502,-2.53514,12.9646,-5.53488,-2.73339,26.4047,18.3265,-6.42051,-7.21209,10.1985,-9.11692,-0.361729,-3.02466,56.6956,-2.57165,-0.477607,1.82345
5.89851,18.0116,12.9831,155.468,-70.3712,-157.501,13.7848,1.61714,5.90004,1.16291,3.12922,3.83534,-6.40188,1.3382,0.153707,-9.05676,-5.13314,-6.37305,-5.01705,-6.3794,6.41443,0.406979,-3.13618,2.94918,1.36167e-14,2.18663e-14,47.0987,-4.34881,-43.6286,71.7186,-377.081,-23.8027,-14.9394,7.12502,2.66794,-44.9024,1.36167e-14,2.18663e-14,60.8579,12.4689,45.1345,58.2188,-1.93706,-29.2791,-16.6552,7.12502,-2.6213,13.3084,-5.12864,-3.21761,25.8469,18.5925,-6.80255,-7.30899,9.27029,-9.71871,-0.438305,-3.88073,56.4718,-3.16038,-1.69256,0.252755
5.83662,18.0017,12.9218,153.288,-69.9519,-154.941,13.7951,1.81599,6.83287,1.04105,3.54864,4.14086,-6.48671,1.50812,-0.118669,-8.90361,-5.17553,-6.33984,-4.96176,-6.44289,6.21917,0.393132,-3.16861,2.87698,-8.10048e-15,4.73108e-14,48.2934,-5.09518,-43.6426,70.8387,-377.163,-23.7142,-14.5935,7.12502,2.75342,-44.5554,-8.10048e-15,4.73108e-14,62.232,12.6568,45.9995,57.7317,-1.4038,-29.7241,-16.1832,7.12502,-3.05099,13.7747,-5.24008,-2.29594,27.1549,18.9312,-7.16646,-8.20312,9.71849,-10.7353,0.0473511,-2.79714,56.2777,-3.70619,-3.117,-0.506987
5.75352,17.998,12.8594,152.721,-69.9974,-154.067,13.4465,1.96984,7.17605,1.02361,3.77178,4.23268,-6.28443,1.61311,-0.238914,-9.1845,-5.25226,-6.6606,-4.49685,-6.501,6.25471,0.609693,-3.1837,2.9332,-1.09332e-14,2.8625e-14,49.6423,-5.94689,-43.9798,69.8714,-376.159,-21.9094,-16.525,7.12502,4.49623,-46.4573,-1.09332e-14,2.8625e-14,63.6031,12.8698,46.8482,57.2106,-1.03713,-30.5464,-15.1355,7.12502,-3.84509,14.8095,-5.35293,-2.24224,27.5447,19.3226,-7.56889,-8.22271,10.7956,-11.7002,0.293287,-2.69365,55.9386,-4.10793,-4.00939,-0.870894
5.65652,17.9928,12.7888,152.929,-70.4535,-154.271,13.1272,1.88052,6.94297,1.12202,3.57965,4.23884,-6.02519,1.53681,-0.0568439,-9.61249,-5.14066,-6.7962,-4.10497,-6.3187,5.97765,0.791637,-3.08566,2.85996,-2.49972e-14,-2.74323e-14,51.1039,-5.95513,-43.619,70.0303,-377.664,-23.285,-20.6623,7.12502,3.16788,-50.6185,-2.49972e-14,-2.74323e-14,64.4784,13.5392,47.2783,56.7311,-0.393265,-30.9695,-14.5214,7.12502,-4.2537,15.4159,-5.15564,-2.23355,27.3755,19.8325,-8.29681,-8.58267,11.8647,-12.2764,0.403991,-3.20149,55.4038,-4.44695,-4.71917,-0.435824
5.58846,17.9683,12.7463,151.438,-70.6367,-152.915,13.6537,1.67344,7.59903,1.02531,3.45902,4.23355,-6.38957,1.44239,-0.423048,-9.57723,-4.95092,-6.37155,-3.94904,-6.10767,5.48802,0.785174,-2.9887,2.62667,-8.99501e-15,1.23246e-14,52.4169,-6.26161,-43.8808,69.2712,-377.217,-23.6803,-19.6783,7.12502,2.78615,-49.6398,-8.99501e-15,1.23246e-14,65.2269,14.0529,47.495,56.2453,0.449953,-30.9177,-14.52,7.12502,-4.20364,15.4182,-4.89398,-1.2662,27.9272,20.4418,-9.37295,-10.0118,13.9325,-12.8223,0.446181,-3.09284,54.8917,-4.99838,-5.47259,-1.08306
5.49029,17.9585,12.6854,153.114,-71.4404,-155.004,13.8265,1.78007,6.82812,0.814754,3.52128,3.75123,-6.7238,1.49032,-0.529538,-8.7692,-4.92478,-5.40699,-3.75507,-6.19122,5.07114,0.660518,-3.04631,2.32407,3.25013e-14,6.0033e-14,52.8979,-6.71337,-44.2725,68.3102,-376.324,-23.86,-18.5168,7.12502,2.61252,-48.4805,3.25013e-14,6.0033e-14,66.037,13.6904,47.606,55.9158,0.830559,-31.5598,-13.463,7.12502,-4.82368,16.4621,-4.53201,-2.32347,26.8191,21.2084,-10.4413,-9.23952,16.272,-12.8957,0.269425,-4.57757,54.0359,-5.69625,-5.9184,-2.32623
5.4301,17.9419,12.6309,151.704,-71.0139,-153.112,13.6911,1.59037,7.18218,0.996879,3.30244,4.43073,-6.48623,1.3758,0.0442891,-10.3923,-4.71078,-6.64646,-2.82674,-5.71324,5.19359,1.26699,-2.77749,2.57524,-3.75703e-14,-2.38542e-14,55.5668,-6.59221,-44.3387,67.8264,-375.147,-23.3195,-20.7913,7.12502,3.13454,-50.748,-3.75703e-14,-2.38542e-14,66.2059,15.4734,48.1574,55.7008,0.654904,-32.471,-12.1784,7.12502,-5.7035,17.7249,-5.03447,-2.42683,27.8159,21.8202,-10.642,-9.11946,15.8898,-13.9363,0.933742,-3.86084,53.3968,-5.96319,-6.44149,-2.37614
5.33204,17.9455,12.5897,153.849,-71.7007,-155.591,13.584,1.44354,6.32896,1.34878,2.93561,4.34225,-6.10409,1.23623,0.495995,-11.1304,-4.5235,-7.13789,-2.45459,-5.36767,5.14059,1.51396,-2.59686,2.6546,4.68138e-14,-1.03368e-14,57.5595,-6.76425,-44.3945,67.0005,-374.456,-23.7259,-20.8669,7.12502,2.74212,-50.829,4.68138e-14,-1.03368e-14,66.7465,16.6525,48.7067,55.3242,0.525144,-32.8576,-12.3841,7.12502,-6.07677,17.5088,-4.69642,-3.5967,26.5601,22.3185,-10.7662,-8.48101,13.5085,-14.1031,1.04004,-5.4529,52.4984,-6.74699,-5.93787,-3.70647
5.26227,17.933,12.5345,151.375,-71.5322,-152.834,13.611,1.48873,7.29818,1.19927,3.15174,4.41412,-6.22353,1.30755,-0.00619893,-10.5731,-4.41451,-6.49719,-2.69992,-5.3221,4.85552,1.29727,-2.58722,2.45208,8.10544e-14,-1.59028e-14,58.4007,-7.25303,-44.5365,65.9737,-372.9,-24.9519,-21.5342,7.12502,1.55804,-51.5083,8.10544e-14,-1.59028e-14,67.7289,16.6189,49.0837,54.8487,0.466712,-33.2867,-13.1779,7.12502,-6.49103,16.7026,-4.72841,-3.27831,27.6656,22.6375,-11.2389,-8.91915,14.0708,-14.956,1.64148,-4.65097,51.8111,-7.55182,-5.61783,-5.03727
5.18378,17.9146,12.4715,148.521,-71.343,-149.698,13.6717,1.83066,8.42645,0.692871,3.83076,4.28146,-6.68671,1.58286,-0.900393,-8.98888,-4.56605,-5.09453,-3.00913,-5.72703,4.44979,0.877737,-2.8138,2.07284,-5.73991e-14,1.59028e-15,57.7459,-8.13556,-44.2136,65.2011,-370.832,-25.9261,-22.7366,7.12502,0.617153,-52.7155,-5.73991e-14,1.59028e-15,68.9094,15.3413,49.4038,54.5031,0.587662,-34.0851,-13.4174,7.12502,-7.26176,16.438,-4.70515,-2.95148,28.9269,23.022,-12.0595,-9.43126,15.1089,-15.7154,2.18642,-3.73186,50.9629,-8.20958,-5.21053,-5.96073
5.10363,17.897,12.4136,148.1,-71.2919,-149.167,13.5384,1.50385,8.33195,1.16195,3.32015,4.96909,-6.19012,1.35247,-0.0145451,-11.0617,-4.30933,-7.2293,-2.0136,-5.06451,4.90302,1.62259,-2.44666,2.6087,3.54831e-14,2.94201e-14,60.6543,-7.79096,-43.9378,64.5975,-368.923,-26.4348,-23.9487,7.12502,0.125841,-53.9284,3.54831e-14,2.94201e-14,68.8357,17.5396,49.9895,54.2922,0.285769,-34.8377,-13.1716,7.12502,-7.98809,16.6575,-4.54993,-2.48308,29.3126,23.2786,-12.4145,-10.2263,13.5584,-16.2949,2.84225,-3.85338,50.0887,-8.92763,-4.59651,-8.47337
5.02468,17.8852,12.3489,149.499,-71.2024,-150.532,13.5269,1.62013,7.78358,1.2883,3.38322,5.09423,-6.08404,1.40336,0.41106,-11.7319,-4.20603,-7.96617,-1.44485,-4.79523,5.12636,1.95012,-2.29978,2.83104,-1.73937e-14,5.1684e-14,62.1692,-7.8923,-43.8559,64.0866,-367.025,-27.358,-24.2772,7.12502,-0.765828,-54.2555,-1.73937e-14,5.1684e-14,69.0632,18.3507,50.1421,54.2509,0.0865614,-35.3427,-12.5411,7.12502,-8.47549,17.2688,-4.38274,-1.94295,29.142,23.4675,-12.5495,-10.6771,11.77,-16.6989,3.78946,-4.52592,49.0969,-9.63736,-3.93496,-9.73199
4.94221,17.872,12.2857,148.981,-71.2098,-150.079,13.6608,1.73444,7.76625,1.35402,3.54107,5.22407,-6.09052,1.47904,0.527305,-11.9327,-4.21043,-8.05211,-1.16152,-4.76991,4.98762,2.07783,-2.28891,2.79927,-3.33958e-14,2.78299e-14,63.171,-8.30941,-43.4369,63.5467,-365.427,-28.5976,-22.4522,7.12502,-1.96304,-52.423,-3.33958e-14,2.78299e-14,69.7156,18.6763,50.5195,53.8877,-0.2647,-35.5861,-12.7932,7.12502,-8.71038,17.0071,-4.03316,-1.36617,29.4982,23.7112,-12.8709,-11.4269,10.7191,-17.002,4.44388,-4.64336,48.0407,-10.1234,-3.49641,-8.09164
4.86088,17.8561,12.2392,146.827,-71.253,-147.914,13.8092,1.73624,8.38143,1.32668,3.65061,5.32769,-6.166,1.50854,0.274586,-11.7377,-4.21077,-7.57869,-1.17819,-4.83334,4.58343,2.00813,-2.33223,2.57023,3.8266e-14,3.81667e-14,63.9672,-8.95234,-43.0555,62.7841,-364.005,-29.317,-26.2691,7.12502,-2.65787,-56.2323,3.8266e-14,3.81667e-14,70.5967,18.75,51.0052,53.215,-0.973121,-35.8091,-14.2861,7.12502,-8.92556,15.5051,-3.75033,-1.58763,30.2273,23.961,-13.0183,-11.8369,8.8872,-17.437,4.74065,-4.35601,46.9218,-10.2778,-2.98569,-5.67178
4.78323,17.8402,12.2013,146.071,-71.8105,-147.106,13.8685,1.78799,8.48391,1.2443,3.75176,5.16595,-6.2649,1.55324,0.0246133,-11.3813,-4.22726,-7.02735,-1.27489,-4.94125,4.36555,1.89003,-2.39311,2.39176,-2.98177e-15,-3.57812e-14,64.3839,-9.79002,-42.7244,62.2263,-362.866,-29.0615,-21.9807,7.12502,-2.41107,-51.9469,-2.98177e-15,-3.57812e-14,71.3869,18.489,51.2128,52.9418,-1.83111,-36.5193,-14.4621,7.12502,-9.61086,15.2986,-3.5972,-2.31259,30.1706,24.1199,-13.3564,-11.8191,8.69127,-18.071,4.63676,-4.89861,45.7226,-10.2831,-2.20595,-3.76608
4.69902,17.8309,12.1584,146.343,-72.7321,-147.33,13.7446,1.94672,8.15004,1.19335,3.90677,4.8856,-6.24404,1.64521,-0.114939,-11.0002,-4.3665,-6.59623,-1.37075,-5.198,4.2946,1.7865,-2.52441,2.27855,3.60794e-14,2.78299e-14,64.4922,-10.8421,-42.2713,61.6896,-362.12,-29.6909,-20.591,7.12502,-3.01894,-50.5494,3.60794e-14,2.78299e-14,72.2496,17.9801,51.4446,52.8612,-3.05446,-37.5573,-13.4433,7.12502,-10.6123,16.2687,-3.37521,-2.31433,29.7116,24.2183,-13.9809,-12.4686,10.0917,-18.6731,4.48216,-5.98787,44.3849,-10.4122,-1.59996,-2.49872
4.60265,17.8189,12.1096,145.561,-73.2412,-146.598,13.6979,2.10502,8.23115,1.11623,4.13098,4.68133,-6.267,1.75369,-0.41617,-10.6741,-4.51961,-6.03227,-1.16336,-5.47963,4.16285,1.78664,-2.6682,2.11976,-5.83433e-14,-3.18055e-14,64.7697,-11.7056,-42.1276,60.4669,-361.11,-30.2813,-19.2235,7.12502,-3.58912,-49.173,-5.83433e-14,-3.18055e-14,73.0082,17.3574,51.4383,52.6358,-4.46949,-38.3,-13.2516,7.12502,-11.3286,16.4224,-2.93265,-2.09801,29.7546,24.3435,-14.59,-13.2091,10.7365,-18.9335,4.61488,-6.53462,42.9416,-10.7629,-1.17861,-2.31087
4.50236,17.8277,12.0572,145.828,-73.5815,-146.678,13.4762,2.33637,8.09482,0.931679,4.41451,4.48355,-6.3185,1.89691,-0.594926,-10.4667,-4.59869,-5.36949,-0.769899,-5.66117,3.84503,1.85103,-2.76465,1.88675,6.48535e-14,7.23576e-14,64.7029,-12.3738,-41.2433,60.2069,-361.149,-30.5246,-18.9085,7.12502,-3.82402,-48.854,6.48535e-14,7.23576e-14,73.5531,16.8253,51.3136,52.4251,-5.4472,-38.271,-14.2826,7.12502,-11.3007,15.393,-2.75465,-2.25729,29.6055,24.3798,-14.8302,-13.466,9.76691,-19.3515,4.68772,-7.20777,41.4391,-11.0992,-0.433329,-2.7304
4.41785,17.8348,12.0141,146.261,-74.1007,-147.101,13.5845,2.34835,7.78208,0.822745,4.40902,4.3102,-6.50613,1.89854,-0.613562,-9.99603,-4.48551,-4.51584,-0.859971,-5.6136,3.36345,1.68301,-2.75459,1.5892,5.46658e-14,5.00937e-14,65.2487,-12.752,-40.8357,59.6992,-361.782,-30.047,-17.501,7.12502,-3.36283,-47.4543,5.46658e-14,5.00937e-14,73.8553,16.8802,51.1443,52.1791,-6.00166,-37.6644,-15.8835,7.12502,-10.7155,13.8233,-2.43301,-2.58337,29.2541,24.3595,-14.9417,-13.5507,9.20025,-19.7056,4.7125,-8.05806,39.9658,-11.2322,0.231084,-2.15566
4.33701,17.8213,11.9803,144.669,-74.357,-145.524,13.719,2.17389,8.02296,0.831152,4.22933,4.45326,-6.57762,1.79873,-0.567748,-9.82284,-4.3502,-5.10287,-0.815668,-5.37988,3.62156,1.68885,-2.63214,1.79202,-1.95803e-14,-2.14687e-14,66.2979,-12.8858,-40.4854,58.9823,-362.321,-29.4279,-16.8059,7.12502,-2.76494,-46.7677,-1.95803e-14,-2.14687e-14,73.8475,17.3412,50.7146,52.0097,-6.54689,-37.9689,-16.0516,7.12502,-11.0093,13.6397,-2.04961,-2.88389,29.5396,24.3096,-15.046,-13.5189,9.63473,-20.0441,4.67857,-8.29111,38.5533,-11.2282,1.03065,-1.39063
4.25024,17.8008,11.95,142.881,-74.7392,-143.75,13.7562,2.10191,8.29681,0.870562,4.17509,4.53856,-6.54667,1.76381,-0.618675,-9.64177,-4.31391,-5.18524,-0.815455,-5.32936,3.6377,1.65809,-2.60703,1.81748,2.92213e-14,-1.74931e-14,66.8243,-13.2962,-39.5139,59.1012,-363.031,-29.4159,-17.8009,7.12502,-2.75338,-47.7628,2.92213e-14,-1.74931e-14,73.9895,17.4522,50.1065,52.0594,-6.69551,-38.5388,-15.7824,7.12502,-11.5589,13.8789,-1.60888,-3.01596,29.8016,24.1623,-15.2373,-13.818,10.0775,-20.4492,4.5991,-8.62579,37.2803,-11.2311,1.8174,-2.11133
4.15378,17.7967,11.9129,141.898,-75.0572,-142.578,13.5364,2.18534,8.5594,0.827794,4.29961,4.37825,-6.42952,1.82194,-0.946431,-9.68614,-4.44042,-4.69644,-0.542184,-5.54869,3.63016,1.74773,-2.71434,1.7148,1.80894e-14,1.66979e-14,67.0199,-13.9343,-38.8281,58.8399,-363.674,-29.6002,-17.5787,7.12502,-2.9314,-47.5383,1.80894e-14,1.66979e-14,74.4995,17.2469,49.6874,52.1045,-6.05287,-37.3939,-17.4458,7.12502,-10.4546,12.2743,-1.27651,-3.11792,29.9435,23.8732,-15.5584,-14.1077,10.4051,-21.1078,5.09525,-9.1503,36.1549,-11.2753,2.47666,-6.82136
4.0602,17.7998,11.8761,139.907,-74.9169,-140.351,13.4194,2.08904,9.02788,0.732742,4.23975,4.59464,-6.45492,1.77356,-0.958951,-9.87815,-4.43349,-5.14009,0.122268,-5.49507,4.01542,2.03286,-2.67369,1.91708,-1.17283e-14,6.04305e-14,67.8349,-13.9659,-38.7002,58.4368,-363.912,-29.0105,-16.74,7.12502,-2.36186,-46.7066,-1.17283e-14,6.04305e-14,74.351,17.5406,49.2536,52.0974,-5.57786,-36.2289,-18.7983,7.12502,-9.33071,10.9752,-0.92024,-3.21838,30.6084,23.4951,-15.4437,-14.4389,9.4991,-21.8202,5.73421,-9.1232,35.1793,-11.557,2.88228,-10.4694
3.9688,17.8086,11.8442,138.349,-74.9494,-138.651,13.3507,2.02122,9.27402,0.6338,4.19288,4.81507,-6.52728,1.73686,-0.849357,-9.50726,-4.22786,-5.10924,0.191122,-5.22776,3.69454,1.96196,-2.55016,1.82598,-7.85199e-15,-1.27222e-14,68.6413,-13.9637,-38.4683,57.7752,-363.826,-28.5561,-16.508,7.12502,-1.92301,-46.4791,-7.85199e-15,-1.27222e-14,74.073,17.683,48.7157,52.2283,-5.32341,-35.8862,-18.6097,7.12502,-9.00003,11.1784,-0.409143,-2.97428,31.0894,22.9364,-15.2318,-14.972,9.33949,-22.3946,5.62331,-9.14999,34.3189,-12.2486,2.80091,-7.17151
3.86838,17.8161,11.8184,137.508,-75.2338,-137.755,13.3531,2.18319,9.71843,0.611962,4.46823,4.59389,-6.47919,1.85851,-1.37551,-9.77546,-4.38975,-4.75955,0.584457,-5.4647,3.473,2.13034,-2.66938,1.67227,9.49197e-15,-1.66979e-14,68.5927,-14.7681,-37.5106,57.477,-363.83,-28.7037,-16.9238,7.12502,-2.06552,-46.8935,9.49197e-15,-1.66979e-14,74.6205,17.1177,48.2149,52.4842,-4.64585,-35.4325,-18.46,7.12502,-8.56218,11.3464,0.136005,-3.45666,31.0218,22.4544,-15.4228,-14.6983,10.1236,-22.842,5.15678,-9.51321,33.5102,-13.1356,2.76436,-2.55611
3.75441,17.8207,11.7963,136.15,-75.4531,-136.287,12.8743,2.14362,9.9274,0.723841,4.36862,4.75681,-6.09601,1.82259,-1.27476,-9.73301,-4.36577,-5.07595,0.84663,-5.39692,3.4476,2.21822,-2.63722,1.72363,3.45885e-14,3.4191e-14,69.1068,-14.996,-36.7253,57.3584,-363.572,-28.8684,-16.2675,7.12502,-2.2246,-46.2356,3.45885e-14,3.4191e-14,74.4901,17.2751,47.6018,52.6258,-4.67995,-35.3193,-19.3502,7.12502,-8.45289,10.4606,0.668822,-4.23673,31.0608,22.0619,-15.4896,-14.3163,10.776,-23.2967,5.28336,-9.90878,32.7293,-13.7603,2.7942,-2.45337
3.66157,17.8164,11.7658,136.994,-76.0522,-137.152,12.7977,2.21649,9.34502,0.711537,4.37875,4.57807,-6.09377,1.84974,-1.14546,-9.57232,-4.36052,-4.84255,1.06258,-5.41912,3.33824,2.24902,-2.64996,1.64663,7.05686e-15,-1.35174e-14,69.2293,-15.2727,-36.1147,57.2483,-362.972,-29.1517,-15.6678,7.12502,-2.49818,-45.633,7.05686e-15,-1.35174e-14,74.424,17.0263,46.42,53.0007,-4.69654,-35.7166,-17.4227,7.12502,-8.83633,12.3723,1.10051,-4.28408,30.5204,21.8338,-15.5815,-14.3182,12.5088,-23.6828,5.28618,-10.989,32.0091,-13.9813,3.01803,-4.2456
3.56227,17.818,11.7397,136.983,-76.2482,-137.087,12.6157,2.29726,9.15255,0.734959,4.43574,4.5945,-5.97745,1.89017,-1.02309,-9.60566,-4.32896,-4.76634,1.32368,-5.37853,3.18573,2.33204,-2.63273,1.5837,6.65929e-15,0,69.6658,-15.4123,-35.6342,56.9728,-362.044,-29.6949,-15.8092,7.12502,-3.02282,-45.7675,6.65929e-15,0,74.7924,17.0531,46.2603,52.7766,-3.71668,-33.9716,-19.6865,7.12502,-7.15212,10.1726,1.4668,-4.22609,30.3733,21.6763,-15.9287,-14.0992,14.3895,-24.0697,5.60478,-11.5698,31.4193,-14.1544,2.51428,-3.72736
3.46755,17.8148,11.7124,136.412,-76.2539,-136.497,12.6154,2.33938,9.12699,0.708034,4.49446,4.72962,-6.01494,1.91691,-0.875987,-9.35411,-4.26754,-4.93659,1.41676,-5.28942,3.23093,2.32148,-2.58934,1.63742,6.43068e-14,7.07673e-14,70.3716,-15.359,-35.5824,56.2886,-360.976,-29.9651,-15.4644,7.12502,-3.28376,-45.4188,6.43068e-14,7.07673e-14,74.6502,17.0449,45.6763,52.809,-3.62517,-33.438,-19.5114,7.12502,-6.63709,10.3646,1.81224,-4.20754,30.4868,21.6166,-15.9057,-14.2898,13.7037,-24.45,6.47087,-11.9579,30.9314,-14.1712,1.40608,-2.21809
3.37801,17.8058,11.6887,135.767,-76.4766,-135.908,12.7269,2.33332,9.06421,0.631309,4.50356,4.76305,-6.16721,1.916,-0.814693,-8.86506,-4.24554,-5.00491,1.43058,-5.27391,3.25107,2.23914,-2.58403,1.66464,-9.14409e-15,-2.8625e-14,70.2943,-15.425,-34.8948,56.9097,-360.669,-29.7298,-15.1029,7.12502,-3.05654,-45.0608,-9.14409e-15,-2.8625e-14,74.3197,16.9754,44.7623,53.1631,-3.49904,-32.951,-18.0433,7.12502,-6.16695,11.8469,2.26447,-4.44457,30.4172,21.4163,-15.4624,-14.7418,11.2699,-24.7963,6.8799,-12.4517,30.6774,-14.2456,0.4015,-1.04204
3.2779,17.7994,11.6673,135.04,-76.8043,-135.255,12.5854,2.3218,9.00403,0.667064,4.45824,4.71121,-6.05286,1.90248,-0.822028,-8.73647,-4.25304,-4.92566,1.69888,-5.29775,3.22105,2.30232,-2.5965,1.64041,-3.67752e-15,7.95139e-16,70.6149,-15.6152,-34.5446,56.5806,-360.101,-29.7829,-14.3182,7.12502,-3.1078,-44.2753,-3.67752e-15,7.95139e-16,74.4155,16.8959,44.0539,53.2457,-3.36419,-32.386,-17.5535,7.12502,-5.62144,12.3519,2.70062,-4.61352,30.2617,21.4659,-15.4786,-15.1238,10.945,-24.8784,6.75402,-12.9284,30.3585,-14.4508,-0.435155,1.21885
3.17298,17.7904,11.6439,132.322,-76.693,-132.367,12.194,2.22193,9.44796,0.691862,4.33161,4.8901,-5.79795,1.83701,-0.835711,-8.89515,-4.1674,-4.70335,2.12599,-5.19561,3.05192,2.45585,-2.54739,1.54687,-3.10104e-14,1.98785e-14,71.3535,-15.6174,-34.5345,55.7081,-359.265,-30.1938,-13.722,7.12502,-3.50463,-43.673,-3.10104e-14,1.98785e-14,74.6537,16.8486,43.6483,53.1159,-3.43376,-31.7967,-17.4014,7.12502,-5.0524,12.5184,2.8861,-5.02585,30.8231,21.6575,-15.7132,-15.2635,11.2473,-25.0645,6.92841,-12.7283,30.0373,-14.2968,-1.14846,1.97647
3.08358,17.7922,11.6203,134.055,-77.4676,-134.427,12.5168,2.23871,8.37102,0.666734,4.26211,4.8015,-6.08211,1.82753,-0.345311,-8.70433,-4.15037,-5.18411,2.53417,-5.14517,3.32911,2.58469,-2.52013,1.72829,2.94201e-14,-4.77083e-15,71.7319,-15.4099,-34.2137,55.1749,-358.602,-30.8292,-12.6958,7.12502,-4.11823,-42.6358,2.94201e-14,-4.77083e-15,74.7419,16.7013,43.3077,52.8727,-3.47584,-31.2329,-16.7463,7.12502,-4.50801,13.1858,3.41986,-5.02313,29.8996,21.8559,-15.9596,-15.5828,10.9394,-24.6832,6.77063,-13.9747,29.8225,-14.1308,-1.07787,0.759411
2.98183,17.792,11.6072,134.708,-78.1547,-135.318,12.4879,2.27141,7.83618,0.806443,4.21566,4.66066,-5.94582,1.83019,-0.190017,-8.85045,-4.24947,-5.58357,2.93652,-5.25033,3.7021,2.78398,-2.56475,1.91516,-1.45113e-14,-2.14687e-14,71.989,-15.6492,-33.9687,54.9407,-357.976,-30.9446,-13.5087,7.12502,-4.22969,-43.4464,-1.45113e-14,-2.14687e-14,75.352,16.6643,43.0317,52.4605,-3.48615,-30.9821,-16.2541,7.12502,-4.26582,13.6829,3.87588,-5.66139,29.023,22.0995,-16.0191,-15.3247,9.98978,-24.3507,6.74718,-15.0287,29.7933,-13.7637,-1.57676,0.104832
2.91113,17.7794,11.5958,132.178,-77.4382,-132.687,12.575,2.30163,8.59977,0.783849,4.37092,4.96507,-5.97852,1.87671,-0.315496,-8.52553,-4.08882,-5.2619,2.95256,-5.06861,3.3587,2.6936,-2.48384,1.75794,-4.85035e-14,8.74653e-15,72.637,-15.5585,-33.9493,54.3772,-357.381,-30.4136,-15.6941,7.12502,-3.71686,-45.6414,-4.85035e-14,8.74653e-15,75.7579,16.5805,42.8946,52.1094,-3.54177,-30.4724,-16.3949,7.12502,-3.7737,13.5514,3.83103,-5.34662,30.0818,22.51,-15.963,-15.1872,10.5572,-24.3078,6.01099,-14.0468,29.8396,-13.0911,-1.33705,2.89819
2.82261,17.7642,11.576,130.309,-77.1135,-130.849,12.5749,2.29038,8.91619,0.784826,4.39894,5.131,-5.96574,1.87901,-0.316947,-8.19222,-3.89769,-4.76224,2.93637,-4.86256,2.99864,2.58489,-2.38853,1.56567,4.09496e-14,5.08889e-14,73.0865,-15.4414,-33.5836,53.5694,-357.314,-29.9566,-16.659,7.12502,-3.27559,-46.6135,4.09496e-14,5.08889e-14,76.1177,16.2431,42.8816,51.8259,-3.74041,-29.558,-16.838,7.12502,-2.89063,13.1221,4.04523,-5.28624,30.6891,22.8485,-15.9314,-15.1285,10.9341,-24.1049,5.66825,-13.5159,30.064,-12.5334,-1.87584,7.3824
2.7269,17.7497,11.5525,129.669,-77.0784,-130.332,12.5386,2.29202,8.81193,0.813375,4.38015,5.13057,-5.92362,1.87554,-0.255346,-7.83154,-3.71831,-4.40744,2.99682,-4.67251,2.94392,2.51622,-2.29339,1.49936,-4.4329e-14,-1.66979e-14,73.399,-15.3502,-33.5029,53.0066,-357.199,-29.4527,-16.7048,7.12502,-2.78893,-46.6664,-4.4329e-14,-1.66979e-14,76.455,15.9517,42.6898,51.5229,-3.82778,-28.544,-17.1722,7.12502,-1.91126,12.799,4.3076,-5.27047,30.8513,23.2295,-15.2499,-15.8629,7.41019,-23.7873,5.30852,-13.4384,30.3743,-12.1034,-2.14017,9.1533
2.63309,17.7405,11.5367,128.628,-76.9752,-129.603,12.6794,2.27649,8.85319,0.918748,4.37033,5.20552,-5.89281,1.87035,-0.201297,-7.53038,-3.54504,-4.01778,3.11843,-4.48153,2.73068,2.47373,-2.20175,1.37389,-2.22639e-14,-3.73715e-14,73.6619,-15.2233,-33.6689,52.9175,-356.653,-28.9772,-16.2548,7.12502,-2.32966,-46.2218,-2.22639e-14,-3.73715e-14,76.9013,15.7387,42.7399,51.179,-3.81707,-27.1391,-17.6563,7.12502,-0.554478,12.3227,4.62421,-5.22093,31.0367,23.8582,-14.9826,-16.3551,5.26047,-23.2126,4.59877,-13.2358,30.5461,-11.4635,-1.86754,9.48583
2.5381,17.7311,11.5252,127.23,-76.8284,-128.609,12.9364,2.24596,9.03443,1.04853,4.37096,5.34489,-5.89473,1.86344,-0.161553,-7.4544,-3.47968,-4.03785,3.37018,-4.39773,2.72705,2.54164,-2.16119,1.38072,-2.28602e-15,8.18993e-14,73.9543,-15.0589,-33.6943,52.7553,-356.268,-28.4053,-15.9705,7.12502,-1.77737,-45.9428,-2.28602e-15,8.18993e-14,77.4483,15.4866,43.0881,50.7077,-3.94784,-25.91,-17.3651,7.12502,0.632691,12.6137,4.94234,-5.2036,31.2373,24.7363,-15.5906,-16.2055,6.11128,-22.5503,4.16997,-12.9661,30.587,-10.5611,-1.78086,9.55883
2.43643,17.7165,11.5168,126.847,-77.0561,-128.564,12.9793,2.14246,8.8177,1.20229,4.19159,5.38491,-5.78325,1.78768,0.0295972,-7.6015,-3.40251,-4.94775,3.88298,-4.23656,3.27908,2.78365,-2.07749,1.73097,-5.68524e-14,-6.20208e-14,74.5645,-14.811,-33.6944,52.4044,-356.217,-27.3663,-16.9201,7.12502,-0.773859,-46.8985,-5.68524e-14,-6.20208e-14,77.8106,15.4091,43.2556,50.2294,-3.95532,-24.9207,-15.3977,7.12502,1.5882,14.5762,5.06393,-5.99948,30.727,25.8533,-15.7457,-15.4815,5.14934,-21.9444,3.73914,-13.1639,30.5191,-9.37739,-1.628,10.6898
2.33758,17.7068,11.5123,128.598,-77.407,-130.6,13.0569,2.27043,8.31376,1.30568,4.28851,5.10418,-5.72448,1.85606,-0.0102968,-7.45105,-3.38468,-4.00649,4.11669,-4.29136,2.84885,2.79238,-2.10505,1.41902,-1.60022e-14,-2.38542e-15,74.5931,-14.9123,-33.8216,52.2159,-356.114,-26.0669,-17.6216,7.12502,0.481122,-47.6008,-1.60022e-14,-2.38542e-15,78.3846,15.0861,43.1534,50.1056,-3.55339,-23.2938,-13.3429,7.12502,3.15933,16.6135,4.97253,-6.17665,29.8909,27.2138,-15.895,-15.1119,4.76164,-21.3275,3.12561,-13.7113,30.419,-8.20424,-0.91537,13.4649
2.2317,17.7055,11.4913,130.883,-77.9928,-133.318,13.1792,2.31667,7.14875,1.43142,4.19418,4.99072,-5.73883,1.84539,0.52206,-7.15569,-3.16718,-3.29608,4.3011,-4.05191,2.33215,2.75308,-1.99343,1.13946,1.98785e-15,2.54444e-14,75.0472,-14.5085,-34.6324,51.9817,-355.744,-24.4881,-16.8156,7.12502,2.00599,-46.7859,1.98785e-15,2.54444e-14,78.5033,15.0034,43.1098,50.032,-3.09198,-21.2217,-13.1282,7.12502,5.16024,16.7889,4.99659,-6.34421,28.7816,28.6982,-16.3579,-14.6734,5.89515,-20.5732,3.15982,-14.58,30.3891,-7.2871,-0.793987,15.8922
2.13384,17.6968,11.4966,132.421,-78.2442,-135.062,13.2781,2.49005,6.86926,1.46606,4.38936,4.76947,-5.75246,1.95036,0.404655,-7.37111,-3.21333,-4.09173,4.84068,-4.08057,3.0189,3.02414,-1.99828,1.50163,-5.53615e-14,-5.24792e-14,75.073,-14.4244,-35.1856,51.7321,-355.645,-22.4019,-16.5403,7.12502,4.02069,-46.4821,-5.53615e-14,-5.24792e-14,79.2096,14.4759,43.4143,49.8596,-2.61608,-19.1132,-13.5284,7.12502,7.19591,16.3292,4.69168,-6.8552,27.9064,30.2101,-16.3586,-13.902,6.09431,-20.1816,3.27798,-15.1431,30.5101,-6.8169,-0.789253,16.817
2.03938,17.6779,11.4835,133.844,-78.108,-136.547,13.2414,2.68183,6.57788,1.45503,4.60365,4.79471,-5.7612,2.06362,0.55658,-6.48464,-3.17413,-4.16523,4.44638,-4.03937,2.86249,2.71813,-1.99042,1.4747,-5.11871e-15,1.03368e-14,75.0816,-14.1982,-35.0067,51.535,-356.239,-20.0581,-17.0773,7.12502,6.28377,-46.9641,-5.11871e-15,1.03368e-14,79.6053,14.3171,43.4969,49.6451,-1.73809,-16.891,-12.6956,7.12502,9.3405,17.0774,4.26058,-6.9811,27.5717,31.7061,-16.2168,-13.4257,5.16523,-20.0068,4.23622,-15.3217,30.8256,-6.69513,-1.47744,16.5724
1.94585,17.6632,11.4721,134.855,-77.9701,-137.712,13.2615,2.8474,6.41291,1.56156,4.78808,4.6668,-5.65468,2.16251,0.482192,-6.43168,-3.19411,-3.64273,4.46459,-4.09903,2.5973,2.69251,-2.01968,1.29293,-2.48481e-16,2.38542e-14,75.0137,-14.3121,-34.871,51.1173,-356.962,-17.8068,-17.0636,7.12502,8.45676,-46.8743,-2.48481e-16,2.38542e-14,80.1275,14.3854,43.1789,49.6568,-0.52072,-14.0125,-11.5133,7.12502,12.117,18.1158,3.88599,-7.1223,27.2623,33.202,-15.8199,-13.1985,2.34397,-19.7862,5.12088,-15.4372,31.3136,-6.83605,-2.14765,15.946
1.85402,17.649,11.4618,135.709,-78.0275,-138.751,13.2443,2.63386,5.88291,1.6494,4.42553,4.81786,-5.6163,1.99912,0.999005,-6.01874,-2.82163,-4.33488,4.54703,-3.58067,2.96008,2.65444,-1.76657,1.5628,2.65874e-14,6.52014e-14,75.8754,-13.5719,-34.9081,50.9376,-357.884,-15.4519,-17.7197,7.12502,10.7288,-47.4257,2.65874e-14,6.52014e-14,79.6966,14.7164,43.0338,49.6006,-0.205711,-10.9151,-10.9699,7.12502,15.1022,18.4591,3.55899,-7.24304,26.8799,34.6691,-15.3449,-13.1879,-0.51142,-19.5558,5.56459,-15.6476,31.8738,-7.08192,-2.58512,15.8058
1.76789,17.6359,11.4513,136.396,-78.2104,-139.53,13.214,2.69183,5.71965,1.77826,4.45671,4.48592,-5.44652,2.02524,0.737458,-6.45243,-2.9629,-4.06169,4.88883,-3.81561,3.45595,2.86841,-1.85973,1.66336,-6.75868e-14,-6.44062e-14,75.7096,-13.7047,-35.1383,51.0692,-358.735,-12.6778,-18.7985,7.12502,13.4038,-48.3473,-6.75868e-14,-6.44062e-14,80.6247,14.1624,43.3122,49.3877,-0.404613,-8.1486,-10.3718,7.12502,17.7659,18.8366,3.10359,-7.37809,26.4931,36.198,-15.0014,-13.1238,-2.2658,-19.4289,5.74377,-15.8979,32.3288,-7.19508,-2.82769,16.7364
1.68572,17.6316,11.4413,137.294,-78.2071,-140.524,13.3289,2.72802,5.60322,1.82595,4.48867,4.29657,-5.45185,2.04423,0.592338,-6.90315,-3.32857,-4.4105,5.25469,-4.31723,4.19638,3.13759,-2.08669,1.94442,7.15625e-15,-1.74931e-14,75.7072,-13.4028,-35.6544,51.0702,-358.885,-9.45799,-18.9607,7.12502,16.5055,-48.2786,7.15625e-15,-1.74931e-14,80.8259,14.081,43.088,49.5526,-0.238997,-5.4445,-9.66763,7.12502,20.3663,19.2844,2.58507,-7.33575,26.1946,37.7873,-14.4429,-13.1266,-3.9998,-19.2098,6.21915,-16.0448,32.5936,-7.18806,-3.08627,17.4594
1.60563,17.6276,11.433,138.804,-78.4935,-142.303,13.622,2.68019,5.09279,1.88727,4.36899,4.17347,-5.58061,1.99445,0.753356,-6.73801,-3.35277,-4.47746,5.27166,-4.32789,3.89474,3.10398,-2.10555,1.85642,1.22253e-14,2.46493e-14,75.8471,-12.9438,-35.8384,51.1118,-358.692,-6.12114,-19.0969,7.12502,19.7159,-48.117,1.22253e-14,2.46493e-14,80.6274,14.0397,42.9012,49.852,-0.304727,-2.80618,-9.15157,7.12502,22.9,19.5086,2.20908,-7.26134,25.5715,39.3667,-13.9574,-13.0144,-4.16416,-18.7379,6.57005,-16.5462,32.7131,-7.28125,-3.39084,17.6268
1.52823,17.6229,11.4199,141.223,-78.8075,-145.037,13.9407,2.6831,4.36035,1.98586,4.27768,3.99993,-5.69428,1.9645,0.980801,-6.31025,-2.93901,-4.58443,5.32612,-3.80067,4.12695,3.02671,-1.84333,1.98484,-1.5207e-14,-1.19271e-14,75.6059,-12.633,-35.3008,51.5194,-359.074,-5.28576,-20.1723,7.12502,20.5188,-49.108,-1.5207e-14,-1.19271e-14,80.5318,13.9053,42.8809,50.133,-0.415015,0.00222646,-8.37535,7.12502,25.5925,19.9251,1.85594,-6.9651,24.8423,40.9301,-13.658,-12.809,-2.67349,-18.2048,6.80356,-17.1843,32.8711,-7.48452,-3.61358,17.4659
1.44981,17.6196,11.415,140.798,-79.0927,-144.827,14.1014,2.5015,4.19089,2.0988,4.00782,3.8955,-5.66915,1.83541,1.00964,-6.02163,-2.66323,-4.03007,5.25298,-3.46022,3.69259,2.90165,-1.68017,1.75742,-4.25399e-14,-2.66371e-14,75.5262,-12.2723,-35.2772,51.7337,-358.931,-8.16004,-21.2491,7.12502,17.7548,-50.4585,-4.25399e-14,-2.66371e-14,80.4937,13.8522,42.8274,50.5389,-0.153853,3.43925,-7.32485,7.12502,28.8802,20.4594,1.47516,-7.7362,24.3301,42.3973,-13.0714,-12.1417,-2.3296,-17.769,6.71545,-17.3186,33.0032,-7.61808,-3.83882,17.1393
1.38344,17.597,11.4128,141.345,-78.7784,-145.709,14.5265,2.5406,4.1675,2.28422,4.05899,3.82166,-5.70128,1.85602,0.921276,-6.27438,-2.7606,-3.8963,5.39891,-3.60188,3.75377,3.00354,-1.74332,1.74549,6.36111e-15,-1.07344e-14,75.7834,-12.0368,-36.2485,51.9098,-357.509,-11.6661,-21.0683,7.12502,14.3787,-50.5503,6.36111e-15,-1.07344e-14,80.6678,13.743,42.875,50.8744,0.279486,7.04952,-6.02881,7.12502,32.3228,21.1119,1.13266,-7.09123,24.4722,43.8592,-12.0764,-12.7616,-3.81711,-17.2113,6.77063,-17.1664,33.157,-7.90263,-3.67505,17.293
1.30997,17.5986,11.4169,142.209,-78.9258,-146.565,14.644,2.52299,4.19614,2.34818,4.03158,3.57923,-5.67759,1.84196,0.650669,-6.03654,-2.46836,-3.42734,5.34421,-3.23763,3.44606,2.90324,-1.56535,1.57784,-9.0944e-15,-2.22639e-14,75.7389,-12.0836,-37.2775,52.5993,-355.968,-13.7484,-21.2298,7.12502,12.3717,-50.8438,-9.0944e-15,-2.22639e-14,80.7296,13.6428,42.795,51.4208,0.831552,10.2201,-4.04237,7.12502,35.335,22.4348,0.507656,-7.56491,23.9382,45.2374,-11.1072,-12.4877,-4.43411,-17.0202,6.52289,-17.4303,33.2801,-8.20685,-3.61384,17.6932
1.237,17.5959,11.411,144.2,-79.0935,-148.611,14.8359,2.6106,3.88706,2.34954,4.10447,3.36871,-5.78665,1.88257,0.578319,-5.80889,-2.44714,-3.64334,5.38159,-3.21978,3.73848,2.88576,-1.55397,1.71586,-3.03147e-15,-2.82274e-14,75.6342,-12.1171,-38.6489,53.5679,-354.233,-13.5575,-22.7272,7.12502,12.5557,-52.3299,-3.03147e-15,-2.82274e-14,80.2891,13.6094,42.4781,52.5247,1.594,13.2622,-2.30069,7.12502,38.2134,23.4401,-0.0450429,-7.05347,23.5604,46.5864,-10.3985,-12.6597,-3.68125,-16.7473,6.74177,-17.8706,33.419,-8.46937,-3.88947,17.72
1.16892,17.5883,11.4165,144.812,-79.1403,-149.327,15.0926,2.5828,3.87476,2.29791,4.08159,3.3017,-5.97876,1.86718,0.506156,-5.17522,-2.33253,-3.76734,5.29473,-3.07472,3.72427,2.73373,-1.49172,1.74296,1.01877e-14,2.70347e-14,75.8295,-12.0181,-41.0006,54.6336,-352.597,-11.2779,-21.4762,7.12502,14.7528,-50.9312,1.01877e-14,2.70347e-14,79.5102,13.456,42.1812,53.567,1.90531,14.2881,-2.12912,7.12502,39.1812,23.3388,-0.537215,-7.45085,23.1074,47.8146,-9.26907,-12.0688,-4.49481,-16.3906,6.74029,-18.0392,33.4799,-8.65963,-3.87646,17.837
1.10204,17.5841,11.4199,143.648,-78.835,-148.185,15.1919,2.54682,4.25692,2.46013,4.08518,3.42138,-5.84154,1.85921,0.418491,-5.05511,-2.26164,-3.61418,5.05891,-2.95885,3.26928,2.61175,-1.44521,1.57003,-2.88238e-15,7.55382e-15,76.2799,-12.0788,-43.3771,56.1193,-352.406,-9.32495,-20.6318,7.12502,16.6336,-49.9391,-2.88238e-15,7.55382e-15,79.1747,13.4001,42.4866,54.1157,1.18851,11.8695,-2.9608,7.12502,36.8973,23.1302,-1.05662,-7.4215,23.3814,48.9786,-8.38616,-11.9393,-4.23776,-16.0995,6.81501,-17.6533,33.5382,-8.82611,-3.88039,18.4017
1.0374,17.5781,11.421,142.462,-78.4289,-147.201,15.5341,2.60314,4.68997,2.58486,4.2371,3.53784,-5.8696,1.91829,0.25859,-4.98815,-2.3011,-3.43963,5.15289,-3.00268,2.85219,2.61786,-1.47691,1.40103,-3.83157e-14,1.23246e-14,76.4584,-12.1254,-45.2279,57.4697,-353.858,-8.32835,-19.9106,7.12502,17.5929,-49.1346,-3.83157e-14,1.23246e-14,78.9118,13.1424,43.1037,54.8939,-0.518603,8.41188,-4.24138,7.12502,33.6186,22.6262,-1.34807,-7.18691,23.7658,50.0932,-7.48925,-12.1287,-4.40454,-15.576,7.05011,-17.1762,33.5685,-9.08064,-4.02272,19.0591
0.971342,17.5823,11.4373,142.739,-78.5498,-147.365,15.5578,2.66687,5.12106,2.64674,4.37361,3.27808,-5.75838,1.97832,-0.282004,-5.31228,-2.42611,-3.13215,5.6064,-3.18172,2.67021,2.82557,-1.564,1.27786,-1.65985e-14,-2.14687e-14,76.353,-12.6645,-46.6683,58.7498,-355.754,-7.5966,-19.2011,7.12502,18.297,-48.3606,-1.65985e-14,-2.14687e-14,78.8159,12.6335,43.6623,56.4522,-3.55107,5.04255,-4.63129,7.12502,30.4106,22.8809,-2.06584,-7.38145,23.4895,51.2404,-6.46816,-11.9097,-4.7852,-15.4593,6.8247,-17.3951,33.5795,-9.40461,-3.89962,19.5975
0.909084,17.5888,11.4338,143.45,-79.0609,-148.212,15.7734,2.62501,4.78095,2.73146,4.26774,3.22825,-5.81106,1.93137,-0.133162,-5.00092,-2.43591,-3.33012,5.62554,-3.18065,2.53042,2.77474,-1.57499,1.26953,2.47487e-14,1.90833e-14,76.371,-12.8378,-47.5006,60.0668,-357.115,-7.32139,-19.3838,7.12502,18.5617,-48.5182,2.47487e-14,1.90833e-14,78.3476,12.3992,44.8985,57.9766,-6.74372,2.62614,-4.48924,7.12502,28.1033,23.4252,-2.49621,-7.74675,22.9229,52.4144,-5.79939,-11.7389,-3.55162,-15.0667,6.56113,-17.887,33.5149,-9.69003,-3.93452,19.3993
0.845499,17.5986,11.424,144.245,-79.3263,-148.702,15.5095,2.62854,4.29888,2.74788,4.18197,3.27811,-5.69174,1.90436,0.21752,-4.94943,-2.41595,-3.28055,5.77288,-3.14731,2.30131,2.8068,-1.56593,1.18777,-7.50412e-15,3.18055e-14,76.7174,-12.9412,-48.1666,60.8796,-357.455,-7.52054,-20.1764,7.12502,18.3701,-49.329,-7.50412e-15,3.18055e-14,78.192,12.2915,46.5995,59.0332,-9.26248,1.13794,-3.9987,7.12502,26.6799,24.1409,-3.38823,-7.93633,22.723,53.5684,-5.41843,-11.8251,-1.57048,-15.1153,6.444,-18.1685,33.3684,-9.99201,-3.95683,19.0744
0.782841,17.6125,11.4169,144.812,-79.1211,-149.156,15.509,2.70824,4.181,2.87227,4.25505,3.27631,-5.56575,1.94357,0.27031,-5.33512,-2.34482,-2.97827,6.19171,-3.06104,2.14892,3.00841,-1.52047,1.08535,3.27001e-14,-1.74931e-14,77.3704,-13.2166,-49.1135,61.0996,-356.63,-7.16425,-20.0203,7.12502,18.7128,-49.1402,3.27001e-14,-1.74931e-14,78.4798,12.1557,48.5173,59.8848,-10.2009,1.0249,-4.66683,7.12502,26.5717,23.4892,-4.07979,-7.65887,22.7961,54.6156,-5.52009,-11.8013,1.91653,-14.8769,6.57856,-18.1216,33.1845,-10.4058,-3.87055,18.7613
0.724362,17.6366,11.4127,144.392,-79.0022,-148.475,15.4658,2.60715,4.25684,2.87437,4.13408,3.39431,-5.54589,1.88244,0.378351,-5.35453,-2.12376,-3.35326,6.54155,-2.76238,2.43206,3.13778,-1.37335,1.25844,3.57812e-14,5.84427e-14,77.9931,-13.2676,-49.7578,61.4508,-355.645,-6.27903,-19.5307,7.12502,19.5641,-48.5663,3.57812e-14,5.84427e-14,78.4399,12.2364,50.2127,60.8932,-9.44631,1.76942,-5.27804,7.12502,27.2841,22.768,-4.92259,-7.25554,23.0865,55.5149,-5.998,-11.9369,5.78013,-14.8273,6.67277,-17.9512,33.0172,-10.6186,-3.92901,18.7146
0.670649,17.6505,11.4091,144.485,-79.1845,-148.366,15.5065,2.50975,4.11165,2.95346,3.97693,3.4118,-5.49818,1.80791,0.508528,-5.52931,-1.9615,-4.0307,6.86062,-2.54341,3.13503,3.30461,-1.25714,1.62388,-5.60573e-14,-5.1684e-15,78.6933,-13.5724,-50.2071,62.0342,-355.211,-5.15041,-20.2968,7.12502,20.6489,-49.2185,-5.60573e-14,-5.1684e-15,78.7177,12.397,51.359,61.8637,-8.04194,2.5127,-4.77032,7.12502,27.9948,23.1619,-5.536,-6.95565,23.1312,55.9594,-6.31088,-12.4429,7.30312,-14.5392,6.85738,-18.0539,32.335,-10.3963,-4.27063,19.3936
0.6165,17.6548,11.3986,144.677,-79.4227,-148.532,15.6255,2.51664,3.77555,3.18435,3.91751,3.4689,-5.3453,1.78379,0.768502,-5.94895,-1.95567,-4.4441,7.06037,-2.51507,3.50016,3.47197,-1.23735,1.82326,-4.17448e-15,2.46493e-14,79.5809,-14.0876,-50.69,62.5533,-355.262,-3.75071,-21.595,7.12502,21.9933,-50.3646,-4.17448e-15,2.46493e-14,79.4441,12.5981,52.3142,62.4776,-7.37899,3.0096,-3.68112,7.12502,28.4697,24.1726,-5.83023,-6.72877,23.1701,56.1211,-6.02817,-13.0673,6.49695,-13.9528,6.9804,-18.1958,31.4311,-10.1289,-4.56592,19.7291
0.545416,17.7594,11.3878,143.092,-79.652,-146.897,15.7626,2.46996,3.75208,3.33485,3.84613,3.56384,-5.26837,1.74673,0.89389,-6.27639,-2.0789,-4.26779,7.15112,-2.67426,3.37768,3.56749,-1.3131,1.74139,1.39149e-15,1.19271e-15,80.1788,-14.6033,-51.2543,63.0239,-355.671,-2.17142,-22.1685,7.12502,23.509,-50.752,1.39149e-15,1.19271e-15,80.3401,12.706,53.2644,62.8284,-7.59264,3.97429,-2.63688,7.12502,29.3912,25.0589,-5.69664,-5.38221,24.065,55.742,-5.72736,-14.7221,4.14425,-13.1069,6.70663,-18.0259,30.3708,-10.002,-4.6802,19.704
0.4877,17.8049,11.3945,142.361,-79.6791,-145.976,15.8724,2.44842,3.90466,3.34863,3.846,3.59003,-5.30458,1.74207,0.832331,-6.09747,-2.18343,-4.05147,7.02803,-2.82156,3.16675,3.48555,-1.38939,1.62335,-9.83984e-15,-1.74931e-14,80.6226,-15.0325,-51.7198,63.4479,-356.223,-0.596699,-22.6499,7.12502,25.0187,-51.0315,-9.83984e-15,-1.74931e-14,81.2198,12.8481,54.1955,63.0772,-8.07755,5.87616,-2.18296,7.12502,31.2053,25.1792,-6.01266,-4.62632,24.4858,55.6383,-5.93739,-15.4138,3.8138,-12.7383,6.42579,-17.9599,29.7135,-10.0432,-4.52513,19.2711
0.435067,17.8011,11.3787,142.608,-79.8571,-146.04,15.8867,2.4512,3.56323,3.28411,3.80448,3.59123,-5.40493,1.72734,1.03081,-5.26961,-2.20686,-3.79535,6.59026,-2.87298,2.84817,3.16244,-1.42542,1.47046,-5.09883e-14,-3.22031e-14,80.9334,-15.4875,-51.9857,63.8177,-356.756,0.712707,-23.9921,7.12502,26.2728,-52.193,-5.09883e-14,-3.22031e-14,81.9109,12.9553,54.8371,63.42,-8.44045,8.22135,-1.12419,7.12502,33.4375,25.7827,-6.55559,-4.67465,24.3753,55.8629,-6.5256,-15.1421,4.63509,-12.6877,6.57689,-18.0534,29.5789,-10.2197,-4.82893,18.5831
0.391934,17.7548,11.366,141.477,-80.396,-144.885,16.2248,2.28169,3.40133,3.07013,3.59144,3.51271,-5.82292,1.622,1.06481,-4.16412,-2.18585,-3.73099,6.3799,-2.89801,2.96011,2.88302,-1.44223,1.50001,-2.66371e-14,3.33958e-14,80.9976,-15.8589,-52.2272,64.026,-357.06,1.66245,-25.5463,7.12502,27.1817,-53.6084,-2.66371e-14,3.33958e-14,82.3049,12.8358,55.2454,64.0357,-8.23653,10.9786,1.02787,7.12502,36.0539,27.3311,-7.17913,-5.73795,23.9656,56.5854,-6.84935,-14.0831,6.71109,-13.0593,6.51427,-18.2168,30.427,-10.7848,-5.33828,17.7381
0.357636,17.694,11.3754,140.198,-80.5493,-143.343,16.4039,2.16881,3.70034,2.95952,3.51034,3.48585,-6.01838,1.57343,0.877335,-4.04114,-2.19513,-4.03302,6.79295,-2.95621,3.6039,3.02624,-1.46209,1.76736,1.96797e-14,-1.78906e-14,81.4683,-16.223,-52.5917,64.059,-356.968,2.35004,-26.9438,7.12502,27.8393,-54.9013,1.96797e-14,-1.78906e-14,83.0192,13.0002,55.8404,64.5465,-7.58561,14.1124,2.89804,7.12502,39.0155,28.4136,-8.29763,-6.80521,23.6832,57.4972,-7.2529,-12.8343,6.33924,-13.9279,6.32053,-18.2197,31.6474,-11.5904,-5.43363,17.316
0.312244,17.6435,11.3617,139.127,-80.6675,-142.018,16.3717,2.09051,3.65808,2.93301,3.40196,3.5025,-6.03367,1.5218,0.942114,-3.84242,-2.24025,-4.1501,6.90359,-3.04855,3.95012,3.04261,-1.5031,1.9018,3.05134e-14,5.96354e-15,82.0405,-16.4956,-53.1029,64.0396,-356.486,3.19423,-28.0254,7.12502,28.6461,-55.8495,3.05134e-14,5.96354e-15,83.7702,13.4164,56.1537,64.7211,-7.09007,16.7776,4.15345,7.12502,41.5222,28.9016,-9.21215,-7.47375,23.6159,58.1927,-8.05871,-12.3554,5.53595,-14.6274,6.36066,-18.1185,32.7607,-12.3269,-5.7921,17.5363
0.271031,17.6138,11.3582,139.892,-80.9053,-142.756,16.7383,1.97172,3.50818,2.85108,3.24034,3.37072,-6.32263,1.44123,0.907681,-3.2785,-2.19854,-4.39839,6.88846,-3.01825,4.16528,2.94154,-1.49548,2.02255,3.63776e-14,-3.97569e-15,82.5217,-16.63,-53.7179,63.881,-355.798,4.39669,-28.2009,7.12502,29.7944,-55.8252,3.63776e-14,-3.97569e-15,84.1756,13.9551,55.9468,64.8607,-6.9764,18.5866,5.57898,7.12502,43.2162,29.7481,-9.78942,-7.57768,23.3054,58.5622,-8.50605,-12.2869,2.92193,-14.9128,6.43559,-18.3947,33.5393,-12.8903,-6.02145,17.3873
0.226669,17.6137,11.3546,140.078,-81.0392,-142.972,17.1527,1.96731,3.50857,2.87407,3.24255,3.18635,-6.51201,1.43658,0.698059,-3.33142,-2.23474,-4.00423,7.30116,-3.10862,4.18131,3.08682,-1.53137,1.95465,3.4191e-14,2.62396e-14,82.8378,-17.2424,-54.0774,63.8494,-355.424,5.66171,-28.0675,7.12502,31.0009,-55.4688,3.4191e-14,2.62396e-14,84.9689,14.2321,55.7239,64.8386,-7.38143,19.825,6.95366,7.12502,44.372,30.6964,-10.1477,-7.11918,23.3275,58.5387,-8.81788,-12.3479,1.9728,-14.8898,6.67664,-18.4987,33.883,-13.256,-6.40703,17.2416
0.175406,17.615,11.34,140.592,-80.9077,-143.352,17.2617,2.06446,3.22149,2.8715,3.32883,3.26263,-6.59518,1.48358,0.918395,-3.32261,-2.29195,-3.64575,7.55144,-3.1969,3.89895,3.15777,-1.5759,1.79284,1.60022e-14,1.74931e-14,83.0815,-17.676,-53.8719,64.2288,-355.268,6.69398,-28.4382,7.12502,31.9844,-55.6473,1.60022e-14,1.74931e-14,85.5484,14.6976,55.7233,64.6047,-7.93099,20.8847,7.45421,7.12502,45.3583,30.8112,-10.5887,-6.58032,23.518,58.3222,-9.28948,-12.3511,0.805157,-14.8515,7.12346,-18.3995,33.9849,-13.5144,-6.81244,17.1521
0.119485,17.6119,11.3309,140.283,-81.1756,-142.894,17.1793,1.90079,3.33314,2.94928,3.10982,3.03345,-6.44735,1.37604,0.663238,-3.20872,-2.27058,-3.54861,7.58487,-3.1874,3.98183,3.14692,-1.56766,1.80413,3.1408e-14,2.18663e-14,83.4507,-18.0995,-54.2437,64.5593,-354.538,7.53365,-29.1183,7.12502,32.7835,-56.1639,3.1408e-14,2.18663e-14,86.0064,15.4256,55.0864,64.6705,-8.23673,21.6362,7.91334,7.12502,46.0561,30.9845,-10.9734,-6.53016,23.4561,58,-9.69049,-12.3301,-0.651405,-14.822,6.96301,-18.519,34.0368,-13.748,-6.94238,17.0914
0.0744843,17.6038,11.3315,141.093,-81.0887,-143.537,17.3038,1.92077,3.51451,2.92632,3.16813,2.89063,-6.52038,1.39828,0.391746,-3.0394,-2.21239,-3.57415,7.88971,-3.13806,4.09442,3.22087,-1.54438,1.8507,3.42904e-14,1.90833e-14,83.761,-18.4962,-54.5082,64.6807,-353.721,8.6463,-29.5443,7.12502,33.8413,-56.3632,3.42904e-14,1.90833e-14,86.3002,15.9785,54.4796,64.691,-8.85268,21.9657,8.09025,7.12502,46.3616,31.0327,-11.5607,-6.22349,23.4481,57.6963,-9.72478,-12.0178,-1.01944,-14.9172,6.88727,-18.583,34.1888,-14.0651,-6.79596,17.313
0.0298252,17.598,11.3273,141.201,-80.7608,-143.515,17.5027,1.98976,3.73684,2.87376,3.31539,2.95512,-6.67381,1.4606,0.295521,-2.7272,-2.16624,-3.36999,7.93535,-3.07951,3.82218,3.16208,-1.52312,1.72686,-1.22253e-14,1.59028e-14,83.8943,-18.8014,-54.3448,65.0303,-353.204,10.0527,-29.5328,7.12502,35.1763,-56.0475,-1.22253e-14,1.59028e-14,86.4843,16.4372,54.184,64.3566,-9.82722,21.9689,7.07517,7.12502,46.3646,30.0163,-12.0898,-5.63378,23.7673,57.3705,-9.90671,-11.8048,-0.256045,-14.9611,7.02251,-18.3268,34.4036,-14.3743,-6.85678,17.5109
-0.0181394,17.5952,11.3256,141.297,-80.5205,-143.489,17.6424,1.94849,3.92255,2.89013,3.30172,3.02338,-6.72556,1.44654,0.263057,-2.51689,-2.06962,-3.35334,7.8393,-2.93423,3.58086,3.07671,-1.46065,1.64964,2.22639e-14,2.90226e-14,84.0915,-18.9248,-54.2038,65.7543,-353.011,11.5707,-29.321,7.12502,36.6146,-55.4841,2.22639e-14,2.90226e-14,86.4693,17.1376,53.8098,64.15,-10.8924,21.6768,6.58262,7.12502,46.0938,29.638,-12.5827,-5.1233,23.9924,57.0214,-10.1111,-11.7715,-0.701986,-14.9947,7.07397,-18.1419,34.6497,-14.6722,-6.87116,17.5317
-0.0662198,17.5861,11.3229,143.206,-80.4655,-145.297,17.7533,2.0093,3.60258,2.89984,3.3287,3.04406,-6.79513,1.46559,0.455493,-2.57463,-2.01339,-3.70376,8.37557,-2.8767,3.76776,3.28246,-1.43959,1.7794,3.51849e-14,-4.77083e-15,84.0507,-19.0661,-53.876,66.8325,-353.888,12.9823,-29.4092,7.12502,37.9492,-55.2222,3.51849e-14,-4.77083e-15,86.2944,17.7939,53.3629,64.3725,-11.6924,21.3588,7.18414,7.12502,45.7987,30.362,-13.0929,-4.64422,23.7675,56.6509,-10.465,-11.591,-1.33901,-15.0313,7.10112,-18.3777,34.8867,-15.0189,-6.64644,17.1308
-0.113084,17.5806,11.3129,146.45,-80.1425,-148.275,17.6952,2.30782,3.06711,2.81588,3.6354,3.12951,-6.89057,1.62866,0.778036,-2.4413,-2.06423,-4.07528,8.82322,-2.96295,3.9041,3.42852,-1.49532,1.89207,1.59028e-15,2.38542e-15,83.737,-19.3834,-53.2201,67.947,-355.906,14.1157,-29.5224,7.12502,39.0186,-55.0371,1.59028e-15,2.38542e-15,86.3166,18.2253,53.5546,64.5055,-11.7471,21.6326,6.18177,7.12502,46.0528,29.2543,-13.8279,-3.77079,23.578,56.2375,-10.9938,-11.27,-0.370976,-15.2322,7.55803,-18.6172,35.1222,-15.4089,-6.60947,16.4077
-0.155649,17.5784,11.3147,147.038,-80.0722,-148.751,17.9113,2.33603,3.23016,2.76558,3.71039,3.03073,-7.04445,1.65712,0.55447,-2.17032,-2.14649,-3.96736,8.74179,-3.07675,3.77404,3.3475,-1.55589,1.82503,6.55989e-15,-4.77083e-15,83.5407,-19.9391,-52.9969,68.8597,-358.003,15.0035,-29.093,7.12502,39.8549,-54.3627,6.55989e-15,-4.77083e-15,86.5182,18.4732,53.7266,64.7668,-11.5482,22.0124,5.84979,7.12502,46.4049,28.7738,-14.3508,-3.47614,23.5448,55.7502,-11.2967,-11.1218,-0.681579,-15.3426,7.62376,-18.645,35.4295,-15.7052,-6.83473,16.6255
-0.204327,17.5736,11.3034,146.229,-79.9056,-147.927,18.0896,2.40142,3.58103,2.80432,3.85808,2.91609,-7.06569,1.71621,0.19416,-1.94738,-2.27042,-3.62695,8.53976,-3.25545,3.70657,3.23263,-1.63734,1.73465,1.99779e-14,-3.97569e-16,83.1388,-20.6389,-52.9559,69.9897,-359.856,14.966,-29.3378,7.12502,39.8197,-54.618,1.99779e-14,-3.97569e-16,86.8319,18.5302,53.8804,65.4474,-10.8157,22.6476,5.631,7.12502,46.993,28.3003,-14.6573,-3.15091,23.8131,55.2151,-11.7511,-11.18,-2.01712,-15.3088,7.67603,-18.3372,35.797,-15.9397,-6.88591,16.6269
-0.259982,17.5636,11.2965,144.179,-79.6186,-145.67,17.9493,2.4051,4.03234,2.8223,3.94503,3.05605,-6.94752,1.74877,0.0768775,-1.8618,-2.25396,-3.66654,8.6493,-3.24919,3.8077,3.25766,-1.63437,1.77676,-1.16289e-14,-3.4191e-14,82.9576,-20.8859,-52.9884,71.1279,-361.347,14.2593,-30.2865,7.12502,39.154,-55.7623,-1.16289e-14,-3.4191e-14,86.88,18.7672,54.1168,66.3067,-9.90074,23.5835,5.33124,7.12502,47.8576,27.6102,-15.1062,-2.85246,24.3325,54.6541,-12.4688,-10.8531,-1.25428,-15.4956,7.64882,-17.7995,36.2278,-16.2604,-6.54539,14.7644
-0.305043,17.5481,11.2891,144.422,-79.5127,-145.811,18.0771,2.40809,3.83465,2.8152,3.92775,3.21895,-7.05095,1.74273,0.360866,-1.91019,-2.13222,-3.97428,8.93788,-3.0947,3.94713,3.37136,-1.56502,1.88601,-1.98785e-16,-1.59028e-14,83.2047,-20.797,-53.2215,72.1074,-362.195,13.8688,-30.9589,7.12502,38.7858,-56.5399,-1.98785e-16,-1.59028e-14,86.619,19.2854,54.3882,67.2448,-8.8918,24.7002,4.96584,7.12502,48.8857,26.7546,-15.6202,-2.58661,24.3567,54.1715,-12.9282,-10.3072,0.0732341,-15.6404,7.63104,-17.7527,36.6679,-16.6938,-6.22574,13.3409
-0.343971,17.5265,11.2861,145.487,-79.6074,-146.898,18.4376,2.48121,3.74994,2.7961,4.02155,3.11493,-7.26396,1.78385,0.259808,-1.7098,-2.204,-3.97877,8.75994,-3.19981,4.04448,3.27948,-1.61548,1.91579,-2.0276e-14,7.55382e-15,83.0521,-21.2675,-53.2336,73.1165,-362.464,13.6416,-31.6894,7.12502,38.5715,-57.3308,-2.0276e-14,7.55382e-15,86.594,19.3897,54.7536,68.4504,-7.30716,26.0589,4.40899,7.12502,50.1316,25.5624,-16.1456,-2.45937,24.1208,53.8183,-12.97,-10.2595,-2.61887,-15.6697,7.53489,-17.9805,37.0847,-17.1203,-6.24326,13.8097
-0.385911,17.5033,11.2735,146.062,-79.5358,-147.453,18.6225,2.60281,3.81638,2.78969,4.19229,2.92464,-7.34816,1.86093,-0.030563,-1.55085,-2.42167,-3.60867,8.59476,-3.50856,4.04397,3.19676,-1.75797,1.83783,-4.87022e-14,-1.23246e-14,82.6936,-21.9236,-53.2751,73.9664,-362.496,13.3371,-32.3092,7.12502,38.2842,-58.0305,-4.87022e-14,-1.23246e-14,86.8517,19.2247,55.0596,69.5797,-5.30476,27.4303,4.79558,7.12502,51.3826,25.2609,-16.6778,-2.2173,24.1037,53.5255,-13.2083,-10.4228,-5.17453,-15.6567,7.70141,-17.9622,37.4179,-17.4188,-6.56613,14.53
-0.422801,17.4784,11.2644,146.409,-79.6173,-147.819,18.9191,2.61348,3.76693,2.75251,4.20563,2.78594,-7.5417,1.86253,-0.169195,-1.55128,-2.58833,-3.39952,8.67562,-3.75253,4.10688,3.23155,-1.87097,1.81272,-3.13086e-14,5.96354e-15,82.6491,-22.1487,-53.4682,74.4355,-362.562,12.9334,-32.6372,7.12502,37.903,-58.4628,-3.13086e-14,5.96354e-15,86.8982,19.3236,55.2859,70.6924,-3.22317,28.3641,5.50353,7.12502,52.2304,25.4713,-17.244,-2.24349,23.9433,53.315,-13.8237,-9.96996,-3.61916,-15.6521,7.57661,-18.0533,37.7755,-17.7276,-6.33188,13.2141
-0.460424,17.4714,11.2552,145.612,-79.6328,-147.086,19.3372,2.5889,3.91189,2.73797,4.22475,2.82554,-7.77608,1.85894,-0.231652,-1.35277,-2.53692,-3.62335,8.49883,-3.68793,4.29701,3.14272,-1.84219,1.92003,-2.3556e-14,-5.1684e-15,82.9818,-22.3227,-53.4576,74.6071,-362.796,12.5872,-32.8596,7.12502,37.5758,-58.773,-2.3556e-14,-5.1684e-15,86.8714,19.4436,55.8679,71.647,-1.75783,28.8176,4.99336,7.12502,52.6408,24.7105,-17.6802,-1.57484,24.1646,53.0507,-14.2505,-10.2204,-2.90564,-15.5892,7.39405,-17.918,38.1836,-18.0796,-6.21755,13.2577
-0.499394,17.4549,11.2419,143.845,-79.4757,-145.365,19.6945,2.55721,4.19311,2.76876,4.26335,2.98515,-7.92675,1.8619,-0.241951,-1.28731,-2.4508,-3.84206,8.39285,-3.56963,4.41831,3.09839,-1.7869,2.00447,6.06293e-15,2.42517e-14,83.4775,-22.5854,-53.4732,74.836,-363.046,12.4699,-32.8933,7.12502,37.465,-58.8361,6.06293e-15,2.42517e-14,87.0346,19.512,56.5954,72.2485,-0.970705,28.2939,4.6752,7.12502,52.1667,24.6813,-18.1761,-1.22982,24.5968,52.8552,-14.6928,-10.1644,-3.78544,-15.6214,7.54039,-17.4719,38.7139,-18.3935,-6.63096,14.5968
-0.539082,17.43,11.2275,142.642,-79.4914,-144.212,20.0582,2.51614,4.19322,2.75785,4.23577,3.09248,-8.14508,1.84098,-0.134842,-1.41571,-2.47378,-3.66571,8.45347,-3.58931,4.22276,3.1334,-1.79534,1.9056,-2.06736e-14,-8.74653e-15,84.0345,-22.622,-53.8378,74.9452,-362.995,12.6384,-32.9962,7.12502,37.6243,-58.8966,-2.06736e-14,-8.74653e-15,87.1391,19.7065,57.0417,72.8354,-0.446694,26.8757,4.98944,7.12502,50.8774,25.739,-18.7142,-1.11551,24.7867,52.7387,-16.0192,-9.05416,3.8974,-15.7314,7.87017,-17.2249,39.3404,-18.8189,-6.69454,12.0553
-0.575792,17.3958,11.2153,142.979,-79.727,-144.624,20.4751,2.5065,3.88769,2.70755,4.18768,3.12856,-8.45281,1.81923,0.0700614,-1.2803,-2.47232,-3.5062,8.32557,-3.55702,3.79805,3.04574,-1.78838,1.73681,1.71949e-14,1.43125e-14,84.7563,-22.5839,-54.1749,74.7624,-362.969,13.0212,-33.032,7.12502,37.9859,-58.8351,1.71949e-14,1.43125e-14,87.1497,19.9218,57.4584,73.3004,-0.361029,25.5639,4.60349,7.12502,49.6783,25.9935,-19.3228,-1.06995,24.5889,52.7666,-15.4779,-9.6459,-0.76915,-15.8995,8.12726,-17.3784,40.0978,-19.3465,-6.83861,10.6119
-0.609984,17.3569,11.2038,143.255,-79.8499,-145.053,20.9915,2.51788,3.78889,2.67433,4.20736,3.10475,-8.77378,1.82128,0.0726354,-1.05495,-2.47181,-3.61601,8.19972,-3.54827,3.71928,2.96105,-1.79199,1.73204,-3.07122e-14,-2.66371e-14,85.4232,-22.7177,-54.4138,74.6168,-363.123,13.1844,-32.8231,7.12502,38.14,-58.5841,-3.07122e-14,-2.66371e-14,87.386,19.9674,57.9219,73.5307,-0.540234,24.4981,4.1579,7.12502,48.7,26.0374,-19.9145,-0.947845,24.4301,52.8937,-15.1509,-9.91897,-4.06411,-16.0575,8.34363,-17.4396,40.9889,-19.9126,-7.36103,11.3337
-0.647098,17.32,11.1921,142.245,-79.7728,-144.204,21.4732,2.47442,3.99495,2.69258,4.212,3.0531,-8.99391,1.80569,-0.120124,-1.12246,-2.46995,-3.67308,8.09912,-3.55696,3.98232,2.94908,-1.7886,1.82867,-5.36719e-15,-1.27222e-14,86.0295,-22.9018,-55.0053,74.6756,-362.922,13.8646,-32.3139,7.12502,38.7818,-57.8961,-5.36719e-15,-1.27222e-14,87.8588,20.0953,58.1457,73.749,-0.574826,23.5552,4.52934,7.12502,47.8314,26.8204,-20.4764,-0.805881,24.5705,53.0612,-15.8353,-9.25293,-2.07518,-16.2867,8.68498,-17.1479,42.085,-20.5921,-7.66038,9.63206
-0.681842,17.2734,11.1815,139.607,-79.4419,-141.78,21.9969,2.38587,4.43291,2.77771,4.22216,3.20978,-9.16119,1.78415,-0.21714,-1.52932,-2.45773,-3.93862,8.18125,-3.54996,4.39555,3.07269,-1.77493,2.0125,-2.73329e-14,-3.29983e-14,86.8068,-23.0302,-55.6104,74.5543,-362.751,14.266,-32.2276,7.12502,39.1603,-57.7016,-2.73329e-14,-3.29983e-14,88.3919,20.4424,58.3807,73.8719,-0.53048,22.8934,5.354,7.12502,47.2203,27.9225,-20.9263,-0.800473,25.143,53.2725,-16.2906,-8.75034,-1.76714,-16.5405,9.15365,-16.3953,43.3796,-21.2352,-8.63522,12.859
-0.711092,17.2141,11.1671,135.837,-78.8822,-138.272,22.6917,2.28382,5.06467,2.84318,4.29725,3.62545,-9.44621,1.7817,-0.163014,-2.04603,-2.47654,-4.27662,8.56081,-3.5568,4.42313,3.31179,-1.78176,2.08153,5.56597e-15,2.10712e-14,87.8597,-23.031,-55.7967,73.9348,-363.279,12.8349,-33.2545,7.12502,37.81,-59.1052,5.56597e-15,2.10712e-14,89.0997,20.7797,59.0465,73.4831,-0.738249,22.7758,5.44571,7.12502,47.1116,28.0626,-21.3191,-0.816633,26.1092,53.5678,-16.5065,-8.45101,-2.27715,-16.8231,9.64679,-15.2543,44.8019,-21.9604,-8.59339,10.3349
