JuanDHNZ/ProyectoFinalCD/preprocessing/sports_trials_csv/05_07.csv
root1,root2,root3,root4,root5,root6,lowerback1,lowerback2,lowerback3,upperback1,upperback2,upperback3,thorax1,thorax2,thorax3,lowerneck1,lowerneck2,lowerneck3,upperneck1,upperneck2,upperneck3,head1,head2,head3,rclavicle1,rclavicle2,rhumerus1,rhumerus2,rhumerus3,rradius1,rwrist1,rhand1,rhand2,rfingers1,rthumb1,rthumb2,lclavicle1,lclavicle2,lhumerus1,lhumerus2,lhumerus3,lradius1,lwrist1,lhand1,lhand2,lfingers1,lthumb1,lthumb2,rfemur1,rfemur2,rfemur3,rtibia1,rfoot1,rfoot2,rtoes1,lfemur1,lfemur2,lfemur3,ltibia1,lfoot1,lfoot2,ltoes1
4.69394,16.0366,-32.9835,21.7092,-3.70136,-0.333079,-17.1216,0.138949,1.38297,-6.95425,-0.0820612,0.803271,2.17479,-0.0594573,0.0463414,-11.4123,-3.7629,-1.69163,40.4718,-6.88867,3.27671,16.7433,-2.7141,0.575196,9.14953e-15,3.57812e-15,-42.1335,-1.1791,-79.9301,23.3233,-9.33955,-3.5911,14.4038,7.12502,22.1466,-14.3477,9.14953e-15,3.57812e-15,-45.9053,11.6921,75.7276,35.0408,-1.87769,1.8824,17.5691,7.12502,27.3921,45.5981,-45.9807,1.51039,29.4188,43.7113,-50.688,-32.1943,40.4715,-26.7497,12.2694,-26.1937,54.0504,-14.2337,12.9282,-34.3153
4.7111,16.0416,-33.0005,21.6107,-3.32705,-0.117756,-17.7002,-0.00670771,1.16114,-6.62667,-0.251078,0.792654,2.82477,-0.136061,0.128005,-10.8767,-3.75845,-1.76473,40.0224,-6.86985,3.40286,16.374,-2.71832,0.658813,4.81121e-15,1.19271e-15,-41.7942,-1.10574,-79.9387,23.1397,-9.4245,-3.54194,15.0234,7.12502,22.1938,-13.7225,4.81121e-15,1.19271e-15,-45.572,11.7983,75.8003,35.1112,-2.07687,1.8847,17.5082,7.12502,27.3943,45.5369,-46.0207,1.58981,29.0418,43.8501,-51.8636,-32.3994,40.544,-26.6733,11.3404,-26.1028,52.9768,-15.7056,13.1746,-33.2018
4.71985,16.0487,-33.0282,21.7966,-2.63918,0.240884,-16.6458,-0.360802,0.595345,-6.97923,-0.610048,0.917938,1.90478,-0.308177,0.517519,-12.0507,-3.78512,-1.81222,40.578,-6.91695,3.33548,16.9755,-2.7189,0.603273,4.48974e-15,-1.07344e-14,-41.8895,-0.70543,-79.8454,23.1846,-9.77704,-3.32364,14.7979,7.12502,22.4033,-13.9229,4.48974e-15,-1.07344e-14,-45.576,11.7308,76.0325,35.2462,-2.05802,1.83954,17.2174,7.12502,27.3511,45.2529,-46.3564,2.16797,28.3529,43.8664,-53.6682,-32.6629,41.3183,-27.0596,10.0247,-26.0518,51.8793,-17.0277,13.8408,-34.5729
4.75143,16.0538,-33.0248,21.3038,-3.50998,0.0700641,-17.0203,0.107524,0.875647,-6.69197,-0.0382141,0.690159,2.40145,-0.0291765,0.222529,-10.7149,-3.83848,-1.90341,39.9811,-7.07413,3.71578,16.3472,-2.78434,0.790531,8.47823e-15,-3.57812e-15,-42.2197,-1.12888,-79.7522,23.387,-9.64096,-3.07066,14.61,7.12502,22.6461,-14.0814,8.47823e-15,-3.57812e-15,-45.6179,11.1308,76.0784,35.4464,-1.87232,1.54967,17.0398,7.12502,27.0738,45.1188,-45.8299,2.15571,28.3695,43.8803,-52.8557,-32.5661,40.9246,-26.3848,10.0841,-25.9905,50.6928,-18.9102,14.7996,-35.7004
4.74733,16.0602,-33.0597,21.1015,-1.79116,0.688972,-16.7741,-0.559381,0.160116,-6.54497,-0.796357,0.672839,2.43537,-0.395451,0.469213,-10.8613,-3.89718,-1.67711,39.9071,-7.20182,3.67444,16.3367,-2.80579,0.706999,8.69683e-17,1.09332e-14,-42.127,-1.44516,-79.6305,23.4201,-9.44307,-3.07458,14.9295,7.12502,22.6424,-13.7624,8.69683e-17,1.09332e-14,-45.2449,10.9001,76.1849,35.5046,-1.79496,1.43064,17.2102,7.12502,26.96,45.3068,-45.7189,3.53417,27.172,43.9194,-56.8262,-32.5902,42.8758,-26.4051,8.14093,-25.6462,49.6789,-20.3892,14.8887,-34.8267
4.75166,16.0683,-33.0787,20.5959,-0.478595,1.17473,-15.9546,-1.14684,-0.492299,-6.32436,-1.47291,0.807379,2.2608,-0.721922,0.866233,-11.7464,-3.88731,-1.59199,40.1461,-7.17254,3.52477,16.6727,-2.77588,0.610285,5.14355e-15,1.15295e-14,-41.8188,-1.18215,-79.5,23.3376,-9.62685,-2.98743,14.9244,7.12502,22.726,-13.7573,5.14355e-15,1.15295e-14,-44.908,10.9954,76.4163,35.6145,-1.75917,1.3909,17.2717,7.12502,26.9219,45.3742,-45.0936,4.77843,26.1344,43.8126,-60.2123,-32.1101,44.7137,-26.0313,6.42251,-25.3215,48.7379,-22.2212,15.0551,-34.2449
4.76789,16.0775,-33.1241,21.0503,-0.798699,1.04843,-15.7162,-0.913834,-0.503968,-6.73909,-1.16111,0.725433,1.68955,-0.564815,0.848919,-11.3773,-3.98958,-1.56138,40.1431,-7.39677,3.67315,16.5971,-2.851,0.641267,5.75854e-15,-8.15017e-15,-42.3226,-1.52576,-79.356,23.3239,-9.6081,-2.77124,14.9009,7.12502,22.9335,-13.7552,5.75854e-15,-8.15017e-15,-45.184,10.5099,76.3479,35.6828,-1.80079,1.43298,16.5346,7.12502,26.9622,44.6308,-45.7457,5.32763,25.923,43.7621,-60.2898,-31.9441,45.2569,-26.9119,5.87742,-25.2051,47.8628,-23.7049,15.9134,-34.4821
4.82594,16.0827,-33.1693,22.9896,-3.2363,-0.040576,-17.5093,0.192759,0.574956,-6.91291,0.120758,0.655575,2.42275,0.0540936,0.387402,-11.9579,-4.00924,-1.3995,39.9751,-7.49885,3.76596,16.6548,-2.84565,0.620305,2.71155e-15,1.33186e-14,-41.7578,-1.70359,-79.4457,23.3322,-9.4952,-2.76787,14.7548,7.12502,22.9367,-13.9008,2.71155e-15,1.33186e-14,-44.4283,10.6648,76.3076,35.6753,-1.94462,1.35676,16.2358,7.12502,26.8893,44.3433,-48.1228,4.52839,27.1151,43.5505,-55.2894,-32.435,43.6121,-29.455,6.57856,-25.2708,47.02,-25.3749,17.3649,-33.3654
4.80907,16.0959,-33.1882,21.4276,-1.32645,1.05477,-15.0457,-0.712307,-0.834115,-7.09692,-0.851893,0.66849,0.955286,-0.401075,1.03666,-11.9684,-4.07144,-1.44445,40.4991,-7.64962,3.80264,16.9592,-2.89758,0.62055,1.31772e-14,-6.36111e-15,-42.6844,-1.52736,-79.357,23.3702,-9.57453,-2.99062,14.5418,7.12502,22.723,-14.1402,1.31772e-14,-6.36111e-15,-45.1378,10.2833,76.3096,35.8526,-1.6658,1.09115,16.2381,7.12502,26.6351,44.3845,-46.354,5.61508,25.51,43.4541,-59.8696,-32.0875,45.4377,-27.9024,4.65877,-25.1227,45.9694,-26.2294,17.7671,-34.4022
4.8363,16.1059,-33.1716,20.4818,-1.0523,1.23038,-14.9384,-0.823148,-0.942274,-6.63004,-0.982229,0.622939,1.39458,-0.468437,1.02728,-11.5537,-4.05999,-1.5791,40.2702,-7.66269,4.0361,16.7509,-2.90642,0.755734,-4.36705e-15,3.97569e-16,-42.6724,-1.52683,-79.258,23.1503,-9.61729,-2.84182,15.3498,7.12502,22.8658,-13.3146,-4.36705e-15,3.97569e-16,-45.1012,10.2508,76.2916,35.9278,-1.53111,1.05121,15.7127,7.12502,26.5969,43.8648,-45.1422,5.74483,25.1962,43.2666,-60.6844,-32.2215,45.192,-26.873,3.69016,-24.9261,44.9946,-27.7793,18.5258,-34.5906
4.85018,16.1111,-33.2147,20.9128,-0.655329,1.33097,-15.1761,-0.984846,-1.09819,-6.57213,-1.17057,0.6023,1.58846,-0.56102,1.05998,-11.9096,-4.06659,-1.4922,40.1469,-7.74079,4.163,16.782,-2.9022,0.773046,9.49507e-15,-2.18663e-15,-42.2867,-2.04491,-79.0386,22.9294,-9.10419,-2.70545,15.7165,7.12502,22.9966,-12.9316,9.49507e-15,-2.18663e-15,-44.5635,10.3017,76.2481,35.8684,-1.63463,0.928028,15.6121,7.12502,26.479,43.7821,-45.9291,5.69921,25.0127,43.3585,-60.7802,-33.2679,44.5329,-27.6544,2.61849,-24.716,43.9735,-28.6424,19.1855,-34.9259
4.86685,16.1243,-33.2622,21.3597,-0.489206,1.4149,-14.7799,-0.951459,-1.24667,-7.25598,-1.10964,0.491506,0.656451,-0.520242,1.04956,-10.9422,-4.16386,-1.5304,40.1899,-7.95928,4.36527,16.5899,-2.99324,0.857206,-3.15401e-15,-3.18055e-15,-43.4521,-2.22835,-78.9402,23.1972,-9.11394,-2.68158,14.7977,7.12502,23.0195,-13.8477,-3.15401e-15,-3.18055e-15,-45.2877,9.52237,76.2442,36.0456,-1.52711,0.688249,16.0003,7.12502,26.2494,44.2047,-46.6135,5.3219,24.9168,43.3311,-60.3955,-33.345,44.559,-28.5815,1.75362,-24.5731,43.2241,-29.3961,19.8771,-35.5509
4.86704,16.1634,-33.2879,21.2096,0.524542,1.89912,-14.5094,-1.44554,-1.93947,-7.11921,-1.67586,0.546122,0.691153,-0.786964,1.41508,-11.2425,-4.1136,-1.48247,40.2023,-7.8989,4.36783,16.6668,-2.95251,0.852703,2.83812e-15,2.5842e-15,-43.2426,-2.17456,-78.855,23.0761,-9.06558,-2.60277,14.9156,7.12502,23.0951,-13.7202,2.83812e-15,2.5842e-15,-45.2308,9.54971,76.2626,36.4024,-1.5454,0.621049,15.9387,7.12502,26.1851,44.1526,-46.1613,6.27933,23.7904,43.4775,-64.4837,-29.2284,48.2019,-28.7805,0.415347,-24.41,42.5892,-30.0514,20.0107,-36.6701
4.91319,16.161,-33.3466,22.4006,-1.49774,1.41818,-15.519,-0.825415,-1.65777,-7.20991,-0.881543,0.570259,1.09451,-0.399801,1.39059,-11.6503,-3.99455,-1.5227,40.0806,-7.7171,4.42029,16.699,-2.86991,0.903136,-2.04686e-15,3.97569e-15,-42.7351,-1.84963,-78.9105,22.9798,-8.93744,-2.62051,14.9782,7.12502,23.0781,-13.6598,-2.04686e-15,3.97569e-15,-44.7938,10.1034,76.1,36.4653,-1.75449,0.848204,15.3849,7.12502,26.4026,43.5664,-48.0864,5.22452,24.4663,43.4747,-59.9417,-31.0042,46.289,-30.6075,0.789059,-24.5363,42.1561,-31.2936,20.4308,-36.1471
4.95033,16.1679,-33.4007,23.2763,-1.6323,1.05573,-15.9008,-0.616382,-1.21366,-6.98365,-0.660849,0.518856,1.52272,-0.303651,1.11782,-13.6426,-4.09284,-1.01313,40.2946,-7.99876,4.24686,17.3046,-2.87519,0.636167,3.44146e-15,1.59028e-15,-41.7616,-2.30795,-78.9615,22.9418,-8.97259,-2.73901,14.8327,7.12502,22.9644,-13.8195,3.44146e-15,1.59028e-15,-43.3405,10.2209,76.1652,36.1973,-1.89901,0.752728,15.1393,7.12502,26.3112,43.3344,-49.3262,3.9569,25.2314,43.4835,-57.6753,-31.2084,45.6396,-32.1278,0.236092,-24.0967,41.785,-31.5345,20.4951,-36.8157
4.97706,16.1763,-33.4333,23.3632,-1.6579,1.24024,-15.5193,-0.495204,-1.36264,-7.48579,-0.480483,0.271255,0.784791,-0.206383,0.976728,-12.6236,-4.17648,-0.842081,40.2386,-8.21957,4.39268,17.0239,-2.94623,0.657994,9.5075e-15,7.55382e-15,-42.8068,-2.99205,-78.6745,22.8111,-8.77691,-3.00382,14.8257,7.12502,22.7103,-13.8579,9.5075e-15,7.55382e-15,-44.1144,9.39428,76.047,36.5451,-1.7092,0.666695,15.2565,7.12502,26.2288,43.464,-49.4548,3.61043,24.9365,43.4024,-57.6895,-30.0537,46.4373,-32.6655,-0.360458,-24.1176,41.5457,-31.9515,19.9386,-36.3617
4.99677,16.1723,-33.4629,23.1889,-1.68774,1.18733,-15.7422,-0.711855,-1.62289,-7.015,-0.732337,0.5748,1.41235,-0.329818,1.39705,-12.9078,-4.02952,-1.17615,39.9783,-7.917,4.51392,16.9627,-2.85673,0.816001,8.38623e-16,2.38542e-15,-41.9766,-2.88551,-78.2811,22.4916,-8.53728,-2.80937,14.9413,7.12502,22.8969,-13.7193,8.38623e-16,2.38542e-15,-43.6521,10.2,76.1483,36.7473,-1.45646,0.646094,15.478,7.12502,26.2091,43.6883,-49.5116,3.21299,25.1968,43.442,-56.6086,-31.4085,45.1049,-32.7587,-0.632967,-23.92,41.0626,-31.8029,19.287,-36.1583
5.02023,16.177,-33.4947,23.0786,-1.76275,1.12972,-15.3279,-0.700005,-1.73198,-7.23953,-0.711222,0.622259,0.957364,-0.310755,1.51598,-12.2467,-4.03517,-1.3045,39.9035,-7.93428,4.66533,16.7719,-2.88158,0.918752,5.25537e-15,-4.37326e-15,-42.6827,-2.72266,-78.1593,22.7502,-8.74207,-2.65803,14.6371,7.12502,23.0421,-14.0054,5.25537e-15,-4.37326e-15,-43.9673,10.3193,75.9229,36.5872,-1.66266,0.76726,15.3775,7.12502,26.3251,43.5706,-49.5445,3.0067,25.218,43.4988,-56.3789,-31.0562,45.2476,-32.8623,-0.858236,-23.7856,40.6216,-31.2734,19.2653,-35.6314
5.01938,16.1948,-33.4578,20.2147,1.07844,2.5991,-12.7642,-1.90282,-2.93967,-6.16095,-2.19724,0.421,0.814756,-1.03945,1.80074,-13.4163,-4.01208,-1.09662,40.1045,-8.01791,4.69767,17.18,-2.84603,0.85458,1.4971e-15,-1.59028e-15,-42.158,-3.18022,-78.1019,22.4997,-8.39709,-2.73013,14.6809,7.12502,22.9729,-13.9702,1.4971e-15,-1.59028e-15,-43.4534,10.4899,75.7114,36.5623,-1.83476,0.652256,14.8726,7.12502,26.215,43.0821,-45.9576,2.96115,23.5428,43.6881,-61.2047,-30.1015,46.9127,-29.4022,-2.55622,-24.3446,40.0085,-30.5801,18.2184,-34.7104
5.05841,16.1989,-33.508,20.5943,-0.0471304,2.14788,-13.4731,-1.50704,-2.62925,-6.079,-1.6876,0.412317,1.24601,-0.796853,1.66974,-12.6987,-3.99763,-1.10447,39.5704,-7.99595,4.86851,16.7128,-2.84775,0.947047,-4.21175e-15,-3.77691e-15,-41.9505,-3.64919,-77.8742,22.2461,-8.01719,-2.92961,14.7358,7.12502,22.7815,-13.939,-4.21175e-15,-3.77691e-15,-43.3055,10.5014,75.5948,36.716,-1.94698,0.731774,14.5103,7.12502,26.2911,42.7085,-46.7636,2.44701,24.0896,43.752,-59.0211,-30.4696,46.0939,-29.9547,-2.20002,-24.3255,39.7269,-30.3001,19.1118,-32.7803
5.08569,16.196,-33.5439,20.3449,-0.0436795,2.21388,-12.8755,-1.57621,-2.83075,-6.40412,-1.77928,0.447196,0.595202,-0.827173,1.82449,-11.6165,-3.94246,-1.19662,39.4505,-7.88725,4.94067,16.38,-2.83899,1.0385,-1.55176e-14,-3.37934e-15,-42.8027,-3.5547,-77.7149,22.4743,-8.20792,-2.99831,14.2416,7.12502,22.7156,-14.4413,-1.55176e-14,-3.37934e-15,-44.0228,10.3677,75.4315,36.8228,-1.81023,0.613264,14.6907,7.12502,26.1776,42.9057,-46.7069,2.21178,23.9871,43.8735,-58.7429,-30.4098,46.0889,-29.699,-2.03841,-24.5645,39.4582,-29.4722,19.64,-33.1948
5.11647,16.1962,-33.5844,20.1725,-0.200649,2.08773,-12.1841,-1.58241,-2.89764,-6.03763,-1.80157,0.601131,0.615233,-0.839579,2.02952,-13.4388,-3.88429,-1.00703,39.7711,-7.82991,4.72732,16.9872,-2.76097,0.881504,-2.98798e-15,8.94531e-15,-41.9075,-3.99372,-77.2584,22.1101,-7.65536,-2.78323,14.914,7.12502,22.922,-13.7434,-2.98798e-15,8.94531e-15,-43.1408,10.8498,75.5662,36.7612,-1.67449,0.522442,14.6519,7.12502,26.0907,42.8798,-46.6783,1.90897,24.0995,43.8415,-57.9929,-30.2604,46.1215,-29.6983,-2.07733,-24.6613,39.6224,-28.913,20.5287,-34.3119
5.15471,16.1968,-33.6216,20.1282,-0.775434,1.6656,-12.0233,-1.26288,-2.42295,-6.31127,-1.43518,0.50004,0.210028,-0.659627,1.71014,-12.4198,-3.86714,-0.926678,39.6721,-7.88739,4.93522,16.6887,-2.77342,0.972235,1.37658e-14,-2.78299e-15,-42.7846,-4.21421,-77.176,22.3483,-7.63723,-2.82542,14.5979,7.12502,22.8815,-14.0645,1.37658e-14,-2.78299e-15,-43.8255,10.4735,75.2011,37.0212,-1.68695,0.697223,14.8976,7.12502,26.258,43.1006,-46.8308,1.49915,24.6019,43.8616,-56.4158,-30.3254,45.9,-29.7937,-1.98078,-24.5557,39.7897,-29.2752,20.9147,-33.4822
5.17261,16.1977,-33.7086,20.74,-0.43329,1.7071,-12.1698,-1.57506,-2.63472,-5.98897,-1.82222,0.666281,0.654982,-0.855736,1.9462,-13.8457,-3.75059,-0.827931,39.5852,-7.74579,4.90672,16.9894,-2.67079,0.933511,-1.08524e-14,-1.39149e-15,-41.5148,-4.50242,-77.0592,22.1654,-7.34707,-3.04191,14.484,7.12502,22.6737,-14.204,-1.08524e-14,-1.39149e-15,-42.6796,11.2701,75.1443,36.9517,-1.91316,0.83227,15.4444,7.12502,26.3873,43.6281,-47.8829,1.39091,24.5041,43.9019,-56.2766,-30.5221,46.1907,-30.9398,-2.41061,-24.551,39.8791,-29.3144,20.9045,-32.3865
5.17919,16.1977,-33.7898,21.288,1.00091,2.12683,-12.1878,-2.21536,-3.17405,-6.20717,-2.61595,0.804852,0.504715,-1.23578,2.29481,-13.3183,-3.71464,-0.855152,39.2865,-7.6704,4.97681,16.6937,-2.65621,0.990447,-1.00883e-14,4.37326e-15,-41.4844,-4.57925,-76.8968,22.0888,-7.3959,-3.3296,14.2144,7.12502,22.3976,-14.5072,-1.00883e-14,4.37326e-15,-42.6794,11.3559,75.0485,37.0156,-1.89815,0.958813,15.7925,7.12502,26.5084,43.9581,-48.7321,1.20464,24.0142,43.9286,-57.6158,-30.8245,46.6022,-32.039,-3.33014,-24.5885,39.9215,-28.8337,20.8164,-31.899
5.2121,16.1949,-33.8042,20.2879,0.973521,2.19085,-10.9329,-2.26077,-3.28538,-5.93441,-2.70714,0.776278,0.121288,-1.27751,2.35402,-13.7572,-3.70276,-0.741119,39.3713,-7.67552,4.89184,16.8401,-2.64115,0.922574,-2.637e-14,-5.56597e-15,-41.4078,-4.72639,-76.7056,21.9778,-7.27467,-3.05871,14.4621,7.12502,22.6576,-14.2279,-2.637e-14,-5.56597e-15,-42.633,11.3079,74.9824,37.1186,-1.58644,0.778712,16.0039,7.12502,26.336,44.1954,-47.6554,1.00903,23.8914,43.9354,-57.5737,-30.7926,46.5949,-30.8591,-3.45118,-24.8413,39.723,-29.2294,21.0685,-30.5163
5.25229,16.1901,-33.8605,20.5521,-0.501553,1.67737,-10.9392,-1.7467,-2.9638,-6.06437,-2.05766,0.715683,-0.0649838,-0.956057,2.18631,-13.4403,-3.68416,-0.674909,39.1997,-7.69964,5.02141,16.6742,-2.63729,0.96826,-1.62072e-14,-4.37326e-15,-41.5987,-5.36281,-76.3171,21.9425,-6.87324,-2.70417,14.8121,7.12502,22.9979,-13.8359,-1.62072e-14,-4.37326e-15,-42.6766,11.2364,74.7245,37.1094,-1.67874,0.761143,15.8943,7.12502,26.3192,44.0883,-48.3451,0.329266,24.6942,43.8474,-54.3587,-31.118,45.6318,-31.2344,-2.8688,-24.8923,39.5005,-29.5255,21.9767,-29.0467
5.28452,16.1905,-33.8933,19.9021,-0.337423,1.60056,-10.5441,-1.89427,-3.21236,-5.21337,-2.23712,0.963783,0.636474,-1.05943,2.55861,-14.992,-3.64535,-0.503929,39.1397,-7.62794,4.7936,17.0072,-2.57497,0.815224,-7.40473e-15,-1.11319e-14,-40.3004,-5.68126,-76.0468,21.9789,-6.8816,-2.72748,14.4992,7.12502,22.9755,-14.1516,-7.40473e-15,-1.11319e-14,-41.4021,11.9754,74.9311,36.9012,-1.94334,0.999231,15.7134,7.12502,26.5471,43.8731,-47.6719,0.203131,24.697,43.7536,-54.2588,-31.1003,45.5667,-30.3608,-3.14645,-24.9328,39.0621,-29.3426,22.7743,-29.3831
5.32052,16.1848,-33.9397,19.8409,-0.95876,1.27545,-9.97767,-1.81523,-3.07852,-5.48804,-2.16904,1.13166,0.0391758,-1.01315,2.68604,-14.6683,-3.49708,-0.653065,39.3078,-7.35022,4.75654,17.0073,-2.49527,0.885377,4.70871e-15,-1.78906e-15,-40.741,-4.96558,-76.1756,22.3485,-7.64218,-3.21487,13.6881,7.12502,22.5077,-15.0202,4.70871e-15,-1.78906e-15,-42.07,12.1859,74.6396,37.0716,-1.83452,1.115,15.8106,7.12502,26.6579,43.9535,-47.752,0.608714,24.7945,43.5961,-53.6756,-31.3502,45.2447,-30.2482,-2.93907,-24.9178,38.7229,-29.9268,23.1297,-28.3387
5.34184,16.1847,-33.9682,19.3005,-0.900597,1.32516,-10.0364,-2.07456,-3.27569,-4.9675,-2.4907,1.18791,0.644983,-1.18747,2.80879,-14.5091,-3.27216,-0.659971,38.9783,-6.99607,4.82536,16.774,-2.35617,0.980557,-5.69021e-15,9.93923e-16,-40.1314,-5.11322,-76.1765,22.2176,-7.58414,-3.26907,13.3693,7.12502,22.4557,-15.3452,-5.69021e-15,9.93923e-16,-41.8666,12.5258,74.3815,37.2789,-1.47979,1.17608,15.935,7.12502,26.7164,44.069,-47.1479,1.15263,24.4127,43.4806,-54.4279,-31.1495,45.9483,-29.4981,-2.85708,-25.0996,38.3467,-30.2627,23.2323,-28.092
5.37364,16.1871,-34.0206,19.3599,-1.45585,1.04478,-9.14364,-1.80104,-3.19626,-5.21645,-2.16584,1.13344,-0.130148,-1.01036,2.77277,-14.9815,-3.36681,-0.293616,39.1986,-7.25194,4.70716,17.0037,-2.40625,0.809174,8.75895e-15,-2.18663e-15,-40.4955,-5.77875,-75.9146,22.3855,-7.43573,-3.52266,13.0149,7.12502,22.2123,-15.7288,8.75895e-15,-2.18663e-15,-41.9899,12.0406,74.2526,37.3474,-1.30025,1.18658,15.6189,7.12502,26.7264,43.7514,-47.3369,1.59683,24.4402,43.3362,-53.9669,-30.8367,46.5235,-29.5816,-2.88605,-25.0108,38.0474,-30.7492,23.6469,-27.3295
5.41836,16.1798,-34.0952,20.1446,-2.78416,0.377964,-9.38754,-1.44558,-2.82319,-5.23986,-1.71855,1.31028,-0.0570708,-0.79284,2.78279,-15.7622,-3.24672,-0.150876,39.2146,-7.04811,4.49023,17.1823,-2.31405,0.709318,-7.09413e-15,-3.97569e-15,-39.9381,-5.94201,-75.7705,22.5052,-7.32102,-3.8766,12.368,7.12502,21.8725,-16.4158,-7.09413e-15,-3.97569e-15,-41.6233,12.3464,74.2902,37.6307,-1.09857,1.24365,16.393,7.12502,26.781,44.5171,-48.4815,2.01882,24.9084,43.2338,-52.1456,-30.5544,47.4481,-30.5388,-2.97272,-24.6694,37.7603,-31.8984,24.2165,-24.3401
5.45468,16.1778,-34.1457,20.0716,-3.53219,0.162093,-8.7605,-1.27003,-2.97773,-5.61552,-1.49501,1.41824,-0.80144,-0.658817,3.01983,-14.8623,-3.18155,-0.179769,39.1569,-6.89927,4.45245,16.9119,-2.28749,0.741558,3.93842e-15,-1.78906e-15,-40.6865,-5.96768,-75.3755,22.7229,-7.28925,-4.03449,11.9525,7.12502,21.7208,-16.8489,3.93842e-15,-1.78906e-15,-42.4238,12.327,74.021,37.6963,-1.22727,1.49492,16.1981,7.12502,27.0215,44.2852,-48.4342,2.75257,24.6878,43.1101,-51.5706,-29.8183,46.7609,-30.4418,-3.22079,-24.6663,37.544,-32.8091,24.98,-23.5295
5.48406,16.1831,-34.1811,19.8253,-3.38074,0.312129,-8.31642,-1.59831,-3.25789,-5.86544,-1.9294,1.57029,-1.26164,-0.855813,3.31485,-13.6922,-2.99838,-0.464417,38.9405,-6.52503,4.54368,16.4992,-2.19945,0.918192,6.59717e-15,3.77691e-15,-41.1834,-5.53276,-75.1848,22.8198,-7.1886,-4.06265,12.3176,7.12502,21.6938,-16.487,6.59717e-15,3.77691e-15,-43.3732,12.6358,73.5583,37.6453,-1.17261,1.53497,15.9819,7.12502,27.0598,44.063,-48.1305,3.66216,23.9514,43.0182,-52.5194,-29.3055,47.4573,-30.1174,-3.78356,-24.7933,37.3215,-32.9876,25.1878,-22.6149
5.5236,16.1843,-34.2268,20.0798,-4.29496,-0.128348,-7.83199,-1.18062,-2.98476,-5.66971,-1.40301,1.46598,-1.37376,-0.601342,3.09822,-15.7163,-3.08461,0.126324,39.4099,-6.85497,4.31567,17.2478,-2.21943,0.619904,5.59082e-15,-5.36719e-15,-40.4375,-6.67755,-74.9463,22.6237,-6.81499,-4.01769,12.8396,7.12502,21.737,-15.9599,5.59082e-15,-5.36719e-15,-42.4182,12.2958,73.5635,37.3571,-0.874318,1.7138,16.4332,7.12502,27.2308,44.4876,-48.5119,4.22878,24.0482,42.8462,-51.1169,-29.4809,47.2169,-30.3849,-3.8036,-24.5982,37.169,-33.7199,25.6987,-21.074
5.56438,16.1894,-34.268,19.8681,-4.58528,-0.300643,-8.62025,-1.23687,-2.86422,-4.83446,-1.45924,1.46011,-0.070024,-0.66609,2.99459,-15.8695,-2.86187,0.368257,38.8337,-6.58083,4.40825,16.9556,-2.07098,0.660715,-6.83322e-15,1.39149e-15,-39.2046,-7.78537,-74.6408,22.065,-5.84537,-4.13949,13.3886,7.12502,21.62,-15.4245,-6.83322e-15,1.39149e-15,-41.3668,12.6679,73.4413,37.1994,-0.686422,1.63008,15.9685,7.12502,27.1508,44.0354,-48.3192,4.9749,23.6714,42.7164,-50.6653,-29.9357,46.6012,-30.1928,-4.2398,-24.5124,37.0392,-34.0672,26.2949,-20.4057
5.59911,16.1988,-34.3278,20.2447,-5.43996,-0.553886,-8.17694,-1.18232,-2.93134,-5.11666,-1.39765,1.59604,-0.607083,-0.619874,3.18995,-16.0607,-2.70078,0.310152,38.9811,-6.30987,4.33493,17.0723,-1.97475,0.687149,2.75814e-15,2.03754e-14,-39.2552,-8.05564,-74.1509,21.6178,-5.01986,-4.27131,14.7068,7.12502,21.4934,-14.1207,2.75814e-15,2.03754e-14,-41.813,13.0835,73.096,37.3306,-0.760101,1.46635,16.0244,7.12502,26.9941,44.1157,-48.8667,5.72824,23.389,42.5937,-49.2621,-30.7523,45.3528,-30.7465,-4.43019,-24.3962,36.9703,-34.6944,26.7402,-19.0835
5.63269,16.1992,-34.3782,20.4095,-6.06031,-0.60762,-7.73259,-1.16903,-3.11506,-5.27735,-1.38265,1.64422,-1.01576,-0.598156,3.3546,-16.1716,-2.61619,0.223792,39.0125,-6.17089,4.35686,17.1171,-1.92756,0.736684,2.06736e-14,1.09332e-14,-39.293,-8.12168,-74.0477,21.7983,-4.46527,-4.75256,13.7906,7.12502,21.0311,-15.089,2.06736e-14,1.09332e-14,-41.9883,13.4232,72.7461,37.1888,-0.930599,1.42852,16.2063,7.12502,26.9579,44.3032,-49.1899,6.37878,22.9159,42.6183,-48.1865,-30.8391,44.6338,-31.0116,-4.70057,-24.4357,36.8055,-35.2615,27.0007,-17.6351
5.6625,16.2052,-34.4057,20.2111,-5.8465,-0.340103,-7.49952,-1.39649,-3.51502,-4.9565,-1.66644,1.66058,-0.77863,-0.740508,3.57702,-16.8433,-2.57918,0.355261,38.9358,-6.16532,4.33234,17.2414,-1.89705,0.691932,9.15652e-15,-1.3418e-14,-38.6704,-8.83733,-73.8128,21.5258,-3.74526,-5.87723,13.1216,7.12502,19.9504,-15.8743,9.15652e-15,-1.3418e-14,-41.3943,13.6512,72.6576,36.9112,-0.847025,1.629,16.8626,7.12502,27.1497,44.9297,-48.994,7.30198,21.8999,42.6503,-47.9905,-31.0208,44.4559,-30.848,-4.98782,-24.6816,36.6282,-34.9647,27.0886,-17.7468
5.70115,16.2237,-34.445,20.5933,-7.23112,-0.629278,-7.42035,-1.01582,-3.52816,-5.34531,-1.16604,1.60459,-1.27186,-0.473784,3.56738,-16.2488,-2.55371,0.295007,38.9253,-6.12075,4.40031,17.0874,-1.89404,0.749782,1.50082e-14,3.97569e-16,-39.2009,-9.223,-73.4654,21.3503,-3.57687,-6.41138,13.3363,7.12502,19.4369,-15.7122,1.50082e-14,3.97569e-16,-42.1276,13.4415,72.246,37.0149,-0.703615,1.8062,17.3116,7.12502,27.3192,45.3522,-49.3137,8.53394,21.1733,42.6948,-46.9575,-28.4069,46.2893,-31.2199,-4.88935,-24.6981,36.4744,-35.8153,27.5592,-16.0716
5.73632,16.2304,-34.4986,21.245,-8.27611,-0.78915,-8.04365,-0.84886,-3.57378,-5.36915,-0.922057,1.52629,-0.975387,-0.357699,3.52111,-16.4478,-2.46877,0.326758,39.0492,-6.03347,4.42374,17.2042,-1.84584,0.769626,4.47887e-15,-2.127e-14,-38.9455,-9.69218,-73.357,21.553,-3.00872,-5.84626,12.9066,7.12502,19.9801,-16.0862,4.47887e-15,-2.127e-14,-42.039,13.687,71.7559,36.6988,-0.703276,1.71992,17.2266,7.12502,27.2367,45.2801,-50.3685,8.89887,20.7696,42.6399,-42.0941,-30.828,42.1159,-31.9712,-5.81185,-24.5532,36.3625,-37.1593,28.237,-13.6155
5.76776,16.2306,-34.5461,21.7946,-9.03945,-0.932076,-7.26184,-0.62993,-3.85843,-5.93372,-0.648313,1.61361,-2.0187,-0.178806,3.80236,-18.0281,-2.60998,0.739098,40.4418,-6.23626,3.57703,18.3595,-1.91771,0.25659,2.39784e-14,2.25124e-14,-39.4321,-10.5815,-72.4519,21.008,-2.36604,-6.19035,14.618,7.12502,19.6494,-14.4089,2.39784e-14,2.25124e-14,-42.3888,13.5825,71.6106,36.3756,-0.639985,1.63329,17.5683,7.12502,27.1538,45.6348,-51.0125,10.107,19.7818,42.5784,-40.4448,-30.3261,40.3938,-32.7265,-5.50451,-24.6063,36.352,-37.5161,28.1242,-12.1914
5.79367,16.2352,-34.5802,21.9522,-9.39546,-0.956807,-7.86318,-0.72533,-3.88915,-5.7256,-0.750568,1.61754,-1.45955,-0.246026,3.81112,-17.1041,-2.39105,0.441415,39.5793,-5.8406,3.97077,17.6334,-1.79189,0.577291,1.0461e-14,-1.08835e-14,-39.0891,-10.9741,-72.3975,20.9163,-1.69333,-6.49474,14.0796,7.12502,19.3567,-14.977,1.0461e-14,-1.08835e-14,-42.1705,14.0306,71.2271,36.1745,-0.556706,1.76616,18.4973,7.12502,27.2809,46.5439,-51.1881,11.407,18.6795,42.4785,-38.2716,-31.4849,36.1225,-33.0124,-5.89431,-24.5857,36.3876,-38.0978,28.2798,-10.895
5.82314,16.2482,-34.6082,22.2153,-9.913,-1.3076,-7.95724,-0.627239,-3.63714,-5.92503,-0.634591,1.68749,-1.62716,-0.187414,3.74997,-17.211,-2.29395,0.574712,40.1284,-5.61255,3.54015,17.9394,-1.72911,0.403759,-2.19906e-15,-2.12203e-14,-39.4989,-10.8929,-72.3184,21.0151,-1.65147,-6.91829,13.9834,7.12502,18.9494,-15.1136,-2.19906e-15,-2.12203e-14,-42.5326,13.9679,70.949,35.8179,-0.791975,1.28638,18.3147,7.12502,26.8219,46.4326,-51.2689,12.4815,18.0526,42.3974,-35.4438,-33.0414,29.2609,-33.3893,-6.09566,-24.2784,36.5024,-39.1134,28.1147,-8.33181
5.86218,16.2519,-34.6422,22.8182,-10.9914,-1.64851,-8.27919,-0.247087,-3.39581,-6.1863,-0.137032,1.54265,-1.7674,0.0590403,3.49591,-16.8939,-2.43351,0.527416,40.0845,-5.83384,3.61026,17.8422,-1.82437,0.404509,1.23076e-14,-5.34234e-15,-39.9105,-11.8142,-71.9525,20.9313,-1.22428,-7.27161,13.9827,7.12502,18.6096,-15.1471,1.23076e-14,-5.34234e-15,-42.6275,13.7317,70.5239,34.5385,-1.90142,0.00507115,16.0502,7.12502,25.5952,44.3502,-51.8189,12.8899,17.5797,42.2703,-29.7929,-31.1516,30.5079,-34.1542,-6.40426,-24.077,36.6607,-40.7186,28.2215,-5.25373
5.90097,16.2496,-34.6839,23.7258,-12.3152,-2.23459,-9.05125,0.0880021,-3.06471,-6.21467,0.306981,1.59769,-1.40794,0.265506,3.40059,-17.2617,-2.3481,0.484192,40.0484,-5.64279,3.49274,17.9071,-1.76606,0.389273,-2.0422e-14,-3.35449e-15,-39.5034,-12.6261,-71.5978,20.6594,-0.644256,-7.32,14.1496,7.12502,18.563,-14.9847,-2.0422e-14,-3.35449e-15,-42.3927,14.016,70.3622,34.1989,-2.09843,-0.598732,16.7544,7.12502,25.0168,45.1363,-52.6589,12.6959,17.6755,42.107,-25.6219,-29.5483,24.5977,-35.2687,-6.36505,-23.7148,36.9009,-42.2612,28.4032,-2.9274
5.93852,16.2433,-34.7186,24.1844,-12.7398,-2.54774,-9.42091,0.180344,-2.6724,-6.12443,0.409792,1.59124,-1.11396,0.298598,3.18349,-17.7013,-2.30052,0.53907,40.074,-5.56178,3.39181,18.0289,-1.73142,0.342163,2.58964e-14,7.06307e-15,-39.0283,-13.6904,-71.2618,20.2341,-0.0156497,-7.31426,14.2874,7.12502,18.5686,-14.8464,2.58964e-14,7.06307e-15,-42.0703,14.0963,70.1903,33.9633,-1.99474,-0.785566,17.1358,7.12502,24.8377,45.5426,-52.817,12.3681,17.671,41.7231,-22.7833,-28.4195,16.8281,-36.118,-7.07952,-23.2946,37.49,-43.7451,28.3106,-0.355811
5.97227,16.2357,-34.7393,23.9602,-12.7702,-2.622,-8.90698,0.165804,-2.3941,-6.03567,0.361045,1.55195,-1.29466,0.26732,2.97759,-18.287,-2.28587,0.596933,40.3182,-5.54167,3.25426,18.3194,-1.7183,0.264432,-4.18846e-15,-4.16205e-15,-38.9058,-15.0204,-70.5825,19.5693,1.2068,-7.31324,15.1222,7.12502,18.5695,-14.0115,-4.18846e-15,-4.16205e-15,-41.9984,14.4826,69.5949,33.3559,-2.29063,-0.640447,16.0761,7.12502,24.9768,44.4636,-52.1399,12.0349,17.6229,41.403,-19.3844,-28.354,6.09504,-36.1832,-7.10013,-23.3343,38.058,-43.9754,28.082,-0.0423274
6.01195,16.217,-34.812,26.8244,-15.9293,-4.60661,-11.2408,1.30141,-1.40789,-6.70248,1.80821,1.72722,-0.796001,0.966139,2.76788,-17.3669,-2.26083,0.319939,39.9369,-5.36661,3.31094,17.8563,-1.71186,0.385341,4.51893e-14,-1.7344e-14,-39.1315,-15.4449,-70.2225,19.2984,1.59765,-7.29557,15.4457,7.12502,18.5865,-13.6864,4.51893e-14,-1.7344e-14,-42.3046,14.7312,69.15,33.0353,-2.32048,-0.643215,16.3359,7.12502,24.9741,44.7237,-54.7486,11.4307,19.5016,41.0914,-15.6126,-24.6916,-1.92764,-39.3232,-5.80073,-21.988,38.6738,-45.9033,28.962,1.40889
6.04294,16.2163,-34.8196,26.6167,-16.4401,-4.97192,-11.1906,1.50408,-0.980094,-6.53963,2.03692,1.68394,-0.647522,1.06503,2.5061,-17.1692,-2.27372,0.249545,39.7882,-5.35009,3.32509,17.7208,-1.72191,0.40893,-2.37486e-14,1.47598e-14,-39.1925,-15.809,-70.1971,19.1385,1.62235,-7.4698,15.4301,7.12502,18.4189,-13.7179,-2.37486e-14,1.47598e-14,-42.2557,14.9334,68.6969,32.7931,-1.87524,-0.42096,16.5684,7.12502,25.1871,44.9265,-53.8934,11.3302,19.6829,41.1776,-15.8973,-24.4819,-5.59979,-39.0466,-6.30708,-21.6276,38.9062,-46.9935,29.2492,1.94606
6.07135,16.2243,-34.8217,25.5075,-15.3889,-4.36647,-10.4567,1.05693,-0.920186,-6.335,1.43974,1.5862,-0.79592,0.762122,2.29529,-16.8517,-2.19797,0.195093,39.772,-5.20246,3.318,17.6248,-1.67965,0.448288,-3.6682e-14,-4.42296e-15,-39.4168,-15.4289,-70.5212,19.1876,1.04003,-7.87895,15.0492,7.12502,18.0253,-14.1355,-3.6682e-14,-4.42296e-15,-42.4499,14.9025,68.3628,32.3862,-2.15695,-0.925677,15.9179,7.12502,24.7034,44.3431,-52.1818,11.229,18.7955,41.4635,-18.3126,-26.3399,-2.39089,-38.0821,-6.67499,-22.1133,39.0186,-46.1228,29.005,0.453538
6.09857,16.2249,-34.8244,24.7876,-14.6658,-3.94235,-9.81324,0.727829,-0.906964,-6.01423,1.00218,1.52796,-0.788982,0.539668,2.17796,-17.9146,-2.14573,0.291953,40.0664,-5.11299,3.10724,18.0594,-1.63373,0.339226,-1.55487e-14,-2.93704e-14,-39.0378,-15.1973,-70.9131,19.1757,0.613036,-7.97997,14.7809,7.12502,17.9281,-14.4127,-1.55487e-14,-2.93704e-14,-42.1206,14.9864,68.2697,32.2329,-1.79918,-1.05088,16.0581,7.12502,24.5834,44.4996,-50.862,11.0052,18.1765,41.9908,-21.0779,-27.8038,2.39178,-37.3795,-5.75186,-22.8147,38.8529,-44.369,28.5671,-2.8228
6.12992,16.2187,-34.848,25.02,-14.67,-4.06841,-10.065,0.726325,-0.630115,-5.89609,0.976304,1.53839,-0.522266,0.516842,2.03577,-18.5277,-2.14443,0.249409,40.1119,-5.04325,2.95782,18.2415,-1.62182,0.283213,-1.93815e-15,2.31584e-14,-38.6826,-15.9576,-70.5933,18.6579,1.37547,-7.64888,15.5101,7.12502,18.2467,-13.6541,-1.93815e-15,2.31584e-14,-41.7484,15.5129,67.9541,31.8052,-1.82487,-0.807568,16.0318,7.12502,24.8166,44.4414,-50.5478,10.6934,18.0577,42.5164,-23.1795,-28.7314,5.24386,-37.6697,-6.55187,-22.4908,38.806,-45.3777,28.4175,-1.75499
6.16995,16.2096,-34.8338,24.6368,-15.3818,-4.57645,-9.95441,0.981965,0.185748,-5.86946,1.24792,1.5147,-0.54644,0.632053,1.57566,-17.9356,-2.07247,0.00387019,40.1318,-4.83247,2.96631,18.0959,-1.58769,0.381141,-5.76972e-14,2.6339e-15,-39.1004,-15.8555,-70.4696,18.3475,1.67662,-7.47575,15.6761,7.12502,18.4132,-13.4724,-5.76972e-14,2.6339e-15,-42.2473,15.9309,67.2801,31.3727,-1.95009,-0.804974,15.8892,7.12502,24.8191,44.2985,-49.2543,10.46,18.4378,42.9296,-27.5975,-28.241,13.4618,-37.0525,-7.52571,-22.0257,38.9547,-47.587,28.4071,0.51499
6.19472,16.2052,-34.876,25.0682,-15.2533,-4.64491,-9.24506,0.900353,-0.0020756,-6.74721,1.16942,1.79577,-1.859,0.609494,1.94436,-16.9513,-2.25121,-0.777405,40.2994,-4.87533,3.09052,17.9615,-1.72564,0.583164,-3.06408e-15,-1.6524e-15,-40.1633,-14.3458,-70.4984,18.5811,0.863513,-7.57857,14.9906,7.12502,18.3143,-14.1672,-3.06408e-15,-1.6524e-15,-43.4128,15.9227,67.0273,31.0864,-1.89432,-0.932102,15.9086,7.12502,24.6973,44.3346,-49.025,9.95192,18.3864,43.3119,-30.63,-28.6157,18.4824,-37.8851,-7.45789,-21.9055,39.2336,-47.1807,28.5663,-0.0314412
6.21855,16.2016,-34.9037,25.2714,-15.3625,-4.83752,-10.0415,0.909215,0.398945,-6.19483,1.13305,1.70649,-0.835389,0.572305,1.64256,-18.0213,-2.09546,-0.418744,40.2218,-4.67673,2.88288,18.1749,-1.60222,0.448299,2.11333e-14,-1.68967e-14,-39.0782,-15.115,-70.7726,18.1198,1.93654,-7.52012,14.6253,7.12502,18.3705,-14.5273,2.11333e-14,-1.68967e-14,-42.4849,16.5648,66.7886,30.8185,-1.90265,-0.789185,16.3507,7.12502,24.8343,44.7579,-48.4129,9.50155,18.5132,43.6644,-32.3651,-29.5921,19.6819,-38.3454,-6.70636,-21.9668,39.5441,-46.5399,28.5229,-0.572592
6.24463,16.1955,-34.9208,25.2283,-15.6522,-4.9063,-9.92002,0.998311,0.569847,-6.87777,1.24574,1.66753,-1.61406,0.623746,1.50806,-15.9912,-2.07385,-0.642354,40.1929,-4.55417,2.89155,17.6204,-1.6245,0.540203,1.50207e-14,-1.91827e-14,-40.5535,-15.1733,-70.0194,17.6203,2.98954,-7.36038,15.1015,7.12502,18.5242,-14.0365,1.50207e-14,-1.91827e-14,-43.9709,15.8902,66.3936,30.8301,-1.54048,-1.27309,16.1628,7.12502,24.3704,44.6331,-47.56,8.9804,18.5657,44.0378,-34.3494,-30.6179,20.7242,-38.488,-7.32246,-21.8581,39.8131,-47.2726,28.9038,0.830349
6.26306,16.1873,-34.947,25.2636,-15.711,-4.96521,-10.2688,0.960804,0.687053,-6.41781,1.1747,1.62563,-0.937952,0.582949,1.40316,-16.9479,-2.0501,-0.702807,40.0583,-4.52679,2.98595,17.8011,-1.59477,0.587577,-1.15668e-14,-1.2275e-14,-39.5968,-15.8255,-70.11,17.0106,4.07329,-7.17358,15.5733,7.12502,18.7039,-13.5475,-1.15668e-14,-1.2275e-14,-43.126,16.3299,66.3962,30.6039,-1.27682,-1.68729,16.1642,7.12502,23.9733,44.6874,-46.7476,8.42789,18.695,44.3945,-36.9852,-31.6117,22.3299,-38.7805,-7.66548,-21.7055,40.0506,-48.1395,30.1107,-1.52458
6.28253,16.1803,-34.9608,25.2106,-15.9266,-5.0383,-10.3635,1.01571,0.809691,-6.7504,1.23807,1.59036,-1.23223,0.60956,1.30253,-15.6857,-1.98428,-0.937814,39.9914,-4.38972,3.11742,17.4381,-1.58075,0.729392,-4.26207e-14,2.5842e-14,-40.4854,-14.8,-70.3975,17.2435,3.76125,-6.84893,15.264,7.12502,19.0161,-13.8264,-4.26207e-14,2.5842e-14,-43.981,16.0885,65.9874,30.5311,-0.854149,-1.86149,16.4369,7.12502,23.8062,44.9819,-45.7211,7.7568,18.8712,44.7234,-39.6587,-32.227,24.7742,-38.8649,-8.28744,-21.5398,40.2245,-48.4726,29.0092,4.27244
6.30633,16.1713,-34.97,25.1666,-16.115,-5.11893,-9.97514,1.22569,0.656356,-6.16732,1.53417,1.50548,-0.840622,0.763222,1.32502,-18.9119,-2.20411,-0.286034,40.6082,-4.83778,2.65521,18.6366,-1.65789,0.274345,-2.2649e-14,-1.61016e-14,-39.2474,-15.1786,-70.9189,17.1729,3.77198,-6.62204,14.9094,7.12502,19.2343,-14.1594,-2.2649e-14,-1.61016e-14,-42.2658,16.5147,66.351,30.1145,-0.823855,-1.76875,16.7299,7.12502,23.8952,45.2633,-44.6867,6.66185,19.1982,45.0661,-41.7112,-32.5688,27.5826,-38.9557,-8.94109,-21.3919,40.3939,-49.5537,28.9293,6.51448
6.33434,16.1631,-34.9509,24.6823,-16.5489,-5.47298,-10.4476,1.3409,1.37585,-6.12873,1.61296,1.49768,-0.5255,0.782602,0.932826,-16.9393,-2.12182,-0.715872,40.1303,-4.5846,2.8576,17.8367,-1.63883,0.519336,-2.01021e-14,-3.65764e-14,-39.853,-14.5612,-70.9099,16.8297,4.37937,-6.68446,14.8548,7.12502,19.1743,-14.22,-2.01021e-14,-3.65764e-14,-43.2868,16.493,65.973,30.2493,-0.422789,-1.94549,17.0214,7.12502,23.7257,45.5769,-42.9415,5.55217,19.8029,45.3809,-43.3212,-32.5618,30.092,-38.3238,-9.64577,-21.1555,40.5567,-51.2703,28.7548,9.27342
6.34954,16.1676,-34.9886,24.9847,-16.0958,-5.39858,-10.49,1.22405,1.27636,-6.37403,1.46884,1.50337,-0.760161,0.711693,0.978573,-17.0309,-2.22459,-0.716258,40.197,-4.7507,2.85797,17.9052,-1.70312,0.485894,-4.22417e-14,-1.18277e-14,-40.0369,-14.8927,-70.6772,16.5252,5.29214,-6.70435,14.7261,7.12502,19.1551,-14.3506,-4.22417e-14,-1.18277e-14,-43.3464,16.3574,65.9634,29.9827,-0.233253,-2.25398,16.5263,7.12502,23.4298,45.1198,-42.3459,4.17975,20.1954,45.7268,-43.9807,-34.0939,30.7351,-39.0312,-9.29144,-21.2067,40.7317,-50.7527,28.0284,11.3298
6.36125,16.172,-35.0294,25.4559,-15.6082,-5.23223,-10.0972,1.01509,0.751909,-7.05706,1.25195,1.74107,-1.70385,0.621737,1.48457,-17.1469,-2.32089,-1.01331,40.6105,-4.78578,2.77407,18.1852,-1.76903,0.493865,-4.93856e-15,1.69961e-14,-40.7384,-13.933,-70.624,16.7082,5.14245,-6.60872,14.2299,7.12502,19.2471,-14.8377,-4.93856e-15,1.69961e-14,-44.0369,16.3065,65.9485,29.6695,-0.213874,-2.46977,15.9598,7.12502,23.2228,44.5796,-41.9594,2.85443,20.5321,46.0149,-46.2304,-34.4874,33.8657,-40.0425,-8.68236,-21.3978,41.0511,-49.7088,27.5058,12.0679
6.37876,16.172,-35.0418,25.6057,-15.2964,-5.41251,-10.7882,0.910478,1.20789,-6.72271,1.05389,1.6797,-0.964717,0.5065,1.16222,-17.573,-2.21991,-0.864545,40.4082,-4.70363,2.85424,18.1769,-1.69694,0.514372,-1.88845e-15,-1.65985e-14,-40.0924,-14.33,-70.8916,16.2882,5.98365,-6.34606,14.2044,7.12502,19.4997,-14.8378,-1.88845e-15,-1.65985e-14,-43.5105,16.882,65.6057,29.2434,-0.470134,-2.65877,15.6624,7.12502,23.0414,44.305,-41.0106,1.41423,21.2341,46.3264,-49.5626,-32.7814,39.2581,-40.3622,-8.50683,-21.2487,41.2138,-49.0097,27.7263,11.5387
6.40377,16.159,-35.0427,26.612,-17.4983,-6.7797,-11.8495,1.72593,1.98357,-7.15492,2.03024,1.85171,-0.839896,0.972217,1.02684,-15.7307,-2.09255,-1.35644,40.0296,-4.39686,3.07225,17.4813,-1.65642,0.781327,2.88921e-14,2.0276e-14,-40.8716,-14.0494,-70.4481,15.9227,6.87619,-6.38528,14.5221,7.12502,19.4619,-14.5238,2.88921e-14,2.0276e-14,-44.8127,17.1014,65.1042,29.4334,-0.719336,-2.50735,15.7143,7.12502,23.1867,44.3387,-40.9653,1.51624,22.1261,46.609,-49.816,-32.1605,42.023,-41.0864,-8.19249,-20.3086,41.4706,-51.209,27.9313,14.6397
6.41038,16.1586,-35.0321,25.0417,-15.6519,-5.78247,-11.017,1.0675,1.54888,-6.31464,1.2184,1.71189,-0.41013,0.582607,1.02821,-17.6922,-2.24662,-0.962901,40.2503,-4.69506,2.85646,18.1187,-1.70832,0.532053,6.00081e-15,-2.97183e-14,-39.9325,-15.1668,-70.3237,15.5306,7.81276,-6.53323,14.5391,7.12502,19.3197,-14.5212,6.00081e-15,-2.97183e-14,-43.6321,17.4874,65.4776,29.2932,-0.966924,-2.65694,15.9552,7.12502,23.0432,44.5976,-38.2266,-1.01558,22.2449,46.9451,-49.6473,-35.1045,39.9243,-39.7119,-8.17834,-21.2555,41.4376,-49.1492,27.7509,12.3736
6.42713,16.15,-35.041,25.3334,-15.6042,-5.82119,-11.5516,1.14453,1.70311,-6.54175,1.29376,1.57227,-0.352644,0.612752,0.81361,-17.214,-2.21145,-0.772072,40.2922,-4.70098,2.82411,18.008,-1.69348,0.487984,-2.84511e-14,7.7526e-15,-40.4654,-14.8415,-70.5737,15.6056,7.73266,-6.47417,14.0918,7.12502,19.3765,-14.9628,-2.84511e-14,7.7526e-15,-43.8965,16.8433,65.5916,29.3662,-0.611412,-2.97243,16.5234,7.12502,22.7404,45.2033,-37.7559,-2.63327,22.8113,47.3919,-47.7459,-37.1292,38.4599,-40.1796,-8.18943,-21.1874,41.4925,-47.6669,29.9031,7.4645
6.44521,16.1413,-35.0124,25.0606,-16.2369,-6.05638,-11.7491,1.47232,1.99911,-6.59781,1.6942,1.42939,-0.293669,0.803041,0.548147,-16.3774,-2.30984,-0.939351,40.12,-4.86485,3.02625,17.7065,-1.77353,0.588576,-4.67889e-14,-2.80286e-14,-41.167,-14.3593,-70.792,15.6527,7.67077,-6.6468,13.6455,7.12502,19.2105,-15.4257,-4.67889e-14,-2.80286e-14,-44.3895,16.3177,65.5753,29.2111,-0.539679,-3.04639,16.6924,7.12502,22.6694,45.3809,-36.519,-3.46981,22.9981,47.887,-46.0803,-37.5817,38.8696,-39.6172,-8.61629,-21.049,41.3223,-47.1524,31.8594,4.19933
6.45566,16.1408,-35.0331,25.3137,-15.7039,-5.81114,-12.8681,1.2256,1.83146,-6.17594,1.34087,1.43535,0.744699,0.636782,0.636931,-16.625,-2.28871,-1.01672,39.6758,-4.80156,3.1096,17.5222,-1.74776,0.646524,-6.05299e-14,-2.26615e-14,-40.3603,-14.6512,-70.9752,15.3427,8.31007,-6.57179,13.7875,7.12502,19.2826,-15.2765,-6.05299e-14,-2.26615e-14,-43.7305,17.3535,65.3712,28.3652,-1.22267,-3.36317,15.3424,7.12502,22.3654,44.0677,-35.9493,-5.25331,23.4712,48.5633,-45.8721,-35.9687,41.2815,-40.1337,-7.93509,-21.3507,41.3129,-48.6489,27.1322,13.329
6.47237,16.1346,-35.0185,24.7103,-14.8753,-5.2237,-12.1646,0.858722,1.3455,-6.63523,0.934665,1.54832,-0.124077,0.441539,0.958982,-15.9654,-2.3944,-1.44512,39.9044,-4.85287,3.15752,17.4967,-1.83739,0.745198,-3.27995e-15,-4.27387e-15,-41.4861,-14.2728,-70.253,15.1681,8.66432,-6.10606,14.7686,7.12502,19.7304,-14.2501,-3.27995e-15,-4.27387e-15,-44.9431,17.3922,65.2136,28.0414,-1.59413,-3.5819,14.137,7.12502,22.1554,42.8874,-34.522,-7.42353,23.4649,49.204,-44.3282,-36.1325,40.5456,-39.564,-8.11748,-21.9554,41.2376,-47.878,26.996,12.3968
6.48056,16.1287,-35.0377,25.5863,-15.5984,-5.25311,-12.701,1.03588,0.815034,-7.05627,1.21468,1.61024,-0.292201,0.595183,1.36111,-16.2654,-2.47253,-1.5842,40.1683,-4.91842,3.09839,17.7308,-1.88635,0.728449,5.9008e-14,1.66979e-14,-41.7144,-13.8316,-70.201,14.9939,8.66399,-5.65864,15.4404,7.12502,20.1605,-13.5335,5.9008e-14,1.66979e-14,-45.2773,17.5226,65.2727,28.0142,-1.52532,-3.51105,14.1922,7.12502,22.2234,42.9346,-34.9672,-8.28028,23.6904,49.9547,-41.416,-36.6388,39.0703,-40.5587,-7.55745,-22.1463,41.2452,-47.2562,27.7931,10.5856
6.49675,16.1222,-35.0373,25.8124,-15.4827,-4.9651,-13.974,1.06633,0.847639,-6.83661,1.22815,1.25503,0.627362,0.594483,1.00286,-15.9028,-2.51748,-1.2533,39.8959,-5.10464,3.1394,17.4785,-1.91376,0.654751,-2.84759e-14,-7.95139e-16,-41.6068,-14.1695,-70.5613,14.809,8.93045,-5.88459,14.7539,7.12502,19.9433,-14.2427,-2.84759e-14,-7.95139e-16,-44.91,17.3177,65.1839,27.9666,-1.49592,-3.31359,14.5146,7.12502,22.413,43.2343,-34.5935,-9.90879,23.7883,50.6113,-39.1816,-36.2944,38.7056,-40.8714,-7.13823,-22.6425,41.2233,-45.8558,28.3281,7.9753
6.50709,16.1249,-35.0563,26.2659,-15.0966,-4.80481,-14.4121,1.00577,0.70333,-6.8099,1.16254,1.09095,0.890038,0.56246,0.912525,-16.8279,-2.5986,-0.829978,40.0633,-5.35314,3.03566,17.8074,-1.94304,0.470703,2.46617e-14,8.34896e-15,-41.3686,-14.7254,-70.6442,14.5978,9.38125,-5.86409,14.8595,7.12502,19.963,-14.1351,2.46617e-14,8.34896e-15,-44.3663,17.4037,65.2333,27.8466,-1.70803,-2.9655,14.8446,7.12502,22.7471,43.5237,-34.5152,-11.2864,24.1764,51.2998,-37.5193,-35.8228,39.0005,-41.5043,-7.07152,-22.7116,41.2544,-45.3991,28.0068,7.65163
6.52446,16.1189,-35.0506,26.3873,-15.0248,-5.05328,-14.9317,1.07108,1.17595,-6.80838,1.17743,1.01029,1.17778,0.55844,0.57417,-16.5769,-2.53734,-0.831244,39.966,-5.34703,3.26481,17.6976,-1.91513,0.580731,7.28049e-15,1.37161e-14,-41.5938,-15.525,-70.1549,14.1605,10.6009,-5.39338,15.2567,7.12502,20.4154,-13.6901,7.28049e-15,1.37161e-14,-44.6412,17.1693,65.2065,27.8789,-1.2765,-2.74318,15.0465,7.12502,22.9604,43.6991,-33.8775,-12.4399,24.6815,51.9137,-34.5937,-35.9958,38.175,-41.4888,-7.71172,-22.271,41.2861,-46.7849,26.909,10.6959
6.53175,16.1088,-35.0559,26.5125,-15.015,-5.13345,-14.8443,1.01801,0.981985,-7.19308,1.13326,1.15737,0.719269,0.540308,0.824567,-15.7372,-2.59262,-1.29082,39.8457,-5.35901,3.50234,17.4374,-1.97588,0.780031,-2.33199e-14,-3.02153e-14,-42.152,-15.9225,-69.302,13.6897,11.8774,-4.92274,15.4835,7.12502,20.8676,-13.4142,-2.33199e-14,-3.02153e-14,-45.6252,17.2326,65.0706,27.8986,-1.21338,-2.52257,14.8593,7.12502,23.1721,43.4855,-33.4154,-13.1674,25.0617,52.6822,-32.5882,-35.869,37.7789,-41.5803,-7.39329,-22.2397,41.2408,-47.0974,25.5577,12.9544
6.51568,16.1097,-35.0427,26.5322,-16.3306,-5.4742,-15.2664,1.39713,0.535581,-7.40659,1.68245,1.17588,0.698806,0.824724,1.1861,-15.4968,-2.37793,-0.842172,40.4341,-5.05375,3.08434,17.6613,-1.84026,0.575248,1.32068e-14,1.15295e-14,-42.8588,-15.2271,-69.4145,13.6204,11.6917,-4.82983,15.4127,7.12502,20.9569,-13.4752,1.32068e-14,1.15295e-14,-46.4979,16.4245,65.5466,28.3355,-1.18194,-3.16302,16.3741,7.12502,22.5575,45.0762,-32.6811,-12.2428,25.1037,53.3077,-31.1496,-35.5762,38.7534,-41.4501,-7.8745,-21.7758,41.3324,-49.225,25.5811,14.5151
6.51446,16.1101,-35.0856,27.354,-15.9282,-5.05282,-15.694,1.08541,-0.296171,-7.62956,1.37864,1.25634,0.670229,0.694733,1.69951,-16.064,-2.49207,-1.05022,40.4531,-5.1911,3.15769,17.8386,-1.90652,0.611829,-2.19781e-14,-1.0138e-14,-42.4964,-14.7925,-69.7027,13.5761,11.4599,-4.79552,15.5238,7.12502,20.9899,-13.3604,-2.19781e-14,-1.0138e-14,-46.2421,16.7303,65.9246,28.2166,-1.53301,-3.3472,16.7287,7.12502,22.3807,45.4522,-33.4367,-13.0671,25.4811,54.2088,-28.719,-35.4046,40.7872,-42.6375,-6.48346,-22.4924,41.2804,-47.3847,24.8842,12.593
6.54888,16.0959,-35.0487,26.768,-15.9606,-5.92215,-15.3768,1.41337,0.878348,-7.55707,1.65152,1.39412,0.600698,0.804249,1.21703,-15.5983,-2.52508,-1.13888,40.4482,-5.2486,3.24584,17.7221,-1.93983,0.663961,6.52262e-14,-3.57812e-15,-43.0975,-14.8142,-69.2416,13.3577,12.0627,-4.53536,15.96,7.12502,21.2398,-12.8963,6.52262e-14,-3.57812e-15,-46.8513,16.8737,65.713,27.7124,-2.02453,-3.18929,15.9156,7.12502,22.5323,44.6209,-31.6713,-14.0536,26.1134,54.7638,-25.6967,-35.4639,39.6871,-41.5794,-7.58412,-21.5082,41.3946,-49.1609,25.0289,14.3483
6.5359,16.098,-35.0789,27.0611,-16.0289,-5.29708,-15.9549,1.24599,-0.12561,-7.38073,1.56765,1.14093,1.07302,0.780946,1.5226,-16.3626,-2.6164,-0.923661,40.2875,-5.52084,3.39553,17.8437,-1.98162,0.628945,-5.66536e-15,3.97569e-15,-42.5739,-16.3817,-68.7168,12.7364,13.9446,-4.38406,16.1911,7.12502,21.3851,-12.6488,-5.66536e-15,3.97569e-15,-46.2065,17.2527,65.6242,27.2325,-2.32889,-3.07476,15.7636,7.12502,22.6422,44.4555,-31.9197,-14.1529,26.0662,55.6177,-24.2146,-36.0089,40.9421,-42.2005,-6.44734,-22.3519,41.3467,-47.4831,24.9992,9.47799
6.54312,16.0888,-35.0723,26.8391,-16.3052,-5.23267,-15.837,1.21878,-0.340401,-7.77992,1.55965,1.18015,0.581155,0.785403,1.67463,-15.1342,-2.55664,-1.25319,40.2935,-5.37478,3.54077,17.5357,-1.98006,0.800392,-6.56735e-14,-1.39149e-14,-43.4229,-15.8607,-68.453,12.5208,14.5699,-4.38492,15.876,7.12502,21.3843,-12.9639,-6.56735e-14,-1.39149e-14,-47.4583,17.0396,65.4801,27.2533,-2.00278,-2.94408,15.8358,7.12502,22.7676,44.5124,-31.1234,-14.4826,26.0434,56.2149,-22.4216,-36.2107,40.7128,-41.9353,-6.73199,-22.4184,41.4259,-48.1588,24.8625,9.63703
6.54318,16.0886,-35.0895,26.9671,-16.1756,-4.85894,-16.4254,1.12605,-0.880649,-7.32969,1.52196,0.977356,1.35858,0.769479,1.78268,-16.497,-2.61048,-0.871014,40.3841,-5.58899,3.50885,17.9433,-1.98128,0.657362,-8.32411e-15,-4.37326e-15,-42.5166,-16.8959,-68.5436,12.0754,15.5328,-4.35024,15.7008,7.12502,21.4176,-13.1354,-8.32411e-15,-4.37326e-15,-46.4142,17.5462,65.5994,26.8265,-2.20889,-2.85708,15.5215,7.12502,22.8511,44.1877,-31.0097,-15.0952,26.1459,56.9252,-20.3187,-36.5714,41.3812,-42.2103,-5.82099,-23.1207,41.3768,-46.6872,25.509,6.84939
6.54895,16.0865,-35.0749,26.6836,-16.5594,-4.75388,-16.1984,1.19348,-1.08167,-7.77884,1.6372,0.879069,0.756046,0.83654,1.79936,-15.3485,-2.56223,-0.998064,40.5726,-5.55294,3.6698,17.7595,-1.98719,0.779849,-2.8712e-14,5.1684e-15,-43.5506,-16.1384,-68.6379,12.0814,15.7276,-4.14247,15.7159,7.12502,21.6171,-13.0974,-2.8712e-14,5.1684e-15,-47.7998,17.5298,64.9948,26.7822,-2.59093,-2.44317,15.4817,7.12502,23.2483,44.0983,-30.22,-15.6513,26.0578,57.4631,-17.0469,-37.0735,41.2946,-41.9751,-5.3147,-23.6717,41.3505,-44.6599,29.1797,-1.62143
6.54694,16.0922,-35.0908,26.831,-16.5125,-4.38136,-16.4469,1.0078,-1.68321,-7.53298,1.48749,0.781614,1.13781,0.769357,2.0224,-16.683,-2.57644,-0.803373,40.7278,-5.6572,3.64594,18.2049,-1.97203,0.695912,-3.08116e-15,3.57812e-14,-42.7369,-16.3333,-69.0562,11.8602,16.4295,-4.1183,15.5372,7.12502,21.6404,-13.2735,-3.08116e-15,3.57812e-14,-47.3043,18.2663,64.8873,26.4459,-3.21097,-2.10614,15.8106,7.12502,23.5716,44.386,-30.189,-16.3254,26.1573,58.051,-15.2463,-37.4755,42.2437,-42.2829,-4.60639,-24.2241,41.2838,-43.8491,28.6688,-2.90414
6.54949,16.0924,-35.0982,26.8944,-16.4924,-4.15608,-17.0335,0.955161,-1.79872,-8.07209,1.43781,0.587359,0.875074,0.748286,1.88131,-14.1889,-2.55631,-1.00248,40.3304,-5.64403,3.96072,17.3361,-2.01444,0.90964,-5.05658e-15,-7.55382e-15,-44.0015,-15.5495,-69.2585,11.8728,16.6625,-4.12015,15.2575,7.12502,21.6386,-13.5534,-5.05658e-15,-7.55382e-15,-48.6582,17.5617,64.4946,26.3966,-3.00867,-2.00819,16.1746,7.12502,23.6655,44.7379,-29.9573,-16.9074,26.2599,58.5575,-14.0356,-37.6819,43.4013,-42.3199,-5.12828,-24.2252,41.2008,-44.6746,27.9331,-1.04151
6.55291,16.0906,-35.0984,26.8157,-16.4553,-4.04179,-17.2035,0.791662,-2.04137,-7.67053,1.26768,0.63632,1.39069,0.661031,2.04983,-15.612,-2.48167,-0.888058,40.6138,-5.53549,3.80938,17.8573,-1.94039,0.824128,-5.32991e-15,-3.57812e-15,-43.0471,-15.3491,-69.7699,11.7517,17.176,-3.92504,15.1526,7.12502,21.8259,-13.6366,-5.32991e-15,-3.57812e-15,-48.2155,18.5399,64.4254,26.0288,-3.17848,-2.07367,15.8695,7.12502,23.6027,44.4409,-29.5099,-17.5308,26.4264,59.001,-12.9652,-37.6435,44.036,-42.174,-4.87607,-24.4622,41.1162,-44.4433,27.6429,-0.387547
6.55597,16.0934,-35.096,26.8066,-16.5047,-3.9333,-17.0845,0.902334,-2.25599,-7.97877,1.44479,0.435162,0.991151,0.758949,1.98349,-15.3066,-2.56526,-0.711586,40.783,-5.75918,3.85232,17.8812,-2.00047,0.775563,4.06266e-15,2.38542e-15,-43.8667,-16.2017,-69.109,11.5692,18.5003,-3.60677,15.5562,7.12502,22.1315,-13.1971,4.06266e-15,2.38542e-15,-48.6006,18.2115,64.1984,25.6505,-3.30104,-1.98732,15.7401,7.12502,23.6856,44.3009,-29.1685,-18.0851,26.5929,59.361,-10.4337,-38.6612,43.5615,-42.1127,-5.08945,-24.5273,41.0513,-44.7775,27.4831,-1.65003
6.55928,16.0989,-35.0973,26.7929,-16.5097,-3.82382,-17.7607,0.872779,-2.34268,-7.56334,1.44673,0.279547,1.78664,0.744639,1.89095,-15.8552,-2.52103,-0.59695,40.6922,-5.80007,4.02446,17.9832,-1.96388,0.818299,-4.24902e-14,-3.1408e-14,-43.2742,-17.624,-68.5839,11.023,20.3145,-3.19903,15.9502,7.12502,22.5229,-12.7562,-4.24902e-14,-3.1408e-14,-47.9448,18.837,64.0151,25.0624,-3.74525,-1.66888,15.7668,7.12502,23.9909,44.2877,-28.7942,-18.597,26.7266,59.6687,-8.4908,-38.9824,44.5617,-42.0758,-5.26331,-24.5908,40.9929,-44.9471,27.4288,-0.962048
6.56142,16.1027,-35.0969,26.8974,-16.5103,-3.87006,-18.1289,0.884796,-2.22745,-7.83152,1.44823,0.160739,1.69816,0.742959,1.70518,-14.9154,-2.45261,-0.54432,40.6519,-5.75026,4.14447,17.7122,-1.94171,0.886023,6.37602e-14,1.59028e-15,-43.8634,-17.3679,-68.7494,10.9964,20.5604,-2.99884,15.5463,7.12502,22.7151,-13.1366,6.37602e-14,1.59028e-15,-48.574,18.5542,63.7646,24.7503,-3.78812,-1.74096,15.7516,7.12502,23.9218,44.2816,-28.4846,-18.9682,27.0314,59.8891,-7.76346,-38.9871,45.3164,-42.1518,-5.23694,-24.5512,40.9582,-45.0306,27.2332,-0.0980307
6.56345,16.1055,-35.0999,26.8869,-16.4169,-3.80561,-18.1201,0.836057,-2.42841,-7.57225,1.42755,0.0720069,1.96772,0.730488,1.72499,-16.2785,-2.53774,-0.173271,40.9367,-5.98434,3.95613,18.2313,-1.96853,0.670697,8.4732e-14,1.59028e-14,-43.3434,-18.1629,-68.7207,10.8267,21.5007,-2.79158,15.2851,7.12502,22.914,-13.3733,8.4732e-14,1.59028e-14,-47.9781,19.0304,63.8211,24.3382,-4.05128,-1.70681,15.8599,7.12502,23.9546,44.3856,-28.1893,-19.4794,27.2725,60.1247,-9.96724,-37.8353,40.9613,-42.1299,-5.27126,-24.5948,40.8939,-45.1076,26.9676,0.173037
6.57273,16.0972,-35.0653,26.347,-17.0402,-4.0865,-18.7363,1.02457,-2.0347,-7.4254,1.62081,0.0765207,2.44673,0.810573,1.56139,-14.763,-2.42077,-0.531804,40.6591,-5.72426,4.1839,17.6768,-1.92943,0.908351,-5.31749e-14,1.59028e-15,-43.8176,-17.4805,-68.8701,10.8327,21.5716,-2.59217,15.3764,7.12502,23.1053,-13.2582,-5.31749e-14,1.59028e-15,-48.9236,19.474,63.2723,24.16,-4.53215,-1.54962,15.8153,7.12502,24.1053,44.321,-26.9719,-19.4443,27.0884,60.2209,-10.8198,-36.7484,35.0753,-41.2329,-5.8778,-24.3148,40.8488,-46.5134,27.2069,1.43119
6.56781,16.1053,-35.0918,26.7408,-16.5423,-3.80742,-19.1687,0.759066,-2.4134,-7.72919,1.34336,0.0253241,2.34624,0.680529,1.67077,-14.3447,-2.33474,-0.42723,40.7601,-5.63085,4.18907,17.6173,-1.88271,0.916565,-2.23881e-14,-1.19271e-14,-44.1032,-16.7674,-69.3887,10.9471,20.9249,-2.45748,15.3763,7.12502,23.2345,-13.2421,-2.23881e-14,-1.19271e-14,-49.3037,19.3237,63.2112,24.0581,-4.67128,-1.59984,15.865,7.12502,24.0572,44.3771,-27.4583,-19.8682,27.6683,60.4329,-11.9528,-36.2708,27.4362,-41.8509,-5.19808,-24.6654,40.7494,-44.91,27.0714,-0.0782982
6.57398,16.1038,-35.0652,26.3092,-17.0704,-3.79985,-19.285,0.917108,-2.42956,-7.46256,1.56777,-0.118961,2.68527,0.783392,1.57984,-14.7729,-2.23343,-0.286836,40.7192,-5.58936,4.34424,17.7102,-1.81359,0.964967,-1.57288e-14,-4.77083e-15,-43.8084,-16.2074,-70.163,10.9611,20.0702,-2.3177,14.9406,7.12502,23.3687,-13.6608,-1.57288e-14,-4.77083e-15,-49.2889,19.6857,63.005,23.7051,-5.19389,-1.72509,15.6102,7.12502,23.937,44.1381,-26.6586,-19.8971,27.432,60.4881,-11.3309,-35.8044,15.5355,-41.1731,-5.42539,-24.7966,40.6819,-45.7431,27.2131,0.684258
6.5651,16.1196,-35.0943,26.8605,-16.356,-3.52769,-19.0979,0.52275,-2.99178,-8.05939,1.12492,0.00858757,1.95108,0.59079,1.93095,-14.3528,-2.30022,-0.525994,40.7892,-5.64913,4.42446,17.6545,-1.87342,1.03965,-1.58034e-14,-1.51076e-14,-44.1902,-15.1842,-70.6611,11.0781,18.9556,-2.09868,14.9714,7.12502,23.5787,-13.6031,-1.58034e-14,-1.51076e-14,-49.8841,19.8725,62.7112,23.2359,-5.72273,-1.63051,15.4347,7.12502,24.0277,43.9507,-27.3903,-20.4109,28.2189,60.6126,-12.5425,-35.4198,6.00743,-41.9672,-4.62728,-25.131,40.599,-43.8118,26.9249,-1.66814
6.56515,16.1189,-35.0818,26.7399,-16.4349,-3.70234,-18.5865,0.545053,-3.02099,-8.45085,1.12741,0.141018,1.26484,0.609974,2.07391,-14.0613,-2.3578,-0.882333,41.1188,-5.69657,4.53236,17.7901,-1.93731,1.15415,1.71048e-14,1.59028e-14,-44.8825,-14.5912,-70.593,11.0437,18.7554,-2.00141,15.4851,7.12502,23.672,-13.0773,1.71048e-14,1.59028e-14,-50.6857,20.1229,62.3416,22.8671,-6.30337,-1.43333,16.0418,7.12502,24.2168,44.5327,-26.8549,-20.373,28.4837,60.5798,-13.9417,-34.5657,-0.746464,-41.6974,-4.81899,-24.9116,40.5837,-44.1164,27.0098,-1.61233
6.56493,16.1151,-35.0827,26.7221,-16.4993,-3.7925,-19.62,0.584385,-2.64043,-7.83668,1.16796,-0.114926,2.46766,0.592714,1.62181,-14.5329,-2.26875,-0.668848,40.9744,-5.68907,4.69243,17.8337,-1.87115,1.18288,-2.61153e-14,1.27222e-14,-44.1065,-15.9468,-70.4544,10.6469,20.1537,-1.85968,15.912,7.12502,23.808,-12.6328,-2.61153e-14,1.27222e-14,-49.8627,21.1321,61.7873,22.2746,-7.04706,-1.28363,16.1688,7.12502,24.3603,44.6405,-26.5505,-20.0957,28.749,60.5877,-18.4185,-32.4988,2.53598,-41.6442,-4.91462,-24.7643,40.5594,-44.6441,26.6029,-0.931169
6.56851,16.1108,-35.089,26.7292,-16.4413,-3.89052,-19.3331,0.805942,-2.88038,-8.08814,1.49186,-0.214828,2.03116,0.766932,1.70947,-15.0127,-2.45203,-0.121334,41.4585,-6.10818,4.43583,18.2375,-1.96639,0.887635,-2.7308e-14,3.97569e-15,-44.7637,-16.2502,-70.3364,10.7851,19.8457,-1.68352,16.2512,7.12502,23.9769,-12.2715,-2.7308e-14,3.97569e-15,-49.7563,20.6659,61.9283,21.859,-7.54436,-1.10992,16.1868,7.12502,24.5268,44.636,-26.398,-19.8714,29.1473,60.5681,-22.2597,-30.2057,5.82485,-41.6465,-4.95552,-24.6267,40.5544,-44.6931,26.4223,-1.13053
6.56796,16.1113,-35.0952,26.6677,-16.5254,-3.779,-19.867,0.722247,-2.87196,-7.74072,1.41269,-0.363124,2.68567,0.711046,1.5475,-14.9921,-2.37426,-0.152107,41.1278,-6.05738,4.69842,18.05,-1.92255,1.02001,-6.74998e-14,6.36111e-15,-44.2345,-16.8595,-70.431,10.4974,20.7479,-1.78424,16.7945,7.12502,23.8803,-11.7409,-6.74998e-14,6.36111e-15,-49.3247,21.0414,61.8976,21.7455,-7.8341,-1.10095,16.2718,7.12502,24.5354,44.7199,-26.3591,-19.8326,29.3148,60.5647,-23.7307,-28.9999,3.25573,-41.597,-4.80782,-24.8181,40.525,-44.3997,26.4813,-1.64989
6.56746,16.1112,-35.0991,26.6303,-16.6121,-3.66865,-19.4348,0.706278,-3.26242,-7.88775,1.44303,-0.335093,2.29188,0.741764,1.79359,-15.6658,-2.44533,-0.160127,41.5097,-6.17178,4.58832,18.4625,-1.96167,0.945972,-6.60959e-15,4.77083e-15,-44.2198,-15.9329,-71.1229,10.729,19.5492,-1.55586,15.2337,7.12502,24.0993,-13.2728,-6.60959e-15,4.77083e-15,-49.3371,21.1042,62.1245,21.5986,-8.20323,-1.29603,16.2382,7.12502,24.3484,44.7115,-26.3594,-19.8784,29.472,60.5443,-22.1001,-30.0621,-8.30071,-41.5802,-4.75248,-24.9657,40.491,-44.332,26.4598,-1.07587
6.56685,16.1086,-35.0988,26.5567,-16.6767,-3.65953,-20.1765,0.691699,-3.14696,-7.63046,1.44062,-0.440955,2.95468,0.722127,1.63464,-15.11,-2.40876,-0.314448,41.2063,-6.11107,4.80588,18.1444,-1.95169,1.0891,4.15833e-14,-2.94201e-14,-43.8704,-14.2476,-72.8322,11.2041,17.5238,-1.16365,15.32,7.12502,24.4753,-13.1362,4.15833e-14,-2.94201e-14,-49.1632,21.5974,61.8164,21.1269,-8.61986,-1.16869,16.1271,7.12502,24.4705,44.584,-26.235,-19.8504,29.6859,60.4742,-20.438,-31.05,-19.5126,-41.5158,-4.33198,-25.1312,40.4656,-43.9931,26.3867,-1.34059
6.56744,16.1071,-35.0968,26.5276,-16.7695,-3.61176,-19.6117,0.64019,-3.46119,-8.094,1.38805,-0.29125,2.15608,0.722155,1.94203,-14.8572,-2.52428,-0.803125,41.4827,-6.17286,4.86219,18.2668,-2.04962,1.20032,5.03174e-15,3.97569e-15,-44.4307,-12.8963,-73.3416,11.5348,16.4499,-0.871801,15.0982,7.12502,24.7551,-13.3199,5.03174e-15,3.97569e-15,-50.0237,21.7594,61.5814,20.9707,-8.97601,-0.824376,16.4605,7.12502,24.8005,44.8723,-26.2196,-19.8642,29.8618,60.4142,-18.6179,-31.978,-28.6954,-41.4649,-4.93535,-24.9946,40.4343,-44.6669,26.5165,-0.389092
6.56717,16.1055,-35.0972,26.4717,-16.8549,-3.49298,-20.2274,0.755392,-3.38944,-7.92122,1.56792,-0.611605,2.65846,0.793634,1.61502,-14.3742,-2.55008,-0.63409,41.1107,-6.32612,5.09775,17.9317,-2.06923,1.24868,-2.51711e-14,7.95139e-15,-44.4357,-13.4554,-73.5173,11.4885,16.7054,-0.6448,15.0825,7.12502,24.9726,-13.3055,-2.51711e-14,7.95139e-15,-49.7168,21.4595,61.6298,20.9244,-9.05933,-0.722212,16.8079,7.12502,24.8984,45.2062,-26.2739,-19.9874,29.9891,60.3686,-16.6405,-32.8583,-30.4354,-41.4731,-4.40766,-25.3233,40.4346,-43.884,26.8281,-2.25561
6.56759,16.1041,-35.0997,26.3717,-17.0049,-3.27929,-19.7465,0.748448,-3.74719,-8.49071,1.58334,-0.632168,1.78731,0.82939,1.77907,-13.7657,-2.46543,-0.827023,41.4654,-6.20183,5.2055,17.9861,-2.04496,1.37356,-7.47306e-14,-2.22639e-14,-45.4484,-13.2391,-73.1818,11.4302,16.858,-0.569084,15.4167,7.12502,25.0452,-12.9612,-7.47306e-14,-2.22639e-14,-50.633,20.9142,61.6687,20.8814,-9.04959,-1.00355,16.5589,7.12502,24.6288,44.9943,-26.3985,-20.2099,30.0038,60.3597,-14.4594,-33.6331,-31.9408,-41.4262,-4.42955,-25.6012,40.4273,-43.7538,27.2503,-2.78929
6.56714,16.1028,-35.102,26.3764,-17.079,-3.23464,-20.3939,0.739435,-3.64519,-8.07566,1.60151,-0.77796,2.57129,0.814025,1.59145,-14.3662,-2.37024,-0.64442,41.4581,-6.09965,5.15959,18.1288,-1.96673,1.33142,-7.03366e-15,8.74653e-15,-44.8195,-14.3097,-72.8447,11.0918,18.0864,-0.362514,15.7526,7.12502,25.2431,-12.5976,-7.03366e-15,8.74653e-15,-49.8379,21.1966,61.9027,20.7218,-9.21621,-0.950128,16.4991,7.12502,24.68,44.9274,-26.6104,-20.3326,30.2598,60.3657,-12.295,-34.3135,-33.2937,-41.4917,-4.0319,-25.8079,40.4675,-43.5722,27.0171,-1.47805
6.56858,16.0971,-35.1071,26.4311,-17.1325,-3.23068,-19.8056,0.804846,-3.88952,-8.39214,1.69383,-0.753407,1.91597,0.88207,1.75653,-14.9565,-2.56034,-0.739955,41.8476,-6.3775,5.06887,18.5417,-2.08499,1.25423,-9.85537e-15,-5.56597e-15,-45.0717,-13.4836,-73.4039,11.3544,16.9387,-0.0982486,15.2687,7.12502,25.4963,-13.0456,-9.85537e-15,-5.56597e-15,-49.9234,20.9953,62.1112,20.5767,-9.42181,-0.761979,16.3021,7.12502,24.8603,44.7057,-26.8519,-20.2762,30.5381,60.3864,-10.1741,-34.9202,-34.4861,-41.5903,-4.91861,-25.5112,40.5339,-44.8485,26.8068,1.24583
6.56829,16.0907,-35.1119,26.4441,-17.215,-3.19922,-20.5114,0.755873,-3.71754,-8.10768,1.64181,-0.828986,2.59339,0.833893,1.58897,-14.8208,-2.46482,-0.9043,41.6242,-6.19714,5.1942,18.3711,-2.03025,1.37475,2.31095e-14,2.22639e-14,-44.5028,-12.1056,-74.8938,11.7315,15.3216,0.383234,14.2053,7.12502,25.9574,-14.0422,2.31095e-14,2.22639e-14,-49.6699,21.5316,61.9587,20.4613,-9.46618,-0.737218,16.126,7.12502,24.8841,44.5263,-27.0934,-20.2763,30.7475,60.4321,-7.94842,-35.4533,-35.5692,-41.7227,-4.14561,-25.8227,40.6279,-44.3714,26.4738,0.982892
6.56851,16.0862,-35.1185,26.4167,-17.3445,-3.14247,-19.8174,0.802701,-4.08235,-8.42039,1.72526,-0.784032,1.8832,0.901998,1.83921,-15.2807,-2.58028,-0.938662,41.9604,-6.34627,5.05413,18.7066,-2.09776,1.28788,2.87182e-14,2.3059e-14,-44.8037,-11.2265,-75.4704,12.025,14.1711,0.788518,13.7189,7.12502,26.3454,-14.4711,2.87182e-14,2.3059e-14,-49.8593,21.3757,62.1832,20.5604,-9.45484,-0.636716,16.3873,7.12502,24.9804,44.7743,-27.3643,-20.3206,30.9409,60.4757,-5.58225,-35.8387,-36.6076,-41.7981,-4.39659,-25.8128,40.7255,-44.696,26.6759,1.37765
6.57095,16.0797,-35.1254,26.2827,-17.4371,-2.97295,-20.5407,0.767757,-3.85183,-8.22674,1.68541,-1.01165,2.47854,0.85747,1.47885,-14.2032,-2.4641,-1.13423,41.4468,-6.17503,5.38696,18.1151,-2.05093,1.51336,1.08089e-15,2.38542e-14,-44.7332,-11.3845,-75.6626,11.8301,14.6515,0.838469,13.902,7.12502,26.3932,-14.2809,1.08089e-15,2.38542e-14,-49.902,21.507,61.8978,20.5857,-9.63101,-0.610612,16.0602,7.12502,25.0054,44.4437,-27.5644,-20.4559,30.9668,60.5402,-3.15769,-36.0624,-37.4459,-41.7759,-4.37317,-26.0313,40.8038,-44.6339,26.7626,1.58103
6.57383,16.0736,-35.1321,26.1488,-17.453,-2.89499,-19.9878,0.776922,-4.12188,-8.30884,1.71863,-0.99516,2.09622,0.889356,1.6421,-14.7506,-2.60933,-1.18053,41.6502,-6.39603,5.3416,18.4011,-2.13663,1.45686,-3.64894e-14,-3.97569e-15,-44.738,-12.094,-75.0512,11.5809,15.4728,1.08768,14.1494,7.12502,26.6318,-13.9975,-3.64894e-14,-3.97569e-15,-49.7165,21.2992,62.3277,20.5705,-9.50435,-0.587245,15.6026,7.12502,25.0278,43.9829,-27.7338,-20.7253,31.0407,60.5884,-0.598393,-36.0818,-38.2588,-41.7267,-4.16496,-26.22,40.8893,-44.614,26.6789,1.57968
6.57638,16.0673,-35.1386,26.0363,-17.5902,-2.72746,-20.3804,0.7425,-4.04953,-8.12615,1.69169,-1.13641,2.50199,0.860844,1.45738,-14.5836,-2.49215,-1.25005,41.4727,-6.22623,5.47862,18.2482,-2.06871,1.56429,9.18447e-15,-4.77083e-15,-44.489,-12.2184,-75.2031,11.512,15.778,1.21375,14.0834,7.12502,26.7524,-14.0451,9.18447e-15,-4.77083e-15,-49.4902,21.0123,62.7862,20.8527,-8.83459,-0.660925,15.9135,7.12502,24.9572,44.3037,-27.9708,-20.8712,30.9742,60.6535,1.95917,-36.0092,-39.0604,-41.7083,-4.09411,-26.4745,40.9662,-44.7038,26.7451,1.27021
6.57908,16.0603,-35.1474,25.8647,-17.6943,-2.58866,-20.0678,0.804701,-4.24094,-8.00726,1.80446,-1.2493,2.4614,0.919153,1.46457,-15.4899,-2.53159,-0.965407,41.6647,-6.31769,5.25447,18.5948,-2.06403,1.38395,-2.69444e-14,3.10104e-14,-44.1912,-11.8916,-75.7657,11.7416,15.1355,1.42862,13.7555,7.12502,26.958,-14.3414,-2.69444e-14,3.10104e-14,-48.8682,20.8056,63.2814,20.936,-8.51582,-0.524974,16.3669,7.12502,25.0874,44.739,-28.1347,-20.981,30.9318,60.6963,4.48968,-35.8227,-39.6556,-41.6771,-4.14345,-26.6386,41.1098,-44.576,27.0482,0.314693
6.58074,16.052,-35.1545,25.7376,-17.7675,-2.48923,-19.9781,0.749421,-4.29949,-8.15342,1.729,-1.21773,2.25879,0.888473,1.51067,-14.9604,-2.44165,-1.21098,41.6217,-6.0863,5.27733,18.4179,-2.02254,1.48942,7.1811e-15,1.59028e-15,-44.4367,-10.3288,-76.7585,12.1523,13.7676,1.59584,13.4342,7.12502,27.118,-14.6378,7.1811e-15,1.59028e-15,-49.3191,20.8302,63.2146,21.1935,-8.37826,-0.0999996,16.2604,7.12502,25.4946,44.5749,-28.3322,-21.0405,30.9234,60.784,6.88794,-35.5057,-40.3077,-41.6487,-4.16604,-26.7484,41.2052,-44.4267,27.195,-0.274628
6.58781,16.0386,-35.1397,25.5027,-18.0878,-2.77415,-20.5585,1.03144,-3.64115,-7.6292,2.03374,-1.40489,3.13866,1.00346,1.0287,-15.2234,-2.4482,-1.23424,41.398,-6.14926,5.47046,18.3718,-2.02116,1.56433,7.3395e-15,-1.74931e-14,-43.8151,-10.0602,-77.5334,12.3041,13.2121,1.78934,13.4619,7.12502,27.3031,-14.5811,7.3395e-15,-1.74931e-14,-48.6668,20.828,63.471,21.353,-8.03265,-0.0841481,15.8526,7.12502,25.5098,44.1649,-28.0518,-20.978,30.9127,60.7651,9.40182,-34.8565,-40.7132,-41.2902,-4.73205,-26.3847,41.3573,-45.5851,27.3189,1.19024
6.57798,16.0429,-35.1859,25.6764,-17.7154,-2.29425,-20.2665,0.737066,-4.33721,-7.79997,1.7616,-1.4225,2.79064,0.887347,1.3336,-15.6809,-2.41029,-1.20699,41.659,-6.06638,5.33459,18.6428,-1.98758,1.51444,1.76049e-14,1.19271e-14,-43.6804,-9.93853,-77.673,12.3718,13.0269,1.96486,13.5228,7.12502,27.471,-14.4937,1.76049e-14,1.19271e-14,-48.4398,20.3362,64.1353,21.5551,-7.39967,-0.381191,15.5537,7.12502,25.2252,43.9064,-29.0543,-21.2333,31.1965,60.8952,11.6874,-34.6323,-41.179,-41.8937,-3.42028,-27.1487,41.4172,-43.6517,26.9481,-0.861383
6.58756,16.0298,-35.1633,24.9827,-18.3808,-2.54442,-19.9213,1.07966,-4.00638,-7.51003,2.14449,-1.45491,2.92252,1.06707,1.1917,-15.4961,-2.48632,-1.43538,41.388,-6.12775,5.4581,18.4458,-2.0392,1.59649,-7.68427e-15,-1.74931e-14,-43.5414,-9.61832,-77.923,12.4126,12.6632,2.03602,13.4779,7.12502,27.539,-14.5278,-7.68427e-15,-1.74931e-14,-48.1896,19.9898,64.6447,21.7523,-7.11209,-0.476862,15.6636,7.12502,25.1335,44.0292,-28.3509,-21.0508,30.8607,60.863,14.1595,-33.6607,-41.676,-40.9917,-3.65937,-27.0038,41.5233,-44.8395,27.2105,-0.298651
6.58669,16.0237,-35.1703,24.864,-18.5574,-2.43994,-19.8955,1.01622,-4.08904,-7.67737,2.06318,-1.39848,2.72719,1.03327,1.27696,-14.7002,-2.4052,-1.7516,41.2871,-5.89307,5.49671,18.1645,-2.01218,1.72189,-1.06008e-14,2.38542e-15,-43.793,-9.18099,-77.942,12.42,12.7157,2.01282,13.5512,7.12502,27.5168,-14.458,-1.06008e-14,2.38542e-15,-48.6746,19.7147,64.8763,22.2745,-6.90411,-0.218238,16.2954,7.12502,25.3813,44.626,-28.6211,-20.8529,30.8258,60.952,16.3773,-33.0214,-41.9322,-40.9244,-3.88448,-27.064,41.5451,-45.0995,27.3697,-0.15796
6.58958,16.0163,-35.1748,24.7524,-18.6962,-2.29466,-19.8401,1.07123,-4.18984,-7.64912,2.15559,-1.47513,2.72331,1.07944,1.27113,-14.8939,-2.46139,-1.77579,41.3727,-5.96171,5.45292,18.2719,-2.044,1.69308,7.04288e-15,1.11319e-14,-43.6431,-9.66182,-77.6401,12.2569,13.2053,2.086,13.9214,7.12502,27.5868,-14.0767,7.04288e-15,1.11319e-14,-48.4688,19.3401,65.3675,22.6525,-6.58823,-0.174932,16.3919,7.12502,25.4228,44.7166,-28.8689,-20.7926,30.714,61.0233,18.5423,-32.1025,-42.2532,-40.8676,-3.78929,-27.3085,41.5864,-45.0415,27.5027,-0.305803
6.59214,16.0066,-35.1846,24.5749,-18.8838,-2.02741,-19.5355,1.04544,-4.41574,-7.89567,2.13451,-1.50328,2.29398,1.08352,1.35099,-14.3935,-2.42059,-1.98179,41.4085,-5.82478,5.4406,18.154,-2.03596,1.75639,-4.45278e-14,-3.57812e-14,-43.989,-9.97058,-77.1604,12.1142,13.9914,2.14253,14.0557,7.12502,27.6409,-13.9337,-4.45278e-14,-3.57812e-14,-48.8424,18.7743,65.7434,23.0219,-5.99201,-0.19304,16.1636,7.12502,25.4055,44.4908,-29.1675,-20.7933,30.492,61.1265,20.6456,-31.0493,-42.5318,-40.7943,-3.39472,-27.7615,41.5793,-44.8119,27.4617,-0.791936
6.59148,15.9972,-35.1992,24.3845,-19.1462,-1.73069,-18.9305,1.10358,-4.82619,-7.93492,2.25166,-1.62645,1.92048,1.15749,1.45713,-15.195,-2.52329,-1.83694,41.624,-5.97875,5.26227,18.4991,-2.07778,1.61435,-2.04189e-14,-9.54166e-15,-43.8306,-10.9838,-76.4494,11.91,15.1508,2.59523,14.0254,7.12502,28.0737,-13.8939,-2.04189e-14,-9.54166e-15,-48.4351,18.6,66.0095,23.1263,-5.98013,0.0976131,15.7542,7.12502,25.6839,44.0415,-29.4789,-20.6196,30.2479,61.1809,22.6793,-30.0261,-42.7391,-40.7656,-3.25434,-28.1351,41.6007,-44.9992,27.2021,-0.0810045
6.58541,15.9987,-35.2355,24.5429,-18.6536,-1.46674,-18.9125,0.904045,-5.04211,-7.90488,2.03342,-1.72183,1.94998,1.05108,1.43515,-15.5042,-2.59289,-1.69557,41.5786,-6.09422,5.17096,18.553,-2.10653,1.51768,1.75583e-14,-2.62396e-14,-43.497,-12.2078,-75.7721,11.5854,16.5016,2.6963,14.2406,7.12502,28.1703,-13.6629,1.75583e-14,-2.62396e-14,-47.8967,18.6176,66.0662,23.0736,-6.12476,0.262709,15.219,7.12502,25.842,43.4833,-30.2991,-20.8351,30.6326,61.2107,24.6446,-29.1054,-42.9488,-41.1936,-2.72729,-28.4447,41.5996,-43.8919,26.8447,-1.09014
6.59443,15.9927,-35.2161,24.3775,-18.7685,-1.7877,-18.9539,1.13234,-4.51114,-7.78581,2.24933,-1.70837,2.11165,1.14392,1.19683,-15.6561,-2.67659,-1.75507,41.7112,-6.18466,5.09763,18.6807,-2.1568,1.47711,-8.43592e-15,9.54166e-15,-43.4761,-13.0787,-75.0397,11.3355,17.5519,2.57478,14.75,7.12502,28.0542,-13.1725,-8.43592e-15,9.54166e-15,-47.7211,18.3546,66.3904,23.2628,-5.85757,0.445829,15.2983,7.12502,26.0173,43.537,-30.1321,-20.8817,30.7457,61.1223,26.4675,-27.5371,-43.1811,-40.8539,-2.93152,-28.14,41.6404,-44.3142,27.2212,-1.46438
6.59379,15.9883,-35.236,24.1797,-19.0489,-1.46984,-19.2019,0.981254,-4.67322,-7.92336,2.0816,-1.66545,2.09068,1.06398,1.30401,-14.1002,-2.47022,-2.34151,41.3358,-5.73208,5.34482,18.0312,-2.07777,1.79408,-8.59744e-15,-3.97569e-15,-43.6312,-11.852,-75.5159,11.4083,16.9359,2.66135,15.0047,7.12502,28.1369,-12.9043,-8.59744e-15,-3.97569e-15,-48.3843,18.4135,66.3313,23.6275,-5.45042,0.849787,15.6459,7.12502,26.4041,43.8272,-30.4503,-20.6169,30.4736,61.0952,28.3305,-26.2562,-43.2699,-40.8778,-2.7092,-28.5542,41.6765,-43.9757,27.6521,-2.73046
6.5839,15.993,-35.2972,24.8367,-18.3667,-0.992214,-19.5927,0.562472,-5.14848,-8.12443,1.63329,-1.70935,2.08128,0.851304,1.44001,-13.6718,-2.44334,-2.50895,41.0299,-5.67574,5.50295,17.7461,-2.07165,1.90372,6.11263e-15,1.27222e-14,-43.3043,-11.3786,-76.1211,11.6155,16.1994,2.88073,14.6011,7.12502,28.3466,-13.2732,6.11263e-15,1.27222e-14,-48.1055,18.5737,66.2897,23.7307,-5.83306,1.42432,15.5689,7.12502,26.9539,43.6665,-32.0876,-20.8327,31.0455,61.1077,30.2023,-25.1927,-43.3589,-42.1332,-1.56912,-29.2421,41.7439,-40.7625,28.4265,-8.67366
6.60097,15.9748,-35.2513,24.0244,-19.1657,-1.41002,-19.2306,1.10179,-4.46793,-7.85157,2.21243,-1.76399,2.18949,1.12066,1.11266,-13.8087,-2.50437,-2.44972,41.2524,-5.75255,5.36894,17.9099,-2.10676,1.82133,-4.68386e-15,-2.3059e-14,-43.3343,-11.0654,-76.3678,11.8302,15.4999,3.06401,14.0703,7.12502,28.5217,-13.7747,-4.68386e-15,-2.3059e-14,-47.9465,18.1863,66.6156,23.8842,-5.81119,1.7112,15.4489,7.12502,27.2284,43.5037,-30.9249,-20.502,30.475,60.9184,31.6673,-23.1366,-43.4666,-40.9934,-2.51587,-28.744,41.8494,-43.2096,28.7564,-5.32255
6.59548,15.973,-35.2856,24.221,-18.7986,-1.2598,-19.0982,0.926282,-4.73409,-7.68659,2.03185,-1.73387,2.29443,1.03333,1.25776,-14.9411,-2.54037,-2.29587,41.4307,-5.79663,5.21009,18.3122,-2.09353,1.70532,9.53545e-15,1.90833e-14,-42.5041,-10.8176,-76.8526,11.9858,14.7239,3.15571,13.6968,7.12502,28.6093,-14.1334,9.53545e-15,1.90833e-14,-46.9749,18.1325,67.1564,24.0314,-5.45002,2.02525,15.7399,7.12502,27.5287,43.7473,-31.5694,-20.4416,30.7563,60.7551,33.2616,-21.7873,-43.5105,-41.4743,-2.50765,-28.7951,41.9765,-42.9892,28.3649,-4.59239
6.58921,15.9776,-35.3253,24.6183,-18.2901,-1.23983,-19.044,0.771098,-4.7982,-7.85202,1.8283,-1.70641,2.09612,0.940516,1.27799,-15.0156,-2.54437,-2.25138,41.4427,-5.83334,5.24663,18.3432,-2.09353,1.70736,2.94908e-14,-5.32743e-14,-42.3588,-10.1725,-77.4933,12.3733,13.5388,3.23059,13.6658,7.12502,28.6809,-14.1524,2.94908e-14,-5.32743e-14,-46.5971,17.7421,67.5237,24.3462,-5.05158,2.39324,16.5868,7.12502,27.8806,44.5376,-32.4011,-20.4418,31.3005,60.5193,34.8612,-20.3571,-43.5821,-42.2596,-1.31224,-29.0981,42.1678,-41.2575,27.9411,-6.32145
6.60234,15.967,-35.2845,23.6416,-18.9162,-1.60644,-18.9229,1.22417,-3.98423,-7.00009,2.32453,-1.88373,2.96709,1.14729,0.74515,-16.1426,-2.58096,-1.99531,41.5326,-5.95766,5.18378,18.7049,-2.08347,1.59841,-3.4601e-14,-4.77083e-15,-41.3928,-11.013,-77.4529,12.2789,14.0114,3.33716,13.9369,7.12502,28.7827,-13.864,-3.4601e-14,-4.77083e-15,-45.5469,18.0415,67.5614,24.1266,-5.44677,2.40153,15.5426,7.12502,27.8885,43.4921,-31.0102,-20.3154,30.7343,60.1632,36.0045,-18.0599,-43.5897,-40.9525,-1.66081,-28.7916,42.3069,-42.6219,28.2248,-4.37897
6.59215,15.9759,-35.3431,24.2096,-17.7257,-1.43907,-18.5222,0.671552,-4.36781,-7.68549,1.5986,-1.52392,2.02874,0.822655,1.17504,-15.3225,-2.55127,-2.37024,41.7529,-5.74226,5.05118,18.6041,-2.09468,1.65945,-3.34777e-14,5.08889e-14,-41.9686,-10.3608,-77.1666,12.3795,13.7185,3.386,14.0037,7.12502,28.8293,-13.7893,-3.34777e-14,5.08889e-14,-46.2443,17.7334,67.8771,24.3647,-5.13383,2.16273,15.6352,7.12502,27.6602,43.6215,-32.2207,-20.6821,31.6266,59.9348,37.4293,-16.7282,-43.6351,-42.0097,-1.01286,-28.9427,42.4397,-40.7342,27.5398,-5.469
6.5997,15.969,-35.3195,23.4712,-18.2985,-1.49025,-18.249,0.965852,-4.29071,-7.32871,1.97431,-1.52417,2.25351,1.00097,1.20381,-15.569,-2.61693,-2.41246,41.8379,-5.78693,4.94639,18.7238,-2.12626,1.6082,4.81432e-15,-2.46493e-14,-41.7108,-9.89152,-77.3946,12.5107,12.8325,3.29702,13.8292,7.12502,28.7443,-13.9783,4.81432e-15,-2.46493e-14,-45.7459,17.2545,68.646,24.6204,-4.72245,1.80881,16.2757,7.12502,27.3217,44.3158,-31.2872,-20.2426,30.9452,59.6168,36.3957,-19.8415,-41.8088,-41.1391,-1.20561,-28.965,42.5207,-41.4479,27.9574,-4.38854
6.60186,15.9639,-35.3175,22.9855,-18.464,-1.42226,-18.1315,1.0554,-4.13493,-7.51988,2.04988,-1.55025,1.99226,1.04203,1.09648,-13.9133,-2.52261,-2.73019,41.6275,-5.62976,5.17728,18.1528,-2.12154,1.81612,1.89032e-14,-1.43125e-14,-42.4703,-8.36772,-78.2115,13.0206,10.9689,3.25341,13.3737,7.12502,28.7027,-14.4408,1.89032e-14,-1.43125e-14,-46.445,16.4703,68.8892,25.1311,-4.22478,1.82444,16.7638,7.12502,27.3367,44.8016,-30.8164,-20.0296,30.5504,59.3679,35.4372,-22.3953,-39.7355,-40.6453,-1.13627,-29.1156,42.5479,-41.6057,27.7479,-2.70524
6.6032,15.9637,-35.3253,22.9829,-18.293,-1.44921,-17.6578,1.08624,-4.04108,-7.70897,2.04281,-1.54311,1.54879,1.04806,1.03385,-13.9296,-2.60745,-2.83914,41.6808,-5.76774,5.26111,18.2091,-2.18213,1.85073,2.8712e-14,1.59028e-14,-42.5903,-7.69127,-78.6975,13.3327,9.76551,3.24098,12.9162,7.12502,28.6908,-14.9003,2.8712e-14,1.59028e-14,-46.3383,15.9247,69.23,25.3432,-3.92061,1.94801,16.9225,7.12502,27.4549,44.9416,-30.9658,-20.0015,30.6214,59.1516,37.2919,-19.7401,-40.5435,-40.7591,-0.753224,-29.2148,42.6507,-41.2649,27.3689,-2.28186
6.60932,15.9602,-35.3193,22.3557,-18.0674,-1.17624,-17.5442,0.967761,-4.10692,-7.17435,1.91877,-1.5276,2.06237,0.974214,1.07157,-14.4606,-2.6394,-2.89581,41.5287,-5.7483,5.20126,18.2591,-2.17928,1.82739,3.12962e-14,1.66979e-14,-41.7562,-7.67558,-78.7171,13.2669,9.60254,3.14382,13.1433,7.12502,28.598,-14.6888,3.12962e-14,1.66979e-14,-45.5153,16.2707,69.4874,25.2874,-4.13161,1.95447,16.6211,7.12502,27.461,44.6392,-30.4225,-20.2992,30.1296,58.9445,39.6727,-14.221,-42.2182,-40.1722,-0.562766,-29.5661,42.6479,-40.7631,27.5569,-2.99667
6.6016,15.9609,-35.3423,23.2644,-19.2919,-1.71745,-18.1056,1.44298,-3.99948,-7.36791,2.53758,-1.45078,2.12024,1.28023,1.21994,-14.7914,-2.69297,-2.83151,41.6702,-5.79843,5.05827,18.4289,-2.19959,1.73899,-7.3534e-14,-2.22639e-14,-41.5997,-8.0439,-78.3935,13.2977,9.66311,3.09745,13.4519,7.12502,28.5537,-14.3878,-7.3534e-14,-2.22639e-14,-45.1459,16.167,69.7577,25.3738,-4.18971,1.84192,16.312,7.12502,27.3534,44.3471,-31.4905,-18.6091,30.4445,58.8873,41.0348,-11.7538,-42.542,-41.2837,0.0721271,-29.3528,42.7952,-40.9,28.1463,-2.30674
6.60546,15.9609,-35.3472,22.0886,-17.9212,-1.05611,-16.7056,1.01623,-4.2517,-7.36281,1.95307,-1.49963,1.41515,1.0106,1.16399,-14.6123,-2.76999,-2.7893,41.9365,-5.88849,4.88671,18.5378,-2.25515,1.64034,4.01048e-14,4.77083e-15,-41.9636,-8.82999,-77.6693,13.1518,10.3878,2.8579,13.4591,7.12502,28.3248,-14.4188,4.01048e-14,4.77083e-15,-45.3131,15.527,70.0447,25.4623,-3.8457,1.61548,16.0839,7.12502,27.1368,44.1531,-30.4611,-19.7975,29.9397,58.7896,40.6123,-13.7185,-41.5134,-40.1877,-0.589569,-29.6563,42.7998,-40.0087,28.0952,-2.33702
6.60427,15.9592,-35.3603,22.2215,-18.2616,-1.16197,-17.4132,1.19084,-4.04332,-6.65825,2.2255,-1.63575,2.53688,1.11202,0.985181,-15.8027,-2.86074,-2.54053,41.7468,-6.07642,4.87024,18.7532,-2.26436,1.53214,3.28492e-14,-3.57812e-14,-40.4912,-9.95594,-77.5727,12.9431,10.9982,2.7465,13.4352,7.12502,28.2183,-14.4603,3.28492e-14,-3.57812e-14,-43.6963,15.6596,70.4185,25.4247,-3.89882,1.70957,16.1306,7.12502,27.2268,44.1856,-30.7394,-19.1105,29.9474,58.8235,39.7254,-17.519,-39.2647,-40.4932,-0.517942,-29.6005,42.9492,-40.4407,27.7461,-0.383291
6.59783,15.9547,-35.393,22.18,-18.2386,-1.00621,-18.0148,1.06556,-3.98825,-6.39977,2.09669,-1.69579,3.1374,1.0318,0.886955,-15.0117,-2.67179,-2.65622,41.3136,-5.79745,5.08119,18.2666,-2.16379,1.70665,-2.78671e-14,-4.85035e-14,-39.9902,-9.94092,-77.8001,12.9774,10.8201,2.79023,13.4262,7.12502,28.2601,-14.4624,-2.78671e-14,-4.85035e-14,-43.3574,15.484,70.551,25.7029,-3.53041,1.74771,16.4588,7.12502,27.2633,44.5082,-31.0015,-18.8078,29.9238,58.86,38.5403,-21.2159,-36.2694,-40.6595,-0.325582,-29.7643,42.9052,-40.8165,26.6666,2.25995
6.5993,15.9504,-35.4071,21.999,-18.3309,-1.01915,-17.1734,1.17501,-4.15202,-6.71748,2.20535,-1.59943,2.34278,1.1084,1.07282,-14.9245,-2.75004,-2.69605,41.5548,-5.87718,4.96174,18.3894,-2.21798,1.649,1.04486e-14,5.56597e-15,-40.3971,-9.71653,-77.6611,13.2065,10.1809,2.64578,12.965,7.12502,28.122,-14.9463,1.04486e-14,5.56597e-15,-43.5666,14.7351,71.0082,25.9883,-3.13786,1.87938,16.8389,7.12502,27.3892,44.8684,-30.9517,-18.6851,29.8399,59.0251,38.333,-21.8161,-34.95,-40.6039,-0.511753,-29.7215,43.077,-40.5416,27.4429,1.60089
6.60209,15.9484,-35.3965,20.3983,-16.1674,-0.145751,-16.5079,0.508366,-4.23784,-5.85574,1.36332,-1.82059,2.94937,0.672663,0.732503,-15.2248,-2.7803,-2.44727,41.3503,-6.00536,5.00237,18.349,-2.21691,1.58985,-5.88527e-14,1.59028e-14,-39.698,-10.5845,-77.5786,13.0799,10.4632,2.46756,12.9034,7.12502,27.9517,-15.0358,-5.88527e-14,1.59028e-14,-42.6168,14.3639,71.2112,26.097,-2.8975,1.88083,16.8059,7.12502,27.3906,44.8352,-29.3437,-20.8508,29.2328,59.0873,37.2275,-23.0011,-33.0699,-38.9606,-1.24637,-30.1705,43.0903,-39.2857,26.5603,2.47917
6.58593,15.9483,-35.4651,22.4437,-18.169,-0.895579,-17.064,1.07021,-4.46573,-7.16609,2.08622,-1.51666,1.79654,1.07067,1.30275,-14.2956,-2.73818,-2.69256,41.5523,-5.82165,4.85375,18.2051,-2.22347,1.61473,8.36759e-15,5.56597e-15,-40.5835,-10.0312,-77.2383,13.0993,10.1511,2.40434,13.128,7.12502,27.8912,-14.821,8.36759e-15,5.56597e-15,-43.7316,13.7941,71.4165,26.6442,-2.54876,1.75986,16.9753,7.12502,27.2749,45.0228,-32,-18.1093,30.1986,59.5175,37.024,-24.9185,-30.5222,-41.6007,0.500967,-30.0722,43.3121,-39.0866,26.7906,2.99863
6.5969,15.9406,-35.4387,21.5963,-18.7177,-0.911138,-16.6142,1.38181,-4.28628,-6.67938,2.47086,-1.59746,2.07069,1.24865,1.18158,-14.8832,-2.86518,-2.66931,41.5329,-6.00246,4.81778,18.3637,-2.28279,1.55126,-1.99965e-14,3.18055e-15,-40.0524,-10.9533,-76.6724,12.6959,10.8433,2.29454,14.2797,7.12502,27.7862,-13.6864,-1.99965e-14,3.18055e-15,-43.161,13.5477,71.8209,27.0483,-2.5017,1.92716,17.9102,7.12502,27.4349,45.9324,-30.9724,-17.9824,29.5893,59.67,35.9879,-26.093,-27.5942,-40.6167,0.52124,-30.1508,43.3781,-39.9173,27.0295,4.12524
6.59352,15.9387,-35.4714,21.5503,-17.7038,-0.465177,-16.2044,1.00118,-4.66895,-6.77442,2.003,-1.60693,1.76118,1.0304,1.29217,-14.9611,-2.87664,-2.54648,41.5705,-6.05238,4.7868,18.4044,-2.28446,1.50468,-4.95098e-15,-6.36111e-15,-39.8916,-10.5671,-77.0563,12.9888,9.99177,2.48544,13.8285,7.12502,27.9688,-14.1079,-4.95098e-15,-6.36111e-15,-43.0458,13.2782,71.9816,27.3164,-2.62433,1.89053,18.4305,7.12502,27.3999,46.4583,-31.4028,-18.7236,29.781,59.9358,35.5958,-26.7514,-25.8367,-40.8489,0.258065,-30.4041,43.4629,-39.0501,26.8158,3.64307
6.60345,15.9306,-35.4533,21.0576,-18.7437,-0.768081,-16.7479,1.35901,-3.96118,-6.42436,2.41298,-1.69953,2.43496,1.20427,0.891539,-14.0399,-2.65476,-2.59481,41.2789,-5.73645,4.93059,17.9665,-2.1699,1.64567,-1.82012e-14,3.97569e-14,-39.7175,-9.34701,-78.0303,13.3974,8.72384,2.56051,13.5733,7.12502,28.0405,-14.3514,-1.82012e-14,3.97569e-14,-43.1358,13.3613,71.7285,27.5184,-2.54305,1.78003,18.1863,7.12502,27.2942,46.2308,-30.7483,-18.0351,29.4073,60.1572,36.0962,-25.7663,-25.4989,-40.2248,0.167422,-30.2236,43.6392,-40.5275,27.1027,5.60163
6.61321,15.9251,-35.433,19.8348,-17.6436,-0.174781,-15.7207,0.966866,-4.1509,-6.07319,1.89255,-1.70184,2.2788,0.950326,0.883465,-14.463,-2.66821,-2.56008,41.521,-5.738,4.81629,18.2184,-2.16993,1.58682,6.54747e-15,1.35174e-14,-39.5346,-8.51474,-78.4481,13.7191,7.74375,2.78115,13.4101,7.12502,28.2514,-14.4799,6.54747e-15,1.35174e-14,-42.9582,13.4507,71.7615,27.5592,-2.32379,1.61553,17.5229,7.12502,27.1368,45.592,-29.5194,-19.4905,28.8396,60.214,35.6651,-25.7471,-23.9189,-38.8393,-0.665104,-30.5071,43.5097,-40.3549,27.0007,5.51212
6.60154,15.9235,-35.5247,22.8827,-19.7955,-1.23988,-17.5287,1.66444,-4.04207,-6.76533,2.84219,-1.56374,2.45173,1.42074,1.17665,-14.9406,-2.73694,-2.5743,41.3493,-5.83974,4.86757,18.2557,-2.19524,1.58478,-3.77318e-14,2.06736e-14,-38.7897,-8.97717,-78.2906,13.602,8.11371,2.76889,13.1241,7.12502,28.2397,-14.7678,-3.77318e-14,2.06736e-14,-42.1647,13.514,71.9308,27.6395,-2.06648,1.60901,17.2851,7.12502,27.1306,45.3552,-33.3925,-16.4838,30.4475,60.6967,35.7487,-27.5103,-20.7069,-42.6106,0.993682,-30.1421,43.7448,-39.9345,27.2771,5.95599
6.61796,15.9149,-35.4422,19.5303,-17.6182,0.0666697,-15.4521,0.951157,-4.3079,-5.77836,1.89265,-1.62569,2.43917,0.947742,1.04984,-14.8602,-2.81632,-2.92835,41.3481,-5.86617,4.92461,18.2526,-2.25578,1.67166,-2.86001e-14,8.74653e-15,-38.7323,-8.65052,-78.1716,13.5439,7.91191,2.52103,12.9624,7.12502,28.0028,-14.9685,-2.86001e-14,8.74653e-15,-42.2179,13.3763,72.2507,27.8792,-1.96422,1.73895,17.7168,7.12502,27.2549,45.7675,-29.54,-19.666,28.745,60.519,34.0764,-28.0075,-17.1791,-38.6467,-0.457539,-30.8357,43.4683,-39.7211,27.218,4.50425
6.60612,15.9145,-35.5043,20.8366,-17.9842,-0.0610468,-16.1793,1.06087,-4.55084,-6.10536,2.09737,-1.63295,2.45878,1.0534,1.22656,-15.1556,-2.89827,-2.75068,41.3991,-6.02059,4.84258,18.3632,-2.29246,1.56834,-2.30466e-14,-1.19271e-14,-38.3457,-9.10686,-78.0471,13.3602,8.16848,2.35411,13.3641,7.12502,27.8432,-14.5927,-2.30466e-14,-1.19271e-14,-41.7208,12.9258,72.5201,28.0761,-1.85553,1.74332,18.0584,7.12502,27.2591,46.1084,-31.5515,-18.8325,29.5974,60.8389,34.447,-28.4237,-15.6461,-40.4604,0.180896,-30.8827,43.6328,-38.8947,27.2612,3.06543
6.62154,15.9081,-35.4514,19.5028,-17.7577,0.0848066,-16.0445,1.01937,-3.93346,-5.74573,1.96047,-1.66712,2.80144,0.969463,0.822627,-13.9828,-2.68368,-2.94081,41.301,-5.65653,4.90398,17.9703,-2.19594,1.71273,2.53947e-14,6.36111e-15,-38.7055,-8.70751,-77.9775,13.3183,8.31336,2.27114,13.9187,7.12502,27.7639,-14.051,2.53947e-14,6.36111e-15,-42.3289,12.8888,72.4254,28.3353,-1.62509,1.57591,18.1652,7.12502,27.0989,46.2403,-29.7552,-19.675,28.8771,60.6432,33.5091,-29.0332,-11.8673,-38.6551,-0.506853,-30.8821,43.4127,-39.5461,27.5711,3.46072
6.62082,15.905,-35.4674,20.1396,-18.7898,-0.39651,-16.0777,1.43076,-3.85957,-6.15824,2.4656,-1.51021,2.35759,1.23227,1.027,-13.8808,-2.74198,-2.85367,41.5295,-5.70417,4.67965,18.0665,-2.23252,1.58911,-9.22485e-15,-7.95139e-16,-38.9507,-8.47754,-77.9341,13.4668,8.09134,2.21697,13.7554,7.12502,27.7121,-14.2226,-9.22485e-15,-7.95139e-16,-42.515,12.6956,72.5892,28.3379,-1.5372,1.34671,18.3084,7.12502,26.8796,46.4174,-30.5311,-18.6856,29.321,60.768,33.8261,-29.1181,-10.0961,-39.4187,0.0762148,-30.6536,43.5461,-39.9933,27.5936,4.902
6.63124,15.8991,-35.4386,19.1939,-18.3449,-0.161964,-15.8636,1.40598,-3.54613,-5.62922,2.40886,-1.70384,2.82975,1.18794,0.642717,-14.0274,-2.80515,-2.59635,41.4301,-5.86932,4.6554,18.0463,-2.25806,1.49561,1.22625e-14,-2.14687e-14,-38.5964,-8.79114,-78.1329,13.5729,8.04513,2.30097,13.4071,7.12502,27.7924,-14.558,1.22625e-14,-2.14687e-14,-41.9226,12.4883,72.5976,28.1374,-1.51491,1.00848,18.0828,7.12502,26.556,46.2411,-29.3846,-19.6151,28.8648,60.6871,33.7948,-28.7598,-8.17798,-38.2605,-0.341104,-30.7782,43.4847,-40.1399,27.6111,5.68253
6.63074,15.8988,-35.4426,19.3024,-18.6356,-0.160537,-15.6092,1.58804,-3.6025,-5.90749,2.63376,-1.74247,2.39177,1.30951,0.658443,-13.968,-2.86321,-2.48538,41.6365,-5.99967,4.61268,18.1559,-2.29776,1.43585,-4.74474e-14,1.66979e-14,-38.9159,-9.11319,-77.9141,13.5945,8.27924,2.26905,13.3455,7.12502,27.7619,-14.6245,-4.74474e-14,1.66979e-14,-42.0211,12.2207,72.5501,27.9851,-1.58361,1.00242,17.6871,7.12502,26.5502,45.8464,-29.6006,-19.3898,28.8565,60.7886,33.4737,-29.3463,-5.12722,-38.4617,0.113028,-30.9232,43.5447,-39.9984,27.3739,5.49091
6.62901,15.8968,-35.4486,19.2907,-18.8012,-0.121067,-16.0561,1.68965,-3.61574,-5.58593,2.80755,-1.79725,2.96501,1.38252,0.661533,-14.2716,-2.8736,-2.28695,41.5869,-6.05103,4.56336,18.2007,-2.28515,1.3623,1.0548e-14,2.38542e-14,-38.2836,-9.89033,-77.6978,13.3189,8.91528,2.06281,13.4962,7.12502,27.5647,-14.5054,1.0548e-14,2.38542e-14,-41.3091,12.3235,72.6076,27.865,-1.5797,1.09249,17.7742,7.12502,26.6364,45.9204,-29.6706,-19.2483,28.8177,60.8576,32.3723,-30.7661,-0.144212,-38.4325,-0.267381,-30.8823,43.4963,-40.4995,27.2833,6.53006
6.62866,15.8973,-35.4661,19.4463,-18.4333,-0.137161,-15.3233,1.59106,-3.5701,-6.36999,2.59733,-1.6883,1.75189,1.30613,0.670577,-12.952,-2.87051,-2.67207,41.6638,-6.02823,4.75667,17.916,-2.3417,1.54593,3.38446e-14,-1.66979e-14,-39.4854,-9.09341,-77.7385,13.596,8.30277,1.90019,13.1524,7.12502,27.4091,-14.8739,3.38446e-14,-1.66979e-14,-42.4648,11.8853,72.5209,28.0369,-1.26728,1.08113,18.0898,7.12502,26.6255,46.2377,-30.003,-19.5219,29.1538,60.9322,31.8687,-31.4643,3.16191,-38.6813,-0.169354,-30.8433,43.5072,-40.0297,27.1559,6.09527
6.63263,15.8994,-35.4632,19.3748,-18.3194,0.0208772,-15.5112,1.48623,-3.74371,-5.71117,2.52198,-1.6303,2.53895,1.25307,0.83728,-14.7576,-2.91503,-2.44908,41.7095,-6.05985,4.54507,18.4145,-2.3046,1.37748,4.63417e-15,1.74931e-14,-38.0679,-8.77408,-78.1528,13.6918,7.79278,1.87115,12.6525,7.12502,27.3814,-15.3783,4.63417e-15,1.74931e-14,-41.0403,12.5157,72.8068,27.8506,-1.31364,0.786195,17.9934,7.12502,26.3432,46.1837,-30.0652,-19.9797,29.0763,60.999,32.524,-30.7631,3.8837,-38.6068,-0.242203,-30.9976,43.4707,-39.8149,27.3279,5.56124
6.63473,15.8973,-35.4615,19.33,-18.2741,0.0897559,-15.2333,1.44378,-3.7084,-6.13016,2.42614,-1.56658,1.95144,1.21947,0.850203,-13.8542,-2.86457,-2.63123,41.8124,-5.94302,4.54534,18.2295,-2.30778,1.44695,1.12686e-14,-7.15625e-15,-38.7609,-8.50629,-77.9683,13.7272,7.87074,1.85137,12.3904,7.12502,27.3624,-15.6434,1.12686e-14,-7.15625e-15,-41.9029,12.5348,72.6169,27.9213,-1.415,0.499571,17.787,7.12502,26.0688,46.0181,-30.0759,-20.2171,29.0457,61.0508,32.322,-30.9996,6.6058,-38.5764,-0.21783,-31.0888,43.4894,-39.674,27.3967,5.09334
6.63394,15.8958,-35.4666,19.3128,-18.3806,0.144122,-15.2052,1.5354,-3.76947,-6.15815,2.55391,-1.59661,1.90026,1.28481,0.872033,-13.7884,-3.00125,-2.61141,41.873,-6.18214,4.56314,18.2649,-2.39881,1.40787,-2.16831e-14,-1.74931e-14,-38.6937,-9.1182,-77.6155,13.5464,8.31822,1.89245,12.2021,7.12502,27.4017,-15.8254,-2.16831e-14,-1.74931e-14,-41.7779,12.6095,72.5175,27.6827,-1.65019,0.632749,17.3803,7.12502,26.1963,45.5926,-30.1392,-20.1734,29.0277,61.0752,31.8875,-31.6901,10.0213,-38.6881,-0.0470898,-31.2014,43.6636,-39.7317,27.3075,5.39904
6.6349,15.8942,-35.4742,19.3226,-18.4563,0.110373,-15.1372,1.62542,-3.73593,-6.20224,2.6628,-1.59449,1.81481,1.34072,0.869421,-13.8005,-3.0769,-2.46306,41.9759,-6.31693,4.45828,18.3268,-2.44153,1.30732,-5.60821e-14,-1.19271e-14,-38.6983,-9.63046,-77.3148,13.4676,8.70104,1.93314,12.5327,7.12502,27.4406,-15.4886,-5.60821e-14,-1.19271e-14,-41.6582,12.6699,72.4312,27.3245,-1.8302,0.540611,16.8043,7.12502,26.1081,45.0297,-30.1772,-20.1068,29.096,61.0766,31.2596,-32.4866,13.6593,-38.819,-0.0878604,-31.1782,43.8943,-39.9331,27.2675,5.85918
6.6325,15.9154,-35.4775,19.2553,-18.4449,0.134478,-15.3363,1.47127,-3.61666,-6.21578,2.44597,-1.45008,1.91394,1.23035,0.925127,-13.2783,-2.84432,-2.54803,41.9092,-5.86773,4.32789,18.1099,-2.30614,1.35309,2.36208e-14,6.75868e-15,-38.636,-9.20444,-77.2877,13.3279,8.78178,2.02311,13.0503,7.12502,27.5267,-14.9574,2.36208e-14,6.75868e-15,-42.0441,13.3053,72.1099,27.1443,-1.99743,0.505704,16.3746,7.12502,26.0747,44.6049,-30.0416,-20.1463,29.0601,60.9886,31.5605,-32.3566,15.0873,-38.5583,2.24772,-32.3827,44.2469,-37.1351,28.5111,-2.79847
6.63591,15.9179,-35.4736,19.2293,-18.4973,0.164732,-15.5635,1.43195,-3.54817,-5.90505,2.40559,-1.38273,2.36445,1.19969,0.964531,-14.1271,-2.75531,-2.35375,42.0377,-5.68404,4.08116,18.3858,-2.21516,1.22764,-7.92964e-15,-1.31198e-14,-37.8909,-9.61301,-77.0798,12.9929,9.30973,1.90971,13.4867,7.12502,27.4182,-14.5382,-7.92964e-15,-1.31198e-14,-41.4399,13.9269,72.0075,26.5839,-2.40531,0.487613,15.487,7.12502,26.0573,43.7198,-29.9707,-20.2033,28.9797,60.9788,32.3234,-31.6965,15.4403,-38.6011,2.06914,-32.3833,44.4406,-37.4086,28.5432,-2.35241
6.63737,15.9213,-35.4866,19.1885,-18.3099,0.390816,-15.5138,1.40384,-3.70254,-5.86336,2.39378,-1.45338,2.37859,1.19443,0.974584,-14.028,-2.80464,-2.34791,41.8689,-5.80711,4.21552,18.2709,-2.24682,1.26522,-1.43622e-14,-7.95139e-16,-37.7879,-10.1137,-76.8654,12.8754,9.63388,1.77592,13.7591,7.12502,27.2903,-14.286,-1.43622e-14,-7.95139e-16,-41.1152,13.5974,72.2384,26.5867,-2.4166,0.515242,15.6759,7.12502,26.0838,43.9048,-30.029,-20.3884,28.8596,60.9931,31.8394,-32.3547,18.5345,-38.7152,2.40807,-32.6748,44.5509,-37.1827,28.0303,-2.20616
6.63922,15.917,-35.496,19.2224,-18.1974,0.392685,-15.4454,1.4223,-3.67942,-5.90407,2.41001,-1.44489,2.29934,1.20442,0.970182,-14.1215,-2.82374,-2.21135,41.9904,-5.86455,4.1493,18.3646,-2.25303,1.19922,2.30652e-14,2.70347e-14,-37.7856,-10.1858,-76.8492,12.873,9.51601,1.72321,13.6547,7.12502,27.2398,-14.3984,2.30652e-14,2.70347e-14,-41.0229,13.1002,72.6375,26.7912,-2.19894,0.457815,16.6071,7.12502,26.0288,44.8441,-30.0985,-20.445,28.9184,61.0885,32.0156,-32.238,19.8817,-38.7481,2.39899,-32.6714,44.4692,-37.0879,27.89,-1.83826
6.64403,15.9134,-35.5016,19.1687,-18.083,0.360806,-15.4165,1.32283,-3.54163,-6.09318,2.24465,-1.30864,2.09139,1.12692,1.00319,-13.4764,-2.69889,-2.34523,42.0744,-5.60897,4.07823,18.2249,-2.1962,1.24892,5.05845e-14,-3.33958e-14,-38.1639,-9.88884,-76.6969,12.9158,9.60744,1.74122,13.5181,7.12502,27.2571,-14.5322,5.05845e-14,-3.33958e-14,-41.5798,13.0958,72.6909,26.9078,-2.12138,0.450056,17.4108,7.12502,26.0214,45.6489,-30.0242,-20.4939,28.9526,61.186,31.4141,-32.8386,22.8199,-38.6711,1.99579,-32.4347,44.278,-37.2175,27.8087,-0.68362
6.64615,15.9046,-35.5113,19.3096,-18.2857,0.235254,-15.3297,1.4121,-3.54432,-6.0401,2.35889,-1.2379,2.09341,1.18445,1.09581,-13.9113,-2.80862,-2.37064,42.1284,-5.77924,4.0886,18.3891,-2.25721,1.22084,-1.91237e-14,-1.43125e-14,-37.8799,-10.0321,-76.6888,12.9904,9.63016,1.76941,13.1944,7.12502,27.284,-14.8516,-1.91237e-14,-1.43125e-14,-41.2761,13.0259,72.8906,26.9032,-2.13869,0.57145,17.6815,7.12502,26.1376,45.9024,-30.2605,-20.2793,29.096,61.3431,31.5072,-32.9029,24.4531,-38.9117,1.39515,-31.9329,44.0617,-37.9837,27.5307,1.72955
6.65029,15.902,-35.5182,19.3945,-18.112,0.228831,-15.3048,1.37921,-3.49389,-6.06835,2.3063,-1.2288,2.05449,1.15885,1.06707,-13.8961,-2.8491,-2.19704,42.162,-5.87848,4.01986,18.4003,-2.27815,1.13837,1.17935e-14,-1.51076e-14,-37.8072,-10.1725,-76.741,13.0525,9.73558,1.75029,12.652,7.12502,27.2657,-15.397,1.17935e-14,-1.51076e-14,-41.2443,12.6501,73.1341,27.059,-1.97092,0.426495,17.9999,7.12502,25.9988,46.2414,-30.4425,-20.5987,29.2219,61.4375,32.0742,-32.4638,24.9144,-39.0393,0.399988,-31.4403,43.817,-38.753,27.2373,4.25115
6.65143,15.8978,-35.5295,19.4351,-18.3374,0.213691,-15.2229,1.47124,-3.56366,-6.10862,2.43166,-1.21449,1.95929,1.22441,1.13797,-13.9873,-2.88054,-2.09373,42.2128,-5.96842,4.01829,18.4577,-2.29465,1.10113,-1.37627e-14,-1.55052e-14,-37.7549,-10.7621,-76.4221,12.8614,10.3698,1.67967,12.6027,7.12502,27.1982,-15.4568,-1.37627e-14,-1.55052e-14,-41.197,12.4135,73.34,27.1297,-1.90406,0.443149,18.4106,7.12502,26.0148,46.6497,-30.5223,-20.1081,29.1909,61.5615,31.1401,-33.5442,28.3197,-39.1136,0.429539,-31.3958,43.6634,-38.9032,27.1249,4.9176
6.65931,15.8911,-35.5109,19.3313,-18.8775,0.0230073,-15.3183,1.74628,-3.27992,-6.05798,2.75966,-1.22635,2.06439,1.38147,1.02401,-14.0534,-2.93351,-2.03587,42.2484,-6.08198,4.03013,18.5029,-2.32674,1.07387,-3.89711e-14,-1.35174e-14,-37.765,-11.3474,-76.0494,12.5357,10.8376,1.44306,12.7891,7.12502,26.9718,-15.3057,-3.89711e-14,-1.35174e-14,-41.2837,12.3672,73.3499,27.0636,-2.07095,0.735308,18.3469,7.12502,26.2945,46.5445,-30.1891,-19.6631,28.9967,61.5727,30.8778,-33.8861,30.845,-38.8494,0.490149,-31.2891,43.5549,-39.4908,27.1913,5.51949
6.65594,15.8901,-35.5361,19.5203,-18.5354,0.117018,-14.997,1.49506,-3.65353,-5.89106,2.46949,-1.04017,2.05464,1.24338,1.37388,-15.6555,-2.93974,-1.80554,42.5548,-6.04473,3.69395,19.1107,-2.28192,0.856948,-2.34193e-14,-1.35174e-14,-36.888,-11.5913,-75.9537,12.2816,10.9753,1.43986,13.3783,7.12502,26.9688,-14.7169,-2.34193e-14,-1.35174e-14,-40.6294,12.7445,73.6408,26.8045,-2.28744,0.695039,17.9222,7.12502,26.2559,46.1256,-30.559,-19.775,29.2005,61.6431,30.6579,-34.2681,32.5909,-39.1884,0.657002,-31.3556,43.5271,-38.9217,27.0463,4.76288
6.66357,15.8904,-35.5046,19.2711,-19.2251,-0.00615281,-15.1969,1.60553,-3.39276,-5.94693,2.57723,-0.887847,2.10225,1.29397,1.40963,-14.8763,-2.75064,-2.07527,42.5397,-5.63417,3.64779,18.8667,-2.18946,0.977484,4.49471e-14,-1.15295e-14,-37.2429,-11.1005,-75.7901,12.2723,11.0891,1.51379,13.7507,7.12502,27.0395,-14.3336,4.49471e-14,-1.15295e-14,-41.3734,12.9011,73.674,26.7568,-2.3948,0.350932,17.406,7.12502,25.9265,45.658,-30.0113,-19.4315,28.7917,61.5951,31.9855,-33.1409,32.0897,-38.7342,0.608626,-31.3243,43.4804,-39.8311,27.2742,6.02154
6.66158,15.8947,-35.5164,19.356,-19.058,0.109019,-14.4894,1.58909,-3.61243,-6.59288,2.53284,-0.900176,1.03686,1.30085,1.47211,-14.3485,-2.7423,-1.95519,42.852,-5.70265,3.65327,18.9159,-2.20484,0.956837,-5.05503e-15,-1.27222e-14,-38.2515,-11.1352,-75.5561,12.2883,11.0464,1.32006,13.8607,7.12502,26.8541,-14.2522,-5.05503e-15,-1.27222e-14,-42.2411,12.2577,73.6762,26.625,-2.44038,0.253691,16.9796,7.12502,25.8333,45.2453,-30.143,-19.5483,28.7893,61.5955,32.3668,-32.9857,33.0262,-38.9222,1.12877,-31.5434,43.4604,-39.1534,27.1435,5.05729
6.66238,15.9008,-35.5207,19.5541,-18.9147,0.102895,-14.6483,1.48183,-3.57227,-6.86429,2.37948,-0.803077,0.840105,1.2303,1.5277,-13.4951,-2.67219,-1.99659,42.7116,-5.55953,3.61571,18.5797,-2.17953,0.984686,1.13369e-15,1.39149e-14,-38.6844,-11.3023,-75.166,12.173,11.404,1.32744,14.1482,7.12502,26.8612,-13.9636,1.13369e-15,1.39149e-14,-42.7917,12.2353,73.6493,26.4188,-2.62117,0.189133,16.6347,7.12502,25.7715,44.9093,-30.3133,-19.6576,28.9128,61.517,32.3592,-33.2271,34.8525,-39.1101,0.887949,-31.4795,43.4356,-39.221,27.3019,4.58486
6.66585,15.9023,-35.508,19.5427,-19.1428,-0.060941,-14.3728,1.63545,-3.38786,-7.09755,2.53843,-0.784571,0.447875,1.31497,1.45091,-13.1292,-2.77652,-2.02634,42.7546,-5.73991,3.64415,18.518,-2.2604,0.974812,-6.19525e-14,-5.96354e-15,-39.1701,-11.3141,-75.0181,12.1996,11.3455,1.20543,14.1262,7.12502,26.7444,-14.0035,-6.19525e-14,-5.96354e-15,-43.252,11.9199,73.7026,26.3559,-2.77623,0.279324,16.4928,7.12502,25.8579,44.7548,-30.0963,-19.5051,28.9083,61.4139,33.5633,-32.2126,34.4365,-39.0008,0.860046,-31.3372,43.4594,-39.5394,27.5095,4.16721
6.66886,15.9023,-35.5035,19.4401,-19.2948,-0.146796,-14.5418,1.70993,-3.1787,-6.70579,2.63195,-0.851162,0.960584,1.34437,1.29365,-13.7168,-2.77511,-1.83156,42.6286,-5.78898,3.64889,18.5971,-2.23563,0.921742,-1.08897e-14,2.38542e-15,-38.6058,-12.2675,-74.7564,12.0153,12.1631,1.12,14.2155,7.12502,26.6627,-13.9267,-1.08897e-14,2.38542e-15,-42.5661,12.0187,73.7519,26.1815,-2.96292,0.37043,16.2893,7.12502,25.9451,44.5386,-29.8508,-19.3589,28.8536,61.3218,34.1316,-31.853,35.1319,-38.8547,0.762274,-31.2396,43.4795,-39.8195,27.6418,4.34001
6.6704,15.9007,-35.5032,19.516,-19.38,-0.270864,-15.0618,1.50394,-2.84836,-6.86772,2.32114,-0.654358,1.08542,1.18255,1.2817,-12.1381,-2.41268,-2.31142,42.2621,-5.13977,3.85395,17.934,-2.06341,1.24353,-3.43152e-14,1.19271e-15,-39.0404,-12.0162,-74.3863,11.9036,12.8185,1.26185,14.5458,7.12502,26.7984,-13.5756,-3.43152e-14,1.19271e-15,-43.5286,12.4856,73.4613,26.3138,-3.02611,0.563904,16.5195,7.12502,26.1304,44.7415,-29.8477,-19.2029,28.9642,61.2575,31.3124,-32.7045,37.923,-38.9335,0.784117,-31.1364,43.552,-39.9043,27.5748,4.92149
6.67281,15.9027,-35.5052,19.4917,-19.2753,-0.306563,-14.9593,1.47427,-2.79989,-6.91276,2.27017,-0.616012,0.986292,1.15863,1.28244,-12.0292,-2.42896,-2.35077,42.217,-5.20117,3.96421,17.8884,-2.08227,1.29152,-1.36789e-14,1.19271e-14,-39.2143,-12.4493,-74.0501,11.8541,13.1802,1.34482,14.8875,7.12502,26.8778,-13.2218,-1.36789e-14,1.19271e-14,-43.6309,12.3146,73.5694,26.1872,-3.21879,0.694972,16.5916,7.12502,26.2559,44.795,-29.7796,-19.3506,29.0354,61.1872,30.8559,-32.5464,38.2144,-38.8896,0.733823,-31.0618,43.5368,-39.9245,27.3475,5.48768
6.66902,15.9051,-35.5109,20.098,-20.0294,-0.588035,-15.7197,1.74824,-2.5934,-6.87797,2.62641,-0.706612,1.42442,1.32272,1.15453,-12.0281,-2.4449,-2.30376,41.9878,-5.31365,4.17449,17.7672,-2.09344,1.35635,5.44359e-14,2.38542e-15,-39.0052,-12.4404,-74.4656,11.9301,12.8932,1.08798,14.9376,7.12502,26.6321,-13.2092,5.44359e-14,2.38542e-15,-43.3013,12.0196,73.6494,25.9968,-3.22236,0.821409,16.5142,7.12502,26.3769,44.6995,-30.3928,-18.6698,29.2562,61.2542,31.2334,-32.1351,37.3238,-39.6069,0.921384,-30.9031,43.6983,-40.5,27.3654,6.00141
6.67437,15.9077,-35.4988,19.5932,-19.3084,-0.286158,-15.0988,1.49963,-2.67411,-6.97139,2.29117,-0.718924,1.0074,1.16446,1.11085,-11.9339,-2.50076,-2.23157,42.1505,-5.40132,4.0748,17.8364,-2.13281,1.28461,-6.08405e-14,-9.14409e-15,-39.3595,-12.0909,-74.6369,12.0771,12.5298,0.861218,14.8909,7.12502,26.415,-13.2887,-6.08405e-14,-9.14409e-15,-43.7026,11.8038,73.6839,25.9541,-3.28061,1.04061,16.5424,7.12502,26.5867,44.6961,-29.7851,-19.6163,29.0082,61.1966,30.8148,-31.8592,36.7166,-38.9963,0.389843,-30.9909,43.5965,-40.4932,27.1939,5.59329
6.67101,15.9067,-35.5267,21.7491,-21.5306,-1.38516,-16.8443,2.29215,-2.26088,-7.31531,3.29964,-0.609273,1.53909,1.65062,1.21656,-12.1597,-2.54753,-2.11988,42.0445,-5.47535,4.01561,17.8307,-2.14912,1.21832,-3.27373e-14,-1.78906e-15,-39.0125,-12.1094,-74.8504,12.085,12.4314,0.978485,14.8901,7.12502,26.5273,-13.2726,-3.27373e-14,-1.78906e-15,-43.3756,11.9774,73.7013,25.7467,-3.64021,1.0176,16.4244,7.12502,26.5647,44.5814,-32.0167,-16.9644,29.9751,61.3663,30.9851,-32.2609,36.4022,-41.2982,1.02629,-30.377,43.6937,-41.6399,27.744,6.72138
6.67545,15.9077,-35.4948,19.6619,-19.3496,-0.204806,-15.4234,1.45702,-2.72311,-6.60123,2.26521,-0.771196,1.57095,1.14139,1.09807,-13.0351,-2.58826,-1.91092,42.2237,-5.57166,3.91264,18.1669,-2.14906,1.10534,1.38683e-14,1.19271e-15,-38.6566,-12.3938,-74.9437,11.9961,12.4697,0.968649,14.9715,7.12502,26.5178,-13.1926,1.38683e-14,1.19271e-15,-42.9839,11.9024,73.8916,25.6884,-3.79795,0.851599,16.7376,7.12502,26.4058,44.9186,-29.7724,-19.5909,28.9537,61.2264,28.976,-32.2588,37.3965,-38.9357,-0.384201,-30.9096,43.4487,-41.0407,27.5716,5.31877
6.67566,15.9082,-35.4957,19.6489,-19.3511,-0.155992,-15.352,1.46218,-2.72246,-6.65676,2.26944,-0.827092,1.47685,1.1444,1.03656,-12.9595,-2.5872,-1.78351,42.2195,-5.60673,3.8966,18.14,-2.14667,1.06902,-8.7223e-14,6.75868e-15,-38.7962,-12.163,-75.2302,12.0286,11.8782,0.777008,14.993,7.12502,26.3344,-13.1987,-8.7223e-14,6.75868e-15,-43.1315,11.833,73.8484,25.6429,-4.08858,1.00487,16.8631,7.12502,26.5525,45.0219,-29.7465,-19.7347,28.9281,61.2658,27.0393,-32.6588,37.7128,-38.9383,-0.599819,-30.9047,43.4655,-41.2152,27.6419,5.5383
6.67664,15.9083,-35.4959,19.666,-19.3622,-0.112793,-15.3773,1.47555,-2.69536,-6.65951,2.28588,-0.895966,1.49085,1.15091,0.952766,-12.9881,-2.58262,-1.65205,42.163,-5.66422,3.9547,18.1151,-2.14061,1.06051,-1.84621e-14,1.78906e-14,-38.8734,-12.1912,-75.3769,12.0379,11.585,0.719258,14.8713,7.12502,26.2791,-13.3286,-1.84621e-14,1.78906e-14,-43.1018,11.8406,73.7519,25.463,-4.26772,1.06941,16.7069,7.12502,26.6143,44.8564,-29.7089,-19.8439,28.9128,61.1955,25.4713,-33.3576,38.4688,-38.8934,-0.601861,-30.9482,43.2931,-41.1149,27.6345,5.63426
6.66999,15.9122,-35.507,20.3657,-20.0168,-0.491084,-15.8529,1.68399,-2.61129,-6.83393,2.553,-0.827414,1.54888,1.28235,1.03226,-13.0554,-2.5726,-1.59286,42.1399,-5.67661,3.97499,18.119,-2.13249,1.05559,1.76328e-14,-1.98785e-15,-38.9284,-12.2437,-75.4398,12.1337,11.5757,0.774609,14.4677,7.12502,26.3321,-13.7244,1.76328e-14,-1.98785e-15,-43.0919,11.7973,73.7944,25.3385,-4.35558,0.973162,16.6417,7.12502,26.5222,44.8052,-30.3761,-18.9974,29.3595,61.2747,25.2958,-34.021,39.5183,-39.7386,0.0322253,-30.7791,43.4793,-41.1063,27.5677,6.30368
6.68016,15.9094,-35.4773,19.6196,-19.644,-0.287669,-15.4523,1.58834,-2.45337,-6.55942,2.40625,-0.92008,1.64414,1.20371,0.815541,-13.1926,-2.61851,-1.50459,42.1365,-5.77297,3.95778,18.1551,-2.15704,1.01112,-4.41053e-14,-2.78299e-14,-38.9111,-12.4779,-75.4616,12.1317,11.7327,0.838243,14.4131,7.12502,26.393,-13.7698,-4.41053e-14,-2.78299e-14,-43.0245,11.7655,73.8044,25.2112,-4.47271,0.951686,16.5476,7.12502,26.5016,44.7142,-29.3451,-19.7582,28.9109,61.1906,26.8243,-33.6517,39.3344,-38.8069,-0.355555,-30.8925,43.4404,-41.3798,27.5,7.19879
6.672,15.9114,-35.5276,21.9045,-21.4278,-1.16553,-16.4905,2.11707,-2.54998,-6.98378,3.12044,-0.719409,1.70184,1.56242,1.22682,-14.6077,-2.69481,-1.30549,42.3197,-5.87382,3.71448,18.6391,-2.16554,0.821395,4.32667e-15,2.18663e-14,-38.2214,-13.602,-74.913,11.7909,13.0173,0.802235,15.0939,7.12502,26.3585,-13.0942,4.32667e-15,2.18663e-14,-42.2968,12.2175,73.9319,24.953,-4.75398,0.935359,16.5268,7.12502,26.486,44.6957,-31.949,-17.5125,30.0388,61.4086,29.5178,-33.4761,36.2347,-41.4696,0.578437,-30.4752,43.6179,-41.6928,27.8381,7.16745
6.67665,15.9139,-35.4971,19.9515,-19.3407,-0.270861,-15.0943,1.37167,-2.78371,-6.51101,2.15445,-0.772146,1.49361,1.08842,1.10532,-14.5162,-2.71952,-1.25201,42.3119,-5.92686,3.69857,18.6083,-2.18263,0.79491,-1.94662e-14,-7.55382e-15,-38.4451,-13.6952,-74.811,11.8156,13.1082,0.799315,15.2413,7.12502,26.3558,-12.9472,-1.94662e-14,-7.55382e-15,-42.4498,12.2275,73.9383,24.8589,-4.89417,0.987645,16.5792,7.12502,26.536,44.7406,-29.7308,-20.102,29.2625,61.2864,28.0237,-32.8397,37.2962,-39.211,-0.79062,-30.7245,43.4224,-41.2005,27.7649,5.9388
6.67225,15.9188,-35.504,20.6148,-20.0679,-0.64293,-15.8957,1.63899,-2.52389,-6.43098,2.49623,-0.822888,2.00344,1.24475,0.98938,-14.6924,-2.69349,-1.10584,42.1572,-5.93891,3.73572,18.5583,-2.15664,0.779246,2.18818e-15,-2.06736e-14,-38.1639,-13.7796,-75.1348,11.827,12.9552,0.627884,15.239,7.12502,26.1916,-12.974,2.18818e-15,-2.06736e-14,-42.0826,12.3218,73.8723,24.703,-5.17089,1.17969,16.6458,7.12502,26.7198,44.7793,-30.3692,-19.3633,29.6348,61.4019,28.0491,-32.6833,36.6121,-39.9205,-0.181128,-30.5719,43.4421,-41.3439,27.6888,6.80152
6.66859,15.9217,-35.5327,20.5243,-18.9135,-0.0104069,-15.4822,1.10401,-3.13879,-6.66489,1.86012,-0.812982,1.53568,0.946763,1.22352,-14.4356,-2.68832,-1.07455,42.182,-5.90809,3.65137,18.4945,-2.1568,0.74373,1.61458e-14,1.63003e-14,-38.452,-13.3612,-75.2877,11.9413,12.405,0.670389,15.2123,7.12502,26.2323,-12.9946,1.61458e-14,1.63003e-14,-42.389,12.0989,74.0038,24.7277,-5.2343,1.14839,16.6668,7.12502,26.6899,44.8048,-30.5847,-20.4178,29.6444,61.3987,27.5212,-33.2414,36.6483,-40.015,0.0989488,-31.1361,43.2401,-39.6333,27.2101,5.47682
