JuanDHNZ/ProyectoFinalCD/preprocessing/sports_trials_csv/05_03.csv
root1,root2,root3,root4,root5,root6,lowerback1,lowerback2,lowerback3,upperback1,upperback2,upperback3,thorax1,thorax2,thorax3,lowerneck1,lowerneck2,lowerneck3,upperneck1,upperneck2,upperneck3,head1,head2,head3,rclavicle1,rclavicle2,rhumerus1,rhumerus2,rhumerus3,rradius1,rwrist1,rhand1,rhand2,rfingers1,rthumb1,rthumb2,lclavicle1,lclavicle2,lhumerus1,lhumerus2,lhumerus3,lradius1,lwrist1,lhand1,lhand2,lfingers1,lthumb1,lthumb2,rfemur1,rfemur2,rfemur3,rtibia1,rfoot1,rfoot2,rtoes1,lfemur1,lfemur2,lfemur3,ltibia1,lfoot1,lfoot2,ltoes1
2.4417,16.1603,15.5875,19.8173,-15.2011,0.802894,-3.06823,-1.45417,-1.018,-8.69768,-2.13344,-1.71454,-7.39208,-1.08886,-1.15084,-11.6214,0.201341,-0.457073,37.6742,-2.44723,6.61176,15.2118,-0.341663,2.45669,6.9059e-14,2.14687e-14,-77.0454,-60.7767,25.6997,10.4109,66.7725,3.54465,14.4129,7.12502,28.9809,-13.3542,6.9059e-14,2.14687e-14,11.7659,44.7267,81.4409,30.8575,32.0787,17.4911,22.743,7.12502,42.1911,47.2687,-68.2557,8.93785,20.0671,43.669,17.3081,-20.6841,7.70088,-21.906,-18.8516,-26.2964,39.4693,-28.4161,8.80612,-17.0706
2.47187,16.2164,15.4742,19.9075,-15.7986,0.722433,-2.9719,-1.56736,-1.04973,-8.77785,-2.29047,-1.64882,-7.53374,-1.16326,-1.05503,-11.7571,-0.226885,-0.590157,38.0284,-3.07718,6.49541,15.4573,-0.648646,2.34311,3.57564e-14,-9.54166e-15,-79.6971,-61.2335,28.1462,10.3022,67.7562,2.72276,14.36,7.12502,28.1956,-13.5393,3.57564e-14,-9.54166e-15,9.92623,46.3195,80.6994,30.2251,31.3284,17.3749,28.5637,7.12502,42.0822,53.1262,-68.4475,9.29331,19.3611,43.2403,16.3642,-21.543,11.0942,-21.8154,-18.5953,-26.2132,38.3101,-28.0578,9.79531,-19.3731
2.50393,16.2524,15.3405,19.998,-16.401,0.758289,-2.79388,-1.73676,-1.23649,-8.76871,-2.52521,-1.58978,-7.6195,-1.26511,-0.874763,-11.9453,-0.763199,-1.13269,38.1753,-3.86225,6.69361,15.6399,-1.03892,2.40364,-2.11209e-16,-3.18055e-15,-74.464,-60.8377,21.323,10.1905,63.4905,1.33433,12.5894,7.12502,26.8678,-15.5214,-2.11209e-16,-3.18055e-15,9.08349,48.6209,80.5283,29.0244,29.6138,17.1646,23.1357,7.12502,41.8851,47.7641,-68.75,9.39379,18.8281,42.952,14.5636,-22.7852,16.6489,-22.0784,-17.95,-26.2044,37.492,-27.7881,9.91756,-20.017
2.535,16.2926,15.2063,20.0686,-16.9311,0.789538,-2.65752,-1.94705,-1.40658,-8.67886,-2.81214,-1.54828,-7.59309,-1.39494,-0.7219,-11.804,-1.2736,-2.11073,37.9461,-4.69584,7.53335,15.6002,-1.43801,2.79815,-2.21645e-14,-9.54166e-15,-87.5663,-62.9336,35.3809,10.0911,70.5147,0.757573,13.4587,7.12502,26.3158,-14.7358,-2.21645e-14,-9.54166e-15,8.31698,50.47,80.2914,28.0817,28.6275,14.4827,20.1945,7.12502,39.3645,45.6091,-68.9441,9.12852,18.7553,42.7309,13.4771,-22.918,18.4934,-22.2909,-17.6188,-26.1783,36.6286,-27.7272,9.90989,-19.7421
2.56077,16.3369,15.0845,20.1298,-17.3828,0.852406,-2.67356,-2.15865,-1.62362,-8.53545,-3.09627,-1.52965,-7.41709,-1.52238,-0.574004,-12.2064,-1.81444,-2.61246,38.0527,-5.58571,7.95457,15.861,-1.83082,2.9284,-3.27001e-14,-2.38542e-14,-98.0984,-63.4751,46.187,10.0327,75.1058,-0.13018,13.9287,7.12502,25.4657,-14.3899,-3.27001e-14,-2.38542e-14,7.74157,52.1003,80.2211,27.3425,28.0217,14.4549,19.0351,7.12502,39.3383,44.4574,-69.0199,8.6933,18.8844,42.6038,15.2104,-22.5945,14.6919,-22.4345,-17.6419,-26.189,35.922,-27.6721,10.8029,-21.4095
2.59402,16.3745,14.9617,19.9756,-17.6272,0.948749,-2.41402,-2.39202,-1.6784,-8.37305,-3.41563,-1.5468,-7.38926,-1.67801,-0.541203,-12.0696,-2.27109,-2.95611,37.9376,-6.28696,8.16691,15.8543,-2.16248,2.95904,-2.06736e-14,3.26007e-14,-109.649,-62.8014,58.1486,10.0336,80.0672,-1.08268,14.1524,7.12502,24.553,-14.2933,-2.06736e-14,3.26007e-14,8.31444,55.4958,81.0807,25.6011,25.1929,16.8546,16.807,7.12502,41.5944,41.5315,-68.8234,8.021,19.0335,42.599,16.6593,-21.5828,9.86331,-22.3908,-17.7574,-26.2733,35.2747,-27.3283,11.6194,-20.3052
2.60754,16.3902,14.8207,19.7061,-18.4045,1.38866,-1.97045,-2.4964,-2.56493,-8.31353,-3.59354,-1.58362,-7.53363,-1.70587,-0.0616337,-11.8518,-2.81658,-3.38716,37.765,-7.10037,8.39301,15.8196,-2.5554,2.99051,-5.24046e-14,4.77083e-15,-125.762,-59.1513,75.5432,10.2984,88.8914,-2.17298,14.5986,7.12502,23.5075,-13.9851,-5.24046e-14,4.77083e-15,4.29623,52.5863,78.7468,27.2928,28.5604,14.4237,20.4187,7.12502,39.3089,45.8495,-68.9115,9.08929,17.4502,42.6945,15.2549,-23.5076,13.4323,-22.5789,-17.4463,-26.689,34.7164,-27.0255,11.7926,-18.8138
2.63666,16.4165,14.7096,19.6863,-18.8941,1.42819,-1.88833,-2.66174,-2.73003,-8.36042,-3.82093,-1.4657,-7.61117,-1.80254,0.168139,-11.2283,-3.29879,-4.11508,37.5216,-7.79868,8.77912,15.6699,-2.9372,3.16729,-2.50717e-14,-3.33958e-14,-135.844,-54.5408,86.7406,10.5904,96.321,-3.21797,15.2496,7.12502,22.5048,-13.459,-2.50717e-14,-3.33958e-14,3.60816,54.8741,78.8517,26.4108,27.3151,13.0816,20.9481,7.12502,38.0429,46.7357,-68.8875,8.57953,17.7316,42.8885,16.7215,-22.6762,9.67563,-22.7617,-17.3892,-26.744,34.2546,-27.2749,11.5299,-15.2037
2.66581,16.4357,14.587,19.5471,-19.4844,1.54329,-1.51802,-2.85543,-3.04483,-8.37682,-4.10483,-1.37628,-7.81245,-1.91485,0.469091,-10.7638,-3.72129,-4.84377,37.3879,-8.46931,9.26939,15.6321,-3.29134,3.39879,3.23771e-14,1.51076e-14,-140.331,-51.9179,91.2734,10.7064,99.9737,-3.95639,15.6943,7.12502,21.7958,-13.0984,3.23771e-14,1.51076e-14,2.81313,57.5698,78.6837,25.3806,24.874,13.067,20.7623,7.12502,38.0291,46.5536,-68.8587,8.53887,17.5485,43.1194,17.4605,-22.2585,6.66517,-22.9247,-17.0812,-26.959,33.9395,-27.3356,11.6234,-13.0238
2.6955,16.455,14.461,19.2193,-20.0688,1.62748,-0.89179,-3.05205,-3.31433,-8.33639,-4.40441,-1.30643,-8.10179,-2.03508,0.741774,-10.4887,-4.13045,-5.38964,37.4218,-9.13226,9.59548,15.7155,-3.63087,3.53142,-1.72197e-14,-7.15625e-15,-143.667,-49.6806,94.3218,10.8084,102.655,-4.92894,15.6888,7.12502,20.8617,-13.2095,-1.72197e-14,-7.15625e-15,2.27114,63.4914,78.6058,23.0549,16.6366,17.8899,16.1354,7.12502,42.5645,40.5335,-68.5534,8.9221,17.034,43.3135,16.8156,-22.8534,7.81119,-23.0046,-16.6553,-27.1838,33.7498,-27.0405,12.2676,-14.3638
2.72526,16.4745,14.3414,18.9647,-20.6348,1.55608,-0.382259,-3.19392,-3.42945,-8.29353,-4.61614,-1.17811,-8.32674,-2.12054,0.982383,-10.0973,-4.56772,-5.96401,37.3972,-9.8004,9.84448,15.7463,-3.99059,3.6339,-4.89507e-15,1.03368e-14,-147.633,-46.0401,98.4242,11.0979,106.479,-6.11992,15.7502,7.12502,19.7171,-13.2698,-4.89507e-15,1.03368e-14,0.0930833,62.0345,77.545,24.0544,20.4978,13.3741,19.4676,7.12502,38.319,45.1793,-68.134,9.06126,16.947,43.4019,15.8768,-23.3869,10.5153,-23.2223,-16.2374,-27.2072,33.7143,-26.8663,12.6366,-14.5007
2.75496,16.4915,14.229,19.0021,-21.3558,1.40506,-0.247367,-3.27375,-3.48864,-8.27222,-4.72305,-1.02571,-8.36047,-2.16234,1.18925,-9.8013,-5.08156,-6.84842,37.4277,-10.6078,10.3143,15.8983,-4.42366,3.86709,5.96354e-14,3.49861e-14,-151.46,-41.4362,102.577,11.6477,111.239,-7.04351,16.6179,7.12502,18.829,-12.4908,5.96354e-14,3.49861e-14,-0.972048,64.9936,77.0408,22.5225,17.0375,14.2526,17.3715,7.12502,39.1477,42.8491,-67.9576,9.2318,16.9515,43.3836,15.0132,-23.7845,12.0688,-23.7389,-15.5942,-27.141,33.788,-26.8736,12.5354,-12.9088
2.78479,16.5139,14.1192,19.0755,-22.0952,1.15081,-0.118498,-3.30944,-3.42371,-8.19618,-4.76476,-0.919787,-8.34565,-2.18389,1.27292,-9.44162,-5.67321,-7.91906,37.2608,-11.6142,11.1377,16.0309,-4.93098,4.24915,4.5969e-14,3.49861e-14,-155.203,-35.4547,106.693,12.6787,117.149,-7.85872,18.1545,7.12502,18.0448,-11.0284,4.5969e-14,3.49861e-14,-4.62294,62.8804,75.1726,23.708,18.0071,14.6282,16.1034,7.12502,39.5016,41.4779,-67.6821,9.52163,17.0415,43.299,13.6683,-24.3929,13.9826,-24.2458,-14.9734,-26.9538,33.899,-26.8175,12.4698,-11.3202
2.81549,16.5392,14.0063,18.9684,-22.8099,1.00393,0.311225,-3.36499,-3.43938,-8.15536,-4.85666,-0.858982,-8.54253,-2.22016,1.37922,-8.87575,-6.14498,-8.58089,36.8071,-12.429,11.7656,15.9059,-5.33432,4.49349,-1.76918e-14,6.36111e-15,-152.808,-40.1356,102.391,11.4993,110.254,-8.31776,17.2262,7.12502,17.6031,-11.9969,-1.76918e-14,6.36111e-15,-4.32867,68.6972,75.2381,21.1936,12.231,15.2929,14.6211,7.12502,40.1272,39.8087,-67.2314,9.95321,16.9065,43.2403,11.9087,-25.0464,15.6058,-24.6032,-14.5891,-26.8336,33.9583,-26.6327,12.709,-10.3128
2.84977,16.5611,13.904,19.0363,-23.6276,0.871067,0.491106,-3.43877,-3.46857,-8.21028,-4.9598,-0.698698,-8.68746,-2.25873,1.58548,-8.47952,-6.44341,-9.06933,36.4236,-12.9365,12.1867,15.7842,-5.59951,4.66779,-5.85421e-14,-2.22639e-14,-154.169,-38.5345,103.266,11.3845,110.821,-9.39019,17.1971,7.12502,16.5708,-12.1154,-5.85421e-14,-2.22639e-14,-5.6072,71.0846,74.5843,20.4625,11.0953,13.4987,15.2579,7.12502,38.4367,40.937,-66.9171,10.029,17.054,43.1932,11.1083,-24.7692,12.5587,-25.0959,-14.0971,-26.7713,34.0327,-26.5061,12.9644,-9.44445
2.88906,16.583,13.825,19.223,-24.4598,0.803153,0.428336,-3.58827,-3.40757,-8.40314,-5.15474,-0.506417,-8.84136,-2.34861,1.77153,-7.96223,-6.73959,-9.58768,36.6436,-13.369,12.0961,15.8847,-5.90168,4.66531,3.22528e-14,3.81667e-14,-156.314,-34.9738,105.465,11.8606,114.263,-10.008,18.1145,7.12502,15.976,-11.2467,3.22528e-14,3.81667e-14,-8.91914,69.2413,72.6543,21.2168,14.5907,10.5414,16.8673,7.12502,35.6397,43.2715,-66.5642,9.26037,17.7609,43.179,11.3899,-23.4998,6.82544,-25.6012,-13.6114,-26.8538,34.1139,-26.3705,13.3086,-9.55329
2.92415,16.5934,13.7171,19.3494,-25.4007,0.834311,1.23643,-3.89023,-3.90049,-9.06318,-5.63612,-0.0349035,-9.94428,-2.48978,2.67342,-7.44437,-6.94349,-10.2032,37.3609,-13.6118,11.6272,16.1832,-6.18531,4.56638,-1.73937e-14,-1.19271e-14,-156.95,-33.7638,106.094,12.0904,116.213,-10.296,18.7016,7.12502,15.6986,-10.6816,-1.73937e-14,-1.19271e-14,-16.2548,76.0644,65.3675,19.0497,9.29808,10.1556,16.2139,7.12502,35.2739,42.7055,-66.3247,9.20492,17.8005,43.1235,10.0653,-23.9343,7.05489,-26.3052,-12.8306,-26.992,34.3245,-26.1512,13.451,-9.90692
2.95721,16.6083,13.6242,19.56,-26.4738,0.616316,1.89924,-4.265,-4.24776,-9.71232,-6.1899,0.623067,-10.9371,-2.65821,3.71136,-6.64858,-6.94053,-10.8696,37.7763,-13.5035,11.1636,16.2006,-6.34444,4.53548,-1.09176e-14,-4.77083e-15,-157.608,-33.3637,106.352,12.0841,117.042,-11.471,18.6626,7.12502,14.5667,-10.8059,-1.09176e-14,-4.77083e-15,-26.9299,77.0194,55.8911,19.4313,9.03978,9.60237,16.6778,7.12502,34.7491,43.2921,-65.9318,8.86607,18.4941,43.1237,7.06546,-24.7799,12.657,-26.8975,-12.0056,-26.9596,34.4724,-26.0749,13.6875,-9.99728
2.98212,16.6159,13.5239,19.8809,-27.7165,0.370972,1.36052,-4.20094,-4.12127,-9.44714,-6.06186,0.529402,-10.3415,-2.64039,3.46242,-6.52668,-7.31811,-10.8806,37.4254,-14.2153,11.5048,16.1556,-6.62416,4.54641,3.70733e-14,-2.06736e-14,-157.908,-35.0156,104.168,11.2709,111.118,-14.033,16.9056,7.12502,12.0972,-12.7247,3.70733e-14,-2.06736e-14,-42.6952,82.6945,39.5301,17.4631,2.75583,9.76306,15.7137,7.12502,34.9016,42.2927,-65.6496,9.13322,18.7864,43.101,4.76098,-25.3768,13.877,-27.7014,-11.1299,-26.8385,34.6858,-26.0681,13.9558,-9.44727
3.01198,16.6367,13.4586,20.0538,-28.881,0.385861,-0.367813,-3.81453,-3.47695,-8.43638,-5.41734,-0.164339,-8.3572,-2.48103,2.12515,-7.23036,-8.14186,-10.7146,36.808,-15.677,12.2815,16.3576,-7.09684,4.533,4.94228e-14,1.19271e-14,-159.367,-34.0587,103.375,11.023,108.157,-15.106,17.1413,7.12502,11.0625,-12.5472,4.94228e-14,1.19271e-14,-19.1614,75.2266,64.9751,19.9312,10.5027,7.73184,17.8625,7.12502,32.972,44.8686,-65.1517,8.64394,19.1461,43.1527,3.16267,-25.5102,12.7352,-28.1791,-10.8006,-27.0179,34.8098,-26.4046,14.3691,-8.15072
3.04239,16.6536,13.3794,20.4492,-29.9768,0.0130664,-0.0266277,-4.19628,-3.48421,-9.14246,-5.94063,0.544208,-9.23562,-2.68259,2.97342,-6.3994,-7.97483,-11.8407,37.2792,-15.3234,12.0196,16.4274,-7.19673,4.73092,-4.16951e-14,1.59028e-15,-159.746,-33.6177,103.571,10.8371,109.36,-15.8606,17.7811,7.12502,10.3346,-11.9449,-4.16951e-14,1.59028e-15,-60.1408,83.8739,23.3998,17.0876,2.17751,8.04845,16.3871,7.12502,33.2731,43.3293,-64.7447,8.88396,19.2538,43.1722,0.191048,-26.8385,13.7723,-28.8104,-10.6244,-26.7273,34.9385,-26.8396,14.809,-5.74571
3.06896,16.6654,13.2962,20.869,-31.19,-0.377433,-1.34803,-3.55073,-2.64085,-8.06398,-4.98955,-0.340763,-7.48177,-2.361,1.36828,-7.17423,-9.09653,-10.6703,36.3538,-17.3563,12.7137,16.483,-7.77327,4.36138,-6.79844e-14,1.66979e-14,-162.316,-29.0176,104.077,11.519,110.502,-16.7074,18.4114,7.12502,9.51763,-11.3536,-6.79844e-14,1.66979e-14,-25.3112,81.0572,58.993,18.1026,6.5129,5.70234,18.6465,7.12502,31.0397,46.0404,-64.3824,9.44286,19.1546,43.2177,-2.31752,-27.8347,14.8713,-29.4647,-10.25,-26.4317,34.9869,-27.2694,15.1578,-3.24309
3.09343,16.6827,13.2205,21.0651,-32.5203,-0.578786,-1.15581,-3.51071,-2.74276,-8.267,-4.95045,-0.196304,-7.79545,-2.32366,1.59644,-6.87353,-9.42292,-10.3154,36.4671,-17.7968,12.1072,16.4146,-8.00073,3.95622,1.43125e-14,2.54444e-14,-162.875,-28.0414,103.721,11.6439,110.676,-17.663,18.589,7.12502,8.59558,-11.216,1.43125e-14,2.54444e-14,-29.1534,80.6412,56.0647,18.4569,8.14472,4.41999,19.9877,7.12502,29.8166,47.608,-63.8283,9.92781,18.8814,43.2626,-4.76061,-28.3356,16.6498,-29.928,-9.81193,-26.3799,35.0561,-27.565,15.8684,-2.93104
3.11624,16.6982,13.1439,21.1249,-33.7811,-0.619166,-1.24728,-3.32179,-2.83852,-8.17892,-4.70306,-0.338606,-7.66162,-2.20404,1.47881,-7.05487,-9.89401,-9.21015,36.5014,-18.4743,11.3308,16.3324,-8.2146,3.28302,-8.24956e-15,7.15625e-15,-162.376,-30.2834,101.574,10.9267,106.418,-18.4949,18.3826,7.12502,7.79264,-11.4538,-8.24956e-15,7.15625e-15,-21.3158,73.803,65.9955,20.775,15.7808,2.25546,21.8083,7.12502,27.7489,49.7804,-63.2473,10.2677,18.459,43.3396,-7.31245,-29.135,17.8221,-30.2604,-9.37175,-26.4991,35.1022,-27.58,16.6426,-3.60291
3.14048,16.7079,13.06,21.2184,-35.0129,-0.525289,-1.39213,-3.22204,-3.04043,-8.13483,-4.57451,-0.407495,-7.52629,-2.13394,1.50086,-7.29781,-10.1851,-8.47664,36.4307,-18.9374,10.972,16.2757,-8.34413,2.8975,-6.21699e-14,-3.73715e-14,-162.803,-30.2007,100.702,10.6634,104.884,-19.2098,18.9243,7.12502,7.10259,-10.9365,-6.21699e-14,-3.73715e-14,-21.3934,72.8334,67.0043,21.2741,17.3378,1.39163,22.3448,7.12502,26.9226,50.4472,-62.8258,10.6817,17.7529,43.4464,-10.0691,-30.1467,18.0211,-30.7343,-8.97497,-26.6909,35.125,-27.6316,17.1968,-2.60939
3.16533,16.7188,12.9724,21.3973,-36.2716,-0.566104,-1.3806,-3.17243,-3.21775,-8.24312,-4.51552,-0.293597,-7.63222,-2.08739,1.72014,-7.20429,-10.3884,-8.92344,36.5122,-19.4174,11.3773,16.504,-8.57302,3.04924,2.68359e-15,1.51076e-14,-163.95,-28.4496,100.718,11.1884,105.367,-20.1578,19.7955,7.12502,6.18743,-10.0942,2.68359e-15,1.51076e-14,-23.2533,73.1846,66.0138,20.9445,17.522,0.851624,22.018,7.12502,26.4058,50.199,-62.4058,11.2006,17.0936,43.5118,-13.1361,-30.9995,18.9698,-31.283,-8.41359,-26.7493,35.1907,-27.7448,17.6311,-1.79843
3.19186,16.7361,12.8904,21.6944,-37.2851,-0.901588,-1.39497,-3.28093,-3.09571,-8.34725,-4.64471,0.0384861,-7.7118,-2.14648,2.00882,-6.74018,-10.5008,-10.305,36.5886,-19.81,12.2575,16.8505,-8.8663,3.60009,-3.47376e-14,2.62396e-14,-164.094,-29.5363,99.724,10.5809,103.74,-21.3753,19.6699,7.12502,5.01195,-10.2509,-3.47376e-14,2.62396e-14,-26.199,74.0177,64.0558,20.7257,17.3421,0.636759,21.3896,7.12502,26.2001,49.6013,-61.808,11.4467,16.8406,43.5332,-16.9658,-31.3037,24.1411,-31.7848,-8.08426,-26.4613,35.2968,-27.7066,18.3647,-2.20626
3.21775,16.7507,12.8147,22.0587,-38.3506,-1.33501,-1.53523,-3.20171,-2.72742,-8.23706,-4.51739,0.0614441,-7.53985,-2.11266,1.80997,-6.79583,-10.8015,-10.6439,36.551,-20.5267,12.8522,17.1448,-9.1548,3.75492,-8.4732e-14,-4.37326e-14,-164.865,-28.7429,99.13,10.6743,103.687,-21.8495,20.3148,7.12502,4.55405,-9.61625,-8.4732e-14,-4.37326e-14,-26.6549,74.6897,64.0695,20.2177,16.6148,0.323956,20.9048,7.12502,25.9006,49.1606,-61.1337,11.2544,17.0103,43.5427,-19.5394,-31.4373,29.0595,-32.2268,-7.77423,-26.1115,35.3972,-27.7619,19.1245,-2.53315
3.23951,16.7624,12.7409,22.4877,-39.8557,-1.51798,-1.99335,-3.11051,-2.7317,-8.22012,-4.3793,0.122184,-7.25737,-2.0509,1.83932,-6.73219,-10.917,-10.731,36.3868,-20.8032,13.0827,17.15,-9.27386,3.80678,7.53394e-14,1.43125e-14,-166.258,-26.0661,99.3569,11.4179,105.777,-22.1795,21.5848,7.12502,4.23548,-8.3528,7.53394e-14,1.43125e-14,-27.265,74.8114,64.1294,20.1068,16.7323,0.273442,20.8376,7.12502,25.8523,49.1005,-60.7783,10.8637,17.1064,43.6017,-19.4774,-32.1122,22.7716,-32.8254,-7.39931,-26.0672,35.4422,-27.9314,20.0523,-2.97001
3.26141,16.7794,12.6652,22.9182,-41.2907,-1.77569,-2.53146,-3.06047,-2.64243,-8.14161,-4.28545,0.257557,-6.86157,-2.01658,1.88994,-6.61347,-10.9789,-10.6469,36.1374,-20.904,13.0994,16.9912,-9.32272,3.7763,-9.98893e-15,-1.27222e-14,-166.741,-26.4273,98.5208,11.0627,104.641,-23.1999,21.6487,7.12502,3.25008,-8.30629,-9.98893e-15,-1.27222e-14,-28.4265,75.3638,63.7712,19.7686,16.3491,0.13592,19.7713,7.12502,25.7206,48.0533,-60.3652,11.0245,16.7131,43.7297,-22.2264,-32.047,24.2162,-33.3464,-6.78303,-25.9875,35.4388,-28.3199,20.4488,-2.76541
3.28572,16.794,12.5937,23.2113,-42.5767,-1.92964,-2.86734,-3.05512,-2.53084,-8.13413,-4.26576,0.343283,-6.66222,-2.01771,1.89529,-6.46213,-11.0326,-9.96953,35.9204,-20.8994,12.6212,16.6403,-9.3037,3.46306,1.85367e-14,-7.95139e-15,-166.988,-26.9389,97.476,10.6054,103.203,-24.4642,21.2474,7.12502,2.02908,-8.72266,1.85367e-14,-7.95139e-15,-29.7453,75.7524,63.1697,19.1864,15.8083,-0.0794448,18.5148,7.12502,25.5143,46.8265,-59.8291,11.1219,16.1619,43.8871,-25.7212,-31.4129,28.897,-33.7752,-6.15585,-25.9904,35.4272,-28.8183,20.4407,-1.3877
3.31126,16.801,12.521,23.3965,-44.0136,-1.87074,-2.92748,-3.05547,-2.77691,-8.32312,-4.27173,0.526651,-6.80244,-1.99854,2.22679,-6.28455,-11.0682,-9.65585,35.8305,-20.8167,12.104,16.3898,-9.30349,3.21698,2.3556e-14,-2.62396e-14,-167.136,-25.3888,96.966,9.73872,104.307,-26.1867,21.307,7.12502,0.365456,-8.67245,2.3556e-14,-2.62396e-14,-28.9888,74.2143,65.0873,19.3162,17.1141,-0.841799,18.6836,7.12502,24.7838,47.0977,-59.4109,10.5628,15.9178,44.0218,-25.835,-31.8337,28.3098,-34.2478,-5.50534,-26.2275,35.4487,-29.0137,20.8197,-1.02287
3.33892,16.8077,12.4414,23.8424,-45.4575,-2.06287,-2.92095,-3.04694,-2.93868,-8.60217,-4.26548,0.825739,-7.07729,-1.97068,2.64135,-5.81604,-11.1391,-10.2277,35.6643,-20.9388,12.2789,16.3253,-9.45344,3.3814,-8.69683e-14,-2.54444e-14,-168.11,-24.0338,96.9032,10.7325,105.477,-26.3393,22.2674,7.12502,0.218064,-7.71223,-8.69683e-14,-2.54444e-14,-28.224,72.6838,66.9476,19.2998,18.2419,-1.77825,19.0647,7.12502,23.8861,47.5993,-59.0958,10.3419,15.5779,44.0711,-26.6015,-32.3234,28.0435,-34.8929,-4.8762,-26.2392,35.5577,-29.4196,21.1556,-0.0932017
3.36416,16.8203,12.3668,24.5004,-46.8554,-2.63452,-3.05461,-3.06869,-2.76057,-8.66465,-4.28271,1.08169,-7.05946,-1.98503,2.80483,-5.47351,-10.808,-12.6348,35.7019,-21.0849,14.5335,17.0884,-9.65227,4.74981,-9.50936e-14,-5.96354e-14,-168.824,-22.7325,96.3014,10.8248,106.696,-27.0916,22.8515,7.12502,-0.508588,-7.12761,-9.50936e-14,-5.96354e-14,-29.7617,74.2077,65.7298,18.6776,16.2601,-2.22348,19.0188,7.12502,23.459,47.6086,-58.5909,10.5796,15.1245,44.0594,-29.7469,-31.5282,31.5797,-35.474,-4.37313,-25.8997,35.7212,-30.4082,21.0598,2.90877
3.38329,16.8269,12.2965,25.1332,-48.3821,-3.28466,-3.21689,-3.06377,-2.60787,-8.61231,-4.26089,1.30622,-6.90363,-1.98231,2.94119,-5.84269,-10.5753,-12.4255,35.8318,-20.8039,14.5484,17.1584,-9.49314,4.7664,-8.3415e-14,2.34566e-14,-169.403,-22.0391,95.4105,10.3842,107.043,-28.3834,23.108,7.12502,-1.75624,-6.86452,-8.3415e-14,2.34566e-14,-25.473,70.4845,71.4364,20.4195,19.6309,-3.42756,21.2128,7.12502,22.3036,49.9456,-57.9931,11.1251,14.5522,43.9673,-32.4835,-30.8797,34.9091,-35.9558,-3.86439,-25.5537,35.9243,-31.434,21.1666,5.47847
3.40307,16.8313,12.2266,25.4896,-49.9612,-3.66227,-3.19898,-2.97132,-2.66186,-8.58935,-4.13219,1.47337,-6.88238,-1.91064,3.1437,-5.80575,-10.5226,-12.6725,35.6311,-20.7435,14.7511,17.0991,-9.49391,4.90456,1.61264e-14,-3.57812e-15,-170.299,-20.853,94.7532,11.028,107.516,-29.0869,24.14,7.12502,-2.43568,-5.82581,1.61264e-14,-3.57812e-15,-22.8021,67.75,74.9971,20.5434,21.2959,-4.5511,22.7995,7.12502,21.2247,51.6575,-57.3498,11.2073,14.1331,43.8433,-33.0763,-31.8987,34.0517,-36.318,-3.44901,-25.4306,36.1137,-32.3178,21.6077,7.11567
3.42618,16.8413,12.1641,26.1147,-51.2164,-4.25353,-3.24105,-2.7922,-2.30589,-8.70026,-3.88535,1.66346,-7.00404,-1.80353,3.14337,-5.42827,-10.5169,-13.1729,35.3589,-20.8137,15.1427,17.0224,-9.58811,5.16063,-4.86774e-14,-2.90226e-14,-170.024,-21.42,93.6611,10.1086,106.124,-30.3295,24.5726,7.12502,-3.6357,-5.37614,-4.86774e-14,-2.90226e-14,-22.5354,66.6024,76.9772,22.5393,20.7559,-4.80502,25.6001,7.12502,20.9807,54.4853,-56.7059,10.7783,14.06,43.6925,-33.2168,-33.0312,34.5639,-36.7323,-3.56354,-25.0007,36.2683,-33.2544,22.3325,8.42933
3.44646,16.8521,12.1002,26.7561,-52.4878,-4.79425,-3.39035,-2.58737,-2.00763,-8.78757,-3.60353,1.82979,-7.03828,-1.67876,3.14174,-5.04811,-10.6578,-13.4772,35.0718,-21.0024,15.2056,16.8721,-9.7311,5.2046,3.96078e-14,-6.12257e-14,-170.729,-18.5271,93.5774,10.7515,108.091,-31.341,25.6117,7.12502,-4.6124,-4.31804,3.96078e-14,-6.12257e-14,-21.423,64.5313,79.628,24.3602,20.6435,-4.85417,28.1885,7.12502,20.9335,57.0789,-56.1225,10.3981,13.8043,43.5567,-34.0346,-33.1679,37.7193,-37.1747,-3.73741,-24.5774,36.3854,-34.0497,23.1916,9.27031
3.46146,16.8624,12.0347,27.0619,-53.9641,-5.04475,-3.53729,-2.46964,-2.04289,-8.71502,-3.43973,1.93712,-6.87793,-1.59608,3.25931,-5.52983,-11.0682,-11.4532,35.0884,-21.2302,13.4488,16.4011,-9.6926,4.00894,4.59441e-14,3.06128e-14,-171.228,-17.3228,92.9528,10.7745,108.481,-32.1671,26.4981,7.12502,-5.41002,-3.41289,4.59441e-14,3.06128e-14,-17.4358,59.9924,83.0256,21.5069,22.8327,-4.9806,29.0365,7.12502,20.812,57.9403,-55.5193,9.94184,13.3806,43.5967,-35.2206,-32.9282,38.759,-37.3695,-3.49794,-24.5131,36.3189,-34.6748,23.7456,10.3469
3.47743,16.872,11.9704,27.5732,-55.3281,-5.53137,-3.73376,-2.33416,-1.81495,-8.60109,-3.24928,2.03156,-6.66035,-1.51877,3.21253,-5.84102,-11.0421,-11.2162,35.1543,-21.2189,13.3633,16.4567,-9.64951,3.91588,-2.32081e-14,-4.77083e-15,-171.731,-16.2445,92.1362,10.6438,108.838,-33.376,27.3586,7.12502,-6.57722,-2.51928,-2.32081e-14,-4.77083e-15,-15.8993,58.3313,85.0982,21.3512,22.2739,-4.4354,29.0172,7.12502,21.3358,57.8626,-54.8478,9.33399,13.1977,43.5257,-35.8432,-33.5745,37.5269,-37.6315,-2.78107,-24.4466,36.3734,-35.2898,23.5989,12.1251
3.49639,16.9085,11.9089,27.8947,-56.7326,-5.74056,-3.95661,-2.10343,-1.67721,-8.55227,-2.93696,2.07602,-6.50457,-1.375,3.16512,-5.79537,-11.0539,-11.539,35.001,-21.2788,13.6289,16.4738,-9.69744,4.06709,-2.16054e-14,-1.31198e-14,-172.159,-14.3611,91.653,10.7692,110.041,-34.777,28.5164,7.12502,-7.92953,-1.31491,-2.16054e-14,-1.31198e-14,-14.7177,56.5929,87.1245,20.9039,21.5511,-3.72931,27.6507,7.12502,22.0139,56.4179,-53.8242,11.5544,10.3135,43.6033,-46.7854,-23.842,49.8202,-37.8225,-1.99492,-24.6067,36.2914,-35.6108,23.7403,12.772
3.50522,16.8848,11.8509,28.3363,-58.2143,-6.12275,-4.13968,-1.80978,-1.48517,-8.53369,-2.54498,2.0668,-6.41286,-1.19525,3.03525,-5.52129,-10.8803,-12.1096,34.7957,-21.2197,14.3653,16.5118,-9.70511,4.50667,6.1586e-14,8.74653e-15,-172.407,-13.378,90.9185,11.0208,110.138,-35.386,29.3563,7.12502,-8.51732,-0.451883,6.1586e-14,8.74653e-15,-13.8613,55.087,88.6752,20.4586,19.9342,-4.62694,26.3208,7.12502,21.1518,55.1869,-53.6837,8.86564,11.87,43.3871,-37.7386,-34.6367,38.2441,-38.0635,-1.70008,-24.5602,36.3772,-36.3299,24.3705,12.9035
3.51884,16.8991,11.7887,28.7761,-59.6699,-6.49503,-4.23312,-1.68318,-1.46775,-8.54668,-2.37157,2.26656,-6.3778,-1.10599,3.23022,-5.57169,-11.0823,-11.41,34.7932,-21.2999,13.465,16.2619,-9.73283,3.97861,-6.83943e-14,-1.15295e-14,-172.618,-11.6715,90.3533,10.773,111.738,-35.5966,29.4904,7.12502,-8.72058,-0.309409,-6.83943e-14,-1.15295e-14,-13.1634,53.7894,90.0568,19.9703,17.9507,-3.88805,25.8838,7.12502,21.8615,54.6688,-53.0231,9.14202,10.7936,43.2427,-41.9816,-32.3897,43.4033,-38.238,-1.65299,-24.4115,36.3658,-37.5382,24.6284,14.7488
3.53196,16.912,11.7243,29.2944,-60.9878,-6.85877,-4.34688,-1.68143,-1.53048,-8.61475,-2.36063,2.67439,-6.37115,-1.08656,3.69206,-5.57234,-10.9695,-11.5984,34.8336,-20.939,13.0454,16.1589,-9.64611,3.90484,-7.26139e-14,2.52208e-14,-172.801,-10.1271,89.9179,10.4785,113.699,-36.4849,29.6431,7.12502,-9.57769,-0.119213,-7.26139e-14,2.52208e-14,-12.4023,53.0609,91.5706,19.2705,15.8972,-2.99803,25.4293,7.12502,22.7159,54.1121,-52.3668,8.72599,10.1245,42.9116,-44.7591,-30.7812,44.7005,-38.599,-1.18173,-24.3704,36.4792,-38.2915,24.594,16.1869
3.53864,16.9247,11.6663,30.3329,-62.2167,-7.79766,-4.65512,-1.37626,-1.10826,-8.52459,-1.9521,2.7548,-6.13715,-0.912237,3.5227,-5.56143,-11.0463,-11.5824,34.6521,-21.0998,13.1964,16.118,-9.70109,3.92845,1.27207e-14,5.09386e-15,-173.447,-11.0482,88.7727,11.3277,112.099,-36.9628,30.9628,7.12502,-10.0388,1.22225,1.27207e-14,5.09386e-15,-10.7852,50.1666,93.527,17.9807,14.8175,-3.5443,24.2314,7.12502,22.1915,52.9776,-51.7734,8.01552,10.0239,42.6711,-46.0218,-30.5562,45.6849,-38.833,-0.677363,-24.0567,36.4271,-38.7418,24.9197,16.5296
3.5435,16.9397,11.6054,31.1543,-63.4386,-8.61991,-4.90115,-0.870202,-0.655494,-8.31726,-1.28334,2.5157,-5.83075,-0.616279,3.00269,-5.53613,-11.3075,-11.1723,34.3007,-21.6477,13.5268,16.0396,-9.85594,3.88107,2.66503e-14,5.35476e-15,-173.881,-7.24406,88.4,11.0897,115.358,-36.7628,31.9616,7.12502,-9.84577,2.21182,2.66503e-14,5.35476e-15,-9.18853,44.2478,95.4772,16.6888,15.8821,-5.32214,22.8173,7.12502,20.4839,51.7567,-51.0765,7.5892,9.64575,42.4467,-47.8596,-30.0513,47.5357,-38.8639,-0.418963,-23.7634,36.3228,-39.4214,25.3062,17.3926
3.55251,16.953,11.5452,31.2238,-64.7015,-8.5766,-5.04127,-0.619838,-0.620865,-8.19466,-0.954016,2.35801,-5.64045,-0.460558,2.81247,-5.59311,-11.3569,-10.8046,34.0708,-21.7659,13.5987,15.9164,-9.85616,3.81978,4.94741e-14,-1.9133e-14,-174.118,-5.38029,87.6609,10.7606,117.306,-36.4826,32.3399,7.12502,-9.57543,2.5775,4.94741e-14,-1.9133e-14,-8.14893,39.0958,96.9926,16.106,16.8347,-6.21247,22.9929,7.12502,19.6281,52.0221,-50.4137,6.81534,8.8629,42.272,-51.2974,-26.9341,52.114,-38.897,-0.0715877,-23.9675,36.1579,-39.9089,25.5368,18.631
3.56016,16.9621,11.4859,31.1885,-65.7856,-8.3738,-5.11371,-0.512855,-0.628007,-8.19622,-0.814231,2.37228,-5.60857,-0.391727,2.83074,-5.78564,-11.4,-10.2833,34.1431,-21.7536,13.1311,15.8315,-9.8204,3.5326,3.08365e-14,-1.42131e-14,-174.18,-4.4117,86.8781,10.5066,118.509,-38.0499,32.2244,7.12502,-11.0874,2.53725,3.08365e-14,-1.42131e-14,-7.35043,36.6444,98.0629,15.6229,14.7624,-4.82223,24.4139,7.12502,20.9642,53.3009,-49.7348,5.9642,8.10851,42.152,-54.9513,-22.6166,55.8996,-38.9647,0.35679,-24.2369,35.9129,-40.2699,25.6362,19.3342
3.56725,16.9777,11.425,31.503,-66.7232,-8.505,-5.2245,-0.467736,-0.707376,-8.2445,-0.748522,2.72543,-5.59896,-0.346425,3.24523,-5.80077,-11.4331,-9.98104,34.1115,-21.5407,12.3931,15.5995,-9.76339,3.22343,3.91357e-14,-8.34896e-15,-174.302,-3.07731,86.626,10.693,120.998,-39.689,31.9383,7.12502,-12.668,2.34254,3.91357e-14,-8.34896e-15,-6.74099,33.4812,99.4052,15.2142,13.3593,-4.26199,24.9829,7.12502,21.5024,53.8094,-49.0492,5.27099,7.45365,42.0383,-56.8234,-20.8258,56.2473,-39.0906,0.75239,-24.3039,35.6645,-40.6586,25.6038,20.4338
3.56778,16.9936,11.3646,31.6159,-67.803,-8.43982,-5.50954,-0.429446,-0.562952,-8.17216,-0.704761,2.79176,-5.36366,-0.335985,3.22782,-5.66279,-11.179,-10.4286,34.0172,-21.2066,12.7249,15.5827,-9.65886,3.50709,-1.45361e-14,-2.42517e-14,-174.584,-2.23706,85.7486,10.848,123.053,-40.4066,31.6228,7.12502,-13.3597,2.07109,-1.45361e-14,-2.42517e-14,-6.1433,27.6149,100.389,15.0296,14.4622,-5.31242,25.4623,7.12502,20.4932,54.4007,-48.4296,4.34895,6.76641,41.846,-58.0768,-20.2705,56.3187,-39.1747,1.09285,-24.4564,35.529,-41.2123,25.6097,21.4684
3.57334,17.001,11.2946,32.3358,-68.8114,-8.99124,-5.6524,-0.221037,-0.32102,-8.11878,-0.431887,2.9268,-5.24324,-0.212011,3.23316,-5.6555,-11.2097,-10.6092,33.9397,-21.2319,12.7635,15.5782,-9.68754,3.54459,-3.87133e-14,-2.50469e-14,-174.849,-1.25785,85.0864,10.692,124.814,-41.2027,31.7558,7.12502,-14.1269,2.25604,-3.87133e-14,-2.50469e-14,-5.64881,20.7384,101.593,15.0224,15.6688,-5.64409,26.6965,7.12502,20.1745,55.6689,-48.1162,3.78287,6.38663,41.6172,-60.1342,-19.3924,57.2575,-39.4021,1.35809,-24.2612,35.4661,-41.8722,25.5505,22.6143
3.58951,17.0055,11.221,34.0157,-69.444,-10.5369,-5.58756,0.0346709,0.354321,-8.12132,-0.100205,3.14384,-5.30192,-0.079241,3.08499,-5.65585,-11.3225,-10.6026,33.6769,-21.3984,12.8893,15.4976,-9.74623,3.55658,-3.67752e-14,1.63003e-14,-174.97,-1.27214,84.3951,10.3081,125.475,-41.7573,31.9577,7.12502,-14.6613,2.49603,-3.67752e-14,1.63003e-14,-5.58827,12.3233,102.808,15.6723,18.0227,-5.87685,27.8249,7.12502,19.9507,56.8208,-47.8805,3.10606,6.6702,41.3617,-61.9936,-18.7558,57.9107,-39.7906,1.60331,-23.5898,35.4319,-42.3163,25.543,23.8637
3.6002,17.007,11.1646,33.8299,-70.0885,-10.2363,-5.57024,0.094544,0.546107,-8.04269,-0.0229492,3.21006,-5.23152,-0.0500864,3.04597,-5.72166,-11.3239,-10.3177,33.3939,-21.3334,12.8103,15.3053,-9.69133,3.48526,1.46604e-14,7.55382e-15,-174.017,-23.3403,80.5553,8.71569,103.986,-40.1194,28.7796,7.12502,-13.0829,-0.790013,1.46604e-14,7.55382e-15,-5.69809,3.81518,103.752,16.8264,20.6061,-6.29054,28.855,7.12502,19.553,57.8918,-47.356,0.810159,6.73635,41.173,-61.8553,-19.8628,58.0786,-39.8991,1.62649,-23.676,35.3617,-42.6955,25.493,24.9979
3.59552,17.0177,11.0914,33.4602,-71.2178,-9.75929,-5.83843,0.31483,0.408064,-7.82594,0.266161,3.12763,-4.86383,0.0992913,3.03642,-5.72474,-11.3342,-10.1714,33.0704,-21.3329,12.9345,15.1478,-9.6651,3.50942,3.29983e-14,5.56597e-15,-171.532,-45.0927,75.3196,7.40182,82.8485,-39.3054,26.6399,7.12502,-12.2982,-2.97843,3.29983e-14,5.56597e-15,-5.93367,-5.47792,104.44,18.6271,24.0345,-7.32916,30.5211,7.12502,18.5542,59.6563,-46.8532,-0.148037,6.01145,41.0454,-62.7421,-19.5185,58.645,-39.841,1.69486,-23.865,35.2556,-43.4508,25.5371,25.6392
3.59654,17.0226,11.0114,33.2562,-72.1343,-9.48204,-5.79228,0.489443,0.525956,-7.75307,0.494491,2.9659,-4.81968,0.203474,2.8034,-5.73523,-11.3566,-9.74062,32.9255,-21.4277,12.9549,15.0403,-9.65889,3.43018,-5.54609e-14,-3.18055e-15,-162.743,-66.2898,63.8602,6.33576,61.591,-39.3247,25.8726,7.12502,-12.3167,-3.74463,-5.54609e-14,-3.18055e-15,-6.60066,-14.4642,104.815,21.1147,28.0252,-8.65493,32.5985,7.12502,17.2786,61.8504,-46.3218,-0.583274,5.37796,40.9559,-64.3149,-17.0578,59.4861,-39.7799,1.2971,-23.6764,35.086,-44.6213,25.3701,27.1785
3.59853,17.0188,10.9316,32.9127,-73.0061,-9.05817,-5.67005,0.59534,0.44965,-7.72843,0.640319,2.96069,-4.86995,0.280707,2.84225,-5.75719,-11.3228,-9.45996,32.8217,-21.3963,12.9231,14.9454,-9.61915,3.37831,-1.99779e-14,3.18055e-14,-95.0923,-81.951,-6.31311,6.2017,41.0561,-38.8427,24.0909,7.12502,-11.8519,-5.55372,-1.99779e-14,3.18055e-14,-7.34219,-21.8574,105.336,23.6652,31.3192,-8.92397,33.8996,7.12502,17.0196,63.174,-45.9342,-2.31886,5.38145,40.8437,-64.301,-15.9578,60.0494,-39.7356,1.14539,-23.617,34.8778,-45.2797,25.4827,28.0917
3.59891,17.0266,10.8606,33.2325,-73.6004,-9.4242,-5.55,0.926456,0.929647,-7.62366,1.07498,2.87275,-4.83435,0.472004,2.48446,-5.71748,-11.4408,-9.2453,32.5346,-21.6438,13.1692,14.8541,-9.68236,3.39496,3.94588e-14,-1.59028e-15,-24.2548,-67.515,-79.706,7.28479,21.1753,-37.8433,20.983,7.12502,-10.8881,-8.71476,3.94588e-14,-1.59028e-15,-8.28403,-29.3737,106.099,26.6236,34.9643,-9.20441,34.6117,7.12502,16.7497,63.9092,-45.5522,-3.32435,5.27997,40.7802,-65.1749,-16.3552,60.4252,-39.5968,1.36552,-23.4287,34.635,-45.1269,26.0998,27.6741
3.59721,17.0348,10.7753,32.0591,-74.2836,-8.43511,-5.19872,1.09759,0.792393,-7.49654,1.32099,2.8285,-4.90828,0.6049,2.51244,-5.64994,-11.4974,-9.31095,32.3592,-21.7952,13.4367,14.8366,-9.73502,3.48494,3.37934e-15,-9.54166e-15,-14.9744,-46.664,-91.7174,8.8377,0.297179,-37.5407,19.1949,7.12502,-10.5963,-10.518,3.37934e-15,-9.54166e-15,-9.2751,-35.9629,106.723,30.0137,39.216,-10.8306,35.6692,7.12502,15.1837,65.0921,-44.4207,-1.30428,3.04322,40.7605,-68.7668,-12.6803,61.0935,-39.2508,1.99269,-23.7947,34.3574,-44.6203,26.4344,27.2964
3.59377,17.027,10.6741,28.6884,-75.2723,-5.18177,-4.7388,0.791865,-0.573223,-7.4346,0.957529,3.2308,-5.12645,0.509728,3.69468,-5.61269,-11.1827,-9.8996,32.4539,-21.1958,13.3087,14.8252,-9.55864,3.64832,4.73108e-14,3.10104e-14,-12.9017,-23.9435,-97.2138,11.0946,-21.4695,-38.1366,18.305,7.12502,-11.171,-11.3776,4.73108e-14,3.10104e-14,-10.1077,-41.0951,106.657,34.1709,44.3237,-12.7942,36.7854,7.12502,13.2916,66.3415,-44.0364,-2.37253,2.07344,40.8507,-68.7875,-12.7893,61.1478,-38.8699,2.40634,-24.7163,34.0675,-44.5175,26.4742,27.9514
3.5915,17.0199,10.5801,27.0911,-76.1914,-3.58133,-4.49359,0.465811,-1.29209,-7.42298,0.543414,3.797,-5.24789,0.356584,4.69766,-5.42856,-10.7569,-10.4248,32.4109,-20.3417,13.0273,14.6343,-9.29576,3.79787,1.75924e-14,-2.38542e-15,-13.4105,-8.47606,-100.049,13.8345,-34.7258,-37.5375,16.3351,7.12502,-10.5932,-13.3779,1.75924e-14,-2.38542e-15,-10.3573,-43.1394,107.317,36.7327,46.8849,-13.8698,36.3326,7.12502,12.2546,65.9535,-44.0453,-4.1558,2.05048,40.9402,-68.2295,-13.6322,61.1009,-38.6645,2.15904,-24.8512,33.818,-45.5394,26.4005,29.501
3.59042,17.0156,10.4933,26.4673,-77.1325,-2.8895,-4.38185,0.569573,-1.27552,-7.35119,0.681851,3.72668,-5.24543,0.423072,4.61231,-5.50158,-10.6165,-9.96907,32.3257,-20.1968,13.0444,14.5291,-9.1813,3.75609,1.78906e-15,5.56597e-15,-14.2866,2.3176,-102.583,17.1471,-44.5945,-39.5239,15.1122,7.12502,-12.5088,-14.4934,1.78906e-15,5.56597e-15,-11.0107,-46.8411,107.292,40.1349,50.1055,-14.7123,35.6929,7.12502,11.4422,65.3606,-44.1125,-5.32629,1.96846,41.0421,-68.1648,-14.1069,61.216,-38.6108,2.08114,-24.8128,33.6683,-46.547,26.5215,30.047
3.58883,17.0115,10.4046,25.2794,-78.0935,-1.58902,-4.31899,0.873124,-1.27847,-7.18287,1.08432,3.30499,-5.12559,0.613922,4.16532,-6.01078,-10.7326,-8.67293,32.2954,-20.5149,12.9054,14.4954,-9.15344,3.40195,3.04141e-14,3.18055e-14,-15.1436,10.6242,-104.861,20.992,-53.1781,-36.979,11.6361,7.12502,-10.0544,-18.1037,3.04141e-14,3.18055e-14,-11.4432,-50.6144,106.955,43.5414,52.9642,-15.2154,35.5395,7.12502,10.957,65.2336,-44.1922,-6.01698,1.64038,41.1351,-68.259,-14.3395,61.2751,-38.6475,2.22671,-24.9603,33.5892,-47.2548,26.7191,30.1505
3.58431,17.0066,10.3102,24.5997,-78.9835,-0.837359,-4.21619,1.0267,-1.36242,-7.07192,1.29283,3.2746,-5.08495,0.721875,4.17807,-6.37237,-10.7403,-7.61254,32.3216,-20.4978,12.3731,14.3662,-9.05594,3.00628,1.81888e-14,-2.38542e-15,-16.436,17.7504,-106.524,25.0663,-59.9968,-39.1798,10.1715,7.12502,-12.1771,-19.454,1.81888e-14,-2.38542e-15,-11.7756,-52.7869,106.954,46.5702,54.2977,-13.5271,34.8203,7.12502,12.5851,64.4212,-44.3048,-6.72101,1.58841,41.268,-67.8732,-14.8493,61.3602,-38.7017,2.78558,-25.0385,33.5393,-47.5174,26.656,30.4955
3.57683,17.004,10.209,22.7513,-80.0035,1.07099,-4.0519,1.07162,-2.05289,-7.04734,1.36763,3.62785,-5.1948,0.806454,4.94016,-6.38677,-10.603,-7.47971,32.3563,-20.1557,11.9445,14.2497,-8.93441,2.8817,7.35503e-15,2.8625e-14,-17.7429,23.4324,-107.465,28.1258,-64.7267,-39.5368,8.54444,7.12502,-12.5212,-21.0604,7.35503e-15,2.8625e-14,-12.4694,-53.876,107.538,49.4249,54.9599,-9.86922,32.1212,7.12502,16.1096,61.4716,-44.569,-7.98247,1.72137,41.4844,-66.9028,-16.0558,61.3101,-38.7107,3.60649,-25.3921,33.498,-47.5495,26.6277,30.8403
3.56616,17.0001,10.1048,20.3663,-81.0425,3.48055,-3.92758,1.18984,-2.41205,-6.94376,1.53169,3.66764,-5.18748,0.908643,5.18293,-6.47387,-10.4202,-7.26767,32.3383,-19.8826,11.87,14.1837,-8.79682,2.86489,2.00773e-14,2.22639e-14,-19.0649,29.0191,-108.705,31.2884,-69.347,-39.9126,7.38101,7.12502,-12.8835,-22.2013,2.00773e-14,2.22639e-14,-13.3157,-55.6163,107.476,52.779,56.244,-10.0037,31.7566,7.12502,15.9801,61.1174,-44.9261,-9.62631,2.13729,41.7002,-65.764,-16.5119,61.362,-38.6502,4.08915,-25.6067,33.4812,-48.079,26.6533,31.1814
3.56406,16.9915,9.99827,19.2928,-81.8068,4.59488,-3.77944,1.20381,-2.42469,-6.78409,1.55683,3.89216,-5.11387,0.925167,5.42514,-6.64713,-10.1991,-7.24993,32.2117,-19.4534,11.7647,14.0837,-8.61091,2.8877,-4.17448e-15,6.36111e-15,-20.4829,34.8867,-109.912,34.6824,-73.8907,-41.1491,6.58693,7.12502,-14.0753,-22.9164,-4.17448e-15,6.36111e-15,-13.6156,-56.7403,107.072,55.9723,57.4264,-8.69474,30.9171,7.12502,17.2403,60.1723,-45.2733,-10.422,2.55275,41.9343,-65.6404,-15.2483,61.5895,-38.7586,4.16878,-25.3624,33.6177,-49.04,26.4011,31.8801
3.57009,16.9835,9.90574,18.6446,-82.2285,5.35247,-3.61698,1.46393,-1.96917,-6.66984,1.90211,3.73789,-5.09679,1.07052,4.9944,-6.78019,-10.305,-6.61191,31.85,-19.6923,11.9288,13.9319,-8.62391,2.7987,-3.06128e-14,-3.49861e-14,-20.4239,36.7345,-109.927,37.3471,-76.9595,-40.3353,3.97705,7.12502,-13.291,-25.5791,-3.06128e-14,-3.49861e-14,-14.087,-59.1711,106.671,59.0951,58.7992,-6.19902,29.6249,7.12502,19.641,58.6527,-45.342,-10.0167,2.47689,41.9916,-66.4855,-13.7693,61.6732,-38.9794,3.90894,-24.9864,33.7542,-50.1285,25.6666,33.4817
3.5572,16.9644,9.78303,20.2975,-83.2148,3.60662,-3.43406,1.62122,-1.93741,-6.43351,2.12145,4.05578,-4.9873,1.18332,5.30594,-7.07305,-10.0717,-6.53566,31.7549,-19.3633,12.064,13.9184,-8.44233,2.87929,-4.13472e-14,-2.54444e-14,-21.3205,40.7369,-110.665,40.2389,-79.9712,-41.0101,3.57983,7.12502,-13.9413,-25.9328,-4.13472e-14,-2.54444e-14,-14.1592,-60.2595,105.964,61.8521,59.7339,-1.68024,22.7652,7.12502,23.98,51.2874,-46.3072,-14.2493,4.91784,42.1984,-60.8956,-21.0241,60.7373,-38.9575,4.40364,-24.3287,34.0182,-51.262,24.6519,35.0777
3.55792,16.9621,9.68846,17.9102,-83.5671,6.21575,-3.29304,1.66739,-1.86142,-6.41008,2.18475,4.11992,-5.04916,1.21345,5.32635,-7.38767,-9.93311,-6.18994,31.7906,-19.1715,11.9529,13.9218,-8.30974,2.79722,7.95139e-16,3.65764e-14,-21.702,44.1664,-111.06,42.6178,-83.3343,-40.9703,3.55551,7.12502,-13.903,-25.9597,7.95139e-16,3.65764e-14,-14.5375,-61.3001,105.989,64.1578,60.5402,-3.11719,25.2082,7.12502,22.6015,53.905,-46.1402,-11.8346,3.81131,42.3904,-62.8166,-17.2578,60.8389,-39.1999,3.71472,-24.0233,34.1374,-52.5847,24.1662,35.9827
3.55375,16.9272,9.57662,9.25746,-84.1495,15.4257,-3.47769,1.70116,-2.52729,-6.45318,2.22932,3.96312,-5.02014,1.26555,5.54338,-7.5123,-9.76987,-5.8101,31.6904,-18.9591,11.9338,13.8307,-8.17261,2.76016,-8.54774e-15,-2.06736e-14,-22.7465,47.4124,-111.223,45.8666,-86.9957,-40.2816,2.92142,7.12502,-13.2392,-26.6381,-8.54774e-15,-2.06736e-14,-15.3954,-62.4282,105.921,66.6921,61.0248,-3.31813,24.8402,7.12502,22.4086,53.5603,-47.7327,-15.6605,4.91232,42.9414,-57.2132,-22.553,59.6202,-39.7869,3.38831,-24.5376,34.2746,-53.4582,23.9694,36.7041
3.53765,16.8981,9.46401,-4.95271,-84.6969,30.3962,-4.02753,1.64708,-3.59684,-6.47317,2.16501,3.79438,-4.76817,1.27614,5.99011,-7.70618,-9.52135,-5.335,31.5973,-18.5766,11.7637,13.7061,-7.96363,2.67458,-6.24184e-14,-2.22639e-14,-23.254,48.8809,-111.363,47.9681,-88.256,-38.659,1.5878,7.12502,-11.6748,-28.0669,-6.24184e-14,-2.22639e-14,-16.1629,-63.3993,105.466,69.4925,61.6964,-1.15347,23.0791,7.12502,24.4851,51.534,-49.3452,-17.38,4.93992,43.5858,-52.9895,-26.7408,57.9472,-40.4134,3.76992,-25.6855,34.1843,-53.3882,24.3406,36.38
3.52334,16.8619,9.34699,-22.6034,-84.8495,48.168,-3.93711,1.46364,-4.87396,-6.31362,1.93816,3.74656,-4.67974,1.22141,6.67188,-8.01161,-9.1057,-4.72185,31.7178,-17.9387,11.3531,13.6275,-7.64366,2.51176,4.25399e-14,3.49861e-14,-24.25,51.121,-111.811,50.3873,-89.544,-36.909,0.535497,7.12502,-9.98685,-29.2076,4.25399e-14,3.49861e-14,-16.6119,-63.49,104.977,71.71,62.0134,1.40574,21.6386,7.12502,26.9361,49.7388,-50.4706,-19.0297,4.91412,44.4291,-48.0716,-30.3084,55.8082,-40.3407,4.45952,-26.9365,34.1019,-52.917,24.9592,35.6216
3.51887,16.8248,9.22699,-40.5103,-84.2501,65.8523,-3.31322,1.26516,-6.36416,-6.1275,1.66947,3.56455,-4.85541,1.16231,7.32564,-8.24104,-8.69346,-4.07234,31.8255,-17.3845,11.0937,13.5625,-7.34692,2.38907,-2.38542e-15,1.74931e-14,-25.0516,53.2425,-112.1,52.7926,-90.8167,-35.2479,0.245658,7.12502,-8.38399,-29.5679,-2.38542e-15,1.74931e-14,-17.4586,-63.5525,104.77,73.7595,62.116,4.4255,20.0466,7.12502,29.8219,47.666,-51.1886,-20.2835,4.48906,45.226,-44.7956,-31.7238,54.1583,-39.8592,4.3931,-28.1323,34.0331,-53.6021,24.8888,36.0456
3.51839,16.7946,9.10709,-46.1831,-83.5179,71.8648,-3.08849,1.10703,-6.83284,-6.22475,1.43884,3.34233,-5.05848,1.0748,7.35696,-8.27641,-8.53265,-3.0399,31.66,-17.174,10.7093,13.3273,-7.18885,2.10854,-1.27222e-14,-1.43125e-14,-25.5823,54.8451,-112.075,55.1893,-91.904,-33.4915,-0.220345,7.12502,-6.6887,-30.0947,-1.27222e-14,-1.43125e-14,-18.8173,-64.3992,104.733,76.1858,62.0995,6.9335,19.5123,7.12502,32.2124,46.6754,-52.3364,-21.542,5.02893,45.8822,-43.4433,-31.9319,52.9735,-40.1637,3.34711,-28.3647,34.092,-55.0671,24.2173,37.2242
3.50772,16.7658,8.99116,-47.4318,-83.3451,73.2953,-2.98039,0.992242,-6.49183,-6.20833,1.27999,3.37933,-5.05966,0.978568,7.20149,-8.29733,-8.14045,-3.32726,31.6389,-16.9042,11.6519,13.4426,-7.00638,2.5589,2.62396e-14,3.02153e-14,-26.1638,56.4778,-111.909,57.5332,-92.4147,-31.4831,-0.825854,7.12502,-4.74965,-30.7526,2.62396e-14,3.02153e-14,-19.9583,-65.0443,104.63,78.5276,61.5171,9.25298,18.9483,7.12502,34.4175,45.6384,-53.3222,-23.0649,6.60329,46.3693,-40.9683,-33.1298,50.8612,-40.3987,2.48709,-27.8194,34.2916,-56.2827,23.7396,37.8023
3.48334,16.7471,8.85708,-53.2545,-83.5934,78.7457,-2.68454,0.995888,-6.50947,-5.85884,1.29292,3.65302,-4.86695,0.979998,7.5017,-8.17431,-7.81356,-2.84039,31.254,-16.4752,11.8034,13.1763,-6.77168,2.61012,2.38542e-14,-6.36111e-15,-26.7279,58.2657,-111.565,59.7713,-92.3674,-29.0653,-1.30666,7.12502,-2.41481,-31.2727,2.38542e-14,-6.36111e-15,-20.4581,-65.5104,103.858,80.8438,61.0068,12.803,17.6497,7.12502,37.7798,43.5085,-53.6776,-23.7932,8.09246,46.6874,-37.9771,-34.6765,47.9944,-39.9729,2.68551,-27.2604,34.5846,-57.0915,23.0931,38.4498
3.47298,16.7213,8.74479,-54.5948,-83.2972,80.2562,-2.6586,0.838119,-6.32795,-5.79616,1.08458,3.77512,-4.77373,0.86438,7.53211,-8.35934,-7.43787,-2.45615,31.4732,-16.0928,11.8691,13.2469,-6.53983,2.62656,1.59028e-14,6.36111e-15,-27.2947,59.7921,-110.818,62.1092,-92.3003,-26.2649,-1.68239,7.12502,0.289886,-31.6619,1.59028e-14,6.36111e-15,-21.4398,-66.149,103.48,83.03,60.5715,14.0592,17.5906,7.12502,38.9654,43.1205,-54.5108,-24.8759,9.26431,46.9137,-36.4004,-35.6543,46.0774,-40.2582,1.8269,-26.8753,34.9289,-58.2549,22.4608,39.4836
3.46177,16.6942,8.62479,-54.943,-83.0088,80.8653,-2.70142,0.57658,-6.10949,-5.74809,0.739681,3.94512,-4.63317,0.677527,7.59509,-8.8023,-6.97236,-1.95778,32.0331,-15.5649,11.5978,13.4614,-6.24103,2.50868,-1.27222e-14,-3.65764e-14,-27.5706,61.3543,-109.834,64.42,-92.1976,-23.5603,-2.14631,7.12502,2.90196,-32.1063,-1.27222e-14,-3.65764e-14,-22.1768,-66.482,102.868,84.8927,59.8716,15.8048,17.4648,7.12502,40.6086,42.5043,-55.3542,-25.7938,10.3987,47.0818,-36.2034,-35.8519,45.4299,-40.5742,0.413943,-26.1648,35.1675,-60.1541,20.9182,41.1962
3.44622,16.6704,8.50389,-55.475,-82.8697,81.6535,-2.79692,0.291236,-5.99151,-5.72072,0.365634,4.29663,-4.4868,0.483893,7.91222,-9.1079,-6.43199,-1.38534,32.5837,-14.8712,11.1486,13.6072,-5.8905,2.34111,-7.55382e-15,1.90833e-14,-27.9008,62.7229,-109.132,66.3262,-91.4425,-20.9475,-2.33377,7.12502,5.42507,-32.2443,-7.55382e-15,1.90833e-14,-22.9318,-66.5038,102.321,86.686,59.472,18.6422,16.8826,7.12502,43.2682,41.0331,-56.1414,-26.5694,11.68,47.1898,-34.14,-37.2453,42.7148,-40.7917,-1.3003,-25.1844,35.2769,-62.3581,19.7254,42.5859
3.43012,16.6571,8.38178,-55.9467,-82.6465,82.3745,-2.8178,-0.00399314,-5.99939,-5.70314,-0.0254848,4.66213,-4.38948,0.289496,8.31781,-9.45453,-5.86762,-0.711142,33.1753,-14.1489,10.6238,13.7742,-5.521,2.12804,7.55382e-15,-2.22639e-14,-28.4224,64.1768,-108.578,68.2095,-90.4945,-18.2009,-2.15421,7.12502,8.07648,-31.9799,7.55382e-15,-2.22639e-14,-23.6899,-66.6182,101.763,88.3132,59.3078,21.1285,15.5625,7.12502,45.5848,38.8279,-56.5484,-26.5776,12.3926,47.1963,-32.5013,-38.8098,39.0794,-40.9633,-2.4076,-24.5565,35.263,-63.4971,19.5874,42.9806
3.41452,16.6522,8.26256,-55.3773,-82.2685,82.0674,-2.86374,-0.212156,-5.75717,-5.71632,-0.303508,4.78395,-4.32218,0.137616,8.3101,-9.79426,-5.38502,-0.34142,33.7521,-13.707,10.6597,14.0548,-5.24782,2.14382,2.0276e-14,-1.74931e-14,-28.8386,65.3488,-107.622,70.3104,-89.7259,-15.6756,-1.88705,7.12502,10.5131,-31.6041,2.0276e-14,-1.74931e-14,-24.7243,-67.2048,101.423,89.7393,59.1272,21.8422,14.4034,7.12502,46.2472,37.3943,-56.5332,-25.8598,12.3125,47.0909,-34.9748,-38.9328,39.013,-41.139,-3.48189,-24.0525,35.1836,-64.4079,19.3848,43.2164
3.398,16.6468,8.13759,-53.5602,-81.9087,80.5556,-2.97248,-0.426771,-5.29464,-5.74918,-0.590594,4.85408,-4.23798,-0.03022,8.11556,-10.1754,-4.83554,-0.293999,34.44,-13.3048,11.1337,14.479,-4.97745,2.39087,1.86858e-14,-6.52014e-14,-28.7997,65.9688,-106.427,72.0899,-88.8687,-13.0939,-1.74027,7.12502,13.0027,-31.3151,1.86858e-14,-6.52014e-14,-25.9535,-68.0135,100.937,91.2158,58.9647,21.7493,14.6115,7.12502,46.1611,37.6387,-56.5219,-25.2136,12.3281,46.9214,-38.7276,-38.2753,41.1773,-41.3702,-4.25544,-23.5467,35.0897,-64.6325,19.3978,43.2404
3.38075,16.6415,8.00016,-50.628,-81.7935,77.983,-3.12889,-0.590373,-4.71733,-5.80517,-0.81005,5.14552,-4.1675,-0.165215,8.09363,-10.3977,-4.38302,0.172366,34.9213,-12.8377,11.0102,14.6752,-4.70612,2.33959,-5.56597e-15,-2.38542e-14,-28.3686,66.0692,-104.926,73.4207,-87.79,-10.297,-1.78541,7.12502,15.6976,-31.1687,-5.56597e-15,-2.38542e-14,-27.0062,-68.7347,100.549,92.2355,58.3713,22.6951,16.0118,7.12502,47.037,38.6617,-56.7139,-24.7636,12.9341,46.7702,-41.5366,-37.8764,42.8499,-41.6796,-4.88869,-22.6235,35.0848,-64.0388,20.6328,42.0926
3.36376,16.6294,7.86301,-49.4119,-81.771,76.9667,-3.17284,-0.703987,-4.21874,-5.80918,-0.965281,5.47369,-4.11907,-0.263666,8.15806,-10.5037,-3.90333,0.477724,35.3969,-12.219,10.7531,14.8283,-4.41185,2.29006,1.59028e-14,-1.27222e-14,-29.2099,67.832,-103.362,76.1653,-87.8725,-8.7833,-0.417449,7.12502,17.155,-29.6801,1.59028e-14,-1.27222e-14,-27.8749,-69.2731,100.071,92.6845,57.3584,20.3404,17.9431,7.12502,44.8521,41.5007,-56.8286,-24.2521,13.4888,46.6693,-43.6756,-37.5339,44.1056,-41.7769,-5.68097,-21.4423,35.1607,-63.8627,20.9919,41.6218
3.36131,16.5934,7.78416,-45.2101,-81.0789,72.9378,-3.1116,-1.14879,-3.20541,-5.85939,-1.56796,5.62742,-4.1128,-0.609692,7.73321,-10.6285,-3.30551,0.864064,35.8873,-11.3198,10.2223,14.9433,-4.01913,2.15692,8.74653e-15,-1.59028e-14,-28.814,68.4905,-101.757,77.4062,-87.1458,-6.75379,0.723211,7.12502,19.1076,-28.3582,8.74653e-15,-1.59028e-14,-28.8448,-69.7486,99.254,93.2758,56.8579,24.7365,15.6815,7.12502,48.9192,37.4538,-57.1885,-25.308,13.9523,46.7424,-43.8239,-37.7867,43.7621,-42.1291,-7.03899,-20.7472,35.3727,-63.3618,21.2546,41.2583
3.33048,16.5707,7.64762,-46.684,-80.9681,74.1741,-3.01121,-1.24527,-3.01948,-5.6265,-1.69615,5.8546,-3.90194,-0.688164,7.86505,-10.7252,-2.77458,1.3255,36.3039,-10.6103,9.89,15.0604,-3.67816,2.06011,7.15625e-15,-1.59028e-14,-28.1052,69.0453,-99.5124,78.7343,-87.1802,-4.06796,1.25606,7.12502,21.6887,-27.5491,7.15625e-15,-1.59028e-14,-29.8421,-70.4563,98.3722,93.7324,56.3762,26.4405,14.6072,7.12502,50.4803,35.5741,-56.8157,-24.8213,14.0395,46.8051,-44.8498,-37.7534,43.741,-41.6729,-6.89325,-20.2218,35.6165,-62.2206,21.3059,40.0328
3.34245,16.5251,7.62068,-37.7708,-79.0101,65.8202,-3.50034,-2.00069,-1.36476,-5.85274,-2.72197,5.70055,-3.76762,-1.27794,6.71876,-10.7245,-2.32767,1.43614,36.4413,-10.0937,10.1194,15.1064,-3.41086,2.2257,2.22639e-14,-2.22639e-14,-27.1556,69.6223,-96.7481,80.0639,-87.8404,-0.926406,1.34983,7.12502,24.7027,-27.0754,2.22639e-14,-2.22639e-14,-30.4808,-71.3818,97.2174,93.8879,56.0986,26.3233,15.5375,7.12502,50.3732,36.5621,-57.5214,-27.3536,14.0863,47.083,-45.0973,-37.905,43.5121,-42.7916,-8.57651,-20.293,35.9263,-59.8468,22.3437,37.6055
3.30221,16.5231,7.43971,-45.3765,-79.9799,72.8342,-3.10566,-1.52159,-1.82517,-5.33727,-2.0744,5.96882,-3.51047,-0.939415,7.2761,-10.6932,-1.94982,1.6167,36.4708,-9.72383,10.4643,15.111,-3.18682,2.40196,2.70347e-14,-6.36111e-15,-26.5196,70.2098,-94.1434,81.5665,-88.1656,0.875861,2.15324,7.12502,26.429,-26.0243,2.70347e-14,-6.36111e-15,-31.1607,-72.4683,96.0457,93.7878,55.956,26.5446,15.9188,7.12502,50.5753,36.8342,-56.8692,-25.3292,14.1391,47.3631,-46.5346,-36.8988,44.1203,-41.5325,-6.09867,-20.1108,36.1753,-56.9118,23.7716,33.8496
3.28063,16.5056,7.30967,-48.3719,-79.7448,75.609,-2.93447,-1.4366,-1.83224,-5.15026,-1.95868,6.02318,-3.42516,-0.883222,7.33918,-10.2691,-1.61021,1.94904,36.3144,-9.32797,10.6638,14.91,-2.97219,2.49223,1.11319e-14,3.81667e-14,-26.0186,69.8674,-92.3994,82.3156,-87.7088,2.94378,2.45675,7.12502,28.4068,-25.4075,1.11319e-14,3.81667e-14,-32.108,-73.4924,95.2144,93.2489,56.1321,27.0679,15.7106,7.12502,51.0526,36.3626,-57.0299,-25.4575,14.2209,47.9783,-46.0922,-36.4811,43.6239,-41.0893,-4.74567,-20.3246,36.548,-53.8699,24.3409,31.6671
3.26685,16.4979,7.16012,-53.1476,-79.4305,79.9393,-2.34458,-1.23342,-2.13389,-4.93928,-1.67594,6.00431,-3.57088,-0.72494,7.50839,-9.69996,-1.34648,2.01808,36.0483,-9.04157,11.1038,14.6606,-2.8214,2.7088,7.95139e-16,6.67916e-14,-25.6531,69.1349,-90.6113,83.015,-87.6126,4.94227,1.95316,7.12502,30.3149,-25.5766,7.95139e-16,6.67916e-14,-33.2826,-74.7039,94.618,92.5034,56.411,27.244,16.4536,7.12502,51.213,37.0154,-57.1683,-25.6237,14.2224,48.7244,-44.7991,-36.4403,42.429,-40.3184,-2.99472,-20.6724,36.9065,-51.2854,23.237,31.1233
3.28161,16.4627,7.14184,-45.1156,-77.6603,71.9824,-2.30232,-1.79935,-0.254651,-5.14159,-2.42608,5.69083,-3.77296,-1.16857,6.0978,-9.46054,-1.05583,2.17569,36.1261,-8.84994,11.5466,14.6614,-2.6744,2.90349,-2.38542e-15,-6.36111e-14,-26.1508,69.5019,-88.161,85.0644,-88.3628,6.33225,2.24987,7.12502,31.6399,-25.0276,-2.38542e-15,-6.36111e-14,-34.597,-75.9903,94.3512,91.3218,56.4859,27.1889,16.8538,7.12502,51.1629,37.4439,-58.185,-29.4058,14.6982,49.768,-42.7505,-35.9593,41.1917,-41.0008,-4.26973,-20.911,37.3646,-48.0102,23.7095,28.8786
3.26835,16.4449,7.03057,-44.5109,-76.9525,71.0932,-2.08759,-1.97905,0.163197,-4.97311,-2.65788,5.69814,-3.70971,-1.29979,5.87001,-9.39675,-0.62743,2.77066,36.454,-8.44775,11.5349,14.7607,-2.41488,2.86827,3.97569e-15,3.18055e-15,-25.6653,69.6473,-85.281,86.3456,-89.0855,7.97014,2.59268,7.12502,33.1986,-24.3654,3.97569e-15,3.18055e-15,-35.9053,-76.9143,93.9174,89.9566,56.4459,26.9421,15.21,7.12502,50.938,35.9259,-58.3874,-30.508,14.825,50.7056,-42.4796,-35.0057,41.0246,-40.8171,-2.94377,-21.0816,37.7701,-43.1964,24.3795,24.1895
3.29241,16.41,7.0532,-34.3952,-72.8195,61.1985,-2.66763,-3.3668,2.08297,-5.33591,-4.51419,5.17655,-3.76244,-2.30184,4.22616,-9.3059,-0.313825,3.16758,36.7626,-8.21194,11.6415,14.8754,-2.23972,2.89405,7.95139e-15,-2.22639e-14,-25.0812,69.0594,-82.4122,87.0503,-89.8171,9.79004,2.54304,7.12502,34.9272,-24.03,7.95139e-15,-2.22639e-14,-37.4023,-77.8822,93.6742,88.5051,56.2114,26.377,11.5587,7.12502,50.4223,32.5569,-58.892,-35.9998,13.975,51.539,-41.5197,-34.7604,40.2409,-42.1091,-5.27418,-22.2593,38.1592,-36.9942,25.4621,18.3637
3.27532,16.4146,6.95647,-35.3643,-72.1232,61.9261,-2.58558,-3.29828,2.44893,-5.16395,-4.42027,5.1519,-3.66382,-2.26609,3.99291,-9.43461,-0.0902768,2.97866,37.2827,-8.15884,12.0504,15.1998,-2.16919,3.14003,-6.36111e-15,-3.81667e-14,-24.8301,68.5325,-79.3729,87.7013,-90.3593,11.5716,2.67479,7.12502,36.6154,-23.4881,-6.36111e-15,-3.81667e-14,-38.7854,-78.7466,93.6861,86.842,56.1123,27.0565,14.2127,7.12502,51.0422,34.8705,-58.6195,-36.5601,13.429,51.8824,-41.2511,-34.4781,39.6093,-41.7338,-3.66219,-22.6863,38.3579,-32.1477,24.433,15.6512
3.23573,16.4495,6.77336,-42.3294,-73.8501,68.3792,-1.86518,-2.23208,1.80546,-4.63725,-2.97979,5.46806,-3.54297,-1.51834,4.69458,-9.35128,-0.105118,3.51041,37.5122,-8.21746,11.6678,15.2611,-2.15077,2.8842,-2.14687e-14,-5.08889e-14,-24.7183,67.6329,-76.3148,88.1375,-90.5104,13.8206,2.88632,7.12502,38.7404,-22.7076,-2.14687e-14,-5.08889e-14,-39.3042,-79.7299,92.9854,85.1218,56.3479,26.8376,15.9066,7.12502,50.8427,36.6754,-57.9296,-33.64,13.4007,51.8946,-42.2079,-33.6375,40.2792,-40.3906,0.548677,-22.1887,38.4465,-28.1853,22.0698,13.3502
3.20473,16.4821,6.60373,-48.2364,-74.5983,73.9424,-1.38489,-1.37366,1.3951,-4.21334,-1.82757,5.4721,-3.43695,-0.927884,4.92354,-9.58732,0.00502223,4.16046,37.9504,-8.3646,11.6557,15.5466,-2.08846,2.76341,1.74931e-14,-5.40694e-14,-24.9163,65.9722,-73.9143,88.1807,-90.8032,16.2846,2.79354,7.12502,41.0594,-22.1039,1.74931e-14,-5.40694e-14,-39.6447,-80.862,91.8982,83.13,56.2923,26.5703,16.5502,7.12502,50.5988,37.4527,-57.2819,-31.5264,13.1873,51.6899,-43.2046,-33.1249,40.8194,-39.3709,4.07584,-21.7955,38.4151,-22.7609,20.1895,9.03485
3.18594,16.5046,6.51504,-48.9025,-73.4875,74.6286,-1.52211,-1.29772,1.63148,-4.06648,-1.73325,5.17141,-3.22755,-0.890252,4.46245,-9.86975,0.229409,4.40459,38.3549,-8.37352,11.979,15.8571,-1.98393,2.88444,-1.74931e-14,6.36111e-14,-24.9169,64.7853,-71.3043,88.1427,-91.4912,18.3001,2.8766,7.12502,42.9483,-21.3876,-1.74931e-14,6.36111e-14,-39.37,-81.4048,90.1302,81.0054,55.4891,26.6472,16.6676,7.12502,50.669,37.5319,-57.1679,-32.435,12.605,51.4829,-42.7754,-32.8041,40.7654,-39.162,4.75071,-21.9077,38.2519,-16.359,19.4772,8.8058
3.16306,16.5352,6.41715,-49.9232,-72.5503,75.6746,-1.68612,-1.23038,1.6225,-3.8703,-1.65586,5.10305,-2.93736,-0.852229,4.38373,-9.68747,0.391362,3.986,38.2048,-8.25793,12.6883,15.7942,-1.91654,3.28878,1.11319e-14,-1.90833e-14,-24.6064,64.1063,-67.8502,88.3195,-92.3154,20.1443,2.61138,7.12502,44.6695,-21.0172,1.11319e-14,-1.90833e-14,-38.4271,-81.3667,87.8518,79.0954,54.2962,26.7688,16.7987,7.12502,50.7799,37.6021,-57.0652,-33.1126,12.1336,51.2684,-42.126,-32.5715,40.8567,-38.7905,5.23264,-21.599,37.8656,-9.51051,18.5171,14.4017
3.14461,16.5762,6.30208,-49.6045,-72.0599,75.4278,-1.81445,-1.28824,1.80931,-3.73811,-1.74768,5.4677,-2.718,-0.903813,4.65359,-8.6503,0.604564,2.55398,37.2222,-7.84735,14.2361,15.1402,-1.84083,4.2344,7.95139e-15,6.99722e-14,-23.4623,63.9542,-63.2863,88.5247,-93.3752,22.212,1.99563,7.12502,46.5899,-20.8492,7.95139e-15,6.99722e-14,-37.5889,-80.4714,85.9209,76.8726,52.8676,27.1361,17.3067,7.12502,51.1148,37.9239,-56.8736,-33.1858,12.1289,50.9887,-42.2093,-32.9118,40.7023,-38.6264,5.29967,-20.1733,37.2905,-3.91808,17.0816,30.0658
3.12764,16.618,6.19474,-49.5372,-71.4865,75.3482,-1.81999,-1.51295,1.93923,-3.66371,-2.05668,5.97857,-2.60547,-1.06195,5.1164,-8.51362,0.910107,2.23717,37.7478,-7.17031,13.6497,15.2545,-1.64323,4.17235,-6.36111e-15,6.36111e-15,-21.3976,64.0745,-58.4838,87.9468,-94.2832,24.1286,0.973603,7.12502,48.3599,-21.0695,-6.36111e-15,6.36111e-15,-38.064,-78.7793,85.4409,74.5596,51.1161,27.3014,18.04,7.12502,51.2653,38.5722,-56.5121,-33.1726,11.8271,50.6223,-42.4598,-33.5871,40.223,-38.4679,4.31432,-18.3058,36.6721,4.45707,15.9018,1.51672
3.09926,16.6648,6.06426,-52.429,-71.2709,77.6937,-1.19946,-1.75845,1.5075,-3.39715,-2.36714,6.5512,-2.6174,-1.20451,5.98477,-7.34461,1.36174,1.97612,37.5759,-5.97827,12.909,14.712,-1.30095,4.04481,-1.90833e-14,1.20861e-13,-18.9775,64.4883,-54.3744,86.5685,-94.4334,25.8896,0.244985,7.12502,49.9766,-20.99,-1.90833e-14,1.20861e-13,-39.7929,-76.3518,85.9223,72.2874,48.8457,27.5901,18.2322,7.12502,51.5278,38.6142,-55.5418,-32.6526,11.3236,50.168,-42.3818,-33.7415,39.9732,-37.3695,4.04174,-16.5112,36.1372,6.02701,18.5009,24.7023
3.08587,16.7094,5.97766,-52.5733,-70.3607,77.7024,-1.09482,-1.62128,2.09234,-3.23769,-2.17253,5.98871,-2.56863,-1.12039,5.05347,-7.50638,1.4811,2.76283,37.9319,-6.37128,13.4789,15.0088,-1.27765,4.12372,-1.59028e-14,2.22639e-14,-20.1853,62.5138,-53.6127,85.1747,-94.0268,27.8654,0.0650225,7.12502,51.778,-20.1716,-1.59028e-14,2.22639e-14,-38.2729,-76.8295,82.8335,69.9781,46.8943,28.2148,17.826,7.12502,52.095,37.875,-55.1772,-33.5132,10.9261,49.7113,-41.6065,-33.975,39.5421,-37.2198,2.82793,-15.3036,35.866,1.31669,24.6569,44.3244
3.07132,16.7581,5.87669,-53.0267,-69.6888,77.9389,-0.839815,-1.55663,2.75118,-3.03854,-2.06912,5.52354,-2.55181,-1.08294,4.19452,-7.50697,1.68394,3.57351,38.2424,-6.55834,13.8701,15.2192,-1.18957,4.14727,2.38542e-14,4.13472e-14,-20.6569,61.138,-51.4898,84.3308,-93.918,29.7091,0.0942674,7.12502,53.4452,-19.1121,2.38542e-14,4.13472e-14,-36.9045,-76.9641,79.7971,67.4603,44.9941,28.6711,17.8513,7.12502,52.5084,37.6501,-54.4907,-33.5005,10.3656,49.2894,-41.2511,-34.7398,38.8543,-37.107,3.37385,-14.4702,35.8338,-0.806672,30.098,47.7485
3.06218,16.8039,5.76636,-53.3197,-69.2586,77.9862,-0.502135,-1.64482,3.09499,-2.82243,-2.16993,5.47829,-2.52774,-1.13923,3.96101,-7.27335,1.90782,4.21227,38.3793,-6.42194,13.8679,15.2248,-1.04371,4.05896,-2.70347e-14,3.49861e-14,-19.8601,60.4446,-48.1495,83.4559,-93.8402,30.5626,0.513274,7.12502,54.212,-18.1804,-2.70347e-14,3.49861e-14,-36.1552,-76.2788,77.7546,64.746,42.8274,29.0003,17.9723,7.12502,52.8059,37.5868,-53.8443,-33.1791,10.068,48.9886,-39.8163,-36.5964,36.2687,-37.0153,4.33078,-13.3145,35.9447,2.12225,34.4213,45.6379
3.05645,16.836,5.66885,-53.7734,-68.6433,78.2893,-0.241954,-2.04692,2.59522,-2.66264,-2.70239,5.94003,-2.44078,-1.39216,4.7398,-6.6276,2.24578,4.40053,38.399,-5.68467,13.3364,14.9755,-0.782941,3.88717,-1.43125e-14,4.45278e-14,-17.2524,60.5581,-43.2155,82.328,-93.4106,30.9105,0.743414,7.12502,54.5237,-17.7343,-1.43125e-14,4.45278e-14,-36.8882,-74.35,77.7878,61.6703,40.208,29.5656,17.0224,7.12502,53.316,36.3126,-53.5287,-33.2642,9.709,48.806,-39.5402,-37.1735,35.8471,-37.0062,4.48949,-12.0533,36.1929,6.3308,36.4697,41.165
3.05339,16.8579,5.58529,-54.7388,-67.9354,79.0435,0.103091,-2.16548,2.77968,-2.42227,-2.84182,5.70711,-2.39785,-1.46283,4.40111,-6.10311,2.43508,4.85282,38.2062,-5.50149,13.5044,14.7561,-0.648339,3.88433,-1.59028e-14,6.04305e-14,-16.4075,59.4372,-40.4179,80.8024,-92.8575,31.5883,0.718953,7.12502,55.129,-17.326,-1.59028e-14,6.04305e-14,-36.3549,-73.9493,76.2076,58.7397,38.1448,29.8612,16.4166,7.12502,53.5821,35.5333,-53.2048,-33.3628,9.04029,48.6792,-39.6903,-37.1672,36.3089,-36.7349,4.58729,-11.0351,36.2035,7.73177,37.6775,43.8005
3.04784,16.8879,5.50498,-55.7615,-67.3705,79.8171,0.52881,-2.26259,3.10221,-2.16476,-2.9462,5.45186,-2.39487,-1.51844,3.9667,-5.78719,2.6502,5.12219,38.1576,-5.45398,14.0217,14.6924,-0.549835,4.06089,-2.38542e-14,-8.26944e-14,-15.6448,58.0758,-37.7111,79.1558,-92.3924,32.3083,0.63195,7.12502,55.7693,-16.9352,-2.38542e-14,-8.26944e-14,-36.012,-74.0854,74.7337,55.9844,36.9382,28.9907,17.3311,7.12502,52.7973,36.951,-52.7533,-33.0858,8.33993,48.5878,-40.0099,-37.29,36.852,-36.638,7.06955,-11.3667,36.2171,7.91993,39.0799,47.1454
3.03828,16.9404,5.42494,-57.3624,-66.5371,81.2241,0.972973,-2.3833,2.96483,-1.93088,-3.08687,5.23266,-2.40124,-1.58257,3.83209,-5.36681,2.82665,5.28303,38.0986,-5.23601,14.13,14.5556,-0.440516,4.0976,5.08889e-14,3.18055e-14,-14.6628,57.0336,-34.4829,77.9661,-91.9878,32.4561,0.215945,7.12502,55.9005,-17.2507,5.08889e-14,3.18055e-14,-35.5842,-73.5155,73.4366,52.9166,35.3817,27.9884,18.5617,7.12502,51.8896,38.7327,-52.4003,-33.0735,7.42655,48.4313,-39.0572,-38.0159,36.1501,-35.645,2.38542,-7.89694,35.7787,-1.50772,40.3593,48.6637
3.02968,16.9663,5.34686,-59.1097,-65.537,82.8492,1.40128,-2.75763,2.39295,-1.69698,-3.57788,5.15251,-2.34899,-1.81373,4.09703,-4.33446,3.29828,5.11375,37.5979,-4.40255,14.4495,14.012,-0.130466,4.31211,2.22639e-14,-1.59028e-14,-12.3211,55.9132,-30.6985,76.2118,-90.9866,33.1105,-0.0924715,7.12502,56.4796,-17.104,2.22639e-14,-1.59028e-14,-35.5337,-71.5257,72.3164,49.7353,32.9411,31.166,14.0891,7.12502,54.7521,32.4056,-52.3026,-33.2789,6.35502,48.3831,-37.7634,-38.6198,35.0702,-34.9516,2.02789,-7.031,35.2102,-4.25413,40.959,49.0815
3.02493,17.0002,5.26364,-60.757,-64.5261,84.4975,1.75924,-3.30964,1.60313,-1.41491,-4.32241,5.17373,-2.15999,-2.171,4.59342,-3.44557,3.99319,4.79319,37.2216,-3.25045,14.7392,13.5319,0.309163,4.57517,-3.18055e-15,-4.45278e-14,-9.11897,54.815,-26.3106,74.7404,-90.1929,33.5964,-0.210859,7.12502,56.908,-16.8733,-3.18055e-15,-4.45278e-14,-36.196,-69.1935,71.6151,47.2745,30.0951,31.6549,13.4964,7.12502,55.1883,31.4979,-52.2943,-33.0318,5.13533,48.435,-37.5105,-38.8897,34.9553,-34.3219,1.11642,-5.91922,34.4679,-2.75856,41.4436,46.9541
3.02429,17.036,5.18626,-62.3303,-63.4521,86.2444,1.99945,-3.83335,0.736002,-1.22887,-5.03827,5.25351,-1.97356,-2.51706,5.18994,-3.59751,4.53292,4.94297,38.0901,-2.38389,13.8514,13.8755,0.648505,4.34326,4.77083e-14,6.36111e-15,-6.05034,53.4744,-21.8495,73.5403,-89.7316,33.9453,-0.546045,7.12502,57.2147,-16.9518,4.77083e-14,6.36111e-15,-37.3684,-67.0359,71.4414,45.546,27.1846,29.7328,17.0344,7.12502,53.4666,36.2268,-52.551,-32.2281,3.74219,48.7542,-38.7973,-39.0576,36.2756,-33.9335,-0.00205808,-4.88031,33.9713,-16.1128,39.8735,51.2257
3.02959,17.0375,5.11824,-62.9589,-63.1083,86.971,2.45041,-4.31217,0.506164,-1.07404,-5.67457,5.65249,-1.95135,-2.83539,5.78351,-3.37554,5.06255,4.81006,38.4002,-1.38061,13.229,13.8687,1.0067,4.23526,5.24792e-14,5.08889e-14,-3.15684,51.9982,-17.3297,72.5817,-89.4451,34.2672,-0.475492,7.12502,57.497,-16.6398,5.24792e-14,5.08889e-14,-37.0876,-64.0334,69.9325,43.6144,24.0322,29.6016,19.0054,7.12502,53.3485,38.2746,-54.1649,-34.2421,5.04371,49.2081,-36.1324,-38.974,35.0837,-33.5948,-0.177222,-3.10921,33.4661,-31.7289,32.073,54.3177
3.02282,17.0304,5.07008,-65.5972,-61.6473,89.4552,3.2772,-5.0887,-1.66989,-0.829148,-6.784,6.18069,-1.73973,-3.37794,7.65508,-2.9019,5.99406,3.8549,38.8203,0.450181,12.4263,13.7619,1.58902,4.28458,-3.18055e-15,-1.59028e-14,2.09099,50.5818,-11.1176,71.47,-89.3057,33.9748,-0.567013,7.12502,57.2405,-16.9509,-3.18055e-15,-1.59028e-14,-38.0466,-59.0204,69.723,41.0083,18.2555,30.1715,17.4097,7.12502,53.8611,36.3412,-55.8596,-36.8067,5.04357,49.9174,-32.5064,-38.4367,33.5852,-32.4156,-0.723535,-2.81153,33.0595,-37.2457,25.6869,54.3963
3.01691,17.0741,4.99022,-66.9034,-60.8543,90.69,3.80384,-5.07302,-1.14198,-0.694703,-6.72785,5.50547,-2.04506,-3.34114,6.6917,-2.49175,6.21102,3.96739,38.7438,0.569635,12.9186,13.6343,1.6949,4.4616,-1.90833e-14,1.43125e-13,0.969711,48.0629,-10.7321,70.086,-88.8696,34.5562,-1.38539,7.12502,57.7499,-17.3291,-1.90833e-14,1.43125e-13,-36.6521,-58.0676,66.7691,39.2719,13.8429,31.0154,18.3189,7.12502,54.6175,36.7307,-56.5351,-36.8436,4.64691,50.5739,-33.4123,-38.5377,35.3108,-31.5354,-2.32152,-1.34503,32.6241,-40.7521,19.5167,54.2423
3.01719,17.0598,4.94102,-67.8872,-60.3487,91.7132,4.14502,-5.06168,-0.592661,-0.496901,-6.68445,5.06327,-2.15186,-3.32179,5.94422,-2.32443,6.35836,4.29431,38.7673,0.715052,12.9249,13.6151,1.80167,4.41903,0,-2.54444e-14,0.369169,45.7444,-9.46988,69.0329,-88.7375,35.5951,-1.97761,7.12502,58.6544,-17.097,0,-2.54444e-14,-34.7333,-56.6939,63.4294,36.3925,8.78457,32.081,15.7737,7.12502,55.5675,33.4938,-58.5673,-38.361,5.74511,51.5248,-32.1594,-38.5429,35.3519,-30.9729,-4.51765,0.828434,32.1988,-43.1901,15.7338,54.5045
3.01176,17.0325,4.91961,-69.8537,-59.2873,93.7619,4.51583,-4.9508,-0.810435,-0.276365,-6.55011,4.45635,-2.19184,-3.25013,5.45071,-2.18761,6.43219,4.97709,38.813,0.865735,12.4702,13.6326,1.91274,4.12793,3.18055e-14,-2.22639e-14,0.108139,43.7296,-7.57609,68.1291,-88.4615,36.1702,-1.91891,7.12502,59.1519,-16.5597,3.18055e-14,-2.22639e-14,-33.7764,-55.8134,61.1194,35.2564,4.09114,30.8042,17.1823,7.12502,54.4285,35.7265,-60.8685,-39.8208,6.23834,52.4651,-30.9631,-38.4952,35.121,-30.0476,-5.6811,2.09336,31.5634,-42.9123,19.6167,55.2846
3.01271,16.9922,4.89771,-71.5891,-58.2336,95.3606,5.18129,-4.78476,-0.965929,-0.0191182,-6.34378,3.74448,-2.38171,-3.14188,4.83938,-2.14417,6.38543,5.94187,38.803,0.77296,12.0575,13.6783,1.96062,3.78066,-2.54444e-14,-4.77083e-14,-1.09108,41.1913,-6.9797,66.7698,-87.0901,36.5519,-1.97967,7.12502,59.4807,-16.2939,-2.54444e-14,-4.77083e-14,-32.0279,-55.1553,58.0169,33.9157,-0.0324167,30.8879,17.9444,7.12502,54.5034,36.4363,-63.3049,-41.604,7.05167,53.481,-29.617,-38.5241,34.4149,-29.0292,-6.26641,3.25999,31.2175,-42.5619,21.8886,54.6822
3.02116,16.971,4.84012,-72.4543,-57.4925,96.3621,5.49776,-4.53564,-0.908887,0.17427,-6.02025,3.15104,-2.45679,-2.98107,4.19457,-2.00413,6.24946,6.68698,38.5041,0.469722,12.1485,13.5683,1.92979,3.63248,1.27222e-14,5.08889e-14,-2.79958,38.1177,-6.64863,65.2191,-85.4991,36.4585,-2.27431,7.12502,59.4003,-16.6691,1.27222e-14,5.08889e-14,-29.2202,-54.5321,54.2218,31.8699,-4.30568,30.8948,17.9868,7.12502,54.5096,36.4743,-65.6675,-42.535,8.17904,54.2901,-30.833,-39.0895,35.6988,-28.27,-6.49109,4.7446,30.7704,-43.39,21.1276,53.963
3.02276,16.9458,4.79268,-73.0369,-56.7341,97.2625,5.49219,-4.27976,-0.684926,0.382549,-5.68372,2.45967,-2.35643,-2.81952,3.32541,-2.07313,6.11015,7.48148,38.2438,0.0372936,12.4544,13.535,1.87566,3.56125,7.31528e-14,1.90833e-14,-4.43333,34.9236,-6.00104,63.7596,-84.2743,36.4702,-2.99242,7.12502,59.4104,-17.3771,7.31528e-14,1.90833e-14,-26.0832,-54.1378,50.1152,29.754,-8.27258,30.1402,17.9407,7.12502,53.833,36.891,-68.5117,-43.6485,9.81385,54.8531,-31.3244,-40.3306,36.137,-27.6258,-6.84362,6.14002,30.2305,-45.1596,19.0302,53.9073
3.03145,16.9178,4.74128,-73.3749,-56.2371,97.7363,5.75837,-4.07748,-0.183171,0.571581,-5.39935,1.83617,-2.43356,-2.68424,2.40292,-2.34969,5.96916,8.4448,38.2701,-0.481074,12.6229,13.6947,1.80618,3.42345,-3.49861e-14,-5.40694e-14,-5.9366,32.2568,-4.85327,62.7272,-83.4584,36.4943,-4.0372,7.12502,59.4312,-18.4011,-3.49861e-14,-5.40694e-14,-23.2224,-54.0632,46.029,28.5155,-11.2795,29.4672,18.8228,7.12502,53.2273,38.1702,-71.1563,-44.7184,11.8065,55.1564,-32.8402,-41.647,36.7653,-26.8101,-7.31469,8.00526,29.5367,-46.497,18.087,53.6779
3.0434,16.887,4.68716,-73.8549,-55.7568,98.2552,6.23312,-3.93186,0.141769,0.750372,-5.19849,1.30528,-2.60021,-2.58888,1.69482,-2.5184,5.8789,9.19749,38.1463,-0.871959,12.8739,13.7425,1.76306,3.35437,3.49861e-14,-8.90555e-14,-7.13147,26.2514,-4.96686,58.9482,-78.6828,39.923,-4.79921,7.12502,62.3314,-15.8743,3.49861e-14,-8.90555e-14,-20.6141,-53.3821,42.1201,27.5648,-14.1132,28.9066,19.9083,7.12502,52.7213,39.5756,-73.5879,-45.6381,13.8557,55.2616,-35.8607,-42.0352,39.0526,-25.8499,-7.43379,9.79653,28.8394,-47.1881,17.9382,53.557
3.04459,16.8579,4.6337,-74.9807,-54.8887,99.2259,6.91859,-3.81786,-0.10288,0.992477,-5.0848,0.743349,-2.76502,-2.53382,1.28674,-2.57636,5.87373,9.62581,38.0014,-1.05242,13.123,13.7275,1.76213,3.35753,1.08139e-13,4.45278e-14,-7.58779,23.4263,-3.76508,56.7615,-75.6274,39.9957,-3.5861,7.12502,62.3917,-14.5836,1.08139e-13,4.45278e-14,-18.3098,-51.8127,38.5414,26.2405,-16.8068,28.1759,21.1318,7.12502,52.0597,41.2019,-75.6358,-46.5783,15.5264,54.9942,-38.3221,-41.7708,41.373,-24.2312,-7.85025,10.7978,27.6113,-48.7808,15.7105,53.9164
3.04808,16.8278,4.57653,-76.0993,-54.1113,99.8949,7.93132,-3.87899,-0.401163,1.25904,-5.21422,0.304472,-3.06457,-2.59879,1.07942,-2.70898,6.01547,10.2612,38.2482,-1.0196,12.971,13.9078,1.8595,3.21575,-1.59028e-14,-2.54444e-14,-7.59283,25.7459,-0.833015,57.9993,-77.4279,34.999,-2.798,7.12502,58.1363,-18.3965,-1.59028e-14,-2.54444e-14,-16.7375,-50.0276,35.5898,24.6783,-18.6612,26.7079,22.6212,7.12502,50.7244,43.4551,-77.3969,-47.6432,17.1141,54.8684,-39.8194,-42.0296,41.9068,-22.5464,-8.61093,11.8999,26.6215,-50.4148,12.9364,54.1359
3.05858,16.8695,4.47835,-76.4292,-53.2321,100.138,8.50004,-4.30053,-0.978201,1.36024,-5.83944,0.178364,-3.21958,-2.90473,1.37399,-2.75593,6.45432,10.4505,38.7893,-0.495754,12.7194,14.1657,2.10904,3.18383,6.99722e-14,1.08139e-13,-6.1236,23.5491,1.18107,55.7814,-75.7906,34.8787,-3.01757,7.12502,58.0315,-18.7107,6.99722e-14,1.08139e-13,-16.4415,-47.1834,33.6996,23.0839,-21.111,25.0928,23.2877,7.12502,49.2464,44.8973,-77.7077,-47.472,16.9696,54.48,-43.5887,-43.0577,42.4021,-21.4622,-9.61114,12.9396,25.5233,-51.8995,11.2244,54.1492
3.07001,16.7587,4.46269,-76.9922,-52.3391,100.443,9.33934,-4.94216,-2.66457,1.55519,-6.85375,0.709234,-3.19079,-3.39447,3.01484,-2.8213,7.23717,9.58799,39.4581,0.742805,12.4598,14.3946,2.53036,3.41933,2.22639e-14,2.54444e-14,-2.99396,20.8744,4.02995,53.4805,-74.0274,34.8066,-3.37003,7.12502,57.9685,-19.1196,2.22639e-14,2.54444e-14,-17.4844,-42.4355,32.9475,21.6326,-25.1545,23.8421,23.2889,7.12502,48.096,45.4569,-81.8555,-49.7824,20.5248,54.9036,-41.3585,-43.187,40.9607,-20.1491,-9.63359,14.1287,24.4861,-52.2632,13.3114,54.198
3.0707,16.7073,4.41538,-77.5027,-51.8213,100.774,10.0236,-5.11771,-1.90792,1.57024,-7.05864,0.0431037,-3.71577,-3.49704,2.01405,-2.81136,7.53113,9.44032,39.7181,0.757386,13.2635,14.5265,2.60101,3.8092,-1.90833e-14,4.77083e-14,-2.79165,18.6093,5.16834,51.2852,-71.9581,35.1786,-3.96321,7.12502,58.2927,-19.4191,-1.90833e-14,4.77083e-14,-15.8639,-39.4276,29.505,20.753,-29.4875,23.1856,23.3619,7.12502,47.4903,45.809,-84.2,-50.7367,22.5925,55.2953,-40.8323,-43.4616,39.9903,-18.6297,-10.1681,15.5763,23.0594,-53.2047,13.47,54.1601
3.07208,16.6502,4.36581,-78.0696,-51.3356,101.082,10.7107,-5.95754,-4.0436,1.84527,-8.37993,1.2699,-3.25647,-4.14573,4.63532,-2.98614,8.51026,8.1201,40.4134,2.73024,12.2809,14.7022,3.20098,3.91101,3.18055e-14,2.8625e-14,1.90077,15.068,8.43041,48.9422,-70.0871,35.3614,-4.81399,7.12502,58.4516,-20.1231,3.18055e-14,2.8625e-14,-16.6151,-25.1691,27.9465,17.9686,-41.8346,22.0248,21.8448,7.12502,46.4164,44.7639,-86.1195,-51.4716,24.0611,56.1219,-39.7523,-43.6638,38.742,-17.3692,-11.5364,17.1116,22.2742,-54.2981,12.6561,53.6992
3.08735,16.5704,4.31154,-78.695,-50.1753,101.253,11.9508,-5.66092,-3.21133,1.62696,-8.01871,-0.218998,-4.53709,-3.93922,2.78516,-2.60694,8.24061,8.96978,40.2986,1.75066,13.2402,14.6837,2.97105,4.03771,-6.36111e-15,6.99722e-14,-0.0746649,13.4449,8.68583,46.9879,-66.2958,34.2156,-4.28184,7.12502,57.4517,-20.4852,-6.36111e-15,6.99722e-14,-14.4779,-31.4902,24.9802,18.3957,-37.4149,21.5051,24.1456,7.12502,45.9345,47.2674,-87.0777,-52.0871,23.7073,57.0893,-39.4252,-43.1509,38.0203,-16.0319,-12.649,17.9067,21.2943,-55.3037,12.2079,53.2222
3.08652,16.4856,4.28783,-79.0884,-49.0946,101.422,12.3793,-5.94721,-4.41338,1.77523,-8.58163,-0.186249,-4.40047,-4.20952,3.58234,-2.8228,8.59538,8.66127,40.6901,2.347,12.9336,14.8727,3.17266,4.07538,8.90555e-14,-9.54166e-15,1.64142,9.36398,10.1956,44.6955,-61.8869,34.3047,-4.74118,7.12502,57.5299,-20.8771,8.90555e-14,-9.54166e-15,-14.4561,-30.0465,23.4893,17.8663,-38.2649,20.766,25.5887,7.12502,45.248,48.9899,-88.0469,-52.5818,23.1811,58.1354,-39.5343,-42.395,37.7391,-15.0451,-13.7982,18.6723,20.5582,-56.3247,9.80206,53.0611
3.07295,16.3949,4.26868,-79.2419,-48.409,101.647,12.4534,-6.07422,-4.51062,1.73518,-8.79486,-0.526519,-4.50593,-4.31323,3.32669,-2.81982,8.73539,8.83887,40.8774,2.39042,13.0505,14.9819,3.22967,4.12093,1.17681e-13,-9.54166e-14,2.2652,4.37901,10.6999,42.4208,-56.0399,35.7383,-5.48199,7.12502,58.7785,-20.4837,1.17681e-13,-9.54166e-14,-13.5664,-29.8939,21.269,17.6688,-38.6271,20.3758,26.8892,7.12502,44.885,50.4339,-88.9936,-52.7011,22.8332,59.2455,-40.1306,-41.9123,37.4544,-14.3366,-15.1391,19.8661,20.0561,-57.2769,7.32606,52.9661
3.06221,16.2995,4.25506,-79.9503,-46.8258,102.408,12.7411,-5.93411,-5.57516,1.66668,-8.83461,-1.17043,-4.67962,-4.31995,3.28258,-2.75056,8.75409,9.07328,40.833,2.27575,13.2574,14.9708,3.22897,4.15104,-3.81667e-14,-3.18055e-15,2.49053,-0.538519,11.2313,40.6321,-50.4879,37.0284,-6.12891,7.12502,59.8895,-20.0247,-3.81667e-14,-3.18055e-15,-12.3607,-30.3718,18.9923,17.7479,-38.6972,20.4472,27.8827,7.12502,44.9515,51.4013,-89.4895,-52.5753,21.0507,60.2652,-41.038,-41.3075,37.5815,-13.5025,-17.0345,19.8564,19.9584,-58.4916,5.15732,53.1514
3.06996,16.1917,4.24733,-80.4188,-45.3519,102.658,13.3454,-5.9335,-7.28337,1.708,-9.14815,-1.28672,-4.69716,-4.45317,4.18919,-2.99143,8.80008,9.22691,41.1161,2.519,12.5615,15.1715,3.29911,3.89588,2.8625e-14,1.90833e-14,3.62781,-5.14431,12.3138,39.0448,-46.5199,38.1999,-7.27555,7.12502,60.887,-20.0897,2.8625e-14,1.90833e-14,-11.6264,-28.7103,17.3781,17.6291,-40.4144,20.3988,28.7708,7.12502,44.9064,52.3072,-90.0302,-52.8246,19.5766,61.2834,-41.9842,-40.6223,37.7367,-12.6585,-18.539,20.0591,19.5493,-59.5305,2.76793,53.3105
3.0572,16.0902,4.24933,-80.0842,-45.9657,102.497,12.9724,-6.38343,-7.48683,1.88679,-9.65563,-0.322645,-4.0374,-4.72917,5.28361,-3.69054,9.05976,9.21056,41.9821,3.31422,11.0169,15.7605,3.51297,3.44809,5.40694e-14,5.725e-14,5.82747,-6.8327,13.7486,37.7401,-40.6512,31.4971,-4.31974,7.12502,55.0476,-22.4239,5.40694e-14,5.725e-14,-11.9552,-25.0719,16.6068,17.2363,-43.3454,20.3577,29.6951,7.12502,44.8682,53.2464,-91.0447,-52.7726,20.8074,62.1778,-43.4567,-40.1175,37.9196,-12.2221,-19.655,22.747,19.0994,-60.2076,-0.0359759,53.3624
3.04734,16.0077,4.21687,-80.2667,-46.6549,102.246,13.47,-6.01523,-4.4591,1.82429,-8.86212,-1.60888,-5.14962,-4.34418,2.32212,-3.28695,8.48973,10.1852,41.4543,1.72637,12.4383,15.5405,3.09361,3.63674,-1.01778e-13,-2.54444e-14,3.80896,-10.8458,13.9397,35.8266,-36.0302,34.3222,-6.68274,7.12502,57.5452,-22.8054,-1.01778e-13,-2.54444e-14,-7.6509,-29.7987,12.734,17.7559,-40.2341,20.4776,31.328,7.12502,44.9798,54.8356,-90.6955,-52.6523,21.1073,63.076,-44.9021,-39.7715,38.4888,-11.3788,-20.6892,25.176,18.6974,-60.7519,-2.27337,53.5274
3.04775,15.9498,4.2008,-79.5191,-47.2976,101.52,13.5408,-6.52592,-3.97196,1.60443,-9.40489,-0.868776,-5.33598,-4.59252,2.93243,-2.90366,8.61782,9.75254,41.3636,2.26408,12.0278,15.3375,3.20482,3.56635,-1.74931e-13,-9.85972e-14,6.10129,-14.4614,14.4732,33.8945,-30.9214,31.4,-6.31184,7.12502,54.961,-24.4787,-1.74931e-13,-9.85972e-14,-7.48964,-24.2792,12.1131,17.0581,-45.1967,20.2992,30.1232,7.12502,44.8137,53.6958,-91.98,-53.1028,22.774,63.9497,-45.0965,-39.7171,38.4566,-11.3864,-21.5178,27.7594,18.202,-61.6925,-2.96657,53.522
3.02922,15.8928,4.19122,-78.9459,-48.2685,100.948,13.1895,-6.76405,-2.24784,1.5811,-9.42521,-0.642069,-5.40181,-4.62665,2.2082,-2.90876,8.49734,9.77202,41.4492,2.1003,11.9019,15.3922,3.12534,3.49549,1.20861e-13,-2.22639e-14,7.31928,-18.2342,14.6389,31.9724,-26.1766,28.6978,-6.64485,7.12502,52.5325,-26.4288,1.20861e-13,-2.22639e-14,-6.38005,-28.2312,11.0916,17.4937,-40.222,18.9195,33.8347,7.12502,43.5272,57.8917,-93.5783,-53.6367,25.1564,64.8467,-44.6267,-39.6117,37.5419,-11.1339,-22.7303,30.4967,17.6255,-62.9137,-3.13003,53.4326
3.00949,15.8124,4.13256,-78.4158,-45.9872,100.916,12.4915,-6.63561,-4.33435,1.45938,-9.59251,-1.32144,-4.92249,-4.70162,2.55896,-3.18848,8.39682,10.0525,41.6949,1.73785,11.9779,15.6299,3.03183,3.474,5.40694e-14,1.27222e-14,8.17068,-22.4896,14.3579,29.9725,-20.8217,27.4738,-6.62697,7.12502,51.4221,-27.0697,5.40694e-14,1.27222e-14,-4.29998,-29.6846,9.20404,17.7138,-38.3475,18.524,35.9589,7.12502,43.1577,60.1489,-95.7798,-54.3499,24.2365,65.8216,-44.2478,-39.5011,37.0259,-11.4586,-25.4672,29.6791,17.3374,-64.9391,-6.28125,53.703
2.9925,15.7527,4.12383,-78.136,-45.5784,100.713,12.2306,-6.84052,-4.54002,1.45688,-9.87434,-1.25436,-4.71714,-4.84461,2.73814,-3.14861,8.40206,9.83413,41.4868,1.9362,11.8208,15.4799,3.06251,3.44372,7.31528e-14,3.81667e-14,9.7376,-25.8292,14.0569,28.5215,-16.6895,23.5807,-7.25389,7.12502,47.855,-29.5341,7.31528e-14,3.81667e-14,-3.27638,-27.4869,8.31828,17.4686,-40.2925,18.4047,36.9824,7.12502,43.0462,61.212,-97.1076,-54.8541,24.645,66.6844,-43.9412,-39.2525,36.2876,-11.395,-27.0143,30.6625,17.3117,-65.8984,-9.19512,54.0717
2.98736,15.7112,4.12277,-78.0054,-46.0641,100.168,12.6991,-7.11841,-3.65264,1.39274,-10.1162,-0.957923,-5.12127,-4.95507,2.6805,-3.41849,8.55587,9.5485,42.0306,1.99377,11.9031,15.8122,3.07458,3.5985,-1.52667e-13,0,11.3689,-28.1628,13.8055,27.3096,-13.5063,22.5245,-7.46017,7.12502,46.8792,-30.1794,-1.52667e-13,0,-2.36165,-26.9915,7.33489,17.4515,-41.1646,18.6937,35.3339,7.12502,43.3163,59.4671,-97.3532,-55.3112,25.206,67.4757,-44.1736,-38.8704,35.8708,-11.2315,-27.1291,32.4406,17.277,-66.0376,-8.55213,54.3117
2.97727,15.6787,4.12033,-77.5862,-46.6543,99.5198,12.8538,-7.40542,-1.96432,1.2149,-10.2658,-1.06278,-5.69784,-5.03989,1.75171,-3.49006,8.49798,9.98203,42.5206,1.7086,11.7069,16.1492,3.00229,3.45367,-6.04305e-14,-3.81667e-14,12.9758,-31.6718,12.4434,25.9593,-8.40412,19.8192,-6.94618,7.12502,44.3666,-30.691,-6.04305e-14,-3.81667e-14,-0.720803,-30.939,5.60649,18.3135,-36.6719,19.209,35.4996,7.12502,43.7975,59.4576,-97.7886,-55.7431,26.1816,68.0952,-44.4691,-38.5649,35.9985,-11.4698,-26.4839,34.3087,17.3231,-65.9656,-6.94709,54.2568
2.9626,15.6438,4.11324,-77.5848,-46.7944,99.0838,13.2806,-7.74274,-1.20205,1.10458,-10.6182,-1.15565,-6.19391,-5.21467,1.39236,-3.49287,8.57926,10.0207,42.8739,1.60808,11.8384,16.3601,2.97721,3.52629,4.77083e-14,7.95139e-14,15.7484,-36.4832,9.52466,24.6875,-2.08324,17.8702,-6.25584,7.12502,42.5461,-30.6603,4.77083e-14,7.95139e-14,0.123903,-20.5395,6.14018,17.5077,-47.1699,19.9935,32.3726,7.12502,44.529,56.0553,-97.8332,-56.2634,26.3517,68.6622,-44.4055,-38.5027,35.82,-11.3025,-26.2222,35.3781,17.1365,-65.9708,-7.8887,53.7937
2.93986,15.6099,4.11105,-78.0918,-46.6052,99.1915,13.6577,-8.03189,-1.282,1.09732,-11.0176,-1.10187,-6.37582,-5.40044,1.61802,-3.48173,8.76795,9.52587,43.1631,1.88694,11.8667,16.4666,3.02165,3.68322,-5.40694e-14,1.90833e-14,20.0812,-41.8048,5.12906,23.3959,4.38773,15.6722,-5.35039,7.12502,40.484,-30.4286,-5.40694e-14,1.90833e-14,0.369276,-22.8995,5.33934,17.8019,-44.9534,19.9539,32.2503,7.12502,44.4921,55.9472,-97.5909,-56.5417,25.8272,69.1052,-44.272,-38.3864,35.8831,-10.6548,-26.9558,35.725,16.8465,-66.1503,-11.6159,53.242
2.91953,15.5748,4.10152,-78.5811,-46.2418,99.4211,13.9971,-8.29763,-1.92061,1.05205,-11.463,-0.915694,-6.43752,-5.59446,2.27471,-3.72758,8.92487,8.87872,43.7166,2.21145,11.5621,16.7712,3.03297,3.76009,-1.90833e-14,2.22639e-14,27.2823,-48.5121,-2.47197,21.7247,12.5363,12.8614,-3.96105,7.12502,37.835,-29.805,-1.90833e-14,2.22639e-14,0.351335,-7.53726,7.48599,16.8894,-59.987,19.3611,29.192,7.12502,43.9395,53.0974,-97.1203,-56.5342,24.8248,69.4597,-44.3699,-38.3676,36.1534,-10.0415,-28.3055,35.8319,16.4329,-66.471,-15.0653,53.0463
2.91685,15.5721,4.06314,-78.0669,-45.7211,99.2602,13.9129,-9.22977,-2.93296,0.557102,-12.7931,-0.164813,-6.47552,-6.19132,3.81447,-3.54553,9.59313,6.95189,44.3346,3.58368,11.3884,16.8313,3.28042,4.22791,1.11319e-13,-6.99722e-14,37.0889,-51.8291,-12.3543,21.105,17.571,9.57897,-3.23993,7.12502,34.7269,-29.8593,1.11319e-13,-6.99722e-14,-1.89898,-18.5803,6.66768,17.3535,-48.1421,17.8516,31.3868,7.12502,42.5287,55.7972,-97.6635,-56.5103,24.7201,69.5631,-44.7552,-38.462,36.4596,-10.3904,-28.9571,36.1168,15.7974,-67.8631,-14.8763,53.3662
2.90893,15.585,4.02696,-78.068,-45.4718,99.2028,13.6629,-8.97457,-2.32983,0.70725,-12.4144,-0.817784,-6.47948,-6.04149,2.728,-4.11871,9.02582,7.4623,44.2165,2.33323,11.8223,17.0327,2.88082,4.19395,-6.36111e-14,-3.81667e-14,36.7203,-53.3981,-13.3032,20.6466,19.055,5.74994,-2.85651,7.12502,31.085,-30.2418,-6.36111e-14,-3.81667e-14,1.50668,-35.419,2.63335,19.4392,-30.9686,16.8276,35.4279,7.12502,41.5691,60.1607,-97.1097,-56.467,24.1045,69.5427,-45.4128,-38.1588,37.0212,-10.3184,-30.1363,36.2905,15.2783,-69.1378,-15.3285,53.434
2.9075,15.5899,3.98631,-78.2597,-45.28,99.0757,13.9226,-8.77107,-2.06416,0.793263,-12.1543,-1.26019,-6.69642,-5.92531,2.13789,-4.5882,8.55373,7.87311,44.1152,1.36387,12.0272,17.1947,2.56195,4.09959,-2.22639e-14,1.27222e-14,37.0848,-54.6655,-14.7142,20.0349,20.0947,1.4551,-2.25218,7.12502,26.9834,-30.3451,-2.22639e-14,1.27222e-14,4.13498,-33.2304,1.85176,19.5783,-32.6429,16.4943,35.5072,7.12502,41.2563,60.3416,-95.9898,-56.3827,23.012,69.5578,-45.9361,-38.2144,37.383,-10.2242,-31.0143,36.3962,14.9492,-70.1729,-15.8942,53.4475
2.89801,15.5932,3.96316,-78.2434,-45.5413,98.7831,14.2923,-9.14651,-1.94334,0.645502,-12.6093,-0.939001,-6.99325,-6.12589,2.56437,-4.63895,8.5889,7.19175,44.1406,1.57484,11.9912,17.151,2.52949,4.22606,-1.20861e-13,-8.90555e-14,42.5843,-55.9458,-21.0707,19.4004,22.3239,-2.26293,-1.31849,7.12502,23.4212,-29.9132,-1.20861e-13,-8.90555e-14,3.97798,-29.8037,3.22167,19.2013,-35.5455,15.8674,34.9339,7.12502,40.6675,59.955,-95.1848,-56.4006,22.7023,69.5462,-46.3247,-38.2203,37.6229,-10.4325,-31.3549,36.9692,14.9111,-70.8443,-16.9742,53.4332
2.88992,15.6007,3.94135,-78.2435,-45.8152,98.5208,14.8298,-9.81832,-2.07703,0.282479,-13.4783,-0.376999,-7.47457,-6.49917,3.50154,-4.11483,8.9053,5.90986,44.1346,2.37362,12.0077,16.8467,2.63697,4.51889,4.45278e-14,4.13472e-14,49.4962,-55.916,-28.9089,18.7705,24.4555,-6.06009,-0.172254,7.12502,19.7746,-29.1864,4.45278e-14,4.13472e-14,2.36799,-26.1742,5.27633,18.767,-38.9413,14.8606,34.4552,7.12502,39.7204,59.765,-94.0928,-56.2828,22.0926,69.4917,-46.8276,-38.2808,37.6392,-10.8348,-31.4498,37.4512,15.1504,-71.2627,-17.591,53.3524
2.86538,15.6188,3.93225,-78.7037,-45.5456,98.8758,14.7269,-9.88543,-2.1376,0.306421,-13.596,-0.548928,-7.41551,-6.56351,3.35759,-4.10849,8.70596,5.20911,43.4004,2.12858,12.6681,16.3811,2.48736,4.8203,-6.99722e-14,-2.8625e-14,52.8898,-56.4843,-33.7738,18.2799,26.2776,-9.9873,1.18034,7.12502,15.9959,-28.1793,-6.99722e-14,-2.8625e-14,2.95764,-23.6875,6.19032,18.6388,-40.8106,13.4215,34.2406,7.12502,38.3638,59.9399,-93.1361,-56.1002,21.0258,69.2957,-46.8991,-38.1944,37.7192,-10.9071,-32.4403,36.8697,15.5704,-72.0081,-18.8249,53.3926
2.83048,15.6406,3.93491,-79.5062,-44.7547,99.3643,14.7684,-9.99697,-2.79869,0.32779,-13.8873,-0.752851,-7.29862,-6.69765,3.53736,-4.7881,8.69454,5.12657,44.6389,2.22643,11.5622,17.2683,2.3895,4.50929,7.63333e-14,-5.725e-14,56.3504,-56.4705,-38.6592,17.9128,28.0341,-13.3458,2.70729,7.12502,12.7598,-26.8828,7.63333e-14,-5.725e-14,3.05761,-22.318,7.2747,18.5262,-41.4929,11.8852,33.7903,7.12502,36.9122,59.8775,-92.4103,-56.4251,19.7985,69.0415,-46.4153,-37.7729,37.657,-10.7181,-33.5132,35.3901,15.9501,-72.6799,-19.9579,53.4898
2.81792,15.6737,3.90134,-79.8324,-44.6591,99.4444,14.9413,-10.0508,-2.93903,0.295095,-13.9954,-0.793847,-7.40037,-6.74072,3.62321,-5.31473,8.49797,4.90603,45.2653,1.95308,11.1058,17.7985,2.17808,4.38728,1.90833e-13,-3.65764e-14,58.3055,-56.4805,-42.3026,17.5624,29.3574,-16.0907,4.41478,7.12502,10.1126,-25.3222,1.90833e-13,-3.65764e-14,3.76727,-23.066,7.81784,18.6873,-40.0882,11.7319,33.4051,7.12502,36.7671,59.5294,-90.4574,-55.8847,18.1182,68.6721,-47.2406,-37.88,38.0097,-11.0489,-32.8259,34.8948,16.2693,-72.359,-20.0946,53.5631
2.82203,15.7012,3.86403,-79.6405,-45.1457,99.37,14.8133,-9.7973,-2.52179,0.257268,-13.5854,-0.839653,-7.50265,-6.55069,3.27622,-5.80377,7.87836,4.99752,45.302,0.859631,11.1588,18.0534,1.74231,4.2651,0,8.5875e-14,59.2486,-57.5586,-45.3208,17.1592,31.1154,-18.3348,6.59083,7.12502,7.94718,-23.2398,0,8.5875e-14,5.68872,-22.4773,8.37955,18.8668,-40.4805,13.6472,31.9939,7.12502,38.5768,57.6338,-89.0683,-54.9225,17.4488,68.2728,-48.468,-38.2742,38.7796,-11.8401,-31.0773,35.3083,16.4697,-71.5163,-20.1682,53.3227
2.82075,15.7366,3.82593,-79.499,-45.1313,99.2683,14.9501,-10.3561,-2.83211,-0.145221,-14.3603,-0.540344,-7.81877,-6.88421,3.95027,-5.57836,8.09533,3.88174,45.618,1.3777,11.1064,18.0665,1.73297,4.52241,2.13097e-13,-2.54444e-14,62.7225,-56.1669,-50.777,16.5784,32.5081,-20.7803,8.30825,7.12502,5.58651,-21.5981,2.13097e-13,-2.54444e-14,4.30725,-18.2004,10.6369,18.4185,-44.6438,12.9312,31.6083,7.12502,37.9009,57.4344,-87.7904,-54.3309,16.4438,67.7921,-49.3835,-38.5578,39.648,-12.4207,-29.8006,35.0226,16.2599,-70.6738,-19.5088,53.1257
2.79593,15.7821,3.79724,-79.574,-45.2271,99.1654,14.5335,-10.1484,-2.28671,0.110307,-14.0295,-1.03544,-7.59152,-6.77575,3.01055,-6.286,7.35143,4.44858,45.5567,0.200551,10.7417,18.3631,1.30361,4.09757,-2.8625e-14,0,60.9024,-56.791,-50.995,15.9762,32.1506,-23.4084,9.73212,7.12502,3.04873,-20.2258,-2.8625e-14,0,6.34276,-19.0329,10.7974,18.6004,-43.2415,12.296,32.0388,7.12502,37.3006,58.0249,-86.4176,-54.1484,15.7028,67.2376,-49.8108,-38.6686,39.9914,-12.7139,-30.0171,34.6136,16.0924,-70.4095,-19.3673,53.1149
2.76143,15.842,3.77158,-79.879,-45.9583,98.8691,14.556,-10.0941,-1.1553,0.462717,-13.7833,-1.28362,-7.56052,-6.70512,2.12053,-6.97385,6.6529,4.5986,45.3412,-0.798969,10.5039,18.5022,0.900238,3.80443,-5.40694e-14,-4.45278e-14,59.3383,-57.1081,-51.316,15.235,31.5179,-24.8024,10.5761,7.12502,1.70238,-19.3969,-5.40694e-14,-4.45278e-14,7.68276,-17.5144,12.0006,18.6442,-44.0706,12.0795,31.5456,7.12502,37.0959,57.5852,-84.277,-54.0623,15.198,66.5913,-50.1772,-38.6048,40.0081,-12.773,-30.9201,34.6865,15.9746,-71.1781,-20.3564,53.3134
2.7412,15.8946,3.74193,-79.6548,-46.5098,98.9902,14.2311,-10.7877,-1.094,-0.0369799,-14.6115,-0.563004,-7.72333,-7.0753,2.97029,-6.60457,6.9786,2.81188,45.4709,0.100583,10.5914,18.301,0.944212,4.29081,-8.26944e-14,1.30403e-13,60.2082,-54.3537,-53.6084,14.4935,30.4759,-26.6109,12.0207,7.12502,-0.0443217,-17.959,-8.26944e-14,1.30403e-13,5.20198,-11.8,15.3507,18.1473,-49.0958,11.186,30.3988,7.12502,36.2503,56.6534,-83.5968,-53.4313,15.4842,65.8903,-50.7103,-38.7347,40.3011,-13.4,-31.1107,34.8317,15.9884,-71.9749,-20.8867,53.5178
2.73666,15.9472,3.68993,-79.4074,-46.4847,98.8096,14.3192,-11.5364,-1.85046,-0.517865,-15.6732,0.0575891,-7.87586,-7.53152,4.22966,-6.52609,7.35509,1.12722,45.7707,1.05101,10.5338,18.2739,1.01056,4.72065,-1.09729e-13,-5.40694e-14,61.7549,-51.8922,-57.0155,14.1253,30.4487,-27.6719,13.8987,7.12502,-1.06905,-16.0784,-1.09729e-13,-5.40694e-14,2.85982,-7.66481,17.7009,17.7142,-52.4903,9.92217,29.875,7.12502,35.0525,56.4188,-82.2946,-52.9384,14.725,64.9873,-51.1642,-39.2355,40.408,-14.7497,-30.4665,34.3192,16.8797,-71.2186,-21.2706,53.6306
2.70817,16.0134,3.6541,-79.388,-46.5484,98.8093,13.6677,-11.2355,-1.31246,-0.206375,-15.2334,-0.507959,-7.50353,-7.38091,3.14835,-7.49994,6.43624,1.79475,45.5603,-0.372627,10.2032,18.5952,0.5165,4.24563,4.77083e-14,-6.36111e-15,61.3516,-53.8776,-59.7413,14.5341,32.6688,-27.2328,15.7875,7.12502,-0.644953,-14.1913,4.77083e-14,-6.36111e-15,4.613,-9.00212,18.4111,17.9382,-51.1888,9.57616,29.8295,7.12502,34.7242,56.4495,-81.0306,-52.6184,14.224,64.0391,-51.295,-39.5922,40.383,-15.4874,-30.4379,33.5735,17.0867,-71.3284,-23.0054,53.3617
2.61399,16.1179,3.67638,-79.5551,-46.7134,100.292,11.3087,-11.0773,0.378303,-0.390685,-14.8213,-1.08211,-6.99728,-7.28934,1.22802,-7.7231,5.95256,1.89933,45.5087,-1.11056,10.0072,18.7013,0.196876,4.01144,-1.59028e-14,-3.49861e-14,58.0334,-53.4757,-58.9255,14.4242,30.9355,-27.1694,15.9518,7.12502,-0.583746,-14.0272,-1.59028e-14,-3.49861e-14,4.84838,-8.47008,19.7314,17.9416,-52.0388,9.29157,29.2646,7.12502,34.4541,55.9463,-81.5079,-51.7604,15.1599,62.6414,-50.8097,-39.7832,40.3673,-16.2988,-34.0272,32.8515,17.7856,-74.1204,-26.9527,53.3618
2.66055,16.1607,3.57119,-79.7211,-45.7565,99.5035,13.0907,-11.4592,-1.84927,-0.749423,-15.701,-1.12335,-7.79416,-7.5995,2.82914,-7.69436,5.91175,1.54656,45.7475,-1.14936,9.84337,18.8373,0.0660741,3.99911,3.81667e-14,7.31528e-14,54.8824,-51.7035,-58.4266,14.5349,28.7808,-28.3549,16.2038,7.12502,-1.72866,-13.769,3.81667e-14,7.31528e-14,3.73873,-7.29877,21.1734,17.796,-52.9167,8.33019,28.8015,7.12502,33.5409,55.686,-78.7541,-51.6521,12.4534,61.8581,-51.5348,-40.0675,40.8076,-17.3835,-31.5416,30.8729,18.3072,-70.951,-24.4728,53.0747
2.62115,16.2377,3.54148,-79.9602,-45.3942,100.276,12.2877,-11.6858,-2.19573,-1.06973,-16.0771,-1.31513,-7.64782,-7.79097,2.73328,-7.60898,5.81503,1.18295,45.7752,-1.16654,9.61786,18.8128,-0.0604602,3.94038,-2.8625e-14,8.5875e-14,54.4358,-51.0462,-61.2728,14.2851,29.4983,-28.6134,16.1042,7.12502,-1.97831,-13.8663,-2.8625e-14,8.5875e-14,2.62769,-5.77347,22.471,17.6504,-53.7497,7.33259,28.3907,7.12502,32.5922,55.4761,-78.197,-51.0391,12.057,60.6808,-51.172,-40.6419,40.8209,-18.1567,-32.095,29.3583,18.824,-72.0705,-24.6735,53.4247
2.58603,16.3107,3.49707,-80.7226,-45.758,100.893,12.1564,-11.6392,-2.06604,-1.0152,-16.0056,-1.44177,-7.59119,-7.77,2.50026,-7.72384,5.35176,0.910261,45.4801,-1.64607,9.39098,18.6827,-0.334227,3.77476,-1.81292e-13,3.33958e-14,50.6609,-49.9388,-60.1335,14.3461,26.8424,-28.8457,17.4203,7.12502,-2.20271,-12.5481,-1.81292e-13,3.33958e-14,2.29087,-5.70102,23.4548,17.6991,-53.2149,5.53165,28.7963,7.12502,30.8769,56.2211,-76.3419,-50.1094,11.4906,59.6263,-52.1743,-40.3435,41.7199,-17.9671,-32.243,28.2732,18.7006,-72.3551,-24.3344,53.5637
2.57984,16.387,3.44554,-81.1138,-46.1066,101.215,12.0643,-11.5635,-1.99389,-0.961569,-15.8913,-1.46531,-7.51178,-7.72236,2.39645,-8.07819,4.84358,0.657028,45.2482,-2.15639,9.08823,18.6642,-0.61345,3.57868,1.49486e-13,-4.29375e-14,46.4573,-48.659,-58.1801,14.6387,23.6303,-28.8167,18.3835,7.12502,-2.17468,-11.5852,1.49486e-13,-4.29375e-14,1.81727,-3.93669,25.1782,17.4879,-54.1177,3.15591,28.5825,7.12502,28.6095,56.4127,-74.445,-49.0278,10.8406,58.4166,-53.722,-39.9226,43.0973,-18.4785,-30.383,27.1683,19.1834,-71.1666,-22.9454,53.3758
2.53778,16.4792,3.41761,-81.8983,-46.2843,102.288,11.3524,-11.398,-1.6088,-0.951083,-15.6317,-1.74339,-7.29518,-7.63635,1.74362,-8.25172,4.41625,0.493252,45.055,-2.74072,9.05051,18.6402,-0.887793,3.4804,6.36111e-14,-2.8625e-14,41.7834,-46.8005,-55.911,15.0766,20.1175,-28.4717,18.6115,7.12502,-1.84144,-11.3603,6.36111e-14,-2.8625e-14,1.30688,-3.08557,26.6625,17.3696,-54.5661,4.43523,26.0465,7.12502,29.8311,53.6642,-73.0844,-47.8879,10.4445,57.0157,-54.1153,-39.9963,43.5778,-18.7071,-30.1309,25.6509,19.6774,-71.1646,-23.2723,53.3493
2.51721,16.5471,3.36265,-82.7789,-46.2392,103.073,11.2564,-11.2008,-1.98789,-0.90203,-15.4623,-2.08214,-7.19077,-7.56036,1.5363,-8.33306,4.02019,0.387753,44.8472,-3.40774,9.2322,18.6023,-1.16461,3.46155,-6.04305e-14,-4.92986e-14,37.8878,-45.5917,-54.9603,15.5126,17.6019,-27.6054,18.7711,7.12502,-1.00478,-11.2063,-6.04305e-14,-4.92986e-14,0.909372,-2.97498,27.817,17.3895,-54.9352,1.55512,26.9642,7.12502,27.0791,55.0423,-71.453,-46.9589,9.74284,55.7231,-54.4279,-40.0961,43.862,-18.9375,-27.922,23.6408,20.415,-69.9418,-21.7823,53.567
2.48701,16.628,3.31615,-83.584,-46.4225,104.166,10.964,-11.4782,-2.06089,-1.21944,-15.826,-1.8915,-7.28931,-7.72595,1.79364,-8.3748,4.17257,-0.633041,44.9481,-2.89278,9.14924,18.6028,-1.16416,3.69529,-3.49861e-14,-2.8625e-14,35.7316,-42.9439,-55.3269,15.7849,15.3918,-26.9333,18.7054,7.12502,-0.355661,-11.2741,-3.49861e-14,-2.8625e-14,-1.2274,-1.54076,29.0238,17.156,-55.63,-0.339558,26.992,7.12502,25.2651,55.3391,-70.0918,-45.5991,9.41578,54.2512,-54.9978,-40.2125,44.3675,-19.5779,-26.2901,21.9467,21.5252,-69.3126,-21.1419,53.6399
2.47215,16.7116,3.27012,-84.118,-46.1995,105.046,10.4686,-11.2505,-2.45467,-1.27562,-15.5906,-2.09752,-7.03564,-7.62143,1.64072,-8.85768,3.77615,-0.656999,44.9962,-3.42801,8.92119,18.8211,-1.40809,3.50841,3.49861e-14,-4.6118e-14,32.3571,-41.9257,-54.7769,16.3713,13.5597,-26.4928,18.4826,7.12502,0.0697756,-11.4971,3.49861e-14,-4.6118e-14,-1.52748,-2.17174,30.2311,17.0643,-54.333,-1.08178,27.4723,7.12502,24.5538,55.9178,-68.7644,-44.2487,8.55366,52.8034,-55.8621,-40.2815,44.9009,-20.5021,-24.6199,19.9479,22.4405,-68.3669,-18.2338,53.5089
2.43661,16.7929,3.23608,-85.3895,-46.1316,106.41,10.1135,-10.994,-2.73456,-1.19626,-15.287,-2.246,-6.72957,-7.48563,1.49712,-9.30737,3.50809,-1.0026,45.0059,-3.76926,8.94286,18.9925,-1.59881,3.53164,1.04958e-13,6.20208e-14,29.3971,-40.7018,-54.5421,17.0387,11.6849,-26.0958,18.4119,7.12502,0.453218,-11.5674,1.04958e-13,6.20208e-14,-2.19587,-0.53866,31.6796,17.0008,-55.0567,-1.302,27.2504,7.12502,24.3427,55.7245,-67.0099,-42.6971,7.65235,51.2418,-56.4545,-40.2921,45.4411,-20.8381,-24.4088,17.9681,23.5193,-67.7492,-16.9575,53.3714
2.41804,16.8675,3.19035,-86.9401,-46.4177,107.815,10.2491,-10.7124,-2.96542,-1.04643,-14.9449,-2.30548,-6.61062,-7.31655,1.50974,-9.65212,3.17156,-1.27602,44.7931,-4.18822,9.01321,19.0005,-1.79758,3.53463,7.31528e-14,6.52014e-14,26.6457,-39.6017,-54.5549,17.588,9.89523,-25.861,18.6288,7.12502,0.679994,-11.3498,7.31528e-14,6.52014e-14,-3.05456,-0.603842,32.6956,17.1225,-54.3763,-1.4726,26.3797,7.12502,24.1791,54.8756,-65.0044,-40.8972,7.08475,49.6969,-57.0339,-40.2012,46.099,-20.862,-22.73,16.189,24.4319,-66.2459,-15.6497,53.3593
2.39957,16.9358,3.14752,-88.0041,-46.7547,109.117,9.93161,-10.4442,-3.09815,-1.02936,-14.5793,-2.24221,-6.37497,-7.1416,1.51752,-9.97505,2.80361,-1.2629,44.6717,-4.5481,8.63725,19.0333,-1.9746,3.27664,5.56597e-14,7.15625e-14,23.9588,-38.5483,-54.445,17.9996,8.23567,-25.9752,19.0158,7.12502,0.569728,-10.9632,5.56597e-14,7.15625e-14,-3.86382,-1.79369,33.6114,17.1059,-52.8089,-2.22832,25.9649,7.12502,23.4544,54.5553,-63.4696,-39.0241,6.80255,48.1162,-57.1598,-40.1631,46.4979,-21.3866,-20.5931,14.6296,25.2102,-64.7704,-14.9664,53.3693
2.37758,16.9984,3.0971,-89.5352,-46.9912,110.641,10.0437,-10.5269,-3.57759,-1.1442,-14.7221,-1.91068,-6.34792,-7.18351,2.12806,-10.3491,2.95366,-1.74853,44.9913,-3.92078,7.9588,19.249,-1.90106,3.15745,-5.725e-14,-1.90833e-14,22.7169,-37.1521,-55.7203,18.207,7.46936,-25.9482,19.6663,7.12502,0.59577,-10.3126,-5.725e-14,-1.90833e-14,-5.87779,-0.539681,34.4435,16.7629,-53.0936,-3.58089,25.7875,7.12502,22.1564,54.5379,-61.5856,-36.8802,6.18344,46.62,-57.098,-39.5723,46.7108,-21.4302,-18.6661,12.8752,25.7509,-63.9857,-11.4449,53.6525
2.35599,17.0576,3.05392,-90.9666,-47.328,112.237,9.97736,-10.3042,-3.24491,-1.3443,-14.4179,-2.14383,-6.68015,-7.03916,1.7114,-10.0029,2.7089,-1.78792,44.6886,-4.27558,7.98321,18.9866,-2.06597,3.08726,1.11319e-13,0,19.6138,-36.4511,-55.9931,18.4361,6.51557,-25.9791,20.44,7.12502,0.565931,-9.53902,1.11319e-13,0,-7.1818,-1.6398,34.8315,16.7951,-52.1723,-4.13678,26.0995,7.12502,21.6226,54.9123,-59.9678,-34.5617,5.68319,45.2078,-57.3101,-38.7077,46.6991,-21.5798,-17.1739,11.409,26.1542,-62.8527,-9.58958,53.5566
2.3346,17.1082,3.00678,-92.4913,-47.1947,113.924,9.3071,-7.63548,-1.61817,-0.477847,-10.9362,-5.10413,-6.39455,-5.52609,-2.79211,-10.65,0.0534061,2.99121,43.7433,-10.1271,8.65522,19.077,-3.44665,1.42971,-5.40694e-14,5.56597e-14,8.66966,-42.3883,-51.5007,19.7906,4.90738,-25.9824,20.5442,7.12502,0.562729,-9.43483,-5.40694e-14,5.56597e-14,-0.858176,-15.7206,33.1954,18.3695,-43.0096,-2.96327,27.4894,7.12502,22.7492,56.1682,-58.538,-32.1941,4.75747,43.9873,-57.1105,-37.8684,46.3209,-21.5235,-15.3859,9.43054,26.2711,-61.6569,-7.41363,53.6683
2.3137,17.1445,2.95885,-94.0181,-46.612,115.615,8.93483,-5.76926,-1.16108,0.0149253,-8.58623,-7.12097,-5.93583,-4.48426,-5.59438,-11.4427,-1.67789,5.6492,42.8302,-14.0805,9.72227,19.0419,-4.42056,0.683667,1.74931e-14,3.97569e-14,0.087382,-46.0182,-48.1732,20.9288,3.79218,-25.8886,20.6955,7.12502,0.653316,-9.28329,1.74931e-14,3.97569e-14,3.32478,-23.3913,30.7783,19.4164,-38.2378,-2.19479,27.5208,7.12502,23.4866,56.1071,-57.2519,-29.7009,3.37474,42.844,-56.8617,-37.1966,46.2286,-21.6396,-13.6751,7.03304,26.6339,-60.6657,-5.18361,53.6271
2.29137,17.1693,2.91569,-95.5256,-46.4119,117.284,8.88574,-5.07034,-1.26668,-0.0551504,-7.73247,-7.67943,-5.96759,-4.08867,-6.27192,-11.3674,-2.84566,8.76436,42.3144,-15.0889,6.84292,18.0168,-4.71209,-1.33663,1.11319e-14,-1.11319e-13,-4.08457,-47.6512,-47.4379,21.2485,4.48326,-25.7796,20.8797,7.12502,0.758635,-9.09874,1.11319e-14,-1.11319e-13,3.3048,-24.5803,30.6383,19.4124,-37.8056,-2.61053,27.5098,7.12502,23.0877,56.1466,-56.1404,-27.3399,2.60313,41.7489,-56.5731,-36.8229,46.3525,-21.9112,-12.1589,5.19329,27.0998,-59.4922,-3.29084,53.5984
2.26584,17.2149,2.86176,-97.1505,-46.8347,119.048,8.84514,-5.27037,-1.53338,-0.417411,-7.95977,-6.96989,-6.20724,-4.157,-5.31763,-11.0811,-2.41355,7.50539,42.6098,-13.9728,6.5485,18.1232,-4.51541,-1.06445,5.88403e-14,5.88403e-14,-4.41025,-46.7898,-48.6321,20.629,5.60487,-25.7646,21.373,7.12502,0.773062,-8.6053,5.88403e-14,5.88403e-14,0.0322737,-20.8454,32.7353,18.6768,-40.0047,-2.91123,26.8715,7.12502,22.7992,55.5441,-55.0326,-25.3196,2.9024,40.5952,-56.023,-36.6381,45.596,-22.479,-9.39869,3.70092,27.8245,-57.4262,0.702096,54.0274
2.23685,17.2595,2.80982,-98.9722,-47.2896,121,8.91385,-5.898,-2.05428,-0.960886,-8.74017,-5.71504,-6.60524,-4.45908,-3.55507,-11.1726,-1.01006,3.07688,43.5855,-11.927,8.62183,19.2529,-4.16039,1.02675,-4.6118e-14,-1.00187e-13,-2.96918,-44.0442,-50.4756,19.5044,6.32835,-25.6935,21.8844,7.12502,0.841764,-8.09371,-4.6118e-14,-1.00187e-13,-4.40564,-13.4246,35.0329,17.5856,-44.5384,-3.13234,26.1395,7.12502,22.587,54.8381,-53.7981,-22.6498,2.91551,39.5308,-56.2885,-37.0084,44.0562,-22.9606,-7.18235,2.38954,28.559,-55.5649,3.73278,53.9326
2.20927,17.2813,2.7612,-100.749,-47.3818,122.936,9.16192,-6.64894,-2.68853,-1.66269,-9.77296,-4.79245,-7.2801,-4.88876,-2.02592,-10.4661,-0.113846,0.75796,43.8328,-10.0316,8.88076,19.1856,-3.85068,1.94224,1.74931e-14,1.74931e-14,-2.13261,-41.6953,-52.4441,18.5065,8.18116,-25.0658,22.1192,7.12502,1.44801,-7.85566,1.74931e-14,1.74931e-14,-8.93534,-6.48838,35.4618,16.7726,-48.6518,-3.26331,25.5687,7.12502,22.4612,54.2825,-52.8434,-20.0393,2.65559,38.5974,-56.2371,-37.7209,42.8719,-23.5461,-5.41731,0.898585,29.3991,-53.6073,6.16011,53.5798
2.17814,17.2846,2.71011,-102.342,-46.8395,124.575,9.38862,-7.07283,-3.71584,-2.31957,-10.4891,-4.37331,-7.8751,-5.16253,-0.866323,-10.1022,0.6346,-0.445894,44.2558,-8.46928,8.51252,19.2027,-3.53702,2.28253,-1.1609e-13,7.95139e-15,-2.80925,-40.1935,-53.3229,17.8028,10.3041,-24.3072,21.6124,7.12502,2.18071,-8.35622,-1.1609e-13,7.95139e-15,-12.637,-1.67814,34.8522,16.3201,-51.3535,-2.85294,25.0575,7.12502,22.8551,53.7232,-52.1223,-17.8839,1.95816,37.923,-56.627,-37.5034,43.6603,-24.0192,-3.90489,-1.24593,29.9777,-51.6487,8.77058,53.5638
2.14293,17.2836,2.65837,-103.676,-46.1424,125.967,9.06934,-6.59136,-4.49409,-2.5379,-9.92503,-4.29149,-7.77943,-4.85135,-0.486004,-10.3997,0.43821,-1.60868,44.4468,-8.50896,8.58232,19.4689,-3.73538,2.5297,-7.95139e-15,2.22639e-14,-5.56972,-40.3929,-51.5519,17.8647,11.2212,-23.6167,21.1968,7.12502,2.84756,-8.7639,-7.95139e-15,2.22639e-14,-13.798,-0.103193,35.1515,16.1799,-52.3608,-2.17705,24.8913,7.12502,23.5036,53.4755,-51.5492,-15.9364,1.15453,37.4535,-57.7091,-36.7052,44.9838,-24.6719,-2.82899,-3.56959,30.4755,-49.9232,11.1431,53.3834
2.11091,17.2838,2.60703,-105.075,-45.8737,127.468,8.74743,-6.04177,-4.72247,-2.65967,-9.2586,-4.68529,-7.76757,-4.53899,-0.900172,-10.2664,-0.00656686,-1.21591,44.1321,-9.38171,8.7735,19.3248,-4.00441,2.37218,-4.21423e-14,2.38542e-14,-9.43985,-41.6978,-49.827,17.9836,12.5201,-22.9087,20.8542,7.12502,3.53125,-9.09626,-4.21423e-14,2.38542e-14,-14.3608,-1.68633,34.6611,16.2691,-50.9834,-1.80374,25.3479,7.12502,23.8616,53.8857,-51.1204,-14.0723,0.956196,37.1353,-58.5068,-36.5158,45.6344,-25.4306,-2.24993,-5.27007,30.9751,-47.3707,14.8588,53.3629
2.08008,17.277,2.55714,-106.611,-45.8544,129.08,8.64597,-6.04752,-5.15012,-2.89992,-9.26703,-4.22447,-7.82018,-4.49589,-0.194047,-10.3077,0.0348554,-2.17898,43.8927,-8.92754,8.80523,19.1628,-3.99122,2.63923,-6.20208e-14,-1.59028e-14,-10.7784,-41.6998,-49.0186,17.3702,13.8781,-22.2498,20.6173,7.12502,4.16754,-9.32169,-6.20208e-14,-1.59028e-14,-16.5285,0.853416,34.0015,15.8226,-52.6212,-2.35755,25.5943,7.12502,23.3304,54.2006,-50.6927,-12.1203,1.00673,36.9101,-59.7297,-36.18,46.5897,-26.1745,-1.85321,-6.56895,31.4751,-44.5427,18.7948,53.1916
2.04902,17.2538,2.50865,-108.13,-45.568,130.638,8.59731,-6.0454,-5.78394,-3.13117,-9.30074,-3.79475,-7.86822,-4.45705,0.597263,-10.7149,0.152036,-3.2028,44.0005,-8.36032,8.67651,19.3081,-3.9523,2.86907,5.56597e-14,7.95139e-14,-11.9457,-41.6103,-48.052,16.7255,15.1307,-21.7723,20.5307,7.12502,4.62862,-9.39871,5.56597e-14,7.95139e-14,-18.8881,3.76707,32.9284,15.4779,-54.9659,-2.9838,25.5031,7.12502,22.7295,54.1843,-50.3784,-10.3065,0.897082,36.79,-61.1005,-35.2786,47.5893,-26.9504,-1.17579,-8.16781,31.9501,-42.2893,20.8456,53.1963
2.01725,17.2275,2.45922,-109.653,-45.2271,132.174,8.46724,-5.88346,-6.16278,-3.35239,-9.13867,-3.76162,-7.97828,-4.35415,0.80863,-10.7538,0.165512,-3.43053,44.0116,-8.21275,8.52202,19.3014,-3.9662,2.85658,1.08139e-13,-3.65764e-14,-14.2727,-42.1608,-46.501,16.3085,16.565,-21.395,20.5908,7.12502,4.99291,-9.3304,1.08139e-13,-3.65764e-14,-20.9306,3.70793,31.7802,15.861,-54.9782,-2.49059,25.6102,7.12502,23.2028,54.2326,-50.1358,-8.58427,0.844459,36.8056,-62.0801,-34.7156,48.0782,-27.683,-0.27249,-9.85924,32.3487,-40.5988,21.3446,53.0025
1.98436,17.2119,2.42419,-110.752,-45.2948,133.501,8.01709,-5.77824,-5.80276,-3.50329,-8.93483,-3.80305,-7.94989,-4.27829,0.50453,-11.0374,0.11703,-3.2176,44.083,-8.25377,8.26597,19.4042,-3.97797,2.67611,1.27222e-14,-7.63333e-14,-16.9454,-43.3202,-44.5958,16.0624,17.7578,-20.588,19.8987,7.12502,5.7721,-10.0026,1.27222e-14,-7.63333e-14,-22.5558,1.9291,31.0021,16.5516,-53.1504,-1.82795,26.5205,7.12502,23.8384,55.0614,-50.1405,-7.14659,1.10813,36.9273,-62.893,-34.7084,48.2836,-28.9098,0.0498146,-11.0959,32.7522,-39.0037,21.8929,52.6969
