JuanDHNZ/ProyectoFinalCD/preprocessing/sports_trials_csv/05_09.csv
root1,root2,root3,root4,root5,root6,lowerback1,lowerback2,lowerback3,upperback1,upperback2,upperback3,thorax1,thorax2,thorax3,lowerneck1,lowerneck2,lowerneck3,upperneck1,upperneck2,upperneck3,head1,head2,head3,rclavicle1,rclavicle2,rhumerus1,rhumerus2,rhumerus3,rradius1,rwrist1,rhand1,rhand2,rfingers1,rthumb1,rthumb2,lclavicle1,lclavicle2,lhumerus1,lhumerus2,lhumerus3,lradius1,lwrist1,lhand1,lhand2,lfingers1,lthumb1,lthumb2,rfemur1,rfemur2,rfemur3,rtibia1,rfoot1,rfoot2,rtoes1,lfemur1,lfemur2,lfemur3,ltibia1,lfoot1,lfoot2,ltoes1
0.3703,16.4004,-14.3706,30.6706,-5.23012,-3.94429,-16.512,1.81326,-3.82256,-6.28204,2.97235,0.336246,2.33178,1.53487,3.04717,-9.10989,-1.32329,0.389994,42.4901,-3.79032,3.90843,17.1378,-0.985408,1.08547,-2.6339e-15,5.1684e-15,-49,2.13687,-82.4994,18.4058,-24.2669,3.51758,8.58407,7.12502,28.955,-19.1874,-2.6339e-15,5.1684e-15,-47.6841,-8.28719,79.9821,53.9424,23.1413,8.35217,13.459,7.12502,33.5618,40.3389,-21.3972,-0.919831,32.3849,39.1162,18.2163,-17.7683,21.4298,-55.502,4.58195,-32.0029,40.7042,-45.8581,29.0621,19.3908
0.373537,16.3991,-14.3439,30.4545,-4.84223,-3.61466,-16.3704,1.61473,-3.83593,-6.26315,2.70853,0.30277,2.29891,1.40339,2.9682,-8.81122,-1.32256,0.680526,42.3204,-3.76684,3.69645,16.9489,-0.965271,0.937572,-3.22031e-14,-1.11319e-14,-49.0942,2.17011,-82.3532,18.416,-23.5943,5.29715,7.86542,7.12502,30.6534,-19.6015,-3.22031e-14,-1.11319e-14,-48.183,-9.07887,80.2755,54.5422,23.5459,9.52724,14.4183,7.12502,34.6778,41.049,-21.0037,-1.34846,32.2268,38.9567,18.3961,-17.6634,20.3697,-55.0861,4.68779,-32.4188,40.5318,-45.6376,29.1885,18.8684
0.372511,16.3977,-14.3326,30.4644,-4.75537,-3.52689,-15.891,1.45669,-3.85911,-6.42331,2.47653,0.429138,1.88671,1.30185,3.05109,-9.09217,-1.24584,0.662345,42.516,-3.58894,3.49597,17.1203,-0.916249,0.880189,-8.59744e-15,5.1684e-15,-49.0591,2.57649,-82.2359,18.1062,-22.6951,6.6292,8.19671,7.12502,31.9227,-19.0247,-8.59744e-15,5.1684e-15,-48.5878,-9.34796,80.5068,54.724,23.5488,10.8784,14.8629,7.12502,35.959,41.1895,-20.9708,-1.33342,32.1935,38.9304,19.8834,-17.923,24.9528,-55.0727,4.96304,-32.7078,40.4462,-45.2361,29.5022,17.7818
0.370215,16.3981,-14.3185,30.6373,-4.90664,-3.34611,-15.4789,1.57427,-3.88326,-6.85925,2.61679,0.227388,1.20547,1.39312,2.84706,-8.97408,-1.36094,0.689171,42.7057,-3.82065,3.59456,17.2111,-0.991751,0.887295,-2.44008e-14,-7.55382e-15,-49.6268,2.38104,-82.2386,17.6896,-21.4234,7.59789,9.31068,7.12502,32.8446,-17.7222,-2.44008e-14,-7.55382e-15,-49.197,-10.4622,80.785,54.6054,23.2953,12.3885,15.0867,7.12502,37.3881,41.0498,-21.1013,-1.09189,31.9464,38.8696,20.0463,-17.9062,25.1178,-55.2179,5.14197,-33.0938,40.4086,-44.8773,29.4685,17.6995
0.372852,16.3969,-14.2999,30.7608,-5.0047,-3.31001,-15.9239,1.53453,-3.9157,-6.64283,2.58712,0.350781,1.66378,1.36602,3.01424,-9.11364,-1.3391,0.541313,42.5244,-3.72954,3.56008,17.1397,-0.98358,0.908783,2.83268e-15,-5.36719e-15,-49.2675,3.06011,-82.3487,17.491,-20.8347,8.79925,9.96177,7.12502,33.9866,-16.825,2.83268e-15,-5.36719e-15,-48.8587,-10.9149,81.1589,54.1906,22.9487,13.7607,15.8146,7.12502,38.6838,41.4245,-21.1065,-1.0324,31.8319,38.7948,18.3,-17.3852,20.0579,-55.2858,5.22686,-33.2454,40.4498,-44.8837,29.0639,18.5249
0.383344,16.3957,-14.2907,31.0103,-5.29712,-3.66601,-16.1344,1.64539,-3.48873,-6.64014,2.67201,0.514174,1.78481,1.40039,2.96805,-9.1173,-1.27106,0.500682,42.431,-3.56051,3.43114,17.0766,-0.939848,0.882922,1.54555e-14,3.18055e-15,-49.2497,3.91752,-82.5839,17.698,-20.5834,10.3126,9.91613,7.12502,35.4228,-16.5401,1.54555e-14,3.18055e-15,-49.0713,-11.1951,81.5672,54.2312,22.7111,14.9397,17.253,7.12502,39.7949,42.5406,-21.2223,-0.875186,31.9474,38.7356,19.0227,-17.3196,21.4161,-55.583,5.36515,-33.0166,40.5076,-45.1396,29.2466,18.2739
0.387212,16.3929,-14.2774,31.231,-5.32537,-3.82292,-16.1488,1.62728,-3.25368,-6.77182,2.60681,0.644801,1.66308,1.3701,2.95902,-9.22025,-1.21942,0.559755,42.5491,-3.45359,3.28843,17.1619,-0.903262,0.825866,-1.50579e-14,-2.18663e-15,-49.4891,4.46783,-82.7229,18.0526,-19.9878,11.5157,9.72884,7.12502,36.5625,-16.4475,-1.50579e-14,-2.18663e-15,-49.6753,-11.5691,82.0111,54.4934,22.6952,15.5706,18.1848,7.12502,40.3885,43.2925,-21.3166,-0.767527,32.0675,38.6676,18.4474,-17.1242,20.0355,-55.8116,5.46285,-32.9344,40.5431,-44.9431,29.0193,18.2818
0.383867,16.392,-14.2625,31.3397,-5.25606,-3.64076,-16.0679,1.51551,-3.43919,-6.84063,2.48174,0.689714,1.54538,1.31511,3.08526,-9.39647,-1.21533,0.710459,42.5953,-3.42769,3.11237,17.2247,-0.8891,0.721804,-3.21037e-14,-1.59028e-15,-49.5498,4.83186,-82.8569,18.0806,-19.5009,12.5733,9.70279,7.12502,37.5628,-16.2141,-3.21037e-14,-1.59028e-15,-49.9697,-12.2119,82.5127,54.3529,22.6713,16.0574,18.3314,7.12502,40.8461,43.2966,-21.4221,-0.708852,31.9664,38.6652,20.918,-18.2324,27.1128,-55.8576,5.52055,-33.1934,40.4976,-44.5766,28.7063,18.3866
0.379396,16.3944,-14.2441,31.4236,-5.26407,-3.5289,-16.0295,1.41962,-3.53259,-6.85548,2.36497,0.754742,1.51085,1.26014,3.18548,-9.57077,-1.16058,0.687629,42.5415,-3.29867,3.00608,17.2315,-0.853447,0.69644,-2.21148e-14,-5.36719e-15,-49.4617,5.18934,-82.9013,17.9221,-19.0029,13.7199,9.56366,7.12502,38.6454,-16.057,-2.21148e-14,-5.36719e-15,-50.1103,-12.8052,83.0081,53.8822,21.9572,16.6361,18.1351,7.12502,41.3894,42.9264,-21.5026,-0.522523,31.9141,38.6518,18.3523,-18.1684,20.7726,-55.866,5.60504,-33.3678,40.4264,-44.4567,28.6223,18.3748
0.379083,16.3969,-14.224,31.5325,-5.4628,-3.31007,-15.8808,1.43927,-3.66553,-7.04814,2.40441,0.669107,1.2227,1.29082,3.16616,-9.54343,-1.14109,0.731752,42.605,-3.29162,3.02229,17.2612,-0.840568,0.698258,3.11843e-14,1.31198e-14,-49.7803,5.41047,-83.0625,18.0211,-18.6243,14.7982,9.09105,7.12502,39.6616,-16.2362,3.11843e-14,1.31198e-14,-50.7323,-13.8145,83.7884,53.2591,20.4118,16.6236,16.658,7.12502,41.3777,41.4531,-21.5656,-0.357728,31.632,38.6126,20.9597,-19.1263,27.3901,-55.876,5.7167,-33.738,40.3647,-44.7224,28.5017,18.5939
0.38465,16.3971,-14.202,31.6386,-5.43737,-3.31874,-15.4418,1.50814,-3.40441,-7.46768,2.43905,0.612575,0.559799,1.32254,2.93715,-9.36406,-1.15118,0.998841,42.8546,-3.31211,2.83426,17.3505,-0.828678,0.565209,-4.64162e-14,-1.41137e-14,-50.4931,5.65743,-83.3867,18.2235,-18.2906,15.7926,9.01375,7.12502,40.5972,-16.0293,-4.64162e-14,-1.41137e-14,-51.6813,-14.5199,84.2487,53.202,20.1855,17.7388,17.167,7.12502,42.4231,41.6137,-21.5225,-0.479535,31.6343,38.5342,18.2501,-18.7176,21.6988,-55.9035,5.85362,-33.8785,40.356,-44.9412,28.6436,18.1797
0.389399,16.3927,-14.1797,31.6753,-5.14295,-3.45704,-15.5985,1.43056,-2.97158,-7.41194,2.27957,0.718583,0.728797,1.22909,2.78754,-9.34121,-1.07601,1.28012,42.7821,-3.14677,2.52939,17.2836,-0.758389,0.400484,-3.37934e-15,-3.97569e-16,-50.5077,6.21814,-83.7254,18.2764,-18.0631,16.7733,9.34271,7.12502,41.5181,-15.4067,-3.37934e-15,-3.97569e-16,-51.9891,-14.8798,84.7041,52.7597,19.414,17.6237,16.5358,7.12502,42.3153,41.0194,-21.3884,-0.781827,31.9196,38.4808,20.6177,-19.8045,29.0195,-55.8807,5.88958,-33.755,40.3501,-44.7308,28.9301,17.8144
0.387058,16.3896,-14.1588,31.7271,-5.12288,-3.3654,-15.8515,1.38196,-3.02319,-7.31113,2.22905,0.776813,0.967213,1.19985,2.88157,-9.21632,-1.07986,1.19591,42.547,-3.13835,2.58315,17.1172,-0.76659,0.439812,-1.48095e-14,-1.90833e-14,-50.4,6.57516,-83.8357,18.1214,-17.6763,17.4712,9.56028,7.12502,42.1725,-14.9717,-1.48095e-14,-1.90833e-14,-51.9958,-15.3608,85.2176,52.1754,18.8304,17.6333,16.1652,7.12502,42.3243,40.6457,-21.412,-0.816414,31.9203,38.458,18.1715,-19.4846,23.0514,-55.8904,5.79948,-33.8009,40.3404,-44.5454,29.3415,17.0934
0.385398,16.3912,-14.1401,31.8295,-5.3103,-3.09701,-16.005,1.27788,-3.37985,-7.26232,2.14547,0.838012,1.08702,1.16354,3.14079,-9.38655,-1.05776,1.05818,42.5531,-3.06607,2.55677,17.1642,-0.76113,0.463383,1.79776e-14,-6.26172e-15,-50.3551,7.27274,-84.1477,18.3774,-17.5816,18.119,8.90526,7.12502,42.7789,-15.4183,1.79776e-14,-6.26172e-15,-51.9164,-15.7585,85.7608,51.4305,18.4725,17.7874,16.0021,7.12502,42.4686,40.4332,-21.5641,-0.632507,31.6523,38.4351,21.1938,-20.497,29.6457,-55.9484,5.88712,-34.2149,40.3486,-44.3032,29.2531,16.6997
0.387784,16.3901,-14.1189,31.8919,-5.29943,-2.97758,-15.8529,1.12648,-3.47608,-7.34624,1.94849,0.995666,0.922988,1.07415,3.32286,-9.71159,-0.968599,1.05748,42.7858,-2.86614,2.33987,17.3737,-0.702536,0.397605,-1.26974e-14,-5.76476e-15,-50.6007,8.07921,-84.48,18.9126,-17.3562,18.9928,8.03158,7.12502,43.5957,-16.0004,-1.26974e-14,-5.76476e-15,-52.2654,-15.8218,86.2896,50.9318,17.8517,17.9888,16.1977,7.12502,42.6571,40.5637,-21.5488,-0.683371,31.5885,38.3863,18.2032,-20.4808,23.8426,-55.9664,6.18544,-34.5953,40.3944,-43.7111,28.6938,16.1098
0.395086,16.3848,-14.0908,31.9915,-5.15963,-3.21527,-15.8121,1.10937,-3.05796,-7.42114,1.86009,1.16368,0.839559,1.02552,3.24636,-9.78201,-0.922384,1.01719,42.8127,-2.77126,2.29012,17.4052,-0.676649,0.397564,1.57723e-14,8.32411e-15,-50.8564,8.43362,-84.5929,19.1441,-16.8512,19.8994,7.57967,7.12502,44.4414,-16.1366,1.57723e-14,8.32411e-15,-52.8064,-16.0172,86.8088,50.7956,17.1794,18.3504,16.824,7.12502,42.9954,41.0716,-21.4472,-0.812055,31.8978,38.3119,19.9658,-21.1159,29.8591,-56.0244,6.23973,-34.3699,40.4697,-43.48,28.526,15.8021
0.40229,16.3804,-14.0661,32.0693,-5.06305,-3.4831,-16.0138,1.11155,-2.61147,-7.31762,1.79959,1.33705,1.0706,0.981466,3.17495,-9.80755,-0.891542,0.812384,42.708,-2.69895,2.36813,17.3538,-0.671875,0.481146,-1.6503e-14,-1.2598e-14,-50.7932,9.07952,-84.9166,19.0643,-16.7811,20.5955,7.94249,7.12502,45.0894,-15.5218,-1.6503e-14,-1.2598e-14,-52.9637,-16.0557,87.1962,50.5315,16.5903,18.6709,17.1493,7.12502,43.295,41.2901,-21.3304,-1.0168,32.2158,38.2325,19.9933,-21.7008,30.2245,-56.1174,6.29046,-34.1004,40.5585,-43.2523,28.9071,15.0968
0.403335,16.3811,-14.0518,32.0551,-5.1133,-3.28322,-15.9079,1.05841,-2.71853,-7.33006,1.74248,1.32571,1.0025,0.956325,3.21092,-9.79808,-0.89828,0.701257,42.7101,-2.7322,2.48835,17.3583,-0.688123,0.55088,-2.33696e-14,-6.42944e-15,-50.8978,9.50647,-85.2887,18.9962,-16.5988,20.9681,8.565,7.12502,45.4358,-14.7608,-2.33696e-14,-6.42944e-15,-53.0891,-16.2024,87.5568,49.9123,15.8607,18.8967,16.8647,7.12502,43.5059,40.9294,-21.2833,-1.18649,32.073,38.2021,19.4137,-22.3334,29.9927,-56.1007,6.45369,-34.4728,40.6033,-42.8663,29.1315,14.4761
0.403482,16.3815,-14.0399,32.1154,-5.13136,-3.10669,-15.4929,1.06576,-2.72663,-7.63936,1.74491,1.23218,0.459246,0.970492,3.09903,-9.58517,-0.908671,0.733811,42.7671,-2.79301,2.57544,17.3398,-0.697686,0.57665,6.56145e-15,-4.1869e-15,-51.6302,9.98393,-85.9998,19.3482,-16.7153,21.0986,8.40461,7.12502,45.5571,-14.8721,6.56145e-15,-4.1869e-15,-53.7014,-16.6612,88.0449,49.4127,15.2605,19.008,16.788,7.12502,43.6099,40.8149,-21.4001,-1.37921,32.0011,38.2678,17.5667,-22.0083,24.9153,-56.1185,6.63539,-34.8483,40.624,-42.7816,28.775,14.6876
0.407555,16.3809,-14.0243,32.1542,-5.06377,-3.15597,-15.2317,1.15133,-2.42509,-7.84199,1.81276,1.17193,0.115713,1.00377,2.86364,-9.43327,-0.942458,0.952528,42.7906,-2.84882,2.44523,17.3083,-0.702986,0.469198,-2.53023e-14,-2.11768e-14,-52.1,10.0823,-86.395,19.5666,-16.5204,21.5673,7.80494,7.12502,45.9922,-15.2928,-2.53023e-14,-2.11768e-14,-54.2382,-17.0115,88.3662,49.2347,14.8182,19.4873,17.201,7.12502,44.0572,41.0625,-21.4761,-1.8045,32.1551,38.4247,20.0666,-23.0176,30.9343,-56.0933,6.86709,-34.9609,40.6017,-42.6553,28.4262,14.968
0.408508,16.3745,-14.0119,32.1296,-5.11446,-3.074,-15.1813,1.12045,-2.46212,-7.77179,1.77525,1.20827,0.163423,0.984843,2.91698,-9.51977,-0.934792,1.10664,42.6831,-2.82404,2.30699,17.2612,-0.687324,0.380049,-4.33288e-15,-6.53505e-15,-52.1279,10.5198,-86.7807,19.734,-16.6125,22.0913,7.2596,7.12502,46.4781,-15.6332,-4.33288e-15,-6.53505e-15,-54.3918,-17.0123,88.6106,49.0317,14.1418,19.986,17.4306,7.12502,44.522,41.116,-21.4934,-1.58656,32.1285,38.6519,16.2791,-23.9124,27.4374,-56.0493,7.14245,-35.2403,40.5695,-42.4286,28.2775,14.9549
0.404748,16.3706,-14.0064,32.1528,-5.27468,-2.77871,-15.147,0.918873,-2.97206,-7.52671,1.57237,1.38946,0.395206,0.892412,3.36943,-10.1894,-0.866316,0.998707,42.6337,-2.65003,2.15713,17.4008,-0.6489,0.355025,-1.47473e-14,5.46658e-15,-51.7124,11.3441,-86.9625,19.8212,-16.7823,22.5859,7.38702,7.12502,46.936,-15.3073,-1.47473e-14,5.46658e-15,-53.974,-16.8155,88.9924,48.4674,13.4721,20.1222,17.5068,7.12502,44.6489,41.1433,-21.6516,-1.4216,31.8939,38.9335,17.0646,-26.0431,32.0917,-56.0333,7.11788,-35.5712,40.4876,-42.4117,28.2979,14.9487
0.405741,16.366,-13.9996,32.2037,-5.25379,-2.53402,-15.0786,0.855903,-3.10351,-7.61438,1.50427,1.38305,0.267311,0.86544,3.42385,-10.0843,-0.857903,0.956941,42.672,-2.61687,2.13729,17.3951,-0.645027,0.360196,-2.40032e-14,-2.14687e-14,-51.9649,11.6155,-87.2135,19.9052,-16.8902,22.8394,7.37789,7.12502,47.1705,-15.2129,-2.40032e-14,-2.14687e-14,-54.1979,-17.199,89.581,47.8806,12.9694,19.9041,17.3898,7.12502,44.4457,41.1044,-21.8391,-1.65945,31.7853,39.2688,16.5802,-27.4936,34.7579,-56.0641,7.13437,-35.9127,40.3918,-42.0265,28.4672,14.2462
0.407155,16.3626,-13.9903,32.1783,-5.21951,-2.41921,-14.7452,0.79407,-3.1051,-7.73445,1.41195,1.44263,-0.0304391,0.827868,3.46351,-10.2206,-0.80246,0.958525,42.8756,-2.47967,1.97908,17.5444,-0.606307,0.311418,-1.23246e-14,-2.88238e-15,-52.2188,12.0044,-87.5323,19.9977,-17.1475,22.8693,7.13977,7.12502,47.1981,-15.4387,-1.23246e-14,-2.88238e-15,-54.4129,-17.4956,90.1879,47.2533,12.5669,19.7749,17.3808,7.12502,44.3253,41.1413,-21.9482,-1.92216,31.8136,39.6395,15.6911,-28.572,35.6808,-55.9662,7.07876,-36.0158,40.2888,-41.8816,28.6636,13.9841
0.407453,16.3583,-13.9793,32.1293,-5.25579,-2.33985,-14.4953,0.773373,-3.12685,-7.76545,1.38005,1.47089,-0.194424,0.816674,3.49427,-10.3278,-0.778714,0.965585,42.8854,-2.44809,1.97221,17.5778,-0.592355,0.311768,-1.08338e-14,-2.3059e-14,-52.514,12.4776,-88.0679,20.223,-17.5534,23.7205,5.18774,7.12502,47.9839,-17.0326,-1.08338e-14,-2.3059e-14,-54.5895,-17.7703,90.6824,46.7552,12.0178,19.8011,17.3658,7.12502,44.3497,41.117,-22.0226,-2.22388,31.8521,39.9968,14.6759,-29.3839,34.9579,-55.8255,6.98478,-36.0308,40.2577,-42.1924,28.3832,14.6211
0.409555,16.3565,-13.9723,32.2353,-5.35865,-2.10981,-14.5762,0.74484,-3.287,-7.77022,1.36494,1.418,-0.159054,0.812079,3.5293,-10.0791,-0.868325,0.70308,42.7568,-2.65942,2.33991,17.4534,-0.676584,0.49301,1.02871e-14,1.11319e-14,-52.7085,12.8052,-88.5274,20.404,-17.8566,23.8603,6.15157,7.12502,48.1128,-16.0085,1.02871e-14,1.11319e-14,-54.8884,-17.8396,90.9959,46.6937,11.1693,19.974,17.4208,7.12502,44.5108,41.1105,-22.3072,-2.73835,31.6992,40.3775,12.7798,-30.0097,34.3547,-55.9269,7.1534,-36.4872,40.2681,-42.0275,28.1327,14.5152
0.414185,16.3544,-13.9667,32.4388,-5.33372,-2.12869,-14.7271,0.754885,-3.12927,-7.85124,1.36145,1.44021,-0.16044,0.807243,3.46549,-9.68046,-0.860732,0.654413,42.5428,-2.65275,2.42698,17.2269,-0.676646,0.542294,1.79403e-14,4.37326e-15,-52.9461,12.9454,-88.7853,20.4848,-17.9126,23.9625,6.85147,7.12502,48.207,-15.2642,1.79403e-14,4.37326e-15,-55.2826,-17.8452,91.3001,46.8358,10.7436,20.4535,18.0039,7.12502,44.9573,41.5202,-22.6698,-3.28526,31.8398,40.7775,11.5892,-30.2624,33.5066,-56.1584,7.17595,-36.5672,40.3061,-42.0291,28.0658,14.4761
0.417871,16.3494,-13.9603,32.4755,-5.26443,-2.15226,-14.6411,0.717844,-3.00088,-7.87732,1.29225,1.53892,-0.226696,0.772055,3.48451,-9.64836,-0.797714,0.700129,42.4915,-2.50467,2.27692,17.1811,-0.629557,0.489541,5.2181e-16,3.57812e-15,-53.2009,13.2713,-89.042,20.7374,-18.0821,24.223,6.75325,7.12502,48.4468,-15.2484,5.2181e-16,3.57812e-15,-55.5155,-17.853,91.7191,46.6601,10.5202,20.8532,18.2714,7.12502,45.329,41.6402,-22.7926,-3.8214,32.0175,41.1917,10.9773,-30.5145,33.2426,-56.2362,7.25853,-36.6218,40.3453,-41.7014,28.2853,13.9386
0.421866,16.3423,-13.9536,32.3637,-5.29612,-2.00777,-14.3791,0.698666,-3.10423,-7.81927,1.27278,1.60314,-0.307251,0.767512,3.60241,-10.0106,-0.80699,0.671208,42.6488,-2.47254,2.14653,17.3631,-0.632436,0.440764,9.14409e-15,1.0138e-14,-53.2737,13.4668,-89.1255,20.9531,-18.1622,24.696,6.53686,7.12502,48.8819,-15.2538,9.14409e-15,1.0138e-14,-55.5913,-18.0502,92.2836,46.1638,10.2436,20.8031,17.9603,7.12502,45.2824,41.3477,-22.7251,-4.30705,31.9601,41.5694,9.67817,-30.8572,33.9619,-56.1251,7.29966,-36.8209,40.3921,-41.5563,28.3271,13.7793
0.424776,16.3352,-13.9472,32.2671,-5.32348,-1.94463,-14.262,0.684467,-3.13759,-7.62495,1.25516,1.67046,-0.164819,0.754993,3.68945,-10.5484,-0.835381,0.657482,42.7581,-2.48418,2.03452,17.5661,-0.647964,0.388113,2.49475e-14,1.76918e-14,-53.0551,13.7965,-89.3161,20.9634,-18.4717,25.1462,7.00363,7.12502,49.2953,-14.5814,2.49475e-14,1.76918e-14,-55.396,-18.0291,92.5276,45.8051,9.68035,20.9682,17.6666,7.12502,45.4359,40.9923,-22.6868,-4.57611,31.9725,41.8964,8.22497,-31.3499,34.2054,-55.9611,7.0602,-36.7281,40.4383,-42.0031,28.1173,14.607
0.430204,16.3294,-13.9336,32.0894,-5.26132,-2.00717,-14.0622,0.685981,-2.91516,-7.51177,1.22483,1.73049,-0.143315,0.731956,3.61906,-10.6296,-0.847966,0.610398,42.7337,-2.4842,2.01244,17.5729,-0.658554,0.385645,-4.27387e-15,7.95139e-15,-53.145,14.1259,-89.6833,21.0586,-18.833,25.3328,7.07721,7.12502,49.4666,-14.4212,-4.27387e-15,7.95139e-15,-55.4445,-17.6926,92.5306,45.8123,9.19574,21.5003,18.0234,7.12502,45.9301,41.147,-22.5194,-4.99464,32.1185,42.1839,7.77526,-31.4158,33.5722,-55.7778,7.10569,-36.6148,40.4897,-42.1363,28.0727,14.5983
0.435098,16.3261,-13.9198,32.0177,-5.23189,-2.00787,-13.8458,0.725927,-2.7311,-7.6007,1.25136,1.71704,-0.348732,0.744735,3.49784,-10.2624,-0.854403,0.603859,42.5951,-2.49348,2.04645,17.3957,-0.663428,0.401662,1.98785e-14,1.25234e-14,-53.5388,14.1409,-89.9974,21.2347,-19.0002,25.6022,6.60216,7.12502,49.7134,-14.7697,1.98785e-14,1.25234e-14,-55.8492,-17.6108,92.7067,45.9989,9.00612,22.0063,18.7091,7.12502,46.3993,41.6355,-22.4878,-5.36946,32.1829,42.46,8.41551,-31.2108,32.6896,-55.771,7.55716,-36.8991,40.5472,-41.6248,28.0986,13.4594
0.439171,16.3242,-13.9132,32.1602,-5.24575,-1.99377,-13.7916,0.76059,-2.62824,-7.75359,1.28408,1.71825,-0.538971,0.763724,3.44187,-10.0143,-0.811721,0.656692,42.5776,-2.43049,2.03305,17.3186,-0.63268,0.39793,-1.09332e-15,1.23246e-14,-53.8005,13.9699,-90.0347,21.4325,-18.9901,26.0203,6.11538,7.12502,50.0962,-15.0567,-1.09332e-15,1.23246e-14,-56.1637,-17.8197,93.1868,45.835,9.05157,21.9711,18.9359,7.12502,46.3667,41.8762,-22.7636,-5.65238,32.2466,42.7675,7.93229,-30.9494,32.3053,-55.9297,7.63885,-37.0366,40.6165,-41.5734,27.8997,13.5837
0.443734,16.3228,-13.9087,32.3845,-5.28629,-2.01399,-13.9106,0.810727,-2.52416,-7.80886,1.34047,1.73612,-0.536061,0.789985,3.41107,-10.1025,-0.813422,0.725123,42.6829,-2.40053,1.89555,17.3984,-0.624825,0.328249,-3.57812e-15,-1.59028e-15,-53.9314,13.8717,-90.0572,21.5805,-18.9874,26.1737,6.35926,7.12502,50.2365,-14.7384,-3.57812e-15,-1.59028e-15,-56.2464,-18.0707,93.6767,45.4721,8.97558,21.7011,18.6976,7.12502,46.1164,41.7435,-23.139,-5.85746,32.3373,43.1255,5.47472,-30.3908,31.5945,-56.1711,7.65117,-37.1269,40.6529,-41.6212,27.739,13.7689
0.452194,16.3194,-13.9059,32.4996,-5.18939,-2.07637,-13.9747,0.877193,-2.23913,-7.75875,1.3965,1.73482,-0.444281,0.80699,3.25781,-10.3469,-0.888904,0.786524,42.7164,-2.47754,1.74476,17.4784,-0.662859,0.233772,1.5207e-14,1.59028e-15,-53.9653,13.8718,-90.207,21.5676,-19.0934,26.1796,6.47561,7.12502,50.2419,-14.6192,1.5207e-14,1.59028e-15,-56.2378,-18.3509,94.021,45.2336,9.0128,21.3759,18.3116,7.12502,45.8146,41.4829,-23.3835,-6.13797,32.4919,43.4848,7.31817,-31.5266,35.3286,-56.3104,7.63091,-37.1229,40.6909,-41.6169,27.6047,13.8898
0.458969,16.313,-13.901,32.3952,-5.00461,-1.93331,-13.7887,0.92943,-2.09854,-7.71778,1.44907,1.62483,-0.495466,0.827319,3.06552,-10.4572,-1.01822,0.86573,42.6926,-2.6998,1.74363,17.4951,-0.738333,0.180529,-7.05686e-15,6.75868e-15,-53.9532,13.6297,-90.3117,21.6245,-19.4624,26.4782,5.89774,7.12502,50.5147,-15.0505,-7.05686e-15,6.75868e-15,-56.2261,-18.5441,94.1176,45.0597,8.88325,21.4061,17.9251,7.12502,45.8427,41.0849,-23.414,-6.45691,32.4904,43.8055,6.08961,-31.0504,34.1784,-56.1778,7.45164,-37.1807,40.7265,-41.6416,27.5433,14.2403
0.463632,16.3079,-13.8911,32.2726,-4.84004,-1.82623,-13.9471,0.849919,-2.12617,-7.47203,1.34748,1.72158,-0.148143,0.770567,3.17666,-10.5493,-1.05534,0.837709,42.561,-2.71578,1.66799,17.44,-0.760002,0.14675,1.41634e-14,3.97569e-15,-53.7353,13.8507,-90.3459,21.8184,-19.9399,26.6536,5.53028,7.12502,50.6748,-15.3308,1.41634e-14,3.97569e-15,-55.7497,-18.0647,93.9403,44.7439,8.49235,21.7792,17.948,7.12502,46.1888,40.9635,-23.4064,-6.7455,32.5119,44.0519,5.01,-30.1807,31.533,-56.0324,7.4788,-37.2982,40.7711,-41.4354,27.5539,13.9014
0.466841,16.3069,-13.8813,32.3353,-4.68167,-1.92132,-13.9901,0.76891,-1.94759,-7.44196,1.21627,1.88659,-0.0838803,0.700983,3.23262,-10.7204,-1.02044,0.666265,42.6574,-2.65914,1.75099,17.5459,-0.751483,0.224798,-3.97569e-15,-1.82882e-14,-53.7641,14.124,-90.4466,21.9801,-20.0871,26.8092,5.5115,7.12502,50.8168,-15.2716,-3.97569e-15,-1.82882e-14,-55.5551,-17.4222,93.7732,44.5304,8.23667,21.8857,17.7837,7.12502,46.2876,40.7575,-23.5514,-7.00119,32.743,44.2149,4.61974,-28.8059,26.8237,-56.1111,7.51065,-37.2267,40.8586,-41.3635,27.4942,13.6453
0.470918,16.3049,-13.8754,32.4128,-4.48054,-1.97679,-13.9879,0.731538,-1.75855,-7.47193,1.14284,1.9851,-0.109228,0.661207,3.2187,-10.8174,-0.997723,0.69105,42.7726,-2.60975,1.68032,17.6368,-0.734211,0.196275,-8.74653e-15,-6.36111e-15,-53.9286,14.4087,-90.7691,22.1082,-20.244,26.765,5.45198,7.12502,50.7765,-15.3533,-8.74653e-15,-6.36111e-15,-55.5462,-17.0207,93.7309,44.4394,8.21507,21.7194,17.5514,7.12502,46.1333,40.5903,-23.6683,-7.24168,32.9344,44.3135,4.61682,-28.2006,24.7802,-56.2462,7.4927,-37.1865,40.9985,-41.386,27.2611,13.4394
0.477966,16.299,-13.8681,32.4003,-4.1144,-2.0881,-13.9863,0.736389,-1.36997,-7.50025,1.10275,2.03867,-0.129072,0.63156,3.04911,-10.7878,-0.993139,0.959236,42.8907,-2.5673,1.40281,17.6873,-0.708003,0.0275676,-1.03368e-14,-4.77083e-15,-54.0702,14.491,-91.0798,22.0225,-20.44,26.4687,5.79539,7.12502,50.506,-15.1575,-1.03368e-14,-4.77083e-15,-55.6756,-16.7169,93.6684,44.4268,8.10099,21.802,17.7245,7.12502,46.2099,40.7311,-23.6145,-7.52617,33.2016,44.3844,4.23549,-27.7112,24.2124,-56.3036,7.50789,-37.0747,41.1509,-41.0461,27.2811,12.618
0.484023,16.2938,-13.8638,32.365,-3.87629,-2.26429,-13.9221,0.805294,-1.03173,-7.54421,1.15361,2.13797,-0.207202,0.650865,2.96667,-10.6506,-1.01785,1.03526,42.9691,-2.54834,1.22409,17.6911,-0.709702,-0.0636983,1.55052e-14,4.37326e-15,-54.2407,14.4217,-91.1448,22.0127,-20.5718,26.3712,6.06389,7.12502,50.417,-14.9371,1.55052e-14,4.37326e-15,-55.7733,-16.5065,93.7575,44.4362,8.31112,21.7086,18.163,7.12502,46.1233,41.206,-23.5586,-7.58721,33.4602,44.4575,4.59408,-27.1446,23.3294,-56.2813,7.44521,-36.8189,41.2746,-41.1582,27.0867,13.0958
0.486154,16.2888,-13.8643,32.3043,-3.87607,-2.13279,-13.7382,0.822084,-1.12463,-7.61856,1.18817,2.16048,-0.388526,0.67451,3.04245,-10.4735,-1.03592,0.966214,42.9884,-2.53169,1.18124,17.6552,-0.719441,-0.0659618,-1.58034e-14,-1.27222e-14,-54.478,14.3053,-91.1256,22.2302,-20.5425,26.59,5.91315,7.12502,50.6168,-14.9796,-1.58034e-14,-1.27222e-14,-55.8553,-16.4148,93.9957,44.2795,8.91859,20.9298,18.1113,7.12502,45.4002,41.4515,-23.5498,-7.52386,33.3233,44.553,4.2779,-26.2553,22.2557,-56.2287,7.49115,-37.0078,41.3224,-41.2186,26.848,13.5159
0.489475,16.288,-13.8634,32.2369,-3.79037,-1.97623,-13.5654,0.771038,-1.23403,-7.59236,1.13253,2.21957,-0.45357,0.651659,3.15563,-10.5286,-1.04471,0.886325,42.8999,-2.49382,1.1216,17.616,-0.724902,-0.0728329,1.5704e-14,4.81059e-14,-54.5508,14.3931,-91.1297,22.5049,-20.7003,26.7798,5.72817,7.12502,50.79,-15.0697,1.5704e-14,4.81059e-14,-55.7665,-16.1448,94.0487,44.2801,9.35002,20.3177,18.0147,7.12502,44.8309,41.5806,-23.5471,-7.60742,33.1865,44.6413,3.71577,-24.9902,19.7364,-56.1543,7.5823,-37.2571,41.3074,-40.8999,26.8763,12.834
0.492815,16.2894,-13.8589,32.1915,-3.65839,-1.85007,-13.5835,0.710482,-1.26969,-7.41705,1.05382,2.27424,-0.255859,0.609935,3.22519,-10.6929,-1.03634,0.859541,42.6461,-2.44041,1.06008,17.5073,-0.717225,-0.0886266,9.14409e-15,6.75868e-15,-54.2448,14.4323,-91.0439,22.4403,-20.7658,26.8325,5.91666,7.12502,50.8381,-14.8547,9.14409e-15,6.75868e-15,-55.4234,-15.6937,93.7683,44.4776,9.27051,20.3935,18.0096,7.12502,44.9014,41.5479,-23.599,-7.75012,33.0814,44.7168,6.71036,-25.0482,20.1056,-56.0269,7.65914,-37.4751,41.2148,-40.5311,26.8765,12.3568
0.49253,16.2901,-13.8564,32.1356,-3.56579,-1.67663,-13.6052,0.657806,-1.41633,-7.30007,0.999688,2.29705,-0.121081,0.584465,3.32677,-10.7596,-1.06076,0.896477,42.5614,-2.45967,0.994451,17.4728,-0.727721,-0.129188,7.05686e-15,9.14409e-15,-53.9261,14.2534,-90.8595,22.1159,-20.6067,26.8271,6.18714,7.12502,50.8331,-14.5869,7.05686e-15,9.14409e-15,-55.1453,-15.3705,93.5986,44.4714,9.25971,20.2297,17.8748,7.12502,44.749,41.4726,-23.6739,-7.75697,32.9239,44.7651,7.20031,-24.2126,17.2674,-55.8339,7.60162,-37.6389,41.0941,-40.6071,26.5537,12.7209
0.491825,16.2904,-13.8552,32.1361,-3.5623,-1.55607,-13.6348,0.653624,-1.55223,-7.28482,1.01013,2.30753,-0.0932916,0.593381,3.41696,-10.8242,-1.10299,0.998406,42.6831,-2.50973,0.872117,17.5569,-0.744893,-0.213055,1.33186e-14,2.5842e-14,-53.9979,14.2955,-90.999,22.2425,-20.8011,26.4278,6.25819,7.12502,50.4687,-14.7149,1.33186e-14,2.5842e-14,-55.0211,-15.1344,93.5317,44.4566,9.24851,19.9363,17.8677,7.12502,44.4757,41.5709,-23.8242,-7.6443,32.7882,44.7699,5.62693,-22.3626,11.6814,-55.7582,7.52623,-37.7297,40.989,-40.7234,26.3976,12.9827
0.493835,16.2925,-13.8524,32.2504,-3.59234,-1.56837,-13.9628,0.699069,-1.59196,-7.14891,1.07396,2.38741,0.217137,0.622276,3.54046,-10.8836,-1.15433,1.05374,42.54,-2.52233,0.688504,17.482,-0.765677,-0.309449,1.00386e-14,-2.38542e-15,-53.9665,14.5028,-91.0779,22.667,-21.2036,26.0167,5.70626,7.12502,50.0929,-15.4676,1.00386e-14,-2.38542e-15,-54.6911,-14.959,93.57,44.4235,9.16496,19.6278,17.8127,7.12502,44.1882,41.625,-24.1111,-7.47235,32.7669,44.7407,8.00781,-22.5524,8.76222,-55.863,7.38045,-37.6595,40.9065,-40.6676,26.7495,12.5136
0.496539,16.2921,-13.8478,32.3436,-3.48515,-1.70743,-14.3527,0.729865,-1.44872,-6.93164,1.09285,2.52781,0.652038,0.621938,3.62096,-10.9346,-1.17857,0.91995,42.2965,-2.5087,0.685887,17.3547,-0.783468,-0.2832,-2.18663e-15,5.56597e-15,-53.6966,14.5892,-90.9414,22.7624,-21.4936,25.681,5.60953,7.12502,49.7856,-15.725,-2.18663e-15,5.56597e-15,-54.253,-14.7069,93.5931,44.2161,8.84794,19.069,17.1949,7.12502,43.6669,41.2009,-24.2835,-7.28881,32.8983,44.6485,8.70116,-22.1503,5.01374,-55.9503,7.32883,-37.4951,40.8687,-40.5707,26.9892,12.2443
0.500798,16.2894,-13.8406,32.2754,-3.30605,-1.67409,-14.3948,0.743324,-1.37152,-6.87859,1.09962,2.58246,0.730314,0.622981,3.63727,-10.9184,-1.2363,0.801073,42.2684,-2.57021,0.714323,17.3367,-0.822344,-0.258304,1.80894e-14,1.03368e-14,-53.6102,14.4227,-90.778,22.5626,-21.606,25.4502,5.73391,7.12502,49.5742,-15.7096,1.80894e-14,1.03368e-14,-54.126,-14.3869,93.5255,44.1357,8.28069,18.8642,16.864,7.12502,43.4756,40.9397,-24.1754,-7.24467,32.8251,44.5193,8.94414,-22.229,5.65381,-55.8142,7.30253,-37.5134,40.8558,-40.5401,26.8311,12.2229
0.506628,16.288,-13.8317,32.1433,-3.09207,-1.60041,-14.2082,0.743461,-1.27792,-6.9643,1.08979,2.59249,0.543412,0.619867,3.58779,-10.8012,-1.28795,0.813864,42.3441,-2.63257,0.667259,17.3485,-0.850373,-0.291273,4.37326e-15,-1.03368e-14,-53.7034,14.1436,-90.6554,22.4235,-21.4463,25.3212,5.86708,7.12502,49.4559,-15.6367,4.37326e-15,-1.03368e-14,-54.2279,-13.9289,93.3285,44.2434,7.59652,18.9106,16.9338,7.12502,43.5189,40.9938,-23.9825,-7.26597,32.7069,44.3837,8.79593,-22.6165,8.33632,-55.5904,7.2184,-37.5237,40.8605,-40.4787,26.7899,11.4589
0.508829,16.2911,-13.8285,32.1302,-2.91577,-1.58163,-14.0767,0.7412,-1.21291,-7.07308,1.08005,2.6537,0.359438,0.618399,3.60962,-10.6462,-1.29603,0.846449,42.3519,-2.59552,0.538748,17.3084,-0.846808,-0.347307,6.95746e-16,-6.36111e-15,-53.8034,13.9067,-90.4456,22.3656,-21.2148,25.1482,6.07454,7.12502,49.2972,-15.5095,6.95746e-16,-6.36111e-15,-54.4115,-13.4772,93.224,44.4537,6.80657,18.6257,16.6246,7.12502,43.2527,40.7806,-24.0109,-7.23608,32.6914,44.2847,11.4167,-23.3837,11.9625,-55.5221,7.15093,-37.5056,40.8546,-40.3925,26.7683,10.8915
0.508912,16.2929,-13.8314,32.2326,-2.75088,-1.57733,-14.1239,0.703342,-1.21371,-7.11598,1.02885,2.76804,0.340052,0.595614,3.72397,-10.6043,-1.28251,0.960845,42.3516,-2.49348,0.269841,17.2882,-0.822085,-0.472573,-1.02374e-14,0,-53.8536,13.9226,-90.2934,22.4959,-21.1043,25.2053,5.81828,7.12502,49.3495,-15.7394,-1.02374e-14,0,-54.4597,-12.9379,93.0875,44.8458,5.98752,18.4881,16.6531,7.12502,43.1241,40.855,-24.2087,-7.04933,32.7369,44.2247,12.7968,-23.3687,10.7643,-55.6434,7.1801,-37.592,40.854,-40.0086,26.9248,10.5201
0.511136,16.2916,-13.8309,32.3455,-2.58909,-1.55862,-14.2534,0.725826,-1.20149,-7.15628,1.05745,2.81452,0.363274,0.611115,3.77257,-10.493,-1.33068,1.11619,42.2532,-2.53046,0.0923958,17.1947,-0.836357,-0.584847,-1.98785e-15,-2.06736e-14,-53.9383,13.8886,-90.2559,22.592,-21.1206,25.0631,5.87771,7.12502,49.2191,-15.7456,-1.98785e-15,-2.06736e-14,-54.2776,-12.5384,92.8998,44.9995,5.3203,18.6488,17.0195,7.12502,43.2744,41.1677,-24.386,-6.76929,32.7443,44.2218,13.0519,-23.3863,11.058,-55.7702,7.25441,-37.7335,40.8293,-39.6959,26.9422,10.0438
0.517413,16.2932,-13.8254,32.4107,-2.45666,-1.61553,-14.4065,0.819177,-1.05766,-7.14305,1.16299,2.82747,0.453743,0.659944,3.72331,-10.4985,-1.40771,1.2644,42.1512,-2.64608,-0.00126516,17.1316,-0.871746,-0.671865,-9.54166e-15,6.36111e-15,-53.6873,13.5382,-89.9771,22.2939,-20.8522,24.8402,6.32503,7.12502,49.0144,-15.4002,-9.54166e-15,6.36111e-15,-54.0621,-12.3884,92.809,45.0479,4.86776,18.3922,17.1253,7.12502,43.0345,41.3591,-24.5069,-6.64675,32.7563,44.2257,13.5287,-23.1157,11.567,-55.8541,7.60552,-37.9368,40.8105,-39.3321,26.6854,9.69359
0.520979,16.2962,-13.8273,32.4959,-2.48623,-1.51183,-14.3845,0.902424,-1.15395,-7.21105,1.28921,2.75315,0.360617,0.727081,3.71622,-10.6363,-1.48783,1.53638,42.226,-2.78581,-0.160684,17.1996,-0.902865,-0.819213,-1.25234e-14,-7.15625e-15,-53.5661,13.4311,-90.0129,22.1106,-20.8805,24.6071,6.50796,7.12502,48.8002,-15.3227,-1.25234e-14,-7.15625e-15,-53.9808,-12.2167,92.6394,45.1456,4.1345,17.9495,17.08,7.12502,42.6204,41.4587,-24.7398,-6.45183,32.5583,44.2455,14.1261,-23.1025,12.639,-55.9594,7.92821,-38.3231,40.7609,-39.0161,26.3854,9.51955
0.521923,16.2952,-13.829,32.5768,-2.31667,-1.5075,-14.2828,0.942838,-1.11347,-7.36667,1.34191,2.75907,0.139227,0.757947,3.7021,-10.6436,-1.57384,1.69513,42.3894,-2.92165,-0.273485,17.2879,-0.943167,-0.923916,1.11319e-14,2.62396e-14,-53.6659,13.2528,-89.9782,22.0517,-20.6556,24.4182,6.75447,7.12502,48.6264,-15.1607,1.11319e-14,2.62396e-14,-54.0433,-12.1933,92.6645,45.1829,3.61997,17.234,16.6846,7.12502,41.9502,41.2914,-24.9153,-6.31602,32.5964,44.2161,15.0703,-23.1537,12.9568,-56.0613,8.01167,-38.4156,40.7306,-38.671,26.3692,9.28296
0.52323,16.293,-13.8244,32.5349,-2.18297,-1.51581,-14.2343,1.00362,-1.05755,-7.4708,1.41875,2.7592,-0.000629342,0.798627,3.67836,-10.5357,-1.67905,1.70343,42.5664,-3.09617,-0.251048,17.3608,-1.00515,-0.944708,-2.10712e-14,-7.15625e-15,-53.8872,12.9267,-89.8187,22.057,-20.2584,24.2053,6.93299,7.12502,48.4305,-15.0764,-2.10712e-14,-7.15625e-15,-54.2157,-12.3991,92.9011,45.1222,3.37699,16.0487,15.9503,7.12502,40.8379,40.918,-24.9076,-6.27371,32.6196,44.165,16.0192,-22.9439,11.7803,-55.9924,8.09254,-38.4474,40.6872,-38.3773,26.4501,8.74334
0.528074,16.2923,-13.8147,32.3616,-2.18241,-1.56407,-14.1457,1.07542,-0.995635,-7.49915,1.50737,2.79492,-0.0834514,0.843811,3.68996,-10.3988,-1.71971,1.73897,42.6393,-3.13136,-0.331943,17.3634,-1.02253,-0.992162,-1.39149e-15,-2.38542e-15,-54.0354,12.7606,-89.6599,21.9282,-19.7868,23.9906,6.84684,7.12502,48.2328,-15.2566,-1.39149e-15,-2.38542e-15,-54.3996,-12.4287,93.1375,45.1291,3.13652,14.9763,15.4602,7.12502,39.8293,40.7375,-24.6805,-6.15506,32.5529,44.0678,16.4788,-22.7933,10.9072,-55.7716,8.25702,-38.4343,40.6784,-38.3942,26.2384,8.86575
0.530682,16.2916,-13.808,32.2253,-2.17401,-1.56201,-14.1576,1.16327,-0.98365,-7.4317,1.62203,2.77862,-0.0131839,0.899569,3.68286,-10.4847,-1.79521,1.81404,42.6719,-3.2472,-0.386915,17.3996,-1.06165,-1.05182,8.54774e-15,-3.97569e-15,-53.9361,12.5935,-89.5432,21.8265,-19.4426,23.7088,6.35089,7.12502,47.9731,-15.8745,8.54774e-15,-3.97569e-15,-54.3008,-12.4004,93.1701,45.1587,2.8581,14.3984,14.9623,7.12502,39.2851,40.4,-24.4904,-6.08009,32.4619,43.9978,16.5672,-22.7814,10.1734,-55.5635,8.19256,-38.3477,40.6464,-38.5282,26.2367,8.98671
0.529629,16.2913,-13.804,32.1905,-1.97265,-1.56238,-14.2719,1.20898,-0.922837,-7.39774,1.675,2.76468,0.0820609,0.923157,3.645,-10.5394,-1.87709,1.86988,42.7252,-3.39824,-0.366545,17.4423,-1.10757,-1.07931,1.37161e-14,6.36111e-15,-53.8587,12.4043,-89.4596,21.8647,-19.2029,23.2491,6.24597,7.12502,47.5489,-16.1746,1.37161e-14,6.36111e-15,-54.2219,-12.5154,93.2452,45.2951,2.62753,13.9622,14.7873,7.12502,38.8738,40.3433,-24.4218,-6.11781,32.5344,43.9418,16.6459,-22.6361,9.35659,-55.4851,8.06638,-38.2341,40.6176,-38.34,26.4103,8.23587
0.530067,16.2917,-13.8025,32.2454,-1.87227,-1.43522,-14.3302,1.22364,-1.01983,-7.47345,1.70886,2.73887,0.0282188,0.944456,3.67815,-10.4511,-1.91437,1.83883,42.7577,-3.4663,-0.306315,17.4401,-1.13014,-1.05575,3.06128e-14,2.54444e-14,-53.6745,12.1537,-89.1909,21.5275,-18.6899,22.8975,6.74177,7.12502,47.2242,-15.8251,3.06128e-14,2.54444e-14,-54.2482,-12.7161,93.4703,45.4578,2.43617,13.4299,14.636,7.12502,38.3717,40.3331,-24.4987,-6.16466,32.4465,43.9089,16.677,-22.7577,9.80838,-55.4852,7.92074,-38.3185,40.573,-38.3134,26.3947,7.98765
0.531041,16.2918,-13.8017,32.2363,-1.85587,-1.37425,-14.2159,1.25547,-1.08914,-7.5643,1.76264,2.73689,-0.134799,0.977067,3.71751,-10.4785,-1.92642,1.83947,42.8503,-3.49066,-0.297641,17.5018,-1.13483,-1.05766,-5.36719e-15,-3.97569e-15,-53.4481,11.9277,-88.9136,21.0096,-18.1163,22.7281,7.03433,7.12502,47.0675,-15.6021,-5.36719e-15,-3.97569e-15,-54.2144,-12.7634,93.6467,45.4727,2.21287,12.6921,13.7812,7.12502,37.675,39.6681,-24.517,-6.14393,32.3681,43.8825,16.4318,-23.3794,12.1926,-55.4668,8.05904,-38.4861,40.5369,-38.1922,26.2117,8.01031
0.532378,16.2939,-13.797,32.1333,-1.64385,-1.45552,-14.8888,1.12388,-1.25661,-7.07628,1.59005,3.0904,0.732488,0.882606,4.19143,-10.6277,-1.90592,1.72169,42.5581,-3.31802,-0.535537,17.3653,-1.11974,-1.1135,3.97569e-15,-3.97569e-15,-52.6917,12.3583,-88.4414,20.9307,-17.8402,22.5472,7.04136,7.12502,46.9002,-15.6687,3.97569e-15,-3.97569e-15,-53.2345,-12.0844,93.7321,45.3003,1.86184,11.8043,13.3419,7.12502,36.8356,39.4487,-24.4162,-6.25308,32.5356,43.8588,16.5014,-23.7305,13.3684,-55.3297,8.19128,-38.4241,40.4874,-37.9709,26.1484,7.70714
0.532765,16.2961,-13.7931,32.0982,-1.52469,-1.48804,-14.8001,1.18674,-1.15075,-7.26254,1.66576,3.03299,0.487911,0.923656,4.07554,-10.2927,-1.97766,1.84633,42.7266,-3.45195,-0.548641,17.3707,-1.15337,-1.16031,1.19271e-15,-1.19271e-14,-53.0645,11.9862,-88.3249,21.1002,-17.2739,22.4391,6.85869,7.12502,46.8001,-15.8951,1.19271e-15,-1.19271e-14,-53.5314,-12.0911,93.7652,45.6639,1.7671,11.1503,13.8994,7.12502,36.2165,40.1624,-24.4102,-6.31395,32.6241,43.8339,16.7707,-23.9772,14.2398,-55.2374,7.99804,-38.2332,40.4546,-38.0137,26.3401,7.79392
0.53393,16.3004,-13.7897,32.0755,-1.55331,-1.35748,-14.746,1.26997,-1.25739,-7.45611,1.79749,2.90199,0.245165,0.996974,4.0116,-9.9761,-2.06913,1.95515,42.903,-3.6343,-0.505411,17.3874,-1.20072,-1.18659,-8.74653e-15,-4.77083e-15,-53.3528,11.4788,-88.1047,21.1344,-16.6184,22.4999,6.64685,7.12502,46.8564,-16.0824,-8.74653e-15,-4.77083e-15,-53.9126,-12.0937,93.7319,45.9479,1.56926,10.4994,14.0261,7.12502,35.5999,40.44,-24.3997,-6.38745,32.4614,43.7926,16.7372,-24.2836,16.3533,-55.1185,7.79445,-38.2656,40.4385,-38.0991,26.4545,7.8055
0.536461,16.3027,-13.7837,32.0139,-1.37246,-1.46101,-14.7404,1.29849,-1.11479,-7.53148,1.81818,2.95681,0.163672,1.00703,3.9899,-9.83969,-2.13385,1.94877,42.9765,-3.71392,-0.540129,17.3921,-1.23687,-1.21251,1.41137e-14,-7.15625e-15,-53.3117,11.1712,-87.7432,20.9146,-15.8694,22.454,6.93727,7.12502,46.814,-15.8105,1.41137e-14,-7.15625e-15,-54.0686,-11.6311,93.5319,46.0196,0.727325,9.97534,13.8662,7.12502,35.103,40.3982,-24.3034,-6.49158,32.6162,43.7402,16.6753,-24.4455,18.1978,-55.0197,7.87001,-38.1693,40.4427,-38.0208,26.2561,7.7502
0.538878,16.3011,-13.7777,31.9535,-1.14432,-1.59616,-14.9349,1.28603,-0.943381,-7.4061,1.77342,3.07266,0.4042,0.977231,4.01737,-9.98908,-2.13947,1.97295,42.9292,-3.6743,-0.67562,17.3977,-1.23393,-1.27431,2.98177e-15,-2.14687e-14,-52.9975,11.1647,-87.4606,20.6854,-15.3613,22.2257,7.74327,7.12502,46.6025,-15.0961,2.98177e-15,-2.14687e-14,-53.7818,-10.9453,93.1911,46.0664,-0.0978256,10.0423,14.7638,7.12502,35.1665,41.2808,-24.1783,-6.49836,32.8423,43.6854,16.4655,-24.5973,19.2398,-54.9425,7.8425,-37.9465,40.4635,-38.1032,26.0805,8.13478
0.539918,16.3009,-13.7755,31.8943,-0.95795,-1.53816,-15.1386,1.24225,-0.992007,-7.22729,1.7159,3.10493,0.702746,0.943818,4.08082,-10.2974,-2.15089,2.01746,42.9257,-3.6975,-0.714918,17.4733,-1.23799,-1.31083,3.97569e-16,-3.18055e-15,-52.5684,11.1036,-87.2243,20.3907,-14.8748,22.1253,8.12278,7.12502,46.5096,-14.7565,3.97569e-16,-3.18055e-15,-53.2906,-10.3251,92.8215,46.0857,-0.412651,9.98054,15.461,7.12502,35.1079,41.9918,-24.1301,-6.51562,32.8927,43.6493,16.5729,-24.6223,19.104,-54.8576,7.70758,-37.8944,40.5041,-38.1696,25.9901,8.33647
0.543622,16.3041,-13.7698,31.8278,-0.842782,-1.58412,-15.1353,1.27692,-0.888655,-7.26519,1.74971,3.08545,0.662488,0.959222,4.00573,-10.3063,-2.18621,2.0562,43.0168,-3.80056,-0.633041,17.53,-1.25925,-1.29942,-2.20651e-14,3.97569e-15,-52.5295,10.9594,-87.1232,20.0997,-14.3538,22.1298,8.23132,7.12502,46.5137,-14.6462,-2.20651e-14,3.97569e-15,-53.2801,-9.7497,92.4383,46.2829,-0.622449,9.38705,15.2026,7.12502,34.5447,41.8638,-24.1189,-6.56242,32.988,43.6614,17.484,-24.2951,17.5607,-54.7246,7.57571,-37.7448,40.5216,-38.3161,25.9668,8.6298
0.546401,16.3048,-13.7653,31.8072,-0.747433,-1.65733,-15.1524,1.32572,-0.785075,-7.37453,1.80375,3.06824,0.555896,0.986592,3.93538,-10.1062,-2.24464,2.08161,43.1008,-3.92951,-0.545837,17.5277,-1.29439,-1.28233,-2.5842e-14,-2.78299e-14,-52.5919,10.7068,-86.902,20.0441,-13.9488,22.1421,7.9356,7.12502,46.5252,-14.937,-2.5842e-14,-2.78299e-14,-53.4236,-9.25641,92.0905,46.5817,-0.719355,8.94682,15.2464,7.12502,34.1268,42.0019,-24.1476,-6.58486,33.1013,43.7016,18.1289,-24.1732,16.8298,-54.6483,7.53335,-37.6336,40.5262,-38.5221,25.7488,9.19576
0.545449,16.3052,-13.7648,31.8639,-0.783955,-1.57462,-15.1889,1.31003,-1.00618,-7.45632,1.81418,3.08703,0.479057,1.00028,4.08231,-10.1351,-2.26659,2.12944,43.2096,-3.95474,-0.611989,17.5954,-1.30183,-1.3284,8.34896e-15,2.62396e-14,-52.6078,10.7856,-86.7762,20.2427,-13.9802,22.1199,7.24209,7.12502,46.5045,-15.6394,8.34896e-15,2.62396e-14,-53.3531,-8.39709,91.5777,46.8052,-0.878213,9.19121,15.8043,7.12502,34.3588,42.5077,-24.2909,-6.41329,33.0297,43.747,18.4038,-24.377,16.7624,-54.6863,7.40084,-37.6634,40.5258,-38.6061,25.752,9.32021
0.543602,16.306,-13.7631,31.8829,-0.725235,-1.60799,-15.2627,1.27896,-1.07883,-7.46105,1.78122,3.15081,0.510438,0.986555,4.18875,-10.3634,-2.25813,2.17657,43.32,-3.93347,-0.696648,17.7174,-1.29153,-1.38034,-4.37326e-15,6.36111e-15,-52.5095,11.0769,-86.8586,20.2201,-14.0266,21.9059,7.27743,7.12502,46.3062,-15.6885,-4.37326e-15,6.36111e-15,-53.2141,-7.43762,91.0027,47.0463,-0.887383,9.23491,15.9722,7.12502,34.4003,42.6662,-24.3582,-6.28102,33.1115,43.7575,18.5969,-24.8149,17.2979,-54.7439,7.33359,-37.577,40.5518,-38.3069,26.1761,8.35875
0.543183,16.3049,-13.7572,31.8921,-0.579373,-1.6737,-15.46,1.33071,-0.996781,-7.44841,1.83859,3.09948,0.628169,1.01089,4.10371,-10.4292,-2.32469,2.38035,43.2974,-4.06743,-0.762284,17.7099,-1.32031,-1.47067,7.95139e-16,2.38542e-15,-52.3857,10.9579,-86.8752,20.0577,-13.9003,21.6369,7.58095,7.12502,46.0568,-15.4899,7.95139e-16,2.38542e-15,-52.9841,-6.99045,90.5382,47.0431,-0.648218,8.58865,15.786,7.12502,33.7865,42.6169,-24.3805,-6.32915,33.2565,43.7489,18.7777,-24.974,17.3432,-54.7248,7.25936,-37.4442,40.5778,-38.3642,26.0933,8.3252
0.544324,16.3038,-13.7497,31.871,-0.447079,-1.72912,-15.4875,1.37562,-0.929906,-7.58773,1.89337,3.06772,0.494252,1.04029,4.03877,-10.147,-2.37864,2.60906,43.2999,-4.14919,-0.887457,17.6225,-1.33449,-1.5756,-3.65764e-14,-1.43125e-14,-52.5556,10.6643,-86.706,19.8956,-13.5034,21.1331,8.07563,7.12502,45.5892,-15.188,-3.65764e-14,-1.43125e-14,-52.9157,-6.47647,90.0946,47.0243,-0.492629,8.20971,15.8755,7.12502,33.4264,42.7848,-24.376,-6.42565,33.3734,43.7104,19.1819,-24.83,16.7247,-54.6721,7.26416,-37.369,40.6241,-38.5405,25.7935,8.85194
0.547808,16.304,-13.7418,31.7953,-0.306318,-1.70704,-15.4823,1.38534,-0.874841,-7.63622,1.9015,3.01501,0.443678,1.04342,3.95182,-10.0945,-2.39955,2.83281,43.3062,-4.19772,-0.992808,17.6001,-1.33159,-1.67094,-1.07344e-14,7.15625e-15,-52.5413,10.3353,-86.4505,19.9246,-13.2168,21.071,7.96428,7.12502,45.5314,-15.3228,-1.07344e-14,7.15625e-15,-52.6457,-5.78001,89.5309,46.971,-0.55573,8.23748,15.8712,7.12502,33.4528,42.7748,-24.2887,-6.5726,33.3951,43.6722,19.302,-24.9795,17.1915,-54.5584,7.29205,-37.3853,40.6529,-38.5647,25.6157,9.15184
0.547384,16.3036,-13.7346,31.6607,-0.156552,-1.71839,-15.4169,1.41954,-0.840719,-7.66749,1.94532,2.96432,0.376253,1.06521,3.88247,-10.2588,-2.43983,3.00719,43.4844,-4.29427,-1.06205,17.7396,-1.34287,-1.75935,2.46493e-14,4.29375e-14,-52.4474,9.80043,-85.9783,20.1778,-12.8643,21.8168,7.00582,7.12502,46.2236,-15.995,2.46493e-14,4.29375e-14,-52.4762,-5.13728,88.9547,47.1003,-0.368857,8.09739,16.0177,7.12502,33.3196,42.95,-24.1312,-6.60304,33.4787,43.6366,19.239,-25.0581,16.9458,-54.3571,7.11549,-37.1873,40.6736,-38.7913,25.5238,9.45256
0.546367,16.3025,-13.7255,31.5707,-0.105463,-1.67954,-15.4256,1.48416,-0.888518,-7.70926,2.04107,2.86037,0.332057,1.11422,3.81365,-10.4109,-2.5016,3.13304,43.6526,-4.44221,-1.05388,17.8743,-1.37218,-1.81166,-4.57205e-15,-7.95139e-15,-52.4237,9.50337,-85.8579,20.526,-12.6897,22.2986,5.86493,7.12502,46.6701,-16.9453,-4.57205e-15,-7.95139e-15,-52.2598,-4.67554,88.4352,47.0659,0.171206,7.70372,16.1657,7.12502,32.9453,43.1775,-24.0214,-6.64372,33.4592,43.6038,19.2784,-25.016,16.359,-54.2137,7.06362,-37.1695,40.6786,-38.7944,25.6247,9.19404
0.549704,16.3015,-13.7164,31.5491,-0.0791757,-1.71352,-15.6039,1.52165,-0.871589,-7.64458,2.08574,2.85788,0.49195,1.13344,3.81634,-10.6332,-2.55305,3.06339,43.7208,-4.52777,-1.02422,17.9762,-1.40859,-1.80797,3.01159e-14,3.49861e-14,-52.1328,9.64869,-85.8945,20.6695,-12.6474,22.2329,4.82632,7.12502,46.6092,-18.0102,3.01159e-14,3.49861e-14,-51.7999,-3.8769,87.8936,46.8206,0.483313,7.27141,15.9584,7.12502,32.534,43.0557,-23.9465,-6.74268,33.4692,43.5668,19.7686,-24.7637,15.7045,-54.1946,7.1708,-37.2035,40.6856,-38.5949,25.8063,8.55466
0.550872,16.3004,-13.709,31.5287,-0.0416824,-1.78017,-15.7175,1.53176,-0.842531,-7.66785,2.09429,2.87745,0.526549,1.13731,3.82579,-10.7727,-2.54825,3.16584,43.9286,-4.51987,-1.13546,18.1333,-1.39417,-1.88733,-5.66536e-15,-1.43125e-14,-52.0238,9.89785,-86.0468,20.4472,-12.5062,21.9028,4.62432,7.12502,46.3034,-18.3428,-5.66536e-15,-1.43125e-14,-51.607,-3.01804,87.3051,47.0173,0.863644,7.10202,15.9588,7.12502,32.3728,43.0893,-23.8603,-6.76018,33.5201,43.5185,20.0283,-24.7015,15.9454,-54.1561,7.05406,-37.0316,40.7036,-38.6243,25.9882,8.58216
0.552264,16.3005,-13.7016,31.4765,0.0297891,-1.77524,-15.7998,1.5814,-0.814975,-7.78423,2.16023,2.79825,0.446044,1.17104,3.73739,-10.5776,-2.5914,3.3962,43.9875,-4.59368,-1.25359,18.101,-1.40062,-1.99217,-7.15625e-15,-1.66979e-14,-52.1233,9.67017,-85.9964,20.1828,-12.1277,21.6072,4.73801,7.12502,46.0293,-18.3443,-7.15625e-15,-1.66979e-14,-51.6569,-2.4316,86.7713,47.3026,1.40823,6.78237,15.9955,7.12502,32.0685,43.1877,-23.7657,-6.84,33.5205,43.4578,20.1969,-24.5643,15.5212,-54.1001,7.13577,-37.0676,40.7379,-38.4084,26.1011,8.03506
0.551709,16.3006,-13.6946,31.4333,0.179687,-1.81202,-16.1862,1.53225,-0.890616,-7.68598,2.09849,2.89291,0.749963,1.13883,3.88817,-10.4525,-2.60356,3.41294,43.8455,-4.56546,-1.33735,17.9754,-1.40372,-2.02068,1.36167e-14,1.19271e-14,-51.901,9.63161,-85.6629,20.1411,-11.817,21.5895,4.91423,7.12502,46.0128,-18.175,1.36167e-14,1.19271e-14,-51.3255,-1.43937,86.2554,47.2789,1.63544,6.52777,15.8394,7.12502,31.8261,43.08,-23.6859,-6.92009,33.6145,43.3952,20.3495,-24.5275,15.3483,-54.0131,7.14349,-36.9958,40.7756,-38.5463,25.8039,8.54037
0.55155,16.2999,-13.6866,31.4116,0.278136,-1.91671,-16.3505,1.5133,-0.849594,-7.69101,2.06468,2.95632,0.831865,1.12106,3.93294,-10.613,-2.56305,3.47133,43.9747,-4.49353,-1.43141,18.0945,-1.37085,-2.0722,-1.55052e-14,-4.77083e-15,-51.7442,9.61818,-85.4297,19.9539,-11.5061,21.7085,5.65181,7.12502,46.1232,-17.3913,-1.55052e-14,-4.77083e-15,-51.0834,-0.538098,85.7618,47.26,1.86132,6.25037,16.1955,7.12502,31.5619,43.4884,-23.6074,-6.96213,33.7533,43.3539,20.4167,-24.6932,16.1632,-53.9647,7.16779,-36.8626,40.7954,-38.7958,25.4845,9.50932
0.551752,16.3011,-13.6743,31.3936,0.199068,-1.88171,-16.5022,1.52797,-0.959684,-7.72975,2.10096,2.90558,0.865082,1.14126,3.95287,-10.8989,-2.52279,3.6422,44.2881,-4.48225,-1.50329,18.3601,-1.33201,-2.15457,-1.73937e-14,7.15625e-15,-51.6434,9.49292,-85.2459,19.7346,-11.0728,21.5991,6.10016,7.12502,46.0217,-16.9853,-1.73937e-14,7.15625e-15,-50.8592,0.0194699,85.3334,47.0976,2.32581,5.76169,16.4879,7.12502,31.0962,43.871,-23.5301,-6.90055,33.6368,43.3473,20.2224,-24.9506,17.4858,-53.9196,7.34228,-37.0056,40.7812,-38.6893,25.4854,9.29143
0.551244,16.3012,-13.664,31.4025,0.111688,-1.72664,-16.5939,1.51727,-1.19895,-7.87477,2.12697,2.81443,0.750868,1.16265,3.997,-10.8665,-2.48258,3.87068,44.4497,-4.44824,-1.60601,18.4431,-1.28743,-2.24319,-2.45499e-14,3.18055e-15,-51.7512,9.31621,-85.0843,19.773,-10.726,21.4983,5.79294,7.12502,45.9282,-17.3314,-2.45499e-14,3.18055e-15,-50.8012,0.501092,84.8946,46.9561,3.00592,5.36788,16.6611,7.12502,30.7208,44.1154,-23.4987,-6.8394,33.4163,43.3647,19.9631,-24.9728,17.574,-53.8648,7.37269,-37.2017,40.7287,-38.6078,25.5746,8.8013
0.55255,16.2993,-13.6561,31.3429,0.145225,-1.59407,-16.6142,1.52188,-1.33031,-8.00533,2.15798,2.70509,0.619504,1.18377,3.95875,-10.8525,-2.44493,4.19135,44.5983,-4.40508,-1.79814,18.5165,-1.23511,-2.38958,-1.42131e-14,-9.54166e-15,-51.8809,9.06632,-84.9336,19.8056,-10.4161,21.3456,5.53877,7.12502,45.7865,-17.6441,-1.42131e-14,-9.54166e-15,-50.7441,0.936663,84.4359,46.8395,3.66957,4.95947,16.3967,7.12502,30.3313,43.9235,-23.4176,-6.92023,33.2694,43.4303,19.8682,-24.813,17.178,-53.6522,7.2256,-37.2402,40.6134,-38.7518,25.4655,9.46401
0.553195,16.2977,-13.6452,31.1539,0.139923,-1.42121,-16.6428,1.53105,-1.51641,-8.00396,2.2007,2.58068,0.630402,1.20786,3.9408,-11.0773,-2.38644,4.53609,44.7758,-4.3765,-1.94239,18.6775,-1.17344,-2.52961,6.85807e-15,-1.27222e-14,-51.9275,8.83096,-84.8284,19.8187,-10.1199,21.0358,5.65009,7.12502,45.4988,-17.6503,6.85807e-15,-1.27222e-14,-50.5065,1.23097,84.0984,46.6448,4.22466,4.31148,16.1822,7.12502,29.713,43.821,-23.1726,-6.91521,33.0446,43.4819,19.51,-25.1336,18.4138,-53.3009,7.19785,-37.3588,40.5156,-38.877,25.3198,9.94608
0.549185,16.2955,-13.6353,31.0088,-0.112274,-0.977797,-16.7561,1.45469,-2.15142,-7.92497,2.196,2.45969,0.751767,1.21682,4.17918,-11.4163,-2.29578,4.68725,44.8742,-4.27962,-2.01003,18.8347,-1.10953,-2.58766,1.86858e-14,-1.03368e-14,-51.739,8.75837,-84.6411,19.7378,-9.94109,20.7849,5.99451,7.12502,45.2655,-17.3997,1.86858e-14,-1.03368e-14,-50.1287,1.6733,83.845,46.4713,4.69738,4.05335,17.0029,7.12502,29.4666,44.6854,-23.0162,-6.76655,32.4638,43.5382,19.1266,-25.3273,19.3963,-53.0367,7.47021,-37.9929,40.4386,-38.7958,25.0382,10.0414
0.546597,16.292,-13.6278,31.0232,-0.121141,-0.993942,-16.8778,1.44926,-2.21332,-7.99298,2.19991,2.4615,0.739346,1.22201,4.22035,-11.697,-2.21775,4.69028,45.0547,-4.2066,-1.9624,19.04,-1.06153,-2.56906,1.61016e-14,3.73715e-14,-51.6071,8.77719,-84.5326,19.6214,-9.95322,20.6818,5.91737,7.12502,45.1697,-17.515,1.61016e-14,3.73715e-14,-49.8762,2.1447,83.5369,46.2489,5.11196,4.08186,18.3071,7.12502,29.4939,45.9849,-22.9944,-6.5923,32.4795,43.5271,19.1118,-25.4976,20.2827,-53.0401,7.56162,-38.0096,40.4495,-38.8543,24.7845,10.8146
0.547662,16.2889,-13.619,31.0441,0.0213158,-1.13762,-16.9328,1.45852,-2.07523,-8.17042,2.19345,2.50157,0.583393,1.22205,4.18141,-11.8856,-2.14156,4.80226,45.3452,-4.12206,-2.02065,19.2873,-1.00009,-2.62085,4.2043e-14,2.8625e-14,-51.6286,8.44262,-84.084,19.8887,-9.64561,21.3839,4.51603,7.12502,45.822,-18.6522,4.2043e-14,2.8625e-14,-49.773,2.49468,83.3069,45.9072,5.49385,3.64795,18.9041,7.12502,29.0795,46.6542,-22.9677,-6.57482,32.6816,43.5056,19.0314,-26.0772,22.3948,-53.0703,7.5096,-37.8054,40.4729,-38.7625,24.9358,10.5245
0.549272,16.2873,-13.6065,30.9373,0.0493118,-1.26861,-16.9586,1.44527,-1.96242,-8.3026,2.15915,2.56224,0.460662,1.20719,4.17406,-11.84,-2.03253,4.84317,45.4828,-3.95953,-2.03299,19.3759,-0.924601,-2.60967,1.80894e-14,-2.38542e-15,-51.8439,8.3502,-83.798,19.8074,-8.76691,21.3282,4.81135,7.12502,45.7703,-18.3782,1.80894e-14,-2.38542e-15,-49.7856,2.89142,83.1398,45.6144,5.94301,2.70885,18.6873,7.12502,28.1823,46.5887,-22.7957,-6.49636,32.784,43.4345,19.3117,-26.0948,22.328,-52.9304,7.34197,-37.5025,40.553,-39.077,25.0787,10.5455
0.546124,16.2871,-13.5983,30.8684,0.0404188,-1.23783,-17.0294,1.3562,-2.1085,-8.40402,2.06325,2.62755,0.388108,1.16766,4.31142,-11.8775,-1.89675,4.70294,45.5056,-3.77235,-1.87719,19.4258,-0.852803,-2.47622,-1.45113e-14,-1.43125e-14,-51.8738,8.51716,-83.646,19.7352,-8.35952,21.231,4.78779,7.12502,45.68,-18.4388,-1.45113e-14,-1.43125e-14,-49.8651,3.33112,82.9441,45.6098,6.44926,2.12063,18.3367,7.12502,27.6199,46.3294,-22.7055,-6.31376,32.746,43.3777,19.493,-25.7876,21.0686,-52.8148,7.02476,-37.2949,40.6182,-39.4351,25.1776,11.0617
0.544744,16.2856,-13.5949,30.8971,0.186192,-1.33767,-17.051,1.31573,-2.03711,-8.59052,2.00146,2.65961,0.206889,1.14183,4.29167,-12.1873,-1.77216,4.84761,45.7265,-3.63979,-1.91096,19.6719,-0.766405,-2.51321,3.27001e-14,2.46493e-14,-51.8691,8.58264,-83.5972,19.5242,-8.09789,20.4954,5.53975,7.12502,44.9963,-17.9613,3.27001e-14,2.46493e-14,-50.0314,3.55303,82.6576,45.6827,6.84502,2.0368,18.1784,7.12502,27.5398,46.1839,-22.7225,-6.20178,32.9329,43.314,19.9135,-25.6646,20.2074,-52.8768,6.80045,-37.0207,40.7062,-39.5893,25.1299,11.4844
0.548196,16.2861,-13.5925,30.8977,0.322108,-1.44405,-16.9428,1.30763,-1.89101,-8.83479,1.97309,2.6292,-0.100831,1.13173,4.16269,-12.1359,-1.69635,5.02462,45.7937,-3.61298,-1.83343,19.7065,-0.712015,-2.50312,-1.16786e-14,-1.03368e-14,-51.962,8.51341,-83.5529,19.3812,-8.00948,20.2687,5.78819,7.12502,44.7853,-17.7955,-1.16786e-14,-1.03368e-14,-50.1782,3.59344,82.4374,45.5142,7.22414,1.7515,18.0927,7.12502,27.2669,46.1415,-22.6989,-6.19957,33.0682,43.2874,20.1209,-25.3572,19.5005,-52.8285,6.60395,-36.7838,40.7707,-40.1113,24.7844,12.4512
0.550825,16.2888,-13.5873,30.9068,0.477633,-1.54075,-16.9591,1.26072,-1.77601,-8.96964,1.89618,2.652,-0.226617,1.09391,4.10725,-12.0664,-1.62825,5.03172,45.7191,-3.57849,-1.65949,19.6462,-0.678431,-2.40693,3.19546e-14,2.3059e-14,-51.823,8.3022,-83.2043,19.3599,-7.74586,20.8512,5.02403,7.12502,45.3272,-18.3455,3.19546e-14,2.3059e-14,-50.1082,3.70849,82.2957,45.2728,7.30146,1.46295,17.8891,7.12502,26.9909,45.9809,-22.7218,-6.20117,33.2106,43.3257,20.1227,-24.7481,18.143,-52.7128,6.13402,-36.3948,40.7847,-40.812,24.5681,13.3476
0.547687,16.2893,-13.5792,30.9712,0.507837,-1.50255,-17.1285,1.20721,-1.86558,-9.11489,1.84199,2.61893,-0.292252,1.07255,4.1178,-12.1631,-1.49748,5.19963,45.7782,-3.44168,-1.64575,19.7226,-0.589581,-2.41026,1.2275e-14,1.59028e-15,-51.7948,8.04929,-82.8984,19.2521,-7.41536,21.0561,4.87781,7.12502,45.5176,-18.4149,1.2275e-14,1.59028e-15,-50.176,3.79271,82.0986,45.2219,7.29268,1.53776,17.9785,7.12502,27.0624,46.0592,-22.868,-6.1007,33.1853,43.4449,20.0553,-24.7578,18.2997,-52.6924,5.89723,-36.3033,40.7184,-40.9381,24.6358,13.4309
0.540946,16.2905,-13.5811,31.0581,0.280709,-1.17999,-17.1424,1.18711,-2.34835,-9.35903,1.89224,2.43589,-0.563767,1.12052,4.20205,-12.3251,-1.32776,5.62195,45.8844,-3.28686,-1.73315,19.845,-0.4583,-2.50979,-1.98785e-15,-3.18055e-15,-51.9746,7.81512,-82.8235,18.9421,-7.23223,20.4214,5.53418,7.12502,44.9275,-17.9939,-1.98785e-15,-3.18055e-15,-50.3454,3.64124,81.9321,45.203,7.36954,1.44539,18.3425,7.12502,26.9741,46.4369,-23.1269,-5.8472,32.7848,43.6099,20.1704,-25.1139,19.0439,-52.715,5.85413,-36.6953,40.6024,-40.746,24.9102,13.2289
0.533014,16.2918,-13.5846,31.0988,0.103137,-0.995685,-17.0218,1.16003,-2.73309,-9.56124,1.9134,2.35808,-0.859025,1.15405,4.3336,-12.907,-1.12725,5.87035,46.138,-3.10427,-1.74997,20.2094,-0.325493,-2.55388,1.34677e-14,5.56597e-15,-52.0174,7.61091,-82.5899,18.8212,-7.04287,19.7805,6.15301,7.12502,44.3305,-17.6055,1.34677e-14,5.56597e-15,-50.3971,3.50289,81.89,45.2121,7.41106,1.22557,18.6119,7.12502,26.7637,46.7387,-23.2663,-5.41019,32.5438,43.7115,19.9428,-25.5861,19.5507,-52.7178,5.75604,-36.8441,40.5218,-40.8306,24.9885,13.7845
0.532238,16.292,-13.5755,31.1323,0.0340903,-1.0764,-17.0208,1.12364,-2.77579,-9.68977,1.87114,2.41827,-0.998707,1.14139,4.41318,-13.2358,-0.979512,5.60675,46.097,-2.97864,-1.371,20.311,-0.271369,-2.29627,-6.5102e-15,-5.56597e-15,-51.9824,7.56277,-82.2761,18.8917,-6.82595,19.7157,6.37412,7.12502,44.2701,-17.4073,-6.5102e-15,-5.56597e-15,-50.482,3.61826,81.8119,45.323,7.3188,1.2029,18.66,7.12502,26.742,46.7901,-23.2396,-5.19258,32.5478,43.6843,19.7514,-25.6079,19.5757,-52.7252,5.60739,-36.6515,40.5314,-41.196,24.9465,14.3573
0.537109,16.2896,-13.5595,31.1713,0.122709,-1.25954,-17.1737,1.05462,-2.55536,-9.79753,1.74998,2.48169,-1.0177,1.07473,4.34002,-13.475,-0.80586,5.43163,45.9996,-2.83293,-0.993102,20.3437,-0.198641,-2.0467,-1.93815e-15,-7.95139e-15,-51.8945,7.61712,-82.1303,18.7675,-6.63382,19.4679,6.4344,7.12502,44.0391,-17.4339,-1.93815e-15,-7.95139e-15,-50.5789,3.65395,81.6757,45.3572,7.31821,1.19045,18.3527,7.12502,26.7301,46.4846,-23.1081,-5.243,32.6835,43.5286,19.6577,-25.5481,20.5599,-52.7831,5.70478,-36.5061,40.6235,-41.1332,24.9099,14.1423
0.543481,16.2906,-13.5405,31.083,0.303745,-1.42755,-17.2107,1.00625,-2.28715,-9.91763,1.6488,2.49657,-1.10878,1.01616,4.18693,-13.5909,-0.635894,5.44855,45.8839,-2.71834,-0.678385,20.318,-0.113329,-1.86666,-1.55549e-14,-8.74653e-15,-51.874,7.5392,-82.0127,18.6296,-6.48161,19.058,6.42286,7.12502,43.6566,-17.5869,-1.55549e-14,-8.74653e-15,-50.5425,3.63626,81.4733,45.0775,7.12853,1.29023,18.3366,7.12502,26.8256,46.4539,-22.8428,-5.47397,32.8511,43.3282,20.2829,-24.9864,19.6075,-52.6884,5.89705,-36.4035,40.7278,-40.9122,24.9383,13.9952
0.5461,16.2917,-13.5283,31.0149,0.414238,-1.41631,-17.2602,0.961348,-2.2198,-10.0287,1.58257,2.38539,-1.19034,0.979674,4.02005,-13.6917,-0.453582,5.72547,45.7122,-2.60759,-0.500407,20.2396,-0.00382255,-1.80281,-3.15571e-15,1.03368e-14,-51.9322,7.37067,-82.01,18.6656,-6.23773,18.9186,6.22636,7.12502,43.5263,-17.8309,-3.15571e-15,1.03368e-14,-50.3438,3.49467,81.2796,44.7166,6.87126,1.35458,18.8187,7.12502,26.8872,46.9265,-22.6891,-5.62266,32.8539,43.1887,21.0183,-24.3853,18.2333,-52.5713,5.91915,-36.4061,40.7598,-40.814,24.9458,13.8014
0.544126,16.2921,-13.5216,31.0317,0.485209,-1.35564,-17.4108,0.952127,-2.2751,-10.1141,1.58278,2.23476,-1.20125,0.97963,3.89467,-14.0412,-0.324607,5.84492,45.585,-2.65028,-0.10738,20.2719,0.0531536,-1.6363,2.76559e-14,1.27222e-14,-51.8505,6.80584,-81.6918,18.5617,-5.61095,18.8064,6.29608,7.12502,43.4216,-17.7992,2.76559e-14,1.27222e-14,-50.3112,3.16893,81.1813,44.7085,6.76205,1.27206,18.5968,7.12502,26.8082,46.7167,-22.6898,-5.55172,32.8201,43.1502,21.1659,-24.2919,18.1961,-52.4996,5.6981,-36.3367,40.7209,-40.9751,24.9219,13.878
0.542236,16.2936,-13.5145,31.0473,0.437674,-1.19759,-17.4673,0.85198,-2.53924,-10.2225,1.49045,2.17896,-1.28914,0.946419,3.97127,-14.5471,-0.0957981,5.90479,45.6071,-2.51017,0.227171,20.4662,0.169868,-1.4556,-1.81888e-14,3.57812e-15,-51.8585,6.7411,-81.5748,18.575,-5.58132,18.583,6.3261,7.12502,43.2128,-17.8442,-1.81888e-14,3.57812e-15,-50.539,3.1611,81.0384,44.8618,6.5864,1.38988,18.2692,7.12502,26.921,46.3718,-22.7227,-5.38037,32.6201,43.2106,21.056,-24.2382,18.2024,-52.3939,5.4702,-36.3845,40.6305,-41.2117,24.8594,14.4515
0.534398,16.2955,-13.5156,31.2384,0.442159,-1.12981,-17.4128,0.699989,-2.78588,-10.5147,1.3256,2.19751,-1.62882,0.886792,4.1008,-14.7798,0.194809,6.01608,45.5401,-2.22735,0.493365,20.516,0.33401,-1.28377,-3.27249e-14,-1.51076e-14,-52.008,6.842,-81.5343,18.66,-5.69313,18.7262,6.07655,7.12502,43.3467,-18.0457,-3.27249e-14,-1.51076e-14,-50.7607,3.29157,80.7776,44.689,6.42363,1.66293,18.3181,7.12502,27.1822,46.3801,-23.0168,-5.07456,32.5983,43.3151,21.2714,-24.5023,19.0755,-52.5952,5.42231,-36.4589,40.5457,-41.0484,24.9573,14.2655
0.525053,16.2973,-13.521,31.6016,0.495224,-1.15682,-17.5134,0.53025,-2.97374,-10.7884,1.13076,2.27858,-1.86546,0.810021,4.26417,-15.1126,0.481755,5.96572,45.3351,-1.94435,0.868769,20.4991,0.479498,-1.02618,2.56059e-14,2.06736e-14,-52.0047,7.13455,-81.6117,18.7962,-5.89073,18.842,5.91322,7.12502,43.4548,-18.17,2.56059e-14,2.06736e-14,-50.7116,3.54368,80.5522,44.3032,6.26315,1.7444,18.313,7.12502,27.2601,46.3629,-23.5245,-4.76789,32.7186,43.4167,21.4188,-25.196,21.2551,-53.005,5.37389,-36.4641,40.4824,-40.8028,25.0566,13.8128
0.520772,16.2989,-13.5178,31.7956,0.430005,-1.13324,-17.6872,0.412704,-3.15867,-10.8747,1.00488,2.30279,-1.86471,0.757797,4.37932,-15.723,0.685595,5.75709,45.1859,-1.81577,1.35175,20.6026,0.557171,-0.717261,-1.11816e-15,-1.23246e-14,-51.8262,7.32934,-81.6505,18.8089,-5.9755,18.5229,6.14739,7.12502,43.1567,-18.0429,-1.11816e-15,-1.23246e-14,-50.6077,3.68572,80.4461,44.1976,6.19481,1.58927,18.4797,7.12502,27.1117,46.5528,-23.8103,-4.48428,32.6757,43.4757,21.4347,-25.3353,21.6755,-53.148,5.09271,-36.3538,40.4285,-41.0433,25.1306,14.2201
0.519598,16.2996,-13.512,31.7433,0.37391,-1.1387,-17.7725,0.337232,-3.27595,-10.8156,0.922816,2.29502,-1.7515,0.717733,4.42747,-16.3125,0.835203,5.62753,44.8973,-1.76795,1.77753,20.5938,0.605535,-0.46899,-1.25483e-15,7.15625e-15,-51.5958,7.47286,-81.7483,18.7635,-6.07159,17.9435,6.66599,7.12502,42.6147,-17.7147,-1.25483e-15,7.15625e-15,-50.4561,3.7406,80.3475,44.3492,6.00439,1.6861,18.8424,7.12502,27.2044,46.9009,-23.7979,-4.30069,32.6325,43.4781,21.7889,-24.9987,20.6013,-53.0913,5.08509,-36.3164,40.4004,-40.9522,25.4071,14.0198
0.520411,16.3026,-13.5033,31.6342,0.315351,-1.11303,-17.8003,0.268988,-3.36981,-10.7433,0.845969,2.24499,-1.65193,0.677497,4.41663,-16.9331,1.04889,5.55663,44.5897,-1.6586,2.24536,20.5847,0.6945,-0.196614,-6.00081e-15,7.95139e-15,-51.3365,7.58438,-81.8887,18.7014,-6.08382,17.3713,7.17638,7.12502,42.0789,-17.3872,-6.00081e-15,7.95139e-15,-50.2431,3.79289,80.1886,44.3649,5.85108,1.93618,19.1732,7.12502,27.4435,47.1941,-23.6929,-4.31572,32.5464,43.428,22.724,-24.4252,18.9723,-52.9862,5.21977,-36.3944,40.3952,-40.6308,25.804,13.3898
0.521631,16.3054,-13.4948,31.6424,0.285364,-1.28489,-17.7202,0.207778,-3.27864,-10.9046,0.748772,2.28823,-1.85746,0.632346,4.39312,-16.1396,0.87527,4.34222,43.3149,-2.01058,3.73562,19.5156,0.510683,0.659704,9.31803e-16,-1.19271e-14,-51.5217,7.8003,-81.9899,18.7905,-6.06546,17.0834,7.41105,7.12502,41.809,-17.2427,9.31803e-16,-1.19271e-14,-50.4358,3.90405,80.0054,44.2538,5.94688,1.91234,19.2828,7.12502,27.4207,47.3073,-23.6958,-4.2661,32.6778,43.3432,23.4387,-23.9013,17.1302,-53.0403,5.3631,-36.2702,40.4446,-40.5042,26.0472,12.5137
0.522014,16.3056,-13.4885,31.6516,0.365386,-1.51695,-17.5504,0.116892,-3.09677,-11.1277,0.598246,2.3843,-2.17057,0.560424,4.36517,-16.1048,0.959409,3.90705,42.7829,-1.98511,4.4127,19.1805,0.5274,1.05629,2.33137e-14,3.37934e-14,-51.7342,7.97396,-81.9412,18.8104,-5.92917,17.1952,7.20714,7.12502,41.9138,-17.4117,2.33137e-14,3.37934e-14,-50.857,4.13201,79.7766,44.4076,6.04373,2.00529,19.6187,7.12502,27.5096,47.6291,-23.6743,-4.2309,32.9345,43.2517,23.9188,-23.6166,15.8727,-53.0932,5.41806,-36.01,40.5181,-40.5106,26.1281,11.8118
0.523418,16.3061,-13.4797,31.5722,0.334976,-1.68381,-17.505,0.101864,-2.97682,-11.1354,0.559492,2.37273,-2.19519,0.53407,4.2779,-16.9163,1.1421,3.98379,42.5441,-1.89616,4.68294,19.2683,0.616028,1.19242,-1.75676e-14,-1.43125e-14,-51.5426,7.94953,-81.9013,18.8037,-5.96318,17.3979,6.6006,7.12502,42.1038,-17.9546,-1.75676e-14,-1.43125e-14,-50.9144,4.27345,79.5174,44.6621,6.12111,2.25241,19.7033,7.12502,27.746,47.6758,-23.5524,-4.26291,33.0502,43.168,24.2976,-23.3467,14.6967,-53.0327,5.49108,-35.8238,40.5851,-40.5798,26.1966,11.7122
0.520764,16.3081,-13.4725,31.4638,0.137111,-1.72486,-17.3801,0.128581,-3.06592,-11.1951,0.603673,2.22292,-2.32788,0.559283,4.17322,-17.5555,1.27234,4.09249,42.2835,-1.94122,5.06899,19.3008,0.672253,1.35037,2.7892e-15,-1.35174e-14,-51.4378,7.55494,-81.8527,18.5834,-5.71837,17.2578,6.90019,7.12502,41.9725,-17.6991,2.7892e-15,-1.35174e-14,-50.9033,4.25749,79.1276,44.5537,6.25752,2.2384,19.4145,7.12502,27.7326,47.3892,-23.4134,-4.17031,32.989,43.0755,24.7838,-22.9928,12.8243,-52.9454,5.52272,-35.7618,40.6666,-40.6557,26.541,11.5091
0.517516,16.3067,-13.4668,31.4756,0.186272,-1.79405,-17.3678,0.0944879,-3.04578,-11.4314,0.556098,2.12382,-2.58577,0.540147,4.04811,-17.7181,1.34901,4.11324,42.0213,-1.99107,5.44291,19.1958,0.705456,1.51001,-3.57968e-15,-1.31198e-14,-51.7563,7.18089,-81.7801,18.3261,-5.24049,16.7298,7.87157,7.12502,41.4773,-16.8912,-3.57968e-15,-1.31198e-14,-51.2178,4.11461,78.8113,44.4627,6.3122,2.15245,19.3906,7.12502,27.6504,47.3785,-23.3977,-4.22934,33.0966,43.0067,24.978,-22.9599,12.6892,-53.0647,5.55452,-35.6686,40.6745,-39.9427,27.4927,9.41469
0.515767,16.312,-13.4618,31.4858,0.342748,-1.82294,-17.3633,0.0412979,-2.98839,-11.5562,0.478299,2.0014,-2.71375,0.497735,3.87326,-18.2213,1.43722,4.23349,41.695,-2.03484,5.7011,19.1445,0.743618,1.59741,6.7381e-15,-1.90833e-14,-51.8915,6.63197,-81.6093,18.3486,-4.73837,16.5028,8.03749,7.12502,41.2643,-16.7943,6.7381e-15,-1.90833e-14,-51.444,3.95427,78.5678,44.7243,6.33881,2.09437,19.5204,7.12502,27.5948,47.5172,-23.3812,-4.42955,33.2087,42.9206,25.1584,-22.8084,12.2116,-52.9594,5.58088,-35.608,40.7179,-40.5234,26.3118,11.4969
0.513902,16.3134,-13.4584,31.3627,0.380343,-1.65317,-17.1423,-0.116695,-3.18165,-11.6097,0.28872,1.90835,-2.87137,0.412443,3.85416,-18.6556,1.56023,4.07626,41.1512,-2.01379,6.23529,18.9448,0.794756,1.86838,1.5103e-15,-8.34896e-15,-52.005,6.80609,-81.8843,18.7455,-5.08164,16.3211,7.66726,7.12502,41.0937,-17.2193,1.5103e-15,-8.34896e-15,-51.7524,4.06074,78.2488,44.9588,6.50952,2.05487,19.2117,7.12502,27.5571,47.2145,-23.2656,-4.65489,33.0597,42.8868,25.5439,-22.2444,10.3113,-52.757,5.5372,-35.7352,40.7275,-40.5979,26.1256,11.3512
0.513729,16.3154,-13.4538,31.2377,0.393214,-1.64372,-16.8754,-0.245344,-3.19406,-11.6594,0.111118,1.86112,-3.04678,0.324506,3.78386,-18.8447,1.62622,3.64144,40.2287,-2.03597,7.04491,18.4614,0.813229,2.28045,-1.14371e-14,-2.26615e-14,-52.2014,7.33367,-82.4337,19.1407,-5.61275,15.8199,7.86938,7.12502,40.6228,-17.1657,-1.14371e-14,-2.26615e-14,-51.9633,4.31217,77.8469,44.7918,6.60266,1.8259,18.3262,7.12502,27.3381,46.3637,-23.1378,-4.76754,33.0359,42.8838,25.9921,-21.8622,9.28464,-52.6041,5.57107,-35.7238,40.7822,-40.6429,26.0566,11.4782
0.51129,16.3194,-13.4534,31.2464,0.252486,-1.75495,-16.7317,-0.28729,-3.2106,-11.7193,0.0517492,1.85189,-3.18176,0.297909,3.77452,-19.295,1.58001,3.45528,39.6548,-2.09501,7.20374,18.2492,0.775713,2.35004,1.00945e-16,4.77083e-15,-52.2665,7.75802,-82.852,19.091,-5.79318,15.2313,8.5435,7.12502,40.0693,-16.6616,1.00945e-16,4.77083e-15,-51.9272,4.62881,77.5012,44.4345,6.55044,1.60058,17.7051,7.12502,27.1225,45.7765,-23.1949,-4.57328,33.0709,42.9416,25.8295,-22.57,11.1225,-52.5813,5.49987,-35.558,40.7876,-40.9646,26.0217,12.0371
0.50846,16.3247,-13.4566,31.3425,0.0477349,-1.78629,-16.6966,-0.338012,-3.33375,-11.7351,-0.00309372,1.81104,-3.21392,0.27594,3.79333,-19.934,1.50311,3.18807,38.946,-2.17918,7.38872,18.0156,0.719979,2.43632,-7.22885e-15,-7.35503e-15,-52.1153,7.86376,-83.0748,18.9576,-5.72776,14.8509,9.00288,7.12502,39.7113,-16.3096,-7.22885e-15,-7.35503e-15,-51.7056,4.97408,77.1882,44.1445,6.47756,1.51475,17.9211,7.12502,27.0404,46.0052,-23.4132,-4.46872,33.0171,43.0549,25.9978,-22.4477,10.6688,-52.5981,5.10952,-35.3349,40.7751,-41.6799,25.9564,13.1619
0.503055,16.335,-13.4584,31.4682,-0.10984,-1.80203,-16.6123,-0.397014,-3.48344,-11.8289,-0.067319,1.75014,-3.3568,0.254056,3.80466,-20.3613,1.32286,2.80815,38.0833,-2.38235,7.66788,17.6556,0.607514,2.5478,-6.13049e-16,9.54166e-15,-52.236,7.84403,-83.279,19.0936,-5.8089,14.5611,9.26029,7.12502,39.4384,-16.1327,-6.13049e-16,9.54166e-15,-51.7213,5.12585,76.8812,44.2229,6.57258,1.56106,18.4625,7.12502,27.0847,46.5397,-23.6769,-4.44504,32.9758,43.169,26.3787,-22.3053,10.2653,-52.7591,5.51248,-35.5658,40.7091,-41.1457,26.1078,11.9164
0.498062,16.3362,-13.4623,31.5697,-0.402093,-1.7969,-16.4453,-0.442144,-3.71571,-11.9371,-0.106923,1.71958,-3.56259,0.252693,3.89836,-20.6009,1.04281,2.3247,37.16,-2.65791,7.91228,17.2299,0.441244,2.63843,-3.72838e-15,-9.74045e-15,-52.3533,7.69135,-83.2147,19.1455,-5.69818,14.3355,9.34946,7.12502,39.2258,-16.1055,-3.72838e-15,-9.74045e-15,-51.9576,5.30486,76.5816,44.5451,6.82147,1.64569,18.8596,7.12502,27.1657,46.9242,-23.9126,-4.38176,32.8458,43.3057,26.4578,-22.4607,10.5205,-52.759,4.63145,-35.097,40.638,-42.1459,26.5853,12.9394
0.497246,16.339,-13.461,31.6276,-0.779083,-1.76027,-16.3624,-0.457962,-3.93595,-11.9299,-0.107026,1.67057,-3.60114,0.264102,3.97075,-20.9012,0.672838,1.67888,36.137,-2.96594,8.0943,16.783,0.228712,2.71843,1.65803e-15,1.02871e-14,-52.235,7.60667,-83.1738,19.0502,-5.78722,14.0975,9.0809,7.12502,39.0015,-16.4387,1.65803e-15,1.02871e-14,-52.0358,5.57089,76.3123,44.7283,6.98671,1.69502,18.9831,7.12502,27.2129,47.0403,-24.0395,-4.3088,32.6098,43.4084,26.4539,-22.534,11.1514,-52.8813,5.05628,-35.4192,40.5589,-41.5578,27.0938,11.775
0.498745,16.3376,-13.4602,31.622,-0.859253,-1.89884,-16.2319,-0.479555,-3.81212,-11.9586,-0.157444,1.66892,-3.69356,0.2324,3.8921,-21.0131,0.294706,1.11313,34.9963,-3.22872,8.12032,16.2408,0.0190289,2.71598,-7.64714e-15,-1.2424e-15,-52.1988,7.4388,-83.0724,18.8804,-5.58519,13.7264,9.24332,7.12502,38.6515,-16.3756,-7.64714e-15,-1.2424e-15,-52.2193,5.95306,75.9165,44.7832,6.91744,1.75727,18.8245,7.12502,27.2724,46.8724,-24.0895,-4.44282,32.6919,43.5098,26.6846,-22.3348,11.3167,-52.8359,4.69558,-35.0505,40.5272,-41.897,27.4379,11.9979
0.501085,16.3411,-13.4596,31.7574,-0.900749,-2.00842,-16.2422,-0.544992,-3.67959,-11.9832,-0.261704,1.68372,-3.70342,0.171349,3.81966,-20.9837,-0.0531894,0.905178,33.7446,-3.37366,7.63157,15.605,-0.172662,2.44782,7.01114e-15,1.00324e-14,-52.1482,7.561,-83.1828,18.7648,-5.5434,13.1804,9.84508,7.12502,38.1363,-15.9169,7.01114e-15,1.00324e-14,-52.225,6.40875,75.5221,44.5721,6.82634,1.78609,18.4725,7.12502,27.3,46.516,-24.3253,-4.52458,32.7535,43.621,26.7514,-22.5233,12.5229,-52.9652,4.56976,-34.9013,40.49,-41.9127,27.6546,11.8408
0.502295,16.347,-13.4586,31.8588,-1.05149,-2.06004,-16.1928,-0.615577,-3.66474,-11.9446,-0.360493,1.71853,-3.677,0.119129,3.83555,-21.0969,-0.411231,0.603428,32.5157,-3.47948,7.05787,15.0338,-0.368599,2.18557,-3.77484e-15,4.88265e-15,-51.9425,7.55616,-83.1149,18.5865,-5.44156,12.731,10.2922,7.12502,37.7117,-15.5849,-3.77484e-15,4.88265e-15,-52.0635,6.9119,75.2308,44.3621,6.85359,1.75535,18.3798,7.12502,27.2706,46.428,-24.5086,-4.44643,32.7039,43.7129,26.9299,-22.8713,14.1607,-53.0466,4.51546,-34.8385,40.4454,-41.9103,27.8295,11.8036
0.503271,16.3507,-13.4626,31.8331,-1.36954,-2.11246,-15.9368,-0.591067,-3.67372,-11.9284,-0.338482,1.69845,-3.79472,0.131118,3.82211,-21.443,-0.866935,0.0107059,31.5437,-3.72898,6.69764,14.6705,-0.61826,2.05927,-3.23554e-15,4.42296e-15,-51.9194,7.51779,-83.1505,18.6659,-5.51285,12.4525,9.98234,7.12502,37.4485,-15.9648,-3.23554e-15,4.42296e-15,-52.0015,7.28801,74.9514,44.1322,6.90309,1.73546,18.0853,7.12502,27.2516,46.1365,-24.5871,-4.25605,32.5688,43.8221,27.3064,-23.4388,16.7737,-52.9983,4.37867,-34.7061,40.3888,-42.355,28.1054,11.8294
0.506713,16.3598,-13.4681,31.7843,-1.50477,-2.28541,-15.5324,-0.537408,-3.41233,-12.0293,-0.313568,1.67244,-4.11663,0.133447,3.65038,-21.5131,-1.38896,-0.690027,30.5358,-4.06803,6.4548,14.2526,-0.905207,1.98761,-1.26546e-15,-1.39149e-14,-52.1054,7.4697,-83.2621,18.7403,-5.70333,12.0557,9.85183,7.12502,37.0734,-16.1936,-1.26546e-15,-1.39149e-14,-52.2525,7.41843,74.6857,44.074,6.99278,1.71627,17.8212,7.12502,27.2332,45.8752,-24.6339,-4.47867,32.6391,43.887,27.8926,-23.302,18.0797,-52.8356,3.61678,-34.053,40.3394,-43.5295,28.2957,12.6985
0.510444,16.3616,-13.4738,31.6875,-1.50654,-2.39481,-15.1414,-0.518415,-3.16477,-12.0923,-0.329352,1.63351,-4.3873,0.113122,3.46812,-21.8036,-1.81942,-1.48461,29.7212,-4.29397,6.32951,13.9802,-1.12549,2.01101,3.84257e-15,9.34288e-15,-52.2407,7.3305,-83.3176,18.6612,-5.78987,11.501,10.2524,7.12502,36.5486,-15.9275,3.84257e-15,9.34288e-15,-52.5699,7.30277,74.5864,44.2963,7.18908,1.52561,18.0581,7.12502,27.0508,46.1406,-24.5999,-4.63406,32.7239,43.9385,28.3422,-23.0103,17.8664,-52.8207,4.0649,-34.159,40.354,-43.0783,28.204,12.3789
0.512051,16.3639,-13.478,31.6369,-1.57577,-2.49134,-14.9362,-0.499194,-2.99908,-12.0675,-0.328525,1.61405,-4.46621,0.102001,3.35413,-21.9246,-2.38052,-2.11256,28.8011,-4.64522,5.84685,13.6255,-1.43296,1.83958,-2.70271e-15,1.08338e-14,-52.2324,7.16571,-83.3533,18.5479,-5.74275,10.6751,10.764,7.12502,35.7664,-15.6096,-2.70271e-15,1.08338e-14,-52.6477,7.25366,74.5302,44.5013,7.38582,1.56597,18.4625,7.12502,27.0894,46.539,-24.6153,-4.6773,32.7554,43.9728,28.7698,-22.8277,17.139,-52.7212,3.47282,-33.6936,40.4102,-44.0289,28.1589,13.6092
0.516814,16.3678,-13.4768,31.7338,-1.60695,-2.72803,-14.9992,-0.472013,-2.64174,-12.0426,-0.329098,1.66093,-4.40213,0.077396,3.20179,-22.0607,-3.04988,-2.65949,28.1139,-5.09787,5.04221,13.3717,-1.81377,1.51898,1.21445e-15,-1.53064e-14,-52.2514,7.16966,-83.423,18.539,-5.70951,10.1651,10.9091,7.12502,35.2829,-15.5804,1.21445e-15,-1.53064e-14,-52.6824,7.37497,74.4573,44.6868,7.54005,1.62574,18.956,7.12502,27.1466,47.0236,-24.7752,-4.70329,32.9278,44.0266,29.0829,-22.5744,16.3225,-52.8379,3.15384,-33.2538,40.4887,-44.7004,28.3889,13.9754
0.522426,16.3688,-13.4776,31.9997,-1.62923,-2.96986,-15.228,-0.488441,-2.2669,-12.0017,-0.38678,1.76427,-4.2297,0.0231207,3.09255,-22.6641,-3.6703,-3.22185,27.7334,-5.45891,4.16505,13.3387,-2.15178,1.19247,-7.49325e-16,2.98177e-16,-52.0489,7.29143,-83.4403,18.3406,-5.63875,9.82608,11.2862,7.12502,34.9614,-15.2788,-7.49325e-16,2.98177e-16,-52.703,7.56203,74.4829,44.9103,7.78103,1.48882,19.3343,7.12502,27.0156,47.4223,-25.1238,-4.74073,33.1189,44.1167,29.176,-22.3949,16.0834,-53.1702,3.06732,-32.9861,40.528,-45.1294,28.8007,13.7534
0.525291,16.3693,-13.4803,32.1502,-1.86802,-3.02386,-15.3678,-0.505249,-2.19516,-11.8735,-0.416163,1.82875,-4.01246,1.09253e-05,3.11557,-23.0691,-4.24682,-4.14119,27.0803,-5.75505,3.75538,13.1802,-2.43776,1.12252,3.57579e-15,-6.21202e-15,-51.7145,7.65799,-83.7111,18.0925,-5.89548,9.02278,11.9777,7.12502,34.1989,-14.7617,3.57579e-15,-6.21202e-15,-52.7073,7.81767,74.4824,44.8033,8.22631,0.989709,18.2584,7.12502,26.538,46.4195,-25.3464,-4.71801,33.0156,44.2101,28.9161,-22.7529,17.0767,-53.3807,3.16415,-33.0371,40.524,-45.3709,29.0123,13.6229
0.527135,16.3719,-13.4782,31.9916,-2.11857,-2.92716,-15.2124,-0.486689,-2.27536,-11.7727,-0.387223,1.79472,-3.98556,0.0160695,3.1277,-22.5735,-4.93001,-5.12176,25.9525,-6.23493,3.44626,12.6695,-2.80904,1.08483,3.36226e-16,4.96962e-16,-51.8373,7.63416,-83.8239,18.1573,-5.89159,8.06917,12.7143,7.12502,33.2928,-14.2237,3.36226e-16,4.96962e-16,-52.9738,7.76938,74.4759,45.249,8.02959,1.59967,18.7372,7.12502,27.1217,46.8086,-25.2286,-4.83821,32.7516,44.313,28.8715,-22.8091,17.4893,-53.2003,3.34393,-33.2494,40.4877,-45.368,29.1154,13.6813
0.531638,16.3751,-13.4761,31.8324,-2.10513,-2.99812,-15.0417,-0.468272,-2.05385,-11.6281,-0.390407,1.78491,-3.91475,-0.00330831,2.99103,-22.925,-5.75723,-5.39516,25.3566,-6.91295,2.29407,12.4968,-3.29188,0.562503,-7.14382e-15,-2.93207e-15,-51.9688,7.55649,-83.9757,18.2467,-6.0004,7.10909,13.5639,7.12502,32.3795,-13.5652,-7.14382e-15,-2.93207e-15,-53.1017,7.6433,74.4574,45.6219,7.7374,2.04841,18.7841,7.12502,27.5509,46.7879,-25.1264,-5.01738,32.7689,44.4298,28.8969,-22.8513,17.734,-52.9686,3.32914,-33.1252,40.4126,-45.4842,29.1167,13.7236
0.535115,16.3774,-13.4822,31.8689,-2.1575,-3.17189,-14.9446,-0.439049,-1.78739,-11.508,-0.382421,1.83553,-3.83352,-0.0171039,2.89428,-24.1475,-6.32947,-5.44892,25.4683,-7.20521,0.916158,12.7356,-3.60077,-0.041847,4.97117e-15,-7.55382e-15,-51.7864,7.57466,-84.0991,18.0774,-6.08786,6.31293,14.0412,7.12502,31.6215,-13.24,4.97117e-15,-7.55382e-15,-53.0818,7.52861,74.5926,45.856,7.65549,1.80925,18.4503,7.12502,27.3221,46.4904,-25.286,-5.0157,32.8892,44.5686,29.1253,-22.9274,18.0741,-53.0213,3.38274,-32.9621,40.3718,-45.6023,29.0847,14.0094
0.534875,16.3733,-13.4951,31.9223,-2.40417,-3.19282,-14.758,-0.419496,-1.76339,-11.5124,-0.362764,1.84745,-3.93784,-0.00760274,2.89611,-24.6529,-6.88714,-5.92804,25.2275,-7.49285,0.0359317,12.7315,-3.89242,-0.366854,-2.22856e-15,-1.49089e-15,-51.7411,7.52061,-84.1597,17.992,-6.06994,5.54319,14.103,7.12502,30.8879,-13.3197,-2.22856e-15,-1.49089e-15,-53.2273,7.38213,74.7342,46.2654,7.46008,1.74269,18.7181,7.12502,27.2585,46.7682,-25.5254,-4.86179,32.7878,44.757,29.2541,-23.2302,18.9789,-53.1668,3.10297,-32.7692,40.3115,-45.7556,29.7258,14.2302
0.533237,16.3798,-13.507,31.9874,-2.76327,-3.05934,-14.6097,-0.380686,-1.9445,-11.5231,-0.296227,1.80008,-4.03313,0.0364484,2.95599,-24.6491,-7.44514,-6.63384,24.659,-7.82246,-0.522795,12.5251,-4.18243,-0.516905,8.32255e-15,-1.51573e-14,-51.789,7.60677,-84.3321,17.9612,-6.37305,4.81521,14.5323,7.12502,30.1937,-13.0197,8.32255e-15,-1.51573e-14,-53.2087,7.16067,74.8919,46.3202,7.28907,1.83986,18.8574,7.12502,27.3514,46.8929,-25.7788,-4.63828,32.4712,44.939,29.1415,-23.151,18.5081,-53.2186,3.37197,-33.159,40.3107,-45.946,29.2446,14.9301
0.535121,16.3818,-13.5126,31.97,-3.00707,-3.02584,-14.4854,-0.33345,-1.88027,-11.4829,-0.243763,1.76678,-4.05772,0.0568481,2.89009,-24.2871,-8.03539,-7.40958,23.7647,-8.24266,-0.966497,12.138,-4.49997,-0.604349,2.20527e-16,-5.96354e-16,-51.8801,7.6646,-84.4477,17.7947,-6.42722,3.96731,15.5169,7.12502,29.3845,-12.1801,2.20527e-16,-5.96354e-16,-53.2467,6.9155,75.0478,46.3018,7.03307,2.0636,18.8131,7.12502,27.5654,46.8145,-25.8798,-4.4944,32.2675,45.1136,27.7916,-22.9103,16.6426,-53.2308,3.5623,-33.3407,40.2883,-45.5585,29.3677,14.2746
0.539911,16.3809,-13.5118,31.9635,-3.06788,-3.10778,-14.4932,-0.270536,-1.56535,-11.3933,-0.194444,1.71676,-3.95628,0.057404,2.6643,-23.8657,-8.62639,-7.97634,22.778,-8.72351,-1.55363,11.6956,-4.83874,-0.776377,-1.43296e-14,9.64106e-15,-52.0361,7.57854,-84.59,17.7225,-6.35431,3.02118,16.2622,7.12502,28.4808,-11.5897,-1.43296e-14,9.64106e-15,-53.33,6.56104,75.214,46.5369,6.53918,2.2369,18.8254,7.12502,27.7311,46.8003,-25.9193,-4.535,32.259,45.2314,25.0281,-22.4772,12.8106,-53.2618,3.85605,-33.441,40.3287,-45.125,29.211,14.0362
0.542991,16.3783,-13.514,31.983,-3.06295,-3.1349,-14.5567,-0.251659,-1.38268,-11.2715,-0.18851,1.72395,-3.78882,0.046113,2.56865,-23.5805,-9.10267,-8.47594,21.8258,-9.05529,-2.1928,11.2885,-5.10495,-0.950291,-9.78393e-15,-1.76421e-14,-52.1099,7.6204,-84.7463,17.8232,-6.67325,2.16634,16.2308,7.12502,27.6637,-11.755,-9.78393e-15,-1.76421e-14,-53.4825,6.21001,75.5815,47.0514,6.09922,2.02674,18.7292,7.12502,27.5302,46.7363,-25.9887,-4.63525,32.2491,45.3192,27.969,-22.9685,17.5235,-53.2777,3.73734,-33.3562,40.3598,-45.6181,29.0961,14.6373
0.544655,16.3727,-13.5207,31.8954,-3.00703,-3.2083,-14.4176,-0.250924,-1.18336,-11.1897,-0.208833,1.78309,-3.77117,0.0247904,2.51592,-23.1543,-9.43904,-9.01401,20.8342,-9.26176,-2.64848,10.8556,-5.28741,-1.01701,5.58461e-15,-5.14355e-15,-52.2899,7.74259,-84.8973,18.0661,-7.24682,1.39094,16.2658,7.12502,26.922,-11.8366,5.58461e-15,-5.14355e-15,-53.6712,5.99068,75.8702,47.4681,5.6981,2.10247,18.4872,7.12502,27.6026,46.4828,-25.941,-4.70003,32.3316,45.3815,25.4605,-23.5569,16.6836,-53.1799,3.19729,-32.9205,40.4053,-46.5126,29.1273,15.4868
0.548228,16.372,-13.5251,31.7996,-2.89072,-3.26983,-14.3094,-0.272129,-0.933196,-11.1039,-0.263409,1.81869,-3.73119,-0.0179936,2.40601,-22.599,-9.71675,-9.49525,19.7851,-9.47381,-2.98087,10.3885,-5.44486,-1.03681,-1.40337e-14,-2.21396e-14,-52.3969,7.83135,-85.0932,18.1527,-7.7564,0.436384,16.8698,7.12502,26.0083,-11.3702,-1.40337e-14,-2.21396e-14,-53.7158,5.77898,76.042,47.6972,5.66267,2.50036,18.4181,7.12502,27.983,46.3522,-25.9007,-4.86492,32.4353,45.435,28.6959,-23.7487,19.277,-53.1861,3.68724,-33.1186,40.4223,-45.7543,29.5873,13.4339
0.551955,16.3711,-13.527,31.7144,-2.86521,-3.27302,-14.2609,-0.271612,-0.801759,-11.0334,-0.277083,1.81106,-3.67911,-0.0342195,2.32196,-22.0071,-9.94049,-9.80921,18.8981,-9.65741,-3.43717,9.9642,-5.58964,-1.11967,2.10355e-15,-8.84592e-15,-52.4658,7.81293,-85.221,18.0589,-8.10792,-0.580765,17.5239,7.12502,25.034,-10.8556,2.10355e-15,-8.84592e-15,-53.8191,5.52034,76.1571,47.8546,5.71494,2.81686,18.1653,7.12502,28.2855,46.0497,-25.8351,-4.99924,32.4122,45.4778,27.0531,-23.3256,18.0543,-53.1218,3.89286,-33.2422,40.4234,-45.6623,29.7241,12.1648
0.553765,16.3696,-13.5304,31.608,-2.93627,-3.19691,-14.2157,-0.282074,-0.773573,-10.8937,-0.296081,1.76645,-3.54994,-0.049513,2.25601,-21.5189,-10.0529,-10.0863,17.9014,-9.74351,-3.71536,9.52786,-5.65733,-1.128,-2.59662e-15,-1.19768e-14,-52.5807,7.9558,-85.5236,18.2724,-8.74249,-1.64667,17.7258,7.12502,24.0122,-10.7922,-2.59662e-15,-1.19768e-14,-54.0307,5.18028,76.3011,48.3077,5.84251,2.8481,17.4782,7.12502,28.3154,45.3576,-25.7558,-5.00625,32.2716,45.5262,28.955,-23.5879,20.0713,-53.0378,3.99704,-33.3836,40.4125,-45.1712,29.5263,12.8497
0.557419,16.3688,-13.5365,31.4386,-2.90798,-3.19016,-14.0639,-0.291558,-0.623941,-10.6656,-0.326297,1.7307,-3.38107,-0.0776933,2.12935,-21.3048,-10.111,-10.1349,16.7666,-9.79447,-4.03696,9.07786,-5.69025,-1.18453,1.64153e-15,1.63997e-14,-52.601,8.16896,-85.9465,18.5757,-9.74804,-2.64822,17.837,7.12502,23.0515,-10.8043,1.64153e-15,1.63997e-14,-53.9044,4.82873,76.5021,48.5615,6.0703,2.72247,17.0849,7.12502,28.1953,44.9842,-25.6223,-5.10356,32.2367,45.5799,27.1805,-23.2606,17.5648,-52.8933,4.23393,-33.5095,40.3887,-44.4896,29.2768,13.5494
0.562212,16.3706,-13.5401,31.3596,-2.76273,-3.29024,-13.8194,-0.289616,-0.316588,-10.6309,-0.354391,1.71874,-3.4725,-0.109545,1.94125,-20.888,-10.1218,-10.159,15.8362,-9.82296,-4.35165,8.66926,-5.71254,-1.23447,-4.61243e-15,2.18663e-15,-52.7486,8.26008,-86.2954,18.5401,-10.5753,-3.74576,18.0743,7.12502,21.9981,-10.6948,-4.61243e-15,2.18663e-15,-53.9192,4.2526,76.7977,48.592,6.62316,2.65917,17.4325,7.12502,28.1348,45.3418,-25.6223,-5.29789,32.3815,45.6376,28.8423,-22.4767,16.2486,-52.7791,4.39138,-33.487,40.3695,-44.6634,29.1533,13.325
0.560887,16.3712,-13.5417,31.2691,-2.81535,-3.13452,-13.6524,-0.288876,-0.453263,-10.54,-0.340248,1.66496,-3.46297,-0.0969138,1.96293,-20.7954,-10.1149,-10.1882,15.2521,-9.76544,-4.70932,8.43517,-5.70753,-1.31461,4.62796e-15,-7.05686e-15,-52.811,8.25619,-86.4905,18.5528,-11.2919,-4.74148,18.5456,7.12502,21.0418,-10.3328,4.62796e-15,-7.05686e-15,-53.8807,3.75796,77.1493,48.6317,7.06466,2.67211,17.6988,7.12502,28.1472,45.606,-25.6024,-5.31472,32.2003,45.708,28.4703,-22.223,14.7033,-52.6657,4.66967,-33.8182,40.3601,-44.7854,28.9464,12.9663
0.558022,16.3683,-13.5442,31.111,-2.90753,-3.02722,-13.5006,-0.270381,-0.58154,-10.3595,-0.304192,1.63347,-3.34964,-0.0741607,2.00476,-20.7866,-10.0336,-10.1633,14.5273,-9.61927,-5.08245,8.1628,-5.65308,-1.39312,-8.2449e-15,-8.54774e-15,-52.7793,8.1846,-86.5794,18.6737,-12.1088,-5.45998,19.0135,7.12502,20.3514,-9.94017,-8.2449e-15,-8.54774e-15,-53.7119,3.43675,77.4373,48.5365,7.42494,2.60956,17.5229,7.12502,28.0874,45.44,-25.4447,-5.18644,32.0347,45.7575,28.4633,-22.8626,16.4893,-52.5512,4.82437,-33.9803,40.3872,-44.547,28.7251,13.6768
0.559894,16.3634,-13.5472,31.0817,-2.9005,-3.09925,-13.3517,-0.208443,-0.439862,-10.3711,-0.234598,1.64426,-3.44433,-0.0456347,1.94386,-20.1299,-9.91488,-10.2332,13.5591,-9.53143,-5.3303,7.71626,-5.60368,-1.38222,-1.05402e-14,2.98177e-16,-53.0918,8.09548,-86.6294,18.8452,-12.932,-6.05725,19.2416,7.12502,19.7773,-9.77225,-1.05402e-14,2.98177e-16,-53.8395,3.03738,77.7261,48.4105,7.91383,2.54273,17.4135,7.12502,28.0235,45.341,-25.4329,-5.08377,32.0972,45.821,28.6308,-23.0181,16.4339,-52.5681,4.83552,-33.8956,40.4167,-44.4945,28.5205,14.2823
0.565405,16.36,-13.5469,31.1066,-2.80669,-3.21639,-13.4005,-0.128046,-0.1704,-10.2836,-0.15402,1.65572,-3.32664,-0.0201667,1.81177,-19.5477,-9.80725,-10.3882,12.6722,-9.46813,-5.3455,7.32882,-5.54648,-1.29433,1.26205e-14,-2.36057e-15,-53.2132,7.84681,-86.5102,18.8921,-13.4898,-6.63057,19.7274,7.12502,19.2261,-9.34224,1.26205e-14,-2.36057e-15,-53.8467,2.69836,78.0404,48.316,8.40631,2.61393,17.5461,7.12502,28.0916,45.4625,-25.4984,-5.15332,32.232,45.9022,28.8957,-22.7508,15.2594,-52.6478,5.04694,-33.9107,40.4494,-44.2004,28.534,13.6799
0.56622,16.3569,-13.5492,31.0704,-2.80575,-3.15211,-13.4226,-0.108845,-0.197805,-10.0974,-0.12753,1.64469,-3.11478,-0.00728028,1.81714,-19.4083,-9.62197,-10.3736,12.0123,-9.25446,-5.48119,7.07505,-5.43055,-1.28189,5.68012e-15,9.43606e-15,-53.2782,7.87946,-86.6547,18.9698,-14.3015,-7.43469,20.154,7.12502,18.4527,-8.99078,5.68012e-15,9.43606e-15,-53.6395,2.59622,78.2248,48.0946,8.84146,2.70246,17.5878,7.12502,28.1762,45.4902,-25.5441,-5.1101,32.1634,46.0388,28.7319,-22.7816,14.8498,-52.6466,5.07632,-34.0031,40.46,-43.9616,28.7495,13.1543
0.562107,16.3544,-13.5612,30.9847,-2.96301,-2.91051,-13.1105,-0.105815,-0.556591,-10.116,-0.0874803,1.58769,-3.30311,0.0317182,1.96344,-19.3064,-9.32184,-10.1589,11.6643,-8.877,-5.89646,6.90974,-5.26453,-1.3815,-3.49118e-15,2.72281e-15,-53.6229,7.78232,-86.6854,19.0945,-14.9861,-8.15501,20.1733,7.12502,17.7597,-9.03566,-3.49118e-15,2.72281e-15,-53.7647,2.34498,78.4182,47.8869,9.52996,2.87835,18.3606,7.12502,28.3443,46.2353,-25.5992,-4.86087,31.8792,46.2134,28.5709,-23.3149,15.4455,-52.5621,4.97841,-34.2267,40.4581,-44.4292,28.6536,13.5327
0.56443,16.3505,-13.5691,30.8823,-2.96453,-2.70845,-12.8935,-0.12632,-0.727795,-10.0727,-0.0988842,1.53731,-3.37223,0.0339497,2.00558,-19.2202,-9.01471,-9.90387,11.2945,-8.5133,-6.24631,6.74332,-5.0953,-1.46852,-1.98901e-15,-1.05604e-15,-53.7678,7.40071,-86.3929,19.0955,-15.0779,-8.83658,20.136,7.12502,17.1037,-9.1311,-1.98901e-15,-1.05604e-15,-53.9178,2.23441,78.5274,47.8529,10.2369,3.14388,19.8484,7.12502,28.598,47.6806,-25.607,-4.83705,31.6773,46.3803,27.2113,-23.814,16.1762,-52.4287,4.87639,-34.4366,40.4591,-44.6995,28.6814,13.6886
0.569658,16.347,-13.5644,30.8934,-2.82599,-2.68518,-12.9651,-0.120275,-0.633994,-9.97032,-0.0998285,1.52017,-3.22324,0.0264694,1.93422,-19.1084,-8.75275,-9.6667,10.9187,-8.2388,-6.41698,6.58132,-4.95202,-1.50572,3.0765e-15,-1.15544e-15,-53.9985,7.1705,-86.3446,19.1864,-15.3149,-9.71866,20.4778,7.12502,16.2546,-8.86088,3.0765e-15,-1.15544e-15,-54.0193,1.99494,78.7621,47.9479,11.1055,3.14216,20.6425,7.12502,28.5964,48.4749,-25.6583,-4.97904,31.7057,46.4991,26.9108,-24.0492,16.6331,-52.3969,4.87364,-34.4819,40.4562,-44.5222,28.5254,13.7508
0.573175,16.3435,-13.5594,31.049,-2.76217,-2.77551,-13.1909,-0.0658271,-0.543345,-9.92511,-0.035663,1.56584,-3.05645,0.0546212,1.93738,-18.9392,-8.44355,-9.49299,10.6019,-7.89905,-6.5208,6.43622,-4.77556,-1.50537,1.2657e-15,-1.46852e-14,-54.2217,7.0997,-86.4326,19.1497,-15.9164,-10.5777,20.7001,7.12502,15.4273,-8.70416,1.2657e-15,-1.46852e-14,-54.1112,1.85003,78.9876,47.3665,11.7256,2.80885,19.4149,7.12502,28.2779,47.3006,-25.8315,-5.11247,31.8383,46.5468,27.1196,-24.0188,16.7047,-52.5947,4.85691,-34.4009,40.5017,-44.5018,28.4186,13.8324
0.576889,16.337,-13.5586,31.1018,-2.73675,-2.84247,-13.2713,-0.00872478,-0.438085,-9.89844,0.0300293,1.57415,-2.98706,0.0822835,1.89361,-18.6053,-8.07969,-9.36163,10.2386,-7.51167,-6.55044,6.25487,-4.56687,-1.46247,9.73113e-15,-1.01132e-14,-54.4887,6.96611,-86.5149,19.2331,-16.396,-11.3429,20.8209,7.12502,14.6902,-8.63863,9.73113e-15,-1.01132e-14,-54.3762,1.88482,78.9511,46.0844,11.9286,2.4184,16.1374,7.12502,27.9047,44.0843,-25.8933,-5.22265,31.924,46.5838,26.8164,-24.5125,18.4162,-52.7773,4.59635,-34.1564,40.5207,-44.251,29.3882,12.473
0.580202,16.3386,-13.5581,31.0496,-2.61805,-2.82568,-13.1444,0.0102789,-0.385338,-9.91119,0.0515304,1.56231,-3.06898,0.0908933,1.85348,-18.3648,-7.7373,-9.02289,9.99847,-7.15051,-6.82052,6.1142,-4.38874,-1.53934,1.54679e-15,-2.41026e-15,-54.94,6.77209,-86.551,19.3974,-16.7199,-12.2724,21.0583,7.12502,13.7945,-8.46438,1.54679e-15,-2.41026e-15,-54.7295,1.77371,79.0735,45.7817,12.7784,2.22213,16.138,7.12502,27.717,44.1152,-25.8642,-5.36377,31.962,46.6314,26.6088,-24.7163,18.9179,-52.642,4.62872,-34.2082,40.551,-44.641,28.6751,13.4615
0.581674,16.3346,-13.5636,30.9658,-2.58471,-2.73053,-12.9625,0.0238804,-0.47702,-9.91882,0.0795762,1.53582,-3.17559,0.110004,1.8797,-18.1423,-7.3825,-8.59104,9.71623,-6.78214,-7.19293,5.95866,-4.20957,-1.66283,-3.02215e-15,1.41634e-14,-55.4169,6.61488,-86.6604,19.4175,-16.8314,-13.5426,21.2548,7.12502,12.5701,-8.34705,-3.02215e-15,1.41634e-14,-55.109,1.6112,79.219,45.5986,13.4636,2.0227,16.2438,7.12502,27.5263,44.2515,-25.8468,-5.3559,31.8922,46.7498,26.3277,-24.6864,18.4625,-52.533,4.65737,-34.3371,40.5064,-44.6202,28.4592,13.823
0.579158,16.3284,-13.5762,30.9338,-2.61904,-2.54144,-12.8446,0.00830946,-0.762843,-9.89866,0.085999,1.5131,-3.21864,0.128093,2.01695,-17.7096,-6.99322,-8.2137,9.10997,-6.41368,-7.50054,5.67176,-4.00813,-1.74158,-2.87306e-15,-1.09332e-14,-55.7058,6.52308,-86.7509,19.4103,-16.936,-14.6087,21.5227,7.12502,11.5422,-8.13952,-2.87306e-15,-1.09332e-14,-55.4068,1.50854,79.3968,45.7065,14.0483,2.12327,16.9274,7.12502,27.6225,44.9198,-25.9329,-5.17781,31.7319,46.8631,25.6278,-25.4311,19.9124,-52.5227,4.61296,-34.5294,40.4732,-44.7972,28.0302,14.7196
0.576835,16.3272,-13.5833,31.0106,-2.49836,-2.23782,-12.8521,-0.0809106,-1.08519,-9.88906,-0.00211958,1.49034,-3.20215,0.0999837,2.16592,-17.3957,-6.65026,-7.99759,8.59045,-6.07252,-7.60549,5.44584,-3.81439,-1.74511,-9.59757e-15,-1.98785e-16,-55.8642,6.42784,-86.8222,19.3903,-17.0416,-15.3195,21.6898,7.12502,10.8566,-8.0096,-9.59757e-15,-1.98785e-16,-55.5928,1.40235,79.6289,45.6638,14.7042,2.22992,17.5888,7.12502,27.7245,45.5648,-26.1499,-5.26896,31.5507,46.9567,25.1826,-26.1852,21.6269,-52.5802,4.49871,-34.8353,40.4102,-44.7408,27.778,15.0953
0.58175,16.3274,-13.5743,31.1145,-2.067,-2.16101,-13.0148,-0.165808,-0.959018,-9.85588,-0.124752,1.52478,-3.07339,0.0315628,2.11877,-17.2669,-6.33617,-7.73722,8.34545,-5.73094,-7.75029,5.33694,-3.6372,-1.78427,-5.21189e-15,8.69683e-15,-55.9189,6.15345,-86.6579,19.1264,-16.8341,-15.9211,21.838,7.12502,10.2763,-7.89094,-5.21189e-15,8.69683e-15,-55.7537,1.26473,79.94,45.3042,15.0072,2.00473,17.5405,7.12502,27.5091,45.5509,-26.2336,-5.64576,31.6899,47.0015,24.8365,-26.4435,22.6936,-52.6271,4.50539,-34.9532,40.3349,-44.1308,27.8674,14.4728
0.58813,16.3251,-13.5658,31.1206,-1.73409,-2.20088,-13.0748,-0.169217,-0.74133,-9.81513,-0.148707,1.54659,-2.99596,0.00848278,2.01639,-17.1213,-6.01937,-7.35719,8.17208,-5.39118,-8.04542,5.24309,-3.47075,-1.89142,-1.40143e-14,1.23246e-14,-56.0728,5.7732,-86.4365,18.8659,-16.3776,-16.4053,21.7884,7.12502,9.80912,-7.96311,-1.40143e-14,1.23246e-14,-55.8651,1.02753,80.2636,44.682,15.1909,1.65711,17.1865,7.12502,27.1766,45.2494,-26.1405,-5.9842,31.8714,46.9148,25.2201,-26.3267,22.8223,-52.6028,4.5843,-34.9621,40.3524,-43.6417,27.8637,14.1046
0.58411,16.3212,-13.5765,30.905,-1.76027,-1.92589,-12.7831,-0.183876,-1.15838,-9.69953,-0.129325,1.52261,-3.02965,0.0389225,2.22744,-17.0652,-5.67788,-7.05055,8.03499,-4.9938,-8.28921,5.18143,-3.2779,-1.97116,-4.34841e-15,7.95139e-15,-56.2645,5.73591,-86.5566,18.6862,-16.3322,-17.0478,21.6559,7.12502,9.18924,-8.12392,-4.34841e-15,7.95139e-15,-55.9453,0.935558,80.5494,44.2525,15.2926,1.47746,17.3426,7.12502,27.0048,45.4323,-25.953,-5.89228,31.6506,46.8264,23.6164,-26.2822,19.6082,-52.3978,4.4633,-35.1546,40.4068,-43.8253,27.7422,14.0533
0.598365,16.3155,-13.5486,30.7849,-1.17578,-2.17146,-13.1711,-0.178721,-0.518544,-9.42362,-0.183435,1.58954,-2.52306,-0.0233446,1.93009,-17.226,-5.30805,-6.84408,8.0317,-4.52773,-8.29489,5.20665,-3.04778,-1.96536,-7.45443e-16,6.36111e-15,-56.3111,5.82448,-86.9104,18.4126,-16.4035,-18.0504,22.2153,7.12502,8.22166,-7.60472,-7.45443e-16,6.36111e-15,-55.9894,0.770099,80.8551,44.0907,15.4701,1.18072,17.5782,7.12502,26.7208,45.7115,-25.5223,-6.59465,32.0908,46.5876,25.1835,-25.5026,20.9098,-52.2338,4.63665,-34.9562,40.5729,-43.4637,27.5411,12.723
0.603988,16.3129,-13.5404,30.8037,-0.847003,-2.33306,-13.3286,-0.176769,-0.213613,-9.35777,-0.211374,1.68136,-2.36788,-0.0500016,1.85089,-17.2405,-4.907,-6.65376,7.9634,-4.03458,-8.33255,5.18907,-2.8015,-1.95839,4.77083e-15,-1.04362e-14,-56.4848,5.97378,-87.2123,18.368,-16.5298,-18.5378,22.2971,7.12502,7.75127,-7.54079,4.77083e-15,-1.04362e-14,-56.1982,0.566221,81.2194,43.8318,15.5769,0.880712,17.5953,7.12502,26.4337,45.7721,-25.3862,-6.79111,32.3991,46.4315,24.3338,-25.236,18.0692,-52.3046,4.85343,-34.8958,40.7043,-43.1788,27.2473,12.4543
0.607066,16.3112,-13.5391,30.8915,-0.643484,-2.43985,-13.4825,-0.149514,-0.0248187,-9.33544,-0.194926,1.73272,-2.26296,-0.0491692,1.79986,-17.1327,-4.59914,-6.39063,7.84683,-3.68523,-8.49516,5.13224,-2.62712,-2.01139,1.47846e-15,1.65985e-14,-56.6051,5.82819,-87.2635,18.3982,-16.5242,-18.7931,21.1852,7.12502,7.50482,-8.66164,1.47846e-15,1.65985e-14,-56.3957,0.350038,81.5446,43.5049,15.3622,0.949915,17.7434,7.12502,26.4999,45.9103,-25.3835,-6.86937,32.607,46.2747,26.0033,-25.8445,22.2046,-52.4624,4.84475,-34.7857,40.8341,-43.1864,27.0148,13.0474
0.608476,16.3115,-13.5407,30.8824,-0.513853,-2.42126,-13.4976,-0.133415,-0.00244212,-9.27916,-0.175911,1.73689,-2.19541,-0.0406204,1.79344,-17.1489,-4.35039,-6.31272,8.00287,-3.36,-8.44792,5.18876,-2.47035,-1.98171,5.09386e-16,-3.77691e-15,-56.7911,5.86443,-87.544,18.5143,-16.8807,-19.0715,19.8984,7.12502,7.23618,-9.95784,5.09386e-16,-3.77691e-15,-56.4524,0.23198,81.7399,42.9892,14.9024,1.21999,17.6891,7.12502,26.7584,45.8167,-25.3933,-6.95624,32.6772,46.224,23.9023,-25.9685,19.295,-52.503,4.85236,-34.8178,40.8735,-42.8684,27.285,12.2923
0.607025,16.3109,-13.5426,30.8288,-0.406983,-2.24185,-13.3419,-0.164197,-0.171878,-9.34286,-0.19657,1.69064,-2.3454,-0.0432972,1.83858,-17.1239,-4.04605,-6.55829,8.47248,-2.91253,-7.99568,5.34966,-2.24857,-1.76686,6.8705e-15,-1.23246e-14,-57.2785,5.9325,-87.9363,18.6691,-17.2795,-19.281,19.3573,7.12502,7.03394,-10.5058,6.8705e-15,-1.23246e-14,-56.7245,-0.00190515,81.96,42.5036,14.6708,1.32526,17.9185,7.12502,26.8591,46.0307,-25.3851,-7.02887,32.5909,46.2306,25.8046,-25.6042,19.9523,-52.4447,5.08751,-35.1566,40.8517,-42.4909,27.0427,12.1478
0.609041,16.3094,-13.5385,30.8151,-0.187959,-2.11029,-13.363,-0.205569,-0.183717,-9.39443,-0.249146,1.64105,-2.38752,-0.0699713,1.78789,-17.0645,-3.72689,-6.51539,8.88638,-2.48266,-7.8608,5.47766,-2.0459,-1.69547,-1.44119e-15,-4.17448e-15,-57.6965,5.92315,-88.2756,18.5681,-17.5085,-19.5552,19.8197,7.12502,6.76919,-10.0521,-1.44119e-15,-4.17448e-15,-57.0615,-0.181531,82.1994,41.9889,14.3699,0.983215,17.9044,7.12502,26.5318,46.0665,-25.3628,-7.24365,32.5875,46.2277,27.4644,-24.8771,19.5748,-52.3831,5.25957,-35.4104,40.8338,-42.1827,26.6888,12.2516
0.614869,16.3065,-13.5336,30.9217,-0.118475,-2.058,-13.6239,-0.139687,-0.137752,-9.37826,-0.167775,1.55505,-2.23415,-0.0337886,1.68092,-17.0137,-3.53643,-6.08035,9.05759,-2.27984,-8.15796,5.5182,-1.96109,-1.83973,1.68967e-15,1.98785e-15,-57.8927,5.7035,-88.4861,18.2379,-17.5019,-19.6587,21.1137,7.12502,6.66927,-8.76124,1.68967e-15,1.98785e-15,-57.2274,-0.535588,82.5127,41.5083,14.1163,0.743817,17.398,7.12502,26.3026,45.5945,-25.4451,-7.26169,32.5626,46.2299,27.2641,-24.7228,18.742,-52.4818,5.20141,-35.4985,40.8215,-42.0642,26.882,11.7978
0.620701,16.3027,-13.5322,30.9753,-0.0843066,-2.13114,-13.7456,-0.0282583,0.00898332,-9.30636,-0.036519,1.49119,-2.09638,0.023589,1.54641,-17.067,-3.34603,-5.6143,9.02736,-2.08983,-8.46103,5.51201,-1.87459,-1.99115,1.77664e-15,-1.65985e-14,-57.9048,5.2829,-88.407,17.8647,-17.0428,-19.4964,20.4313,7.12502,6.82593,-9.43869,1.77664e-15,-1.65985e-14,-57.2539,-0.68107,82.654,41.174,13.6026,0.884858,17.4335,7.12502,26.4376,45.6097,-25.4673,-7.21237,32.636,46.206,24.9805,-24.5742,15.6646,-52.5973,5.22682,-35.4756,40.8506,-41.8157,27.1994,10.6884
0.623701,16.3004,-13.5311,30.8929,-0.0971137,-2.10155,-13.5774,0.0105311,-0.0274905,-9.3166,0.0207063,1.47083,-2.19821,0.0541688,1.55191,-17.0557,-3.02165,-5.24126,9.04718,-1.7052,-8.72629,5.51873,-1.69511,-2.09716,2.01269e-15,-4.27387e-15,-58.1506,5.25379,-88.6253,17.791,-16.7687,-19.249,19.882,7.12502,7.06483,-9.98007,2.01269e-15,-4.27387e-15,-57.4401,-0.650582,82.7612,40.8012,13.071,1.23908,17.8439,7.12502,26.7767,45.9687,-25.3371,-7.16284,32.5732,46.1558,26.6743,-24.7031,19.5048,-52.5195,5.34583,-35.5771,40.875,-41.6033,27.2096,9.69826
0.628452,16.297,-13.5289,30.8068,-0.022074,-2.11856,-13.2045,0.0664644,0.0892295,-9.56084,0.0899126,1.44248,-2.65943,0.085478,1.46391,-16.7203,-2.70297,-5.01246,9.3472,-1.31226,-8.87987,5.56585,-1.51362,-2.1426,-3.49116e-15,2.08724e-15,-58.7766,5.06904,-88.7373,17.7614,-16.3082,-18.9915,19.2696,7.12502,7.31336,-10.584,-3.49116e-15,2.08724e-15,-58.0021,-0.812108,82.9865,40.2582,12.6334,1.17834,17.8006,7.12502,26.7185,45.9343,-25.1723,-7.17541,32.5939,46.0791,26.951,-24.7973,20.6876,-52.3819,5.46076,-35.6202,40.8966,-41.8055,26.5684,10.3382
0.634142,16.2965,-13.5227,30.6738,0.0460614,-2.07648,-13.4495,0.0816346,0.0973865,-9.31143,0.104422,1.46524,-2.26257,0.0912727,1.48479,-16.7422,-2.49409,-4.91328,9.35767,-1.03665,-8.98658,5.57884,-1.3852,-2.16656,2.28602e-15,-4.77083e-15,-58.6001,5.03722,-88.7523,17.6448,-15.8972,-18.5122,18.5237,7.12502,7.776,-11.3134,2.28602e-15,-4.77083e-15,-57.7592,-0.687007,83.1491,39.5861,12.0309,1.14954,17.061,7.12502,26.691,45.1989,-24.9034,-7.27744,32.5162,45.9894,25.1645,-24.9473,20.2948,-52.1839,5.53657,-35.6801,40.8912,-41.9627,26.1373,11.171
0.638323,16.2994,-13.5196,30.5284,-0.0204267,-2.01085,-13.5175,0.120545,0.0165814,-9.13392,0.161889,1.47348,-2.03878,0.122949,1.54528,-16.8247,-2.34352,-4.9174,9.49979,-0.810939,-8.99842,5.64361,-1.28522,-2.15188,5.42931e-15,-1.51076e-14,-58.5329,5.22279,-89.0008,17.5816,-15.665,-17.9084,18.3323,7.12502,8.35877,-11.4823,5.42931e-15,-1.51076e-14,-57.6509,-0.51885,83.2763,39.1611,11.42,1.48523,16.9225,7.12502,27.0122,45.011,-24.69,-7.21402,32.3662,45.9294,26.6533,-24.5968,21.2916,-51.9674,5.43428,-35.6665,40.864,-42.1914,26.1143,11.6661
0.644761,16.3,-13.517,30.4693,-0.277251,-1.96301,-13.5531,0.23746,-0.0352622,-9.0728,0.321243,1.40246,-1.95878,0.203244,1.51871,-16.9089,-2.13749,-4.85645,9.7802,-0.524694,-8.92028,5.75323,-1.15285,-2.11461,-5.46658e-16,7.35503e-15,-58.5964,5.25967,-89.1951,17.5195,-15.1656,-17.1039,17.8787,7.12502,9.13511,-11.9034,-5.46658e-16,7.35503e-15,-57.7728,-0.392126,83.2872,39.022,10.8287,2.09713,17.5004,7.12502,27.5975,45.4968,-24.6322,-7.03196,32.1551,45.9354,27.3498,-24.0234,20.2954,-51.8376,5.41609,-35.7597,40.7881,-42.3078,26.3323,11.7342
0.649785,16.2999,-13.5141,30.5833,-0.451929,-1.92617,-13.7057,0.324022,-0.0546318,-9.08096,0.436982,1.34622,-1.8892,0.260831,1.48545,-17.1135,-1.86456,-4.71116,10.1201,-0.142215,-8.91648,5.90436,-0.982012,-2.10717,-6.36111e-15,1.98785e-16,-58.6628,5.24665,-89.3368,17.4221,-14.4725,-16.204,16.5906,7.12502,10.0033,-13.1517,-6.36111e-15,1.98785e-16,-57.9434,-0.284607,83.3145,38.8032,10.3265,2.38297,18.0178,7.12502,27.8708,45.9701,-24.7787,-6.88198,32.0251,45.9626,27.8297,-23.1847,18.5044,-51.9604,5.58464,-35.9747,40.7056,-42.006,26.5847,11.1401
0.648945,16.3017,-13.5213,30.7418,-0.447653,-1.80026,-13.7484,0.364986,-0.194325,-9.15826,0.507701,1.27453,-1.9515,0.30167,1.49768,-17.3023,-1.67248,-4.49565,10.5678,0.130471,-8.96553,6.08552,-0.870168,-2.13922,1.73937e-15,-1.63003e-14,-58.7656,5.08898,-89.415,17.4086,-13.6354,-15.0758,15.5027,7.12502,11.0917,-14.1842,1.73937e-15,-1.63003e-14,-57.9895,-0.372926,83.4124,38.2763,9.95382,2.65507,17.9204,7.12502,28.1309,45.8303,-25.0484,-6.74024,31.9396,46.0185,28.1,-22.604,17.0211,-52.1735,5.77172,-36.2736,40.6086,-41.5266,26.6558,10.7652
0.650316,16.3053,-13.5268,30.9447,-0.27972,-1.79821,-13.9099,0.414559,-0.127289,-9.28432,0.567799,1.24809,-2.00111,0.329669,1.44058,-16.9631,-1.50718,-4.23119,10.701,0.303159,-9.14955,6.07705,-0.788179,-2.22,-6.01324e-15,1.98785e-16,-59.0177,4.98117,-89.4825,17.5173,-13.0536,-13.8801,15.1792,7.12502,12.2448,-14.4423,-6.01324e-15,1.98785e-16,-58.1447,-0.532336,83.5656,37.8389,9.85937,3.05783,17.5248,7.12502,28.5158,45.3708,-25.302,-6.64486,32.0331,46.0228,27.8164,-23.0143,17.8529,-52.3602,5.41017,-36.1151,40.5468,-41.5293,26.8163,10.6646
0.653005,16.3083,-13.5281,31.0589,-0.134619,-1.74264,-14.1151,0.462409,-0.0968841,-9.31722,0.628124,1.18764,-1.92797,0.357541,1.36954,-16.6543,-1.41817,-4.07501,10.8308,0.384542,-9.21341,6.06931,-0.745365,-2.25477,1.26725e-15,-5.56597e-15,-59.1498,4.88875,-89.5931,17.446,-12.5833,-12.6739,14.8244,7.12502,13.4075,-14.7242,1.26725e-15,-5.56597e-15,-58.2661,-0.741383,83.7187,37.461,9.85119,3.44236,17.499,7.12502,28.8832,45.2828,-25.4377,-6.66086,32.0627,46.0243,27.7739,-23.1303,17.977,-52.4051,5.06864,-36.014,40.4867,-41.631,26.9092,10.4212
0.65195,16.3106,-13.5336,31.1168,0.0196105,-1.68068,-14.1477,0.464263,-0.131385,-9.35962,0.635671,1.16392,-1.95633,0.362964,1.36526,-16.4523,-1.37041,-4.04158,10.9923,0.439972,-9.20537,6.08862,-0.718611,-2.25149,1.73937e-15,-7.35503e-15,-59.2343,5.23095,-90.1742,17.319,-12.6636,-11.1405,14.1259,7.12502,14.8851,-15.3194,1.73937e-15,-7.35503e-15,-58.4558,-0.783131,83.7857,37.2875,9.60997,4.03235,17.9021,7.12502,29.4466,45.5882,-25.5043,-6.55823,32.0959,45.9893,27.5865,-23.4583,19.0842,-52.4602,5.0585,-36.084,40.4727,-41.5539,26.7096,10.9978
0.650808,16.3116,-13.5395,31.1373,0.102148,-1.60996,-14.0374,0.497956,-0.187665,-9.47993,0.689258,1.09611,-2.14445,0.392309,1.33068,-16.2631,-1.32526,-3.97096,11.2602,0.488015,-9.15379,6.14315,-0.695288,-2.24267,1.80646e-14,1.37161e-14,-59.4753,5.30376,-90.5326,17.3831,-12.5621,-9.26252,12.9367,7.12502,16.6937,-16.3655,1.80646e-14,1.37161e-14,-58.7082,-0.78396,83.6565,37.0331,9.13218,4.77502,17.5765,7.12502,30.1554,45.1356,-25.5331,-6.49842,32.0789,45.956,27.4513,-23.716,19.909,-52.4536,5.08673,-36.1842,40.4583,-41.5501,26.3862,12.04
0.652166,16.3131,-13.5401,31.21,0.13957,-1.57364,-14.0453,0.527433,-0.216142,-9.56522,0.7328,1.06811,-2.23267,0.415843,1.32225,-16.2364,-1.22598,-3.97349,11.6533,0.642479,-9.05191,6.26834,-0.62931,-2.19923,4.37326e-15,8.94531e-15,-59.6894,5.29445,-90.6253,17.6632,-12.2563,-7.33983,11.3548,7.12502,18.544,-17.7813,4.37326e-15,8.94531e-15,-58.7773,-0.662255,83.5249,36.4944,8.7504,5.48973,17.1012,7.12502,30.837,44.5336,-25.5905,-6.50782,32.0546,45.9038,27.5673,-23.4671,19.1347,-52.517,5.15783,-36.2728,40.4479,-41.4423,26.242,11.3997
0.650215,16.316,-13.5385,31.4314,0.176123,-1.53745,-14.3528,0.520056,-0.3347,-9.53393,0.735261,1.11176,-2.0392,0.423288,1.43882,-16.4853,-1.10107,-4.08228,12.018,0.869291,-8.9164,6.43335,-0.536063,-2.12308,3.42904e-15,-8.74653e-15,-59.5594,5.34358,-90.5352,17.8997,-11.9195,-5.51124,10.3868,7.12502,20.3021,-18.5721,3.42904e-15,-8.74653e-15,-58.5476,-0.229107,83.2978,35.9986,8.19363,6.13732,16.7117,7.12502,31.4542,44.0256,-25.8089,-6.44501,32.0634,45.8569,27.5778,-23.2183,18.3887,-52.7583,5.21032,-36.3976,40.4278,-41.1102,26.4046,10.2721
0.650246,16.3171,-13.538,31.5486,0.228706,-1.54122,-14.6112,0.503515,-0.387267,-9.43872,0.717948,1.17351,-1.80235,0.417289,1.53457,-16.7407,-0.997298,-4.13609,12.2819,1.05423,-8.835,6.56629,-0.46073,-2.07543,-6.4605e-15,-1.15295e-14,-59.1632,5.35339,-90.2932,18.0016,-11.7142,-3.61382,9.38751,7.12502,22.1248,-19.3666,-6.4605e-15,-1.15295e-14,-58.2322,0.413451,82.8763,35.4561,7.23667,6.762,16.2307,7.12502,32.0491,43.4268,-25.9117,-6.39668,32.1036,45.8185,27.3653,-23.0147,17.378,-52.8804,5.13783,-36.3808,40.4005,-40.8916,26.6734,9.63295
