JuanDHNZ/ProyectoFinalCD/preprocessing/sports_trials_csv/05_04.csv
root1,root2,root3,root4,root5,root6,lowerback1,lowerback2,lowerback3,upperback1,upperback2,upperback3,thorax1,thorax2,thorax3,lowerneck1,lowerneck2,lowerneck3,upperneck1,upperneck2,upperneck3,head1,head2,head3,rclavicle1,rclavicle2,rhumerus1,rhumerus2,rhumerus3,rradius1,rwrist1,rhand1,rhand2,rfingers1,rthumb1,rthumb2,lclavicle1,lclavicle2,lhumerus1,lhumerus2,lhumerus3,lradius1,lwrist1,lhand1,lhand2,lfingers1,lthumb1,lthumb2,rfemur1,rfemur2,rfemur3,rtibia1,rfoot1,rfoot2,rtoes1,lfemur1,lfemur2,lfemur3,ltibia1,lfoot1,lfoot2,ltoes1
1.3544,16.5944,27.8629,32.3186,7.86648,0.0950655,-17.3716,-5.26538,3.36736,-12.5501,-7.35549,5.04878,-3.55857,-3.75773,2.44568,-7.37943,-16.6627,-12.5551,15.7475,-22.9354,9.19142,8.60983,-10.9955,2.28588,2.76124e-14,2.70347e-14,-9.96067,-4.93139,-20.2598,28.0175,-5.05292,11.1381,6.79469,7.12502,36.205,-19.4712,2.76124e-14,2.70347e-14,33.2713,-4.55057,12.3025,55.5925,1.76705,19.9306,14.0464,7.12502,44.4704,37.7516,-56.9274,4.21498,29.1748,40.7794,-53.0763,-31.1423,46.4805,-9.79082,-3.28735,-26.1019,29.8201,-13.4295,30.627,42.4492
1.3536,16.6009,27.8666,32.4003,7.76261,0.077153,-17.2406,-5.2341,3.41336,-12.647,-7.30987,5.03239,-3.74245,-3.74007,2.43193,-7.20893,-16.6879,-12.6166,15.6452,-22.9881,9.27395,8.56974,-11.0265,2.32711,2.11053e-14,6.36111e-15,-9.9554,-4.72437,-20.3104,28.0974,-5.29132,11.0754,6.99457,7.12502,36.1456,-19.286,2.11053e-14,6.36111e-15,32.9922,-4.64825,12.0701,55.7054,1.95674,19.9971,14.0785,7.12502,44.5324,37.7599,-56.9186,4.27906,29.1441,40.634,-52.8208,-31.3055,46.2105,-10.0198,-3.70932,-26.1322,29.7657,-17.2416,30.0518,45.5733
1.35171,16.6071,27.87,32.5139,7.55626,0.140081,-17.084,-5.20661,3.3393,-12.7659,-7.2531,4.96875,-3.95446,-3.71155,2.43919,-7.33807,-16.6904,-12.4778,15.8533,-22.994,9.13896,8.62888,-11.0233,2.25156,-9.1472e-15,1.19271e-14,-9.99624,-4.43876,-20.3868,28.2131,-5.49668,10.9429,7.17597,7.12502,36.0201,-19.1356,-9.1472e-15,1.19271e-14,32.638,-4.80091,11.818,55.7972,2.13477,19.6555,13.959,7.12502,44.214,37.7616,-57.0315,4.08713,29.266,40.6547,-52.0074,-31.9263,45.4426,-10.3068,-3.85307,-26.2461,29.6436,-18.8955,30.4529,46.4047
1.35073,16.6119,27.8756,32.6311,7.41461,0.182612,-16.8955,-5.21277,3.27448,-12.9794,-7.23511,4.99117,-4.27842,-3.70032,2.53838,-7.32776,-16.617,-12.4645,16.1183,-22.89,8.95676,8.68054,-10.984,2.20473,1.94685e-14,-7.15625e-15,-10.0612,-3.45968,-20.3455,28.4819,-6.17065,10.7002,7.02873,7.12502,35.7902,-19.3391,1.94685e-14,-7.15625e-15,32.2775,-5.11737,11.6712,55.9156,2.23963,19.2503,14.0271,7.12502,43.836,37.9708,-57.1549,3.64905,29.6277,40.6816,-50.5746,-32.9534,44.0129,-10.5835,-3.97146,-26.2935,29.5009,-20.9555,30.769,47.437
1.3502,16.6175,27.8822,32.7547,7.26375,0.298298,-16.9132,-5.19488,3.11114,-13.0779,-7.18842,4.99603,-4.358,-3.66648,2.64477,-7.18114,-16.576,-12.5707,16.1725,-22.8315,8.90915,8.67395,-10.9713,2.22324,2.4612e-14,-8.74653e-15,-10.0782,-3.0193,-20.2088,28.5613,-6.46464,10.4976,7.05675,7.12502,35.5981,-19.3575,2.4612e-14,-8.74653e-15,32.3129,-5.21942,11.7482,55.9666,2.23242,19.2096,14.3102,7.12502,43.7981,38.268,-57.2899,3.48609,29.6294,40.7085,-49.663,-33.6524,42.9928,-10.8393,-4.15632,-26.4052,29.3741,-22.1216,31.5146,47.8493
1.34698,16.6219,27.8883,32.888,6.99579,0.537889,-17.0204,-5.16677,2.75691,-13.1022,-7.11317,4.96306,-4.28978,-3.60614,2.80256,-6.91304,-16.5714,-12.8543,16.0441,-22.8421,9.09466,8.64339,-10.9899,2.33731,-1.05977e-14,0,-10.0555,-3.33814,-20.0562,28.5348,-6.28741,10.595,7.34458,7.12502,35.6905,-19.0474,-1.05977e-14,0,32.3996,-5.23375,11.839,55.8962,2.22726,19.3214,14.2465,7.12502,43.9024,38.1657,-57.4096,3.7937,29.1131,40.7278,-49.8211,-33.7297,43.0687,-11.0723,-4.37084,-26.6813,29.2386,-21.3077,33.1252,47.0911
1.3472,16.6249,27.8914,32.9484,7.06861,0.429302,-17.0638,-5.12416,2.93626,-13.1076,-7.07949,4.9858,-4.29449,-3.59997,2.73043,-6.70183,-16.5941,-12.9873,15.8825,-22.8912,9.23439,8.59175,-11.0209,2.41009,3.02898e-14,-3.73715e-14,-9.99414,-3.91987,-20.0128,28.4264,-5.76035,10.806,7.49214,7.12502,35.8904,-18.8512,3.02898e-14,-3.73715e-14,32.2625,-5.36169,11.6623,56.0309,2.41966,19.127,14.1448,7.12502,43.721,38.131,-57.461,3.78951,29.2587,40.7187,-49.7175,-33.8359,42.8408,-11.1909,-4.42331,-26.4725,29.1136,-23.4767,32.3718,48.8592
1.35319,16.6247,27.89,33.0149,7.18033,0.295109,-17.0379,-5.06074,3.27812,-13.1428,-7.03417,4.96168,-4.39549,-3.6013,2.53257,-6.51628,-16.6098,-12.9248,15.6688,-22.928,9.2886,8.49108,-11.0436,2.43654,-1.46976e-14,3.10104e-14,-10.0302,-4.4626,-20.01,28.3822,-5.27939,10.9467,7.51122,7.12502,36.0237,-18.7995,-1.46976e-14,3.10104e-14,32.0922,-5.58994,11.3157,56.1637,2.65242,18.9275,13.9842,7.12502,43.5347,38.0385,-57.5448,3.45573,29.6377,40.7212,-49.1371,-33.9222,42.4727,-11.2583,-4.29512,-26.2514,29.0075,-24.7119,31.7643,49.9757
1.35552,16.6252,27.8876,33.0561,7.11394,0.407537,-16.9009,-5.04503,3.25385,-13.1215,-7.00638,4.90636,-4.4467,-3.58827,2.50245,-6.59896,-16.6367,-12.8812,15.4755,-22.9449,9.33108,8.44209,-11.046,2.44063,5.30941e-14,-5.08889e-14,-9.99872,-4.74727,-20.0055,28.4209,-5.11608,10.8399,7.68331,7.12502,35.9225,-18.6522,5.30941e-14,-5.08889e-14,32.3181,-5.38667,11.4192,55.9411,2.54914,19.059,13.8013,7.12502,43.6575,37.8108,-57.6013,3.36855,29.5217,40.7318,-49.0246,-33.8711,42.5714,-11.3124,-4.03809,-26.3593,28.9546,-23.1898,32.9586,49.41
1.35567,16.6282,27.8861,33.1738,6.96132,0.623999,-16.6578,-5.04277,3.05029,-13.2733,-6.96197,4.89988,-4.71798,-3.55368,2.64835,-6.61088,-16.635,-12.9745,15.4988,-22.8994,9.17702,8.43825,-11.0401,2.4106,-2.13072e-14,-3.97569e-15,-10.0453,-4.30007,-19.8721,28.6108,-5.44302,10.6052,7.50097,7.12502,35.7001,-18.8887,-2.13072e-14,-3.97569e-15,32.6299,-5.17471,11.9788,55.6742,2.02976,19.4003,13.6096,7.12502,43.976,37.5014,-57.7394,3.42969,29.19,40.7461,-49.1027,-33.8935,42.586,-11.4805,-3.82836,-26.5788,28.9275,-20.4099,34.7923,48.2528
1.35453,16.6307,27.8859,33.2049,6.9088,0.649467,-16.4847,-5.07337,3.01268,-13.1007,-6.99976,4.93041,-4.60496,-3.56888,2.69687,-7.56313,-16.68,-12.479,15.6991,-22.8694,8.85941,8.5656,-10.9802,2.17413,-2.74199e-14,3.97569e-15,-9.68065,-4.62664,-19.9985,28.5756,-5.48824,10.5197,7.20662,7.12502,35.6191,-19.2026,-2.74199e-14,3.97569e-15,32.8638,-4.52648,12.1925,55.6386,1.70375,19.877,13.8785,7.12502,44.4205,37.6028,-57.7495,3.67795,28.9924,40.7265,-49.4577,-33.83,42.7921,-11.6028,-3.53031,-26.5613,28.9385,-17.5434,36.2664,47.0584
1.35147,16.6334,27.8812,33.2096,6.89226,0.644373,-16.2959,-5.08176,2.99824,-13.0491,-7.00338,4.96684,-4.63878,-3.56828,2.75604,-7.77634,-16.6802,-12.53,15.6438,-22.8686,9.04051,8.61295,-10.959,2.2177,-3.29486e-14,3.97569e-15,-9.44389,-4.95235,-20.0224,28.3927,-5.23675,10.4394,7.23774,7.12502,35.543,-19.1898,-3.29486e-14,3.97569e-15,32.8,-4.41563,12.1659,55.8041,1.742,20.1983,14.1944,7.12502,44.7198,37.8035,-57.7126,4.08915,28.7346,40.6573,-50.0406,-33.7543,43.1429,-11.7577,-3.31571,-26.4821,28.9817,-11.7232,38.258,43.7477
1.35104,16.6394,27.8789,33.1836,6.9846,0.605835,-16.1157,-5.08367,3.09563,-13.1269,-7.00343,5.02452,-4.82501,-3.5728,2.78898,-7.51893,-16.6317,-12.7312,15.4876,-22.8021,9.12803,8.54394,-10.9455,2.30569,-1.22234e-13,4.05521e-14,-9.43111,-4.57299,-19.9194,28.5048,-5.56643,10.3883,6.86795,7.12502,35.4946,-19.5712,-1.22234e-13,4.05521e-14,32.7193,-4.57118,12.2446,55.8815,1.88071,20.3554,14.5589,7.12502,44.866,38.1111,-57.6477,4.36504,28.5651,40.5467,-50.4306,-33.9564,43.2881,-11.8596,-3.35671,-26.3388,29.0374,-5.68644,39.4722,39.1312
1.36102,16.6464,27.8775,33.1462,7.23832,0.440606,-16.0603,-5.0318,3.55319,-13.1539,-6.97878,5.05503,-4.94026,-3.59063,2.58575,-7.40517,-16.6332,-12.8924,15.5255,-22.792,9.09087,8.55065,-10.9557,2.32302,-1.07359e-14,3.65764e-14,-9.58502,-3.99581,-19.7926,28.8491,-6.19554,10.4106,6.54652,7.12502,35.5157,-19.8875,-1.07359e-14,3.65764e-14,32.8842,-4.50734,12.5916,55.7419,1.60991,20.5687,14.5012,7.12502,45.0645,37.9753,-57.5821,3.88539,29.0351,40.4482,-49.8627,-34.0884,42.8977,-11.8704,-3.4875,-26.045,29.0365,-3.08613,39.9397,36.8262
1.37026,16.6493,27.8699,33.1663,7.3734,0.383725,-16.0044,-4.98621,3.85759,-13.2193,-6.94439,5.04849,-5.08416,-3.59549,2.43107,-6.88862,-16.5801,-13.1596,15.2674,-22.7539,9.28523,8.42748,-10.9636,2.47174,-6.04313e-14,5.56597e-14,-9.77965,-3.61356,-19.7014,29.0562,-6.47398,10.2964,6.70243,7.12502,35.4074,-19.7575,-6.04313e-14,5.56597e-14,32.932,-4.5292,12.8099,55.7246,1.51091,20.6601,14.2091,7.12502,45.1495,37.6495,-57.5707,3.83872,29.0546,40.3543,-50.0365,-33.8251,43.2187,-11.8853,-3.59654,-25.9196,29.0125,-4.58016,39.9546,38.6289
1.36935,16.6453,27.8645,33.3168,7.20756,0.603854,-16.0307,-4.97501,3.63463,-13.3644,-6.90119,4.98431,-5.21271,-3.56212,2.49939,-6.19749,-16.5301,-13.4799,14.9752,-22.7499,9.55258,8.28282,-10.993,2.65889,1.64945e-14,-1.82882e-14,-9.96182,-3.28624,-19.6018,29.1234,-6.61778,10.2495,6.84867,7.12502,35.3629,-19.6219,1.64945e-14,-1.82882e-14,32.9017,-4.74563,12.9471,55.7374,1.54127,20.6068,14.03,7.12502,45.0999,37.4901,-57.7191,4.70341,28.1317,40.2929,-51.2411,-33.7136,44.0852,-11.9975,-3.34476,-26.1668,28.9636,-7.64892,39.6331,41.5593
1.36463,16.6427,27.8622,33.4122,7.12826,0.623716,-16.0809,-4.92966,3.58999,-13.4169,-6.83702,4.9498,-5.24498,-3.52828,2.49431,-5.83941,-16.5293,-13.6647,14.837,-22.7985,9.76385,8.23004,-11.0273,2.77096,-8.73596e-14,4.29375e-14,-10.1234,-3.45679,-19.5862,29.0996,-6.25518,10.3264,7.01729,7.12502,35.4359,-19.4358,-8.73596e-14,4.29375e-14,32.9467,-4.9905,12.86,55.7358,1.73486,20.2827,13.9241,7.12502,44.7983,37.5027,-57.8229,5.52718,27.5553,40.2547,-52.3393,-33.7211,44.6266,-12.0561,-2.94176,-26.1606,28.9016,-12.8735,38.6254,45.8486
1.36906,16.6424,27.8592,33.4455,7.15039,0.540196,-16.2931,-4.84199,3.78049,-13.212,-6.76369,4.89849,-4.93564,-3.50447,2.30673,-5.98695,-16.5647,-13.6153,14.7495,-22.8556,9.93026,8.24814,-11.0341,2.79567,-8.23093e-15,1.03368e-14,-9.99284,-4.12332,-19.6243,28.8115,-5.87885,10.4061,7.0089,7.12502,35.5115,-19.4262,-8.23093e-15,1.03368e-14,33.1103,-4.85087,12.7164,55.6421,2.01989,19.9108,13.8137,7.12502,44.452,37.5259,-57.8925,5.94182,27.3481,40.2639,-52.7947,-33.9096,44.7286,-12.0448,-2.66571,-26.0578,28.7931,-15.1598,38.0155,47.4756
1.38123,16.6468,27.8549,33.5091,7.26352,0.619362,-16.6175,-4.79323,3.98176,-12.9623,-6.75385,4.76802,-4.52915,-3.51486,2.00937,-5.99981,-16.572,-13.4334,14.4237,-22.8709,10.0772,8.14033,-11.0276,2.82567,1.70458e-14,-2.78299e-14,-9.83427,-4.994,-19.7121,28.5195,-5.39779,10.6022,6.98323,7.12502,35.6973,-19.4071,1.70458e-14,-2.78299e-14,33.2765,-4.59495,12.6275,55.6144,2.24879,19.7771,13.7912,7.12502,44.3273,37.5509,-57.9923,5.63021,27.3823,40.2729,-52.553,-34.2153,44.0374,-12.0758,-2.64124,-26.088,28.7351,-14.5853,38.217,47.1506
1.39359,16.6485,27.849,33.5571,7.3484,0.833812,-16.5697,-4.87497,3.9636,-12.9292,-6.85945,4.75303,-4.516,-3.56794,1.99243,-6.16356,-16.5503,-13.2822,14.3782,-22.8004,9.92464,8.10718,-10.9921,2.76169,-5.70264e-15,5.56597e-15,-9.53452,-5.38036,-19.7817,28.3544,-5.00132,10.7141,6.96653,7.12502,35.8033,-19.3981,-5.70264e-15,5.56597e-15,33.0972,-4.37245,12.8795,55.6298,2.04114,19.8049,13.8087,7.12502,44.3533,37.5586,-58.0901,5.57643,26.9984,40.3241,-53.1584,-33.8604,44.143,-12.0523,-2.80582,-26.2775,28.6605,-14.8915,38.1631,47.4183
1.39831,16.6492,27.8404,33.6113,7.41695,0.891147,-16.3959,-4.93554,3.94804,-12.9873,-6.92446,4.83164,-4.6591,-3.59814,2.09753,-6.20735,-16.5326,-13.3453,14.3182,-22.7602,9.95073,8.10073,-10.9731,2.78146,-5.47776e-14,6.36111e-15,-9.30303,-5.32648,-19.8093,28.2641,-4.95973,10.8223,6.7548,7.12502,35.9058,-19.5848,-5.47776e-14,6.36111e-15,33.0659,-4.19647,13.2876,55.6198,1.84354,19.9582,13.8922,7.12502,44.4961,37.5875,-58.1987,6.07863,26.4766,40.3836,-54.4785,-33.2183,45.0975,-12.0968,-2.92425,-26.3062,28.5883,-14.4884,38.304,47.2009
1.4025,16.6521,27.8327,33.6836,7.3883,1.07561,-16.3564,-4.98387,3.82258,-12.9719,-6.97379,4.80636,-4.64883,-3.61596,2.13511,-6.25187,-16.5158,-13.4613,14.2704,-22.7472,10.1316,8.12771,-10.9577,2.84869,-3.26752e-15,-7.15625e-15,-9.1617,-5.18515,-19.8863,28.227,-5.00385,10.8022,6.67036,7.12502,35.8868,-19.6739,-3.26752e-15,-7.15625e-15,33.2538,-4.08163,13.3922,55.6267,1.77075,20.0726,14.0472,7.12502,44.6027,37.7016,-58.3325,6.09376,26.2399,40.4837,-54.634,-33.3263,45.0384,-12.1427,-3.0599,-26.5076,28.514,-13.0851,38.7235,46.5362
1.40563,16.6544,27.8286,33.7081,7.36985,1.1694,-16.3895,-5.02269,3.75932,-12.8426,-7.02716,4.79468,-4.47985,-3.63784,2.13543,-6.4876,-16.503,-13.36,14.2345,-22.7225,10.2118,8.15125,-10.9255,2.84607,1.22998e-14,2.78299e-14,-8.92765,-5.28563,-20.0226,28.1322,-4.96654,10.7559,6.71198,7.12502,35.843,-19.643,1.22998e-14,2.78299e-14,33.0864,-3.87144,13.3868,55.6853,1.73945,19.9285,13.8591,7.12502,44.4684,37.565,-58.3621,5.93956,26.2995,40.568,-54.4154,-33.4655,44.7559,-12.1331,-3.12681,-26.609,28.4679,-11.9542,38.92,45.9081
1.41088,16.655,27.8239,33.6588,7.40165,1.18433,-16.3863,-5.05987,3.82482,-12.7057,-7.09098,4.81406,-4.33469,-3.67225,2.10071,-6.70136,-16.4658,-13.2314,14.171,-22.6532,10.2243,8.14475,-10.8777,2.83029,-1.44094e-13,4.77083e-15,-8.71833,-5.30092,-20.1195,28.0799,-4.94361,10.8106,6.82414,7.12502,35.8948,-19.5182,-1.44094e-13,4.77083e-15,33.1128,-3.55717,13.6106,55.5963,1.53727,20.0978,13.7871,7.12502,44.6261,37.4324,-58.3289,5.93766,26.2874,40.6583,-54.601,-33.2819,44.9193,-12.0404,-3.0841,-26.6142,28.388,-11.0716,39.0415,45.5791
1.41417,16.6498,27.8152,33.6421,7.42963,1.20909,-16.1664,-5.04868,3.90031,-12.8306,-7.06679,4.78544,-4.60209,-3.6686,2.06643,-6.50715,-16.44,-13.2051,14.1876,-22.624,10.1108,8.09609,-10.8799,2.81428,8.73659e-14,-5.80451e-14,-8.837,-4.89707,-20.0981,28.1204,-5.01783,10.836,6.64422,7.12502,35.9188,-19.6922,8.73659e-14,-5.80451e-14,33.1356,-3.6808,13.9422,55.6605,1.44843,20.4803,13.9055,7.12502,44.9822,37.412,-58.392,6.58649,25.7266,40.7181,-55.7093,-32.9826,45.7173,-11.9753,-3.08688,-26.6334,28.3187,-14.0955,38.1909,47.698
1.41814,16.6442,27.8088,33.6953,7.5043,1.28582,-15.8709,-5.00799,4.03578,-13.1167,-6.99793,4.69512,-5.10651,-3.65166,1.96316,-6.09194,-16.4469,-13.2908,14.2237,-22.6605,10.009,8.03884,-10.9267,2.82225,1.73067e-14,-1.66979e-14,-9.1714,-4.49905,-20.0328,28.0915,-5.02278,10.7221,6.85873,7.12502,35.8109,-19.504,1.73067e-14,-1.66979e-14,32.8953,-4.4468,13.6903,55.8082,1.88505,20.287,13.6883,7.12502,44.8024,37.2653,-58.5089,7.16861,25.1414,40.7295,-56.6175,-32.8255,46.3731,-11.988,-3.1617,-26.6739,28.2886,-17.5041,36.9629,49.4997
1.42397,16.6442,27.8069,33.6881,7.61934,1.32513,-15.5945,-5.02212,4.16648,-13.3584,-7.00219,4.69843,-5.54058,-3.66713,1.94711,-5.69513,-16.4192,-13.5305,14.3421,-22.6586,10.002,8.03787,-10.953,2.87859,-3.07495e-14,-5.56597e-15,-9.32681,-4.04608,-19.9559,28.0176,-5.03425,10.6474,7.02289,7.12502,35.7401,-19.3571,-3.07495e-14,-5.56597e-15,32.7665,-4.92034,13.7221,55.8026,1.95241,20.3352,13.448,7.12502,44.8472,37.0075,-58.4844,7.12368,25.1064,40.7084,-56.8175,-32.9818,45.9858,-11.9779,-3.23836,-26.667,28.2889,-17.0752,37.1727,49.1729
1.42906,16.644,27.8051,33.5695,7.79755,1.27727,-15.3075,-5.06821,4.30279,-13.4748,-7.05196,4.77685,-5.83182,-3.70071,1.9923,-5.53727,-16.4012,-13.6738,14.4964,-22.6419,9.92481,8.06758,-10.9615,2.88352,7.24694e-14,-2.06736e-14,-9.41597,-3.57212,-19.8648,28.0951,-5.1153,10.6023,7.06925,7.12502,35.6974,-19.321,7.24694e-14,-2.06736e-14,32.7139,-5.14585,13.8979,55.7561,1.90158,20.5078,13.3447,7.12502,45.0078,36.8411,-58.349,7.44925,24.8691,40.6363,-57.8092,-32.8418,46.1309,-11.8692,-3.46801,-26.5458,28.3402,-16.1782,37.4604,48.5465
1.43417,16.6444,27.8015,33.4298,8.00333,1.24524,-14.947,-5.10827,4.45895,-13.6196,-7.08917,4.81678,-6.20327,-3.73171,1.99947,-5.25225,-16.3514,-13.745,14.5941,-22.5941,9.82528,8.04168,-10.9607,2.89146,2.20527e-16,-7.63333e-14,-9.61013,-2.974,-19.7585,28.2335,-5.37543,10.5677,7.29046,7.12502,35.6646,-19.1078,2.20527e-16,-7.63333e-14,32.5931,-5.59755,13.8232,55.9219,2.20761,20.443,13.4619,7.12502,44.9475,36.9821,-58.1606,7.64658,24.6997,40.5512,-58.4605,-32.3112,47.017,-11.7588,-3.64653,-26.4289,28.4153,-14.5627,37.9297,47.6424
1.43987,16.6455,27.7976,33.3085,8.27393,1.0797,-14.6508,-5.11724,4.78814,-13.7339,-7.10371,4.8762,-6.52965,-3.76355,1.92861,-4.8792,-16.2815,-13.8199,14.5137,-22.53,9.8394,7.95431,-10.9511,2.94979,4.52235e-14,-3.4191e-14,-9.7619,-2.75915,-19.7022,28.3057,-5.38511,10.4137,7.57965,7.12502,35.5187,-18.8537,4.52235e-14,-3.4191e-14,32.8625,-5.61273,14.3304,55.7308,1.82096,20.7424,13.6776,7.12502,45.226,37.0875,-57.9427,7.37863,25.0912,40.4362,-58.3736,-31.8952,47.561,-11.7277,-3.80503,-26.1474,28.5362,-13.3916,38.1657,46.9604
1.43857,16.6445,27.795,33.3219,8.28382,1.04395,-14.5433,-5.10308,4.7869,-13.8484,-7.07084,4.89451,-6.71499,-3.74757,1.9744,-4.42672,-16.2435,-13.8519,14.3991,-22.5237,9.86702,7.84582,-10.9697,3.0058,-3.62596e-14,-6.44062e-14,-9.84654,-2.65213,-19.6707,28.2567,-5.48254,10.4326,7.51472,7.12502,35.5365,-18.9143,-3.62596e-14,-6.44062e-14,33.0018,-5.81997,14.5271,55.6806,1.70777,20.8912,13.9237,7.12502,45.3644,37.2783,-57.9092,7.58453,25.0047,40.32,-58.7509,-31.7678,47.7726,-11.844,-3.92554,-26.1062,28.6769,-12.7876,38.1867,46.6009
1.4422,16.6482,27.7933,33.3176,8.47836,0.959644,-14.5081,-5.13157,4.99117,-13.8967,-7.12034,4.92111,-6.81519,-3.78853,1.89919,-4.12301,-16.1971,-13.9077,14.2907,-22.5097,10.0202,7.78225,-10.9706,3.09028,5.29264e-15,-1.43125e-14,-9.86288,-2.68964,-19.7228,28.2456,-5.49486,10.5217,7.34174,7.12502,35.621,-19.067,5.29264e-15,-1.43125e-14,32.9824,-6.08145,14.429,55.7077,1.81546,20.9521,13.9899,7.12502,45.421,37.3217,-57.8393,7.25218,25.3356,40.1918,-58.2802,-32.2324,47.2107,-11.9694,-4.03785,-25.9317,28.8297,-8.8322,39.3006,43.811
1.4493,16.6542,27.7897,33.227,8.85113,0.738576,-14.3729,-5.11297,5.44298,-13.9948,-7.11603,4.95466,-7.06149,-3.8228,1.7209,-3.70827,-16.161,-14.0419,14.2134,-22.5106,10.1178,7.71432,-10.9903,3.17345,-5.49143e-14,-1.66979e-14,-10.2011,-2.54434,-19.6508,28.573,-5.52722,10.7268,6.93818,7.12502,35.8153,-19.4235,-5.49143e-14,-1.66979e-14,33.0362,-6.4726,14.432,55.6739,1.92384,20.9939,13.8251,7.12502,45.4598,37.1412,-57.6702,6.93563,25.7957,40.0617,-58.1883,-32.2396,46.9322,-12.0097,-4.17057,-25.5489,28.9637,-5.58205,39.9603,41.3171
1.45857,16.6591,27.7851,33.1283,9.18596,0.564326,-14.5113,-5.1284,5.75822,-13.9389,-7.17157,5.0422,-6.9592,-3.86993,1.62165,-3.19222,-16.1058,-14.3012,13.9397,-22.4898,10.3583,7.59437,-11.0032,3.33204,-1.28465e-14,1.11319e-14,-10.285,-2.7747,-19.5853,28.6797,-5.22647,10.8392,6.84348,7.12502,35.9218,-19.4922,-1.28465e-14,1.11319e-14,33.0812,-6.6042,14.5295,55.5678,1.84992,20.792,13.6541,7.12502,45.2721,37.0457,-57.5079,6.48136,26.2875,39.9617,-57.7885,-32.1728,47.1772,-11.9909,-4.25476,-25.239,29.0552,-5.86645,40.1307,41.7274
1.46504,16.6594,27.7807,33.0223,9.38827,0.4788,-15.0795,-5.1799,5.78475,-13.4224,-7.31256,5.14928,-6.0594,-3.92325,1.59195,-3.41731,-16.1512,-14.3379,13.573,-22.539,10.7246,7.56791,-10.9989,3.42919,6.20643e-14,-7.15625e-15,-9.87094,-3.67582,-19.6356,28.5286,-4.97311,10.9984,6.83156,7.12502,36.0726,-19.4671,6.20643e-14,-7.15625e-15,33.3653,-5.99024,14.5477,55.3709,1.69438,20.6294,13.5588,7.12502,45.1209,37.0106,-57.3365,6.09286,26.6407,39.8836,-57.5587,-31.8167,47.454,-11.936,-4.28715,-25.0723,29.1228,-4.18341,40.9865,40.8884
1.46596,16.6578,27.7803,32.9909,9.40457,0.674601,-15.5485,-5.27563,5.45335,-13.0145,-7.46589,5.18299,-5.29986,-3.96272,1.69502,-3.66236,-16.1695,-14.3793,13.2668,-22.54,11.0098,7.54947,-10.9759,3.50665,5.4964e-14,1.98785e-14,-9.50508,-4.24817,-19.6929,28.4162,-4.90782,11.1192,6.87475,7.12502,36.1871,-19.3956,5.4964e-14,1.98785e-14,33.6416,-5.54136,14.4768,55.1631,1.58074,20.4962,13.5299,7.12502,44.997,37.0306,-57.2707,6.13488,26.3609,39.8707,-57.9448,-31.6469,47.5222,-11.8857,-4.23921,-25.2327,29.1342,-7.55619,39.065,43.3546
1.46858,16.6609,27.7786,33.0748,9.50808,0.738138,-15.7786,-5.31167,5.45016,-12.9059,-7.53677,5.17717,-5.05838,-3.99495,1.64765,-3.76763,-16.154,-14.4395,13.1856,-22.5321,11.2455,7.57606,-10.9563,3.57877,9.27455e-14,-1.74931e-14,-9.57081,-3.87279,-19.7245,28.6754,-5.41819,11.0363,6.4874,7.12502,36.1086,-19.8024,9.27455e-14,-1.74931e-14,33.0222,-6.0146,13.5394,55.6892,2.3958,19.5488,13.4138,7.12502,44.1146,37.2538,-57.359,5.91588,26.4185,39.8858,-57.771,-31.7128,47.4279,-11.9858,-4.33143,-25.2355,29.1186,-3.0856,40.2213,40.6682
1.47005,16.663,27.7742,33.1996,9.52613,0.859217,-15.9624,-5.31528,5.33584,-12.8451,-7.54678,5.13285,-4.88321,-3.99157,1.63477,-3.84646,-16.171,-14.4025,13.1283,-22.5682,11.3924,7.58944,-10.9598,3.60748,2.8128e-14,-2.62396e-14,-9.7742,-3.53371,-19.7243,29.0453,-5.87862,10.9766,6.15558,7.12502,36.052,-20.1481,2.8128e-14,-2.62396e-14,32.9823,-6.1774,13.2123,55.8121,2.59465,19.2495,13.3338,7.12502,43.8353,37.2779,-57.5197,5.78011,26.3305,39.9294,-57.6394,-31.7523,47.5328,-12.1084,-4.29013,-25.3384,29.0775,-3.1352,39.9153,40.4135
1.46925,16.664,27.7725,33.3156,9.45151,0.980073,-16.1443,-5.31929,5.15136,-12.8213,-7.54647,5.11236,-4.73726,-3.97824,1.68917,-3.81341,-16.1609,-14.517,13.1006,-22.5823,11.5941,7.61533,-10.9605,3.68281,-2.7159e-14,1.59028e-14,-9.85125,-3.50833,-19.7376,29.1879,-5.87262,11.047,6.1066,7.12502,36.1187,-20.1807,-2.7159e-14,1.59028e-14,33.0893,-6.24438,13.2118,55.7551,2.60044,19.2557,13.384,7.12502,43.841,37.3259,-57.6705,5.86198,26.105,39.9525,-57.7453,-31.7373,47.6178,-12.2261,-4.27393,-25.4813,29.0691,-1.28058,40.1781,38.8362
1.46868,16.6664,27.7727,33.2964,9.45892,1.01432,-16.2675,-5.308,5.05884,-12.7034,-7.53641,5.0871,-4.5311,-3.96425,1.688,-3.92848,-16.1845,-14.4444,13.045,-22.6194,11.7052,7.62707,-10.9634,3.69322,-2.11706e-14,-2.54444e-14,-9.94819,-3.52097,-19.7171,29.1656,-5.93045,11.0803,6.28237,7.12502,36.1502,-19.9971,-2.11706e-14,-2.54444e-14,33.3124,-6.20228,13.1311,55.761,2.68187,19.4398,13.4672,7.12502,44.0129,37.3453,-57.6918,6.02513,25.9356,39.9712,-57.667,-32.2578,47.601,-12.1862,-4.27071,-25.5134,29.0645,-2.13736,40.4407,39.5839
1.4678,16.669,27.7699,33.1897,9.46597,0.969774,-16.1875,-5.306,5.09255,-12.6509,-7.5354,5.07575,-4.52052,-3.96557,1.66167,-3.93274,-16.1883,-14.3018,12.9586,-22.6167,11.6597,7.57666,-10.9606,3.66529,5.10628e-14,3.57812e-14,-10.0803,-3.18016,-19.7535,29.2988,-6.17218,10.9208,6.15549,7.12502,35.9992,-20.1612,5.10628e-14,3.57812e-14,33.3186,-6.23665,12.9982,55.8653,2.70787,19.5125,13.5776,7.12502,44.0806,37.4303,-57.6076,6.5328,25.6325,39.9813,-58.3283,-32.3166,47.9565,-12.0797,-4.36471,-25.4866,29.0606,-5.49746,40.2455,42.0241
1.46553,16.6713,27.767,33.1735,9.40866,0.994506,-16.2081,-5.30438,4.97642,-12.5946,-7.52508,5.06842,-4.43102,-3.95149,1.70902,-4.08778,-16.2079,-14.2234,13.0315,-22.6184,11.5442,7.60329,-10.9566,3.60576,-5.97845e-14,1.03368e-14,-10.1252,-3.20943,-19.7539,29.3105,-6.1432,11.0817,6.19444,7.12502,36.1516,-20.0847,-5.97845e-14,1.03368e-14,33.4344,-6.17969,12.9967,55.9019,2.70953,19.7561,13.7856,7.12502,44.3078,37.5527,-57.5887,6.50767,25.6739,39.9717,-58.2126,-32.5296,47.8201,-12.1246,-4.22709,-25.5356,29.0932,-6.24592,40.0277,42.56
1.46997,16.6761,27.7664,33.1264,9.55895,0.997683,-16.3024,-5.32415,5.06776,-12.5009,-7.57297,5.05465,-4.29326,-3.97929,1.62162,-4.22295,-16.1984,-14.1981,13.0853,-22.5977,11.5515,7.63914,-10.9379,3.59524,5.06155e-14,1.59028e-15,-10.0785,-3.61654,-19.7769,29.1149,-5.83101,11.2947,6.54407,7.12502,36.3533,-19.6849,5.06155e-14,1.59028e-15,33.6052,-6.09217,12.9589,55.8401,2.70925,19.9911,13.8209,7.12502,44.5268,37.5044,-57.4913,5.81929,26.162,39.9583,-57.3006,-32.6498,47.4812,-12.1111,-4.12522,-25.4652,29.1438,-5.99892,40.284,42.819
1.47835,16.6815,27.7641,32.9907,9.86471,0.849058,-16.1449,-5.33253,5.41533,-12.5457,-7.60763,5.08655,-4.47255,-4.0197,1.48817,-3.84259,-16.1281,-14.2793,12.8609,-22.5422,11.7123,7.52354,-10.9272,3.70111,-3.47873e-14,4.77083e-15,-10.1628,-3.80747,-19.7379,29.0162,-5.51244,11.581,6.82898,7.12502,36.6243,-19.3317,-3.47873e-14,4.77083e-15,33.5521,-6.53638,12.479,55.9401,3.19508,19.7204,13.8541,7.12502,44.2745,37.6339,-57.3334,5.17253,26.7453,39.9561,-56.736,-32.5566,46.9978,-12.031,-4.13016,-25.1981,29.1774,-4.52349,40.4252,41.3777
1.4808,16.6846,27.765,32.8769,9.96703,0.709846,-16.1267,-5.3257,5.60272,-12.4913,-7.62106,5.1092,-4.44638,-4.03631,1.40774,-3.45059,-15.9978,-14.3695,12.5134,-22.4151,12.0256,7.37653,-10.8768,3.86957,-1.36863e-13,3.02153e-14,-10.1953,-3.80665,-19.7495,28.964,-5.36976,11.5229,7.22143,7.12502,36.5693,-18.9532,-1.36863e-13,3.02153e-14,33.272,-7.33016,11.1055,56.325,4.473,18.8696,13.9341,7.12502,43.4806,38.008,-57.1905,5.02638,27.0538,39.9484,-56.5432,-32.696,46.5492,-11.9892,-4.15468,-25.0379,29.2103,-3.82019,41.1508,40.9985
1.47856,16.685,27.7667,32.8441,9.92618,0.834712,-16.1649,-5.37415,5.40547,-12.4484,-7.66867,5.09125,-4.35255,-4.04685,1.47975,-3.40869,-15.8738,-14.4018,12.5469,-22.2722,12.1533,7.38054,-10.8043,3.93771,3.74709e-14,-1.51076e-14,-10.2477,-3.70113,-19.761,28.9628,-5.34382,11.3156,7.22919,7.12502,36.3731,-18.9948,3.74709e-14,-1.51076e-14,33.2762,-7.4961,10.7998,56.4083,4.69902,18.704,14.0192,7.12502,43.3259,38.149,-57.1144,4.97133,26.9936,39.9475,-56.3369,-32.8056,46.7926,-11.9719,-4.03068,-25.1751,29.2501,-7.80828,40.2435,44.0191
1.48415,16.6868,27.7657,32.7028,10.1594,0.680985,-16.0506,-5.38943,5.6931,-12.4892,-7.70839,5.13519,-4.49542,-4.08534,1.38582,-3.38317,-15.7367,-14.4253,12.7411,-22.0914,12.062,7.40627,-10.723,3.93948,4.35338e-14,-5.96354e-14,-10.3296,-3.49934,-19.7494,28.9899,-5.26545,11.3326,7.0351,7.12502,36.3891,-19.1848,4.35338e-14,-5.96354e-14,33.5403,-7.19277,11.518,56.2006,3.95627,19.2265,14.0926,7.12502,43.8138,38.0445,-56.9629,4.49157,27.4876,39.9392,-55.749,-32.751,46.9569,-11.844,-4.00935,-24.9261,29.2762,-6.5205,40.5644,43.4236
1.4853,16.6876,27.7658,32.6291,10.2166,0.604061,-16.0657,-5.37589,5.7815,-12.4319,-7.70469,5.13948,-4.4365,-4.08708,1.3366,-3.62895,-15.6587,-14.3179,12.9419,-21.9614,11.9298,7.46737,-10.6499,3.88178,-1.03989e-13,-4.77083e-15,-10.3788,-3.4312,-19.7561,29.0023,-5.32738,11.4225,6.8084,7.12502,36.4743,-19.3902,-1.03989e-13,-4.77083e-15,34.0848,-6.42697,12.6223,55.816,2.808,20.1358,14.0186,7.12502,44.6616,37.6502,-56.8833,4.54374,27.5483,39.9454,-55.9942,-32.6457,47.0643,-11.8027,-3.93423,-24.8251,29.2929,-5.29904,40.1941,42.6932
1.48062,16.6838,27.7668,32.619,10.0642,0.66163,-16.2103,-5.36519,5.56081,-12.3047,-7.68526,5.12355,-4.18805,-4.05897,1.41018,-3.77632,-15.4539,-14.1081,12.8568,-21.6687,11.9625,7.4055,-10.4951,3.90291,-4.31114e-14,2.3059e-14,-10.3663,-3.35706,-19.7498,29.0189,-5.57439,11.4055,6.57592,7.12502,36.4582,-19.6267,-4.31114e-14,2.3059e-14,34.6007,-5.58484,13.7084,55.4789,1.64024,21.0052,13.9143,7.12502,45.4703,37.2261,-56.8706,5.05817,27.1549,39.9532,-56.6652,-32.4925,47.4863,-11.8284,-3.8412,-24.9432,29.3211,-5.65747,40.4906,42.9065
1.48497,16.684,27.7639,32.4994,10.1591,0.602951,-16.1922,-5.36176,5.71242,-12.2433,-7.7002,5.11297,-4.15382,-4.07474,1.31329,-10.0158,-15.6087,-12.2067,19.1196,-21.242,7.67389,9.82706,-10.1364,1.73875,-6.70898e-15,-4.85035e-14,-10.277,-3.48341,-19.7395,28.7851,-5.39306,11.535,6.61877,7.12502,36.5808,-19.5529,-6.70898e-15,-4.85035e-14,34.8603,-5.20404,14.2295,55.2552,1.00445,21.4664,13.8082,7.12502,45.8986,36.9449,-56.7489,4.71759,27.4393,39.971,-56.327,-32.4099,47.3732,-11.7612,-3.73948,-24.8411,29.3588,-5.67927,40.7483,42.9806
1.49104,16.6841,27.7644,32.4352,10.3057,0.630932,-16.1683,-5.3816,5.82195,-12.2357,-7.73722,5.07205,-4.18107,-4.10182,1.21073,-10.2511,-15.4054,-11.805,19.4199,-20.9653,7.38918,9.86586,-9.99646,1.62029,1.08636e-13,-1.03368e-14,-10.2216,-4.04681,-19.7452,28.4537,-4.74187,11.6745,6.96141,7.12502,36.7128,-19.1768,1.08636e-13,-1.03368e-14,34.8632,-5.27196,14.1201,55.2246,1.04845,21.3396,13.7243,7.12502,45.7809,36.9095,-56.6637,4.11489,27.7704,39.9932,-55.8417,-32.1921,47.2875,-11.7495,-3.72691,-24.8142,29.4205,-3.51026,40.8514,41.5713
1.48706,16.6804,27.7663,32.4002,10.1932,0.608379,-16.1886,-5.33452,5.74674,-12.2264,-7.66881,5.04168,-4.15143,-4.06308,1.22315,-10.5907,-15.1768,-11.5707,19.7892,-20.6515,7.23304,9.98123,-9.83171,1.55839,8.90804e-14,1.35174e-14,-10.2743,-4.20712,-19.7043,28.2504,-4.6481,11.7433,7.24767,7.12502,36.7779,-18.8739,8.90804e-14,1.35174e-14,34.9883,-5.37091,14.0448,55.0875,1.02966,21.0876,13.6237,7.12502,45.5469,36.9046,-56.6145,4.5896,27.5098,39.9797,-56.278,-32.1204,47.534,-11.8192,-3.57365,-24.8411,29.5348,-1.33774,40.6005,39.4978
1.48074,16.6768,27.768,32.3277,10.105,0.527403,-16.1866,-5.31809,5.69785,-12.2058,-7.64264,5.06557,-4.11836,-4.04508,1.27488,-11.3241,-14.8466,-11.27,20.5497,-20.1609,6.88658,10.2636,-9.57723,1.41525,5.05658e-14,1.98785e-14,-10.2591,-4.36525,-19.6868,28.1225,-4.51813,11.8432,7.43731,7.12502,36.8724,-18.66,5.05658e-14,1.98785e-14,35.5212,-4.74483,15.1233,54.6761,-0.0411457,21.9594,13.7762,7.12502,46.3558,36.721,-56.5708,5.31632,27.1599,40.0068,-57.0391,-32.1493,47.7084,-11.8351,-3.38303,-24.7774,29.5912,0.375581,40.4883,37.783
1.4869,16.6783,27.7668,32.089,10.3695,0.345597,-15.74,-5.26729,6.11066,-12.7071,-7.55145,5.01101,-4.97867,-4.04596,1.10808,-10.5589,-14.4218,-11.2954,21.2848,-19.6188,6.46844,10.2915,-9.3936,1.41369,6.55617e-14,-5.56597e-15,-11.0418,-2.90881,-19.4889,28.475,-5.01822,11.7383,7.03023,7.12502,36.7731,-19.0925,6.55617e-14,-5.56597e-15,35.6576,-5.43316,15.7755,54.3302,-0.58558,22.4052,13.7631,7.12502,46.7688,36.5305,-56.2991,4.98107,27.5708,39.9936,-57.0173,-31.8897,47.7611,-11.6788,-3.41787,-24.4829,29.6924,1.72415,40.3993,36.6386
1.48325,16.6756,27.7685,32.2333,9.93255,0.827388,-16.1273,-5.32393,5.35391,-12.1328,-7.61235,4.93142,-4.03538,-4.01176,1.31995,-12.8256,-14.2332,-10.3976,22.0576,-19.2278,5.92082,10.7941,-9.10421,0.993636,9.22609e-14,5.56597e-15,-10.3877,-4.42732,-19.6764,28.1411,-4.4906,11.8897,6.97957,7.12502,36.9164,-19.1065,9.22609e-14,5.56597e-15,33.7592,-7.36373,10.8122,55.8878,4.22746,18.3287,13.8832,7.12502,42.9751,38.1379,-56.4644,5.37128,26.7066,40.0742,-57.5405,-31.67,48.0997,-11.7878,-3.27263,-25.129,29.6997,2.71963,40.4742,35.8841
1.4917,16.6804,27.7669,32.015,10.214,0.624451,-15.9696,-5.31365,5.73339,-12.0876,-7.63118,4.96507,-4.11954,-4.0429,1.16456,-13.4812,-13.8556,-10.1381,22.7965,-18.6921,5.66468,11.0871,-8.83116,0.899628,1.83876e-15,-1.27222e-14,-10.3621,-4.55468,-19.6314,27.9426,-4.3571,11.9211,6.91177,7.12502,36.9461,-19.1666,1.83876e-15,-1.27222e-14,35.4117,-5.07876,14.5668,54.6492,0.414019,21.4514,14.0218,7.12502,45.8847,37.1641,-56.2215,4.6229,27.4191,40.0807,-56.6575,-31.8346,47.6485,-11.6642,-3.22675,-24.8055,29.7677,2.57214,40.5405,36.2985
1.48209,16.6781,27.7696,32.1208,9.82586,0.956104,-16.0588,-5.30842,5.13947,-12.1025,-7.56467,4.85044,-4.0165,-3.97678,1.3591,-14.2297,-13.4291,-9.68835,23.636,-18.0874,5.24281,11.3987,-8.52765,0.7278,3.9906e-14,0,-10.5018,-4.59733,-19.6292,27.953,-4.32977,11.8198,6.86618,7.12502,36.8502,-19.2369,3.9906e-14,0,35.4465,-5.72249,13.5137,53.8404,1.44949,20.2759,13.3287,7.12502,44.792,36.9098,-56.3393,5.4322,26.5089,40.1101,-57.5213,-31.8582,48.0577,-11.7987,-3.19446,-25.2753,29.8354,2.97028,40.6256,35.905
1.48419,16.6803,27.768,31.9634,9.9731,0.751819,-15.6873,-5.24052,5.48998,-12.6663,-7.45227,4.78641,-4.89628,-3.962,1.21293,-13.2478,-12.8602,-9.67747,24.3068,-17.3832,5.01802,11.3829,-8.2629,0.823361,-2.21459e-14,-1.59028e-14,-11.2045,-3.51922,-19.4663,28.0928,-4.38132,11.9893,6.82182,7.12502,37.0106,-19.2399,-2.21459e-14,-1.59028e-14,34.9974,-6.54522,13.9759,55.0604,1.05014,21.1576,14.0764,7.12502,45.6119,37.3308,-56.1437,5.21782,26.907,40.0454,-57.3021,-31.801,48.0221,-11.7682,-3.25795,-25.0191,29.9993,3.85115,40.5442,34.8795
1.48717,16.683,27.768,31.7992,10.2408,0.424856,-15.9583,-5.24024,5.80549,-11.9537,-7.54903,4.9465,-3.98831,-4.00171,1.10415,-15.7178,-12.5145,-8.97628,25.0266,-16.8089,4.72498,11.9887,-7.87801,0.543505,-3.73467e-14,5.24792e-14,-10.4366,-5.37654,-19.5582,27.602,-3.70891,12.2172,7.18036,7.12502,37.2261,-18.8253,-3.73467e-14,5.24792e-14,35.2098,-5.61881,13.4677,54.8014,1.5385,20.5317,13.7759,7.12502,45.0301,37.2636,-55.9484,4.87977,27.537,39.9954,-56.9141,-31.7512,47.9302,-11.7271,-3.34111,-24.583,30.126,2.53784,40.7319,36.3434
1.48796,16.6823,27.7682,31.7435,10.1799,0.473766,-15.9758,-5.17662,5.73359,-11.9906,-7.45494,4.90027,-4.01355,-3.95194,1.10599,-16.1747,-12.0328,-8.7691,25.7106,-16.1229,4.47731,12.2486,-7.55741,0.505149,-4.83047e-14,1.82882e-14,-10.5946,-5.37009,-19.383,27.4909,-3.65751,12.2603,7.29198,7.12502,37.2669,-18.703,-4.83047e-14,1.82882e-14,34.6873,-6.24462,12.8076,55.1188,2.31039,19.6659,13.6298,7.12502,44.2237,37.4287,-55.8619,4.78902,27.5319,39.9621,-56.8388,-31.6929,47.9095,-11.718,-3.43483,-24.6688,30.2454,1.4311,40.9506,37.3564
1.4887,16.6821,27.7698,31.6234,10.2047,0.420602,-15.573,-5.02944,5.86808,-12.7697,-7.19154,4.81607,-5.11709,-3.85588,1.09094,-14.579,-11.4754,-9.14193,26.3428,-15.4047,4.38878,12.1556,-7.32999,0.739612,5.51472e-14,1.98785e-14,-11.6606,-3.6294,-18.8568,27.7705,-4.14099,12.4474,7.11244,7.12502,37.4437,-18.836,5.51472e-14,1.98785e-14,34.4915,-7.78077,13.1741,55.2028,2.36887,19.6955,13.6209,7.12502,44.2513,37.4094,-55.7261,4.63784,27.6988,39.9462,-56.4911,-32.0211,47.5484,-11.6242,-3.44657,-24.6118,30.3228,-0.0261046,41.1253,38.5638
1.4901,16.6823,27.7734,31.5838,10.2248,0.397091,-15.6382,-5.02588,5.87335,-12.7017,-7.19571,4.84523,-5.00371,-3.85438,1.10476,-15.4112,-11.0053,-8.7243,27.2137,-14.7161,3.99203,12.5396,-6.9959,0.589521,-3.74204e-14,-2.38542e-14,-11.5438,-3.84435,-18.8131,27.6975,-4.0234,12.5728,6.8244,7.12502,37.5622,-19.0926,-3.74204e-14,-2.38542e-14,35.0621,-7.22012,13.956,54.8097,1.79212,20.3741,13.8165,7.12502,44.8834,37.3618,-55.6864,4.59132,27.7552,39.9802,-56.2773,-32.2812,47.2351,-11.597,-3.46673,-24.5618,30.3194,-0.710008,41.3226,39.3954
1.49257,16.6842,27.7774,31.5265,10.2534,0.421541,-16.0718,-5.16633,5.79838,-11.8352,-7.46508,4.88341,-3.80357,-3.95545,1.02822,-18.2589,-10.4592,-7.43167,28.0842,-13.952,3.42116,13.2508,-6.50348,0.147403,7.06679e-14,7.95139e-15,-10.5046,-5.6481,-19.312,27.4117,-3.62022,12.6716,6.70254,7.12502,37.6556,-19.1896,7.06679e-14,7.95139e-15,35.1792,-5.56507,13.7349,54.6381,1.66755,20.465,13.8057,7.12502,44.968,37.3178,-55.6266,4.43129,27.8119,40.0509,-56.273,-32.0153,47.4015,-11.5231,-3.5954,-24.5581,30.2496,-0.446514,41.6113,39.3017
1.493,16.6821,27.7799,31.4367,10.1759,0.534114,-16.0735,-5.10771,5.65501,-11.8865,-7.36659,4.84216,-3.84178,-3.89938,1.07689,-18.4221,-9.9285,-7.29788,28.6758,-13.1911,3.22256,13.4552,-6.17135,0.173701,7.89175e-14,-4.92986e-14,-10.8382,-5.01633,-19.0409,27.6464,-4.11175,12.663,6.45953,7.12502,37.6475,-19.4347,7.89175e-14,-4.92986e-14,35.2896,-5.70515,14.0059,54.5277,1.4955,20.5308,13.8419,7.12502,45.0293,37.33,-55.53,4.31481,27.7567,40.1114,-56.1194,-31.9505,47.4477,-11.3916,-3.58674,-24.698,30.2037,0.969191,41.6645,38.3261
1.49417,16.6774,27.7804,31.3702,9.90944,0.870411,-15.9861,-5.0312,5.22866,-11.9948,-7.20344,4.70034,-3.96203,-3.79938,1.19307,-18.5832,-9.45481,-7.08174,29.3235,-12.5115,2.93362,13.679,-5.87934,0.13659,-5.1038e-14,2.70347e-14,-11.2633,-4.63311,-18.7246,27.7854,-4.33107,12.6894,6.41286,7.12502,37.6724,-19.4748,-5.1038e-14,2.70347e-14,36.4308,-4.93062,15.9828,53.7911,-0.512373,22.1259,13.7207,7.12502,46.5101,36.5998,-55.529,4.26022,27.3575,40.3443,-56.1152,-31.6637,47.5124,-11.1197,-3.57946,-25.182,29.9702,2.01082,41.675,37.2171
1.49661,16.6789,27.7816,31.2348,9.95743,0.701059,-15.7096,-4.90707,5.5093,-12.2389,-7.03489,4.64993,-4.41943,-3.74201,1.05926,-18.7365,-8.95582,-6.77377,30.1091,-11.8314,2.63387,13.9602,-5.57923,0.0777912,6.15736e-14,-7.15625e-15,-11.7151,-4.19197,-18.5357,27.8407,-4.32977,12.7079,6.49072,7.12502,37.6899,-19.3922,6.15736e-14,-7.15625e-15,36.0677,-5.90925,15.2832,53.9543,0.187558,21.4847,13.4944,7.12502,45.9156,36.624,-55.4027,4.05308,27.7091,40.4025,-56.0107,-31.3896,47.5814,-10.9883,-3.59244,-25.0103,29.9187,2.9816,41.7959,36.2727
1.46711,16.6621,27.7888,31.9028,8.52774,1.93112,-15.8161,-4.78452,3.59047,-13.0692,-6.63712,4.22028,-5.08372,-3.44611,1.74375,-17.3864,-8.50613,-6.9874,30.5695,-11.2874,2.77374,13.8673,-5.38036,0.322432,-2.36057e-16,-4.77083e-15,-12.6165,-2.88536,-18.1844,27.9571,-4.49939,12.8453,6.58398,7.12502,37.8197,-19.2641,-2.36057e-16,-4.77083e-15,35.7442,-8.39027,13.4841,52.9398,2.1277,19.2956,12.3219,7.12502,43.8783,36.25,-56.2695,6.26175,24.8685,40.6562,-58.1973,-31.3218,48.4936,-11.4803,-3.34365,-26.792,29.6891,5.30539,41.9969,33.6525
1.49444,16.6754,27.7851,31.1856,9.84211,0.638125,-15.4021,-4.67161,5.69919,-12.5891,-6.70072,4.45256,-5.0134,-3.60574,0.847314,-18.6622,-8.07614,-6.43777,31.1443,-10.7126,2.58588,14.3059,-5.05678,0.202762,-4.00427e-14,2.3059e-14,-12.3851,-3.70438,-18.2783,27.7449,-4.32493,12.7806,6.81048,7.12502,37.7586,-19.054,-4.00427e-14,2.3059e-14,36.0281,-8.09229,12.7818,52.4796,2.63067,18.8596,12.0314,7.12502,43.4713,36.1087,-55.4389,3.82789,27.9814,40.562,-55.6579,-31.4338,47.3302,-10.9302,-3.45904,-24.9682,29.7661,6.56698,41.647,32.9503
1.46449,16.6588,27.7972,31.7134,8.67724,1.39928,-16.1558,-4.62911,4.11328,-12.4578,-6.53419,4.31395,-4.27853,-3.41448,1.48751,-19.6107,-7.57671,-5.92937,31.8183,-9.99421,2.20879,14.714,-4.713,0.0569389,9.66031e-14,-3.97569e-15,-12.2199,-4.13556,-18.2608,27.6229,-4.20363,12.5749,6.83292,7.12502,37.5643,-19.0835,9.66031e-14,-3.97569e-15,36.1059,-7.76357,12.8139,52.4421,2.53215,18.8028,12.0529,7.12502,43.4183,36.1494,-56.0821,6.13361,25.7004,40.7078,-57.7947,-31.2823,48.5519,-11.3306,-3.07153,-26.1242,29.6344,4.19969,41.8965,35.7114
1.47835,16.6699,27.7977,31.2616,9.34829,0.794138,-15.8979,-4.61183,5.08539,-12.2817,-6.60977,4.46663,-4.32473,-3.50606,1.12492,-20.5914,-7.00225,-5.13956,32.6438,-9.18058,1.55186,15.1758,-4.33676,-0.23375,-2.31242e-14,-1.11319e-14,-12.0789,-4.43632,-18.2401,27.5498,-4.02988,12.5883,6.70287,7.12502,37.5769,-19.2102,-2.31242e-14,-1.11319e-14,36.0031,-7.29004,13.3509,52.7822,1.96856,19.4064,12.2678,7.12502,43.9817,36.1575,-55.4585,4.91182,27.2031,40.538,-56.5952,-31.2171,48.0649,-11.0371,-3.149,-25.2505,29.8315,5.51665,41.6844,34.7693
1.46181,16.6622,27.8025,31.6929,8.4412,1.49427,-16.4343,-4.5825,3.82604,-12.2469,-6.46534,4.29174,-3.86666,-3.35705,1.58485,-21.0444,-6.44617,-4.48457,33.0073,-8.44557,1.15919,15.3532,-3.99023,-0.381402,-1.3331e-14,1.35174e-14,-12.0827,-4.67075,-18.1805,27.6098,-4.00423,12.7886,6.78955,7.12502,37.7662,-19.0729,-1.3331e-14,1.35174e-14,35.9507,-6.43309,14.4894,53.8898,0.800249,20.8784,13.0828,7.12502,45.3524,36.4422,-55.9787,6.22079,25.5559,40.6199,-57.6543,-31.3382,48.2687,-11.4169,-2.98916,-26.3061,29.7732,5.16252,42.0521,34.8066
1.47022,16.6664,27.8069,31.383,8.8877,0.939783,-16.4336,-4.48723,4.60427,-12.0585,-6.4383,4.40399,-3.74147,-3.38232,1.27007,-21.1796,-6.00323,-4.24632,33.1884,-7.85246,1.10542,15.4321,-3.7142,-0.333232,1.01908e-13,1.27222e-14,-12.1329,-5.00148,-18.0945,27.6625,-3.92142,12.8139,6.86596,7.12502,37.7901,-18.9901,1.01908e-13,1.27222e-14,36.0862,-7.17431,13.021,52.6826,2.24045,19.2853,12.2672,7.12502,43.8687,36.1989,-55.5832,5.59381,26.6394,40.5344,-56.8066,-31.584,47.8399,-11.201,-3.16623,-25.5704,29.8781,4.22637,42.1623,35.7525
1.47005,16.6619,27.8165,31.3582,8.70811,0.982836,-16.6993,-4.41077,4.47618,-11.902,-6.34721,4.34393,-3.42111,-3.32527,1.25174,-21.5862,-5.61436,-3.88819,33.5517,-7.31837,0.873004,15.6488,-3.46804,-0.403788,-4.33723e-14,1.59028e-14,-12.1965,-5.39483,-18.0174,27.689,-3.84286,13.0174,6.8817,7.12502,37.9823,-18.9223,-4.33723e-14,1.59028e-14,36.3002,-7.36847,12.3822,52.2693,2.87189,18.7285,12.1436,7.12502,43.3488,36.2651,-55.5655,5.72078,26.5131,40.5642,-56.7599,-31.7167,47.85,-11.119,-3.17381,-25.6973,29.8824,1.812,42.2642,37.9866
1.46646,16.6566,27.8247,31.3951,8.5044,0.984555,-16.9214,-4.3365,4.32601,-11.8492,-6.24686,4.33591,-3.22979,-3.26313,1.31425,-21.7032,-5.24986,-3.49977,33.7973,-6.78464,0.494535,15.7394,-3.24704,-0.529787,3.42282e-14,-2.8625e-14,-12.3308,-5.39917,-17.9147,27.8327,-4.0129,13.1481,6.8378,7.12502,38.1057,-18.9326,3.42282e-14,-2.8625e-14,36.4159,-7.35928,12.3142,52.2281,2.9543,18.8134,12.1987,7.12502,43.4281,36.2916,-55.5647,5.79958,26.5044,40.5057,-56.6854,-31.715,47.8414,-11.1805,-3.04602,-25.783,29.9914,0.285472,42.2205,39.357
1.46881,16.6576,27.8308,31.2998,8.56721,0.720908,-17.0139,-4.27734,4.61308,-11.759,-6.21547,4.39336,-3.11022,-3.25882,1.20823,-21.738,-4.84257,-3.07515,33.9345,-6.20931,0.143631,15.7635,-3.00253,-0.638328,5.40197e-14,1.43125e-14,-12.3382,-5.36762,-17.8989,27.9558,-4.1235,13.1182,6.64502,7.12502,38.0775,-19.1331,5.40197e-14,1.43125e-14,36.3373,-7.30647,12.1154,52.2395,2.95786,18.6134,12.2165,7.12502,43.2412,36.3766,-55.4238,5.49279,27.0515,40.4894,-56.3063,-31.6089,47.6516,-11.1389,-3.00459,-25.4961,30.0301,2.2583,42.204,37.6639
1.46955,16.6563,27.8358,31.2143,8.5728,0.530457,-17.2164,-4.20614,4.78253,-11.5431,-6.16887,4.40327,-2.78695,-3.23713,1.09977,-22.2041,-4.48888,-2.62952,34.225,-5.71756,-0.198083,15.9701,-2.78145,-0.780134,-4.84538e-14,1.51076e-14,-12.3024,-5.61711,-17.9173,27.99,-4.13704,13.0629,6.36594,7.12502,38.0252,-19.4264,-4.84538e-14,1.51076e-14,36.2693,-7.13364,11.8105,52.276,3.03466,18.4526,12.0543,7.12502,43.0909,36.268,-55.3069,5.34668,27.3775,40.4666,-56.1123,-31.409,47.7468,-11.091,-3.04053,-25.2964,30.0977,1.27846,42.2867,38.4326
1.4714,16.6556,27.8402,31.2058,8.51696,0.542739,-17.4502,-4.14288,4.78338,-11.3661,-6.11104,4.33764,-2.47891,-3.20334,1.00633,-22.591,-4.21534,-2.35291,34.5268,-5.32851,-0.418938,16.1844,-2.60884,-0.86061,9.66342e-14,-4.13472e-14,-12.3101,-6.06248,-17.8729,27.856,-4.02206,13.1156,6.42459,7.12502,38.075,-19.3542,9.66342e-14,-4.13472e-14,36.2886,-6.99637,11.5139,52.3312,3.14765,18.4992,12.1691,7.12502,43.1345,36.3674,-55.2846,5.22332,27.43,40.4621,-55.8883,-31.4961,47.6242,-11.1026,-3.2058,-25.3382,30.1533,1.05459,42.3335,38.47
1.47271,16.6549,27.8424,31.237,8.48079,0.576316,-17.6044,-4.0759,4.75275,-11.2998,-6.03177,4.27543,-2.32901,-3.16031,0.95188,-22.3879,-3.95203,-2.20163,34.5134,-4.97383,-0.47344,16.1185,-2.45174,-0.831736,1.04362e-13,-1.51076e-14,-12.5863,-6.26232,-17.7488,27.9433,-4.07884,13.191,6.62912,7.12502,38.1463,-19.1302,1.04362e-13,-1.51076e-14,36.4455,-7.06581,11.1849,52.257,3.41435,18.2543,12.2734,7.12502,42.9055,36.5526,-55.305,5.12941,27.4544,40.475,-55.7399,-31.4243,47.5263,-11.175,-3.33172,-25.383,30.1783,2.52376,42.3328,37.0815
1.47457,16.6494,27.8422,31.2881,8.41203,0.581278,-17.8128,-4.01362,4.74288,-11.1595,-5.96996,4.23098,-2.07131,-3.12419,0.893279,-22.3789,-3.67003,-2.06884,34.5428,-4.6014,-0.469587,16.1232,-2.27825,-0.777485,-6.18966e-14,-3.33958e-14,-12.6316,-6.44551,-17.7132,28.0237,-4.1089,13.1827,6.59031,7.12502,38.1384,-19.1711,-6.18966e-14,-3.33958e-14,36.5163,-7.0061,10.7416,52.3022,3.85357,18.1108,12.4665,7.12502,42.7713,36.7928,-55.3596,5.07865,27.4722,40.4689,-55.6021,-31.3457,47.4308,-11.2402,-3.41672,-25.4333,30.2181,-0.737604,42.4465,39.8314
1.47696,16.6471,27.8457,31.2608,8.467,0.521868,-18.0129,-3.98567,4.82641,-10.9286,-5.97149,4.21988,-1.72736,-3.12069,0.804354,-22.6816,-3.41745,-1.91888,34.5891,-4.28014,-0.448167,16.2109,-2.11803,-0.736433,-3.37188e-14,1.27222e-14,-12.506,-6.86724,-17.7326,27.9765,-3.97934,13.0609,6.5812,7.12502,38.0234,-19.2117,-3.37188e-14,1.27222e-14,36.5438,-6.68174,10.5106,52.322,3.92105,18.085,12.4915,7.12502,42.7472,36.8262,-55.3193,4.87506,27.6652,40.431,-55.2115,-31.5486,47.2431,-11.244,-3.40679,-25.3418,30.2877,-1.38935,42.4922,40.4903
1.48197,16.6506,27.8505,31.1994,8.66283,0.287755,-18.1777,-3.93831,5.16205,-10.7202,-5.98155,4.25464,-1.45068,-3.13199,0.629573,-23.0215,-3.19001,-1.75845,34.6909,-3.98209,-0.48152,16.3341,-1.97411,-0.726674,-5.06404e-14,-7.95139e-15,-12.4356,-7.23474,-17.7209,27.8861,-3.95588,13.026,6.51916,7.12502,37.9904,-19.2827,-5.06404e-14,-7.95139e-15,36.5701,-6.36958,10.264,52.2697,4.07238,18.0125,12.5736,7.12502,42.6793,36.9319,-55.2151,4.48163,28.2062,40.3616,-54.5386,-31.9141,46.7333,-11.2792,-3.46712,-25.0146,30.3753,3.31786,42.3968,36.3581
1.48817,16.6505,27.8531,31.0843,8.76187,0.120849,-18.2637,-3.90358,5.40183,-10.4923,-5.99219,4.28786,-1.18272,-3.13826,0.510264,-23.39,-2.9892,-1.75903,34.8597,-3.69245,-0.424511,16.5071,-1.84177,-0.652327,-4.23908e-14,1.98785e-14,-12.3445,-7.72094,-17.7046,27.8884,-3.76431,13.1315,6.41563,7.12502,38.0901,-19.359,-4.23908e-14,1.98785e-14,36.61,-5.65712,10.7017,52.3079,3.37311,18.3888,12.4177,7.12502,43.0313,36.6526,-55.0308,4.01585,28.7021,40.2878,-53.9543,-31.7862,46.5551,-11.2103,-3.57669,-24.8107,30.4788,3.67943,42.2916,36.0342
1.48966,16.6495,27.857,31.0281,8.70784,0.0583034,-18.407,-3.86685,5.45286,-10.2864,-5.97576,4.27833,-0.891964,-3.12337,0.450423,-23.689,-2.83047,-1.77891,35.0318,-3.46205,-0.362239,16.6672,-1.73689,-0.581894,5.47155e-14,-2.14687e-14,-12.2432,-8.50686,-17.7076,27.7357,-3.11112,13.2599,6.8932,7.12502,38.2113,-18.8482,5.47155e-14,-2.14687e-14,36.806,-4.01768,12.8238,52.7755,0.775525,20.0745,12.463,7.12502,44.6045,36.1167,-54.9206,3.89883,28.8546,40.2342,-53.6885,-31.7511,46.5921,-11.1655,-3.64028,-24.7884,30.5661,4.18302,42.1328,35.4287
1.50204,16.6534,27.8583,30.872,8.99172,-0.222142,-18.4335,-3.79757,5.97571,-10.1144,-5.97681,4.28361,-0.751416,-3.13819,0.15829,-23.7037,-2.61185,-1.61214,35.0683,-3.1537,-0.479461,16.6801,-1.60498,-0.598354,8.19987e-15,1.98785e-14,-12.2756,-8.95389,-17.6636,27.6917,-2.71598,13.3732,7.12562,7.12502,38.3182,-18.5863,8.19987e-15,1.98785e-14,37.8634,-2.91004,14.1867,52.0247,-0.957549,21.1252,12.2865,7.12502,45.5818,35.5531,-54.7402,2.87105,29.7909,40.184,-52.5951,-31.6909,46.1606,-11.0547,-3.72331,-24.423,30.6456,5.01689,41.9677,34.6644
1.48788,16.6446,27.8664,31.0522,8.61101,-0.122358,-18.1674,-3.79054,5.55367,-10.5443,-5.85652,4.31884,-1.29886,-3.07881,0.492173,-23.0323,-2.32715,-1.37702,35.2737,-2.68664,-0.868911,16.6081,-1.44444,-0.705805,3.08116e-14,3.65764e-14,-12.5002,-8.4131,-17.496,27.7778,-2.55284,13.5595,7.05469,7.12502,38.494,-18.6084,3.08116e-14,3.65764e-14,38.2736,-2.61402,15.4845,51.3911,-2.3688,22.1716,12.0972,7.12502,46.5524,34.9582,-54.9025,4.16016,28.8971,40.1613,-54.1852,-31.2749,47.1162,-11.2747,-3.59109,-24.6397,30.6991,5.06127,41.9981,34.4993
1.48421,16.6398,27.873,31.1681,8.47506,-0.186013,-16.34,-3.84333,5.60283,-12.4279,-5.67336,4.50117,-4.29553,-3.06357,0.958991,-20.544,-2.02198,-1.50297,36.1618,-2.09643,-1.24722,16.4564,-1.28816,-0.707839,4.0813e-14,1.51076e-14,-13.3338,-5.35503,-16.9413,27.9379,-2.78979,13.8372,7.20315,7.12502,38.756,-18.3863,4.0813e-14,1.51076e-14,37.1195,-4.88576,16.1743,51.2845,-2.90517,22.6089,12.0704,7.12502,46.9572,34.7555,-55.013,4.95802,28.416,40.1043,-54.7162,-31.6199,47.1275,-11.4376,-3.47411,-24.6223,30.7765,6.05328,41.8591,33.462
1.48152,16.638,27.8831,31.2778,8.30445,-0.157931,-16.7293,-3.85912,5.42143,-12.0401,-5.72764,4.54752,-3.63788,-3.06355,1.03863,-21.5201,-1.79596,-1.34549,36.3696,-1.75369,-1.33665,16.7998,-1.13522,-0.72413,8.46885e-14,-2.54444e-14,-12.8292,-6.59297,-17.0271,27.6517,-2.28565,13.9841,7.41045,7.12502,38.8945,-18.1397,8.46885e-14,-2.54444e-14,36.1431,-5.23129,14.2239,51.9483,-1.04292,20.801,12.2858,7.12502,45.2805,35.674,-55.089,5.39833,28.0759,40.0501,-54.2254,-32.8657,46.0628,-11.5491,-3.40958,-24.7117,30.8402,7.12935,41.7161,32.3607
1.48267,16.6371,27.8956,31.3327,8.31921,-0.304955,-16.9471,-3.79663,5.57152,-11.9133,-5.68824,4.55836,-3.40004,-3.04648,0.947008,-21.8035,-1.65514,-1.19803,36.5284,-1.5618,-1.41135,16.9507,-1.04591,-0.750674,-5.01683e-14,8.74653e-15,-12.862,-6.8635,-16.9764,27.7195,-2.22777,14.068,7.58959,7.12502,38.9737,-17.938,-5.01683e-14,8.74653e-15,36.2628,-4.80186,14.417,51.7458,-1.26434,20.7831,12.2996,7.12502,45.2638,35.6945,-55.0633,5.17261,28.416,39.964,-53.2196,-33.7229,45.0226,-11.6425,-3.31303,-24.5457,30.9339,7.80873,41.5233,31.6615
1.49132,16.6361,27.9044,31.2425,8.54518,-0.574123,-16.9238,-3.73056,6.03282,-11.868,-5.65906,4.58313,-3.41213,-3.05669,0.725488,-21.8011,-1.57773,-1.27659,36.7138,-1.44265,-1.32863,17.0508,-0.995872,-0.678454,3.90736e-14,1.82882e-14,-12.9751,-6.94278,-16.9081,27.7321,-2.13116,14.0042,7.73152,7.12502,38.9135,-17.8132,3.90736e-14,1.82882e-14,36.2872,-4.54971,14.5304,51.6091,-1.37747,20.8822,12.295,7.12502,45.356,35.6529,-54.9133,4.30596,29.2714,39.972,-52.2892,-33.2845,44.9459,-11.5332,-3.26858,-24.1936,30.9105,7.88147,41.5398,31.9917
1.50043,16.6387,27.9114,31.139,8.71108,-0.754434,-16.81,-3.69243,6.4137,-11.8456,-5.64792,4.57685,-3.49124,-3.07448,0.521778,-21.8232,-1.45893,-1.28287,36.9598,-1.26522,-1.30741,17.1885,-0.921562,-0.635472,-2.965e-14,-3.18055e-15,-12.9991,-6.79405,-16.9445,27.828,-2.34223,13.8435,7.29742,7.12502,38.762,-18.2904,-2.965e-14,-3.18055e-15,36.3013,-4.37145,14.5039,51.5925,-1.42981,21.0948,12.4343,7.12502,45.5535,35.7125,-54.788,3.53631,29.9399,40.0221,-51.4964,-33.0939,44.4928,-11.3772,-3.22412,-23.9578,30.832,7.32602,41.7078,33.0155
1.46505,16.6232,27.9237,31.6072,7.51733,0.0913368,-17.1882,-3.71692,4.69114,-11.9703,-5.48843,4.40586,-3.2518,-2.89936,1.27679,-21.5885,-1.30965,-1.11825,37.0654,-1.01204,-1.54407,17.1839,-0.830893,-0.717878,2.96935e-15,-7.95139e-16,-13.0231,-6.70757,-16.8836,27.7388,-2.32835,13.8871,7.42078,7.12502,38.8031,-18.1554,2.96935e-15,-7.95139e-16,36.4145,-4.13506,14.837,51.3591,-1.7029,21.2076,12.3912,7.12502,45.6584,35.6266,-55.359,6.12861,27.4178,40.1689,-54.1051,-33.2422,45.7085,-11.7185,-2.927,-25.2019,30.682,6.43686,42.0591,33.9574
1.45374,16.6173,27.932,31.7785,7.10227,0.375616,-17.3156,-3.69516,4.10726,-12.0398,-5.38982,4.3163,-3.2089,-2.81922,1.51009,-21.2059,-1.28032,-1.18338,37.105,-0.95302,-1.5289,17.1105,-0.814055,-0.683699,-4.06266e-14,3.10104e-14,-13.0328,-7.69761,-16.7128,27.2407,-1.19935,14.0524,8.39829,7.12502,38.9589,-17.1335,-4.06266e-14,3.10104e-14,36.4044,-4.04451,14.9143,51.226,-1.86224,21.0248,11.9707,7.12502,45.4885,35.2752,-55.6188,6.8519,26.6466,40.2987,-54.8753,-33.2244,45.9908,-11.8069,-2.89036,-25.6228,30.5427,4.54568,42.4331,35.6537
1.45501,16.6176,27.9372,31.7389,7.12417,0.350691,-17.1839,-3.64825,4.19018,-12.0933,-5.32772,4.25913,-3.34955,-2.79657,1.42628,-20.4567,-1.43275,-1.62689,36.8869,-1.16636,-1.17707,16.8152,-0.912333,-0.479604,3.29796e-14,-3.18055e-15,-13.1585,-8.18187,-16.6061,27.0574,-0.632398,14.1702,8.72888,7.12502,39.07,-16.7711,3.29796e-14,-3.18055e-15,36.3372,-3.99593,14.8985,51.1957,-1.80665,21.1874,12.3039,7.12502,45.6396,35.547,-55.596,6.6413,26.819,40.4161,-54.9526,-32.7754,46.1141,-11.6901,-2.95211,-25.5795,30.4113,3.75405,42.5361,36.3854
1.456,16.6184,27.9396,31.7316,7.15743,0.314277,-17.0115,-3.61685,4.25259,-12.2361,-5.2755,4.26268,-3.60235,-2.77747,1.42501,-20.0701,-1.42581,-1.81233,36.9111,-1.16032,-1.00697,16.7357,-0.911448,-0.366273,1.32728e-14,9.54166e-15,-13.299,-8.17172,-16.4441,27.0014,-0.379575,14.4072,8.8435,7.12502,39.2934,-16.5919,1.32728e-14,9.54166e-15,36.408,-3.8623,15.3224,50.9844,-2.18404,21.3788,12.642,7.12502,45.8173,35.8122,-55.5817,6.42632,27.0051,40.4597,-54.9137,-32.563,46.1131,-11.6677,-2.97256,-25.5237,30.3831,4.17238,42.5321,36.0081
1.45438,16.6155,27.9418,31.7166,7.14377,0.270882,-16.8124,-3.59019,4.29446,-12.4024,-5.22434,4.25692,-3.89418,-2.75884,1.42847,-21.0576,-1.04919,-0.910603,38.0362,-0.576545,-1.85036,17.5789,-0.67139,-0.815771,-1.63873e-14,2.38542e-14,-13.4464,-8.07617,-16.2905,26.8678,-0.0207665,14.5784,9.35673,7.12502,39.4547,-16.0315,-1.63873e-14,2.38542e-14,36.3924,-3.97615,15.369,50.8973,-2.23079,21.5928,12.2209,7.12502,46.0159,35.3088,-55.5611,6.42243,27.0772,40.4867,-54.905,-32.5411,46.0528,-11.6402,-2.96536,-25.4768,30.3909,2.36483,42.6568,37.5878
1.45723,16.6165,27.9494,31.7044,7.16727,0.213122,-16.7254,-3.54012,4.4163,-12.4906,-5.16266,4.22976,-4.05193,-2.73868,1.35345,-21.1511,-0.835991,-0.501965,38.4777,-0.22369,-2.29707,17.8517,-0.535715,-1.03087,5.33613e-15,-4.29375e-14,-13.7229,-7.22149,-16.2649,27.1939,-0.802594,14.3748,8.73539,7.12502,39.2628,-16.7088,5.33613e-15,-4.29375e-14,36.2715,-4.233,15.0117,50.9522,-1.76376,21.3767,12.2867,7.12502,45.8154,35.4577,-55.5072,5.88797,27.5392,40.5249,-53.9981,-32.7212,45.5725,-11.5975,-3.02504,-25.4065,30.3859,0.918584,42.7733,38.8475
1.46057,16.6171,27.9612,31.7506,7.18457,0.224162,-16.9032,-3.51893,4.45497,-12.4451,-5.15291,4.20124,-3.91573,-2.73532,1.28773,-19.6397,-0.93352,-1.34493,37.6665,-0.404272,-1.47623,17.0222,-0.606218,-0.513767,-3.77691e-15,2.8625e-14,-13.8124,-6.79834,-16.3298,27.4538,-1.56045,14.1613,7.90255,7.12502,39.0616,-17.5998,-3.77691e-15,2.8625e-14,36.2592,-3.99399,15.0737,50.8928,-1.64224,21.5104,12.3786,7.12502,45.9395,35.4983,-55.5136,5.48951,27.7946,40.5732,-53.3541,-32.751,45.3397,-11.5885,-3.07706,-25.4106,30.3697,-0.686558,42.8219,40.2214
1.46564,16.6184,27.9729,31.7677,7.3112,0.154102,-17.1071,-3.48228,4.63251,-12.3046,-5.14654,4.19164,-3.67357,-2.73892,1.15744,-19.9089,-0.913253,-1.33861,37.8742,-0.363673,-1.48148,17.2025,-0.59044,-0.5142,5.50944e-14,1.43125e-14,-13.7246,-7.52356,-16.2748,27.1947,-1.17538,14.2399,8.11,7.12502,39.1357,-17.371,5.50944e-14,1.43125e-14,36.4062,-3.54617,15.2803,50.8231,-1.76988,21.6673,12.4234,7.12502,46.085,35.4825,-55.5099,4.97423,28.2059,40.6193,-52.6601,-33.0095,44.7651,-11.5447,-3.18027,-25.2849,30.341,-2.17299,42.7755,41.3421
1.46707,16.6209,27.9807,31.7328,7.39202,0.124248,-17.1832,-3.46897,4.71466,-12.1173,-5.15458,4.18485,-3.43613,-2.74305,1.08635,-20.2445,-0.843781,-1.25087,37.9751,-0.238292,-1.58265,17.3431,-0.54203,-0.554251,-2.36864e-14,-1.98785e-14,-13.6872,-7.66406,-16.2877,27.2896,-1.46738,14.2937,7.8082,7.12502,39.1864,-17.6582,-2.36864e-14,-1.98785e-14,36.5647,-3.08964,15.3219,50.6354,-1.77612,21.7939,12.4117,7.12502,46.2024,35.4215,-55.4367,4.49817,28.5852,40.6536,-51.9966,-33.1516,44.397,-11.4991,-3.23703,-25.2029,30.312,0.178459,42.8741,39.8041
1.46644,16.6219,27.9849,31.7109,7.34255,0.114115,-17.1939,-3.43237,4.671,-12.0108,-5.10737,4.18164,-3.3079,-2.71372,1.10514,-20.3592,-0.833521,-1.24529,38.0652,-0.18479,-1.6652,17.4224,-0.532061,-0.584118,-3.74523e-14,2.22639e-14,-13.7352,-7.57934,-16.2291,27.4176,-1.76575,14.1787,7.44706,7.12502,39.078,-18.0506,-3.74523e-14,2.22639e-14,36.7037,-2.71567,15.5341,50.432,-1.9284,21.9582,12.5678,7.12502,46.3547,35.5131,-55.3881,4.33709,28.7591,40.6719,-51.6411,-33.237,44.1209,-11.4676,-3.26437,-25.2113,30.2882,-0.0354969,42.9712,39.9927
1.46618,16.6232,27.9922,31.702,7.42956,0.0652734,-17.2021,-3.41486,4.74406,-12.0013,-5.09409,4.17433,-3.30116,-2.71105,1.05809,-20.2297,-0.829793,-1.24454,38.1653,-0.172822,-1.68477,17.4445,-0.530042,-0.591211,1.37596e-14,6.36111e-15,-13.8529,-7.6722,-16.1377,27.41,-1.67951,14.1943,7.40121,7.12502,39.0927,-18.0922,1.37596e-14,6.36111e-15,36.7564,-2.52817,15.735,50.2468,-2.14684,21.9649,12.3777,7.12502,46.3609,35.3204,-55.3616,4.20443,28.9154,40.6813,-51.5221,-33.2825,43.996,-11.4174,-3.35177,-25.1152,30.2728,-1.45765,42.9652,41.2567
1.47377,16.6239,28.0043,31.6853,7.73244,-0.162602,-17.3416,-3.34701,5.17205,-11.9442,-5.07102,4.19547,-3.20798,-2.72065,0.836286,-20.1157,-0.836557,-1.31916,38.1649,-0.176072,-1.6301,17.4154,-0.533409,-0.552556,-5.83557e-14,9.54166e-15,-13.9692,-7.94285,-15.9968,27.3846,-1.59512,14.293,7.25629,7.12502,39.1857,-18.2103,-5.83557e-14,9.54166e-15,36.8793,-2.24203,16.0292,50.0122,-2.21919,21.922,12.149,7.12502,46.3211,35.1086,-55.3185,3.48608,29.6266,40.6856,-50.7023,-33.3961,43.2904,-11.344,-3.43278,-24.7621,30.2572,-3.18892,42.8363,42.6586
1.4785,16.6239,28.0124,31.7698,7.85064,-0.203205,-17.5142,-3.35557,5.3121,-11.8841,-5.11662,4.20772,-3.0673,-2.74822,0.750777,-20.0346,-0.77146,-1.31282,38.1278,-0.0833826,-1.62056,17.3747,-0.492974,-0.529206,-3.23025e-16,1.51076e-14,-13.992,-7.51203,-16.0105,27.4986,-2.12356,13.9654,7.44847,7.12502,38.8769,-18.1067,-3.23025e-16,1.51076e-14,36.7988,-1.93756,16.1001,49.9216,-2.20947,21.8748,12.232,7.12502,46.2774,35.2102,-55.4143,2.90489,30.0254,40.6903,-50.1307,-33.3538,42.9708,-11.3889,-3.49897,-24.6794,30.2471,-3.29948,42.726,42.8322
1.47827,16.6225,28.0147,31.7602,7.77762,-0.15764,-17.3784,-3.3626,5.22468,-11.8495,-5.10728,4.19879,-3.09032,-2.7391,0.797425,-20.1411,-0.719584,-1.29013,38.211,-0.0138895,-1.60709,17.4479,-0.460062,-0.51487,1.80149e-15,-1.03368e-14,-13.9842,-7.40719,-15.9791,27.518,-2.37829,13.856,7.5862,7.12502,38.7737,-17.9983,1.80149e-15,-1.03368e-14,36.7193,-1.62772,16.2246,49.8579,-2.30634,21.9087,12.2028,7.12502,46.3088,35.1676,-55.4015,2.91239,29.9646,40.6951,-50.1647,-33.2751,43.1106,-11.3628,-3.51756,-24.7567,30.2486,-2.92003,42.7052,42.5517
1.47621,16.6235,28.0227,31.8131,7.8373,-0.219717,-17.3856,-3.37126,5.27567,-11.8521,-5.12567,4.23687,-3.09179,-2.74995,0.80684,-20.2289,-0.620163,-1.12373,38.3333,0.154041,-1.79288,17.5394,-0.395775,-0.597457,2.17669e-14,-4.45278e-14,-13.9113,-7.64784,-15.9227,27.4127,-2.12236,13.9704,7.67264,7.12502,38.8816,-17.8812,2.17669e-14,-4.45278e-14,36.5984,-1.38913,16.3059,49.7148,-2.43241,22.0356,12.0185,7.12502,46.4264,34.9334,-55.4463,2.97408,30.027,40.718,-50.1324,-33.4724,42.8481,-11.4027,-3.52212,-24.6558,30.2341,-2.54141,42.6966,42.1759
1.47647,16.6241,28.0294,31.8664,7.92662,-0.213092,-17.346,-3.35277,5.32681,-11.8381,-5.10546,4.21522,-3.10356,-2.74326,0.760702,-20.4675,-0.54613,-0.939268,38.5261,0.289294,-1.99829,17.7107,-0.345394,-0.701533,-4.65902e-15,2.54444e-14,-13.9155,-8.3145,-15.8344,27.2687,-1.66939,13.9993,7.94257,7.12502,38.9088,-17.6035,-4.65902e-15,2.54444e-14,36.4518,-1.4894,15.9124,49.7825,-2.03172,21.8419,11.9833,7.12502,46.2469,34.9743,-55.4889,2.75889,30.1563,40.7595,-49.9102,-33.4632,42.6547,-11.4058,-3.57018,-24.6121,30.1839,-1.35373,42.6466,41.5115
1.47594,16.6246,28.0335,31.9127,7.91472,-0.0576092,-17.1167,-3.38911,5.17419,-11.8866,-5.11443,4.17959,-3.26302,-2.7438,0.824492,-20.709,-0.495719,-0.881157,38.7343,0.376991,-2.05576,17.8926,-0.31179,-0.725632,-2.15309e-14,8.74653e-15,-13.8497,-9.0524,-15.7306,26.9778,-0.898785,14.1368,8.60727,7.12502,39.0385,-16.9017,-2.15309e-14,8.74653e-15,36.0739,-1.81961,15.1548,50.1473,-1.30032,21.4886,12.1527,7.12502,45.9192,35.2808,-55.5468,2.70358,29.99,40.8144,-49.7371,-33.6911,42.3794,-11.3657,-3.71221,-24.773,30.1087,-2.83151,42.6562,42.6
1.46495,16.6192,28.0405,31.9766,7.70537,0.173914,-17.0492,-3.47574,4.71069,-11.81,-5.17082,4.1582,-3.16829,-2.7448,1.04722,-21.0213,-0.423327,-0.768427,38.8382,0.474014,-2.11206,18.0353,-0.2661,-0.755633,-4.25648e-14,1.66979e-14,-13.7074,-9.83124,-15.6957,26.8043,-0.125046,14.5134,9.18658,7.12502,39.3934,-16.2196,-4.25648e-14,1.66979e-14,35.8512,-1.55736,14.9354,50.2829,-1.15549,21.5526,12.2937,7.12502,45.9786,35.3971,-55.6149,3.29609,29.374,40.8754,-50.398,-33.7338,42.7557,-11.3249,-3.8443,-25.0706,30.0226,-5.03688,42.5861,44.0045
1.45416,16.615,28.0484,32.0624,7.55064,0.243417,-17.1201,-3.4904,4.43589,-11.7525,-5.16337,4.16223,-3.03974,-2.72316,1.19388,-21.1406,-0.377112,-0.708087,38.9518,0.535643,-2.13711,18.133,-0.236942,-0.767924,-1.62755e-14,7.95139e-16,-13.688,-9.66895,-15.7053,27.0166,-0.436082,14.7823,8.36339,7.12502,39.6467,-16.9683,-1.62755e-14,7.95139e-16,35.7765,-1.23835,15.0705,50.2254,-1.35178,21.5921,12.3905,7.12502,46.0153,35.4787,-55.6812,3.90916,28.9581,40.8934,-51.0269,-33.7573,43.1699,-11.3596,-3.82373,-25.1751,29.9842,-7.56842,42.3357,45.4833
1.45057,16.6126,28.0586,32.1255,7.52651,0.214002,-17.1603,-3.46283,4.3718,-11.8057,-5.11777,4.18366,-3.06872,-2.69624,1.25828,-20.9106,-0.436983,-0.846695,39.0623,0.447379,-2.01896,18.1339,-0.275276,-0.707076,6.53505e-15,5.56597e-15,-13.7874,-9.00575,-15.6474,27.1707,-1.14218,14.5937,7.77098,7.12502,39.4691,-17.6131,6.53505e-15,5.56597e-15,35.604,-1.30876,14.9739,50.3751,-1.06242,21.4317,12.4633,7.12502,45.8664,35.6133,-55.7118,3.87949,29.0343,40.8883,-50.9763,-33.7502,42.9385,-11.385,-3.83923,-25.1443,29.9691,-8.24186,42.1143,46.0103
1.45039,16.6139,28.0688,32.1524,7.69678,0.0534734,-17.3429,-3.44748,4.57538,-11.7586,-5.13738,4.22999,-2.9394,-2.71341,1.17726,-20.6461,-0.494232,-1.05321,39.0167,0.361864,-1.83838,18.036,-0.312869,-0.6014,3.63279e-14,-2.78299e-14,-13.889,-8.80263,-15.581,27.2023,-1.34728,14.4076,7.90222,7.12502,39.2938,-17.533,3.63279e-14,-2.78299e-14,35.4096,-1.25335,14.6919,50.6203,-0.720304,21.3015,12.8114,7.12502,45.7455,36.0112,-55.6584,3.5743,29.4559,40.858,-50.9491,-33.3965,42.9254,-11.424,-3.86313,-24.8848,29.9899,-6.03759,42.2271,44.661
1.44904,16.6127,28.0727,32.2134,7.76566,0.0816803,-17.4684,-3.47331,4.5249,-11.7377,-5.17345,4.26433,-2.8439,-2.72587,1.22592,-20.4233,-0.516297,-1.20408,38.9777,0.367785,-1.79626,17.9554,-0.326183,-0.551653,4.24405e-14,-1.43125e-14,-13.9118,-8.9134,-15.5012,27.2573,-1.36345,14.2472,7.5242,7.12502,39.1426,-17.9548,4.24405e-14,-1.43125e-14,35.5461,-0.819308,15.1631,50.3613,-1.40149,21.8362,12.9471,7.12502,46.2416,35.9404,-55.6806,3.59908,29.415,40.8315,-51.2519,-33.0937,43.2823,-11.4961,-3.87349,-24.8566,30.0152,-4.76213,42.342,43.9765
1.44528,16.6141,28.0761,32.3088,7.72657,0.18106,-17.5606,-3.48232,4.33835,-11.7452,-5.16553,4.23994,-2.78808,-2.71157,1.29766,-20.3032,-0.518467,-1.18306,38.9643,0.348755,-1.78666,17.9158,-0.328319,-0.553832,6.01821e-14,-3.97569e-15,-13.9531,-9.39971,-15.428,27.1883,-1.0592,14.3446,7.20624,7.12502,39.2344,-18.2462,6.01821e-14,-3.97569e-15,36.2537,0.0825291,16.5258,49.5547,-3.08833,22.9994,12.6324,7.12502,47.3183,35.1571,-55.7897,3.66106,29.2679,40.831,-51.366,-33.0704,43.648,-11.5834,-3.96995,-24.9422,30.0164,-4.96256,42.4006,44.0573
1.43244,16.6138,28.08,32.3812,7.61232,0.151296,-17.5013,-3.46594,4.13041,-11.8656,-5.10584,4.28121,-2.92616,-2.67075,1.4752,-20.1512,-0.530145,-1.17451,39.0777,0.342229,-1.82766,17.9408,-0.335793,-0.576587,3.69864e-14,-7.95139e-15,-14.1436,-9.33255,-15.2832,27.3411,-1.01027,14.3704,7.05992,7.12502,39.2587,-18.3855,3.69864e-14,-7.95139e-15,35.567,-0.78961,15.511,49.8869,-2.13809,22.0003,12.6514,7.12502,46.3937,35.5802,-55.8795,4.41061,28.8932,40.8196,-52.1191,-33.3196,44.0151,-11.681,-3.83576,-24.9143,30.0024,-3.77535,42.3647,43.3544
1.42358,16.6123,28.0838,32.4638,7.50349,0.312303,-17.3501,-3.51193,3.83331,-12.0814,-5.10722,4.27779,-3.21267,-2.65913,1.65862,-19.8321,-0.540895,-1.31483,39.2321,0.346066,-1.75638,17.9452,-0.345479,-0.518202,9.7479e-14,1.90833e-14,-14.3204,-8.69365,-15.1924,27.6118,-1.37826,14.3018,6.98474,7.12502,39.1941,-18.4794,9.7479e-14,1.90833e-14,35.2745,-0.969798,15.7108,50.0069,-2.41811,21.9416,13.1846,7.12502,46.3394,36.1364,-55.9515,4.7315,28.5215,40.8069,-52.3798,-33.4463,44.1423,-11.7325,-3.79987,-25.0996,29.9967,-3.62175,42.2319,43.2604
1.42691,16.6145,28.0853,32.4347,7.60386,0.324545,-17.2343,-3.51524,3.94423,-12.1309,-5.11643,4.24785,-3.34067,-2.673,1.57626,-19.7096,-0.547755,-1.36769,39.3871,0.334641,-1.70769,18.0017,-0.351781,-0.490127,1.48467e-14,-2.22639e-14,-14.473,-8.52735,-15.1418,27.8543,-1.55136,14.1815,7.03619,7.12502,39.0807,-18.4607,1.48467e-14,-2.22639e-14,34.7491,-1.69262,14.6745,50.406,-1.45785,21.4261,13.7176,7.12502,45.8612,36.8697,-55.9152,4.33096,28.7514,40.7615,-51.8667,-33.728,43.5681,-11.6982,-3.82355,-25.0886,30.0208,-2.22549,42.2436,42.2184
1.42879,16.6193,28.0887,32.4052,7.81112,0.17469,-17.2066,-3.49141,4.21997,-12.1281,-5.1179,4.25416,-3.37894,-2.68992,1.43344,-19.6023,-0.54067,-1.32578,39.473,0.341487,-1.74109,18.0229,-0.347578,-0.512371,-8.69683e-17,-1.03368e-14,-14.5695,-8.29867,-15.1204,27.8548,-1.69178,14.0347,6.96037,7.12502,38.9422,-18.5762,-8.69683e-17,-1.03368e-14,34.5221,-1.89588,14.3393,50.4769,-1.14574,21.1485,13.6819,7.12502,45.6035,36.9397,-55.8871,3.97002,29.1616,40.7378,-51.344,-34.1692,42.7929,-11.6989,-3.93205,-24.8528,30.024,0.307063,42.2528,40.0468
1.42779,16.6221,28.0903,32.4176,7.90689,0.211699,-17.1093,-3.49414,4.25114,-12.1928,-5.11568,4.20806,-3.50794,-2.69419,1.37925,-19.4805,-0.5723,-1.36507,39.5895,0.307528,-1.74264,18.0579,-0.367846,-0.514165,6.25426e-14,6.36111e-15,-14.5443,-8.15869,-15.0628,27.5772,-1.79167,14.0763,6.81179,7.12502,38.9815,-18.7136,6.25426e-14,6.36111e-15,34.3531,-2.20214,13.9653,50.4839,-0.967072,20.7917,13.5062,7.12502,45.2719,36.8979,-55.8747,3.91937,29.1357,40.7238,-51.347,-34.1679,42.782,-11.7221,-4.01929,-24.8388,30.0345,1.92944,42.2123,38.6664
1.42515,16.6233,28.095,32.4687,7.93693,0.337433,-16.9872,-3.48296,4.17359,-12.3622,-5.07469,4.1016,-3.76034,-2.67667,1.33487,-19.0943,-0.653231,-1.43862,39.6983,0.157363,-1.64131,18.0169,-0.423911,-0.483804,-6.6742e-14,7.95139e-16,-14.7193,-8.20684,-14.934,27.3641,-1.58284,14.2975,6.62025,7.12502,39.19,-18.8451,-6.6742e-14,7.95139e-16,34.3842,-2.46744,13.869,50.3508,-0.915086,20.805,13.3682,7.12502,45.2842,36.7549,-55.8827,3.66655,29.1509,40.7379,-51.3814,-33.6649,43.2114,-11.7337,-3.9969,-24.9428,30.0151,3.60906,42.07,37.3053
1.42248,16.6249,28.1011,32.4701,8.06312,0.32567,-16.9627,-3.49043,4.22401,-12.4788,-5.08229,4.08092,-3.90949,-2.68664,1.29415,-18.4376,-0.688092,-1.59899,39.5849,0.0745538,-1.47273,17.7775,-0.454536,-0.387775,4.03595e-14,-3.02153e-14,-14.9334,-7.88946,-14.7811,27.3237,-1.82494,14.2465,6.78489,7.12502,39.1419,-18.6943,4.03595e-14,-3.02153e-14,34.4271,-2.70451,13.7169,50.1862,-0.548482,20.9319,13.2773,7.12502,45.4022,36.6167,-55.8579,3.55443,29.2527,40.7528,-51.4641,-33.4729,43.3176,-11.6754,-4.0935,-24.8908,29.9755,3.82669,42.0098,36.8933
1.41784,16.6278,28.1067,32.4275,8.0495,0.444051,-16.9205,-3.51616,4.05313,-12.5183,-5.09081,4.02339,-3.96327,-2.68307,1.3316,-18.0529,-0.700683,-1.66393,39.5667,0.0293038,-1.37985,17.6658,-0.46798,-0.33971,-1.41774e-14,-7.15625e-15,-15.0399,-8.176,-14.65,27.1918,-1.48896,14.2511,7.26901,7.12502,39.1463,-18.209,-1.41774e-14,-7.15625e-15,34.3854,-3.12028,13.223,50.1341,0.110973,20.6458,13.474,7.12502,45.1362,36.9197,-55.8487,3.59132,29.0917,40.8168,-51.4284,-33.931,42.817,-11.5186,-4.1517,-25.0196,29.8532,3.6656,42.0988,36.9892
1.41278,16.6286,28.1118,32.4331,8.07086,0.50783,-16.9522,-3.53154,3.95327,-12.5203,-5.10037,3.99047,-3.94217,-2.68246,1.34828,-17.9239,-0.718364,-1.71693,39.574,-0.00565473,-1.32141,17.6361,-0.481305,-0.309541,-1.55355e-14,2.70347e-14,-15.1308,-8.42818,-14.5457,27.184,-1.30654,14.4273,7.31449,7.12502,39.3123,-18.1154,-1.55355e-14,2.70347e-14,34.4616,-2.9562,13.4134,50.1052,-0.0668618,21.0747,13.8961,7.12502,45.5349,37.1819,-55.8709,3.78069,28.9033,40.8448,-51.4826,-34.3425,42.5129,-11.4501,-4.15054,-25.0805,29.7525,2.55712,42.2779,38.0439
1.41179,16.624,28.1169,32.4769,8.13065,0.6866,-16.9868,-3.56009,3.82753,-12.5493,-5.12273,3.92502,-3.95006,-2.68842,1.34493,-17.854,-0.788933,-1.83945,39.6238,-0.0906955,-1.27125,17.6468,-0.527306,-0.281592,-3.6418e-14,3.18055e-14,-15.2201,-8.86764,-14.3953,27.1092,-0.806421,14.5638,7.27531,7.12502,39.4409,-18.117,-3.6418e-14,3.18055e-14,34.2715,-3.17446,13.1377,50.2348,0.367427,21.0083,14.0534,7.12502,45.4732,37.3641,-55.9047,3.59491,28.7814,40.9026,-52.3092,-32.9679,44.0472,-11.3432,-4.16875,-25.2382,29.6271,-1.18505,42.2647,41.2724
1.40852,16.6203,28.1177,32.4811,8.34741,0.444745,-17.0776,-3.51329,4.12556,-12.5077,-5.10349,3.96272,-3.88343,-2.69459,1.21483,-17.7708,-0.861779,-1.89897,39.5695,-0.191719,-1.25196,17.5949,-0.573656,-0.280848,9.516e-14,-1.90833e-14,-15.2664,-9.18728,-14.2815,27.0161,-0.615746,14.5943,7.4397,7.12502,39.4697,-17.9442,9.516e-14,-1.90833e-14,34.5133,-2.80588,13.6089,49.9552,-0.169926,21.3569,14.0573,7.12502,45.797,37.2359,-55.9075,3.54349,29.1574,40.9114,-53.7385,-30.8228,46.3393,-11.3162,-4.16479,-24.8935,29.5542,-3.91446,41.9981,43.2063
1.40406,16.6168,28.1165,32.5197,8.40618,0.326862,-17.4292,-3.47593,4.21475,-12.2172,-5.10089,3.96643,-3.38874,-2.6904,1.12652,-18.0671,-0.895246,-1.98639,39.4472,-0.258546,-1.11055,17.6038,-0.59242,-0.213806,2.03009e-14,2.3059e-14,-15.07,-10.0172,-14.3097,26.8894,-0.327022,14.5679,7.43157,7.12502,39.4448,-17.9596,2.03009e-14,2.3059e-14,34.7174,-2.37293,13.5276,49.7794,-0.207106,21.2017,14.093,7.12502,45.6528,37.3307,-55.9906,3.70823,29.2442,40.9382,-54.3758,-30.1676,47.099,-11.3166,-4.23202,-24.7604,29.4795,-8.62289,41.5793,45.866
1.4013,16.6181,28.1149,32.5231,8.39666,0.394675,-17.6725,-3.44808,4.11221,-11.8872,-5.08188,3.93396,-2.89209,-2.66693,1.1133,-18.5192,-0.946766,-2.16348,39.344,-0.306248,-0.978304,17.6654,-0.618247,-0.132354,4.78201e-14,2.14687e-14,-14.9191,-10.9367,-14.2524,26.8175,-0.0224729,14.6065,7.25487,7.12502,39.4812,-18.1256,4.78201e-14,2.14687e-14,34.9449,-1.72814,13.7433,49.5647,-0.494146,21.0477,13.8771,7.12502,45.5098,37.173,-55.9985,3.68757,29.1659,40.9106,-54.3338,-30.2322,47.1851,-11.325,-4.20331,-24.8361,29.5193,-11.5937,41.1088,47.4403
1.39754,16.6233,28.1107,32.4711,8.43304,0.419284,-17.5532,-3.46224,4.10341,-11.8465,-5.0947,3.91397,-2.90953,-2.67359,1.10083,-18.4888,-0.942346,-2.16697,39.3301,-0.289995,-0.998082,17.6496,-0.614884,-0.13723,3.83282e-14,-7.95139e-16,-14.9075,-10.8165,-14.2415,26.9064,-0.240981,14.6284,7.14794,7.12502,39.5018,-18.2265,3.83282e-14,-7.95139e-16,35.1156,-1.32715,14.1389,49.2671,-0.974379,21.2635,13.6913,7.12502,45.7102,36.9056,-55.9671,3.67,29.1364,40.8946,-54.2839,-30.4214,47.2456,-11.2942,-4.16475,-24.8506,29.5538,-13.6724,40.6768,48.3616
1.39711,16.6277,28.1087,32.4607,8.62983,0.318543,-17.4851,-3.46109,4.30999,-11.9107,-5.11242,3.92211,-3.03527,-2.69584,1.0025,-18.2187,-0.948061,-2.11165,39.2962,-0.298206,-1.07387,17.5597,-0.620123,-0.181507,6.86801e-14,-2.94201e-14,-15.0458,-9.99601,-14.2343,27.1183,-0.968477,14.5988,6.76446,7.12502,39.4739,-18.6182,6.86801e-14,-2.94201e-14,35.2388,-1.20043,14.4037,49.0291,-1.36239,21.4733,13.5521,7.12502,45.905,36.6861,-55.9605,3.3903,29.4445,40.8791,-54.1692,-30.3351,47.1962,-11.3212,-4.16456,-24.6824,29.5641,-11.4023,41.1812,47.3348
1.40154,16.6286,28.1094,32.405,8.87913,0.294763,-17.552,-3.46317,4.52277,-11.7312,-5.15633,3.89939,-2.82766,-2.72594,0.840005,-18.5157,-0.979727,-2.13127,39.2819,-0.312009,-1.10962,17.6296,-0.633769,-0.198864,-4.47266e-14,-2.38542e-15,-14.9997,-10.0774,-14.2224,27.1429,-1.17673,14.5097,6.70972,7.12502,39.3899,-18.6975,-4.47266e-14,-2.38542e-15,35.8779,-0.0529349,15.664,48.4292,-2.81934,22.3261,13.2988,7.12502,46.6955,36.098,-55.8779,2.76725,29.8312,40.8541,-53.9005,-29.9703,47.1659,-11.25,-4.16991,-24.598,29.5808,-9.27719,41.5348,46.1453
1.39879,16.6279,28.1094,32.3595,8.90954,0.442805,-17.3813,-3.48507,4.44575,-11.7557,-5.16301,3.8049,-2.94353,-2.73038,0.795494,-18.4595,-0.996993,-2.11803,39.2879,-0.343482,-1.11391,17.6183,-0.644971,-0.209167,-6.65929e-15,1.90833e-14,-14.9812,-10.7606,-14.1245,26.7941,-0.410732,14.5352,7.35214,7.12502,39.414,-18.048,-6.65929e-15,1.90833e-14,35.4804,-0.774111,14.5514,48.8298,-1.83246,21.7322,13.6588,7.12502,46.1452,36.6926,-55.7956,2.74873,29.6399,40.797,-53.9438,-30.0561,47.0306,-11.2031,-4.07217,-24.7619,29.655,-10.556,41.3383,46.8296
1.3959,16.6319,28.1114,32.2636,9.07636,0.31201,-16.964,-3.48326,4.69677,-12.0255,-5.15201,3.80515,-3.48181,-2.74967,0.706901,-17.9471,-0.960907,-2.13089,39.4107,-0.301835,-1.10977,17.5536,-0.630037,-0.194656,-2.97804e-14,-2.38542e-15,-14.9908,-10.4762,-13.9927,26.4827,-0.110906,14.6547,7.54784,7.12502,39.5265,-17.8193,-2.97804e-14,-2.38542e-15,35.7481,-0.767929,15.0789,48.4626,-2.53157,22.3318,13.8261,7.12502,46.7008,36.623,-55.6626,2.64932,29.8797,40.704,-53.6581,-30.4675,46.5336,-11.1984,-3.93831,-24.5786,29.7486,-8.38878,41.7511,45.6496
1.39673,16.6385,28.1121,32.1813,9.30347,0.10936,-16.7897,-3.49108,5.04497,-12.0924,-5.18981,3.86374,-3.67796,-2.79107,0.590705,-17.8135,-0.909444,-2.12876,39.5628,-0.194701,-1.18409,17.6044,-0.598556,-0.208879,-3.09731e-14,4.77083e-15,-15.0343,-9.89511,-13.9748,26.6244,-0.470859,14.6061,7.31158,7.12502,39.4808,-18.069,-3.09731e-14,4.77083e-15,35.3279,-1.11783,14.6228,48.6145,-2.10676,21.9466,13.8898,7.12502,46.344,36.8397,-55.5194,2.30915,30.357,40.5895,-53.3784,-30.4109,46.4952,-11.2252,-4.10953,-24.2991,29.86,-4.79288,42.2366,43.084
1.38914,16.6355,28.1099,32.1739,9.24447,0.124122,-16.752,-3.50604,4.96435,-12.0749,-5.19863,3.8623,-3.66994,-2.79056,0.633564,-17.8643,-0.879605,-2.12709,39.6768,-0.138158,-1.20231,17.6822,-0.579369,-0.208016,-2.36305e-14,-4.29375e-14,-15.1327,-9.48104,-13.9595,26.82,-0.824649,14.5889,7.30163,7.12502,39.4646,-18.0837,-2.36305e-14,-4.29375e-14,35.2772,-0.858534,14.8285,48.4634,-2.43543,22.0237,13.5984,7.12502,46.4155,36.5179,-55.4206,2.71581,30.1319,40.4732,-54.1208,-29.8456,47.1357,-11.2971,-4.06307,-24.335,29.9802,-3.50508,42.2705,42.0629
1.38129,16.629,28.1044,32.2201,9.13185,0.240163,-16.6916,-3.53896,4.78004,-12.1098,-5.21471,3.82963,-3.72384,-2.79033,0.704489,-17.876,-0.845419,-2.10267,39.7986,-0.0895923,-1.211,17.7544,-0.558699,-0.208274,3.14328e-15,-3.18055e-15,-15.0852,-9.5258,-13.9583,26.8039,-0.655686,14.63,7.33774,7.12502,39.5033,-18.0362,3.14328e-15,-3.18055e-15,35.5469,-0.241016,15.605,47.9788,-3.37784,22.4069,13.0715,7.12502,46.7704,35.8382,-55.3918,2.85253,29.9927,40.4079,-54.4567,-29.3371,47.5033,-11.3699,-4.04967,-24.4944,30.0339,-4.00243,42.253,42.2181
1.37916,16.627,28.103,32.2615,9.1531,0.261234,-16.8496,-3.5305,4.7675,-12.0009,-5.21806,3.80807,-3.52242,-2.78791,0.669586,-17.956,-0.863512,-2.15102,39.7488,-0.121034,-1.1508,17.7473,-0.569478,-0.177898,2.34814e-14,1.90833e-14,-15.004,-9.85836,-13.939,26.6768,-0.441301,14.4348,7.31465,7.12502,39.3194,-18.1131,2.34814e-14,1.90833e-14,35.9017,0.342102,16.2163,47.6238,-4.07903,22.7807,12.9813,7.12502,47.1161,35.5962,-55.4284,2.77058,30.0506,40.4025,-54.3023,-29.4484,47.4631,-11.4,-4.10071,-24.512,30.0111,-4.8927,42.2085,42.6795
1.37563,16.6251,28.1043,32.2802,9.19528,0.325216,-17.0916,-3.55131,4.70084,-11.824,-5.26211,3.77009,-3.19976,-2.80091,0.631347,-18.0091,-0.847364,-2.05985,39.6416,-0.116269,-1.18142,17.6994,-0.556794,-0.206394,-3.01035e-14,1.03368e-14,-14.9074,-10.3168,-13.9795,26.6281,-0.344059,14.3118,7.08351,7.12502,39.2035,-18.3779,-3.01035e-14,1.03368e-14,36.1293,0.814,16.5349,47.4076,-4.43218,23.0038,13.1963,7.12502,47.3224,35.7192,-55.5006,2.92003,29.8651,40.4648,-54.2144,-29.9915,47.1826,-11.3261,-4.08648,-24.556,29.9105,-7.6812,41.8612,44.631
1.36947,16.6247,28.105,32.2704,9.20105,0.289514,-17.2069,-3.56976,4.64823,-11.722,-5.29237,3.81083,-3.01915,-2.80785,0.683752,-18.0327,-0.809646,-2.01066,39.6656,-0.0483432,-1.24431,17.7189,-0.531121,-0.231027,-2.98177e-15,3.18055e-15,-14.6776,-10.9916,-13.9612,26.4667,0.122153,14.2644,7.06608,7.12502,39.1588,-18.4083,-2.98177e-15,3.18055e-15,36.3595,1.28048,17.0948,47.066,-4.97897,23.1368,13.12,7.12502,47.4452,35.5876,-55.5686,3.08931,29.8198,40.5275,-53.9645,-30.6642,46.601,-11.261,-4.09312,-24.5107,29.7985,-9.52737,41.6472,45.8209
1.35974,16.624,28.1028,32.3379,9.03981,0.478543,-17.3172,-3.59074,4.32945,-11.6436,-5.28979,3.7339,-2.85026,-2.78848,0.764642,-18.1541,-0.781903,-1.91893,39.7056,-0.0314747,-1.25384,17.773,-0.511956,-0.249544,-3.68249e-14,4.6118e-14,-14.5751,-11.6253,-13.9644,26.2498,0.576233,14.2901,7.23967,7.12502,39.183,-18.2277,-3.68249e-14,4.6118e-14,36.4749,1.40877,17.1424,46.9392,-5.04531,23.0234,13.1978,7.12502,47.3405,35.7126,-55.6914,3.59138,29.2972,40.6259,-54.5244,-30.7868,46.7784,-11.2263,-4.22153,-24.773,29.6562,-9.70299,41.6732,45.7453
1.35405,16.6236,28.1001,32.4047,8.99913,0.587805,-17.458,-3.62341,4.1765,-11.5451,-5.32609,3.70391,-2.6574,-2.79608,0.795469,-18.2495,-0.7442,-1.84767,39.6576,0.0131972,-1.27842,17.7702,-0.486271,-0.264633,4.43041e-14,-2.38542e-15,-14.5405,-11.5909,-14.0022,26.3359,0.327841,14.2162,7.12286,7.12502,39.1134,-18.3646,4.43041e-14,-2.38542e-15,35.8481,0.734762,15.7789,47.4897,-3.71589,22.1475,13.5495,7.12502,46.5301,36.4199,-55.7956,3.6881,29.1397,40.6741,-54.5146,-31.0138,46.8074,-11.2452,-4.18156,-24.9029,29.5833,-8.17082,41.8797,44.7211
1.35379,16.6248,28.0979,32.5087,9.02694,0.64597,-17.5864,-3.62194,4.17726,-11.5397,-5.3316,3.65941,-2.59002,-2.79945,0.738152,-18.2312,-0.716532,-1.7213,39.7051,0.0536763,-1.38733,17.7922,-0.466549,-0.329913,1.04635e-13,-1.11319e-14,-14.6094,-11.518,-14.0085,26.4362,0.0678488,14.1413,7.09848,7.12502,39.0427,-18.4093,1.04635e-13,-1.11319e-14,36.1867,0.974379,16.2174,46.9692,-4.28069,22.2673,13.3524,7.12502,46.6411,36.1751,-55.9557,3.36508,29.2656,40.714,-53.917,-31.2378,46.4471,-11.3432,-4.25499,-24.9736,29.5419,-7.4226,42.0452,44.1019
1.34945,16.6216,28.0939,32.5245,9.04557,0.597865,-17.6026,-3.62835,4.17483,-11.5068,-5.34243,3.70082,-2.54157,-2.80235,0.778078,-18.2528,-0.695211,-1.62367,39.7017,0.117027,-1.54556,17.7964,-0.449045,-0.407994,-1.6201e-14,3.18055e-15,-14.4214,-11.738,-13.9782,26.2396,0.225962,14.2189,7.25852,7.12502,39.1159,-18.2282,-1.6201e-14,3.18055e-15,36.2107,1.43857,16.7454,46.7397,-4.85816,22.5816,12.9835,7.12502,46.932,35.6796,-55.9402,3.49334,29.2673,40.6863,-54.1211,-30.8404,46.7574,-11.4074,-4.1601,-24.9285,29.5815,-8.7354,41.9627,44.7948
1.34397,16.6189,28.0876,32.4636,9.0791,0.581951,-17.4519,-3.64354,4.15976,-11.5214,-5.35105,3.72498,-2.63116,-2.8064,0.822106,-18.1701,-0.737689,-1.76875,39.7066,0.0497976,-1.41671,17.7775,-0.479577,-0.335474,3.17807e-14,1.98785e-14,-14.3107,-12.0294,-13.9285,26.0691,0.539962,14.1611,7.4539,7.12502,39.0614,-18.0485,3.17807e-14,1.98785e-14,34.0227,-0.261259,13.4679,49.0543,-1.41147,21.4616,13.6076,7.12502,45.8941,36.7461,-55.8233,3.81225,29.1092,40.6447,-54.739,-30.3149,47.419,-11.3999,-4.16442,-24.9015,29.6495,-9.17059,42.0254,44.9526
1.33457,16.6188,28.0823,32.4696,8.99284,0.584672,-17.3683,-3.64639,4.03888,-11.5556,-5.33264,3.72583,-2.69875,-2.79184,0.899882,-18.0577,-0.760312,-1.83596,39.7714,-0.00704313,-1.31339,17.7848,-0.498173,-0.287202,-3.86636e-14,-4.85035e-14,-14.32,-12.0711,-13.9356,26.0225,0.657469,14.1527,7.71054,7.12502,39.0535,-17.7942,-3.86636e-14,-4.85035e-14,34.8965,1.47745,15.8551,47.896,-4.09866,22.8541,12.5556,7.12502,47.1841,35.1403,-55.8128,4.3103,28.8338,40.596,-55.0987,-30.4395,47.551,-11.4693,-4.09816,-24.9283,29.7352,-6.3465,42.269,42.9617
1.32259,16.6158,28.0807,32.5619,8.83322,0.617361,-17.4802,-3.62286,3.85702,-11.5449,-5.2843,3.7067,-2.61218,-2.75709,0.97761,-18.0513,-0.728484,-1.74302,39.8462,0.0430496,-1.39597,17.8258,-0.476001,-0.332871,3.54085e-14,-1.35174e-14,-14.4508,-11.9019,-13.9176,26.2128,0.486758,14.206,7.81775,7.12502,39.1037,-17.6725,3.54085e-14,-1.35174e-14,34.8491,1.36723,15.6244,47.8962,-3.90834,22.6785,12.5486,7.12502,47.0217,35.2053,-55.8893,4.88492,28.4765,40.5182,-55.6015,-30.5806,47.6642,-11.6449,-3.89725,-25.0129,29.8518,-5.44803,42.2394,42.4779
1.3275,16.618,28.0786,32.5235,9.12806,0.537323,-17.5152,-3.5833,4.18871,-11.5364,-5.27742,3.65271,-2.62393,-2.77281,0.737368,-17.817,-0.744711,-1.71386,39.7906,-0.0126765,-1.36516,17.7316,-0.487711,-0.332549,8.13278e-14,1.59028e-15,-14.7684,-11.6064,-13.8483,26.5578,0.188819,14.2522,7.5853,7.12502,39.1473,-17.8924,8.13278e-14,1.59028e-15,34.7509,0.968054,15.1773,48.0235,-3.41712,22.4302,12.8677,7.12502,46.7919,35.6251,-55.832,4.18727,28.9849,40.4875,-54.9589,-30.556,47.4994,-11.6109,-3.87803,-24.8073,29.8969,-6.63238,42.0205,43.4842
1.35353,16.6306,28.07,32.1798,10.1263,-0.0846984,-17.1288,-3.48562,5.62434,-11.5497,-5.30932,3.70055,-2.98593,-2.87066,0.0283737,-17.7129,-0.830028,-1.8322,39.8339,-0.152361,-1.2443,17.7293,-0.544131,-0.282956,-4.99695e-14,-4.77083e-15,-15.038,-11.5825,-13.7435,26.7083,0.0946519,14.3356,7.22088,7.12502,39.2259,-18.2341,-4.99695e-14,-4.77083e-15,34.7452,0.784022,15.0905,48.0673,-3.26714,22.3995,12.9342,7.12502,46.7635,35.7039,-55.5317,1.48149,31.3504,40.4282,-51.726,-30.9945,45.615,-11.3552,-3.98863,-23.8157,29.9524,-5.88529,41.9719,43.2043
1.34165,16.6284,28.0627,32.2952,9.88927,0.173438,-17.0208,-3.47927,5.21256,-11.5457,-5.24101,3.6052,-2.99951,-2.81724,0.169157,-18.118,-0.876146,-1.8846,40.0296,-0.246396,-1.10893,17.9494,-0.572029,-0.234345,3.34455e-14,-2.62396e-14,-15.1458,-11.6188,-13.7392,26.7239,-0.0872833,14.1538,7.2569,7.12502,39.0545,-18.2475,3.34455e-14,-2.62396e-14,34.8336,0.915174,15.1209,48.1084,-3.27455,22.4214,13.0084,7.12502,46.7837,35.7693,-55.6509,2.29615,30.5697,40.4182,-52.472,-31.2932,45.8599,-11.4867,-3.84578,-24.1316,29.9836,-6.92135,41.8827,43.7432
1.33814,16.6336,28.0491,32.2895,9.88916,0.319726,-16.7906,-3.47978,5.13132,-11.554,-5.21556,3.51371,-3.12699,-2.80566,0.138045,-18.2313,-0.863707,-1.8486,40.0875,-0.270449,-1.02826,18.0126,-0.564335,-0.209201,5.04416e-15,1.03368e-14,-15.2728,-11.7304,-13.7431,26.7478,-0.0684627,14.0348,7.13753,7.12502,38.9424,-18.399,5.04416e-15,1.03368e-14,34.6771,0.64692,14.65,48.4078,-2.87873,22.1867,13.1537,7.12502,46.5665,36.0086,-55.6963,2.19062,30.4548,40.4002,-52.188,-31.6657,45.5257,-11.5647,-3.81957,-24.2539,30.0281,-5.45911,42.1262,42.6843
1.33469,16.6384,28.045,32.3644,9.90001,0.2882,-16.7701,-3.47978,5.15776,-11.6108,-5.21427,3.55631,-3.19874,-2.80699,0.173529,-18.1813,-0.791083,-1.75361,40.123,-0.128365,-1.18222,18.0193,-0.515016,-0.269359,-2.5519e-14,3.81667e-14,-15.2351,-11.5767,-13.7489,26.8688,-0.122503,14.0271,6.60053,7.12502,38.9351,-18.9381,-2.5519e-14,3.81667e-14,35.0596,1.21354,15.5149,47.809,-3.84552,22.6967,12.8163,7.12502,47.0385,35.4655,-55.8052,2.27171,30.4442,40.3988,-52.1221,-31.8778,45.3436,-11.737,-3.78923,-24.2208,30.0368,-3.13836,42.4742,41.1569
1.31863,16.6363,28.0466,32.6131,9.5121,0.515941,-16.9929,-3.42333,4.64435,-11.593,-5.09073,3.46835,-3.01492,-2.71563,0.360585,-18.3187,-0.795775,-1.62313,40.1461,-0.146787,-1.26185,18.0687,-0.51324,-0.334547,9.96408e-15,-1.74931e-14,-15.2346,-11.7744,-13.7353,26.7656,0.0112473,14.0876,6.36091,7.12502,38.9921,-19.1614,9.96408e-15,-1.74931e-14,34.9863,0.989669,15.1091,47.8756,-3.56658,22.2802,12.5171,7.12502,46.653,35.3346,-56.0497,3.52743,29.4177,40.3986,-53.4833,-31.8245,46.3008,-12.0439,-3.65475,-24.5917,30.0505,-1.33231,42.7116,39.8016
1.32978,16.6422,28.0343,32.48,9.77771,0.43392,-16.7629,-3.40111,5.01469,-11.5464,-5.09565,3.46416,-3.12126,-2.74003,0.166405,-18.3099,-0.795246,-1.66093,40.097,-0.150151,-1.2154,18.0379,-0.512811,-0.305897,-2.60408e-14,3.18055e-15,-15.1043,-11.9166,-13.6901,26.454,0.170397,13.989,6.92889,7.12502,38.8992,-18.62,-2.60408e-14,3.18055e-15,34.9184,0.861598,14.8934,47.9096,-3.38014,22.1192,12.4791,7.12502,46.5039,35.3608,-55.9434,2.56319,30.0717,40.3809,-52.6081,-31.4903,46.3513,-11.9837,-3.67634,-24.4556,30.0642,3.28302,42.6371,35.8444
1.33189,16.6429,28.0281,32.4581,9.79209,0.43799,-16.7167,-3.36337,5.08759,-11.5578,-5.05104,3.4424,-3.16575,-2.72316,0.113386,-18.1241,-0.799545,-1.73182,40.0368,-0.156262,-1.16234,17.9537,-0.517374,-0.267658,-1.54555e-14,1.90833e-14,-15.0763,-11.6701,-13.6429,26.3185,0.13733,13.9754,7.09612,7.12502,38.8863,-18.4564,-1.54555e-14,1.90833e-14,34.8234,0.605843,14.6401,47.9859,-3.12687,21.9419,12.6118,7.12502,46.3396,35.5636,-55.9422,2.57381,30.0419,40.3803,-52.6602,-31.4264,46.2713,-11.988,-3.55948,-24.4877,30.067,4.14626,42.5731,34.8457
1.32993,16.6424,28.0234,32.5217,9.72755,0.459878,-16.9624,-3.30114,5.0532,-11.3231,-4.99382,3.3897,-2.78018,-2.68424,0.0528229,-18.433,-0.847517,-1.74881,39.9651,-0.238597,-1.10425,17.9945,-0.543852,-0.255081,-3.70982e-14,-2.22639e-14,-15.0478,-11.9512,-13.7006,26.3447,0.154006,14.027,6.97464,7.12502,38.935,-18.564,-3.70982e-14,-2.22639e-14,34.9418,0.709934,14.2922,48.0537,-2.82847,21.8345,12.7866,7.12502,46.2401,35.7805,-56.0399,2.84667,29.8454,40.3829,-52.8107,-31.6747,45.9739,-12.0561,-3.41594,-24.562,30.0832,2.18992,42.7183,36.7158
1.32372,16.6415,28.0217,32.5958,9.64043,0.439629,-17.2924,-3.22992,4.95743,-10.9614,-4.92874,3.3843,-2.20267,-2.63114,0.0645802,-19.1107,-0.914291,-1.77106,39.8668,-0.332203,-1.05607,18.1184,-0.57696,-0.250742,2.80286e-14,-4.77083e-15,-14.9686,-12.7052,-13.7116,26.3317,0.432354,14.0746,7.02638,7.12502,38.9798,-18.4994,2.80286e-14,-4.77083e-15,35.15,0.947378,13.857,48.0861,-2.42064,21.7073,12.8554,7.12502,46.1221,35.8989,-56.1208,3.27099,29.6303,40.3752,-53.2027,-31.7192,46.3662,-12.1344,-3.22563,-24.5868,30.1294,0.219974,42.7645,38.5447
1.31748,16.6411,28.0201,32.6686,9.55847,0.513576,-17.4011,-3.23031,4.79157,-10.8571,-4.91954,3.39892,-2.01496,-2.61314,0.158888,-19.3186,-0.925545,-1.75055,39.8382,-0.323041,-1.12155,18.1572,-0.579485,-0.284184,4.24902e-14,-2.38542e-15,-14.8891,-12.7319,-13.6931,26.3625,0.375408,14.1659,7.2363,7.12502,39.066,-18.2648,4.24902e-14,-2.38542e-15,35.0742,0.917259,13.5618,48.1885,-2.19039,21.634,13.0416,7.12502,46.0541,36.1135,-56.2081,3.79673,29.2223,40.4126,-53.537,-32.0036,46.5087,-12.1758,-3.03998,-24.6868,30.1392,-1.76272,42.6118,40.0004
1.31995,16.6426,28.0108,32.6706,9.65984,0.43625,-17.231,-3.21324,4.96797,-10.9913,-4.90244,3.4657,-2.25976,-2.61699,0.153501,-19.0016,-0.933002,-1.8711,39.8453,-0.273841,-1.16982,18.078,-0.585118,-0.272975,-1.15792e-14,-1.51076e-14,-14.8925,-12.007,-13.5974,26.5369,0.0185253,14.3186,7.028,7.12502,39.2098,-18.4316,-1.15792e-14,-1.51076e-14,34.832,0.56019,13.3547,48.2555,-2.06966,21.6626,13.1055,7.12502,46.0807,36.1664,-56.2281,3.80293,29.2781,40.4296,-53.4174,-32.0084,46.2422,-12.2263,-2.8736,-24.5801,30.1702,-2.34769,42.4148,40.4244
1.32225,16.6421,28.0026,32.7265,9.54361,0.570667,-16.9508,-3.18628,4.88135,-11.3403,-4.81759,3.43732,-2.77757,-2.584,0.221702,-18.2295,-0.910647,-2.05739,39.8953,-0.224346,-1.0873,17.903,-0.580966,-0.186558,-2.85753e-14,2.46493e-14,-15.1125,-10.9226,-13.4633,26.7546,-0.375801,14.2615,6.61301,7.12502,39.1561,-18.8621,-2.85753e-14,2.46493e-14,34.4694,-0.293121,12.93,48.3881,-1.69383,21.3986,13.097,7.12502,45.8357,36.2597,-56.3297,3.89918,29.0195,40.4735,-53.4587,-32.0721,46.2333,-12.2836,-2.7778,-24.7965,30.1563,-3.02667,42.4079,41.0114
1.32043,16.64,27.9953,32.7327,9.4309,0.637005,-16.681,-3.19014,4.79736,-11.5513,-4.78368,3.43938,-3.13936,-2.57089,0.304568,-17.8058,-0.823207,-1.99045,39.9306,-0.0824689,-1.194,17.8105,-0.528541,-0.217398,-6.1002e-14,1.66979e-14,-14.9934,-10.8508,-13.4301,26.5525,0.00115785,14.2583,6.61203,7.12502,39.153,-18.864,-6.1002e-14,1.66979e-14,34.228,-0.747324,12.6371,48.3991,-1.48272,21.1707,13.1293,7.12502,45.6241,36.3788,-56.3338,4.1127,28.8095,40.4794,-53.8927,-31.6257,46.7079,-12.323,-2.61608,-24.9367,30.1596,-4.60879,42.4598,42.2984
1.31908,16.6412,27.9867,32.7007,9.32726,0.625219,-16.4974,-3.1607,4.79679,-11.634,-4.72904,3.44036,-3.32372,-2.54726,0.329759,-17.5763,-0.796367,-2.00138,39.9275,-0.0408207,-1.20181,17.748,-0.513991,-0.209394,-8.3738e-15,-1.66979e-14,-14.8224,-11.0889,-13.4109,26.32,0.439017,14.346,6.62556,7.12502,39.2357,-18.8265,-8.3738e-15,-1.66979e-14,34.3272,-0.597269,12.9331,48.0293,-2.14454,21.5372,12.8828,7.12502,45.9643,35.9922,-56.2895,4.52533,28.56,40.441,-54.4298,-31.3789,47.1169,-12.3559,-2.54851,-25.0045,30.1959,-4.82613,42.5289,42.3624
1.3252,16.6485,27.9813,32.7007,9.36225,0.590348,-16.4203,-3.11263,4.95235,-11.7352,-4.67374,3.42912,-3.48958,-2.53249,0.250685,-17.1913,-0.808205,-1.99226,39.8566,-0.0457542,-1.27346,17.6066,-0.523143,-0.241922,-4.00054e-15,-2.78299e-14,-14.7683,-11.3216,-13.3287,26.1692,0.956125,14.4812,6.52548,7.12502,39.3631,-18.8896,-4.00054e-15,-2.78299e-14,34.4864,-0.559064,13.2159,47.6772,-2.71526,21.7931,12.7381,7.12502,46.2017,35.7482,-56.2725,4.45279,28.5949,40.3494,-54.1631,-31.7415,46.8713,-12.4405,-2.60539,-24.992,30.3024,-3.48012,42.6463,41.2104
1.3318,16.6535,27.9766,32.645,9.5319,0.315543,-16.3892,-3.0662,5.40478,-11.6693,-4.66856,3.48861,-3.47201,-2.55307,0.064293,-17.1404,-0.788447,-1.92954,39.7019,-0.0144371,-1.33945,17.5054,-0.509068,-0.27524,8.77883e-14,-1.59028e-15,-14.5527,-11.7176,-13.393,25.9978,1.37581,14.4119,6.67947,7.12502,39.2978,-18.7546,8.77883e-14,-1.59028e-15,33.9314,-1.19304,12.0428,48.2305,-1.68353,21.2296,13.0703,7.12502,45.6788,36.2974,-56.2005,4.20576,29.0791,40.2425,-53.63,-32.0669,46.4987,-12.5038,-2.55624,-24.6747,30.4085,-3.15575,42.7378,40.7398
1.33795,16.6547,27.9686,32.6542,9.61381,0.208751,-16.3671,-3.04648,5.617,-11.5361,-4.67436,3.54541,-3.35305,-2.5622,0.000564887,-17.4533,-0.7745,-1.91639,39.6881,0.0326277,-1.38586,17.5796,-0.495259,-0.291339,2.78547e-14,-7.95139e-16,-14.3342,-12.1008,-13.3618,25.9094,1.51946,14.3972,7.0484,7.12502,39.2839,-18.3897,2.78547e-14,-7.95139e-16,34.4285,-0.159708,13.0265,47.6008,-2.83309,21.705,12.8257,7.12502,46.1199,35.8702,-56.1815,4.22461,29.1719,40.1627,-53.7812,-31.834,46.7305,-12.6137,-2.38422,-24.5451,30.4829,-2.50324,42.8803,40.2326
1.34376,16.6542,27.9601,32.7694,9.42814,0.471811,-16.4224,-3.04104,5.3847,-11.3839,-4.65283,3.472,-3.1395,-2.53513,0.0405284,-17.8981,-0.734893,-1.83778,39.7548,0.109616,-1.45291,17.7343,-0.463111,-0.32439,2.83765e-14,-3.33958e-14,-14.2104,-12.3897,-13.3426,25.9155,1.47736,14.4165,7.51461,7.12502,39.3021,-17.9182,2.83765e-14,-3.33958e-14,34.9563,0.863845,13.8361,47.0838,-3.975,22.2643,12.5048,7.12502,46.6383,35.3287,-56.2702,4.56166,28.5172,40.093,-54.4798,-31.2095,47.4864,-12.7678,-2.22635,-24.9076,30.5685,-0.837961,42.7671,38.8458
1.34636,16.6531,27.9548,32.8725,9.28656,0.633328,-16.5943,-3.03828,5.21454,-11.1504,-4.6542,3.4391,-2.78057,-2.51825,0.0743507,-18.439,-0.720147,-1.78053,39.7629,0.131881,-1.46093,17.8815,-0.447828,-0.337081,1.21259e-14,-7.95139e-15,-13.9671,-12.4878,-13.421,25.9501,1.11443,14.3152,7.60816,7.12502,39.2067,-17.8524,1.21259e-14,-7.95139e-15,35.3836,1.33692,13.7084,46.8038,-4.02091,22.3727,12.7779,7.12502,46.7387,35.5584,-56.4017,5.43405,27.6066,40.0444,-55.793,-30.7409,48.3176,-12.884,-2.04336,-25.1332,30.6175,-0.553336,42.6209,38.9657
1.34895,16.6517,27.9475,32.8291,9.32264,0.506322,-16.5217,-3.02584,5.34454,-11.0764,-4.65325,3.55425,-2.73983,-2.51893,0.124217,-18.5444,-0.768309,-1.98558,39.7258,0.0876328,-1.33764,17.8888,-0.479268,-0.252286,-6.25178e-14,4.92986e-14,-13.7566,-12.1222,-13.4084,26.0653,0.610901,14.2412,7.07947,7.12502,39.1369,-18.4012,-6.25178e-14,4.92986e-14,35.1668,1.22063,13.3332,46.9344,-3.61664,22.0667,13.2606,7.12502,46.4553,36.1631,-56.3777,5.97579,27.3404,39.9877,-56.6375,-30.3814,48.8004,-12.8931,-1.97073,-24.9851,30.6662,-3.50074,42.5845,41.3638
1.3578,16.652,27.9424,32.7277,9.47767,0.36215,-16.3318,-2.97507,5.66151,-11.1463,-4.60667,3.60525,-2.93956,-2.51504,0.0262119,-18.305,-0.795898,-2.13429,39.8117,0.0554655,-1.24196,17.8754,-0.500826,-0.187274,-2.28602e-14,-3.97569e-15,-13.8583,-11.6194,-13.2596,26.2895,0.347126,14.1916,6.75495,7.12502,39.0902,-18.7392,-2.28602e-14,-3.97569e-15,34.9372,0.680141,12.8293,47.1259,-3.06624,21.7926,13.7251,7.12502,46.2012,36.7354,-56.2687,5.62823,27.739,39.9425,-56.2721,-30.4355,48.6591,-12.8469,-1.98111,-24.7963,30.708,-2.52064,42.6222,40.5542
1.36984,16.6527,27.9426,32.7397,9.6795,0.225481,-16.3538,-2.97372,6.02078,-11.1915,-4.64761,3.67495,-3.00877,-2.55475,-0.100807,-18.2223,-0.736579,-2.12277,39.9236,0.162956,-1.29251,17.9179,-0.464137,-0.191973,9.72554e-14,-3.57812e-14,-13.7366,-11.6844,-13.1957,26.3336,0.544341,14.2444,6.68862,7.12502,39.14,-18.7912,9.72554e-14,-3.57812e-14,34.7381,0.501954,12.487,47.1648,-2.80719,21.4376,13.8085,7.12502,45.8718,36.9562,-56.2726,5.14632,28.181,39.8923,-55.6772,-30.709,48.2228,-12.8955,-2.05367,-24.5918,30.7546,-1.74924,42.547,40.1481
1.37536,16.6525,27.9434,32.7912,9.69714,0.297857,-16.4283,-3.0097,6.02912,-11.205,-4.70145,3.68568,-2.98721,-2.58197,-0.104707,-18.1474,-0.663285,-2.09936,39.9382,0.292429,-1.35533,17.9066,-0.417774,-0.199156,-1.04561e-13,1.82882e-14,-13.43,-12.4711,-13.1692,26.028,1.20798,14.3382,6.90063,7.12502,39.2284,-18.5536,-1.04561e-13,1.82882e-14,34.7428,0.798942,12.6485,46.9665,-3.29177,21.5811,13.4352,7.12502,46.005,36.5276,-56.3781,5.40514,27.8749,39.9028,-55.7293,-31.4981,47.5647,-12.9341,-1.97685,-24.6357,30.7133,-0.110995,42.5064,38.9865
1.37939,16.6518,27.9424,32.8366,9.68607,0.474654,-16.4458,-3.05009,5.89185,-11.187,-4.74032,3.65599,-2.94896,-2.59425,-0.0678794,-18.1717,-0.645135,-2.06928,39.913,0.331908,-1.40724,17.8987,-0.404562,-0.220527,-8.37877e-14,4.69132e-14,-13.261,-12.982,-13.1409,25.9008,1.5488,14.4462,6.87881,7.12502,39.3301,-18.5459,-8.37877e-14,4.69132e-14,35.0962,1.30196,13.1163,46.353,-4.05643,21.6764,13.15,7.12502,46.0934,36.2055,-56.4703,5.79864,27.3561,39.9013,-56.206,-32.043,47.2345,-12.9657,-2.03661,-24.8021,30.6825,1.18645,42.4996,38.0268
1.38268,16.6469,27.9406,32.8198,9.63577,0.63954,-16.3982,-3.08167,5.70154,-11.1495,-4.7568,3.6635,-2.91361,-2.59075,0.0427271,-18.2295,-0.683498,-2.29269,39.9727,0.276481,-1.20544,17.9483,-0.432666,-0.0986767,-6.22693e-14,-2.46493e-14,-13.0954,-13.096,-13.06,25.903,1.52077,14.4017,6.88219,7.12502,39.2882,-18.5547,-6.22693e-14,-2.46493e-14,35.2808,1.4876,13.2474,45.9604,-4.21884,21.4452,13.2292,7.12502,45.879,36.374,-56.4658,6.23496,26.8444,39.9166,-57.106,-31.7916,47.7365,-12.8831,-2.05036,-24.9851,30.6203,1.00663,42.4475,38.1087
1.3799,16.6452,27.9406,32.8918,9.52058,0.651726,-16.4531,-3.09855,5.57424,-11.161,-4.76714,3.72407,-2.88005,-2.58674,0.171505,-18.1716,-0.660977,-2.41564,39.9799,0.32029,-1.1195,17.9369,-0.421796,-0.0277681,2.83268e-14,1.11319e-14,-12.7693,-13.6459,-13.0754,25.7574,2.01189,14.5666,6.95689,7.12502,39.4435,-18.4346,2.83268e-14,1.11319e-14,35.3764,1.67007,13.2845,45.6807,-4.28185,21.3906,13.2739,7.12502,45.8283,36.4396,-56.5465,7.05663,26.2966,39.8815,-58.2607,-31.6102,48.3124,-12.966,-2.07262,-25.0066,30.6106,0.32231,42.4512,38.6473
1.37749,16.6415,27.9425,32.8839,9.38808,0.640821,-16.4152,-3.06836,5.46603,-11.1726,-4.71042,3.74598,-2.89786,-2.552,0.263855,-18.0724,-0.660146,-2.47466,39.9664,0.308843,-1.04511,17.9024,-0.423943,0.015644,-2.73826e-14,1.35174e-14,-12.6952,-13.7838,-13.025,25.8111,2.11066,14.5731,7.04071,7.12502,39.4497,-18.349,-2.73826e-14,1.35174e-14,35.6201,1.91111,13.5298,45.5158,-4.56669,21.6766,13.3905,7.12502,46.0937,36.4459,-56.5724,7.72529,25.8786,39.8825,-59.0743,-31.6656,48.532,-12.9153,-2.18783,-25.0194,30.563,-2.24149,42.4264,40.8503
1.38292,16.6408,27.9461,32.824,9.47975,0.490809,-16.3271,-3.01679,5.66631,-11.2092,-4.65717,3.81618,-2.99547,-2.5354,0.242398,-18.0101,-0.694275,-2.52688,40.0256,0.292277,-1.08579,17.9211,-0.444612,0.00262422,-1.0635e-14,0,-12.7541,-13.3687,-12.8806,25.9758,1.84519,14.3245,7.17548,7.12502,39.2154,-18.2825,-1.0635e-14,0,35.7185,2.0426,13.7282,45.4795,-4.54813,21.7434,13.5106,7.12502,46.1556,36.54,-56.5178,7.89462,25.9576,39.9196,-59.5775,-31.3196,48.7012,-12.8629,-2.29107,-24.8219,30.503,0.0875599,42.4033,39.1416
1.39055,16.6399,27.9472,32.8349,9.40758,0.693435,-16.1914,-3.00406,5.54302,-11.3351,-4.60711,3.75889,-3.19538,-2.5108,0.272074,-17.8031,-0.71306,-2.60122,40.1154,0.274812,-1.06204,17.9185,-0.459601,0.0236497,3.65764e-14,-2.3059e-14,-12.8159,-13.1045,-12.6962,26.0364,1.79867,14.3713,7.16062,7.12502,39.2595,-18.2846,3.65764e-14,-2.3059e-14,35.7378,1.95024,13.8084,45.4075,-4.44236,21.6585,13.6321,7.12502,46.0769,36.6946,-56.5428,7.71406,25.7834,40.041,-59.769,-30.7769,48.9424,-12.7721,-2.4678,-25.056,30.3745,3.35228,42.2003,36.3001
1.39623,16.637,27.9483,33.0232,9.13122,1.05104,-16.2568,-2.99523,5.15194,-11.4324,-4.54797,3.66909,-3.23622,-2.46445,0.400718,-17.6061,-0.725418,-2.64257,40.0984,0.262261,-1.06016,17.8568,-0.469522,0.0303967,4.7758e-14,1.59028e-15,-12.6776,-13.2608,-12.5753,25.9382,2.01254,14.5241,7.09587,7.12502,39.4035,-18.3074,4.7758e-14,1.59028e-15,36.0644,2.45144,14.5168,44.8956,-4.91651,21.8506,13.4479,7.12502,46.255,36.4355,-56.7995,7.72432,25.2779,40.2314,-60.0061,-30.326,49.3132,-12.8176,-2.64007,-25.5238,30.2055,2.9011,42.3162,36.7786
1.40118,16.6375,27.9487,33.1764,9.0712,1.17276,-16.4845,-2.99436,5.04327,-11.3501,-4.5542,3.65271,-3.01879,-2.45757,0.423215,-17.7095,-0.691222,-2.46821,40.0203,0.331809,-1.24654,17.8392,-0.440582,-0.0730547,3.53837e-14,-3.02153e-14,-12.6395,-13.1112,-12.5705,26.173,1.70441,14.4488,6.99489,7.12502,39.3325,-18.4291,3.53837e-14,-3.02153e-14,37.6501,4.50084,17.0148,43.1649,-7.48881,22.8797,12.4322,7.12502,47.2077,35.0063,-57.0419,7.63469,25.1501,40.4183,-60.0386,-30.1472,49.5558,-12.8705,-2.93553,-25.6481,30.0383,0.832703,42.5732,38.6065
1.41041,16.6402,27.9511,33.2216,9.10422,1.30759,-16.5855,-2.98903,5.02002,-11.3436,-4.55106,3.60439,-2.96098,-2.45519,0.379007,-17.5774,-0.61494,-2.33,39.957,0.447725,-1.37407,17.7678,-0.388934,-0.132404,5.51627e-14,-7.15625e-15,-12.807,-12.5198,-12.5152,26.5231,1.2038,14.0954,6.79576,7.12502,38.9995,-18.7244,5.51627e-14,-7.15625e-15,37.2869,4.04184,16.2468,43.5352,-6.57364,22.3483,12.664,7.12502,46.7161,35.4542,-57.1394,7.56387,24.9715,40.5705,-60.2336,-30.0328,49.5615,-12.7864,-3.21296,-25.7529,29.8976,-0.665243,42.6507,39.8262
1.41552,16.6414,27.9535,33.1981,9.1785,1.34972,-16.4695,-3.00246,5.02752,-11.4682,-4.55377,3.63768,-3.15602,-2.46024,0.423955,-17.2312,-0.486181,-2.1307,40.001,0.663198,-1.61362,17.703,-0.303987,-0.235184,1.15295e-14,-2.38542e-15,-12.8428,-11.627,-12.4412,26.7124,0.601145,13.7535,6.54655,7.12502,38.6771,-19.0652,1.15295e-14,-2.38542e-15,36.837,3.27046,15.3292,43.8907,-5.33694,21.8723,13.171,7.12502,46.2751,36.1501,-57.1233,7.58235,24.8982,40.6291,-60.6147,-29.8994,49.6853,-12.7132,-3.2376,-25.7272,29.8268,1.15969,42.5183,38.4596
1.41984,16.6438,27.9567,33.1446,9.19172,1.33796,-16.3315,-2.98315,5.06844,-11.5669,-4.5176,3.65466,-3.33767,-2.44761,0.438234,-16.9381,-0.400323,-1.87072,40.1623,0.780166,-1.82266,17.72,-0.246191,-0.356127,3.70733e-14,-5.56597e-15,-12.7879,-11.3701,-12.3776,26.6606,0.550104,13.6365,6.49497,7.12502,38.5667,-19.1478,3.70733e-14,-5.56597e-15,36.4749,2.54518,14.3184,44.2661,-3.87915,21.3487,13.6331,7.12502,45.7893,36.8148,-57.0566,7.63943,24.8606,40.612,-60.8741,-29.8743,49.6098,-12.6806,-3.24522,-25.701,29.8389,3.7772,42.3419,36.2356
1.42687,16.6494,27.9601,33.1188,9.17593,1.28752,-16.2443,-2.91631,5.15668,-11.639,-4.42888,3.67596,-3.46629,-2.40971,0.432601,-16.6859,-0.427283,-1.95322,40.2846,0.708686,-1.69653,17.7219,-0.26893,-0.297347,-7.10655e-15,5.56597e-15,-12.6575,-11.8321,-12.2043,26.3954,1.06865,13.8986,6.5704,7.12502,38.8139,-19.0027,-7.10655e-15,5.56597e-15,36.2659,2.31632,13.8868,44.558,-3.30094,21.0542,14.0117,7.12502,45.5159,37.3051,-57.0429,7.61604,24.8964,40.5342,-60.5169,-30.6645,49.0739,-12.7155,-3.37345,-25.6634,29.9529,2.64639,42.4791,37.1926
1.43622,16.65,27.9659,33.1079,9.30424,1.07848,-16.4,-2.84273,5.43343,-11.492,-4.38362,3.76443,-3.24072,-2.39324,0.361226,-16.9024,-0.482796,-2.05052,40.3035,0.632222,-1.6135,17.7894,-0.303501,-0.257222,-4.72114e-14,1.27222e-14,-12.2607,-13.2322,-12.0806,25.8879,2.36272,14.0885,6.71879,7.12502,38.993,-18.8033,-4.72114e-14,1.27222e-14,36.6927,3.19405,14.6666,44.2243,-4.02975,21.2998,13.9754,7.12502,45.7439,37.1758,-56.9687,7.39414,25.2822,40.4686,-60.3352,-30.4237,49.1838,-12.8055,-3.27723,-25.3751,30.0547,2.73386,42.6707,37.3995
1.44201,16.6478,27.9749,33.0317,9.53375,0.782671,-16.4866,-2.77573,5.80367,-11.3147,-4.35683,3.86917,-3.02606,-2.3895,0.256278,-17.2673,-0.51703,-2.05752,40.3596,0.612432,-1.64733,17.9195,-0.318972,-0.277506,-1.9133e-14,-1.74931e-14,-12.0897,-13.7116,-12.0341,25.8411,2.69296,13.9557,6.30452,7.12502,38.8677,-19.2533,-1.9133e-14,-1.74931e-14,38.1205,5.21456,17.1516,42.9026,-6.73358,22.4836,12.903,7.12502,46.8413,35.6388,-56.808,7.10276,25.875,40.4412,-60.2618,-29.8963,49.5161,-12.8653,-2.99002,-24.9342,30.1289,7.86212,42.2494,33.1856
1.44775,16.6463,27.9842,32.9846,9.41355,0.892016,-16.4033,-2.74363,5.66156,-11.2791,-4.29255,3.83883,-3.01721,-2.34957,0.313197,-17.3773,-0.532667,-2.00045,40.4461,0.604888,-1.72203,18,-0.324604,-0.325479,-4.78077e-14,-7.15625e-15,-12.0962,-13.7832,-11.9515,25.8936,2.73482,13.7881,6.49865,7.12502,38.7097,-19.1039,-4.78077e-14,-7.15625e-15,36.9015,3.70488,14.6675,44.3757,-3.98585,21.449,13.088,7.12502,45.8824,36.2313,-56.7437,6.98298,25.7822,40.4861,-60.0277,-30.0682,49.3447,-12.7753,-2.87896,-25.1101,30.1329,10.3698,41.6952,30.8427
1.45075,16.6476,27.9914,32.915,9.2524,0.924888,-16.3427,-2.74496,5.51655,-11.2398,-4.27461,3.88549,-2.98811,-2.33004,0.445225,-17.4467,-0.519237,-2.07682,40.4989,0.630882,-1.6589,18.0491,-0.317949,-0.278099,-5.2827e-14,-1.66979e-14,-11.8785,-14.198,-11.9041,25.707,3.12123,13.8395,7.15488,7.12502,38.7582,-18.434,-5.2827e-14,-1.66979e-14,38.3822,5.66574,17.2906,42.7413,-6.86248,22.5745,13.0742,7.12502,46.9255,35.7732,-56.6692,7.04093,25.6948,40.5552,-59.9083,-30.069,49.2363,-12.636,-2.92751,-25.2399,30.0755,9.07632,42.0574,32.4705
1.45095,16.646,27.9979,32.8956,8.99116,0.972976,-16.0629,-2.70749,5.33533,-11.3659,-4.1752,3.88592,-3.25293,-2.27632,0.58063,-17.5064,-0.57336,-2.16334,40.6473,0.598056,-1.69159,18.1534,-0.351566,-0.286799,3.97569e-15,-1.35174e-14,-11.7221,-14.832,-11.8297,25.38,3.93255,13.9589,7.40292,7.12502,38.8707,-18.154,3.97569e-15,-1.35174e-14,38.519,5.89042,17.6364,42.5978,-7.17782,22.5133,13.2583,7.12502,46.8688,35.9821,-56.7019,7.43527,25.3796,40.656,-60.0944,-30.1491,49.2028,-12.5318,-2.94082,-25.4111,29.924,7.70445,42.4574,33.9817
