JuanDHNZ/ProyectoFinalCD/preprocessing/sports_trials_csv/05_05.csv
root1,root2,root3,root4,root5,root6,lowerback1,lowerback2,lowerback3,upperback1,upperback2,upperback3,thorax1,thorax2,thorax3,lowerneck1,lowerneck2,lowerneck3,upperneck1,upperneck2,upperneck3,head1,head2,head3,rclavicle1,rclavicle2,rhumerus1,rhumerus2,rhumerus3,rradius1,rwrist1,rhand1,rhand2,rfingers1,rthumb1,rthumb2,lclavicle1,lclavicle2,lhumerus1,lhumerus2,lhumerus3,lradius1,lwrist1,lhand1,lhand2,lfingers1,lthumb1,lthumb2,rfemur1,rfemur2,rfemur3,rtibia1,rfoot1,rfoot2,rtoes1,lfemur1,lfemur2,lfemur3,ltibia1,lfoot1,lfoot2,ltoes1
4.41332,16.3524,27.6297,28.6608,-48.5048,-4.69211,-16.0227,1.11681,-2.18776,-6.95325,1.58982,0.430752,1.51794,0.761238,1.95314,-8.504,-1.08115,-0.810516,42.6532,-4.87278,4.74332,17.1908,-1.94574,1.38745,7.77745e-15,-7.55382e-15,-131.859,-32.1723,69.6008,-0.843753,130.436,10.6243,9.69905,7.12502,35.7183,-16.6862,7.77745e-15,-7.55382e-15,-41.382,18.1018,63.1747,24.3255,-7.28412,16.2901,21.7883,7.12502,41.0646,46.6841,-32.5399,-21.28,34.8422,57.2913,43.4503,-26.9007,37.8683,-51.142,1.42876,-28.821,48.5323,-39.1279,23.4458,12.4938
4.42023,16.3571,27.6309,28.6622,-48.2363,-4.7927,-16.077,0.946277,-2.07529,-7.01337,1.34045,0.612591,1.4933,0.636626,2.03919,-8.42814,-0.950031,-0.474281,42.5164,-4.48783,4.15541,17.0364,-1.8096,1.11882,1.56543e-14,1.88845e-14,-131.715,-32.6763,69.5487,-0.607068,130.343,11.1463,9.79891,7.12502,36.2128,-16.465,1.56543e-14,1.88845e-14,-41.424,17.8493,63.443,24.1163,-7.66949,16.8506,21.5546,7.12502,41.5907,46.2804,-32.301,-21.2314,34.7927,57.1885,41.4777,-30.0488,41.8358,-51.0496,1.23997,-28.6499,48.5245,-39.1631,23.2804,12.8528
4.43507,16.3544,27.6307,28.6122,-48.2869,-5.01013,-15.9166,0.996962,-1.92274,-7.03612,1.37959,0.704904,1.38486,0.656343,2.05244,-8.65421,-0.935672,-0.143858,42.5329,-4.32907,3.63633,17.0671,-1.75116,0.847037,-4.11857e-14,-2.36554e-14,-131.756,-32.9473,69.6942,-0.252841,130.269,11.6198,10.1021,7.12502,36.661,-16.0492,-4.11857e-14,-2.36554e-14,-41.3259,17.1619,63.9383,24.075,-7.82212,17.4726,21.5977,7.12502,42.1738,46.1293,-32.0246,-20.8079,34.7185,57.1788,40.8006,-31.6556,43.2714,-50.8129,0.862902,-28.3028,48.4482,-39.7049,23.1956,14.3845
4.44728,16.3474,27.6344,27.8825,-48.5813,-4.5038,-15.7739,1.06149,-2.23353,-6.95682,1.51362,0.620823,1.37965,0.729253,2.15958,-9.01128,-0.977537,-0.275087,42.6024,-4.31369,3.53533,17.1969,-1.76839,0.825464,-2.66496e-14,-2.8625e-14,-131.951,-33.122,69.9963,0.177221,130.32,12.2246,10.518,7.12502,37.2331,-15.4859,-2.66496e-14,-2.8625e-14,-41.0728,16.4991,64.5459,23.864,-8.27739,17.8844,21.3183,7.12502,42.5594,45.7181,-31.6754,-20.5232,33.9869,57.2504,40.6438,-32.296,43.6898,-50.3357,0.561502,-28.6411,48.3486,-40.1909,23.2046,15.2124
4.46166,16.3428,27.632,27.5582,-48.8388,-4.24487,-15.7733,1.14405,-2.40049,-6.93519,1.65005,0.521535,1.3924,0.799125,2.17228,-9.26129,-1.02489,-0.329817,42.5745,-4.37855,3.57512,17.251,-1.79141,0.840678,-2.23633e-16,-8.34896e-15,-131.924,-33.1139,70.1413,-0.0018882,130.619,12.5575,10.3877,7.12502,37.5478,-15.5331,-2.23633e-16,-8.34896e-15,-40.7946,15.899,65.0095,23.7202,-8.92628,18.4125,20.9834,7.12502,43.0534,45.2104,-31.6175,-19.9574,33.5703,57.3373,40.2622,-32.9386,44.4217,-50.176,0.500683,-28.8778,48.2855,-40.4901,23.0592,15.8652
4.47967,16.3426,27.6246,27.6683,-49.0487,-4.41475,-15.751,1.22726,-2.36356,-6.96913,1.75192,0.531633,1.34014,0.850077,2.17737,-9.44974,-1.07995,-0.41238,42.4396,-4.45139,3.64827,17.2293,-1.81971,0.874175,2.15184e-14,-2.20651e-14,-131.926,-33.1904,70.1706,-0.0143529,130.936,12.8153,10.4902,7.12502,37.7914,-15.3655,2.15184e-14,-2.20651e-14,-40.6139,15.468,65.3127,23.618,-9.74386,19.1981,20.7022,7.12502,43.7873,44.664,-31.6605,-19.0311,33.4363,57.4192,37.301,-35.2951,47.8462,-50.2327,0.656935,-28.8173,48.2517,-40.6718,22.8588,16.2228
4.48707,16.3347,27.6183,27.4867,-49.1475,-4.34489,-15.7677,1.1823,-2.5585,-6.96322,1.7171,0.6449,1.34608,0.837885,2.40118,-9.52643,-1.06652,-0.524339,42.262,-4.30829,3.50177,17.1359,-1.79426,0.849809,-6.1909e-14,-3.55825e-14,-131.756,-33.4056,70.2172,0.0271537,131.169,13.028,10.7646,7.12502,37.9923,-15.0367,-6.1909e-14,-3.55825e-14,-40.6004,15.1306,65.7223,23.5243,-10.4796,20.0517,20.4354,7.12502,44.5832,44.0972,-31.6596,-18.9316,33.4933,57.3683,41.0111,-30.7867,43.4444,-50.1516,0.714835,-28.911,48.2981,-40.7377,22.7937,16.3614
4.49094,16.3314,27.6222,27.4595,-49.13,-4.46179,-15.8722,1.17434,-2.48038,-7.02056,1.69102,0.743214,1.34134,0.824096,2.45792,-9.36336,-1.03355,-0.676197,42.1411,-4.17597,3.44819,17.0197,-1.77393,0.875685,-6.4605e-15,-1.98785e-15,-131.21,-33.4463,70.1732,-0.285956,131.456,12.972,10.8326,7.12502,37.9394,-14.9831,-6.4605e-15,-1.98785e-15,-40.6465,14.2606,66.321,23.452,-10.4968,20.7291,20.2681,7.12502,45.2137,43.683,-31.5152,-18.8898,33.5074,57.283,42.4917,-28.2564,40.8864,-50.0396,0.746953,-28.8767,48.3628,-40.7218,22.8387,16.3877
4.49485,16.331,27.6251,27.67,-48.9939,-4.79727,-15.9585,1.2185,-2.24712,-7.11694,1.70969,0.841951,1.28851,0.830401,2.43358,-9.26764,-1.07513,-0.785269,41.9676,-4.15976,3.38814,16.8952,-1.79251,0.870922,7.98804e-14,5.12864e-14,-130.689,-33.3763,70.257,-0.641139,131.71,13.2284,10.9058,7.12502,38.1815,-14.8438,7.98804e-14,5.12864e-14,-40.5968,13.4842,66.8056,23.3112,-10.7341,21.7642,20.1354,7.12502,46.1749,43.1568,-31.3423,-18.7841,33.6492,57.1203,42.8722,-27.4497,40.2781,-50.0415,0.809022,-28.6817,48.4777,-40.7608,22.7221,16.6717
4.49933,16.3403,27.6219,27.8737,-48.7539,-5.14861,-15.9832,1.33605,-1.96562,-7.1583,1.82197,0.896892,1.25968,0.882183,2.35052,-9.51843,-1.2095,-0.807457,41.9392,-4.30103,3.28442,16.9451,-1.85887,0.803155,4.20492e-14,3.77691e-15,-130.661,-33.2009,70.627,-0.744324,131.877,13.649,10.8431,7.12502,38.5785,-14.7963,4.20492e-14,3.77691e-15,-40.4217,13.1567,67.0815,23.1358,-11.4483,22.778,20.0049,7.12502,47.1137,42.6208,-31.0507,-18.1939,33.5949,57.0589,39.2697,-32.6007,45.5466,-50.0324,1.03315,-28.4938,48.5263,-40.4624,22.5444,16.5567
4.50654,16.3391,27.6213,28.0305,-48.6301,-5.47968,-16.0365,1.37968,-1.66665,-7.13735,1.83658,0.920813,1.31935,0.88275,2.21107,-9.76141,-1.26322,-0.743237,41.914,-4.36874,3.22587,16.9918,-1.87836,0.751176,7.68862e-14,-4.73108e-14,-130.971,-33.4377,70.8067,-0.374117,131.888,13.9371,10.7109,7.12502,38.8502,-14.8518,7.68862e-14,-4.73108e-14,-40.3519,12.8095,67.3176,23.0837,-11.5961,23.1455,20.0697,7.12502,47.4533,42.5336,-30.9758,-18.2156,33.8869,56.9778,41.1168,-30.0511,43.2266,-50.0162,1.32108,-28.3626,48.5786,-40.199,22.4591,16.2459
4.52133,16.3379,27.623,27.7242,-48.9913,-5.13079,-16.0928,1.35046,-1.94682,-7.15628,1.83935,0.847588,1.32099,0.887982,2.29426,-9.75686,-1.23889,-0.689209,41.8395,-4.29857,3.12592,16.94,-1.85553,0.707099,-1.2657e-13,-2.64384e-14,-131.253,-33.9898,70.8458,0.359897,132.001,14.5639,10.9236,7.12502,39.441,-14.4687,-1.2657e-13,-2.64384e-14,-40.4379,12.6211,67.4399,23.0379,-11.6392,23.4538,20.0806,7.12502,47.7379,42.4147,-31.0982,-18.0864,33.5644,57.0353,42.9244,-27.2462,40.6668,-49.9842,1.47243,-28.7463,48.5359,-40.2428,22.5448,15.8373
4.53506,16.3375,27.6245,27.3248,-49.1192,-4.80106,-15.9377,1.39245,-2.15048,-7.26727,1.92122,0.751018,1.11324,0.934903,2.31461,-9.60585,-1.30796,-0.551776,41.8099,-4.36399,2.94101,16.876,-1.88846,0.589603,4.76214e-14,1.78906e-15,-131.182,-34.0259,70.9569,0.697222,132.138,14.9652,11.2739,7.12502,39.8189,-14.0065,4.76214e-14,1.78906e-15,-40.5286,11.9854,67.7464,22.9374,-11.5695,23.9735,20.0176,7.12502,48.2171,42.1285,-31.0585,-18.1773,33.2729,57.0799,42.7894,-25.9194,41.2212,-49.8335,1.60123,-29.0801,48.4866,-40.1647,22.5468,15.302
4.54435,16.3373,27.6235,27.227,-48.9803,-4.86381,-15.8933,1.39286,-2.12845,-7.25734,1.91723,0.817004,1.09896,0.934124,2.36958,-9.86405,-1.36029,-0.527228,41.7499,-4.39384,2.84057,16.904,-1.90232,0.532337,8.2185e-14,1.39149e-15,-131.245,-34.1596,71.228,0.800437,132.328,15.1051,11.2342,7.12502,39.9506,-14.0068,8.2185e-14,1.39149e-15,-40.4683,11.6391,68.0921,22.8482,-11.7128,24.44,19.8996,7.12502,48.6465,41.8051,-30.9486,-18.2599,33.324,57.1127,43.8294,-25.3626,39.1767,-49.6664,1.61265,-29.028,48.4168,-40.0769,22.4369,15.4002
4.55175,16.3404,27.6205,27.1822,-48.8168,-4.92983,-15.9184,1.31909,-2.11104,-7.22549,1.81645,0.908991,1.14886,0.884101,2.44138,-9.96768,-1.33463,-0.568314,41.5466,-4.28133,2.76764,16.8099,-1.86783,0.524647,9.35158e-14,-3.95581e-14,-130.99,-34.303,71.3227,0.265963,132.795,14.9086,10.5366,7.12502,39.7656,-14.7597,9.35158e-14,-3.95581e-14,-40.4036,11.6316,68.25,22.7469,-12.1581,25.0696,19.8421,7.12502,49.2251,41.4624,-30.8141,-18.175,33.3482,57.1071,42.0051,-26.8663,42.268,-49.5681,1.73836,-29.0286,48.3721,-39.8305,22.3493,15.3055
4.55959,16.3428,27.6188,27.06,-48.8328,-4.94965,-15.8391,1.32606,-2.10672,-7.26479,1.82236,0.918605,1.06502,0.888437,2.44694,-9.89846,-1.34097,-0.638638,41.5108,-4.25343,2.73537,16.7715,-1.87325,0.528257,5.77718e-16,-3.57812e-15,-130.277,-34.165,71.2603,-0.84235,133.338,14.6272,9.61653,7.12502,39.5006,-15.7582,5.77718e-16,-3.57812e-15,-40.5134,11.4006,68.3938,22.709,-12.4713,25.7899,19.7577,7.12502,49.8853,41.0405,-30.5681,-17.8645,33.1996,57.1095,41.3743,-29.0717,42.8366,-49.3998,1.86667,-29.084,48.3251,-39.7873,22.2828,15.2855
4.56991,16.3442,27.612,27.0838,-48.8526,-5.15061,-15.7265,1.35809,-1.97204,-7.27284,1.84499,0.891537,1.00214,0.897511,2.3426,-10.083,-1.32535,-0.612738,41.6236,-4.25191,2.74828,16.8819,-1.86411,0.527226,6.10642e-15,1.96797e-14,-130.263,-34.2657,71.2552,-0.839903,133.664,14.6569,9.54171,7.12502,39.5286,-15.8248,6.10642e-15,1.96797e-14,-40.5312,11.1734,68.4175,22.6797,-12.6673,26.4223,19.6914,7.12502,50.4637,40.6672,-30.4024,-17.5776,33.2774,57.1102,40.1408,-30.6167,44.5484,-49.2849,1.77285,-28.883,48.2762,-39.9467,22.3294,15.5452
4.58085,16.3458,27.599,27.0542,-48.9218,-5.11407,-15.6812,1.34328,-2.11868,-7.34614,1.84342,0.859215,0.896356,0.900887,2.38862,-10.1711,-1.29965,-0.445972,41.6009,-4.21897,2.66386,16.8832,-1.83386,0.463441,-6.54747e-14,1.17283e-14,-130.776,-34.6454,71.3837,0.296105,133.71,14.9227,10.1918,7.12502,39.7789,-15.1006,-6.54747e-14,1.17283e-14,-40.5131,10.6228,68.6494,22.5862,-12.4648,26.7207,19.6896,7.12502,50.7361,40.5171,-30.4957,-17.327,33.2854,57.1243,39.9465,-31.6945,44.4055,-49.3652,1.87141,-28.9341,48.2395,-39.7644,22.3751,15.2071
4.58853,16.3511,27.5889,26.9573,-48.9744,-5.01444,-15.6345,1.29663,-2.39081,-7.40706,1.81541,0.909083,0.796535,0.895657,2.58779,-10.3161,-1.30901,-0.500382,41.5875,-4.21348,2.66453,16.9138,-1.83669,0.47282,-5.57311e-14,1.98785e-15,-130.848,-34.9089,71.5335,0.59394,133.758,14.8679,10.3469,7.12502,39.7273,-14.9608,-5.57311e-14,1.98785e-15,-40.4465,10.226,68.9739,22.3354,-12.3783,26.9468,19.3523,7.12502,50.9423,40.0658,-30.5725,-17.1869,33.2879,57.1018,40.0544,-31.595,44.1497,-49.397,1.80924,-28.9636,48.2129,-39.6429,22.6007,15.1337
4.59505,16.3494,27.5859,27.182,-48.9151,-5.35566,-15.6356,1.27227,-2.3495,-7.44549,1.77147,1.07435,0.754575,0.87595,2.73046,-10.3823,-1.31636,-0.683509,41.5846,-4.17605,2.678,16.9326,-1.84693,0.517489,-8.48562e-15,-1.53064e-14,-130.571,-35.1251,71.6588,0.190373,133.927,14.6604,10.4749,7.12502,39.5319,-14.8906,-8.48562e-15,-1.53064e-14,-40.4544,10.2805,69.1006,22.0996,-12.5456,27.1979,19.0601,7.12502,51.171,39.6456,-30.6057,-17.3853,33.7555,56.9922,42.338,-28.0205,40.5207,-49.4264,1.67961,-28.6488,48.2318,-39.7493,22.6974,15.9355
4.60052,16.3475,27.5936,27.2888,-48.8676,-5.50046,-15.725,1.37854,-2.20197,-7.51564,1.89087,1.02066,0.727421,0.931283,2.61076,-10.3225,-1.40043,-0.53805,41.5187,-4.27276,2.52532,16.8735,-1.88418,0.407341,3.2551e-14,-3.91606e-14,-130.413,-34.9475,71.8227,0.00997125,134.106,14.5747,10.7425,7.12502,39.4512,-14.6467,3.2551e-14,-3.91606e-14,-40.5461,10.3618,68.9702,22.0346,-12.8809,27.5392,19.0087,7.12502,51.4816,39.4173,-30.5882,-17.6791,34.0052,56.8789,43.6713,-25.6644,37.8289,-49.4287,1.61373,-28.5414,48.2336,-39.8837,22.6102,16.4333
4.60339,16.357,27.6014,27.2777,-48.8673,-5.56964,-15.8777,1.49012,-2.0434,-7.50262,2.02074,0.905124,0.824836,0.988629,2.42542,-10.4267,-1.45255,-0.316672,41.5507,-4.36896,2.41442,16.911,-1.9008,0.300165,-1.77477e-14,-3.77691e-15,-130.538,-34.8988,72.05,0.383673,134.34,14.8395,11.5339,7.12502,39.7006,-13.7818,-1.77477e-14,-3.77691e-15,-40.5794,10.1765,68.9579,22.1487,-12.9483,27.6845,19.1506,7.12502,51.6137,39.483,-30.349,-17.5177,33.8438,56.8119,41.0554,-30.3162,42.7476,-49.3217,1.51945,-28.4776,48.2178,-40.0299,22.7202,16.2092
4.60792,16.3614,27.6019,27.1572,-48.8758,-5.56062,-15.9775,1.48735,-2.0414,-7.41416,2.02261,0.847776,0.973339,0.98642,2.36933,-10.6001,-1.4268,-0.223946,41.5774,-4.3496,2.40123,16.9672,-1.87629,0.278312,-1.89467e-16,-7.15625e-15,-130.801,-35.1784,72.2719,0.792819,134.428,15.1714,12.0056,7.12502,40.013,-13.2166,-1.89467e-16,-7.15625e-15,-40.5171,10.041,68.9406,22.1906,-12.9897,28.1423,19.274,7.12502,52.0292,39.3623,-30.2706,-17.7013,33.933,56.7718,41.6517,-29.5677,41.8355,-49.1917,1.32158,-28.414,48.1798,-40.1093,22.9899,16.1131
4.61234,16.3647,27.6063,27.1414,-48.8603,-5.71988,-16.0956,1.46626,-1.87021,-7.29986,1.97547,0.835403,1.16648,0.95593,2.258,-10.788,-1.35096,-0.0805529,41.5134,-4.21631,2.29188,16.9678,-1.80957,0.223448,1.05853e-13,4.69132e-14,-131.056,-35.5725,72.3949,0.983922,134.402,15.0657,11.6942,7.12502,39.9134,-13.5579,1.05853e-13,4.69132e-14,-40.4184,10.2606,68.7738,22.1159,-13.2298,28.4705,19.3916,7.12502,52.3267,39.3012,-30.077,-17.7761,34.0103,56.7066,41.1749,-30.3088,42.2812,-49.0305,1.13883,-28.228,48.1689,-40.2566,23.1459,16.1995
4.61378,16.368,27.6155,27.1777,-48.8773,-5.82313,-16.2577,1.43185,-1.74608,-7.30861,1.91198,0.825188,1.2507,0.919158,2.17157,-10.8799,-1.29052,0.128264,41.5191,-4.11622,2.12669,16.9809,-1.75727,0.126699,-5.53708e-14,-9.93923e-15,-130.924,-35.843,72.2976,0.956512,134.516,14.7916,11.2571,7.12502,39.6554,-14.072,-5.53708e-14,-9.93923e-15,-40.614,10.6675,68.4093,22.12,-13.7712,28.8809,19.3976,7.12502,52.698,39.0793,-29.9204,-17.858,33.9858,56.677,39.8159,-32.1021,44.0064,-48.9078,0.943473,-28.1046,48.1152,-40.4346,23.2303,16.7523
4.61543,16.3616,27.6207,27.163,-48.9787,-5.86933,-16.2972,1.43368,-1.76187,-7.38221,1.91339,0.821232,1.1928,0.920053,2.17641,-10.6636,-1.24307,0.0672447,41.4169,-4.03722,2.18009,16.8696,-1.73257,0.178085,4.72424e-14,1.19271e-14,-130.731,-36.0141,72.2325,1.07988,134.697,14.5137,11.0901,7.12502,39.3937,-14.316,4.72424e-14,1.19271e-14,-40.857,10.606,68.3405,22.1572,-13.7614,29.1815,19.5302,7.12502,52.9696,39.0418,-29.9538,-18.4321,34.2166,56.6259,43.2177,-26.5903,38.5204,-48.8185,0.860986,-28.0932,48.095,-40.6325,23.3199,16.8466
4.61769,16.371,27.6174,26.7835,-49.0798,-5.53611,-16.1261,1.41543,-2.06799,-7.43717,1.93355,0.720572,1.03569,0.938,2.2407,-10.5404,-1.21823,0.0296326,41.4021,-4.02553,2.2761,16.8343,-1.72366,0.231408,-7.93756e-14,4.37326e-15,-130.599,-36.037,72.2686,1.00571,134.573,14.1611,11.1919,7.12502,39.0615,-14.3105,-7.93756e-14,4.37326e-15,-40.9169,10.4106,68.3163,22.1398,-13.6006,29.316,19.6134,7.12502,53.091,39.0479,-29.7474,-18.2396,33.6928,56.728,39.9077,-31.515,43.5834,-48.5709,0.840274,-28.3618,47.9678,-40.6374,23.3967,16.7482
4.63677,16.3679,27.6227,26.8038,-49.7234,-5.44645,-16.055,1.69128,-2.22798,-7.59104,2.3155,0.57531,0.813672,1.13304,2.23455,-10.5695,-1.29129,-0.00598344,41.5616,-4.15797,2.30873,16.9368,-1.77864,0.229425,2.801e-14,-4.33351e-14,-130.21,-35.8244,72.4348,0.603892,134.433,14.1408,11.4984,7.12502,39.0422,-14.0096,2.801e-14,-4.33351e-14,-40.9993,10.1604,68.4249,22.0882,-13.5282,29.0631,19.4416,7.12502,52.8627,39.0205,-29.9798,-17.8379,33.5767,56.8056,41.5792,-29.0163,41.0687,-48.6972,0.869115,-28.4936,47.8911,-41.0482,23.5226,17.3095
4.63799,16.3749,27.625,26.8304,-49.7303,-5.58189,-15.9824,1.79207,-2.21481,-7.67571,2.44272,0.560847,0.680171,1.19832,2.22755,-10.5809,-1.39574,-0.0175419,41.6704,-4.32256,2.29697,17.0051,-1.84929,0.197919,-1.06269e-13,-2.10712e-14,-129.928,-35.6746,72.6345,0.503133,134.523,13.7865,11.5346,7.12502,38.7082,-14.0684,-1.06269e-13,-2.10712e-14,-41.1306,10.0277,68.4553,22.0797,-13.6533,28.5406,19.148,7.12502,52.3902,39.0189,-29.8173,-17.6149,33.4987,56.8776,39.9626,-30.9477,43.0118,-48.5552,0.928226,-28.4306,47.8077,-41.0529,23.4721,17.3105
4.63962,16.3696,27.6299,26.4937,-49.9256,-5.26807,-16.0701,1.73644,-2.53501,-7.63017,2.41809,0.525146,0.761794,1.19174,2.37088,-10.6637,-1.3672,0.0791078,41.6541,-4.24663,2.16003,17.0072,-1.81995,0.130351,2.19451e-14,-2.62396e-14,-130.034,-36.0943,72.8034,0.868859,134.365,13.5855,11.2655,7.12502,38.5186,-14.3907,2.19451e-14,-2.62396e-14,-41.312,10.6643,68.036,22.1033,-14.0991,28.4635,19.138,7.12502,52.3204,39.0514,-29.7319,-17.8485,33.2659,56.9108,41.1571,-28.8764,41.0223,-48.3885,1.00895,-28.7501,47.776,-41.146,23.3159,17.7115
4.64748,16.3707,27.6322,26.6395,-50.1871,-5.52639,-16.1254,1.81183,-2.40684,-7.64504,2.49764,0.536536,0.776151,1.22759,2.32496,-10.5668,-1.32061,-0.00729764,41.7252,-4.17647,2.19815,17.0247,-1.8034,0.175503,1.93225e-14,-4.09496e-14,-130.109,-36.4525,72.8655,1.14256,134.228,13.3743,11.1471,7.12502,38.3193,-14.5646,1.93225e-14,-4.09496e-14,-41.4884,10.9874,67.7682,22.1788,-14.219,28.5404,19.3965,7.12502,52.39,39.2676,-29.5975,-17.4506,33.1981,56.9408,39.3063,-31.5105,43.6153,-48.3494,1.01889,-28.5894,47.7694,-41.3617,23.4392,18.0728
4.65489,16.3748,27.6288,26.8213,-50.3814,-5.6907,-16.2374,1.90832,-2.34242,-7.67403,2.61606,0.491286,0.802794,1.28326,2.26376,-10.3827,-1.33417,-0.158363,41.6696,-4.228,2.38535,16.9584,-1.82784,0.28096,-5.55285e-14,-4.41302e-14,-130.127,-36.547,72.9822,1.08429,134.023,13.3229,11.3137,7.12502,38.2708,-14.4113,-5.55285e-14,-4.41302e-14,-41.4323,10.9428,67.6758,22.0535,-14.06,28.4905,19.3923,7.12502,52.3448,39.2909,-29.6489,-17.0073,33.1176,57.0984,36.2982,-35.0753,46.7477,-48.4186,1.06305,-28.4995,47.7092,-41.442,23.5537,17.9162
4.65859,16.3749,27.6354,26.8189,-50.6729,-5.69981,-16.3239,2.06132,-2.35798,-7.67709,2.8222,0.415906,0.83652,1.3845,2.23002,-10.4707,-1.35474,-0.189475,41.6275,-4.25112,2.41296,16.9596,-1.83509,0.294553,-2.29767e-14,-2.74323e-14,-130.116,-36.5554,73.2313,1.04689,134.049,13.3228,11.6642,7.12502,38.2706,-14.0608,-2.29767e-14,-2.74323e-14,-41.4887,11.1979,67.4918,21.9415,-14.4777,28.5012,19.2258,7.12502,52.3545,39.1186,-29.6819,-16.911,33.004,57.1919,36.6338,-34.7288,46.452,-48.3651,1.15198,-28.5854,47.6874,-41.6757,23.5039,18.1308
4.68379,16.3669,27.6769,27.0245,-52.4226,-5.40491,-17.0604,2.61164,-2.46543,-7.65067,3.57914,0.0226174,1.22567,1.74737,2.03868,-10.9048,-1.32303,-0.016224,41.6631,-4.21463,2.33135,17.0832,-1.79341,0.227167,-4.93731e-14,-1.47101e-14,-130.33,-36.7694,73.4581,1.11165,134.114,13.2684,11.7604,7.12502,38.2193,-13.9788,-4.93731e-14,-1.47101e-14,-41.5222,11.9779,66.946,22.0166,-15.086,28.6829,19.2762,7.12502,52.519,39.0684,-30.327,-15.3138,32.2489,57.3629,37.4262,-34.458,45.8624,-48.8358,1.00808,-28.9685,47.6943,-43.105,24.0311,19.3791
4.67635,16.3716,27.6999,27.5415,-52.5158,-6.1694,-17.3719,2.68904,-1.84351,-7.51647,3.591,0.072579,1.56835,1.73407,1.76506,-11.1675,-1.20336,0.0765689,41.7617,-4.07748,2.35246,17.2032,-1.71599,0.239379,1.14387e-13,-8.74653e-15,-130.582,-37.2669,73.4548,1.51218,133.926,13.1998,11.8563,7.12502,38.1545,-13.9007,1.14387e-13,-8.74653e-15,-41.6377,12.6531,66.3395,22.1006,-15.3514,28.8863,19.3578,7.12502,52.703,39.0364,-29.8707,-15.101,32.3274,57.2082,35.4384,-36.2698,47.8225,-48.69,0.816254,-28.4089,47.837,-43.6903,24.1105,19.6226
4.67922,16.3744,27.6245,28.0218,-50.8836,-7.11446,-16.3604,2.15909,-1.6513,-7.72129,2.84045,0.565043,0.838244,1.37731,1.9922,-11.1028,-1.13806,0.0911703,41.8591,-3.97169,2.29923,17.2374,-1.68093,0.230727,-2.46943e-14,-1.74931e-14,-130.729,-37.7029,73.517,2.19897,134.031,13.6297,12.1232,7.12502,38.5603,-13.5214,-2.46943e-14,-1.74931e-14,-41.8702,13.035,65.9137,22.0293,-15.3929,28.768,19.4151,7.12502,52.596,39.16,-29.8285,-16.0582,33.9563,56.9854,37.273,-34.6486,46.1899,-48.8369,0.833578,-27.3996,48.0125,-42.3877,23.8733,18.5972
4.69225,16.3724,27.6162,28.5604,-50.9278,-7.74562,-16.1579,2.31206,-1.28582,-7.87492,2.98356,0.535114,0.584968,1.44153,1.7656,-11.044,-1.14533,0.401998,41.8975,-4.03151,2.1828,17.2345,-1.67378,0.1116,-5.25226e-15,-1.55052e-14,-130.881,-37.7758,73.6185,2.74897,134.152,13.7269,12.2427,7.12502,38.652,-13.3761,-5.25226e-15,-1.55052e-14,-41.9371,12.8893,65.6604,21.8747,-15.3634,28.3934,19.4302,7.12502,52.2569,39.382,-29.9488,-15.601,34.4404,56.8836,37.5543,-34.8866,45.994,-49.0382,0.830032,-26.9104,48.0733,-42.5386,23.9296,19.1965
4.68718,16.3721,27.6393,28.332,-51.1907,-7.50429,-16.3707,2.37788,-1.34477,-7.85591,3.08201,0.387259,0.717708,1.48711,1.66978,-11.0239,-1.1103,0.638058,41.9271,-4.00115,2.06521,17.2361,-1.64063,0.0206503,1.13711e-14,3.85642e-14,-130.95,-37.9221,73.6821,3.0721,133.98,13.5442,12.0998,7.12502,38.4796,-13.5673,1.13711e-14,3.85642e-14,-41.9982,12.9673,65.3825,21.7002,-15.6069,28.3644,19.2404,7.12502,52.2306,39.208,-29.7204,-15.7518,34.0008,56.7486,37.8116,-34.5957,45.9714,-48.8291,0.64436,-27.1187,48.1178,-43.1649,23.6765,19.7152
4.69527,16.3672,27.7095,27.5523,-52.7976,-6.30642,-17.069,2.79612,-1.76539,-7.77773,3.71047,-0.148747,1.14884,1.79281,1.48571,-10.9904,-1.08274,0.676272,41.9236,-3.95514,2.03602,17.2227,-1.62033,0.00883828,-6.73694e-14,1.70955e-14,-130.964,-38.0699,73.8146,3.20645,133.81,13.3618,12.1149,7.12502,38.3074,-13.6,-6.73694e-14,1.70955e-14,-41.989,13.0913,65.1629,21.5089,-15.7432,28.4801,19.1043,7.12502,52.3354,39.0086,-29.8052,-15.2237,32.311,56.8883,38.5733,-33.6642,45.5744,-48.612,0.538381,-28.3056,47.9732,-44.4966,23.8361,20.5995
4.67963,16.3752,27.665,28.1937,-51.0669,-7.55644,-16.4973,2.40716,-1.13003,-7.74909,3.09676,0.283511,0.915225,1.48563,1.45183,-11.1641,-1.07941,0.748822,41.9494,-3.99196,2.08178,17.284,-1.61363,0.00797804,3.77008e-14,-1.90833e-14,-130.881,-37.9988,73.8901,2.85091,133.825,13.0722,12.0934,7.12502,38.0341,-13.6966,3.77008e-14,-1.90833e-14,-41.7741,12.9231,65.1016,21.3994,-15.4974,28.6369,19.4245,7.12502,52.4773,39.2423,-29.2675,-16.363,33.793,56.6303,37.9826,-34.0138,45.8605,-48.4379,0.469226,-27.1171,48.108,-43.472,23.5035,19.8317
4.67707,16.3768,27.6804,27.7553,-51.1424,-7.17509,-16.5319,2.34723,-1.31365,-7.66432,3.0515,0.167049,1.02124,1.46484,1.42947,-11.2605,-1.0259,0.806764,41.997,-3.96232,2.15055,17.3381,-1.58178,0.0322768,-1.14758e-13,1.78906e-14,-130.876,-38.1872,73.9397,2.76232,133.991,13.1271,12.6001,7.12502,38.0858,-13.1757,-1.14758e-13,1.78906e-14,-41.8362,13.2137,64.7247,21.4425,-15.7578,28.9959,19.7901,7.12502,52.802,39.407,-28.9946,-16.6527,33.3256,56.6123,37.6788,-34.1361,46.3334,-48.1761,0.370786,-27.435,48.1468,-43.6079,23.5151,19.7557
4.69173,16.3758,27.6556,28.5235,-51.119,-8.0568,-16.1538,2.30234,-1.07505,-7.85283,2.94277,0.420692,0.626016,1.41234,1.52153,-11.1746,-0.895356,0.804464,42.0078,-3.75951,2.14088,17.3182,-1.50461,0.063663,6.65059e-14,3.85642e-14,-130.865,-38.7593,73.8946,3.20748,134.159,13.3931,13.0456,7.12502,38.337,-12.6612,6.65059e-14,3.85642e-14,-42.2119,13.9884,64.0714,21.4195,-16.6075,29.2894,19.6873,7.12502,53.0669,39.1372,-29.1085,-15.8605,34.0483,56.4345,36.714,-35.7098,47.2451,-48.6196,0.277373,-26.6613,48.4208,-43.7551,23.6194,20.1488
4.69556,16.3749,27.6519,28.931,-51.074,-8.5834,-16.0614,2.35193,-0.807002,-7.93475,2.96489,0.509786,0.499543,1.41838,1.46154,-11.0942,-0.861104,0.57456,42.1001,-3.76094,2.40329,17.3655,-1.50948,0.225129,-1.77602e-14,-1.90833e-14,-130.641,-38.8742,73.9171,3.14395,134.273,13.1928,12.6406,7.12502,38.1479,-13.1183,-1.77602e-14,-1.90833e-14,-42.4078,14.2305,63.7214,21.2588,-17.2194,29.0242,19.1834,7.12502,52.8275,38.7843,-29.1061,-15.7422,34.4187,56.3954,36.9103,-35.5365,46.9911,-48.7625,0.280889,-26.2556,48.5503,-43.7727,23.7764,20.0974
4.69699,16.3751,27.6604,29.1369,-51.006,-8.92698,-16.1029,2.48381,-0.493627,-7.89822,3.09628,0.492062,0.574549,1.4752,1.29087,-11.2151,-0.922142,0.354605,42.2337,-3.90918,2.65197,17.493,-1.56877,0.352143,-4.58634e-14,-3.18055e-15,-130.486,-38.712,74.1425,2.85519,134.378,13.0422,12.7688,7.12502,38.0057,-13.0289,-4.58634e-14,-3.18055e-15,-42.359,14.6566,63.2781,20.9797,-17.9979,28.6427,18.828,7.12502,52.4826,38.6426,-28.9531,-15.9484,34.5843,56.3074,37.2784,-35.0255,46.6777,-48.7664,0.180496,-25.9717,48.7254,-43.992,23.7394,20.3137
4.70285,16.373,27.6686,28.979,-51.1967,-8.72601,-16.1393,2.58121,-0.53663,-7.86962,3.23466,0.362488,0.625855,1.54316,1.20423,-11.315,-0.945365,0.314553,42.2178,-3.98125,2.77593,17.518,-1.58466,0.403126,-3.40108e-14,-2.46493e-14,-130.586,-38.7351,74.4116,2.92882,134.471,13.1536,13.3955,7.12502,38.1109,-12.3734,-3.40108e-14,-2.46493e-14,-42.3135,14.922,62.9666,20.836,-18.3899,28.3564,18.8815,7.12502,52.2233,38.8536,-28.9641,-15.9594,34.2972,56.3711,37.0577,-35.2468,47.0406,-48.7647,0.107691,-26.1611,48.748,-44.027,23.9334,20.1784
4.69685,16.3712,27.668,28.9831,-50.8156,-8.92359,-16.0547,2.46938,-0.386848,-7.8299,3.06705,0.452229,0.630856,1.45791,1.18444,-11.4149,-0.92127,0.397276,42.2675,-3.95928,2.73813,17.5698,-1.56578,0.373559,-7.46561e-14,-2.38542e-14,-130.765,-39.0195,74.5881,3.35041,134.595,13.3182,13.7987,7.12502,38.2663,-11.9276,-7.46561e-14,-2.38542e-14,-42.2791,14.9239,62.7599,20.7147,-18.4368,28.4075,19.0234,7.12502,52.2697,38.9675,-28.7523,-16.2866,34.5134,56.3671,37.0529,-34.9548,46.9337,-48.6377,0.0899284,-25.9525,48.7631,-43.8327,23.8346,20.2989
4.71655,16.365,27.6845,28.5117,-51.3077,-8.30921,-16.0051,2.49354,-0.638673,-7.83223,3.13791,0.271868,0.597394,1.49658,1.14632,-11.5512,-0.869807,0.383387,42.3814,-3.88065,2.71434,17.6705,-1.53782,0.377399,1.15357e-14,1.78906e-14,-131.041,-39.5223,74.7671,4.0134,134.68,13.5278,14.0692,7.12502,38.4641,-11.6022,1.15357e-14,1.78906e-14,-42.2812,14.8597,62.6314,20.5924,-18.3741,28.557,19.2343,7.12502,52.405,39.0963,-29.0081,-16.2234,33.9376,56.7041,37.8079,-34.0208,46.2111,-48.5152,0.0302706,-26.5017,48.5299,-43.989,23.8849,20.7979
4.71197,16.3633,27.7036,28.0524,-51.1874,-8.02103,-16.0828,2.39817,-0.64071,-7.59644,3.02343,0.20496,0.894575,1.43846,1.06917,-11.7698,-0.813469,0.385002,42.3022,-3.8236,2.81152,17.6843,-1.49593,0.430233,-4.5208e-14,-2.62396e-14,-131.509,-39.8948,75.0712,4.34714,134.75,13.6633,13.9041,7.12502,38.5919,-11.7316,-4.5208e-14,-2.62396e-14,-42.1643,15.1919,62.2644,20.5503,-18.8838,28.4805,19.2667,7.12502,52.3358,39.1708,-28.7951,-17.1671,33.7597,56.893,39.6597,-31.1587,44.0566,-48.0766,-0.0193679,-26.7933,48.4215,-43.8149,24.0634,19.7949
4.72949,16.3604,27.7707,27.168,-53.0628,-6.6853,-16.5322,2.90514,-1.23302,-7.57551,3.78879,-0.403774,1.13645,1.81927,0.913535,-11.6702,-0.817408,0.441524,42.1709,-3.85107,2.86253,17.5822,-1.49233,0.439388,-1.32068e-14,-1.82882e-14,-131.169,-39.7466,75.0863,3.76381,134.902,13.2392,13.1605,7.12502,38.1917,-12.5863,-1.32068e-14,-1.82882e-14,-42.2404,15.2953,61.8828,20.4755,-19.6235,28.371,19.0021,7.12502,52.2366,38.9662,-28.9068,-15.6143,31.6564,57.3145,34.5451,-36.9295,49.0395,-47.8784,-0.220946,-28.062,48.2014,-45.1775,24.6969,20.3581
4.75534,16.3504,27.7428,27.9848,-52.6363,-7.63152,-15.4843,2.81795,-1.05215,-8.20458,3.61111,0.00872101,-0.0912567,1.74257,1.13932,-10.9976,-0.79594,0.208887,42.286,-3.73074,2.78016,17.4695,-1.50909,0.470045,-1.46604e-15,2.34566e-14,-129.918,-39.7976,74.7173,3.38285,135.095,13.1546,12.9372,7.12502,38.1118,-12.8315,-1.46604e-15,2.34566e-14,-43.0974,15.2539,61.5239,20.4209,-20.0938,28.3211,18.8398,7.12502,52.1914,38.831,-29.3145,-15.4879,32.806,57.347,36.3504,-35.5407,47.371,-48.3328,-0.470861,-27.1532,48.2977,-45.0531,24.8617,20.7829
4.75245,16.3484,27.7312,28.2428,-51.9932,-8.24677,-15.5874,2.63502,-0.523672,-7.86655,3.30961,0.224885,0.347855,1.58059,1.03941,-11.1624,-0.723764,-0.103882,42.0718,-3.55543,2.92489,17.3931,-1.46297,0.621958,-5.43365e-14,-2.46493e-14,-130.586,-40.4252,75.205,3.66971,135.115,13.4228,13.4584,7.12502,38.3651,-12.2405,-5.43365e-14,-2.46493e-14,-42.6986,15.5288,61.3892,20.3519,-20.0737,28.0758,19.1006,7.12502,51.9689,39.2247,-29.0747,-16.0726,33.5262,57.306,37.5358,-34.1815,46.1967,-48.1981,-0.55451,-26.5729,48.377,-44.773,24.6742,20.9508
4.74305,16.3551,27.7187,28.2392,-51.5838,-8.36676,-15.1283,2.63019,-0.748011,-7.95353,3.33832,0.12239,0.00706115,1.60406,1.03818,-11.5406,-0.883762,0.655834,42.1427,-3.97082,2.75562,17.5262,-1.52408,0.331243,6.30893e-14,2.3059e-14,-130.587,-39.8205,75.3504,3.47644,135.231,13.2801,13.3496,7.12502,38.2304,-12.3866,6.30893e-14,2.3059e-14,-42.2145,14.8154,61.2323,20.1032,-20.2198,27.6852,19.0683,7.12502,51.6143,39.4003,-28.9298,-16.4406,33.7602,57.2085,37.959,-33.6127,45.9102,-48.1384,-0.363477,-26.5091,48.4641,-44.2318,24.6471,20.6094
4.74541,16.3594,27.7048,28.5939,-51.8241,-8.58523,-15.153,2.79766,-0.847461,-7.94681,3.57589,-0.038585,0.0259342,1.72321,0.962104,-11.8787,-0.964365,1.00069,42.0956,-4.21731,2.80225,17.5896,-1.55389,0.24364,1.61581e-13,1.35174e-14,-130.651,-39.4616,75.5457,3.06326,135.366,13.046,12.7519,7.12502,38.0093,-13.0448,1.61581e-13,1.35174e-14,-41.6529,14.6168,60.849,19.8954,-20.7682,27.7531,18.9598,7.12502,51.676,39.256,-29.0352,-15.7333,33.6999,57.2004,35.1191,-36.8029,48.3986,-48.4206,0.150623,-26.5921,48.5163,-44.0353,24.5417,20.6644
4.76098,16.3512,27.7247,27.286,-51.2798,-7.44367,-14.8064,2.45094,-1.05273,-7.7451,3.15776,-0.155496,0.0616086,1.52073,0.884818,-12.0375,-0.866418,0.860431,42.0853,-4.04153,2.8549,17.6264,-1.49422,0.322962,2.46897e-14,-2.06736e-14,-130.722,-39.9128,75.7585,3.26466,135.457,13.1779,12.9292,7.12502,38.1339,-12.8335,2.46897e-14,-2.06736e-14,-41.6711,15.528,60.0048,19.7396,-22.0779,28.0634,18.8122,7.12502,51.9577,38.943,-28.8695,-16.8499,33.3025,57.2323,38.5836,-33.1066,45.3261,-47.9218,-0.0957298,-27.2848,48.4536,-43.4054,24.629,19.7987
4.7625,16.3559,27.7012,28.5555,-52.1536,-8.47432,-15.2023,2.65806,-0.980323,-7.77352,3.41151,0.109495,0.221404,1.64674,1.17433,-12.116,-0.716239,0.457134,41.9599,-3.73097,3.0132,17.5788,-1.40929,0.523416,7.05779e-14,-4.77083e-15,-130.966,-40.6885,76.0813,3.75375,135.499,13.4756,13.2257,7.12502,38.4149,-12.4595,7.05779e-14,-4.77083e-15,-41.7036,16.0372,59.6754,19.7803,-22.3526,28.13,19.2039,7.12502,52.0182,39.2988,-29.3166,-15.2466,33.5309,57.2437,36.1205,-36.5024,47.9292,-48.5891,0.717718,-26.957,48.5001,-43.5663,24.6138,19.8743
4.77432,16.3534,27.7092,28.9841,-52.4151,-8.6828,-15.4637,2.6868,-0.845321,-7.80405,3.4253,0.201626,0.328355,1.6486,1.20864,-12.0328,-0.624453,0.233391,41.8416,-3.50728,3.0235,17.4849,-1.35419,0.608403,-1.99468e-14,3.18055e-15,-130.833,-41.2051,76.2646,3.76713,135.562,13.5358,12.9238,7.12502,38.4717,-12.7455,-1.99468e-14,3.18055e-15,-41.8446,16.3111,59.3608,19.8188,-22.646,28.0171,19.39,7.12502,51.9157,39.5456,-29.7253,-14.9777,33.6399,57.2944,37.7874,-35.0512,46.7677,-48.8809,0.733276,-26.8941,48.4272,-43.7251,24.6116,20.4773
4.76267,16.3542,27.7237,28.5844,-52.2797,-8.16375,-15.5972,2.56339,-1.14062,-7.82388,3.30216,0.164685,0.365168,1.59336,1.32262,-11.9335,-0.605817,0.12342,41.8127,-3.48229,3.12198,17.4465,-1.3502,0.67844,5.18455e-14,2.14687e-14,-130.565,-41.2969,76.3351,3.72356,135.721,13.4742,12.6564,7.12502,38.4135,-13.0291,5.18455e-14,2.14687e-14,-41.9106,16.0976,59.1147,19.9163,-23.1277,28.3322,19.5486,7.12502,52.2014,39.5339,-29.6595,-15.7093,33.34,57.2184,39.8566,-32.295,44.6515,-48.7535,0.67543,-27.3256,48.4549,-43.6147,24.6308,20.2007
4.7794,16.343,27.8063,27.8494,-53.4895,-7.20473,-16.0509,2.94314,-1.12857,-7.71247,3.81382,-0.337132,0.741517,1.83428,0.89871,-12.125,-0.584151,0.250262,41.911,-3.4736,3.06441,17.5501,-1.33051,0.630104,4.74909e-15,0,-130.577,-41.4499,76.5135,3.92292,135.95,13.5829,12.8228,7.12502,38.5161,-12.8341,4.74909e-15,0,-41.7084,15.5663,59.0693,19.9509,-23.1797,28.5625,19.8972,7.12502,52.41,39.7561,-29.6119,-15.534,31.9885,57.2421,41.6056,-29.7852,42.9173,-48.4837,0.476883,-28.2862,48.4388,-44.8109,24.8143,20.8736
4.76201,16.3554,27.7445,28.8993,-51.9584,-8.56702,-15.5052,2.49822,-0.854234,-7.86022,3.17477,0.253816,0.293611,1.52392,1.23059,-12.1682,-0.537634,0.293337,41.9182,-3.4177,3.06816,17.5637,-1.29986,0.633688,6.16916e-14,-9.14409e-15,-130.177,-41.6186,76.5758,3.56943,136.146,13.6455,12.7572,7.12502,38.5751,-12.8832,6.16916e-14,-9.14409e-15,-41.6839,15.6603,58.5749,19.9227,-23.974,28.6261,19.9288,7.12502,52.4676,39.7526,-29.4554,-15.7381,33.5765,56.993,40.1442,-31.7554,44.5281,-48.7688,0.742909,-27.0876,48.5749,-43.5371,24.4417,20.004
4.76819,16.3518,27.7402,29.3564,-51.4689,-9.16566,-15.2195,2.4742,-0.441916,-7.97021,3.0849,0.387584,0.044725,1.47156,1.10982,-12.0366,-0.552449,0.256007,41.922,-3.43595,3.08525,17.5328,-1.31364,0.645847,9.41836e-14,7.55382e-15,-129.448,-41.4634,76.5777,2.63121,136.315,13.4388,12.1865,7.12502,38.3802,-13.5083,9.41836e-14,7.55382e-15,-41.5245,15.4265,58.2297,19.7106,-24.6914,28.2945,19.6572,7.12502,52.1672,39.663,-29.4529,-16.1795,34.3023,56.789,42.5969,-27.9469,41.0048,-48.9282,0.686051,-26.5534,48.7209,-43.4097,24.2094,19.8047
4.77244,16.3572,27.7462,29.039,-51.5092,-8.62613,-15.1954,2.4414,-0.766707,-8.04181,3.08415,0.269558,-0.0550198,1.47875,1.16563,-12.0216,-0.577062,0.313419,41.9348,-3.44768,2.98307,17.532,-1.32282,0.586618,-4.61367e-14,1.11319e-14,-129.377,-41.5615,76.849,2.71096,136.468,13.4683,11.6896,7.12502,38.408,-13.9974,-4.61367e-14,1.11319e-14,-41.2809,14.6606,58.2629,19.6233,-24.767,27.9117,19.7411,7.12502,51.82,39.953,-29.4525,-15.92,33.7557,56.6931,40.184,-31.6152,44.7299,-49.0075,0.747323,-27.0104,48.717,-43.1412,24.2116,19.2237
4.77257,16.3509,27.7608,28.957,-51.5032,-8.50767,-15.2497,2.47043,-0.801004,-8.00949,3.12929,0.216453,0.00779497,1.50125,1.13938,-12.075,-0.591089,0.362755,41.8581,-3.44663,2.9253,17.4982,-1.31944,0.550981,-6.50927e-14,-4.65156e-14,-129.478,-41.655,77.1908,2.98362,136.721,13.4899,11.4471,7.12502,38.4284,-14.2343,-6.50927e-14,-4.65156e-14,-41.0062,14.3662,58.0227,19.5904,-25.3075,27.9436,19.9319,7.12502,51.849,40.1268,-29.5087,-16.512,33.9377,56.5018,44.8232,-23.5209,36.4916,-48.9805,0.634345,-27.1203,48.7563,-43.2584,24.1108,19.5626
4.75454,16.371,27.8022,28.4091,-51.5925,-7.97683,-15.5696,2.46086,-0.911451,-7.85028,3.13749,0.14086,0.342433,1.50481,1.14242,-11.9783,-0.568157,0.186296,41.7388,-3.32412,2.89537,17.4012,-1.30173,0.59132,-2.28012e-14,-4.57205e-14,-128.932,-41.7309,77.3899,2.40291,137.014,13.3632,10.9168,7.12502,38.3087,-14.7977,-2.28012e-14,-4.57205e-14,-40.8489,14.328,57.6629,19.4564,-25.8145,27.7579,19.826,7.12502,51.6804,40.1196,-28.8726,-16.3005,32.8045,56.4569,40.3174,-30.7234,44.5996,-48.3982,0.475076,-27.5905,48.5646,-43.4576,24.0391,19.6049
4.76902,16.3629,27.7782,28.8742,-51.1788,-8.44977,-15.1323,2.37552,-0.741858,-8.06168,2.99295,0.370541,-0.111332,1.43513,1.24047,-11.8758,-0.558355,-0.0588028,41.7948,-3.21898,2.85393,17.4056,-1.30562,0.636269,-4.16392e-14,1.03368e-14,-128.486,-41.9444,77.5739,2.4571,137.116,13.4644,11.0523,7.12502,38.4043,-14.6358,-4.16392e-14,1.03368e-14,-40.9848,14.9368,56.7815,19.4362,-26.7586,27.5485,20.075,7.12502,51.4901,40.4787,-29.1402,-16.3483,33.6456,56.2371,42.7559,-27.286,40.8906,-48.7217,0.223719,-27.0171,48.5816,-43.4079,23.6963,20.5825
4.76511,16.3719,27.7997,28.7368,-51.1376,-8.3357,-15.1607,2.36234,-0.674272,-8.06601,2.96646,0.359653,-0.0959773,1.41914,1.18855,-11.8022,-0.536515,-0.122164,41.7459,-3.14581,2.82367,17.3556,-1.29084,0.646954,1.05853e-14,1.59028e-14,-128.44,-42.2399,77.8096,3.02615,137.255,13.5101,11.2969,7.12502,38.4474,-14.3792,1.05853e-14,1.59028e-14,-41.1015,15.2229,56.0099,19.603,-27.4317,27.506,20.4637,7.12502,51.4514,40.8896,-28.8211,-16.312,33.2205,56.1213,40.6097,-30.4999,44.3237,-48.4517,0.0714719,-27.1114,48.4442,-43.4266,23.685,20.1554
4.76098,16.3713,27.8173,28.5113,-51.242,-8.1187,-15.1754,2.33911,-0.835767,-8.03395,2.95764,0.36027,-0.062837,1.41965,1.27988,-11.6661,-0.489341,-0.252794,41.5907,-3.04427,2.89466,17.2315,-1.26138,0.720757,1.89405e-14,7.95139e-16,-128.43,-42.589,78.1173,3.44868,137.336,13.5441,10.7214,7.12502,38.4795,-14.9457,1.89405e-14,7.95139e-16,-41.0429,15.1961,55.4844,19.5297,-27.9256,27.6505,20.5359,7.12502,51.5827,40.8862,-28.7071,-16.9304,33.1199,55.91,43.8352,-24.9536,39.0607,-48.2838,-0.0626189,-27.301,48.4677,-43.4157,23.9297,19.5779
4.76738,16.3842,27.802,28.6091,-51.1854,-8.21414,-14.811,2.31099,-1.00005,-8.14498,2.93785,0.475424,-0.387162,1.4205,1.47069,-11.4515,-0.47305,-0.638884,41.4073,-2.99719,3.17129,17.083,-1.26732,0.924524,-6.00081e-14,-4.21423e-14,-128.333,-42.8675,78.4987,3.73766,137.327,13.637,10.4048,7.12502,38.5672,-15.2378,-6.00081e-14,-4.21423e-14,-40.8617,15.0012,55.085,19.2358,-28.2234,27.5701,20.4968,7.12502,51.5097,40.8893,-28.7298,-16.3091,33.1414,55.8457,41.7686,-29.1408,42.9974,-48.3538,-0.17155,-27.1029,48.3887,-43.3469,24.0132,19.4804
4.78276,16.3861,27.7755,29.021,-50.9544,-8.65855,-14.2653,2.32419,-0.937752,-8.32226,2.94331,0.631691,-0.868866,1.42946,1.57131,-11.4398,-0.536161,-1.04635,41.4047,-3.07842,3.43304,17.0951,-1.32898,1.10374,3.7943e-14,1.98785e-14,-128.528,-43.1976,79.1011,4.59091,137.466,14.1072,11.0263,7.12502,39.0106,-14.4907,3.7943e-14,1.98785e-14,-40.6931,15.0257,54.511,19.1001,-28.6348,27.3966,20.6613,7.12502,51.3518,41.1442,-29.0245,-16.3002,33.9409,55.7068,43.9593,-25.8358,39.2923,-48.6599,-0.283501,-26.5829,48.4122,-43.0629,24.1128,19.2935
4.79318,16.3994,27.7739,29.2452,-51.2917,-8.66902,-14.1095,2.45901,-1.10483,-8.49154,3.13568,0.582176,-1.14462,1.53243,1.62619,-11.4828,-0.595781,-1.24656,41.5094,-3.1754,3.56529,17.1772,-1.38275,1.18487,4.61118e-14,-2.46493e-14,-128.62,-43.4569,79.565,5.30699,137.799,14.322,11.2167,7.12502,39.2131,-14.2419,4.61118e-14,-2.46493e-14,-40.5291,14.6963,54.0433,18.9906,-28.9391,27.2445,20.8272,7.12502,51.2135,41.3886,-29.259,-15.3759,33.801,55.6903,42.1339,-29.4574,42.6059,-48.9029,-0.374775,-26.533,48.3446,-43.0914,24.2896,19.1548
4.79164,16.406,27.787,29.2157,-51.2052,-8.46409,-14.1897,2.50521,-1.17247,-8.55683,3.20371,0.452527,-1.17016,1.56584,1.53943,-11.4038,-0.677544,-1.1094,41.4074,-3.31253,3.52113,17.1012,-1.42253,1.11538,8.79746e-14,2.06736e-14,-128.56,-43.3956,79.9245,5.55475,138.328,14.3249,10.9755,7.12502,39.2158,-14.4824,8.79746e-14,2.06736e-14,-40.1396,14.4448,53.4007,18.7705,-29.616,27.1608,20.9296,7.12502,51.1372,41.5341,-29.2638,-15.6661,33.7423,55.5193,42.5757,-28.4883,41.8005,-48.9621,-0.343804,-26.7394,48.3538,-42.7643,24.1768,18.5934
4.78638,16.4295,27.7978,29.6209,-50.9131,-9.00745,-14.1871,2.52754,-0.733286,-8.50065,3.18478,0.494613,-1.08769,1.54094,1.33678,-11.517,-0.669466,-0.787855,41.3066,-3.29078,3.30624,17.0603,-1.38769,0.961855,3.95395e-14,2.50469e-14,-128.986,-43.7132,80.4253,6.26186,138.881,14.7253,11.1955,7.12502,39.593,-14.152,3.95395e-14,2.50469e-14,-39.7061,14.2431,52.7702,18.65,-29.9767,26.832,20.9772,7.12502,50.8376,41.7488,-28.9506,-15.4227,33.9224,55.39,38.7779,-33.6079,46.6355,-48.8386,-0.319688,-26.2887,48.3041,-42.4574,24.1057,18.0987
4.78339,16.4319,27.804,29.8485,-51.1297,-9.06328,-14.4259,2.42013,-0.848915,-8.43359,3.05484,0.539364,-0.895692,1.47856,1.44401,-11.8289,-0.516334,-0.570722,41.3134,-3.01038,3.05374,17.1234,-1.26768,0.854961,-2.11519e-15,5.1684e-15,-129.482,-44.6072,80.833,7.07237,139.4,15.0735,11.6472,7.12502,39.9209,-13.6027,-2.11519e-15,5.1684e-15,-39.5452,14.4505,51.8947,18.3845,-30.1751,26.4737,21.0381,7.12502,50.5106,41.9885,-29.0959,-15.6184,34.1168,55.1211,41.7183,-29.7666,43.1109,-49.0192,-0.518301,-26.1234,48.3651,-42.6818,23.8737,18.2933
4.78354,16.4454,27.7989,29.7923,-51.2167,-8.87462,-14.3441,2.43444,-1.06272,-8.4308,3.1016,0.421156,-0.942658,1.50809,1.44303,-12.0553,-0.522839,-0.46405,41.2034,-3.07864,3.15749,17.1238,-1.25835,0.869426,-1.15905e-13,-3.1408e-14,-129.983,-44.9182,81.4667,7.88539,139.882,15.2907,12.0699,7.12502,40.1252,-13.1182,-1.15905e-13,-3.1408e-14,-39.0399,14.132,51.315,18.1295,-30.2625,26.2916,21.3368,7.12502,50.3443,42.3769,-29.0757,-15.1108,33.8913,55.0083,39.1325,-33.3231,46.0299,-49.0435,-0.588134,-26.1411,48.2703,-42.4134,23.7266,17.7487
4.77846,16.4506,27.8134,29.979,-51.1691,-9.07337,-14.3334,2.78614,-0.772123,-8.46055,3.53665,0.111599,-0.955004,1.71011,1.01329,-12.1622,-0.768313,-0.170406,41.129,-3.58031,3.2704,17.1265,-1.39632,0.779486,-3.90053e-14,2.8625e-14,-130.65,-44.4488,82.3755,8.98722,140.518,15.4695,12.4551,7.12502,40.2934,-12.6818,-3.90053e-14,2.8625e-14,-38.1383,13.7356,50.6316,17.91,-31.0723,26.4202,21.5651,7.12502,50.4618,42.542,-29.0033,-15.3375,34.139,54.8829,41.3509,-29.805,42.9109,-48.929,-0.379301,-26.0426,48.202,-41.9398,23.4918,16.0827
4.751,16.4639,27.8694,28.819,-51.434,-7.46262,-15.0532,2.72921,-1.5122,-8.36816,3.55832,-0.242969,-0.502869,1.73302,1.09955,-11.9178,-0.771642,-0.278885,40.9768,-3.54801,3.31105,16.9796,-1.39736,0.823747,-3.45295e-14,1.31198e-14,-130.865,-44.7488,82.9871,9.67574,140.861,15.7199,12.2078,7.12502,40.5289,-12.8565,-3.45295e-14,1.31198e-14,-37.9791,13.759,49.8549,17.875,-32.0026,26.7208,21.4928,7.12502,50.7362,42.3203,-28.7418,-16.5206,32.6924,54.8425,42.1791,-26.8338,41.042,-48.3765,-0.264662,-27.4922,47.9683,-41.5474,23.0316,14.622
4.76945,16.4781,27.8313,28.5982,-51.9647,-6.85897,-14.6508,2.42528,-2.5164,-8.62225,3.25846,0.0123557,-1.05533,1.62914,1.85883,-11.5865,-0.493217,-0.722524,40.8899,-2.94875,3.23656,16.828,-1.23825,0.97379,-2.1475e-14,-7.55382e-15,-130.846,-46.22,83.3768,10.1347,141.158,15.8653,11.7353,7.12502,40.6656,-13.2865,-2.1475e-14,-7.55382e-15,-38.6923,14.8692,48.4972,17.6927,-33.3756,26.6359,21.0222,7.12502,50.6587,41.8921,-29.2764,-14.9197,32.4288,54.8842,40.7602,-29.511,42.9772,-48.7878,-0.278022,-27.7013,47.869,-41.1649,22.9834,15.1308
4.74957,16.4926,27.8882,29.1631,-51.9755,-7.53781,-15.2991,2.4548,-1.7842,-8.51275,3.21383,0.178193,-0.560019,1.5749,1.6499,-11.4787,-0.353948,-0.887883,40.9063,-2.65839,3.16189,16.7985,-1.158,1.01978,-7.08698e-14,-2.38542e-15,-133.011,-45.4528,86.5383,10.8745,144.23,15.5967,11.8126,7.12502,40.4131,-13.2875,-7.08698e-14,-2.38542e-15,-38.9676,15.0678,47.64,17.572,-33.6087,26.1696,20.9896,7.12502,50.2327,42.0893,-28.7377,-15.307,32.4574,54.6815,39.5585,-30.0713,44.8631,-48.4256,-0.412441,-27.2342,47.849,-41.0536,22.9438,14.8962
4.77325,16.4988,27.8195,29.6529,-51.226,-8.28947,-14.0604,2.31801,-1.69029,-8.79083,3.00562,0.404803,-1.50757,1.4869,1.74301,-11.4956,-0.390404,-0.705729,40.8964,-2.73338,3.08261,16.796,-1.17049,0.93831,3.10042e-14,3.33958e-14,-134.124,-44.7853,88.2642,11.5501,145.913,15.5482,12.3477,7.12502,40.3674,-12.7664,3.10042e-14,3.33958e-14,-38.7074,15.0203,46.7691,17.4722,-33.4514,26.1138,21.4216,7.12502,50.1817,42.5484,-28.8805,-14.4204,33.5999,54.61,37.0815,-33.5132,47.236,-48.709,-0.375354,-26.2604,47.8748,-39.4666,22.8684,13.7736
4.77986,16.501,27.7945,29.6552,-51.064,-8.37483,-13.438,2.24589,-1.84908,-8.94031,2.91936,0.388496,-2.00144,1.45663,1.77425,-11.478,-0.348013,-0.344722,40.8091,-2.72685,2.98508,16.7363,-1.1247,0.829417,-5.85669e-14,-2.66371e-14,-135.357,-44.0395,90.0854,12.1138,147.632,15.2943,12.5293,7.12502,40.1286,-12.6578,-5.85669e-14,-2.66371e-14,-38.5636,15.2314,45.5658,17.409,-33.5793,25.998,21.6174,7.12502,50.0758,42.8003,-28.8049,-13.9506,33.8676,54.4363,36.0342,-34.6118,47.9398,-48.7046,-0.575496,-25.8604,47.8974,-39.0586,22.283,13.7018
4.76029,16.5136,27.807,28.844,-51.1161,-7.28367,-13.6081,2.06105,-2.59468,-8.94473,2.75471,0.2585,-1.94317,1.40085,2.04477,-11.2968,-0.293232,-0.450063,40.7383,-2.60315,2.98297,16.6482,-1.0928,0.868339,3.38307e-14,1.19271e-14,-136.362,-43.5163,91.9818,12.4262,149.295,14.9987,12.3846,7.12502,39.8504,-12.8864,3.38307e-14,1.19271e-14,-38.6423,15.8109,44.324,17.3787,-34.0501,25.8213,21.5186,7.12502,49.9141,42.7863,-28.6927,-14.5341,33.0584,54.4096,36.0436,-33.9701,47.6649,-48.3604,-0.520214,-26.6357,47.7711,-38.5418,21.3528,13.8583
4.73271,16.5152,27.8639,28.8524,-51.4483,-7.20468,-14.3169,2.30856,-2.40793,-8.898,3.07277,0.169474,-1.51887,1.54219,1.91566,-11.0344,-0.380508,-0.911121,40.7209,-2.67945,3.17823,16.5848,-1.17235,1.02709,-4.96651e-14,-1.90833e-14,-137.651,-42.2862,94.663,12.8577,151.551,14.5086,12.3451,7.12502,39.3889,-13.0624,-4.96651e-14,-1.90833e-14,-38.4859,16.0424,43.527,17.3035,-34.0081,25.6307,21.8069,7.12502,49.7396,43.1654,-28.4019,-15.6511,32.7243,54.2601,39.816,-28.0244,42.727,-47.9205,-0.198128,-26.9989,47.7074,-38.2014,20.9379,12.554
4.7273,16.5296,27.8554,28.8407,-51.2499,-7.26492,-14.0527,2.26006,-2.45836,-8.95079,3.00917,0.209631,-1.71701,1.51717,1.96501,-11.0373,-0.38225,-0.942939,40.6649,-2.68417,3.22547,16.5565,-1.17166,1.05269,4.04216e-14,5.24792e-14,-139.082,-41.3208,96.93,13.4608,153.36,14.0607,12.2386,7.12502,38.9668,-13.2909,4.04216e-14,5.24792e-14,-38.4453,16.734,42.2888,17.3055,-34.2925,25.3115,21.9838,7.12502,49.447,43.4921,-28.2438,-15.1246,32.7895,54.2373,37.3031,-31.191,45.3406,-47.7344,-0.334655,-26.7151,47.5714,-37.2158,21.3346,9.68575
4.73151,16.5315,27.8376,28.7986,-51.6403,-7.0686,-13.8826,2.37466,-2.85202,-8.98467,3.2003,0.0619609,-1.86985,1.6289,2.04422,-11.0963,-0.45208,-1.01865,40.5604,-2.81803,3.37992,16.5244,-1.215,1.11178,-1.06493e-13,-2.78299e-14,-139.864,-40.9244,98.1354,13.7652,154.003,13.8081,11.923,7.12502,38.7285,-13.6742,-1.06493e-13,-2.78299e-14,-38.0317,17.2596,41.1929,17.247,-34.2291,25.019,22.0443,7.12502,49.1786,43.6879,-28.4677,-14.5156,32.8362,54.1208,38.6183,-29.6566,43.0421,-47.9,-0.858745,-26.453,47.5861,-36.8999,21.7011,8.33739
4.7261,16.5451,27.8132,28.7061,-51.6745,-6.71854,-13.7722,2.42547,-3.36957,-9.08053,3.31767,-0.00118419,-2.06917,1.71288,2.272,-10.865,-0.592699,-1.40064,40.3667,-2.98797,3.59139,16.3789,-1.3158,1.24541,-2.41151e-14,7.95139e-15,-140.49,-40.3758,99.5405,13.96,154.491,13.5135,11.4176,7.12502,38.4506,-14.2576,-2.41151e-14,7.95139e-15,-37.4741,17.2826,40.6416,17.2454,-33.5143,24.8263,22.1962,7.12502,49.0016,43.9278,-28.6669,-13.9747,32.6441,54.146,35.674,-33.2279,46.0829,-48.0327,-1.04344,-26.4154,47.5118,-36.4787,21.1573,8.06788
4.7159,16.5475,27.8161,29.394,-51.5134,-7.37053,-13.8811,2.53833,-3.00872,-9.19634,3.42501,0.114834,-2.12492,1.75496,2.20514,-10.5878,-0.600211,-1.55622,40.2239,-2.92772,3.5591,16.2315,-1.32073,1.26846,-3.37748e-14,-1.43125e-14,-141.742,-39.4097,101.655,14.4496,155.749,13.1711,10.921,7.12502,38.1275,-14.8434,-3.37748e-14,-1.43125e-14,-37.409,18.0727,39.5111,17.2364,-33.5922,24.7527,21.8928,7.12502,48.934,43.6578,-28.7996,-14.2185,33.2633,54.0687,37.6565,-30.5768,43.4961,-48.1209,-1.07289,-25.7855,47.4916,-36.433,20.1679,8.51569
4.71108,16.5508,27.8228,29.5892,-51.955,-7.34035,-13.953,2.67434,-3.1583,-9.36336,3.61196,0.0399244,-2.28346,1.85504,2.22902,-10.3782,-0.549101,-1.51892,40.1439,-2.80465,3.43798,16.1278,-1.28229,1.22801,-3.70236e-15,2.82274e-14,-142.789,-38.6073,103.514,14.8357,156.615,12.8459,10.9137,7.12502,37.8203,-14.9342,-3.70236e-15,2.82274e-14,-37.5377,18.6921,38.3217,17.3906,-32.9806,24.5382,21.8497,7.12502,48.7368,43.7113,-28.9159,-13.5611,33.0434,54.1036,35.5704,-33.0657,45.6448,-48.2111,-1.04906,-25.7146,47.4082,-36.5054,19.5205,8.78055
4.71289,16.5495,27.8184,29.0608,-52.516,-6.44086,-13.9437,2.68666,-3.85891,-9.43917,3.69651,-0.225021,-2.4098,1.92354,2.34854,-10.5041,-0.516016,-1.42744,40.1312,-2.77754,3.44848,16.15,-1.25315,1.22006,2.80908e-14,1.51076e-14,-142.24,-39.5552,103.078,14.5368,154.583,12.9129,11.0525,7.12502,37.8836,-14.7783,2.80908e-14,1.51076e-14,-37.5845,19.4741,37.0057,17.6534,-31.9718,24.2264,22.2016,7.12502,48.45,44.2017,-29.1789,-12.9817,32.3487,54.1669,33.977,-34.3922,46.4608,-48.2729,-1.17291,-26.2304,47.3443,-36.5051,18.9575,8.93513
4.70794,16.5447,27.8232,29.46,-52.3516,-6.9443,-14.0445,2.69618,-3.36722,-9.31149,3.66664,-0.239845,-2.17828,1.8811,2.06624,-10.7382,-0.469881,-1.31624,40.003,-2.73804,3.49659,16.1378,-1.20748,1.22551,-1.30452e-16,1.66979e-14,-142.48,-40.0048,103.282,14.3275,152.809,12.846,10.9122,7.12502,37.8204,-14.9356,-1.30452e-16,1.66979e-14,-37.5019,20.5326,35.6029,17.8329,-30.7783,23.9585,22.2902,7.12502,48.2033,44.4076,-29.0776,-13.1411,32.7851,54.1007,34.6951,-33.0646,45.2863,-48.1621,-1.30285,-25.7482,47.3533,-36.3748,18.7035,7.74492
4.7017,16.5359,27.8377,30.2309,-52.3261,-7.76018,-14.3418,2.74384,-2.74495,-9.2483,3.66927,-0.146815,-1.91386,1.8519,1.83509,-10.7478,-0.355606,-1.18266,39.8564,-2.53813,3.37718,16.0499,-1.11828,1.17955,4.19933e-14,4.6118e-14,-144.804,-38.2852,106.252,14.841,153.933,12.0223,10.9803,7.12502,37.0418,-15.0733,4.19933e-14,4.6118e-14,-37.7394,21.8952,34.015,17.9567,-29.0683,23.4507,22.5239,7.12502,47.735,44.8594,-29.057,-13.2381,33.3385,54.0169,37.2194,-31.1459,42.5352,-48.1727,-1.58231,-25.0353,47.3467,-36.7423,18.4316,7.71886
4.68802,16.53,27.8627,30.6496,-52.5462,-8.14171,-14.7275,2.75873,-2.43892,-9.22341,3.65803,-0.117152,-1.66326,1.82787,1.71541,-10.6702,-0.228953,-1.07425,39.7757,-2.30757,3.21729,15.9747,-1.02896,1.12601,-3.43338e-14,-2.38542e-15,-146.57,-37.0425,108.57,15.2596,154.316,11.1973,11.0633,7.12502,36.261,-15.1886,-3.43338e-14,-2.38542e-15,-38.5683,24.3571,31.5788,18.1553,-28.1069,22.5972,22.5403,7.12502,46.9464,45.23,-28.9144,-13.3075,33.3847,53.9082,37.5308,-30.179,41.7901,-48.0774,-1.9278,-24.692,47.3542,-37.3418,18.3541,8.25124
4.66155,16.5268,27.9039,30.0807,-52.8712,-7.38605,-15.3335,2.76066,-2.69005,-9.05569,3.70906,-0.351071,-1.1697,1.84835,1.65566,-10.6378,-0.218761,-1.05024,39.6252,-2.26413,3.16736,15.885,-1.01247,1.10524,-7.36435e-14,-1.11319e-14,-147.204,-36.8603,109.377,15.3819,152.32,10.4797,11.0951,7.12502,35.5812,-15.3232,-7.36435e-14,-1.11319e-14,-39.3582,27.0723,29.13,18.6724,-27.19,21.9178,22.3866,7.12502,46.3173,45.3478,-28.6398,-14.1159,32.4826,53.9471,36.8369,-29.724,42.4172,-47.6208,-2.03244,-25.4059,47.2233,-37.579,18.2347,8.14645
4.65077,16.5206,27.9156,30.3868,-52.9535,-7.53633,-15.6461,2.91183,-2.55235,-9.05394,3.89691,-0.401295,-0.999409,1.93262,1.5688,-10.4932,-0.279581,-1.30644,39.3885,-2.31418,3.3034,15.7336,-1.05111,1.20038,5.83309e-15,-3.18055e-15,-146.996,-37.3124,109.373,15.1706,148.76,9.85737,11.1006,7.12502,34.9911,-15.4576,5.83309e-15,-3.18055e-15,-39.6681,28.6727,27.7234,19.2621,-24.5675,21.4194,22.7777,7.12502,45.855,45.9323,-28.7087,-14.2616,32.4603,54.0429,35.3466,-31.0913,43.9675,-47.6302,-2.15802,-25.2968,47.0958,-37.5941,18.5059,7.64976
4.64142,16.5098,27.9174,30.5415,-53.2045,-7.59386,-15.7724,3.04119,-2.58514,-9.06877,4.07352,-0.498778,-0.952521,2.0188,1.51628,-10.3973,-0.308664,-1.47859,39.1186,-2.39367,3.57972,15.5817,-1.07071,1.33487,-5.52404e-14,-2.06736e-14,-145.937,-38.9476,107.997,14.5788,143.32,9.29974,10.7259,7.12502,34.4619,-15.9542,-5.52404e-14,-2.06736e-14,-39.7968,29.8487,26.4481,19.5175,-21.1169,21.311,23.5571,7.12502,45.7544,46.7532,-28.7035,-13.9514,32.2544,54.1833,32.5722,-33.7837,46.3264,-47.5558,-2.5793,-25.1246,46.9522,-38.1397,18.5106,8.538
4.6329,16.4894,27.928,30.5919,-53.4945,-7.64891,-15.8098,3.13467,-2.54065,-9.07171,4.19153,-0.615875,-0.928605,2.0724,1.38795,-10.4683,-0.262595,-1.38144,38.9982,-2.37799,3.68624,15.5377,-1.03296,1.36389,-2.93363e-14,1.27222e-14,-144.913,-40.5512,106.579,14.1384,138.044,8.71139,10.9307,7.12502,33.9031,-15.8745,-2.93363e-14,1.27222e-14,-40.1163,31.0781,24.9564,19.6622,-17.3894,21.2416,24.5066,7.12502,45.6899,47.7292,-28.797,-14.5818,32.38,54.2373,36.6112,-28.85,42.2367,-47.4537,-2.79364,-25.0987,46.9449,-38.8613,18.2339,10.3889
4.61994,16.4802,27.9451,30.8816,-53.6141,-8.02549,-15.8714,3.32365,-2.21094,-9.08833,4.39817,-0.678417,-0.890487,2.1613,1.17165,-10.4296,-0.297364,-1.47522,38.9247,-2.459,3.8471,15.4986,-1.05872,1.43624,6.31825e-14,2.38542e-14,-143.812,-41.7707,105.352,13.6825,132.61,7.836,11.2704,7.12502,33.0711,-15.7148,6.31825e-14,2.38542e-14,-40.4556,32.1451,23.8347,19.9685,-13.5954,20.5665,25.101,7.12502,45.0625,48.576,-28.5258,-14.649,32.3456,54.2209,35.4643,-29.934,43.6163,-47.3634,-2.67874,-24.9753,47.0102,-39.2374,18.047,11.1223
4.60966,16.4758,27.9469,31.4985,-53.5102,-8.8066,-15.8536,3.41048,-1.75187,-9.04298,4.45428,-0.584612,-0.823051,2.17454,1.0232,-10.509,-0.288395,-1.37209,38.8344,-2.42603,3.75629,15.4676,-1.03867,1.38261,-2.86343e-14,-3.65764e-14,-142.79,-43.2951,103.811,12.954,126.031,6.22916,10.8289,7.12502,31.5417,-16.4679,-2.86343e-14,-3.65764e-14,-41.3312,34.1032,22.1441,20.3948,-10.3293,19.4135,24.835,7.12502,43.9884,48.7222,-28.2066,-14.3004,32.6181,54.1114,32.417,-33.0878,46.2778,-47.451,-2.66343,-24.4021,47.1969,-39.6817,17.8714,12.2124
4.60368,16.4658,27.9425,31.8043,-53.6164,-9.18966,-15.6812,3.36294,-1.73599,-9.09481,4.38329,-0.458374,-0.975391,2.14287,1.12303,-10.5209,-0.204461,-1.27372,38.7736,-2.26179,3.60288,15.4288,-0.975331,1.32378,-1.53903e-14,-1.66979e-14,-141.745,-44.9509,102.239,12.324,119.613,4.34763,10.5355,7.12502,29.7475,-17.0972,-1.53903e-14,-1.66979e-14,-42.8816,36.751,19.5358,20.7255,-7.41535,18.3898,24.8083,7.12502,43.0322,49.0429,-28.2207,-14.463,32.9236,53.9832,34.988,-30.5631,43.9343,-47.5815,-2.73123,-24.1207,47.4292,-40.0646,18.1209,12.6119
4.59361,16.4598,27.9462,32.3451,-53.6263,-9.89854,-15.6247,3.48418,-1.37167,-9.13139,4.49304,-0.352866,-1.02647,2.18705,1.04083,-10.4693,-0.224887,-1.27577,38.7143,-2.26884,3.55549,15.3859,-0.984963,1.30193,3.92662e-14,2.22639e-14,-141.33,-45.6049,101.599,12.1656,114.279,2.53398,10.9668,7.12502,28.0152,-16.962,3.92662e-14,2.22639e-14,-44.181,39.173,17.2999,21.0847,-4.54511,17.444,24.6102,7.12502,42.147,49.1508,-28.022,-14.4682,33.2864,53.8329,35.2902,-30.247,43.6694,-47.6416,-2.91576,-23.5946,47.6829,-40.4106,18.3228,13.8879
4.5802,16.4569,27.9557,32.5358,-53.5866,-10.3162,-15.5542,3.62095,-1.02222,-9.09839,4.63164,-0.407149,-0.997869,2.24254,0.806783,-10.2684,-0.278738,-1.38504,38.4634,-2.43128,3.88987,15.2263,-1.02617,1.43502,3.64397e-14,1.43125e-14,-142.706,-44.2346,103.104,12.2994,111.542,0.353911,12.2813,7.12502,25.9293,-15.9703,3.64397e-14,1.43125e-14,-44.7928,40.6209,16.1283,21.5648,-1.03162,16.0813,23.8742,7.12502,40.8685,48.8323,-27.7273,-14.7374,33.4595,53.7635,36.1493,-28.9057,43.2697,-47.5167,-3.12892,-23.2554,47.8645,-40.5197,18.8717,14.1077
4.5728,16.4513,27.9587,32.2554,-53.778,-10.0947,-15.3751,3.59283,-1.21579,-9.12161,4.61842,-0.479216,-1.12582,2.24276,0.824879,-9.86097,-0.202768,-1.50739,38.1302,-2.3814,4.1958,14.9694,-0.987436,1.58784,-5.01931e-14,3.18055e-15,-146.1,-40.842,106.976,13.0012,111.81,-1.88638,14.4337,7.12502,23.7824,-14.1144,-5.01931e-14,3.18055e-15,-46.1755,42.4475,14.2388,22.1479,1.64592,15.5551,23.4174,7.12502,40.3739,48.5295,-27.6504,-14.9092,33.2041,53.8564,37.1295,-27.3803,42.3902,-47.4199,-3.36443,-23.3702,47.9417,-40.5388,19.3401,14.9417
4.56675,16.4457,27.9576,31.9624,-54.2016,-9.58984,-15.3356,3.55675,-1.77685,-9.26496,4.6319,-0.526489,-1.34376,2.27077,1.07973,-9.48694,-0.159244,-1.73783,37.9816,-2.32011,4.37036,14.811,-0.978116,1.70818,3.1321e-14,-7.95139e-15,-147.768,-39.1623,108.714,13.4416,109.933,-4.11369,16.4065,7.12502,21.6448,-12.4036,3.1321e-14,-7.95139e-15,-47.9755,44.2746,12.2148,22.7004,4.10056,15.0371,23.3176,7.12502,39.8865,48.5778,-27.8992,-14.8365,32.6843,54.1249,37.1376,-27.3905,42.8013,-47.4727,-3.43403,-23.7731,47.889,-40.6758,19.2637,17.1455
4.55325,16.4429,27.9507,31.9878,-55.0177,-9.20008,-15.595,3.64041,-2.5886,-9.43187,4.83427,-0.571109,-1.46378,2.40316,1.51891,-9.24704,-0.199362,-1.98118,37.9202,-2.36388,4.48188,14.7314,-1.02175,1.79038,1.42156e-13,1.27222e-14,-146.466,-41.2329,106.411,12.8887,102.48,-6.96307,17.2208,7.12502,18.9063,-11.8804,1.42156e-13,1.27222e-14,-49.5084,45.9366,10.6698,23.1373,6.94021,13.1951,22.3791,7.12502,38.1501,48.1373,-28.4326,-14.5792,32.0837,54.4938,37.0836,-27.7392,43.3023,-47.7337,-3.23153,-24.2641,47.8213,-40.9758,19.2047,19.2755
4.5523,16.4345,27.953,30.8121,-55.0959,-8.01328,-15.2871,3.50293,-3.26814,-9.40191,4.73451,-0.712343,-1.63734,2.3819,1.71542,-9.04261,-0.184922,-1.98864,37.6932,-2.30699,4.44031,14.5707,-1.00393,1.77797,-6.21202e-16,-3.97569e-14,-143.164,-45.3733,101.245,12.0605,91.968,-9.83199,18.0536,7.12502,16.1454,-11.2939,-6.21202e-16,-3.97569e-14,-50.758,47.3074,9.70948,23.8842,10.1137,11.1472,21.6065,7.12502,36.2136,47.8702,-28.4856,-15.2153,31.3008,54.8838,37.0427,-28.1419,43.6626,-47.4779,-3.6092,-24.9459,47.7584,-40.9582,19.4102,19.889
4.55438,16.4322,27.9195,30.9256,-55.0553,-8.11428,-14.9098,3.45743,-3.58235,-9.50157,4.69723,-0.627403,-1.97715,2.38704,1.94309,-8.70936,-0.157719,-1.82676,37.2803,-2.22474,4.30569,14.29,-0.96325,1.69667,5.26407e-14,4.53229e-14,-138.873,-49.5021,94.9272,11.443,82.0744,-12.1931,20.0778,7.12502,13.8709,-9.43965,5.26407e-14,4.53229e-14,-51.2832,48.0309,9.81152,24.9018,14.0847,9.05976,21.9296,7.12502,34.234,48.6611,-28.8993,-14.9422,31.5599,55.2396,36.7755,-28.8985,43.2032,-47.739,-3.5689,-24.7148,47.7782,-40.6682,19.3032,20.9767
4.55855,16.4272,27.8813,30.9837,-54.8215,-8.33688,-14.3625,3.35362,-3.76907,-9.5201,4.56721,-0.494045,-2.3062,2.34315,2.13321,-8.50534,-0.111299,-1.71245,36.8639,-2.1324,4.26227,14.0428,-0.911066,1.66372,-2.43698e-14,-1.35174e-14,-132.297,-54.2609,85.8514,10.9314,71.0372,-14.3301,22.1973,7.12502,11.8108,-7.44961,-2.43698e-14,-1.35174e-14,-51.6026,48.8016,10.1958,25.922,17.8184,6.61744,21.8425,7.12502,31.9115,49.0662,-29.1747,-15.0648,31.9751,55.5435,37.0382,-28.6083,44.5821,-47.9127,-3.19595,-24.5,47.8742,-40.0045,19.251,20.9643
4.54611,16.4218,27.8744,30.4788,-54.9102,-7.87851,-14.3284,3.25219,-4.18154,-9.35824,4.48855,-0.52921,-2.1795,2.31922,2.32094,-8.70839,-0.116299,-1.79567,36.7667,-2.13493,4.34429,14.0453,-0.907923,1.71059,-5.17337e-14,8.74653e-15,-142.042,-48.4333,96.1923,12.0728,75.8013,-16.6903,25.6579,7.12502,9.5342,-4.10641,-5.17337e-14,8.74653e-15,-52.4658,50.2929,9.7182,26.5818,20.1213,4.44679,21.3725,7.12502,29.8422,48.9882,-29.2188,-15.431,31.5407,55.8231,36.6519,-29.2633,44.5262,-47.802,-3.01884,-24.8577,47.9979,-39.891,19.0327,21.3129
4.53322,16.4032,27.8793,30.4642,-54.9161,-7.98437,-14.4735,3.23942,-4.15128,-9.17374,4.48563,-0.519624,-1.90243,2.31063,2.33124,-8.91838,-0.157426,-1.74182,36.7576,-2.16498,4.24033,14.088,-0.922628,1.65455,9.09875e-14,2.3059e-14,-140.022,-51.1191,92.0353,11.9251,68.4143,-19.3037,27.5572,7.12502,7.01197,-2.30668,9.09875e-14,2.3059e-14,-54.0605,52.7534,7.81047,26.3473,20.5678,2.22399,20.6172,7.12502,27.7188,48.5941,-29.1857,-16.2375,31.6016,55.9769,39.8551,-26.3122,41.456,-47.7737,-2.70522,-24.932,48.259,-39.9254,18.6479,21.3913
4.52124,16.3969,27.8762,30.9946,-54.725,-8.7407,-14.4681,3.32759,-3.75527,-9.11592,4.56166,-0.455877,-1.81791,2.33287,2.1892,-8.85887,-0.197915,-1.56373,36.6591,-2.23664,4.17502,14.0299,-0.937309,1.5841,8.60179e-14,-5.56597e-15,-139.629,-52.0189,90.0249,12.0763,63.6974,-21.5637,29.6527,7.12502,4.83009,-0.272234,8.60179e-14,-5.56597e-15,-57.3194,56.4841,3.2358,24.9707,18.3763,0.033958,19.1303,7.12502,25.6229,47.4264,-28.9969,-16.1615,31.7788,56.1288,37.1394,-31.1365,45.2094,-47.7997,-2.60911,-24.3802,48.539,-40.1574,18.2726,21.4749
4.51352,16.3818,27.8752,31.2622,-54.6,-9.26164,-14.3298,3.41272,-3.50558,-9.09292,4.64456,-0.411661,-1.85265,2.36705,2.09827,-8.72155,-0.254069,-1.49039,36.5388,-2.33203,4.18108,13.9471,-0.96908,1.55793,2.51028e-14,-1.19271e-14,-139.721,-52.4052,88.7436,12.1738,60.1038,-23.6639,31.5594,7.12502,2.80193,1.59807,2.51028e-14,-1.19271e-14,-60.1142,58.7489,0.598615,25.3167,17.745,1.39332,15.1618,7.12502,26.9242,43.2639,-29.0253,-16.9993,32.1966,56.3276,39.7808,-27.6256,42.6327,-47.7731,-2.53893,-24.0224,48.8244,-40.1722,18.4398,21.0696
4.50975,16.3695,27.8738,31.1188,-54.5291,-9.27022,-14.1312,3.35908,-3.54632,-9.08488,4.57372,-0.38388,-1.95056,2.33652,2.12898,-8.69697,-0.241295,-1.49573,36.4635,-2.36207,4.33206,13.9108,-0.964098,1.61457,-4.78667e-14,1.74931e-14,-139.478,-53.1848,87.0367,12.1896,56.7202,-25.3715,33.1883,7.12502,1.15281,3.21162,-4.78667e-14,1.74931e-14,-56.4124,56.4733,7.24108,28.2889,23.9932,-2.52663,16.932,7.12502,23.1682,45.5587,-29.0928,-17.6785,32.1717,56.661,40.6744,-26.0347,40.1779,-47.6896,-2.6619,-23.9432,49.0058,-40.2576,18.4311,21.1382
4.50356,16.3682,27.8689,30.3883,-54.6382,-8.54323,-13.8803,3.18285,-4.1144,-9.11022,4.3926,-0.458921,-2.14294,2.27194,2.32852,-8.54571,-0.166219,-1.23668,36.3498,-2.2795,4.25179,13.8179,-0.906563,1.54468,-5.6107e-14,-1.51076e-14,-140.495,-53.0882,86.7688,12.2708,55.1535,-26.7777,34.6322,7.12502,-0.20539,4.65257,-5.6107e-14,-1.51076e-14,-57.9552,57.9717,6.08507,28.6437,24.7739,-5.18038,17.1283,7.12502,20.6201,46.053,-29.2464,-18.1547,31.4802,57.1912,39.3753,-28.0192,41.4156,-47.4846,-2.56274,-24.4572,49.0416,-40.1371,18.2447,20.8126
4.49681,16.3644,27.8654,30.069,-54.643,-8.33672,-13.7127,3.09015,-4.33241,-9.0689,4.28975,-0.481288,-2.19745,2.23069,2.40645,-8.31958,-0.105456,-0.99044,36.1024,-2.18076,4.11474,13.6471,-0.850536,1.45465,-4.62547e-14,-1.51076e-14,-141.954,-52.7228,86.8589,12.4331,53.8699,-28.0275,35.7762,7.12502,-1.41243,5.80109,-4.62547e-14,-1.51076e-14,-58.5101,58.8979,6.30402,29.2962,26.2649,-7.55311,17.6669,7.12502,18.3388,46.8224,-29.3418,-18.7218,31.1077,57.769,37.2346,-30.5383,44.8299,-47.292,-2.11072,-24.7457,49.0471,-39.851,18.0663,19.9379
4.4942,16.3595,27.8702,30.1029,-54.6266,-8.4846,-13.634,3.08246,-4.23097,-9.06831,4.26598,-0.451097,-2.2304,2.21602,2.37442,-8.08412,-0.0711758,-0.963394,36.0031,-2.12908,4.10368,13.5478,-0.83021,1.45044,5.41999e-14,5.48646e-14,-143.307,-52.2528,86.9656,12.3997,52.9712,-29.3695,36.4375,7.12502,-2.70852,6.47494,5.41999e-14,5.48646e-14,-60.1638,60.7232,4.87684,29.2123,26.5621,-9.46149,18.6047,7.12502,16.5022,47.9229,-29.6764,-19.7451,31.1162,58.4089,38.0635,-28.3319,40.5629,-47.1512,-1.76226,-24.7886,49.0361,-39.6882,17.8998,19.2075
4.49095,16.3522,27.871,29.9546,-54.6831,-8.39752,-13.6172,3.09493,-4.25306,-9.05504,4.2848,-0.472024,-2.22665,2.22572,2.36629,-7.63674,-0.0744358,-1.4015,35.799,-2.16124,4.48299,13.3671,-0.863433,1.67185,-1.61823e-14,-2.14687e-14,-143.149,-52.9606,85.3253,12.0506,50.3068,-30.938,36.4568,7.12502,-4.22323,6.51896,-1.61823e-14,-2.14687e-14,-62.2121,62.6806,2.9438,28.6687,26.1538,-10.9046,18.8113,7.12502,15.1124,48.2396,-29.9193,-20.5606,30.8511,59.1032,37.4758,-27.6018,38.7657,-47.0075,-1.67323,-24.9206,49.0109,-39.6019,18.0483,18.5035
4.48946,16.3436,27.8675,29.4139,-54.8037,-7.80455,-13.5889,3.0656,-4.61209,-9.05644,4.28159,-0.58894,-2.2651,2.23718,2.44119,-6.92835,-0.0783394,-1.72522,35.3839,-2.17149,4.75429,13.0353,-0.888588,1.82703,-1.14276e-13,-2.62396e-14,-143.083,-53.5283,83.7272,11.7654,47.0352,-31.9873,36.1871,7.12502,-5.23648,6.27183,-1.14276e-13,-2.62396e-14,-62.6614,63.6491,3.2452,28.4846,26.3493,-11.5231,19.6524,7.12502,14.5166,49.1245,-30.3456,-21.4085,30.3758,59.9197,38.9277,-26.4815,39.2161,-46.8944,-1.80738,-25.2976,48.9742,-39.6792,18.03,18.8734
4.4839,16.3538,27.8664,29.1753,-54.7404,-7.66775,-13.5182,3.07212,-4.64977,-9.02989,4.29336,-0.639911,-2.27417,2.24382,2.40685,-6.55094,-0.109884,-1.88455,35.1987,-2.25126,4.96563,12.8809,-0.925592,1.9243,5.58026e-14,3.18055e-15,-145.918,-51.7101,85.539,11.9233,46.4442,-32.4321,36.2299,7.12502,-5.66594,6.32566,5.58026e-14,3.18055e-15,-61.2669,63.8089,5.97033,28.7808,27.598,-11.9652,20.6922,7.12502,14.0905,50.1945,-30.5613,-21.5997,29.7661,60.833,32.0098,-34.9973,46.4901,-46.7007,-1.93415,-25.2904,48.9109,-39.7182,17.8754,19.7521
4.48267,16.353,27.8644,29.1126,-54.6639,-7.72722,-13.452,3.08432,-4.62899,-8.97205,4.30935,-0.638703,-2.24673,2.25087,2.39647,-6.31614,-0.125901,-1.75767,34.9705,-2.25329,4.87339,12.7299,-0.923589,1.86064,4.56584e-15,2.62396e-14,-148.986,-49.4676,87.6243,12.1527,46.1947,-32.6627,36.0982,7.12502,-5.88856,6.20006,4.56584e-15,2.62396e-14,-58.0779,63.1028,11.1476,29.838,30.428,-10.0102,19.7225,7.12502,15.9738,49.0838,-31.092,-22.9712,29.8016,61.899,31.805,-35.8717,47.2108,-46.6022,-2.09177,-25.1622,48.9054,-39.8514,17.7062,20.7188
4.48784,16.3437,27.8522,28.9826,-54.6817,-7.67356,-13.2249,3.04626,-4.77956,-9.01887,4.2617,-0.604769,-2.43053,2.23958,2.4943,-5.84505,-0.0834543,-1.56063,34.7223,-2.12968,4.60601,12.5132,-0.883297,1.73145,-1.13245e-14,-6.36111e-15,-150.681,-48.4096,88.0328,12.2506,44.5534,-33.0898,36.0136,7.12502,-6.30086,6.12731,-1.13245e-14,-6.36111e-15,-59.5522,64.6392,10.209,28.9335,29.8847,-13.1691,22.7532,7.12502,12.9302,52.3326,-31.7613,-24.163,29.8399,63.0209,30.712,-36.6751,45.6669,-46.6415,-2.1946,-25.1453,48.9718,-39.9591,17.732,21.2715
4.49229,16.3421,27.8455,28.7716,-54.6932,-7.50639,-13.0301,3.06302,-4.93686,-9.04594,4.28959,-0.623843,-2.5784,2.26453,2.55068,-5.53719,-0.116798,-1.37916,34.5867,-2.13374,4.38359,12.3873,-0.893089,1.61041,1.93256e-14,2.46493e-14,-150.888,-49.1991,86.4817,12.3543,40.8177,-33.6934,35.9925,7.12502,-6.88357,6.12438,1.93256e-14,2.46493e-14,-62.0406,66.6717,8.05236,27.5224,28.4272,-18.7684,29.3588,7.12502,7.52872,59.2048,-32.4942,-25.1149,29.6661,64.2875,28.3337,-39.1714,48.0353,-46.7132,-2.0249,-25.3106,49.0497,-39.4794,18.2849,20.3398
4.49783,16.3369,27.8399,28.6673,-54.6283,-7.50267,-12.8086,3.07727,-5.00479,-9.0656,4.30514,-0.57001,-2.72994,2.28195,2.63084,-5.31596,-0.178521,-1.29411,34.4518,-2.17664,4.21382,12.2831,-0.924307,1.52317,1.79652e-14,2.38542e-15,-150.846,-50.3281,84.722,12.2087,36.839,-34.6046,36.0228,7.12502,-7.76318,6.18528,1.79652e-14,2.38542e-15,-55.3973,64.3182,17.8697,29.6517,32.9695,-24.8009,37.6535,7.12502,1.70388,67.6264,-33.2304,-26.1926,29.5822,65.6931,25.6825,-41.5532,50.4239,-46.8315,-0.675663,-25.7997,49.1516,-38.1611,18.0926,19.1523
4.50282,16.3336,27.8353,28.3726,-54.5809,-7.26186,-12.6652,3.09359,-5.09969,-9.02804,4.33189,-0.646354,-2.77075,2.29901,2.59861,-5.12326,-0.248028,-1.15499,34.2642,-2.25643,4.1099,12.1651,-0.95659,1.44721,3.27001e-14,-8.74653e-15,-150.989,-51.309,83.1156,12.005,32.5783,-35.1154,35.9222,7.12502,-8.25619,6.10352,3.27001e-14,-8.74653e-15,-55.8866,65.965,18.0354,28.5102,31.6414,-28.0911,42.7579,7.12502,-1.47392,72.7326,-34.052,-27.3721,29.3585,67.2537,24.7197,-42.7083,49.8399,-46.8009,-1.48153,-25.7232,49.218,-38.5711,18.8626,19.2569
4.50932,16.3327,27.8331,28.2471,-54.5095,-7.20425,-12.6774,3.07231,-5.01913,-8.92573,4.30404,-0.653452,-2.64394,2.27778,2.54948,-4.87524,-0.20606,-1.21357,34.1168,-2.17778,4.11276,12.0496,-0.932213,1.46615,-2.12141e-14,-7.15625e-15,-156.285,-45.7677,87.8916,12.5693,36.0649,-34.7007,36.6109,7.12502,-7.85587,6.77687,-2.12141e-14,-7.15625e-15,-57.2059,67.9769,17.1716,26.9522,30.0678,-30.3621,45.8295,7.12502,-3.66711,75.7777,-34.9202,-28.486,29.1868,68.8427,23.5019,-44.0574,51.9874,-46.8821,-1.574,-25.7766,49.4031,-38.5057,19.1844,19.2933
4.51562,16.3344,27.8368,28.3867,-54.3905,-7.39186,-12.7667,3.06996,-4.74836,-8.82325,4.28684,-0.613018,-2.46367,2.25365,2.45031,-4.71683,-0.145517,-1.22473,33.9265,-2.05169,4.04604,11.9324,-0.88582,1.45493,5.45757e-14,2.38542e-15,-158.043,-44.9601,88.1389,12.8531,34.3851,-34.72,36.769,7.12502,-7.87454,6.93565,5.45757e-14,2.38542e-15,-59.8184,70.3158,15.0096,25.3938,28.2754,-32.1913,47.1949,7.12502,-5.43348,77.1052,-35.86,-29.4594,29.0468,70.566,19.9819,-46.2876,54.2382,-47.0485,-1.35845,-25.76,49.5716,-38.18,19.1898,20.4431
4.5379,16.3339,27.8535,29.7054,-53.6477,-9.45746,-12.4558,3.20855,-2.94172,-8.63348,4.30466,-0.265363,-2.29996,2.19285,1.80149,-4.66701,-0.116415,-1.13015,33.7144,-1.94565,3.85166,11.8281,-0.847331,1.37419,1.39646e-13,2.94201e-14,-158.747,-46.4302,86.8767,13.1231,30.6615,-34.716,36.0903,7.12502,-7.87062,6.25684,1.39646e-13,2.94201e-14,-58.621,71.0416,17.7593,25.03,27.7979,-32.7175,47.6835,7.12502,-5.94151,77.5802,-36.4454,-30.957,30.3951,72.1132,25.831,-44.5653,51.3562,-46.9114,-3.12034,-23.73,49.8233,-39.2191,20.2121,22.6502
4.54017,16.3276,27.8544,29.3156,-54.0377,-9.2224,-12.4751,3.24569,-3.18985,-8.4289,4.3884,-0.273118,-2.09702,2.24246,1.9481,-4.47137,-0.098295,-0.997593,33.4437,-1.84964,3.61577,11.671,-0.816151,1.26985,1.16912e-13,1.74931e-14,-159.747,-47.1322,86.1582,13.2378,28.2998,-35.0605,35.2249,7.12502,-8.20312,5.40415,1.16912e-13,1.74931e-14,-49.033,68.0193,30.6224,27.0656,32.0577,-33.5292,48.5505,7.12502,-6.72512,78.4237,-37.3587,-31.5648,29.7473,74.1649,21.3448,-46.9784,54.15,-46.6968,-3.66898,-23.8595,49.8548,-39.7498,20.7436,22.897
4.54783,16.3206,27.836,28.4827,-54.278,-8.23481,-12.4303,3.0761,-3.98779,-8.31478,4.24448,-0.316335,-2.05504,2.20079,2.33356,-4.07904,-0.00198636,-0.909242,33.0703,-1.63555,3.39633,11.4312,-0.737786,1.19199,7.69669e-14,3.81667e-14,-160.575,-48.1271,85.3513,13.0647,25.7205,-35.7775,34.9418,7.12502,-8.89507,5.14934,7.69669e-14,3.81667e-14,-45.3727,67.4729,35.9365,26.9514,32.8577,-33.7906,47.2826,7.12502,-6.97746,77.1476,-38.7518,-32.6015,29.0313,76.4084,17.686,-48.6336,56.1805,-46.7083,-3.51984,-24.6156,49.7951,-39.3322,20.8929,22.2221
4.5666,16.314,27.8311,27.827,-54.2763,-7.59505,-12.2045,2.92834,-4.24109,-8.2398,4.06858,-0.36489,-2.10092,2.12248,2.39685,-3.54132,0.131553,-0.918017,32.6471,-1.4195,3.38726,11.1481,-0.648564,1.20866,-7.647e-15,2.70347e-14,-160.325,-50.8888,83.1997,12.7984,21.5961,-36.8744,34.8637,7.12502,-9.9535,5.11902,-7.647e-15,2.70347e-14,-39.8962,64.5161,44.154,28.4041,35.513,-33.7682,46.3569,7.12502,-6.95579,76.2226,-40.1208,-34.1049,28.5698,78.67,19.9739,-48.517,55.5233,-46.5799,-3.66224,-25.0449,49.6762,-39.0909,20.984,22.6088
4.58658,16.3102,27.8354,27.0264,-54.4144,-6.82827,-12.0518,2.84826,-4.55376,-8.0765,3.99511,-0.427892,-2.02447,2.09458,2.49556,-3.25477,0.189675,-1.05772,32.3796,-1.28893,3.34387,10.9817,-0.613065,1.22797,-1.31241e-13,-2.70347e-14,-159.769,-54.2349,80.8343,12.6557,17.1244,-37.8144,34.5892,7.12502,-10.8603,4.88998,-1.31241e-13,-2.70347e-14,-35.9471,63.1954,49.597,27.6064,32.8683,-31.3575,45.5777,7.12502,-4.6283,75.5071,-41.4184,-35.4248,27.8209,80.9205,22.5831,-48.2992,55.6425,-46.3557,-3.4955,-25.7281,49.5776,-38.8412,20.8848,23.0625
4.59993,16.3157,27.8387,27.2938,-54.1629,-7.81188,-11.599,2.89528,-3.8381,-7.79658,3.9953,-0.152443,-1.93374,2.07376,2.36828,-3.26106,0.21599,-1.13921,32.2926,-1.1873,3.19285,10.945,-0.591401,1.19652,2.49661e-14,-1.66979e-14,-159.08,-57.985,78.3418,12.8725,12.08,-38.5478,34.1722,7.12502,-11.5676,4.51147,2.49661e-14,-1.66979e-14,-33.5222,62.7072,53.3374,26.2877,29.3637,-27.674,42.6658,7.12502,-1.0711,72.6429,-41.9935,-36.4347,28.0564,82.8715,22.9603,-48.4613,56.3156,-45.8481,-3.74163,-25.0087,49.6184,-39.1027,20.999,23.7614
4.60843,16.3201,27.8447,27.3845,-54.0132,-8.45361,-11.3946,2.9083,-3.29096,-7.47704,3.97597,-0.0255443,-1.67073,2.04279,2.19416,-3.27854,0.278082,-0.968258,32.1527,-1.06662,3.03566,10.8893,-0.531681,1.11978,-2.69229e-14,1.51076e-14,-160.396,-59.4114,78.0463,13.2595,9.66614,-38.8682,33.1963,7.12502,-11.8766,3.55313,-2.69229e-14,1.51076e-14,-30.0658,60.6759,58.3241,25.3452,27.5664,-24.8935,38.4147,7.12502,1.6144,68.3883,-42.727,-37.4661,28.0157,84.8789,23.003,-48.5864,53.6816,-45.4014,-4.01899,-24.5299,49.6583,-39.4137,20.9577,24.9965
4.62357,16.3282,27.8385,27.4564,-53.9536,-8.53264,-11.3403,2.81812,-3.10612,-7.41422,3.84123,-0.0610807,-1.60848,1.96651,2.04206,-3.01495,0.379005,-0.847238,32.0399,-0.954738,3.07809,10.7906,-0.466901,1.12318,3.91606e-14,2.06736e-14,-160.999,-61.237,77.0211,13.5422,7.32513,-39.041,31.1639,7.12502,-12.0432,1.53044,3.91606e-14,2.06736e-14,-25.5135,55.829,63.9924,23.4794,27.1574,-23.001,35.1308,7.12502,3.44216,65.0828,-44.226,-38.3784,28.0673,86.9386,23.5158,-48.7241,54.6399,-45.5316,-3.64301,-24.5973,49.7039,-38.8137,21.2366,24.3938
4.63499,16.3373,27.8342,27.3395,-53.9755,-8.77205,-10.8712,2.79627,-2.90362,-7.36752,3.7865,-0.0512656,-1.79512,1.93622,1.91044,-2.74709,0.42585,-0.775831,32.04,-0.922556,3.1248,10.7377,-0.445283,1.12976,3.35946e-14,-7.95139e-15,-158.198,-65.9117,72.4386,13.8826,2.17169,-39.3797,28.6985,7.12502,-12.3697,-0.915506,3.35946e-14,-7.95139e-15,-22.3984,50.4037,68.863,22.7482,26.0844,-21.6994,33.5669,7.12502,4.69902,63.4948,-45.261,-39.1652,27.9497,88.9405,21.5802,-49.9686,54.6489,-45.2415,-3.37501,-24.5518,49.6653,-38.6766,21.2727,24.0349
4.64791,16.3437,27.8342,26.9999,-54.0743,-8.78838,-10.4214,2.8613,-2.85206,-7.22799,3.86643,-0.0663212,-1.8912,1.97734,1.85234,-2.73203,0.398603,-0.579793,32.1113,-0.931454,2.91027,10.7619,-0.450351,1.01692,-5.70139e-14,-2.62396e-14,-150.163,-72.4502,62.7008,14.189,-4.93721,-39.754,26.7455,7.12502,-12.7307,-2.84642,-5.70139e-14,-2.62396e-14,-19.6693,44.1129,73.4529,21.6669,24.8202,-20.4955,32.5471,7.12502,5.86142,62.446,-46.3634,-40.0357,27.6846,90.9925,15.7955,-52.2798,57.3833,-44.8488,-3.16219,-24.6763,49.5593,-38.4166,21.4645,23.7507
4.65993,16.3411,27.8428,26.2859,-54.4801,-8.3361,-10.2596,2.94329,-3.08892,-6.92028,4.00478,-0.160118,-1.6738,2.05046,1.89948,-2.79337,0.402183,-0.388177,32.0938,-0.858915,2.60189,10.7643,-0.426224,0.878178,-5.32743e-14,-4.05521e-14,-109.311,-80.6273,19.7693,14.7966,-16.3696,-40.2089,23.5164,7.12502,-13.1691,-6.04768,-5.32743e-14,-4.05521e-14,-17.3672,36.1523,77.7456,21.0142,24.657,-18.7176,32.8151,7.12502,7.57769,62.6594,-47.6454,-40.9285,26.9854,93.1512,13.8329,-53.267,58.8991,-44.3674,-3.26344,-25.1013,49.4035,-38.5945,21.8032,23.9651
4.67202,16.3458,27.8365,26.02,-54.6943,-8.02858,-10.3323,2.8165,-3.33424,-6.77301,3.86413,-0.0965759,-1.4945,1.98575,2.09981,-2.57241,0.551032,-0.437875,31.9309,-0.590385,2.44623,10.652,-0.328948,0.854561,3.0265e-14,4.85035e-14,-40.966,-75.4621,-50.8013,15.8316,-28.3714,-40.281,19.2133,7.12502,-13.2387,-10.3463,3.0265e-14,4.85035e-14,-16.1132,27.8354,81.1443,21.0523,24.1363,-15.7496,34.619,7.12502,10.4417,64.3397,-49.4529,-41.5792,26.7459,95.2806,16.715,-53.0184,58.7635,-44.3326,-2.84453,-25.4731,49.2629,-38.2595,21.7613,23.2972
4.69231,16.3679,27.8035,26.634,-54.1068,-8.32462,-10.341,2.5883,-3.22054,-6.79451,3.55208,0.0990689,-1.49841,1.8299,2.2137,-2.58095,0.614588,-0.345943,31.7415,-0.452566,2.28258,10.5778,-0.270412,0.79129,-5.19822e-14,2.38542e-15,-23.6799,-63.5055,-70.1844,17.4732,-39.0004,-40.603,15.6531,7.12502,-13.549,-13.8861,-5.19822e-14,2.38542e-15,-15.2226,17.4511,84.5193,22.1594,25.3541,-12.996,37.8671,7.12502,13.097,67.4358,-51.8679,-42.158,27.809,97.1559,19.9639,-52.6738,58.1398,-44.9209,-2.0783,-25.3038,49.1472,-37.0761,21.3744,21.9068
4.7051,16.3739,27.8111,26.6933,-54.1227,-8.87941,-10.2314,2.62086,-2.60695,-6.35375,3.56273,0.131954,-1.05618,1.81057,1.9155,-2.64631,0.717307,-0.113807,31.2433,-0.253229,2.10597,10.3965,-0.164442,0.703526,1.15593e-13,1.11319e-14,-18.2698,-53.7053,-77.2042,19.0334,-45.99,-40.2062,12.1052,7.12502,-13.1666,-17.459,1.15593e-13,1.11319e-14,-14.8955,6.1236,87.3834,23.7178,28.0416,-16.3911,35.2023,7.12502,9.82281,64.9532,-52.9245,-42.7161,27.8162,98.8383,22.0205,-52.8138,57.8971,-44.4423,-2.22905,-24.9594,49.0545,-37.4304,21.4648,22.2077
4.71911,16.3703,27.817,26.2409,-54.3428,-8.771,-10.1665,2.58299,-2.31813,-5.93072,3.50434,0.0879435,-0.623989,1.7672,1.71451,-2.59542,0.883081,-0.294117,30.8256,0.0497716,2.03779,10.2227,-0.0490167,0.736442,3.12837e-14,2.38542e-15,-15.6205,-43.1605,-81.4292,21.1234,-52.7262,-38.2156,7.17599,7.12502,-11.2473,-22.5025,3.12837e-14,2.38542e-15,-15.2112,-3.99107,89.6975,26.0675,29.939,-15.8779,35.5155,7.12502,10.318,65.2424,-54.1944,-43.3946,27.335,100.623,25.0214,-52.4884,57.5651,-43.9817,-2.36057,-25.0847,48.9412,-37.6788,21.5724,22.557
4.73306,16.3755,27.8263,25.7452,-54.4258,-8.81346,-9.53739,2.60808,-1.95209,-5.84625,3.50242,0.124028,-0.856836,1.76206,1.51803,-2.01574,0.951548,-0.559266,30.608,0.212649,1.91552,10.0266,-0.021766,0.750035,-5.66785e-14,3.18055e-15,-15.6206,-29.8145,-83.9422,24.9298,-61.588,-36.2085,3.23869,7.12502,-9.31104,-26.5357,-5.66785e-14,3.18055e-15,-16.6936,-14.3777,92.138,29.26,32.9543,-14.3033,35.8166,7.12502,11.8367,65.4621,-55.1191,-44.0738,26.7565,102.243,26.808,-52.3146,57.6328,-43.3012,-2.51034,-25.1025,48.8145,-38.0025,21.5395,22.8319
4.74309,16.3902,27.8346,25.7898,-54.3841,-9.3058,-9.09386,2.57515,-1.44043,-5.74038,3.41951,0.226186,-0.959592,1.71117,1.31258,-1.78883,1.07932,-0.561735,30.4975,0.43648,1.75392,9.93949,0.0622366,0.710855,1.52965e-13,2.14687e-14,-16.592,-16.8059,-85.9654,29.8741,-69.1255,-35.0337,0.71224,7.12502,-8.17728,-29.1095,1.52965e-13,2.14687e-14,-18.5031,-24.1522,94.3957,33.1445,36.9416,-14.1702,34.6814,7.12502,11.965,64.3195,-56.2514,-44.3309,26.7423,103.642,27.3185,-52.7221,58.1053,-42.8346,-2.62107,-24.7891,48.6856,-38.1622,21.5755,23.4414
4.75406,16.4056,27.839,26.1377,-54.2934,-9.99997,-8.84897,2.49457,-0.898253,-5.51397,3.27897,0.292076,-0.82498,1.6285,1.06236,-1.88039,1.23048,-0.0887822,30.2624,0.693616,1.4315,9.87091,0.203333,0.535995,-3.35449e-14,1.59028e-15,-17.4665,-6.44329,-87.543,34.4174,-73.742,-33.5291,-0.056036,7.12502,-6.72501,-29.9292,-3.35449e-14,1.59028e-15,-20.0206,-31.9923,95.9426,37.3284,39.9942,-14.1452,32.6071,7.12502,11.9891,62.2438,-57.5646,-44.334,27.0233,104.885,28.0712,-52.8961,58.0819,-42.5657,-2.65235,-24.3303,48.5863,-38.2678,21.5115,24.232
4.76864,16.4166,27.8384,26.2551,-54.2623,-10.453,-8.39685,2.38351,-0.696298,-5.33365,3.12215,0.449079,-0.879108,1.54961,1.08344,-1.80055,1.36952,0.144213,29.9194,0.968221,1.08898,9.73056,0.324077,0.396685,5.01434e-14,1.27222e-14,-18.5861,2.23041,-88.5081,38.9385,-76.35,-31.2417,0.301386,7.12502,-4.51654,-29.6305,5.01434e-14,1.27222e-14,-21.4101,-37.8195,97.2701,41.5534,41.9085,-13.3051,30.4235,7.12502,12.7991,60.0111,-58.9716,-44.2168,27.3181,106.014,29.9654,-52.4545,57.3931,-42.2979,-2.53016,-24.0788,48.512,-38.179,21.5377,24.2084
4.78825,16.4194,27.836,26.1394,-54.3712,-10.4004,-8.02555,2.18384,-0.824822,-5.23362,2.86742,0.578693,-0.986401,1.42865,1.25689,-1.63702,1.61223,0.329208,29.589,1.43233,0.584165,9.58238,0.510208,0.224795,7.86193e-14,7.95139e-15,-19.9239,10.3688,-89.3091,43.5849,-77.6832,-28.4242,1.51581,7.12502,-1.79564,-28.4564,7.86193e-14,7.95139e-15,-22.6757,-42.24,98.2996,45.8076,43.9816,-11.0491,27.7908,7.12502,14.9732,57.2296,-60.9443,-44.0114,27.6358,107.202,33.6132,-51.0534,56.1399,-42.2537,-2.29239,-24.219,48.452,-38.1173,21.3395,24.4038
4.80682,16.4201,27.8279,25.976,-54.4963,-10.2952,-7.67325,1.92969,-0.916618,-5.07384,2.53831,0.62354,-1.01139,1.26782,1.3224,-1.73132,1.92357,0.544132,29.3403,1.9613,0.177177,9.51616,0.740464,0.0900107,-6.45553e-14,2.06736e-14,-21.4909,17.5916,-90.0545,48.7381,-77.9598,-25.2178,3.17507,7.12502,1.30121,-26.8007,-6.45553e-14,2.06736e-14,-23.7912,-46.0199,98.7614,50.3936,46.513,-8.08532,25.2001,7.12502,17.8267,54.4031,-62.9039,-43.73,27.8983,108.281,32.4733,-51.6872,56.0339,-42.252,-1.89697,-24.4183,48.4245,-37.8172,21.2662,23.9771
4.82406,16.4282,27.8119,25.7523,-54.412,-10.3424,-7.11898,1.63512,-0.860162,-4.84025,2.14806,0.61631,-1.06053,1.07298,1.24504,-1.86184,2.22133,0.7999,29.0739,2.41461,-0.0383061,9.45195,0.959495,0.00940418,-3.23025e-14,-1.43125e-14,-22.9173,22.4583,-90.6718,53.727,-76.8354,-20.5502,4.38746,7.12502,5.80863,-25.5129,-3.23025e-14,-1.43125e-14,-24.9497,-49.6353,98.9113,55.2234,49.1883,-4.9718,22.5613,7.12502,20.8205,51.4642,-64.3723,-43.46,28.1686,109.074,31.1362,-52.2537,56.3879,-42.0585,-1.32571,-24.4766,48.4161,-37.4587,20.8777,23.7845
4.83338,16.4346,27.8096,26.3769,-54.4251,-10.8813,-7.20503,1.41359,-0.478706,-4.70673,1.83291,0.697914,-0.855915,0.906305,1.1013,-1.89225,2.56646,0.637471,28.7539,2.91652,-0.00460337,9.34083,1.18278,0.0902683,-4.14963e-14,7.95139e-15,-24.4939,26.0878,-91.0502,58.8742,-75.1526,-16.356,5.54396,7.12502,9.85667,-24.2053,-4.14963e-14,7.95139e-15,-25.8221,-52.2804,98.7655,59.9257,52.2715,-0.952713,20.705,7.12502,24.6775,49.1338,-66.45,-42.6983,29.0745,109.655,31.3355,-52.3751,56.075,-42.3437,-0.852962,-24.2596,48.4645,-37.166,20.841,22.9611
4.84561,16.4426,27.8052,26.727,-54.2968,-11.5027,-6.73973,1.15328,-0.0205686,-4.65527,1.46439,0.890257,-1.04444,0.715129,1.01002,-1.85103,2.95047,0.407908,28.6611,3.4904,-0.0495391,9.29837,1.42034,0.16041,-5.95857e-14,-2.14687e-14,-26.4332,28.8462,-91.227,64.1511,-73.3844,-13.22,6.48599,7.12502,12.8811,-23.0965,-5.95857e-14,-2.14687e-14,-26.7756,-54.0651,98.652,64.6217,55.9686,3.49514,19.9603,7.12502,28.9336,47.7355,-68.007,-42.0822,29.7976,110.021,31.5495,-52.5594,52.9134,-42.284,-0.4584,-23.9321,48.5217,-36.8007,20.7523,22.5448
4.85824,16.4433,27.7991,26.7998,-54.2555,-11.743,-6.23821,0.953237,0.142854,-4.63986,1.19548,1.04288,-1.3012,0.57975,1.05145,-1.95886,3.26872,0.14761,28.7965,3.99359,-0.168626,9.36601,1.61076,0.208183,-6.09772e-14,1.90833e-14,-28.1652,30.6758,-91.0461,69.0139,-71.4654,-9.90333,7.56428,7.12502,16.0767,-21.7888,-6.09772e-14,1.90833e-14,-27.8202,-55.7345,98.8175,69.1019,59.0329,7.6178,19.5566,7.12502,32.8636,46.5855,-69.7392,-41.4024,30.4731,110.298,33.1994,-52.194,50.208,-42.2657,-0.162241,-23.8702,48.5906,-36.6183,20.6781,22.5559
4.87167,16.4405,27.7923,26.6731,-54.201,-11.8204,-5.70249,0.718077,0.285405,-4.49421,0.88462,1.06955,-1.44044,0.422898,0.977474,-2.18665,3.60113,0.185982,28.7212,4.53768,-0.461877,9.39234,1.83896,0.149947,-6.13251e-14,-4.05521e-14,-29.7166,32.2586,-90.8192,73.7243,-69.6387,-6.16616,8.28474,7.12502,19.6726,-20.7398,-6.13251e-14,-4.05521e-14,-28.4894,-57.4759,98.4658,73.4081,61.2418,9.28057,17.9182,7.12502,34.4437,44.6024,-71.3278,-40.6849,30.9991,110.405,33.7105,-51.8128,50.6266,-42.1528,-0.311062,-23.7874,48.6712,-36.8377,20.6336,23.4982
4.88907,16.4322,27.7906,26.1818,-53.9268,-11.5622,-5.09839,0.331509,0.575656,-4.26489,0.36864,0.862265,-1.52798,0.157517,0.576631,-2.62713,4.04557,0.822295,28.5732,5.21989,-0.931645,9.45925,2.17675,-0.0533835,-9.24349e-15,-1.59028e-15,-31.5285,33.7822,-90.9243,78.7497,-68.843,-3.11282,8.56191,7.12502,22.6057,-20.1344,-9.24349e-15,-1.59028e-15,-28.8807,-59.2201,97.3573,77.6507,62.6997,12.1553,17.9702,7.12502,37.1676,43.9912,-72.8095,-40.3761,31.4807,110.45,32.0987,-52.4057,50.8472,-41.9613,-0.518372,-23.8916,48.7509,-36.8037,20.6485,23.8801
4.90936,16.4226,27.7897,25.9367,-53.2252,-11.448,-4.54859,-0.253586,0.988117,-4.13795,-0.414883,0.873587,-1.7017,-0.243307,0.331285,-2.87721,4.59159,1.26539,28.2819,6.07356,-1.45582,9.44594,2.57056,-0.229546,-1.72943e-14,-1.59028e-15,-33.5011,35.3703,-90.9982,83.7826,-69.0841,-0.526946,8.36572,7.12502,25.0856,-20.0066,-1.72943e-14,-1.59028e-15,-29.3595,-60.5582,96.4091,81.5796,63.0642,13.9145,17.0045,7.12502,38.8289,42.5733,-74.4166,-40.185,32.4189,110.301,26.1434,-54.6507,52.3308,-42.0175,-0.569718,-23.8508,48.8571,-36.2481,20.6176,23.067
4.90863,16.4257,27.7586,25.9382,-53.8425,-11.636,-3.92372,-0.402417,0.367259,-4.08404,-0.585203,1.04278,-1.98706,-0.310146,0.852891,-2.96401,5.02848,1.34166,28.181,6.80606,-1.96441,9.46262,2.86641,-0.350105,6.56983e-14,-2.22639e-14,-35.4227,36.6082,-90.5907,88.3227,-69.8007,0.902486,7.29642,7.12502,26.4545,-20.8773,6.56983e-14,-2.22639e-14,-30.2268,-61.847,96.1681,85.1914,62.3932,15.2119,15.6294,7.12502,40.0511,40.84,-75.8128,-38.124,32.799,109.85,24.6631,-54.716,53.9947,-41.9606,0.518906,-24.0417,48.9449,-36.023,20.543,22.0136
4.9237,16.4128,27.7412,25.3001,-53.9285,-10.9048,-3.44689,-0.75858,0.176244,-4.00425,-1.05468,0.69337,-2.16857,-0.543672,0.597889,-3.22529,5.46221,1.67816,28.2027,7.43007,-2.1837,9.55736,3.16213,-0.417051,-8.97513e-14,1.59028e-15,-37.028,37.2295,-90.4125,92.0266,-70.476,4.07313,6.80102,7.12502,29.4855,-20.8782,-8.97513e-14,1.59028e-15,-30.7049,-63.2482,95.0145,88.6174,61.1989,17.0349,14.3428,7.12502,41.7636,39.0116,-77.6562,-36.9866,33.0256,109.377,31.414,-52.9017,50.0867,-42.0547,0.782549,-24.5943,49.0139,-35.8338,20.4816,21.066
4.93772,16.4103,27.7282,25.2093,-53.8878,-10.9145,-2.87563,-1.176,0.294868,-3.89194,-1.61079,0.489599,-2.37674,-0.826329,0.326137,-3.78958,5.97732,2.24488,28.3747,8.14945,-2.42874,9.78351,3.51465,-0.507753,4.82053e-14,-2.54444e-14,-38.9321,38.1701,-90.6777,96.1175,-73.4785,6.16102,6.39321,7.12502,31.4767,-20.9163,4.82053e-14,-2.54444e-14,-30.7278,-64.2334,93.2781,91.6705,59.9493,19.5947,13.9847,7.12502,44.1573,37.8086,-79.1677,-35.7399,33.8352,108.591,35.3373,-50.9056,49.5752,-42.0719,1.09352,-24.647,49.0789,-35.6994,20.4228,19.366
4.94611,16.4113,27.7165,25.1521,-53.841,-11.1762,-2.11522,-1.53948,0.352971,-3.78711,-2.08873,0.502557,-2.6954,-1.06473,0.324955,-4.25764,6.44963,2.4227,28.4723,8.84925,-2.63755,9.94983,3.82347,-0.522096,1.35372e-13,-4.77083e-15,-41.0374,39.0358,-90.6663,99.6145,-75.6536,6.99569,5.54083,7.12502,32.2716,-21.6103,1.35372e-13,-4.77083e-15,-30.8883,-64.9592,92.0431,94.3912,58.8683,19.1947,12.6859,7.12502,43.7842,36.6488,-80.0847,-34.4236,34.4502,107.555,34.0834,-51.3554,51.9069,-41.8692,1.32014,-24.4874,49.1546,-35.8221,20.2295,18.8792
4.95791,16.4082,27.6973,24.9499,-53.8882,-11.2804,-1.37724,-1.70278,0.691763,-3.67882,-2.30408,0.206285,-3.02382,-1.18418,-0.144201,-4.45797,6.79132,2.31527,28.323,9.26016,-2.30637,9.92283,4.03859,-0.341519,4.02539e-14,-3.10104e-14,-43.2903,39.1169,-90.6336,102.884,-78.0377,9.25293,5.21961,7.12502,34.4174,-21.4705,4.02539e-14,-3.10104e-14,-30.7781,-66.3519,90.4423,96.9197,58.226,19.0034,11.4787,7.12502,43.6056,35.5071,-80.806,-32.9518,34.6415,106.436,29.3672,-52.9818,53.518,-41.6971,1.5309,-24.4329,49.2452,-35.7661,20.3734,18.5408
4.9732,16.4073,27.6726,24.9308,-53.7468,-11.6034,-0.605572,-1.97424,1.12424,-3.54677,-2.65584,0.0349193,-3.35378,-1.37327,-0.528966,-4.58057,7.17603,2.07119,27.9559,9.74587,-1.96962,9.79313,4.28327,-0.136047,4.9895e-14,1.90833e-14,-45.5396,39.2468,-90.5216,105.911,-80.3743,11.3981,4.75952,7.12502,36.4511,-21.4449,4.9895e-14,1.90833e-14,-30.3022,-67.8976,88.2716,99.2699,57.8299,19.553,10.534,7.12502,44.1184,34.3725,-81.4323,-31.5148,35.063,105.128,25.8444,-54.1564,54.2936,-41.6099,1.73051,-24.1795,49.3854,-35.5159,20.4466,17.9913
4.98304,16.4039,27.6498,24.454,-53.7036,-11.4428,0.229386,-2.332,1.15119,-3.42233,-3.12744,-0.198494,-3.72042,-1.61173,-0.736585,-4.76887,7.63878,1.99627,27.6743,10.3471,-1.74217,9.72392,4.58343,0.0184626,-3.00165e-14,-1.43125e-14,-47.8692,39.4775,-90.4064,108.712,-82.7477,13.0178,3.87635,7.12502,37.9827,-21.9276,-3.00165e-14,-1.43125e-14,-29.3728,-68.1001,86.0491,100.437,57.1746,22.9361,10.6052,7.12502,47.2598,33.1561,-82.053,-30.3717,35.4016,103.746,21.838,-55.3387,57.2818,-41.3849,1.76763,-24.2273,49.5422,-35.4622,20.5223,17.1699
4.99018,16.3964,27.6286,24.1262,-53.7189,-11.5037,1.10513,-2.5765,1.1918,-3.30871,-3.4477,-0.411637,-4.12181,-1.77474,-0.925572,-5.21184,8.00829,2.33527,27.6451,10.822,-1.72931,9.82958,4.83362,0.0380662,2.5842e-15,4.77083e-15,-50.0792,39.472,-90.0432,111.056,-85.1021,14.4273,2.82631,7.12502,39.3123,-22.6035,2.5842e-15,4.77083e-15,-28.2496,-68.8292,83.4606,101.68,57.1893,26.0191,11.0485,7.12502,50.0951,32.2211,-82.4934,-29.1253,36.0667,102.105,20.1295,-55.6298,56.2916,-41.1572,1.99452,-24.1869,49.7559,-35.3565,20.4838,17.267
4.99817,16.3779,27.6,23.7592,-53.8185,-11.3782,1.99413,-2.779,0.872438,-3.27905,-3.72636,-0.549084,-4.59161,-1.90419,-0.82884,-5.58771,8.30948,2.61154,27.5958,11.2209,-1.77271,9.91466,5.03741,0.0394424,1.59028e-15,2.54444e-14,-52.1687,39.4172,-89.4478,112.648,-86.7032,16.7538,2.68517,7.12502,41.4998,-22.0703,1.59028e-15,2.54444e-14,-27.2824,-69.6576,81.1732,102.64,57.2573,28.0938,11.2314,7.12502,51.9853,31.3457,-83.1407,-27.6238,36.7846,100.345,22.5866,-54.9843,53.9595,-41.1204,2.50911,-24.3408,49.9701,-35.1239,20.1855,18.0172
5.0067,16.3642,27.5719,23.256,-53.901,-11.1116,2.93537,-3.11396,0.5476,-3.26124,-4.19357,-0.735236,-5.11065,-2.12633,-0.755309,-5.7848,8.76041,2.71226,27.5045,11.8397,-1.77684,9.94374,5.33002,0.0971647,2.0276e-14,2.70347e-14,-54.2146,39.4921,-88.9238,113.973,-87.4834,18.8763,2.35064,7.12502,43.4869,-21.721,2.0276e-14,2.70347e-14,-26.2731,-69.9824,78.7081,103.068,57.4673,30.1521,11.4687,7.12502,53.8437,30.4118,-83.5016,-26.1941,37.0454,98.4557,21.9335,-55.0425,51.203,-41.0431,2.79189,-24.5104,50.1657,-35.1579,19.8416,17.9794
5.0143,16.3607,27.5458,22.8487,-54.0058,-10.9226,4.05095,-3.65233,-0.173291,-3.44329,-4.95414,-0.55375,-5.87677,-2.46607,-0.0261708,-5.52257,9.44923,2.67443,27.2841,12.9154,-2.22466,9.87701,5.77821,0.0488022,1.0297e-13,1.59028e-15,-56.3752,40.4676,-88.316,115.465,-88.4041,20.0441,1.352,7.12502,44.5761,-22.3126,1.0297e-13,1.59028e-15,-26.668,-69.4404,77.6817,103.11,57.5738,32.3439,12.049,7.12502,55.801,29.592,-83.5045,-24.7368,36.8377,96.4363,15.98,-56.1115,55.0138,-40.9107,2.88784,-24.5912,50.299,-35.2417,19.6959,17.0396
5.01741,16.3578,27.5149,22.6058,-54.0792,-10.8397,5.18713,-4.26253,-1.17428,-3.69852,-5.83821,-0.112892,-6.65574,-2.83604,1.16677,-5.34885,10.2419,2.45833,27.1263,14.174,-2.72594,9.85237,6.28445,0.0359054,-1.8487e-14,4.77083e-14,-58.3394,42.0865,-87.4819,116.578,-89.1335,20.4494,0.71097,7.12502,44.9535,-22.8069,-1.8487e-14,4.77083e-14,-27.3441,-68.4047,77.031,102.853,57.607,34.5664,13.0422,7.12502,57.7588,28.9781,-83.4895,-23.2737,36.8632,94.2299,12.8784,-56.3443,59.1389,-40.8872,3.21966,-24.6299,50.4012,-34.9755,19.5256,17.3826
5.02154,16.3516,27.4904,22.2009,-54.0428,-10.6004,4.681,-3.90935,0.222336,-2.72579,-5.32028,-1.6881,-5.63292,-2.68418,-1.36387,-6.44949,9.97508,3.09952,26.5115,13.4523,-1.6981,9.77922,6.14294,0.256381,-3.26007e-14,-5.40694e-14,-59.1059,39.2359,-87.0227,116.603,-88.2024,21.1803,2.08352,7.12502,45.633,-21.1623,-3.26007e-14,-5.40694e-14,-18.1306,-71.3846,66.0338,102.727,58.4538,35.8723,13.9911,7.12502,58.8945,28.8818,-83.4896,-22.1728,37.0894,91.9213,12.0155,-55.9089,60.3015,-40.8133,3.46721,-24.7383,50.4681,-34.7132,19.3116,17.6988
5.02571,16.3504,27.4698,21.7723,-54.0599,-10.2917,5.33499,-4.19162,-0.254489,-2.72988,-5.73736,-1.65054,-5.97225,-2.86736,-0.969912,-6.57954,10.3565,2.70823,26.2661,14.0286,-1.63713,9.69543,6.385,0.399941,1.18674e-13,9.54166e-15,-60.5462,39.6671,-85.6869,116.122,-87.294,22.0707,3.537,7.12502,46.459,-19.3639,1.18674e-13,9.54166e-15,-15.6809,-71.8199,62.3651,102.15,58.4982,36.5591,15.195,7.12502,59.4869,29.503,-83.4836,-21.1361,37.2148,89.5014,12.9696,-55.1647,58.9958,-40.7517,3.81173,-24.925,50.5483,-34.5347,19.0758,17.2426
5.02636,16.3429,27.4434,21.4801,-54.1872,-9.96938,5.77314,-4.24821,-0.628929,-2.71943,-5.86149,-1.83203,-6.19646,-2.91527,-0.90378,-6.84781,10.5386,2.46744,26.0751,14.2653,-1.40819,9.64415,6.50128,0.548423,2.44505e-14,4.77083e-15,-61.5634,39.1669,-83.9715,115.143,-86.1314,23.0692,4.0287,7.12502,47.3828,-18.467,2.44505e-14,4.77083e-15,-11.9632,-72.5009,57.6801,101.045,58.1381,38.1313,18.1249,7.12502,60.8288,31.0047,-83.5205,-19.8704,37.2615,87.0092,13.3402,-54.9737,56.7965,-40.8925,4.44433,-25.1994,50.6677,-34.2092,18.7235,16.6574
5.0224,16.3321,27.4158,21.6366,-54.3077,-10.1826,6.20899,-4.35683,-0.819674,-2.78739,-6.0406,-1.91953,-6.51152,-2.99413,-0.830587,-6.74684,10.8097,2.36686,25.7283,14.6271,-1.31411,9.49364,6.68397,0.616069,2.40529e-14,1.27222e-14,-62.8602,39.1682,-82.7586,114.477,-85.7118,22.6103,3.99139,7.12502,46.9585,-18.6931,2.40529e-14,1.27222e-14,-9.12587,-72.9945,53.8004,99.6049,57.5187,38.7587,19.7253,7.12502,61.3584,31.9958,-83.2587,-18.4325,37.5437,84.4025,9.2323,-55.3247,55.5424,-41.0785,5.13485,-25.1374,50.8429,-33.9651,18.3918,15.9993
5.0164,16.3179,27.3908,21.6688,-54.4315,-10.1808,6.51762,-4.81082,-1.22797,-2.85093,-6.69709,-1.93609,-6.72219,-3.29714,-0.515466,-6.65055,11.4116,2.15422,25.3867,15.4823,-1.30219,9.35477,7.07339,0.723974,-4.77083e-14,4.92986e-14,-63.6568,40.3736,-81.7462,113.453,-85.3188,21.789,4.00759,7.12502,46.1979,-19.0041,-4.77083e-14,4.92986e-14,-7.95338,-72.7674,51.021,98.0834,56.276,34.9004,17.2056,7.12502,58.0504,32.8817,-83.0734,-17.1265,37.8087,81.779,7.44246,-55.3062,54.2538,-41.3064,5.69355,-25.2114,51.0421,-33.652,18.2555,15.2605
5.00906,16.2942,27.3679,20.9689,-54.6511,-9.26674,6.77127,-4.99041,-1.29748,-2.93624,-7.03283,-2.87534,-7.07994,-3.48443,-1.37939,-6.41958,11.6663,2.88175,25.0806,15.6334,-0.963788,9.2413,7.25775,0.719442,2.94201e-14,7.95139e-15,-64.8881,39.8243,-81.6349,111.651,-84.6873,21.6609,4.08123,7.12502,46.0791,-18.9803,2.94201e-14,7.95139e-15,-3.11029,-73.9458,43.8144,97.0225,55.3975,40.5758,18.8697,7.12502,62.8708,29.2354,-83.0709,-15.9856,37.6307,79.2062,7.49533,-54.9848,53.4562,-41.496,6.16097,-25.8886,51.2124,-33.3275,18.2586,13.8371
5.00035,16.2726,27.3527,20.3978,-54.8468,-8.58939,7.19459,-5.44078,-2.40407,-3.06536,-7.76611,-2.83208,-7.32672,-3.78601,-0.590443,-6.38234,12.268,3.38849,24.9054,16.5063,-1.44413,9.28749,7.66,0.580784,-6.75868e-15,0,-65.0731,41.0391,-80.0857,109.228,-83.9698,22.6518,4.63486,7.12502,46.9969,-18.0327,-6.75868e-15,0,-1.99368,-73.8982,40.4775,96.0783,54.5504,38.7018,21.4325,7.12502,61.3106,33.7592,-82.9156,-15.0137,37.5989,76.5864,11.0272,-54.1699,51.8103,-41.6028,6.68855,-26.4248,51.4282,-33.1254,18.0849,12.2718
4.99,16.2484,27.3352,19.6949,-55.1025,-7.72481,7.41824,-5.35405,-2.22226,-3.22761,-7.75018,-3.84443,-7.80733,-3.81734,-1.71048,-6.11073,12.2745,4.02536,24.7509,16.2749,-0.838369,9.17961,7.68082,0.635975,-7.95139e-15,0,-66.4797,39.9695,-79.6275,106.943,-82.9978,23.5547,4.9355,7.12502,47.831,-17.3558,-7.95139e-15,0,4.08912,-75.1689,33.6521,93.0793,52.0514,39.599,21.9959,7.12502,62.0619,33.4124,-82.7587,-14.0874,37.3733,74.0171,15.6644,-52.6193,49.8377,-41.7526,7.22255,-27.0712,51.6849,-33.0618,17.7017,11.0952
4.98012,16.2209,27.3078,19.5745,-55.1397,-7.41638,7.55819,-5.60176,-2.75181,-3.33336,-8.16578,-3.94967,-7.95702,-3.9953,-1.45515,-6.11722,12.5656,3.8001,24.482,16.628,-0.503139,9.04333,7.86901,0.801013,2.66371e-14,5.725e-14,-66.7479,40.6208,-78.0494,105.018,-82.9754,23.8617,4.32299,7.12502,48.1141,-17.8364,2.66371e-14,5.725e-14,7.15771,-75.1582,29.7893,90.0698,49.1791,41.022,21.1814,7.12502,63.2368,31.0451,-82.5497,-13.0945,37.5194,71.337,20.0583,-50.4213,48.3667,-42.2244,7.96174,-27.3627,52.0645,-32.7109,17.1576,10.2075
4.97264,16.1935,27.2761,19.5316,-55.1008,-7.24354,7.78391,-5.86222,-3.26495,-3.43735,-8.60126,-4.02316,-8.1467,-4.17948,-1.16375,-6.31906,12.8438,3.8309,24.4135,16.9402,-0.20765,9.03836,8.04672,0.935798,-1.24638e-13,-3.81667e-14,-66.8618,41.3503,-76.3387,102.869,-83.0869,24.7802,3.70703,7.12502,48.9593,-18.0455,-1.24638e-13,-3.81667e-14,11.1796,-75.289,24.5745,87.658,46.8894,41.258,21.3087,7.12502,63.4294,30.9011,-82.2328,-12.0649,37.7249,68.6946,25.2401,-47.6503,45.93,-42.72,8.83847,-27.569,52.465,-32.2389,16.4833,9.50334
4.96596,16.1742,27.2524,19.0726,-55.1621,-6.73003,8.0917,-6.04338,-3.65492,-3.51317,-8.95897,-4.41884,-8.42344,-4.34236,-1.27608,-6.63565,13.0636,4.50103,24.5133,17.0969,0.00961004,9.17963,8.19122,0.961356,4.07509e-14,-1.59028e-14,-66.7428,41.4882,-74.7239,100.008,-82.7988,26.6536,3.12396,7.12502,50.6749,-17.7371,4.07509e-14,-1.59028e-14,16.662,-75.6012,17.8122,85.0846,44.5016,40.6008,22.0485,7.12502,62.8914,32.3864,-81.7517,-11.0315,37.3868,66.2246,26.2358,-46.3075,44.7482,-42.9612,9.66714,-28.0062,52.7372,-31.7935,16.0718,8.50609
4.95764,16.1488,27.2353,18.112,-55.2307,-5.56762,8.32285,-6.31711,-4.35295,-3.59039,-9.49059,-4.91716,-8.63187,-4.57939,-1.31299,-6.78917,13.3945,5.07478,24.4915,17.4008,0.297515,9.23765,8.40873,1.0224,4.77083e-15,1.59028e-14,-66.4613,41.8066,-73.3103,97.0363,-82.0774,28.3178,2.95301,7.12502,52.1884,-17.04,4.77083e-15,1.59028e-14,20.776,-75.6587,12.4209,82.2773,41.8444,39.6763,22.902,7.12502,62.1263,34.2376,-81.5174,-10.2137,36.5569,64.0314,26.0703,-45.2301,43.8543,-43.1313,10.2944,-28.8438,52.8684,-31.4253,15.7166,7.54437
4.95326,16.1332,27.2197,16.7913,-55.3271,-4.01202,8.60003,-6.49661,-5.23057,-3.70687,-9.93459,-5.41477,-8.87982,-4.76089,-1.2606,-6.46023,13.624,5.29504,24.0268,17.6596,0.429778,9.03207,8.57862,1.01746,-8.44835e-14,5.08889e-14,-66.3366,42.1871,-71.8429,94.0179,-80.8921,29.9319,3.12458,7.12502,53.6457,-15.9502,-8.44835e-14,5.08889e-14,24.7626,-75.6125,7.50142,79.3377,38.8104,39.8052,22.3099,7.12502,62.2335,33.51,-81.3936,-9.51479,35.19,62.0595,24.1617,-44.8856,44.6606,-43.1312,10.8381,-29.9431,52.8504,-31.1676,15.243,7.15353
4.95137,16.1248,27.2052,16.0946,-55.4102,-3.31631,8.93266,-6.49747,-5.60753,-3.8748,-10.0801,-5.75963,-9.26885,-4.81247,-1.35007,-6.15435,13.6444,5.39996,23.7836,17.6411,0.597504,8.88629,8.60576,1.01854,7.25564e-14,-9.54166e-15,-66.477,42.229,-70.2602,90.855,-79.8286,31.2829,3.09609,7.12502,54.8565,-15.1459,7.25564e-14,-9.54166e-15,29.6314,-75.5692,2.08877,76.2775,35.35,40.6916,21.4711,7.12502,62.966,31.7079,-81.1352,-8.64359,34.1403,60.1824,23.0183,-44.2634,45.2721,-43.0681,11.3463,-30.4662,52.8549,-30.9488,14.9969,6.5723
4.94398,16.0983,27.1921,15.3774,-55.5188,-2.63664,9.21256,-6.51178,-6.07648,-3.9419,-10.2449,-6.11483,-9.5041,-4.8728,-1.41193,-6.44292,13.6921,5.66108,23.9651,17.5865,0.938647,8.99317,8.62843,1.11727,-5.26779e-14,5.08889e-14,-66.1516,42.2663,-68.5516,87.6412,-79.5783,31.9505,2.37187,7.12502,55.4515,-15.4351,-5.26779e-14,5.08889e-14,33.5322,-75.1388,-2.37206,73.1144,31.584,41.4759,22.6851,7.12502,63.6068,32.0233,-80.964,-7.92859,33.6417,58.4408,25.7136,-41.7528,43.197,-43.0361,12.0138,-30.9751,52.9097,-30.6009,14.6373,6.24248
4.93775,16.0678,27.1739,14.5566,-55.5659,-1.83302,9.46739,-6.59981,-6.68156,-3.92457,-10.5132,-6.44003,-9.60138,-4.97731,-1.36251,-6.64142,13.842,5.95045,23.8488,17.7223,1.05011,9.01096,8.72839,1.14149,8.40859e-14,6.36111e-15,-65.5478,42.5001,-66.8436,84.4836,-79.4056,32.2255,1.76419,7.12502,55.6959,-15.8589,8.40859e-14,6.36111e-15,35.8792,-74.3833,-5.24372,69.9273,27.8428,42.2231,22.1456,7.12502,64.2104,30.5845,-80.7524,-7.17914,32.8823,56.8289,25.4543,-40.7143,42.8061,-43.1212,12.8069,-31.5813,53.1293,-30.152,14.3066,4.82266
4.93767,16.0488,27.151,13.4444,-55.5286,-0.642125,9.73303,-6.66183,-7.42733,-3.90527,-10.7834,-6.84716,-9.69581,-5.07833,-1.32561,-6.8465,13.9407,6.1686,23.7044,17.7973,1.15782,9.01157,8.79461,1.16631,1.0138e-14,-3.49861e-14,-65.1047,42.6086,-65.2212,81.5182,-79.3978,32.1932,1.03457,7.12502,55.6672,-16.6102,1.0138e-14,-3.49861e-14,38.5869,-73.6633,-8.40092,66.8764,24.3824,42.0911,22.0072,7.12502,64.1043,30.6082,-80.6205,-6.19431,31.132,55.4579,22.6015,-41.3386,44.5802,-43.1881,13.4488,-32.4179,53.3591,-29.7745,13.8927,3.98178
4.93089,15.9934,27.133,12.3953,-55.3723,0.462854,10.1376,-6.75763,-8.19334,-3.98254,-11.1243,-7.13052,-9.94728,-5.1955,-1.11529,-7.02077,14.0205,6.0909,23.5062,17.8481,1.46287,8.93659,8.84832,1.28156,-5.10877e-14,-1.27222e-14,-64.6362,42.8498,-63.4234,78.6348,-79.9704,32.3712,-0.0507106,7.12502,55.8252,-17.5752,-5.10877e-14,-1.27222e-14,40.1943,-73.0575,-10.2661,63.7853,20.8896,41.542,22.2353,7.12502,63.6605,31.4956,-80.6545,-5.8546,30.6943,54.1724,25.8604,-38.6021,41.9271,-43.3886,13.9843,-33.1702,53.7696,-29.5285,13.3966,3.03644
4.92576,15.944,27.1121,11.2009,-55.301,1.72867,10.5765,-6.72773,-9.1369,-4.09952,-11.3238,-7.28922,-10.204,-5.22152,-0.700629,-7.16678,14.0653,5.55581,23.2443,17.9,1.87826,8.77527,8.88059,1.48148,8.62725e-14,5.725e-14,-64.0982,43.0182,-61.1714,75.5169,-80.145,33.0514,-0.112659,7.12502,56.4274,-17.1659,8.62725e-14,5.725e-14,40.9459,-72.2307,-10.7987,60.649,16.9751,41.7168,21.6992,7.12502,63.8021,30.7521,-80.5926,-5.1477,29.5717,53.0236,27.5282,-36.5379,39.2198,-43.5936,14.5636,-34.0347,54.254,-29.3911,12.889,2.54596
4.92662,15.9193,27.0853,10.4339,-55.1724,2.50849,10.8789,-6.52569,-9.69202,-4.10742,-11.1859,-7.33006,-10.3082,-5.11122,-0.442596,-7.61493,13.8785,4.54434,23.1281,17.6689,2.43147,8.65111,8.75349,1.78468,5.10877e-14,0,-63.4535,42.6955,-58.4175,72.1823,-79.5421,34.2265,0.627437,7.12502,57.4613,-15.5677,5.10877e-14,0,42.5589,-70.9853,-11.5883,57.5599,12.8605,42.0436,21.0375,7.12502,64.066,29.6964,-80.359,-3.46347,27.0222,52.0422,24.0478,-38.2831,41.0985,-43.8218,15.0488,-34.5745,54.7784,-29.3149,12.3876,2.15597
4.91815,15.8464,27.0676,9.76655,-54.996,3.10683,11.3275,-6.85979,-10.0646,-4.1237,-11.8471,-7.82164,-10.6225,-5.41335,-0.599388,-7.7935,14.1597,5.76264,23.1942,17.8635,2.40395,8.83835,8.93318,1.66434,-2.78299e-15,-8.90555e-14,-62.2731,42.902,-57.0837,68.9802,-78.6734,35.2806,0.781208,7.12502,58.3813,-14.593,-2.78299e-15,-8.90555e-14,41.4711,-70.0423,-11.795,55.0077,8.81561,41.9514,20.8697,7.12502,63.9917,29.6406,-80.1782,-2.42969,25.9309,51.0963,25.8756,-36.3759,37.6195,-44.1449,15.3901,-35.0055,55.514,-29.1662,12.3413,0.968945
4.91402,15.7789,27.0535,8.70799,-54.8275,4.17109,11.8379,-7.03704,-10.6836,-4.19528,-12.3439,-8.18267,-10.9675,-5.60619,-0.507472,-7.88708,14.3006,6.25831,22.9763,17.986,2.37308,8.83742,9.03085,1.60443,-6.36111e-14,2.8625e-14,-61.0505,43.1062,-55.144,66.1513,-78.039,36.2292,0.479484,7.12502,59.2028,-14.1113,-6.36111e-14,2.8625e-14,40.376,-68.9348,-11.2658,52.3435,4.67527,41.9302,20.3174,7.12502,63.9746,29.114,-80.1603,-1.59102,24.5234,50.4159,27.5501,-34.6617,34.1796,-44.3638,15.5639,-35.7,56.2016,-29.2431,12.2033,0.0941393
4.91407,15.7176,27.0454,7.79098,-54.7446,5.15864,12.1897,-7.09781,-11.1764,-4.30102,-12.6458,-8.49694,-11.2786,-5.71373,-0.484302,-7.80718,14.3867,6.47312,22.6007,18.0781,2.38567,8.71693,9.10142,1.56625,-2.127e-14,-3.49861e-14,-59.653,42.9636,-52.8168,63.1526,-76.9772,36.815,0.478039,7.12502,59.7067,-13.6066,-2.127e-14,-3.49861e-14,39.5809,-67.667,-10.6825,49.7546,0.510797,41.7842,19.6779,7.12502,63.8567,28.6502,-80.2263,-0.605015,22.865,49.9305,25.9944,-35.6139,35.1783,-44.7059,15.6752,-36.369,56.9376,-29.5079,11.907,-0.0594119
