JuanDHNZ/ProyectoFinalCD/preprocessing/sports_trials_csv/05_08.csv
root1,root2,root3,root4,root5,root6,lowerback1,lowerback2,lowerback3,upperback1,upperback2,upperback3,thorax1,thorax2,thorax3,lowerneck1,lowerneck2,lowerneck3,upperneck1,upperneck2,upperneck3,head1,head2,head3,rclavicle1,rclavicle2,rhumerus1,rhumerus2,rhumerus3,rradius1,rwrist1,rhand1,rhand2,rfingers1,rthumb1,rthumb2,lclavicle1,lclavicle2,lhumerus1,lhumerus2,lhumerus3,lradius1,lwrist1,lhand1,lhand2,lfingers1,lthumb1,lthumb2,rfemur1,rfemur2,rfemur3,rtibia1,rfoot1,rfoot2,rtoes1,lfemur1,lfemur2,lfemur3,ltibia1,lfoot1,lfoot2,ltoes1
-3.63207,16.1288,-35.0103,54.7985,85.3663,36.8167,-10.2604,-0.42836,-0.854257,-9.85259,0.00211486,0.706022,-4.5569,0.291568,1.19725,2.00336,-24.0494,-16.0681,18.6713,-34.446,10.8534,10.2938,-16.5613,1.77141,-1.14301e-14,-1.59028e-15,17.2144,1.80991,-47.4272,27.5379,-24.6912,0.157537,16.117,7.12502,25.7413,-12.162,-1.14301e-14,-1.59028e-15,-34.9403,21.0877,23.8534,15.6087,-52.4433,5.40546,21.0345,7.12502,30.7566,48.4821,-39.5468,16.1701,-17.458,40.6155,-83.4447,6.57452,62.0486,-29.911,-4.82297,-21.8141,36.0445,-24.9107,23.6169,-36.7605
-3.60956,16.1077,-34.9427,53.9718,84.9484,36.1373,-10.6235,-1.00074,-1.54017,-9.3504,-0.730707,1.58088,-3.78365,-0.0355473,2.44542,0.809945,-23.7776,-16.2311,18.4649,-33.8122,10.4413,10.2715,-16.2646,1.65696,6.85807e-15,-7.95139e-16,15.4594,10.4543,-39.4797,33.6703,-34.9261,-5.3869,11.075,7.12502,20.4216,-17.8711,6.85807e-15,-7.95139e-16,-35.9829,22.5138,22.0687,15.3765,-53.2291,5.24035,21.3505,7.12502,30.5992,48.8276,-39.1857,14.0429,-16.8566,40.6001,-82.6988,4.59208,62.1392,-29.7941,-4.51727,-21.9119,36.268,-24.5229,24.1535,-38.3355
-3.58393,16.1118,-34.8783,53.4023,84.4312,35.7424,-10.4075,-0.981888,-1.4317,-9.3211,-0.728041,1.43864,-3.87212,-0.0483117,2.23781,0.686486,-23.9311,-16.1832,18.4303,-34.0186,10.4267,10.295,-16.3521,1.59123,9.93923e-15,-1.74931e-14,13.0204,13.1434,-35.1597,36.6709,-39.1347,-8.96257,7.68648,7.12502,16.9825,-21.5911,9.93923e-15,-1.74931e-14,-35.4337,23.0423,20.2619,15.2183,-54.5101,5.41854,21.4587,7.12502,30.7691,48.9039,-39.0642,8.56092,-15.0054,40.9025,-79.1475,-0.271195,62.2816,-29.5874,-4.29334,-22.0789,36.4952,-24.4347,24.3445,-38.2137
-3.55814,16.0935,-34.8012,51.5227,84.0268,34.1174,-10.0349,-0.987042,-1.20637,-9.35375,-0.761865,1.36277,-4.1119,-0.0806953,2.03339,0.773804,-24.0737,-16.1204,18.1485,-34.2194,10.4941,10.2067,-16.454,1.58932,-6.36111e-15,8.74653e-15,11.4081,13.2779,-32.6712,37.073,-39.5029,-10.9216,5.70935,7.12502,15.096,-23.7202,-6.36111e-15,8.74653e-15,-35.0979,23.5059,18.3721,15.1873,-55.7778,5.58722,21.5812,7.12502,30.9299,48.996,-39.2979,-0.0714251,-12.188,41.0966,-72.9327,-8.99935,62.0263,-29.3386,-3.79998,-22.1109,36.7414,-22.8186,25.2406,-41.2168
-3.53259,16.0929,-34.7298,46.5948,84.0401,29.4171,-9.61824,-1.00174,-0.441641,-9.42973,-0.825975,1.54137,-4.42691,-0.147633,1.79154,0.835526,-23.8791,-16.2429,17.9218,-33.967,10.6974,10.1426,-16.3428,1.72424,-1.83876e-14,2.46493e-14,10.5518,11.5564,-31.1734,35.2036,-36.9879,-11.705,5.93439,7.12502,14.3412,-23.5503,-1.83876e-14,2.46493e-14,-34.7967,23.3671,17.0176,15.2454,-56.2001,5.71727,22.1108,7.12502,31.0539,49.5019,-39.1448,-0.862003,-10.9456,41.3894,-72.7448,-8.55663,62.2388,-29.132,-3.44858,-21.4909,37.0717,-23.8494,24.7748,-38.9241
-3.51252,16.0983,-34.6521,45.6978,83.5114,28.7542,-9.21789,-1.0337,-0.565993,-9.46929,-0.864932,1.62321,-4.68567,-0.15802,1.94956,0.893977,-23.8996,-16.1748,17.6658,-33.974,10.7061,10.0307,-16.3575,1.74325,1.2921e-15,-1.74931e-14,10.1567,8.61479,-30.2331,32.5949,-34.3958,-12.7673,5.33106,7.12502,13.3175,-24.2234,1.2921e-15,-1.74931e-14,-34.1303,22.4443,16.4093,15.256,-55.5742,5.73719,22.745,7.12502,31.0729,50.1326,-38.9992,0.944646,-10.8844,41.5651,-74.9484,-4.55066,62.5268,-28.8202,-3.51327,-21.5165,37.3235,-24.2346,25.4575,-38.4575
-3.49382,16.0861,-34.5577,41.3823,83.074,24.7348,-8.83851,-1.05059,-0.131851,-9.36891,-0.924662,1.68403,-4.79085,-0.218454,1.77078,0.954253,-24.0102,-16.3918,17.5349,-34.2007,11.0517,10.1116,-16.4521,1.80993,5.36719e-15,3.18055e-15,10.5191,2.77334,-30.714,28.3418,-28.2822,-12.5595,6.27089,7.12502,13.5178,-23.2704,5.36719e-15,3.18055e-15,-33.3486,21.1838,15.7166,15.3133,-54.3453,5.91772,23.358,7.12502,31.2449,50.7125,-39.9961,-8.9431,-6.97937,41.9162,-67.1709,-15.4589,62.0449,-28.4817,-3.70552,-20.9954,37.6261,-25.5357,25.3958,-35.2139
-3.4727,16.1024,-34.465,37.5643,82.5863,21.3033,-8.51791,-1.24358,-0.0226475,-9.13644,-1.19808,2.12981,-4.7043,-0.358324,2.16458,0.472247,-23.7805,-16.638,17.4417,-33.7929,10.9938,10.1315,-16.2625,1.83688,-7.95139e-16,-1.82882e-14,12.0692,-5.91357,-31.9494,23.3513,-18.6155,-11.8862,8.48125,7.12502,14.1667,-21.0157,-7.95139e-16,-1.82882e-14,-33.5019,21.4187,14.4175,15.3928,-54.4696,6.1364,23.6277,7.12502,31.4533,50.9418,-39.3948,-1.05438,-8.20787,42.2271,-74.0095,-6.91381,62.7448,-27.966,-3.61219,-20.5824,37.8049,-25.1554,25.9021,-34.9575
-3.44674,16.0953,-34.3626,35.0499,81.9489,19.2022,-8.15819,-1.31712,0.0916049,-8.99952,-1.31368,2.26875,-4.7523,-0.426302,2.24537,0.33937,-23.8783,-16.7776,17.4283,-33.8763,10.8123,10.1473,-16.3169,1.76008,-2.23633e-14,6.36111e-15,14.0754,-19.0617,-34.9788,18.1978,-4.18846,-11.2655,11.6596,7.12502,14.7647,-17.7945,-2.23633e-14,6.36111e-15,-33.1722,21.4784,13.1503,15.4345,-54.7717,6.34624,23.7974,7.12502,31.6532,51.0723,-39.9893,-4.96366,-6.09387,42.8644,-70.7901,-12.0575,62.7933,-27.4694,-3.29437,-20.3833,38.1319,-24.7165,26.5604,-36.3455
-3.4185,16.0923,-34.262,32.3251,81.4169,16.8616,-7.66097,-1.27869,0.699174,-9.04558,-1.29183,2.10607,-5.09669,-0.457648,1.74716,0.33198,-24.0746,-16.2943,17.6269,-34.0786,10.2525,10.0508,-16.4253,1.53419,-9.44227e-15,-1.59028e-14,17.3281,-36.2627,-40.1526,14.0181,14.8054,-11.766,14.6099,7.12502,14.2825,-14.8789,-9.44227e-15,-1.59028e-14,-32.0634,19.6187,12.7604,15.6491,-53.2791,6.65083,24.8237,7.12502,31.9433,52.041,-40.6615,-8.86426,-3.70206,43.5192,-67.9289,-16.0003,62.4361,-27.0111,-3.35088,-19.9972,38.5069,-24.2667,27.6994,-38.0804
-3.39354,16.0816,-34.1698,30.5335,80.9792,15.4003,-7.38932,-1.4567,1.13308,-8.92715,-1.55546,2.16166,-5.12609,-0.619965,1.55875,0.334741,-23.7749,-16.3906,17.5975,-33.7755,10.8034,10.1268,-16.247,1.7519,-4.41302e-14,2.06736e-14,21.8312,-49.2996,-45.2383,12.0177,30.1299,-12.7808,15.7037,7.12502,13.3045,-13.8517,-4.41302e-14,2.06736e-14,-31.6181,18.2804,12.1255,15.6485,-50.3811,4.49678,23.4359,7.12502,29.8899,51.0431,-41.7175,-13.6435,-1.0206,44.4577,-64.1388,-20.3433,61.5003,-26.7493,-3.52855,-19.648,39.0996,-24.5009,28.2735,-38.0909
-3.36776,16.0785,-34.0502,28.707,79.9535,13.9687,-7.0429,-1.54477,0.956573,-8.88737,-1.67163,2.22471,-5.26718,-0.671055,1.72815,0.366489,-23.6777,-15.9156,17.7309,-33.5843,10.3931,9.98077,-16.1693,1.65829,-7.95139e-16,1.74931e-14,29.6031,-61.722,-54.1715,11.0947,45.7724,-13.4685,16.3655,7.12502,12.6416,-13.2319,-7.95139e-16,1.74931e-14,-30.957,14.2489,12.7718,15.9892,-44.8474,2.61478,23.6734,7.12502,28.0924,51.5896,-42.9553,-17.1235,1.44958,45.3694,-60.5258,-24.3476,60.0903,-26.2099,-3.20286,-19.419,39.7826,-26.3776,27.1813,-34.3145
-3.34473,16.0466,-33.9279,26.0867,79.0024,11.8245,-6.76393,-1.56947,1.13177,-8.68508,-1.72377,2.3373,-5.20762,-0.712234,1.74963,0.268887,-23.6279,-15.7439,17.8225,-33.4801,10.1929,9.94724,-16.1226,1.60106,-2.38542e-15,3.18055e-15,37.4207,-68.8508,-61.6754,10.8565,55.1776,-13.2944,16.5144,7.12502,12.8094,-13.0726,-2.38542e-15,3.18055e-15,-30.5279,16.016,10.5802,16.0382,-48.0931,4.68081,23.6986,7.12502,30.0655,51.274,-44.2263,-20.3067,4.44311,46.3475,-57.5601,-25.2886,59.3284,-25.8612,-2.4987,-19.1464,40.5263,-23.9982,29.2402,-38.6477
-3.31499,16.0585,-33.7943,24.8698,77.9815,10.9753,-6.60295,-1.66828,1.05519,-8.54577,-1.86685,2.39567,-5.14068,-0.784641,1.85164,-0.0611565,-23.524,-15.5238,18.1134,-33.2657,9.81192,9.96648,-16.0175,1.47498,-3.04141e-14,7.95139e-16,32.7004,-69.1756,-55.818,11.1577,55.5775,-12.6053,16.3647,7.12502,13.4736,-13.1795,-3.04141e-14,7.95139e-16,-29.9511,16.6659,8.97504,16.2095,-50.2757,7.33228,24.9033,7.12502,32.5919,51.9887,-45.1936,-21.239,6.0087,47.2403,-55.7339,-29.7088,57.3065,-25.4821,-2.1877,-18.8886,41.2238,-24.6962,29.113,-36.5859
-3.28581,16.0565,-33.6629,24.5634,76.9231,11.1126,-6.34922,-1.82128,0.855319,-8.42637,-2.07872,2.42427,-5.14104,-0.885792,1.9939,-0.317009,-23.4716,-15.4758,18.406,-33.1184,9.39785,10.007,-15.9592,1.34377,3.79679e-14,-2.38542e-14,27.5104,-69.0479,-49.7593,11.4888,55.9137,-12.8594,16.1227,7.12502,13.2287,-13.4376,3.79679e-14,-2.38542e-14,-29.4564,15.6937,8.34537,16.4151,-49.1615,7.33566,25.4115,7.12502,32.5951,52.4962,-46.2932,-23.0972,7.94373,48.2286,-53.3045,-32.0181,55.4177,-25.0645,-1.55783,-18.8693,41.8698,-23.636,29.6806,-38.0801
-3.25765,16.0421,-33.5289,26.1175,75.5229,13.1896,-6.2005,-1.97459,-0.00862513,-8.24665,-2.2848,2.40934,-4.99164,-0.952055,2.4574,-0.463223,-23.1796,-15.7701,18.6181,-32.705,9.393,10.1058,-15.7707,1.41338,2.38542e-15,-1.59028e-14,34.4957,-74.2835,-56.4205,11.477,62.9298,-13.3636,16.3428,7.12502,12.7427,-13.2484,2.38542e-15,-1.59028e-14,-29.1707,15.6709,7.48421,16.6914,-49.3529,7.67864,25.7333,7.12502,32.9214,52.75,-47.4891,-24.7354,9.23273,49.1894,-50.8343,-34.3529,52.9192,-24.5595,-0.938378,-19.5082,42.4123,-21.2193,30.8669,-40.974
-3.23067,16.0288,-33.3937,28.2343,74.0909,15.7652,-6.03527,-1.99606,-0.84228,-8.23387,-2.31769,2.06739,-5.04954,-0.938476,2.57271,-0.384734,-23.0519,-15.9495,18.9221,-32.5462,9.29003,10.1944,-15.7092,1.4225,-4.22417e-14,-3.18055e-15,41.2536,-78.8093,-62.8357,11.5908,68.796,-13.2201,16.5969,7.12502,12.881,-12.9856,-4.22417e-14,-3.18055e-15,-28.1423,14.1272,7.28216,17.0884,-48.4339,8.14756,26.3331,7.12502,33.3673,53.2551,-48.7031,-26.1841,10.2193,50.1339,-50.3977,-34.1682,51.799,-24.1735,-0.309416,-20.3444,42.9052,-18.1498,31.813,-43.8204
-3.20331,16.0144,-33.2655,29.6694,72.9934,17.5785,-5.90371,-2.00572,-1.27266,-8.25247,-2.34355,1.66513,-5.14104,-0.942487,2.39957,-0.431518,-23.0432,-15.8518,19.296,-32.5259,9.01689,10.2672,-15.7018,1.32123,-6.11263e-14,2.22639e-14,37.3623,-81.2972,-58.2529,11.7952,71.2586,-13.0942,16.5884,7.12502,13.0024,-12.9864,-6.11263e-14,2.22639e-14,-26.8619,13.3867,6.90331,17.2497,-48.0716,7.80804,26.4157,7.12502,33.0445,53.4065,-49.797,-27.6708,11.3403,50.8974,-50.7728,-33.2746,51.9611,-23.8494,-0.0343642,-20.8367,43.2528,-14.5141,32.8242,-47.2593
-3.17538,16.0203,-33.1237,28.9315,71.89,17.3087,-5.70896,-1.98433,-1.40761,-8.17163,-2.33143,1.50139,-5.16601,-0.939203,2.30996,-0.419212,-22.9909,-15.7845,19.6432,-32.4669,8.84324,10.3404,-15.674,1.26548,-4.47266e-15,1.03368e-14,26.0222,-82.5257,-46.1204,11.8733,72.1681,-12.4302,16.1873,7.12502,13.6424,-13.3456,-4.47266e-15,1.03368e-14,-25.738,12.9655,6.35451,17.3593,-47.8368,7.24036,26.3367,7.12502,32.5045,53.4402,-50.3641,-28.2247,12.6542,51.3178,-51.1616,-33.2507,51.7802,-23.3173,0.754036,-20.7145,43.6443,-10.8356,33.3796,-49.7994
-3.15012,16.0468,-32.8885,26.9535,70.145,16.1357,-5.54999,-1.9679,-2.75391,-7.8532,-2.3031,1.66002,-4.86624,-0.864835,3.22748,-0.254318,-22.8338,-15.9034,19.9327,-32.3215,8.93176,10.4387,-15.6047,1.33249,1.15295e-14,9.54166e-15,8.6098,-80.7411,-28.1743,11.9441,70.3107,-12.0135,16.4131,7.12502,14.044,-13.0924,1.15295e-14,9.54166e-15,-24.9061,12.639,5.58311,17.5302,-47.5468,6.73682,26.35,7.12502,32.0251,53.5509,-49.8307,-26.0233,13.1957,51.3863,-54.5082,-31.875,52.5531,-22.2344,2.34647,-20.1812,43.9907,-7.5683,33.3678,-51.2218
-3.12285,16.0815,-32.7595,28.1658,68.8676,17.9253,-5.30565,-2.11376,-3.29824,-7.84487,-2.51706,1.29364,-4.97465,-0.955795,3.15569,-0.082868,-22.5929,-16.2079,20.3203,-32.0661,9.03079,10.5919,-15.4918,1.43304,5.14852e-14,-1.27222e-14,-2.53402,-78.2199,-16.5916,12.0241,68.0038,-12.1443,16.1171,7.12502,13.9179,-13.3971,5.14852e-14,-1.27222e-14,-24.0036,12.7646,4.74718,17.4955,-47.7854,6.11523,26.591,7.12502,31.4331,53.909,-49.7725,-26.2628,13.0825,51.1262,-56.3297,-32.0716,52.0207,-20.9475,1.54126,-20.553,44.4538,-21.9612,27.7963,-30.8334
-3.09494,16.1198,-32.6225,28.0388,67.8463,18.0864,-5.35066,-2.14902,-3.27,-7.74689,-2.57374,1.17654,-4.84636,-0.996797,3.01303,-0.458912,-22.4569,-16.7877,20.8343,-31.9044,9.14367,10.9475,-15.4012,1.45965,1.19271e-14,-7.95139e-16,-9.41283,-75.1512,-9.0921,12.2096,64.292,-10.5713,15.8071,7.12502,15.4334,-13.5968,1.19271e-14,-7.95139e-16,-22.9269,14.0815,4.13102,17.3177,-48.7913,5.36989,26.4813,7.12502,30.7227,53.9353,-49.568,-25.7792,13.3653,50.6031,-58.5261,-31.4083,52.8468,-20.7124,1.57871,-20.4277,45.1861,-24.2254,25.698,-21.2298
-3.06972,16.1493,-32.4136,25.8138,66.6809,16.5836,-5.21683,-2.10705,-3.59028,-7.35987,-2.52702,1.36576,-4.49532,-0.974082,3.38609,-0.955267,-22.325,-17.091,21.3294,-31.7086,9.12956,11.2429,-15.2865,1.42953,7.49418e-14,-2.38542e-15,-15.3457,-73.4959,-2.70426,12.2539,62.82,-10.273,15.2919,7.12502,15.7207,-14.0895,7.49418e-14,-2.38542e-15,-21.8277,15.1349,3.64637,17.2525,-49.3093,4.53473,26.3493,7.12502,29.9261,53.9499,-48.489,-24.2416,14.0199,50.0979,-61.0784,-30.4268,53.7865,-20.2311,4.0348,-19.7336,45.7068,-12.1456,30.7315,-41.2942
-3.04952,16.1624,-32.3193,25.4981,65.9989,15.702,-5.60004,-2.29968,-2.35967,-7.76928,-2.79147,1.12744,-4.75252,-1.15874,2.44018,-0.548348,-22.2128,-17.0751,21.6582,-31.6266,9.0103,11.2618,-15.2725,1.44816,2.42517e-14,5.56597e-15,-20.3522,-71.9974,2.24539,12.2931,62.0089,-10.0522,14.9351,7.12502,15.9334,-14.4295,2.42517e-14,5.56597e-15,-20.9241,14.2119,2.96269,17.3193,-48.27,3.73571,26.2316,7.12502,29.1633,53.9672,-49.4921,-24.7585,15.5363,49.543,-61.1551,-31.7291,53.4406,-21.1876,2.98054,-19.0836,46.7652,-20.5793,27.6338,-19.8057
-3.03421,16.1837,-32.022,23.2397,64.1709,15.1623,-4.6957,-2.35895,-4.22017,-7.40753,-2.89325,1.19729,-4.79203,-1.1271,3.57963,-0.230114,-21.8239,-17.0975,22.248,-31.2204,9.08646,11.3959,-15.0828,1.57478,3.52843e-14,3.18055e-15,-31.4326,-75.9466,13.3819,12.1482,67.2114,-9.76188,15.2142,7.12502,16.2129,-14.1278,3.52843e-14,3.18055e-15,-20.0228,12.754,2.24003,17.4587,-47.097,3.05303,25.9483,7.12502,28.5112,53.795,-46.9174,-22.4356,15.2718,49.1548,-63.7799,-30.5111,53.4516,-19.295,6.04416,-18.3524,47.4879,-11.364,30.3831,-32.8703
-3.02534,16.1786,-31.9109,23.1398,62.8996,14.5434,-4.98702,-2.19798,-3.40581,-7.72396,-2.68133,0.871681,-5.0274,-1.05784,2.78433,-0.509948,-21.7947,-17.152,22.9534,-31.2038,8.90313,11.6897,-15.0544,1.46043,9.17391e-14,2.70347e-14,-30.4947,-69.7177,12.2112,12.346,61.5886,-9.28829,14.4344,7.12502,16.6689,-14.8699,9.17391e-14,2.70347e-14,-18.4507,11.0942,2.40333,17.7182,-45.1242,2.78059,25.9559,7.12502,28.2509,53.846,-47.8002,-22.2049,16.3471,48.8429,-63.7657,-31.5308,52.7468,-20.778,6.57512,-18.3131,48.6572,-8.32734,32.2644,-29.2068
-3.04098,16.1776,-31.771,21.0988,61.5087,12.2823,-4.80134,-1.9873,-2.63862,-7.74573,-2.41329,1.06538,-5.19245,-0.957354,2.5675,-0.974205,-21.7781,-17.1669,23.3638,-31.1472,8.74861,11.8964,-15.0048,1.35058,3.27995e-15,-2.14687e-14,-26.9426,-60.2291,7.98061,12.7674,52.1333,-8.72866,13.3455,7.12502,17.2076,-15.9126,3.27995e-15,-2.14687e-14,-17.2051,12.0918,2.03943,17.6172,-46.0883,3.23672,25.8142,7.12502,28.6867,53.6314,-47.7925,-20.2684,17.6768,48.5342,-64.5185,-32.5189,52.2579,-21.7089,7.56746,-17.0819,49.9512,-9.08826,33.6908,-15.9322
-3.03529,16.1778,-31.5138,20.5424,59.8911,12.9273,-4.55152,-2.16125,-4.58004,-7.34035,-2.64599,1.17166,-4.81441,-0.99245,3.76253,-1.21334,-21.4601,-17.0855,23.7759,-30.7058,8.66626,12.0097,-14.7864,1.37148,-6.4605e-15,1.11319e-14,-25.9913,-52.8747,6.14507,13.1008,45.5745,-8.60639,12.7872,7.12502,17.3253,-16.4606,-6.4605e-15,1.11319e-14,-16.3219,13.327,1.34142,17.6316,-47.868,3.89492,24.8658,7.12502,29.3154,52.5749,-46.0154,-18.7052,17.1958,48.4386,-64.7308,-32.9857,51.6492,-20.7022,9.31036,-16.677,51.0365,-9.66987,34.281,-4.90821
-3.02662,16.1546,-31.4484,20.3653,58.444,12.0178,-4.74456,-1.95841,-3.14232,-7.87858,-2.3886,0.762889,-5.36358,-0.923895,2.53982,-0.532977,-21.3904,-16.9626,23.8878,-30.7517,8.73745,11.9322,-14.8287,1.45463,-1.38155e-14,-1.82882e-14,-25.191,-39.7574,2.58982,14.3582,33.3322,-8.19439,11.4018,7.12502,17.7218,-17.8106,-1.38155e-14,-1.82882e-14,-14.8396,11.6306,1.27259,18.0682,-46.6968,4.18427,25.2888,7.12502,29.5916,52.9492,-47.0864,-18.8313,18.4179,48.2679,-62.4195,-34.6369,50.2062,-22.6398,9.52077,-16.726,52.5587,-14.6755,35.6835,10.3402
-3.01359,16.1423,-31.2467,19.4814,57.1099,11.7359,-4.78974,-1.92607,-3.68106,-7.76776,-2.34744,0.644519,-5.21062,-0.88505,2.71418,0.251131,-21.3438,-16.7288,23.5829,-30.7975,8.85141,11.6618,-14.883,1.57451,-8.54774e-15,1.74931e-14,-30.1817,-46.8273,9.00605,13.6435,41.4949,-6.85664,12.3968,7.12502,19.0087,-16.6943,-8.54774e-15,1.74931e-14,-13.3278,9.64597,1.28251,18.4879,-44.8967,4.40923,26.6112,7.12502,29.8063,54.2334,-45.9927,-18.1513,18.8007,48.3011,-61.7677,-34.6628,49.3786,-22.3383,10.5853,-16.1532,53.5956,-17.0215,36.2876,18.9206
-3.01216,16.1221,-31.0715,19.1629,55.4115,11.8208,-4.71706,-1.98041,-4.35111,-7.64503,-2.42241,0.661425,-5.0945,-0.894623,3.10592,-0.0965048,-21.0932,-16.5993,23.7086,-30.4135,8.78699,11.6835,-14.6908,1.58093,-8.54774e-15,1.51076e-14,-36.589,-55.2935,17.2906,12.863,51.629,-6.67573,12.9569,7.12502,19.1827,-16.1171,-8.54774e-15,1.51076e-14,-12.4403,9.75486,1.00465,18.506,-44.9652,2.82822,26.211,7.12502,28.2964,54.0936,-45.3782,-17.3691,18.9844,48.2844,-60.427,-34.9284,48.6914,-22.4997,11.6662,-16.0274,54.8164,-20.3809,36.6499,27.0403
-3.01572,16.09,-30.8999,18.357,53.3966,11.2088,-5.32478,-2.15973,-5.32558,-7.04912,-2.60198,1.25924,-4.04865,-0.969747,4.23696,-1.28562,-20.903,-16.3368,23.6913,-29.8806,8.31614,11.6807,-14.4228,1.38862,1.5704e-14,-6.36111e-15,-38.0002,-56.5398,19.3276,12.7894,52.7408,-6.44963,12.876,7.12502,19.4001,-16.1762,1.5704e-14,-6.36111e-15,-12.3877,11.4322,0.803403,18.2859,-45.8434,3.4933,26.6272,7.12502,28.9318,54.4027,-45.0318,-16.8252,19.8079,48.3203,-58.0506,-35.5986,47.5038,-22.7251,13.1972,-15.4985,56.1312,-23.755,36.4107,33.4838
-3.01322,16.0714,-30.7498,17.6052,52.2028,11.0226,-4.94464,-2.22601,-5.21691,-6.9659,-2.72841,1.00866,-4.174,-1.04611,3.92387,-1.23036,-20.8606,-15.8685,23.9147,-29.8415,8.07559,11.629,-14.3968,1.28677,3.07122e-14,2.78299e-14,-41.6394,-56.7623,22.8994,12.722,54.4523,-6.39937,13.0576,7.12502,19.4484,-15.9897,3.07122e-14,2.78299e-14,-11.1865,10.0835,0.511694,18.4912,-44.8147,3.65534,27.5869,7.12502,29.0866,55.3357,-44.1292,-16.9337,20.2741,48.305,-56.3492,-35.732,46.4497,-22.7682,13.33,-15.1052,57.3792,-27.0938,36.3192,36.0706
-2.98521,16.0426,-30.7281,18.1785,50.2097,10.3195,-4.75492,-1.74256,-3.13602,-8.13235,-2.13565,0.362628,-5.6613,-0.808974,2.12643,-0.366143,-20.6833,-16.0426,24.5682,-29.8248,8.20043,11.7823,-14.4138,1.41806,1.10325e-14,8.74653e-15,-46.4932,-56.6718,28.1303,12.7014,57.6375,-6.51468,12.9502,7.12502,19.3375,-16.1083,1.10325e-14,8.74653e-15,-9.54329,8.45712,0.456743,18.6779,-44.359,3.97835,28.4318,7.12502,29.395,56.127,-46.1946,-18.2357,21.7529,48.2739,-51.4041,-36.719,44.129,-25.4131,13.1454,-15.8806,59.141,-33.255,33.7763,37.3773
-2.98347,16.0348,-30.5514,16.9345,48.9049,9.57381,-4.58084,-1.90138,-3.43552,-7.88907,-2.3486,0.695524,-5.46445,-0.900319,2.64094,-0.352352,-20.384,-16.1982,24.7301,-29.4678,8.3859,11.8557,-14.2471,1.55748,4.84041e-14,2.62396e-14,-59.2828,-62.3571,43.008,12.6708,67.7713,-6.93876,12.8158,7.12502,18.9297,-16.283,4.84041e-14,2.62396e-14,-8.81071,8.35807,0.628347,18.8511,-45.0392,4.73251,28.7652,7.12502,30.1148,56.3316,-45.0767,-17.6766,22.4327,48.2666,-50.7681,-36.6433,43.1835,-25.1646,13.7191,-14.9575,60.3642,-33.6968,32.8498,36.2886
-2.96154,16.0159,-30.4515,16.3916,47.1753,8.42285,-4.8656,-1.91728,-2.45851,-8.00908,-2.36067,0.975066,-5.4512,-0.951692,2.37893,-0.479185,-20.1552,-16.1779,24.7798,-29.0884,8.20596,11.8096,-14.0914,1.5626,-3.20043e-14,-2.3059e-14,-65.9039,-63.8597,50.6145,12.8026,71.8301,-7.40804,10.7704,7.12502,18.4783,-18.372,-3.20043e-14,-2.3059e-14,-8.45181,8.48767,0.676716,18.7021,-44.6473,3.6389,27.616,7.12502,29.0709,55.3675,-45.8013,-18.484,24.0824,48.3779,-47.4036,-36.8698,41.3679,-26.4198,14.1533,-14.5615,61.901,-32.804,32.4475,35.1673
-2.95373,16.0059,-30.2899,15.396,45.8429,7.52376,-4.87757,-2.1133,-2.30539,-7.88436,-2.61748,1.33941,-5.28618,-1.08488,2.66739,-0.501954,-19.9009,-16.1332,24.7817,-28.7202,8.16135,11.7484,-13.9329,1.61934,-4.11484e-14,-7.15625e-15,-57.475,-59.8429,41.2093,12.8925,66.1141,-6.14661,11.1761,7.12502,19.6914,-17.8466,-4.11484e-14,-7.15625e-15,-8.01551,7.69238,0.912339,18.8553,-44.0597,3.33856,27.7491,7.12502,28.784,55.5498,-45.19,-18.2582,25.0862,48.59,-46.8642,-36.2879,41.1371,-26.531,14.5082,-13.6408,63.1411,-22.7265,36.1351,27.1393
-2.93369,15.9874,-30.1958,15.3122,44.0922,7.05636,-5.06267,-2.09007,-1.6871,-7.99002,-2.59212,1.33857,-5.32003,-1.10568,2.31718,-0.546826,-19.6655,-15.9246,24.9588,-28.4281,8.17162,11.7533,-13.783,1.6543,-2.18663e-15,6.36111e-15,-56.2486,-57.6566,39.5785,12.884,64.8085,-6.12793,11.9072,7.12502,19.7094,-17.1136,-2.18663e-15,6.36111e-15,-7.29949,8.11373,1.09659,18.7515,-45.5915,3.35749,27.3489,7.12502,28.8021,55.1465,-45.6663,-18.517,25.9724,48.8941,-44.7037,-35.6573,39.8232,-27.5965,14.5948,-13.7674,64.568,-20.1391,35.8924,22.0576
-2.90999,15.9572,-30.1306,15.3874,41.8675,6.19753,-5.36216,-1.86846,-0.539247,-8.2161,-2.30679,1.34182,-5.44915,-1.02401,1.6773,-0.848831,-19.4903,-15.7303,25.4746,-28.2253,8.1253,11.9438,-13.6533,1.61094,7.60351e-14,3.97569e-15,-62.3932,-59.17,46.4024,12.8483,69.4021,-6.85842,12.931,7.12502,19.007,-16.1603,7.60351e-14,3.97569e-15,-6.72741,7.72571,1.26171,18.7031,-46.4881,3.13706,27.0035,7.12502,28.5915,54.8368,-46.7125,-18.1814,27.1459,49.1075,-42.2988,-35.2107,38.4749,-29.4099,14.976,-14.0413,66.1871,-15.2224,36.8228,13.0902
-2.91234,15.9275,-29.9957,14.7695,40.0652,5.23016,-5.25588,-1.85255,0.0134749,-8.35643,-2.2902,1.45238,-5.67733,-1.0428,1.49179,-0.792022,-19.3016,-15.5308,25.9525,-28.0466,8.07387,12.0576,-13.5563,1.6034,4.54223e-14,-1.19271e-14,-71.0488,-60.852,55.8487,12.9385,75.2779,-7.47148,13.8429,7.12502,18.4173,-15.3052,4.54223e-14,-1.19271e-14,-6.11852,5.89089,1.29542,18.9315,-45.9708,3.35154,26.8558,7.12502,28.7964,54.6544,-46.4249,-16.6874,27.9755,49.3108,-41.814,-35.322,37.6186,-30.1257,15.4576,-13.4193,67.5073,-9.99725,36.6843,2.68338
-2.91425,15.8824,-29.9245,14.0628,37.7847,3.46631,-4.7434,-1.58718,1.69937,-8.79936,-1.92521,1.60009,-6.51146,-0.954981,0.734609,-0.568382,-19.0396,-15.3679,26.3034,-27.7962,8.13639,12.1071,-13.4337,1.67397,-1.01281e-13,-2.14687e-14,-75.2084,-60.8028,60.1514,13.0181,78.1144,-7.97168,13.9308,7.12502,17.9361,-15.2622,-1.01281e-13,-2.14687e-14,-5.58811,5.17518,1.19907,18.8272,-47.3084,3.32495,26.05,7.12502,28.771,53.8529,-46.7393,-14.4997,29.437,49.3983,-40.7879,-35.8253,36.5739,-31.8311,16.2512,-12.6815,69.0647,-1.17665,36.9161,-13.8619
-2.88332,15.8708,-29.7948,14.1024,36.0322,4.06358,-5.17969,-1.74315,0.864036,-8.30639,-2.15316,1.8041,-5.69009,-1.0177,1.38571,-0.892547,-18.8444,-15.5303,26.3141,-27.5326,8.3466,12.1976,-13.2942,1.77357,-4.34344e-14,-3.18055e-14,-74.9583,-60.2242,59.8761,12.9922,77.3915,-8.03553,13.4166,7.12502,17.8747,-15.782,-4.34344e-14,-3.18055e-14,-5.29004,4.9719,2.06993,18.8195,-47.404,3.55279,26.5031,7.12502,28.9887,54.2688,-45.9837,-14.2836,28.9112,49.5982,-39.9528,-35.2368,35.2501,-31.8308,15.9487,-13.6198,70.0287,5.54719,35.4473,-26.9035
-2.8722,15.8435,-29.712,14.4676,33.292,4.00612,-4.87642,-1.4911,1.08854,-8.75972,-1.81345,1.6044,-6.37,-0.867212,1.0738,-0.440071,-18.5416,-15.3822,26.7398,-27.2649,8.42355,12.2376,-13.1742,1.87764,1.0307e-13,3.4191e-14,-72.5908,-58.2792,56.8685,12.9956,76.1553,-8.09806,13.2764,7.12502,17.8145,-15.9276,1.0307e-13,3.4191e-14,-4.79313,2.48771,2.14409,18.8566,-46.3794,3.4304,26.6287,7.12502,28.8717,54.4145,-46.2792,-12.433,28.852,49.8128,-39.3363,-34.8036,35.0824,-33.0732,16.3183,-14.5431,71.2669,1.65895,35.9619,-26.302
-2.85992,15.7969,-29.7044,15.2948,29.9973,2.90056,-5.14319,-1.14161,2.31185,-8.85558,-1.34584,2.00785,-6.35304,-0.698895,0.80579,-2.05992,-18.3952,-15.3406,27.1622,-26.9179,8.33398,12.6413,-12.9305,1.72198,-4.3832e-14,-1.43125e-14,-71.3081,-58.1175,54.8231,12.9423,74.9584,-8.18127,12.6953,7.12502,17.7344,-16.5159,-4.3832e-14,-1.43125e-14,-5.15079,2.60371,2.4343,18.6763,-46.9345,3.13761,26.0716,7.12502,28.592,53.9048,-48.0277,-9.91032,29.8482,50.0823,-37.8,-34.5537,35.0281,-36.0742,17.1751,-15.2249,72.6003,0.888656,36.64,-28.7636
-2.82391,15.7538,-29.661,16.057,26.7238,2.39305,-5.15182,-0.86678,3.20192,-9.00267,-0.983352,2.11414,-6.52795,-0.576297,0.422704,-3.40549,-18.1818,-15.2146,27.7974,-26.5168,8.14262,13.0517,-12.677,1.56304,4.06515e-14,6.36111e-15,-70.6031,-57.988,53.3633,12.8221,74.4439,-8.23755,12.2869,7.12502,17.6803,-16.9292,4.06515e-14,6.36111e-15,-5.46356,1.85652,2.5683,18.8333,-46.6648,3.45261,26.2304,7.12502,28.893,54.0125,-49.1981,-8.35771,30.3033,50.3818,-36.0188,-33.7478,34.3154,-38.1753,17.7628,-16.3138,73.6209,0.10865,37.1132,-29.887
-2.88036,15.7426,-29.4688,14.8954,25.0422,2.97169,-4.81036,-1.14907,1.22946,-8.07546,-1.38246,2.16622,-5.66597,-0.657497,1.56512,-3.46553,-18.0951,-14.7518,27.5027,-26.5252,8.52783,12.9325,-12.613,1.64979,-2.83268e-14,1.66979e-14,-74.3044,-57.8595,56.7062,12.8076,76.0906,-8.18649,11.8904,7.12502,17.7294,-17.3214,-2.83268e-14,1.66979e-14,-4.54218,1.05504,3.00833,18.9488,-46.2338,3.71897,26.7261,7.12502,29.1474,54.4644,-46.7305,-5.46236,29.1837,50.681,-38.8605,-33.9557,35.8855,-36.4558,17.7195,-16.0835,73.745,0.881336,35.7596,-31.0509
-2.8869,15.7134,-29.3629,14.4501,22.471,2.99206,-3.26205,-1.06025,1.09833,-8.58034,-1.23887,1.84175,-7.10066,-0.588908,1.34607,-2.89136,-17.7278,-14.4085,28.0297,-26.2318,8.59256,12.9568,-12.4742,1.74666,-2.70347e-14,-1.74931e-14,-75.842,-57.0132,57.8584,12.7654,77.9805,-8.30058,11.457,7.12502,17.6196,-17.7646,-2.70347e-14,-1.74931e-14,-3.86441,-2.70527,3.01005,19.7783,-42.7712,5.25308,28.5779,7.12502,30.6113,56.0528,-45.8884,-3.16684,28.846,51.0158,-39.7634,-33.4865,36.696,-36.3919,17.7416,-16.4749,74.0503,0.663153,35.7672,-31.8391
-2.86964,15.6807,-29.2841,14.6163,19.7088,2.82479,-3.55829,-0.837359,0.931774,-8.55014,-0.950943,1.92221,-6.89729,-0.43501,1.50902,-1.79821,-17.4033,-14.5276,27.426,-25.9681,9.196,12.5801,-12.3964,2.15094,7.95139e-15,-9.54166e-15,-77.1563,-56.71,58.9688,12.7041,78.8014,-8.11111,11.2191,7.12502,17.8019,-17.9861,7.95139e-15,-9.54166e-15,-3.57203,-3.67596,3.31432,19.1881,-45.3926,3.41103,25.9673,7.12502,28.8533,53.7562,-45.9585,-1.40966,28.7807,51.3375,-39.7636,-32.7029,37.108,-37.2567,17.4369,-17.1645,74.3212,-1.25636,35.1616,-30.4973
-2.84842,15.6511,-29.2048,14.7168,16.8525,2.55795,-3.57508,-0.622111,1.11504,-8.22966,-0.679157,1.93393,-6.54821,-0.316667,1.40675,-2.67826,-17.3711,-14.1284,27.7154,-25.9143,9.13592,12.7874,-12.2915,2.00027,-1.39149e-14,-1.66979e-14,-76.1935,-56.0671,56.8263,12.5917,77.5064,-7.8774,10.7797,7.12502,18.0268,-18.4049,-1.39149e-14,-1.66979e-14,-2.91699,-4.17191,3.92703,19.6544,-43.6055,4.77862,26.8847,7.12502,30.1588,54.4431,-45.9476,0.379682,28.7693,51.6329,-39.0573,-32.2111,36.6367,-38.0605,17.1628,-17.6933,74.6046,-3.15565,33.065,-27.0465
-2.83143,15.629,-29.1164,14.5331,14.4923,2.15424,-3.47906,-0.546638,1.45143,-7.89008,-0.589388,1.98242,-6.24261,-0.295072,1.26344,-3.24911,-17.2877,-13.7538,27.8727,-25.793,9.05849,12.8734,-12.1834,1.89556,4.42296e-15,1.19271e-14,-80.0326,-56.1856,60.5014,12.5708,79.7693,-7.77179,11.7865,7.12502,18.1284,-17.3887,4.42296e-15,1.19271e-14,-2.28574,-6.63988,4.4615,20.3304,-40.54,5.82986,29.4396,7.12502,31.1612,56.8103,-45.481,2.23714,28.9008,51.8571,-38.7345,-31.8816,36.0151,-38.5801,16.5991,-17.72,74.8002,-4.6509,29.7744,-21.6224
-2.81065,15.6059,-29.0402,14.5933,12.0994,1.95358,-3.47601,-0.640309,1.59654,-7.6852,-0.720267,2.14863,-6.02364,-0.366605,1.35497,-3.39901,-16.9473,-13.892,27.7136,-25.2998,9.21754,12.8144,-11.9698,2.05406,3.52843e-15,-3.18055e-15,-86.2863,-56.9516,67.2852,12.632,84.0762,-7.49369,13.1266,7.12502,18.3959,-16.0235,3.52843e-15,-3.18055e-15,-2.2825,-6.82147,4.88424,20.0715,-41.5854,5.36043,28.0963,7.12502,30.7137,55.552,-45.2487,3.96716,28.7837,52.0867,-38.4683,-31.0691,35.9311,-39.3089,15.6996,-18.0035,74.8501,-6.32158,26.3978,-14.7899
-2.79652,15.5724,-28.9777,15.2192,8.57085,1.58781,-2.47283,-0.246686,1.5733,-8.64704,-0.13988,2.14469,-7.6495,-0.0794796,1.37551,-1.45852,-16.398,-13.4822,27.3788,-24.6817,9.12674,12.1386,-11.8022,2.3035,-2.14687e-14,-4.37326e-14,-84.3034,-55.7262,65.0681,12.5578,84.0773,-7.15651,12.8296,7.12502,18.7203,-16.2896,-2.14687e-14,-4.37326e-14,-2.0597,-9.85371,5.2144,20.3548,-40.8421,5.24697,27.863,7.12502,30.6055,55.3389,-45.7491,6.16363,28.7166,52.2581,-37.188,-30.2839,35.011,-40.7244,15.7619,-18.484,74.9109,-6.95897,23.5237,-12.5031
-2.75986,15.5635,-28.8964,15.3184,6.64379,1.40037,-2.59571,-0.468229,1.98095,-8.17644,-0.446877,2.32039,-7.06597,-0.255405,1.33491,-2.02074,-16.0889,-13.2733,27.0644,-24.1759,9.2087,12.0296,-11.5384,2.3546,-1.38155e-14,7.95139e-15,-87.1658,-56.2502,67.5269,12.5421,85.5045,-6.99756,12.2675,7.12502,18.8732,-16.8369,-1.38155e-14,7.95139e-15,-1.95685,-10.9726,5.85668,20.7474,-39.0905,5.82256,29.2904,7.12502,31.1542,56.6624,-45.6332,7.17078,28.7105,52.3929,-36.3447,-30.4822,32.9599,-41.4638,14.133,-18.6015,74.7207,-7.62382,21.8484,-14.911
-2.72491,15.5559,-28.8119,15.4271,4.17055,0.717996,-2.55772,-0.262579,2.72398,-8.17589,-0.162112,2.33906,-7.09638,-0.164287,0.93033,-2.13403,-16.0732,-13.2134,27.6314,-24.2208,9.05454,12.2541,-11.5534,2.26281,6.4605e-16,-2.06736e-14,-87.5346,-55.3324,67.4659,12.493,86.1742,-7.01389,12.2903,7.12502,18.8575,-16.8157,6.4605e-16,-2.06736e-14,-1.40049,-12.7817,6.00979,20.5857,-39.7794,4.50996,27.3983,7.12502,29.9024,55.0032,-45.4169,8.46458,29.1556,52.3839,-34.7073,-30.531,30.5674,-42.1598,13.0713,-18.1944,74.5225,-8.86966,21.0725,-17.5512
-2.6897,15.5373,-28.7276,15.6179,1.48246,0.163649,-2.3026,-0.0577124,3.32563,-7.72267,0.111171,2.34322,-6.75502,-0.0646385,0.584329,-4.72484,-16.4897,-12.4349,28.9431,-24.6555,8.22222,13.1119,-11.5807,1.51387,-1.49834e-14,3.97569e-15,-93.341,-55.1975,73.2224,12.5481,89.6276,-7.37179,13.0532,7.12502,18.5132,-16.0859,-1.49834e-14,3.97569e-15,-0.525037,-14.2156,6.30661,20.7635,-38.0885,4.63854,28.1345,7.12502,30.0251,55.7173,-45.0614,9.974,29.3637,52.3192,-33.1142,-29.8713,28.7301,-42.8802,11.9977,-17.8697,74.2873,-10.4138,20.2609,-17.2687
-2.65281,15.516,-28.6433,15.8332,-1.11752,-0.261279,-2.19383,-0.150979,3.5461,-8.2077,0.0250799,2.64975,-7.34901,-0.122265,0.795232,-1.44777,-15.6386,-13.179,27.5481,-23.6588,8.9295,11.9866,-11.3723,2.38715,7.42958e-15,-1.11319e-14,-90.01,-54.8675,69.6012,12.4479,89.4965,-7.35673,13.1404,7.12502,18.5277,-15.9973,7.42958e-15,-1.11319e-14,-0.877735,-17.094,7.04355,21.0464,-36.7611,5.19163,29.2103,7.12502,30.5527,56.6961,-44.7446,11.574,29.3862,52.2485,-31.9429,-29.3396,27.127,-43.6192,10.688,-17.5843,74.0302,-14.7733,18.0294,-24.5185
-2.61159,15.5022,-28.5522,16.1404,-3.64765,-0.725571,-2.15869,-0.104162,4.0366,-8.16595,0.0954136,2.73124,-7.3278,-0.119611,0.60481,-1.81577,-15.537,-13.3833,28.048,-23.5202,8.78926,12.2485,-11.3201,2.34188,1.90833e-14,6.36111e-15,-88.7576,-54.41,67.5531,12.355,89.3078,-7.38971,12.9558,7.12502,18.496,-16.1849,1.90833e-14,6.36111e-15,-0.768439,-19.6197,7.08817,20.623,-37.9472,3.39598,26.3897,7.12502,28.8389,54.1811,-44.5519,12.9433,29.4535,52.2091,-31.7446,-28.4286,26.8826,-44.3793,9.18808,-17.2031,73.7162,-17.6231,17.31,-29.2956
-2.57288,15.489,-28.4573,16.5962,-6.2322,-1.23867,-2.26043,0.149187,4.63942,-7.63588,0.403123,2.61888,-6.68886,0.00199034,0.131134,-3.97791,-15.9242,-12.7131,28.7633,-23.9623,8.41013,12.8689,-11.3597,1.82283,1.06785e-14,9.54166e-15,-94.5706,-54.0681,73.2995,12.4609,92.4313,-7.28059,13.3216,7.12502,18.6009,-15.809,1.06785e-14,9.54166e-15,0.45419,-21.6061,6.95781,20.7903,-36.4315,2.95543,25.9052,7.12502,28.418,53.7676,-44.4649,14.1554,29.5638,52.2073,-31.9013,-27.077,27.2978,-45.2368,7.6978,-16.692,73.3891,-15.7349,19.847,-22.022
-2.54089,15.4697,-28.3664,17.07,-8.85362,-1.71729,-2.63652,0.0774962,4.93003,-7.76354,0.291359,2.81895,-6.61787,-0.0686692,0.184398,-2.531,-15.3909,-13.4887,28.4793,-23.3322,8.7667,12.5492,-11.218,2.30345,-1.08493e-14,0,-96.3128,-53.9699,75.301,12.5877,94.8273,-6.91035,13.7022,7.12502,18.957,-15.394,-1.08493e-14,0,0.29977,-23.7925,7.4529,21.1812,-34.5596,2.19815,25.8908,7.12502,27.6941,53.8717,-44.4418,15.5521,29.578,52.2323,-31.5504,-26.1557,26.6478,-46.1134,6.29424,-16.0902,73.0495,-17.8417,19.63,-23.3257
-2.50893,15.4512,-28.2718,17.552,-11.3024,-2.09439,-1.9572,0.0378738,4.96736,-7.90129,0.302011,3.05912,-7.1618,-0.0707231,0.420632,-2.97151,-15.3417,-13.2789,28.6195,-23.1611,8.36859,12.5789,-11.1451,2.12566,-1.92542e-14,-1.51076e-14,-94.3695,-53.7805,72.8155,12.4676,94.1825,-6.74423,13.299,7.12502,19.1168,-15.7815,-1.92542e-14,-1.51076e-14,0.328879,-26.077,7.84612,21.0807,-35.1504,-0.580234,23.5133,7.12502,25.0345,51.8927,-44.4594,16.8472,29.456,52.3871,-31.1312,-25.3309,25.469,-46.9749,4.74208,-15.4605,72.7796,-19.5548,19.7352,-23.6161
-2.47535,15.44,-28.1714,18.0607,-13.8999,-2.38197,-1.95832,-0.00246424,5.04672,-8.03577,0.252064,3.15145,-7.31053,-0.105268,0.47901,-2.1156,-15.009,-13.4097,28.4191,-22.76,8.39477,12.2969,-11.0396,2.30829,-3.31101e-15,-3.89618e-14,-90.4069,-53.4247,67.8201,12.2287,92.5794,-6.60951,12.6611,7.12502,19.2463,-16.4066,-3.31101e-15,-3.89618e-14,0.327535,-26.2174,8.3546,21.2231,-38.4264,-0.102389,22.6719,7.12502,25.4923,50.9867,-44.403,18.1081,29.1737,52.3829,-30.7529,-24.3502,24.612,-47.6839,3.25875,-14.9146,72.3247,-18.8689,21.4248,-19.493
-2.45521,15.4053,-28.1242,19.1208,-15.5555,-2.32226,-1.84282,-0.052231,4.64579,-8.29735,0.180861,2.97969,-7.6598,-0.131427,0.530796,-2.93865,-15.4638,-12.9334,28.9187,-23.425,8.1251,12.6449,-11.2676,1.94301,-5.97224e-14,4.77083e-15,-89.6231,-52.216,66.0627,12.1421,92.0659,-6.3869,12.6478,7.12502,19.4604,-16.3984,-5.97224e-14,4.77083e-15,1.88352,-29.3233,7.87408,21.5023,-36.8217,-0.568741,22.9851,7.12502,25.0455,51.3629,-45.5462,19.1857,28.4588,52.6039,-30.3904,-23.9899,24.3967,-49.718,1.04774,-14.2025,72.0376,-21.0278,19.8487,-25.0933
-2.41299,15.4459,-27.9341,18.5253,-19.5484,-3.01453,-1.67522,0.219585,5.46552,-7.49425,0.5279,2.91052,-6.87564,0.0055732,-0.0264223,-3.21408,-15.2421,-13.2245,28.9707,-23.0882,8.17886,12.7251,-11.1369,2.03145,-3.72721e-14,-3.10104e-14,-89.7011,-52.5359,65.2865,12.024,92.5868,-6.37895,12.9873,7.12502,19.468,-16.0581,-3.72721e-14,-3.10104e-14,1.90173,-31.5653,7.78037,21.4663,-36.33,0.204818,23.3317,7.12502,25.7865,51.6041,-43.4548,20.6823,28.6809,52.3536,-29.8056,-22.4853,22.7758,-47.865,-0.0828964,-13.5658,71.1293,-22.996,19.8709,-23.5906
-2.38792,15.438,-27.8507,19.4144,-21.9117,-3.07001,-2.55287,-0.269959,5.45218,-7.8237,-0.193841,3.00035,-6.75523,-0.358204,0.105003,-1.54942,-14.5242,-14.2316,28.6438,-22.2277,8.55005,12.3399,-10.93,2.60393,-6.3139e-14,2.38542e-14,-86.9944,-52.8535,61.6472,11.8441,92.4711,-6.33556,13.4363,7.12502,19.5098,-15.6049,-6.3139e-14,2.38542e-14,1.07309,-34.5305,7.91629,21.1515,-36.4761,1.5629,23.69,7.12502,27.0865,51.767,-44.0862,21.6585,28.0242,52.3105,-29.0735,-21.741,21.6527,-49.1141,-1.85174,-12.7743,70.5069,-23.1042,19.9163,-23.9313
-2.35799,15.4458,-27.7608,20.2723,-24.9069,-3.51459,-2.2318,0.00105228,5.40315,-7.83951,0.18145,2.86332,-6.94099,-0.180125,-0.0218137,-2.19764,-14.7573,-12.7925,28.7555,-22.3666,7.53276,12.1874,-10.9297,1.98242,2.5022e-14,-2.54444e-14,-79.4368,-50.8163,51.3634,11.4632,86.5732,-5.82514,13.2061,7.12502,20.0004,-15.7846,2.5022e-14,-2.54444e-14,2.75774,-38.7588,6.96952,21.016,-34.5389,2.14503,24.8823,7.12502,27.6433,52.8713,-44.3458,22.8022,27.6297,52.0854,-28.2161,-20.5827,19.7722,-49.9389,-3.14837,-11.735,69.7482,-23.4118,18.7264,-26.0391
-2.33326,15.4868,-27.5922,20.3145,-29.4759,-4.28508,-1.62245,1.02814,5.60447,-7.38304,1.56107,2.30379,-6.72138,0.484921,-0.781567,-3.70879,-15.6948,-10.8976,29.3223,-23.4711,6.07812,12.3625,-11.3087,0.901874,-5.01931e-15,3.65764e-14,-71.5689,-46.6095,39.5978,11.1914,78.0981,-5.2793,12.2262,7.12502,20.525,-16.7088,-5.01931e-15,3.65764e-14,5.67624,-43.7776,4.73426,21.5089,-31.6953,7.35756,25.2699,7.12502,32.616,52.3503,-42.9606,24.1108,27.5733,51.8729,-27.7412,-18.0977,18.1399,-48.605,-3.87595,-11.1531,68.8733,-24.2133,18.5701,-28.041
-2.30442,15.4909,-27.4928,21.1743,-32.2934,-4.37482,-1.95797,0.573521,5.4723,-7.34729,0.913675,2.39203,-6.52583,0.174509,-0.587379,-3.7149,-15.0656,-10.4961,28.8927,-22.3429,5.42769,11.9228,-10.8659,0.843575,-3.04886e-14,1.19271e-14,-68.1227,-46.6887,34.673,10.9809,76.5123,-4.86987,11.8507,7.12502,20.9184,-17.0414,-3.04886e-14,1.19271e-14,4.17546,-46.8079,5.05803,21.7461,-31.1235,2.72847,25.1783,7.12502,28.2011,53.0766,-43.4909,24.9009,26.7193,51.8135,-27.2077,-16.6559,16.8208,-49.5236,-5.2259,-10.3724,68.1874,-23.669,17.7005,-29.7793
-2.27385,15.4799,-27.3401,21.8351,-35.8081,-5.12233,-1.93252,1.55104,6.09011,-6.83748,2.16921,1.33996,-5.87239,0.759168,-2.06738,-4.59587,-16.2575,-9.8363,29.1484,-24.583,6.62927,12.5108,-11.6211,0.684461,1.11568e-14,-4.77083e-15,-65.8534,-42.566,27.6216,10.9882,69.7522,-4.62926,11.0416,7.12502,21.1496,-17.8248,1.11568e-14,-4.77083e-15,10.3335,-52.5758,-0.51806,22.4214,-27.7356,3.83022,26.3152,7.12502,29.2536,54.0351,-43.2182,26.21,26.3207,51.7386,-26.6404,-15.1124,14.8534,-49.5569,-5.86236,-9.52928,67.6036,-24.115,16.1489,-31.1457
-2.25548,15.4887,-27.2212,22.8482,-39.036,-5.96968,-2.20396,0.399498,6.00904,-7.33609,0.653056,2.56372,-6.38889,0.0119928,-0.694314,-4.15502,-15.2877,-16.4782,31.9118,-23.5224,8.33647,14.7991,-11.6101,2.21612,1.13059e-14,-1.23246e-14,-54.0962,-38.5396,13.9441,10.8677,62.4098,-3.61193,11.0437,7.12502,22.1266,-17.7102,1.13059e-14,-1.23246e-14,1.78413,-52.9368,6.48689,21.8456,-32.1588,3.58861,25.5526,7.12502,29.0229,53.3124,-43.3201,27.8555,25.83,51.6031,-26.1969,-14.203,12.5348,-49.7975,-6.725,-8.35211,66.9112,-24.4927,14.7483,-34.602
-2.24023,15.4889,-27.101,24.1198,-42.569,-6.75884,-2.25473,0.642355,5.77463,-7.47925,0.963883,2.51315,-6.49539,0.168768,-0.625147,-1.71966,-14.9506,-14.9362,29.3157,-22.9328,7.87457,12.7538,-11.4291,2.27292,5.97099e-14,3.97569e-16,-50.1387,-33.1246,6.38444,11.0961,55.1145,-2.50912,11.3648,7.12502,23.185,-17.2598,5.97099e-14,3.97569e-16,1.50031,-54.8212,7.07193,21.9866,-34.4264,3.31314,25.2464,7.12502,28.7597,53.0512,-43.8447,29.7325,24.8541,51.4678,-25.9431,-13.0187,10.8729,-50.207,-6.44736,-7.60972,66.211,-24.0231,13.798,-40.7481
-2.21942,15.5429,-27.0144,25.6874,-45.3956,-7.23694,-2.32754,0.529027,5.19558,-7.88802,0.803928,2.62444,-6.90577,0.105854,-0.176354,-1.79823,-15.0111,-14.4002,29.2004,-22.8064,7.01534,12.5007,-11.4154,1.92411,8.25205e-14,1.59028e-14,-46.7904,-27.3232,-0.789244,11.4461,48.0937,-2.10424,10.7902,7.12502,23.5734,-17.7849,8.25205e-14,1.59028e-14,0.287732,-57.2944,8.33352,22.2334,-36.2348,5.057,24.4927,7.12502,30.4243,52.0023,-44.9455,31.004,23.5209,51.1487,-25.5655,-12.0914,10.1402,-51.0918,-9.09608,-5.8991,65.0319,-23.8978,13.6876,-42.8393
-2.2067,15.5721,-26.853,26.1507,-49.2516,-7.52129,-2.13433,0.517918,4.1985,-7.84241,0.786775,2.90041,-6.975,0.165464,0.666516,-1.80026,-14.8437,-14.3471,29.0592,-22.2937,6.12237,12.2429,-11.2827,1.70304,7.55382e-15,-1.51076e-14,-43.6679,-21.3823,-7.07038,11.9418,41.3548,-1.83328,9.94424,7.12502,23.8333,-18.5973,7.55382e-15,-1.51076e-14,-2.73632,-59.7142,11.608,22.3664,-37.8385,5.1271,23.9796,7.12502,30.4912,51.4768,-44.6683,32.1961,22.195,50.8694,-25.3263,-10.6799,8.03308,-50.3571,-10.5036,-5.53373,63.8649,-24.7515,11.5013,-40.2336
-2.19895,15.5938,-26.6932,26.6764,-53.1525,-7.89537,-2.08946,1.19567,4.18742,-7.61172,1.643,1.83423,-6.69914,0.564807,-0.47688,-0.637647,-15.0881,-16.1624,28.5754,-23.4228,8.6316,12.5977,-11.7858,2.70269,-4.50372e-14,-3.85642e-14,-44.783,-18.5245,-10.4063,12.3426,37.5666,-1.42379,10.1932,7.12502,24.2259,-18.2965,-4.50372e-14,-3.85642e-14,0.350699,-64.0722,8.64886,23.0444,-37.5375,7.02008,23.4737,7.12502,32.2948,50.6201,-44.4998,33.0345,20.9668,50.7217,-25.0679,-8.95083,4.80241,-49.5683,-10.8481,-5.54861,62.8427,-25.1823,8.43123,-37.6527
-2.17901,15.6453,-26.5815,28.1192,-56.111,-8.54573,-2.31197,0.793618,3.98885,-7.96784,1.07926,1.89658,-6.98029,0.280299,-0.276056,1.03621,-14.4022,-20.7139,28.516,-23.3418,11.4216,13.3383,-12.0539,4.44362,5.62809e-15,-4.59193e-14,-42.9189,-14.161,-15.0093,12.6926,33.2658,-0.740363,10.6926,7.12502,24.881,-17.7082,5.62809e-15,-4.59193e-14,-6.79294,-59.1002,14.8131,23.0667,-46.5986,7.48423,21.9429,7.12502,32.7365,48.9984,-45.2859,33.1557,19.8553,50.4521,-24.8865,-7.10219,2.18378,-49.8265,-14.7048,-3.87888,61.8082,-25.1005,9.86749,-39.248
-2.14882,15.6296,-26.5069,30.7875,-58.9859,-9.78177,-2.85587,0.737425,3.47289,-8.35091,0.94298,1.68648,-7.08575,0.222361,-0.195873,-0.336749,-15.0581,-16.8977,29.1286,-23.6304,8.69476,12.9216,-11.9912,2.78121,3.16037e-14,-1.35174e-14,-42.6183,-11.6942,-18.3804,13.0251,29.8194,0.181267,11.2694,7.12502,25.764,-17.0063,3.16037e-14,-1.35174e-14,-8.16888,-65.213,16.0856,23.7735,-44.2246,9.0597,22.6183,7.12502,34.234,49.3498,-47.3125,33.2027,18.7427,50.3747,-24.7283,-5.11906,0.833652,-51.2169,-12.3979,-3.29909,61.2201,-23.3659,9.52138,-46.7405
-2.13762,15.6735,-26.3732,33.6404,-62.2578,-12.1682,-3.03497,0.771067,3.52405,-8.27595,0.961771,1.58576,-6.89784,0.223658,-0.32858,-0.289387,-15.2205,-17.838,29.0496,-24.103,9.47153,13.2219,-12.2302,3.07628,-2.35808e-14,3.65764e-14,-41.9624,-8.11617,-22.8553,13.563,25.9019,-0.268966,10.4522,7.12502,25.3327,-17.8853,-2.35808e-14,3.65764e-14,-10.8546,-71.4315,18.9826,24.5244,-40.827,10.8097,23.3936,7.12502,35.8939,49.7361,-47.7133,33.1915,18.4009,49.9318,-24.855,-2.61521,0.277555,-51.0823,-13.339,-1.81462,60.5398,-23.7486,7.92439,-45.8787
-2.14098,15.7205,-26.2015,36.4734,-66.1694,-14.9113,-3.17668,0.996698,3.54433,-8.09642,1.23671,1.38259,-6.60786,0.355931,-0.557993,-0.651659,-15.6436,-15.6187,28.7413,-24.0741,7.21721,12.4701,-12.2064,2.0036,7.23825e-14,1.96797e-14,-41.5327,-6.33886,-25.3422,13.9298,24.1072,0.275706,10.7185,7.12502,25.8544,-17.5441,7.23825e-14,1.96797e-14,-16.3788,-73.8171,24.8535,25.128,-40.4669,12.5861,23.4025,7.12502,37.5748,49.3162,-47.6473,33.9902,17.4669,49.4566,-24.9317,-0.495109,1.67549,-50.1438,-16.8733,-0.573574,59.9559,-23.6426,10.1009,-46.8559
-2.14036,15.7538,-26.0432,39.7308,-69.7935,-18.0516,-3.13776,1.10922,3.38286,-8.03772,1.3683,1.14868,-6.55815,0.421801,-0.715536,0.312546,-15.4885,-17.7213,28.5455,-24.3294,8.64384,12.7802,-12.4479,2.7824,7.23079e-15,-3.08116e-14,-41.3376,-3.95462,-28.1841,14.5752,21.7672,1.45652,10.4996,7.12502,26.9847,-17.5932,7.23079e-15,-3.08116e-14,-22.6867,-74.8723,31.4069,25.5633,-40.5525,14.0791,23.3284,7.12502,38.9841,48.8529,-47.6786,34.559,16.4887,49.0019,-24.8191,1.30175,3.76493,-49.4577,-20.1245,0.463415,59.4498,-23.9659,10.044,-44.6516
-2.15209,15.7867,-25.8885,45.743,-72.0914,-24.4489,-2.9242,1.01873,4.45818,-7.75548,1.26168,1.18874,-6.36833,0.311081,-1.27269,0.189497,-15.6925,-16.4505,28.3896,-24.3015,7.38281,12.3474,-12.4385,2.19839,-8.32411e-15,-5.56597e-15,-41.0544,-2.01014,-30.8984,14.9913,19.8071,2.24203,10.7922,7.12502,27.736,-17.1819,-8.32411e-15,-5.56597e-15,-28.6037,-75.1253,37.4482,25.9553,-40.6307,15.0927,22.2187,7.12502,39.9389,47.4631,-46.9655,35.0415,17.1426,48.6385,-24.7746,2.51061,5.93886,-48.6477,-23.4183,2.657,59.1787,-25.1021,8.06812,-39.0907
-2.12394,15.8006,-25.8159,52.9656,-75.1176,-30.2044,-3.79249,1.03209,3.35905,-7.97628,1.19931,0.996322,-6.11971,0.330297,-0.846512,1.05359,-16.2467,-16.5533,28.0868,-25.307,7.51848,12.2451,-12.9389,2.15657,3.3197e-14,-3.57812e-15,-40.9411,-0.744984,-33.3133,15.2832,18.3934,2.52357,11.0838,7.12502,28.0052,-16.8467,3.3197e-14,-3.57812e-15,-36.9119,-76.5583,46.0273,26.7565,-38.4648,15.4202,22.1451,7.12502,40.247,47.2962,-48.9648,35.2724,15.8648,48.6801,-24.1088,3.25431,7.1072,-49.472,-23.9958,4.1244,58.9494,-25.7801,6.80743,-39.0335
-2.11514,15.8065,-25.6945,61.1409,-78.3294,-37.7071,-4.44016,1.20765,2.40654,-7.74602,1.38515,0.476376,-5.50042,0.472185,-0.845905,0.55475,-16.4255,-16.0724,27.5341,-25.3523,7.36859,12.0223,-12.9041,2.01392,-1.40143e-14,7.95139e-16,-41.1671,0.0912891,-35.4942,15.722,16.9643,2.8946,11.1086,7.12502,28.3598,-16.7635,-1.40143e-14,7.95139e-16,-43.0958,-77.472,52.8772,27.6536,-36.3562,16.7612,22.3364,7.12502,41.5068,47.0896,-49.6304,34.6982,15.0174,48.8006,-23.7506,3.34536,4.55431,-49.3323,-25.7038,4.37583,58.8079,-26.0552,6.70937,-39.9826
-2.10799,15.8042,-25.5662,76.4889,-80.8193,-52.5492,-4.73495,1.30403,1.78794,-7.75306,1.48571,0.119943,-5.34141,0.54218,-0.864494,0.948324,-16.9154,-15.8844,27.3896,-26.0672,7.0619,11.914,-13.2644,1.80166,-1.71949e-14,-1.66979e-14,-41.4481,1.67256,-37.9989,16.2892,15.469,3.62844,11.2018,7.12502,29.0609,-16.5514,-1.71949e-14,-1.66979e-14,-53.5398,-78.3827,63.8259,29.1992,-33.6164,19.4552,23.7943,7.12502,44.0272,47.667,-50.1379,34.0203,14.9731,49.049,-23.6019,3.03848,0.16568,-49.0126,-27.261,5.03749,58.7866,-26.6201,3.11895,-33.4662
-2.09709,15.791,-25.4341,100.334,-81.7507,-76.0126,-4.65002,1.28691,1.71723,-7.92607,1.44035,-0.0256906,-5.57316,0.506192,-0.978784,1.65207,-16.6331,-17.8828,27.6395,-26.304,8.62098,12.4909,-13.4665,2.5362,-1.43125e-14,6.91771e-14,-41.4613,3.15926,-40.2612,16.6909,14.7474,4.56598,11.6347,7.12502,29.9559,-15.9605,-1.43125e-14,6.91771e-14,-66.8999,-78.5391,77.3277,30.9641,-30.8926,22.1343,24.8484,7.12502,46.5179,47.7241,-50.6109,33.8329,15.3229,49.2228,-23.2952,2.7107,-1.37332,-48.5323,-28.1795,5.60847,58.8915,-26.4458,3.83931,-34.89
-2.08894,15.7785,-25.3075,125.894,-80.8857,-100.692,-5.18957,1.33709,1.79567,-8.1567,1.45564,-0.177008,-5.50857,0.48839,-1.16998,1.72751,-17.1102,-16.1681,27.5129,-26.5575,6.86818,11.9015,-13.6022,1.74724,-6.26172e-15,-1.11319e-14,-41.3977,4.06156,-42.3814,16.9484,14.0424,4.86604,11.8164,7.12502,30.2422,-15.7267,-6.26172e-15,-1.11319e-14,-80.6317,-78.1746,90.9645,33.0235,-27.8785,23.75,25.7855,7.12502,48.0111,47.9932,-51.6696,33.771,15.598,49.3487,-22.8101,2.24082,-2.67374,-48.4502,-28.7288,6.49562,59.0793,-26.5394,5.62548,-37.4184
-2.09545,15.7754,-25.1802,144.181,-78.8132,-118.18,-5.93333,1.11553,1.20689,-8.24906,1.13215,0.133342,-5.21481,0.356955,-0.508284,2.0983,-17.3717,-15.1328,26.9957,-26.5796,5.55539,11.2608,-13.6722,1.29144,-2.06736e-14,-4.77083e-15,-40.6174,4.52114,-43.5539,17.2649,14.3873,6.0087,12.1157,7.12502,31.3316,-15.2221,-2.06736e-14,-4.77083e-15,-91.328,-76.4953,101.999,35.2538,-24.6382,24.7102,26.656,7.12502,48.895,48.4401,-52.4443,33.6968,15.9899,49.4754,-22.3168,1.69227,-3.96219,-48.1984,-29.8732,7.2987,59.2771,-26.4325,8.64031,-41.9082
-2.10541,15.7612,-25.0714,155.359,-76.1813,-128.702,-6.66444,1.0812,0.656083,-8.238,1.07085,0.327917,-4.80808,0.353809,0.0115244,2.79452,-17.6628,-15.1417,26.4354,-26.9637,5.30598,10.9301,-13.9097,1.25301,-1.82882e-14,3.33958e-14,-40.6391,4.71716,-44.5024,17.9429,14.5246,7.6736,12.3037,7.12502,32.9166,-14.7141,-1.82882e-14,3.33958e-14,-99.714,-75.382,111.14,37.901,-20.7301,26.4106,27.0776,7.12502,50.453,48.0592,-53.0741,33.8115,16.5651,49.7257,-21.8823,0.736732,-5.41223,-47.7928,-31.1324,8.14314,59.3536,-26.1855,11.8717,-45.0944
-2.1079,15.7334,-24.9674,162.879,-73.5221,-135.61,-7.20071,1.08439,0.321978,-8.31412,1.04907,0.200341,-4.59414,0.345034,0.073231,3.69979,-17.9167,-15.6616,26.0877,-27.5433,5.65317,10.8468,-14.2418,1.4237,2.98177e-15,1.59028e-14,-41.4488,5.93183,-46.618,18.6802,12.6833,6.96299,12.0699,7.12502,32.2405,-15.0875,2.98177e-15,1.59028e-14,-106.381,-74.4222,118.603,40.2822,-16.7359,27.5535,27.8744,7.12502,51.4946,48.2755,-53.8104,34.0469,16.921,50.0513,-21.3871,-0.468496,-5.82666,-47.4867,-32.2627,8.69335,59.4112,-26.9057,10.3737,-44.2442
-2.11449,15.7293,-24.8418,173.504,-70.5235,-145.536,-7.98336,1.05068,-1.29661,-8.54129,1.00188,-0.391005,-4.42637,0.367026,0.373872,4.64618,-17.9844,-16.0499,25.6338,-27.8899,6.0893,10.6862,-14.4621,1.65981,-4.57205e-14,-2.54444e-14,-41.8522,6.65211,-48.3486,19.1101,11.761,6.68597,12.1211,7.12502,31.9767,-15.0895,-4.57205e-14,-2.54444e-14,-111.284,-73.1358,124.125,42.6496,-12.8538,28.6268,28.1974,7.12502,52.4682,48.0207,-55.0617,33.856,15.4594,50.3514,-21.1072,-0.682095,-5.06236,-47.0921,-33.3762,7.32461,59.3764,-27.4206,10.7566,-43.7885
-2.10929,15.715,-24.6666,177.799,-67.1093,-149.047,-8.24444,1.05977,-1.11479,-8.74956,0.95905,-0.501222,-4.49766,0.313432,0.159496,5.15232,-18.1336,-16.2198,25.1745,-28.1113,6.00269,10.4675,-14.6154,1.69022,-4.23411e-14,-1.59028e-14,-41.884,6.99123,-49.3112,19.6492,11.2816,7.2837,12.337,7.12502,32.5457,-14.758,-4.23411e-14,-1.59028e-14,-113.394,-71.5952,127.434,44.8928,-8.83015,29.1086,28.4924,7.12502,52.9038,48.0455,-55.5328,31.2537,16.9642,50.7651,-20.865,1.77737,-2.6849,-46.7849,-34.2034,7.30239,59.4129,-28.2101,10.2779,-41.1235
-2.06328,15.6232,-24.7222,176.195,-62.3471,-146.914,-8.82852,1.09176,-2.05143,-8.33182,1.10527,0.959889,-3.79161,0.476928,2.21785,4.62647,-18.564,-16.9263,25.4234,-28.5358,5.47496,10.7318,-14.8585,1.43658,1.0138e-14,-2.22639e-14,-41.3007,6.75876,-49.4835,19.9429,11.3367,8.12561,12.7928,7.12502,33.3464,-14.1336,1.0138e-14,-2.22639e-14,-113.785,-70.281,129.717,47.0146,-4.02755,29.2742,29.131,7.12502,53.0532,48.5896,-56.6715,35.4132,18.8605,51.0588,-19.7669,-0.202945,1.38157,-44.864,-33.0822,9.43175,59.5118,-30.2634,8.75618,-38.9235
-2.11321,15.6329,-24.4499,184.568,-59.9886,-154.129,-10.1002,0.430448,-2.6784,-8.60304,0.17978,-0.101398,-3.33644,-0.0310122,1.4227,4.19865,-18.7216,-17.3454,25.5766,-28.6137,5.02694,10.8662,-14.9382,1.25889,4.6118e-14,1.59028e-15,-40.179,7.2943,-50.3804,20.2001,11.372,8.80727,13.2674,7.12502,33.9942,-13.5176,4.6118e-14,1.59028e-15,-111.881,-68.4916,128.675,49.6663,0.740678,30.2009,30.0252,7.12502,53.8875,48.939,-58.1885,30.7492,17.2073,51.7866,-20.0282,4.20368,3.97959,-46.0177,-35.0773,6.79043,59.2647,-31.4996,10.4576,-39.8291
-2.12363,15.6349,-24.3042,187.852,-56.4756,-156.651,-11.0102,0.310961,-3.34391,-8.54799,0.0559727,-0.254477,-2.78785,-0.0941727,1.62877,4.88978,-19.096,-17.7239,24.6468,-29.1084,5.09653,10.5323,-15.2025,1.35379,1.61016e-14,1.74931e-14,-39.8867,7.5934,-50.8334,20.5172,11.0408,8.7592,13.9729,7.12502,33.9486,-12.8222,1.61016e-14,1.74931e-14,-110.92,-67.6801,128.723,52.8086,5.32588,31.3122,30.6731,7.12502,54.8826,48.8963,-60.1179,30.391,15.7543,52.4106,-18.2715,8.75735,17.3692,-45.6272,-35.3252,5.65006,59.0519,-30.9072,13.0885,-38.2267
-2.08035,15.5859,-24.2284,188.023,-52.7757,-155.917,-11.6271,0.180197,-3.66755,-8.30869,-0.0675994,0.258826,-2.19951,-0.145992,2.33298,4.42195,-19.6817,-18.0272,25.0217,-29.7633,4.50743,10.7849,-15.5302,1.00055,1.2921e-14,2.06736e-14,-39.4411,7.5089,-51.2541,20.7132,10.5724,9.02979,14.5287,7.12502,34.2056,-12.2092,1.2921e-14,2.06736e-14,-112.605,-67.8893,132.74,54.8435,11.7875,32.0458,31.6124,7.12502,55.5362,49.356,-61.8502,31.3097,16.4464,53.0113,-16.5663,10.456,19.0212,-44.8951,-34.2435,6.17419,59.0157,-30.7853,15.9062,-39.3953
-2.02916,15.5044,-24.1522,188.919,-48.3541,-156.113,-12.3741,0.280918,-4.71445,-7.8781,0.215626,0.599544,-1.38435,0.0252206,3.30706,4.99456,-20.2341,-18.096,23.4445,-30.4439,5.07209,10.2896,-15.7976,1.21028,1.70955e-14,3.18055e-15,-38.8384,7.17435,-51.4448,20.9294,8.99236,10.0614,14.5241,7.12502,35.1845,-11.9887,1.70955e-14,3.18055e-15,-113.663,-68.4098,135.853,56.9436,17.8473,32.5934,32.9424,7.12502,56.0222,50.3149,-63.5346,32.2886,16.8659,53.5145,-14.4742,12.6802,19.7277,-43.7208,-32.3686,5.58149,59.1417,-31.194,19.3121,-41.0336
-2.03353,15.4551,-23.98,190.527,-44.933,-157.132,-12.893,0.0674015,-4.70448,-7.57246,-0.0422192,0.502594,-0.758192,-0.1311,3.17132,5.47113,-20.5553,-18.0884,21.9547,-30.7803,5.54361,9.78553,-15.9178,1.43165,-4.7112e-14,5.725e-14,-37.8411,7.14476,-51.5047,20.9362,7.44348,11.15,14.4207,7.12502,36.2162,-11.8424,-4.7112e-14,5.725e-14,-112.889,-68.8784,137.012,59.4071,23.4378,33.5635,33.4679,7.12502,56.879,50.1542,-64.6972,30.8304,17.2622,53.9693,-11.6014,17.0528,20.4198,-43.2745,-31.171,4.18041,59.3101,-34.9759,17.0396,-42.7301
-2.01707,15.4034,-23.8396,192.296,-40.9057,-158.26,-13.7279,-0.497991,-5.70555,-7.41475,-0.67327,0.636648,-0.0968564,-0.454424,3.79401,6.1339,-20.4684,-18.2331,20.8108,-30.6749,5.93103,9.34218,-15.879,1.71926,5.74488e-14,6.67916e-14,-36.5193,8.65754,-52.2332,20.8729,5.38789,11.753,14.1773,7.12502,36.7871,-11.9419,5.74488e-14,6.67916e-14,-109.419,-68.7828,135.026,61.7723,28.1974,34.6011,33.8474,7.12502,57.7891,49.7566,-66.5658,30.4992,16.7663,54.3963,-8.51102,20.7198,17.6478,-42.7993,-29.1024,2.49082,59.4906,-35.6372,16.8449,-38.5998
-2.00953,15.3701,-23.6529,192.729,-37.9502,-158.24,-11.6903,-0.636526,-4.55651,-9.04623,-1.34536,-0.00727065,-2.87627,-0.839199,2.44756,9.21438,-19.8792,-17.5658,20.6394,-30.3991,5.18362,8.53485,-15.9789,1.91285,-5.36719e-15,-5.725e-14,-38.7082,10.3942,-53.7824,21.093,4.1193,12.5869,14.0541,7.12502,37.5756,-11.8594,-5.36719e-15,-5.725e-14,-113.799,-67.6919,139.848,63.6403,32.8652,35.1543,35.2975,7.12502,58.2715,50.7728,-67.5404,29.1371,17.681,54.7798,-5.19549,24.4666,12.9423,-42.292,-27.2621,1.50333,59.5983,-36.3782,17.7679,-39.0466
-1.95672,15.3198,-23.5163,193.489,-33.7996,-158.841,-11.8396,-0.864806,-5.68952,-8.51055,-1.49064,0.132756,-2.20461,-0.868915,3.20297,8.80615,-20.1586,-17.4943,19.8981,-30.52,5.21832,8.34751,-15.977,1.89303,-3.03147e-14,9.54166e-14,-37.5773,11.0901,-53.7501,21.3205,2.55936,13.6537,13.6743,7.12502,38.5829,-11.9639,-3.03147e-14,9.54166e-14,-110.727,-69.4748,138.903,66.1472,37.0517,35.8175,36.1442,7.12502,58.8471,51.0804,-69.2677,29.7254,17.0647,54.9483,-1.98789,26.492,6.52651,-41.5403,-24.2519,-0.280005,59.9759,-37.1971,18.3623,-38.506
-1.98594,15.3399,-23.3281,193.564,-31.7241,-160.619,-10.865,-1.56418,-6.15009,-7.09112,-2.21747,-0.304685,-1.15491,-1.20757,2.92473,4.93399,-21.0071,-17.8852,21.7614,-30.9806,4.32759,9.58325,-16.055,0.990657,6.95746e-15,-6.04305e-14,-35.6035,11.0825,-53.1863,21.5424,1.07262,14.9454,13.0615,7.12502,39.8003,-12.2245,6.95746e-15,-6.04305e-14,-106.021,-72.4857,136.741,67.6837,41.0968,35.8788,34.9075,7.12502,58.9001,49.7928,-68.4051,26.9495,17.3976,55.109,1.18561,28.9455,2.45878,-40.1197,-23.799,-3.53793,60.2479,-37.4027,19.4143,-38.2321
-1.97335,15.3009,-23.1148,193.067,-28.6348,-159.57,-8.1737,-1.45948,-4.42453,-8.25372,-2.52925,-0.515681,-3.88341,-1.39812,1.84255,7.85398,-20.5775,-17.9337,20.3082,-30.9062,4.9064,8.70265,-16.151,1.62679,9.03476e-14,-1.59028e-14,-36.9846,12.3632,-53.52,22.2347,-0.0658433,16.966,11.803,7.12502,41.6989,-12.8871,9.03476e-14,-1.59028e-14,-110.627,-73.1851,142.79,68.7629,44.1385,35.7312,33.9234,7.12502,58.7724,48.9309,-69.3861,26.2809,18.779,54.9555,3.21713,29.26,2.67027,-40.1295,-21.2535,-3.70771,61.1208,-37.6264,19.3521,-36.7561
-1.88234,15.2379,-22.9795,192.843,-24.5529,-159.59,-9.61755,-1.976,-6.28679,-5.81283,-2.64944,0.046092,-0.42078,-1.39876,3.33297,6.58057,-21.2284,-17.3722,17.5658,-31.1892,6.54492,8.16659,-16.0095,1.98904,4.77083e-14,-1.27222e-14,-32.7682,11.3704,-52.3005,22.7009,-1.23786,19.9216,9.3167,7.12502,44.4621,-14.3917,4.77083e-14,-1.27222e-14,-100.167,-78.3812,134.984,70.6635,47.3947,35.1992,34.9605,7.12502,58.3106,50.3999,-71.2544,28.5114,17.4492,54.7418,2.92785,27.0096,3.28837,-39.5994,-17.7265,-4.68533,61.9626,-37.8796,19.0903,-35.8058
-1.89039,15.235,-22.8187,191.813,-22.146,-160.7,-6.52692,-2.13289,-6.53072,-6.1137,-3.11236,-0.786394,-2.42509,-1.57242,2.70757,6.85155,-21.116,-17.2887,18.5439,-31.1056,5.63481,8.28639,-16.0556,1.73242,8.70677e-14,5.08889e-14,-34.2666,12.6257,-52.3466,22.236,0.520257,18.0585,12.8482,7.12502,42.7223,-11.4952,8.70677e-14,5.08889e-14,-108.141,-80.6318,144.452,71.4945,49.2469,35.7475,34.3649,7.12502,58.7865,49.359,-70.6285,27.4595,16.9998,54.5543,-0.540512,25.3,-5.4386,-37.7986,-16.7359,-7.21697,62.4969,-38.4451,19.6704,-35.1035
-1.8639,15.2147,-22.6321,190.412,-19.2487,-160.523,-3.82736,-2.40167,-6.68981,-6.02759,-3.64161,-0.813859,-3.78465,-1.76682,2.87828,8.43748,-20.6786,-17.4587,17.3975,-30.708,6.06156,7.70002,-15.9241,2.18817,-2.21645e-14,1.17681e-13,-34.0578,13.9201,-51.7643,22.8744,-0.118918,20.2199,12.0729,7.12502,44.7399,-11.5284,-2.21645e-14,1.17681e-13,-109.214,-83.1648,146.998,72.747,50.5679,35.9805,34.4178,7.12502,58.988,49.2183,-71.7901,28.4109,15.7421,54.0215,0.84738,21.3444,9.0747,-36.3831,-14.7526,-8.08888,63.1331,-38.9598,19.6709,-34.1539
-1.9014,15.1844,-22.4051,188.987,-17.2633,-160.503,-1.38328,-2.92772,-6.07714,-4.8997,-4.34477,-0.956867,-3.94543,-2.0966,2.48643,7.40563,-20.841,-17.4681,16.5347,-30.6075,6.69581,7.65829,-15.7618,2.29355,-1.71452e-14,3.18055e-15,-31.9288,14.0549,-50.4607,23.1701,-1.24971,22.0728,11.153,7.12502,46.4609,-11.7471,-1.71452e-14,3.18055e-15,-99.9587,-87.9383,139.555,73.8556,52.0936,35.6453,34.5656,7.12502,58.6979,49.6439,-72.1203,27.0167,15.8597,53.5746,1.3072,19.6028,14.0732,-35.0879,-14.1132,-9.23893,63.5634,-39.1197,20.3248,-32.976
-1.87221,15.1481,-22.2572,186.975,-14.5865,-158.987,0.798224,-3.1051,-5.44243,-4.29705,-4.57936,-0.500389,-4.52879,-2.1745,2.72728,11.8682,-20.5921,-18.4147,12.37,-30.8569,9.30672,6.20643,-15.972,3.78039,-8.99687e-14,3.81667e-14,-31.2338,15.2207,-49.2476,23.8103,-3.29751,23.6801,9.98702,7.12502,47.9467,-12.2506,-8.99687e-14,3.81667e-14,-97.531,-92.0266,138.786,75.0651,53.5384,35.7275,35.2278,7.12502,58.7691,50.2385,-72.7127,28.4606,16.2367,52.5893,-0.59484,17.9179,3.92279,-33.4068,-12.0963,-8.35308,64.0596,-39.4575,20.3567,-32.0928
-1.91385,15.1513,-22.0806,185.437,-12.9549,-159.043,3.71622,-3.56124,-5.11767,-3.90596,-5.31029,-0.751669,-5.76836,-2.49496,2.52035,9.83054,-20.5615,-18.1045,13.7205,-30.3803,7.99379,6.63032,-15.6824,3.16775,-3.18055e-14,1.90833e-14,-30.4058,15.9126,-47.7761,24.3688,-5.3433,25.3479,8.88835,7.12502,49.4804,-12.603,-3.18055e-14,1.90833e-14,-97.0535,-96.3716,139.813,76.2242,54.9017,36.1096,35.8155,7.12502,59.0996,50.5075,-73.0126,27.4143,15.8126,51.8542,-0.708869,16.6505,6.55326,-31.6572,-11.739,-9.38379,64.01,-39.3594,21.299,-31.2587
-1.92846,15.1873,-21.9338,183.853,-10.5242,-158.175,6.09183,-3.35629,-4.6925,-4.86411,-5.19513,-0.414883,-8.1839,-2.35945,2.85715,13.8463,-19.1816,-21.0187,13.7594,-29.7736,8.24737,6.43537,-15.6963,4.00966,-9.54166e-15,5.40694e-14,-32.5019,18.6266,-45.8987,25.6313,-8.32446,26.8571,7.55059,7.12502,50.8605,-13.2083,-9.54166e-15,5.40694e-14,-82.2934,-98.9951,127.796,77.2216,55.3702,36.0761,34.8393,7.12502,59.0706,49.5596,-73.9016,28.3361,15.1859,50.6971,-1.14069,14.8559,-0.698134,-29.7843,-10.1282,-9.01267,63.7969,-39.4369,21.3367,-30.0785
-1.98483,15.2239,-21.7743,182.872,-8.71901,-157.95,7.3373,-4.50206,-4.97005,-2.40473,-6.5809,-0.393634,-6.11791,-3.0754,3.15471,6.26001,-20.8058,-16.9219,14.5015,-29.3409,6.15322,6.84679,-14.9394,2.28987,1.41137e-14,7.63333e-14,-26.356,17.0483,-44.0655,25.6594,-10.6931,27.9927,6.12685,7.12502,51.8936,-14.0418,1.41137e-14,7.63333e-14,-102.113,-105.986,147.442,78.0188,56.1599,35.3787,34.2014,7.12502,58.4666,49.4967,-75.3754,28.0323,13.7018,49.7715,-0.401291,13.3543,-1.57936,-28.431,-9.28193,-9.40367,63.2174,-39.2584,21.7317,-29.1264
-2.03699,15.2457,-21.6048,182.063,-6.85778,-156.993,8.4204,-4.83947,-4.07691,-1.60348,-6.93008,-0.327276,-5.9472,-3.28077,2.83336,4.94583,-20.5774,-16.441,14.2039,-28.8414,6.02475,6.80417,-14.6553,2.15991,-6.06293e-15,5.08889e-14,-24.6736,16.6759,-42.0532,26.2503,-13.2506,28.5514,5.11117,7.12502,52.3999,-14.7539,-6.06293e-15,5.08889e-14,-102.894,-111.625,149.836,78.9858,57.0131,35.3424,34.0047,7.12502,58.435,49.3293,-77.4028,28.1782,12.1629,48.632,0.620227,11.1052,-2.17506,-27.6439,-8.08461,-8.72749,62.7008,-38.8271,21.5527,-26.9106
-2.13803,15.3299,-21.4948,181.058,-4.64033,-156.612,9.13613,-5.12875,-3.41725,-0.801649,-7.2482,-0.488713,-5.58266,-3.47717,2.36982,5.41056,-20.4277,-16.5411,12.8353,-28.749,6.63858,6.37919,-14.6127,2.47454,2.14687e-14,1.46306e-13,-22.5173,15.7932,-39.8168,26.2222,-14.6287,29.0103,4.50887,7.12502,52.815,-15.0999,2.14687e-14,1.46306e-13,-104.321,-116.589,152.97,79.9887,57.9942,33.9897,33.9704,7.12502,57.2536,50.3431,-78.4673,28.161,10.8107,47.4182,2.09497,9.42184,0.13752,-25.6031,-7.0681,-8.97476,61.691,-38.7887,22.056,-24.8001
-2.22838,15.408,-21.3812,180.546,-3.26786,-156.159,11.5528,-5.66702,-2.92201,-1.87375,-7.99859,-0.112126,-8.06534,-3.75249,2.94574,7.12396,-19.6637,-17.5796,12.224,-27.822,6.05114,5.87433,-14.2723,2.75731,2.74323e-14,-2.8625e-14,-21.7305,16.2266,-36.9749,26.1985,-14.8608,29.5728,4.68526,7.12502,53.3225,-14.6008,2.74323e-14,-2.8625e-14,-105.165,-118.68,156.658,80.6332,58.5428,35.3137,33.1838,7.12502,58.4101,48.5314,-80.3165,27.593,8.52579,46.1784,3.67225,6.08206,3.19537,-24.5292,-6.73574,-8.95018,60.75,-38.5284,22.2894,-22.398
-2.25088,15.4703,-21.3084,180.047,-0.439283,-154.054,11.1631,-5.68706,-1.6465,-0.321784,-7.75844,0.380839,-6.29384,-3.7447,2.5694,4.43486,-19.9883,-16.2473,11.8975,-27.834,5.66898,5.94069,-14.1777,2.27163,-3.39922e-14,6.36111e-14,-18.847,13.0633,-34.7642,25.9659,-14.9826,29.6813,5.16227,7.12502,53.4202,-14.0603,-3.39922e-14,6.36111e-14,-107.533,-124.941,161.141,81.2942,59.3226,33.5019,33.7851,7.12502,56.8248,50.5161,-83.5445,29.8241,5.68675,44.8353,5.71963,0.346133,10.6256,-23.1997,-4.55566,-6.49485,59.8059,-38.1934,21.5507,-19.7278
-2.32033,15.5486,-21.2176,179.708,2.08717,-152.637,12.3404,-5.97964,-0.636083,0.00403211,-7.96449,0.803724,-6.67282,-3.85095,2.60838,3.4352,-19.8975,-15.4367,11.1174,-27.4761,5.14416,5.62118,-13.9695,2.05583,-6.52014e-14,9.54166e-15,-16.8743,12.9114,-32.8374,26.2831,-16.3269,29.2779,5.4066,7.12502,53.0566,-14.0499,-6.52014e-14,9.54166e-15,-109.671,-129.094,165.651,81.4134,59.1034,36.7358,31.4397,7.12502,59.6387,45.5938,-86.2473,30.5023,3.44314,44.1016,7.34779,-4.21983,10.6846,-21.686,-2.90696,-5.07452,58.483,-37.8024,21.456,-17.8629
-2.43205,15.6516,-21.112,179.651,3.56057,-152.916,13.1681,-6.52836,-0.47928,0.272592,-8.68014,0.511236,-6.88958,-4.19898,2.42791,2.98343,-19.5803,-15.6049,10.4089,-26.9775,5.28173,5.45585,-13.7116,2.1617,1.78906e-14,-8.5875e-14,-15.0362,11.6348,-31.135,26.2163,-17.0603,29.1133,6.07308,7.12502,52.908,-13.4774,1.78906e-14,-8.5875e-14,-111.12,-133.244,169.4,82.5816,60.7413,34.6038,31.758,7.12502,57.7915,47.665,-88.6614,29.2113,0.400985,43.9516,8.63207,-7.7015,9.78956,-20.3514,-2.76121,-5.92295,56.5359,-37.358,22.0285,-15.4608
-2.5645,15.7907,-21.026,179.308,3.63793,-153.739,14.2458,-7.58477,-0.601912,0.408133,-10.128,0.106781,-7.34728,-4.88791,2.48365,2.35736,-19.473,-15.2004,9.59357,-26.7045,5.15356,5.19455,-13.5484,2.11123,-1.41535e-13,-9.54166e-15,-13.2598,10.1939,-29.5151,26.2412,-17.5501,28.9482,6.18741,7.12502,52.7589,-13.4564,-1.41535e-13,-9.54166e-15,-112.793,-136.934,173.526,83.1486,61.8048,35.069,30.5787,7.12502,58.1973,46.1217,-90.7825,27.3204,-4.42367,44.1303,9.11533,-13.3417,13.9004,-18.8342,-4.04877,-7.51987,54.1102,-36.2889,23.3899,-14.8169
-2.71532,15.9234,-20.9438,178.672,4.74354,-155.121,15.9331,-8.2029,-1.57267,0.354876,-11.1532,-0.256941,-8.1957,-5.31277,3.087,1.96604,-19.1569,-15.2947,9.04846,-26.1437,4.77114,4.98837,-13.274,2.07979,9.66093e-14,-1.27222e-13,-11.5986,10.003,-27.839,26.8088,-19.5235,28.3299,5.28152,7.12502,52.1994,-14.7049,9.66093e-14,-1.27222e-13,-114.574,-140.305,178.092,84.1836,63.9977,33.8075,30.5686,7.12502,57.0936,47.0764,-91.1211,24.4669,-5.31073,44.5868,10.4875,-14.4675,15.9591,-16.4314,-4.6373,-9.92784,51.1725,-35.2503,25.0502,-13.6153
-2.81017,16.0322,-20.8313,178.594,6.59995,-154.249,17.2396,-8.47303,-0.476271,0.742078,-11.2925,-0.454163,-8.74098,-5.38506,2.51339,0.864371,-18.727,-13.5319,8.07673,-25.3439,4.19093,4.48666,-12.8225,1.81273,1.47101e-14,1.08139e-13,-11.0012,9.14213,-27.0413,27.3032,-22.0198,26.7667,5.03269,7.12502,50.778,-15.7718,1.47101e-14,1.08139e-13,-114.373,-144.227,180.827,85.1221,66.064,33.5923,30.0924,7.12502,56.9043,46.7578,-93.4686,23.9326,-8.22624,44.3481,10.036,-19.9776,18.6167,-14.791,-3.98452,-9.15031,48.4419,-34.4632,24.9003,-9.62465
-2.91066,16.2075,-20.7905,177.445,8.4189,-152.719,17.3255,-8.87718,1.67587,2.4478,-11.3303,-1.07806,-7.47659,-5.47297,0.598453,0.0115991,-18.4507,-11.7315,6.4199,-24.8915,4.53302,3.89407,-12.5137,1.79656,2.70347e-14,4.13472e-14,-10.4088,5.94754,-26.7757,26.9853,-22.6792,25.3461,5.87944,7.12502,49.4787,-15.6128,2.70347e-14,4.13472e-14,-113.215,-148.643,182.702,85.9402,68.8005,33.312,29.2237,7.12502,56.6574,46.0916,-94.5835,24.6417,-10.7375,44.4473,9.6671,-25.9779,20.3307,-10.9859,-3.48784,-7.72099,44.9541,-33.5712,24.7949,-5.94677
-3.02063,16.3525,-20.7129,177.106,9.78724,-152.104,18.6477,-9.62294,2.57558,2.66251,-12.0909,-1.30411,-8.20254,-5.82899,0.282985,-0.712666,-17.4607,-10.3382,5.09075,-23.3621,3.3755,3.51988,-11.748,1.67047,-1.89641e-13,1.20861e-13,-9.08064,4.02704,-26.3059,26.4486,-22.3323,24.2804,6.76468,7.12502,48.4997,-15.2116,-1.89641e-13,1.20861e-13,-113.757,-151.615,185.675,86.5836,71.7829,32.8101,28.352,7.12502,56.214,45.5745,-97.0763,24.7417,-16.9569,43.9787,7.58505,-33.659,23.9196,-8.50994,-3.40331,-7.37926,41.5713,-32.1642,25.4869,-4.37581
-3.15095,16.5344,-20.7039,175.796,11.0425,-153.552,17.2127,-9.47721,3.55999,5.05746,-11.7163,-3.80469,-5.57392,-5.61555,-3.36705,-2.6903,-18.297,-6.8011,4.38739,-24.4396,3.43251,3.2027,-12.1754,1.03304,1.06151e-13,6.36111e-14,-10.6379,-3.38942,-27.0294,25.2477,-19.8928,23.211,8.35329,7.12502,47.5137,-14.0833,1.06151e-13,6.36111e-14,-109.115,-156.34,185.339,87.0865,74.9484,32.6082,27.1041,7.12502,56.0353,44.4665,-99.0906,24.8265,-25.0095,44.0363,4.70014,-39.9422,25.0036,-4.53573,-3.79651,-9.67442,37.4218,-31.2861,26.571,-2.90068
-3.25781,16.7051,-20.6603,175.382,12.8637,-152.555,22.5953,-9.89935,3.5009,2.2498,-12.2274,-2.61664,-11.289,-5.84822,-0.886724,0.23252,-17.5709,-7.92981,4.28909,-23.5052,1.51597,2.48656,-11.8261,0.995137,1.51871e-13,2.22639e-14,-10.7685,0.921195,-24.7328,25.908,-21.0193,21.6195,8.19255,7.12502,46.0407,-14.885,1.51871e-13,2.22639e-14,-111.204,-154.94,190.548,86.816,77.6343,32.4084,25.6119,7.12502,55.8582,43.111,-101.27,25.0035,-30.8513,43.486,-0.904109,-45.6207,29.0382,-1.38951,-3.4715,-8.83238,33.6087,-29.7601,27.0906,-0.896032
-3.37657,16.876,-20.6119,174.899,13.8791,-153.073,23.0687,-10.9648,2.6787,2.64072,-13.7686,-2.54842,-10.9836,-6.51294,0.177994,-0.90414,-16.1341,-8.8282,3.70999,-21.4139,1.31747,2.47101,-10.7717,1.09882,9.78021e-14,2.22639e-14,-7.44711,0.0128084,-24.412,25.4462,-20.7877,19.9038,8.49671,7.12502,44.4454,-15.218,9.78021e-14,2.22639e-14,-113.24,-158.616,194.115,86.1217,81.3295,32.3044,25.1585,7.12502,55.7659,42.7283,-102.62,24.0925,-38.0178,42.6471,-6.42558,-49.8014,32.5619,1.16424,-4.08414,-9.85236,29.9295,-27.6605,28.4128,0.0350267
-3.48405,17.0501,-20.5394,174.743,14.7488,-152.951,23.6563,-11.1423,3.26673,3.26946,-13.8187,-3.16793,-10.8855,-6.53688,-0.733248,-1.40416,-16.0201,-7.06892,2.60478,-21.255,1.31373,1.96799,-10.6472,0.905704,-4.77083e-14,4.13472e-14,-8.31025,-3.87749,-24.0687,24.5699,-19.527,18.2104,10.155,7.12502,42.8644,-14.1387,-4.77083e-14,4.13472e-14,-110.538,-161.251,195.564,85.5452,82.8772,31.7627,24.2768,7.12502,55.2843,42.2078,-103.258,22.9904,-44.4402,41.488,-17.8839,-51.7563,39.1016,3.16662,-4.81987,-9.96453,26.6434,-25.8264,29.0227,2.75963
-3.54601,17.2151,-20.4565,175.187,16.7886,-151.149,24.6542,-11.1962,4.55445,3.53698,-13.4449,-3.03934,-11.3354,-6.36573,-1.26122,-0.571094,-16.1776,-6.83597,1.45333,-21.5385,1.78377,1.49252,-10.7678,1.13115,-1.90833e-14,2.09917e-13,-8.56212,-7.72996,-23.7388,23.5221,-17.9085,16.6928,11.4054,7.12502,41.4426,-13.3687,-1.90833e-14,2.09917e-13,-108.736,-163.48,197.417,84.5633,83.8386,31.3251,23.8479,7.12502,54.8942,42.0629,-104.689,22.2997,-49.4683,40.0786,-34.959,-48.8682,47.6748,5.16743,-4.33981,-7.7591,23.5273,-23.8864,29.0426,5.08452
-3.64718,17.4042,-20.4354,174.688,17.3444,-151.714,25.1473,-11.6232,4.36066,3.80432,-14.0526,-3.52058,-11.4218,-6.62714,-1.39644,-0.386975,-15.4925,-5.67293,0.194797,-20.6096,1.18314,0.823097,-10.281,0.94133,-3.18055e-15,-2.54444e-14,-8.86734,-9.73953,-23.2051,23.4837,-17.9203,15.0808,11.6653,7.12502,39.9277,-13.5825,-3.18055e-15,-2.54444e-14,-107.423,-165.474,199.934,82.9566,84.6054,31.0935,23.7141,7.12502,54.6872,42.0766,-104.378,21.3353,-56.2353,38.9532,-44.9573,-45.3117,50.8389,7.39673,-5.29888,-8.72424,20.5672,-21.9701,29.7577,3.98376
-3.73698,17.5878,-20.3878,174.675,17.779,-151.44,26.3094,-12.0524,4.35614,3.70212,-14.5274,-3.34432,-12.1278,-6.8017,-0.814947,-1.09118,-15.2934,-5.85319,0.46437,-20.2891,1.07844,1.02005,-10.1204,0.87183,1.16885e-13,9.54166e-15,-9.5967,-8.15343,-22.1245,24.7299,-21.2585,12.4997,10.6833,7.12502,37.4932,-15.252,1.16885e-13,9.54166e-15,-106.313,-167.195,203.038,80.9419,84.3105,31.0102,23.584,7.12502,54.6128,41.999,-103.678,20.3899,-62.1405,37.6866,-54.3809,-38.6431,54.0107,9.00779,-6.2987,-8.54481,17.8906,-19.3873,30.2673,2.65645
-3.80257,17.7632,-20.3389,174.936,18.1883,-150.875,27.219,-12.3612,4.70534,3.50259,-14.7841,-3.25725,-12.9108,-6.90057,-0.614436,-3.12129,-15.6717,-6.19642,3.05536,-20.6636,0.75063,2.22061,-10.3448,0.496276,1.51871e-13,4.13472e-14,-10.108,-11.7697,-21.1805,23.7374,-19.4875,10.7677,10.527,7.12502,35.8541,-15.8252,1.51871e-13,4.13472e-14,-104.887,-168.26,205.648,78.9948,83.4539,30.8332,23.5422,7.12502,54.4545,42.0682,-102.994,19.4175,-67.6836,36.8472,-62.2233,-27.8614,57.0166,10.7725,-7.19652,-7.78554,14.5874,-16.4149,30.2415,2.54111
-3.87418,17.9474,-20.2886,175.167,18.3612,-150.202,27.7692,-12.819,5.27723,3.52066,-15.1602,-3.18424,-13.3251,-7.06922,-0.566752,-3.75944,-15.7238,-5.78225,3.63462,-20.6847,0.186055,2.41083,-10.3674,0.197979,1.46306e-13,1.01778e-13,-10.2731,-16.8242,-20.3789,22.3926,-16.2637,9.45113,11.5539,7.12502,34.6056,-15.0934,1.46306e-13,1.01778e-13,-103.533,-169.253,208.18,76.7822,81.9694,30.4896,23.3329,7.12502,54.1466,42.0714,-101.849,18.8453,-73.0294,35.9579,-67.5822,-17.5867,59.151,12.271,-9.16685,-6.83745,11.4699,-14.5495,30.0941,3.4991
-3.94964,18.1236,-20.2388,175.452,18.5428,-149.291,28.4762,-13.3809,5.98501,3.1115,-15.5817,-2.99936,-13.4574,-7.23563,-0.272335,-4.46922,-15.3195,-4.77765,3.59077,-20.0915,-0.830071,2.27319,-10.0801,-0.237612,6.59965e-14,5.08889e-14,-10.0665,-22.8827,-19.4937,20.8565,-11.814,8.60331,13.8188,7.12502,33.8005,-13.009,6.59965e-14,5.08889e-14,-102.544,-170.342,210.73,74.4963,80.3499,30.1363,23.0972,7.12502,53.8295,42.0499,-100.572,18.6594,-78.2114,35.0717,-71.9156,-9.69503,60.2126,14.0065,-10.024,-5.46435,8.24301,-10.3998,29.4685,-0.600649
-4.01492,18.2849,-20.1969,175.682,18.7409,-149.158,28.944,-13.5982,5.82281,3.04274,-15.8336,-2.73201,-13.6321,-7.31542,0.266045,-5.07305,-15.4651,-5.28482,3.9899,-20.2228,-0.641142,2.59625,-10.1469,-0.206985,4.29375e-14,2.22639e-14,-10.9905,-21.0299,-18.4118,21.9368,-14.993,6.39098,14.1762,7.12502,31.6958,-13.0903,4.29375e-14,2.22639e-14,-101.503,-171.5,212.985,72.6087,79.1764,29.4126,22.8061,7.12502,53.1781,42.1851,-99.2223,18.4554,-84.0879,34.4262,-76.4736,-2.72608,60.3488,16.2689,-10.7632,-4.89039,3.89815,-4.89853,29.5858,-7.14507
-4.06631,18.4361,-20.1636,175.997,18.8841,-148.857,29.2383,-13.6208,5.81074,3.21927,-15.753,-2.43053,-13.4482,-7.25221,0.561509,-6.11443,-14.9019,-4.97977,3.61048,-19.3068,-1.96,2.45398,-9.70541,-0.637943,5.64548e-14,5.40694e-14,-11.6827,-27.5364,-16.5608,20.4862,-10.5386,5.57055,16.3052,7.12502,30.914,-11.1126,5.64548e-14,5.40694e-14,-99.77,-172.63,214.993,70.6721,78.3234,29.0015,22.0941,7.12502,52.807,41.7079,-97.4775,18.3136,-88.475,34.041,-80.6429,4.36943,61.1744,18.3117,-11.5828,-4.12935,1.90833e-14,1.27349,29.696,-15.5506
-4.12637,18.5902,-20.1326,176.321,18.8144,-147.998,29.6392,-14.0519,6.15686,2.9572,-16.0905,-1.84371,-13.8319,-7.38579,1.24509,-5.70391,-15.0864,-5.60649,3.7535,-19.5485,-1.73194,2.52515,-9.83217,-0.480956,1.82882e-14,-1.59028e-14,-12.1074,-28.6817,-15.2103,20.4995,-10.141,3.94684,17.39,7.12502,29.3649,-10.3104,1.82882e-14,-1.59028e-14,-99.4446,-173.484,217.027,68.5176,77.4376,28.7307,21.2854,7.12502,52.5622,41.0511,-95.7922,19.0198,-92.8642,33.8608,-85.9888,8.45291,61.3746,18.4208,-12.6354,-2.96889,7.55382e-15,6.02194,29.4246,-20.2268
-4.19046,18.7283,-20.1066,176.51,18.7594,-147.575,30.0731,-14.3766,6.09162,2.70194,-16.4031,-1.23313,-14.1114,-7.48669,2.13451,-5.82225,-15.2741,-7.01078,4.60764,-19.6286,-2.07535,2.95781,-9.91594,-0.472465,-8.98507e-14,2.22639e-14,-12.3451,-28.9543,-13.8568,20.7558,-10.5393,1.37389,17.2539,7.12502,26.9057,-10.851,-8.98507e-14,2.22639e-14,-99.1004,-174.434,219.017,66.5839,76.6021,27.4637,20.9382,7.12502,51.4129,41.3862,-124.459,-19.3256,85.7959,34.279,69.9533,9.12523,61.5089,18.7546,-13.5927,-2.42879,7.95139e-15,8.50104,31.0887,-11.4132
-4.23323,18.8436,-20.0818,176.838,19.8559,-146.631,30.3859,-14.1684,6.21222,2.81356,-15.9203,-0.665443,-13.9401,-7.24286,2.4726,-6.18536,-15.1525,-6.98076,4.55374,-19.4199,-2.20622,2.98281,-9.81195,-0.529919,-3.02153e-14,5.08889e-14,-13.1217,-32.8665,-11.7801,20.1779,-9.2784,0.753853,18.8139,7.12502,26.3122,-9.38115,-3.02153e-14,5.08889e-14,-98.1041,-175.377,220.686,65.4571,76.9138,23.98,22.4736,7.12502,48.223,44.5817,-126.493,-18.8714,85.6301,34.9008,67.9973,6.91654,61.7389,19.7406,-13.5282,-1.33274,2.94201e-14,6.24071,35.2257,-2.78556
-4.29908,18.9495,-20.0673,177.047,20.0504,-146.688,30.2654,-14.2158,6.00189,2.73091,-16.0003,-0.269074,-13.8176,-7.26731,2.98964,-6.81802,-15.319,-9.17586,5.52474,-19.4668,-0.839754,3.86214,-9.84256,0.0287477,5.64548e-14,-9.54166e-14,-13.7186,-36.4876,-9.81471,19.6887,-7.48224,-0.394995,19.4779,7.12502,25.212,-8.87671,5.64548e-14,-9.54166e-14,-97.6294,-176.408,222.149,63.6839,75.7034,23.3659,21.3197,7.12502,47.6568,43.6911,-130.322,-18.8856,84.7082,35.779,66.202,7.30401,61.6113,20.283,-14.1075,-1.46873,-1.43125e-14,2.25396,40.1018,9.06188
-4.34694,19.0316,-20.0645,177.489,20.4929,-145.28,30.6629,-14.7316,6.53038,2.22706,-16.2812,0.742486,-14.379,-7.35599,4.04359,-5.02981,-14.8922,-11.4595,4.94862,-18.9302,-0.378643,3.62007,-9.59331,0.697146,1.27222e-13,-9.54166e-14,-12.6007,-38.7087,-8.93756,19.0722,-5.68452,-2.60288,19.3727,7.12502,23.095,-9.26322,1.27222e-13,-9.54166e-14,-99.0538,-178.014,223.526,62.0445,74.2914,22.601,20.1194,7.12502,46.9499,42.8077,-132.198,-19.9161,82.69,36.4276,62.4641,3.87854,61.6745,21.1918,-14.6867,-0.022416,2.8625e-14,-2.75358,44.8439,19.3437
-4.39688,19.1054,-20.0518,178.326,21.1629,-143.342,30.7289,-14.6306,8.34256,2.48418,-15.3357,1.21942,-14.3375,-6.96481,3.27262,-5.03244,-14.9211,-8.89766,3.51638,-19.0386,-2.35975,2.59874,-9.61008,-0.149221,-4.41302e-14,3.18055e-15,-15.6939,-44.5176,-5.02299,18.2532,-1.86339,-4.39445,19.4364,7.12502,21.3751,-9.40455,-4.41302e-14,3.18055e-15,-97.4437,-178.352,224.873,60.5788,72.8888,20.5592,20.0657,7.12502,45.0556,43.5434,-133.583,-21.235,80.2021,37.1799,58.1243,0.710898,61.8242,21.9012,-15.0235,2.04109,-6.36111e-15,-9.07364,49.152,27.7985
-4.447,19.1578,-20.0685,178.756,21.9574,-142.756,30.3062,-14.6151,8.64543,2.5338,-15.1533,1.72126,-14.0189,-6.88963,3.48344,-4.65927,-14.6855,-9.4927,2.99838,-18.7351,-2.19795,2.42762,-9.43943,0.0518603,-6.36111e-15,5.725e-14,-23.5465,-69.3054,6.15219,15.6028,21.7831,-4.07546,23.1003,7.12502,21.6815,-5.70562,-6.36111e-15,5.725e-14,-97.4757,-179.654,225.952,58.9794,70.94,18.9423,19.7523,7.12502,43.5485,43.8016,-135.773,-21.8557,78.6442,37.3541,55.211,-0.838072,61.4991,20.1054,-15.0831,2.84257,4.73685,-20.1043,50.3173,35.8328
-4.4992,19.2018,-20.0842,179.09,22.7221,-142.319,30.2911,-14.5555,8.61588,2.41964,-14.9511,2.35747,-13.9558,-6.77327,4.06904,-4.37365,-14.3916,-10.1556,2.69489,-18.314,-2.38742,2.30841,-9.22191,0.147446,-1.18078e-13,1.24042e-13,-21.3751,-65.3391,4.93933,15.9564,17.4102,-6.14487,22.8661,7.12502,19.6931,-6.15635,-1.18078e-13,1.24042e-13,-97.7771,-181.069,226.965,57.3056,68.9541,17.5434,19.2704,7.12502,42.2401,43.7795,-138.227,-22.3462,77.9375,37.4987,53.9619,-2.31862,62.7163,19.8387,-15.2263,3.45824,6.35144,-28.8484,52.0494,40.9494
-4.53826,19.2269,-20.1108,179.685,23.8024,-141.131,30.0281,-14.4094,9.63531,2.58782,-14.32,2.76767,-13.7268,-6.50561,3.68254,-4.66837,-14.5734,-9.89105,2.92094,-18.5053,-2.79609,2.37122,-9.33134,-0.0531735,8.62725e-14,3.18055e-15,-21.2221,-59.5454,5.09911,16.4802,11.4907,-8.39082,22.3748,7.12502,17.5328,-6.85456,8.62725e-14,3.18055e-15,-97.3705,-181.852,227.999,55.5005,66.9484,16.709,18.9843,7.12502,41.4578,43.7534,-137.819,-24.1828,74.025,37.4086,49.0434,-8.37214,62.3986,20.8842,-15.1443,4.67047,6.24921,-41.3349,50.324,46.2664
-4.58088,19.2544,-20.0667,180.489,25.3909,-139.517,30.6595,-13.9778,10.0573,2.6333,-13.3176,3.45998,-13.8079,-6.01073,3.86111,-4.629,-14.5731,-10.1846,3.01627,-18.4953,-2.62269,2.44677,-9.32965,0.0334508,-1.8805e-13,9.22361e-14,-18.8632,-44.8138,1.65593,18.4313,-4.39526,-11.5948,18.3022,7.12502,14.4475,-11.1749,-1.8805e-13,9.22361e-14,-97.06,-182.61,228.978,53.59,64.5182,16.0372,18.7536,7.12502,40.8271,43.7247,-139.835,-23.2351,76.3405,37.3174,49.6512,-7.25163,61.0096,22.5734,-14.7038,6.43552,4.73464,-49.9152,48.1204,48.2331
-4.63178,19.2725,-20.0691,181.042,25.9412,-139.168,30.34,-13.8381,10.1375,2.5546,-13.0505,3.97168,-13.6559,-5.88246,4.19747,-5.21545,-14.9008,-10.9091,4.08507,-18.7906,-2.30204,3.04997,-9.52301,0.0922481,2.10712e-14,4.6118e-14,-19.5957,-45.8824,3.47501,18.1184,-3.94771,-12.4615,17.1573,7.12502,13.6123,-12.3777,2.10712e-14,4.6118e-14,-97.2536,-183.558,229.784,51.8723,61.8706,14.727,18.4385,7.12502,39.5946,43.7856,-142.816,-23.6337,76.5569,37.081,49.474,-8.02753,60.8242,25.483,-15.0324,6.70622,-3.18055e-15,-51.4609,48.7055,50.052
-4.66518,19.278,-20.083,181.176,26.4994,-139.772,29.8116,-13.4672,9.42003,2.49957,-12.8737,4.26637,-13.3118,-5.79496,4.67943,-5.52402,-15.1116,-11.3182,4.78753,-19.0093,-1.95957,3.45175,-9.65812,0.163071,-3.04538e-13,3.81667e-14,-22.924,-54.52,8.53012,17.7118,4.50459,-12.0291,17.2381,7.12502,14.029,-12.2685,-3.04538e-13,3.81667e-14,-97.3113,-184.202,230.788,50.0452,58.8868,13.1602,18.505,7.12502,38.1172,44.2722,-145.534,-24.0764,75.4406,37.0803,48.5417,-9.49935,61.0369,25.6522,-15.3131,6.38424,-6.99722e-14,-47.7479,49.5022,50.0443
-4.68878,19.2715,-20.1009,181.723,28.0945,-138.555,29.8965,-12.9905,9.65837,2.73146,-11.9926,4.8819,-12.9834,-5.36287,4.81737,-5.79977,-15.0993,-11.0819,4.9302,-18.9979,-1.76332,3.54987,-9.65122,0.160369,1.09729e-13,-3.49861e-14,-25.2187,-57.1284,11.8592,17.6865,6.69441,-12.2045,17.1437,7.12502,13.86,-12.3745,1.09729e-13,-3.49861e-14,-97.4365,-185.214,231.591,48.4609,56.2662,11.6146,18.7352,7.12502,36.6561,44.8878,-146.364,-24.1167,75.5222,37.2456,46.8379,-11.4859,63.4764,26.7316,-14.925,7.69773,1.00187e-13,-42.0454,50.2977,50.044
-4.71275,19.2573,-20.1316,182.069,27.9013,-138.812,28.9091,-12.8967,9.68262,2.63588,-11.964,5.26428,-12.6048,-5.36575,5.05276,-6.64318,-16.0299,-11.6709,7.02792,-20.0232,-1.8653,4.08959,-10.2386,-0.100868,-9.93923e-15,-5.40694e-14,-27.6891,-58.3648,15.4243,17.4402,7.70749,-12.7054,17.3339,7.12502,13.3771,-12.2166,-9.93923e-15,-5.40694e-14,-97.5678,-185.756,232.558,46.9112,53.3013,9.84068,18.9843,7.12502,34.9752,45.5462,-149.248,-26.1585,73.7784,37.4507,42.7065,-13.3821,62.6034,26.5047,-15.7656,7.5937,-1.59028e-14,-36.1897,51.3093,49.465
-4.73561,19.2362,-20.1459,182.431,27.8174,-138.957,28.2545,-12.7947,9.51294,2.52763,-11.9179,5.70273,-12.3347,-5.34212,5.48258,-6.95391,-15.9075,-10.7304,7.1442,-19.8918,-2.23411,4.04136,-10.1764,-0.324775,-6.48038e-14,1.24042e-13,-32.31,-62.7139,21.748,16.4544,11.8384,-12.548,18.612,7.12502,13.5289,-10.9285,-6.48038e-14,1.24042e-13,-97.8907,-186.518,233.057,45.4848,49.8648,7.99169,19.1483,7.12502,33.2191,46.102,-152.931,-27.3875,73.9158,37.7558,40.7772,-14.0857,61.5747,26.3037,-16.4656,7.41384,-4.45278e-14,-30.8955,52.4843,48.0729
-4.76236,19.2066,-20.1527,182.737,28.5507,-138.44,28.2289,-12.939,9.39308,2.85849,-12.1522,5.68638,-11.928,-5.44235,5.55953,-7.33646,-15.7608,-9.30845,6.80473,-19.8647,-2.00216,4.31528,-10.12,-0.463411,1.13705e-13,-3.65764e-14,-33.6792,-64.0946,22.6665,16.4003,12.6855,-12.6981,17.1131,7.12502,13.3842,-12.437,1.13705e-13,-3.65764e-14,-98.5721,-188.194,231.86,44.1801,46.1553,6.42266,19.3026,7.12502,31.726,46.5631,-154.541,-29.1242,72.9972,38.182,37.5929,-15.2783,60.4733,26.8674,-16.5814,7.54956,-2.8625e-14,-25.9034,53.5087,45.9687
-4.79058,19.1706,-20.1583,183.099,29.4695,-137.901,28.245,-12.4978,9.49146,3.12129,-11.4442,6.06548,-11.59,-5.09091,5.59687,-7.62647,-16.3247,-9.89231,7.24655,-20.6036,-1.16572,4.22955,-10.4669,-0.248627,7.7526e-15,-3.18055e-14,-41.315,-67.3331,31.2936,16.1869,16.0613,-13.3284,15.5193,7.12502,12.7766,-14.0698,7.7526e-15,-3.18055e-14,-98.2893,-188.872,232.39,42.6199,41.7811,4.85227,19.2632,7.12502,30.2291,46.8088,-155.92,-30.8269,72.2731,38.0896,34.631,-16.6482,60.6857,27.4986,-16.4959,7.61939,-1.74931e-14,-21.8838,54.0527,43.7188
-4.82107,19.1329,-20.1569,183.679,30.2536,-137.535,28.1008,-11.8055,9.93049,3.53281,-10.3885,6.15974,-11.1234,-4.59611,5.0034,-9.16294,-17.3474,-9.3938,7.77493,-21.8987,-0.885633,4.65345,-11.0706,-0.510509,5.32743e-14,-4.45278e-14,-52.8109,-68.8662,43.1101,16.3156,19.0572,-13.5505,14.9859,7.12502,12.5625,-14.6164,5.32743e-14,-4.45278e-14,-96.9672,-188.868,232.743,41.2424,37.0537,2.9281,19.3778,7.12502,28.3918,47.2445,-158.045,-32.1741,72.172,38.0812,32.6433,-16.8582,62.6547,27.7415,-16.3786,7.59108,-1.74931e-14,-19.0278,54.2912,41.9053
-4.7496,19.0518,-20.1393,184.591,30.8227,-136.884,27.827,-11.4979,10.4417,3.73229,-9.81886,6.37697,-10.8146,-4.32755,4.70529,-9.13074,-17.5944,-9.34769,7.00317,-22.3114,-0.193677,4.4921,-11.221,-0.320284,4.92986e-14,-2.06736e-14,-61.3011,-69.4976,51.7186,16.3831,20.5907,-13.6912,15.2077,7.12502,12.4269,-14.4029,4.92986e-14,-2.06736e-14,-96.5851,-189.453,232.481,39.8882,32.0518,1.0577,19.5957,7.12502,26.6031,47.7469,-239.507,-153.599,108.669,37.6711,-61.9649,-58.6898,40.2961,27.8541,-16.479,8.22965,6.36111e-15,-16.5277,54.187,39.6342
-4.77668,18.9915,-20.2041,184.751,31.9068,-136.932,26.8633,-11.3479,10.7424,4.43837,-9.78049,6.03448,-10.4026,-4.2785,4.29489,-7.82149,-17.5409,-10.2311,5.92036,-22.343,0.565709,4.13395,-11.2138,0.150601,7.53394e-14,-5.08889e-14,-65.2387,-69.6848,55.5326,16.3638,21.0567,-13.9955,14.9183,7.12502,12.1335,-14.7098,7.53394e-14,-5.08889e-14,-97.1443,-190.483,231.62,38.4871,27.0019,-0.392422,19.5223,7.12502,25.2144,47.8765,-236.416,-154.34,105.662,37.7279,-68.5808,-53.8105,42.3202,28.88,-16.1056,7.32802,5.08889e-14,-17.3727,53.3503,38.729
-4.82729,18.9328,-20.1366,185.691,33.2077,-136.148,27.8327,-11.0958,10.4147,3.77519,-9.27065,6.62385,-10.729,-4.06822,4.76745,-7.48182,-17.9829,-11.1388,6.42499,-22.9941,1.52439,4.4814,-11.5207,0.429999,4.67144e-14,1.74931e-14,-65.2902,-69.689,55.4501,16.2891,20.5644,-14.4522,14.5203,7.12502,11.6931,-15.1333,4.67144e-14,1.74931e-14,-98.3568,-191.731,230.697,36.9888,21.6272,-1.72968,19.4903,7.12502,23.9326,48.0188,-235.21,-155.474,104.161,37.7574,-72.8619,-53.2601,44.9288,29.0413,-15.4583,7.61852,-3.18055e-14,-17.2103,52.9255,37.8917
-4.87213,18.884,-20.1405,186.337,33.6966,-136.329,27.259,-11.2287,10.2357,3.39395,-9.57289,6.90905,-10.8418,-4.22678,5.23686,-6.83947,-17.9331,-11.2007,6.10878,-23.051,1.98197,4.34887,-11.5385,0.628801,1.27421e-13,-1.11319e-14,-65.7399,-70.4085,56.1666,16.0803,20.999,-14.2683,13.809,7.12502,11.8704,-15.8345,1.27421e-13,-1.11319e-14,-100.197,-193.068,229.632,35.5757,16.2859,-2.65608,19.4558,7.12502,23.044,48.0981,-232.865,-155.785,101.909,38.2181,-74.517,-53.6156,47.8095,29.0225,-15.3187,6.79714,4.77083e-14,-17.1248,52.1904,36.5177
-4.91703,18.8213,-20.1336,187.62,34.6861,-134.856,27.1855,-11.5955,11.042,3.26342,-9.72972,7.21593,-11.0045,-4.30405,5.23641,-5.87529,-17.7949,-12.2476,6.08977,-23.0746,3.70134,4.5199,-11.515,1.27454,-7.95139e-15,-4.92986e-14,-68.2211,-72.0527,58.4013,15.9011,22.6714,-14.2299,13.2415,7.12502,11.9074,-16.3999,-7.95139e-15,-4.92986e-14,-102.635,-194.808,227.22,34.5336,11.5161,-3.09388,19.0544,7.12502,22.6239,47.7485,-231.157,-157.543,100.929,38.7749,-79.6468,-49.6198,48.5598,27.4845,-14.7679,7.54062,3.68638,-17.2147,50.0886,33.7983
-4.98093,18.7678,-20.1389,188.355,35.2533,-135.062,26.5513,-11.9283,10.9534,3.00908,-10.3112,7.33589,-10.9768,-4.59552,5.56378,-5.05435,-17.6462,-13.0381,5.93722,-23.0176,4.73161,4.55371,-11.4764,1.71816,8.20981e-14,-6.36111e-14,-84.4983,-75.1208,75.1497,15.2605,28.5712,-14.1421,13.3607,7.12502,11.9921,-16.2757,8.20981e-14,-6.36111e-14,-105.316,-196.689,224.619,33.4158,6.35633,-3.44263,18.533,7.12502,22.2891,47.2675,-228.775,-158.933,98.6862,39.0216,-82.6936,-49.869,43.8257,26.0623,-14.4808,6.74171,5.8805,-15.7671,49.059,28.4393
-5.04449,18.7098,-20.1324,189.617,36.605,-134.188,26.5808,-12.0866,11.1496,2.90503,-10.4154,7.52953,-11.0985,-4.64589,5.73237,-3.94861,-17.4752,-14.6779,5.51758,-22.9606,6.31717,4.61914,-11.4379,2.44007,-1.16687e-13,6.91771e-14,-114.333,-75.9143,105.167,14.7594,36.6842,-13.8908,13.2172,7.12502,12.2344,-16.405,-1.16687e-13,6.91771e-14,-108.601,-198.435,220.984,32.9446,1.64716,-3.96202,18.9225,7.12502,21.7904,47.7159,-175.704,19.2872,97.7782,39.2874,-148.716,-115.971,41.2399,25.3931,-13.527,6.76188,7.51348,-15.7557,48.1226,24.0805
-5.11641,18.655,-20.1771,190.487,37.7501,-134.011,26.0692,-12.1657,11.6007,2.7138,-10.4597,7.63898,-11.1286,-4.69037,5.59872,-2.83702,-17.36,-16.6112,5.09695,-22.9772,7.77106,4.70658,-11.4516,3.15307,3.95581e-14,-5.40694e-14,-120.101,-76.0302,110.82,14.4651,38.9882,-14.0163,12.3145,7.12502,12.1133,-17.3148,3.95581e-14,-5.40694e-14,-111.825,-199.402,217.81,32.8234,-2.85451,-4.10542,19.8113,7.12502,21.6527,48.6206,-177.68,17.1675,96.3708,38.9989,-140.186,-120.266,45.3717,25.3582,-12.742,5.88708,8.12187,-17.6218,47.3111,22.8728
-5.1852,18.601,-20.1971,191.28,39.2137,-134.33,25.7135,-12.1286,11.4457,2.48608,-10.5592,7.61307,-11.2086,-4.76116,5.659,-3.43017,-17.4075,-16.1682,5.48599,-23.0284,8.09303,4.91879,-11.4446,3.11601,-2.55438e-14,2.38542e-15,-122.658,-76.6404,112.726,14.2056,40.3237,-13.5855,12.0604,7.12502,12.5288,-17.5439,-2.55438e-14,2.38542e-15,-114.576,-200.589,215.489,31.7152,-8.55206,-4.02986,19.4419,7.12502,21.7253,48.2428,-178.202,16.9885,95.6088,38.8076,-147.453,-117.457,41.8362,25.0473,-11.6556,4.61043,8.76593,-20.5446,46.201,23.889
-5.31347,18.5745,-20.2724,192.201,40.6509,-134.721,25.3492,-12.2554,11.2188,2.17089,-10.9491,7.3645,-11.4072,-4.9823,5.63752,-4.12683,-17.4949,-15.6095,6.54272,-23.1964,8.54137,5.37468,-11.481,3.0449,1.61214e-13,-7.95139e-14,-132.021,-76.6381,121.036,13.8246,43.4719,-13.1594,11.8717,7.12502,12.9395,-17.7071,1.61214e-13,-7.95139e-14,-117.375,-201.786,212.765,29.9197,-13.8986,-4.20739,19.1285,7.12502,21.5548,47.949,-179.202,16.4532,94.9539,38.325,-146.168,-117.774,41.5481,24.6872,-10.4704,3.05034,8.92426,-21.1979,45.9962,22.1818
-5.37878,18.5223,-20.2907,193.667,41.5518,-133.848,25.0561,-12.0193,12.166,2.01476,-10.3471,7.59865,-11.5425,-4.72608,5.18982,-3.53203,-18.1742,-17.4262,6.64625,-24.2455,9.7918,5.80633,-11.9893,3.46613,1.0138e-14,1.59028e-14,-109.045,-78.4137,97.3847,13.9845,38.7843,-12.9985,9.6794,7.12502,13.0947,-19.8895,1.0138e-14,1.59028e-14,-118.044,-202.306,213.063,28.264,-18.8988,-3.93459,19.6211,7.12502,21.8168,48.4113,-180.472,16.1402,95.4135,38.0754,-144.101,-117.947,41.829,24.3923,-9.87022,3.02375,9.1678,-19.4039,46.2469,17.164
-5.43969,18.4829,-20.3269,195.735,42.9561,-132.648,24.4781,-12.1654,13.2332,1.73668,-10.3287,7.61634,-11.7319,-4.77145,4.65025,-2.16836,-18.0919,-19.4728,5.73459,-24.4347,11.9024,5.85399,-12.085,4.39764,6.15239e-14,-4.13472e-14,-95.6537,-79.6702,82.6069,13.9669,37.224,-12.6049,8.26123,7.12502,13.474,-21.2829,6.15239e-14,-4.13472e-14,-121.247,-202.876,210.193,27.4554,-21.7874,-3.42004,20.8727,7.12502,22.3108,49.6046,-181.073,15.7952,96.1157,37.7433,-142.573,-118.074,42.0311,23.9985,-8.61814,3.08717,9.60118,-19.5397,45.5531,14.8879
-5.50174,18.4468,-20.357,197.74,44.5646,-131.732,23.6245,-12.0276,13.9979,2.00243,-10.1796,7.34021,-11.8941,-4.70259,4.11523,-1.87363,-18.3637,-20.6899,6.46695,-25.0243,13.1317,6.44917,-12.3564,4.76133,-1.49089e-15,-4.45278e-14,-103.612,-80.0194,89.5163,13.8018,39.5621,-11.4442,8.58631,7.12502,14.5925,-20.8803,-1.49089e-15,-4.45278e-14,-125.662,-202.82,205.284,27.7069,-22.0437,-2.84548,22.1948,7.12502,22.8623,50.8597,-181.385,15.8697,96.7973,37.5286,-141.821,-117.536,42.0007,23.2506,-7.1903,2.82806,10.5361,-19.6643,44.6335,12.4872
-5.56087,18.4133,-20.38,199.974,46.2401,-130.9,22.3774,-11.6838,14.8391,1.98368,-9.862,7.09705,-11.4244,-4.63417,3.08038,-2.46463,-18.9858,-18.7206,6.98193,-25.6995,11.4592,6.32501,-12.6827,3.89506,6.26172e-15,2.06736e-14,-95.3415,-80.2676,79.8099,13.8089,38.3672,-10.7437,7.75705,7.12502,15.2673,-21.6595,6.26172e-15,2.06736e-14,-129.176,-202.523,200.901,27.5776,-21.8324,-2.45753,22.89,7.12502,23.2345,51.5084,-181.441,17.3807,97.8922,37.3666,-141.943,-115.579,41.8754,22.4714,-6.4987,2.13393,11.0479,-20.2968,44.3555,10.0332
-5.61647,18.3857,-20.4007,202.48,47.9682,-129.783,21.2159,-11.0413,15.7601,1.92061,-9.12151,6.8781,-11.0023,-4.36631,1.90997,-2.64857,-19.686,-17.1703,6.99767,-26.6254,10.7453,6.18229,-13.1177,3.37592,2.49475e-14,-3.02153e-14,-77.8155,-79.1852,60.9476,13.9711,35.0205,-9.5983,6.37415,7.12502,16.3704,-22.955,2.49475e-14,-3.02153e-14,-132.515,-201.664,196.749,27.7999,-20.8303,-2.03739,23.6059,7.12502,23.6375,52.1728,-181.236,18.2247,99.0005,37.0478,-141.953,-114.257,41.8307,21.7113,-5.93811,1.50111,11.4961,-20.2836,44.2419,7.14825
-5.66447,18.3639,-20.4198,205.255,49.4213,-127.995,20.61,-10.7727,16.7922,1.64766,-8.61623,7.00162,-11.0816,-4.18739,1.29437,-1.68392,-19.6887,-15.9843,5.57788,-26.6859,10.6062,5.41722,-13.182,3.39444,-4.53229e-14,6.71892e-14,-71.969,-79.1851,54.3472,13.7686,34.6488,-8.69398,5.5494,7.12502,17.241,-23.7058,-4.53229e-14,6.71892e-14,-134.916,-201.374,195.505,26.8853,-22.6611,-1.82725,23.9672,7.12502,23.8391,52.5079,-39.5993,-18.6248,-79.3416,36.6388,-79.9004,-51.6997,42.1256,21.0599,-5.52643,1.37411,12.1663,-19.578,44.2519,3.94397
-5.7082,18.3418,-20.4387,207.095,51.6758,-128.024,19.6197,-10.004,16.4336,1.18712,-7.97166,6.91826,-10.9606,-3.94217,1.05142,-2.40545,-20.6002,-18.0106,7.83409,-27.9992,11.1158,6.75787,-13.7746,3.28513,3.67752e-15,6.08281e-14,-35.4719,-70.0753,16.432,13.9115,22.3276,-8.2936,3.59265,7.12502,17.6263,-25.6284,3.67752e-15,6.08281e-14,-137.347,-201.13,194.905,26.0589,-24.4126,-3.05048,22.8348,7.12502,22.6655,51.5239,-39.5291,-20.6357,-78.7534,35.9828,-76.4047,-52.7027,42.5664,19.9851,-5.01614,-0.505124,12.882,-20.2645,44.2434,3.25544
-5.72118,18.3019,-20.4105,209.053,54.2792,-128.261,18.3182,-9.0909,16.0178,0.680128,-7.31741,6.3059,-10.769,-3.73146,0.225974,-2.08104,-20.9269,-17.3913,8.398,-28.6321,11.4054,6.93652,-14.0529,3.20055,-5.06901e-15,-1.98785e-14,-34.0726,-68.6519,13.8457,13.7981,21.0544,-7.16131,3.35067,7.12502,18.7157,-25.769,-5.06901e-15,-1.98785e-14,-139.833,-200.227,193.285,25.5851,-24.9821,-3.50143,22.9247,7.12502,22.2327,51.666,-39.9457,-22.3669,-78.7205,35.5441,-72.9435,-54.1744,42.2604,18.8869,-4.35019,-2.54604,13.1744,-21.927,43.919,2.9482
-5.77785,18.279,-20.4042,212.739,56.2728,-125.974,17.9548,-8.55818,16.2622,0.177556,-6.59666,6.43651,-11.0706,-3.44861,0.020123,-1.79732,-21.0151,-17.2608,8.84997,-28.8618,11.5229,7.0713,-14.1574,3.18668,1.35671e-14,-6.55989e-14,-33.17,-69.4052,12.1056,14.0161,21.8571,-5.70583,3.48332,7.12502,20.1151,-25.4953,1.35671e-14,-6.55989e-14,-143.475,-199.22,191.415,25.332,-24.9535,-3.46371,23.7152,7.12502,22.2689,52.4521,-40.5105,-22.3633,-77.1212,34.6877,-71.5814,-54.6105,42.4968,17.8656,-3.60429,-3.00529,13.6486,-24.2152,43.1973,3.43999
-5.84118,18.2785,-20.4629,217.173,57.2849,-121.939,18.0966,-8.82579,17.3132,-0.0998695,-6.48488,7.17306,-11.5146,-3.4086,0.334591,-2.07671,-20.6634,-18.2801,9.79271,-28.3767,11.574,7.51078,-13.923,3.29885,8.34896e-15,-3.06128e-14,-26.4585,-69.5913,4.84024,14.0823,21.9332,-4.46628,3.40681,7.12502,21.3061,-25.442,8.34896e-15,-3.06128e-14,-148.944,-198.105,188.857,25.3989,-24.6499,-3.30686,24.4113,7.12502,22.4194,53.1301,-40.9626,-20.4517,-74.6153,34.2193,-70.2309,-56.4733,40.5642,17.7373,-3.10871,-2.35936,13.9267,-26.0528,42.2413,4.14531
-5.84811,18.2391,-20.4277,219.583,59.869,-121.464,16.958,-8.10721,16.5634,-0.592873,-6.05424,6.80892,-11.3268,-3.25512,0.0733021,-1.84055,-20.6095,-18.2885,10.3701,-28.4706,12.0348,7.75413,-13.94,3.40685,2.53699e-14,7.25564e-15,-23.6767,-67.982,1.0262,14.2178,20.1447,-4.17668,3.01769,7.12502,21.5843,-25.7994,2.53699e-14,7.25564e-15,-152.217,-197.202,187.743,25.3746,-24.9122,-3.13252,24.6801,7.12502,22.5868,53.3787,-41.2333,-22.1367,-74.1276,33.6616,-68.2856,-52.7261,44.4276,16.7628,-2.60595,-4.44294,14.0183,-28.0218,41.4338,6.26944
-5.87306,18.2397,-20.4615,224.351,61.5875,-118.194,15.781,-7.37734,17.2993,-0.931632,-5.16705,6.96406,-10.9901,-2.88699,-0.507386,-1.41769,-20.6486,-18.9417,10.5127,-28.711,12.8808,8.00067,-14.0389,3.6858,-2.97204e-14,-7.46343e-14,-20.9861,-64.7713,-2.37597,14.5865,16.4796,-3.62518,2.38338,7.12502,22.1139,-26.372,-2.97204e-14,-7.46343e-14,-155.434,-195.643,186.938,25.613,-24.1229,-3.35473,24.9865,7.12502,22.3735,53.7109,-41.688,-20.5886,-72.9598,32.6002,-68.3645,-55.5315,41.9298,16.3004,-1.68522,-5.0007,13.4806,-29.2063,40.4354,8.61745
-5.89142,18.2446,-20.4948,230.713,62.3943,-113.181,14.6358,-6.86172,18.8943,-1.24085,-4.32477,7.43927,-10.6861,-2.54088,-1.12414,-1.71455,-20.7198,-18.6881,10.8965,-28.7226,12.3616,8.05671,-14.0432,3.46961,3.29486e-14,-1.36565e-13,-18.1781,-61.1427,-5.92556,15.0747,12.681,-3.30477,2.08156,7.12502,22.4214,-26.6371,3.29486e-14,-1.36565e-13,-159.031,-194.028,186.071,26.0611,-23.4328,-3.80612,25.0349,7.12502,21.9401,53.8107,-41.7578,-18.2925,-70.8977,31.2119,-71.1538,-55.1708,41.715,15.4605,-0.657976,-4.30701,13.6243,-30.0024,38.7876,11.642
-5.92207,18.2241,-20.497,230.384,67.2781,-116.577,12.8362,-5.80056,14.9634,-1.95774,-4.24733,6.53096,-10.1218,-2.44397,-0.243096,-2.41282,-20.8473,-18.9651,11.9753,-28.8629,12.1976,8.56759,-14.0662,3.29468,9.31306e-14,-5.96354e-14,-15.7582,-59.2182,-9.06913,15.3453,10.7155,-2.72587,2.24108,7.12502,22.977,-26.4095,9.31306e-14,-5.96354e-14,-162.558,-193.85,185.781,25.8782,-24.2423,-4.70701,24.3269,7.12502,21.0749,53.2016,-42.2093,-24.0777,-72.0293,30.0746,-63.0797,-56.3491,43.2443,13.3372,-0.66567,-10.1459,13.6552,-29.8439,38.8726,13.4209
-5.93571,18.2308,-20.5016,236.816,68.8304,-111.478,12.6693,-7.613,15.3175,-3.06824,-6.37347,7.17585,-11.5541,-3.49708,0.963243,-3.36866,-18.7685,-21.3357,14.6523,-25.7207,11.42,9.37333,-12.6785,3.75574,1.0476e-13,-3.02153e-14,-2.92554,-57.7692,-22.9593,14.2889,12.9371,-2.11615,3.37318,7.12502,23.562,-25.2035,1.0476e-13,-3.02153e-14,-173.69,-190.257,180.506,26.6248,-23.0034,-5.35208,24.5463,7.12502,20.4551,53.4888,-43.4404,-24.2169,-69.6383,29.4782,-61.441,-57.488,42.8822,12.2776,-0.383433,-10.5149,14.0245,-27.0696,39.4448,9.774
-5.95702,18.2499,-20.5258,244.45,69.7257,-105.09,11.3421,-3.31671,15.9112,-2.30029,-1.23112,5.75176,-9.28821,-1.10596,-2.3812,-3.63249,-22.6725,-13.6692,12.6733,-31.387,10.5578,8.25314,-15.0746,1.78763,3.90439e-14,-2.42735e-14,-20.7228,-52.9245,-7.84991,16.9819,2.82432,-1.41392,2.15443,7.12502,24.2354,-26.334,3.90439e-14,-2.42735e-14,-164.148,-192.12,186.165,25.2272,-24.3034,-6.46908,25.0848,7.12502,19.3814,54.1389,-45.0877,-24.4766,-66.3286,28.8255,-56.8885,-62.0011,39.7909,11.3132,-0.381131,-10.5165,14.3794,-24.8266,39.5754,5.53488
-5.9781,18.2537,-20.5155,252.637,70.0075,-98.0719,10.3829,-3.34716,17.4198,-2.52797,-1.17832,6.04913,-9.04616,-1.12857,-2.8901,-2.76378,-22.1897,-15.699,12.7627,-30.8563,11.4837,8.55693,-14.8745,2.36631,1.42131e-14,-5.1684e-14,-17.1503,-51.1352,-12.1059,17.2381,1.3996,-0.74717,1.86396,7.12502,24.8745,-26.5377,1.42131e-14,-5.1684e-14,-168.84,-191.344,185.056,24.7388,-24.7834,-6.95802,24.6256,7.12502,18.9112,53.7263,-46.8701,-24.5052,-62.7369,28.6994,-54.3345,-63.6718,38.6742,10.3772,-0.534156,-10.0874,14.8931,-22.488,39.0252,2.92522
-5.98555,18.2338,-20.4728,258.14,71.0474,-93.4789,10.1123,-3.94567,16.4619,-3.03772,-1.94519,7.1083,-9.53047,-1.42961,-1.04603,-2.00213,-21.0775,-19.2438,13.4188,-29.3156,11.8368,9.04432,-14.2944,3.10346,1.07344e-14,-3.97569e-15,-11.0691,-47.8199,-17.3064,17.3631,-0.622838,-0.242846,1.91871,7.12502,25.3577,-26.4153,1.07344e-14,-3.97569e-15,-175.82,-192.688,185.105,24.0937,-27.2611,-4.362,25.5102,7.12502,21.4063,54.3476,-48.2047,-26.6029,-59.4011,28.7422,-50.0581,-62.4303,40.7552,9.72792,-1.22576,-10.8802,15.5045,-19.1051,38.1895,-0.119179
-5.99003,18.2154,-20.4294,265.612,72.9371,-87.2201,9.59847,-3.35001,15.1796,-3.65605,-1.50461,6.39066,-9.80078,-1.25061,-1.2348,-0.807977,-20.7966,-17.7813,13.5226,-29.1752,11.7951,8.6397,-14.2318,3.13889,2.89232e-14,4.77083e-14,-11.9025,-45.2028,-18.4475,17.9516,-3.47164,0.685008,2.20106,7.12502,26.2463,-26.0038,2.89232e-14,4.77083e-14,-178.562,-190.378,184.185,23.8089,-26.4501,-3.50563,26.4232,7.12502,22.2286,55.1649,-50.2426,-29.0758,-56.5403,28.7201,-46.3022,-60.907,43.3188,8.97348,-1.79398,-12.7533,15.7444,-16.0302,37.5426,-4.16752
-6.02315,18.1983,-20.3891,274.374,72.7043,-80.3818,8.24873,-2.79217,15.008,-3.89252,-0.933186,7.15691,-9.17546,-0.900296,-0.465802,-2.3345,-20.9619,-17.9159,14.5683,-29.1164,10.8814,9.10886,-14.1679,2.68713,3.23025e-14,-5.08889e-14,-10.648,-43.6997,-19.3892,18.3263,-5.87442,0.642416,3.07114,7.12502,26.2056,-25.1398,3.23025e-14,-5.08889e-14,-182.025,-190.844,184.986,23.5114,-27.1821,-3.76399,26.3451,7.12502,21.9806,55.1162,-52.7942,-30.4552,-52.2873,29.0759,-41.8653,-61.7045,43.4744,7.40851,-1.39031,-12.0873,15.727,-12.1626,36.0643,-8.76115
-6.05179,18.1929,-20.4015,282.74,73.4129,-73.4182,7.51442,-2.31296,14.8275,-4.29154,-0.483933,6.75323,-9.12391,-0.717018,-0.893196,-2.96502,-21.0453,-17.6384,15.6684,-29.2129,10.5081,9.50665,-14.1634,2.42115,-2.47487e-14,1.03368e-13,-10.7411,-42.5442,-20.1235,18.6492,-7.65591,1.38581,2.95946,7.12502,26.9171,-25.1438,-2.47487e-14,1.03368e-13,-184.77,-191.231,184.931,22.6887,-28.1876,-5.14284,25.4178,7.12502,20.6562,54.3386,27.6235,-137.717,-97.1593,29.8718,29.4951,-27.2288,62.0602,6.55842,-2.14335,-13.3052,15.4567,-11.6679,34.9159,-8.06684
-6.06418,18.1772,-20.3661,291.32,73.284,-65.8267,7.07482,-1.86377,14.6697,-4.55788,0.00261078,6.53333,-9.09051,-0.499686,-1.12708,-3.01792,-20.9736,-16.8647,16.235,-29.0853,9.84905,9.46929,-14.1027,2.16968,-1.26228e-14,-1.59028e-14,-11.2308,-42.6027,-20.967,19.4045,-8.04576,1.84246,2.82438,7.12502,27.3539,-25.2107,-1.26228e-14,-1.59028e-14,-187.755,-191.954,184.675,22.3395,-29.1249,-7.04098,24.3152,7.12502,18.8314,53.4237,26.8853,-140.69,-93.6637,31.0967,34.2399,-24.6931,62.444,6.11163,-2.82852,-13.8652,15.3232,-10.6946,33.9288,-9.21245
-6.07461,18.1502,-20.3099,299.216,72.7443,-58.9482,6.5581,-1.58016,14.3778,-4.75208,0.259855,6.53415,-8.95869,-0.362736,-1.01386,-3.3937,-20.7853,-16.888,17.1553,-28.8806,9.89697,9.84361,-13.9567,2.14541,-9.93923e-16,-2.78299e-14,-10.0719,-41.6005,-22.49,18.9437,-9.2255,1.59824,2.88282,7.12502,27.1203,-25.1889,-9.93923e-16,-2.78299e-14,-191.089,-190.839,184.179,22.0668,-27.3664,-8.89859,24.0698,7.12502,17.0441,53.3421,27.3758,-142.21,-91.6482,31.9236,37.7365,-22.1137,62.5939,5.66404,-3.01774,-14.1517,14.971,-6.73891,33.318,-17.0356
-6.08271,18.1085,-20.2492,306.488,72.4564,-52.6434,5.12745,-1.38686,12.7017,-4.20817,0.0700962,7.38792,-7.4904,-0.246293,0.767938,-4.70598,-20.5765,-17.2741,17.2639,-28.3026,9.63802,10.0433,-13.6678,2.07079,3.93594e-14,-6.20208e-14,-7.05026,-42.7786,-24.0155,18.4791,-8.73342,1.84758,3.00479,7.12502,27.3588,-25.0295,3.93594e-14,-6.20208e-14,-195.221,-193.99,184.433,21.6688,-28.4484,-9.5965,24.2758,7.12502,16.3722,53.6048,28.5519,-142.474,-91.2116,32.2003,38.774,-22.6142,62.1411,4.84285,-3.36758,-14.901,15.2377,-1.74043,32.5316,-28.2262
-6.08802,18.0467,-20.1807,314.348,72.4099,-45.7007,4.84179,-0.814317,12.0955,-4.72949,0.693854,6.58881,-7.81573,0.0144422,0.177357,-4.19247,-20.4929,-16.6119,17.664,-28.3738,9.65818,10.0127,-13.6754,2.04861,-4.37326e-15,-1.59028e-14,-9.14578,-43.2413,-23.1853,18.7244,-8.41273,2.43639,2.99415,7.12502,27.9219,-24.9499,-4.37326e-15,-1.59028e-14,-196.716,-194.684,184.07,21.4007,-29.3556,-9.09037,24.9592,7.12502,16.8594,54.2473,28.9805,-143.295,-90.4012,32.4557,40.3535,-23.4151,61.6151,3.87182,-4.12498,-16.1792,15.8636,-1.36417,31.9402,-30.6496
