JuanDHNZ/ProyectoFinalCD/preprocessing/sports_trials_csv/05_02.csv
root1,root2,root3,root4,root5,root6,lowerback1,lowerback2,lowerback3,upperback1,upperback2,upperback3,thorax1,thorax2,thorax3,lowerneck1,lowerneck2,lowerneck3,upperneck1,upperneck2,upperneck3,head1,head2,head3,rclavicle1,rclavicle2,rhumerus1,rhumerus2,rhumerus3,rradius1,rwrist1,rhand1,rhand2,rfingers1,rthumb1,rthumb2,lclavicle1,lclavicle2,lhumerus1,lhumerus2,lhumerus3,lradius1,lwrist1,lhand1,lhand2,lfingers1,lthumb1,lthumb2,rfemur1,rfemur2,rfemur3,rtibia1,rfoot1,rfoot2,rtoes1,lfemur1,lfemur2,lfemur3,ltibia1,lfoot1,lfoot2,ltoes1
4.32281,16.5929,-15.2362,30.1795,9.0338,-3.19998,-18.546,-3.01197,3.95342,-11.6687,-4.53868,5.28282,-2.0803,-2.31333,2.63998,-14.2733,-8.36048,-2.87815,39.3708,-11.0726,-2.82053,16.5378,-5.44872,-2.7216,-2.4699e-14,1.03368e-14,-50.4758,7.42994,-75.9826,24.7209,-18.9262,4.56578,12.4538,7.12502,29.9557,-15.1415,-2.4699e-14,1.03368e-14,-56.4139,-2.47846,87.6062,32.4658,6.25655,-2.13946,16.2709,7.12502,23.5396,44.8505,-44.1107,4.87191,33.5912,29.5908,-31.4195,-32.9899,19.1168,-21.9207,18.9033,-27.3766,39.5467,38.2531,37.3952,10.248
4.32596,16.5834,-15.2338,30.1732,9.09268,-3.21382,-18.4938,-3.00502,3.99608,-11.7613,-4.52562,5.31763,-2.21007,-2.30889,2.6637,-14.3827,-8.19812,-2.94482,39.6827,-10.875,-2.68191,16.752,-5.34445,-2.64455,-1.90088e-14,-2.22639e-14,-50.5396,7.39059,-75.963,24.6362,-18.5485,3.31234,12.2131,7.12502,28.759,-15.5919,-1.90088e-14,-2.22639e-14,-56.4409,-2.42369,87.6582,32.2623,6.10281,-2.04429,16.3176,7.12502,23.6309,44.8853,-43.8791,4.35515,33.9018,29.4304,-32.3621,-31.826,21.3023,-21.9156,18.741,-27.3076,39.6777,43.8624,28.56,-8.07815
4.32425,16.5787,-15.2371,30.2087,9.07295,-3.24057,-18.4781,-2.95605,4.00023,-11.8264,-4.45586,5.31137,-2.29206,-2.27461,2.67063,-14.5451,-7.95315,-2.87085,40.0054,-10.595,-2.53486,16.9764,-5.18296,-2.57353,4.14963e-15,-3.81667e-14,-50.5844,7.28015,-75.9915,24.6641,-18.2135,2.20885,12.3065,7.12502,27.7043,-15.6727,4.14963e-15,-3.81667e-14,-56.3954,-2.55064,87.7505,32.1127,6.09126,-1.87801,16.4699,7.12502,23.7904,45.0169,-43.831,4.29589,33.9909,29.3664,-33.1864,-31.3116,22.5997,-22.0097,18.7256,-27.2898,39.714,43.5545,29.5261,-6.53806
4.32027,16.5782,-15.2401,30.2461,9.05504,-3.19871,-18.4791,-2.95257,3.90865,-11.8629,-4.43541,5.3086,-2.32462,-2.25965,2.72375,-14.9236,-7.53033,-2.61248,40.401,-10.0468,-2.50516,17.2746,-4.89541,-2.55035,-5.91633e-14,1.03368e-14,-50.5462,7.23227,-76.018,24.5968,-18.0225,1.40223,13.11,7.12502,26.9328,-14.9908,-5.91633e-14,1.03368e-14,-56.2861,-2.50179,87.7168,32.0177,6.01472,-1.84297,16.4594,7.12502,23.824,45.0021,-43.8525,4.50906,33.86,29.3125,-33.2302,-31.547,22.5986,-22.076,18.6631,-27.318,39.7298,43.7264,29.8024,-6.61765
4.3194,16.5782,-15.2381,30.2798,9.03861,-3.14855,-18.5261,-2.94182,3.82939,-11.9247,-4.40809,5.28826,-2.36414,-2.24237,2.75146,-15.4018,-7.32306,-2.36734,41.0362,-9.81458,-2.56663,17.7342,-4.7433,-2.64422,2.51463e-14,2.54444e-14,-50.6049,7.27821,-76.1421,24.4703,-17.9071,0.494214,14.0718,7.12502,26.0637,-14.1601,2.51463e-14,2.54444e-14,-56.3093,-2.52242,87.71,32.0331,5.98697,-1.68429,16.6983,7.12502,23.9762,45.2211,-43.8567,4.42342,33.851,29.2744,-33.2345,-31.4065,22.7511,-22.0703,18.6362,-27.3511,39.7242,42.5728,31.1827,-2.68862
4.32165,16.5781,-15.2327,30.2377,9.0279,-3.21635,-18.4951,-2.8844,3.93159,-12.0272,-4.33777,5.2588,-2.50534,-2.21443,2.68236,-16.3346,-7.06299,-1.96277,42.1751,-9.50309,-2.8291,18.6058,-4.53632,-2.90556,1.13307e-14,2.06736e-14,-50.9244,7.355,-76.3621,24.6273,-17.7943,-0.558043,14.5936,7.12502,25.0558,-13.7829,1.13307e-14,2.06736e-14,-56.5356,-2.59346,87.7005,32.1283,5.96346,-1.71831,16.8914,7.12502,23.9435,45.4185,-43.7896,4.15685,34.0571,29.2692,-33.0478,-31.1613,22.7216,-21.9838,18.6593,-27.2591,39.7096,47.7866,26.5601,-8.99498
4.32253,16.5757,-15.229,30.2095,9.03755,-3.365,-18.4524,-2.81688,4.10404,-12.111,-4.26474,5.26984,-2.63477,-2.18767,2.61726,-16.0591,-6.86668,-2.01524,42.3922,-9.32895,-2.5185,18.7001,-4.42667,-2.71627,-5.56349e-14,5.1684e-14,-51.1666,7.43168,-76.5425,24.8649,-17.6835,-1.37532,14.6918,7.12502,24.2724,-13.7917,-5.56349e-14,5.1684e-14,-56.7444,-2.53893,87.6381,32.2836,6.01375,-1.9228,16.8358,7.12502,23.7474,45.3885,-43.751,4.07683,34.2772,29.2618,-32.5496,-31.1064,22.1887,-21.9506,18.6263,-27.0857,39.69,42.3859,30.5157,-2.23449
4.32065,16.5729,-15.2277,30.166,8.97133,-3.37031,-18.4411,-2.77265,4.04486,-12.0901,-4.19845,5.26572,-2.61413,-2.15045,2.65545,-16.6609,-6.55445,-1.7349,42.9083,-8.94642,-2.5513,19.1711,-4.20208,-2.77294,-6.70898e-15,-1.82882e-14,-51.1243,7.35049,-76.5587,24.9858,-17.4514,-2.07831,14.5031,7.12502,23.5983,-14.0689,-6.70898e-15,-1.82882e-14,-56.6545,-2.4764,87.6281,32.1978,6.11338,-1.99443,16.8732,7.12502,23.6787,45.4348,-43.688,4.32723,34.1642,29.248,-32.3435,-31.306,22.0531,-21.8676,18.6064,-27.0787,39.6445,44.9129,26.9553,-11.7982
4.32143,16.571,-15.2221,29.9979,8.79473,-3.38378,-18.3349,-2.6833,3.97552,-12.085,-4.06424,5.229,-2.66231,-2.08014,2.68098,-16.8471,-6.31942,-1.4886,43.2903,-8.66801,-2.593,19.4518,-4.03919,-2.81428,-4.91744e-14,0,-51.1803,7.01,-76.3557,25.0015,-16.9669,-2.71546,14.3901,7.12502,22.987,-14.2592,-4.91744e-14,0,-56.6383,-2.3014,87.4794,32.0982,5.98112,-2.00816,16.712,7.12502,23.6656,45.2753,-43.4753,4.451,34.0992,29.2522,-32.0339,-31.5046,21.1253,-21.6172,18.7665,-27.0862,39.5709,44.8715,26.5245,-12.1753
4.32615,16.5692,-15.2108,29.6791,8.64759,-3.52762,-18.2206,-2.56706,4.07078,-11.995,-3.92289,5.22293,-2.63202,-2.0134,2.64433,-15.7482,-6.09098,-1.63321,42.6132,-8.45327,-2.03176,18.7754,-3.93982,-2.37369,-2.76311e-14,-3.18055e-15,-51.0672,6.56251,-76.0033,24.6853,-16.2531,-3.35467,14.8328,7.12502,22.3735,-13.8917,-2.76311e-14,-3.18055e-15,-56.5981,-2.13478,87.302,32.0514,5.78949,-1.91595,16.2024,7.12502,23.754,44.7542,-43.0945,4.15947,34.3776,29.2889,-30.1544,-31.8438,17.7586,-21.1605,19.0135,-26.8939,39.4697,44.2344,27.6028,-9.75387
4.3291,16.5664,-15.2043,29.5082,8.56367,-3.55546,-18.2183,-2.52528,4.02972,-11.8895,-3.86887,5.22296,-2.51474,-1.98232,2.66998,-15.5708,-5.84724,-1.53307,42.4217,-8.21231,-1.74359,18.6266,-3.79353,-2.18723,1.717e-14,-4.29375e-14,-50.7184,6.17975,-75.7396,24.1655,-15.6939,-4.06735,15.436,7.12502,21.6893,-13.369,1.717e-14,-4.29375e-14,-56.4232,-1.91455,87.0922,31.8605,5.51412,-1.66115,15.8016,7.12502,23.9984,44.3215,-42.8909,3.98644,34.4731,29.3136,-32.0281,-31.0099,20.9741,-20.8677,19.103,-26.8485,39.3708,44.0839,27.9859,-9.18636
4.32881,16.5643,-15.2035,29.4552,8.54631,-3.51441,-18.0853,-2.51976,3.92462,-11.9428,-3.83417,5.24459,-2.63289,-1.95909,2.76585,-15.6937,-5.58496,-1.40962,42.6272,-7.9191,-1.58664,18.7948,-3.62366,-2.09338,6.80837e-15,1.43125e-14,-50.6183,5.98542,-75.5947,23.9049,-15.323,-4.86193,15.5091,7.12502,20.9261,-13.3821,6.80837e-15,1.43125e-14,-56.4816,-1.73675,87.0263,31.7344,5.42414,-1.555,15.6477,7.12502,24.1001,44.1541,-42.8239,4.09972,34.3682,29.308,-32.7408,-30.8537,22.1632,-20.7509,19.0971,-26.8848,39.3111,44.2561,28.1029,-9.75321
4.33197,16.5621,-15.1971,29.3346,8.53552,-3.54944,-18.0285,-2.46277,3.9825,-11.9352,-3.7632,5.2396,-2.65974,-1.92639,2.74152,-16.064,-5.31302,-1.17753,43.0465,-7.61765,-1.53419,19.155,-3.43672,-2.08723,-2.06736e-14,2.38542e-14,-50.5518,5.71582,-75.4041,23.8132,-15.1387,-5.44566,15.4549,7.12502,20.3652,-13.4972,-2.06736e-14,2.38542e-14,-56.5878,-1.739,87.1116,31.8138,5.51598,-1.54732,15.6559,7.12502,24.1075,44.1614,-42.6715,3.87542,34.5139,29.2958,-32.0869,-30.9164,20.8175,-20.5703,19.1791,-26.8136,39.2912,40.8105,31.2662,-1.4251
4.3354,16.5613,-15.1903,29.2745,8.57902,-3.72096,-18.1178,-2.37405,4.20915,-11.9165,-3.68423,5.24485,-2.61159,-1.89774,2.6283,-16.2949,-5.10108,-1.03501,43.3248,-7.42266,-1.36774,19.4066,-3.29716,-2.01675,1.71452e-14,2.3059e-14,-50.4075,5.21252,-75.0878,23.5231,-14.7592,-5.88276,15.7245,7.12502,19.9451,-13.272,1.71452e-14,2.3059e-14,-56.5984,-1.82394,87.1862,31.8341,5.60595,-1.39294,15.9442,7.12502,24.2555,44.4299,-42.6275,3.53,34.8794,29.3177,-31.3675,-30.8577,19.5516,-20.4623,19.2631,-26.6123,39.2431,43.1179,29.493,-6.07278
4.3331,16.5592,-15.1913,29.2841,8.54457,-3.72563,-17.9983,-2.33994,4.17281,-12.0394,-3.61733,5.2363,-2.80752,-1.86405,2.66136,-16.2523,-4.8939,-1.01145,43.5296,-7.22749,-1.11088,19.5494,-3.17236,-1.8638,5.51627e-14,-4.45278e-14,-50.6255,5.2112,-75.1864,23.611,-14.8519,-6.57927,15.6806,7.12502,19.2754,-13.3841,5.51627e-14,-4.45278e-14,-56.7841,-1.85084,87.2304,31.8343,5.75009,-1.5013,15.9346,7.12502,24.1516,44.4342,-42.5409,3.79283,34.7656,29.2855,-32.1109,-30.4899,21.5261,-20.4509,19.1825,-26.6183,39.221,41.7831,31.6726,-1.54455
4.33332,16.5673,-15.1838,29.1542,8.36446,-3.73982,-17.8296,-2.29275,4.07762,-12.1648,-3.52261,5.23707,-3.02756,-1.81273,2.74326,-15.8763,-4.61487,-0.835896,43.6355,-6.89211,-1.01543,19.5096,-3.00056,-1.76681,1.60022e-14,1.03368e-14,-51.1043,5.44032,-75.4222,23.9724,-15.2774,-7.20569,15.8471,7.12502,18.673,-13.2766,1.60022e-14,1.03368e-14,-57.1271,-1.81584,87.2968,31.7342,5.83606,-1.84036,15.6362,7.12502,23.8265,44.1786,-42.5744,3.92519,34.6748,29.3836,-30.548,-31.6109,17.9857,-20.2112,19.3262,-26.6302,39.0808,41.1669,32.7356,0.690717
4.33624,16.5547,-15.177,29.0259,8.28297,-3.80799,-17.8455,-2.22555,4.11193,-12.225,-3.43512,5.24494,-3.08999,-1.77027,2.74797,-15.9276,-4.298,-0.497337,44.0462,-6.48258,-1.12376,19.7744,-2.78356,-1.81433,1.82882e-14,-2.54444e-14,-51.3856,5.48305,-75.4917,24.0387,-15.6347,-7.75862,16.4231,7.12502,18.1411,-12.7509,1.82882e-14,-2.54444e-14,-57.3874,-1.84941,87.4435,31.6071,6.03294,-2.06009,15.388,7.12502,23.6158,43.9577,-42.3162,3.46097,34.9856,29.523,-31.2637,-30.2995,19.0434,-19.9463,19.4048,-26.5514,38.9451,40.9213,33.0626,1.25882
4.33353,16.5665,-15.1684,29.0756,8.17267,-3.7121,-17.8224,-2.22438,3.89364,-12.1939,-3.40484,5.2876,-3.05062,-1.74016,2.91872,-17.6165,-3.85481,0.236276,45.3107,-5.83855,-1.78276,21.1035,-2.42786,-2.27071,8.54774e-15,-7.15625e-15,-51.1373,5.35746,-75.351,23.9445,-15.7758,-8.27763,16.8263,7.12502,17.6417,-12.3934,8.54774e-15,-7.15625e-15,-57.2262,-1.68449,87.5019,31.5739,6.03012,-1.96316,15.5197,7.12502,23.7087,44.0774,-42.636,4.04151,34.5594,29.7181,-31.3487,-31.5862,17.9998,-19.8605,19.3825,-26.682,38.7134,41.2745,32.5868,0.327255
4.33093,16.5691,-15.1649,29.1411,7.98108,-3.56751,-17.8809,-2.16096,3.64172,-12.3529,-3.28048,5.18164,-3.18882,-1.66672,2.97018,-16.1344,-3.83634,-0.204638,44.6131,-5.94629,-0.969006,20.2263,-2.47764,-1.70859,-3.76697e-14,3.97569e-15,-51.4485,4.97726,-75.2256,23.8799,-15.8671,-8.84161,16.9298,7.12502,17.0989,-12.3378,-3.76697e-14,3.97569e-15,-57.5393,-1.82613,87.5352,31.6517,5.97464,-1.72241,15.8728,7.12502,23.9396,44.4004,-42.8059,4.59167,34.1051,29.8205,-31.3736,-32.1767,18.3809,-19.8497,19.4538,-26.9156,38.5732,41.4392,31.9929,0.136361
4.3308,16.5699,-15.1606,29.208,7.88835,-3.55152,-17.8422,-2.08623,3.63265,-12.5554,-3.16522,5.11264,-3.43961,-1.61157,2.93029,-15.7992,-3.59456,0.0365817,44.6601,-5.69354,-0.855547,20.157,-2.32427,-1.63036,-2.73329e-15,-2.62396e-14,-51.7554,4.45853,-74.9192,23.7267,-15.6682,-9.33924,17.5282,7.12502,16.6199,-11.7802,-2.73329e-15,-2.62396e-14,-57.9397,-1.95192,87.6046,31.754,5.92816,-1.29537,16.3947,7.12502,24.3491,44.8679,-42.9367,4.6304,34.0669,29.9104,-30.6941,-32.4432,17.2177,-19.8673,19.4891,-26.9823,38.458,42.7477,30.6157,-3.85569
4.33256,16.571,-15.1542,29.2968,8.01273,-3.65683,-17.951,-2.04656,3.83121,-12.635,-3.1402,5.09954,-3.48641,-1.61156,2.80905,-15.6657,-3.38771,0.223519,44.6184,-5.50197,-0.680342,20.0932,-2.19458,-1.52939,5.4964e-14,-4.92986e-14,-51.7577,4.01323,-74.7012,23.4839,-15.6206,-9.86027,18.4898,7.12502,16.1182,-10.8599,5.4964e-14,-4.92986e-14,-58.0917,-2.08946,87.6887,31.8446,6.04634,-0.665842,17.0277,7.12502,24.9525,45.4186,-42.9854,4.45412,34.2804,29.8668,-31.05,-32.1831,17.813,-19.9817,19.4097,-26.8422,38.4596,44.3842,28.1701,-9.37727
4.33612,16.5677,-15.1495,29.2884,8.16069,-3.77836,-18.0743,-2.00473,4.04671,-12.5677,-3.12536,5.10655,-3.36255,-1.61558,2.69055,-17.2224,-3.03919,1.14504,45.7155,-5.04689,-1.42378,21.2857,-1.89927,-2.07474,-3.2551e-14,-1.59028e-14,-51.5934,3.55175,-74.4964,23.3736,-15.7853,-10.6091,18.7981,7.12502,15.397,-10.6085,-3.2551e-14,-1.59028e-14,-57.967,-2.22829,87.8205,31.7467,6.21544,-0.632521,17.0787,7.12502,24.9844,45.4651,-42.8396,3.85808,34.7252,29.7589,-31.5139,-31.3905,18.6565,-19.9837,19.3133,-26.6402,38.5018,45.3836,26.4607,-13.2502
4.33513,16.5592,-15.1507,29.2892,8.1076,-3.6833,-18.0735,-1.96218,3.943,-12.5728,-3.0544,5.05495,-3.36595,-1.57494,2.70396,-16.8184,-2.8832,1.075,45.5366,-4.87842,-1.115,21.0518,-1.81459,-1.84242,3.58806e-14,1.03368e-14,-51.8611,3.5561,-74.6832,23.9148,-16.6939,-11.5467,17.8765,7.12502,14.4938,-11.5973,3.58806e-14,1.03368e-14,-57.9679,-2.41357,88.0648,31.7156,6.4451,-1.13689,16.5795,7.12502,24.501,45.0323,-42.6832,3.71129,34.7126,29.6932,-31.4414,-30.963,18.8929,-19.9921,19.2642,-26.7448,38.5204,45.0578,27.0691,-12.1635
4.3346,16.5598,-15.1466,29.3153,8.04431,-3.61425,-18.0442,-1.92577,3.84188,-12.6334,-2.98659,5.01979,-3.44515,-1.53605,2.73679,-16.3079,-2.73453,0.974231,45.2885,-4.74122,-0.731051,20.7413,-1.73973,-1.57082,-7.90169e-15,3.18055e-15,-52.0998,3.42455,-74.6944,24.1982,-17.3391,-12.2715,17.4498,7.12502,13.7954,-12.0728,-7.90169e-15,3.18055e-15,-58.0407,-2.3455,88.0656,31.7177,6.26514,-1.32011,16.1379,7.12502,24.3254,44.6143,-42.6848,4.03819,34.4696,29.6872,-29.43,-31.9099,15.5094,-20.0067,19.2627,-26.8443,38.486,46.1015,25.1543,-16.0339
4.34044,16.5701,-15.1392,29.2964,8.22865,-3.66055,-18.0223,-1.8992,4.0051,-12.6711,-2.96807,5.00047,-3.5099,-1.53751,2.63057,-16.3326,-2.56228,1.07478,45.2886,-4.58767,-0.533707,20.7601,-1.63276,-1.45486,5.31749e-15,-1.59028e-15,-52.1002,2.92918,-74.4318,23.9723,-17.6102,-12.6116,17.9029,7.12502,13.4675,-11.6417,5.31749e-15,-1.59028e-15,-58.1267,-2.356,88.1334,31.6779,6.08802,-1.17568,16.4678,7.12502,24.4638,44.9256,-42.8071,3.80713,34.5846,29.7388,-31.6758,-31.4034,18.8535,-19.9058,19.115,-26.6988,38.4158,45.4119,26.209,-13.4658
4.33691,16.5727,-15.1376,29.3865,8.13825,-3.62418,-18.0715,-1.87067,3.89027,-12.7166,-2.91533,4.98992,-3.52988,-1.50398,2.69138,-16.7941,-2.31414,1.3498,45.5826,-4.31849,-0.531987,21.1173,-1.46301,-1.46655,-2.06736e-14,8.74653e-15,-52.0088,2.4647,-74.165,23.6566,-17.6991,-12.9424,18.4857,7.12502,13.1487,-11.0797,-2.06736e-14,8.74653e-15,-58.2603,-2.44543,88.3354,31.6262,6.06606,-1.1294,16.9331,7.12502,24.5082,45.3848,-42.9837,4.18196,34.3622,29.8039,-28.5124,-32.9587,12.6931,-19.9784,19.1256,-26.8032,38.3485,45.024,27.1146,-11.283
4.3382,16.5734,-15.1363,29.4456,8.10278,-3.61788,-18.1002,-1.81881,3.89174,-12.7466,-2.84688,4.96138,-3.55143,-1.47044,2.6705,-16.5936,-2.26179,1.2261,45.4612,-4.29001,-0.269071,20.9839,-1.44265,-1.29249,-8.54774e-15,-1.90833e-14,-51.9821,2.04497,-73.9288,23.3664,-17.7691,-13.2342,19.2159,7.12502,12.8674,-10.3674,-8.54774e-15,-1.90833e-14,-58.3177,-2.41392,88.3476,31.5685,5.88952,-1.04323,17.0491,7.12502,24.5908,45.4896,-43.078,4.14679,34.3648,29.8424,-30.0064,-32.401,15.5074,-20.0583,19.1861,-26.8737,38.3269,45.5852,26.0789,-13.1545
4.34182,16.5742,-15.1299,29.4992,8.26864,-3.69939,-18.2476,-1.77458,4.06372,-12.7109,-2.82246,4.94903,-3.44778,-1.46778,2.5582,-16.8041,-2.10353,1.3734,45.4571,-4.13342,-0.17689,21.0502,-1.33888,-1.2417,-5.86415e-15,3.10104e-14,-51.9451,1.64645,-73.7984,23.1974,-18.055,-13.5055,19.901,7.12502,12.6059,-9.69865,-5.86415e-15,3.10104e-14,-58.1971,-2.29171,88.227,31.4269,5.75446,-1.03252,16.9179,7.12502,24.601,45.357,-43.146,4.00418,34.5294,29.854,-28.7573,-32.7513,13.4438,-20.119,19.1269,-26.7455,38.3406,45.801,25.6099,-14.0055
4.34352,16.5727,-15.1232,29.4912,8.44103,-3.80805,-18.2931,-1.71893,4.23506,-12.6686,-2.77681,4.9417,-3.38899,-1.45422,2.45815,-17.4091,-1.89752,1.75998,45.6542,-3.89482,-0.35167,21.3737,-1.18671,-1.36891,1.77415e-14,3.97569e-15,-52.0293,1.50257,-73.9342,23.4376,-18.789,-13.8912,19.9161,7.12502,12.234,-9.70609,1.77415e-14,3.97569e-15,-58.2204,-2.31515,88.2454,31.5178,5.68807,-1.12699,16.7273,7.12502,24.5105,45.1787,-43.0528,3.90596,34.7087,29.8172,-30.4843,-31.9913,16.8525,-20.095,19.0456,-26.5442,38.3894,45.16,26.6712,-11.732
4.34263,16.5712,-15.1207,29.4413,8.44342,-3.77799,-18.2211,-1.67915,4.18265,-12.6134,-2.71545,4.89543,-3.36404,-1.42109,2.44693,-16.8038,-1.91737,1.41134,45.0581,-3.9524,0.131584,20.7753,-1.22742,-1.04013,-6.90777e-15,7.95139e-16,-52.0773,1.27259,-74.0114,23.727,-19.2673,-14.279,19.3761,7.12502,11.8601,-10.268,-6.90777e-15,7.95139e-16,-58.1456,-2.28312,88.2032,31.5363,5.48759,-0.991801,16.6146,7.12502,24.6401,45.0484,-42.9347,3.9434,34.6536,29.8001,-29.688,-32.1082,15.7723,-19.9906,19.0458,-26.5409,38.4064,44.5808,27.5615,-9.89477
4.34241,16.5719,-15.1189,29.4192,8.51247,-3.85558,-18.1669,-1.61675,4.29617,-12.5986,-2.64529,4.85964,-3.38444,-1.39376,2.35698,-16.9164,-1.79941,1.51582,44.9106,-3.85496,0.266036,20.7088,-1.15365,-0.968044,1.65985e-14,-2.14687e-14,-52.0604,0.800643,-73.8317,23.2424,-19.3061,-14.4406,20.2951,7.12502,11.7042,-9.35796,1.65985e-14,-2.14687e-14,-58.1181,-2.49899,88.3936,31.4611,5.76475,-0.709711,16.77,7.12502,24.9104,45.1666,-42.9349,3.90037,34.7858,29.7791,-31.0189,-31.9035,17.7172,-19.9881,19.0493,-26.4255,38.4352,44.3247,27.9075,-9.2523
4.34361,16.5741,-15.1178,29.5183,8.51466,-3.7676,-18.245,-1.60522,4.24268,-12.5894,-2.62856,4.81952,-3.33305,-1.3829,2.34351,-16.89,-1.65899,1.57535,44.6728,-3.67267,0.357245,20.5351,-1.06596,-0.888395,1.75924e-14,1.19271e-14,-51.8668,0.275747,-73.5379,22.7486,-19.1955,-14.5815,20.5231,7.12502,11.5683,-9.13766,1.75924e-14,1.19271e-14,-58.1558,-2.46954,88.463,31.5002,5.96132,-0.603125,16.9509,7.12502,25.0126,45.3334,-43.0471,3.86246,34.7065,29.7164,-31.0979,-32.1144,17.5047,-20.1007,18.9614,-26.5591,38.4796,43.8963,28.678,-7.59318
4.34523,16.57,-15.1162,29.6262,8.52092,-3.66912,-18.3953,-1.59433,4.18554,-12.5636,-2.61787,4.7795,-3.22622,-1.37423,2.32834,-17.478,-1.34102,2.16459,44.8344,-3.23117,-0.0380283,20.8074,-0.835705,-1.1147,-2.65874e-14,3.10104e-14,-51.7776,-0.0808284,-73.398,22.5425,-19.2583,-14.869,20.3392,7.12502,11.2911,-9.33687,-2.65874e-14,3.10104e-14,-58.1545,-2.43344,88.534,31.4159,5.92162,-0.832109,16.6188,7.12502,24.7931,45.0317,-43.0455,3.60352,34.733,29.5908,-30.6566,-31.9132,17.0442,-20.2205,18.8092,-26.6987,38.5885,39.8788,32.366,2.57211
4.34822,16.5606,-15.117,29.615,8.60365,-3.77948,-18.4341,-1.54377,4.38628,-12.5492,-2.58236,4.77807,-3.20247,-1.36798,2.21847,-17.3775,-1.22362,2.29086,44.5957,-3.04719,-0.0864325,20.6037,-0.756744,-1.11626,4.89507e-14,-3.10104e-14,-51.8826,-0.35359,-73.3428,22.4967,-19.507,-15.1237,20.2117,7.12502,11.0454,-9.47771,4.89507e-14,-3.10104e-14,-58.2008,-2.44345,88.6733,31.2297,5.94539,-1.14165,16.3629,7.12502,24.4964,44.8163,-42.8902,3.11628,35.1232,29.5328,-29.5642,-31.3914,15.7975,-20.2514,18.7525,-26.5716,38.6684,43.0153,29.7944,-5.23169
4.34803,16.5534,-15.1218,29.5519,8.5831,-3.83934,-18.2962,-1.50624,4.45284,-12.535,-2.53351,4.79055,-3.26069,-1.34746,2.20571,-17.5325,-1.05387,2.44391,44.4793,-2.78334,-0.182973,20.5677,-0.642984,-1.13653,-7.00716e-15,-6.36111e-15,-51.9201,-0.614603,-73.2426,22.2986,-19.6294,-15.2651,20.5065,7.12502,10.909,-9.19012,-7.00716e-15,-6.36111e-15,-58.3253,-2.45068,88.9289,31.212,6.11119,-1.49062,16.0984,7.12502,24.1619,44.5967,-42.6484,3.27113,35.1161,29.4944,-31.9943,-29.8528,21.4672,-20.2532,18.7877,-26.5316,38.7369,50.0366,21.4806,-21.5098
4.34492,16.568,-15.1184,29.4807,8.50051,-3.84046,-18.1104,-1.46246,4.41221,-12.5447,-2.45678,4.75518,-3.36629,-1.30878,2.20804,-17.6242,-0.970318,2.56243,44.4166,-2.67066,-0.231362,20.5504,-0.585832,-1.1584,-1.04362e-14,-5.56597e-15,-52.0695,-0.799525,-73.2377,22.2387,-19.7934,-15.2609,20.6805,7.12502,10.9131,-9.01594,-1.04362e-14,-5.56597e-15,-58.5609,-2.67902,89.2689,31.3393,6.38387,-1.91311,15.8675,7.12502,23.7567,44.419,-42.7958,3.82242,34.8199,29.5031,-30.7675,-31.5603,18.5967,-20.1858,18.8025,-26.5491,38.7261,42.6583,30.5073,-4.10854
4.34632,16.572,-15.1108,29.4432,8.55496,-3.92145,-18.1049,-1.39692,4.53736,-12.5365,-2.38697,4.71802,-3.36895,-1.2822,2.10874,-17.5524,-0.953505,2.55353,44.1956,-2.64484,-0.182491,20.3752,-0.576248,-1.12121,-3.03147e-15,-7.95139e-15,-52.2878,-0.827263,-73.3842,22.2122,-20.1208,-15.3206,20.5534,7.12502,10.8556,-9.14601,-3.03147e-15,-7.95139e-15,-58.7297,-3.04284,89.6615,31.3842,6.61549,-1.87701,16.336,7.12502,23.7913,44.883,-42.8439,3.85253,34.8872,29.5586,-30.8749,-31.8991,17.9447,-20.101,18.7401,-26.4304,38.6975,37.1938,35.6475,9.87291
4.35057,16.5733,-15.1032,29.4752,8.67515,-4.0291,-18.2044,-1.33485,4.75083,-12.5085,-2.34271,4.69776,-3.29967,-1.2723,1.97075,-18.3749,-0.593128,3.1151,44.4468,-2.17374,-0.522,20.8007,-0.329315,-1.30965,-8.19987e-15,1.11319e-14,-52.3537,-0.982,-73.4677,22.0243,-20.183,-15.5786,19.9784,7.12502,10.6066,-9.73391,-8.19987e-15,1.11319e-14,-58.7773,-3.33475,89.992,31.2231,6.56686,-1.51137,16.7403,7.12502,24.142,45.2412,-42.9226,3.33674,35.2683,29.6291,-30.4434,-31.6962,16.9079,-20.1049,18.7263,-26.2973,38.6661,36.2969,38.7921,13.8682
4.35165,16.5726,-15.1011,29.4683,8.71657,-4.04207,-18.1788,-1.33307,4.7958,-12.5015,-2.34493,4.69638,-3.30752,-1.27627,1.94437,-18.5464,-0.392636,3.25159,44.3584,-1.8786,-0.576243,20.7977,-0.200735,-1.29746,2.31087e-14,-4.77083e-15,-52.4089,-1.09053,-73.5263,21.81,-19.9926,-15.9244,19.2542,7.12502,10.273,-10.4749,2.31087e-14,-4.77083e-15,-58.8999,-3.32863,90.0928,31.0975,6.13638,-1.35473,16.4064,7.12502,24.2922,44.8872,-42.9005,3.27165,35.319,29.6352,-29.4293,-31.8389,15.6637,-20.1047,18.7099,-26.2764,38.6856,26.0716,44.6372,30.1749
4.35039,16.5721,-15.1015,29.4801,8.76198,-4.09908,-18.1861,-1.31522,4.86466,-12.4929,-2.33179,4.68812,-3.29843,-1.27388,1.89863,-18.3979,-0.299672,3.26307,44.1325,-1.74445,-0.507487,20.5975,-0.14433,-1.22862,-4.99943e-14,1.82882e-14,-52.4846,-1.36726,-73.4651,21.5448,-19.6592,-16.1029,19.2096,7.12502,10.1009,-10.528,-4.99943e-14,1.82882e-14,-59.1214,-3.45314,90.2976,31.3929,5.71698,-1.44893,16.5952,7.12502,24.2019,45.0881,-42.901,3.54462,35.2555,29.6098,-29.711,-31.9192,16.3988,-20.1938,18.727,-26.2214,38.7446,40.1881,34.2641,4.1731
4.35026,16.5726,-15.0989,29.5138,8.64154,-4.00093,-18.2954,-1.27986,4.70958,-12.3626,-2.28136,4.62775,-3.09151,-1.23817,1.9198,-18.4866,-0.233114,3.25182,43.9134,-1.6705,-0.409178,20.4754,-0.108348,-1.15741,5.28767e-14,-2.14687e-14,-52.2482,-1.64667,-73.4349,21.0586,-19.2994,-16.1537,19.8175,7.12502,10.0519,-9.92241,5.28767e-14,-2.14687e-14,-59.1449,-3.69546,90.6347,31.6296,5.38904,-1.58534,16.8439,7.12502,24.071,45.3542,-42.8869,3.81114,34.9844,29.5819,-30.6239,-31.7026,18.4152,-20.2613,18.8297,-26.4117,38.7849,40.45,34.0867,3.56245
4.35143,16.5741,-15.0924,29.4255,8.60134,-4.04964,-18.3498,-1.26412,4.75032,-12.1927,-2.28261,4.63596,-2.87702,-1.23769,1.89755,-18.6271,-0.195622,3.14704,43.7057,-1.60328,-0.324239,20.3777,-0.0931501,-1.07917,1.799e-14,-7.95139e-15,-51.9773,-1.83758,-73.4179,20.6902,-18.9356,-16.0678,19.925,7.12502,10.1348,-9.81096,1.799e-14,-7.95139e-15,-59.0204,-3.7194,90.7853,31.4903,5.11804,-1.52062,16.9855,7.12502,24.1331,45.4876,-42.7082,3.81492,35.025,29.5042,-30.7429,-31.5937,18.447,-20.2173,18.9764,-26.3802,38.8663,41.8988,32.0841,-0.758367
4.35396,16.5758,-15.0877,29.324,8.6908,-4.17351,-18.2556,-1.26775,4.93399,-12.1267,-2.31075,4.68903,-2.86011,-1.26019,1.84754,-18.7389,-0.158054,3.06741,43.5558,-1.48693,-0.36779,20.3099,-0.0717888,-1.06073,1.6847e-14,-7.15625e-15,-51.9629,-2.0641,-73.2407,20.5386,-18.4378,-15.8493,19.8594,7.12502,10.3455,-9.86615,1.6847e-14,-7.15625e-15,-58.9528,-3.67753,90.9099,31.0962,4.67296,-1.47936,16.8694,7.12502,24.1727,45.3662,-42.5505,3.45194,35.3428,29.4113,-30.8384,-31.4098,18.0852,-20.1884,19.0553,-26.2163,38.9715,42.6578,30.9218,-3.2196
4.35311,16.5717,-15.0898,29.336,8.77152,-4.21802,-18.2255,-1.25897,5.01556,-12.0826,-2.31108,4.68631,-2.83124,-1.26447,1.79829,-18.8208,-0.152082,3.06332,43.3866,-1.44616,-0.423583,20.2177,-0.0683764,-1.07792,1.34677e-14,-3.65764e-14,-51.9569,-2.32533,-73.0861,20.3189,-17.9373,-15.6274,19.833,7.12502,10.5596,-9.88173,1.34677e-14,-3.65764e-14,-58.8621,-3.76495,91.0492,30.5421,4.06446,-1.71429,16.2339,7.12502,23.9474,44.7604,-42.4589,3.39981,35.4511,29.3045,-30.9528,-31.2419,18.5212,-20.3377,19.1403,-26.1699,39.1309,40.229,34.5216,4.36159
4.3497,16.5606,-15.0924,29.3753,8.7488,-4.10921,-18.2907,-1.25869,4.87035,-12.015,-2.29971,4.63805,-2.71693,-1.25017,1.82508,-18.7773,-0.145276,3.09019,43.173,-1.40707,-0.484235,20.0587,-0.0623765,-1.10142,3.39425e-14,-5.88403e-14,-51.8408,-2.72154,-72.847,19.8728,-17.189,-15.4394,19.5556,7.12502,10.7409,-10.1498,3.39425e-14,-5.88403e-14,-58.8251,-3.80269,91.103,30.18,3.46937,-1.84853,15.3104,7.12502,23.8187,43.8538,-42.3685,3.34609,35.405,29.2374,-29.4417,-31.4148,16.5981,-20.4631,19.1824,-26.3142,39.2977,35.8967,39.2894,14.6632
4.34738,16.5579,-15.0926,29.3811,8.75615,-4.09311,-18.27,-1.29369,4.8263,-11.8744,-2.34829,4.6879,-2.56788,-1.26808,1.89043,-19.1142,-0.031793,3.14999,42.9846,-1.1952,-0.620375,20.0347,0.00709785,-1.13501,2.00276e-14,-7.95139e-16,-51.478,-3.14715,-72.4731,19.4139,-16.2115,-15.1638,19.0653,7.12502,11.0067,-10.6261,2.00276e-14,-7.95139e-16,-58.6758,-3.62109,91.1165,30.0206,2.96251,-1.94308,14.8142,7.12502,23.728,43.3694,-42.3727,3.43484,35.3629,29.2313,-29.801,-31.2733,17.6918,-20.5436,19.1705,-26.3537,39.4243,38.8763,36.4853,7.6515
4.34726,16.5674,-15.0903,29.3488,8.81823,-4.18278,-18.163,-1.39822,4.88185,-11.5399,-2.51154,4.90883,-2.24808,-1.34096,2.05944,-20.3439,0.178651,3.00885,42.9516,-0.800254,-0.723621,20.3892,0.123083,-1.08417,-5.19325e-15,-6.36111e-15,-50.5677,-3.09729,-72.3548,19.1009,-15.6362,-14.6448,18.5004,7.12502,11.5073,-11.1637,-5.19325e-15,-6.36111e-15,-58.0831,-3.14816,91.1736,29.8771,2.58064,-1.88138,15.1359,7.12502,23.7872,43.6834,-42.4754,3.47452,35.4303,29.2841,-28.9009,-32.0965,15.1047,-20.5965,19.2616,-26.2625,39.4902,36.8848,35.5204,10.8153
4.34716,16.5735,-15.0891,29.3538,8.77307,-4.14788,-18.2437,-1.31136,4.80386,-11.5125,-2.39284,4.82581,-2.17613,-1.27801,2.0299,-20.099,0.155231,3.06955,42.7012,-0.798718,-0.819166,20.1442,0.115338,-1.13718,-1.74931e-14,1.35174e-14,-50.7323,-3.29241,-72.2729,19.0692,-15.3402,-13.7519,17.9122,7.12502,12.3683,-11.702,-1.74931e-14,1.35174e-14,-58.2405,-3.48236,91.4106,29.8242,2.39931,-1.8104,15.5609,7.12502,23.8552,44.0995,-42.5822,3.5441,35.3385,29.3655,-28.3206,-32.6229,13.4058,-20.6439,19.3741,-26.3411,39.5007,40.3453,34.9859,4.21511
4.34627,16.5734,-15.0893,29.3067,8.78598,-4.11369,-18.1713,-1.33902,4.73023,-11.416,-2.42027,4.87626,-2.10097,-1.28505,2.11871,-20.2317,0.221492,2.96129,42.5421,-0.607446,-0.895205,20.0814,0.1569,-1.11192,2.23633e-14,-2.38542e-15,-50.6894,-3.09592,-72.2779,19.1618,-15.1052,-12.8506,17.396,7.12502,13.2372,-12.1637,2.23633e-14,-2.38542e-15,-58.2323,-3.42643,91.5764,29.8068,2.15134,-1.77014,15.6288,7.12502,23.8938,44.1624,-42.5761,3.37657,35.3919,29.4451,-28.2938,-32.5339,13.2738,-20.5721,19.3865,-26.3595,39.469,29.7356,42.2116,25.954
4.34608,16.5711,-15.0892,29.2244,8.77296,-4.12723,-18.0389,-1.35303,4.73778,-11.3204,-2.43725,4.90685,-2.06293,-1.29252,2.14446,-20.4632,0.323917,2.97469,42.4754,-0.405731,-1.00037,20.1107,0.220615,-1.12279,2.84014e-14,-1.90833e-14,-50.6816,-2.81283,-72.3796,19.2785,-14.9855,-11.8399,16.8646,7.12502,14.2113,-12.6293,2.84014e-14,-1.90833e-14,-58.1896,-3.45171,91.777,29.5651,2.06468,-1.71181,15.8067,7.12502,23.9498,44.3329,-42.5186,3.51581,35.3318,29.5106,-28.5247,-32.5597,13.8703,-20.4062,19.4277,-26.3328,39.3764,39.8102,35.5927,5.11311
4.35225,16.5661,-15.0824,28.9265,8.51799,-4.23833,-17.7544,-1.22113,4.87052,-11.22,-2.26865,4.83727,-2.10913,-1.21729,2.02658,-20.6322,0.391549,3.08189,42.5199,-0.313052,-1.07962,20.1936,0.264327,-1.16288,-2.88735e-14,4.6118e-14,-50.8431,-2.88609,-72.302,19.2995,-14.505,-10.6555,16.0502,7.12502,15.3523,-13.3599,-2.88735e-14,4.6118e-14,-58.3613,-3.67317,91.9885,29.3871,1.96501,-1.77948,15.8722,7.12502,23.8849,44.4069,-42.1743,3.31998,35.4958,29.5632,-28.259,-32.2155,13.6681,-19.9435,19.6636,-26.2584,39.2682,38.9542,40.2685,7.7005
4.36374,16.5615,-15.066,28.5445,8.16764,-4.33692,-17.5662,-1.06587,5.01058,-11.0314,-2.08386,4.77052,-2.00895,-1.13165,1.90403,-20.8194,0.418701,3.09071,42.5506,-0.240628,-1.16249,20.2719,0.282586,-1.19169,-1.48095e-14,4.77083e-15,-50.8468,-2.96512,-72.1654,19.2146,-13.8209,-9.33477,15.0018,7.12502,16.6242,-14.3062,-1.48095e-14,4.77083e-15,-58.5394,-3.58794,91.9521,29.3074,1.55186,-2.01533,15.6675,7.12502,23.6587,44.2317,-41.7174,2.98478,35.6634,29.6197,-27.8471,-31.9108,12.4972,-19.3585,20.0445,-26.2113,39.2043,35.0821,39.6549,14.6192
4.36094,16.5621,-15.0628,28.6385,8.19475,-4.28678,-17.6145,-1.06366,4.96763,-11.034,-2.07814,4.73777,-1.98592,-1.12726,1.89304,-20.7551,0.400913,3.06248,42.4081,-0.199856,-1.26926,20.157,0.275116,-1.22855,1.45361e-14,-2.62396e-14,-50.7786,-3.19893,-71.9258,18.995,-12.8362,-7.71205,14.5968,7.12502,18.1859,-14.573,1.45361e-14,-2.62396e-14,-58.6403,-3.46514,91.8363,29.0634,1.028,-1.78684,15.7651,7.12502,23.8778,44.3008,-41.8415,3.18136,35.5366,29.6516,-27.911,-32.2221,12.3092,-19.4834,20.0951,-26.2888,39.232,24.1895,45.2881,32.0582
4.34581,16.5642,-15.0774,29.1978,8.45865,-4.04376,-17.8341,-1.22242,4.63586,-11.2612,-2.2402,4.76027,-2.10409,-1.1936,2.07944,-20.5769,0.373856,2.99129,42.2916,-0.157054,-1.36477,20.0271,0.263058,-1.25103,2.06488e-14,-1.43125e-14,-50.8977,-2.92369,-72.0598,19.0408,-12.2547,-6.00332,14.6843,7.12502,19.8292,-14.3242,2.06488e-14,-1.43125e-14,-58.7994,-3.29194,91.7123,28.968,0.491013,-1.24627,16.1151,7.12502,24.3961,44.582,-42.5108,4.05793,34.9537,29.6438,-28.7089,-32.9432,13.4822,-20.3107,19.8403,-26.6156,39.3559,24.854,44.9281,31.9952
4.33723,16.5604,-15.0836,29.4936,8.59424,-3.90341,-18.0731,-1.23691,4.45138,-11.4396,-2.23613,4.67453,-2.171,-1.18534,2.09209,-20.0038,0.293836,3.01979,42.1069,-0.244813,-1.41941,19.7341,0.222764,-1.29503,2.1419e-14,-2.22639e-14,-51.4577,-2.67372,-72.3079,19.2915,-11.8492,-4.57492,14.7269,7.12502,21.2018,-14.1336,2.1419e-14,-2.22639e-14,-59.2392,-3.57939,91.8163,29.259,0.399517,-0.806703,16.161,7.12502,24.8175,44.5705,-42.7533,4.35579,34.7258,29.5877,-29.3675,-32.832,14.9254,-20.8203,19.7554,-26.8131,39.5345,25.4812,44.8436,31.4094
4.33366,16.5539,-15.0801,29.5833,8.49126,-3.76679,-18.1689,-1.22125,4.25393,-11.4809,-2.19087,4.60897,-2.16025,-1.1542,2.13887,-19.6329,0.268192,2.9297,41.907,-0.236767,-1.39858,19.4974,0.21042,-1.26008,-2.39784e-14,3.97569e-14,-51.726,-2.60628,-72.2744,19.357,-11.0748,-3.19173,14.424,7.12502,22.5299,-14.2816,-2.39784e-14,3.97569e-14,-59.5396,-3.70903,91.9045,29.5541,0.393353,-0.0706415,16.2912,7.12502,25.5227,44.6017,-42.6837,4.4162,34.5774,29.5132,-29.8424,-32.3698,16.3014,-21.0065,19.9972,-27.0342,39.6964,25.9565,44.3055,31.1981
4.3325,16.5511,-15.078,29.6157,8.46912,-3.70941,-18.2074,-1.20141,4.18631,-11.467,-2.15814,4.57309,-2.12348,-1.13473,2.14231,-19.433,0.253836,2.82634,41.7775,-0.207766,-1.38935,19.3579,0.204058,-1.22674,-7.45443e-15,-1.90833e-14,-51.7502,-2.74187,-72.0183,19.1452,-9.9305,-1.42144,13.836,7.12502,24.2282,-14.6534,-7.45443e-15,-1.90833e-14,-59.6707,-3.74866,91.921,29.5583,0.0777676,0.61569,16.1116,7.12502,26.18,44.3263,-42.6229,4.47355,34.505,29.433,-29.9318,-32.2669,16.8621,-21.0778,20.1086,-27.1106,39.7853,22.856,44.8795,35.532
4.32992,16.5528,-15.0803,29.6828,8.55452,-3.67689,-18.2971,-1.20453,4.15429,-11.3838,-2.16836,4.55497,-1.98543,-1.13684,2.13444,-19.5319,0.289973,2.92365,41.6732,-0.116499,-1.55545,19.3223,0.230185,-1.30474,1.9307e-14,1.51076e-14,-51.5737,-2.94039,-71.787,18.8662,-8.75108,0.458353,13.5276,7.12502,26.0293,-14.7093,1.9307e-14,1.51076e-14,-59.6811,-3.82884,91.9527,29.4573,-0.242541,0.709286,15.5879,7.12502,26.2696,43.7893,-42.6716,4.82214,34.3064,29.3571,-30.2546,-32.5264,17.574,-21.1557,20.1102,-27.1264,39.6987,26.6343,44.1866,30.5488
4.32693,16.5555,-15.0853,29.8536,8.64378,-3.59845,-18.3832,-1.22454,4.08046,-11.3626,-2.19038,4.55003,-1.91457,-1.14326,2.1642,-19.7142,0.272969,2.90331,41.6336,-0.0880166,-1.66956,19.3491,0.220837,-1.35148,1.23868e-14,-5.40694e-14,-51.3365,-3.13641,-71.5231,18.4336,-7.58664,1.74734,13.8473,7.12502,27.2629,-14.2021,1.23868e-14,-5.40694e-14,-59.6757,-3.8914,92.0019,29.3985,-0.465064,1.09993,15.5552,7.12502,26.6435,43.7003,-42.8977,5.10843,34.0726,29.3705,-30.6301,-32.6108,18.3864,-21.3724,20.0097,-27.2132,39.6737,31.2796,41.6933,23.9937
4.34435,16.5492,-15.0489,28.8843,8.19317,-3.93201,-17.9033,-0.992744,4.44032,-10.9649,-1.9328,4.51889,-1.74453,-1.03015,1.96929,-19.7765,0.228707,2.82102,41.6515,-0.0915387,-1.74166,19.3773,0.195667,-1.37373,-3.21783e-15,-3.81667e-14,-51.3444,-2.7619,-71.8186,18.3313,-6.97199,2.34318,14.276,7.12502,27.8327,-13.6825,-3.21783e-15,-3.81667e-14,-59.6635,-4.04168,92.1745,29.3013,-0.369856,1.54813,15.9052,7.12502,27.0724,43.9844,-41.702,4.42715,34.6434,29.42,-30.1753,-31.8338,17.4687,-19.9606,20.7342,-26.6892,39.5061,38.7503,33.584,6.29812
4.32627,16.5576,-15.0738,29.9069,8.80976,-3.5112,-18.4378,-1.24624,4.03961,-11.32,-2.21771,4.51131,-1.83914,-1.1549,2.13873,-19.8806,0.181506,2.73144,41.7113,-0.115808,-1.77249,19.4437,0.168205,-1.38012,-1.11071e-14,2.46493e-14,-51.4844,-2.05871,-72.5117,18.431,-6.82913,2.92642,14.462,7.12502,28.3902,-13.405,-1.11071e-14,2.46493e-14,-59.6388,-4.14163,92.2047,29.2166,-0.399548,2.19773,16.0799,7.12502,27.6937,44.0609,-43.0232,5.22188,33.8978,29.4877,-30.7968,-32.9505,18.2566,-21.2266,19.8645,-27.1629,39.4699,32.3363,40.8672,22.7846
4.32695,16.5568,-15.0706,29.8232,8.70719,-3.42253,-18.3043,-1.21065,3.93448,-11.2887,-2.14845,4.44444,-1.87087,-1.11725,2.13987,-19.8756,0.154571,2.65098,41.689,-0.115526,-1.78461,19.4276,0.153296,-1.37089,1.51946e-14,-1.59028e-15,-51.6863,-1.53899,-73.0078,18.7369,-6.76197,4.03111,13.9314,7.12502,29.4454,-13.7549,1.51946e-14,-1.59028e-15,-59.6826,-4.284,92.2789,29.0672,-0.28721,2.55688,15.7649,7.12502,28.037,43.6902,-42.9131,5.30051,33.746,29.519,-30.9643,-32.9813,18.232,-20.9988,19.8781,-27.2262,39.309,38.5859,34.5477,8.49915
4.33194,16.5554,-15.0647,29.619,8.56986,-3.52653,-18.1046,-1.12839,4.06893,-11.2449,-2.05006,4.41612,-1.93312,-1.07626,2.05345,-19.8076,0.152423,2.58214,41.7323,-0.0787984,-1.79867,19.4373,0.154988,-1.35779,-1.01132e-14,-4.77083e-15,-51.9458,-1.07029,-73.3917,19.1842,-6.57105,5.02753,13.2004,7.12502,30.3962,-14.3144,-1.01132e-14,-4.77083e-15,-59.8065,-4.39473,92.386,28.7877,0.0471355,2.43357,15.0645,7.12502,27.9192,43.009,-42.6513,5.07241,33.9494,29.5336,-30.8543,-32.6458,18.2201,-20.7179,19.9995,-27.0801,39.3112,31.9912,41.0131,23.5863
4.33953,16.5524,-15.0577,29.3322,8.32811,-3.69004,-17.9413,-1.00908,4.2267,-11.1184,-1.91413,4.41136,-1.88665,-1.01536,1.98131,-19.7983,0.182047,2.63934,41.7587,0.0212583,-1.96468,19.4552,0.179678,-1.42866,1.96176e-14,-7.95139e-16,-52.0022,-0.724668,-73.6473,19.2986,-6.17116,5.49828,13.2759,7.12502,30.8451,-14.155,1.96176e-14,-7.95139e-16,-59.9197,-4.44542,92.503,28.6188,0.372794,2.55789,14.8172,7.12502,28.038,42.7423,-42.285,4.772,34.2343,29.5021,-30.4054,-32.2739,17.9274,-20.3564,20.2598,-26.9218,39.2951,33.7953,39.2252,20.0111
4.33807,16.5529,-15.0628,29.453,8.39601,-3.73802,-18.0038,-0.978133,4.28981,-11.167,-1.88281,4.38877,-1.91143,-1.00351,1.92711,-19.6687,0.151849,2.65301,41.7373,-0.00146156,-2.02049,19.4033,0.164973,-1.46175,1.36292e-14,-1.51076e-14,-52.0579,-0.5088,-73.9016,19.1703,-5.87893,5.8206,13.6157,7.12502,31.1524,-13.7566,1.36292e-14,-1.51076e-14,-60.0258,-4.40458,92.3567,28.5889,0.412789,3.6644,15.9215,7.12502,29.0952,43.6688,-42.4169,4.90609,34.2449,29.4612,-30.5021,-32.3468,18.2188,-20.5889,20.1681,-26.8962,39.3857,36.4732,36.5245,13.8874
4.32833,16.5576,-15.0822,30.068,8.776,-3.53089,-18.2259,-1.10969,4.1483,-11.4472,-2.03022,4.36485,-2.09844,-1.07362,1.96133,-19.4752,0.0750755,2.56752,41.7399,-0.0673964,-2.04849,19.3466,0.121139,-1.47259,3.23025e-16,-3.18055e-14,-52.209,-0.317587,-74.1172,19.1587,-5.58911,6.15654,13.379,7.12502,31.4725,-13.9313,3.23025e-16,-3.18055e-14,-60.1946,-4.43761,92.297,28.5699,0.504399,4.82638,16.9157,7.12502,30.2044,44.4658,-43.1895,5.36071,33.8571,29.4552,-30.9591,-32.8868,18.8015,-21.4643,19.6729,-27.1546,39.5312,37.37,35.8107,12.026
4.32432,16.5617,-15.0924,30.4145,8.97909,-3.42439,-18.2974,-1.17441,4.07358,-11.6219,-2.0969,4.37469,-2.24954,-1.1046,2.007,-19.3089,-0.0152717,2.4259,41.6927,-0.123179,-2.09742,19.2664,0.0681493,-1.48024,-1.27843e-14,2.78299e-14,-52.2562,-0.242434,-74.1184,19.1306,-5.13861,6.49154,13.1371,7.12502,31.7916,-14.1104,-1.27843e-14,2.78299e-14,-60.3393,-4.34166,92.2014,28.5361,0.26456,5.42394,16.9337,7.12502,30.7742,44.378,-43.6517,5.50927,33.68,29.4983,-31.1198,-33.1084,18.953,-21.972,19.4276,-27.2914,39.6693,37.71,35.4945,11.216
4.32571,16.5637,-15.0933,30.4815,8.98672,-3.42989,-18.2728,-1.16753,4.07998,-11.7119,-2.0812,4.39605,-2.36087,-1.0975,2.03214,-19.0343,-0.0448524,2.31055,41.6243,-0.0900754,-2.14686,19.1465,0.0542699,-1.47203,-1.90709e-14,-1.27222e-14,-52.4178,0.225256,-74.4225,19.2444,-5.18978,6.86048,12.9768,7.12502,32.1429,-14.2004,-1.90709e-14,-1.27222e-14,-60.6232,-4.19776,92.1312,28.7339,0.237084,5.61966,16.7976,7.12502,30.9608,44.2066,-43.7531,5.407,33.7346,29.5474,-31.0213,-32.9836,18.9931,-22.0984,19.4565,-27.3193,39.7618,42.5311,31.8119,-0.434838
4.32478,16.5628,-15.0985,30.6407,8.95429,-3.29046,-18.3559,-1.16366,3.91462,-11.7453,-2.05503,4.34901,-2.34931,-1.07662,2.07792,-18.8741,-0.060466,2.28968,41.5073,-0.0765128,-2.19851,19.0282,0.0476125,-1.48579,8.65956e-15,2.46493e-14,-52.5527,0.805509,-74.9602,19.3977,-5.57516,7.13005,13.0672,7.12502,32.3995,-14.0578,8.65956e-15,2.46493e-14,-60.7119,-4.09403,91.9676,28.8993,0.162929,5.93686,16.7764,7.12502,31.2632,44.1273,-43.968,5.64705,33.4397,29.5891,-31.2373,-33.0594,19.6708,-22.2844,19.3851,-27.5314,39.7885,37.6489,35.1963,10.8416
4.32433,16.5607,-15.1019,30.6482,9.00037,-3.31756,-18.4237,-1.10838,3.95116,-11.6315,-1.99814,4.30979,-2.19296,-1.04899,2.01964,-18.9056,-0.123566,2.32497,41.3731,-0.12078,-2.35345,18.9508,0.0118472,-1.57323,-2.9445e-15,-2.38542e-14,-52.5019,1.01156,-75.2707,19.5515,-5.6517,7.47334,13.3258,7.12502,32.7261,-13.7318,-2.9445e-15,-2.38542e-14,-60.5801,-4.15327,91.8546,28.9904,-0.0146559,6.3337,16.7981,7.12502,31.6412,44.0754,-44.005,5.70341,33.4567,29.6624,-31.5126,-32.9712,20.0832,-22.2918,19.3286,-27.4903,39.7692,41.6313,33.0802,2.11034
4.3233,16.5575,-15.1033,30.5862,9.03491,-3.35209,-18.4666,-1.10092,3.96557,-11.4873,-2.00218,4.33097,-2.0127,-1.04881,2.02805,-18.9901,-0.1928,2.1486,41.3391,-0.158868,-2.3524,18.9516,-0.032302,-1.549,-2.1183e-14,-1.74931e-14,-52.3449,1.12335,-75.3961,19.6662,-5.34146,7.67219,13.2961,7.12502,32.9153,-13.7219,-2.1183e-14,-1.74931e-14,-60.4175,-4.20187,91.9011,29.0149,0.0894132,6.54533,16.8965,7.12502,31.8428,44.1338,-44.0106,5.74124,33.5163,29.8028,-31.5219,-33.1743,19.4992,-22.172,19.3065,-27.4149,39.7036,41.5602,33.0842,1.91164
4.32119,16.5594,-15.1045,30.6574,8.9582,-3.20005,-18.4954,-1.12698,3.73872,-11.467,-2.00621,4.32018,-1.96592,-1.03901,2.14177,-18.916,-0.266223,1.94027,41.3199,-0.209168,-2.30136,18.9174,-0.0787319,-1.49599,3.10601e-16,-2.94201e-14,-52.3565,1.52522,-75.6939,19.7733,-5.21191,7.95595,13.3139,7.12502,33.1851,-13.6471,3.10601e-16,-2.94201e-14,-60.3112,-4.27886,92.0517,28.8717,0.4163,6.62808,16.9783,7.12502,31.9216,44.1999,-44.2487,6.17691,33.0972,29.9747,-31.5226,-33.8484,18.8588,-22.1458,19.1871,-27.6078,39.5972,41.2482,33.4349,1.98274
4.32105,16.5653,-15.1019,30.6802,8.82903,-3.11722,-18.4885,-1.11047,3.56996,-11.4158,-1.96255,4.2926,-1.90737,-1.00874,2.21282,-18.9059,-0.319266,1.9017,41.2312,-0.247623,-2.367,18.8579,-0.110915,-1.5263,-9.69696e-15,3.26007e-14,-52.337,2.04462,-76.1672,19.8347,-5.42042,8.42815,13.663,7.12502,33.634,-13.2012,-9.69696e-15,3.26007e-14,-60.1665,-4.29697,92.0408,28.7711,0.481678,6.83922,16.9964,7.12502,32.1226,44.1776,-44.4745,6.55854,32.7556,30.1669,-31.132,-34.6201,17.4836,-22.0523,19.1968,-27.7646,39.4407,41.3374,33.2083,1.16633
4.32138,16.5666,-15.1009,30.661,8.71104,-3.14484,-18.4559,-1.02088,3.55621,-11.3835,-1.8422,4.21018,-1.89226,-0.949744,2.15227,-18.8192,-0.399476,1.97267,41.208,-0.366554,-2.4449,18.8139,-0.157698,-1.59962,1.54741e-14,-3.02153e-14,-52.3677,2.14858,-76.3829,19.8296,-5.23821,9.23252,14.0548,7.12502,34.3981,-12.6397,1.54741e-14,-3.02153e-14,-60.1591,-4.31801,91.8035,28.7912,0.165736,7.05231,16.7816,7.12502,32.3255,43.9217,-44.6038,6.94947,32.5531,30.3513,-31.1975,-35.0057,16.9297,-21.9407,19.2853,-27.8107,39.3013,41.6072,32.5643,-0.126004
4.33834,16.5725,-15.1043,30.4997,8.97526,-3.19323,-18.2512,-0.994146,3.92973,-11.3851,-1.84744,4.14865,-2.01544,-0.974756,1.88061,-18.5942,-0.456921,1.98178,41.1901,-0.42642,-2.51049,18.7376,-0.189381,-1.64171,6.81459e-15,8.74653e-15,-52.4739,2.17007,-76.3948,19.8499,-4.56251,9.89608,14.3288,7.12502,35.0278,-12.2208,6.81459e-15,8.74653e-15,-60.2134,-4.2952,91.671,28.6301,-0.099144,7.05758,16.3175,7.12502,32.3305,43.4566,-44.4799,5.93339,33.0469,30.4054,-30.6364,-34.5024,15.9635,-21.6645,19.177,-27.6546,39.2226,42.0626,31.6373,-2.09306
4.32625,16.5662,-15.1029,30.5684,8.5932,-3.10623,-18.2361,-0.949275,3.54888,-11.3977,-1.73278,4.13337,-2.0232,-0.898026,2.09686,-18.5506,-0.504385,1.94334,41.2264,-0.447966,-2.59214,18.7465,-0.215443,-1.67898,3.8266e-15,2.38542e-15,-52.5178,2.38009,-76.5277,19.8865,-4.19802,10.1653,14.6276,7.12502,35.2831,-11.8618,3.8266e-15,2.38542e-15,-60.1767,-4.29872,91.6496,28.4793,-0.105074,7.21812,16.1572,7.12502,32.4833,43.265,-44.5424,7.3297,32.2538,30.3702,-31.5717,-35.2049,17.3626,-21.7603,19.376,-27.9224,39.2259,40.3335,34.0865,2.67407
4.33931,16.5689,-15.105,30.3567,8.95376,-3.49304,-17.9544,-0.880832,4.22962,-11.3782,-1.72275,4.19252,-2.17175,-0.927682,1.78446,-18.5361,-0.543978,1.88306,41.2465,-0.488767,-2.5838,18.7534,-0.239768,-1.67293,2.43511e-15,-6.36111e-15,-52.617,2.91688,-77.0402,20.2407,-4.59727,10.4371,14.12,7.12502,35.5408,-12.3081,2.43511e-15,-6.36111e-15,-60.1732,-4.32047,91.6607,28.5216,0.120445,7.42479,16.4669,7.12502,32.6799,43.5341,-44.2426,6.47766,33.1262,30.251,-31.1403,-34.6073,17.2136,-21.5827,19.362,-27.3506,39.2961,38.56,36.1668,7.27415
4.34587,16.5658,-15.1082,30.3246,9.0024,-3.47965,-17.885,-0.874132,4.30477,-11.2865,-1.72566,4.19429,-2.10985,-0.932106,1.74254,-18.8299,-0.561938,1.77501,41.3256,-0.480354,-2.57723,18.8847,-0.251975,-1.65512,4.1459e-14,-1.59028e-15,-52.5568,3.44903,-77.4919,20.6223,-5.14509,10.8859,13.6085,7.12502,35.9661,-12.7163,4.1459e-14,-1.59028e-15,-59.9986,-4.2431,91.6433,28.5381,0.304869,7.16897,16.2951,7.12502,32.4365,43.4125,-44.0421,6.04744,33.3237,30.0883,-31.1616,-33.9493,18.1001,-21.592,19.3739,-27.3706,39.4087,41.2363,32.4106,-0.654544
4.34871,16.5587,-15.1116,30.3548,8.93328,-3.39318,-17.9411,-0.891268,4.22775,-11.0565,-1.75671,4.19116,-1.82615,-0.940338,1.77002,-19.5551,-0.552021,1.76301,41.4222,-0.430792,-2.67213,19.1498,-0.247881,-1.70219,3.44643e-14,-3.89618e-14,-52.1415,3.87968,-77.8596,20.7974,-5.60475,11.2742,13.3938,7.12502,36.3339,-12.84,3.44643e-14,-3.89618e-14,-59.5282,-4.14745,91.5543,28.5841,0.386205,6.91566,15.7547,7.12502,32.1954,42.9212,-43.8808,5.6477,33.4517,29.8934,-31.1437,-33.3065,18.5457,-21.6693,19.3986,-27.5294,39.5312,33.5629,40.9256,17.3733
4.3573,16.5556,-15.1107,30.3596,9.02439,-3.53813,-18.1207,-0.805393,4.53434,-11.1746,-1.6914,4.13836,-1.87768,-0.924832,1.55279,-18.6848,-0.664103,1.77635,41.2495,-0.565975,-2.74488,18.7926,-0.311376,-1.74959,-5.73059e-16,3.18055e-15,-52.5954,4.36955,-78.3809,20.9444,-6.14943,11.6487,13.1924,7.12502,36.6883,-12.952,-5.73059e-16,3.18055e-15,-59.9318,-4.13262,91.3752,28.6872,0.228679,6.98266,15.2951,7.12502,32.2592,42.4488,-43.7639,5.0239,33.9261,29.7554,-31.1193,-32.5812,18.5792,-21.7208,19.4533,-27.3977,39.6224,29.5197,43.7441,23.3504
4.36528,16.5551,-15.1094,30.3082,9.03075,-3.65176,-18.092,-0.764819,4.74565,-11.1011,-1.6719,4.14472,-1.82043,-0.9244,1.44306,-18.8026,-0.68013,1.75067,41.2764,-0.535032,-2.85195,18.8427,-0.318957,-1.793,-2.16683e-14,1.90833e-14,-52.4297,4.81149,-78.7274,20.8588,-6.33797,11.9028,13.0815,7.12502,36.9288,-13.0014,-2.16683e-14,1.90833e-14,-59.85,-4.07969,91.2748,28.7953,0.36946,7.42387,15.405,7.12502,32.6791,42.4724,-43.6547,4.56541,34.2607,29.6728,-30.8642,-32.1871,18.3662,-21.68,19.522,-27.3176,39.6437,27.5245,44.8173,26.0524
4.36904,16.5581,-15.1102,30.2527,9.00663,-3.74322,-18.0216,-0.731802,4.88594,-11.0621,-1.64665,4.15221,-1.81935,-0.918378,1.37684,-18.8101,-0.683325,1.69808,41.2832,-0.497038,-2.89877,18.8507,-0.319415,-1.79865,2.94605e-15,1.27222e-14,-52.3027,5.03103,-78.8445,20.702,-6.13648,12.2054,13.1995,7.12502,37.215,-12.8091,2.94605e-15,1.27222e-14,-59.7611,-4.04871,91.2348,28.7211,0.611778,7.88692,15.813,7.12502,33.1195,42.7879,-43.6263,4.66433,34.2882,29.6471,-30.5659,-32.4658,18.0231,-21.616,19.5898,-27.2478,39.6134,24.4393,46.0989,30.1927
4.37406,16.5661,-15.1067,30.1393,9.00664,-3.88092,-17.8407,-0.691024,5.10594,-10.9516,-1.61899,4.16208,-1.79997,-0.914384,1.26905,-19.1643,-0.697834,1.68506,41.3367,-0.489698,-2.96801,18.9828,-0.328747,-1.83593,3.42469e-14,-3.02153e-14,-51.9587,5.0709,-78.8218,20.4203,-5.7747,12.4912,13.5905,7.12502,37.4852,-12.3469,3.42469e-14,-3.02153e-14,-59.4917,-4.08173,91.2191,28.5972,0.996521,8.28011,16.2249,7.12502,33.4933,43.1197,-43.6584,4.60845,34.429,29.7288,-29.7392,-33.0122,16.3871,-21.4344,19.6647,-27.0934,39.5045,19.8268,47.5589,35.877
4.37947,16.5707,-15.103,30.0537,8.94205,-3.94777,-18.1193,-0.682121,5.08196,-10.6445,-1.64797,4.26037,-1.3187,-0.914941,1.36937,-19.3219,-0.725405,1.56262,41.1763,-0.466054,-3.01223,18.9289,-0.348208,-1.82726,5.75233e-15,-5.56597e-14,-51.4235,5.49136,-78.9651,20.2895,-5.92103,12.7941,13.5739,7.12502,37.7713,-12.2872,5.75233e-15,-5.56597e-14,-58.9755,-3.91846,91.2169,28.4823,1.1886,8.63166,16.3173,7.12502,33.8274,43.1392,-43.6987,4.43105,34.5497,29.8702,-29.1337,-33.1906,15.0088,-21.2868,19.7834,-27.0605,39.3993,23.3415,46.9802,29.5838
4.3811,16.5708,-15.1043,30.1185,8.84337,-3.76267,-18.4238,-0.698239,4.77067,-10.4343,-1.66009,4.26646,-0.921151,-0.89948,1.53787,-19.4801,-0.817974,1.43959,41.0722,-0.540312,-3.06386,18.9058,-0.406232,-1.84452,-8.08805e-15,5.56597e-15,-51.0645,5.76189,-79.0551,20.3801,-6.26662,13.2603,13.0796,7.12502,38.2117,-12.6617,-8.08805e-15,5.56597e-15,-58.6273,-3.93053,91.2945,28.5591,1.29579,8.85356,16.0919,7.12502,34.0382,42.8672,-43.8364,4.44085,34.2999,30.0263,-29.5353,-33.0027,15.5834,-21.278,19.7369,-27.3121,39.3153,24.3359,46.4035,28.6999
4.37608,16.5703,-15.1118,30.2512,8.77934,-3.5119,-18.5463,-0.746619,4.42284,-10.354,-1.6839,4.22631,-0.758323,-0.89521,1.68223,-19.6126,-0.913475,1.29979,41.0876,-0.627061,-3.07785,18.9494,-0.464913,-1.84726,9.93923e-17,4.92986e-14,-50.8309,5.84318,-79.0802,20.4662,-6.57721,13.7181,12.7287,7.12502,38.6436,-12.8925,9.93923e-17,4.92986e-14,-58.3798,-3.95341,91.275,28.6437,1.40851,8.95666,15.9485,7.12502,34.1361,42.702,-44.0301,4.99775,33.7376,30.1468,-30.4564,-33.2029,16.8646,-21.4115,19.7174,-27.6165,39.2857,22.933,46.867,31.0416
4.37241,16.5706,-15.1198,30.3294,8.73611,-3.37676,-18.5148,-0.79826,4.2468,-10.3634,-1.72205,4.21431,-0.777865,-0.907976,1.7623,-19.5263,-0.955318,1.18721,41.1294,-0.643096,-3.08173,18.9516,-0.489711,-1.83245,-2.92959e-14,2.3059e-14,-50.8886,6.32023,-79.4337,20.6689,-7.11592,13.9109,12.7088,7.12502,38.8255,-12.861,-2.92959e-14,2.3059e-14,-58.2867,-3.90139,91.238,28.7347,1.60761,9.20807,16.3692,7.12502,34.3748,43.069,-44.1606,5.25593,33.4636,30.1979,-30.5941,-33.4534,17.0089,-21.5457,19.7816,-27.8023,39.301,23.765,46.8672,29.585
4.37494,16.5716,-15.1176,30.2907,8.79716,-3.4967,-18.5181,-0.801851,4.40477,-10.3266,-1.75477,4.27295,-0.740872,-0.928844,1.72942,-19.5143,-0.962234,1.14782,41.185,-0.601195,-3.16246,18.9845,-0.491029,-1.85762,2.59166e-14,-2.38542e-14,-50.9617,6.91957,-79.8272,20.925,-7.43452,14.0678,12.8657,7.12502,38.9735,-12.6619,2.59166e-14,-2.38542e-14,-58.2415,-3.81013,91.2077,28.8066,1.69555,9.31928,16.3409,7.12502,34.4804,43.0167,-44.1074,4.89041,33.8026,30.146,-29.8682,-33.4858,15.9425,-21.5487,19.8528,-27.6637,39.362,23.911,46.8836,29.173
4.38219,16.5695,-15.1138,30.2552,8.90081,-3.61044,-18.5791,-0.780142,4.60956,-10.276,-1.76598,4.31899,-0.661949,-0.940115,1.65942,-19.5282,-0.979463,1.07875,41.1889,-0.59214,-3.17763,18.9918,-0.500739,-1.85101,4.25151e-14,-4.53229e-14,-51.0629,7.46279,-80.1778,21.2361,-7.62776,14.3155,12.8804,7.12502,39.207,-12.58,4.25151e-14,-4.53229e-14,-58.2784,-3.85413,91.3054,29.0039,1.86771,9.24859,16.0534,7.12502,34.4133,42.7444,-43.9488,4.28845,34.231,30.0017,-29.5586,-32.9608,15.693,-21.5552,19.8408,-27.5171,39.46,23.9968,46.761,29.3759
4.388,16.5592,-15.116,30.2219,8.8969,-3.62837,-18.5667,-0.756877,4.67372,-10.2283,-1.74774,4.32038,-0.619019,-0.932693,1.62722,-19.4725,-0.99036,1.12167,41.1167,-0.57146,-3.30314,18.9314,-0.504745,-1.9114,6.98231e-15,-1.11319e-14,-51.1247,8.05268,-80.6145,21.4239,-7.95623,14.5969,12.6886,7.12502,39.4721,-12.6946,6.98231e-15,-1.11319e-14,-58.2708,-3.95703,91.4279,29.1655,2.05426,9.20465,16.0772,7.12502,34.3716,42.7777,-43.7127,3.86204,34.4668,29.8361,-29.9731,-32.0063,17.0549,-21.5587,19.8289,-27.5072,39.575,23.69,46.4972,30.5684
4.39218,16.5532,-15.1183,30.1253,8.94081,-3.81795,-18.4913,-0.726038,4.91867,-10.1774,-1.74429,4.38538,-0.6107,-0.938791,1.55973,-19.4593,-1.00419,1.08384,41.0573,-0.551275,-3.36436,18.8921,-0.512868,-1.92753,1.15544e-14,1.35174e-14,-51.1595,8.86573,-81.1987,21.4991,-8.46978,14.7891,12.6671,7.12502,39.6531,-12.6626,1.15544e-14,1.35174e-14,-58.1982,-4.01419,91.5736,29.2069,2.22981,9.09525,16.1649,7.12502,34.2677,42.8889,-43.5212,3.54355,34.8508,29.7539,-30.0821,-31.3938,17.9144,-21.5095,19.8425,-27.2859,39.6683,21.4185,46.8548,34.256
4.39479,16.5582,-15.1207,30.0191,9.02511,-4.0125,-18.2973,-0.708969,5.18752,-10.2288,-1.74513,4.44121,-0.775584,-0.951725,1.47287,-19.3554,-1.03138,0.949546,41.1275,-0.574575,-3.28051,18.9072,-0.530846,-1.86871,-2.80783e-15,-1.51076e-14,-51.3303,9.56957,-81.7134,21.5297,-8.7609,14.985,12.7199,7.12502,39.8375,-12.555,-2.80783e-15,-1.51076e-14,-58.3213,-4.02164,91.6357,29.304,2.14303,9.05039,16.1353,7.12502,34.2251,42.8688,-43.4973,3.40517,35.1383,29.7674,-29.5357,-31.6609,16.5725,-21.4785,19.8496,-27.0414,39.73,21.9101,47.1555,32.1823
4.39316,16.5649,-15.1249,30.0084,8.94081,-3.93375,-18.1487,-0.699823,5.09614,-10.2755,-1.70364,4.38772,-0.899691,-0.931145,1.47776,-19.1873,-1.04522,0.897313,41.1257,-0.601457,-3.21689,18.859,-0.54025,-1.83109,5.61567e-15,-3.18055e-15,-51.419,9.92223,-82.0143,21.5908,-8.92929,15.2617,12.6126,7.12502,40.0979,-12.5839,5.61567e-15,-3.18055e-15,-58.437,-3.96758,91.4778,29.4554,1.72726,9.25415,16.2502,7.12502,34.4186,42.9401,-43.6435,3.74923,34.8454,29.8723,-29.2296,-32.3349,15.5337,-21.5085,19.8742,-27.1635,39.7421,24.0749,46.5322,29.464
4.39716,16.5668,-15.1236,30.003,8.92465,-3.96355,-18.1578,-0.653184,5.20186,-10.2838,-1.6575,4.32193,-0.909748,-0.91446,1.35667,-18.9048,-1.061,0.961871,41.0224,-0.652683,-3.21698,18.7144,-0.550833,-1.84441,-3.01656e-14,3.4191e-14,-51.5376,10.2067,-82.319,21.8253,-9.17099,15.7597,12.1096,7.12502,40.5662,-12.9431,-3.01656e-14,3.4191e-14,-58.5874,-4.05013,91.4006,29.7329,1.72573,9.42708,16.625,7.12502,34.5827,43.2775,-43.7815,3.58371,34.9181,30.0312,-28.8473,-32.3925,14.8558,-21.5107,19.8877,-27.1633,39.738,25.1519,45.9494,28.4857
4.40352,16.5659,-15.1202,29.9589,9.07873,-4.08317,-18.2056,-0.643026,5.43397,-10.2439,-1.68567,4.3471,-0.851504,-0.936096,1.24727,-18.67,-1.12194,0.933268,40.9034,-0.705358,-3.29005,18.5751,-0.588154,-1.87642,-3.06625e-14,2.62396e-14,-51.586,10.7166,-82.7051,22.1192,-9.41953,16.1813,11.5567,7.12502,40.9624,-13.3716,-3.06625e-14,2.62396e-14,-58.5157,-4.11975,91.4804,29.765,1.91695,9.21139,16.5382,7.12502,34.378,43.2373,-43.8431,3.23032,35.2037,30.2032,-28.7416,-32.1959,14.5019,-21.4632,19.7942,-26.9913,39.7349,24.7088,46.2459,29.0963
4.40296,16.5641,-15.1217,29.8981,9.07446,-4.02569,-18.0667,-0.656691,5.33549,-10.2613,-1.67591,4.34474,-0.937266,-0.928792,1.30407,-18.171,-1.32409,0.67317,40.7297,-0.956169,-3.20865,18.3279,-0.719232,-1.82621,-2.64881e-14,5.32743e-14,-51.7743,11.3126,-83.1447,22.4109,-9.45432,16.1995,11.6605,7.12502,40.9795,-13.2623,-2.64881e-14,5.32743e-14,-58.4902,-4.22931,91.5993,29.6969,1.96911,8.79309,16.1947,7.12502,33.9807,42.9827,-43.8215,3.4898,35.0104,30.2862,-28.905,-32.4974,14.615,-21.4261,19.8029,-27.031,39.7889,25.6043,46.017,27.55
4.40042,16.5626,-15.1262,29.8747,8.9625,-3.90967,-17.9126,-0.642976,5.1428,-10.3104,-1.6127,4.28604,-1.06251,-0.893036,1.36353,-16.9958,-1.77147,-0.105054,40.1602,-1.61187,-2.63573,17.678,-1.02779,-1.50665,7.37988e-15,-3.49861e-14,-52.0198,11.6105,-83.3912,22.6388,-9.21117,15.9999,12.3604,7.12502,40.792,-12.6218,7.37988e-15,-3.49861e-14,-58.6209,-4.26032,91.5461,29.7765,1.76127,8.5629,16.1114,7.12502,33.7621,42.9477,-43.8102,3.69423,34.785,30.2623,-28.7808,-32.7991,14.4959,-21.465,19.8713,-27.1913,39.9059,26.5581,45.5056,26.3347
4.40146,16.5574,-15.1301,29.8515,8.97333,-3.95365,-17.8254,-0.635715,5.18415,-10.2873,-1.60422,4.30814,-1.08323,-0.890175,1.36606,-17.2764,-1.75212,-0.0357476,40.2928,-1.60831,-2.63157,17.8274,-1.01353,-1.52615,2.07233e-14,-4.05521e-14,-52.174,12.2524,-83.8581,22.9885,-9.49799,16.1537,12.5539,7.12502,40.9365,-12.3826,2.07233e-14,-4.05521e-14,-58.5739,-4.19757,91.4965,29.8423,1.70387,8.4216,16.0634,7.12502,33.6278,42.929,-43.7656,3.53523,34.9271,30.2738,-28.951,-32.4364,15.5134,-21.508,19.8802,-27.161,39.9841,26.4074,45.3043,27.194
4.40062,16.5444,-15.1349,29.8538,9.01729,-3.96048,-17.7918,-0.669333,5.20401,-10.3039,-1.64782,4.32675,-1.11933,-0.913287,1.36855,-17.317,-1.72038,0.0520341,40.3823,-1.56125,-2.70522,17.8887,-0.990922,-1.57064,-1.55301e-14,-3.97569e-15,-52.386,12.8482,-84.3031,23.4396,-9.80032,16.6375,11.871,7.12502,41.3907,-12.92,-1.55301e-14,-3.97569e-15,-58.5586,-4.13523,91.4402,29.7756,1.64509,8.2718,15.8233,7.12502,33.4854,42.7198,-43.5614,3.22429,35.1575,30.2658,-30.0293,-31.1677,18.0012,-21.5675,19.9313,-27.1455,40.0559,27.4276,44.9843,25.2463
4.39855,16.5581,-15.1335,29.8714,8.92763,-3.88291,-17.7271,-0.652,5.07568,-10.3753,-1.59567,4.27422,-1.22568,-0.885187,1.39575,-17.1234,-1.73091,0.220267,40.4275,-1.58642,-2.83588,17.8577,-0.993012,-1.66391,1.80894e-14,-4.69132e-14,-52.71,13.1608,-84.5773,23.9143,-9.76091,17.4149,10.8361,7.12502,42.1197,-13.7137,1.80894e-14,-4.69132e-14,-58.6504,-4.18818,91.3928,29.696,1.52002,8.07884,15.4941,7.12502,33.302,42.4301,-43.7941,3.65931,34.8031,30.2927,-28.8565,-32.5995,15.0344,-21.5822,20.1584,-27.2608,40.0266,27.1051,45.2825,25.8865
4.39795,16.5623,-15.1341,29.8915,8.89144,-3.86645,-17.6938,-0.640021,5.01328,-10.3907,-1.56723,4.28607,-1.25651,-0.868277,1.44863,-17.0777,-1.75261,0.19383,40.444,-1.60494,-2.84747,17.8548,-1.00585,-1.66771,2.70844e-15,-4.77083e-15,-52.8026,13.4197,-84.6414,24.1401,-9.42216,17.8101,10.5456,7.12502,42.4899,-13.8781,2.70844e-15,-4.77083e-15,-58.5953,-4.36584,91.5874,29.55,1.72874,7.83163,15.254,7.12502,33.0669,42.2401,-43.8722,3.877,34.6548,30.3258,-28.8595,-32.8545,14.774,-21.6038,20.321,-27.2929,39.9959,26.4468,45.6397,27.1313
4.39725,16.5631,-15.1327,29.8881,8.87711,-3.84266,-17.7579,-0.672109,4.92173,-10.3199,-1.60678,4.34027,-1.14181,-0.880441,1.54819,-17.2505,-1.74279,0.175558,40.5153,-1.5558,-2.90876,17.9435,-0.997033,-1.68946,5.56597e-15,-3.65764e-14,-52.6307,13.8417,-84.7285,24.0635,-9.26508,17.8249,11.02,7.12502,42.5037,-13.399,5.56597e-15,-3.65764e-14,-58.4769,-4.4924,91.8087,29.5963,2.07164,7.65684,15.227,7.12502,32.9007,42.2481,-43.8857,4.08073,34.5064,30.4083,-29.2812,-32.8403,15.6836,-21.5691,20.4835,-27.3105,39.9234,27.4499,45.2174,26.1253
4.39715,16.564,-15.1329,29.9169,8.86263,-3.78708,-17.7824,-0.674719,4.88864,-10.3154,-1.60725,4.30384,-1.12397,-0.880063,1.5275,-17.2954,-1.77014,0.213588,40.5728,-1.59038,-2.96221,17.9865,-1.01223,-1.73103,4.21175e-14,-3.26007e-14,-52.5069,14.1534,-84.9052,23.9309,-9.34488,17.5598,11.6083,7.12502,42.2554,-12.8956,4.21175e-14,-3.26007e-14,-58.5474,-4.55924,91.7802,29.8559,2.13861,7.82158,15.2002,7.12502,33.0574,42.1883,-43.8899,4.15342,34.3916,30.3712,-29.4035,-32.8254,15.9965,-21.6203,20.5785,-27.3826,39.9334,29.3313,44.1889,24.0622
4.39625,16.5654,-15.1344,29.9591,8.88112,-3.80216,-17.714,-0.669729,4.90324,-10.4239,-1.58988,4.30399,-1.27748,-0.874787,1.52598,-16.946,-1.86792,0.0865327,40.5284,-1.72039,-2.90862,17.8664,-1.07762,-1.69975,1.09332e-15,-2.14687e-14,-52.7382,14.5313,-85.1466,24.0723,-9.48168,17.348,11.8171,7.12502,42.057,-12.7538,1.09332e-15,-2.14687e-14,-58.7489,-4.66803,91.8721,30.0588,2.32283,8.10438,15.5272,7.12502,33.3263,42.458,-43.8688,4.14452,34.4239,30.2393,-29.2766,-32.8653,15.7874,-21.7093,20.5668,-27.3624,40.0007,29.1046,44.3703,24.3854
4.39815,16.5605,-15.1349,29.9336,8.8721,-3.89881,-17.7343,-0.638023,4.99693,-10.4464,-1.56193,4.33169,-1.29447,-0.864307,1.50769,-16.5527,-1.9767,-0.124834,40.3947,-1.86609,-2.78785,17.6868,-1.15396,-1.62108,3.59552e-14,-3.97569e-14,-53.0094,15.1199,-85.5332,24.3378,-9.64857,17.2217,11.7302,7.12502,41.9386,-12.8804,3.59552e-14,-3.97569e-14,-58.756,-4.65101,91.8453,30.152,2.33123,8.60102,15.9908,7.12502,33.7983,42.8191,-43.7257,3.97857,34.6439,30.0834,-29.2575,-32.6766,16.0596,-21.7339,20.6779,-27.2621,40.0903,28.6621,44.6404,24.9164
4.39746,16.5515,-15.1399,29.9465,8.88653,-3.96062,-17.7423,-0.627376,5.04891,-10.4542,-1.55572,4.35779,-1.30028,-0.862784,1.50738,-16.5297,-1.99942,-0.129315,40.4004,-1.88321,-2.82821,17.6829,-1.16743,-1.64192,-4.22417e-16,-5.48646e-14,-53.0304,15.5528,-85.7194,24.4643,-9.61054,17.4525,11.8591,7.12502,42.1549,-12.6788,-4.22417e-16,-5.48646e-14,-58.7553,-4.73715,91.8989,30.3369,2.39174,8.78165,16.2656,7.12502,33.9699,43.0561,-43.6128,3.84528,34.8239,29.9681,-29.6712,-32.1683,17.2423,-21.8339,20.7306,-27.2027,40.1555,30.3315,43.5721,23.1442
4.39436,16.5477,-15.1469,29.9734,8.87567,-3.87658,-17.6578,-0.663543,4.94137,-10.5124,-1.57721,4.3491,-1.40309,-0.871108,1.55755,-16.4939,-1.98361,-0.133734,40.5087,-1.85282,-2.83785,17.7365,-1.15623,-1.64279,-2.65378e-14,2.14687e-14,-53.1354,15.9969,-85.9755,24.5149,-9.74561,17.596,12.0486,7.12502,42.2893,-12.4437,-2.65378e-14,2.14687e-14,-58.7749,-4.65509,91.7893,30.4371,2.27177,9.06615,16.454,7.12502,34.2401,43.1841,-43.5505,3.8825,34.7511,29.8793,-29.9178,-31.9171,17.8402,-21.9034,20.6425,-27.2773,40.1758,31.8216,42.5932,21.3262
4.38936,16.5488,-15.1497,29.9851,8.72232,-3.63121,-17.5875,-0.691037,4.59358,-10.541,-1.55612,4.27508,-1.45828,-0.848012,1.67868,-16.3311,-2.02535,-0.171968,40.5209,-1.92636,-2.78755,17.7,-1.18456,-1.62361,5.27276e-14,-3.49861e-14,-53.2457,16.3146,-86.1946,24.6342,-9.86082,17.5635,11.9648,7.12502,42.2589,-12.5379,5.27276e-14,-3.49861e-14,-58.8106,-4.79056,91.863,30.572,2.44546,9.15211,16.8442,7.12502,34.3217,43.556,-43.5108,4.29994,34.2663,29.8155,-29.9862,-32.2427,17.5955,-21.8454,20.5707,-27.5358,40.1378,32.1422,42.8058,20.526
4.39003,16.5495,-15.1502,29.8869,8.68312,-3.59143,-17.54,-0.663289,4.55141,-10.4643,-1.51474,4.23099,-1.39866,-0.825403,1.66096,-16.3795,-2.0596,-0.115081,40.5545,-1.99912,-2.79001,17.7289,-1.20464,-1.65095,1.14301e-14,9.54166e-15,-53.2131,16.6506,-86.4092,24.7458,-9.96019,17.4792,11.9388,7.12502,42.1799,-12.5907,1.14301e-14,9.54166e-15,-58.6397,-4.99022,91.9411,30.4464,2.50407,8.9673,16.7713,7.12502,34.1462,43.5225,-43.4221,4.40602,34.1527,29.8079,-29.8761,-32.5368,16.5273,-21.6596,20.5282,-27.5158,40.0386,33.6244,41.2194,18.9951
4.39424,16.5495,-15.1455,29.7514,8.69275,-3.84289,-17.6598,-0.548789,4.84765,-10.4174,-1.41792,4.21995,-1.29713,-0.788106,1.49615,-16.0924,-2.09772,0.00295454,40.5179,-2.09713,-2.80389,17.6261,-1.22815,-1.68915,8.3738e-15,-9.54166e-15,-53.3458,16.9135,-86.6256,25.0088,-10.118,17.9199,11.7161,7.12502,42.5926,-12.6723,8.3738e-15,-9.54166e-15,-58.6912,-5.14321,91.9265,30.444,2.46793,8.25988,16.1228,7.12502,33.4741,43.0218,-43.2701,4.29034,34.489,29.7963,-29.6638,-32.5239,16.2044,-21.4821,20.5484,-27.1984,39.9515,40.3337,34.7652,4.12197
4.39387,16.5505,-15.1444,29.7171,8.44306,-3.77535,-17.6777,-0.546379,4.65654,-10.2776,-1.39954,4.24047,-1.12847,-0.767275,1.62448,-16.4557,-2.06168,0.0427958,40.5851,-2.03178,-2.85935,17.761,-1.2025,-1.72024,2.63887e-14,-4.29375e-14,-53.1585,17.2813,-86.5661,25.4709,-10.2197,18.4047,11.7403,7.12502,43.0461,-12.4893,2.63887e-14,-4.29375e-14,-58.3952,-4.893,91.717,30.4772,2.16698,7.93146,15.5619,7.12502,33.1619,42.5278,-43.1693,4.51239,34.2859,29.7751,-29.917,-32.3274,17.5103,-21.3724,20.5863,-27.3245,39.8753,41.054,33.6366,2.17189
4.38676,16.5531,-15.1561,29.8548,8.3344,-3.61899,-17.5875,-0.593901,4.36408,-10.4006,-1.40567,4.24231,-1.29801,-0.760426,1.79309,-16.2975,-2.05546,0.0709903,40.6109,-2.02021,-2.89144,17.7331,-1.198,-1.73524,-1.93567e-14,3.18055e-15,-53.4075,17.5809,-86.6516,25.9745,-10.1732,17.9073,12.452,7.12502,42.5808,-11.9404,-1.93567e-14,3.18055e-15,-58.4565,-4.91484,91.7401,30.4989,2.16862,8.21651,15.7609,7.12502,33.4329,42.6688,-43.3363,5.17365,33.8014,29.7862,-31.1493,-32.3172,19.3826,-21.5534,20.4941,-27.5373,39.8333,40.5954,34.4242,3.86669
4.38268,16.5553,-15.1624,29.9449,8.3713,-3.49911,-17.5583,-0.652927,4.19769,-10.4473,-1.45442,4.2503,-1.35753,-0.778179,1.88847,-16.2248,-2.10874,-0.0714433,40.6188,-2.10318,-2.77206,17.7213,-1.23685,-1.66913,9.29318e-15,-1.03368e-14,-53.4718,17.965,-86.7805,26.2244,-10.178,16.8037,13.696,7.12502,41.5467,-11.0441,9.29318e-15,-1.03368e-14,-58.3061,-4.90864,91.7426,30.2815,2.20994,8.42142,15.9567,7.12502,33.6276,42.8224,-43.4877,5.31637,33.6031,29.8479,-33.2621,-31.7666,21.9432,-21.643,20.3714,-27.6284,39.7889,41.1043,33.827,2.78857
4.38351,16.5541,-15.1639,30.0542,8.2506,-3.39964,-17.6844,-0.634875,4.09247,-10.4268,-1.42535,4.19782,-1.26804,-0.759381,1.89434,-16.3605,-2.15068,-0.0911341,40.7354,-2.17208,-2.74792,17.8239,-1.26289,-1.67498,-3.10104e-14,1.74931e-14,-53.355,18.3144,-86.9199,26.3248,-10.2672,15.3389,15.5948,7.12502,40.1706,-9.5796,-3.10104e-14,1.74931e-14,-58.0929,-4.96684,91.7211,30.1415,2.234,8.40738,16.3787,7.12502,33.6143,43.2472,-43.6174,5.26933,33.4929,29.8854,-30.6539,-32.5447,17.4909,-21.6945,20.2931,-27.7901,39.7525,40.3172,34.6306,5.07624
4.38539,16.5525,-15.1658,30.1057,8.11636,-3.46652,-17.7023,-0.638135,4.11764,-10.4263,-1.43656,4.28066,-1.25732,-0.764045,1.96606,-16.5937,-2.07563,-0.0760623,40.8213,-2.02383,-2.83412,17.9385,-1.21244,-1.69786,1.82882e-14,-3.97569e-14,-53.3656,18.8884,-87.0453,26.5983,-10.2107,15.3155,15.3732,7.12502,40.1485,-9.80792,1.82882e-14,-3.97569e-14,-57.9993,-4.82541,91.7668,30.2116,2.45114,8.48786,17.1537,7.12502,33.6908,44.0055,-43.6871,5.13732,33.623,29.895,-31.8655,-31.6935,20.1859,-21.7079,20.3215,-27.7947,39.6858,40.0992,34.6846,5.48997
4.38726,16.5545,-15.1625,30.0841,8.10365,-3.54514,-17.6915,-0.61303,4.16189,-10.4997,-1.40461,4.3218,-1.34369,-0.749659,1.9918,-16.2752,-2.12922,-0.168665,40.7769,-2.09354,-2.79269,17.8285,-1.25006,-1.66653,3.47376e-14,-3.10104e-14,-53.534,19.1105,-87.0761,26.7686,-10.0765,16.1688,14.7155,7.12502,40.9507,-10.2166,3.47376e-14,-3.10104e-14,-58.1377,-4.84689,91.8214,30.2925,2.51246,8.26254,17.3329,7.12502,33.4766,44.2313,-43.6476,5.14425,33.697,29.8703,-31.18,-31.8697,19.4062,-21.6011,20.3386,-27.6935,39.5425,43.6225,31.5859,0.111818
4.38938,16.5537,-15.1553,29.9352,8.04532,-3.57171,-17.6409,-0.63025,4.15868,-10.4335,-1.42876,4.37934,-1.29623,-0.759548,2.04995,-15.9629,-2.23239,-0.496477,40.6641,-2.20907,-2.62881,17.6881,-1.32696,-1.54334,0,-1.19271e-14,-53.5011,19.5972,-87.2057,26.8852,-10.4232,16.6874,14.1087,7.12502,41.4376,-10.667,0,-1.19271e-14,-58.0618,-4.65912,91.7491,30.289,2.34988,7.77996,16.8232,7.12502,33.0178,43.8197,-43.4327,5.31492,33.6324,29.7903,-30.4727,-32.4114,18.0354,-21.2558,20.3207,-27.6114,39.3016,41.4113,32.8554,2.08043
4.39931,16.5471,-15.1395,29.3867,7.81299,-3.76423,-17.3633,-0.451492,4.39254,-10.4075,-1.20831,4.28501,-1.42173,-0.663199,1.85641,-15.2716,-2.31853,-0.456982,40.5686,-2.38836,-2.5706,17.4473,-1.3869,-1.53797,1.06598e-14,-5.56597e-15,-53.9874,19.7177,-87.479,27.1983,-10.8545,15.6514,14.6034,7.12502,40.4644,-10.4808,1.06598e-14,-5.56597e-15,-58.4343,-4.98293,91.8423,30.3558,2.474,7.17473,16.1756,7.12502,32.442,43.2919,-42.7065,4.84086,34.0435,29.7402,-30.9003,-31.6045,18.9547,-20.4761,20.6828,-27.3011,39.1882,41.5201,32.3671,1.677
4.41428,16.5396,-15.1124,28.4981,7.38231,-4.14471,-16.8439,-0.365922,4.75695,-9.9784,-1.14151,4.45932,-1.23374,-0.638036,1.84386,-15.7837,-2.20029,-0.559507,40.6945,-2.13397,-2.64491,17.6613,-1.30949,-1.52248,2.29099e-14,-3.18055e-15,-53.7143,20.5966,-87.5817,27.4925,-11.3368,16.012,14.0271,7.12502,40.8034,-10.9515,2.29099e-14,-3.18055e-15,-58.1137,-4.52045,91.7688,30.3791,2.48748,7.36422,16.5182,7.12502,32.6223,43.5974,-41.5547,3.98586,34.7796,29.6948,-30.8694,-30.4389,19.3092,-19.2845,21.4481,-26.7733,39.0559,42.9908,29.5446,-3.96858
4.39786,16.5507,-15.1499,29.9536,8.16352,-3.70564,-17.8566,-0.598372,4.3963,-10.5744,-1.42634,4.40062,-1.34668,-0.768766,1.94013,-15.4618,-2.2241,-0.262239,40.7785,-2.2369,-2.74675,17.6128,-1.31782,-1.63705,-7.33018e-16,-7.95139e-16,-53.8125,20.4391,-87.5309,27.6642,-11.5668,16.7713,12.4874,7.12502,41.5163,-12.2626,-7.33018e-16,-7.95139e-16,-58.2548,-4.74935,91.7463,30.4195,2.35822,8.18449,17.1074,7.12502,33.4024,44.0218,-43.3326,4.90648,33.9657,29.6563,-31.1703,-31.5321,20.7298,-21.2377,20.3325,-27.45,39.1581,45.8239,27.6393,-7.10414
4.40251,16.548,-15.1473,29.8562,8.14616,-3.77897,-17.86,-0.599172,4.51776,-10.4876,-1.45225,4.45159,-1.25371,-0.784584,1.91996,-15.9364,-2.1604,-0.106908,41.0902,-2.12139,-2.91317,17.9163,-1.26649,-1.74273,-9.69075e-16,-3.02153e-14,-53.6238,20.6999,-87.4216,27.879,-11.8319,17.2538,11.836,7.12502,41.9687,-12.7645,-9.69075e-16,-3.02153e-14,-58.0423,-4.548,91.6501,30.2828,2.1925,8.08104,16.7825,7.12502,33.3041,43.7181,-43.226,4.82041,34.074,29.6657,-31.0381,-31.4715,20.8669,-21.1119,20.3835,-27.3667,39.1738,43.4426,29.4881,-4.86967
4.41185,16.5469,-15.1424,29.5852,8.22511,-4.03125,-17.7284,-0.510479,4.90226,-10.4261,-1.38554,4.47648,-1.26782,-0.767102,1.7422,-16.072,-2.16859,0.00681358,41.2943,-2.13233,-3.01333,18.0682,-1.26409,-1.82296,1.77664e-15,-7.95139e-16,-53.5936,20.7329,-87.3419,28.0659,-11.9077,17.0661,12.1587,7.12502,41.7928,-12.5004,1.77664e-15,-7.95139e-16,-57.928,-4.70867,91.7581,30.0296,2.42219,7.03457,15.7343,7.12502,32.3086,42.8778,-42.9372,4.34823,34.5632,29.7012,-31.8805,-30.8625,21.0086,-20.8536,20.4898,-27.0079,39.3105,45.5542,27.467,-7.22342
4.40574,16.5413,-15.1375,29.6185,7.7905,-3.79231,-17.6534,-0.511341,4.42368,-10.4382,-1.31269,4.44949,-1.30347,-0.711105,1.99445,-16.318,-2.14073,0.0627562,41.4517,-2.06592,-3.11446,18.2276,-1.24087,-1.88011,1.5617e-14,-9.54166e-15,-53.5943,21.0392,-87.3761,28.2516,-12.154,16.4971,13.2629,7.12502,41.259,-11.5706,1.5617e-14,-9.54166e-15,-57.7703,-4.5907,91.7025,29.8697,2.47359,6.34603,14.8017,7.12502,31.653,42.0766,-42.9353,5.29327,33.8217,29.7292,-33.0011,-31.1373,22.1288,-20.859,20.7068,-27.4449,39.302,43.9674,27.8862,-7.95322
4.41277,16.5415,-15.1403,29.5609,7.95591,-3.94247,-17.5005,-0.494736,4.74121,-10.6799,-1.30761,4.47112,-1.65573,-0.727715,1.84755,-15.7096,-2.16861,0.0193023,41.5248,-2.09895,-3.11096,18.1062,-1.26078,-1.86499,5.97596e-15,-1.19271e-14,-54.1653,21.1839,-87.5723,28.4595,-12.2412,16.9619,13.102,7.12502,41.6951,-11.5894,5.97596e-15,-1.19271e-14,-58.1256,-4.5372,91.6242,29.8623,2.34782,6.30559,14.4813,7.12502,31.6145,41.7638,-42.896,5.03071,34.1081,29.7319,-32.8596,-31.0466,22.0097,-20.8367,20.6061,-27.243,39.3482,44.3189,26.9417,-9.8931
4.41422,16.5387,-15.1438,29.563,7.94764,-4.04683,-17.4787,-0.468012,4.83171,-10.7675,-1.27759,4.51537,-1.76493,-0.717235,1.85087,-15.565,-2.18967,-0.0359873,41.6493,-2.1289,-3.07558,18.1424,-1.27526,-1.84564,-1.61513e-16,2.54444e-14,-54.3939,21.4958,-87.7289,28.6358,-12.5506,17.2746,12.7182,7.12502,41.9883,-11.8758,-1.61513e-16,2.54444e-14,-58.164,-4.51651,91.6442,29.7259,2.30753,6.22789,14.2507,7.12502,31.5404,41.5477,-42.9226,5.22414,34.1422,29.758,-32.5689,-31.2844,21.568,-20.8472,20.6788,-27.176,39.2728,44.5293,26.5628,-10.774
4.41715,16.5382,-15.1432,29.5427,7.91015,-4.12047,-17.4084,-0.450635,4.89409,-10.7659,-1.25863,4.56473,-1.80077,-0.709732,1.8721,-15.7869,-2.16856,-0.049196,41.794,-2.09802,-3.05861,18.2913,-1.26036,-1.84071,2.59166e-14,7.95139e-16,-54.3657,21.752,-87.7171,28.8033,-12.7093,17.1066,12.8253,7.12502,41.8307,-11.8212,2.59166e-14,7.95139e-16,-58.0676,-4.5128,91.7299,29.6565,2.49846,5.91587,14.1483,7.12502,31.2431,41.5031,-42.9119,5.32364,34.1544,29.7807,-31.607,-31.652,19.9568,-20.8837,20.7665,-27.153,39.3399,44.8222,25.8278,-12.426
4.43919,16.527,-15.1104,28.4217,7.2696,-4.46353,-16.7851,-0.0899017,5.3271,-10.5813,-0.806245,4.39182,-1.93554,-0.509832,1.51625,-14.9881,-2.27653,-0.0676401,41.8175,-2.33075,-2.90437,18.0843,-1.33519,-1.78989,1.25172e-15,-3.02153e-14,-54.8988,21.3918,-87.7456,29.0753,-12.572,16.6191,13.3986,7.12502,41.3735,-11.3979,1.25172e-15,-3.02153e-14,-58.6306,-4.93031,91.848,29.8745,2.55966,5.96216,14.1854,7.12502,31.2873,41.5317,-41.5265,4.49468,34.7838,29.8291,-30.2574,-30.923,17.2216,-19.3544,21.6173,-26.697,39.2634,44.4357,25.6405,-12.3954
4.4263,16.535,-15.1461,29.4472,8.00426,-4.07575,-17.247,-0.443344,5.07884,-10.8957,-1.25172,4.47961,-2.03361,-0.722162,1.68459,-15.396,-2.26245,-0.198907,41.8747,-2.28042,-2.86475,18.2353,-1.33019,-1.75111,3.8909e-14,1.59028e-15,-54.5697,21.7075,-87.6501,29.2345,-12.6607,16.0695,13.8678,7.12502,40.8574,-11.0938,3.8909e-14,1.59028e-15,-58.3598,-4.6211,91.6649,29.9604,2.14078,6.23182,14.264,7.12502,31.5442,41.5603,-42.8738,5.08,34.1841,29.8946,-30.882,-31.7021,18.5712,-20.7786,20.6481,-27.204,39.3774,42.9736,29.6979,-4.96325
4.43152,16.5333,-15.1439,29.3659,7.90417,-4.00877,-17.3594,-0.294234,5.07362,-11.0292,-1.05232,4.26258,-2.12362,-0.629768,1.489,-14.4811,-2.44719,-0.0640268,41.7581,-2.64223,-2.817,17.9049,-1.45028,-1.79275,2.04997e-15,-9.54166e-15,-54.9951,21.3947,-87.8786,29.14,-12.8042,15.2015,14.6363,7.12502,40.0413,-10.5773,2.04997e-15,-9.54166e-15,-58.7713,-5.1387,91.7188,30.0503,1.89737,6.49902,14.4029,7.12502,31.7987,41.649,-42.803,4.92218,34.1645,29.9517,-30.4338,-31.8623,18.6164,-20.6486,20.7794,-27.3211,39.3589,40.0711,34.3623,4.65568
4.43478,16.5333,-15.1436,29.3909,7.88254,-4.04449,-17.4959,-0.248031,5.09718,-11.0872,-1.00109,4.25664,-2.11729,-0.605121,1.47725,-14.2285,-2.50966,-0.0577601,41.8457,-2.74295,-2.81998,17.8857,-1.48955,-1.81052,2.73329e-16,3.18055e-14,-55.0656,21.5709,-88.0801,28.9388,-12.945,14.8241,15.0326,7.12502,39.6861,-10.2874,2.73329e-16,3.18055e-14,-58.8992,-5.2938,91.8189,30.0257,1.80684,6.64755,14.3641,7.12502,31.9401,41.5821,-42.8626,4.86072,34.2256,29.9991,-30.111,-32.0527,18.0861,-20.7439,20.8404,-27.3291,39.4757,40.9603,31.3587,2.17192
4.44006,16.5343,-15.1375,29.3439,7.90175,-4.12593,-17.6142,-0.257585,5.18656,-11.0418,-1.03923,4.33601,-2.00901,-0.624248,1.50369,-14.2163,-2.50103,-0.0844357,41.8735,-2.70329,-2.86342,17.8998,-1.48379,-1.8195,3.57812e-15,9.54166e-15,-54.9484,21.8394,-88.0723,28.9222,-13.0145,15.3866,14.484,7.12502,40.2154,-10.6767,3.57812e-15,9.54166e-15,-58.836,-5.16083,91.8261,29.9516,1.53241,6.55779,14.0127,7.12502,31.8547,41.2477,-42.7741,4.65832,34.4018,29.9823,-30.0368,-31.8782,17.7838,-20.6798,20.9176,-27.2492,39.4478,37.4915,36.7973,12.1357
4.44491,16.535,-15.1317,29.3153,7.88631,-4.13961,-17.7373,-0.267509,5.21551,-10.9965,-1.07004,4.37687,-1.89679,-0.637879,1.52399,-14.2097,-2.487,-0.108663,41.9286,-2.67283,-2.8673,17.9321,-1.47529,-1.81341,2.48481e-15,-2.62396e-14,-54.8889,22.0728,-88.069,29.1327,-13.3945,16.1829,13.2077,7.12502,40.9639,-11.7202,2.48481e-15,-2.62396e-14,-58.7772,-5.09245,91.8489,29.9344,1.38054,6.44888,13.6991,7.12502,31.7509,40.9546,-42.6774,4.61337,34.4176,29.9243,-30.0454,-31.7742,17.9872,-20.557,21.0884,-27.2561,39.2852,42.5824,30.3097,-2.79101
4.44982,16.5371,-15.1315,29.301,7.91978,-4.21981,-17.7167,-0.256897,5.36484,-11.066,-1.07068,4.40946,-1.98804,-0.646486,1.47688,-14.0903,-2.49401,-0.168947,42.0282,-2.67378,-2.84814,17.9614,-1.48187,-1.79473,-4.57205e-15,-7.95139e-16,-54.9108,22.2891,-88.1619,29.2296,-14.0558,13.1752,16.6685,7.12502,38.1313,-9.09487,-4.57205e-15,-7.95139e-16,-58.8496,-4.98741,91.8224,29.9551,1.36619,6.34788,13.7691,7.12502,31.6547,41.0437,-42.6332,4.44302,34.5689,29.8591,-29.7871,-31.6953,17.904,-20.5425,21.2388,-27.1729,39.284,36.5953,38.4923,14.1665
4.47746,16.5284,-15.0938,28.089,7.30913,-4.61096,-17.0222,0.0152876,5.87161,-10.7156,-0.75119,4.40603,-1.97454,-0.509342,1.23698,-13.9946,-2.47758,-0.244754,42.1783,-2.6382,-2.81449,18.0293,-1.47298,-1.7622,6.39838e-15,-1.59028e-14,-54.9999,22.425,-88.154,29.3235,-14.5995,14.9716,14.7287,7.12502,39.8249,-10.5499,6.39838e-15,-1.59028e-14,-58.8893,-5.00852,91.9753,29.9324,1.44455,6.27994,13.8892,7.12502,31.59,41.1765,-41.0744,3.12413,35.4018,29.7541,-28.6959,-30.4487,16.4291,-18.8605,22.1535,-26.5888,39.189,32.1223,41.6824,22.1716
4.45985,16.5397,-15.1363,29.1285,8.33098,-4.33759,-17.4948,-0.313893,5.70063,-11.2079,-1.16119,4.50984,-2.26937,-0.711042,1.38824,-14.0685,-2.45118,-0.207626,42.35,-2.60073,-2.83473,18.1521,-1.45146,-1.77996,-1.73937e-14,3.73715e-14,-55.1121,22.4775,-88.1428,29.4819,-14.8197,14.5386,14.967,7.12502,39.4171,-10.4322,-1.73937e-14,3.73715e-14,-58.8018,-5.07491,92.0489,29.935,1.49404,6.51463,13.8978,7.12502,31.8136,41.141,-42.4246,3.67405,35.0414,29.6727,-29.2872,-31.5578,17.5583,-20.3653,21.0226,-26.8292,39.3322,37.8275,38.7398,14.7407
4.46527,16.5384,-15.1299,28.9876,8.26421,-4.49401,-17.442,-0.24038,5.87826,-11.1908,-1.08572,4.54444,-2.28273,-0.6811,1.33751,-14.1457,-2.41365,-0.13245,42.4511,-2.54565,-2.88461,18.2328,-1.42194,-1.81262,1.13059e-14,-1.59028e-15,-55.1233,22.5332,-88.1396,29.505,-14.9577,15.8927,13.8583,7.12502,40.6913,-11.1554,1.13059e-14,-1.59028e-15,-58.7049,-5.07412,92.0327,29.9734,1.41387,6.75573,14.1499,7.12502,32.0432,41.3472,-42.246,3.47807,35.29,29.6418,-29.0479,-31.4606,16.9352,-20.1797,21.144,-26.6593,39.3083,41.5307,31.7766,0.582671
4.46756,16.5399,-15.1273,28.9707,8.17583,-4.39625,-17.489,-0.230441,5.76522,-11.1474,-1.0647,4.53283,-2.20667,-0.663348,1.38973,-14.1685,-2.43378,-0.213074,42.4081,-2.58702,-2.79747,18.2161,-1.43968,-1.7636,-1.52816e-14,2.46493e-14,-55.0191,22.6269,-88.1511,29.5342,-15.1811,16.3667,13.2267,7.12502,41.1365,-11.6461,-1.52816e-14,2.46493e-14,-58.5679,-5.07646,92.0461,30.0193,1.26506,6.81127,14.3175,7.12502,32.096,41.5041,-42.2166,3.55106,35.1268,29.6808,-29.297,-31.3076,17.0616,-20.1761,21.1305,-26.7844,39.3763,36.5426,38.5077,14.1775
4.47228,16.5402,-15.1237,28.9723,8.08912,-4.24546,-17.586,-0.257054,5.60451,-11.1246,-1.08799,4.53534,-2.12633,-0.665298,1.47691,-14.0158,-2.48148,-0.388233,42.3558,-2.63172,-2.73232,18.1481,-1.47838,-1.7039,1.9133e-14,-5.725e-14,-54.969,22.7853,-88.1785,29.568,-15.3648,15.6777,13.4947,7.12502,40.4891,-11.5819,1.9133e-14,-5.725e-14,-58.5297,-5.0236,92.1063,30.0324,1.32629,6.85893,14.2665,7.12502,32.1414,41.444,-42.2169,3.40166,34.9897,29.7464,-29.4451,-31.0209,17.0948,-20.0838,21.0965,-26.9856,39.27,41.9777,31.2655,-0.580199
4.47823,16.5412,-15.12,28.997,8.10969,-4.20769,-17.7368,-0.268339,5.60619,-11.1045,-1.11759,4.55611,-2.02686,-0.677613,1.4915,-13.8337,-2.52871,-0.551543,42.2596,-2.70473,-2.61095,18.0467,-1.51915,-1.62289,-2.16178e-15,-3.26007e-14,-54.8088,22.6838,-87.9727,29.5695,-15.212,13.8078,15.1189,7.12502,38.7283,-10.4784,-2.16178e-15,-3.26007e-14,-58.4783,-4.92942,92.0886,30.0045,1.05821,6.79724,14.144,7.12502,32.0827,41.3333,-42.2702,3.13871,35.0371,29.8543,-29.4263,-30.8097,16.811,-19.9512,21.0547,-27.0239,39.0154,38.2793,36.97,10.3818
4.47806,16.5422,-15.1276,29.0676,8.087,-4.11709,-17.7429,-0.286461,5.47007,-11.1359,-1.1203,4.56253,-2.05324,-0.672443,1.57451,-13.4233,-2.63248,-0.874642,41.9679,-2.88656,-2.32103,17.776,-1.60902,-1.44253,-1.09332e-15,-1.51076e-14,-54.6597,22.5755,-87.8201,29.4857,-15.1088,13.5443,15.1729,7.12502,38.4797,-10.4942,-1.09332e-15,-1.51076e-14,-58.3718,-4.88516,92.0649,29.8727,0.782132,6.58047,13.6953,7.12502,31.8763,40.926,-42.3963,3.5169,34.7511,29.9275,-29.7055,-31.0721,17.1355,-20.0219,21.0218,-27.1626,38.9329,42.0012,32.1729,0.230963
4.49428,16.53,-15.0977,27.9425,7.18741,-4.29369,-17.154,-0.0143173,5.51326,-10.6882,-0.754777,4.51348,-1.86522,-0.487636,1.54898,-13.7935,-2.57573,-0.624075,42.2441,-2.75789,-2.60393,18.0275,-1.55124,-1.61469,2.89977e-14,-2.38542e-14,-54.5545,22.5271,-87.7132,29.3936,-15.1351,13.2814,15.2154,7.12502,38.2315,-10.5204,2.89977e-14,-2.38542e-14,-58.2586,-4.9294,92.1917,29.8394,0.893215,6.16934,13.3824,7.12502,31.4847,40.6904,-41.0252,3.1567,34.9262,29.9766,-29.7666,-30.2455,17.3839,-18.4436,21.9817,-26.9266,38.7867,35.2169,39.5363,17.091
4.48215,16.5385,-15.1256,28.8245,7.88889,-4.10041,-17.7386,-0.260208,5.33821,-11.0299,-1.07547,4.61642,-1.93376,-0.638912,1.70993,-13.7707,-2.5881,-0.558873,42.2771,-2.75408,-2.71346,18.0366,-1.55419,-1.67755,1.02374e-14,-1.59028e-15,-54.4195,22.3211,-87.4595,29.4517,-15.0745,13.6514,14.4173,7.12502,38.5808,-11.2215,1.02374e-14,-1.59028e-15,-58.1933,-4.96314,92.2852,29.8748,1.17335,5.94848,13.2233,7.12502,31.2742,40.5721,-42.1922,3.70147,34.5961,30.0387,-30.9185,-30.8948,19.118,-19.6801,21.1655,-27.1683,38.8824,43.8695,31.2294,-0.522588
4.48267,16.5393,-15.131,28.889,7.96979,-4.07242,-17.6565,-0.295056,5.27234,-11.1717,-1.0941,4.66195,-2.12858,-0.646945,1.79634,-13.6096,-2.6222,-0.607012,42.3423,-2.80264,-2.6949,18.033,-1.57844,-1.66734,-3.40916e-14,5.56597e-14,-54.4008,21.9369,-87.1074,29.5121,-14.9,13.9988,13.5584,7.12502,38.9085,-11.9878,-3.40916e-14,5.56597e-14,-58.3416,-4.97351,92.3563,29.9937,1.20435,5.99276,13.2232,7.12502,31.3164,40.5639,-42.3347,3.67645,34.591,30.1523,-30.403,-31.135,17.6597,-19.7602,20.9913,-27.1885,38.8517,35.3934,40.3635,16.8202
4.48067,16.5427,-15.1368,28.9339,7.90624,-4.04344,-17.5746,-0.270867,5.16985,-11.2511,-1.03514,4.65432,-2.25435,-0.614288,1.85711,-13.5449,-2.65594,-0.624309,42.4237,-2.88599,-2.61492,18.0651,-1.60228,-1.64337,1.66731e-14,-8.74653e-15,-54.2681,21.4163,-86.7066,29.4959,-14.8027,13.9355,13.0977,7.12502,38.8487,-12.4655,1.66731e-14,-8.74653e-15,-58.3937,-5.1815,92.5019,30.0582,1.19857,6.06468,13.4391,7.12502,31.3849,40.7664,-42.5125,3.97902,34.4062,30.29,-29.7642,-31.6749,16.4146,-19.8806,20.8864,-27.2644,38.9667,40.4765,34.3477,4.58002
4.4833,16.5509,-15.1349,28.926,7.89891,-4.05017,-17.6706,-0.264161,5.16301,-11.2358,-1.03432,4.68764,-2.18757,-0.611108,1.89529,-13.4859,-2.65892,-0.629773,42.4716,-2.89432,-2.60537,18.0781,-1.60435,-1.63956,-1.21756e-15,-1.51076e-14,-54.0913,21.056,-86.3519,29.43,-14.7698,13.7011,12.6235,7.12502,38.6276,-13.0022,-1.21756e-15,-1.51076e-14,-58.354,-5.06508,92.4438,30.1066,0.797185,6.37809,13.6755,7.12502,31.6835,40.9444,-42.6944,4.12042,34.3056,30.4138,-28.9614,-32.4609,14.8916,-19.7689,20.8521,-27.2631,38.7897,34.0147,41.3788,19.0272
4.48647,16.5542,-15.1373,28.9946,8.02689,-4.05164,-17.7659,-0.313739,5.22788,-11.2854,-1.1126,4.72912,-2.19482,-0.652756,1.89151,-13.5402,-2.62473,-0.567385,42.645,-2.84129,-2.65852,18.1959,-1.57788,-1.67414,1.32192e-14,-1.03368e-14,-53.9383,20.7844,-86.1286,29.2082,-14.8033,13.0047,12.4122,7.12502,37.9703,-13.3951,1.32192e-14,-1.03368e-14,-58.4121,-4.91779,92.3501,30.1905,0.454969,6.74823,13.8353,7.12502,32.036,41.034,-42.9138,4.22092,34.2387,30.5224,-28.696,-32.9032,14.1669,-19.8695,20.6812,-27.2567,38.7761,40.3104,34.9172,5.31527
4.51056,16.5424,-15.0973,27.8542,7.18844,-4.49255,-17.2723,0.0439084,5.6726,-10.7952,-0.702433,4.70392,-1.92385,-0.463788,1.67178,-13.9019,-2.59646,-0.403052,42.9,-2.79205,-2.79752,18.4442,-1.54531,-1.78017,-1.81391e-14,1.66979e-14,-53.6291,20.4314,-85.8522,28.8576,-15.1067,11.6997,12.679,7.12502,36.7366,-13.4531,-1.81391e-14,1.66979e-14,-58.3069,-5.03211,92.4604,30.1847,0.497351,6.83281,13.9132,7.12502,32.1165,41.0957,-41.4876,3.07756,35.0634,30.5564,-27.823,-31.4976,12.4332,-18.2951,21.7287,-26.7695,38.6152,34.3764,40.9452,17.5596
4.48944,16.5538,-15.1397,28.988,7.96542,-4.099,-17.8339,-0.266069,5.25766,-11.2365,-1.06354,4.7652,-2.10679,-0.626577,1.91907,-14.0959,-2.56649,-0.325305,43.0117,-2.76174,-2.81915,18.5653,-1.52045,-1.80855,-4.19933e-15,7.95139e-15,-53.4149,20.0747,-85.5825,28.6196,-15.6724,10.3409,13.2703,7.12502,35.4496,-13.1795,-4.19933e-15,7.95139e-15,-58.1684,-5.12991,92.5783,30.1139,0.577017,6.80153,13.8521,7.12502,32.0868,41.0406,-42.9658,4.2052,34.2741,30.5832,-28.6509,-32.8914,13.7622,-19.8982,20.6749,-27.2599,38.7425,42.5835,33.8667,3.45473
4.49298,16.5508,-15.1293,28.6002,7.68855,-4.22789,-17.5616,-0.179903,5.30365,-11.1885,-0.938577,4.80156,-2.19501,-0.566231,1.95241,-13.8532,-2.55966,-0.365318,42.951,-2.75468,-2.7825,18.4626,-1.52073,-1.77331,-2.77802e-14,4.92986e-14,-53.4331,19.5593,-85.2146,28.5772,-16.1354,9.0863,13.7408,7.12502,34.2592,-12.985,-2.77802e-14,4.92986e-14,-58.1789,-5.05422,92.5858,30.0019,0.405975,6.92209,13.8448,7.12502,32.2015,41.0101,-42.4403,4.33685,34.3244,30.5523,-28.8686,-32.6765,14.1398,-19.3725,21.033,-27.0904,38.6916,30.7221,43.8946,23.9643
4.48827,16.5574,-15.1455,28.9468,7.95158,-4.01429,-17.6652,-0.318023,5.10632,-11.3684,-1.08679,4.82285,-2.33243,-0.632279,2.06621,-13.758,-2.54383,-0.323443,42.8935,-2.73615,-2.80314,18.3995,-1.51047,-1.78216,1.64494e-14,-8.74653e-15,-53.2451,19.0685,-84.8489,28.4114,-16.6697,8.06292,13.8284,7.12502,33.2869,-13.1108,1.64494e-14,-8.74653e-15,-58.0883,-4.9059,92.4924,29.9357,0.171489,7.16064,14.0192,7.12502,32.4286,41.1383,-42.9177,4.61094,33.973,30.5876,-29.2496,-33.0307,14.7939,-19.9217,20.6098,-27.3287,38.86,32.8604,44.8937,22.2929
4.49594,16.553,-15.1328,28.6636,7.60047,-4.24809,-17.6283,-0.163969,5.26964,-11.2022,-0.91806,4.85685,-2.17416,-0.551979,2.03328,-13.9506,-2.54181,-0.203032,43.007,-2.74131,-2.88289,18.5172,-1.50132,-1.85265,-9.96408e-15,-1.66979e-14,-53.0282,18.6332,-84.6058,28.284,-17.3709,6.72173,13.917,7.12502,32.0108,-13.2868,-9.96408e-15,-1.66979e-14,-57.9625,-4.81362,92.4369,30.0352,0.257775,7.28471,14.2967,7.12502,32.5467,41.3915,-42.5391,4.26337,34.3631,30.5934,-28.693,-32.5596,14.0429,-19.5341,20.9728,-27.1552,38.8614,34.5844,44.2583,18.9353
4.49042,16.5544,-15.1452,28.848,7.88983,-4.06888,-17.6887,-0.306326,5.11449,-11.2991,-1.08011,4.87944,-2.24388,-0.625889,2.12103,-14.0713,-2.56321,-0.1762,43.1249,-2.78109,-2.89765,18.622,-1.51267,-1.8805,-2.045e-14,6.52014e-14,-52.9665,18.1667,-84.3483,28.3299,-18.0248,5.27728,14.2733,7.12502,30.6344,-13.1972,-2.045e-14,6.52014e-14,-57.9812,-4.7243,92.399,30.1817,0.27369,7.30729,14.276,7.12502,32.5681,41.3663,-42.7797,4.69224,33.993,30.5341,-29.0623,-33.1306,14.6714,-19.7305,20.5312,-27.2576,38.8083,30.6861,46.211,24.1274
4.48815,16.5514,-15.1563,29.0814,8.10852,-3.86439,-17.7639,-0.411583,4.98508,-11.4172,-1.1967,4.85727,-2.33045,-0.680008,2.15413,-13.9129,-2.64003,-0.330065,43.0343,-2.91677,-2.74921,18.5262,-1.57406,-1.79947,-8.94531e-16,1.98785e-14,-52.7252,17.3771,-83.8534,28.1694,-18.2851,3.67687,14.9639,7.12502,29.1072,-12.7814,-8.94531e-16,1.98785e-14,-57.9445,-4.71176,92.3675,30.1603,0.138019,7.34119,14.1601,7.12502,32.6004,41.2438,-42.9535,4.86364,33.6922,30.4274,-29.9869,-32.8977,16.6897,-20.0679,20.1486,-27.4478,38.9332,23.8831,47.5249,31.2145
4.51651,16.5302,-15.1085,27.6274,7.13953,-4.4664,-17.0867,-0.007179,5.61591,-10.8089,-0.745059,4.86968,-2.03231,-0.479115,1.87433,-13.4952,-2.731,-0.813202,42.7074,-3.09489,-2.29616,18.2339,-1.66865,-1.50766,-7.70291e-16,9.54166e-15,-52.2187,16.6248,-83.2851,27.7846,-18.6553,1.99121,15.7278,7.12502,27.4962,-12.2847,-7.70291e-16,9.54166e-15,-57.7673,-4.51013,92.2391,30.0526,-0.116901,7.4688,14.0694,7.12502,32.7218,41.1279,-40.9168,3.21253,34.958,30.2972,-29.3623,-30.4931,16.2633,-18.1561,21.42,-26.7212,38.9454,24.9718,46.4928,29.6205
4.49138,16.5403,-15.1609,29.0493,8.2119,-4.00592,-17.7727,-0.430254,5.19032,-11.3979,-1.25229,4.96502,-2.31023,-0.714857,2.14519,-14.1244,-2.61081,-0.471555,43.2526,-2.88777,-2.60604,18.7312,-1.56163,-1.71513,-9.19379e-16,1.19271e-14,-51.8782,16.0493,-82.9581,27.3365,-19.5081,0.472149,15.8043,7.12502,26.0425,-12.4307,-9.19379e-16,1.19271e-14,-57.7144,-4.43684,92.2399,29.977,-0.241298,7.33941,13.7439,7.12502,32.5987,40.8279,-42.6442,4.16847,34.2351,30.19,-30.4706,-31.5601,18.7322,-20.2147,20.1145,-27.2561,39.1897,25.403,44.6299,31.9271
4.49119,16.5404,-15.1636,29.0249,8.15616,-3.92273,-17.7775,-0.425854,5.0828,-11.3362,-1.23653,4.94372,-2.23644,-0.70074,2.18327,-13.3223,-2.74939,-0.952848,42.667,-3.14346,-2.14582,18.1702,-1.69079,-1.41474,8.49804e-15,-2.38542e-14,-51.5376,15.4356,-82.6518,26.9863,-20.3774,-0.924107,15.6896,7.12502,24.7049,-12.7354,8.49804e-15,-2.38542e-14,-57.5769,-4.61404,92.4063,29.9228,-0.140046,7.02748,13.5131,7.12502,32.3019,40.658,-42.5862,4.36399,34.0327,30.0898,-30.4516,-31.7569,18.8981,-20.2258,20.1035,-27.3545,39.2135,42.8635,30.9172,-3.49051
4.49217,16.5402,-15.1634,29.069,8.14435,-3.90556,-17.9623,-0.418507,5.06347,-11.2462,-1.24618,4.94859,-2.04195,-0.701292,2.19342,-13.8236,-2.67376,-0.60467,42.8422,-3.03282,-2.39147,18.3984,-1.61858,-1.59197,-1.50579e-14,1.98785e-14,-51.087,14.4943,-82.0376,26.652,-20.7232,-2.42265,15.9764,7.12502,23.268,-12.6377,-1.50579e-14,1.98785e-14,-57.3311,-4.60186,92.4045,29.826,-0.307131,7.00141,13.4943,7.12502,32.277,40.6443,-42.6134,4.41274,33.9757,30.0839,-30.7126,-31.5805,19.4994,-20.3419,20.0305,-27.3919,39.311,32.715,39.8677,21.2042
4.49204,16.5395,-15.1573,28.918,7.94636,-3.92389,-17.985,-0.364958,5.01277,-11.1754,-1.17649,4.94659,-1.9513,-0.662296,2.22867,-13.8805,-2.65886,-0.589778,42.9225,-3.03487,-2.34705,18.4645,-1.60896,-1.5784,3.27249e-14,-5.725e-14,-50.9115,13.4644,-81.3879,26.4735,-20.912,-3.6714,16.2769,7.12502,22.0695,-12.4837,3.27249e-14,-5.725e-14,-57.2729,-4.46032,92.2847,29.8034,-0.59915,7.10344,13.3789,7.12502,32.3741,40.5091,-42.4005,4.54971,33.9189,30.1088,-30.9019,-31.4439,19.7506,-20.1471,20.1982,-27.3914,39.276,48.2872,24.6517,-12.5983
4.49758,16.5344,-15.1413,28.3084,7.50951,-4.07362,-17.5854,-0.21892,5.09975,-11.03,-0.976645,4.9279,-2.00133,-0.567564,2.1913,-13.6321,-2.67239,-0.714029,42.8937,-3.09728,-2.16166,18.3863,-1.62989,-1.47219,1.02126e-14,-2.62396e-14,-50.9291,12.851,-81.1405,26.2606,-21.7077,-5.09626,16.8182,7.12502,20.7009,-12.0977,1.02126e-14,-2.62396e-14,-57.3891,-4.45747,92.3053,29.7632,-0.637514,7.09737,13.2789,7.12502,32.3684,40.4103,-41.6232,4.22942,34.1887,30.0852,-30.4542,-31.045,19.0622,-19.2964,20.7518,-27.1872,39.1501,29.8857,42.5112,26.1757
4.49097,16.5434,-15.1634,29.1142,8.06967,-3.8287,-18.071,-0.403427,4.97213,-11.3629,-1.21317,4.93314,-2.11178,-0.681522,2.23508,-13.4914,-2.68408,-0.814743,42.812,-3.18305,-1.93145,18.3061,-1.65031,-1.35482,-1.881e-14,-2.38542e-15,-50.8492,12.1905,-80.8843,25.9639,-22.6084,-6.62048,18.0298,7.12502,19.2358,-11.0389,-1.881e-14,-2.38542e-15,-57.3827,-4.47744,92.3225,29.6371,-0.750148,6.97454,13.3175,7.12502,32.2515,40.4727,-42.6337,4.40507,33.9018,30.067,-30.6742,-31.5713,19.213,-20.3525,19.9877,-27.5062,39.2036,28.2027,45.7011,27.2722
4.50333,16.5387,-15.1393,28.4876,7.65977,-4.12126,-17.8487,-0.215297,5.27557,-11.0964,-1.01313,4.93279,-1.94417,-0.593609,2.0921,-13.6597,-2.72478,-0.802655,42.9206,-3.25283,-1.93547,18.4177,-1.67485,-1.38011,1.21507e-14,-7.95139e-15,-50.5549,10.9088,-80.0065,25.7376,-22.6564,-7.25145,18.7,7.12502,18.629,-10.428,1.21507e-14,-7.95139e-15,-57.3005,-4.46826,92.3437,29.5528,-0.793811,6.9501,13.4066,7.12502,32.2282,40.5665,-41.8158,3.70334,34.4853,30.0254,-29.9607,-30.9347,17.6764,-19.4823,20.616,-27.1505,39.1608,23.9444,44.0794,34.8207
4.4961,16.5426,-15.1549,28.8906,7.94801,-3.9228,-18.0701,-0.357766,5.08566,-11.2484,-1.17893,4.94448,-1.99036,-0.667968,2.18625,-14.0176,-2.74324,-0.693921,43.2315,-3.2606,-2.08127,18.7028,-1.67409,-1.49106,1.90833e-14,-1.98785e-14,-50.205,9.66221,-79.1417,25.4818,-22.7019,-7.60112,18.371,7.12502,18.2926,-10.7888,1.90833e-14,-1.98785e-14,-57.1472,-4.5558,92.4574,29.4071,-0.634062,6.96691,13.6111,7.12502,32.2442,40.7677,-42.3459,4.07048,34.135,30.0162,-31.4595,-30.9945,20.1878,-20.0593,20.1937,-27.3765,39.2257,43.5635,29.2052,-5.77576
4.49664,16.5436,-15.1546,28.8175,7.94288,-3.92226,-18.0708,-0.354416,5.10343,-11.2066,-1.18029,4.93279,-1.94497,-0.669207,2.1626,-14.1698,-2.71098,-0.552921,43.3879,-3.22253,-2.16766,18.8377,-1.64399,-1.56034,2.16427e-14,-2.78299e-14,-49.9202,8.83185,-78.6801,25.1783,-23.011,-8.32726,18.1915,7.12502,17.5939,-11.0324,2.16427e-14,-2.78299e-14,-56.997,-4.54303,92.4058,29.3193,-0.662371,7.01909,13.5807,7.12502,32.2939,40.7273,-42.2361,4.01131,34.1677,29.9876,-30.037,-31.4486,18.0102,-19.9468,20.2,-27.3608,39.1632,31.5109,41.4508,23.8853
4.49949,16.5398,-15.1408,28.3233,7.62778,-4.01612,-17.8451,-0.260974,5.13248,-11.0149,-1.05879,4.90759,-1.85224,-0.608864,2.13622,-14.1271,-2.68346,-0.459676,43.3846,-3.22135,-2.14741,18.8212,-1.62525,-1.56571,-1.13556e-14,7.95139e-16,-49.7573,8.03061,-78.2974,24.8386,-23.0629,-9.24492,18.4569,7.12502,16.7107,-10.8439,-1.13556e-14,7.95139e-16,-56.9438,-4.46057,92.3396,29.3115,-0.685096,7.02846,13.6217,7.12502,32.3028,40.7665,-41.607,3.88945,34.2995,30.0028,-29.9384,-31.1392,17.8806,-19.2516,20.6459,-27.1983,39.0682,32.1326,43.101,21.6611
4.49823,16.5387,-15.1373,28.3343,7.54681,-4.0314,-17.9005,-0.219873,5.10368,-11.0583,-1.00192,4.88811,-1.87094,-0.579666,2.14114,-14.0207,-2.69928,-0.427003,43.4125,-3.281,-2.09885,18.8082,-1.63654,-1.55761,-6.4605e-16,1.59028e-14,-49.7545,7.34238,-78.0454,24.5488,-23.3016,-10.3361,18.4189,7.12502,15.66,-10.9673,-6.4605e-16,1.59028e-14,-57.0353,-4.59483,92.457,29.3429,-0.441215,6.95883,13.564,7.12502,32.2365,40.7222,-41.6053,4.11859,34.2138,30.0212,-30.3649,-31.0548,18.8904,-19.2299,20.7569,-27.2241,38.9743,23.849,44.3855,35.0936
4.50779,16.5367,-15.1242,27.9536,7.35888,-4.12564,-17.7646,-0.137556,5.26095,-10.8918,-0.918284,4.86816,-1.76357,-0.54415,2.04245,-14.0836,-2.68414,-0.413951,43.4823,-3.29154,-2.036,18.8719,-1.62805,-1.53598,-1.19768e-14,1.43125e-14,-49.5769,6.58335,-77.714,24.4293,-23.4258,-11.3317,17.9695,7.12502,14.7009,-11.4892,-1.19768e-14,1.43125e-14,-56.9593,-4.63064,92.549,29.3315,-0.230749,6.75422,13.5516,7.12502,32.0417,40.7491,-41.1422,3.69006,34.4376,30.0391,-30.2796,-30.5432,19.0151,-18.6349,21.0121,-27.0829,38.8125,34.5492,40.9941,18.3179
4.50839,16.5393,-15.1289,28.1632,7.49224,-4.07124,-17.8768,-0.226366,5.24841,-10.9671,-1.03731,4.92395,-1.78721,-0.602442,2.09091,-14.2209,-2.61764,-0.398777,43.5793,-3.18082,-2.06623,18.9736,-1.58381,-1.53945,1.06847e-14,-3.49861e-14,-49.5603,6.01324,-77.4178,24.7639,-23.2813,-12.2564,17.2219,7.12502,13.8099,-12.2997,1.06847e-14,-3.49861e-14,-56.9241,-4.56949,92.6787,29.373,0.0360344,6.57026,13.565,7.12502,31.8665,40.7976,-41.4168,3.30091,34.5698,30.0545,-29.7258,-30.5798,17.8804,-18.8813,20.9221,-27.1806,38.7927,27.6888,42.2082,30.2806
4.513,16.538,-15.1261,27.931,7.37788,-4.11183,-17.5532,-0.187819,5.31321,-11.0536,-0.962017,4.92272,-2.05036,-0.572385,2.0695,-14.0077,-2.6038,-0.478339,43.642,-3.17655,-1.96921,18.9593,-1.58195,-1.47389,7.15625e-15,-2.38542e-14,-49.8828,5.61566,-77.2534,24.9338,-23.1891,-13.1441,17.1589,7.12502,12.9543,-12.419,7.15625e-15,-2.38542e-14,-57.2276,-4.48216,92.7141,29.4663,0.0480902,6.39823,13.3591,7.12502,31.7027,40.6242,-41.1788,2.98767,34.7171,30.0829,-29.1455,-30.5399,16.57,-18.5727,21.045,-27.1331,38.7569,42.9626,30.3796,-3.65811
4.50787,16.5388,-15.1345,28.0699,7.47976,-4.06095,-17.3946,-0.242632,5.22192,-11.3373,-0.985651,4.95526,-2.44018,-0.585041,2.1596,-13.6634,-2.61327,-0.450919,43.6368,-3.18592,-2.01025,18.8562,-1.58894,-1.49098,-1.0138e-14,1.59028e-14,-50.1484,5.12219,-76.9667,24.6663,-22.8892,-13.6303,17.3786,7.12502,12.4855,-12.2285,-1.0138e-14,1.59028e-14,-57.6549,-4.36007,92.7579,29.5317,-0.0251082,6.27559,13.2642,7.12502,31.5859,40.5524,-41.3872,3.13572,34.6356,30.1193,-29.1644,-30.6971,16.7624,-18.7941,20.9238,-27.1932,38.8098,27.2541,42.3691,30.6935
4.50267,16.5402,-15.1387,28.1872,7.64499,-3.95268,-17.3331,-0.354597,5.09492,-11.4887,-1.09856,4.99441,-2.6332,-0.636875,2.26008,-13.5749,-2.57388,-0.312056,43.6198,-3.11609,-2.13885,18.8133,-1.55696,-1.56166,6.75868e-15,-2.54444e-14,-50.1386,4.49105,-76.5582,24.1807,-22.2986,-13.8965,17.4726,7.12502,12.2289,-12.1499,6.75868e-15,-2.54444e-14,-57.8191,-4.3341,92.9192,29.5998,0.321288,6.10259,13.633,7.12502,31.4211,40.9533,-41.5424,3.58574,34.3512,30.147,-32.1421,-30.1469,22.2874,-18.9338,20.7242,-27.2408,38.8015,41.6141,32.8514,1.32907
4.50163,16.5383,-15.1337,28.1291,7.6883,-3.91969,-17.3196,-0.427484,5.04497,-11.4755,-1.18785,5.06376,-2.62236,-0.676727,2.34864,-13.5901,-2.53768,-0.320447,43.6434,-3.01602,-2.23195,18.8323,-1.53154,-1.58745,1.78906e-14,-3.18055e-14,-50.1071,3.80925,-76.0221,24.0011,-21.6517,-13.972,17.2123,7.12502,12.1561,-12.4145,1.78906e-14,-3.18055e-14,-57.8426,-4.16423,92.9965,29.665,0.495802,6.12958,14.0021,7.12502,31.4468,41.3175,-41.4367,3.86517,34.1909,30.1309,-29.9133,-31.2624,17.9038,-18.8574,20.7055,-27.2109,38.8559,23.6648,44.4067,35.0711
4.506,16.5359,-15.1228,27.8555,7.57508,-3.99899,-17.2149,-0.38545,5.13585,-11.4094,-1.14152,5.07934,-2.60701,-0.657562,2.32058,-13.4819,-2.54406,-0.318684,43.6969,-3.00841,-2.27809,18.8347,-1.53436,-1.60764,-2.18663e-15,2.54444e-14,-50.1914,2.88754,-75.3665,23.8392,-21.1579,-13.812,17.5283,7.12502,12.3104,-12.0893,-2.18663e-15,2.54444e-14,-57.9663,-4.03741,92.9785,29.7597,0.50253,6.02074,13.8968,7.12502,31.3431,41.2323,-41.0788,3.7212,34.3042,30.1226,-29.9885,-31.0382,17.6627,-18.497,20.8808,-27.0784,38.8647,28.9206,44.9637,26.1581
4.50154,16.5366,-15.1295,28.035,7.75125,-4.1201,-17.3677,-0.38794,5.26863,-11.5176,-1.16612,5.11496,-2.65133,-0.676326,2.28218,-13.4303,-2.55543,-0.179129,43.7398,-3.03166,-2.37822,18.8397,-1.53353,-1.68554,-4.87022e-15,3.49861e-14,-50.0727,1.79979,-74.6709,22.8622,-20.9583,-13.536,19.5339,7.12502,12.5764,-10.0676,-4.87022e-15,3.49861e-14,-58.0901,-4.14541,93.1103,29.8442,0.603097,5.69615,13.774,7.12502,31.0337,41.169,-41.3182,3.69882,34.5047,30.1089,-29.8198,-31.243,17.5359,-18.8041,20.8115,-26.9557,38.9184,24.0261,44.202,34.5131
4.49884,16.5355,-15.1334,28.1285,7.73303,-4.01666,-17.4022,-0.44559,5.14126,-11.5734,-1.22393,5.12898,-2.68988,-0.698935,2.36097,-13.6943,-2.51651,-0.0612625,43.9455,-2.95307,-2.5198,19.0412,-1.49765,-1.77612,1.33683e-14,1.59028e-15,-49.83,0.855004,-73.9855,22.286,-20.3782,-13.4589,19.5477,7.12502,12.6508,-10.0492,1.33683e-14,1.59028e-15,-58.1456,-3.98981,93.0956,29.9004,0.523397,5.47854,13.7418,7.12502,30.8263,41.1762,-41.4425,3.65463,34.4138,30.0964,-29.7401,-31.2626,17.0526,-18.9368,20.737,-27.1137,38.9458,42.0466,31.9649,-0.632553
4.49753,16.5363,-15.1332,28.1678,7.66748,-3.94108,-17.472,-0.463463,5.0445,-11.5413,-1.24326,5.12006,-2.615,-0.702822,2.40091,-12.9759,-2.66444,-0.568903,43.3709,-3.20634,-2.07621,18.4974,-1.63655,-1.4781,2.80286e-14,-1.59028e-14,-49.6739,-0.00211765,-73.4328,21.9046,-20.1,-13.3673,19.8715,7.12502,12.7391,-9.71993,2.80286e-14,-1.59028e-14,-58.0246,-3.84273,92.9921,29.9916,0.428887,5.44752,13.7205,7.12502,30.7967,41.1605,-41.462,3.63555,34.3334,30.0889,-29.7872,-31.0819,17.2174,-19.0023,20.7453,-27.2444,39.0039,24.0892,44.1443,34.3426
4.49796,16.5375,-15.133,28.1414,7.6688,-4.03054,-17.5577,-0.412957,5.14369,-11.4696,-1.20271,5.11366,-2.49593,-0.685946,2.34171,-12.9254,-2.68622,-0.580194,43.2386,-3.28911,-1.95151,18.4039,-1.65616,-1.42611,1.21756e-14,9.54166e-15,-49.625,-0.700165,-73.1038,21.6436,-20.0676,-13.4407,20.0725,7.12502,12.6683,-9.5233,1.21756e-14,9.54166e-15,-57.8569,-3.86311,92.9683,29.9029,0.309079,5.33968,13.707,7.12502,30.6939,41.1663,-41.4198,3.59178,34.4524,30.0917,-29.8807,-30.8295,18.4225,-19.0002,20.784,-27.1564,39.0357,29.5181,44.6278,25.4445
4.4986,16.5378,-15.1341,28.1493,7.64905,-4.05999,-17.7031,-0.390782,5.17786,-11.3673,-1.19854,5.10937,-2.30998,-0.682874,2.31434,-12.9759,-2.7225,-0.652017,43.1747,-3.38088,-1.81694,18.3835,-1.68685,-1.36569,-5.01931e-15,-2.70347e-14,-49.5496,-1.30504,-72.8622,21.5475,-19.9354,-13.6967,19.7102,7.12502,12.4215,-9.90071,-5.01931e-15,-2.70347e-14,-57.5761,-3.86595,92.9595,29.771,0.176338,5.4043,13.9995,7.12502,30.7555,41.4473,-41.4306,3.46231,34.5405,30.0875,-29.7425,-30.6379,18.8869,-19.0436,20.8155,-27.1541,39.0583,19.7077,46.1514,38.6747
4.49885,16.5377,-15.1346,28.1445,7.69482,-4.15301,-17.8678,-0.381691,5.33294,-11.2605,-1.23094,5.1254,-2.11322,-0.703558,2.23522,-13.0874,-2.72881,-0.704029,43.1273,-3.4132,-1.7253,18.3891,-1.69614,-1.32056,-8.00108e-15,9.54166e-15,-49.3926,-2.03037,-72.509,21.284,-19.5179,-14.1033,19.4262,7.12502,12.0295,-10.2081,-8.00108e-15,9.54166e-15,-57.339,-3.81208,92.9132,29.8169,0.132088,5.59448,14.6041,7.12502,30.9368,42.0176,-41.4207,3.33558,34.7054,30.0516,-29.6381,-30.4835,18.8221,-19.0573,20.7569,-27.0456,39.0531,28.6638,45.2072,26.511
4.49917,16.5369,-15.1333,28.1139,7.7232,-4.18366,-17.9425,-0.379756,5.42564,-11.2155,-1.25164,5.10583,-2.02895,-0.718016,2.15734,-13.2106,-2.70326,-0.602449,43.1848,-3.39894,-1.74694,18.4548,-1.67526,-1.35156,-1.08338e-14,1.11319e-14,-49.3207,-2.63443,-72.2343,20.8755,-19.2265,-14.3711,19.5737,7.12502,11.7713,-10.0755,-1.08338e-14,1.11319e-14,-57.2614,-3.67155,92.7258,29.9612,-0.0606938,5.98646,15.2279,7.12502,31.3104,42.5697,-41.3929,3.26186,34.7831,30.0386,-29.6299,-30.5377,18.1896,-19.0179,20.7196,-26.985,39.0601,21.7967,45.2307,36.7548
4.5025,16.5343,-15.124,27.8102,7.54198,-4.24156,-17.8381,-0.344979,5.48969,-11.0504,-1.2202,5.10083,-1.90389,-0.703505,2.11805,-13.5234,-2.67017,-0.425099,43.3551,-3.33166,-1.92766,18.6374,-1.64004,-1.47106,-6.01324e-15,-1.59028e-14,-49.2222,-3.4,-71.7437,20.5105,-18.6698,-14.304,19.7825,7.12502,11.836,-9.86298,-6.01324e-15,-1.59028e-14,-57.1365,-3.54919,92.6374,29.8861,-0.309575,6.17967,15.3545,7.12502,31.4945,42.6605,-40.9983,3.14426,34.8584,29.9993,-29.566,-30.4727,17.8177,-18.6097,20.9361,-26.8828,39.0419,41.8653,32.4538,-0.221534
4.49554,16.5354,-15.1375,28.125,7.74146,-4.14244,-18.0356,-0.474433,5.38374,-11.0927,-1.38919,5.16602,-1.84351,-0.780495,2.21885,-13.8727,-2.6156,-0.398389,43.4797,-3.23352,-1.98209,18.8132,-1.60051,-1.49736,-2.74323e-14,1.59028e-14,-49.0836,-4.24225,-71.1349,20.2387,-17.9497,-14.2065,19.7647,7.12502,11.93,-9.87535,-2.74323e-14,1.59028e-14,-56.8613,-3.4041,92.6382,29.6298,-0.482169,6.0466,15.2016,7.12502,31.3677,42.5323,-41.4131,3.29807,34.7409,29.9664,-29.1753,-30.9653,17.7239,-19.0658,20.6541,-27.0111,39.0752,36.4706,39.1067,14.2382
4.49633,16.5356,-15.1365,28.0488,7.83071,-4.27291,-18.0274,-0.476496,5.5855,-11.0726,-1.42206,5.20794,-1.83267,-0.805372,2.14523,-13.8427,-2.60207,-0.412703,43.4525,-3.20839,-1.98016,18.7885,-1.59366,-1.48744,2.76808e-14,-2.54444e-14,-49.189,-4.60524,-70.9637,20.1281,-17.7757,-14.3645,19.6135,7.12502,11.7776,-10.0353,2.76808e-14,-2.54444e-14,-56.8452,-3.32674,92.6503,29.6607,-0.565006,5.89556,15.2492,7.12502,31.2238,42.6078,-41.3236,3.1718,34.9442,29.9308,-32.0545,-29.7201,22.6265,-19.0138,20.5953,-26.819,39.0701,42.871,32.5978,1.49562
4.49767,16.5366,-15.1333,28.0048,7.90026,-4.34339,-18.0456,-0.461373,5.72185,-11.1233,-1.41893,5.20329,-1.88454,-0.81158,2.06586,-13.7051,-2.62938,-0.406792,43.5159,-3.24858,-1.99806,18.7886,-1.61105,-1.50331,-1.02871e-14,1.43125e-14,-49.3327,-5.04133,-70.7212,19.7786,-17.5426,-14.5741,19.471,7.12502,11.5755,-10.1893,-1.02871e-14,1.43125e-14,-57.0061,-3.39304,92.7311,29.7942,-0.493519,5.66687,15.4956,7.12502,31.0058,42.8959,-41.2632,2.87956,35.1658,29.9003,-28.9064,-30.667,16.2408,-19.0025,20.5645,-26.704,39.1029,36.1731,38.8973,15.3132
4.4987,16.537,-15.1315,27.9919,7.82285,-4.25207,-18.137,-0.45769,5.66391,-11.1112,-1.41504,5.15102,-1.82305,-0.807549,2.04155,-13.6069,-2.64911,-0.432978,43.5702,-3.28132,-1.97997,18.7964,-1.62588,-1.49549,9.69075e-15,-7.95139e-15,-49.3225,-5.81595,-70.2062,19.1719,-16.9258,-14.768,19.471,7.12502,11.3885,-10.1998,9.69075e-15,-7.95139e-15,-57.0399,-3.47382,92.7946,29.8515,-0.560126,5.632,15.7137,7.12502,30.9726,43.1204,-41.2285,2.65904,35.1574,29.8663,-28.4592,-30.7513,15.9118,-18.9541,20.5439,-26.8257,39.0484,43.8656,29.7551,-6.02904
