JuanDHNZ/ProyectoFinalCD/preprocessing/sports_trials_csv/05_13.csv
root1,root2,root3,root4,root5,root6,lowerback1,lowerback2,lowerback3,upperback1,upperback2,upperback3,thorax1,thorax2,thorax3,lowerneck1,lowerneck2,lowerneck3,upperneck1,upperneck2,upperneck3,head1,head2,head3,rclavicle1,rclavicle2,rhumerus1,rhumerus2,rhumerus3,rradius1,rwrist1,rhand1,rhand2,rfingers1,rthumb1,rthumb2,lclavicle1,lclavicle2,lhumerus1,lhumerus2,lhumerus3,lradius1,lwrist1,lhand1,lhand2,lfingers1,lthumb1,lthumb2,rfemur1,rfemur2,rfemur3,rtibia1,rfoot1,rfoot2,rtoes1,lfemur1,lfemur2,lfemur3,ltibia1,lfoot1,lfoot2,ltoes1
1.43632,17.2428,34.2845,-158.484,-53.4529,-174.315,-17.5157,5.28259,-1.61821,-10.535,6.15181,-1.0261,-1.57035,2.68467,0.792751,-12.2781,1.90964,2.19365,31.0157,0.0916882,2.82162,12.2728,0.206776,0.602242,5.31997e-14,6.08281e-14,-54.0003,-29.9524,-48.6592,9.643,25.2058,-4.23621,15.7568,7.12502,21.5271,-13.0668,5.31997e-14,6.08281e-14,-54.6554,28.1124,53.7544,28.4127,-2.03878,0.626899,19.041,7.12502,26.1907,47.2541,-13.6481,-5.28411,32.5357,35.3681,39.0625,-22.2825,25.0015,-38.1922,3.11254,-29.3069,30.9635,-41.4974,28.0177,22.2363
1.43603,17.2362,34.2875,-158.684,-53.5347,-174.159,-17.467,5.23107,-1.52253,-10.5215,6.07179,-0.92594,-1.57902,2.64436,0.82933,-12.4019,1.96637,1.93676,31.1109,0.189045,2.95885,12.3338,0.238804,0.714298,1.14301e-15,-1.15295e-14,-53.8133,-29.8971,-48.7731,9.87104,24.0348,-2.72777,15.225,7.12502,22.9752,-13.4259,1.14301e-15,-1.15295e-14,-54.9492,28.324,53.5408,28.135,-2.4027,0.854174,18.9592,7.12502,26.4083,47.1398,-13.5317,-5.65609,32.6247,35.3151,39.3845,-21.6925,24.453,-38.224,3.10513,-29.188,31.1877,-41.6662,27.7359,22.6958
1.43546,17.2358,34.2892,-158.697,-53.5412,-174.167,-17.4471,5.21515,-1.53152,-10.5467,6.04824,-0.91881,-1.61783,2.63226,0.835285,-12.5119,1.97906,1.87283,31.2521,0.179065,3.04542,12.4142,0.236912,0.758764,-1.1045e-14,-3.8763e-14,-53.8634,-29.9042,-48.8422,9.88154,23.7111,-2.40673,15.2382,7.12502,23.2832,-13.374,-1.1045e-14,-3.8763e-14,-55.095,28.174,53.6003,27.9782,-2.46649,0.812228,18.9688,7.12502,26.3681,47.1555,-13.5474,-5.8038,32.6094,35.3696,39.4176,-21.5813,24.3694,-38.1943,3.01507,-29.156,31.176,-41.6384,27.8325,22.4555
1.43674,17.2381,34.289,-158.595,-53.5104,-174.278,-17.4718,5.19771,-1.63412,-10.5647,6.0363,-0.943658,-1.63325,2.62896,0.864878,-12.6455,1.99488,1.84054,31.3695,0.166671,3.1386,12.4907,0.239838,0.800298,-5.643e-14,-1.96797e-14,-54.153,-29.8412,-48.8271,9.6921,25.1248,-4.35845,15.8261,7.12502,21.4097,-13.011,-5.643e-14,-1.96797e-14,-55.2732,28.2837,53.3753,27.7814,-2.74882,0.972525,19.0653,7.12502,26.5215,47.2289,-13.6116,-5.73053,32.5246,35.3753,39.4883,-21.6223,24.1371,-38.2491,3.03391,-29.2452,31.2276,-41.4765,28.0317,21.8468
1.43788,17.2396,34.2879,-158.691,-53.5293,-174.222,-17.5338,5.12699,-1.68431,-10.4799,5.9602,-0.860052,-1.52263,2.59801,0.977085,-12.7855,2.0358,1.86251,31.3745,0.250006,3.0594,12.5215,0.273515,0.779959,8.13154e-14,1.96797e-14,-53.8804,-29.8619,-49.0032,9.73453,24.7627,-4.27575,15.6128,7.12502,21.4891,-13.2153,8.13154e-14,1.96797e-14,-55.5041,28.7212,52.9906,27.6129,-3.20352,1.11233,18.9886,7.12502,26.6554,47.1318,-13.5854,-5.69268,32.5621,35.3739,39.5527,-21.5589,24.0615,-38.1978,2.92992,-29.1578,31.243,-41.5354,28.2432,21.3883
1.43775,17.2407,34.2892,-158.835,-53.6104,-174.067,-17.526,5.10093,-1.60751,-10.5224,5.90775,-0.811727,-1.56793,2.56769,0.97474,-12.6785,2.04339,1.94952,31.3423,0.280471,2.93606,12.4862,0.279423,0.720578,-1.68594e-14,2.16675e-14,-53.9487,-29.754,-49.002,9.79102,24.4681,-4.49086,15.6392,7.12502,21.2825,-13.2123,-1.68594e-14,2.16675e-14,-55.6779,28.6188,52.8784,27.5017,-3.01163,1.00482,19.0569,7.12502,26.5525,47.2158,-13.5543,-5.74096,32.678,35.3451,39.5891,-21.4827,24.0191,-38.1844,3.01718,-29.0822,31.2585,-41.1108,28.4329,20.7037
1.43663,17.24,34.2943,-158.829,-53.6535,-174.05,-17.5068,5.11579,-1.50182,-10.5825,5.90413,-0.855487,-1.62605,2.55701,0.866299,-12.7374,2.03071,1.90745,31.461,0.233203,3.00985,12.5477,0.260812,0.750465,1.1368e-14,-1.39149e-14,-54.0866,-29.7829,-49.0519,9.86264,24.3078,-4.70179,15.5442,7.12502,21.0799,-13.33,1.1368e-14,-1.39149e-14,-55.7822,28.4685,52.782,27.4226,-2.73003,0.920936,19.0793,7.12502,26.4722,47.2503,-13.5449,-5.83774,32.6829,35.2853,39.6666,-21.3932,23.9588,-38.204,2.99788,-29.0781,31.2544,-41.0779,28.3489,21.0373
1.43593,17.2388,34.2974,-158.795,-53.6496,-174.077,-17.5737,5.10775,-1.55107,-10.5591,5.90167,-0.811938,-1.57682,2.55916,0.944629,-12.9016,2.00815,1.82684,31.5671,0.206131,3.02694,12.6257,0.243352,0.769696,-6.78601e-14,5.20816e-14,-54.0771,-29.8355,-49.0631,9.9606,24.0973,-5.01197,15.4308,7.12502,20.7819,-13.4763,-6.78601e-14,5.20816e-14,-55.8276,28.5135,52.7883,27.2232,-2.85608,0.790125,19.0589,7.12502,26.347,47.2488,-13.5427,-5.73355,32.662,35.2438,39.6876,-21.5078,23.9883,-38.2494,3.05182,-29.1473,31.2888,-41.1023,28.3279,21.333
1.43575,17.2412,34.2988,-158.745,-53.6322,-174.121,-17.6812,5.08648,-1.62298,-10.5023,5.88903,-0.766582,-1.4731,2.55786,1.04051,-12.9434,2.04126,1.91731,31.4725,0.272377,2.94421,12.5957,0.277237,0.732061,-1.64991e-14,-5.30755e-14,-53.9351,-29.8699,-49.0947,9.83708,24.0046,-5.7851,15.5979,7.12502,20.0389,-13.3888,-1.64991e-14,-5.30755e-14,-55.8466,28.7135,52.7446,27.0726,-2.98337,0.722042,19.0114,7.12502,26.2818,47.211,-13.5347,-5.28634,32.66,35.2102,39.3728,-22.4268,25.3429,-38.2854,3.05439,-29.1904,31.2993,-41.2089,28.3065,21.346
1.43618,17.2378,34.3,-158.835,-53.6162,-174.013,-17.7289,5.06895,-1.55966,-10.4717,5.85841,-0.701773,-1.41483,2.54141,1.07381,-12.9121,2.0826,1.95269,31.3534,0.366211,2.86356,12.5392,0.315406,0.707722,-2.93456e-14,-4.92986e-14,-53.743,-29.81,-49.173,9.61118,24.1091,-6.90977,15.9388,7.12502,18.9576,-13.1573,-2.93456e-14,-4.92986e-14,-56.0074,28.8779,52.5824,27.1173,-3.04633,0.824301,19.0087,7.12502,26.3797,47.1936,-13.5164,-5.59632,32.6831,35.1833,39.7038,-21.5512,24.4571,-38.3007,3.13328,-29.1312,31.3082,-41.3899,28.0742,21.6522
1.43736,17.238,34.2979,-158.981,-53.6281,-173.867,-17.7117,5.06707,-1.47744,-10.4673,5.84443,-0.669499,-1.41297,2.53196,1.05905,-13.0786,2.051,1.82086,31.4462,0.325083,2.92983,12.6115,0.291695,0.752483,-1.18091e-13,-2.98177e-14,-53.6809,-29.8472,-49.2698,9.51353,24.323,-5.07834,15.5711,7.12502,20.7181,-13.3429,-1.18091e-13,-2.98177e-14,-56.1523,28.9803,52.3955,27.1659,-3.19332,0.682689,19.1195,7.12502,26.2441,47.3247,-13.4787,-5.53935,32.785,35.1984,39.5673,-21.6776,24.8842,-38.2995,3.40531,-29.1082,31.333,-41.245,27.8287,21.6405
1.43746,17.2428,34.297,-159.024,-53.6392,-173.846,-17.664,5.12418,-1.45232,-10.4997,5.91413,-0.716405,-1.46639,2.56442,1.00182,-13.4049,2.02617,1.61495,31.7799,0.238599,3.1437,12.8186,0.256465,0.863938,-5.78215e-14,-3.97569e-15,-53.858,-30.0382,-49.2309,9.56274,24.3772,-4.014,15.3346,7.12502,21.7405,-13.4645,-5.78215e-14,-3.97569e-15,-56.1082,28.8489,52.3981,27.1437,-3.30529,0.257076,19.0719,7.12502,25.8366,47.337,-13.4318,-4.99552,32.8403,35.1907,39.0512,-22.772,25.9532,-38.27,3.66937,-29.2002,31.3054,-40.6484,28.0482,20.7965
1.43982,17.2373,34.2993,-159.009,-53.6483,-173.884,-17.6675,5.15422,-1.48347,-10.5082,5.9581,-0.751377,-1.47462,2.58688,0.989046,-13.6128,2.01816,1.53831,32.0066,0.176686,3.28087,12.9587,0.237347,0.925408,-3.78561e-14,-1.98785e-14,-53.9658,-30.238,-49.2455,9.65973,24.1692,-3.70813,15.4119,7.12502,22.0342,-13.3529,-3.78561e-14,-1.98785e-14,-56.0782,28.7695,52.3724,27.1483,-3.31642,0.168182,18.9526,7.12502,25.7515,47.2301,-13.4544,-5.24688,32.7983,35.2348,39.0983,-22.4878,25.6375,-38.2541,3.54176,-29.1842,31.2973,-40.8074,27.9785,21.109
1.43562,17.2456,34.3002,-158.894,-53.6677,-174.065,-17.6491,5.16524,-1.57578,-10.5228,5.98549,-0.799638,-1.50561,2.60362,0.991372,-13.4798,1.95686,1.70374,31.8723,0.0925467,3.16672,12.8767,0.20514,0.837309,1.68594e-14,-2.60408e-14,-54.2129,-30.3258,-49.1721,9.67533,24.5937,-4.53574,15.8108,7.12502,21.2394,-13.0455,1.68594e-14,-2.60408e-14,-56.0484,28.5368,52.494,27.3262,-3.02267,0.345584,18.9931,7.12502,25.9213,47.2459,-13.3557,-4.61653,32.7571,35.2317,38.4887,-23.614,26.8165,-38.1273,3.35677,-29.2474,31.1956,-41.1183,27.8865,21.6933
1.43672,17.2417,34.3006,-158.857,-53.6968,-174.12,-17.6725,5.13438,-1.66478,-10.5283,5.95509,-0.739785,-1.51561,2.59366,1.09945,-13.3436,1.91524,1.77296,31.6766,0.107303,2.95764,12.7655,0.194752,0.744153,-1.11071e-14,-3.61788e-14,-54.4052,-30.178,-49.0359,9.6504,25.4393,-5.67467,16.3875,7.12502,20.1451,-12.588,-1.11071e-14,-3.61788e-14,-56.2517,28.6744,52.3564,27.5073,-3.18019,0.502647,19.1043,7.12502,26.0717,47.335,-13.3718,-5.02569,32.7128,35.2843,38.7708,-23.0345,26.4807,-38.1184,3.33706,-29.2721,31.1838,-40.8623,28.1082,21.02
1.43606,17.2458,34.2985,-158.824,-53.6953,-174.145,-17.7438,5.09484,-1.72853,-10.4938,5.91394,-0.662696,-1.45644,2.57808,1.21575,-13.6272,1.94095,1.34286,31.7906,0.188497,3.17607,12.8678,0.212776,0.919572,-9.52179e-14,-6.83819e-14,-54.3476,-30.0764,-49.0164,9.67274,25.7856,-6.10288,16.5478,7.12502,19.7335,-12.4706,-9.52179e-14,-6.83819e-14,-56.4068,28.8056,52.2804,27.7628,-3.27358,0.669129,19.111,7.12502,26.2311,47.3181,-13.3925,-4.85187,32.7145,35.2674,38.7327,-23.3194,26.4176,-38.1283,3.57892,-29.3855,31.1421,-40.4902,28.1472,20.6034
1.43796,17.2433,34.298,-158.945,-53.7194,-174.002,-17.7295,5.13079,-1.60507,-10.52,5.94075,-0.697231,-1.47521,2.58399,1.11377,-14.0166,1.95624,0.805261,32.1086,0.139198,3.75204,13.081,0.202413,1.23747,-9.10185e-14,-1.15295e-14,-54.3597,-30.1723,-49.064,9.75806,25.316,-5.50754,16.1079,7.12502,20.3057,-12.8506,-9.10185e-14,-1.15295e-14,-56.3054,28.5855,52.261,27.9033,-3.0511,0.687771,18.9774,7.12502,26.249,47.1818,-13.4094,-4.84258,32.8185,35.2834,38.7358,-23.1709,25.9769,-38.1609,3.5679,-29.2866,31.1779,-40.5725,28.1229,20.8543
1.43749,17.2414,34.2969,-158.851,-53.747,-174.099,-17.7682,5.10232,-1.68692,-10.5804,5.90508,-0.729214,-1.52548,2.56545,1.11999,-14.105,1.94843,0.668062,32.283,0.0821329,3.93521,13.1744,0.18109,1.32734,-1.46604e-14,3.49861e-14,-54.521,-30.0918,-49.0473,9.63073,25.7094,-5.63116,16.2529,7.12502,20.1869,-12.7182,-1.46604e-14,3.49861e-14,-56.365,28.3077,52.2933,28.192,-2.53928,0.489407,18.9736,7.12502,26.0591,47.2061,-13.3895,-4.93768,32.7913,35.2533,38.5765,-23.0206,25.7343,-38.1665,3.4356,-29.2959,31.196,-40.7748,28.0867,20.9673
1.43415,17.2419,34.2947,-158.847,-53.8413,-174.115,-17.8176,5.07073,-1.72257,-10.6113,5.863,-0.729038,-1.53649,2.54382,1.13566,-13.9927,1.94991,0.841252,32.2231,0.0707605,3.83865,13.1268,0.182952,1.25529,-3.07868e-14,-3.26007e-14,-54.6777,-30.0378,-48.9929,9.66227,25.8084,-4.95325,16.216,7.12502,20.8383,-12.6849,-3.07868e-14,-3.26007e-14,-56.2977,27.9398,52.5297,28.4522,-1.91461,0.140393,19.1317,7.12502,25.7248,47.4131,-13.3373,-5.01612,32.823,35.2225,38.4213,-23.0515,25.9107,-38.1423,3.45641,-29.3025,31.2271,-41.0321,27.6498,21.4928
1.43431,17.2402,34.2922,-158.999,-53.9042,-173.924,-17.88,5.06772,-1.62961,-10.6047,5.84424,-0.671414,-1.49296,2.53077,1.14702,-13.9157,1.98194,0.790068,32.0572,0.129828,3.91192,13.0379,0.215258,1.2989,-5.36719e-14,-1.5704e-14,-54.5833,-30.0439,-49.0032,9.67822,25.4952,-4.28434,15.8881,7.12502,21.4809,-12.9409,-5.36719e-14,-1.5704e-14,-56.2695,27.859,52.6066,28.6462,-1.69565,0.148935,19.1984,7.12502,25.733,47.4786,-13.3291,-5.00302,32.966,35.1949,38.308,-23.1089,25.9865,-38.1926,3.73313,-29.2708,31.266,-40.891,27.3997,21.6856
1.43397,17.237,34.2932,-158.986,-53.9586,-173.937,-17.8773,5.08641,-1.61366,-10.6271,5.86407,-0.68532,-1.51601,2.53893,1.12554,-13.9274,1.91549,0.72628,31.9525,0.0668943,3.91077,12.9969,0.18316,1.29921,-4.45899e-14,1.35174e-14,-54.5175,-30.1073,-48.9308,9.84321,24.7306,-3.29664,15.03,7.12502,22.4293,-13.6877,-4.45899e-14,1.35174e-14,-56.2033,27.8137,52.5956,28.7737,-1.76359,0.246336,19.1939,7.12502,25.8263,47.4606,-13.3268,-5.08416,32.9724,35.181,38.1519,-23.2441,26.2044,-38.2401,3.99984,-29.3982,31.2776,-40.3018,27.5597,20.9048
1.43313,17.2367,34.2955,-158.887,-53.9921,-174.036,-17.8788,5.13849,-1.63739,-10.6758,5.93112,-0.774239,-1.56295,2.56941,1.05391,-13.8862,1.78283,0.764491,31.8746,-0.122759,3.88542,12.9603,0.101298,1.25282,-9.78021e-14,-2.42517e-14,-54.7614,-30.2472,-48.8097,9.83148,25.0472,-3.298,14.9751,7.12502,22.4279,-13.7428,-9.78021e-14,-2.42517e-14,-56.0392,27.5553,52.7363,29.005,-1.55539,-0.131926,19.2494,7.12502,25.464,47.5682,-13.3509,-5.17086,32.9354,35.191,38.2488,-23.0308,25.9729,-38.253,3.94342,-29.4487,31.2676,-40.1834,27.6407,20.6845
1.43807,17.2383,34.2944,-158.878,-53.9296,-174.043,-17.8505,5.17369,-1.70835,-10.7032,5.98458,-0.785179,-1.61571,2.59896,1.08601,-12.8586,1.4414,2.26503,30.8069,-0.51535,2.63389,12.313,-0.0610374,0.437706,3.01407e-14,3.4191e-14,-54.7451,-30.3569,-48.7893,10.1107,23.9781,-1.56246,14.1284,7.12502,24.093,-14.3789,3.01407e-14,3.4191e-14,-55.9909,27.4736,52.7895,29.2671,-1.26783,-0.405594,19.1586,7.12502,25.2018,47.5146,-13.3762,-4.9614,32.9778,35.211,38.5716,-22.6417,24.5315,-38.2886,4.00947,-29.4796,31.2626,-39.9639,27.9458,19.9706
1.43863,17.2399,34.2952,-158.758,-53.9397,-174.175,-17.8474,5.19695,-1.76375,-10.7269,6.02126,-0.852307,-1.64283,2.61733,1.05056,-12.4806,1.31672,2.48978,30.231,-0.643946,2.49947,12.0028,-0.108769,0.327617,-5.69518e-14,-4.9895e-14,-54.7805,-30.1793,-49.066,9.91394,24.3912,-2.40246,14.8129,7.12502,23.2873,-13.7988,-5.69518e-14,-4.9895e-14,-55.8354,27.3258,52.8392,29.4801,-0.961484,-0.310354,19.1646,7.12502,25.2931,47.5078,-13.4085,-4.66669,32.947,35.2556,38.383,-23.1137,24.6157,-38.3034,4.09634,-29.6284,31.2429,-39.7179,28.1188,19.6032
1.43601,17.2377,34.2951,-158.915,-54.031,-174.062,-17.8136,5.26731,-1.64537,-10.7502,6.09706,-0.931949,-1.66481,2.64772,0.91044,-12.263,1.25278,2.32361,29.8448,-0.738836,2.79438,11.8059,-0.132495,0.452348,5.24792e-14,4.69132e-14,-54.7238,-30.1223,-49.3169,9.92961,23.6349,-0.804834,14.3767,7.12502,24.8193,-14.0326,5.24792e-14,4.69132e-14,-55.6673,27.0873,52.8267,29.7239,-0.997315,0.201176,19.118,7.12502,25.7831,47.3909,-13.3763,-4.81672,33.0456,35.3475,38.5192,-22.6704,24.2623,-38.2386,4.17181,-29.571,31.2569,-39.5562,28.0445,19.5386
1.43661,17.2374,34.2963,-158.872,-54.0408,-174.158,-17.8226,5.25858,-1.65981,-10.7292,6.09152,-0.984949,-1.63266,2.64476,0.864078,-11.8633,1.27027,2.13216,29.0893,-0.628927,2.98664,11.427,-0.0772907,0.568068,2.88238e-15,-1.23246e-14,-54.3662,-29.9377,-49.7396,10.0187,22.5933,-2.25933,14.7149,7.12502,23.4246,-13.8793,2.88238e-15,-1.23246e-14,-55.5446,27.0843,52.797,29.9174,-0.999814,-0.0156367,19.058,7.12502,25.5754,47.3609,-13.3925,-4.85131,32.9957,35.4219,38.5628,-22.4951,24.4259,-38.1508,4.14971,-29.6154,31.1793,-39.6051,27.8644,19.8365
1.44008,17.2298,34.2996,-158.594,-53.9793,-174.492,-17.8074,5.17803,-1.7993,-10.7298,6.00413,-1.01185,-1.65156,2.60608,0.897854,-11.3556,1.32399,2.47638,28.4616,-0.483372,2.72569,11.0823,-0.00829468,0.428047,-3.01159e-14,-3.97569e-14,-54.586,-30.4552,-49.0101,10.0022,23.5685,1.52409,13.5952,7.12502,27.0494,-14.4875,-3.01159e-14,-3.97569e-14,-55.5272,27.094,52.8421,30.1236,-0.64077,-0.638637,18.9906,7.12502,24.9785,47.3778,-13.498,-5.63131,32.7031,35.5302,38.9286,-21.316,23.2802,-38.1345,4.03343,-29.8077,31.1574,-39.8945,27.6896,20.4259
1.44034,17.2379,34.2992,-158.404,-53.9099,-174.717,-17.8082,5.14851,-1.94936,-10.7415,5.9839,-1.01427,-1.68018,2.60217,0.97392,-11.4307,1.45806,1.90656,28.3592,-0.188068,2.91437,11.0524,0.094157,0.633171,3.65267e-15,2.74323e-14,-54.4453,-30.3011,-49.1665,10.0707,23.3999,-1.0354,14.5836,7.12502,24.5983,-13.856,3.65267e-15,2.74323e-14,-55.4614,26.9824,53.0116,30.3787,-0.146121,-0.933004,19.1614,7.12502,24.6964,47.5876,-13.5081,-4.69064,32.6449,35.5941,38.344,-22.7155,24.2321,-38.1003,4.1177,-29.9955,31.0662,-39.7819,27.7699,20.2947
1.44532,17.2347,34.3032,-158.541,-53.8577,-174.564,-17.8102,5.16266,-1.94546,-10.709,6.00559,-0.911921,-1.65583,2.61754,1.08349,-11.4541,1.48782,1.32545,28.0684,-0.0451209,3.18463,10.9404,0.137854,0.848745,-4.84786e-14,-3.04141e-14,-53.8581,-29.705,-49.9661,10.0635,22.5384,-2.37888,15.4129,7.12502,23.31,-13.1959,-4.84786e-14,-3.04141e-14,-55.3548,26.9431,53.2514,30.6725,0.141517,-0.95275,19.2942,7.12502,24.6775,47.7229,-13.57,-4.69757,32.7211,35.6773,38.3372,-22.8112,24.6382,-38.1118,4.11733,-29.9096,31.0198,-39.6457,28.0989,19.7966
1.44633,17.2343,34.3072,-158.607,-53.8202,-174.488,-17.8615,5.18204,-1.87223,-10.6502,6.02839,-0.899455,-1.5595,2.62719,1.06686,-11.3218,1.42771,1.05225,27.5603,-0.0723814,3.40171,10.7211,0.129201,0.966657,8.65956e-15,1.53064e-14,-53.7626,-29.7275,-49.975,9.98948,22.8265,-2.38574,15.4183,7.12502,23.3034,-13.1913,8.65956e-15,1.53064e-14,-55.1808,27.0016,53.3253,30.8767,0.203988,-1.02935,19.3358,7.12502,24.6041,47.7746,-13.5848,-4.64156,32.7565,35.6893,38.4825,-22.625,23.9887,-38.0799,4.08492,-29.8569,30.9379,-39.6558,28.1976,19.5936
1.44866,17.2364,34.3071,-158.533,-53.8219,-174.597,-17.8543,5.16408,-1.93906,-10.6501,6.01498,-0.929913,-1.56679,2.62286,1.0691,-11.1937,1.34626,0.950464,27.1795,-0.144575,3.47342,10.5543,0.0978252,0.99745,-5.2181e-15,6.55989e-15,-53.7701,-29.7632,-49.9983,9.97544,23.0381,-2.02214,15.4396,7.12502,23.6522,-13.1255,-5.2181e-15,6.55989e-15,-55.0738,26.9559,53.3528,31.0801,0.35903,-1.08257,19.2155,7.12502,24.5531,47.6612,-13.5978,-4.557,32.7081,35.726,38.4608,-22.6349,23.1272,-38.0491,4.03241,-29.8947,30.9194,-39.8699,28.0043,20.1545
1.45004,17.2381,34.3075,-158.467,-53.7677,-174.699,-17.7948,5.18304,-2.00285,-10.6907,6.04453,-0.98389,-1.64339,2.63861,1.04549,-11.0504,1.26302,0.906029,26.8179,-0.230154,3.52682,10.3936,0.0628854,1.01024,-5.2914e-14,-4.39314e-14,-53.8596,-29.7629,-49.9464,9.99539,23.0525,-1.66374,15.4849,7.12502,23.9959,-13.0353,-5.2914e-14,-4.39314e-14,-55.0315,26.9065,53.2776,31.3901,0.466341,-0.979949,19.12,7.12502,24.6514,47.5523,-13.6206,-4.4031,32.6413,35.7745,38.4326,-22.7526,22.8561,-38.016,3.97726,-29.9369,30.9164,-40.0679,27.936,20.5367
1.45126,17.2376,34.3067,-158.512,-53.7164,-174.662,-17.7632,5.19816,-1.99895,-10.7375,6.05681,-1.00518,-1.70798,2.64239,1.01815,-10.6948,1.16831,1.22695,26.2824,-0.329546,3.32607,10.1311,0.0256234,0.866495,1.76421e-14,1.86858e-14,-53.9476,-29.7606,-49.975,10.0091,23.1328,-1.60719,15.4173,7.12502,24.0501,-13.0958,1.76421e-14,1.86858e-14,-55.0703,26.9802,52.9477,31.6322,0.367105,-0.509998,19.0803,7.12502,25.1018,47.4503,-13.6063,-3.95234,32.6909,35.8097,38.3578,-23.0852,22.9787,-38.0019,4.13618,-29.9616,30.9021,-40.1089,27.7511,20.6816
1.45353,17.2349,34.3064,-158.497,-53.6954,-174.711,-17.7551,5.15996,-2.07182,-10.7708,6.01132,-1.03492,-1.75184,2.62057,1.01791,-10.2042,1.05331,1.84537,25.6492,-0.466509,2.954,9.81089,-0.0232777,0.608873,-2.82274e-14,2.06736e-14,-54.1909,-29.9344,-49.7375,10.0157,23.6932,-2.01788,15.6759,7.12502,23.6562,-12.8886,-2.82274e-14,2.06736e-14,-55.0766,26.8874,52.8138,31.9143,0.440436,-0.427684,19.0339,7.12502,25.1807,47.3929,-13.6352,-4.71992,32.5754,35.8395,38.9705,-21.8517,22.1947,-38.0062,4.20936,-30.0133,30.922,-39.8621,27.8929,20.2911
1.45321,17.2379,34.3078,-158.467,-53.6641,-174.75,-17.7676,5.172,-2.11421,-10.7836,6.03134,-1.07242,-1.76071,2.63072,1.00537,-10.0036,0.922537,1.8558,25.254,-0.62565,2.99677,9.63256,-0.0920807,0.602131,2.34069e-14,4.92986e-14,-54.4391,-30.2251,-49.3352,10.0468,24.2247,-2.21696,15.7672,7.12502,23.4653,-12.8218,2.34069e-14,4.92986e-14,-54.9328,26.7051,52.9894,32.2098,0.68781,-0.768893,19.1343,7.12502,24.8537,47.5389,-13.6238,-4.34527,32.5666,35.8564,38.7934,-22.5507,23.3317,-38.0052,4.0459,-29.9854,30.9526,-39.8952,28.0962,20.1865
1.45023,17.241,34.3097,-158.599,-53.7298,-174.542,-17.8072,5.20981,-1.98777,-10.8292,6.05563,-1.06057,-1.77764,2.63457,0.953062,-10.0167,0.892568,1.40124,25.0883,-0.659157,3.39677,9.57659,-0.104689,0.814324,-9.03476e-14,-6.0033e-14,-54.5553,-30.2236,-49.2143,10.098,24.415,-2.08476,15.7567,7.12502,23.5921,-12.816,-9.03476e-14,-6.0033e-14,-54.7171,26.3938,53.3102,32.424,1.15668,-1.35892,19.2697,7.12502,24.2881,47.7511,-13.6524,-4.06369,32.7235,35.8494,38.4871,-23.4317,24.2764,-38.0221,3.81852,-29.7551,30.9618,-40.2673,27.9524,20.8229
1.44983,17.2412,34.3121,-158.749,-53.7749,-174.412,-17.7617,5.20247,-1.8858,-10.8259,6.03228,-1.0106,-1.79039,2.62048,0.942368,-10.1816,0.98291,0.786524,25.0722,-0.531827,3.91499,9.59977,-0.0420562,1.11425,-7.0817e-15,1.59028e-14,-54.4032,-30.1778,-49.2921,9.95314,24.5411,-2.0353,15.7396,7.12502,23.6395,-12.8271,-7.0817e-15,1.59028e-14,-54.6406,26.4031,53.4143,32.6469,1.39925,-1.32019,19.2083,7.12502,24.3253,47.6847,-13.6465,-4.45236,32.7419,35.8513,38.6595,-23.0181,23.5669,-37.9622,3.75335,-29.6321,30.9512,-40.4138,27.9208,20.9267
1.4496,17.2462,34.312,-158.664,-53.7353,-174.541,-17.7371,5.1748,-1.98196,-10.8292,6.00898,-1.02318,-1.81556,2.61325,0.976272,-9.64553,0.961957,0.813209,24.1747,-0.443851,3.79302,9.17921,-0.0120601,1.06835,8.41356e-14,5.12864e-14,-54.2881,-30.0774,-49.354,9.88693,24.4778,-1.86727,15.7231,7.12502,23.8007,-12.8226,8.41356e-14,5.12864e-14,-54.5378,26.3554,53.4653,32.8675,1.47415,-1.06577,19.1721,7.12502,24.5692,47.6156,-13.5997,-3.81418,32.6955,35.8253,38.2988,-24.1148,25.3126,-37.8964,3.65452,-29.6806,30.8944,-40.4994,27.9757,20.9132
1.45006,17.244,34.3166,-158.769,-53.747,-174.444,-17.719,5.12414,-1.93541,-10.8445,5.93171,-0.963122,-1.84044,2.5732,0.999698,-8.90238,0.804578,1.56625,23.4079,-0.626732,3.31455,8.77806,-0.0918305,0.750779,6.07287e-14,2.62396e-14,-54.0989,-29.8818,-49.4937,9.83137,24.5121,-1.86114,15.6828,7.12502,23.8066,-12.8622,6.07287e-14,2.62396e-14,-54.6362,26.5316,53.2514,32.9992,1.16228,-0.99051,18.9334,7.12502,24.6413,47.367,-13.6215,-3.97423,32.7119,35.8625,38.3906,-23.9723,25.6356,-37.8933,3.5651,-29.6074,30.9084,-40.5991,28.0491,21.0854
1.44564,17.248,34.321,-158.884,-53.7892,-174.312,-17.7452,5.04384,-1.84395,-10.8729,5.80515,-0.886859,-1.85212,2.50475,1.0109,-8.25048,0.722422,1.92691,22.6353,-0.647641,2.95292,8.39255,-0.115184,0.561798,-3.69988e-14,-1.19271e-15,-53.8854,-29.6263,-49.7159,9.745,24.17,-2.0114,15.834,7.12502,23.6625,-12.7297,-3.69988e-14,-1.19271e-15,-54.7723,26.6269,53.1157,33.2087,1.3873,-1.05793,18.8298,7.12502,24.5767,47.2723,-13.6233,-3.78782,32.7796,35.9018,38.0701,-24.532,26.3728,-37.903,3.56281,-29.5571,30.9213,-40.3768,28.3219,20.523
1.44557,17.2398,34.3285,-159.002,-53.8305,-174.139,-17.8107,4.97452,-1.67519,-10.8624,5.68691,-0.795257,-1.79491,2.43791,1.00158,-8.13907,0.659306,1.74886,22.4218,-0.727546,3.12837,8.30066,-0.152873,0.642099,9.60875e-14,4.92986e-14,-53.312,-29.4242,-49.9833,9.42525,23.3179,-1.57508,16.1293,7.12502,24.0809,-12.3797,9.60875e-14,4.92986e-14,-54.7296,26.5683,53.336,33.5511,2.46186,-1.41431,19.0835,7.12502,24.235,47.572,-13.7148,-4.40441,32.8098,36.0064,38.3352,-23.6837,25.7327,-37.9979,3.36501,-29.4012,31.0283,-40.4426,28.4951,20.4026
1.446,17.235,34.3326,-159.042,-53.84,-174.1,-17.7935,4.939,-1.67542,-10.8932,5.63407,-0.734602,-1.84222,2.41186,1.05436,-8.07546,0.67564,1.08194,22.0474,-0.611739,3.40785,8.16013,-0.122334,0.858046,-6.64438e-14,-5.4467e-14,-52.8731,-29.28,-50.0621,9.09242,22.8999,-1.40914,16.251,7.12502,24.24,-12.2369,-6.64438e-14,-5.4467e-14,-54.7141,26.5362,53.4507,33.7948,2.94657,-1.92835,19.2571,7.12502,23.7421,47.8105,-13.8091,-5.03074,32.7462,36.1414,38.5021,-23.008,25.529,-38.039,3.29496,-29.3473,31.163,-40.8849,28.0567,21.2282
1.45001,17.2333,34.3324,-159.129,-53.8301,-173.917,-17.8179,4.96063,-1.68959,-10.9613,5.65295,-0.699103,-1.91013,2.41973,1.10077,-8.15121,0.589124,0.632985,21.903,-0.699653,3.67814,8.12665,-0.171218,1.01552,1.01132e-14,8.54774e-15,-52.8518,-29.1898,-49.9965,9.10052,23.24,-1.84685,16.2365,7.12502,23.8203,-12.3067,1.01132e-14,8.54774e-15,-54.7961,26.6956,53.112,33.9268,1.95766,-1.01961,19.0609,7.12502,24.6134,47.4984,-13.9529,-5.14461,32.846,36.2252,38.621,-22.6904,25.3237,-38.2085,3.3891,-29.2461,31.2938,-41.0083,27.8714,21.5124
1.45499,17.2257,34.3343,-159.064,-53.7711,-173.943,-17.8654,4.91349,-1.7929,-10.9838,5.59916,-0.663788,-1.92372,2.39653,1.18888,-8.1781,0.514264,0.39383,21.7749,-0.785654,3.83419,8.09036,-0.214972,1.09937,9.39258e-15,-1.33186e-14,-52.762,-28.9948,-50.0834,9.20031,23.4529,-2.30049,16.2194,7.12502,23.3852,-12.3799,9.39258e-15,-1.33186e-14,-54.5391,26.2113,53.9271,34.3703,3.75529,-2.61582,19.653,7.12502,23.0826,48.2904,-14.0633,-5.54912,32.7722,36.2637,38.9151,-22.1478,25.1597,-38.3524,3.45088,-29.291,31.3858,-40.9717,27.9347,21.37
1.45205,17.2358,34.3322,-159.108,-53.751,-173.876,-17.8919,4.8437,-1.77666,-11.0114,5.49767,-0.633089,-1.93833,2.34294,1.19756,-8.03048,0.48237,0.629459,21.6016,-0.829266,3.70518,8.00607,-0.231745,1.01132,8.69434e-14,2.10712e-14,-52.5739,-28.7279,-50.2765,9.26268,23.3148,-1.98015,15.9131,7.12502,23.6924,-12.6467,8.69434e-14,2.10712e-14,-54.78,26.6335,53.2263,34.3125,2.36434,-1.37646,19.0143,7.12502,24.2713,47.4979,-14.0014,-5.13757,32.8364,36.1971,38.573,-22.9667,26.1306,-38.3438,3.33039,-29.1787,31.4131,-41.1033,28.0203,21.4464
1.45235,17.2377,34.3293,-159.214,-53.7752,-173.789,-17.8484,4.85762,-1.7333,-11.0442,5.50753,-0.731117,-1.98148,2.34218,1.06816,-7.99286,0.32985,1.07934,21.4788,-1.06901,3.52272,7.96189,-0.328208,0.852245,-2.01269e-14,-3.97569e-15,-52.714,-28.7381,-50.3584,9.29916,23.5832,-1.96273,15.6579,7.12502,23.7091,-12.8997,-2.01269e-14,-3.97569e-15,-54.2685,25.773,54.1197,34.7119,4.46834,-3.33807,19.7139,7.12502,22.3895,48.4364,-13.8816,-4.95702,32.9332,36.1112,38.4918,-23.0695,25.7576,-38.3194,3.39083,-29.1214,31.4461,-40.9328,28.087,21.1204
1.45304,17.2343,34.3295,-159.174,-53.7786,-173.761,-17.8715,4.84527,-1.75173,-11.1095,5.4829,-0.764026,-2.03871,2.32593,1.03905,-8.15514,0.238544,0.90706,21.5304,-1.20998,3.69406,8.0122,-0.390151,0.925385,-9.10931e-14,-1.27222e-14,-52.8382,-28.5849,-50.3762,9.32204,24.1666,-2.23843,15.7218,7.12502,23.4447,-12.8699,-9.10931e-14,-1.27222e-14,-54.0389,25.3466,54.488,34.8831,5.22654,-3.98752,19.9451,7.12502,21.7659,48.7413,-13.8778,-4.91985,32.973,36.0076,38.5864,-22.9406,25.4474,-38.4061,3.50588,-29.1816,31.4325,-40.6276,28.2489,20.5692
1.45226,17.2335,34.3315,-159.176,-53.7772,-173.644,-17.9733,4.83524,-1.74682,-11.1343,5.46177,-0.733807,-2.01592,2.31255,1.07104,-8.48356,0.167101,0.392251,21.6836,-1.32945,4.1258,8.12944,-0.441009,1.14554,-2.9768e-14,1.86858e-14,-52.8096,-28.4526,-50.3917,9.38452,24.4686,-2.47569,15.7342,7.12502,23.2171,-12.8864,-2.9768e-14,1.86858e-14,-53.8729,25.1843,54.749,35.0263,5.60792,-4.08171,20.0399,7.12502,21.6755,48.8465,-13.9589,-4.87053,33.0457,35.9831,38.5505,-23.1042,25.7073,-38.5083,3.46623,-29.1166,31.4234,-40.5304,28.4028,20.271
1.45265,17.2301,34.3398,-159.179,-53.7756,-173.621,-17.9447,4.79031,-1.7288,-11.1512,5.39596,-0.660447,-2.05255,2.28014,1.12518,-8.96084,0.108245,-0.545084,22.0261,-1.42213,4.79057,8.34099,-0.488389,1.52023,-8.63471e-14,-4.69132e-14,-52.462,-28.2247,-50.4537,9.43098,23.8127,-2.45082,15.41,7.12502,23.2409,-13.2076,-8.63471e-14,-4.69132e-14,-53.9574,25.2688,54.746,35.2236,5.32964,-3.41634,19.7445,7.12502,22.3143,48.476,-14.0063,-4.90334,33.0409,36.0188,38.6095,-22.8863,25.2388,-38.54,3.38456,-29.1082,31.3936,-40.5678,28.4806,20.1536
1.45201,17.229,34.3451,-158.987,-53.707,-173.874,-17.9186,4.78826,-1.87579,-11.1481,5.41579,-0.715884,-2.07293,2.2966,1.14934,-8.44602,-0.186656,0.71919,21.4517,-1.79913,3.84838,8.05142,-0.664904,0.952936,-9.39258e-14,-3.22031e-14,-52.0509,-28.1717,-50.4287,9.4901,22.0903,-1.26701,14.2784,7.12502,24.3763,-14.1912,-9.39258e-14,-3.22031e-14,-53.9986,25.3969,54.4147,35.2975,3.93575,-2.086,19.2765,7.12502,23.5909,47.8494,-14.0067,-4.93975,32.8433,36.0504,38.7365,-22.4845,24.4444,-38.519,3.2339,-29.2484,31.3662,-40.5561,28.733,19.9051
1.45142,17.2313,34.3447,-158.878,-53.7183,-173.99,-17.9311,4.81316,-1.92763,-11.1475,5.45836,-0.847858,-2.05897,2.31654,1.04715,-8.20877,-0.370559,1.72459,21.1227,-2.06966,3.26323,7.89157,-0.774566,0.565165,3.17559e-14,3.22031e-14,-52.5912,-28.1801,-50.3711,9.53844,23.5046,-3.90127,15.9233,7.12502,21.8488,-12.8632,3.17559e-14,3.22031e-14,-53.8928,25.3836,54.1276,35.4105,2.93818,-1.19497,19.0243,7.12502,24.4453,47.4846,-14.0573,-4.88828,32.7575,36.0943,38.5924,-22.8405,25.0338,-38.4995,3.15531,-29.3047,31.3221,-40.5714,28.7919,19.781
1.45053,17.2343,34.3418,-159.147,-53.8426,-173.673,-17.9343,4.78311,-1.77979,-11.1535,5.39651,-0.784804,-2.05279,2.27968,1.02244,-8.36667,-0.449506,1.65665,21.2392,-2.20274,3.35821,7.96226,-0.831871,0.594803,-1.36664e-15,4.57205e-14,-52.4979,-28.1026,-50.4594,10.146,21.4808,-2.09141,15.0164,7.12502,23.5857,-13.5572,-1.36664e-15,4.57205e-14,-53.814,25.152,54.292,35.5976,3.12062,-1.16545,19.0803,7.12502,24.4736,47.5367,-14.0655,-4.87111,32.9732,36.1014,38.4562,-23.0951,25.6987,-38.48,3.16999,-29.0728,31.3157,-40.95,28.3655,20.8804
1.44968,17.2331,34.3429,-159.126,-53.8577,-173.685,-17.9863,4.71338,-1.81695,-11.1019,5.31557,-0.718545,-1.97802,2.24403,1.10586,-8.98826,-0.489127,0.93725,21.6892,-2.28023,3.82904,8.23848,-0.867396,0.862516,-7.78987e-14,-5.52621e-14,-51.6726,-26.4521,-52.4116,10.2089,20.4393,-4.49494,15.3018,7.12502,21.2786,-13.5501,-7.78987e-14,-5.52621e-14,-53.7484,25.0982,54.5882,35.7325,3.37435,-1.27877,18.9752,7.12502,24.365,47.4463,-14.0574,-4.92399,32.9566,36.0531,38.5144,-22.9284,25.6342,-38.5303,3.30348,-29.1431,31.3865,-41.1597,27.9462,21.4797
1.44837,17.2317,34.3459,-159.076,-53.8412,-173.72,-18.0083,4.61812,-1.83717,-11.0774,5.19396,-0.66528,-1.94334,2.18535,1.1569,-9.73457,-0.508371,0.251329,22.3463,-2.3581,4.32928,8.61193,-0.896224,1.13711,3.4514e-14,2.06736e-14,-51.0478,-25.2639,-53.742,10.3575,19.1775,-5.13386,15.0521,7.12502,20.6648,-13.8678,3.4514e-14,2.06736e-14,-53.6315,24.8484,54.9942,35.7545,3.9048,-1.90065,18.798,7.12502,23.7687,47.3479,-14.0169,-5.04031,32.9178,35.9683,38.5361,-22.8066,25.3084,-38.6356,3.40097,-29.2251,31.5009,-40.9195,28.0852,21.1016
1.44833,17.2319,34.3473,-159.426,-53.9473,-173.246,-18.0206,4.56533,-1.53325,-11.0939,5.07573,-0.588084,-1.92827,2.11107,1.05222,-10.1966,-0.612928,0.171328,22.8147,-2.5759,4.48208,8.86719,-0.982766,1.17924,-7.2954e-14,-1.39149e-14,-50.6769,-24.275,-54.8675,10.7106,17.7065,-4.57884,14.297,7.12502,21.198,-14.5639,-7.2954e-14,-1.39149e-14,-53.5292,24.5862,55.1099,35.7041,4.41843,-2.03284,18.8049,7.12502,23.6419,47.3713,-14.0184,-5.09549,33.2369,35.8866,38.7858,-22.4963,24.5474,-38.7188,3.08655,-28.7669,31.6024,-41.1242,28.173,21.7525
1.44713,17.2354,34.3504,-159.609,-53.9816,-173.02,-17.9511,4.54901,-1.35893,-11.1444,5.0227,-0.61058,-1.99777,2.07314,0.917804,-10.2848,-0.779655,0.768358,22.9972,-2.87807,4.15705,8.94392,-1.10845,0.934775,-3.15571e-14,1.98785e-14,-50.8868,-24.3365,-54.7333,10.981,16.8183,-3.48291,13.971,7.12502,22.2504,-14.7682,-3.15571e-14,1.98785e-14,-53.4263,24.1491,55.17,35.626,4.98849,-1.82156,18.7577,7.12502,23.8445,47.2977,-14.0141,-5.03173,33.35,35.8256,38.6872,-22.8094,25.147,-38.7539,3.01262,-28.5774,31.6982,-41.2502,28.0981,21.7823
1.44703,17.2359,34.3523,-159.482,-53.9357,-173.229,-17.8668,4.491,-1.48931,-11.1739,4.96265,-0.702158,-2.07517,2.04647,0.878235,-10.6812,-0.862381,0.821899,23.4917,-3.08952,4.25453,9.19641,-1.18657,0.933671,-2.80038e-14,-3.18055e-15,-51.8648,-26.2827,-52.2273,11.0973,16.8984,-1.5802,14.5853,7.12502,24.076,-13.9244,-2.80038e-14,-3.18055e-15,-53.3331,23.8639,55.085,35.4105,5.30716,-1.73556,18.5313,7.12502,23.927,47.0606,-13.9439,-5.08759,33.1928,35.7662,38.7705,-22.8176,25.869,-38.7479,3.04374,-28.7399,31.7853,-41.2801,28.043,21.6377
1.44769,17.2346,34.3561,-159.449,-53.8878,-173.252,-17.8532,4.43429,-1.49269,-11.1949,4.88356,-0.699758,-2.10339,2.00524,0.869086,-11.3509,-0.898287,-0.226376,24.152,-3.17818,5.00488,9.58324,-1.2264,1.35864,-8.14272e-14,-4.09496e-14,-51.532,-25.0236,-53.6947,11.2662,15.4101,-5.73941,16.0388,7.12502,20.0828,-12.9433,-8.14272e-14,-4.09496e-14,-53.2078,23.5637,55.2225,35.0245,5.81139,-1.81999,18.1582,7.12502,23.846,46.6981,-13.9486,-5.12288,33.1699,35.7517,39.0112,-22.5085,25.6265,-38.7954,3.11996,-28.7948,31.8282,-41.2008,28.0395,21.3963
1.44772,17.2343,34.3613,-159.657,-53.8688,-173.008,-17.8738,4.37253,-1.36433,-11.1211,4.79202,-0.560192,-2.01073,1.95958,0.934471,-11.5043,-1.1557,0.52249,24.3533,-3.60831,4.49576,9.67747,-1.4136,1.0031,-4.96216e-14,-1.98785e-15,-50.9677,-23.626,-55.1924,11.0799,14.8155,-8.73543,16.8315,7.12502,17.2011,-12.4272,-4.96216e-14,-1.98785e-15,-53.0076,23.3013,55.6472,34.613,6.64378,-1.94545,17.9667,7.12502,23.7257,46.5222,-13.9459,-5.16267,33.2877,35.7469,39.1788,-22.2091,24.7205,-38.8025,3.02938,-28.6047,31.8382,-41.4043,28.0077,21.75
1.44985,17.2347,34.3652,-159.776,-53.8393,-172.851,-17.8334,4.30626,-1.31655,-11.1159,4.69672,-0.439369,-2.02955,1.91329,1.01787,-12.0792,-1.30899,-0.172372,24.8411,-3.78554,4.74869,9.9826,-1.51668,1.18512,-1.37186e-13,-7.31528e-14,-50.7522,-23.3007,-55.2906,10.8907,14.7106,-6.6228,15.9881,7.12502,19.2336,-13.0809,-1.37186e-13,-7.31528e-14,-52.9392,23.032,56.0028,34.2401,7.54615,-2.1744,17.923,7.12502,23.5061,46.5068,-13.9837,-5.15989,33.3604,35.7577,39.142,-22.2475,24.9095,-38.8388,3.03655,-28.5169,31.8414,-41.5648,27.9435,22.111
1.44833,17.236,34.3676,-159.582,-53.8212,-173.08,-17.8235,4.22227,-1.45384,-11.1277,4.60307,-0.463492,-2.05513,1.87152,1.05352,-12.2021,-1.4574,0.252727,25.1371,-4.0558,4.44223,10.1074,-1.63675,0.97051,-4.47266e-15,-5.1684e-15,-50.8342,-23.3247,-55.1503,10.9332,14.1286,-6.52751,15.8216,7.12502,19.3252,-13.2381,-4.47266e-15,-5.1684e-15,-52.781,22.5764,56.288,33.7761,8.35729,-2.10473,17.8364,7.12502,23.5729,46.4117,-14.0303,-5.19204,33.2022,35.8155,39.093,-22.2069,24.4918,-38.8047,3.05647,-28.6974,31.7735,-41.3702,28.077,21.6731
1.44686,17.2392,34.3719,-159.533,-53.8417,-173.098,-17.8068,4.19992,-1.45251,-11.1762,4.56577,-0.467997,-2.11494,1.85017,1.03983,-12.3672,-1.71898,-0.483327,25.271,-4.40807,4.93447,10.2243,-1.81072,1.22365,3.27498e-14,3.81667e-14,-50.949,-22.6367,-55.7583,10.8215,13.6607,-10.1304,17.4861,7.12502,15.858,-11.8845,3.27498e-14,3.81667e-14,-52.5474,21.8833,56.7436,33.2194,9.33054,-2.04274,17.618,7.12502,23.6324,46.1856,-14.1104,-5.20066,33.1782,35.8634,38.989,-22.2857,23.9559,-38.8109,2.83471,-28.6527,31.7121,-41.1526,28.6338,20.7955
1.44648,17.2398,34.3741,-159.343,-53.8031,-173.27,-17.8412,4.16361,-1.554,-11.1767,4.53067,-0.48428,-2.10469,1.83618,1.07578,-12.7154,-2.0692,-1.27533,25.5173,-4.91873,5.54348,10.4353,-2.04522,1.50615,8.25453e-14,3.1408e-14,-50.7341,-21.8497,-56.5799,10.9526,12.3033,-12.7913,18.6119,7.12502,13.2943,-10.9441,8.25453e-14,3.1408e-14,-52.2585,21.3153,57.1867,32.5815,10.2396,-2.15517,17.4269,7.12502,23.5246,46.0084,-14.2075,-5.19863,33.0595,35.9057,39.0205,-22.2823,23.8261,-38.8206,2.75189,-28.7573,31.635,-41.1419,28.719,20.7387
1.44788,17.2393,34.3748,-159.429,-53.8379,-173.079,-17.8474,4.10095,-1.45587,-11.2263,4.42339,-0.384597,-2.15227,1.77685,1.10859,-12.8325,-2.32321,-1.34369,25.7943,-5.33238,5.61394,10.5822,-2.23539,1.48744,-4.64162e-14,-1.74931e-14,-50.7664,-21.3851,-56.8559,11.0787,11.631,-9.68891,16.2628,7.12502,16.2832,-13.0735,-4.64162e-14,-1.74931e-14,-52.2007,20.6606,57.7712,32.1519,11.2633,-2.33453,17.6763,7.12502,23.3525,46.2797,-14.2615,-5.20175,33.2164,35.9019,39.1472,-22.088,23.6343,-38.8774,2.64178,-28.5699,31.5938,-41.3849,28.429,21.6615
1.44676,17.2369,34.3809,-159.459,-53.8659,-173.057,-17.8033,4.0442,-1.40544,-11.2084,4.34396,-0.319922,-2.1538,1.73761,1.13461,-13.0621,-2.48522,-1.9123,25.9476,-5.47897,5.76808,10.7099,-2.3319,1.61818,-2.6165e-14,-2.22639e-14,-51.3263,-21.9112,-56.0756,11.0028,12.9231,-12.8512,17.8996,7.12502,13.2366,-11.6602,-2.6165e-14,-2.22639e-14,-51.9245,19.7841,58.5885,31.6008,12.4979,-2.49153,17.8679,7.12502,23.2019,46.4904,-14.2355,-5.32709,33.2216,35.876,39.3122,-21.8586,23.4843,-38.8656,2.5654,-28.5605,31.5807,-41.3492,28.5311,21.7323
1.44632,17.2377,34.3861,-159.39,-53.8654,-173.112,-17.8101,4.04403,-1.40422,-11.1971,4.34549,-0.343677,-2.13591,1.73793,1.10998,-13.0238,-2.8011,-1.4445,26.0062,-5.97869,5.45161,10.7237,-2.55672,1.3577,-9.23852e-14,1.03368e-14,-51.8051,-22.5342,-55.3961,11.4477,12.5733,-12.7094,17.2892,7.12502,13.3733,-12.2616,-9.23852e-14,1.03368e-14,-51.5851,18.9374,59.3537,31.0455,13.457,-2.86664,18.1568,7.12502,22.8419,46.8242,-14.2511,-5.32015,33.1595,35.8224,39.1768,-22.326,24.3131,-38.9273,2.53209,-28.6319,31.6176,-41.0535,28.9276,21.0147
1.44592,17.2411,34.3921,-159.551,-53.8707,-172.895,-17.7682,4.0192,-1.21995,-11.2277,4.28125,-0.309401,-2.17581,1.69541,1.03077,-13.2085,-3.02364,-2.14312,26.3043,-6.26972,5.81268,10.9192,-2.71292,1.56387,-3.26752e-14,3.18055e-14,-51.7385,-22.3561,-55.554,11.8218,10.4567,-12.0599,16.5789,7.12502,13.9993,-12.9298,-3.26752e-14,3.18055e-14,-51.424,18.0404,60.0811,30.5284,14.4999,-3.23179,18.4791,7.12502,22.4915,47.1893,-14.2504,-5.28392,33.2818,35.7756,39.4188,-21.9726,23.5714,-38.9499,2.43643,-28.4411,31.633,-41.4193,28.7039,21.5034
1.44723,17.2428,34.3977,-159.682,-53.8758,-172.736,-17.6354,3.94166,-1.11626,-11.2906,4.1555,-0.2043,-2.30864,1.62815,1.05563,-13.3261,-3.30027,-3.08882,26.578,-6.62004,6.31791,11.1148,-2.90718,1.85777,1.52567e-14,1.27222e-14,-51.3888,-20.1073,-57.9442,11.2571,9.75644,-18.1438,19.4799,7.12502,8.13152,-10.3436,1.52567e-14,1.27222e-14,-51.4291,16.9356,61.0693,30.1577,15.8579,-3.44412,18.9443,7.12502,22.2877,47.679,-14.2293,-5.30957,33.3555,35.7243,39.351,-22.0792,24.1116,-38.9519,2.36641,-28.2996,31.6266,-41.6598,28.544,21.8041
1.446,17.2447,34.4019,-159.72,-53.8987,-172.673,-17.4941,3.9343,-0.984519,-11.3995,4.11443,-0.237436,-2.4854,1.59537,0.931012,-12.9814,-3.65847,-2.90208,26.4089,-7.11558,6.07854,10.9944,-3.15697,1.67457,-4.91744e-14,2.78299e-14,-51.7385,-20.0447,-57.9229,11.7915,8.35295,-15.8632,17.4021,7.12502,10.3321,-12.3241,-4.91744e-14,2.78299e-14,-51.3982,15.4461,62.1308,29.8226,16.99,-3.67612,19.429,7.12502,22.065,48.1901,-14.2742,-5.2335,33.359,35.751,39.018,-22.7363,25.5653,-39.0041,2.50653,-28.3408,31.6519,-41.4344,28.6878,21.1661
1.44553,17.2468,34.4062,-159.788,-53.9357,-172.554,-17.4335,3.9033,-0.830074,-11.4485,4.04576,-0.247032,-2.555,1.54961,0.82069,-13.0612,-3.95121,-4.16291,26.5331,-7.44085,6.76229,11.1549,-3.34864,2.08991,7.7526e-15,-7.95139e-16,-51.7451,-18.6458,-59.5472,11.85,7.33943,-14.4942,15.9286,7.12502,11.6525,-13.7274,7.7526e-15,-7.95139e-16,-51.3351,13.8065,63.3397,29.5063,17.9785,-4.13594,19.925,7.12502,21.6234,48.7376,-14.35,-5.00309,33.4381,35.7976,38.7982,-23.2464,26.0805,-39.0649,2.55971,-28.3123,31.6757,-41.3239,28.7997,20.7518
1.45098,17.2355,34.4097,-159.689,-53.8455,-172.676,-17.4301,3.82375,-0.995715,-11.4038,3.96872,-0.18852,-2.52387,1.52393,0.964058,-13.3034,-4.2747,-5.25541,26.7923,-7.80207,7.24453,11.3953,-3.55807,2.39703,-7.62836e-15,-1.94809e-14,-51.2851,-16.3577,-62.0803,11.8494,4.64878,-18.2839,17.2228,7.12502,7.99633,-12.6059,-7.62836e-15,-1.94809e-14,-51.3012,12.6052,64.4627,29.2033,18.5737,-4.32243,20.2787,7.12502,21.4443,49.1119,-14.4826,-5.73408,33.2732,35.9357,39.4433,-21.7688,24.7017,-39.0914,2.72119,-28.4727,31.6488,-41.3015,28.5511,21.2295
1.45003,17.2338,34.4124,-159.674,-53.8033,-172.669,-17.4715,3.71758,-1.02967,-11.3568,3.8361,-0.0796794,-2.45864,1.46333,1.08139,-13.011,-4.6347,-3.84434,26.6009,-8.3377,6.08825,11.1837,-3.808,1.66252,-3.58309e-14,1.74931e-14,-50.8067,-13.5996,-65.0682,11.6023,2.05854,-21.7022,18.2057,7.12502,4.69629,-11.7222,-3.58309e-14,1.74931e-14,-51.3747,12.0349,65.2173,28.8594,18.5717,-4.37512,20.6867,7.12502,21.3937,49.5256,-14.6408,-6.05707,33.2233,36.1905,39.6699,-21.0192,24.0155,-39.0298,2.84217,-28.5125,31.4644,-41.3383,28.3448,21.7933
1.44749,17.2411,34.4147,-159.349,-53.7346,-173.038,-17.5086,3.60981,-1.26333,-11.3222,3.72892,-0.0860424,-2.41626,1.42234,1.19195,-13.0057,-5.07879,-4.35753,26.7396,-8.93618,6.25538,11.3068,-4.11432,1.72146,8.44835e-16,9.93923e-15,-50.9802,-15.3645,-62.9181,12.1073,0.925523,-17.7269,16.6354,7.12502,8.53393,-13.1721,8.44835e-16,9.93923e-15,-51.4004,11.0631,66.2176,28.5823,18.8962,-4.51725,21.1064,7.12502,21.2572,49.9608,-14.7231,-5.91771,32.9614,36.3341,39.4659,-21.3326,24.645,-39.0041,2.87698,-28.7816,31.4347,-41.1455,28.379,21.7651
1.44572,17.2432,34.4157,-157.951,-53.4215,-174.588,-17.701,3.40914,-2.31065,-11.3064,3.60599,-0.28056,-2.36309,1.4064,1.5628,-11.8614,-5.48086,-2.15521,25.5367,-9.31517,4.1986,10.4275,-4.34736,0.618553,4.5969e-14,-8.34896e-15,-51.1533,-15.087,-63.1687,12.0694,0.407751,-18.0488,17.2121,7.12502,8.22327,-12.6079,4.5969e-14,-8.34896e-15,-51.5593,9.58102,67.5957,28.614,19.9496,-4.84402,21.7053,7.12502,20.9433,50.5947,-14.9784,-6.18685,31.8701,36.4447,39.7514,-20.5454,23.9275,-39.0687,2.99988,-29.974,31.3629,-40.6907,28.6535,20.7505
1.45015,17.2376,34.4186,-159.407,-53.6453,-172.965,-17.4591,3.48983,-1.23155,-11.2918,3.56917,-0.0391484,-2.40428,1.34273,1.19872,-11.8654,-6.13333,-5.21372,25.5546,-10.0104,5.81975,10.7261,-4.76495,1.59453,9.24349e-15,1.94809e-14,-51.2805,-14.1102,-64.4048,12.3946,-0.654148,-19.452,17.6787,7.12502,6.86882,-12.1898,9.24349e-15,1.94809e-14,-51.7463,8.31864,68.7239,28.5965,20.6065,-5.07039,22.4727,7.12502,20.7258,51.386,-14.7496,-6.0246,32.9326,36.3546,39.7441,-20.4191,23.6512,-39.0262,2.88284,-28.7688,31.3928,-40.9821,28.7396,20.9859
1.45128,17.2402,34.4202,-159.836,-53.6696,-172.513,-17.3661,3.43641,-0.94765,-11.2591,3.46511,0.0729998,-2.40022,1.28117,1.13962,-12.2941,-6.77093,-8.54628,26.2923,-10.8957,8.01394,11.4996,-5.23092,2.78512,-3.97569e-14,-7.27552e-14,-51.3917,-12.9343,-65.761,12.7449,-1.80837,-22.3833,18.0332,7.12502,4.03866,-11.9082,-3.97569e-14,-7.27552e-14,-52.0118,7.34384,69.6948,28.5491,20.9184,-5.13336,23.0001,7.12502,20.6653,51.92,-14.6573,-5.70799,33.2205,36.2868,39.666,-20.694,23.6968,-38.9793,2.73433,-28.3578,31.4171,-41.498,28.4735,21.7792
1.45036,17.2441,34.4222,-159.643,-53.6004,-172.755,-17.4036,3.27657,-1.15622,-11.1967,3.28801,0.165954,-2.32832,1.20776,1.33098,-12.4716,-6.94307,-7.52493,26.4784,-11.2903,7.54998,11.5488,-5.36337,2.37705,-7.85199e-14,-9.14409e-15,-51.3493,-11.4608,-67.2419,13.0716,-3.64856,-23.7039,17.992,7.12502,2.76335,-11.9699,-7.85199e-14,-9.14409e-15,-52.2778,6.92688,70.3422,28.3283,20.7713,-4.78245,23.2581,7.12502,21.0024,52.141,-14.5727,-5.4294,33.064,36.1158,39.7626,-20.9497,24.0177,-39.0212,2.67894,-28.4978,31.548,-41.7098,28.3653,21.9347
1.44784,17.2442,34.4243,-159.657,-53.5868,-172.737,-17.4052,3.17971,-1.15885,-11.1778,3.16037,0.274278,-2.30977,1.1471,1.42823,-12.4361,-7.49089,-7.90892,26.6068,-12.1209,7.78451,11.7139,-5.75559,2.39273,5.7076e-14,2.127e-14,-51.3747,-10.0446,-68.5804,13.4258,-5.84839,-23.73,17.5664,7.12502,2.73813,-12.3958,5.7076e-14,2.127e-14,-52.6687,6.05242,71.4225,28.3818,21.1799,-4.57635,23.7726,7.12502,21.2004,52.6334,-14.5368,-5.39816,33.0722,36.0795,39.9814,-20.66,23.6785,-38.9982,2.7249,-28.5162,31.5016,-41.5551,28.5092,21.8501
1.44465,17.2465,34.4294,-159.376,-53.5266,-173.061,-17.3352,3.13488,-1.27357,-11.2178,3.11264,0.201085,-2.39061,1.12564,1.4049,-12.1067,-8.0801,-8.65904,26.6575,-13.0075,8.21116,11.8454,-6.1989,2.53725,2.75814e-14,4.6118e-14,-51.6868,-9.11651,-69.6093,13.767,-7.53758,-23.3605,16.9243,7.12502,3.09493,-13.033,2.75814e-14,4.6118e-14,-53.1778,4.47702,72.9654,28.786,22.3415,-4.70561,24.4682,7.12502,21.0762,53.3428,-14.6073,-5.47094,32.8172,36.1522,39.9438,-20.3631,23.104,-38.9277,2.70604,-28.7647,31.3621,-41.5632,28.5731,21.8612
1.44383,17.2461,34.4343,-159.216,-53.4989,-173.233,-17.2484,3.09806,-1.2901,-11.2849,3.05817,0.0971926,-2.50128,1.09329,1.29245,-11.5906,-8.70268,-9.50329,26.5594,-13.8535,8.44422,11.881,-6.65844,2.63803,-3.12589e-14,2.18663e-14,-52.1385,-7.93436,-71.1551,14.3032,-9.46358,-22.9999,15.4998,7.12502,3.44318,-14.4522,-3.12589e-14,2.18663e-14,-53.7635,2.92327,74.4116,29.2353,23.5355,-4.69474,25.0229,7.12502,21.0867,53.8963,-14.6902,-5.46258,32.6806,36.2331,39.8953,-20.3189,22.9465,-38.8884,2.66311,-28.8867,31.2566,-41.6588,28.4742,22.0056
1.44244,17.2471,34.4377,-159.051,-53.4391,-173.375,-17.2438,2.9837,-1.32976,-11.3103,2.90597,0.0857614,-2.52817,1.01572,1.2804,-11.3195,-9.23774,-9.70435,26.465,-14.6427,8.47884,11.898,-7.04329,2.5601,-7.13637e-14,5.1684e-15,-52.3629,-6.22805,-73.0825,14.8565,-11.8717,-22.9267,14.3179,7.12502,3.51393,-15.6329,-7.13637e-14,5.1684e-15,-54.4088,1.89434,75.621,29.6932,24.5359,-4.62748,25.4705,7.12502,21.1513,54.3367,-14.8228,-5.39318,32.5572,36.3299,40.0372,-20.3683,23.5164,-38.8919,2.61085,-28.996,31.1718,-41.5045,28.6868,21.5582
1.44099,17.2468,34.4426,-159.016,-53.3851,-173.415,-17.2443,2.84441,-1.2997,-11.2556,2.72309,0.159734,-2.46434,0.925659,1.31619,-10.9635,-9.59054,-9.8111,26.0908,-15.1622,8.60298,11.7602,-7.29074,2.55277,-4.16454e-14,-3.18055e-15,-52.4591,-4.66804,-74.6697,15.4067,-14.1992,-22.9505,13.7384,7.12502,3.49094,-16.2127,-4.16454e-14,-3.18055e-15,-55.026,0.972505,76.9371,30.2641,25.7589,-4.4576,26.0532,7.12502,21.3145,54.9011,-14.8692,-5.40871,32.4981,36.4083,40.1638,-20.1361,23.1172,-38.8665,2.5222,-29.0247,31.1163,-41.3382,29.0127,20.9754
1.43803,17.2463,34.4484,-159.139,-53.3524,-173.262,-17.2597,2.74482,-1.15485,-11.1843,2.57944,0.247904,-2.37007,0.850418,1.3087,-10.4956,-10.0352,-10.1188,25.6328,-15.7379,8.65398,11.5882,-7.59204,2.54827,-7.20594e-16,1.19271e-14,-52.6657,-3.25413,-76.1597,16.0148,-16.4692,-22.1176,12.5144,7.12502,4.29517,-17.4221,-7.20594e-16,1.19271e-14,-55.5459,0.132618,78.2024,30.7998,26.8284,-4.33271,26.7499,7.12502,21.4344,55.5841,-14.8814,-5.47096,32.5582,36.4571,40.32,-19.6666,22.3023,-38.8672,2.31167,-28.8601,31.119,-41.5427,29.2156,20.963
1.43447,17.2474,34.4503,-159.113,-53.3208,-173.246,-17.3635,2.62673,-1.1573,-11.1954,2.41471,0.371345,-2.32985,0.767467,1.41939,-9.76973,-10.4775,-10.9906,25.2908,-16.3772,9.06097,11.5107,-7.95243,2.75919,-6.20954e-14,1.31198e-14,-53.2207,-1.24756,-78.1446,16.9424,-19.4174,-21.3094,10.8764,7.12502,5.0756,-19.0428,-6.20954e-14,1.31198e-14,-56.2474,-0.519853,79.5152,31.2637,27.6777,-4.25799,27.3955,7.12502,21.5062,56.2216,-14.9253,-5.54699,32.531,36.4702,40.2532,-19.7422,22.4926,-38.9399,2.47455,-28.9419,31.1603,-41.4043,29.2168,21.144
1.43612,17.2464,34.4553,-159.195,-53.2776,-173.134,-17.3841,2.71753,-1.07684,-11.1688,2.52931,0.240325,-2.28288,0.818177,1.25405,-9.03691,-11.122,-11.3521,24.8281,-17.3782,9.3865,11.3823,-8.44075,2.80225,1.19569e-13,-3.57812e-15,-53.9066,0.210394,-80.3207,18.0447,-22.7557,-20.879,9.4438,7.12502,5.49114,-20.4651,1.19569e-13,-3.57812e-15,-56.8092,-2.00701,80.9789,31.8992,28.7491,-3.98205,28.0771,7.12502,21.7712,56.8726,-14.9596,-5.55682,32.5725,36.4868,40.3037,-19.763,23.1451,-39.0291,2.44046,-28.8586,31.268,-41.5406,29.2394,21.2146
1.44109,17.2463,34.4579,-159.438,-53.232,-172.849,-17.31,3.11025,-0.919034,-11.0365,3.06173,-0.265608,-2.15269,1.07422,0.711299,-8.51087,-12.1815,-10.8892,24.2007,-19.0368,9.58444,11.2203,-9.16147,2.55566,6.65929e-15,-1.78906e-14,-54.3125,-0.15088,-81.737,18.9093,-24.9867,-20.3151,8.23171,7.12502,6.03564,-21.6623,6.65929e-15,-1.78906e-14,-56.9899,-4.53936,82.4299,32.5977,29.849,-3.59337,28.6299,7.12502,22.1444,57.3817,-14.9534,-5.41368,32.7602,36.479,40.3545,-19.799,23.1875,-39.0999,2.52633,-28.6698,31.3679,-41.6434,29.1008,21.3243
1.44555,17.2377,34.4598,-159.651,-53.2196,-172.631,-17.282,3.06883,-0.819493,-10.963,3.00518,-0.255745,-2.08032,1.04529,0.657925,-7.78589,-12.8021,-11.3395,23.6479,-19.9514,9.89068,11.0721,-9.62468,2.62182,1.21805e-13,3.89618e-14,-54.7411,0.613098,-82.8549,19.8366,-26.6691,-19.4868,7.09897,7.12502,6.83529,-22.7707,1.21805e-13,3.89618e-14,-57.6848,-5.45743,83.5846,33.3231,31.1442,-3.29496,29.0263,7.12502,22.4309,57.7438,-14.9315,-6.08952,32.8512,36.4807,40.6318,-18.67,22.2671,-39.1729,2.56617,-28.5281,31.5216,-41.7414,29.0558,21.3014
1.44398,17.2364,34.465,-159.684,-53.2474,-172.616,-17.3726,2.51256,-0.827845,-11.0183,2.24345,0.336724,-2.10773,0.670632,1.17497,-6.55326,-12.7779,-12.8086,23.0965,-19.8861,10.3418,10.8426,-9.7399,3.0884,5.35725e-14,3.97569e-15,-55.4108,3.34668,-84.3231,20.8271,-28.7214,-18.5434,5.67488,7.12502,7.74585,-24.1632,5.35725e-14,3.97569e-15,-59.0414,-4.49261,84.4667,34.081,32.0469,-2.55827,29.0807,7.12502,23.1378,57.7112,-14.8682,-6.14386,32.8709,36.4779,40.351,-18.7431,22.3931,-39.1948,2.43357,-28.4737,31.6329,-41.9517,28.9844,21.4348
1.44031,17.2351,34.4734,-159.714,-53.3373,-172.552,-17.4269,2.2703,-0.667989,-11.047,1.88844,0.51898,-2.10164,0.484098,1.22545,-5.30532,-13.056,-13.6741,22.2149,-20.3692,10.9583,10.5214,-10.0448,3.43586,-1.20265e-14,-1.35174e-14,-55.9797,4.68724,-85.4093,21.727,-30.5136,-17.6396,4.55593,7.12502,8.61816,-25.2482,-1.20265e-14,-1.35174e-14,-59.9929,-4.62408,85.5342,34.8583,33.1133,-1.92243,29.1171,7.12502,23.7478,57.6697,-14.9191,-6.41871,32.9118,36.5478,40.3381,-18.3594,21.8214,-39.2272,2.25906,-28.3982,31.7024,-42.171,28.9002,21.7021
1.4401,17.2368,34.4835,-159.645,-53.322,-172.651,-17.3605,2.29477,-0.634764,-10.9832,1.93047,0.409191,-2.06155,0.505346,1.09622,-4.39077,-13.6411,-14.1382,21.339,-21.2797,11.4917,10.2842,-10.5014,3.59824,1.08139e-13,-3.45885e-14,-56.3148,4.85061,-86.0003,22.5355,-31.9228,-16.6737,3.64223,7.12502,9.55017,-26.1213,1.08139e-13,-3.45885e-14,-60.5514,-5.48315,86.7962,35.7033,34.1991,-1.80604,29.6846,7.12502,23.8594,58.2227,-14.9869,-6.47113,32.7996,36.6536,39.983,-19.0209,23.175,-39.1958,2.12201,-28.4493,31.6762,-42.3371,28.8764,21.9456
1.44266,17.2383,34.4939,-159.673,-53.3453,-172.581,-17.3178,2.22093,-0.55449,-10.9468,1.8275,0.454021,-2.03963,0.452978,1.08212,-3.57332,-14.0841,-14.7,20.5984,-21.9812,11.9935,10.103,-10.8696,3.78919,4.96713e-14,3.61788e-14,-56.8529,6.15285,-87.4667,23.5732,-34.3239,-15.6987,2.49704,7.12502,10.4908,-27.2212,4.96713e-14,3.61788e-14,-61.0829,-5.82097,88.0198,36.4399,35.094,-2.27876,30.6175,7.12502,23.406,59.2141,-15.1292,-6.48375,32.8236,36.7795,39.7757,-19.2309,23.8521,-39.2533,2.03901,-28.4077,31.6607,-42.553,28.7752,22.4653
1.44609,17.238,34.5003,-159.736,-53.3206,-172.458,-17.3098,2.12932,-0.412712,-10.8937,1.69301,0.464285,-1.97759,0.380391,0.993195,-2.89924,-14.5205,-15.1513,20.0791,-22.7244,12.4821,10.0283,-11.2474,3.93639,-7.35006e-14,1.15295e-14,-57.5339,8.12815,-89.7658,24.7961,-37.3535,-15.1499,1.0308,7.12502,11.0201,-28.6599,-7.35006e-14,1.15295e-14,-61.5635,-6.12153,88.9895,37.1814,36.2493,-2.32,31.1814,7.12502,23.3664,59.7831,-15.2662,-6.41298,32.886,36.884,39.7468,-19.4186,24.7883,-39.3321,1.99714,-28.3295,31.6483,-42.4199,28.9858,22.2001
1.44697,17.2383,34.507,-159.826,-53.2785,-172.25,-17.3256,2.12859,-0.12963,-10.8987,1.65052,0.357427,-1.95968,0.339668,0.715587,-2.11347,-15.0027,-15.3417,19.6485,-23.5787,12.8452,9.93996,-11.6821,3.99547,8.66701e-14,-5.56597e-15,-58.1411,8.94179,-91.1518,25.8144,-38.9636,-14.3396,-0.0976413,7.12502,11.8016,-29.7451,8.66701e-14,-5.56597e-15,-62.3242,-6.80874,89.8881,38.1822,37.6257,-1.92135,31.6513,7.12502,23.7488,60.2038,-15.3636,-6.40219,32.9922,36.8874,39.7526,-19.3762,24.8055,-39.5146,2.09005,-28.2538,31.7319,-41.9328,29.425,21.4111
1.44709,17.2399,34.5146,-160.035,-53.2526,-171.959,-17.3262,2.06395,0.0947477,-10.8658,1.53593,0.39599,-1.91549,0.272595,0.612836,-1.27999,-15.4094,-15.5966,19.0703,-24.2898,13.2283,9.78525,-12.0573,4.10263,5.1684e-14,-1.78906e-14,-58.4004,9.24335,-91.5915,26.4538,-39.5876,-13.1572,-0.716395,7.12502,12.9417,-30.2951,5.1684e-14,-1.78906e-14,-63.0092,-7.1356,90.7617,39.0986,38.7167,-1.78987,32.3262,7.12502,23.8749,60.8623,-15.3807,-6.44861,33.1445,36.8581,39.93,-19.1115,24.6841,-39.6263,2.09832,-28.0715,31.8536,-42.1838,29.2903,21.6958
1.45122,17.2388,34.5224,-160.561,-53.377,-171.351,-17.266,1.90827,0.419018,-10.7514,1.29962,0.62155,-1.81607,0.151234,0.630981,-0.705015,-15.7702,-15.9104,18.4659,-24.8905,13.6793,9.6739,-12.3631,4.23513,-5.93372e-14,-2.22639e-14,-58.467,9.84025,-91.9776,27.0092,-40.5581,-12.212,-1.04504,7.12502,13.8527,-30.5637,-5.93372e-14,-2.22639e-14,-63.4978,-7.05803,91.4439,40.0412,39.8547,-1.69774,32.9296,7.12502,23.9633,61.4541,-15.332,-6.41333,33.5513,36.7926,39.9922,-19.4794,25.5476,-39.7386,2.29541,-27.7557,32.0022,-42.1464,29.1432,21.5175
1.45642,17.2356,34.5302,-160.719,-53.3881,-171.163,-17.2141,1.81586,0.517105,-10.6499,1.17915,0.682343,-1.73056,0.0944102,0.620543,-0.0702592,-16.1478,-16.048,17.9138,-25.5377,14.0682,9.55068,-12.6925,4.32203,-1.66731e-14,2.66371e-14,-58.7583,10.5929,-92.7996,27.8027,-41.9726,-11.4465,-1.478,7.12502,14.5903,-30.9448,-1.66731e-14,2.66371e-14,-63.9362,-7.16487,92.0555,40.92,40.9854,-1.46255,33.392,7.12502,24.1888,61.8866,-15.3704,-6.53947,33.6588,36.8051,40.1087,-19.1691,24.704,-39.7732,2.21854,-27.6082,32.0501,-42.2923,29.0081,21.9553
1.45731,17.2377,34.5378,-160.586,-53.3791,-171.335,-17.212,1.76346,0.448966,-10.6627,1.11848,0.609272,-1.7451,0.0641317,0.572815,0.866685,-16.5216,-16.3775,17.3739,-26.2525,14.5255,9.43254,-13.0849,4.46827,7.23079e-15,7.95139e-16,-59.3248,11.1918,-93.6562,28.6774,-43.201,-10.8393,-1.91285,7.12502,15.1753,-31.3364,7.23079e-15,7.95139e-16,-64.5297,-7.52372,92.7579,41.6756,42.2357,-1.16561,33.7767,7.12502,24.4735,62.2332,-15.4495,-6.76035,33.5236,36.8992,40.1343,-18.8205,23.9672,-39.7044,2.00137,-27.6537,31.972,-42.4939,29.0579,22.3374
1.45744,17.2416,34.5471,-160.264,-53.2363,-171.737,-17.1797,1.68983,0.22609,-10.6385,1.05698,0.549406,-1.73938,0.0438769,0.625536,1.4541,-16.8676,-16.7962,16.9555,-26.866,14.9224,9.41118,-13.4111,4.5852,3.28243e-14,1.78906e-14,-59.7054,11.7824,-94.3546,29.2331,-43.9548,-10.3253,-2.07353,7.12502,15.6704,-31.4589,3.28243e-14,1.78906e-14,-64.915,-7.39902,93.0125,42.2169,43.1371,-0.515419,33.8391,7.12502,25.0966,62.2099,-15.5703,-6.66825,33.2124,37.1023,39.8565,-19.1378,24.5187,-39.5935,1.92508,-27.933,31.7416,-42.3451,29.3909,22.0208
1.45515,17.2435,34.5526,-159.67,-52.9555,-172.35,-17.3098,1.56025,-0.0880456,-10.4774,0.946131,0.491695,-1.50339,0.0082123,0.725846,1.31865,-17.213,-17.1408,16.8944,-27.3869,15.1535,9.59258,-13.642,4.57412,-8.17502e-15,9.93923e-15,-59.9935,12.6542,-95.3138,29.7722,-44.417,-9.98844,-2.14788,7.12502,15.9948,-31.5076,-8.17502e-15,9.93923e-15,-64.9445,-6.96681,93.0202,42.707,43.9435,0.118092,33.8891,7.12502,25.7035,62.1735,-15.7633,-6.4917,32.7502,37.2845,39.5361,-19.5078,25.0162,-39.5738,2.05031,-28.4508,31.4749,-42.1007,29.6508,21.5842
1.4551,17.2452,34.5571,-159.248,-52.7223,-172.809,-17.4563,1.45682,-0.340863,-10.24,0.874448,0.43282,-1.17547,-0.00680529,0.796067,0.991567,-17.6234,-17.3035,16.9352,-27.9816,15.3078,9.82016,-13.8861,4.4774,1.02747e-14,-3.26007e-14,-60.1734,13.1476,-95.7618,30.7253,-45.4213,-9.0695,-3.09986,7.12502,16.8795,-32.3863,1.02747e-14,-3.26007e-14,-64.8027,-6.80209,93.2583,43.1679,44.7549,0.571708,33.9528,7.12502,26.1379,62.1738,-15.9024,-6.34098,32.4058,37.434,39.5178,-19.3106,23.7932,-39.5124,2.27469,-28.887,31.2192,-41.5419,29.8976,20.8699
1.4536,17.2515,34.5638,-159.33,-52.7288,-172.697,-17.4519,1.4036,-0.204411,-10.1904,0.791167,0.417239,-1.11946,-0.0526955,0.689337,1.17702,-17.9425,-17.2902,16.9657,-28.5311,15.3405,9.90035,-14.1515,4.38792,-2.53078e-14,1.19271e-15,-60.4933,13.6021,-96.4259,31.5535,-46.4808,-8.58456,-3.47491,7.12502,17.3463,-32.7208,-2.53078e-14,1.19271e-15,-65.0933,-6.90719,93.673,43.8135,45.6804,0.973084,33.9446,7.12502,26.5221,62.1081,-15.9627,-6.15039,32.4804,37.5202,39.3771,-19.5842,23.3019,-39.4623,2.35377,-28.8555,31.0889,-41.351,29.9095,20.6051
1.45352,17.2542,34.5713,-159.384,-52.6897,-172.647,-17.3959,1.37729,-0.147485,-10.2187,0.744836,0.425427,-1.1771,-0.0796855,0.658149,1.97627,-18.1866,-17.3071,16.4965,-28.9744,15.4887,9.70251,-14.4138,4.43999,4.9075e-14,4.77083e-15,-60.4303,13.6265,-96.4273,31.87,-46.836,-7.42196,-3.93127,7.12502,18.465,-33.0749,4.9075e-14,4.77083e-15,-65.4993,-6.95668,94.1076,44.3824,46.4126,1.49957,33.8408,7.12502,27.0259,61.9272,-15.9643,-6.10628,32.4837,37.5198,39.4248,-19.4509,22.9546,-39.4014,2.24571,-28.7804,31.0148,-41.8594,29.5676,21.5824
1.45805,17.2484,34.5786,-159.487,-52.6234,-172.525,-17.3455,1.31501,-0.104525,-10.2331,0.652422,0.539795,-1.21813,-0.126002,0.739303,2.74991,-18.3863,-17.3826,15.8865,-29.2749,15.5892,9.43782,-14.6113,4.51647,-3.04265e-14,-1.86858e-14,-60.529,13.865,-96.4751,32.1117,-46.8784,-6.31989,-4.24726,7.12502,19.5248,-33.2869,-3.04265e-14,-1.86858e-14,-65.7472,-6.71591,94.4351,44.6946,46.9449,1.9509,33.7785,7.12502,27.4576,61.7971,-15.9549,-6.26079,32.5454,37.4831,39.6667,-18.7737,22.0329,-39.4204,2.14569,-28.6619,31.0243,-42.1873,29.497,22.089
1.45907,17.2536,34.5859,-159.625,-52.6689,-172.341,-17.3729,1.23767,0.0184243,-10.1622,0.539218,0.638153,-1.12498,-0.182404,0.755284,3.332,-18.5727,-17.3476,15.2776,-29.5513,15.7945,9.2063,-14.7754,4.59901,-4.71865e-14,-2.98177e-14,-60.7875,14.4093,-96.8943,32.6394,-47.3948,-5.65211,-4.4791,7.12502,20.1668,-33.4523,-4.71865e-14,-2.98177e-14,-65.812,-6.63662,94.7284,44.9621,47.5094,2.45546,33.7458,7.12502,27.9401,61.6869,-15.9661,-5.87406,32.7092,37.4754,39.4417,-19.3103,22.3585,-39.3972,1.88944,-28.4377,30.977,-42.5953,29.3646,22.7751
1.46068,17.2586,34.5943,-159.601,-52.6772,-172.39,-17.3119,1.17369,0.0144677,-10.1539,0.458682,0.627003,-1.14633,-0.221853,0.732704,4.15522,-18.7145,-17.0944,14.6378,-29.8072,15.9871,8.88682,-14.947,4.69353,2.90723e-15,-1.19271e-15,-60.9691,14.5653,-97.1029,33.0492,-47.7127,-4.83519,-4.87215,7.12502,20.9518,-33.7606,2.90723e-15,-1.19271e-15,-66.0238,-6.69322,94.9846,45.3808,48.1853,2.89414,33.6004,7.12502,28.3594,61.4725,-16.0051,-5.80738,32.6718,37.5443,39.2383,-19.6792,22.8544,-39.3583,1.69703,-28.3982,30.921,-42.7212,29.4565,22.7769
1.46359,17.2607,34.6047,-159.366,-52.5775,-172.678,-17.2411,1.09521,-0.171381,-10.1551,0.383242,0.624757,-1.18584,-0.251112,0.823043,4.70644,-18.6868,-17.2923,14.2341,-29.9474,16.5705,8.81375,-15.0485,4.93031,-6.03808e-15,1.98785e-15,-61.2809,15.2815,-97.7152,33.5773,-48.5118,-4.35939,-4.8073,7.12502,21.4088,-33.6445,-6.03808e-15,1.98785e-15,-66.233,-6.66475,95.3459,45.9206,49.1139,2.9177,33.9548,7.12502,28.3819,61.8232,-16.1133,-5.86294,32.4306,37.6636,39.1285,-19.8743,23.2398,-39.2921,1.402,-28.4933,30.785,-43.1688,29.4501,23.3616
1.46737,17.2598,34.6174,-159.336,-52.4777,-172.702,-17.1558,1.10085,-0.166451,-10.1653,0.390536,0.638591,-1.24094,-0.246993,0.835759,5.12437,-18.6649,-17.6193,13.8589,-30.0813,17.1853,8.79943,-15.1402,5.17245,-3.98315e-14,-7.95139e-16,-61.5967,15.6956,-97.9631,34.3255,-49.0725,-3.89258,-4.97267,7.12502,21.8571,-33.7582,-3.98315e-14,-7.95139e-16,-66.386,-6.72687,95.6588,46.3728,50.0996,3.08946,34.3642,7.12502,28.546,62.2051,-16.249,-5.84718,32.3559,37.8034,39.244,-19.6498,23.1832,-39.2667,1.29216,-28.5048,30.6824,-43.4591,29.321,24.035
1.46864,17.2615,34.6296,-159.091,-52.36,-172.976,-17.0978,1.04272,-0.27362,-10.1892,0.325884,0.642335,-1.29713,-0.275917,0.890136,5.53938,-18.6716,-17.8145,13.5524,-30.2016,17.5409,8.74174,-15.2288,5.32707,-1.0958e-14,-1.55052e-14,-61.7063,15.7678,-97.7504,34.8404,-48.9958,-2.94785,-5.44364,7.12502,22.764,-34.1206,-1.0958e-14,-1.55052e-14,-66.4957,-6.57716,95.8013,46.7119,51.0228,3.42461,34.5705,7.12502,28.8662,62.3572,-16.4001,-5.78901,32.1258,37.9754,39.2161,-19.6268,23.4416,-39.2271,1.24924,-28.7145,30.5594,-42.6449,29.9827,22.6204
1.46682,17.2659,34.638,-158.967,-52.3738,-173.124,-17.1037,0.934405,-0.300337,-10.1618,0.188225,0.7097,-1.26279,-0.341264,0.954485,5.65178,-18.7437,-17.811,13.6447,-30.3664,17.503,8.77827,-15.316,5.2921,-6.27166e-14,0,-61.7677,16.1558,-97.7905,35.2037,-48.9483,-1.8635,-6.04456,7.12502,23.8043,-34.5898,-6.27166e-14,0,-66.4939,-6.26382,95.8434,46.9748,51.6326,3.88593,34.6995,7.12502,29.3068,62.4101,-16.4854,-5.82552,32.0185,38.1258,39.2481,-19.2979,22.8033,-39.1484,1.1391,-28.7862,30.4442,-43.4188,29.2367,24.4724
1.4713,17.2661,34.6467,-158.84,-52.2718,-173.301,-17.1181,0.848293,-0.442559,-10.0127,0.114157,0.76798,-1.09506,-0.362684,1.08307,5.18378,-18.9309,-17.6387,13.9826,-30.5837,17.2497,8.94005,-15.3769,5.0904,-7.97251e-14,3.97569e-16,-61.6621,17.1515,-98.3079,35.6055,-49.5604,-1.25338,-6.88323,7.12502,24.3893,-35.351,-7.97251e-14,3.97569e-16,-66.2422,-6.02646,95.7735,47.1802,52.059,4.34319,34.8089,7.12502,29.7433,62.4423,-16.5759,-5.84572,31.8487,38.2573,39.1977,-19.351,22.9381,-39.1106,1.06105,-28.9203,30.3135,-43.1918,29.7565,23.6828
1.47782,17.265,34.6541,-158.605,-52.174,-173.504,-17.261,0.826729,-0.613802,-9.81365,0.134627,0.767693,-0.809585,-0.336299,1.18095,4.70811,-19.1942,-17.332,14.0338,-30.8583,17.1436,9.02009,-15.4551,4.91363,3.60546e-14,5.60573e-14,-61.5366,18.17,-98.8909,36.1477,-50.2027,0.119776,-7.83342,7.12502,25.7051,-36.1176,3.60546e-14,5.60573e-14,-65.8611,-6.11264,95.7924,47.3105,52.5319,4.50132,34.7263,7.12502,29.8942,62.3327,-16.7348,-5.9371,31.6935,38.3482,39.235,-19.1662,22.8445,-39.1547,1.06132,-29.0869,30.14,-43.063,29.9301,23.4924
1.48136,17.2702,34.6635,-158.572,-52.1086,-173.514,-17.3144,0.877842,-0.652568,-9.70092,0.222609,0.779112,-0.663648,-0.284691,1.22824,4.58691,-19.3943,-17.0675,13.8977,-31.0735,17.1051,8.98364,-15.5364,4.82199,-1.29893e-14,3.57812e-14,-61.6412,18.7685,-99.213,36.7152,-50.2866,3.76116,-9.56499,7.12502,29.1876,-37.2963,-1.29893e-14,3.57812e-14,-65.5166,-6.1598,95.7712,47.2054,52.7734,4.64472,34.8037,7.12502,30.031,62.3854,-16.7993,-5.78652,31.6512,38.3827,39.1526,-19.529,23.8053,-39.1356,0.88605,-29.0209,30.0333,-43.5738,29.595,24.5036
1.48194,17.277,34.6712,-158.479,-52.0947,-173.64,-17.3447,0.81772,-0.778357,-9.60523,0.172122,0.88869,-0.546147,-0.297935,1.40571,4.46108,-19.4767,-17.0874,13.8959,-31.1738,17.1099,9.02616,-15.5701,4.78793,6.80341e-14,2.06736e-14,-61.4164,19.1946,-98.8519,37.1588,-50.2844,1.20356,-6.18446,7.12502,26.7427,-34.3144,6.80341e-14,2.06736e-14,-65.0767,-5.71711,95.4694,46.8498,52.6494,5.00554,34.7179,7.12502,30.3753,62.2366,-16.7576,-5.49453,31.5471,38.2808,39.0467,-20.1421,24.4262,-39.1198,0.80561,-29.0857,30.0574,-43.8678,29.2091,25.236
1.4842,17.2715,34.6804,-158.957,-52.2495,-173.109,-17.3141,0.757904,-0.435627,-9.50521,0.0511596,1.13749,-0.448155,-0.361013,1.45313,4.36964,-19.507,-16.9915,13.766,-31.1483,17.07,8.969,-15.5479,4.76653,-5.56504e-14,-6.75868e-15,-61.1886,19.8192,-98.6512,37.4715,-50.2134,3.46565,-8.4905,7.12502,28.9054,-36.2705,-5.56504e-14,-6.75868e-15,-64.679,-5.22898,95.0582,46.5166,52.3385,5.59013,34.7703,7.12502,30.9327,62.1845,-16.5514,-5.77251,31.8883,37.9904,39.3397,-19.6891,23.6575,-39.1701,0.668228,-28.6693,30.2114,-44.0793,29.16,25.2838
1.48604,17.2688,34.6909,-159.885,-52.5241,-172.111,-17.13,0.735808,0.310777,-9.44727,-0.0817069,1.42518,-0.472456,-0.445121,1.31179,4.50251,-19.4463,-16.964,13.3148,-30.9906,17.2411,8.7905,-15.4824,4.87657,4.43942e-14,-3.04141e-14,-61.2871,20.6143,-98.8891,37.9323,-50.1706,4.94772,-9.97958,7.12502,30.3201,-37.5084,4.43942e-14,-3.04141e-14,-64.4633,-4.94169,94.7929,46.2614,52.0988,6.31611,34.7416,7.12502,31.6245,62.0221,-16.2123,-5.82115,32.5759,37.6997,39.4794,-19.4685,22.9418,-39.2033,0.43698,-27.874,30.4759,-44.3066,29.2821,25.0171
1.48766,17.2801,34.6997,-160.612,-52.7147,-171.267,-16.9893,0.752192,0.976765,-9.44233,-0.156753,1.60044,-0.535852,-0.503904,1.1081,4.59309,-19.3427,-16.898,13.044,-30.8433,17.4601,8.68565,-15.4177,4.98442,-6.3111e-14,-4.81059e-14,-61.4686,21.02,-99.24,38.3159,-49.8802,4.60561,-9.33893,7.12502,29.9937,-36.9273,-6.3111e-14,-4.81059e-14,-64.3842,-4.91418,94.5566,46.0948,52.1787,7.1145,34.6253,7.12502,32.3847,61.7534,-15.9712,-5.16698,33.2049,37.4031,39.6038,-19.8494,22.8316,-39.3167,0.336603,-27.2444,30.7331,-44.4642,29.2254,25.2219
1.49286,17.2708,34.7086,-160.683,-52.6316,-171.174,-16.9889,0.787964,1.10621,-9.39275,-0.124368,1.62756,-0.482985,-0.489556,1.0682,4.52166,-19.3341,-16.667,12.8851,-30.7893,17.5183,8.60772,-15.3813,4.98868,-3.74895e-14,-4.07509e-14,-61.527,21.1189,-99.4246,38.5779,-49.3831,2.88277,-6.42824,7.12502,28.3485,-34.3022,-3.74895e-14,-4.07509e-14,-64.2592,-5.06028,94.4154,45.9814,52.1017,7.78312,34.6059,7.12502,33.0208,61.6017,-15.9486,-5.56639,33.187,37.2733,40.361,-17.9646,20.0147,-39.4588,0.327756,-27.2047,30.9089,-44.6457,29.1797,25.5191
1.49736,17.2741,34.7119,-160.598,-52.5703,-171.252,-17.016,0.810855,1.14412,-9.34381,-0.0937625,1.57144,-0.416763,-0.474035,0.992172,4.61373,-19.285,-16.4391,12.6153,-30.7393,17.7857,8.50455,-15.3583,5.07537,-3.0911e-14,6.55989e-15,-61.3125,21.3424,-99.4094,38.8694,-49.3672,6.43872,-9.68132,7.12502,31.7413,-36.9388,-3.0911e-14,6.55989e-15,-64.0915,-5.25129,94.1405,45.7307,51.8448,8.56936,34.41,7.12502,33.7682,61.2449,-15.9703,-5.22743,33.1483,37.2319,40.5209,-17.4521,18.0094,-39.5154,0.390847,-27.2937,30.8968,-44.4628,29.5271,24.8279
1.50249,17.2738,34.7186,-160.501,-52.5242,-171.358,-17.0387,0.868643,1.1952,-9.29329,-0.0163085,1.46102,-0.351286,-0.435996,0.859337,4.79356,-19.2649,-16.1509,12.2104,-30.7407,18.1693,8.36264,-15.3654,5.19331,-3.23941e-14,1.45113e-14,-61.2078,21.6577,-99.639,39.1851,-49.3453,4.80297,-8.1286,7.12502,30.182,-35.6828,-3.23941e-14,1.45113e-14,-63.8581,-5.53183,93.7725,45.3882,51.7484,9.60643,34.065,7.12502,34.753,60.6784,-16.0892,-5.28399,33.0469,37.3652,40.4701,-17.3719,17.5814,-39.5623,0.413681,-27.3909,30.8746,-44.4536,29.5735,24.7235
1.50633,17.2775,34.7277,-160.378,-52.4397,-171.452,-17.0462,0.928739,1.21147,-9.29534,0.0605201,1.42842,-0.349963,-0.399065,0.828443,4.72554,-19.258,-15.9656,12.3331,-30.7898,18.2208,8.40427,-15.3781,5.17061,-3.58107e-14,-1.66979e-14,-61.1189,20.7418,-99.1353,39.2303,-47.9646,6.98709,-9.58709,7.12502,32.2634,-36.7399,-3.58107e-14,-1.66979e-14,-63.6403,-5.61084,93.3678,45.0567,51.4463,10.7077,33.8979,7.12502,35.7973,60.2639,-16.2415,-5.0363,32.9505,37.4565,40.174,-17.8853,18.5299,-39.5815,0.0596523,-27.3049,30.8075,-45.1702,29.2146,25.8867
1.51222,17.2772,34.7374,-160.34,-52.3454,-171.479,-16.9893,0.953759,1.18368,-9.32417,0.0939452,1.50301,-0.410945,-0.381442,0.928179,4.60596,-19.1815,-15.8923,12.6072,-30.7277,18.1214,8.47548,-15.3377,5.12746,-3.91303e-14,2.70347e-14,-61.157,21.902,-99.4308,39.4924,-48.6171,7.74896,-9.85574,7.12502,32.9883,-36.8584,-3.91303e-14,2.70347e-14,-63.4567,-5.56412,93.0789,44.6948,51.0738,11.6055,33.6379,7.12502,36.6475,59.7927,-16.3545,-5.13571,32.8885,37.5438,40.3167,-17.1104,17.7814,-39.6182,0.00737337,-27.2992,30.8009,-45.4281,28.9247,26.5307
1.51891,17.277,34.7433,-160.326,-52.2634,-171.53,-16.946,0.952997,1.07765,-9.27998,0.112519,1.60694,-0.387389,-0.362969,1.0998,4.29973,-19.1033,-15.5952,12.5678,-30.4964,17.9679,8.39716,-15.2006,5.06926,-1.18117e-13,-1.31198e-14,-61.1508,22.6697,-99.6305,39.7085,-48.8125,8.273,-9.9203,7.12502,33.4866,-36.8166,-1.18117e-13,-1.31198e-14,-63.1803,-5.54745,92.8669,44.4455,50.914,12.0537,33.6788,7.12502,37.0715,59.7247,-16.3532,-4.94483,32.846,37.5784,40.1644,-17.3689,17.7961,-39.6441,0.216784,-27.4184,30.8239,-45.2851,28.8611,26.6139
1.52068,17.2786,34.7462,-160.22,-52.3183,-171.658,-16.9498,0.869249,0.965433,-9.28021,0.0144309,1.72313,-0.385398,-0.405982,1.26942,3.96172,-18.9728,-15.3355,12.678,-30.2065,17.7161,8.35377,-15.0362,4.98968,-1.32829e-13,-1.78906e-14,-61.1445,23.2273,-99.7322,39.8004,-48.5563,8.31724,-9.73948,7.12502,33.5286,-36.6266,-1.32829e-13,-1.78906e-14,-62.9627,-5.36202,92.5463,44.1552,50.5567,12.7026,33.6537,7.12502,37.6849,59.538,-16.4049,-5.11418,32.7592,37.6636,40.1771,-17.1244,17.7562,-39.6839,0.411445,-27.5996,30.869,-44.9061,28.8947,26.2592
1.52159,17.2795,34.7516,-160.293,-52.437,-171.594,-16.9044,0.834608,1.03307,-9.32059,-0.0457542,1.79622,-0.451051,-0.439333,1.29879,3.82313,-18.7665,-15.1327,12.821,-29.9119,17.6371,8.32797,-14.8852,4.98822,5.06109e-14,-1.98785e-16,-61.1219,23.5258,-99.6835,39.8984,-48.4399,6.67577,-7.66706,7.12502,31.967,-34.8796,5.06109e-14,-1.98785e-16,-62.8314,-5.30705,92.109,43.8737,50.1423,13.6448,33.6253,7.12502,38.5745,59.2659,-16.4364,-5.21673,32.799,37.7325,40.1557,-17.182,18.444,-39.6346,0.362612,-27.5458,30.8219,-44.7826,28.8742,26.212
1.52528,17.272,34.7589,-160.169,-52.4996,-171.862,-16.8004,0.823768,0.914712,-9.33635,-0.0364373,1.76211,-0.522442,-0.42955,1.33142,3.61843,-18.5863,-14.7911,12.9737,-29.6276,17.4924,8.28676,-14.7315,4.94366,3.16658e-15,7.15625e-15,-61.0253,23.498,-99.4705,39.9106,-48.2086,9.78213,-9.8588,7.12502,34.9197,-36.4336,3.16658e-15,7.15625e-15,-62.6981,-5.51255,91.8207,43.5929,49.6163,14.5418,33.2866,7.12502,39.4201,58.685,-16.4847,-5.99739,32.5769,37.9046,40.3802,-15.9807,17.4347,-39.525,0.451212,-27.8049,30.7497,-44.4724,28.898,25.7464
1.52941,17.2818,34.7621,-160.036,-52.5015,-172.054,-16.7306,0.830314,0.777726,-9.3897,-0.0100965,1.76022,-0.616953,-0.412917,1.4115,3.30397,-18.4084,-14.4276,13.329,-29.3449,17.1802,8.30179,-14.5709,4.82872,4.41807e-14,-2.03754e-14,-60.7252,23.2518,-98.9776,39.5706,-47.3963,10.2322,-9.82481,7.12502,35.3466,-36.2992,4.41807e-14,-2.03754e-14,-62.4745,-5.58167,91.4282,43.1548,48.7761,15.6161,32.9416,7.12502,40.4313,58.0361,-16.5614,-5.47121,32.4514,38.0233,39.7111,-17.6316,20.1356,-39.5021,0.666583,-28.0255,30.7021,-44.2271,28.7927,25.5891
1.53392,17.2822,34.7685,-159.889,-52.4885,-172.164,-16.6403,0.900412,0.72896,-9.62914,0.0659144,1.70638,-0.922063,-0.386963,1.3968,3.45416,-18.1731,-13.9693,13.6032,-29.0416,16.8607,8.19506,-14.4398,4.76119,-5.42278e-14,1.21259e-14,-60.6198,22.8595,-98.5743,39.0926,-46.5921,11.6518,-10.3674,7.12502,36.6913,-36.511,-5.42278e-14,1.21259e-14,-62.5423,-5.72319,90.9182,42.6594,47.7105,16.9041,32.4467,7.12502,41.6408,57.1559,-16.7593,-5.55666,32.3316,38.1737,39.266,-18.2817,21.611,-39.5999,0.832362,-28.1946,30.6752,-44.1487,28.6438,25.8048
1.54075,17.2757,34.7732,-160.105,-52.5251,-171.864,-16.5585,1.02322,0.924662,-9.81401,0.181023,1.71846,-1.1636,-0.347676,1.31858,3.41735,-17.9885,-13.5235,13.9877,-28.8241,16.5623,8.17868,-14.3317,4.6579,-1.98474e-15,-2.5842e-14,-60.7004,22.6981,-98.5216,38.8224,-46.423,11.8282,-10.1098,7.12502,36.8582,-36.2108,-1.98474e-15,-2.5842e-14,-62.5315,-5.87379,90.3872,42.265,46.8358,17.8754,32.5055,7.12502,42.551,56.9082,-16.8204,-5.73045,32.5404,38.2117,39.5693,-17.7138,20.2755,-39.6843,0.981754,-28.0539,30.6332,-44.0326,28.5733,26.1125
1.54426,17.2708,34.7775,-160.149,-52.5414,-171.863,-16.5552,1.11259,0.912704,-9.818,0.301023,1.72854,-1.17197,-0.286314,1.3541,2.88235,-17.8839,-12.9183,14.5181,-28.6066,16.0109,8.2325,-14.1815,4.40305,-3.70392e-14,1.42131e-14,-60.5216,22.6591,-98.2802,38.6977,-46.3313,10.7416,-8.62728,7.12502,35.8294,-34.9855,-3.70392e-14,1.42131e-14,-62.2532,-6.18173,90.1698,41.9565,46.1583,18.4,32.4955,7.12502,43.0417,56.7267,-16.7893,-5.65232,32.5381,38.2696,39.7179,-17.5768,20.1765,-39.6815,0.858972,-28.0188,30.6718,-44.1143,28.6475,26.0338
1.54993,17.2718,34.7786,-160.064,-52.4985,-172.006,-16.5449,1.20171,0.761558,-9.83505,0.439791,1.70813,-1.19999,-0.210602,1.43892,2.37762,-17.7361,-12.2656,14.969,-28.3133,15.4723,8.24187,-13.998,4.16526,1.00775e-14,2.10215e-14,-60.1264,22.2848,-97.6164,38.4401,-45.4683,12.5295,-9.64501,7.12502,37.5213,-35.5729,1.00775e-14,2.10215e-14,-61.948,-6.5217,89.9138,41.5771,45.262,19.0482,32.3763,7.12502,43.6474,56.3894,-16.7636,-5.18603,32.4665,38.3065,39.3702,-18.2086,20.9475,-39.6756,0.817384,-28.0918,30.7162,-44.2789,28.557,26.0575
1.55985,17.2672,34.7792,-160.029,-52.4761,-171.983,-16.5483,1.27441,0.698909,-9.93996,0.530874,1.71659,-1.31408,-0.168151,1.4977,2.12551,-17.5003,-11.635,15.1267,-27.8876,15.0859,8.12221,-13.7726,4.03148,1.13696e-14,1.48095e-14,-60.0108,22.2531,-97.3903,38.1999,-44.8291,13.04,-9.31798,7.12502,38.0036,-35.1162,1.13696e-14,1.48095e-14,-61.6576,-6.6306,89.3956,40.9825,44.0049,20.197,31.9886,7.12502,44.7185,55.5982,-16.8495,-5.50625,32.5126,38.3642,39.4129,-17.1075,19.1581,-39.8059,1.07493,-28.1796,30.7328,-43.8396,28.7659,25.5786
1.56946,17.268,34.7798,-159.995,-52.4068,-172.017,-16.5714,1.33744,0.579522,-9.89903,0.633806,1.76232,-1.26322,-0.107697,1.62847,1.65301,-17.2523,-11.0483,15.1849,-27.4002,14.7785,8.02107,-13.4983,3.91108,5.29109e-14,1.77415e-14,-59.2162,21.577,-95.9889,38.3116,-44.9073,13.2446,-10.4469,7.12502,38.1968,-36.1923,5.29109e-14,1.77415e-14,-61.0248,-6.71099,88.9262,40.2967,42.907,21.2243,31.8115,7.12502,45.6739,55.0406,-16.9078,-5.51505,32.5087,38.4188,39.3215,-16.8091,18.4124,-39.8687,1.06647,-28.1624,30.7544,-43.6719,28.9457,25.3246
1.57389,17.2716,34.779,-159.975,-52.4038,-172.097,-16.5844,1.39776,0.488106,-9.8103,0.737352,1.78646,-1.16602,-0.0454443,1.72063,1.19787,-17.0331,-10.5066,15.278,-26.9944,14.536,7.96096,-13.2621,3.79909,1.80657e-14,-3.55079e-14,-58.9624,20.93,-95.346,38.1062,-43.921,15.1603,-11.137,7.12502,40.0025,-36.3623,1.80657e-14,-3.55079e-14,-60.3792,-6.95653,88.6445,39.7316,42.0493,21.9852,31.6194,7.12502,46.3797,54.5541,-16.9155,-5.4088,32.4621,38.4777,38.9589,-17.6293,19.8716,-39.8345,0.969517,-28.1372,30.8114,-43.9274,28.6744,25.9429
1.5801,17.2703,34.7823,-160.064,-52.3654,-172.032,-16.5512,1.56291,0.495778,-9.82558,0.955,1.78416,-1.20554,0.0637633,1.7464,0.837959,-16.7919,-10.0651,15.4886,-26.6329,14.3725,7.9587,-13.0538,3.71812,2.79003e-14,5.39638e-14,-58.9356,20.6068,-95.1861,37.7515,-43.2119,13.0311,-8.92471,7.12502,37.9952,-34.7252,2.79003e-14,5.39638e-14,-59.8667,-7.35143,88.3869,39.1041,41.2314,22.7163,31.3692,7.12502,47.0566,54.0105,-16.926,-5.41901,32.497,38.5343,38.8757,-17.6734,20.04,-39.8307,1.00867,-28.0931,30.8224,-44.0717,28.5943,26.0373
1.58604,17.2655,34.7886,-160.112,-52.3611,-171.96,-16.5619,1.73534,0.526731,-9.89276,1.17054,1.76944,-1.27723,0.166936,1.74615,0.583017,-16.514,-9.60862,15.5561,-26.1903,14.2127,7.88106,-12.8163,3.66299,2.07273e-14,-7.13761e-15,-58.7688,20.7826,-95.1541,37.3979,-43.0188,13.4776,-8.71093,7.12502,38.4167,-34.3956,2.07273e-14,-7.13761e-15,-59.448,-7.82947,88.1322,38.5731,40.5649,23.4424,31.266,7.12502,47.7274,53.605,-16.9698,-5.46447,32.5638,38.5808,38.9061,-17.6118,20.1712,-39.8943,1.07698,-28.1076,30.804,-43.8334,28.8039,25.8269
1.59033,17.2618,34.7939,-160.183,-52.4043,-171.861,-16.5686,1.73776,0.622585,-9.95404,1.14927,1.84784,-1.33858,0.149465,1.77168,0.62863,-16.0289,-9.19532,15.434,-25.435,14.0813,7.66138,-12.4567,3.70141,5.92083e-15,6.1499e-14,-58.6234,21.8517,-95.6068,37.0466,-42.9398,16.3234,-10.4495,7.12502,41.0958,-35.3353,5.92083e-15,6.1499e-14,-59.0645,-7.78933,87.606,38.0925,39.8106,24.2075,31.2614,7.12502,48.4325,53.2699,-17.001,-5.46216,32.6523,38.6178,38.7506,-17.8629,20.7041,-39.9206,0.9462,-28.0074,30.7771,-43.8485,28.9266,25.8406
1.59364,17.2644,34.7962,-160.209,-52.4772,-171.832,-16.5706,1.57759,0.631177,-10.0035,0.921054,2.09312,-1.38978,0.035328,1.99126,0.538561,-15.5311,-9.18046,15.6196,-24.6445,13.7184,7.5839,-12.0868,3.69452,-2.06891e-14,-9.64106e-15,-58.7149,23.3265,-96.1559,36.859,-43.0813,17.1322,-10.5536,7.12502,41.8548,-35.1922,-2.06891e-14,-9.64106e-15,-58.7247,-7.10541,86.9493,37.6671,38.7355,24.7912,31.2018,7.12502,48.9694,52.9493,-17.0127,-5.47372,32.7106,38.6311,38.6183,-17.9792,20.717,-39.9058,0.96313,-27.9843,30.7336,-43.7521,28.8924,25.7626
1.59488,17.2671,34.7992,-160.214,-52.5619,-171.842,-16.5828,1.47518,0.651996,-10.0289,0.772434,2.27501,-1.40936,-0.0390243,2.14934,-0.499122,-15.2746,-9.33106,16.7211,-24.2769,13.1177,8.01795,-11.8582,3.45669,-6.94752e-14,-4.04527e-14,-59.0457,23.0575,-95.8698,36.8282,-41.7186,16.1526,-8.91626,7.12502,40.9355,-33.8531,-6.94752e-14,-4.04527e-14,-58.2992,-6.73985,86.5571,37.2771,37.678,25.1427,30.9179,7.12502,49.2921,52.5046,-16.9945,-5.48377,32.7228,38.6102,38.4698,-18.3669,21.4901,-39.8765,0.997743,-28.0177,30.7004,-43.63,28.8721,25.649
1.59877,17.2687,34.8007,-160.213,-52.6625,-171.819,-16.6332,1.52358,0.687049,-10.1057,0.819518,2.28193,-1.46706,-0.0217167,2.14502,-1.14783,-15.0772,-9.1122,17.4681,-24.0255,12.7203,8.26938,-11.6972,3.26671,-3.96234e-14,2.29596e-14,-59.1718,22.8174,-95.7148,36.6764,-40.8292,15.4926,-7.88434,7.12502,40.3151,-33.0145,-3.96234e-14,2.29596e-14,-57.9096,-6.82562,86.0137,36.8957,36.3666,25.9128,30.5987,7.12502,49.9979,51.8226,-17.0247,-5.46638,32.7882,38.5906,38.3962,-18.6602,22.0278,-39.9098,1.01844,-28.0161,30.6948,-43.4969,28.8342,25.4415
1.5996,17.2684,34.804,-160.322,-52.742,-171.7,-16.6855,1.60913,0.787962,-10.1425,0.909763,2.32204,-1.48132,0.0169556,2.14479,-1.20583,-14.818,-8.67184,17.4838,-23.5917,12.429,8.14009,-11.484,3.18405,-4.74536e-14,-1.43125e-14,-58.9715,22.8522,-95.4426,36.2588,-40.396,16.0166,-7.55834,7.12502,40.8077,-32.5355,-4.74536e-14,-1.43125e-14,-57.5138,-6.92494,85.4566,36.5811,34.962,26.6713,30.4746,7.12502,50.691,51.3268,-17.0103,-5.54482,32.8778,38.5741,38.3712,-18.7758,22.3285,-39.9381,1.19673,-28.035,30.7275,-43.2014,28.8585,24.9869
1.60139,17.2667,34.8096,-160.386,-52.7598,-171.673,-16.739,1.74619,0.842695,-10.0939,1.0858,2.33923,-1.40632,0.105701,2.15905,-1.44791,-14.6443,-8.44114,17.5821,-23.3048,12.2742,8.13366,-11.3266,3.12588,7.18855e-14,3.57812e-14,-58.4766,22.689,-94.7898,35.8306,-40.1068,16.8347,-7.49138,7.12502,41.5758,-32.222,7.18855e-14,3.57812e-14,-56.857,-6.84551,84.8148,36.2422,33.4473,27.1474,30.5211,7.12502,51.1251,51.1324,-16.9782,-5.62663,32.8954,38.5841,38.353,-18.6441,22.1394,-39.9277,1.10772,-27.9879,30.7747,-43.2848,28.8556,25.1987
1.60462,17.2647,34.8129,-160.539,-52.7942,-171.531,-16.7649,1.89808,1.02493,-10.0661,1.26544,2.26627,-1.36168,0.187821,2.00684,-1.86246,-14.4685,-8.08914,17.9709,-23.0988,12.1277,8.25265,-11.1888,3.01937,1.08213e-14,2.54444e-14,-57.9407,22.2038,-94.1786,35.3386,-39.4018,18.0815,-7.51057,7.12502,42.7439,-31.8464,1.08213e-14,2.54444e-14,-56.1731,-6.64311,83.8547,36.0195,31.7836,27.8956,30.4735,7.12502,51.8054,50.6941,-16.9383,-5.73869,33.0113,38.5864,38.4125,-18.4654,21.5242,-39.9305,1.01042,-27.8352,30.8482,-43.5301,28.6865,25.7008
1.60949,17.2628,34.8139,-160.608,-52.8583,-171.471,-16.7605,1.98239,1.12825,-10.0973,1.36213,2.1886,-1.39504,0.228784,1.88135,-2.25229,-14.2306,-7.60282,18.3513,-22.7883,11.8719,8.32495,-11.0041,2.87993,-3.56756e-14,-8.34896e-15,-57.6468,21.9732,-93.9405,34.8817,-38.841,19.1625,-7.52199,7.12502,43.7541,-31.496,-3.56756e-14,-8.34896e-15,-55.7275,-6.50352,82.9013,35.9897,30.1631,28.6248,30.1778,7.12502,52.4665,50.0022,-16.9298,-5.80507,33.0954,38.5804,38.5159,-18.3284,21.0656,-40.0108,1.08745,-27.8424,30.9613,-43.4012,28.7763,25.1836
1.61054,17.2595,34.8128,-160.663,-52.9729,-171.449,-16.8258,1.89316,1.14387,-10.0905,1.23394,2.32461,-1.35401,0.165447,1.9977,-2.44476,-13.7338,-7.31389,18.4151,-22.0131,11.6272,8.23148,-10.6248,2.85796,-7.9986e-14,1.70955e-14,-57.5771,22.5702,-93.9675,34.7557,-38.8426,19.647,-7.70182,7.12502,44.2061,-31.5074,-7.9986e-14,1.70955e-14,-55.3779,-6.02554,82.1416,35.973,28.6605,28.8325,29.9245,7.12502,52.6543,49.6333,-16.8891,-6.04352,33.1547,38.5625,38.6956,-17.8167,20.1656,-40.0461,1.19201,-27.8829,31.0651,-43.1555,28.8012,24.7244
1.61314,17.2577,34.813,-160.841,-53.089,-171.242,-16.7951,1.88802,1.30842,-10.1673,1.19209,2.43493,-1.45029,0.134082,2.01473,-2.31407,-13.2883,-7.02336,18.4012,-21.3224,11.3634,8.06616,-10.3081,2.84376,-5.02863e-14,-5.12864e-14,-57.2731,22.4966,-93.3893,34.651,-38.887,20.1312,-8.3453,7.12502,44.6573,-31.9786,-5.02863e-14,-5.12864e-14,-54.9927,-5.37465,81.2394,35.8651,26.8131,28.99,29.6503,7.12502,52.7966,49.2706,-16.8725,-6.15495,33.3422,38.5283,38.7403,-17.6798,19.5728,-40.1134,1.15838,-27.7043,31.2074,-43.3017,28.6051,24.9276
1.61813,17.2588,34.811,-160.861,-53.0898,-171.277,-16.7259,1.97232,1.32407,-10.2671,1.29601,2.3793,-1.59453,0.179557,1.96199,-2.05006,-13.0751,-6.80477,18.5508,-21.0411,11.161,7.99336,-10.192,2.8074,4.14466e-14,3.37934e-15,-56.339,21.3201,-91.6983,34.5232,-39.0361,20.6097,-9.89134,7.12502,45.1026,-33.3504,4.14466e-14,3.37934e-15,-54.6765,-4.95643,80.2685,35.8731,24.9674,29.2561,29.2807,7.12502,53.0369,48.7497,-16.7605,-6.11614,33.3541,38.4228,38.7378,-17.7155,19.5317,-40.1122,1.29302,-27.7539,31.2998,-43.2113,28.3732,25.2867
1.62471,17.2547,34.8088,-161.081,-53.12,-171.078,-16.7123,2.10473,1.44541,-10.3067,1.45211,2.32987,-1.64326,0.249287,1.86468,-1.99128,-13.0026,-6.57425,18.7311,-20.9747,11.0328,7.99746,-10.1588,2.74626,-7.35628e-14,-1.05356e-14,-56.2344,21.1378,-91.589,34.2741,-38.6565,21.8351,-10.1955,7.12502,46.2406,-33.1892,-7.35628e-14,-1.05356e-14,-54.2541,-4.64911,79.3171,35.9324,23.2959,29.1509,29.2265,7.12502,52.942,48.7555,-16.6727,-6.24528,33.5087,38.3748,38.8623,-17.5632,20.0613,-40.1468,1.31489,-27.5963,31.4395,-43.3242,28.1615,25.6528
1.62916,17.2684,34.8018,-161.391,-53.1364,-170.759,-16.7489,2.24153,1.6234,-10.3234,1.60396,2.30473,-1.63955,0.314993,1.7615,-1.84839,-12.8485,-6.52534,18.8087,-20.8396,11.2066,7.99943,-10.0917,2.81936,-1.62569e-14,-5.58585e-14,-55.9262,20.6699,-91.1793,33.9005,-38.0115,22.7471,-10.3447,7.12502,47.0851,-32.9733,-1.62569e-14,-5.58585e-14,-53.7859,-4.4183,78.4582,36.0303,21.8723,28.9398,29.5222,7.12502,52.7513,49.1708,-16.5585,-4.96215,33.8353,38.3467,38.4673,-19.1638,21.8983,-40.1099,1.4383,-27.3702,31.4614,-43.2944,28.1515,25.5795
1.63795,17.2585,34.8025,-161.474,-53.141,-170.716,-16.8089,2.26116,1.63968,-10.3,1.62551,2.31998,-1.58373,0.326078,1.773,-1.85441,-12.5898,-6.36448,18.9065,-20.5049,11.209,7.98248,-9.9239,2.83733,9.34661e-14,5.34731e-14,-55.6265,20.6975,-91.0058,33.5452,-37.6565,17.7836,-7.23677,7.12502,42.465,-31.6691,9.34661e-14,5.34731e-14,-53.3735,-4.07399,77.6461,36.2727,20.693,28.8608,29.6177,7.12502,52.6798,49.3107,-16.6382,-5.57987,33.8462,38.4428,39.0648,-17.6928,19.7761,-40.1152,1.51396,-27.3846,31.4379,-43.0233,28.4915,24.9853
1.64135,17.2529,34.8026,-161.365,-53.1874,-170.941,-16.8752,2.18591,1.40762,-10.2801,1.55397,2.42336,-1.53734,0.304078,2.00329,-1.90952,-12.3944,-6.28376,19.1095,-20.2103,10.9785,7.99614,-9.78714,2.78265,4.57577e-14,1.61016e-14,-55.404,21.1534,-90.8906,33.1996,-37.2797,20.3533,-8.24154,7.12502,44.864,-31.7945,4.57577e-14,1.61016e-14,-53.0105,-3.56659,76.9508,36.355,19.5706,28.8709,29.3343,7.12502,52.689,49.0216,-16.7123,-5.90408,33.6957,38.5991,39.1014,-17.3158,18.368,-40.0307,1.58009,-27.5959,31.3679,-42.5738,28.77,24.4756
1.63816,17.2602,34.8025,-161.08,-53.2111,-171.378,-16.9704,2.15231,1.06895,-10.2164,1.5599,2.4576,-1.43193,0.32743,2.23318,-2.15121,-12.2841,-6.13441,19.4319,-20.0405,10.6848,8.0825,-9.69609,2.66598,7.7526e-15,-7.95139e-16,-54.8141,21.0995,-90.123,32.8659,-36.9708,20.9663,-8.45907,7.12502,45.4342,-31.7855,7.7526e-15,-7.95139e-16,-52.4631,-3.08251,76.2965,36.3579,18.2781,28.7431,29.2087,7.12502,52.5735,48.9674,-16.8028,-5.7811,33.4022,38.8642,38.8315,-17.8791,19.8995,-39.9201,1.71506,-27.9689,31.374,-42.3459,28.7059,24.214
1.64103,17.2534,34.8076,-160.983,-53.2621,-171.437,-17.0566,2.23026,1.10233,-10.2271,1.65355,2.4082,-1.3992,0.370416,2.17858,-2.25708,-12.1514,-5.80112,19.604,-19.8548,10.4745,8.0847,-9.59391,2.56572,5.61567e-15,4.69132e-14,-54.448,20.9415,-89.7171,32.5947,-36.6464,22.6033,-9.248,7.12502,46.952,-31.9353,5.61567e-15,4.69132e-14,-51.8663,-2.64216,75.5365,36.2597,16.7565,28.6115,29.0876,7.12502,52.4544,48.9194,-17.0543,-6.2955,33.3372,39.118,39.0438,-17.2038,20.3029,-40.0327,1.83489,-28.0699,31.4464,-42.3751,28.2921,24.5445
1.6463,17.2435,34.8144,-161.135,-53.3352,-171.305,-17.0392,2.30377,1.36526,-10.2044,1.72013,2.31587,-1.37298,0.391498,1.94292,-2.33554,-11.9821,-5.39167,19.6987,-19.6168,10.2974,8.04846,-9.46377,2.47491,-7.53642e-14,-2.82274e-14,-54.0816,20.8257,-89.5412,32.3074,-36.4194,23.6844,-9.3791,7.12502,47.9506,-31.6149,-7.53642e-14,-2.82274e-14,-51.3484,-2.31341,74.7224,36.3015,15.4609,28.5282,28.68,7.12502,52.3789,48.5579,-17.1711,-6.91732,33.3842,39.3252,39.2727,-16.2908,19.504,-40.0805,1.8197,-27.9756,31.5574,-42.5054,28.1217,24.7764
1.64931,17.2383,34.8153,-161.254,-53.4231,-171.315,-17.0081,2.3184,1.47316,-10.1693,1.73396,2.24165,-1.34499,0.395208,1.80532,-2.35622,-11.816,-5.14095,19.8392,-19.3915,10.1465,8.03823,-9.34985,2.41506,2.83392e-14,-4.7112e-14,-53.6569,20.5415,-89.1661,31.9915,-36.0502,24.1528,-9.12581,7.12502,48.3822,-31.1583,2.83392e-14,-4.7112e-14,-50.943,-2.0916,74.0625,36.4514,14.439,28.0923,28.3714,7.12502,51.984,48.4866,-17.1586,-7.43025,33.3638,39.5101,39.458,-15.5345,18.6136,-40.0205,1.8983,-28.0053,31.6943,-42.3938,28.0163,24.9563
1.65153,17.2376,34.8149,-161.254,-53.3874,-171.379,-17.1035,2.38816,1.4264,-10.1159,1.83272,2.24087,-1.24221,0.449247,1.84866,-2.34988,-11.7247,-5.13438,19.9266,-19.2435,10.0324,8.04036,-9.284,2.39466,1.02337e-13,-8.74653e-15,-53.1637,20.026,-88.4261,31.6735,-35.5659,23.016,-7.95158,7.12502,47.3337,-30.4694,1.02337e-13,-8.74653e-15,-50.4462,-1.73482,73.628,36.5212,13.477,27.1656,28.3704,7.12502,51.1416,48.9725,-17.1835,-7.41567,33.3139,39.6631,39.3443,-15.5864,18.4071,-40.0236,2.10113,-28.1352,31.7727,-42.1483,28.0959,24.419
1.65418,17.2376,34.8197,-161.206,-53.3336,-171.514,-17.0846,2.4612,1.43709,-10.1508,1.92677,2.17483,-1.28865,0.492887,1.78706,-2.10183,-11.5901,-5.04787,19.9964,-19.0827,9.98915,7.9928,-9.22073,2.4044,-7.12395e-14,-2.52457e-14,-52.8487,19.4231,-87.8176,31.3842,-35.0637,24.3384,-8.84585,7.12502,48.5531,-30.7964,-7.12395e-14,-2.52457e-14,-50.117,-1.26186,72.9437,36.6271,12.3881,26.4957,28.3399,7.12502,50.5307,49.2795,-17.2055,-7.26953,33.2153,39.8189,39.1647,-15.9026,18.4203,-39.963,2.15245,-28.2597,31.7308,-41.9526,28.2532,23.9557
1.65782,17.2365,34.8237,-161.073,-53.2465,-171.61,-17.077,2.46148,1.51884,-10.2479,1.90285,2.15347,-1.39286,0.469492,1.71436,-1.98944,-11.3108,-5.06758,20.248,-18.7361,9.93519,8.02274,-9.06743,2.4317,5.61815e-14,2.10712e-14,-52.5958,19.2073,-87.4657,31.1501,-34.379,25.0763,-9.25401,7.12502,49.2312,-30.8712,5.61815e-14,2.10712e-14,-49.8824,-0.307007,72.0104,36.5542,10.9739,25.8399,28.0365,7.12502,49.9311,49.2954,-17.3771,-7.16973,33.1353,39.9966,39.1194,-16.016,18.7105,-39.9947,2.08782,-28.2865,31.6577,-42.0206,28.2923,23.9159
1.66373,17.235,34.8243,-160.797,-53.157,-171.908,-17.1237,2.32241,1.36104,-10.2561,1.73209,2.26615,-1.38374,0.391086,1.89674,-2.04863,-10.9688,-5.23064,20.4914,-18.2395,9.79505,8.07133,-8.84504,2.45742,9.59136e-15,-2.16675e-14,-52.244,19.4971,-87.1802,30.9453,-33.6894,25.5123,-9.51293,7.12502,49.6311,-30.9272,9.59136e-15,-2.16675e-14,-49.695,0.830696,71.3601,36.6285,9.71835,24.7783,27.8424,7.12502,48.9576,49.5957,-17.5262,-7.12944,32.9458,40.1421,39.1329,-15.9491,18.2957,-39.9893,2.11743,-28.4916,31.5891,-42.1288,28.1296,24.2748
1.66748,17.2315,34.8229,-160.762,-53.1376,-171.977,-17.2545,2.28126,1.27672,-10.2079,1.6834,2.35022,-1.2692,0.372993,2.0286,-2.05629,-10.7503,-5.12477,20.6682,-17.8978,9.52529,8.06572,-8.6914,2.39163,6.25799e-14,1.39149e-14,-51.7642,19.3446,-86.6334,30.695,-33.0199,26.4081,-9.95459,7.12502,50.4507,-30.9374,6.25799e-14,1.39149e-14,-49.4927,1.14223,71.1909,37.0146,9.04288,23.5464,27.6766,7.12502,47.8234,49.9714,-17.5696,-7.2688,32.8968,40.2101,39.2796,-15.683,17.7458,-39.9979,2.26444,-28.6017,31.6014,-41.8573,28.2567,23.9421
1.66659,17.232,34.8211,-160.975,-53.1949,-171.816,-17.3106,2.33185,1.47759,-10.1729,1.72272,2.30259,-1.19487,0.383988,1.87286,-1.99641,-10.6036,-4.84949,20.8476,-17.7066,9.32769,8.05552,-8.59979,2.31099,2.27857e-14,2.62396e-14,-51.3517,18.96,-86.229,30.4683,-32.3628,26.6864,-9.91989,7.12502,50.7048,-30.7646,2.27857e-14,2.62396e-14,-49.2413,1.23607,70.8446,37.2835,8.34868,22.4439,27.1266,7.12502,46.8046,49.8784,-17.4514,-7.02193,33.0347,40.1813,39.3425,-15.9874,18.3825,-39.9273,2.35075,-28.5376,31.6296,-41.739,28.3801,23.513
1.6658,17.2331,34.8216,-161.101,-53.1784,-171.703,-17.4003,2.36197,1.66155,-10.1197,1.73478,2.28429,-1.08463,0.382959,1.75425,-1.95754,-10.4976,-4.70789,20.9908,-17.5653,9.18231,8.05859,-8.53538,2.25955,-3.967e-14,-1.43125e-14,-50.9639,18.7806,-85.9139,30.3901,-31.4667,25.7152,-9.04347,7.12502,49.817,-30.3618,-3.967e-14,-1.43125e-14,-48.9793,1.52545,70.4873,37.4283,7.7209,21.0069,26.535,7.12502,45.4719,49.8462,-17.3724,-6.78166,33.115,40.0843,39.3993,-16.1017,18.9016,-39.8914,2.18929,-28.3652,31.664,-42.221,28.0595,24.3789
1.66768,17.2342,34.822,-161.121,-53.1149,-171.808,-17.4514,2.35023,1.60338,-9.9811,1.74048,2.29097,-0.911253,0.396904,1.79658,-2.18832,-10.4057,-4.4925,21.2324,-17.421,8.92395,8.12596,-8.4547,2.14155,-2.73826e-14,3.57812e-15,-50.2729,18.2836,-85.2394,30.0855,-30.2381,25.3014,-8.0771,7.12502,49.4377,-29.5901,-2.73826e-14,3.57812e-15,-48.5493,2.00574,70.2362,37.4243,6.93713,19.0605,26.117,7.12502,43.6589,50.126,-17.2724,-6.83469,33.0078,40.0247,39.3767,-16.4278,20.0715,-39.7583,2.17815,-28.4035,31.6407,-42.3087,28.0687,24.3447
1.67035,17.2402,34.8211,-161.259,-53.1196,-171.715,-17.545,2.35719,1.56505,-9.87954,1.75784,2.36431,-0.758199,0.413809,1.90111,-2.2108,-10.2612,-4.25971,21.2383,-17.1803,8.74085,8.07537,-8.33502,2.0746,-2.11457e-14,-8.94531e-14,-49.5737,17.4891,-84.333,29.7182,-28.7093,25.7445,-7.44344,7.12502,49.8438,-28.7478,-2.11457e-14,-8.94531e-14,-48.1626,2.43055,70.1732,37.5117,6.29795,16.8312,26.0026,7.12502,41.5725,50.7343,-17.2259,-6.16633,33.1205,40.0377,39.2174,-17.8187,21.861,-39.6632,2.31121,-28.3817,31.5462,-42.0651,28.185,24.2169
1.67394,17.2443,34.82,-161.157,-53.0494,-171.965,-17.5957,2.21433,1.23838,-9.78522,1.61995,2.52323,-0.643742,0.366044,2.23193,-2.16865,-9.99379,-4.13546,21.28,-16.7419,8.46828,8.01214,-8.13852,2.01891,-2.12575e-14,-3.77691e-14,-49.0443,17.3041,-83.7481,29.4548,-27.4335,25.0853,-6.73874,7.12502,49.2395,-28.3518,-2.12575e-14,-3.77691e-14,-47.9234,3.24192,70.0388,37.423,5.56897,14.7558,25.4662,7.12502,39.6217,50.8052,-17.2353,-6.09497,32.9345,40.1774,39.0475,-18.9007,24.563,-39.5071,2.5392,-28.6419,31.4033,-41.5488,28.5315,23.4037
1.67603,17.2499,34.8213,-160.934,-53.0058,-172.277,-17.6146,2.14237,1.02742,-9.77059,1.55821,2.52613,-0.623292,0.344752,2.34429,-2.00751,-9.80396,-4.05315,21.356,-16.4776,8.36186,7.97266,-8.0242,2.00915,-1.70458e-14,-3.10104e-14,-48.6383,16.8085,-83.2676,29.2195,-26.1592,24.0126,-6.19558,7.12502,48.2531,-28.2895,-1.70458e-14,-3.10104e-14,-47.7264,3.53154,70.0236,37.4203,5.04717,12.4508,25.0995,7.12502,37.447,51.0471,-17.362,-6.08936,32.7164,40.3786,39.1082,-19.1199,25.6044,-39.4175,2.63382,-28.8985,31.2842,-41.3452,28.6515,23.2396
1.68213,17.251,34.8288,-160.718,-53.0972,-172.501,-17.5984,2.13937,1.08296,-9.81135,1.54964,2.38027,-0.668286,0.334196,2.15687,-1.91572,-9.65394,-3.814,21.6331,-16.3327,8.25785,8.01048,-7.9531,1.95474,4.48259e-14,-1.66979e-14,-48.1893,15.8331,-82.6698,28.9208,-24.8627,25.973,-7.11828,7.12502,50.0529,-28.3132,4.48259e-14,-1.66979e-14,-47.5171,3.41679,70.0362,37.4626,4.7091,10.0084,24.7831,7.12502,35.1343,51.3076,-17.621,-6.2397,32.5977,40.6554,38.9391,-19.2903,26.331,-39.4653,2.55609,-29.0467,31.2436,-41.4199,28.5361,23.4432
1.68924,17.2484,34.839,-160.758,-53.1427,-172.353,-17.6411,2.22746,1.51963,-9.84822,1.59865,2.19395,-0.666876,0.333825,1.72297,-1.73859,-9.48723,-3.55513,21.8048,-16.1809,8.27579,8.00703,-7.87477,1.94391,1.36664e-14,2.70347e-14,-47.7254,15.1277,-82.4467,28.5643,-23.9317,26.7375,-7.59885,7.12502,50.7514,-28.4179,1.36664e-14,2.70347e-14,-47.249,3.31128,69.9115,37.3664,4.41156,7.62526,24.4933,7.12502,32.8706,51.5208,-17.9262,-6.43709,32.685,40.8939,38.9017,-19.2688,26.7949,-39.6284,2.35703,-28.8963,31.2918,-41.7173,28.5105,23.816
1.69868,17.2417,34.8473,-160.926,-53.0959,-172.107,-17.6219,2.27079,1.85113,-9.90392,1.59899,2.15773,-0.725077,0.314734,1.49756,-1.51408,-9.27566,-3.56011,21.9548,-15.9275,8.27204,7.99943,-7.76914,1.97889,-7.4743e-14,-5.00937e-14,-47.1889,14.3717,-81.9096,28.1196,-22.4948,27.4812,-7.81848,7.12502,51.4288,-28.2574,-7.4743e-14,-5.00937e-14,-47.1391,3.61433,69.7529,37.1951,3.71346,5.32163,24.0426,7.12502,30.6767,51.5052,-18.161,-6.53402,32.8301,41.1052,38.9652,-19.0872,26.6652,-39.7528,2.13025,-28.6347,31.3732,-42.0061,28.4902,24.2336
1.70496,17.2416,34.8461,-161.235,-53.0828,-171.868,-17.5214,2.2012,2.00003,-9.87088,1.49019,2.25814,-0.738484,0.258229,1.49949,-1.51157,-9.05253,-3.57846,22.1898,-15.6212,8.12932,8.0453,-7.63529,1.96129,1.06971e-14,4.69132e-14,-46.6114,13.6564,-81.2784,27.6508,-20.6395,22.7136,-4.6076,7.12502,47.0541,-27.2499,1.06971e-14,4.69132e-14,-47.0517,3.96379,69.7466,37.0663,3.0773,3.28228,23.7747,7.12502,28.7303,51.5845,-18.1101,-6.62613,33.0032,41.2095,39.1513,-18.4063,25.4737,-39.6531,2.06163,-28.3916,31.3912,-42.1238,28.5323,24.2061
1.70974,17.2439,34.8446,-161.328,-52.9466,-171.909,-17.4685,2.17681,2.01713,-9.77709,1.46962,2.24384,-0.663551,0.253566,1.47036,-1.62703,-8.86286,-3.31852,22.5339,-15.3835,7.88995,8.12587,-7.51556,1.85424,-8.00605e-14,-3.67752e-14,-46.3074,13.1708,-81.2088,27.1884,-18.6385,22.1046,-4.05294,7.12502,46.4904,-26.9405,-8.00605e-14,-3.67752e-14,-46.7753,4.16694,69.7814,36.8651,2.84385,1.22303,23.664,7.12502,26.7613,51.7911,-18.0406,-6.33331,32.9784,41.3181,39.1652,-18.2864,24.8086,-39.5201,2.0962,-28.397,31.382,-42.4158,28.456,24.6815
1.70842,17.2515,34.8467,-161.217,-52.855,-172.113,-17.5,2.17392,2.02405,-9.71064,1.47341,2.15403,-0.572952,0.257745,1.37314,-1.72929,-8.70423,-2.99618,22.8758,-15.1837,7.60476,8.19917,-7.41344,1.71974,-1.05095e-13,-6.59965e-14,-46.1506,12.6788,-81.2656,26.9106,-16.5837,22.4398,-3.47653,7.12502,46.8008,-26.23,-1.05095e-13,-6.59965e-14,-46.5138,4.4072,69.7479,36.6784,2.6078,-0.868778,23.5822,7.12502,24.758,51.9999,-18.0154,-5.98199,32.8527,41.3722,39.242,-18.5015,24.381,-39.4093,2.05926,-28.5274,31.3233,-42.5876,28.4518,24.968
1.71155,17.2499,34.8482,-161.2,-52.8393,-172.186,-17.5312,2.14573,1.99101,-9.65252,1.44582,2.15324,-0.495004,0.248856,1.38704,-1.89427,-8.58075,-2.7867,23.2089,-15.0056,7.28924,8.2893,-7.32745,1.58685,-5.90887e-14,-2.18663e-14,-45.6552,11.4936,-80.4774,26.7232,-14.6879,19.6746,-2.44716,7.12502,44.2318,-26.243,-5.90887e-14,-2.18663e-14,-46.2275,4.76291,69.7496,36.3763,2.29745,-2.60873,23.3543,7.12502,23.0894,51.9909,-18.0679,-6.29405,32.7855,41.4611,39.5165,-18.3782,24.2067,-39.3735,2.05748,-28.5795,31.3246,-42.3144,28.6905,24.2322
1.71643,17.253,34.8472,-161.283,-52.7995,-172.045,-17.6215,2.16073,1.98681,-9.59369,1.46278,2.21981,-0.387714,0.261076,1.46447,-2.03775,-8.52196,-2.67929,23.4264,-14.8999,7.0379,8.35432,-7.27901,1.48692,-1.44367e-14,-6.1822e-14,-45.0209,10.2839,-79.509,26.4945,-13.2876,20.9878,-3.16312,7.12502,45.4541,-26.4815,-1.44367e-14,-6.1822e-14,-45.9374,5.04724,69.9036,36.2124,2.00818,-4.27135,23.5377,7.12502,21.4934,52.3652,-18.1834,-6.14203,32.9062,41.5267,39.5359,-19.0449,24.9855,-39.4305,2.03749,-28.446,31.34,-42.1211,28.9293,23.7809
1.71851,17.2524,34.8471,-161.511,-52.8547,-171.765,-17.7163,2.13892,2.17325,-9.50014,1.40339,2.31411,-0.235613,0.229943,1.451,-2.39546,-8.40171,-2.57989,23.8004,-14.7047,6.7099,8.50124,-7.18372,1.35598,-1.32565e-14,-3.65764e-14,-44.4687,9.24514,-78.7881,26.1514,-11.5973,20.9523,-2.72057,7.12502,45.4212,-26.0523,-1.32565e-14,-3.65764e-14,-45.7036,5.64229,69.8682,36.0526,1.60317,-5.67736,23.4723,7.12502,20.1425,52.4481,-18.2304,-6.20883,33.1279,41.5976,39.4777,-19.4341,25.6632,-39.4825,2.02842,-28.2255,31.4347,-42.3756,28.6128,24.33
1.71353,17.2482,34.8503,-161.584,-52.9775,-171.617,-17.8914,2.08878,2.42358,-9.43296,1.28907,2.35817,-0.0673889,0.165687,1.3403,-2.80433,-8.21722,-2.60634,24.308,-14.4573,6.4766,8.7193,-7.06584,1.2737,1.60519e-14,2.50469e-14,-44.0825,8.61954,-78.4183,25.8208,-10.0726,20.0968,-2.07406,7.12502,44.6252,-25.7197,1.60519e-14,2.50469e-14,-45.5394,6.30626,69.7241,35.8797,1.55109,-6.9029,23.311,7.12502,18.9642,52.4065,-18.2982,-6.64635,33.229,41.6282,39.4266,-19.4539,26.0102,-39.6029,2.17016,-28.2351,31.5532,-42.2288,28.4132,24.1619
1.71562,17.2446,34.852,-161.623,-52.9775,-171.594,-17.9268,2.05699,2.47254,-9.38581,1.24038,2.37863,0.00236303,0.142412,1.32649,-2.91384,-8.03379,-2.57359,24.6138,-14.2164,6.33124,8.81784,-6.95663,1.23213,-3.01656e-14,-5.00937e-14,-43.777,8.09795,-78.1451,25.4777,-8.8456,20.4398,-2.06061,7.12502,44.9446,-25.582,-3.01656e-14,-5.00937e-14,-45.4344,6.97296,69.5567,35.8114,1.65525,-8.02969,23.3427,7.12502,17.8803,52.5408,-18.1666,-6.8562,33.2569,41.3692,39.2505,-20.0069,27.0336,-39.7067,2.30699,-28.294,31.7407,-41.9828,28.524,23.5613
1.72083,17.2423,34.8508,-161.916,-52.9601,-171.356,-17.8389,2.07575,2.63725,-9.30971,1.25318,2.38537,0.042292,0.148951,1.24151,-3.03997,-7.89849,-2.35866,24.7761,-14.0237,6.15977,8.85808,-6.85625,1.15153,5.75233e-15,-4.57205e-14,-43.5001,7.24946,-77.7924,25.2382,-8.02788,20.0961,-1.98281,7.12502,44.6246,-25.6287,5.75233e-15,-4.57205e-14,-45.2317,7.54638,69.3923,35.7242,1.68296,-8.93632,23.3399,7.12502,17.0077,52.6154,-17.903,-6.90373,33.4543,41.0926,39.1291,-20.465,27.7416,-39.6982,2.56017,-28.2002,31.8569,-41.6409,28.7535,22.8386
1.74854,17.2495,34.7258,-163.674,-52.7184,-171.582,-16.6523,1.65481,1.05184,-8.64365,1.09109,2.68254,0.0996621,0.18877,2.40073,-3.21627,-7.77358,-2.09487,25.0546,-13.8686,5.95649,8.94549,-6.77083,1.04325,-8.22969e-14,-1.68967e-14,-43.3271,6.184,-77.3775,25.1765,-7.49832,19.5791,-2.20672,7.12502,44.1428,-26.0361,-8.22969e-14,-1.68967e-14,-45.0987,7.90334,69.2197,35.728,1.90844,-9.29082,23.3323,7.12502,16.6665,52.6368,-14.9959,-6.63208,33.5213,40.5728,38.6178,-20.882,27.4429,-37.4365,5.29301,-28.5235,31.983,-40.1894,27.4945,21.6196
1.76024,17.2586,34.729,-163.685,-52.4972,-171.69,-16.3998,1.66039,0.984924,-8.65098,1.12287,2.65422,-0.0416049,0.209421,2.40901,-3.3225,-7.64659,-2.10002,25.4222,-13.7372,5.86091,9.08056,-6.71493,1.01092,-1.50989e-13,-1.15295e-14,-42.9655,5.38359,-76.9968,24.9255,-6.96541,18.7744,-2.30129,7.12502,43.3917,-26.4073,-1.50989e-13,-1.15295e-14,-45.0862,8.41128,69.0751,35.7615,2.31439,-9.55848,23.3639,7.12502,16.4088,52.6899,-14.8202,-6.21521,33.4622,40.2733,38.8954,-21.6628,28.3581,-37.3546,5.13933,-28.481,32.0029,-40.6204,27.5802,22.2836
1.76863,17.2629,34.733,-163.777,-52.2971,-171.657,-16.2306,1.67876,1.05089,-8.63589,1.14839,2.63543,-0.112436,0.222087,2.35277,-3.44608,-7.50641,-2.15246,25.7554,-13.6034,5.8726,9.21901,-6.65228,1.02159,1.30589e-13,4.29375e-14,-42.0941,4.82482,-76.6004,24.1837,-6.56037,18.1564,-1.97763,7.12502,42.8139,-26.289,1.30589e-13,4.29375e-14,-45.0982,8.97291,68.9483,35.8521,2.57867,-9.81865,23.6003,7.12502,16.1583,52.9468,-14.674,-6.05673,33.4539,39.9929,39.0447,-22.336,29.1316,-37.3173,5.11224,-28.418,31.9932,-40.6145,27.9443,21.8925
1.77617,17.2686,34.7311,-163.828,-52.1642,-171.712,-16.0774,1.68812,0.982585,-8.60015,1.1848,2.59757,-0.156256,0.24626,2.35426,-3.59002,-7.35574,-2.13017,26.0347,-13.4752,5.97045,9.3448,-6.57702,1.04923,4.64224e-14,-7.95139e-16,-42.0337,2.8154,-75.6353,23.9722,-4.97948,18.001,-1.8476,7.12502,42.6685,-26.2096,4.64224e-14,-7.95139e-16,-45.0323,9.30815,68.9646,36.0355,3.23848,-10.0799,23.8407,7.12502,15.9067,53.2075,-14.7791,-5.90479,33.4337,40.3582,38.6607,-23.0645,29.8284,-37.1221,5.06142,-28.3798,31.8027,-40.5911,28.1381,21.7782
1.78586,17.265,34.7128,-163.773,-52.1672,-172.107,-15.9345,1.53013,0.53021,-8.49706,1.06253,2.57568,-0.127211,0.208888,2.56545,-3.74378,-7.17894,-2.03949,26.3604,-13.2994,5.96555,9.47468,-6.48279,1.03581,-4.96962e-16,1.98785e-16,-41.61,2.0967,-75.4748,23.1468,-3.88365,16.4468,-0.870332,7.12502,41.2117,-25.7191,-4.96962e-16,1.98785e-16,-45.0599,9.60433,68.9862,36.2739,4.23806,-10.0453,24.0487,7.12502,15.94,53.4127,-14.7695,-6.1779,33.2497,40.9651,38.2333,-23.2102,29.7005,-36.755,5.5101,-28.6794,31.6647,-40.6434,27.4867,22.6659
1.77409,17.2501,34.8237,-162.308,-52.0043,-172.324,-16.5131,1.93637,1.81386,-8.97163,1.34613,2.03014,-0.292187,0.260581,1.32183,-3.79459,-7.05844,-1.70369,26.5932,-13.1921,5.85604,9.53244,-6.41365,0.948836,-1.25234e-14,-1.64991e-14,-41.3504,0.781567,-75.1898,22.5846,-3.12051,15.5243,-0.641331,7.12502,40.3449,-25.7624,-1.25234e-14,-1.64991e-14,-45.0561,9.89122,68.8033,36.4615,4.80745,-9.87435,24.251,7.12502,16.1046,53.6018,-16.9209,-6.9577,32.7776,41.4234,39.2593,-21.7149,28.2007,-38.3048,3.24701,-28.6835,31.575,-43.3752,27.6781,26.0952
1.76977,17.2394,34.9018,-161.356,-51.894,-172.204,-17.0055,2.28593,2.84368,-9.32712,1.58855,1.68866,-0.379829,0.304687,0.432078,-4.05826,-6.96239,-1.45283,26.9492,-13.0969,5.66369,9.67513,-6.35233,0.832675,-9.16025e-14,1.5704e-14,-41.2744,-1.07515,-74.4429,22.3275,-1.85154,14.9393,-0.49691,7.12502,39.7945,-25.7846,-9.16025e-14,1.5704e-14,-44.9892,10.3775,68.6431,36.4982,5.04387,-9.62819,24.2292,7.12502,16.3417,53.5607,-18.6679,-7.28824,32.7284,41.8454,39.8279,-20.851,27.0736,-39.6125,1.59752,-28.3707,31.5422,-45.0644,28.0675,27.7178
1.80608,17.2673,34.7358,-163.481,-51.4997,-172.089,-15.8779,1.83046,0.912275,-8.58704,1.40949,2.20603,-0.244517,0.359114,2.01268,-4.35098,-6.8597,-1.37197,27.276,-12.9729,5.5192,9.82712,-6.28623,0.761865,-2.01456e-14,-5.56597e-15,-41.0925,-2.88358,-73.5934,21.8701,-0.379159,14.2156,-0.203543,7.12502,39.1128,-25.6912,-2.01456e-14,-5.56597e-15,-44.9917,10.7699,68.6613,36.6843,5.55073,-9.19696,24.2318,7.12502,16.7568,53.5287,-15.6313,-6.20944,33.1028,41.6732,38.2901,-22.5574,28.1776,-37.11,4.88344,-28.4839,31.596,-42.9809,26.8143,25.9559
