JuanDHNZ/ProyectoFinalCD/preprocessing/sports_trials_csv/05_19.csv
root1,root2,root3,root4,root5,root6,lowerback1,lowerback2,lowerback3,upperback1,upperback2,upperback3,thorax1,thorax2,thorax3,lowerneck1,lowerneck2,lowerneck3,upperneck1,upperneck2,upperneck3,head1,head2,head3,rclavicle1,rclavicle2,rhumerus1,rhumerus2,rhumerus3,rradius1,rwrist1,rhand1,rhand2,rfingers1,rthumb1,rthumb2,lclavicle1,lclavicle2,lhumerus1,lhumerus2,lhumerus3,lradius1,lwrist1,lhand1,lhand2,lfingers1,lthumb1,lthumb2,rfemur1,rfemur2,rfemur3,rtibia1,rfoot1,rfoot2,rtoes1,lfemur1,lfemur2,lfemur3,ltibia1,lfoot1,lfoot2,ltoes1
-0.219723,16.1857,-15.0615,-153.022,0.242958,176.422,-20.3333,0.628867,-5.35004,-9.21212,-0.0437907,-1.7342,1.31028,-0.738856,1.16003,-9.29937,1.73266,-0.412038,37.3278,-2.86072,1.67031,14.4107,-2.74148,-0.0857708,-7.91411e-15,5.76476e-15,-43.4496,-5.47548,-76.1223,13.9,2.8722,13.7303,9.02797,7.12502,38.6552,-16.59,-7.91411e-15,5.76476e-15,-48.7175,17.3692,62.6791,24.2467,-1.91435,27.0259,21.6753,7.12502,51.0144,42.3487,-31.5651,-15.3848,27.6662,60.8726,29.7175,-29.0079,29.5276,-45.9475,3.91898,-39.0769,41.4703,-34.9823,22.8867,6.43719
-0.231414,16.1785,-15.0576,-153.049,-0.0611009,176.454,-20.2759,0.635358,-5.00671,-9.22743,-0.095966,-1.79025,1.27633,-0.772888,0.896705,-9.21149,1.72176,-0.32464,37.2642,-2.85608,1.59076,14.3582,-2.73613,-0.130285,1.26415e-14,-2.62396e-14,-43.4244,-6.09414,-75.6711,13.6185,3.65918,13.9701,8.89878,7.12502,38.8813,-16.6551,1.26415e-14,-2.62396e-14,-48.6729,17.3441,62.5862,24.1417,-2.00633,26.9871,21.7596,7.12502,50.979,42.4528,-31.2676,-15.9758,27.7278,60.6913,29.0734,-29.0367,30.4058,-45.9597,3.95321,-39.0965,41.6422,-34.9634,22.672,6.17179
-0.228942,16.1819,-15.0748,-153.002,-0.0551934,176.668,-20.4242,0.740441,-4.81375,-9.31348,-0.0153852,-1.75064,1.25794,-0.747706,0.845987,-9.02976,1.71335,-0.372215,37.2846,-2.89192,1.59128,14.3275,-2.77199,-0.127139,7.93275e-15,-1.94809e-14,-43.5952,-5.96475,-75.6802,13.5374,3.53905,14.0222,8.85858,7.12502,38.9305,-16.6813,7.93275e-15,-1.94809e-14,-48.7746,17.1626,62.6032,24.0868,-2.04728,26.8688,21.8069,7.12502,50.8712,42.5599,-31.2064,-15.8494,27.9447,60.5338,29.3643,-28.7584,29.6243,-46.0921,4.06749,-38.8785,41.8455,-35.0164,22.7245,5.65487
-0.255457,16.1909,-15.055,-153.241,-0.890653,177.492,-19.7263,0.882019,-3.33079,-9.46509,-0.106,-1.60923,0.779102,-0.809811,0.149763,-8.81806,1.72134,-0.260105,37.2916,-2.88468,1.44756,14.279,-2.78529,-0.204194,-4.06887e-15,1.41137e-14,-43.8458,-5.4822,-75.9798,13.5895,2.89447,14.0196,8.88901,7.12502,38.928,-16.6516,-4.06887e-15,1.41137e-14,-48.8337,17.2293,62.3824,23.7605,-2.38929,26.8561,21.7361,7.12502,50.8596,42.4955,-30.863,-16.6076,28.9401,60.3272,30.402,-27.5574,27.47,-45.9658,3.81928,-37.8149,42.0516,-34.981,22.7485,5.49793
-0.246794,16.188,-15.0517,-153.18,-0.627461,177.143,-19.6529,0.879892,-3.88591,-9.72858,-0.101282,-1.69294,0.443144,-0.818603,0.379952,-8.26884,1.8372,-0.273591,37.4603,-2.87419,1.48801,14.2354,-2.8326,-0.189793,-6.27414e-15,1.31198e-14,-44.3351,-5.12355,-76.0945,13.585,2.64237,13.9909,8.95879,7.12502,38.901,-16.5895,-6.27414e-15,1.31198e-14,-49.2209,17.0557,62.2243,23.7111,-2.40186,26.8643,21.9649,7.12502,50.867,42.7202,-30.9384,-16.4125,28.5389,60.3076,30.2111,-27.6997,27.5716,-46.0855,3.82765,-38.2079,42.126,-35.21,22.5624,6.10895
-0.252002,16.1897,-15.051,-153.239,-0.674244,177.212,-19.7285,0.854732,-3.71329,-9.45619,-0.0794839,-1.67711,0.78096,-0.789074,0.299031,-9.19463,1.87422,-0.615227,37.8136,-2.86992,1.90244,14.6257,-2.79746,0.0261188,-2.52829e-15,5.56597e-15,-43.7487,-5.42743,-75.9931,13.378,2.93254,14.0982,8.8152,7.12502,39.0021,-16.7042,-2.52829e-15,5.56597e-15,-48.7068,17.1743,62.4963,23.8788,-2.19216,26.8162,22.4132,7.12502,50.8232,43.1927,-30.8021,-16.5622,28.5647,60.208,30.6199,-27.0559,26.1073,-46.0419,3.77872,-38.0954,42.2224,-35.4923,22.2473,6.80982
-0.25887,16.1908,-15.0509,-153.235,-0.793546,177.381,-19.6624,0.900826,-3.42679,-9.71139,-0.141154,-1.61327,0.477961,-0.847259,0.197001,-8.49897,2.02617,-0.806621,37.875,-2.81436,2.10407,14.4994,-2.8325,0.14871,-3.85145e-16,4.96962e-15,-44.2163,-5.2163,-75.8752,13.3111,3.11168,14.2785,8.78459,7.12502,39.1721,-16.6859,-3.85145e-16,4.96962e-15,-49.3167,16.758,62.591,24.1867,-1.75042,26.7731,22.6819,7.12502,50.7838,43.4831,-30.7837,-16.756,28.7676,60.1569,31.5156,-25.9865,23.6387,-46.0217,3.83687,-37.9663,42.2038,-35.3257,22.3288,6.6219
-0.257312,16.1902,-15.0486,-153.232,-0.757027,177.335,-19.8515,0.892986,-3.50585,-9.41003,-0.0482209,-1.56769,0.897044,-0.773698,0.302045,-9.22547,1.89195,-1.09436,37.854,-2.8181,2.1388,14.658,-2.81367,0.216093,2.42269e-16,-4.17448e-15,-43.6635,-5.79885,-75.3781,13.1031,3.68225,14.4439,9.0814,7.12502,39.3279,-16.3439,2.42269e-16,-4.17448e-15,-48.7093,17.1807,62.7695,23.986,-2.0008,26.8859,22.5295,7.12502,50.8867,43.2739,-30.7845,-16.7496,28.7242,60.0978,31.864,-25.6343,22.6873,-46.0352,3.85916,-38.0481,42.2127,-35.3003,22.3811,6.37346
-0.256539,16.1923,-15.0458,-153.203,-0.654532,177.196,-19.8929,0.890233,-3.67422,-9.35091,-0.00724248,-1.59041,0.977225,-0.745843,0.380138,-9.49128,1.86555,-1.18485,37.9758,-2.83873,2.15098,14.7798,-2.82701,0.230099,-4.40432e-15,1.47101e-14,-43.5418,-5.93602,-75.2366,13.0574,3.81806,14.4239,9.19306,7.12502,39.3091,-16.2377,-4.40432e-15,1.47101e-14,-48.5701,17.3826,62.7636,23.9285,-2.1498,26.8468,22.396,7.12502,50.8511,43.1601,-30.8501,-16.727,28.5432,60.1055,32.0913,-25.3599,22.1751,-46.0416,3.88637,-38.2363,42.1643,-35.3111,22.3524,6.43026
-0.255104,16.1852,-15.0397,-153.147,-0.625947,177.155,-19.8896,0.895995,-3.74735,-9.42565,-0.00998738,-1.58314,0.892752,-0.751821,0.429545,-9.39508,1.89526,-1.24981,38.0779,-2.85565,2.20564,14.8092,-2.85409,0.257974,-1.74558e-15,4.57205e-15,-43.6355,-5.83735,-75.2105,13.0707,3.78056,14.4034,9.17308,7.12502,39.2898,-16.2633,-1.74558e-15,4.57205e-15,-48.6913,17.4478,62.663,23.8475,-2.31487,26.8453,22.1085,7.12502,50.8497,42.8734,-30.8518,-16.6923,28.5006,60.0761,31.7176,-25.7402,23.4589,-46.1402,3.95824,-38.3344,42.1498,-35.0789,22.5101,5.70397
-0.24969,16.1926,-15.0326,-153.143,-0.637643,177.119,-19.7741,0.857825,-3.87438,-9.46089,-0.0477644,-1.54421,0.794596,-0.764682,0.536691,-9.26526,1.90726,-1.18762,37.9937,-2.78021,2.05393,14.7324,-2.83122,0.198618,7.67806e-15,-7.55382e-15,-43.5953,-6.13353,-74.9157,12.9334,4.30068,14.3756,9.25321,7.12502,39.2636,-16.1908,7.67806e-15,-7.55382e-15,-48.6946,17.5184,62.624,23.7419,-2.38135,26.9063,22.0768,7.12502,50.9054,42.8109,-31.0271,-16.6736,28.5451,60.1645,32.4308,-24.6994,20.7209,-46.1542,3.96623,-38.3457,42.1094,-35.0415,22.4426,5.90763
-0.247451,16.1932,-15.0263,-153.095,-0.71983,177.178,-19.7889,0.831123,-3.8179,-9.44864,-0.0875491,-1.49528,0.818166,-0.783217,0.548463,-9.26244,1.94286,-1.02633,37.8806,-2.63483,1.84949,14.6682,-2.75818,0.11166,5.79582e-15,-1.49089e-14,-43.4642,-6.42344,-74.6575,12.7331,4.72229,14.3218,9.21938,7.12502,39.2128,-16.2393,5.79582e-15,-1.49089e-14,-48.6634,17.6943,62.5492,23.6968,-2.51983,26.9219,22.1682,7.12502,50.9196,42.8943,-31.0956,-16.6309,28.6876,60.1506,32.1241,-24.9773,21.0126,-46.2597,3.90865,-38.2448,42.1489,-34.9558,22.5411,5.52097
-0.248528,16.1935,-15.0261,-153.026,-0.706003,177.222,-19.9225,0.860142,-3.7697,-9.46776,-0.0649391,-1.49395,0.865031,-0.779678,0.525947,-9.06695,1.94292,-1.21575,37.8537,-2.7236,2.12089,14.6186,-2.80055,0.245167,3.3607e-15,1.23246e-14,-43.4354,-6.75143,-74.3924,12.488,4.98077,14.151,9.70279,7.12502,39.0519,-15.8024,3.3607e-15,1.23246e-14,-48.7265,17.5354,62.6194,23.7682,-2.41725,26.8942,22.1216,7.12502,50.8943,42.8618,-31.1729,-16.5818,28.7374,60.1866,32.0387,-24.6837,20.4641,-46.3138,3.9021,-38.2198,42.1276,-34.8911,22.6991,4.95664
-0.24895,16.1888,-15.0241,-153.015,-0.668224,177.243,-19.9619,0.863948,-3.75731,-9.47696,-0.0660322,-1.47517,0.87515,-0.782385,0.538323,-9.00035,1.9704,-1.3144,37.8467,-2.71622,2.24451,14.6024,-2.80056,0.314917,-6.67171e-15,1.39149e-14,-43.3461,-6.42856,-74.6089,12.3739,4.5259,13.958,10.0541,7.12502,38.8699,-15.5031,-6.67171e-15,1.39149e-14,-48.754,17.7091,62.4696,23.5592,-2.66249,26.7746,21.7505,7.12502,50.7852,42.551,-31.1251,-16.5325,28.7292,60.1212,31.9079,-24.5832,20.2135,-46.3602,3.90838,-38.2157,42.151,-34.7864,22.8678,4.59333
-0.247821,16.1952,-15.0232,-152.93,-0.619325,177.246,-19.9677,0.873367,-3.80177,-9.53928,-0.0656431,-1.46253,0.809277,-0.786713,0.57766,-9.00933,1.99133,-1.22565,37.8396,-2.68993,2.21935,14.5995,-2.77856,0.292733,1.21134e-14,-2.50469e-14,-43.3862,-6.39711,-74.6083,12.4115,4.37061,13.8739,10.1588,7.12502,38.7906,-15.4209,1.21134e-14,-2.50469e-14,-48.7635,17.8223,62.3694,23.3984,-2.80299,26.7037,21.6042,7.12502,50.7205,42.4402,-31.2978,-16.486,28.758,60.1527,32.309,-24.0829,18.91,-46.4881,3.88737,-38.2093,42.1385,-34.7737,22.8603,4.79002
-0.249095,16.193,-15.0207,-152.867,-0.644686,177.213,-20.1268,0.85136,-3.81226,-9.47769,-0.0763097,-1.46933,0.956571,-0.791941,0.571739,-9.16093,2.01289,-1.04992,37.8205,-2.60053,2.06794,14.619,-2.71996,0.213328,-5.86415e-15,-9.93923e-16,-43.3019,-6.66033,-74.4551,12.4916,4.49814,13.9781,9.87601,7.12502,38.8889,-15.6757,-5.86415e-15,-9.93923e-16,-48.6558,17.9976,62.2887,23.3492,-3.00113,26.7887,21.6926,7.12502,50.7981,42.486,-31.3123,-16.4983,28.7368,60.0876,31.9906,-24.6557,20.2741,-46.5695,3.74302,-38.1921,42.1647,-35.0436,22.6005,5.53756
-0.253667,16.1911,-15.0203,-152.866,-0.763311,177.196,-20.2828,0.834984,-3.72673,-9.38244,-0.0843529,-1.4843,1.14091,-0.794806,0.502944,-9.2069,1.98851,-0.845472,37.6968,-2.53965,1.8411,14.5636,-2.67523,0.0975144,-1.51729e-14,2.36554e-14,-43.2631,-6.89855,-74.2947,12.6661,4.64178,14.2204,9.5503,7.12502,39.1173,-15.936,-1.51729e-14,2.36554e-14,-48.4896,17.9605,62.441,23.4246,-2.98609,26.737,22.0241,7.12502,50.7509,42.8435,-31.2472,-16.6941,28.7275,60.0415,31.7413,-24.916,21.0899,-46.5356,3.66548,-38.1825,42.1822,-35.1371,22.4158,5.84032
-0.259891,16.194,-15.0163,-152.867,-0.945198,177.305,-20.2412,0.859522,-3.47201,-9.37773,-0.0912369,-1.50153,1.13072,-0.802572,0.339617,-9.373,1.91056,-1.2491,37.888,-2.81033,2.33865,14.7131,-2.79739,0.327277,3.47873e-16,1.0138e-14,-43.3364,-6.91581,-74.3859,12.9423,4.43076,14.4484,9.21465,7.12502,39.3322,-16.2094,3.47873e-16,1.0138e-14,-48.4576,17.3631,62.8975,23.8776,-2.29126,26.7303,22.8094,7.12502,50.7448,43.6322,-31.2547,-16.9263,28.8777,60.0206,31.9544,-24.1663,19.7508,-46.5413,3.65236,-38.0667,42.2228,-35.0936,22.3031,6.00986
-0.258102,16.1953,-15.0111,-152.822,-0.890557,177.334,-20.2366,0.874822,-3.48316,-9.3733,-0.0681221,-1.49209,1.13229,-0.790058,0.360685,-9.28864,1.92569,-0.808103,37.6393,-2.6272,1.88072,14.5576,-2.69103,0.0964683,-1.33527e-14,2.0276e-14,-43.2967,-6.86283,-74.4518,13.0131,4.37371,14.4812,9.20051,7.12502,39.3631,-16.2145,-1.33527e-14,2.0276e-14,-48.4453,17.0454,63.1883,24.17,-1.81802,26.7307,23.0889,7.12502,50.7452,43.9114,-31.3641,-16.7984,28.9157,60.0521,32.0523,-23.9357,19.2414,-46.6433,3.66353,-38.0471,42.2391,-35.0572,22.4188,5.68076
-0.256955,16.1919,-15.0061,-152.788,-0.858496,177.282,-20.2578,0.862951,-3.56179,-9.37128,-0.070415,-1.50093,1.14352,-0.790239,0.395032,-9.46266,1.94954,-0.984545,37.878,-2.73254,2.18705,14.7225,-2.73633,0.229688,-5.51006e-15,3.89618e-14,-43.2157,-6.83301,-74.4746,12.8499,4.36284,14.3895,9.39628,7.12502,39.2767,-16.0439,-5.51006e-15,3.89618e-14,-48.4506,16.9494,63.2843,24.2423,-1.67919,26.7885,23.0265,7.12502,50.7979,43.8199,-31.3903,-16.7808,28.8898,60.0967,32.0288,-23.817,19.2196,-46.7122,3.66526,-38.121,42.2307,-34.8698,22.6189,5.27128
-0.25625,16.1906,-15.0027,-152.754,-0.86163,177.159,-20.3386,0.826795,-3.70033,-9.3187,-0.0793028,-1.51453,1.23875,-0.789453,0.455544,-9.55446,1.93888,-1.05211,37.8445,-2.70933,2.2125,14.7275,-2.7219,0.257438,8.60365e-16,1.98785e-16,-43.0845,-6.75365,-74.525,12.7573,4.30744,14.4284,9.56542,7.12502,39.3133,-15.8641,8.60365e-16,1.98785e-16,-48.3281,17.1531,63.2224,24.1138,-1.97172,26.7755,22.776,7.12502,50.786,43.5761,-31.4489,-16.8557,28.806,60.1471,32.1017,-23.3101,18.1058,-46.7164,3.7404,-38.3039,42.1958,-34.8115,22.368,5.81049
-0.255809,16.1943,-15.0033,-152.76,-0.865627,177.162,-20.3765,0.826896,-3.68851,-9.29125,-0.0733982,-1.51178,1.28774,-0.785431,0.452236,-9.49137,1.90994,-1.07781,37.8124,-2.75055,2.21482,14.6987,-2.7442,0.257861,-2.26739e-15,4.57205e-15,-43.1024,-6.87119,-74.4307,12.8682,4.4805,14.7591,9.22848,7.12502,39.6248,-16.1097,-2.26739e-15,4.57205e-15,-48.3136,17.041,63.3266,24.2084,-1.79897,26.7886,22.741,7.12502,50.798,43.5344,-31.5114,-16.8785,28.8168,60.1663,32.1358,-23.1952,17.6596,-46.6884,3.78122,-38.3097,42.1803,-34.7614,22.3333,5.70748
-0.257244,16.1936,-15.0039,-152.758,-0.882464,177.06,-20.4213,0.802274,-3.77461,-9.29725,-0.0934711,-1.54965,1.30248,-0.796861,0.456091,-9.43262,1.94447,-1.0216,37.8362,-2.74871,2.26131,14.6974,-2.73583,0.266409,2.69912e-15,3.57812e-15,-43.1474,-7.23856,-74.1892,12.8561,4.97155,15.0539,8.80541,7.12502,39.9023,-16.45,2.69912e-15,3.57812e-15,-48.3716,16.7539,63.5233,24.4702,-1.4467,26.8119,22.9112,7.12502,50.8193,43.6929,-31.5223,-17.017,28.7197,60.1877,31.5944,-24.0731,19.8716,-46.6473,3.68698,-38.3977,42.1705,-34.8159,22.3394,5.84239
-0.255723,16.1906,-15.0005,-152.725,-0.969722,177.082,-20.5225,0.751704,-3.76649,-9.24112,-0.145267,-1.51651,1.41646,-0.819716,0.473952,-9.41176,1.88543,-1.11943,37.7145,-2.79848,2.31259,14.6366,-2.75494,0.301672,-2.85132e-15,6.16232e-15,-43.003,-7.27414,-74.2041,12.7404,4.87237,15.0203,8.99097,7.12502,39.8707,-16.2739,-2.85132e-15,6.16232e-15,-48.2425,16.8448,63.5385,24.3901,-1.523,26.8706,22.9488,7.12502,50.8728,43.7009,-31.5326,-17.1073,28.8354,60.1865,31.0128,-24.79,21.5605,-46.7048,3.70311,-38.3864,42.1943,-34.7588,22.2813,5.79757
-0.254319,16.1891,-14.999,-152.733,-1.00483,177.127,-20.5441,0.737494,-3.73212,-9.22973,-0.16662,-1.4806,1.44126,-0.829399,0.487755,-9.45203,1.92366,-1.22372,37.779,-2.77502,2.42695,14.6791,-2.7492,0.368866,5.87968e-15,-4.17448e-15,-43.0081,-7.001,-74.4123,12.7597,4.35247,14.8431,9.31544,7.12502,39.704,-15.9992,5.87968e-15,-4.17448e-15,-48.2307,17.1772,63.2799,24.1139,-1.9726,26.9916,22.7546,7.12502,50.9831,43.4454,-31.4797,-17.1413,28.9293,60.1856,30.5834,-25.3364,23.2683,-46.7299,3.91471,-38.4363,42.1979,-34.529,22.2967,5.15387
-0.252948,16.1881,-14.9971,-152.76,-1.02464,177.108,-20.535,0.723317,-3.77111,-9.2143,-0.173314,-1.47853,1.45297,-0.82982,0.510531,-9.29369,1.88265,-1.17116,37.6412,-2.79002,2.32957,14.5745,-2.75708,0.321681,5.14045e-15,-2.06736e-14,-43.0105,-6.891,-74.514,12.7428,4.07826,14.7087,9.5557,7.12502,39.5773,-15.7965,5.14045e-15,-2.06736e-14,-48.198,17.2685,63.1944,24.0101,-2.12204,27.1165,22.6449,7.12502,51.0969,43.2721,-31.4063,-17.1679,28.9379,60.1867,30.268,-25.7313,24.1788,-46.7057,3.91524,-38.4455,42.191,-34.399,22.4351,4.95634
-0.252014,16.1874,-14.9939,-152.757,-0.964544,176.978,-20.4996,0.698938,-3.94301,-9.2229,-0.178115,-1.50071,1.4225,-0.828816,0.583737,-9.33344,1.92823,-1.12987,37.7251,-2.76158,2.35178,14.6234,-2.74133,0.324952,1.42783e-14,-1.03368e-14,-43.0085,-7.11241,-74.3085,12.6031,4.42747,14.6216,10.1092,7.12502,39.4953,-15.2671,1.42783e-14,-1.03368e-14,-48.2935,17.2247,63.2647,24.2829,-1.99952,27.2487,22.7989,7.12502,51.2173,43.3582,-31.4252,-17.1943,28.7967,60.169,29.591,-26.4261,25.5406,-46.7478,3.98329,-38.6239,42.2218,-34.3301,22.572,4.93541
-0.253082,16.1885,-14.9949,-152.741,-0.906191,176.948,-20.2963,0.696227,-4.00277,-9.4268,-0.232371,-1.48463,1.099,-0.86562,0.628655,-9.0712,1.94747,-1.15442,37.7421,-2.77308,2.3201,14.5711,-2.77726,0.312749,-1.83565e-15,-1.53064e-14,-43.3522,-6.9199,-74.322,12.6882,4.41521,14.5969,10.161,7.12502,39.4721,-15.2221,-1.83565e-15,-1.53064e-14,-48.7284,16.837,63.4383,24.7128,-1.5374,27.2507,23.1098,7.12502,51.2191,43.6681,-31.4637,-17.2145,28.7485,60.1456,29.1582,-26.8315,26.5085,-46.7902,3.9154,-38.6413,42.2452,-34.4142,22.7683,4.89447
-0.250625,16.1916,-14.995,-152.891,-1.1045,177.539,-20.48,0.690532,-3.44892,-9.15933,-0.257083,-1.26895,1.49479,-0.864795,0.533194,-9.31994,1.97328,-1.07118,37.6721,-2.67492,2.29618,14.5908,-2.70113,0.305469,-6.3549e-15,1.55052e-14,-42.9691,-7.09205,-74.3052,12.6867,4.63851,14.772,10.055,7.12502,39.637,-15.2796,-6.3549e-15,1.55052e-14,-48.4817,17.1661,63.4184,24.7346,-1.63931,27.299,22.9029,7.12502,51.263,43.4363,-31.2305,-17.0397,29.435,60,29.3206,-26.8593,26.3098,-46.7387,3.73527,-37.7803,42.3509,-34.8179,22.6055,5.81138
-0.252137,16.1904,-14.9931,-152.852,-1.05062,177.377,-20.6011,0.642843,-3.61249,-9.10481,-0.277798,-1.30513,1.61263,-0.87221,0.580599,-9.31131,1.94695,-1.12459,37.5902,-2.66397,2.2683,14.5488,-2.70009,0.307938,-1.27346e-16,-4.37326e-15,-42.8806,-7.18608,-74.287,12.7183,4.67488,14.9793,9.8619,7.12502,39.8321,-15.4146,-1.27346e-16,-4.37326e-15,-48.4404,17.1051,63.5116,24.7948,-1.47748,27.2985,22.8792,7.12502,51.2626,43.4129,-31.2142,-17.101,29.2248,59.9631,28.6135,-27.5825,28.2978,-46.7897,3.75548,-37.9954,42.4298,-34.9125,22.3158,5.78262
-0.249638,16.1923,-14.9917,-152.89,-1.0148,177.518,-20.6099,0.673731,-3.51445,-9.1039,-0.255238,-1.26962,1.61914,-0.862406,0.56751,-9.20109,2.00451,-1.02947,37.6339,-2.64238,2.28519,14.5438,-2.68702,0.299399,7.21216e-15,-2.62396e-14,-42.9318,-7.3364,-74.1795,12.7256,4.85624,15.204,9.88539,7.12502,40.0437,-15.3275,7.21216e-15,-2.62396e-14,-48.4678,17.0535,63.5287,24.8396,-1.36513,27.222,22.9235,7.12502,51.1929,43.4966,-31.2224,-16.935,29.3607,59.9204,29.2038,-27.0921,26.5177,-46.8367,3.85374,-37.8624,42.4919,-34.9157,22.3629,5.61881
-0.251928,16.19,-14.9854,-152.881,-1.08478,177.675,-20.5738,0.681833,-3.31773,-9.1674,-0.297958,-1.23096,1.53685,-0.891598,0.489452,-8.94851,2.00247,-1.02173,37.5152,-2.64125,2.25623,14.4286,-2.69638,0.289534,-9.16273e-15,1.98785e-16,-43.0283,-7.34295,-74.1713,12.7184,4.97227,15.1796,9.96952,7.12502,40.0207,-15.2503,-9.16273e-15,1.98785e-16,-48.6457,17.095,63.4044,24.9441,-1.37701,27.2957,22.9155,7.12502,51.2601,43.4505,-31.1577,-16.9699,29.5542,59.9119,28.5717,-27.5723,28.0855,-46.9126,3.79771,-37.681,42.5229,-34.7727,22.6656,5.06828
-0.246621,16.1922,-14.9819,-152.868,-0.785553,177.404,-20.5998,0.638295,-3.77552,-9.12442,-0.265138,-1.27995,1.58736,-0.864894,0.702595,-9.06866,2.0325,-0.948556,37.5343,-2.61038,2.28399,14.4646,-2.66301,0.291818,6.09399e-15,-1.19271e-15,-42.9104,-7.5947,-74.0037,12.5343,5.26598,15.0767,10.2438,7.12502,39.9238,-15.0052,6.09399e-15,-1.19271e-15,-48.5851,17.3803,63.2607,24.9093,-1.55014,27.3866,22.8436,7.12502,51.3428,43.3317,-31.3133,-16.7131,29.1906,59.9888,29.0317,-27.1761,27.0187,-46.9037,3.80106,-37.9852,42.4899,-34.7396,22.7999,4.78962
-0.249072,16.1942,-14.9794,-152.931,-0.859005,177.586,-20.6351,0.653739,-3.55549,-9.0045,-0.248374,-1.22253,1.73914,-0.849425,0.640627,-9.08752,1.95105,-0.969611,37.3678,-2.65097,2.24048,14.39,-2.67071,0.277643,-4.26145e-15,4.77083e-15,-42.6999,-7.49317,-74.1326,12.4986,5.07962,15.014,10.4739,7.12502,39.8648,-14.7928,-4.26145e-15,4.77083e-15,-48.3738,17.4725,63.3278,24.8165,-1.41167,27.3537,22.7896,7.12502,51.3129,43.2947,-31.2186,-16.7356,29.3717,59.9515,29.0947,-27.0998,26.9891,-46.8806,3.86402,-37.7929,42.5444,-34.6091,22.9192,4.26313
-0.245977,16.1933,-14.9803,-152.867,-0.696045,177.482,-20.8615,0.634688,-3.77214,-8.93315,-0.218783,-1.22514,1.9255,-0.832426,0.763179,-9.34227,2.03081,-1.10414,37.6429,-2.6332,2.44374,14.5835,-2.66636,0.378994,3.60142e-15,-4.57205e-15,-42.556,-7.63096,-74.0339,12.4851,5.22427,15.1535,10.2807,7.12502,39.9961,-14.9465,3.60142e-15,-4.57205e-15,-48.305,17.6564,63.2878,24.7342,-1.53271,27.3913,22.7832,7.12502,51.347,43.2689,-31.2893,-16.5924,29.2318,59.9742,28.6833,-27.622,28.0441,-46.9565,3.85968,-37.9274,42.548,-34.7842,22.8312,4.77632
-0.254131,16.1932,-14.9775,-152.883,-0.896822,177.712,-20.8606,0.664648,-3.38182,-8.90302,-0.239904,-1.16323,1.96571,-0.845195,0.602972,-9.49131,2.05784,-1.22241,37.7744,-2.65055,2.60786,14.6854,-2.67313,0.461371,-8.43903e-15,2.38542e-15,-42.4795,-7.31281,-74.2738,12.5452,4.87486,15.2117,10.059,7.12502,40.0509,-15.1517,-8.43903e-15,2.38542e-15,-48.2331,17.8421,63.2393,24.6316,-1.7026,27.4375,22.8017,7.12502,51.3891,43.2633,-31.1547,-16.802,29.4891,59.8937,27.8486,-28.4953,30.5793,-46.9664,3.62503,-37.5822,42.6314,-35.0727,22.7003,5.42268
-0.255047,16.1951,-14.981,-152.841,-0.913907,177.872,-20.9895,0.708353,-3.2321,-8.88838,-0.208208,-1.13363,2.04795,-0.834377,0.554768,-9.4123,2.02559,-1.17922,37.7075,-2.68682,2.5705,14.6352,-2.68583,0.434781,5.82377e-15,4.17448e-15,-42.3496,-7.4995,-74.1905,12.3601,5.00704,15.2823,10.0894,7.12502,40.1173,-15.1011,5.82377e-15,4.17448e-15,-48.2193,17.8323,63.2686,24.6598,-1.65992,27.3656,22.7358,7.12502,51.3237,43.2348,-31.2301,-16.7624,29.6691,59.8619,28.6684,-27.6416,28.5204,-47.0385,3.57084,-37.3838,42.6536,-35.1415,22.7895,5.42781
-0.267379,16.197,-14.9809,-152.861,-1.08724,178.025,-21.0172,0.775835,-2.86215,-8.86851,-0.180221,-1.1496,2.08875,-0.826487,0.33359,-9.18336,1.91103,-1.21193,37.5061,-2.83177,2.5871,14.4911,-2.74678,0.432024,6.97921e-15,-1.8487e-14,-42.2961,-7.41996,-74.3415,12.3774,4.78601,15.361,9.80266,7.12502,40.1913,-15.3654,6.97921e-15,-1.8487e-14,-48.1587,17.7108,63.3493,24.6831,-1.49301,27.2912,22.6282,7.12502,51.256,43.1656,-31.1814,-17.1295,29.8164,59.8347,29.2667,-26.6719,26.9522,-47.0163,3.53672,-37.2539,42.6862,-35.1183,22.8876,5.16222
-0.264267,16.1987,-14.977,-152.886,-0.908017,177.942,-20.9315,0.784528,-3.03737,-8.91251,-0.148995,-1.17914,1.994,-0.810711,0.409938,-9.18838,1.99962,-1.17326,37.6172,-2.77562,2.66723,14.5451,-2.71805,0.462695,-1.62134e-15,-1.98785e-15,-42.3188,-7.40104,-74.4094,12.3908,4.69063,15.5066,9.35557,7.12502,40.3283,-15.7706,-1.62134e-15,-1.98785e-15,-48.2386,17.6973,63.2831,24.6261,-1.42887,27.2781,22.5333,7.12502,51.244,43.0775,-31.2761,-17.0154,29.6881,59.8762,29.8637,-26.1094,25.1217,-46.9716,3.66525,-37.4098,42.6239,-35.1585,22.7735,5.55964
-0.261486,16.1969,-14.9644,-152.926,-0.748043,177.841,-20.7425,0.774417,-3.21858,-8.95504,-0.139295,-1.21246,1.84921,-0.80187,0.482027,-9.25584,2.03317,-1.17345,37.7087,-2.77437,2.72921,14.6058,-2.71573,0.48529,-3.77691e-15,1.88845e-14,-42.4138,-7.20316,-74.6493,12.5653,4.33299,15.3313,9.10175,7.12502,40.1635,-16.0748,-3.77691e-15,1.88845e-14,-48.2985,17.5597,63.3256,24.6876,-1.22112,27.3081,22.665,7.12502,51.2713,43.1937,-31.2507,-16.896,29.5805,59.9124,29.0507,-26.8816,26.9523,-46.9619,3.55592,-37.4802,42.6206,-35.3303,22.7798,6.07246
-0.252897,16.1995,-14.9615,-152.948,-0.472405,177.645,-20.6921,0.754827,-3.59712,-8.94784,-0.0966002,-1.26755,1.82293,-0.773492,0.647545,-9.27723,2.01614,-1.18092,37.707,-2.80349,2.7412,14.6112,-2.72736,0.487043,-1.28589e-15,5.56597e-15,-42.4464,-7.09026,-74.8061,12.7079,4.10004,15.4416,8.88484,7.12502,40.2672,-16.2601,-1.28589e-15,5.56597e-15,-48.3263,17.4544,63.3902,24.8213,-1.02011,27.2463,22.775,7.12502,51.2151,43.3356,-31.3892,-16.6808,29.3459,59.9845,29.5676,-26.6089,25.7263,-46.9542,3.54393,-37.6656,42.5728,-35.4057,22.9379,6.00016
-0.269921,16.1949,-14.9611,-152.954,-0.749406,177.915,-20.7919,0.824157,-3.0109,-8.8724,-0.0883181,-1.257,1.96599,-0.776287,0.326472,-9.28996,1.96292,-1.15191,37.5954,-2.84543,2.73513,14.5617,-2.72912,0.476916,-1.38217e-15,-9.54166e-15,-42.3799,-7.65621,-74.4588,12.677,4.66138,15.6061,9.09573,7.12502,40.4218,-16.0017,-1.38217e-15,-9.54166e-15,-48.1647,17.4782,63.449,24.8347,-1.03807,27.2507,22.9272,7.12502,51.2191,43.4855,-31.1358,-17.1786,29.5921,59.8977,27.5931,-28.6589,31.237,-46.9731,3.36556,-37.3329,42.6527,-35.4514,22.9864,5.98954
-0.274407,16.2008,-14.9682,-152.872,-0.69008,177.997,-20.9808,0.882838,-2.90105,-8.85582,-0.0314659,-1.26001,2.07946,-0.755249,0.271156,-9.33502,1.95987,-1.12486,37.6102,-2.86634,2.76365,14.5804,-2.72892,0.480357,9.56651e-16,-1.78906e-14,-42.2864,-7.98181,-74.2462,12.4463,4.98164,15.5078,9.64289,7.12502,40.3295,-15.4829,9.56651e-16,-1.78906e-14,-48.1148,17.4415,63.5046,24.8495,-0.960763,27.2014,22.8711,7.12502,51.1742,43.4547,-31.3935,-17.3883,29.7473,59.8888,30.9231,-25.3184,23.0642,-47.023,3.30669,-37.2393,42.6678,-35.5821,23.034,6.01341
-0.272402,16.1954,-14.9661,-152.845,-0.60125,178.047,-21.0175,0.91794,-2.90882,-8.86993,0.0101396,-1.24405,2.08136,-0.736847,0.30148,-9.41857,1.95208,-1.06917,37.6592,-2.87523,2.70972,14.6222,-2.73081,0.445362,1.11521e-14,3.97569e-16,-42.247,-8.09227,-74.1494,12.2953,5.06161,15.4003,9.7294,7.12502,40.2284,-15.4274,1.11521e-14,3.97569e-16,-48.1257,17.441,63.5118,24.8155,-0.902863,27.1163,22.616,7.12502,51.0967,43.2432,-31.2261,-17.1698,29.6919,59.8009,28.6626,-27.6903,29.4351,-47.1139,3.38146,-37.241,42.7765,-35.5268,23.1032,5.53705
-0.28461,16.2027,-14.9654,-152.898,-0.73819,178.118,-20.9091,0.955589,-2.60885,-8.8947,0.00167114,-1.27206,2.00589,-0.746384,0.10111,-9.339,1.96115,-1.04552,37.621,-2.86862,2.71797,14.5854,-2.72533,0.446597,2.06239e-15,1.09332e-14,-42.3371,-7.93302,-74.2862,12.409,4.90737,15.3141,9.54697,7.12502,40.1472,-15.6345,2.06239e-15,1.09332e-14,-48.1658,17.4998,63.419,24.6714,-1.00606,27.0119,22.3729,7.12502,51.0016,43.0534,-31.322,-17.6656,29.8225,59.7953,31.3515,-24.5794,21.8797,-47.0167,3.38046,-37.2088,42.7936,-35.5474,22.9985,5.69471
-0.2735,16.188,-14.9609,-152.897,-0.400296,177.955,-20.8112,0.976367,-3.03082,-9.00601,0.0730551,-1.29832,1.82582,-0.711991,0.330051,-9.19329,1.98388,-1.09168,37.6895,-2.89286,2.76126,14.5867,-2.75514,0.466339,1.61513e-16,-7.15625e-15,-42.586,-8.0594,-74.1199,12.5489,5.22556,15.6212,9.18914,7.12502,40.4361,-15.9039,1.61513e-16,-7.15625e-15,-48.3376,17.3766,63.4231,24.6424,-0.915282,26.95,22.2903,7.12502,50.9451,43.0022,-31.021,-17.0635,29.5031,59.727,27.3298,-29.019,32.4834,-47.1303,3.43938,-37.4094,42.845,-35.7379,23.0291,6.10241
-0.282299,16.1975,-14.9615,-152.919,-0.601661,178.181,-20.759,1.02361,-2.63241,-9.01423,0.0638674,-1.26501,1.79902,-0.722259,0.138287,-9.20501,1.96451,-1.12359,37.7106,-2.94632,2.82012,14.6028,-2.77708,0.487624,-8.35517e-16,-1.45113e-14,-42.6033,-8.47366,-73.8155,12.4418,5.74478,15.7197,9.17004,7.12502,40.5287,-15.8943,-8.35517e-16,-1.45113e-14,-48.3133,17.2924,63.4965,24.691,-0.756514,26.9738,22.4619,7.12502,50.9669,43.1618,-31.1852,-17.4518,29.8151,59.7393,30.3727,-25.6062,24.1698,-47.0684,3.28569,-37.1,42.8463,-35.7883,23.1154,6.12908
-0.277685,16.2003,-14.9678,-152.88,-0.382037,178.228,-21.064,1.01846,-2.76786,-8.88337,0.107448,-1.18095,2.09038,-0.693385,0.309898,-9.24943,1.95525,-1.12509,37.5712,-2.8475,2.69506,14.5399,-2.73238,0.455812,2.67117e-15,2.38542e-15,-42.3922,-8.3514,-73.8433,12.3604,5.5925,15.618,9.25589,7.12502,40.433,-15.838,2.67117e-15,2.38542e-15,-48.1539,17.6246,63.4825,24.5646,-0.828316,26.8709,22.761,7.12502,50.8731,43.513,-31.2674,-17.2216,29.8203,59.7258,30.8857,-24.9451,21.4955,-47.1547,3.42993,-37.1016,42.8943,-36.013,22.988,6.49641
-0.276584,16.1992,-14.9703,-152.884,-0.229039,178.24,-21.2111,1.05535,-2.81888,-8.81507,0.179875,-1.19483,2.23553,-0.655786,0.338299,-9.27065,1.9217,-1.1489,37.5141,-2.88763,2.73991,14.5198,-2.74045,0.474393,-5.44484e-15,1.98785e-14,-42.3678,-8.31898,-73.9033,12.3476,5.57818,15.5553,9.29834,7.12502,40.3741,-15.8138,-5.44484e-15,1.98785e-14,-48.0407,17.6946,63.4615,24.4847,-0.807712,26.8088,22.8166,7.12502,50.8165,43.5999,-31.2108,-17.1064,29.7581,59.7269,30.2424,-25.7332,23.1766,-47.1785,3.54611,-37.1438,42.9135,-35.9491,23.0654,6.38288
-0.274751,16.1948,-14.9638,-152.858,-0.272289,178.341,-21.1639,1.08719,-2.7388,-8.87161,0.1923,-1.18089,2.15184,-0.654322,0.311366,-9.16419,1.87719,-1.21813,37.4607,-2.96536,2.80437,14.4742,-2.77858,0.503121,-3.41661e-17,7.95139e-16,-42.5297,-8.64591,-73.6554,12.37,6.01249,15.6082,9.35836,7.12502,40.4238,-15.7384,-3.41661e-17,7.95139e-16,-48.0602,17.5741,63.5003,24.4865,-0.69799,26.7628,22.6896,7.12502,50.7745,43.4959,-31.1082,-17.025,29.921,59.7315,28.8355,-27.2135,27.1215,-47.2635,3.45646,-36.9817,42.9318,-35.8388,23.2087,6.14241
-0.273389,16.2,-14.9628,-152.823,-0.323235,178.379,-21.178,1.09126,-2.70704,-8.88554,0.188086,-1.18038,2.14456,-0.658525,0.292978,-9.22395,1.88922,-1.17265,37.5526,-2.97947,2.79658,14.5321,-2.7838,0.486959,-6.563e-15,1.19271e-14,-42.5181,-8.72385,-73.6335,12.3421,6.05267,15.7639,9.16016,7.12502,40.5702,-15.8913,-6.563e-15,1.19271e-14,-47.9386,17.8759,63.2752,24.2123,-1.06122,26.7737,22.6597,7.12502,50.7844,43.4606,-31.337,-17.0385,30.0412,59.8273,30.1198,-25.9227,23.4019,-47.2627,3.31869,-36.8443,42.8419,-35.8617,23.2029,6.00573
-0.267561,16.1985,-14.9489,-152.827,-0.1398,178.13,-21.0433,1.03105,-3.11775,-8.88548,0.187463,-1.2154,2.06795,-0.648041,0.489467,-9.26212,1.91187,-1.09911,37.5763,-2.94506,2.74662,14.5496,-2.76391,0.457777,8.45301e-15,-1.23246e-14,-42.4189,-8.79274,-73.5793,12.2501,6.18106,15.8166,9.31383,7.12502,40.6198,-15.7222,8.45301e-15,-1.23246e-14,-47.8816,18.1025,63.1894,24.1156,-1.25819,26.8177,22.6741,7.12502,50.8245,43.4529,-31.4267,-16.8598,29.7913,59.8543,29.2961,-27.0732,25.6205,-47.3293,3.09065,-36.986,42.859,-36.224,22.9447,7.24268
-0.251525,16.1935,-14.9134,-152.981,0.499525,177.466,-20.4321,0.946849,-4.17657,-8.95021,0.252792,-1.34528,1.66145,-0.585219,0.969475,-9.23968,1.94251,-1.07506,37.5517,-2.87937,2.70049,14.5293,-2.73712,0.444969,7.54605e-15,-8.94531e-15,-42.4,-8.95882,-73.4033,12.1572,6.43682,15.8958,9.32274,7.12502,40.6942,-15.6901,7.54605e-15,-8.94531e-15,-47.9659,18.0749,63.2525,24.2189,-1.10087,26.7709,22.5556,7.12502,50.7818,43.3579,-31.5416,-16.2117,28.9898,60.1134,27.7636,-28.7806,29.0445,-47.2512,3.13867,-37.7396,42.6597,-36.2001,23.2747,7.55688
-0.273958,16.1904,-14.9592,-152.683,-0.251375,178.375,-21.3915,1.06369,-2.79109,-8.89095,0.157788,-1.13417,2.2444,-0.678755,0.381434,-9.22096,1.95171,-1.16335,37.5639,-2.88237,2.77952,14.533,-2.74415,0.492272,1.07918e-14,-5.1684e-15,-42.4567,-8.75723,-73.5186,12.2222,6.22053,15.9389,9.27116,7.12502,40.7347,-15.729,1.07918e-14,-5.1684e-15,-48.024,18.1583,63.1481,24.1339,-1.2219,26.7714,22.5129,7.12502,50.7823,43.3149,-31.2443,-17.0289,30.0538,59.7852,27.433,-28.364,29.9326,-47.4508,3.37096,-36.9229,42.7932,-35.9127,23.0959,6.97239
-0.252939,16.1945,-14.9216,-153.029,0.704346,177.435,-20.4607,-1.23992,-3.40181,-9.03475,0.901458,-1.09308,1.6625,1.32051,0.983413,-9.0956,1.93916,-1.18845,37.5401,-2.93443,2.83894,14.496,-2.76991,0.513845,1.57164e-15,-1.35174e-14,-42.5204,-8.60842,-73.6393,12.2571,6.0599,15.951,9.12259,7.12502,40.746,-15.874,1.57164e-15,-1.35174e-14,-48.0605,18.268,62.966,23.9954,-1.47434,26.8704,22.3323,7.12502,50.8726,43.0845,-31.4122,-16.1072,28.8221,60.1574,28.5698,-27.613,26.7967,-47.0792,3.52162,-37.9987,42.4941,-36.0156,23.4218,6.9979
-0.275611,16.1957,-14.9652,-152.763,-0.17238,178.406,-21.2554,1.10074,-2.7699,-8.98983,0.176224,-1.13795,2.06871,-0.6758,0.371473,-9.01097,1.96431,-1.11981,37.5972,-2.90983,2.73392,14.5006,-2.77543,0.459785,-9.78704e-15,2.26615e-14,-42.6148,-8.39031,-73.7053,12.2362,5.95366,15.984,9.19431,7.12502,40.7771,-15.7925,-9.78704e-15,2.26615e-14,-48.2424,18.1541,63.0072,24.1478,-1.33728,26.8043,22.4643,7.12502,50.8123,43.2498,-31.1991,-16.9427,29.9773,59.8868,28.7846,-26.5369,26.171,-47.2372,3.66033,-37.0137,42.568,-35.6619,23.1303,6.46514
-0.251855,16.1954,-14.9126,-153.196,1.03808,176.902,-19.9544,-1.33397,-4.05677,-9.19942,0.890469,-1.21176,1.22375,1.34852,1.21204,-9.01906,2.00812,-1.12931,37.6911,-2.89748,2.79171,14.5484,-2.77414,0.483797,-1.67973e-14,2.54444e-14,-42.7406,-8.22489,-73.7816,12.3064,5.80354,16.2715,8.54522,7.12502,41.0471,-16.3562,-1.67973e-14,2.54444e-14,-48.3744,18.1022,62.9837,24.1746,-1.31462,26.7836,22.3889,7.12502,50.7934,43.1848,-31.4431,-16.0077,28.0822,60.4473,28.7543,-26.9939,26.0368,-46.7445,3.76635,-38.7206,42.1456,-35.6301,23.5305,6.57803
-0.253696,16.1951,-14.9162,-153.062,0.828521,177.169,-20.1027,-1.34974,-3.72578,-9.26204,0.834706,-1.11453,1.23651,1.32364,1.11818,-8.89034,2.01758,-1.1721,37.67,-2.91014,2.84256,14.5104,-2.78752,0.510657,1.21414e-14,2.98177e-15,-42.826,-8.17405,-73.757,12.304,5.78685,16.0758,9.1141,7.12502,40.8633,-15.8456,1.21414e-14,2.98177e-15,-48.5012,18.1628,62.8686,24.1181,-1.42209,26.6572,22.0525,7.12502,50.6781,42.9117,-31.5042,-15.9764,28.4109,60.4673,27.4393,-28.2706,29.3941,-46.8556,3.70551,-38.3883,42.0623,-35.6,23.3919,6.91311
-0.251726,16.2024,-14.9159,-153.025,0.991896,176.928,-20.1287,-1.39288,-4.05816,-9.29243,0.853831,-1.15916,1.21303,1.34847,1.26235,-8.66547,2.0144,-1.17006,37.5521,-2.89662,2.81074,14.4014,-2.78875,0.502714,2.08072e-14,-3.20043e-14,-42.8767,-8.47948,-73.4508,12.1603,6.1408,16.1419,9.3907,7.12502,40.9255,-15.5493,2.08072e-14,-3.20043e-14,-48.5293,18.4087,62.6751,23.9547,-1.76017,26.6515,21.9226,7.12502,50.673,42.7847,-31.8618,-15.9382,28.1657,60.7403,29.3401,-26.3044,24.4414,-46.7353,3.5148,-38.5573,41.7939,-35.8223,23.2622,7.73619
-0.239163,16.1979,-14.9145,-153.008,1.45106,176.578,-20.2052,-1.43322,-4.69241,-9.27193,0.926462,-1.22221,1.26229,1.40129,1.57043,-8.67676,2.00778,-1.26033,37.5002,-2.87615,2.84049,14.3795,-2.78363,0.535518,2.6634e-14,-4.49253e-14,-42.767,-8.41921,-73.4784,12.0421,6.03958,16.1213,9.53537,7.12502,40.906,-15.4108,2.6634e-14,-4.49253e-14,-48.4657,18.5636,62.633,23.8978,-1.86715,26.6106,21.943,7.12502,50.6356,42.8255,-31.9647,-15.4718,27.7069,60.8073,29.1778,-26.4003,24.4146,-46.8105,3.54789,-38.9443,41.778,-35.924,23.4443,7.62415
-0.245685,16.2028,-14.9143,-153.097,1.16996,176.911,-20.1142,-1.36221,-4.20412,-9.19718,0.894699,-1.16231,1.30406,1.35749,1.35174,-8.80889,1.97577,-1.2387,37.5026,-2.9088,2.83928,14.4118,-2.78557,0.526603,-1.88783e-14,3.29983e-14,-42.6494,-8.9321,-73.1444,11.8595,6.58458,16.1204,9.67465,7.12502,40.9052,-15.2718,-1.88783e-14,3.29983e-14,-48.3293,18.656,62.6201,23.8736,-1.9395,26.6367,21.9257,7.12502,50.6594,42.7952,-31.8547,-15.668,28.1012,60.7881,29.8244,-25.4295,22.0137,-46.7117,3.46712,-38.5021,41.8087,-35.8939,23.5263,7.30623
-0.246688,16.2003,-14.9042,-153.065,1.05995,177.043,-19.9797,-1.34958,-4.03249,-9.26456,0.878021,-1.14133,1.16614,1.35198,1.26946,-8.71087,1.99763,-1.11931,37.4994,-2.89463,2.77703,14.3857,-2.77631,0.481869,2.99109e-15,-5.96354e-15,-42.7454,-8.92412,-73.1898,11.9734,6.47262,16.2582,9.36195,7.12502,41.0346,-15.5434,2.99109e-15,-5.96354e-15,-48.3707,18.569,62.6099,23.9648,-1.9751,26.7824,22.0212,7.12502,50.7924,42.8177,-31.8506,-15.6546,28.3158,60.7695,29.3149,-25.9619,23.6961,-46.8234,3.55334,-38.413,41.8486,-35.7716,23.3734,7.24392
-0.241679,16.197,-14.8888,-152.978,1.10573,177.239,-19.7829,-1.33042,-3.93772,-9.40219,0.888322,-1.06603,0.917624,1.37103,1.29069,-8.60884,2.05019,-1.06648,37.5055,-2.84328,2.77179,14.3633,-2.75545,0.477247,-1.29645e-14,2.54444e-14,-42.8853,-8.65738,-73.357,12.1395,6.15825,16.2962,9.18361,7.12502,41.0703,-15.7104,-1.29645e-14,2.54444e-14,-48.5321,18.5697,62.5036,24.0591,-2.09309,27.0027,22.1955,7.12502,50.9932,42.8807,-31.9938,-15.3854,28.628,60.7566,29.215,-26.2825,24.21,-47.0672,3.55302,-38.2193,41.8961,-35.6932,23.5467,7.05462
-0.249135,16.1966,-14.9018,-152.987,1.11381,176.962,-19.9839,-1.39856,-4.10624,-9.31778,0.839634,-1.1332,1.11191,1.34337,1.31078,-8.7551,2.06449,-1.06882,37.5855,-2.80294,2.7126,14.4323,-2.74356,0.456953,-2.45126e-14,3.3197e-14,-42.8166,-8.88364,-73.1584,12.1757,6.46444,16.3808,9.1514,7.12502,41.1497,-15.7172,-2.45126e-14,3.3197e-14,-48.5431,18.6792,62.4992,24.1608,-2.2458,27.2017,22.3153,7.12502,51.1744,42.8988,-31.9759,-15.7422,28.2657,60.8021,29.78,-25.3896,22.5412,-46.9039,3.57221,-38.5901,41.8325,-35.6221,23.4882,6.92084
-0.247977,16.1987,-14.9031,-153.043,1.28881,176.785,-20.0501,-1.40058,-4.3607,-9.20472,0.867585,-1.17732,1.26301,1.34847,1.41726,-8.90416,2.00829,-1.0739,37.5664,-2.83285,2.64702,14.4568,-2.7532,0.427424,-6.1499e-15,1.17283e-14,-42.5743,-8.89766,-73.1955,12.1062,6.48082,16.3748,9.27721,7.12502,41.1442,-15.5932,-6.1499e-15,1.17283e-14,-48.4111,18.5434,62.7377,24.3359,-1.97104,27.1561,22.5114,7.12502,51.1329,43.1183,-31.9907,-15.6002,27.9769,60.8572,29.6162,-25.6768,22.993,-46.8162,3.62131,-38.8014,41.779,-35.7144,23.4707,7.11028
-0.245367,16.1972,-14.905,-153.138,1.42823,176.693,-20.0157,-1.38319,-4.5368,-9.14841,0.907268,-1.21078,1.302,1.36372,1.48989,-8.90648,1.9699,-1.2127,37.5482,-2.90884,2.78253,14.4546,-2.78777,0.497109,-1.66544e-14,1.33186e-14,-42.4884,-9.22273,-72.9696,11.8876,6.86004,16.2621,9.58316,7.12502,41.0384,-15.321,-1.66544e-14,1.33186e-14,-48.3339,18.5768,62.7132,24.3329,-2.05123,27.3171,22.5931,7.12502,51.2795,43.1171,-31.881,-15.4309,27.7881,60.9156,28.893,-26.2821,24.3838,-46.675,3.80036,-38.9755,41.6669,-35.5075,23.6739,6.29204
-0.247742,16.1893,-14.9058,-153.156,1.39574,176.698,-20.0027,-1.40622,-4.50408,-9.15991,0.871862,-1.20668,1.2854,1.34675,1.46802,-8.88266,1.99358,-1.2327,37.6249,-2.90787,2.78969,14.486,-2.79982,0.501001,4.6497e-15,4.77083e-15,-42.5419,-9.52077,-72.7347,11.7863,7.28773,16.2078,9.79825,7.12502,40.9873,-15.1222,4.6497e-15,4.77083e-15,-48.4237,18.4303,62.7701,24.5147,-1.89641,27.527,22.9298,7.12502,51.4705,43.3448,-31.6902,-15.63,27.8588,60.8795,28.2384,-26.6915,25.9194,-46.6526,3.76855,-38.9704,41.6693,-35.4298,23.7922,6.22268
-0.246627,16.1927,-14.9078,-153.03,1.52718,176.507,-20.0865,-1.45797,-4.74898,-9.23825,0.881595,-1.24247,1.24042,1.37286,1.57006,-8.86478,2.00492,-1.26441,37.7246,-2.92138,2.77719,14.53,-2.82369,0.496172,1.35205e-14,-1.27222e-14,-42.6581,-9.54034,-72.6639,11.8773,7.35968,16.299,9.65477,7.12502,41.0729,-15.2384,1.35205e-14,-1.27222e-14,-48.5066,18.1939,62.9189,24.7118,-1.7318,27.6417,23.0399,7.12502,51.5747,43.3948,-31.943,-15.4795,27.6386,60.892,28.4952,-26.658,25.7301,-46.7678,3.75108,-39.1964,41.6328,-35.5768,23.604,7.0764
-0.252728,16.1981,-14.9139,-153.053,1.2219,176.875,-20.13,-1.3877,-4.23562,-9.1836,0.865183,-1.16671,1.32781,1.34162,1.3594,-8.95614,1.95116,-1.28133,37.7871,-3.00908,2.77121,14.5842,-2.8644,0.481956,-1.23215e-14,3.77691e-15,-42.559,-9.84107,-72.4727,11.7759,7.57971,16.4602,9.57306,7.12502,41.2243,-15.2716,-1.23215e-14,3.77691e-15,-48.3633,18.1427,62.9759,24.7126,-1.79997,27.9304,22.9081,7.12502,51.837,43.1101,-31.8417,-15.5764,28.0756,60.7688,28.8148,-26.2959,24.8888,-46.7353,3.71899,-38.7397,41.6849,-35.6434,23.39,7.36533
-0.251184,16.1945,-14.9193,-152.996,1.39097,176.77,-20.3522,-1.38233,-4.42486,-9.13562,0.924863,-1.19367,1.4867,1.37286,1.4555,-8.99195,1.94791,-1.28619,37.787,-3.01478,2.79447,14.5931,-2.86145,0.491789,-2.85132e-15,-9.54166e-15,-42.452,-9.75271,-72.5557,11.6837,7.395,16.3445,9.7156,7.12502,41.1157,-15.1639,-2.85132e-15,-9.54166e-15,-48.2254,18.2112,62.9541,24.526,-1.95235,27.9256,22.7703,7.12502,51.8327,42.9748,-31.824,-15.4357,27.9371,60.7679,28.4832,-26.5596,25.674,-46.7714,3.76649,-38.9049,41.6298,-35.6999,23.379,7.58341
-0.250347,16.1901,-14.9195,-153.006,1.46927,176.679,-20.3016,-1.41878,-4.57088,-9.18375,0.908748,-1.18025,1.40783,1.3759,1.54675,-8.91733,2.00699,-1.27997,37.8409,-2.95439,2.78495,14.5995,-2.84673,0.493743,-2.4786e-15,5.96354e-15,-42.5555,-9.7081,-72.4621,11.6688,7.42185,16.2372,10.0327,7.12502,41.0149,-14.8789,-2.4786e-15,5.96354e-15,-48.3263,17.944,63.1712,24.5873,-1.63243,27.8247,22.8902,7.12502,51.741,43.1484,-31.7362,-15.4196,27.839,60.7145,28.1847,-26.9859,26.756,-46.7834,3.86193,-39.0641,41.6556,-35.5569,23.4701,7.11653
-0.253351,16.199,-14.9242,-152.972,1.40937,176.592,-20.2902,-1.46597,-4.60309,-9.22003,0.862512,-1.19188,1.36557,1.36004,1.54192,-8.86794,1.99165,-1.34256,37.8291,-2.97155,2.78982,14.5834,-2.86566,0.504528,-2.67427e-14,4.13472e-14,-42.6135,-9.59387,-72.5049,11.7139,7.28271,16.2172,10.1337,7.12502,40.9961,-14.784,-2.67427e-14,4.13472e-14,-48.4262,17.7505,63.2958,24.7421,-1.36047,27.8468,22.956,7.12502,51.7611,43.2025,-31.9094,-15.4608,27.7093,60.7204,28.9219,-26.3974,25.1461,-46.7225,3.74193,-39.0973,41.5932,-35.7005,23.21,7.71777
-0.259147,16.1974,-14.9266,-152.96,1.23254,176.735,-20.2918,-1.45409,-4.35346,-9.22074,0.830126,-1.16594,1.37026,1.33694,1.42178,-8.92849,1.96925,-1.26902,37.8852,-3.00222,2.701,14.6233,-2.88108,0.448334,-3.22404e-15,5.36719e-15,-42.6497,-9.69686,-72.4457,11.7536,7.45882,16.3668,9.90013,7.12502,41.1366,-14.9727,-3.22404e-15,5.36719e-15,-48.374,17.8124,63.2228,24.572,-1.49966,27.7895,22.8312,7.12502,51.7091,43.108,-31.7515,-15.8036,27.9584,60.6599,28.708,-26.3802,25.805,-46.6968,3.60569,-38.8667,41.559,-35.9761,22.9222,8.81149
-0.261787,16.201,-14.9293,-152.942,1.19595,176.75,-20.3282,-1.46956,-4.29834,-9.20061,0.797793,-1.14817,1.4124,1.31687,1.40392,-8.85784,1.95789,-1.24537,37.7888,-2.98002,2.64384,14.5584,-2.87077,0.426904,1.20482e-14,1.53064e-14,-42.6753,-9.61887,-72.4485,11.8724,7.44804,16.6819,9.67179,7.12502,41.4324,-15.1056,1.20482e-14,1.53064e-14,-48.3374,18.0248,63.1042,24.3947,-1.64869,27.681,22.8155,7.12502,51.6105,43.1497,-31.783,-15.83,27.9573,60.5559,29.0743,-26.1817,25.3442,-46.6973,3.53021,-38.8236,41.5882,-36.0901,22.9069,8.95224
-0.255654,16.205,-14.9321,-152.793,1.42437,176.576,-20.4601,-1.53643,-4.61817,-9.27442,0.803592,-1.1441,1.39536,1.34294,1.59095,-8.57197,1.98033,-1.44302,37.6658,-2.9418,2.73962,14.4354,-2.87921,0.510792,1.44958e-14,1.98785e-15,-42.7956,-9.77674,-72.194,11.9433,7.7331,16.9279,9.62995,7.12502,41.6632,-15.0719,1.44958e-14,1.98785e-15,-48.4696,18.0004,63.1493,24.4863,-1.48101,27.633,22.9538,7.12502,51.5669,43.3132,-32.0884,-15.6046,27.7468,60.5404,29.7096,-25.7942,24.0884,-46.8571,3.56034,-39.0554,41.5653,-35.8697,23.1233,8.18957
-0.267489,16.2076,-14.9305,-152.944,0.859291,177.383,-20.1609,-1.40156,-3.53368,-9.29331,0.729596,-0.931829,1.23573,1.27139,1.18215,-8.389,2.02969,-1.56159,37.6358,-2.90792,2.86789,14.3812,-2.87522,0.590278,2.3761e-15,-1.48095e-14,-42.8679,-9.59205,-72.2827,12.1613,7.52245,17.1183,9.39718,7.12502,41.8418,-15.2457,2.3761e-15,-1.48095e-14,-48.508,18.1134,63.0213,24.2342,-1.60607,27.5329,22.5607,7.12502,51.4759,42.9726,-31.6562,-16.0169,28.7301,60.2684,30.0129,-25.0967,23.0201,-46.7941,3.45095,-38.0524,41.7567,-35.7156,23.3944,7.29358
-0.259884,16.2027,-14.9366,-152.789,1.35923,176.856,-20.4225,-1.47109,-4.30695,-9.29849,0.822851,-1.05919,1.35172,1.34568,1.5081,-8.36159,2.0132,-1.61462,37.5538,-2.91697,2.92625,14.3377,-2.87299,0.624876,-6.21823e-15,-4.57205e-15,-42.9229,-9.747,-72.1273,12.4105,7.68258,17.2792,9.53735,7.12502,41.9925,-15.0552,-6.21823e-15,-4.57205e-15,-48.4022,18.2759,62.9161,23.8441,-1.79267,27.4608,22.3602,7.12502,51.4103,42.8097,-31.8604,-15.7891,28.0954,60.3699,29.5819,-25.2517,23.708,-46.9241,3.64362,-38.8209,41.6815,-35.3426,23.8879,6.05046
-0.282454,16.2079,-14.9341,-153.03,0.645239,177.733,-20.0521,-1.28578,-2.94744,-9.24173,0.743659,-0.8713,1.23952,1.25075,0.916797,-8.41851,1.99235,-1.58708,37.5568,-2.92716,2.87824,14.3514,-2.87524,0.598948,1.2424e-17,-1.19271e-14,-42.98,-9.91747,-71.9133,12.5664,7.74704,17.2642,9.78182,7.12502,41.9785,-14.8154,1.2424e-17,-1.19271e-14,-48.1535,18.1444,63.0723,23.4845,-1.59218,27.4276,22.3785,7.12502,51.3801,42.8453,-31.3431,-16.4297,29.1145,60.1382,29.7757,-24.8751,23.52,-46.7131,3.34523,-37.6288,41.8397,-35.8481,23.5756,7.26289
-0.269203,16.2098,-14.9267,-152.963,1.34244,176.94,-20.1685,-1.33886,-4.09043,-9.16159,0.893945,-1.11321,1.37029,1.34769,1.3413,-8.55791,1.91443,-1.49462,37.5022,-3.00737,2.83274,14.3588,-2.88596,0.554358,-8.16881e-16,-2.78299e-15,-42.8787,-10.5607,-71.4375,12.5078,8.41012,17.2451,10.1975,7.12502,41.9606,-14.4057,-8.16881e-16,-2.78299e-15,-47.7174,17.6831,63.5633,23.2801,-0.975947,27.2037,22.4082,7.12502,51.1763,42.9907,-31.7102,-15.9665,28.1402,60.3311,29.6473,-25.6205,24.8403,-46.7631,3.51377,-38.6383,41.7094,-36.0322,23.3927,8.09188
-0.278733,16.2122,-14.9426,-152.918,1.00801,177.302,-19.7389,-1.3537,-3.48892,-9.65553,0.829511,-1.02127,0.630067,1.36337,1.06596,-8.02696,2.05099,-1.44454,37.7843,-3.03192,2.86628,14.3738,-2.95667,0.544831,7.91101e-15,-1.13307e-14,-43.8316,-10.8568,-70.662,12.5698,9.30101,17.4414,10.6254,7.12502,42.1446,-13.916,7.91101e-15,-1.13307e-14,-48.3985,16.2338,64.2275,23.5088,0.317395,27.0031,22.5167,7.12502,50.9936,43.2017,-31.572,-16.3582,28.6011,60.1566,30.1695,-24.6896,22.6315,-46.7717,3.61744,-38.3147,41.7902,-35.8404,23.3817,7.55625
-0.279589,16.2135,-14.9499,-152.872,0.914908,177.552,-19.926,-1.32749,-3.22585,-9.57196,0.810445,-0.936764,0.816673,1.33671,1.00863,-8.17548,2.07847,-1.41292,37.8266,-2.97383,2.83659,14.425,-2.92394,0.534213,1.35453e-14,-1.31198e-14,-43.7253,-11.5147,-69.9804,12.5751,10.0503,17.8454,10.4636,7.12502,42.5229,-13.9488,1.35453e-14,-1.31198e-14,-48.156,14.9359,65.4421,23.7252,1.94664,26.7981,23.0428,7.12502,50.8067,43.8314,-31.5783,-16.386,28.9571,60.1401,31.034,-23.3359,19.3875,-46.7685,3.51519,-37.9763,41.7117,-35.9297,23.3984,7.61659
-0.286553,16.2242,-14.9474,-153.004,0.719462,177.805,-19.9467,-1.23541,-2.87887,-9.20413,0.776105,-0.895521,1.22622,1.25614,0.857884,-8.93022,1.97468,-1.43347,37.8497,-3.01266,2.8608,14.6111,-2.8876,0.54284,6.88292e-15,-1.27222e-14,-42.9862,-12.1549,-69.6953,12.661,10.038,18.0845,9.76314,7.12502,42.7467,-14.5717,6.88292e-15,-1.27222e-14,-47.3078,13.2294,67.2209,23.9603,4.257,26.5888,23.7989,7.12502,50.6157,44.6923,-31.5135,-16.5112,29.2405,59.9892,32.3521,-21.7791,14.8018,-46.6168,3.30978,-37.5532,41.7392,-36.0223,23.4581,7.38013
-0.265049,16.2152,-14.9254,-152.994,1.43124,177.273,-19.9026,-1.19748,-3.91119,-8.90168,0.944009,-1.04115,1.51259,1.32244,1.32723,-9.71935,1.84837,-1.52252,37.7736,-3.03551,2.92582,14.7595,-2.83546,0.586739,-9.35259e-15,-1.47101e-14,-42.2681,-12.9084,-69.309,12.717,10.2396,18.3469,9.36801,7.12502,42.9921,-14.8807,-9.35259e-15,-1.47101e-14,-46.3887,10.8039,69.4426,24.251,7.04701,26.5629,24.0625,7.12502,50.5921,44.9687,-31.5579,-15.6158,28.5942,60.02,30.7722,-24.0807,19.1379,-46.7809,3.47253,-38.2134,41.676,-35.7236,23.9774,6.77824
-0.271626,16.2186,-14.9508,-152.827,1.23934,177.387,-20.2884,-1.23685,-3.60004,-8.93053,0.88411,-1.01979,1.68402,1.2957,1.16851,-9.58059,1.88868,-1.50819,37.7499,-2.97787,2.88898,14.7128,-2.82123,0.577944,3.4104e-15,1.19271e-15,-42.4365,-14.1741,-68.0369,12.621,11.8333,18.6532,9.49262,7.12502,43.2784,-14.6542,3.4104e-15,1.19271e-15,-46.2637,8.75383,70.8586,23.8646,8.61326,27.0656,23.4941,7.12502,51.0505,44.1472,-31.5372,-15.8107,28.7285,59.9021,30.4037,-24.2084,19.3151,-46.7528,3.48482,-38.128,41.5297,-35.503,24.0168,6.42773
-0.28067,16.2267,-14.96,-152.825,1.04611,177.494,-20.0609,-1.30183,-3.27462,-9.29426,0.799726,-0.996134,1.18455,1.29334,0.979967,-8.64857,2.04489,-1.31758,37.7419,-2.90712,2.77214,14.4883,-2.84588,0.504028,1.68346e-15,1.59028e-15,-43.1571,-15.6988,-66.2638,12.447,13.8373,19.1748,9.31902,7.12502,43.7656,-14.6507,1.68346e-15,1.59028e-15,-46.7556,6.75941,71.9148,23.3681,9.57834,27.8081,22.7102,7.12502,51.726,42.9772,-31.4463,-16.0836,28.8316,59.8345,29.9973,-24.8653,20.801,-46.5736,3.38814,-37.9803,41.3527,-35.4184,24.0763,6.61647
-0.262494,16.2244,-14.9574,-152.649,1.82126,176.793,-19.92,-1.514,-4.43536,-9.6943,0.818558,-1.10507,0.67066,1.39701,1.51166,-7.78649,2.27323,-1.06741,37.691,-2.69075,2.6162,14.2567,-2.79502,0.425777,1.98785e-15,8.94531e-15,-43.7435,-16.8687,-64.6219,12.0302,15.6761,19.2813,10.0361,7.12502,43.865,-13.897,1.98785e-15,8.94531e-15,-47.4439,4.7848,73.0463,23.4547,10.71,28.5043,22.2517,7.12502,52.3573,42.1426,-31.7046,-15.4074,28.003,59.8685,29.052,-26.1634,23.1879,-46.7315,3.61589,-38.9176,41.1264,-35.33,24.2477,6.42288
-0.255663,16.2231,-14.9396,-152.727,2.11877,176.732,-19.7792,-1.35422,-4.69102,-9.28087,0.95572,-1.12174,1.03202,1.405,1.67307,-9.01659,2.13638,-1.3633,37.8029,-2.69429,2.74667,14.5941,-2.74221,0.532257,6.67792e-16,-1.68967e-15,-42.8567,-17.8145,-64.0541,12.1164,16.0995,19.626,9.72895,7.12502,44.1865,-14.084,6.67792e-16,-1.68967e-15,-46.5009,3.40428,74.2019,23.2381,11.0053,29.2234,21.3501,7.12502,53.0074,40.8377,-31.6257,-14.967,27.9072,59.8428,28.2639,-26.8468,24.4227,-46.6695,3.74888,-39.0439,40.9264,-35.4102,24.1253,6.9807
-0.257416,16.2265,-14.9625,-152.655,2.15813,176.742,-19.9956,-1.38685,-4.61245,-9.37912,0.947445,-1.11844,1.03808,1.41675,1.63266,-8.68806,2.20359,-1.38253,37.7957,-2.67356,2.81386,14.5157,-2.75231,0.565148,1.00992e-14,-1.55052e-14,-42.9183,-17.674,-63.7424,12.3853,16.1016,19.8602,9.15895,7.12502,44.4048,-14.5713,1.00992e-14,-1.55052e-14,-46.9319,1.77095,75.059,23.4645,11.4469,29.7541,20.9179,7.12502,53.4857,40.0977,-31.5858,-14.9358,27.8274,59.7277,28.2604,-26.7176,23.5483,-46.5217,3.96953,-39.1698,40.7443,-35.4956,23.6426,7.69386
-0.2497,16.2282,-14.9743,-152.656,2.58495,176.594,-19.9529,-1.33266,-4.90288,-9.47118,1.09011,-1.21111,0.90559,1.50857,1.72338,-8.56788,2.20592,-1.34035,37.7788,-2.69433,2.80787,14.4807,-2.76389,0.551991,-6.06604e-15,-2.38542e-14,-42.8584,-17.8786,-63.2183,12.1852,16.7113,19.6335,9.30592,7.12502,44.1935,-14.5044,-6.06604e-15,-2.38542e-14,-47.2582,0.202144,75.7647,23.7877,11.5555,30.0723,20.7452,7.12502,53.772,39.7362,-31.5034,-14.5529,27.5246,59.6131,27.8415,-27.246,24.0894,-46.482,4.0916,-39.3858,40.6906,-35.868,23.5304,8.46455
-0.242539,16.2324,-14.9832,-152.717,2.80332,176.873,-19.9808,-1.16704,-4.72046,-9.36465,1.24462,-1.19044,1.02766,1.5603,1.6769,-8.67075,2.16557,-1.40068,37.701,-2.71147,2.85716,14.4686,-2.75748,0.583558,-8.97326e-15,1.11319e-14,-42.4962,-18.5617,-62.4715,11.8378,17.5214,19.7234,9.77875,7.12502,44.2773,-13.9999,-8.97326e-15,1.11319e-14,-47.1842,-1.14381,76.3013,23.9176,11.1905,30.2927,20.777,7.12502,53.97,39.6353,-31.2096,-14.2232,27.797,59.3611,28.0374,-26.9085,22.4764,-46.4908,4.09494,-39.0109,40.7263,-36.0104,24.0359,8.02632
-0.26024,16.2395,-14.991,-152.793,2.384,177.311,-19.9773,-1.08327,-3.87923,-9.27661,1.17376,-1.13364,1.13913,1.48449,1.25037,-8.71696,2.18454,-1.41983,37.7077,-2.70323,2.92759,14.4835,-2.74612,0.616867,2.48326e-15,-1.45113e-14,-42.0828,-19.1032,-61.7947,11.5955,18.3723,19.9812,9.81397,7.12502,44.5176,-13.8731,2.48326e-15,-1.45113e-14,-47.2128,-2.30124,76.7212,24.0472,10.6796,30.3307,21.3256,7.12502,54.004,40.1609,-30.7697,-14.8151,28.3653,59.051,28.9177,-25.2491,18.3703,-46.3752,4.0517,-38.5023,40.82,-35.7246,24.3924,6.79425
-0.268815,16.2498,-15.0022,-152.816,2.23829,177.667,-19.9886,-1.07177,-3.33473,-9.37992,1.10681,-1.0488,1.04356,1.44881,1.01676,-8.14394,2.26593,-1.35345,37.5802,-2.67599,2.96579,14.2916,-2.75195,0.625579,1.79527e-15,3.37934e-15,-41.8842,-18.7607,-61.5843,11.6579,18.7988,20.1602,9.43029,7.12502,44.6843,-14.1926,1.79527e-15,3.37934e-15,-47.6953,-3.50134,77.1273,24.1779,10.2457,30.1985,21.6213,7.12502,53.8853,40.5366,-30.6321,-14.9771,28.7313,58.7699,30.5825,-23.1135,12.0712,-46.2707,3.92457,-38.0196,40.8533,-36.1858,24.0085,7.62938
-0.248775,16.2559,-15.0129,-152.771,2.90641,177.852,-20.3455,-0.903606,-3.56229,-9.14515,1.33892,-1.00119,1.46146,1.53942,1.2579,-8.37242,2.21916,-1.38993,37.4396,-2.6334,2.93415,14.2747,-2.71098,0.630434,-1.40858e-14,1.35174e-14,-41.1404,-18.5548,-61.6085,11.8831,19.1385,20.598,8.95485,7.12502,45.0917,-14.5085,-1.40858e-14,1.35174e-14,-47.2834,-4.5301,77.4343,23.6738,9.43637,29.8065,20.6969,7.12502,53.5329,39.8459,-30.5322,-14.0053,28.7823,58.5961,30.3448,-23.6828,12.2328,-46.4124,4.00366,-37.7793,40.8863,-36.7897,24.0256,8.76659
-0.257866,16.26,-15.002,-152.715,3.22989,177.335,-20.2444,-0.966891,-3.91796,-9.24127,1.3483,-1.24927,1.30619,1.56416,1.19248,-8.03644,2.28585,-1.20256,37.2619,-2.55645,2.89423,14.1113,-2.66334,0.59531,3.73653e-15,2.78299e-15,-40.7735,-18.0339,-61.6739,11.8927,19.4594,20.7994,9.04033,7.12502,45.279,-14.3485,3.73653e-15,2.78299e-15,-47.761,-5.89437,77.7264,24.2209,8.64069,29.5726,20.184,7.12502,53.3223,39.4701,-30.5994,-14.0599,28.1378,58.5656,29.5541,-24.5064,13.9937,-46.4291,3.8985,-38.4164,40.8091,-36.7193,24.3322,8.43357
-0.250716,16.2593,-15.0159,-152.54,3.48371,177.617,-20.5995,-0.858514,-3.72903,-9.23198,1.48543,-1.22911,1.4928,1.62884,1.14517,-7.90007,2.31039,-1.08038,37.1352,-2.51551,2.87507,14.0195,-2.62738,0.574738,-1.97542e-15,-1.39149e-15,-40.334,-18.1593,-61.1897,11.6816,20.4521,21.0577,9.17997,7.12502,45.5191,-14.1122,-1.97542e-15,-1.39149e-15,-47.9471,-6.85454,77.7116,24.4458,7.27411,29.3733,19.994,7.12502,53.1427,39.3956,-30.4878,-13.508,28.3905,58.3662,28.1794,-26.0166,17.2613,-46.6532,3.74462,-38.0184,40.8337,-37.0171,24.6207,8.42291
-0.271117,16.2582,-15.0343,-152.327,3.20758,177.723,-21.0453,-0.86152,-3.20282,-9.13084,1.40658,-1.24197,1.84085,1.56855,0.831411,-7.98231,2.33181,-1.07829,37.0228,-2.40269,2.81981,13.9808,-2.56682,0.57153,-1.07685e-14,-7.35503e-15,-39.7096,-17.8028,-61.0231,11.8189,20.7493,21.4494,8.91117,7.12502,45.8829,-14.232,-1.07685e-14,-7.35503e-15,-47.9686,-7.49832,77.5712,24.5675,5.47152,29.3763,20.2416,7.12502,53.1454,39.6415,-30.3505,-14.1843,28.5358,58.1366,27.957,-25.6121,17.4365,-46.7295,3.63069,-37.9586,40.8192,-36.8858,24.4653,8.17542
-0.2904,16.2641,-15.0568,-152.148,2.86561,178.044,-21.4167,-0.808407,-2.46989,-9.06552,1.35338,-1.23874,2.11223,1.5212,0.41868,-8.11089,2.34749,-1.04076,37.0513,-2.39722,2.86714,14.0235,-2.54811,0.584161,-1.44429e-15,-6.36111e-15,-39.0685,-16.4526,-61.6255,12.1185,19.6616,21.7381,8.02116,7.12502,46.1507,-15.0104,-1.44429e-15,-6.36111e-15,-47.843,-8.16351,77.3055,24.3182,3.48001,29.2897,20.4318,7.12502,53.0672,39.8815,-30.178,-14.773,28.9322,57.8035,28.2771,-24.7141,15.4444,-46.786,3.53139,-37.6174,40.8721,-36.9373,24.2436,8.46992
-0.287181,16.2716,-15.0728,-152.027,3.05026,178.142,-21.6056,-0.779645,-2.43955,-9.12906,1.41302,-1.19829,2.13635,1.56147,0.461034,-7.92805,2.40769,-1.02855,37.1469,-2.36959,2.83985,14.0258,-2.56107,0.571083,-9.04936e-15,9.14409e-15,-38.7565,-16.3664,-61.0082,11.9846,20.4004,21.9979,7.98445,7.12502,46.3915,-14.9453,-9.04936e-15,9.14409e-15,-47.8581,-8.94025,77.1975,23.8892,1.83579,29.0148,20.3208,7.12502,52.8191,39.9271,-30.1498,-14.4893,29.0032,57.5566,28.5415,-24.5694,14.5159,-46.8628,3.54547,-37.5129,40.8371,-37.2198,24.1709,8.86794
-0.282265,16.2766,-15.0802,-152.029,3.26904,178.114,-21.956,-0.651849,-2.53932,-8.50727,1.49017,-1.30674,2.98304,1.52212,0.442808,-9.50035,2.28344,-0.834286,37.2854,-2.3287,2.70138,14.4438,-2.43393,0.489332,-9.9206e-15,1.5704e-14,-37.3476,-18.2405,-59.969,11.408,22.7157,21.8623,8.63154,7.12502,46.2659,-14.3515,-9.9206e-15,1.5704e-14,-46.434,-9.24405,76.4924,23.5317,-0.153356,29.1012,20.5894,7.12502,52.8971,40.1467,-29.9899,-14.1686,28.9238,57.3349,28.7151,-24.4033,14.234,-46.7975,3.48849,-37.5051,40.7593,-37.4529,24.2042,9.24637
-0.27782,16.2795,-15.0904,-151.957,3.57307,178.128,-22.0547,-0.613297,-2.65854,-8.58385,1.58663,-1.27403,2.9441,1.58259,0.569082,-9.24576,2.36311,-0.994413,37.3062,-2.29933,2.90841,14.3978,-2.43811,0.605211,-7.47151e-15,1.8487e-14,-36.9456,-18.1277,-59.3047,11.2498,23.3776,21.7767,8.76891,7.12502,46.1865,-14.2476,-7.47151e-15,1.8487e-14,-46.3479,-9.57287,75.952,23.3433,-2.03315,29.3284,21.0946,7.12502,53.1021,40.5221,-29.8722,-13.8131,28.8781,57.1295,28.9207,-23.9193,12.9953,-46.8268,3.6042,-37.5493,40.6656,-37.5516,24.2419,9.59578
-0.27521,16.2831,-15.1032,-151.913,3.91193,178.129,-21.9457,-0.528782,-2.76029,-8.77844,1.75232,-1.32272,2.67411,1.68878,0.606114,-8.86988,2.41826,-0.997422,37.3622,-2.34647,3.0235,14.3422,-2.47693,0.642346,3.09592e-15,-9.93923e-15,-36.8063,-18.5449,-58.2963,11.0447,24.3573,21.5062,9.10933,7.12502,45.9355,-14.012,3.09592e-15,-9.93923e-15,-46.2919,-9.87109,75.1979,22.9072,-4.29178,29.3196,20.9578,7.12502,53.0942,40.3903,-29.7274,-13.4563,28.7851,56.9431,28.9539,-23.691,12.1275,-46.8012,3.62072,-37.567,40.6014,-37.9812,24.0539,10.5876
-0.281379,16.284,-15.116,-151.78,4.00765,178.24,-22.6677,-0.360225,-2.50566,-8.12053,1.84274,-1.44236,3.75565,1.65128,0.391787,-9.99258,2.27794,-0.80827,37.2222,-2.29322,2.84522,14.5279,-2.3535,0.554148,5.8393e-16,3.77691e-15,-35.3728,-21.2225,-56.9707,10.4811,27.0222,21.2923,9.49618,7.12502,45.737,-13.7071,5.8393e-16,3.77691e-15,-44.8674,-9.87323,74.0848,22.443,-6.80345,29.1914,20.1722,7.12502,52.9786,39.6781,-29.6082,-13.4856,28.8784,56.6856,28.6891,-23.8433,12.745,-46.8966,3.54261,-37.4759,40.6402,-38.1567,24.1825,10.4828
-0.288567,16.2839,-15.1249,-151.646,4.06805,178.264,-22.0863,-0.436754,-2.34218,-8.89482,1.83062,-1.45035,2.63108,1.73362,0.252224,-8.46131,2.479,-0.609328,37.2343,-2.26965,2.75095,14.1827,-2.43915,0.474267,6.54359e-15,-1.19271e-14,-35.9597,-20.9132,-55.7877,10.4166,28.0691,21.5172,9.15855,7.12502,45.9457,-13.9586,6.54359e-15,-1.19271e-14,-46.1286,-10.3835,73.4312,22.3524,-8.82082,28.6427,19.686,7.12502,52.4826,39.5006,-29.4838,-13.6817,28.8796,56.3845,28.2284,-24.1865,14.1494,-47.0457,3.5841,-37.5359,40.7073,-38.0586,24.351,9.68226
-0.29088,16.2924,-15.1377,-151.638,3.90425,178.695,-21.9184,-0.27886,-1.78467,-8.85929,1.89011,-1.39175,2.59558,1.74183,0.0083604,-8.77592,2.44645,-0.713766,37.3673,-2.33597,2.86735,14.3206,-2.45881,0.528609,1.33558e-16,9.14409e-15,-35.5051,-22.2146,-54.4076,10.1829,30.118,21.8276,9.05455,7.12502,46.2337,-13.942,1.33558e-16,9.14409e-15,-45.6493,-10.5481,72.4825,21.9941,-10.1793,28.1355,19.6361,7.12502,52.0231,39.7281,-29.1712,-13.6275,29.377,56.0072,27.7063,-24.5509,14.9041,-47.0442,3.38989,-36.8898,40.7817,-38.2898,24.3964,9.73475
-0.28728,16.2996,-15.1574,-151.667,4.02528,179.006,-21.9317,-0.124005,-1.52617,-8.77764,2.01292,-1.34863,2.69405,1.78501,-0.0610685,-8.89314,2.39413,-0.853115,37.378,-2.43303,3.02619,14.3582,-2.49407,0.604592,-5.49764e-15,-5.56597e-15,-35.0648,-23.5802,-52.9953,10.018,32.2044,22.3192,8.68702,7.12502,46.6892,-14.1149,-5.49764e-15,-5.56597e-15,-45.1728,-10.7257,71.5158,21.7422,-11.3093,27.8517,19.7696,7.12502,51.7655,40.0134,-28.8631,-13.3044,29.6317,55.6572,27.4136,-24.6338,14.3937,-46.9851,3.5172,-36.5422,40.833,-38.5234,24.3466,10.1387
-0.278922,16.3055,-15.1818,-151.618,4.46288,178.931,-22.3176,-0.0143304,-1.76128,-8.60133,2.19841,-1.44215,3.0738,1.86376,0.0339019,-9.01101,2.30483,-0.984717,37.2919,-2.56921,3.22019,14.3526,-2.53139,0.690476,8.35827e-15,1.19271e-15,-34.3065,-24.0047,-52.3465,10.1217,33.1135,23.1283,7.86134,7.12502,47.4374,-14.6097,8.35827e-15,1.19271e-15,-44.435,-10.7479,70.3493,21.2693,-12.3121,27.7551,19.8823,7.12502,51.6778,40.1774,-28.7715,-12.8432,29.4242,55.4727,27.5891,-24.3624,12.7759,-46.9194,3.73274,-36.725,40.7166,-38.5739,24.5472,9.70439
-0.280839,16.31,-15.1977,-151.796,4.53539,179.17,-22.2057,0.128845,-1.48209,-8.43455,2.27217,-1.43,3.2052,1.86997,-0.0931014,-9.28981,2.27937,-1.19263,37.3364,-2.62535,3.4629,14.4442,-2.54053,0.818959,-4.23039e-15,-1.98785e-15,-34.8619,-28.566,-48.4588,9.94054,38.9456,23.6208,8.88966,7.12502,47.892,-13.3734,-4.23039e-15,-1.98785e-15,-43.8202,-10.5917,69.0954,20.9695,-13.2296,27.4587,19.9122,7.12502,51.4084,40.3628,-28.296,-12.636,29.5802,55.2936,27.2678,-24.2799,12.3078,-46.5788,3.69904,-36.3867,40.5526,-38.55,24.9941,8.97826
-0.257639,16.3105,-15.1998,-151.82,5.53875,178.476,-21.7094,-0.00190263,-2.80317,-9.05279,2.47616,-1.52394,2.24641,2.0673,0.566435,-7.98592,2.44903,-1.35011,37.3616,-2.651,3.658,14.1643,-2.65046,0.914814,-1.65698e-14,-9.34288e-15,-36.6368,-32.2568,-43.8778,9.56651,44.6053,23.5395,9.83195,7.12502,47.817,-12.4658,-1.65698e-14,-9.34288e-15,-44.5001,-10.6296,67.9861,20.9301,-14.1642,27.267,20.1193,7.12502,51.2339,40.6692,-28.3415,-11.4744,28.6437,55.3581,26.5442,-25.2065,13.2776,-46.4819,3.79959,-37.1911,40.2237,-38.907,25.0672,10.0743
-0.257389,16.3125,-15.2103,-151.834,5.69215,178.217,-21.6417,-0.0590338,-3.1364,-8.93659,2.43947,-1.58308,2.32988,2.03953,0.684801,-8.48307,2.44081,-1.20357,37.5072,-2.58136,3.44197,14.339,-2.60421,0.809208,1.34723e-14,1.11319e-14,-37.4079,-36.9484,-39.9403,9.12555,50.0072,23.6182,9.56797,7.12502,47.8896,-12.6962,1.34723e-14,1.11319e-14,-43.7896,-10.4739,66.7389,20.6091,-14.4948,27.0511,20.4892,7.12502,51.0373,41.1498,-28.2799,-11.5599,28.3763,55.3468,26.5517,-24.9633,12.1736,-46.2867,3.66596,-37.4319,40.0041,-39.0587,24.9107,10.8363
-0.24103,16.3146,-15.225,-151.673,5.91741,178.046,-21.5282,-0.20519,-3.56082,-9.41698,2.43455,-1.582,1.73887,2.11596,0.903733,-7.62175,2.59666,-1.10751,37.7293,-2.6159,3.44043,14.2505,-2.69541,0.775116,-1.73937e-16,2.38542e-15,-39.4731,-40.7942,-35.1302,8.71971,55.2134,23.5512,9.75573,7.12502,47.8278,-12.537,-1.73937e-16,2.38542e-15,-44.2592,-10.9811,65.6781,20.4398,-14.8812,27.151,20.2997,7.12502,51.1283,40.9092,-28.4303,-11.1818,28.2565,55.3192,26.1381,-25.4931,12.4698,-46.3651,3.9375,-37.7553,39.8046,-38.6692,25.0069,9.82248
-0.24518,16.3184,-15.2075,-151.558,5.92806,178.142,-21.2924,-0.160725,-3.3952,-9.39832,2.42704,-1.59415,1.64771,2.09945,0.78728,-7.90221,2.54855,-1.14671,37.694,-2.62397,3.44896,14.2977,-2.67978,0.786684,5.22058e-14,-2.00773e-14,-40.8957,-45.564,-30.6875,8.19835,60.4074,23.1052,9.68884,7.12502,47.416,-12.7919,5.22058e-14,-2.00773e-14,-43.7405,-11.2866,64.5664,20.389,-14.8279,27.3053,20.135,7.12502,51.2688,40.6651,-28.4631,-10.9318,28.4231,55.0495,25.7417,-26.0792,13.0578,-46.6242,3.78424,-37.6134,39.9162,-38.7722,25.1375,10.0175
-0.262811,16.317,-15.2357,-151.45,5.54819,178.34,-21.751,-0.100333,-2.74059,-9.19895,2.37957,-1.61952,2.11829,2.03828,0.404089,-7.60386,2.44127,-1.13101,37.2002,-2.62767,3.38364,13.9967,-2.65645,0.769223,-1.91022e-14,-8.54774e-15,-43.0868,-50.3314,-25.6562,7.89096,65.4154,23.0148,8.86117,7.12502,47.3326,-13.6571,-1.91022e-14,-8.54774e-15,-43.1888,-11.8726,63.6298,20.4834,-14.1913,27.3924,20.5575,7.12502,51.348,41.0426,-28.1292,-11.6078,28.6535,54.6462,25.7039,-25.6536,12.7167,-46.6054,3.6498,-37.3879,40.0838,-39.0328,24.7581,10.8664
-0.261824,16.3118,-15.2995,-150.934,5.22447,179.267,-23.1365,0.0952808,-1.61833,-8.83113,2.4232,-1.43378,3.23408,2.01242,0.0387937,-8.12306,2.48668,-0.871739,37.2076,-2.47875,3.27119,14.1094,-2.52895,0.700964,1.82664e-14,2.50469e-14,-45.7679,-55.3684,-20.2986,7.5694,70.7156,22.644,8.15287,7.12502,46.9898,-14.5179,1.82664e-14,2.50469e-14,-42.3944,-12.1552,62.3811,20.646,-13.8569,27.6155,20.8064,7.12502,51.5509,41.1751,-27.9499,-11.707,29.693,54.0494,25.8909,-25.0975,11.3214,-47.0853,3.83832,-36.4364,40.4018,-39.024,24.7573,10.3692
-0.245201,16.3055,-15.3352,-150.723,5.70734,179.083,-23.2505,-0.024875,-2.16667,-9.17738,2.47622,-1.39507,2.89386,2.09738,0.398206,-7.74382,2.70548,-0.626796,37.4563,-2.31962,3.16856,14.1341,-2.49232,0.628369,-1.09835e-14,-9.54166e-15,-50.2455,-59.0481,-13.2891,7.53777,76.1881,22.2522,8.18841,7.12502,46.6271,-14.6404,-1.09835e-14,-9.54166e-15,-42.7791,-13.0367,61.5452,20.8507,-13.4758,27.8564,21.3196,7.12502,51.7698,41.5609,-27.7353,-11.2391,29.3355,53.7815,24.3061,-26.5825,15.8107,-47.2584,4.01934,-36.7554,40.4482,-38.9277,25.1543,9.22468
-0.251463,16.3094,-15.3571,-150.758,5.69981,179.281,-23.295,0.0110154,-1.8389,-9.16343,2.44415,-1.33392,2.93931,2.07265,0.271741,-7.59768,-3.29372,0.011623,37.7634,0.172713,0.465114,14.182,1.93057,0.664942,-5.33535e-15,-3.18055e-15,-55.8043,-63.0465,-5.31313,7.62278,81.6657,21.6568,8.35023,7.12502,46.0753,-14.7129,-5.33535e-15,-3.18055e-15,-42.4549,-13.9378,60.6837,20.6626,-12.7591,27.9556,21.5752,7.12502,51.8598,41.7637,-27.4027,-11.3244,29.4226,53.5285,24.1314,-26.4877,15.3655,-47.1328,4.08103,-36.535,40.4913,-39.0357,25.1318,9.22504
-0.218594,16.3127,-15.3777,-150.787,6.70054,178.666,-23.4145,-0.0747853,-3.12466,-9.18109,2.63413,-1.44895,2.93484,2.19499,0.928976,-7.89161,-3.34132,0.10763,38.1552,0.219592,0.301802,14.4345,1.96759,0.603909,2.01436e-14,2.38542e-15,-63.6751,-66.7215,4.88253,7.66629,87.2716,20.9163,8.07255,7.12502,45.3877,-15.2726,2.01436e-14,2.38542e-15,-42.1232,-14.8222,59.6854,20.783,-11.9909,28.2349,21.6621,7.12502,52.1132,41.7002,-27.5216,-10.1735,28.5054,53.6545,24.1958,-26.7759,14.0016,-47.0134,4.3591,-37.2865,40.2027,-39.4816,24.8958,9.93243
-0.227948,16.3167,-15.3865,-151.018,6.39949,178.879,-23.0284,0.00416767,-2.67301,-9.04038,2.55992,-1.39699,2.91319,2.12182,0.699504,-8.32879,-3.30788,0.0868518,38.3317,0.278979,0.25437,14.6202,1.97586,0.602069,-1.01178e-15,-6.16232e-15,-74.6413,-70.2812,18.1209,7.80183,92.8998,20.6291,7.3349,7.12502,45.1207,-16.117,-1.01178e-15,-6.16232e-15,-41.5843,-15.8178,58.8135,21.1895,-10.6784,28.7134,22.6888,7.12502,52.5466,42.4641,-27.1706,-10.5584,28.7108,53.7248,24.5023,-26.1549,12.2273,-46.5337,4.13898,-36.8858,39.9809,-39.7826,24.661,10.643
-0.218349,16.3119,-15.3923,-151.134,6.96427,178.343,-22.6742,-0.0980252,-3.42066,-9.26183,2.61125,-1.5421,2.47448,2.18762,0.958168,-7.49105,-3.27801,-0.0736827,38.076,0.351799,0.438452,14.3075,2.02994,0.708809,-2.37501e-14,2.92213e-14,-88.6718,-71.9586,34.1671,8.11622,98.5774,19.9108,7.52952,7.12502,44.452,-16.1827,-2.37501e-14,2.92213e-14,-41.5366,-17.1018,57.9375,21.3893,-9.81741,28.8877,23.1168,7.12502,52.7042,42.7946,-27.1503,-10.1283,27.8658,53.9414,23.2546,-27.136,14.9562,-46.3084,4.33098,-37.6123,39.7203,-39.6593,24.8613,10.6072
-0.199151,16.3062,-15.3893,-151.185,7.75204,177.819,-22.2461,-0.0923361,-4.33998,-9.50885,2.83287,-1.76663,1.95738,2.34854,1.26152,-6.83936,-3.32959,-0.14151,37.8964,0.265091,0.654253,14.0761,2.03205,0.79192,-8.9919e-15,-8.74653e-15,-104.933,-72.0074,52.416,8.3011,103.97,18.606,8.159,7.12502,43.2344,-16.0036,-8.9919e-15,-8.74653e-15,-41.2132,-18.4466,56.8124,21.5296,-9.31053,29.184,22.9473,7.12502,52.9718,42.4574,-27.2264,-9.23887,27.0181,54.1157,21.0316,-28.8262,19.6615,-46.3308,4.37801,-38.2349,39.6554,-39.9844,25.0514,10.9377
-0.193236,16.3008,-15.4269,-150.97,7.81987,178.091,-22.5966,-0.00379025,-4.047,-9.55162,2.9352,-1.77326,2.09411,2.40107,1.12668,-6.70522,-3.37288,-0.161716,37.9144,0.18819,0.775065,14.055,2.02119,0.835886,-1.79279e-14,1.78906e-14,-121.57,-71.109,70.8569,8.69275,109.109,17.9188,7.99103,7.12502,42.5916,-16.3976,-1.79279e-14,1.78906e-14,-40.8155,-19.8676,55.7652,21.8677,-8.19904,29.5078,23.4657,7.12502,53.2639,42.7895,-27.301,-9.20368,27.1834,54.1381,21.8116,-28.1469,17.2689,-46.4329,4.24041,-37.8579,39.7301,-40.5778,24.6928,11.3269
-0.188864,16.2935,-15.4609,-150.827,7.7362,178.422,-22.988,0.0597968,-3.68132,-9.41163,2.94397,-1.70208,2.4522,2.37991,1.02153,-7.11208,-3.37416,-0.0981791,38.1181,0.174485,0.753855,14.2422,2.01728,0.821847,3.29765e-14,2.42517e-14,-137.212,-69.0764,88.1144,9.33344,114.388,17.4554,7.74069,7.12502,42.1576,-16.7963,3.29765e-14,2.42517e-14,-40.2228,-20.774,54.5453,22.2044,-7.19143,29.776,24.1461,7.12502,53.5055,43.3131,-27.233,-9.34506,27.4412,54.1485,22.1503,-27.8963,16.4197,-46.5357,4.25941,-37.4795,39.9195,-40.7725,24.638,11.2344
-0.186111,16.2842,-15.4886,-150.778,7.75544,178.734,-23.315,0.154834,-3.3529,-9.23261,2.98011,-1.63095,2.81764,2.36697,0.942268,-7.34836,-3.34326,-0.0872138,38.2182,0.193073,0.800981,14.3432,2.02719,0.845133,-1.63823e-14,4.21423e-14,-148.648,-65.6307,101.096,9.77868,119.708,16.3065,8.24798,7.12502,41.08,-16.6429,-1.63823e-14,4.21423e-14,-39.4824,-21.1732,52.9666,22.4077,-6.95028,29.9955,24.0615,7.12502,53.7029,43.0985,-27.0935,-9.56557,27.6092,54.1401,22.641,-27.4159,15.3084,-46.6602,4.40861,-37.1883,40.2447,-40.8024,24.9281,10.8598
-0.187068,16.275,-15.5174,-150.787,7.93516,178.722,-23.6637,0.213512,-3.31328,-9.0764,3.04849,-1.66826,3.16137,2.38065,0.91852,-6.93104,-3.27167,-0.254644,37.8568,0.197214,1.04931,14.0788,2.01967,0.959664,1.25265e-14,1.43125e-14,-156.607,-61.3642,110.466,10.1849,124.841,14.973,8.65821,7.12502,39.8263,-16.62,1.25265e-14,1.43125e-14,-38.7479,-21.7569,51.4768,22.4505,-6.38089,29.7996,23.9699,7.12502,53.5267,43.123,-27.045,-9.98125,27.3131,54.2479,23.3804,-26.5664,14.1624,-46.6955,4.52255,-37.2826,40.5952,-41.3505,24.4354,11.7623
-0.187813,16.2651,-15.537,-150.814,7.83837,178.884,-24.0279,0.29822,-3.08203,-8.68047,3.04913,-1.6405,3.78126,2.32459,0.848101,-6.96833,-3.16204,-0.443251,37.3717,0.125625,1.34051,13.8619,1.94015,1.07559,-2.47518e-14,2.78299e-15,-160.971,-60.3519,115.653,10.4629,125.612,14.5781,8.00125,7.12502,39.4544,-17.3871,-2.47518e-14,2.78299e-15,-37.5719,-22.0714,49.8833,22.4743,-5.87779,29.6058,23.6201,7.12502,53.3522,42.8868,-27.013,-10.5243,27.3235,54.5032,23.9981,-25.847,14.152,-46.7009,4.71979,-37.1834,40.8936,-41.6897,23.8304,12.1416
-0.186142,16.2496,-15.5465,-150.977,7.66388,179.256,-23.709,0.479051,-2.65,-8.47605,3.10148,-1.6204,3.8629,2.30876,0.630936,-7.40183,-3.12711,-0.405381,37.2379,0.0287438,1.4067,13.8965,1.87276,1.07433,1.93939e-14,1.51076e-14,-161.923,-62.5459,117.233,10.4395,122.729,14.7353,6.85995,7.12502,39.6024,-18.4848,1.93939e-14,1.51076e-14,-36.429,-22.3071,48.0874,22.6291,-5.68239,29.674,23.2502,7.12502,53.4136,42.477,-26.8276,-10.9772,27.578,54.8625,23.2804,-26.123,16.5275,-46.6129,4.87424,-36.7632,41.1742,-41.8225,23.6837,12.1345
-0.183884,16.2372,-15.556,-151.194,7.93371,178.869,-23.7588,0.404101,-3.07861,-8.27414,3.07426,-1.76734,4.09733,2.27341,0.717779,-7.26661,-3.02067,-0.205949,37.0048,0.0931086,1.40329,13.7561,1.90804,1.0337,-2.45623e-14,1.59028e-14,-163.024,-64.9057,118.785,10.5754,120.094,14.6713,6.47664,7.12502,39.5422,-18.8859,-2.45623e-14,1.59028e-14,-35.468,-22.0818,46.0669,22.6423,-5.3997,29.7586,23.0288,7.12502,53.4898,42.2061,-26.9989,-11.4888,26.8413,55.5903,22.5705,-26.0172,17.8477,-46.413,4.9227,-37.1954,41.2365,-42.0209,23.5677,12.3986
-0.189212,16.2312,-15.56,-151.45,7.94615,178.853,-22.9391,0.415554,-3.00548,-8.45691,3.03121,-1.81563,3.49777,2.2632,0.571412,-7.42837,-3.02372,-0.0643121,37.3356,0.147602,1.37944,13.9437,1.97606,1.02287,-1.16972e-14,-1.98785e-14,-158.755,-70.8659,115.036,10.3658,113.275,14.5587,6.04861,7.12502,39.4361,-19.3451,-1.16972e-14,-1.98785e-14,-34.6519,-21.8037,44.0954,22.4384,-5.30025,29.7189,22.8778,7.12502,53.454,42.0784,-27.178,-12.0989,26.5375,56.2989,23.0516,-25.0862,16.5518,-46.2172,5.02007,-37.1977,41.4002,-42.0982,23.6621,12.2275
-0.16923,16.2112,-15.5616,-151.6,9.13605,177.914,-22.6706,0.401101,-4.55396,-8.46578,3.34476,-2.09033,3.28231,2.44025,1.21602,-7.87447,-3.0319,0.0619514,37.5279,0.103458,1.35745,14.1329,1.96898,0.994447,3.32281e-14,-2.10712e-14,-150.158,-76.9394,107.12,10.07,105.588,14.4619,5.48225,7.12502,39.3449,-19.9381,3.32281e-14,-2.10712e-14,-33.2857,-20.5842,41.8639,22.214,-5.60171,29.9188,22.7149,7.12502,53.6339,41.7974,-27.9009,-11.4521,25.0308,57.2891,22.6128,-25.6999,19.5355,-46.2707,5.53535,-38.5489,41.3432,-42.0384,24.0578,11.4685
-0.182595,16.1834,-15.5652,-152.021,8.70413,178.127,-22.5372,0.556758,-4.01549,-7.89198,3.29959,-2.1011,3.86763,2.3254,0.903875,-8.68701,-3.0367,0.0119731,37.5536,-0.0790272,1.48792,14.3308,1.85309,1.02877,3.15571e-15,-3.37934e-14,-154.82,-77.8447,112.597,10.1189,103.748,13.9194,4.74934,7.12502,38.8335,-20.8182,3.15571e-15,-3.37934e-14,-31.2456,-18.5438,39.4712,22.0834,-5.52255,30.143,23.272,7.12502,53.8355,42.2207,-27.4606,-12.3477,25.0378,57.8494,21.2796,-26.4808,24.9551,-45.9241,5.65459,-38.2801,41.6384,-41.8564,24.1867,10.7354
-0.181474,16.1792,-15.6096,-152.004,8.86022,177.986,-22.5081,0.538641,-4.1255,-8.23229,3.37246,-2.18271,3.48141,2.41041,0.883413,-8.04011,-3.21529,0.0108997,37.7679,-0.161113,1.47198,14.2867,1.8774,1.02536,-2.17296e-14,2.3059e-14,-153.784,-78.7433,112.443,10.3601,102.408,13.5676,4.66741,7.12502,38.5017,-20.9935,-2.17296e-14,2.3059e-14,-30.3052,-16.9529,37.2135,22.0884,-5.34462,29.9057,23.8626,7.12502,53.6221,42.9529,-27.9884,-13.0153,24.4516,58.56,23.1131,-24.4711,20.0723,-45.8831,5.94723,-38.5853,41.8128,-42.1478,23.8546,10.8193
-0.18306,16.1727,-15.6164,-152.174,8.45256,178.785,-21.9646,0.69318,-3.22129,-8.31174,3.31458,-1.97659,3.15797,2.3684,0.550769,-7.72535,-3.25408,0.212261,37.7632,-0.146063,1.29341,14.2106,1.90689,0.919442,2.39349e-14,-4.41302e-14,-165.433,-74.4742,124.991,10.7886,106.271,12.6655,5.38824,7.12502,37.6499,-20.5054,2.39349e-14,-4.41302e-14,-29.2116,-14.512,34.8483,21.9779,-5.21956,29.3849,23.613,7.12502,53.1531,43.0079,-28.0131,-13.3133,25.0678,59.1041,22.4208,-23.5252,18.8439,-45.7565,5.69794,-37.4419,42.1402,-42.7888,23.6155,11.9584
-0.195948,16.1606,-15.6165,-152.421,8.3196,178.771,-21.6,0.729386,-3.04743,-8.17745,3.26181,-1.98413,3.12964,2.31655,0.420032,-7.9346,-3.2468,0.30697,37.819,-0.115358,1.12119,14.2828,1.90335,0.837512,1.14425e-14,-1.35174e-14,-172.197,-70.9619,132.513,11.0313,108.674,11.6856,5.77818,7.12502,36.7232,-20.3573,1.14425e-14,-1.35174e-14,-27.9747,-10.8446,32.3883,21.742,-5.39082,29.34,23.0472,7.12502,53.1126,42.4679,-28.2573,-13.9347,24.6871,59.9519,23.2735,-22.2492,16.6463,-45.4385,5.53724,-37.394,42.1969,-43.072,23.3657,12.5039
-0.192788,16.1632,-15.6194,-152.679,8.65506,178.338,-21.1957,0.684423,-3.68456,-8.07482,3.27604,-2.02967,3.00559,2.31621,0.718718,-8.12977,-3.26208,0.072946,37.9097,-0.142311,1.25242,14.3731,1.87088,0.932378,-9.83984e-15,3.81667e-14,-173.022,-74.4187,133.963,10.9229,103.999,10.7094,5.8583,7.12502,35.7989,-20.5074,-9.83984e-15,3.81667e-14,-27.112,-6.82854,30.1091,21.7626,-4.82798,28.8588,22.5503,7.12502,52.6781,42.2443,-28.8479,-14.252,23.7552,60.9408,24.0071,-20.6599,14.33,-45.1884,5.53925,-37.845,42.1738,-43.2545,23.4267,12.2828
-0.188637,16.1648,-15.626,-152.915,9.0207,178.068,-20.5389,0.664938,-4.18038,-8.32321,3.32787,-2.05599,2.37843,2.37739,0.940442,-7.33558,-3.35074,-0.114256,37.8006,-0.165781,1.34458,14.1443,1.87872,0.998291,3.89494e-15,-1.35174e-14,-166.245,-81.4309,127.731,10.8189,96.0835,9.56274,6.14349,7.12502,34.7115,-20.4795,3.89494e-15,-1.35174e-14,-26.8118,-3.06144,27.8427,21.9923,-3.86869,28.4804,21.7217,7.12502,52.3357,41.6258,-29.5083,-14.2641,22.9639,62.0188,24.5438,-19.3817,14.1226,-44.9031,5.47152,-38.0594,42.0222,-43.6039,23.6084,12.5651
-0.189473,16.1625,-15.6366,-153.012,9.15198,178.075,-20.2259,0.743246,-4.26878,-8.24378,3.3916,-2.01242,2.2937,2.39586,1.03739,-7.55278,-3.34897,-0.256769,37.7428,-0.183162,1.32196,14.1674,1.8278,1.00781,9.80257e-15,-2.26615e-14,-94.8757,-88.0365,56.9118,10.8621,86.5577,8.83796,6.27074,7.12502,34.0234,-20.5078,9.80257e-15,-2.26615e-14,-26.0741,1.80442,25.773,21.8154,-3.21273,28.3964,21.3494,7.12502,52.2596,41.2995,-30.2363,-14.3174,22.5397,63.0797,25.1057,-17.6122,12.6117,-44.7138,5.35718,-37.9873,41.8937,-43.979,23.619,12.8657
-0.192129,16.1624,-15.6505,-153.013,9.16042,178.041,-20.2299,0.742132,-4.31412,-8.1326,3.37409,-1.96101,2.40984,2.37317,1.11805,-7.64892,-3.30633,-0.265075,37.6748,-0.111418,1.20059,14.1561,1.82722,0.965139,-1.55425e-14,-2.54444e-14,-12.1229,-81.2757,-25.4237,11.0736,76.5857,7.75685,6.12451,7.12502,32.9958,-20.8766,-1.55425e-14,-2.54444e-14,-25.4083,8.2008,23.4471,21.16,-3.41125,28.4888,20.8912,7.12502,52.3433,40.7907,-31.0062,-14.4782,22.1056,64.109,25.2019,-16.1341,11.3444,-44.5943,5.20116,-37.9755,41.832,-43.9874,23.8957,12.5152
-0.211178,16.1592,-15.6577,-153.171,8.94553,178.107,-20.05,0.835341,-3.94136,-7.92222,3.36535,-1.96801,2.5646,2.33082,0.898665,-7.72381,-3.28818,-0.358856,37.5984,-0.125621,1.28035,14.1381,1.80417,1.00791,-6.21202e-15,-3.61788e-14,-5.82036,-75.6477,-31.4231,11.3153,68.9462,5.677,5.67776,7.12502,31.0155,-21.7208,-6.21202e-15,-3.61788e-14,-24.9136,15.191,21.2041,20.4639,-3.49312,28.5138,20.254,7.12502,52.3659,40.1398,-31.4686,-14.9883,21.7118,65.1594,24.9698,-15.378,12.4941,-44.2832,5.05403,-37.8854,41.8287,-44.0843,23.8923,12.4318
-0.22671,16.163,-15.6581,-153.43,8.90221,178.251,-19.7535,0.973928,-3.6155,-7.62655,3.39403,-1.94012,2.74378,2.2963,0.747484,-7.89326,-3.26431,-0.474845,37.4575,-0.191943,1.42223,14.1121,1.74921,1.06849,-1.12065e-14,2.22639e-14,-3.12785,-70.8687,-33.9379,11.7396,61.8195,3.4737,5.40279,7.12502,28.9131,-22.3759,-1.12065e-14,2.22639e-14,-24.8457,20.4007,19.6622,20.3763,-1.15937,27.9969,20.7652,7.12502,51.8974,40.9316,-32.2703,-15.2568,21.4987,66.2792,26.7084,-12.8883,5.91089,-43.9172,4.89542,-37.6559,41.824,-44.774,23.4015,13.709
-0.208187,16.1636,-15.6514,-153.548,9.51064,178.17,-18.5682,0.96141,-4.26048,-8.29096,3.48495,-1.87337,1.37983,2.42854,1.11148,-7.12638,-3.36524,-0.247915,37.6547,-0.0815199,1.10204,14.029,1.85622,0.927071,-1.2393e-14,4.17448e-14,-3.65688,-68.14,-33.4019,12.1361,57.7989,1.47274,6.60798,7.12502,27.0002,-21.4824,-1.2393e-14,4.17448e-14,-25.7462,21.0637,18.8915,21.5385,4.78296,26.5974,21.4894,7.12502,50.6236,42.3784,-33.3926,-14.1081,21.0127,67.5812,26.4236,-15.0249,11.6876,-43.908,4.91621,-37.7015,41.7823,-45.4104,23.2452,14.7923
-0.214341,16.1757,-15.6633,-153.56,9.22284,178.652,-18.9152,1.08761,-3.64693,-7.6192,3.44302,-1.74835,2.30365,2.30918,0.935915,-8.02629,-3.23736,-0.080021,37.4661,-0.112623,0.997872,14.1401,1.77388,0.834667,5.57839e-15,-1.53064e-14,1.54087,-75.4432,-38.4085,12.056,62.0111,-1.05597,8.93223,7.12502,24.5786,-19.51,5.57839e-15,-1.53064e-14,-25.9176,27.3184,17.4376,21.5337,6.34245,26.9776,20.4057,7.12502,50.9703,41.1037,-34.4207,-13.93,21.2807,68.7438,26.4757,-15.6075,13.2776,-43.8091,4.82432,-37.1056,41.8506,-45.3329,23.768,13.8849
-0.215984,16.187,-15.6844,-153.57,9.09399,178.872,-19.5219,1.10514,-3.38513,-6.9831,3.35,-1.58738,3.30317,2.18627,0.992249,-8.33674,-3.12115,-0.48902,37.1405,-0.137285,1.3475,14.0623,1.68936,1.0267,2.48481e-17,-8.54774e-15,10.5077,-79.7538,-47.3557,12.0343,63.3208,-4.11736,11.3681,7.12502,21.6413,-17.4425,2.48481e-17,-8.54774e-15,-26.1819,35.2828,15.7909,20.8167,8.04154,25.4943,21.2635,7.12502,49.6146,42.6863,-35.5044,-13.7531,21.2505,69.9732,26.2304,-15.7492,13.6417,-43.6995,4.86475,-36.8548,41.8989,-45.4206,23.8229,13.4986
-0.229029,16.1802,-15.6823,-153.868,8.58162,179.402,-18.556,1.13942,-2.58604,-7.1641,3.18214,-1.38585,2.64459,2.10408,0.668402,-7.8036,-3.06309,-0.471245,37.0827,0.0486104,1.2818,13.914,1.78912,1.02209,1.23992e-14,3.45885e-14,2.37628,-68.1383,-39.3751,12.5792,48.954,-7.41742,12.2135,7.12502,18.4693,-16.9297,1.23992e-14,3.45885e-14,-27.9821,39.0864,13.8801,20.9449,9.07481,28.4261,16.3215,7.12502,52.2865,36.2554,-36.1016,-13.4411,21.6315,71.1904,24.8546,-16.8054,16.7963,-43.3386,4.54543,-36.0824,42.023,-45.7185,23.774,14.0172
-0.221209,16.1671,-15.6669,-154.189,8.94915,179.245,-18.115,1.20294,-2.97651,-6.81508,3.23536,-1.41143,2.76625,2.09086,0.862225,-8.22803,-2.92376,-0.200075,36.9298,0.156949,1.06232,13.9343,1.80265,0.889916,-4.53478e-15,-3.97569e-16,1.62695,-55.7373,-39.3421,13.8659,30.5212,-13.701,8.82976,7.12502,12.4174,-20.7814,-4.53478e-15,-3.97569e-16,-27.8402,40.4783,15.1469,23.0025,18.1637,21.8278,20.6193,7.12502,46.2339,43.6158,-37.1492,-12.586,21.1653,72.6183,23.1036,-17.5234,18.2392,-43.1724,4.55737,-36.2752,42.0698,-45.6165,24.6502,12.9026
-0.222898,16.1683,-15.6698,-154.576,8.97234,179.072,-17.685,1.17464,-3.18901,-6.37985,3.1262,-1.38489,2.99447,1.98748,0.982041,-8.82499,-2.82076,-0.144968,36.8045,0.208015,0.903099,14.009,1.75939,0.81303,5.34979e-14,-1.33186e-14,9.25528,-72.8038,-47.0702,12.4713,46.549,-14.7998,17.5495,7.12502,11.3579,-12.1229,5.34979e-14,-1.33186e-14,-28.5858,42.3493,15.4773,24.367,23.3322,21.0801,18.9154,7.12502,45.5399,42.1991,-38.3697,-12.2739,20.7076,74.1891,22.0203,-16.5575,14.1031,-42.7576,4.54635,-36.4784,42.1335,-45.3633,25.4979,11.1196
-0.232413,16.1595,-15.6689,-155.01,8.77908,178.984,-16.9031,1.10361,-3.11179,-6.44415,2.96165,-1.3181,2.5216,1.90652,0.940664,-8.14947,-2.84739,-0.406937,36.7349,0.30036,0.942507,13.8276,1.79555,0.886856,7.00716e-15,1.5704e-14,12.6665,-76.6451,-51.0133,12.1798,47.7813,-17.1044,22.6752,7.12502,9.13456,-7.10694,7.00716e-15,1.5704e-14,-29.1565,40.209,17.1222,26.8166,32.2419,18.9034,18.0952,7.12502,43.5121,42.1577,-39.3412,-12.1782,20.3698,75.6603,19.4982,-16.9155,14.789,-42.3024,4.3734,-36.4996,42.2848,-45.5793,25.7124,10.7356
-0.240403,16.1497,-15.6335,-155.443,8.78777,178.939,-15.9086,1.1114,-3.09784,-6.34187,2.87118,-1.31284,2.10827,1.84223,0.882254,-7.98516,-2.77399,-0.30381,36.5797,0.3955,0.851801,13.7187,1.82954,0.837447,-3.60794e-14,-1.39149e-14,5.85719,-64.5872,-44.9423,12.9926,30.7072,-21.3985,22.5758,7.12502,4.98961,-7.34544,-3.60794e-14,-1.39149e-14,-30.1762,42.9815,16.9598,27.7971,35.8788,18.224,16.6411,7.12502,42.8772,40.9303,-40.5406,-11.6275,20.1122,77.1396,17.0282,-14.9114,8.57486,-42.0539,4.02245,-36.3961,42.45,-46.1019,25.9466,11.4167
-0.25313,16.1582,-15.6254,-155.579,8.26704,179.833,-14.915,1.1573,-1.97287,-6.55981,2.71312,-1.03324,1.39311,1.75723,0.468856,-7.29787,-2.68693,-0.123031,36.3261,0.602671,0.626511,13.4512,1.92973,0.733505,1.66109e-14,-1.74931e-14,59.3936,-84.8595,-99.4727,11.2781,50.8637,-22.8886,30.3767,7.12502,3.55072,0.426479,1.66109e-14,-1.74931e-14,-31.4265,45.739,16.5253,28.5494,38.6897,16.6795,15.9298,7.12502,41.4302,40.708,-41.5566,-11.1311,20.9628,78.2107,14.7891,-13.5007,2.5937,-41.9618,3.58056,-35.1984,42.7207,-46.4861,26.2167,11.3676
-0.249244,16.1546,-15.5938,-155.979,8.36445,179.565,-14.0676,1.12547,-2.43516,-6.05403,2.59972,-1.05273,1.45649,1.65309,0.671453,-8.31425,-2.46431,0.256047,36.1571,0.732073,0.334962,13.5968,1.92157,0.556322,-2.52581e-14,-5.56597e-15,94.0867,-84.2216,-135.264,11.1957,49.6829,-25.6296,32.943,7.12502,0.903483,2.96518,-2.52581e-14,-5.56597e-15,-32.4855,51.6946,15.6882,28.6557,38.8579,16.0868,14.8747,7.12502,40.8737,39.8312,-43.0165,-10.4541,20.5078,79.5333,12.8002,-14.0084,0.622646,-41.7318,3.19778,-35.3135,42.8642,-47.0418,26.1048,12.2013
-0.242416,16.1481,-15.5708,-156.3,8.55591,179.282,-12.8486,1.0471,-2.94,-6.43577,2.52562,-1.06452,0.385226,1.65224,0.87324,-7.28486,-2.49094,0.243222,36.0252,0.829957,0.323609,13.3126,2.00626,0.563974,-2.4376e-14,-1.07344e-14,55.3412,-83.734,-97.6192,11.3865,43.4413,-27.7675,35.8343,7.12502,-1.16132,5.85773,-2.4376e-14,-1.07344e-14,-33.0607,51.5402,16.906,30.3058,42.7692,14.3313,13.5901,7.12502,39.2218,39.0463,-44.6311,-9.65072,20.0377,80.6807,10.584,-15.8526,2.38345,-41.5195,2.77503,-35.4255,42.9954,-48.1946,25.2089,14.611
-0.238029,16.1393,-15.5525,-156.594,8.65027,179.19,-11.7036,1.0118,-3.19204,-6.61237,2.44123,-0.99926,-0.426708,1.62506,1.02248,-6.93185,-2.46833,-0.0161333,35.9079,0.867201,0.516262,13.184,2.01801,0.685978,-1.52443e-14,5.96354e-15,43.494,-82.8711,-86.9715,11.4687,39.9522,-29.2424,38.8511,7.12502,-2.58582,8.88708,-1.52443e-14,5.96354e-15,-33.1756,50.7707,18.9354,32.2032,46.8902,10.3471,13.8949,7.12502,35.4555,40.3434,-46.202,-8.65197,19.7162,81.5788,7.71442,-18.475,8.26009,-41.2564,2.39268,-35.3143,43.0996,-49.5356,23.5055,18.5288
-0.252395,16.1406,-15.5761,-156.796,7.94971,179.745,-11.8036,1.0251,-2.16586,-5.85863,2.25262,-0.884892,0.45602,1.43904,0.570448,-8.11868,-2.28955,0.0977244,35.6424,0.825632,0.517345,13.3229,1.91733,0.646735,-1.47473e-14,2.38542e-15,46.4145,-82.2386,-91.2583,11.6045,37.5836,-30.6971,40.6918,7.12502,-3.99065,10.7494,-1.47473e-14,2.38542e-15,-32.1484,52.0605,21.5339,33.4839,49.5864,6.44363,14.1688,7.12502,31.7459,41.4254,-47.0317,-8.26725,20.149,81.9495,5.35242,-18.7431,8.16886,-40.8474,2.15335,-34.5825,43.3181,-49.7823,22.9249,19.1074
-0.26237,16.1371,-15.5828,-157.021,7.40957,180.188,-11.3635,0.952682,-1.39812,-5.65709,2.02173,-0.767058,0.454333,1.28907,0.225922,-8.15604,-2.17892,0.402994,35.4136,0.940833,0.235527,13.2303,1.94583,0.486858,1.27222e-14,-1.39149e-15,66.3877,-83.6219,-112.845,11.3952,40.4035,-31.8183,42.0134,7.12502,-5.07329,12.0941,1.27222e-14,-1.39149e-15,-32.218,53.8728,22.7569,34.1167,50.3542,3.57983,14.2119,7.12502,29.0145,41.9731,-47.9545,-7.78427,20.5247,82.2702,3.46,-19.3573,11.683,-40.6278,2.1187,-34.0608,43.5914,-49.4387,23.6232,17.2488
-0.263724,16.1256,-15.5832,-157.174,7.19577,180.408,-10.823,0.917825,-1.06225,-5.68204,1.91745,-0.701918,0.144577,1.22673,0.0766036,-7.63495,-2.19801,0.410573,35.1618,0.947364,0.135223,13.0076,1.9392,0.437666,-1.1281e-14,-3.77691e-15,81.4037,-83.8525,-129.476,11.0337,41.3038,-33.7821,41.7468,7.12502,-6.96927,11.8815,-1.1281e-14,-3.77691e-15,-32.7051,55.4019,23.7155,34.6281,50.38,1.22338,15.1863,7.12502,26.7616,43.3134,-49.2613,-6.97293,20.5678,82.52,1.6999,-19.7585,13.6717,-40.595,2.1302,-33.8056,43.913,-49.1709,24.1658,15.7972
-0.265233,16.1326,-15.592,-157.291,7.00251,180.651,-10.5925,0.999998,-0.636289,-5.24545,1.91864,-0.71226,0.486309,1.18676,-0.170051,-8.08605,-2.16682,0.23053,34.8024,0.756783,0.392376,12.9469,1.80116,0.529861,-3.97569e-15,3.18055e-15,139.481,-78.9207,-189.444,10.4289,49.8342,-34.8258,41.476,7.12502,-7.97662,11.6465,-3.97569e-15,3.18055e-15,-32.1821,57.5841,25.6228,34.7162,49.4788,-1.92713,15.0012,7.12502,23.7433,43.5544,-50.8241,-5.97689,20.4638,82.5367,-0.299227,-19.8537,13.3407,-40.5487,2.29073,-33.5348,44.2025,-49.0608,24.1202,15.419
-0.2661,16.1247,-15.5943,-157.673,6.54786,180.778,-8.90146,0.778363,-0.397942,-5.80669,1.61131,-0.592376,-1.01698,1.04466,-0.265749,-7.44368,-2.22234,0.0043157,35.0693,0.826871,0.601041,12.9248,1.88725,0.67129,1.23992e-14,-2.78299e-15,158.259,-70.713,-210.425,9.96097,59.2341,-35.6733,40.8048,7.12502,-8.79458,11.008,1.23992e-14,-2.78299e-15,-33.4171,57.8396,26.0665,34.532,48.3448,-2.35327,16.384,7.12502,23.3345,44.9897,-51.6647,-5.30695,20.4208,82.3294,-2.38788,-19.0919,7.39507,-40.3007,2.48564,-33.348,44.542,-48.6546,24.2877,14.3477
-0.268077,16.1209,-15.6032,-158.14,5.80333,181.13,-8.79651,0.662996,0.279774,-5.0849,1.31251,-0.521452,-0.314485,0.838004,-0.586025,-7.86627,-2.09822,0.132918,34.7616,0.763761,0.773838,12.8806,1.84072,0.693691,1.26228e-14,2.78299e-15,163.097,-60.0777,-217.827,9.66684,68.221,-36.2632,39.9321,7.12502,-9.36373,10.16,1.26228e-14,2.78299e-15,-32.3302,59.4854,28.4845,33.9691,47.0545,-3.43846,16.9712,7.12502,22.2931,45.7053,-52.2969,-4.67259,20.6302,81.879,-3.94943,-19.222,8.85566,-39.9436,2.6034,-32.8586,44.8707,-47.7911,25.2511,11.7893
-0.270501,16.1135,-15.6091,-158.509,5.23327,181.433,-7.89476,0.493859,0.766106,-5.13497,1.03971,-0.356026,-0.861396,0.68352,-0.726521,-7.34616,-2.0343,0.210191,34.6598,0.944938,0.632765,12.7261,1.93002,0.644392,-9.96408e-15,1.19271e-15,166.625,-50.388,-223.744,9.575,77.582,-36.0507,39.1911,7.12502,-9.15871,9.40999,-9.96408e-15,1.19271e-15,-32.4512,59.2614,30.2253,33.422,46.5541,-4.58085,17.3887,7.12502,21.1961,46.2499,-53.0771,-3.94916,20.7476,81.328,-5.60993,-19.1024,9.08191,-39.7555,2.76902,-32.472,45.2973,-47.4982,25.2799,11.0094
-0.268372,16.093,-15.6075,-158.725,5.14803,181.329,-7.36253,0.416638,0.677377,-4.84532,0.895898,-0.358423,-0.857874,0.593015,-0.693203,-7.66645,-1.86441,0.282016,34.4949,1.08998,0.614242,12.7234,1.96532,0.635722,1.49089e-16,2.5842e-15,167.786,-40.0834,-227.68,9.88675,87.3435,-36.1139,38.3367,7.12502,-9.21975,8.55823,1.49089e-16,2.5842e-15,-29.9783,54.0347,36.0957,35.219,51.2131,-7.67889,18.422,7.12502,18.2178,47.5889,-54.3168,-3.01845,20.3,80.7612,-6.40259,-18.8546,6.47372,-39.7524,2.93627,-32.6135,45.7124,-47.7904,24.6321,11.8518
-0.248565,16.0617,-15.5698,-158.993,5.37579,181.103,-6.0403,0.387931,0.132807,-4.89565,0.860625,-0.400194,-1.6472,0.573456,-0.451535,-7.46736,-1.80005,0.21652,34.3191,1.14155,0.7219,12.6052,1.98469,0.687695,2.32081e-14,8.15017e-15,168.82,-30.0137,-231.615,10.443,96.3345,-36.1302,39.247,7.12502,-9.23542,9.46922,2.32081e-14,8.15017e-15,-29.0884,53.9687,38.6915,34.2666,50.3043,-7.70294,18.594,7.12502,18.1946,47.763,-55.9281,-1.53815,19.6585,80.228,-7.15547,-18.8483,6.35117,-40.0266,3.24742,-32.8786,46.2639,-47.8932,24.3776,12.1634
-0.262832,16.0564,-15.5985,-159.12,4.6731,181.394,-5.81176,0.186512,0.889395,-4.76083,0.542449,-0.330992,-1.63347,0.387401,-0.819555,-7.05822,-1.68672,0.287484,33.9167,1.26695,0.640659,12.3494,2.02194,0.642998,1.29459e-14,1.19271e-15,169.289,-24.02,-234.805,10.812,100.771,-36.1446,40.6327,7.12502,-9.24933,10.8556,1.29459e-14,1.19271e-15,-28.4355,55.0584,40.8589,32.9475,48.0862,-7.4336,18.7407,7.12502,18.4538,47.8854,-56.7231,-1.2648,19.6948,79.236,-7.5935,-18.3025,4.14919,-39.9826,3.58807,-32.6504,46.6985,-47.1295,24.7702,9.90069
-0.227948,16.0177,-15.5886,-159.413,5.00015,181.452,-5.06861,0.232457,0.390102,-4.65928,0.597603,-0.246347,-1.94438,0.415751,-0.456509,-6.5847,-1.61222,0.226186,33.5015,1.30856,0.74547,12.0768,2.03101,0.681622,-8.52289e-15,0,169.666,-22.1301,-237.407,10.8042,100.961,-36.3495,41.6302,7.12502,-9.44699,11.8619,-8.52289e-15,0,-27.4836,55.0656,43.6598,32.0401,46.6955,-8.01324,19.3627,7.12502,17.8961,48.5593,-58.034,0.606721,19.2968,78.3197,-8.08477,-18.6031,2.85605,-40.2786,4.2696,-32.6237,47.3056,-46.8163,25.016,8.97952
-0.249703,16.0052,-15.5891,-159.76,4.2325,180.972,-3.47212,-0.118452,0.472656,-5.30525,0.1662,-0.328628,-3.51259,0.204739,-0.611326,-5.49953,-1.71531,0.0350541,33.6871,1.3977,0.800295,11.9292,2.129,0.75108,1.41634e-14,5.96354e-15,171.183,-30.0174,-239.557,10.0827,91.9793,-36.5262,41.49,7.12502,-9.6175,11.7296,1.41634e-14,5.96354e-15,-27.7924,51.2696,46.5147,32.5443,48.8497,-9.82234,20.4561,7.12502,16.1547,49.8029,-58.8516,0.401166,18.4979,77.1795,-8.75601,-18.2791,3.51798,-40.0006,4.30427,-33.157,47.745,-46.5801,24.4047,8.77524
-0.222892,15.9789,-15.5842,-159.977,4.28552,181.29,-2.51592,-0.0883514,0.391594,-5.42665,0.20492,-0.170517,-4.17817,0.224127,-0.407741,-4.78403,-1.67804,0.0247461,33.4064,1.50186,0.763997,11.6683,2.18389,0.738091,3.23025e-15,1.98785e-16,172.034,-38.237,-241.786,9.48304,82.3311,-36.8786,41.5832,7.12502,-9.95752,11.8387,3.23025e-15,1.98785e-16,-27.0832,52.9684,48.4014,30.2421,46.4962,-10.3183,20.5925,7.12502,15.6772,49.9774,-59.9952,2.00375,18.3637,75.8755,-9.09395,-19.0255,5.99859,-40.3296,4.99066,-32.8367,48.43,-46.1318,24.5967,7.35234
-0.22474,15.9438,-15.5711,-160.208,3.89368,181.134,-1.68897,-0.136076,0.507861,-4.87739,0.0668202,-0.27367,-4.07306,0.117617,-0.575342,-5.99017,-1.4673,0.277327,33.1598,1.55652,0.632784,11.8149,2.13616,0.644974,-1.04362e-14,-2.98177e-15,171.084,-45.6392,-242.913,9.28652,73.0261,-36.8175,41.2485,7.12502,-9.8986,11.5012,-1.04362e-14,-2.98177e-15,-24.1939,51.2478,53.715,30.8241,48.2983,-13.2176,21.8898,7.12502,12.8834,51.4722,-61.0217,2.45795,17.8702,74.4627,-9.26874,-19.3244,7.8678,-40.4855,5.45596,-33.0867,48.9264,-44.6868,25.5183,3.71709
-0.228051,15.9097,-15.5658,-160.512,3.47461,181.364,-1.27209,-0.142465,0.961949,-3.96559,-0.0234471,-0.244349,-3.36242,0.0256192,-0.793735,-7.57867,-1.29123,0.254691,32.8655,1.4415,0.796098,12.0201,1.98911,0.689806,-3.08116e-15,3.97569e-16,168.656,-52.8491,-242.683,9.14726,64.1214,-36.6432,40.8285,7.12502,-9.73041,11.0733,-3.08116e-15,3.97569e-16,-20.6035,50.0696,59.3328,30.9994,49.2242,-11.7731,22.4268,7.12502,14.2757,51.9162,-61.8022,3.03297,17.7015,72.8638,-10.4365,-19.0296,9.78422,-40.5661,5.9482,-32.8805,49.5706,-43.8051,25.604,1.84218
-0.271245,15.928,-15.6607,-160.563,2.41732,182.002,-2.20559,-0.345782,2.52734,-3.44974,-0.334255,-0.138545,-2.32419,-0.16782,-1.56105,-7.81601,-1.25524,0.144067,32.6828,1.3868,0.931101,11.9931,1.93769,0.746928,-5.2181e-15,-1.39149e-15,166.612,-60.6703,-242.483,8.86597,55.9363,-36.7159,40.2893,7.12502,-9.80058,10.5373,-5.2181e-15,-1.39149e-15,-18.469,49.8238,63.1589,29.9712,48.0231,-13.588,23.2087,7.12502,12.5264,52.8132,-61.9024,2.26176,18.1996,70.9611,-11.7069,-17.933,10.1518,-40.1001,6.40886,-32.3337,49.9562,-44.086,24.1525,2.64872
-0.253225,15.8907,-15.657,-160.988,2.3148,181.887,-1.4999,-0.337891,2.16343,-2.80379,-0.365234,-0.186342,-2.05137,-0.18954,-1.40343,-9.0233,-1.11473,0.462382,32.4952,1.30773,0.913316,12.1686,1.86365,0.671007,1.04859e-14,-7.95139e-16,161.59,-67.907,-239.486,8.4346,48.2562,-37.1945,39.5848,7.12502,-10.2623,9.85519,1.04859e-14,-7.95139e-16,-15.7736,46.5488,68.1277,30.797,49.5348,-15.9089,24.3937,7.12502,10.288,54.1221,-62.7869,3.1114,17.7642,69.293,-11.2918,-18.5053,9.49049,-40.0436,7.08651,-32.4497,50.4967,-44.5382,22.67,5.42284
-0.228107,15.8497,-15.6674,-161.382,2.21314,181.523,-0.104488,-0.421597,1.45605,-3.47106,-0.428926,-0.224797,-3.52226,-0.212539,-1.03704,-6.99186,-1.36909,-0.0471225,32.3328,1.10629,1.52068,11.678,1.87173,0.952421,6.90777e-15,0,163.337,-76.5264,-243.375,8.66632,40.2424,-37.2299,39.4402,7.12502,-10.2964,9.71222,6.90777e-15,0,-16.7855,41.6804,70.5151,32.1986,51.7848,-18.732,25.7746,7.12502,7.56383,55.6194,-63.6261,3.97301,17.0687,67.5868,-10.5533,-19.3248,9.25997,-39.9462,7.72229,-32.7992,50.9736,-44.6241,21.3947,7.28864
-0.226464,15.8323,-15.6917,-162.167,1.30757,181.822,1.18306,-0.612108,2.08293,-2.87216,-0.698478,-0.263235,-3.64733,-0.383875,-1.40943,-8.46519,-1.16826,0.728903,32.2805,1.10158,1.26029,11.9636,1.85993,0.721089,4.57205e-15,-7.55382e-15,144.279,-83.3709,-226.808,8.6508,32.3241,-37.6888,38.5576,7.12502,-10.7391,8.85208,4.57205e-15,-7.55382e-15,-14.476,38.4797,74.5403,32.7337,52.7636,-21.0999,27.4082,7.12502,5.27793,57.3224,-63.4898,4.15291,17.2866,65.7276,-10.4736,-19.9807,12.1314,-39.3849,8.06462,-32.2811,51.57,-44.0105,21.4326,5.97545
-0.223173,15.8021,-15.7117,-162.391,1.16739,181.596,1.56191,-0.543214,1.80505,-2.39081,-0.636007,-0.269034,-3.35657,-0.349339,-1.26082,-9.25857,-1.28536,0.247784,32.0436,0.729191,1.65495,12.0312,1.62696,0.900039,1.14301e-14,2.38542e-15,59.5991,-85.6777,-144.088,8.52705,24.6484,-38.0501,38.2994,7.12502,-11.0876,8.61224,1.14301e-14,2.38542e-15,-12.2409,36.4641,78.5776,32.672,52.3567,-20.5667,27.3496,7.12502,5.79269,57.2504,-64.306,4.55612,16.7521,63.9137,-9.25116,-20.666,13.608,-39.5035,8.51919,-32.6097,52.1642,-43.3184,22.0657,3.96344
-0.228302,15.7776,-15.7316,-162.586,0.664639,181.584,2.28644,-0.640125,2.00466,-2.26709,-0.756219,-0.32609,-3.64641,-0.421117,-1.41916,-9.64772,-1.23654,0.467469,31.8636,0.66643,1.62924,12.0399,1.59246,0.838552,1.09332e-15,-7.95139e-15,15.7959,-79.8197,-102.663,8.80441,17.0524,-38.132,37.7432,7.12502,-11.1666,8.06032,1.09332e-15,-7.95139e-15,-12.8692,29.1784,81.4974,36.7788,56.6122,-22.2911,28.7828,7.12502,4.12769,58.7225,-64.9889,4.63651,16.4979,62.0217,-7.56129,-21.2224,14.5699,-39.5942,8.70465,-32.628,52.7933,-42.5872,22.7577,2.01359
-0.236504,15.7517,-15.7515,-162.822,0.0174313,181.863,2.95393,-0.836176,2.51653,-2.03708,-0.992446,-0.314488,-3.80523,-0.556191,-1.67372,-10.3218,-1.14525,0.781665,31.7987,0.630437,1.58154,12.155,1.57364,0.759558,-3.67752e-15,-7.55382e-15,6.77674,-72.325,-96.1765,9.10627,9.45042,-37.66,37.7435,7.12502,-10.7114,8.03658,-3.67752e-15,-7.55382e-15,-11.4567,26.5452,84.2483,37.0371,56.8302,-22.2698,28.5372,7.12502,4.14827,58.4765,-65.5099,4.61245,16.6274,60.1238,-6.74072,-21.9924,20.1015,-39.615,8.78086,-32.2781,53.3871,-42.206,22.9226,1.12785
-0.196436,15.6933,-15.7694,-163.161,0.407669,181.597,4.12014,-0.704733,1.4227,-2.37684,-0.843856,-0.251698,-4.79324,-0.459912,-0.989646,-8.96319,-1.26714,0.46993,31.129,0.495988,1.78842,11.6045,1.50609,0.850254,5.76476e-15,2.38542e-15,0.21529,-64.7383,-92.2453,9.7063,1.80425,-37.0534,38.2571,7.12502,-10.1262,8.52079,5.76476e-15,2.38542e-15,-11.6975,22.3616,86.5883,38.3995,58.5498,-22.3681,28.011,7.12502,4.0533,57.9522,-66.3776,6.3121,15.5177,58.3011,-10.1832,-23.8689,36.4088,-39.7384,9.44075,-32.4981,54.068,-42.3378,22.2478,2.23603
-0.188196,15.6763,-15.8376,-163.695,0.138844,181.658,4.41324,-0.72518,1.34077,-2.11633,-0.880101,-0.222857,-4.68741,-0.476058,-0.908911,-8.59441,-1.21014,0.372924,30.5127,0.430126,2.08469,11.2868,1.46896,0.947938,-3.67752e-15,7.55382e-15,-2.61806,-57.2513,-92.3265,11.1714,-5.82652,-36.7582,37.6353,7.12502,-9.84138,7.88528,-3.67752e-15,7.55382e-15,-12.2736,17.0383,88.8854,41.4966,59.2053,-20.1262,27.0253,7.12502,6.21797,56.9141,-66.4341,6.94923,15.1695,56.3749,-4.02914,-25.0996,24.6401,-39.1885,9.82999,-32.2652,54.723,-42.4805,21.9529,1.49734
-0.214705,15.6425,-15.8408,-163.571,-0.725131,181.957,4.54114,-0.905072,2.29491,-1.77168,-1.08071,-0.259665,-4.42699,-0.607977,-1.46563,-9.39555,-1.13891,0.588244,30.1332,0.298482,2.07997,11.3027,1.3714,0.881471,9.93923e-15,-1.98785e-15,-3.20223,-45.1113,-94.6608,12.8648,-17.0879,-37.2445,36.6317,7.12502,-10.3105,6.90448,9.93923e-15,-1.98785e-15,-11.4426,10.412,91.1263,43.4697,61.2448,-20.871,25.8186,7.12502,5.49885,55.7273,-67.2497,6.22894,15.4708,54.5796,0.993219,-24.2059,10.9003,-39.5704,9.42555,-31.952,55.3057,-42.3319,22.1953,0.512337
-0.175244,15.5642,-15.8365,-162.467,0.78248,182.294,5.67009,-0.295586,1.62145,-3.46026,-0.224434,-0.269743,-6.80551,-0.171804,-1.16907,-7.84604,-1.35375,0.876604,30.4621,0.28681,1.92011,11.1175,1.48016,0.783004,8.94531e-15,7.55382e-15,-7.77393,-36.2405,-94.5359,14.718,-23.6816,-36.3822,36.4068,7.12502,-9.47858,6.63994,8.94531e-15,7.55382e-15,-14.1204,3.88468,92.7239,45.6113,60.7048,-21.1445,27.0957,7.12502,5.23484,57.011,-69.7694,8.0803,14.9378,52.7832,4.87083,-23.0993,-0.0215339,-41.5929,10.7963,-32.226,56.0193,-42.3328,22.2654,0.186955
-0.201837,15.5746,-15.9092,-163.334,-0.943393,181.75,5.45854,-0.787059,1.90698,-2.1672,-0.932798,-0.33229,-5.34914,-0.537212,-1.32151,-10.1126,-1.18831,0.910602,30.3166,0.116854,2.05376,11.5221,1.31811,0.801168,3.08116e-15,0,-5.63135,-36.1452,-97.2082,12.3193,-20.015,-34.3779,38.1513,7.12502,-7.54437,8.30586,3.08116e-15,0,-12.6709,-2.6815,94.6163,47.979,60.3877,-22.0269,29.9584,7.12502,4.38276,59.8931,-69.066,6.92601,14.3273,51.3008,5.74599,-21.9531,-6.05479,-40.0863,9.86627,-32.239,56.1513,-42.1568,22.2835,-1.58587
-0.193651,15.5422,-15.9474,-163.208,-1.06896,181.333,4.82021,-0.675435,1.38636,-1.24497,-0.830479,-0.419671,-4.01479,-0.451934,-1.14268,-12.1746,-1.17811,0.574062,29.7642,-0.346422,2.60413,11.735,1.02222,0.985738,-6.36111e-15,-1.55052e-14,-4.84035,-23.2208,-100.101,14.5364,-29.9422,-35.5509,35.9487,7.12502,-8.67641,6.14703,-6.36111e-15,-1.55052e-14,-11.041,-9.38237,95.9421,50.1628,59.8679,-21.605,32.2785,7.12502,4.79016,62.2044,-70.1105,7.28934,13.2463,49.9634,6.8095,-21.1047,-9.5364,-40.2354,10.0562,-32.7104,56.492,-41.9054,22.4423,-2.6086
-0.166811,15.4921,-15.9718,-162.941,-1.04209,180.684,5.47427,-0.569431,0.411917,-2.11679,-0.772456,-0.616895,-5.28097,-0.412532,-0.793615,-10.4868,-1.51222,0.351241,29.27,-0.736934,2.92447,11.2059,0.88557,1.0799,1.2921e-15,-6.36111e-15,-7.93952,-11.3807,-101.833,17.8276,-38.6197,-36.7774,32.8306,7.12502,-9.85985,3.08146,1.2921e-15,-6.36111e-15,-12.8208,-15.4013,97.2955,52.7024,59.1599,-19.8737,32.9498,7.12502,6.46173,62.8312,-71.5388,8.46499,11.1986,48.8899,7.24241,-21.5727,-11.0105,-40.5971,10.2122,-33.4003,56.6085,-41.4328,22.5343,-3.46692
-0.155,15.4487,-15.9887,-162.778,-1.08387,180.019,6.60582,-0.451537,-0.21623,-2.94726,-0.71649,-0.916538,-6.79992,-0.379391,-0.746651,-9.39109,1.09492,-0.0330984,28.7316,-2.08595,3.9841,10.8247,-1.36669,1.02829,-1.2921e-15,-1.55052e-14,-11.0359,-1.16556,-104.101,21.8624,-45.9888,-37.4243,29.7651,7.12502,-10.4839,0.0465355,-1.2921e-15,-1.55052e-14,-14.4404,-21.1824,98.6242,55.32,58.804,-17.4059,32.1593,7.12502,8.84367,61.954,-72.7203,9.07415,9.48513,47.9112,7.91788,-21.7141,-13.1189,-40.8303,10.3073,-34.1252,56.9114,-41.4485,22.1533,-3.53759
-0.156497,15.4476,-16.0865,-162.64,-1.12991,179.798,4.8888,-0.341622,-0.631998,-1.83791,-0.556537,-0.910129,-4.64614,-0.279024,-0.53671,-10.8028,0.717175,-0.0543816,27.5966,-2.16968,3.95304,10.6803,-1.26651,1.02463,-1.09332e-15,-5.1684e-15,-11.2136,8.27855,-105.987,26.0733,-51.871,-37.2981,26.7533,7.12502,-10.3623,-2.97137,-1.09332e-15,-5.1684e-15,-12.7758,-26.4217,98.7811,58.1099,59.01,-14.9927,31.168,7.12502,11.1718,60.8505,-73.54,9.55183,8.43589,47.2001,8.05531,-21.6576,-15.4488,-40.4793,10.7278,-34.3953,56.9667,-41.7392,21.6127,-3.95244
-0.111376,15.3707,-16.1095,-162.184,-0.221945,178.857,5.64448,0.209601,-2.34653,-2.3568,-0.00694224,-1.16398,-5.61958,0.0425196,0.109765,-10.9394,0.310276,-0.275193,27.1222,-2.64082,4.18124,10.5483,-1.44771,1.08987,2.78299e-15,-1.15295e-14,-13.2203,16.1882,-107.669,30.2455,-57.0727,-37.0396,22.82,7.12502,-10.1129,-6.91699,2.78299e-15,-1.15295e-14,-13.696,-30.7098,99.834,61.7281,58.8073,-12.1891,31.1671,7.12502,13.8748,60.6843,-76.3051,13.4378,2.68851,46.6381,7.85317,-26.5207,-15.262,-41.319,11.3512,-35.6152,57.1992,-41.4561,21.7782,-4.74975
-0.114273,15.3442,-16.1324,-162.061,-0.168582,177.685,5.8662,0.383088,-3.23687,-1.90475,0.110374,-1.71294,-5.27874,0.106607,0.0286765,-12.5622,-0.123496,0.320799,26.4551,-3.00123,3.84248,10.621,-1.47723,0.826607,-1.09332e-14,2.70347e-14,-13.6976,25.267,-108.886,34.5564,-62.9512,-36.7556,16.1917,7.12502,-9.83884,-13.5585,-1.09332e-14,2.70347e-14,-13.1143,-35.5157,99.5551,65.0339,58.954,-9.81298,27.4341,7.12502,16.1637,56.7801,-77.5845,13.7521,0.237754,46.5414,9.27679,-26.9673,-20.3877,-41.1012,11.3619,-36.9793,57.0112,-41.0814,22.3461,-6.5801
-0.0874024,15.3511,-16.2272,-162.639,-1.03479,177.389,6.00808,0.221581,-3.64719,-1.8307,-0.143588,-1.68342,-5.27618,-0.00666167,0.315594,-11.3899,-0.267682,0.71688,25.2233,-3.06115,3.64468,9.93587,-1.49636,0.693602,-1.59028e-15,1.55052e-14,-15.7535,31.3526,-110.542,38.6623,-66.0107,-34.7125,14.1664,7.12502,-7.86728,-15.6672,-1.59028e-15,1.55052e-14,-14.3638,-38.6005,100.103,68.5608,57.8905,-6.45051,25.7833,7.12502,19.3992,54.8356,-77.0248,13.2536,0.470169,46.4848,8.36882,-26.8813,-21.0749,-39.8608,11.3883,-36.7144,56.9505,-41.031,22.0097,-7.95849
