JuanDHNZ/ProyectoFinalCD/preprocessing/sports_trials_csv/05_10.csv
root1,root2,root3,root4,root5,root6,lowerback1,lowerback2,lowerback3,upperback1,upperback2,upperback3,thorax1,thorax2,thorax3,lowerneck1,lowerneck2,lowerneck3,upperneck1,upperneck2,upperneck3,head1,head2,head3,rclavicle1,rclavicle2,rhumerus1,rhumerus2,rhumerus3,rradius1,rwrist1,rhand1,rhand2,rfingers1,rthumb1,rthumb2,lclavicle1,lclavicle2,lhumerus1,lhumerus2,lhumerus3,lradius1,lwrist1,lhand1,lhand2,lfingers1,lthumb1,lthumb2,rfemur1,rfemur2,rfemur3,rtibia1,rfoot1,rfoot2,rtoes1,lfemur1,lfemur2,lfemur3,ltibia1,lfoot1,lfoot2,ltoes1
0.0402018,16.4322,-9.63242,26.4812,-31.3339,-0.0989619,-16.433,1.89153,-5.98108,-10.1354,3.10251,-0.494982,-1.94465,1.75828,3.278,-12.5911,3.6725,2.94854,34.0823,3.67717,2.03291,13.6503,2.17099,0.828749,-2.79914e-14,1.2921e-14,-62.7558,26.4375,-108.531,27.1274,-29.6574,25.6038,3.79986,7.12502,49.715,-17.5713,-2.79914e-14,1.2921e-14,-62.5145,-32.7567,110.645,36.178,20.9061,24.9807,20.7985,7.12502,49.1434,42.4596,-23.4164,-11.4624,29.1217,48.0248,32.125,-26.422,12.9107,-46.9845,4.78006,-35.7214,38.7541,-39.6772,27.0286,18.9085
0.0430292,16.4339,-9.63264,26.1394,-31.262,0.21404,-16.1521,1.82017,-6.189,-10.0292,3.02543,-0.553793,-1.97906,1.7276,3.31264,-12.4356,3.69417,3.05746,33.8853,3.72506,1.9238,13.5356,2.19152,0.766013,-5.55417e-14,-3.53837e-14,-63.1133,26.9014,-109.133,27.5836,-30.0393,25.3565,4.36959,7.12502,49.4883,-17.1177,-5.55417e-14,-3.53837e-14,-63.291,-33.7719,111.906,36.5116,21.4001,24.2146,20.357,7.12502,48.4391,42.3623,-23.2013,-11.5234,28.8711,48.0798,30.6657,-27.9549,16.939,-46.651,4.71943,-35.9779,38.5638,-39.3978,27.2846,18.4184
0.0441441,16.4358,-9.63644,26.3672,-31.6789,0.105861,-16.2499,1.91615,-6.24478,-10.0231,3.16437,-0.544561,-1.94097,1.79864,3.37605,-12.4551,3.73563,3.09642,33.7548,3.78799,1.89126,13.4851,2.21983,0.753722,-6.8677e-14,1.17283e-14,-63.5549,27.3107,-109.634,28.3028,-30.2421,24.9837,4.36386,7.12502,49.1461,-17.2959,-6.8677e-14,1.17283e-14,-64.0242,-34.601,113.04,36.907,21.5503,23.5467,19.9988,7.12502,47.8236,42.2935,-23.3158,-11.0783,28.7904,48.1202,29.0575,-29.3703,21.114,-46.9448,4.8405,-35.9856,38.6462,-39.4783,27.5011,18.2205
0.0406197,16.4387,-9.65156,27.1861,-32.6356,-0.363547,-16.6737,2.14711,-6.34159,-10.105,3.49972,-0.465197,-1.85926,1.97156,3.57564,-12.7529,3.80696,3.15284,33.7515,3.88055,1.85173,13.5525,2.26195,0.74983,-2.39349e-14,3.37934e-15,-64.1427,27.9529,-110.362,29.0629,-30.6775,24.6273,4.0689,7.12502,48.8188,-17.7526,-2.39349e-14,3.37934e-15,-64.1297,-35.0614,113.431,37.1613,21.4305,24.1475,19.9976,7.12502,48.3774,42.0324,-23.9035,-9.95774,28.9133,48.1286,27.9337,-30.451,24.2241,-47.7881,5.18828,-35.8181,38.6663,-39.8578,27.7352,18.5923
0.0401703,16.4417,-9.66115,27.5298,-32.9799,-0.592364,-16.7436,2.21735,-6.32312,-10.076,3.59475,-0.439134,-1.80232,2.01675,3.61019,-13.0071,3.86214,3.30694,33.7132,3.95079,1.73236,13.6005,2.29584,0.692541,4.14528e-14,1.19271e-14,-64.6059,28.4737,-110.978,29.8351,-31.0853,24.6458,3.57247,7.12502,48.8358,-18.2408,4.14528e-14,1.19271e-14,-63.9894,-35.5066,113.535,37.2343,21.4013,25.2225,20.1301,7.12502,49.3654,41.6798,-24.099,-9.51741,29.0279,48.1085,26.9892,-31.2699,26.2972,-48.1194,5.36504,-35.7215,38.7278,-40.253,27.4546,19.3412
0.0474481,16.4415,-9.65288,26.998,-32.4258,-0.363606,-16.2865,2.06151,-6.12809,-9.92319,3.34644,-0.450187,-1.82994,1.88238,3.43914,-12.8537,3.90436,3.29615,33.594,4.02335,1.73062,13.5147,2.32598,0.698422,-1.59991e-14,1.19271e-14,-65.0004,28.8374,-111.474,30.4179,-31.2963,24.6208,3.34279,7.12502,48.8128,-18.4817,-1.59991e-14,1.19271e-14,-64.2973,-35.996,114.106,37.4796,21.754,25.4263,20.5231,7.12502,49.5523,41.9778,-23.5828,-10.221,29.0408,48.0409,26.9537,-31.0031,25.6024,-47.5427,5.1791,-35.7601,38.7317,-40.2133,27.0558,19.6861
0.0471644,16.4474,-9.6578,27.4991,-33.1004,-0.741554,-16.5148,2.34004,-5.99105,-9.99457,3.70312,-0.478752,-1.81287,2.0544,3.38828,-12.6741,3.97063,3.28138,33.5034,4.08815,1.86297,13.4326,2.3706,0.756439,-6.97299e-16,-1.80894e-14,-65.5384,29.2618,-112.32,30.8625,-31.7443,24.1764,3.95094,7.12502,48.404,-18.0712,-6.97299e-16,-1.80894e-14,-65.0698,-36.7591,115.118,37.9006,22.1158,24.9524,20.6542,7.12502,49.1175,42.3282,-23.8918,-9.71094,29.148,47.963,27.5055,-30.6702,24.7899,-47.9365,5.33959,-35.5505,38.6602,-40.6007,27.3153,20.1528
0.0469927,16.4533,-9.65979,27.7687,-33.3873,-0.760542,-16.7439,2.43478,-5.98224,-9.96249,3.8421,-0.585625,-1.66437,2.11488,3.30325,-12.6155,4.03393,3.26586,33.3209,4.12096,2.06713,13.3354,2.41068,0.838645,-1.08022e-13,2.78299e-14,-66.0756,29.8906,-113.366,31.4872,-32.2941,23.7571,3.99339,7.12502,48.0177,-18.2112,-1.08022e-13,2.78299e-14,-65.9502,-37.7979,116.329,38.4348,22.5951,24.4752,20.5898,7.12502,48.6789,42.4795,-24.1293,-9.51441,29.1089,47.8721,27.2378,-31.2633,25.957,-48.1856,5.28778,-35.5498,38.5436,-40.8229,27.4015,20.4229
0.0541659,16.4534,-9.64984,26.9808,-32.6942,-0.183102,-16.1879,2.14532,-6.03539,-9.72578,3.45153,-0.682474,-1.65409,1.91566,3.15859,-12.6465,4.08393,3.33567,33.2262,4.16235,2.10099,13.3033,2.44156,0.844752,5.44994e-14,4.37326e-15,-66.5732,30.5286,-114.218,32.3477,-32.5943,23.7388,3.2928,7.12502,48.0008,-18.9196,5.44994e-14,4.37326e-15,-66.8056,-38.5605,117.378,39.1706,23.0574,23.9993,20.7477,7.12502,48.2409,42.8473,-23.5322,-10.3105,28.8924,47.7815,26.8121,-31.8568,26.5694,-47.4759,5.004,-35.8506,38.4787,-40.3601,27.3655,19.4499
0.0551413,16.4567,-9.65293,27.1569,-32.817,-0.317746,-16.115,2.14151,-5.97414,-9.74385,3.43211,-0.64666,-1.70741,1.90598,3.15525,-12.4998,4.12926,3.42391,33.0848,4.2406,2.01337,13.2165,2.47475,0.799854,-2.64015e-14,1.19271e-15,-67.3198,31.2249,-115.174,33.1872,-32.7959,23.701,2.89697,7.12502,47.9659,-19.3317,-2.64015e-14,1.19271e-15,-67.0522,-38.7114,117.609,39.7646,22.888,24.0135,21.1597,7.12502,48.2539,43.2531,-23.5844,-10.2216,29.0197,47.6884,27.151,-31.6003,25.9902,-47.61,5.17515,-35.8226,38.4565,-40.2267,27.3428,19.3865
0.0494071,16.4654,-9.66507,28.3371,-33.9664,-1.01797,-16.8246,2.51906,-5.93337,-9.93363,3.95093,-0.599987,-1.59691,2.16362,3.28135,-12.3634,4.15281,3.37846,32.8991,4.2881,2.03619,13.1054,2.49331,0.815641,1.25887e-14,-2.88238e-14,-67.9454,31.7427,-115.963,33.8455,-32.7819,23.7217,2.93962,7.12502,47.985,-19.2802,1.25887e-14,-2.88238e-14,-67.2099,-38.9842,117.805,40.2601,22.3673,24.414,21.3241,7.12502,48.6226,43.2411,-24.415,-9.2876,29.2374,47.5916,28.7012,-29.6747,22.4463,-48.7248,5.75655,-35.6514,38.5075,-40.58,27.601,19.8568
0.046926,16.4708,-9.66714,28.591,-34.218,-1.29328,-16.7569,2.60228,-5.88404,-9.96964,4.0467,-0.533638,-1.68191,2.21488,3.33105,-12.306,4.22026,3.31264,32.8202,4.37262,2.14226,13.0546,2.53647,0.877073,-1.58182e-13,-5.68524e-14,-68.6704,32.2511,-116.775,34.5984,-32.7702,23.7879,2.98742,7.12502,48.046,-19.2039,-1.58182e-13,-5.68524e-14,-68.2309,-39.727,119.005,40.9853,22.4482,24.3033,21.3127,7.12502,48.5208,43.2788,-24.4547,-9.18778,29.3978,47.4648,29.8295,-27.9373,18.435,-48.9036,5.7697,-35.3955,38.5748,-40.9277,27.6607,20.2137
0.0477062,16.4744,-9.6673,28.7033,-34.3136,-1.53498,-16.4981,2.67203,-5.71525,-9.97469,4.10111,-0.540748,-1.81124,2.23891,3.22115,-12.4523,4.29298,3.38999,32.8935,4.4188,2.23929,13.1184,2.57873,0.914264,4.29841e-14,4.87022e-14,-69.3117,32.6609,-117.609,35.4086,-32.8968,23.5473,2.98651,7.12502,47.8242,-19.3079,4.29841e-14,4.87022e-14,-69.4574,-40.6208,120.342,41.801,22.794,23.9627,21.3327,7.12502,48.2071,43.4483,-24.3278,-9.10397,29.5649,47.3626,29.4579,-28.2854,19.3741,-48.8985,5.76589,-35.1378,38.5877,-41.124,27.6201,20.5242
0.0473014,16.4765,-9.6671,28.6321,-34.6378,-1.54466,-16.3389,2.72864,-5.787,-9.84331,4.18387,-0.620171,-1.75938,2.27824,3.18408,-12.6455,4.4292,3.53759,32.7984,4.5536,2.29592,13.1247,2.66359,0.934529,8.80243e-15,-3.18055e-15,-69.8856,33.4046,-118.716,36.0073,-33.3334,23.7766,2.97697,7.12502,48.0356,-19.2192,8.80243e-15,-3.18055e-15,-70.0693,-41.3942,121.008,42.5853,23.2227,23.821,21.4128,7.12502,48.0766,43.5898,-24.1427,-8.86581,29.4187,47.2762,28.111,-29.3893,22.2849,-48.7605,5.70344,-35.0813,38.4803,-41.472,27.7041,20.8878
0.0463864,16.4819,-9.6673,28.5695,-35.0515,-1.41705,-16.2815,2.77563,-6.042,-9.75665,4.28075,-0.700891,-1.72176,2.33338,3.25326,-12.7897,4.54589,3.7655,32.7821,4.6963,2.17814,13.1624,2.73851,0.875411,4.17572e-14,7.49418e-14,-70.7099,34.2182,-119.968,36.636,-33.7951,24.3364,2.7418,7.12502,48.5512,-19.2097,4.17572e-14,7.49418e-14,-70.8375,-42.1457,121.827,43.4646,23.773,23.2146,21.3047,7.12502,47.5171,43.7397,-24.1484,-8.88722,29.1566,47.2208,28.2728,-28.8525,21.2551,-48.6602,5.42609,-35.0716,38.3466,-42.2086,27.7042,21.5271
0.0461474,16.4873,-9.66383,28.6339,-35.3377,-1.3231,-16.3301,2.76071,-6.20939,-9.75356,4.28502,-0.718962,-1.70782,2.3412,3.3308,-12.7914,4.65254,3.89983,32.7903,4.86474,2.03043,13.1775,2.80886,0.82078,8.46698e-14,3.47873e-14,-71.4811,34.827,-120.887,37.4346,-34.0028,24.4994,1.94951,7.12502,48.7012,-19.9294,8.46698e-14,3.47873e-14,-71.7956,-42.6372,122.82,44.2611,23.9979,22.685,21.1025,7.12502,47.0277,43.7565,-24.2398,-8.85671,28.9816,47.1596,28.3151,-28.7339,20.8586,-48.6953,5.0903,-35.0104,38.2435,-42.7684,27.8416,22.0096
0.0446709,16.4908,-9.65502,28.7473,-35.5295,-1.43747,-16.4331,2.80356,-6.06735,-9.68518,4.33242,-0.748502,-1.56896,2.35203,3.23673,-12.6588,4.71267,3.92109,32.5473,4.96211,2.01128,13.0477,2.85181,0.814385,-5.63927e-14,-2.34566e-14,-71.9262,35.3109,-121.475,38.3297,-34.2132,24.5512,0.681931,7.12502,48.7488,-21.1738,-5.63927e-14,-2.34566e-14,-72.8983,-43.3887,124.02,45.0775,24.4258,22.3696,21.0413,7.12502,46.7358,43.8231,-24.1,-8.49625,28.9397,47.0513,26.4629,-30.3519,24.596,-48.6924,4.7765,-34.7319,38.2068,-43.2256,28.0761,22.5836
0.0437302,16.4914,-9.64948,28.9054,-35.6874,-1.60358,-16.3663,2.86175,-5.9678,-9.70433,4.39035,-0.784152,-1.61769,2.37744,3.14649,-12.5877,4.71337,3.96296,32.3725,4.94165,2.05564,12.9588,2.85364,0.814957,-2.68732e-14,-1.35174e-14,-72.3446,35.5435,-121.929,39.0902,-34.2195,24.548,1.18221,7.12502,48.7459,-20.6749,-2.68732e-14,-1.35174e-14,-73.9893,-44.1162,125.056,45.9664,25.0372,22.2273,21.1374,7.12502,46.604,43.9761,-23.9864,-8.25763,29.0129,46.8908,26.0143,-31.0137,25.854,-48.7866,4.78942,-34.5864,38.2591,-43.4583,28.1296,22.8358
0.042389,16.493,-9.64529,29.0621,-35.8844,-1.6955,-16.2254,2.8809,-6.07411,-9.78306,4.41557,-0.770664,-1.79033,2.40163,3.20999,-12.5976,4.71752,3.94091,32.333,4.91931,2.15597,12.9403,2.85397,0.85331,-1.91454e-14,-9.14409e-15,-72.9637,35.8558,-122.617,39.587,-34.3129,24.6688,1.19493,7.12502,48.8569,-20.6079,-1.91454e-14,-9.14409e-15,-74.8699,-44.5332,125.809,46.8485,25.5143,22.0231,21.3515,7.12502,46.4149,44.2713,-23.9125,-8.17999,29.0209,46.6945,26.6427,-30.7145,24.8932,-48.9383,4.90782,-34.5898,38.3502,-43.6489,27.9848,23.2128
0.0391618,16.4957,-9.63727,29.351,-36.0375,-1.90795,-16.3727,2.87026,-5.99431,-9.76327,4.39967,-0.700701,-1.68921,2.38826,3.24769,-12.4849,4.77996,3.8114,32.1612,5.02521,2.23594,12.8368,2.89519,0.913571,-9.07141e-14,2.22639e-14,-73.6559,36.524,-123.51,40.153,-34.7613,24.7568,0.614919,7.12502,48.9378,-21.1482,-9.07141e-14,2.22639e-14,-75.3634,-44.7983,126.215,47.6555,25.5056,22.2667,21.413,7.12502,46.6405,44.2359,-23.8462,-8.10168,29.1052,46.4937,26.1449,-30.904,25.7634,-49.1327,5.09249,-34.5266,38.4076,-43.746,27.8172,23.3191
0.0360306,16.4964,-9.62849,29.5651,-36.0897,-2.16001,-16.4989,2.83508,-5.72004,-9.68513,4.32727,-0.676752,-1.50789,2.33328,3.12308,-12.3952,4.93578,3.96006,32.0298,5.24309,2.15728,12.7734,2.99817,0.884029,-4.46706e-14,9.54166e-15,-74.1396,37.1512,-124.365,40.7184,-35.1441,24.6693,0.437848,7.12502,48.8574,-21.3648,-4.46706e-14,9.54166e-15,-75.6793,-45.1786,126.307,48.5461,26.0026,22.9446,21.9654,7.12502,47.2676,44.5128,-23.7543,-8.24788,29.2805,46.3375,26.0134,-30.4908,25.328,-49.1396,5.00817,-34.2506,38.3839,-44.0934,27.6839,23.4759
0.0315202,16.4997,-9.63246,29.6157,-36.3682,-2.15416,-16.4399,2.84101,-5.82624,-9.64887,4.34767,-0.766641,-1.50341,2.34439,3.08817,-12.3645,5.10062,4.1557,31.9583,5.43786,2.14419,12.7483,3.10537,0.871864,1.46827e-13,3.29983e-14,-74.5783,37.6501,-125.23,41.1891,-35.561,24.853,0.654178,7.12502,49.0262,-21.0653,1.46827e-13,3.29983e-14,-75.7525,-45.6466,126.053,49.5429,27.1678,24.1715,23.3866,7.12502,48.3994,45.4108,-23.7846,-8.21297,29.2367,46.211,26.8042,-29.6945,23.1533,-49.1268,4.46443,-33.95,38.3404,-44.899,27.8822,24.1769
0.0229608,16.5065,-9.63784,29.7141,-36.8814,-1.9902,-16.4428,2.87429,-6.30882,-9.72168,4.45049,-0.843382,-1.63065,2.41893,3.28494,-12.1041,5.17064,3.90022,31.8322,5.50886,2.48555,12.6185,3.15077,1.04282,2.86374e-14,1.82882e-14,-74.9611,37.9147,-125.733,41.5923,-35.6706,25.0707,0.537068,7.12502,49.226,-21.0828,2.86374e-14,1.82882e-14,-75.9686,-45.884,126.037,50.2491,27.7604,25.0614,24.0713,7.12502,49.2176,45.6953,-23.9912,-7.88522,28.989,46.114,27.589,-28.9787,21.1137,-49.2834,4.14476,-33.9392,38.2838,-45.4966,28.0824,24.7066
0.0127683,16.5096,-9.62942,30.079,-37.2042,-2.18258,-16.5711,2.93597,-6.46008,-9.79869,4.55403,-0.804063,-1.67718,2.48108,3.42797,-12.2311,5.16576,3.61789,31.9511,5.48621,2.73737,12.6734,3.13937,1.19026,1.71452e-15,2.06736e-14,-75.1976,38.039,-125.87,42.0749,-35.5205,24.9907,0.198108,7.12502,49.1526,-21.4584,1.71452e-15,2.06736e-14,-76.5165,-46.0821,126.468,50.755,27.5921,24.6337,23.6426,7.12502,48.8246,45.4613,-24.1456,-7.64468,29.0652,45.9927,28.6793,-27.3375,17.099,-49.5106,4.26244,-33.8562,38.2471,-45.6491,28.1247,24.9929
0.00523326,16.511,-9.61662,30.3486,-37.3487,-2.33713,-16.645,2.92898,-6.5306,-9.86622,4.55339,-0.722507,-1.72687,2.48877,3.55437,-12.4149,5.202,3.43447,32.1161,5.53467,2.86814,12.7683,3.15525,1.28915,-4.5969e-14,1.98785e-14,-75.7137,38.3482,-126.287,42.4818,-35.5428,24.9096,-0.423322,7.12502,49.0781,-22.117,-4.5969e-14,1.98785e-14,-76.9407,-46.1561,126.844,51.1917,27.3286,24.0485,22.9255,7.12502,48.2862,45.0036,-24.1514,-7.45732,29.1351,45.8413,28.8506,-26.6602,15.6994,-49.654,4.25824,-33.7452,38.2691,-45.8307,28.1934,24.8621
0.000815049,16.5115,-9.60903,30.4139,-37.504,-2.2605,-16.6303,2.90884,-6.70415,-9.91755,4.54522,-0.769976,-1.8026,2.49387,3.59596,-12.495,5.26878,3.46363,32.1264,5.59407,2.95053,12.7883,3.19555,1.32756,-3.57688e-14,6.24184e-14,-76.2281,38.6331,-126.849,42.7679,-35.6302,25.0257,-0.57821,7.12502,49.1847,-22.2187,-3.57688e-14,6.24184e-14,-77.333,-46.3273,126.975,51.7716,27.3581,24.1925,22.7091,7.12502,48.4188,44.7241,-24.0766,-7.08333,29.0001,45.7099,27.4418,-28.0686,18.9818,-49.7481,4.10089,-33.7571,38.338,-46.0416,28.2855,24.919
-0.00656184,16.51,-9.60581,30.563,-37.6749,-2.49645,-16.5109,2.97813,-6.66343,-9.92832,4.62223,-0.802112,-1.8778,2.53267,3.54072,-12.6365,5.33015,3.60292,32.0963,5.6235,3.00463,12.8108,3.23227,1.33349,3.0178e-14,-2.78299e-14,-76.4126,38.8073,-127.267,42.7898,-35.5209,24.9408,0.238849,7.12502,49.1068,-21.4405,3.0178e-14,-2.78299e-14,-77.9488,-46.7468,127.307,52.3634,27.518,24.9577,22.7787,7.12502,49.1223,44.4504,-23.8764,-6.59142,29.1035,45.5503,25.9051,-29.5493,22.3635,-49.8267,4.52241,-33.7275,38.4036,-45.7414,28.2986,24.4854
-0.0135623,16.5035,-9.60197,30.4897,-37.9217,-2.56082,-16.3132,3.02138,-6.77592,-9.9141,4.68121,-0.853105,-1.97857,2.56919,3.54363,-12.6528,5.37878,3.77951,32.0163,5.65324,2.98609,12.7901,3.26392,1.29938,3.10725e-14,-4.37326e-15,-76.4974,38.9491,-127.582,42.7914,-35.4817,24.8009,0.390856,7.12502,48.9783,-21.3523,3.10725e-14,-4.37326e-15,-78.7207,-47.1745,127.834,52.96,27.7831,25.4971,22.7683,7.12502,49.6171,44.1898,-23.6106,-6.20696,29.0292,45.446,25.0921,-30.0991,23.7549,-49.8654,5.92959,-34.3927,38.4836,-44.5913,27.7625,23.9808
-0.0215681,16.509,-9.59396,30.4462,-38.0299,-2.61678,-16.1362,3.01365,-6.84149,-9.92062,4.66637,-0.89397,-2.07912,2.56696,3.5226,-12.5237,5.43295,3.96072,31.8478,5.69159,2.98577,12.7015,3.30216,1.26467,-5.6927e-14,5.725e-14,-76.4347,39.0495,-127.715,42.7473,-35.3221,24.9693,0.0509098,7.12502,49.133,-21.6154,-5.6927e-14,5.725e-14,-79.3511,-47.496,128.178,53.5068,28.1007,25.2876,22.542,7.12502,49.425,44.0615,-23.3259,-5.80426,29.0163,45.2471,25.0092,-30.0371,22.8425,-49.664,5.02214,-33.8143,38.5383,-45.7449,28.0921,24.9979
-0.0300394,16.5065,-9.58036,30.6044,-38.0742,-2.74366,-16.1733,3.01731,-6.78712,-9.99244,4.66095,-0.930296,-2.12839,2.56276,3.45279,-12.3775,5.50858,3.91505,31.8565,5.74916,3.20336,12.6649,3.35003,1.35828,-4.84165e-14,-2.26615e-14,-76.3207,38.9437,-127.63,42.6694,-35.0628,25.1822,0.0699574,7.12502,49.3284,-21.4984,-4.84165e-14,-2.26615e-14,-79.802,-47.668,128.253,54.0282,28.3789,24.7835,22.2611,7.12502,48.9623,44.0121,-23.1762,-5.47642,29.0757,45.0388,24.7374,-30.2378,22.4996,-49.858,6.28197,-34.3865,38.612,-44.5708,27.548,24.2186
-0.0430386,16.5095,-9.56351,30.7613,-38.1436,-2.86697,-16.268,3.01069,-6.77569,-10.0776,4.65011,-0.933312,-2.16925,2.55861,3.4443,-12.1311,5.58287,3.75078,31.9151,5.81255,3.50226,12.6188,3.39658,1.50079,-2.96935e-14,-5.28767e-14,-76.2972,38.7757,-127.558,42.5141,-34.8242,25.5564,0.0113544,7.12502,49.6715,-21.3822,-2.96935e-14,-5.28767e-14,-79.555,-47.4862,127.601,54.3123,28.3559,25.0089,21.9683,7.12502,49.1693,43.6165,-22.9521,-5.18113,29.0884,44.7381,24.4965,-30.2881,22.4124,-49.7638,5.71493,-33.9627,38.6191,-45.3777,27.5292,24.9706
-0.0550281,16.5079,-9.55179,30.9247,-38.1369,-2.98807,-16.3991,2.96773,-6.8097,-10.0933,4.60515,-0.913072,-2.11866,2.53634,3.48709,-11.9644,5.62134,3.65795,31.8712,5.84433,3.6739,12.5548,3.4212,1.57772,-4.33723e-14,1.98785e-15,-76.0492,38.7268,-127.359,42.2464,-34.5637,26.1162,-0.573644,7.12502,50.1839,-21.6993,-4.33723e-14,1.98785e-15,-78.9414,-47.2978,126.598,54.5473,28.4011,25.9355,22.0554,7.12502,50.0187,43.2683,-22.752,-4.83483,29.1271,44.4273,24.3746,-30.1873,21.9223,-49.8248,5.95255,-33.9534,38.6438,-45.2698,27.172,25.2089
-0.0678997,16.509,-9.54438,31.0919,-38.1284,-3.04646,-16.4433,2.9468,-6.94853,-10.1843,4.59226,-0.923596,-2.20696,2.5404,3.5496,-12.0196,5.65499,3.59548,32.0695,5.83019,3.89718,12.6379,3.43601,1.68015,9.37891e-14,2.38542e-14,-75.873,38.5748,-127.247,41.8639,-34.4086,26.2893,-0.874762,7.12502,50.3422,-21.916,9.37891e-14,2.38542e-14,-79.0132,-47.2687,126.377,54.7624,28.9148,25.7608,22.0558,7.12502,49.8588,43.3524,-22.5908,-4.37865,29.1064,44.0894,23.8105,-30.6334,22.559,-49.9184,6.02631,-33.9158,38.6204,-45.0097,27.0703,25.5583
-0.0801809,16.5137,-9.53185,31.1776,-38.1138,-3.02328,-16.3152,2.87432,-7.22207,-10.368,4.50937,-0.852527,-2.50006,2.52783,3.74803,-12.0897,5.72807,3.61229,32.3111,5.90191,3.96684,12.7515,3.4787,1.72603,8.44338e-14,5.56597e-15,-75.8791,38.3391,-127.024,41.4365,-34.1683,26.5425,-0.672353,7.12502,50.5735,-21.5887,8.44338e-14,5.56597e-15,-79.0065,-46.9914,126.179,54.8877,29.5179,25.5414,22.079,7.12502,49.6577,43.4796,-22.3839,-4.14952,28.9747,43.7633,24.5289,-30.1519,20.6693,-49.906,5.81809,-33.8338,38.5926,-45.0107,27.2274,25.3819
-0.0927544,16.5172,-9.51263,31.3623,-38.0582,-3.11856,-16.2762,2.80205,-7.42799,-10.5442,4.42471,-0.722513,-2.73684,2.51201,3.97812,-12.1291,5.77743,3.69761,32.4691,5.97047,3.89637,12.8326,3.51012,1.7025,-3.11719e-14,3.1408e-14,-75.606,37.9145,-126.33,40.885,-33.6118,26.987,-0.31926,7.12502,50.9789,-21.0124,-3.11719e-14,3.1408e-14,-78.5927,-46.5974,125.673,54.8392,29.9141,25.7798,22.2155,7.12502,49.8761,43.5031,-22.1525,-3.88432,28.8784,43.45,24.9056,-29.8962,19.6749,-49.8916,5.57501,-33.6284,38.5662,-45.2774,27.1131,25.7655
-0.104304,16.5173,-9.4924,31.5134,-37.9233,-3.19499,-16.391,2.76628,-7.55627,-10.6216,4.39783,-0.645884,-2.77924,2.51123,4.13082,-12.1554,5.77378,3.79201,32.5759,5.95644,3.83972,12.8903,3.50824,1.66842,2.69602e-15,3.89618e-14,-75.034,37.3969,-125.436,40.2591,-33.2233,26.8181,-0.00662986,7.12502,50.825,-20.7852,2.69602e-15,3.89618e-14,-77.9527,-46.2557,124.93,54.7518,30.0646,26.0169,22.3905,7.12502,50.0931,43.5642,-21.917,-3.4904,28.7625,43.196,23.8602,-30.4322,21.6816,-49.8521,5.19739,-33.335,38.5444,-45.6529,26.9043,26.3309
-0.117667,16.5143,-9.48602,31.4748,-37.8567,-3.33106,-16.3286,2.77291,-7.66943,-10.5686,4.42132,-0.613771,-2.77126,2.52979,4.2284,-12.3512,5.74184,3.9138,32.7116,5.84947,3.88528,12.9949,3.48191,1.6633,4.02663e-14,-1.03368e-14,-74.1556,36.9362,-124.431,39.7866,-33.1116,26.4645,-0.0357958,7.12502,50.5022,-20.9908,4.02663e-14,-1.03368e-14,-77.0554,-46.0563,123.812,54.6495,30.3594,26.4074,22.7122,7.12502,50.4501,43.6953,-21.4686,-2.76026,28.715,42.9268,22.5817,-30.6075,23.3539,-49.6766,5.18641,-33.096,38.5339,-45.7797,26.4461,27.2865
-0.130339,16.5094,-9.48163,31.378,-37.884,-3.22853,-16.3184,2.72403,-8.03285,-10.5374,4.4049,-0.646492,-2.77538,2.53916,4.3937,-12.701,5.73648,4.13714,32.9823,5.73617,3.94414,13.196,3.46715,1.65678,-6.21202e-16,-3.97569e-14,-73.2043,36.4795,-123.423,39.1888,-32.8226,26.484,0.0832522,7.12502,50.52,-20.8621,-6.21202e-16,-3.97569e-14,-76.1444,-45.9151,122.65,54.6125,31.0821,27.1071,23.2758,7.12502,51.0883,43.9078,-21.1114,-1.84281,28.4327,42.6403,21.3298,-30.7562,24.3873,-49.6789,5.8688,-33.5065,38.546,-45.0603,25.8964,27.3119
-0.144966,16.5107,-9.45699,31.4,-37.8486,-3.25266,-16.4038,2.7082,-8.26557,-10.5878,4.41762,-0.601159,-2.81734,2.56252,4.57507,-12.7332,5.69451,4.18563,33.202,5.62351,4.03272,13.2976,3.43562,1.67622,1.13034e-13,3.45885e-14,-72.4755,35.9237,-122.435,38.3721,-32.5251,26.9365,0.708576,7.12502,50.9329,-20.0102,1.13034e-13,3.45885e-14,-75.2841,-45.5383,121.583,54.444,31.4966,27.5096,23.8398,7.12502,51.4546,44.2639,-20.6629,-1.1233,28.1468,42.2497,21.4813,-30.4416,22.9379,-49.5652,5.8257,-33.4426,38.5543,-45.1156,25.8457,27.0783
-0.157431,16.5133,-9.42704,31.5677,-37.5859,-3.53316,-16.506,2.70326,-8.13661,-10.6407,4.40039,-0.508021,-2.81492,2.55208,4.60485,-12.5303,5.67147,4.12811,33.2887,5.55871,4.1945,13.283,3.42131,1.73444,-1.42007e-14,-3.69739e-14,-71.6464,35.232,-121.253,37.5502,-32.2719,27.4484,1.02328,7.12502,51.399,-19.4327,-1.42007e-14,-3.69739e-14,-74.2113,-44.9263,120.194,54.1174,31.2512,27.8969,24.1179,7.12502,51.8066,44.3377,-20.1708,-0.453946,28.134,41.7842,22.0945,-29.8231,20.4415,-49.4343,5.56004,-32.9992,38.5715,-45.2826,25.8827,26.8848
-0.166464,16.5146,-9.40636,31.7788,-37.2561,-3.73872,-16.7253,2.69174,-7.99588,-10.5486,4.39353,-0.523201,-2.58195,2.53006,4.52902,-12.885,5.62262,4.27798,33.3796,5.40687,4.24481,13.4068,3.38125,1.72435,-9.85972e-14,2.50469e-14,-70.1635,34.4602,-119.629,36.7497,-31.9282,27.7997,0.471027,7.12502,51.7184,-19.8004,-9.85972e-14,2.50469e-14,-72.594,-44.4801,118.304,53.6596,30.9451,28.7875,24.5709,7.12502,52.6136,44.3049,-19.7839,0.137235,28.0921,41.2344,21.8024,-29.4466,21.3794,-49.4186,4.99965,-32.4844,38.5747,-45.5245,26.103,27.0513
-0.17499,16.5188,-9.38262,31.9915,-37.0076,-3.95316,-17.003,2.7329,-7.85734,-10.49,4.45755,-0.554705,-2.36445,2.54475,4.44788,-13.0353,5.4952,4.4856,33.3449,5.16183,4.21962,13.4373,3.29729,1.64752,4.57453e-14,-1.63003e-14,-68.7185,33.4407,-117.893,35.911,-31.3049,27.9261,0.0888731,7.12502,51.8331,-20.1154,4.57453e-14,-1.63003e-14,-71.1067,-43.9473,116.536,53.376,30.76,29.6604,25.2875,7.12502,53.4013,44.5224,-19.3851,0.526196,27.9494,40.6066,22.0568,-28.4889,22.0737,-49.3991,4.32925,-31.908,38.6265,-46.0784,26.201,27.6066
-0.185276,16.5229,-9.35373,32.1065,-36.6075,-4.19379,-17.0182,2.74226,-7.64432,-10.6676,4.43079,-0.462464,-2.53464,2.53462,4.41688,-12.5097,5.34772,4.2707,33.3009,4.9442,4.48757,13.2866,3.20942,1.73368,2.42393e-14,-1.03368e-14,-67.8402,32.1029,-116.138,34.9595,-30.4986,28.501,0.318591,7.12502,52.3544,-19.5742,2.42393e-14,-1.03368e-14,-70.1713,-43.0014,115.316,52.8065,30.0236,30.1752,25.2223,7.12502,53.8644,44.1516,-18.8166,0.615003,27.86,39.9479,22.314,-27.2908,21.9072,-49.239,3.76638,-31.3438,38.6869,-46.5191,26.2244,27.7926
-0.194618,16.5207,-9.31934,32.2371,-36.0237,-4.57173,-16.9616,2.70636,-7.25238,-10.884,4.31356,-0.245482,-2.76611,2.47662,4.40161,-12.0852,5.30216,4.1345,33.4365,4.88874,4.62057,13.243,3.18508,1.78956,-4.14777e-14,-3.97569e-14,-67.1951,30.8887,-114.506,33.8665,-29.8963,29.0613,0.737789,7.12502,52.861,-18.8422,-4.14777e-14,-3.97569e-14,-69.0784,-41.7319,113.957,52.0519,28.9177,31.107,24.9532,7.12502,54.6994,43.3072,-18.0818,0.510374,27.884,39.2769,20.7988,-27.4085,26.5532,-49.0117,3.29647,-30.688,38.7371,-46.8376,26.1635,28.1279
-0.206145,16.5204,-9.28989,32.2619,-35.7327,-4.74331,-17.0945,2.71422,-7.23039,-10.8803,4.33272,-0.130065,-2.70416,2.48816,4.52301,-12.1647,5.24309,4.23186,33.5844,4.79162,4.551,13.3317,3.14745,1.74101,2.37299e-14,-7.11649e-14,-65.9845,29.6695,-112.562,32.6777,-29.1703,29.2953,1.23274,7.12502,53.0723,-18.2137,2.37299e-14,-7.11649e-14,-67.4343,-40.5616,112.164,51.2769,27.819,32.3417,25.2878,7.12502,55.7991,42.8322,-17.446,0.791899,27.5967,38.6904,19.1232,-27.5334,31.0321,-48.8073,3.03879,-30.3657,38.7598,-46.9071,26.2236,28.2645
-0.209863,16.5187,-9.27146,31.6774,-35.1834,-4.41973,-16.6616,2.57967,-7.47254,-10.8599,4.16163,-0.0926037,-2.91081,2.42579,4.65006,-12.0623,5.12162,4.21668,33.6559,4.60605,4.59322,13.3401,3.07034,1.73191,2.39116e-14,-3.57812e-15,-64.8342,28.3354,-110.606,31.5702,-28.3851,29.518,1.49219,7.12502,53.2731,-17.8257,2.39116e-14,-3.57812e-15,-66.1704,-39.3756,110.738,50.2912,26.5208,32.7688,24.9109,7.12502,56.1775,42.1622,-16.5882,1.1995,27.1351,38.1815,16.9278,-27.2197,33.0339,-48.2449,2.47107,-30.2701,38.7465,-46.8478,26.0061,29.0225
-0.212842,16.5208,-9.25206,31.77,-35.1134,-4.4626,-16.7252,2.60024,-7.5624,-10.9882,4.19732,-0.0512715,-3.03748,2.45817,4.74641,-11.8536,5.00703,4.17735,33.7489,4.44834,4.61506,13.3339,2.99889,1.72003,1.73349e-14,1.55052e-14,-63.7763,26.9664,-108.71,30.4069,-27.6349,29.6861,1.2076,7.12502,53.4245,-18.0122,1.73349e-14,1.55052e-14,-65.103,-38.1932,109.488,49.271,25.7173,32.5236,24.5819,7.12502,55.9603,42.0023,-16.3517,1.82056,26.6381,37.7832,16.046,-25.8234,31.897,-48.2168,2.14881,-30.0963,38.7318,-47.0886,25.9373,29.6551
-0.217158,16.5186,-9.22207,31.9631,-34.734,-4.66063,-17.0413,2.60234,-7.3673,-11.0061,4.19797,0.0165122,-2.87967,2.44517,4.72947,-11.8199,4.90904,4.30802,33.8501,4.29975,4.5212,13.38,2.93889,1.64229,6.55252e-14,-5.56597e-15,-62.4445,25.3797,-106.492,29.1599,-26.3847,29.866,1.18866,7.12502,53.5864,-17.9252,6.55252e-14,-5.56597e-15,-63.5282,-36.916,107.765,48.1668,25.0939,32.5692,25.0444,7.12502,56.0007,42.4336,-16.0297,2.16401,26.3718,37.4093,13.6183,-25.0268,31.3784,-48.1941,1.94052,-29.7755,38.7513,-47.2682,25.4202,30.4052
-0.220032,16.5194,-9.19166,32.1541,-34.2704,-4.97847,-17.2435,2.63603,-7.08249,-11.0664,4.21687,0.159274,-2.82838,2.44493,4.73532,-11.6851,4.79268,4.34638,33.9395,4.15093,4.44273,13.394,2.86927,1.58209,-3.245e-14,-3.10104e-14,-61.0986,23.3712,-103.702,28.0453,-24.3214,30.1643,1.74177,7.12502,53.8546,-17.1941,-3.245e-14,-3.10104e-14,-61.7912,-35.0301,105.732,46.7762,23.5542,32.5604,24.6426,7.12502,55.993,42.0378,-15.6363,2.48135,26.2076,37.0449,10.4087,-24.0445,33.3669,-48.1203,1.59855,-29.2673,38.8111,-47.4988,25.2329,30.9151
-0.222731,16.5229,-9.16362,32.2898,-33.842,-5.34055,-17.3915,2.68167,-6.72828,-11.1061,4.23803,0.318096,-2.7774,2.44211,4.71726,-11.4941,4.6885,4.29086,34.0505,4.02174,4.43719,13.3991,2.80549,1.56821,1.23153e-14,1.07344e-14,-59.8419,21.2036,-100.773,26.9313,-22.0033,30.1203,0.697366,7.12502,53.815,-18.2649,1.23153e-14,1.07344e-14,-60.1192,-32.8183,103.572,45.4181,21.7918,32.5063,24.4122,7.12502,55.945,41.8445,-15.2269,3.04428,26.0398,36.742,7.87735,-23.2289,36.2582,-47.9554,1.23281,-28.6929,38.847,-47.802,25.0892,31.5327
-0.222306,16.5248,-9.13015,31.9043,-33.1248,-5.40793,-17.254,2.65938,-6.34954,-11.0008,4.15859,0.383747,-2.68963,2.38048,4.56148,-11.2664,4.54221,4.21435,34.0361,3.82079,4.4947,13.3398,2.71478,1.56668,-1.79714e-14,-2.42517e-14,-58.4227,18.7371,-97.6577,25.5547,-19.5868,30.3118,0.742854,7.12502,53.9871,-18.1039,-1.79714e-14,-2.42517e-14,-58.5462,-30.7412,101.45,44.208,20.5008,32.5846,24.9907,7.12502,56.0144,42.3693,-14.4904,3.31779,25.7953,36.5996,6.52049,-23.8218,36.9742,-47.3263,0.705025,-28.2747,38.7677,-47.8434,25.0597,31.6666
-0.224394,16.5395,-9.10675,32.0432,-32.9908,-5.74162,-17.2971,2.78225,-6.2082,-11.0288,4.3041,0.484578,-2.71229,2.45263,4.60954,-11.1432,4.39135,4.24847,34.0203,3.60155,4.4837,13.3093,2.62168,1.52061,1.42131e-14,-4.09496e-14,-56.8772,15.9568,-94.2486,23.908,-17.0561,30.445,0.953316,7.12502,54.1066,-17.8124,1.42131e-14,-4.09496e-14,-56.8632,-28.7193,99.4828,42.6099,19.2291,32.4426,25.1767,7.12502,55.8885,42.6525,-14.4583,3.90733,25.4099,36.636,7.71414,-24.917,33.7351,-47.1102,0.311217,-27.7499,38.6014,-48.1311,25.4714,31.5064
-0.226173,16.5588,-9.07898,32.2223,-33.1345,-5.98298,-17.3475,2.95549,-6.3326,-11.1574,4.5467,0.571665,-2.88137,2.59475,4.79924,-11.1027,4.24503,4.37844,34.1906,3.36485,4.43519,13.3826,2.53066,1.45032,1.55425e-14,2.06736e-14,-55.5009,12.8768,-90.6101,22.1419,-14.2665,30.3385,1.13899,7.12502,54.011,-17.6916,1.55425e-14,2.06736e-14,-55.3516,-26.3557,97.4822,40.8721,17.3311,32.2165,24.4598,7.12502,55.6878,42.0889,-14.6566,4.48677,24.7186,36.7838,7.11641,-25.8992,37.1434,-46.932,0.203953,-27.5076,38.3476,-48.3502,25.814,31.1809
-0.225006,16.572,-9.04114,32.3095,-32.9854,-6.23035,-17.5204,3.08382,-6.16817,-11.1784,4.70314,0.635538,-2.82541,2.66656,4.80602,-10.9992,4.12817,4.48593,34.2292,3.18227,4.4019,13.3827,2.46112,1.39107,6.00702e-15,-5.56597e-15,-54.2346,9.45848,-86.8034,20.3717,-10.9676,29.8078,1.54308,7.12502,53.5341,-17.6051,6.00702e-15,-5.56597e-15,-53.9316,-23.4658,95.1006,39.2859,14.8677,31.5095,23.2061,7.12502,55.0587,41.3022,-14.6572,5.05241,24.1536,37.0121,6.51165,-28.2652,38.8892,-46.7086,0.970802,-27.6609,38.1088,-47.4554,25.7207,30.4182
-0.222706,16.5923,-9.00348,32.3869,-32.5806,-6.45656,-17.7818,3.13523,-5.83602,-11.1665,4.73987,0.696786,-2.65343,2.66373,4.70995,-10.7493,4.02622,4.53335,34.2003,3.03026,4.42232,13.3178,2.40208,1.36123,-5.15908e-14,3.65764e-14,-53.3153,5.87308,-82.9062,18.8912,-7.25623,29.1047,2.25235,7.12502,52.9002,-17.303,-5.15908e-14,3.65764e-14,-52.5892,-20.4619,92.6824,37.5563,12.5124,30.7772,22.2442,7.12502,54.4043,40.8051,-14.5916,5.41002,23.6871,37.2172,5.5388,-29.8316,41.5171,-46.4169,0.568409,-27.2482,37.8567,-47.4176,26.0386,29.9386
-0.217362,16.6067,-8.97373,32.4289,-32.0474,-6.68282,-17.8525,3.16297,-5.54547,-11.238,4.73774,0.855302,-2.68121,2.65622,4.71794,-10.4969,3.87758,4.45468,34.3269,2.8608,4.36906,13.3163,2.31161,1.32691,-9.56341e-14,-6.16232e-14,-52.7992,2.16732,-78.6433,17.5844,-3.24996,28.3737,2.59036,7.12502,52.2391,-17.3722,-9.56341e-14,-6.16232e-14,-51.3213,-17.1208,90.2925,35.5735,10.1652,30.7653,22.1298,7.12502,54.3936,40.6981,-14.5563,5.31103,23.2733,37.3794,5.55305,-30.7361,42.6682,-46.2113,1.05344,-27.1502,37.6919,-46.8134,25.3196,29.6442
-0.210492,16.6178,-8.94458,32.663,-31.6137,-7.13004,-17.9793,3.30426,-5.15114,-11.3228,4.87188,1.02993,-2.70299,2.71257,4.7065,-10.4007,3.67783,4.35735,34.4684,2.59335,4.36616,13.355,2.1841,1.30676,1.51076e-14,9.14409e-15,-52.3423,-2.80282,-73.087,15.8634,2.38145,27.6945,3.00469,7.12502,51.6228,-17.3224,1.51076e-14,9.14409e-15,-50.1824,-13.3784,87.6685,33.6722,7.43736,30.1635,22.301,7.12502,53.8539,41.2373,-14.6059,5.06314,22.9563,37.4216,7.52799,-32.2324,39.7353,-46.007,0.3346,-26.295,37.5488,-47.7724,24.6413,31.6608
-0.204015,16.6258,-8.90517,32.9503,-31.4421,-7.68525,-18.3135,3.51185,-4.67588,-11.2821,5.08994,1.18789,-2.4799,2.7961,4.66576,-10.3466,3.53736,4.42686,34.4803,2.43289,4.19334,13.353,2.1016,1.2031,-5.14666e-14,-6.52014e-14,-52.2765,-8.47355,-66.6857,14.1757,9.03822,26.8799,4.15464,7.12502,50.8812,-16.5928,-5.14666e-14,-6.52014e-14,-49.0384,-9.10429,84.5844,31.6502,4.48605,29.234,21.5949,7.12502,53.017,41.0765,-14.6418,4.84727,22.5109,37.4499,10.5983,-33.8462,35.3375,-45.8059,0.703692,-26.1043,37.4172,-47.168,25.3538,31.0725
-0.194524,16.6315,-8.8457,33.1858,-31.1756,-8.17513,-18.8027,3.70586,-4.12712,-11.2082,5.27825,1.35869,-2.13109,2.8576,4.60985,-10.5442,3.41351,4.44057,34.7428,2.25068,4.11723,13.5139,2.02018,1.15758,5.1566e-14,9.93923e-15,-52.9752,-13.2795,-60.7951,13.2214,14.4714,25.8961,4.74737,7.12502,49.9825,-16.4845,5.1566e-14,9.93923e-15,-48.1209,-4.61817,81.4685,29.3775,1.89687,28.1172,20.5293,7.12502,52.0065,40.6311,-14.4458,4.88418,21.9818,37.4053,9.00612,-36.2331,38.1386,-45.452,-0.222238,-25.357,37.2697,-48.0467,25.8105,30.8233
-0.185448,16.6422,-8.81649,33.0518,-30.6803,-8.34378,-18.7217,3.77761,-3.94468,-11.1768,5.34709,1.51022,-2.14266,2.89059,4.67421,-10.827,3.26877,4.4795,35.0436,2.02285,4.04657,13.7129,1.92487,1.10556,3.38741e-14,2.70347e-14,-54.2923,-18.3115,-54.3123,12.174,20.1633,24.5448,5.34175,7.12502,48.7429,-16.5168,3.38741e-14,2.70347e-14,-48.1356,-0.256929,78.4041,28.6348,-0.721969,27.1302,20.5501,7.12502,51.1094,41.1702,-14.1894,4.37906,21.3877,37.3963,5.5259,-38.3741,41.6078,-45.0544,-1.19787,-24.6576,37.0947,-48.8842,25.6961,31.312
-0.174077,16.6509,-8.79005,32.9638,-30.1911,-8.46921,-18.7316,3.84099,-3.72808,-11.1803,5.40029,1.60741,-2.13473,2.9112,4.66508,-10.7783,3.08065,4.64449,35.1603,1.7854,3.80559,13.761,1.81447,0.948274,9.58701e-14,4.25399e-14,-56.7839,-24.228,-46.0123,11.0004,27.5113,22.9717,5.89,7.12502,47.2927,-16.6462,9.58701e-14,4.25399e-14,-48.1233,3.24893,75.8179,27.3434,-2.25609,25.2984,21.0009,7.12502,49.435,42.5153,-14.0638,4.38101,20.783,37.3943,1.35399,-39.4479,44.3377,-44.7672,-1.38146,-24.4229,36.9061,-48.5928,25.9632,31.074
-0.161097,16.6566,-8.76003,32.8853,-29.8932,-8.66485,-18.6413,3.9926,-3.49752,-11.3235,5.56131,1.6938,-2.3409,2.99216,4.63691,-10.3516,2.84275,4.71257,35.269,1.49849,3.63723,13.717,1.67628,0.821779,5.97596e-14,1.86858e-14,-60.0618,-28.565,-38.1172,10.223,33.5154,21.5396,6.13157,7.12502,45.9665,-16.9769,5.97596e-14,1.86858e-14,-48.5513,6.4161,73.3403,25.9574,-3.26742,22.822,21.4001,7.12502,47.1544,43.998,-14.007,4.91309,20.1246,37.4531,-3.03108,-39.6265,46.7329,-44.4049,-1.67445,-24.1357,36.6864,-48.6725,25.9766,31.302
-0.14737,16.6612,-8.73065,32.7943,-29.5019,-8.71643,-18.6856,4.08486,-3.33137,-11.4064,5.6589,1.72569,-2.40569,3.03774,4.5917,-9.93214,2.61049,4.69514,35.2437,1.17633,3.67229,13.6116,1.53569,0.784617,-2.61029e-14,-1.88845e-14,-63.4703,-32.1135,-30.7744,9.56115,38.7953,20.0912,6.29398,7.12502,44.6201,-17.3537,-2.61029e-14,-1.88845e-14,-49.1238,9.67699,70.6253,24.6459,-4.70598,20.5317,21.2498,7.12502,45.0301,44.7375,-14.0604,5.157,19.3754,37.5042,-6.09797,-40.4266,48.4821,-44.1293,-1.92339,-24.0211,36.5018,-48.4758,26.0529,30.6317
-0.132789,16.67,-8.70114,32.8479,-28.8888,-8.82666,-18.9265,4.1351,-3.06236,-11.3932,5.69002,1.80982,-2.25223,3.03979,4.55713,-9.65131,2.38175,4.56615,35.1494,0.875981,3.72674,13.5039,1.39228,0.779741,2.10588e-15,-1.13307e-14,-67.2327,-35.6442,-23.0063,8.87736,44.3413,18.4983,6.14988,7.12502,43.1337,-18.0486,2.10588e-15,-1.13307e-14,-49.7347,12.6877,68.0861,23.4791,-6.04265,18.6173,21.1929,7.12502,43.2448,45.3517,-14.2887,5.21771,18.785,37.5429,-5.78738,-43.1916,49.105,-44.0172,-1.68736,-23.9976,36.3188,-47.6684,25.9782,29.9584
-0.117107,16.6795,-8.66562,32.8067,-28.3785,-8.94521,-18.997,4.22989,-2.83698,-11.4341,5.78262,1.92911,-2.2607,3.08155,4.57607,-9.19475,2.14587,4.32202,35.0055,0.602736,3.79501,13.3343,1.24489,0.801759,2.36057e-16,-2.11706e-14,-71.8945,-38.3536,-14.4388,8.63227,50.1919,17.1192,6.02023,7.12502,41.8426,-18.6223,2.36057e-16,-2.11706e-14,-50.6067,14.7965,66.1799,22.5772,-6.47811,16.0875,21.1143,7.12502,40.8743,46.0706,-14.4398,5.38725,18.1077,37.5683,-8.68494,-43.2056,49.5966,-43.7923,-1.29322,-24.0735,36.1595,-46.8444,26.1483,29.2271
-0.0998827,16.6826,-8.63485,32.5335,-27.993,-8.98166,-18.8623,4.33801,-2.70842,-11.4231,5.9081,2.03908,-2.3288,3.14586,4.62861,-8.87905,1.92585,4.07735,34.961,0.319635,3.91416,13.2418,1.1023,0.848129,-2.0509e-14,2.15681e-14,-77.0063,-40.4101,-5.29925,8.14875,56.4669,15.6492,7.59198,7.12502,40.4624,-17.4929,-2.0509e-14,2.15681e-14,-51.6284,16.844,64.1261,21.7538,-7.36074,13.6115,21.0483,7.12502,38.5431,46.6977,-14.4044,5.84869,17.309,37.5561,-12.56,-43.1523,50.5191,-43.3279,-1.00763,-24.2267,35.9963,-46.353,26.0328,28.7129
-0.0814502,16.6794,-8.60632,32.3347,-27.5746,-9.07933,-18.7488,4.39723,-2.54705,-11.4313,5.9633,2.24631,-2.4089,3.17669,4.75662,-8.75856,1.72651,3.84673,35.0794,0.0929498,3.88193,13.2639,0.971351,0.846562,9.00759e-14,5.42434e-14,-82.3427,-41.839,4.12125,8.02312,62.7752,14.4393,7.6022,7.12502,39.3236,-17.8244,9.00759e-14,5.42434e-14,-52.9646,19.1573,61.6151,20.9172,-9.33903,11.5829,20.9643,7.12502,36.6261,47.1246,-14.4029,6.38578,16.5491,37.5214,-17.9084,-42.4122,52.3359,-42.9228,-0.563057,-24.3849,35.8422,-45.8912,25.3396,28.8195
-0.0605988,16.687,-8.57408,32.3946,-26.9961,-9.33348,-18.6973,4.52159,-2.24235,-11.5488,6.08352,2.40344,-2.56231,3.23369,4.76075,-8.8158,1.46433,3.92663,35.2884,-0.2554,3.68178,13.3698,0.810521,0.71141,-3.01104e-14,-5.43303e-14,-88.3657,-42.6336,14.0809,8.17487,68.8841,13.7542,6.89084,7.12502,38.6777,-18.7207,-3.01104e-14,-5.43303e-14,-54.2463,20.9945,59.0899,20.0848,-11.8197,9.61868,20.838,7.12502,34.7646,47.4487,-14.609,6.88545,15.9574,37.4383,-21.7473,-41.3386,53.5659,-42.7213,-1.23614,-23.8646,35.677,-46.1599,25.5426,29.3067
-0.0392552,16.6934,-8.54097,32.2846,-26.5346,-9.47228,-18.6285,4.68654,-1.96173,-11.5841,6.26283,2.45098,-2.62777,3.31434,4.67284,-8.65582,1.21827,3.97614,35.2357,-0.599993,3.64197,13.3128,0.660876,0.638414,-4.12012e-14,-1.08089e-14,-94.5819,-42.6923,24.1984,8.42831,75.5129,13.2841,7.04924,7.12502,38.2342,-18.6859,-4.12012e-14,-1.08089e-14,-55.3967,22.1935,56.841,19.4502,-14.1468,8.03104,21.34,7.12502,33.2565,48.2857,-14.7443,7.2875,15.2115,37.3103,-24.4355,-40.0757,54.1964,-42.4024,-2.2108,-23.374,35.5476,-46.8713,25.4564,30.6304
-0.0205593,16.6931,-8.50806,31.9241,-25.9719,-9.44771,-18.4462,4.74288,-1.78026,-11.6067,6.31607,2.53833,-2.74053,3.33888,4.65416,-8.34331,0.981464,3.83943,35.2799,-0.906826,3.6636,13.2637,0.510464,0.628901,9.64913e-14,7.05189e-14,-100.327,-41.8324,34.0084,8.70565,82.9002,12.8464,7.78085,7.12502,37.8208,-18.0669,9.64913e-14,7.05189e-14,-56.7206,22.8868,54.8178,19.0713,-16.3114,6.68986,22.3385,7.12502,31.9804,49.5484,-14.6443,7.77873,14.4126,37.145,-27.8301,-38.2721,54.9799,-41.8868,-2.79971,-23.2115,35.4093,-47.0883,25.2447,31.1513
-0.0019424,16.6904,-8.47393,31.6892,-25.1755,-9.48834,-18.539,4.7476,-1.48382,-11.4559,6.28205,2.66914,-2.5058,3.30629,4.64089,-8.49088,0.742971,3.64919,35.3277,-1.2291,3.67998,13.3167,0.3512,0.627683,1.11903e-13,8.54774e-14,-106.012,-40.7146,43.749,9.05276,90.8666,12.3862,8.1365,7.12502,37.3859,-17.8272,1.11903e-13,8.54774e-14,-57.9251,23.876,52.4471,18.6589,-19.1669,5.37126,22.5598,7.12502,30.724,50.0135,-14.5578,8.52172,13.8302,37.0002,-31.248,-36.4503,55.6477,-41.5477,-3.12115,-23.02,35.3019,-46.3785,25.7786,29.4617
0.0188414,16.6927,-8.44372,31.7391,-24.5923,-9.53688,-18.8628,4.84151,-1.32746,-11.3274,6.38137,2.73159,-2.20011,3.34615,4.67291,-8.80513,0.438901,3.51238,35.3108,-1.66773,3.70336,13.3799,0.150162,0.603043,-1.86795e-14,-3.44891e-14,-111.548,-38.9609,53.3295,9.38069,98.8065,11.8095,8.22867,7.12502,36.8405,-17.8769,-1.86795e-14,-3.44891e-14,-59.1395,25.3203,49.1914,17.7516,-23.156,4.17738,22.4416,7.12502,29.585,50.1032,-14.9083,9.36546,13.0866,36.8672,-33.811,-37.0952,56.1075,-41.5427,-4.04939,-22.589,35.2523,-46.5633,26.2148,28.9821
0.0403616,16.6969,-8.42363,31.9471,-24.0705,-9.76853,-18.979,4.96499,-1.10267,-11.3572,6.51077,2.86033,-2.17807,3.40684,4.71423,-8.91575,0.164647,3.34405,35.2352,-2.04702,3.748,13.3734,-0.0301,0.598351,-4.33599e-15,-5.94366e-14,-116.31,-36.6554,62.3183,9.80969,107.057,11.3328,8.58199,7.12502,36.3893,-17.6379,-4.33599e-15,-5.94366e-14,-60.4461,26.5294,45.7905,16.8353,-27.1625,3.39915,22.7538,7.12502,28.8419,50.5446,-15.5539,10.0821,12.4305,36.78,-36.839,-35.8256,56.6652,-41.7148,-4.15039,-22.3038,35.2757,-46.2681,26.0918,29.2845
0.06303,16.6967,-8.39153,32.0743,-23.4713,-9.97568,-19.127,5.06687,-0.812365,-11.3889,6.59932,3.02046,-2.13466,3.44391,4.7501,-9.17786,-0.0371132,3.20095,35.3698,-2.32854,3.74414,13.4929,-0.162906,0.586019,-7.32397e-14,-3.33958e-14,-120.398,-33.9757,70.831,10.3698,115.9,10.5058,8.89107,7.12502,35.6059,-17.5213,-7.32397e-14,-3.33958e-14,-61.641,26.9198,43.158,16.437,-30.0911,2.80248,23.1597,7.12502,28.2718,51.0464,-16.114,10.5356,11.7776,36.7122,-39.3791,-35.0015,56.8322,-41.7817,-3.59794,-22.3667,35.2977,-45.1983,26.0671,28.6104
0.0891749,16.6894,-8.36106,31.9178,-22.7194,-10.0193,-19.1045,5.15794,-0.470853,-11.4411,6.67128,3.11351,-2.18241,3.46894,4.66603,-9.01404,-0.289921,2.99503,35.4465,-2.65047,3.76088,13.4946,-0.326098,0.58675,7.0991e-14,5.56597e-15,-122.004,-32.6456,75.5254,10.9103,121.486,9.94503,8.68572,7.12502,35.0742,-17.853,7.0991e-14,5.56597e-15,-63.0425,27.2436,39.8431,15.8142,-33.4894,2.18149,23.2544,7.12502,27.6781,51.2378,-16.3962,11.0764,11.1385,36.6471,-42.1044,-33.6486,57.2601,-41.6824,-2.92382,-22.6177,35.396,-43.9141,25.7075,27.7242
0.116936,16.6862,-8.33672,31.5993,-21.9682,-9.8723,-18.9538,5.16924,-0.265219,-11.4433,6.66441,3.17654,-2.24417,3.45985,4.60306,-8.64205,-0.555788,2.76709,35.3373,-2.94966,3.73137,13.367,-0.496427,0.574905,8.00108e-15,2.0276e-14,-124.313,-30.9262,81.4096,11.737,128.361,9.62585,8.62545,7.12502,34.7714,-17.9837,8.00108e-15,2.0276e-14,-64.6838,27.8859,35.6286,14.9791,-37.249,1.53911,23.7391,7.12502,27.0637,51.8196,-16.4475,11.58,10.3352,36.5339,-46.1682,-29.8946,58.4187,-41.417,-3.70738,-22.4899,35.4484,-44.1212,25.6596,27.9763
0.147184,16.6731,-8.30886,31.4522,-21.3413,-9.89297,-18.8885,5.22127,-1.2804e-05,-11.4505,6.69804,3.31086,-2.27545,3.46998,4.59749,-8.65033,-0.784675,2.65141,35.3805,-3.20023,3.55691,13.3861,-0.639994,0.49328,-9.35033e-14,-6.32135e-14,-125.791,-30.0445,85.8684,12.517,133.952,9.6177,8.5375,7.12502,34.7636,-18.0734,-9.35033e-14,-6.32135e-14,-66.2971,28.3534,31.4395,14.2411,-40.8738,0.835508,24.3387,7.12502,26.3904,52.522,-16.6497,11.7103,9.51336,36.4565,-49.448,-25.5525,59.4244,-41.2432,-3.58279,-22.6125,35.4808,-43.6601,25.2479,27.7925
0.185433,16.6656,-8.27824,31.321,-20.8092,-9.79348,-18.8664,5.28566,0.221615,-11.386,6.75229,3.37701,-2.203,3.48819,4.55515,-9.19827,-0.954104,2.65722,35.6334,-3.39228,3.27531,13.613,-0.742327,0.353209,4.05769e-14,1.19271e-15,-126.575,-30.2018,88.6109,13.1084,137.49,9.65535,7.93954,7.12502,34.7994,-18.6631,4.05769e-14,1.19271e-15,-67.6987,28.8753,27.0928,13.4505,-44.6809,0.663019,25.5429,7.12502,26.2253,53.7508,-17.0862,11.5641,8.51638,36.4384,-51.504,-22.5068,60.04,-41.0671,-4.53209,-22.4681,35.4021,-44.0636,25.395,28.2782
0.221015,16.6604,-8.25632,31.2501,-20.3676,-9.64739,-18.9046,5.36606,0.287707,-11.2668,6.84908,3.41019,-2.05756,3.53452,4.57957,-9.95196,-1.13322,2.64604,35.8892,-3.62089,3.04376,13.8909,-0.853015,0.226432,-7.80727e-14,-9.14409e-15,-127.403,-30.5722,91.0642,13.6234,140.463,9.39943,7.34324,7.12502,34.5565,-19.3152,-7.80727e-14,-9.14409e-15,-68.9355,29.4742,22.7104,12.9932,-48.3759,1.58585,27.2742,7.12502,27.1084,55.3477,-17.8082,11.6002,7.45331,36.5387,-53.2947,-20.6485,60.2473,-40.9973,-4.94032,-22.5586,35.2954,-44.0231,25.2769,28.4744
0.251812,16.6592,-8.24173,31.357,-20.05,-9.6746,-18.9291,5.51575,0.348623,-11.2786,7.04041,3.45929,-2.07452,3.6329,4.62971,-10.1313,-1.35259,2.45198,35.7869,-3.90898,3.08399,13.8902,-0.995614,0.23378,-7.88181e-14,-3.33958e-14,-128.404,-30.6025,94.0429,14.3219,143.967,8.94996,7.0565,7.12502,34.1297,-19.6984,-7.88181e-14,-3.33958e-14,-69.3857,29.1968,19.8704,13.0032,-50.5758,2.34838,28.3848,7.12502,27.8377,56.3426,-18.8425,12.2082,6.48694,36.7002,-55.6063,-18.5524,60.4556,-41.0519,-4.85712,-22.6395,35.1423,-43.4126,25.2126,28.0879
0.284317,16.655,-8.22439,31.167,-19.7023,-9.44363,-18.8372,5.56124,0.247271,-11.2101,7.1235,3.50647,-2.0723,3.68408,4.74265,-10.0566,-1.52548,2.16426,35.5886,-4.09224,3.14265,13.791,-1.10913,0.282095,2.92213e-14,-3.02153e-14,-128.566,-31.5611,95.7644,14.7005,145.842,8.38914,7.03091,7.12502,33.5969,-19.8414,2.92213e-14,-3.02153e-14,-69.4595,28.4686,17.8958,13.1488,-51.8026,2.08175,28.221,7.12502,27.5828,56.2197,-19.6813,12.7682,5.36069,36.8958,-57.8875,-16.9736,60.5337,-40.871,-5.04609,-22.9258,35.0295,-43.1594,24.8541,28.621
0.321039,16.6414,-8.20148,30.7325,-19.0878,-9.23998,-18.6091,5.5784,0.387461,-11.0215,7.13448,3.59328,-1.97593,3.68466,4.74619,-10.212,-1.72628,2.04327,35.5524,-4.28422,2.93265,13.8049,-1.23183,0.190313,-4.008e-14,-2.62396e-14,-129.833,-31.822,99.1389,15.3509,148.862,7.61915,7.39024,7.12502,32.8648,-19.6384,-4.008e-14,-2.62396e-14,-69.6628,28.0291,15.249,13.1534,-53.396,1.23993,27.7923,7.12502,26.7775,55.917,-20.0493,13.185,4.46357,37.0315,-59.7886,-15.3007,60.5468,-40.3916,-5.44981,-23.0985,34.9125,-43.4578,24.1556,29.809
0.355261,16.6249,-8.18225,30.3265,-18.4066,-9.07994,-18.2424,5.60987,0.564322,-11.0163,7.17051,3.6618,-2.1468,3.70031,4.68774,-10.0947,-1.96137,1.92521,35.5595,-4.54639,2.79729,13.7813,-1.37789,0.121556,2.82274e-14,-7.15625e-15,-130.733,-32.2154,102.191,16.006,151.517,7.47184,7.29829,7.12502,32.7247,-19.7596,2.82274e-14,-7.15625e-15,-70.8238,28.3942,9.85355,12.8359,-57.3244,0.513162,26.9468,7.12502,26.0818,55.1761,-20.3522,13.5683,3.65873,37.1217,-61.4751,-12.7808,60.9019,-39.973,-5.43978,-23.3523,34.8332,-42.6713,24.0885,28.8829
0.389561,16.6202,-8.17105,30.0295,-17.8181,-8.71128,-17.9153,5.57497,0.400302,-11.0112,7.1706,3.67135,-2.32912,3.71445,4.75284,-10.1067,-2.19635,1.74341,35.4745,-4.83071,2.77041,13.7509,-1.52841,0.102315,1.06797e-13,6.83819e-14,-131.417,-33.1375,104.509,16.4927,153.204,7.51314,6.79871,7.12502,32.764,-20.251,1.06797e-13,6.83819e-14,-71.6355,28.8663,4.72635,12.6656,-61.0556,0.377874,26.4187,7.12502,25.9523,54.667,-20.9003,14.2581,2.57676,37.1735,-63.5374,-9.60105,61.1902,-39.73,-6.70964,-23.3438,34.7446,-42.9301,24.5131,28.7309
0.422578,16.6111,-8.15822,29.7733,-17.2554,-8.52046,-17.6977,5.54391,0.333119,-10.8598,7.15053,3.79112,-2.29819,3.71315,4.89937,-10.2285,-2.40292,1.47916,35.2442,-5.03503,2.71181,13.6796,-1.66135,0.0944392,1.17681e-13,3.65764e-14,-130.861,-35.6189,104.647,16.3593,152.401,8.00296,6.04385,7.12502,33.2298,-20.9076,1.17681e-13,3.65764e-14,-70.8304,28.3033,3.21204,12.853,-61.4259,0.524926,26.692,7.12502,26.0931,54.9195,-21.5288,15.2121,1.64394,37.2521,-65.5866,-6.74811,61.1862,-39.4834,-6.84541,-23.5943,34.6777,-42.7211,24.2225,28.569
0.458305,16.597,-8.13791,29.5451,-16.644,-8.2798,-17.5984,5.46371,0.317334,-10.8268,7.05488,3.93409,-2.32733,3.67292,5.03766,-9.93699,-2.57005,1.15662,34.9811,-5.14379,2.63073,13.5028,-1.77058,0.109073,-9.23355e-14,-6.44062e-14,-129.743,-38.472,104.321,16.1743,151.503,8.4966,5.71858,7.12502,33.6991,-21.1315,-9.23355e-14,-6.44062e-14,-69.182,26.778,3.4646,13.1022,-59.9304,1.07503,27.6465,7.12502,26.6197,55.7953,-22.2646,15.9306,0.657183,37.3698,-67.2189,-4.86078,61.2396,-39.2118,-6.62287,-24.058,34.5503,-41.5899,24.4406,26.7205
0.49311,16.5848,-8.12302,29.2671,-15.9723,-8.04495,-17.3012,5.35782,0.304716,-10.8774,6.93654,4.06631,-2.54482,3.62389,5.13446,-9.66327,-2.7036,0.917334,34.8492,-5.23878,2.55974,13.3884,-1.85775,0.115327,-9.86966e-14,-7.79236e-14,-128.807,-41.0311,104.372,16.1468,151.375,8.55364,5.8602,7.12502,33.7533,-20.978,-9.86966e-14,-7.79236e-14,-68.1937,26.0147,1.68085,13.15,-60.4783,1.74076,28.2586,7.12502,27.2566,56.309,-23.0359,17.0506,-0.292143,37.4812,-69.127,-3.09272,61.4962,-38.9395,-6.63072,-24.3953,34.4796,-40.7709,24.6359,25.0796
0.526386,16.57,-8.10815,28.8212,-15.342,-7.66668,-16.9122,5.26783,0.136963,-10.7894,6.86107,4.13999,-2.67151,3.60057,5.25955,-9.72893,-2.8726,0.760249,34.7606,-5.38903,2.40605,13.3633,-1.96232,0.0608138,5.78463e-14,7.15625e-14,-125.933,-44.676,101.812,15.6263,148.969,8.74184,5.87593,7.12502,33.9321,-20.9229,5.78463e-14,7.15625e-14,-66.9896,25.5905,-0.0548026,13.2576,-61.1825,2.14971,28.7507,7.12502,27.6478,56.739,-23.5974,18.1363,-1.34129,37.6144,-70.9055,-0.184633,61.9335,-38.4869,-6.82304,-24.8398,34.3826,-40.3583,24.4718,24.4279
0.563381,16.5576,-8.09006,28.4541,-14.6224,-7.54371,-16.6939,5.24453,0.300649,-10.5659,6.81507,4.25521,-2.53088,3.56996,5.27504,-10.0032,-3.02974,0.666099,34.6136,-5.52391,2.21391,13.3545,-2.05498,-0.0216726,1.1281e-14,2.38542e-15,-121.289,-48.9325,97.0321,14.8465,144.728,9.31106,5.3956,7.12502,34.4726,-21.282,1.1281e-14,2.38542e-15,-65.1539,24.8989,-0.567535,13.4111,-60.6431,2.18549,29.0331,7.12502,27.682,57.0159,-24.1767,19.3297,-2.12582,37.7765,-72.5053,2.6687,62.1179,-38.0405,-6.89754,-25.0438,34.2537,-39.5802,24.3129,23.7557
0.597055,16.5471,-8.087,28.1508,-13.9935,-7.2836,-16.4986,5.18956,0.254483,-10.3822,6.75614,4.33835,-2.44208,3.54426,5.3711,-10.1883,-3.13648,0.510768,34.4338,-5.60369,2.13543,13.3179,-2.11864,-0.0391339,-1.90833e-14,-2.46493e-14,-117.493,-52.392,93.617,14.4125,142.096,9.4619,5.32512,7.12502,34.6158,-21.3198,-1.90833e-14,-2.46493e-14,-63.4299,24.497,-1.51298,13.5695,-60.422,2.4613,29.3619,7.12502,27.9457,57.3021,-25.173,20.7449,-3.18002,37.9803,-74.2331,4.31829,62.1314,-37.7487,-7.06848,-25.3184,34.1073,-38.9717,24.1485,23.1505
0.625898,16.5358,-8.08909,27.943,-13.306,-6.87991,-16.1291,5.06496,-0.0678197,-10.512,6.66138,4.42799,-2.81723,3.5268,5.58871,-9.91753,-3.28403,0.266248,34.3555,-5.72525,2.07272,13.2311,-2.21433,-0.0310901,3.38431e-14,5.64548e-14,-112.658,-55.4818,89.5733,14.2934,140.052,9.74483,5.5477,7.12502,34.8843,-21.0353,3.38431e-14,5.64548e-14,-61.8212,24.1896,-3.02639,13.6958,-61.1619,3.01771,29.7694,7.12502,28.4775,57.6218,-26.3989,21.9318,-4.37989,38.2278,-75.7265,6.16022,62.4965,-37.5939,-7.18908,-25.7351,33.9744,-38.4309,23.8685,22.2269
0.654316,16.5194,-8.07693,27.2609,-11.973,-6.46425,-15.445,4.77776,-0.098854,-10.5304,6.3215,4.59015,-3.18272,3.37005,5.67107,-9.62457,-3.47485,0.123443,34.2281,-5.86153,1.79768,13.1062,-2.3324,-0.123999,6.24184e-14,1.12115e-13,-106.94,-58.2923,84.7009,14.2904,137.843,10.8834,4.01168,7.12502,35.9637,-22.3137,6.24184e-14,1.12115e-13,-59.7914,23.5453,-3.7851,13.8341,-61.2994,3.75925,30.4164,7.12502,29.1858,58.148,-26.6436,22.8958,-4.91054,38.4743,-77.0581,8.2227,62.5948,-36.8466,-7.25958,-26.1342,33.8882,-37.7548,22.9749,21.4236
0.688783,16.5073,-8.06866,26.9702,-11.0368,-6.15564,-15.2666,4.61061,-0.180092,-10.4239,6.12013,4.73476,-3.16593,3.27875,5.83677,-9.42156,-3.65641,0.0459921,33.8466,-5.98189,1.50256,12.8889,-2.44166,-0.232203,1.99779e-14,4.45278e-14,-100.044,-60.9545,78.5833,14.0445,135.205,10.4492,4.51028,7.12502,35.5523,-21.915,1.99779e-14,4.45278e-14,-57.0963,21.7662,-2.5785,14.1827,-59.0401,4.37782,31.1971,7.12502,29.7763,58.8246,-27.5941,23.4784,-5.77518,38.6985,-78.7371,8.91835,61.4904,-36.5423,-7.34485,-26.4892,33.8634,-37.1741,22.3565,20.8771
0.72369,16.4965,-8.06041,26.8421,-10.2261,-6.10075,-15.2611,4.52405,-0.0721124,-10.3132,5.9949,4.94153,-3.04921,3.21608,5.98855,-9.16599,-3.78214,-0.0864398,33.4805,-6.04263,1.30646,12.675,-2.51841,-0.281604,5.64548e-14,4.6118e-14,-87.2873,-63.1343,66.3745,13.3132,129.544,11.9421,2.97765,7.12502,36.9659,-23.0956,5.64548e-14,4.6118e-14,-54.85,20.7835,-2.67853,14.3879,-58.1523,4.7732,31.0385,7.12502,30.1536,58.5978,-28.8026,24.4775,-6.59959,38.8572,-79.7901,10.5236,61.6595,-36.4377,-7.53876,-26.5436,33.9164,-36.7413,22.0488,20.0612
0.75819,16.4867,-8.05215,26.6991,-9.34667,-6.18031,-15.1597,4.48689,0.165847,-10.2629,5.92648,5.15899,-3.04232,3.17812,6.07385,-9.14729,-3.93496,-0.165578,33.387,-6.17238,1.10724,12.6269,-2.61008,-0.358935,7.95139e-16,-2.06736e-14,-68.6792,-62.8965,47.9868,12.5707,120.362,14.8539,0.313763,7.12502,39.7141,-24.9979,7.95139e-16,-2.06736e-14,-52.9744,21.492,-4.6239,14.3014,-59.8984,5.03573,30.6023,7.12502,30.404,58.1157,-30.0818,25.5748,-7.27234,39.0347,-80.8671,11.9821,61.8627,-36.2897,-7.7677,-26.4175,33.9638,-36.4073,21.6565,19.858
0.787193,16.4803,-8.0508,26.4567,-8.56317,-6.12347,-14.8602,4.37777,0.176456,-10.2008,5.79822,5.38068,-3.14462,3.12368,6.26771,-9.42248,-4.06523,-0.222198,33.5024,-6.25074,0.792264,12.7226,-2.68386,-0.48862,-1.76918e-14,1.43125e-14,-58.0454,-62.348,38.6027,12.2973,117.429,15.3903,0.488252,7.12502,40.2189,-24.6714,-1.76918e-14,1.43125e-14,-50.5262,20.6542,-4.71396,14.3952,-59.158,5.27372,30.62,7.12502,30.631,58.0911,-31.545,26.5702,-8.11122,39.2335,-81.7895,12.6816,61.8711,-36.0787,-7.84572,-26.4855,34.0111,-35.9436,21.2358,19.8288
0.814928,16.4713,-8.05086,26.202,-7.75545,-5.77906,-14.6532,4.11587,-0.126065,-10.0535,5.49509,5.64322,-3.1205,2.99619,6.67716,-9.73078,-4.12851,-0.524271,33.5563,-6.18287,0.517207,12.8097,-2.72007,-0.542152,-2.33075e-14,-5.08889e-14,-43.8633,-59.1965,25.2894,11.7958,110.403,16.745,-1.13852,7.12502,41.4916,-25.8966,-2.33075e-14,-5.08889e-14,-48.2333,19.2123,-4.26822,14.6493,-57.5085,5.21289,30.3511,7.12502,30.573,57.8331,-33.0095,27.1848,-9.17499,39.4969,-82.1364,13.0156,61.8656,-35.8714,-7.9293,-26.8647,34.0019,-35.3585,20.848,19.2383
0.850229,16.4648,-8.05095,26.1933,-6.75456,-5.66853,-14.519,3.90191,-0.120279,-10.1217,5.22815,5.90956,-3.264,2.87709,6.92149,-9.77297,-4.25778,-0.800236,33.6338,-6.23208,0.289112,12.8527,-2.80159,-0.591057,1.64991e-14,-2.54444e-14,-35.2914,-56.8781,18.4504,11.4751,106.758,16.517,-0.676592,7.12502,41.2776,-25.5041,1.64991e-14,-2.54444e-14,-45.7193,17.6016,-3.83081,14.8777,-56.0043,5.51766,30.8323,7.12502,30.8636,58.2597,-34.5839,27.2074,-9.90633,39.7736,-82.2946,13.2834,61.8654,-35.8909,-8.26095,-26.884,33.9653,-34.9176,20.3832,19.1376
0.887258,16.4598,-8.05388,26.1803,-5.72807,-5.5468,-14.2753,3.75344,-0.0670993,-10.2515,5.05174,6.08716,-3.52799,2.80127,7.04306,-9.74992,-4.46942,-1.01052,33.6604,-6.43496,0.120004,12.8618,-2.93652,-0.646901,5.30755e-14,7.31528e-14,-26.5679,-51.0516,11.1871,11.0777,99.5469,17.1919,-1.30217,7.12502,41.9107,-25.9221,5.30755e-14,7.31528e-14,-42.8967,15.718,-3.19803,15.2074,-54.0701,6.4285,31.7846,7.12502,31.7315,59.044,-36.1963,26.8495,-10.5281,40.0775,-82.2702,13.13,61.9126,-35.8984,-8.61436,-26.9185,33.8981,-34.3984,20.0285,18.9812
0.92237,16.4528,-8.0569,25.8565,-4.66908,-5.36142,-13.985,3.65549,-0.00247422,-10.2847,4.93781,6.17298,-3.70714,2.74928,7.06494,-9.08741,-4.67215,-1.10129,33.3381,-6.66254,0.0261464,12.5861,-3.06944,-0.669566,-1.44119e-14,9.54166e-15,-19.8668,-42.4656,5.78412,10.813,90.061,18.0571,-2.52237,7.12502,42.7211,-26.8661,-1.44119e-14,9.54166e-15,-39.8637,13.8627,-2.68452,15.5776,-52.2764,6.79633,32.2622,7.12502,32.0818,59.4517,-37.4274,26.5543,-10.9585,40.3759,-82.1088,12.911,61.9617,-35.5505,-8.89393,-27.0759,33.8306,-33.8249,19.7392,18.3687
0.95766,16.4421,-8.06422,25.3129,-3.53225,-5.01569,-13.3553,3.41702,-0.0813106,-9.96795,4.64699,6.35386,-3.68339,2.60772,7.24091,-9.94863,-4.74353,-1.16757,33.496,-6.657,-0.25091,12.8255,-3.09621,-0.794243,-3.26007e-14,1.59028e-15,-14.6085,-34.5412,2.274,10.7027,80.9092,18.7612,-4.06627,7.12502,43.3794,-28.1768,-3.26007e-14,1.59028e-15,-37.3748,13.7679,-3.04594,15.8531,-51.6619,6.80251,32.5306,7.12502,32.0877,59.7189,-38.477,26.4744,-11.4289,40.7139,-82.2839,12.8401,61.8227,-34.9327,-9.35467,-27.3887,33.7362,-33.3379,19.4393,17.7913
0.989353,16.4349,-8.07101,24.8487,-2.32628,-4.6862,-12.7875,3.13653,-0.121066,-9.9982,4.31266,6.52963,-3.99677,2.45481,7.38688,-9.54607,-4.82125,-1.42049,33.3756,-6.66033,-0.385947,12.6941,-3.14963,-0.786496,1.98785e-16,-2.70347e-14,-10.9239,-27.9843,0.905392,10.795,74.6351,18.2207,-4.08232,7.12502,42.8741,-28.3726,1.98785e-16,-2.70347e-14,-34.8623,13.7648,-3.9154,15.9423,-52.0689,7.6505,32.5257,7.12502,32.8947,59.5481,-39.6373,26.3456,-11.8345,41.0535,-82.4349,13.2382,62.0251,-34.3881,-9.8185,-27.6482,33.6004,-32.7427,19.11,17.2075
1.01985,16.4311,-8.07427,24.4786,-0.948665,-4.56062,-12.3877,2.89872,0.0623935,-10.0519,4.01064,6.71299,-4.23274,2.30521,7.43174,-8.91772,-4.9889,-1.60535,33.0114,-6.80322,-0.535759,12.4116,-3.2632,-0.800565,4.02539e-14,4.29375e-14,-7.9794,-21.3493,0.470511,11.0486,68.4031,19.9846,-5.04558,7.12502,44.5207,-28.7315,4.02539e-14,4.29375e-14,-32.2309,15.192,-5.4366,15.6665,-54.4431,8.78838,31.8894,7.12502,33.9763,58.6784,-40.7832,26.0381,-11.8927,41.3951,-82.5355,13.1651,62.2973,-33.9614,-10.1029,-27.6799,33.457,-32.0693,18.5589,16.8623
1.05386,16.433,-8.08025,24.1081,0.345829,-4.49602,-11.9735,2.71184,0.270207,-10.011,3.77156,6.90913,-4.38196,2.18293,7.48517,-8.55553,-5.19056,-1.89776,32.7361,-6.99998,-0.609848,12.234,-3.39954,-0.784831,1.09332e-14,1.59028e-14,-5.3235,-14.782,0.72249,11.3242,62.177,20.0836,-5.4053,7.12502,44.6129,-29.0557,1.09332e-14,1.59028e-14,-29.4226,14.5837,-5.75399,15.7412,-54.3248,9.39319,31.5242,7.12502,34.5506,58.184,-41.9581,25.5052,-11.8349,41.6696,-82.8024,12.421,62.0408,-33.5216,-10.5637,-27.6259,33.3207,-31.7208,18.0333,16.9308
1.08244,16.4312,-8.08884,23.7165,1.44462,-4.31888,-11.4159,2.5425,0.24707,-9.96047,3.5817,7.07441,-4.62007,2.09965,7.6366,-8.45899,-5.3461,-2.12402,32.707,-7.13756,-0.720225,12.2091,-3.49986,-0.800897,1.60022e-14,6.36111e-15,-2.78209,-8.83119,1.48974,11.5764,56.0466,19.5336,-5.54295,7.12502,44.1003,-29.3883,1.60022e-14,6.36111e-15,-26.5243,11.9902,-5.24842,16.2149,-51.764,9.92877,31.9057,7.12502,35.0588,58.448,-43.3536,25.4,-12.1499,41.8996,-83.2295,11.7927,61.5075,-33.0614,-10.6282,-27.8578,33.2145,-31.1612,17.5415,16.3237
1.11438,16.43,-8.0953,23.1691,2.6774,-4.35434,-10.6719,2.33974,0.536967,-9.84688,3.33181,7.33273,-4.87037,1.96816,7.70096,-8.75086,-5.43842,-2.18661,32.8422,-7.14007,-1.07034,12.3125,-3.54555,-0.935469,6.38099e-14,4.6118e-14,-0.252444,-1.74779,2.79185,12.0721,48.3885,19.5333,-6.26354,7.12502,44.1,-30.109,6.38099e-14,4.6118e-14,-23.8889,10.7892,-5.43496,16.583,-50.5366,10.6805,32.3131,7.12502,35.7715,58.6854,-44.4159,24.7691,-11.8266,42.0782,-83.0676,11.1428,60.9781,-32.4395,-10.8011,-27.8537,33.1139,-30.5682,17.3842,15.4116
1.1484,16.4312,-8.09666,22.6726,3.93619,-4.37055,-10.2104,2.26194,0.869185,-10.1588,3.26437,7.37432,-5.4404,1.93228,7.53086,-7.14212,-5.72025,-2.14732,32.5822,-7.48878,-1.33834,11.8613,-3.74116,-1.01511,9.83984e-15,1.59028e-15,1.5029,5.74518,4.78827,12.9047,41.4376,20.1715,-7.1635,7.12502,44.6948,-30.7823,9.83984e-15,1.59028e-15,-20.5729,8.91268,-5.64132,16.9621,-49.4437,10.947,32.5911,7.12502,36.024,58.9017,-45.4161,24.0946,-11.4771,42.2457,-82.7081,10.8274,60.8025,-31.8372,-11.2456,-27.7975,33.0362,-30.1955,17.1986,14.8617
1.18071,16.4312,-8.09852,22.2864,5.27668,-4.26561,-9.88751,2.04039,1.07437,-10.2231,2.99082,7.50802,-5.65203,1.7924,7.53379,-6.61056,-5.93099,-2.42173,32.532,-7.716,-1.43321,11.7442,-3.88837,-1.00812,-2.08724e-14,-3.33958e-14,3.86751,11.4145,7.13569,13.6907,35.5308,20.564,-7.95894,7.12502,45.0601,-31.4348,-2.08724e-14,-3.33958e-14,-17.6851,7.75648,-6.10519,17.2547,-48.2759,10.6385,32.4144,7.12502,35.7317,58.7963,-46.5466,23.7004,-11.4113,42.3721,-82.2403,10.9894,61.2916,-31.3229,-11.7764,-27.8249,32.989,-30.0054,16.6143,15.0325
1.21347,16.4332,-8.10645,21.803,6.84574,-4.35474,-9.36114,1.77828,1.52935,-10.1894,2.6606,7.73301,-5.85667,1.60822,7.48616,-6.34703,-6.05721,-2.60829,32.4393,-7.81105,-1.59383,11.6564,-3.97181,-1.03305,-4.87022e-15,-5.56597e-14,6.46811,16.3834,9.86793,14.7035,29.6213,20.76,-9.12712,7.12502,45.2424,-32.5306,-4.87022e-15,-5.56597e-14,-14.9458,7.24789,-6.67919,17.5884,-47.2988,10.7694,32.5581,7.12502,35.8557,58.9099,-47.5752,23.4191,-11.0684,42.4642,-81.5821,11.3182,62.2067,-30.7569,-12.0318,-27.6962,32.9452,-29.5787,16.0017,14.1552
1.23843,16.4399,-8.1117,21.2597,8.3244,-4.4297,-8.79844,1.57522,1.85915,-10.1255,2.41962,7.90478,-6.06608,1.47493,7.45878,-6.2387,-6.22974,-2.603,32.3389,-7.97641,-1.84856,11.5823,-4.07423,-1.13791,3.12092e-14,-3.49861e-14,9.03318,20.8797,12.9774,15.6985,24.2646,21.0328,-10.742,7.12502,45.496,-34.0435,3.12092e-14,-3.49861e-14,-12.0597,5.83663,-7.16979,18.1344,-45.3163,11.1352,33.2574,7.12502,36.2022,59.524,-48.8451,24.3088,-11.3404,42.5161,-82.0997,11.7851,62.7242,-30.1774,-11.7642,-27.6918,32.9144,-28.9144,15.2408,12.4982
1.25901,16.4422,-8.11881,20.8659,9.67855,-4.20355,-8.38322,1.33965,1.82511,-10.0201,2.1366,8.02731,-6.1559,1.34108,7.59226,-6.34688,-6.42221,-2.78545,32.2735,-8.15627,-2.02691,11.5804,-4.19459,-1.19584,-1.86858e-14,-6.20208e-14,11.7302,24.1759,16.3299,16.6112,20.0858,21.0757,-11.4114,7.12502,45.5359,-34.6968,-1.86858e-14,-6.20208e-14,-9.24772,5.25981,-7.8049,18.5836,-44.0844,11.3486,33.8803,7.12502,36.4043,60.0965,-50.2649,24.9308,-11.9921,42.548,-83.2663,12.0856,62.2376,-29.7055,-11.644,-27.9782,32.889,-28.2106,14.5785,11.1078
1.28189,16.4417,-8.12902,20.6164,11.0538,-3.98664,-7.91097,1.07469,1.84236,-10.0444,1.82907,8.18034,-6.41798,1.19782,7.7356,-6.65729,-6.5965,-3.03582,32.4276,-8.28585,-2.24099,11.7095,-4.30173,-1.2667,2.36554e-14,-7.95139e-14,14.707,27.4618,20.1915,17.9456,15.4069,20.5714,-12.194,7.12502,45.067,-35.6671,2.36554e-14,-7.95139e-14,-6.57521,5.0147,-8.56703,18.9181,-43.2622,11.8367,34.3319,7.12502,36.8662,60.4308,-51.5828,24.4974,-12.1634,42.5719,-84.3148,12.0283,60.7157,-29.3671,-11.7191,-28.2072,32.8394,-27.5343,13.9622,10.1135
1.3031,16.4429,-8.13365,20.3921,12.3191,-3.89316,-7.56838,0.947313,1.92573,-10.1346,1.70057,8.26929,-6.69783,1.14019,7.78162,-6.19111,-6.80376,-3.2145,32.2901,-8.52655,-2.33668,11.5674,-4.44188,-1.27372,2.66371e-14,4.77083e-14,16.6798,25.1824,21.449,18.3999,16.4046,20.4605,-12.4593,7.12502,44.9638,-35.9731,2.66371e-14,4.77083e-14,-3.46594,5.30052,-9.22626,19.1194,-42.8654,12.3302,34.2428,7.12502,37.333,60.2205,-53.0444,24.3772,-12.3943,42.6001,-84.1301,12.7028,61.5946,-29.0317,-11.6546,-28.3468,32.737,-26.7911,13.6237,7.86992
1.32688,16.4493,-8.13338,20.1455,13.5302,-3.76508,-7.45632,0.821519,1.92607,-10.112,1.5482,8.33219,-6.71994,1.06931,7.84632,-5.62819,-7.02305,-3.31423,32.0294,-8.82117,-2.36556,11.3575,-4.59064,-1.26531,-1.59028e-14,2.54444e-14,18.5522,23.1763,22.6309,18.8455,17.2063,20.5132,-12.5648,7.12502,45.0128,-36.0593,-1.59028e-14,2.54444e-14,-0.379995,5.81767,-9.8435,19.4467,-42.0621,12.2766,34.5805,7.12502,37.2823,60.5715,-54.0878,22.7761,-11.6873,42.6281,-82.8834,11.6633,62.1576,-28.6391,-11.7589,-28.5153,32.5972,-26.0957,13.5047,5.42179
1.34826,16.4528,-8.13141,19.9101,14.7517,-3.5673,-7.33686,0.599988,1.81853,-9.99076,1.26243,8.45744,-6.62457,0.937216,8.03758,-5.27121,-7.17683,-3.6349,31.7286,-9.02178,-2.25042,11.1965,-4.7055,-1.1666,-1.13307e-14,-3.81667e-14,20.6708,21.3803,23.891,19.1914,17.6568,20.0126,-12.1036,7.12502,44.5468,-35.7794,-1.13307e-14,-3.81667e-14,2.26086,6.12656,-10.6177,19.9595,-40.4704,11.7886,35.1022,7.12502,36.8208,61.2128,-55.1184,21.1663,-11.0406,42.6461,-81.7492,10.3964,62.0379,-28.2359,-12.0979,-28.6955,32.4257,-25.5767,13.541,3.07199
1.3652,16.4489,-8.12158,19.7463,16.0307,-3.26462,-7.27072,0.33853,1.59848,-9.84188,0.916007,8.53221,-6.45756,0.777223,8.2357,-5.32232,-7.30795,-3.72484,31.4713,-9.17896,-2.26381,11.1124,-4.78743,-1.1676,6.95746e-15,-5.40694e-14,22.5942,19.2468,24.7073,19.4208,18.3917,19.063,-11.4704,7.12502,43.6612,-35.4784,6.95746e-15,-5.40694e-14,4.94953,7.47517,-11.2705,20.3538,-39.9548,10.9336,35.1408,7.12502,36.0113,61.4545,-56.1343,19.4994,-10.4359,42.6702,-80.3087,9.56273,61.8211,-27.7795,-12.3441,-28.9745,32.2216,-25.2127,13.1445,1.71584
1.38376,16.4456,-8.10646,19.4639,17.4658,-2.99125,-7.12404,0.03545,1.4108,-9.69585,0.519543,8.63647,-6.32998,0.591013,8.44719,-5.67631,-7.41359,-3.58432,31.4883,-9.25359,-2.54215,11.1648,-4.8326,-1.31532,-9.93923e-16,-5.725e-14,24.6038,17.9693,26.0218,19.7628,17.9982,18.5572,-11.2839,7.12502,43.1887,-35.4628,-9.93923e-16,-5.725e-14,7.81202,9.45161,-11.5972,20.4665,-40.256,10.599,34.9107,7.12502,35.6942,61.3018,-56.8833,17.843,-9.62071,42.7119,-78.4484,8.44948,61.7648,-27.1003,-12.6839,-29.1971,31.9821,-24.9123,12.5054,1.74399
1.40395,16.4448,-8.09207,19.2524,18.7235,-2.67625,-6.9707,-0.260199,1.14608,-9.60119,0.138086,8.73624,-6.2622,0.418717,8.70217,-5.86648,-7.49261,-3.51807,31.5391,-9.28531,-2.81666,11.2026,-4.86738,-1.43844,-1.90833e-14,9.54166e-15,26.5731,15.8717,26.647,20.0451,18.3253,18.4372,-11.3641,7.12502,43.0765,-35.5829,-1.90833e-14,9.54166e-15,10.5455,11.3154,-11.7504,20.7743,-39.9843,10.8512,35.5373,7.12502,35.9332,61.8702,-57.7925,16.3125,-8.90359,42.7604,-76.6021,6.89519,61.6303,-26.4987,-13.2369,-29.4428,31.7309,-24.658,12.1066,2.02049
1.41932,16.4459,-8.07619,18.9486,20.0095,-2.47963,-6.63303,-0.531207,0.979225,-9.65828,-0.189444,8.80099,-6.46969,0.275185,8.87363,-5.41495,-7.63597,-3.63674,31.3816,-9.4733,-2.83706,11.0597,-4.96886,-1.41823,1.02374e-14,-6.67916e-14,28.4259,13.3502,26.5186,20.2214,19.5108,18.4302,-11.3549,7.12502,43.07,-35.5761,1.02374e-14,-6.67916e-14,13.2773,12.0424,-12.0905,21.4799,-38.4713,11.2778,37.0259,7.12502,36.3373,63.2588,-58.6102,14.9024,-7.96727,42.8075,-74.9981,5.61075,61.6698,-25.859,-13.6466,-29.5897,31.4651,-24.2979,11.7494,1.26647
1.42623,16.4435,-8.05665,18.7852,21.2543,-2.08964,-6.42466,-0.771131,0.489887,-9.67916,-0.484533,8.81782,-6.56522,0.165495,9.17992,-4.79005,-7.87239,-3.85225,30.9942,-9.82289,-2.72037,10.8114,-5.14113,-1.33324,-4.44284e-14,9.54166e-15,30.0331,10.0672,25.5569,20.3427,21.6483,18.6201,-11.2123,7.12502,43.2475,-35.3702,-4.44284e-14,9.54166e-15,16.2551,13.5577,-11.9519,21.8846,-38.1827,11.6512,37.7864,7.12502,36.6908,63.9302,-59.526,13.4642,-7.20905,42.8874,-73.1458,4.81681,61.9815,-25.1911,-13.7927,-29.9555,31.1477,-24.0585,11.0853,0.680387
1.43603,16.4339,-8.04233,18.7881,22.3074,-1.50495,-6.30336,-0.983786,-0.169731,-9.56757,-0.762699,8.79526,-6.46193,0.064301,9.53492,-4.6771,-8.07896,-3.973,30.7854,-10.1076,-2.67618,10.7227,-5.2781,-1.31479,2.47487e-14,5.08889e-14,31.658,7.04874,24.7299,20.6069,23.176,18.9119,-11.2161,7.12502,43.5201,-35.2756,2.47487e-14,5.08889e-14,19.168,15.7397,-11.5771,21.9523,-38.4579,10.9966,37.1464,7.12502,36.0709,63.4454,-60.7858,12.0576,-6.72219,42.9564,-71.0822,3.71058,62.3353,-24.6013,-13.8704,-30.5903,30.8365,-23.7402,10.4946,1.14053
1.45294,16.4278,-8.02743,18.6858,23.401,-1.09208,-6.02915,-1.20695,-0.562958,-9.53447,-1.0458,8.80847,-6.52938,-0.04933,9.78346,-4.76307,-8.19202,-4.05733,30.8785,-10.23,-2.73802,10.7785,-5.34577,-1.34405,3.08116e-15,6.36111e-15,33.4059,4.53381,24.0127,20.9994,24.4049,19.0995,-11.2027,7.12502,43.6953,-35.1983,3.08116e-15,6.36111e-15,22.2251,18.6634,-10.5252,21.9045,-39.8498,10.2382,35.7705,7.12502,35.3523,62.2435,-61.8882,10.7892,-5.95927,43.0538,-69.4614,2.19092,61.8689,-24.0287,-13.9014,-31.0843,30.5723,-23.4912,9.99376,2.25703
1.47545,16.4227,-8.00881,18.4972,24.5863,-0.886454,-5.7573,-1.39075,-0.733718,-9.5689,-1.2707,8.86664,-6.68057,-0.140586,9.9585,-6.66493,-8.11647,-3.57975,32.695,-9.87331,-3.64208,11.7786,-5.2051,-1.88105,3.67752e-15,-1.90833e-14,35.1026,2.32351,23.3407,21.505,25.4234,19.4165,-11.5696,7.12502,43.9912,-35.4558,3.67752e-15,-1.90833e-14,25.4951,21.1022,-9.12513,21.9749,-40.642,9.89066,35.2752,7.12502,35.0226,61.8259,-62.9169,9.58335,-4.94287,43.0641,-67.6575,0.866543,61.5892,-23.485,-13.9305,-31.4074,30.4183,-23.4061,9.69922,2.15206
1.49671,16.4234,-7.99816,18.354,25.6759,-0.794933,-5.4729,-1.50311,-0.772116,-9.67537,-1.39551,8.89185,-6.93807,-0.185202,10.0261,-6.39304,-8.29915,-3.49652,32.8012,-10.0862,-3.86742,11.7457,-5.31394,-1.98923,3.97569e-16,-9.54166e-15,36.8372,0.00387737,22.1365,21.8926,26.7892,19.7064,-11.812,7.12502,44.2615,-35.5966,3.97569e-16,-9.54166e-15,28.8296,22.7405,-7.83213,22.2449,-40.2884,9.68435,35.1786,7.12502,34.8269,61.7749,-63.9481,8.51989,-3.82771,43.0439,-65.789,-0.494792,61.5741,-23.086,-13.8403,-31.6503,30.325,-23.4828,9.78125,1.30843
1.51362,16.4146,-7.98387,18.1,26.8168,-0.675063,-5.07668,-1.65325,-0.812906,-9.73308,-1.57364,8.90188,-7.19607,-0.259113,10.0806,-5.7299,-8.42016,-3.49728,32.4776,-10.2708,-3.87088,11.4823,-5.39997,-1.95717,-2.5345e-14,-2.22639e-14,38.8774,-2.97611,19.839,22.0691,29.2472,19.737,-11.4527,7.12502,44.29,-35.2266,-2.5345e-14,-2.22639e-14,32.5625,24.7989,-5.75135,22.5507,-39.9773,9.49303,35.5124,7.12502,34.6453,62.1506,-64.8511,7.46483,-2.70098,42.9736,-63.8853,-2.58884,61.5887,-22.5572,-13.7634,-31.9275,30.2825,-23.7501,10.379,-1.11999
1.5312,16.3919,-7.96001,17.8302,28.0509,-0.502122,-4.86049,-1.83848,-0.942185,-9.63129,-1.81978,8.9249,-7.15839,-0.376354,10.1844,-5.53108,-8.57005,-3.36607,32.2133,-10.4939,-3.91356,11.3245,-5.49102,-1.99295,4.17448e-15,-4.13472e-14,40.981,-5.85422,17.4655,22.2545,31.691,19.9102,-10.7319,7.12502,44.4514,-34.4443,4.17448e-15,-4.13472e-14,36.5068,26.626,-3.41913,22.9701,-38.6444,9.36353,37.8755,7.12502,34.5224,64.5417,-65.7654,6.39412,-1.51787,42.9862,-61.4154,-3.46645,61.8652,-21.8371,-13.8669,-32.2373,30.1077,-23.9493,10.7443,-2.42995
1.55297,16.3791,-7.9271,17.5085,29.1702,-0.332627,-4.63436,-2.01283,-1.12133,-9.54748,-2.0506,8.95275,-7.14722,-0.480745,10.3263,-5.52932,-8.71137,-3.50394,32.3845,-10.6949,-3.82265,11.408,-5.58054,-1.96867,2.00773e-14,-9.22361e-14,42.9217,-7.47627,16.188,22.753,32.6427,19.8144,-9.93979,7.12502,44.3621,-33.6863,2.00773e-14,-9.22361e-14,40.7099,29.1858,-0.122365,22.7453,-40.1053,7.89917,35.7913,7.12502,33.1312,62.7637,-66.4908,5.52648,-0.315395,43.0266,-59.15,-4.51811,61.8342,-20.9424,-13.894,-32.6129,29.932,-24.2389,10.6289,-0.762231
1.57295,16.3853,-7.87629,17.043,30.2969,0.0213541,-4.15573,-2.17438,-1.54882,-9.5446,-2.26071,8.8785,-7.36943,-0.549923,10.5209,-5.19663,-8.83804,-3.79771,32.6644,-10.9203,-3.5267,11.4966,-5.67316,-1.83497,-2.18663e-15,-4.45278e-14,44.6447,-8.42806,15.1705,23.3637,33.1906,18.2753,-8.01197,7.12502,42.9252,-32.2843,-2.18663e-15,-4.45278e-14,46.202,31.8237,5.01044,22.3723,-42.287,6.33368,33.0617,7.12502,31.6412,60.339,-66.7931,4.78449,0.867178,43.2006,-57.1059,-7.71523,61.6015,-19.5701,-13.6992,-33.1814,29.5281,-24.6121,10.2692,1.3278
1.60605,16.3628,-7.85759,17.2602,30.8892,0.126735,-4.37432,-2.07432,-1.48096,-9.65519,-2.12329,8.74792,-7.39613,-0.484429,10.3268,-4.73451,-9.01768,-3.92454,32.5904,-11.2284,-3.30749,11.4019,-5.79906,-1.73928,-1.07344e-14,6.36111e-15,46.643,-10.4158,12.6871,23.6918,35.2312,18.6066,-7.66451,7.12502,43.2349,-31.8269,-1.07344e-14,6.36111e-15,52.1541,33.3863,10.4367,22.3997,-42.7215,5.7192,34.0177,7.12502,31.0557,61.4085,-68.2128,4.29266,1.88485,43.2647,-55.1004,-11.5084,61.2727,-19.4057,-13.5353,-33.5638,29.1962,-24.7611,10.7419,1.70526
1.63157,16.3593,-7.79716,16.7086,32.2716,0.369347,-4.1019,-2.31748,-1.76857,-9.49709,-2.45837,8.748,-7.30353,-0.641397,10.5001,-4.33034,-9.14898,-3.97212,32.348,-11.4411,-3.2053,11.2385,-5.89013,-1.6826,3.79679e-14,5.08889e-14,51.1855,-16.1551,3.18005,22.8906,44.4238,18.5794,-5.45172,7.12502,43.2095,-29.6232,3.79679e-14,5.08889e-14,58.0821,34.6686,16.204,22.2762,-44.0559,4.95842,33.5398,7.12502,30.3303,61.0667,-68.2464,3.41065,3.30113,43.3454,-52.8388,-13.6514,60.8561,-18.0091,-13.2198,-33.9813,28.8568,-24.8356,10.5533,1.60808
1.66595,16.3424,-7.75574,16.6456,33.2349,0.444661,-4.16631,-2.45234,-1.78538,-9.5207,-2.63142,8.82453,-7.25573,-0.723068,10.5948,-4.09519,-9.174,-4.12077,32.2681,-11.4631,-3.16585,11.176,-5.91092,-1.62965,-3.47873e-14,-3.49861e-14,53.7821,-17.2547,0.562324,23.3788,45.6978,17.9773,-5.15642,7.12502,42.6463,-29.5262,-3.47873e-14,-3.49861e-14,63.5445,35.2139,21.6583,22.1318,-45.3037,4.21902,32.483,7.12502,29.6248,60.1375,-68.9771,2.74998,4.54681,43.2782,-50.5404,-15.0011,60.6417,-17.4974,-12.613,-34.2687,28.7129,-24.9999,10.0888,2.41911
1.70223,16.3223,-7.72474,16.7518,34.1227,0.539758,-4.28104,-2.5525,-1.76492,-9.58058,-2.75368,8.91629,-7.22997,-0.778386,10.6843,-4.0936,-9.28196,-4.57716,32.3292,-11.595,-2.98841,11.251,-5.99739,-1.51399,-2.78299e-15,6.36111e-15,54.9138,-16.5329,1.99142,24.4374,42.9196,17.6261,-5.36536,7.12502,42.3175,-29.8481,-2.78299e-15,6.36111e-15,69.5414,35.3263,28.2335,21.886,-47.2583,3.2166,31.0956,7.12502,28.6675,58.916,-69.8676,2.13738,5.73861,43.2161,-47.9887,-17.5058,60.3052,-17.2582,-11.8736,-34.5878,28.5048,-24.8429,9.99027,1.99561
1.73085,16.3052,-7.68129,16.8258,34.9956,0.682608,-4.43563,-2.59985,-1.93575,-9.6468,-2.81182,8.91904,-7.19649,-0.791795,10.7839,-3.85536,-9.45437,-4.99891,32.34,-11.8653,-2.7011,11.2682,-6.13102,-1.36345,-6.59965e-14,-3.18055e-14,55.8202,-15.7681,3.46038,25.3357,40.1705,17.428,-5.7903,7.12502,42.132,-30.336,-6.59965e-14,-3.18055e-14,74.7667,34.5248,33.5742,21.8108,-48.1719,2.06228,30.1305,7.12502,27.5642,58.1322,-70.6336,1.62536,6.97842,43.1224,-44.7604,-22.1844,59.2047,-16.9274,-11.4453,-34.9068,28.385,-24.7046,10.381,0.857519
1.75909,16.3014,-7.61907,16.5476,35.9571,0.588821,-4.54631,-2.67349,-2.04631,-9.63767,-2.90688,8.96778,-7.09765,-0.831666,10.8964,-3.10649,-9.51704,-5.04439,31.9798,-12.0038,-2.55773,10.9975,-6.18705,-1.2584,-1.43125e-14,-3.18055e-14,57.1886,-15.5519,3.30876,26.0166,39.0898,17.2342,-6.53595,7.12502,41.9504,-31.1426,-1.43125e-14,-3.18055e-14,78.6938,33.1821,36.9355,21.9011,-47.4697,0.968652,29.4916,7.12502,26.5178,57.6557,-70.9953,1.19033,8.52034,43.0695,-40.6168,-27.2974,57.5429,-16.2263,-11.4184,-34.9188,28.2958,-25.0766,10.698,1.16842
1.79908,16.2951,-7.55955,16.4747,37.034,0.714318,-4.79013,-2.88543,-2.19883,-9.58305,-3.19431,9.06026,-6.82749,-0.974801,11.0677,-2.83884,-9.52441,-5.0292,31.793,-11.9911,-2.63952,10.8659,-6.18906,-1.2628,-6.22196e-14,0,59.535,-16.3153,1.09086,26.3643,40.4944,17.1755,-6.28851,7.12502,41.8954,-30.9135,-6.22196e-14,0,81.8407,32.0101,39.3346,21.9672,-46.3489,0.175465,28.3952,7.12502,25.7584,56.6717,-71.3301,0.538352,9.84005,43.1329,-36.4589,-30.7324,56.3654,-15.6453,-11.072,-35.122,28.2493,-25.2241,10.7785,0.397735
1.84721,16.2733,-7.50743,16.6663,38.2089,0.996314,-5.21093,-3.15354,-2.28613,-9.56284,-3.55658,9.15436,-6.47903,-1.16346,11.1869,-3.25764,-9.56574,-5.02353,32.0426,-11.911,-3.04551,11.0133,-6.18953,-1.43347,-9.34288e-15,-3.81667e-14,62.1124,-17.1109,-1.51224,26.5586,42.1411,16.9601,-5.51607,7.12502,41.6933,-30.208,-9.34288e-15,-3.81667e-14,84.1776,30.87,40.6003,22.0966,-44.6505,-0.7435,27.5512,7.12502,24.878,55.9524,-71.8541,-0.267179,10.9878,43.2885,-31.2513,-34.2928,54.8728,-15.3526,-10.2772,-35.4623,28.3425,-24.9862,10.5039,-1.80987
1.88509,16.2467,-7.44989,16.8539,39.3684,1.42343,-5.31042,-3.38945,-2.57704,-9.63584,-3.86513,9.19809,-6.41963,-1.29695,11.3996,-3.30158,-9.61732,-5.25805,32.1929,-11.907,-3.16449,11.0923,-6.22184,-1.44841,-4.94974e-14,-3.18055e-14,64.2039,-17.3076,-3.13973,26.8313,42.8141,16.8565,-5.01799,7.12502,41.5962,-29.7419,-4.94974e-14,-3.18055e-14,85.97,29.4788,41.1389,22.3401,-42.4358,-1.87857,27.8211,7.12502,23.7899,56.3683,-72.2767,-1.01666,12.119,43.496,-24.2686,-38.0436,51.5987,-14.9694,-10.0545,-35.8194,28.6618,-25.224,10.091,-1.59078
1.91503,16.2233,-7.38626,16.9583,40.5201,1.72993,-5.17669,-3.54566,-2.80675,-9.85338,-4.05344,9.18871,-6.68373,-1.35303,11.5494,-2.58191,-9.73049,-5.7041,32.0628,-12.1153,-2.87067,10.9655,-6.33313,-1.24902,-4.57205e-14,-5.40694e-14,65.5068,-16.9971,-3.40551,27.3362,42.7587,17.1493,-4.53027,7.12502,41.8707,-29.1635,-4.57205e-14,-5.40694e-14,87.7692,27.8407,41.8765,22.6179,-40.5866,-2.9666,27.6613,7.12502,22.746,56.3404,-72.6147,-2.36088,14.167,43.7078,-16.5813,-39.9204,46.8405,-14.6918,-10.2867,-36.0176,29.2103,-25.6903,10.4461,-2.91951
1.94579,16.2014,-7.318,16.9057,41.7067,1.73847,-5.10762,-3.69984,-2.83958,-10.1289,-4.23207,9.20998,-6.98665,-1.41023,11.6186,-1.54651,-9.8903,-5.90793,31.8583,-12.4134,-2.67294,10.7267,-6.47152,-1.10567,2.98177e-15,3.18055e-15,66.532,-16.4779,-3.37131,27.9439,42.141,17.3228,-4.51797,7.12502,42.0334,-29.0968,2.98177e-15,3.18055e-15,88.4964,26.4273,40.8539,23.3284,-37.797,-3.49498,26.9441,7.12502,22.2389,55.6846,-72.9536,-3.94632,16.8292,43.9327,-8.27017,-40.4391,42.0013,-14.5372,-10.2391,-35.9225,29.8376,-25.9649,10.48,-5.04527
1.98493,16.1814,-7.24887,16.8328,42.957,1.81481,-5.15115,-3.96004,-2.95431,-10.2224,-4.56362,9.3656,-6.9752,-1.55701,11.861,-1.92426,-9.66819,-6.20734,32.2836,-12.0418,-2.62527,10.9859,-6.31979,-1.04615,-2.90226e-14,3.18055e-15,67.9269,-16.1723,-3.67524,28.4934,41.3356,16.8495,-4.78373,7.12502,41.5896,-29.5098,-2.90226e-14,3.18055e-15,88.5706,25.6781,38.8444,24.4031,-34.4623,-3.97362,26.5124,7.12502,21.7793,55.307,-73.1995,-5.61906,19.4636,44.1766,0.41996,-40.1072,39.6013,-14.5196,-9.88122,-35.8723,30.802,-25.9619,10.2836,-7.19842
2.0283,16.1561,-7.18166,17.3368,44.1782,2.61021,-5.38408,-4.27062,-3.60621,-10.1811,-4.98294,9.47187,-6.64794,-1.73795,12.3318,-2.69154,-9.47874,-6.05199,32.3781,-11.6729,-2.85445,11.1333,-6.15268,-1.16119,1.43125e-13,-2.22639e-14,69.1732,-16.1588,-3.26358,29.1736,39.9724,16.6285,-4.8654,7.12502,41.3823,-29.6591,1.43125e-13,-2.22639e-14,89.3023,25.1876,38.0897,25.4409,-32.4514,-4.29959,25.789,7.12502,21.4662,54.6196,-73.5849,-7.08504,21.1033,44.6032,6.90708,-39.0497,37.8966,-14.4058,-9.61682,-36.3544,31.444,-25.775,9.87179,-7.86307
2.09754,16.0811,-7.18913,19.6306,45.551,3.93734,-6.45398,-4.51997,-3.4526,-10.6926,-5.27902,9.29513,-6.55826,-1.88602,11.9649,-3.63968,-9.51079,-6.12835,32.899,-11.6019,-3.01588,11.5198,-6.13411,-1.27922,-8.09054e-14,-1.59028e-14,70.2054,-16.3352,-2.89273,30.0709,39.4431,17.3191,-4.66798,7.12502,42.0299,-29.248,-8.09054e-14,-1.59028e-14,90.5879,24.4434,38.1615,26.3296,-31.3131,-4.87481,25.2076,7.12502,20.9137,54.1002,-76.1454,-9.96674,23.7298,45.0735,15.5694,-35.9518,31.0033,-16.0784,-10.5387,-37.2437,32.3353,-25.2291,10.1723,-8.61195
2.1115,16.1141,-7.03091,18.6119,46.6543,4.35647,-5.81305,-4.78848,-5.00699,-10.1877,-5.67205,9.53352,-6.13182,-2.01878,13.1667,-2.91825,-10.2093,-7.21008,32.6638,-12.611,-2.62278,11.4342,-6.66931,-1.03871,2.26615e-14,-5.08889e-14,71.6346,-16.6363,-3.85189,30.8462,40.1063,17.8951,-3.99404,7.12502,42.5694,-28.3904,2.26615e-14,-5.08889e-14,91.6333,23.9168,37.7602,27.3486,-29.3787,-5.47097,24.794,7.12502,20.3408,53.7488,-74.1865,-9.43249,23.6437,45.7351,14.1479,-36.5706,32.5227,-14.3414,-9.08963,-37.1935,33.0603,-25.463,9.08601,-8.67309
2.15418,16.1016,-6.95114,18.3959,48.2526,4.43951,-5.73839,-4.99301,-5.09738,-10.0985,-5.94295,9.66837,-5.98396,-2.1568,13.3592,-2.57042,-10.7034,-7.86872,32.5126,-13.3234,-2.36924,11.4108,-7.03447,-0.906668,7.07673e-14,3.49861e-14,72.5756,-16.7506,-4.30778,31.5534,39.4991,17.3988,-3.98862,7.12502,42.1047,-28.5435,7.07673e-14,3.49861e-14,92.5423,23.5244,36.9917,28.5486,-26.6687,-6.09551,24.4906,7.12502,19.7405,53.5082,-73.9236,-10.5344,25.2774,46.3716,16.465,-35.7928,32.9882,-14.0862,-9.06442,-36.8899,34.133,-25.6567,8.03384,-5.90329
2.2103,16.0884,-6.86884,18.2087,49.9595,4.65653,-5.61941,-5.20092,-5.16265,-10.1958,-6.20998,9.69963,-6.07885,-2.27304,13.4386,-6.16162,-10.5201,-6.33896,35.682,-12.3719,-4.57607,13.1121,-6.62373,-2.22333,-7.55382e-15,-1.90833e-14,73.0525,-16.499,-4.04234,32.2845,38.1137,16.9063,-4.35641,7.12502,41.6429,-29.065,-7.55382e-15,-1.90833e-14,93.1185,22.8431,35.9098,29.7351,-24.0552,-7.45386,24.826,7.12502,18.4343,53.9726,-73.7437,-12.3591,27.3605,47.1351,20.2584,-33.5343,30.8217,-13.5417,-9.3866,-36.6798,35.0536,-25.9291,6.76334,-1.6416
2.27225,16.0696,-6.78652,18.1947,51.5014,4.9882,-5.5841,-5.45046,-5.26643,-10.3167,-6.53091,9.74889,-6.13171,-2.41553,13.5518,-9.08763,-10.6441,-6.24419,38.1142,-12.1427,-5.31198,14.7913,-6.53819,-2.86886,-1.26825e-13,-4.77083e-14,73.8472,-16.2674,-4.05507,32.9946,37.2305,16.9673,-4.47601,7.12502,41.7001,-29.1657,-1.26825e-13,-4.77083e-14,93.4192,22.3964,34.7744,30.7454,-22.3837,-8.73465,24.4157,7.12502,17.2018,53.6743,-73.5818,-13.8982,29.0859,47.9797,22.8795,-31.5481,28.5418,-13.2856,-9.53405,-36.5836,36.3698,-26.3162,5.62937,1.77992
2.33111,16.046,-6.71159,18.156,52.9113,5.18715,-5.70716,-5.67144,-5.38289,-10.2264,-6.81838,9.93131,-5.85294,-2.56819,13.7891,-6.42254,-10.6548,-6.99533,35.9442,-12.4908,-4.30722,13.3723,-6.70593,-2.07588,3.85642e-14,-2.22639e-14,75.0433,-16.4458,-4.64868,33.587,37.0982,16.5843,-4.46946,7.12502,41.3408,-29.2766,3.85642e-14,-2.22639e-14,94.0251,22.3998,34.2303,31.4673,-21.3658,-9.5655,22.9092,7.12502,16.402,52.2358,-73.3126,-14.6984,30.1522,48.8658,23.2822,-31.1829,28.9698,-13.2237,-9.57145,-36.4243,37.6347,-26.3034,5.09145,2.81708
2.39091,15.9962,-6.63708,18.3099,54.24,5.63048,-5.81664,-5.8165,-5.63439,-10.1629,-7.0029,10.0664,-5.63036,-2.65632,14.0645,-2.10603,-10.7966,-8.71808,32.1696,-13.4257,-2.01026,11.2999,-7.11814,-0.620718,-5.12864e-14,4.13472e-14,75.8669,-16.6485,-4.76819,34.3716,36.9417,15.8548,-4.41105,7.12502,40.6556,-29.4359,-5.12864e-14,4.13472e-14,94.8414,22.3146,34.1084,32.0409,-20.5247,-11.2161,22.027,7.12502,14.8124,51.4776,-73.0308,-15.2255,30.7968,49.8301,22.3284,-31.2128,31.3028,-13.1209,-9.77077,-36.4608,38.8816,-26.3781,4.77828,4.20819
2.45327,15.966,-6.558,18.6388,55.395,6.27463,-5.9084,-5.94583,-6.0455,-10.1821,-7.16468,10.1311,-5.5062,-2.71523,14.3666,-3.22563,-10.9812,-8.74561,33.2235,-13.3998,-2.65516,11.8953,-7.15931,-0.965188,-3.37934e-14,-5.08889e-14,76.5465,-16.6278,-4.74162,35.2747,36.3294,15.6067,-4.34268,7.12502,40.4224,-29.4399,-3.37934e-14,-5.08889e-14,95.511,22.1526,34.0392,32.7628,-20.3238,-12.9722,21.5755,7.12502,13.12,51.1427,-72.4972,-15.6624,31.3118,50.6861,20.566,-30.491,32.9827,-12.8943,-9.64718,-36.5895,39.8997,-26.3044,3.87335,8.15158
2.51713,15.9443,-6.474,18.8331,56.4612,6.83781,-5.93349,-6.0153,-6.46431,-10.2079,-7.24887,10.1419,-5.45371,-2.73061,14.6262,-3.86708,-11.3432,-8.55728,34.1107,-13.6926,-3.31157,12.3281,-7.32389,-1.35405,-2.5842e-14,1.90833e-14,76.9297,-16.6001,-4.39066,36.2072,35.6203,15.767,-4.71531,7.12502,40.5731,-29.7659,-2.5842e-14,1.90833e-14,96.1832,21.766,34.0995,33.4465,-21.1526,-14.2271,20.8165,7.12502,11.9101,50.4577,-71.8193,-16.2589,32.0109,51.4805,18.3745,-29.078,32.4591,-12.5595,-8.93375,-36.5793,40.6839,-26.034,3.0674,10.2789
2.59515,15.9383,-6.38467,19.111,57.7229,7.40954,-6.13925,-6.1151,-6.66074,-10.3163,-7.36138,10.0963,-5.40933,-2.77036,14.6654,-3.17044,-11.774,-8.87851,33.8488,-14.4302,-2.9629,12.1685,-7.64934,-1.21234,-3.4191e-14,-3.18055e-15,77.0876,-16.553,-3.65898,37.1057,34.8557,15.9382,-5.04666,7.12502,40.7341,-30.047,-3.4191e-14,-3.18055e-15,96.4364,21.4609,33.3506,34.3224,-21.1095,-15.2074,19.9443,7.12502,10.9647,49.638,-71.1816,-17.3368,32.8693,52.1012,15.2612,-28.3398,31.8354,-12.2734,-7.731,-36.5205,41.2452,-25.1378,4.1173,4.72758
2.68109,15.9227,-6.291,19.1868,59.0335,7.68937,-6.44458,-6.28134,-6.55377,-10.4187,-7.55513,10.1502,-5.29624,-2.87218,14.6148,-3.09221,-11.7839,-9.84245,34.0704,-14.495,-2.32993,12.4098,-7.70782,-0.864713,-5.76476e-14,-6.36111e-15,77.4297,-16.4365,-3.1086,38.0618,33.9997,16.0752,-5.21024,7.12502,40.8628,-30.1701,-5.76476e-14,-6.36111e-15,96.4121,21.5335,32.4131,35.391,-19.8957,-15.473,17.8845,7.12502,10.7085,47.5916,-70.3428,-17.9453,33.3595,52.5864,10.7841,-29.0328,33.1748,-12.0559,-6.23467,-36.4672,41.6876,-22.8679,7.98351,-12.9162
2.76626,15.9184,-6.19685,19.2893,60.148,7.95279,-6.85762,-6.40152,-6.64113,-10.4468,-7.6829,10.2875,-5.03095,-2.93957,14.7667,-3.42134,-11.5327,-9.95266,34.3713,-13.9972,-2.52419,12.5768,-7.50979,-0.890448,2.8625e-14,3.81667e-14,78.1213,-16.3756,-3.40582,38.865,33.7942,15.7904,-4.9606,7.12502,40.5951,-30.0043,2.8625e-14,3.81667e-14,94.2448,23.066,28.2923,38.2359,-14.7045,-15.9784,16.7685,7.12502,10.221,46.5002,-69.1712,-17.7635,33.218,52.8561,6.78718,-29.8104,33.0868,-11.6367,-5.89642,-36.2256,42.2338,-22.4094,7.67513,-9.91286
2.84781,15.9181,-6.09476,19.6657,61.1775,8.51417,-7.11845,-6.46248,-6.92605,-10.6434,-7.72495,10.3154,-5.0575,-2.92209,14.9576,-3.44652,-11.7114,-10.035,34.7237,-14.0804,-2.99314,12.7062,-7.60101,-1.08085,-9.14409e-15,-1.27222e-14,78.5076,-16.1236,-3.55933,39.7445,33.5395,14.2413,-4.36015,7.12502,39.137,-29.8408,-9.14409e-15,-1.27222e-14,94.799,22.5306,28.3368,38.9027,-13.6685,-16.3364,14.3835,7.12502,9.87564,44.1318,-67.8693,-17.2436,32.6114,52.9351,1.93268,-31.1613,34.2359,-11.3365,-5.3132,-36.0748,42.843,-22.0297,7.50218,-7.05603
2.94094,15.9166,-5.99098,19.987,62.4261,8.99388,-7.50074,-6.60869,-6.94283,-10.9135,-7.87666,10.2377,-5.10423,-2.97546,14.835,-2.33229,-11.9133,-9.98593,34.3309,-14.4046,-3.21183,12.306,-7.76963,-1.10431,1.19271e-15,-1.90833e-14,78.7151,-15.7613,-3.43068,40.4562,32.9232,16.6652,-5.6487,7.12502,41.4167,-30.4312,1.19271e-15,-1.90833e-14,95.6544,21.7189,28.8746,39.1204,-14.5415,-16.9962,12.6622,7.12502,9.23904,42.4398,-66.5916,-17.1895,32.2654,52.8556,-2.35752,-32.1207,35.4115,-11.1047,-4.6018,-35.8121,43.5721,-21.3776,7.99728,-6.89795
3.04472,15.9244,-5.88701,19.5507,63.9424,8.61502,-8.14838,-6.72295,-6.54072,-11.072,-7.98118,10.2174,-4.93165,-3.04902,14.4847,-3.30568,-12.6205,-10.0741,37.0482,-15.1867,-3.65064,13.6935,-8.11225,-1.58866,-1.1609e-13,3.81667e-14,78.6141,-15.6614,-3.07884,41.1161,32.6538,16.4,-5.32218,7.12502,41.1678,-30.185,-1.1609e-13,3.81667e-14,97.057,20.8046,30.2742,39.1996,-16.3595,-17.0322,10.2302,7.12502,9.2043,40.0093,-65.213,-17.2212,32.2387,52.6304,-9.81111,-32.9829,40.5604,-10.8724,-4.06537,-35.1058,44.3403,-20.7091,9.0312,-7.71597
3.14443,15.9314,-5.7872,19.9779,65.2403,9.00027,-8.86369,-6.82361,-6.42441,-11.2665,-8.06358,10.0945,-4.75349,-3.09524,14.1855,-2.85118,-12.1507,-8.16078,36.1921,-14.3805,-4.89308,12.8492,-7.68645,-2.10127,-5.56597e-15,-5.08889e-14,78.6155,-15.6113,-3.06554,41.9095,32.5668,16.0017,-5.07548,7.12502,40.7937,-30.0571,-5.56597e-15,-5.08889e-14,97.5471,20.4952,30.1555,39.9493,-17.2291,-17.3199,8.89129,7.12502,8.92666,38.6824,-64.0311,-16.6918,31.3713,52.373,-11.7629,-33.22,36.9281,-10.9749,-3.38229,-34.8104,45.2171,-19.841,10.4193,-9.55792
3.23601,15.9238,-5.68846,21.1141,66.2346,10.1058,-9.49315,-6.98327,-6.71775,-11.427,-8.21951,10.0498,-4.51152,-3.15902,14.2233,-2.0787,-12.0589,-9.43588,35.4027,-14.4954,-3.7141,12.6087,-7.76438,-1.40423,2.94201e-14,8.5875e-14,79.0265,-15.593,-3.41351,42.8855,32.7551,15.0396,-5.30097,7.12502,39.889,-30.5604,2.94201e-14,8.5875e-14,96.6552,21.1972,28.0118,41.4079,-16.8795,-18.0549,9.37218,7.12502,8.2173,39.1924,-62.9895,-16.1793,30.3946,52.1151,-15.817,-33.1192,36.3534,-11.3291,-2.29424,-34.814,46.2662,-18.9499,11.5825,-10.7198
3.33068,15.9035,-5.59119,22.1474,67.194,11.1507,-10.1129,-7.17322,-7.0039,-11.5432,-8.41459,10.0516,-4.20967,-3.24904,14.3,-2.53099,-12.0854,-9.58646,36.0347,-14.4408,-3.76583,12.9851,-7.74531,-1.46557,-1.63003e-13,3.81667e-14,79.4559,-15.5856,-3.69231,43.6935,32.9173,13.6358,-5.17885,7.12502,38.566,-30.8218,-1.63003e-13,3.81667e-14,95.9729,21.6869,26.3803,42.5542,-17.3345,-18.7344,10.1673,7.12502,7.56156,40.0121,-61.9006,-15.935,29.7246,51.9404,-20.182,-32.1705,36.3314,-11.7062,-1.16035,-34.7806,47.4427,-18.2525,13.0937,-9.37153
3.43061,15.8948,-5.49004,22.6925,68.2265,11.7545,-10.7069,-7.36888,-7.07239,-11.6582,-8.6226,10.0612,-3.94112,-3.35573,14.2529,-2.27678,-12.1708,-9.75111,36.0902,-14.552,-3.76899,12.981,-7.80959,-1.44124,-6.83819e-14,-2.54444e-14,79.9623,-15.5452,-3.95198,44.2976,32.7644,14.0184,-5.20437,7.12502,38.9269,-30.7453,-6.83819e-14,-2.54444e-14,95.8334,21.6564,25.7399,43.3062,-18.6902,-18.9463,10.3538,7.12502,7.35701,40.2059,-60.6993,-15.577,29.0722,51.8186,-22.367,-31.9533,31.1698,-12.0695,0.0376672,-34.5379,48.7503,-17.6033,15.3046,-7.73862
3.53219,15.8894,-5.38048,23.451,69.2003,12.7811,-11.1415,-7.49991,-7.36284,-11.7416,-8.74377,9.99521,-3.73619,-3.40522,14.2808,-2.40832,-12.2665,-9.64617,36.3542,-14.5278,-4.23789,13.0685,-7.83191,-1.65053,1.90833e-14,-5.08889e-14,80.2675,-15.5036,-4.43008,45.0711,33.5216,15.444,-4.89219,7.12502,40.2695,-30.0364,1.90833e-14,-5.08889e-14,95.8066,21.6334,25.2876,44.0438,-19.9666,-14.8999,5.01112,7.12502,11.2613,34.6888,-59.461,-15.3972,28.2196,51.7778,-24.7236,-31.762,40.5667,-12.3152,1.67244,-34.39,50.1699,-16.722,17.4192,-7.69416
3.63288,15.886,-5.27682,22.942,70.5537,12.42,-11.571,-7.569,-7.09126,-11.7549,-8.80546,10.112,-3.51466,-3.4528,14.1901,-2.94041,-12.3134,-10.5035,37.1744,-14.5967,-3.62699,13.7088,-7.86735,-1.40716,5.88403e-14,-2.8625e-14,80.2423,-15.6815,-4.45808,46.0689,34.4363,16.0739,-4.71129,7.12502,40.8615,-29.6715,5.88403e-14,-2.8625e-14,95.5744,22.0661,24.4275,44.891,-20.5238,-16.0955,6.70158,7.12502,10.108,36.4388,-58.3012,-15.5023,28.1007,51.8255,-25.2221,-31.8794,37.7206,-12.7892,3.22605,-33.6163,51.68,-15.9542,19.6381,-7.60935
3.72535,15.8788,-5.18406,21.3174,72.04,10.8132,-11.9302,-7.72486,-6.40842,-11.7721,-9.01119,10.3678,-3.32493,-3.5903,13.9977,-3.20874,-12.315,-11.0184,37.5135,-14.5671,-3.35274,14.0097,-7.87201,-1.27031,1.35174e-13,-4.77083e-14,80.566,-15.9372,-4.61291,46.8497,34.5987,16.3883,-4.65105,7.12502,41.1568,-29.5174,1.35174e-13,-4.77083e-14,95.1854,22.5515,23.3943,45.428,-21.1668,-14.8125,5.99609,7.12502,11.3456,35.6692,-57.3773,-15.6951,28.5799,51.9902,-26.1531,-31.8786,36.0972,-13.5679,4.54916,-32.5571,53.2692,-15.2435,22.9719,-11.1544
3.81388,15.8556,-5.09138,22.725,72.6559,12.5727,-12.0459,-7.88724,-6.97149,-11.8459,-9.18184,10.2376,-3.24284,-3.65002,14.1402,-3.07746,-12.1923,-11.296,37.617,-14.4103,-3.14259,14.0771,-7.80841,-1.12318,-6.83819e-14,1.90833e-14,81.1272,-15.9766,-4.98352,47.2024,34.5811,16.5308,-4.51109,7.12502,41.2906,-29.3344,-6.83819e-14,1.90833e-14,95.0407,22.6445,22.7341,45.3939,-22.1779,-12.1616,3.31821,7.12502,13.9012,32.8336,-56.6596,-15.8253,27.8381,52.3689,-27.1051,-31.8051,35.364,-14.1587,6.32895,-32.9403,54.7607,-15.169,26.5396,-3.21619
3.90241,15.8356,-5.00034,24.5223,73.1764,14.8337,-12.0716,-7.89009,-7.60822,-11.8175,-9.14771,10.0137,-3.16167,-3.61001,14.2581,-3.35762,-12.2206,-11.7621,37.9367,-14.4364,-2.84126,14.3753,-7.82909,-0.987071,5.56597e-14,6.04305e-14,81.2453,-16.2275,-4.87403,47.586,34.1966,16.1258,-4.85977,7.12502,40.9102,-29.8046,5.56597e-14,6.04305e-14,95.479,22.57,22.7473,44.975,-23.4622,-11.3807,1.89545,7.12502,14.6538,31.3577,-55.9888,-16.2699,27.1568,52.8284,-27.8325,-31.7972,29.731,-14.6505,8.38344,-33.4091,56.1881,-16.2788,28.8519,1.17
3.98653,15.8286,-4.91916,23.4171,74.2555,14.0407,-11.9439,-7.81112,-7.13468,-11.7635,-9.06628,10.1286,-3.23531,-3.58324,14.136,-3.89633,-12.2289,-12.3526,38.2922,-14.3907,-2.49894,14.7675,-7.82627,-0.827606,6.83819e-14,1.27222e-14,81.3711,-16.6674,-4.4476,48.2494,32.8321,16.3118,-6.14671,7.12502,41.085,-31.036,6.83819e-14,1.27222e-14,95.1528,23.3166,22.1171,45.0003,-23.4184,-11.2099,1.73121,7.12502,14.8183,31.1814,-55.2866,-16.908,27.6933,53.2193,-28.7251,-31.9492,33.181,-15.3408,10.0674,-32.7736,57.6989,-18.317,30.7092,-1.45094
4.06246,15.8179,-4.84763,22.9447,75.236,13.7733,-11.6956,-7.69523,-6.72149,-11.9177,-8.918,10.1089,-3.63733,-3.48696,13.9417,-3.99417,-12.043,-12.1694,38.4866,-14.1174,-2.46115,14.8477,-7.66626,-0.807535,-4.77083e-14,3.18055e-14,81.322,-16.8827,-3.74094,48.6581,30.8152,17.2636,-7.87084,7.12502,41.9779,-32.4683,-4.77083e-14,3.18055e-14,95.0986,23.422,21.6494,44.718,-23.3504,-10.5501,2.06872,7.12502,15.4539,31.471,-54.8769,-17.6488,28.1726,53.5584,-29.4278,-32.1804,33.8706,-16.3423,11.7108,-32.438,59.2433,-20.5041,33.244,2.06323
4.13654,15.8008,-4.77943,22.8777,76.1103,13.6555,-11.6516,-7.40596,-6.12647,-12.2496,-8.51933,9.80023,-4.25785,-3.25581,13.3384,-3.88768,-12.6887,-13.4718,38.8186,-15.1316,-1.78655,15.2926,-8.1768,-0.544017,2.14687e-14,0,80.5715,-16.9326,-2.66074,48.8156,28.9674,17.8522,-9.71607,7.12502,42.5293,-34.1263,2.14687e-14,0,95.7095,22.8689,21.6375,44.3218,-23.3885,-9.82945,3.38188,7.12502,16.1479,32.7292,-54.8065,-18.64,28.847,53.7618,-30.1932,-31.9662,33.8348,-17.7671,13.3676,-32.3326,60.8605,-23.9883,35.9825,5.77411
4.20829,15.7872,-4.70897,22.0101,76.9156,12.5276,-12.0763,-7.2864,-5.7354,-12.3256,-8.33269,9.89158,-4.19764,-3.16722,13.2014,-4.12355,-12.8279,-13.8233,38.9101,-15.3051,-1.60384,15.4715,-8.26276,-0.478307,0,5.725e-14,80.4149,-17.4026,-1.88838,49.1792,27.674,18.2558,-11.5269,7.12502,42.9069,-35.8057,0,5.725e-14,95.4132,23.3428,21.2986,44.5203,-22.5564,-8.7605,5.54879,7.12502,17.177,34.8096,-54.8831,-19.44,29.815,53.8351,-30.8331,-31.932,33.9417,-19.4662,14.9318,-32.188,62.4334,-28.0613,38.2406,2.77343
4.27745,15.7833,-4.6382,17.8198,77.8635,8.38182,-12.0209,-7.07788,-4.7099,-12.3637,-8.08326,10.039,-4.43486,-3.07005,12.8171,-4.20367,-13.0263,-14.2689,38.9569,-15.6041,-1.35046,15.6259,-8.40957,-0.380417,-6.12257e-14,3.18055e-15,80.1925,-17.662,-1.46728,49.484,26.7662,18.5,-12.9188,7.12502,43.1352,-37.1168,-6.12257e-14,3.18055e-15,95.6125,23.2727,21.2984,44.4245,-21.9917,-7.88431,7.30529,7.12502,18.0201,36.4905,-54.411,-20.1928,31.3744,53.7079,-30.948,-32.3894,33.2193,-20.8565,16.5955,-31.2533,63.994,-31.4221,39.6511,15.0841
4.34373,15.7816,-4.56635,11.7059,78.5951,2.69979,-11.4551,-6.9691,-3.54129,-12.3684,-7.99223,10.1598,-4.89025,-3.06386,12.3492,-4.07277,-12.9867,-14.2079,39.0427,-15.661,-1.10398,15.6626,-8.39105,-0.289392,8.50798e-14,4.77083e-14,80.2431,-17.5529,-1.77688,49.6814,26.2462,17.7323,-13.9078,7.12502,42.417,-38.3566,8.50798e-14,4.77083e-14,95.437,23.163,21.0163,44.4329,-21.7194,-6.62094,7.81537,7.12502,19.2354,36.8841,-53.4038,-20.7454,32.8355,53.4606,-30.8563,-33.0587,32.0908,-21.7932,18.5302,-29.9587,65.5073,-33.891,40.1496,19.5466
4.40183,15.7747,-4.49116,6.54389,78.9716,-2.05069,-11.0553,-6.72647,-2.8485,-12.203,-7.70482,10.2769,-5.05941,-2.95239,12.1479,-3.99461,-13.1229,-14.3976,38.8089,-15.9778,-0.732599,15.6197,-8.50491,-0.15305,-8.11041e-14,6.36111e-14,79.9812,-17.7855,-1.65912,49.9233,26.3539,17.1465,-14.6799,7.12502,41.8682,-39.314,-8.11041e-14,6.36111e-14,96.1452,23.0887,22.0256,44.1311,-22.2656,-4.89966,7.2205,7.12502,20.8898,36.1158,-52.2622,-20.4081,33.5297,53.2538,-32.6847,-32.8928,33.9615,-22.6223,20.46,-29.0655,66.8777,-35.9427,39.2003,24.4275
4.45504,15.7546,-4.42664,2.69831,79.0583,-5.7498,-10.9041,-6.51936,-2.37617,-12.141,-7.43705,10.4143,-5.17402,-2.83135,12.0765,-3.5764,-13.0617,-14.9383,38.5274,-16.095,-0.0116024,15.5497,-8.54343,0.237027,-2.8625e-14,-6.36111e-15,80.0898,-17.9139,-2.05114,49.8714,27.2363,17.5172,-14.5352,7.12502,42.2156,-39.0527,-2.8625e-14,-6.36111e-15,96.157,23.3412,22.3961,44.2483,-21.9846,-3.30087,7.40301,7.12502,22.4252,36.1212,-51.6671,-20.2012,34.3001,53.1857,-33.3583,-33.0982,33.953,-23.7812,21.9966,-28.6191,68.2024,-31.2664,40.2998,20.4708
4.50769,15.733,-4.36841,1.85659,79.09,-6.3958,-10.7858,-6.29825,-2.51286,-12.0475,-7.13643,10.4543,-5.18521,-2.66751,12.246,-3.42008,-13.1072,-15.9083,38.5089,-16.3011,0.7891,15.7549,-8.65698,0.666045,4.29375e-14,-1.59028e-14,80.4695,-18.2043,-2.88847,49.3057,28.7276,17.9343,-12.77,7.12502,42.6061,-37.1537,4.29375e-14,-1.59028e-14,94.9986,24.3877,21.8093,45.3469,-20.0203,-1.79772,8.35813,7.12502,23.8674,36.8952,-51.3343,-20.3631,34.6442,53.3009,-32.7928,-33.9527,31.7214,-24.9122,23.205,-28.6945,69.3766,-36.2421,35.6174,29.7908
4.55595,15.7192,-4.3103,2.07899,79.1728,-6.02329,-10.7173,-6.03955,-2.78256,-11.9664,-6.78328,10.3946,-5.19434,-2.47246,12.3807,-3.59094,-13.3223,-16.1185,38.4694,-16.5798,0.837759,15.8405,-8.78856,0.646739,2.22639e-14,1.27222e-14,80.6941,-18.6044,-3.76352,48.6399,30.3871,17.6465,-10.5168,7.12502,42.3367,-34.993,2.22639e-14,1.27222e-14,96.0405,23.7426,23.2786,44.7657,-20.6187,-0.81507,8.29618,7.12502,24.8095,36.7068,-51.0148,-20.1105,34.5433,53.5307,-33.3271,-34.4837,31.0323,-26.0936,24.4235,-29.0555,70.4419,-30.4245,36.1518,23.1456
4.60042,15.7002,-4.25534,1.36884,79.2141,-6.68484,-10.7084,-5.86235,-2.69677,-11.9199,-6.55173,10.3386,-5.21637,-2.36107,12.2898,-3.69095,-13.4493,-15.9409,38.3346,-16.7159,0.64825,15.7608,-8.84514,0.516031,9.38264e-14,-6.36111e-14,81.0006,-18.855,-4.68378,48.3582,31.0491,17.7609,-9.36133,7.12502,42.4438,-33.8009,9.38264e-14,-6.36111e-14,95.3638,24.2263,23.1698,45.4868,-19.8383,0.251174,8.34301,7.12502,25.8309,36.609,-50.8572,-19.917,34.737,53.8356,-33.8178,-34.7952,30.8237,-27.3045,25.4439,-29.2974,71.47,-27.1006,34.6619,18.6455
4.64331,15.6724,-4.1987,0.870954,79.2564,-7.1119,-10.7195,-5.82808,-2.82816,-11.8644,-6.50285,10.3876,-5.14288,-2.33066,12.4248,-3.87705,-13.6223,-15.7617,38.4878,-16.815,0.184237,15.8119,-8.91328,0.261449,3.02153e-14,-3.18055e-14,81.2927,-18.8772,-5.40843,48.5545,30.1415,18.1231,-9.73866,7.12502,42.7828,-34.0609,3.02153e-14,-3.18055e-14,94.9754,23.9732,22.9629,45.6369,-19.525,1.77025,7.90229,7.12502,27.2848,35.9482,-50.7269,-19.7977,34.9241,54.1791,-34.3147,-35.0246,30.6808,-28.3704,26.004,-29.5472,72.3917,-25.5415,32.2016,15.6115
4.68188,15.6464,-4.14265,0.790707,79.2059,-7.19099,-10.8316,-5.73817,-3.05411,-11.8041,-6.37704,10.3969,-5.02275,-2.25874,12.5698,-4.07223,-13.7805,-15.3963,38.7297,-16.8876,-0.364134,15.8694,-8.95293,-0.049613,3.18055e-14,2.8625e-14,81.2374,-18.7859,-5.99577,48.8122,28.8442,17.9062,-10.3681,7.12502,42.5798,-34.7608,3.18055e-14,2.8625e-14,93.4291,25.1469,21.7629,46.8382,-17.6355,2.60848,11.4063,7.12502,28.0864,39.3235,-50.6297,-19.1881,34.8907,54.5365,-35.526,-35.0619,31.1542,-29.549,26.4999,-29.9521,73.2663,-25.1781,29.2569,13.6131
4.71534,15.6202,-4.09173,0.418063,79.1596,-7.62598,-10.9305,-5.57895,-3.00491,-11.791,-6.16845,10.2846,-5.019,-2.15924,12.4249,-4.08952,-13.8969,-15.0863,38.8007,-17.0531,-0.534816,15.8589,-8.99849,-0.192911,-4.85035e-14,-6.99722e-14,81.0696,-18.6851,-6.63718,48.8861,28.3331,17.5466,-10.2161,7.12502,42.2431,-34.7242,-4.85035e-14,-6.99722e-14,93.6691,25.0182,22.538,46.7908,-18.2932,4.90877,10.7681,7.12502,30.2829,38.3037,-50.689,-18.7096,34.9881,54.9321,-36.3187,-35.1503,31.1641,-30.8092,26.6757,-30.3202,74.1049,-22.9385,26.8154,6.47575
4.74683,15.5943,-4.0426,0.0371567,79.1304,-8.07144,-11.12,-5.39984,-2.91881,-11.7206,-5.94404,10.1389,-4.91012,-2.06437,12.2076,-4.1475,-13.9629,-14.6543,38.7236,-17.1894,-0.614178,15.7701,-9.00759,-0.304026,1.27222e-14,-7.95139e-14,80.8508,-18.7398,-7.07034,48.8646,28.5373,17.741,-9.68164,7.12502,42.4251,-34.1276,1.27222e-14,-7.95139e-14,93.5558,25.1483,22.8132,47.0456,-17.9286,6.44919,10.2717,7.12502,31.7512,37.5272,-50.7863,-18.3614,35.1076,55.3427,-36.8217,-35.2591,30.4967,-31.9604,26.4313,-30.6279,74.8295,-21.8292,23.772,1.32011
4.77397,15.5699,-4.00411,0.619265,79.1034,-7.61556,-11.2783,-5.21486,-2.83384,-11.759,-5.70458,9.87563,-4.95052,-1.95445,11.8702,-3.91448,-14.2279,-14.4446,38.6074,-17.6358,-0.695649,15.6565,-9.18439,-0.419032,1.00187e-13,-7.63333e-14,80.3868,-18.642,-7.18604,48.8921,28.6513,18.3485,-9.42636,7.12502,42.9936,-33.6746,1.00187e-13,-7.63333e-14,93.1446,25.1708,22.4992,47.3974,-16.6769,7.17572,10.215,7.12502,32.4429,37.3312,-50.9703,-17.7738,34.9361,55.7594,-37.5873,-35.3818,30.4508,-33.0329,25.8058,-31.2123,75.3739,-21.2819,20.9077,-3.21336
4.79688,15.5476,-3.96599,0.978934,79.0543,-7.29007,-11.3728,-5.06785,-2.77995,-11.7179,-5.52416,9.67514,-4.91378,-1.87962,11.6165,-4.04895,-14.349,-13.9585,38.7165,-17.7579,-1.05339,15.6337,-9.21187,-0.660883,7.15625e-15,2.54444e-14,79.9652,-18.5859,-7.08358,49.054,28.7265,18.0618,-9.29866,7.12502,42.7255,-33.6409,7.15625e-15,2.54444e-14,92.9256,24.9922,22.3439,47.539,-15.2977,7.63866,10.5009,7.12502,32.8834,37.5256,-51.0199,-17.1587,34.7682,56.1381,-38.6882,-35.3247,31.4582,-33.8827,24.9635,-31.6201,75.8022,-21.2196,17.7168,-4.70607
4.81744,15.5241,-3.92749,-0.605171,79.0671,-8.84752,-11.4465,-4.99558,-2.47966,-11.5755,-5.46163,9.64856,-4.75472,-1.88317,11.3963,-4.11605,-14.4402,-13.551,38.6079,-17.8594,-1.32257,15.5059,-9.23942,-0.835464,-8.50798e-14,3.49861e-14,79.5586,-18.5336,-7.03525,49.5291,28.8931,17.764,-9.04542,7.12502,42.4467,-33.484,-8.50798e-14,3.49861e-14,92.6573,24.9412,22.2049,47.6158,-13.7023,7.86731,10.9273,7.12502,33.1009,37.9061,-50.9488,-17.0728,35.1743,56.4093,-39.005,-35.2598,31.6594,-34.6399,24.2861,-31.4932,76.2016,-20.2807,14.869,-8.45906
4.83529,15.5051,-3.89434,-1.63499,79.1833,-9.86327,-11.4862,-5.01073,-2.14904,-11.4953,-5.51698,9.54262,-4.6662,-1.94704,11.0614,-3.95593,-14.5573,-13.291,38.441,-18.0446,-1.48301,15.341,-9.3155,-0.938831,-4.69132e-14,4.77083e-14,79.051,-18.2533,-7.03279,50.171,29.1951,17.8976,-9.0213,7.12502,42.5717,-33.4168,-4.69132e-14,4.77083e-14,92.3326,24.9978,21.9046,47.6247,-11.6159,8.10575,11.1497,7.12502,33.3276,38.0803,-50.9064,-17.0062,35.4088,56.6062,-39.2739,-35.2299,31.8584,-35.3563,23.583,-31.5259,76.4234,-18.6508,12.8379,-15.9755
4.84833,15.5017,-3.86667,-3.17815,79.2256,-11.3649,-11.4127,-5.02269,-1.80043,-11.4233,-5.55932,9.57528,-4.64393,-1.99404,10.8875,-3.81918,-14.6131,-13.4552,38.3804,-18.1419,-1.41315,15.3219,-9.37438,-0.893791,3.10104e-14,3.18055e-14,78.5716,-17.9244,-6.6111,50.9092,29.4299,18.2287,-9.2901,7.12502,42.8815,-33.5778,3.10104e-14,3.18055e-14,91.7317,25.1179,21.6619,47.8742,-9.3787,8.22285,11.2453,7.12502,33.4389,38.1519,-50.6987,-16.401,35.4892,56.6731,-39.9953,-35.4312,32.4262,-35.8881,22.5551,-31.349,76.4654,-17.6252,10.3876,-20.8822
4.85785,15.5085,-3.846,-5.01848,79.2388,-13.1355,-11.271,-4.99788,-1.54723,-11.3396,-5.54267,9.67372,-4.64585,-2.0004,10.8572,-3.86957,-14.7712,-12.4855,38.1008,-18.2048,-2.33545,14.9364,-9.40664,-1.36397,4.05521e-14,2.54444e-14,77.9346,-17.6932,-5.59924,51.6664,29.1466,19.0418,-9.98287,7.12502,43.6414,-33.9982,4.05521e-14,2.54444e-14,91.3974,25.0811,21.9146,48.0267,-8.14454,8.57462,10.2308,7.12502,33.7732,37.0646,-50.4417,-15.9502,35.6581,56.6711,-40.5446,-35.6188,32.932,-36.2063,21.0833,-30.9316,76.3457,-17.6998,7.34776,-23.1091
