JuanDHNZ/ProyectoFinalCD/preprocessing/sports_trials_csv/05_14.csv
root1,root2,root3,root4,root5,root6,lowerback1,lowerback2,lowerback3,upperback1,upperback2,upperback3,thorax1,thorax2,thorax3,lowerneck1,lowerneck2,lowerneck3,upperneck1,upperneck2,upperneck3,head1,head2,head3,rclavicle1,rclavicle2,rhumerus1,rhumerus2,rhumerus3,rradius1,rwrist1,rhand1,rhand2,rfingers1,rthumb1,rthumb2,lclavicle1,lclavicle2,lhumerus1,lhumerus2,lhumerus3,lradius1,lwrist1,lhand1,lhand2,lfingers1,lthumb1,lthumb2,rfemur1,rfemur2,rfemur3,rtibia1,rfoot1,rfoot2,rtoes1,lfemur1,lfemur2,lfemur3,ltibia1,lfoot1,lfoot2,ltoes1
0.494596,16.4574,33.83,-152.745,0.483182,-175.632,-18.4145,1.31449,3.54749,-10.7228,3.43513,1.40349,-1.17241,2.58337,0.0411422,-13.9734,0.68725,-1.69701,34.832,-2.10232,1.13042,14.2953,-2.11584,0.131776,-1.17904e-14,-4.57205e-15,-46.501,5.01421,-82.5555,15.833,-1.79396,21.1231,7.49406,7.12502,45.5799,-15.7734,-1.17904e-14,-4.57205e-15,-52.6492,5.97358,70.1593,19.575,0.782744,28.1036,21.4737,7.12502,51.9942,41.5828,-44.1057,3.01049,36.6893,43.2524,-43.8026,-29.6937,35.935,-33.4539,28.1306,-25.1894,61.474,33.2508,40.3751,22.2684
0.492669,16.4537,33.8227,-152.768,0.414198,-175.532,-18.483,1.34302,3.66956,-10.6852,3.44687,1.43067,-1.09432,2.58474,0.00912442,-13.8853,0.688398,-1.74021,34.8963,-2.12546,1.14585,14.3058,-2.13934,0.140064,4.69877e-14,2.90226e-14,-46.5417,5.04483,-82.5591,15.8558,-1.67925,20.948,7.53401,7.12502,45.4172,-15.7993,4.69877e-14,2.90226e-14,-52.5893,6.11367,70.028,19.5259,0.804517,28.0348,21.6131,7.12502,51.9318,41.7592,-43.9685,2.8796,36.8399,43.2354,-44.5375,-29.5114,36.8868,-33.4388,28.2391,-25.1014,61.4633,33.6705,40.1056,21.1412
0.492756,16.4566,33.8147,-152.799,0.402234,-175.572,-18.4958,1.39174,3.65286,-10.6849,3.51362,1.37697,-1.08283,2.61727,-0.0256193,-13.7474,0.640519,-1.78523,34.9138,-2.21602,1.16293,14.2851,-2.1899,0.140113,5.46658e-15,-2.38542e-15,-46.6246,5.0479,-82.6333,15.8175,-1.73538,20.8939,7.56112,7.12502,45.3669,-15.7924,5.46658e-15,-2.38542e-15,-52.5446,6.15903,69.8528,19.419,0.714023,28.1366,21.6096,7.12502,52.0241,41.7009,-43.9247,2.99264,36.7177,43.2223,-44.8131,-29.7712,37.4687,-33.381,28.2962,-25.1462,61.4472,32.417,41.1264,23.2003
0.491973,16.4433,33.8118,-152.824,0.338895,-175.588,-18.4698,1.3897,3.62949,-10.6583,3.50836,1.40734,-1.06988,2.61425,0.0183011,-13.7358,0.632164,-1.94173,34.9887,-2.21932,1.20437,14.3187,-2.21296,0.181938,-3.37685e-14,-4.1546e-14,-46.585,4.92563,-82.4401,15.7843,-1.36711,21.1124,7.48885,7.12502,45.5699,-15.7827,-3.37685e-14,-4.1546e-14,-52.522,6.36298,69.729,19.3485,0.580352,28.0848,21.5456,7.12502,51.9771,41.6649,-43.8676,3.1366,36.6426,43.133,-44.8401,-29.5823,37.2942,-33.4008,28.2993,-25.1557,61.5338,30.7324,42.2696,25.5853
0.493708,16.4544,33.8042,-152.865,0.225889,-175.549,-18.3747,1.3653,3.69578,-10.6072,3.45061,1.44398,-1.06384,2.57608,0.00680079,-13.9501,0.640502,-2.03625,35.1268,-2.20376,1.25541,14.4323,-2.21248,0.217735,1.81515e-14,1.37161e-14,-46.4616,4.89116,-82.3464,15.7669,-1.18532,21.307,7.57967,7.12502,45.7506,-15.618,1.81515e-14,1.37161e-14,-52.3768,6.67327,69.5232,19.2361,0.46802,28.0845,21.7383,7.12502,51.9768,41.8577,-43.8069,3.06647,36.7481,43.2059,-44.5575,-29.056,37.1052,-33.3386,28.1893,-25.0514,61.5052,30.228,42.4334,26.0492
0.491946,16.444,33.802,-152.828,0.231267,-175.688,-18.3226,1.35613,3.57169,-10.6578,3.47102,1.39697,-1.14592,2.59288,0.0248899,-13.9703,0.631692,-1.99612,35.1592,-2.21183,1.19861,14.451,-2.21926,0.18532,3.14452e-14,2.32578e-14,-46.5278,4.95189,-82.3752,15.9229,-1.44074,21.7414,7.09242,7.12502,46.1538,-15.9378,3.14452e-14,2.32578e-14,-52.4326,6.55617,69.5914,19.3215,0.642408,28.0154,21.8781,7.12502,51.9142,42.0346,-43.8571,3.22868,36.5119,43.157,-44.8113,-29.4802,36.7938,-33.4299,28.1395,-25.2453,61.5618,30.8754,42.1555,25.548
0.48925,16.4552,33.7961,-152.822,0.211589,-175.669,-18.2347,1.38507,3.63808,-10.7298,3.52261,1.36808,-1.26418,2.61977,-0.0425113,-13.7951,0.66897,-1.84943,35.1957,-2.2023,1.11105,14.4251,-2.21916,0.124321,4.14963e-15,6.55989e-15,-46.692,5.20667,-82.6504,16.132,-1.97081,22.0342,6.60338,7.12502,46.4252,-16.312,4.14963e-15,6.55989e-15,-52.555,6.42555,69.5951,19.35,0.765005,27.8684,21.6616,7.12502,51.7807,41.8966,-43.8811,2.99537,36.6174,43.2697,-44.6112,-28.9023,37.429,-33.382,28.1804,-25.2687,61.4634,30.7803,42.285,25.7385
0.484355,16.4514,33.7907,-152.834,0.0839764,-175.67,-18.1196,1.41608,3.78454,-10.814,3.57012,1.30386,-1.40475,2.64032,-0.194888,-13.6214,0.698915,-1.84148,35.2755,-2.23363,1.18689,14.424,-2.23654,0.14669,1.87727e-14,1.80894e-14,-46.8211,5.12184,-82.6658,16.1457,-1.96816,22.1506,6.56859,7.12502,46.533,-16.3007,1.87727e-14,1.80894e-14,-52.6995,6.00287,69.8335,19.5386,1.20649,27.814,21.7261,7.12502,51.7313,41.99,-43.8655,2.79568,36.668,43.2566,-44.8297,-29.2216,36.8391,-33.3333,28.1207,-25.2441,61.4123,32.1249,41.2638,24.0069
0.478723,16.4532,33.7763,-153.022,-0.167746,-175.772,-17.9517,1.40201,3.85743,-10.8346,3.54709,1.21886,-1.50517,2.61896,-0.339521,-13.404,0.677135,-1.79148,35.2737,-2.31832,1.20167,14.3753,-2.27496,0.130699,-1.41758e-14,-8.15017e-15,-47.0021,5.02491,-82.7043,16.1176,-1.90514,21.8987,7.01444,7.12502,46.2996,-15.9543,-1.41758e-14,-8.15017e-15,-52.7767,5.61478,70.0143,19.6386,1.53307,27.8071,21.6906,7.12502,51.725,41.9582,-43.7089,2.18011,36.8102,43.3125,-44.0815,-29.3389,35.4424,-32.9418,27.9434,-25.1224,61.274,32.2265,41.0901,23.9618
0.4776,16.447,33.7691,-153.275,-0.273358,-175.831,-17.656,1.41979,3.87636,-10.8657,3.57357,1.13956,-1.68306,2.6205,-0.447524,-13.1517,0.632139,-1.67844,35.3235,-2.46471,1.17181,14.3425,-2.34502,0.0738632,-6.58474e-15,-8.54774e-15,-47.2208,4.92882,-82.7682,16.0918,-1.92824,21.616,7.4817,7.12502,46.0375,-15.5972,-6.58474e-15,-8.54774e-15,-52.8777,5.20033,70.1947,19.6927,1.8038,27.7341,21.7097,7.12502,51.6587,42.0159,-43.3335,2.35901,36.6226,43.2414,-44.9814,-28.5452,35.9069,-32.5642,27.8544,-24.9974,61.2325,31.5646,41.508,24.6555
0.471146,16.4526,33.7491,-153.412,-0.567775,-175.572,-17.8473,1.48063,4.30675,-10.6759,3.542,1.19549,-1.36899,2.57857,-0.614022,-13.1618,0.594555,-1.67662,35.2579,-2.49905,1.16725,14.3153,-2.35229,0.0687541,-2.36181e-14,7.7526e-15,-47.0698,4.83664,-82.6844,16.1103,-1.87478,21.4888,7.77317,7.12502,45.9194,-15.3548,-2.36181e-14,7.7526e-15,-52.7066,5.10086,70.376,19.748,1.9747,27.6061,21.7447,7.12502,51.5424,42.1182,-43.1213,1.7445,37.1199,43.2412,-44.6101,-28.6217,36.0961,-32.2897,27.7322,-24.5308,61.1821,31.494,41.5311,24.2889
0.467946,16.4404,33.7453,-153.461,-0.576293,-175.52,-17.9054,1.54667,4.41736,-10.6017,3.59084,1.1879,-1.2523,2.59336,-0.668522,-13.0262,0.578613,-1.74809,35.2139,-2.53836,1.24331,14.267,-2.37124,0.10799,7.83957e-15,4.96962e-15,-47.0575,4.6946,-82.5304,16.2602,-1.81576,21.6623,7.6753,7.12502,46.0804,-15.3857,7.83957e-15,4.96962e-15,-52.576,5.32399,70.1596,19.5784,1.6935,27.6961,21.4553,7.12502,51.6242,41.7815,-42.9961,1.81,37.1057,43.1342,-45.0577,-28.6298,36.8662,-32.2587,27.6845,-24.4656,61.2701,31.1789,41.6461,24.2738
0.467799,16.4466,33.7451,-153.282,-0.529019,-175.414,-17.9538,1.62475,4.54096,-10.7153,3.71624,1.16895,-1.34216,2.66412,-0.739405,-12.7434,0.568657,-1.78109,35.2337,-2.6127,1.29472,14.2148,-2.41768,0.123044,-1.30949e-14,-1.86858e-14,-47.2912,4.72482,-82.5863,16.4578,-1.99814,21.8846,7.32951,7.12502,46.2865,-15.6447,-1.30949e-14,-1.86858e-14,-52.651,5.39606,69.9403,19.5059,1.45841,27.7902,21.3645,7.12502,51.7097,41.641,-43.2031,1.75781,37.2846,43.1655,-44.4218,-28.5169,36.002,-32.5099,27.6965,-24.491,61.2881,30.9734,41.7062,24.504
0.473597,16.4352,33.7547,-153.085,-0.382806,-175.357,-17.9466,1.67191,4.46692,-10.8225,3.82491,1.17872,-1.46231,2.73282,-0.675645,-12.6239,0.561921,-1.70368,35.2424,-2.63162,1.20392,14.1898,-2.43423,0.0698012,9.20621e-15,8.74653e-15,-47.3282,4.80532,-82.6344,16.4738,-2.00903,22.0853,7.27068,7.12502,46.4725,-15.6245,9.20621e-15,8.74653e-15,-52.7202,5.33319,69.949,19.5948,1.45963,27.8583,21.5769,7.12502,51.7715,41.8173,-43.4133,2.19053,37.2305,43.0764,-44.4108,-29.6362,34.3616,-32.8857,27.7977,-24.6006,61.4011,30.6147,41.9444,25.1423
0.473387,16.4439,33.744,-153.124,-0.279263,-175.304,-17.941,1.76158,4.52101,-10.7755,3.91841,1.14922,-1.40561,2.77078,-0.718778,-12.6455,0.556509,-1.59426,35.2666,-2.63856,1.11202,14.2032,-2.43427,0.0116654,-1.06847e-15,2.78299e-15,-47.2455,4.83362,-82.7051,16.3526,-1.99986,21.9445,7.48795,7.12502,46.342,-15.4628,-1.06847e-15,2.78299e-15,-52.6426,5.65203,69.5692,19.4571,1.02618,28.0844,21.5519,7.12502,51.9767,41.6714,-43.3081,2.1378,37.2911,43.1119,-44.3151,-28.7171,34.9493,-32.7627,27.9111,-24.5614,61.3371,30.4399,42.0669,25.1551
0.464107,16.4445,33.7238,-153.44,-0.337457,-175.129,-17.7935,1.82889,4.83436,-10.5951,3.90743,1.21637,-1.27693,2.73271,-0.824254,-12.7682,0.589864,-1.66276,35.3049,-2.55438,1.0996,14.2473,-2.40461,0.0305109,-9.06955e-16,-2.04748e-14,-47.0473,4.92266,-82.658,16.0965,-1.88485,21.4467,8.18268,7.12502,45.8804,-14.9615,-9.06955e-16,-2.04748e-14,-52.6082,5.84376,69.553,19.4022,1.03495,27.9768,21.3995,7.12502,51.8791,41.5767,-42.8476,1.81456,37.5116,43.0496,-44.3174,-28.5308,34.7116,-32.2334,27.9398,-24.1946,61.2674,30.11,42.0372,25.0555
0.459908,16.4435,33.7089,-153.266,-0.254734,-175.053,-18.0002,1.82602,4.95144,-10.5694,3.88017,1.29009,-1.14626,2.72291,-0.802802,-12.9441,0.711416,-1.73433,35.4,-2.35441,1.11804,14.3276,-2.3244,0.0787076,1.26104e-14,3.77691e-15,-46.8812,5.30578,-82.7942,15.954,-1.98736,21.1187,8.49505,7.12502,45.5758,-14.7741,1.26104e-14,3.77691e-15,-52.6588,6.19189,69.4566,19.3843,0.965643,27.9832,21.2584,7.12502,51.8849,41.4322,-42.9634,1.75607,37.5859,43.0527,-44.222,-28.3449,34.759,-32.3433,28.0384,-24.2563,61.1749,29.7355,42.1834,25.3691
0.460497,16.4443,33.6976,-153.161,-0.206116,-175.179,-18.1464,1.78372,4.81659,-10.5661,3.83981,1.28082,-1.07402,2.71215,-0.735154,-12.9173,0.745531,-1.73511,35.3757,-2.30191,1.12262,14.3091,-2.30098,0.0897532,-2.28851e-14,-6.36111e-15,-46.8426,5.3733,-82.771,16.0248,-1.96734,21.2488,8.19519,7.12502,45.6966,-15.0246,-2.28851e-14,-6.36111e-15,-52.7697,6.14079,69.5423,19.4926,1.19739,27.9456,21.393,7.12502,51.8508,41.5868,-43.0218,1.95081,37.3701,43.0354,-44.4053,-28.4359,34.4563,-32.3795,28.0633,-24.4485,61.0818,29.3356,42.4819,25.7025
0.461467,16.4454,33.6891,-153.029,-0.255358,-175.157,-18.2885,1.80604,4.8203,-10.5011,3.8484,1.28363,-0.930278,2.71629,-0.720662,-13.2063,0.665442,-1.76632,35.3572,-2.36686,1.13206,14.3685,-2.31313,0.0893752,-3.89494e-14,-1.49089e-14,-46.705,5.56432,-82.9098,16.2749,-2.34869,21.6037,7.50597,7.12502,46.026,-15.5777,-3.89494e-14,-1.49089e-14,-52.603,6.20319,69.5495,19.4868,1.16796,28.076,21.5521,7.12502,51.9691,41.6761,-43.1229,1.99854,37.3921,43.0318,-44.3872,-28.5248,34.1567,-32.5344,28.0952,-24.4783,61.0447,30.1907,41.9731,24.6224
0.465419,16.4433,33.6845,-152.968,-0.235553,-175.164,-18.265,1.82073,4.70134,-10.3521,3.83463,1.29995,-0.784461,2.69937,-0.633042,-13.9012,0.631575,-1.73203,35.494,-2.33974,1.08512,14.5898,-2.27505,0.0637637,-1.44616e-14,-7.95139e-15,-46.2542,5.47071,-82.7725,16.3308,-2.32673,21.92,7.07464,7.12502,46.3193,-15.8857,-1.44616e-14,-7.95139e-15,-52.2573,6.46747,69.4971,19.4179,1.0219,28.0865,21.6161,7.12502,51.9786,41.7344,-43.1712,2.18397,37.338,43.0438,-44.5193,-28.5911,34.1556,-32.6098,28.1022,-24.5238,61.0324,29.9841,42.1122,27.1204
0.472389,16.4387,33.6846,-152.858,-0.201802,-175.133,-18.0904,1.82709,4.61111,-10.441,3.88432,1.28816,-0.970823,2.72945,-0.601701,-14.0331,0.607225,-1.68874,35.5317,-2.40498,1.15266,14.6399,-2.28348,0.0719545,1.44119e-15,2.98177e-15,-46.2425,5.41248,-82.8011,16.3621,-2.32475,22.0067,7.15302,7.12502,46.3997,-15.7732,1.44119e-15,2.98177e-15,-52.291,6.45588,69.4225,19.4785,0.846257,28.1942,21.6324,7.12502,52.0764,41.6926,-43.266,2.63947,37.263,43.0401,-44.7923,-28.7245,34.4429,-32.8129,28.1691,-24.5649,61.0647,30.5384,41.9113,25.8818
0.478403,16.4369,33.6887,-152.621,-0.0994904,-175.068,-18.0815,1.87366,4.5942,-10.6204,4.00787,1.26954,-1.16652,2.80889,-0.600711,-13.7619,0.60479,-1.62017,35.5206,-2.4709,1.16223,14.5733,-2.31459,0.0538061,-2.83392e-14,-1.72943e-14,-46.3515,5.31646,-82.7888,16.2233,-2.23606,21.7389,7.6092,7.12502,46.1514,-15.422,-2.83392e-14,-1.72943e-14,-52.4323,6.1855,69.568,19.5152,0.865583,28.1626,21.5711,7.12502,52.0477,41.6483,-43.4824,3.20769,37.1483,43.0142,-45.2889,-28.5578,35.2586,-33.2225,28.3503,-24.6735,61.1534,30.9756,41.6406,25.2386
0.480563,16.4373,33.689,-152.479,-0.0463514,-175.051,-18.1514,1.8819,4.5561,-10.6124,4.02285,1.30501,-1.12589,2.82169,-0.534756,-13.7645,0.614443,-1.60964,35.5615,-2.43939,1.07553,14.5908,-2.31427,0.0202551,-3.04762e-14,-2.34566e-14,-46.1929,5.51092,-82.8407,16.1229,-2.30622,21.5437,7.65943,7.12502,45.9703,-15.4475,-3.04762e-14,-2.34566e-14,-52.396,6.34025,69.5699,19.4583,0.770812,28.239,21.5741,7.12502,52.117,41.61,-43.5866,3.46358,37.0683,42.9959,-45.6591,-28.2039,36.0643,-33.4449,28.419,-24.7654,61.1988,30.8512,41.7546,25.4271
0.479957,16.4324,33.6863,-152.403,-0.0531094,-174.921,-18.1865,1.93018,4.71472,-10.5524,4.0456,1.33108,-1.03732,2.82377,-0.586357,-14.0372,0.601303,-1.642,35.7341,-2.45068,1.05015,14.7349,-2.32657,0.00749922,4.38693e-14,1.07344e-14,-45.9469,5.28416,-82.6343,15.9838,-1.96403,21.6544,7.61062,7.12502,46.0731,-15.4534,4.38693e-14,1.07344e-14,-52.2105,6.65337,69.4135,19.2772,0.562257,28.0637,21.5206,7.12502,51.958,41.6511,-43.64,3.46214,37.2122,42.953,-45.527,-28.2203,36.0836,-33.5663,28.4706,-24.689,61.2359,29.9504,42.4132,26.4215
0.480434,16.435,33.6772,-152.406,0.111913,-174.949,-18.1251,1.98798,4.66266,-10.5695,4.13054,1.27913,-1.08159,2.86425,-0.601887,-14.0732,0.583987,-1.68248,35.8342,-2.51908,1.12546,14.7937,-2.35798,0.03094,-1.14736e-14,-9.34288e-15,-46.0663,5.41738,-82.8055,16.0919,-2.2031,21.53,7.54652,7.12502,45.9576,-15.5656,-1.14736e-14,-9.34288e-15,-52.242,6.77561,69.2593,19.1813,0.398815,27.9623,21.2767,7.12502,51.866,41.4616,-43.5566,3.52871,37.1367,42.917,-45.5674,-28.3013,35.5115,-33.5022,28.6119,-24.818,61.1678,29.8161,42.4571,26.5144
0.477432,16.4326,33.6632,-152.418,0.400708,-175.141,-18.0976,2.06932,4.46643,-10.6356,4.27868,1.14542,-1.15932,2.94365,-0.612524,-13.912,0.567086,-1.68477,35.8966,-2.61682,1.20054,14.7894,-2.40414,0.0444045,3.34952e-14,4.77083e-15,-46.2472,5.41216,-82.9114,16.0933,-2.34707,21.5436,7.45861,7.12502,45.9703,-15.6483,3.34952e-14,4.77083e-15,-52.3702,6.55837,69.2948,19.1849,0.320459,27.9874,21.4582,7.12502,51.8887,41.6298,-43.449,3.61631,36.7672,42.8705,-45.688,-27.9518,36.0541,-33.3503,28.7202,-25.164,61.0198,30.6699,41.8813,25.3579
0.472206,16.4321,33.6499,-152.327,0.444507,-175.009,-18.1832,2.19081,4.72684,-10.6707,4.413,1.08281,-1.13258,3.00438,-0.796137,-13.8553,0.552558,-1.58934,35.9181,-2.66549,1.15914,14.7858,-2.42131,0.00205996,-2.34628e-14,-2.22639e-14,-46.2762,5.19333,-82.8756,15.9978,-2.269,21.5382,7.48209,7.12502,45.9652,-15.6269,-2.34628e-14,-2.22639e-14,-52.4029,6.29997,69.4436,19.1739,0.239768,27.7834,21.7574,7.12502,51.7035,42.0375,-43.418,3.37667,36.9367,42.7915,-45.6169,-27.3537,36.0941,-33.3785,28.8248,-25.1051,60.9688,30.516,41.9729,25.6396
0.473392,16.4348,33.6292,-153.021,-0.273535,-175.318,-17.7503,1.99868,4.63216,-10.4437,4.10186,1.02754,-1.11682,2.814,-0.870743,-13.7774,0.514298,-1.48705,35.8577,-2.72164,1.09457,14.738,-2.43723,-0.0491259,3.95706e-15,8.54774e-15,-46.3497,5.31324,-83.0868,16.1299,-2.73976,21.3389,7.60487,7.12502,45.7803,-15.5806,3.95706e-15,8.54774e-15,-52.318,6.13892,69.5676,19.1396,0.12925,27.7428,21.9048,7.12502,51.6666,42.2064,-42.6343,3.20645,36.7422,42.7448,-46.4615,-27.4606,36.7333,-32.3055,28.2378,-24.5682,60.8198,29.9092,42.2613,27.042
0.474997,16.435,33.6349,-152.552,0.389847,-175.001,-17.9151,2.28098,4.73692,-10.6153,4.51294,1.03307,-1.1987,3.03739,-0.851644,-13.5459,0.493559,-1.51469,35.7974,-2.78419,1.15464,14.6588,-2.46644,-0.0266784,-3.10725e-14,-1.90833e-14,-46.4836,5.28897,-83.1002,16.2629,-2.83881,21.1469,7.6178,7.12502,45.602,-15.6407,-3.10725e-14,-1.90833e-14,-52.3848,5.84841,69.8582,19.1864,0.346258,27.5874,21.7587,7.12502,51.5254,42.142,-43.0315,3.46275,36.9273,42.6728,-45.9295,-27.654,34.8791,-32.9393,28.751,-24.8662,60.8279,28.6608,43.0154,27.9951
0.475754,16.436,33.625,-152.793,0.126903,-175.253,-17.7254,2.1835,4.54693,-10.569,4.39563,0.981969,-1.25374,2.97329,-0.829777,-13.3205,0.479951,-1.49186,35.7384,-2.84372,1.19627,14.581,-2.48996,-0.0202832,4.95719e-15,-2.5842e-15,-46.5181,4.86179,-82.7731,16.2416,-2.25102,21.4636,7.40014,7.12502,45.896,-15.7376,4.95719e-15,-2.5842e-15,-52.4611,5.60993,70.0276,19.2816,0.450848,27.7373,21.537,7.12502,51.6616,41.8416,-42.7919,3.22257,36.7672,42.665,-46.1736,-27.8878,34.678,-32.5258,28.4276,-24.8266,60.6863,28.7401,43.0946,28.3732
0.474336,16.4342,33.6174,-152.899,0.0238177,-175.257,-17.6214,2.16168,4.57534,-10.579,4.36819,0.992748,-1.31854,2.95665,-0.846591,-13.076,0.499256,-1.42011,35.6918,-2.85802,1.1933,14.5025,-2.49649,-0.0340305,-5.88775e-14,-4.96962e-14,-46.5597,4.40284,-82.3791,16.1191,-1.52871,21.7006,7.26024,7.12502,46.1159,-15.7859,-5.88775e-14,-4.96962e-14,-52.6187,5.4469,70.162,19.4022,0.54796,28.0166,21.3403,7.12502,51.9153,41.4961,-42.6404,3.03704,36.8371,42.6187,-46.0563,-27.7282,34.6221,-32.3407,28.2746,-24.7199,60.6217,28.5916,43.3504,28.4324
0.471875,16.4322,33.6092,-152.831,0.00327802,-175.128,-17.6686,2.18393,4.7587,-10.6223,4.38911,1.01881,-1.33539,2.96717,-0.917257,-12.8738,0.524217,-1.37231,35.6575,-2.85324,1.18585,14.4394,-2.49793,-0.0429927,-2.86871e-14,-9.93923e-16,-46.7295,4.70769,-82.6337,16.2481,-1.90546,21.7406,7.14949,7.12502,46.153,-15.8811,-2.86871e-14,-9.93923e-16,-52.7869,5.30758,70.2771,19.5211,0.56335,28.1253,21.4709,7.12502,52.0139,41.5683,-42.6375,3.13584,36.938,42.5929,-45.8196,-28.1198,34.8797,-32.3697,28.2855,-24.6222,60.5533,28.2536,43.6934,28.4294
0.469782,16.4331,33.6029,-152.748,0.00370494,-174.987,-17.6308,2.20766,4.93538,-10.6692,4.41409,1.05362,-1.4004,2.97739,-0.980291,-12.8227,0.547442,-1.38587,35.6732,-2.84148,1.22211,14.4355,-2.49456,-0.0244,1.73253e-14,-5.76476e-15,-46.6839,4.76364,-82.6432,16.1777,-2.05086,21.8546,7.11196,7.12502,46.2587,-15.8741,1.73253e-14,-5.76476e-15,-52.9119,5.27468,70.3461,19.614,0.562515,28.1387,21.626,7.12502,52.026,41.7161,-42.6259,3.25212,37.0423,42.5471,-46.0892,-27.7737,35.874,-32.4331,28.261,-24.5271,60.5111,27.4633,44.318,29.3237
0.468066,16.4361,33.5957,-152.691,0.0679093,-175.087,-17.6282,2.20899,4.88049,-10.6939,4.42722,0.9956,-1.42567,2.98487,-1.00994,-12.7572,0.521864,-1.50671,35.7076,-2.92911,1.37562,14.443,-2.53599,0.044465,-2.63825e-14,-1.21259e-14,-46.6817,4.84467,-82.7571,16.2233,-2.26648,21.7433,7.0626,7.12502,46.1555,-15.9669,-2.63825e-14,-1.21259e-14,-52.9574,5.1834,70.4564,19.6497,0.723187,28.0351,21.8114,7.12502,51.932,41.9573,-42.6862,3.123,36.9627,42.5611,-46.0889,-27.5999,35.5199,-32.3884,28.1462,-24.6909,60.3767,25.0268,45.717,31.4585
0.467741,16.4394,33.5917,-152.335,0.469403,-175.105,-17.8929,2.32177,4.76544,-10.7916,4.61731,0.92795,-1.38847,3.09954,-0.972046,-12.5458,0.490617,-1.59816,35.6815,-3.0504,1.55991,14.3903,-2.58696,0.117946,-1.21631e-14,-8.54774e-15,-46.7419,4.67679,-82.661,16.2788,-2.15364,21.7587,7.07422,7.12502,46.1697,-15.9493,-1.21631e-14,-8.54774e-15,-53.0074,5.2306,70.4044,19.5625,0.538422,28.0273,21.6529,7.12502,51.925,41.803,-43.0326,3.24698,36.8401,42.5797,-45.7555,-27.2628,34.8843,-32.7704,28.279,-25.118,60.2576,23.8371,46.4416,32.6451
0.465357,16.4454,33.5745,-152.543,0.357146,-175.483,-17.8553,2.20654,4.45842,-10.6443,4.45554,0.877779,-1.26269,3.0125,-0.874979,-12.4351,0.49892,-1.55793,35.5086,-2.98074,1.47409,14.281,-2.55384,0.0930926,-1.70147e-14,-1.63003e-14,-46.6571,4.58561,-82.5071,16.4186,-2.11772,21.8582,6.90021,7.12502,46.262,-16.0844,-1.70147e-14,-1.63003e-14,-52.9761,5.39282,70.4151,19.5374,0.393754,28.0145,21.6277,7.12502,51.9134,41.7847,-42.8164,3.11727,36.4478,42.6139,-45.8655,-27.8595,34.0425,-32.3052,27.9966,-25.29,59.9981,25.1007,45.9551,31.2564
0.461426,16.446,33.5649,-152.296,0.582419,-175.348,-18.0738,2.25297,4.56806,-10.5763,4.47958,0.967199,-1.07853,3.02467,-0.819057,-12.5354,0.562873,-1.47166,35.4583,-2.81393,1.29931,14.2723,-2.48348,0.0343602,1.04238e-14,-2.00773e-14,-46.3354,4.91816,-82.563,16.3749,-2.39108,21.954,6.68538,7.12502,46.3508,-16.2616,1.04238e-14,-2.00773e-14,-52.8348,5.99039,70.2413,19.3694,0.026902,27.8107,21.5832,7.12502,51.7283,41.8489,-42.9803,2.98288,36.5806,42.585,-45.4694,-27.797,33.3338,-32.529,28.2053,-25.4205,59.8624,24.7312,46.3574,31.6489
0.458593,16.4386,33.5477,-152.745,0.169303,-175.424,-17.7979,2.08094,4.65022,-10.3437,4.16984,1.06799,-0.982273,2.83912,-0.818022,-12.6967,0.660078,-1.55088,35.5357,-2.65437,1.32758,14.3424,-2.41981,0.0818425,-6.21761e-14,-3.67752e-14,-46.1471,5.25933,-82.6566,16.4317,-2.49447,21.8686,6.64481,7.12502,46.2717,-16.3357,-6.21761e-14,-3.67752e-14,-52.7638,6.41121,70.1801,19.2019,-0.136164,27.6098,21.6883,7.12502,51.5458,42.0599,-42.3241,3.01906,36.495,42.5022,-46.7112,-27.0656,34.8027,-31.8132,27.8847,-24.9698,59.7185,24.3158,46.7163,30.9786
0.457083,16.4405,33.5409,-152.648,0.225292,-175.263,-17.8053,2.09806,4.80304,-10.2443,4.13953,1.14423,-0.870823,2.8121,-0.822538,-13.1512,0.709174,-1.61906,35.6654,-2.556,1.39709,14.5063,-2.36328,0.132947,5.55355e-15,3.4191e-14,-45.7714,5.24027,-82.5421,16.3304,-2.13813,21.8004,6.71797,7.12502,46.2085,-16.2893,5.55355e-15,3.4191e-14,-52.5267,6.80041,70.0886,19.0092,-0.389479,27.527,21.6642,7.12502,51.4705,42.0792,-42.3363,3.22359,36.5986,42.4174,-46.998,-27.3466,33.6446,-31.9008,27.8323,-24.8611,59.6326,24.1449,46.7472,32.2688
0.454754,16.4406,33.5319,-152.626,0.258837,-175.178,-17.6864,2.1648,4.93492,-10.1291,4.16827,1.09618,-0.794743,2.80368,-0.942727,-13.8139,0.662224,-1.54561,35.8567,-2.6113,1.40803,14.7499,-2.35418,0.108609,-1.11195e-15,-2.22639e-14,-45.441,5.13202,-82.5855,16.3825,-1.96667,21.8967,6.53293,7.12502,46.2977,-16.4366,-1.11195e-15,-2.22639e-14,-52.2033,6.80042,70.1593,18.9275,-0.372389,27.4303,21.7084,7.12502,51.3826,42.1737,-42.2388,3.22062,36.6725,42.3076,-46.5229,-27.135,34.348,-31.8334,27.7677,-24.7609,59.5282,25.19,46.2496,31.5951
0.455411,16.4444,33.5227,-152.608,0.427554,-175.25,-17.588,2.1972,4.88018,-10.0975,4.19996,0.994402,-0.802773,2.80836,-1.01792,-14.0275,0.681806,-1.36786,35.9602,-2.61805,1.35526,14.8461,-2.3371,0.0504351,4.12727e-14,1.27222e-14,-45.3354,5.31592,-82.9085,16.4617,-2.20152,21.9408,6.28834,7.12502,46.3386,-16.6639,4.12727e-14,1.27222e-14,-52.0768,6.92231,70.0034,18.8251,-0.561581,27.2026,21.456,7.12502,51.1753,42.039,-42.223,3.30538,36.5301,42.2919,-46.3577,-27.5576,33.3372,-31.6936,27.6965,-24.8412,59.3359,26.605,45.7236,30.09
0.453154,16.4439,33.5147,-152.546,0.476515,-175.229,-17.6179,2.22225,4.95815,-10.1142,4.22436,0.949436,-0.797653,2.81759,-1.10322,-13.7958,0.719605,-1.30151,35.8546,-2.60706,1.41349,14.7425,-2.31957,0.0683321,2.09283e-14,-5.36719e-15,-45.2963,5.17216,-82.8909,16.5804,-2.0996,22.1871,6.07589,7.12502,46.5668,-16.7788,2.09283e-14,-5.36719e-15,-52.0196,7.10042,69.7612,18.6215,-0.888961,27.2899,21.2858,7.12502,51.2548,41.8239,-42.222,3.17813,36.5821,42.2468,-46.1743,-27.8532,32.1693,-31.6587,27.5761,-24.7849,59.175,27.9639,45.1643,29.239
0.450032,16.4512,33.5019,-152.623,0.499929,-175.427,-17.602,2.18291,4.81502,-10.0761,4.17566,0.881014,-0.767069,2.79039,-1.10247,-13.6366,0.783649,-1.21123,35.8515,-2.57133,1.44091,14.7031,-2.29702,0.0697802,1.24831e-14,-9.74045e-15,-45.3127,5.23019,-82.9767,16.6581,-2.1027,22.2823,5.96029,7.12502,46.6549,-16.8565,1.24831e-14,-9.74045e-15,-52.0294,7.20003,69.6471,18.5149,-1.06793,27.201,20.9947,7.12502,51.1738,41.5786,-42.1121,3.19317,36.3145,42.2754,-46.229,-28.0887,31.3864,-31.3731,27.4047,-24.8636,58.9292,30.0034,44.1112,27.5813
0.447943,16.4474,33.4949,-152.506,0.667854,-175.374,-17.7107,2.22376,4.83882,-10.1004,4.23164,0.883156,-0.734449,2.82293,-1.09805,-13.3708,0.793771,-1.16113,35.8357,-2.60751,1.42805,14.6344,-2.32224,0.0502178,2.20496e-14,-6.75868e-15,-45.1968,5.05718,-82.8216,16.4176,-1.68912,22.11,6.41462,7.12502,46.4954,-16.4707,2.20496e-14,-6.75868e-15,-52.0843,7.1642,69.6958,18.5226,-1.0711,27.096,20.9341,7.12502,51.0782,41.5717,-42.1553,3.34516,36.2814,42.2255,-46.2201,-27.9382,31.1917,-31.3911,27.3194,-24.8574,58.8351,29.2923,44.4625,28.3654
0.445043,16.4449,33.4748,-152.8,0.484933,-175.577,-17.612,2.06028,4.72317,-9.97806,3.9935,0.91668,-0.670392,2.69419,-1.03956,-13.1682,0.863438,-1.13721,35.8334,-2.51266,1.34301,14.5828,-2.30311,0.0261302,1.93194e-15,-1.33186e-14,-45.0671,5.45871,-83.0314,16.1988,-1.77616,21.5672,6.85663,7.12502,45.9921,-16.2412,1.93194e-15,-1.33186e-14,-52.1893,7.41596,69.6249,18.5034,-1.20606,26.9066,21.3288,7.12502,50.9056,42.0628,-41.7551,3.38456,36.0428,42.2138,-46.7166,-28.0186,31.4071,-30.7718,26.9558,-24.6409,58.6957,29.3568,44.104,28.0168
0.442593,16.4412,33.4774,-152.532,0.845763,-175.342,-17.6018,2.15479,4.92807,-10.0106,4.09533,0.955973,-0.700712,2.73991,-1.0973,-13.3612,0.957005,-1.17182,35.9933,-2.4132,1.41655,14.7021,-2.25982,0.0728425,-1.1837e-14,1.19271e-15,-44.8552,5.815,-83.2803,16.179,-1.98907,21.4457,6.9462,7.12502,45.8794,-16.1984,-1.1837e-14,1.19271e-15,-52.1268,7.78507,69.4157,18.4368,-1.50944,26.7777,21.3378,7.12502,50.7881,42.1367,-41.9141,4.17045,35.9724,42.1513,-47.1142,-27.8317,31.4071,-31.1511,26.9154,-24.64,58.7388,30.2599,43.2657,26.345
0.434328,16.4506,33.4669,-152.556,1.02459,-175.218,-17.4696,2.21262,5.15552,-9.91629,4.10862,0.989937,-0.658008,2.72557,-1.18949,-13.5869,1.04707,-1.2819,36.1479,-2.30854,1.54343,14.8283,-2.21486,0.156779,3.82692e-14,1.66979e-14,-44.593,5.9225,-83.2571,16.1865,-1.92228,21.3455,7.14071,7.12502,45.7864,-16.0423,3.82692e-14,1.66979e-14,-51.9812,8.35695,69.0932,18.2321,-1.97897,26.9631,21.1587,7.12502,50.9571,41.864,-41.8895,3.98718,36.1454,42.1283,-46.2374,-28.8403,28.4975,-31.0765,26.8732,-24.5236,58.6898,33.7722,40.4326,21.3037
0.431796,16.4539,33.4466,-152.42,1.16534,-175.358,-17.7361,2.19559,5.0411,-9.90287,4.09245,0.964534,-0.510607,2.72775,-1.13759,-13.4382,1.05997,-1.30525,36.1385,-2.30338,1.53204,14.789,-2.22647,0.156846,-4.12478e-15,-1.5704e-14,-44.4426,5.77585,-83.0663,16.0092,-1.66259,21.3678,7.28368,7.12502,45.8071,-15.8908,-4.12478e-15,-1.5704e-14,-51.9529,8.77628,68.7875,18.0269,-2.42251,26.9907,20.8358,7.12502,50.9822,41.5271,-41.8932,3.95495,35.944,42.0742,-46.4292,-28.2486,29.2808,-31.1077,26.8133,-24.6916,58.7139,34.9803,38.8686,20.0768
0.425981,16.4561,33.4288,-152.617,1.07061,-175.482,-17.7317,2.16673,5.04661,-9.78852,4.0162,0.918599,-0.388445,2.67719,-1.19666,-13.2083,1.08094,-1.26262,36.1277,-2.33902,1.57836,14.7319,-2.24216,0.162704,8.01351e-15,1.43125e-14,-44.4075,5.66419,-83.0304,15.9316,-1.65085,21.2256,7.32211,7.12502,45.675,-15.9065,8.01351e-15,1.43125e-14,-51.9094,8.80181,68.7753,17.9647,-2.50495,26.7136,20.7763,7.12502,50.7296,41.6074,-41.6301,3.78708,35.8471,42.0623,-46.3976,-28.2391,29.1924,-30.7582,26.5639,-24.5411,58.7444,34.4714,38.9824,20.4683
0.421103,16.4515,33.4234,-152.247,1.48402,-175.216,-17.919,2.32136,5.27935,-9.90019,4.21623,0.919953,-0.394349,2.78404,-1.28321,-12.9814,1.1476,-1.15526,36.1201,-2.3165,1.60439,14.675,-2.22775,0.157799,3.15198e-14,1.07344e-14,-44.4502,5.59171,-83.0481,16.0162,-1.50174,21.2714,7.20245,7.12502,45.7176,-16.0088,3.15198e-14,1.07344e-14,-51.9874,8.71043,68.7872,17.9965,-2.48633,26.7605,20.8445,7.12502,50.7724,41.6521,-41.9313,3.89059,36.0405,42.0388,-45.7019,-27.8113,29.8244,-31.2685,26.8288,-24.5885,58.9119,34.8989,38.3362,21.2566
0.416007,16.451,33.4125,-152.091,1.67458,-175.09,-17.8947,2.37809,5.43414,-9.96532,4.28658,0.916636,-0.467091,2.81716,-1.36536,-12.9948,1.21515,-1.05854,36.1839,-2.25948,1.59691,14.7063,-2.19683,0.144495,2.66806e-15,-1.98785e-15,-44.4367,5.42972,-82.9823,16.1351,-1.20281,21.4114,6.89984,7.12502,45.8475,-16.2579,2.66806e-15,-1.98785e-15,-52.0446,8.31928,69.1497,18.1657,-2.03108,26.7627,20.7342,7.12502,50.7743,41.5407,-42.0346,4.096,36.051,42.0828,-45.652,-27.9013,30.2078,-31.4741,26.922,-24.5439,59.0731,35.8187,37.235,19.9039
0.408784,16.4487,33.4032,-152.046,1.84245,-175.13,-17.7605,2.41216,5.45927,-10.02,4.34091,0.850368,-0.5854,2.83861,-1.4509,-12.8254,1.21362,-0.934802,36.1398,-2.28299,1.51148,14.6448,-2.20838,0.0844483,5.08485e-14,2.78299e-14,-44.4274,5.29035,-82.9863,16.1778,-1.14011,21.318,7.06186,7.12502,45.7608,-16.1316,5.08485e-14,2.78299e-14,-52.0237,8.15943,69.2333,18.1151,-1.8568,26.6875,20.4846,7.12502,50.7058,41.3287,-42.0374,4.05423,35.9511,42.0947,-45.4071,-27.3781,31.4163,-31.5426,26.9291,-24.5959,59.3097,35.4332,37.4471,21.3903
0.404435,16.4483,33.3961,-152.015,2.03666,-175.332,-17.6846,2.43935,5.31605,-10.0831,4.40956,0.723323,-0.684539,2.87329,-1.50063,-12.1492,1.14216,-1.18272,35.9885,-2.48933,1.77126,14.4286,-2.3252,0.206106,-4.5034e-14,-9.54166e-15,-44.4877,5.13571,-83.0004,16.2237,-1.09955,21.3195,7.35702,7.12502,45.7622,-15.8359,-4.5034e-14,-9.54166e-15,-52.0014,7.66012,69.6184,18.1949,-1.29983,26.2906,20.6828,7.12502,50.3433,41.7234,-42.1171,4.0005,35.6967,42.1957,-45.7926,-27.5987,29.547,-31.6455,26.909,-24.8089,59.5391,35.9406,36.9393,21.4737
0.399666,16.4474,33.3812,-151.922,2.04196,-175.219,-17.6711,2.49623,5.57725,-10.212,4.48676,0.652698,-0.810456,2.90913,-1.7148,-12.0979,1.27824,-0.991571,36.2898,-2.4647,1.83809,14.5578,-2.30925,0.194028,-5.26313e-14,-2.90226e-14,-44.7046,5.1884,-83.2705,16.3001,-1.462,21.3387,7.11418,7.12502,45.7801,-16.0714,-5.26313e-14,-2.90226e-14,-52.0878,7.58011,69.4328,18.1673,-1.61442,26.2696,20.7022,7.12502,50.3242,41.7531,-42.1499,3.89733,35.8471,42.2247,-45.7719,-27.6196,29.2811,-31.9248,26.9969,-24.6639,59.9448,37.887,34.7514,18.3673
0.40192,16.4524,33.3802,-151.832,2.33911,-175.495,-17.8256,2.48749,5.14983,-10.0698,4.48125,0.597218,-0.59033,2.91146,-1.51715,-12.2469,1.37462,-0.722881,36.3462,-2.31465,1.64835,14.6109,-2.22664,0.0908918,7.83336e-15,-1.53064e-14,-44.4443,5.62681,-83.6012,16.3675,-2.07245,21.1983,6.91417,7.12502,45.6497,-16.3248,7.83336e-15,-1.53064e-14,-51.6928,7.78116,69.4749,18.0024,-1.77129,26.2368,20.9397,7.12502,50.2942,42.0066,-42.3458,4.15607,35.4085,42.3558,-45.7537,-27.8899,29.8079,-32.274,26.9618,-25.0225,60.3659,39.2386,33.364,15.8623
0.404861,16.4448,33.383,-151.524,2.27766,-175.53,-17.9063,2.39677,5.09256,-10.2035,4.41127,0.613013,-0.703686,2.89343,-1.4835,-11.9282,1.37478,-0.677769,36.2209,-2.32812,1.61149,14.4779,-2.24054,0.0689693,5.85483e-15,1.88845e-14,-44.5435,5.63575,-83.617,16.4935,-2.12666,21.2085,7.00485,7.12502,45.6592,-16.2303,5.85483e-15,1.88845e-14,-51.7231,8.15879,69.0993,17.9404,-2.33939,26.526,21.0402,7.12502,50.5584,41.9647,-42.7289,4.40502,35.3325,42.4394,-46.2072,-27.5801,30.2133,-32.974,26.8239,-25.078,60.9699,39.5178,33.7544,17.6549
0.407213,16.442,33.3812,-151.28,2.23579,-175.589,-17.8795,2.33665,5.0172,-10.3639,4.39354,0.60451,-0.896816,2.90016,-1.46458,-11.7516,1.35893,-0.738336,36.2981,-2.41154,1.65701,14.4765,-2.29762,0.0823736,-2.23509e-14,-6.16232e-15,-44.6773,5.69336,-83.7085,16.5719,-2.4172,21.2521,7.0711,7.12502,45.6997,-16.1474,-2.23509e-14,-6.16232e-15,-51.9193,8.05729,69.084,18.2668,-2.31329,26.783,20.9988,7.12502,50.7929,41.7951,-43.0917,4.62654,35.2201,42.6143,-46.5773,-27.6123,29.8819,-33.5741,26.7357,-25.1268,61.5733,36.9578,35.0282,19.8851
0.406278,16.4356,33.3807,-151.261,2.46428,-175.762,-17.6591,2.31542,4.79524,-10.36,4.38835,0.55377,-1.0102,2.8933,-1.40922,-11.9056,1.4205,-0.858474,36.4606,-2.37521,1.80614,14.5909,-2.2853,0.16523,4.46427e-14,3.02153e-14,-44.5319,5.62154,-83.6742,16.5034,-2.36688,21.2648,7.19566,7.12502,45.7114,-16.0181,4.46427e-14,3.02153e-14,-51.8985,7.78699,69.3809,18.5353,-1.64725,26.7201,20.9815,7.12502,50.7355,41.8093,-43.1691,4.92749,34.8831,42.7323,-46.7757,-28.8762,29.416,-33.9342,26.8171,-25.3153,62.2243,38.9327,34.4884,17.8932
0.402296,16.4372,33.3683,-151.22,2.51399,-175.689,-17.5811,2.31372,4.94347,-10.3332,4.35464,0.561855,-1.0167,2.8646,-1.49277,-11.8723,1.48197,-0.869363,36.4458,-2.29775,1.84446,14.5751,-2.25027,0.195208,-2.02512e-14,-2.50469e-14,-44.3742,5.39263,-83.5359,16.4463,-2.07448,21.4263,7.36424,7.12502,45.8614,-15.7878,-2.02512e-14,-2.50469e-14,-51.7186,7.85171,69.3675,18.4162,-1.56588,26.591,20.8077,7.12502,50.6177,41.7,-43.23,4.9737,34.9222,42.8647,-46.6733,-27.643,30.3948,-34.2598,26.8901,-25.1544,62.8672,38.7499,34.7352,19.2871
0.395212,16.4359,33.3523,-151.254,2.42755,-175.617,-17.5609,2.30233,5.16441,-10.1723,4.25873,0.596071,-0.85012,2.7948,-1.58895,-11.8095,1.47751,-0.98436,36.3135,-2.24525,1.84292,14.4973,-2.23621,0.227076,1.79683e-14,2.18663e-15,-44.1255,5.41343,-83.5402,16.5744,-2.07368,21.3946,7.57744,7.12502,45.832,-15.5867,1.79683e-14,2.18663e-15,-51.3328,7.97038,69.4799,18.2959,-1.47014,26.3999,20.7493,7.12502,50.4432,41.7361,-43.1976,4.74281,35.0742,42.9743,-46.5612,-27.4985,30.8718,-34.5281,26.9007,-24.9091,63.5698,39.4827,34.5815,19.359
0.391191,16.4357,33.349,-151.306,2.55536,-175.73,-17.321,2.25908,5.02766,-10.0771,4.18836,0.613699,-0.879735,2.74714,-1.51633,-11.84,1.50219,-1.0716,36.3165,-2.1734,1.80922,14.5037,-2.22103,0.239733,-3.39215e-14,-3.47873e-14,-43.8946,5.46953,-83.5086,16.6398,-1.97857,21.6313,7.79278,7.12502,46.0516,-15.2803,-3.39215e-14,-3.47873e-14,-51.1238,7.86964,69.8043,18.463,-0.978738,26.5364,20.9013,7.12502,50.5679,41.8207,-43.2067,4.86222,34.874,43.0952,-47.0959,-27.3768,31.0173,-34.9081,26.9111,-24.9734,64.2953,40.4348,33.4828,17.4204
0.390773,16.4382,33.3491,-151.345,2.7804,-175.965,-17.1279,2.2774,4.73889,-10.0279,4.2292,0.499456,-0.925478,2.76079,-1.47745,-11.7987,1.53444,-0.901793,36.2876,-2.14832,1.7564,14.4787,-2.19208,0.19299,7.83627e-15,-5.56597e-15,-43.782,5.16495,-83.4322,16.6669,-1.86291,21.5901,7.70402,7.12502,46.0134,-15.3849,7.83627e-15,-5.56597e-15,-50.9101,7.61176,69.9823,18.5044,-0.655858,26.5447,20.5662,7.12502,50.5755,41.4814,-43.2501,5.09737,34.4845,43.2037,-47.326,-27.2541,32.4518,-35.3486,26.9481,-25.1997,65.0451,40.2984,32.828,15.8303
0.384503,16.4362,33.342,-151.382,2.72435,-175.963,-17.0704,2.25786,4.80782,-9.88644,4.15119,0.521567,-0.803942,2.70604,-1.50186,-11.9886,1.59122,-0.771568,36.3224,-2.02678,1.61803,14.5336,-2.13061,0.131738,1.32658e-14,1.70955e-14,-43.576,5.08556,-83.4069,16.6915,-1.92169,21.4625,7.4436,7.12502,45.895,-15.6945,1.32658e-14,1.70955e-14,-50.6437,7.84991,69.8709,18.4564,-0.704636,26.6332,20.4029,7.12502,50.6562,41.2741,-43.247,5.01776,34.5182,43.3374,-47.3842,-27.3014,32.9148,-35.7287,26.8908,-25.021,65.817,42.7445,31.3633,12.1287
0.375624,16.4377,33.3259,-151.527,2.48128,-175.876,-16.9155,2.17243,4.95525,-9.55232,3.92436,0.673627,-0.538663,2.56171,-1.45551,-12.857,1.62514,-0.835254,36.5292,-1.85362,1.52038,14.8279,-2.04527,0.126423,-3.44457e-14,-1.92821e-14,-42.993,5.58878,-83.5818,16.6655,-2.42154,21.2244,7.24457,7.12502,45.674,-15.9845,-3.44457e-14,-1.92821e-14,-50.2007,8.49897,69.7443,18.4917,-0.901173,26.6351,20.5071,7.12502,50.658,41.3773,-43.0566,4.75342,34.7406,43.4401,-47.5928,-27.3711,31.8602,-35.9636,26.7402,-24.5893,66.6301,43.0364,30.5646,11.9768
0.368793,16.4433,33.3059,-152.066,1.94178,-176.147,-16.4747,1.9989,4.98732,-9.48375,3.67539,0.592051,-0.699715,2.41286,-1.62239,-12.2711,1.65944,-0.679611,36.4047,-1.88931,1.49524,14.6329,-2.06486,0.0849144,9.80257e-15,-9.34288e-15,-43.186,5.18339,-83.4924,16.483,-2.0553,21.0922,7.24269,7.12502,45.5511,-16.0364,9.80257e-15,-9.34288e-15,-50.3417,7.94791,69.9246,18.6328,-0.426131,26.6738,20.7525,7.12502,50.6933,41.6035,-42.5189,4.52187,34.6044,43.5613,-47.5841,-28.6625,31.1976,-35.6625,26.1674,-24.1292,67.3513,42.2927,30.8269,13.2594
0.365686,16.4404,33.3054,-151.866,2.15583,-176.068,-16.3856,2.03453,5.01024,-9.55876,3.7403,0.623936,-0.824435,2.4475,-1.59985,-12.1561,1.70169,-0.762729,36.3859,-1.82293,1.5161,14.5965,-2.05058,0.1189,3.02525e-15,1.98785e-16,-43.2045,5.151,-83.5034,16.3887,-1.9461,20.887,7.26356,7.12502,45.3604,-16.0926,3.02525e-15,1.98785e-16,-50.3303,8.1906,69.6638,18.4901,-0.800281,26.7266,20.5183,7.12502,50.7415,41.3428,-42.7852,4.90488,34.5314,43.6483,-47.2598,-29.2179,29.6823,-36.544,26.258,-24.1361,68.2054,42.3598,29.7023,11.3856
0.358415,16.4431,33.2954,-152.054,1.96451,-176.239,-16.1281,1.94379,4.97299,-9.4418,3.59343,0.625557,-0.841167,2.35757,-1.60966,-12.1721,1.70344,-0.90713,36.3667,-1.75752,1.47822,14.5894,-2.0444,0.14006,-2.4786e-15,5.96354e-15,-43.1681,5.26754,-83.5421,16.5034,-1.97063,20.8063,7.48736,7.12502,45.2855,-15.8989,-2.4786e-15,5.96354e-15,-50.1446,8.18007,69.8076,18.5357,-0.662216,26.6247,20.6363,7.12502,50.6484,41.5117,-42.5755,4.97936,34.322,43.6716,-47.3888,-29.6504,30.2114,-36.9047,25.964,-23.9614,69.0181,42.3558,28.9291,9.41647
0.34711,16.4484,33.2836,-152.196,1.79206,-176.297,-15.972,1.92643,5.09221,-9.30909,3.51997,0.624761,-0.778837,2.30197,-1.6911,-12.1218,1.69738,-0.951585,36.278,-1.69718,1.38597,14.5336,-2.0299,0.122615,7.60973e-15,-1.23246e-14,-43.1501,5.67273,-83.8488,16.7347,-2.4775,20.9844,7.36019,7.12502,45.451,-15.9595,7.60973e-15,-1.23246e-14,-49.9014,8.26744,69.8683,18.4788,-0.696134,26.3282,20.4636,7.12502,50.3777,41.4858,-42.3859,4.75349,34.2971,43.6527,-47.3932,-29.4558,30.0714,-37.2844,25.6501,-23.6914,69.8641,42.6649,28.098,9.65507
0.334036,16.4289,33.272,-152.186,1.80155,-176.14,-15.8354,1.94784,5.33066,-9.37103,3.54097,0.696539,-0.912598,2.30692,-1.75611,-12.0016,1.82,-0.922367,36.4849,-1.56026,1.27688,14.5996,-2.00724,0.0870215,-2.00586e-14,1.0138e-14,-43.4535,6.00793,-84.0714,16.9655,-2.88909,21.0775,7.62784,7.12502,45.5375,-15.6568,-2.00586e-14,1.0138e-14,-49.9986,8.17597,69.9421,18.4981,-0.65834,26.2987,20.3584,7.12502,50.3507,41.395,-42.232,4.1068,34.7521,43.5876,-46.2862,-29.6999,29.2259,-37.9125,25.4992,-23.3925,70.8041,42.3511,27.336,9.19553
0.318119,16.4242,33.2422,-151.946,1.96633,-175.897,-16.053,2.03839,5.6359,-9.41657,3.63599,0.784365,-0.838757,2.35873,-1.80995,-11.8656,1.91997,-0.977818,36.583,-1.43612,1.25421,14.612,-1.98163,0.103254,-2.77677e-14,-1.17283e-14,-43.6811,6.45778,-84.3236,17.2325,-3.39398,21.0202,7.73067,7.12502,45.4843,-15.5756,-2.77677e-14,-1.17283e-14,-50.0626,8.53303,69.6455,18.434,-1.02598,26.4449,20.3533,7.12502,50.4843,41.318,-42.3307,3.86715,35.0362,43.6012,-45.7864,-29.8546,27.81,-38.7603,25.4327,-23.1847,71.6513,41.6896,27.115,9.39576
0.320599,16.4277,33.2473,-152.261,1.72044,-176.177,-15.5137,1.89718,5.34185,-9.25454,3.44431,0.746611,-0.962804,2.24047,-1.73671,-11.8777,1.84218,-1.04993,36.4756,-1.51699,1.2853,14.5658,-2.01093,0.119931,4.97831e-14,3.20043e-14,-43.4676,6.11801,-84.2072,17.1824,-3.19099,20.7525,8.08418,7.12502,45.2354,-15.322,4.97831e-14,3.20043e-14,-49.6966,8.79281,69.3749,18.2745,-1.21057,26.6552,20.327,7.12502,50.6763,41.1873,-42.0649,3.85864,34.7892,43.6536,-46.1115,-30.0769,28.2385,-39.1615,24.9867,-22.972,72.4565,41.2904,26.9219,9.92409
0.316724,16.429,33.2458,-152.289,1.71646,-176.48,-15.3678,1.85084,5.02813,-9.12295,3.38076,0.671335,-0.905416,2.20171,-1.6515,-11.9562,1.74048,-1.25657,36.4859,-1.6539,1.39041,14.5928,-2.08055,0.178584,-1.84621e-14,1.13307e-14,-43.2026,5.98252,-84.169,17.0671,-3.20652,20.8553,7.93436,7.12502,45.331,-15.4336,-1.84621e-14,1.13307e-14,-49.2679,8.67137,69.5341,18.0931,-1.05762,26.4853,19.9505,7.12502,50.5212,40.8952,-42.1315,4.06212,34.3604,43.7784,-46.501,-30.1641,28.6217,-39.9027,24.6376,-23.0963,73.2064,42.3718,25.3085,7.7366
0.310859,16.4273,33.2379,-152.418,1.50553,-176.555,-15.1407,1.81844,5.01561,-8.99402,3.30652,0.64794,-0.888387,2.14798,-1.68608,-12.0621,1.69525,-1.21729,36.5304,-1.7266,1.37229,14.6397,-2.10484,0.152125,-3.29237e-15,-2.5842e-15,-43.0123,5.87846,-84.1978,16.9757,-3.25772,21.1517,7.45947,7.12502,45.6064,-15.7972,-3.29237e-15,-2.5842e-15,-48.987,8.5231,69.5849,18.0538,-1.0974,26.4971,19.6969,7.12502,50.532,40.6358,-42.0158,4.27043,34.2195,43.8681,-47.2032,-30.3271,28.2915,-40.5308,24.226,-22.8446,73.9507,42.9077,23.3479,6.15537
0.304678,16.424,33.2264,-152.674,1.09473,-176.72,-14.7293,1.67747,4.9281,-8.93691,3.12284,0.680211,-1.05828,2.04355,-1.64799,-12.0612,1.66909,-1.23337,36.5832,-1.75461,1.30571,14.6645,-2.13186,0.121643,-2.0773e-14,-1.61016e-14,-43.0286,5.78101,-84.1371,16.9789,-3.24931,21.2318,7.42286,7.12502,45.6808,-15.8034,-2.0773e-14,-1.61016e-14,-48.9988,8.45776,69.6367,18.1066,-1.41204,26.4578,19.5034,7.12502,50.4961,40.4617,-41.7133,4.29582,34.08,43.8371,-47.8004,-30.3563,28.8688,-41.029,23.6345,-22.4994,74.6435,42.4163,20.8516,2.51166
0.286743,16.4193,33.2002,-153.1,1.02102,-176.603,-14.2187,1.73046,5.2275,-8.86914,3.14996,0.693149,-1.24423,2.02577,-1.81973,-11.8555,1.67298,-1.21168,36.5781,-1.76788,1.25517,14.6141,-2.15218,0.0945986,3.0178e-14,1.92821e-14,-43.1272,5.24345,-83.8246,16.815,-2.66314,21.0811,8.06949,7.12502,45.5409,-15.2138,3.0178e-14,1.92821e-14,-49.1159,8.17056,69.8562,18.2277,-1.51777,26.1727,19.2331,7.12502,50.2356,40.3312,-41.0697,4.2221,34.1504,43.7228,-48.0985,-30.1099,28.4866,-41.1685,23.4503,-21.9886,75.3282,43.0338,18.0122,2.08436
0.254571,16.4196,33.1426,-154.059,1.30149,-176.15,-13.558,2.01454,5.92843,-8.49615,3.36813,0.730862,-1.15679,2.06842,-2.15959,-12.0502,1.75137,-1.04023,36.8477,-1.67524,1.06715,14.7835,-2.12531,-0.00723108,1.22998e-15,1.35174e-14,-43.2535,5.17726,-83.8334,16.9744,-2.6684,21.0261,8.27992,7.12502,45.4897,-15.0241,1.22998e-15,1.35174e-14,-49.0142,7.8116,70.2172,18.2631,-1.32075,25.6581,19.085,7.12502,49.7647,40.4304,-39.6181,3.68823,34.5582,43.5423,-47.6392,-29.8136,27.617,-40.3843,23.6746,-21.0786,75.9021,39.2473,16.4553,0.0942107
0.240698,16.4179,33.1167,-154.219,0.970415,-176.093,-13.3924,1.99035,6.14813,-8.33112,3.27839,0.749982,-1.06867,2.00409,-2.27569,-12.6637,1.80999,-0.910094,37.2391,-1.58955,0.926203,15.1133,-2.08744,-0.0870118,-1.10201e-14,-8.54774e-15,-43.2627,5.09191,-83.8699,17.2037,-2.76412,21.0277,8.10931,7.12502,45.4912,-15.1941,-1.10201e-14,-8.54774e-15,-48.7156,7.72097,70.3127,18.3474,-1.35746,25.7521,19.1359,7.12502,49.8507,40.4366,-39.3073,3.54738,34.6393,43.4429,-47.9236,-29.8274,27.5638,-41.007,23.196,-20.7022,76.6568,38.4292,14.3685,2.55185
0.232087,16.4114,33.1002,-154.482,0.468152,-176.233,-13.0937,1.86302,6.1449,-8.12948,3.06857,0.748888,-1.02779,1.87977,-2.30889,-13.0997,1.81442,-0.822053,37.3859,-1.5453,0.834885,15.2868,-2.05398,-0.137179,1.00635e-14,1.82882e-14,-43.1716,5.03794,-83.9803,17.2654,-3.02959,21.1432,7.70256,7.12502,45.5985,-15.5573,1.00635e-14,1.82882e-14,-48.3795,7.59392,70.4694,18.4748,-1.33094,25.7177,19.3333,7.12502,49.8193,40.6504,-38.9863,3.59631,34.5337,43.3966,-48.5768,-30.0044,28.0623,-41.572,22.579,-20.4048,77.4601,34.7007,12.6984,2.15716
0.223778,16.4029,33.0833,-154.702,0.0720745,-176.322,-12.9774,1.77606,6.12435,-7.91283,2.90832,0.808735,-0.87415,1.78956,-2.25312,-13.1096,1.77316,-0.906649,37.1645,-1.49758,0.822224,15.1796,-2.02273,-0.110291,1.31446e-14,4.37326e-15,-43.101,5.47729,-84.3198,17.364,-3.66717,21.0027,7.15767,7.12502,45.468,-16.1551,1.31446e-14,4.37326e-15,-48.0538,7.94933,70.3472,18.4546,-1.90141,25.772,19.6408,7.12502,49.869,40.9321,-38.7413,3.76842,34.4273,43.4615,-49.7467,-29.9344,27.3976,-42.238,22.1216,-20.1504,78.3044,32.7584,10.6176,6.46822
0.216143,16.398,33.069,-154.737,-0.115641,-176.322,-13.0398,1.8448,6.14677,-7.85286,2.98366,0.798202,-0.769469,1.82757,-2.26202,-12.6012,1.68541,-0.943951,36.9681,-1.66146,0.891789,14.9677,-2.09392,-0.0940651,-5.67779e-15,-4.77083e-15,-43.286,5.81492,-84.7056,17.4784,-4.37933,20.9357,6.76326,7.12502,45.4058,-16.5747,-5.67779e-15,-4.77083e-15,-47.8421,7.62155,70.5449,18.4484,-1.92691,25.7822,19.7041,7.12502,49.8783,40.9905,-38.677,3.95346,34.379,43.5248,-49.4477,-29.6759,30.4143,-43.1906,21.8177,-19.9991,79.0918,25.9425,8.34713,-6.12761
0.209738,16.3953,33.0611,-154.669,-0.493718,-176.329,-12.0808,1.6328,6.18259,-8.23828,2.83309,0.867384,-1.71023,1.73798,-2.28387,-12.9044,1.7621,-1.00338,37.4463,-1.63735,0.89422,15.2725,-2.12204,-0.0962975,-1.99779e-14,-2.22639e-14,-43.6334,6.1205,-85.0158,17.2513,-4.37211,20.6904,7.25316,7.12502,45.1777,-16.1761,-1.99779e-14,-2.22639e-14,-48.0136,7.57048,70.4502,18.2774,-1.8607,25.7154,19.4867,7.12502,49.8171,40.8049,-38.7466,4.0126,34.4121,43.5185,-50.433,-30.167,28.9536,-44.4327,21.3201,-19.8046,79.7909,19.689,6.50712,-18.1658
0.202176,16.3964,33.0436,-154.771,-0.823122,-176.457,-11.8857,3.04058,5.80022,-8.11967,2.3472,0.694607,-1.62932,0.462484,-2.26791,-13.1307,1.70848,-1.07656,37.4455,-1.68889,0.966685,15.3277,-2.12933,-0.0599657,4.80065e-14,5.04913e-14,-43.4541,6.01411,-85.0724,17.2269,-4.18182,20.3177,7.5574,7.12502,44.8309,-16.0085,4.80065e-14,5.04913e-14,-47.5365,7.78688,70.4125,18.076,-1.9081,25.3509,19.383,7.12502,49.4831,40.873,-38.5425,4.33292,34.2469,43.3766,-50.755,-30.6418,30.1211,-45.4132,20.6112,-19.6037,80.3251,17.3142,6.37839,-14.85
0.184436,16.387,33.0171,-155.086,-1.00192,-176.472,-11.5156,2.9997,5.9452,-8.02665,2.3417,0.683223,-1.72652,0.469756,-2.37104,-12.9903,1.69672,-1.07013,37.4057,-1.75332,1.06128,15.277,-2.14494,-0.0301175,3.8266e-15,1.07344e-14,-43.6778,6.08004,-85.2389,17.3631,-4.09843,20.1152,7.77655,7.12502,44.6424,-15.8625,3.8266e-15,1.07344e-14,-47.4362,8.0767,70.176,18.0211,-2.35866,25.3608,19.4823,7.12502,49.4922,40.9677,-38.1653,4.09142,34.3099,43.1952,-49.5145,-33.0112,26.4586,-45.9928,20.1209,-19.3194,80.8352,10.9503,6.0727,-23.1308
0.163948,16.3679,32.9946,-155.268,-0.924002,-176.486,-11.1539,3.029,6.01478,-7.95258,2.43151,0.644225,-1.83288,0.52368,-2.45097,-13.0169,1.69013,-1.03202,37.4446,-1.81071,1.13391,15.3045,-2.15401,-0.0165312,-6.58474e-15,-1.90833e-14,-43.6323,6.0254,-85.343,17.24,-4.105,20.2467,8.07117,7.12502,44.7648,-15.5204,-6.58474e-15,-1.90833e-14,-47.2702,8.46194,69.8561,17.8993,-2.9963,25.3659,19.1181,7.12502,49.4969,40.601,-38.1351,3.58166,34.4191,43.0092,-45.7592,-37.3153,16.6273,-46.6515,19.6994,-19.2488,81.3664,7.13725,6.54376,-22.5522
0.148837,16.3573,32.9748,-155.164,-0.91865,-176.393,-11.1129,3.12879,6.19217,-7.86796,2.56811,0.578832,-1.74522,0.59623,-2.60461,-13.2713,1.61328,-0.961134,37.4608,-1.92087,1.15835,15.3755,-2.17035,-0.0361604,-7.03201e-15,-7.95139e-15,-43.5669,5.94191,-85.5176,17.3493,-4.15971,20.3263,8.35,7.12502,44.8389,-15.2127,-7.03201e-15,-7.95139e-15,-46.8803,8.1847,70.0395,18.0112,-2.74871,25.172,18.8371,7.12502,49.3191,40.4102,-38.1538,3.73423,34.4068,42.9759,-46.3616,-37.1356,17.0153,-47.6849,19.1219,-19.1432,81.8245,3.18726,7.26386,-22.6895
0.139629,16.342,32.9559,-155.082,-1.01548,-176.387,-11.1605,3.16034,6.21457,-7.76802,2.62134,0.519948,-1.60614,0.636001,-2.6707,-13.2416,1.52326,-1.00831,37.3066,-2.07087,1.34405,15.298,-2.19993,0.0320175,-2.65874e-14,-1.98785e-15,-43.6111,5.80529,-85.6892,17.6619,-4.04188,20.2683,7.83319,7.12502,44.7849,-15.7506,-2.65874e-14,-1.98785e-15,-46.5221,7.8547,70.2719,18.1599,-2.57258,25.225,19.0364,7.12502,49.3677,40.5849,-38.2122,3.96455,34.3357,43.0427,-47.2195,-36.5193,19.3416,-48.6871,18.5529,-19.0485,82.0533,1.52204,8.52612,-17.6795
0.129017,16.3346,32.9327,-155.093,-1.388,-176.549,-10.996,3.08101,6.11561,-7.86613,2.53586,0.510159,-1.80971,0.586548,-2.64059,-12.7404,1.47596,-1.08323,37.1591,-2.18508,1.43225,15.1111,-2.26098,0.0684651,2.11209e-14,2.06736e-14,-44.0077,5.81472,-85.809,17.8761,-3.78641,19.9634,7.88944,7.12502,44.501,-15.804,2.11209e-14,2.06736e-14,-46.5558,7.51379,70.5063,18.2574,-2.5803,25.1613,19.1353,7.12502,49.3092,40.7133,-38.19,4.28591,34.1043,43.1973,-48.8911,-36.047,21.613,-49.616,17.7649,-18.9641,82.1301,-2.96426,8.23063,-21.5679
0.117693,16.3319,32.9054,-155.109,-1.89001,-176.777,-10.7123,2.9183,6.04804,-8.01044,2.34511,0.491894,-2.13487,0.477853,-2.65007,-12.4896,1.4848,-1.12471,37.1429,-2.20897,1.47708,15.0455,-2.28348,0.0911588,-1.5704e-14,-7.15625e-15,-44.2958,5.96183,-86.0694,17.8318,-3.75893,19.6796,8.32034,7.12502,44.2365,-15.4738,-1.5704e-14,-7.15625e-15,-46.6311,7.22119,70.7151,18.2631,-2.70476,24.8186,19.0187,7.12502,48.9946,40.7538,-38.1435,4.56816,33.841,43.3344,-49.8934,-35.6018,25.0041,-50.5747,16.8211,-18.8941,82.1148,-5.04733,8.16157,-19.7963
0.109516,16.3333,32.8708,-155.218,-2.02492,-176.906,-10.5098,2.90047,5.95123,-7.8916,2.37764,0.425901,-2.11739,0.516161,-2.66696,-12.8533,1.38806,-1.16404,37.2629,-2.37738,1.60811,15.1964,-2.32977,0.122689,-2.74571e-14,-9.54166e-15,-43.9858,5.77969,-86.137,17.6481,-3.81427,20.068,8.02287,7.12502,44.5985,-15.6331,-2.74571e-14,-9.54166e-15,-46.3017,6.84622,71.0589,18.4088,-2.7999,24.6942,18.8973,7.12502,48.8803,40.6887,-37.9169,5.09788,33.5777,43.4362,-50.9017,-36.3782,23.392,-51.3402,16.2871,-18.8419,81.9214,-5.51995,9.1717,-18.5336
0.0986636,16.3321,32.829,-155.332,-1.93458,-176.947,-10.4507,2.9158,5.85302,-7.71394,2.4405,0.413611,-1.95948,0.575609,-2.61964,-12.9901,1.36176,-1.20728,37.1686,-2.37128,1.67238,15.1837,-2.30533,0.162478,-6.75868e-15,1.82882e-14,-43.7483,6.16602,-86.4718,17.7461,-4.25066,20.5913,7.34025,7.12502,45.0855,-16.1255,-6.75868e-15,1.82882e-14,-46.0395,6.4106,71.4914,18.7588,-2.43703,24.8404,18.9126,7.12502,49.0146,40.6377,-37.6692,5.65244,33.3532,43.561,-51.0154,-37.0927,22.7058,-51.9923,15.9712,-18.7917,81.5932,-6.91762,9.61245,-19.7734
0.0870518,16.3285,32.7943,-155.34,-1.98153,-177.003,-10.2346,2.85755,5.74549,-7.71981,2.39489,0.484186,-2.09364,0.557971,-2.4968,-12.894,1.35449,-1.36264,36.9966,-2.2795,1.64553,15.075,-2.28124,0.199677,-9.39258e-15,-7.95139e-16,-43.8882,6.79148,-86.8581,17.9531,-4.47703,20.3106,7.60622,7.12502,44.8243,-15.9622,-9.39258e-15,-7.95139e-16,-46.0342,6.32148,71.7404,19.0596,-2.39689,24.9614,18.7345,7.12502,49.1257,40.4045,-37.4337,6.21827,33.1121,43.6873,-52.7568,-35.279,26.4791,-52.8165,15.4181,-18.7066,81.1825,-8.67688,9.62916,-20.2681
0.0741762,16.3219,32.7605,-155.232,-2.05226,-177.18,-10.0921,2.78426,5.57597,-7.70411,2.3324,0.468841,-2.16499,0.536968,-2.42788,-13.0802,1.30876,-1.49005,36.9824,-2.27756,1.64578,15.1127,-2.28575,0.223659,-1.23495e-14,3.57812e-15,-43.9342,7.19116,-87.1731,18.1304,-4.43559,19.9202,8.15684,7.12502,44.4607,-15.552,-1.23495e-14,3.57812e-15,-45.9655,6.15203,72.0016,19.5201,-2.28713,24.9082,18.6139,7.12502,49.0769,40.3082,-37.2398,6.74223,32.7129,43.8711,-55.4099,-31.6404,33.3371,-53.7445,14.7575,-18.7851,80.6338,-9.98394,9.46148,-20.2217
0.055449,16.3213,32.7133,-155.299,-2.04352,-177.224,-9.97658,2.84356,5.64732,-7.65275,2.43004,0.361828,-2.15935,0.589611,-2.57348,-12.965,1.26117,-1.47684,36.8751,-2.37855,1.75797,15.0379,-2.30639,0.255564,-5.31749e-15,-2.66371e-14,-44.1466,7.32847,-87.5311,18.4535,-4.56551,19.9302,7.97723,7.12502,44.47,-15.7281,-5.31749e-15,-2.66371e-14,-45.9413,5.36545,72.4853,20.0821,-1.95558,24.6693,18.2859,7.12502,48.8574,40.0886,-36.8914,7.03286,32.4909,44.0219,-56.7365,-29.7986,36.3401,-54.3211,14.2931,-18.7695,79.9313,-10.9478,9.17328,-20.7071
0.0451717,16.3208,32.6789,-155.123,-2.40506,-177.416,-9.99727,2.79987,5.53981,-7.73039,2.37445,0.256692,-2.23414,0.557382,-2.62784,-12.8469,1.23723,-1.30012,36.8448,-2.50433,1.84038,14.9993,-2.3252,0.2396,-4.30369e-14,-1.31198e-14,-44.2767,7.34777,-87.8495,18.659,-4.61367,20.0312,7.54555,7.12502,44.5642,-16.1237,-4.30369e-14,-1.31198e-14,-45.8764,4.74944,72.7969,20.6179,-1.71464,24.7221,18.5753,7.12502,48.9059,40.3541,-37.0338,7.64562,32.1939,44.1693,-57.7737,-30.2706,36.2091,-55.3726,13.4284,-18.7829,79.153,-12.0457,8.46036,-23.3414
0.0354541,16.323,32.6356,-154.992,-2.34804,-177.637,-10.0392,2.85527,5.29735,-7.7236,2.46992,0.0853593,-2.19737,0.615302,-2.66122,-12.9971,1.18884,-1.05514,36.9308,-2.65313,1.83585,15.0786,-2.35072,0.167801,2.16427e-14,9.93923e-15,-44.2274,7.60743,-88.3816,18.6796,-4.81283,20.2163,7.35048,7.12502,44.7365,-16.2521,2.16427e-14,9.93923e-15,-45.7608,4.06119,73.152,21.2072,-1.41455,24.5582,18.9711,7.12502,48.7552,40.8237,-37.0267,8.34015,31.7633,44.2295,-58.4839,-30.5385,35.9222,-56.2199,12.9018,-18.9777,78.2577,-13.8999,7.03836,-27.864
0.0224986,16.3234,32.5813,-154.837,-1.9911,-177.801,-10.1143,3.03835,5.09312,-7.81304,2.71194,-0.136005,-2.22814,0.73076,-2.75457,-12.8473,1.15995,-0.913106,36.9878,-2.82124,1.93699,15.0766,-2.40078,0.155868,5.69021e-15,7.55382e-15,-44.6448,8.22879,-89.2753,18.9326,-5.06336,19.8009,7.58158,7.12502,44.3496,-16.1697,5.69021e-15,7.55382e-15,-45.8555,3.23183,73.4762,21.7877,-1.25779,24.4938,19.2301,7.12502,48.696,41.1115,-36.9783,8.81725,31.3519,44.2352,-58.6191,-30.7533,35.4959,-56.9238,12.6845,-19.2687,77.2367,-15.4253,5.6929,-31.0202
0.0103226,16.3204,32.5395,-154.576,-2.08316,-177.827,-10.0345,3.12797,5.13788,-8.00839,2.80955,-0.254677,-2.4621,0.752407,-2.89948,-12.5464,1.11608,-0.907122,36.9005,-2.95018,2.05703,14.9694,-2.44736,0.187376,2.53202e-14,2.82274e-14,-45.3334,8.99756,-90.2249,19.5248,-5.13036,18.5852,9.10704,7.12502,43.2149,-15.0625,2.53202e-14,2.82274e-14,-45.948,2.50093,73.8118,22.4292,-1.26912,24.3794,19.2595,7.12502,48.5908,41.1919,-37.1026,9.04085,31.2488,44.2127,-58.7532,-31.356,34.9923,-57.9971,12.3139,-19.3459,76.235,-16.0843,4.77573,-31.6749
-0.00491289,16.321,32.4915,-154.444,-2.00634,-177.838,-9.98869,3.15191,5.12373,-7.91369,2.86228,-0.261842,-2.38287,0.791692,-2.89494,-12.9819,1.04493,-1.17476,36.9651,-3.01053,2.24517,15.1113,-2.46403,0.301773,7.60351e-15,-8.94531e-15,-45.5209,10.2226,-91.1306,20.3034,-5.38436,17.8358,10.7952,7.12502,42.5139,-13.6203,7.60351e-15,-8.94531e-15,-45.8089,1.85271,74.3737,23.4112,-0.838315,24.3564,19.4037,7.12502,48.5696,41.3463,-37.0326,9.47954,31.065,44.1959,-59.2354,-31.461,35.2412,-58.7796,11.9803,-19.4125,75.1017,-16.7838,3.86039,-32.2285
-0.0205789,16.3173,32.4489,-154.291,-2.20627,-177.789,-9.9784,3.09566,5.21893,-7.82241,2.79629,-0.227138,-2.29591,0.767326,-2.91706,-13.401,0.97033,-1.33996,37.0138,-3.09914,2.41518,15.2424,-2.48103,0.386356,2.08724e-15,3.04141e-14,-45.6956,11.3836,-91.9986,21.2942,-5.53427,20.4596,7.21261,7.12502,44.963,-16.3015,2.08724e-15,3.04141e-14,-45.6839,1.20514,74.926,24.5241,-0.540555,24.2222,19.5361,7.12502,48.4461,41.5381,-37.0102,9.7015,31.0698,44.1751,-59.8561,-31.2563,35.6701,-59.5733,11.4458,-19.303,73.8655,-17.3591,2.60941,-32.7321
-0.0349705,16.3177,32.3999,-154.234,-2.51337,-177.799,-9.93651,3.07268,5.27758,-7.81607,2.76969,-0.231947,-2.31206,0.753747,-2.9586,-13.3037,0.885145,-1.39221,36.8675,-3.2364,2.56055,15.1565,-2.51902,0.438433,-2.6339e-14,-5.36719e-15,-46.3024,12.7323,-93.1377,22.4849,-5.87768,20.993,6.80139,7.12502,45.459,-16.515,-2.6339e-14,-5.36719e-15,-45.9283,0.254659,75.5812,26.1089,-0.486114,24.2038,19.9128,7.12502,48.4291,41.9229,-36.8249,9.53888,31.1544,44.0891,-60.1828,-31.3493,35.3131,-60.1315,10.7939,-19.1933,72.483,-17.9179,1.83774,-33.7012
-0.0531929,16.3265,32.3411,-154.195,-2.66117,-177.81,-9.98435,3.00511,5.37062,-7.74915,2.67815,-0.219039,-2.22079,0.712806,-3.00285,-13.2535,0.945191,-1.40185,36.7304,-3.09363,2.55213,15.073,-2.4509,0.464495,7.47927e-15,8.94531e-15,-46.8326,14.3488,-94.3525,23.6573,-6.08347,20.1995,7.52708,7.12502,44.7209,-16.0816,7.47927e-15,8.94531e-15,-46.2465,-0.484346,76.1683,27.926,-0.602031,24.1777,20.398,7.12502,48.4052,42.4195,-36.5134,9.32498,31.1698,43.9244,-60.2994,-31.238,35.135,-60.66,10.3137,-19.1361,71.0353,-18.4047,0.802683,-33.4754
-0.0716849,16.3345,32.2803,-154.118,-2.71653,-177.736,-10.0376,2.98172,5.56274,-7.62233,2.64509,-0.218754,-2.05424,0.704501,-3.10977,-13.5451,0.946762,-1.55125,36.734,-3.0508,2.67547,15.1463,-2.41952,0.550088,-2.05742e-14,-2.08724e-14,-47.3194,16.0174,-95.5925,25.01,-5.78148,19.772,8.10808,7.12502,44.3226,-15.6534,-2.05742e-14,-2.08724e-14,-46.3852,-1.23686,76.7553,29.8573,-0.773108,23.9584,20.7633,7.12502,48.2032,42.8808,-36.216,9.20054,31.2247,43.7256,-60.1634,-31.3491,34.7116,-61.2556,9.95724,-19.0035,69.6158,-18.6136,-1.29722,-29.851
-0.0866091,16.3301,32.2201,-154.169,-2.54928,-177.76,-9.87192,3.09021,5.51983,-7.58654,2.81953,-0.371566,-2.08529,0.797549,-3.23449,-13.6213,0.87168,-1.43006,36.7609,-3.25635,2.80659,15.1868,-2.46908,0.548691,-9.91439e-15,2.5842e-15,-47.9656,17.2293,-96.8544,26.2804,-5.04526,19.158,8.44055,7.12502,43.7499,-15.535,-9.91439e-15,2.5842e-15,-46.9182,-2.65751,77.4504,32.4628,-0.834489,23.6764,21.1622,7.12502,47.9432,43.4014,-35.8601,9.29556,31.1143,43.5667,-60.1853,-31.704,34.0024,-61.4956,9.93998,-19.2579,68.2684,-18.9749,-1.83791,-30.4333
-0.101663,16.3211,32.1583,-154.291,-2.28616,-177.868,-9.60087,3.27102,5.37408,-7.62531,3.09922,-0.622621,-2.24104,0.93723,-3.40064,-13.4845,0.809011,-1.11429,36.787,-3.51188,2.88741,15.1753,-2.53103,0.483409,2.38542e-14,-1.27222e-14,-48.6567,17.784,-97.7276,27.8165,-3.93524,19.1195,8.6496,7.12502,43.714,-15.3391,2.38542e-14,-1.27222e-14,-47.5838,-4.18891,78.026,35.0649,-1.38804,23.482,21.2584,7.12502,47.7639,43.5807,-35.4676,9.46196,30.8993,43.484,-60.5037,-31.7132,34.1471,-61.4517,10.1098,-19.7422,66.9349,-19.674,-1.57137,-33.3921
-0.116712,16.3168,32.0961,-154.451,-1.96049,-177.82,-9.03421,3.31185,5.33506,-7.73286,3.19796,-0.667453,-2.65443,0.974671,-3.44197,-13.4067,0.887315,-0.991915,36.8267,-3.46052,2.89899,15.1737,-2.49999,0.473674,-6.17475e-15,-5.96354e-15,-49.5931,18.9668,-98.7157,29.9117,-3.13954,19.6178,7.94981,7.12502,44.1788,-15.866,-6.17475e-15,-5.96354e-15,-48.43,-5.02224,78.4386,37.5583,-2.09433,23.1437,21.1869,7.12502,47.4516,43.6516,-35.0027,9.62314,30.8602,43.3676,-60.2883,-32.1624,33.798,-61.3713,10.2594,-19.9091,65.6492,-20.1921,-2.24006,-33.8472
-0.130525,16.3118,32.0411,-154.396,-1.69855,-177.67,-9.03461,3.26299,5.20927,-7.4911,3.17268,-0.508065,-2.41607,0.998911,-3.2036,-13.9583,0.880552,-1.10209,36.7938,-3.33749,2.87165,15.2842,-2.4311,0.503233,-1.28216e-14,6.55989e-15,-49.7444,20.4171,-99.2368,31.9584,-1.96331,20.6188,7.08049,7.12502,45.1111,-16.3752,-1.28216e-14,6.55989e-15,-48.5634,-5.36252,78.8552,40.1111,-2.95642,22.8361,21.1293,7.12502,47.1674,43.7214,-34.7978,9.54722,30.9758,43.2468,-59.5111,-32.7353,32.8366,-61.6295,10.2655,-19.8306,64.5517,-20.3819,-3.775,-30.1584
-0.153341,16.315,31.9612,-154.812,-1.12725,-177.394,-8.74853,3.47624,5.34624,-7.17078,3.52029,-0.558865,-2.19419,1.207,-3.31146,-14.3273,0.753562,-1.0085,36.7667,-3.52778,2.92751,15.3658,-2.46586,0.478501,9.0447e-15,-8.15017e-15,-50.1074,21.3081,-99.8136,34.1372,-0.938127,20.932,5.89918,7.12502,45.4023,-17.4401,9.0447e-15,-8.15017e-15,-48.7106,-6.30537,79.2956,42.6305,-3.92623,22.4202,21.0256,7.12502,46.7826,43.787,-33.8429,9.1738,31.2204,43.0186,-58.9152,-32.6313,31.4588,-61.199,10.6129,-19.7448,63.5625,-20.8922,-4.40372,-26.8904
-0.166527,16.3086,31.9118,-154.445,-1.28848,-177.221,-9.04908,3.57547,5.56132,-7.13243,3.61512,-0.638773,-1.96392,1.25077,-3.49178,-14.542,0.665394,-0.911654,36.6348,-3.6655,3.0471,15.3593,-2.46892,0.491873,-2.70844e-15,6.36111e-15,-50.5554,21.9916,-100.289,36.6563,0.190866,24.3565,3.38932,7.12502,48.5697,-18.5532,-2.70844e-15,6.36111e-15,-48.8457,-7.60641,79.8395,45.325,-4.68511,21.8453,21.5316,7.12502,46.2501,44.5213,-33.9757,8.86648,31.4745,42.854,-58.7446,-32.5916,32.243,-62.0692,10.6719,-19.9726,62.7224,-21.2284,-3.17936,-30.0054
-0.181027,16.3035,31.8445,-154.497,-1.05384,-177.131,-9.43251,3.68711,5.61824,-6.63503,3.78873,-0.745652,-1.20581,1.39657,-3.58863,-15.045,0.58669,-0.636323,36.3218,-3.68382,3.0149,15.3219,-2.38496,0.434597,1.2424e-14,1.49089e-14,-50.4252,22.636,-100.306,39.5258,1.4623,24.9921,2.7511,7.12502,49.1539,-18.9048,1.2424e-14,1.49089e-14,-48.6043,-8.79732,80.2429,48.0973,-5.55315,21.2859,21.9564,7.12502,45.731,45.1621,-33.5518,8.79698,31.5297,42.6783,-58.9589,-32.4078,31.4356,-62.2659,11.1255,-20.5361,61.884,-21.5686,-0.569072,-36.8453
-0.198693,16.2921,31.7705,-154.757,-0.732026,-176.924,-9.58062,3.76504,5.65334,-6.11426,3.93756,-0.690281,-0.567313,1.53248,-3.51452,-15.4931,0.496158,-0.608088,36.0471,-3.67627,3.00442,15.2931,-2.33039,0.433358,-3.97569e-16,5.76476e-15,-50.3894,23.4851,-100.186,42.5414,2.53063,25.3941,1.69179,7.12502,49.5227,-19.778,-3.97569e-16,5.76476e-15,-48.4672,-9.77936,80.6984,50.7529,-6.49585,20.6501,22.271,7.12502,45.1402,45.7151,-32.8696,8.48136,31.7375,42.5343,-58.2864,-32.2089,32.0091,-62.1312,11.5842,-20.8285,61.2076,-21.5755,1.11506,-39.5023
-0.216758,16.2798,31.6986,-154.98,-0.332124,-176.748,-9.40744,3.21688,5.84458,-6.04266,4.49986,-0.781423,-0.563368,2.37983,-3.67845,-14.9594,0.302902,-0.364016,35.5795,-3.97868,3.02227,14.9495,-2.42092,0.357517,-2.59166e-14,-4.57205e-15,-51.1208,23.5122,-100.275,45.6972,3.92185,25.0493,1.034,7.12502,49.2065,-20.5956,-2.59166e-14,-4.57205e-15,-48.9878,-11.5225,81.1819,53.4495,-7.23391,19.7686,21.6058,7.12502,44.3195,45.3685,-32.2681,7.93692,31.8988,42.4069,-57.5521,-32.094,31.3463,-61.9382,12.0382,-21.0881,60.7204,-21.7121,1.65599,-38.6088
-0.237964,16.2692,31.6267,-155.187,0.233066,-176.512,-8.83882,3.25486,5.68894,-5.8931,4.5517,-0.611894,-0.732486,2.39208,-3.44057,-15.6401,0.347045,-0.381544,35.561,-3.76353,2.89596,15.0895,-2.30923,0.343714,-7.90169e-15,-2.29596e-14,-51.7406,24.5994,-100.335,49.1999,5.07659,24.9128,0.1706,7.12502,49.081,-21.5216,-7.90169e-15,-2.29596e-14,-49.292,-11.9794,81.5171,56.2662,-8.15206,19.0445,20.6297,7.12502,43.644,44.644,-31.6311,7.56085,32.0259,42.1894,-56.7268,-32.1193,30.1616,-61.7548,12.638,-21.3424,60.4322,-21.7913,1.61944,-35.0254
-0.246586,16.2442,31.5843,-155.181,0.105504,-176.236,-8.59548,3.18255,5.68802,-5.75804,4.44392,-0.422328,-0.748705,2.33294,-3.26389,-15.7884,0.33089,-0.371247,35.1748,-3.6503,2.8981,14.9366,-2.22462,0.371148,3.03644e-14,3.04141e-14,-52.1625,25.5084,-100.263,52.9238,5.57026,24.2048,-0.42664,7.12502,48.4301,-22.4363,3.03644e-14,3.04141e-14,-49.5189,-12.8249,81.9855,59.2139,-8.85331,18.0435,20.1815,7.12502,42.7083,44.5297,-31.4003,7.66459,32.3621,42.0334,-56.5619,-32.5031,29.919,-62.0434,12.763,-21.3449,60.315,-21.3044,1.2025,-29.6289
-0.271678,16.2312,31.4931,-155.643,0.728876,-175.861,-8.30993,3.60439,5.9596,-5.65904,4.97498,-0.575577,-0.716763,2.58101,-3.53708,-15.11,0.162123,-0.142824,34.6492,-3.94974,3.02127,14.5432,-2.31002,0.34366,7.16246e-14,8.64713e-15,-52.9346,25.3831,-100.284,56.6786,5.84041,25.809,-2.84767,7.12502,49.9028,-24.1213,7.16246e-14,8.64713e-15,-50.2682,-14.6065,82.5509,62.3431,-9.45616,17.0528,19.9892,7.12502,41.7803,44.6524,-30.383,7.41767,32.5952,41.8919,-55.7673,-32.1603,29.4926,-61.4207,13.4748,-21.4314,60.2794,-21.0225,1.60847,-26.2316
-0.290743,16.2174,31.4087,-155.853,0.982618,-175.583,-8.02603,3.38744,5.87133,-5.19935,4.62939,-0.228417,-0.458601,2.40242,-3.15969,-16.7009,0.345096,-0.300571,34.8192,-3.38954,2.78924,14.9691,-2.04604,0.365767,-1.17034e-14,3.37934e-15,-52.8924,27.0889,-100.049,60.2819,6.25764,24.8542,-3.45537,7.12502,49.0273,-25.1743,-1.17034e-14,3.37934e-15,-50.23,-14.5797,82.7783,65.3638,-10.2394,15.8961,19.5625,7.12502,40.6945,44.5752,-29.7383,6.83064,32.8615,41.8588,-55.2785,-31.7366,28.3935,-61.0936,13.8861,-21.5916,60.3658,-20.8735,2.32131,-22.953
-0.305596,16.2004,31.3431,-155.825,1.13352,-175.488,-7.96665,3.5479,5.79032,-5.34508,4.87094,-0.349433,-0.615828,2.52238,-3.22829,-15.9727,0.225603,0.0302094,34.3858,-3.63045,2.76463,14.6002,-2.12126,0.265715,2.44257e-14,2.38542e-15,-53.9002,26.9242,-100.074,63.9163,7.34304,23.2621,-3.14071,7.12502,47.561,-25.5558,2.44257e-14,2.38542e-15,-51.1209,-16.2491,83.3339,68.4914,-10.8832,14.7771,19.3883,7.12502,39.6418,44.7214,-29.5059,6.61529,32.9081,41.8599,-54.8897,-32.1208,27.6566,-61.0093,14.1391,-21.9355,60.5559,-21.1659,2.75341,-18.8512
-0.328587,16.1823,31.2597,-156.153,1.82975,-175.224,-7.88645,3.71327,5.60103,-4.96155,5.04463,-0.153061,-0.27148,2.61068,-2.89225,-16.3397,0.246673,0.0371867,34.2031,-3.40792,2.52775,14.5873,-2.0238,0.209621,-4.50247e-14,-6.95746e-15,-54.2387,27.8094,-99.6806,67.591,8.3216,23.2196,-3.33657,7.12502,47.5217,-25.7695,-4.50247e-14,-6.95746e-15,-51.5215,-17.1104,83.9407,71.7242,-11.2704,13.4328,19.0131,7.12502,38.3745,44.7094,-28.7769,6.1566,32.9741,41.8741,-53.9316,-31.681,26.5958,-60.3006,14.7586,-22.0864,60.7918,-22.0066,3.38602,-16.6229
-0.351576,16.1568,31.1769,-156.483,2.32441,-174.954,-7.34755,3.77441,5.60212,-4.78657,5.11986,-0.0752917,-0.383936,2.63398,-2.83695,-17.0215,0.329652,0.215911,34.2265,-3.21702,2.37975,14.7444,-1.9053,0.149024,6.23438e-14,2.59414e-14,-54.5361,28.4879,-99.4845,71.2694,8.69039,24.8603,-3.71965,7.12502,49.0329,-25.4358,6.23438e-14,2.59414e-14,-52.0492,-18.0442,84.3381,74.8077,-11.0286,11.3741,18.2212,7.12502,36.4284,44.4313,-28.0803,5.56684,33.1144,41.9252,-53.1376,-31.2986,26.3687,-59.5893,15.0034,-21.988,61.0193,-22.8719,4.06507,-15.0006
-0.371507,16.1376,31.0866,-156.801,2.79795,-174.881,-7.07783,3.8737,5.30775,-4.63631,5.25396,-0.046265,-0.388348,2.69786,-2.64601,-16.7703,0.274816,0.223429,33.602,-3.20505,2.51354,14.403,-1.85819,0.217772,-2.50717e-14,-9.14409e-15,-54.8731,28.8237,-99.1356,74.8017,8.70134,21.5362,-3.6819,7.12502,45.9634,-26.7917,-2.50717e-14,-9.14409e-15,-52.6517,-19.3551,84.9773,77.5922,-10.3526,8.67852,17.4219,7.12502,33.8719,44.234,-27.4173,5.22233,33.0332,42.005,-52.6044,-31.3396,24.9556,-58.7183,14.9368,-21.8715,61.0844,-23.8539,4.59212,-13.6646
-0.39739,16.1181,30.9995,-157,3.09275,-174.761,-6.84467,3.91875,5.22705,-4.64737,5.3281,-0.02788,-0.529978,2.7307,-2.59503,-15.7466,0.137099,0.0651703,32.5026,-3.30002,2.85598,13.6966,-1.86714,0.387733,-2.08103e-14,-2.20651e-14,-55.4535,29.2115,-99.0352,78.0784,8.58614,18.9402,-3.14487,7.12502,43.5466,-27.1948,-2.08103e-14,-2.20651e-14,-53.4355,-20.6037,85.6358,80.3827,-10.0032,6.70079,16.9427,7.12502,31.9908,44.1505,-26.965,4.48349,33.033,42.2085,-51.8377,-31.3904,23.4629,-57.8563,14.4009,-21.4937,61.0377,-25.0736,5.34968,-12.7041
-0.425571,16.0983,30.9171,-157.181,3.43028,-174.735,-6.42835,3.92846,5.15661,-4.68629,5.36174,-0.0922204,-0.796445,2.73667,-2.65382,-16.2005,0.282664,0.531074,32.9249,-3.15807,2.46491,13.9659,-1.80062,0.165431,-3.73342e-15,-1.09332e-14,-55.8719,29.6025,-99.0106,81.0129,8.28149,16.9747,-2.3598,7.12502,41.707,-27.0472,-3.73342e-15,-1.09332e-14,-54.0955,-21.6742,86.0841,83.0401,-9.96884,5.43142,16.7495,7.12502,30.7814,44.1924,-26.6544,3.74761,32.8974,42.57,-51.0821,-31.1332,22.7133,-56.918,13.6783,-21.1301,60.8515,-26.409,6.14564,-12.6732
-0.454703,16.0798,30.8324,-157.487,3.92464,-174.859,-6.02742,4.00176,4.87368,-4.60326,5.46723,-0.203916,-0.934268,2.78094,-2.63208,-15.6521,0.22345,0.326987,32.1967,-3.18965,2.85912,13.538,-1.77799,0.365609,-7.22085e-14,-1.41137e-14,-55.8892,29.8293,-98.7267,83.7933,7.5233,15.5681,-1.86874,7.12502,40.3861,-26.9771,-7.22085e-14,-1.41137e-14,-54.6231,-22.9334,86.589,85.6612,-9.80143,4.53772,16.6319,7.12502,29.9289,44.232,-26.3362,3.10017,32.5354,43.1185,-50.2649,-30.8024,20.9776,-55.6906,12.8673,-20.8821,60.5266,-27.6373,6.92738,-13.1254
-0.481582,16.0599,30.746,-157.769,4.34614,-174.927,-5.63149,4.06152,4.56383,-4.63379,5.57269,-0.247298,-1.19803,2.82901,-2.53256,-15.087,0.171668,0.18628,31.6851,-3.26315,3.17329,13.2064,-1.79117,0.509129,6.35443e-14,1.98412e-14,-56.1374,30.0428,-98.5259,86.3612,6.53563,13.5214,-0.979579,7.12502,38.4581,-26.6527,6.35443e-14,1.98412e-14,-55.3443,-24.2061,87.2799,88.1377,-9.63895,3.79436,16.2225,7.12502,29.2194,43.9483,-26.1041,2.67772,32.2463,43.8332,-49.3391,-30.6455,18.9784,-54.45,11.9208,-20.5345,60.1562,-29.0228,7.18737,-11.4487
-0.509598,16.0402,30.6624,-157.987,4.60418,-175.28,-5.25409,3.8968,3.95031,-4.64278,5.38268,-0.261918,-1.47937,2.73626,-2.25156,-15.3317,0.316151,0.441634,31.7976,-3.06017,2.95846,13.2956,-1.69498,0.410487,-5.67445e-14,-9.07033e-15,-56.3244,30.6765,-98.4817,88.7056,5.73273,10.7197,0.139161,7.12502,35.8086,-26.2241,-5.67445e-14,-9.07033e-15,-55.9785,-25.0377,87.9542,90.2761,-10.4099,2.2895,15.285,7.12502,27.7814,43.2518,-26.0753,2.14491,31.7048,44.7241,-48.5622,-30.7159,17.3854,-53.3472,10.8717,-20.582,59.766,-30.2186,7.72196,-11.4433
-0.53911,16.0292,30.5783,-157.94,4.57721,-175.482,-5.56219,3.65986,3.52132,-4.31254,5.03353,-0.152031,-1.03163,2.57279,-1.88221,-16.0088,0.431952,0.614488,31.6728,-2.7316,2.64311,13.3742,-1.53001,0.311866,-7.81286e-14,-9.10682e-15,-55.65,31.5711,-97.9757,90.7753,4.57859,8.44982,1.29174,7.12502,33.6546,-25.568,-7.81286e-14,-9.10682e-15,-55.802,-25.7512,88.3517,92.1393,-11.3066,0.828954,14.4124,7.12502,26.3841,42.5967,-26.4396,1.39403,31.4,45.7802,-47.937,-30.605,15.7359,-52.7418,9.85478,-20.5689,59.4782,-30.8344,8.67358,-12.2824
-0.572294,16.0277,30.4955,-158.186,4.8502,-175.612,-5.0327,3.59915,3.25769,-4.35679,4.97445,-0.196101,-1.39057,2.53717,-1.82575,-15.8476,0.474458,0.637613,31.5083,-2.65044,2.63496,13.2674,-1.49414,0.319563,-3.89354e-14,-6.52262e-15,-55.6769,31.9651,-98.0297,92.5008,3.38946,5.96899,2.81496,7.12502,31.2938,-24.5301,-3.89354e-14,-6.52262e-15,-56.0911,-26.7073,88.7983,94.0348,-11.6887,0.599101,13.7101,7.12502,26.1641,41.9272,-26.5888,0.640841,31.0273,47.0164,-47.3339,-30.8363,14.4785,-51.912,9.17286,-20.6032,59.2579,-31.3022,9.72234,-12.4493
-0.603182,16.0223,30.4108,-158.32,5.19022,-175.719,-4.49586,3.55265,2.99761,-4.5928,4.95467,-0.236644,-1.95121,2.52525,-1.775,-15.5617,0.567236,0.775823,31.5049,-2.5313,2.48373,13.1985,-1.46139,0.254575,6.57045e-14,1.64246e-14,-55.9846,32.2575,-98.2768,94.1101,2.0741,2.82354,4.5827,7.12502,28.2919,-23.3006,6.57045e-14,1.64246e-14,-56.5624,-27.8093,89.5447,95.504,-12.0605,-1.98397,12.0996,7.12502,23.6888,40.6599,-27.0302,-0.0316398,30.6856,48.4521,-46.3232,-30.1402,13.0378,-51.2587,8.56388,-20.6498,59.0734,-31.9563,10.4454,-11.8371
-0.630172,16.023,30.3245,-158.482,5.54818,-176.114,-4.20236,3.47875,2.42932,-4.53455,4.85971,-0.340448,-2.09297,2.48195,-1.58913,-16.5936,0.741683,1.13707,32.1485,-2.3215,2.1058,13.6881,-1.3609,0.0672652,-2.14936e-15,-9.74045e-15,-55.7375,32.6535,-98.2739,95.4546,0.80905,-0.361197,6.46219,7.12502,25.2444,-21.8878,-2.14936e-15,-9.74045e-15,-56.6047,-29.1363,90.4085,96.5359,-11.9215,-1.40851,12.6143,7.12502,24.2406,41.102,-27.6924,-1.10234,30.0615,50.1528,-44.5499,-30.5423,10.2121,-50.5413,7.95862,-21.0345,58.8108,-32.5131,11.1976,-11.9962
-0.659227,16.0305,30.2394,-158.645,5.80232,-176.626,-3.87136,3.36655,1.80981,-4.42432,4.70553,-0.48531,-2.20376,2.40881,-1.41754,-16.7602,0.727266,0.864902,31.8222,-2.27133,2.40999,13.5892,-1.30809,0.248791,2.41151e-14,1.59028e-15,-55.2537,33.1445,-98.2819,96.4916,-0.695266,-2.74514,8.19206,7.12502,22.9585,-20.4609,2.41151e-14,1.59028e-15,-56.563,-30.5059,91.3102,97.3767,-11.9248,-2.64408,12.0369,7.12502,23.0555,40.6777,-28.5754,-2.50435,29.3249,52.1144,-42.2144,-30.444,9.62279,-49.7202,7.35043,-21.5625,58.4288,-33.1051,11.3918,-11.0079
-0.686149,16.0382,30.1527,-158.667,6.14264,-176.958,-3.61961,3.30544,1.26759,-4.38366,4.62529,-0.563607,-2.33883,2.37589,-1.21534,-17.2005,0.720646,0.795764,31.8012,-2.22005,2.41798,13.6759,-1.27246,0.273771,-6.64686e-15,-4.67144e-15,-54.8808,33.6427,-98.4726,97.2538,-2.22884,-4.88361,10.0523,7.12502,20.9052,-18.8412,-6.64686e-15,-4.67144e-15,-56.5038,-31.666,92.102,98.1902,-12.4522,-4.38297,10.9695,7.12502,21.3862,39.8093,-29.8283,-3.40296,28.8026,54.2798,-39.5534,-31.7808,6.695,-49.0096,7.02758,-21.9911,58.0255,-33.678,11.4598,-10.2813
-0.710043,16.0507,30.0613,-158.616,6.55141,-177.136,-3.62873,3.302,0.987324,-4.48168,4.63133,-0.685619,-2.44623,2.38669,-1.18896,-16.9822,0.783277,0.878382,31.7926,-2.14402,2.32811,13.6215,-1.2532,0.235413,1.18277e-14,2.68359e-15,-55.0322,34.0031,-99.1087,97.954,-3.8733,-7.29841,12.0284,7.12502,18.5838,-17.1039,1.18277e-14,2.68359e-15,-56.7315,-32.8345,92.9481,98.9153,-13.3926,-7.4483,9.87768,7.12502,18.4396,39.0237,-31.452,-3.88071,28.5146,56.6963,-35.3876,-34.015,2.45994,-48.3858,6.90718,-22.3107,57.6181,-34.3191,11.6173,-9.95906
-0.734422,16.0535,29.9734,-158.542,6.90892,-177.353,-3.63102,3.26241,0.618845,-4.52136,4.58618,-0.755695,-2.50919,2.37402,-1.05957,-17.2969,0.880801,0.882746,32.0781,-2.00092,2.20769,13.8108,-1.20839,0.20693,1.59276e-14,1.98785e-16,-54.9779,34.3341,-99.5631,98.4585,-5.52222,-9.86641,14.0991,7.12502,16.1123,-15.2511,1.59276e-14,1.98785e-16,-56.6772,-33.9627,93.8601,99.1572,-14.0134,-7.85796,9.67577,7.12502,18.0455,38.8586,-33.3033,-4.19885,28.288,59.1564,-27.9627,-38.7624,-0.0828901,-47.8586,6.73619,-22.6702,57.2581,-35.0053,11.643,-9.33547
-0.761483,16.0557,29.8918,-158.484,7.15747,-177.34,-3.63788,3.2622,0.577048,-4.50674,4.58435,-0.763176,-2.49277,2.37347,-1.043,-17.4504,0.921687,0.715011,32.0487,-1.86986,2.23392,13.8305,-1.15979,0.269716,-8.00605e-14,-1.63997e-14,-54.7215,34.5682,-99.8615,98.727,-7.04074,-12.725,16.6073,7.12502,13.3583,-12.9444,-8.00605e-14,-1.63997e-14,-56.5099,-35.2989,94.9146,98.9922,-13.9658,-9.29001,8.6042,7.12502,16.6673,37.9086,-34.409,-3.56856,27.8855,61.8655,-35.6685,-30.2195,24.9788,-47.3146,6.50057,-22.7484,56.9244,-35.4368,12.0365,-9.65273
-0.790333,16.0641,29.8046,-158.439,7.19522,-177.294,-3.49671,3.20765,0.646794,-4.55537,4.51331,-0.744903,-2.61977,2.33583,-1.07577,-17.39,0.952919,0.728327,31.8654,-1.71898,2.04956,13.7323,-1.10966,0.222129,-4.84786e-14,4.07509e-15,-54.6596,34.7224,-100.305,98.9368,-8.31909,-13.6026,18.5775,7.12502,12.5123,-11.0279,-4.84786e-14,4.07509e-15,-56.4769,-36.7094,96.0337,98.7907,-13.9424,-10.2627,7.58016,7.12502,15.7307,36.9608,-36.3279,-3.41501,27.9245,64.4364,-33.177,-31.0156,31.935,-46.7311,6.19511,-22.745,56.553,-35.7459,12.3589,-9.97053
-0.820765,16.0639,29.714,-158.382,7.25621,-177.333,-3.30779,3.16819,0.675638,-4.64139,4.46455,-0.802008,-2.80904,2.30962,-1.16725,-17.7872,0.99452,0.937642,32.1673,-1.64213,1.71059,13.9458,-1.09599,0.0600129,7.25564e-15,-7.05686e-15,-54.4964,34.7492,-100.76,98.977,-9.75249,-14.6465,20.8897,7.12502,11.5057,-8.77455,7.25564e-15,-7.05686e-15,-56.5823,-38.1107,97.1747,98.4933,-13.9328,-11.8337,6.46673,7.12502,14.2173,35.9601,-38.1899,-3.36151,27.8453,66.7896,-30.7749,-31.6091,37.4031,-46.1291,5.89191,-22.8464,56.1455,-36.3593,12.3101,-9.03857
-0.844871,16.0669,29.6278,-158.237,7.17621,-177.71,-3.26035,3.01237,0.367477,-4.71371,4.26459,-0.918387,-2.92796,2.21898,-1.12434,-18.062,1.02698,0.895764,32.2153,-1.54533,1.65473,14.026,-1.05784,0.0616535,-8.19987e-16,9.34288e-15,-54.1419,34.9538,-101.268,98.6325,-10.9855,-15.6222,23.1419,7.12502,10.5647,-6.57253,-8.19987e-16,9.34288e-15,-56.4906,-39.4483,98.2171,97.9755,-13.9423,-13.3871,5.65101,7.12502,12.72,35.2436,-40.2053,-3.61622,27.5235,68.866,-26.8687,-33.1147,41.347,-45.6638,5.49727,-23.2968,55.6272,-36.6017,12.4815,-9.41606
-0.86826,16.0781,29.535,-158.173,7.14889,-177.955,-3.16518,2.83884,0.165947,-4.7489,4.0363,-0.952561,-3.03327,2.11074,-1.05706,-18.0353,1.04108,0.548162,31.8959,-1.40869,1.86916,13.8809,-0.996246,0.236349,-1.6847e-14,5.96354e-15,-53.8469,35.3548,-101.873,98.0991,-11.658,-16.659,25.0703,7.12502,9.56437,-4.69263,-1.6847e-14,5.96354e-15,-56.212,-40.6603,99.2305,97.1681,-13.9791,-14.49,5.28632,7.12502,11.6566,34.9421,-42.0265,-3.8649,27.3074,70.5948,-24.8207,-31.0591,38.786,-45.0519,5.33801,-23.6466,55.0847,-36.7699,12.5302,-10.0711
-0.889491,16.0941,29.4335,-158.075,7.36751,-178.124,-3.18458,2.76637,-0.0809234,-4.84195,3.95119,-0.961983,-3.13603,2.07961,-0.933359,-17.805,1.00538,0.238773,31.6375,-1.35509,1.96768,13.718,-0.994206,0.3406,3.60049e-14,-1.37161e-14,-53.6643,35.4911,-102.489,97.4886,-12.1189,-17.2976,27.0259,7.12502,8.94813,-2.76435,3.60049e-14,-1.37161e-14,-56.1413,-41.893,100.376,96.2082,-14.4067,-15.4597,4.62649,7.12502,10.7213,34.3329,-43.7998,-3.79422,27.0466,71.9644,-22.1127,-28.9637,37.2083,-44.3725,5.31621,-23.9748,54.4713,-36.8075,13.3043,-13.0546
-0.908356,16.1089,29.3327,-157.954,7.54864,-178.162,-3.03737,2.75706,-0.15034,-5.00913,3.95076,-1.00144,-3.39435,2.08552,-0.951319,-17.8501,0.991471,0.183671,31.6728,-1.32548,1.86703,13.7415,-1.00286,0.314649,-3.98066e-14,1.19271e-15,-53.5626,35.3656,-103.145,96.7039,-12.2033,-18.1422,28.645,7.12502,8.13307,-1.17848,-3.98066e-14,1.19271e-15,-56.1489,-43.3206,101.655,94.9229,-15.1601,-16.6582,4.0117,7.12502,9.56512,33.7746,-45.5554,-3.55013,26.9218,72.9076,-19.8399,-26.2618,35.5225,-43.7064,5.30854,-24.1403,53.8564,-36.6877,14.3069,-16.3808
-0.928168,16.1233,29.2336,-157.852,7.76302,-178.571,-2.78611,2.70304,-0.540691,-5.24268,3.89411,-1.14647,-3.79518,2.07554,-0.909034,-17.8906,1.04432,0.149569,31.6416,-1.19383,1.79053,13.7341,-0.957022,0.31301,-1.56294e-14,-5.1684e-15,-53.5826,35.3146,-103.96,95.7742,-12.0562,-19.0104,29.9267,7.12502,7.29515,0.0724733,-1.56294e-14,-5.1684e-15,-56.1582,-44.7633,103.192,93.3792,-15.0229,-17.8253,3.43294,7.12502,8.43891,33.2443,-47.383,-3.35662,26.4169,73.5066,-17.4154,-24.0039,33.8469,-43.0202,5.25384,-24.7315,53.1609,-36.953,14.5152,-17.3458
-0.943288,16.1485,29.1221,-157.68,7.88489,-178.535,-2.69386,2.66515,-0.544637,-5.46218,3.86228,-1.14188,-4.07739,2.06806,-0.917242,-17.8908,1.12914,0.172868,31.6381,-1.02285,1.65123,13.7291,-0.89928,0.282379,1.72446e-14,1.11319e-14,-53.5761,35.3012,-104.8,94.6287,-11.7495,-19.5191,31.4853,7.12502,6.8041,1.61467,1.72446e-14,1.11319e-14,-56.5557,-46.3923,105.154,91.4737,-15.4899,-19.5,3.66931,7.12502,6.82251,33.5394,-48.9263,-3.02794,26.4471,73.5741,-14.9018,-22.8303,32.825,-42.3474,5.21835,-24.7897,52.4498,-37.4804,14.3581,-16.9158
-0.962346,16.1772,28.9963,-157.612,7.8735,-178.467,-2.83112,2.62008,-0.38637,-5.46939,3.80694,-1.12453,-3.99912,2.03645,-0.978944,-18.1827,1.17628,0.17807,31.7864,-0.896112,1.47937,13.8547,-0.863992,0.234087,-2.63638e-14,1.41137e-14,-53.0906,35.3051,-105.316,93.1978,-11.1615,-19.8357,32.9667,7.12502,6.49838,3.08637,-2.63638e-14,1.41137e-14,-56.4138,-47.9031,106.489,89.6593,-15.7099,-20.3827,3.6247,7.12502,5.9703,33.5206,-50.1879,-2.9095,26.5668,73.3019,-13.8782,-21.0136,27.8403,-41.5168,5.04719,-24.7978,51.6956,-37.744,15.0591,-18.4102
-0.987691,16.2004,28.8662,-157.605,7.66788,-178.378,-3.08323,2.50763,-0.0366458,-5.33964,3.64965,-1.08761,-3.70457,1.94309,-1.11445,-18.4592,1.23657,0.145507,31.7366,-0.692439,1.30919,13.8901,-0.788156,0.209468,3.65764e-14,1.23246e-14,-52.1824,35.5248,-105.623,91.4282,-10.1604,-20.4315,33.7545,7.12502,5.92325,3.85733,3.65764e-14,1.23246e-14,-55.9052,-49.1595,107.404,87.6401,-16.397,-21.462,3.36172,7.12502,4.9283,33.2844,-51.3589,-2.95162,26.8067,72.7337,-16.2437,-17.2186,21.4165,-40.5568,4.47739,-24.6888,50.9896,-38.1533,15.6094,-18.8172
-1.01196,16.2139,28.7513,-157.699,7.54915,-178.407,-2.55078,2.38494,0.118008,-5.59261,3.49862,-1.08603,-4.26296,1.8642,-1.23764,-18.4634,1.31321,0.204127,31.8646,-0.546562,1.08273,13.9447,-0.759017,0.131098,1.07592e-14,1.25234e-14,-52.1003,35.4564,-106.387,89.6324,-8.75096,-20.9086,34.2431,7.12502,5.46256,4.33346,1.07592e-14,1.25234e-14,-56.3215,-50.2109,109.039,85.3869,-17.1087,-22.6404,3.16291,7.12502,3.79035,33.1089,-52.5651,-2.82464,26.9077,71.9799,-16.6109,-16.3591,19.5978,-39.5725,3.69724,-24.6571,50.3483,-38.8194,15.9838,-18.706
-1.03064,16.2224,28.6473,-157.509,7.26322,-178.398,-2.36995,2.21737,0.2966,-5.77938,3.29285,-1.0502,-4.55777,1.75956,-1.31472,-18.8567,1.3632,0.120098,32.147,-0.431188,0.988102,14.1545,-0.736332,0.125198,5.02925e-14,-1.92821e-14,-51.6391,35.2633,-106.793,87.5999,-6.82097,-21.265,34.776,7.12502,5.11845,4.8578,5.02925e-14,-1.92821e-14,-56.0395,-51.4356,110.253,82.9256,-17.9761,-23.0062,3.29033,7.12502,3.43712,33.2424,-54.0405,-2.4835,27.0979,71.0142,-17.485,-15.6279,19.2269,-39.0588,2.69941,-24.4796,49.7972,-39.3865,16.2597,-18.1451
-1.04386,16.2341,28.5351,-157.339,6.66722,-178.172,-2.23332,1.93994,0.716251,-5.97238,2.95251,-0.820567,-4.83815,1.58218,-1.32025,-18.9903,-0.780878,0.552834,32.3122,0.705708,0.0651924,14.254,1.09445,0.235714,2.1096e-14,4.96962e-15,-51.3872,35.2792,-107.145,85.4111,-4.8378,-21.8069,35.1879,7.12502,4.59523,5.25778,2.1096e-14,4.96962e-15,-55.3888,-52.0689,111.123,80.3343,-19.4829,-22.4013,3.3144,7.12502,4.02124,33.2562,-55.1801,-2.2286,27.57,69.7386,-18.4322,-15.164,19.1058,-38.4897,1.84648,-24.0159,49.2752,-39.8077,16.2597,-17.4656
-1.04693,16.2487,28.4205,-157.369,7.07761,-177.609,-1.78457,2.01474,0.837821,-5.67508,3.02073,-0.516776,-4.78824,1.59926,-1.0855,-20.9748,-0.573008,0.322371,32.7962,0.996897,0.000938494,14.9198,1.13078,0.308779,3.40667e-14,4.77083e-15,-49.7794,35.721,-106.629,82.8999,-2.80929,-22.3704,35.7489,7.12502,4.05109,5.80771,3.40667e-14,4.77083e-15,-52.9987,-52.7415,110.449,77.5882,-21.3904,-21.333,2.70087,7.12502,5.05286,32.6206,-55.938,-1.09856,28.0047,68.079,-18.6064,-15.3884,17.2945,-37.5742,2.04656,-23.6057,48.7412,-40.2959,16.6887,-17.7206
-1.06219,16.2639,28.3013,-157.333,6.78354,-177.487,-1.68599,1.90269,1.19303,-5.83998,2.89491,-0.502765,-5.00555,1.52535,-1.27625,-20.8045,-0.551714,0.33627,32.8155,1.06153,-0.0409189,14.8908,1.16208,0.302044,-8.94531e-15,0,-49.1363,35.47,-106.761,80.1397,-0.511757,-22.9524,35.9131,7.12502,3.48905,5.96191,-8.94531e-15,0,-52.5276,-53.5777,111.222,74.5914,-23.4903,-20.7957,2.18423,7.12502,5.5716,32.091,-56.8447,-0.698324,28.154,66.2095,-18.5669,-15.8256,14.5518,-36.783,1.52047,-23.4252,48.0929,-40.6639,16.9899,-17.7491
-1.07256,16.2791,28.1756,-157.318,6.33792,-177.257,-1.53536,1.69265,1.60457,-6.03973,2.65007,-0.38718,-5.29845,1.39166,-1.3931,-20.7275,-0.465588,0.388621,32.9806,1.24953,-0.134541,14.9513,1.24869,0.29386,1.60767e-14,-2.78299e-15,-48.4592,35.293,-106.822,77.2615,1.42272,-22.5942,35.8623,7.12502,3.83494,5.91704,1.60767e-14,-2.78299e-15,-52.0911,-54.3253,111.985,71.4266,-25.4624,-19.4547,1.56211,7.12502,6.86628,31.4308,-57.4987,-0.311572,28.3421,64.1579,-19.2438,-15.5778,14.6419,-35.869,0.906387,-23.0556,47.3649,-40.9643,17.2372,-18.1897
-1.07953,16.2972,28.046,-157.215,5.83079,-177.251,-1.47839,1.38102,1.71166,-6.18833,2.26194,-0.23785,-5.50398,1.20178,-1.29391,-21.0134,-0.290206,0.461103,33.1176,1.54086,-0.296807,15.0835,1.35361,0.27156,-3.00165e-14,-7.7526e-15,-47.5748,35.3822,-106.602,74.3132,3.27721,-22.0255,35.7663,7.12502,4.38415,5.83172,-3.00165e-14,-7.7526e-15,-51.2507,-55.0362,112.362,68.3343,-27.2345,-16.2714,0.0898929,7.12502,9.93835,29.8353,-58.2147,0.0775635,28.188,62.0045,-20.0532,-15.3326,14.5492,-35.051,0.235457,-22.9048,46.5861,-41.3221,17.2342,-17.6504
-1.08416,16.3108,27.9201,-157.072,5.35004,-177.357,-1.36151,1.04048,1.59603,-6.2976,1.8251,-0.0931681,-5.70864,0.996489,-1.07201,-21.6768,-0.136455,0.473523,33.3062,1.74423,-0.339025,15.3256,1.41703,0.294893,2.33572e-15,6.36111e-15,-46.5153,35.6784,-106.308,70.9109,5.60787,-22.8613,35.3083,7.12502,3.57708,5.35859,2.33572e-15,6.36111e-15,-49.9099,-55.616,112.197,64.9792,-29.6484,-23.4254,6.07027,7.12502,3.03227,36.0285,-58.9874,0.463557,27.863,59.7662,-20.204,-15.5641,12.0095,-34.3148,-0.293795,-22.8839,45.7751,-41.7465,17.0407,-16.695
-1.09002,16.3201,27.7979,-157.079,5.11347,-177.072,-1.1799,0.891524,1.77405,-6.27225,1.63519,0.0807584,-5.7923,0.894706,-0.98858,-22.2303,0.0217512,0.695397,33.3204,1.88878,-0.499821,15.4644,1.45903,0.216523,-3.23025e-15,4.37326e-15,-45.2015,35.7638,-105.767,67.3088,7.85162,-23.8049,35.2355,7.12502,2.66576,5.27237,-3.23025e-15,4.37326e-15,-48.1471,-56.3728,111.645,61.5601,-32.1275,-21.5407,4.59681,7.12502,4.85231,34.5212,-59.4653,1.10104,27.834,57.4192,-20.0799,-15.7152,8.97915,-33.39,-0.602373,-22.5454,44.9723,-42.0012,17.3399,-16.736
-1.09016,16.3377,27.6668,-157.104,4.74554,-177.139,-1.12025,0.65575,1.68979,-6.32335,1.3268,0.134584,-5.89223,0.748292,-0.876382,-22.48,0.214191,0.936439,33.2437,2.05214,-0.558664,15.49,1.53399,0.179621,2.28602e-15,-8.94531e-15,-44.0361,35.8337,-105.293,63.5536,9.95755,-24.2119,35.7059,7.12502,2.27276,5.73825,2.28602e-15,-8.94531e-15,-47.095,-57.4899,111.667,58.5583,-33.0772,-19.7561,5.53219,7.12502,6.57529,35.4101,-59.9438,1.62368,27.3625,55.1011,-20.37,-15.7251,7.97152,-32.3852,-1.04115,-22.5172,44.0944,-42.1077,17.6515,-17.2383
-1.09252,16.3599,27.5324,-156.998,3.97724,-177.158,-1.09807,0.300576,1.86347,-6.46153,0.880819,0.235047,-6.06429,0.52635,-0.854245,-22.6957,0.338601,0.88565,33.1874,2.16456,-0.416406,15.511,1.58212,0.269182,-1.13556e-14,-6.75868e-15,-42.9102,36.0836,-104.736,60.1037,11.5199,-24.4409,35.0857,7.12502,2.05154,5.11582,-1.13556e-14,-6.75868e-15,-45.0398,-58.1056,110.6,54.8714,-34.3059,-19.6383,4.49058,7.12502,6.68899,34.3649,-60.4972,2.09184,26.871,52.7586,-20.4261,-16.3058,6.93958,-31.5803,-1.69181,-22.2945,43.196,-41.9493,17.9696,-17.9405
-1.10382,16.3763,27.3998,-156.841,3.11097,-177.27,-1.05186,-0.0318744,2.17124,-6.60694,0.462801,0.199699,-6.25788,0.306179,-1.04797,-23.3053,0.42468,1.04864,33.3718,2.16525,-0.344176,15.7403,1.60069,0.278244,-1.11816e-15,-4.37326e-15,-41.4551,35.8518,-103.857,56.7109,12.3728,-23.752,33.7553,7.12502,2.7169,3.79288,-1.11816e-15,-4.37326e-15,-42.5192,-58.5936,109.001,51.2539,-35.8469,-18.4484,3.55855,7.12502,7.83754,33.3933,-61.19,2.25875,26.3116,50.55,-19.7897,-17.0943,5.49532,-30.8047,-2.50609,-22.146,42.2046,-41.7972,18.0201,-17.7283
-1.10367,16.3917,27.2601,-156.774,2.81736,-177.079,-1.03561,-0.152931,2.36836,-6.73157,0.327566,0.247088,-6.40647,0.234459,-1.10449,-23.7598,0.483218,1.16369,33.5693,2.14473,-0.222969,15.9404,1.61946,0.313027,-4.42296e-15,-1.98785e-15,-40.0417,35.2961,-102.67,53.0945,13.364,-22.6975,33.0216,7.12502,3.73521,3.07458,-4.42296e-15,-1.98785e-15,-40.662,-59.4171,107.95,47.3089,-38.643,-19.3442,4.10811,7.12502,6.97286,33.9733,-61.746,2.90439,25.8742,48.4365,-18.7799,-17.6634,5.78185,-29.7701,-2.66013,-21.902,41.1708,-41.7719,18.1216,-18.305
-1.10199,16.4048,27.1204,-156.697,2.63925,-177.248,-1.03763,-0.319936,2.12714,-6.97486,0.131957,0.246361,-6.67198,0.160361,-0.963782,-23.6749,0.495934,1.18109,33.5955,2.12939,-0.124265,15.932,1.63518,0.349945,-1.05356e-14,5.36719e-15,-38.9513,34.8073,-101.544,49.3995,14.6687,-22.2357,32.6773,7.12502,4.18117,2.73854,-1.05356e-14,5.36719e-15,-38.6814,-60.0887,106.821,43.7576,-39.351,-18.4485,4.25141,7.12502,7.83743,34.0861,-62.4543,3.49937,24.9709,46.5283,-17.3847,-18.2083,7.11049,-28.7421,-2.82291,-22.0645,40.1051,-41.6938,18.2534,-18.547
-1.09898,16.4158,26.9823,-156.601,2.18824,-177.563,-1.12699,-0.548502,1.89224,-7.15317,-0.159693,0.161797,-6.81939,0.0358182,-0.908225,-23.6677,0.563835,1.31849,33.4914,2.10237,-0.00554183,15.8793,1.65424,0.368639,-3.97569e-16,-8.15017e-15,-37.6046,34.1094,-100.154,45.8325,16.2548,-21.9124,32.2308,7.12502,4.49339,2.29848,-3.97569e-16,-8.15017e-15,-36.49,-61.1122,105.347,40.5531,-39.7643,-16.0908,3.96415,7.12502,10.1125,33.7012,-63.2478,3.95637,23.8986,44.8368,-15.9717,-19.0432,8.27888,-27.7762,-3.05545,-22.2749,39.0036,-41.3578,18.259,-18.458
-1.09465,16.4178,26.8481,-156.475,1.90499,-177.656,-1.2284,-0.709609,1.74373,-7.21379,-0.370511,0.159057,-6.83022,-0.0552282,-0.818738,-24.2335,0.720984,1.50741,33.5498,2.1805,0.0456086,16.0415,1.7007,0.377741,-6.31141e-15,8.34896e-15,-35.9512,33.3829,-98.3431,42.4587,17.884,-21.5685,31.6562,7.12502,4.82543,1.7312,-6.31141e-15,8.34896e-15,-33.136,-61.2197,102.494,37.6974,-40.5417,-14.9743,5.71548,7.12502,11.1896,35.3971,-64.1089,4.73279,22.8455,43.3869,-14.6694,-20.086,9.73266,-26.8429,-3.13668,-22.3033,37.8945,-41.1075,18.3558,-18.5913
-1.08534,16.4135,26.7128,-156.431,1.97677,-178.06,-1.30283,-0.768878,1.07974,-7.20424,-0.474982,0.071614,-6.76959,-0.070048,-0.534131,-24.8546,0.770453,1.54818,33.5816,2.10874,0.191906,16.1992,1.6768,0.422486,8.24956e-15,7.55382e-15,-34.0767,32.4109,-96.2044,39.0189,18.8773,-21.9476,31.6925,7.12502,4.45939,1.75949,8.24956e-15,7.55382e-15,-29.0529,-60.7838,98.8487,35.0725,-41.4309,-13.3865,6.7702,7.12502,12.7206,36.3627,-65.0452,5.628,21.3567,42.2136,-13.3904,-21.1761,12.7982,-25.8382,-3.11549,-22.7691,36.8182,-40.8679,18.7574,-19.5772
-1.07397,16.4058,26.5708,-156.404,2.00168,-178.676,-1.40738,-0.84822,0.238731,-7.30133,-0.596954,-0.11782,-6.80414,-0.079206,-0.257335,-24.9591,0.739991,1.65173,33.4249,1.92786,0.294797,16.1448,1.61888,0.4071,-4.32357e-15,7.95139e-16,-32.4127,30.7837,-93.9885,35.5462,19.9811,-11.3804,29.542,7.12502,14.654,0.0798517,-4.32357e-15,7.95139e-16,-25.2704,-60.1915,95.3274,32.6224,-41.8195,-12.2132,7.92689,7.12502,13.8515,37.4457,-65.9944,6.28562,19.7071,41.299,-12.5503,-22.303,16.1353,-24.7954,-3.14148,-23.4483,35.7888,-40.5505,19.1435,-20.5031
-1.0697,16.3873,26.428,-156.37,1.83716,-179.209,-1.40593,-1.01001,-0.335244,-7.4522,-0.812968,-0.255493,-6.9605,-0.145199,-0.0714143,-25.0194,0.78023,1.63141,33.1983,1.86448,0.497129,16.0446,1.60541,0.478077,0,6.36111e-15,-30.7927,29.0571,-91.5412,32.1662,21.8479,-18.5059,30.4301,7.12502,7.78211,0.59333,0,6.36111e-15,-21.4804,-59.0171,91.658,30.3339,-42.1429,-10.8431,8.85997,7.12502,15.1716,38.2838,-66.9259,6.43064,18.4917,40.6902,-11.6848,-23.0981,17.758,-23.7594,-3.27767,-23.9934,34.7719,-40.1073,19.3528,-21.0067
-1.06808,16.362,26.285,-156.434,1.71138,-179.784,-1.28301,-1.16724,-0.927425,-7.48242,-1.0449,-0.388276,-7.05428,-0.225541,0.132826,-25.3791,0.827109,1.57083,32.9391,1.7991,0.668397,15.9979,1.56779,0.541663,-1.19271e-15,1.59028e-15,-28.9656,27.0723,-88.7374,28.979,23.9898,-18.9783,29.8977,7.12502,7.32614,0.0444895,-1.19271e-15,1.59028e-15,-17.0875,-56.5381,87.3278,28.3775,-43.6188,-8.28274,9.51642,7.12502,17.6368,38.7365,-67.7546,6.21957,17.6467,40.3614,-10.376,-23.5394,17.5228,-22.6245,-3.31112,-24.6139,33.8032,-39.7168,19.5115,-21.8192
-1.0613,16.3301,26.1348,-156.607,1.72166,-180.398,-1.15509,-1.26514,-1.7033,-7.49927,-1.20475,-0.524703,-7.13147,-0.258312,0.432764,-25.678,0.764123,1.40103,32.748,1.60693,0.929538,15.9681,1.48508,0.638352,-7.55382e-15,-1.43125e-14,-27.2293,24.4048,-85.6626,26.0309,26.1651,-18.6534,29.2358,7.12502,7.63971,-0.606165,-7.55382e-15,-1.43125e-14,-13.0088,-53.1716,83.308,26.5906,-45.8573,-5.88423,10.1622,7.12502,19.9436,39.1588,-68.4311,5.86463,17.0739,40.2843,-9.54093,-23.6271,17.072,-21.3715,-3.51749,-25.2882,32.9292,-39.7239,19.7522,-22.0894
-1.05702,16.2852,25.9788,-156.814,1.90295,-181.081,-1.02759,-1.27106,-2.51126,-7.58673,-1.23728,-0.764136,-7.28874,-0.221264,0.63578,-25.7163,0.658935,1.31983,32.4912,1.36364,1.11222,15.8504,1.38687,0.672118,6.70898e-15,3.97569e-15,-25.6852,20.734,-82.3686,23.2539,28.9527,-17.5313,28.6504,7.12502,8.72264,-1.14938,6.70898e-15,3.97569e-15,-9.59284,-50.0257,79.9438,24.9561,-47.5653,-3.73184,11.1185,7.12502,22.0114,39.886,-69.0261,5.27232,16.7706,40.4457,-9.00545,-23.1553,16.7094,-20.1141,-3.56814,-26.1268,32.1436,-39.5415,20.0527,-22.5748
-1.04856,16.2304,25.8161,-156.985,2.13683,-181.656,-0.990824,-1.2454,-3.26859,-7.73766,-1.21136,-0.971367,-7.46592,-0.149114,0.838312,-25.5606,0.559251,1.21936,32.2021,1.15299,1.30715,15.675,1.30621,0.719507,2.68359e-15,1.70955e-14,-24.249,16.1131,-78.7627,20.6664,32.6049,-15.7848,27.9222,7.12502,10.4078,-1.80022,2.68359e-15,1.70955e-14,-6.56138,-47.3004,77.0394,23.3824,-48.7403,-1.90345,12.649,7.12502,23.766,41.1992,-69.6224,4.62031,16.8696,40.8407,-7.41525,-22.409,13.6673,-18.9143,-3.52391,-26.8547,31.4582,-39.3426,20.1362,-22.5475
-1.03797,16.1691,25.656,-157.256,2.28742,-182.258,-0.822844,-1.24035,-4.06305,-7.75455,-1.23972,-1.14111,-7.57269,-0.110719,1.10591,-25.7651,0.505118,1.16401,32.0321,1.01045,1.39942,15.6397,1.23867,0.734328,-6.60959e-15,1.59028e-14,-22.4916,10.5194,-74.7819,18.1136,37.1964,-15.2596,26.4696,7.12502,10.9144,-3.22676,-6.60959e-15,1.59028e-14,-3.35394,-44.6592,74.0738,22.0906,-49.7891,-0.898523,14.6449,7.12502,24.7295,43.0665,-70.0824,3.88568,17.0732,41.4551,-6.0297,-21.3324,11.9187,-17.6563,-3.52368,-27.5586,30.8838,-39.5538,19.8416,-22.0921
-1.02894,16.11,25.4926,-157.587,2.31706,-182.816,-0.491771,-1.25188,-4.72656,-7.77983,-1.30181,-1.27288,-7.78422,-0.0947375,1.34399,-26.1566,0.449929,1.09181,32.0639,0.922032,1.39868,15.7425,1.18321,0.730471,-2.08724e-15,-1.66979e-14,-20.8875,3.74064,-70.4882,15.7007,43.3764,-15.4388,24.9287,7.12502,10.7415,-4.77669,-2.08724e-15,-1.66979e-14,-0.386497,-41.6708,71.3536,21.0521,-51.4735,-0.381073,16.3651,7.12502,25.2253,44.7178,-70.4219,3.05042,17.4395,42.2875,-4.3419,-19.9261,10.6119,-16.405,-3.62904,-28.1844,30.4451,-39.8026,19.8329,-22.0531
-1.02321,16.0467,25.3176,-157.895,2.33807,-183.247,-0.216445,-1.26915,-5.2083,-7.97093,-1.34612,-1.36672,-8.14758,-0.0627216,1.51653,-26.1373,0.372675,1.03946,32.1468,0.861823,1.35052,15.7778,1.15039,0.709125,6.01324e-15,-5.96354e-15,-19.8591,-5.37157,-65.5925,13.2894,52.5925,-15.9611,23.9773,7.12502,10.2377,-5.75355,6.01324e-15,-5.96354e-15,1.90831,-39.6445,69.0414,20.3227,-52.1945,0.366551,17.6594,7.12502,25.9414,45.9092,-70.7623,2.00364,18.2232,43.3869,-2.05269,-18.0236,7.45295,-15.1525,-3.83558,-28.708,30.1639,-40.1649,19.7908,-21.6293
-1.01604,15.9737,25.1331,-158.108,2.52446,-183.508,-0.288463,-1.25251,-5.6097,-8.09825,-1.31502,-1.35877,-8.24222,-0.00355779,1.74284,-26.1464,0.325143,0.87274,32.1796,0.889876,1.29211,15.7944,1.13305,0.719394,9.44227e-15,-1.23246e-14,-19.3919,-19.5504,-59.2558,10.987,67.127,-16.5083,23.3669,7.12502,9.7098,-6.38926,9.44227e-15,-1.23246e-14,4.28934,-38.8508,66.4285,19.8985,-51.7582,1.09947,18.5923,7.12502,26.6431,46.7375,-71.1896,1.37531,19.0033,44.7376,0.0445537,-16.2375,4.04726,-14.0625,-4.16745,-29.1123,30.0626,-40.7074,19.8851,-21.361
-1.01227,15.8994,24.9367,-158.262,2.67918,-183.434,-0.580388,-1.202,-5.58999,-8.19124,-1.20413,-1.2748,-8.17906,0.0609008,1.8085,-26.1579,0.342603,0.871771,32.2545,1.02473,1.02741,15.8336,1.15133,0.636197,5.09386e-15,-1.51076e-14,-20.4581,-36.2629,-51.9342,9.48858,83.7247,-16.1779,21.9104,7.12502,10.0285,-7.83063,5.09386e-15,-1.51076e-14,6.63008,-37.5784,63.8631,19.6996,-52.451,2.14192,19.1402,7.12502,27.6403,47.1297,-71.5091,0.846207,20.2179,46.3403,1.77014,-14.2226,4.2645,-13.0145,-4.55066,-29.1854,30.0885,-41.1064,20.363,-21.7929
-1.01069,15.8274,24.7274,-158.256,2.65526,-183.316,-1.06707,-1.18694,-5.3754,-8.38817,-1.10129,-1.21821,-8.11697,0.119138,1.734,-26.0581,0.293745,0.728502,32.3872,1.05185,1.02297,15.8737,1.15559,0.66885,1.71452e-15,1.19271e-15,-24.5898,-52.9658,-42.638,9.05985,100.358,-15.9012,20.4964,7.12502,10.2955,-9.23165,1.71452e-15,1.19271e-15,8.91257,-36.8819,61.2239,19.7284,-52.8053,3.38273,19.7988,7.12502,28.8262,47.5923,-71.8037,0.188321,21.4601,48.0853,2.25587,-12.3722,9.9175,-12.0748,-5.06584,-29.1505,30.2098,-41.6826,20.6068,-22.3157
-1.00552,15.7558,24.509,-158.237,2.50609,-183.228,-1.64142,-1.25028,-5.22001,-8.58655,-1.09372,-1.1022,-7.99708,0.13765,1.75995,-25.892,0.230115,0.558755,32.5145,1.08489,0.987663,15.8963,1.15539,0.69362,-2.13694e-15,-2.24627e-14,-39.0862,-68.2946,-23.6558,10.02,116.855,-16.7745,20.6785,7.12502,9.45295,-9.08947,-2.13694e-15,-2.24627e-14,11.1251,-36.3755,58.5817,19.7186,-52.677,3.8147,20.1856,7.12502,29.2388,47.9081,-72.0651,-0.392791,22.4247,49.815,1.627,-11.2888,13.2265,-11.1441,-5.60724,-29.0928,30.332,-42.1188,20.8762,-23.3913
-0.999802,15.6922,24.283,-158.112,2.26345,-182.858,-2.44661,-1.37076,-4.7616,-8.80956,-1.12872,-0.847967,-7.76762,0.120351,1.76182,-25.6015,0.188588,0.484514,32.6047,1.17616,0.780218,15.8745,1.16609,0.638351,1.1691e-14,1.64991e-14,-47.7364,-73.1965,-12.0288,10.6809,121.839,-16.3258,19.2613,7.12502,9.88582,-10.4866,1.1691e-14,1.64991e-14,13.1953,-36.1424,55.8525,19.8013,-52.1052,3.7955,20.4694,7.12502,29.2204,48.195,-72.2567,-0.674416,23.3697,51.3582,0.237264,-11.263,13.0151,-10.3508,-6.24206,-28.7157,30.4416,-42.4407,21.2673,-24.8161
-0.990398,15.6402,24.0548,-157.931,1.97204,-182.313,-2.89863,-1.47958,-4.13183,-9.47612,-1.10983,-0.554481,-8.23847,0.172206,1.70394,-24.4994,0.0947432,0.375236,32.7942,1.27844,0.652435,15.7148,1.22676,0.628712,1.0753e-14,1.98785e-16,-55.408,-75.3256,-1.76081,11.4247,124.665,-15.7858,17.6609,7.12502,10.4068,-12.0616,1.0753e-14,1.98785e-16,14.6749,-37.1943,53.2064,20.0044,-50.5845,3.29575,21.3314,7.12502,28.7431,49.139,-72.2926,-0.649445,24.1233,52.6658,-1.39385,-11.884,16.0255,-9.61019,-6.85652,-28.1395,30.572,-42.5855,21.5356,-25.6899
-0.980596,15.6017,23.8226,-157.773,1.38673,-181.614,-3.49229,-1.61928,-3.27257,-9.7592,-1.16836,-0.1758,-8.20543,0.128217,1.61505,-24.3847,0.119743,0.0947276,33.0358,1.46526,0.741635,15.8012,1.30198,0.76162,-8.51513e-15,-9.93923e-15,-63.5598,-77.7463,8.95158,11.9603,127.067,-15.4694,16.1061,7.12502,10.712,-13.6008,-8.51513e-15,-9.93923e-15,16.8,-37.135,50.4135,20.1086,-49.8439,3.65981,21.4229,7.12502,29.0909,49.171,-72.1041,-0.495593,24.7811,53.7372,-2.9786,-12.5357,18.6833,-8.94651,-7.37754,-27.2944,30.8487,-42.4047,21.8374,-26.9632
-0.972454,15.5641,23.5837,-157.656,0.682915,-181.151,-4.28133,-1.81206,-2.54973,-9.9795,-1.30086,0.102459,-7.9909,0.0523429,1.4942,-24.1726,0.0686656,-0.0761014,33.2941,1.55326,0.697013,15.8762,1.33443,0.798901,7.14038e-15,7.95139e-16,-67.1009,-79.1027,14.7549,12.4808,127.592,-14.7227,15.0752,7.12502,11.4322,-14.5932,7.14038e-15,7.95139e-16,18.9453,-36.7082,47.763,20.1303,-49.3726,4.095,20.9215,7.12502,29.5064,48.597,-71.8219,-0.548104,25.2562,54.6695,-4.59478,-12.9604,19.6065,-8.31343,-7.97915,-26.6615,31.2251,-42.5358,21.525,-26.9645
-0.95988,15.5412,23.3459,-157.613,-0.178707,-180.369,-4.94745,-0.403583,-1.67701,-10.2315,-1.80574,0.253678,-7.91732,-1.30329,1.31421,-24.3877,-0.102464,-0.020542,33.844,1.44178,0.475984,16.1993,1.28851,0.690936,-7.40551e-15,-4.07509e-15,-66.0324,-79.9812,15.7208,12.865,126.915,-14.0612,14.0488,7.12502,12.0701,-15.5831,-7.40551e-15,-4.07509e-15,20.7123,-35.7225,45.6361,20.1334,-49.5863,3.77846,20.4984,7.12502,29.2042,48.2268,-71.2312,-0.433368,26.054,55.3462,-5.99727,-13.6823,19.8237,-7.67899,-8.34691,-25.6176,31.6074,-42.2174,21.3381,-27.4127
-0.938134,15.5526,23.1113,-157.53,-1.08361,-179.629,-5.46461,-0.489512,-0.847663,-10.7653,-2.04078,0.634748,-8.21056,-1.52288,1.26463,-22.5086,-0.0293765,-0.332787,33.5288,1.74809,0.656384,15.6033,1.46091,0.870652,-9.75443e-15,3.47873e-15,-61.893,-80.1714,13.5744,13.0243,125.938,-14.055,13.5346,7.12502,12.0761,-16.0969,-9.75443e-15,3.47873e-15,21.4855,-34.22,44.5963,20.1368,-51.0799,3.57329,20.607,7.12502,29.0082,48.3694,-70.5178,-0.136407,26.7004,55.7714,-6.96057,-14.8008,20.0219,-7.15449,-8.65928,-24.5252,31.9195,-41.1452,21.2136,-28.0997
-0.918395,15.6029,22.8728,-157.616,-2.2822,-178.922,-6.10961,-0.689658,0.115069,-10.7317,-2.31158,0.99266,-7.80841,-1.72744,1.0819,-22.3189,-0.0326566,-0.581415,33.4592,1.81635,0.753184,15.5224,1.47629,0.965371,2.30482e-14,1.76111e-15,-57.1293,-81.0459,10.6765,13.0114,124.696,-14.5319,13.2668,7.12502,11.6162,-16.3912,2.30482e-14,1.76111e-15,23.445,-33.454,42.4116,20.3899,-51.8843,3.93203,21.2949,7.12502,29.3508,48.9977,-69.4502,-0.288732,27.4711,55.9161,-7.98177,-15.487,20.4574,-6.51167,-9.02516,-23.3311,32.2113,-39.7717,20.5044,-27.3356
-0.901783,15.6706,22.6347,-157.749,-3.37842,-178.259,-6.59904,-0.788052,1.11025,-10.9583,-2.5254,1.2257,-7.80273,-1.93392,0.767056,-21.5419,-0.167143,-0.632369,33.4938,1.7526,0.667294,15.3619,1.46747,0.925194,6.75713e-15,-8.89561e-15,-48.752,-80.6251,3.91997,12.9564,122.808,-14.8291,12.8409,7.12502,11.3296,-16.8331,6.75713e-15,-8.89561e-15,24.2356,-31.3321,42.0658,20.435,-54.0973,4.88168,21.9276,7.12502,30.2571,49.468,-68.2392,-0.639433,28.3423,55.8381,-8.81272,-15.8595,20.6662,-5.92315,-9.39693,-22.2635,32.5253,-38.4165,19.8422,-25.2312
-0.886003,15.7447,22.4046,-157.742,-4.33428,-177.529,-7.30675,-0.88031,1.97432,-10.8393,-2.67508,1.57554,-7.28686,-2.0633,0.615226,-22.2013,-0.238794,-0.671972,33.8259,1.74198,0.482164,15.6758,1.42473,0.866055,-3.7707e-15,1.14798e-14,-41.2911,-80.9465,-1.96156,12.9373,120.976,-14.4317,12.4033,7.12502,11.7128,-17.2493,-3.7707e-15,1.14798e-14,26.0472,-30.8748,40.0664,20.6376,-53.4066,-0.583156,23.0259,7.12502,25.0317,51.4057,-67.0732,-0.741809,29.2109,55.5766,-9.37489,-16.3822,20.7465,-5.71897,-9.4415,-21.135,32.9171,-36.6134,19.6724,-22.9798
-0.866615,15.8326,22.182,-157.561,-5.2983,-176.975,-8.10451,-0.893792,2.61351,-11.0946,-2.82603,1.84632,-7.13552,-2.22164,0.521583,-21.8907,-0.430975,-0.725937,34.2071,1.63909,0.369955,15.7909,1.39987,0.822335,1.04238e-14,-7.35503e-15,-40.0843,-81.3687,-1.61381,13.1062,120.493,-14.1076,12.391,7.12502,12.0253,-17.2435,1.04238e-14,-7.35503e-15,27.6527,-32.3311,37.4614,20.768,-50.6191,-0.0442342,22.6236,7.12502,25.548,50.9304,-66.0079,-0.569719,29.6725,55.1106,-9.8285,-17.1355,20.345,-6.01015,-9.31296,-20.0959,33.4013,-33.9702,20.5359,-22.5741
-0.847513,15.9425,21.9647,-157.313,-6.09597,-176.722,-8.8516,-0.902844,2.88111,-11.3912,-2.97446,2.07152,-7.04729,-2.35682,0.589299,-22.0664,-0.744573,-0.790159,34.9618,1.42118,0.191507,16.2093,1.32097,0.743005,1.16786e-14,1.39149e-14,-37.2784,-81.2475,-2.88192,13.1109,119.658,-14.1061,12.2891,7.12502,12.0268,-17.3454,1.16786e-14,1.39149e-14,28.3894,-31.4287,36.9996,20.5205,-49.092,0.566978,22.4157,7.12502,26.1333,50.6373,-64.9092,-0.317198,29.7,54.4576,-10.2693,-17.7646,20.6601,-6.51691,-9.18631,-19.4518,33.9485,-31.8142,21.1339,-19.3945
