JuanDHNZ/ProyectoFinalCD/preprocessing/sports_trials_csv/05_17.csv
root1,root2,root3,root4,root5,root6,lowerback1,lowerback2,lowerback3,upperback1,upperback2,upperback3,thorax1,thorax2,thorax3,lowerneck1,lowerneck2,lowerneck3,upperneck1,upperneck2,upperneck3,head1,head2,head3,rclavicle1,rclavicle2,rhumerus1,rhumerus2,rhumerus3,rradius1,rwrist1,rhand1,rhand2,rfingers1,rthumb1,rthumb2,lclavicle1,lclavicle2,lhumerus1,lhumerus2,lhumerus3,lradius1,lwrist1,lhand1,lhand2,lfingers1,lthumb1,lthumb2,rfemur1,rfemur2,rfemur3,rtibia1,rfoot1,rfoot2,rtoes1,lfemur1,lfemur2,lfemur3,ltibia1,lfoot1,lfoot2,ltoes1
0.490912,16.6517,36.7636,-152.389,2.00935,-178.965,-17.1208,-0.934635,-5.85715,-10.8854,1.70642,-0.517644,-2.16747,2.06779,2.96744,-13.1046,-0.809889,-2.73775,30.1543,-3.78776,3.41158,12.2117,-2.3986,1.04508,-9.74045e-15,-1.51076e-14,-44.1839,1.69959,-83.1707,15.2064,4.92418,-4.74787,14.6013,7.12502,21.0356,-14.2778,-9.74045e-15,-1.51076e-14,-50.2716,18.884,63.5505,25.7568,-3.92006,-9.00378,17.574,7.12502,16.9428,46.855,-32.9784,-20.5078,32.868,60.0462,21.1009,-27.9584,29.7387,-48.2266,-3.75092,-29.5695,43.1505,-42.7168,22.1008,16.0029
0.4933,16.654,36.7793,-152.316,1.91367,-178.927,-17.1525,-1.00645,-5.86603,-10.8948,1.61828,-0.421094,-2.15679,2.02939,3.0627,-13.2717,-0.732028,-2.7876,30.3628,-3.66669,3.34911,12.3253,-2.36253,1.04428,9.34288e-15,-2.70347e-14,-43.9481,1.54205,-82.7866,14.7382,5.77057,-4.4677,14.3287,7.12502,21.3048,-14.5203,9.34288e-15,-2.70347e-14,-49.9487,18.7583,63.7833,25.6632,-4.16704,-8.83102,17.2102,7.12502,17.1091,46.4769,-33.2333,-20.4795,33.0155,60.1604,17.7634,-27.3399,29.7671,-48.4184,-3.95748,-29.4023,43.1698,-42.6686,22.3526,15.7961
0.497839,16.6568,36.797,-152.206,1.7308,-178.993,-17.0485,-1.13806,-5.96177,-10.9382,1.45625,-0.342894,-2.24765,1.96333,3.17092,-13.6562,-0.643019,-2.77792,30.6863,-3.52696,3.23719,12.5297,-2.31419,1.01496,9.06955e-15,-1.59028e-15,-43.8308,1.59968,-82.5788,14.5029,6.38363,-4.00608,13.5468,7.12502,21.7481,-15.2514,9.06955e-15,-1.59028e-15,-49.6398,18.7422,63.8833,25.4367,-4.37991,-8.61889,16.8646,7.12502,17.3133,46.1134,-33.582,-20.5668,33.1397,60.2654,18.2095,-27.3284,29.744,-48.6339,-4.02815,-29.423,43.175,-42.3115,22.6478,15.3821
0.499933,16.6561,36.8076,-152.214,1.63806,-179.049,-17.0063,-1.20348,-6.01671,-10.9539,1.37664,-0.293734,-2.28196,1.93085,3.24061,-13.7242,-0.594515,-2.79102,30.8789,-3.43989,3.09058,12.6167,-2.30474,0.971285,-6.16232e-15,-7.95139e-15,-43.8394,1.59697,-82.3266,14.1834,7.02653,-3.80351,13.1032,7.12502,21.9426,-15.6723,-6.16232e-15,-7.95139e-15,-49.436,18.3779,64.179,25.4462,-4.24494,-8.29604,16.8584,7.12502,17.624,46.0797,-33.7602,-20.7206,33.1369,60.384,18.5955,-27.3831,29.8748,-48.6392,-4.06253,-29.4725,43.1661,-42.2278,22.5304,14.8538
0.499817,16.6579,36.8113,-152.303,1.67085,-179.068,-17.0843,-1.19894,-6.00789,-11.0046,1.40566,-0.28945,-2.29938,1.95536,3.24463,-13.3095,-0.566711,-2.74635,30.9368,-3.42282,2.90625,12.5473,-2.34164,0.895834,-1.69712e-14,9.54166e-15,-44.1018,1.46192,-82.0503,13.9533,7.80994,-3.68146,13.0712,7.12502,22.0598,-15.6905,-1.69712e-14,9.54166e-15,-49.4337,17.634,64.569,25.6263,-3.78273,-8.14868,16.9904,7.12502,17.7658,46.1989,-33.7989,-20.8343,33.046,60.5124,22.7699,-28.4699,31.8841,-48.5327,-4.14478,-29.4662,43.1551,-42.337,22.5384,14.2512
0.500819,16.6604,36.8166,-152.32,1.81524,-179.082,-17.1752,-1.17183,-6.01984,-11.0807,1.47441,-0.31002,-2.34157,2.00431,3.23901,-13.2301,-0.474575,-2.74291,31.2317,-3.36709,2.88649,12.6491,-2.34515,0.891128,-7.10655e-15,9.54166e-15,-44.4046,1.40623,-81.886,13.9754,8.43624,-3.05341,12.737,7.12502,22.6627,-15.9524,-7.10655e-15,9.54166e-15,-49.386,16.9535,64.9215,25.694,-3.32552,-8.15293,16.9442,7.12502,17.7617,46.153,-33.9354,-20.7107,32.9447,60.6552,19.1312,-27.5609,30.9446,-48.5352,-4.21533,-29.4738,43.1571,-42.3805,22.8542,14.7025
0.501661,16.6588,36.8247,-152.303,1.96343,-179.043,-17.2459,-1.14535,-5.95847,-11.1097,1.51467,-0.313785,-2.33846,2.02583,3.20738,-13.3661,-0.451581,-3.12398,31.7907,-3.46335,3.18445,12.9267,-2.43212,1.04792,-8.77137e-15,2.94201e-14,-44.4536,1.24272,-81.6181,13.7233,9.19476,-2.3936,12.511,7.12502,23.2958,-16.0996,-8.77137e-15,2.94201e-14,-49.2372,16.366,65.2837,25.7456,-2.92067,-7.90163,16.7899,7.12502,18.0035,45.9766,-34.0795,-20.4883,32.8958,60.7743,19.6792,-27.4502,30.5746,-48.5988,-4.24839,-29.44,43.1847,-42.4662,22.9186,14.951
0.500645,16.657,36.8312,-152.325,1.98638,-179.006,-17.3582,-1.1604,-5.81961,-11.1029,1.48651,-0.30217,-2.266,2.00384,3.1416,-13.4048,-0.340315,-3.27379,32.1304,-3.38036,3.28809,13.0788,-2.42608,1.12117,5.29264e-15,3.97569e-16,-44.3599,0.758339,-81.0587,13.1543,10.5441,-2.10386,12.6814,7.12502,23.5738,-15.8937,5.29264e-15,3.97569e-16,-49.1112,15.8778,65.5682,25.8515,-2.5949,-7.46599,16.9717,7.12502,18.4226,46.1194,-34.1388,-20.4521,32.8805,60.8489,20.6741,-27.236,29.543,-48.6174,-4.2578,-29.4095,43.2228,-42.4932,22.7954,13.8487
0.50133,16.6555,36.8355,-152.419,1.94831,-178.979,-17.4495,-1.18258,-5.70068,-11.0804,1.44595,-0.28349,-2.18726,1.97446,3.09253,-13.2944,-0.227557,-3.26632,32.3015,-3.25562,3.22243,13.1202,-2.39902,1.1105,-7.40473e-15,-7.95139e-16,-44.3163,0.00169944,-80.2954,12.6348,12.2407,-1.83485,12.6242,7.12502,23.8318,-15.9175,-7.40473e-15,-7.95139e-16,-48.9566,15.6738,65.6396,25.7607,-2.56135,-7.19829,17.237,7.12502,18.6801,46.3601,-34.0715,-20.4573,32.8615,60.9039,25.0473,-28.0716,30.8969,-48.5503,-4.331,-29.3406,43.2496,-42.4922,23.0088,12.7612
0.504358,16.6537,36.8359,-152.598,1.84686,-179.01,-17.5193,-1.24838,-5.67175,-11.0445,1.35582,-0.245233,-2.10379,1.92375,3.10717,-13.0372,-0.146812,-3.31122,32.3569,-3.15978,3.16541,13.0829,-2.38964,1.10966,-7.97623e-15,-5.96354e-15,-44.3978,-0.392089,-79.799,12.3328,13.3478,-1.4924,12.213,7.12502,24.1602,-16.2855,-7.97623e-15,-5.96354e-15,-48.8744,15.5559,65.5953,25.5036,-2.72129,-6.89388,17.1137,7.12502,18.9729,46.2084,-33.8678,-20.5086,32.7652,60.9659,20.1787,-27.7132,31.3841,-48.351,-4.38175,-29.3379,43.239,-42.5215,23.0435,12.8078
0.506947,16.6509,36.8352,-152.699,1.73275,-179.08,-17.6598,-1.36245,-5.71289,-11.0245,1.22579,-0.16868,-2.00056,1.8622,3.19701,-12.8189,-0.0430403,-3.40742,32.429,-3.02088,3.12748,13.0604,-2.36455,1.13121,-9.49197e-15,-1.94809e-14,-44.4589,-0.407337,-79.5277,12.1048,13.9481,-1.1427,11.8993,7.12502,24.4954,-16.5542,-9.49197e-15,-1.94809e-14,-48.9142,15.3684,65.6194,25.3599,-2.74065,-6.35724,16.9292,7.12502,19.4889,45.9725,-33.8277,-20.5751,32.6769,61.0514,21.1267,-27.9843,30.8419,-48.2213,-4.29591,-29.447,43.2017,-42.469,22.5967,13.56
0.507843,16.6465,36.8384,-152.662,1.81201,-179.119,-17.8031,-1.41368,-5.76187,-11.0298,1.18334,-0.100613,-1.9318,1.84797,3.29432,-12.9371,0.0787297,-3.52132,32.6984,-2.85983,3.12073,13.1945,-2.32509,1.16835,-6.33626e-15,-1.66979e-14,-44.4463,-0.468677,-79.2123,11.8946,14.6257,-0.76423,11.9507,7.12502,24.8582,-16.4532,-6.33626e-15,-1.66979e-14,-48.9051,15.1153,65.7813,25.3567,-2.49192,-5.78072,16.9507,7.12502,20.0431,45.9369,-34.02,-20.4536,32.593,61.1562,22.9249,-27.7526,28.8879,-48.2891,-4.2112,-29.5341,43.1573,-42.4027,22.4503,14.1057
0.507352,16.6427,36.8405,-152.686,1.79405,-179.161,-17.8566,-1.45363,-5.6976,-11.0502,1.13329,-0.0887347,-1.91995,1.82412,3.26378,-12.8765,0.205236,-3.60952,32.8412,-2.71129,3.16766,13.237,-2.28121,1.22216,-3.15819e-14,1.86858e-14,-44.5751,-0.66641,-78.8818,11.8151,15.2782,-0.309161,12.0932,7.12502,25.2942,-16.2498,-3.15819e-14,1.86858e-14,-48.9163,14.7421,65.9161,25.445,-2.25613,-5.05598,17.3247,7.12502,20.7396,46.2364,-34.089,-20.4275,32.4993,61.2426,25.6976,-28.2441,31.0974,-48.266,-4.25843,-29.563,43.1161,-42.4485,22.3451,14.5483
0.50805,16.6399,36.8395,-152.868,1.48395,-179.255,-17.7434,-1.54547,-5.60327,-11.0996,1.00218,-0.10833,-2.0158,1.76209,3.16479,-12.4928,0.309472,-3.62734,32.8424,-2.61831,3.18147,13.1496,-2.26348,1.24367,-1.77664e-14,5.96354e-15,-44.9056,-1.23387,-78.3302,11.7568,16.1922,0.218768,12.0969,7.12502,25.7999,-16.1736,-1.77664e-14,5.96354e-15,-49.071,14.3759,65.8966,25.5919,-2.34646,-4.23509,17.9306,7.12502,21.5282,46.7541,-33.9427,-20.6843,32.4502,61.3017,21.6792,-27.6385,29.2061,-48.0193,-4.3036,-29.6232,43.0875,-42.4327,21.9036,15.0897
0.511396,16.6381,36.8383,-153.066,1.29122,-179.376,-17.6367,-1.60296,-5.65172,-11.0942,0.922821,-0.130746,-2.05754,1.72332,3.15365,-12.3816,0.358826,-3.60052,32.9685,-2.57839,3.10778,13.176,-2.2692,1.21385,1.68967e-14,-3.1408e-14,-45.0513,-1.84515,-77.7654,11.5191,17.1897,0.688368,12.1153,7.12502,26.2495,-16.0891,1.68967e-14,-3.1408e-14,-49.1466,14.0093,65.9688,25.6668,-2.38177,-3.69904,18.1554,7.12502,22.0429,46.9191,-33.8005,-20.8778,32.35,61.3581,26.4519,-27.7599,26.882,-47.7709,-4.23218,-29.7631,43.078,-42.2821,21.6202,15.5569
0.516724,16.6388,36.8345,-153.188,1.19484,-179.455,-17.7171,-1.64072,-5.69081,-11.0543,0.88254,-0.150289,-1.96913,1.69965,3.15216,-12.2974,0.395046,-3.58676,33.0863,-2.55528,3.05121,13.2061,-2.27974,1.19059,6.21202e-15,-1.59028e-15,-45.0736,-2.29011,-77.3683,11.2256,17.8977,1.18504,12.1388,7.12502,26.7249,-15.9939,6.21202e-15,-1.59028e-15,-49.1526,13.354,66.2479,25.6121,-1.94305,-3.43904,17.9065,7.12502,22.2926,46.6407,-33.6975,-20.9305,32.2792,61.3867,26.856,-27.272,24.6222,-47.6311,-4.13034,-29.8704,43.0777,-41.9324,21.6936,15.6149
0.516222,16.6374,36.8354,-153.135,1.22113,-179.398,-17.8468,-1.62013,-5.56698,-11.0783,0.913738,-0.129607,-1.92927,1.71521,3.11148,-12.2191,0.40004,-3.58142,33.1493,-2.52699,2.8983,13.2127,-2.29609,1.13265,8.27441e-15,-3.97569e-15,-45.1582,-2.47187,-77.1124,11.1034,18.2199,1.77711,12.133,7.12502,27.2914,-15.9119,8.27441e-15,-3.97569e-15,-49.1249,12.7356,66.5461,25.4429,-1.50598,-3.16538,17.6862,7.12502,22.5552,46.3886,-33.7996,-20.8162,32.3225,61.4397,27.0437,-27.1225,24.2765,-47.7345,-4.05152,-29.8576,43.1045,-41.706,21.8539,14.4872
0.515566,16.6347,36.8331,-153.185,1.11892,-179.525,-17.8446,-1.67241,-5.66437,-11.0138,0.843815,-0.0989464,-1.85638,1.67555,3.19028,-12.3876,0.377664,-3.57745,33.2441,-2.46693,2.63818,13.2844,-2.30026,1.03757,-1.90585e-14,8.74653e-15,-45.1326,-2.21842,-77.1495,11.0543,18.1112,2.23563,12.1684,7.12502,27.7299,-15.8067,-1.90585e-14,8.74653e-15,-48.9813,12.3769,66.8568,25.3981,-1.31014,-2.70087,18.3024,7.12502,23.001,46.95,-33.756,-20.9065,32.1795,61.4817,26.7893,-27.3374,24.9611,-47.6837,-3.93092,-30.0818,43.1508,-41.4121,21.9369,12.7865
0.514965,16.6331,36.8306,-153.244,1.04665,-179.642,-17.9155,-1.7092,-5.7271,-11.0089,0.81564,-0.0857357,-1.81341,1.66637,3.23708,-12.1561,0.385921,-3.63351,33.2659,-2.42673,2.47143,13.24,-2.32568,0.987215,-4.62174e-15,1.70955e-14,-45.2662,-1.90522,-77.2291,10.9931,18.0543,2.61923,12.2487,7.12502,28.0967,-15.6668,-4.62174e-15,1.70955e-14,-49.0589,12.0127,67.0544,25.4445,-1.2687,-2.08479,18.935,7.12502,23.5921,47.5077,-33.6776,-20.9608,32.0152,61.506,26.1536,-27.9214,26.55,-47.6422,-3.77823,-30.3177,43.218,-41.1011,22.1125,11.9836
0.51485,16.6316,36.8292,-153.294,0.984668,-179.561,-17.9932,-1.70096,-5.55257,-11.1164,0.83949,-0.0409232,-1.88984,1.69143,3.1881,-11.5968,0.426551,-3.69574,33.2795,-2.41171,2.35332,13.1223,-2.37587,0.952938,-2.48481e-15,-2.3059e-14,-45.6972,-1.30097,-77.5923,11.1237,17.5381,3.264,12.0865,7.12502,28.7128,-15.7263,-2.48481e-15,-2.3059e-14,-49.428,11.6989,66.963,25.2459,-1.52703,-1.44221,18.3031,7.12502,24.2083,46.7952,-33.5984,-20.8739,32.0486,61.5085,25.8945,-28.2007,27.1372,-47.636,-3.63717,-30.2987,43.2728,-40.9304,22.1068,11.9407
0.517007,16.6315,36.8254,-153.378,0.900996,-179.499,-18.0587,-1.74643,-5.41082,-11.1902,0.785602,0.0475891,-1.9305,1.67398,3.19271,-11.1818,0.534739,-3.75688,33.3333,-2.272,2.20063,13.0481,-2.37182,0.922255,8.17502e-15,-1.59028e-15,-46.1273,-0.208655,-78.3627,11.4711,16.3545,4.20945,11.4979,7.12502,29.6156,-16.1583,8.17502e-15,-1.59028e-15,-49.8763,11.433,66.9005,25.1338,-1.70237,-0.733413,17.7808,7.12502,24.8877,46.1806,-33.4879,-20.8017,32.0745,61.5188,26.0366,-28.0731,27.6817,-47.5577,-3.55444,-30.2485,43.3071,-40.8236,21.9989,12.1663
0.521016,16.6311,36.822,-153.454,0.813678,-179.628,-18.1353,-1.88282,-5.49891,-11.1522,0.617382,0.16257,-1.83747,1.59227,3.34104,-11.1405,0.666001,-3.90792,33.3819,-1.99531,2.01333,13.0482,-2.30162,0.913787,-2.41026e-15,-5.96354e-15,-46.2038,0.90576,-79.043,11.7448,15.2645,5.234,10.9301,7.12502,30.5931,-16.5481,-2.41026e-15,-5.96354e-15,-50.1564,11.226,67.0968,25.2326,-1.55554,-0.0260665,18.144,7.12502,25.5654,46.4484,-33.4229,-20.8397,31.9525,61.5481,19.5504,-26.7123,27.9509,-47.4625,-3.49173,-30.4046,43.3243,-40.7171,21.815,12.6844
0.523239,16.6282,36.8225,-153.403,0.74768,-179.801,-18.215,-1.99159,-5.61111,-11.1268,0.49497,0.218498,-1.75947,1.53565,3.44673,-11.339,0.726833,-4.02458,33.4829,-1.80901,1.84549,13.127,-2.25543,0.893429,-8.99501e-15,1.59028e-15,-46.1241,1.71264,-79.5428,11.8437,14.5677,6.10418,10.7536,7.12502,31.4226,-16.5665,-8.99501e-15,1.59028e-15,-50.2211,10.8479,67.4693,25.3001,-1.18959,0.497041,18.5278,7.12502,26.0664,46.7593,-33.5468,-20.8622,31.8389,61.5845,20.6328,-26.9491,28.4627,-47.5354,-3.45798,-30.6218,43.3365,-40.619,21.7049,13.0004
0.520802,16.6258,36.8212,-153.299,0.646552,-179.846,-18.3751,-2.02398,-5.51194,-11.1668,0.471906,0.216731,-1.71699,1.52977,3.38694,-11.2192,0.737921,-4.02164,33.5331,-1.78131,1.70152,13.1204,-2.27318,0.83903,-3.8266e-15,1.59028e-15,-46.372,2.51329,-80.2003,12.0783,13.8377,6.6345,10.7905,7.12502,31.9277,-16.4299,-3.8266e-15,1.59028e-15,-50.3189,10.1795,67.895,25.314,-0.718335,0.896203,18.8022,7.12502,26.4485,46.9767,-33.6979,-20.873,31.847,61.606,19.7401,-26.8293,29.4299,-47.674,-3.45016,-30.7049,43.3582,-40.451,21.8871,12.1941
0.516429,16.6242,36.8172,-153.277,0.457884,-179.793,-18.4967,-2.03215,-5.28957,-11.1803,0.448904,0.244026,-1.66459,1.51314,3.28852,-10.9837,0.707161,-3.9688,33.5264,-1.7984,1.4435,13.0651,-2.31979,0.726035,-5.56597e-15,-3.53837e-14,-46.8218,3.81655,-81.3122,12.5579,12.253,7.14938,10.3944,7.12502,32.4179,-16.7268,-5.56597e-15,-3.53837e-14,-50.4908,9.75722,68.0738,25.2069,-0.645393,1.55395,19.0062,7.12502,27.0779,47.0845,-33.7083,-20.9323,31.9421,61.6046,19.4476,-26.981,30.4472,-47.7159,-3.48508,-30.6448,43.4028,-40.3717,22.0116,11.4921
0.514836,16.6223,36.8128,-153.305,0.279933,-179.728,-18.4839,-2.05273,-5.10022,-11.1923,0.394315,0.31296,-1.67774,1.48072,3.24526,-10.9922,0.678845,-3.97671,33.6259,-1.78038,1.18295,13.1077,-2.35689,0.625292,-6.88292e-15,2.38542e-15,-47.2472,5.38652,-82.6181,12.9958,10.1878,7.97631,9.70183,7.12502,33.2045,-17.255,-6.88292e-15,2.38542e-15,-50.7354,9.52066,68.1192,25.1302,-0.781359,2.51568,19.1905,7.12502,27.9977,47.1223,-33.6564,-20.9763,32.0551,61.5725,20.0363,-27.1336,29.8023,-47.7043,-3.53963,-30.542,43.4669,-40.4275,21.952,11.6354
0.516037,16.62,36.8084,-153.268,0.283147,-179.649,-18.5111,-2.07032,-4.95302,-11.3028,0.380098,0.394606,-1.78237,1.48848,3.24374,-10.8222,0.711437,-4.10827,33.7592,-1.74476,1.09702,13.1274,-2.39461,0.615394,-1.40143e-14,6.75868e-15,-47.8279,6.78804,-83.7657,13.3944,8.47085,8.73528,9.70605,7.12502,33.9258,-17.0941,-1.40143e-14,6.75868e-15,-51.0437,9.18306,68.2519,24.9583,-0.785864,3.26207,19.1656,7.12502,28.711,46.9787,-33.6786,-20.854,32.1399,61.515,20.8903,-27.072,28.9554,-47.7744,-3.52139,-30.4606,43.5268,-40.4234,21.9614,11.7628
0.516448,16.6193,36.8036,-153.172,0.354985,-179.555,-18.6728,-2.05132,-4.79692,-11.4298,0.435675,0.455384,-1.8427,1.53562,3.22842,-10.3784,0.745611,-4.22893,33.7348,-1.72637,1.03476,13.0206,-2.43387,0.614701,-4.4975e-15,1.27222e-14,-48.5422,8.08805,-84.8905,13.956,6.69641,9.35174,10.0219,7.12502,34.5112,-16.6468,-4.4975e-15,1.27222e-14,-51.2789,8.71447,68.5343,24.6925,-0.753,3.73897,18.8933,7.12502,29.1665,46.6283,-33.7529,-20.6919,32.2207,61.435,24.6162,-27.6277,28.2863,-47.9158,-3.44222,-30.3978,43.5769,-40.3359,22.0939,11.3655
0.511609,16.6189,36.7883,-153.331,0.32321,-179.527,-18.7983,-1.96612,-4.62712,-11.2915,0.49846,0.44964,-1.63189,1.53535,3.1436,-10.4175,0.733791,-4.24949,33.7015,-1.67431,0.901073,13.0127,-2.42378,0.574696,-1.30701e-14,2.38542e-15,-48.9157,9.29069,-85.9918,14.5128,4.70752,10.0117,10.0096,7.12502,35.1374,-16.5143,-1.30701e-14,2.38542e-15,-51.2821,8.18703,68.9503,24.6226,-0.72222,4.46299,18.878,7.12502,29.8576,46.491,-33.4964,-20.8082,32.1528,61.3612,27.6111,-27.4976,27.4529,-47.6921,-3.39365,-30.4125,43.5976,-40.3614,22.1756,10.9696
0.502634,16.617,36.7621,-153.822,0.378335,-179.5,-18.9026,-1.83394,-4.39735,-10.957,0.552108,0.424932,-1.21712,1.49081,3.00892,-10.5192,0.791649,-4.24852,33.6599,-1.51771,0.788372,13.0111,-2.35906,0.553853,-1.15792e-14,-6.75868e-15,-49.0678,10.3195,-86.9138,14.7925,3.12196,10.5923,9.95572,7.12502,35.6879,-16.4369,-1.15792e-14,-6.75868e-15,-51.3096,7.96384,69.1107,24.5785,-0.978199,5.58079,18.8012,7.12502,30.9238,46.2172,-32.781,-20.9464,31.848,61.2719,21.3243,-26.2251,26.3882,-47.04,-3.40027,-30.4266,43.5994,-40.6305,22.2602,11.1423
0.51145,16.6183,36.7673,-153.604,-0.0726069,-179.681,-19.2512,-2.11836,-4.43602,-11.0594,0.262293,0.483586,-1.12752,1.37758,3.0461,-9.86091,0.949673,-4.23903,33.4336,-1.33615,0.729225,12.7663,-2.30021,0.559216,7.20594e-16,4.96962e-15,-49.7439,11.5275,-88.0723,15.1724,1.50402,10.9089,9.82022,7.12502,35.9879,-16.4993,7.20594e-16,4.96962e-15,-51.7186,7.69084,69.1761,24.6077,-1.18523,6.74237,18.5966,7.12502,32.0304,45.7965,-33.1435,-21.1038,32.0211,61.304,21.0107,-26.6493,27.9319,-47.2849,-3.13226,-30.688,43.561,-39.8676,22.064,10.6203
0.505829,16.6118,36.7436,-153.988,-0.0918979,-179.682,-19.3634,0.74267,-5.24196,-11.001,-0.463263,0.0529926,-1.10514,-0.978975,2.95532,-9.19822,1.04452,-4.32644,33.2899,-1.27287,0.72999,12.5625,-2.30707,0.585501,-5.1684e-15,1.76918e-14,-50.7566,12.6834,-89.2425,15.9511,-0.132593,11.2833,9.49267,7.12502,36.3425,-16.739,-5.1684e-15,1.76918e-14,-52.2606,7.04749,69.5579,24.7378,-1.11927,7.58694,18.5198,7.12502,32.8342,45.5549,-32.5511,-21.2007,31.7663,61.2752,20.4899,-26.5295,29.0641,-46.7304,-3.1471,-30.71,43.5234,-40.108,21.9501,10.9744
0.514312,16.6082,36.7417,-153.933,-0.580055,-180.037,-19.3257,0.478215,-5.52181,-11.0529,-0.778563,0.0921606,-1.15967,-1.12331,3.10062,-9.18171,1.05797,-4.55998,33.398,-1.24755,0.757453,12.6051,-2.33626,0.636813,1.54058e-15,1.78906e-15,-51.3932,13.4915,-89.9707,16.6487,-1.42481,12.1758,9.01343,7.12502,37.187,-17.0025,1.54058e-15,1.78906e-15,-52.5549,6.54082,70.0375,24.6119,-1.34786,8.02534,18.3162,7.12502,33.2511,45.2631,-32.6567,-21.496,31.6994,61.3507,20.1993,-27.0885,30.3777,-46.7172,-3.07748,-31.0914,43.4723,-39.4436,21.7653,10.157
0.510462,16.6025,36.7201,-154.229,-0.669009,-180.247,-19.254,0.393421,-5.58379,-10.8607,-0.815964,0.101863,-0.980989,-1.11983,3.1356,-9.45567,1.04217,-4.75252,33.4956,-1.193,0.738736,12.7043,-2.33442,0.668435,-1.2921e-15,-3.97569e-15,-51.7081,14.2846,-90.6486,17.0922,-2.79581,12.9818,8.74971,7.12502,37.9487,-17.0635,-1.2921e-15,-3.97569e-15,-52.5472,6.27992,70.4158,24.2838,-1.79382,8.35558,18.1543,7.12502,33.565,45.0335,-32.1987,-21.6558,31.3496,61.3378,20.0728,-27.0987,30.7751,-46.2695,-3.12639,-31.3283,43.4535,-39.358,21.8808,9.60963
0.513739,16.5977,36.7211,-154.131,-0.648676,-180.441,-19.3625,0.359815,-5.75393,-10.7604,-0.800826,0.0823537,-0.820872,-1.10241,3.21,-9.79861,0.999017,-4.81678,33.5171,-1.15256,0.67092,12.7863,-2.31521,0.659496,7.60351e-15,-1.98785e-14,-51.9538,15.0092,-91.3171,17.6006,-4.10631,13.3555,8.77904,7.12502,38.3015,-16.9375,7.60351e-15,-1.98785e-14,-52.4018,5.96014,70.7814,24.0899,-2.08083,8.93548,18.1468,7.12502,34.116,44.9047,-32.3782,-21.6049,31.212,61.3992,20.2463,-27.133,30.6212,-46.376,-2.95635,-31.6349,43.4542,-39.0735,21.7847,9.55901
0.512115,16.5944,36.7101,-154.237,-0.700135,-180.545,-19.4671,0.317411,-5.75362,-10.5433,-0.785714,0.0848356,-0.529842,-1.08236,3.20884,-10.3733,0.952358,-4.82257,33.7142,-1.10907,0.534661,12.993,-2.30336,0.609582,3.72721e-16,7.35503e-15,-52.1381,15.6258,-91.8626,18.0776,-5.22862,13.6039,8.77778,7.12502,38.5359,-16.8736,3.72721e-16,7.35503e-15,-52.3015,5.6261,71.158,24.0993,-2.22073,9.7962,18.2436,7.12502,34.933,44.8153,-32.1901,-21.718,31.0399,61.4121,20.0378,-27.2496,31.1394,-46.2328,-2.82043,-31.8317,43.4732,-38.8325,21.8385,9.43231
0.510384,16.5943,36.6979,-154.391,-0.856483,-180.534,-19.521,0.247012,-5.62329,-10.3609,-0.839805,0.145492,-0.293161,-1.10045,3.18465,-10.8423,0.91536,-4.78791,33.9302,-1.07094,0.332705,13.1868,-2.30771,0.524269,-2.85753e-16,-1.0138e-14,-52.3699,16.2621,-92.4417,18.3518,-6.25273,13.8952,8.58352,7.12502,38.8107,-16.9905,-2.85753e-16,-1.0138e-14,-52.3154,5.43714,71.4344,24.0669,-2.37966,10.4971,18.2825,7.12502,35.5977,44.6969,-31.9595,-21.8845,31.0238,61.435,20.0612,-27.097,30.6947,-46.038,-2.68161,-31.882,43.4807,-38.5461,21.9888,8.94948
0.511433,16.5946,36.6934,-154.437,-0.915717,-180.64,-19.5757,0.150768,-5.66649,-10.24,-0.921882,0.189367,-0.125032,-1.13202,3.23682,-11.1087,0.941193,-4.67403,34.0032,-0.959436,0.123314,13.2725,-2.26699,0.435873,-1.72694e-15,2.0276e-14,-52.6421,16.8617,-92.9875,18.5955,-7.06579,14.2345,8.26609,7.12502,39.1306,-17.2164,-1.72694e-15,2.0276e-14,-52.3124,5.38717,71.628,23.8272,-2.6945,10.9642,18.0074,7.12502,36.0403,44.314,-31.9407,-21.9214,30.921,61.4876,21.0895,-27.3564,29.6181,-45.9563,-2.60529,-32.0343,43.4726,-38.4201,21.9874,8.80188
0.51213,16.5937,36.6898,-154.363,-0.84089,-180.786,-19.697,0.126967,-5.74742,-10.1388,-0.909449,0.180616,0.0445732,-1.12151,3.27178,-11.396,0.990583,-4.57557,34.0086,-0.813269,0.0142072,13.333,-2.18963,0.397424,-6.1499e-15,3.57812e-15,-52.8499,17.3426,-93.4564,18.8755,-7.7639,14.6482,8.22757,7.12502,39.5204,-17.1414,-6.1499e-15,3.57812e-15,-52.2083,5.22301,71.9292,23.6031,-2.92084,11.5137,17.6954,7.12502,36.5606,43.8722,-32.0604,-21.7739,30.739,61.5496,19.8949,-27.4274,31.2744,-46.0151,-2.60831,-32.2161,43.456,-38.4779,21.96,9.16283
0.512808,16.5934,36.6832,-154.283,-0.893901,-180.76,-19.8713,0.203292,-5.55433,-10.1377,-0.839349,0.115086,0.129582,-1.10217,3.10347,-11.1821,1.00277,-4.53971,33.8574,-0.817927,0.0629371,13.2203,-2.17287,0.414422,2.93207e-15,-3.57812e-15,-53.3085,17.7456,-94.1616,19.1073,-8.74355,14.9517,8.73278,7.12502,39.8062,-16.5514,2.93207e-15,-3.57812e-15,-52.3521,4.54772,72.4016,23.7209,-2.74164,12.2743,18.0249,7.12502,37.2801,44.0164,-32.1316,-21.5924,30.7909,61.5668,20.204,-27.6262,31.7122,-46.1075,-2.60392,-32.1893,43.452,-38.4002,22.0655,9.08267
0.515007,16.5906,36.6766,-154.321,-1.02585,-180.723,-19.9526,0.277518,-5.3595,-10.192,-0.788577,0.0409401,0.109106,-1.09243,2.92387,-10.6077,1.00414,-4.50893,33.6885,-0.91552,0.134208,13.025,-2.21212,0.427337,-2.45996e-15,2.5842e-15,-53.9453,17.8709,-94.7255,19.3568,-9.62807,15.0541,9.2507,7.12502,39.9026,-16.0047,-2.45996e-15,2.5842e-15,-52.7751,3.54481,73.0329,24.1147,-2.4468,13.0808,18.612,7.12502,38.0422,44.3998,-32.0675,-21.5058,30.8774,61.558,20.0177,-27.4967,31.0021,-46.0802,-2.64174,-32.1073,43.4679,-38.3132,22.1383,9.08969
0.518469,16.585,36.6718,-154.296,-1.0353,-180.754,-20.1196,0.312317,-5.35605,-10.2486,-0.76158,0.0363412,0.12822,-1.09001,2.92116,-10.148,1.03385,-4.52153,33.6054,-0.942951,0.145775,12.8908,-2.23916,0.431805,3.21783e-15,-2.14687e-14,-54.3816,17.6322,-94.663,19.668,-9.89639,15.4768,9.10444,7.12502,40.3003,-16.0303,3.21783e-15,-2.14687e-14,-53.2242,2.72887,73.7174,24.4405,-2.34967,13.4814,18.5619,7.12502,38.4203,44.2456,-32.0997,-21.4051,30.8743,61.5597,21.9873,-27.8968,30.6442,-46.1132,-2.71007,-32.1108,43.4999,-38.4239,22.0279,9.75593
0.523392,16.5834,36.6682,-154.148,-0.905606,-180.704,-20.443,0.370409,-5.33547,-10.3251,-0.717756,0.0795981,0.202461,-1.08748,2.96158,-9.72959,1.11594,-4.49362,33.5204,-0.87712,0.104584,12.7624,-2.22555,0.421374,-1.41634e-15,1.48095e-14,-54.7302,17.5924,-94.7115,19.7977,-10.2029,15.9179,8.88902,7.12502,40.7149,-16.1173,-1.41634e-15,1.48095e-14,-53.5459,2.32115,74.1443,24.4578,-2.61166,13.8011,18.3162,7.12502,38.722,43.9153,-32.2965,-21.1269,30.9415,61.5839,17.1694,-26.4648,31.438,-46.3014,-2.61571,-32.1102,43.5379,-38.4813,21.9901,9.8321
0.526254,16.5834,36.6612,-154.098,-0.741066,-180.636,-20.6303,0.452349,-5.25897,-10.3621,-0.639569,0.0938917,0.249865,-1.06236,2.9476,-9.48283,1.18722,-4.37022,33.4492,-0.804316,0.0281062,12.6767,-2.19304,0.381537,-4.78326e-15,1.51076e-14,-55.013,17.7719,-95.065,19.7017,-10.7257,16.0729,8.85682,7.12502,40.8606,-16.1037,-4.78326e-15,1.51076e-14,-53.6702,2.17194,74.2721,24.1797,-3.18302,14.3739,18.1127,7.12502,39.2619,43.5571,-32.3877,-20.8645,30.9566,61.6377,23.218,-27.0039,27.6631,-46.3749,-2.59989,-32.0583,43.5687,-38.5409,22.0835,9.82043
0.527883,16.58,36.6512,-154.205,-0.781732,-180.718,-20.5598,0.44277,-5.24606,-10.3887,-0.661718,0.0678313,0.187432,-1.07376,2.90936,-9.27873,1.23187,-4.28792,33.4333,-0.782907,-0.00444747,12.6253,-2.18685,0.357303,2.11209e-15,3.67752e-15,-55.2216,17.7909,-95.2579,19.6249,-10.9781,16.3021,8.55827,7.12502,41.0759,-16.334,2.11209e-15,3.67752e-15,-53.8794,1.92575,74.4385,23.9497,-3.61495,14.8455,17.7846,7.12502,39.7062,43.0986,-32.2437,-20.9044,30.8376,61.6577,23.7912,-26.5839,26.3459,-46.2274,-2.75094,-32.0904,43.5989,-38.5112,22.2164,9.77238
0.534461,16.5737,36.6452,-154.282,-0.855674,-180.913,-20.3925,0.367434,-5.3802,-10.3943,-0.736943,0.032879,0.101294,-1.10088,2.93533,-9.32599,1.23776,-4.30797,33.5114,-0.794228,0.0323904,12.6685,-2.19633,0.371089,-6.17475e-15,1.02374e-14,-55.3404,17.8723,-95.4394,19.6568,-11.1565,16.5934,8.17245,7.12502,41.3494,-16.6319,-6.17475e-15,1.02374e-14,-54.0376,1.58582,74.7744,23.8856,-3.82788,15.283,17.6776,7.12502,40.118,42.8679,-32.1203,-20.9201,30.6632,61.6497,23.4846,-26.802,26.9032,-46.1195,-2.78211,-32.2737,43.6264,-38.4002,22.2692,9.47121
0.541783,16.5676,36.6366,-154.469,-0.848651,-181.072,-20.2224,0.302153,-5.52552,-10.223,-0.742011,0.00917226,0.202282,-1.07856,2.99029,-9.78075,1.17089,-4.31635,33.5777,-0.816492,0.0315043,12.7949,-2.18958,0.368531,3.13086e-15,-3.8763e-15,-55.297,18.1024,-95.6996,19.7833,-11.5559,16.7296,8.01978,7.12502,41.4772,-16.743,3.13086e-15,-3.8763e-15,-53.8674,1.26974,75.1684,23.8142,-3.95949,15.7413,17.7165,7.12502,40.549,42.7746,-31.8195,-20.8411,30.4241,61.5772,22.0261,-27.2002,28.9464,-45.8836,-2.77656,-32.4225,43.6417,-38.4126,22.2334,9.63926
0.551988,16.5653,36.6322,-154.341,-1.25355,-181.256,-20.3277,0.123725,-5.68801,-10.1471,-0.918984,0.0190634,0.352032,-1.1575,3.05436,-10.0698,1.13211,-4.27353,33.5802,-0.806946,-0.018249,12.8579,-2.16961,0.344087,1.11816e-15,-4.87022e-15,-55.3179,18.2827,-95.9249,19.9384,-11.9247,16.7807,8.01552,7.12502,41.5251,-16.7317,1.11816e-15,-4.87022e-15,-53.6769,1.0114,75.4883,23.6762,-4.19959,16.1682,17.8034,7.12502,40.9501,42.7356,-31.9429,-21.0249,30.5253,61.5043,22.8328,-27.6697,28.7899,-45.9915,-2.75908,-32.5673,43.6641,-37.8899,22.0582,9.38305
0.559064,16.5637,36.6201,-154.489,-1.78452,-181.437,-20.1919,-0.0812164,-5.75298,-10.0481,-1.13848,0.0448544,0.413271,-1.24828,3.07442,-10.3432,1.139,-4.27946,33.6866,-0.759218,-0.0346064,12.9611,-2.14759,0.34296,1.30018e-14,-4.27387e-15,-55.4378,18.505,-96.1812,20.0361,-12.0696,16.7685,8.18531,7.12502,41.5136,-16.5656,1.30018e-14,-4.27387e-15,-53.6161,0.841108,75.7204,23.5634,-4.47915,16.6759,18.1357,7.12502,41.4267,42.915,-31.6892,-21.4478,30.5561,61.4094,23.3569,-27.4475,27.7337,-45.725,-2.81333,-32.6666,43.6753,-37.442,21.8726,9.10026
0.559578,16.5619,36.6189,-154.393,-1.65706,-181.376,-21.1825,-0.185211,-5.67112,-9.33014,-1.07266,0.149261,1.69428,-1.20593,3.12118,-11.0596,1.04856,-4.3172,33.3014,-0.619247,-0.114681,12.9489,-2.02086,0.352386,-8.26199e-16,-1.03368e-14,-54.3442,19.1114,-96.138,20.0156,-12.1731,16.9201,8.26739,7.12502,41.6559,-16.4369,-8.26199e-16,-1.03368e-14,-52.5955,1.01583,76.0196,23.4747,-4.60563,17.1764,18.4578,7.12502,41.8962,43.0825,-31.8433,-21.3023,30.602,61.4229,23.7594,-27.1345,26.6808,-45.8517,-2.83929,-32.6078,43.7034,-37.5482,21.8775,9.54746
0.559911,16.5622,36.614,-154.302,-1.64128,-181.334,-21.088,-0.135727,-5.61713,-9.41176,-1.04242,0.181152,1.55576,-1.19292,3.13446,-11.2654,1.02356,-4.3126,33.4418,-0.643563,-0.137412,13.0542,-2.03823,0.335694,-2.6867e-15,-4.37326e-15,-54.3276,19.0145,-96.0423,20.0006,-11.8735,17.6058,7.94976,7.12502,42.2986,-16.5395,-2.6867e-15,-4.37326e-15,-52.7888,0.792762,76.2449,23.4566,-4.87719,17.6459,18.338,7.12502,42.3361,42.8145,-31.9516,-21.3091,30.6668,61.4064,24.2355,-26.9284,26.0243,-45.9558,-2.78235,-32.5961,43.7345,-37.5363,21.843,9.68909
0.562655,16.5615,36.6089,-154.061,-1.68084,-181.31,-21.3008,-0.058801,-5.52225,-9.46267,-0.972128,0.11293,1.59968,-1.17393,3.02048,-11.3617,0.931574,-4.28456,33.6036,-0.829851,-0.0716069,13.1494,-2.11771,0.325731,3.7707e-15,-6.95746e-16,-54.143,18.5138,-95.7561,20.0061,-11.4567,18.3404,7.5883,7.12502,42.9861,-16.6626,3.7707e-15,-6.95746e-16,-52.6857,0.644908,76.2016,23.151,-5.38739,18.1216,18.0524,7.12502,42.7814,42.3751,-32.2484,-21.2713,30.8306,61.4075,24.6761,-26.4943,24.9814,-46.2639,-2.62508,-32.6448,43.8136,-37.2786,21.9552,9.00095
0.570713,16.5599,36.5956,-154.245,-1.93884,-181.34,-21.2255,-0.114435,-5.51282,-9.36729,-1.0133,0.103323,1.6709,-1.18328,2.99519,-11.4121,0.896095,-4.24842,33.7381,-0.92617,-0.035892,13.2207,-2.16019,0.315936,-1.00076e-14,-8.54774e-15,-54.0019,18.1465,-95.5517,20.0184,-11.249,18.5736,7.56202,7.12502,43.204,-16.6114,-1.00076e-14,-8.54774e-15,-52.4752,0.365957,76.4185,22.854,-5.61849,18.5336,18.248,7.12502,43.1667,42.4347,-31.9284,-21.4481,30.8677,61.3356,24.217,-25.9611,24.2429,-46.0382,-2.40476,-32.7019,43.8822,-36.9966,21.9216,7.97589
0.572613,16.5581,36.5873,-154.084,-1.87662,-181.167,-21.339,0.00749918,-5.27509,-9.48319,-0.934084,0.119491,1.59637,-1.16247,2.89521,-11.2611,0.918586,-4.19448,33.735,-0.920496,-0.0747367,13.1858,-2.16304,0.291936,7.56624e-15,1.49089e-15,-54.1347,18.0509,-95.5991,20.0114,-11.2164,18.6574,7.61621,7.12502,43.2823,-16.5292,7.56624e-15,1.49089e-15,-52.5491,-0.0244298,76.8188,22.7611,-5.67666,18.8564,18.5894,7.12502,43.4683,42.6678,-32.0863,-21.3715,31.0747,61.3188,25.3312,-25.8996,23.2697,-46.2633,-2.27626,-32.5764,43.9512,-37.01,21.9874,7.82413
0.576473,16.5569,36.5791,-153.963,-1.90374,-181.295,-21.4406,0.0629089,-5.31188,-9.63189,-0.897308,0.00510361,1.47828,-1.16117,2.80292,-10.8564,0.924273,-4.1169,33.6645,-1.01295,0.000684438,13.0692,-2.1957,0.296664,1.85739e-15,1.5207e-14,-54.3605,17.7278,-95.6047,19.9814,-10.9295,18.9047,7.70828,7.12502,43.5134,-16.3537,1.85739e-15,1.5207e-14,-52.7298,-0.462169,77.0415,22.6252,-5.78361,19.1859,18.6032,7.12502,43.7759,42.5691,-32.2222,-21.4987,31.0077,61.3492,25.4099,-26.1769,23.9016,-46.3552,-2.19403,-32.7586,43.9657,-36.8648,21.9307,7.72424
0.581868,16.5508,36.5738,-153.982,-1.9544,-181.62,-21.4407,0.0351968,-5.57321,-9.6436,-0.884375,-0.152648,1.45835,-1.15279,2.7856,-10.724,0.90088,-4.03555,33.6883,-1.12371,0.0877702,13.053,-2.22954,0.300479,8.33653e-15,-7.95139e-15,-54.3136,17.41,-95.5316,19.9154,-10.559,19.2123,8.0178,7.12502,43.8006,-15.939,8.33653e-15,-7.95139e-15,-52.7008,-0.909499,77.2519,22.5377,-5.68141,19.5882,18.6901,7.12502,44.1513,42.5164,-32.2266,-21.3727,30.7228,61.4724,24.6051,-27.1075,25.7817,-46.2766,-2.10632,-33.1485,43.982,-36.6366,21.8203,7.49525
0.587107,16.5413,36.5683,-154.104,-2.05933,-181.858,-21.3995,-0.0910634,-5.78366,-9.43807,-0.945401,-0.178484,1.66603,-1.16167,2.86083,-11.1769,0.832263,-4.0006,33.7995,-1.14684,-0.00465405,13.1999,-2.23454,0.251975,3.13707e-15,-2.98177e-15,-53.7702,17.3347,-95.2806,19.8023,-10.2811,19.6539,8.10887,7.12502,44.2125,-15.6943,3.13707e-15,-2.98177e-15,-52.3467,-0.94539,77.4031,22.5731,-5.68652,20.0356,18.9412,7.12502,44.5683,42.6088,-32.0751,-20.9774,30.5188,61.5809,23.341,-28.4034,28.2648,-46.093,-2.10862,-33.3885,43.9907,-36.5051,21.6889,7.70256
0.595409,16.5359,36.5693,-153.674,-1.67518,-181.761,-21.9025,-0.0253918,-5.857,-9.42949,-0.848418,-0.0967076,1.91609,-1.13152,3.00419,-11.4174,0.844669,-3.97365,33.8717,-1.07471,-0.115163,13.2817,-2.2101,0.211845,6.21823e-15,8.64713e-15,-53.3692,17.3365,-95.0271,19.7294,-10.0986,19.9377,7.79146,7.12502,44.477,-15.9112,6.21823e-15,8.64713e-15,-52.1125,-0.669101,77.4067,22.6073,-5.97145,20.5982,19.2575,7.12502,45.0919,42.7207,-32.6379,-20.1592,30.6647,61.6919,22.2229,-29.3867,30.464,-46.6688,-2.01291,-33.3561,44.0362,-36.6722,21.6143,8.53904
0.601091,16.5353,36.5618,-153.655,-1.46196,-181.696,-22.1247,-0.0179791,-5.87595,-9.46106,-0.850804,0.00802688,1.99229,-1.14214,3.12421,-11.0072,0.993433,-3.98196,33.8049,-0.901739,-0.160941,13.1586,-2.15819,0.221163,7.237e-16,-1.0138e-14,-53.5522,17.5784,-95.12,19.8034,-10.1346,19.9799,7.4248,7.12502,44.5164,-16.2628,7.237e-16,-1.0138e-14,-52.3737,-0.541847,77.5063,22.7836,-6.01035,21.263,19.4783,7.12502,45.7098,42.6927,-32.6396,-19.9137,30.6556,61.7246,20.9513,-29.619,31.967,-46.7164,-1.89383,-33.3209,44.0757,-36.8593,21.5505,9.00882
0.605294,16.5352,36.5509,-153.863,-1.41078,-181.662,-22.0996,-0.048729,-5.83513,-9.36987,-0.874245,0.0972485,2.08438,-1.14523,3.19033,-10.8988,1.06711,-4.08335,33.7812,-0.788531,-0.150145,13.1223,-2.12494,0.259363,-5.48832e-15,9.14409e-15,-53.5317,17.8247,-95.1519,19.9056,-10.1848,20.2672,7.07645,7.12502,44.7839,-16.5077,-5.48832e-15,9.14409e-15,-52.4228,-0.292794,77.4751,22.8326,-6.20431,21.9472,19.5277,7.12502,46.3445,42.4774,-32.32,-19.8811,30.589,61.6799,21.3984,-30.4984,32.56,-46.4894,-1.77284,-33.2947,44.1629,-36.9713,21.5265,9.09297
0.614649,16.5354,36.5522,-153.803,-1.80269,-181.81,-21.9495,-0.206438,-5.91179,-9.34892,-1.05392,0.098819,2.04971,-1.22309,3.19569,-11.1918,1.03458,-4.13056,33.9281,-0.831008,-0.0732762,13.251,-2.13916,0.287927,4.9603e-15,1.21756e-14,-53.2445,17.9111,-95.1767,19.9008,-10.2534,20.6611,6.75131,7.12502,45.1504,-16.6888,4.9603e-15,1.21756e-14,-52.0553,0.0198584,77.2302,22.5437,-6.70516,22.5688,19.7471,7.12502,46.9201,42.4484,-32.4191,-20.1465,30.7074,61.6225,21.1647,-31.2907,33.6224,-46.5553,-1.76393,-33.4074,44.2167,-36.5726,21.4296,8.52575
0.607976,16.5339,36.5256,-154.067,-1.12526,-181.377,-21.9735,0.2256,-5.37039,-9.31216,-0.589074,0.0120887,2.0664,-1.00844,2.90135,-11.0026,1.00854,-4.0052,34.0307,-0.974549,-0.0449378,13.257,-2.20154,0.253115,-3.16502e-15,6.26172e-15,-53.266,17.883,-95.441,19.8601,-10.3978,21.032,6.32638,7.12502,45.4952,-16.9754,-3.16502e-15,6.26172e-15,-51.968,-0.167516,77.1782,22.3471,-6.76219,23.0637,20.0363,7.12502,47.3777,42.5343,-31.9116,-19.6771,30.6457,61.5025,21.815,-30.851,32.805,-46.3244,-1.33138,-33.1501,44.3197,-37.1016,21.6257,8.562
0.604352,16.533,36.5102,-154.327,-1.22928,-181.44,-21.8604,0.257482,-5.18829,-9.31994,-0.581238,-0.0870891,2.00384,-1.00701,2.6945,-10.5873,1.02395,-3.92184,34.0757,-1.05843,-0.0772002,13.1872,-2.25885,0.211652,8.26199e-16,-3.97569e-15,-53.3337,17.7782,-95.5366,19.8862,-10.3489,21.4518,5.98269,7.12502,45.885,-17.1596,8.26199e-16,-3.97569e-15,-52.1086,-0.385692,77.2158,22.3746,-6.60227,23.5035,20.2217,7.12502,47.7838,42.5348,-31.5219,-19.8736,30.4971,61.4671,21.9212,-30.7819,32.7184,-45.9702,-1.34099,-33.1944,44.3473,-37.2439,21.5106,8.54427
0.607677,16.5335,36.5071,-153.951,-1.09195,-181.522,-22.2018,0.284392,-5.23605,-9.44674,-0.579986,-0.109342,2.03222,-1.03048,2.69575,-10.4502,1.05212,-3.96057,34.1358,-1.03541,-0.137952,13.1829,-2.27713,0.195208,-8.84902e-15,2.68359e-15,-53.3308,17.94,-95.6145,20.0369,-10.4101,21.6668,5.6681,7.12502,46.0845,-17.3911,-8.84902e-15,2.68359e-15,-52.1013,-0.271168,77.1979,22.3582,-6.67302,23.8993,20.3469,7.12502,48.1487,42.4901,-32.0151,-19.6819,30.5118,61.5307,22.0824,-30.8643,32.7124,-46.3926,-1.37092,-33.3115,44.3752,-37.3125,21.4349,8.95419
0.612942,16.5333,36.4998,-153.785,-1.05605,-181.738,-22.3298,0.240345,-5.45911,-9.4959,-0.609198,-0.159228,2.03902,-1.05051,2.76137,-10.432,1.03756,-3.93557,34.1543,-1.053,-0.200493,13.1873,-2.29316,0.16302,1.89777e-15,-3.18055e-15,-53.3396,18.1336,-95.7707,20.2213,-10.533,21.6949,5.26802,7.12502,46.1106,-17.7803,1.89777e-15,-3.18055e-15,-52.0135,-0.415821,77.3784,22.3767,-6.54391,24.2526,20.6346,7.12502,48.4741,42.6231,-32.2334,-19.7221,30.3491,61.5957,21.2188,-30.9931,33.3222,-46.5008,-1.4314,-33.5318,44.3367,-37.2681,21.3741,9.15092
0.619804,16.5312,36.4902,-153.806,-1.16007,-181.804,-22.4284,0.186518,-5.53958,-9.45483,-0.649598,-0.163301,2.13501,-1.06908,2.79143,-10.3632,1.02889,-3.89549,34.1559,-1.08876,-0.203063,13.1736,-2.30718,0.149988,1.90398e-15,3.03147e-15,-53.2028,18.0839,-95.6867,20.3033,-10.292,21.8327,5.09888,7.12502,46.2383,-17.8958,1.90398e-15,3.03147e-15,-51.8948,-0.7782,77.6854,22.4292,-6.19971,24.6937,21.1891,7.12502,48.8798,42.9808,-32.1782,-19.7376,30.3434,61.6291,18.5424,-31.2946,35.2807,-46.4197,-1.52901,-33.5242,44.3281,-37.2931,21.2755,9.3117
0.629099,16.5314,36.4754,-153.953,-1.65103,-181.832,-22.417,0.00209882,-5.52627,-9.31867,-0.845619,-0.117303,2.29767,-1.15203,2.78486,-10.5574,1.0052,-3.85511,34.2741,-1.12639,-0.207491,13.268,-2.32049,0.132044,8.88319e-16,1.78906e-15,-52.856,18.0184,-95.4996,20.3324,-10.0395,22.2453,4.84936,7.12502,46.6207,-17.9822,8.88319e-16,1.78906e-15,-51.6038,-0.976397,77.8332,22.2872,-6.15573,25.2368,21.5999,7.12502,49.3785,43.1429,-31.8903,-20.0168,30.5157,61.5744,20.7113,-32.5326,35.7205,-46.1629,-1.7076,-33.3755,44.3305,-37.161,21.1248,9.31936
0.636298,16.5316,36.4766,-153.774,-1.49383,-181.744,-22.4741,0.0663368,-5.5001,-9.23208,-0.741557,-0.115845,2.41268,-1.09765,2.79426,-11.1547,0.908313,-3.74734,34.4749,-1.20324,-0.305345,13.4883,-2.34103,0.0567707,-5.57529e-15,1.77912e-14,-52.2907,18.1645,-95.4428,20.3094,-10.149,22.5948,4.74973,7.12502,46.9442,-17.941,-5.57529e-15,1.77912e-14,-51.114,-1.09137,77.9425,22.2318,-6.25856,25.7629,21.7722,7.12502,49.8607,43.0678,-32.1502,-19.7855,30.6436,61.5948,17.3684,-31.8696,37.2092,-46.4386,-1.63316,-33.3142,44.3869,-37.1252,21.2617,9.27674
0.644123,16.5309,36.4755,-153.767,-1.50273,-181.774,-22.4269,0.0154776,-5.58812,-9.07278,-0.741906,-0.0722619,2.56402,-1.08136,2.8896,-11.6957,0.844682,-3.62898,34.6411,-1.206,-0.495676,13.6808,-2.34028,-0.0462883,6.02566e-16,1.73937e-15,-51.8445,18.6249,-95.5877,20.3484,-10.5809,22.761,4.6797,7.12502,47.098,-17.9432,6.02566e-16,1.73937e-15,-50.6741,-1.12593,78.1173,22.342,-6.37271,26.2884,21.82,7.12502,50.3414,42.8617,-32.2041,-19.7867,30.6824,61.6415,18.0777,-32.0175,36.5477,-46.49,-1.63877,-33.3137,44.4481,-37.0932,21.2333,9.39089
0.651771,16.5301,36.4708,-153.748,-1.51674,-181.743,-22.3671,0.0114252,-5.60615,-9.08551,-0.747885,-0.0297293,2.52107,-1.08106,2.94523,-11.8008,0.868638,-3.53239,34.7363,-1.17012,-0.58207,13.7449,-2.32776,-0.0960808,-6.70588e-15,9.0944e-15,-51.8137,18.9453,-95.7874,20.4661,-10.9171,23.0631,4.17122,7.12502,47.3772,-18.327,-6.70588e-15,9.0944e-15,-50.5247,-1.08948,78.1681,22.2607,-6.70555,26.6471,21.6884,7.12502,50.6689,42.5527,-32.2514,-19.8267,30.7668,61.7509,18.0445,-32.094,36.8604,-46.5653,-1.63532,-33.258,44.5299,-37.0408,21.3103,9.31847
0.658333,16.528,36.466,-153.683,-1.44381,-181.883,-22.4304,0.0809395,-5.73851,-9.21156,-0.66583,-0.168376,2.40232,-1.05295,2.89193,-11.2692,0.878107,-3.36878,34.5869,-1.283,-0.496909,13.5614,-2.35355,-0.100746,-4.8081e-15,2.23633e-14,-51.8948,18.6009,-95.7537,20.4734,-10.6692,23.3336,3.84675,7.12502,47.627,-18.5382,-4.8081e-15,2.23633e-14,-50.6629,-1.43912,78.2294,22.2387,-6.79772,26.7352,21.6666,7.12502,50.7493,42.4869,-32.3843,-19.8827,30.6394,61.916,17.8869,-32.0957,37.137,-46.6575,-1.49027,-33.4785,44.5862,-36.7607,21.5431,8.5517
0.661655,16.5242,36.4605,-153.664,-1.44808,-182.039,-22.444,-0.0281638,-5.84301,-9.07215,-0.745939,-0.164431,2.56834,-1.08205,2.93426,-11.7267,0.896829,-3.37385,34.635,-1.1735,-0.518983,13.6821,-2.29143,-0.0948207,3.01904e-15,-1.04362e-15,-51.3755,18.6506,-95.4537,20.5365,-10.2207,23.332,3.93596,7.12502,47.6255,-18.4497,3.01904e-15,-1.04362e-15,-50.4168,-1.47643,78.405,22.4163,-6.63105,26.8955,22.1612,7.12502,50.8955,42.9008,-32.4622,-19.9445,30.5099,62.0893,17.8443,-32.3864,37.7607,-46.667,-1.45403,-33.6701,44.6314,-36.6019,21.6281,8.43654
0.663293,16.5229,36.4575,-153.672,-1.52042,-182.104,-22.3704,-0.0628635,-5.8268,-9.05773,-0.789397,-0.178469,2.55193,-1.10015,2.90028,-11.8135,0.882186,-3.38067,34.8287,-1.21277,-0.586653,13.7886,-2.33507,-0.134379,-4.45091e-15,2.33572e-15,-51.086,18.4947,-95.1294,20.6451,-9.83167,23.237,4.30474,7.12502,47.5378,-18.1209,-4.45091e-15,2.33572e-15,-50.3721,-1.82978,78.7466,22.6463,-6.32983,27.076,22.8644,7.12502,51.0599,43.5123,-32.5013,-20.0547,30.4985,62.2465,16.4967,-32.9433,39.433,-46.66,-1.49362,-33.7219,44.6724,-36.595,21.5402,8.94115
0.66414,16.5226,36.4559,-153.729,-1.66376,-182.132,-22.2334,-0.0816117,-5.70148,-9.09136,-0.8475,-0.203264,2.45393,-1.12835,2.79092,-11.6216,0.859515,-3.46362,35.0096,-1.31127,-0.618207,13.8292,-2.4238,-0.154691,1.03989e-14,-4.72114e-15,-50.9471,18.4417,-94.9774,20.7696,-9.83322,23.4833,4.15734,7.12502,47.7651,-18.1643,1.03989e-14,-4.72114e-15,-50.4276,-2.23192,79.0843,22.8305,-6.01467,27.0694,23.076,7.12502,51.0539,43.7273,-32.4721,-20.3136,30.5343,62.3748,16.4188,-33.7502,40.3481,-46.6106,-1.52712,-33.7292,44.7253,-36.5171,21.4561,9.37001
0.665227,16.5182,36.4528,-153.927,-1.88539,-182.099,-21.9276,-0.10587,-5.51965,-9.09118,-0.912508,-0.198363,2.31069,-1.15071,2.68229,-11.4902,0.864438,-3.47027,35.1137,-1.34139,-0.676147,13.847,-2.46418,-0.185549,2.70223e-16,-5.56597e-15,-50.7587,18.3139,-94.7688,20.7809,-9.67906,23.7564,3.89621,7.12502,48.017,-18.3087,2.70223e-16,-5.56597e-15,-50.4129,-2.49694,79.2668,22.8853,-5.8806,27.1566,22.9509,7.12502,51.1334,43.5576,-32.2405,-20.6462,30.6139,62.466,15.1844,-33.374,40.9774,-46.4168,-1.63818,-33.6108,44.8141,-36.5255,21.4551,9.54272
0.668095,16.5133,36.45,-154.246,-2.06784,-182.073,-21.6409,-0.163321,-5.38865,-9.01674,-0.98955,-0.168541,2.25842,-1.17342,2.62547,-11.1358,0.943154,-3.39298,35.0287,-1.27441,-0.722818,13.7275,-2.44121,-0.20395,-3.10601e-15,-4.96962e-16,-50.5021,18.2071,-94.5297,20.6732,-9.44326,23.8417,4.05492,7.12502,48.0956,-18.1131,-3.10601e-15,-4.96962e-16,-50.3509,-2.60894,79.3474,22.8748,-5.72391,27.1965,22.7981,7.12502,51.1697,43.3842,-31.8871,-20.916,30.6278,62.6018,13.686,-32.7143,41.3293,-46.1043,-1.74518,-33.4831,44.9483,-36.6595,21.4728,9.19635
0.668893,16.5101,36.4516,-154.358,-2.10205,-182.044,-21.6324,-0.171642,-5.2064,-9.03698,-1.04256,-0.169832,2.23818,-1.20502,2.50869,-10.3877,1.11324,-3.32573,34.8214,-1.14744,-0.660427,13.4664,-2.38751,-0.163556,-5.87657e-15,-8.34896e-15,-50.5508,18.3652,-94.5748,20.7703,-9.5746,24.0319,3.96258,7.12502,48.2709,-18.1228,-5.87657e-15,-8.34896e-15,-50.5023,-2.76128,79.4822,23.0338,-5.39499,27.044,22.7609,7.12502,51.0308,43.4251,-31.8336,-21.057,30.6452,62.7508,12.0424,-32.1255,41.5292,-46.0183,-1.85039,-33.4072,45.0131,-36.6744,21.6286,8.93709
0.675115,16.5057,36.4647,-153.962,-1.6107,-181.83,-21.8153,0.0209984,-5.04964,-9.16003,-0.865165,-0.152007,2.18182,-1.13899,2.47861,-10.4665,1.21214,-3.29022,34.928,-1.03752,-0.614944,13.5287,-2.33645,-0.140392,2.81094e-15,-5.01931e-15,-50.5202,18.804,-94.8136,20.9892,-10.1234,24.1486,3.69648,7.12502,48.3783,-18.3379,2.81094e-15,-5.01931e-15,-50.4474,-2.88925,79.6298,23.283,-5.11233,27.0892,23.1203,7.12502,51.072,43.7614,-32.5009,-20.5955,30.8454,62.9878,17.0799,-34.2449,40.174,-46.6272,-1.80429,-33.2609,45.087,-36.8253,21.9126,9.24403
0.687576,16.5019,36.4536,-154.631,-2.60381,-182.477,-21.0267,-0.634493,-5.60877,-8.65663,-1.45972,-0.0685206,2.3871,-1.35104,2.75517,-11.8587,1.18139,-3.37656,35.3222,-0.864894,-0.727632,14.0142,-2.25847,-0.160663,-9.74355e-15,-1.4884e-14,-49.7533,19.6089,-94.8701,21.091,-10.9234,24.2117,3.66571,7.12502,48.4364,-18.3409,-9.74355e-15,-1.4884e-14,-49.6576,-2.49612,79.5977,23.2578,-5.13805,27.2152,23.3655,7.12502,51.1868,43.942,-31.7366,-21.7989,30.4239,63.1389,16.5055,-34.39,40.0921,-45.6086,-2.17487,-33.6307,45.0241,-36.4898,21.4423,9.17048
0.694377,16.4981,36.4654,-154.494,-2.38891,-182.518,-21.0525,-0.544392,-5.72739,-8.71614,-1.33712,-0.124303,2.32225,-1.29502,2.79142,-11.5599,1.13201,-3.26618,35.3201,-0.99859,-0.818525,13.9475,-2.32781,-0.236614,-7.83336e-15,-2.28602e-15,-49.6005,19.62,-94.8511,21.0998,-11.2306,24.4543,3.91413,7.12502,48.6596,-17.9849,-7.83336e-15,-2.28602e-15,-49.4488,-2.51178,79.4905,23.1025,-5.35382,27.3,23.2521,7.12502,51.264,43.785,-32.1756,-21.602,30.3952,63.4449,16.58,-34.4444,40.0335,-45.8224,-2.18929,-33.6895,45.0307,-36.5945,21.5134,9.21707
0.701085,16.4965,36.4725,-154.452,-2.51971,-182.59,-21.0415,-0.634269,-5.78629,-8.5813,-1.40342,-0.12982,2.47012,-1.31767,2.80144,-11.7918,1.07395,-3.17004,35.363,-1.05545,-0.897701,14.0195,-2.34173,-0.295806,4.94322e-15,8.94531e-15,-49.1849,19.859,-94.8497,21.1014,-11.5759,24.6004,4.04937,7.12502,48.794,-17.7843,4.94322e-15,8.94531e-15,-48.9928,-2.40175,79.3513,23.0088,-5.5095,27.4497,23.1626,7.12502,51.4002,43.6178,-32.4406,-21.7565,30.4459,63.6809,16.1108,-34.7903,40.49,-45.8916,-2.1739,-33.7563,45.0373,-36.4566,21.4908,8.84609
0.70739,16.4955,36.4785,-154.42,-2.72005,-182.53,-20.9798,-0.71674,-5.70362,-8.41708,-1.47922,-0.0703161,2.62747,-1.34173,2.799,-12.2415,1.04682,-3.06276,35.3473,-1.00299,-0.982634,14.1126,-2.28963,-0.340365,-5.4759e-15,-1.00386e-14,-48.6584,19.9488,-94.6182,21.0972,-11.707,24.6066,4.11288,7.12502,48.7997,-17.718,-5.4759e-15,-1.00386e-14,-48.5226,-2.41513,79.367,23.0285,-5.39519,27.462,23.0053,7.12502,51.4113,43.4542,-32.681,-22.0317,30.6685,63.9189,15.4431,-35.3568,41.0971,-46.0243,-2.16399,-33.6661,45.1389,-36.2543,21.5692,8.47216
0.711361,16.4953,36.4797,-154.467,-2.71235,-182.287,-20.8978,-0.653732,-5.48986,-8.37705,-1.42764,0.0381333,2.62826,-1.31098,2.80667,-12.1281,1.08185,-3.00106,35.1873,-0.921889,-1.03531,14.0126,-2.24115,-0.352862,-3.8499e-15,2.88238e-15,-48.4208,19.8209,-94.2359,21.0935,-11.4524,24.7779,4.35662,7.12502,48.9572,-17.3969,-3.8499e-15,2.88238e-15,-48.4246,-2.55594,79.5198,23.1153,-5.22007,27.4058,22.7495,7.12502,51.3602,43.2276,-32.7558,-22.1369,30.9239,64.1037,14.8468,-35.8551,41.3733,-46.103,-2.11766,-33.391,45.2397,-36.1633,21.8505,7.74467
0.71337,16.4937,36.4795,-154.583,-2.76724,-182.233,-20.7815,-0.638624,-5.40531,-8.35996,-1.41903,0.0623109,2.58829,-1.30167,2.78871,-11.8067,1.09662,-3.03076,35.0599,-0.952964,-0.92965,13.8833,-2.24616,-0.30389,-7.74484e-15,-4.42296e-15,-48.3502,19.7445,-94.0539,21.1146,-11.3624,25.038,4.49307,7.12502,49.196,-17.1418,-7.74484e-15,-4.42296e-15,-48.5061,-2.76107,79.6201,23.248,-5.08879,27.4531,22.6205,7.12502,51.4032,43.074,-32.7768,-22.3058,30.9896,64.3137,13.5991,-36.8223,42.6548,-46.0089,-2.15207,-33.278,45.2804,-36.2236,21.7751,8.15788
0.720807,16.4965,36.4881,-154.517,-2.79665,-182.423,-20.6207,-0.683242,-5.63046,-8.41308,-1.44973,0.0134288,2.45041,-1.31151,2.86191,-11.6877,1.07524,-3.08361,35.0553,-1.04434,-0.778607,13.8563,-2.27685,-0.247009,-5.53491e-15,-3.18055e-15,-48.2872,19.6907,-93.9772,21.2147,-11.518,25.2906,4.02772,7.12502,49.4279,-17.4903,-5.53491e-15,-3.18055e-15,-48.5229,-3.01228,79.7054,23.3819,-4.91887,27.4107,22.6186,7.12502,51.3647,43.0942,-33.1442,-22.5919,30.9398,64.5806,12.5769,-37.8999,44.3151,-46.0792,-2.15206,-33.4581,45.2771,-36.2206,21.4739,9.08393
0.72905,16.502,36.4992,-154.447,-2.84934,-182.598,-20.3899,-0.729396,-5.86683,-8.47203,-1.48394,-0.00458233,2.27188,-1.31926,2.97554,-11.6767,1.05571,-3.08093,35.1031,-1.09026,-0.77585,13.8761,-2.30048,-0.25494,-1.84998e-14,-1.676e-14,-48.1972,19.6473,-93.8299,21.3237,-11.5799,25.5029,3.39046,7.12502,49.6225,-18.0282,-1.84998e-14,-1.676e-14,-48.4773,-3.27646,79.8621,23.5365,-4.67633,27.2721,22.7711,7.12502,51.2386,43.3184,-33.5248,-23.0726,30.9172,64.8408,11.5318,-37.7665,44.5049,-46.1609,-2.13044,-33.6414,45.2457,-36.0207,21.478,8.84174
0.732695,16.5047,36.5079,-154.355,-2.65339,-182.418,-20.3688,-0.60076,-5.74429,-8.47686,-1.3406,0.028247,2.24362,-1.24932,2.9734,-11.6995,1.0195,-3.04755,35.1374,-1.14365,-0.820668,13.8972,-2.32622,-0.287964,-3.74585e-15,-2.02512e-15,-48.0022,19.6208,-93.6564,21.3705,-11.61,25.7024,3.21159,7.12502,49.8052,-18.1128,-3.74585e-15,-2.02512e-15,-48.2387,-3.38596,79.8934,23.4922,-4.62673,27.2523,22.7572,7.12502,51.2205,43.3147,-33.8855,-23.077,31.1131,65.0926,7.43178,-36.7286,44.6103,-46.3521,-2.06686,-33.4878,45.2209,-35.9956,21.8008,8.25817
0.732322,16.5,36.5093,-154.405,-2.4342,-182.184,-20.4278,-0.447959,-5.50681,-8.38851,-1.16024,0.0422096,2.35479,-1.16114,2.89072,-11.568,0.97468,-3.02473,35.066,-1.23636,-0.781819,13.8369,-2.35576,-0.286654,1.08854e-14,-1.20265e-14,-47.848,19.68,-93.6169,21.3991,-11.7465,25.5387,3.6952,7.12502,49.6553,-17.7067,1.08854e-14,-1.20265e-14,-47.9108,-3.39429,79.8122,23.2394,-4.75856,27.2059,22.3596,7.12502,51.1783,42.9409,-34.0248,-22.9338,31.2573,65.3458,7.74962,-37.8553,46.6391,-46.359,-1.99693,-33.2584,45.2653,-36.4513,21.5081,9.33307
0.731654,16.4912,36.5001,-154.99,-3.05066,-182.429,-20.0014,-0.678375,-5.56236,-8.15263,-1.38353,0.00616275,2.41529,-1.23961,2.83887,-11.3372,0.977041,-2.96568,34.9703,-1.2827,-0.72523,13.7428,-2.36057,-0.276438,6.01246e-15,3.31722e-15,-47.7921,19.7592,-93.6235,21.4558,-11.8385,25.2609,4.16864,7.12502,49.4006,-17.3632,6.01246e-15,3.31722e-15,-47.7551,-3.57579,79.8591,23.2238,-4.60365,27.0608,22.4161,7.12502,51.0461,43.0717,-33.425,-23.8101,31.0417,65.4977,7.44846,-37.5588,46.7806,-45.5755,-2.16408,-33.3535,45.3101,-36.5046,20.8679,10.2328
0.735881,16.4892,36.5123,-154.854,-2.77672,-182.239,-20.0236,-0.508283,-5.42911,-8.19128,-1.19615,-0.00563559,2.36796,-1.15287,2.79184,-11.1935,0.991101,-2.81818,34.9618,-1.32279,-0.719406,13.7064,-2.36178,-0.304775,2.78182e-15,-1.22501e-14,-47.7156,19.8848,-93.6779,21.5341,-11.9756,25.0686,4.31785,7.12502,49.2241,-17.3029,2.78182e-15,-1.22501e-14,-47.6206,-3.792,79.8885,23.3569,-4.33355,26.8784,22.8257,7.12502,50.8799,43.5739,-33.9058,-23.5609,31.2701,65.7107,6.77234,-36.4499,45.8965,-45.9184,-2.06092,-33.2212,45.4215,-36.3769,21.3735,9.45757
0.739391,16.4922,36.5206,-154.77,-2.66588,-182.167,-20.0684,-0.414656,-5.36481,-8.20513,-1.08807,-0.0371748,2.36597,-1.10366,2.74467,-10.9897,0.991194,-2.63771,34.9623,-1.39042,-0.762764,13.6606,-2.3816,-0.36285,-1.34238e-14,-5.96354e-16,-47.704,20.2196,-93.9249,21.6171,-12.4292,24.6788,4.42175,7.12502,48.8661,-17.3766,-1.34238e-14,-5.96354e-16,-47.4675,-3.8717,79.7947,23.3946,-4.32951,26.6716,22.7819,7.12502,50.6912,43.6339,-34.3022,-23.4708,31.4212,65.8942,10.0268,-37.5326,45.0905,-46.1176,-2.05118,-33.1557,45.4837,-36.3223,21.6887,8.70187
0.741552,16.4917,36.5207,-154.907,-2.57583,-182.154,-19.8807,-0.468876,-5.40284,-7.90479,-1.07545,0.0405769,2.5973,-1.0713,2.85077,-12.012,0.977671,-2.63126,35.2611,-1.29228,-0.808309,14.0226,-2.32012,-0.382016,-1.04406e-15,7.87684e-15,-47.1148,20.9418,-94.0004,21.7414,-13.1065,24.6036,3.88745,7.12502,48.797,-17.9448,-1.04406e-15,7.87684e-15,-46.7584,-3.55685,79.6736,23.3368,-4.50946,26.5681,22.5482,7.12502,50.5968,43.4518,-34.352,-23.5144,31.4095,66.0245,12.5512,-37.7275,44.3399,-46.0099,-2.00263,-33.1349,45.5663,-36.5889,21.4791,9.16927
0.753212,16.4906,36.5392,-154.778,-2.91296,-182.372,-19.692,-0.65414,-5.66935,-7.88889,-1.26544,0.051668,2.53495,-1.15257,2.97573,-12.1675,0.965441,-2.68243,35.4224,-1.33993,-0.741882,14.1325,-2.34576,-0.360283,5.26631e-15,-4.27387e-15,-46.8701,21.1794,-93.9951,21.8487,-13.3273,24.6595,3.08409,7.12502,48.8484,-18.723,5.26631e-15,-4.27387e-15,-46.4525,-3.52019,79.5905,23.3309,-4.57788,26.4972,22.3347,7.12502,50.5321,43.2735,-34.9722,-23.8513,31.6144,66.3078,15.1103,-37.1579,42.5649,-46.2111,-2.15669,-33.2541,45.6295,-36.3712,21.2867,9.08882
0.748397,16.4855,36.529,-155.11,-2.64431,-182.321,-19.6536,-0.538536,-5.56514,-7.66748,-1.07559,0.00336865,2.73803,-1.04856,2.9037,-12.288,1.01331,-2.48281,35.5173,-1.28353,-0.853806,14.2007,-2.31085,-0.436007,9.10367e-15,-8.29926e-15,-46.6611,21.2372,-93.9284,21.8624,-13.2451,24.6345,3.01359,7.12502,48.8254,-18.8047,9.10367e-15,-8.29926e-15,-46.2434,-3.55531,79.4782,23.3895,-4.50803,26.3225,22.112,7.12502,50.3725,43.137,-34.796,-23.7637,31.4727,66.4102,20.8989,-35.4679,38.6399,-45.8528,-2.09913,-33.2396,45.7001,-36.6942,21.4207,8.65556
0.749986,16.4854,36.5567,-154.448,-2.26146,-182.028,-20.0218,-0.310525,-5.3288,-7.83034,-0.861534,0.0270134,2.73151,-0.968315,2.83805,-12.402,0.991257,-2.43919,35.5876,-1.31661,-0.886079,14.2588,-2.32314,-0.464851,5.13569e-15,9.19379e-15,-46.3898,21.2765,-93.7882,21.8329,-13.0766,24.6494,3.73747,7.12502,48.8391,-18.0741,5.13569e-15,9.19379e-15,-45.981,-3.53385,79.3517,23.4755,-4.43759,26.2276,22.1779,7.12502,50.2858,43.2493,-35.9021,-22.7144,31.8534,66.7871,7.67415,-34.7803,46.3689,-46.8398,-2.06959,-33.0251,45.7825,-36.6831,21.7188,8.82465
0.748591,16.4814,36.5438,-155.318,-2.44794,-182.01,-19.4075,-0.340598,-5.24404,-7.49478,-0.831648,0.050859,2.7804,-0.912842,2.82636,-12.4606,0.946248,-2.55883,35.7095,-1.42489,-0.746614,14.3313,-2.3741,-0.408677,-4.59059e-15,1.68222e-14,-46.1612,21.2567,-93.5865,21.8023,-12.8855,24.7033,4.4683,7.12502,48.8886,-17.319,-4.59059e-15,1.68222e-14,-45.6762,-3.42293,79.189,23.3887,-4.62241,26.1366,22.0113,7.12502,50.2026,43.127,-34.8966,-23.1468,31.655,66.6614,11.7261,-33.5489,40.1036,-45.8546,-1.9857,-32.96,45.8979,-36.8391,21.6206,8.26253
0.754725,16.4846,36.5389,-155.737,-3.00562,-182.096,-19.0276,-0.523804,-5.29164,-7.31865,-1.01919,0.11193,2.79329,-0.979677,2.88187,-12.4675,0.939476,-2.63753,35.8171,-1.48179,-0.633024,14.3847,-2.40212,-0.361419,3.49744e-15,3.9027e-15,-45.9641,21.2148,-93.3394,21.8022,-12.7231,24.9502,4.6497,7.12502,49.1155,-17.0254,3.49744e-15,3.9027e-15,-45.4431,-3.27324,79.0307,23.3275,-4.87875,25.9459,21.6114,7.12502,50.0282,42.8193,-34.5868,-23.7989,31.7613,66.6295,16.2862,-32.1275,32.1131,-45.3374,-2.05886,-32.9056,45.9702,-36.6684,21.3461,8.21351
0.753806,16.4791,36.561,-155.307,-2.57612,-181.715,-19.2293,-0.253304,-4.95786,-7.48258,-0.765532,0.158418,2.69998,-0.873658,2.7947,-12.3652,0.96264,-2.58774,35.902,-1.51419,-0.603708,14.4009,-2.41778,-0.366388,9.85816e-15,7.42492e-15,-45.769,21.1457,-93.1452,21.7317,-12.5947,25.0622,4.79652,7.12502,49.2183,-16.8272,9.85816e-15,7.42492e-15,-45.2558,-3.13803,78.8358,23.318,-5.00964,25.9904,21.6168,7.12502,50.0689,42.8033,-35.429,-23.1913,32.2479,66.7091,18.7524,-31.8888,28.6274,-46.0659,-1.99262,-32.589,46.0548,-36.8746,21.568,8.53067
0.75881,16.4768,36.5671,-155.326,-2.78955,-181.797,-19.0867,-0.321779,-5.0436,-7.52193,-0.848815,0.158627,2.59076,-0.910147,2.82826,-12.2553,1.00474,-2.45554,36.016,-1.52911,-0.632401,14.4278,-2.42617,-0.408298,-1.61354e-14,1.25824e-14,-45.6882,21.1399,-93.0855,21.6308,-12.547,24.7158,5.52767,7.12502,48.9001,-16.254,-1.61354e-14,1.25824e-14,-44.9983,-2.94495,78.5806,23.0833,-5.15785,25.9565,21.3018,7.12502,50.0379,42.5046,-35.6783,-23.4217,32.3376,66.8192,20.6919,-31.6008,25.8341,-46.0485,-2.05407,-32.6159,46.0526,-36.7987,21.426,8.60038
0.765884,16.4849,36.5737,-155.243,-2.94697,-181.794,-19.0682,-0.345267,-5.07415,-7.553,-0.880544,0.171168,2.55043,-0.925413,2.85292,-12.2853,1.03366,-2.33589,36.1347,-1.55153,-0.610647,14.4895,-2.42456,-0.428821,-1.01792e-14,8.02671e-15,-45.6776,21.2512,-93.1061,21.6903,-12.683,25.3248,3.96286,7.12502,49.4592,-17.5392,-1.01792e-14,8.02671e-15,-44.8225,-2.95114,78.4742,23.0187,-5.10532,25.7143,20.9,7.12502,49.8161,42.2187,-35.8641,-23.1943,32.2524,67.164,11.6622,-35.9302,41.125,-46.1343,-2.09116,-32.5517,46.0236,-36.708,21.2748,8.63729
0.775222,16.4859,36.5861,-155.08,-3.26035,-181.836,-19.0746,-0.449274,-5.1611,-7.57266,-1.00463,0.208599,2.54344,-0.985013,2.91629,-12.3981,1.03847,-2.31672,36.2248,-1.59615,-0.490621,14.559,-2.42561,-0.393607,1.44696e-15,5.11249e-15,-45.6009,21.4217,-93.0945,21.8241,-12.7967,25.6486,3.09299,7.12502,49.7559,-18.257,1.44696e-15,5.11249e-15,-44.6588,-2.93627,78.3789,23.103,-5.02755,25.647,21.079,7.12502,49.7545,42.4296,-36.2129,-23.1963,32.3939,67.3455,8.69834,-36.9092,44.6991,-46.3117,-2.15405,-32.5286,45.9373,-36.3532,21.218,8.07326
0.787023,16.4871,36.6004,-154.897,-3.75265,-182.035,-19.015,-0.670602,-5.3862,-7.62986,-1.26792,0.25137,2.47491,-1.11088,3.03616,-12.4564,1.05055,-2.37596,36.3158,-1.61598,-0.386884,14.6168,-2.43363,-0.34752,3.80612e-15,-1.41013e-15,-45.5055,21.5387,-93.013,21.8941,-12.7282,25.9851,2.66015,7.12502,50.064,-18.5289,3.80612e-15,-1.41013e-15,-44.4608,-2.69552,78.1881,23.1024,-5.12805,25.6982,21.4783,7.12502,49.8014,42.8047,-36.6541,-23.4175,32.5143,67.5011,8.65956,-37.074,45.1608,-46.4931,-2.16878,-32.6807,45.8623,-35.8204,21.0899,6.67986
0.779345,16.4914,36.5787,-155.604,-3.65349,-182.068,-18.6916,-0.623656,-5.30016,-7.34718,-1.15373,0.203779,2.60321,-1.03138,2.9621,-12.5384,1.07659,-2.4055,36.4905,-1.63368,-0.308803,14.7195,-2.4468,-0.320403,-1.66657e-16,2.14936e-15,-45.4529,21.6625,-93.0129,21.9252,-12.8253,26.4264,2.00678,7.12502,50.4675,-18.967,-1.66657e-16,2.14936e-15,-44.3383,-2.71286,78.1445,23.2299,-5.03348,25.6378,21.8686,7.12502,49.746,43.2237,-35.6588,-23.5115,31.8714,67.4507,7.91664,-37.1554,46.61,-45.5643,-1.98609,-32.775,45.8016,-36.0431,21.1272,5.45105
0.790002,16.492,36.6074,-154.946,-3.6281,-182.098,-18.9093,-0.596389,-5.43043,-7.58869,-1.15254,0.194009,2.45347,-1.04846,3.0256,-12.6385,1.10497,-2.38246,36.6561,-1.65101,-0.241085,14.8222,-2.45118,-0.306142,-2.0183e-14,1.13432e-14,-45.5206,21.8994,-93.1589,21.9937,-13.1105,25.8813,1.68412,7.12502,49.969,-19.5549,-2.0183e-14,1.13432e-14,-44.263,-2.97563,78.2233,23.4041,-4.73842,25.4269,22.0314,7.12502,49.5528,43.4858,-36.7457,-23.0804,32.1246,67.5872,7.61109,-37.6737,47.6301,-46.4372,-1.91391,-32.8704,45.7896,-35.6135,21.2043,4.26163
0.790943,16.4915,36.6057,-155.139,-3.87407,-182.071,-18.7143,-0.630806,-5.33418,-7.53768,-1.20096,0.199059,2.41319,-1.06348,2.96891,-12.6307,1.11208,-2.36201,36.747,-1.69641,-0.179234,14.865,-2.4674,-0.294953,-3.7325e-15,6.34558e-15,-45.6206,21.9893,-93.2176,22.0904,-13.1755,26.0199,1.2332,7.12502,50.0958,-19.9391,-3.7325e-15,6.34558e-15,-44.2707,-3.21034,78.2673,23.5782,-4.52016,25.317,21.8626,7.12502,49.452,43.3684,-36.4583,-23.2753,32.0919,67.5156,6.60965,-36.4333,48.9152,-46.188,-1.96626,-32.7758,45.761,-35.5691,21.1285,3.83024
0.794701,16.4924,36.6082,-155.21,-4.05624,-182.048,-18.6279,-0.655839,-5.27998,-7.52315,-1.23842,0.201775,2.38797,-1.07838,2.93466,-12.6408,1.11892,-2.3043,36.8804,-1.74458,-0.172184,14.9319,-2.49071,-0.315651,-6.99366e-15,2.61604e-15,-45.6527,22.1326,-93.3246,22.1223,-13.3534,26.492,0.736497,7.12502,50.5274,-20.2049,-6.99366e-15,2.61604e-15,-44.2805,-3.39095,78.2754,23.8105,-4.32251,25.2909,21.5318,7.12502,49.4281,43.0498,-36.3535,-23.3652,32.0957,67.4895,4.58371,-35.2806,51.4504,-46.1072,-2.00044,-32.6983,45.7507,-35.5542,21.048,3.66061
0.802453,16.4983,36.6128,-155.264,-4.24692,-182.051,-18.5379,-0.693496,-5.29368,-7.5066,-1.28029,0.19502,2.36314,-1.09443,2.92808,-12.7209,1.14946,-2.19749,37.0663,-1.76912,-0.174018,15.0401,-2.49891,-0.347382,9.4413e-16,-1.05418e-14,-45.6142,22.2486,-93.4596,22.0148,-13.5578,26.6197,0.83498,7.12502,50.6439,-20.043,9.4413e-16,-1.05418e-14,-44.2298,-3.55986,78.2543,24.0262,-4.03203,25.2217,21.329,7.12502,49.3646,42.8791,-36.3158,-23.3304,32.0844,67.4095,5.08127,-35.0193,51.9894,-46.0378,-1.98501,-32.6534,45.6999,-35.4011,21.0241,2.87289
0.80816,16.503,36.6154,-155.367,-4.41802,-181.972,-18.3417,-0.656845,-5.21153,-7.5162,-1.24721,0.178677,2.24842,-1.07232,2.87461,-12.8563,1.14657,-2.13479,37.2848,-1.85998,-0.0964396,15.1803,-2.52958,-0.350242,-4.22553e-15,-1.55797e-14,-45.4866,21.8047,-93.2015,21.8645,-13.1023,26.6102,1.60591,7.12502,50.6353,-19.2768,-4.22553e-15,-1.55797e-14,-44.144,-3.66483,78.1399,24.0759,-3.953,25.3347,21.2737,7.12502,49.4683,42.7712,-36.2171,-23.2564,32.1202,67.2931,12.3428,-37.2941,46.7118,-45.9088,-2.00696,-32.5042,45.6396,-35.3414,20.9476,2.14578
0.811872,16.5048,36.6168,-155.491,-4.53572,-182.028,-18.432,-0.711841,-5.35136,-7.30589,-1.24361,0.234055,2.523,-1.05958,3.00888,-13.0574,1.10375,-2.20961,37.3198,-1.88332,-0.0726925,15.2463,-2.53611,-0.33199,1.05754e-14,-1.22843e-15,-45.0561,21.4807,-92.6491,21.8008,-12.5254,24.5293,4.61845,7.12502,48.7286,-17.2471,1.05754e-14,-1.22843e-15,-43.7877,-3.45148,78.0375,24.0536,-4.06224,25.5948,21.2993,7.12502,49.7067,42.6747,-36.0826,-23.2779,31.9947,67.1943,9.05677,-34.5159,49.0725,-45.7217,-2.05283,-32.5136,45.5793,-35.3248,20.8569,1.57788
0.815309,16.5058,36.6186,-155.557,-4.65023,-182.118,-18.1216,-0.653709,-5.29017,-7.46981,-1.21622,0.0866415,2.18043,-1.04661,2.83104,-12.8748,1.13402,-2.18471,37.5519,-2.00197,0.0628532,15.3206,-2.59671,-0.308709,6.08623e-15,7.33018e-15,-45.2973,21.0545,-92.6545,21.7766,-12.2091,24.9617,4.63451,7.12502,49.126,-17.0353,6.08623e-15,7.33018e-15,-44.1013,-3.85355,77.9877,24.2886,-3.77627,25.6334,21.3964,7.12502,49.742,42.7536,-35.9557,-23.3363,31.8563,67.0721,10.2119,-34.547,47.8154,-45.599,-2.06389,-32.587,45.5152,-35.222,20.834,0.543088
0.817874,16.5056,36.6218,-155.499,-4.63477,-181.996,-18.457,-0.593874,-5.26325,-7.40785,-1.12323,0.142947,2.41343,-1.00729,2.88767,-12.5206,1.08006,-2.2772,37.5568,-2.12575,0.057461,15.2417,-2.68155,-0.31358,2.50597e-15,-1.10822e-14,-45.2867,21.1077,-92.6027,21.81,-12.3984,25.0385,4.4483,7.12502,49.1965,-17.1863,2.50597e-15,-1.10822e-14,-44.0248,-4.06253,78.1495,24.3215,-3.63709,25.4981,21.2841,7.12502,49.6181,42.705,-35.9281,-23.2164,31.941,66.9231,18.169,-36.7109,42.7566,-45.6976,-2.03064,-32.4589,45.5108,-35.2624,20.7697,-0.105573
0.817917,16.5056,36.6146,-155.927,-5.24866,-182.129,-18.1704,-0.72529,-5.24414,-7.2895,-1.26737,0.0977956,2.40505,-1.06258,2.80308,-12.3367,1.01708,-2.29737,37.5132,-2.29807,0.232091,15.1825,-2.737,-0.261185,-8.89911e-15,-2.31087e-15,-45.3678,20.861,-92.5513,21.7988,-12.4622,25.0159,4.21672,7.12502,49.1758,-17.4283,-8.89911e-15,-2.31087e-15,-44.0188,-4.38961,78.213,24.3381,-3.52685,25.4503,21.2278,7.12502,49.5742,42.6712,-35.2066,-23.9289,31.8441,66.6543,18.6153,-36.4808,42.1949,-45.1084,-2.23903,-32.437,45.4945,-35.1736,20.511,1.15574
0.818736,16.5,36.6173,-155.953,-5.22481,-181.975,-18.0661,-0.602828,-5.00071,-7.33598,-1.15654,0.0324853,2.29024,-1.01083,2.62056,-12.438,0.981124,-2.3056,37.7169,-2.45313,0.367642,15.3123,-2.79906,-0.237253,8.08533e-15,1.74931e-14,-45.4578,20.7266,-92.6489,21.7715,-12.5883,24.95,4.31939,7.12502,49.1153,-17.3558,8.08533e-15,1.74931e-14,-44.0093,-4.57203,78.1065,24.4542,-3.247,25.403,21.5812,7.12502,49.5309,43.0468,-35.0686,-23.9267,32.0022,66.4256,19.7885,-36.0771,41.1821,-45.1476,-2.17995,-32.2926,45.5352,-35.2626,20.4912,7.00744
0.818195,16.4961,36.6185,-156.195,-5.39899,-181.91,-18.2089,-0.66224,-4.95797,-7.07626,-1.17914,0.112983,2.64736,-1.01228,2.67115,-12.4224,0.954593,-2.36238,37.6855,-2.46407,0.352209,15.2936,-2.8095,-0.233381,-1.07949e-14,-1.4238e-14,-45.2487,20.9407,-92.5716,21.7304,-12.6873,25.1074,4.33168,7.12502,49.2597,-17.2712,-1.07949e-14,-1.4238e-14,-43.6638,-4.3999,78.0649,24.4054,-3.00894,25.2587,21.8362,7.12502,49.3986,43.3691,-34.6684,-24.1278,32.0098,66.2346,20.6757,-35.5804,40.1551,-44.8601,-2.17195,-32.1992,45.5184,-35.3639,20.2273,6.42225
0.821953,16.4966,36.6214,-156.18,-5.48435,-181.858,-18.3584,-0.672628,-4.98993,-7.05973,-1.18252,0.178155,2.74419,-1.01578,2.75503,-12.236,0.978353,-2.35832,37.6897,-2.44785,0.3166,15.2504,-2.81654,-0.245508,-4.85547e-15,1.76421e-15,-45.2468,20.9366,-92.4561,21.6945,-12.5459,25.5637,3.83543,7.12502,49.6782,-17.5546,-4.85547e-15,1.76421e-15,-43.5772,-4.32272,78.0428,24.3169,-2.80547,25.155,21.6696,7.12502,49.3035,43.2505,-34.6526,-24.0826,32.1033,66.1687,21.089,-35.2987,39.7948,-44.8881,-2.19988,-32.0981,45.5186,-35.4437,20.0313,6.59291
0.82249,16.4951,36.6253,-156.294,-5.56548,-181.856,-18.2386,-0.67695,-4.98535,-7.02622,-1.18173,0.192985,2.71847,-1.00935,2.76998,-12.365,1.02937,-2.33911,37.8664,-2.40141,0.306882,15.3673,-2.80415,-0.253615,-4.43577e-16,2.15309e-14,-45.2618,21.0485,-92.491,21.701,-12.686,25.87,3.27231,7.12502,49.9587,-17.9721,-4.43577e-16,2.15309e-14,-43.4587,-4.17778,77.9439,24.2578,-2.75806,25.1713,21.4981,7.12502,49.3184,43.0715,-34.4974,-24.1652,32.0734,66.129,22.3431,-34.4847,38.3416,-44.751,-2.23718,-32.065,45.4842,-35.3734,19.9899,6.56074
0.822369,16.4942,36.6291,-156.051,-5.56003,-181.796,-18.3891,-0.602805,-4.88554,-7.10686,-1.11696,0.165832,2.70356,-0.987163,2.69632,-13.0446,1.19645,-1.96499,38.4998,-2.21606,0.0151929,15.8395,-2.73285,-0.445928,1.37169e-15,-6.78353e-15,-45.2878,21.1209,-92.5966,21.6333,-12.8605,26.3033,2.35095,7.12502,50.355,-18.6834,1.37169e-15,-6.78353e-15,-43.2912,-4.12764,77.8657,24.2542,-2.74733,25.2423,21.7644,7.12502,49.3835,43.3049,-34.7971,-24.1299,32.2476,66.1101,23.7888,-33.7791,36.5926,-45.0339,-2.36248,-31.9679,45.4609,-35.2698,20.1415,6.50872
0.825231,16.4953,36.6328,-155.814,-5.56112,-181.873,-18.5066,-0.576968,-4.97351,-7.1964,-1.08646,0.122769,2.66449,-0.979624,2.706,-12.7451,1.02928,-2.27152,38.2518,-2.46667,0.287524,15.6524,-2.838,-0.303372,-3.33003e-15,-1.41883e-14,-45.2946,21.1202,-92.6465,21.4851,-12.9089,26.9963,0.640036,7.12502,50.9874,-20.0484,-3.33003e-15,-1.41883e-14,-43.1678,-4.14406,77.8489,24.205,-2.7113,25.2514,22.0568,7.12502,49.3919,43.5931,-35.0668,-24.129,32.288,66.0624,24.6092,-33.6595,36.1111,-45.2888,-2.49148,-32.0086,45.4382,-35.2666,20.2011,6.73882
0.832553,16.4945,36.6389,-155.618,-5.65406,-182.063,-18.6119,-0.631498,-5.21994,-7.24625,-1.1251,0.0816993,2.66746,-1.00198,2.7931,-13.0027,1.1403,-2.04399,38.5188,-2.32199,0.100862,15.8429,-2.77858,-0.412886,-9.56884e-15,1.76421e-15,-45.2812,21.1104,-92.6675,21.4217,-12.9612,24.1661,4.70875,7.12502,48.3945,-17.3179,-9.56884e-15,1.76421e-15,-43.1067,-4.12431,77.8008,24.1289,-2.70263,25.1641,21.89,7.12502,49.3118,43.4668,-35.2996,-24.1669,32.2573,66.0201,24.7434,-33.9375,36.2158,-45.4684,-2.52321,-32.1873,45.4121,-35.2584,19.9439,7.04769
0.838989,16.4928,36.6457,-155.514,-5.89292,-182.067,-18.6034,-0.642249,-5.22556,-7.3048,-1.14898,0.0553063,2.60153,-1.01563,2.76424,-12.2354,0.897409,-2.51776,37.8905,-2.68304,0.590764,15.3615,-2.91371,-0.146572,1.64696e-15,8.44835e-15,-45.3386,20.8827,-92.6331,21.4831,-12.8814,23.9227,4.92847,7.12502,48.1703,-17.2045,1.64696e-15,8.44835e-15,-43.1281,-4.21096,77.7342,24.1906,-2.70276,25.2035,21.745,7.12502,49.348,43.3035,-35.4324,-24.2375,32.4539,65.9574,24.8463,-34.0807,35.5868,-45.5814,-2.56651,-32.1377,45.3894,-35.1647,19.7474,6.9114
0.848308,16.4924,36.6576,-155.323,-6.04846,-182.017,-18.6181,-0.631018,-5.24576,-7.39467,-1.15001,0.0552846,2.51219,-1.01972,2.77648,-13.4259,1.2416,-1.51666,38.8896,-2.22158,-0.23179,16.1271,-2.71013,-0.652724,-9.27377e-15,8.49804e-15,-45.4008,20.6589,-92.5612,21.6209,-12.7641,23.4964,5.34918,7.12502,47.7772,-16.9669,-9.27377e-15,8.49804e-15,-43.1182,-4.30277,77.7018,24.302,-2.69196,25.3357,21.75,7.12502,49.4691,43.247,-35.7025,-24.1368,32.733,65.9097,25.0131,-34.1586,34.948,-45.8603,-2.53509,-32.0548,45.3847,-34.9418,19.7753,6.13061
0.859446,16.4931,36.6715,-155.127,-6.17348,-182.071,-18.6318,-0.665947,-5.38764,-7.45132,-1.18397,0.0587707,2.46099,-1.0371,2.85424,-12.3001,0.814415,-2.33013,37.7764,-2.75403,0.465987,15.3175,-2.91389,-0.238226,1.55339e-14,5.46658e-16,-45.3673,20.5477,-92.4666,21.737,-12.7672,25.0014,2.86257,7.12502,49.1625,-18.7891,1.55339e-14,5.46658e-16,-43.0041,-4.2268,77.6458,24.3518,-2.66317,25.3217,21.6677,7.12502,49.4564,43.1713,-35.9793,-24.0138,32.8885,65.8914,25.3011,-34.0291,34.1883,-46.1396,-2.42617,-32.1088,45.4002,-34.6177,19.7682,5.29401
0.865547,16.4927,36.68,-155.1,-6.33254,-181.992,-18.5273,-0.638554,-5.32411,-7.53948,-1.17918,0.0611015,2.31164,-1.03529,2.82479,-12.5769,0.93839,-1.8677,38.0893,-2.57947,0.0583212,15.5238,-2.83997,-0.479909,-9.56263e-15,-5.36719e-15,-45.4606,20.2489,-92.3404,21.8063,-12.6711,24.2387,4.35916,7.12502,48.4613,-17.6355,-9.56263e-15,-5.36719e-15,-43.0489,-4.03012,77.4676,24.3604,-2.83378,25.2834,21.536,7.12502,49.4212,43.0574,-35.9944,-23.9871,33.079,65.8444,25.7868,-33.5918,32.9017,-46.233,-2.34855,-32.006,45.4307,-34.4244,19.6752,5.05499
0.870417,16.4904,36.686,-155.081,-6.38294,-181.971,-18.4134,-0.622719,-5.36318,-7.62858,-1.17425,0.0755746,2.1565,-1.03187,2.86662,-11.8698,0.762105,-2.22856,37.4654,-2.81282,0.430824,15.0621,-2.92116,-0.263488,-3.1262e-15,1.19768e-14,-45.5927,20.0762,-92.262,21.8869,-12.5359,23.4377,5.35752,7.12502,47.723,-16.9835,-3.1262e-15,1.19768e-14,-43.1155,-3.65024,77.228,24.2549,-3.24816,25.3708,21.3871,7.12502,49.5014,42.8678,-35.9812,-23.8895,33.145,65.8209,26.1791,-33.124,31.8499,-46.291,-2.31313,-31.9676,45.4393,-34.4209,19.5287,5.09824
0.87697,16.4877,36.6922,-155.063,-6.2922,-182.107,-18.3003,-0.63214,-5.59363,-7.6677,-1.16017,0.0485388,2.05361,-1.01994,2.9739,-11.7831,0.713736,-2.26751,37.4497,-2.87722,0.396724,15.0353,-2.96257,-0.280023,-1.51014e-14,-1.68967e-15,-45.658,20.1474,-92.3305,21.9705,-12.6004,22.428,6.83753,7.12502,46.7899,-15.9207,-1.51014e-14,-1.68967e-15,-43.1072,-3.41067,77.1157,24.1528,-3.5048,25.4375,21.1066,7.12502,49.5625,42.5561,-35.9922,-23.6848,32.998,65.84,27.0475,-32.3498,30.0403,-46.3053,-2.30836,-32.0952,45.4238,-34.582,19.2745,5.87867
0.883045,16.4871,36.6992,-155.072,-6.17551,-182.26,-18.2221,-0.616746,-5.81731,-7.67944,-1.10749,-0.0226605,1.99362,-0.989745,3.03698,-11.5813,0.697123,-2.22817,37.2454,-2.89135,0.43259,14.8893,-2.94899,-0.263548,5.03873e-15,4.96962e-17,-45.6816,20.1334,-92.3916,22.0616,-12.7281,25.5067,2.4543,7.12502,49.6259,-18.9627,5.03873e-15,4.96962e-17,-43.1534,-3.51958,77.1912,24.3068,-3.36153,25.4143,20.9725,7.12502,49.5413,42.4329,-35.983,-23.4793,32.803,65.8775,27.7298,-31.7455,28.4082,-46.2838,-2.30998,-32.2423,45.3968,-34.7591,19.0966,6.58903
0.88665,16.4859,36.7071,-155.137,-6.1799,-182.405,-18.1315,-0.643801,-5.98957,-7.58412,-1.09261,-0.0697688,2.04699,-0.97332,3.08762,-11.6131,0.649561,-2.18476,37.0468,-2.89949,0.431411,14.8006,-2.92354,-0.26388,-1.5902e-14,8.44835e-16,-45.5277,20.1326,-92.3778,22.1098,-12.7665,22.8903,6.03593,7.12502,47.2174,-16.5339,-1.5902e-14,8.44835e-16,-43.0162,-3.52263,77.2583,24.484,-3.20755,25.3671,21.1554,7.12502,49.498,42.6378,-35.8856,-23.377,32.6109,65.9205,27.4579,-31.87,28.4222,-46.1938,-2.27491,-32.4075,45.3733,-34.744,19.0866,6.18578
0.886959,16.4813,36.7127,-155.282,-6.18231,-182.44,-18.1133,-0.522349,-5.9775,-7.64205,-0.946549,-0.203135,1.95902,-0.905048,2.96898,-10.8043,0.571346,-2.06606,36.7361,-3.10223,0.466275,14.4691,-3.00455,-0.282345,1.14658e-14,1.45113e-14,-45.8498,19.8118,-92.5153,22.089,-12.6495,22.7749,6.01942,7.12502,47.1108,-16.5978,1.14658e-14,1.45113e-14,-43.1794,-3.72261,77.2288,24.424,-3.3047,25.2151,21.035,7.12502,49.3586,42.5881,-35.6601,-23.2938,32.4722,65.9355,27.4195,-31.6965,28.0624,-46.0393,-2.16429,-32.4874,45.3744,-34.751,19.1077,5.74136
0.88488,16.477,36.7159,-155.362,-6.06172,-182.401,-18.1311,-0.395163,-5.89667,-7.63167,-0.788231,-0.277861,1.96435,-0.829396,2.87454,-10.5177,0.492663,-2.09074,36.5627,-3.23819,0.549623,14.3271,-3.05441,-0.254466,8.97326e-15,-2.26615e-14,-46.1121,20.0626,-92.9428,22.0062,-12.6838,22.0773,6.3635,7.12502,46.4651,-16.5348,8.97326e-15,-2.26615e-14,-43.1537,-3.66763,77.1466,24.2713,-3.46687,25.0777,20.7883,7.12502,49.2325,42.4049,-35.4981,-23.1683,32.3754,65.9435,27.9918,-30.8003,26.4668,-45.9769,-2.07797,-32.4853,45.394,-34.9313,19.1305,5.69675
0.883054,16.4744,36.7205,-155.381,-5.96694,-182.391,-18.1444,-0.321492,-5.83265,-7.59143,-0.690892,-0.337352,2.00581,-0.782285,2.7936,-10.5044,0.422916,-2.1563,36.465,-3.33863,0.659693,14.284,-3.08312,-0.208715,2.55003e-15,-1.23246e-14,-46.5944,20.9733,-93.9464,21.8194,-12.6263,19.9005,7.89869,7.12502,44.4423,-15.8172,2.55003e-15,-1.23246e-14,-43.154,-3.72948,77.1884,24.3425,-3.30159,25.0437,20.8667,7.12502,49.2012,42.4989,-35.4041,-23.0923,32.2819,65.9628,27.8426,-30.4681,26.2527,-45.9741,-2.0937,-32.4819,45.4254,-35.1081,19.132,5.65385
0.882879,16.4737,36.7269,-155.435,-6.01823,-182.345,-18.0648,-0.290764,-5.71145,-7.56281,-0.663183,-0.376996,1.9941,-0.767172,2.689,-10.4933,0.380477,-2.14928,36.3959,-3.40748,0.722709,14.2521,-3.09719,-0.191546,-8.99345e-15,-6.55989e-15,-46.5779,21.0418,-94.0904,21.8598,-12.8544,19.691,8.21518,7.12502,44.2471,-15.5749,-8.99345e-15,-6.55989e-15,-43.2195,-3.86349,77.2667,24.5679,-3.06643,25.1354,21.0678,7.12502,49.2855,42.6578,-35.2923,-23.081,32.291,65.9808,26.9295,-30.9413,27.7955,-45.95,-2.12095,-32.4026,45.4525,-35.2513,19.0023,5.63776
0.885325,16.4733,36.734,-155.451,-6.04482,-182.273,-17.9454,-0.255569,-5.62036,-7.59068,-0.639674,-0.390685,1.90116,-0.75422,2.62917,-10.4271,0.356926,-2.14274,36.3297,-3.45169,0.769795,14.2083,-3.10668,-0.176847,3.00615e-14,3.08116e-15,-46.6238,21.0369,-94.1516,22.051,-12.9813,19.37,8.73181,7.12502,43.9478,-15.1705,3.00615e-14,3.08116e-15,-43.3221,-3.88194,77.335,24.8892,-3.01306,25.3749,21.4229,7.12502,49.5052,42.9016,-35.2897,-22.9707,32.3723,66.0052,27.0455,-30.9834,28.0319,-45.9898,-2.09464,-32.2973,45.4677,-35.3421,18.8481,5.53994
0.888325,16.4715,36.7435,-155.406,-5.91106,-182.341,-17.8567,-0.20408,-5.72282,-7.64067,-0.569963,-0.451998,1.79357,-0.718855,2.63696,-10.3256,0.334627,-2.11279,36.2579,-3.50178,0.810935,14.1536,-3.11782,-0.169039,8.81175e-15,-1.6201e-14,-46.7158,21.0513,-94.2577,22.2459,-13.0656,21.134,6.68089,7.12502,45.5899,-16.5825,8.81175e-15,-1.6201e-14,-43.4153,-3.8937,77.4178,25.0399,-2.93499,25.3093,21.4416,7.12502,49.445,42.9509,-35.4278,-22.7677,32.2866,66.0677,20.7561,-30.3225,33.4302,-46.0655,-2.05851,-32.3892,45.4569,-35.4053,18.8265,5.34695
0.889815,16.4706,36.754,-155.405,-5.8126,-182.45,-17.7113,-0.170083,-5.83217,-7.66822,-0.518068,-0.529381,1.68202,-0.689624,2.62839,-10.3254,0.321351,-2.08199,36.2716,-3.55831,0.876307,14.1623,-3.13038,-0.156916,1.0958e-14,-2.18663e-15,-46.7712,21.0254,-94.3708,22.335,-12.9885,21.7841,5.81938,7.12502,46.1934,-17.1942,1.0958e-14,-2.18663e-15,-43.4623,-3.81124,77.3956,24.943,-2.93751,25.1149,21.0232,7.12502,49.2666,42.6227,-35.518,-22.6572,32.1548,66.1342,22.8575,-30.3229,30.5225,-46.0688,-2.02218,-32.5376,45.4157,-35.4928,18.7589,5.46714
0.891511,16.4723,36.7562,-155.535,-6.00207,-182.532,-17.4929,-0.225934,-5.86084,-7.64984,-0.585911,-0.559315,1.59415,-0.714876,2.60233,-10.3977,0.322836,-2.06465,36.3542,-3.60117,0.946666,14.2194,-3.14038,-0.141833,1.81904e-14,3.97569e-15,-46.7939,20.9197,-94.3909,22.373,-12.7356,21.8207,5.56633,7.12502,46.2272,-17.433,1.81904e-14,3.97569e-15,-43.5454,-3.75867,77.4321,24.9086,-2.96978,25.1388,20.9523,7.12502,49.2886,42.5407,-35.3592,-22.821,32.1061,66.135,21.9792,-30.0251,30.8207,-45.8808,-1.96789,-32.6024,45.3563,-35.47,18.4614,5.53192
0.892873,16.4725,36.7566,-155.698,-6.21338,-182.62,-17.3049,-0.299,-5.9016,-7.59669,-0.665718,-0.57424,1.56036,-0.745051,2.59643,-10.4755,0.303218,-2.07033,36.4104,-3.65585,1.00047,14.2659,-3.15813,-0.130148,2.1447e-15,-9.93923e-16,-46.8067,20.9617,-94.4546,22.4059,-12.6412,22.0553,5.27832,7.12502,46.4447,-17.6287,2.1447e-15,-9.93923e-16,-43.5967,-3.64538,77.5011,24.8557,-2.94003,25.0371,20.9884,7.12502,49.1953,42.6237,-35.1433,-23.0216,32.0357,66.1247,21.7195,-29.8092,30.9107,-45.6308,-1.94689,-32.6542,45.2945,-35.4825,18.1234,5.67937
0.895095,16.4699,36.7666,-155.752,-6.27047,-182.655,-17.1466,-0.324709,-5.93369,-7.57605,-0.693119,-0.579712,1.50237,-0.751877,2.60545,-10.5996,0.28621,-2.08147,36.4691,-3.69955,1.05591,14.3242,-3.16922,-0.115717,-9.03849e-16,-2.10712e-14,-46.8275,21.2605,-94.688,22.4774,-12.9039,22.276,4.97116,7.12502,46.6491,-17.8481,-9.03849e-16,-2.10712e-14,-43.5962,-3.29169,77.4197,24.8203,-3.0381,25.0782,20.9608,7.12502,49.233,42.5771,-35.1402,-23.0335,32.0371,66.141,21.5142,-29.8843,31.1191,-45.5787,-1.93789,-32.6826,45.2541,-35.4564,17.9788,6.02945
0.896266,16.4705,36.7749,-155.735,-6.34078,-182.641,-17.0747,-0.339587,-5.89862,-7.57933,-0.719909,-0.578795,1.46422,-0.763361,2.58271,-10.6316,0.284106,-2.06653,36.4829,-3.72497,1.10399,14.3396,-3.17118,-0.103487,1.04269e-14,7.55382e-15,-46.865,21.5914,-94.9632,22.5626,-13.2744,22.3237,4.6383,7.12502,46.6933,-18.1618,1.04269e-14,7.55382e-15,-43.6522,-3.07337,77.4053,24.9147,-3.03633,25.3922,20.9721,7.12502,49.521,42.4428,-35.2201,-23.0626,32.1225,66.1521,21.4991,-30.012,30.2045,-45.6271,-1.89272,-32.6845,45.2305,-35.2464,18.0642,5.81678
0.894481,16.4715,36.7757,-155.749,-6.33037,-182.632,-17.0491,-0.315797,-5.84642,-7.59092,-0.699634,-0.601309,1.43697,-0.754451,2.53357,-10.441,0.247681,-2.09479,36.4144,-3.80644,1.15424,14.2681,-3.2096,-0.0861011,1.23386e-14,-1.07344e-14,-46.9361,21.7212,-95.1077,22.6887,-13.4492,22.5087,4.15739,7.12502,46.8645,-18.5683,1.23386e-14,-1.07344e-14,-43.7823,-3.06044,77.5339,24.985,-2.77415,25.4764,20.8815,7.12502,49.5982,42.3127,-35.2025,-23.0748,32.1217,66.1471,23.8712,-30.2104,28.8212,-45.6217,-1.82107,-32.7115,45.2289,-35.1778,18.1943,5.44977
0.893171,16.4702,36.7767,-155.828,-6.30797,-182.685,-16.9472,-0.311075,-5.8723,-7.59355,-0.692984,-0.631258,1.37995,-0.748269,2.51904,-10.1343,0.172909,-2.2424,36.3215,-3.95673,1.26632,14.165,-3.29218,-0.0309896,-3.55949e-15,1.15295e-14,-47.0055,21.7619,-95.1847,22.8039,-13.4234,22.5866,3.8876,7.12502,46.9366,-18.8065,-3.55949e-15,1.15295e-14,-43.9028,-2.956,77.6386,24.9835,-2.61998,25.4012,21.0666,7.12502,49.5293,42.5331,-35.0948,-23.1085,32.0219,66.1506,26.7655,-30.4852,28.9102,-45.54,-1.71177,-32.8204,45.2481,-35.1673,18.2034,5.08715
0.890604,16.4719,36.7762,-155.916,-6.33886,-182.634,-16.904,-0.30884,-5.77603,-7.55633,-0.695784,-0.623025,1.3989,-0.748109,2.47303,-10.4104,0.227237,-2.11772,36.4954,-3.89072,1.20728,14.303,-3.25265,-0.0764907,-3.76293e-15,2.36554e-14,-47.1063,22.102,-95.4943,22.8531,-13.5804,24.504,1.78234,7.12502,48.7054,-20.0945,-3.76293e-15,2.36554e-14,-43.8679,-2.63234,77.6185,24.7694,-2.88223,25.43,21.1356,7.12502,49.5556,42.5886,-34.9581,-23.1881,32.0382,66.0983,26.6384,-30.7082,29.6955,-45.4789,-1.63929,-32.7932,45.3053,-35.1615,18.1823,4.87803
0.907266,16.4748,36.8064,-155.495,-7.02462,-182.722,-16.7608,-0.556958,-5.89044,-7.76546,-1.05646,-0.546568,1.13034,-0.926256,2.55928,-10.5517,0.262855,-2.01747,36.5918,-3.85323,1.16663,14.3765,-3.22782,-0.110231,1.98707e-14,-2.46493e-14,-47.2372,22.4931,-95.8387,22.9508,-13.8405,24.7472,1.3047,7.12502,48.9289,-20.4628,1.98707e-14,-2.46493e-14,-43.823,-2.28716,77.5789,24.5071,-3.2162,25.5708,20.8357,7.12502,49.6847,42.2224,-35.6894,-23.4862,32.5958,66.1756,20.4062,-31.38,33.2848,-46.0698,-1.69302,-32.7975,45.3546,-34.441,17.98,4.19465
0.887104,16.4726,36.7818,-156.025,-6.48155,-182.308,-16.7494,-0.26234,-5.36165,-7.5765,-0.700908,-0.537318,1.30211,-0.751127,2.3309,-10.5424,0.290042,-1.91301,36.6398,-3.82509,1.08493,14.3922,-3.21672,-0.159608,9.82742e-15,-5.96354e-15,-47.3089,22.648,-95.9604,23.086,-13.9641,24.1871,2.39153,7.12502,48.4138,-19.6259,9.82742e-15,-5.96354e-15,-43.9858,-2.21313,77.7113,24.5016,-3.14764,25.6404,20.4924,7.12502,49.7485,41.8463,-34.8457,-23.1819,32.3902,66.0486,20.0912,-31.216,33.7846,-45.5237,-1.54733,-32.4628,45.4234,-35.0481,18.3022,4.48333
0.913799,16.4733,36.8292,-155.136,-7.67957,-182.72,-16.7268,-0.767425,-5.81362,-7.91373,-1.3773,-0.436367,0.983254,-1.08861,2.57899,-10.608,0.282949,-1.89401,36.6389,-3.81093,1.03362,14.4048,-3.21046,-0.182266,-1.37379e-14,-2.84262e-14,-47.2917,22.958,-96.1097,23.2534,-14.3334,23.852,2.97276,7.12502,48.1052,-19.1908,-1.37379e-14,-2.84262e-14,-44.1247,-2.26599,77.9828,24.5931,-2.78166,25.6087,20.2128,7.12502,49.7194,41.5816,-36.3684,-23.8248,33.1584,66.2491,19.6663,-31.5935,34.1832,-46.5642,-1.97622,-32.667,45.4062,-33.979,17.9398,3.65165
0.889891,16.4763,36.7942,-156.004,-7.09103,-182.375,-16.6438,-0.513443,-5.374,-7.48612,-1.00725,-0.420874,1.37015,-0.891754,2.40702,-10.7433,0.269219,-1.90703,36.6336,-3.80748,1.03926,14.4335,-3.20116,-0.178111,1.19659e-14,-1.41137e-14,-47.2286,23.3425,-96.3066,23.401,-14.7719,23.4045,3.42187,7.12502,47.6924,-18.9332,1.19659e-14,-1.41137e-14,-44.129,-2.17411,78.1804,24.7076,-2.47546,25.7467,20.4098,7.12502,49.8458,41.7132,-35.0367,-23.7636,32.652,66.1213,21.0488,-30.4945,32.1574,-45.5266,-1.69416,-32.4418,45.3944,-34.5944,18.2792,3.90047
0.914204,16.4761,36.8436,-154.95,-8.18141,-182.894,-16.7267,-0.978848,-5.87113,-7.91179,-1.64433,-0.400831,1.00966,-1.21873,2.60181,-10.6999,0.279177,-1.90041,36.6513,-3.8207,1.07029,14.4329,-3.20644,-0.169059,-1.66824e-14,-1.15295e-14,-47.2764,23.4213,-96.3918,23.4828,-14.7788,22.8171,4.2147,7.12502,47.1498,-18.3852,-1.66824e-14,-1.15295e-14,-44.1579,-1.93723,78.2063,24.6617,-2.58936,25.9981,20.5813,7.12502,50.0759,41.7641,-36.8205,-24.3474,33.3459,66.394,21.4214,-30.576,31.2338,-46.6911,-2.23833,-32.7524,45.3046,-33.5809,17.9437,3.48894
0.904866,16.4762,36.8374,-155.319,-7.91112,-182.748,-16.5184,-0.844769,-5.68166,-7.82446,-1.4792,-0.409347,0.980243,-1.13019,2.5182,-10.6476,0.28596,-1.88266,36.6996,-3.83856,1.05989,14.4435,-3.22107,-0.180828,1.25824e-14,-1.58034e-14,-47.2844,23.3083,-96.2813,23.6019,-14.5846,22.5477,4.60549,7.12502,46.9006,-18.1044,1.25824e-14,-1.58034e-14,-44.1948,-1.69104,78.2355,24.5336,-2.90294,26.1974,20.5344,7.12502,50.2582,41.6205,-36.3369,-24.2881,33.1352,66.3826,21.3459,-30.1315,30.35,-46.2689,-2.1173,-32.6638,45.2525,-33.8462,17.9515,3.99215
0.905638,16.476,36.8424,-155.282,-7.98616,-182.837,-16.4589,-0.88869,-5.75355,-7.83416,-1.53046,-0.420973,0.943052,-1.15296,2.53915,-10.7406,0.277109,-1.87415,36.7823,-3.86887,1.05979,14.5045,-3.23493,-0.191401,-1.04595e-14,9.0447e-15,-47.2383,23.395,-96.3105,23.6821,-14.699,20.5961,7.59599,7.12502,45.09,-15.868,-1.04595e-14,9.0447e-15,-44.2564,-1.53517,78.3112,24.5787,-3.02164,26.2955,20.6006,7.12502,50.3479,41.6388,-36.4575,-24.3682,33.1054,66.4897,28.4212,-30.6475,25.6743,-46.2697,-2.08485,-32.7747,45.183,-33.7114,17.8218,3.94981
0.907284,16.4775,36.8473,-155.188,-8.09151,-182.937,-16.8145,-1.07037,-6.05234,-7.60807,-1.66334,-0.229915,1.38991,-1.21036,2.87263,-10.9035,0.259512,-2.00458,36.6306,-3.74731,0.967854,14.4671,-3.18781,-0.182042,-1.2466e-14,1.23246e-14,-46.9398,24.1848,-96.3469,23.7553,-15.2289,20.5483,7.12154,7.12502,45.0455,-16.3601,-1.2466e-14,1.23246e-14,-43.9816,-0.973103,78.4877,24.4831,-3.12622,26.2351,20.4176,7.12502,50.2927,41.4853,-36.6085,-24.4505,33.1112,66.5156,28.1337,-30.6383,25.3796,-46.3382,-2.09013,-32.8747,45.1375,-33.5649,17.701,3.99366
0.90872,16.479,36.851,-155.187,-8.15384,-182.962,-16.8358,-1.14737,-6.17896,-7.56442,-1.73509,-0.12624,1.45859,-1.23997,3.03921,-10.9323,0.273423,-2.02743,36.589,-3.66873,0.883874,14.4505,-3.16247,-0.198716,-1.02871e-14,-5.1684e-15,-46.829,24.4391,-96.2841,23.8371,-15.3271,20.8972,6.54882,7.12502,45.37,-16.8035,-1.02871e-14,-5.1684e-15,-43.979,-0.801117,78.7278,24.4051,-3.0055,26.149,20.1771,7.12502,50.2139,41.2868,-36.632,-24.487,33.1285,66.5178,28.2809,-30.3754,25.1069,-46.3269,-2.11642,-32.8798,45.0994,-33.556,17.639,3.95129
0.909407,16.4772,36.8534,-155.19,-8.19534,-183.016,-16.7827,-1.15669,-6.23722,-7.59219,-1.74653,-0.135246,1.40226,-1.24386,3.06242,-10.9104,0.281481,-1.96991,36.6409,-3.66674,0.818207,14.4672,-3.16782,-0.237291,7.46996e-16,3.08116e-15,-46.7332,24.2129,-96.0928,23.9026,-15.1604,21.2685,6.05852,7.12502,45.7149,-17.1538,7.46996e-16,3.08116e-15,-44.1361,-1.03783,79.0444,24.5293,-2.68972,26.1125,20.1081,7.12502,50.1806,41.2355,-36.6448,-24.5274,33.102,66.5025,28.5841,-30.1896,24.7324,-46.3002,-2.10429,-32.9438,45.0642,-33.5577,17.5201,4.16004
0.906858,16.4763,36.8509,-155.189,-8.13907,-183.009,-16.7947,-1.12094,-6.24316,-7.63821,-1.70935,-0.126139,1.35554,-1.22697,3.08282,-10.8166,0.279479,-1.99101,36.7086,-3.69571,0.795284,14.4781,-3.19815,-0.249446,-3.72411e-15,3.32964e-15,-46.7975,24.1925,-96.0738,23.9896,-15.2485,21.2296,5.85004,7.12502,45.6788,-17.377,-3.72411e-15,3.32964e-15,-44.3747,-1.24772,79.361,24.7527,-2.43462,26.2101,20.3109,7.12502,50.2698,41.3908,-36.6451,-24.5139,33.0847,66.4531,29.2466,-29.6594,23.4587,-46.2879,-2.08498,-32.9565,45.0482,-33.5454,17.5403,4.34559
0.904144,16.4786,36.8468,-155.268,-8.11015,-182.984,-16.7586,-1.09864,-6.22314,-7.6363,-1.68338,-0.108432,1.33664,-1.21251,3.09579,-10.6475,0.250581,-2.06992,36.6863,-3.757,0.827147,14.4324,-3.23995,-0.229401,-8.93755e-15,2.11209e-14,-46.8817,24.2968,-96.1494,24.1036,-15.4284,21.1084,5.60428,7.12502,45.5662,-17.6687,-8.93755e-15,2.11209e-14,-44.5165,-1.27234,79.5645,24.9335,-2.47025,26.4002,20.6757,7.12502,50.4435,41.6624,-36.526,-24.5642,33.0544,66.378,29.7687,-29.0159,21.9845,-46.1755,-2.08506,-32.9287,45.0416,-33.5473,17.6151,4.12021
0.900995,16.479,36.8426,-155.433,-8.03892,-182.934,-16.7186,-1.05867,-6.15592,-7.55326,-1.62195,-0.117269,1.39873,-1.17898,3.0589,-10.9347,0.321075,-1.82025,36.8382,-3.65081,0.67274,14.5595,-3.17502,-0.329478,2.78019e-14,6.90777e-15,-46.8067,24.257,-96.1033,24.2815,-15.5132,21.4431,4.98877,7.12502,45.8769,-18.1568,2.78019e-14,6.90777e-15,-44.5073,-1.10693,79.5698,24.9972,-2.7513,26.509,20.7289,7.12502,50.5428,41.6619,-36.2408,-24.5731,32.9668,66.2981,29.8046,-28.9245,22.166,-45.9837,-2.05214,-32.8893,45.0502,-33.6238,17.6614,4.07757
0.898959,16.4766,36.8415,-155.534,-7.93368,-182.885,-16.7377,-1.04495,-6.13134,-7.46833,-1.5877,-0.0823921,1.49759,-1.15929,3.08603,-10.9681,0.321657,-1.84752,36.8406,-3.6374,0.66462,14.5683,-3.17268,-0.326418,6.42789e-15,2.16675e-14,-46.689,24.3224,-96.0276,24.4092,-15.5682,22.035,4.33075,7.12502,46.4259,-18.5843,6.42789e-15,2.16675e-14,-44.4268,-0.898016,79.6238,25.0167,-2.87108,26.5082,20.5878,7.12502,50.5421,41.5212,-36.0406,-24.4783,32.9082,66.2048,29.8505,-29.0386,22.8392,-45.8994,-2.05086,-32.8432,45.0734,-33.7575,17.6973,4.25476
0.906973,16.4756,36.8567,-155.239,-8.10951,-182.98,-16.906,-0.944863,-6.23366,-7.78132,-1.50852,-0.252695,1.23607,-1.13842,2.98022,-9.95657,0.267646,-1.5766,36.6704,-3.93021,0.737782,14.2603,-3.29531,-0.370504,-6.55524e-15,1.49089e-15,-47.0695,23.561,-96.0807,24.2916,-15.3593,22.6547,3.75531,7.12502,46.9997,-18.9111,-6.55524e-15,1.49089e-15,-44.8803,-1.79228,79.9882,25.301,-2.54899,26.4792,20.757,7.12502,50.5156,41.7047,-36.506,-24.4586,33.1125,66.2179,30.0614,-29.1103,23.1227,-46.2691,-2.11927,-32.9047,45.0832,-33.6105,17.4747,4.6221
0.887957,16.4766,36.8325,-155.783,-7.51885,-182.68,-16.8785,-0.603947,-5.84144,-7.66982,-1.09261,-0.328182,1.30207,-0.935932,2.75238,-9.65365,0.2804,-1.46704,36.74,-4.01412,0.741223,14.224,-3.34051,-0.40059,-5.32293e-15,-2.5842e-14,-47.2318,23.316,-96.1011,24.2979,-15.3314,22.3534,4.82332,7.12502,46.7209,-17.9649,-5.32293e-15,-2.5842e-14,-45.2161,-2.24739,80.3295,25.7132,-2.4009,26.4756,20.9377,7.12502,50.5124,41.8872,-35.6151,-24.1931,32.7507,66.0471,30.6903,-28.3362,22.3107,-45.6655,-1.99975,-32.6769,45.1161,-34.2584,17.6606,5.75337
0.907137,16.4777,36.8621,-155.128,-8.13644,-182.923,-16.9247,-0.871128,-6.17122,-7.94017,-1.45775,-0.267685,1.06908,-1.12107,2.94087,-9.69537,0.294305,-1.53029,36.888,-4.04774,0.80492,14.3064,-3.36637,-0.375693,-3.84524e-15,8.44835e-15,-47.2427,23.3458,-96.0866,24.4811,-15.4705,22.6026,4.77087,7.12502,46.9514,-17.9167,-3.84524e-15,8.44835e-15,-45.2995,-2.47051,80.654,26.0036,-2.45106,26.4225,20.8787,7.12502,50.4639,41.8544,-36.6149,-24.4067,33.2537,66.1066,30.29,-28.9492,23.2009,-46.4571,-2.17314,-32.8177,45.1199,-33.5235,17.5567,4.99089
0.887258,16.4771,36.8375,-155.758,-7.51102,-182.587,-16.9426,-0.595625,-5.78488,-7.62126,-1.07663,-0.256416,1.38774,-0.927119,2.79734,-9.59293,0.267967,-1.74594,36.8354,-4.10458,0.979505,14.2686,-3.40003,-0.271599,5.89443e-15,9.0447e-15,-47.1714,23.5605,-96.14,24.6257,-15.7878,23.0836,4.25064,7.12502,47.3961,-18.2391,5.89443e-15,9.0447e-15,-45.2327,-2.6971,81.0042,26.2591,-2.50223,26.3526,20.8851,7.12502,50.4,41.8953,-35.5473,-24.0811,32.8336,65.9335,29.6979,-29.1801,24.5917,-45.7756,-2.13181,-32.5369,45.15,-34.2423,18.0165,5.12006
0.903626,16.4784,36.8632,-155.13,-7.9508,-182.846,-17.0729,-0.822196,-6.15441,-7.8466,-1.36987,-0.210499,1.23986,-1.07765,3.00285,-11.0614,0.687988,-0.787332,38.0668,-3.52937,0.113194,15.1516,-3.14646,-0.784136,1.26811e-14,-1.43125e-14,-47.0352,23.8132,-96.2886,24.2199,-15.9801,23.4488,4.10472,7.12502,47.7333,-18.2316,1.26811e-14,-1.43125e-14,-45.301,-2.80197,81.2384,26.5604,-2.63821,26.3071,20.6801,7.12502,50.3585,41.7126,-36.4859,-24.1313,33.1954,66.0476,28.8876,-30.0151,25.993,-46.4962,-2.14356,-32.7776,45.1263,-33.6515,17.6512,4.80857
0.884622,16.4786,36.8383,-155.683,-7.34956,-182.637,-16.9929,-0.565408,-5.89656,-7.65657,-1.02885,-0.231832,1.37135,-0.903931,2.89475,-9.84547,0.395814,-1.58066,37.101,-3.93207,0.825775,14.4402,-3.32925,-0.351948,1.95353e-14,-5.86415e-15,-46.7476,24.3248,-96.7443,22.8987,-16.3358,23.2035,4.7238,7.12502,47.5069,-17.7158,1.95353e-14,-5.86415e-15,-45.4141,-2.7553,81.35,26.7643,-2.85499,26.3698,20.4586,7.12502,50.4157,41.4603,-35.6117,-23.8521,32.7465,65.9793,29.4576,-29.138,24.5133,-45.8119,-1.95367,-32.6787,45.1124,-34.2777,17.7505,5.43146
0.901733,16.477,36.865,-155.161,-7.81467,-182.977,-17.0099,-0.829882,-6.36611,-7.85347,-1.35344,-0.189733,1.19826,-1.06288,3.1488,-9.74161,0.396855,-1.65813,37.0859,-3.94486,0.873308,14.4123,-3.34483,-0.319046,1.421e-15,1.3418e-15,-46.8204,24.2167,-96.6091,23.1562,-15.9009,22.9619,5.0108,7.12502,47.2836,-17.5295,1.421e-15,1.3418e-15,-45.3637,-2.66336,81.4487,26.8607,-2.94997,26.4776,20.6043,7.12502,50.5142,41.5529,-36.5012,-24.0787,33.0272,66.1648,29.6893,-28.9244,23.3945,-46.3732,-2.07547,-32.9631,45.0511,-33.6739,17.558,4.71138
0.894996,16.477,36.8543,-155.434,-7.50034,-182.893,-17.0234,-0.727054,-6.30704,-7.70504,-1.19203,-0.191873,1.34943,-0.979164,3.13968,-9.79481,0.404012,-1.67049,37.0996,-3.9293,0.880099,14.431,-3.33677,-0.31289,1.61831e-14,2.78795e-14,-46.7303,24.3902,-96.6945,23.0356,-15.9135,22.5175,5.98155,7.12502,46.8727,-16.7406,1.61831e-14,2.78795e-14,-45.2836,-2.70952,81.5811,26.993,-2.84512,26.4009,20.5935,7.12502,50.4442,41.5799,-36.0557,-23.9985,32.8161,66.141,29.6133,-28.6716,22.8267,-46.0467,-2.09495,-32.8915,45.0266,-33.9708,17.7956,4.92494
0.903891,16.4792,36.8657,-155.224,-7.68765,-183.013,-17.0685,-0.83928,-6.50272,-7.74453,-1.31841,-0.16897,1.34295,-1.04055,3.25133,-9.85726,0.379753,-1.72059,37.1547,-3.95893,0.863293,14.4724,-3.35972,-0.318387,9.11847e-15,-2.5345e-15,-46.5717,24.5303,-96.7658,22.803,-16.0303,22.3023,7.19817,7.12502,46.6735,-15.6105,9.11847e-15,-2.5345e-15,-45.2017,-2.83857,81.7433,27.2271,-2.64234,26.3343,20.5873,7.12502,50.3832,41.6064,-36.3834,-24.1103,32.9752,66.2522,28.7254,-29.5034,24.4691,-46.2706,-2.19891,-32.9554,44.9887,-33.8268,17.6468,5.23197
0.8871,16.4783,36.8403,-155.789,-7.08649,-182.725,-17.1315,-0.598612,-6.19705,-7.45031,-0.977654,-0.154869,1.66017,-0.868639,3.15056,-10.7392,0.635279,-1.2427,37.8163,-3.58688,0.432459,14.9687,-3.19169,-0.56318,2.13538e-16,-1.48095e-14,-46.4189,24.6127,-96.7546,22.6669,-16.0513,23.3289,5.84492,7.12502,47.6226,-16.5421,2.13538e-16,-1.48095e-14,-45.0928,-2.92317,81.9083,27.4049,-2.40763,26.2958,20.765,7.12502,50.3481,41.803,-35.4459,-23.9005,32.6413,66.1127,28.3993,-29.5775,25.1015,-45.6103,-2.06719,-32.7327,45.0041,-34.6331,17.6251,6.49811
0.906338,16.4762,36.87,-155.155,-7.64237,-183.022,-17.1751,-0.868515,-6.5911,-7.70069,-1.3305,-0.128585,1.44756,-1.04629,3.33908,-11.0207,0.724448,-1.11956,38.0907,-3.49432,0.347058,15.1645,-3.15301,-0.622355,-1.80979e-14,-9.64106e-15,-46.3855,24.5952,-96.7688,22.6683,-15.8896,22.5255,6.85913,7.12502,46.8801,-15.8597,-1.80979e-14,-9.64106e-15,-45.0326,-3.0467,82.0279,27.4487,-2.1645,26.2119,20.9141,7.12502,50.2714,41.9932,-36.4596,-24.1441,33.1151,66.1859,28.6895,-29.4008,23.9256,-46.3329,-2.20548,-32.948,44.9923,-34.12,17.1446,6.63436
0.88404,16.4739,36.8416,-155.789,-6.99465,-182.732,-17.1551,-0.553525,-6.19466,-7.452,-0.91867,-0.183446,1.66435,-0.840998,3.1295,-10.962,0.722823,-1.13138,38.1255,-3.53741,0.400343,15.1701,-3.1725,-0.605856,1.01963e-14,9.34288e-15,-46.5537,24.7262,-96.9707,22.8559,-15.8628,22.5419,6.06961,7.12502,46.8953,-16.6426,1.01963e-14,9.34288e-15,-44.9563,-3.17214,82.1252,27.4545,-2.02597,26.2306,21.1496,7.12502,50.2886,42.2195,-35.4369,-23.8876,32.6847,66.0221,29.4146,-28.5247,22.6332,-45.6026,-2.13135,-32.7357,45.0109,-34.8874,17.5515,6.82731
0.899772,16.4731,36.8675,-155.238,-7.50574,-183.031,-17.2163,-0.818118,-6.57776,-7.65362,-1.25413,-0.14731,1.5114,-1.00902,3.32428,-10.9334,0.74148,-1.17362,38.1239,-3.51326,0.429236,15.1635,-3.16615,-0.582082,-8.82107e-15,9.74045e-15,-46.6662,24.9497,-97.1468,23.0115,-15.8904,22.3618,5.68293,7.12502,46.7286,-17.1019,-8.82107e-15,9.74045e-15,-44.856,-3.15918,82.206,27.5234,-2.02642,26.4022,21.5967,7.12502,50.4454,42.5824,-36.3222,-24.0997,33.0274,66.14,28.6916,-29.6929,24.5702,-46.2313,-2.22893,-32.9851,44.9852,-34.1769,17.4573,6.11788
0.880424,16.4735,36.8426,-155.78,-6.87619,-182.859,-17.2147,-0.580002,-6.33177,-7.40141,-0.920496,-0.187564,1.74899,-0.840585,3.2009,-10.909,0.762313,-1.21933,38.125,-3.48211,0.447936,15.159,-3.15892,-0.561108,-1.28123e-15,-3.13086e-15,-46.6162,24.8482,-97.0481,23.0857,-15.6549,22.2261,5.69953,7.12502,46.6029,-17.1397,-1.28123e-15,-3.13086e-15,-44.8108,-3.19563,82.3011,27.6802,-1.93239,26.5062,21.9717,7.12502,50.5403,42.906,-35.4474,-23.8444,32.5318,66.0216,28.7858,-29.4587,24.4552,-45.59,-2.11269,-32.9126,44.9973,-34.712,17.7753,6.58349
0.898851,16.4743,36.8723,-155.1,-7.40274,-183.161,-17.3104,-0.822063,-6.71172,-7.66286,-1.23953,-0.19664,1.54719,-1.00479,3.34885,-10.8262,0.739657,-1.21984,38.1019,-3.53686,0.479322,15.1297,-3.18076,-0.554501,1.31501e-14,6.85807e-15,-46.5471,24.6157,-96.9297,23.1667,-15.5275,22.0189,5.85896,7.12502,46.411,-17.0625,1.31501e-14,6.85807e-15,-44.758,-3.42419,82.4248,27.8105,-1.84607,26.4394,21.9682,7.12502,50.4793,42.9356,-36.5554,-24.0072,32.9726,66.1368,28.7439,-29.6836,24.3051,-46.3886,-2.22978,-33.151,44.9946,-34.0666,17.5053,5.8668
0.88222,16.4752,36.8514,-155.561,-6.88333,-182.808,-17.3771,-0.561082,-6.29477,-7.43715,-0.904912,-0.19856,1.79339,-0.840574,3.16943,-10.7872,0.712148,-1.2379,38.053,-3.56614,0.480739,15.0972,-3.19329,-0.552441,2.25986e-14,-5.06901e-15,-46.4302,24.6375,-96.9434,23.0792,-15.6043,23.3814,4.00765,7.12502,47.6711,-18.3572,2.25986e-14,-5.06901e-15,-44.6518,-3.5534,82.5143,27.8815,-1.96313,26.4644,21.7465,7.12502,50.5022,42.7016,-35.8385,-23.7582,32.7946,66.0541,28.7903,-29.4714,24.1366,-45.9011,-2.01014,-32.8938,45.0226,-34.6486,17.5568,6.60553
0.873718,16.4756,36.8455,-155.704,-6.71001,-182.674,-17.4161,-0.49626,-6.10762,-7.34159,-0.82589,-0.169326,1.9107,-0.801909,3.10778,-10.8413,0.741396,-1.29388,38.0925,-3.51104,0.476421,15.1292,-3.17934,-0.538232,4.6528e-15,-2.28105e-14,-46.3024,24.6792,-96.8986,22.9727,-15.5576,23.2101,4.48523,7.12502,47.5129,-17.9517,4.6528e-15,-2.28105e-14,-44.5985,-3.5061,82.5369,27.9447,-2.21321,26.5688,21.3765,7.12502,50.5975,42.2798,-35.6613,-23.7778,32.7691,66.1139,28.9267,-29.1999,23.5753,-45.7526,-1.86362,-32.8343,45.0237,-34.7412,17.53,7.05376
0.875534,16.4746,36.8534,-155.548,-6.78545,-182.838,-17.3382,-0.556846,-6.25615,-7.45902,-0.912797,-0.211725,1.7504,-0.845516,3.13292,-10.7836,0.7872,-1.28732,38.1832,-3.50399,0.521404,15.1615,-3.18234,-0.523656,1.20288e-14,1.56046e-14,-46.2979,24.535,-96.8598,22.9374,-15.503,23.0907,4.51933,7.12502,47.4026,-17.9675,1.20288e-14,1.56046e-14,-44.654,-3.5939,82.5486,27.9849,-2.41752,26.5934,21.0124,7.12502,50.6199,41.9034,-35.9489,-23.9164,32.7664,66.1912,29.0241,-29.0651,23.0294,-45.9201,-1.83868,-33.0417,45.0273,-34.5436,17.4643,6.95328
0.890727,16.4717,36.8752,-155.002,-7.12947,-183.19,-17.2852,-0.750963,-6.69579,-7.76891,-1.17805,-0.258024,1.41161,-0.979947,3.28823,-10.661,0.813167,-1.24864,38.2525,-3.54668,0.581691,15.1688,-3.20216,-0.514631,1.78961e-14,1.82882e-14,-46.2968,24.1747,-96.7333,22.8391,-15.2809,23.1199,4.3307,7.12502,47.4297,-18.1439,1.78961e-14,1.82882e-14,-44.7318,-3.88249,82.6616,27.9912,-2.32911,26.5641,21.0152,7.12502,50.5932,41.9208,-36.7976,-24.0071,32.982,66.3173,28.1964,-30.075,24.463,-46.5306,-1.85151,-33.4059,45.0176,-34.0248,17.2145,6.5127
0.871748,16.4706,36.849,-155.588,-6.56438,-182.909,-17.1653,-0.480184,-6.30615,-7.57669,-0.839067,-0.310846,1.52452,-0.809432,3.07355,-10.5868,0.820608,-1.25708,38.2723,-3.58959,0.665725,15.1642,-3.21811,-0.485235,1.86516e-14,-7.15625e-15,-46.1953,23.6418,-96.4238,22.8427,-14.8359,23.1646,4.20912,7.12502,47.4709,-18.2468,1.86516e-14,-7.15625e-15,-44.732,-4.1287,82.7678,27.9679,-2.27691,26.5194,21.1845,7.12502,50.5524,42.1123,-35.8349,-23.8198,32.6294,66.1942,27.5048,-30.6553,26.1803,-45.8651,-1.63836,-33.2258,45.0399,-34.6208,17.401,6.82496
0.857428,16.4703,36.8303,-155.941,-6.12452,-182.697,-17.2304,-0.294393,-5.98778,-7.38895,-0.597814,-0.351361,1.74049,-0.692083,2.89221,-10.568,0.841754,-1.21351,38.246,-3.57587,0.693157,15.1466,-3.20165,-0.478061,-5.75699e-15,2.8128e-14,-46.0545,23.3826,-96.2347,22.9229,-14.6122,23.1071,4.14998,7.12502,47.4178,-18.3299,-5.75699e-15,2.8128e-14,-44.6274,-4.29211,82.8242,27.9269,-2.40536,26.3853,21.1091,7.12502,50.4299,42.1032,-35.2689,-23.7549,32.4213,66.1211,27.6592,-30.5074,26.1987,-45.479,-1.52243,-33.0883,45.08,-35.0099,17.6911,6.96741
0.849927,16.4671,36.8211,-156.217,-5.78841,-182.6,-17.2182,-0.18917,-5.8675,-7.22442,-0.440753,-0.369387,1.89818,-0.610431,2.83283,-10.6959,0.905312,-1.05514,38.2895,-3.47572,0.600996,15.1921,-3.14382,-0.532321,-2.31087e-15,-1.17283e-14,-45.8094,23.2946,-96.1018,22.7375,-14.5377,22.7855,4.59942,7.12502,47.1206,-18.0135,-2.31087e-15,-1.17283e-14,-44.4832,-4.47898,82.9296,27.9212,-2.50746,26.2638,21.2112,7.12502,50.3188,42.2649,-34.813,-23.6867,32.2151,66.016,27.8971,-30.2125,25.8917,-45.2097,-1.42003,-33.0581,45.1588,-35.2656,17.9496,6.94162
0.859984,16.4623,36.8468,-155.702,-6.18423,-182.769,-17.2277,-0.355836,-6.03514,-7.46082,-0.689216,-0.376573,1.66937,-0.740527,2.87617,-10.7202,0.953433,-0.96573,38.3541,-3.43467,0.577953,15.2276,-3.12101,-0.554909,4.84848e-15,2.0773e-14,-45.6755,23.125,-96.0232,22.4706,-14.5279,21.9336,5.60927,7.12502,46.3319,-17.3457,4.84848e-15,2.0773e-14,-44.5769,-4.73539,83.0324,28.1274,-2.64951,26.4008,21.7932,7.12502,50.4441,42.7796,-35.6339,-23.8447,32.6041,66.0458,27.4452,-30.9864,27.3491,-45.8808,-1.78311,-33.1082,45.2459,-34.9623,17.9746,6.70325
0.860037,16.4631,36.8499,-155.698,-5.9171,-182.588,-17.1846,-0.248013,-5.89893,-7.51261,-0.583153,-0.370239,1.58293,-0.69115,2.8263,-10.5942,0.99294,-0.979484,38.3398,-3.42316,0.66429,15.193,-3.11454,-0.513007,-4.10615e-15,1.03368e-14,-45.7956,22.923,-95.9526,22.6866,-14.407,22.1047,5.05818,7.12502,46.4905,-17.8293,-4.10615e-15,1.03368e-14,-44.7822,-4.99201,83.1026,28.4086,-2.76698,26.5677,22.0985,7.12502,50.5965,43.0023,-35.699,-23.5564,32.7358,66.0357,27.4268,-31.2203,27.8905,-46.0147,-1.68446,-32.9568,45.327,-35.0647,18.179,6.62784
0.847399,16.4663,36.8279,-156.204,-5.37097,-182.241,-17.0487,-0.00864976,-5.50077,-7.34364,-0.29319,-0.389039,1.67381,-0.543789,2.63376,-10.573,1.07426,-0.935794,38.3915,-3.37049,0.758979,15.2149,-3.08059,-0.475435,4.35929e-15,2.5842e-15,-45.9989,22.6057,-95.8081,23.2401,-14.0538,22.141,4.8701,7.12502,46.5241,-18.003,4.35929e-15,2.5842e-15,-44.8889,-5.18297,83.0943,28.534,-2.90806,26.5243,21.7188,7.12502,50.5568,42.6442,-34.9125,-23.2202,32.5454,65.946,27.3564,-31.1806,28.3072,-45.4977,-1.30581,-32.7249,45.3771,-35.4258,18.3389,6.70379
0.847514,16.4658,36.8311,-156.158,-5.47109,-182.319,-16.7615,-0.0210222,-5.45488,-7.52985,-0.365321,-0.503222,1.3304,-0.582143,2.4778,-10.4614,1.14106,-0.871034,38.5293,-3.40031,0.866352,15.26,-3.09194,-0.452981,-2.58373e-14,1.42131e-14,-46.2216,22.1315,-95.7341,23.5202,-13.7252,22.1989,4.91854,7.12502,46.5778,-17.9315,-2.58373e-14,1.42131e-14,-45.1209,-5.42586,82.9932,28.6009,-3.14348,26.5406,21.4314,7.12502,50.5717,42.3487,-35.0189,-23.3128,32.5521,65.9553,27.0257,-31.6821,29.2448,-45.523,-1.33274,-32.7941,45.3667,-35.3408,18.2319,6.62371
0.844424,16.4644,36.8281,-156.132,-5.34346,-182.473,-17.1807,-0.150615,-5.76243,-7.26858,-0.422343,-0.403641,1.8305,-0.606601,2.74114,-10.4665,1.12892,-0.987804,38.3323,-3.28465,0.777511,15.1599,-3.05246,-0.441917,7.54139e-15,7.15625e-15,-45.6856,22.2087,-95.251,23.4828,-13.8128,23.1835,3.09764,7.12502,47.4884,-19.3504,7.54139e-15,7.15625e-15,-44.6748,-5.10684,82.9666,28.4922,-3.46994,26.4995,21.3772,7.12502,50.5341,42.3149,-35.0845,-23.3028,32.3443,65.9877,26.921,-31.9404,29.8491,-45.4639,-1.31047,-32.9982,45.3077,-35.4132,18.2181,6.66893
0.844545,16.4645,36.8297,-156.036,-5.19165,-182.59,-16.987,-0.0821997,-5.75704,-7.46239,-0.384847,-0.593324,1.51693,-0.595293,2.54744,-10.3693,1.17923,-0.845549,38.4854,-3.36348,0.877684,15.2157,-3.07534,-0.444943,-3.52066e-15,1.98785e-16,-45.4859,21.2699,-94.8072,23.2385,-13.5778,24.257,1.38865,7.12502,48.4782,-20.598,-3.52066e-15,1.98785e-16,-44.8623,-5.31209,82.7437,28.4985,-3.64476,26.315,21.2575,7.12502,50.3656,42.2861,-35.2626,-23.202,32.2105,66.0627,26.9728,-32.0603,30.0381,-45.5208,-1.23846,-33.1776,45.2187,-35.3374,18.1941,6.92709
