JuanDHNZ/ProyectoFinalCD/preprocessing/sports_trials_csv/05_16.csv
root1,root2,root3,root4,root5,root6,lowerback1,lowerback2,lowerback3,upperback1,upperback2,upperback3,thorax1,thorax2,thorax3,lowerneck1,lowerneck2,lowerneck3,upperneck1,upperneck2,upperneck3,head1,head2,head3,rclavicle1,rclavicle2,rhumerus1,rhumerus2,rhumerus3,rradius1,rwrist1,rhand1,rhand2,rfingers1,rthumb1,rthumb2,lclavicle1,lclavicle2,lhumerus1,lhumerus2,lhumerus3,lradius1,lwrist1,lhand1,lhand2,lfingers1,lthumb1,lthumb2,rfemur1,rfemur2,rfemur3,rtibia1,rfoot1,rfoot2,rtoes1,lfemur1,lfemur2,lfemur3,ltibia1,lfoot1,lfoot2,ltoes1
0.636967,16.3739,34.5317,-157.529,6.27183,-179.127,-5.17329,-0.623421,-2.96281,-5.81064,-0.312395,0.339491,-3.0714,0.14776,1.99214,-14.4118,-1.15013,2.12667,37.1053,2.31271,-2.14738,15.5026,2.22431,-0.551572,-4.82053e-15,7.15625e-15,-44.7239,28.7706,-95.955,81.6731,-39.577,5.20074,6.10839,7.12502,30.5614,-21.3757,-4.82053e-15,7.15625e-15,-42.3826,-44.2816,104.176,72.5681,27.2529,21.1098,17.6782,7.12502,45.5675,40.9507,-51.4355,-10.774,23.6671,79.2474,-9.37791,-22.1492,17.8861,-41.9221,8.36377,-32.1927,47.6237,-42.8449,20.5941,4.65788
0.634041,16.3649,34.5,-157.442,6.36358,-178.937,-5.15808,-0.704122,-2.65956,-5.85055,-0.424671,0.44915,-3.11572,0.0850058,1.93257,-14.3575,-0.933002,2.04029,36.7254,2.62846,-2.33195,15.3164,2.28832,-0.570535,-1.72943e-14,-1.59028e-15,-44.2788,28.6786,-95.7372,81.1682,-39.4709,7.59321,2.46606,7.12502,32.8402,-24.5677,-1.72943e-14,-1.59028e-15,-42.3181,-44.9564,104.888,71.36,25.8087,19.9251,16.7199,7.12502,44.4653,40.427,-52.358,-9.9927,23.4878,78.1247,-10.623,-22.348,18.3397,-41.9071,8.02161,-31.9253,47.7582,-43.6272,20.3752,5.70992
0.635593,16.3587,34.4759,-157.271,6.38357,-178.737,-5.17901,-0.822159,-2.45332,-5.76129,-0.595348,0.609926,-3.00201,-0.012289,1.97864,-14.6696,-0.678447,1.90085,36.3149,2.91003,-2.42224,15.2011,2.32015,-0.547342,5.73991e-15,3.18055e-15,-43.269,28.7335,-95.3728,80.2745,-39.4663,7.82659,2.08113,7.12502,33.0621,-24.9059,5.73991e-15,3.18055e-15,-41.5386,-45.5393,104.999,70.0923,24.6978,19.2638,16.6571,7.12502,43.8487,40.5962,-53.3894,-9.15466,23.3612,76.8332,-10.8022,-23.0608,22.5684,-42.0246,7.81415,-31.6609,47.8721,-43.9154,20.3325,6.04596
0.640663,16.3554,34.4568,-157.348,6.16679,-178.709,-4.76714,-1.0159,-2.38747,-5.67463,-0.885808,0.693878,-3.12636,-0.16691,2.02535,-14.9228,-0.452573,1.88338,35.9195,3.11459,-2.4909,15.0787,2.34551,-0.548677,-2.00773e-14,1.78906e-15,-42.2482,28.8135,-95.1473,79.1528,-39.4673,5.54163,6.4128,7.12502,30.8865,-21.0103,-2.00773e-14,1.78906e-15,-40.7832,-46.0828,104.971,68.7326,23.0372,19.5982,16.6223,7.12502,44.1606,40.445,-54.2464,-8.61616,23.2072,75.4613,-8.91838,-24.3313,24.3721,-41.8728,7.63113,-31.5035,47.9436,-43.9433,20.3851,5.43881
0.640751,16.3468,34.418,-157.427,6.36169,-178.646,-4.67417,-1.07168,-2.34462,-5.49103,-0.986679,0.727301,-2.98193,-0.233155,2.03416,-15.3426,-0.240207,1.85541,35.6367,3.29988,-2.52073,15.0486,2.36735,-0.531749,5.66536e-15,-1.39149e-15,-41.0746,28.7647,-94.8146,77.8529,-39.4435,8.28623,1.72417,7.12502,33.4991,-25.1694,5.66536e-15,-1.39149e-15,-39.993,-46.7609,104.916,67.2749,21.1664,20.1129,16.4223,7.12502,44.6403,40.0621,-55.0664,-7.93413,23.0422,73.917,-12.2636,-22.7766,0.744888,-41.6462,7.5094,-31.4072,47.9703,-44.4012,20.3128,6.02446
0.644888,16.3385,34.3879,-157.447,6.33271,-178.67,-4.43979,-1.14749,-2.34563,-5.5661,-1.09175,0.733756,-3.18565,-0.280853,2.043,-15.3036,-0.118837,1.9366,35.3828,3.41012,-2.59108,14.9255,2.3982,-0.562474,-1.31198e-14,-4.77083e-15,-40.5433,28.3762,-94.6147,76.6467,-39.404,7.75306,2.98886,7.12502,32.9922,-24.013,-1.31198e-14,-4.77083e-15,-39.732,-47.4346,105.285,65.6928,19.3183,20.7006,15.9569,7.12502,45.1872,39.3824,-55.8088,-7.3475,22.7681,72.2549,-12.3129,-23.6285,-1.99426,-41.5274,7.41958,-31.3864,47.9676,-44.3784,20.5364,5.45032
0.647379,16.3468,34.351,-157.422,6.45391,-178.387,-4.2778,-1.16972,-2.12289,-5.70111,-1.11668,0.846714,-3.41764,-0.289865,2.0376,-15.0274,0.0242338,1.99858,35.0389,3.60127,-2.74556,14.7114,2.45702,-0.612927,-1.39149e-14,-8.15017e-15,-40.203,28.0199,-94.4315,75.3986,-39.1766,6.12994,6.59469,7.12502,31.4471,-20.7206,-1.39149e-14,-8.15017e-15,-39.682,-48.0374,105.88,64.0981,17.5777,20.8796,15.8928,7.12502,45.3536,39.2517,-56.4093,-6.44384,22.6005,70.5804,-14.7393,-23.0833,2.48349,-41.3142,7.25717,-31.0181,47.8785,-44.6603,20.7874,5.3977
0.654467,16.3449,34.318,-157.427,6.368,-178.189,-3.97161,-1.30463,-1.96565,-5.79129,-1.30007,0.981036,-3.67474,-0.379198,2.09194,-15.0189,0.198694,1.96733,34.7517,3.81941,-2.83325,14.5858,2.51272,-0.61319,2.25621e-14,2.5842e-15,-39.7053,27.8179,-94.2319,73.9711,-39.2749,5.78697,7.93202,7.12502,31.1203,-19.4465,2.25621e-14,2.5842e-15,-39.6733,-48.8291,106.513,62.3479,14.8932,20.3564,15.5467,7.12502,44.867,39.0984,-57.0426,-5.78504,22.6459,68.5881,-13.6557,-23.9392,-3.52228,-41.0954,7.12495,-30.6995,47.7473,-44.818,20.8825,5.82667
0.663179,16.359,34.2888,-157.42,6.25451,-178.12,-3.58765,-1.47394,-1.9669,-5.93067,-1.523,1.14499,-4.02135,-0.477728,2.26999,-14.9782,0.321524,1.88535,34.4459,3.99214,-2.97311,14.4445,2.5368,-0.633818,9.98893e-15,7.7526e-15,-39.2033,27.633,-93.9155,72.3725,-39.4111,6.22076,7.99054,7.12502,31.5337,-19.3078,9.98893e-15,7.7526e-15,-38.9006,-48.9812,106.437,60.4222,13.1385,21.6004,15.4032,7.12502,46.0229,38.4881,-57.4727,-4.9185,22.1608,66.8049,-17.1112,-22.2814,5.40214,-40.8021,7.01588,-30.5171,47.4354,-44.9715,20.8972,6.07752
0.670933,16.3846,34.2546,-157.427,5.92197,-178.068,-3.21755,-1.62291,-1.98015,-5.95091,-1.73025,1.29796,-4.23561,-0.576214,2.44483,-15.4802,0.340445,1.98088,34.3247,3.95529,-3.18551,14.5099,2.46771,-0.744578,1.07344e-14,1.03368e-14,-38.6195,27.2391,-93.3805,71.0634,-39.3834,6.40546,7.609,7.12502,31.7096,-19.6548,1.07344e-14,1.03368e-14,-37.9345,-49.8061,106.424,58.2185,11.162,20.6688,14.6589,7.12502,45.1576,38.0961,-57.9806,-4.49352,21.9658,64.8574,-18.5488,-21.6094,8.8951,-40.4148,7.0432,-30.3552,47.01,-44.7298,20.8722,5.52919
0.676865,16.4138,34.2157,-157.476,5.53613,-178.102,-2.43228,-1.79403,-2.14056,-6.17017,-1.96249,1.4503,-4.88798,-0.6652,2.71998,-16.0764,0.344043,2.06822,34.4686,3.93458,-3.3181,14.7179,2.42918,-0.813919,-1.92573e-14,1.98785e-15,-38.7217,26.831,-92.9523,70.17,-39.2492,6.16688,7.00536,7.12502,31.4823,-20.3031,-1.92573e-14,1.98785e-15,-37.5422,-50.5392,106.826,56.0801,8.79318,18.5852,14.034,7.12502,43.2149,38.2036,-58.5436,-4.2223,21.7779,62.9157,-18.6574,-21.7666,8.55362,-39.8885,6.86131,-30.2196,46.4643,-44.4875,20.7877,5.26437
0.68355,16.4358,34.1786,-157.444,5.38238,-178.274,-2.14011,-1.82408,-2.25104,-6.16277,-2.02427,1.31268,-5.04341,-0.695896,2.64899,-16.7915,0.370377,2.26975,34.5061,3.79907,-3.28822,14.8975,2.3646,-0.859194,-9.44227e-15,1.68967e-14,-38.1493,25.935,-92.3713,68.8567,-39.497,6.4505,6.23368,7.12502,31.7525,-21.0216,-9.44227e-15,1.68967e-14,-36.71,-51.732,106.613,54.0019,6.31406,20.9323,13.947,7.12502,45.4025,37.2862,-59.209,-3.69585,21.2895,60.9451,-18.6814,-21.7394,9.96036,-39.4807,6.62609,-30.2862,45.8962,-44.2537,20.8347,5.0167
0.691035,16.4545,34.138,-157.349,5.23511,-178.269,-2.0427,-1.91583,-2.3424,-6.14341,-2.1523,1.37961,-5.06512,-0.755346,2.77492,-17.2899,0.501669,2.26033,34.3377,3.86,-3.23697,14.9349,2.3572,-0.82775,3.32964e-15,7.55382e-15,-37.3562,25.3447,-91.6411,67.2444,-39.8999,7.06694,5.45031,7.12502,32.3394,-21.687,3.32964e-15,7.55382e-15,-35.5038,-52.5112,106.124,51.8366,4.01311,22.0503,13.8924,7.12502,46.44,36.8014,-59.8487,-3.02886,20.928,58.9707,-19.1323,-21.409,13.1635,-39.1122,6.506,-30.1942,45.3074,-44.0283,20.8505,5.14964
0.698465,16.4776,34.0889,-157.161,4.97828,-178.233,-2.11876,-2.07764,-2.36407,-6.24414,-2.34945,1.49549,-5.11017,-0.841115,2.91024,-17.1262,0.773318,2.30986,33.8886,4.1745,-3.28761,14.704,2.47124,-0.809026,2.80783e-14,3.57812e-15,-36.7111,25.0299,-91.0539,65.2945,-40.2619,7.30976,5.3557,7.12502,32.5705,-21.7342,2.80783e-14,3.57812e-15,-34.5679,-53.0913,105.805,49.6979,1.79332,22.3497,14.1428,7.12502,46.7174,36.9325,-60.5661,-2.44641,20.5889,57.0466,-18.9852,-21.0028,15.7111,-38.801,6.59161,-30.1182,44.6844,-43.6864,20.7188,5.06694
0.706899,16.5095,34.0414,-156.917,4.76144,-178.306,-2.3533,-2.2506,-2.38993,-6.37698,-2.55511,1.50818,-5.10167,-0.93115,2.93499,-16.4722,1.12007,2.37838,33.2215,4.60548,-3.33595,14.2722,2.65332,-0.779469,-1.92324e-14,8.94531e-15,-36.2296,24.6004,-90.5559,63.2988,-40.3163,7.50721,5.72983,7.12502,32.7584,-21.3211,-1.92324e-14,8.94531e-15,-33.6673,-53.5763,105.354,47.606,-0.551111,21.9545,14.1747,7.12502,46.3513,37.1215,-61.4411,-1.90719,20.1289,55.2319,-17.8949,-20.7758,16.4308,-38.5288,6.68025,-30.1589,44.0002,-43.2998,20.898,4.28425
0.712273,16.5387,33.9969,-156.728,4.67018,-178.48,-2.47999,-2.34026,-2.43794,-6.5198,-2.65745,1.41406,-5.17579,-0.970494,2.86344,-16.0554,1.29726,2.35872,32.7494,4.7715,-3.24054,13.9712,2.72988,-0.720288,2.127e-14,5.96354e-16,-35.9735,23.94,-89.9969,61.5186,-40.1714,8.05474,6.50187,7.12502,33.2791,-20.439,2.127e-14,5.96354e-16,-32.8505,-54.3139,104.988,45.4471,-2.69946,20.623,14.3915,7.12502,45.115,37.8456,-62.309,-1.42071,19.5484,53.4999,-16.9332,-20.4186,18.3186,-38.1612,6.52368,-30.288,43.2732,-43.1825,21.3363,3.20046
0.714528,16.5623,33.9451,-156.588,4.55178,-178.502,-2.70779,-2.36182,-2.42047,-6.4131,-2.68794,1.39581,-4.93309,-0.996013,2.82344,-16.5484,1.34464,2.33659,32.6251,4.70278,-3.12185,14.0187,2.67848,-0.679458,2.38045e-14,1.27222e-14,-35.2041,23.3102,-89.1362,59.5598,-40.0185,8.21198,7.04526,7.12502,33.4286,-19.8635,2.38045e-14,1.27222e-14,-31.0188,-55.1987,103.928,42.9964,-4.93417,19.5018,14.4601,7.12502,44.0707,38.3166,-63.0815,-0.845011,19.0672,51.9069,-15.7726,-20.1757,19.8885,-37.675,6.47706,-30.2649,42.4816,-42.9522,21.3721,3.19636
0.723386,16.591,33.8935,-156.51,4.26501,-178.379,-2.69462,-2.41515,-2.34508,-6.31286,-2.768,1.45836,-4.82996,-1.04598,2.84526,-17.2651,1.39294,2.44153,32.5414,4.63117,-3.15482,14.1421,2.61294,-0.719939,-1.45113e-14,7.15625e-15,-34.4342,22.7637,-88.2998,57.6464,-39.6449,7.74872,7.33751,7.12502,32.9881,-19.6652,-1.45113e-14,7.15625e-15,-28.9154,-55.4091,102.403,40.5887,-8.06475,19.6747,13.9957,7.12502,44.232,37.7916,-63.7915,0.0745457,18.5314,50.4849,-13.3018,-20.6375,17.4164,-37.1241,6.63049,-30.0464,41.6431,-42.4697,21.1591,3.37867
0.737724,16.6203,33.8413,-156.389,4.18403,-178.723,-2.59937,-2.47752,-2.77485,-6.40081,-2.85459,1.33025,-4.95799,-1.06518,2.95942,-17.6771,1.47883,2.5449,32.4605,4.60403,-3.03861,14.1955,2.60375,-0.694465,2.62396e-14,1.03368e-14,-34.0261,22.0718,-87.5679,55.9311,-39.1653,7.37089,7.41704,7.12502,32.6287,-19.6608,2.62396e-14,1.03368e-14,-27.3244,-55.2166,101.044,38.4298,-11.2556,21.2076,13.1396,7.12502,45.6584,36.375,-64.7393,1.07031,17.2909,49.3317,-10.4867,-21.3402,14.1959,-36.5871,6.74097,-30.3627,40.7323,-42.1159,21.0207,3.45502
0.746657,16.6472,33.7855,-156.283,4.07302,-179.129,-2.682,-2.64934,-3.26471,-6.46902,-3.07718,1.30563,-4.94543,-1.14809,3.20743,-17.7706,1.67244,2.59631,32.2214,4.81627,-3.07252,14.1211,2.67861,-0.683352,-4.6615e-14,1.03368e-14,-33.621,21.6711,-86.6887,54.168,-38.5423,7.366,6.33725,7.12502,32.624,-20.7415,-4.6615e-14,1.03368e-14,-25.4993,-54.5349,99.4898,36.287,-14.2806,17.5308,13.5726,7.12502,42.2283,38.0857,-65.7134,2.21181,15.7091,48.4027,-9.25367,-22.0824,14.6107,-35.9855,6.83377,-30.7596,39.7829,-41.7685,20.8728,3.32986
0.760275,16.6744,33.7355,-156.168,3.91187,-179.337,-2.82696,-2.75834,-3.63785,-6.41648,-3.22133,1.31256,-4.77781,-1.20782,3.41571,-18.1776,1.81257,2.78754,32.0403,4.8851,-3.14433,14.1415,2.69057,-0.733284,-5.17337e-14,-3.57812e-15,-32.9596,21.2267,-85.6944,52.3915,-37.9706,7.53271,6.36323,7.12502,32.7826,-20.6826,-5.17337e-14,-3.57812e-15,-23.0918,-53.755,97.5014,34.05,-17.0201,19.0428,13.2563,7.12502,43.6424,37.2712,-66.8227,3.87478,13.8852,47.7076,-9.12848,-23.4598,17.0141,-35.4103,6.8304,-30.8881,38.8075,-41.3079,21.0206,2.73099
0.769865,16.7003,33.6762,-156.098,3.90224,-179.479,-2.81664,-2.72448,-3.85367,-6.40859,-3.18117,1.20475,-4.77419,-1.18064,3.42435,-18.8679,1.84978,3.03553,32.0814,4.76782,-3.14114,14.3148,2.63854,-0.789952,2.82771e-14,-2.78299e-15,-32.5092,20.2625,-84.6757,50.745,-37.1607,7.46446,6.4663,7.12502,32.7177,-20.5931,2.82771e-14,-2.78299e-15,-20.8817,-53.2479,95.6222,31.9297,-19.1127,19.0845,13.2238,7.12502,43.6813,37.2246,-67.904,5.34411,12.27,47.1838,-8.86084,-24.531,18.0191,-34.7844,7.08443,-31.0423,37.917,-40.8978,21.1316,1.89357
0.773911,16.7214,33.6137,-155.954,3.7765,-179.68,-2.80576,-2.74688,-3.99978,-6.41764,-3.21324,1.12705,-4.78431,-1.19039,3.426,-19.9524,1.8913,3.10899,32.3416,4.69514,-3.07026,14.6714,2.5876,-0.775446,-4.42296e-14,-3.97569e-15,-31.9744,19.4544,-83.6035,48.8282,-36.1526,7.02918,3.95189,7.12502,32.3035,-23.1927,-4.42296e-14,-3.97569e-15,-18.5181,-52.0769,93.5681,29.9937,-21.5451,18.2599,13.5332,7.12502,42.9108,37.8106,-68.9853,6.15882,11.0127,46.8085,-9.11273,-24.9024,19.6863,-34.2884,7.27175,-31.2644,37.1482,-40.4521,21.1082,1.13936
0.784421,16.7309,33.5575,-155.823,3.77147,-179.77,-2.92818,-2.77949,-4.12006,-6.63907,-3.2257,1.06904,-4.94506,-1.17001,3.43223,-19.539,1.83242,3.0538,32.1797,4.59215,-2.94402,14.4953,2.56584,-0.738563,-1.38652e-14,1.70955e-14,-31.9379,18.8097,-82.7175,46.921,-34.9825,7.16512,5.07581,7.12502,32.4329,-22.0424,-1.38652e-14,1.70955e-14,-17.1282,-50.503,92.1286,28.1804,-24.0971,16.5253,14.2796,7.12502,41.2854,39.1046,-70.0128,6.92394,10.147,46.5541,-10.4919,-24.8066,23.4325,-33.871,7.41206,-31.3553,36.4883,-40.1934,20.9941,1.25537
0.800662,16.7386,33.5082,-155.749,3.62648,-179.767,-2.87526,-2.86386,-4.22711,-6.7711,-3.32635,1.12626,-5.09755,-1.19979,3.55771,-19.3632,1.78469,2.78343,31.9671,4.48711,-2.67767,14.3411,2.52045,-0.607821,1.68967e-14,7.15625e-15,-31.6374,18.2463,-81.709,44.6327,-33.777,6.60328,8.4256,7.12502,31.898,-18.8007,1.68967e-14,7.15625e-15,-15.5107,-48.665,90.4835,26.4892,-26.6138,14.6539,15.2866,7.12502,39.5258,40.6539,-70.9072,7.75953,9.38888,46.3704,-11.9858,-24.7678,25.9683,-33.5125,7.44234,-31.2458,35.9624,-39.8171,21.193,0.724853
0.81568,16.7423,33.455,-155.761,3.33407,-180.096,-2.8047,-3.01027,-4.5406,-6.73804,-3.53349,1.07727,-5.0703,-1.29186,3.68518,-19.6427,1.79021,2.72258,31.7236,4.40045,-2.62689,14.2883,2.45551,-0.595033,-2.04251e-14,6.36111e-15,-31.106,17.6224,-80.6021,42.6412,-32.2721,6.08544,8.46365,7.12502,31.4047,-18.8599,-2.04251e-14,6.36111e-15,-13.4065,-45.8061,88.4356,24.8343,-29.807,18.3158,13.8734,7.12502,42.963,38.1324,-71.6097,7.93753,8.79177,46.2719,-11.8625,-24.9795,24.7948,-33.0527,7.35618,-31.4291,35.5347,-39.5442,20.9371,0.719345
0.831909,16.7376,33.3952,-155.764,3.16325,-180.288,-2.5689,-3.00837,-4.73481,-6.64632,-3.56195,0.992222,-5.09953,-1.30648,3.71509,-20.7728,1.82444,2.77044,31.8068,4.27228,-2.53002,14.5701,2.37212,-0.578713,-4.97459e-14,-9.14409e-15,-30.4403,16.6078,-79.3921,40.6924,-30.555,5.5297,8.84526,7.12502,30.8751,-18.58,-4.97459e-14,-9.14409e-15,-10.986,-42.8332,86.312,23.3934,-32.7474,14.769,16.2985,7.12502,39.6342,41.6339,-72.1212,7.45765,9.19112,46.2248,-12.363,-24.1421,27.941,-32.6218,7.50935,-31.5399,35.1821,-39.3217,20.4805,0.557729
0.85028,16.7289,33.335,-155.739,3.11342,-180.471,-2.48214,-3.19775,-5.00089,-6.95648,-3.79009,1.07966,-5.43572,-1.37076,3.96935,-20.1145,1.89999,2.5167,31.5503,4.48283,-2.4745,14.3088,2.45626,-0.482546,2.83268e-15,-7.55382e-15,-30.5032,16.3631,-78.3774,38.8301,-28.8145,4.66896,9.09064,7.12502,30.0542,-18.4868,2.83268e-15,-7.55382e-15,-10.1204,-39.5912,85.25,22.147,-35.4796,15.5843,16.8179,7.12502,40.4013,41.9216,-72.6241,6.77734,9.95948,46.2555,-11.6637,-23.7136,29.5478,-32.2416,7.44266,-31.6149,34.8847,-39.4899,20.1998,0.786706
0.865756,16.7202,33.2722,-155.758,3.03866,-180.818,-2.42646,-3.31156,-5.29398,-7.1481,-3.93192,0.970843,-5.64743,-1.40565,4.02859,-19.7947,1.96183,2.46191,31.3286,4.55387,-2.39343,14.1386,2.49553,-0.434053,4.45775e-14,1.47101e-14,-30.4132,15.6213,-77.3078,37.0294,-26.8629,3.75902,8.92507,7.12502,29.1856,-18.8066,4.45775e-14,1.47101e-14,-9.11077,-37.1931,83.9834,21.0974,-37.7167,15.1243,17.6548,7.12502,39.9686,42.8903,-73.0976,5.32243,11.5274,46.3763,-6.31964,-24.2545,21.0203,-31.8174,7.29324,-31.8551,34.6439,-39.4846,20.2703,0.449491
0.874949,16.7136,33.2057,-155.852,2.71648,-180.847,-2.21721,-3.35523,-5.12132,-7.20485,-4.00181,0.899161,-5.83481,-1.44276,3.87232,-20.0549,1.97189,2.47861,31.2146,4.45074,-2.24922,14.138,2.45572,-0.397576,1.44119e-15,-1.78906e-14,-30.1465,14.4262,-76.0573,35.296,-24.5792,3.43621,8.823,7.12502,28.8773,-18.9618,1.44119e-15,-1.78906e-14,-7.7559,-35.3917,82.5328,20.2393,-39.5924,14.6764,18.7969,7.12502,39.5469,44.158,-73.2224,3.7873,13.593,46.578,-3.44473,-23.6562,18.9421,-31.3299,7.17677,-31.6878,34.4473,-39.4908,20.2538,0.0438362
0.886438,16.7014,33.1273,-156.021,2.52901,-181.103,-2.14467,-3.40286,-5.30543,-7.16372,-4.08032,0.796376,-5.82053,-1.47767,3.87137,-20.4837,1.98353,2.54763,31.1945,4.36466,-2.19568,14.2206,2.41434,-0.400391,-5.06901e-15,-7.95139e-16,-29.7782,12.9872,-74.6571,33.5002,-21.9413,3.17405,8.60523,7.12502,28.6269,-19.2221,-5.06901e-15,-7.95139e-16,-6.39706,-33.9127,81.084,19.6598,-41.0506,14.3375,19.8092,7.12502,39.2276,45.2637,-73.1949,2.47626,15.0892,46.8879,-3.0805,-22.8974,23.6002,-30.7469,7.13655,-31.8005,34.3062,-39.5004,20.4047,-0.417317
0.900392,16.6887,33.0493,-156.145,2.52915,-181.339,-2.14401,-3.46008,-5.54832,-7.16222,-4.16138,0.732372,-5.80086,-1.50609,3.94035,-20.6471,2.01902,2.4036,31.0358,4.34599,-2.00616,14.1765,2.40005,-0.304654,4.63665e-14,1.82882e-14,-29.52,11.855,-73.3343,31.8795,-19.1879,2.50102,8.38012,7.12502,27.9836,-19.5539,4.63665e-14,1.82882e-14,-5.21433,-31.0024,79.7406,19.054,-43.7352,13.7385,19.9981,7.12502,38.6629,45.6139,-73.4402,1.0424,17.0052,47.2643,1.66801,-21.9161,16.2127,-30.2588,7.26649,-31.9643,34.2286,-39.6832,20.4429,-0.790019
0.918309,16.6684,32.9713,-156.226,2.37795,-181.351,-2.1301,-3.59786,-5.54226,-7.23134,-4.33809,0.82377,-5.8574,-1.58486,4.03759,-20.6803,2.06988,2.13444,30.8661,4.42379,-1.85195,14.0999,2.41283,-0.185792,2.98177e-16,-8.74653e-15,-29.0606,10.9538,-71.9514,30.1427,-16.3048,1.90915,8.27325,7.12502,27.4177,-19.7517,2.98177e-16,-8.74653e-15,-4.269,-28.1601,78.6007,18.4658,-45.9788,12.7439,20.4266,7.12502,37.7239,46.3004,-73.6518,0.293636,18.4157,47.6749,5.10301,-21.0194,11.4626,-29.8238,7.0028,-31.7734,34.2418,-39.9611,20.4915,-1.17194
0.93301,16.6456,32.8884,-156.372,2.12394,-181.552,-2.19315,-3.74842,-5.66161,-7.24865,-4.53261,0.825452,-5.81068,-1.67366,4.10389,-20.6029,2.10717,2.04835,30.7053,4.46011,-1.78559,14.0094,2.42311,-0.142134,-4.88016e-14,-1.23246e-14,-28.5287,9.51624,-70.3876,28.3184,-13.4365,1.64394,8.28082,7.12502,27.164,-19.7841,-4.88016e-14,-1.23246e-14,-3.24749,-26.6745,77.3682,18.0751,-46.9891,12.2336,21.0685,7.12502,37.2416,47.0701,-73.6947,-0.262864,19.1827,48.1461,7.26936,-20.0458,9.16186,-29.3361,6.77264,-31.7665,34.3219,-40.1916,20.1992,-1.42287
0.944925,16.6193,32.8033,-156.505,1.72815,-181.778,-2.55063,-3.84771,-5.69577,-7.05063,-4.6515,0.725804,-5.38763,-1.75896,3.98837,-20.7234,2.14676,2.11535,30.4226,4.40118,-1.73028,13.9111,2.39483,-0.147042,3.58309e-14,-4.77083e-15,-27.9291,7.55253,-68.6878,26.7266,-10.7383,1.34969,8.11872,7.12502,26.8825,-19.9898,3.58309e-14,-4.77083e-15,-1.71861,-25.5304,75.9639,17.7509,-47.7132,13.5677,21.5407,7.12502,38.5018,47.2016,-73.6553,-0.881075,19.8814,48.6251,8.95469,-19.033,8.14539,-28.9276,6.55672,-31.769,34.5231,-40.2874,20.1594,-2.16111
0.957199,16.5842,32.7117,-156.625,1.49529,-182.032,-2.45635,-3.91998,-5.83169,-7.20449,-4.74212,0.666041,-5.5909,-1.7778,4.01308,-20.9241,2.15383,2.22705,30.5511,4.38146,-1.752,14.0134,2.39508,-0.173392,-5.52124e-14,-1.11319e-14,-27.9522,5.74889,-66.9054,25.484,-8.05451,1.11404,7.19836,7.12502,26.657,-20.9447,-5.52124e-14,-1.11319e-14,-0.891849,-22.9461,75.1138,17.3256,-49.874,14.5477,21.519,7.12502,39.4258,46.9157,-73.5609,-1.25947,20.3239,49.1894,9.92657,-18.2272,8.58928,-28.4976,6.21933,-31.8345,34.7447,-40.7147,20.2113,-2.49883
0.969881,16.5446,32.6133,-156.783,1.28038,-182.056,-2.62018,-4.0016,-5.69165,-7.15797,-4.83838,0.676418,-5.44626,-1.8402,3.93351,-21.2909,2.14227,2.12955,30.662,4.38536,-1.76089,14.1393,2.37402,-0.153723,-4.24902e-14,-9.14409e-15,-27.6532,3.81627,-65.0809,24.3333,-5.15977,1.00611,6.63855,7.12502,26.5537,-21.5202,-4.24902e-14,-9.14409e-15,0.115017,-20.3094,74.0955,17.0283,-51.8242,13.7591,21.774,7.12502,38.6823,47.3843,-73.3707,-1.51814,20.9512,49.7792,10.683,-17.5503,8.37217,-28.0391,5.93904,-31.6635,35.0589,-41.2786,20.1295,-2.06493
0.984068,16.5066,32.5101,-156.994,0.992592,-182.191,-2.85819,-4.09578,-5.65499,-7.02014,-4.95459,0.625868,-5.15858,-1.91893,3.83841,-21.5286,2.10122,2.04837,30.6157,4.30911,-1.7357,14.1659,2.32305,-0.142637,1.65488e-14,-3.97569e-16,-27.114,1.69598,-63.2218,22.9398,-2.62838,1.16247,6.5522,7.12502,26.7033,-21.5838,1.65488e-14,-3.97569e-16,1.40021,-17.9895,73.0052,16.7347,-53.4109,13.0532,22.3652,7.12502,38.0161,48.16,-73.1331,-1.74476,21.2706,50.4965,10.6971,-17.0599,10.0767,-27.5499,5.72666,-31.5802,35.4308,-41.6663,20.1374,-2.44937
1.00147,16.4666,32.4061,-157.149,0.462243,-182.215,-2.74236,-4.19758,-5.57877,-7.1818,-5.08195,0.678642,-5.38404,-1.96453,3.8652,-21.679,2.08391,2.11383,30.7276,4.26169,-1.72676,14.248,2.31219,-0.154916,-1.03368e-13,-3.29983e-14,-27.0903,-0.401363,-61.1172,21.6476,-0.354473,1.37154,6.28547,7.12502,26.9034,-21.8198,-1.03368e-13,-3.29983e-14,2.35959,-16.7414,72.1158,16.4743,-54.4964,12.7997,22.643,7.12502,37.7767,48.5026,-72.8555,-1.84561,21.5034,51.2978,10.1529,-16.6669,14.4135,-27.1164,5.44377,-31.2921,35.8055,-41.9298,19.9929,-2.81688
1.02084,16.413,32.2977,-157.241,0.115268,-182.298,-2.33196,-3.45959,-5.74892,-7.74934,-5.41608,0.728236,-6.23162,-2.63525,4.14107,-21.275,2.05417,2.21096,30.9559,4.33328,-1.89032,14.27,2.36231,-0.22219,2.27111e-14,5.96354e-15,-27.5817,-2.31653,-58.7078,20.4372,2.11075,1.48947,5.73503,7.12502,27.0162,-22.3528,2.27111e-14,5.96354e-15,2.50655,-14.6894,71.64,16.3066,-56.172,12.8877,22.5532,7.12502,37.8598,48.3904,-72.6694,-1.66347,21.6149,52.2367,9.98185,-15.7453,16.3716,-26.7287,5.15703,-31.1323,36.175,-42.48,19.8328,-3.12253
1.03667,16.3663,32.1877,-157.396,-0.0854158,-182.573,-2.02812,-3.49425,-5.99234,-8.24795,-5.58282,0.768731,-6.91183,-2.69621,4.38012,-20.6138,1.94905,2.02709,31.07,4.34356,-1.88201,14.1712,2.38313,-0.188145,3.03147e-14,8.74653e-15,-27.9341,-4.68279,-56.0534,19.2157,4.98432,1.51713,5.51479,7.12502,27.0427,-22.569,3.03147e-14,8.74653e-15,2.64832,-11.5845,71.2897,16.3615,-58.2802,13.8455,22.7779,7.12502,38.7639,48.3652,-72.4871,-2.04746,22.0085,53.2106,9.50325,-14.1119,16.5233,-26.2086,4.73844,-31.2158,36.4588,-43.0668,19.8995,-3.88166
1.0529,16.3296,32.0742,-157.534,-0.594176,-182.614,-2.35443,-3.6448,-5.89133,-8.28342,-5.76985,0.846257,-6.74155,-2.80541,4.38177,-20.5484,1.88407,1.79037,31.0839,4.29174,-1.73408,14.1514,2.35778,-0.0976701,-9.16894e-15,-2.14687e-14,-27.6791,-7.96972,-53.2221,17.7874,8.2266,1.62584,5.23728,7.12502,27.1467,-22.8303,-9.16894e-15,-2.14687e-14,3.62914,-9.80068,70.4748,16.389,-59.1911,14.4349,23.2894,7.12502,39.3194,48.7172,-72.2091,-2.23327,22.3231,54.1542,7.76634,-13.4342,17.1953,-25.6932,4.35415,-30.9502,36.6816,-43.2731,20.0379,-4.8263
1.07019,16.2962,31.9539,-157.63,-1.13922,-182.735,-2.71442,-3.80284,-5.84302,-8.26898,-5.95948,0.8838,-6.49784,-2.91515,4.36202,-21.1293,1.91057,1.74973,31.352,4.31859,-1.67166,14.3953,2.362,-0.0489902,-2.65253e-14,-6.75868e-15,-27.4579,-11.2698,-50.4003,16.5676,11.3124,1.70801,4.58635,7.12502,27.2253,-23.4689,-2.65253e-14,-6.75868e-15,4.86404,-8.82431,69.4855,16.3016,-59.5379,14.7039,23.8174,7.12502,39.5729,49.1709,-71.9387,-2.42795,22.4253,55.0331,5.99273,-13.1748,17.7248,-25.1021,4.03386,-30.7615,36.7633,-43.4085,20.1625,-5.6992
1.0917,16.259,31.8305,-157.678,-1.55577,-182.826,-2.92855,-3.83223,-5.92877,-8.39217,-6.01477,0.917318,-6.49405,-2.94552,4.43383,-21.5342,1.898,1.85827,31.513,4.27135,-1.73084,14.56,2.33901,-0.0926325,-5.90515e-14,-8.54774e-15,-27.5282,-15.6216,-46.9769,15.1881,15.4044,1.95102,4.51681,7.12502,27.4577,-23.5018,-5.90515e-14,-8.54774e-15,6.05267,-8.97491,68.4763,16.2318,-58.9606,15.303,24.5457,7.12502,40.1368,49.7304,-71.702,-2.42296,22.4315,55.7844,4.29602,-13.273,17.3387,-24.5648,3.69747,-30.5698,36.8475,-43.6636,20.2501,-6.41989
1.11413,16.2278,31.6988,-157.858,-2.07145,-182.881,-3.21223,-3.91172,-6.00581,-8.47408,-6.12116,1.00081,-6.39468,-3.00229,4.54285,-21.4575,1.84351,1.84908,31.4484,4.22502,-1.82528,14.5157,2.30732,-0.139676,2.93704e-14,1.88845e-14,-27.8066,-20.67,-43.0217,13.899,20.5718,2.4392,4.81451,7.12502,27.9246,-23.1291,2.93704e-14,1.88845e-14,7.13489,-9.17697,67.4738,16.0608,-58.0304,14.615,24.8044,7.12502,39.4891,50.1825,-71.2046,-2.25679,22.2428,56.4321,2.12798,-13.9143,19.9322,-23.8238,3.37547,-30.2857,36.889,-43.9826,20.1648,-7.2564
1.13623,16.201,31.5682,-157.914,-2.5921,-182.828,-3.79465,-4.0561,-5.95611,-8.58931,-6.30864,1.13169,-6.15741,-3.11892,4.60401,-21.0449,1.82677,1.79194,31.3083,4.2437,-1.84135,14.3618,2.31902,-0.138893,2.2239e-14,2.00773e-14,-28.3399,-25.7231,-38.9896,12.9305,26.0575,2.74714,4.68415,7.12502,28.2189,-23.2112,2.2239e-14,2.00773e-14,8.03839,-9.68055,66.1913,15.999,-56.3107,13.451,24.8585,7.12502,38.3916,50.5501,-70.761,-2.12775,22.2596,56.9608,0.212836,-14.2089,21.6059,-23.2612,3.05408,-29.9029,36.9674,-44.1369,20.3441,-8.36909
1.15541,16.1687,31.4305,-157.96,-3.09009,-182.794,-4.3762,-4.20751,-5.88932,-8.78683,-6.52492,1.29203,-6.00639,-3.25173,4.6898,-20.5438,1.8295,1.64447,31.2299,4.33362,-1.81582,14.2149,2.36404,-0.0921986,2.47642e-14,1.49089e-15,-29.116,-30.424,-34.8238,12.2199,31.4268,3.09043,4.36201,7.12502,28.547,-23.4787,2.47642e-14,1.49089e-15,8.84634,-9.77859,65.0324,15.9891,-55.2219,13.5253,25.3735,7.12502,38.4617,51.0456,-70.2213,-2.26478,22.5818,57.4842,-1.19953,-14.167,19.731,-22.6448,2.77623,-29.5641,37.0324,-44.4015,20.2455,-8.82906
1.17287,16.126,31.2852,-158.035,-3.70514,-182.766,-4.74697,-4.31781,-5.75146,-9.0484,-6.7119,1.40713,-6.06023,-3.36807,4.71446,-20.4859,1.74086,1.48542,31.5417,4.30415,-1.72271,14.3331,2.36646,-0.0252565,6.68569e-15,-1.98785e-16,-30.6463,-35.9085,-29.7325,11.5637,37.7969,3.46275,4.64563,7.12502,28.9027,-23.1348,6.68569e-15,-1.98785e-16,9.78467,-9.45816,64.0985,15.8765,-55.0908,14.2626,25.8637,7.12502,39.1571,51.3386,-69.5267,-2.61952,23.1459,57.9953,-2.12513,-14.2924,15.9831,-21.9682,2.33068,-29.1677,37.124,-44.7356,19.9649,-8.92795
1.1895,16.086,31.1425,-158.073,-4.26344,-182.754,-5.1702,-4.36591,-5.61428,-9.23113,-6.80333,1.43687,-6.02017,-3.44079,4.64004,-20.6417,1.63148,1.53313,31.8257,4.19728,-1.7936,14.4956,2.32706,-0.0730408,-7.47159e-14,-1.42628e-14,-33.2563,-42.6461,-23.3731,10.9009,45.2492,3.75744,5.14681,7.12502,29.1841,-22.5851,-7.47159e-14,-1.42628e-14,11.0439,-9.56055,62.9652,15.776,-55.0021,13.9857,25.9365,7.12502,38.896,51.4863,-68.9339,-2.71335,23.3557,58.4922,-3.49029,-14.646,14.6095,-21.3496,1.92285,-28.837,37.1581,-44.8463,20.14,-10.2083
1.20375,16.0526,31.0062,-158.003,-4.79415,-182.721,-5.6949,-4.42442,-5.40484,-9.54518,-6.94383,1.45772,-6.07096,-3.5518,4.51604,-20.2167,1.55342,1.5588,31.9431,4.14424,-1.78831,14.4532,2.33717,-0.0847748,4.97061e-14,1.60519e-14,-37.8473,-50.2028,-14.9685,10.365,54.2187,3.81801,5.34223,7.12502,29.2419,-22.3797,4.97061e-14,1.60519e-14,11.9403,-9.30667,61.8325,15.7909,-55.7436,12.6925,24.9216,7.12502,37.6754,50.8084,-68.4516,-2.55238,23.2182,58.8661,-5.57524,-14.9607,15.7549,-20.8495,1.3887,-28.5116,37.1437,-45.2157,20.1554,-10.45
1.2205,16.0275,30.8681,-158.038,-5.34644,-182.717,-6.16621,-4.50612,-5.26608,-9.8296,-7.11216,1.48359,-6.11114,-3.67077,4.43714,-19.6829,1.46035,1.3855,32.1058,4.07119,-1.5255,14.3941,2.35816,0.0389627,3.33962e-14,1.80149e-14,-45.7592,-57.9687,-3.24486,10.0256,64.193,3.42844,5.28046,7.12502,28.8699,-22.5056,3.33962e-14,1.80149e-14,12.8474,-9.7264,60.5318,15.9084,-55.1293,12.4208,24.5166,7.12502,37.4186,50.4716,-67.7925,-2.312,22.9565,59.1498,-7.32336,-15.2948,16.2571,-20.2029,0.949211,-28.1746,37.0711,-45.5216,20.0463,-10.7946
1.2387,16.018,30.7237,-158.08,-5.89617,-182.479,-6.60184,-4.52685,-4.88707,-10.1574,-7.21387,1.58317,-6.24183,-3.76955,4.31379,-19.1607,1.37472,1.18383,32.3762,4.06789,-1.31919,14.3885,2.40489,0.160758,-2.56614e-14,7.01492e-15,-55.1828,-63.3235,9.49401,9.95057,72.1725,3.20503,5.11222,7.12502,28.6565,-22.7101,-2.56614e-14,7.01492e-15,13.7929,-9.31525,59.6903,15.9418,-54.972,13.0782,25.0496,7.12502,38.0397,50.838,-67.0948,-1.91545,22.9685,59.29,-8.46098,-15.8459,15.3206,-19.5653,0.702846,-27.5873,37.0124,-45.6675,19.8167,-11.1125
1.25319,16.0041,30.5855,-158.032,-6.27592,-182.403,-7.08857,-4.50028,-4.62852,-10.4274,-7.24604,1.58871,-6.28955,-3.83185,4.15029,-18.716,1.32751,0.941597,32.3587,4.04663,-1.07934,14.2689,2.42335,0.292134,5.92006e-15,1.81888e-14,-69.4183,-67.6054,26.8545,10.0596,80.0986,3.04192,4.9562,7.12502,28.5006,-22.8923,5.92006e-15,1.81888e-14,14.9197,-9.37197,58.6688,16.0593,-54.7958,13.1842,25.4238,7.12502,38.1398,51.1848,-66.5424,-1.56657,22.8626,59.3757,-9.71117,-16.4085,14.4795,-19.0461,0.468633,-27.2668,36.946,-45.5845,20.0225,-12.0084
1.26265,15.9979,30.4553,-158.06,-6.92807,-182.108,-7.642,-4.5388,-4.04699,-10.5196,-7.32623,1.63701,-6.12615,-3.93228,3.82813,-18.6656,1.30454,0.832422,32.4349,4.03053,-0.947335,14.2853,2.43121,0.364012,2.00648e-14,-9.86469e-15,-79.5409,-69.5618,39.2266,10.2614,84.4435,2.96631,4.53041,7.12502,28.4284,-23.3302,2.00648e-14,-9.86469e-15,16.27,-9.5828,57.5108,16.2974,-54.2434,12.8085,25.7868,7.12502,37.785,51.6442,-65.7343,-1.43881,23.1369,59.303,-11.1975,-16.8485,15.4694,-18.5571,-0.0490663,-26.6088,36.9614,-45.1854,20.4373,-13.4095
1.26301,16.0044,30.323,-158.181,-7.66125,-181.778,-8.15609,-4.54782,-3.29795,-10.5489,-7.36476,1.6475,-5.94433,-4.01787,3.3759,-18.8991,1.21743,0.767293,32.7575,3.93615,-0.832493,14.4768,2.40979,0.418429,6.01696e-14,2.18663e-14,-91.0376,-70.7265,52.7802,10.5385,88.8272,2.64973,3.97178,7.12502,28.1258,-23.939,6.01696e-14,2.18663e-14,17.6948,-9.74927,56.4783,16.5182,-53.7586,12.201,26.5651,7.12502,37.2108,52.5747,-64.7838,-1.4664,23.5378,59.1321,-12.1437,-17.3043,16.511,-17.9517,-0.665783,-25.9074,36.9729,-44.6392,20.8104,-14.4727
1.26795,16.0241,30.1971,-158.272,-8.29848,-181.186,-8.63626,-4.50603,-2.41576,-10.6715,-7.3705,1.77687,-5.88843,-4.09568,2.98963,-18.8103,1.13879,0.762083,32.9347,3.90484,-0.906429,14.539,2.40396,0.389588,5.41284e-14,1.65488e-14,-101.341,-71.144,65.0003,10.8242,92.5217,2.29028,3.95222,7.12502,27.7822,-24.0145,5.41284e-14,1.65488e-14,18.8881,-10.0168,55.4149,16.6232,-53.5358,11.5499,26.8094,7.12502,36.5948,52.9775,-63.9117,-1.19079,24.1802,58.773,-12.5015,-18.0673,16.6303,-17.5095,-1.07583,-24.966,36.9932,-44.1164,20.8677,-14.6059
1.26331,16.0619,30.0761,-158.289,-9.24753,-180.579,-9.08906,-4.52981,-1.33351,-10.9636,-7.52276,1.95702,-6.04635,-4.27022,2.56148,-18.2108,1.02468,0.608292,33.0234,3.90721,-0.969378,14.4435,2.41631,0.389796,-4.45153e-14,-2.63887e-14,-109.272,-71.1094,74.8357,11.1324,95.5969,2.27722,4.49242,7.12502,27.7697,-23.4763,-4.45153e-14,-2.63887e-14,19.9957,-8.90382,55.4141,16.6991,-52.5855,13.6689,29.9071,7.12502,38.5972,55.5413,-63.0849,-1.19731,24.8826,58.3033,-12.9438,-18.6818,16.8274,-17.2504,-1.66091,-23.9221,36.9743,-43.5718,20.5742,-13.9529
1.24847,16.1199,29.9568,-158.479,-10.5834,-179.969,-9.29164,-4.6415,-0.0630105,-11.2479,-7.79642,2.12633,-6.36458,-4.51325,2.04667,-17.4143,0.961091,0.285475,32.9648,3.94678,-0.806635,14.2279,2.45679,0.510416,7.12767e-14,-9.93923e-17,-113.609,-71.0864,80.8277,11.4161,97.2531,2.11203,4.90979,7.12502,27.6117,-23.0843,7.12767e-14,-9.93923e-17,20.6559,-9.40265,54.5879,16.8026,-52.9092,13.1281,30.0292,7.12502,38.0868,55.8047,-62.077,-1.66173,25.7166,57.7373,-13.1819,-19.2819,15.9469,-16.9465,-2.35898,-22.774,37.0164,-42.7982,20.2777,-13.3041
1.23929,16.1887,29.8456,-158.611,-11.4325,-179.564,-9.45957,-4.62172,0.732283,-11.4718,-7.86244,2.24994,-6.59971,-4.62039,1.75033,-16.7011,0.907196,-0.274971,32.7668,3.92813,-0.356738,13.9568,2.46964,0.771466,-1.22998e-15,1.47101e-14,-111.074,-71.8272,79.5093,11.5065,96.0761,1.66106,4.56193,7.12502,27.1804,-23.5004,-1.22998e-15,1.47101e-14,21.525,-9.55402,54.1281,16.8409,-53.0981,13.3649,30.6532,7.12502,38.3104,56.3673,-61.1775,-1.92301,26.2346,57.1318,-13.0198,-19.6979,15.1842,-16.7481,-2.69631,-22.0597,37.1438,-42.0109,20.2008,-11.7437
1.24066,16.2561,29.7426,-158.605,-12.0107,-179.066,-9.89069,-4.59583,1.26121,-11.5364,-7.88582,2.50147,-6.4637,-4.67801,1.6807,-16.4895,0.849785,-0.586296,32.6654,3.89887,-0.221515,13.8555,2.44444,0.868958,-1.26228e-14,-5.96354e-15,-107.097,-72.9586,76.4114,11.5554,94.15,1.13001,4.00955,7.12502,26.6723,-24.1312,-1.26228e-14,-5.96354e-15,22.5267,-8.86566,54.0699,16.7434,-53.8274,9.02199,24.605,7.12502,34.1981,51.3446,-60.3637,-1.93755,26.8117,56.451,-12.5737,-19.8797,14.8056,-16.8125,-2.76312,-21.3503,37.3311,-41.0856,20.204,-8.96346
1.24894,16.3252,29.6512,-158.514,-12.6308,-178.778,-10.4524,-4.66221,1.41153,-11.497,-7.99755,2.75337,-6.09275,-4.74472,1.78068,-16.2978,0.726772,-0.689459,32.5143,3.78141,-0.351336,13.7492,2.36558,0.808872,-4.67641e-14,-3.67752e-14,-112.817,-73.2664,83.2878,11.751,94.8406,0.818151,4.33933,7.12502,26.3738,-23.8465,-4.67641e-14,-3.67752e-14,23.5901,-8.08776,54.1102,16.6623,-54.8946,11.8546,29.952,7.12502,36.8832,56.0465,-59.614,-1.84926,27.0489,55.7382,-12.4354,-20.0909,15.9292,-17.082,-2.72997,-20.8552,37.576,-39.9317,20.2623,-5.79218
1.25907,16.4227,29.566,-158.33,-13.1318,-178.67,-11.1076,-4.75648,1.25742,-11.4367,-8.13092,3.0041,-5.60942,-4.8018,2.02448,-15.9661,0.606172,-0.93896,32.3883,3.68303,-0.333984,13.6172,2.30544,0.835515,4.58944e-14,-6.36111e-15,-111.354,-74.1587,82.683,11.831,93.1845,0.861616,4.47316,7.12502,26.4154,-23.7064,4.58944e-14,-6.36111e-15,24.6321,-7.35495,54.2541,16.5495,-55.5477,10.8836,29.3795,7.12502,35.9639,55.7048,-59.1561,-1.43384,26.7589,55.0411,-12.3673,-20.2964,17.8452,-17.5454,-2.51859,-20.6445,37.7736,-38.8255,20.891,-3.1608
1.28087,16.5456,29.4991,-157.951,-14.003,-178.615,-10.9558,-4.88458,1.22499,-11.945,-8.40041,3.14737,-6.22356,-4.9713,2.25303,-16.0124,0.45647,-0.713159,33.0705,3.60904,-0.469223,13.9351,2.32724,0.757383,5.39203e-15,2.72335e-14,-101.44,-74.9376,73.3197,11.8754,90.1055,0.873861,4.45616,7.12502,26.4271,-23.7216,5.39203e-15,2.72335e-14,25.074,-6.90122,54.5672,16.5094,-56.4318,10.0182,29.0672,7.12502,35.1436,55.5896,-59.0553,-0.860362,26.2454,54.3593,-12.2278,-20.9298,19.0863,-18.3747,-2.2284,-20.3119,37.9164,-37.7255,21.0651,0.856136
1.29059,16.6516,29.4365,-157.696,-14.4347,-179.092,-10.9238,-5.04365,0.661731,-12.1752,-8.62156,3.11162,-6.4212,-5.05871,2.53503,-16.3298,0.396946,-0.257494,33.781,3.65064,-0.794317,14.342,2.39233,0.584325,2.88238e-15,1.35174e-14,-94.3261,-75.3949,66.5835,11.8915,87.8714,0.615553,4.24678,7.12502,26.1798,-23.9679,2.88238e-15,1.35174e-14,25.5961,-5.89248,55.2093,16.4266,-57.6842,9.97266,29.0647,7.12502,35.1004,55.5973,-58.6851,-0.73688,25.441,53.7714,-11.4042,-21.3722,18.9256,-18.831,-1.74913,-20.798,37.9686,-36.9485,21.3699,3.03078
1.30422,16.7538,29.3741,-157.733,-14.5305,-179.58,-10.8727,-5.20734,-0.127377,-12.1818,-8.78433,3.02129,-6.35769,-5.0816,2.85792,-15.9847,0.336566,0.24276,33.9729,3.6018,-1.09462,14.3674,2.42804,0.371833,-1.02871e-14,9.34288e-15,-83.2802,-75.4736,55.5065,11.8164,84.503,0.465081,3.84292,7.12502,26.0358,-24.3931,-1.02871e-14,9.34288e-15,26.1673,-5.9999,54.981,16.4565,-57.5015,10.0533,29.2544,7.12502,35.1769,55.7689,-57.8905,-0.454107,24.6772,53.208,-10.077,-21.7686,18.6941,-19.014,-0.209908,-21.3917,37.961,-35.7546,21.2786,2.91017
1.31946,16.8532,29.3117,-157.783,-14.5819,-180.083,-10.8704,-5.29728,-0.904438,-11.922,-8.78567,2.78584,-6.00247,-5.01014,2.9955,-16.0822,0.142552,0.597359,34.0856,3.21957,-1.1216,14.4418,2.30833,0.238522,3.18801e-14,5.76476e-15,-76.2365,-75.1726,48.2176,11.7579,81.2526,0.136769,2.90172,7.12502,25.7214,-25.3801,3.18801e-14,5.76476e-15,27.2269,-8.07548,53.4262,16.879,-55.184,9.88293,29.9358,7.12502,35.0153,56.4883,-57.1112,-0.0711705,23.8198,52.7033,-8.85901,-21.9991,20.5176,-19.1602,0.384528,-22.0454,37.9003,-35.0855,21.3132,2.45712
1.33821,16.9623,29.2512,-157.773,-14.5163,-180.67,-10.8372,-5.30695,-1.74701,-11.7472,-8.70456,2.44136,-5.77505,-4.90734,3.07907,-16.053,-0.0698513,0.829803,34.2444,2.78252,-0.886467,14.4994,2.19803,0.224975,-7.69048e-15,-2.78299e-15,-77.7019,-75.1601,49.7306,11.7604,80.6543,-0.0122905,2.6794,7.12502,25.5786,-25.623,-7.69048e-15,-2.78299e-15,28.2841,-5.6132,55.285,16.4059,-58.2419,9.64759,29.8586,7.12502,34.792,56.463,-56.5343,0.535653,22.7551,52.2514,-8.10479,-22.4175,21.0552,-19.3278,0.684903,-22.8346,37.7684,-34.6143,20.86,2.97327
1.34142,17.0841,29.2123,-157.922,-14.7782,-180.96,-10.562,-5.37825,-2.00713,-11.6259,-8.74674,2.22374,-5.78861,-4.89795,3.01242,-15.6917,-0.113216,0.972623,34.266,2.61793,-0.576226,14.4205,2.21149,0.298595,-3.70982e-14,1.90833e-14,-90.0973,-75.757,62.5723,11.8311,83.5414,0.187635,3.5511,7.12502,25.7701,-24.7237,-3.70982e-14,1.90833e-14,29.065,-3.21419,57.1992,16.0685,-60.7678,9.68488,29.8609,7.12502,34.8274,56.4571,-55.9508,0.476019,22.3145,51.8213,-7.41227,-22.6005,19.5142,-19.5262,1.06921,-23.2716,37.6184,-33.4908,20.465,1.94408
1.35908,17.2013,29.175,-157.967,-14.6686,-181.371,-10.3657,-5.40354,-2.74935,-11.4635,-8.69261,2.07852,-5.6472,-4.80762,3.26982,-15.2868,-0.204253,1.11466,34.1915,2.45901,-0.518846,14.2931,2.18666,0.266961,4.29313e-14,2.21645e-14,-94.2841,-75.8373,66.9521,11.8573,83.9949,0.191759,4.04282,7.12502,25.774,-24.2314,4.29313e-14,2.21645e-14,29.708,-5.25605,55.9056,16.4373,-58.4665,10.0858,30.5986,7.12502,35.2077,57.1059,-55.598,0.905894,21.6163,51.4759,-6.42854,-23.3977,20.191,-19.8308,1.53735,-23.9238,37.4353,-32.1636,20.3519,-0.0828484
1.3691,17.3085,29.1417,-157.948,-14.4587,-181.765,-10.0577,-5.34765,-3.36297,-11.4362,-8.57961,1.91463,-5.74285,-4.70323,3.47465,-15.2633,-0.551416,1.27133,34.4175,1.99078,-0.649847,14.3876,2.00774,0.116195,-3.15074e-14,-1.08338e-14,-93.4513,-75.8435,66.1973,11.8029,83.2735,0.288851,4.17624,7.12502,25.867,-24.0845,-3.15074e-14,-1.08338e-14,30.165,-8.78396,53.4388,16.9359,-54.8221,9.61369,31.0674,7.12502,34.7598,57.6792,-55.4327,1.10553,21.0048,51.2204,-4.56619,-24.4227,22.3176,-20.1529,2.09121,-24.6603,37.2018,-30.3967,20.1499,-2.09705
1.37042,17.4131,29.1097,-157.9,-14.424,-182.109,-9.77534,-5.27508,-3.70629,-11.3981,-8.46132,1.70562,-5.85508,-4.61532,3.48369,-15.0194,-0.805531,1.38346,34.4093,1.62718,-0.707905,14.324,1.87161,0.0129275,5.41812e-14,7.03201e-15,-91.253,-75.6633,64.0173,11.8119,82.2257,0.465488,4.23482,7.12502,26.0362,-24.0011,5.41812e-14,7.03201e-15,30.6562,-7.31309,54.9071,16.6134,-57.1213,8.99197,30.471,7.12502,34.1696,57.2169,-55.3859,0.911381,20.5691,51.0336,-2.32066,-25.282,22.2004,-20.452,2.60007,-25.3089,36.9659,-28.4705,19.5269,-2.75307
1.37359,17.5165,29.0802,-157.877,-14.3582,-182.735,-9.46453,-5.29729,-4.38936,-11.2117,-8.41875,1.46077,-5.77916,-4.53627,3.6194,-14.9947,-0.834646,1.4567,34.3446,1.50438,-0.56471,14.2859,1.84547,0.0365199,9.42286e-16,1.63531e-15,-93.8759,-75.6971,66.7645,11.8994,82.0909,0.961416,4.45916,7.12502,26.5109,-23.706,9.42286e-16,1.63531e-15,31.2626,-7.75917,54.6405,16.7605,-56.4126,8.88339,30.8092,7.12502,34.0665,57.5782,-55.3651,0.680678,19.78,50.9428,-0.77542,-26.017,23.6537,-20.6026,2.86968,-26.2011,36.7258,-26.621,18.9071,-2.46902
1.38191,17.61,29.0533,-157.816,-14.3963,-183.041,-9.33402,-5.30942,-4.86999,-10.9848,-8.35438,1.36063,-5.5646,-4.46029,3.77057,-14.827,-0.853075,1.52579,34.1814,1.42633,-0.498487,14.1725,1.82623,0.0340845,-4.38817e-14,-1.59028e-14,-100.678,-75.6274,73.959,11.9315,82.9441,1.47611,5.06392,7.12502,27.0035,-23.0259,-4.38817e-14,-1.59028e-14,31.9637,-8.56735,54.0472,16.8979,-55.1273,8.43203,30.7769,7.12502,33.6377,57.6404,-55.4006,1.06556,19.0765,50.8098,-1.42733,-27.3905,28.8601,-20.9865,3.10767,-26.7081,36.5765,-24.0894,18.8527,-4.86001
1.38582,17.6848,29.0338,-157.798,-14.3147,-183.449,-9.10081,-5.3089,-5.40805,-10.725,-8.26952,1.22309,-5.37298,-4.36908,3.92576,-14.6656,-0.892156,1.63329,33.9626,1.30503,-0.482663,14.036,1.77962,-0.00439309,1.8664e-14,-1.49089e-16,-111.284,-75.1612,85.0395,12.0318,84.6885,1.86274,5.83191,7.12502,27.3733,-22.2001,1.8664e-14,-1.49089e-16,32.7099,-9.00731,53.6213,16.9207,-54.3405,8.07098,30.7052,7.12502,33.2945,57.6428,-55.4048,1.49604,18.2421,50.69,-2.16321,-28.6444,32.712,-21.2775,3.31479,-27.371,36.4921,-21.5503,18.546,-7.43637
1.3757,17.7568,29.0204,-157.75,-14.2151,-183.618,-8.79581,-5.20223,-5.45747,-10.5787,-8.10014,1.07942,-5.41055,-4.26781,3.83843,-14.5665,-0.965663,1.73607,33.8503,1.17214,-0.525948,13.9619,1.72554,-0.0641268,-9.73113e-15,8.29926e-15,-104.992,-75.575,78.7483,11.9379,81.6314,1.95238,5.57487,7.12502,27.459,-22.4436,-9.73113e-15,8.29926e-15,33.4255,-10.2039,52.5875,17.0435,-52.7134,8.08085,31.0787,7.12502,33.3039,58.0143,-55.5314,1.40204,17.9207,50.5803,-1.34295,-29.2838,34.0404,-21.6474,3.43419,-27.847,36.4733,-19.122,18.0653,-8.93459
1.36424,17.8199,29.0123,-157.643,-14.0594,-183.703,-8.44183,-5.05593,-5.40772,-10.4964,-7.89963,0.962805,-5.55556,-4.15654,3.73856,-14.6331,-1.07407,1.73829,33.8366,1.0007,-0.528887,13.9677,1.64715,-0.0937085,5.73929e-14,1.88845e-14,-67.3725,-74.1127,40.0282,11.7425,69.652,1.6588,3.23815,7.12502,27.1782,-24.8245,5.73929e-14,1.88845e-14,34.0536,-12.1112,50.8487,17.3678,-50.3282,7.25767,31.0153,7.12502,32.5209,58.1154,-55.8181,1.23254,17.7579,50.4567,-0.156672,-29.8808,34.2153,-22.1056,3.58643,-28.253,36.4716,-16.3841,17.7228,-11.1665
1.35392,17.8658,29.0083,-157.456,-13.8242,-184.127,-7.94239,-4.96452,-5.68084,-10.5152,-7.80122,0.762969,-5.86211,-4.07958,3.74601,-14.4007,-1.12743,2.01349,33.6253,0.926845,-0.827938,13.8219,1.60254,-0.278599,-9.54788e-15,2.127e-14,-74.4633,-74.9359,47.7468,11.8558,71.5641,2.43825,4.55075,7.12502,27.9236,-23.393,-9.54788e-15,2.127e-14,34.5004,-14.7742,48.287,17.946,-47.4137,5.85874,30.3404,7.12502,31.1887,57.7058,-56.285,0.971203,17.1873,50.3893,-0.219366,-30.6513,35.2022,-22.4069,3.25647,-28.9667,36.3829,-14.3548,17.5978,-11.1714
1.34762,17.9016,28.9991,-157.584,-13.8769,-183.904,-7.64074,-4.92162,-5.35364,-10.235,-7.68452,0.774449,-5.76141,-4.01693,3.59487,-14.3678,-1.0805,2.19199,33.2907,0.922928,-0.983587,13.6679,1.573,-0.381239,2.59787e-14,-4.57205e-15,-47.7457,-70.0289,19.8078,11.7921,59.2044,1.11142,0.953731,7.12502,26.6545,-27.1897,2.59787e-14,-4.57205e-15,34.9778,-13.7857,48.6456,17.8733,-47.3856,5.37061,30.3763,7.12502,30.7234,57.8302,-56.499,1.34938,17.0673,50.2314,-1.88178,-31.7909,36.4888,-22.3989,2.34927,-28.8208,36.2638,-12.9631,17.7659,-9.1861
1.33909,17.9321,28.9908,-157.607,-13.9844,-183.862,-7.33588,-4.90344,-5.12505,-9.99824,-7.61402,0.731527,-5.70481,-3.97552,3.44277,-14.3104,-1.05101,2.31611,32.9508,0.898307,-1.09875,13.5069,1.53413,-0.460464,-1.68159e-14,-1.02374e-14,-67.162,-74.8357,40.6275,11.8147,66.6329,1.38807,3.25299,7.12502,26.9192,-24.8499,-1.68159e-14,-1.02374e-14,35.6476,-14.5742,47.4069,18.0673,-46.2338,3.92273,29.7042,7.12502,29.3419,57.4086,-56.8016,1.74383,16.6496,50.0162,-5.55828,-32.5803,40.5239,-22.4451,1.38241,-28.8422,36.1691,-11.1619,18.0764,-9.50842
1.32935,17.9473,28.9854,-157.572,-13.9915,-183.988,-6.91657,-4.89002,-5.07684,-9.75891,-7.54649,0.712031,-5.68783,-3.91976,3.42466,-14.7676,-1.0537,2.36416,32.8727,0.867969,-1.32145,13.5736,1.46548,-0.566806,-1.67507e-14,-6.95746e-16,-80.4013,-76.507,54.7344,11.9073,69.6721,0.773493,3.96803,7.12502,26.331,-24.2242,-1.67507e-14,-6.95746e-16,35.988,-13.076,48.2463,17.8721,-47.0347,2.60875,29.571,7.12502,28.0866,57.4881,-57.1515,2.36547,15.8735,49.6715,-10.6783,-32.6488,45.359,-22.5734,0.854882,-29.0902,36.1799,-8.91712,18.1937,-10.4021
1.31834,17.9552,28.9789,-157.783,-14.1445,-183.265,-6.32053,-4.78896,-4.13488,-9.63461,-7.39275,0.930272,-5.96428,-3.86041,3.20053,-15.0911,-1.06714,2.18696,32.9167,0.867327,-1.32761,13.6639,1.42843,-0.539917,-1.47753e-14,-2.32578e-14,-90.579,-77.33,65.6943,12.0245,71.3512,0.178909,4.42416,7.12502,25.7617,-23.8519,-1.47753e-14,-2.32578e-14,35.9533,-11.4458,49.352,17.6285,-47.3176,0.848221,29.9582,7.12502,26.4026,58.1396,-57.408,3.59728,15.7023,49.1714,-15.1417,-32.45,47.3813,-22.7254,0.50754,-28.4177,36.3214,-6.59532,18.2373,-12.0606
1.31271,17.9531,28.9705,-157.875,-14.312,-182.719,-5.8652,-4.70354,-3.44428,-9.61275,-7.27219,1.12141,-6.25129,-3.81551,3.07498,-14.6398,-1.09109,2.0399,32.554,0.870682,-1.36244,13.4073,1.39768,-0.532005,4.40386e-14,1.23743e-14,-97.777,-77.5596,73.7395,12.1207,72.376,-0.214399,4.87282,7.12502,25.385,-23.4573,4.40386e-14,1.23743e-14,35.9527,-11.5508,48.9258,17.6171,-46.4968,-1.18084,29.9242,7.12502,24.4589,58.3826,-57.8185,5.61387,14.7805,48.6533,-20.2808,-32.1215,48.156,-22.9208,0.197024,-27.8792,36.5361,-4.49033,18.1201,-13.5968
1.3103,17.9415,28.9602,-157.91,-14.4473,-182.278,-5.56422,-4.61945,-2.93616,-9.44024,-7.11381,1.29951,-6.27239,-3.74174,3.00338,-14.7448,-1.11459,1.92555,32.2751,0.831815,-1.4826,13.3099,1.32142,-0.571593,3.69742e-14,2.13197e-14,-95.3971,-77.8291,72.0207,12.144,71.1016,-0.731194,4.92772,7.12502,24.8898,-23.4718,3.69742e-14,2.13197e-14,36.3186,-12.1305,47.8378,17.7493,-46.915,-2.58615,29.1613,7.12502,23.1111,57.7952,-58.4038,8.45448,13.1607,48.1559,-27.7871,-30.4781,50.8906,-23.17,-0.025354,-27.4057,36.8323,-2.81936,18.0011,-14.1624
1.30614,17.9147,28.9451,-157.826,-14.4401,-182.004,-5.38222,-4.48372,-2.56397,-9.31355,-6.90524,1.32548,-6.28483,-3.6473,2.83961,-15.0634,1.64019,1.09042,32.3483,-0.358452,-0.15114,13.4089,-0.942528,-0.520717,-6.36876e-14,-3.22528e-14,-93.9806,-77.9682,71.1686,12.2013,70.2929,-1.77556,4.58518,7.12502,23.8886,-23.9491,-6.36876e-14,-3.22528e-14,36.8779,-13.3761,45.9992,18.1144,-47.0408,-3.03482,29.1513,7.12502,22.6805,57.8385,-59.3196,11.4744,11.1005,47.7915,-35.1734,-27.569,53.7652,-23.4157,-0.0402145,-27.1368,37.0935,-1.61739,17.8649,-16.6212
1.30386,17.8682,28.9306,-157.716,-14.4781,-181.602,-5.12011,-4.37014,-2.0855,-9.35739,-6.75906,1.39924,-6.52907,-3.59474,2.6887,-14.9656,1.59482,0.952557,32.327,-0.510607,0.196462,13.3786,-0.981034,-0.383383,-7.18816e-14,-3.00662e-14,-92.9763,-78.0359,70.7794,12.3032,70.0107,-2.53247,4.60561,7.12502,23.1626,-24.0218,-7.18816e-14,-3.00662e-14,37.1472,-14.3078,44.4399,18.4445,-47.0813,-3.25331,29.3275,7.12502,22.4708,58.0401,-60.3888,13.9748,9.40711,47.5031,-40.29,-24.8823,55.2866,-23.6946,0.0477643,-26.6963,37.3676,-1.25467,17.7543,-19.9754
1.3025,17.8063,28.9208,-157.491,-14.1164,-181.251,-4.85723,-4.17885,-1.77654,-9.34585,-6.49709,1.4529,-6.70364,-3.47387,2.60323,-15.1803,1.47526,0.845535,32.1435,-0.673134,0.42923,13.347,-1.01034,-0.292706,2.52379e-14,7.45443e-16,-95.8674,-78.2828,74.3548,12.39,70.5925,-3.33027,4.76231,7.12502,22.397,-23.9593,2.52379e-14,7.45443e-16,37.7866,-15.5087,42.1827,18.8432,-45.7106,-3.17747,29.5272,7.12502,22.5436,58.2311,-61.2455,13.0417,9.98775,47.2984,-39.4005,-23.8017,55.5332,-24.0491,0.372785,-26.4343,37.627,-1.58965,16.8327,-21.8843
1.30324,17.7328,28.9187,-157.01,-13.3498,-180.789,-4.91869,-3.9548,-1.56794,-9.33492,-6.19434,1.5987,-6.6753,-3.33499,2.63421,-15.5666,1.46309,0.847707,32.0264,-0.64835,0.484621,13.3811,-0.966114,-0.262558,7.70073e-14,2.83268e-15,-97.9277,-78.9099,76.9482,12.4235,71.0475,-4.49889,4.55257,7.12502,21.2748,-24.2998,7.70073e-14,2.83268e-15,38.3208,-15.9954,40.1169,19.1071,-44.7239,-3.16182,29.6237,7.12502,22.5587,58.3258,-62.6519,12.4348,10.4494,47.1331,-37.0734,-25.0223,54.674,-24.6022,1.03389,-26.2006,37.8647,-2.74346,15.8923,-23.8664
1.30655,17.6549,28.9086,-156.648,-12.6386,-180.429,-4.953,-3.76553,-1.51197,-9.30679,-5.93856,1.66119,-6.63614,-3.21104,2.66352,-15.74,1.48344,0.930112,31.8484,-0.671926,0.718581,13.3443,-0.9154,-0.183736,1.89249e-14,-9.44227e-15,-99.263,-79.3408,78.7577,12.5193,71.6142,-5.54788,4.71616,7.12502,20.2669,-24.2465,1.89249e-14,-9.44227e-15,38.6376,-16.3682,37.8915,19.2515,-44.3378,-3.87348,28.7407,7.12502,21.8754,57.5241,-63.8589,11.8376,10.9781,47.097,-33.1138,-27.7276,52.4381,-24.8525,2.00367,-26.0851,38.1206,-3.82453,14.6912,-26.795
1.31109,17.582,28.8751,-156.911,-11.8694,-179.923,-4.69812,-3.60062,-1.46488,-9.02126,-5.66039,1.72867,-6.4807,-3.05381,2.70835,-15.7462,-0.973372,1.89294,31.3952,0.251366,-0.158541,13.142,1.11353,-0.164999,3.95706e-15,4.37326e-15,-85.9107,-79.632,65.5357,12.5943,69.3622,-6.61656,4.48512,7.12502,19.2396,-24.5832,3.95706e-15,4.37326e-15,38.9434,-15.8996,36.5861,19.3371,-43.5541,-4.21056,29.4502,7.12502,21.5517,58.2711,-64.3371,11.5527,11.8432,47.1197,-26.5933,-31.8001,47.5622,-24.3861,2.9281,-25.7446,38.4097,-4.81578,13.6861,-31.1882
1.31864,17.5113,28.8891,-156.383,-12.4777,-180.1,-4.30889,-3.94186,-1.48966,-9.04161,-6.10727,1.78729,-6.69286,-3.26176,2.8209,-16.0524,-0.776578,2.17307,31.0277,0.269669,0.0298776,13.0544,1.13555,-0.147654,-3.14887e-14,-2.92213e-14,-82.8631,-80.1505,62.7022,12.6412,68.8147,-8.18725,3.79112,7.12502,17.7287,-25.4207,-3.14887e-14,-2.92213e-14,39.1943,-15.3682,34.9867,19.4236,-43.2648,-4.42303,29.3512,7.12502,21.3477,58.1953,-65.3737,9.56875,12.5112,47.2493,-21.2316,-33.9538,43.6588,-24.9744,2.25617,-25.6074,38.7912,-5.64421,12.8662,-34.0696
1.33834,17.4253,28.8813,-156.109,-12.4353,-180.054,-3.91666,-4.07746,-1.77695,-8.78841,-6.22951,1.89297,-6.59483,-3.27852,3.10445,-17.0883,-0.548273,2.6388,30.7075,0.258461,-0.0170474,13.1433,1.10988,-0.260646,5.00937e-14,3.29983e-14,-116.4,-80.3625,96.9073,12.7082,73.8039,-9.72743,4.09918,7.12502,16.2461,-25.2401,5.00937e-14,3.29983e-14,39.6108,-14.4593,33.53,19.5638,-43.2534,-4.19648,29.9555,7.12502,21.5653,58.7748,-66.178,8.44691,13.2928,47.4123,-18.9528,-34.1666,42.7712,-25.2633,2.0536,-25.4137,39.2076,-6.93163,12.2943,-35.8058
1.34595,17.3373,28.8743,-155.923,-12.1607,-180.117,-3.55293,-4.11353,-2.07383,-8.824,-6.28124,1.91452,-6.80731,-3.2761,3.3282,-16.4203,-0.472189,2.71535,29.8703,0.220701,0.167453,12.6552,1.08557,-0.222781,2.98177e-15,-1.17283e-14,-132.259,-78.9755,113.478,12.7787,77.1898,-10.9276,4.77511,7.12502,15.0902,-24.6548,2.98177e-15,-1.17283e-14,39.5034,-14.3169,32.0717,19.7242,-43.1515,-4.6512,30.3324,7.12502,21.1285,59.2012,-66.7706,6.34187,14.8942,47.617,-15.3086,-33.4976,41.3472,-25.4873,2.11167,-25.514,39.7321,-8.05142,11.9778,-37.2765
1.35536,17.2575,28.8628,-155.8,-11.8811,-180.437,-3.06134,-4.19551,-2.67807,-8.73547,-6.37642,1.91783,-6.9273,-3.26676,3.70428,-16.3797,-0.303464,2.85455,29.2189,0.267806,0.310538,12.3845,1.09162,-0.197703,-4.69008e-14,5.56597e-15,-142.555,-77.2457,124.525,12.8717,80.1529,-11.9325,5.52407,7.12502,14.1221,-23.976,-4.69008e-14,5.56597e-15,39.4386,-14.0043,30.6388,19.8604,-43.1706,-4.96816,30.5242,7.12502,20.824,59.4267,-67.2365,4.58112,15.9448,47.7881,-12.9119,-32.8862,39.7799,-25.6523,2.27187,-25.9195,40.3635,-8.98529,11.7404,-37.8282
1.36294,17.1822,28.8518,-155.724,-11.7151,-180.496,-2.4628,-4.2314,-2.96239,-8.68749,-6.41181,2.02816,-7.17605,-3.24111,4.03149,-16.6003,-0.127084,2.9499,28.8356,0.375275,0.388636,12.2793,1.12278,-0.176167,-1.95679e-14,-3.18055e-15,-155.082,-72.9649,137.977,13.1678,86.0804,-12.719,6.80008,7.12502,13.364,-22.7513,-1.95679e-14,-3.18055e-15,39.4575,-14.1931,28.8985,19.9917,-42.648,-5.10024,31.5301,7.12502,20.6971,60.4464,-67.6342,2.93035,17.3136,47.9357,-9.82699,-32.3948,35.8437,-25.9314,2.07241,-26.0299,41.0644,-9.88556,12.006,-38.4569
1.36828,17.1196,28.8347,-155.827,-11.9308,-179.829,-1.84738,-4.25232,-2.31832,-8.60592,-6.3926,2.29803,-7.47436,-3.2414,4.01585,-16.9047,-0.0226361,2.98059,28.5255,0.390828,0.496598,12.2195,1.11332,-0.144914,-6.68413e-15,-1.53064e-14,-160.309,-69.6901,143.928,13.4132,90.3563,-13.5785,7.64975,7.12502,12.5355,-21.9542,-6.68413e-15,-1.53064e-14,39.3876,-12.5111,29.3748,19.0548,-45.323,-5.57958,31.8238,7.12502,20.2365,60.7897,-67.7066,1.63166,19.3676,48.0135,-7.71718,-31.5589,33.322,-26.2411,1.79157,-25.2762,41.836,-10.6212,12.455,-39.4837
1.37112,17.0638,28.8031,-155.376,-11.576,-179.981,-1.7442,-4.15312,-2.57806,-8.59498,-6.26241,2.31028,-7.50642,-3.15559,4.17671,-17.6576,0.0423861,2.91664,28.5513,0.382645,0.579206,12.3855,1.09014,-0.104734,2.75068e-14,8.74653e-15,-159.303,-69.9276,143.472,13.4836,90.1625,-14.0402,7.23194,7.12502,12.0903,-22.3988,2.75068e-14,8.74653e-15,39.3952,-10.6299,30.15,18.1662,-48.2459,-6.1212,31.4372,7.12502,19.7158,60.4574,-68.2528,0.891683,20.0091,48.1573,-6.29821,-30.4761,32.2274,-26.8484,1.51845,-25.5836,42.5219,-11.4037,13.1634,-40.0263
1.35938,17.0175,28.7509,-154.732,-11.2013,-179.907,-2.15958,-3.99169,-2.44935,-8.5682,-6.03884,2.37228,-7.26105,-3.0647,4.12137,-18.3932,0.0339935,2.59848,28.5752,0.298777,0.844334,12.546,1.03174,0.0367866,1.44119e-15,-3.57812e-15,-159.29,-69.303,144.029,13.5707,90.7652,-14.5255,6.82791,7.12502,11.6224,-22.8298,1.44119e-15,-3.57812e-15,39.3256,-9.1541,30.59,17.5982,-50.2284,-6.36017,31.0461,7.12502,19.4861,60.0897,-68.9727,0.114852,20.9,48.3595,-4.60486,-29.0094,30.4364,-27.5671,1.25183,-25.724,43.0832,-12.1592,14.038,-40.5741
1.36938,16.9747,28.6643,-154.004,-10.4055,-179.583,-3.02856,-3.74558,-2.66476,-8.62539,-5.72528,2.60805,-6.80888,-2.92079,4.40352,-18.5301,0.0371831,2.25569,28.4386,0.324693,1.00846,12.5185,1.01268,0.158817,-2.62768e-14,1.6201e-14,-161.814,-66.82,147.149,13.7895,93.7721,-14.798,6.79376,7.12502,11.3595,-22.8786,-2.62768e-14,1.6201e-14,38.8859,-7.18048,31.7126,16.8309,-53.4383,-6.9494,30.0067,7.12502,18.9195,59.1066,-69.7712,0.741582,21.2492,48.6784,-4.13629,-28.227,28.3952,-28.2773,1.34458,-25.6444,43.4296,-12.4676,15.1401,-41.7306
1.37434,16.9493,28.5828,-153.54,-10.1209,-179.441,-3.35084,-3.62544,-2.76248,-8.96821,-5.62639,2.77842,-6.98404,-2.88213,4.63473,-17.6056,0.0236571,2.09651,28.1408,0.414484,1.04067,12.2084,1.04781,0.206269,-2.77491e-14,1.16786e-14,-160.687,-66.5843,146.618,13.8513,94.4717,-15.2126,6.64197,7.12502,10.9597,-23.052,-2.77491e-14,1.16786e-14,38.0967,-5.747,32.9844,16.0673,-56.5634,-7.64556,28.9593,7.12502,18.2499,58.1232,-70.2317,0.777238,21.6612,49.1311,-4.08091,-27.2032,25.3832,-28.6107,0.830111,-25.5416,43.6617,-12.6127,16.315,-42.7308
1.37285,16.9326,28.4942,-153.343,-9.94501,-179.21,-3.4094,-3.39608,-2.53227,-8.97591,-5.31942,2.78019,-7.00525,-2.74631,4.50196,-18.1184,-0.0745768,2.11098,28.2397,0.202731,1.10886,12.3524,0.957376,0.198777,1.59711e-14,-2.04251e-14,-157.611,-66.8908,143.91,13.867,93.344,-15.45,6.03559,7.12502,10.7307,-23.6703,1.59711e-14,-2.04251e-14,37.8839,-4.81282,33.7591,15.6353,-58.2946,-7.55803,29.1063,7.12502,18.3341,58.2622,-70.3753,0.352551,22.5735,49.712,-3.85487,-25.6146,22.3236,-28.6068,0.364012,-25.3023,43.8083,-12.5592,17.1306,-43.0507
1.37307,16.9228,28.3994,-153.16,-9.57244,-179.267,-3.5434,-3.17463,-2.75235,-9.05933,-5.04361,2.74067,-7.03313,-2.60253,4.57552,-17.8497,-0.198669,2.07977,28.0283,0.032175,1.12424,12.2119,0.875762,0.179459,-7.57245e-15,2.83268e-15,-155.435,-66.4245,142.015,13.9528,92.9875,-15.9165,5.37146,7.12502,10.2807,-24.3573,-7.57245e-15,2.83268e-15,37.3495,-2.89099,35.7573,14.7741,-62.5005,-7.9362,28.2562,7.12502,17.9702,57.446,-70.5317,-0.0975704,23.1973,50.4578,-3.56018,-23.9871,18.7546,-28.5048,0.0816687,-25.4333,43.8982,-12.0238,17.6625,-42.9334
1.37375,16.9314,28.2927,-153.09,-9.33346,-179.263,-3.7292,-2.98053,-2.86757,-9.14285,-4.80357,2.71284,-7.03587,-2.48484,4.6,-17.3495,-0.330869,2.0099,27.8278,-0.13705,1.24382,12.0297,0.812688,0.207678,2.57333e-14,-3.64273e-14,-158.047,-62.0966,145.044,14.3445,96.9602,-16.6961,5.35412,7.12502,9.52859,-24.4104,2.57333e-14,-3.64273e-14,36.7007,-1.11768,37.9384,14.2003,-66.0706,-8.00324,28.0821,7.12502,17.9057,57.2778,-70.4367,-0.531185,23.8653,51.2664,-4.06311,-22.4451,17.16,-28.2575,-0.14556,-25.4299,43.9112,-11.2024,18.0961,-43.2119
1.36861,16.953,28.1837,-153.126,-9.20028,-179.302,-3.55989,-2.81558,-2.84906,-9.46185,-4.64315,2.67798,-7.50406,-2.41136,4.59005,-16.4328,-0.498239,1.86286,27.8176,-0.2515,1.34808,11.8384,0.789005,0.25696,-7.28321e-15,-3.07495e-15,-156.777,-60.9359,143.83,14.4707,97.743,-17.3985,5.80126,7.12502,8.85078,-23.9931,-7.28321e-15,-3.07495e-15,35.57,1.59526,41.0515,12.6371,-73.9676,-10.4402,26.4059,7.12502,15.5597,55.7999,-70.1322,-1.05485,24.446,52.1104,-4.62756,-20.8732,16.5276,-27.8516,-0.322705,-25.4518,43.8036,-10.4012,18.4001,-43.2938
1.36354,16.9972,28.0634,-153.307,-9.13156,-179.017,-3.7956,-2.71643,-2.54671,-9.41659,-4.49973,2.80411,-7.34086,-2.3646,4.53147,-15.9481,-0.538506,1.73934,27.7717,-0.215987,1.33268,11.7216,0.80137,0.27778,5.05658e-15,-1.21259e-14,-154.995,-60.8392,141.64,14.4269,96.7839,-17.7674,6.56204,7.12502,8.49483,-23.2471,5.05658e-15,-1.21259e-14,34.349,1.83813,41.9014,12.265,-75.3808,-10.5503,26.9475,7.12502,15.4537,56.3498,-69.6308,-1.11959,24.9567,52.906,-5.3787,-19.6142,16.3357,-27.319,-0.447316,-25.0544,43.6228,-9.69356,18.3929,-41.9645
1.36378,17.0606,27.9306,-153.634,-9.05463,-178.789,-3.89384,-2.66615,-2.35706,-9.13144,-4.376,2.97258,-6.98154,-2.3049,4.57297,-16.2777,-0.540469,1.4801,27.8442,-0.152488,1.25678,11.8166,0.784836,0.303455,1.58655e-14,1.49089e-14,-156.7,-57.6566,143.087,14.5171,98.7601,-18.5779,7.3594,7.12502,7.71253,-22.48,1.58655e-14,1.49089e-14,32.9986,1.69387,42.3658,12.4825,-75.1569,-9.67613,28.2344,7.12502,16.2955,57.5697,-68.9661,-0.975196,25.1578,53.6909,-6.27677,-18.6854,16.4666,-26.6428,-0.34112,-24.6931,43.3704,-8.07488,18.4637,-42.2702
1.36397,17.1215,27.7915,-153.928,-9.15986,-178.657,-3.94611,-2.64519,-2.05257,-9.06473,-4.33605,3.00074,-6.89802,-2.30406,4.42359,-15.9066,-0.591259,1.37166,27.8445,-0.133906,1.20016,11.7408,0.785803,0.304545,3.96824e-14,-1.48095e-14,-156.389,-55.7347,142.272,14.5231,99.5156,-19.3526,7.67474,7.12502,6.96476,-22.1907,3.96824e-14,-1.48095e-14,31.2833,3.56232,44.3702,12.3266,-78.7192,-9.93422,27.9738,7.12502,16.047,57.3293,-68.1347,-1.28526,25.7065,54.4127,-6.46786,-17.8198,16.2806,-26.1045,-0.139615,-24.3343,43.1987,-6.06402,18.3069,-42.2488
1.36402,17.1738,27.6517,-154.195,-9.06569,-178.658,-3.91725,-2.54267,-1.91592,-9.08993,-4.20393,2.97097,-6.96359,-2.2483,4.319,-15.4629,-0.687246,1.15498,27.9329,-0.151402,1.22908,11.6849,0.779802,0.353037,-1.11319e-14,-5.66536e-15,-155.198,-54.3772,140.426,14.5723,99.7776,-19.9162,8.05062,7.12502,6.42076,-21.8321,-1.11319e-14,-5.66536e-15,29.3848,5.36412,46.3281,11.9828,-82.3713,-10.8448,26.9121,7.12502,15.17,56.336,-67.2177,-1.759,26.3671,55.1086,-5.89408,-16.9487,15.7012,-25.6231,0.292921,-24.1793,43.119,-4.229,18.1004,-41.1847
1.35901,17.229,27.5099,-154.369,-9.101,-178.403,-3.96859,-2.42327,-1.43621,-9.03586,-4.0345,3.06054,-6.91011,-2.1939,4.13678,-15.6988,-0.758799,1.0938,28.0967,-0.144879,0.905166,11.7957,0.736762,0.246578,6.37602e-14,2.06736e-14,-155.412,-51.62,140.087,14.6648,101.393,-20.4726,8.81793,7.12502,5.88359,-21.0804,6.37602e-14,2.06736e-14,27.3854,5.67373,47.282,11.8492,-83.1822,-10.809,26.5549,7.12502,15.2045,55.9762,-66.3225,-2.33331,27.4585,55.7827,-5.30862,-16.166,13.5552,-25.3803,0.410742,-23.6465,43.1992,-2.95767,18.0639,-38.2597
1.35865,17.2888,27.3681,-154.467,-9.26457,-178.184,-4.22657,-2.34152,-0.997953,-9.16404,-3.95603,3.14714,-6.92728,-2.19636,3.97481,-14.8888,-0.862669,1.08381,27.8847,-0.12007,0.515116,11.5472,0.709809,0.106361,5.78463e-14,2.10712e-14,-153.471,-51.0395,137.348,14.4632,100.816,-20.8207,9.5041,7.12502,5.54745,-20.4033,5.78463e-14,2.10712e-14,24.9343,5.44967,48.0933,11.7151,-82.7656,-10.6682,26.358,7.12502,15.3401,55.769,-65.4727,-2.74701,28.2764,56.4766,-5.21549,-15.8271,11.9087,-25.3438,0.404539,-23.0081,43.3503,-1.14422,18.1505,-35.3347
1.35667,17.3445,27.2218,-154.556,-9.27228,-178.002,-4.48525,-2.28917,-0.610772,-9.1895,-3.90293,3.2722,-6.82454,-2.20319,3.8749,-14.7154,-0.880997,0.823676,28.0472,0.0297422,0.319606,11.5754,0.741065,0.10356,-3.52346e-14,-2.22639e-14,-153.134,-49.0386,136.24,14.3697,101.921,-21.259,10.4458,7.12502,5.12427,-19.4723,-3.52346e-14,-2.22639e-14,22.429,6.12915,49.2589,11.4906,-82.6762,-10.8628,26.1632,7.12502,15.1527,55.5884,-64.6159,-3.0194,28.8975,57.1961,-5.24179,-16.1326,11.2694,-25.3664,0.356816,-22.4142,43.5459,0.290299,18.612,-29.5771
1.35253,17.4022,27.0711,-154.686,-9.12879,-177.809,-4.86599,-2.15969,-0.170689,-9.04214,-3.72914,3.3248,-6.47904,-2.14913,3.64892,-14.8289,-0.943938,0.263755,28.1898,0.0759077,0.42736,11.655,0.720603,0.248288,1.3418e-15,9.93923e-15,-152.152,-47.6367,134.246,14.1601,101.997,-21.739,11.0263,7.12502,4.66078,-18.9024,1.3418e-15,9.93923e-15,19.9959,5.94518,49.9926,11.5128,-80.9893,-10.6377,26.2034,7.12502,15.3695,55.6122,-63.7508,-3.30682,29.5575,57.9172,-4.51452,-16.6942,10.0024,-25.3891,0.288935,-21.8391,43.8227,2.05263,19.4126,-24.394
1.35092,17.452,26.926,-154.951,-8.91506,-177.805,-5.04887,-2.02523,0.0986616,-8.83024,-3.53017,3.24271,-6.17585,-2.06271,3.38689,-14.7708,0.813444,-0.460516,28.0877,-0.649101,1.06112,11.6088,-0.806572,0.256106,8.59744e-15,-8.94531e-15,-149.713,-47.8532,130.221,13.8326,99.7726,-21.8809,11.5491,7.12502,4.52382,-18.3826,8.59744e-15,-8.94531e-15,17.4063,3.50459,49.8946,11.8379,-76.0238,-10.8708,26.7531,7.12502,15.1449,56.1789,-62.7309,-3.5471,29.9045,58.6438,-3.75737,-17.3421,8.14823,-25.2735,0.181436,-21.4318,44.2132,4.47086,20.0462,-21.4997
1.3503,17.4974,26.7864,-155.136,-8.9678,-177.546,-5.15963,-1.88496,0.753857,-8.79455,-3.3563,3.20907,-6.11856,-2.02034,2.97854,-14.3423,0.693341,-0.598741,27.9119,-0.741546,0.884008,11.4541,-0.891092,0.202274,3.83406e-14,3.45885e-14,-145.606,-49.4161,124.17,13.3171,95.5013,-21.8493,12.1008,7.12502,4.55425,-17.8302,3.83406e-14,3.45885e-14,14.5286,-0.72749,49.4776,12.6761,-68.7641,-10.8829,27.5786,7.12502,15.1333,57.0053,-61.6832,-3.66314,30.4011,59.2774,-3.76343,-18.0818,9.13233,-25.4223,0.108528,-20.6094,44.8579,6.92152,20.2579,-17.8708
1.35059,17.5304,26.6454,-155.274,-8.96445,-177.46,-5.39014,-1.79153,1.10729,-8.74158,-3.24588,3.22142,-5.95239,-1.99003,2.77883,-14.0575,0.670139,-0.870601,27.9105,-0.708024,0.813919,11.3954,-0.924036,0.226965,3.07619e-14,-4.45278e-14,-142.724,-49.8355,119.53,12.9812,92.4393,-21.7076,12.6116,7.12502,4.69115,-17.3164,3.07619e-14,-4.45278e-14,11.361,-4.12937,49.828,13.8819,-62.0545,-10.6639,28.6651,7.12502,15.3443,58.0758,-60.722,-3.76719,30.6412,59.9229,-4.11635,-18.7252,13.8428,-25.6484,0.182026,-20.0049,45.7464,10.0848,19.691,-17.032
1.35641,17.5413,26.5094,-155.434,-8.71486,-177.484,-5.6525,-1.69188,1.15087,-8.41045,-3.08299,3.26385,-5.45396,-1.89524,2.76566,-14.587,0.619082,-1.27946,27.9734,-0.616559,0.806975,11.526,-0.908267,0.308969,2.68608e-14,-1.51076e-14,-140.458,-50.198,115.273,12.6356,88.7562,-21.2163,13.4088,7.12502,5.16546,-16.5083,2.68608e-14,-1.51076e-14,8.52483,-6.45257,50.7087,15.0036,-55.8543,-10.8907,29.6531,7.12502,15.1258,59.0803,-59.8514,-3.67843,30.7283,60.5233,-3.24054,-19.3329,15.4093,-25.9729,0.611254,-19.645,46.9529,13.795,18.1423,-19.1457
1.36365,17.5452,26.3797,-155.583,-8.61776,-177.594,-5.62328,-1.64413,1.23404,-8.2753,-2.99972,3.21078,-5.33514,-1.84997,2.6585,-14.7226,0.565767,-1.63866,27.961,-0.62131,0.963409,11.5495,-0.922133,0.428581,-1.73937e-14,4.49253e-14,-137.53,-50.8979,110.127,12.2669,84.3473,-20.6254,14.0525,7.12502,5.73603,-15.8498,-1.73937e-14,4.49253e-14,5.87297,-4.12852,52.7579,14.6733,-54.0345,-12.5141,29.6183,7.12502,13.5615,59.1566,-58.952,-3.68689,30.782,60.9829,-1.89637,-19.9603,15.3551,-26.4503,0.918758,-19.3039,48.3974,16.9741,15.9413,-22.3353
1.37388,17.5364,26.2466,-155.718,-8.5902,-177.683,-5.43588,-1.59204,1.38279,-8.4951,-2.95343,3.09017,-5.69088,-1.84887,2.47263,-13.8548,0.616367,-1.8087,27.768,-0.617025,1.12713,11.2999,-0.939939,0.516918,-9.31803e-15,-3.18055e-15,-131.137,-53.1563,100.818,11.8215,77.4149,-20.7906,13.6005,7.12502,5.57651,-16.3062,-9.31803e-15,-3.18055e-15,2.29682,-4.88763,54.0626,14.9302,-48.4074,-14.4491,29.1321,7.12502,11.696,58.7856,-57.9791,-3.52621,30.8022,61.2656,-0.0839824,-20.57,14.4255,-27.015,1.29076,-18.9451,50.0639,19.4064,13.5585,-24.8294
1.38604,17.5163,26.1107,-155.784,-8.60461,-177.748,-5.8005,-1.68517,1.4694,-8.36576,-3.08536,3.06358,-5.34808,-1.91822,2.36896,-13.4049,0.728107,-1.78939,27.4096,-0.42577,1.04685,11.0696,-0.855604,0.512161,1.799e-14,3.18055e-15,-126.887,-54.6313,93.4408,11.4343,71.7387,-21.22,13.1565,7.12502,5.16195,-16.7606,1.799e-14,3.18055e-15,-1.41095,-8.04943,55.0205,16.0723,-38.9684,-15.6222,29.403,7.12502,10.5646,59.1174,-56.9658,-3.17852,30.7605,61.2774,1.39066,-21.0727,13.2098,-27.717,1.65175,-18.5891,51.9272,20.7563,11.8522,-24.0481
1.40065,17.4859,25.9777,-155.812,-8.50363,-178.019,-6.11636,-1.82671,1.26226,-8.03565,-3.23932,3.02858,-4.80508,-1.96632,2.4093,-13.8181,0.80096,-1.81397,27.3111,-0.21474,0.932449,11.1115,-0.75368,0.506549,3.66261e-14,3.1408e-14,-120.426,-56.999,83.1242,11.0042,64.3527,-21.7493,12.6475,7.12502,4.65089,-17.2814,3.66261e-14,3.1408e-14,-4.9693,-12.7412,56.2309,17.8424,-27.4062,-16.6028,30.5797,7.12502,9.61864,60.3401,-55.9405,-2.68505,30.3877,61.0491,2.29076,-21.3485,13.0908,-28.5061,2.1321,-18.561,53.9747,22.7305,11.4113,-17.9192
1.41896,17.4458,25.8426,-155.859,-8.5701,-178.298,-6.47399,-2.09364,1.03675,-7.70965,-3.56086,3.02865,-4.23647,-2.09909,2.48821,-13.8968,-0.798213,-1.37439,27.0374,0.669172,0.255378,11.0265,0.758078,0.527662,-7.43455e-14,4.09496e-14,-113.963,-59.0332,72.7072,10.7178,58.1526,-22.2402,11.8541,7.12502,4.17679,-18.0847,-7.43455e-14,4.09496e-14,-8.9546,-16.6872,57.8604,19.7985,-16.3721,-18.0232,31.1171,7.12502,8.24791,60.9361,-54.7404,-2.28473,30.0934,60.6087,2.04951,-21.3032,14.9491,-29.3992,2.62383,-18.5534,56.1759,19.0902,10.7551,-25.8671
1.43985,17.3886,25.7042,-155.93,-8.66523,-178.485,-6.97332,-2.37362,0.815821,-7.25387,-3.88968,3.07188,-3.44985,-2.23243,2.58892,-14.1492,-0.506177,-1.1572,26.7487,1.01774,0.0491772,10.9665,0.886461,0.456388,-5.06404e-14,4.41302e-14,-101.607,-61.3229,55.5392,10.5059,49.5862,-22.3935,10.7918,7.12502,4.02883,-19.1499,-5.06404e-14,4.41302e-14,-13.0852,-19.7386,59.8441,22.0051,-6.01772,-19.5821,31.7017,7.12502,6.74321,61.5744,-53.3689,-1.99124,30.044,60.0496,0.647297,-20.841,18.1063,-30.3906,3.31914,-18.5352,58.4702,17.1918,9.41722,-30.0787
1.46159,17.3255,25.5547,-155.925,-8.62885,-178.826,-7.51954,-2.62728,0.397661,-6.80277,-4.17124,2.98418,-2.64196,-2.33894,2.65833,-14.7193,-0.202784,-0.728317,26.5934,1.30794,-0.110098,11.0221,1.01087,0.361592,3.08116e-15,-3.37934e-14,-82.2607,-61.4547,30.4442,10.6278,37.9581,-22.1928,9.47082,7.12502,4.22264,-20.4671,3.08116e-15,-3.37934e-14,-17.2484,-22.0276,61.9669,24.4487,3.18224,-20.5877,32.6369,7.12502,5.77238,62.5383,-51.9953,-1.66352,29.8183,59.4648,-1.55629,-20.4833,20.0015,-31.4813,4.03749,-18.7294,60.6959,17.534,8.9198,-28.7158
1.48109,17.2604,25.3988,-155.885,-8.5988,-179.271,-7.91345,-2.91409,-0.131001,-6.64281,-4.51506,2.90162,-2.21213,-2.48901,2.81173,-14.478,0.0338183,-0.438612,26.3501,1.57424,-0.217987,10.8848,1.14223,0.304108,-1.38155e-14,-2.74323e-14,-61.8074,-56.6515,3.75246,11.27,24.3873,-21.6607,7.96975,7.12502,4.73643,-21.9573,-1.38155e-14,-2.74323e-14,-21.783,-22.8652,64.2849,26.4336,10.0782,-21.4658,33.8702,7.12502,4.92459,63.793,-50.6114,-1.41614,29.5268,58.9516,-3.98304,-20.3401,18.6676,-32.6635,4.57153,-19.0545,62.743,15.7057,8.92047,-28.4057
1.50526,17.1896,25.244,-155.765,-8.63638,-179.841,-8.14583,-3.2979,-0.824253,-6.68069,-4.9933,2.87497,-2.04977,-2.70894,3.12224,-14.1782,0.275348,-0.360602,26.4014,1.94443,-0.267845,10.8457,1.32429,0.322352,2.52457e-14,7.7526e-15,-49.0081,-48.7267,-15.2408,12.511,12.0071,-20.7962,6.21134,7.12502,5.57109,-23.6954,2.52457e-14,7.7526e-15,-26.5033,-22.7983,66.6457,27.9055,15.0905,-21.922,34.9431,7.12502,4.48408,64.8756,-49.292,-1.14788,29.1288,58.5773,-6.90092,-20.1797,17.8156,-34.0343,4.97043,-19.5096,64.5899,14.2683,8.26045,-29.1222
1.53322,17.1109,25.096,-155.596,-8.59961,-180.531,-8.1621,-3.68239,-1.75561,-6.76586,-5.45636,2.85221,-2.02754,-2.9116,3.58497,-14.2461,0.52514,-0.247699,26.6245,2.31311,-0.304964,10.9444,1.50536,0.343587,-1.58779e-14,-1.8487e-14,-41.8928,-39.5799,-28.7691,14.5534,0.0174248,-19.5711,4.50917,7.12502,6.7539,-25.3631,-1.58779e-14,-1.8487e-14,-30.7891,-22.1553,68.8246,28.6717,18.8809,-22.1855,35.6011,7.12502,4.22964,65.5389,-48.0905,-0.441351,28.4563,58.3213,-11.0134,-20.1386,20.3004,-35.47,5.13737,-20.1197,66.2774,12.3551,7.93031,-29.3997
1.56116,17.025,24.9502,-155.461,-8.63004,-181.235,-8.10458,-4.10233,-2.72089,-6.78915,-5.95613,2.87881,-1.95763,-3.12785,4.11421,-14.3665,0.860954,-0.0317553,26.6651,2.79262,-0.516269,10.9906,1.71474,0.296598,1.14301e-14,-3.04141e-14,-38.6382,-32.1651,-37.7548,17.0884,-9.46591,-17.8902,3.83323,7.12502,8.37627,-25.9807,1.14301e-14,-3.04141e-14,-34.6544,-21.2253,70.8321,28.9088,22.3169,-22.2955,35.8684,7.12502,4.12341,65.8082,-46.9733,0.540203,27.7068,58.1243,-14.7283,-20.4173,20.4756,-36.9797,5.11276,-20.7307,67.8035,10.8435,7.4673,-28.6148
1.5842,16.9304,24.8001,-155.208,-8.68125,-181.794,-8.46701,-4.54733,-3.55132,-6.66637,-6.47869,3.0376,-1.48579,-3.36872,4.65152,-14.5025,1.22445,-0.0999591,26.6051,3.35643,-0.68048,10.9997,1.9339,0.325048,1.56543e-14,3.53837e-14,-36.8289,-26.096,-44.6002,19.9939,-17.2007,-15.9986,3.45803,7.12502,10.2015,-26.2746,1.56543e-14,3.53837e-14,-37.8335,-19.3099,72.3457,28.6164,25.0287,-22.0182,36.1846,7.12502,4.39121,66.1191,-45.9468,1.61717,27.0966,57.9187,-17.7381,-20.8058,18.4148,-38.8103,5.0016,-21.2224,69.2589,9.15353,7.15753,-28.3056
1.60354,16.8267,24.6506,-155.008,-8.61268,-182.215,-8.75879,-4.91813,-4.21879,-6.62948,-6.92298,3.31315,-1.14004,-3.57905,5.23188,-14.4561,1.47773,-0.545572,26.5969,3.90472,-0.886789,10.9872,2.11501,0.400325,4.82053e-14,-1.74931e-14,-35.9024,-20.9311,-49.8176,22.8288,-22.8759,-14.807,2.68557,7.12502,11.3509,-26.9872,4.82053e-14,-1.74931e-14,-40.9959,-17.09,73.8182,28.1193,27.655,-21.5196,35.9924,7.12502,4.87267,65.9164,-44.8716,2.82648,26.5891,57.6906,-20.598,-21.0423,19.0212,-40.6781,4.8924,-21.6543,70.6676,7.23749,6.63124,-28.1039
1.6193,16.7108,24.519,-154.731,-8.77402,-182.269,-8.56176,-4.88585,-4.22683,-6.38661,-6.84217,3.38413,-0.991705,-3.52767,5.32029,-16.462,1.41685,-0.444647,27.1698,3.84492,-1.21869,11.617,1.9988,0.287753,1.50579e-14,-2.0276e-14,-35.5973,-18.5029,-53.6668,25.425,-26.4832,-14.1566,1.4847,7.12502,11.9781,-28.1526,1.50579e-14,-2.0276e-14,-42.8625,-15.9722,75.0201,27.7325,30.5586,-20.9698,35.4066,7.12502,5.40348,65.3177,-43.9108,4.04795,26.5406,57.2865,-23.4194,-21.3988,19.9893,-42.9192,4.4507,-21.6299,72.1789,4.72568,6.66977,-26.7219
1.62292,16.585,24.4014,-154.338,-9.30445,-181.986,-8.46439,-5.12005,-3.57531,-6.61604,-7.23502,3.77914,-1.25981,-3.74359,5.35597,-16.3892,1.56699,-0.840879,26.9196,4.25214,-1.57293,11.5114,2.09372,0.279332,4.40308e-14,2.66371e-14,-35.7264,-14.653,-57.2717,28.4988,-30.4078,-13.8691,0.178176,7.12502,12.2554,-29.4427,4.40308e-14,2.66371e-14,-45.6207,-13.4904,75.8615,27.1872,32.4614,-20.2688,33.6911,7.12502,6.0803,63.5839,-43.1545,4.79772,27.0005,56.7949,-26.0161,-22.0621,15.7395,-45.5883,3.58913,-21.1732,73.8087,1.80833,6.92892,-24.1657
1.62386,16.4834,24.2701,-154.056,-9.46135,-181.397,-8.28111,-4.98822,-2.54689,-6.80785,-7.15596,3.88014,-1.66985,-3.7353,4.93481,-16.4156,1.60623,-0.672266,26.7096,4.32961,-1.93257,11.4507,2.09416,0.127074,-5.76476e-15,1.82882e-14,-36.6236,-11.6692,-60.5593,31.7905,-34.2696,-13.6259,-0.919695,7.12502,12.4898,-30.5265,-5.76476e-15,1.82882e-14,-48.426,-12.2344,76.7518,26.8476,34.2087,-19.6666,31.7537,7.12502,6.66167,61.6289,-42.2543,6.21378,27.4839,56.1159,-29.0258,-22.4733,13.7033,-48.1124,3.01298,-20.5091,75.3543,-0.952665,7.17448,-22.3264
1.61922,16.3449,24.1566,-153.649,-9.20522,-180.48,-7.99743,-4.61975,-1.23707,-7.1742,-6.8014,3.9799,-2.37221,-3.61109,4.40506,-16.6443,1.70509,-0.419142,26.7927,4.48759,-2.21473,11.5438,2.15064,0.00851513,6.66923e-14,-3.69739e-14,-37.6343,-9.46734,-63.3569,34.5662,-37.3104,-13.0588,-1.56472,7.12502,13.0365,-31.1373,6.66923e-14,-3.69739e-14,-51.5348,-11.4562,77.8463,26.774,35.797,-19.0055,30.1219,7.12502,7.29982,59.976,-41.7464,7.96373,28.072,55.4431,-31.5586,-22.6851,15.3024,-51.1816,2.67034,-19.6787,77.0025,-3.72171,7.70169,-21.986
1.59152,16.182,24.0744,-151.99,-7.45901,-178.361,-8.7384,-3.43655,1.05776,-7.87232,-5.55029,4.17693,-2.98637,-3.14735,3.42183,-16.9067,1.83324,-0.12957,26.7132,4.61763,-2.42819,11.5802,2.19845,-0.0979837,2.25124e-14,-9.93923e-15,-38.4643,-7.66832,-66.0274,37.1297,-39.9826,-12.6194,-2.4021,7.12502,13.46,-31.9472,2.25124e-14,-9.93923e-15,-54.6132,-10.3832,78.5252,27.0222,36.435,-17.9972,28.837,7.12502,8.27307,58.655,-43.0664,9.47577,29.2669,54.8442,-31.6698,-22.1981,14.5243,-56.237,3.7665,-18.5008,78.9506,-7.10592,8.26869,-23.2114
1.57409,16.0607,23.8994,-153.81,-8.89759,-177.705,-6.95539,-3.72717,2.63619,-7.34758,-5.82231,4.22924,-3.54809,-3.28505,2.71026,-17.3638,1.93479,0.0768425,26.461,4.66605,-2.57989,11.5846,2.19446,-0.180732,-1.79403e-14,-8.74653e-15,-39.076,-6.04315,-68.5956,39.7326,-42.8848,-12.1285,-2.8723,7.12502,13.9331,-32.3855,-1.79403e-14,-8.74653e-15,-57.6032,-9.431,79.1763,27.895,36.9795,-17.0441,27.8818,7.12502,9.19277,57.6614,-39.5196,9.06264,31.0772,54.0728,-33.5348,-23.4512,14.8018,-56.4979,1.74634,-16.7742,80.112,-10.3297,8.39221,-23.251
1.54077,15.9217,23.771,-153.964,-8.62586,-176.375,-6.15568,-3.19376,4.50253,-7.35559,-5.14767,4.34342,-4.17439,-3.03831,1.9013,-18.0589,1.93998,-0.00926475,26.212,4.61544,-2.60775,11.6258,2.12397,-0.180905,-6.00827e-14,1.19271e-14,-39.7886,-4.14579,-71.0803,42.8448,-46.4122,-11.7598,-3.07884,7.12502,14.2884,-32.5672,-6.00827e-14,1.19271e-14,-60.5302,-8.66683,80.0691,28.8969,38.0633,-16.0416,26.65,7.12502,10.1601,56.3847,-38.4323,9.02309,32.5875,53.5219,-34.3886,-23.7387,13.3912,-59.0568,1.12923,-15.3445,81.4618,-12.0073,9.5175,-21.2861
1.5055,15.7932,23.6411,-154.259,-8.50662,-175.547,-5.56462,-2.79233,5.8752,-6.94102,-4.5753,4.32804,-4.18082,-2.78765,1.16375,-19.0271,1.87392,-0.25495,25.592,4.39946,-2.51893,11.5686,1.95781,-0.140473,7.47927e-14,-2.66371e-14,-40.0615,-2.38263,-73.5501,46.4309,-50.3227,-11.4533,-2.5793,7.12502,14.5838,-32.0466,7.47927e-14,-2.66371e-14,-62.8264,-8.00797,80.8775,30.2946,39.6954,-15.2498,25.6476,7.12502,10.9238,55.3434,-37.0739,8.77846,33.6059,52.8866,-36.0958,-23.9595,11.3033,-61.366,0.100058,-14.3292,82.4421,-13.9876,10.3374,-22.1351
1.4598,15.6528,23.5262,-154.042,-7.95332,-174.376,-6.41198,-2.07676,7.55637,-5.86298,-3.75219,4.24308,-2.67563,-2.362,0.0520515,-20.3641,1.76989,-0.664561,24.2674,3.96986,-2.09469,11.3002,1.69664,0.00853287,2.03754e-14,4.29375e-14,-38.9305,-1.08841,-75.9938,49.5213,-53.7662,-11.3406,-1.37095,7.12502,14.6924,-30.8304,2.03754e-14,4.29375e-14,-63.8806,-7.60729,81.5591,32.2991,42.3621,-14.9698,25.3401,7.12502,11.1939,55.0214,-36.3372,8.56594,34.6495,52.2517,-37.5926,-23.2742,9.74596,-64.4569,-0.469995,-13.1176,83.4117,-16.0001,10.9764,-23.6245
1.42139,15.5303,23.3832,-154.755,-7.92177,-173.608,-4.59661,-1.7126,8.93827,-6.16991,-3.09269,4.12819,-4.07476,-2.13952,-0.688855,-20.1456,1.61174,-0.964634,23.8785,3.66753,-1.6517,11.0923,1.58715,0.16556,2.95195e-14,-2.78299e-15,-40.5342,1.32948,-78.2433,53.0588,-57.1978,-11.9158,-0.193461,7.12502,14.1382,-29.6924,2.95195e-14,-2.78299e-15,-67.6636,-7.23578,82.36,34.7165,45.2888,-14.677,24.8357,7.12502,11.4763,54.5016,-34.3537,8.3075,35.5871,51.6072,-39.5069,-22.8293,10.5392,-66.1758,-1.68151,-11.9315,83.9923,-17.4493,11.5798,-20.9808
1.35414,15.4413,23.1886,-156.384,-6.33695,-172.194,-2.82578,-0.942329,10.6393,-5.4304,-1.82977,3.95386,-4.27615,-1.53621,-1.76537,-21.0998,1.44998,-1.18273,23.5519,3.32923,-1.30959,11.1398,1.42066,0.275983,2.00773e-14,-3.77691e-14,-41.0989,3.8813,-80.5583,57.0683,-60.752,-13.1147,0.54479,7.12502,12.9826,-29.0313,2.00773e-14,-3.77691e-14,-70.2954,-6.54841,82.5464,37.2269,48.4017,-13.7633,24.4867,7.12502,12.3573,54.1015,-30.961,8.19694,36.56,50.6691,-40.8814,-21.7714,10.6776,-66.1437,-1.68293,-10.8339,84.2315,-19.4694,12.1962,-18.7131
1.34078,15.3318,23.0987,-155.482,-7.4231,-171.703,-2.92441,-0.793927,11.6573,-5.4228,-1.68053,4.06593,-4.2356,-1.51229,-2.2066,-22.7026,1.15121,-1.58138,23.3661,2.85633,-0.907308,11.3613,1.17434,0.421612,-2.44505e-14,3.53837e-14,-40.9738,6.34515,-82.5293,61.072,-64.1442,-14.2819,1.16976,7.12502,11.8573,-28.4745,-2.44505e-14,3.53837e-14,-72.1105,-5.51855,82.1561,39.7392,51.074,-12.0715,23.8191,7.12502,13.9881,53.3284,-31.209,8.18796,37.4156,49.9712,-42.134,-22.107,10.835,-70.5173,-3.33277,-9.22521,84.2991,-19.6553,12.4856,-19.888
1.30401,15.2559,22.9522,-155.909,-7.09831,-170.979,-1.9518,-0.348302,12.5459,-5.11905,-0.940733,4.0697,-4.40089,-1.17101,-2.68391,-23.7988,0.801877,-1.93396,23.2248,2.39499,-0.703477,11.51,0.932714,0.483352,4.37326e-15,-7.55382e-15,-41.2355,9.08122,-84.2319,65.0986,-68.0623,-14.6689,2.58205,7.12502,11.4841,-27.0834,4.37326e-15,-7.55382e-15,-74.248,-4.30935,81.4992,42.3916,52.9807,-9.99989,22.9525,7.12502,15.9838,52.313,-29.4501,7.96055,38.0736,49.0295,-43.0001,-21.6387,8.94935,-72.4978,-4.18068,-8.04501,83.9063,-20.3921,12.6565,-20.7462
1.27051,15.1917,22.7967,-156.312,-6.56821,-170.27,-0.924414,0.191926,13.2273,-4.95743,-0.0524637,4.07632,-4.70187,-0.769168,-3.05918,-24.527,0.763106,-2.30747,23.1164,1.86524,-0.653823,11.6031,0.427117,0.430266,-3.18055e-15,1.15295e-14,-41.5743,11.8717,-85.692,69.0733,-71.7633,-14.2293,4.14014,7.12502,11.908,-25.5012,-3.18055e-15,1.15295e-14,-76.7721,-3.3642,81.025,45.6643,54.7261,-7.79838,22.3305,7.12502,18.1028,51.508,-27.7102,7.70028,38.667,48.1199,-43.3946,-21.2682,7.53382,-74.2479,-4.71316,-6.95091,83.168,-20.8532,12.4302,-19.2294
1.24321,15.1363,22.6301,-156.656,-5.8749,-169.678,-0.11127,0.741338,13.591,-4.8552,0.821176,4.04649,-4.92583,-0.363127,-3.3169,-24.7771,0.376314,-2.5383,23.0648,1.42087,-0.625763,11.6334,0.215646,0.405767,-1.51076e-14,1.08536e-13,-41.8574,14.4251,-87.0507,72.6939,-74.1341,-13.0027,4.55406,7.12502,13.0906,-25.0151,-1.51076e-14,1.08536e-13,-79.4836,-2.39469,80.2254,49.1208,56.3221,-5.22344,21.5,7.12502,20.5787,50.4292,-25.9915,7.36143,39.0689,47.146,-43.4813,-20.5195,7.83336,-75.5554,-4.98736,-6.06966,81.9883,-21.2309,12.4167,-16.7577
1.22289,15.1451,22.4349,-156.898,-4.94786,-169.33,0.551803,1.31239,13.5109,-4.8496,1.70477,3.94641,-5.15831,0.0625708,-3.41952,-24.5744,0.00912067,-2.74109,22.8225,0.965897,-0.58609,11.5071,0.00656977,0.377133,2.06736e-14,-4.25399e-14,-42.2485,16.7563,-88.3037,76.2582,-75.9468,-11.6836,4.39326,7.12502,14.3618,-25.0899,2.06736e-14,-4.25399e-14,-82.372,-1.44961,79.1746,52.7446,57.6621,-2.84443,20.5974,7.12502,22.8633,49.2622,-24.2974,6.7874,39.0602,46.193,-43.4179,-19.3838,8.32639,-76.9851,-5.03909,-5.37206,80.425,-21.6049,12.4894,-15.688
1.20825,15.117,22.2445,-156.966,-3.99007,-168.948,1.06123,1.93732,13.2123,-4.8834,2.61945,3.93266,-5.34802,0.510421,-3.32007,-24.3622,-0.34006,-3.17241,22.584,0.554165,-0.295984,11.3797,-0.169678,0.487304,1.15295e-14,1.43125e-14,-42.5093,19.0261,-89.2828,79.975,-77.5163,-10.6438,4.17257,7.12502,15.3636,-25.2366,1.15295e-14,1.43125e-14,-85.0106,-0.526256,78.1676,56.3231,58.2507,-0.42249,19.766,7.12502,25.1856,48.1243,-22.9138,6.74727,39.0732,45.398,-43.2899,-18.4234,7.46159,-78.1374,-4.75464,-4.87451,78.6839,-21.7849,12.0747,-16.567
1.2016,15.0881,22.0575,-157.034,-2.51613,-169.291,1.62806,2.61942,11.857,-4.8204,3.61523,3.7249,-5.49996,1.0749,-2.87046,-24.542,-0.725107,-3.4775,22.4949,0.111517,-0.165042,11.387,-0.371972,0.513147,-7.15625e-15,4.37326e-14,-42.5441,20.9666,-89.9007,83.8245,-78.864,-9.58104,3.24282,7.12502,16.3871,-26.0849,-7.15625e-15,4.37326e-14,-87.3159,0.281918,77.2604,60.2329,58.7697,2.20933,19.1856,7.12502,27.7048,47.1648,-21.5345,7.41172,38.2628,44.7796,-43.0121,-18.1695,5.95326,-78.5358,-4.3187,-5.37863,76.5875,-21.442,11.0265,-17.5986
1.19863,15.1096,21.8418,-156.709,-1.45471,-169.571,1.49757,2.46513,10.7794,-4.83491,4.56488,3.4846,-5.45624,2.12494,-2.6372,-24.8943,-1.13168,-3.65221,22.5955,-0.410522,-0.00902354,11.5015,-0.59872,0.51215,2.49475e-14,7.95139e-15,-42.7859,22.6589,-90.6987,87.5966,-80.1453,-8.47971,2.09219,7.12502,17.4472,-27.1448,2.49475e-14,7.95139e-15,-89.5038,1.02981,76.0557,64.4487,59.8158,4.97648,19.2486,7.12502,30.3475,46.7724,-20.4986,7.60462,37.5745,44.1322,-42.7418,-17.6146,5.44593,-79.7631,-3.98004,-5.5038,74.2076,-19.6315,10.4905,-20.5956
1.2037,15.1298,21.6652,-156.237,-0.452708,-169.659,1.92111,3.07917,9.83868,-5.14964,5.37187,3.08584,-5.96142,2.50791,-2.61611,-25.7474,-1.56614,-3.61604,23.204,-1.09543,0.354103,11.9097,-0.857461,0.520856,5.48646e-14,-2.54444e-14,-42.9653,24.0604,-91.6762,91.0101,-81.2496,-7.03013,1.53494,7.12502,18.8418,-27.5725,5.48646e-14,-2.54444e-14,-91.3779,1.70142,74.3042,68.175,61.1571,8.46824,18.841,7.12502,33.6721,45.697,-19.9371,8.40794,37.194,43.6067,-41.8479,-17.8699,4.30549,-81.0037,-3.33388,-5.38381,71.5073,-17.7435,8.77494,-18.2029
1.19912,15.1505,21.4535,-155.669,0.102729,-169.799,1.66934,3.58602,9.24339,-5.49718,5.97185,2.59552,-6.11439,2.79813,-2.82418,-26.5995,-2.09027,-3.73353,24,-1.95123,0.992927,12.4094,-1.16629,0.623912,1.77912e-14,3.93594e-14,-42.9506,24.7822,-92.3377,94.0874,-81.8792,-4.3442,0.821545,7.12502,21.4234,-28.014,1.77912e-14,3.93594e-14,-93.1547,2.24042,72.2915,71.1577,62.094,13.4175,16.6453,7.12502,38.36,42.3457,-19.3731,8.2188,36.8161,43.0533,-40.9945,-17.4454,3.8336,-82.0071,-2.90633,-5.50482,68.6806,-15.4129,6.74419,-16.725
1.20469,15.1995,21.2367,-155.308,1.22903,-170.279,1.19893,4.22642,7.81469,-5.54811,6.624,2.0772,-5.88892,3.16514,-2.57197,-26.8403,-2.6289,-3.89027,24.2594,-2.84041,1.63263,12.5958,-1.48311,0.730097,-3.8763e-14,-1.78906e-14,-42.86,25.6334,-93.0081,97.0649,-83.7492,-2.78897,1.33604,7.12502,22.9165,-27.3221,-3.8763e-14,-1.78906e-14,-94.3322,2.90862,70.295,74.7521,64.3392,16.6605,16.5728,7.12502,41.4123,41.3567,-18.718,8.75145,35.9924,42.6721,-39.8205,-17.6301,3.23219,-82.4058,-2.22835,-6.27368,65.7289,-12.3963,5.58134,-19.7145
1.22423,15.2743,21.0184,-154.68,2.55986,-171.208,0.870439,4.81523,5.83153,-6.06202,7.2471,1.2197,-6.28629,3.51488,-2.40485,-26.5247,-3.09779,-3.71114,24.6008,-3.85252,2.31554,12.7163,-1.82977,0.775943,2.40529e-14,6.95746e-15,-43.5033,25.9423,-94.3469,99.8896,-85.5138,-1.33153,1.78913,7.12502,24.3144,-26.6887,2.40529e-14,6.95746e-15,-95.6058,3.34829,67.8141,78.055,66.1687,19.8935,16.5538,7.12502,44.4358,40.2722,-18.6035,10.2515,34.5924,42.462,-39.0637,-16.847,6.02076,-82.9061,-1.39793,-7.66781,62.884,-9.44178,4.56,-21.7662
1.23416,15.351,20.7871,-154.511,2.97028,-171.658,0.460896,5.0457,4.83161,-6.14437,7.42905,0.679663,-6.16304,3.63497,-2.3875,-26.3045,-3.47683,-3.7018,24.5642,-4.66233,3.10213,12.7115,-2.08113,0.928095,-3.56073e-14,-3.61788e-14,-43.6126,26.4501,-95.2263,102.27,-86.4252,0.646001,2.01386,7.12502,26.209,-26.1965,-3.56073e-14,-3.61788e-14,-96.1555,4.40846,65.5249,81.4437,67.7037,22.7793,17.0964,7.12502,47.1148,39.7119,-17.9997,10.8362,33.9794,42.1883,-38.5598,-15.0677,10.2317,-83.0976,-0.993685,-8.56778,60.635,-5.93458,3.25967,-22.3925
1.23016,15.4256,20.5374,-154.861,3.4305,-171.995,0.0661337,5.29234,4.09125,-5.76219,7.6026,0.261514,-5.5446,3.7441,-2.34893,-26.2034,-3.8584,-3.91602,24.2116,-5.37405,4.00063,12.6187,-2.28983,1.17754,1.73937e-16,-1.73937e-15,-43.1554,26.8312,-95.426,104.148,-86.9956,4.03006,1.67689,7.12502,29.4444,-26.0096,1.73937e-16,-1.73937e-15,-95.8155,5.87413,63.7234,84.5669,68.9795,26.2361,17.5508,7.12502,50.2935,38.618,-16.8677,9.74325,33.5954,42.2081,-36.4331,-15.2633,7.18412,-82.6929,-0.617094,-9.59254,59.1105,-3.16773,2.29464,-24.7953
1.21489,15.4735,20.2814,-155.469,4.28195,-172.023,0.205976,5.63267,3.60668,-5.50646,7.96448,-0.135606,-5.33226,3.92212,-2.49928,-26.3602,-4.17768,-3.93412,24.382,-6.06681,4.70183,12.7802,-2.50222,1.31667,7.01337e-14,-2.43511e-15,-43.0489,26.8795,-95.6764,105.585,-87.2598,9.59526,1.3764,7.12502,34.7424,-25.2394,7.01337e-14,-2.43511e-15,-94.9853,7.34799,62.2101,87.1638,70.0656,30.0066,17.5449,7.12502,53.7129,36.5752,-15.283,7.9177,33.4763,42.48,-33.0386,-16.9336,-0.901405,-82.1832,0.112647,-10.3895,58.5614,-1.2128,1.96561,-24.7445
1.20225,15.5555,20.0197,-156.417,5.43133,-172.159,0.382849,6.10666,2.97187,-5.00709,8.4744,-0.57031,-4.89206,4.17855,-2.59549,-26.3809,-4.50136,-3.72467,24.3058,-6.76703,5.16261,12.8044,-2.73088,1.32495,-3.37934e-14,-7.95139e-15,-42.7574,26.404,-95.359,107.081,-87.7011,14.9969,0.680032,7.12502,39.8487,-24.5915,-3.37934e-14,-7.95139e-15,-93.0945,8.81851,61.4997,89.272,70.3211,34.1437,16.3021,7.12502,57.3887,32.5596,-14.3499,7.22138,33.0031,43.7046,-29.8378,-17.3025,-2.38934,-80.9827,0.870511,-11.1357,58.6958,-0.378985,2.03748,-23.015
1.193,15.6038,19.769,-157.552,6.9581,-172.182,0.657996,6.67307,2.1774,-4.36477,9.11116,-0.901926,-4.39854,4.50548,-2.50602,-25.8714,-4.74464,-3.58763,23.6178,-7.34706,5.85042,12.4931,-2.90289,1.46111,-3.69243e-14,-1.98785e-15,-42.2461,25.7331,-94.498,108.346,-87.8501,20.2362,-0.791413,7.12502,44.7551,-24.3868,-3.69243e-14,-1.98785e-15,-90.3325,10.4364,61.8031,92.5732,73.0485,34.5426,18.7924,7.12502,57.738,34.7466,-13.772,6.95198,32.5196,45.9385,-25.4824,-18.4575,-6.71373,-79.4808,2.07078,-12.1674,59.6506,0.185684,2.57554,-22.0921
1.18363,15.6246,19.5195,-158.645,7.79777,-172.332,1.48246,6.88637,1.67151,-4.18198,9.33977,-1.30912,-4.66998,4.60799,-2.75413,-25.159,-4.8354,-3.51148,23.1521,-7.82722,6.83164,12.2526,-3.01938,1.73642,-1.83876e-14,5.1684e-15,-42.227,24.8011,-93.6033,109.407,-87.4683,26.2665,-2.88437,7.12502,50.3213,-23.9367,-1.83876e-14,5.1684e-15,-87.4069,11.6826,62.1904,94.9743,73.2815,36.5243,18.7872,7.12502,59.4569,33.1253,-14.1532,6.39761,32.2948,49.4995,-21.533,-18.9681,-0.659127,-78.2419,2.74809,-13.3517,61.162,0.690209,3.55618,-25.8258
1.16882,15.6191,19.2742,-159.786,7.82957,-172.487,1.75792,6.72841,1.43855,-3.5965,9.07046,-1.45119,-4.23795,4.47472,-2.74847,-25.2372,-4.88172,-3.49784,23.196,-8.16217,7.55723,12.3489,-3.0814,1.94268,3.67752e-15,-9.93923e-15,-41.2627,24.3436,-91.7655,110,-87.1417,32.4597,-5.2909,7.12502,55.9036,-22.7551,3.67752e-15,-9.93923e-15,-83.4739,13.3577,63.4282,98.3403,74.9652,40.4485,19.325,7.12502,62.7659,29.8314,-15.2284,5.09542,32.3834,54.0449,-16.1855,-21.0948,6.31551,-77.1281,2.71966,-14.2052,63.1104,1.09545,5.0075,-27.0947
1.15398,15.5836,19.0481,-161.059,7.7562,-172.627,2.36876,6.51768,1.2081,-3.35093,8.75896,-1.61332,-4.34975,4.31419,-2.83733,-25.0642,-4.82633,-3.27957,24.251,-8.56872,8.03969,12.7847,-3.19883,2.01663,-1.0297e-13,-2.3059e-14,-40.7544,23.8428,-89.9118,110.459,-86.3025,34.1438,-3.05485,7.12502,57.3888,-19.3123,-1.0297e-13,-2.3059e-14,-79.384,14.0878,65.1174,101.693,75.353,42.2912,19.6445,7.12502,64.2651,27.9992,-16.8782,3.67582,32.5429,59.4787,-9.00217,-24.2844,11.3856,-75.7405,2.54392,-14.8312,65.1966,1.20636,6.6695,-25.1955
1.13069,15.5295,18.8258,-162.428,7.60199,-172.543,2.94738,6.23639,1.29143,-2.92042,8.36722,-1.6454,-4.22958,4.11068,-2.93339,-25.3302,-4.69651,-2.95472,25.4794,-8.89809,8.35962,13.3707,-3.27246,2.02274,2.74323e-14,1.19271e-14,-39.5864,23.57,-87.374,110.775,-85.0208,35.6565,-4.24507,7.12502,58.7076,-19.3141,2.74323e-14,1.19271e-14,-74.4468,14.4803,67.4154,105.221,75.5103,42.2968,20.6369,7.12502,64.2696,28.9846,-18.7917,2.22944,32.821,65.4438,-1.2186,-26.953,16.6767,-74.0088,2.24972,-15.1262,67.1801,1.57084,8.1238,-23.5863
1.09902,15.455,18.6113,-163.871,7.45788,-172.468,3.58119,5.84204,1.43945,-2.3942,7.83496,-1.61082,-4.05183,3.84012,-2.98487,-25.6408,-4.37225,-2.39522,26.5143,-8.89174,8.3232,13.8412,-3.21642,1.91632,4.05521e-14,4.05521e-14,-37.547,23.4693,-84.2699,110.469,-84,36.456,-5.27516,7.12502,59.3982,-19.6721,4.05521e-14,4.05521e-14,-69.036,14.4462,70.0789,109.005,75.2524,41.2688,21.1883,7.12502,63.4383,30.7681,-20.9842,0.867976,33.0179,71.7507,6.86934,-29.3477,24.3391,-71.9276,1.70358,-15.2404,68.7612,2.14371,8.91141,-20.7768
1.07921,15.3933,18.3995,-165.309,7.54462,-172.506,4.22534,5.33122,1.07512,-1.82383,7.12967,-1.4679,-3.92273,3.50092,-2.63154,-26.2485,-3.76668,-1.54147,27.6468,-8.48083,7.92103,14.3636,-2.98656,1.69445,-1.01778e-13,-7.95139e-15,-34.3926,23.9764,-80.5535,109.399,-83.7013,36.0406,-4.34379,7.12502,59.04,-19.0939,-1.01778e-13,-7.95139e-15,-62.4572,14.5453,72.2293,111.329,74.5054,41.5634,22.1984,7.12502,63.6778,31.4335,-23.6189,0.0973193,33.2245,78.1873,17.9901,-31.4993,31.3256,-69.4093,1.24027,-15.3015,69.5985,-0.681835,7.40017,-25.488
1.06862,15.3756,18.1741,-166.809,7.38004,-172.494,5.19895,4.69769,0.660587,-1.587,6.26644,-1.22562,-4.33755,3.07667,-2.17941,-25.8505,-3.0643,-0.745872,28.5834,-7.94354,7.56688,14.6048,-2.75668,1.53094,-4.1546e-14,1.43125e-14,-31.3717,24.7886,-76.5934,108.162,-83.923,34.9584,-2.96755,7.12502,58.1009,-18.598,-4.1546e-14,1.43125e-14,-56.1961,14.089,73.868,113.852,73.4688,41.2598,23.0111,7.12502,63.4309,32.6015,-26.2759,-0.723606,33.6392,84.3461,29.4283,-30.8,33.0814,-66.4985,0.838215,-15.2676,69.6474,-4.04415,6.39436,-26.2859
1.05804,15.3626,17.9465,-168.321,7.06887,-172.813,6.07119,4.10969,0.00736395,-1.59342,5.43622,-1.13899,-4.93691,2.67532,-1.73638,-23.8712,-2.36991,0.16004,28.73,-7.42321,7.39848,14.1777,-2.58109,1.41955,1.51076e-14,-3.73715e-14,-28.7153,25.1891,-72.5387,106.925,-84.7152,34.6414,-3.12831,7.12502,57.8243,-19.0063,1.51076e-14,-3.73715e-14,-49.9306,12.7269,75.059,115.973,72.5281,42.0815,22.3905,7.12502,64.0966,31.0032,-29.0907,-1.81672,33.588,90.3656,36.6431,-27.4559,27.5497,-63.4008,0.6267,-15.8282,69.1431,-6.74039,5.50796,-24.4377
1.05026,15.3193,17.7346,-169.665,6.95081,-173.519,5.94069,3.52429,-1.11849,-1.13961,4.57838,-1.16872,-4.49724,2.288,-1.02936,-21.8397,-1.6504,1.2388,28.1837,-6.75179,7.29195,13.445,-2.31079,1.32333,-2.88238e-14,3.18055e-15,-24.7951,25.0231,-67.7864,105.385,-86.2756,32.188,-1.8139,7.12502,55.6625,-19.4622,-2.88238e-14,3.18055e-15,-42.7225,11.4066,75.7281,117.689,71.5716,43.0062,23.001,7.12502,64.8354,30.4495,-32.5289,-2.74647,33.0802,96.5446,42.963,-22.8814,23.23,-60.6485,0.804028,-17.0752,68.6047,-9.12344,4.84079,-22.7093
1.04126,15.2735,17.5266,-170.93,6.82804,-173.928,5.75775,2.94431,-1.92299,-0.714842,3.76684,-1.06002,-4.01656,1.90834,-0.364782,-19.4587,-1.02608,1.95728,27.3745,-6.01697,7.29641,12.5695,-2.04908,1.33321,7.15625e-14,1.90833e-14,-20.587,24.3114,-62.8681,103.664,-87.9429,34.5098,-4.77229,7.12502,57.7093,-20.7517,7.15625e-14,1.90833e-14,-35.2983,10.2167,75.9043,118.396,69.5969,44.8146,21.6312,7.12502,66.2452,26.5883,-36.2482,-3.78265,32.9249,102.604,48.0502,-16.8832,18.2366,-58.1431,1.07838,-18.0825,68.2756,-11.6647,4.45089,-20.457
1.02834,15.2352,17.3294,-172.164,6.31609,-174.519,6.79427,2.12148,-3.02494,0.233827,2.60729,-0.810303,-3.66327,1.35896,0.599093,-22.2281,-1.94551,3.28345,28.6022,-4.78208,6.14281,13.5153,-0.326383,1.13426,-8.74653e-15,5.32743e-14,-13.9154,22.9476,-57.2271,101.327,-88.3993,31.2488,-4.39708,7.12502,54.826,-22.6609,-8.74653e-15,5.32743e-14,-26.0332,9.72703,76.1837,119.205,68.7562,44.497,21.8447,7.12502,66.0012,27.2613,-40.3174,-5.25727,32.6496,108.521,51.8406,-13.706,21.1826,-55.8895,0.822237,-19.3147,68.1351,-13.9292,4.83066,-18.8639
1.01538,15.193,17.1502,-173.277,5.65274,-175.662,7.76181,1.56712,-4.41608,0.130648,1.71355,-0.906208,-4.32117,0.956669,1.34124,-20.8558,-1.65679,3.8015,28.5397,-4.31651,6.06451,13.1785,-0.0719038,1.10426,-1.5704e-14,-3.18055e-15,-9.91119,21.5664,-52.8095,98.6407,-87.3396,31.4535,-3.96156,7.12502,55.0087,-22.0939,-1.5704e-14,-3.18055e-15,-19.2305,8.46102,75.7814,119.525,68.7979,42.908,23.8064,7.12502,64.7575,31.3819,-45.0965,-6.94683,31.8739,114.502,50.1269,-18.9311,35.7198,-53.9537,-0.149091,-20.9598,68.1323,-15.7851,5.74115,-16.8016
1.0083,15.1486,16.9771,-174.315,5.14135,-176.394,8.70945,1.12708,-5.64532,0.438721,0.993429,-0.689952,-4.51498,0.635718,2.32835,-21.1861,-1.2369,4.02845,28.7193,-3.75921,5.78599,13.3001,0.157848,1.05468,-6.55989e-15,4.6118e-14,-5.01364,19.7213,-47.8753,95.5636,-86.301,30.7383,-3.81475,7.12502,54.3695,-22.3998,-6.55989e-15,4.6118e-14,-11.0887,7.29309,75.5434,119.028,67.5483,46.6229,22.1397,7.12502,67.6011,24.2869,-50.2208,-8.3351,31.7653,120.128,48.9324,-23.9494,45.9294,-52.2061,-1.2795,-21.9089,68.2171,-17.4101,6.50672,-14.1354
0.995484,15.1053,16.8131,-175.274,4.61103,-177.016,9.70818,0.688876,-6.61927,0.680322,0.275207,-0.493969,-4.7667,0.314316,3.16888,-21.2172,-0.756221,4.26687,28.6378,-3.07969,5.4719,13.2502,0.414306,1.00284,1.45113e-14,3.4191e-14,-0.774807,17.6526,-43.4618,92.4223,-85.9223,29.0833,-3.50001,7.12502,52.881,-23.0675,1.45113e-14,3.4191e-14,-3.0584,6.08044,74.8731,120.782,67.2986,47.3227,23.8394,7.12502,68.1092,24.8042,-55.8455,-9.52731,31.884,125.434,50.1108,-24.0027,44.1932,-50.6798,-2.50065,-22.7138,68.4094,-18.5535,7.21067,-12.6808
0.969627,15.1379,16.6628,-176.078,3.76412,-177.802,11.0353,0.155496,-7.25427,0.616564,-0.606654,-0.569879,-5.47977,-0.0723573,3.57904,-20.6836,-0.275293,4.59045,28.2026,-2.40807,5.34009,12.9459,0.686976,0.995993,4.57205e-15,3.97569e-15,2.1428,15.4713,-39.8189,88.8861,-86.5492,28.542,-3.23214,7.12502,52.3915,-23.1023,4.57205e-15,3.97569e-15,3.33116,4.21506,73.3587,120.632,66.7261,43.1501,23.0496,7.12502,64.9493,30.3106,-61.4573,-11.0507,31.5399,129.692,53.0591,-21.2723,37.659,-48.9156,-3.9077,-23.8098,68.2225,-19.2077,7.87469,-12.3131
0.950831,15.0765,16.5337,-176.857,2.67973,-178.89,12.5169,-0.362362,-8.4794,0.66483,-1.56187,-0.539145,-6.11466,-0.469622,4.47996,-20.4956,0.184495,4.68721,27.6167,-1.74262,5.11925,12.6571,0.899314,0.983504,6.95746e-15,-3.81667e-14,4.84592,13.2986,-36.0595,85.1844,-88.0189,28.6612,-3.18175,7.12502,52.4994,-22.986,6.95746e-15,-3.81667e-14,10.1987,3.06348,72.0031,120.126,66.1301,44.0658,23.8339,7.12502,65.6674,29.8589,-67.8169,-12.5508,30.9781,134.324,55.3238,-18.8799,32.017,-47.8089,-5.39928,-25.3126,68.547,-19.5597,8.56703,-12.8882
0.947707,15.0144,16.4135,-177.542,1.66625,-180.876,14.0508,-0.717213,-10.9892,0.810809,-2.519,-0.603457,-6.57709,-0.817113,6.03505,-20.9315,0.653032,4.88687,27.1806,-1.10424,4.56358,12.5572,1.06563,0.827063,8.94531e-15,-9.54166e-15,7.57233,10.9512,-32.3957,81.6011,-89.6726,28.5301,-3.37087,7.12502,52.3807,-23.2476,8.94531e-15,-9.54166e-15,17.0652,2.11327,70.1233,119.355,64.9427,45.5144,23.4359,7.12502,66.7768,27.3458,-75.8304,-14.1038,29.3495,138.45,59.6902,-12.2221,23.0732,-46.682,-6.75423,-27.7414,68.5876,-19.8409,9.22456,-13.3142
0.923162,15.0347,16.2601,-176.495,0.439246,-179.652,13.1684,-1.49622,-10.0103,0.919036,-3.28204,0.251222,-5.8307,-1.28007,6.49363,-21.1541,1.04568,4.92918,26.4308,-0.463549,3.8028,12.2915,1.16625,0.611173,1.21259e-14,2.38542e-15,10.2335,8.08068,-29.1126,77.6656,-90.6305,28.6463,-3.76612,7.12502,52.4858,-23.5787,1.21259e-14,2.38542e-15,23.5159,1.72538,68.1449,117.27,64.4132,46.3177,23.8797,7.12502,67.3764,26.5254,-84.141,-12.3363,31.7559,140.531,62.2374,-11.1505,23.0807,-47.3953,-7.77811,-26.5337,68.7124,-20.0562,9.09596,-12.8042
0.896013,15.1175,16.0968,-175.44,-0.748932,-179.328,13.07,-1.92292,-9.67853,0.309843,-4.0607,0.834223,-6.28982,-1.73058,7.09125,-20.8348,1.15127,4.89746,26.304,-0.0755295,3.00655,12.1696,1.20329,0.369304,3.85642e-14,-9.54166e-15,11.8084,5.90602,-26.3248,73.249,-90.2914,29.1807,-3.95537,7.12502,52.9689,-23.4674,3.85642e-14,-9.54166e-15,29.0026,0.897593,65.7691,115.359,63.5737,45.6475,25.2891,7.12502,66.877,28.9941,-91.7512,-11.8066,32.0738,141.808,63.5237,-11.0867,26.0232,-47.4705,-8.61437,-26.3121,68.0039,-19.9458,8.92151,-12.3867
0.868265,15.2515,15.934,-174.872,-1.65753,-178.951,13.4075,-2.47458,-9.34244,-0.010856,-4.71823,1.51262,-6.6665,-2.00582,7.78069,-21.3195,1.31296,4.37576,26.6194,0.416952,2.4681,12.3866,1.28779,0.339429,-4.96962e-16,0,13.7805,3.84019,-23.7138,68.6427,-89.0431,29.0067,-4.4988,7.12502,52.8118,-24.1096,-4.96962e-16,0,32.9733,0.455854,62.7168,112.329,63.1015,45.572,25.8713,7.12502,66.8202,29.6927,-98.0139,-11.4047,31.6935,141.925,65.0762,-8.82528,25.0985,-46.5917,-8.76575,-26.1258,66.6715,-19.6394,8.41645,-10.8887
0.837584,15.4459,15.7839,-174.816,-2.34819,-178.315,14.4721,-2.78393,-8.65485,-0.360644,-5.07341,2.18212,-7.56988,-2.11519,8.29553,-21.7052,1.26426,3.61743,27.0988,0.652198,2.24898,12.6488,1.29246,0.433045,-3.94588e-14,7.55382e-15,14.9248,2.30295,-21.1035,63.9545,-87.0177,29.0093,-4.74913,7.12502,52.8141,-24.3585,-3.94588e-14,7.55382e-15,36.23,-0.411594,59.0529,108.741,63.6275,44.7177,26.453,7.12502,66.171,31.5513,-102.356,-11.1604,31.0791,140.873,65.6468,-7.36096,24.8718,-44.7901,-8.40548,-25.7239,64.6,-18.7567,7.9283,-10.4389
0.79747,15.6689,15.6394,-175.094,-3.12221,-177.647,16.0375,-3.09744,-7.7062,-0.963715,-5.40734,2.85281,-9.0698,-2.17655,8.75504,-21.0007,1.1024,2.77246,27.4122,0.940636,1.81864,12.6227,1.2918,0.459296,3.21037e-14,-1.43125e-14,15.8192,1.07215,-18.9073,58.6937,-83.575,29.6884,-4.88373,7.12502,53.4266,-24.1022,3.21037e-14,-1.43125e-14,38.5757,-1.59743,55.2335,104.511,64.0463,44.1144,27.451,7.12502,65.7052,33.4082,-105.153,-11.4964,30.2013,139.152,64.9856,-5.75184,24.8215,-42.4056,-8.1982,-25.2833,62.0589,-17.6131,7.42537,-9.8409
0.751114,15.9167,15.4908,-175.461,-3.78547,-176.767,16.795,-3.3227,-6.64359,-0.822646,-5.52511,3.57683,-9.34236,-2.27062,9.05399,-20.984,1.03512,2.18078,27.3198,1.20599,1.23272,12.5779,1.25134,0.375163,1.61761e-14,-2.27608e-14,17.3227,-1.7507,-17.5335,52.6364,-79.1167,30.2737,-5.11615,7.12502,53.9529,-23.986,1.61761e-14,-2.27608e-14,41.4623,-2.34333,51.4229,99.6365,62.9847,44.6056,27.8705,7.12502,66.0849,33.131,-106.954,-11.6682,29.2717,136.739,63.2437,-4.08511,24.505,-39.7223,-7.92517,-24.5933,59.1621,-16.267,6.84933,-8.95296
0.701044,16.1806,15.3419,-175.935,-4.34895,-175.667,17.0436,-3.25019,-5.49128,-0.0782844,-5.23749,4.35744,-8.74023,-2.27315,9.17981,-22.0804,0.822184,1.92699,27.2583,1.11839,0.421271,12.7767,1.03803,0.0932787,2.5373e-14,-4.80313e-14,18.5711,-5.85238,-16.2871,46.19,-74.1419,30.278,-5.26442,7.12502,53.9567,-24.1317,2.5373e-14,-4.80313e-14,45.2022,-3.10564,47.7513,94.3757,60.0535,44.374,27.8522,7.12502,65.9063,33.4441,-107.883,-11.7545,28.4044,133.873,60.7048,-3.37341,24.9319,-36.8292,-7.77489,-23.6179,56.0412,-14.6073,6.49496,-8.71926
0.63399,16.4603,15.1837,-176.49,-4.81928,-174.759,17.5306,-3.12905,-4.20788,0.376026,-4.88789,5.00324,-8.62658,-2.20948,9.11119,-22.8196,0.560042,1.94466,27.4537,1.04891,-0.719617,13.0117,0.837297,-0.36089,-4.2689e-14,5.96354e-16,19.6028,-10.3935,-15.6388,39.427,-66.7469,30.467,-4.58884,7.12502,54.1263,-23.3411,-4.2689e-14,5.96354e-16,48.3748,-4.23805,44.0839,89.2858,55.2935,43.151,28.2789,7.12502,64.9501,35.5387,-108.103,-12.1532,27.1373,130.767,57.8266,-4.12885,27.8796,-33.7176,-7.89107,-22.9181,52.7648,-12.4839,6.74793,-10.1322
0.559352,16.7618,15.0224,-176.871,-5.31755,-173.527,18.3328,-3.03841,-2.10765,0.384714,-4.3852,5.46746,-9.27291,-2.04918,8.39364,-23.0406,0.281353,2.40074,27.6602,0.848925,-1.84957,13.1448,0.64504,-0.912963,1.00138e-13,1.98785e-14,20.4502,-16.2191,-16.1361,32.6716,-56.9969,30.2157,-3.79165,7.12502,53.9008,-22.6965,1.00138e-13,1.98785e-14,51.0267,-6.06205,39.9018,84.3138,49.1924,41.3511,28.2004,7.12502,63.5053,37.6846,-107.954,-12.4569,26.2298,127.036,54.6868,-5.50217,30.4418,-30.8983,-8.11932,-21.84,49.4257,-9.77333,7.25274,-11.8674
0.483763,17.0786,14.8697,-176.908,-6.07586,-171.964,19.2742,-3.50134,0.404341,-0.296822,-4.42641,6.2152,-10.6851,-2.13346,7.978,-21.7547,0.239065,1.99942,27.7436,1.35683,-2.68928,12.9328,0.754263,-1.07377,5.54609e-14,-1.51076e-14,22.8844,-23.2438,-18.5623,26.6576,-44.598,30.0894,-3.32836,7.12502,53.7873,-22.3092,5.54609e-14,-1.51076e-14,51.5448,-7.97679,35.2375,79.5055,42.2858,38.8792,26.4401,7.12502,61.4598,38.5908,-107.897,-12.8714,25.8824,122.821,51.8116,-6.29116,31.1597,-28.6169,-8.47066,-20.2514,46.05,-6.73686,7.55578,-10.233
0.403978,17.4144,14.7185,-176.679,-7.1424,-170.618,19.9896,-3.7908,3.21864,-0.947269,-4.11032,6.5795,-12.0435,-2.10821,6.85487,-21.5781,-0.11013,2.22504,28.2485,1.17741,-3.59185,13.1054,0.611489,-1.49227,-4.25399e-14,-1.98785e-15,23.7154,-31.9309,-20.8684,23.0667,-31.0874,29.7894,-2.37531,7.12502,53.5176,-21.5344,-4.25399e-14,-1.98785e-15,53.4036,-10.3337,30.7128,74.7814,35.0802,39.785,23.1043,7.12502,62.2167,34.3257,-107.848,-13.9115,25.4365,118.347,49.3444,-7.03312,31.6472,-26.8397,-8.62342,-18.819,42.7373,-3.1245,7.85545,-8.10524
0.323731,17.7825,14.57,-176.314,-8.40902,-169.197,20.7435,-4.40561,6.1198,-1.73821,-4.1488,7.30388,-13.5568,-2.30482,6.26785,-22.2791,-0.306935,1.29103,29.422,1.60817,-4.12457,13.7662,0.658102,-1.47533,-6.9674e-14,-1.82882e-14,27.202,-41.6277,-25.4993,20.9084,-15.8168,29.9172,-1.59811,7.12502,53.6325,-20.6816,-6.9674e-14,-1.82882e-14,54.1934,-12.1781,27.1424,70.2916,28.125,39.8878,19.711,7.12502,62.3021,30.8235,-107.398,-15.1639,25.1346,113.344,46.748,-7.74881,30.0604,-25.636,-8.13577,-17.1349,39.6446,0.93874,8.69544,0.835689
