JuanDHNZ/ProyectoFinalCD/preprocessing/sports_trials_csv/05_11.csv
root1,root2,root3,root4,root5,root6,lowerback1,lowerback2,lowerback3,upperback1,upperback2,upperback3,thorax1,thorax2,thorax3,lowerneck1,lowerneck2,lowerneck3,upperneck1,upperneck2,upperneck3,head1,head2,head3,rclavicle1,rclavicle2,rhumerus1,rhumerus2,rhumerus3,rradius1,rwrist1,rhand1,rhand2,rfingers1,rthumb1,rthumb2,lclavicle1,lclavicle2,lhumerus1,lhumerus2,lhumerus3,lradius1,lwrist1,lhand1,lhand2,lfingers1,lthumb1,lthumb2,rfemur1,rfemur2,rfemur3,rtibia1,rfoot1,rfoot2,rtoes1,lfemur1,lfemur2,lfemur3,ltibia1,lfoot1,lfoot2,ltoes1
2.7023,17.0386,26.1091,-158.376,-59.1987,176.763,-7.33742,0.930161,-5.54254,-9.65186,0.636611,-2.09433,-6.07818,0.30389,0.943955,-17.5717,-8.4936,-8.64469,25.5963,-11.5964,5.21577,12.1753,-5.59109,1.47263,1.21756e-14,-1.74931e-14,176.951,-64.1252,144.8,12.1792,104.91,-6.71979,5.0049,7.12502,19.1403,-24.0733,1.21756e-14,-1.74931e-14,-11.5094,29.6281,3.63885,17.9202,-54.1245,0.648665,29.3017,7.12502,26.2115,57.5117,-41.1433,2.58423,23.7741,40.6495,-7.19425,-21.3405,-8.63761,-17.271,-4.61033,-7.77932,29.7973,-57.5533,20.6356,38.767
2.71877,17.2225,25.9767,-157.765,-58.7281,175.981,-7.80474,0.626908,-6.14951,-9.33735,0.331401,-1.87546,-5.47495,0.187354,1.51042,-17.783,-8.11222,-8.22358,25.5997,-11.0296,4.82418,12.117,-5.34049,1.35445,-3.47376e-14,-5.96354e-14,175.297,-61.2548,147.038,12.3332,107.526,-7.17744,6.26336,7.12502,18.7002,-22.8578,-3.47376e-14,-5.96354e-14,-12.762,29.5297,2.70959,17.9398,-53.9123,0.403415,29.2789,7.12502,25.9767,57.5236,-39.8393,2.73308,23.5451,38.5475,-4.02843,-20.4583,-12.5641,-17.6538,-4.41741,-9.84077,29.732,-55.3967,21.1382,38.0129
2.74437,17.3899,25.8364,-158.038,-58.3406,176.082,-7.87277,0.584803,-6.3204,-9.22804,0.30527,-1.77906,-5.32188,0.186312,1.70653,-17.7053,-7.96801,-7.72272,25.8157,-10.932,4.52791,12.1245,-5.29547,1.18265,-5.08889e-14,7.95139e-16,175.556,-58.9401,147.522,12.5538,109.349,-7.13905,7.3512,7.12502,18.7371,-21.7664,-5.08889e-14,7.95139e-16,-13.1897,29.111,2.19253,17.8683,-53.7664,0.168587,29.2128,7.12502,25.7518,57.4903,-38.5456,2.68918,23.8868,36.5724,-0.881322,-19.0987,-15.2923,-18.1413,-3.70546,-11.3805,29.9681,-52.7437,21.6931,37.3819
2.77008,17.567,25.6857,-158.514,-58.1302,176.213,-7.3701,0.805812,-6.26223,-9.44436,0.519071,-2.01162,-5.85171,0.290762,1.43031,-16.9201,-7.99399,-6.88976,26.1014,-11.2574,4.17099,12.0201,-5.44584,0.888687,-2.68856e-14,4.69132e-14,178.277,-60.6599,145.867,12.5336,106.967,-6.78753,7.59393,7.12502,19.0752,-21.4907,-2.68856e-14,4.69132e-14,-12.5667,27.4018,2.27957,17.7804,-52.9962,-0.03521,28.9665,7.12502,25.5566,57.2721,-37.0915,3.44154,24.0446,34.7442,1.69182,-19.125,-12.021,-18.4742,-2.6343,-12.8297,30.1321,-48.2586,23.8936,35.4898
2.7987,17.7347,25.5502,-158.432,-57.7645,175.75,-6.95241,1.00878,-6.43473,-9.56954,0.724509,-2.32702,-6.24195,0.397207,1.19213,-16.5652,-7.95227,-6.9137,26.7112,-11.4817,4.62806,12.2375,-5.51921,1.02388,-1.44119e-15,1.59028e-15,180.573,-61.5366,144.434,12.4869,104.988,-6.69902,7.31622,7.12502,19.1603,-21.76,-1.44119e-15,1.59028e-15,-11.9622,25.8348,2.38576,17.6202,-52.1729,-0.0521796,28.5059,7.12502,25.5404,56.8138,-36.0244,3.47983,24.0326,33.2209,4.24128,-19.0246,-6.6959,-18.8907,-2.03929,-14.6266,30.398,-44.0735,25.0329,33.9409
2.82922,17.8817,25.4285,-158.251,-57.3365,175.183,-6.72744,1.05349,-6.77615,-9.55031,0.769395,-2.41108,-6.36428,0.441118,1.29029,-16.6814,-7.80871,-7.81542,27.6218,-11.4633,5.58463,12.7581,-5.49402,1.50846,-1.12711e-13,-2.22639e-14,181.74,-62.3412,144.058,12.4165,102.735,-6.32859,7.42057,7.12502,19.5165,-21.6199,-1.12711e-13,-2.22639e-14,-12.0183,25.4952,2.24646,17.4218,-52.3714,-0.0793743,27.9138,7.12502,25.5143,56.2254,-35.1691,2.90904,24.157,31.9951,9.36602,-17.4107,-13.4332,-19.2943,-1.68972,-16.511,30.5401,-39.9917,26.0884,31.9287
2.85767,18.0197,25.309,-158.495,-57.0662,175.123,-6.50381,1.09784,-6.74585,-9.58232,0.804146,-2.4334,-6.52712,0.45998,1.24641,-16.277,-7.63431,-8.10998,28.1401,-11.391,5.93829,12.9262,-5.48003,1.71153,-4.03533e-14,-3.26007e-14,182.813,-61.9998,143.757,12.4664,101.744,-6.05907,8.22536,7.12502,19.7756,-20.7886,-4.03533e-14,-3.26007e-14,-12.0119,23.0848,2.34914,17.4594,-50.6061,0.117803,28.2018,7.12502,25.7032,56.4863,-34.4243,2.70933,24.3675,31.1151,15.9311,-13.7296,-28.7164,-19.6328,-1.24836,-18.0139,30.5377,-35.6431,26.846,30.4409
2.89419,18.1751,25.1842,-159.072,-56.7643,175.581,-6.30179,1.2099,-6.54139,-9.63953,0.933663,-2.36918,-6.70608,0.519641,1.19657,-15.63,-7.45542,-7.60548,28.2768,-11.305,5.66871,12.7841,-5.45983,1.56486,1.28663e-13,9.78021e-14,183.918,-61.891,143.446,12.417,100.661,-5.86175,8.34596,7.12502,19.9652,-20.6484,1.28663e-13,9.78021e-14,-11.822,19.6185,2.83746,17.6567,-47.474,0.386902,28.9865,7.12502,25.9609,57.2335,-34.1483,3.59421,24.1973,30.4323,10.1044,-21.3075,15.9006,-20.0717,-0.791381,-19.1424,30.454,-31.9848,26.7797,29.2222
2.93398,18.3392,25.0585,-159.914,-56.4683,176.484,-6.15235,1.29566,-6.14676,-9.67968,1.0459,-2.15456,-6.82886,0.56481,1.1998,-15.3299,-7.29574,-7.22171,28.56,-11.1495,5.28597,12.77,-5.41979,1.39273,-3.41413e-14,2.3059e-14,183.884,-60.3502,144.25,12.5518,101.281,-5.43213,7.90064,7.12502,20.3782,-21.0501,-3.41413e-14,2.3059e-14,-11.89,17.1741,3.2241,17.8714,-45.0932,0.540754,29.5218,7.12502,26.1082,57.7471,-34.1862,4.79197,24.0216,29.9104,-1.25116,-26.1042,46.7368,-20.7014,-0.44812,-19.9584,30.4447,-28.7228,26.6346,23.7431
2.97415,18.4773,24.9388,-160.621,-56.2277,177.455,-6.229,1.24212,-5.6859,-9.72103,0.993681,-1.78302,-6.81374,0.525105,1.33539,-15.3824,-7.10683,-7.26562,29.1559,-10.8519,4.94623,12.9815,-5.3462,1.31254,-4.16951e-14,6.36111e-15,182.306,-55.9035,146.509,12.9676,105.078,-5.40294,7.40296,7.12502,20.4062,-21.5448,-4.16951e-14,6.36111e-15,-12.4607,17.1749,3.16251,17.8,-45.2664,0.518276,29.2494,7.12502,26.0867,57.4779,-34.4332,5.88587,23.9898,29.5961,-5.76384,-27.6102,49.5277,-21.5915,-0.145624,-20.6742,30.4774,-25.9671,26.543,26.6424
3.01382,18.572,24.8228,-161.001,-55.9097,178.168,-6.5226,1.21374,-5.319,-9.70227,0.985808,-1.50561,-6.61563,0.503874,1.42804,-15.4256,-6.92252,-7.13603,29.5595,-10.5665,4.57893,13.1021,-5.26113,1.1935,6.26172e-14,2.90226e-14,181.823,-55.4658,147.543,13.0672,104.715,-5.31799,6.15396,7.12502,20.4879,-22.7851,6.26172e-14,2.90226e-14,-12.918,17.7881,3.06175,17.7009,-45.4917,0.370684,28.811,7.12502,25.9454,57.0602,-34.5053,5.60901,24.49,29.408,-17.235,-23.5043,58.0497,-22.6883,0.243723,-21.5372,30.6981,-23.1847,26.562,25.4689
3.0485,18.6689,24.7101,-161.397,-55.5657,178.936,-6.81119,1.29618,-4.78905,-9.74319,1.10462,-1.31384,-6.48661,0.530551,1.33976,-15.1325,-6.76527,-6.95413,29.6776,-10.3475,4.27745,13.0407,-5.20029,1.0952,1.30701e-14,-1.63003e-14,182.712,-58.5553,147.289,12.9189,100.906,-4.8628,6.13655,7.12502,20.9252,-22.7548,1.30701e-14,-1.63003e-14,-13.0698,18.024,3.1482,17.6662,-45.2731,0.540428,28.6224,7.12502,26.1079,56.8478,-34.7311,4.68685,25.1058,29.3898,-27.7525,-4.77238,62.888,-23.7715,0.404186,-22.3169,30.985,-21.1988,26.0381,26.1952
3.07261,18.7587,24.6116,-161.751,-55.3764,179.85,-7.2395,1.30858,-3.8863,-9.78969,1.12137,-1.06853,-6.26575,0.480791,1.10178,-15.1445,-6.55599,-6.899,30.0192,-10.017,3.97693,13.139,-5.09663,1.02174,-5.76476e-14,-6.36111e-15,182.647,-59.4363,147.968,12.861,99.3644,-4.85543,6.90179,7.12502,20.9323,-21.9888,-5.76476e-14,-6.36111e-15,-13.4758,17.8493,3.22938,17.7683,-44.5591,0.422562,28.626,7.12502,25.9951,56.868,-35.2038,3.82122,25.6486,29.5159,-22.8459,15.9294,52.5956,-25.0664,0.854787,-23.037,31.3212,-18.5908,25.8399,26.8757
3.09991,18.8293,24.5234,-161.687,-55.0406,180.254,-7.58361,1.33043,-3.22845,-9.80921,1.14644,-0.849444,-6.07484,0.452122,0.970762,-15.1803,-6.38107,-7.07772,30.2749,-9.68314,3.77914,13.2297,-5.00143,1.02669,-4.55714e-14,-1.59028e-15,181.583,-57.4262,149.7,13.0276,100.872,-4.75963,7.692,7.12502,21.0243,-21.1884,-4.55714e-14,-1.59028e-15,-14.0002,19.1632,3.21954,17.7448,-45.1681,0.171827,28.2999,7.12502,25.7549,56.5769,-35.801,3.42831,25.6759,29.8031,-2.75619,27.1547,-2.47492,-26.2797,1.23174,-24.0883,31.5645,-16.2362,25.8619,26.115
3.14344,18.8833,24.4092,-161.964,-54.3665,180.832,-7.78127,1.50632,-3.00978,-9.79843,1.39031,-0.583953,-5.96119,0.567646,1.13499,-14.975,-6.30379,-7.01039,30.372,-9.54294,3.50018,13.1958,-4.98047,0.937437,-4.03533e-14,-1.59028e-14,181.623,-59.3873,150.253,12.7683,97.9093,-4.71087,7.21197,7.12502,21.0712,-21.6632,-4.03533e-14,-1.59028e-14,-14.1718,20.4289,3.37811,17.6832,-45.9044,0.119482,27.9746,7.12502,25.7048,56.2589,-36.2339,3.23985,25.9256,30.2142,-1.48907,26.8467,-10.656,-27.1153,1.72854,-24.885,31.7813,-15.1825,25.2766,27.1038
3.18955,18.9243,24.3087,-162.55,-53.7716,181.807,-7.79829,1.70025,-2.38802,-9.86221,1.63494,-0.225387,-6.01652,0.661277,1.16826,-14.5847,-6.1743,-7.11253,30.3465,-9.34182,3.39933,13.0887,-4.93374,0.963012,-6.02318e-14,1.43125e-14,183.416,-67.2194,149.042,12.2648,89.7783,-4.3223,6.58684,7.12502,21.4444,-22.2463,-6.02318e-14,1.43125e-14,-14.464,21.2248,3.63291,17.6754,-46.3747,-0.0511125,27.8398,7.12502,25.5414,56.1476,-36.84,2.56638,26.5458,30.7839,0.0804207,26.6577,-21.1025,-27.9304,2.01744,-25.338,31.9371,-14.8372,24.6032,28.7233
3.22806,18.9552,24.2133,-163.151,-53.2296,182.588,-7.73662,1.78737,-1.69536,-9.74283,1.75532,0.13654,-5.90819,0.693991,1.16209,-14.475,-5.9674,-7.15911,30.2237,-8.93453,3.14584,12.9757,-4.79343,0.947628,4.43041e-14,-3.18055e-15,187.096,-76.5188,145.631,12.0206,80.4283,-4.36786,5.84752,7.12502,21.4007,-22.9906,4.43041e-14,-3.18055e-15,-14.9713,22.1157,3.74641,17.6328,-46.9027,-0.55658,27.5031,7.12502,25.0572,55.8794,-37.288,1.72294,26.986,31.3885,3.44129,26.5056,-33.194,-28.4751,2.72488,-25.9376,32.0489,-13.0518,24.2001,27.1646
3.26209,18.9792,24.1208,-163.733,-52.5727,183.26,-7.65002,1.96074,-1.05631,-9.58712,1.99171,0.410416,-5.77761,0.78666,1.09573,-14.4016,-5.86043,-7.13872,30.0972,-8.69166,2.89636,12.8775,-4.71487,0.893897,5.55293e-14,-5.36719e-15,185.239,-75.8763,147.936,12.249,81.2251,-4.57512,6.17458,7.12502,21.2016,-22.686,5.55293e-14,-5.36719e-15,-15.2373,22.8899,3.99518,17.6996,-47.204,-0.686684,27.2644,7.12502,24.9325,55.658,-37.6215,1.32433,27.1036,31.8894,9.7649,25.63,-44.0242,-28.8674,3.42866,-26.5496,32.1632,-10.9775,23.7354,24.0366
3.29968,18.9966,24.0324,-164.717,-51.8577,184.393,-7.38415,2.27162,-0.073769,-9.55788,2.38565,0.562561,-5.8649,0.928237,0.708079,-13.9631,-5.74276,-6.61654,29.8803,-8.58561,2.5691,12.6422,-4.66364,0.719136,-4.14342e-14,2.11706e-14,184.056,-73.3835,149.458,12.5172,83.6878,-4.90046,6.79728,7.12502,20.8891,-22.0981,-4.14342e-14,2.11706e-14,-15.0393,23.0985,4.28682,17.7123,-47.1735,-0.908444,27.0933,7.12502,24.72,55.5162,-37.9112,1.50572,27.2821,32.2622,18.4992,21.8083,-51.2127,-29.1601,3.58831,-26.6659,32.2356,-10.1018,23.1501,21.6488
3.34765,19.0059,23.9347,-166.35,-51.1881,186.084,-6.84729,2.50426,1.10721,-9.44759,2.69934,0.944266,-6.0114,1.02867,0.437722,-13.6549,-5.5771,-6.13221,29.6604,-8.34606,2.14225,12.4264,-4.56467,0.53115,-2.2477e-14,-1.24737e-14,182.093,-71.0406,151.699,12.5978,86.0501,-5.4811,7.41938,7.12502,20.3311,-21.5364,-2.2477e-14,-1.24737e-14,-15.2554,23.0773,4.43218,17.7347,-47.3525,-1.99932,26.5337,7.12502,23.674,55.0959,-37.9071,2.6047,27.5465,32.5138,25.946,14.5346,-52.771,-29.2358,3.60523,-26.1529,32.3149,-8.63712,23.0132,16.5102
3.3934,19.0073,23.83,-167.827,-50.5515,187.497,-6.31572,2.63751,2.03015,-9.2369,2.90672,1.45181,-6.06479,1.09952,0.439553,-13.5719,-5.39073,-5.89715,29.6026,-7.99704,1.68493,12.3337,-4.44429,0.379124,3.88997e-14,8.74653e-15,179.246,-67.1287,154.839,12.689,90.0683,-6.1108,8.0409,7.12502,19.7258,-20.9782,3.88997e-14,8.74653e-15,-15.8216,23.44,4.51198,17.7616,-47.8596,-3.55093,25.725,7.12502,22.1851,54.4719,-37.7713,3.66349,27.5948,32.5917,30.0448,6.66151,-50.5409,-29.1488,3.25731,-25.6131,32.414,-8.55304,22.757,14.0244
3.44567,18.9858,23.7095,-168.455,-49.5435,187.879,-5.81145,2.7548,2.02128,-9.06417,3.10995,1.7957,-6.18365,1.2209,0.786629,-13.466,-5.14017,-5.78202,29.5991,-7.63775,1.54681,12.2813,-4.29613,0.366517,-1.32813e-14,-3.3197e-14,178.303,-67.7396,155.924,12.6619,89.4642,-6.46382,8.18322,7.12502,19.3864,-20.8704,-1.32813e-14,-3.3197e-14,-16.3838,23.5398,4.51351,17.9764,-48.0624,-3.85103,25.6374,7.12502,21.897,54.4183,-37.7479,5.10753,26.8611,32.5593,31.8859,2.97806,-49.2301,-29.0998,2.91099,-25.7296,32.5409,-9.67485,22.7123,13.1819
3.46634,18.9649,23.6345,-169.629,-49.5051,188.881,-5.2022,2.6237,3.35533,-8.8841,2.96497,2.11311,-6.28704,1.07896,0.356102,-13.6792,-4.83441,-5.97378,29.8621,-7.18424,1.6236,12.4234,-4.11184,0.483887,-1.25408e-13,1.11319e-14,176.932,-62.4083,157.342,12.8601,95.0505,-7.28005,9.46333,7.12502,18.6015,-19.6673,-1.25408e-13,1.11319e-14,-16.9885,22.1986,4.79059,18.5267,-47.3387,-2.66444,26.9445,7.12502,23.036,55.5878,-37.4975,4.28847,26.9688,32.4314,32.4872,3.05377,-49.6351,-28.9055,2.62717,-25.603,32.6459,-9.52898,22.8308,9.88033
3.497,18.9318,23.5379,-170.476,-49.1111,189.422,-4.67742,2.64396,4.00242,-8.64451,3.03985,2.36448,-6.30979,1.09398,0.241837,-13.7984,-4.67837,-6.24398,30.0643,-6.98988,1.89133,12.5446,-4.02754,0.652303,-2.74944e-14,3.12092e-14,175.925,-46.8554,158.439,13.9588,110.913,-8.79433,11.9487,7.12502,17.1444,-17.3149,-2.74944e-14,3.12092e-14,-17.5492,23.8156,4.47404,18.1621,-48.0829,-4.22253,25.223,7.12502,21.5403,54.0452,-37.2537,4.31772,26.5417,32.2988,33.4797,1.59359,-49.4717,-28.6054,2.52157,-25.7011,32.6598,-8.89665,23.1582,6.21724
3.53122,18.886,23.4318,-171.195,-48.5658,189.837,-4.25556,2.8163,4.45181,-8.40975,3.31387,2.44945,-6.27346,1.21782,0.0652062,-13.5589,-4.63042,-5.77908,29.8451,-7.03039,1.83836,12.3832,-4.00146,0.559235,-4.47017e-14,-3.97569e-15,176.771,-47.5779,158.011,13.9936,110.249,-9.26297,12.1258,7.12502,16.6933,-17.1764,-4.47017e-14,-3.97569e-15,-17.4595,23.9461,4.74409,18.1553,-47.8758,-4.7615,24.5903,7.12502,21.0225,53.4709,-37.1084,5.16968,25.7735,32.1824,33.1804,-0.221769,-48.9542,-28.2495,2.49746,-25.8176,32.5325,-8.40153,23.5601,3.22094
3.55876,18.8218,23.3303,-171.618,-48.1503,189.959,-3.91882,2.8006,4.87891,-8.1731,3.32964,2.52797,-6.19378,1.2149,-0.101139,-13.4318,-4.46745,-5.41692,29.5459,-6.80962,1.66882,12.2026,-3.87965,0.478023,4.25772e-14,-1.63003e-14,183.14,-77.426,151.562,12.7244,80.2243,-7.90797,8.41486,7.12502,17.9974,-20.7724,4.25772e-14,-1.63003e-14,-17.7313,23.4396,4.82777,18.3092,-46.9353,-4.81176,24.6671,7.12502,20.9743,53.5531,-37.1803,5.82855,24.7207,32.1903,33.5361,2.12045,-51.5266,-27.8168,2.12519,-26.1407,32.1723,-8.67753,24.1377,1.96342
3.58333,18.7491,23.2319,-171.65,-47.8674,189.684,-3.67102,2.70129,5.02586,-8.00975,3.22499,2.6568,-6.16395,1.16577,-0.0558578,-13.3625,-4.27421,-5.879,29.4662,-6.49926,1.96707,12.1735,-3.75585,0.716708,-5.76476e-15,-1.35174e-14,183.056,-77.5599,151.793,12.749,80.3201,-8.0921,8.64355,7.12502,17.8202,-20.56,-5.76476e-15,-1.35174e-14,-18.3069,23.9262,4.7419,18.372,-46.9748,-4.91452,24.4176,7.12502,20.8755,53.3144,-37.451,6.02695,23.3877,32.2849,32.9788,5.80453,-52.9192,-27.3347,1.63629,-26.7592,31.6516,-10.3448,24.3742,6.45537
3.6053,18.6719,23.1277,-171.761,-47.6919,189.372,-3.42794,2.60418,5.10838,-7.831,3.12484,2.72588,-6.11436,1.12371,-0.0368836,-13.2157,-4.1152,-6.02226,29.4178,-6.27906,2.07465,12.1226,-3.66502,0.818019,4.98577e-14,1.47101e-14,183.53,-76.3523,151.541,12.7319,81.8242,-8.4065,9.43874,7.12502,17.5177,-19.792,4.98577e-14,1.47101e-14,-18.6469,23.5878,4.89621,18.5507,-46.1048,-5.08851,24.3614,7.12502,20.7084,53.2765,-37.6681,5.93332,22.0946,32.4971,28.4988,-19.5854,-33.4483,-26.543,1.32334,-27.3867,30.8938,-12.8715,24.373,13.3523
3.63209,18.5797,23.0118,-172.088,-47.4504,189.484,-3.33815,2.58564,5.44403,-7.68379,3.11108,2.71188,-5.99227,1.10603,-0.239268,-12.9007,-3.97931,-5.61669,29.1879,-6.17672,2.01019,11.9419,-3.58688,0.751575,-8.94531e-15,-1.98785e-15,185.455,-76.0175,149.607,12.65,81.9716,-8.26419,9.67456,7.12502,17.6546,-19.5439,-8.94531e-15,-1.98785e-15,-18.5188,20.9337,5.58678,19.1665,-43.315,-4.49447,25.8168,7.12502,21.2791,54.6687,-38.034,5.74677,21.2635,32.7528,4.06878,-34.0314,27.1324,-25.7977,1.85746,-27.8471,29.9694,-14.373,25.0736,17.3887
3.65811,18.4819,22.8906,-171.974,-47.1087,189.127,-3.33825,2.60935,5.3667,-7.58304,3.14551,2.63565,-5.88137,1.13421,-0.276139,-12.649,-3.86971,-5.37093,29.0614,-6.08672,1.9815,11.8251,-3.52884,0.720114,-8.00978e-14,-1.98785e-15,190.245,-78.3707,144.768,12.5007,79.1673,-8.1393,8.96662,7.12502,17.7748,-20.241,-8.00978e-14,-1.98785e-15,-18.3266,17.8806,6.53431,20.0583,-40.493,-3.23758,28.1793,7.12502,22.4859,56.8901,-38.4326,5.9745,19.846,32.8902,-27.2072,-26.2124,58.123,-25.0582,2.76753,-28.7019,29.0629,-16.1742,25.4273,21.8269
3.67898,18.3802,22.7721,-171.375,-46.8108,188.263,-3.53436,2.59439,4.88868,-7.47141,3.11311,2.55919,-5.66789,1.15463,-0.0835598,-12.3246,-3.77183,-5.1238,28.7553,-5.95448,1.82323,11.6181,-3.46244,0.651107,-2.57799e-14,-4.65156e-14,193.355,-78.8542,141.802,12.4001,78.2456,-8.01074,8.89164,7.12502,17.8985,-20.3047,-2.57799e-14,-4.65156e-14,-18.3446,16.8041,7.12988,20.4644,-39.239,-2.76787,29.3732,7.12502,22.9367,58.0288,-38.8487,6.61329,17.7491,32.8191,-29.6951,-24.3431,58.7019,-24.4605,3.40855,-29.8047,28.3558,-17.1303,25.7265,22.5984
3.70313,18.2654,22.6618,-171.441,-46.6436,188.421,-3.76576,2.66756,5.23983,-7.4014,3.18566,2.54796,-5.44202,1.17567,-0.279648,-11.8823,-3.70219,-4.56002,28.2958,-5.89429,1.54894,11.3179,-3.40657,0.482117,8.61607e-14,1.43125e-14,194.009,-76.8332,141.353,12.4805,79.9381,-7.69104,9.1462,7.12502,18.2061,-20.0218,8.61607e-14,1.43125e-14,-18.1272,17.0751,7.37502,20.4253,-39.0752,-3.06567,29.1475,7.12502,22.6509,57.8383,-39.204,6.82703,16.5879,32.4613,-33.6487,-20.4864,60.1519,-24.0795,4.07235,-30.0805,27.9455,-16.1511,26.3713,18.4421
3.73088,18.1492,22.5463,-171.861,-46.5175,189.224,-4.05886,2.76331,5.95641,-7.39931,3.26869,2.7215,-5.24762,1.17818,-0.481542,-11.6386,-3.62472,-4.4696,28.0024,-5.77902,1.51604,11.148,-3.34611,0.481295,-3.48867e-14,-3.33958e-14,192.696,-73.5112,143.035,12.509,83.1141,-7.52758,9.22372,7.12502,18.3634,-19.9295,-3.48867e-14,-3.33958e-14,-18.0932,16.8253,7.66019,20.4926,-38.7501,-3.2246,29.1023,7.12502,22.4984,57.8117,-39.4914,7.46682,15.7879,31.8718,-37.8668,-15.5378,61.3573,-23.8298,5.41085,-29.9936,27.7454,-14.2813,26.631,10.5545
3.78946,18.0342,22.4317,-172.488,-45.9388,190.196,-3.78732,2.8784,6.50317,-7.41946,3.43606,3.02584,-5.40865,1.22667,-0.476115,-11.6663,-3.48721,-4.75421,27.8125,-5.54338,1.72105,11.0888,-3.23665,0.637636,-7.02952e-14,-1.66979e-14,191.289,-70.6058,144.593,12.4848,85.8688,-7.8352,8.87581,7.12502,18.0674,-20.305,-7.02952e-14,-1.66979e-14,-18.3582,16.9075,7.74878,20.5145,-38.5441,-3.53156,28.8602,7.12502,22.2037,57.6049,-39.7706,9.89814,14.6561,31.0315,-42.1019,-11.6389,62.0482,-23.7289,6.13697,-29.4522,27.8448,-14.6996,26.8178,6.27719
3.82562,17.9279,22.3078,-172.105,-45.6078,189.844,-3.87156,2.9119,6.21419,-7.46638,3.4736,2.95079,-5.41781,1.25776,-0.392275,-11.311,-3.43035,-4.80126,27.311,-5.4874,1.95236,10.8349,-3.18181,0.751072,7.9166e-14,-1.11319e-14,192.927,-69.6215,142.907,12.4366,86.4675,-8.29472,8.45272,7.12502,17.6252,-20.7684,7.9166e-14,-1.11319e-14,-18.3504,17.2192,7.87157,20.4681,-38.7642,-3.91129,28.8371,7.12502,21.8391,57.6248,-39.9611,11.2693,12.7267,30.1869,-44.8128,-10.4335,62.3507,-23.5351,6.04966,-29.6735,27.9614,-16.8331,26.9383,5.42213
3.84859,17.8229,22.1848,-171.769,-45.5155,189.574,-5.28209,2.62175,5.389,-6.57286,2.96602,3.51217,-3.76406,1.12531,0.702984,-11.8511,-3.2778,-4.87054,26.2489,-4.96745,1.65988,10.5206,-2.92453,0.731445,-1.06188e-13,-6.36111e-15,187.361,-64.7327,148.508,12.4758,90.8387,-8.63092,8.27633,7.12502,17.3017,-20.9735,-1.06188e-13,-6.36111e-15,-19.2957,19.4496,7.95503,20.2617,-39.69,-4.525,28.7076,7.12502,21.2497,57.5628,-40.0133,11.3957,11.277,29.372,-46.7963,-9.63437,62.3747,-23.2843,6.16571,-29.8361,28.0449,-18.6415,26.9448,3.5222
3.87407,17.7136,22.0639,-171.448,-45.3798,189.327,-5.8702,2.54907,5.14488,-6.32924,2.82359,3.52194,-3.19308,1.08318,0.867556,-11.7953,-3.18213,-4.51537,25.6092,-4.81319,1.56346,10.2563,-2.80806,0.667175,1.45858e-13,1.74931e-14,187.994,-63.9665,147.685,12.4506,91.1908,-8.25242,8.06712,7.12502,17.6659,-21.1503,1.45858e-13,1.74931e-14,-19.5108,18.8286,8.07151,20.315,-38.8575,-4.66914,28.6762,7.12502,21.1113,57.5469,-40.0819,10.9279,10.1423,28.6782,-48.8685,-6.5309,62.2344,-22.9896,6.42947,-29.9502,28.0052,-19.754,26.8373,1.36783
3.91073,17.612,21.9332,-171.275,-45.2504,189.178,-5.77624,2.38935,4.98935,-6.49299,2.62495,3.45292,-3.42429,0.979949,0.870937,-11.7624,-2.97255,-4.24693,25.5723,-4.59402,1.62469,10.2222,-2.67679,0.672008,1.95865e-14,-1.11319e-14,188.852,-62.6053,146.479,12.468,92.7323,-7.93694,8.00541,7.12502,17.9695,-21.1845,1.95865e-14,-1.11319e-14,-19.9662,17.5865,7.81694,20.4832,-37.9587,-4.74384,28.7621,7.12502,21.0395,57.6408,-40.027,11.2652,8.95938,28.0261,-51.6393,-0.431355,62.2128,-22.6457,6.77536,-29.8169,27.968,-20.5838,26.4262,-0.256039
3.93655,17.5016,21.8322,-170.741,-45.0725,188.713,-5.52015,2.34429,5.0099,-6.77909,2.58704,3.19975,-3.85626,0.939551,0.585909,-11.9783,-2.85822,-4.19046,25.7557,-4.50284,1.8337,10.331,-2.60761,0.741952,-3.60297e-15,1.59028e-15,190.812,-62.6183,144.278,12.408,92.679,-7.24971,7.56355,7.12502,18.6306,-21.5643,-3.60297e-15,1.59028e-15,-20.1605,17.3035,7.5632,20.4302,-38.2689,-4.76107,28.7306,7.12502,21.023,57.6112,-40.2523,10.9613,7.63731,27.4885,-53.7523,1.5728,62.0875,-22.4333,6.43967,-29.9226,27.8356,-22.7041,26.1218,0.927064
3.96861,17.3945,21.7239,-170.06,-44.9173,187.827,-5.35991,2.2881,4.55524,-6.80365,2.54995,2.92858,-3.97661,0.940561,0.549833,-12.578,-2.82066,-3.93094,25.9877,-4.47489,1.81515,10.5249,-2.56248,0.683447,4.44159e-14,1.94809e-14,192.882,-62.9733,142.033,12.3438,91.9418,-5.83893,7.10575,7.12502,19.9872,-21.8863,4.44159e-14,1.94809e-14,-20.1688,17.993,7.39829,20.2253,-39.2104,-4.65884,28.5711,7.12502,21.1212,57.4407,-40.3889,10.7271,5.99026,27.1135,-55.9117,0.793585,62.1405,-21.9629,6.30442,-30.2965,27.5617,-24.7537,25.7201,2.10487
4.00029,17.2916,21.6033,-169.145,-44.9053,186.556,-5.31223,2.14125,3.72696,-6.81368,2.39268,2.62873,-4.0333,0.900826,0.693184,-12.9839,-2.77214,-3.64512,26.0728,-4.42066,1.72021,10.6243,-2.51215,0.601457,3.58931e-14,8.34896e-15,191.385,-58.2656,143.624,12.5897,96.8941,-4.53122,6.87499,7.12502,21.2438,-21.9808,3.58931e-14,8.34896e-15,-20.2838,17.8572,7.30116,20.2237,-39.2238,-4.25037,28.6009,7.12502,21.5135,57.4262,-40.3791,10.1115,4.27491,26.8943,-57.4637,1.37089,62.3232,-21.3473,6.31013,-30.9236,27.1639,-26.3267,24.9925,3.68104
4.0383,17.2012,21.4786,-168.098,-44.8271,185.101,-5.17399,1.95955,2.68725,-6.85008,2.19538,2.34105,-4.17546,0.849525,0.965145,-13.4475,-2.66574,-3.41815,26.1796,-4.25245,1.56902,10.7404,-2.42124,0.523468,1.0517e-13,-1.23246e-14,189.209,-51.8709,145.988,12.8884,104.213,-3.30322,6.10446,7.12502,22.4229,-22.614,1.0517e-13,-1.23246e-14,-20.5742,17.7303,7.05019,20.1735,-39.103,-3.92034,28.6212,7.12502,21.8305,57.4099,-40.4022,9.36839,2.62544,26.8192,-58.5101,2.55048,62.4077,-20.7358,6.37864,-31.6757,26.6573,-27.2364,24.6387,3.55175
4.08658,17.1258,21.3496,-166.859,-44.6678,183.438,-5.02306,1.81002,1.41809,-6.92108,2.03706,1.98883,-4.36481,0.826682,1.30085,-13.7726,-2.58615,-3.19886,26.1306,-4.13424,1.48364,10.7755,-2.34501,0.467898,5.04478e-14,2.90226e-14,189.266,-48.9819,146.085,13.0072,107.801,-1.50988,5.73762,7.12502,24.1434,-22.7631,5.04478e-14,2.90226e-14,-20.7567,17.9076,6.68728,20.0406,-39.2617,-3.74603,28.6903,7.12502,21.9978,57.4594,-40.5504,9.09172,0.663449,26.8316,-59.9254,4.1515,62.4259,-20.1964,6.24333,-32.5238,26.0992,-27.8199,24.7018,2.34953
4.13427,17.0643,21.2138,-165.42,-44.7402,181.598,-5.04303,1.59999,0.00820034,-7.03546,1.78081,1.64252,-4.50537,0.759646,1.72685,-14.0019,-2.51631,-3.2506,26.15,-4.00829,1.50947,10.8262,-2.28345,0.49975,7.76378e-14,8.34896e-15,190.466,-48.1117,145.191,13.1354,109.244,0.183921,6.24485,7.12502,25.7665,-22.0305,7.76378e-14,8.34896e-15,-20.9226,18.4959,6.27093,19.8738,-39.9067,-3.46192,28.7041,7.12502,22.2706,57.4408,-40.6003,8.76826,-1.43378,26.8467,-61.5142,5.31003,62.4516,-19.6991,5.77253,-33.4381,25.5547,-28.5521,24.6463,2.52044
4.17537,17.0196,21.0717,-164.211,-44.6955,180.077,-5.11754,1.48043,-1.09747,-7.1647,1.62858,1.3033,-4.62166,0.72807,1.99354,-14.0428,-2.48709,-3.25441,26.1077,-3.93046,1.42212,10.8145,-2.25605,0.479652,-1.46983e-13,-2.50469e-14,193.074,-50.311,142.676,13.1527,107.716,1.86312,6.21218,7.12502,27.3737,-21.8198,-1.46983e-13,-2.50469e-14,-21.0063,18.8655,5.85272,19.7208,-40.4448,-3.11919,28.6386,7.12502,22.5996,57.3357,-40.585,8.12217,-2.9516,26.8081,-62.6776,5.56158,62.4565,-19.2085,5.7581,-34.1452,25.0432,-29.0747,24.3842,2.59074
4.21598,16.9966,20.9361,-163.079,-44.5327,178.734,-5.30696,1.41389,-2.03584,-7.2002,1.54915,1.03878,-4.57407,0.726084,2.24762,-13.9443,-2.5225,-3.14516,25.6966,-3.8857,1.12343,10.6328,-2.2489,0.367035,5.26904e-14,-1.35174e-14,193.51,-48.871,142.544,13.3401,109.771,2.4158,6.62744,7.12502,27.9022,-21.3198,5.26904e-14,-1.35174e-14,-21.0815,20.0332,5.41911,19.4268,-41.5265,-2.87595,28.6332,7.12502,22.833,57.3017,-40.6486,7.7833,-4.3991,26.7353,-63.9557,5.7914,62.4265,-18.8001,5.60825,-34.6991,24.5362,-29.3405,24.2544,2.42267
4.25974,16.9863,20.7948,-162.141,-44.3557,177.442,-5.43974,1.33798,-3.05711,-7.14461,1.47022,0.78794,-4.46579,0.729604,2.56149,-13.636,-2.50081,-2.64541,25.0194,-3.78673,0.58991,10.2997,-2.20408,0.120638,4.30493e-15,2.3059e-14,189.283,-35.8453,147.753,14.8732,123.787,1.31538,7.62252,7.12502,26.8497,-20.4911,4.30493e-15,2.3059e-14,-21.1306,20.9655,5.06578,19.2381,-42.4234,-2.56453,28.9948,7.12502,23.1318,57.6261,-40.5027,7.61938,-5.72845,26.6028,-65.2509,6.68766,62.4544,-18.2815,5.76499,-35.1644,24.0881,-29.183,23.9125,2.098
4.30572,16.9892,20.6405,-161.602,-44.2275,176.649,-5.38899,1.23601,-3.71924,-7.38161,1.31222,0.527884,-4.75231,0.674368,2.65851,-12.8864,-2.36364,-2.19525,24.6603,-3.67136,0.389269,10.0088,-2.14101,0.00494168,3.38431e-14,5.96354e-15,199.783,-53.6415,136.144,13.1113,104.757,3.53375,4.47256,7.12502,28.9705,-23.2963,3.38431e-14,5.96354e-15,-21.2907,20.6654,4.47477,19.312,-42.2928,-2.40477,29.4285,7.12502,23.2851,58.0404,-40.274,7.55626,-6.5157,26.4693,-66.2377,7.78099,62.461,-17.7305,6.10277,-35.1594,23.6511,-28.9208,23.3291,2.37665
4.35601,17.0117,20.4781,-161.436,-44.0261,176.347,-5.25047,1.19449,-4.0621,-7.69671,1.21352,0.327802,-5.16699,0.636101,2.63794,-12.2556,-2.22457,-2.19552,24.5751,-3.57123,0.606194,9.85968,-2.08508,0.102506,-9.06334e-14,-2.54444e-14,193.749,-41.5523,142.934,14.4384,118.306,2.77919,3.03255,7.12502,28.2495,-24.8578,-9.06334e-14,-2.54444e-14,-21.4101,20.1719,3.83873,19.448,-41.869,-2.32317,29.8397,7.12502,23.3634,58.4417,-40.1195,7.84685,-6.87114,26.4172,-67.1777,9.18637,62.3992,-17.1676,6.14849,-34.7162,23.1741,-28.3997,23.4442,1.06868
4.402,17.0457,20.3152,-161.3,-43.8076,175.952,-5.22804,1.16391,-4.47019,-7.61496,1.18186,0.189555,-5.10124,0.637974,2.72217,-12.7073,-2.16546,-2.37256,24.7278,-3.46371,0.751131,10.0058,-2.02834,0.188327,7.00716e-15,2.3059e-14,197.599,-47.0525,138.443,13.8521,112.095,3.42775,1.73276,7.12502,28.8692,-26.0534,7.00716e-15,2.3059e-14,-21.4712,21.4027,3.24035,19.2768,-42.7421,-2.44734,29.7827,7.12502,23.2443,58.3999,-39.8378,8.14234,-7.13278,26.4683,-67.8659,10.282,62.4371,-16.4322,6.35468,-34.3483,22.6604,-27.46,23.6614,-1.41044
4.44113,17.0819,20.1636,-160.92,-43.5371,175.46,-5.39891,1.1615,-4.84353,-7.56591,1.19135,0.107321,-4.96566,0.655548,2.84861,-12.8887,-2.10079,-2.48033,24.6377,-3.31011,0.708914,10.007,-1.9642,0.209978,-1.3977e-14,-4.73108e-14,198.452,-47.0527,137.667,13.7681,112.089,3.33764,1.87483,7.12502,28.7831,-25.926,-1.3977e-14,-4.73108e-14,-21.6727,22.5347,2.80547,19.0875,-43.8543,-2.30867,29.7265,7.12502,23.3773,58.3267,-39.7711,8.11886,-7.36523,26.5864,-68.0757,10.6984,62.7341,-15.887,6.38055,-34.1675,22.1433,-26.5427,23.9455,-2.63285
4.47176,17.1319,20.0146,-160.656,-43.4704,175.229,-5.6186,1.18273,-4.84991,-7.7025,1.20509,0.0269051,-4.98797,0.654468,2.77151,-12.7036,-2.03034,-2.53988,24.6502,-3.19895,0.661637,9.97409,-1.92901,0.21922,8.72168e-15,2.74323e-14,198.157,-45.1053,138.371,13.9346,114.608,3.1926,2.48198,7.12502,28.6446,-25.3423,8.72168e-15,2.74323e-14,-21.7553,22.4465,2.61195,19.0679,-43.8082,-1.44657,29.9804,7.12502,24.2041,58.473,-39.6717,8.14314,-7.36021,26.8189,-68.4749,10.4816,62.7647,-15.347,5.85435,-33.7529,21.5718,-25.7526,24.6617,-3.74567
4.48863,17.1935,19.8574,-160.617,-43.6922,175.307,-6.13983,1.22968,-4.44801,-7.6669,1.27685,-0.0570188,-4.64502,0.655835,2.4697,-12.85,-2.07575,-2.7749,24.8628,-3.25269,0.80325,10.0869,-1.96227,0.297512,-5.5113e-14,-2.8625e-14,198.219,-43.9249,138.383,14.158,116.001,2.92626,2.3582,7.12502,28.3901,-25.5088,-5.5113e-14,-2.8625e-14,-21.5541,21.6485,2.81701,19.0899,-42.8457,-0.65312,30.4226,7.12502,24.9647,58.8117,-39.3382,7.81069,-6.8163,27.1005,-68.5529,10.3911,62.7545,-14.764,5.17444,-33.0278,21.017,-24.6065,25.6413,-6.17147
4.50726,17.2614,19.6935,-160.664,-43.8788,175.347,-6.47936,1.29858,-4.22406,-7.73841,1.365,-0.0101229,-4.53075,0.683017,2.4008,-12.5793,-2.1854,-3.4156,25.0457,-3.34504,0.981024,10.1187,-2.05756,0.457262,-9.75784e-14,-5.96354e-15,198.227,-42.79,138.622,14.4184,117.743,2.34094,2.61133,7.12502,27.8306,-25.3475,-9.75784e-14,-5.96354e-15,-21.7306,22.9705,2.42895,18.6217,-44.0162,-1.07525,29.1554,7.12502,24.5601,57.6001,-38.799,6.64089,-5.74171,27.325,-67.9116,9.92908,62.7653,-14.1793,4.52241,-32.2977,20.6857,-23.6892,26.3731,-7.96496
4.54012,17.3392,19.5185,-160.941,-44.0227,175.56,-6.64781,1.25689,-4.1773,-7.82385,1.31002,0.254548,-4.52977,0.657773,2.65166,-12.289,-2.1493,-4.20247,25.165,-3.17911,1.0906,10.1192,-2.05536,0.65102,-1.18774e-13,1.27222e-14,198.532,-42.867,138.542,14.4659,118.632,1.82391,3.28553,7.12502,27.3362,-24.7523,-1.18774e-13,1.27222e-14,-22.1554,21.8731,2.93464,19.0888,-43.5226,-0.519643,30.2408,7.12502,25.0926,58.6121,-38.1308,6.22342,-4.65403,27.4708,-68.0095,9.07381,62.6768,-13.6055,3.79342,-31.3249,20.5655,-23.3029,26.7962,-8.7887
4.56575,17.407,19.3784,-161.209,-43.9337,175.954,-6.98315,1.23348,-3.60546,-7.69399,1.28477,0.376688,-4.18373,0.614128,2.46472,-12.7055,-2.02456,-4.34928,25.3302,-2.87375,0.832351,10.2502,-1.95534,0.617033,3.93594e-14,1.98785e-14,199.482,-44.9249,137.047,14.233,116.91,1.74468,3.45305,7.12502,27.2604,-24.5967,3.93594e-14,1.98785e-14,-22.7204,21.275,2.94273,19.34,-42.4399,-0.857236,30.8804,7.12502,24.769,59.2965,-37.7198,4.53091,-3.06013,27.4669,-66.9073,6.94206,62.5528,-13.5605,3.01593,-30.4911,20.8196,-22.7046,27.7615,-10.1019
4.60023,17.4883,19.1917,-162.099,-44.2492,176.858,-7.29976,1.21341,-3.14351,-7.54222,1.27,0.666586,-3.83668,0.589303,2.51296,-12.7196,-2.01892,-4.37835,25.4438,-2.81685,0.63614,10.2909,-1.95952,0.558272,5.53367e-14,1.94809e-14,200.435,-46.0744,135.804,14.0881,115.978,1.4668,3.22394,7.12502,26.9946,-24.8673,5.53367e-14,1.94809e-14,-22.9433,21.1845,2.94484,19.3919,-41.6813,-1.26674,30.9313,7.12502,24.3765,59.4009,-36.6613,3.97935,-1.1668,27.3886,-66.5404,6.48089,62.6826,-13.2887,2.93031,-28.9958,21.3398,-21.9415,27.9705,-10.1837
4.63185,17.5617,19.0329,-162.781,-44.4616,177.826,-7.20321,1.517,-2.11498,-7.92748,1.58938,0.661827,-4.2807,0.692739,1.93855,-12.1101,-2.13143,-4.4159,25.7529,-3.07135,0.664998,10.2933,-2.10548,0.545229,-7.82218e-14,-5.56597e-15,203.045,-47.9378,133.114,13.9139,114.208,0.990082,3.02002,7.12502,26.5384,-25.141,-7.82218e-14,-5.56597e-15,-22.5639,20.4098,3.27184,19.4185,-40.8688,-1.77928,30.9511,7.12502,23.8851,59.4859,-35.9331,2.56365,0.926489,27.2352,-65.192,4.8085,63.1493,-13.5358,2.52726,-27.5972,22.1525,-21.7466,28.2575,-9.43226
4.6683,17.6307,18.8667,-163.137,-44.5665,178.072,-6.81667,1.79912,-1.63552,-8.33863,1.90144,0.493457,-4.92355,0.812738,1.49184,-11.462,-2.22237,-4.67086,26.0881,-3.31629,0.92327,10.306,-2.24474,0.652326,-5.45912e-14,-7.95139e-16,207.5,-51.6726,128.099,13.566,110.16,0.871407,2.35055,7.12502,26.4248,-25.8276,-5.45912e-14,-7.95139e-16,-22.4554,23.6445,2.02949,18.5196,-43.7663,-3.19582,28.1378,7.12502,22.526,56.8438,-34.9997,0.826374,2.55862,27.0791,-63.48,2.82104,63.2846,-13.688,2.41822,-26.7338,23.1413,-21.1034,28.435,-9.8191
4.71167,17.6954,18.6924,-163.555,-44.6888,178.294,-6.67157,1.92888,-1.51505,-8.53352,2.05182,0.52653,-5.21564,0.878164,1.4564,-10.967,-2.23583,-4.94307,26.3053,-3.3692,0.979787,10.2975,-2.31291,0.7149,-5.66039e-14,-2.26615e-14,209.347,-52.8652,125.94,13.485,109.463,0.810759,2.2939,7.12502,26.3667,-25.893,-5.66039e-14,-2.26615e-14,-22.5177,24.7042,1.6025,18.276,-44.4574,-3.73147,27.3139,7.12502,22.0118,56.0813,-33.9948,-0.979286,4.23787,26.9541,-61.4113,1.39104,63.3731,-13.8511,2.60305,-25.8529,24.2438,-20.0254,28.5688,-10.5062
4.75985,17.7521,18.516,-164.131,-44.7571,178.987,-6.81742,2.04882,-1.09262,-8.71403,2.17654,0.548658,-5.31375,0.9079,1.24876,-10.4877,-2.23875,-5.01858,26.4746,-3.49592,1.21628,10.2754,-2.37376,0.799513,3.4837e-14,1.23246e-14,208.494,-51.2999,126.605,13.6998,112.406,0.206667,3.20828,7.12502,25.7883,-25.0639,3.4837e-14,1.23246e-14,-22.3962,24.0043,1.50678,18.4238,-43.4268,-3.70196,27.7435,7.12502,22.0401,56.5076,-33.2891,-2.53285,6.19495,26.9556,-58.8826,-1.19419,63.4561,-14.1855,2.8371,-24.6087,25.2247,-19.7003,28.6617,-9.35948
4.80729,17.7988,18.339,-164.179,-44.8699,178.962,-6.96104,2.0774,-1.05318,-8.89275,2.18407,0.35375,-5.41551,0.894027,1.02696,-10.2448,-2.21015,-5.12776,26.8394,-3.5862,1.52014,10.3721,-2.41673,0.913478,7.20843e-14,1.35174e-14,210.28,-52.9726,123.652,13.5104,111.592,-0.0324771,3.11787,7.12502,25.5593,-25.1874,7.20843e-14,1.35174e-14,-22.1682,22.9048,1.31289,18.5322,-42.0796,-3.69115,28.0558,7.12502,22.0505,56.8186,-32.5667,-3.73361,7.30566,26.9228,-56.2167,-4.41996,63.2147,-14.6022,3.05268,-23.9193,26.2276,-19.2111,28.7539,-7.43882
4.86353,17.8412,18.1386,-164.009,-44.8784,178.403,-7.03355,2.02242,-1.79757,-9.00092,2.11396,0.207347,-5.51862,0.893944,1.28934,-10.0289,-2.13612,-5.19381,27.173,-3.57552,1.6753,10.456,-2.42429,0.98002,1.09332e-15,6.55989e-15,214.19,-56.6025,118.061,13.1439,108.533,-0.259321,2.11702,7.12502,25.342,-26.2192,1.09332e-15,6.55989e-15,-22.1266,21.7913,1.11127,18.6891,-40.7785,-3.79131,28.4267,7.12502,21.9544,57.2009,-31.5484,-3.81527,7.60849,26.8282,-54.3685,-6.12134,62.9475,-14.7477,3.65622,-23.5663,27.1487,-18.4991,28.3561,-4.10856
4.92623,17.8775,17.9566,-163.778,-44.6786,178.244,-7.32224,2.12439,-2.20769,-9.16495,2.23222,0.0242972,-5.55201,0.961073,1.33659,-9.84404,-2.08465,-4.8307,27.3953,-3.64346,1.73298,10.4967,-2.42882,0.930218,3.80176e-15,1.19271e-15,214.757,-56.896,116.454,13.0314,109.344,-1.01554,2.42221,7.12502,24.6173,-26.0147,3.80176e-15,1.19271e-15,-21.8703,21.4304,0.789976,18.7443,-40.226,-3.66406,28.7638,7.12502,22.0765,57.5236,-31.0576,-3.18265,7.98353,26.7002,-53.2817,-5.75043,62.8674,-15.2748,4.11993,-23.0254,27.8974,-18.541,28.165,2.22699
4.98933,17.9124,17.7776,-163.47,-44.3943,177.974,-7.65363,2.12056,-2.68112,-9.22886,2.22626,-0.11215,-5.45503,0.973468,1.46775,-9.89833,-1.98124,-4.6192,27.6004,-3.58216,1.80905,10.5772,-2.37939,0.925847,-4.18939e-14,-4.33351e-14,209.809,-53.3595,120.808,13.3754,114.885,-1.93541,3.22428,7.12502,23.7353,-25.33,-4.18939e-14,-4.33351e-14,-22.0052,21.0267,0.232385,18.8568,-39.5967,-3.58891,29.1105,7.12502,22.1487,57.8617,-30.6497,-1.92157,8.03974,26.5289,-52.6571,-7.20201,62.4793,-15.7432,4.42941,-22.6132,28.5089,-18.0259,28.5098,8.15899
5.04916,17.9477,17.5908,-163.191,-44.2455,177.692,-7.90494,2.05121,-3.07225,-9.35962,2.11992,-0.301391,-5.46421,0.927211,1.49204,-9.90676,-1.82074,-4.58674,27.8813,-3.47679,2.09467,10.683,-2.30984,1.03248,8.50923e-14,-9.93923e-17,204.976,-48.5283,124.953,13.964,121.589,-2.95615,3.95545,7.12502,22.756,-24.7225,8.50923e-14,-9.93923e-17,-22.159,19.8009,-0.320038,19.0843,-38.2095,-3.66838,29.3676,7.12502,22.0724,58.1279,-30.1932,-0.642396,8.09176,26.3288,-52.575,-8.92707,62.0209,-16.1603,4.91592,-22.1888,29.0466,-16.476,29.0632,13.6125
5.11,17.9771,17.4008,-162.765,-44.0931,177.463,-8.34352,2.1216,-3.52688,-9.54918,2.19438,-0.569033,-5.4437,0.967148,1.47917,-9.84833,-1.78995,-4.5094,28.027,-3.5751,2.45013,10.7339,-2.31506,1.13426,4.07509e-15,8.17502e-15,202.204,-44.2686,127.093,14.4585,127.03,-3.75754,4.487,7.12502,21.9868,-24.2834,4.07509e-15,8.17502e-15,-21.7803,18.9394,-0.634938,19.2256,-37.1977,-3.67624,29.8331,7.12502,22.0648,58.5943,-30.0172,0.433169,8.30824,26.2179,-52.8516,-8.68535,61.9218,-16.7122,5.56704,-21.7633,29.3885,-14.8064,29.1719,17.252
5.17101,17.9966,17.2206,-161.938,-43.7547,176.851,-9.24564,2.23351,-4.35482,-9.40037,2.40733,-0.840751,-4.83287,1.09708,1.696,-10.2215,-1.93231,-4.73984,27.9151,-3.78095,2.84898,10.7875,-2.3666,1.28985,8.71515e-14,4.25648e-14,200.877,-42.8548,127.406,14.3957,128.668,-3.72864,4.31928,7.12502,22.0145,-24.4478,8.71515e-14,4.25648e-14,-21.3683,20.0847,-0.924392,19.1235,-37.6852,-3.83777,29.9583,7.12502,21.9097,58.7377,-30.1346,1.16927,8.29245,26.207,-52.7485,-9.11709,61.6894,-17.3649,5.83824,-21.739,29.5452,-13.5301,29.2747,17.2477
5.23028,18.009,17.0458,-161.189,-43.5173,176.244,-10.3403,2.15811,-5.23356,-8.9366,2.45763,-0.946349,-3.7861,1.14883,2.12397,-10.8085,-2.01976,-4.89843,27.4623,-3.78553,3.02311,10.7419,-2.32136,1.37713,-8.86455e-15,-1.63997e-15,198.482,-41.0147,128.566,14.3876,131.132,-3.94783,4.83939,7.12502,21.8041,-23.9523,-8.86455e-15,-1.63997e-15,-21.4065,21.9869,-1.39527,19.0208,-38.4896,-3.81981,30.1609,7.12502,21.927,58.9383,-30.175,1.7123,8.35203,26.2989,-52.4342,-10.0785,61.2652,-17.9261,5.80052,-21.6551,29.5579,-12.8654,29.1969,15.4819
5.28527,18.0159,16.8685,-160.697,-43.3385,175.976,-9.18502,2.89843,-4.90363,-10.4602,3.06733,-2.14935,-6.03392,1.37208,0.630091,-8.7453,-2.225,-4.1191,27.6382,-4.67177,3.62882,10.4354,-2.66886,1.37175,-1.27769e-13,-2.34566e-14,202.815,-42.1403,123.463,14.2245,130.364,-4.21786,5.6791,7.12502,21.5447,-23.1426,-1.27769e-13,-2.34566e-14,-19.2362,18.3313,-1.28967,19.2615,-36.7307,-3.83086,30.4744,7.12502,21.9164,59.253,-30.1962,2.13529,8.7696,26.4705,-52.0903,-10.5451,60.8456,-18.4476,5.72943,-21.2715,29.4115,-13.2965,28.3098,15.6936
5.34288,18.0181,16.7039,-160.143,-43.0366,175.523,-9.61353,2.99816,-5.34745,-10.5193,3.1991,-2.48853,-5.88484,1.43655,0.542237,-8.48543,-2.24851,-4.15353,27.3617,-4.78284,3.98656,10.2972,-2.68451,1.49661,-7.23079e-14,-1.27222e-14,201.661,-41.2598,122.926,14.3472,131.903,-4.15115,5.87404,7.12502,21.6088,-22.9403,-7.23079e-14,-1.27222e-14,-19.0311,18.0338,-1.63166,19.2594,-36.4674,-4.03124,30.7127,7.12502,21.724,59.5138,-30.2555,2.11996,9.1223,26.608,-51.3031,-12.2611,60.1938,-19.0485,5.58051,-21.1562,29.1708,-13.8071,27.5545,14.7474
5.39536,18.0212,16.5535,-159.505,-42.6963,174.905,-11.4592,2.41754,-6.62829,-9.29607,2.83975,-1.88451,-3.64886,1.33555,1.9777,-9.72661,-2.08995,-5.04135,26.5425,-4.12405,4.02794,10.2279,-2.37937,1.73236,3.93345e-14,1.94809e-14,196.431,-40.0048,125.953,14.2704,134.539,-3.38787,5.44821,7.12502,22.3417,-23.28,3.93345e-14,1.94809e-14,-20.872,21.4018,-2.40362,19.0116,-38.1443,-4.22091,30.588,7.12502,21.5418,59.41,-30.3284,1.65715,9.35711,26.6598,-49.9056,-15.4887,59.0384,-19.7413,5.19251,-21.2836,28.908,-15.0246,27.7507,13.5284
5.44311,18.0278,16.4121,-159.298,-42.609,174.763,-9.86132,3.12957,-6.05107,-10.7793,3.3338,-2.87798,-6.08033,1.51293,0.528483,-7.77475,-2.25447,-5.12741,26.7687,-4.86444,4.99383,9.99507,-2.71829,2.02154,-3.18055e-14,-1.15295e-14,200.081,-41.378,121.431,14.0312,133.703,-2.91784,5.65685,7.12502,22.7928,-23.0166,-3.18055e-14,-1.15295e-14,-19.1862,17.9419,-2.10588,19.1894,-36.8359,-4.34013,31.0216,7.12502,21.4273,59.8567,-30.1922,1.54495,9.86067,26.6901,-48.9455,-17.6315,58.0094,-20.4234,4.95997,-21.0312,28.6433,-16.7033,27.883,13.3265
5.48603,18.0384,16.2713,-159.447,-42.7204,174.998,-10.711,2.94688,-5.88067,-10.1006,3.26723,-2.72352,-4.85536,1.47533,0.659438,-8.48397,-2.26374,-5.40819,26.3285,-4.69726,5.0869,9.97238,-2.60926,2.11471,-1.25284e-13,2.90226e-14,194.585,-33.9583,125.381,15.1512,142.535,-4.24351,6.87524,7.12502,21.5201,-21.9492,-1.25284e-13,2.90226e-14,-19.832,20.3942,-2.65224,18.9745,-38.211,-4.29692,31.039,7.12502,21.4688,59.8694,-29.7984,1.74015,10.641,26.6287,-48.4944,-19.1256,57.1569,-21.0665,4.74709,-20.4575,28.4407,-18.8343,27.6156,13.7025
5.53188,18.0382,16.1259,-159.47,-42.7302,174.842,-10.9426,2.91929,-5.97947,-9.79953,3.29716,-2.87813,-4.40061,1.48926,0.575568,-8.6487,-2.26591,-5.20523,26.1286,-4.70053,5.12633,9.92823,-2.57249,2.09167,-5.14355e-14,-5.1684e-14,191.64,-27.9747,126.637,16.2384,150.024,-6.28063,8.65264,7.12502,19.5626,-20.3832,-5.14355e-14,-5.1684e-14,-19.8997,21.689,-3.03915,18.7223,-39.0444,-4.1261,30.8069,7.12502,21.6329,59.6184,-29.2098,1.77786,11.162,26.4603,-47.8655,-20.5591,56.313,-21.6367,4.39135,-20.2175,28.3608,-22.6636,27.0546,16.9185
5.57834,18.0413,15.9862,-159.867,-42.7945,175.236,-10.7918,2.97335,-5.75023,-9.8333,3.34476,-2.85559,-4.50427,1.50543,0.467465,-8.47807,-2.24417,-5.14039,26.1365,-4.68237,5.06131,9.89375,-2.57162,2.06148,7.91163e-14,1.07344e-14,189.424,-22.1313,127.426,17.5358,157.444,-8.13491,10.301,7.12502,17.779,-18.9063,7.91163e-14,1.07344e-14,-20.0484,21.3977,-3.16671,18.6829,-38.6788,-3.88047,30.9292,7.12502,21.8687,59.7134,-28.6169,2.01473,12.0433,26.2306,-46.7999,-23.0751,54.8218,-22.3544,4.2057,-19.601,28.3834,-25.7489,26.7439,20.148
5.62743,18.0436,15.8652,-160.475,-42.7361,175.949,-9.29578,3.58325,-4.82074,-10.875,3.82584,-3.35155,-6.37895,1.66246,-0.660071,-7.1734,-2.39679,-4.684,26.4331,-5.21309,5.204,9.77229,-2.82847,1.9879,1.88845e-15,1.74931e-14,190.296,-21.0381,125.701,17.8784,159.185,-7.73878,10.4535,7.12502,18.1602,-18.7188,1.88845e-15,1.74931e-14,-18.9262,18.6733,-2.73342,18.8293,-37.0184,-3.77592,31.1571,7.12502,21.9691,59.9295,-28.1417,2.6343,12.9663,25.9991,-46.3333,-24.4555,53.8953,-23.2339,4.15228,-18.8336,28.506,-27.0672,27.1991,20.9767
5.67535,18.0483,15.7417,-161.132,-42.9795,176.401,-9.64095,3.42408,-4.65184,-10.1021,3.79442,-3.0006,-5.34355,1.68136,-0.335092,-7.73345,-2.45453,-4.45808,25.8766,-5.05193,4.71995,9.65338,-2.73363,1.79237,1.49089e-15,-3.26007e-14,187.964,-21.9302,125.043,17.3988,158.803,-6.42567,10.1815,7.12502,19.4231,-18.8684,1.49089e-15,-3.26007e-14,-19.6016,20.7858,-2.77641,18.7057,-37.6337,-3.55831,31.1731,7.12502,22.178,59.9209,-27.2801,3.44324,13.6884,25.7156,-46.5201,-25.3473,53.1782,-23.9627,4.12483,-18.2196,28.7553,-27.876,27.3749,22.1113
5.72371,18.0475,15.6255,-161.724,-42.9911,176.719,-9.71104,3.38687,-4.561,-9.4738,3.87709,-2.70097,-4.63563,1.75428,-0.0408363,-8.62817,-2.55594,-5.00073,25.8017,-4.99599,4.75975,9.81136,-2.71184,1.89497,3.22528e-14,-2.90226e-14,185.796,-22.0221,124.652,17.1436,159.888,-6.05812,10.6545,7.12502,19.7765,-18.3594,3.22528e-14,-2.90226e-14,-20.1735,22.353,-2.7478,18.6218,-38.0703,-3.17812,31.3327,7.12502,22.543,60.0367,-26.4524,3.7396,14.3881,25.4137,-45.6638,-26.5202,52.123,-24.7261,4.12463,-17.8225,29.1073,-29.5565,27.0294,24.9344
5.77158,18.0406,15.5189,-162.356,-42.9529,177.252,-9.52371,3.42596,-4.20556,-9.148,3.97818,-2.43414,-4.37727,1.81345,0.0475529,-9.13944,-2.57008,-5.51843,25.6726,-4.85335,4.83126,9.87096,-2.65907,2.01966,5.91881e-14,5.96354e-15,183.665,-19.698,124.57,17.5061,163.863,-6.52543,11.3633,7.12502,19.3272,-17.6963,5.91881e-14,5.96354e-15,-20.7046,22.7214,-2.62242,18.66,-37.6445,-2.53323,31.757,7.12502,23.1619,60.3845,-25.7953,3.63147,15.316,25.1726,-44.4688,-27.0244,51.5237,-25.6604,3.88795,-17.2426,29.4737,-31.7386,26.2321,28.4934
5.8134,18.0363,15.4138,-162.915,-43.1092,177.97,-9.39943,3.57918,-3.56754,-9.05076,4.1717,-2.36377,-4.29567,1.88791,-0.224342,-8.96481,-2.58382,-5.15691,25.1401,-4.80614,4.55592,9.62855,-2.61758,1.87002,2.54941e-14,-6.63941e-14,182.659,-20.778,123.515,17.1094,164.328,-5.65031,11.7305,7.12502,20.1685,-17.2425,2.54941e-14,-6.63941e-14,-20.6491,23.4222,-2.48471,18.6387,-37.7328,-1.76962,31.792,7.12502,23.8943,60.3255,-25.3643,3.60256,16.3153,25.0015,-42.7471,-28.5938,49.8379,-26.8561,3.65153,-16.5194,29.8372,-33.5484,25.1194,31.8024
5.84599,18.0324,15.3165,-163.299,-43.3011,178.398,-9.35755,3.80264,-3.13174,-8.91184,4.47275,-2.41556,-4.13248,2.02288,-0.499289,-8.8693,-2.78891,-4.79496,24.7877,-5.06505,4.33533,9.48527,-2.71698,1.70496,3.49364e-14,3.69739e-14,181.615,-21.3444,122.722,16.8624,164.59,-4.08643,12.2742,7.12502,21.671,-16.5329,3.49364e-14,3.69739e-14,-20.2466,24.6423,-2.2158,18.5587,-38.2925,-1.23136,31.6702,7.12502,24.4104,60.1351,-24.9673,2.84649,17.1392,24.8615,-40.1426,-30.1142,47.5801,-28.0145,3.42582,-16.087,30.1454,-34.6492,24.0697,34.3463
5.87476,18.0286,15.2273,-163.535,-43.3745,178.534,-9.2998,4.00082,-2.91872,-8.73922,4.75525,-2.44438,-3.96106,2.16236,-0.627722,-8.9246,-2.98321,-5.00101,24.7104,-5.31864,4.47851,9.49224,-2.83221,1.76064,-2.66371e-14,-2.54444e-14,180.188,-21.0587,122.2,16.9748,165.242,-2.88336,12.7148,7.12502,22.8259,-15.9546,-2.66371e-14,-2.54444e-14,-19.9662,25.5008,-1.86564,18.46,-38.4163,-0.807927,31.7515,7.12502,24.8163,60.1611,-24.5193,1.87711,17.7074,24.6963,-37.5919,-31.0385,45.701,-29.0952,3.116,-15.9367,30.3745,-35.7651,23.1522,36.4167
5.90584,18.0286,15.1331,-163.734,-43.3995,178.706,-9.31108,4.09212,-2.8051,-8.55315,4.90732,-2.30546,-3.75908,2.24687,-0.529419,-9.2344,-3.01081,-5.48808,24.7093,-5.28077,4.6892,9.56862,-2.82266,1.91668,3.06128e-14,2.66371e-14,178.551,-20.8543,121.874,16.8447,166.052,-1.71839,13.1118,7.12502,23.9435,-15.4152,3.06128e-14,2.66371e-14,-20.1297,26.5407,-1.73612,18.4178,-38.9039,-0.203601,31.8234,7.12502,25.3953,60.1521,-24.1087,1.63207,18.183,24.5056,-36.4475,-31.4731,44.8221,-30.1531,2.52895,-15.6576,30.517,-37.6846,21.3339,39.4671
5.93896,18.0347,15.0364,-164.087,-43.3903,179.083,-9.27526,4.22442,-2.66821,-8.41667,5.10718,-2.07765,-3.64317,2.35635,-0.355236,-9.439,-2.99458,-5.72315,24.649,-5.16454,4.65162,9.58543,-2.78113,1.95469,-3.88127e-14,-5.1684e-15,177.201,-21.8448,121.595,16.1965,165.594,-0.169368,13.4483,7.12502,25.4281,-14.8756,-3.88127e-14,-5.1684e-15,-20.2609,28.0907,-1.68153,18.2381,-40.184,0.249038,31.7125,7.12502,25.8289,59.9787,-23.6932,2.03334,18.7196,24.2674,-35.0482,-33.0559,42.4152,-31.1281,1.51292,-15.0386,30.6268,-38.7038,20.8813,40.5858
5.97047,18.042,14.9492,-164.459,-43.2776,179.49,-9.1937,4.45481,-2.47653,-8.33956,5.42194,-1.94452,-3.60387,2.51567,-0.308639,-9.46422,-3.10883,-5.94791,24.6079,-5.27383,4.66946,9.58977,-2.8456,1.98635,-1.21805e-13,-3.77691e-14,176.067,-24.4936,121.235,15.3605,162.918,1.81892,13.7831,7.12502,27.3314,-14.2555,-1.21805e-13,-3.77691e-14,-20.0577,28.8016,-1.40275,18.0188,-40.8093,0.66891,31.6213,7.12502,26.2309,59.8284,-23.2494,2.47937,19.2757,23.9112,-33.8324,-34.3395,40.1094,-32.1253,0.644771,-14.4602,30.7563,-39.5761,20.4946,42.1664
5.99834,18.048,14.8718,-164.608,-43.1575,179.845,-9.14645,4.71012,-2.13693,-8.43303,5.73166,-2.01294,-3.69029,2.65087,-0.556164,-9.31627,-3.24592,-5.94502,24.638,-5.52173,4.79485,9.59098,-2.9536,2.00277,-9.81996e-14,-2.3059e-14,175.18,-27.5844,120.642,14.4244,159.647,3.27482,14.0921,7.12502,28.7231,-13.7189,-9.81996e-14,-2.3059e-14,-19.5177,27.772,-0.916287,17.9804,-39.781,1.01174,31.9342,7.12502,26.5591,60.0921,-23.0203,2.64378,19.7794,23.5001,-32.9636,-34.8689,39.5691,-33.3734,-0.0823337,-14.0101,30.9172,-40.7251,19.4473,44.3078
6.02566,18.0475,14.7698,-165.323,-43.2906,180.34,-8.87064,4.85852,-1.86729,-8.32214,5.93557,-1.97156,-3.69952,2.7517,-0.666869,-9.14554,-3.39763,-5.67882,24.5619,-5.77604,4.71651,9.53684,-3.05928,1.90388,-6.15736e-14,-1.23246e-14,174.095,-29.5329,120.321,13.6578,157.699,4.60014,14.5372,7.12502,29.9885,-13.0522,-6.15736e-14,-1.23246e-14,-18.8984,26.1816,-0.310311,18.108,-38.2695,1.41542,32.5464,7.12502,26.9454,60.6453,-22.0945,2.73723,20.5255,23.0908,-34.4958,-33.4707,42.1316,-34.0811,-0.288547,-13.5586,31.0836,-40.5603,19.5248,44.7948
6.04753,18.0505,14.6851,-165.832,-43.2069,180.823,-8.73916,5.17447,-1.50847,-8.2068,6.35986,-1.93619,-3.61337,2.95759,-0.808601,-8.95354,-3.64447,-5.79772,24.3391,-6.13925,4.90462,9.45402,-3.21848,1.95136,5.86415e-14,9.93923e-15,172.594,-29.5399,120.533,13.4321,157.423,6.45377,15.1442,7.12502,31.7556,-12.1105,5.86415e-14,9.93923e-15,-18.2136,26.5863,0.29083,18.011,-38.6339,1.67334,32.6753,7.12502,27.1921,60.7357,-21.5002,2.39532,21.238,22.6822,-32.7998,-34.1772,40.6896,-34.9699,-0.725365,-13.0848,31.2448,-40.994,19.3193,44.8815
6.0703,18.0552,14.6079,-166.216,-42.9333,181.067,-8.49998,5.43853,-1.29606,-8.09177,6.72011,-1.93722,-3.5965,3.13721,-0.921583,-8.60598,-3.83292,-5.78251,23.9525,-6.41883,5.01286,9.27307,-3.33788,1.96209,4.18442e-14,1.82882e-14,170.831,-31.6944,120.934,12.9814,154.991,8.41525,15.4833,7.12502,33.6218,-11.3836,4.18442e-14,1.82882e-14,-17.9338,28.0858,0.326464,17.9173,-40.0024,1.97962,32.3872,7.12502,27.4851,60.4015,-20.9036,2.27244,21.6851,22.232,-31.8205,-34.3242,40.2501,-35.7636,-1.2819,-12.7506,31.3913,-41.602,18.9249,45.4102
6.08605,18.0655,14.532,-166.739,-42.809,181.492,-8.27763,5.51882,-0.921964,-7.96553,6.83157,-1.80087,-3.55497,3.18872,-0.992492,-9.55472,-3.88594,-7.53497,24.8319,-6.56998,6.50369,9.88809,-3.40264,2.74261,2.9122e-14,-6.75868e-15,168.827,-37.2725,121.933,11.6523,148.996,9.69063,15.2231,7.12502,34.8329,-11.3718,2.9122e-14,-6.75868e-15,-18.0868,27.9397,0.163224,17.9693,-39.6116,2.34141,32.322,7.12502,27.8311,60.2808,-20.2658,2.00892,22.2725,21.7857,-31.0525,-34.3558,40.0006,-36.5028,-1.96096,-12.2171,31.5211,-42.1939,18.1926,45.1339
6.09736,18.0792,14.457,-167.227,-42.7058,182.058,-8.28204,5.57286,-0.588935,-7.80245,6.91359,-1.53307,-3.37171,3.23091,-0.884266,-9.87226,-3.9376,-7.9351,25.0619,-6.64498,6.81724,10.064,-3.43562,2.90827,-2.42517e-14,2.18663e-14,166.407,-40.3474,123.279,10.6959,145.409,10.184,15.0345,7.12502,35.3008,-11.4508,-2.42517e-14,2.18663e-14,-18.3403,27.2538,0.0672241,18.0987,-38.5273,2.64424,32.2952,7.12502,28.1205,60.2068,-19.7749,1.61961,22.9774,21.3764,-30.134,-34.2822,39.8528,-37.3102,-2.72098,-11.5371,31.6039,-42.8364,16.803,45.4475
6.11516,18.0878,14.3806,-167.834,-42.4502,182.747,-8.08695,5.8651,-0.143678,-7.80498,7.28908,-1.48348,-3.42818,3.40359,-1.07395,-9.50633,-4.05144,-7.72284,24.8215,-6.85895,6.81354,9.91713,-3.52331,2.84916,7.70788e-14,1.27222e-14,164.761,-40.4008,123.789,10.2341,144.574,10.6153,15.0708,7.12502,35.7097,-11.3165,7.70788e-14,1.27222e-14,-17.9046,27.1264,0.0360688,18.063,-38.2248,2.63311,31.9636,7.12502,28.1099,59.877,-19.2852,1.74669,23.7571,21.009,-30.3702,-33.771,41.17,-38.0788,-2.73802,-10.9274,31.6515,-43.0009,15.9427,48.5319
6.13024,18.0928,14.3137,-168.3,-42.0524,183.22,-7.73985,6.1684,0.328388,-7.86706,7.67513,-1.5371,-3.60885,3.57433,-1.40347,-9.01183,-4.11226,-7.52652,24.5579,-7.02792,6.89568,9.73722,-3.5897,2.83189,-7.15128e-14,-4.57205e-14,162.53,-43.2822,125.096,9.71548,140.766,11.9142,14.9789,7.12502,36.9395,-11.1011,-7.15128e-14,-4.57205e-14,-17.6476,27.856,-0.289469,17.9925,-38.8084,2.37463,31.47,7.12502,27.8628,59.4236,-18.8879,1.6839,24.3318,20.7143,-29.6464,-33.6566,41.4628,-38.7936,-3.2772,-10.3209,31.6419,-44.4213,13.9378,48.4244
6.13882,18.1039,14.2552,-168.625,-41.6043,183.573,-7.46921,6.3371,0.770389,-7.82696,7.89566,-1.45447,-3.66193,3.67046,-1.57243,-8.93652,-4.07603,-7.67029,24.3818,-6.94217,6.94755,9.66018,-3.5549,2.88578,-1.08288e-13,-1.70955e-14,158.845,-46.31,127.603,9.84926,137.013,13.1695,14.9992,7.12502,38.1259,-10.7657,-1.08288e-13,-1.70955e-14,-18.0201,28.7213,-0.844674,18.0322,-39.3175,1.77036,31.5131,7.12502,27.2849,59.559,-18.6105,1.34433,24.784,20.4676,-27.3782,-34.4085,39.7071,-39.4678,-3.91433,-9.74522,31.6019,-45.1655,11.5306,49.032
6.14089,18.1152,14.2013,-168.958,-41.1288,183.835,-7.1704,6.572,1.16289,-7.73792,8.21402,-1.43748,-3.67079,3.8195,-1.77723,-9.24477,-4.11179,-7.88235,24.6012,-7.00951,7.17554,9.8197,-3.57533,2.98942,3.71727e-14,-3.57812e-14,155.119,-48.9663,130.712,9.36987,133.188,14.0047,14.5832,7.12502,38.914,-10.9614,3.71727e-14,-3.57812e-14,-17.9625,27.9133,-0.848039,18.2184,-38.3166,1.09854,31.9229,7.12502,26.6422,60.0682,-18.2498,1.07521,25.1118,20.274,-26.0823,-34.4609,38.9819,-39.9735,-4.15588,-9.39483,31.5552,-44.1284,10.3157,51.282
6.13933,18.1203,14.1477,-169.386,-40.4996,184.229,-6.92085,6.86814,1.62917,-7.62093,8.61429,-1.38218,-3.61164,4.00904,-1.97078,-9.38583,-4.22925,-8.02278,24.5081,-7.12116,7.19763,9.83047,-3.62716,3.00437,-5.48646e-14,-2.06736e-14,151.057,-51.5001,134.162,8.9481,129.639,14.5949,14.0654,7.12502,39.4702,-11.3183,-5.48646e-14,-2.06736e-14,-18.0068,28.668,-1.14303,18.2071,-39.0186,0.776754,31.8676,7.12502,26.3342,60.0594,-17.9219,1.01651,25.5097,20.174,-24.3969,-34.6845,37.4927,-40.3978,-4.44033,-8.89339,31.4985,-44.8522,8.41676,51.2324
6.13767,18.1178,14.0867,-169.893,-39.832,184.759,-6.67741,7.21223,2.15089,-7.59444,9.06981,-1.33471,-3.62793,4.21801,-2.20464,-8.91974,-4.3106,-7.76377,24.039,-7.22718,7.0316,9.56769,-3.67601,2.89594,8.47817e-14,2.50469e-14,146.931,-53.8617,137.946,8.45069,126.494,15.2684,13.8558,7.12502,40.1042,-11.3387,8.47817e-14,2.50469e-14,-18.2951,32.9477,-2.26725,17.8425,-43.4471,0.473197,30.9591,7.12502,26.0435,59.1939,-17.614,0.596866,26.09,20.1013,-21.6737,-34.9813,35.1077,-40.7725,-4.786,-8.22347,31.442,-44.8834,6.54903,52.0013
6.13751,18.1185,14.0266,-170.147,-39.0849,184.935,-6.4162,7.63971,2.38447,-7.62537,9.64233,-1.48561,-3.71387,4.49068,-2.4884,-7.96691,-4.42393,-6.60737,23.1786,-7.38538,6.28547,9.02583,-3.73988,2.44357,-3.58309e-14,-5.56597e-15,142.935,-55.8226,141.926,8.00197,123.035,16.025,14.2169,7.12502,40.8156,-10.7578,-3.58309e-14,-5.56597e-15,-18.0256,34.8563,-2.71845,17.7475,-45.5492,0.195996,30.482,7.12502,25.7781,58.7557,-17.3743,0.0133735,26.3717,20.0622,-18.662,-35.15,32.5841,-41.1131,-4.69587,-8.03574,31.3723,-44.0347,6.10719,52.2375
6.13879,18.1209,13.977,-170.43,-38.2472,185.161,-5.98751,8.23995,2.72028,-7.71009,10.4495,-1.71743,-3.89534,4.87151,-2.92567,-6.81837,-4.75964,-5.39284,22.1651,-7.81395,5.42167,8.4128,-3.94377,1.93526,2.62893e-14,2.38542e-15,138.413,-57.1627,146.551,8.22598,118.861,17.3672,14.2571,7.12502,42.075,-10.3077,2.62893e-14,2.38542e-15,-16.7168,32.4047,-1.7117,17.9051,-43.1515,0.0869728,31.1494,7.12502,25.6737,59.4382,-17.1715,0.247813,26.6049,20.1122,-17.5897,-35.0683,31.8363,-41.4223,-4.83633,-7.64837,31.3012,-43.2837,6.68703,52.4153
6.13429,18.124,13.9233,-170.758,-37.4387,185.343,-5.52435,8.85891,2.95522,-7.79502,11.2896,-1.973,-4.09316,5.27247,-3.34252,-6.04226,-5.13237,-4.514,21.4752,-8.33152,4.96681,8.0134,-4.17663,1.61581,-2.18166e-14,-3.29983e-14,133.945,-58.327,151.119,8.55183,114.723,18.2073,13.8806,7.12502,42.8616,-10.4141,-2.18166e-14,-3.29983e-14,-15.1007,25.6364,-0.081509,18.4854,-36.5177,-0.212478,32.6972,7.12502,25.3868,61.027,-16.839,0.32974,26.8163,20.2124,-16.414,-34.8142,31.0055,-41.546,-5.43384,-7.08202,31.2233,-42.8041,7.51148,52.2422
6.12279,18.1229,13.8611,-170.962,-36.499,185.481,-5.38329,9.02395,3.17695,-7.75006,11.5161,-1.93585,-4.07297,5.37904,-3.42575,-5.73289,-4.95236,-4.40915,21.1188,-8.0607,4.92211,7.81752,-4.05022,1.6227,3.57315e-14,8.34896e-15,127.122,-60.027,157.519,7.95645,110.638,17.1515,13.0277,7.12502,41.8729,-11.6048,3.57315e-14,8.34896e-15,-15.6573,17.9937,0.113969,19.6515,-28.9559,-0.547154,34.505,7.12502,25.0662,62.88,-16.6032,-0.384561,27.0687,20.31,-12.5458,-34.5826,26.4236,-41.6617,-5.81515,-6.60215,31.1568,-42.3789,7.8812,52.2295
6.1086,18.1207,13.8067,-171.198,-35.4655,185.784,-5.19746,7.95406,3.36551,-7.09243,10.1467,-0.61207,-3.79076,4.74245,-2.22446,-8.40721,-3.73327,-7.23451,22.4008,-5.89059,5.28976,8.72291,-3.14194,2.36716,1.25706e-13,3.22031e-14,111.018,-61.072,172.445,6.84321,107.363,17.235,12.9105,7.12502,41.9511,-11.6959,1.25706e-13,3.22031e-14,-21.458,26.938,-4.62385,18.6207,-37.3325,-0.997601,32.6729,7.12502,24.6345,61.1075,-16.4884,-0.76313,27.3902,20.4273,-9.79811,-34.0975,23.2585,-41.8499,-5.84934,-6.10758,31.1122,-42.094,8.26469,52.287
6.09574,18.1168,13.7611,-171.286,-34.2645,186.012,-4.81658,8.00671,3.69391,-7.05024,10.2358,-0.339772,-3.94712,4.77394,-2.16969,-9.87487,-3.45569,-9.1106,23.609,-5.37767,6.36456,9.46448,-2.94292,3.09544,1.09245e-13,5.00937e-14,102.223,-61.5657,181.372,5.80098,103.022,17.0834,12.7856,7.12502,41.809,-11.8681,1.09245e-13,5.00937e-14,-24.3106,35.5622,-8.7863,17.7898,-46.233,-1.10197,30.269,7.12502,24.5345,58.7172,-16.57,-0.717716,27.6108,20.6395,-7.72332,-33.6634,20.9221,-42.0489,-6.14643,-5.45277,31.0208,-42.5065,7.80103,52.4595
6.08193,18.1143,13.7137,-171.366,-33.0357,186.119,-4.29848,8.67913,3.88502,-7.52972,11.1343,-0.849684,-4.55575,5.16832,-2.87127,-8.13411,-3.73544,-7.29389,22.7758,-6.03802,5.56419,8.82004,-3.21553,2.45867,-8.94283e-14,-2.98177e-14,97.2169,-61.3673,186.624,6.57577,100.412,20.0871,14.0655,7.12502,44.6163,-9.58369,-8.94283e-14,-2.98177e-14,-23.541,37.2879,-9.62362,17.6312,-48.4295,-1.33787,29.3117,7.12502,24.3083,57.7904,-16.5431,-0.712328,27.7243,20.8302,-6.64239,-32.951,20.9915,-42.087,-6.82928,-4.67005,30.9013,-43.0634,7.93837,52.2567
6.06276,18.1136,13.6628,-171.38,-31.9306,186.006,-4.29142,10.0204,3.99227,-7.99846,12.8792,-2.17495,-4.61424,5.99086,-4.22955,-6.11527,-4.52806,-3.71036,21.7396,-7.61904,4.83317,8.03895,-3.79913,1.50235,2.09072e-13,4.13472e-14,97.7731,-62.0568,187.116,6.81613,97.06,20.7686,15.2941,7.12502,45.2504,-8.10617,2.09072e-13,4.13472e-14,-18.5627,33.9402,-6.54192,17.801,-44.9411,-1.52211,30.7,7.12502,24.1317,59.2022,-16.4809,-0.767953,27.6114,21.0356,-4.85511,-32.4271,18.5863,-41.9781,-7.8464,-3.98583,30.7413,-43.6927,7.46072,51.6737
6.03954,18.1106,13.6109,-171.575,-30.9699,186.185,-4.0459,10.7486,4.48527,-7.79609,13.8848,-2.28078,-4.30676,6.49536,-4.5487,-6.42354,-4.96149,-4.44452,21.6143,-8.13774,5.14407,8.12315,-4.05492,1.66893,1.10127e-13,-1.03368e-14,93.3381,-61.7328,193.193,6.48271,93.0961,19.8309,15.4906,7.12502,44.3775,-8.24997,1.10127e-13,-1.03368e-14,-17.4122,33.6575,-5.33291,17.7775,-43.9402,-1.66052,31.6464,7.12502,23.999,60.1662,-16.359,-0.934425,27.7534,21.2406,-2.85533,-31.7611,14.7559,-41.8262,-8.38723,-3.28843,30.6084,-43.7953,7.0313,50.8377
6.02057,18.0999,13.559,-171.644,-29.8444,186.319,-4.11585,11.1303,4.63074,-7.48985,14.4103,-2.18153,-3.8826,6.78618,-4.43644,-6.92178,-5.04301,-4.66785,21.531,-8.13764,5.04867,8.19188,-4.05658,1.66129,5.57591e-14,3.61788e-14,87.1777,-60.7725,200.35,6.17327,88.216,18.5371,14.9569,7.12502,43.17,-9.22866,5.57591e-14,3.61788e-14,-17.5401,32.9626,-5.32148,17.8108,-42.4897,-1.63018,32.083,7.12502,24.0281,60.599,-16.3337,-0.956749,27.8907,21.4588,-0.27201,-30.9714,9.4689,-41.7523,-8.80427,-2.59923,30.5016,-43.7645,7.46095,49.4759
5.995,18.0842,13.5131,-171.743,-28.5545,186.521,-4.29139,11.3669,4.7643,-7.12531,14.7337,-1.92933,-3.40298,6.98037,-4.14737,-7.3854,-4.94055,-4.67075,21.4006,-7.86483,4.74787,8.20569,-3.93289,1.57878,-2.50717e-14,-3.57812e-14,80.8022,-58.4976,207.633,6.54096,84.1275,19.9985,15.8466,7.12502,44.5337,-7.83428,-2.50717e-14,-3.57812e-14,-18.5943,32.9161,-6.1087,17.8074,-41.6811,-1.68835,31.8276,7.12502,23.9723,60.3509,-16.2863,-1.00206,28.063,21.6521,1.50917,-29.9639,6.24097,-41.6056,-9.15498,-1.86941,30.4438,-42.9456,8.49972,49.4171
5.9569,18.0676,13.4701,-171.711,-27.3803,186.757,-4.70209,11.6834,4.92943,-6.81211,15.1358,-1.68316,-2.83655,7.20901,-3.82648,-7.75869,-4.95945,-4.93079,21.3166,-7.78801,4.67639,8.24968,-3.90594,1.59665,5.06155e-14,1.70955e-14,75.7124,-56.235,214.036,6.78905,79.9306,21.5281,16.4697,7.12502,45.9559,-6.64316,5.06155e-14,1.70955e-14,-20.0719,37.3615,-7.87838,17.4773,-45.514,-1.36504,30.2016,7.12502,24.2823,58.6838,-16.3499,-1.20349,28.2096,21.8574,3.11716,-28.6397,3.14438,-41.5796,-9.24155,-1.28609,30.4225,-41.0519,9.67454,51.2274
5.91829,18.0449,13.4282,-171.703,-26.3367,187.067,-5.44018,11.8807,5.11716,-6.23112,15.3572,-1.33712,-1.85332,7.3686,-3.32162,-8.71091,-4.94951,-5.42635,21.4193,-7.63257,4.74925,8.47405,-3.82955,1.69296,-6.11511e-14,-1.27222e-14,71.4537,-53.4012,219.714,6.89731,75.8966,22.1467,17.1354,7.12502,46.5294,-5.73542,-6.11511e-14,-1.27222e-14,-21.9164,41.0123,-9.75215,17.2352,-48.2761,-1.16911,29.4288,7.12502,24.4701,57.8857,-16.4241,-1.33133,28.4259,22.0915,4.51367,-27.4012,-0.199033,-41.5882,-9.24338,-0.675191,30.4124,-39.5433,10.6678,52.718
5.8851,18.0233,13.3848,-171.741,-25.221,187.222,-6.78039,11.8689,5.05129,-4.91432,15.2769,-0.722679,0.0564569,7.42765,-2.23858,-10.534,-4.81902,-6.22238,21.413,-7.12962,4.79781,8.81334,-3.58238,1.85317,-1.98886e-14,2.24627e-14,68.2398,-49.2634,224.747,6.90633,71.435,22.0651,17.1785,7.12502,46.4538,-5.72463,-1.98886e-14,2.24627e-14,-24.5753,42.7198,-11.4822,17.243,-48.0958,-1.28443,29.6765,7.12502,24.3596,58.1483,-16.4018,-1.28741,28.5034,22.4054,5.54815,-26.1666,-3.0012,-41.3752,-8.94316,-0.362887,30.3949,-38.4965,12.2778,52.6876
5.85232,18.0065,13.3414,-171.637,-24.0683,187.117,-3.61515,12.8121,5.64772,-7.39028,16.6924,-2.1143,-3.57848,7.9025,-4.78597,-8.49773,-5.06772,-5.70068,22.3548,-8.17007,5.82811,8.84207,-4.03659,2.03839,-1.52294e-13,-2.22639e-14,64.2871,-51.3208,228.85,7.39222,66.9186,22.1531,17.1839,7.12502,46.5354,-5.68432,-1.52294e-13,-2.22639e-14,-20.197,36.8739,-9.08383,17.6357,-43.7419,-1.59389,30.6361,7.12502,24.0629,59.1475,-16.4505,-1.24124,28.3305,22.7711,6.4057,-24.9849,-5.93634,-41.1483,-8.62579,-0.338215,30.4347,-36.8035,15.046,51.0006
5.81639,17.9832,13.2998,-171.552,-22.8184,186.993,-1.77188,13.5057,5.88197,-8.76018,17.7072,-2.93616,-5.61965,8.21929,-6.29346,-7.15404,-5.2012,-5.11057,22.6093,-8.73606,6.23445,8.70808,-4.28672,2.04926,-3.44394e-14,2.8625e-14,60.5193,-51.4059,233.23,7.85688,62.6966,22.4253,17.5294,7.12502,46.7873,-5.22996,-3.44394e-14,2.8625e-14,-18.1613,34.3317,-8.40262,17.8005,-41.8373,-1.60832,31.3233,7.12502,24.049,59.8365,-16.5336,-1.18719,28.0947,23.2378,6.95753,-23.6884,-9.47394,-40.8548,-8.46605,-0.289159,30.5344,-34.7851,17.283,49.5337
5.77519,17.9529,13.2592,-171.492,-21.6059,187.282,-3.15536,13.4647,6.00492,-7.56446,17.5926,-2.28768,-3.76154,8.3197,-5.18145,-8.41071,-4.98924,-5.47651,22.1609,-8.09058,5.85394,8.74546,-3.98147,2.02213,6.58971e-14,5.4467e-14,58.67,-46.6632,237.001,8.09365,58.3564,22.8219,17.4177,7.12502,47.1543,-5.18027,6.58971e-14,5.4467e-14,-21.093,38.0176,-10.6484,17.5873,-43.6826,-0.991264,31.1685,7.12502,24.6406,59.6023,-16.8257,-1.14929,28.2466,23.8295,7.05662,-22.3902,-11.6082,-40.6809,-7.80183,-0.0407844,30.7391,-32.5789,18.7384,49.2033
5.72811,17.922,13.2221,-171.296,-20.5419,187.363,-2.96719,13.7719,6.29105,-7.698,18.0121,-2.4231,-3.83208,8.50489,-5.4717,-8.67732,-5.04554,-5.50706,22.3337,-8.17606,5.88679,8.86273,-4.0143,2.02042,6.97237e-14,4.01545e-14,56.4574,-44.3123,240.717,8.44086,53.7765,22.7976,17.427,7.12502,47.1318,-5.18089,6.97237e-14,4.01545e-14,-21.6302,39.0795,-11.6641,17.5035,-43.9737,-0.405131,31.0569,7.12502,25.2023,59.4128,-17.2302,-1.37807,28.1848,24.5268,7.32207,-20.858,-14.7903,-40.6159,-6.89936,-0.174577,31.0567,-29.7321,22.0064,48.1026
5.68293,17.8773,13.1903,-171.154,-19.35,187.325,-2.58236,13.9783,6.44008,-7.81854,18.318,-2.53939,-4.0511,8.63367,-5.74277,-8.89045,-4.92903,-5.24191,22.5095,-8.03397,5.73942,8.9359,-3.93675,1.93598,4.43041e-14,-1.74931e-14,54.5289,-41.5669,244.104,8.56303,48.9907,22.7052,17.3451,7.12502,47.0463,-5.30068,4.43041e-14,-1.74931e-14,-22.116,38.2121,-12.3272,17.6942,-42.4327,0.265031,31.652,7.12502,25.8442,59.916,-17.5809,-1.31511,27.9711,25.3171,7.04983,-19.6183,-16.7693,-40.5176,-5.94356,-0.478483,31.611,-26.4221,24.7765,47.7558
5.63923,17.8242,13.1566,-171.028,-18.1659,187.508,-2.21873,14.2615,6.73507,-7.98055,18.7268,-2.6589,-4.24321,8.80502,-6.07452,-8.99197,-4.83379,-5.13698,22.4566,-7.92437,5.8176,8.9285,-3.86612,1.95513,1.14624e-13,1.90833e-14,53.1052,-38.9917,247.306,8.48668,44.0662,22.1607,16.7767,7.12502,46.5423,-6.08858,1.14624e-13,1.90833e-14,-22.2142,37.1628,-12.458,17.9721,-40.5426,0.691292,32.5875,7.12502,26.2523,60.7914,-18.0631,-1.15844,27.9862,26.2087,6.67589,-18.4178,-19.547,-40.5109,-4.932,-0.569026,32.273,-21.5568,27.8991,46.0777
5.588,17.7568,13.1163,-170.895,-17.2884,187.727,-2.12058,14.5076,6.96318,-8.11212,19.0609,-2.6691,-4.32126,8.94764,-6.20232,-8.97242,-4.84141,-5.13331,22.3857,-7.92226,5.79249,8.89912,-3.86734,1.94708,4.36084e-14,-1.19271e-15,51.6746,-36.6371,250.757,8.45341,39.2569,21.5863,16.283,7.12502,46.0098,-6.8075,4.36084e-14,-1.19271e-15,-22.346,36.5925,-12.5267,18.1631,-38.8285,0.56285,33.1802,7.12502,26.1294,61.4023,-18.566,-1.21555,28.0381,27.2157,5.73534,-17.4819,-21.2297,-40.6775,-3.96561,-0.71351,33.1715,-14.8127,30.2485,41.453
5.53854,17.6915,13.0828,-170.818,-16.397,187.76,-2.04078,14.6109,6.82856,-8.0825,19.2066,-2.48251,-4.4175,9.0229,-5.97352,-9.11259,-4.7488,-5.1256,22.3731,-7.71309,5.52837,8.89663,-3.78753,1.87694,1.86261e-13,7.55382e-15,50.4616,-33.7649,254.14,8.27302,34.5293,20.7792,15.6125,7.12502,45.2602,-7.78377,1.86261e-13,7.55382e-15,-23.2354,37.3266,-13.4351,18.1309,-38.5991,0.941372,33.276,7.12502,26.4917,61.4441,-18.9972,-1.21994,27.9001,28.3568,4.56587,-16.6806,-22.1473,-40.7082,-2.73059,-1.25874,34.3031,-7.48782,30.2905,32.7824
5.4861,17.6065,13.0562,-170.75,-15.5162,188.132,-1.85678,14.7378,7.33223,-8.02716,19.4052,-2.39152,-4.31042,9.10615,-6.12474,-9.59233,-4.63049,-5.24232,22.3668,-7.47595,5.51404,8.97363,-3.66806,1.90729,5.51627e-14,3.33958e-14,49.8013,-30.9343,257.181,8.03764,30.1431,19.4277,15.2427,7.12502,44.0015,-8.63957,5.51627e-14,3.33958e-14,-24.2632,38.8311,-14.6363,18.0539,-38.8323,1.28496,33.2349,7.12502,26.8206,61.353,-19.6501,-1.3634,28.1357,29.674,3.42503,-15.7885,-23.2137,-40.8875,-1.12995,-1.57685,35.7275,-1.00374,28.0367,18.8488
5.43733,17.4994,13.0324,-170.581,-14.4971,188.444,-1.42234,14.9964,7.92548,-8.16634,19.8042,-2.59323,-4.38677,9.26426,-6.67446,-9.92612,-4.57527,-5.0189,22.3743,-7.40084,5.46171,9.02321,-3.60795,1.85329,-1.42106e-13,-1.90833e-14,49.0494,-28.836,260.283,8.13155,26.0465,18.2208,15.4131,7.12502,42.8742,-8.87711,-1.42106e-13,-1.90833e-14,-24.8114,40.6987,-15.8897,17.6752,-38.9557,0.996177,33.0053,7.12502,26.5442,61.1654,-20.4567,-1.26782,28.3057,31.062,1.94173,-15.2301,-23.26,-41.1613,0.46424,-1.8379,37.371,2.04991,24.7557,5.70152
5.38495,17.3852,13.0072,-170.288,-13.555,188.471,-1.04746,15.2096,8.2633,-8.37514,20.1304,-2.93329,-4.53865,9.38846,-7.24994,-10.2576,-4.51257,-4.53082,22.5299,-7.39017,5.38917,9.11658,-3.56295,1.73995,-5.643e-14,-1.86858e-14,48.5203,-26.8053,263.304,7.97872,23.836,18.1864,16.4571,7.12502,42.8419,-7.84449,-5.643e-14,-1.86858e-14,-24.2761,39.5797,-15.6955,18.1085,-37.1237,2.45619,33.9482,7.12502,27.9408,61.8892,-21.35,-1.46112,28.2083,32.5503,0.228512,-14.7594,-24.2481,-41.6057,1.56658,-2.17303,39.2289,1.52206,22.1246,1.62833
5.32614,17.2828,12.9858,-170.026,-12.8011,188.588,-0.783391,15.2933,8.79886,-8.4726,20.2822,-3.18955,-4.50236,9.43327,-7.79332,-10.7421,-4.42755,-4.30822,22.6996,-7.33052,5.48326,9.25845,-3.49417,1.72989,-9.33294e-14,-5.00937e-14,47.4211,-24.9224,266.647,8.98068,19.6224,17.6236,16.3992,7.12502,42.3152,-8.08433,-9.33294e-14,-5.00937e-14,-24.0294,38.0146,-15.5607,18.4364,-34.3204,2.71695,34.9673,7.12502,28.1901,62.8675,-22.2536,-1.93717,28.2055,34.1335,-1.40848,-14.1272,-25.4434,-42.1213,2.33178,-2.30234,41.1763,0.271288,19.8769,-0.449358
5.27539,17.1753,12.9695,-169.745,-12.0209,188.608,-0.514538,15.3887,8.85359,-8.62149,20.438,-3.25571,-4.74143,9.48086,-7.97025,-10.9558,-4.33969,-4.30536,22.842,-7.21402,5.48627,9.34175,-3.4344,1.73895,7.18358e-14,2.46493e-14,46.0349,-23.033,270.434,10.2213,14.6088,16.5763,15.7062,7.12502,41.3333,-9.10334,7.18358e-14,2.46493e-14,-24.1352,37.7327,-15.6626,18.4855,-32.6899,2.03733,35.3851,7.12502,27.5403,63.3906,-23.2545,-2.06824,28.0918,35.7803,-3.16627,-14.0181,-27.0276,-42.5879,2.95006,-2.4361,43.1108,-0.928021,17.8734,-5.21437
5.22864,17.059,12.9559,-169.401,-11.242,188.471,-0.566626,15.4594,8.06836,-8.68625,20.4991,-2.89329,-5.15436,9.51642,-7.29844,-10.8691,-4.22627,-4.35817,22.8002,-6.92263,5.02395,9.27844,-3.35035,1.62693,8.1452e-14,9.93923e-15,45.1942,-20.8657,274.129,10.6208,10.8324,15.4599,15.2774,7.12502,40.2844,-9.86226,8.1452e-14,9.93923e-15,-25.0251,38.8362,-16.2569,18.4117,-33.3375,2.02814,35.2728,7.12502,27.5315,63.2797,-24.4349,-2.04816,27.7683,37.5414,-5.57637,-14.1278,-26.4822,-43.1032,3.42893,-2.68716,45.0239,-2.02931,16.365,-11.5245
5.17747,16.9445,12.9419,-169.004,-10.6344,188.32,-0.0485254,15.4825,8.15123,-9.09063,20.5715,-3.29878,-5.69052,9.48167,-7.94216,-11.1281,-4.11727,-3.68616,23.035,-6.88394,4.84121,9.37606,-3.29295,1.44953,-6.42074e-14,3.57812e-14,46.5246,-23.2947,272.024,10.0523,13.7297,14.5207,16.0649,7.12502,39.4003,-9.33922,-6.42074e-14,3.57812e-14,-25.1758,40.8278,-17.6456,18.1488,-35.2481,2.87282,34.6497,7.12502,28.339,62.5252,-25.654,-2.27177,27.4522,39.3075,-7.36338,-14.0142,-26.1247,-43.7639,3.81605,-2.96708,46.8132,-3.46733,14.4006,-18.3808
5.12167,16.8247,12.9432,-168.08,-9.48539,188.188,-1.56628,15.4392,7.80578,-8.18914,20.357,-2.93405,-4.16252,9.54593,-6.84858,-12.4155,-3.87455,-3.69165,22.6749,-6.22071,4.18165,9.43778,-2.99658,1.28323,-3.14577e-14,-2.78299e-14,51.7204,-24.8231,267.284,7.61781,18.5934,11.8155,16.6579,7.12502,36.8462,-9.4462,-3.14577e-14,-2.78299e-14,-29.1349,45.8217,-21.4773,17.55,-39.0941,3.17362,33.2245,7.12502,28.6264,61.0519,-27.6062,-2.03753,27.0639,41.1504,-8.30818,-13.6626,-26.4862,-44.9336,4.47497,-3.20643,48.5872,-4.86567,13.7234,-23.1419
5.07642,16.7116,12.9162,-168.09,-9.40045,187.976,-1.40844,15.1527,7.59553,-7.92589,20.001,-2.78413,-4.13865,9.39816,-6.65578,-12.8019,-3.76328,-3.67541,22.5253,-5.98964,4.05729,9.44311,-2.8854,1.26051,-9.17081e-14,-2.3059e-14,54.5569,-28.152,263.411,7.94578,24.9254,12.5399,17.9425,7.12502,37.5312,-7.98275,-9.17081e-14,-2.3059e-14,-28.0397,42.6155,-19.3068,18.1524,-34.447,1.94942,34.9316,7.12502,27.4562,62.9505,-28.2244,-2.36828,26.7886,42.8732,-9.90228,-13.8,-25.5059,-45.2528,4.2897,-3.32248,50.1761,-6.30323,13.0606,-26.033
5.0191,16.5836,12.9128,-167.372,-8.2622,188.011,-2.93451,15.4241,6.67105,-7.12311,20.2094,-1.81668,-3.06825,9.63038,-4.76887,-13.2117,-3.81891,-4.78361,22.0305,-5.56301,3.47497,9.34498,-2.81027,1.29519,1.22635e-13,2.26615e-14,60.1238,-28.4831,258.858,5.24826,31.9553,9.13891,17.3419,7.12502,34.3092,-9.37274,1.22635e-13,2.26615e-14,-32.4578,49.1586,-23.0364,17.3304,-41.1246,2.14205,32.623,7.12502,27.6404,60.6125,-29.8985,-2.05927,26.5424,44.6278,-11.5429,-13.2042,-22.0843,-46.1518,4.95866,-3.32292,51.7256,-8.03272,12.715,-26.3019
4.96019,16.4608,12.9099,-166.664,-7.41829,188.074,-1.59864,15.6733,7.01816,-8.34536,20.6358,-2.53982,-4.66951,9.67272,-6.1549,-13.0674,-3.85033,-4.55378,22.5197,-5.81058,3.7771,9.50222,-2.89337,1.32846,8.5816e-14,-1.45113e-14,60.1693,-35.3021,256.259,8.73865,37.7767,11.6884,20.7213,7.12502,36.7259,-5.4135,8.5816e-14,-1.45113e-14,-31.1015,49.7623,-22.9845,17.1088,-42.1793,2.03891,32.1253,7.12502,27.5418,60.1306,-31.506,-1.99374,26.3942,46.3067,-12.9589,-12.8643,-19.3852,-47.1791,5.56613,-3.31003,53.1128,-9.43333,12.3488,-27.5467
4.90611,16.3432,12.9074,-166.144,-6.69083,187.864,-0.294656,15.8145,7.15254,-9.33014,20.9184,-3.20694,-6.11772,9.64738,-7.39346,-12.7056,-3.80374,-4.47732,22.8416,-5.95698,4.23617,9.56593,-2.92913,1.45933,-1.86982e-14,1.66979e-14,63.4409,-39.4112,251.364,8.49965,44.5212,10.5492,22.4771,7.12502,35.647,-3.92539,-1.86982e-14,1.66979e-14,-27.9123,46.6564,-20.1371,17.2222,-38.7986,1.40802,33.5582,7.12502,26.9383,61.6582,-32.9034,-1.95489,25.965,48.0006,-14.8998,-12.7467,-19.3872,-48.0169,6.12739,-3.63504,54.3863,-10.8149,11.9605,-28.5734
4.85248,16.222,12.9114,-165.734,-5.73963,187.626,0.825224,16.0518,7.10259,-10.0707,21.309,-3.7234,-7.3107,9.70011,-8.334,-12.4159,-3.86352,-4.34952,23.1434,-6.21016,4.49883,9.63461,-3.02818,1.49966,-8.91922e-14,-5.64548e-14,67.9308,-43.0144,245.892,7.81745,51.2381,8.2466,23.2328,7.12502,33.4615,-3.66892,-8.91922e-14,-5.64548e-14,-25.1125,43.8186,-17.3907,17.3015,-35.6923,0.6338,35.6393,7.12502,26.1973,63.8514,-34.1793,-1.77039,25.484,49.6589,-16.731,-12.9756,-23.8261,-48.717,7.01009,-4.14194,55.5801,-12.1779,11.6387,-29.4148
4.79783,16.1068,12.9114,-165.362,-4.78447,187.31,1.56405,16.2768,6.78019,-10.5288,21.6364,-4.01945,-8.17386,9.7759,-8.80552,-12.2523,-3.86529,-4.35378,23.275,-6.27969,4.62317,9.65791,-3.05825,1.53654,-1.145e-13,-5.68524e-14,73.4366,-45.8676,239.889,7.69384,57.7548,6.26761,23.5537,7.12502,31.5783,-3.73591,-1.145e-13,-5.68524e-14,-23.8041,44.0626,-16.2294,17.1141,-36.0104,-0.0376174,36.1417,7.12502,25.5543,64.4476,-35.4404,-1.61279,24.8837,51.3337,-18.1823,-13.1478,-26.7295,-49.3324,8.07506,-4.87502,56.7627,-13.6599,11.1802,-29.5709
4.74194,15.9972,12.9079,-164.902,-3.98242,187.062,1.65596,16.2589,6.48093,-10.549,21.5946,-4.02817,-8.35412,9.75558,-8.73411,-12.5322,-3.72867,-4.54751,23.1558,-5.96044,4.46852,9.65351,-2.92989,1.55149,-8.55395e-14,0,79.5221,-47.6525,233.421,7.61961,63.7761,3.61692,23.8802,7.12502,29.0499,-3.87495,-8.55395e-14,0,-23.723,44.5353,-15.9362,16.8398,-36.5778,-0.41968,35.3331,7.12502,25.1883,63.691,-36.8676,-1.63873,24.3554,53.0569,-19.2626,-13.1239,-27.792,-50.1435,9.27272,-5.695,57.9858,-15.0205,10.6827,-29.1586
4.6832,15.8866,12.9178,-164.322,-3.00329,186.676,1.28002,16.0613,6.0127,-10.0868,21.2854,-3.82274,-7.9144,9.70273,-8.15022,-13.3517,-3.58649,-4.50061,22.9275,-5.44893,3.61995,9.67573,-2.74489,1.30276,5.44856e-14,1.53064e-14,86.3308,-47.3476,226.454,7.26556,69.6037,0.686102,23.3969,7.12502,26.2474,-4.80777,5.44856e-14,1.53064e-14,-23.8866,42.2262,-14.8139,16.8888,-33.8681,-0.884227,35.694,7.12502,24.7432,64.1137,-38.5716,-1.5897,23.6199,54.838,-19.9629,-13.1676,-29.5592,-51.2164,10.5897,-6.81752,59.2443,-16.3016,10.3733,-27.9464
4.62367,15.7766,12.9274,-163.929,-2.03889,186.411,1.14419,15.8307,5.71891,-9.61486,20.9751,-3.58064,-7.55157,9.62898,-7.67808,-13.8518,-3.4354,-4.33635,22.2739,-4.93371,2.72711,9.48861,-2.55657,1.02941,1.76356e-13,2.84262e-14,92.8893,-47.2675,219.713,7.44082,75.8067,-2.41546,23.7573,7.12502,23.2749,-4.85596,1.76356e-13,2.84262e-14,-23.9652,40.8034,-13.5121,16.9929,-31.8784,-1.77469,36.6513,7.12502,23.8895,65.1855,-40.1194,-1.40064,22.9532,56.6543,-20.5626,-13.1343,-30.7199,-52.2529,11.8547,-7.81219,60.5861,-17.6702,10.0754,-27.978
4.5663,15.678,12.9292,-163.781,-1.47472,186.273,1.31561,15.5967,5.72607,-9.32146,20.6963,-3.4465,-7.41031,9.52083,-7.55916,-14.152,-3.20057,-4.66557,21.8231,-4.45371,2.73152,9.37672,-2.34011,1.14524,8.17906e-14,4.2366e-14,99.8276,-46.0843,212.666,7.64528,83.0168,-5.23702,22.9699,7.12502,20.5657,-5.96075,8.17906e-14,4.2366e-14,-23.8897,43.0977,-12.9176,16.7886,-33.9541,-2.56548,37.0804,7.12502,23.1309,65.7118,-41.2545,-1.31952,22.468,58.3694,-21.2744,-13.1808,-31.6507,-53.1372,12.86,-8.56178,61.9155,-19.03,9.57213,-28.7426
4.50065,15.5667,12.9471,-163.238,-0.147883,186.13,1.28957,14.7943,5.55616,-9.24343,20.928,-3.42233,-7.40255,10.2378,-7.55572,-14.0072,-2.91096,-3.99565,21.1035,-4.00239,2.08075,9.05268,-2.13131,0.873928,6.12822e-14,-8.94531e-15,106.199,-44.7513,205.879,8.49651,90.2886,-7.43781,22.3113,7.12502,18.4497,-6.83373,6.12822e-14,-8.94531e-15,-23.4468,45.2317,-12.0799,16.5897,-36.0815,-3.13019,37.4079,7.12502,22.589,66.1062,-43.06,-0.540419,21.6768,60.0949,-21.8675,-12.8611,-32.0579,-54.411,14.2445,-9.51248,63.3989,-20.3516,9.4065,-27.3502
4.44133,15.4732,12.9467,-163.39,0.326042,185.693,1.72471,14.4957,5.31707,-8.95761,20.4568,-3.33409,-7.50005,9.98499,-7.45829,-13.6994,-2.61481,-3.14007,20.3218,-3.54318,1.16726,8.67876,-1.93401,0.487782,7.43847e-14,-8.68689e-14,112.624,-43.5735,199.445,8.80604,97.3494,-9.77881,22.0527,7.12502,16.1966,-7.29063,7.43847e-14,-8.68689e-14,-22.4757,45.5883,-10.4367,16.5049,-36.4748,-3.7008,37.6126,7.12502,22.0413,66.3766,-43.7274,-0.0643334,20.6694,61.6466,-23.0704,-12.5167,-31.459,-54.9596,14.7566,-10.3967,64.7926,-21.3847,9.16196,-25.8927
4.3783,15.3598,12.9615,-163.392,1.16428,185.476,2.25901,14.2702,5.19956,-8.72682,20.1112,-3.20003,-7.67425,9.78449,-7.4011,-13.8556,-2.28459,-2.87653,19.8625,-2.98774,0.642684,8.52592,-1.69377,0.334419,-1.24169e-13,-9.14409e-15,118.114,-41.7052,193.609,10.0804,104.398,-12.6922,21.7053,7.12502,13.3899,-7.84439,-1.24169e-13,-9.14409e-15,-21.9517,47.8896,-9.33087,16.2533,-38.5033,-4.42258,37.3619,7.12502,21.3481,66.206,-44.6828,0.990252,19.7032,63.136,-24.1827,-12.0804,-30.6285,-55.7675,15.4744,-11.0686,66.3417,-22.1424,9.12767,-25.7781
4.31389,15.2473,12.9754,-163.405,2.16235,185.331,2.71472,14.0795,5.00704,-8.44799,19.8046,-2.97225,-7.80273,9.61534,-7.18392,-14.5267,-1.89483,-3.26323,19.8624,-2.32332,0.697627,8.64175,-1.39392,0.487766,-3.24174e-14,-1.25234e-14,121.679,-40.5074,190.369,11.6728,109.277,-14.4156,21.1404,7.12502,11.7283,-8.51129,-3.24174e-14,-1.25234e-14,-21.5971,51.0308,-8.37073,15.9133,-41.0764,-5.0587,36.703,7.12502,20.737,65.615,-45.5095,2.28058,18.7815,64.3561,-24.9526,-12.363,-31.5654,-56.5744,16.1448,-11.605,67.9106,-22.7886,9.41102,-25.9496
4.24653,15.1542,12.9826,-163.484,3.2783,185.234,3.18409,13.8647,4.81974,-8.26474,19.4858,-2.77989,-8.03047,9.43668,-7.0217,-14.7682,-1.39764,-3.31021,19.6385,-1.61664,0.803153,8.59557,-1.04509,0.613856,1.01548e-13,-2.28602e-14,125.331,-39.5857,187.259,12.5854,113.768,-15.3794,20.3758,7.12502,10.7989,-9.32656,1.01548e-13,-2.28602e-14,-20.1025,51.2743,-6.00038,15.8446,-40.4546,-6.19696,36.6123,7.12502,19.643,65.6399,-46.0804,3.623,17.9142,65.2792,-25.6174,-12.9785,-33.3947,-57.1795,16.7294,-12.0486,69.4204,-23.5161,9.93733,-26.5153
4.17245,15.0795,12.9909,-163.405,4.35072,185.192,3.88927,13.6034,4.71541,-8.50749,19.1962,-2.77107,-8.77402,9.23835,-7.22563,-14.4599,-0.92608,-2.93251,19.4433,-1.09114,0.918219,8.45892,-0.75865,0.652568,1.67134e-14,1.98785e-16,129.31,-39.8926,184.636,12.5161,117.21,-17.2345,18.6574,7.12502,9.00905,-11.1303,1.67134e-14,1.98785e-16,-17.4379,48.9619,-2.46026,16.0132,-37.6392,-7.60019,37.1896,7.12502,18.2935,66.3494,-46.6739,4.80801,17.1323,65.92,-26.0392,-13.5988,-34.7155,-57.8457,17.2734,-12.5303,70.7765,-24.3546,10.3816,-26.1086
4.08727,15.009,12.9945,-163.357,5.4951,185.11,4.22807,13.3182,4.55655,-8.35884,18.7934,-2.54321,-8.97808,9.02684,-6.99355,-15.0092,-0.433861,-3.03767,19.6161,-0.385332,1.03607,8.60248,-0.419821,0.791001,3.83903e-15,1.03368e-14,131.283,-40.7673,183.788,15.7849,118.422,-17.3876,19.5095,7.12502,8.86128,-10.2845,3.83903e-15,1.03368e-14,-15.9718,49.2971,0.0657621,16.0312,-37.2511,-8.10384,36.9892,7.12502,17.8089,66.1937,-47.1598,5.89134,16.3186,66.3126,-26.3354,-14.1218,-35.0197,-58.3116,17.6752,-13.0768,71.9031,-25.1757,10.87,-25.286
3.99287,14.9514,12.9885,-163.248,6.68171,185.215,3.99294,12.936,4.68397,-7.86276,18.2007,-2.22893,-8.42598,8.75862,-6.55478,-15.8685,0.326896,-2.7098,19.5848,0.673447,0.90416,8.72552,0.1008,0.820412,-5.3324e-14,-7.15625e-15,134.465,-40.033,181.59,16.5042,121.427,-17.8105,19.1773,7.12502,8.4532,-10.6336,-5.3324e-14,-7.15625e-15,-15.132,51.1007,1.8375,15.9276,-37.9676,-8.27968,36.3487,7.12502,17.6397,65.5685,-47.5938,6.92637,15.7293,66.4695,-26.4936,-14.7054,-35.0541,-58.7008,18.0376,-13.475,72.7983,-25.8367,11.902,-25.9073
3.89287,14.9304,12.9718,-162.995,7.93259,185.209,3.14753,12.5032,4.72501,-7.26573,17.4883,-2.00895,-7.42438,8.46795,-5.99415,-16.5796,1.12549,-2.41134,19.1939,1.7948,0.760775,8.70263,0.65447,0.861738,-1.34229e-13,-5.1684e-15,137.641,-40.1909,180.207,15.4561,122.796,-18.2397,17.6559,7.12502,8.03901,-12.1712,-1.34229e-13,-5.1684e-15,-13.733,51.3362,4.21913,15.9604,-36.7382,-9.22671,36.0624,7.12502,16.7282,65.3617,-48.0307,7.8672,15.008,66.3713,-26.5865,-15.0693,-35.1237,-58.9061,18.251,-14.0347,73.2867,-26.4822,13.0118,-26.079
3.79144,14.9268,12.9492,-162.598,9.24824,185.186,3.29098,12.2566,4.85141,-7.80971,17.236,-2.33898,-7.99585,8.3018,-6.50455,-15.8241,1.77358,-1.19109,19.0272,2.37298,0.627796,8.51598,0.998099,0.674845,5.51006e-14,-5.36719e-15,142.697,-41.9235,177.046,15.331,124.439,-18.4335,16.772,7.12502,7.85196,-13.0622,5.51006e-14,-5.36719e-15,-10.2156,48.6258,8.03312,16.1677,-34.3521,-10.1401,36.1291,7.12502,15.8488,65.5005,-48.5355,8.88927,14.1815,66.0335,-26.829,-15.0891,-34.7074,-59.0345,18.3608,-14.6177,73.4732,-27.1738,13.9214,-25.5811
3.6861,14.9397,12.9206,-162.332,10.855,185.034,3.19459,11.791,4.46618,-7.83807,16.6023,-2.09331,-8.22667,8.00766,-6.05212,-15.9346,2.65797,-1.06144,19.032,3.56326,0.638265,8.52665,1.56914,0.79877,-1.97691e-13,-3.35946e-14,146.434,-42.5238,174.618,15.4661,127.087,-18.1511,15.8312,7.12502,8.12453,-13.9926,-1.97691e-13,-3.35946e-14,-8.83656,48.5817,10.4815,16.2505,-34.3754,-10.989,35.9794,7.12502,15.0311,65.4138,-48.9187,10.1311,13.0815,65.445,-26.9262,-15.0572,-34.6174,-58.8114,18.668,-15.4059,73.4055,-27.8496,14.7353,-24.8311
3.58242,14.977,12.8793,-162.227,12.9358,184.766,2.9903,11.5118,3.90905,-7.7955,16.1755,-1.95458,-8.2965,7.83202,-5.58507,-15.8032,3.52219,-0.555659,18.8704,4.70029,0.307907,8.45853,2.10916,0.734502,1.11953e-13,9.93923e-15,150.739,-43.3009,172.017,14.8021,129.077,-18.1525,14.0535,7.12502,8.12312,-15.7704,1.11953e-13,9.93923e-15,-6.85432,47.9264,13.5317,16.3183,-33.8398,-12.4451,36.6628,7.12502,13.628,66.1967,-49.0928,11.7868,11.6904,64.5656,-26.6454,-15.1262,-34.985,-58.0941,19.2226,-16.3512,73.0843,-28.5882,15.7411,-24.4853
3.47792,15.0163,12.8398,-162.079,15.0508,184.685,2.87698,11.2365,3.58805,-7.96814,15.8105,-1.87156,-8.56619,7.66625,-5.34116,-15.1567,4.45175,0.563569,18.691,5.85197,-0.452748,8.337,2.65228,0.415962,-3.76448e-15,-9.54166e-15,155.133,-45.4686,169.518,13.9084,130.075,-17.2831,12.4801,7.12502,8.96213,-17.3095,-3.76448e-15,-9.54166e-15,-4.87123,45.8659,16.3612,16.3995,-32.6119,-13.3572,36.9505,7.12502,12.7489,66.5413,-49.2134,13.657,10.3937,63.4189,-26.2838,-15.0859,-35.1049,-57.4271,19.7693,-17.0732,72.7034,-29.2916,16.4447,-22.9054
3.35775,15.0646,12.8006,-161.885,17.0745,184.584,2.87993,10.9341,3.53918,-8.29097,15.4536,-1.87033,-8.97377,7.48112,-5.35586,-14.4222,5.30079,1.43575,18.6565,6.90835,-0.986257,8.25263,3.153,0.199758,-2.98488e-14,1.63003e-14,159.662,-49.002,166.92,13.4411,129.765,-15.7103,11.1074,7.12502,10.4796,-18.6114,-2.98488e-14,1.63003e-14,-2.64913,43.8769,19.4091,16.557,-31.281,-13.4643,36.2928,7.12502,12.6456,65.89,-49.2328,15.2705,8.98885,61.9095,-25.632,-14.872,-35.2139,-56.9361,20.0283,-17.8881,72.2215,-29.7756,17.8018,-22.3662
3.22282,15.1512,12.7568,-161.574,19.2043,184.686,2.75343,10.6169,3.82528,-8.47798,15.0868,-1.73655,-9.11066,7.28615,-5.34084,-13.8313,6.11485,1.93797,18.4529,8.01084,-1.48971,8.13686,3.65994,0.0583095,-4.68076e-15,4.96962e-15,164.49,-52.1128,163.947,13.3387,129.208,-14.6869,11.2102,7.12502,11.4667,-18.4562,-4.68076e-15,4.96962e-15,0.0148885,49.0417,22.9589,15.8154,-37.5874,-12.492,32.4688,7.12502,13.5829,62.0057,-49.1274,16.7769,7.75129,59.9805,-24.304,-15.0802,-37.1224,-56.4213,20.3017,-18.5219,71.5143,-30.3727,19.2153,-21.9096
3.08085,15.2655,12.7016,-161.121,21.5056,184.991,2.61029,10.2403,4.26303,-8.6529,14.6627,-1.46687,-9.23364,7.05867,-5.25516,-13.1576,6.95821,2.29353,18.0578,9.1826,-1.95867,7.94748,4.20195,-0.0489681,1.95368e-15,-1.59028e-15,169.448,-56.0404,160.784,13.1359,127.701,-14.3217,11.8069,7.12502,11.8189,-17.8396,1.95368e-15,-1.59028e-15,1.20755,44.0877,25.4911,16.2566,-32.3368,-14.3256,34.6698,7.12502,11.8151,64.3165,-48.941,18.2988,6.62247,57.7199,-23.2355,-14.5224,-37.5849,-55.6831,20.6508,-18.9717,70.5075,-31.1062,20.3748,-21.622
2.94147,15.3788,12.6384,-160.606,24.2522,185.222,2.47738,9.91098,4.43037,-8.91132,14.2964,-1.20915,-9.51387,6.87214,-5.07104,-12.694,7.74688,2.60733,17.8935,10.2652,-2.32577,7.8728,4.70156,-0.117324,-1.66389e-13,-5.52621e-14,175.026,-62.1628,156.857,12.4712,123.403,-13.6613,9.2764,7.12502,12.4556,-20.3324,-1.66389e-13,-5.52621e-14,2.30036,42.3307,27.7657,16.4223,-31.4335,-14.5692,34.7905,7.12502,11.5802,64.4506,-48.9692,19.752,5.27617,55.3697,-22.234,-13.2132,-37.136,-54.6765,21.259,-19.7019,69.1597,-31.925,21.578,-20.6636
2.79801,15.4864,12.5648,-160.093,27.4055,185.456,2.3425,9.68608,4.53792,-9.20851,14.0729,-0.961549,-9.83515,6.75917,-4.88025,-12.993,8.51352,3.01772,18.7147,11.2645,-2.53308,8.26382,5.13855,-0.104739,-1.06893e-13,-3.18055e-14,183.34,-69.6075,149.809,12.229,116.848,-12.559,7.04045,7.12502,13.5183,-22.5008,-1.06893e-13,-3.18055e-14,3.28043,40.5142,29.9776,16.6814,-30.9852,-13.689,33.2825,7.12502,12.429,62.8929,-49.0635,20.9176,3.90521,52.8081,-20.8057,-11.6386,-36.7509,-53.3531,22.1277,-20.6511,67.5643,-33.0265,22.6149,-17.8171
2.66138,15.5825,12.4819,-159.569,30.6852,185.919,2.21402,9.51275,4.91123,-9.42478,13.9245,-0.68922,-10.009,6.66805,-4.78527,-13.4855,8.66743,3.57483,19.7898,12.4903,-2.73302,8.80258,6.10256,0.00354259,-1.15978e-13,-4.77083e-14,198.017,-75.5387,136.052,12.4962,110.632,-11.5573,7.7657,7.12502,14.4836,-21.7088,-1.15978e-13,-4.77083e-14,4.55765,38.7882,32.4145,16.8481,-30.2348,-14.8155,33.0049,7.12502,11.3427,62.6781,-49.2725,21.8951,2.84014,50.3241,-19.3749,-9.36831,-34.9035,-51.5048,23.2177,-21.4991,65.655,-34.9981,22.3295,-12.0234
2.52065,15.7608,12.3902,-158.935,34.0601,186.357,1.94533,9.31796,5.36641,-9.55305,13.7081,-0.529932,-9.95956,6.54078,-4.79706,-13.5793,9.46158,3.90156,20.2533,13.5652,-2.70456,9.03619,6.62405,0.121218,1.44989e-14,7.15625e-15,201.029,-71.7028,134.274,12.9405,114.094,-11.3272,8.7481,7.12502,14.7052,-20.7104,1.44989e-14,7.15625e-15,6.34504,38.844,35.1202,16.6842,-31.1668,-15.4028,32.3563,7.12502,10.7762,62.0598,-49.2007,22.1989,2.02523,47.3167,-17.4184,-6.35007,-34.4551,-50.1169,24.1604,-22.3678,63.5921,-35.5443,24.2303,-13.2055
2.38384,15.8848,12.3274,-157.885,37.304,186.715,1.73748,8.96099,5.46446,-10.0155,13.3322,-0.310309,-10.4414,6.3502,-4.62927,-13.1401,10.2038,4.37011,20.4748,14.6198,-2.94851,9.12737,7.13764,0.0955757,2.99668e-14,2.8625e-14,205.266,-69.9029,131.355,13.2657,115.919,-11.0467,7.90493,7.12502,14.9755,-21.5336,2.99668e-14,2.8625e-14,7.37617,37.0748,37.089,16.7976,-30.531,-15.9632,32.3294,7.12502,10.2357,62.0604,-49.7525,21.5218,1.38316,44.4985,-14.8745,-2.88511,-34.6383,-49.2062,24.823,-23.5267,61.4113,-37.0969,24.5225,-9.50334
2.2488,16.0733,12.2125,-157.315,41.1629,187.207,1.88912,8.76777,5.55389,-10.353,13.1821,0.0156636,-11.0035,6.25865,-4.41192,-12.4441,10.786,5.06327,20.7948,15.4903,-3.34153,9.23914,7.57862,-0.0432296,-1.72272e-13,-2.06736e-14,214.007,-70.9854,123.899,13.2675,114.366,-10.6259,7.1755,7.12502,15.3809,-22.2324,-1.72272e-13,-2.06736e-14,7.9453,34.1683,38.6652,17.0657,-29.0421,-16.7722,33.0984,7.12502,9.45517,62.8663,-49.3353,20.7881,1.32927,41.4245,-11.8164,0.564914,-34.5202,-47.5301,25.6627,-24.3159,59.1501,-37.5722,26.3333,-10.5302
2.12161,16.2328,12.1316,-156.437,44.5461,187.653,1.68313,8.31085,5.75229,-10.6035,12.6276,0.260491,-11.2446,5.97678,-4.2172,-11.9407,11.3456,5.51389,20.8569,16.2379,-3.45071,9.25293,7.95724,-0.0709598,-1.90336e-14,4.92986e-14,215.104,-69.8475,123.889,13.5166,115.269,-10.3475,6.74269,7.12502,15.649,-22.6444,-1.90336e-14,4.92986e-14,8.8763,32.5298,40.2202,17.2114,-28.6578,-17.5701,33.9144,7.12502,8.68525,63.7157,-49.4294,18.9087,2.01424,38.8616,-7.9315,3.72035,-34.0304,-46.1653,26.3902,-25.1759,56.7789,-37.8164,26.026,-7.88301
2.00405,16.3851,12.0394,-155.327,48.0513,188.495,1.47785,7.90864,6.06188,-10.8159,12.1555,0.578657,-11.4314,5.73143,-4.00193,-11.6888,11.748,5.52119,21.0097,16.7344,-3.13689,9.25505,8.21923,0.0830134,9.79511e-14,7.95139e-16,210.725,-66.7457,129.561,14.0659,118.632,-10.3462,6.3923,7.12502,15.6502,-22.9947,9.79511e-14,7.95139e-16,9.5614,29.7555,41.3716,17.6368,-27.3207,-18.3902,34.4008,7.12502,7.89372,64.2334,-49.4673,15.9074,3.96173,36.7942,-3.43566,6.82405,-32.7318,-44.5722,27.1641,-25.7572,54.4781,-38.4311,25.7255,-6.52073
1.91209,16.5551,11.8932,-154.96,52.2816,189.756,2.0448,7.6553,6.73037,-10.6596,11.878,0.905043,-11.5682,5.51503,-4.05942,-11.3869,12.0242,5.25911,21.2056,16.9952,-2.35879,9.18095,8.40012,0.385011,1.14401e-13,1.09729e-13,204.958,-62.4924,136.535,14.7932,123.108,-10.3286,7.11488,7.12502,15.6672,-22.2708,1.14401e-13,1.09729e-13,11.7762,31.506,44.027,16.5577,-30.1276,-20.0783,34.9586,7.12502,6.26427,64.846,-48.4949,12.559,6.93801,35.6167,1.55387,9.16615,-31.2445,-41.2866,28.1146,-25.6364,52.248,-38.8435,25.4285,-4.9347
1.80114,16.6885,11.841,-153.185,55.7114,190.514,1.66475,6.99322,6.39547,-11.2,11.0455,1.14644,-12.1693,5.14082,-3.57128,-11.5382,12.0261,5.08145,21.8163,16.8766,-1.60759,9.32789,8.39218,0.666985,1.14301e-13,4.45278e-14,199.692,-57.9155,142.797,15.5711,127.612,-10.2357,7.93822,7.12502,15.7566,-21.4404,1.14301e-13,4.45278e-14,13.4663,33.9287,46.2183,15.7945,-34.898,-18.4946,30.3396,7.12502,7.793,60.1759,-50.0704,8.06721,9.92834,35.4774,6.95166,9.66445,-31.6556,-41.0271,28.4072,-26.461,50.5442,-37.5709,25.5065,-5.15344
1.70375,16.8077,11.7783,-151.112,59.4784,192.132,1.41356,6.45995,6.54344,-11.3341,10.3234,1.31706,-12.2494,4.77726,-3.38041,-12.4893,11.8774,5.23348,22.7024,16.4798,-1.06809,9.76328,8.22709,0.871869,-4.26393e-14,7.95139e-16,200.6,-60.758,141.388,16.0271,123.568,-9.227,7.36848,7.12502,16.7279,-21.9308,-4.26393e-14,7.95139e-16,13.5466,28.5428,45.3448,16.2091,-30.0166,-20.3996,32.6607,7.12502,5.95405,62.557,-51.6189,3.77901,13.8297,36.1783,11.0737,8.39169,-33.0286,-40.1781,28.9569,-26.7085,49.1371,-36.0056,25.5332,-6.35382
1.61762,16.9147,11.7169,-148.71,63.5983,194.373,1.40565,6.1137,6.39186,-11.3507,9.82069,1.47819,-12.3596,4.53787,-3.08472,-13.4166,11.6104,5.15401,23.3966,15.8715,-0.303979,10.0857,7.97919,1.14214,-9.33294e-14,-7.95139e-14,200.896,-62.798,140.587,16.4562,120.629,-8.47019,6.47904,7.12502,17.4564,-22.7572,-9.33294e-14,-7.95139e-14,17.4933,34.3473,50.0722,15.0754,-36.4676,-20.8092,31.5999,7.12502,5.55861,61.507,-53.3166,0.00522985,17.8179,37.7627,13.5981,6.72739,-30.3327,-38.9871,29.5798,-26.8054,48.0691,-34.0243,25.6612,-9.34379
1.53512,17.0228,11.6496,-145.69,67.7232,197.186,1.38559,5.83658,5.88808,-11.4697,9.42986,1.77537,-12.6492,4.39782,-2.47567,-13.6172,11.0416,4.47323,23.5891,14.9763,0.501792,10.038,7.58976,1.39852,2.04748e-14,1.43125e-14,202.229,-65.5479,139.17,16.275,117.243,-8.53615,5.11628,7.12502,17.3929,-24.1255,2.04748e-14,1.43125e-14,20.073,36.0333,53.5734,14.3981,-39.419,-20.7555,29.9657,7.12502,5.61045,59.8714,-55.221,-3.37007,21.5811,39.7855,14.707,5.20799,-22.6727,-37.7158,29.6225,-26.8378,47.0773,-31.661,26.1502,-13.6548
1.44649,17.134,11.5896,-141.392,71.7957,201.235,1.30296,5.40549,5.85292,-11.458,8.78293,1.78286,-12.6295,4.07091,-2.36988,-14.0382,10.3855,3.91795,23.8368,13.9098,1.34527,10.0712,7.12862,1.64986,-6.04802e-14,-6.12257e-14,203.282,-68.7196,137.199,15.9311,113.882,-8.22289,4.42582,7.12502,17.6944,-24.7891,-6.04802e-14,-6.12257e-14,20.4041,33.0934,53.5219,15.0301,-37.607,-19.1878,29.3042,7.12502,7.12389,59.1643,-57.398,-6.00495,25.0722,42.1959,15.2407,3.80748,-14.4396,-36.3259,28.7076,-26.5721,46.0026,-30.336,25.8052,-12.5385
1.35832,17.2495,11.5282,-134.299,75.6038,208.213,1.55075,4.92358,5.90861,-11.5691,8.1506,1.94625,-12.9785,3.73859,-2.19494,-14.2194,9.54677,3.32953,24.2936,12.705,1.96147,10.1659,6.5887,1.81384,-7.98617e-14,-5.1684e-15,204.712,-72.2143,134.903,15.8793,111.627,-6.70416,5.38076,7.12502,19.1553,-23.6959,-7.98617e-14,-5.1684e-15,22.664,35.1691,56.4211,14.4298,-41.1001,-18.5383,29.4693,7.12502,7.75076,59.3073,-59.4697,-8.26185,28.7078,44.7389,15.8605,2.2182,-5.71994,-34.6576,27.1604,-25.9037,44.8463,-28.6503,25.7991,-11.9494
1.2824,17.3688,11.4502,-124.345,79.4907,217.909,1.52179,4.35502,5.43915,-11.5962,7.30975,2.07731,-13.1148,3.36898,-1.70616,-14.0822,8.68053,2.36888,24.3402,11.5514,2.50766,10.047,6.0346,1.98397,-1.33186e-14,2.78299e-15,204.64,-76.0234,133.904,15.3957,109.079,-6.12298,4.54547,7.12502,19.7141,-24.4749,-1.33186e-14,2.78299e-15,22.3036,32.2672,55.7853,14.8201,-37.8727,-17.6642,27.7098,7.12502,8.59437,57.5149,-61.5283,-10.5046,31.748,47.2279,16.7246,-0.297621,4.83358,-33.0473,25.1303,-26.046,43.7519,-25.8774,27.0106,-17.4458
1.21525,17.4904,11.387,-100.846,82.0549,241.516,1.64688,4.04194,5.69877,-11.4379,6.85766,2.18144,-13.0133,3.11181,-1.68172,-14.2408,7.61391,1.92253,24.2856,10.0005,2.90873,10.0119,5.31367,1.99686,2.68359e-15,-5.96354e-15,207.292,-79.4389,130.121,14.9301,106.829,-5.98688,4.37095,7.12502,19.845,-24.6359,2.68359e-15,-5.96354e-15,22.7054,29.7385,56.0296,15.292,-35.538,-18.1425,29.2441,7.12502,8.13278,59.0676,-63.0731,-11.7728,35.3206,50.1653,17.1036,-3.70357,11.0557,-31.0892,22.8869,-24.9629,42.4313,-23.6058,27.5999,-19.8121
1.14758,17.6078,11.264,-64.1459,80.1086,277.243,1.03069,4.3724,8.96386,-11.577,7.53688,2.33293,-12.4556,3.14291,-3.28443,-14.6386,6.33501,1.91709,24.4097,8.03532,3.34761,10.1283,4.44552,1.9228,-3.4837e-14,-1.43125e-14,216.621,-82.4781,119.781,14.1683,104.198,-5.80115,4.42531,7.12502,20.0235,-24.563,-3.4837e-14,-1.43125e-14,23.8881,27.7966,57.207,15.5499,-34.3509,-18.7629,29.3886,7.12502,7.53406,59.2344,-64.9961,-11.9883,41.4588,52.9531,18.55,-6.72222,12.4336,-30.5784,20.5972,-21.9918,41.3413,-22.5987,28.3146,-18.6677
1.08372,17.6761,11.205,-32.6943,80.4779,308.632,1.22621,3.80778,6.28481,-11.5132,6.42845,1.75821,-12.7527,2.7947,-2.36621,-14.7838,5.17288,1.10722,24.5236,6.43083,3.87194,10.161,3.68684,2.04005,-3.94836e-14,-5.78463e-14,233.213,-86.0143,102.236,13.4537,101.452,-5.32989,5.01574,7.12502,20.4764,-23.9245,-3.94836e-14,-5.78463e-14,23.4183,24.4192,56.6374,16.3443,-30.6886,-18.2936,29.4426,7.12502,7.987,59.2717,-67.5952,-13.6853,41.9609,56.7424,20.4321,-9.69159,13.3178,-29.0563,17.2322,-24.0791,39.9257,-21.5194,28.3734,-15.2396
1.03441,17.7697,11.1447,-17.2916,77.036,323.834,1.31198,3.36365,5.92149,-11.4755,5.80211,2.09737,-12.8761,2.5339,-1.73804,-14.8381,3.97667,0.00303267,24.7993,4.89587,4.27438,10.2514,2.92071,2.17833,-1.57537e-14,1.8487e-14,150.311,-93.2828,184.323,12.9483,97.7016,-4.41254,5.81938,7.12502,21.3578,-23.0236,-1.57537e-14,1.8487e-14,22.1884,20.0511,54.9929,17.5267,-26.136,-18.1106,30.9512,7.12502,8.16364,60.7735,-69.3411,-14.5523,44.8465,60.3236,22.7436,-11.8455,13.4711,-28.0465,15.3891,-23.8071,38.789,-19.4244,28.7645,-11.5961
0.998273,17.8623,11.0443,-7.97447,72.5876,332.436,0.729777,3.27289,6.28778,-11.3447,5.59013,1.99613,-12.3304,2.3949,-1.97126,-15.8841,2.65654,-1.86847,25.4863,3.07364,5.83615,10.6843,2.09467,2.86694,-4.0403e-14,-5.38706e-14,177.227,-99.6824,156.302,11.9787,90.6016,-4.27943,4.99051,7.12502,21.4856,-23.8379,-4.0403e-14,-5.38706e-14,21.2096,13.0823,51.9017,19.579,-19.3512,-17.4134,32.5154,7.12502,8.83645,62.3103,-71.3761,-14.9673,47.5806,64.0411,26.4156,-13.6149,13.3246,-27.5609,13.8361,-23.7201,37.6129,-18.5191,28.6925,-5.56483
0.979186,17.9371,10.9126,-0.306859,67.8481,339.313,0.263938,3.45468,6.5913,-11.4889,5.71039,1.22386,-12.0914,2.36786,-2.94614,-15.7345,1.03111,-2.98261,25.4119,0.677626,7.20721,10.7276,1.05162,3.23185,-5.68245e-14,-3.36443e-14,179.642,-106.764,152.847,10.9944,83.4421,-3.85198,4.66653,7.12502,21.8961,-24.1145,-5.68245e-14,-3.36443e-14,23.3681,16.3237,55.4196,18.5936,-24.7151,-16.9927,31.5233,7.12502,9.24234,61.3007,-73.6037,-15.2879,49.2579,67.7875,31.5606,-15.5761,15.4699,-27.4785,12.2266,-24.5247,36.8681,-17.394,28.8378,-4.02066
0.954472,18.0051,10.8563,1.40901,62.1737,340.514,0.632511,3.59116,6.89332,-11.6895,5.9942,1.62908,-12.5589,2.46996,-2.73617,-15.0371,-0.276497,-4.06308,25.503,-1.08981,7.82464,10.7415,0.19982,3.40175,7.18498e-14,1.92821e-14,179.776,-125.67,151.883,11.1242,65.5254,-2.84833,3.54903,7.12502,22.8595,-25.1162,7.18498e-14,1.92821e-14,23.6689,16.8384,57.292,18.4159,-26.383,-16.8932,31.4226,7.12502,9.33844,61.1957,-73.9748,-14.2125,51.694,71.1794,35.2992,-18.2266,18.6473,-27.0436,11.4027,-23.2642,36.3111,-16.0649,29.1902,-2.87701
0.947375,18.0606,10.7837,3.80252,56.8338,342.426,0.676149,3.18926,6.62986,-11.597,5.45107,2.20726,-12.6055,2.25764,-1.91106,-15.1797,-1.27592,-5.6307,25.9659,-2.3076,8.42095,11.0555,-0.444758,3.74638,-7.34339e-15,-2.25745e-14,182.344,-138.668,148.583,11.6819,53.8079,-2.40861,3.21541,7.12502,23.2814,-25.397,-7.34339e-15,-2.25745e-14,23.0366,17.179,57.6598,18.7823,-26.2364,-16.7929,31.9555,7.12502,9.43515,61.7243,-74.7302,-13.672,53.2921,74.849,37.6366,-20.9688,21.3374,-26.6188,10.2954,-22.8517,35.7184,-15.0562,29.1197,-0.165754
0.959282,18.1069,10.7045,6.61973,51.5345,344.875,0.467694,2.93014,6.10088,-11.408,4.97444,2.18782,-12.3124,2.07329,-1.5722,-15.3042,-2.54308,-6.66088,26.3028,-4.04245,8.95261,11.3959,-1.27968,3.89219,-1.19345e-13,-6.84813e-14,182.727,-163.753,148.094,14.5528,30.0015,-1.52231,-4.33696,7.12502,24.1315,-32.8392,-1.19345e-13,-6.84813e-14,23.2514,18.1331,58.2621,18.7258,-27.5875,-15.6454,30.0624,7.12502,10.5423,59.7781,-75.7275,-13.2909,53.9428,78.7018,39.0345,-23.9518,25.5057,-26.2138,8.90995,-23.2831,35.1411,-15.051,28.6047,4.88494
0.976566,18.1481,10.6431,8.70036,45.9004,346.772,0.389528,2.95964,5.42902,-11.225,4.87838,1.97252,-12.0698,2.07152,-1.41365,-14.913,-3.8372,-7.18814,26.3592,-5.92197,9.30208,11.554,-2.16132,3.84072,-1.63252e-13,-5.47652e-14,184.606,-162.339,145.921,13.7788,31.146,-0.790193,2.23872,7.12502,24.8333,-26.1686,-1.63252e-13,-5.47652e-14,24.3344,20.0945,60.1284,18.233,-30.9156,-14.1337,27.4378,7.12502,12.0002,57.0738,-76.2977,-12.692,54.2178,82.5755,39.2619,-27.1285,30.3135,-25.6007,7.37331,-23.6758,34.4599,-15.0674,28.9673,9.14329
0.994196,18.1829,10.6001,9.92866,40.155,347.825,0.363009,2.89293,4.86207,-10.978,4.68684,1.9732,-11.8061,2.02677,-1.07171,-14.432,-4.96451,-7.39448,26.3543,-7.53067,9.19279,11.6262,-2.94865,3.59229,-5.889e-15,6.16232e-15,185.538,-171.856,144.878,15.5422,22.1861,-0.165524,1.45801,7.12502,25.4318,-26.8654,-5.889e-15,6.16232e-15,23.8584,19.2557,58.8304,18.6091,-29.6698,-13.429,26.4575,7.12502,12.6796,56.0526,-76.4412,-12.0949,54.6985,86.2908,40.2867,-26.9007,28.6534,-24.7849,5.62529,-23.6744,33.6992,-15.8813,29.9137,14.233
1.01969,18.2097,10.5449,10.7774,34.5072,348.179,0.333601,2.7886,4.74002,-10.7114,4.49846,2.16042,-11.508,1.95301,-0.774106,-14.0356,-6.21187,-9.09685,26.3848,-9.16698,9.90639,11.8617,-3.79922,3.90273,-4.68386e-14,-5.64548e-14,186.837,-179.639,144.054,17.4638,14.7909,0.407536,1.08509,7.12502,25.9807,-27.159,-4.68386e-14,-5.64548e-14,23.9555,19.89,58.8818,18.6099,-29.8801,-13.2598,27.0555,7.12502,12.8427,56.6404,-76.6915,-11.6001,55.423,89.823,41.0147,-26.8451,27.0792,-24.268,4.02719,-23.4238,33.0037,-15.2058,31.645,14.9092
1.05487,18.2446,10.4863,11.5426,28.914,348.447,0.596149,2.7825,4.70845,-10.5312,4.46817,2.2158,-11.4651,1.93198,-0.702584,-13.4624,-7.56475,-10.5151,26.3424,-11.0401,10.526,12.0913,-4.74367,4.08026,-2.41026e-14,7.95139e-15,187.898,-186.205,143.55,19.4864,8.71506,0.499794,0.828839,7.12502,26.069,-27.4023,-2.41026e-14,7.95139e-15,24.1175,20.0926,58.9628,18.5857,-30.1855,-12.8661,26.8782,7.12502,13.2222,56.4388,-77.0791,-11.2942,55.8636,93.1776,42.0331,-27.009,25.1997,-23.8972,2.80649,-23.2906,32.3819,-12.8383,33.6937,13.5984
1.08772,18.2739,10.4373,12.4205,22.8541,348.643,0.925336,3.07374,4.453,-10.5774,4.83958,2.14754,-11.7159,2.11423,-0.690965,-12.683,-8.85171,-11.453,26.6527,-12.888,10.6967,12.3899,-5.67951,4.00928,4.29872e-15,6.32135e-14,188.283,-192.557,143.452,22.032,2.85276,0.385981,0.63349,7.12502,25.96,-27.6136,4.29872e-15,6.32135e-14,23.7185,18.3949,58.0706,19.0599,-28.8354,-12.2,26.6578,7.12502,13.8642,56.1757,-77.4729,-10.4064,56.0453,96.285,45.2728,-22.4877,13.622,-23.6776,1.82186,-23.2552,31.642,-11.9268,34.8894,16.2517
1.10978,18.2797,10.3825,13.314,16.4974,348.993,1.50939,3.38997,3.78709,-10.6403,5.21587,1.9562,-12.1659,2.32451,-0.609726,-11.7122,-9.99418,-12.2634,26.7103,-14.6165,10.983,12.557,-6.54866,3.9733,3.11595e-14,2.82274e-14,188.765,-196.17,142.507,24.2661,-0.246044,0.730834,0.748214,7.12502,26.2902,-27.4501,3.11595e-14,2.82274e-14,23.0887,15.5895,56.2721,19.7861,-25.9447,-12.1325,28.2907,7.12502,13.9293,57.8041,-77.9254,-9.17167,55.8763,99.2817,47.057,-20.4159,8.62494,-23.57,0.932619,-23.5484,30.9513,-12.2503,35.6787,19.9662
1.17853,18.3233,10.4107,13.9274,11.5886,348.82,1.09161,3.21944,4.10934,-10.5986,4.95036,1.92917,-11.8389,2.16189,-0.755011,-10.5109,-11.0429,-13.3727,26.5366,-16.1799,11.2982,12.6155,-7.38804,4.02457,2.43014e-14,2.90226e-14,189.408,-199.807,141.639,26.5012,-3.04609,1.57007,0.821669,7.12502,27.0934,-27.2542,2.43014e-14,2.90226e-14,22.5051,13.8785,54.9742,20.1999,-23.9667,-12.611,29.5687,7.12502,13.4681,59.1133,-77.89,-9.9273,56.1367,101.882,46.0023,-26.2776,20.8859,-22.742,0.29592,-23.3495,29.8947,-13.5254,33.9098,20.1253
