JuanDHNZ/ProyectoFinalCD/preprocessing/sports_trials_csv/05_15.csv
root1,root2,root3,root4,root5,root6,lowerback1,lowerback2,lowerback3,upperback1,upperback2,upperback3,thorax1,thorax2,thorax3,lowerneck1,lowerneck2,lowerneck3,upperneck1,upperneck2,upperneck3,head1,head2,head3,rclavicle1,rclavicle2,rhumerus1,rhumerus2,rhumerus3,rradius1,rwrist1,rhand1,rhand2,rfingers1,rthumb1,rthumb2,lclavicle1,lclavicle2,lhumerus1,lhumerus2,lhumerus3,lradius1,lwrist1,lhand1,lhand2,lfingers1,lthumb1,lthumb2,rfemur1,rfemur2,rfemur3,rtibia1,rfoot1,rfoot2,rtoes1,lfemur1,lfemur2,lfemur3,ltibia1,lfoot1,lfoot2,ltoes1
-1.44698,16.3473,28.7212,-153.484,5.67322,-177.659,1.45506,-0.876554,0.279256,-5.64433,-0.898043,0.223757,-6.68074,-0.342919,0.128899,-22.1371,1.83919,0.716726,19.131,2.59518,-0.742264,9.73295,1.20774,0.00881234,-4.87022e-15,4.37326e-15,-48.6754,26.3705,-104.748,80.0272,-7.69469,-4.75358,18.6265,7.12502,21.0302,-10.2532,-4.87022e-15,4.37326e-15,-54.0564,-47.3028,113.975,69.6401,-23.491,-20.5808,2.88232,7.12502,5.77906,32.7835,-65.9488,3.17139,25.5326,52.5556,-13.9583,-13.177,-1.53364,-32.3624,-5.19426,-22.5664,41.6365,-41.034,19.0164,-18.1531
-1.43742,16.3575,28.5732,-153.367,5.77436,-177.787,1.45588,-1.06537,-0.0584938,-6.00083,-1.12781,0.336739,-7.05299,-0.418481,0.453932,-22.1853,2.01169,0.6959,19.4477,2.88374,-0.842384,9.85773,1.33048,0.0228197,1.40143e-14,8.34896e-15,-47.9177,25.705,-104.139,77.2888,-7.27091,-5.70414,18.9578,7.12502,20.1167,-10.0207,1.40143e-14,8.34896e-15,-52.9123,-47.8878,114.231,66.373,-24.1976,-19.9648,3.77121,7.12502,6.37379,33.6553,-66.6956,3.95526,24.5936,50.4458,-12.334,-13.0807,-2.2824,-31.3237,-5.24706,-22.7922,40.5043,-40.9449,19.4194,-18.2924
-1.43361,16.3621,28.4263,-153.344,5.66327,-177.928,1.04266,-1.24405,-0.0984407,-5.92837,-1.37071,0.302825,-6.73392,-0.538302,0.449923,-22.6784,2.1609,0.75574,19.6106,3.05951,-0.826576,10.0063,1.41164,0.0506766,1.74931e-14,3.18055e-15,-46.4873,24.8635,-103.192,74.6823,-6.57078,-5.69693,18.5654,7.12502,20.1237,-10.4124,1.74931e-14,3.18055e-15,-50.7808,-49.184,113.656,62.709,-24.7761,-19.0715,4.07749,7.12502,7.23609,33.9338,-67.442,4.49895,23.6768,48.5927,-10.4974,-13.1807,-2.31584,-30.2105,-5.46886,-22.9635,39.4201,-40.9926,19.4861,-17.7117
-1.43104,16.3662,28.2862,-153.401,5.20233,-178.031,1.06849,-1.47604,0.0400073,-6.014,-1.6679,0.29034,-6.84306,-0.689016,0.381344,-23.1739,2.24653,0.932134,19.9878,3.12597,-0.83751,10.2349,1.45015,0.0363721,6.4605e-15,-7.95139e-16,-45.2719,23.8711,-102.219,72.1062,-6.15276,-5.67406,17.7678,7.12502,20.1457,-11.2076,6.4605e-15,-7.95139e-16,-49.0493,-50.5495,113.498,58.952,-25.6159,-17.7688,4.41663,7.12502,8.49346,34.2258,-68.1043,4.87364,22.8001,46.8377,-8.49068,-13.6542,-0.438788,-29.0386,-5.91704,-22.9314,38.2752,-40.9681,19.3653,-16.9833
-1.41768,16.3602,28.1639,-153.047,4.98399,-178.443,1.0382,-1.71025,-0.415932,-6.46202,-1.95825,0.271215,-7.28921,-0.782525,0.640173,-23.3638,2.34016,1.08184,20.445,3.22862,-0.846627,10.4388,1.5098,0.0310418,1.39149e-14,4.37326e-15,-44.2364,23.0126,-101.266,69.0558,-6.00158,-6.40036,17.5589,7.12502,19.4475,-11.4886,1.39149e-14,4.37326e-15,-47.2204,-51.3593,113.172,55.18,-26.4952,-16.0335,4.40472,7.12502,10.1678,34.139,-69.5184,5.60916,21.1932,45.3069,-6.44969,-14.8901,1.4795,-28.4891,-6.23064,-23.2201,37.1612,-40.5972,19.4464,-17.1303
-1.41253,16.3627,28.0049,-152.908,4.71996,-178.855,0.578306,-1.96305,-0.697091,-6.60612,-2.28099,0.280764,-7.1611,-0.913629,0.816245,-23.7806,2.43039,0.957402,20.8822,3.38229,-0.73217,10.6713,1.58248,0.125699,3.85642e-14,3.97569e-16,-42.7919,22.2986,-100.026,65.5903,-5.97891,-7.40824,18.3148,7.12502,18.4782,-10.8276,3.85642e-14,3.97569e-16,-44.6855,-52.0721,112.286,51.4674,-27.2541,-14.5114,4.74457,7.12502,11.6359,34.4015,-70.5683,5.65013,20.1491,44.06,-4.35209,-15.7245,-0.00192743,-27.4686,-6.39095,-23.6261,35.9975,-40.097,19.7367,-17.8885
-1.40542,16.3556,27.8472,-152.9,4.75514,-178.996,0.153575,-2.02604,-0.925759,-6.56196,-2.36502,0.288058,-6.85607,-0.942381,0.941053,-24.4447,2.46985,0.82602,21.2107,3.42341,-0.514717,10.9069,1.61061,0.243443,1.41137e-14,9.54166e-15,-41.0191,21.4694,-98.5512,62.1032,-6.01645,-7.54034,18.2465,7.12502,18.3511,-10.9079,1.41137e-14,9.54166e-15,-41.8274,-53.0346,110.99,47.8578,-28.6861,-13.2525,5.24953,7.12502,12.8498,34.834,-71.4393,5.98317,19.3731,43.0332,-3.14709,-16.5803,2.42345,-26.2878,-6.40613,-23.8748,34.8493,-39.8502,20.0629,-18.2383
-1.39926,16.3466,27.6803,-153.066,4.86214,-179.1,0.0720993,-2.04839,-1.06472,-6.83969,-2.36967,0.227559,-7.10384,-0.919413,0.956486,-24.2846,2.43461,0.801002,21.6545,3.37676,-0.347969,11.0386,1.61763,0.304712,-3.19049e-14,-8.74653e-15,-40.1151,20.3405,-97.2873,58.2874,-5.6471,-7.60243,19.2284,7.12502,18.2913,-9.93158,-3.19049e-14,-8.74653e-15,-39.7787,-53.5602,110.13,44.2142,-30.879,-11.0723,5.22975,7.12502,14.9508,34.6701,-72.0825,6.14553,18.9177,42.272,-2.44214,-17.1018,6.8969,-24.8588,-6.41219,-24.1392,33.7561,-39.8955,20.0927,-17.8156
-1.39357,16.3314,27.5124,-153.531,4.89854,-179.263,0.541586,-2.13003,-1.23133,-7.31664,-2.45274,0.189872,-7.88579,-0.919198,1.03819,-23.4895,2.37797,0.778663,22.1194,3.34647,-0.234098,11.0622,1.63913,0.342832,3.61788e-14,4.37326e-15,-39.7363,19.2398,-96.1024,54.6109,-5.31661,-7.97559,20.154,7.12502,17.9323,-9.03932,3.61788e-14,4.37326e-15,-38.299,-53.5725,109.532,40.9462,-33.2114,-9.0527,6.01144,7.12502,16.8957,35.2965,-72.3696,6.08419,18.6909,41.75,-1.87074,-17.4021,8.17967,-23.1392,-6.41536,-24.4787,32.7632,-39.9355,20.2382,-17.9265
-1.38231,16.2977,27.3735,-153.49,4.68867,-179.695,0.575238,-2.33584,-1.66032,-7.66665,-2.71103,0.163474,-8.2618,-0.990879,1.27349,-23.4704,2.38985,0.873906,22.5225,3.37678,-0.28563,11.2128,1.66193,0.319152,1.88845e-14,7.95139e-16,-38.5626,18.4308,-94.605,50.8301,-5.14045,-8.03877,17.9666,7.12502,17.8715,-11.2322,1.88845e-14,7.95139e-16,-35.44,-53.4484,107.626,37.7947,-35.2968,-7.6879,6.94674,7.12502,18.2091,36.1144,-73.3316,5.66005,18.3427,41.51,-1.50122,-17.9377,7.14099,-22.195,-6.55121,-24.8935,31.8372,-39.676,20.2929,-17.8372
-1.37422,16.254,27.2208,-153.8,4.68954,-180.249,0.672806,-2.41378,-2.20517,-7.76495,-2.8429,0.0255696,-8.40364,-1.01375,1.4464,-23.7597,2.38644,0.819622,22.9882,3.38031,-0.152598,11.4391,1.67934,0.388008,4.96962e-15,-1.98785e-14,-37.1128,17.4629,-92.7951,47.1393,-4.55328,-8.33779,18.1255,7.12502,17.5838,-11.0993,4.96962e-15,-1.98785e-14,-31.9593,-53.2345,105.126,34.8342,-37.0431,-5.69016,7.42103,7.12502,20.1302,36.3981,-73.8557,4.99918,18.3366,41.5556,-0.762595,-18.1375,5.25867,-20.8076,-6.86823,-25.5649,30.9846,-39.7611,20.2449,-17.0722
-1.37623,16.211,27.0306,-154.261,4.43806,-180.404,0.487968,-2.49332,-2.09861,-7.78685,-2.93266,-0.0221871,-8.3231,-1.0643,1.33588,-23.7848,2.37296,0.817026,23.4335,3.38158,-0.0841093,11.6121,1.69751,0.421646,2.92213e-14,1.19271e-14,-35.8629,16.5763,-90.8839,43.6679,-3.57793,-8.19205,18.261,7.12502,17.724,-10.9512,2.92213e-14,1.19271e-14,-28.7331,-52.8778,102.748,32.281,-37.863,-4.4357,9.09251,7.12502,21.3355,37.938,-73.9469,3.85437,19.4019,41.8841,0.34232,-17.6613,3.46282,-19.0645,-7.17316,-25.8618,30.2624,-40.1138,20.0278,-16.3994
-1.37049,16.1584,26.8567,-154.839,4.23193,-180.65,0.600787,-2.59613,-2.29772,-7.72004,-3.09358,-0.01481,-8.2999,-1.13482,1.46994,-24.1687,2.40101,0.84417,23.9612,3.43719,-0.0779026,11.8889,1.72858,0.442385,2.49475e-14,2.3059e-14,-34.3678,15.7592,-88.6838,40.3482,-1.87104,-7.8781,18.8499,7.12502,18.0261,-10.3348,2.49475e-14,2.3059e-14,-24.9563,-51.7442,99.7755,29.771,-38.2334,-3.91266,10.6736,7.12502,21.8378,39.4614,-73.9601,3.11927,19.912,42.4694,1.21585,-17.5394,3.19547,-17.327,-7.24573,-26.2465,29.6217,-40.2618,19.9974,-16.46
-1.36155,16.0974,26.6817,-155.332,4.06474,-181.025,0.474807,-2.70831,-2.60746,-7.57883,-3.26932,-0.0778601,-8.05194,-1.21375,1.57989,-24.5303,2.46421,0.874513,24.3193,3.53156,-0.0852601,12.0987,1.77218,0.461495,5.1684e-15,2.78299e-15,-32.7178,14.6584,-86.3099,37.0728,0.211094,-6.12975,18.5158,7.12502,19.7076,-10.5052,5.1684e-15,2.78299e-15,-20.6195,-49.1355,96.1096,27.3624,-39.9401,-1.67077,11.1664,7.12502,23.9891,39.6875,-74.1037,2.43604,20.1757,43.3276,2.2446,-17.0914,4.56482,-15.7682,-7.53097,-26.7135,29.1134,-40.2904,20.1622,-17.1326
-1.35214,16.0292,26.4986,-155.72,3.90714,-181.258,0.138235,-2.77547,-2.73312,-7.56271,-3.34698,-0.149648,-7.83142,-1.2465,1.56273,-24.3952,2.46998,0.989752,24.6353,3.55128,-0.139493,12.2003,1.795,0.429763,-3.28492e-14,-1.23246e-14,-31.4054,13.5282,-84.0251,33.5788,1.40196,-4.17218,16.8396,7.12502,21.5886,-11.977,-3.28492e-14,-1.23246e-14,-16.7602,-46.1414,92.8458,25.1446,-42.0703,0.305728,12.2071,7.12502,25.8832,40.4654,-74.3099,1.87015,20.5694,44.409,4.18176,-16.0493,4.07263,-14.4083,-7.91913,-27.0185,28.8242,-40.4797,20.2599,-17.6937
-1.34358,15.9587,26.3075,-156.136,3.63859,-181.389,-0.14847,-2.83906,-2.73471,-7.5897,-3.40931,-0.156843,-7.69082,-1.27434,1.54612,-24.3884,2.37937,1.07537,25.1547,3.47827,-0.252744,12.4081,1.76836,0.369494,1.87355e-14,-1.59028e-15,-29.7499,11.0985,-80.9817,29.9618,5.69593,-2.12992,15.3522,7.12502,23.5488,-13.2262,1.87355e-14,-1.59028e-15,-13.2858,-42.961,90.099,23.0836,-43.9617,1.09131,14.0267,7.12502,26.6352,42.173,-74.3996,1.31125,21.0579,45.761,6.17905,-14.5918,2.49791,-13.0674,-8.25928,-27.1969,28.7134,-40.6645,20.2919,-18.3352
-1.33242,15.8817,26.108,-156.58,3.39777,-181.391,-0.506739,-2.89071,-2.63371,-7.46359,-3.46286,-0.0977213,-7.34511,-1.31687,1.53484,-24.847,2.34162,1.08322,25.6888,3.4731,-0.326857,12.7133,1.75876,0.353721,3.97569e-15,3.97569e-16,-27.7354,8.04119,-77.6665,26.0912,10.1607,-2.20429,16.5039,7.12502,23.4774,-12.0836,3.97569e-15,3.97569e-16,-9.77513,-39.4969,87.461,21.2673,-45.7399,1.76391,15.6941,7.12502,27.2788,43.741,-74.3635,0.822416,21.7515,47.3425,7.44589,-13.0877,3.86552,-11.7378,-8.49502,-27.2652,28.8156,-40.8598,20.329,-19.2401
-1.32056,15.7961,25.9061,-157.013,3.17842,-181.416,-0.805322,-2.94689,-2.55771,-7.487,-3.51086,-0.036614,-7.19544,-1.34136,1.54419,-24.8521,2.35349,0.97404,26.1281,3.56588,-0.265305,12.8888,1.80932,0.420939,4.5969e-14,9.14409e-15,-26.1173,4.55344,-74.2171,22.7245,14.5554,-1.85634,16.5511,7.12502,23.8112,-11.9933,4.5969e-14,9.14409e-15,-6.8687,-35.6127,85.3442,19.7024,-47.9475,2.19269,17.1281,7.12502,27.6889,45.1099,-74.261,0.523478,22.2031,49.1323,7.24974,-11.8949,7.73082,-10.5014,-8.60588,-27.3798,29.0869,-40.9862,20.5585,-20.8064
-1.31192,15.709,25.6987,-157.269,2.83798,-181.315,-1.45595,-3.00818,-2.16341,-7.57795,-3.52926,-0.0183187,-6.93809,-1.36516,1.31399,-24.3752,2.294,0.891925,26.4165,3.54569,-0.153442,12.9066,1.82963,0.475015,-6.4605e-15,6.36111e-15,-24.7406,0.155924,-70.5872,19.6934,19.5869,-1.18313,15.5867,7.12502,24.4567,-12.8721,-6.4605e-15,6.36111e-15,-4.26222,-31.6094,83.4902,18.4048,-50.8989,2.91601,17.8552,7.12502,28.3803,45.7238,-74.2343,0.200902,22.734,51.0589,5.63578,-10.8219,8.25527,-9.48749,-8.96739,-27.3247,29.4842,-41.3702,20.4356,-21.3228
-1.30384,15.6256,25.4757,-157.532,2.36326,-180.993,-2.01545,-3.09882,-1.48249,-7.80888,-3.56888,0.101275,-6.89673,-1.40167,1.03863,-23.9751,2.16434,0.894131,27.0082,3.48708,-0.232067,13.0697,1.82309,0.442133,-4.87022e-15,3.97569e-15,-23.6817,-5.52238,-66.4478,16.6586,25.9642,-1.34564,15.1903,7.12502,24.3009,-13.2894,-4.87022e-15,3.97569e-15,-2.14829,-27.5344,82.0322,17.4012,-54.7538,4.07594,17.9805,7.12502,29.4882,45.6592,-74.0108,-0.207367,23.5566,52.9707,3.18763,-10.3645,8.51615,-8.40819,-9.47197,-27.0543,29.9725,-41.8788,20.1782,-21.4088
-1.2934,15.5469,25.2446,-157.736,1.87986,-180.797,-1.67031,-3.3851,-1.09302,-8.91779,-3.78103,0.461076,-8.30139,-1.42348,1.24948,-22.8143,2.08688,0.625117,28.2196,3.76018,-0.283983,13.3309,1.98604,0.532321,-3.4427e-14,-5.96354e-15,-24.0496,-12.1788,-61.1482,13.934,34.2407,-2.03805,15.1542,7.12502,23.6369,-13.4128,-3.4427e-14,-5.96354e-15,-1.84563,-21.4778,81.7758,16.5467,-60.5301,3.71456,18.3009,7.12502,29.1432,46.0399,-73.7559,-0.372637,23.8897,54.7752,0.365012,-10.6486,12.8306,-7.43401,-9.89408,-26.8898,30.5277,-42.0642,19.9452,-21.3158
-1.27696,15.4867,25.0141,-157.872,1.30275,-180.476,-2.93648,-3.43153,-0.304476,-8.82254,-3.77619,0.466185,-7.51591,-1.47434,0.746077,-22.7237,2.01419,0.472005,28.702,3.71606,-0.0355672,13.5045,2.00759,0.6593,5.57964e-14,1.03368e-14,-23.9671,-25.4641,-54.3661,11.1581,47.9692,-3.32211,15.1906,7.12502,22.4048,-13.5301,5.57964e-14,1.03368e-14,0.77901,-20.7358,80.0008,16.2885,-61.2567,3.22373,19.3597,7.12502,28.6743,47.179,-73.5537,-0.388097,24.227,56.3495,-1.94548,-10.9798,15.3232,-6.60788,-9.98486,-26.4608,31.0906,-41.7315,19.697,-22.1248
-1.25851,15.4409,24.7875,-157.995,0.526044,-180.235,-3.77247,-3.56062,0.330789,-9.06018,-3.85525,0.575927,-7.33226,-1.5211,0.470413,-22.1705,1.87603,0.307929,29.1802,3.6809,0.031834,13.5855,2.02403,0.714745,2.42269e-14,1.23246e-14,-26.5988,-40.0702,-45.5861,9.31637,63.4311,-4.75693,14.5019,7.12502,21.0269,-14.3782,2.42269e-14,1.23246e-14,2.86163,-21.236,78.4387,16.1499,-60.944,3.59516,20.0491,7.12502,29.0291,47.8079,-73.3097,-0.627382,24.6841,57.6631,-3.65022,-11.5393,14.4061,-5.83169,-10.1904,-25.9806,31.5665,-40.9751,19.5775,-23.7101
-1.23793,15.4051,24.5566,-158.105,-0.271966,-180.096,-4.50317,-2.37693,0.782856,-9.44913,-4.28653,0.504338,-7.37501,-2.64023,0.239205,-21.3119,1.71495,0.0991824,29.6789,3.69437,0.00703182,13.6126,2.05825,0.748397,6.66239e-16,-7.35503e-15,-33.3127,-54.0495,-33.5902,8.57258,78.5866,-5.6812,13.0646,7.12502,20.1388,-15.9115,6.66239e-16,-7.35503e-15,4.40039,-20.4265,77.2994,16.0242,-62.106,3.54624,19.9826,7.12502,28.9824,47.7493,-72.8198,-0.739935,25.0095,58.7203,-5.45032,-12.6881,14.1972,-5.04101,-10.5297,-25.5675,31.9009,-40.0767,19.3813,-25.262
-1.21571,15.3996,24.3241,-158.22,-1.14024,-179.964,-5.41815,-2.4414,1.19891,-9.6469,-4.4545,0.630889,-7.09022,-2.78386,0.0947157,-20.6926,1.48509,-0.302007,30.0303,3.58834,0.113509,13.6203,2.02326,0.844532,1.18106e-15,-1.56046e-14,-49.1104,-67.0449,-12.9915,8.70036,93.7087,-6.29134,11.7794,7.12502,19.5523,-17.2575,1.18106e-15,-1.56046e-14,6.3928,-23.0403,75.3817,16.1808,-59.7171,2.64391,20.2752,7.12502,28.1202,48.1868,-72.0809,-0.852624,25.2676,59.441,-7.24539,-13.9422,16.2461,-4.20061,-10.8679,-25.0977,32.0273,-38.7133,19.1584,-26.572
-1.19199,15.4276,24.0915,-158.34,-2.15079,-179.677,-6.2549,-2.50154,1.82428,-9.7803,-4.6129,0.735893,-6.80271,-2.93015,-0.189672,-20.4363,1.28409,-0.503361,30.4378,3.4681,0.11553,13.7371,1.97968,0.86956,-7.30751e-14,-1.38155e-14,-91.507,-74.3591,33.5833,9.59637,108.869,-7.124,11.4684,7.12502,18.7516,-17.6478,-7.30751e-14,-1.38155e-14,8.81946,-26.7448,72.8029,16.4747,-56.0926,2.38587,20.8765,7.12502,27.8736,48.8284,-71.0996,-1.06348,25.693,59.784,-8.97035,-14.9359,18.7712,-3.39435,-11.0473,-24.3397,32.045,-36.7269,18.9993,-27.9479
-1.16669,15.4897,23.8601,-158.291,-3.01512,-179.481,-7.13549,-2.52036,2.27159,-9.97601,-4.7424,0.837364,-6.54972,-3.05781,-0.381383,-20.381,1.15061,-0.499545,30.9915,3.47541,-0.126706,13.972,1.98135,0.792031,2.81467e-14,-1.89342e-14,-136.976,-68.2147,82.9652,10.4184,124.139,-8.99519,11.9377,7.12502,16.9511,-17.3426,2.81467e-14,-1.89342e-14,10.7528,-25.5144,71.6764,16.4694,-57.4151,2.81051,20.5315,7.12502,28.2795,48.4168,-70.0498,-1.21936,25.9986,59.7261,-10.3281,-15.5934,19.5862,-2.94135,-11.0914,-23.6126,32.0519,-34.5139,18.5749,-28.0269
-1.14007,15.5669,23.6395,-158.205,-3.82614,-179.184,-7.93764,-2.52197,2.68031,-10.1756,-4.85024,1.03192,-6.337,-3.16799,-0.4511,-20.4673,1.02695,-0.419956,31.7195,3.55256,-0.505312,14.3244,2.00711,0.665131,-2.46392e-14,-5.37961e-15,-141.984,-66.9502,90.0873,10.8548,126.019,-9.27674,11.6134,7.12502,16.68,-17.6899,-2.46392e-14,-5.37961e-15,12.3038,-23.3273,71.1527,16.5379,-59.6339,2.65518,19.9294,7.12502,28.131,47.8393,-68.8803,-0.997953,26.2011,59.3685,-10.926,-16.5055,18.804,-2.84776,-10.8851,-22.7159,32.3061,-32.2165,18.0236,-27.1173
-1.1155,15.6527,23.4282,-158.079,-4.76822,-178.913,-8.80569,-2.58865,3.07305,-10.2693,-5.03367,1.26358,-5.97394,-3.30206,-0.490726,-20.773,0.925629,-0.499383,32.387,3.62655,-0.679624,14.6976,2.02848,0.646223,4.50744e-14,-9.59136e-15,-144.57,-66.7049,94.5357,11.1619,126.329,-9.57357,11.5788,7.12502,16.3943,-17.7484,4.50744e-14,-9.59136e-15,14.077,-21.8468,70.4558,16.6615,-60.9988,2.46567,19.4396,7.12502,27.9499,47.3791,-67.68,-0.723403,26.2568,58.8205,-11.6266,-17.4832,19.2178,-3.00939,-10.8921,-21.8287,32.7154,-29.9136,17.7332,-25.8403
-1.08915,15.7587,23.2418,-157.552,-6.21415,-178.934,-9.72242,-2.7895,3.29249,-10.6056,-5.45077,1.4501,-5.85152,-3.57089,-0.479529,-20.6958,0.774561,-0.546249,32.8428,3.60522,-0.854329,14.8942,2.02047,0.593874,2.60035e-14,1.59028e-15,-140.642,-69.1251,92.0176,11.1841,123.007,-9.50971,10.9505,7.12502,16.4557,-18.3716,2.60035e-14,1.59028e-15,15.7502,-22.1934,69.251,16.9383,-61.0246,2.59843,19.1412,7.12502,28.0768,47.06,-66.9464,-0.840927,26.0466,58.106,-12.497,-18.4018,20.5482,-3.98043,-11.3549,-20.9567,33.2906,-27.1958,17.741,-22.8936
-1.08368,15.8846,23.0478,-157.386,-7.42882,-178.991,-10.3643,-2.90868,3.60928,-10.9078,-5.74171,1.58411,-5.85817,-3.77793,-0.555282,-20.1816,0.54828,-0.802932,33.2108,3.54129,-0.939639,14.9471,1.99829,0.601177,-4.42296e-15,-6.26172e-15,-122.763,-73.9656,75.1675,10.9263,115.263,-8.84612,9.81699,7.12502,17.0946,-19.4509,-4.42296e-15,-6.26172e-15,16.8972,-21.5631,68.7882,17.0324,-61.7253,2.68836,19.0635,7.12502,28.1627,46.9681,-65.6771,-1.12344,25.8825,57.2993,-12.9801,-19.0095,21.1331,-4.50687,-11.4595,-20.405,33.8141,-24.5371,18.0954,-19.124
-1.07954,16.0192,22.8576,-157.451,-8.36097,-178.763,-10.7758,-2.97189,4.03561,-10.994,-5.89958,1.82383,-5.75163,-3.89225,-0.575371,-20.0991,0.442583,-1.08591,33.642,3.61822,-0.936082,15.1263,2.02823,0.681403,9.44227e-15,1.45113e-14,-108.57,-75.9002,62.2155,10.9138,110.773,-8.70294,9.69193,7.12502,17.2324,-19.564,9.44227e-15,1.45113e-14,18.2667,-21.1582,68.1291,17.0894,-61.7476,2.50402,18.9805,7.12502,27.9865,46.914,-64.0749,-1.07235,26.0253,56.3726,-12.4932,-19.8211,20.0204,-4.77637,-11.1794,-19.7734,34.1203,-21.7599,19.571,-15.0711
-1.0726,16.1579,22.6799,-157.494,-9.07955,-178.666,-11.2369,-2.99029,4.16899,-11.298,-6.04175,2.0083,-5.83277,-4.01175,-0.478259,-18.9107,0.287988,-1.12574,33.8836,3.66776,-1.15219,14.9745,2.09452,0.610556,8.78628e-14,2.42517e-14,-88.2265,-76.2874,42.9773,10.907,105.968,-8.65499,9.80397,7.12502,17.2785,-19.4479,8.78628e-14,2.42517e-14,19.047,-21.3925,67.4988,17.1899,-61.2881,2.51204,18.8508,7.12502,27.9942,46.7831,-62.5653,-0.782254,25.9194,55.3942,-11.7541,-20.7432,18.0962,-5.17158,-10.7715,-19.4302,34.3524,-18.1971,22.9613,-8.33498
-1.06365,16.3227,22.4918,-158.315,-10.9129,-179.213,-10.9941,-3.53483,3.89592,-11.0689,-6.63822,1.92819,-5.72237,-4.24341,-0.441054,-19.3742,-0.107791,-0.889219,34.6718,3.20158,-1.29658,15.4627,1.93405,0.452366,8.12532e-15,-1.33186e-14,-63.479,-74.1474,18.6901,10.8923,98.4832,-8.0713,9.11015,7.12502,17.8402,-20.0915,8.12532e-15,-1.33186e-14,20.7098,-23.1777,65.8439,17.4279,-59.2515,2.3773,19.2525,7.12502,27.8654,47.2058,-60.0444,-1.37947,25.3025,54.3842,-11.7142,-21.8553,17.7979,-4.86513,-11.1539,-19.3739,34.475,-19.138,22.5936,-7.87946
-1.03813,16.4668,22.3527,-157.712,-9.98123,-179.525,-11.4833,-3.09927,2.94757,-11.1681,-6.06083,1.86543,-5.4441,-3.91616,-0.00184445,-18.6961,-0.169855,-1.0057,34.6552,3.12184,-1.00961,15.2868,1.96604,0.577357,3.68249e-14,3.16068e-14,-54.6468,-72.4667,10.5882,10.95,94.3493,-7.49212,9.01356,7.12502,18.3975,-20.1365,3.68249e-14,3.16068e-14,22.5637,-24.6318,64.2244,17.6769,-57.2956,2.61814,19.774,7.12502,28.0956,47.6897,-59.6023,0.144937,24.2709,53.3069,-10.1742,-22.3732,17.4731,-6.17687,-9.65559,-20.1181,34.6115,-20.5517,23.5765,-3.10401
-1.03598,16.6312,22.2119,-157.602,-10.0782,-179.326,-11.7448,-2.85294,3.10491,-11.358,-5.81136,1.89988,-5.51445,-3.82987,-0.0438453,-17.5298,-0.389914,-1.06452,34.7643,2.92997,-0.899252,15.0643,1.9675,0.600507,-2.58172e-14,-3.18055e-15,-51.9698,-71.4193,8.83005,10.9916,92.6327,-7.463,9.69031,7.12502,18.4255,-19.4571,-2.58172e-14,-3.18055e-15,23.2412,-23.8058,64.3816,17.5664,-57.6042,2.64965,19.7041,7.12502,28.1257,47.6149,-58.5115,1.04952,23.802,52.1305,-9.33405,-22.7542,19.393,-7.21182,-8.80892,-20.0718,34.6042,-22.0608,24.6725,-0.203005
-1.02831,16.807,22.0697,-157.806,-10.5782,-179.376,-11.731,-2.90775,3.03928,-11.2007,-5.82897,1.91788,-5.34159,-3.80871,-0.00395669,-18.0901,-0.789306,-0.801702,35.5118,2.43071,-1.04639,15.5598,1.79441,0.429968,-2.75565e-14,9.14409e-15,-45.6409,-69.332,2.93334,11.0373,88.7778,-7.33465,9.75221,7.12502,18.5489,-19.3834,-2.75565e-14,9.14409e-15,24.3664,-22.7178,64.3875,17.3375,-57.6926,2.33169,19.6416,7.12502,27.8218,47.6019,-57.0345,1.87781,22.9937,50.9876,-9.6313,-23.121,22.4945,-7.9771,-8.32794,-20.1188,34.4719,-24.1425,24.9565,1.13507
-1.01609,16.9817,21.9426,-158.147,-11.1095,-179.666,-11.4646,-3.13009,2.6563,-10.8896,-5.98579,1.92059,-5.11184,-3.81212,0.193557,-17.8961,-0.98367,-0.678464,35.7946,2.21992,-1.097,15.6532,1.74787,0.35824,-6.69656e-14,-5.56597e-15,-41.658,-68.1969,-0.719393,11.1254,85.8488,-6.88269,9.47524,7.12502,18.9836,-19.6184,-6.69656e-14,-5.56597e-15,25.7222,-22.3096,63.809,17.2089,-57.0415,2.22829,20.1927,7.12502,27.7229,48.1689,-55.4991,2.38517,22.2808,49.9705,-8.5516,-23.7313,22.4124,-8.59348,-7.76071,-20.372,34.0817,-25.7458,24.8429,3.0742
-1.00235,17.1646,21.8024,-158.984,-12.3997,-180.363,-10.8778,-3.69853,1.99594,-10.3737,-6.50841,1.82859,-4.82138,-3.95315,0.434413,-17.7832,-1.16659,-0.654105,36.1006,1.97941,-0.93813,15.7734,1.70362,0.38874,-1.21756e-15,-3.18055e-15,-40.1407,-67.8587,-1.85167,11.1865,84.3123,-6.58856,9.40462,7.12502,19.2665,-19.661,-1.21756e-15,-3.18055e-15,27.0597,-22.2174,63.1088,17.1306,-56.6726,2.37827,20.9789,7.12502,27.8663,48.932,-53.2408,2.22446,21.4849,49.1321,-7.2178,-25.1555,22.3143,-8.55558,-7.46243,-20.7289,33.4802,-25.0883,25.6439,5.63974
-0.977826,17.3377,21.6768,-159.218,-12.6333,-181.112,-10.53,-3.85598,0.970392,-10.1798,-6.57391,1.64344,-4.71345,-3.89766,0.813009,-17.6832,-1.35733,-0.469412,36.6569,1.76966,-0.835341,16.0259,1.71074,0.383345,-2.69602e-14,-2.38542e-15,-37.5522,-66.0947,-4.29435,11.2679,81.7166,-6.33256,8.97209,7.12502,19.5126,-20.0688,-2.69602e-14,-2.38542e-15,27.8904,-21.8786,62.9099,17.0923,-56.8012,2.45784,21.5555,7.12502,27.9424,49.4962,-52.085,3.0353,20.2581,48.4592,-5.32113,-26.9407,22.4698,-9.17635,-6.70343,-21.553,32.8886,-24.9115,24.9964,7.26093
-0.97413,17.5113,21.5697,-159.397,-12.8619,-181.471,-10.2507,-3.86248,0.594068,-10.0113,-6.50046,1.51821,-4.65889,-3.81742,0.905822,-17.3744,-1.58805,-0.282547,37.1517,1.57636,-0.884475,16.2027,1.71379,0.314281,6.20208e-14,-7.55382e-15,-34.3471,-63.5115,-7.45697,11.374,78.025,-6.02365,8.32638,7.12502,19.8096,-20.6841,6.20208e-14,-7.55382e-15,28.8364,-22.2121,62.3216,17.0699,-55.9115,1.91664,21.7045,7.12502,27.4249,49.7283,-51.2848,3.39009,19.5606,47.8661,-2.70556,-28.1246,21.3972,-9.9883,-6.00798,-22.1246,32.3785,-24.4019,24.7427,7.61783
-0.961507,17.6764,21.4598,-159.48,-12.9479,-182.033,-10.2049,-3.92295,-0.144825,-9.69034,-6.45741,1.38576,-4.27757,-3.72646,1.15159,-17.128,-1.77742,-0.187652,37.5183,1.40349,-0.84989,16.3294,1.70968,0.29648,-2.05494e-14,-1.47101e-14,-33.3438,-63.0137,-8.21499,11.3954,76.5645,-5.7707,8.15915,7.12502,20.0528,-20.8261,-2.05494e-14,-1.47101e-14,29.9831,-22.5711,61.4388,16.9591,-54.9616,1.02449,21.4423,7.12502,26.5713,49.5983,-50.7074,4.05932,18.4659,47.4052,-2.24316,-29.6519,24.8172,-10.9673,-4.9662,-22.8865,32.0287,-21.6997,26.3678,9.18619
-0.948005,17.83,21.3592,-159.557,-13.003,-182.402,-9.91483,-3.89922,-0.6433,-9.5357,-6.34873,1.24674,-4.23755,-3.62798,1.30262,-16.8065,-2.01613,-0.0343775,37.9814,1.1837,-0.830724,16.489,1.70848,0.257989,5.79582e-14,1.13307e-14,-32.6838,-62.2554,-8.69149,11.4197,75.2366,-5.44218,7.9175,7.12502,20.3685,-21.0343,5.79582e-14,1.13307e-14,30.8735,-23.5911,60.1494,17.276,-53.6944,1.03839,21.4409,7.12502,26.5846,49.5949,-50.3571,4.65868,17.6402,47.104,-3.69035,-31.3211,32.2567,-12.0534,-3.86519,-23.4666,31.758,-17.9039,29.1904,10.2878
-0.942434,17.9723,21.2625,-159.486,-13.1792,-182.728,-9.6235,-3.84112,-0.926724,-9.56713,-6.25103,1.10399,-4.42163,-3.56145,1.34657,-16.2822,-2.30872,0.175405,38.4316,0.953898,-0.961441,16.5938,1.70481,0.143501,2.74944e-14,-1.8487e-14,-31.2236,-60.0586,-10.1701,11.5623,72.5017,-5.03511,7.4058,7.12502,20.7597,-21.5037,2.74944e-14,-1.8487e-14,31.5395,-24.7505,59.05,17.5903,-52.4663,1.38488,21.8372,7.12502,26.9162,49.9406,-50.2665,4.68192,17.0823,46.9396,-5.96388,-32.673,39.7563,-13.3421,-3.19262,-24.0436,31.6699,-18.4647,25.5715,7.67829
-0.939211,18.105,21.1691,-159.23,-13.4093,-183.613,-9.49898,-3.91384,-1.72205,-9.47499,-6.28058,0.868821,-4.34127,-3.52883,1.54141,-15.8119,2.11178,-0.998836,38.6658,-1.19715,1.16397,16.6027,-1.94013,0.0383144,5.42806e-14,1.21259e-14,-31.3405,-60.0617,-9.72983,11.6856,72.0609,-4.76941,7.7911,7.12502,21.015,-21.0903,5.42806e-14,1.21259e-14,32.5727,-26.0989,57.5328,17.8296,-50.7251,1.30154,22.1289,7.12502,26.8364,50.2445,-50.3054,4.14181,16.0734,46.9028,-1.59652,-33.5602,35.9006,-14.7043,-3.04592,-25.2116,31.7888,-16.7309,25.4074,7.7589
-0.913248,18.2247,21.0876,-158.715,-13.1509,-183.741,-9.696,-3.77042,-2.23543,-9.39968,-6.04202,0.938018,-4.10758,-3.37972,1.88537,-15.6259,2.05685,-0.983085,38.867,-1.3976,1.18116,16.6677,-2.04144,-0.000700482,-6.29402e-14,-2.54444e-14,-29.6269,-58.3296,-11.3512,11.8257,69.361,-4.52891,8.26177,7.12502,21.246,-20.5938,-6.29402e-14,-2.54444e-14,33.5655,-26.6862,56.4776,17.9209,-49.7497,1.19557,22.2129,7.12502,26.735,50.344,-51.0653,4.70256,15.5614,46.8691,-2.35604,-35.2351,39.3573,-16.6148,-2.75055,-25.6738,31.9285,-15.6192,25.2821,7.92367
-0.925553,18.3308,21.03,-157.832,-12.5516,-183.422,-10.0286,-3.33039,-1.79209,-9.63891,-5.54186,1.00045,-4.23543,-3.17696,1.73021,-15.2071,1.99269,-1.11239,38.9958,-1.62896,1.31445,16.6376,-2.16991,0.0331665,8.86952e-14,3.10104e-14,-27.5423,-55.4372,-13.4522,12.0181,65.3679,-4.13886,8.06631,7.12502,21.6206,-20.7466,8.86952e-14,3.10104e-14,33.8966,-26.5202,56.3695,17.9719,-49.8881,1.02818,21.8865,7.12502,26.5748,50.042,-52.5278,4.24264,15.8345,46.8536,-1.1396,-36.1136,41.3066,-19.0545,-2.38071,-25.9943,32.1579,-14.5648,25.315,7.88017
-0.938755,18.4384,20.9265,-158.219,-13.1673,-183.3,-9.52515,-3.37279,-1.33727,-9.3475,-5.54096,1.03917,-4.22861,-3.16277,1.54093,-16.1287,2.22761,-0.304899,40.2231,-1.45859,0.45466,17.5398,-2.15778,-0.516651,9.95166e-15,1.82882e-14,-27.5106,-56.112,-13.0488,11.9979,64.965,-3.8733,7.60149,7.12502,21.8756,-21.1819,9.95166e-15,1.82882e-14,34.3507,-26.3838,56.147,18.0854,-49.9155,1.19726,21.6644,7.12502,26.7366,49.7953,-52.0188,3.14378,16.3911,46.844,-1.77111,-36.9897,44.1099,-19.6611,-1.79631,-26.0631,32.3684,-12.5437,24.3708,7.04083
-0.938237,18.5176,20.8406,-158.076,-12.9388,-182.93,-9.60736,-3.11602,-1.03477,-9.01167,-5.14637,1.13121,-3.84993,-2.95663,1.46538,-16.4318,2.13937,-0.167128,40.3288,-1.57795,0.329806,17.6795,-2.18297,-0.62265,-5.01434e-14,-1.51076e-14,-29.427,-59.8232,-10.3939,11.9263,67.5979,-3.82273,7.8144,7.12502,21.9242,-20.9633,-5.01434e-14,-1.51076e-14,35.4114,-26.6358,55.2432,18.234,-49.3826,1.17742,21.6428,7.12502,26.7176,49.7766,-52.5953,2.97492,16.8075,46.8661,0.233797,-38.3816,44.7716,-20.8731,-1.57718,-26.0852,32.4971,-12.9713,23.5317,10.5311
-0.938705,18.5954,20.7573,-158.119,-13.1656,-182.555,-9.43966,-3.01169,-0.547198,-8.7559,-4.97668,1.22086,-3.70126,-2.87061,1.29619,-16.0826,1.97366,-0.330362,40.0766,-1.84305,0.552989,17.4497,-2.27148,-0.526881,1.96937e-14,-1.27222e-14,-29.9575,-60.7303,-9.56744,11.9991,67.5099,-3.87121,8.27337,7.12502,21.8776,-20.5098,1.96937e-14,-1.27222e-14,36.2212,-27.1027,54.2444,18.3175,-48.8422,0.882519,21.5264,7.12502,26.4354,49.703,-52.8907,2.60348,17.3185,46.8023,4.4239,-38.6942,42.4142,-21.8574,-1.55823,-25.9545,32.6207,-12.4932,22.9573,10.8478
-0.925281,18.6552,20.6662,-157.888,-12.9878,-182.68,-9.43364,-2.97425,-0.873692,-8.60027,-4.87571,1.25272,-3.514,-2.79229,1.50649,-15.7071,1.89629,-0.336836,39.8869,-1.96324,0.558451,17.2467,-2.31907,-0.535144,-2.1301e-14,-1.19271e-15,-28.7083,-59.7768,-10.803,12.1044,65.6255,-3.66663,8.24414,7.12502,22.0741,-20.5159,-2.1301e-14,-1.19271e-15,36.5516,-27.2489,53.5794,18.4984,-48.6086,0.901428,21.6553,7.12502,26.4535,49.8291,-53.5192,2.95531,16.9064,46.6837,6.14128,-38.3164,40.9023,-23.0671,-1.43812,-26.3754,32.8987,-11.2826,22.5388,8.08904
-0.934408,18.7029,20.5976,-157.983,-13.291,-181.48,-9.11738,-2.82074,0.532114,-8.49103,-4.72046,1.64941,-3.64379,-2.75911,1.16517,-15.4131,1.84943,-0.401949,39.7011,-1.99516,0.549478,17.0678,-2.3382,-0.522848,-1.27719e-14,-5.56597e-15,-26.6466,-57.9828,-12.877,12.2877,62.9479,-3.26798,7.61114,7.12502,22.4568,-21.1032,-1.27719e-14,-5.56597e-15,36.647,-27.2581,53.1287,18.7049,-48.0762,0.795019,21.8791,7.12502,26.3516,50.0682,-53.9832,2.61086,18.2973,46.352,7.35394,-37.4807,40.6077,-24.1966,-1.53041,-25.3696,33.1038,-10.6125,22.1094,6.2557
-0.947082,18.7428,20.5302,-157.905,-13.2024,-180.661,-8.87418,-2.57846,1.50623,-8.42719,-4.43455,1.89225,-3.76334,-2.65166,0.907312,-15.1079,1.76003,-0.443386,39.5918,-2.12348,0.509342,16.9302,-2.40605,-0.550382,1.56543e-14,-7.95139e-16,-26.0333,-58.1015,-13.2565,12.3598,62.4009,-3.05761,7.17357,7.12502,22.6587,-21.5163,1.56543e-14,-7.95139e-16,36.5792,-26.8469,53.2382,18.6974,-47.9367,0.381782,21.3376,7.12502,25.956,49.5853,-54.6687,2.21554,19.2898,45.9724,7.51207,-37.0944,41.5406,-25.2813,-1.82044,-24.8198,33.2566,-10.0273,21.9127,3.62099
-0.926186,18.7984,20.4027,-159.461,-14.228,-180.096,-7.60636,-2.9219,1.90073,-7.82168,-4.73581,2.14916,-3.82957,-2.74646,0.992322,-14.6402,1.7125,-0.447498,39.4115,-2.25821,0.615172,16.7167,-2.45354,-0.516423,2.6749e-14,5.96354e-15,-25.2661,-57.3468,-14.0502,12.4594,61.0956,-3.04255,7.42366,7.12502,22.6731,-21.2644,2.6749e-14,5.96354e-15,36.7246,-27.2707,52.6396,18.9118,-47.5212,0.74838,22.125,7.12502,26.307,50.3208,-53.0094,2.7293,19.6999,45.472,2.09994,-38.2211,44.7272,-24.2114,-2.06144,-23.9996,33.3957,-7.78153,20.9557,-2.44186
-0.92043,18.8242,20.3158,-160.13,-14.4809,-179.423,-6.84655,-2.96636,2.63345,-7.48594,-4.73438,2.28695,-3.94378,-2.74389,0.766077,-14.4478,1.75277,-0.563257,39.284,-2.2838,0.942386,16.6065,-2.43254,-0.348215,5.75482e-14,-9.54166e-15,-24.2407,-56.3077,-15.2977,12.5916,59.5339,-3.13022,7.96416,7.12502,22.589,-20.7342,5.75482e-14,-9.54166e-15,36.7035,-27.4242,51.9893,19.1959,-47.2398,0.579342,22.3909,7.12502,26.1452,50.6107,-52.8114,3.00498,20.2664,44.9811,0.485275,-39.0146,46.0533,-24.1736,-2.5648,-23.3407,33.461,-7.06817,20.3911,-5.619
-0.919766,18.8363,20.2511,-160.4,-14.4697,-178.608,-6.27525,-2.90301,3.57057,-7.26753,-4.62418,2.49912,-4.08904,-2.71022,0.501271,-14.6133,1.76541,-0.801001,39.303,-2.27129,1.1724,16.6634,-2.42205,-0.201871,-7.32522e-14,2.42517e-14,-23.2104,-55.9144,-16.3799,12.6477,58.5996,-3.29832,7.9833,7.12502,22.4276,-20.7346,-7.32522e-14,2.42517e-14,36.2719,-26.4805,52.385,19.2661,-47.7544,-0.0338817,22.0287,7.12502,25.5579,50.3341,-53.2694,3.38427,20.8545,44.4632,-2.23325,-39.6686,48.1782,-24.5649,-3.31285,-22.5612,33.491,-8.03501,19.9008,-3.54912
-0.919576,18.8392,20.1805,-160.653,-14.3308,-178.081,-5.63886,-2.81005,4.19514,-7.12763,-4.45761,2.57996,-4.33768,-2.64178,0.281891,-14.4396,1.75178,-0.762363,39.2263,-2.32746,1.2006,16.5798,-2.43662,-0.202661,-4.17199e-14,1.35174e-14,-22.8084,-55.9898,-16.7884,12.6215,58.2429,-3.29649,7.65587,7.12502,22.4294,-21.0618,-4.17199e-14,1.35174e-14,35.6361,-25.2064,53.4334,19.0991,-48.3347,-0.471046,21.132,7.12502,25.1391,49.4968,-53.7276,3.68464,21.098,43.9534,-5.0063,-39.4393,49.3181,-24.8372,-4.17205,-22.1134,33.6624,-8.88981,19.6187,-2.57855
-0.918534,18.8269,20.108,-160.947,-14.108,-177.481,-4.95793,-2.67133,4.83494,-7.03859,-4.22527,2.64893,-4.66423,-2.54771,0.0458261,-14.2288,1.77083,-0.678365,39.2032,-2.38192,1.25854,16.5164,-2.4468,-0.200401,2.03754e-15,2.22639e-14,-21.984,-54.3647,-17.8349,12.6889,56.4047,-3.29652,7.57017,7.12502,22.4294,-21.1475,2.03754e-15,2.22639e-14,35.1337,-25.1196,53.4864,19.1088,-48.1284,-1.29684,21.0306,7.12502,24.3477,49.504,-54.227,3.89775,21.4877,43.4259,-4.6874,-39.3851,48.2771,-25.0398,-5.07557,-21.5835,33.8493,-9.25594,19.7243,-4.37919
-0.918198,18.8017,20.038,-161.21,-13.8917,-176.879,-4.35838,-2.53844,5.52207,-6.92267,-3.99847,2.67084,-4.92212,-2.45957,-0.275571,-14.0337,1.76349,-0.579041,39.1631,-2.48492,1.33503,16.4494,-2.47042,-0.200762,2.30093e-14,-1.31198e-14,-21.2294,-52.6203,-18.8723,12.739,54.6485,-3.31173,7.89338,7.12502,22.4148,-20.8261,2.30093e-14,-1.31198e-14,34.799,-25.6193,52.784,19.3999,-46.7672,-1.99529,21.6261,7.12502,23.6779,50.1878,-54.7903,4.1421,21.8507,42.8503,-5.31361,-39.3758,47.4729,-25.2343,-5.77071,-21.0539,34.0536,-9.1738,19.7118,-6.92305
-0.924125,18.7658,19.9719,-161.205,-13.3189,-176.45,-4.01481,-2.33456,6.05318,-6.81861,-3.69602,2.61381,-5.03384,-2.33009,-0.613232,-13.8019,1.73643,-0.545448,38.9884,-2.60262,1.51794,16.3053,-2.48723,-0.140139,-2.72087e-14,2.46493e-14,-20.845,-52.1015,-19.4646,12.7397,54.308,-3.40018,8.12884,7.12502,22.3299,-20.6008,-2.72087e-14,2.46493e-14,34.221,-25.2639,52.7277,19.5971,-45.9079,-2.59758,20.9644,7.12502,23.1001,49.5997,-55.6933,3.87849,22.3027,42.3,-3.32725,-38.9305,44.6162,-25.5077,-5.98757,-20.8905,34.1846,-8.70669,19.5942,-9.98011
-0.907163,18.7082,19.9069,-160.709,-11.4985,-175.964,-3.90583,-1.70935,5.91566,-6.91657,-2.86919,2.60606,-5.14137,-1.92654,-0.546211,-13.5558,1.71227,-0.500575,38.896,-2.74822,1.69092,16.2025,-2.52518,-0.0947306,-1.3244e-14,-1.19271e-15,-20.2098,-49.8089,-20.4161,12.8467,52.2627,-3.34782,7.95229,7.12502,22.3801,-20.7713,-1.3244e-14,-1.19271e-15,33.6835,-25.3479,52.499,19.6813,-45.4515,-3.27409,20.8166,7.12502,22.4509,49.5317,-57.3015,4.9391,22.3571,41.66,-0.553029,-38.963,41.4868,-26.2812,-5.58414,-20.8463,34.3944,-8.4689,19.9663,-13.1239
-0.916448,18.6581,19.8281,-161.068,-11.6297,-175.852,-3.13575,-1.80821,6.36494,-6.81806,-2.91088,2.51154,-5.51043,-1.96217,-0.857395,-13.5242,1.72978,-0.434037,38.9339,-2.8315,1.82581,16.2196,-2.53855,-0.0643317,2.98177e-14,-9.93923e-15,-19.585,-47.4499,-21.3509,13.0232,50.1331,-3.05126,7.74736,7.12502,22.6648,-20.9418,2.98177e-14,-9.93923e-15,33.0311,-25.1772,52.4939,19.7108,-45.0693,-3.67161,20.7821,7.12502,22.0693,49.5427,-57.5774,4.53073,22.3176,41.1264,-1.98879,-38.9753,42.3005,-25.9018,-6.15379,-20.8207,34.4503,-6.85439,19.7167,-18.2466
-0.902044,18.5825,19.7441,-161.351,-11.2563,-175.544,-2.71413,-1.80711,6.46811,-6.49736,-2.84101,2.55584,-5.40921,-1.90302,-0.865153,-13.9265,1.73709,-0.384558,38.9701,-2.83191,1.89663,16.3401,-2.50114,-0.0439908,-4.32357e-15,-8.34896e-15,-18.8877,-47.1862,-22.0449,13.0636,49.7245,-2.84842,7.4395,7.12502,22.8594,-21.2257,-4.32357e-15,-8.34896e-15,32.2604,-24.0028,52.8811,19.7093,-45.53,-4.05615,20.6777,7.12502,21.7,49.4815,-58.0292,5.44773,21.9281,40.6385,-8.07087,-38.8697,46.7877,-25.5759,-6.48929,-20.5765,34.382,-5.76702,19.7106,-20.978
-0.892652,18.489,19.6551,-161.526,-10.8071,-175.83,-2.1493,-1.88673,6.0541,-6.35207,-2.87188,2.43098,-5.5616,-1.88269,-0.745847,-14.2703,1.78809,-0.332324,39.2024,-2.79638,1.82993,16.5471,-2.49165,-0.0865645,6.16232e-15,-2.82274e-14,-18.3021,-46.3283,-22.6535,13.1071,49.0584,-2.87119,7.42387,7.12502,22.8376,-21.244,6.16232e-15,-2.82274e-14,31.2354,-22.9498,53.1786,19.734,-45.7247,-4.42459,20.3159,7.12502,21.3462,49.1602,-58.6666,6.18709,20.83,40.292,-12.8959,-38.5321,49.725,-24.9645,-6.97702,-21.0017,34.0604,-5.61922,19.8768,-20.7539
-0.890328,18.3819,19.5552,-161.798,-10.1105,-176.637,-1.57856,-1.93889,5.14123,-6.20383,-2.87442,2.07333,-5.69622,-1.82314,-0.59392,-13.961,1.83453,-0.210005,39.1638,-2.85907,1.91456,16.4522,-2.50868,-0.0826104,-2.86747e-14,-2.78299e-15,-18.1819,-45.9464,-22.8072,13.0937,48.8943,-2.82993,7.60577,7.12502,22.8772,-21.0572,-2.86747e-14,-2.78299e-15,30.3806,-22.6759,52.8297,19.8463,-45.0146,-4.57354,20.0293,7.12502,21.2031,48.8897,-59.1936,6.47976,19.4275,40.0407,-14.3736,-38.789,50.4484,-23.875,-7.09102,-22.1748,33.6382,-6.36864,20.0285,-18.4265
-0.868381,18.2583,19.4331,-162.352,-8.89267,-176.852,-1.52292,-1.68364,4.31937,-5.58216,-2.49147,1.84728,-5.01904,-1.54634,-0.4124,-13.7532,1.66514,-0.0779141,38.6051,-3.06769,2.07236,16.1142,-2.51719,-0.0524208,-4.72983e-14,1.74931e-14,-18.3854,-47.7056,-22.2772,12.8532,50.1497,-2.65586,7.74241,7.12502,23.0442,-20.8998,-4.72983e-14,1.74931e-14,30.3635,-23.0924,51.4865,20.1248,-43.6223,-4.50228,19.6177,7.12502,21.2716,48.4704,-59.5535,8.1654,18.1334,39.8617,-19.1078,-38.0012,52.5469,-22.3869,-6.42477,-22.8795,33.1241,-7.79425,20.087,-15.6008
-0.849867,18.1235,19.3253,-162.669,-7.89794,-177.197,-1.41859,-1.48577,3.58263,-5.02927,-2.18701,1.56691,-4.46433,-1.32653,-0.3187,-15.0776,1.70358,0.530982,38.9572,-3.03702,1.80705,16.619,-2.39354,-0.285009,1.94188e-14,-9.44227e-15,-18.8873,-50.427,-21.2886,12.5108,52.4808,-2.97312,8.4515,7.12502,22.7398,-20.2284,1.94188e-14,-9.44227e-15,30.5278,-23.7178,49.7003,20.3567,-42.4952,-4.71347,19.1485,7.12502,21.0687,48.024,-60.2255,9.28272,16.9398,39.8012,-23.5985,-36.2471,54.3282,-21.0257,-5.56325,-23.725,32.557,-8.98034,19.5198,-14.3625
-0.829261,17.9838,19.2281,-162.821,-7.28315,-177.586,-1.0572,-1.471,2.88837,-4.79776,-2.13465,1.37586,-4.40464,-1.25772,-0.126031,-15.6367,1.7764,0.727742,38.9859,-2.92858,1.80501,16.7729,-2.28859,-0.302663,2.75565e-14,-7.60351e-15,-19.6806,-53.6006,-19.8159,12.1532,55.9528,-3.46959,9.3677,7.12502,22.2632,-19.3699,2.75565e-14,-7.60351e-15,29.9455,-22.8072,49.3966,20.3977,-41.9126,-4.0109,19.5187,7.12502,21.7435,48.3175,-61.0635,10.2037,15.589,39.7164,-27.704,-34.3587,56.0742,-19.8644,-4.71753,-24.4921,32.1133,-10.1105,18.4294,-15.5605
-0.810649,17.8399,19.1244,-162.985,-6.7473,-178.258,-0.701612,-1.51469,2.01097,-4.64211,-2.17674,1.08074,-4.42133,-1.23598,0.0670469,-15.4317,1.79333,0.777719,38.5585,-2.87737,1.99522,16.497,-2.21447,-0.202796,-4.11849e-14,1.79465e-14,-20.6661,-55.8241,-18.3001,11.9941,58.7625,-3.36905,9.44322,7.12502,22.3597,-19.2828,-4.11849e-14,1.79465e-14,29.0472,-22.0067,48.9734,20.4057,-41.9366,-4.02389,19.4764,7.12502,21.731,48.2766,-61.7836,10.7698,14.1178,39.6547,-30.0238,-33.1703,56.7651,-18.5812,-3.91732,-25.5438,31.7083,-11.2835,17.527,-18.6705
-0.792155,17.6855,19.0194,-163.246,-6.13596,-178.896,-0.471251,-1.46278,1.07848,-4.35867,-2.09725,0.815481,-4.23015,-1.14971,0.310797,-16.049,1.94634,1.27223,38.3997,-2.6208,1.91195,16.5604,-1.9931,-0.272546,1.49834e-14,-3.97569e-16,-21.6215,-57.256,-16.7427,11.934,60.5119,-3.34454,9.36749,7.12502,22.3833,-19.3557,1.49834e-14,-3.97569e-16,28.3979,-21.2455,48.4802,20.3503,-41.7799,-3.99486,19.3442,7.12502,21.7589,48.1412,-62.4245,11.5143,12.5717,39.5725,-32.2863,-31.8163,57.3307,-17.1992,-3.18729,-26.5991,31.3007,-12.4537,17.3065,-23.3389
-0.777537,17.5303,18.9151,-163.486,-5.47212,-179.312,-0.342913,-1.341,0.359756,-4.23703,-1.93969,0.626406,-4.15806,-1.04229,0.513067,-15.6707,1.92911,1.38519,38.0106,-2.62699,1.98508,16.2638,-1.96252,-0.2492,-2.01891e-15,4.77083e-15,-22.3765,-57.201,-15.3605,11.9427,60.9297,-3.33647,9.26375,7.12502,22.391,-19.4586,-2.01891e-15,4.77083e-15,27.5169,-20.859,47.9769,20.297,-41.2366,-3.73674,19.612,7.12502,22.0067,48.3801,-63.0368,11.9577,11.5477,39.4893,-34.1114,-30.4592,58.2077,-15.9382,-2.73503,-27.4344,30.8617,-14.4946,17.4682,-24.8983
-0.764187,17.3811,18.8058,-163.748,-4.90822,-179.9,-0.245524,-1.36554,-0.495385,-3.82067,-1.96082,0.453557,-3.75828,-1.01381,0.806884,-16.2293,1.97824,1.52785,37.617,-2.35663,1.91682,16.192,-1.77399,-0.239441,1.71576e-14,2.08724e-15,-23.1291,-59.1298,-13.709,11.8442,62.8744,-3.41671,8.79528,7.12502,22.314,-19.9363,1.71576e-14,2.08724e-15,26.8306,-19.4532,47.532,20.1796,-41.003,-3.33602,20.0983,7.12502,22.3914,48.8205,-63.4232,11.9062,10.7624,39.4337,-34.985,-29.6532,58.7674,-14.6632,-2.4028,-28.4022,30.4134,-16.7913,17.5391,-23.9994
-0.748957,17.2439,18.689,-163.975,-4.6094,-180.655,0.274665,-1.45605,-1.43386,-3.83464,-2.10839,0.258801,-4.04068,-1.05471,1.15201,-16.4616,2.10615,1.66075,37.5017,-2.07848,1.79268,16.1845,-1.63527,-0.261588,1.37907e-15,2.98177e-16,-25.0585,-61.1393,-10.8027,11.7199,65.454,-3.58585,8.8694,7.12502,22.1516,-19.8815,1.37907e-15,2.98177e-16,25.5867,-18.6757,47.0843,20.0816,-40.4063,-3.22269,20.6669,7.12502,22.5002,49.3761,-63.6994,11.7453,9.79111,39.4525,-34.0316,-30.6116,58.0519,-13.4221,-2.13526,-29.4373,29.9535,-18.8838,17.9486,-24.7524
-0.733619,17.1086,18.568,-164.162,-4.41828,-181.49,0.192519,-1.5807,-2.46229,-3.45703,-2.27803,0.0745143,-3.56782,-1.10912,1.53105,-16.8813,-1.87551,3.0268,37.1979,-0.0996597,-0.255784,16.0681,1.56656,-0.317332,-2.24502e-14,-8.44835e-15,-26.747,-63.31,-8.10732,11.5764,67.5365,-3.58378,8.52295,7.12502,22.1536,-20.2277,-2.24502e-14,-8.44835e-15,24.9263,-17.6367,46.3728,19.8511,-39.8054,-3.23101,21.4218,7.12502,22.4922,50.1319,-63.9193,11.4922,8.771,39.5747,-34.5323,-29.7241,58.2587,-12.2289,-1.80148,-30.4883,29.4862,-20.5929,18.7584,-27.5397
-0.72319,16.9793,18.4417,-164.353,-4.3407,-181.98,0.116135,-1.67214,-3.0288,-3.19427,-2.39624,-0.0379419,-3.23096,-1.15626,1.72623,-17.1167,-1.6931,3.2243,36.842,0.014796,-0.407339,15.9472,1.56986,-0.411634,-1.11816e-16,0,-30.4238,-66.4404,-3.25998,11.4035,71.1053,-3.82076,8.09248,7.12502,21.9261,-20.685,-1.11816e-16,0,24.0423,-16.5199,45.8247,19.6606,-39.6357,-3.08641,22.2115,7.12502,22.631,50.9047,-63.9311,10.7964,8.62532,39.6795,-35.1945,-28.2402,58.8251,-11.127,-1.6633,-31.1243,29.1775,-22.2637,18.8391,-27.4103
-0.718739,16.8626,18.3093,-164.565,-4.32554,-182.28,0.108461,-1.7438,-3.28689,-2.96883,-2.48349,-0.117721,-2.98224,-1.19641,1.78476,-17.5583,-1.50008,3.29246,36.7219,0.18256,-0.441337,15.9989,1.61048,-0.41549,-1.41758e-14,2.38542e-15,-37.9142,-70.6247,5.53082,11.3399,76.1912,-3.93882,8.1431,7.12502,21.8127,-20.6476,-1.41758e-14,2.38542e-15,23.0052,-15.3058,45.2574,19.4793,-39.7534,-3.0515,22.6393,7.12502,22.6645,51.3284,-63.7733,9.66914,9.14613,39.7417,-30.2978,-32.2273,56.2471,-10.1228,-1.67726,-31.5508,29.0373,-23.5916,18.7688,-25.8811
-0.715439,16.7624,18.1745,-164.588,-4.47635,-182.014,0.476822,-1.77788,-2.86123,-3.14398,-2.53673,-0.0162709,-3.38072,-1.22503,1.67071,-18.0593,-1.46936,3.14437,36.9963,0.25205,-0.399891,16.263,1.62937,-0.35343,2.41523e-14,1.03368e-14,-47.3451,-73.1919,16.3376,11.3632,80.3609,-4.28032,8.26431,7.12502,21.4848,-20.5642,2.41523e-14,1.03368e-14,21.4969,-14.2529,44.8667,19.3232,-40.0992,-3.22811,22.8476,7.12502,22.495,51.5574,-63.6641,8.69401,10.1808,39.7025,-24.6717,-35.2306,53.3519,-9.48433,-1.78906,-31.3116,29.066,-24.7378,18.9888,-25.2633
-0.718557,16.6716,18.0261,-164.26,-4.81514,-181.696,0.373919,-1.904,-2.18718,-3.332,-2.69316,0.139883,-3.53095,-1.31985,1.4606,-18.615,-1.42474,2.87409,37.1661,0.356042,-0.380803,16.4906,1.62574,-0.276648,-1.56791e-14,-8.29926e-15,-59.5633,-75.149,30.0424,11.4302,84.4694,-4.83418,8.08152,7.12502,20.9527,-20.8068,-1.56791e-14,-8.29926e-15,19.9389,-12.2617,44.8091,19.0503,-41.1416,-3.16801,23.2553,7.12502,22.5527,51.9581,-63.7054,7.39935,11.4033,39.6076,-20.2732,-36.2714,51.9199,-9.19315,-2.17881,-30.9448,29.2126,-25.9354,18.9843,-24.4118
-0.720518,16.5912,17.8613,-163.573,-5.21919,-181.794,-0.204551,-2.08786,-1.90427,-3.60075,-2.94357,0.230645,-3.48186,-1.46093,1.38627,-18.9181,-1.30352,2.68647,37.1287,0.601734,-0.517236,16.5523,1.66063,-0.260159,-9.93923e-17,2.73329e-16,-72.6943,-75.9571,44.6815,11.5806,88.0037,-5.08222,7.53633,7.12502,20.7144,-21.3782,-9.93923e-17,2.73329e-16,18.3304,-10.2519,44.6766,18.7904,-41.6992,-2.73957,24.1304,7.12502,22.9639,52.7827,-63.9721,6.24612,11.9005,39.5193,-14.9396,-37.4248,49.3817,-9.28778,-2.86975,-30.9367,29.4655,-26.8305,19.0037,-24.1295
-0.713188,16.5284,17.6813,-162.691,-5.61746,-181.967,-1.08529,-2.20621,-1.78624,-3.89171,-3.11592,0.302206,-3.28298,-1.56468,1.36646,-19.2083,-1.25786,2.52735,37.0622,0.712158,-0.637912,16.5923,1.64602,-0.267915,-3.09421e-14,-7.95139e-16,-80.8219,-75.4005,54.2381,11.7146,89.7408,-5.00599,7.0703,7.12502,20.7877,-21.8362,-3.09421e-14,-7.95139e-16,16.8202,-8.14732,44.5932,18.5764,-41.7936,-2.24293,24.8752,7.12502,23.4404,53.4674,-64.2978,5.38721,12.152,39.5236,-11.5953,-37.6507,48.6699,-9.64888,-3.52311,-30.8969,29.7945,-27.0968,19.3577,-25.9037
-0.704091,16.4855,17.497,-161.713,-6.09575,-182.086,-2.1465,-2.33567,-1.59188,-4.14761,-3.30449,0.410745,-2.94902,-1.68171,1.32866,-19.4816,-1.25199,2.31112,36.9237,0.74709,-0.714182,16.5888,1.59209,-0.262971,-3.60235e-14,-2.83268e-15,-88.5934,-74.5198,63.475,11.82,91.3992,-5.39443,7.6911,7.12502,20.4144,-21.2558,-3.60235e-14,-2.83268e-15,15.3104,-5.32731,44.7357,18.3607,-42.2727,-2.36133,25.1801,7.12502,23.3268,53.7868,-64.5651,4.24835,12.83,39.6276,-9.83404,-36.8528,50.642,-10.1869,-4.15777,-30.7023,30.2161,-27.0642,19.618,-28.2534
-0.698485,16.455,17.3186,-160.729,-6.57758,-182.175,-3.11749,-2.41428,-1.22015,-4.45906,-3.44179,0.486726,-2.73896,-1.78027,1.16131,-19.6914,-1.2761,2.0454,36.7615,0.756632,-0.774111,16.5566,1.52525,-0.246925,3.31349e-14,2.88238e-15,-96.0502,-73.2635,72.3745,11.9569,93.007,-5.61673,8.17596,7.12502,20.2008,-20.7937,3.31349e-14,2.88238e-15,13.9158,-1.62031,45.1762,17.8609,-43.4502,-3.01169,25.2974,7.12502,22.7027,53.9819,-64.7335,2.33034,14.5284,39.8277,4.83309,-33.7408,39.5977,-10.8283,-4.8256,-30.4831,30.6998,-26.6746,20.059,-31.4169
-0.68713,16.433,17.1318,-160.052,-6.73214,-182.093,-3.72382,-2.33256,-0.834348,-4.80348,-3.377,0.56246,-2.77523,-1.77658,1.00685,-19.6741,-1.3219,1.90046,36.6207,0.777131,-0.94445,16.4805,1.47889,-0.295686,-1.86361e-16,3.57812e-15,-100.728,-71.8056,78.32,12.1711,93.8502,-5.1851,6.72444,7.12502,20.6156,-22.2008,-1.86361e-16,3.57812e-15,12.6709,2.78949,45.849,17.0922,-44.9482,-3.49288,25.0249,7.12502,22.2409,53.7652,-64.6102,1.16312,16.1354,40.0661,10.6949,-28.5198,28.8696,-11.1828,-5.31021,-30.1739,31.1903,-26.5791,20.3357,-33.9473
-0.667705,16.4246,16.9315,-159.685,-6.78409,-182.149,-4.10876,-2.26063,-0.774974,-5.09006,-3.31726,0.617558,-2.85911,-1.76285,1.02242,-19.4147,-1.35927,1.78766,36.5042,0.839556,-1.10146,16.359,1.47082,-0.332902,-3.65515e-14,-1.98785e-15,-104.076,-70.2525,82.7688,12.3922,94.6101,-5.44753,5.52477,7.12502,20.3634,-23.4276,-3.65515e-14,-1.98785e-15,11.3618,7.43354,46.4211,16.4367,-46.1972,-3.50267,24.8932,7.12502,22.2315,53.6346,-64.1266,0.953542,16.7723,40.2976,9.92879,-26.2477,25.9618,-11.1151,-5.66681,-30.0079,31.6724,-26.2031,19.9598,-34.1495
-0.646954,16.4442,16.723,-159.566,-7.05176,-182.157,-4.38547,-2.28976,-0.639975,-5.24127,-3.37851,0.681257,-2.86403,-1.80605,1.00319,-19.0812,-1.33054,1.72931,36.3106,0.96159,-1.23497,16.1826,1.49517,-0.359337,-6.34869e-14,-1.17283e-14,-111.055,-68.3402,90.9702,12.6034,96.629,-6.36779,5.96517,7.12502,19.4788,-23.0791,-6.34869e-14,-1.17283e-14,10.0175,11.7717,46.5471,15.8807,-46.4848,-3.59597,25.4537,7.12502,22.1419,54.2058,-63.2983,1.18831,17.028,40.4715,7.55874,-25.9112,26.8842,-10.8042,-5.94255,-29.6743,32.1453,-24.9509,19.0141,-32.4044
-0.628178,16.487,16.5155,-159.406,-7.26455,-181.984,-4.61369,-2.23971,-0.267765,-5.45067,-3.34738,0.743088,-2.97155,-1.8136,0.856698,-18.72,-1.37421,1.59483,36.2019,0.993995,-1.28057,16.041,1.49429,-0.348454,-2.26118e-15,-1.39149e-15,-121.432,-65.1444,102.941,13.0089,100.381,-7.00511,6.25858,7.12502,18.8659,-22.8465,-2.26118e-15,-1.39149e-15,9.01542,17.7045,46.963,14.9772,-47.8579,-4.0013,26.0973,7.12502,21.7527,54.895,-62.5532,1.72409,17.2973,40.5624,5.56298,-26.2041,28.5677,-10.7215,-6.05992,-29.1676,32.6554,-23.0812,18.769,-32.7488
-0.606327,16.5376,16.3105,-159.29,-7.23323,-181.819,-4.65347,-2.15655,0.0591056,-5.67255,-3.27181,0.737575,-3.19937,-1.79858,0.677294,-18.5667,2.02807,0.46622,36.2835,-0.350555,0.229954,16.0397,-1.0907,-0.348844,-2.09718e-14,-5.36719e-15,-130.044,-61.2357,113.024,13.486,103.72,-7.22826,5.39157,7.12502,18.6513,-23.7343,-2.09718e-14,-5.36719e-15,8.52634,25.844,47.6335,13.9103,-50.5935,-4.20507,26.6304,7.12502,21.557,55.4507,-61.8708,2.40257,17.5821,40.6065,4.55872,-26.6586,28.1088,-10.7714,-5.99834,-28.7465,33.2881,-21.3561,18.8058,-33.7805
-0.591376,16.5962,16.1048,-159.273,-7.24261,-181.407,-4.74939,-2.09681,0.743426,-5.64172,-3.20829,0.755783,-3.14925,-1.79151,0.311029,-19.0835,-1.20578,1.79209,36.3876,1.26435,-1.47769,16.2317,1.60782,-0.414066,4.38569e-14,-5.96354e-16,-134.257,-58.4181,117.962,13.7586,103.816,-7.30086,4.34461,7.12502,18.5814,-24.7879,4.38569e-14,-5.96354e-16,8.90212,35.2744,48.5954,12.8449,-53.3311,-4.39489,27.8267,7.12502,21.3747,56.6678,-61.0772,2.91585,18.2334,40.6055,3.3427,-27.144,28.2094,-10.9117,-5.72731,-28.0902,34.1179,-19.7173,18.6086,-33.3147
-0.565644,16.6493,15.8957,-159.072,-6.86677,-181.453,-5.34973,-1.92929,0.639947,-5.7326,-3.01769,0.62905,-2.91028,-1.70761,0.217836,-18.4777,2.13729,0.647168,36.2652,-0.239048,0.206119,16.0104,-1.02351,-0.369731,3.47376e-14,7.95139e-16,-136.137,-56.0984,120.517,13.9552,102.611,-7.4158,3.75596,7.12502,18.4709,-25.3871,3.47376e-14,7.95139e-16,9.48474,44.8594,49.6851,12.0109,-55.5007,-4.94009,28.989,7.12502,20.851,57.8885,-60.538,4.01174,17.9651,40.6697,1.91713,-28.0972,29.5086,-11.3803,-5.07325,-27.9763,35.1509,-17.7834,18.6055,-32.645
-0.555246,16.7079,15.6984,-159.218,-7.05819,-181.355,-5.35357,-1.97155,1.01291,-5.78132,-3.09169,0.609118,-2.9795,-1.76123,-0.010385,-18.1037,2.17564,0.545353,36.1714,-0.218402,0.346231,15.8728,-1.01994,-0.287699,-5.15846e-14,-6.36111e-15,-141.286,-51.84,126.868,14.4005,104.202,-7.73399,3.78523,7.12502,18.1648,-25.3866,-5.15846e-14,-6.36111e-15,10.4802,54.6647,51.0273,11.4568,-56.6699,-5.81305,30.7853,7.12502,20.0121,59.7748,-59.6159,4.45068,18.0803,40.7682,0.825631,-28.7755,29.7808,-11.7107,-4.54922,-27.583,36.5428,-15.6745,18.7787,-32.1927
-0.511838,16.7594,15.5005,-159.31,-6.94239,-181.407,-5.31653,-1.99251,0.669452,-5.88248,-3.12067,0.622365,-3.08734,-1.76862,0.198891,-17.6233,-1.2035,1.68835,35.9989,1.3169,-1.21231,15.6833,1.69495,-0.271977,2.48481e-14,6.36111e-15,-144.526,-48.3287,130.954,14.7044,104.146,-8.41028,3.1502,7.12502,17.514,-26.0809,2.48481e-14,6.36111e-15,13.8501,65.9522,54.5552,10.9364,-59.2111,-6.75665,29.0632,7.12502,19.1049,58.1449,-58.9063,6.02792,17.4003,40.9697,-1.92122,-30.3169,32.3082,-12.4143,-3.66768,-27.2342,38.2496,-13.6443,18.6373,-28.4404
-0.486019,16.7999,15.3254,-158.882,-6.3063,-181.196,-5.65833,-1.7158,0.755901,-6.17624,-2.80901,0.534726,-3.21099,-1.64114,0.063879,-17.0558,-1.24786,1.77262,35.8873,1.27035,-1.1982,15.4921,1.70942,-0.288952,-2.24627e-14,-5.1684e-15,-143.5,-48.4618,129.643,14.5166,98.5237,-9.08338,1.45343,7.12502,16.8662,-27.8341,-2.24627e-14,-5.1684e-15,14.6198,69.5009,55.1409,10.9,-53.7253,-8.28663,30.6821,7.12502,17.633,59.9025,-58.9214,6.31467,17.9519,41.2699,-2.49106,-29.7885,32.1604,-14.0881,-2.33187,-26.9096,40.3142,-11.3182,18.8793,-22.3305
-0.468107,16.8401,15.1431,-158.793,-6.0105,-181.152,-5.78317,-1.59377,0.841861,-6.25863,-2.66788,0.444063,-3.23485,-1.58332,-0.0757778,-16.8902,2.26752,0.621093,35.9438,-0.249492,0.480525,15.4718,-1.04531,-0.253256,-5.54112e-15,2.48481e-15,-142.548,-49.2132,127.969,14.3746,91.7987,-10.1215,-0.464884,7.12502,15.8667,-29.8348,-5.54112e-15,2.48481e-15,17.0279,73.7377,57.4325,11.0015,-48.8945,-9.53388,29.9969,7.12502,16.4325,59.3209,-58.476,6.10251,18.488,41.6932,-2.662,-28.8161,31.0603,-15.4671,-1.15535,-26.6964,42.6487,-8.70348,19.3742,-18.248
-0.446956,16.8753,14.9586,-159.035,-6.1636,-181.443,-5.69946,-1.666,0.639701,-6.1402,-2.7401,0.327471,-3.15505,-1.60515,-0.0855101,-16.8073,2.20996,0.384753,35.9139,-0.318224,0.637338,15.4362,-1.08631,-0.157096,2.56805e-14,4.37326e-15,-143.374,-48.6737,128.342,14.3723,86.6123,-11.3367,-1.09214,7.12502,14.6961,-30.5513,2.56805e-14,4.37326e-15,23.873,78.6203,64.3059,11.1325,-45.6049,-10.2876,29.0562,7.12502,15.7067,58.4388,-57.6405,5.89624,18.5121,42.2416,-2.82106,-28.0787,28.9042,-16.4951,-0.264042,-26.6713,45.1222,-5.70021,19.7443,-16.042
-0.422001,16.8928,14.7935,-158.788,-5.66319,-181.724,-6.013,-1.48249,0.171589,-6.13878,-2.49492,0.155309,-2.9661,-1.47344,-0.00668178,-16.7829,2.15136,0.281299,35.8878,-0.412178,0.760445,15.4178,-1.11996,-0.102352,-2.35933e-14,-7.7526e-15,-145.32,-46.7212,130.245,14.514,83.6161,-12.3817,-0.476972,7.12502,13.6892,-30.0068,-2.35933e-14,-7.7526e-15,29.4524,80.5757,70.0435,11.3517,-39.1027,-14.7224,33.1585,7.12502,11.4325,62.8268,-57.6175,5.96026,18.3428,42.8418,-2.96281,-27.047,27.9792,-18.2733,0.821876,-26.9361,47.6241,-7.5476,17.8736,-24.4703
-0.394725,16.9115,14.633,-158.566,-5.24801,-182.023,-6.09903,-1.26258,-0.333283,-6.25056,-2.20833,-0.0555855,-3.02557,-1.32466,0.067851,-16.7653,2.05298,0.359385,35.9246,-0.598315,0.763731,15.4334,-1.18838,-0.148491,2.72273e-14,6.85807e-15,-147.33,-44.1375,132.376,14.7142,81.2478,-13.8183,0.472918,7.12502,12.3043,-29.1451,2.72273e-14,6.85807e-15,31.0841,80.8848,72.0273,11.7639,-30.9694,-15.7857,32.6688,7.12502,10.4069,62.3912,-57.7235,6.61719,17.5811,43.4686,-4.29243,-26.5748,29.2929,-20.1379,1.54873,-27.1551,49.9559,-5.00919,17.4919,-20.2617
-0.37794,16.9405,14.4821,-158.567,-5.18408,-181.977,-5.93218,-1.10551,-0.299781,-6.3111,-2.00698,-0.158928,-3.18692,-1.22879,-0.0437928,-16.5887,1.91926,0.344306,35.7931,-0.818027,0.864998,15.3297,-1.26482,-0.138816,1.73502e-14,6.26172e-15,-148.855,-42.4946,133.461,14.8404,76.96,-15.6509,1.78765,7.12502,10.5369,-27.9282,1.73502e-14,6.26172e-15,30.0349,80.262,71.5947,12.336,-22.1037,-17.7477,32.7256,7.12502,8.51378,62.534,-57.5561,6.91763,17.3947,44.0128,-4.81148,-25.8923,28.6916,-21.9289,1.9379,-26.9162,52.0675,-3.07235,16.8796,-18.028
-0.355181,16.9619,14.327,-158.61,-5.1269,-182.038,-5.62162,-1.00847,-0.660643,-6.46139,-1.8801,-0.120293,-3.50623,-1.15366,0.214021,-16.2834,1.77324,0.209294,35.7018,-1.01911,0.899347,15.2148,-1.37087,-0.134957,1.1045e-14,-7.95139e-16,-147.565,-44.8028,130.588,14.6301,67.7078,-17.7612,3.12598,7.12502,8.50077,-26.6829,1.1045e-14,-7.95139e-16,29.1535,79.9598,71.7773,12.8955,-14.8736,-19.0924,32.4095,7.12502,7.21597,62.2664,-57.1594,6.92397,17.448,44.509,-5.09034,-25.174,27.9133,-23.6667,2.2076,-26.7788,53.769,-4.88594,14.829,-23.7756
-0.325422,16.9753,14.1703,-158.696,-5.00922,-182.175,-5.75728,-0.976334,-1.24451,-6.22471,-1.78634,-0.0915021,-3.16776,-1.07283,0.563042,-16.3263,1.66419,0.137145,35.4606,-1.09158,0.926693,15.1096,-1.38292,-0.11508,-1.64122e-14,-9.54166e-15,-146.479,-47.4158,127.235,14.5026,57.9805,-19.8771,4.91855,7.12502,6.45846,-24.963,-1.64122e-14,-9.54166e-15,29.5764,79.3415,73.3994,13.5381,-8.51527,-19.7236,31.9024,7.12502,6.6066,61.7794,-56.6047,6.99768,17.5134,44.8912,-5.38828,-24.6726,27.6603,-25.3671,2.32154,-26.7048,55.092,-5.08206,13.9935,-23.2327
-0.325569,17.0094,14.0272,-159.017,-5.17325,-182.141,-5.4211,-0.965772,-1.08413,-6.05992,-1.74976,-0.172187,-3.18946,-1.04865,0.396684,-16.1568,1.63834,0.27931,35.2023,-1.10849,0.893695,14.9473,-1.36051,-0.149336,3.19919e-15,1.2921e-15,-146.197,-49.0156,124.755,14.5155,50.5445,-21.779,7.12203,7.12502,4.62221,-22.8075,3.19919e-15,1.2921e-15,28.6607,78.3067,73.7679,14.119,-3.40829,-20.016,30.9776,7.12502,6.32435,60.8632,-55.7378,5.90194,18.3249,45.2374,-4.5935,-23.2462,24.7119,-26.7905,2.12037,-26.5354,56.0567,-5.60987,13.7608,-22.8605
-0.314944,17.045,13.8713,-159.608,-4.69898,-181.769,-5.11539,-0.73291,-1.04379,-5.79363,-1.39707,-0.113002,-3.08558,-0.854858,0.445789,-15.7369,1.57748,0.417314,34.7518,-1.13356,0.806511,14.6385,-1.3478,-0.202056,8.00108e-15,3.57812e-15,-146.974,-49.669,123.565,14.5336,44.9627,-23.802,9.6742,7.12502,2.66861,-20.2888,8.00108e-15,3.57812e-15,30.5388,78.0397,77.2384,14.4918,-0.943443,-20.4266,29.7664,7.12502,5.92793,59.6635,-54.6563,5.94559,19.0848,45.4397,-3.77576,-22.2736,21.5105,-27.8915,2.59781,-26.1838,56.6587,-7.80178,12.9437,-24.5365
-0.299737,17.0616,13.7548,-159.58,-5.1187,-181.537,-4.84993,-0.733527,-0.931402,-5.9197,-1.40795,0.0142123,-3.36437,-0.862276,0.521651,-15.3196,1.50639,0.417916,34.6156,-1.24348,0.788981,14.4804,-1.40526,-0.224962,1.94436e-15,-3.8763e-15,-148.686,-49.1648,123.712,14.5912,41.6195,-25.6629,12.9604,7.12502,0.871296,-17.0175,1.94436e-15,-3.8763e-15,30.2391,77.2659,78.8027,14.8283,0.241263,-21.2371,28.7919,7.12502,5.14541,58.7094,-54.3722,5.40083,19.7765,45.6727,-3.2846,-21.8466,19.3776,-29.9404,2.04944,-25.7268,57.175,-10.4736,12.2817,-24.8985
-0.28578,17.0695,13.612,-160.107,-4.86988,-180.874,-4.46009,-0.509419,-0.620845,-5.85348,-1.09409,0.193929,-3.51876,-0.704087,0.544404,-14.9565,1.48864,0.306178,34.7113,-1.34967,0.910547,14.4436,-1.47324,-0.177032,9.58515e-15,-4.47266e-16,-149.267,-50.0347,122.148,14.6449,37.7582,-27.0239,16.3966,7.12502,-0.443177,-13.5827,9.58515e-15,-4.47266e-16,29.2818,76.3167,79.7523,14.9919,0.428717,-22.4206,27.7757,7.12502,4.00262,57.7179,-53.3817,5.77952,20.7194,45.7977,-3.85682,-21.7448,19.8317,-31.2299,2.08373,-24.9442,57.3733,-12.3652,12.2903,-22.9087
-0.279406,17.0714,13.5083,-160.187,-5.84662,-180.466,-4.08945,-0.664345,-0.0475136,-5.83751,-1.29324,0.329177,-3.7147,-0.815986,0.367419,-14.8104,1.42333,0.422328,34.6171,-1.45456,0.863431,14.3672,-1.50629,-0.230837,3.18055e-15,-8.44835e-16,-148.713,-52.4199,118.723,14.5809,33.1732,-28.3522,19.4596,7.12502,-1.72612,-10.5131,3.18055e-15,-8.44835e-16,32.9981,76.157,85.3761,14.7611,-1.42336,-23.5877,27.0452,7.12502,2.87549,57.0056,-52.9249,4.88712,21.7311,46.0081,-4.50507,-21.8911,20.6004,-33.3279,0.819585,-24.0899,57.4728,-12.4432,13.1617,-18.8739
-0.26011,17.0639,13.3634,-160.934,-5.64338,-180.006,-3.52409,-0.376379,-0.020151,-5.50692,-0.853083,0.387505,-3.68877,-0.57263,0.418374,-14.8151,1.25052,0.56266,34.524,-1.73029,0.881723,14.3274,-1.591,-0.28904,-1.08089e-14,-3.77691e-15,-149.145,-53.4474,116.631,14.5281,31.1125,-29.145,22.3978,7.12502,-2.49174,-7.56742,-1.08089e-14,-3.77691e-15,36.9486,75.5476,91.4472,14.3683,-3.50941,-24.3397,27.0289,7.12502,2.14933,56.9978,-51.7154,5.28816,22.4878,46.2472,-5.22925,-22.2126,21.9297,-34.4621,0.510165,-23.4166,57.247,-14.5613,13.1602,-19.1151
-0.255636,17.0466,13.2192,-161.855,-5.21074,-179.533,-2.93916,-0.0798478,0.158911,-5.28394,-0.416953,0.484742,-3.78836,-0.343335,0.421272,-14.0181,1.1629,0.41087,34.3235,-1.91027,1.03943,14.06,-1.69099,-0.221931,-5.3237e-15,1.88845e-15,-148.295,-55.8223,113.071,14.4046,28.8508,-29.8761,24.868,7.12502,-3.19785,-5.08777,-5.3237e-15,1.88845e-15,37.0593,74.7258,93.8583,14.1714,-4.47855,-24.6653,27.3499,7.12502,1.83481,57.3218,-50.3754,5.44737,23.3726,46.6262,-5.86406,-22.13,22.2711,-35.318,0.12871,-22.8036,56.8327,-16.7249,13.1277,-17.6378
-0.236394,17.0107,13.1208,-162.211,-5.78225,-179.144,-2.41191,-0.072138,0.329289,-5.16904,-0.374408,0.709162,-3.96553,-0.31356,0.559342,-13.8941,0.997421,0.248434,34.333,-2.14051,1.08675,14.0395,-1.80822,-0.210118,-5.92627e-15,5.56597e-15,-143.407,-61.2105,104.697,14.3802,23.3117,-31.046,26.2643,7.12502,-4.32759,-3.67151,-5.92627e-15,5.56597e-15,40.8546,74.4365,100.134,13.8182,-5.88309,-25.1304,27.4759,7.12502,1.38564,57.4512,-49.9309,5.43406,24.0888,47.1377,-6.76899,-22.8718,23.2324,-37.1198,-1.02324,-21.8899,56.335,-18.2125,12.5167,-14.5498
-0.226765,16.9733,13.0133,-162.745,-6.23495,-178.816,-1.89489,-0.0387443,0.502098,-4.86649,-0.28198,0.896265,-3.94245,-0.253085,0.654263,-14.0838,0.836405,0.0796642,34.2772,-2.30263,1.14143,14.06,-1.87333,-0.181224,6.37353e-15,-7.95139e-16,-139.444,-65.2617,97.6037,14.345,19.5259,-31.9472,27.5367,7.12502,-5.19776,-2.37957,6.37353e-15,-7.95139e-16,45.0462,73.8836,106.86,13.4214,-6.63447,-26.1044,27.8458,7.12502,0.444878,57.8251,-49.2958,5.31684,24.7625,47.7082,-7.48433,-23.403,23.2756,-38.6403,-2.2136,-21.0834,55.6712,-19.4737,12.1553,-13.0955
-0.222187,16.9321,12.8974,-163.373,-6.4559,-178.446,-1.49499,0.0667176,0.712164,-4.45997,-0.0928121,1.06849,-3.7466,-0.144969,0.7089,-14.1754,0.668509,-0.121598,34.0228,-2.44914,1.27379,13.9712,-1.91637,-0.10733,6.26172e-15,-9.93923e-16,-140.656,-66.9717,96.2946,14.1354,19.5152,-32.3622,28.6759,7.12502,-5.59841,-1.23012,6.26172e-15,-9.93923e-16,52.6997,73.9803,117.154,12.8622,-8.41639,-26.1236,27.5224,7.12502,0.426407,57.5017,-48.4405,5.10205,25.5532,48.277,-8.86948,-23.4492,24.3656,-40.0679,-3.27096,-20.2845,54.9518,-20.4964,12.3097,-14.5999
-0.215745,16.8941,12.779,-163.998,-6.94839,-177.866,-0.687378,0.0914351,1.13629,-4.42705,-0.0225259,1.36451,-4.17033,-0.11605,0.777424,-14.0056,0.541279,-0.442905,34.1202,-2.6562,1.45783,13.9857,-2.03648,-0.0118509,-6.58474e-15,2.14687e-14,-139.417,-69.248,92.6878,13.8602,19.3262,-32.1417,28.9678,7.12502,-5.38559,-0.943807,-6.58474e-15,2.14687e-14,52.6656,73.3482,119.82,12.5443,-8.14163,-24.9748,26.3712,7.12502,1.5359,56.3454,-47.5035,4.46992,26.7269,48.7429,-10.0717,-23.3055,24.258,-41.6097,-4.42972,-19.161,54.1577,-20.6698,12.5106,-16.3928
-0.210623,16.8563,12.6672,-164.408,-7.43393,-177.217,-0.267558,0.0950245,1.73011,-4.34672,0.0139998,1.57009,-4.32551,-0.114243,0.656824,-13.6361,0.472904,-0.389402,33.9818,-2.77652,1.45024,13.8425,-2.08946,-0.0379003,1.06847e-14,-4.96962e-15,-132.976,-72.9302,83.3433,13.7026,16.9087,-32.0022,28.4116,7.12502,-5.2509,-1.50339,1.06847e-14,-4.96962e-15,45.2093,70.7583,114.761,12.7705,-4.66855,-24.2563,25.7496,7.12502,2.2298,55.7177,-46.8861,3.91317,27.8987,49.104,-10.6787,-23.4415,22.7577,-43.4992,-5.66143,-17.8698,53.3068,-20.279,12.5071,-16.7464
-0.213269,16.8088,12.5548,-164.659,-7.42451,-176.534,0.423907,0.291823,2.37655,-4.6344,0.308074,1.67016,-5.01807,-0.00561908,0.390779,-13.0693,0.468996,-0.170043,33.968,-2.89339,1.41023,13.7094,-2.14483,-0.108028,1.49585e-14,3.37934e-15,-123.067,-75.9084,70.6823,13.5348,14.8967,-31.9557,27.372,7.12502,-5.20591,-2.54404,1.49585e-14,3.37934e-15,41.4713,69.202,113.569,12.8139,-3.18447,-23.9931,25.4412,7.12502,2.48404,55.4064,-46.4648,3.51539,29.0377,49.3605,-11.0656,-23.4157,21.164,-45.5346,-6.50458,-16.6263,52.4217,-19.6194,12.6614,-16.8347
-0.211931,16.7689,12.4273,-165.112,-7.77947,-176.085,-0.39499,0.18146,2.57918,-3.47812,0.165811,1.99758,-3.35091,-0.0344184,0.610551,-14.3477,0.335442,-0.34298,33.5519,-2.75288,1.39528,13.8077,-2.00534,-0.052261,-1.03368e-14,2.36554e-14,-126.588,-79.2499,71.6697,13.0694,14.5984,-32.0258,26.2286,7.12502,-5.27362,-3.68577,-1.03368e-14,2.36554e-14,46.0998,67.8612,120.631,12.6514,-3.49928,-23.8072,25.0873,7.12502,2.66351,55.0505,-45.5869,2.94565,29.9855,49.5474,-12.1239,-23.5473,20.6578,-47.1117,-7.34909,-15.6587,51.3639,-18.4773,12.5138,-16.6662
-0.203489,16.7372,12.3093,-165.358,-7.82713,-175.848,-0.393489,0.177074,2.48878,-3.12617,0.164594,2.22526,-2.98865,-0.0198607,0.893107,-14.8217,0.274979,-0.60874,33.4484,-2.69944,1.47281,13.8703,-1.97228,0.0359178,-5.19325e-15,-2.00773e-14,-104.503,-83.0809,47.0361,12.8586,11.0677,-32.0287,24.228,7.12502,-5.27643,-5.68631,-5.19325e-15,-2.00773e-14,37.8224,63.0197,114.419,13.2199,1.31559,-23.7894,25.6614,7.12502,2.68074,55.6243,-44.8955,2.61113,30.6616,49.6648,-12.8992,-23.8463,20.4149,-48.769,-7.96255,-14.9836,50.2077,-16.5628,12.9705,-18.162
-0.200726,16.7171,12.1834,-165.653,-8.11349,-176.118,-0.109401,0.0955008,2.05229,-3.03587,0.0704618,2.26767,-3.05619,-0.0497224,1.18291,-14.7544,0.235593,-0.65953,33.3322,-2.71891,1.48132,13.8049,-1.98014,0.0485513,1.3418e-15,-1.49089e-14,-59.4601,-83.8108,-0.412329,12.8229,6.90585,-31.6946,22.4083,7.12502,-4.95382,-7.51375,1.3418e-15,-1.49089e-14,40.7019,63.3498,120.221,12.6644,-1.64838,-23.9989,25.3427,7.12502,2.4784,55.3081,-44.0231,1.98733,30.7638,49.7269,-14.4064,-23.9667,21.5048,-50.1129,-8.85156,-14.8741,48.9246,-14.1179,13.532,-20.6355
-0.200738,16.6865,12.0617,-165.769,-8.01685,-176.141,0.0267734,0.205873,1.84392,-3.03769,0.222045,2.28226,-3.13656,0.03229,1.31078,-14.6793,0.18903,-0.591858,33.3446,-2.83418,1.52164,13.7958,-2.01952,0.0345069,-1.25234e-14,2.5842e-14,-30.9586,-82.3311,-31.1836,12.7095,4.00535,-31.1039,21.1913,7.12502,-4.38351,-8.74329,-1.25234e-14,2.5842e-14,39.3006,61.52,121.396,12.3273,-2.09053,-25.1415,25.3919,7.12502,1.37489,55.3673,-43.3108,1.65033,31.0706,49.6912,-15.493,-24.0093,21.7899,-51.6932,-9.53388,-14.3445,47.7531,-12.2413,13.5461,-19.2698
-0.196778,16.6558,11.9359,-165.891,-7.99959,-176.033,-0.0574756,0.241541,1.65205,-2.82244,0.264831,2.46356,-2.86905,0.0634829,1.60271,-15.189,0.141845,-0.842181,33.4309,-2.82219,1.63005,13.952,-2.00994,0.120535,7.45443e-15,2.04748e-14,-11.168,-79.5296,-53.0499,12.6168,0.70955,-30.2427,20.097,7.12502,-3.55187,-9.85315,7.45443e-15,2.04748e-14,37.0942,58.6789,121.592,12.1971,-1.80825,-27.6237,27.1067,7.12502,-1.02245,57.084,-42.5663,1.47866,31.4586,49.6082,-16.521,-24.1349,22.1424,-53.193,-10.1617,-13.5858,46.6831,-11.1976,13.1145,-13.0716
-0.198153,16.6275,11.8052,-166.103,-8.04533,-175.832,-0.34764,0.278058,1.68658,-2.79282,0.296947,2.60658,-2.67623,0.0769119,1.73019,-14.4612,0.150219,-0.932278,33.1522,-2.81814,1.68862,13.6693,-2.02905,0.16893,8.84592e-15,-5.56597e-15,-2.99667,-74.707,-63.4115,12.7467,-3.55496,-28.923,18.794,7.12502,-2.27732,-11.1736,8.84592e-15,-5.56597e-15,34.3502,56.0797,121.416,11.9729,-2.65241,-26.9382,25.9682,7.12502,-0.360359,55.9477,-41.7221,1.19866,31.8944,49.5075,-17.4408,-24.2449,21.4267,-54.4817,-10.7976,-12.7801,45.7843,-10.4125,13.0283,-4.70042
-0.19706,16.5894,11.6818,-166.362,-7.87766,-175.75,-0.199666,0.31524,1.55006,-2.63815,0.352213,2.70427,-2.60273,0.111175,1.90537,-14.8898,0.176867,-0.875489,33.2097,-2.71834,1.594,13.785,-1.9728,0.135136,1.42131e-14,-2.5842e-14,2.86337,-70.6659,-71.3756,12.7129,-6.71983,-28.6053,17.8874,7.12502,-1.97048,-12.0832,1.42131e-14,-2.5842e-14,34.193,54.6755,123.84,11.5144,-5.542,-27.9945,26.7194,7.12502,-1.38056,56.6947,-40.9053,1.18218,32.1072,49.4626,-18.5365,-24.3089,21.2897,-55.7328,-11.2548,-12.1833,44.9936,-9.54039,13.7165,3.03855
-0.192593,16.5361,11.5635,-166.57,-7.85064,-175.73,-0.196637,0.332135,1.3707,-2.58394,0.374362,2.73825,-2.55055,0.127853,2.04031,-14.56,0.200218,-0.775782,32.9764,-2.69808,1.61243,13.6088,-1.94952,0.134555,-6.31141e-15,6.36111e-15,6.23055,-66.5253,-76.9194,12.7963,-10.1049,-28.9982,17.3012,7.12502,-2.34999,-12.6656,-6.31141e-15,6.36111e-15,27.5289,46.5812,118.519,12.0862,-1.47339,-28.3237,29.0518,7.12502,-1.69852,59.0248,-40.2205,1.26514,32.2244,49.5224,-19.8842,-24.3085,21.8966,-57.1093,-11.6129,-11.7565,44.293,-8.89809,14.8259,9.97788
-0.196918,16.4847,11.4318,-166.951,-7.52805,-175.59,-0.419051,0.445639,1.37927,-2.29999,0.518475,2.7609,-2.13675,0.203214,2.05606,-14.3403,0.174526,-0.736104,32.6934,-2.72676,1.68298,13.439,-1.93972,0.158051,4.47266e-16,3.4191e-14,8.49922,-61.582,-81.2817,13.1915,-14.3459,-28.5882,16.5153,7.12502,-1.95403,-13.4555,4.47266e-16,3.4191e-14,23.0803,37.4337,115.19,13.0012,2.45103,-28.7311,30.9895,7.12502,-2.09204,60.959,-39.2421,1.39753,32.4628,49.6442,-20.9619,-24.3666,21.2752,-58.1946,-11.7698,-11.3461,43.7219,-8.25147,16.5435,13.0634
-0.197604,16.4307,11.3064,-167.249,-7.33392,-175.517,-0.670947,0.536349,1.34653,-2.04894,0.630068,2.78495,-1.74055,0.262341,2.09906,-14.2752,0.133454,-0.862779,32.506,-2.77719,1.87758,13.35,-1.94225,0.253191,-1.5207e-14,-9.14409e-15,9.53812,-56.0397,-84.3422,13.9635,-18.852,-27.8428,15.3655,7.12502,-1.2341,-14.6107,-1.5207e-14,-9.14409e-15,22.1558,33.0195,116.046,12.9479,1.83822,-29.3069,30.9635,7.12502,-2.64813,60.9268,-38.3845,1.38938,32.6837,49.8363,-21.8812,-24.5919,20.0194,-59.4271,-11.8335,-11.1012,43.2542,-6.76774,18.5672,11.5549
-0.195931,16.3639,11.1833,-167.606,-7.16502,-175.386,-0.715191,0.59549,1.33446,-1.89646,0.705104,2.84629,-1.56208,0.301066,2.16886,-14.1662,0.157435,-0.987849,32.3532,-2.72261,2.01316,13.2632,-1.91115,0.340025,-1.19271e-15,5.68524e-14,9.92088,-49.9974,-86.6843,14.8825,-23.4342,-27.5324,14.2565,7.12502,-0.934308,-15.7212,-1.19271e-15,5.68524e-14,22.1375,30.8221,118.045,12.4159,-0.603299,-29.6408,32.4687,7.12502,-2.97059,62.4278,-37.5249,1.4828,32.9334,50.0684,-23.1592,-24.8145,19.5608,-60.5095,-11.7837,-10.8653,42.9087,-6.04549,19.9896,13.8244
-0.191792,16.2934,11.0617,-168.051,-6.93283,-175.353,-0.479515,0.662854,1.1269,-1.7458,0.800459,2.96845,-1.5473,0.3533,2.40876,-14.3617,0.138573,-1.251,32.3605,-2.65359,2.03664,13.3102,-1.90017,0.405693,-2.15184e-14,-2.42517e-14,10.2644,-43.7382,-88.6963,15.9309,-28.3539,-27.9848,13.4131,7.12502,-1.37121,-16.5623,-2.15184e-14,-2.42517e-14,21.1905,25.961,118.576,12.4805,-0.141723,-27.1927,28.8479,7.12502,-0.606177,58.8268,-36.6281,1.69235,33.0725,50.3355,-24.3611,-25.1533,19.394,-61.308,-11.5081,-10.9171,42.6572,-6.83068,20.8846,18.8959
-0.188776,16.2199,10.9485,-168.398,-6.63666,-175.236,0.17937,0.819465,1.08756,-1.87875,1.02852,3.08435,-2.06513,0.466958,2.54,-14.6412,0.0763035,-1.60999,32.5575,-2.65744,2.06796,13.4602,-1.94072,0.476219,-4.32357e-15,1.35174e-14,10.066,-37.7775,-90.2045,17.1778,-32.9358,-28.4387,12.7003,7.12502,-1.80957,-17.2717,-4.32357e-15,1.35174e-14,19.8195,20.7696,118.943,13.1833,0.527783,-25.8362,27.8259,7.12502,0.703935,57.8044,-35.8282,1.88865,33.3053,50.6037,-25.8792,-25.2731,19.7188,-62.154,-11.0927,-10.9558,42.4622,-7.66992,21.8942,20.4692
-0.191233,16.1383,10.8419,-168.62,-6.29057,-174.717,1.37176,0.969195,1.59149,-2.78044,1.27356,3.2393,-3.67074,0.563565,2.39512,-13.769,0.273505,-1.82867,32.9724,-2.49853,2.01304,13.4451,-1.98184,0.509158,-6.26172e-15,-1.94809e-14,8.10734,-31.238,-90.7939,18.8247,-37.5664,-28.4936,11.8514,7.12502,-1.86265,-18.1202,-6.26172e-15,-1.94809e-14,16.3133,9.37174,116.023,15.6467,8.39148,-24.4764,26.6025,7.12502,2.01731,56.5727,-35.2212,2.38916,33.8327,50.8932,-27.9767,-24.7766,22.1969,-63.0852,-10.6046,-10.4876,42.2784,-9.6804,22.5731,22.9095
-0.197596,16.0643,10.7282,-168.96,-5.93432,-174.288,0.125953,1.13535,2.12668,-1.46805,1.42464,3.36977,-1.60889,0.640402,2.24729,-15.1801,0.0455412,-2.15215,32.2194,-2.35426,2.04044,13.4289,-1.82563,0.615095,4.47266e-16,4.77083e-15,11.0488,-26.9545,-93.8821,19.0275,-38.8572,-27.176,11.8145,7.12502,-0.590081,-18.1644,4.47266e-16,4.77083e-15,17.0913,-1.18346,114.731,17.9712,13.2082,-24.6339,29.7662,7.12502,1.86518,59.7378,-34.5302,2.77382,34.2593,51.2241,-29.4663,-24.537,23.4909,-63.6407,-10.3873,-10.0181,42.0621,-12.8517,22.7553,25.9172
-0.192808,15.994,10.6099,-169.374,-5.70055,-173.996,0.775248,1.254,2.46734,-1.64501,1.61628,3.41206,-2.15232,0.724479,2.08305,-14.448,-0.0416175,-2.57339,31.5236,-2.3964,2.36235,12.9847,-1.84063,0.818289,3.28989e-14,6.04305e-14,11.0161,-22.3812,-95.4414,20.3227,-41.8847,-27.4594,9.98218,7.12502,-0.86381,-19.9958,3.28989e-14,6.04305e-14,16.1048,-10.1821,113.361,20.5342,16.6073,-24.6229,29.6705,7.12502,1.87579,59.642,-33.8167,2.96384,34.7102,51.6265,-30.2655,-24.8367,23.2055,-64.0933,-10.6334,-9.34057,41.9718,-17.2033,22.519,30.1044
-0.180563,15.9177,10.4944,-169.632,-5.8753,-173.432,1.6855,1.20688,2.81457,-2.3567,1.60508,3.7263,-3.40065,0.68748,2.19587,-12.9055,0.0826992,-2.8643,30.941,-2.20117,2.35243,12.4106,-1.8257,0.900677,-3.44394e-14,-3.81667e-14,10.1426,-17.8503,-96.3601,21.1371,-43.7534,-26.0795,8.31453,7.12502,0.468982,-21.6647,-3.44394e-14,-3.81667e-14,15.0164,-17.3185,112.539,23.2749,17.2137,-22.3022,31.3471,7.12502,4.11694,61.2871,-33.4045,2.89962,35.6096,52.1222,-30.5455,-25.5335,21.8494,-64.8153,-10.5846,-8.6891,41.9945,-20.6296,22.2518,33.2515
-0.195807,15.8392,10.3925,-170.453,-4.88934,-172.359,2.44108,1.51236,4.20369,-1.85252,2.07124,3.78205,-3.26769,0.883099,1.44328,-13.5032,0.15832,-2.70424,30.5561,-1.88729,2.15909,12.3663,-1.6344,0.851131,2.93207e-15,-1.70955e-14,10.9715,-12.2219,-97.7225,22.7806,-47.1231,-25.8938,5.30694,7.12502,0.648293,-24.6718,2.93207e-15,-1.70955e-14,16.108,-24.6776,110.568,25.9165,17.3488,-20.5637,30.8879,7.12502,5.79558,60.7887,-32.2833,3.32689,36.7661,52.5791,-30.3643,-25.8353,19.9974,-64.8423,-10.965,-6.65149,42.2798,-27.7485,20.0115,39.7464
-0.206612,15.7739,10.2744,-170.729,-4.58329,-171.636,2.90845,1.582,5.02146,-1.88294,2.20752,3.98656,-3.54124,0.914111,1.18295,-13.9115,0.283978,-2.85108,30.5908,-1.57302,2.06071,12.4565,-1.50802,0.885686,-3.23025e-15,-4.01545e-14,10.6992,-6.12467,-98.2303,25.5379,-51.1004,-26.0191,1.99085,7.12502,0.527342,-27.9882,-3.23025e-15,-4.01545e-14,16.1202,-30.2851,109.194,29.9815,15.7504,-18.7798,30.1726,7.12502,7.51767,60.019,-31.7346,3.48321,37.6085,53.059,-30.5453,-26.1538,18.4656,-65.4286,-11.1699,-5.38364,42.6984,-32.2809,18.174,43.3701
-0.217422,15.7095,10.1492,-170.838,-4.67888,-170.59,3.25428,1.55779,6.2122,-2.02955,2.22322,4.29457,-3.85869,0.861648,0.834732,-14.4504,0.361658,-3.04456,30.7482,-1.3307,1.98152,12.6276,-1.42115,0.92492,1.26228e-14,5.96354e-15,10.3917,0.237222,-98.2604,28.5739,-55.4003,-25.9452,-0.793493,7.12502,0.598636,-30.7724,1.26228e-14,5.96354e-15,18.1029,-37.3489,106.058,32.5975,15.0812,-18.4429,28.9745,7.12502,7.84291,58.809,-31.3422,3.48671,38.8074,53.469,-31.3239,-26.0524,18.4826,-66.2001,-10.8343,-4.38882,43.2039,-35.0438,16.3367,46.0677
-0.225833,15.626,10.0389,-170.808,-4.57564,-169.379,3.98028,1.6241,7.81157,-2.38631,2.45339,4.35825,-4.57982,0.881556,-0.0124617,-14.6294,0.367008,-3.13771,30.7662,-1.33567,2.17325,12.6747,-1.40383,1.01436,1.66482e-14,-7.59357e-14,10.6154,5.76473,-98.3107,30.2888,-59.7513,-23.9047,-2.45639,7.12502,2.5694,-32.4207,1.66482e-14,-7.59357e-14,20.2963,-44.1121,101.764,36.3819,13.1614,-17.5202,28.816,7.12502,8.7334,58.6153,-31.188,3.86026,40.1844,53.842,-31.921,-26.1827,18.4387,-67.0276,-9.74082,-3.67226,43.6058,-37.1512,14.5286,48.2503
-0.237496,15.5551,9.92948,-170.664,-4.47432,-168.591,5.06551,1.73754,9.48396,-3.22716,2.89414,3.8598,-5.97428,0.954419,-1.51798,-13.8102,0.303333,-2.88454,30.7422,-1.77959,2.67132,12.5088,-1.54521,1.09124,9.7156e-15,2.48481e-14,9.22124,9.65358,-99.1452,34.0745,-61.547,-23.6238,-5.8072,7.12502,2.84068,-35.768,9.7156e-15,2.48481e-14,21.969,-49.9996,97.6704,40.2757,9.43191,-13.9662,29.3163,7.12502,12.1617,58.9428,-31.1266,4.12652,41.065,54.1732,-32.4766,-26.3354,18.3358,-67.711,-8.37975,-3.82461,43.8582,-38.203,13.9707,49.3721
-0.266108,15.5487,9.77268,-170.865,-4.14128,-168.921,5.76203,1.78715,9.94776,-3.53254,3.13133,3.22919,-6.6299,1.01912,-2.48508,-14.0954,0.266156,-2.56856,31.0167,-2.00418,2.83663,12.69,-1.59433,1.06405,8.34896e-15,-3.96575e-14,8.70682,14.007,-99.3235,37.5916,-64.4788,-23.4667,-8.76697,7.12502,2.9924,-38.7257,8.34896e-15,-3.96575e-14,25.0735,-55.3084,92.4905,43.706,2.47742,-11.6745,27.0979,7.12502,14.3706,56.5805,-30.2126,3.93433,40.6098,54.3026,-33.0076,-26.3319,17.6178,-67.3713,-7.64469,-5.1411,44.0797,-38.7849,14.314,49.5246
-0.273253,15.5165,9.62211,-170.833,-3.90708,-168.866,6.05021,1.87916,10.1467,-3.67183,3.32353,2.99316,-6.90363,1.08686,-2.87569,-14.7191,0.241223,-2.26428,31.2235,-2.09209,2.83226,12.9103,-1.58229,0.995922,-1.5294e-14,3.96078e-14,8.7394,18.7144,-98.7149,41.4449,-66.7266,-22.6997,-10.5314,7.12502,3.73309,-40.4784,-1.5294e-14,3.96078e-14,29.9829,-59.2995,86.0574,47.4371,-4.58091,-10.2844,26.1438,7.12502,15.7097,55.5261,-29.617,4.16707,40.6864,54.3792,-33.5698,-26.5604,17.4403,-67.4862,-6.85818,-5.68118,44.0655,-39.0849,15.9381,48.8579
-0.257832,15.4812,9.49978,-170.444,-3.66035,-168.242,6.10889,2.19899,10.5896,-4.09823,3.80977,2.88901,-7.31124,1.25622,-3.28522,-13.806,0.106213,-1.79459,30.7064,-2.42336,2.84015,12.51,-1.68293,0.870958,1.42263e-14,3.94277e-14,8.58438,21.6683,-98.1352,44.8994,-66.3478,-20.2521,-11.9438,7.12502,6.0964,-41.8361,1.42263e-14,3.94277e-14,36.9651,-63.2757,77.5245,51.7616,-9.90792,-9.20849,26.3257,7.12502,16.7457,55.6235,-29.434,4.87047,41.4701,54.2207,-33.9317,-26.7611,18.0327,-67.9527,-5.47391,-5.78149,44.0174,-38.6023,17.5083,48.6475
-0.25963,15.4802,9.34154,-170.12,-3.54135,-168.66,5.63719,2.38889,10.0545,-4.25806,3.96742,2.64135,-7.19975,1.36439,-3.25122,-13.4691,-0.024334,-1.65436,30.4597,-2.67882,2.9633,12.3475,-1.76615,0.858596,5.76165e-15,2.1916e-14,9.13857,24.6086,-97.0412,47.6032,-64.9201,-16.8135,-13.6389,7.12502,9.41534,-43.4086,5.76165e-15,2.1916e-14,44.5068,-65.3478,68.8339,55.8419,-15.4114,-8.05224,23.9007,7.12502,17.8586,53.1007,-28.8958,4.90968,41.0411,53.9165,-34.4587,-26.6016,18.141,-67.9052,-4.80441,-6.94403,43.6811,-38.752,16.9485,49.3796
-0.27928,15.5436,9.15536,-169.884,-3.81947,-170.017,4.50374,2.28184,8.60893,-4.05436,3.58071,2.40211,-6.42436,1.3047,-2.61939,-13.7765,-0.077801,-1.72142,30.3394,-2.64858,2.89207,12.3618,-1.74638,0.849283,-1.30577e-14,-3.03147e-15,10.4624,29.7979,-94.5989,50.3314,-62.3385,-12.6246,-13.0682,7.12502,13.455,-42.6137,-1.30577e-14,-3.03147e-15,51.8894,-65.7977,60.4122,59.7885,-20.2887,-7.07015,24.5845,7.12502,18.8034,53.6957,-27.972,4.06838,39.5041,53.3292,-34.8154,-26.3545,17.2535,-67.3217,-4.59398,-9.37746,43.369,-36.9051,19.4198,48.9329
-0.289745,15.5941,8.97536,-169.695,-4.01692,-170.675,3.49229,2.20706,7.47129,-3.79315,3.29396,2.52884,-5.65134,1.26064,-1.79076,-14.1517,-0.0906351,-1.88059,30.2258,-2.50921,2.77563,12.3899,-1.69081,0.855069,-1.13183e-14,-2.64881e-14,12.1107,34.5475,-91.4076,53.1276,-58.6256,-10.5541,-7.88709,7.12502,15.45,-37.2896,-1.13183e-14,-2.64881e-14,60.0011,-65.7817,50.9363,64.2726,-23.4739,-6.58279,23.4817,7.12502,19.272,52.5468,-26.967,3.62551,38.7581,52.5747,-34.8976,-26.3173,16.2517,-66.9022,-4.41874,-10.6982,42.9351,-34.7022,23.3736,47.8895
-0.287857,15.6378,8.81055,-169.506,-4.01179,-171.05,2.66182,2.26507,6.41372,-3.57671,3.23159,2.71971,-5.01201,1.30442,-0.968343,-14.3119,-0.158024,-2.21784,30.0961,-2.51619,2.94422,12.377,-1.69403,0.978511,1.08586e-14,-1.8487e-14,13.9823,38.8867,-87.6332,55.664,-51.5822,-8.88668,-2.86816,7.12502,17.0555,-32.1395,1.08586e-14,-1.8487e-14,67.0383,-65.1244,42.4594,68.5334,-26.3123,-5.98499,25.0671,7.12502,19.8468,54.0737,-26.0469,3.91068,38.3724,51.7373,-34.9248,-26.5056,15.8658,-66.3331,-4.18758,-11.4134,42.6285,-35.5877,22.3615,48.7512
-0.288195,15.6785,8.64626,-169.214,-4.07391,-171.46,1.6208,2.25491,5.32856,-3.22192,3.078,2.92337,-4.11813,1.3041,-0.104312,-14.7296,-0.297208,-2.66692,29.9631,-2.56057,3.09982,12.4196,-1.71589,1.11102,-2.58544e-14,6.06293e-15,16.8335,42.3979,-83.0082,58.1495,-42.4054,-6.58159,0.402525,7.12502,19.2732,-28.6624,-2.58544e-14,6.06293e-15,72.9543,-63.5933,34.8164,72.5894,-28.3635,-6.60834,26.005,7.12502,19.2475,55.0725,-25.204,4.27494,37.976,50.9211,-34.7817,-26.8986,14.9113,-65.9616,-3.91547,-12.2446,42.3513,-35.6646,22.7861,49.2475
-0.294791,15.7249,8.47445,-168.811,-4.08675,-171.711,0.310079,2.34941,4.56688,-3.08357,3.07506,3.0269,-3.27427,1.34527,0.477552,-14.2367,-0.465434,-2.90446,29.5373,-2.75067,3.22718,12.1573,-1.80747,1.17582,7.15625e-15,-5.56597e-15,19.1472,45.2495,-78.3792,60.8337,-32.2728,-5.62948,4.02241,7.12502,20.1885,-24.9485,7.15625e-15,-5.56597e-15,77.338,-62.201,28.3849,76.4231,-29.6668,-8.26234,26.8619,7.12502,17.6564,56.0802,-24.4554,4.79012,37.6504,50.0951,-34.645,-26.9346,14.772,-65.6798,-3.74843,-12.7607,42.1948,-35.6088,23.3713,49.8489
-0.308539,15.7918,8.30051,-168.381,-4.14735,-171.932,-0.416985,2.24293,3.71118,-2.95795,2.86031,3.34452,-2.79531,1.26937,1.31391,-15.3501,-0.483376,-3.37785,29.9183,-2.59933,3.30109,12.5449,-1.75522,1.30672,-2.127e-14,2.127e-14,22.0737,47.9637,-73.0792,62.906,-20.5946,-5.96804,9.49634,7.12502,19.8631,-19.5086,-2.127e-14,2.127e-14,79.3346,-60.1641,24.1649,79.7805,-30.292,-11.2937,26.3385,7.12502,14.7376,55.7946,-23.8651,5.28336,37.2402,49.2172,-34.111,-26.9725,14.2317,-65.3314,-3.54189,-13.3303,42.0817,-34.342,25.4323,49.6917
-0.323204,15.8629,8.11818,-167.956,-4.23558,-172.383,-0.801347,2.33124,2.91788,-3.48966,2.95459,3.2437,-3.1629,1.32356,1.65607,-14.5688,-0.572866,-3.46305,29.9559,-2.87787,3.47548,12.4117,-1.90658,1.34465,2.05245e-14,3.57812e-15,22.9621,50.1627,-69.0979,65.3689,-9.17606,-9.5039,12.4141,7.12502,16.4613,-16.9075,2.05245e-14,3.57812e-15,80.8588,-59.5245,20.2572,82.6635,-30.3792,-16.0828,23.3308,7.12502,10.1203,53.0674,-23.0726,5.67156,36.6583,48.2599,-33.0431,-27.4524,11.5493,-64.8483,-3.02052,-14.5316,42.0834,-32.3895,27.6403,48.9544
-0.343267,15.9289,7.92722,-167.533,-4.34393,-173.055,-1.30249,2.29714,2.03143,-3.91181,2.87942,3.0857,-3.3526,1.30361,2.00103,-13.9776,-0.577228,-3.58833,29.9518,-2.96066,3.57394,12.2928,-1.97469,1.39118,-1.76421e-14,-3.02153e-14,24.1496,51.5719,-65.1718,67.2788,1.16621,-12.4001,16.404,7.12502,13.6714,-13.127,-1.76421e-14,-3.02153e-14,81.4094,-58.6571,17.0609,85.3133,-30.459,-18.8407,25.0859,7.12502,7.45891,54.9344,-22.1064,5.8167,35.8589,47.3091,-31.9713,-27.6954,8.78511,-64.2083,-2.65074,-15.8766,42.0432,-31.6787,28.2423,48.7549
-0.366272,16.0051,7.73268,-167.009,-4.41054,-173.648,-2.01918,2.26715,1.31264,-4.32175,2.79765,2.86343,-3.39593,1.27381,2.19483,-13.466,-0.515024,-3.44707,29.9852,-2.98465,3.56863,12.198,-1.99879,1.36058,5.8393e-16,8.54774e-15,25.3455,52.9201,-61.2321,68.9493,9.45335,-16.7606,20.7224,7.12502,9.46637,-9.04494,5.8393e-16,8.54774e-15,82.217,-57.5753,13.2935,88.0905,-30.2267,-21.0799,26.2743,7.12502,5.29716,56.1881,-21.345,5.95436,35.0705,46.3707,-31.0749,-27.4272,7.36256,-63.5885,-2.14704,-17.1503,42.0272,-29.9221,28.6065,48.2534
-0.385946,16.0723,7.53784,-166.559,-4.3078,-173.908,-2.56964,2.35052,1.00747,-4.73311,2.87013,2.57697,-3.51584,1.30394,2.08396,-13.1123,-0.525682,-3.44443,30.1226,-3.20265,3.92236,12.1954,-2.08198,1.46086,2.66185e-14,-6.65929e-15,25.8359,53.8964,-57.9374,70.7521,16.2896,-21.1373,20.0307,7.12502,5.24175,-9.88448,2.66185e-14,-6.65929e-15,82.8621,-56.3754,9.49125,90.5432,-29.5837,-24.1755,24.9355,7.12502,2.30788,54.9027,-20.6516,6.28678,34.6078,45.4923,-30.0855,-26.9672,6.04677,-63.06,-1.85569,-17.6589,41.9213,-25.9014,29.2598,47.5398
-0.405717,16.1524,7.34509,-166.143,-4.19786,-174.123,-3.05695,2.42271,0.715635,-5.02787,2.93355,2.33315,-3.55235,1.33195,2.0096,-13.0513,-0.589284,-3.45123,30.2949,-3.44457,4.20665,12.2695,-2.17313,1.53307,-2.57395e-14,-1.14301e-14,26.3822,54.6706,-54.448,73.0187,21.1199,-22.7404,22.3014,7.12502,3.69382,-7.64637,-2.57395e-14,-1.14301e-14,82.4186,-55.1807,6.75892,92.3302,-29.2149,-27.5664,21.5249,7.12502,-0.967149,51.5025,-19.9356,6.67143,34.152,44.621,-29.3649,-26.1191,5.95318,-62.4948,-2.04045,-17.6619,41.8343,-22.8892,29.9732,45.6068
-0.429638,16.247,7.14462,-165.743,-4.19697,-174.564,-3.5513,2.36361,0.155451,-5.27288,2.82951,2.09883,-3.54301,1.28833,2.09607,-13.3589,-0.579824,-3.31533,30.5907,-3.53876,4.31269,12.4594,-2.19235,1.5332,3.54551e-15,-1.47349e-14,26.8625,55.1894,-51.1389,75.4185,24.271,-23.209,29.499,7.12502,3.24128,-0.456147,3.54551e-15,-1.47349e-14,81.3736,-54.087,4.40105,93.9694,-29.2691,-30.3936,17.5239,7.12502,-3.69753,47.4716,-19.1709,6.80826,33.4806,43.8017,-28.3074,-25.2676,6.36466,-61.8357,-2.65869,-17.7311,41.74,-23.6977,29.0536,45.4364
-0.458952,16.3513,6.93823,-165.216,-4.08631,-174.968,-4.54305,2.48288,-0.220183,-5.77178,2.91832,1.68717,-3.50886,1.31372,1.91315,-12.1901,-0.517666,-2.90041,30.4938,-3.7672,4.51051,12.1833,-2.28478,1.50371,-7.8551e-15,-8.99501e-15,25.6193,55.6183,-49.2964,77.7329,26.4632,-23.7443,35.6263,7.12502,2.72433,5.66396,-7.8551e-15,-8.99501e-15,80.8275,-53.674,1.54121,95.714,-29.703,-32.1592,13.7562,7.12502,-5.40245,43.6673,-18.6771,6.58057,32.8147,43.0821,-26.2148,-24.781,4.55137,-61.3569,-3.43524,-17.6184,41.6584,-26.3202,27.3728,46.5272
-0.487878,16.4569,6.7377,-164.673,-3.77375,-175.086,-5.41826,2.56378,-0.494797,-5.89091,2.99231,1.50152,-3.15234,1.343,1.91001,-12.6118,-0.481997,-2.79857,30.71,-3.84221,4.78945,12.3685,-2.26655,1.57835,-1.41727e-14,-7.85199e-15,25.8117,55.3611,-46.2738,79.8229,27.4349,-23.6319,41.5265,7.12502,2.83285,11.5656,-1.41727e-14,-7.85199e-15,79.3265,-52.4405,-0.492907,97.2476,-30.545,-32.4379,11.7222,7.12502,-5.67152,41.6263,-18.3754,6.32926,32.3972,42.4438,-23.6697,-24.3346,1.8163,-60.9972,-4.31504,-16.9225,41.589,-28.6063,26.0399,47.3484
-0.519798,16.5575,6.54242,-164.198,-3.57089,-175.195,-5.96416,2.59907,-0.788958,-6.23577,2.9915,1.41098,-3.22131,1.32981,1.99787,-12.5633,-0.448873,-2.80841,30.984,-3.91591,4.90839,12.477,-2.30971,1.61246,5.46658e-15,1.13307e-14,25.7761,56.1171,-43.0391,82.2033,26.764,-23.2543,43.5866,7.12502,3.19756,13.6308,5.46658e-15,1.13307e-14,77.4879,-51.7873,-2.21087,98.526,-31.9035,-31.9768,11.4598,7.12502,-5.22629,41.3753,-18.1256,5.94756,31.9901,41.941,-21.4765,-23.644,-0.259377,-60.5604,-4.71654,-16.6606,41.4926,-29.6736,25.048,47.3487
-0.563095,16.6599,6.32418,-163.832,-3.00212,-175.306,-6.70047,2.74396,-1.04724,-6.52547,3.13351,1.28758,-3.13109,1.38351,2.04559,-12.4267,-0.406467,-2.67418,31.2576,-3.99514,4.92656,12.563,-2.35681,1.58186,1.57879e-14,2.08724e-14,25.4276,56.8436,-40.1938,84.2056,25.4733,-22.3405,45.0639,7.12502,4.07997,15.1232,1.57879e-14,2.08724e-14,75.3668,-51.4287,-3.62164,99.1939,-33.5222,-31.8535,10.6176,7.12502,-5.10726,40.5361,-17.654,5.3703,31.4573,41.4732,-19.1522,-22.7091,-3.37539,-59.911,-4.80636,-16.5394,41.4637,-30.753,23.9244,47.3386
-0.595441,16.7588,6.11913,-163.503,-2.56901,-175.501,-7.35103,2.8339,-1.46602,-6.7512,3.22254,1.14611,-3.0306,1.42075,2.1612,-12.2805,-0.323564,-2.6291,31.3785,-4.00187,5.10209,12.5859,-2.35316,1.63888,-3.04484e-14,-9.74045e-15,24.844,57.4339,-37.5685,85.8722,23.4407,-21.1337,46.2141,7.12502,5.2453,16.299,-3.04484e-14,-9.74045e-15,73.2964,-51.0036,-5.04949,99.4844,-35.1415,-32.2387,8.33845,7.12502,-5.47918,38.2476,-17.3432,4.68078,30.8821,41.0856,-16.9908,-21.6228,-3.85046,-59.3474,-5.00264,-16.4446,41.4431,-31.3075,23.1004,48.3715
-0.622287,16.8557,5.91454,-163.323,-2.15715,-175.693,-8.64371,2.83437,-1.93849,-6.39326,3.27204,1.04113,-1.97075,1.45212,2.38546,-12.3048,-0.294083,-2.51102,31.0173,-3.9167,5.17967,12.4382,-2.26866,1.6618,-1.65317e-14,-1.35174e-14,25.1291,57.4073,-34.2544,87.1227,20.7254,-19.6602,47.4086,7.12502,6.66788,17.5336,-1.65317e-14,-1.35174e-14,71.2321,-49.9103,-6.66815,99.6749,-36.6243,-32.4062,6.78798,7.12502,-5.64094,36.6929,-17.0076,3.92396,30.3299,40.7671,-14.5797,-20.5669,-3.94887,-58.663,-5.20215,-16.3561,41.4454,-31.7168,22.5008,49.0554
-0.653749,16.9496,5.71057,-163.203,-1.78756,-175.647,-8.07743,2.99745,-2.28202,-7.32403,3.37504,0.989099,-3.28867,1.48749,2.48292,-11.7136,-0.193754,-2.40921,31.6557,-4.10034,5.29795,12.5868,-2.40813,1.65794,-3.60421e-14,-3.57812e-15,21.3541,58.5934,-34.2638,87.8966,18.1631,-18.3345,49.0028,7.12502,7.94753,19.1722,-3.60421e-14,-3.57812e-15,69.4816,-50.8728,-8.61502,99.6767,-38.1377,-32.29,6.35649,7.12502,-5.52874,36.2644,-16.6863,2.83469,30.0232,40.5185,-11.6886,-19.4969,-4.79781,-57.9659,-5.36891,-16.0394,41.4612,-32.311,21.5338,49.482
-0.687171,17.0387,5.50673,-163.102,-1.30645,-175.506,-8.33529,3.02818,-2.51088,-7.65041,3.36419,1.05057,-3.51299,1.47112,2.68001,-11.3312,-0.0607497,-2.33097,31.8581,-4.07441,5.38292,12.5888,-2.42126,1.67783,-1.28465e-14,-7.35503e-15,21.1958,60.1369,-31.322,88.7332,14.4737,-17.1442,48.2012,7.12502,9.09616,18.4173,-1.28465e-14,-7.35503e-15,66.8989,-51.1548,-10.0249,99.332,-39.5072,-32.4559,6.62772,7.12502,-5.68893,36.5314,-16.4804,1.51579,29.6971,40.3731,-8.56125,-18.1779,-4.46393,-57.2466,-5.40669,-15.6721,41.4819,-33.2694,19.9096,50.2108
-0.725275,17.1279,5.29708,-163.056,-0.88087,-175.271,-8.72264,3.01096,-2.56457,-7.84858,3.29624,1.17443,-3.51855,1.42128,2.85035,-11.0759,0.106578,-2.15503,32.0326,-3.91681,5.2501,12.5925,-2.37908,1.61573,2.19284e-14,1.37161e-14,21.5612,61.734,-27.887,89.3561,10.8988,-16.4404,46.3806,7.12502,9.77526,16.6275,2.19284e-14,1.37161e-14,64.0842,-51.4519,-11.0404,98.5523,-40.6561,-33.2827,6.65329,7.12502,-6.48714,36.5339,-16.3235,-0.310482,29.3289,40.3662,-5.87652,-16.6335,-0.0332229,-56.4457,-5.50826,-15.2442,41.5339,-34.0344,18.5234,50.4842
-0.764575,17.2179,5.09511,-163.026,-0.411468,-175.036,-9.25948,1.79426,-2.391,-7.82598,3.56751,1.43255,-3.19429,2.36372,3.02054,-11.0415,0.230528,-2.12498,32.1652,-3.77909,5.21836,12.6318,-2.33349,1.61579,-1.18028e-14,-2.38542e-15,21.069,62.5692,-25.135,89.5982,8.44418,-16.0014,45.4262,7.12502,10.1988,15.6935,-1.18028e-14,-2.38542e-15,61.4066,-51.6472,-11.8797,97.4371,-41.6048,-34.4863,6.24923,7.12502,-7.64897,36.0909,-16.394,-2.10592,28.8999,40.5359,-2.71736,-15.5291,3.94902,-55.7067,-5.16844,-15.1167,41.6599,-33.6214,18.8449,50.0404
-0.795894,17.2943,4.90905,-163.043,0.245386,-174.808,-9.18385,1.86941,-2.4291,-8.14414,3.72578,1.42628,-3.58706,2.47826,3.0257,-10.855,0.382274,-1.91726,32.4486,-3.75031,5.28877,12.7085,-2.3257,1.60659,7.85199e-15,1.19271e-15,19.354,63.3609,-23.7688,89.4228,7.15836,-16.002,44.7236,7.12502,10.1982,14.9908,7.85199e-15,1.19271e-15,59.229,-52.2895,-13.3171,96.4289,-42.1248,-35.0982,5.83018,7.12502,-8.2395,35.6495,-16.6766,-3.59622,28.4939,40.9418,1.27555,-15.0751,3.05069,-54.9976,-4.85016,-14.9124,41.8845,-34.1636,17.6225,50.4826
-0.833562,17.3593,4.72674,-163.134,0.718826,-174.228,-8.89875,1.93738,-1.9952,-8.5077,3.85439,1.50544,-4.11749,2.56175,2.83869,-10.5642,0.526674,-1.59878,32.6826,-3.73716,5.28639,12.7407,-2.32463,1.54722,-2.33075e-14,-2.54444e-14,17.7156,64.3413,-22.4433,88.879,6.47374,-16.9016,43.6542,7.12502,9.33033,13.8807,-2.33075e-14,-2.54444e-14,56.8903,-53.0338,-14.5956,95.3711,-42.4523,-35.8108,5.31598,7.12502,-8.9272,35.1071,-16.9521,-5.80105,28.4629,41.6564,5.27401,-14.9185,0.976738,-54.2532,-4.79781,-14.2074,42.2058,-34.9166,15.8632,51.1794
-0.881778,17.4204,4.54151,-163.181,1.06146,-173.621,-8.8055,1.97017,-1.35999,-8.74534,3.91721,1.60668,-4.39268,2.58924,2.57593,-10.4543,0.635715,-1.38317,32.8725,-3.69272,5.22961,12.7918,-2.31295,1.49003,1.64743e-14,9.14409e-15,15.48,64.3283,-21.8716,87.8175,7.6646,-17.4855,44.4797,7.12502,8.76686,14.6818,1.64743e-14,9.14409e-15,54.0091,-53.5917,-15.1458,94.0029,-42.2579,-36.6765,3.79852,7.12502,-9.76249,33.5522,-17.4002,-8.77318,28.3488,42.771,8.79069,-15.6056,2.38979,-53.5457,-4.91569,-13.4725,42.5701,-35.0842,15.1097,51.3739
-0.932654,17.4744,4.35816,-163.285,1.57958,-173.04,-8.8789,2.056,-0.709884,-8.80697,4.01801,1.6934,-4.3881,2.61549,2.30994,-10.293,0.776122,-1.05817,32.8516,-3.5097,5.01889,12.7319,-2.23057,1.37537,3.72721e-16,-3.57812e-15,14.018,65.1703,-20.4048,87.5586,8.30806,-19.1687,40.6962,7.12502,7.14231,10.8367,3.72721e-16,-3.57812e-15,50.809,-54.0644,-15.4276,92.4393,-41.9541,-37.5398,2.45777,7.12502,-10.5954,32.1707,-18.0302,-11.79,28.1048,44.3726,11.4653,-18.0937,7.87934,-52.7448,-5.30438,-12.6528,42.9312,-35.7057,13.3265,51.6393
-0.991064,17.5243,4.16393,-163.624,2.38146,-172.515,-8.84949,2.22273,-0.0543627,-8.82464,4.21419,1.80753,-4.39865,2.68377,2.06987,-9.96334,0.94693,-0.997198,32.8274,-3.27726,4.93039,12.6381,-2.15463,1.36081,-4.02539e-15,-1.31198e-14,12.4936,65.6636,-19.1787,86.7424,9.75938,-20.4154,39.1573,7.12502,5.93875,9.26048,-4.02539e-15,-1.31198e-14,47.8543,-54.9671,-15.9022,91.4255,-40.8301,-36.216,2.73241,7.12502,-9.31827,32.5065,-18.4085,-14.8867,27.5945,46.4073,10.8579,-23.0664,23.4645,-51.6025,-5.60642,-12.0446,43.2665,-36.1807,11.2126,52.0255
-1.0363,17.5777,4.01128,-163.426,2.5169,-172.026,-8.74927,2.16494,0.513231,-9.10137,4.18363,1.9355,-4.72394,2.6704,1.86625,-9.95565,1.06867,-1.07647,32.9837,-3.16919,5.03323,12.7,-2.1218,1.42655,-1.7344e-14,-9.54166e-15,10.2378,65.7899,-18.754,85.7469,11.1993,-21.0498,38.6658,7.12502,5.32624,8.75276,-1.7344e-14,-9.54166e-15,44.8812,-55.5807,-15.9796,89.7305,-41.1195,-36.6043,2.98677,7.12502,-9.69292,32.7437,-19.6812,-18.4938,27.5631,48.8799,4.53226,-29.1089,43.0551,-51.3788,-4.83534,-11.9857,43.5316,-34.6237,12.2029,52.032
-1.0903,17.6316,3.84447,-163.685,3.2563,-171.524,-8.3885,2.32918,1.14664,-9.18649,4.39281,2.02348,-4.98814,2.74302,1.58725,-9.90884,1.21842,-1.03539,33.1712,-3.00589,4.9774,12.7604,-2.07301,1.41709,-5.57094e-14,-3.4191e-14,8.08336,65.7388,-18.5347,84.1203,12.8751,-21.9967,40.0178,7.12502,4.412,10.0838,-5.57094e-14,-3.4191e-14,42.1589,-56.3444,-16.1863,88.1859,-40.47,-36.0005,3.45814,7.12502,-9.11029,33.2414,-20.5513,-22.0348,27.1429,51.6191,-0.425357,-32.9031,51.0997,-50.3572,-4.64935,-11.615,43.75,-34.5932,13.2196,51.3991
-1.13872,17.6861,3.68162,-163.812,4.01647,-171.118,-8.05774,2.47768,1.6276,-9.35224,4.60926,2.06161,-5.32738,2.83079,1.33791,-9.77239,1.31343,-0.963356,33.3248,-2.9332,4.9076,12.7914,-2.0673,1.38372,2.93207e-15,-1.39149e-14,5.81786,65.8245,-18.5755,82.1255,14.5328,-23.6225,42.5173,7.12502,2.84195,12.5565,2.93207e-15,-1.39149e-14,38.6658,-56.8857,-15.5123,86.2452,-40.4833,-36.6479,2.28683,7.12502,-9.73497,32.0418,-21.7919,-25.4607,26.7082,54.628,-4.85443,-35.6753,55.4809,-49.4151,-4.59892,-11.2339,43.8724,-35.0216,12.857,51.2895
-1.18895,17.7325,3.52093,-163.987,4.82026,-171.118,-7.73503,2.67548,1.77624,-9.37343,4.84992,1.91375,-5.50913,2.92364,1.08686,-10.0409,1.38279,-0.735057,33.4216,-2.83823,4.77917,12.8832,-2.00524,1.30616,4.96962e-16,1.23246e-14,3.24645,65.5399,-18.9865,80.084,15.8944,-24.8729,46.0602,7.12502,1.63432,16.0867,4.96962e-16,1.23246e-14,34.7907,-57.013,-14.4738,84.3426,-40.7878,-36.5689,1.72659,7.12502,-9.65875,31.4851,-23.0252,-28.6518,25.6984,57.8958,-9.80047,-36.9558,58.3438,-48.4002,-4.58057,-11.3954,43.8755,-35.8472,11.1504,51.7336
-1.24757,17.7794,3.3584,-164.212,5.53782,-171.245,-7.571,2.79644,2.00529,-9.42542,4.99111,1.72235,-5.62291,2.96555,0.752264,-9.66455,1.59772,-0.446774,33.3012,-2.5774,4.71261,12.7388,-1.88081,1.26324,-5.5113e-14,-1.98785e-14,1.02612,65.4714,-19.3441,77.8705,16.7085,-25.7205,50.4325,7.12502,0.815714,20.4543,-5.5113e-14,-1.98785e-14,31.2221,-57.3824,-13.5909,82.3143,-41.0335,-35.9837,2.31512,7.12502,-9.09409,32.0991,-24.2189,-31.7131,24.3714,61.3672,-9.30869,-38.0419,58.944,-47.2781,-4.58855,-11.8046,43.7312,-36.6254,9.57348,52.1597
-1.29672,17.8306,3.20429,-164.352,6.44992,-171.546,-7.21242,2.90483,1.76538,-9.48712,5.13333,1.59234,-5.89587,3.03433,0.723643,-9.96392,1.70547,-0.424755,33.5115,-2.45862,4.71211,12.888,-1.82809,1.27392,1.7344e-14,2.3059e-14,-0.346704,65.5506,-19.0905,75.5876,16.8858,-26.3714,49.1194,7.12502,0.187012,19.1397,1.7344e-14,2.3059e-14,27.6218,-57.5696,-12.3595,79.9444,-40.8125,-36.0133,2.53605,7.12502,-9.12267,32.3187,-25.7602,-34.3252,22.9921,64.9444,-2.16399,-39.2238,57.7595,-46.2378,-4.43145,-12.3936,43.4841,-37.0558,9.20788,52.1752
-1.33272,17.8834,3.07602,-164.494,7.62353,-171.887,-6.57867,3.03647,1.40884,-10.1138,5.44245,1.41626,-6.95256,3.23089,0.654378,-8.08168,1.88362,-0.677241,33.3054,-2.46923,5.07898,12.4053,-1.94377,1.44455,-1.21259e-14,-7.95139e-16,-3.54241,66.6256,-20.5436,73.5708,16.9856,-29.043,51.1701,7.12502,-2.39322,21.2038,-1.21259e-14,-7.95139e-16,24.3252,-58.6072,-11.4078,77.7201,-40.8495,-36.5611,1.84407,7.12502,-9.65117,31.603,-27.6967,-36.1774,21.8657,68.6293,4.47881,-39.5568,55.9536,-45.2789,-4.4369,-12.8114,43.1665,-37.7307,9.01504,52.1297
-1.38905,17.9289,2.8835,-164.715,8.14369,-172.509,-7.01941,3.02844,1.19107,-9.90141,5.35585,1.1657,-6.46008,3.17694,0.562544,-8.35668,1.95382,-0.623422,33.4098,-2.34397,4.96419,12.5002,-1.88939,1.40697,-4.06515e-14,-2.06736e-14,-5.1855,66.3032,-20.6753,71.4283,16.8859,-30.6667,45.5962,7.12502,-3.96124,15.6533,-4.06515e-14,-2.06736e-14,20.6093,-58.3563,-9.92858,75.3743,-41.0774,-36.7248,1.56503,7.12502,-9.80914,31.3166,-28.7285,-39.391,19.727,72.228,7.53402,-40.4144,55.4687,-44.0907,-4.05922,-14.0436,42.8167,-37.4663,9.1445,52.0596
-1.44748,17.969,2.69315,-165.213,9.33178,-172.949,-7.23187,3.28306,1.11371,-9.63265,5.60517,0.934935,-6.03072,3.27099,0.405759,-8.30377,2.08138,-0.388528,33.4038,-2.14941,4.76472,12.4761,-1.80375,1.31265,-1.89839e-14,-2.3059e-14,-7.15521,65.7055,-21.2326,69.1745,16.5794,-30.838,47.2087,7.12502,-4.12666,17.2689,-1.89839e-14,-2.3059e-14,17.5148,-58.1841,-8.77284,72.7146,-41.2658,-36.3254,1.76339,7.12502,-9.42375,31.5327,-29.5931,-41.6887,17.4642,75.9016,5.63418,-43.0388,56.5431,-42.4191,-4.03665,-14.9101,42.4316,-38.3827,7.79299,52.2349
-1.48473,18.011,2.55579,-165.242,9.8028,-173.289,-7.09386,3.25243,0.869392,-9.69742,5.56775,0.822416,-6.18714,3.26081,0.407384,-8.51194,2.22263,-0.492505,33.5646,-1.98485,4.876,12.5825,-1.73467,1.39428,7.23576e-14,3.53837e-14,-9.18048,64.9319,-21.8723,66.9811,16.2211,-31.2921,47.6509,7.12502,-4.56524,17.7201,7.23576e-14,3.53837e-14,14.7697,-57.9073,-7.71264,69.9483,-41.425,-36.1481,2.08936,7.12502,-9.25267,31.8663,-31.4589,-44.1912,16.3971,79.6136,0.182662,-45.6378,57.9814,-41.6539,-3.35147,-15.694,42.0337,-38.0346,8.20206,52.116
-1.51625,18.0492,2.42435,-165.285,10.3738,-173.544,-6.83184,3.29447,0.586303,-9.57179,5.58112,0.733937,-6.21215,3.26113,0.458336,-9.63826,2.29648,-0.717578,33.9617,-1.86071,5.04487,12.9895,-1.64885,1.5238,8.44835e-15,-1.27222e-14,-10.6269,63.7846,-22.1026,64.7431,16.0186,-29.6801,49.9597,7.12502,-3.00856,20.0012,8.44835e-15,-1.27222e-14,11.3703,-56.7121,-6.03354,67.5123,-41.4426,-36.5579,1.47113,7.12502,-9.64809,31.2302,-33.4126,-46.4204,15.5506,83.3048,-4.12384,-46.8863,59.3095,-40.8811,-3.36567,-16.091,41.6265,-38.4596,7.40735,52.3297
-1.54507,18.0844,2.28539,-165.289,10.9915,-173.656,-6.74415,3.42426,0.475835,-9.74626,5.78024,0.602801,-6.45017,3.37044,0.366527,-9.27676,2.31294,-0.753163,33.9857,-1.93907,5.15934,12.9265,-1.70681,1.55861,5.56597e-15,5.56597e-15,-13.5542,62.7509,-23.5819,62.6441,16.1021,-31.7768,49.6561,7.12502,-5.03319,19.7359,5.56597e-15,5.56597e-15,8.31247,-55.6158,-4.39813,65.1082,-42.2221,-36.8791,1.16568,7.12502,-9.95802,30.9101,-35.3522,-48.4595,14.9038,86.8675,-6.70425,-47.5499,60.934,-40.1571,-3.56436,-16.2793,41.2466,-39.0128,6.96812,52.4004
-1.57791,18.1183,2.14229,-165.166,11.3833,-173.816,-6.71347,3.36278,0.347958,-10.0759,5.77237,0.590197,-6.83957,3.39975,0.397615,-8.60645,2.40861,-0.848292,33.9725,-1.86497,5.13463,12.7721,-1.74058,1.56698,-2.14687e-14,-2.14687e-14,-16.1222,61.4667,-24.6258,60.7244,16.4333,-31.8208,50.8125,7.12502,-5.07569,20.8933,-2.14687e-14,-2.14687e-14,4.9494,-54.4352,-2.30592,62.5524,-43.6042,-36.6945,1.23608,7.12502,-9.77994,30.989,-37.5059,-50.783,14.3579,90.3504,-3.60205,-48.7431,61.3761,-39.659,-3.37872,-16.7012,40.9185,-39.0593,7.4826,52.285
-1.61526,18.1534,1.99152,-164.955,11.6076,-173.802,-6.91537,3.32656,0.547572,-10.3792,5.79595,0.577627,-7.04068,3.42727,0.271256,-8.05551,2.53198,-0.950154,34.0106,-1.76973,5.18066,12.6658,-1.75231,1.60782,-3.47873e-14,-1.03368e-14,-18.341,60.0068,-25.3997,58.634,17.1549,-32.2496,51.912,7.12502,-5.48972,22.0031,-3.47873e-14,-1.03368e-14,2.19778,-53.2175,-0.827089,60.1341,-44.3015,-36.3783,0.723353,7.12502,-9.47486,30.4904,-39.6719,-53.2194,14.0556,93.6644,5.19161,-49.6138,60.0775,-39.2362,-3.06348,-17.0486,40.6682,-38.9403,8.02805,52.1913
-1.65138,18.1861,1.83849,-164.713,11.6948,-173.595,-7.30575,3.41852,1.03601,-10.6044,5.96981,0.506986,-7.01823,3.50526,-0.0495261,-7.71525,2.60664,-1.04024,34.1182,-1.78243,5.35557,12.6409,-1.78401,1.68494,1.20265e-14,2.78299e-15,-20.7636,58.1784,-26.169,56.6928,17.7506,-32.5171,52.368,7.12502,-5.74803,22.4659,1.20265e-14,2.78299e-15,0.595626,-52.1844,-0.236116,57.7077,-43.9808,-36.4463,-0.0216928,7.12502,-9.54041,29.7423,-41.6671,-55.6245,13.9365,96.8172,12.1556,-49.5309,58.7165,-38.8045,-2.8806,-17.1679,40.4415,-39.2934,6.44447,52.6373
-1.68128,18.2207,1.6963,-164.383,11.7451,-173.286,-7.54323,3.37439,1.39343,-10.6278,5.92508,0.666689,-6.89687,3.47555,-0.0607001,-7.74595,2.46347,-1.13934,33.9375,-1.847,5.13958,12.5708,-1.83556,1.61179,1.59028e-15,-6.36111e-15,-21.6869,56.0066,-25.6349,54.9087,17.5418,-32.0541,52.6474,7.12502,-5.30096,22.7337,1.59028e-15,-6.36111e-15,-1.68819,-50.4006,1.02334,55.2845,-43.9778,-36.5538,-0.251612,7.12502,-9.64412,29.5076,-43.8963,-57.8392,14.2849,99.8326,11.4656,-50.527,59.1131,-38.464,-2.84713,-17.0629,40.2241,-39.9572,2.91154,53.303
-1.70695,18.2565,1.56485,-164.073,11.7101,-172.955,-7.52752,3.33559,1.74295,-10.8651,5.93808,0.78345,-7.15195,3.48369,-0.149574,-8.54866,2.68761,-1.48999,34.6093,-1.63075,5.45757,13.0214,-1.75272,1.83103,4.79071e-14,2.06736e-14,-22.8621,53.8956,-25.4202,52.7499,17.6721,-31.7584,53.2451,7.12502,-5.01545,23.3244,4.79071e-14,2.06736e-14,-3.32955,-48.6866,1.88583,52.7908,-44.3349,-36.1936,0.0153997,7.12502,-9.29661,29.7904,-46.0819,-60.0104,14.7349,102.747,10.2678,-51.8106,59.4185,-38.12,-3.12643,-16.7518,39.9527,-40.2316,2.11245,53.3495
-1.73243,18.2935,1.44147,-163.678,11.2553,-172.51,-7.64846,3.23113,2.33173,-11.1156,5.86866,0.881115,-7.32529,3.43885,-0.379466,-7.6959,2.44996,-1.20884,33.9046,-1.74457,4.87907,12.5382,-1.82923,1.53654,-3.45885e-14,-7.55382e-15,-24.0126,51.7924,-25.1788,50.2682,18.4359,-32.3293,53.4615,7.12502,-5.56672,23.5547,-3.45885e-14,-7.55382e-15,-4.47324,-46.983,2.34213,50.2589,-44.7176,-35.8921,0.503383,7.12502,-9.00566,30.2912,-48.3114,-62.42,15.5816,105.503,10.5855,-52.9043,59.8185,-37.9836,-3.41011,-16.3075,39.6174,-39.9859,4.95104,53.0039
