JuanDHNZ/ProyectoFinalCD/preprocessing/sports_trials_csv/05_12.csv
root1,root2,root3,root4,root5,root6,lowerback1,lowerback2,lowerback3,upperback1,upperback2,upperback3,thorax1,thorax2,thorax3,lowerneck1,lowerneck2,lowerneck3,upperneck1,upperneck2,upperneck3,head1,head2,head3,rclavicle1,rclavicle2,rhumerus1,rhumerus2,rhumerus3,rradius1,rwrist1,rhand1,rhand2,rfingers1,rthumb1,rthumb2,lclavicle1,lclavicle2,lhumerus1,lhumerus2,lhumerus3,lradius1,lwrist1,lhand1,lhand2,lfingers1,lthumb1,lthumb2,rfemur1,rfemur2,rfemur3,rtibia1,rfoot1,rfoot2,rtoes1,lfemur1,lfemur2,lfemur3,ltibia1,lfoot1,lfoot2,ltoes1
-2.88351,17.1557,15.9323,-154.737,-18.9506,-179.665,-10.1321,2.37497,-0.0246197,-8.11655,2.34364,-0.192357,-2.77034,0.813939,0.00705613,-13.1253,2.30464,-0.545957,42.2538,-1.49169,0.658922,17.9267,-2.11971,-0.358962,9.31803e-16,9.14409e-15,-44.2164,-23.9018,-59.8092,-2.40984,31.0716,-14.0311,5.43764,7.12502,12.0992,-24.1925,9.31803e-16,9.14409e-15,-50.2403,23.9934,54.4774,22.4541,-6.32816,-18.8932,21.488,7.12502,7.40824,51.3383,-2.25394,1.02385,23.8502,2.22639e-14,-25.1731,-30.8075,13.2871,-45.1631,5.03063,-30.8943,30.2653,-29.462,23.9888,18.5768
-2.91308,17.16,15.8956,-154.486,-19.1177,-179.804,-10.214,2.19692,-0.22376,-8.2164,2.10221,-0.145691,-2.84149,0.694638,0.149842,-13.2537,2.4938,-0.687804,42.3973,-1.21831,0.764256,18.0442,-2.02703,-0.240486,-1.60146e-14,-1.41137e-14,-44.4103,-23.578,-59.9007,-2.33539,31.4043,-13.6877,5.37642,7.12502,12.4302,-24.234,-1.60146e-14,-1.41137e-14,-50.2049,23.416,54.9655,22.5953,-6.26372,-18.8617,21.766,7.12502,7.43863,51.6152,-2.24077,0.84122,23.9044,6.36111e-15,-24.6502,-31.4862,12.5869,-45.1272,4.80614,-31.0145,30.1751,-29.5262,23.827,18.7036
-2.9609,17.1591,15.8451,-154.607,-19.1033,-179.644,-10.2653,1.97803,-0.124084,-8.05465,1.82523,0.120545,-2.64637,0.566645,0.351478,-13.8557,2.75371,-0.950478,42.6228,-0.667803,0.675922,18.3339,-1.85891,-0.140303,1.69837e-14,1.80894e-14,-44.0309,-22.916,-60.157,-2.20261,31.5258,-13.2925,5.38749,7.12502,12.8112,-24.1994,1.69837e-14,1.80894e-14,-50.4256,24.239,54.7417,22.4642,-6.99162,-18.9588,21.2478,7.12502,7.34493,51.1003,-1.81893,0.925172,24.1362,-1.27222e-14,-23.658,-32.2498,11.1169,-44.9732,4.66093,-30.8287,30.5859,-30.1647,23.7362,18.3219
-3.02942,17.1533,15.7703,-155.765,-18.6991,-178.909,-10.1245,2.7374,0.935208,-7.90655,2.78754,-0.35936,-2.49498,1.00681,-0.664172,-12.5051,2.35001,-0.259361,42.3814,-1.75043,0.900771,17.8447,-2.18405,-0.351316,-3.37002e-14,-1.0635e-14,-45.827,-23.9608,-59.4646,-1.91983,31.3542,-12.9044,5.21169,7.12502,13.1853,-24.3514,-3.37002e-14,-1.0635e-14,-49.7016,22.9215,54.7195,22.0732,-8.1015,-18.6642,19.7856,7.12502,7.6293,49.628,-0.337928,1.52344,24.759,4.13472e-14,-22.7604,-32.9678,9.50333,-43.7968,5.22121,-30.1649,30.9383,-30.82,23.6336,17.7088
-3.06741,17.1502,15.7114,-156.2,-18.4297,-178.831,-10.1389,2.44148,0.595923,-7.39105,2.48785,0.103782,-1.98609,0.915045,-0.0120953,-13.2045,2.50109,-0.706906,42.3905,-1.20326,0.7252,18.026,-2.03203,-0.252631,-5.05162e-14,3.57812e-15,-44.4617,-23.3281,-59.8925,-2.53524,31.0532,-12.7184,5.3027,7.12502,13.3647,-24.2487,-5.05162e-14,3.57812e-15,-49.8351,24.0371,54.8596,22.2236,-8.59963,-18.4642,19.1541,7.12502,7.82227,48.9894,0.561245,1.77604,24.9213,1.59028e-14,-21.8394,-33.5143,9.13338,-43.1981,5.15657,-29.9628,31.2881,-31.7494,23.4067,18.34
-3.09444,17.1494,15.6739,-156.249,-18.2947,-178.534,-10.3383,2.47656,0.633078,-7.2595,2.53862,0.243458,-1.74421,0.94729,0.124345,-13.4322,2.49047,-0.760569,42.4543,-1.18581,0.703997,18.1256,-2.03124,-0.251684,-3.71479e-15,1.78906e-15,-44.2829,-23.2879,-59.9154,-2.60447,30.8089,-12.494,5.50006,7.12502,13.5809,-24.037,-3.71479e-15,1.78906e-15,-49.5965,23.6799,55.5301,22.5606,-8.14253,-18.6497,19.4191,7.12502,7.64326,49.261,0.884057,2.02628,25.3618,6.36111e-15,-20.6349,-34.0975,9.45057,-43.1585,5.03571,-29.5757,31.5568,-32.6922,22.8978,19.6284
-3.13077,17.1436,15.6288,-156.556,-18.7356,-178.544,-10.2568,2.60109,0.91996,-7.29714,2.68725,-0.0981678,-1.79698,1.00596,-0.379249,-12.9096,2.33371,-0.337571,42.5199,-1.75231,0.882585,18.0363,-2.1921,-0.352135,1.27595e-14,2.11706e-14,-45.2886,-23.8945,-59.6621,-2.54998,30.7471,-12.0931,5.33604,7.12502,13.9672,-24.1748,1.27595e-14,2.11706e-14,-49.1252,22.4221,55.9002,22.572,-8.02511,-18.8642,19.5389,7.12502,7.43619,49.3882,0.0983671,1.59288,25.7724,2.97435,-21.1285,-34.4977,8.89553,-42.6959,5.52824,-29.8474,31.5219,-31.3751,23.1177,17.3525
-3.1507,17.1446,15.5991,-156.244,-18.7912,-178.903,-10.1897,2.30309,0.434744,-7.35308,2.32297,-0.0739559,-1.91868,0.838379,-0.11723,-13.317,2.54607,-0.543422,42.7427,-1.44936,1.04638,18.2798,-2.08719,-0.1927,3.32095e-14,-2.48481e-15,-44.8701,-23.4605,-60.0477,-2.82817,30.6742,-10.7232,4.22803,7.12502,15.2871,-25.187,3.32095e-14,-2.48481e-15,-49.3023,22.591,55.842,22.7308,-7.83194,-19.0562,20.3494,7.12502,7.2509,50.2052,-2.89875,1.42472,25.675,8.82005,-23.2802,-34.5249,8.72192,-42.6849,5.21821,-30.1873,31.4118,-31.1797,23.3656,16.8539
-3.14965,17.1492,15.597,-155.469,-19.6483,-179.462,-10.4448,1.71916,-0.387323,-7.4233,1.59363,0.177604,-1.89178,0.501671,0.547234,-13.6732,2.7083,-0.765923,42.8277,-1.06925,0.986471,18.4208,-1.97236,-0.111945,9.56651e-16,7.35503e-15,-44.3918,-22.9875,-60.1569,-2.63968,30.3138,-11.2455,5.24303,7.12502,14.784,-24.2097,9.56651e-16,7.35503e-15,-49.3411,22.7689,56.345,23.0717,-7.213,-19.1141,21.6512,7.12502,7.195,51.5089,-5.07851,0.510282,25.7706,12.2027,-24.8865,-34.421,11.0891,-42.9978,3.71951,-30.1662,31.2409,-32.3135,22.5176,19.5863
-3.16864,17.1533,15.5707,-155.455,-19.9826,-179.372,-10.5105,2.26195,-0.0578393,-7.81645,2.23497,-0.533813,-2.23512,0.771708,-0.321217,-12.3131,2.37499,0.431477,42.753,-2.21633,1.14142,18.0297,-2.26309,-0.464811,2.01471e-14,8.00108e-15,-46.7964,-24.2896,-59.3406,-1.99869,29.8261,-11.2298,5.9047,7.12502,14.7991,-23.5469,2.01471e-14,8.00108e-15,-48.5782,20.1598,56.9651,23.2017,-6.63909,-18.9852,21.7497,7.12502,7.31945,51.6031,-6.22798,-0.280318,26.2449,14.9462,-25.447,-34.2089,12.4606,-42.9074,3.69842,-30.1195,31.1075,-31.9253,22.9752,17.7459
-3.19555,17.1537,15.5375,-155.644,-20.2376,-178.943,-10.5713,1.74195,0.0244133,-7.48619,1.58074,0.176502,-1.87557,0.475436,0.316555,-13.0792,2.58945,-0.475574,42.7529,-1.48946,1.12705,18.2232,-2.09412,-0.17575,1.54804e-14,-9.24349e-15,-45.1263,-23.2216,-59.9521,-2.46194,29.5322,-10.6051,5.83371,7.12502,15.4008,-23.5726,1.54804e-14,-9.24349e-15,-49.086,22.3928,56.395,23.1335,-7.16814,-18.7539,19.9689,7.12502,7.54266,49.8144,-7.04694,-1.13062,26.982,17.284,-25.1435,-34.2347,12.3367,-42.5985,3.2984,-29.4469,30.9793,-32.749,22.7127,18.4078
-3.22318,17.1555,15.4949,-155.977,-20.1855,-178.869,-10.6721,2.02194,0.0432386,-7.4501,1.95642,-0.0916046,-1.77486,0.659698,0.0642162,-12.1617,2.30273,-0.270032,42.4826,-2.17219,1.40095,17.8304,-2.3179,-0.19885,2.92897e-14,2.08724e-15,-46.1027,-23.8188,-59.5513,-2.29197,29.4182,-9.30281,5.03092,7.12502,16.6549,-24.2745,2.92897e-14,2.08724e-15,-48.7234,21.8263,56.3736,23.0141,-7.25538,-18.8483,18.9828,7.12502,7.45159,48.8315,-7.31054,-1.97081,27.2522,19.1894,-24.762,-34.1844,12.7545,-41.9633,3.10948,-29.2305,30.9015,-33.5486,22.9571,18.0218
-3.24349,17.159,15.4672,-155.802,-20.3584,-179.217,-10.8416,1.78065,-0.472935,-7.31759,1.69248,-0.0208609,-1.56358,0.55329,0.407817,-12.3512,2.33711,-0.345949,42.493,-2.02631,1.29099,17.8821,-2.27772,-0.210311,-3.53464e-15,1.39646e-14,-45.6426,-23.7019,-59.7171,-2.70364,29.4046,-8.92744,4.91375,7.12502,17.0163,-24.3609,-3.53464e-15,1.39646e-14,-48.7207,22.425,56.3393,23.1717,-7.17856,-18.9811,20.0916,7.12502,7.32342,49.9448,-7.9543,-3.06132,27.2374,20.9855,-24.4829,-33.9247,12.5854,-41.7692,2.80774,-29.5181,30.7557,-33.9927,23.6844,15.7316
-3.27417,17.1632,15.4292,-155.892,-20.3516,-179.311,-11.0712,1.71718,-0.67021,-7.09852,1.65065,-0.0162284,-1.21577,0.548126,0.526064,-12.4502,2.30665,-0.343832,42.4748,-2.0336,1.23309,17.8967,-2.28074,-0.237884,-2.17421e-15,4.77083e-15,-45.6221,-23.7286,-59.7807,-2.42378,29.0748,-8.40159,5.01948,7.12502,17.5224,-24.2108,-2.17421e-15,4.77083e-15,-48.5124,22.3006,56.7479,23.583,-6.46561,-18.9326,22.1043,7.12502,7.37016,51.9559,-8.38976,-4.09839,27.2937,22.7405,-23.511,-33.5682,9.90888,-41.2463,2.62943,-29.5658,30.4793,-34.6216,23.8963,14.4841
-3.30328,17.1656,15.3903,-156.129,-20.3595,-179.351,-11.0539,1.64679,-0.821889,-6.98034,1.58806,-0.0116027,-1.10546,0.528576,0.610442,-12.2911,2.37353,-0.244835,42.483,-1.98464,1.22618,17.8581,-2.2552,-0.25083,3.52843e-15,3.00662e-14,-45.9109,-23.5943,-59.7943,-1.80769,28.6601,-7.79029,4.87723,7.12502,18.1106,-24.2996,3.52843e-15,3.00662e-14,-48.5825,22.0259,56.9809,24.0001,-5.75951,-18.5341,22.785,7.12502,7.75489,52.6228,-8.5541,-5.03401,27.3696,24.3063,-22.8398,-32.7907,8.51477,-40.5996,2.63797,-29.6074,30.2104,-34.4132,23.4864,14.8356
-3.32257,17.1577,15.3623,-156.151,-20.4491,-179.503,-11.12,1.62278,-1.09637,-6.93662,1.58694,-0.095306,-1.03071,0.536756,0.679352,-12.3607,2.34492,-0.41164,42.7697,-2.24851,1.59765,18.0633,-2.36071,-0.10751,1.67197e-14,-7.82715e-15,-46.1436,-23.7557,-59.738,-1.73706,28.4423,-7.59655,4.89988,7.12502,18.297,-24.2596,1.67197e-14,-7.82715e-15,-48.5713,21.9154,57.0001,24.274,-5.33619,-18.0701,22.0584,7.12502,8.20268,51.8791,-8.77489,-5.90261,27.4225,25.5468,-21.6558,-32.0552,7.01864,-40.4525,3.19673,-30.1292,29.9968,-32.2676,24.6079,10.481
-3.34229,17.1563,15.3299,-156.248,-20.6765,-179.372,-11.2864,1.83736,-0.944216,-6.92659,1.86085,-0.341149,-0.921436,0.663739,0.37089,-12.3594,2.07754,-0.79404,43.197,-3.1785,2.55057,18.3821,-2.70904,0.222247,-1.544e-14,-2.11209e-15,-46.7726,-24.4867,-59.4568,-1.75296,28.0841,-7.62513,5.22801,7.12502,18.2695,-23.934,-1.544e-14,-2.11209e-15,-48.0925,20.8549,57.5292,24.6926,-4.43824,-17.413,20.9927,7.12502,8.83682,50.7876,-8.91437,-6.63327,27.7805,26.5269,-20.396,-31.1117,5.59369,-40.1893,3.02641,-29.934,29.8292,-31.9613,25.2204,7.59634
-3.36687,17.1589,15.2982,-156.253,-21.1642,-179.24,-11.401,1.51766,-0.817917,-6.89797,1.42458,-0.0941099,-0.826499,0.445784,0.513869,-12.5597,2.24293,-1.37061,43.5617,-3.03407,2.91799,18.6759,-2.72894,0.514235,6.53357e-14,6.62201e-15,-46.3666,-23.9739,-59.6787,-1.77859,27.9009,-7.55796,5.54259,7.12502,18.3341,-23.6134,6.53357e-14,6.62201e-15,-48.4437,21.2598,57.6671,25.3052,-3.578,-17.0324,20.2629,7.12502,9.20408,50.042,-9.10374,-7.48116,28.1808,27.3712,-19.1573,-29.8426,4.8496,-39.9659,2.76955,-29.7157,29.6443,-31.5488,24.9451,7.07917
-3.38786,17.1645,15.2685,-156.178,-21.49,-179.32,-11.5406,1.28112,-0.991893,-6.85484,1.12918,0.0320055,-0.708848,0.305443,0.713795,-12.6278,2.3249,-1.47073,43.7276,-2.91256,2.86709,18.7941,-2.71829,0.52484,5.37686e-14,-2.16318e-14,-46.3583,-23.6653,-59.7484,-1.41098,28.0137,-7.04959,5.54109,7.12502,18.8231,-23.5682,5.37686e-14,-2.16318e-14,-48.6233,21.6415,57.8154,25.9132,-2.90382,-17.0858,20.8942,7.12502,9.15255,50.6756,-9.33112,-8.1622,28.2919,28.0667,-16.7412,-28.7851,3.53519,-39.7737,2.75446,-29.8252,29.4904,-31.5747,24.7357,6.66575
-3.40568,17.1688,15.2388,-156.117,-21.6076,-179.309,-11.752,1.22688,-1.15848,-6.82923,1.07267,0.0570634,-0.57172,0.280368,0.830323,-12.5678,2.27069,-1.48711,43.7126,-3.01586,2.88971,18.7733,-2.76194,0.519233,-6.0665e-14,-1.36664e-15,-46.6738,-23.6412,-59.6922,-0.902403,28.0847,-6.38125,5.56049,7.12502,19.4658,-23.4851,-6.0665e-14,-1.36664e-15,-48.6511,21.2966,58.2693,26.7413,-1.75246,-16.9081,21.8598,7.12502,9.32397,51.6336,-9.59611,-8.45191,28.4295,28.635,-14.1873,-27.9456,3.26542,-39.5988,2.64043,-29.7727,29.3104,-32.4887,25.0067,7.012
-3.4231,17.1701,15.2116,-156.17,-21.6399,-179.26,-11.8255,1.19801,-1.25755,-6.811,1.04572,0.0207517,-0.514187,0.268732,0.84647,-12.4487,2.29874,-1.29504,43.6399,-3.01305,2.86857,18.6917,-2.73146,0.476594,-1.98785e-16,-1.98785e-15,-46.795,-23.6731,-59.7841,-0.840577,28.0011,-5.94312,5.66842,7.12502,19.887,-23.3341,-1.98785e-16,-1.98785e-15,-48.7216,20.4828,58.9186,27.7916,-0.161698,-16.6897,22.2086,7.12502,9.53475,51.9729,-9.71049,-8.42567,28.559,29.0278,-12.2091,-27.5835,3.06219,-39.3044,2.1874,-29.5244,29.1198,-33.084,25.1713,8.74867
-3.44254,17.1745,15.1898,-156.218,-21.8057,-179.076,-11.842,1.08978,-1.13617,-6.75644,0.896736,0.120043,-0.443489,0.194916,0.865135,-12.6572,2.33314,-1.32882,43.6288,-2.85923,2.76027,18.7329,-2.67853,0.460329,6.51424e-14,4.47266e-15,-46.4024,-23.5985,-60.0181,-1.16388,27.8449,-6.11853,5.74207,7.12502,19.7184,-23.2778,6.51424e-14,4.47266e-15,-48.8066,20.1597,59.6018,28.9261,1.46982,-16.4162,23.0229,7.12502,9.79867,52.7749,-9.85062,-8.44616,28.853,29.2327,-10.9944,-27.7804,1.88506,-39.0861,1.60369,-29.0744,28.9554,-33.4045,25.1667,9.45196
-3.45889,17.1791,15.1643,-156.224,-22.1564,-178.821,-12.2936,0.918127,-1.14371,-6.54558,0.68677,0.412433,0.0211676,0.0975044,1.15344,-12.7581,2.31421,-1.47512,43.5318,-2.71306,2.60467,18.6889,-2.64877,0.444379,-3.62176e-14,1.55301e-16,-46.0051,-23.4952,-60.0434,-0.877103,27.6949,-5.98019,5.97388,7.12502,19.8514,-23.0323,-3.62176e-14,1.55301e-16,-48.7914,20.335,60.2284,29.8331,2.64668,-15.8708,23.847,7.12502,10.3248,53.5735,-9.96791,-8.79642,29.304,29.281,-10.8066,-28.1251,2.46537,-38.9712,1.50613,-28.7435,28.7747,-33.3465,24.9561,9.07826
-3.47087,17.1848,15.136,-156.239,-22.2907,-178.777,-12.3936,0.988462,-1.21469,-6.64516,0.775212,0.271256,-0.0312789,0.135568,1.05817,-12.2878,2.28261,-1.13405,43.5425,-2.97614,2.6464,18.5758,-2.71674,0.3517,5.49205e-14,3.79679e-14,-46.6519,-23.7732,-59.9298,-0.527959,27.8697,-5.9473,6.27166,7.12502,19.883,-22.7312,5.49205e-14,3.79679e-14,-48.9283,19.3881,60.6001,30.8503,3.91914,-14.8136,23.7123,7.12502,11.3445,53.3855,-9.92712,-8.95582,29.4533,29.175,-10.8051,-28.5492,4.44469,-38.7643,1.49713,-28.6708,28.6153,-33.1613,24.9145,8.27792
-3.49153,17.1943,15.1097,-156.267,-22.1278,-178.881,-12.1604,1.23091,-1.21812,-6.85094,1.0779,-0.12495,-0.3727,0.274746,0.681151,-11.9945,2.17234,-0.826989,43.6332,-3.44719,2.87436,18.5778,-2.84929,0.312856,-2.57799e-14,3.70733e-14,-47.7107,-24.1886,-59.7575,-0.228454,28.1499,-6.39646,6.73809,7.12502,19.4512,-22.309,-2.57799e-14,3.70733e-14,-48.9767,18.2217,60.8807,31.7458,4.8681,-13.7205,23.0356,7.12502,12.3986,52.6479,-9.86282,-8.76321,29.2521,29.0132,-10.5108,-29.0211,5.58085,-38.4416,1.2784,-28.7134,28.4689,-33.2377,25.1422,7.46151
-3.51428,17.1997,15.0883,-156.263,-22.1625,-178.63,-12.6535,1.16399,-1.31621,-6.61609,1.02007,0.184905,0.13109,0.256426,1.0585,-12.1979,2.08033,-1.27394,43.5035,-3.38547,2.91493,18.5537,-2.86941,0.430441,-2.2413e-14,-5.96354e-16,-47.2761,-24.0606,-59.6633,-0.178834,28.0652,-7.05853,7.53242,7.12502,18.8145,-21.5777,-2.2413e-14,-5.96354e-16,-48.9039,18.6059,61.5306,32.5452,5.41305,-12.8865,22.4215,7.12502,13.2026,51.9834,-10.0396,-8.67153,29.4477,28.9392,-10.2765,-29.4142,6.10093,-38.3341,1.05147,-28.3954,28.2965,-33.359,25.3191,6.96177
-3.53342,17.2047,15.0712,-156.057,-22.286,-178.38,-12.9666,1.02028,-1.13992,-6.61286,0.799697,0.346118,0.309494,0.138343,1.10267,-12.4009,2.18308,-1.41579,43.5734,-3.20008,2.95199,18.6481,-2.81342,0.505119,-5.74426e-14,5.96354e-15,-46.6638,-23.7928,-59.9839,-0.432107,27.7063,-7.62775,8.23435,7.12502,18.267,-20.9279,-5.74426e-14,5.96354e-15,-49.1193,18.6952,61.8988,33.5403,6.37826,-11.5234,20.3767,7.12502,14.5163,49.8488,-10.4197,-8.72645,29.7257,28.938,-9.84455,-29.6211,5.6664,-38.4817,0.93267,-28.1313,28.1009,-33.3994,25.381,6.47584
-3.54223,17.2139,15.0529,-155.681,-22.2794,-178.314,-13.1852,0.755887,-1.31595,-6.62791,0.45531,0.57587,0.414909,-0.032305,1.39773,-13.0548,2.42688,-1.46504,43.8024,-2.67181,2.71452,18.9472,-2.63141,0.492818,-3.67627e-14,1.98785e-15,-45.8966,-23.284,-60.444,-0.427864,27.4022,-7.17588,7.99322,7.12502,18.7017,-21.1278,-3.67627e-14,1.98785e-15,-49.4149,19.0564,62.256,34.691,7.29947,-12.5135,24.0537,7.12502,13.5621,53.592,-10.8732,-8.47356,29.8666,28.941,-9.53123,-29.9318,6.0654,-38.7534,0.483384,-27.8913,27.9647,-33.9458,25.4928,6.78885
-3.54856,17.2258,15.033,-155.699,-22.224,-178.407,-13.1501,1.17231,-1.44509,-6.84462,1.0043,0.065907,0.156328,0.22958,1.01072,-12.1499,2.17502,-0.792736,43.6631,-3.46291,2.90019,18.6415,-2.83915,0.315195,5.40694e-14,6.36111e-15,-47.6083,-24.1939,-59.8442,0.462298,27.2311,-6.13274,7.48075,7.12502,19.7048,-21.5405,5.40694e-14,6.36111e-15,-49.2206,16.8778,63.0946,35.8729,8.50941,-10.8618,22.5154,7.12502,15.1536,51.9406,-10.8524,-8.32184,29.7572,29.0002,-9.17192,-30.2684,6.95481,-38.4885,0.309365,-27.8853,27.8077,-34.2059,25.5496,6.60929
-3.56154,17.2381,15.0119,-155.829,-22.2623,-178.228,-13.3087,0.996211,-1.62557,-6.5721,0.823183,0.365886,0.523571,0.15749,1.40358,-12.4683,2.2305,-0.894975,43.6098,-3.16923,2.68688,18.677,-2.74234,0.28955,2.45002e-14,1.73937e-14,-46.6967,-24.0235,-60.0604,0.18758,27.3797,-6.23053,7.88737,7.12502,19.6107,-21.1435,2.45002e-14,1.73937e-14,-49.1384,17.0289,63.9547,36.9499,9.35251,-11.0229,24.3568,7.12502,14.9984,53.7936,-10.8365,-8.23937,29.8896,29.1064,-8.47496,-30.6003,6.12633,-38.2224,0.211937,-27.6353,27.6532,-34.0662,25.8813,5.83104
-3.57824,17.2499,14.9919,-155.89,-22.1053,-178.066,-13.0266,1.10974,-1.4134,-6.74482,0.931535,0.20126,0.195504,0.201229,1.12316,-12.5397,2.23134,-0.684657,43.8004,-3.31157,2.67547,18.8234,-2.7818,0.210354,6.47293e-15,6.16232e-15,-46.869,-24.1028,-60.221,0.0577099,27.345,-6.6168,8.49944,7.12502,19.2393,-20.5689,6.47293e-15,6.16232e-15,-49.2973,16.4739,64.2859,37.7734,9.66097,-10.7957,24.9295,7.12502,15.2173,54.3499,-10.9067,-8.00136,29.889,29.2148,-7.80917,-30.6918,4.50285,-38.0304,-0.199568,-27.3057,27.4977,-34.6202,26.2669,6.10698
-3.58752,17.2569,14.978,-155.809,-21.8354,-177.906,-13.3309,1.31357,-1.51511,-6.7045,1.21503,0.138223,0.390517,0.340811,1.15607,-12.4226,2.05165,-0.653658,43.6921,-3.61554,2.73738,18.7351,-2.88376,0.182163,5.02428e-14,2.5842e-14,-47.2617,-24.4245,-60.0384,0.774094,27.0716,-6.43401,8.66944,7.12502,19.4151,-20.3813,5.02428e-14,2.5842e-14,-49.0454,16.2136,64.7156,38.2348,9.40488,-9.62747,24.2439,7.12502,16.3424,53.5754,-11.0902,-7.54841,29.8944,29.2558,-7.26996,-30.7346,3.93774,-38.058,-0.497285,-27.0185,27.3853,-35.4207,26.4557,6.91052
-3.59344,17.2628,14.9632,-155.648,-21.6987,-177.965,-13.662,1.37711,-1.85905,-6.61379,1.34918,0.115056,0.648183,0.413247,1.34985,-12.2868,1.91941,-0.757554,43.5128,-3.82546,2.91727,18.5997,-2.95148,0.255395,4.96713e-14,6.16232e-15,-47.5198,-24.64,-59.8837,1.54212,26.7349,-6.28294,9.13142,7.12502,19.5603,-19.9046,4.96713e-14,6.16232e-15,-48.7888,16.0418,65.165,38.6605,9.34415,-8.22739,23.3521,7.12502,17.69,52.5674,-11.2352,-7.28329,29.7708,29.3098,-6.89846,-30.7889,4.20706,-38.0431,-0.533987,-27.0559,27.2427,-35.7976,26.2636,7.48357
-3.6017,17.2717,14.9355,-155.691,-21.8388,-177.858,-13.7969,1.24424,-2.01317,-6.54258,1.19848,0.228559,0.793282,0.343299,1.5369,-12.3925,1.95877,-0.650658,43.5299,-3.74615,2.8167,18.6317,-2.91137,0.20161,1.19768e-14,6.75868e-15,-47.3545,-24.5425,-60.0277,1.58276,26.6083,-7.22842,10.8225,7.12502,18.6511,-18.3033,1.19768e-14,6.75868e-15,-48.8363,16.1144,65.3958,39.2001,9.25159,-6.99193,22.7375,7.12502,18.8786,51.8414,-11.1405,-7.15477,29.8928,29.2896,-6.42501,-30.9515,5.22519,-37.861,-0.504017,-26.9091,27.1363,-35.648,26.2202,7.22078
-3.61373,17.2808,14.9134,-155.74,-21.7218,-177.575,-13.7542,1.24704,-1.90348,-6.61955,1.17481,0.299108,0.691987,0.327175,1.54405,-12.5096,2.01989,-0.635745,43.6339,-3.6776,2.79759,18.7271,-2.89001,0.197223,6.13748e-15,-7.95139e-16,-47.2926,-24.3531,-60.1832,1.49924,26.7284,-6.63429,10.41,7.12502,19.2225,-18.66,6.13748e-15,-7.95139e-16,-49.0473,16.1431,65.5404,39.6965,9.17492,-5.78451,21.8266,7.12502,20.0395,50.8132,-11.128,-6.77956,30.0283,29.1893,-5.24712,-31.1187,5.59216,-37.7626,-0.831502,-26.4638,27.0438,-35.9921,26.6629,6.95186
-3.62427,17.2871,14.8944,-155.759,-21.6359,-177.361,-13.7606,1.16483,-1.88383,-6.63821,1.05461,0.475406,0.677327,0.267426,1.70003,-12.6066,2.11237,-0.832767,43.6915,-3.46044,2.76083,18.7823,-2.84457,0.25318,4.75592e-14,-1.23246e-14,-47.0764,-23.9625,-60.3022,1.60686,26.8766,-6.96698,10.9402,7.12502,18.9026,-18.1614,4.75592e-14,-1.23246e-14,-49.213,16.4162,65.884,40.1785,9.19805,-4.70603,21.0621,7.12502,21.0758,49.9368,-11.0473,-6.56051,30.122,28.9938,-4.59471,-31.1516,6.07077,-37.7252,-0.863778,-26.2186,26.9951,-36.0561,26.9398,6.50296
-3.63875,17.2934,14.8724,-155.715,-21.5899,-177.254,-14.0126,1.81118,-1.60635,-6.94225,1.84678,-0.237098,0.492858,0.629384,0.913601,-11.4589,1.70358,0.142192,43.5254,-4.62571,2.971,18.4037,-3.16668,-0.0288685,-2.35311e-14,-1.43125e-14,-48.934,-25.3506,-59.638,1.84244,26.8459,-7.50037,11.8812,7.12502,18.3895,-17.2696,-2.35311e-14,-1.43125e-14,-48.9035,13.7812,66.5557,40.825,9.59962,-3.83203,20.8394,7.12502,21.9153,49.6182,-10.9285,-6.58615,30.1185,28.8393,-4.27122,-30.8545,6.37972,-37.6959,-0.770168,-26.1785,26.9495,-35.8733,27.2492,5.5502
-3.64992,17.3008,14.8533,-155.69,-21.3893,-177.191,-14.1558,1.70742,-1.77333,-6.78702,1.74797,-0.131242,0.725286,0.58932,1.109,-11.888,1.80898,0.183588,43.5799,-4.36737,2.82068,18.5393,-3.05447,-0.0649882,-2.39536e-14,1.66979e-14,-48.4282,-25.1077,-59.9205,2.2095,26.5087,-7.51604,12.5375,7.12502,18.3745,-16.6147,-2.39536e-14,1.66979e-14,-48.9081,13.7934,67.0084,41.5489,9.71371,-2.73942,20.2024,7.12502,22.964,48.8547,-10.8121,-6.39353,30.0339,28.7446,-4.01057,-30.5703,6.16346,-37.6029,-0.953793,-26.0445,26.8869,-36.4654,27.2609,6.21988
-3.65608,17.3081,14.8375,-155.692,-21.2071,-177.089,-14.2407,1.38685,-2.08483,-6.52542,1.38883,0.275536,1.03602,0.430685,1.66129,-12.6505,1.98772,-0.220356,43.6408,-3.80891,2.67554,18.7678,-2.88202,0.037096,3.58558e-14,3.18055e-15,-47.4755,-24.3369,-60.3195,2.88738,26.0118,-8.06192,13.7655,7.12502,17.8493,-15.4353,3.58558e-14,3.18055e-15,-48.9598,14.6643,67.4264,42.1088,9.58072,-1.49703,19.2844,7.12502,24.1557,47.7835,-10.7848,-6.06783,29.9896,28.6989,-3.86628,-30.5044,6.79668,-37.5001,-1.28947,-25.7818,26.8167,-37.1382,27.3459,7.14806
-3.66179,17.3174,14.8228,-155.694,-21.0687,-176.972,-14.3391,1.51301,-2.20478,-6.61029,1.55752,0.260917,0.987507,0.511794,1.73928,-12.3061,1.87263,-0.346203,43.636,-4.11839,2.90598,18.6913,-3.01778,0.112609,-3.58806e-14,-8.74653e-15,-48.0713,-24.3704,-60.018,3.58679,25.6362,-8.6881,15.2395,7.12502,17.2467,-14.0152,-3.58806e-14,-8.74653e-15,-49.047,14.1056,67.9462,42.5947,9.35765,-0.3219,18.4903,7.12502,25.282,46.835,-10.8558,-5.84709,29.96,28.7223,-3.58725,-30.4911,6.59494,-37.4376,-1.62948,-25.5162,26.7582,-37.7063,27.4846,8.12445
-3.66812,17.3238,14.8069,-155.663,-20.9644,-176.782,-14.5049,1.83852,-2.05594,-6.76374,1.9516,0.00800794,0.911342,0.692753,1.45118,-11.8526,1.67419,-0.131021,43.5908,-4.67293,3.15334,18.5682,-3.19329,0.0918862,-2.84511e-14,-2.90226e-14,-48.8415,-24.9468,-59.6871,3.87415,25.4476,-8.70987,15.9814,7.12502,17.2257,-13.2752,-2.84511e-14,-2.90226e-14,-48.9148,12.9772,68.4813,43.0407,9.12638,0.51185,17.9055,7.12502,26.0805,46.1348,-10.9898,-5.64336,30.0364,28.7646,-3.44816,-30.4195,5.91545,-37.4746,-1.79118,-25.2526,26.7512,-37.946,27.64,8.62641
-3.67418,17.3253,14.7929,-155.613,-20.8764,-176.517,-14.6966,1.86675,-2.00967,-6.63585,1.9978,0.0994801,1.14457,0.717557,1.53438,-12.4482,1.63262,-0.122343,43.7186,-4.69424,3.095,18.8136,-3.17988,0.0504008,-8.71919e-14,7.55382e-15,-48.2022,-25.1653,-59.9073,3.58185,25.2682,-8.75913,16.3142,7.12502,17.1783,-12.9464,-8.71919e-14,7.55382e-15,-48.4582,13.1346,68.9335,43.2357,8.40998,1.50976,17.1752,7.12502,27.0357,45.26,-11.1357,-5.45333,30.2058,28.788,-3.22985,-30.376,6.3668,-37.577,-2.0427,-24.8612,26.757,-38.3979,27.6169,9.52661
-3.67943,17.3224,14.7761,-155.691,-20.7378,-176.26,-14.8038,1.73165,-2.06005,-6.501,1.83518,0.351189,1.3392,0.642972,1.80571,-12.7937,1.71639,-0.266799,43.7455,-4.42859,2.98068,18.9135,-3.0978,0.0685286,-2.41026e-14,2.10712e-14,-47.5895,-24.7887,-60.2022,3.57285,24.9857,-8.94581,16.9738,7.12502,16.9986,-12.3024,-2.41026e-14,2.10712e-14,-48.308,13.9347,69.1186,43.3382,7.44079,2.76337,16.2863,7.12502,28.2344,44.1791,-11.0923,-5.20031,30.3583,28.7614,-2.74173,-30.4317,6.5731,-37.5378,-2.33523,-24.4579,26.8007,-39.2161,27.5357,10.6781
-3.69065,17.3228,14.7556,-155.815,-20.6274,-176.255,-14.7953,1.67752,-2.16183,-6.45684,1.78327,0.351497,1.37961,0.620533,1.85584,-12.6407,1.75254,-0.157209,43.6647,-4.36989,2.91668,18.8116,-3.06996,0.0320414,2.03506e-14,1.90833e-14,-47.7544,-24.5721,-60.3076,4.03751,24.6304,-9.10722,18.0802,7.12502,16.8432,-11.2093,2.03506e-14,1.90833e-14,-48.266,13.9405,69.3949,43.5814,6.62603,3.32066,16.4948,7.12502,28.7669,44.2984,-10.8708,-5.19979,30.2343,28.7091,-2.33537,-30.3629,6.39224,-37.3343,-2.49022,-24.4101,26.8666,-39.7991,27.4968,11.2549
-3.70289,17.323,14.7362,-155.98,-20.5712,-176.3,-14.6215,1.74756,-2.20481,-6.53011,1.8779,0.196856,1.20952,0.6678,1.72743,-12.3118,1.71905,0.0914368,43.6248,-4.53208,2.90575,18.6968,-3.11236,-0.0462433,1.2275e-14,4.25399e-14,-48.2119,-24.6822,-60.2665,4.49275,24.3142,-8.82569,18.5769,7.12502,17.1142,-10.6893,1.2275e-14,4.25399e-14,-48.326,13.1919,69.8995,44.1523,6.05486,3.46602,17.2811,7.12502,28.9058,45.061,-10.5368,-5.31878,30.0833,28.6092,-1.68066,-30.1699,5.60006,-37.0784,-2.76801,-24.3773,26.9855,-40.3663,27.5178,11.7541
-3.71114,17.3205,14.7211,-156.151,-20.559,-176.232,-14.4458,1.78653,-2.17241,-6.61573,1.91589,0.13983,1.0277,0.685858,1.64952,-11.9915,1.71411,0.250171,43.6164,-4.61415,2.86301,18.6012,-3.14481,-0.109062,3.28989e-14,3.73715e-14,-48.4539,-24.6783,-60.2368,4.82853,23.9611,-8.32553,18.5567,7.12502,17.5956,-10.6671,3.28989e-14,3.73715e-14,-48.4983,12.5833,70.3736,44.7579,5.56025,3.75363,17.4626,7.12502,29.1805,45.1952,-10.2533,-5.37119,30.0793,28.5255,-1.28827,-30.0499,5.64408,-36.89,-3.08999,-24.1959,27.1004,-40.7813,27.7151,12.3449
-3.71738,17.3203,14.7075,-156.355,-20.6726,-175.967,-14.3653,1.74242,-1.96685,-6.61285,1.83028,0.218938,0.99728,0.641826,1.60181,-11.8892,1.75501,0.287844,43.6481,-4.62067,2.90796,18.5953,-3.1478,-0.0976751,-9.79014e-15,-2.34566e-14,-48.282,-24.5865,-60.3863,4.69233,23.791,-8.44213,18.913,7.12502,17.4834,-10.3208,-9.79014e-15,-2.34566e-14,-48.5309,12.3742,70.694,45.0583,5.05561,3.91256,17.394,7.12502,29.3322,45.1001,-10.067,-5.47378,30.3038,28.4938,-1.10836,-29.9652,6.28672,-36.7885,-3.38536,-23.7955,27.231,-41.0736,27.9171,12.9906
-3.7243,17.3202,14.699,-156.417,-20.7556,-175.858,-14.2978,1.60653,-1.91451,-6.55007,1.64998,0.344256,1.03303,0.556071,1.67596,-12.1245,1.81657,0.0560481,43.7343,-4.52083,3.02356,18.721,-3.12872,0.0118054,6.20705e-14,2.34566e-14,-47.5615,-24.4136,-60.6668,4.11414,23.6803,-8.94826,19.948,7.12502,16.9962,-9.32838,6.20705e-14,2.34566e-14,-48.3716,12.7449,70.9,45.1493,4.19603,4.3434,16.7453,7.12502,29.7435,44.3788,-10.0481,-5.59031,30.3675,28.5455,-0.792627,-29.8424,6.24601,-36.813,-3.71484,-23.5681,27.3496,-41.2519,28.1738,14.5203
-3.73098,17.32,14.6895,-156.317,-20.7774,-175.888,-14.2979,1.38199,-2.02536,-6.4931,1.36832,0.528621,1.09637,0.42134,1.89029,-12.5332,1.91236,-0.293661,43.8709,-4.25963,3.00856,18.9166,-3.07709,0.108735,-9.24349e-15,-4.77083e-14,-46.7665,-23.9376,-60.9313,4.01392,23.4758,-8.90347,20.4913,7.12502,17.0394,-8.78138,-9.24349e-15,-4.77083e-14,-48.2475,13.5131,71.0749,45.2805,3.1063,5.03682,15.8421,7.12502,30.4051,43.3552,-10.2166,-5.66225,30.2872,28.7185,-0.522225,-29.6761,5.39546,-36.8896,-4.07429,-23.4877,27.3988,-41.7374,28.0805,16.6864
-3.73651,17.3196,14.6759,-156.216,-20.8501,-175.739,-14.4727,1.74324,-1.7633,-6.69254,1.79417,0.134244,0.982835,0.612894,1.39523,-12.1437,1.6058,0.252496,43.8368,-5.01916,3.08494,18.8119,-3.29552,-0.0937287,-1.97791e-14,-1.43125e-14,-47.8737,-24.7046,-60.5319,4.55852,23.3411,-8.52186,20.6433,7.12502,17.4067,-8.59735,-1.97791e-14,-1.43125e-14,-47.882,12.0837,71.5264,45.4246,2.27175,4.92954,16.0203,7.12502,30.3028,43.5523,-10.4776,-5.71213,30.4034,28.9506,-0.327787,-29.5252,4.2637,-37.0236,-4.2657,-23.2659,27.3681,-41.9291,28.1849,17.1586
-3.73952,17.3165,14.6652,-156.274,-20.8049,-175.779,-14.3696,1.85586,-1.80161,-6.77866,1.94221,-0.0457056,0.836986,0.683742,1.24709,-12.0623,1.54165,0.501545,43.8587,-5.23091,3.09855,18.8082,-3.34283,-0.172713,2.73329e-14,4.17448e-14,-48.3672,-24.9326,-60.4176,5.0555,23.1413,-8.15626,20.5209,7.12502,17.7585,-8.68819,2.73329e-14,4.17448e-14,-47.7334,11.4475,71.8389,45.6005,1.61753,4.88371,16.597,7.12502,30.259,44.137,-10.4408,-5.79083,30.2742,29.1543,-0.629198,-29.4311,5.3136,-36.9557,-3.99147,-23.4625,27.3492,-40.9441,28.4927,16.1579
-3.74652,17.3114,14.6547,-156.355,-20.6367,-175.977,-14.2465,1.81891,-2.03525,-6.70049,1.93719,-0.0855901,0.84584,0.691418,1.33411,-12.216,1.56191,0.365456,43.8249,-5.18539,3.23446,18.8381,-3.31965,-0.07492,-4.9895e-14,4.01545e-14,-48.367,-24.8292,-60.4676,5.69112,22.9674,-7.81343,20.2124,7.12502,18.0883,-8.96646,-4.9895e-14,4.01545e-14,-47.6125,11.2979,72.1703,45.9822,1.16569,5.37766,16.5739,7.12502,30.7301,44.0265,-10.2659,-5.95885,29.9251,29.2843,-0.582187,-29.1573,6.25438,-36.7805,-3.88367,-23.7804,27.4005,-40.1182,28.4315,14.9957
-3.75148,17.3043,14.6434,-156.395,-20.4476,-176.022,-14.2557,1.77257,-2.16531,-6.57366,1.90926,-0.0208868,0.977614,0.685817,1.47268,-12.5671,1.54258,0.0421941,43.8507,-5.13886,3.35022,18.9636,-3.3229,0.0437203,1.22253e-14,-4.37326e-15,-47.9715,-24.7398,-60.6489,5.96548,22.884,-7.9563,20.0758,7.12502,17.9509,-9.11576,1.22253e-14,-4.37326e-15,-47.4813,11.1824,72.6373,46.4619,0.827624,5.54198,16.3292,7.12502,30.8868,43.7522,-10.1707,-5.93975,29.7491,29.3754,-0.576256,-28.9978,7.24333,-36.7047,-3.8431,-23.8671,27.4834,-40.9003,28.1969,15.2017
-3.75148,17.2963,14.6313,-156.456,-20.4088,-175.904,-14.3068,1.99902,-2.03001,-6.64579,2.18661,-0.2147,0.931724,0.8154,1.23504,-12.2797,1.34222,0.193549,43.7844,-5.61566,3.52387,18.8681,-3.47796,0.0133237,4.52235e-15,3.1408e-14,-48.35,-25.2647,-60.491,6.0164,22.7447,-7.99877,20.2547,7.12502,17.91,-8.94058,4.52235e-15,3.1408e-14,-47.3407,10.1881,73.0085,46.6938,0.508157,5.34054,16.6597,7.12502,30.6947,44.1189,-10.0786,-5.90746,29.8235,29.4149,-0.94078,-28.9084,8.71803,-36.7168,-3.81708,-23.7395,27.5945,-42.0201,28.4138,15.4754
-3.75284,17.2913,14.6192,-156.526,-20.3629,-175.902,-14.285,1.74959,-2.21467,-6.57102,1.88211,0.0690454,0.991739,0.673748,1.59105,-12.4713,1.51568,-0.0354917,43.8917,-5.20222,3.34994,18.9671,-3.37448,0.0433063,-3.56322e-14,-8.74653e-15,-47.5909,-24.6694,-60.766,5.94801,22.5267,-7.77747,20.285,7.12502,18.1229,-8.89072,-3.56322e-14,-8.74653e-15,-47.4149,10.7257,73.3037,46.8545,-0.0226688,4.8595,17.0906,7.12502,30.236,44.6349,-9.96175,-5.92609,29.778,29.5093,-1.34799,-28.6788,8.28543,-36.6686,-3.77551,-23.762,27.707,-42.1376,28.7336,14.9568
-3.75386,17.2914,14.6077,-156.6,-20.31,-175.849,-14.2944,2.14173,-2.02819,-6.73507,2.36513,-0.349943,0.830768,0.89911,1.11697,-11.8771,1.25913,0.451014,43.8401,-5.95297,3.57728,18.8044,-3.59527,-0.0709152,2.78795e-14,-3.45885e-14,-48.5194,-25.533,-60.4004,5.92058,22.4345,-7.70253,20.241,7.12502,18.195,-8.92795,2.78795e-14,-3.45885e-14,-47.2208,9.21478,73.6092,46.8512,-0.547512,4.39912,16.8303,7.12502,29.7967,44.4542,-9.92215,-5.87033,29.774,29.6265,-1.30744,-28.402,6.24898,-36.6794,-3.67278,-23.7493,27.8966,-41.9489,28.8061,14.99
-3.75443,17.294,14.6001,-156.469,-20.0306,-176.062,-14.3671,2.32606,-2.22249,-6.82264,2.62452,-0.628468,0.771411,1.02268,0.973853,-11.5936,1.13826,0.699726,43.8139,-6.29987,3.65338,18.7231,-3.70007,-0.140797,2.89729e-14,-2.14687e-14,-48.8203,-25.9434,-60.3486,5.8583,22.4353,-8.11013,20.504,7.12502,17.8029,-8.70113,2.89729e-14,-2.14687e-14,-47.007,8.72288,73.6576,46.7929,-1.24835,4.28602,16.1015,7.12502,29.6887,43.7447,-10.0754,-5.74994,29.4375,29.7971,-1.03508,-28.2583,4.6768,-36.6822,-3.77323,-23.9196,28.0358,-42.5078,27.6856,17.2909
-3.75679,17.2962,14.5936,-156.389,-19.8038,-176.209,-14.3977,2.28021,-2.43272,-6.81803,2.58858,-0.625349,0.782156,1.00791,1.09087,-11.695,1.19789,0.64662,43.9249,-6.24259,3.66424,18.8229,-3.6892,-0.122333,4.50247e-14,2.54444e-14,-48.602,-25.7531,-60.4832,5.95372,22.4348,-8.39552,20.875,7.12502,17.5282,-8.3548,4.50247e-14,2.54444e-14,-46.829,9.10062,73.6284,46.609,-1.81336,4.14883,15.7336,7.12502,29.5578,43.4001,-10.1479,-5.7992,29.1596,29.9588,-1.18732,-27.9599,4.55295,-36.4796,-4.4082,-23.7525,28.1977,-44.4656,24.7491,22.9769
-3.75926,17.2917,14.5844,-156.43,-19.7292,-176.164,-14.3883,2.16793,-2.45355,-6.7754,2.44521,-0.489876,0.819899,0.940374,1.22356,-11.9535,1.28075,0.40029,44.043,-6.07657,3.69719,18.973,-3.65598,-0.0398232,1.25234e-13,-2.78299e-14,-48.2425,-25.4085,-60.6645,6.0489,22.4255,-8.27707,20.8416,7.12502,17.6422,-8.37796,1.25234e-13,-2.78299e-14,-46.6602,9.68372,73.6503,46.5327,-2.47139,4.05792,16.2681,7.12502,29.471,43.9498,-10.1586,-5.87646,29.1293,30.164,-1.56184,-27.6409,5.44934,-36.4644,-4.23572,-23.7776,28.3138,-44.2947,24.5489,22.975
-3.75965,17.2871,14.5781,-156.505,-19.6178,-176.072,-14.2766,2.13511,-2.37301,-6.80558,2.38482,-0.427104,0.732362,0.910123,1.23104,-11.9579,1.3152,0.32514,44.032,-5.96131,3.62916,18.9587,-3.63362,-0.0375673,5.08889e-14,4.37326e-14,-48.1097,-25.1806,-60.8208,6.09065,22.4539,-8.31065,20.7988,7.12502,17.6099,-8.42366,5.08889e-14,4.37326e-14,-46.6275,9.85184,73.7076,46.6315,-3.01475,3.84435,16.8227,7.12502,29.2671,44.5402,-10.1807,-5.79654,29.1319,30.3458,-1.85603,-27.5152,6.69925,-36.4625,-4.08194,-23.7403,28.4328,-44.3566,24.6503,22.647
-3.75608,17.2854,14.5744,-156.496,-19.4605,-176.124,-14.2333,2.13582,-2.47939,-6.85384,2.3905,-0.444437,0.65352,0.913426,1.27122,-11.8498,1.31939,0.418482,44.0583,-5.96053,3.51151,18.9354,-3.64355,-0.11134,-8.71671e-14,-7.95139e-16,-48.0377,-25.1206,-60.921,5.97396,22.4031,-8.71771,21.1173,7.12502,17.2182,-8.13993,-8.71671e-14,-7.95139e-16,-46.6129,9.88184,73.6342,46.6109,-3.42826,3.58952,16.5527,7.12502,29.0237,44.3124,-10.2843,-5.7193,29.0204,30.5257,-1.70016,-27.4952,6.37115,-36.4774,-3.84986,-23.8812,28.5054,-44.1383,24.7341,22.3552
-3.75161,17.2828,14.5695,-156.518,-19.378,-176.123,-14.2507,2.21536,-2.46272,-6.88397,2.4908,-0.553836,0.632994,0.959593,1.16208,-11.7699,1.29812,0.593861,44.1323,-6.11646,3.53372,18.966,-3.68501,-0.164763,1.33186e-14,2.3059e-14,-48.0916,-25.3207,-60.9644,5.92856,22.4317,-8.81503,21.1304,7.12502,17.1245,-8.13496,1.33186e-14,2.3059e-14,-46.4185,9.67268,73.53,46.4539,-3.62225,3.33651,16.2991,7.12502,28.7821,44.1001,-10.3854,-5.67198,29.0022,30.7586,-1.65667,-27.4979,5.9839,-36.4733,-3.56144,-23.9761,28.511,-43.7402,24.8272,22.0389
-3.74579,17.2807,14.5625,-156.561,-19.2856,-176.119,-14.285,2.23083,-2.48645,-6.82403,2.52452,-0.598883,0.714115,0.977806,1.13552,-11.8894,1.28806,0.667835,44.1589,-6.17325,3.55557,19.0197,-3.68747,-0.181601,-2.71838e-14,-3.18055e-15,-47.9713,-25.4051,-61.0905,6.03548,22.4955,-8.80106,21.0266,7.12502,17.1379,-8.23761,-2.71838e-14,-3.18055e-15,-46.1141,9.80861,73.4103,46.2704,-3.91894,3.1309,16.0821,7.12502,28.5856,43.9163,-10.4056,-5.63123,28.9862,30.9125,-1.82007,-27.5108,6.52924,-36.3971,-3.46577,-23.9681,28.6445,-44.3087,24.3098,22.6816
-3.73938,17.2635,14.5527,-156.607,-19.1849,-176.237,-14.446,1.9996,-2.76277,-6.57831,2.28687,-0.40441,1.04562,0.873409,1.4686,-12.3025,1.40385,0.42758,44.1632,-5.82253,3.48275,19.1248,-3.57294,-0.111452,-3.83654e-14,0,-47.1157,-25.0345,-61.4444,5.8981,22.4148,-8.90852,20.9442,7.12502,17.0345,-8.32894,-3.83654e-14,0,-45.8646,10.5895,73.3632,46.2921,-4.11195,2.93738,15.9961,7.12502,28.4007,43.8613,-10.3759,-5.69855,28.8442,31.1445,-2.18712,-27.4043,7.29067,-36.3631,-3.0318,-24.2703,28.6427,-43.9528,24.7316,21.7022
-3.73611,17.2722,14.5341,-156.648,-19.188,-176.231,-14.6711,2.08229,-2.74609,-6.52465,2.40569,-0.514886,1.22233,0.927856,1.36952,-12.0584,1.2841,0.55347,43.9573,-6.0153,3.52773,18.929,-3.62233,-0.137703,6.0033e-14,-5.56597e-15,-47.18,-25.3237,-61.4108,5.73393,22.2799,-8.82154,20.9595,7.12502,17.1182,-8.30634,6.0033e-14,-5.56597e-15,-45.6469,10.2422,73.3779,46.3598,-3.97246,2.55942,16.4414,7.12502,28.0395,44.3663,-10.3806,-5.85791,28.8662,31.2907,-2.07653,-27.3568,6.95584,-36.2281,-2.96431,-24.2233,28.7507,-43.8089,24.3332,22.0969
-3.72724,17.2666,14.528,-156.712,-19.1566,-176.239,-14.6284,1.95898,-2.86493,-6.49999,2.25821,-0.40125,1.22126,0.859623,1.53191,-12.0947,1.348,0.626165,43.9284,-5.78391,3.26013,18.8914,-3.54845,-0.234402,5.48149e-14,9.54166e-15,-46.948,-24.9997,-61.5305,5.75639,22.1842,-8.6344,20.8741,7.12502,17.2983,-8.37605,5.48149e-14,9.54166e-15,-45.6089,10.6766,73.2588,46.3489,-3.97332,2.14238,16.7022,7.12502,27.6407,44.6916,-10.4516,-5.88342,28.8876,31.4993,-2.02593,-27.4888,7.57428,-36.223,-2.70361,-24.32,28.7304,-42.8792,24.8145,21.0464
-3.71519,17.2703,14.526,-156.791,-18.997,-176.146,-14.4844,1.80341,-3.01049,-6.45744,2.07045,-0.156358,1.18198,0.776441,1.83799,-12.3823,1.51646,0.641307,44.0585,-5.39468,2.96321,19.024,-3.42191,-0.315013,-2.60905e-14,-3.4191e-14,-46.5814,-24.469,-61.7121,6.09567,22.0275,-8.30984,20.4685,7.12502,17.6107,-8.7539,-2.60905e-14,-3.4191e-14,-45.5972,11.4828,73.1091,46.3647,-4.15768,1.82337,16.9463,7.12502,27.3357,44.9842,-10.5058,-5.64514,28.9849,31.587,-2.2916,-27.7013,8.60254,-36.2257,-2.96281,-24.0541,28.8568,-43.4048,24.8924,21.2885
-3.70541,17.2687,14.5209,-156.848,-18.9147,-176.093,-14.4619,1.67307,-3.08806,-6.39595,1.91231,0.00617846,1.2338,0.703236,2.02838,-12.5596,1.64563,0.581874,44.1355,-5.15646,2.90517,19.1145,-3.34282,-0.292964,-4.53229e-14,5.64548e-14,-46.1531,-24.1524,-61.9476,6.13591,21.7833,-7.92555,19.9756,7.12502,17.9805,-9.21326,-4.53229e-14,5.64548e-14,-45.5965,12.0351,72.9439,46.4247,-4.26054,1.59383,16.88,7.12502,27.1161,44.9524,-10.5524,-5.50855,29.0566,31.7494,-2.96533,-27.7741,8.95447,-36.1565,-3.21221,-23.862,28.8683,-44.0947,24.6025,22.0668
-3.70063,17.2645,14.5183,-156.933,-19.0051,-176.084,-14.49,1.49395,-3.07317,-6.27037,1.68831,0.157939,1.38961,0.596138,2.14782,-12.714,1.7396,0.435773,44.1236,-4.93251,2.89764,19.1447,-3.2725,-0.228755,3.18552e-14,8.74653e-15,-45.6884,-23.8063,-62.1466,6.04589,21.5977,-7.67275,19.7098,7.12502,18.2237,-9.45656,3.18552e-14,8.74653e-15,-45.5984,12.4876,72.7736,46.6299,-4.16058,1.5655,16.2352,7.12502,27.089,44.3118,-10.5034,-5.70314,29.1074,31.8412,-3.09382,-27.8035,9.80684,-36.0999,-3.29,-23.8127,28.9794,-44.3645,24.3758,22.3266
-3.6931,17.2619,14.5213,-157.023,-19.0303,-176.268,-14.3699,1.38231,-3.24356,-6.20176,1.57263,0.179786,1.39786,0.546326,2.2476,-12.6024,1.73239,0.432724,43.9477,-4.81504,2.77031,18.9862,-3.23672,-0.258214,1.93318e-14,-7.43455e-14,-45.5362,-23.686,-62.2655,5.84352,21.6763,-8.00864,19.9211,7.12502,17.9005,-9.27514,1.93318e-14,-7.43455e-14,-45.5444,12.6704,72.6156,46.7922,-4.04815,1.63257,16.2582,7.12502,27.1531,44.3247,-10.4514,-5.93416,28.9502,31.978,-3.33807,-27.8929,11.9011,-35.9595,-3.47048,-23.9264,29.0204,-44.4219,24.4257,22.2044
-3.67995,17.2609,14.5213,-157.245,-19.1079,-176.285,-14.1249,1.45143,-3.22833,-6.245,1.65846,0.0922006,1.21993,0.592917,2.15395,-12.1642,1.61706,0.550013,43.7739,-5.03225,2.79416,18.7571,-3.31425,-0.297513,4.06018e-14,4.57205e-14,-45.9478,-23.913,-62.1698,5.76275,21.7191,-8.33373,20.1596,7.12502,17.5877,-9.0649,4.06018e-14,4.57205e-14,-45.6123,12.1523,72.5413,47.0399,-3.78818,1.48554,16.8307,7.12502,27.0125,44.9192,-10.3312,-6.05885,29.0198,32.1329,-3.80731,-28.0252,12.6929,-35.7481,-3.65466,-23.8178,29.0615,-44.4949,24.471,22.1937
-3.67134,17.2619,14.5213,-157.387,-19.1705,-176.203,-13.9934,1.58009,-3.00228,-6.2978,1.79588,-0.0207038,1.09928,0.657871,1.9247,-11.9883,1.52225,0.483808,43.8328,-5.35542,3.06583,18.7742,-3.43687,-0.218455,-2.83268e-15,2.54444e-14,-46.2923,-24.1791,-62.0535,5.70601,21.669,-8.48093,20.2494,7.12502,17.446,-8.98771,-2.83268e-15,2.54444e-14,-45.6972,11.517,72.5158,47.3663,-3.33332,1.31167,16.9974,7.12502,26.8461,45.1115,-10.3272,-6.29767,29.157,32.3066,-3.83211,-27.8904,12.0811,-35.6433,-3.56225,-23.7259,29.0801,-44.3601,24.3205,22.6395
-3.66562,17.266,14.5264,-157.313,-19.1008,-176.175,-14.0319,1.64571,-2.88948,-6.29417,1.86916,-0.0198191,1.12435,0.691649,1.87361,-12.1537,1.48476,0.270184,43.8807,-5.41535,3.20631,18.8659,-3.47131,-0.127473,-3.63776e-14,-1.55052e-14,-46.1891,-24.2297,-61.9876,5.58673,21.5559,-8.57575,20.4807,7.12502,17.3548,-8.76451,-3.63776e-14,-1.55052e-14,-45.5599,11.3893,72.5644,47.5025,-2.9959,1.09451,17.0033,7.12502,26.6383,45.1491,-10.5536,-6.44618,29.1782,32.4629,-4.12784,-27.7563,12.9903,-35.739,-3.51745,-23.701,29.1475,-44.6129,23.9913,23.0957
-3.65338,17.2678,14.5281,-157.279,-19.2168,-176.16,-14.1278,2.10283,-2.62659,-6.45944,2.43083,-0.516802,1.00771,0.953506,1.28816,-11.6234,1.12728,0.998303,43.7911,-6.27882,3.25618,18.681,-3.70812,-0.385383,7.65321e-15,1.90833e-14,-47.504,-25.3301,-61.404,5.85896,21.4997,-8.62415,20.9439,7.12502,17.3082,-8.30537,7.65321e-15,1.90833e-14,-45.1945,9.58738,72.6943,47.5434,-2.5185,0.725745,17.4945,7.12502,26.2853,45.6935,-10.7349,-6.75943,29.287,32.6504,-4.48095,-27.6193,14.3528,-35.8882,-3.5465,-23.6114,29.238,-44.3188,24.3185,22.5423
-3.63679,17.27,14.5299,-157.249,-19.2098,-176.052,-14.1129,1.99266,-2.68001,-6.4258,2.29184,-0.307189,1.02914,0.889788,1.51677,-12.0415,1.23119,1.00886,43.9731,-6.0113,2.98459,18.8867,-3.61769,-0.480311,2.48481e-15,-6.36111e-15,-47.2351,-24.9759,-61.4275,6.03844,21.493,-8.52813,21.1712,7.12502,17.4006,-8.06999,2.48481e-15,-6.36111e-15,-45.149,9.88914,72.7358,47.7014,-2.46538,0.436285,18.0285,7.12502,26.0082,46.2685,-10.9704,-6.81076,29.4819,32.8658,-4.74044,-27.5727,14.5145,-36.0589,-3.69703,-23.36,29.3595,-44.4442,24.3379,22.7728
-3.623,17.2728,14.538,-157.096,-19.0924,-175.832,-14.1511,2.39848,-2.23875,-6.81463,2.72038,-0.681264,0.663799,1.07246,0.934242,-11.2597,1.11902,1.51821,43.9334,-6.50417,3.13434,18.6591,-3.76014,-0.579857,-2.41026e-14,2.46493e-14,-48.4739,-25.5138,-61.0847,6.27106,21.402,-8.21484,20.7299,7.12502,17.7021,-8.48433,-2.41026e-14,2.46493e-14,-45.3604,8.78319,72.3592,47.6574,-2.38383,0.313317,17.7046,7.12502,25.8904,45.9619,-11.439,-6.82113,29.7284,33.0802,-4.6024,-27.4774,13.7433,-36.4217,-3.65607,-23.0757,29.4467,-44.6404,24.3278,22.9117
-3.61494,17.2775,14.5449,-157.05,-19.0643,-175.647,-14.2297,1.80763,-2.30028,-6.57071,1.96102,0.0845408,0.954818,0.712559,1.66522,-11.9656,1.57465,0.64372,44.0283,-5.34573,2.9265,18.883,-3.43884,-0.320507,-6.31141e-15,4.81059e-14,-46.5954,-24.0619,-61.8211,5.98927,21.1624,-8.08553,20.2713,7.12502,17.8265,-8.93162,-6.31141e-15,4.81059e-14,-45.5659,11.1187,72.0582,47.5977,-2.4866,0.420059,16.7322,7.12502,25.9927,44.9745,-11.7851,-7.06639,29.9054,33.2999,-3.86437,-27.3522,12.5325,-36.5842,-3.49768,-22.9055,29.4585,-44.6133,24.3105,22.9771
-3.60584,17.2765,14.5496,-157.186,-19.0227,-175.607,-14.2462,1.77829,-2.22563,-6.36684,1.9411,0.191136,1.17858,0.710279,1.73498,-12.1167,1.53608,0.514613,43.8965,-5.2834,2.91776,18.839,-3.4158,-0.284377,-3.42407e-14,1.47101e-14,-46.1602,-24.0487,-61.9147,5.91379,21.0379,-8.1638,20.102,7.12502,17.7512,-9.10773,-3.42407e-14,1.47101e-14,-45.2455,11.4394,71.9954,47.4809,-2.50202,0.662882,16.1529,7.12502,26.2251,44.3609,-11.7815,-7.27593,29.9197,33.4835,-3.69571,-27.2098,12.9289,-36.4487,-3.48007,-22.856,29.4169,-44.6632,24.2458,23.2271
-3.59105,17.2734,14.5488,-157.375,-18.921,-175.818,-14.067,1.82313,-2.45559,-6.32111,2.04135,0.112428,1.1197,0.769657,1.79256,-11.9487,1.4692,0.622147,43.835,-5.40983,2.89775,18.7535,-3.45558,-0.332191,2.61899e-14,5.56597e-14,-46.3823,-24.1727,-61.7791,5.81672,21.0455,-8.34816,20.3082,7.12502,17.5738,-8.91749,2.61899e-14,5.56597e-14,-45.1686,11.103,71.9351,47.5103,-2.36253,0.686261,16.295,7.12502,26.2475,44.4997,-11.5793,-7.43048,29.7045,33.5842,-3.74593,-27.1151,11.6371,-36.1423,-3.6343,-23.001,29.377,-44.7729,24.2824,23.4069
-3.57885,17.2728,14.5444,-157.636,-18.8403,-175.964,-13.8955,2.00136,-2.524,-6.32251,2.2949,-0.137369,1.02222,0.898655,1.60158,-11.6916,1.37064,1.10764,43.8687,-5.73913,2.82628,18.7009,-3.53128,-0.513457,-2.11209e-14,-2.3059e-14,-47.1269,-24.5423,-61.5236,6.04727,20.8697,-8.24988,20.6885,7.12502,17.6684,-8.52879,-2.11209e-14,-2.3059e-14,-45.116,10.1549,71.8928,47.7035,-1.87752,0.411483,16.9134,7.12502,25.9844,45.1569,-11.3082,-7.6495,29.5233,33.6428,-4.07901,-26.9303,8.36362,-35.7784,-3.62865,-23.1352,29.3568,-44.8781,24.3007,23.5983
-3.56432,17.2776,14.5452,-157.757,-18.7945,-176.005,-13.7794,2.3178,-2.37694,-6.49776,2.68006,-0.534353,0.786334,1.07877,1.15227,-11.1657,1.20369,1.74537,43.8936,-6.33131,2.90589,18.5813,-3.68743,-0.693939,1.94809e-14,-2.78299e-14,-48.3319,-25.1474,-61.1739,6.36637,20.8303,-8.22668,20.9541,7.12502,17.6907,-8.26116,1.94809e-14,-2.78299e-14,-45.1464,8.72026,71.8387,47.9646,-1.28751,0.000142499,17.828,7.12502,25.5905,46.1287,-11.1339,-7.769,29.4924,33.4686,-4.62604,-26.8204,6.28621,-35.7089,-3.31834,-23.258,29.4978,-44.6648,24.5026,22.9772
-3.54251,17.2768,14.5602,-157.644,-18.9214,-175.959,-13.7505,1.9716,-2.40648,-6.49453,2.21566,-0.190193,0.775139,0.852258,1.46218,-11.3806,1.45054,1.34214,43.9415,-5.78908,2.86364,18.662,-3.53876,-0.549038,-2.31087e-14,8.74653e-15,-47.5985,-24.3759,-61.5739,6.15741,20.9108,-8.28226,20.738,7.12502,17.6372,-8.48208,-2.31087e-14,8.74653e-15,-45.3866,9.64813,71.5997,48.2104,-0.868029,0.000778574,18.0005,7.12502,25.5911,46.3012,-11.3263,-7.88445,29.6728,33.3645,-5.91897,-26.7879,7.3675,-36.0082,-3.27382,-23.1388,29.6251,-44.5678,24.3921,22.8399
-3.56456,17.2588,14.5172,-158.893,-17.5832,-175.539,-13.6082,2.29663,-2.02374,-5.82171,2.69298,0.00847823,1.39702,1.11339,1.52888,-11.8034,1.55448,0.93521,43.9187,-5.45544,2.92504,18.7657,-3.43731,-0.38835,-1.73937e-15,1.19271e-15,-46.9477,-24.0665,-61.8086,6.01466,20.729,-8.16971,20.5273,7.12502,17.7455,-8.68303,-1.73937e-15,1.19271e-15,-45.2641,10.3649,71.421,48.345,-0.376788,0.49297,17.462,7.12502,26.0625,45.6941,-9.6736,-7.54903,29.2141,33.0398,-6.84216,-26.0039,6.78658,-34.5721,-2.40849,-23.1149,29.8308,-45.6837,24.5303,22.516
-3.50544,17.2718,14.5619,-157.832,-18.9571,-175.75,-13.91,1.7712,-2.28687,-6.14568,1.9766,0.205667,1.22758,0.745338,1.784,-12.0355,1.60514,0.843195,43.9933,-5.3316,2.89573,18.8746,-3.39581,-0.367745,-2.3059e-14,1.70955e-14,-46.6358,-24.0155,-61.8482,5.92785,20.4334,-8.16106,20.4515,7.12502,17.7539,-8.75799,-2.3059e-14,1.70955e-14,-45.0811,10.5427,71.3076,48.2689,0.121038,0.810523,16.8464,7.12502,26.3665,45.0333,-11.1542,-8.12527,29.905,32.8342,-8.23884,-26.6777,6.2013,-36.1165,-2.77389,-22.9424,29.8962,-44.7354,24.3956,22.346
-3.48599,17.2745,14.564,-157.892,-18.9139,-175.78,-13.8703,1.78681,-2.36938,-6.15973,2.00521,0.229028,1.18578,0.76178,1.85752,-11.8742,1.59135,0.929268,43.9973,-5.40584,2.8881,18.8326,-3.42319,-0.399668,3.45388e-14,-1.35174e-14,-46.7797,-23.9518,-61.7123,5.91782,20.2557,-8.23476,20.5042,7.12502,17.6829,-8.71176,3.45388e-14,-1.35174e-14,-45.0998,10.482,71.158,48.1408,0.328772,0.787442,16.5177,7.12502,26.3444,44.7079,-11.0899,-7.97363,29.8727,32.4404,-9.53752,-26.9211,5.98889,-36.0839,-2.93289,-22.8472,29.9932,-45.016,24.0734,22.9548
-3.4649,17.2704,14.5782,-157.887,-18.7923,-175.855,-13.6199,1.7713,-2.40508,-6.21829,1.9813,0.237175,0.989787,0.753553,1.87481,-12.0452,1.60121,0.770562,44.0218,-5.36815,2.96167,18.9025,-3.41941,-0.332634,-7.7526e-15,2.98177e-14,-46.8032,-23.7915,-61.7656,5.95955,20.223,-8.36042,20.4406,7.12502,17.562,-8.78617,-7.7526e-15,2.98177e-14,-45.0896,10.7609,70.8888,47.9675,0.228992,0.90078,16.4738,7.12502,26.4529,44.6477,-11.1879,-7.63094,29.7819,32.1948,-11.1673,-27.1564,6.42242,-36.1124,-3.19681,-22.77,29.9176,-45.1968,24.0263,23.5765
-3.44225,17.2738,14.5935,-157.791,-18.6249,-176.005,-13.4097,1.57827,-2.59582,-6.17155,1.74975,0.42628,0.923971,0.648974,2.14267,-12.6151,1.74616,0.35229,44.1905,-4.97853,2.91602,19.1646,-3.32183,-0.21851,8.07066e-14,2.06736e-14,-46.2465,-23.2853,-62.0475,5.93528,20.2444,-8.34557,20.3917,7.12502,17.5763,-8.83383,8.07066e-14,2.06736e-14,-45.0946,11.5207,70.7184,47.9339,0.158057,0.905059,16.7833,7.12502,26.457,44.9566,-11.2114,-7.14749,29.5899,31.5419,-12.3904,-27.4379,5.74899,-36.2958,-2.97941,-22.9526,30.0525,-45.1372,23.8471,23.8108
-3.41697,17.2754,14.6152,-157.769,-18.7055,-176.085,-13.3556,1.72635,-2.55285,-6.29528,1.92901,0.239182,0.763804,0.73305,1.94449,-11.97,1.61629,0.625046,44.0182,-5.31389,2.97265,18.88,-3.42712,-0.290238,-1.43622e-14,-3.18055e-15,-46.9093,-23.6654,-61.8124,5.99519,20.2409,-8.19085,20.0809,7.12502,17.7252,-9.1312,-1.43622e-14,-3.18055e-15,-45.2094,10.6434,70.6525,48.1606,0.50046,0.730413,17.5547,7.12502,26.2898,45.7531,-11.2091,-6.90029,29.5408,30.8656,-13.2929,-27.7964,5.12345,-36.4848,-2.6906,-23.083,30.0862,-44.3803,24.1601,23.4724
-3.43642,17.271,14.593,-158.963,-17.994,-175.591,-12.9795,2.17342,-1.75601,-5.97667,2.48095,0.114857,0.914621,1.01128,1.4346,-11.5511,1.55147,1.00495,43.9336,-5.53522,2.91734,18.7061,-3.4796,-0.418589,-4.52235e-15,4.05521e-14,-47.1842,-23.9273,-61.7812,5.64081,20.0941,-8.24712,20.0874,7.12502,17.671,-9.12958,-4.52235e-15,4.05521e-14,-45.3754,10.021,70.4551,48.3518,1.01084,0.510717,17.8828,7.12502,26.0795,46.1123,-9.64829,-6.58667,29.3971,29.9458,-13.4877,-27.5852,2.16798,-35.1361,-2.24058,-22.7694,30.2845,-45.6125,23.2649,24.7941
-3.42749,17.2588,14.5897,-159.236,-17.5227,-175.686,-12.9484,2.23899,-1.80659,-5.7947,2.59856,0.0957498,1.08266,1.07755,1.46126,-11.7028,1.63429,1.11085,44.0119,-5.42327,2.84676,18.7897,-3.42311,-0.456495,3.2054e-14,1.43125e-14,-46.9146,-23.8114,-61.927,5.26763,20.145,-8.62019,20.3705,7.12502,17.312,-8.87845,3.2054e-14,1.43125e-14,-45.3694,10.181,70.2829,48.3136,1.44857,0.28989,17.7093,7.12502,25.868,45.9698,-9.10594,-6.06546,29.0207,29.0798,-14.3645,-27.6176,1.24017,-34.9107,-1.82534,-23.0168,30.3722,-45.5549,23.6067,24.5184
-3.41547,17.2604,14.6,-159.166,-17.4111,-175.54,-13.1184,2.18465,-1.52792,-5.63117,2.50693,0.256538,1.35493,1.03101,1.4691,-12.185,1.72309,0.952861,44.0709,-5.14123,2.73549,18.9504,-3.32436,-0.435736,-7.03201e-14,-4.8901e-14,-46.3466,-23.5438,-62.1258,5.27038,20.2528,-8.68202,20.226,7.12502,17.2525,-9.02821,-7.03201e-14,-4.8901e-14,-45.2412,10.6578,70.2071,48.2968,1.78601,0.0742818,17.6303,7.12502,25.6615,45.9208,-9.09668,-5.7179,29.027,28.1214,-15.1835,-27.6409,2.09199,-35.1236,-1.55597,-22.9153,30.5333,-45.5777,23.2365,24.8226
-3.40149,17.2627,14.6172,-158.947,-17.2372,-175.737,-13.2918,2.67305,-1.27899,-5.90888,3.10163,-0.313701,1.18273,1.30388,0.81944,-11.1862,1.38545,1.44479,43.6902,-5.90072,2.96743,18.4564,-3.54979,-0.524658,2.98177e-14,9.14409e-15,-47.675,-24.4701,-61.6491,5.45963,20.301,-8.69879,20.332,7.12502,17.2364,-8.92354,2.98177e-14,9.14409e-15,-45.2323,9.13314,70.0366,48.2282,1.97025,0.0308491,17.4999,7.12502,25.6199,45.7964,-9.29302,-5.44855,28.6747,27.3057,-15.6869,-27.834,1.09022,-35.4019,-1.18994,-23.2512,30.552,-45.2328,23.3838,24.2799
-3.37999,17.2641,14.6346,-158.843,-17.098,-175.836,-13.1912,2.4781,-1.4059,-5.86004,2.85946,-0.126546,1.16852,1.1902,1.04864,-11.6047,1.49492,1.02931,43.7161,-5.56079,2.96778,18.5851,-3.46159,-0.394746,1.2424e-15,-1.86858e-14,-47.0522,-23.9795,-61.974,5.32069,20.355,-8.86797,20.6432,7.12502,17.0735,-8.62657,1.2424e-15,-1.86858e-14,-45.3427,9.94347,69.7741,48.1609,1.92261,0.005833,17.1653,7.12502,25.596,45.4653,-9.36831,-5.09855,28.4663,26.4239,-16.211,-28.1161,-0.753126,-35.6013,-0.817396,-23.4373,30.5808,-44.9322,23.3542,24.1225
-3.34733,17.2652,14.643,-159.046,-17.1209,-175.665,-12.6721,2.4237,-1.22126,-6.04513,2.74658,-0.0436099,0.704909,1.13265,0.992382,-11.7039,1.65444,0.876875,44.0596,-5.48189,3.10951,18.8435,-3.46387,-0.304628,2.67365e-14,3.61788e-14,-47.3497,-23.6251,-62.0393,5.5861,20.3259,-8.73624,20.2696,7.12502,17.2003,-8.98912,2.67365e-14,3.61788e-14,-45.7696,10.2978,69.2531,47.9713,1.77232,-0.084192,16.861,7.12502,25.5097,45.1734,-9.16696,-4.40512,28.6307,25.4928,-17.0269,-28.6075,-1.97226,-35.5442,-0.645546,-23.1753,30.5843,-44.4617,23.8491,23.2577
-3.3261,17.2661,14.6561,-159.03,-17.1409,-176.067,-12.8023,2.36427,-1.59427,-5.93206,2.72448,-0.0647497,0.875043,1.13105,1.18386,-11.5872,1.66216,0.963413,44.0703,-5.43259,2.95299,18.8046,-3.45356,-0.383536,-2.49972e-14,1.11319e-14,-47.1546,-23.739,-61.977,5.32173,20.25,-8.82858,20.0816,7.12502,17.1114,-9.18485,-2.49972e-14,1.11319e-14,-45.6204,10.5962,69.0981,47.5703,1.63249,-0.284179,17.1816,7.12502,25.3182,45.5211,-8.93678,-4.00271,28.1422,24.4366,-18.0636,-28.8054,-2.05121,-35.5258,-0.438045,-23.6301,30.6416,-43.619,24.4588,21.4708
-3.30047,17.263,14.6713,-158.949,-17.1172,-176.2,-12.9926,2.52379,-1.61625,-5.92273,2.94305,-0.25661,0.989241,1.23547,1.03338,-11.2196,1.4785,1.46829,43.904,-5.74935,2.72849,18.5814,-3.53085,-0.625708,-1.10325e-14,1.03368e-14,-47.4616,-24.2313,-61.8314,5.23192,20.3094,-8.95187,20.3168,7.12502,16.9928,-8.95991,-1.10325e-14,1.03368e-14,-45.3597,10.1094,69.0408,47.3497,1.80454,-0.464901,17.8743,7.12502,25.145,46.2383,-8.89002,-3.36736,27.9643,23.3936,-18.6309,-29.2196,-1.87403,-35.6751,-0.391499,-23.7045,30.6791,-43.6584,24.2702,21.7017
-3.29044,17.2622,14.6968,-158.937,-17.3357,-175.916,-13.0315,2.17012,-1.17299,-5.66999,2.44029,0.228502,1.28832,0.991009,1.22791,-11.916,1.63298,1.04958,43.8655,-5.08131,2.34429,18.7151,-3.33728,-0.61569,3.80921e-14,3.1408e-14,-46.2966,-23.3668,-62.2268,5.33024,20.3702,-8.83671,20.2887,7.12502,17.1036,-8.97843,3.80921e-14,3.1408e-14,-45.4564,11.3927,68.9946,47.386,1.95108,-0.618333,17.8615,7.12502,24.998,46.246,-8.95981,-3.24455,28.1601,22.4046,-18.7669,-29.2844,-1.86041,-35.9015,-0.265848,-23.4371,30.6603,-43.5858,23.9571,22.3964
-3.25071,17.2647,14.7055,-158.896,-16.9241,-176.053,-13.0317,2.4257,-1.3591,-5.76489,2.79505,0.00436109,1.18022,1.16491,1.14555,-11.7195,1.5124,1.21238,43.8207,-5.36855,2.4255,18.641,-3.42176,-0.654774,2.77553e-14,-9.93923e-15,-46.812,-23.7674,-62.0807,5.24636,20.3948,-9.04906,20.3712,7.12502,16.8992,-8.91357,2.77553e-14,-9.93923e-15,-45.594,10.815,68.7508,47.265,2.09863,-0.742058,17.377,7.12502,24.8794,45.778,-8.96607,-1.8704,27.877,21.4645,-20.1044,-29.8407,-0.612342,-35.9664,-0.213069,-23.4721,30.5773,-43.8653,24.2165,22.4561
-3.22956,17.2681,14.7235,-158.989,-16.9248,-176.128,-12.6495,2.61163,-0.983078,-5.9261,2.99271,-0.313509,0.83956,1.25352,0.612914,-11.6752,1.4882,1.37404,43.9291,-5.59513,2.59749,18.7124,-3.47416,-0.649888,6.98728e-14,-8.74653e-15,-47.3313,-24.1628,-62.0715,5.06895,20.4818,-9.12719,20.4013,7.12502,16.824,-8.88983,6.98728e-14,-8.74653e-15,-45.5937,10.5409,68.191,46.8281,1.94988,-0.80304,17.2027,7.12502,24.821,45.6118,-8.85766,-1.1874,27.6353,20.4461,-20.9712,-30.3179,-0.25963,-35.9557,0.108598,-23.6174,30.5604,-43.3549,24.5204,21.4941
-3.20468,17.2718,14.7481,-158.98,-16.9592,-176.153,-12.5768,2.53998,-0.916299,-5.90855,2.89083,-0.203964,0.81848,1.20449,0.673441,-11.6799,1.54069,1.25682,43.9186,-5.40766,2.48285,18.6968,-3.4321,-0.647506,-7.50909e-14,-1.74931e-14,-47.2789,-23.9008,-62.0595,5.30537,20.5962,-8.79454,20.194,7.12502,17.1442,-9.06957,-7.50909e-14,-1.74931e-14,-45.632,10.9484,68.0532,46.6626,2.12722,-0.965147,17.877,7.12502,24.6656,46.3073,-9.03892,-0.470594,27.4866,19.6845,-21.8675,-30.5711,1.35604,-36.0323,0.271328,-23.6467,30.3468,-42.5849,25.2409,20.4097
-3.18642,17.2836,14.7763,-159.036,-17.07,-175.997,-12.3564,2.47477,-0.482549,-5.97049,2.75026,-0.119147,0.65598,1.12713,0.490996,-11.506,1.60058,1.23371,43.901,-5.28184,2.38915,18.6289,-3.41144,-0.662546,-7.81721e-14,-9.54166e-15,-47.1168,-23.633,-62.212,5.27495,20.6926,-8.63323,20.1266,7.12502,17.2995,-9.12348,-7.81721e-14,-9.54166e-15,-45.9028,11.2157,67.8413,46.6177,2.28941,-1.04711,18.2869,7.12502,24.587,46.7279,-8.96343,0.0264739,27.5341,18.6079,-22.8878,-30.3943,3.71361,-35.9176,-0.309311,-23.1576,30.2026,-43.6365,24.27,22.7511
-3.16227,17.2789,14.8002,-158.973,-17.1132,-176.367,-12.1253,2.34828,-0.663266,-6.01292,2.60205,-0.135473,0.480861,1.05779,0.547807,-11.5235,1.60542,1.04917,43.9639,-5.25214,2.38742,18.676,-3.43792,-0.629143,-4.34344e-14,2.06736e-14,-46.8889,-23.4379,-62.2777,4.97727,20.6832,-8.99073,20.2951,7.12502,16.9554,-8.98479,-4.34344e-14,2.06736e-14,-46.1238,11.5201,67.6446,46.3673,2.26168,-1.14319,17.7656,7.12502,24.495,46.2192,-9.02907,0.484113,27.0819,17.8492,-23.51,-30.7498,4.37818,-36.041,-0.0249246,-23.6765,30.0605,-42.487,25.292,21.2505
-3.08021,17.2758,14.7617,-160.221,-17.8305,-177.126,-11.3981,1.69299,-2.22639,-5.31365,1.99459,0.237365,0.74977,0.830104,1.72815,-11.7087,1.62424,0.780885,43.8873,-5.00374,2.2455,18.6674,-3.38231,-0.599174,5.59082e-15,3.85642e-14,-46.2444,-23.2415,-62.3388,4.66211,20.678,-9.3843,20.3247,7.12502,16.5765,-8.98729,5.59082e-15,3.85642e-14,-46.1703,11.8899,67.8285,46.3214,2.45667,-1.39858,17.7827,7.12502,24.2501,46.2691,-7.2398,1.95455,26.8967,17.0503,-25.9373,-32.3854,6.859,-34.3447,0.799166,-24.2412,29.9866,-41.0416,24.3078,20.9219
-3.0862,17.2842,14.8333,-158.922,-16.8877,-176.533,-12.2585,2.35735,-0.986731,-5.92472,2.65428,-0.0211202,0.621982,1.09346,0.860143,-11.6187,1.60001,0.823858,43.9524,-5.13406,2.33079,18.6917,-3.42573,-0.592675,5.11374e-14,2.26615e-14,-46.5914,-23.4485,-62.2259,4.72727,20.6374,-9.42947,20.4927,7.12502,16.533,-8.82295,5.11374e-14,2.26615e-14,-46.3761,11.1381,67.8795,46.4919,3.08216,-1.64316,18.3455,7.12502,24.0156,46.8631,-9.36962,2.37787,26.7416,16.4342,-25.2041,-31.6065,6.30101,-36.1556,-0.0260966,-23.5757,29.8844,-42.418,25.3038,21.8423
-3.07086,17.2865,14.8668,-158.965,-16.923,-176.475,-12.1006,2.53976,-0.486012,-5.96983,2.84468,-0.176371,0.520705,1.17749,0.435759,-11.5419,1.53713,0.989464,43.9718,-5.26677,2.26542,18.6795,-3.46122,-0.676894,-5.25785e-14,-3.97569e-16,-46.9963,-23.7491,-62.0692,5.15555,20.5348,-9.06943,20.2858,7.12502,16.8796,-9.00061,-5.25785e-14,-3.97569e-16,-46.2567,10.7839,67.8228,46.2242,3.33259,-1.85151,18.9007,7.12502,23.8158,47.4444,-9.5182,2.64777,26.6595,15.7117,-25.3694,-31.6873,6.23817,-36.2555,-0.228499,-23.4258,29.8535,-42.5909,25.3598,22.2763
-3.04487,17.2916,14.8912,-159.042,-16.9489,-176.336,-12.0389,2.82893,0.0335219,-6.0227,3.17564,-0.427359,0.473421,1.32816,-0.077471,-11.2545,1.33748,1.35694,43.8604,-5.66713,2.22682,18.5286,-3.57009,-0.823283,2.57675e-14,-1.82882e-14,-47.609,-24.3599,-61.8566,5.55552,20.4087,-8.77659,19.8381,7.12502,17.1615,-9.42399,2.57675e-14,-1.82882e-14,-45.9326,10.4883,67.5406,45.5533,3.06793,-1.99841,18.8347,7.12502,23.6749,47.3968,-9.83007,2.96126,26.7092,15.4185,-25.7765,-31.5909,6.85973,-36.367,0.199367,-23.3494,29.8578,-42.1777,25.2706,22.0905
-3.00817,17.2947,14.901,-159.058,-16.8693,-176.488,-12.2348,2.07288,-0.725217,-5.44687,2.2924,0.527961,1.10435,0.933553,1.24566,-12.5922,1.71133,0.321124,43.9057,-4.3145,1.68106,18.8858,-3.20002,-0.664071,4.37202e-14,1.23246e-14,-44.9897,-22.8001,-62.5276,4.93658,20.352,-8.90818,20.1537,7.12502,17.0348,-9.11944,4.37202e-14,1.23246e-14,-46.0929,13.6094,67.4412,45.0897,2.56413,-2.08878,18.3036,7.12502,23.5882,46.8768,-10.0262,3.62936,26.4812,15.0165,-26.2766,-31.6771,7.79141,-36.3722,0.613817,-23.5422,29.774,-41.2067,25.8232,20.7527
-2.98197,17.2984,14.9276,-159.024,-16.9767,-176.656,-12.3004,2.13597,-0.627685,-5.54254,2.35629,0.395622,1.04838,0.957848,1.06227,-12.147,1.69252,0.484745,43.927,-4.46947,1.68135,18.776,-3.26161,-0.718997,5.77594e-14,-1.88845e-14,-45.4004,-22.962,-62.3701,4.97142,20.396,-8.93683,20.2197,7.12502,17.0072,-9.05574,5.77594e-14,-1.88845e-14,-46.3298,13.4703,67.1977,44.7908,2.54035,-1.86341,17.7521,7.12502,23.8044,46.2974,-10.418,3.85985,26.2304,14.7958,-26.4166,-31.6412,8.04743,-36.4349,0.748886,-23.7074,29.6769,-40.5438,25.9842,20.3781
-2.9563,17.3027,14.9599,-158.999,-16.9846,-176.779,-12.3333,2.06052,-0.57958,-5.54265,2.24737,0.446044,1.06843,0.90213,1.07467,-11.9315,1.80798,0.399645,43.9272,-4.28815,1.68465,18.7136,-3.21822,-0.666431,-6.4605e-16,-6.65929e-15,-45.4243,-22.6792,-62.3676,5.2377,20.3777,-8.85283,20.2867,7.12502,17.0881,-8.98177,-6.4605e-16,-6.65929e-15,-46.7078,13.4542,67.1956,44.9277,2.94854,-1.78047,17.8048,7.12502,23.8839,46.3397,-10.8095,4.08077,26.0113,14.6428,-26.5573,-31.3172,8.26465,-36.5225,0.646848,-23.7469,29.6103,-40.5097,26.0849,20.5985
-2.93168,17.3049,14.9919,-159.006,-16.8714,-176.874,-12.3975,1.99984,-0.526167,-5.35754,2.17676,0.564729,1.29533,0.873584,1.1639,-12.1187,1.81208,0.122074,43.8194,-4.08164,1.60706,18.6915,-3.17237,-0.61007,-4.35587e-14,-3.13086e-14,-44.8211,-22.5011,-62.466,5.1154,20.242,-9.11136,20.7036,7.12502,16.8392,-8.58623,-4.35587e-14,-3.13086e-14,-46.7958,13.5431,67.4631,45.1358,3.3303,-1.87967,18.4998,7.12502,23.7888,47.0471,-11.1319,4.24767,25.8217,14.4997,-26.6432,-30.8078,8.80049,-36.5986,0.500594,-23.7474,29.5805,-40.6693,26.2193,20.6847
-2.89373,17.3025,15.0264,-159.053,-16.7972,-176.817,-12.3665,2.05583,-0.32545,-5.19503,2.24636,0.60756,1.45335,0.913179,1.10677,-12.3358,1.72211,-0.0322125,43.6532,-4.03432,1.53908,18.6432,-3.15806,-0.597088,3.57812e-15,-5.26779e-15,-44.3798,-22.6847,-62.5473,5.10479,20.1367,-9.41681,20.5984,7.12502,16.5452,-8.71628,3.57812e-15,-5.26779e-15,-46.6006,13.6981,67.5563,44.9161,3.20005,-1.95396,18.6544,7.12502,23.7175,47.211,-11.3912,4.78222,25.8329,14.2642,-27.0801,-30.5977,10.4813,-36.7917,0.468214,-23.5623,29.6416,-40.6653,26.4134,20.6607
-2.85479,17.3044,15.0632,-159.099,-16.7632,-176.889,-11.5287,2.25422,-0.029466,-5.63305,2.46039,0.34633,0.565097,1.00531,0.661136,-12.0896,1.7395,0.15109,43.9213,-4.24347,1.60714,18.7518,-3.23904,-0.649929,6.64314e-14,3.97569e-15,-45.3343,-22.8845,-62.3307,5.48376,20.1969,-9.29244,20.2449,7.12502,16.6649,-9.05969,6.64314e-14,3.97569e-15,-47.0662,13.0369,67.285,44.7647,3.20766,-1.82226,18.2954,7.12502,23.8439,46.8356,-11.6842,5.34463,25.7243,14.1678,-27.4456,-30.749,12.0909,-36.8804,0.522997,-23.5454,29.6158,-40.7158,26.2693,21.2245
-2.81875,17.3081,15.098,-159.283,-16.954,-176.675,-11.4802,2.25516,0.270181,-5.57286,2.43523,0.492421,0.608864,0.991868,0.640896,-11.8662,1.75204,0.24309,43.9283,-4.18824,1.40288,18.6821,-3.23921,-0.750668,1.42566e-14,2.84262e-14,-45.2793,-22.903,-62.2296,5.68385,20.0456,-8.82902,20.0708,7.12502,17.111,-9.1957,1.42566e-14,2.84262e-14,-47.0273,13.2268,67.3092,44.4717,3.04863,-1.36809,18.0558,7.12502,24.2794,46.5384,-11.7891,5.59371,26.0317,13.9627,-27.2865,-31.1482,13.2071,-36.8616,0.405872,-23.137,29.5428,-40.9641,25.9366,22.2094
-2.7777,17.3072,15.1286,-159.355,-16.9815,-177.103,-11.0527,2.20533,0.00569477,-5.61508,2.41011,0.381564,0.326765,0.987894,0.656446,-11.8641,1.764,0.249322,44.058,-4.22257,1.39057,18.7649,-3.26396,-0.77159,-4.46085e-14,-2.87741e-14,-45.2884,-22.9527,-62.1839,5.64661,19.9217,-8.91387,20.333,7.12502,17.0293,-8.94061,-4.46085e-14,-2.87741e-14,-47.1683,13.1376,67.2767,44.3483,2.91019,-1.32258,18.261,7.12502,24.323,46.7378,-11.8969,5.88414,25.702,14.0194,-27.19,-32.0161,13.7346,-36.898,0.68231,-23.6455,29.4953,-39.3869,27.3716,19.2882
-2.7096,17.3031,15.116,-160.376,-17.7675,-178.077,-10.3263,1.69546,-1.26885,-5.02954,1.94319,0.481051,0.494923,0.817135,1.41149,-11.8061,1.71514,0.142134,43.8926,-4.15855,1.31713,18.6391,-3.25138,-0.763149,-1.23029e-14,-2.45748e-14,-45.0892,-23.021,-62.0487,5.70076,19.9847,-9.12568,20.5451,7.12502,16.8255,-8.74592,-1.23029e-14,-2.45748e-14,-47.1334,13.3822,67.4013,44.249,2.48996,-1.28501,18.5037,7.12502,24.359,46.9756,-10.4597,6.54738,25.3643,14.159,-28.9111,-33.7101,15.3078,-35.4714,1.38364,-24.5888,29.4416,-37.5783,26.9059,17.7007
-2.70206,17.3042,15.2011,-159.591,-16.9879,-177.43,-10.3972,2.50936,0.361296,-5.74436,2.80054,-0.0948496,-0.125389,1.17352,-0.0186827,-11.2009,1.56885,0.608223,43.8396,-4.72044,1.57542,18.4552,-3.39489,-0.817551,1.53437e-14,1.46107e-14,-46.4518,-23.667,-61.8305,6.28722,20.0801,-9.01827,20.3539,7.12502,16.9289,-8.92826,1.53437e-14,1.46107e-14,-47.2515,12.1924,67.0976,44.1184,2.54177,-1.04969,18.5907,7.12502,24.5846,47.0321,-12.1777,5.85216,25.6224,14.4453,-27.4342,-33.0126,13.7635,-36.8097,0.651733,-23.7812,29.4318,-39.4161,27.1125,19.9919
-2.66925,17.2995,15.2385,-159.66,-17.102,-177.583,-10.2842,2.50847,0.41099,-5.6614,2.80868,-0.060662,-0.0997148,1.18299,-0.0129368,-11.2485,1.55364,0.436022,43.8635,-4.70016,1.60563,18.4869,-3.40664,-0.769021,3.80797e-15,1.26228e-14,-46.4267,-23.7518,-61.6553,6.59206,19.9809,-8.75188,20.2363,7.12502,17.1853,-9.02373,3.80797e-15,1.26228e-14,-47.1701,12.0869,67.447,44.1217,2.64764,-1.17537,19.1315,7.12502,24.4641,47.5893,-12.2118,5.55912,25.6223,14.5469,-27.6263,-32.8378,14.678,-36.9037,0.603114,-23.8638,29.4967,-39.3632,26.92,20.4558
-2.62877,17.2978,15.276,-159.802,-17.1454,-177.64,-10.0899,2.40641,0.420775,-5.47466,2.69657,0.12672,-0.0202673,1.14072,0.160123,-11.5508,1.63737,0.195574,43.8923,-4.39741,1.49528,18.5803,-3.32093,-0.726464,7.03651e-14,1.89218e-14,-45.7474,-23.6013,-61.681,6.5277,19.9388,-8.87738,20.4144,7.12502,17.0645,-8.85618,7.03651e-14,1.89218e-14,-47.2004,12.382,67.7436,44.3165,2.70557,-1.15612,19.4476,7.12502,24.4826,47.9028,-12.2467,5.62479,25.6976,14.6735,-27.7245,-32.919,14.9458,-36.9948,0.624158,-23.824,29.6077,-39.2415,27.0315,20.4649
-2.58858,17.2962,15.3137,-159.977,-17.2818,-177.652,-9.74431,2.28841,0.554237,-5.40275,2.54607,0.251878,-0.133582,1.07138,0.188872,-11.6582,1.73409,-0.00332518,43.895,-4.16279,1.50164,18.6096,-3.25388,-0.645523,4.1313e-14,2.1593e-14,-45.2967,-23.4379,-61.7823,6.44332,19.9611,-9.05838,20.8924,7.12502,16.8902,-8.39306,4.1313e-14,2.1593e-14,-47.4147,12.7132,67.6914,44.2556,2.62578,-0.890846,19.0775,7.12502,24.7368,47.4981,-12.2174,5.78765,25.8388,14.7392,-28.1716,-33.0658,15.1013,-37.0121,0.897633,-23.834,29.5907,-38.6152,27.2397,19.7489
-2.53257,17.294,15.3439,-160.554,-17.8453,-178.158,-9.55888,1.81159,-0.145307,-4.69239,2.04663,0.580745,0.462907,0.873335,0.878108,-12.1002,1.77719,-0.335,43.6875,-3.74248,1.32617,18.5872,-3.11597,-0.581404,-2.86374e-14,-1.33186e-14,-44.1461,-23.3026,-61.9585,6.5581,20.0671,-9.00311,21.0853,7.12502,16.9434,-8.19567,-2.86374e-14,-1.33186e-14,-46.9419,13.8534,67.9143,43.9473,2.27911,-0.798876,18.7422,7.12502,24.825,47.1507,-11.49,5.93228,25.7212,14.7705,-29.094,-33.5698,15.9234,-36.371,1.30196,-24.3455,29.528,-37.3365,27.0345,19.1158
-2.4508,17.289,15.3975,-160.639,-18.2344,-178.264,-8.93468,1.67517,-0.397442,-4.68377,1.90226,0.682285,0.119901,0.814952,1.0932,-12.4554,1.75464,-0.405314,43.8104,-3.74505,1.31687,18.7649,-3.11652,-0.582308,-1.14798e-14,9.93923e-16,-44.1175,-23.4068,-61.8658,7.09032,20.0175,-8.56104,20.6586,7.12502,17.3689,-8.58536,-1.14798e-14,9.93923e-16,-46.8738,13.9416,68.0271,44.0139,2.18295,-0.849365,19.1694,7.12502,24.7766,47.5846,-11.6366,6.91595,25.9059,14.7769,-30.1675,-34.5045,17.3802,-36.5637,0.829102,-24.0422,29.4573,-37.3385,26.9891,20.0922
-2.40653,17.2871,15.4439,-160.864,-18.1934,-178.191,-8.26103,1.82986,-0.0661118,-4.80402,2.09066,0.605485,-0.3625,0.905725,0.822912,-12.2943,1.68962,-0.3106,43.7971,-3.87254,1.27748,18.7114,-3.16168,-0.639034,6.20705e-14,7.95139e-16,-44.6084,-23.5605,-61.6069,7.72187,20.0549,-8.02198,20.3949,7.12502,17.8877,-8.80245,6.20705e-14,7.95139e-16,-47.1238,13.4671,68.0695,44.245,2.14227,-0.525887,19.4193,7.12502,25.0866,47.7915,-11.6735,7.26907,26.0482,14.8297,-30.4728,-34.8656,17.6423,-36.5114,0.767808,-23.8237,29.3354,-37.564,26.8783,20.6099
-2.3705,17.2896,15.4917,-160.972,-18.3229,-178.274,-7.80808,1.93628,0.263545,-4.92121,2.21507,0.457732,-0.715362,0.959853,0.480031,-11.9383,1.67217,-0.279601,43.7451,-3.97041,1.37053,18.5848,-3.19552,-0.610864,1.79776e-14,2.77305e-14,-45.2307,-23.7496,-61.3173,8.38942,20.1794,-7.36394,20.3525,7.12502,18.5208,-8.78587,1.79776e-14,2.77305e-14,-47.4092,12.8973,68.1107,44.3672,2.21633,-0.341113,19.0716,7.12502,25.2636,47.4189,-11.8289,7.31496,26.0421,14.9797,-30.5004,-35.2111,17.6417,-36.506,0.703658,-23.8338,29.2016,-37.6848,27.0788,20.2414
-2.33077,17.2911,15.5419,-161.038,-18.3262,-178.477,-7.49131,1.97014,0.316208,-4.86859,2.27254,0.394636,-0.830898,0.992365,0.380509,-11.8643,1.67806,-0.284442,43.7145,-3.9485,1.37158,18.5445,-3.18496,-0.601574,1.75179e-14,3.38928e-14,-45.2694,-23.8672,-61.193,8.73056,20.258,-7.10519,20.6748,7.12502,18.7696,-8.43964,1.75179e-14,3.38928e-14,-47.4269,12.9874,68.1151,44.3122,2.19235,-0.365565,19.0057,7.12502,25.2402,47.3563,-11.9363,7.33328,25.919,15.113,-30.7715,-35.1405,17.9803,-36.5144,0.782542,-24.022,29.0458,-37.5718,27.4273,19.5505
-2.29102,17.2919,15.59,-161.155,-18.2574,-178.79,-7.14241,2.01511,0.224974,-4.7297,2.36179,0.334804,-0.881266,1.04791,0.366719,-11.8895,1.62825,-0.344882,43.6424,-3.95489,1.34902,18.5056,-3.18785,-0.596905,-4.87022e-15,-2.18663e-14,-45.1865,-24.033,-61.0321,8.96567,20.3334,-7.20519,21.0323,7.12502,18.6735,-8.09145,-4.87022e-15,-2.18663e-14,-47.3054,13.0499,68.3828,44.4849,2.44176,-0.479051,19.3723,7.12502,25.1314,47.7381,-11.8401,7.42967,25.6849,15.0893,-31.274,-35.027,18.2999,-36.456,0.903288,-24.3335,28.9611,-36.9031,27.4317,19.8566
-2.24614,17.2906,15.6421,-161.323,-18.2144,-178.905,-6.71726,2.15378,0.305052,-4.67035,2.56059,0.253694,-1.04826,1.15131,0.236851,-11.8304,1.57058,-0.342298,43.6378,-4.05036,1.37244,18.4893,-3.21826,-0.600596,2.06985e-14,-1.37161e-14,-45.4124,-24.3461,-60.7469,9.42685,20.4265,-6.80416,20.8594,7.12502,19.0592,-8.22677,2.06985e-14,-1.37161e-14,-47.3219,13.1872,68.2514,44.4601,1.62694,0.400217,18.0656,7.12502,25.9737,46.3107,-11.7552,7.81873,25.6417,14.9303,-31.6095,-35.3394,19.3027,-36.4903,1.00287,-24.3822,28.9763,-36.5632,27.2036,20.6405
-2.19678,17.284,15.6937,-161.596,-18.2888,-178.628,-6.35104,2.20744,0.705691,-4.45506,2.63904,0.394523,-1.01659,1.19446,0.152907,-12.1603,1.53556,-0.676903,43.5178,-3.96878,1.55731,18.5148,-3.18224,-0.431916,7.90169e-15,-7.95139e-15,-45.0729,-24.5428,-60.6632,9.8733,20.6227,-6.20716,20.5467,7.12502,19.6332,-8.48193,7.90169e-15,-7.95139e-15,-47.2547,13.1556,68.6586,44.9839,1.68225,0.266403,19.048,7.12502,25.8455,47.3119,-11.6206,8.34222,26.0344,14.6489,-32.0289,-35.5383,21.2149,-36.6487,1.23672,-24.043,29.0775,-36.4465,27.4606,20.3158
-2.14873,17.2828,15.7494,-161.823,-18.3735,-178.315,-5.82628,2.03553,1.06934,-4.23318,2.42099,0.776957,-1.08017,1.09182,0.316374,-12.9049,1.65914,-1.20587,43.5468,-3.42677,1.435,18.7269,-3.03107,-0.299171,-5.20816e-14,-5.96354e-15,-44.0892,-24.1487,-60.8474,10.093,20.7616,-6.07271,20.8434,7.12502,19.7625,-8.172,-5.20816e-14,-5.96354e-15,-47.4598,13.9906,68.8758,45.3621,1.76768,-0.0268241,19.4662,7.12502,25.5647,47.7706,-11.5373,8.82842,26.4499,14.3324,-32.6655,-35.7,22.3576,-36.9267,1.41749,-23.6718,29.2423,-35.9926,28.0698,18.9017
-2.11501,17.2845,15.7946,-162.235,-17.9503,-178.146,-5.2533,2.65842,1.79186,-4.40888,3.23694,0.295247,-1.51061,1.47484,-0.569931,-11.9295,1.38494,-0.674753,43.4289,-4.1788,1.55117,18.4004,-3.26078,-0.463225,1.10624e-13,8.94531e-15,-44.8937,-23.6651,-61.7808,10.6965,18.655,-6.32165,21.0621,7.12502,19.5231,-7.97766,1.10624e-13,8.94531e-15,-47.6466,12.8414,68.4907,45.1379,1.17387,0.548482,18.0522,7.12502,26.1156,46.2764,-11.1388,9.49232,26.5491,13.9194,-32.981,-35.8176,23.2665,-36.8424,1.75886,-23.4944,29.4479,-35.6991,28.2039,18.7076
-2.06428,17.281,15.8619,-162.096,-18.2875,-178.144,-4.87769,2.54644,2.07094,-4.29449,3.10131,0.391141,-1.59516,1.40764,-0.646377,-12.6947,1.41831,-0.789504,43.5214,-3.89602,1.34424,18.6559,-3.15144,-0.497826,2.53699e-14,-7.7526e-15,-43.8182,-22.3737,-63.23,11.2097,16.7387,-6.24602,20.955,7.12502,19.5958,-8.07743,2.53699e-14,-7.7526e-15,-47.5378,13.481,68.3525,45.0575,0.676638,1.05702,17.3064,7.12502,26.6024,45.4577,-11.4344,10.0809,26.5969,13.6587,-33.9067,-36.0812,25.0232,-37.4576,1.99348,-23.5141,29.6053,-34.5862,27.969,18.6979
-2.02576,17.2755,15.9156,-162.194,-18.4634,-178.127,-4.64781,2.7883,2.57398,-4.37776,3.41492,0.188715,-1.76055,1.54672,-1.13463,-11.9837,1.27818,-0.507706,43.279,-4.19133,1.33845,18.31,-3.23378,-0.58286,8.0309e-14,1.35174e-14,-44.1108,-22.0749,-63.7025,11.6447,15.6158,-5.85778,20.7288,7.12502,19.9691,-8.26518,8.0309e-14,1.35174e-14,-47.7064,11.9298,69.1353,45.7269,2.27069,-0.299584,18.9287,7.12502,25.3034,47.2703,-11.482,10.3847,26.715,13.6445,-34.3538,-36.2641,25.6658,-37.6806,2.27979,-23.539,29.6794,-33.8757,27.866,18.5172
-1.98591,17.2765,15.9763,-162.248,-18.5198,-178.179,-4.26498,2.36653,2.43385,-3.98985,2.89173,0.760683,-1.62906,1.31143,-0.496076,-13.046,1.55515,-1.3188,43.366,-3.22771,1.06591,18.6351,-2.97161,-0.400077,-3.59303e-14,-3.18055e-15,-41.9555,-20.0237,-64.9596,11.6111,14.2868,-5.50008,20.2803,7.12502,20.3129,-8.6774,-3.59303e-14,-3.18055e-15,-47.9413,13.7927,69.2368,45.8716,1.80319,-0.291734,18.0104,7.12502,25.3109,46.351,-11.6372,10.9837,26.6801,13.6543,-34.8044,-36.7743,26.0359,-37.9028,2.50873,-23.6042,29.7567,-33.7714,27.4056,19.4005
-1.9374,17.2751,16.0432,-162.102,-18.7732,-178.163,-4.02056,2.50857,2.79097,-4.08838,3.07948,0.682991,-1.84003,1.39115,-0.781256,-12.774,1.42596,-1.29012,43.2341,-3.3952,1.02402,18.4791,-3.03316,-0.444603,2.48481e-16,1.15295e-14,-41.9491,-19.9172,-65.2077,11.9741,13.5066,-5.35058,20.148,7.12502,20.4565,-8.79436,2.48481e-16,1.15295e-14,-48.0374,13.4224,69.4042,46.2873,1.6342,-0.105232,18.3072,7.12502,25.4896,46.6224,-12.1247,11.7373,26.6853,13.7291,-35.6814,-37.1967,27.1237,-38.4804,2.76148,-23.6459,29.8028,-32.9678,27.3845,19.4189
-1.90411,17.2745,16.09,-162.456,-18.5154,-178.007,-3.53172,2.68106,3.27444,-3.9052,3.33263,0.673071,-1.88879,1.51453,-1.07118,-12.7412,1.45674,-1.10449,42.9368,-3.12197,0.712006,18.2676,-2.90325,-0.555582,-5.2181e-14,1.31198e-14,-41.6514,-19.6338,-65.5937,12.4757,12.7824,-5.34635,20.0268,7.12502,20.4606,-8.91513,-5.2181e-14,1.31198e-14,-48.1014,13.3059,69.707,46.9714,1.79853,-0.147551,19.8022,7.12502,25.449,48.1231,-12.0594,12.4114,26.8286,13.9181,-36.1739,-37.179,27.8886,-38.3834,3.30662,-23.56,29.8404,-32.5349,27.2926,19.6015
-1.8561,17.2724,16.1548,-162.343,-18.7096,-178.135,-3.41321,2.80358,3.58269,-3.68224,3.50779,0.499943,-1.68954,1.60724,-1.41501,-13.0006,1.36454,-0.76727,42.5922,-3.06482,0.473724,18.1158,-2.80122,-0.696639,1.12015e-13,7.15625e-15,-41.2726,-20.1207,-65.7907,12.8959,12.2841,-4.89898,19.6202,7.12502,20.8905,-9.27499,1.12015e-13,7.15625e-15,-47.6965,13.1573,69.6933,46.7981,1.42493,0.22405,17.995,7.12502,25.805,46.2648,-12.5011,13.0062,26.7418,14.1757,-37.0674,-37.3928,28.9285,-38.8122,3.60982,-23.7363,29.8598,-31.3024,27.3675,18.938
-1.80956,17.2747,16.2146,-162.303,-18.7734,-178.273,-3.57057,2.45218,3.37902,-2.82391,3.05512,0.937802,-0.773902,1.43007,-0.837418,-14.766,1.50957,-1.36022,42.4011,-2.11281,0.0941525,18.4644,-2.46445,-0.588317,2.29596e-14,5.56597e-15,-38.7056,-19.3329,-66.6115,12.7418,11.795,-4.74676,19.5008,7.12502,21.0367,-9.37824,2.29596e-14,5.56597e-15,-46.9252,15.1165,69.9362,46.8069,1.29308,0.173552,17.6948,7.12502,25.7566,45.9716,-12.8343,13.5722,26.6278,14.3896,-37.6236,-37.742,29.4034,-39.1407,4.01384,-23.94,29.9147,-30.3507,27.2503,18.576
-1.76595,17.278,16.2776,-162.355,-18.7327,-178.249,-2.68241,2.71443,3.8488,-3.17198,3.44153,0.728353,-1.57449,1.59363,-1.35264,-14.268,1.41209,-1.18919,42.4355,-2.41354,0.127145,18.352,-2.57116,-0.658194,3.67752e-14,-2.78299e-15,-39.1313,-18.8212,-66.9858,12.9937,10.6596,-5.28305,19.7769,7.12502,20.5214,-9.15851,3.67752e-14,-2.78299e-15,-47.3206,14.4527,69.844,46.8609,1.15182,0.18744,17.8252,7.12502,25.7699,46.1,-13.2996,14.0207,26.6293,14.8281,-37.9114,-38.018,29.5171,-39.3978,4.47453,-24.0002,29.9173,-29.6965,27.0818,18.604
-1.72503,17.2797,16.3431,-162.335,-18.8292,-178.233,-2.63478,2.65781,4.01057,-2.75318,3.37011,0.940712,-1.17723,1.57591,-1.21742,-14.7523,1.34716,-1.3936,42.0543,-2.11526,-0.124409,18.2452,-2.46069,-0.663231,3.88624e-14,-1.43125e-14,-37.8923,-17.8366,-67.694,13.1804,9.53904,-5.80654,20.1232,7.12502,20.0183,-8.86563,3.88624e-14,-1.43125e-14,-46.9126,15.1674,70.1327,46.9683,0.870077,0.48841,17.5457,7.12502,26.0581,45.7784,-13.8051,14.1303,26.6307,15.2165,-38.3384,-37.9747,29.8605,-39.7384,4.82415,-24.0431,29.9738,-29.4901,26.4558,19.314
-1.68363,17.2831,16.4062,-162.232,-18.8801,-178.409,-2.27974,2.74537,4.30539,-2.78554,3.50756,0.769459,-1.37514,1.63627,-1.57174,-14.3828,1.28815,-1.1902,41.7199,-2.1439,-0.268787,17.9409,-2.44312,-0.750697,-2.73329e-14,-1.11319e-14,-37.8823,-17.5725,-68.0114,13.5701,8.81636,-5.85102,20.2751,7.12502,19.9756,-8.71816,-2.73329e-14,-1.11319e-14,-47.1338,14.8936,70.0513,47.1593,0.559158,0.857907,17.1829,7.12502,26.4118,45.363,-14.2605,14.186,26.4251,15.4575,-38.6996,-37.8847,30.3973,-40.2674,5.42088,-24.4524,30.1272,-27.9624,26.6283,17.8225
-1.64054,17.2846,16.4671,-162.235,-18.9474,-178.336,-2.10241,2.69328,4.41839,-2.50733,3.44478,1.04172,-1.20174,1.61468,-1.35785,-14.689,1.35142,-1.3434,41.5035,-1.72284,-0.586448,17.8881,-2.30761,-0.780254,1.90833e-14,-8.74653e-15,-36.9209,-16.8181,-68.3037,13.915,8.05217,-5.62825,20.0163,7.12502,20.1897,-8.95449,1.90833e-14,-8.74653e-15,-47.089,15.5434,70.2904,47.3304,0.0848749,1.2314,16.9189,7.12502,26.7693,45.0448,-14.6501,14.2136,26.5161,15.6414,-38.9282,-37.6723,31.0189,-40.7621,6.0131,-24.533,30.3335,-26.4392,26.5345,16.5766
-1.60472,17.2857,16.532,-162.096,-19.4114,-177.95,-1.64544,2.75105,5.40829,-2.76598,3.53903,1.01786,-1.66171,1.62352,-1.95902,-14.6538,1.32943,-1.3958,41.5427,-1.776,-0.501847,17.9036,-2.32467,-0.741635,2.60408e-14,-4.77083e-15,-37.0187,-16.4246,-68.559,14.4277,7.25255,-5.51238,19.7453,7.12502,20.301,-9.21371,2.60408e-14,-4.77083e-15,-47.3638,14.9527,70.4603,47.7772,0.660507,0.927574,17.9429,7.12502,26.4785,46.113,-15.307,13.7682,27.0046,15.8334,-38.6132,-37.4655,31.2481,-41.609,6.39978,-24.2694,30.6042,-24.6158,26.3465,14.6794
-1.57303,17.2883,16.5953,-161.827,-19.8999,-177.805,-1.60153,2.77951,6.13854,-2.80589,3.57172,1.00235,-1.68332,1.62124,-2.38189,-14.7787,1.2076,-1.51267,41.4502,-1.89155,-0.442269,17.8852,-2.36212,-0.708472,-4.37326e-15,-7.15625e-15,-36.7375,-16.1993,-68.7425,14.8505,6.35711,-5.45539,19.625,7.12502,20.3558,-9.32815,-4.37326e-15,-7.15625e-15,-47.3826,15.0011,70.3589,47.3642,0.887807,0.634191,16.5025,7.12502,26.1977,44.7146,-16.0023,13.2088,27.2231,15.9598,-38.2836,-37.3174,31.2853,-42.5457,6.22472,-23.958,30.9216,-23.6805,26.1505,13.8959
-1.53024,17.2893,16.6557,-161.579,-19.9905,-177.817,-1.48566,2.96597,6.50223,-2.82604,3.82865,0.88789,-1.71801,1.74013,-2.70379,-14.682,1.01371,-1.50397,41.2765,-2.1569,-0.417023,17.7604,-2.44617,-0.735968,3.97569e-14,1.74931e-14,-36.5424,-16.0761,-68.9379,15.1545,5.39769,-5.3646,19.2743,7.12502,20.4431,-9.66954,3.97569e-14,1.74931e-14,-47.3461,14.5968,70.5238,47.352,0.651917,0.590905,16.4024,7.12502,26.1562,44.6206,-16.6659,13.2704,27.1612,16.1081,-38.2458,-37.4608,31.0513,-43.2942,6.52929,-24.0314,31.2219,-22.7678,25.8108,13.3704
-1.48322,17.2945,16.7083,-161.294,-20.3022,-178.062,-1.29638,2.5753,6.33027,-2.62918,3.31914,1.21929,-1.69608,1.49713,-2.2783,-15.5802,1.24092,-2.19368,41.3054,-1.37401,-0.535302,18.0135,-2.22751,-0.525725,-5.06901e-14,-2.94201e-14,-35.2094,-14.5889,-69.3707,15.0766,4.83571,-5.276,19.1996,7.12502,20.5282,-9.73508,-5.06901e-14,-2.94201e-14,-47.5705,15.9892,70.4749,47.288,0.351274,0.435012,16.4798,7.12502,26.007,44.7201,-17.2951,13.4375,26.9318,16.3641,-38.6904,-37.8086,30.8704,-43.8659,6.66905,-24.2279,31.4221,-21.8422,25.4035,11.5314
-1.43688,17.3004,16.762,-161.017,-20.5636,-178.174,-1.14145,2.7912,6.62186,-2.75664,3.62576,0.961322,-1.85646,1.63594,-2.71323,-15.5242,1.02519,-2.06436,41.3023,-1.82648,-0.353158,18.0036,-2.35331,-0.547265,6.4605e-14,-3.4191e-14,-35.4451,-15.0168,-69.284,15.159,4.71045,-5.63897,19.9504,7.12502,20.1794,-9.02145,6.4605e-14,-3.4191e-14,-47.4497,15.4662,70.3169,46.8775,0.025855,0.656882,15.9427,7.12502,26.2194,44.1516,-18.0291,13.4594,26.8177,16.7057,-38.8658,-38.0077,30.5438,-44.6158,7.00852,-24.4145,31.5775,-19.323,25.8791,5.72236
-1.39258,17.3054,16.8112,-160.74,-20.7751,-178.222,-0.930545,2.86146,6.90303,-2.94361,3.74202,0.814342,-2.1323,1.67193,-3.03588,-15.3856,0.974701,-1.94886,41.3488,-2.02802,-0.230101,17.9972,-2.40274,-0.549364,1.78906e-14,-6.83819e-14,-35.5506,-15.4092,-69.0683,15.0475,5.12548,-6.11633,20.9383,7.12502,19.7205,-8.08133,1.78906e-14,-6.83819e-14,-47.6799,15.4982,69.9381,46.6469,-0.410754,1.00201,15.9036,7.12502,26.5498,44.0629,-18.7421,13.3171,26.7796,17.0205,-38.9564,-37.845,30.823,-45.3648,7.33764,-24.4974,31.7268,-16.9214,25.8179,2.82985
-1.34506,17.3113,16.8582,-160.369,-20.9617,-178.44,-1.13719,2.83716,6.6455,-2.86413,3.68891,0.907354,-1.95948,1.6595,-2.78461,-15.2586,0.913436,-1.81836,41.0977,-2.00249,-0.476649,17.8104,-2.38831,-0.667755,2.88238e-14,9.54166e-15,-35.0007,-15.1222,-68.9988,14.9093,5.567,-6.81485,21.8383,7.12502,19.0489,-7.24888,2.88238e-14,9.54166e-15,-47.7352,15.7961,70.0513,46.553,-0.469659,0.817114,16.0443,7.12502,26.3728,44.2303,-19.4996,13.4751,26.5194,17.3816,-39.6448,-37.6476,31.6988,-45.9997,7.59864,-24.7038,31.8139,-15.7069,25.4579,1.25805
-1.28627,17.3122,16.8986,-159.896,-21.0208,-178.53,-1.1155,2.94889,6.41787,-3.08833,3.84044,0.916032,-2.20355,1.72338,-2.65644,-15.1226,0.842351,-1.76446,41.2042,-2.19983,-0.438725,17.8384,-2.46345,-0.700527,-4.27387e-14,3.18055e-15,-34.9948,-15.2863,-68.7333,14.7071,6.57432,-7.88587,22.7746,7.12502,18.0187,-6.41076,-4.27387e-14,3.18055e-15,-48.0077,15.3737,70.2615,46.5922,-0.295643,0.632659,16.3375,7.12502,26.1962,44.5498,-20.4597,14.4898,26.1849,17.6944,-41.0349,-37.7091,33.2879,-46.7844,7.88572,-24.6778,31.9622,-15.4688,25.1989,-1.07065
-1.25257,17.3216,16.9423,-159.204,-21.2921,-178.972,-1.07541,2.94214,6.2929,-3.42655,3.83702,0.779394,-2.57564,1.69984,-2.74031,-15.0943,0.813773,-1.99426,41.4004,-2.3538,-0.141197,17.9562,-2.53384,-0.559379,1.15295e-14,1.27222e-14,-35.1686,-14.7944,-68.7519,14.7747,6.78631,-8.42231,23.0264,7.12502,17.5025,-6.20571,1.15295e-14,1.27222e-14,-48.4159,15.0748,70.2854,46.4943,-0.22382,0.639111,16.4234,7.12502,26.2024,44.6348,-21.4547,14.0888,25.6664,17.9914,-41.2822,-37.316,33.6071,-47.5871,8.01286,-25.1066,32.1134,-14.617,24.3681,-2.9358
-1.22004,17.3297,16.988,-158.744,-21.8072,-179.036,-1.22,2.81444,6.57135,-3.54101,3.65183,0.809365,-2.61677,1.59225,-2.85952,-15.1591,0.826958,-2.0514,41.3437,-2.28955,-0.119808,17.9401,-2.50533,-0.523994,-2.16675e-14,-5.08889e-14,-34.9678,-13.8724,-69.0888,15.3484,5.8558,-7.41835,21.8718,7.12502,18.4684,-7.27145,-2.16675e-14,-5.08889e-14,-48.6417,15.2536,70.1791,46.3508,-0.0904765,0.757527,16.5265,7.12502,26.3158,44.721,-22.2463,13.0875,25.8325,18.2642,-40.6112,-37.1788,32.7287,-48.3353,8.13187,-25.1044,32.2829,-12.9956,23.3618,-5.56935
-1.18149,17.3353,17.0297,-158.395,-22.3236,-179.204,-1.34728,2.62743,6.62157,-3.58179,3.38997,0.873337,-2.61393,1.45813,-2.81698,-15.083,0.86783,-2.02526,41.2105,-2.1786,-0.174813,17.8386,-2.45643,-0.52575,4.8901e-14,-3.97569e-15,-34.5421,-13.1005,-69.4307,16.5558,3.74347,-4.99568,18.6275,7.12502,20.7976,-10.2779,4.8901e-14,-3.97569e-15,-48.8461,15.6858,69.9204,45.9885,-0.341259,0.885295,16.2742,7.12502,26.4381,44.4504,-22.8861,12.3006,25.9358,18.5932,-40.3714,-37.0531,32.2487,-48.8156,8.11357,-25.0379,32.3726,-11.1806,22.1425,-8.38575
-1.13646,17.3414,17.0595,-157.981,-22.5268,-179.646,-1.09051,2.60085,6.36234,-3.86421,3.3795,0.718683,-3.05757,1.43565,-2.85245,-14.8479,0.849143,-1.79262,41.2292,-2.26884,-0.30736,17.7831,-2.4839,-0.644637,-3.39922e-14,2.62396e-14,-34.7616,-13.1602,-69.299,16.5613,4.13725,-6.05082,19.6836,7.12502,19.7835,-9.32964,-3.39922e-14,2.62396e-14,-49.2392,15.5952,69.5708,45.5304,-0.632797,0.958783,16.0933,7.12502,26.5084,44.2588,-23.5231,12.1913,25.5654,18.931,-40.6534,-37.0473,32.6011,-49.1002,8.07295,-25.1156,32.3938,-9.60302,20.5625,-8.66931
-1.09609,17.3477,17.0846,-157.584,-22.6308,-180.058,-1.15977,2.65346,6.06324,-3.9168,3.44404,0.581286,-3.07418,1.47453,-2.82658,-15.2639,0.774057,-2.43407,41.659,-2.54322,0.413068,18.1759,-2.60657,-0.268518,-8.80616e-14,-2.38542e-15,-34.4999,-13.1365,-69.2525,16.6123,3.9021,-4.82958,17.8751,7.12502,20.9571,-11.0127,-8.80616e-14,-2.38542e-15,-49.2187,15.4828,69.5469,45.0827,-0.86562,0.777089,16.3171,7.12502,26.3345,44.5088,-24.1799,12.1374,25.1809,19.3327,-40.9648,-37.0053,32.9042,-49.28,8.07608,-25.1312,32.3666,-8.78161,19.0294,-9.18246
-1.05471,17.3533,17.1116,-157.165,-22.8411,-180.477,-1.42624,2.69226,5.72069,-3.91309,3.47426,0.468269,-2.9282,1.50403,-2.73983,-14.643,0.587995,-1.41378,40.9473,-2.6604,-0.488501,17.5609,-2.58501,-0.849904,-3.598e-14,-7.15625e-15,-34.1721,-13.4137,-69.032,16.3931,3.83623,-5.20901,18.4437,7.12502,20.5926,-10.484,-3.598e-14,-7.15625e-15,-49.1362,15.2621,69.6024,44.6998,-1.07271,0.716842,16.6673,7.12502,26.2768,44.8676,-24.8757,12.0987,24.8101,19.773,-41.3227,-37.0746,33.0842,-49.4992,8.24274,-25.2961,32.2832,-7.29342,17.627,-15.8579
-1.01289,17.3538,17.1391,-156.836,-23.1666,-180.674,-1.55655,2.80097,5.7327,-4.08066,3.60599,0.299899,-3.00636,1.55826,-2.9178,-14.4283,0.451238,-1.63155,41.0966,-3.08864,0.0163909,17.6105,-2.73617,-0.66276,-8.94531e-15,-4.77083e-15,-34.4958,-14.046,-68.6427,16.4641,3.90153,-5.31856,18.5166,7.12502,20.4873,-10.4225,-8.94531e-15,-4.77083e-15,-49.2753,14.4968,69.5693,44.4327,-1.00728,1.05714,16.8121,7.12502,26.6025,44.9635,-25.5342,12.2421,24.6465,20.173,-41.851,-37.2648,33.4307,-49.6592,7.88444,-24.8667,32.2669,-6.52369,16.6789,-15.2052
-0.970299,17.359,17.1676,-156.595,-23.338,-181.02,-1.30978,2.44852,5.28308,-4.05465,3.1568,0.544928,-3.19371,1.34783,-2.42635,-14.6977,0.642446,-1.9465,40.9104,-2.49189,-0.196461,17.5656,-2.55448,-0.587524,1.18873e-13,-8.74653e-15,-33.7998,-12.9653,-68.8268,16.5287,3.60492,-5.72066,18.6222,7.12502,20.1009,-10.358,1.18873e-13,-8.74653e-15,-49.7452,15.3851,69.2925,44.2384,-0.953846,1.42877,16.6452,7.12502,26.9582,44.742,-26.0151,12.5588,24.2765,20.4947,-42.5082,-37.4903,34.0681,-49.6248,7.60879,-24.5794,32.3313,-6.50806,16.2937,-21.3323
-0.927285,17.3602,17.1922,-156.433,-23.5372,-181.284,-1.26935,2.45656,5.08202,-4.03315,3.17176,0.495236,-3.19979,1.36319,-2.36734,-14.773,0.547257,-2.30072,40.9724,-2.69569,0.208793,17.638,-2.63333,-0.37845,-1.05356e-14,-1.19271e-14,-33.6686,-13.1376,-68.6774,16.4186,3.39653,-7.04221,19.7683,7.12502,18.8302,-9.3403,-1.05356e-14,-1.19271e-14,-49.7213,15.1669,69.311,43.9352,-1.02265,1.58379,17.0486,7.12502,27.1065,45.1225,-26.3956,12.9841,23.9954,20.76,-43.2411,-37.7385,34.7758,-49.5333,7.45881,-24.2825,32.5265,-6.72634,15.9427,-19.7215
-0.892556,17.3636,17.2109,-156.214,-23.7741,-181.432,-1.56734,2.43736,4.96123,-3.89552,3.12668,0.562222,-2.90155,1.35701,-2.21445,-15.1024,0.51115,-2.50043,41.0764,-2.72714,0.369403,17.793,-2.64442,-0.280426,1.63003e-14,6.36111e-15,-33.1844,-13.2323,-68.47,16.2802,2.93456,-8.03745,20.6673,7.12502,17.8728,-8.53142,1.63003e-14,6.36111e-15,-49.454,15.5192,69.3006,43.32,-1.4221,1.54418,17.3812,7.12502,27.0686,45.4609,-26.8219,13.0583,23.8893,20.9906,-43.4877,-37.9177,35.1669,-49.4641,7.24407,-23.8626,32.8047,-7.50174,15.6769,-13.858
-0.859765,17.3658,17.23,-155.983,-23.9136,-181.607,-1.77357,2.33164,4.75911,-3.83163,2.97242,0.644955,-2.7438,1.2922,-2.00672,-15.2297,0.572956,-2.17253,40.9535,-2.49722,-0.0615521,17.7371,-2.54524,-0.48968,-4.47266e-14,7.95139e-15,-32.858,-12.9998,-68.4082,16.4806,2.64391,-8.0979,20.6711,7.12502,17.8146,-8.53295,-4.47266e-14,7.95139e-15,-49.5255,16.2429,68.9822,42.7463,-1.94869,1.49618,17.2774,7.12502,27.0227,45.3643,-27.2414,13.0847,23.7338,21.1923,-43.7311,-37.9736,35.4893,-49.3315,7.04131,-23.4526,33.1784,-9.01977,16.2229,-10.4526
-0.827382,17.3681,17.2502,-155.997,-23.962,-181.784,-1.56622,2.28579,4.70785,-3.85025,2.92736,0.555053,-2.88069,1.26845,-2.07992,-15.4172,0.585068,-2.36281,41.2079,-2.59215,0.233085,17.9461,-2.58353,-0.35057,-5.56597e-14,-2.38542e-15,-32.7967,-12.6193,-68.603,16.5004,2.13838,-8.57052,20.8048,7.12502,17.3598,-8.4399,-5.56597e-14,-2.38542e-15,-49.8073,16.4296,68.4727,42.3008,-2.28534,1.6739,17.2906,7.12502,27.1927,45.351,-27.3706,12.9742,23.6847,21.3923,-43.683,-38.0473,35.4133,-48.9276,6.91039,-23.0442,33.6395,-10.6487,17.7805,-13.6529
-0.798042,17.3686,17.2691,-156.11,-24.0583,-181.809,-1.25776,2.32505,4.92345,-3.97592,3.00006,0.385597,-3.16153,1.28669,-2.3905,-14.99,0.565224,-2.12307,41.1714,-2.79007,0.298919,17.8124,-2.63027,-0.395628,6.81831e-14,-3.81667e-14,-32.9701,-13.0394,-68.4607,16.141,2.31925,-9.26083,21.3455,7.12502,16.6953,-7.95656,6.81831e-14,-3.81667e-14,-50.123,15.9105,68.0682,41.8912,-2.2202,1.95428,17.2401,7.12502,27.4609,45.2583,-27.4711,12.8821,23.7932,21.6532,-43.752,-38.0524,35.7312,-48.4584,6.95893,-22.606,34.1328,-12.1055,19.5549,-17.0628
-0.763584,17.3593,17.2869,-156.183,-24.1487,-181.762,-0.930628,2.36124,4.99669,-4.17079,3.06825,0.340322,-3.53813,1.30147,-2.49725,-14.5819,0.577045,-1.78379,41.1822,-2.86374,0.0960777,17.7017,-2.65258,-0.560799,-2.72335e-14,3.65764e-14,-33.3165,-13.5054,-68.1223,16.1644,2.33631,-9.17671,21.0987,7.12502,16.7763,-8.1965,-2.72335e-14,3.65764e-14,-50.4603,15.5067,67.8449,41.5119,-2.14809,2.10587,17.3705,7.12502,27.6058,45.3655,-27.7164,13.1648,23.8554,21.9678,-44.2005,-38.1343,36.224,-48.0512,7.14711,-22.1909,34.6534,-13.605,21.0301,-16.3753
-0.72827,17.3492,17.2924,-156.218,-24.2775,-181.958,-0.814176,2.3682,4.80944,-4.17617,3.08484,0.281006,-3.61373,1.31469,-2.45988,-14.5195,0.517643,-1.88127,41.173,-2.97485,0.213002,17.686,-2.69662,-0.508666,-5.78463e-14,-1.66979e-14,-33.486,-13.5782,-68.0508,16.525,1.52519,-8.58664,20.3928,7.12502,17.3443,-8.85333,-5.78463e-14,-1.66979e-14,-50.4991,15.3041,67.7394,41.1193,-2.28949,2.06346,17.7146,7.12502,27.5653,45.7161,-27.8718,13.5879,23.6883,22.3292,-45.074,-38.1897,36.9581,-47.4319,7.24096,-21.9477,35.1711,-15.4319,21.8804,-13.0407
-0.701722,17.3431,17.2952,-156.298,-24.446,-182.171,-0.925627,2.31086,4.71751,-3.95557,3.00599,0.244745,-3.32945,1.29469,-2.43521,-14.915,0.479315,-2.22204,41.3224,-3.03223,0.510069,17.893,-2.72358,-0.330894,-2.54444e-14,0,-33.1224,-13.8189,-67.9576,16.2887,1.54656,-8.64416,20.6352,7.12502,17.2889,-8.61574,-2.54444e-14,0,-50.3357,15.327,67.7159,40.8325,-2.37367,2.01798,17.7322,7.12502,27.5218,45.7406,-27.9376,13.6352,23.6303,22.7486,-45.5153,-38.2381,37.4094,-46.6317,7.31074,-21.7201,35.678,-17.3072,22.036,-8.30913
-0.680683,17.336,17.2966,-156.398,-24.4556,-182.301,-1.01912,2.20513,4.60835,-3.7392,2.86359,0.299915,-3.07009,1.24248,-2.30745,-15.4365,0.563049,-2.41113,41.5772,-2.85071,0.542495,18.1842,-2.67308,-0.262547,1.07145e-13,2.8625e-14,-32.6722,-13.6703,-67.9589,15.9935,1.82866,-9.20264,21.2213,7.12502,16.7514,-8.07599,1.07145e-13,2.8625e-14,-50.2859,15.6353,67.7086,40.5637,-2.37058,1.76302,17.7235,7.12502,27.2779,45.7705,-28.0513,13.6648,23.6099,23.2099,-45.5754,-38.4412,37.0804,-45.7966,7.58722,-21.554,36.1571,-19.2595,22.9144,-5.17594
-0.653486,17.3267,17.2926,-156.476,-24.3385,-182.485,-1.28576,2.13892,4.07133,-3.49777,2.76215,0.49784,-2.709,1.22492,-1.78833,-15.2955,0.550069,-2.4259,41.2497,-2.66727,0.275411,17.9416,-2.62159,-0.333535,5.56597e-15,1.90833e-14,-32.336,-13.1485,-67.9187,16.1251,1.35423,-9.21834,21.0762,7.12502,16.7362,-8.22242,5.56597e-15,1.90833e-14,-50.2242,16.1943,67.7553,40.1477,-2.49574,1.49923,18.0572,7.12502,27.0256,46.1436,-28.203,14.0939,23.4355,23.6968,-46.1338,-38.638,37.1602,-44.9404,8.16253,-21.5739,36.6153,-21.0367,24.1952,-3.73279
-0.624672,17.3142,17.2905,-156.482,-24.3728,-182.637,-1.31739,2.12282,3.82756,-3.55478,2.73764,0.483857,-2.76131,1.21652,-1.66687,-14.9041,0.52112,-2.34345,41.0744,-2.72351,0.217309,17.7333,-2.64386,-0.375206,4.8901e-14,-7.95139e-15,-32.5668,-12.8743,-67.9393,16.3589,0.668336,-8.86019,20.573,7.12502,17.081,-8.69608,4.8901e-14,-7.95139e-15,-50.4645,16.3281,67.3284,39.6973,-2.71951,1.71487,18.1573,7.12502,27.2319,46.2116,-28.4684,14.5322,23.2792,24.2122,-46.9366,-38.619,38.0367,-44.1582,8.76248,-21.5765,37.0549,-22.351,24.7348,-1.80038
-0.601159,17.3006,17.2916,-156.407,-24.4661,-182.812,-1.35557,2.10221,3.74295,-3.70582,2.70398,0.356128,-2.89558,1.19341,-1.75246,-14.8248,0.588608,-2.23726,41.4087,-2.81242,0.30207,17.9097,-2.68033,-0.386881,2.04748e-14,-3.26007e-14,-32.8696,-13.2123,-67.7694,16.291,0.695012,-8.44418,20.4821,7.12502,17.4814,-8.75188,2.04748e-14,-3.26007e-14,-50.7013,16.6214,66.5043,38.8652,-3.23919,2.14838,17.5263,7.12502,27.6465,45.5148,-28.8446,14.8564,23.0824,24.7602,-47.6663,-38.5331,38.8462,-43.3983,9.2944,-21.6289,37.4636,-23.7542,25.4864,-0.501964
-0.57854,17.2873,17.293,-156.258,-24.4652,-183.028,-1.59248,2.16131,3.58035,-3.78805,2.76616,0.198919,-2.84323,1.22508,-1.81611,-14.5524,0.587181,-1.90138,41.4404,-2.92569,0.178503,17.8496,-2.70227,-0.524574,-6.63941e-14,-7.15625e-15,-33.2098,-13.8982,-67.4358,16.2876,1.00294,-7.89958,20.4384,7.12502,18.0055,-8.74814,-6.63941e-14,-7.15625e-15,-50.728,16.6424,66.0171,38.1633,-3.48671,2.32721,16.9169,7.12502,27.8175,44.8779,-29.2538,14.5256,23.0055,25.2796,-47.4955,-38.306,38.8235,-42.6486,9.81674,-21.7326,37.8648,-25.6939,26.4398,2.008
-0.562842,17.2818,17.2895,-156.043,-24.5224,-183.224,-1.90615,2.266,3.55779,-3.86442,2.88477,0.0217359,-2.73125,1.28123,-1.97455,-14.2716,0.467541,-1.60254,41.2594,-3.14509,0.0683412,17.6651,-2.75518,-0.657637,3.91606e-14,-1.59028e-14,-33.6416,-14.9888,-66.8135,16.173,1.7803,-7.44351,20.5194,7.12502,18.4442,-8.62617,3.91606e-14,-1.59028e-14,-50.692,16.1872,65.9552,37.9136,-3.32041,2.34889,16.8618,7.12502,27.8382,44.8194,-29.6858,13.9427,22.9621,25.7586,-47.2032,-37.9847,38.5903,-41.9506,10.4033,-21.9051,38.2571,-26.7463,27.2506,4.94021
-0.546549,17.2768,17.2775,-155.909,-24.7214,-183.317,-2.23912,2.25322,3.55775,-3.93823,2.84602,-0.0330002,-2.6201,1.25891,-2.01877,-14.2495,0.447154,-1.59522,41.4554,-3.27809,0.133753,17.7773,-2.81368,-0.663298,7.81224e-14,2.14687e-14,-33.941,-15.5699,-66.4482,15.864,2.48281,-7.83445,21.2811,7.12502,18.0681,-7.89963,7.81224e-14,2.14687e-14,-50.827,16.0056,65.7596,37.7061,-3.20319,2.34707,17.2899,7.12502,27.8365,45.2479,-30.026,13.8793,22.9325,26.1997,-47.6731,-37.727,38.9773,-41.1865,11.0516,-21.9407,38.6329,-27.6033,27.4804,8.47836
-0.528678,17.2643,17.2614,-155.758,-24.907,-183.524,-2.75999,2.17206,3.34027,-3.96646,2.70992,-0.064568,-2.37277,1.19739,-1.91096,-14.0873,0.527074,-1.64978,41.6626,-3.28678,0.265605,17.8607,-2.8313,-0.603166,3.37934e-14,3.97569e-15,-34.2779,-15.631,-66.4023,15.7963,2.90717,-8.342,21.6913,7.12502,17.5797,-7.53392,3.37934e-14,3.97569e-15,-51.0085,16.0996,65.4624,37.4619,-3.04961,2.06249,17.7126,7.12502,27.5644,45.7143,-30.2549,13.6109,22.9287,26.5941,-47.86,-37.4913,39.2826,-40.2931,11.5451,-21.9742,38.9555,-28.5075,28.296,9.38127
-0.515121,17.2504,17.2454,-155.726,-25.0003,-183.823,-3.0323,2.0918,3.06166,-3.95586,2.593,-0.12148,-2.22456,1.14758,-1.80508,-14.0513,0.586082,-1.89586,41.8483,-3.30983,0.56009,17.9743,-2.85651,-0.43587,6.34123e-14,1.11319e-14,-34.5648,-15.7029,-66.2995,15.7889,3.30348,-8.36569,21.5255,7.12502,17.5569,-7.70179,6.34123e-14,1.11319e-14,-51.1512,16.2601,65.1579,37.1848,-2.93013,2.03539,17.8231,7.12502,27.5384,45.8289,-30.2436,13.2198,22.8809,26.8983,-47.8802,-37.1219,39.3561,-39.1501,12.0808,-22.1055,39.2411,-29.1669,29.2359,9.62361
-0.500871,17.2411,17.2291,-155.841,-25.0549,-184.089,-2.98449,1.97146,2.74283,-3.89676,2.44275,-0.0680909,-2.21277,1.08433,-1.57522,-14.3852,0.59945,-2.25489,42.0619,-3.28149,0.759275,18.2041,-2.87944,-0.287078,4.17448e-14,1.98785e-14,-34.4555,-15.5488,-66.1941,15.5877,3.34292,-8.46037,21.294,7.12502,17.4658,-7.94136,4.17448e-14,1.98785e-14,-51.2803,16.6049,64.9697,36.8357,-2.78493,1.87174,17.7435,7.12502,27.3819,45.7741,-30.0672,13.1994,22.7815,27.1453,-48.1264,-37.0515,39.2733,-37.8172,12.755,-22.2069,39.482,-30.0739,29.0809,11.863
-0.488332,17.2364,17.2175,-155.878,-25.3429,-184.099,-3.23459,1.73747,2.66777,-3.88278,2.12123,0.151615,-2.08387,0.92835,-1.30449,-14.2918,0.673377,-2.285,41.9725,-3.01697,0.466366,18.1107,-2.82201,-0.365114,2.40529e-14,-1.59028e-15,-34.2628,-15.1662,-66.1237,15.3576,3.57283,-8.82568,21.3807,7.12502,17.1142,-7.88551,2.40529e-14,-1.59028e-15,-51.6591,17.1547,64.7304,36.6172,-2.59004,1.7988,17.7372,7.12502,27.3122,45.7788,-30.039,13.0176,22.9748,27.3245,-48.5086,-36.8228,39.5534,-36.7588,13.3898,-22.0381,39.7296,-29.9874,29.6249,11.5516
-0.478461,17.2318,17.2058,-155.803,-25.7055,-184.018,-3.80263,1.57431,2.73089,-3.95172,1.8713,0.313218,-1.85108,0.800024,-1.16397,-13.7655,0.746431,-2.1783,41.8319,-2.88202,0.240455,17.8746,-2.79929,-0.453965,-5.30755e-14,-1.27222e-14,-34.5167,-15.4744,-65.784,15.2272,4.38692,-9.01598,21.5408,7.12502,16.9311,-7.74126,-5.30755e-14,-1.27222e-14,-52.0207,17.4298,64.5103,36.487,-2.43621,1.543,18.0636,7.12502,27.0674,46.1435,-30.1601,12.6975,23.2555,27.447,-48.7818,-36.5934,39.706,-35.8391,13.8066,-21.7389,39.9671,-29.8432,30.5155,10.9401
-0.46709,17.2236,17.1877,-155.65,-25.9548,-183.925,-4.37998,1.53854,2.80794,-4.09005,1.78512,0.365899,-1.67437,0.748465,-1.14227,-13.4567,0.764503,-2.09234,41.954,-2.97799,0.236561,17.8647,-2.85066,-0.493024,1.80894e-14,1.66979e-14,-34.9131,-16.4443,-65.13,14.92,5.40778,-8.81981,21.4882,7.12502,17.1199,-7.77755,1.80894e-14,1.66979e-14,-52.2271,17.6558,64.1491,36.1832,-2.50489,1.55588,18.307,7.12502,27.0798,46.3851,-30.3797,12.6118,23.442,27.5271,-49.1532,-36.4068,40.2424,-34.9116,14.148,-21.4034,40.1836,-31.3749,29.9239,14.538
-0.457061,17.2182,17.1703,-155.387,-26.1149,-184.001,-4.75499,1.53182,2.81141,-4.30746,1.74537,0.331971,-1.69022,0.716539,-1.17375,-13.2211,0.71903,-1.98621,42.0024,-3.09371,0.12118,17.8281,-2.91329,-0.587876,5.60573e-14,2.14687e-14,-35.2842,-16.7256,-64.7737,14.8132,5.50476,-8.37381,21.112,7.12502,17.5491,-8.11594,5.60573e-14,2.14687e-14,-52.4779,18.0403,63.5154,35.6617,-2.8969,1.87716,18.0619,7.12502,27.3871,46.0917,-30.6428,12.3967,23.4758,27.6029,-49.4498,-36.1359,40.55,-33.9282,14.3171,-21.2113,40.321,-32.7407,29.494,17.1865
-0.448382,17.2147,17.1584,-155.194,-26.2769,-184.148,-4.92959,1.56076,2.85111,-4.60841,1.7571,0.177098,-1.89778,0.703037,-1.35394,-12.8345,0.706929,-1.76687,42.13,-3.27855,0.0949066,17.7993,-2.98594,-0.676408,-1.19271e-14,-1.51076e-14,-36.0535,-16.905,-64.5645,14.8007,5.617,-8.54881,20.961,7.12502,17.3807,-8.2819,-1.19271e-14,-1.51076e-14,-52.7918,17.8357,63.018,35.2965,-2.7803,1.91701,17.7303,7.12502,27.4252,45.7541,-30.7904,12.3257,23.4072,27.6534,-49.8673,-35.9804,40.7282,-32.8473,14.4721,-21.1024,40.378,-32.4948,30.3392,16.4572
-0.441341,17.2114,17.1464,-155.186,-26.6594,-184.068,-5.26821,1.52465,3.12264,-4.7495,1.67266,0.142101,-1.85106,0.644719,-1.53843,-12.6275,0.766973,-1.60099,42.3637,-3.34918,0.093283,17.8813,-3.01641,-0.730426,-2.0276e-14,7.15625e-15,-36.6879,-17.3477,-64.2325,14.5337,6.09488,-8.79103,21.2141,7.12502,17.1476,-8.04922,-2.0276e-14,7.15625e-15,-52.9402,17.57,62.817,35.1445,-2.37426,1.79262,17.7867,7.12502,27.3062,45.8292,-30.808,12.0838,23.6564,27.6807,-49.8031,-36.0929,40.3541,-31.7086,14.6943,-20.7502,40.3487,-32.2896,31.282,16.4121
-0.434966,17.2063,17.1338,-155.091,-27.0435,-184.014,-5.8576,1.35029,3.16045,-4.67679,1.4079,0.375092,-1.46593,0.5179,-1.31828,-12.8506,0.80362,-1.93921,42.4599,-3.19653,0.116557,18.0027,-3.00665,-0.639559,-6.06293e-14,-1.82882e-14,-36.7051,-17.9126,-63.6076,14.0931,7.08674,-9.02043,21.5904,7.12502,16.9268,-7.69203,-6.06293e-14,-1.82882e-14,-52.9713,17.9865,62.9008,35.0433,-2.06395,1.68627,18.1118,7.12502,27.2045,46.1704,-30.8822,11.8078,23.8757,27.6685,-49.5489,-36.2365,39.9611,-30.6214,14.8233,-20.4188,40.2662,-32.9062,31.9157,17.4666
-0.425266,17.2065,17.1181,-154.855,-27.1708,-184.216,-6.07584,1.28246,3.03154,-4.82715,1.30162,0.381551,-1.50781,0.458877,-1.24181,-13.0676,0.803228,-2.36232,42.6755,-3.18837,0.310033,18.2045,-3.05671,-0.486459,1.31198e-14,-2.8625e-14,-37.1589,-18.3101,-63.1095,13.9982,7.7844,-9.25205,21.5792,7.12502,16.7038,-7.72213,1.31198e-14,-2.8625e-14,-53.1028,18.2422,62.6758,34.7642,-2.09366,1.78928,18.003,7.12502,27.3031,46.0461,-30.9894,11.8173,23.7245,27.6188,-49.5505,-36.4106,39.8192,-29.471,14.9617,-20.3611,40.1364,-33.2992,31.8651,18.2713
-0.416646,17.2077,17.1039,-154.518,-27.3566,-184.397,-6.52879,1.21699,2.89834,-4.9755,1.18538,0.394783,-1.41787,0.394867,-1.15312,-13.2123,0.859866,-2.46162,42.9411,-3.1168,0.268636,18.4061,-3.06692,-0.491118,-9.93923e-15,0,-37.5105,-18.6995,-62.6629,13.8602,8.35408,-9.27046,21.4322,7.12502,16.6861,-7.87062,-9.93923e-15,0,-53.1934,18.606,62.3698,34.4547,-2.24698,2.1423,17.6444,7.12502,27.6407,45.6339,-31.1956,11.7232,23.594,27.5293,-49.8252,-36.2122,40.2226,-28.4782,15.0146,-20.3368,39.948,-33.0137,31.671,18.5828
-0.417924,17.2098,17.0928,-154.047,-27.8248,-184.334,-7.5393,1.06225,3.09623,-4.98081,0.906045,0.58636,-0.876606,0.249846,-1.07003,-13.4432,0.941067,-2.43708,42.9967,-2.8598,0.0103188,18.4916,-2.99113,-0.57538,-4.37326e-15,-5.56597e-15,-37.3832,-19.114,-62.1848,13.5142,9.06546,-9.31076,21.6109,7.12502,16.6473,-7.69523,-4.37326e-15,-5.56597e-15,-53.1333,19.1683,62.3412,34.271,-2.26938,2.28428,17.2707,7.12502,27.7764,45.2383,-31.6551,11.3473,23.7461,27.4391,-49.5177,-36.4645,39.7295,-27.8113,14.8142,-20.1285,39.6873,-32.3645,32.0858,18.7718
