JuanDHNZ/ProyectoFinalCD/preprocessing/sports_trials_csv/05_18.csv
root1,root2,root3,root4,root5,root6,lowerback1,lowerback2,lowerback3,upperback1,upperback2,upperback3,thorax1,thorax2,thorax3,lowerneck1,lowerneck2,lowerneck3,upperneck1,upperneck2,upperneck3,head1,head2,head3,rclavicle1,rclavicle2,rhumerus1,rhumerus2,rhumerus3,rradius1,rwrist1,rhand1,rhand2,rfingers1,rthumb1,rthumb2,lclavicle1,lclavicle2,lhumerus1,lhumerus2,lhumerus3,lradius1,lwrist1,lhand1,lhand2,lfingers1,lthumb1,lthumb2,rfemur1,rfemur2,rfemur3,rtibia1,rfoot1,rfoot2,rtoes1,lfemur1,lfemur2,lfemur3,ltibia1,lfoot1,lfoot2,ltoes1
-0.44592,16.5664,-0.621031,-162.774,-6.5957,176.959,-4.28854,-2.0956,-4.02039,-0.710335,-2.6433,0.0703373,1.85607,-1.35964,2.16645,-14.0904,2.43363,-0.653263,40.4448,-2.16997,1.56678,17.1622,-2.38195,-0.0646895,-2.08693e-14,-1.39149e-14,-42.8,4.81639,-88.9311,16.9745,-5.54739,-8.75279,16.787,7.12502,17.1844,-12.4732,-2.08693e-14,-1.39149e-14,-42.96,8.65501,77.5715,20.2641,-3.25876,-18.0282,21.7398,7.12502,8.24311,51.559,-60.777,2.46199,21.5966,43.6815,-33.7449,-33.545,55.7363,-22.9365,-4.21245,-31.7961,31.7306,-34.1933,21.8731,-12.1451
-0.44375,16.5561,-0.670491,-162.69,-6.92458,176.769,-4.33803,-2.2116,-4.01649,-0.816842,-2.80192,0.00489084,1.78124,-1.4378,2.08722,-13.923,2.46394,-0.524741,40.465,-2.14706,1.44426,17.1274,-2.38155,-0.140402,1.56232e-14,-1.83876e-15,-43.0583,5.57004,-89.5686,17.4245,-6.63294,-8.18364,16.3521,7.12502,17.7321,-12.8594,1.56232e-14,-1.83876e-15,-42.8301,7.1487,78.5259,19.6147,-3.59679,-17.2491,21.6866,7.12502,8.99495,51.4748,-60.5117,2.30111,21.6825,43.7829,-35.1817,-32.6886,56.7441,-22.7765,-4.28071,-31.9173,31.6974,-34.0608,21.9124,-13.037
-0.438183,16.5414,-0.726327,-162.492,-7.21309,176.749,-4.6368,-2.28641,-3.93577,-0.895505,-2.89768,-0.00651607,1.86898,-1.48739,2.01373,-13.8748,2.46026,-0.418903,40.5156,-2.19686,1.39797,17.1436,-2.3993,-0.191703,3.40854e-14,-7.47927e-15,-43.2013,6.21285,-90.1343,17.7007,-7.42263,-7.72696,16.013,7.12502,18.1715,-13.1582,3.40854e-14,-7.47927e-15,-42.7922,5.46664,79.562,19.2499,-3.98795,-16.1531,21.8334,7.12502,10.0525,51.5733,-60.308,2.53641,21.6744,43.7747,-36.2524,-32.2254,56.0332,-22.8157,-4.33358,-31.8422,31.7498,-33.9113,22.0093,-13.9011
-0.436958,16.5267,-0.793815,-162.387,-7.04269,176.715,-4.99205,-2.23469,-3.91342,-0.961549,-2.81989,-0.0648932,1.99021,-1.45189,1.93383,-13.7143,2.45792,-0.424448,40.4948,-2.22719,1.41825,17.0916,-2.41882,-0.186868,-1.01753e-14,-6.53505e-15,-43.3832,6.89674,-90.7356,17.8865,-8.09092,-7.62349,15.517,7.12502,18.2711,-13.6449,-1.01753e-14,-6.53505e-15,-43.0247,3.74456,80.6794,19.1746,-4.50393,-15.3624,21.5308,7.12502,10.8152,51.2323,-60.0652,2.91118,21.7188,43.7893,-35.78,-32.9647,55.3946,-22.6842,-4.1872,-31.9041,31.7702,-34.287,22.0215,-14.1414
-0.4339,16.5129,-0.853455,-162.025,-7.0047,176.564,-5.43424,-2.28469,-3.98728,-1.15105,-2.87776,-0.0929594,2.0472,-1.48453,1.9284,-13.5098,2.48752,-0.620364,40.4629,-2.17542,1.49963,17.0215,-2.42945,-0.105611,1.38155e-14,7.60351e-15,-43.6702,7.53803,-91.1979,18.3136,-8.69032,-7.36608,15.0852,7.12502,18.5187,-14.0533,1.38155e-14,7.60351e-15,-43.3791,2.00356,81.924,19.0921,-5.10039,-14.6948,20.825,7.12502,11.4591,50.4918,-60.0926,2.86647,21.9068,43.7654,-34.8489,-33.7304,54.5835,-22.8576,-4.08689,-32.0424,31.7974,-34.3781,22.0633,-14.2326
-0.439614,16.4987,-0.92448,-161.668,-7.1468,176.388,-6.0871,-2.39468,-3.9606,-1.2124,-3.00515,-0.126265,2.35298,-1.55582,1.84255,-13.6472,2.52663,-0.86674,40.6123,-2.14399,1.66011,17.1427,-2.44219,0.0100267,-5.75544e-15,-6.01324e-15,-43.7241,7.80613,-91.3596,18.5112,-8.6284,-7.03783,15.1457,7.12502,18.8344,-13.9624,-5.75544e-15,-6.01324e-15,-43.6503,-0.165795,83.5209,18.9595,-5.29492,-14.0681,20.2835,7.12502,12.0634,49.9158,-60.0567,2.6311,21.974,43.6867,-34.5127,-33.8939,54.5012,-22.9566,-4.1383,-32.2017,31.8626,-34.4205,22.0153,-14.6431
-0.435244,16.4849,-0.997983,-161.493,-7.29133,176.201,-6.63525,-2.51031,-4.12888,-1.1738,-3.12484,-0.143909,2.71386,-1.625,1.88186,-13.7287,2.55224,-1.03621,40.7214,-2.15435,1.82004,17.2286,-2.45928,0.106211,2.43294e-14,2.88238e-15,-43.691,8.39735,-91.7704,18.6107,-8.96976,-6.75187,15.1603,7.12502,19.1095,-13.9209,2.43294e-14,2.88238e-15,-43.943,-2.24605,85.0457,18.811,-5.59859,-13.6823,19.3581,7.12502,12.4354,48.9681,-59.8574,3.15843,21.5714,43.5493,-35.0479,-34.6936,54.4755,-22.8749,-4.03997,-32.3451,31.9583,-34.3589,21.805,-15.0199
-0.424612,16.4586,-1.05256,-160.719,-6.95804,175.962,-7.57339,-2.42944,-4.39334,-1.3088,-2.9702,-0.25618,3.09352,-1.56306,1.89177,-13.7941,2.47408,-1.20444,40.6695,-2.27002,2.00418,17.2233,-2.49843,0.201395,-3.42904e-14,-2.08475e-14,-43.5086,8.88253,-92.2152,18.685,-9.82875,-6.27241,14.5674,7.12502,19.5705,-14.4676,-3.42904e-14,-2.08475e-14,-44.1207,-3.9066,86.0786,18.7608,-6.58559,-12.9898,18.1426,7.12502,13.103,47.711,-60.4655,4.09026,21.0003,43.3838,-35.6342,-35.5357,53.4698,-23.6071,-4.06616,-32.5743,32.0476,-34.4484,21.7344,-14.9365
-0.415703,16.4401,-1.11704,-160.334,-6.85122,175.89,-8.05507,-2.3965,-4.42873,-1.41384,-2.91183,-0.325636,3.2465,-1.54075,1.82846,-13.8984,2.45345,-1.08629,40.7071,-2.28838,1.89378,17.27,-2.49949,0.125632,8.70925e-15,-4.29872e-15,-43.5971,9.54039,-92.8468,18.9359,-10.9808,-5.92173,14.09,7.12502,19.9076,-14.9103,8.70925e-15,-4.29872e-15,-44.4508,-5.68688,87.2304,18.6529,-7.31397,-12.5438,17.1086,7.12502,13.5329,46.6488,-60.546,5.04961,20.4595,43.2764,-38.222,-34.683,53.7835,-23.8249,-3.98029,-32.6242,32.0646,-34.629,21.4156,-14.1232
-0.410208,16.4283,-1.188,-160.079,-6.92652,175.713,-8.24999,-2.47091,-4.5435,-1.6724,-3.01634,-0.37346,3.09563,-1.59572,1.82942,-13.7169,2.57897,-0.771777,40.832,-2.12024,1.54611,17.2823,-2.45337,-0.0644734,-5.96975e-15,-3.13583e-14,-44.1948,10.175,-93.4701,19.2561,-11.7378,-6.13184,14.0275,7.12502,19.7056,-14.9937,-5.96975e-15,-3.13583e-14,-45.2696,-7.2047,88.3676,18.6242,-7.78992,-12.147,16.2216,7.12502,13.9153,45.736,-60.4329,5.73593,19.9029,43.2293,-40.9648,-33.1654,54.88,-23.7992,-4.09567,-32.7378,32.0762,-35.0199,21.0027,-12.8861
-0.405427,16.4211,-1.26057,-159.762,-7.05416,175.382,-8.52829,-2.57273,-4.78068,-1.95839,-3.14833,-0.476334,2.96715,-1.668,1.8352,-13.4304,2.68219,-0.502544,40.894,-2.02463,1.33262,17.2374,-2.42658,-0.196828,-3.64024e-15,1.65488e-14,-44.6558,10.1639,-93.7055,19.3705,-11.6703,-6.14406,14.0651,7.12502,19.6939,-14.9573,-3.64024e-15,1.65488e-14,-46.147,-8.45703,89.3491,18.8293,-8.29359,-11.5925,15.5083,7.12502,14.4497,44.9852,-60.4566,6.20574,19.2939,43.2216,-41.8992,-33.4263,54.9001,-23.7869,-4.15161,-33.0009,32.0332,-35.2289,20.7854,-12.5049
-0.400884,16.4169,-1.3305,-159.499,-7.2083,175.328,-8.8534,-2.63996,-4.7732,-2.11336,-3.23996,-0.470176,2.99195,-1.71814,1.81573,-13.4173,2.70242,-0.472791,40.9341,-2.01218,1.31326,17.2562,-2.42623,-0.211241,1.82633e-15,-2.18663e-15,-44.8872,10.5193,-94.0179,19.5354,-11.9816,-5.83274,14.3019,7.12502,19.9931,-14.6895,1.82633e-15,-2.18663e-15,-46.6837,-9.48676,90.2144,18.9879,-8.84309,-10.6448,14.5787,7.12502,15.3626,43.988,-60.5133,6.97474,18.7885,43.2236,-42.8137,-34.3935,54.7373,-23.7776,-4.17129,-32.9805,31.9441,-35.3973,20.9241,-12.4938
-0.39737,16.4037,-1.39776,-159.484,-7.31474,175.43,-9.02494,-2.67161,-4.57957,-2.06146,-3.28591,-0.440504,3.13575,-1.74143,1.72315,-13.658,2.67005,-0.564727,40.8687,-1.96822,1.33135,17.2809,-2.4002,-0.175049,3.33089e-14,1.77415e-14,-44.8441,10.805,-94.1746,19.7338,-12.0541,-5.60585,14.2084,7.12502,20.2112,-14.7601,3.33089e-14,1.77415e-14,-47.0726,-10.948,91.404,19.1299,-8.69505,-10.283,13.4564,7.12502,15.7111,42.8387,-60.2852,7.71311,18.5787,43.2016,-44.89,-34.0851,55.0745,-23.5139,-4.29914,-32.8041,31.8693,-35.7557,20.9895,-12.0306
-0.402527,16.385,-1.47179,-159.461,-7.40933,175.115,-9.23287,-2.71866,-4.66771,-1.99444,-3.32512,-0.58961,3.31906,-1.7668,1.60067,-13.8282,2.62314,-0.534211,40.8156,-1.95523,1.2394,17.2932,-2.38662,-0.216831,1.26228e-14,3.57812e-15,-44.8821,11.0038,-94.4118,19.8503,-12.0632,-5.49552,13.7784,7.12502,20.3172,-15.1789,1.26228e-14,3.57812e-15,-47.5916,-12.497,92.6452,19.1808,-8.5578,-10.682,12.3255,7.12502,15.3268,41.7376,-59.961,7.54863,18.4641,43.1843,-45.963,-33.4614,55.1618,-23.1241,-4.52854,-33.0947,31.8376,-36.0856,20.6877,-11.0326
-0.400214,16.3683,-1.54471,-159.343,-7.43639,174.856,-9.4579,-2.77667,-4.87575,-2.07429,-3.38221,-0.6413,3.37195,-1.80184,1.64683,-13.5659,2.62281,-0.51864,40.6343,-1.87177,1.11397,17.119,-2.36559,-0.253784,-1.98288e-14,-1.65985e-14,-45.1224,11.4569,-94.7688,19.8823,-12.2547,-5.59999,13.8533,7.12502,20.2168,-15.1146,-1.98288e-14,-1.65985e-14,-48.4294,-13.8484,93.9848,19.2323,-8.63965,-11.1075,11.5163,7.12502,14.917,40.9592,-59.8284,7.70935,18.2146,43.1777,-46.8422,-33.5872,55.5699,-22.8922,-4.66077,-33.311,31.8048,-36.1981,20.5032,-11.1075
-0.393191,16.3546,-1.61904,-159.181,-7.41233,174.87,-9.69902,-2.83668,-4.90869,-2.22458,-3.46481,-0.596247,3.35823,-1.84671,1.6935,-13.3692,2.75142,-0.389592,40.6977,-1.71109,0.975693,17.0993,-2.31889,-0.314842,-1.95554e-14,-8.59744e-15,-45.3983,11.8234,-95.0754,19.8225,-12.1673,-6.07235,14.2441,7.12502,19.7628,-14.7712,-1.95554e-14,-8.59744e-15,-49.1734,-14.4407,94.7902,19.3565,-8.99309,-10.4756,11.2429,7.12502,15.5256,40.6396,-59.7547,8.37167,17.996,43.194,-48.6193,-33.1955,57.1858,-22.7758,-4.57964,-33.2348,31.7459,-36.2838,20.3441,-10.9405
-0.399081,16.3472,-1.69953,-159.16,-7.56735,175.011,-9.75101,-2.8406,-4.56513,-2.33171,-3.51154,-0.587514,3.25939,-1.86682,1.50586,-13.5697,2.79791,-0.453195,41.0081,-1.79252,1.15105,17.3311,-2.36044,-0.25372,1.74434e-14,1.71452e-14,-45.6015,11.8966,-95.223,19.824,-12.1325,-6.2663,14.2937,7.12502,19.5763,-14.7407,1.74434e-14,1.71452e-14,-49.6843,-14.8925,95.3374,19.3689,-9.33903,-9.35516,11.2054,7.12502,16.6045,40.5151,-59.3831,7.97292,18.6322,43.2324,-48.6363,-33.1843,56.9975,-22.4463,-4.53629,-33.0598,31.6895,-36.4219,20.2634,-11.3963
-0.407344,16.344,-1.77722,-159.032,-7.80425,175.183,-9.93071,-2.8259,-4.11654,-2.41538,-3.53645,-0.608642,3.24594,-1.87771,1.22432,-13.6465,2.72146,-0.534617,40.9829,-1.9847,1.41933,17.3451,-2.41012,-0.151192,-4.6938e-14,-1.96797e-14,-45.6889,11.9725,-95.4215,19.8129,-12.4918,-5.47374,13.1,7.12502,20.3382,-15.8551,-4.6938e-14,-1.96797e-14,-50.1003,-15.5115,95.8559,19.3588,-9.70271,-8.32217,11.2184,7.12502,17.5988,40.4419,-59.1738,7.49312,19.2577,43.2831,-47.7171,-34.2837,54.5916,-22.2569,-4.59861,-32.8211,31.6539,-36.4447,20.4477,-12.2679
-0.403209,16.3336,-1.85478,-158.844,-7.83767,175.071,-10.3999,-2.89504,-4.24123,-2.36651,-3.59413,-0.62078,3.56514,-1.91436,1.24672,-13.6057,2.70951,-0.472846,40.7296,-1.89998,1.3754,17.1882,-2.34866,-0.155471,-2.05742e-14,-6.4605e-15,-45.5777,12.3452,-95.6347,19.763,-12.7913,-3.23667,9.92825,7.12502,22.4868,-18.7825,-2.05742e-14,-6.4605e-15,-50.2884,-15.6611,96.0708,19.3963,-9.8961,-7.31716,11.2751,7.12502,18.5658,40.4091,-59.0977,7.80058,19.0672,43.3462,-48.054,-35.0407,53.043,-22.1145,-4.51149,-32.872,31.6134,-36.608,20.1918,-12.3843
-0.398289,16.3141,-1.93332,-158.75,-7.79854,174.927,-10.8235,-2.95978,-4.44156,-2.25775,-3.63144,-0.631145,3.92576,-1.94106,1.31562,-13.7142,2.71561,-0.479979,40.6007,-1.79006,1.32738,17.1406,-2.29175,-0.149747,-3.22031e-14,5.06901e-15,-45.4199,12.4779,-95.5856,19.7696,-12.5093,-4.60083,12.4879,7.12502,21.1769,-16.3755,-3.22031e-14,5.06901e-15,-50.5155,-16.1685,96.6963,19.4848,-9.00274,-6.5975,11.5107,7.12502,19.2579,40.5772,-58.8686,8.05086,18.9187,43.3715,-49.0966,-34.4966,54.0733,-21.8868,-4.45437,-32.9863,31.6116,-36.6967,20.2706,-12.9157
-0.400851,16.292,-2.00871,-158.753,-7.89886,175.043,-10.7845,-2.95869,-4.18717,-2.32643,-3.66608,-0.590462,3.82194,-1.95419,1.2156,-13.8995,2.70501,-0.765982,40.7338,-1.83937,1.56086,17.2678,-2.32997,-0.00727359,2.59662e-14,2.13694e-15,-45.5505,12.6493,-95.5967,19.7701,-12.4075,-4.92186,13.4507,7.12502,20.8685,-15.4469,2.59662e-14,2.13694e-15,-50.8096,-16.6517,97.3454,19.316,-8.26064,-5.91302,11.6848,7.12502,19.916,40.6843,-58.5879,8.10654,19.1376,43.3887,-49.2916,-34.7781,54.7524,-21.5562,-4.66968,-32.7999,31.5851,-37.1231,20.3972,-12.8849
-0.402591,16.2713,-2.08567,-158.727,-7.82018,175.238,-10.6215,-2.9289,-3.94846,-2.57179,-3.68524,-0.514366,3.46724,-1.96053,1.17616,-13.8581,2.78204,-0.750462,40.9148,-1.79846,1.53216,17.3585,-2.3405,-0.0251669,-9.23728e-15,-2.25621e-14,-45.9427,12.9528,-95.7703,19.5915,-12.3218,-4.66743,13.2022,7.12502,21.1129,-15.6683,-9.23728e-15,-2.25621e-14,-51.2542,-16.565,97.6793,19.0722,-7.74625,-5.49678,11.7497,7.12502,20.316,40.7071,-58.33,8.30104,19.4109,43.3713,-49.2071,-35.0918,53.8182,-21.311,-4.73892,-32.5862,31.5961,-37.6811,20.6425,-12.6642
-0.402962,16.2541,-2.1693,-158.577,-7.58196,175.046,-10.9169,-2.89826,-4.16225,-2.66641,-3.62396,-0.587684,3.53489,-1.9389,1.21516,-13.8305,2.81284,-0.537454,40.9492,-1.75293,1.33727,17.3677,-2.32115,-0.146062,2.75503e-14,3.65267e-14,-46.0295,13.1173,-95.8932,19.2341,-12.2664,-3.38108,11.2855,7.12502,22.3482,-17.4419,2.75503e-14,3.65267e-14,-51.5356,-16.1068,97.5004,18.8748,-7.73817,-5.54233,11.5754,7.12502,20.2723,40.5375,-58.1342,8.46755,19.2388,43.4222,-50.0987,-33.9863,53.533,-21.1023,-4.72911,-32.8181,31.5404,-37.9279,20.9327,-13.5355
-0.401497,16.2411,-2.24868,-158.49,-7.59399,175.227,-11.334,-2.87151,-3.96883,-2.54553,-3.58136,-0.562539,3.87917,-1.91955,1.11351,-14.0397,2.71487,-0.521382,40.7723,-1.83343,1.40544,17.3243,-2.3115,-0.123758,3.98191e-15,-6.85807e-15,-45.5806,12.5936,-95.3728,19.0843,-11.4859,-2.88893,11.7744,7.12502,22.8206,-16.8956,3.98191e-15,-6.85807e-15,-51.515,-15.927,97.3614,18.8027,-7.43965,-4.96247,11.8243,7.12502,20.8295,40.7261,-57.9562,8.73069,19.4411,43.5211,-50.5374,-33.8482,53.692,-20.8295,-4.72985,-32.5777,31.3785,-37.9686,20.8868,-14.2439
-0.407198,16.2301,-2.32335,-158.492,-7.5453,175.353,-11.4248,-2.87242,-3.82008,-2.4925,-3.59091,-0.484913,3.98178,-1.92207,1.10328,-14.1805,2.65529,-0.678171,40.6061,-1.84719,1.54712,17.2689,-2.29941,-0.026456,1.67103e-15,-7.65321e-15,-45.2633,12.3011,-94.8104,18.9907,-10.5471,-1.71918,11.1283,7.12502,23.9427,-17.3989,1.67103e-15,-7.65321e-15,-51.2391,-15.2184,96.9435,18.5303,-7.22905,-3.75889,12.356,7.12502,21.9855,41.1265,-57.7795,8.79983,19.6688,43.6957,-50.0223,-34.696,53.1243,-20.3843,-4.9145,-32.4257,31.1071,-38.2024,20.9479,-14.3346
-0.415734,16.2202,-2.40885,-158.423,-7.32122,175.272,-11.5383,-2.84349,-3.88052,-2.62473,-3.55816,-0.485385,3.90712,-1.91038,1.13989,-14.057,2.68847,-0.771196,40.696,-1.84067,1.57435,17.2877,-2.32779,-0.00169299,-4.35929e-14,-7.28049e-15,-45.5366,12.7929,-94.9778,18.9616,-10.6116,-1.35067,10.8763,7.12502,24.2961,-17.604,-4.35929e-14,-7.28049e-15,-51.4355,-14.7978,96.9025,18.2428,-6.71613,-2.62161,12.7411,7.12502,23.0771,41.3792,-57.6736,9.16293,19.4458,43.91,-50.4646,-34.8722,52.8218,-19.9018,-5.27353,-32.5375,30.7984,-38.7962,20.9388,-13.2957
-0.41745,16.213,-2.5017,-158.335,-7.04202,175.353,-11.7033,-2.72623,-3.80643,-2.91073,-3.44134,-0.50521,3.68609,-1.85932,1.09666,-13.5516,2.81881,-0.764819,40.8573,-1.8197,1.63311,17.2481,-2.36037,0.0172919,2.20899e-14,2.62396e-14,-46.2924,13.2699,-95.4663,19.0875,-11.082,-1.54615,10.7962,7.12502,24.1086,-17.7091,2.20899e-14,2.62396e-14,-52.0323,-14.438,96.8939,17.9949,-6.1663,-2.32115,12.7971,7.12502,23.3653,41.3988,-57.6099,9.93635,19.2235,44.1513,-51.8588,-34.18,53.1604,-19.4761,-5.53013,-32.4662,30.423,-39.2593,21.1197,-12.8614
-0.412031,16.2061,-2.58576,-158.373,-6.70488,175.499,-11.8245,-2.60721,-3.7973,-2.93518,-3.28493,-0.456841,3.72148,-1.78353,1.16078,-13.4733,2.86673,-0.864672,40.9024,-1.7918,1.74919,17.254,-2.35875,0.0906249,-8.54153e-17,-5.75233e-15,-46.1619,12.8785,-95.0131,18.7862,-10.2861,-0.883529,10.1542,7.12502,24.7438,-18.2655,-8.54153e-17,-5.75233e-15,-51.9999,-13.6066,96.2954,17.843,-5.8648,-1.53919,12.9819,7.12502,24.1153,41.4863,-57.4873,11.0961,18.9091,44.3928,-53.2628,-33.5901,53.0556,-18.998,-5.50235,-32.3442,30.0538,-39.5611,21.4652,-13.2276
-0.416553,16.1995,-2.6588,-158.199,-6.67782,175.539,-12.0518,-2.56096,-3.69498,-2.90003,-3.22519,-0.420615,3.87682,-1.75504,1.13867,-13.6792,2.79021,-0.900654,40.7847,-1.82353,1.78339,17.2422,-2.34604,0.11354,-2.90303e-14,-7.91411e-15,-45.6934,12.4056,-94.3944,18.4468,-9.43633,0.084726,9.53188,7.12502,25.6715,-18.7572,-2.90303e-14,-7.91411e-15,-51.5872,-12.8416,95.6607,17.6681,-5.37498,-0.262802,13.6092,7.12502,25.3386,41.9459,-57.5503,11.4316,18.8175,44.5944,-53.7336,-33.3772,52.6655,-18.7429,-5.56064,-32.274,29.7937,-39.9146,21.6034,-13.7961
-0.431538,16.196,-2.74255,-158.22,-6.82826,175.996,-12.0066,-2.45387,-2.97187,-3.10069,-3.19458,-0.322795,3.60953,-1.73559,0.849035,-13.353,2.75565,-0.754483,40.6646,-1.88137,1.66296,17.09,-2.37258,0.0249442,-3.0237e-14,-4.5472e-15,-46.0097,12.4708,-94.4012,18.2844,-9.21792,0.873876,9.09582,7.12502,26.4271,-19.082,-3.0237e-14,-4.5472e-15,-51.8697,-12.6063,95.6746,17.476,-4.37078,0.510367,14.0317,7.12502,26.0791,42.2613,-57.2104,10.9864,19.7304,44.6926,-53.2868,-33.1678,52.3685,-18.345,-5.58349,-31.7769,29.6974,-40.0425,21.8213,-14.7144
-0.44217,16.1906,-2.83062,-158.158,-6.80214,176.793,-12.207,-2.25105,-2.06697,-3.24148,-3.05137,-0.132279,3.53321,-1.66287,0.557428,-13.4033,2.75912,-0.651213,40.849,-1.95105,1.59579,17.2079,-2.41122,-0.0447887,-1.76421e-14,-7.03201e-15,-46.2618,12.5882,-94.4398,18.2028,-8.84207,1.10836,9.37723,7.12502,26.6516,-18.7666,-1.76421e-14,-7.03201e-15,-52.1136,-12.4987,95.7377,17.2887,-3.84653,1.30551,13.9522,7.12502,26.8402,42.0672,-56.9771,10.6954,20.9959,44.7614,-52.6582,-32.6607,51.7466,-18.1591,-5.4647,-30.9683,29.6552,-40.1699,22.0123,-15.5972
-0.445859,16.1829,-2.90833,-157.795,-6.35172,177.717,-12.7588,-1.94233,-1.2409,-3.25411,-2.75563,0.124052,3.79003,-1.51634,0.383869,-13.9926,2.76149,-0.67952,41.0408,-1.9048,1.58287,17.4698,-2.38118,-0.042681,1.29148e-14,1.19271e-15,-45.9886,12.7446,-94.2418,18.154,-8.38002,0.889161,10.2918,7.12502,26.4418,-17.8838,1.29148e-14,1.19271e-15,-51.7878,-12.0253,95.4199,17.0843,-3.71643,2.48698,14.3826,7.12502,27.9702,42.3188,-57.1253,10.3496,22.4795,44.7514,-50.9608,-32.6894,50.7158,-18.4764,-5.21269,-30.1386,29.7412,-40.4435,22.4103,-16.2932
-0.450794,16.1816,-2.99112,-157.857,-6.5596,178.078,-12.6602,-2.02386,-0.875098,-3.34691,-2.92954,0.40969,3.64031,-1.60224,0.454718,-13.8871,2.84539,-0.843674,40.9821,-1.66207,1.48131,17.4003,-2.32548,-0.0136019,-2.95692e-14,-8.94531e-15,-46.0813,13.2244,-94.0308,18.2494,-7.94313,1.72284,9.68172,7.12502,27.2395,-18.3713,-2.95692e-14,-8.94531e-15,-51.6569,-10.6015,94.6031,17.1097,-4.06914,3.80948,15.2963,7.12502,29.2338,43.0196,-56.7321,10.24,23.0643,44.7895,-51.1435,-32.4084,50.5708,-18.1907,-5.17039,-29.6876,29.8527,-40.4317,22.827,-18.0529
-0.461254,16.1809,-3.07245,-157.897,-6.73637,178.597,-12.7449,-1.90799,-0.182839,-3.55501,-2.89573,0.571468,3.44469,-1.5929,0.241424,-13.233,2.88737,-0.828052,40.9539,-1.67612,1.41329,17.213,-2.37562,-0.0523557,-1.21383e-14,-5.1684e-15,-46.3831,13.3163,-93.9492,18.2595,-7.59864,3.31808,8.03523,7.12502,28.7645,-19.7688,-1.21383e-14,-5.1684e-15,-52.0679,-10.2291,94.5855,17.1708,-3.47463,4.24287,16.1508,7.12502,29.6475,43.8013,-56.3029,9.25693,24.3688,44.8316,-49.9542,-31.9677,50.1691,-17.9618,-4.91786,-29.1308,29.9679,-40.4092,22.993,-19.0517
-0.469913,16.1755,-3.15751,-157.946,-6.76858,179.19,-12.9785,-1.69228,0.494152,-3.5196,-2.70938,0.742075,3.58641,-1.49858,0.0577092,-13.4444,2.81078,-0.871882,41.2431,-1.87676,1.43079,17.4384,-2.47754,-0.0845179,-8.05078e-15,-1.98785e-15,-46.2488,13.1802,-93.6142,18.0765,-6.9497,4.20708,7.69232,7.12502,29.6134,-19.9643,-8.05078e-15,-1.98785e-15,-52.2636,-10.6311,95.1127,17.448,-2.65098,4.53145,16.9901,7.12502,29.923,44.5913,-55.8008,8.44175,25.7518,44.9099,-49.0842,-31.0113,50.2548,-17.7499,-4.54491,-28.5383,30.0851,-40.1958,23.2111,-20.3025
-0.469866,16.1661,-3.24351,-157.804,-6.60963,179.423,-13.1016,-1.54355,0.589259,-3.67421,-2.55428,0.88721,3.49457,-1.43209,0.178553,-13.3806,2.77817,-1.04892,41.3617,-2.00718,1.59917,17.4959,-2.55291,-0.00518939,2.96686e-14,-1.68967e-14,-46.3988,13.1623,-93.3117,17.9442,-6.23196,4.49596,7.82943,7.12502,29.8891,-19.7779,2.96686e-14,-1.68967e-14,-52.4096,-10.2633,95.0136,17.5616,-2.99537,5.29008,17.8057,7.12502,30.6466,45.2739,-55.7855,8.73194,25.9265,44.9913,-48.4673,-32.0472,49.9517,-17.7589,-4.0319,-28.34,30.2652,-39.9319,23.4855,-21.9212
-0.469589,16.1622,-3.31432,-157.648,-6.7114,179.84,-12.8904,-1.43861,0.965157,-4.04024,-2.50753,1.09342,2.99152,-1.42994,0.204338,-13.1035,2.83586,-1.04967,41.4367,-1.96379,1.54189,17.4642,-2.56914,-0.0282225,8.99501e-15,-3.77691e-15,-46.7391,13.278,-93.1494,17.6209,-5.60077,4.87877,7.9001,7.12502,30.2543,-19.6408,8.99501e-15,-3.77691e-15,-52.7577,-9.75694,94.8513,17.6531,-3.33793,5.94484,18.7651,7.12502,31.2708,46.1146,-55.7481,8.29574,26.7699,45.097,-47.594,-32.2954,49.5538,-17.9103,-3.64365,-27.8586,30.5148,-39.898,23.6312,-22.8464
-0.480582,16.1593,-3.38765,-157.633,-6.71241,180.086,-12.8345,-1.31576,1.30759,-4.18085,-2.40695,1.17201,2.80476,-1.39007,0.113613,-13.0827,2.88709,-0.823959,41.5651,-1.87399,1.25559,17.5267,-2.54763,-0.189355,-2.18166e-14,1.03368e-14,-46.8789,13.516,-93.1462,17.4227,-5.35351,5.86233,7.13951,7.12502,31.1921,-20.2252,-2.18166e-14,1.03368e-14,-52.9151,-9.66606,94.921,17.7778,-3.48418,6.64065,19.6634,7.12502,31.9336,46.8826,-55.5581,7.32019,27.6628,45.2564,-46.5646,-31.9062,48.8976,-17.853,-3.26984,-27.6656,30.7764,-39.9781,23.9484,-23.375
-0.488839,16.1545,-3.45147,-157.606,-6.86244,180.118,-12.8363,-1.28908,1.45542,-4.13127,-2.38618,1.1978,2.85306,-1.37685,0.0594085,-13.4838,2.80474,-0.747416,41.6306,-1.95471,1.19972,17.672,-2.55532,-0.244897,-1.43622e-14,-3.77691e-15,-46.5874,13.4061,-92.8096,17.2261,-4.90072,7.28664,5.89266,7.12502,32.5485,-21.2017,-1.43622e-14,-3.77691e-15,-52.8047,-9.95355,95.185,17.962,-3.45001,7.36984,20.5492,7.12502,32.6277,47.6273,-55.4424,6.3692,28.2459,45.4236,-47.4514,-31.2376,45.2498,-17.8894,-2.99419,-27.6105,31.1548,-39.7538,24.0956,-23.7584
-0.487613,16.1491,-3.51799,-157.565,-7.04387,180.167,-12.7297,-1.28668,1.52255,-4.24554,-2.40169,1.26806,2.67634,-1.39162,0.0983694,-13.3398,2.69952,-0.803128,41.4801,-2.11109,1.29814,17.5514,-2.60839,-0.211352,1.19271e-14,2.78299e-15,-46.5005,13.2969,-92.5127,16.9674,-4.41134,8.2395,5.05607,7.12502,33.4547,-21.8471,1.19271e-14,2.78299e-15,-53.0195,-10.0147,95.3727,18.0767,-3.62709,7.7432,21.0078,7.12502,32.9828,48.0116,-55.3597,5.929,28.6003,45.6029,-46.0837,-32.1644,47.4551,-17.9808,-2.72428,-27.474,31.5635,-39.5501,23.9419,-23.7247
-0.48516,16.143,-3.5911,-157.534,-7.15828,180.58,-12.8022,-1.16664,1.8598,-4.31196,-2.3093,1.46539,2.64285,-1.35379,0.126446,-13.116,2.5921,-0.836953,41.3045,-2.22181,1.27693,17.3931,-2.65538,-0.226121,-7.95139e-15,-1.41137e-14,-46.4038,13.2018,-92.1512,16.7418,-3.85006,8.71285,4.75179,7.12502,33.9045,-22.0531,-7.95139e-15,-1.41137e-14,-53.0648,-10.1406,95.6141,18.028,-3.68133,8.13688,21.2809,7.12502,33.3572,48.205,-55.2258,5.86572,29.2174,45.7024,-45.2548,-31.2307,48.8242,-18.1957,-2.24308,-26.9734,32.1032,-39.2172,23.9601,-24.5615
-0.489381,16.1386,-3.65598,-157.521,-7.35244,180.849,-12.894,-1.12807,2.09796,-4.22896,-2.29965,1.68149,2.77959,-1.34657,0.214186,-13.3119,2.5136,-0.997377,41.2799,-2.24641,1.29151,17.4311,-2.67071,-0.192328,1.2424e-14,-4.37326e-15,-46.1697,13.4478,-91.8678,16.6828,-3.58141,9.44759,4.24824,7.12502,34.6022,-22.3998,1.2424e-14,-4.37326e-15,-52.6695,-9.90942,95.5035,17.7635,-4.48493,8.43705,21.477,7.12502,33.6425,48.3394,-55.0773,5.24121,29.9143,45.7869,-46.3572,-31.5534,45.4638,-18.4116,-1.74899,-26.6477,32.7001,-38.6602,24.3939,-26.1718
-0.494284,16.1358,-3.71701,-157.589,-7.85343,181.299,-12.5593,-1.07469,2.68026,-4.40057,-2.31255,1.88378,2.40544,-1.36849,0.109619,-13.3858,2.4345,-1.04586,41.397,-2.4037,1.32858,17.5229,-2.74359,-0.200635,-8.74653e-15,2.78299e-15,-46.1856,12.9753,-91.2064,16.5597,-2.59242,10.9956,3.47933,7.12502,36.07,-22.82,-8.74653e-15,2.78299e-15,-52.8718,-10.0281,95.6333,17.8333,-5.13539,9.11383,21.888,7.12502,34.2854,48.608,-54.8268,4.42845,30.889,45.8062,-45.802,-31.8688,45.375,-18.6,-1.18457,-26.0578,33.3964,-38.3152,24.3129,-26.7953
-0.491136,16.1308,-3.78559,-157.59,-8.1862,181.505,-12.4018,-1.03385,2.887,-4.61719,-2.30408,2.03326,2.09284,-1.38266,0.159474,-13.1608,2.40035,-1.02214,41.3984,-2.4558,1.23975,17.4639,-2.78521,-0.254577,5.56597e-15,1.98785e-14,-46.4188,12.7964,-90.8094,16.5324,-2.00042,10.5784,4.19599,7.12502,35.6748,-22.1998,5.56597e-15,1.98785e-14,-53.1921,-10.3079,95.9886,18.0012,-5.01849,9.80064,22.4263,7.12502,34.9372,48.997,-54.6428,4.15923,31.3194,45.8342,-44.138,-32.3776,48.5145,-18.7993,-0.690732,-25.7337,34.0811,-38.2223,23.7749,-26.3517
-0.485776,16.1261,-3.85902,-157.597,-8.37918,181.67,-12.4602,-0.963203,2.958,-4.68765,-2.23982,2.16539,2.05496,-1.35843,0.265302,-13.1453,2.33246,-1.0329,41.424,-2.55301,1.21918,17.4764,-2.82957,-0.279972,-2.56432e-14,-2.0276e-14,-46.5693,12.8772,-90.7211,16.5479,-2.13034,11.1466,3.53294,7.12502,36.2131,-22.7309,-2.56432e-14,-2.0276e-14,-53.2155,-10.3096,95.9761,18.1291,-5.01411,10.5148,22.9309,7.12502,35.6145,49.3412,-54.4189,4.09492,31.6152,45.8734,-48.5166,-33.899,37.0945,-18.9727,-0.14161,-25.501,34.7707,-37.8853,23.2478,-26.1948
-0.488958,16.1247,-3.92885,-157.757,-8.47127,181.934,-12.5244,-0.826108,3.22541,-4.53637,-2.09281,2.28129,2.24495,-1.27872,0.251407,-13.4762,2.19104,-1.28787,41.4887,-2.7597,1.45745,17.6133,-2.90361,-0.164734,7.70291e-15,1.39149e-14,-46.1995,12.4993,-90.1443,16.397,-1.82509,12.7686,2.19258,7.12502,37.7473,-23.675,7.70291e-15,1.39149e-14,-52.904,-10.3996,95.9314,17.9896,-5.16418,10.7277,23.0677,7.12502,35.8162,49.4291,-54.0123,3.70723,32.1697,45.9254,-44.4312,-31.6329,47.0445,-18.9159,0.466482,-25.2352,35.3803,-37.9764,22.1578,-24.5683
-0.487016,16.1261,-3.97623,-157.759,-8.85768,181.796,-12.3769,-0.902935,3.11505,-4.59005,-2.17672,2.35773,2.11448,-1.32233,0.38625,-13.3229,2.16662,-1.28096,41.479,-2.78965,1.40109,17.5665,-2.92672,-0.195364,3.15571e-14,-8.34896e-15,-45.8303,11.7616,-89.1884,16.1818,-0.964686,14.279,1.62845,7.12502,39.1725,-23.8419,3.15571e-14,-8.34896e-15,-52.6975,-10.4816,95.9145,17.6627,-5.38783,10.9511,22.9387,7.12502,36.0278,49.2484,-53.887,3.31511,32.224,45.9935,-44.4831,-31.8527,46.6775,-19.0606,0.95546,-25.2481,35.9811,-38.0633,20.7706,-22.4949
-0.486296,16.1249,-4.034,-157.855,-9.11537,181.667,-12.0986,-0.974008,3.0108,-4.93969,-2.26931,2.38332,1.60294,-1.39148,0.474257,-12.2401,2.32558,-0.91638,41.4132,-2.71375,1.16681,17.2357,-2.93103,-0.349302,1.26228e-14,2.10712e-14,-46.5066,11.7802,-89.0951,16.4269,-0.727946,14.7575,1.7774,7.12502,39.6233,-23.5612,1.26228e-14,2.10712e-14,-53.2025,-10.3391,95.8277,17.679,-5.27929,11.7077,23.6062,7.12502,36.7442,49.7364,-53.5882,3.0788,32.2053,46.0514,-44.9621,-31.6752,46.2287,-19.0727,1.51124,-25.3121,36.5222,-37.9385,20.1623,-21.6269
-0.477714,16.1242,-4.09688,-157.774,-9.02098,181.744,-12.5723,-0.802184,2.94529,-4.46913,-2.03421,2.47382,2.35862,-1.24331,0.614462,-13.405,2.04151,-1.0902,41.4287,-2.87399,1.14269,17.5534,-2.94429,-0.35773,-2.66371e-14,4.33351e-14,-45.6758,12.0995,-88.9933,16.5259,-0.858931,14.8196,1.92142,7.12502,39.6818,-23.3998,-2.66371e-14,4.33351e-14,-52.0292,-10.5289,95.5477,17.7956,-5.41708,12.993,24.4368,7.12502,37.9593,50.2471,-53.4317,3.60498,32.1258,46.0664,-49.4597,-33.8114,35.3551,-19.4279,2.59605,-25.3112,37.0852,-37.213,21.008,-24.3535
-0.469621,16.1289,-4.15723,-157.605,-8.87309,181.576,-12.8449,-0.66307,2.65617,-4.38605,-1.82652,2.48156,2.60385,-1.13416,0.807009,-13.7138,1.8871,-1.42028,41.5274,-3.12158,1.4368,17.7095,-3.04319,-0.213279,4.96962e-15,1.19271e-14,-45.0954,11.5161,-88.2753,15.9135,0.374576,15.2997,2.30025,7.12502,40.1337,-22.8853,4.96962e-15,1.19271e-14,-51.7035,-10.826,95.6266,17.935,-5.25222,13.5591,24.7676,7.12502,38.4937,50.4308,-53.3593,3.78409,31.9156,46.0518,-48.0144,-31.9275,41.6214,-19.8721,3.79059,-25.6279,37.6987,-36.2512,22.2731,-27.2167
-0.461914,16.1357,-4.20515,-157.676,-8.91943,181.49,-12.3969,-0.626654,2.52851,-4.76162,-1.76458,2.48302,1.97302,-1.12522,0.904713,-12.9944,1.97271,-1.41463,41.6979,-3.25482,1.56458,17.626,-3.14398,-0.187371,2.44505e-14,-1.23246e-14,-45.4122,10.8338,-87.6957,15.4233,1.73166,15.9994,2.53121,7.12502,40.7915,-22.4511,2.44505e-14,-1.23246e-14,-52.2735,-10.9378,95.7372,17.9772,-4.82597,13.515,24.8292,7.12502,38.4521,50.504,-53.0589,3.78074,31.8792,46.0134,-47.6362,-31.7067,43.5535,-20.0873,4.78838,-25.7629,38.4205,-36.0653,22.2506,-26.2557
-0.447089,16.1377,-4.25015,-157.679,-8.85865,181.574,-12.0065,-0.558362,2.40931,-5.32758,-1.69524,2.55808,1.17749,-1.12735,1.07696,-11.6626,2.15199,-1.18697,41.7856,-3.28374,1.45486,17.3228,-3.2332,-0.284858,-2.48481e-15,3.97569e-15,-46.3092,11.1629,-87.9768,15.1743,1.88543,16.756,1.8119,7.12502,41.5019,-22.9428,-2.48481e-15,3.97569e-15,-53.2204,-11.0479,95.9878,18.1696,-4.3287,13.4011,24.8963,7.12502,38.3446,50.601,-52.8754,4.37636,31.796,46.0114,-48.3409,-31.941,43.6153,-20.3632,5.78201,-25.7532,39.1994,-36.6752,21.1902,-22.1192
-0.436213,16.1442,-4.30374,-157.635,-8.69476,181.445,-12.5848,-0.365545,2.15733,-4.60616,-1.37698,2.54066,2.24659,-0.921424,1.22204,-13.1891,1.81083,-1.43147,41.8586,-3.54363,1.61012,17.7826,-3.24853,-0.221526,4.03533e-14,-4.05521e-14,-45.0089,12.2112,-88.5508,14.9806,0.260151,15.125,3.52939,7.12502,39.9693,-21.7059,4.03533e-14,-4.05521e-14,-51.3579,-11.5199,95.5636,18.3425,-3.44387,14.6406,26.0312,7.12502,39.5132,51.4022,-52.734,4.74425,31.5577,46.0579,-48.05,-32.3762,44.7337,-20.6654,6.9144,-26.0588,40.0566,-36.801,21.2996,-20.0694
-0.43364,16.1511,-4.35915,-157.573,-8.52742,181.118,-12.8407,-0.233581,1.8382,-4.41998,-1.15261,2.44438,2.58141,-0.79664,1.32873,-13.4395,1.69161,-1.45727,41.9397,-3.72883,1.66562,17.9057,-3.30354,-0.228432,-1.97791e-14,3.97569e-15,-44.5139,12.1413,-88.3722,14.8786,0.351266,14.5711,3.9463,7.12502,39.4478,-21.444,-1.97791e-14,3.97569e-15,-50.7544,-11.6619,95.2199,18.4793,-3.55828,15.4904,26.2497,7.12502,40.313,51.3805,-52.6066,4.67247,31.2584,46.1549,-46.2744,-32.5157,48.0973,-20.9524,8.10825,-26.6212,40.9848,-36.7492,21.9199,-18.0755
-0.426136,16.1506,-4.40979,-157.622,-8.5134,181.059,-12.7064,-0.128668,1.77459,-4.55443,-1.00819,2.4134,2.36705,-0.731249,1.35601,-13.21,1.69475,-1.18241,42.0592,-3.78652,1.42016,17.9051,-3.33776,-0.406232,1.23246e-14,2.38542e-15,-44.3964,11.0312,-87.5139,14.6899,1.97841,15.2295,3.72989,7.12502,40.0676,-21.4757,1.23246e-14,2.38542e-15,-50.9751,-11.9533,95.2137,18.6664,-3.68112,15.7759,26.1578,7.12502,40.5815,51.2058,-52.3845,4.86087,31.177,46.2574,-47.5988,-32.5475,46.0754,-21.2235,9.36519,-26.82,41.9983,-37.409,21.7449,-12.8321
-0.425245,16.1493,-4.45865,-157.709,-8.78838,181.231,-12.5962,-0.0982765,2.09137,-4.62015,-1.01574,2.515,2.23605,-0.742325,1.28397,-13.2792,1.73887,-1.13383,42.1962,-3.72507,1.33473,18.0004,-3.32217,-0.450306,1.64991e-14,1.43125e-14,-44.2929,10.9373,-87.2204,14.5607,2.49862,16.046,3.44942,7.12502,40.8353,-21.5191,1.64991e-14,1.43125e-14,-50.8834,-11.8647,95.0279,18.7269,-3.96249,16.1531,26.0513,7.12502,40.9359,50.9881,-52.1284,4.4611,31.6135,46.3723,-47.5213,-31.5511,46.3321,-21.4882,10.6449,-26.7266,43.0997,-38.4405,20.8462,-6.93573
-0.430398,16.1514,-4.5031,-157.702,-9.07427,181.36,-12.7055,-0.0763771,2.47719,-4.66877,-1.05431,2.58661,2.24023,-0.770423,1.13501,-13.1423,1.75721,-1.26931,42.3316,-3.81145,1.49438,18.0548,-3.37908,-0.374249,1.05356e-14,1.98785e-14,-44.2003,11.0237,-87.1133,14.5842,2.56814,17.0526,2.91326,7.12502,41.7801,-21.75,1.05356e-14,1.98785e-14,-50.9207,-12.2262,95.2897,18.911,-3.26513,16.2133,25.9444,7.12502,40.9924,50.8632,-52.0052,3.68793,32.1446,46.4822,-47.0305,-30.9613,46.033,-21.8087,11.8442,-26.6931,44.278,-39.1885,19.743,-2.58454
-0.429837,16.1557,-4.54032,-157.718,-9.01217,181.203,-12.5866,-0.0170283,2.46531,-4.8017,-0.973915,2.52523,2.03604,-0.737727,1.0916,-12.8008,1.80832,-1.34657,42.4848,-3.91916,1.66524,18.0658,-3.45012,-0.307219,2.68359e-15,2.8625e-14,-44.2389,10.6244,-86.7946,14.6623,3.22979,17.7293,2.69697,7.12502,42.4142,-21.7528,2.68359e-15,2.8625e-14,-51.289,-12.8219,95.7489,19.1907,-2.19421,15.9751,25.6315,7.12502,40.7687,50.6209,-51.9072,3.425,32.1219,46.5989,-46.6179,-31.1606,44.346,-22.1227,13.1536,-27.0565,45.5016,-39.1842,19.5021,-0.444267
-0.430938,16.1625,-4.58075,-157.794,-8.81667,180.871,-12.0197,0.101969,2.31004,-5.25595,-0.790567,2.34861,1.25448,-0.669056,1.02965,-12.0446,1.93648,-1.02381,42.6864,-3.93873,1.44541,17.9723,-3.50498,-0.47778,1.88845e-14,1.27222e-14,-44.968,10.3087,-86.7502,14.7519,3.59407,17.9144,2.95919,7.12502,42.5874,-21.4309,1.88845e-14,1.27222e-14,-52.3056,-13.4206,96.2465,19.4671,-1.38732,15.7789,25.3137,7.12502,40.5843,50.3608,-51.7025,3.24891,31.8256,46.7179,-46.286,-31.6921,43.2528,-22.3577,14.5545,-27.6271,46.7346,-38.4732,20.065,-0.596127
-0.440822,16.1731,-4.6238,-157.749,-8.95856,180.928,-11.8653,0.138814,2.67509,-5.70787,-0.821567,2.34108,0.695588,-0.723442,0.819282,-10.9588,2.14231,-0.52628,42.7023,-3.74334,0.978502,17.6651,-3.48148,-0.741043,9.64106e-15,-1.66979e-14,-45.7948,10.6324,-87.0699,15.0279,3.12326,17.953,2.85762,7.12502,42.6236,-21.52,9.64106e-15,-1.66979e-14,-53.1762,-13.2263,96.1747,19.6812,-1.2751,15.8727,24.949,7.12502,40.6724,49.9686,-51.5974,1.99826,32.475,46.7685,-45.0411,-31.9236,43.6252,-22.7369,15.7337,-27.7187,48.0005,-37.62,20.0236,-0.0475055
-0.414808,16.1712,-4.66623,-157.516,-8.38105,180.722,-12.6227,0.298707,2.03544,-5.14563,-0.533424,2.38695,1.69733,-0.537174,1.25319,-11.926,1.98036,-0.533068,42.5314,-3.62886,0.788427,17.8108,-3.36577,-0.799743,7.55382e-15,-2.06736e-14,-44.7408,11.1819,-87.2036,15.153,2.23324,17.9607,2.90817,7.12502,42.6308,-21.4669,7.55382e-15,-2.06736e-14,-52.0123,-13.7852,96.2022,19.7409,-0.549701,16.3113,24.7312,7.12502,41.0845,49.6207,-51.6279,3.35437,31.8059,46.7611,-46.4094,-32.471,43.7089,-23.4106,17.271,-28.2605,49.2852,-36.5976,19.6207,1.46956
-0.402046,16.1773,-4.69521,-157.596,-8.19858,180.649,-12.436,0.362252,1.86677,-5.06203,-0.413246,2.45842,1.68375,-0.468735,1.43945,-12.2229,1.95029,-0.623897,42.5366,-3.57057,0.762118,17.8921,-3.33772,-0.78651,-9.93923e-15,-1.98785e-14,-44.6601,11.9256,-87.5907,15.3868,1.4353,18.1418,2.834,7.12502,42.8003,-21.4821,-9.93923e-15,-1.98785e-14,-51.6229,-13.842,96.1089,19.6216,-0.279816,16.7546,24.3515,7.12502,41.5006,49.1067,-51.3441,3.60832,31.6533,46.6544,-47.275,-32.3257,42.8839,-23.724,18.564,-28.4419,50.5385,-35.053,19.1313,2.8018
-0.396637,16.1881,-4.71942,-157.691,-8.18267,180.603,-11.4559,0.428371,1.93563,-5.74658,-0.341175,2.43458,0.43872,-0.468853,1.39242,-11.4976,2.13439,-0.593188,42.8634,-3.61886,0.881323,17.8999,-3.42311,-0.762759,-3.47873e-15,4.77083e-15,-45.7668,11.9757,-87.8732,15.4586,1.51632,18.4086,3.00519,7.12502,43.0498,-21.2231,-3.47873e-15,4.77083e-15,-52.8305,-13.7922,96.2534,19.6914,-0.0384984,16.9826,24.0068,7.12502,41.7145,48.6918,-51.0673,3.75594,31.5411,46.5574,-47.2366,-31.8625,43.9619,-24.0231,19.6936,-28.5385,51.7355,-32.6726,19.0393,2.12435
-0.4012,16.2004,-4.76792,-158.062,-7.84979,180.714,-11.4992,0.516678,2.10849,-5.55416,-0.229652,2.45537,0.661248,-0.405898,1.32836,-11.2317,2.22076,-0.310337,42.6953,-3.44022,0.694433,17.7162,-3.32747,-0.854792,-3.97569e-16,-3.97569e-15,-45.7146,12.4274,-88.1549,15.5203,1.15598,18.5119,3.39523,7.12502,43.1464,-20.7988,-3.97569e-16,-3.97569e-15,-52.8599,-13.4992,95.937,19.7652,0.197814,17.1943,24.0589,7.12502,41.913,48.678,-50.382,3.59303,31.7685,46.469,-46.5275,-30.8699,45.085,-23.8844,21.1578,-28.4698,52.8005,-29.4905,19.5665,-2.51371
-0.39794,16.2158,-4.8005,-157.77,-7.7902,180.305,-11.7314,0.571412,1.82954,-5.50451,-0.129409,2.35911,0.83762,-0.348372,1.39689,-11.5455,2.13233,-0.207407,42.6435,-3.41229,0.470775,17.7597,-3.29611,-0.96838,1.48095e-14,0,-45.5971,13.0005,-88.4985,15.9485,-0.0897127,18.9821,3.10332,7.12502,43.5857,-20.9324,1.48095e-14,0,-52.5728,-13.5596,95.7368,19.9043,0.529258,17.6229,24.559,7.12502,42.3146,49.0428,-50.5306,3.38239,31.4229,46.4403,-46.8887,-32.0141,43.5321,-24.4779,21.8965,-29.0851,53.816,-25.9383,19.7502,-7.95164
-0.40067,16.226,-4.82434,-157.613,-7.7943,179.878,-12.6784,0.47357,1.56351,-4.79944,-0.206848,2.32064,2.08598,-0.347389,1.49465,-12.1379,1.98813,-0.161489,42.1012,-3.20092,0.26657,17.5855,-3.12868,-0.998641,-3.8763e-15,-2.38542e-14,-44.4789,13.9434,-88.7821,16.4226,-1.47247,19.623,2.52029,7.12502,44.1837,-21.2937,-3.8763e-15,-2.38542e-14,-51.3464,-13.5768,95.3872,19.9729,1.03012,17.9842,25.1752,7.12502,42.6528,49.5427,-50.5351,3.24006,30.9455,46.3763,-47.2908,-32.4785,42.0063,-24.7717,22.2686,-29.6032,54.7811,-23.8494,17.5973,-6.82756
-0.399588,16.2329,-4.8447,-157.638,-7.95123,179.992,-12.5799,0.437628,1.7775,-4.94305,-0.301715,2.47225,1.88456,-0.406701,1.51888,-11.5744,2.10485,-0.201737,41.9078,-2.99674,0.24959,17.3231,-3.07104,-0.946337,-2.88238e-15,-3.65764e-14,-44.7592,14.4288,-88.9788,16.6441,-2.17125,20.0475,2.59301,7.12502,44.5793,-21.0704,-2.88238e-15,-3.65764e-14,-51.7494,-13.3996,95.5008,20.0095,1.76864,17.7217,24.6655,7.12502,42.4071,49.1177,-50.3524,3.26071,31.0673,46.262,-46.8965,-32.0209,43.9595,-24.9699,22.556,-29.3899,55.7955,-22.2715,14.7314,-1.83582
-0.395347,16.2386,-4.86755,-157.714,-8.16434,180.318,-14.0652,0.305827,2.06397,-3.73639,-0.5264,2.7743,3.95604,-0.466978,1.63713,-12.7293,2.03056,-0.224323,41.3904,-2.55755,-0.00553743,17.3159,-2.79606,-0.951674,1.96797e-14,3.89618e-14,-42.7248,15.038,-88.5843,16.5919,-2.85559,20.5885,2.44114,7.12502,45.0829,-21.0257,1.96797e-14,3.89618e-14,-49.8317,-13.3234,95.2106,19.9302,2.61824,17.9873,24.3255,7.12502,42.6557,48.6919,-50.0959,3.47594,31.3709,46.1219,-48.5394,-32.4053,44.5163,-25.2495,22.937,-28.9051,56.78,-19.4031,13.4191,-4.3539
-0.392319,16.2439,-4.89341,-157.784,-8.22874,180.366,-11.9698,0.513863,2.5344,-5.32775,-0.298646,2.56638,1.15187,-0.438128,1.19355,-11.3009,2.3316,-0.0337597,42.3042,-2.86795,0.198713,17.4795,-3.05403,-1.00114,1.78906e-14,1.59028e-15,-45.3197,14.3135,-89.0886,16.7438,-2.65293,20.6011,2.67073,7.12502,45.0946,-20.7915,1.78906e-14,1.59028e-15,-52.7934,-13.3503,95.5017,20.5339,2.97583,18.5348,24.472,7.12502,43.1678,48.6584,-49.8425,3.89712,31.2526,46.024,-48.0354,-31.7904,46.761,-25.3904,23.1985,-28.7406,57.6255,-16.2204,12.2547,-9.60355
-0.382291,16.2437,-4.91308,-157.788,-8.09546,179.964,-11.6112,0.428332,2.12239,-5.48897,-0.351883,2.5412,0.791217,-0.463326,1.39439,-11.1458,2.43861,-0.0806,42.4386,-2.75206,0.159609,17.5163,-3.04513,-0.998953,9.64106e-15,2.46493e-14,-45.6994,14.782,-89.3911,16.9544,-3.38431,20.5454,2.83668,7.12502,45.0428,-20.646,9.64106e-15,2.46493e-14,-53.4226,-13.2559,95.6252,21.0492,3.66256,18.8096,24.4815,7.12502,43.4246,48.5757,-49.7231,4.64944,30.4988,46.025,-49.9193,-32.3239,44.8014,-25.4137,23.3898,-29.0725,58.2787,-13.2172,10.6415,-11.8491
-0.374617,16.2467,-4.93581,-157.815,-8.15187,179.532,-11.4765,0.289285,1.79738,-5.46703,-0.481099,2.48072,0.743559,-0.516252,1.49929,-11.1773,2.52865,0.068145,42.4512,-2.57135,-0.00508288,17.5264,-2.96736,-1.0706,-1.45113e-14,-1.59028e-15,-45.7157,14.8574,-89.4353,17.1917,-3.99665,20.8373,2.65509,7.12502,45.3143,-20.7196,-1.45113e-14,-1.59028e-15,-53.4944,-13.403,95.8382,20.7554,4.47078,18.7882,23.9058,7.12502,43.4045,48.0072,-49.5819,5.45804,29.6804,46.0711,-51.0841,-31.9938,45.9372,-25.3792,23.392,-29.3532,58.7766,-10.0027,9.04876,-16.1481
-0.371247,16.2505,-4.96858,-157.926,-8.17601,179.333,-11.7224,0.220281,1.69807,-5.17464,-0.545555,2.49058,1.18286,-0.530105,1.55413,-11.5561,2.55763,0.113722,42.4965,-2.45518,-0.0705718,17.6509,-2.89841,-1.09262,-1.11319e-14,4.77083e-15,-45.4446,14.9481,-89.3615,17.5261,-4.79136,20.8535,2.69445,7.12502,45.3293,-20.6742,-1.11319e-14,4.77083e-15,-53.2217,-13.4746,95.9177,20.5136,4.84504,18.9439,23.3239,7.12502,43.55,47.3726,-49.3344,6.13532,29.2029,46.1132,-51.5034,-31.4001,47.6084,-25.2952,23.5065,-29.384,59.1634,-6.93638,7.39561,-21.4103
-0.363204,16.2511,-4.99286,-157.805,-8.26163,179.343,-12.058,0.163481,1.7401,-5.1481,-0.649657,2.56932,1.39452,-0.585332,1.59693,-11.3543,2.62457,0.144412,42.4208,-2.37598,-0.0322483,17.5534,-2.86049,-1.06039,-5.86415e-15,4.21423e-14,-45.603,15.3525,-89.6523,17.8389,-5.69977,20.521,3.24627,7.12502,45.0201,-20.2454,-5.86415e-15,4.21423e-14,-53.4354,-13.5194,96.0242,20.6844,5.07844,19.2626,22.9086,7.12502,43.8475,46.8481,-49.3913,6.61895,29.0751,46.1424,-52.4257,-31.8525,47.1445,-25.534,23.4957,-29.3006,59.4769,-3.75103,6.0597,-27.1581
-0.361501,16.248,-5.0157,-157.729,-8.16915,179.219,-12.1917,0.0833752,1.7288,-5.28238,-0.776166,2.55297,1.32887,-0.658007,1.56984,-10.7378,2.80011,0.152644,42.34,-2.20794,0.0381137,17.3456,-2.8154,-0.993939,-1.39149e-15,-6.52014e-14,-46.1318,16.2761,-90.4743,18.0026,-6.92323,20.4955,3.27981,7.12502,44.9964,-20.2212,-1.39149e-15,-6.52014e-14,-54.0022,-13.3264,95.9914,20.8793,5.18137,19.6797,22.6582,7.12502,44.2365,46.4523,-49.3848,6.95084,28.801,46.1666,-52.5736,-31.1386,48.2153,-25.5906,23.534,-29.3895,59.6643,-0.960642,4.43068,-31.475
-0.364894,16.2492,-5.03914,-157.568,-8.2094,178.886,-12.7043,0.0524167,1.6249,-4.80892,-0.785538,2.54725,2.10107,-0.636512,1.61372,-11.8218,2.67053,-0.204644,42.2909,-2.05153,-0.0189873,17.5988,-2.73885,-0.926482,1.17283e-14,-1.90833e-14,-45.2752,16.7902,-90.4348,17.9074,-7.96765,20.8007,2.61519,7.12502,45.2802,-20.7731,1.17283e-14,-1.90833e-14,-53.1621,-13.4857,96.0613,20.789,5.36225,20.2034,22.4515,7.12502,44.7245,46.0587,-49.4555,6.74972,28.4902,46.2103,-53.3857,-31.8531,46.5334,-25.6955,23.44,-29.7001,59.7814,1.65729,2.77946,-32.3226
-0.373048,16.2602,-5.06486,-157.421,-8.46824,178.801,-13.0628,-0.0187751,1.88184,-4.66979,-0.923092,2.57815,2.43992,-0.70222,1.47722,-12.0168,2.6698,-0.058908,42.1675,-1.83386,-0.403285,17.5702,-2.65224,-1.08294,-1.13307e-14,3.33958e-14,-44.9993,16.8693,-90.3246,17.9526,-8.5261,21.1725,2.13979,7.12502,45.6258,-21.109,-1.13307e-14,3.33958e-14,-53.0043,-13.611,96.2793,20.8453,5.73703,20.7578,22.705,7.12502,45.2404,46.1092,-49.501,5.83522,28.7793,46.2782,-52.9449,-32.0855,44.8234,-25.8379,23.318,-29.7543,59.8015,4.37997,1.56891,-35.3553
-0.376039,16.2755,-5.08473,-157.365,-8.60772,178.748,-13.1544,-0.0651247,2.06402,-4.71025,-1.01946,2.5963,2.44615,-0.755039,1.37843,-11.7427,2.73741,0.281066,42.1515,-1.70611,-0.784412,17.4835,-2.61105,-1.29477,9.0447e-15,2.22639e-14,-45.1929,17.0772,-90.4713,18.1789,-9.24176,21.6786,1.90766,7.12502,46.0955,-21.147,9.0447e-15,2.22639e-14,-53.289,-13.8248,96.6086,20.9782,6.04766,21.5171,22.8292,7.12502,45.9456,45.9464,-49.4454,5.18594,29.0509,46.3973,-52.014,-31.3987,45.2283,-26.0672,23.5084,-29.9004,59.7842,7.10862,0.112399,-42.9822
-0.379586,16.265,-5.09128,-157.309,-8.72962,178.83,-13.0098,-0.0857499,2.39852,-4.94029,-1.10773,2.64277,2.12413,-0.81712,1.22893,-11.3701,2.8325,0.21904,42.2927,-1.70292,-0.708897,17.4695,-2.64989,-1.25795,1.38155e-14,-1.27222e-14,-45.6729,17.2082,-90.6545,18.2963,-9.58212,21.8386,2.1456,7.12502,46.2438,-20.8467,1.38155e-14,-1.27222e-14,-53.8571,-13.7867,96.8387,21.1074,6.38179,21.9173,22.8828,7.12502,46.3168,45.8442,-49.498,5.094,29.2206,46.4471,-51.7181,-31.3011,46.3084,-25.9397,23.0083,-29.6499,59.553,9.25645,2.06768,-32.4669
-0.382681,16.2441,-5.09334,-157.253,-8.74932,178.772,-12.6944,-0.140495,2.57683,-5.32915,-1.21831,2.63174,1.54496,-0.899171,1.10995,-10.6927,2.98984,-0.0619864,42.4408,-1.71695,-0.371891,17.3835,-2.72017,-1.06557,-3.97569e-15,2.62396e-14,-46.4605,17.242,-90.9225,18.3532,-9.65162,21.765,2.62442,7.12502,46.1757,-20.3966,-3.97569e-15,2.62396e-14,-54.8108,-13.6255,97.0462,21.3228,6.78646,22.4305,23.1398,7.12502,46.7921,45.8971,-49.7135,5.19207,29.1165,46.5352,-51.4473,-32.2089,45.6629,-24.811,21.5373,-28.9171,59.2367,3.91672,10.005,36.8777
-0.377633,16.2716,-5.11649,-157.195,-8.62433,178.642,-12.6686,-0.167451,2.53773,-5.447,-1.25913,2.6207,1.40862,-0.927291,1.11678,-10.2581,3.06263,-0.152755,42.4423,-1.68055,-0.341273,17.2714,-2.74634,-1.02908,2.21645e-14,1.74931e-14,-46.7487,17.063,-90.8765,18.4478,-9.39764,21.8347,2.80059,7.12502,46.2403,-20.1932,2.21645e-14,1.74931e-14,-55.1758,-13.4465,97.0826,21.2414,6.79666,23.125,23.3077,7.12502,47.4344,45.7802,-49.7427,9.35902,26.5612,46.4294,-57.9242,-28.9789,50.2075,-25.9073,22.6586,-29.6566,59.2247,12.237,3.87591,-25.0241
-0.379856,16.2732,-5.12592,-157.164,-8.54145,178.654,-13.1646,-0.0494316,2.73814,-4.73883,-1.09928,2.65048,2.41276,-0.80462,1.04339,-11.7907,2.80911,-0.395238,42.4618,-1.64265,-0.529974,17.6816,-2.69559,-1.06738,-1.41137e-14,-7.95139e-15,-45.4616,17.201,-90.5115,18.4223,-10.096,22.0605,2.4347,7.12502,46.4495,-20.4703,-1.41137e-14,-7.95139e-15,-53.9183,-14.0911,97.3399,20.9303,6.92883,23.6063,23.1748,7.12502,47.8786,45.444,-49.7878,9.84891,26.291,46.3762,-58.4404,-28.9097,50.5671,-25.8604,22.513,-29.6013,59.0364,12.9402,4.10282,-23.8051
-0.388544,16.2769,-5.13658,-157.145,-8.6818,178.706,-13.3885,-0.126877,3.04046,-4.48275,-1.24679,2.77031,2.79849,-0.865298,0.970985,-12.1665,2.7812,-0.620122,42.4354,-1.51509,-0.600662,17.7642,-2.66646,-1.0362,-1.19271e-14,-3.18055e-15,-45.2879,18.0873,-90.8588,18.6116,-11.2767,22.2031,1.89099,7.12502,46.5816,-20.9574,-1.19271e-14,-3.18055e-15,-53.6706,-14.3427,97.7708,20.966,7.2795,23.8349,23.0721,7.12502,48.0894,45.2431,-49.6695,8.525,27.0676,46.2292,-56.1484,-29.7513,50.0102,-25.8517,22.1555,-29.4582,58.8728,13.6233,3.9644,-24.9788
-0.393528,16.2814,-5.14822,-157.299,-8.87785,178.811,-13.1912,-0.271271,3.34204,-4.51228,-1.47899,2.93019,2.65721,-0.985866,0.935999,-11.9025,2.82605,-0.841577,42.4488,-1.45898,-0.594603,17.7014,-2.7037,-0.985999,-2.08724e-14,1.43125e-14,-45.6689,18.7445,-91.1604,18.8483,-11.8199,22.3506,1.83794,7.12502,46.7182,-20.9514,-2.08724e-14,1.43125e-14,-53.9445,-13.8821,97.7934,21.1433,7.24872,24.3086,23.1343,7.12502,48.5257,45.0981,-49.4296,7.89772,27.5821,46.1621,-55.8829,-31.8831,47.4483,-25.7284,21.9075,-29.1785,58.5898,14.7998,2.97324,-29.5224
-0.398659,16.2881,-5.15993,-157.549,-8.90764,178.812,-12.9664,-0.283169,3.59084,-4.64281,-1.51881,2.90869,2.39204,-1.01611,0.77323,-11.3324,2.97962,-0.540057,42.4983,-1.30134,-0.897875,17.577,-2.67189,-1.15558,4.96962e-15,-3.65764e-14,-46.0458,18.0411,-90.7976,18.8914,-11.0979,22.5087,2.11827,7.12502,46.8645,-20.6074,4.96962e-15,-3.65764e-14,-54.4799,-13.5636,97.6503,21.4361,7.33904,24.6939,23.7675,7.12502,48.8799,45.559,-49.0558,7.42481,27.8603,46.0921,-55.1264,-33.2959,45.6965,-25.4242,21.7367,-28.9859,58.2932,15.9511,2.67954,-30.3493
-0.398388,16.2876,-5.16591,-157.578,-8.88596,178.716,-12.8163,-0.32573,3.66933,-4.78395,-1.58045,2.86748,2.15946,-1.05677,0.681897,-11.1637,3.1466,-0.460847,42.7669,-1.17179,-0.981269,17.6916,-2.65924,-1.20575,2.20651e-14,1.11319e-14,-46.1022,16.71,-89.9089,18.8317,-9.5531,22.7469,2.80188,7.12502,47.0849,-19.8268,2.20651e-14,1.11319e-14,-54.8984,-13.5538,97.7669,21.7098,7.68604,25.1702,24.5528,7.12502,49.3174,46.1267,-48.8451,7.04663,27.9753,46.0207,-54.4557,-32.1556,46.3879,-25.2565,21.3858,-28.8853,58.0212,16.9911,3.85581,-23.9932
-0.389817,16.2855,-5.16626,-157.416,-8.9306,178.756,-12.8148,-0.301042,3.77306,-4.86281,-1.57161,2.90201,2.07478,-1.06062,0.662058,-11.0285,3.08192,-0.672334,42.6514,-1.23863,-0.88136,17.587,-2.70416,-1.12449,5.1684e-15,-4.77083e-14,-46.1936,16.3074,-89.6219,18.8642,-9.31154,22.5869,3.66575,7.12502,46.9369,-19.0282,5.1684e-15,-4.77083e-14,-55.1718,-13.9459,98.2256,21.8887,7.96879,25.5327,24.6872,7.12502,49.6498,46.0919,-48.8861,7.03476,28.1234,45.9187,-54.3867,-31.3036,47.2093,-25.4664,21.0412,-28.7043,57.7961,18.5906,4.54982,-19.1658
-0.385881,16.2879,-5.17309,-157.396,-8.94637,178.736,-13.1216,-0.3176,3.81718,-4.51464,-1.60799,3.01768,2.60651,-1.0553,0.742303,-12.0603,3.03055,-0.555448,42.8777,-0.986558,-1.49073,17.995,-2.63008,-1.40423,-9.54166e-15,1.74931e-14,-45.6946,16.5228,-89.3815,18.8648,-9.71113,22.4259,4.27154,7.12502,46.7879,-18.4876,-9.54166e-15,1.74931e-14,-54.7603,-14.224,98.5886,21.9449,8.20995,25.7252,24.368,7.12502,49.8262,45.6815,-48.7242,6.77315,28.2989,45.7702,-54.2181,-31.0134,47.3905,-25.5769,20.8819,-28.607,57.5735,20.517,3.97918,-20.4828
-0.376653,16.2897,-5.1806,-157.387,-8.84343,178.791,-13.2501,-0.325908,3.80781,-4.41759,-1.63271,3.12415,2.78092,-1.06319,0.851431,-12.2448,3.0367,-0.534404,42.9414,-0.878532,-1.73294,18.0834,-2.61537,-1.5089,1.13307e-14,-1.74931e-14,-45.5562,16.3528,-89.1017,18.8233,-9.61864,22.1879,4.75727,7.12502,46.5676,-18.0971,1.13307e-14,-1.74931e-14,-54.662,-14.1155,98.6331,21.9633,8.1331,25.8571,24.0326,7.12502,49.9469,45.2832,-48.5469,6.56936,28.5822,45.5911,-53.9006,-30.7606,47.5363,-25.7357,20.7738,-28.4949,57.361,22.1487,3.20314,-23.0818
-0.35832,16.2838,-5.18259,-157.366,-8.67188,178.944,-13.0797,-0.292944,3.76126,-4.56287,-1.59106,3.22426,2.5414,-1.05555,0.993046,-11.9456,3.06602,-0.580875,43.0386,-0.957686,-1.67112,18.061,-2.67715,-1.49329,-1.05356e-14,5.24792e-14,-45.8283,16.0548,-88.9907,18.7226,-9.43804,22.5004,4.61718,7.12502,46.8569,-18.1118,-1.05356e-14,5.24792e-14,-54.925,-13.8324,98.4947,22.1201,7.81256,26.2944,24.0133,7.12502,50.3468,45.052,-48.4371,7.05815,28.7231,45.4536,-54.2838,-30.4358,47.9995,-25.8926,20.8109,-28.2718,57.1315,23.761,2.69326,-23.308
-0.346463,16.2782,-5.18387,-157.383,-8.47773,178.791,-12.9973,-0.282329,3.51143,-4.53334,-1.53379,3.225,2.53419,-1.02244,1.14368,-11.8347,3.02041,-0.656087,42.9441,-0.988913,-1.68305,17.9729,-2.70018,-1.48278,1.68967e-14,1.90833e-14,-46.0741,16.3034,-89.2353,18.8655,-9.95471,24.0359,2.50447,7.12502,48.2745,-19.5792,1.68967e-14,1.90833e-14,-54.9465,-13.8148,98.5201,22.1761,7.60915,26.7377,23.9753,7.12502,50.7516,44.7943,-48.2949,7.11965,28.6447,45.4113,-54.4184,-29.9311,48.3748,-25.7591,20.7414,-28.3373,56.8104,25.362,3.37803,-19.0311
-0.344114,16.2842,-5.18308,-157.39,-8.31359,178.366,-12.9618,-0.371338,3.12018,-4.50497,-1.58533,3.16692,2.55242,-1.04011,1.29555,-11.5257,3.00921,-0.729195,42.7163,-0.906966,-1.80288,17.7527,-2.69101,-1.49222,-2.64384e-14,1.74931e-14,-46.322,16.7375,-89.4525,19.0726,-10.4048,24.0033,2.41676,7.12502,48.2446,-19.6811,-2.64384e-14,1.74931e-14,-55.1245,-13.8287,98.7932,21.9784,7.24774,26.5611,22.8094,7.12502,50.5904,43.7165,-48.3303,6.72282,28.3182,45.5088,-54.0076,-30.268,48.1395,-25.5006,20.4317,-28.6592,56.4121,26.9451,6.27404,-7.87359
-0.33847,16.304,-5.18269,-157.363,-8.34474,178.441,-13.084,-0.384196,3.27568,-4.46305,-1.63688,3.23276,2.66057,-1.06627,1.26655,-11.1692,3.02789,-0.92503,42.4387,-0.804778,-1.7307,17.4941,-2.66113,-1.38234,-1.59028e-15,8.5875e-14,-46.3482,16.7155,-89.3248,19.0903,-10.3212,24.3002,2.19074,7.12502,48.5179,-19.7768,-1.59028e-15,8.5875e-14,-54.9588,-13.5791,98.5906,22.3055,7.76095,27.1886,24.4593,7.12502,51.1626,45.0495,-48.5335,7.10678,28.1738,45.6091,-55.0475,-32.2235,45.5974,-25.4204,20.0208,-28.4017,56.0862,27.7699,10.0666,5.5199
-0.333965,16.3215,-5.18359,-157.38,-8.46605,178.608,-13.1952,-0.409722,3.54372,-4.36554,-1.72061,3.34261,2.81907,-1.10591,1.21484,-11.5895,3.1269,-0.916639,42.7633,-0.63597,-1.87922,17.7992,-2.6247,-1.45031,-4.17448e-15,-3.33958e-14,-46.1751,16.593,-89.0998,18.9245,-10.1766,24.5569,2.23456,7.12502,48.754,-19.6186,-4.17448e-15,-3.33958e-14,-54.7028,-13.3478,98.4574,22.2991,7.67125,27.4998,24.6709,7.12502,51.4458,45.1,-48.5591,6.66193,28.6337,45.725,-53.0278,-32.3691,46.6235,-25.3212,19.6918,-28.0818,55.766,27.624,12.8897,13.8371
-0.329882,16.3118,-5.18181,-157.422,-8.40433,178.375,-13.324,-0.490759,3.38375,-4.17973,-1.7974,3.31471,3.08674,-1.12887,1.25919,-11.8206,3.12318,-0.915875,42.7819,-0.562366,-1.9951,17.8729,-2.60133,-1.49421,2.46493e-14,-4.29375e-14,-45.8793,16.7384,-89.0989,18.6165,-10.2734,24.6457,2.49853,7.12502,48.8356,-19.3148,2.46493e-14,-4.29375e-14,-54.5528,-13.7198,98.8995,22.209,8.08601,27.4622,23.7982,7.12502,51.4116,44.247,-48.6022,7.70632,27.7831,45.6963,-54.9564,-32.3762,45.7758,-25.2265,19.5002,-28.2584,55.5571,27.1002,15.1595,19.758
-0.32669,16.308,-5.18464,-157.371,-8.2441,177.991,-13.476,-0.53305,3.04066,-4.08601,-1.79882,3.22342,3.27401,-1.11965,1.35255,-11.8956,3.06887,-0.782783,42.7247,-0.561999,-2.22434,17.8592,-2.60168,-1.62143,5.36719e-15,-6.36111e-14,-45.9977,17.0144,-89.3263,18.5927,-10.6481,24.6872,2.54874,7.12502,48.8738,-19.2458,5.36719e-15,-6.36111e-14,-54.7338,-14.3371,99.6298,22.2351,8.89646,26.8671,23.076,7.12502,50.8696,43.8298,-48.647,8.03846,27.1086,45.6417,-55.1273,-31.8699,47.6085,-25.2352,19.4253,-28.6772,55.3252,28.0945,16.1088,20.624
-0.317525,16.3054,-5.18492,-157.282,-8.31991,177.95,-13.4826,-0.513786,3.06952,-4.17939,-1.78311,3.20416,3.17833,-1.11782,1.31954,-11.9745,3.0504,-0.698905,42.8936,-0.632224,-2.32275,17.9818,-2.64462,-1.71001,-9.93923e-15,-9.54166e-15,-46.3191,16.8588,-89.4054,18.5338,-10.7016,24.6172,2.60802,7.12502,48.8095,-19.2181,-9.93923e-15,-9.54166e-15,-55.0496,-14.6077,99.93,22.2719,9.29796,26.4241,22.494,7.12502,50.4653,43.4689,-48.6686,8.27838,26.9692,45.5009,-55.2229,-31.4352,50.0953,-25.415,19.2621,-28.6641,55.228,28.7145,17.1609,22.0018
-0.310263,16.3062,-5.18945,-157.591,-8.18397,178.047,-13.1876,-0.46959,3.1705,-4.17486,-1.72209,3.25646,3.0217,-1.08818,1.33241,-11.8142,3.11902,-0.702459,42.9463,-0.519662,-2.44809,17.9722,-2.63344,-1.75251,8.34896e-15,-9.54166e-15,-46.6185,16.6673,-89.3158,18.4426,-10.4931,24.4718,3.12245,7.12502,48.6758,-18.7688,8.34896e-15,-9.54166e-15,-55.1641,-14.3812,99.8702,22.2354,9.31119,26.7003,22.3143,7.12502,50.7175,43.152,-48.2487,8.56012,27.0263,45.3904,-55.4864,-31.1199,48.896,-25.1386,19.4217,-28.4668,55.1791,28.4411,18.81,25.7223
-0.300791,16.3109,-5.18215,-157.66,-8.11031,178.132,-12.9618,-0.44998,3.2744,-4.2746,-1.70642,3.31125,2.79373,-1.08847,1.33883,-11.4754,3.21732,-0.56874,42.8687,-0.332875,-2.68885,17.8385,-2.58039,-1.84879,1.39149e-15,-4.13472e-14,-46.9706,16.656,-89.3257,18.4305,-10.3092,24.5306,3.21272,7.12502,48.7298,-18.6523,1.39149e-15,-4.13472e-14,-55.2122,-14.0512,99.6556,22.341,9.38312,27.209,22.8973,7.12502,51.1811,43.477,-48.1393,8.79366,27.0698,45.2598,-55.6642,-31.0995,48.3615,-25.2727,19.5532,-28.3697,55.2736,28.0139,20.3411,28.7876
-0.294769,16.3179,-5.1726,-157.513,-8.08575,177.995,-12.9204,-0.416343,3.2856,-4.3671,-1.66064,3.24416,2.67215,-1.07064,1.27115,-11.4423,3.24324,-0.517917,42.9146,-0.29995,-2.75092,17.8584,-2.57275,-1.88479,1.53064e-14,-6.99722e-14,-46.9475,16.0672,-88.9643,18.1737,-9.64659,25.1021,2.39371,7.12502,49.2549,-19.2116,1.53064e-14,-6.99722e-14,-55.2127,-14.0065,99.5406,22.6175,9.57047,27.5589,23.4141,7.12502,51.4995,43.8124,-48.2999,8.5575,27.0244,45.198,-55.095,-31.6205,48.0748,-25.595,19.5656,-28.566,55.3373,27.1248,21.6176,31.7339
-0.28152,16.3205,-5.16541,-157.536,-7.93668,178.028,-12.7284,-0.316405,3.32229,-4.42426,-1.52208,3.22186,2.50665,-1.00572,1.25162,-11.5094,3.23121,-0.596761,43.0055,-0.361271,-2.63688,17.9295,-2.59971,-1.83558,-1.27222e-14,-1.90833e-14,-46.8841,15.2282,-88.4126,17.8147,-8.94864,25.3448,2.26865,7.12502,49.4775,-19.2242,-1.27222e-14,-1.90833e-14,-55.3059,-14.0927,99.5671,22.8067,9.80544,27.519,23.4456,7.12502,51.4632,43.8647,-48.2773,8.83138,27.0348,45.1932,-55.1793,-31.7258,48.1908,-25.8113,19.7204,-28.5642,55.4258,28.6441,21.9714,30.6256
-0.273676,16.3272,-5.16581,-157.808,-7.67081,178.038,-12.5349,-0.259841,3.36639,-4.32056,-1.42688,3.17808,2.50766,-0.950533,1.19693,-11.5421,3.22596,-0.569845,43.0307,-0.359322,-2.7054,17.9539,-2.60679,-1.87532,-1.15295e-14,-4.45278e-14,-46.9018,14.8254,-88.1956,17.6398,-8.50034,25.4032,3.02684,7.12502,49.531,-18.4387,-1.15295e-14,-4.45278e-14,-55.2487,-13.9277,99.4259,22.6589,9.84396,27.1296,23.0584,7.12502,51.1088,43.6789,-47.8344,8.51687,27.3369,45.2372,-55.0007,-31.0724,48.6039,-25.6447,20.0089,-28.525,55.4514,29.6258,22.4737,30.7092
-0.26957,16.3423,-5.15802,-157.979,-7.77993,177.982,-12.4372,-0.317749,3.48145,-4.2444,-1.49852,3.13098,2.52969,-0.979457,1.07372,-11.3217,3.18571,-0.550146,42.8887,-0.402353,-2.76066,17.8083,-2.62603,-1.89883,-8.15017e-15,-2.06736e-14,-46.9575,14.6395,-88.1932,17.5395,-8.37632,25.4286,2.90618,7.12502,49.5544,-18.5474,-8.15017e-15,-2.06736e-14,-55.1822,-13.8497,99.2777,22.636,9.91585,27.162,23.1437,7.12502,51.1383,43.7476,-47.4784,7.5184,27.7991,45.3768,-54.846,-29.7646,49.2841,-25.5529,19.9488,-28.4805,55.4573,30.4876,22.7246,31.0566
-0.262512,16.3428,-5.13132,-157.864,-7.8552,177.778,-12.2645,-0.405952,3.40268,-4.36302,-1.59117,3.06856,2.31164,-1.02993,1.04422,-11.0271,3.20238,-0.598478,42.8379,-0.461721,-2.63829,17.6977,-2.65309,-1.83758,2.54444e-14,-7.95139e-15,-47.1413,14.6433,-88.3279,17.5348,-8.42787,25.601,2.65194,7.12502,49.7124,-18.7205,2.54444e-14,-7.95139e-15,-55.259,-13.7538,99.1554,22.7528,9.8981,27.4747,23.1413,7.12502,51.4229,43.5836,-47.8494,7.65125,27.4481,45.3828,-54.6363,-30.6731,48.1662,-25.8658,19.6706,-28.7274,55.5694,30.2932,23.6774,32.9939
-0.251888,16.3498,-5.10802,-157.697,-7.71969,177.412,-12.3961,-0.497143,3.01775,-4.24728,-1.65681,3.01716,2.51221,-1.04995,1.19375,-11.1295,3.16578,-0.779255,42.6528,-0.398326,-2.59005,17.6148,-2.62536,-1.75625,-5.96354e-15,9.54166e-15,-46.8139,14.6964,-88.2373,17.3306,-8.21901,25.6852,2.86781,7.12502,49.7895,-18.4647,-5.96354e-15,9.54166e-15,-55.0029,-13.8014,99.2191,22.9262,10.3749,27.5236,23.0062,7.12502,51.4674,43.4229,-47.959,7.39121,27.1868,45.3973,-55.4598,-30.0991,46.7232,-26.2587,19.5556,-29.2308,55.649,30.9083,23.3426,32.1322
-0.231249,16.3406,-5.09327,-157.59,-7.64641,177.293,-12.684,-0.571695,2.75236,-4.0312,-1.72818,3.05843,2.90295,-1.07149,1.36769,-11.4547,3.16038,-1.04387,42.5657,-0.282512,-2.45831,17.6493,-2.57564,-1.62086,-2.24627e-14,4.92986e-14,-46.4843,14.929,-88.3023,17.2104,-8.11768,25.6322,3.01881,7.12502,49.741,-18.3389,-2.24627e-14,4.92986e-14,-54.6827,-13.9861,99.4129,22.9572,11.0862,27.2465,22.8515,7.12502,51.2152,43.412,-48.3681,9.11795,26.1996,45.1879,-56.1224,-31.5015,47.4093,-26.7724,19.5447,-29.4394,55.8106,32.8944,21.3886,27.4923
-0.220739,16.3399,-5.08313,-157.686,-7.83583,177.465,-12.5805,-0.636921,3.0328,-4.06472,-1.84986,3.10296,2.80552,-1.13542,1.24093,-11.4973,3.28618,-1.07473,42.8247,-0.208746,-2.37394,17.8157,-2.56802,-1.58544,-1.92821e-14,-6.99722e-14,-46.6927,14.8217,-88.3561,17.2911,-7.86398,25.609,2.82247,7.12502,49.7197,-18.5462,-1.92821e-14,-6.99722e-14,-54.9927,-14.1728,99.7363,23.0896,11.7113,27.0577,22.9511,7.12502,51.0433,43.6083,-48.3345,9.81137,26.0756,45.0113,-56.3833,-31.8278,48.3022,-26.8863,19.4021,-29.1728,55.8758,33.4508,21.4959,27.5128
-0.223616,16.3443,-5.07539,-157.919,-7.92853,177.678,-12.3517,-0.625369,3.52305,-4.11076,-1.88456,3.09737,2.61784,-1.1581,0.960374,-11.4198,3.41229,-0.955566,43.0809,-0.123107,-2.48321,17.9521,-2.56472,-1.66564,2.38542e-15,-1.59028e-14,-46.9731,14.5982,-88.3317,17.3315,-7.62255,25.7887,2.78644,7.12502,49.8843,-18.4968,2.38542e-15,-1.59028e-14,-55.1088,-13.7334,99.4478,23.012,11.4976,27.0039,23.2665,7.12502,50.9943,43.9511,-47.9816,9.32943,26.5223,44.8021,-55.8378,-31.7138,48.3841,-26.691,19.2412,-28.9031,55.8788,33.1679,22.2919,28.9649
-0.227715,16.3483,-5.06492,-158.155,-7.87239,177.717,-12.1161,-0.541332,3.84408,-4.0851,-1.78576,3.00122,2.50428,-1.10749,0.698942,-11.3166,3.38677,-0.9126,43.0833,-0.176907,-2.53653,17.9255,-2.59219,-1.70768,-7.95139e-15,-7.95139e-14,-47.2061,14.4811,-88.479,17.2558,-7.57876,25.7043,3.07998,7.12502,49.8069,-18.2435,-7.95139e-15,-7.95139e-14,-54.9961,-13.3782,98.961,22.9026,11.1188,27.3291,23.1196,7.12502,51.2904,43.6375,-47.6856,8.81634,26.7742,44.7216,-55.1024,-31.6858,48.5001,-26.3978,19.1338,-28.8612,55.785,32.8341,22.9304,29.939
-0.216686,16.3476,-5.04392,-158.248,-7.87046,177.726,-11.7437,-0.545758,3.86887,-4.19101,-1.7713,3.017,2.19082,-1.10749,0.712843,-11.1192,3.37376,-0.938226,43.004,-0.1584,-2.64434,17.8251,-2.60849,-1.74363,9.93923e-16,-3.18055e-15,-47.578,14.6292,-88.6533,17.4074,-7.73285,25.8673,2.67862,7.12502,49.9562,-18.5671,9.93923e-16,-3.18055e-15,-54.9486,-13.0216,98.6855,22.6962,10.9176,27.4989,22.7544,7.12502,51.445,43.184,-47.6725,8.89159,26.7999,44.6952,-55.5497,-32.0211,47.7016,-26.3711,18.9697,-28.8441,55.6827,32.6753,23.4248,30.3949
-0.195916,16.3479,-5.02426,-158.159,-7.68095,177.41,-11.6142,-0.649827,3.3363,-4.26161,-1.83454,2.99806,2.06122,-1.13697,0.987118,-10.9096,3.44278,-0.789128,42.8163,0.0462247,-2.90356,17.6629,-2.53011,-1.84037,-7.7526e-15,-7.95139e-15,-47.7924,14.8488,-88.7939,17.6658,-7.81535,26.1934,2.08739,7.12502,50.2545,-19.0007,-7.7526e-15,-7.95139e-15,-54.9209,-12.9125,98.7602,22.5062,11.2238,27.6265,22.4993,7.12502,51.561,42.8622,-47.8769,9.45,26.2735,44.7108,-56.4447,-32.4051,46.7032,-26.513,18.8775,-29.2661,55.526,32.6832,23.1985,29.8343
-0.180963,16.3529,-5.01206,-158.124,-7.64938,177.27,-11.7141,-0.714851,3.14984,-4.20744,-1.89607,2.94786,2.17571,-1.16095,1.02833,-10.8655,3.47807,-0.421366,42.6552,0.184928,-3.21838,17.5639,-2.44043,-2.01539,2.18663e-15,1.11319e-14,-47.8987,15.1348,-89.1504,17.8936,-8.29082,26.4084,1.74819,7.12502,50.451,-19.2345,2.18663e-15,1.11319e-14,-54.9964,-13.3547,99.1906,22.4616,12.047,27.509,22.0674,7.12502,51.4541,42.4918,-47.9546,9.48868,26.142,44.6879,-55.7745,-32.4803,47.4378,-26.5753,18.8449,-29.4731,55.389,33.1969,21.9291,27.5332
-0.175377,16.355,-4.99923,-158.23,-7.7819,177.306,-11.65,-0.80652,3.27461,-4.10236,-2.01982,2.96625,2.24616,-1.21578,0.961012,-11.163,3.47326,-0.324095,42.677,0.248558,-3.36108,17.6594,-2.40853,-2.09295,1.66979e-14,-7.31528e-14,-47.8894,15.5298,-89.4575,18.0666,-8.76115,26.3649,1.66193,7.12502,50.4113,-19.3422,1.66979e-14,-7.31528e-14,-54.8627,-13.2682,99.1212,22.4287,12.2149,27.5057,21.7964,7.12502,51.4511,42.2225,-47.8505,9.25451,26.2789,44.6552,-55.285,-32.0049,48.5011,-26.3996,18.7258,-29.429,55.2337,33.6404,21.2445,25.924
-0.168454,16.351,-4.98487,-158.437,-7.67345,177.417,-11.4078,-0.828887,3.39115,-4.01801,-2.04312,3.01216,2.19938,-1.2229,0.945012,-11.2926,3.4579,-0.536613,42.6191,0.285057,-3.27008,17.6576,-2.40765,-2.00239,1.19271e-14,-4.77083e-15,-47.9279,15.9067,-89.6909,18.0914,-9.10038,26.2641,1.85066,7.12502,50.3191,-19.2029,1.19271e-14,-4.77083e-15,-54.8543,-13.1921,99.1957,22.5986,12.3897,27.3637,21.7734,7.12502,51.322,42.2734,-47.6667,9.16029,26.4835,44.6066,-55.1114,-31.993,49.0386,-26.0492,18.8175,-29.3541,55.0496,33.5902,21.2508,26.1537
-0.159021,16.3486,-4.97215,-158.465,-7.56333,177.36,-11.4538,-0.852206,3.31663,-3.97153,-2.06389,2.99422,2.27454,-1.22929,0.96352,-11.1979,3.41109,-0.708139,42.4395,0.254677,-3.1539,17.5229,-2.41953,-1.90701,-2.5842e-14,7.15625e-14,-47.986,16.2164,-89.9656,18.0322,-9.39895,25.9948,2.01011,7.12502,50.0729,-19.1743,-2.5842e-14,7.15625e-14,-54.9598,-13.2352,99.3313,22.7563,12.5964,27.2555,21.6242,7.12502,51.2235,42.18,-47.6892,8.95896,26.5341,44.6007,-54.6704,-32.3468,49.3601,-25.8692,18.8654,-29.4928,54.8144,33.4461,20.566,25.2311
-0.149177,16.3515,-4.95405,-158.42,-7.69816,177.238,-11.4548,-0.943618,3.26333,-4.02061,-2.1761,2.9534,2.22362,-1.28609,0.937186,-11.0003,3.41974,-0.724007,42.3066,0.25026,-3.07674,17.3922,-2.40946,-1.85733,1.41137e-14,2.22639e-14,-48.237,16.4978,-90.2327,18.4279,-9.91521,26.2375,1.5258,7.12502,50.2948,-19.5407,1.41137e-14,2.22639e-14,-55.1386,-13.3946,99.5736,22.8947,13.1163,27.3276,21.8417,7.12502,51.2891,42.3603,-47.7976,8.58135,26.5619,44.609,-54.2079,-32.4037,48.7267,-25.7813,18.6843,-29.622,54.5792,33.259,20.509,25.505
-0.140204,16.3501,-4.93162,-158.518,-7.72954,177.07,-11.3067,-1.01981,3.08445,-3.93454,-2.23622,2.95052,2.23822,-1.30745,1.02919,-11.0888,3.42005,-0.788745,42.3216,0.273399,-3.0638,17.4239,-2.40586,-1.8372,1.37161e-14,7.79236e-14,-48.3442,16.8344,-90.354,18.8028,-10.4382,25.9815,2.42277,7.12502,50.0608,-18.768,1.37161e-14,7.79236e-14,-54.9714,-13.4295,99.7333,22.9374,13.5242,27.5049,22.3999,7.12502,51.4504,42.8264,-47.776,8.32513,26.4895,44.6375,-53.9651,-32.4598,48.0987,-25.4232,18.4909,-29.7675,54.3146,31.8905,22.4,30.1011
-0.126252,16.3468,-4.91084,-158.593,-7.6403,177.053,-11.321,-1.00478,2.9659,-3.7166,-2.18641,2.9226,2.4759,-1.26778,1.06903,-11.4906,3.35789,-0.707162,42.3293,0.245324,-3.09387,17.5347,-2.38457,-1.87151,1.47101e-14,3.97569e-14,-48.2642,17.2501,-90.7034,19.1471,-11.2128,25.8761,2.35894,7.12502,49.9643,-18.8825,1.47101e-14,3.97569e-14,-54.5567,-13.6274,99.7031,22.8758,13.7353,27.5412,22.4176,7.12502,51.4834,42.8251,-47.8023,8.40853,26.4785,44.6405,-53.8133,-32.8164,47.8294,-25.1831,18.4743,-29.817,54.0848,30.3981,23.6326,32.8859
-0.113315,16.3458,-4.89751,-158.535,-7.60594,177.036,-11.3881,-1.04067,2.87333,-3.71957,-2.22632,2.90997,2.51237,-1.28707,1.10079,-11.6629,3.37745,-0.59422,42.3583,0.281026,-3.13527,17.5995,-2.3533,-1.90864,-1.25234e-14,-7.95139e-15,-48.2782,17.2535,-90.7235,19.2854,-11.2218,26.3787,1.47308,7.12502,50.4239,-19.5242,-1.25234e-14,-7.95139e-15,-54.4752,-13.4084,99.4937,22.8144,13.4584,27.6122,21.9884,7.12502,51.5479,42.3588,-47.886,8.26546,26.54,44.5987,-53.7592,-32.5099,48.0284,-25.1689,18.5677,-29.9571,53.9001,30.4427,22.5198,31.1097
-0.103998,16.3507,-4.87715,-158.498,-7.71793,176.826,-11.2742,-1.17248,2.65558,-3.82056,-2.36952,2.89503,2.35278,-1.36098,1.1936,-11.4777,3.41822,-0.624281,42.3115,0.322886,-3.12299,17.5236,-2.34733,-1.88673,1.64991e-14,1.59028e-14,-48.2484,17.0765,-90.5061,19.0569,-10.8377,25.994,2.192,7.12502,50.0721,-18.9928,1.64991e-14,1.59028e-14,-54.6079,-13.0173,99.3003,22.7966,13.1622,27.5326,21.638,7.12502,51.4756,42.0501,-47.9246,7.75721,26.5151,44.5009,-53.0968,-32.6087,47.7378,-25.1325,18.5587,-30.264,53.7853,30.757,21.6053,29.0377
-0.0976927,16.3569,-4.85429,-158.542,-8.03363,177.133,-11.2157,-1.24363,3.0238,-3.79724,-2.51182,3.026,2.33628,-1.43455,1.10616,-11.4943,3.4174,-0.689446,42.2821,0.329467,-3.07474,17.5098,-2.34558,-1.84928,1.19271e-15,-7.79236e-14,-48.0435,17.0427,-90.3354,18.8486,-10.7599,25.8529,2.50346,7.12502,49.9431,-18.7491,1.19271e-15,-7.79236e-14,-54.5374,-12.8423,99.2788,22.6951,12.9093,27.5101,21.3849,7.12502,51.4551,41.8087,-47.9044,7.27618,27.0821,44.3618,-52.5263,-32.6817,47.4631,-25.1193,18.5293,-29.9553,53.7582,30.9865,20.6024,27.0548
-0.0855899,16.3566,-4.83559,-158.503,-8.26236,177.536,-11.2832,-1.27475,3.41936,-3.81734,-2.61943,3.167,2.34195,-1.49527,1.01549,-11.4379,3.46382,-0.771485,42.309,0.34738,-2.94391,17.5091,-2.34004,-1.77307,1.19271e-15,9.54166e-15,-48.1122,17.146,-90.3956,19.0612,-11.2286,25.801,2.37138,7.12502,49.8955,-18.906,1.19271e-15,9.54166e-15,-54.6206,-13.0735,99.6568,22.6229,13.1772,27.207,21.0601,7.12502,51.1793,41.6409,-47.9918,7.39383,27.5181,44.2356,-53.1212,-32.5958,47.0708,-25.2792,18.599,-29.5708,53.7532,30.9941,19.0516,24.2658
-0.0756889,16.3543,-4.82615,-158.373,-8.5228,177.563,-11.4291,-1.35535,3.4755,-3.96161,-2.75365,3.18904,2.26951,-1.57192,0.987762,-10.953,3.48552,-0.717435,42.1215,0.322642,-2.90325,17.2722,-2.34014,-1.75187,1.96797e-14,3.33958e-14,-48.577,17.2196,-90.5667,19.4957,-11.6748,25.3609,2.83793,7.12502,49.4923,-18.6474,1.96797e-14,3.33958e-14,-54.9414,-13.1625,99.9454,22.6419,13.192,27.0561,21.057,7.12502,51.0419,41.715,-48.1259,7.18131,27.6564,44.1432,-53.2945,-32.9958,46.1166,-25.2929,18.4733,-29.5425,53.7164,29.5253,19.4065,26.1521
-0.0711199,16.3555,-4.81304,-158.336,-8.72101,177.465,-11.4121,-1.4053,3.48016,-4.03812,-2.81689,3.13257,2.17706,-1.60654,0.920776,-10.7884,3.48402,-0.633455,42.1306,0.262085,-2.90984,17.2342,-2.36108,-1.78054,1.0138e-14,-3.81667e-14,-48.6858,16.8339,-90.3526,19.4858,-11.4026,25.7735,2.2343,7.12502,49.8704,-19.0562,1.0138e-14,-3.81667e-14,-55.0204,-13.002,99.8258,22.5273,12.7476,26.9772,20.996,7.12502,50.97,41.6942,-48.1547,6.22558,27.9541,44.0721,-51.9861,-32.9262,46.4311,-25.1582,18.2259,-29.6664,53.6854,27.4241,20.9198,30.1036
-0.0591856,16.3564,-4.7845,-158.333,-8.78487,177.564,-11.2677,-1.41713,3.57111,-4.00902,-2.82891,3.12592,2.12365,-1.61074,0.866105,-11.0202,3.4822,-0.50506,42.171,0.265845,-2.93481,17.3196,-2.33303,-1.81809,-2.22639e-14,-1.74931e-14,-48.4593,16.6715,-90.2183,19.4435,-11.377,25.9548,2.19644,7.12502,50.0363,-19.0072,-2.22639e-14,-1.74931e-14,-54.8631,-12.887,99.5581,22.5207,12.4813,26.7192,20.6477,7.12502,50.7347,41.476,-48.2279,6.1385,28.1302,44.0076,-51.7003,-32.2031,47.5784,-25.2378,18.2996,-29.6665,53.6985,25.4365,23.0009,34.3114
-0.0436408,16.3562,-4.76001,-158.351,-9.0075,177.846,-11.3785,-1.46563,3.81336,-3.82994,-2.92665,3.20456,2.36207,-1.65048,0.791666,-11.4452,3.45907,-0.409034,42.1984,0.27806,-2.94181,17.4483,-2.29218,-1.8393,1.03368e-14,-8.11041e-14,-48.0523,16.6414,-90.0951,19.5507,-11.4761,25.8119,2.32204,7.12502,49.9055,-18.9502,1.03368e-14,-8.11041e-14,-54.4712,-12.6784,99.2087,22.5064,12.275,26.4415,20.4268,7.12502,50.4812,41.3931,-48.3029,6.24664,28.4479,43.948,-52.2437,-32.0868,47.1382,-25.3815,18.4832,-29.3983,53.746,23.9598,24.4339,36.9931
-0.035511,16.3596,-4.74525,-158.424,-9.34374,177.943,-11.3806,-1.58406,3.98554,-3.75217,-3.10053,3.23902,2.43505,-1.73222,0.706986,-11.5391,3.47916,-0.347308,42.1943,0.326483,-2.98322,17.4726,-2.26289,-1.8612,5.12864e-14,-3.49861e-14,-47.8474,16.5998,-90.0404,19.4019,-11.6824,25.4535,2.37285,7.12502,49.5772,-19.0691,5.12864e-14,-3.49861e-14,-54.394,-12.4915,99.0703,22.4051,12.0354,26.1873,19.9804,7.12502,50.2489,41.0714,-48.2509,5.76827,28.7706,43.9228,-52.6331,-32.3045,45.275,-25.3207,18.4178,-29.2381,53.7653,23.8283,23.8716,36.3546
-0.00864245,16.3589,-4.7269,-158.28,-9.20719,177.561,-11.2727,-1.674,3.2974,-3.85413,-3.12643,3.18177,2.30208,-1.74473,1.03504,-11.3616,3.52634,-0.363043,42.1108,0.353339,-2.84645,17.3766,-2.23424,-1.78293,1.90833e-14,0,-47.9541,16.4182,-89.9719,19.3389,-11.8655,25.0687,2.12375,7.12502,49.2242,-19.497,1.90833e-14,0,-54.484,-12.5237,99.1739,22.1478,11.9516,25.9754,19.4429,7.12502,50.0551,40.6367,-48.4624,6.59917,28.0486,43.97,-53.9384,-32.4251,44.6515,-25.4973,18.4805,-29.7666,53.7318,24.2119,22.5273,33.9171
0.0381719,16.3462,-4.70793,-158.039,-8.65543,177.085,-11.3307,-1.69237,2.11741,-3.85509,-3.00972,3.12627,2.38861,-1.67785,1.65038,-11.3744,3.55106,-0.361046,41.9686,0.414313,-2.73338,17.2977,-2.17374,-1.70833,1.25234e-14,5.40694e-14,-47.8236,15.9718,-89.6255,19.4264,-11.5288,25.2535,1.19533,7.12502,49.3938,-20.34,1.25234e-14,5.40694e-14,-54.3733,-12.5713,99.1625,21.9956,11.9103,25.702,19.1374,7.12502,49.8048,40.462,-48.9079,8.67351,26.7407,44.0868,-56.2258,-31.9849,46.0075,-25.8235,18.7467,-30.5121,53.6843,23.7686,22.4292,33.797
0.0389884,16.3471,-4.68796,-158.074,-9.19451,177.06,-11.2984,-1.81888,2.37416,-3.74953,-3.1903,3.07585,2.46711,-1.7604,1.42926,-11.4918,3.52177,-0.323157,41.7626,0.430326,-2.62558,17.2094,-2.11178,-1.64512,-2.18663e-15,2.06736e-14,-47.6267,15.8128,-89.5842,19.5153,-11.5282,24.1033,3.2936,7.12502,48.3367,-18.7606,-2.18663e-15,2.06736e-14,-54.0598,-12.4513,98.783,21.9068,11.4928,25.5492,18.8552,7.12502,49.6649,40.2521,-48.9849,7.87404,27.0091,44.2012,-55.4557,-31.6763,46.8673,-25.5748,18.2473,-30.3837,53.5872,22.9483,22.558,34.8138
0.0477029,16.3435,-4.67294,-158.039,-9.43901,176.909,-11.3803,-1.91677,2.25163,-3.64294,-3.29726,3.03321,2.62786,-1.80534,1.43337,-11.6267,3.48178,-0.280121,41.6253,0.41639,-2.56668,17.1654,-2.07677,-1.61666,-3.97569e-15,-1.27222e-14,-47.459,15.8325,-89.6018,19.5494,-11.5513,23.4462,4.86942,7.12502,47.7309,-17.468,-3.97569e-15,-1.27222e-14,-53.7785,-12.2577,98.415,21.9064,11.254,25.4522,18.8592,7.12502,49.576,40.3017,-49.123,7.56726,26.9562,44.2703,-53.8059,-30.8685,49.6592,-25.4426,17.8798,-30.4639,53.5225,22.2198,22.7215,35.725
0.051631,16.3461,-4.66675,-158.042,-9.60374,176.907,-11.7074,-1.9677,2.32868,-3.4554,-3.37911,3.00102,2.99676,-1.83596,1.32716,-11.7195,3.45996,-0.221586,41.5144,0.416186,-2.53702,17.1266,-2.0433,-1.60433,-4.79071e-14,2.70347e-14,-47.1454,15.5642,-89.3945,19.5313,-10.8523,24.0937,3.27172,7.12502,48.3278,-18.7867,-4.79071e-14,2.70347e-14,-53.4755,-12.1897,98.1645,21.9449,11.5327,25.1664,19.0847,7.12502,49.3139,40.6603,-49.1109,6.83351,27.2821,44.2552,-54.5282,-31.733,46.7722,-25.3828,17.7632,-30.4478,53.495,22.4522,22.0669,34.4839
0.0598308,16.3511,-4.65264,-158.104,-9.80522,177.069,-11.813,-1.95605,2.53168,-3.33114,-3.38848,3.00156,3.17285,-1.83417,1.20531,-11.7662,3.39878,-0.133576,41.3489,0.366658,-2.51987,17.0445,-2.02255,-1.60716,3.10104e-14,2.54444e-14,-47.1071,15.4559,-89.399,19.7236,-10.3579,24.4377,2.26764,7.12502,48.6444,-19.6388,3.10104e-14,2.54444e-14,-53.2635,-12.4914,98.2068,22.0094,11.9466,24.9365,19.2904,7.12502,49.1029,40.9718,-49.028,6.49666,27.6303,44.1747,-54.8372,-31.6595,46.1073,-25.4357,17.7267,-30.2449,53.5794,23.1378,20.9166,32.3018
0.0846005,16.3494,-4.62167,-158.037,-9.8898,177.038,-11.4532,-1.99297,2.32757,-3.51764,-3.39876,2.99985,2.7929,-1.84772,1.33634,-11.6522,3.40444,-0.143949,41.3266,0.316466,-2.38911,17.0005,-2.0296,-1.55274,1.23246e-14,-1.43125e-14,-47.5611,15.7309,-89.8553,20.0183,-10.634,24.4141,1.38605,7.12502,48.6227,-20.5309,1.23246e-14,-1.43125e-14,-53.4154,-12.6386,98.303,21.8109,11.8907,24.653,18.8131,7.12502,48.8424,40.6231,-49.21,7.13708,27.3531,44.0626,-55.4724,-31.6384,46.8042,-25.7153,17.7568,-30.2643,53.7132,23.6147,19.9122,30.7049
0.115067,16.3489,-4.58486,-157.719,-10.1691,176.96,-11.2316,-2.07753,2.02666,-3.77094,-3.47836,3.04311,2.42883,-1.89854,1.5553,-11.7821,3.40562,-0.345514,41.5211,0.192524,-2.04614,17.138,-2.07797,-1.39522,2.18663e-15,-4.13472e-14,-47.8919,16.0062,-90.2512,20.2232,-11.0543,24.3738,0.920314,7.12502,48.5856,-21.0146,2.18663e-15,-4.13472e-14,-53.7113,-13.1696,98.8614,21.7565,12.0874,24.1842,17.9271,7.12502,48.4111,39.9458,-49.7038,7.88182,26.9565,43.9578,-56.3319,-31.8591,47.4123,-26.2872,17.4699,-30.285,53.8704,23.5406,19.6578,30.4694
0.12174,16.3542,-4.57615,-157.914,-10.3898,177.018,-11.0839,-2.11007,2.09409,-3.70223,-3.51564,3.05419,2.4168,-1.91279,1.52898,-11.7824,3.35597,-0.589062,41.5381,0.0537793,-1.73622,17.142,-2.13072,-1.23456,3.12092e-14,1.11319e-14,-48.118,16.2256,-90.5397,20.5237,-11.1834,24.0342,1.57674,7.12502,48.273,-20.5077,3.12092e-14,1.11319e-14,-53.7809,-13.3292,99.0168,21.7365,11.8218,23.8387,17.3764,7.12502,48.0929,39.5457,-49.4596,7.6688,27.1404,43.8963,-56.2942,-31.807,47.389,-26.0642,17.4549,-30.0575,53.8875,23.6922,19.2467,29.936
0.12277,16.3617,-4.57277,-158.014,-10.4796,176.997,-11.1418,-2.10955,2.14935,-3.61623,-3.51486,3.00236,2.53135,-1.90724,1.4395,-11.7748,3.34952,-0.62637,41.5437,0.0158863,-1.63794,17.1421,-2.13695,-1.18919,1.45113e-14,1.43125e-14,-48.2351,16.1872,-90.6422,20.7143,-10.7836,23.3107,3.33331,7.12502,47.6058,-19.0614,1.45113e-14,1.43125e-14,-53.7389,-13.1515,98.7522,21.9521,11.693,23.8544,17.7715,7.12502,48.1073,39.9341,-49.3148,7.20096,27.3229,43.8897,-55.8888,-31.7577,47.2094,-25.8806,17.4993,-30.0049,53.8162,23.9903,18.7087,28.9767
0.128098,16.3636,-4.5598,-158.011,-10.3697,176.817,-11.2306,-2.04706,1.97792,-3.47264,-3.39689,2.86007,2.72866,-1.83843,1.3957,-12.0249,3.31163,-0.469286,41.5333,0.00273361,-1.70704,17.2028,-2.10693,-1.24856,1.68967e-14,2.22639e-14,-48.2266,16.3598,-91.009,20.8047,-10.8468,23.4528,2.94499,7.12502,47.737,-19.3896,1.68967e-14,2.22639e-14,-53.4376,-12.9638,98.2415,22.2044,11.639,23.8864,18.3504,7.12502,48.1368,40.4991,-49.373,6.97744,27.2061,43.9413,-55.5209,-31.7723,47.2045,-25.7991,17.6629,-30.221,53.6716,24.3788,17.842,27.2918
0.136035,16.3655,-4.545,-157.968,-10.433,176.594,-11.4775,-2.05619,1.768,-3.24562,-3.37332,2.74873,3.10472,-1.81352,1.38454,-12.416,3.2494,-0.480497,41.5639,-0.0411168,-1.65703,17.3214,-2.09688,-1.23121,1.98785e-14,3.18055e-14,-48.0493,16.7507,-91.434,20.8299,-11.2405,23.146,3.17831,7.12502,47.4537,-19.2854,1.98785e-14,3.18055e-14,-53.0708,-13.0823,98.0686,22.3911,11.9252,23.7058,18.6124,7.12502,47.9704,40.839,-49.5252,6.80549,27.0178,44.0321,-54.9327,-31.7585,47.1333,-25.7571,17.5801,-30.4066,53.5504,24.6272,17.3219,26.487
0.146829,16.3662,-4.52784,-157.891,-10.5622,176.317,-11.5495,-2.16494,1.41167,-3.18353,-3.46946,2.72655,3.22917,-1.85737,1.54288,-12.4902,3.23226,-0.684231,41.5532,-0.0471941,-1.5113,17.3322,-2.10573,-1.12756,-5.22804e-14,2.70347e-14,-48.1498,17.2659,-91.8034,20.8774,-11.3027,22.7688,3.92531,7.12502,47.1051,-18.6945,-5.22804e-14,2.70347e-14,-52.8628,-12.899,97.889,22.3613,11.8458,23.6139,18.4119,7.12502,47.8856,40.6779,-49.6637,6.76746,26.7082,44.1045,-54.0725,-31.3125,48.2085,-25.784,17.3712,-30.5976,53.5094,24.408,17.7662,27.8759
0.166005,16.3641,-4.50528,-157.849,-10.5097,176.178,-11.3858,-2.1889,1.05548,-3.21264,-3.44993,2.71037,3.12781,-1.84793,1.73629,-12.3771,3.21696,-0.663295,41.4022,-0.0138926,-1.56704,17.2168,-2.08508,-1.14073,-3.57812e-15,-9.54166e-15,-48.4304,17.7814,-92.3296,21.0735,-11.4974,22.4977,4.01972,7.12502,46.8543,-18.7104,-3.57812e-15,-9.54166e-15,-52.9451,-12.9582,97.9384,22.4457,11.8821,23.2329,17.939,7.12502,47.534,40.3663,-49.7759,7.28819,26.3654,44.1008,-55.9304,-31.4965,46.7261,-25.928,17.3333,-30.6776,53.5646,23.9529,18.2803,29.4205
0.185747,16.3627,-4.48569,-157.85,-10.373,176.297,-11.4062,-2.13126,0.938967,-3.16858,-3.35718,2.69069,3.18775,-1.80047,1.79227,-12.2673,3.21371,-0.28808,41.2267,0.0466604,-1.87769,17.094,-2.02817,-1.32683,-4.37326e-15,-5.1684e-14,-48.6765,18.0967,-92.8843,21.3756,-11.5671,22.2028,3.94275,7.12502,46.5813,-18.9057,-4.37326e-15,-5.1684e-14,-52.9663,-13.0213,97.8415,22.48,11.8084,22.8808,17.3898,7.12502,47.2087,39.9635,-49.8617,7.79691,26.3455,43.9879,-56.0482,-31.945,47.7795,-26.1821,17.5164,-30.5334,53.7188,24.1391,17.8615,28.802
0.197021,16.3605,-4.47259,-158.011,-10.3305,176.518,-11.3363,-2.06971,1.06348,-3.13836,-3.28773,2.70183,3.17296,-1.76492,1.74594,-12.1466,3.27613,-0.0477481,41.2513,0.129606,-2.07511,17.0812,-1.98999,-1.44669,-3.1408e-14,1.03368e-14,-48.9104,18.1871,-93.1345,21.5499,-11.3695,22.0481,4.25344,7.12502,46.4381,-18.6564,-3.1408e-14,1.03368e-14,-53.0439,-12.8528,97.6052,22.708,11.8875,22.9376,17.7658,7.12502,47.2612,40.3161,-49.7008,8.09099,26.5284,43.8266,-54.7639,-31.574,50.9167,-26.2484,17.6799,-30.2148,53.9063,24.7794,17.2326,27.7065
0.209597,16.3604,-4.46125,-158.168,-10.3542,176.845,-11.1547,-1.99619,1.29073,-3.13584,-3.21421,2.75227,3.06508,-1.72864,1.68838,-12.1375,3.27153,-0.0308555,41.2997,0.091417,-2.05406,17.1058,-2.00431,-1.44983,3.35946e-14,-2.78299e-14,-49.0789,18.09,-93.2525,21.7034,-11.0308,22.1114,4.12228,7.12502,46.4967,-18.7625,3.35946e-14,-2.78299e-14,-52.9986,-12.6411,97.3152,22.8017,11.9657,22.9862,18.0542,7.12502,47.3061,40.5844,-49.5278,8.20325,26.9267,43.6779,-54.8126,-31.8959,52.1238,-26.3312,17.827,-29.7523,54.1327,24.7698,17.4258,28.9298
0.223744,16.3634,-4.44924,-158.112,-10.4321,176.755,-11.0809,-2.0327,1.11959,-3.16208,-3.23579,2.70487,3.00401,-1.73888,1.73579,-12.2411,3.24632,-0.034702,41.4006,0.00704301,-1.99742,17.1884,-2.03655,-1.44501,5.56597e-15,-2.38542e-14,-49.2011,18.0671,-93.3731,21.9865,-10.8519,22.6314,3.22306,7.12502,46.9781,-19.4528,5.56597e-15,-2.38542e-14,-53.0973,-13.0349,97.6125,22.9101,12.5993,22.4777,17.8505,7.12502,46.8359,40.5887,-49.5757,8.15292,26.8863,43.6251,-54.5442,-31.6017,51.0023,-26.5021,17.8219,-29.7359,54.3024,24.2886,18.1434,31.1079
0.236338,16.3666,-4.43423,-157.857,-10.5948,176.458,-10.9891,-2.0557,0.830505,-3.41933,-3.2351,2.58291,2.6942,-1.74593,1.78141,-11.9922,3.18228,0.0230471,41.3841,-0.141024,-2.01692,17.1128,-2.10164,-1.48871,-6.36111e-15,-1.43125e-14,-49.4837,17.5337,-93.2301,22.1551,-10.4,22.6431,3.66048,7.12502,46.9889,-19.0106,-6.36111e-15,-1.43125e-14,-53.5406,-13.3896,97.956,22.8395,12.667,21.8782,16.8439,7.12502,46.2806,39.8207,-49.8964,8.08712,26.5479,43.6433,-55.6508,-32.2053,48.7546,-26.8733,17.6701,-29.9899,54.4095,24.4862,18.6954,32.0694
0.248866,16.3654,-4.42956,-157.839,-10.5076,176.183,-10.7357,-1.99302,0.496117,-3.63941,-3.10895,2.41489,2.33067,-1.68714,1.82693,-11.6702,3.10366,-0.0130184,41.3423,-0.351155,-1.87746,17.0026,-2.18669,-1.45167,-7.71285e-14,2.78299e-14,-50.0398,17.5177,-93.6313,22.2588,-10.5825,22.285,4.30014,7.12502,46.6575,-18.5155,-7.71285e-14,2.78299e-14,-54.0725,-13.4311,97.9501,22.9258,12.4995,21.3858,16.0339,7.12502,45.8238,39.2015,-49.9641,8.40456,26.1022,43.712,-55.202,-31.7431,50.4707,-26.8946,17.7078,-30.1781,54.4362,25.3339,17.6092,30.001
0.262538,16.3629,-4.4353,-157.937,-10.1301,175.981,-10.7476,-1.89499,0.0761326,-3.5764,-2.92122,2.27758,2.40951,-1.58886,1.94246,-11.6358,3.03204,-0.0892806,41.2682,-0.482841,-1.71813,16.9498,-2.22384,-1.3827,-1.03368e-14,5.64548e-14,-50.2264,17.8917,-94.208,22.1205,-10.9823,22.5048,3.1593,7.12502,46.861,-19.5679,-1.03368e-14,5.64548e-14,-54.1137,-13.2413,97.6358,23.0381,12.4056,21.0187,15.9026,7.12502,45.4829,39.2094,-49.8692,8.85783,25.7449,43.7682,-56.397,-32.2627,48.7652,-26.7111,18.0117,-30.2912,54.435,26.1133,15.8314,27.4415
0.273369,16.3598,-4.43127,-157.873,-10.1163,175.912,-11.1055,-1.87567,-0.116483,-3.33796,-2.86506,2.25362,2.85913,-1.5551,2.01492,-11.9646,2.92162,-0.269237,41.178,-0.581793,-1.52871,16.9815,-2.23581,-1.27452,-2.70347e-14,-1.98785e-14,-49.8299,18.1284,-94.348,21.8369,-11.1555,22.0792,4.11005,7.12502,46.4668,-18.7875,-2.70347e-14,-1.98785e-14,-53.6061,-13.1535,97.3476,22.9441,12.3641,20.9095,15.9677,7.12502,45.3813,39.3154,-49.9984,9.06598,25.5953,43.8324,-56.2483,-32.3375,49.5931,-26.857,18.0097,-30.2765,54.4458,26.9007,15.1306,26.2118
0.279434,16.3579,-4.42652,-157.785,-10.2341,176.074,-11.533,-1.79974,0.0420698,-3.09371,-2.77998,2.2748,3.33868,-1.50852,1.93977,-12.4798,2.79383,-0.4714,41.1642,-0.689866,-1.34142,17.105,-2.2518,-1.16989,3.61788e-14,9.54166e-15,-49.369,18.2798,-94.4316,21.5682,-11.3837,21.0966,4.9682,7.12502,45.5553,-18.3092,3.61788e-14,9.54166e-15,-53.1068,-13.1707,97.1444,22.8643,12.2619,20.8039,15.6388,7.12502,45.2832,39.026,-50.1543,8.9443,25.8512,43.9088,-55.7249,-32.2507,50.377,-27.132,18.016,-30.0766,54.4648,27.6248,14.9128,25.3979
0.283331,16.3604,-4.42566,-157.701,-10.1056,175.844,-11.7118,-1.73356,-0.193561,-3.07803,-2.65966,2.15397,3.45296,-1.44918,1.95792,-12.5168,2.7079,-0.547751,41.1891,-0.813531,-1.31685,17.1277,-2.3103,-1.16784,1.09332e-14,-1.59028e-15,-49.4391,18.4195,-94.6846,21.472,-11.678,21.6383,3.62522,7.12502,46.0581,-19.4451,1.09332e-14,-1.59028e-15,-53.0953,-12.9825,96.9161,22.9909,12.3221,20.9816,15.9296,7.12502,45.4484,39.2503,-50.2564,8.76587,25.6753,44.0028,-56.089,-32.4474,49.1115,-27.2747,18.1033,-30.3707,54.4667,28.6747,13.1759,20.3796
0.290956,16.3619,-4.42139,-157.663,-9.81533,175.335,-11.6271,-1.67973,-0.779124,-3.22856,-2.51227,1.92423,3.25685,-1.37925,2.0755,-12.053,2.67193,-0.516148,41.1297,-0.932446,-1.33716,16.974,-2.37546,-1.1985,-3.43897e-14,2.14687e-14,-49.9077,18.4326,-94.9756,21.572,-11.6309,20.552,5.40265,7.12502,45.0489,-18.0776,-3.43897e-14,2.14687e-14,-53.3761,-12.7688,96.6264,23.3832,12.9728,21.4747,17.4235,7.12502,45.9063,40.5569,-50.3224,8.89517,25.0438,44.0874,-56.8037,-32.5858,47.6471,-27.3237,18.2034,-30.9698,54.4488,29.8994,11.0904,14.1218
0.299965,16.3654,-4.40817,-157.714,-9.79706,175.15,-11.3814,-1.70753,-1.03248,-3.29686,-2.5168,1.8786,3.05921,-1.38058,2.17903,-11.8215,2.68397,-0.545617,41.0165,-0.873041,-1.40325,16.8513,-2.36601,-1.20483,1.11319e-14,6.36111e-15,-50.1503,18.6626,-95.216,21.6449,-11.7075,20.646,4.68596,7.12502,45.1364,-18.7597,1.11319e-14,6.36111e-15,-53.5592,-12.8225,96.8475,23.2715,12.8915,21.2319,16.7483,7.12502,45.6809,39.9745,-50.3166,9.05167,24.7895,44.1173,-56.5195,-32.5777,48.5254,-27.4179,18.1361,-31.1169,54.4766,30.8089,10.1516,10.938
0.305909,16.3657,-4.39239,-157.885,-9.86488,175.271,-11.1823,-1.70188,-0.910828,-3.17241,-2.50999,1.89725,3.07561,-1.37129,2.13483,-12.0016,2.67565,-0.552423,40.9057,-0.75893,-1.50639,16.8358,-2.31187,-1.22303,2.32578e-14,-1.35174e-14,-49.9182,18.6633,-95.1654,21.6664,-11.6426,20.471,4.7246,7.12502,44.9736,-18.7854,2.32578e-14,-1.35174e-14,-53.3252,-12.84,96.803,23.3234,13.1298,21.0932,16.8381,7.12502,45.5521,40.1169,-50.1672,8.95964,25.0043,44.084,-55.9948,-32.1615,50.0915,-27.4377,18.0746,-30.8977,54.5299,31.2898,10.323,11.1497
0.306846,16.3607,-4.38768,-158.063,-9.76388,175.441,-11.3556,-1.61768,-0.741455,-2.85178,-2.39514,1.87149,3.49223,-1.30672,2.01822,-12.5329,2.59199,-0.675266,40.8862,-0.791838,-1.38868,16.9608,-2.29511,-1.15231,-1.47101e-14,-1.98785e-14,-49.4377,18.6422,-95.0469,21.7256,-11.5939,18.3709,7.50637,7.12502,43.0146,-16.7344,-1.47101e-14,-1.98785e-14,-52.7958,-12.8331,96.5492,23.3915,13.574,21.098,17.5021,7.12502,45.5565,40.779,-49.9404,8.81085,25.3103,43.9793,-56.1634,-32.1417,49.3941,-27.3398,18.1514,-30.6677,54.6232,31.2181,11.2823,14.1403
0.311347,16.361,-4.3904,-158.148,-9.57626,175.53,-11.5996,-1.56634,-0.743623,-2.65203,-2.31633,1.85706,3.83101,-1.26492,2.00597,-12.8558,2.56837,-0.798603,40.9133,-0.788781,-1.27363,17.0591,-2.28239,-1.07961,-2.04748e-14,2.38542e-15,-49.179,18.8915,-95.1731,21.6881,-11.7421,18.7466,6.51204,7.12502,43.3657,-17.6034,-2.04748e-14,2.38542e-15,-52.5751,-12.7338,96.3859,23.431,13.7542,21.0329,17.3127,7.12502,45.4961,40.6141,-49.7795,8.8215,25.4665,43.8583,-56.5383,-32.2485,47.8331,-27.3469,18.2205,-30.5497,54.7694,31.2117,11.7433,15.3657
0.319247,16.3592,-4.3829,-158.262,-9.48478,175.791,-11.5635,-1.50989,-0.571735,-2.65195,-2.26503,1.88837,3.80405,-1.23872,1.95031,-12.6826,2.61481,-0.744477,40.9418,-0.762093,-1.30881,17.0306,-2.28004,-1.10226,1.92821e-14,-1.27222e-14,-49.3643,19.116,-95.4456,21.9081,-11.8329,18.8901,5.91163,7.12502,43.4998,-18.1553,1.92821e-14,-1.27222e-14,-52.7671,-12.7208,96.4492,23.5331,13.7089,20.6897,16.8743,7.12502,45.177,40.3038,-49.6796,8.93015,25.7814,43.7773,-55.8991,-32.1461,48.7132,-27.4382,18.2758,-30.2351,54.9254,31.3933,11.8052,15.4722
0.328631,16.35,-4.36543,-158.256,-9.47258,175.95,-11.5248,-1.4382,-0.466066,-2.64762,-2.18184,1.8792,3.77989,-1.19641,1.89446,-12.7082,2.58235,-0.75241,40.9123,-0.814695,-1.24962,17.0206,-2.28811,-1.08078,-3.18055e-14,5.56597e-15,-49.3309,18.9956,-95.4263,22.2925,-11.8443,19.2426,4.98363,7.12502,43.8288,-18.9628,-3.18055e-14,5.56597e-15,-52.8141,-12.7845,96.5171,23.6502,13.5632,20.3682,16.7788,7.12502,44.8779,40.3263,-49.8183,9.30975,25.8251,43.7718,-55.5282,-32.3037,50.0682,-27.6018,18.126,-30.0524,55.0558,31.2364,12.6818,17.6128
0.333547,16.3464,-4.35741,-158.184,-9.43903,175.745,-11.6181,-1.43675,-0.653454,-2.59033,-2.14611,1.75753,3.89143,-1.17769,1.87543,-12.8673,2.52827,-0.834923,40.8453,-0.860784,-1.14106,17.0241,-2.28829,-1.0205,7.95139e-16,-2.46493e-14,-49.1425,18.9063,-95.364,22.626,-12.0357,17.9956,6.18457,7.12502,42.6635,-18.1792,7.95139e-16,-2.46493e-14,-52.8502,-12.9829,96.645,23.887,13.6103,19.9358,16.6005,7.12502,44.4753,40.3038,-49.9735,9.24101,25.6214,43.8412,-55.8792,-32.7137,49.1564,-27.6573,17.9638,-30.2561,55.1058,31.0718,13.4372,19.8178
0.338736,16.3416,-4.35591,-158.158,-9.33725,175.407,-11.5985,-1.45662,-1.0298,-2.65003,-2.12103,1.61743,3.82462,-1.1678,1.94667,-12.6403,2.54951,-0.827786,40.7401,-0.842863,-1.09983,16.9072,-2.27479,-0.993158,7.95139e-16,5.56597e-15,-49.2459,18.9525,-95.5254,22.828,-12.4145,16.6504,6.9819,7.12502,41.4029,-17.8051,7.95139e-16,5.56597e-15,-53.0662,-12.7499,96.4633,24.1884,13.263,19.4596,16.2075,7.12502,44.0313,40.0786,-50.0386,9.40233,25.1653,43.9325,-56.6844,-32.7925,47.7718,-27.6483,17.8872,-30.6133,55.1396,30.9628,13.3168,19.5283
0.342976,16.3387,-4.35238,-158.102,-9.09325,175.329,-11.5303,-1.42215,-1.18685,-2.84811,-2.06725,1.5317,3.57976,-1.14596,1.95823,-12.2266,2.67275,-0.701257,40.696,-0.733113,-1.12177,16.7778,-2.2315,-1.00426,-1.61016e-14,6.36111e-15,-49.6032,19.0198,-95.7473,23.1523,-12.6386,15.8663,7.25893,7.12502,40.6665,-17.7625,-1.61016e-14,6.36111e-15,-53.4562,-12.2055,96.108,24.4718,12.8926,19.0867,16.5026,7.12502,43.6834,40.5026,-50.1762,9.45764,25.0664,44.0057,-55.9406,-32.6856,48.6233,-27.7841,17.9893,-30.8201,55.1979,30.8029,13.4029,19.4595
0.346895,16.3348,-4.34959,-158.132,-8.87215,175.521,-11.4358,-1.31491,-1.05452,-2.97487,-1.95093,1.51653,3.38582,-1.09029,1.88868,-11.9283,2.73332,-0.688363,40.6145,-0.679618,-1.07581,16.6575,-2.20896,-0.972066,6.36111e-15,-1.19271e-14,-49.9559,19.2963,-96.1205,23.4121,-13.129,14.7699,7.81061,7.12502,39.6351,-17.5245,6.36111e-15,-1.19271e-14,-53.6915,-12.0308,96.0538,24.3873,12.7911,18.5846,16.5285,7.12502,43.2144,40.6983,-50.1807,9.42506,25.3424,44.0285,-55.0777,-32.4691,49.9101,-27.9101,18.1498,-30.7472,55.3157,30.9659,13.5679,19.4229
0.35414,16.3327,-4.34716,-158.209,-8.65082,175.601,-11.4514,-1.21812,-1.06149,-2.91616,-1.81381,1.44198,3.44759,-1.0207,1.83363,-12.0002,2.74532,-0.599554,40.6738,-0.73071,-0.982026,16.7089,-2.2033,-0.957809,1.70955e-14,2.70347e-14,-49.986,19.5867,-96.5267,23.4556,-13.769,13.3804,8.50319,7.12502,38.325,-17.2069,1.70955e-14,2.70347e-14,-53.5509,-12.1445,96.0745,24.1749,12.6545,17.873,16.2557,7.12502,42.5487,40.6592,-50.103,9.36644,25.5362,44.0149,-54.7804,-32.3672,50.2346,-27.9745,18.3195,-30.7406,55.4519,31.0647,13.3553,18.3011
0.361236,16.3279,-4.3437,-158.242,-8.4829,175.588,-11.5328,-1.23106,-1.20403,-2.84264,-1.80799,1.42322,3.57219,-1.01762,1.89269,-12.1723,2.81982,-0.637419,40.8401,-0.672717,-0.892043,16.8448,-2.18119,-0.910702,2.56432e-14,-9.54166e-15,-49.8892,19.8843,-96.7213,23.4855,-14.2346,12.3329,8.49179,7.12502,37.3355,-17.4852,2.56432e-14,-9.54166e-15,-53.2866,-11.7496,95.8103,24.1892,12.4029,17.2572,16.4881,7.12502,41.9719,41.0875,-50.0834,9.53193,25.488,43.9986,-54.8219,-32.2794,50.3121,-28.0431,18.3588,-30.8156,55.5586,30.7981,13.2836,17.5074
0.356089,16.329,-4.33954,-158.399,-8.67809,175.86,-11.4701,-1.23786,-0.732949,-2.83018,-1.8703,1.40437,3.53903,-1.04441,1.59955,-12.1197,2.83766,-0.611992,40.8954,-0.717099,-0.823523,16.8625,-2.19588,-0.895917,3.97569e-15,-2.38542e-15,-49.8946,19.9276,-96.8725,23.599,-14.5163,11.1604,8.61342,7.12502,36.2261,-17.6472,3.97569e-15,-2.38542e-15,-53.2409,-11.5138,95.6042,24.2949,12.5595,16.6388,17.0408,7.12502,41.3919,41.8313,-49.8868,8.75396,26.1766,43.9848,-54.5034,-32.4683,48.8202,-27.9429,18.1531,-30.4469,55.6625,30.3593,13.9089,18.8939
0.328837,16.3403,-4.33266,-158.658,-9.15367,176.067,-11.2597,-1.23553,0.0907205,-2.78178,-1.94985,1.30565,3.44769,-1.07441,1.0261,-12.1395,2.75766,-0.561011,40.8468,-0.864842,-0.757839,16.8411,-2.23318,-0.898059,-3.97569e-16,1.82882e-14,-49.8863,20.1215,-97.1601,23.6987,-15.1834,9.60751,9.20618,7.12502,34.754,-17.407,-3.97569e-16,1.82882e-14,-53.2137,-11.6215,95.651,24.2665,12.8092,15.7075,16.8749,7.12502,40.5172,41.9428,-49.5506,6.66927,27.2578,43.9898,-52.9197,-32.6219,46.7739,-27.5774,17.7694,-30.1144,55.6896,30.2372,13.9437,18.906
0.359355,16.3217,-4.33895,-158.705,-8.4389,175.829,-11.3468,-1.07436,-0.755615,-2.66855,-1.6248,1.20208,3.62594,-0.915557,1.43808,-12.3529,2.68061,-0.542727,40.8551,-1.00305,-0.639272,16.9012,-2.25808,-0.871838,2.0276e-14,1.74931e-14,-49.7034,20.2084,-97.3171,23.7006,-15.6111,7.4749,10.2171,7.12502,32.7276,-16.8402,2.0276e-14,1.74931e-14,-52.9279,-11.6907,95.5933,24.0592,12.6408,14.7584,16.0512,7.12502,39.6242,41.3896,-49.5754,8.61099,26.2853,43.9915,-53.3303,-32.4329,49.4457,-27.6185,18.2284,-30.506,55.7629,30.1542,14.0718,18.9856
0.372495,16.3133,-4.33819,-158.855,-8.138,175.814,-11.2636,-0.986912,-1.00598,-2.60327,-1.47106,1.1597,3.64791,-0.838556,1.55819,-12.4394,2.64091,-0.527826,40.8939,-1.07029,-0.640393,16.9451,-2.28251,-0.888934,-1.64991e-14,2.38542e-14,-49.5366,20.1263,-97.2499,23.7138,-15.6426,5.20506,11.6496,7.12502,30.5655,-15.8338,-1.64991e-14,2.38542e-14,-52.6063,-11.2804,95.1885,24.0399,12.0962,14.1543,15.9861,7.12502,39.055,41.4904,-49.4815,9.39585,25.9993,44.0058,-55.0137,-32.94,47.6825,-27.5076,18.3545,-30.5435,55.8167,29.9741,14.1223,18.9701
0.377357,16.3093,-4.33706,-158.949,-8.05949,175.931,-11.2299,-0.950982,-0.984212,-2.596,-1.42665,1.18379,3.63543,-0.816206,1.57787,-12.4637,2.6505,-0.474339,40.9494,-1.04496,-0.745775,16.9819,-2.28307,-0.945124,-1.45113e-14,3.4191e-14,-49.4318,20.033,-97.1196,23.7625,-15.6468,2.95911,13.3535,7.12502,28.4215,-14.5083,-1.45113e-14,3.4191e-14,-52.4882,-10.6523,94.7548,24.4249,11.286,13.6751,16.3076,7.12502,38.6031,41.9402,-49.3784,9.52314,26.1434,43.9949,-54.5675,-32.7423,48.9047,-27.4953,18.3394,-30.4231,55.9051,29.8952,14.1994,18.8911
0.379194,16.3106,-4.34108,-159.039,-8.06939,176.013,-11.2643,-0.950759,-0.917948,-2.60839,-1.43498,1.1686,3.63988,-0.820469,1.523,-12.2711,2.67823,-0.422068,40.9033,-1.03798,-0.737009,16.907,-2.27733,-0.946754,1.96797e-14,-1.59028e-15,-49.4142,19.9068,-97.0891,23.8878,-16.0116,1.44348,14.267,7.12502,26.9722,-13.8277,1.96797e-14,-1.59028e-15,-52.483,-10.2285,94.4403,24.7213,10.6374,13.1426,16.1878,7.12502,38.1006,41.9596,-49.2028,9.13724,26.4674,43.9463,-53.5208,-32.6159,49.6841,-27.4059,18.3251,-30.3066,55.9734,29.8485,14.7238,20.1032
0.374781,16.3147,-4.35139,-159.121,-8.12352,176.27,-11.49,-0.94209,-0.577045,-2.53861,-1.46304,1.17585,3.83038,-0.832168,1.32958,-12.2514,2.74318,-0.387681,40.8903,-0.963079,-0.687148,16.8952,-2.23415,-0.916854,1.64991e-14,-2.38542e-15,-49.271,19.8895,-97.1211,24.0021,-16.2958,0.17718,14.2214,7.12502,25.7601,-14.0549,1.64991e-14,-2.38542e-15,-52.3373,-9.62005,93.9257,24.9662,10.02,12.4638,15.9312,7.12502,37.4592,41.8755,-49.0064,8.51217,27.0644,43.8617,-52.6416,-32.6877,49.3217,-27.3082,18.3565,-30.005,56.0422,29.7862,15.0061,20.6849
0.37465,16.3122,-4.35656,-159.243,-8.17639,176.608,-11.6836,-0.907689,-0.27208,-2.45022,-1.45714,1.25527,4.02426,-0.826592,1.23699,-12.4238,2.79459,-0.442243,41.0893,-0.926153,-0.648357,17.051,-2.23267,-0.894766,-1.49089e-15,2.14687e-14,-49.0908,19.8708,-97.0313,24.0898,-16.3635,-1.12058,13.9292,7.12502,24.5166,-14.5215,-1.49089e-15,2.14687e-14,-52.2853,-8.96409,93.4458,25.5829,9.48271,11.7605,15.9617,7.12502,36.7941,42.0792,-48.8297,8.32562,27.5634,43.7717,-52.34,-32.6633,49.1941,-27.2372,18.3614,-29.5947,56.1464,29.3971,15.6768,22.3247
0.377363,16.3087,-4.35943,-159.266,-8.09766,176.804,-11.842,-0.866626,-0.187371,-2.4649,-1.421,1.29009,4.09423,-0.810454,1.22832,-12.5171,2.82432,-0.493908,41.3787,-1.00717,-0.554532,17.2398,-2.28713,-0.874924,-2.28602e-15,-1.03368e-14,-48.9276,19.65,-96.8267,24.1615,-16.256,-2.31058,13.7905,7.12502,23.3755,-14.81,-2.28602e-15,-1.03368e-14,-52.3439,-8.23666,92.8644,26.2478,8.57636,11.2284,15.9774,7.12502,36.2905,42.222,-48.7931,8.3511,27.8035,43.713,-52.6524,-32.9173,48.0478,-27.3086,18.4155,-29.4138,56.26,29.0694,15.9482,22.6674
0.384245,16.3043,-4.35662,-159.281,-7.92583,176.752,-11.728,-0.856552,-0.401041,-2.62028,-1.38888,1.25456,3.87207,-0.800262,1.31979,-12.2644,2.86241,-0.504141,41.4666,-1.06274,-0.482073,17.225,-2.32776,-0.856302,1.96797e-14,9.54166e-15,-48.9475,19.3863,-96.6651,24.3839,-16.4425,-3.56245,14.1669,7.12502,22.1741,-14.5814,1.96797e-14,9.54166e-15,-52.5726,-7.51439,92.3421,26.8905,7.58157,10.5932,16.2282,7.12502,35.6888,42.6206,-48.7678,8.34695,27.7866,43.6664,-52.9844,-33.0136,46.9794,-27.3697,18.3863,-29.5145,56.379,28.9373,16.0357,22.8903
0.387884,16.3017,-4.35318,-159.275,-7.85109,176.7,-11.738,-0.856381,-0.525485,-2.64254,-1.37286,1.21243,3.85546,-0.793774,1.34848,-12.0953,2.87673,-0.287008,41.3178,-0.979249,-0.708616,17.0958,-2.28418,-0.974694,-3.30976e-14,-7.95139e-16,-48.8461,19.3332,-96.6049,24.7104,-16.8209,-5.32549,14.8534,7.12502,20.4807,-14.0864,-3.30976e-14,-7.95139e-16,-52.5854,-7.04257,92.0208,27.6043,7.01841,9.62681,16.6655,7.12502,34.7723,43.2744,-48.7723,8.06154,27.8788,43.632,-52.428,-33.1063,46.8687,-27.4595,18.3494,-29.585,56.4925,28.8324,16.1822,23.3379
0.387962,16.3007,-4.3582,-159.336,-7.91856,176.911,-11.991,-0.787234,-0.299192,-2.45814,-1.30181,1.23596,4.18145,-0.753507,1.25074,-12.245,2.80352,-0.230458,41.1459,-0.955976,-0.832827,17.0367,-2.25341,-1.02534,-7.45443e-15,4.05521e-14,-48.4778,19.1671,-96.3735,25.0577,-17.1492,-6.65381,14.8521,7.12502,19.2037,-14.2198,-7.45443e-15,4.05521e-14,-52.184,-6.73642,91.7646,28.1231,6.65274,8.58984,16.8419,7.12502,33.7877,43.6726,-48.6806,7.7069,28.2908,43.5951,-51.9191,-33.1856,45.7751,-27.489,18.3896,-29.334,56.6021,29.2198,15.5123,21.4943
0.392272,16.297,-4.36695,-159.433,-7.92276,177.202,-12.3594,-0.705388,-0.0571067,-2.23237,-1.21794,1.25201,4.61457,-0.705604,1.13734,-12.3943,2.72224,-0.268959,41.0108,-1.01221,-0.779544,16.9991,-2.2509,-0.995103,-6.16232e-15,-1.66979e-14,-47.9799,18.6592,-95.9176,25.2532,-17.2053,-7.67114,14.9491,7.12502,18.2252,-14.2171,-6.16232e-15,-1.66979e-14,-51.7281,-6.27488,91.2302,28.7527,6.09188,7.83482,16.9559,7.12502,33.07,43.9413,-48.582,7.78798,28.6315,43.5825,-51.3236,-33.1422,46.256,-27.4551,18.4986,-28.9737,56.6703,29.3504,15.3539,21.0632
0.398425,16.2941,-4.36904,-159.439,-7.72841,177.142,-12.6013,-0.634473,-0.209035,-2.1226,-1.09402,1.14824,4.86101,-0.643944,1.13117,-12.4847,2.64795,-0.414476,41.0191,-1.18335,-0.521927,17.0285,-2.30361,-0.882772,-7.7526e-15,-1.19271e-14,-47.4991,17.83,-95.2897,25.3456,-16.9792,-8.59501,15.7586,7.12502,17.3363,-13.4882,-7.7526e-15,-1.19271e-14,-51.5405,-5.81841,90.7268,29.6245,5.39765,7.11574,17.1033,7.12502,32.3859,44.2311,-48.5972,7.93825,28.5462,43.6566,-50.8162,-32.9676,48.3225,-27.4284,18.5766,-29.0745,56.6249,29.307,15.4955,21.4043
0.402061,16.2952,-4.37262,-159.43,-7.5037,176.9,-12.5852,-0.598105,-0.527981,-2.24814,-1.00232,0.999432,4.72028,-0.605369,1.17139,-12.3145,2.67293,-0.36146,41.166,-1.28364,-0.446042,17.0685,-2.35149,-0.884649,8.94531e-16,-1.35174e-14,-47.5414,17.3256,-95.0304,25.6486,-17.1468,-9.33296,16.2087,7.12502,16.6259,-13.0992,8.94531e-16,-1.35174e-14,-51.7746,-5.21901,90.2168,30.5548,4.62556,6.36032,17.2114,7.12502,31.6666,44.4836,-48.6243,7.76208,28.3795,43.7659,-50.4496,-32.9945,48.6346,-27.3554,18.6122,-29.3664,56.5288,29.1968,16.0174,22.3267
0.403984,16.2952,-4.38259,-159.357,-7.28577,176.397,-12.5777,-0.651906,-1.13296,-2.53365,-1.00589,0.810514,4.42214,-0.621477,1.31621,-11.6992,2.76855,-0.206217,41.2672,-1.33435,-0.452161,16.968,-2.39756,-0.931091,6.95746e-16,-1.51076e-14,-47.926,17.076,-95.0389,25.912,-17.3987,-9.93759,16.2029,7.12502,16.0437,-13.1529,6.95746e-16,-1.51076e-14,-52.2331,-4.54496,89.7513,31.4212,4.00686,5.63299,17.4041,7.12502,30.9735,44.8106,-48.7206,7.72262,27.8113,43.8871,-50.349,-32.9903,48.3775,-27.2297,18.5628,-29.9366,56.398,29.1514,16.2671,22.932
0.408376,16.2909,-4.39035,-159.477,-7.20976,176.447,-12.5239,-0.68499,-1.1867,-2.70708,-1.05799,0.796255,4.21291,-0.652229,1.32482,-11.1276,2.82765,-0.349416,41.2846,-1.45927,-0.134742,16.8352,-2.46957,-0.786472,4.96962e-15,1.35174e-14,-48.1971,16.9606,-95.085,26.1008,-17.7436,-10.6039,16.3009,7.12502,15.402,-13.1053,4.96962e-15,1.35174e-14,-52.604,-3.815,89.2754,32.3737,3.50284,4.76118,17.8341,7.12502,30.1422,45.3956,-48.6029,7.80259,27.8799,43.924,-50.7485,-33.2677,48.0528,-27.0142,18.6303,-29.8309,56.3667,28.8381,17.0567,24.9893
0.417073,16.2878,-4.39328,-159.599,-7.22032,176.779,-12.5361,-0.670525,-1.00796,-2.74246,-1.07084,0.879538,4.18177,-0.658741,1.30888,-10.9384,2.82048,-0.535118,41.3273,-1.59323,0.127268,16.8145,-2.53828,-0.661689,1.50082e-14,0,-48.1132,16.6227,-94.8258,26.3508,-18.3304,-10.8092,16.3205,7.12502,15.2043,-13.1008,1.50082e-14,0,-52.6635,-3.17956,88.8292,33.2519,3.01706,3.73442,18.0984,7.12502,29.1621,45.8342,-48.4543,7.99906,28.2487,43.9075,-51.3829,-33.4714,47.7046,-26.9691,18.7663,-29.4166,56.4156,28.801,17.399,25.8727
0.419269,16.2886,-4.39759,-159.562,-7.33176,176.918,-12.7893,-0.696094,-0.921515,-2.66547,-1.11487,0.920598,4.40225,-0.680347,1.29206,-11.0556,2.75751,-0.580459,41.2975,-1.63724,0.0915804,16.8275,-2.55957,-0.67559,1.32192e-14,-1.90833e-14,-47.6915,16.3279,-94.4613,26.5011,-18.9513,-10.918,16.2278,7.12502,15.0995,-13.2014,1.32192e-14,-1.90833e-14,-52.2778,-2.70828,88.5234,33.8961,2.8993,2.83072,18.1342,7.12502,28.2988,46.0163,-48.4618,7.77299,28.5227,43.8808,-50.6652,-33.2141,47.8676,-27.0653,18.7057,-29.2451,56.4693,29.0973,17.0888,24.9631
0.415203,16.2868,-4.40156,-159.605,-7.36885,177.018,-12.9989,-0.657852,-0.777351,-2.55043,-1.07642,0.917114,4.63458,-0.658341,1.20997,-11.143,2.69738,-0.627064,41.2181,-1.66639,0.0889755,16.8055,-2.56471,-0.668422,8.54774e-15,0,-47.2676,16.2106,-94.2278,26.563,-19.5667,-11.6303,16.504,7.12502,14.4132,-12.9755,8.54774e-15,0,-51.8575,-2.43961,88.3668,34.5892,2.79888,2.01607,18.2901,7.12502,27.52,46.2989,-48.3937,7.38645,28.7971,43.9117,-49.7001,-32.6565,47.5501,-26.99,18.5526,-29.1191,56.4707,28.8695,17.3977,25.5787
0.414194,16.2839,-4.40356,-159.655,-7.31829,176.991,-13.1196,-0.642551,-0.786137,-2.48833,-1.04725,0.851539,4.76424,-0.642811,1.14932,-11.1717,2.68547,-0.693648,41.1702,-1.66722,0.153603,16.7869,-2.56045,-0.625024,6.36111e-15,8.74653e-15,-46.9545,15.9407,-93.9839,26.7706,-20.0461,-11.8304,16.1433,7.12502,14.2205,-13.3499,6.36111e-15,8.74653e-15,-51.635,-2.09923,88.0951,35.3202,2.29549,1.13041,18.0186,7.12502,26.6727,46.1592,-48.3375,7.18739,28.8581,43.98,-49.7142,-32.4868,46.7776,-26.8585,18.476,-29.1479,56.4352,28.636,17.5425,25.8008
