JuanDHNZ/ProyectoFinalCD/preprocessing/sports_trials_csv/05_20.csv
root1,root2,root3,root4,root5,root6,lowerback1,lowerback2,lowerback3,upperback1,upperback2,upperback3,thorax1,thorax2,thorax3,lowerneck1,lowerneck2,lowerneck3,upperneck1,upperneck2,upperneck3,head1,head2,head3,rclavicle1,rclavicle2,rhumerus1,rhumerus2,rhumerus3,rradius1,rwrist1,rhand1,rhand2,rfingers1,rthumb1,rthumb2,lclavicle1,lclavicle2,lhumerus1,lhumerus2,lhumerus3,lradius1,lwrist1,lhand1,lhand2,lfingers1,lthumb1,lthumb2,rfemur1,rfemur2,rfemur3,rtibia1,rfoot1,rfoot2,rtoes1,lfemur1,lfemur2,lfemur3,ltibia1,lfoot1,lfoot2,ltoes1
1.76056,16.6047,16.7983,23.0594,3.61335,2.19254,-17.3579,-0.98457,-1.38883,-8.08039,-1.02571,-1.37266,1.09732,-0.497973,-0.840275,-15.8165,-2.29794,-3.52299,35.3626,-2.97415,1.83357,15.0478,-1.48714,0.872213,8.65956e-15,1.17283e-14,-43.7243,7.37254,-85.2037,24.4749,-12.2382,-6.27704,14.5318,7.12502,19.566,-14.5037,8.65956e-15,1.17283e-14,-53.4712,10.6412,67.731,42.1192,3.28898,1.99216,18.3267,7.12502,27.4971,46.3391,-41.8889,1.02299,30.5993,42.8847,-50.1521,-29.8112,46.3201,-21.7965,16.5507,-29.144,52.0602,-14.7873,47.5844,46.6888
1.75239,16.6083,16.795,23.0556,3.55334,2.21792,-17.3975,-0.945585,-1.53191,-7.96431,-0.948553,-1.38578,1.24357,-0.45655,-0.761185,-15.9713,-2.34269,-3.63968,35.4059,-3.04108,1.95333,15.1124,-1.51276,0.930171,9.81499e-16,-4.17448e-15,-43.9261,8.08578,-85.8263,24.9741,-13.0898,-6.93008,14.1955,7.12502,18.9381,-14.9025,9.81499e-16,-4.17448e-15,-53.1717,10.4943,67.8918,42.457,3.39493,1.93421,18.4916,7.12502,27.4417,46.5128,-41.8639,1.54549,30.4156,42.7906,-50.5764,-29.8899,46.5084,-22.0214,16.7123,-29.2289,52.2503,-8.78279,48.6097,44.4469
1.74785,16.6119,16.7921,23.0514,3.54338,2.32725,-17.4656,-0.955219,-1.70758,-7.83335,-0.928022,-1.41943,1.42009,-0.443573,-0.695942,-15.8351,-2.35855,-3.69668,35.1872,-3.07599,2.03607,14.9809,-1.52392,0.968789,3.16813e-16,1.35174e-14,-44.1145,8.81529,-86.5039,25.4187,-14.0826,-7.72928,13.9298,7.12502,18.1693,-15.2416,3.16813e-16,1.35174e-14,-52.8239,10.5178,67.9346,42.8196,3.47342,2.10075,18.9561,7.12502,27.6009,46.9519,-41.8951,1.6687,30.2681,42.8236,-50.5994,-30.1092,46.4862,-22.1096,16.8022,-29.3932,52.2979,-5.45396,48.987,42.923
1.74413,16.6106,16.7932,23.0705,3.5813,2.38444,-17.6247,-0.949369,-1.81581,-7.70615,-0.895164,-1.4243,1.63928,-0.425879,-0.637627,-15.6264,-2.40708,-3.85961,34.9466,-3.1484,2.17585,14.8288,-1.55775,1.04358,-8.66577e-15,-1.05356e-14,-44.3898,9.56698,-87.1619,25.8615,-15.2244,-8.53564,13.6628,7.12502,17.3934,-15.579,-8.66577e-15,-1.05356e-14,-52.4981,10.4693,68.0608,43.4827,3.52416,2.59767,20.1353,7.12502,28.076,48.0542,-41.915,1.64766,30.2343,42.8285,-50.5167,-30.2318,46.0698,-22.1363,16.8797,-29.4665,52.3841,-4.69319,48.892,42.5537
1.73379,16.6081,16.7827,23.0631,3.48242,2.54259,-17.4354,-0.951922,-2.16484,-7.68871,-0.84898,-1.42189,1.56335,-0.394984,-0.426543,-15.6571,-2.44929,-3.88007,34.9234,-3.17311,2.09805,14.8251,-1.58107,1.01022,9.25591e-16,5.1684e-15,-44.8048,10.4512,-87.9148,26.31,-16.5843,-9.60391,13.9154,7.12502,16.365,-15.4141,9.25591e-16,5.1684e-15,-52.2741,10.5201,68.0827,44.1074,3.30312,3.56308,21.6024,7.12502,28.9985,49.3664,-41.9745,2.18782,29.9191,42.8752,-50.8431,-30.4866,45.924,-22.2074,16.9108,-29.6787,52.4372,-5.84476,48.9014,42.8223
1.7236,16.6067,16.7644,23.0316,3.53574,2.56478,-16.8702,-0.926132,-2.28794,-7.88804,-0.820056,-1.43291,1.05814,-0.373511,-0.353537,-15.5991,-2.47094,-3.8484,35.0326,-3.1933,2.02859,14.8617,-1.5953,0.973663,-8.08805e-15,-1.11319e-14,-45.5648,11.2171,-88.7562,26.8099,-18.1111,-10.6495,14.2574,7.12502,15.3581,-15.1523,-8.08805e-15,-1.11319e-14,-52.4334,10.1449,68.1739,44.7257,3.39465,3.91751,22.4595,7.12502,29.3369,50.1648,-42.0051,2.66738,29.7918,42.8978,-51.4329,-30.4326,46.589,-22.3546,16.9631,-29.7175,52.5209,-6.57507,48.9082,43.1785
1.72452,16.609,16.7583,22.9929,3.76521,2.756,-16.5164,-0.98631,-2.36793,-8.02791,-0.901244,-1.50093,0.725462,-0.410075,-0.387373,-15.4505,-2.48112,-3.89612,35.1123,-3.20715,2.04821,14.8671,-1.60601,0.989833,-5.26779e-15,-1.8487e-14,-46.4424,12.2177,-89.8555,27.4076,-20.1199,-11.6602,14.041,7.12502,14.3844,-15.4406,-5.26779e-15,-1.8487e-14,-52.676,9.79577,68.2534,45.1932,3.45999,3.91843,22.2629,7.12502,29.3378,49.968,-42.0055,2.28488,29.6916,42.9218,-51.3829,-30.2243,47.095,-22.3287,16.8738,-29.8877,52.5321,-6.72156,47.4313,44.6714
1.72822,16.6111,16.7591,23.0145,4.0462,2.7931,-16.4785,-1.01895,-2.2499,-8.03959,-0.961385,-1.52783,0.691953,-0.443245,-0.491476,-15.4197,-2.51372,-3.9791,35.1527,-3.2405,2.07626,14.8832,-1.62743,1.01097,-1.37161e-14,-1.17283e-14,-47.1732,13.1905,-90.9539,27.9658,-22.2026,-12.8516,14.1326,7.12502,13.2363,-15.4271,-1.37161e-14,-1.17283e-14,-52.637,9.73267,68.2449,45.3505,3.27544,3.82081,21.1578,7.12502,29.2446,48.8792,-42.0396,1.67814,29.8364,42.9038,-50.602,-30.1822,47.6361,-22.3181,16.7176,-29.8745,52.5739,-6.82148,46.6874,45.1369
1.72577,16.6108,16.7565,23.0401,4.28348,2.58699,-16.5365,-1.00305,-2.04452,-7.94985,-0.967659,-1.43684,0.816922,-0.450878,-0.514559,-15.5952,-2.55846,-4.12854,35.1959,-3.27628,2.14527,14.9514,-1.65105,1.05847,3.69926e-15,-1.39149e-14,-47.7692,14.4126,-92.1159,28.6174,-24.5822,-14.3082,14.2545,7.12502,11.8319,-15.3913,3.69926e-15,-1.39149e-14,-52.4483,9.73187,68.3364,45.6243,3.24625,3.71408,20.5285,7.12502,29.1427,48.2676,-42.046,1.38828,30.2114,42.846,-50.2673,-31.3785,46.7523,-22.3804,16.6799,-29.595,52.6638,-8.61711,46.2932,45.9528
1.72234,16.6071,16.75,23.0621,4.54299,2.37545,-16.5864,-0.979075,-1.85471,-7.83894,-0.961417,-1.34533,0.960134,-0.451644,-0.526298,-15.6806,-2.63762,-4.31428,35.1112,-3.35743,2.22859,14.9417,-1.6971,1.11048,-7.93896e-15,1.39149e-15,-48.3541,15.3202,-93.0672,29.4408,-26.8049,-15.4368,14.0609,7.12502,10.7434,-15.6444,-7.93896e-15,1.39149e-15,-52.2046,9.75329,68.4547,45.9536,3.21418,3.68885,20.5331,7.12502,29.1186,48.2764,-42.0462,1.30051,30.5333,42.7425,-50.0969,-31.9504,46.5179,-22.4743,16.5809,-29.2984,52.8383,-13.3559,45.34,47.6738
1.71933,16.6038,16.7452,23.0526,4.80135,2.13683,-16.6415,-0.939671,-1.59804,-7.69243,-0.944202,-1.27609,1.14247,-0.448891,-0.597697,-15.8632,-2.73748,-4.52752,35.0532,-3.47096,2.35107,14.9707,-1.75437,1.17706,-1.20762e-14,-9.93923e-16,-48.9157,16.0434,-93.9773,30.2857,-28.8697,-16.4227,13.5843,7.12502,9.79239,-16.168,-1.20762e-14,-9.93923e-16,-51.9554,9.73385,68.5792,46.3397,3.24629,3.60502,20.1952,7.12502,29.0385,47.9523,-41.9896,1.10585,30.9157,42.6119,-50.0243,-31.9824,46.442,-22.5507,16.4964,-28.9606,53.0407,-16.1726,44.4779,48.7423
1.71144,16.6022,16.7435,23.0804,4.92155,1.96078,-16.6399,-0.906218,-1.51838,-7.64778,-0.912781,-1.20476,1.18927,-0.433832,-0.562747,-15.9936,-2.77828,-4.63157,35.0257,-3.49522,2.36843,14.9926,-1.77429,1.19687,2.50927e-14,8.34896e-15,-49.6169,16.8229,-94.9379,31.1327,-30.9809,-17.2405,13.1829,7.12502,9.00329,-16.6049,2.50927e-14,8.34896e-15,-51.8594,9.64047,68.6726,46.669,3.27234,3.49592,19.5088,7.12502,28.9343,47.2839,-41.9741,1.24588,31.1257,42.5203,-50.4199,-31.794,46.7529,-22.7531,16.562,-28.754,53.2024,-15.4614,44.7692,48.5341
1.6983,16.6021,16.7438,23.1154,4.86205,2.04295,-16.5759,-0.897585,-1.78513,-7.70882,-0.864056,-1.2168,1.09393,-0.402635,-0.414994,-15.8767,-2.77357,-4.65721,35.0123,-3.48355,2.36938,14.9593,-1.77313,1.20505,-1.08244e-14,-1.80894e-14,-50.516,17.2667,-95.7639,32.2291,-32.8965,-17.7079,12.2986,7.12502,8.5522,-17.5082,-1.08244e-14,-1.80894e-14,-51.9649,9.50723,68.6635,46.9496,3.23653,3.27532,18.7932,7.12502,28.7236,46.6042,-42.0011,1.67674,30.9449,42.4945,-50.9354,-31.803,47.0891,-22.9077,16.7032,-28.8652,53.254,-13.2766,45.544,47.7601
1.693,16.6012,16.7531,23.1912,4.97801,2.193,-16.5194,-0.917753,-1.97276,-7.90829,-0.865623,-1.28852,0.853459,-0.397511,-0.382276,-15.422,-2.8011,-4.65684,34.9956,-3.54772,2.37464,14.8493,-1.80338,1.20079,6.41702e-15,8.74653e-15,-51.7631,17.5191,-96.6693,33.4471,-34.7508,-18.1874,11.2123,7.12502,8.08947,-18.6129,6.41702e-15,8.74653e-15,-52.2751,9.25758,68.5503,47.2714,3.18623,3.22533,18.5002,7.12502,28.6758,46.3193,-42.0768,1.37751,30.9147,42.5438,-50.6531,-32.0027,46.6351,-22.8792,16.7084,-28.9895,53.1938,-13.5815,45.5582,47.9758
1.69343,16.5993,16.7588,23.336,5.09468,2.32301,-16.3757,-0.908398,-2.01836,-8.21758,-0.854153,-1.39351,0.448312,-0.388433,-0.460422,-15.0049,-2.83756,-4.65303,35.135,-3.62689,2.37562,14.8223,-1.84057,1.19261,-7.28049e-15,2.66371e-14,-53.243,18.0728,-98.0092,34.5123,-37.0727,-19.164,10.9816,7.12502,7.14684,-18.8777,-7.28049e-15,2.66371e-14,-52.7294,8.88266,68.4666,47.6447,3.22644,3.17585,18.1802,7.12502,28.6286,46.0072,-42.2662,1.04158,30.8922,42.6581,-50.402,-32.0981,46.3246,-22.8536,16.6384,-29.1343,53.0589,-16.6282,44.6853,49.2104
1.68712,16.5952,16.7597,23.4464,5.09121,2.41525,-16.379,-0.866453,-2.13593,-8.31264,-0.781688,-1.47624,0.348192,-0.348981,-0.468495,-14.924,-2.84189,-4.58634,35.2411,-3.63594,2.31445,14.8507,-1.84434,1.15576,-4.57826e-15,5.56597e-15,-54.4404,18.7499,-99.3474,35.6643,-39.6344,-20.1139,10.8459,7.12502,6.2299,-19.0424,-4.57826e-15,5.56597e-15,-52.8932,8.46619,68.5919,47.9421,3.59436,2.54421,17.6326,7.12502,28.0249,45.5598,-42.4326,1.18039,30.7698,42.7571,-50.5964,-32.4003,46.3596,-22.8412,16.6672,-29.258,52.9418,-19.4077,43.6357,50.3374
1.68163,16.5924,16.7623,23.5369,5.16465,2.60378,-16.5732,-0.90978,-2.35544,-8.23958,-0.79664,-1.52909,0.528384,-0.352421,-0.405808,-14.953,-2.78069,-4.52033,35.2109,-3.5299,2.23349,14.8343,-1.80038,1.12832,-4.05024e-15,-2.50469e-14,-55.3,19.2949,-100.346,36.7864,-41.8208,-20.631,10.2222,7.12502,5.73057,-19.6803,-4.05024e-15,-2.50469e-14,-52.9301,8.00343,68.95,48.4064,4.32187,1.56156,17.341,7.12502,27.0852,45.4182,-42.553,1.123,30.6042,42.8181,-50.8677,-32.8083,46.0805,-22.8049,16.5889,-29.4452,52.8493,-21.2566,42.8814,50.9119
1.68077,16.5943,16.7591,23.4739,5.50277,2.48084,-16.5135,-0.975928,-2.14482,-8.18305,-0.916007,-1.45534,0.557572,-0.417,-0.46652,-14.8685,-2.75888,-4.6969,35.0978,-3.49417,2.37578,14.768,-1.78926,1.22471,-9.95787e-15,-2.50469e-14,-56.172,19.7575,-101.229,37.874,-43.6152,-21.3421,9.41768,7.12502,5.04404,-20.5023,-9.95787e-15,-2.50469e-14,-52.9625,7.92609,69.1016,48.6093,4.6424,0.976165,17.0725,7.12502,26.525,45.2355,-42.5086,0.663387,30.92,42.8234,-50.7519,-32.6627,46.104,-22.7399,16.4683,-29.196,52.834,-20.3688,43.2406,50.5721
1.68082,16.5977,16.753,23.4529,5.7539,2.29712,-16.3954,-0.982805,-1.8564,-8.20582,-0.971312,-1.41495,0.469326,-0.451371,-0.593802,-14.7392,-2.78627,-4.72572,35.0146,-3.53065,2.37626,14.7018,-1.80948,1.22448,1.13059e-15,-3.97569e-16,-57.1011,20.0611,-102.081,39.0625,-45.4665,-21.7961,8.06124,7.12502,4.60569,-21.8687,1.13059e-15,-3.97569e-16,-53.019,7.95186,69.0302,48.6259,4.59199,0.911902,16.4922,7.12502,26.4635,44.6646,-42.5285,0.366564,31.2395,42.8429,-50.6087,-32.0215,46.3885,-22.7568,16.393,-28.9301,52.8167,-19.2471,43.6591,50.045
1.67967,16.5965,16.7515,23.53,5.79451,2.33895,-16.4832,-0.970964,-1.87039,-8.17742,-0.949449,-1.43929,0.544955,-0.44079,-0.60949,-14.8945,-2.79287,-4.78482,35.1628,-3.5059,2.35026,14.8072,-1.80912,1.22785,8.29305e-15,1.03368e-14,-57.748,20.1235,-102.543,40.1144,-46.8615,-21.5481,6.52524,7.12502,4.84516,-23.3994,8.29305e-15,1.03368e-14,-52.896,7.77383,69.1646,48.758,4.79458,0.696706,16.2243,7.12502,26.2575,44.4274,-42.6352,0.189537,31.2497,42.8518,-50.2788,-31.8305,46.4566,-22.7275,16.3151,-28.9727,52.7935,-22.1851,42.2346,50.7246
1.67826,16.5942,16.7494,23.6518,5.82875,2.61285,-16.5484,-1.02179,-2.15734,-8.15206,-0.970513,-1.48557,0.608637,-0.444444,-0.501048,-15.1317,-2.77549,-4.85717,35.3466,-3.43448,2.31897,14.9471,-1.79082,1.23888,-1.90088e-15,1.15295e-14,-58.2168,20.0367,-102.71,41.0349,-47.6511,-21.2341,4.85418,7.12502,5.14835,-25.0633,-1.90088e-15,1.15295e-14,-52.5885,7.64777,69.3576,48.5922,5.05705,0.499011,15.9713,7.12502,26.0683,44.2025,-42.8065,-0.106616,31.0443,42.8621,-50.1056,-31.8527,46.3723,-22.7281,16.1641,-29.2579,52.7708,-24.4816,40.9761,51.4217
1.66985,16.5951,16.7481,23.7409,5.96156,2.48756,-16.6884,-1.02447,-2.08808,-8.08711,-0.978492,-1.43835,0.750793,-0.450296,-0.494741,-15.3293,-2.78253,-4.83549,35.3816,-3.41654,2.25332,15.0069,-1.78745,1.209,1.28371e-14,5.96354e-15,-58.8632,20.1388,-103.217,42.2188,-49.4203,-21.3939,3.56257,7.12502,4.99401,-26.3586,1.28371e-14,5.96354e-15,-52.2486,7.66295,69.3756,48.1443,5.26419,0.331561,15.479,7.12502,25.9079,43.7338,-42.8989,0.237445,31.1125,42.8305,-50.4356,-32.1235,46.1941,-22.8709,16.1181,-29.0766,52.823,-24.2029,41.0377,51.3885
1.65677,16.5948,16.7469,23.7826,5.99842,2.27854,-16.8171,-1.00678,-2.01973,-7.98343,-0.960607,-1.36749,0.928528,-0.443185,-0.458843,-15.5836,-2.8049,-4.77515,35.4129,-3.42825,2.17687,15.0785,-1.79276,1.16185,-1.55301e-18,1.11319e-14,-59.8466,20.6697,-104.434,43.4524,-53.1079,-22.223,4.67372,7.12502,4.1934,-25.2648,-1.55301e-18,1.11319e-14,-52.0405,7.5517,69.5166,47.9524,5.6925,-0.0545251,15.3463,7.12502,25.5381,43.6545,-42.9172,0.963054,31.1714,42.7789,-50.8771,-32.5599,46.2571,-23.0417,16.2491,-28.8092,52.8938,-23.3468,41.5498,51.1463
1.64354,16.5944,16.74,23.8282,5.8326,2.34322,-16.7392,-1.02055,-2.26629,-8.00017,-0.945814,-1.35974,0.873097,-0.42902,-0.307734,-15.613,-2.77076,-4.75682,35.4248,-3.36186,2.1255,15.0863,-1.76915,1.14846,1.6715e-14,-5.1684e-15,-60.6041,20.821,-105.022,44.4759,-55.1613,-22.1676,4.14186,7.12502,4.24691,-25.7955,1.6715e-14,-5.1684e-15,-52.1479,7.19796,69.7401,48.0494,6.37524,-0.495863,15.7217,7.12502,25.1153,44.0898,-42.9526,1.7456,30.8725,42.7095,-51.2782,-33.1677,46.1501,-23.1735,16.3837,-28.9023,52.9552,-22.9201,41.6997,51.1384
1.63727,16.5956,16.7304,23.8867,5.68707,2.5501,-16.6569,-1.02026,-2.54843,-8.01866,-0.905775,-1.42666,0.811924,-0.402333,-0.210666,-15.5699,-2.74781,-4.73321,35.4077,-3.32795,2.10477,15.0653,-1.75443,1.14197,-3.99278e-15,2.78299e-15,-61.2618,20.8407,-105.454,45.4962,-57.325,-22.0822,3.02576,7.12502,4.32942,-26.91,-3.99278e-15,2.78299e-15,-52.2256,6.8882,69.9135,48.0068,6.99536,-0.867824,15.8536,7.12502,24.7589,44.2711,-43.0411,2.12595,30.5093,42.6661,-51.4976,-33.8808,45.8344,-23.2423,16.4303,-29.1632,52.9572,-22.2062,41.9294,50.9251
1.63363,16.5982,16.7251,23.9153,5.68718,2.57895,-16.6886,-1.02681,-2.5601,-7.99401,-0.910508,-1.43988,0.854601,-0.405159,-0.219442,-15.5315,-2.71706,-4.77353,35.3474,-3.27043,2.1106,15.0261,-1.73455,1.16154,-6.94193e-16,-1.03368e-14,-61.9565,20.8741,-105.888,46.6474,-59.246,-22.0739,1.56816,7.12502,4.33739,-28.3674,-6.94193e-16,-1.03368e-14,-52.2201,6.75967,69.9678,47.707,7.60739,-1.04918,15.3726,7.12502,24.5851,43.8139,-43.0585,2.18603,30.4783,42.629,-51.5679,-33.8236,45.9442,-23.2827,16.472,-29.1748,52.9382,-21.1214,42.5302,50.3951
1.63067,16.6021,16.724,23.9491,5.67612,2.53539,-16.7582,-1.01244,-2.53539,-7.99162,-0.892625,-1.43121,0.893058,-0.396964,-0.222281,-15.4485,-2.7193,-4.85243,35.3096,-3.28659,2.20507,14.9935,-1.73928,1.21273,-4.8811e-15,1.98785e-15,-62.6285,20.788,-106.231,47.6603,-60.9865,-21.7893,0.523951,7.12502,4.61227,-29.4058,-4.8811e-15,1.98785e-15,-52.209,6.49629,70.1545,47.3653,8.44565,-1.41561,15.7483,7.12502,24.2338,44.2369,-43.0708,2.14059,30.5729,42.5916,-51.4221,-33.367,46.1426,-23.3252,16.5529,-29.1228,52.8953,-19.3569,43.2389,49.9543
1.62981,16.6052,16.7223,23.9559,5.66408,2.53967,-16.8031,-0.994478,-2.50171,-7.91823,-0.869863,-1.45866,0.993383,-0.388212,-0.26738,-15.5401,-2.7083,-4.83999,35.2749,-3.273,2.21854,14.9976,-1.72886,1.21741,-8.71547e-15,-2.74323e-14,-63.1315,20.7691,-106.534,48.5778,-62.7762,-21.3876,-0.379785,7.12502,5.00014,-30.3008,-8.71547e-15,-2.74323e-14,-52.0774,6.19841,70.4102,47.1379,9.40148,-1.70786,16.8161,7.12502,23.9536,45.3418,-43.0577,2.00269,30.6124,42.5338,-51.2466,-33.0746,46.2993,-23.3007,16.6395,-29.1194,52.8453,-18.5574,43.4741,49.9794
1.63193,16.6069,16.7234,23.9818,5.69209,2.5787,-16.8506,-1.00057,-2.45793,-7.88318,-0.881253,-1.47623,1.05486,-0.39601,-0.313477,-15.5961,-2.66786,-4.85419,35.2495,-3.19056,2.18503,14.9943,-1.69969,1.21952,6.06109e-16,1.51076e-14,-63.6414,20.7652,-106.772,49.3801,-64.6981,-20.9736,-1.38862,7.12502,5.39983,-31.2998,6.06109e-16,1.51076e-14,-52.0858,5.84403,70.7305,47.065,10.4049,-2.04149,17.4772,7.12502,23.6336,46.0446,-43.0756,1.8612,30.5849,42.4966,-51.0741,-33.1022,45.968,-23.2457,16.655,-29.1377,52.7919,-17.8229,43.5504,50.0567
1.63001,16.6078,16.7227,23.9944,5.71065,2.49877,-16.8635,-1.0069,-2.36474,-7.89587,-0.903798,-1.46564,1.0475,-0.409338,-0.358932,-15.5884,-2.62965,-4.76589,35.2793,-3.13357,2.10589,14.9999,-1.67503,1.18109,-1.15218e-14,2.38542e-14,-64.2865,20.7715,-107.116,50.3209,-66.7348,-20.6296,-2.30257,7.12502,5.73194,-32.205,-1.15218e-14,2.38542e-14,-52.2854,5.30975,71.0681,46.975,11.5919,-2.46806,17.5692,7.12502,23.2244,46.1888,-43.0873,1.79857,30.7081,42.4731,-50.9949,-33.0896,45.559,-23.142,16.6554,-28.993,52.7542,-18.9113,42.8202,50.5432
1.63057,16.6079,16.7205,23.9469,5.62058,2.40301,-16.8472,-0.972739,-2.21268,-7.85444,-0.881545,-1.48233,1.08096,-0.402966,-0.458424,-15.5545,-2.6031,-4.75958,35.2296,-3.11849,2.16275,14.9685,-1.66018,1.20626,-3.59695e-15,1.94809e-14,-64.7776,20.6903,-107.325,51.2743,-68.5719,-20.2709,-3.12518,7.12502,6.0783,-33.018,-3.59695e-15,1.94809e-14,-52.5336,4.64524,71.501,47.0561,13.0112,-2.71953,18.2037,7.12502,22.9831,46.8536,-43.0435,1.68173,30.8552,42.4619,-50.7675,-33.0415,45.4769,-22.9909,16.7672,-28.8653,52.7314,-19.8424,42.1603,50.6991
1.62773,16.6089,16.718,23.9484,5.44677,2.45473,-16.8561,-0.953755,-2.30324,-7.82057,-0.841536,-1.51528,1.12166,-0.382006,-0.435374,-15.5125,-2.5902,-4.82734,35.1269,-3.12584,2.29205,14.9145,-1.65434,1.27041,1.31345e-14,-7.15625e-15,-65.1558,20.6916,-107.545,52.0214,-70.4048,-19.9592,-4.04531,7.12502,6.37921,-33.9293,1.31345e-14,-7.15625e-15,-52.7729,3.91037,72.0691,47.1925,14.5347,-3.05055,19.922,7.12502,22.6654,48.6111,-43.0313,2.04942,30.6448,42.4419,-51.0641,-32.9845,45.724,-22.961,16.8556,-28.9527,52.7221,-18.9518,42.4101,50.2121
1.62722,16.609,16.7128,23.9888,5.38466,2.43534,-16.8617,-0.933084,-2.26598,-7.83994,-0.819573,-1.54575,1.10298,-0.37232,-0.484506,-15.4687,-2.57869,-4.77318,35.1287,-3.1277,2.28933,14.9037,-1.64874,1.25983,6.29433e-15,1.63003e-14,-65.5652,20.5896,-107.683,52.747,-72.2937,-19.5383,-5.24506,7.12502,6.78549,-35.1163,6.29433e-15,1.63003e-14,-52.9904,3.20786,72.5944,47.1384,16.0528,-3.3638,21.4745,7.12502,22.3648,50.1999,-43.0902,2.0264,30.6679,42.4204,-50.9561,-33.0003,45.6321,-22.9679,16.8695,-28.9407,52.7182,-19.153,42.3423,50.2902
1.62562,16.6098,16.7027,23.9844,5.33294,2.37318,-16.7699,-0.935352,-2.1951,-7.85601,-0.83814,-1.51879,1.03791,-0.382615,-0.49791,-15.4837,-2.54188,-4.68275,35.1989,-3.05367,2.15691,14.932,-1.62408,1.20185,1.02956e-14,3.57812e-15,-66.0301,20.6511,-107.81,53.4355,-74.0911,-19.0613,-5.95589,7.12502,7.24598,-35.8118,1.02956e-14,3.57812e-15,-53.2485,2.523,73.1859,46.8371,17.4678,-3.8251,22.0737,7.12502,21.9219,50.8517,-43.1128,2.03366,30.742,42.3999,-50.7942,-33.0741,45.6532,-22.9736,16.9158,-28.8579,52.7184,-18.8993,42.3493,50.3029
1.62277,16.6109,16.6904,23.9105,5.13963,2.46728,-16.6012,-0.952829,-2.33467,-7.80208,-0.845992,-1.53211,1.00849,-0.383895,-0.432411,-15.6824,-2.4998,-4.67634,35.3068,-2.99392,2.17965,15.0268,-1.59415,1.21968,-7.69669e-15,-3.97569e-16,-66.4442,20.756,-107.946,54.0409,-75.6833,-18.438,-6.29769,7.12502,7.84762,-36.132,-7.69669e-15,-3.97569e-16,-53.3678,2.01573,73.7276,46.3876,18.8583,-4.55072,22.3306,7.12502,21.225,51.1885,-43.0604,2.20536,30.5665,42.3914,-50.9266,-32.895,45.9318,-22.9481,17.0303,-28.9788,52.7214,-16.535,43.1412,49.4689
1.62307,16.6111,16.6856,23.9336,4.99646,2.4443,-16.7235,-0.932163,-2.28899,-7.68666,-0.818868,-1.53732,1.19419,-0.373636,-0.461646,-15.9174,-2.46075,-4.61133,35.2877,-2.93522,2.15332,15.0676,-1.56247,1.20528,9.62863e-15,2.10712e-14,-66.6273,20.8281,-107.899,54.6745,-77.1072,-17.8886,-7.14574,7.12502,8.37788,-36.9596,9.62863e-15,2.10712e-14,-53.3634,1.56056,74.2529,45.9983,20.1578,-5.16807,22.7567,7.12502,20.6319,51.6801,-43.1297,1.97522,30.6652,42.425,-50.4826,-32.9126,45.649,-22.9658,17.0316,-28.9881,52.7157,-14.2993,43.9984,47.9419
1.62149,16.6124,16.6772,24.0079,4.70255,2.45225,-17.0503,-0.843018,-2.32831,-7.42523,-0.6757,-1.61069,1.64059,-0.306953,-0.497631,-16.2812,-2.45741,-4.51163,35.1656,-2.95188,2.17682,15.0928,-1.54926,1.19069,-6.64686e-15,1.39149e-14,-66.468,20.8518,-107.722,55.3802,-78.2948,-17.498,-8.23158,7.12502,8.75481,-38.03,-6.64686e-15,1.39149e-14,-53.047,0.892428,74.8253,45.2479,21.4063,-5.82777,22.7914,7.12502,19.9979,51.7823,-43.2787,2.11637,30.598,42.4992,-50.1519,-33.1425,45.2396,-23.092,17.1236,-29.1115,52.7281,-11.7778,45.3057,45.7406
1.6175,16.612,16.6619,24.0527,4.31596,2.77287,-16.3936,-0.918964,-2.83881,-7.8915,-0.739438,-1.60341,0.806766,-0.318155,-0.201547,-15.839,-2.36324,-4.56381,35.3394,-2.79249,2.10376,15.065,-1.50414,1.20201,3.66509e-15,1.90833e-14,-67.6155,20.8739,-107.968,56.0348,-79.1878,-16.8866,-9.22132,7.12502,9.34472,-38.9942,3.66509e-15,1.90833e-14,-54.132,0.227626,75.4571,44.6427,22.5682,-6.28361,23.0229,7.12502,19.5597,52.059,-43.4226,2.527,30.066,42.598,-50.2832,-33.1529,45.4597,-23.1649,17.1724,-29.569,52.736,-10.8496,45.8123,44.7169
1.61194,16.607,16.6411,24.0148,4.02546,2.98592,-16.3489,-0.952489,-3.17166,-7.8086,-0.73485,-1.65269,0.872842,-0.310001,-0.0649243,-15.7078,-2.33422,-4.5584,35.1285,-2.77187,2.14842,14.9338,-1.48862,1.22237,5.92006e-15,2.54444e-14,-67.8167,21.0534,-108.028,56.4759,-80.0646,-16.1119,-9.67817,7.12502,10.0922,-39.4162,5.92006e-15,2.54444e-14,-54.4656,-0.505023,76.1741,44.4379,23.7558,-6.76407,23.7701,7.12502,19.0977,52.8525,-43.5098,2.94513,29.6868,42.693,-50.5695,-33.1525,45.6839,-23.1269,17.1812,-29.8391,52.7604,-14.1752,44.9088,45.9566
1.60709,16.6061,16.626,24.0388,3.86703,2.90546,-16.337,-0.941397,-3.15089,-7.82039,-0.725433,-1.63415,0.853976,-0.305497,-0.055368,-15.5871,-2.30033,-4.59186,35.0701,-2.75904,2.26334,14.8801,-1.47262,1.2787,-1.62134e-15,1.23246e-14,-68.1247,21.2023,-108.171,56.9091,-80.7514,-15.4589,-9.98182,7.12502,10.7221,-39.6882,-1.62134e-15,1.23246e-14,-55.0484,-1.29686,76.9166,44.6844,24.8763,-7.43137,24.1331,7.12502,18.4559,53.2776,-43.6536,3.31907,29.6563,42.7878,-50.7386,-33.2089,45.7486,-23.238,17.2571,-29.79,52.8035,-13.5732,44.9973,45.8464
1.60649,16.6105,16.6157,24.0283,3.604,2.99916,-16.3874,-0.990494,-3.36055,-7.75076,-0.757387,-1.59151,0.95689,-0.317762,0.100947,-15.5371,-2.25503,-4.66799,34.9561,-2.69404,2.33079,14.8144,-1.44612,1.33039,-7.85821e-15,1.86858e-14,-68.4525,21.5377,-108.242,57.4267,-81.3641,-14.7079,-9.97209,7.12502,11.4465,-39.6396,-7.85821e-15,1.86858e-14,-55.4383,-1.8462,77.6812,44.6947,25.8863,-7.878,24.8177,7.12502,18.0262,54.0024,-43.7294,3.55783,29.4299,42.8506,-50.7202,-33.3128,45.7608,-23.3456,17.3358,-29.9852,52.8371,-9.52648,45.9609,44.5118
1.60313,16.6098,16.5887,23.8832,3.19853,3.28046,-15.9838,-1.03346,-3.79265,-7.7638,-0.774497,-1.61784,0.73415,-0.313696,0.318951,-15.4078,-2.22132,-4.78154,34.8011,-2.65581,2.44603,14.7143,-1.42974,1.40371,-1.05635e-14,-1.94809e-14,-68.8628,21.7471,-108.289,57.9035,-81.739,-13.8883,-9.60051,7.12502,12.2369,-39.2225,-1.05635e-14,-1.94809e-14,-55.7467,-2.36635,78.382,44.304,26.7506,-7.94389,26.1628,7.12502,17.9628,55.3533,-43.7278,3.98496,28.9286,42.8952,-50.7316,-33.5735,45.7717,-23.3437,17.4102,-30.3876,52.8766,-9.41021,46.3427,44.431
1.60823,16.6071,16.564,23.6846,3.07664,3.09782,-15.5335,-0.994613,-3.57548,-7.80633,-0.781525,-1.54102,0.452876,-0.317842,0.282226,-15.312,-2.23085,-4.91974,34.8036,-2.66635,2.53693,14.6984,-1.44149,1.46434,-2.7923e-15,-3.69739e-14,-69.2554,21.9557,-108.289,58.3519,-82.1077,-13.2155,-9.75409,7.12502,12.8854,-39.3363,-2.7923e-15,-3.69739e-14,-56.1961,-2.85207,79.0581,43.9675,27.4754,-7.94653,26.8504,7.12502,17.9603,56.0411,-43.5976,4.01148,29.1229,42.9065,-50.6106,-33.5018,45.7984,-23.2253,17.3977,-30.2029,52.9514,-12.7123,45.9093,45.4884
1.61603,16.6039,16.5579,23.6817,3.00268,2.83192,-15.6003,-0.920731,-3.21306,-7.77677,-0.730668,-1.50091,0.516531,-0.302686,0.127387,-15.3174,-2.25134,-4.96739,34.7937,-2.71482,2.62435,14.6999,-1.45675,1.50047,6.94815e-15,2.26615e-14,-69.5051,22.1072,-108.295,58.8067,-82.5143,-12.5943,-9.97565,7.12502,13.4842,-39.5191,6.94815e-15,2.26615e-14,-56.6613,-3.35484,79.6805,43.7591,28.1342,-8.13988,26.9827,7.12502,17.7742,56.1903,-43.6117,3.60315,29.5555,42.9382,-50.1143,-33.2737,45.5717,-23.2157,17.388,-29.9399,53.0221,-13.7258,45.4836,45.8457
1.61863,16.6,16.5515,23.929,2.92712,2.75888,-15.8756,-0.941366,-3.13733,-7.8243,-0.758705,-1.43642,0.611682,-0.318401,0.144658,-15.3274,-2.19741,-4.97093,34.7715,-2.62607,2.60567,14.6869,-1.42197,1.50803,-6.74315e-15,1.43125e-14,-69.8442,22.2236,-108.122,59.4422,-82.7995,-11.9947,-10.2738,7.12502,14.0621,-39.7781,-6.74315e-15,1.43125e-14,-57.3987,-3.83434,80.4314,43.8677,28.9242,-8.16925,27.6313,7.12502,17.746,56.8416,-43.9157,3.43275,29.68,42.9833,-49.9482,-32.8881,45.418,-23.533,17.2458,-29.9581,53.1104,-13.8958,45.2644,46.0481
1.62171,16.5985,16.5399,24.1616,2.97784,2.85077,-16.1223,-1.01511,-3.18528,-7.84672,-0.838378,-1.43078,0.719438,-0.357961,0.161472,-15.2556,-2.14249,-4.92762,34.6748,-2.56793,2.62587,14.6215,-1.38849,1.51779,1.24147e-14,1.15295e-14,-70.0909,22.3573,-107.986,60.0243,-82.942,-11.6713,-10.7057,7.12502,14.3738,-40.1881,1.24147e-14,1.15295e-14,-57.9984,-4.36643,81.1615,44.0251,29.7226,-8.19484,28.7616,7.12502,17.7214,57.974,-44.2785,3.02733,29.7106,43.0765,-49.6303,-32.6215,44.8426,-23.8123,16.9239,-30.0881,53.1662,-14.1584,45.1008,46.2432
1.63025,16.6001,16.5313,24.2046,3.03506,2.92652,-16.3692,-1.09597,-3.15512,-7.67199,-0.933346,-1.4149,1.03659,-0.41111,0.140435,-15.4356,-2.10352,-4.8794,34.5457,-2.51059,2.6149,14.5986,-1.35712,1.51183,-1.87168e-14,3.37934e-15,-70.0197,22.7565,-107.829,60.3583,-83.1144,-11.3219,-10.8196,7.12502,14.7103,-40.2777,-1.87168e-14,3.37934e-15,-58.2297,-4.73967,81.8253,44.0115,30.6125,-8.281,28.7994,7.12502,17.6384,58.0194,-44.4344,2.41908,29.81,43.2078,-49.1725,-32.3844,44.3579,-23.8498,16.6952,-30.1632,53.2047,-11.0835,45.5354,45.4563
1.63428,16.595,16.5168,24.1738,2.89621,2.84059,-16.3931,-1.05341,-3.06329,-7.52291,-0.886513,-1.40092,1.2057,-0.392884,0.109863,-15.7727,-2.10001,-4.72103,34.5262,-2.52271,2.56761,14.6634,-1.34548,1.46039,9.62242e-15,5.76476e-15,-69.9624,22.9913,-107.669,60.6815,-83.0973,-10.8467,-10.7371,7.12502,15.1682,-40.1612,9.62242e-15,5.76476e-15,-58.463,-5.21964,82.5263,44.1543,31.6279,-8.50094,28.1417,7.12502,17.4268,57.3805,-44.5468,2.29558,29.931,43.3653,-48.8339,-32.5188,44.4591,-23.7559,16.7062,-30.1004,53.2442,-14.117,44.4674,46.4698
1.64013,16.5862,16.4981,24.1346,2.63488,2.77923,-16.2566,-0.986165,-2.99744,-7.49633,-0.814535,-1.38165,1.16056,-0.358229,0.106978,-16.0594,-2.08346,-4.70783,34.6154,-2.49349,2.57589,14.7692,-1.32892,1.46616,3.83282e-15,-9.74045e-15,-70.097,23.1692,-107.538,61.0368,-82.9233,-10.4744,-10.8405,7.12502,15.5268,-40.2372,3.83282e-15,-9.74045e-15,-58.8385,-5.58725,83.2038,44.204,32.4754,-8.45105,28.3857,7.12502,17.4748,57.6202,-44.6718,2.33122,29.9523,43.5122,-48.4121,-32.7309,44.4385,-23.6056,16.758,-30.1074,53.2917,-20.4501,42.057,48.1381
1.64604,16.5763,16.4794,23.9478,2.21815,2.85974,-15.963,-0.897907,-3.12698,-7.48989,-0.693049,-1.41451,1.01093,-0.294001,0.16953,-16.2061,-2.0631,-4.63662,34.6881,-2.45383,2.50072,14.8325,-1.31281,1.42936,1.31074e-15,-2.5842e-15,-70.3243,23.2998,-107.421,61.3445,-82.5576,-10.2291,-11.3072,7.12502,15.763,-40.6853,1.31074e-15,-2.5842e-15,-59.3351,-6.02646,83.8935,44.2344,33.4841,-7.85226,29.9203,7.12502,18.051,59.1027,-44.6148,2.44026,29.7696,43.6207,-48.1549,-32.635,44.3192,-23.3958,16.8821,-30.2912,53.3523,-23.3634,40.6228,48.8837
1.6485,16.5701,16.4693,23.9029,1.88463,2.74629,-15.8983,-0.795116,-3.09539,-7.48068,-0.56655,-1.38373,0.983787,-0.231062,0.205474,-16.4811,-2.10504,-4.65269,34.8833,-2.50028,2.49528,14.9908,-1.33523,1.42275,-8.41108e-15,1.15295e-14,-70.5281,23.5062,-107.365,61.6228,-82.0739,-9.78639,-11.2283,7.12502,16.1893,-40.5722,-8.41108e-15,1.15295e-14,-59.8645,-6.50214,84.634,44.4749,34.6019,-7.39157,31.1061,7.12502,18.4942,60.2469,-44.6384,2.52745,29.8435,43.6374,-47.8275,-32.6811,44.1677,-23.4054,17.0446,-30.2684,53.4602,-24.4734,39.8944,49.3911
1.66461,16.5747,16.4545,23.8339,2.0678,2.35004,-15.7635,-0.74355,-2.43593,-7.53789,-0.600259,-1.30915,0.851069,-0.260792,-0.0917428,-16.2907,-2.13439,-4.67321,34.8983,-2.56441,2.5355,14.9579,-1.36166,1.43295,-3.88251e-15,1.68967e-14,-70.791,23.6571,-107.369,61.7585,-81.5375,-8.87395,-10.7596,7.12502,17.0678,-40.0298,-3.88251e-15,1.68967e-14,-60.5162,-6.9227,85.3044,44.729,35.6961,-7.10199,31.9521,7.12502,18.7727,61.0663,-44.5888,1.74612,30.5286,43.5759,-47.0325,-32.5068,43.1996,-23.4093,16.9609,-29.7852,53.6158,-23.3586,40.2115,49.474
1.67095,16.5813,16.4355,23.7722,2.10287,2.03444,-15.6058,-0.750933,-2.06752,-7.64352,-0.671833,-1.2055,0.656217,-0.302309,-0.200014,-15.8477,-2.08607,-4.50764,34.791,-2.52072,2.40244,14.7971,-1.34304,1.35679,6.47914e-15,6.16232e-15,-71.1712,23.9598,-107.447,61.99,-81.1367,-8.10872,-10.6425,7.12502,17.8042,-39.8475,6.47914e-15,6.16232e-15,-61.3257,-7.17899,85.9006,45.1283,36.7065,-6.80659,32.8016,7.12502,19.0568,61.888,-44.5089,1.73504,30.8729,43.4596,-46.7721,-32.4926,42.5498,-23.5778,16.9836,-29.4355,53.8303,-19.2267,41.6784,49.0821
1.67295,16.5855,16.4117,23.6808,1.99138,1.96958,-15.492,-0.756804,-2.00303,-7.53679,-0.69114,-1.17845,0.70947,-0.314302,-0.210384,-15.9316,-2.05389,-4.4055,34.6928,-2.47236,2.32273,14.7649,-1.31921,1.31236,5.19325e-15,6.16232e-15,-71.0829,24.3245,-107.32,62.1949,-80.9503,-7.58059,-10.8107,7.12502,18.3124,-39.9687,5.19325e-15,6.16232e-15,-61.7457,-7.40689,86.403,45.6835,37.807,-6.53996,33.5477,7.12502,19.3132,62.6086,-44.4258,1.78874,30.9229,43.3874,-46.8107,-32.1947,42.7319,-23.6508,17.0133,-29.3762,54.0046,-17.6862,41.9412,48.7536
1.67465,16.5835,16.3911,23.6539,1.86996,1.99332,-15.5587,-0.753293,-2.05879,-7.34169,-0.673322,-1.17147,0.951352,-0.306553,-0.170741,-16.1625,-2.04331,-4.28778,34.518,-2.44979,2.23554,14.7318,-1.30347,1.25628,-3.88251e-15,-1.05356e-14,-70.7767,24.6293,-107.041,62.3054,-80.6636,-7.03072,-10.9409,7.12502,18.8413,-40.0484,-3.88251e-15,-1.05356e-14,-61.8856,-7.70354,86.9411,46.051,38.8868,-6.27885,33.9127,7.12502,19.5643,62.9484,-44.476,1.90936,30.8498,43.3729,-46.8396,-32.1277,42.7202,-23.6602,17.0356,-29.4183,54.1215,-19.2061,41.0627,49.1339
1.67197,16.5782,16.3754,23.6772,1.66562,2.16563,-15.8134,-0.796703,-2.39326,-7.11853,-0.671139,-1.15364,1.32399,-0.302036,0.0325514,-16.5114,-2.0666,-4.30846,34.4854,-2.47896,2.28158,14.7993,-1.30972,1.27161,-3.46631e-15,3.57812e-15,-70.5535,25.1269,-106.864,62.4131,-80.5476,-6.42858,-11.0293,7.12502,19.4203,-40.0795,-3.46631e-15,3.57812e-15,-61.936,-8.03042,87.5608,46.2342,40.0616,-5.99529,34.2694,7.12502,19.8369,63.2771,-44.6279,2.23857,30.5316,43.4295,-46.9202,-32.374,42.555,-23.6857,17.0674,-29.639,54.1548,-17.5709,41.2725,48.8906
1.67365,16.5726,16.3645,23.6925,1.50181,2.13474,-16.1435,-0.786654,-2.43785,-6.92805,-0.636452,-1.13197,1.69909,-0.287963,0.0814184,-16.6165,-2.05324,-4.17349,34.3526,-2.46826,2.20047,14.7571,-1.29739,1.21416,4.01297e-15,-1.59028e-14,-70.4205,25.5441,-106.807,62.381,-80.3676,-5.61224,-10.9194,7.12502,20.2051,-39.8886,4.01297e-15,-1.59028e-14,-62.0805,-8.36209,88.096,46.3594,41.05,-5.41862,34.4965,7.12502,20.3912,63.4459,-44.7136,2.50323,30.4577,43.4987,-47.1038,-32.2896,42.7347,-23.6605,17.1535,-29.652,54.1796,-17.0251,40.99,48.8993
1.67795,16.5724,16.3575,23.7697,1.41851,2.13782,-16.3382,-0.756465,-2.4163,-6.96033,-0.591926,-1.18992,1.76562,-0.267296,0.0142995,-16.2904,-2.05526,-4.0279,34.1356,-2.54375,2.23404,14.5826,-1.30718,1.18932,-3.26752e-15,5.96354e-16,-70.5341,25.5803,-106.786,62.3979,-80.0938,-5.01803,-11.1355,7.12502,20.7761,-40.0432,-3.26752e-15,5.96354e-16,-62.719,-8.9297,88.7477,46.8482,42.0875,-4.85164,34.3549,7.12502,20.9359,63.2451,-44.8778,2.50971,30.4242,43.5858,-47.0847,-32.1577,42.8086,-23.6575,17.1344,-29.6876,54.2031,-16.9523,40.5396,49.016
1.68217,16.5765,16.3403,23.953,1.24789,2.32292,-16.193,-0.754799,-2.59461,-7.24249,-0.57355,-1.2674,1.39027,-0.251044,0.0398542,-16.1225,-2.03964,-3.94638,34.249,-2.5671,2.25863,14.5961,-1.30515,1.18317,8.29305e-15,1.23246e-14,-70.9853,25.5501,-106.822,62.4471,-79.6741,-4.21521,-11.2565,7.12502,21.5473,-40.0779,8.29305e-15,1.23246e-14,-63.6271,-9.28872,89.286,47.4968,43.0057,-4.01442,34.4164,7.12502,21.7401,63.2155,-45.1889,2.62384,30.1306,43.6677,-47.1042,-31.986,42.9459,-23.8674,17.0249,-30.0034,54.2448,-14.1789,40.9346,48.4289
1.68516,16.5762,16.3094,24.0467,1.09876,2.39269,-15.8881,-0.734191,-2.6843,-7.43194,-0.550549,-1.26729,1.02942,-0.233189,0.098343,-16.2764,-2.03011,-3.85998,34.4227,-2.53013,2.1249,14.7065,-1.29645,1.11969,6.78353e-15,3.97569e-15,-71.2627,25.6043,-106.666,62.5551,-79.0927,-3.37349,-11.3385,7.12502,22.3555,-40.0651,6.78353e-15,3.97569e-15,-64.1971,-9.52117,89.7994,47.859,43.8242,-3.0067,34.5164,7.12502,22.7075,63.2003,-45.4432,3.01234,29.8901,43.7432,-47.3639,-31.9418,43.0857,-23.9704,16.9294,-30.1495,54.3058,-13.8199,40.2405,48.4463
1.68947,16.5769,16.281,24.0382,0.980824,2.48916,-15.8333,-0.721116,-2.7812,-7.36213,-0.51939,-1.30148,1.07393,-0.216993,0.122483,-16.5547,-2.07394,-3.7936,34.4639,-2.59421,2.08687,14.7904,-1.31861,1.07963,1.49834e-14,8.54774e-15,-71.0935,25.7478,-106.411,62.6721,-78.4831,-2.6855,-11.5551,7.12502,23.0158,-40.2009,1.49834e-14,8.54774e-15,-64.3638,-9.76888,90.2022,48.0848,44.4586,-1.89424,34.5276,7.12502,23.7748,63.0767,-45.5813,3.39023,29.6118,43.8174,-47.5333,-32.1252,43.1975,-23.904,16.7826,-30.24,54.3475,-13.3274,39.436,48.8054
1.69349,16.579,16.258,24.0409,0.86265,2.45173,-16.0374,-0.695093,-2.78774,-7.14069,-0.471303,-1.26837,1.41494,-0.197378,0.166089,-17.0017,-2.10159,-3.776,34.3909,-2.61251,2.06048,14.8593,-1.32419,1.05877,4.95719e-15,-3.97569e-16,-70.7724,26.0281,-106.092,62.705,-77.9303,-1.98436,-11.4627,7.12502,23.6884,-40.023,4.95719e-15,-3.97569e-16,-64.3794,-10.1037,90.6693,48.5525,45.3164,-0.610791,35.0719,7.12502,25.0052,63.4554,-45.7002,3.57448,29.5644,43.8718,-47.4813,-32.2957,43.209,-23.9126,16.6836,-30.1831,54.394,-8.66444,39.582,47.8034
1.69729,16.5736,16.2301,24.0004,0.567849,2.54688,-15.9538,-0.651772,-3.00146,-7.11451,-0.387244,-1.25104,1.39716,-0.15109,0.319459,-17.0892,-2.12966,-3.77451,34.3609,-2.61401,1.95929,14.864,-1.33824,1.01528,1.66482e-15,-1.31198e-14,-70.7766,26.3294,-105.956,62.7217,-77.5631,-1.38478,-11.3657,7.12502,24.2634,-39.8504,1.66482e-15,-1.31198e-14,-64.7087,-10.4087,91.233,49.0626,46.1424,0.493558,35.559,7.12502,26.063,63.7909,-45.7841,3.94774,29.2785,43.8999,-47.6587,-32.0916,43.7747,-23.8791,16.7217,-30.3651,54.4149,-4.30067,39.2979,46.3162
1.70622,16.5746,16.212,23.84,0.524392,2.63708,-15.6772,-0.598948,-3.03293,-7.23875,-0.327611,-1.27536,1.11838,-0.116763,0.323827,-16.6776,-2.23903,-4.01361,34.3712,-2.7764,2.12776,14.7888,-1.41815,1.10166,-3.48494e-15,-6.55989e-15,-71.0434,26.3831,-105.889,62.6095,-77.2031,-0.587558,-11.2933,7.12502,25.0275,-39.6737,-3.48494e-15,-6.55989e-15,-65.4037,-10.7875,91.8559,49.4191,46.7965,1.68309,34.8541,7.12502,27.2015,62.9131,-45.6501,4.09279,29.0656,43.9076,-48.0945,-31.7326,44.1521,-23.5869,16.7003,-30.386,54.3997,0.200283,38.5716,44.3184
1.71298,16.5788,16.1938,23.7216,0.590166,2.49828,-15.5175,-0.549757,-2.82005,-7.33111,-0.302226,-1.24069,0.936219,-0.105467,0.245482,-16.265,-2.26352,-4.11754,34.2703,-2.84126,2.25531,14.6545,-1.44434,1.16369,-4.06887e-15,1.37161e-14,-71.26,26.4443,-105.841,62.5428,-76.7388,0.401062,-11.2018,7.12502,25.9745,-39.4468,-4.06887e-15,1.37161e-14,-65.9458,-11.0689,92.2558,49.6953,47.354,3.22024,34.5093,7.12502,28.671,62.3292,-45.535,4.25497,29.1414,43.8979,-48.3499,-31.7167,44.3715,-23.3893,16.5691,-30.1094,54.3937,5.12386,36.9527,41.4534
1.71772,16.5825,16.1699,23.714,0.600174,2.55641,-15.5076,-0.532895,-2.81838,-7.34794,-0.279915,-1.28138,0.912452,-0.094579,0.20562,-16.1679,-2.25061,-4.02258,34.1768,-2.84168,2.2182,14.5863,-1.43744,1.1317,-6.06914e-15,7.15625e-15,-71.2879,26.5603,-105.8,62.4283,-76.444,1.31166,-11.1154,7.12502,26.8461,-39.2295,-6.06914e-15,7.15625e-15,-66.1941,-11.3466,92.5047,49.9876,47.8787,4.88501,34.6279,7.12502,30.2603,62.1678,-45.6268,4.26095,29.0376,43.9036,-48.3085,-31.7274,44.5036,-23.3043,16.3294,-30.0899,54.3591,9.09434,34.6691,38.0937
1.72952,16.5828,16.1581,23.7282,0.647503,2.61175,-15.6689,-0.537947,-2.74601,-7.39549,-0.290749,-1.30144,0.947163,-0.102013,0.141259,-16.0653,-2.20357,-3.82545,34.189,-2.76059,1.998,14.557,-1.40845,1.02134,-1.39149e-15,-9.54166e-15,-71.4722,26.6416,-105.722,62.361,-76.0902,2.43542,-11.4205,7.12502,27.9209,-39.3647,-1.39149e-15,-9.54166e-15,-66.5268,-11.3762,92.6048,50.3345,48.2231,6.55471,34.067,7.12502,31.8517,61.3025,-45.6939,3.86365,29.0509,43.9045,-48.0912,-31.3789,44.5438,-23.0273,16.0683,-30.0891,54.2915,8.67778,33.3367,38.0111
1.7449,16.5819,16.1544,23.7533,0.804707,2.43505,-15.9272,-0.498299,-2.3734,-7.4137,-0.282175,-1.26664,1.06377,-0.106527,-0.0324494,-16.0472,-2.21634,-3.68955,34.2068,-2.77338,1.85425,14.5562,-1.41631,0.936477,4.13721e-15,-3.57812e-15,-71.5828,26.7159,-105.567,62.3277,-75.8154,3.58315,-11.6163,7.12502,29.0176,-39.377,4.13721e-15,-3.57812e-15,-66.8311,-11.5392,92.7863,50.7817,48.7194,8.03451,33.2746,7.12502,33.2598,60.2197,-45.7153,3.29185,29.4003,43.9185,-47.7521,-30.9437,44.5767,-22.6974,15.9166,-29.8428,54.237,7.29219,32.2014,38.8029
1.75102,16.5784,16.1396,23.7812,0.802245,2.19421,-16.152,-0.471548,-2.17484,-7.33839,-0.270472,-1.11312,1.2621,-0.10462,0.0168074,-16.2675,-2.21889,-3.71046,34.2023,-2.73805,1.78864,14.6025,-1.41147,0.917309,3.93842e-15,-1.96797e-14,-71.5454,27.1109,-105.426,62.3639,-75.558,4.50703,-11.5907,7.12502,29.8997,-39.1961,3.93842e-15,-1.96797e-14,-66.9023,-11.6362,93,51.1798,49.3279,9.43923,33.2013,7.12502,34.5943,59.8511,-45.7701,3.33883,29.6437,43.929,-47.8153,-30.774,44.7334,-22.5762,15.9661,-29.59,54.2448,9.19006,30.0886,35.6949
1.75281,16.5733,16.1136,23.7966,0.66578,2.08024,-16.2847,-0.422054,-2.15696,-7.23527,-0.204383,-1.02472,1.44029,-0.0726195,0.109691,-16.5173,-2.20587,-3.6904,34.2393,-2.6934,1.72775,14.6737,-1.39642,0.894558,5.75233e-15,-1.98785e-16,-71.3618,27.5298,-105.275,62.3277,-75.27,5.24039,-11.5286,7.12502,30.5992,-39.0057,5.75233e-15,-1.98785e-16,-66.8781,-11.7821,93.0973,51.5728,49.8054,10.6964,33.6832,7.12502,35.7865,60.0518,-45.9014,3.72734,29.6335,43.9364,-47.8836,-31.0129,44.5986,-22.4984,15.9516,-29.4803,54.3058,9.63166,27.9796,32.6621
1.76215,16.5738,16.0808,23.7054,0.652662,2.08021,-16.1802,-0.352077,-2.10196,-7.18316,-0.12206,-1.02912,1.43937,-0.0328011,0.0884499,-16.4672,-2.25031,-3.72587,34.1849,-2.73984,1.70606,14.6393,-1.42355,0.884048,-3.80176e-15,-4.57205e-15,-71.1908,27.7922,-105.06,62.2224,-75.0592,6.077,-11.7663,7.12502,31.3967,-39.0914,-3.80176e-15,-4.57205e-15,-66.8721,-12.0019,93.0833,51.9972,49.8302,11.7584,33.7033,7.12502,36.7921,59.8213,-45.9499,3.66423,29.611,43.9483,-47.8347,-31.037,44.4305,-22.3189,15.8306,-29.4547,54.4109,8.65966,26.4335,30.8392
1.7754,16.5764,16.0477,23.5563,0.791306,2.03733,-16.0445,-0.302641,-1.9172,-7.07316,-0.0856826,-1.01115,1.4844,-0.0186579,0.00953604,-16.641,-2.34453,-3.76293,34.1307,-2.82614,1.61572,14.6567,-1.47605,0.836546,3.50979e-16,6.16232e-15,-70.9367,28.0183,-104.781,62.1895,-74.8346,6.6155,-11.9883,7.12502,31.9096,-39.2123,3.50979e-16,6.16232e-15,-66.7953,-12.1492,93.0411,52.4543,49.4754,12.5117,33.1008,7.12502,37.5045,59.0331,-45.9434,3.29917,29.7519,43.977,-47.5439,-31.1439,43.942,-22.0808,15.6106,-29.3151,54.5396,7.26919,24.8532,29.5438
1.7893,16.5741,16.0138,23.4522,0.960263,1.90228,-15.871,-0.279363,-1.64831,-7.09894,-0.10053,-0.940373,1.36665,-0.0293254,-0.0700287,-16.6559,-2.39659,-3.71997,34.1242,-2.86263,1.46457,14.6549,-1.50701,0.760187,6.18096e-16,-7.7526e-15,-71.1461,28.3262,-104.916,62.0854,-74.5658,7.22933,-11.376,7.12502,32.494,-38.4816,6.18096e-16,-7.7526e-15,-66.8891,-12.1636,93.0331,52.7547,48.8538,13.0147,32.2637,7.12502,37.9798,58.0684,-45.9719,2.8841,30.0254,43.9915,-47.2457,-31.0545,43.8007,-21.8653,15.3942,-29.1155,54.6844,5.06346,23.2617,29.8421
1.7982,16.5703,15.9773,23.4655,0.944933,1.93895,-15.9113,-0.215537,-1.63556,-7.06711,-0.0155373,-0.970085,1.42065,0.0121815,-0.0942753,-16.7711,-2.45762,-3.75709,34.1924,-2.96627,1.54424,14.7188,-1.54377,0.780591,-2.54693e-16,9.93923e-16,-70.6127,28.2159,-104.166,61.877,-73.0554,9.38375,-12.9357,7.12502,34.5416,-39.5975,-2.54693e-16,9.93923e-16,-66.7575,-12.3747,92.9583,53.0372,48.0763,13.4117,32.4188,7.12502,38.3546,58.1206,-46.131,2.91099,29.9352,43.9847,-47.1419,-30.9589,44.0119,-21.877,15.2681,-29.2296,54.8115,3.45265,21.8239,27.9224
1.80673,16.5716,15.9473,23.4527,0.882579,1.96093,-16.0753,-0.184727,-1.66847,-6.89864,0.0361059,-0.948803,1.68446,0.0366841,-0.0449778,-17.1798,-2.46889,-3.848,34.2394,-2.98346,1.67515,14.8398,-1.54132,0.843772,2.67117e-16,2.68359e-15,-70.2309,28.4575,-103.847,61.6741,-72.4958,10.6681,-13.2422,7.12502,35.7597,-39.6173,2.67117e-16,2.68359e-15,-66.3475,-12.4876,92.7153,53.2756,47.6037,13.8662,33.6938,7.12502,38.7834,59.2755,-46.1778,3.13312,29.7781,43.944,-47.4658,-30.6718,44.6123,-21.8747,15.2184,-29.3323,54.8694,2.93766,20.6843,22.2231
1.81493,16.5763,15.9307,23.4664,0.827709,2.01571,-16.2931,-0.149891,-1.7196,-6.83183,0.0956115,-0.928478,1.86874,0.0661625,0.0153024,-17.3402,-2.48666,-3.91485,34.2525,-2.97489,1.66278,14.884,-1.54668,0.850369,-4.00675e-15,-2.78299e-15,-70.1515,28.6289,-103.727,61.5168,-72.2298,11.2817,-13.0513,7.12502,36.341,-39.2833,-4.00675e-15,-2.78299e-15,-66.0432,-12.4915,92.362,53.2528,47.105,14.64,34.5456,7.12502,39.5126,59.9169,-46.1965,3.03731,29.7126,43.906,-47.4565,-30.2935,44.9279,-21.822,15.2382,-29.4156,54.817,2.5907,19.756,14.85
1.82075,16.5792,15.9144,23.5093,0.766904,2.13515,-16.4288,-0.111848,-1.82092,-6.93755,0.163997,-0.965724,1.82679,0.102349,0.0453451,-17.192,-2.53541,-3.91982,34.3064,-3.04604,1.64242,14.8776,-1.58148,0.831845,-8.75895e-16,-7.7526e-15,-70.4034,28.7224,-103.823,61.4592,-71.9777,11.8158,-12.7969,7.12502,36.8465,-38.9009,-8.75895e-16,-7.7526e-15,-65.9622,-12.4256,91.9176,53.0385,46.3657,15.6591,34.003,7.12502,40.4717,59.085,-46.3164,2.8142,29.6226,43.8582,-47.0508,-30.3625,44.526,-21.7328,15.2384,-29.5671,54.6846,1.25952,19.3205,11.0171
1.82567,16.5722,15.8898,23.4963,0.630333,2.19719,-16.3277,-0.059105,-1.93442,-7.1679,0.243059,-0.954934,1.52786,0.147383,0.133984,-16.8268,-2.54244,-3.99753,34.3654,-3.06621,1.69396,14.8248,-1.59573,0.86729,2.50189e-15,-6.75868e-15,-70.8161,28.7366,-103.83,61.468,-71.7301,12.297,-12.9615,7.12502,37.3016,-38.9474,2.50189e-15,-6.75868e-15,-66.1561,-12.2925,91.4915,53.0443,45.7723,16.7039,33.5708,7.12502,41.453,58.3414,-46.4001,2.99555,29.445,43.8281,-47.1327,-30.3701,44.5766,-21.5241,15.3209,-29.696,54.5061,-0.648234,19.4387,10.721
1.8317,16.5717,15.8575,23.4403,0.643674,2.04813,-16.1161,-0.018234,-1.78095,-7.3192,0.264562,-0.900842,1.25727,0.158589,0.106884,-16.6817,-2.52232,-3.9429,34.43,-3.05361,1.66941,14.8192,-1.58789,0.851536,-2.4025e-15,5.26779e-15,-71.0551,28.9279,-103.92,61.4047,-71.4967,12.6293,-13.1944,7.12502,37.6156,-39.0971,-2.4025e-15,5.26779e-15,-66.1497,-12.143,90.9542,52.813,45.0722,17.6316,33.3603,7.12502,42.3227,57.8413,-46.4143,3.375,29.4318,43.7663,-47.5685,-30.407,44.9052,-21.3445,15.2584,-29.5141,54.3323,-2.81847,19.5884,11.6093
1.83706,16.5719,15.8136,23.4309,0.603556,2.1187,-16.0238,0.00507604,-1.87638,-7.32623,0.307278,-0.924588,1.20006,0.182152,0.142743,-16.8757,-2.55265,-3.7535,34.5437,-3.09641,1.50423,14.9108,-1.60304,0.740567,3.51134e-15,0,-70.8652,29.1752,-103.898,61.143,-71.3652,12.9086,-13.5475,7.12502,37.8796,-39.3794,3.51134e-15,0,-65.7013,-12.0926,90.3391,52.1997,44.3885,18.3906,32.6636,7.12502,43.033,56.8979,-46.5631,3.74958,29.1776,43.6926,-47.7783,-30.7953,44.9362,-21.3172,15.0098,-29.5818,54.1394,-4.60531,19.5722,11.0985
1.84151,16.5787,15.7706,23.4153,0.691437,2.16757,-16.0407,-0.026047,-1.94052,-7.19706,0.277633,-0.891136,1.34544,0.167529,0.209461,-17.2839,-2.55106,-3.72023,34.639,-3.08158,1.48169,15.0483,-1.59242,0.723786,-1.20047e-15,-5.31749e-15,-70.4745,29.5216,-103.724,60.8846,-71.2169,13.2245,-13.4204,7.12502,38.1778,-39.171,-1.20047e-15,-5.31749e-15,-64.9731,-11.8654,89.596,51.715,43.5484,19.2387,32.4007,7.12502,43.8252,56.3484,-46.7038,3.80402,29.0755,43.5977,-47.5458,-31.305,44.7864,-21.3275,14.5576,-29.5653,53.9097,-5.82034,19.8431,9.92309
1.84843,16.5869,15.7393,23.3841,0.854347,1.98786,-16.3032,-0.0141044,-1.71398,-7.00068,0.268712,-0.827159,1.6928,0.156237,0.148241,-17.4857,-2.54035,-3.69352,34.5655,-3.09469,1.56207,15.0617,-1.58095,0.748137,5.29031e-15,2.48481e-15,-69.987,29.7849,-103.471,60.5912,-71.1093,13.402,-13.5066,7.12502,38.3454,-39.211,5.29031e-15,2.48481e-15,-64.2609,-11.6087,88.7424,51.4438,42.4141,19.9713,32.8725,7.12502,44.5083,56.5631,-46.6916,3.69985,29.3027,43.515,-47.5334,-31.2204,45.0518,-21.2445,14.1405,-29.2915,53.6454,-6.77617,20.0657,10.2646
1.85731,16.5909,15.7038,23.3261,0.878612,1.90389,-16.3257,0.0361595,-1.62509,-7.07728,0.320121,-0.789904,1.6233,0.181757,0.145844,-17.1253,-2.57414,-3.75187,34.4898,-3.16401,1.6314,14.948,-1.61052,0.778633,4.81432e-16,9.0447e-15,-69.9741,29.8574,-103.351,60.2573,-70.9332,13.5889,-13.8616,7.12502,38.5218,-39.517,4.81432e-16,9.0447e-15,-64.038,-11.1009,87.7729,51.1357,40.8035,20.89,32.8311,7.12502,45.3633,56.1862,-46.7017,3.72311,29.3496,43.4374,-47.3602,-31.2501,45.3368,-21.0685,13.8557,-29.1754,53.2984,-7.12634,20.1764,9.63718
1.85891,16.588,15.645,23.2746,0.737623,1.98171,-15.7991,0.0877594,-1.84516,-7.38133,0.402472,-0.79198,1.02159,0.233384,0.278519,-16.7588,-2.61771,-3.816,34.6194,-3.25832,1.71993,14.9313,-1.64942,0.814481,-7.75338e-15,1.18028e-14,-70.0047,29.5824,-102.976,59.9549,-70.3986,13.9495,-14.0598,7.12502,38.862,-39.6192,-7.75338e-15,1.18028e-14,-63.8992,-10.5979,86.8235,50.5801,39.028,21.8333,32.5452,7.12502,46.2389,55.5396,-46.9002,4.33063,29.0046,43.3454,-47.4174,-31.9283,45.5052,-21.0707,13.5572,-29.2818,52.9367,-7.1521,20.3158,8.31992
1.87136,16.5909,15.6339,23.3214,0.959593,1.81692,-16.2743,0.063121,-1.55413,-7.22552,0.340392,-0.729753,1.43935,0.193456,0.171653,-17.0885,-2.60285,-3.71416,34.7183,-3.24496,1.67903,15.0503,-1.6335,0.77864,-1.11964e-14,1.14301e-14,-69.3647,29.5558,-102.413,59.4448,-69.6036,14.3268,-13.786,7.12502,39.2176,-39.2434,-1.11964e-14,1.14301e-14,-63.0589,-9.8738,85.6204,49.9159,36.7868,22.723,32.4673,7.12502,47.0628,55.1058,-46.9231,3.67278,29.4013,43.2453,-47.0574,-31.7655,44.9776,-20.9021,13.1593,-29.0098,52.4246,-6.99734,20.0365,6.8742
1.87576,16.5891,15.6102,23.3021,0.959819,1.69588,-16.6121,0.0900681,-1.48324,-7.01733,0.37355,-0.673206,1.83674,0.206077,0.198678,-17.6326,-2.58687,-3.69637,34.9207,-3.22933,1.73219,15.2735,-1.61255,0.795463,-1.00984e-15,2.23633e-16,-68.5591,29.5421,-101.777,58.5875,-68.4053,15.2226,-13.1893,7.12502,40.0611,-38.3968,-1.00984e-15,2.23633e-16,-62.2891,-9.26194,84.4928,49.6606,34.431,23.1581,32.0109,7.12502,47.4649,54.4695,-46.9402,3.59758,29.5488,43.1757,-47.132,-31.5664,44.9008,-20.7162,12.8226,-28.8127,51.819,-7.19356,19.5055,7.25229
1.87949,16.5879,15.5737,23.2709,0.895376,1.7554,-16.4879,0.116314,-1.57143,-7.1096,0.418078,-0.688944,1.67255,0.23119,0.238941,-17.6532,-2.5301,-3.68298,34.9885,-3.1855,1.82936,15.3108,-1.57794,0.842317,-2.45414e-15,9.59136e-15,-68.0087,29.2129,-101.077,57.3929,-66.2651,16.8074,-11.3911,7.12502,41.5501,-36.1301,-2.45414e-15,9.59136e-15,-62.0621,-8.61756,83.3097,49.7267,31.8134,23.3857,31.0351,7.12502,47.6751,53.3981,-47.0398,3.60354,29.4474,43.1735,-47.2427,-31.3436,45.113,-20.5246,12.3753,-28.835,51.0298,-7.28358,19.1494,6.35938
1.88818,16.5856,15.529,23.297,0.851378,1.90704,-16.4301,0.116911,-1.71406,-7.2004,0.437895,-0.695829,1.54432,0.245104,0.315062,-17.3322,-2.52749,-3.76988,34.7304,-3.22056,1.99573,15.1196,-1.58268,0.923241,7.15042e-15,-4.16205e-16,-67.2089,28.6959,-99.9183,56.2897,-63.6501,18.4142,-9.55849,7.12502,43.055,-33.7849,7.15042e-15,-4.16205e-16,-61.8402,-7.97053,82.2641,49.866,29.3353,23.6575,30.3833,7.12502,47.9258,52.6307,-47.292,3.55019,29.234,43.2479,-47.1682,-31.3164,45.2984,-20.4002,11.9003,-28.9791,50.1525,-7.83555,18.6167,7.02577
1.89978,16.5752,15.4822,23.3274,0.838128,1.90445,-16.561,0.155261,-1.65816,-7.20106,0.483055,-0.693511,1.61201,0.266167,0.294487,-17.2181,-2.54392,-3.87837,34.7098,-3.29861,2.22777,15.0942,-1.59788,1.02661,-9.63019e-15,9.93923e-17,-66.1836,27.9252,-98.4698,55.5044,-60.7083,19.4707,-8.52601,7.12502,44.0417,-32.3933,-9.63019e-15,9.93923e-17,-61.3363,-7.27261,81.1356,49.7349,26.875,24.081,30.2863,7.12502,48.3161,52.3503,-47.5853,3.36553,29.2658,43.3158,-46.6829,-31.5109,45.1739,-20.2538,11.3998,-28.9694,49.326,-9.51678,17.4019,13.5085
1.90362,16.5728,15.4347,23.3435,0.733196,1.99961,-16.5739,0.190314,-1.77904,-7.24112,0.549397,-0.768949,1.57449,0.301016,0.295095,-17.2446,-2.49009,-3.79421,34.8553,-3.31872,2.41215,15.1722,-1.56848,1.08674,7.14674e-16,-2.43511e-15,-65.0625,26.8794,-96.9514,54.8917,-57.5804,19.9952,-8.38135,7.12502,44.5306,-32.0635,7.14674e-16,-2.43511e-15,-60.8206,-6.64064,79.9315,49.5155,24.3805,24.6192,30.3461,7.12502,48.8113,52.1714,-47.8187,3.40303,29.1294,43.3294,-47.0929,-30.7929,46.1888,-20.2318,10.9968,-29.0919,48.6491,-9.89051,17.0628,14.9808
1.90608,16.5785,15.3831,23.4038,0.817426,1.9134,-16.554,0.226498,-1.67725,-7.24854,0.582788,-0.808193,1.5574,0.315479,0.202105,-17.376,-2.42958,-3.53582,34.9629,-3.31937,2.42249,15.2479,-1.53084,1.04559,8.71469e-15,-6.39838e-15,-63.8162,25.6395,-95.2502,54.584,-54.2834,20.302,-8.91756,7.12502,44.8163,-32.4891,8.71469e-15,-6.39838e-15,-60.2129,-6.02763,78.7299,49.3474,21.8202,24.9996,29.3088,7.12502,49.1608,50.9613,-48.0047,3.22888,29.2906,43.2541,-48.1416,-28.8903,47.9565,-20.4038,10.721,-28.9964,48.1633,-9.07081,17.8979,12.2269
1.91489,16.5836,15.3427,23.4956,1.02296,1.80284,-16.7814,0.232946,-1.48515,-7.14576,0.568783,-0.790481,1.78782,0.303337,0.11177,-17.5432,-2.43957,-3.48825,34.9526,-3.39765,2.56218,15.2875,-1.53553,1.08057,-1.04432e-14,4.36084e-15,-62.4435,24.4909,-93.494,54.071,-50.7297,20.5903,-8.35514,7.12502,45.0846,-31.8213,-1.04432e-14,4.36084e-15,-59.4177,-5.14882,77.503,49.1645,19.3353,25.142,28.1565,7.12502,49.2915,49.7435,-48.1832,2.60048,29.6395,43.1308,-47.8434,-28.2423,48.34,-20.5261,10.4584,-28.8566,47.7954,-8.46419,18.7226,11.936
1.92003,16.5854,15.3119,23.507,0.848806,1.80263,-17.141,0.28463,-1.55936,-6.98775,0.657946,-0.789195,2.14132,0.345922,0.174661,-17.6133,-2.42151,-3.43722,34.7992,-3.41126,2.64123,15.2316,-1.52239,1.10056,4.1935e-15,-9.19379e-16,-61.1664,23.425,-91.8954,53.4698,-47.1991,20.6118,-6.94772,7.12502,45.1046,-30.406,4.1935e-15,-9.19379e-16,-58.7104,-4.21004,76.3017,49.1189,17.1226,25.0401,28.0482,7.12502,49.198,49.682,-48.2673,2.42427,29.6855,43.0116,-46.9967,-28.779,47.7073,-20.4914,10.3984,-28.957,47.4877,-8.1231,19.1933,12.2281
1.91573,16.5826,15.2725,23.4429,0.515051,1.67094,-16.6886,0.381872,-1.65898,-7.36299,0.783748,-0.753659,1.5029,0.417235,0.284414,-17.2328,-2.27059,-3.17941,34.9379,-3.26061,2.56039,15.1942,-1.43897,1.05311,-1.29773e-15,2.5345e-15,-60.8179,22.388,-90.7849,53.0362,-44.3881,20.024,-6.37196,7.12502,44.5574,-30.0438,-1.29773e-15,2.5345e-15,-58.91,-3.58661,75.2595,49.2036,15.0408,24.4014,27.4879,7.12502,48.611,49.4105,-48.323,3.11739,29.5593,42.9469,-46.9235,-29.3271,47.6651,-20.4077,10.4894,-28.9513,47.231,-8.24813,19.1472,12.6363
1.91525,16.5788,15.2216,23.3057,0.445464,1.48269,-16.3843,0.401225,-1.63998,-7.43302,0.795158,-0.64477,1.26797,0.426354,0.386183,-17.2235,-2.10938,-3.02575,35.0284,-3.06215,2.52967,15.2228,-1.33834,1.04999,4.37418e-15,-3.54085e-15,-59.8907,21.4922,-89.4288,52.6089,-41.7362,19.3931,-6.13029,7.12502,43.9693,-30.0246,4.37418e-15,-3.54085e-15,-58.694,-2.80455,74.3447,49.4126,13.2031,23.6899,26.6404,7.12502,47.9557,48.8739,-48.3687,3.55519,29.604,42.9363,-46.9822,-29.7955,47.5315,-20.1831,10.4521,-28.7953,46.9903,-8.89913,18.7404,13.8916
1.92497,16.5769,15.1648,23.0802,0.519603,1.55558,-16.1697,0.35939,-1.68167,-7.31551,0.743445,-0.654556,1.28042,0.400518,0.389457,-17.3363,-2.03989,-2.84699,34.9769,-2.99983,2.48752,15.2172,-1.29288,1.01078,-1.06894e-14,5.28332e-15,-58.551,20.4452,-87.9617,51.9348,-38.7299,18.812,-5.03331,7.12502,43.4268,-29.1267,-1.06894e-14,5.28332e-15,-58.1812,-1.94715,73.4071,49.6174,11.6626,22.9688,25.983,7.12502,47.29,48.5204,-48.3639,3.16384,29.6412,42.9535,-46.3702,-30.0803,46.9005,-19.8104,10.2491,-28.8679,46.7652,-9.41098,18.2361,13.3933
1.93617,16.5787,15.1055,22.9964,0.469104,1.69983,-16.1471,0.358136,-1.76611,-7.13223,0.75922,-0.75894,1.46238,0.406032,0.33156,-17.6944,-1.96228,-2.54049,34.9458,-2.99144,2.51184,15.2799,-1.24121,0.966022,-8.23481e-15,4.57205e-15,-56.9585,19.0732,-86.4092,51.1979,-35.4358,18.3593,-3.82868,7.12502,43.0037,-28.0733,-8.23481e-15,4.57205e-15,-57.5367,-1.14863,72.4454,49.9561,10.1179,22.2571,25.5616,7.12502,46.6316,48.3884,-48.5264,2.77966,29.5846,42.9871,-45.6599,-30.2467,46.3604,-19.6769,9.99827,-29.1045,46.5023,-9.5795,18.0145,10.9464
1.94301,16.5783,15.0491,22.8995,0.400548,1.65753,-16.1397,0.365393,-1.72168,-6.91414,0.766046,-0.787581,1.69027,0.405099,0.279142,-18.1794,-1.82201,-2.23002,35.0921,-2.87181,2.47297,15.4529,-1.14937,0.915274,-4.21563e-15,5.04416e-15,-55.4194,17.7687,-84.9778,50.6295,-32.0754,17.468,-3.03543,7.12502,42.1694,-27.5685,-4.21563e-15,5.04416e-15,-56.9855,-0.358295,71.5979,50.4037,8.85538,21.5189,25.7065,7.12502,45.9473,48.8229,-48.6227,2.82244,29.5748,42.9833,-45.5014,-30.2671,46.4043,-19.5269,9.73434,-29.1434,46.2594,-10.1532,17.7683,11.2064
1.94711,16.5725,15.0014,22.8247,0.415326,1.58581,-16.1663,0.321654,-1.70478,-6.81115,0.705855,-0.72405,1.81357,0.374014,0.326769,-18.4991,-1.68688,-2.03493,35.3242,-2.69315,2.3484,15.6291,-1.06208,0.861424,4.53866e-15,7.70291e-15,-54.2803,16.6913,-83.7534,50.1343,-29.0349,15.9819,-2.24911,7.12502,40.7751,-27.2366,4.53866e-15,7.70291e-15,-56.5139,0.53194,70.8384,50.431,7.72,20.5722,25.3149,7.12502,45.0677,48.7877,-48.7339,2.5522,29.7599,42.9562,-44.6701,-30.6378,45.5621,-19.261,9.41351,-29.1387,46.0038,-11.1532,17.23,13.1107
1.95314,16.5688,14.9499,22.7913,0.629762,1.2277,-16.034,0.270609,-1.31518,-6.91658,0.572584,-0.58046,1.6381,0.304327,0.232682,-18.3851,-1.53257,-1.86588,35.423,-2.49855,2.27296,15.6396,-0.969197,0.837127,8.8366e-16,-4.24902e-15,-53.619,15.9146,-82.9445,49.6179,-26.5741,13.9498,-1.47538,7.12502,38.8622,-27.0347,8.8366e-16,-4.24902e-15,-56.4159,1.2495,70.24,50.5319,7.02303,18.8295,25.1597,7.12502,43.4432,49.2471,-48.8613,1.98848,30.4204,42.8759,-43.4324,-31.0967,44.4491,-19.152,9.05278,-28.7873,45.8065,-11.6236,16.8417,11.7236
1.96043,16.5675,14.8943,22.7136,0.881097,1.00104,-15.8605,0.236736,-1.03747,-7.01218,0.481935,-0.50092,1.44908,0.256488,0.142256,-18.1556,-1.41437,-1.63876,35.5048,-2.36877,2.17085,15.6156,-0.899708,0.779447,9.54632e-15,-2.23633e-15,-52.9698,14.9518,-82.1136,48.9637,-24.3996,11.6694,-0.332261,7.12502,36.708,-26.4717,9.54632e-15,-2.23633e-15,-56.5157,1.54658,69.9951,51.1118,7.08315,16.4927,25.4064,7.12502,41.2548,50.2413,-48.9639,1.49082,30.8744,42.8249,-42.5417,-31.4715,43.6891,-19.0392,8.71751,-28.5599,45.5647,-11.6133,16.8125,8.16807
1.96077,16.5656,14.8397,22.7838,0.854371,0.95263,-16.1542,0.25661,-1.08625,-6.83441,0.521436,-0.506486,1.79062,0.27485,0.173354,-18.3672,-1.31294,-1.30867,35.5155,-2.28451,2.04287,15.6616,-0.835445,0.681519,5.12259e-15,-1.83876e-15,-51.9267,13.8323,-81.2603,48.358,-22.3054,9.17743,0.822925,7.12502,34.3458,-25.8834,5.12259e-15,-1.83876e-15,-56.0181,1.88821,69.7391,51.5187,7.17648,14.5077,25.4939,7.12502,39.388,50.9016,-49.2716,1.88314,30.742,42.8479,-42.4598,-31.9448,43.4428,-19.0417,8.46655,-28.6108,45.2577,-11.2428,17.1343,3.36431
1.9625,16.5589,14.782,22.6336,0.777537,0.985627,-16.2145,0.245296,-1.23501,-6.5472,0.531734,-0.48865,2.12405,0.279599,0.279679,-18.6741,-1.19816,-1.00477,35.3981,-2.11332,1.77204,15.6639,-0.759595,0.541911,6.0474e-15,-1.61513e-15,-50.7955,13.0124,-80.5532,47.6792,-20.6245,6.41568,1.94432,7.12502,31.7193,-25.3175,6.0474e-15,-1.61513e-15,-55.2533,2.60048,69.3715,51.4989,6.85521,12.9845,25.232,7.12502,37.9512,51.0445,-49.3575,2.15599,30.5652,42.8825,-42.2835,-32.3043,43.3357,-18.6796,8.13479,-28.7057,44.9049,-11.1699,17.3928,0.206915
1.95966,16.5468,14.7026,22.3946,0.427512,1.6064,-15.621,0.16246,-2.11889,-6.56834,0.542351,-0.608434,1.77896,0.299359,0.650904,-18.6691,-1.12052,-0.912768,35.3945,-2.00928,1.71834,15.6567,-0.71123,0.522198,4.4711e-15,-2.23633e-16,-50.0734,12.2554,-79.9064,46.9235,-19.103,3.63531,3.63732,7.12502,29.0675,-24.1148,4.4711e-15,-2.23633e-16,-54.9579,3.15225,69.0427,51.5497,6.51527,11.4258,24.8552,7.12502,36.4773,51.053,-49.5387,2.66084,29.6182,42.9891,-42.1411,-32.9172,43.3749,-18.2708,7.63902,-29.4956,44.4794,-11.9736,17.1782,-0.997634
1.97164,16.5491,14.6516,22.4542,0.927245,1.21039,-15.6425,0.0330122,-1.60895,-6.6794,0.292216,-0.418898,1.68268,0.170229,0.519326,-18.545,-1.0281,-0.921674,35.514,-1.91901,1.84234,15.686,-0.657205,0.594856,5.7896e-15,-8.19987e-16,-49.5665,11.5717,-79.3457,46.2504,-17.5446,1.08549,4.88005,7.12502,26.6297,-23.2671,5.7896e-15,-8.19987e-16,-54.9471,3.60402,68.7302,51.672,6.505,9.71017,24.3886,7.12502,34.8514,50.9792,-49.8226,1.76735,30.4313,42.9875,-40.9872,-33.2554,42.1606,-18.1546,7.03737,-29.0162,44.1298,-12.6094,16.5942,-4.61343
1.97966,16.5484,14.5894,22.4862,1.05799,1.16609,-15.5504,-0.0531259,-1.51537,-6.78154,0.161167,-0.383982,1.52929,0.105162,0.480777,-18.41,-0.981982,-0.953125,35.6563,-1.90365,1.99824,15.7264,-0.633141,0.671537,-8.4367e-15,1.2921e-14,-49.067,10.5989,-78.7343,45.5104,-15.8454,-1.2425,6.24033,7.12502,24.3998,-22.2261,-8.4367e-15,1.2921e-14,-54.7555,4.06661,68.3195,51.5444,6.65779,8.0881,23.7743,7.12502,33.3108,50.7084,-50.1115,1.55047,30.5258,42.971,-40.3017,-33.5508,41.6345,-18.0943,6.58866,-29.0315,43.7925,-13.0364,16.4989,-8.5716
1.98642,16.5432,14.5214,22.4956,1.15258,1.16145,-15.5555,-0.141811,-1.53127,-6.67501,0.0460729,-0.332065,1.64645,0.0472212,0.525221,-18.6581,-0.98121,-1.03989,35.654,-1.91374,2.10868,15.7875,-0.632143,0.731623,-2.98177e-16,-4.72114e-16,-48.2916,9.46953,-77.9482,44.9631,-14.4445,-3.52018,7.87263,7.12502,22.2147,-20.8708,-2.98177e-16,-4.72114e-16,-54.1568,4.94105,67.7901,51.3037,6.72604,7.04148,23.3028,7.12502,32.3152,50.4451,-50.3483,1.513,30.5087,42.8556,-39.6229,-33.9819,41.1909,-18.0408,6.21092,-29.117,43.5489,-13.3827,16.5378,-12.0173
1.98924,16.5325,14.4506,22.4503,1.23346,1.07148,-15.2489,-0.186385,-1.55626,-6.72605,-0.0181777,-0.2497,1.43174,0.0184465,0.614799,-18.7371,-0.942087,-1.01486,35.6794,-1.84928,2.07004,15.8166,-0.606784,0.722767,-2.65214e-15,-5.09386e-16,-47.9566,8.31967,-77.15,44.7635,-13.5838,-5.43757,9.12119,7.12502,20.3729,-19.8302,-2.65214e-15,-5.09386e-16,-53.8701,5.61509,67.3723,51.2914,7.00827,5.99705,22.6004,7.12502,31.3205,49.9403,-50.4901,1.67303,30.5194,42.7298,-39.4311,-34.1031,41.5578,-17.8813,5.87504,-29.0978,43.3142,-14.3785,16.1751,-12.1128
1.98697,16.5237,14.3733,22.3917,1.1728,1.07455,-14.2978,-0.196019,-1.71088,-7.26752,-0.0357883,-0.265404,0.357174,0.0237816,0.682592,-18.0436,-0.883184,-0.783198,35.6819,-1.79092,1.92223,15.6461,-0.576531,0.630809,-8.3047e-16,5.26779e-15,-48.3921,7.38254,-76.6273,44.4765,-13.1249,-7.43497,10.7657,7.12502,18.4524,-18.3791,-8.3047e-16,5.26779e-15,-54.4593,5.65391,66.9819,51.7247,7.30434,4.78521,22.3672,7.12502,30.1651,49.9244,-50.6361,2.46273,30.1226,42.5907,-40.7633,-33.6026,43.5172,-17.8601,5.56855,-29.1947,43.0942,-15.0227,16.1576,-13.5524
1.98062,16.5226,14.2987,22.2625,1.09078,1.03052,-14.357,-0.240522,-1.94205,-6.9189,-0.0621178,-0.187703,0.755889,0.0116538,0.890249,-18.3233,-0.888101,-0.865833,35.4875,-1.82048,2.06942,15.6211,-0.578489,0.700341,1.76344e-15,-2.75814e-15,-47.3125,6.3482,-75.9475,43.9182,-13.2148,-9.04553,12.3197,7.12502,16.9026,-16.9648,1.76344e-15,-2.75814e-15,-53.7389,6.28596,66.8096,51.8609,7.38375,3.69727,22.3496,7.12502,29.1266,50.0915,-50.7123,3.48784,29.6735,42.4766,-43.2684,-32.3248,46.4546,-17.8074,5.28083,-29.1831,42.8259,-15.5087,16.2813,-16.4053
1.98105,16.5184,14.2321,22.1866,1.22729,0.884878,-14.29,-0.293443,-1.87024,-6.78509,-0.142636,-0.119928,0.863732,-0.0310816,0.90866,-18.5151,-0.903657,-1.02537,35.5337,-1.87559,2.30008,15.6961,-0.58879,0.817067,1.16864e-15,3.926e-15,-46.6996,5.2355,-75.282,43.4368,-13.3748,-10.4445,13.5083,7.12502,15.5556,-15.886,1.16864e-15,3.926e-15,-53.2509,6.81191,66.5661,51.7591,7.47239,2.56373,21.8902,7.12502,28.0436,49.8144,-50.843,3.51797,29.8118,42.4301,-44.0113,-31.5409,47.4045,-17.6125,4.8326,-29.0041,42.4742,-16.5251,15.9099,-16.7491
1.99359,16.514,14.1647,22.141,1.48197,0.958931,-13.9828,-0.383816,-1.84963,-6.84232,-0.272074,-0.110112,0.643919,-0.0938325,0.889227,-18.5145,-0.909504,-1.06905,35.5512,-1.87131,2.30615,15.705,-0.592141,0.828351,-8.59588e-16,1.36664e-15,-46.4862,4.15656,-74.5651,43.3375,-13.7051,-11.5218,14.5233,7.12502,14.5178,-14.9488,-8.59588e-16,1.36664e-15,-53.0205,7.0889,66.519,51.654,7.7657,1.00748,21.2695,7.12502,26.555,49.4281,-51.0553,3.03469,29.8631,42.4435,-43.5859,-31.4755,47.2728,-17.3705,4.24727,-29.0708,42.064,-17.3923,15.5374,-16.9828
2.017,16.5187,14.0903,22.008,1.90032,1.10549,-13.5755,-0.460668,-1.67443,-6.79887,-0.401407,-0.170229,0.475383,-0.162351,0.711431,-18.6424,-1.00931,-1.19365,35.4395,-1.97459,2.31283,15.6848,-0.651046,0.832434,-6.08778e-16,-2.48481e-15,-46.0575,2.79347,-73.6787,43.4025,-13.966,-11.7575,14.6949,7.12502,14.2906,-14.7934,-6.08778e-16,-2.48481e-15,-52.6182,7.25874,66.6894,51.6459,8.39196,-0.782829,20.8743,7.12502,24.8404,49.2807,-51.2371,1.84918,30.1045,42.478,-42.2158,-31.5749,46.5971,-17.0768,3.50529,-29.2209,41.6458,-17.861,15.5837,-18.4125
2.00775,16.5111,14.0127,22.0327,1.63324,1.25977,-13.6064,-0.448335,-2.15679,-6.52318,-0.323423,-0.192907,0.780178,-0.117676,0.96953,-19.0866,-1.08298,-1.39923,35.1854,-2.08947,2.54804,15.6755,-0.690914,0.944027,-4.05956e-15,1.09332e-14,-45.2264,1.57428,-73.0703,43.4065,-14.5761,-12.0076,14.8904,7.12502,14.0496,-14.6147,-4.05956e-15,1.09332e-14,-51.8152,7.65949,66.7943,51.8302,8.91371,-2.18074,20.5284,7.12502,23.5,49.113,-51.5692,3.29803,29.24,42.4699,-42.853,-32.4816,46.7431,-17.1195,3.34418,-29.5076,41.2946,-18.0535,15.8355,-20.5746
2.00552,16.5043,13.9332,21.957,1.65339,1.29251,-13.5255,-0.528208,-2.29984,-6.23597,-0.409857,-0.218312,1.04142,-0.163599,1.01119,-19.425,-1.08716,-1.52145,34.992,-2.16747,2.87277,15.671,-0.691599,1.0867,-5.59082e-17,6.70898e-15,-44.4004,0.628256,-72.7157,43.2394,-15.1553,-12.7161,15.0315,7.12502,13.3668,-14.5197,-5.59082e-17,6.70898e-15,-51.1265,8.06557,66.6728,52.0644,9.30864,-3.0139,19.9697,7.12502,22.7006,48.6544,-51.7647,3.82319,28.9042,42.3778,-43.3007,-32.5635,47.4013,-17.0473,2.89867,-29.5669,41.025,-18.7313,15.757,-20.9349
2.01073,16.5044,13.8637,22.0135,1.85708,1.21803,-13.5318,-0.641978,-2.21746,-6.21724,-0.570791,-0.180623,1.06982,-0.245607,0.981093,-19.2903,-1.04258,-1.36845,34.8371,-2.11512,2.76655,15.5583,-0.666883,1.0219,-1.04145e-14,1.04362e-14,-43.9075,-0.262337,-72.1574,42.8105,-15.1691,-13.3468,14.0976,7.12502,12.7588,-15.4926,-1.04145e-14,1.04362e-14,-51.0724,8.12803,66.6367,52.5523,9.84803,-4.0319,19.7078,7.12502,21.7233,48.5089,-52.0721,3.91002,28.8605,42.2805,-43.405,-32.6045,47.7389,-17.0802,2.3249,-29.4893,40.789,-19.6341,15.5344,-20.7606
2.02179,16.5108,13.8101,22.2006,2.16633,0.829879,-13.7486,-0.655621,-1.69983,-6.29902,-0.64993,-0.0757053,1.09986,-0.292754,0.78603,-19.0707,-1.06608,-1.39802,34.6796,-2.117,2.71647,15.4301,-0.681702,1.00341,1.54369e-15,-9.93923e-17,-43.7796,-1.11783,-71.6223,42.4989,-15.7438,-13.4864,14.0477,7.12502,12.6243,-15.5508,1.54369e-15,-9.93923e-17,-50.9504,8.22155,66.6898,52.8612,9.98771,-4.92574,19.9667,7.12502,20.8648,48.8647,-52.4342,3.5597,29.4004,42.1834,-42.5731,-32.8107,47.4971,-17.1915,1.87321,-29.0785,40.5533,-20.5017,15.3209,-19.6496
2.01815,16.5057,13.7211,22.172,2.01517,1.29801,-13.2709,-0.705809,-2.33817,-6.3121,-0.648424,-0.221146,0.833622,-0.279521,0.998527,-18.9537,-1.15148,-1.44479,34.3534,-2.21408,2.70444,15.25,-0.733277,0.984372,-4.97272e-15,-3.97569e-15,-43.7933,-1.60034,-71.6425,42.3462,-18.3569,-14.0359,15.9687,7.12502,12.0945,-13.6617,-4.97272e-15,-3.97569e-15,-50.5248,8.39239,66.713,53.2568,10.0583,-5.41404,20.5843,7.12502,20.3956,49.5333,-52.7928,4.39593,28.3701,42.1788,-42.8409,-33.5056,47.7881,-17.2,1.64707,-29.6611,40.2807,-21.0054,15.2987,-18.64
2.02088,16.5055,13.6359,22.1814,2.00272,1.61311,-12.8864,-0.815155,-2.69641,-6.30035,-0.761782,-0.335377,0.645158,-0.328932,1.06955,-19.0763,-1.20918,-1.52461,34.2392,-2.32923,2.8663,15.232,-0.769289,1.04345,8.21229e-15,1.98785e-15,-43.6403,-2.33408,-71.3786,42.5847,-18.9604,-13.3463,15.526,7.12502,12.7593,-14.0641,8.21229e-15,1.98785e-15,-50.2172,8.69039,66.618,53.7329,10.0739,-5.88293,21.4002,7.12502,19.9449,50.3967,-53.1539,4.88886,27.6338,42.1767,-43.1096,-33.8235,48.1184,-17.3019,1.3314,-30.079,40.0136,-21.1133,15.8595,-19.6548
2.02528,16.5044,13.5539,22.2468,2.01155,1.84397,-12.746,-0.912564,-2.92235,-6.208,-0.867049,-0.42841,0.671351,-0.379738,1.08699,-19.3856,-1.25021,-1.62663,34.2354,-2.40163,3.00009,15.3085,-0.791822,1.10364,-3.49737e-15,-1.20265e-14,-43.3402,-2.95131,-71.2275,42.715,-19.6939,-12.9368,15.112,7.12502,13.1541,-14.453,-3.49737e-15,-1.20265e-14,-49.9467,8.90906,66.6155,54.2242,10.0971,-6.41333,21.7068,7.12502,19.435,50.7555,-53.5543,5.30482,27.0501,42.1932,-43.4001,-34.13,48.2498,-17.5216,0.997922,-30.3986,39.7584,-21.4399,16.2251,-20.2843
2.02968,16.5057,13.4791,22.3067,2.04943,2.00541,-12.6451,-0.97994,-3.0715,-6.1737,-0.941778,-0.485144,0.656681,-0.415188,1.10309,-19.4745,-1.3167,-1.80046,34.234,-2.46154,3.06922,15.3345,-0.829695,1.15191,1.55301e-15,2.08724e-15,-43.1264,-3.4732,-71.0437,42.6982,-20.4297,-12.6653,14.7023,7.12502,13.4158,-14.8457,1.55301e-15,2.08724e-15,-49.807,9.12471,66.5823,54.7084,9.8253,-6.51296,21.6596,7.12502,19.3392,50.7179,-53.8664,5.66451,26.5566,42.1679,-43.7211,-34.1833,48.5198,-17.6763,0.74526,-30.6278,39.4783,-21.9554,16.3442,-21.5289
2.03752,16.5105,13.4007,22.3837,2.155,2.03889,-12.2548,-1.01686,-3.01132,-6.25992,-1.01363,-0.543896,0.357706,-0.4487,1.00498,-19.7392,-1.41504,-2.00561,34.3533,-2.58953,3.21808,15.4644,-0.886529,1.22828,3.49116e-15,8.24956e-15,-43.1031,-4.00624,-70.9486,42.7774,-21.0116,-12.3629,14.0671,7.12502,13.7073,-15.4615,3.49116e-15,8.24956e-15,-49.6445,9.16118,66.6068,54.9683,9.66366,-6.98338,21.2077,7.12502,18.8868,50.3108,-54.1813,5.86358,26.2604,42.0758,-43.7247,-34.1913,48.8276,-17.8462,0.489522,-30.7094,39.1773,-22.1429,16.6056,-21.7678
2.0465,16.5222,13.321,22.3884,2.15196,2.22271,-11.6544,-1.03562,-3.10501,-6.42412,-1.05526,-0.676039,-0.137517,-0.461671,0.925497,-19.7673,-1.48786,-2.09387,34.4064,-2.73345,3.39017,15.5075,-0.933527,1.29056,-1.87603e-15,-2.78299e-15,-43.1536,-4.50331,-70.9022,42.6369,-21.477,-11.9268,13.8915,7.12502,14.1275,-15.6082,-1.87603e-15,-2.78299e-15,-49.5265,9.08833,66.6127,55.0658,9.46821,-7.40819,20.904,7.12502,18.4782,50.0463,-54.4635,6.34421,25.5789,41.9973,-43.959,-34.4457,48.9405,-17.9051,0.245215,-30.9746,38.7997,-22.2738,16.8346,-21.0396
2.05315,16.5321,13.2475,22.4391,1.95641,2.28601,-11.1732,-1.00188,-3.13604,-6.7044,-1.03378,-0.820519,-0.69424,-0.44292,0.804758,-19.2015,-1.47175,-1.90049,34.2709,-2.76038,3.32411,15.3068,-0.935842,1.22236,-5.09386e-16,-6.75868e-15,-43.4051,-4.72621,-71.0579,42.332,-21.7276,-11.958,14.0388,7.12502,14.0974,-15.463,-5.09386e-16,-6.75868e-15,-49.7262,8.89622,66.4964,55.2925,9.18517,-7.73661,21.1708,7.12502,18.1623,50.3429,-54.7314,6.79105,25.0975,41.8892,-43.9766,-34.4859,48.8143,-18.0119,0.0213737,-31.1797,38.4252,-22.7867,16.7142,-20.5108
2.05743,16.532,13.1708,22.5426,1.7196,2.57137,-11.3334,-1.00782,-3.44923,-6.46309,-0.99795,-1.00367,-0.356055,-0.426651,0.790365,-19.3891,-1.47187,-1.73381,34.0125,-2.75366,3.17217,15.2213,-0.932793,1.12578,4.70871e-15,1.41137e-14,-42.9604,-5.15507,-71.2841,42.1476,-21.8729,-12.1312,14.1151,7.12502,13.9306,-15.3983,4.70871e-15,1.41137e-14,-49.0682,8.92556,66.6306,55.3063,9.00769,-8.26553,21.6162,7.12502,17.6533,50.8348,-55.142,7.27882,24.3266,41.8222,-43.5465,-35.0744,47.7782,-18.1057,-0.134406,-31.6398,38.0136,-23.1667,16.6129,-20.8202
2.06666,16.5352,13.0964,22.4435,1.65163,2.63958,-11.1454,-1.02825,-3.4799,-6.31369,-1.02688,-1.0448,-0.300616,-0.443538,0.763457,-19.6276,-1.46422,-1.77553,33.9942,-2.68902,3.08098,15.2642,-0.922288,1.10564,-1.04362e-15,3.97569e-15,-42.7231,-5.25191,-71.3943,41.9579,-21.9082,-12.2385,14.2647,7.12502,13.8272,-15.2557,-1.04362e-15,3.97569e-15,-48.8059,8.99726,66.7693,55.3456,8.81503,-8.70028,21.7383,7.12502,17.2349,50.994,-55.2771,7.32673,24.0576,41.7271,-42.3836,-35.5646,46.9582,-17.9417,-0.290542,-31.8263,37.6449,-23.5085,16.8354,-21.2942
2.08069,16.5458,13.0212,22.2909,1.55981,2.68769,-10.7082,-1.00356,-3.42343,-6.22532,-1.01749,-1.09953,-0.447048,-0.440214,0.681959,-19.8734,-1.56773,-2.03772,33.9453,-2.78974,3.21183,15.3089,-0.978433,1.18643,-1.46604e-15,-2.78299e-15,-42.6101,-5.4538,-71.3971,41.6591,-21.5238,-12.2445,14.5067,7.12502,13.8213,-15.0141,-1.46604e-15,-2.78299e-15,-48.6149,9.18993,66.8645,55.3387,8.48157,-9.17267,21.5753,7.12502,16.7802,50.8702,-55.3502,7.53266,23.6302,41.6871,-41.9902,-35.1736,47.366,-17.705,-0.598179,-31.9964,37.2376,-23.9796,16.9709,-19.8521
2.09137,16.5532,12.9439,22.3183,1.28068,2.83051,-10.4566,-0.969651,-3.53687,-6.1062,-0.97093,-1.21286,-0.46161,-0.417053,0.63576,-20.1898,-1.71475,-2.36269,33.7864,-2.97621,3.47792,15.3262,-1.059,1.31716,3.60297e-15,4.17448e-15,-42.3078,-5.68943,-71.5891,41.3412,-20.8764,-12.4835,14.3186,7.12502,13.5911,-15.2178,3.60297e-15,4.17448e-15,-48.2242,9.42633,66.9771,55.242,7.99684,-9.52554,21.4133,7.12502,16.4405,50.7366,-55.6797,7.68565,23.1697,41.6656,-41.3783,-34.8552,46.8568,-17.7091,-0.792281,-32.3246,36.8002,-24.2373,17.0507,-18.8802
2.10197,16.5584,12.8718,22.3308,0.912363,3.10514,-10.2966,-0.933807,-3.78202,-6.03826,-0.907599,-1.39957,-0.480831,-0.382797,0.587894,-20.0649,-1.75687,-2.45383,33.5055,-3.0417,3.59967,15.172,-1.08407,1.3678,4.09993e-15,-3.97569e-15,-42.2387,-5.84242,-71.8823,41.1768,-20.1547,-12.7758,13.9107,7.12502,13.3093,-15.6443,4.09993e-15,-3.97569e-15,-48.0119,9.51519,67.0523,55.2187,7.42049,-9.86563,21.7867,7.12502,16.113,51.1369,-56.0136,7.58126,22.7666,41.6986,-40.2148,-34.7461,45.9953,-17.6797,-1.01753,-32.8018,36.2919,-24.4016,17.228,-18.3179
2.1171,16.5688,12.8005,22.1218,0.439489,3.28223,-9.77715,-0.855059,-3.92953,-6.08449,-0.82091,-1.53188,-0.816346,-0.332483,0.548627,-19.7712,-1.7212,-2.5325,33.3761,-2.97475,3.64082,15.0431,-1.06455,1.40985,2.36057e-15,1.59028e-15,-42.3558,-5.81164,-72.1148,40.8398,-19.5275,-13.1276,14.3615,7.12502,12.9702,-15.2153,2.36057e-15,1.59028e-15,-48.2057,9.5632,67.0683,55.2285,6.97154,-10.2316,21.8096,7.12502,15.7606,51.1879,-56.0863,7.38307,22.5968,41.7909,-38.63,-34.7644,45.773,-17.4409,-1.13719,-33.2302,35.7548,-24.2498,18.0232,-19.2749
2.13499,16.5842,12.7308,21.899,0.224271,3.16188,-9.25593,-0.760651,-3.67701,-6.04033,-0.741733,-1.59066,-1.06006,-0.297722,0.359317,-19.8268,-1.77427,-2.59168,33.3458,-3.02619,3.6304,15.0449,-1.09539,1.40548,1.16786e-15,-9.14409e-15,-42.2249,-5.90798,-72.3201,40.2207,-18.8566,-13.3642,14.859,7.12502,12.7421,-14.7322,1.16786e-15,-9.14409e-15,-48.2112,9.59422,67.119,55.0343,6.69053,-10.5682,20.9116,7.12502,15.4365,50.3152,-56.093,6.85583,22.9501,41.8661,-36.6939,-34.7598,46.055,-17.2035,-1.29641,-33.2627,35.2576,-24.2827,18.4135,-20.0778
2.15633,16.6004,12.6591,21.9786,0.203899,3.32632,-9.24726,-0.754063,-3.58243,-5.82266,-0.732651,-1.72269,-0.840266,-0.302983,0.170077,-20.3814,-1.91239,-2.74393,33.3639,-3.14689,3.58613,15.1882,-1.16623,1.38931,-8.17502e-15,-6.75868e-15,-41.7528,-6.13938,-72.5284,39.8153,-18.1443,-13.4682,14.6189,7.12502,12.6418,-14.9786,-8.17502e-15,-6.75868e-15,-47.7742,9.62967,67.3397,54.8077,6.36884,-10.9005,20.3144,7.12502,15.1163,49.7424,-56.4618,5.86519,23.113,41.9203,-34.806,-34.4478,45.8561,-17.294,-1.7709,-33.5368,34.8105,-24.183,18.882,-20.7665
2.1767,16.6117,12.5813,22.1,0.175095,3.36455,-9.03714,-0.716739,-3.35849,-5.75606,-0.707844,-1.82793,-0.889297,-0.29806,-0.0597253,-20.8361,-2.01058,-2.82346,33.4469,-3.21257,3.47234,15.334,-1.21535,1.34218,7.45443e-15,2.46493e-14,-41.6776,-6.2725,-72.7291,39.644,-17.6155,-13.6221,14.7744,7.12502,12.4934,-14.8321,7.45443e-15,2.46493e-14,-47.5827,9.51794,67.6441,54.7834,5.9554,-11.4256,20.4383,7.12502,14.6105,49.9037,-56.8778,5.15874,23.3131,41.8836,-33.4154,-34.2181,45.0799,-17.5348,-2.21811,-33.6532,34.4603,-24.0768,19.4219,-20.5734
2.19529,16.626,12.5094,22.0658,0.00166299,3.32602,-8.48012,-0.64787,-3.14953,-5.85298,-0.661934,-1.91438,-1.29914,-0.276918,-0.256149,-20.8575,-2.06213,-2.84347,33.438,-3.25128,3.3923,15.3349,-1.24605,1.30403,-6.21202e-15,2.50469e-14,-41.9464,-6.20921,-72.9568,39.3077,-17.2899,-13.704,15.3645,7.12502,12.4145,-14.2468,-6.21202e-15,2.50469e-14,-47.6852,9.47015,67.7415,54.6474,5.63053,-11.7172,20.475,7.12502,14.3295,49.9604,-57.1157,4.69111,23.5225,41.8651,-32.0437,-34.0829,44.06,-17.596,-2.31996,-33.7297,34.1047,-23.8965,19.7554,-20.4246
2.21318,16.6442,12.449,22.0125,-0.0676853,3.22689,-8.08792,-0.645411,-2.89315,-5.90754,-0.695629,-1.93709,-1.57301,-0.298746,-0.421139,-20.8245,-2.08246,-2.97024,33.4118,-3.24086,3.41422,15.3177,-1.256,1.337,-2.5842e-15,1.74931e-14,-42.0269,-5.90599,-73.2881,38.7406,-17.0912,-13.695,16.0517,7.12502,12.4232,-13.5591,-2.5842e-15,1.74931e-14,-47.7692,9.71749,67.7454,54.2371,5.16266,-12.03,20.1241,7.12502,14.0281,49.6307,-57.2778,4.40873,23.6509,41.85,-30.8151,-33.9513,43.5977,-17.5486,-2.27647,-33.7236,33.7498,-23.784,19.9696,-20.373
2.22929,16.658,12.3823,21.8868,-0.321542,3.35978,-7.69215,-0.641746,-3.00634,-5.84141,-0.700966,-1.98156,-1.72177,-0.297943,-0.400109,-20.9111,-2.08104,-3.11415,33.3235,-3.16175,3.37414,15.2942,-1.24698,1.3585,2.83268e-15,1.55052e-14,-41.9759,-5.57832,-73.6052,38.3533,-16.9112,-13.9152,16.2411,7.12502,12.2109,-13.3824,2.83268e-15,1.55052e-14,-47.8596,10.0148,67.8676,53.8827,4.65524,-12.6756,19.5688,7.12502,13.4059,49.1175,-57.4743,4.34745,23.3955,41.8845,-30.1763,-33.7317,44.1159,-17.3909,-2.19764,-34.0108,33.3223,-23.9507,19.8967,-19.5966
2.24222,16.6673,12.3159,21.8692,-0.668713,3.71931,-7.42122,-0.6712,-3.46357,-5.76399,-0.726515,-2.01317,-1.78747,-0.297467,-0.17606,-20.9707,-2.10098,-3.27277,33.1007,-3.06365,3.2242,15.1982,-1.2482,1.33804,1.09829e-14,-1.98785e-15,-41.7468,-5.17246,-73.913,38.0072,-16.9415,-14.2498,15.8703,7.12502,11.8883,-13.7722,1.09829e-14,-1.98785e-15,-47.9398,10.3254,68.1026,53.6406,4.09312,-12.9983,19.3257,7.12502,13.0948,48.8946,-57.8376,4.38204,22.8327,41.8797,-29.4555,-33.8811,44.2043,-17.4621,-2.3842,-34.532,32.9736,-23.9074,20.2643,-19.3682
2.25726,16.6797,12.2673,22.0283,-0.819991,3.76838,-7.53669,-0.680999,-3.47672,-5.66579,-0.729369,-2.01124,-1.62121,-0.301403,-0.168324,-20.9634,-2.12408,-3.33394,32.7695,-3.01267,3.08838,15.0379,-1.25487,1.29689,-5.96354e-16,-4.77083e-15,-41.5619,-4.98716,-74.1844,37.605,-16.8462,-14.5261,16.069,7.12502,11.6218,-13.5887,-5.96354e-16,-4.77083e-15,-47.7989,10.5669,68.3174,53.295,3.74277,-13.1198,19.0408,7.12502,12.9777,48.6171,-58.2793,4.12542,22.8395,41.8291,-28.106,-34.3238,43.5702,-17.6866,-2.68406,-34.661,32.6607,-23.8708,20.5968,-19.2712
2.25653,16.6872,12.1876,22.0859,-1.18149,3.69607,-7.079,-0.579535,-3.59111,-5.66606,-0.612925,-2.01858,-1.87641,-0.236537,-0.100942,-20.9751,-2.14382,-3.29077,32.4904,-2.9995,2.95424,14.9071,-1.26339,1.23239,5.2181e-15,1.15295e-14,-41.4861,-4.9128,-74.4257,37.1325,-16.4222,-14.1451,15.6694,7.12502,11.9892,-13.9672,5.2181e-15,1.15295e-14,-47.6676,10.5665,68.528,52.8815,3.62842,-13.2265,18.3164,7.12502,12.8748,47.8993,-58.7068,5.04699,22.3733,41.7177,-28.2675,-34.9595,43.6392,-17.9937,-2.69833,-34.6598,32.4015,-23.8646,20.6012,-18.7781
2.27211,16.7039,12.1248,21.9338,-1.06349,3.49799,-6.49255,-0.571236,-3.20731,-5.62033,-0.648302,-1.99825,-2.1543,-0.262781,-0.290996,-21.1074,-2.12838,-3.09174,32.3414,-2.90508,2.57346,14.8526,-1.25251,1.05509,7.55382e-15,-4.37326e-15,-41.5049,-4.74692,-74.6299,36.6793,-15.7512,-13.4036,14.6096,7.12502,12.7041,-14.984,7.55382e-15,-4.37326e-15,-47.7983,10.2641,68.8841,52.7165,3.64488,-13.6717,18.3103,7.12502,12.4457,47.9197,-58.7527,4.81405,22.6576,41.6283,-27.3458,-35.254,42.9561,-17.8231,-2.71751,-34.4554,32.0793,-23.7168,20.557,-19.3783
2.2952,16.7239,12.0804,21.8824,-0.854412,3.43373,-6.10488,-0.677045,-2.92736,-5.70163,-0.821612,-1.92214,-2.45235,-0.35385,-0.37224,-21.0846,-2.09452,-3.07117,32.3572,-2.73865,2.22964,14.8414,-1.23006,0.940315,3.27995e-15,3.61788e-14,-41.674,-4.30769,-74.84,36.2297,-15.3384,-13.0144,13.8871,7.12502,13.0794,-15.6828,3.27995e-15,3.61788e-14,-48.2408,10.2017,69.2058,52.494,3.63435,-14.0927,19.0436,7.12502,12.0397,48.6773,-58.8637,3.80114,23.2308,41.5661,-25.373,-35.4124,41.8208,-17.6228,-2.8036,-34.3883,31.7174,-23.714,20.4872,-20.0326
2.31183,16.7456,12.047,22.0481,-0.797748,3.44358,-6.29448,-0.736067,-2.81582,-5.66389,-0.895196,-1.92469,-2.30789,-0.396239,-0.442515,-20.9788,-2.11309,-3.14588,32.0776,-2.70869,2.16067,14.6892,-1.23769,0.928951,-3.926e-15,-9.54166e-15,-41.6635,-3.96489,-75.2189,35.933,-15.4929,-13.0278,13.2007,7.12502,13.0664,-16.37,-3.926e-15,-9.54166e-15,-48.4071,10.1239,69.4791,52.3057,3.72822,-14.2117,19.4246,7.12502,11.9249,49.0649,-59.2188,3.0463,23.5968,41.5542,-24.3393,-35.2302,41.5136,-17.6553,-2.81867,-34.3941,31.3491,-23.7887,20.1285,-19.271
2.32532,16.7706,12.0155,22.1634,-0.659084,3.42331,-6.71944,-0.789268,-2.61425,-5.33432,-0.946087,-1.97307,-1.732,-0.435521,-0.61426,-21.3583,-2.12536,-3.14048,31.8015,-2.7128,2.17119,14.6488,-1.23388,0.92734,5.46658e-15,-4.37326e-15,-41.2504,-3.99398,-75.6037,35.6264,-15.4422,-13.0453,12.9423,7.12502,13.0496,-16.6294,5.46658e-15,-4.37326e-15,-48.0961,10.1388,69.6961,51.9769,3.71446,-14.2491,18.6208,7.12502,11.8889,48.2632,-59.4741,2.54582,23.8317,41.527,-24.235,-35.0491,42.4139,-17.6901,-2.86494,-34.3212,31.0181,-23.5222,20.1071,-19.7727
2.32373,16.7768,11.946,22.1241,-0.711004,3.53725,-6.20138,-0.827473,-2.84397,-5.23837,-1.00654,-1.99495,-1.91628,-0.45843,-0.504448,-21.8379,-2.145,-3.1047,31.8429,-2.71575,2.10147,14.7726,-1.2371,0.888986,-9.0447e-15,-1.19271e-14,-41.1738,-3.80538,-75.9873,35.5865,-15.4844,-13.0202,12.6061,7.12502,13.0737,-16.9642,-9.0447e-15,-1.19271e-14,-48.0206,10.0405,69.9619,51.7225,3.72908,-14.1959,18.5275,7.12502,11.9402,48.167,-59.7389,3.35415,23.1067,41.4351,-25.6116,-35.7027,44.1183,-17.8575,-2.86388,-34.3722,30.8539,-23.1772,20.1162,-21.0373
2.33018,16.7853,11.8929,22.1593,-0.558511,3.50822,-5.76491,-0.878999,-2.7747,-5.33641,-1.10068,-1.9582,-2.25979,-0.503386,-0.502204,-21.7518,-2.20358,-3.2553,31.8119,-2.75452,2.12741,14.7442,-1.26921,0.91861,-1.03368e-14,7.95139e-16,-41.3948,-3.47155,-76.2813,35.3595,-15.6796,-12.7393,12.005,7.12502,13.3445,-17.5477,-1.03368e-14,7.95139e-16,-48.2849,9.71803,70.3612,51.3894,4.23347,-14.5563,18.8468,7.12502,11.5927,48.5061,-59.9708,3.39535,23.0401,41.3076,-26.2864,-36.0289,44.6191,-18.0165,-3.02561,-34.2334,30.7472,-23.0031,19.8875,-21.4737
2.33409,16.7967,11.8553,22.1485,-0.369706,3.35296,-5.56576,-0.929148,-2.57063,-5.31664,-1.18188,-1.88585,-2.35069,-0.54845,-0.541578,-21.6219,-2.22336,-3.43572,31.583,-2.72031,2.15148,14.6145,-1.2742,0.965415,-1.13307e-14,3.97569e-15,-41.4687,-3.36907,-76.4709,34.9623,-15.9081,-12.3648,12.0108,7.12502,13.7055,-17.5178,-1.13307e-14,3.97569e-15,-48.428,9.53364,70.7492,50.9476,4.76875,-14.9197,18.6065,7.12502,11.2422,48.2853,-60.0886,3.52534,23.0951,41.2321,-27.901,-36.0507,45.9061,-18.0729,-2.97462,-33.9645,30.6106,-22.5152,19.8689,-23.2352
2.34047,16.81,11.8276,22.1436,-0.204141,3.30874,-5.51804,-0.992657,-2.4707,-5.2572,-1.26945,-1.83429,-2.31517,-0.595113,-0.546917,-21.672,-2.23803,-3.58394,31.4093,-2.67725,2.15029,14.5487,-1.27348,0.997012,-3.62782e-15,1.70955e-14,-41.6063,-3.34164,-76.5723,34.836,-16.2487,-11.679,11.6972,7.12502,14.3663,-17.7857,-3.62782e-15,1.70955e-14,-48.6033,9.61966,70.9272,50.6231,4.22891,-14.659,18.4123,7.12502,11.4936,48.0772,-60.2338,3.35164,23.2311,41.2648,-28.7505,-36.1634,47.3608,-17.9654,-2.89015,-33.8251,30.2983,-22.3225,19.4692,-24.3321
2.34942,16.8176,11.7964,22.1834,-0.143844,3.69836,-5.36645,-1.08866,-2.80423,-5.27959,-1.39525,-1.93671,-2.41809,-0.64865,-0.467353,-21.8425,-2.26521,-3.6389,31.4524,-2.68777,2.1439,14.6072,-1.28452,1.001,1.02871e-14,2.70347e-14,-41.9242,-3.26054,-76.8005,34.722,-17.0656,-11.0725,11.2467,7.12502,14.9507,-18.1936,1.02871e-14,2.70347e-14,-48.8762,9.55886,71.074,50.3889,3.72231,-14.1678,18.6875,7.12502,11.9673,48.3254,-60.4959,3.08637,22.9118,41.4051,-28.8718,-36.3598,48.5121,-17.7874,-3.0254,-34.1732,29.8824,-22.3133,18.9678,-23.9651
2.35215,16.8192,11.7601,22.2533,-0.206135,4.2347,-5.34146,-1.20561,-3.42976,-5.15037,-1.52879,-2.03207,-2.28563,-0.700137,-0.221539,-22.2468,-2.25644,-3.61302,31.4112,-2.60766,1.9774,14.6717,-1.2685,0.940238,-1.08338e-14,3.97569e-15,-41.9076,-3.14892,-77.1003,34.3756,-18.2631,-10.8588,11.958,7.12502,15.1565,-17.4669,-1.08338e-14,3.97569e-15,-48.6561,9.61672,71.3939,49.585,3.98805,-14.2664,18.7896,7.12502,11.8722,48.433,-60.8165,3.099,22.3156,41.5655,-29.4528,-36.675,49.1565,-17.7102,-3.27488,-34.6852,29.4862,-22.3592,18.6589,-22.8223
2.35239,16.8201,11.7278,22.3244,-0.261549,4.45723,-5.35076,-1.27858,-3.82434,-5.00381,-1.60601,-1.9916,-2.11666,-0.729748,0.0357782,-22.5917,-2.23722,-3.52291,31.3105,-2.48995,1.67456,14.6916,-1.24913,0.819471,1.3418e-15,-7.95139e-15,-41.8465,-2.88639,-77.3441,34.1567,-19.4764,-10.2814,12.3077,7.12502,15.7127,-17.0744,1.3418e-15,-7.95139e-15,-48.4621,9.72332,71.806,48.8443,4.37533,-14.7435,18.3344,7.12502,11.4121,48.0038,-61.0523,3.0911,22.2209,41.7125,-31.1184,-36.6924,49.2653,-17.6899,-3.37869,-34.8837,29.1504,-22.3991,18.376,-22.2941
2.35601,16.8267,11.7046,22.3462,-0.135724,4.30077,-5.24652,-1.31637,-3.67924,-4.94968,-1.664,-1.90958,-2.11751,-0.76209,0.0391135,-22.8056,-2.25318,-3.50048,31.3091,-2.47498,1.56687,14.7356,-1.25453,0.772487,-5.36719e-15,-7.95139e-16,-42.0169,-2.84194,-77.5,34.075,-20.2501,-9.47839,11.7839,7.12502,16.4859,-17.5357,-5.36719e-15,-7.95139e-16,-48.6134,9.75159,72.0018,48.6084,4.1566,-14.3828,18.396,7.12502,11.76,48.0458,-61.0569,2.91224,22.702,41.7845,-32.7845,-36.3553,48.6668,-17.6564,-3.37819,-34.6632,28.9228,-22.2177,18.2467,-21.9315
2.36256,16.8315,11.6929,22.3726,0.0904283,4.24322,-5.09679,-1.42279,-3.52539,-5.05086,-1.82251,-1.85759,-2.30404,-0.841978,0.00630647,-22.7487,-2.18789,-3.51575,31.3287,-2.34973,1.49574,14.727,-1.21448,0.770199,-4.07509e-15,-5.96354e-15,-42.3982,-2.8964,-77.5435,33.8636,-20.7438,-8.48051,11.398,7.12502,17.4464,-17.8391,-4.07509e-15,-5.96354e-15,-49.0546,9.75857,72.0461,48.3121,3.91997,-13.5482,18.7521,7.12502,12.5648,48.3543,-60.9941,2.44223,23.1995,41.8157,-33.5594,-35.8349,47.8707,-17.6435,-3.34841,-34.536,28.7966,-21.7618,18.3847,-23.0381
2.36975,16.8357,11.6844,22.3842,0.293574,4.2444,-5.09031,-1.51505,-3.43633,-5.07692,-1.94903,-1.80375,-2.33213,-0.906664,0.00849168,-22.5474,-2.1753,-3.66775,31.2202,-2.2674,1.47028,14.6335,-1.20266,0.802409,8.24956e-15,1.39149e-14,-42.5364,-3.00244,-77.5129,33.4443,-21.4297,-7.4884,10.7645,7.12502,18.401,-18.3851,8.24956e-15,1.39149e-14,-49.25,9.81055,72.1494,47.5947,3.83921,-12.8024,18.7634,7.12502,13.2837,48.3201,-60.8381,1.99075,23.6281,41.8172,-34.0798,-35.1874,47.6459,-17.6388,-3.34455,-34.4956,28.7608,-21.3028,18.6422,-25.2902
2.37378,16.8413,11.6787,22.4121,0.401093,4.07834,-5.23209,-1.52355,-3.2346,-5.0352,-1.95717,-1.74529,-2.2131,-0.917638,-0.0485059,-22.346,-2.1653,-3.73626,31.0607,-2.21818,1.4334,14.5169,-1.19565,0.809092,-2.48481e-14,-3.22031e-14,-42.6464,-3.311,-77.4349,33.0691,-21.9442,-6.29017,9.80838,7.12502,19.5534,-19.2284,-2.48481e-14,-3.22031e-14,-49.3042,9.71027,72.3042,46.961,3.72135,-11.9956,19.0775,7.12502,14.0612,48.5818,-60.6596,1.72276,24.2356,41.8176,-33.8366,-34.7649,46.4426,-17.6773,-3.18967,-34.3042,28.6982,-20.8101,18.8104,-27.3351
2.3768,16.8447,11.6693,22.5077,0.500764,3.96458,-5.35511,-1.5365,-3.12635,-4.99607,-1.96985,-1.68377,-2.10452,-0.927701,-0.0499942,-22.5153,-2.16425,-3.85815,31.0983,-2.16962,1.46014,14.5718,-1.18503,0.849221,-7.05686e-15,4.37326e-15,-42.7072,-3.66449,-77.3155,32.6677,-22.4635,-5.20078,9.44948,7.12502,20.6005,-19.4774,-7.05686e-15,4.37326e-15,-49.3252,9.75172,72.4188,46.4718,3.43892,-10.9844,19.7078,7.12502,15.0355,49.1418,-60.6063,1.62212,24.6674,41.7849,-33.1307,-34.679,44.9979,-17.82,-2.91702,-34.1658,28.6507,-20.4996,18.6563,-27.9686
2.3787,16.8462,11.6646,22.6571,0.427907,4.16719,-5.53269,-1.56145,-3.3703,-5.00149,-1.9868,-1.74794,-2.00639,-0.931447,0.014394,-22.7705,-2.17944,-3.90205,31.2313,-2.17242,1.48352,14.6889,-1.18762,0.864783,2.78299e-15,1.59028e-14,-42.9174,-3.98869,-77.2717,32.3828,-22.9852,-4.26092,9.35699,7.12502,21.5034,-19.4694,2.78299e-15,1.59028e-14,-49.3123,9.78162,72.4627,45.6916,3.31409,-10.3213,19.8499,7.12502,15.6743,49.235,-60.6618,1.63533,24.6296,41.7511,-32.0235,-35.0185,44.0504,-17.903,-2.82665,-34.4021,28.6302,-20.9178,18.1787,-26.9385
2.37994,16.8515,11.6668,22.795,0.404156,4.20686,-5.62595,-1.58692,-3.44341,-5.16409,-2.01959,-1.75984,-2.12116,-0.943373,0.0411881,-22.6544,-2.141,-3.80539,31.3371,-2.12965,1.39359,14.7068,-1.1724,0.820419,-1.19768e-14,-1.55052e-14,-43.4986,-4.032,-77.3089,32.3811,-23.5577,-3.2082,8.60485,7.12502,22.5141,-20.1026,-1.19768e-14,-1.55052e-14,-49.5897,9.81891,72.3506,44.7585,3.12938,-9.83829,19.5151,7.12502,16.1394,48.8631,-60.602,1.90984,24.5774,41.7222,-31.8416,-34.9522,44.2875,-17.9565,-2.77337,-34.45,28.611,-21.4598,17.6711,-25.0784
2.38185,16.8535,11.6744,22.8723,0.393875,4.17629,-5.62781,-1.61668,-3.42285,-5.39892,-2.06856,-1.73677,-2.36314,-0.96336,0.0548251,-22.4433,-2.04285,-3.72443,31.4999,-1.97773,1.25048,14.7258,-1.1215,0.778328,2.73329e-14,1.23246e-14,-44.0957,-4.09215,-77.2632,32.1157,-23.9492,-2.29457,8.26328,7.12502,23.3908,-20.3353,2.73329e-14,1.23246e-14,-50.1166,9.96157,72.1388,44.0456,2.78148,-9.21694,19.3524,7.12502,16.7376,48.6509,-60.4094,2.1467,24.6621,41.7696,-32.3934,-34.1874,45.3991,-17.9624,-2.62795,-34.4383,28.5181,-21.5967,17.6514,-24.735
2.38842,16.8503,11.6879,23.0788,0.414263,4.24727,-5.92838,-1.6372,-3.41567,-5.52829,-2.08587,-1.76202,-2.33169,-0.972353,0.017135,-22.4966,-2.01682,-3.80273,31.7635,-1.92741,1.30422,14.8579,-1.10363,0.824343,-2.05245e-14,-2.98177e-14,-44.4518,-4.39341,-77.154,31.8031,-24.1138,-1.35118,7.88875,7.12502,24.2956,-20.5916,-2.05245e-14,-2.98177e-14,-50.4165,10.0701,72.0388,43.4492,2.60948,-8.56601,19.5064,7.12502,17.3642,48.7508,-60.3373,2.11752,24.83,41.8404,-32.3223,-33.8237,46.121,-18.1078,-2.56372,-34.5243,28.4539,-21.6198,17.5751,-24.394
2.39707,16.8482,11.7014,23.2807,0.499483,4.46254,-6.2109,-1.69884,-3.49933,-5.60495,-2.15386,-1.83287,-2.25347,-1.0057,-0.0194945,-22.5973,-1.98431,-3.74823,31.9827,-1.87978,1.25165,14.9778,-1.08566,0.80261,-1.17283e-14,-6.36111e-15,-44.6809,-4.75534,-77.0296,31.3123,-24.2662,-0.396975,7.72477,7.12502,25.2101,-20.6301,-1.17283e-14,-6.36111e-15,-50.6684,10.2156,71.9233,42.8481,2.51325,-7.86392,19.6121,7.12502,18.0398,48.7955,-60.2761,1.78379,25.0416,41.9353,-31.7234,-33.9144,46.4518,-18.2282,-2.4487,-34.7596,28.4279,-21.5368,17.4137,-24.7706
2.40386,16.8488,11.7135,23.3999,0.595936,4.43842,-6.34025,-1.71456,-3.36117,-5.77514,-2.18028,-1.83844,-2.36322,-1.02107,-0.104811,-22.2521,-1.91786,-3.69173,31.9775,-1.78821,1.16532,14.8935,-1.05415,0.776483,7.00716e-15,1.59028e-15,-45.0342,-5.10293,-76.8342,30.5865,-24.0982,0.40581,7.57305,7.12502,25.979,-20.6713,7.00716e-15,1.59028e-15,-51.2431,10.3877,71.6687,42.5722,2.34534,-7.06955,19.7378,7.12502,18.8039,48.8489,-60.011,1.66697,25.3983,42.0255,-32.3712,-33.487,47.5695,-18.3181,-2.35576,-34.7433,28.4617,-21.5883,17.2631,-24.6233
2.40739,16.8416,11.7309,23.4968,0.74893,4.35729,-6.51233,-1.72703,-3.15501,-5.92643,-2.20247,-1.84445,-2.43214,-1.03758,-0.229931,-21.9096,-1.90276,-3.73118,31.9791,-1.77743,1.19791,14.8183,-1.05121,0.800712,-6.4605e-15,-2.78299e-15,-45.3642,-5.46535,-76.675,29.9361,-23.9066,1.21198,7.19183,7.12502,26.7507,-20.9369,-6.4605e-15,-2.78299e-15,-51.7344,10.5945,71.3188,42.1938,2.00813,-6.41297,19.7528,7.12502,19.4353,48.8015,-59.6443,1.47516,25.9025,42.1215,-33.4932,-32.8585,48.9987,-18.3686,-2.37349,-34.6222,28.5348,-21.8996,17.0217,-23.9415
2.40628,16.8255,11.7441,23.6509,0.780871,4.49097,-6.6102,-1.75468,-3.26696,-6.08503,-2.23617,-1.88815,-2.54138,-1.04929,-0.214862,-21.8718,-1.92433,-3.76538,32.1076,-1.80334,1.21053,14.8702,-1.06585,0.807588,1.56543e-14,2.90226e-14,-45.7406,-5.60136,-76.6955,29.5795,-23.9911,1.61034,6.85685,7.12502,27.1319,-21.213,1.56543e-14,2.90226e-14,-51.8971,10.9976,70.8645,41.3837,1.64813,-5.51094,19.9424,7.12502,20.3024,48.9012,-59.3431,1.58851,26.0219,42.191,-34.1323,-32.9819,49.883,-18.5606,-2.18314,-34.7538,28.6808,-21.8158,16.8301,-24.316
2.40584,16.8103,11.7602,23.875,0.728213,4.66371,-6.81154,-1.76031,-3.43511,-6.21886,-2.23191,-1.95286,-2.56741,-1.0414,-0.192173,-22.1118,-1.95145,-3.8386,32.3232,-1.82943,1.27742,15.0261,-1.07689,0.842693,1.76421e-14,1.78906e-14,-46.0346,-5.72649,-76.7173,29.1372,-23.9837,2.02316,6.80007,7.12502,27.5267,-21.2076,1.76421e-14,1.78906e-14,-51.8348,11.4069,70.4442,40.379,1.48441,-4.71239,20.2053,7.12502,21.0697,49.0806,-59.1169,1.61036,26.1662,42.2504,-34.2143,-33.3228,49.6984,-18.862,-1.96019,-34.9625,28.8867,-21.801,16.6923,-24.7453
2.41215,16.7979,11.7896,24.0989,1.00092,4.57725,-7.29006,-1.77853,-3.11668,-6.25083,-2.24771,-1.98,-2.34736,-1.06372,-0.413086,-22.2821,-1.97008,-3.85513,32.4455,-1.85497,1.31029,15.1227,-1.08489,0.854077,-2.94698e-14,-1.51076e-14,-46.293,-5.87607,-76.796,28.8135,-23.8792,2.30692,6.53071,7.12502,27.7981,-21.4334,-2.94698e-14,-1.51076e-14,-51.7748,11.7508,70.0328,39.6146,1.3677,-3.87175,20.695,7.12502,21.8771,49.4782,-58.8132,1.46936,26.5624,42.3493,-34.7344,-33.3336,48.6887,-19.0337,-1.9556,-34.787,28.9942,-21.9044,16.4008,-24.4075
2.42583,16.7865,11.8242,24.3056,1.48662,4.32941,-7.73444,-1.82509,-2.50674,-6.37636,-2.32413,-1.91034,-2.25056,-1.12253,-0.698085,-22.2254,-1.99918,-4.02798,32.6595,-1.8632,1.39348,15.2137,-1.09994,0.918612,3.97569e-16,1.55052e-14,-46.806,-6.0374,-76.6652,28.6941,-23.326,2.69224,6.34559,7.12502,28.1664,-21.5585,3.97569e-16,1.55052e-14,-52.1096,11.9844,69.6649,39.2189,1.45887,-3.20952,21.0002,7.12502,22.5129,49.7078,-58.477,0.989188,27.2645,42.4415,-34.3569,-33.4177,46.4344,-19.1093,-1.87319,-34.4226,29.0371,-21.9731,15.9898,-24.5525
2.41987,16.7647,11.8674,24.7749,1.26008,4.82135,-8.43227,-1.86295,-3.15689,-6.65112,-2.31488,-1.99099,-2.13604,-1.09661,-0.437394,-22.0607,-2.04057,-4.21764,32.9111,-1.87647,1.44146,15.2988,-1.12578,0.971202,1.48592e-14,1.35174e-14,-47.3822,-6.26696,-76.4177,28.3804,-22.625,2.85127,6.29411,7.12502,28.3184,-21.5848,1.48592e-14,1.35174e-14,-52.6018,12.2283,69.2971,38.7055,1.76486,-2.83233,20.6139,7.12502,22.8749,49.2772,-58.5436,1.69644,26.3836,42.5545,-34.3576,-33.6568,44.949,-19.414,-1.67862,-35.0025,29.0149,-22.184,15.6793,-24.7545
2.41968,16.7514,11.9074,25.0755,1.36591,4.9635,-8.83618,-1.89677,-3.2528,-6.92625,-2.34325,-2.00234,-2.20031,-1.1054,-0.406847,-21.6364,-2.01783,-4.20484,32.856,-1.83632,1.35426,15.1738,-1.12143,0.941914,3.27995e-15,1.47101e-14,-47.9518,-6.49543,-76.1884,27.9613,-21.8399,3.01701,6.26114,7.12502,28.4768,-21.5914,3.27995e-15,1.47101e-14,-53.0768,12.3195,68.9631,38.0403,2.49599,-2.86167,19.9932,7.12502,22.8467,48.6599,-58.4353,2.23965,25.8718,42.583,-34.2303,-33.659,44.0289,-19.5113,-1.60774,-35.1125,28.9634,-22.2828,15.4292,-24.8986
2.42085,16.7394,11.9425,25.2938,1.53783,4.97102,-8.84133,-1.90598,-3.17073,-7.38611,-2.37706,-1.97278,-2.68264,-1.11691,-0.417215,-20.918,-1.99339,-4.33904,32.7762,-1.81617,1.44165,14.9761,-1.11962,1.00872,-1.39149e-14,1.82882e-14,-48.8135,-6.50052,-76.0141,27.7544,-21.2421,3.29893,5.88327,7.12502,28.7462,-21.9239,-1.39149e-14,1.82882e-14,-53.8896,12.5064,68.4173,37.6012,2.84459,-2.41313,19.977,7.12502,23.2771,48.59,-58.2721,3.27979,25.1215,42.5576,-35.1743,-33.7287,43.9915,-19.521,-1.49691,-35.0622,28.8033,-22.2154,15.2091,-24.5783
2.41943,16.7293,11.981,25.5178,1.63494,5.01346,-9.09677,-1.8769,-3.16478,-7.67031,-2.33615,-2.01113,-2.84538,-1.09409,-0.461811,-20.5472,-2.00379,-4.39438,32.8507,-1.87305,1.55846,14.9307,-1.13588,1.05869,-6.85807e-15,1.98785e-15,-49.4603,-6.53552,-76.0198,27.5389,-20.7005,3.1427,5.72715,7.12502,28.5969,-22.1052,-6.85807e-15,1.98785e-15,-54.3875,12.583,67.9536,37.3389,3.14478,-1.8529,20.6801,7.12502,23.8145,49.224,-58.1174,4.45279,24.3127,42.4352,-36.3321,-34.2497,43.7883,-19.5326,-1.50821,-35.0447,28.6255,-22.1636,15.1481,-24.4738
2.42143,16.7224,12.0281,25.6953,1.79381,5.09961,-9.76826,-1.89961,-3.11339,-7.58496,-2.33229,-2.08285,-2.39328,-1.10133,-0.588247,-20.8811,-2.00532,-4.41755,33.0648,-1.9097,1.71958,15.1094,-1.131,1.12331,2.3059e-14,2.50469e-14,-49.3929,-6.92756,-75.9268,26.7852,-19.6166,2.98449,6.25338,7.12502,28.4457,-21.6043,2.3059e-14,2.50469e-14,-54.3901,13.0114,67.392,36.9243,3.50375,-1.44971,21.015,7.12502,24.2011,49.508,-57.9239,5.54461,23.4659,42.2857,-38.4327,-34.4381,44.2291,-19.3869,-1.51469,-35.0659,28.4043,-22.1562,15.0523,-25.3703
2.42272,16.716,12.0776,25.8644,1.91839,5.24547,-10.5911,-1.94098,-3.18048,-7.33842,-2.32974,-2.11925,-1.68536,-1.1067,-0.620364,-21.4702,-2.06556,-4.71251,33.3135,-1.99445,2.09765,15.3741,-1.1483,1.31775,-1.2424e-15,2.18663e-14,-49.0429,-7.17582,-75.9258,25.9979,-18.5771,2.6555,6.94232,7.12502,28.1313,-20.9675,-1.2424e-15,2.18663e-14,-54.0355,13.7581,66.8201,36.2011,3.81847,-1.19929,21.1079,7.12502,24.4412,49.5687,-57.8099,6.93785,22.2932,42.1314,-41.4632,-34.303,45.5011,-19.2154,-1.50492,-35.1611,28.1578,-21.9545,15.1581,-26.6926
2.42506,16.7059,12.1268,26.0338,2.00097,5.40652,-11.6286,-1.96631,-3.27441,-6.90068,-2.28262,-2.15382,-0.662996,-1.09292,-0.642563,-22.0583,-2.14328,-4.86902,33.2322,-2.06612,2.24284,15.4787,-1.17246,1.38981,-1.83876e-15,-7.55382e-15,-48.4413,-7.27883,-76.141,25.6002,-17.6735,2.16124,7.20015,7.12502,27.6588,-20.7864,-1.83876e-15,-7.55382e-15,-53.3191,14.7955,66.271,35.4457,3.94259,-0.819,20.9931,7.12502,24.8057,49.4043,-57.8295,8.38161,21.0457,42.0007,-44.3019,-34.451,46.5459,-19.0209,-1.49075,-35.2773,27.8773,-21.842,15.0561,-26.8921
2.42904,16.6929,12.1751,26.1739,2.25576,5.42814,-11.4695,-1.98542,-3.15401,-7.36883,-2.34489,-2.12773,-1.24367,-1.11922,-0.675538,-21.6585,-2.09556,-4.77349,33.2829,-1.97925,2.03725,15.4028,-1.1567,1.3048,-6.53505e-15,1.31198e-14,-49.2921,-6.92364,-76.1904,25.4979,-16.9006,1.81061,7.01005,7.12502,27.3235,-21.0298,-6.53505e-15,1.31198e-14,-54.1753,15.0739,65.4955,35.0289,4.13832,-0.568602,20.6645,7.12502,25.0456,49.0424,-57.824,9.56317,20.1536,41.8294,-46.7723,-34.5016,47.8465,-18.8494,-1.44624,-35.2038,27.6823,-21.637,14.8521,-27.3488
2.4301,16.6853,12.2291,26.416,2.45466,5.48995,-11.7104,-2.00959,-3.17331,-7.72792,-2.37505,-2.06914,-1.48925,-1.12788,-0.609392,-21.1809,-2.03731,-4.78084,33.2012,-1.87533,1.93218,15.249,-1.13073,1.28264,-2.65874e-14,-3.83654e-14,-49.8928,-6.70698,-76.0899,25.1544,-15.919,1.72533,6.84774,7.12502,27.2419,-21.2049,-2.65874e-14,-3.83654e-14,-54.9651,15.3203,64.8574,34.7209,4.26915,-0.349527,20.5269,7.12502,25.2555,48.8754,-57.9027,10.5726,19.3376,41.7068,-49.0628,-34.4459,48.7521,-18.7765,-1.3493,-35.1779,27.5646,-21.6816,14.4575,-27.457
2.43611,16.6776,12.2965,26.7701,2.862,5.1243,-12.2445,-1.99356,-2.61771,-8.15564,-2.39392,-1.92132,-1.66708,-1.15119,-0.779616,-20.6852,-2.04707,-5.00741,33.4244,-1.89079,2.08859,15.2468,-1.14868,1.38908,5.71506e-15,2.22639e-14,-50.6168,-6.44696,-75.9524,24.7527,-14.7697,1.74832,7.22401,7.12502,27.2639,-20.8252,5.71506e-15,2.22639e-14,-55.8564,15.4028,64.2991,34.6786,4.56349,-0.268216,21.0643,7.12502,25.3334,49.4017,-57.9588,10.8738,19.526,41.5752,-50.1204,-34.6705,48.9118,-18.8488,-1.21611,-34.6645,27.5355,-21.6605,14.1148,-28.1284
2.42699,16.6543,12.3212,26.9364,2.68231,5.54167,-11.9441,-1.9873,-3.175,-8.62233,-2.36439,-2.04448,-2.31117,-1.10831,-0.575205,-20.4389,-2.10325,-5.23904,33.7784,-2.02533,2.4109,15.372,-1.1939,1.54539,1.89342e-14,-6.55989e-15,-51.2732,-6.33033,-75.9211,24.4353,-13.6194,1.62221,7.54056,7.12502,27.1432,-20.5276,1.89342e-14,-6.55989e-15,-56.5809,15.2947,63.8169,34.8617,5.10219,0.2502,22.2245,7.12502,25.83,50.4906,-58.2798,12.1738,18.1086,41.58,-52.2043,-35.0607,49.4326,-18.8888,-0.937028,-35.1106,27.4252,-21.3982,13.9253,-28.6934
2.43523,16.6413,12.3736,27.0517,2.96147,5.48192,-12.3251,-1.94341,-2.87249,-8.6566,-2.31495,-2.09513,-2.15575,-1.09888,-0.804281,-20.5668,-2.18515,-5.33327,33.9337,-2.19423,2.64638,15.4894,-1.24336,1.63172,4.34841e-16,-2.90226e-14,-51.1836,-6.65098,-75.7314,23.6945,-12.2524,1.45367,7.85409,7.12502,26.982,-20.2391,4.34841e-16,-2.90226e-14,-56.6975,15.5471,63.3296,34.7382,5.4437,0.515149,23.0183,7.12502,26.0837,51.2472,-58.2257,12.03,18.2867,41.6745,-52.4529,-35.3774,49.1418,-18.6688,-0.786598,-34.9429,27.2409,-21.166,13.677,-29.6291
2.44895,16.6292,12.4483,27.1507,3.22963,5.4656,-13.3555,-1.92135,-2.57966,-8.28199,-2.25215,-2.14757,-1.21952,-1.0884,-1.05695,-20.9595,-2.19071,-5.05855,33.7325,-2.20354,2.43884,15.4768,-1.23599,1.48983,1.10077e-14,1.78906e-14,-50.5441,-7.10797,-75.4893,22.7827,-10.6451,1.31587,8.74882,7.12502,26.8501,-19.3647,1.10077e-14,1.78906e-14,-56.2186,16.3378,62.7408,34.2078,5.36423,0.663021,22.8624,7.12502,26.2253,51.0703,-57.9647,10.9411,19.1345,41.8872,-51.2286,-35.7239,47.9546,-18.2884,-0.752913,-34.83,27.0404,-21.1789,13.4137,-30.247
2.45497,16.6153,12.5255,27.2242,3.25888,5.55545,-14.5108,-1.92728,-2.6459,-7.79087,-2.18149,-2.15498,-0.0845024,-1.05907,-1.06682,-21.3162,-2.09307,-4.63432,33.2215,-2.05674,2.06785,15.2965,-1.16562,1.27998,1.83876e-15,1.31198e-14,-49.8459,-7.65446,-75.1095,22.0845,-8.33398,1.2943,9.54088,7.12502,26.8295,-18.5758,1.83876e-15,1.31198e-14,-55.7557,17.335,62.1412,33.8018,5.08718,0.702043,22.4909,7.12502,26.2626,50.6934,-57.8191,10.5456,19.3851,42.1864,-50.8697,-35.9734,47.2833,-17.8925,-0.692877,-34.8632,26.7755,-21.2769,13.1235,-30.2889
2.43416,16.597,12.5533,27.2742,2.79149,5.78263,-13.4722,-1.83166,-3.31808,-8.67846,-2.06092,-2.14875,-1.55785,-0.958303,-0.619875,-20.4811,-1.94656,-4.53017,33.4246,-1.86712,1.91192,15.1885,-1.10118,1.23762,1.27968e-15,-4.37326e-15,-51.1428,-7.47479,-74.7105,21.9456,-6.8239,1.1516,9.60505,7.12502,26.6929,-18.5325,1.27968e-15,-4.37326e-15,-57.264,16.9611,61.4833,34.0223,5.41949,0.76215,22.7191,7.12502,26.3202,50.9129,-58.1533,12.5714,17.8876,42.4773,-53.4046,-36.3401,47.934,-17.857,-0.526282,-35.1131,26.5685,-21.1471,13.026,-30.502
2.44041,16.5878,12.6147,27.2749,2.76702,5.841,-14.2134,-1.76106,-3.3373,-8.38616,-1.91284,-2.18162,-0.856223,-0.892233,-0.651185,-20.7903,-1.97266,-4.67645,33.4068,-1.90745,2.11787,15.2574,-1.10452,1.34121,2.1506e-14,6.36111e-15,-50.6203,-8.23127,-74.1682,21.2045,-5.17454,1.0327,10.0709,7.12502,26.5791,-18.0839,2.1506e-14,6.36111e-15,-57.0621,17.413,61.2271,33.9786,5.54366,0.66783,22.8211,7.12502,26.2299,51.0284,-58.0061,12.5209,17.917,42.7304,-53.5837,-36.1112,47.535,-17.599,-0.495033,-35.1468,26.5179,-21.1186,12.8467,-30.713
2.44699,16.5845,12.6735,27.4185,2.93921,5.70697,-14.6003,-1.68766,-3.08544,-8.54072,-1.82994,-2.1634,-0.822613,-0.858171,-0.771207,-20.728,-1.98652,-4.67994,33.6287,-1.95702,2.184,15.3512,-1.11813,1.36326,8.13775e-15,-2.68359e-14,-50.7443,-8.30739,-73.988,20.7502,-4.16315,0.82778,10.1124,7.12502,26.383,-18.072,8.13775e-15,-2.68359e-14,-57.3188,18.0522,60.3035,33.3669,4.96214,0.75271,22.0624,7.12502,26.3111,50.2576,-57.9438,12.3515,18.204,42.8886,-54.1533,-35.2186,47.7129,-17.5904,-0.553014,-34.889,26.6553,-21.0483,12.6129,-30.7427
2.45218,16.5838,12.7213,27.631,3.12588,5.42833,-14.6948,-1.58562,-2.68993,-8.87032,-1.74885,-2.10966,-1.13198,-0.826593,-0.924207,-20.3446,-1.90184,-4.26652,33.5196,-1.86678,1.80552,15.1961,-1.08191,1.14904,8.28684e-15,6.36111e-15,-51.009,-8.40759,-73.747,20.378,-3.0229,0.685017,10.154,7.12502,26.2463,-18.0508,8.28684e-15,6.36111e-15,-57.7711,18.3645,59.5214,33.0912,4.68733,1.06169,21.9275,7.12502,26.6069,50.0782,-57.9808,12.159,18.6785,42.9856,-54.5538,-34.3277,48.8077,-17.7432,-0.721279,-34.4618,26.8542,-21.0168,12.4396,-30.7635
