JuanDHNZ/ProyectoFinalCD/preprocessing/sports_trials_csv/06_06.csv
root1,root2,root3,root4,root5,root6,lowerback1,lowerback2,lowerback3,upperback1,upperback2,upperback3,thorax1,thorax2,thorax3,lowerneck1,lowerneck2,lowerneck3,upperneck1,upperneck2,upperneck3,head1,head2,head3,rclavicle1,rclavicle2,rhumerus1,rhumerus2,rhumerus3,rradius1,rwrist1,rhand1,rhand2,rfingers1,rthumb1,rthumb2,lclavicle1,lclavicle2,lhumerus1,lhumerus2,lhumerus3,lradius1,lwrist1,lhand1,lhand2,lfingers1,lthumb1,lthumb2,rfemur1,rfemur2,rfemur3,rtibia1,rfoot1,rfoot2,rtoes1,lfemur1,lfemur2,lfemur3,ltibia1,lfoot1,lfoot2,ltoes1
2.9372,17.2381,36.8005,-8.32227,-3.09833,7.11889,23.2964,-1.64817,-4.37798,4.01408,-2.6908,5.71112,-8.04724,-1.12105,9.72156,-2.97323,-10.6613,-7.54329,34.7812,-12.7769,-6.13194,12.0759,-7.37417,-2.42116,7.51406e-14,-6.04305e-14,-40.4873,-48.437,-41.9366,41.3468,-46.7817,-20.1768,-11.9993,7.12502,6.16911,-41.8895,7.51406e-14,-6.04305e-14,-45.2755,8.372,80.6857,57.0801,11.2012,-11.5182,50.9128,7.12502,14.5213,80.3846,-31.0429,6.73486,5.55124,31.631,-8.68576,-16.148,-0.586614,0.478358,-0.598771,-30.5127,39.4878,-23.0295,-0.495695,-15.2978
2.98986,17.2549,36.6814,-8.43668,-3.19394,7.28659,23.2972,-1.66235,-4.70214,3.98264,-2.79478,5.65868,-8.04784,-1.1629,9.88568,-3.18753,-10.6348,-7.581,35.0009,-12.7252,-6.13353,12.2139,-7.35898,-2.44228,2.98177e-14,-1.90833e-14,-41.752,-47.8488,-41.7015,43.1169,-50.412,-21.099,-12.7548,7.12502,5.27876,-42.669,2.98177e-14,-1.90833e-14,-45.6649,8.24598,80.7319,56.7085,10.7027,-11.2316,51.4925,7.12502,14.7974,80.9442,-30.7757,6.44227,5.41082,31.3043,-9.58185,-16.7847,-1.13855,0.853239,-0.822403,-30.9926,38.2353,-23.1596,0.0971079,-14.7498
3.04786,17.2711,36.5494,-8.24893,-3.0464,7.39804,23.1968,-1.75467,-4.76503,3.89113,-2.93643,5.55876,-8.0715,-1.2263,9.84453,-3.59899,-10.6207,-7.46209,35.0893,-12.7465,-5.95649,12.3352,-7.33319,-2.43469,1.90833e-14,3.18055e-15,-43.0785,-48.2465,-41.0751,44.3937,-52.9388,-19.1055,-13.0361,7.12502,7.20334,-42.8935,1.90833e-14,3.18055e-15,-45.8961,7.93237,80.8219,56.262,10.038,-10.6649,51.6855,7.12502,15.3433,81.0963,-30.6178,5.54714,5.36572,30.7977,-10.229,-17.7689,-1.45895,0.596951,-1.22428,-31.4059,37.5055,-23.2898,0.405867,-13.7585
3.08385,17.2991,36.445,-8.50683,-3.74699,6.73388,23.0156,-1.58701,-4.37936,4.17061,-2.6201,5.64012,-7.74321,-1.11073,9.58792,-3.64221,-10.6869,-6.99177,34.7961,-12.9162,-5.92393,12.1758,-7.34834,-2.49214,-1.98785e-15,1.59028e-14,-44.1863,-48.9834,-40.602,45.4883,-55.347,-19.2922,-13.3727,7.12502,7.02308,-43.2362,-1.98785e-15,1.59028e-14,-45.93,7.29066,80.9114,55.6019,9.26653,-10.3159,51.3487,7.12502,15.6794,80.7334,-30.1955,5.75056,6.4834,30.5365,-11.3608,-19.576,-0.840453,0.837527,-0.765384,-30.6869,36.8703,-23.5127,0.493816,-12.9003
3.10602,17.3181,36.2961,-8.60422,-4.57696,5.84425,23.3523,-1.39533,-4.05857,4.23596,-2.28258,5.83219,-7.91724,-0.947446,9.54632,-3.95739,-10.6986,-6.43953,35.0039,-12.904,-6.24456,12.2435,-7.31701,-2.7232,0,-5.08889e-14,-44.8849,-49.035,-40.7154,46.7861,-58.1369,-21.8302,-13.0526,7.12502,4.57269,-42.9833,0,-5.08889e-14,-46.0498,6.77252,80.8508,54.8211,8.5522,-10.1956,50.8021,7.12502,15.7953,80.1777,-30.1022,6.3305,7.88338,30.3337,-12.4837,-21.8664,2.50423,0.335529,-0.16261,-29.5827,36.9917,-23.4706,0.404698,-11.7038
3.15067,17.3397,36.1787,-8.74516,-4.64434,6.0166,23.5352,-1.34203,-4.1181,3.4689,-2.21666,5.76426,-8.88601,-0.839427,9.54647,-1.29376,-10.6125,-7.46183,34.6955,-13.0128,-5.7619,11.7324,-7.44927,-2.19724,1.59028e-14,-9.54166e-15,-47.6751,-47.5287,-38.771,48.3026,-60.6071,-19.7343,-13.4831,7.12502,6.59636,-43.3604,1.59028e-14,-9.54166e-15,-48.1031,5.89217,81.2069,54.55,7.82653,-10.2116,50.0438,7.12502,15.7799,79.4206,-29.912,4.91417,8.24093,30.8438,-13.5308,-22.8146,5.99502,0.0210484,0.065399,-29.8703,37.095,-23.1829,0.24934,-10.4941
3.17873,17.3506,35.9873,-8.29552,-5.04895,5.15927,23.9108,-1.35839,-3.62756,3.04982,-2.0777,6.03131,-9.59342,-0.734658,9.58098,-0.633884,-10.5455,-7.71269,34.5569,-12.9905,-5.63352,11.5831,-7.46105,-2.05723,4.77083e-15,0,-48.6595,-46.9213,-38.4427,49.6884,-62.4512,-18.2678,-13.9945,7.12502,8.01191,-43.8227,4.77083e-15,0,-49.0149,5.65595,81.3135,54.0476,7.06777,-10.7345,48.8151,7.12502,15.2763,78.231,-30.7711,4.3582,9.72851,31.8231,-13.9498,-24.4927,9.04631,-1.63198,0.248217,-28.8373,37.6052,-22.3883,-0.0642776,-9.81288
3.23279,17.3523,35.8684,-8.38676,-4.52119,6.64884,23.5286,-1.4723,-4.87612,3.15206,-2.60781,5.42484,-9.14413,-0.982546,9.73884,-0.85327,-10.5722,-7.54425,34.3875,-13.0457,-5.57565,11.5442,-7.45995,-2.07198,3.97569e-16,6.36111e-15,-49.177,-47.3777,-38.4893,50.9369,-63.6249,-16.888,-14.3117,7.12502,9.34339,-44.0846,3.97569e-16,6.36111e-15,-49.0317,5.4199,81.2054,53.1422,6.33942,-11.0798,48.2426,7.12502,14.9436,77.6835,-31.0842,1.53159,8.67375,33.4431,-13.5607,-24.1813,9.95884,-2.19258,-0.148516,-30.7684,37.7873,-21.8576,-0.0276685,-9.29581
3.26784,17.3613,35.7456,-8.69755,-4.56593,7.11392,23.493,-1.47388,-5.42453,3.31231,-2.77756,5.16728,-8.8961,-1.07032,9.80155,-0.689002,-10.4965,-7.78656,34.0845,-13.0619,-5.09578,11.4513,-7.44362,-1.8397,1.51076e-14,2.54444e-14,-49.6538,-47.4005,-38.6626,52.2744,-64.5878,-16.5839,-14.1463,7.12502,9.63685,-43.9059,1.51076e-14,2.54444e-14,-49.1753,5.2487,81.0676,52.3674,5.74833,-10.8809,47.8368,7.12502,15.1352,77.2634,-31.1573,0.0993214,8.70931,35.2195,-13.9775,-24.0838,10.7538,-2.64974,-0.0765609,-31.3221,38.2631,-21.5687,-0.311026,-8.85743
3.29246,17.3742,35.6278,-9.35594,-5.05257,6.72287,23.5853,-1.42628,-5.41657,3.79347,-2.71931,5.2186,-8.41305,-1.08876,9.81582,-0.876254,-10.4134,-7.91252,33.7969,-12.9917,-4.80143,11.4046,-7.39282,-1.70728,-1.19271e-15,-1.27222e-14,-49.6429,-47.1787,-39.3237,53.8407,-65.7265,-17.6067,-13.4391,7.12502,8.64989,-43.2418,-1.19271e-15,-1.27222e-14,-49.1398,5.39374,80.883,51.7043,5.40711,-10.5781,47.508,7.12502,15.4269,76.9123,-30.7937,-0.474853,9.69956,37.1047,-14.2449,-24.0707,10.9872,-2.59307,0.439547,-30.7793,38.5779,-21.3319,-0.579997,-9.57825
3.31668,17.3714,35.4598,-9.05475,-5.3953,6.83156,24.0156,-1.2963,-5.75246,3.42646,-2.65643,5.1091,-9.05436,-0.997764,9.92904,-0.611142,-10.3423,-7.67517,33.3989,-12.9534,-4.74912,11.1739,-7.34638,-1.67754,-3.97569e-15,-3.02153e-14,-50.4957,-46.6861,-39.2062,55.4103,-66.8683,-18.3274,-12.6587,7.12502,7.95437,-42.489,-3.97569e-15,-3.02153e-14,-49.7051,5.1606,80.6644,51.1145,5.15824,-10.4021,47.2354,7.12502,15.5964,76.6267,-31.7386,-0.92317,10.0349,39.0525,-13.6135,-24.2062,10.6485,-3.92857,0.656956,-30.7924,38.9464,-20.8217,-0.933566,-8.69394
3.35011,17.3931,35.315,-9.12834,-6.0038,5.8488,24.2749,-1.36949,-4.98773,3.51089,-2.54928,5.25828,-9.14793,-0.967827,9.63001,-1.0134,-10.2991,-7.3818,33.4189,-12.8463,-4.92,11.2151,-7.28516,-1.79822,2.90226e-14,1.11319e-14,-50.9876,-46.7745,-39.1895,56.754,-67.3025,-17.8655,-12.4731,7.12502,8.40015,-42.286,2.90226e-14,1.11319e-14,-49.8715,5.25821,80.3341,50.3855,4.91352,-10.0957,47.3415,7.12502,15.8915,76.7094,-31.7858,-1.21867,11.59,40.7919,-12.9404,-23.7103,8.97508,-4.56556,0.953065,-29.6412,39.3412,-20.5837,-1.14874,-6.60331
3.39875,17.4027,35.1895,-9.02137,-5.87059,6.83299,23.9266,-1.49562,-5.89757,3.58274,-2.98074,4.85581,-8.7704,-1.17688,9.79771,-2.02164,-10.2618,-7.27823,33.9781,-12.6806,-5.11713,11.6078,-7.22167,-1.97023,1.86858e-14,-2.54444e-14,-51.0199,-47.2577,-39.3387,57.8668,-67.3315,-17.3898,-12.4193,7.12502,8.85917,-42.2133,1.86858e-14,-2.54444e-14,-49.7721,5.78608,79.8932,49.5676,4.87715,-10.0424,47.2432,7.12502,15.9428,76.607,-32.2713,-2.76386,10.7405,42.9764,-12.4162,-22.2574,8.49019,-5.22764,0.740877,-30.9432,39.342,-20.2129,-1.07926,-4.38136
3.41962,17.4319,35.0738,-9.38995,-6.62306,6.02706,24.1298,-1.4425,-5.48423,3.65135,-2.79771,5.03595,-8.84976,-1.09829,9.72007,-2.01152,-10.1481,-7.24828,34.2171,-12.4859,-5.28536,11.6854,-7.15666,-2.02792,7.11649e-14,-4.13472e-14,-51.7707,-47.6511,-38.4623,58.6543,-67.3202,-16.9453,-12.7099,7.12502,9.28814,-42.4853,7.11649e-14,-4.13472e-14,-50.1968,6.04648,79.5669,48.6885,4.8797,-10.1661,47.1773,7.12502,15.8237,76.5507,-31.9438,-2.50929,11.9987,45.0224,-12.9176,-22.2232,9.8875,-5.21807,1.07798,-29.982,39.2772,-19.9115,-0.957972,-3.38893
3.46863,17.437,34.9519,-9.45948,-6.1674,6.96034,24.1333,-1.51077,-6.10678,3.39409,-3.08352,4.66318,-9.07073,-1.19713,9.75785,-1.51513,-10.0974,-7.56829,34.0499,-12.5129,-4.96193,11.5761,-7.17403,-1.82518,-2.50469e-14,7.95139e-15,-52.9398,-48.065,-36.9901,59.4189,-67.8612,-16.5582,-13.1566,7.12502,9.66158,-42.915,-2.50469e-14,7.95139e-15,-50.6054,6.10688,79.3414,47.9064,4.85037,-9.99846,47.1953,7.12502,15.9851,76.5558,-32.1223,-4.05918,11.0106,47.3603,-12.7574,-21.2326,9.45898,-5.50043,0.603335,-31.2837,38.9791,-19.5351,-0.472557,-4.56648
3.5028,17.4525,34.8335,-9.55051,-6.22989,7.01571,24.0834,-1.5205,-6.09614,3.26395,-3.09791,4.60093,-9.19326,-1.19308,9.68788,-0.859571,-10.0359,-8.07863,33.8456,-12.5452,-4.54837,11.4471,-7.20643,-1.55169,-6.16232e-14,-1.59028e-15,-53.9579,-48.3062,-35.5886,60.1932,-69.2174,-16.6596,-12.8722,7.12502,9.56381,-42.6351,-6.16232e-14,-1.59028e-15,-51.1267,6.33361,79.1653,47.44,4.86295,-10.0805,47.5604,7.12502,15.9062,76.9272,-32.0587,-4.7465,11.1033,49.4465,-12.1346,-20.2315,8.35356,-5.80848,0.443238,-31.4626,38.9033,-19.3768,-0.0973628,-5.60305
3.52874,17.4764,34.711,-9.66778,-6.57472,6.51653,24.1903,-1.5375,-5.74658,3.15423,-3.02274,4.70878,-9.40294,-1.15101,9.59999,-0.442347,-9.98448,-8.32743,33.8715,-12.4842,-4.56999,11.3988,-7.21684,-1.49071,2.78299e-15,-2.54444e-14,-54.9923,-48.9129,-33.9285,60.7365,-70.3284,-16.5695,-12.542,7.12502,9.65073,-42.3009,2.78299e-15,-2.54444e-14,-51.6347,6.66193,78.8385,46.8666,5.01604,-9.97419,47.8054,7.12502,16.0085,77.1639,-31.885,-4.91623,11.8692,51.5247,-11.4686,-19.2615,9.48332,-6.01355,0.323532,-30.9571,38.7961,-19.0581,0.317248,-5.71232
3.55592,17.4917,34.5755,-9.92719,-7.71728,6.16142,24.523,-1.27101,-5.6249,3.13616,-2.65472,4.72938,-9.67882,-0.963383,9.46893,-0.291354,-9.85945,-8.18035,33.8084,-12.2857,-4.75756,11.3125,-7.13622,-1.54443,-3.06128e-14,3.65764e-14,-55.7517,-49.5707,-32.5571,61.0667,-70.867,-15.3886,-12.4589,7.12502,10.7899,-42.1617,-3.06128e-14,3.65764e-14,-52.1077,7.23931,78.1968,46.4572,4.9467,-9.68846,47.9907,7.12502,16.2836,77.3269,-31.7817,-4.45572,12.6305,53.5188,-10.7662,-18.583,10.3429,-6.2282,0.915286,-30.4864,38.7548,-18.8064,0.815762,-5.59937
3.58441,17.5099,34.4603,-10.1266,-8.10076,6.02945,24.5624,-1.26049,-5.6621,3.24231,-2.66233,4.65804,-9.57943,-0.977484,9.40645,-0.741915,-9.81366,-7.74671,33.8891,-12.1068,-5.1829,11.3567,-7.05433,-1.77485,-4.37326e-14,3.81667e-14,-55.8926,-50.1827,-31.7899,61.3259,-71.3287,-14.2372,-12.0754,7.12502,11.9003,-41.7172,-4.37326e-14,3.81667e-14,-52.3193,8.01674,77.4725,46.0034,4.79542,-9.92881,48.0721,7.12502,16.0522,77.4271,-31.4318,-4.6959,12.9101,55.5162,-10.7939,-18.0379,11.0076,-6.43697,0.912814,-30.39,38.7048,-18.5711,1.26093,-6.25907
3.61582,17.5273,34.3459,-10.3175,-7.97859,6.12041,24.6627,-1.3423,-5.68013,3.30768,-2.79764,4.4765,-9.54033,-1.04918,9.25064,-1.37034,-9.91329,-7.43205,34.4543,-12.1396,-5.53445,11.6533,-7.07564,-2.02633,-1.59028e-14,-3.18055e-15,-56.1671,-50.6864,-30.8754,61.7127,-71.8596,-13.6966,-11.237,7.12502,12.4216,-40.8479,-1.59028e-14,-3.18055e-15,-52.2453,8.27992,77.0313,45.3577,5.13946,-9.58054,49.2497,7.12502,16.3875,78.5774,-30.9847,-5.38376,12.766,57.5701,-11.0394,-17.5139,11.0982,-6.628,0.635321,-30.6006,38.5957,-18.2522,1.44996,-6.01992
3.64021,17.5499,34.2195,-10.3274,-8.13414,5.67654,24.6792,-1.37681,-5.32957,3.33952,-2.74168,4.56082,-9.53748,-1.03526,9.12292,-2.68574,-9.93767,-7.37621,34.8277,-12.1398,-5.32212,12.0765,-7.04169,-2.07363,1.55052e-14,-3.33958e-14,-57.3667,-52.7023,-28.0574,61.1311,-70.6613,-11.5657,-11.1022,7.12502,14.4755,-40.5773,1.55052e-14,-3.33958e-14,-52.144,8.34498,76.863,44.6661,5.5755,-8.98629,50.5365,7.12502,16.9596,79.8161,-30.6672,-5.72156,13.3314,59.5716,-11.0225,-17.1945,11.3045,-6.83219,0.632396,-30.1031,38.3345,-17.907,1.50198,-5.33858
3.66894,17.5639,34.0981,-10.2731,-8.29827,5.55976,24.4919,-1.41029,-5.32657,3.25402,-2.77823,4.56355,-9.52883,-1.0508,9.12639,-2.12266,-9.88522,-7.30185,35.1308,-11.9484,-5.92876,12.0384,-7.02665,-2.26317,2.22639e-14,-4.92986e-14,-58.0568,-53.6345,-25.99,60.54,-69.8562,-9.31524,-10.3963,7.12502,16.643,-39.7027,2.22639e-14,-4.92986e-14,-52.4456,8.93416,76.3852,44.182,5.43324,-8.87545,50.8489,7.12502,17.0663,80.1192,-30.4823,-6.08417,13.4949,61.5917,-10.8508,-17.1305,13.2334,-7.02565,0.807296,-29.9349,38.1039,-17.8313,1.53439,-5.41769
3.70245,17.5773,34.0032,-10.3929,-8.1526,6.45322,23.9573,-1.40555,-6.14656,3.2689,-3.0017,4.22134,-9.16133,-1.15743,9.23895,-2.1676,-9.87753,-7.39407,35.2463,-11.9134,-5.97127,12.1014,-7.03053,-2.27278,2.78299e-15,2.54444e-14,-58.6534,-54.3038,-24.1039,59.9986,-69.4023,-6.9878,-9.11751,7.12502,18.8826,-38.221,2.78299e-15,2.54444e-14,-52.7866,9.51829,75.8011,43.9069,5.06408,-8.85052,50.9143,7.12502,17.0903,80.1826,-29.9895,-6.8894,12.2832,63.4896,-10.7018,-16.7533,15.0839,-7.29665,0.780502,-30.974,38.0253,-17.7938,1.39495,-4.98865
3.72532,17.5841,33.8601,-10.0498,-8.35344,6.54191,23.8563,-1.29776,-6.39034,2.98356,-2.92284,4.18854,-9.43504,-1.0844,9.3321,-2.26461,-9.89223,-7.55789,35.498,-11.9385,-5.88861,12.2491,-7.05609,-2.24594,1.19271e-15,3.18055e-15,-59.6626,-54.9603,-21.6453,59.4708,-68.863,-3.95169,-8.19856,7.12502,21.8003,-36.9907,1.19271e-15,3.18055e-15,-53.0433,9.81312,75.4058,43.3589,4.93877,-9.00802,50.8143,7.12502,16.9387,80.0957,-30.0926,-7.00229,12.2656,65.2532,-10.4784,-16.5628,16.5984,-8.51117,0.886922,-30.9172,38.1524,-18.1499,1.41705,-11.8637
3.73302,17.6077,33.7274,-9.94999,-9.13104,4.71314,24.0589,-1.60388,-5.44653,2.42528,-2.9994,5.00527,-10.1662,-1.07636,9.80206,-0.401866,-9.27936,-8.94788,35.1088,-11.1758,-5.609,11.8612,-6.87104,-1.70954,-2.46493e-14,-5.24792e-14,-58.7648,-53.8464,-20.7054,58.899,-68.2099,-1.22213,-7.17882,7.12502,24.4193,-35.6426,-2.46493e-14,-5.24792e-14,-54.9766,10.9074,74.867,43.1573,5.2222,-8.98217,50.6365,7.12502,16.9636,79.9157,-29.3224,-6.29228,14.6008,66.6132,-10.1761,-16.9997,16.088,-9.03169,1.40676,-28.5664,38.3704,-18.362,0.835316,-13.0592
3.74311,17.6275,33.609,-10.0564,-9.47558,3.74693,24.1584,-1.337,-4.25814,2.8554,-2.34848,4.94565,-9.91631,-0.847163,8.8055,-2.117,-9.78802,-7.87719,35.6605,-11.8011,-5.78604,12.3261,-7.03077,-2.14837,2.08724e-14,-5.725e-14,-60.5974,-55.0687,-18.2306,59.0451,-67.6045,0.670708,-6.16213,7.12502,26.2326,-34.369,2.08724e-14,-5.725e-14,-53.6735,9.95419,74.819,42.6146,5.58419,-9.31479,50.3918,7.12502,16.6434,79.6982,-28.2787,-6.07679,15.7743,67.9053,-10.064,-16.8344,14.575,-9.29375,1.81435,-27.2755,38.5426,-18.2316,0.322108,-12.6512
3.76001,17.6412,33.4979,-10.2442,-9.55261,3.61481,24.2103,-1.63169,-4.70863,2.33272,-2.82551,5.16995,-10.4176,-1.00442,9.52266,-0.0432746,-9.19945,-8.82647,35.0675,-11.0821,-5.73757,11.7529,-6.83549,-1.73932,-8.54774e-15,4.77083e-14,-59.8789,-54.5041,-17.034,58.3811,-65.7395,3.59001,-5.63116,7.12502,29.0242,-33.3908,-8.54774e-15,4.77083e-14,-55.5769,10.9857,74.1059,42.6983,5.88513,-9.17371,50.279,7.12502,16.7792,79.574,-27.2015,-6.20591,15.8243,69.1209,-10.3181,-16.0323,14.4491,-9.35692,2.18688,-27.0098,38.5046,-17.9172,-0.0759262,-13.6132
3.78344,17.6555,33.3904,-10.2825,-9.33102,3.86584,23.91,-1.72641,-4.90124,2.30304,-3.01001,5.01905,-10.2528,-1.09618,9.49335,0.481055,-9.04339,-8.96299,34.355,-11.0093,-5.34246,11.3946,-6.7659,-1.49447,-1.09729e-13,7.63333e-14,-60.3092,-55.2865,-15.1106,58.1569,-64.3618,5.95142,-5.15707,7.12502,31.277,-32.5054,-1.09729e-13,7.63333e-14,-55.6762,11.0513,73.793,42.4375,6.13822,-9.03461,50.4199,7.12502,16.9131,79.7034,-26.2551,-6.6723,15.3047,70.2889,-10.4256,-15.0581,14.1649,-9.43784,2.27592,-27.2856,38.2076,-17.0521,-0.667489,-13.6143
3.8015,17.6763,33.283,-10.3393,-9.20738,3.87012,23.6023,-1.78113,-4.87549,2.3543,-3.07577,4.94462,-10.0224,-1.14624,9.38072,0.366262,-9.00667,-8.98253,34.2569,-10.9586,-5.27173,11.3817,-6.73607,-1.4628,3.08116e-14,7.95139e-15,-60.9407,-56.3123,-12.8851,57.9875,-63.0904,7.41229,-4.9082,7.12502,32.668,-31.9779,3.08116e-14,7.95139e-15,-55.6644,11.0982,73.5429,42.2807,6.096,-8.82863,50.4975,7.12502,17.1114,79.764,-25.11,-6.88827,15.1103,71.2739,-10.3741,-14.19,12.2414,-9.58214,2.46489,-27.2067,37.815,-17.2762,-1.04244,-17.4792
3.80979,17.6933,33.1668,-10.3484,-9.2106,3.47867,23.6428,-1.83163,-4.61371,2.22121,-3.06831,4.98902,-10.2088,-1.13762,9.28825,0.0508627,-8.99465,-9.09348,34.738,-10.8823,-5.34215,11.6438,-6.73402,-1.51133,2.00773e-14,2.54444e-14,-59.2754,-54.2398,-14.0572,58.7939,-64.5935,9.11848,-4.72371,7.12502,34.2898,-31.4427,2.00773e-14,2.54444e-14,-55.9346,11.0162,73.1932,42.1532,6.14106,-8.86739,50.2795,7.12502,17.0741,79.5493,-23.923,-6.8096,15.4819,72.0593,-10.84,-13.4211,9.29923,-9.84087,2.74186,-26.6081,37.4623,-16.8909,-1.858,-16.5745
3.82291,17.707,33.0477,-10.2686,-8.83871,3.52931,23.6299,-1.95456,-4.73025,2.00789,-3.26421,4.92413,-10.405,-1.20796,9.3552,-0.357095,-8.9523,-9.17767,34.871,-10.7877,-5.28153,11.7874,-6.69929,-1.50054,7.89175e-14,-1.43125e-14,-60.7607,-56.0615,-10.6019,58.4528,-61.6556,12.2515,-4.80428,7.12502,37.2586,-30.8014,7.89175e-14,-1.43125e-14,-56.2567,11.0808,72.8069,42.1863,6.10951,-8.56017,50.0473,7.12502,17.3698,79.2911,-22.804,-7.10596,15.2192,72.6935,-9.86817,-13.0471,10.6122,-10.2754,2.81144,-26.5989,37.1832,-16.2856,-2.67009,-15.1867
3.83705,17.722,32.9315,-10.3445,-8.38606,3.57501,23.5948,-2.03876,-4.65777,1.92414,-3.36843,4.78539,-10.4749,-1.2569,9.18512,-0.205643,-8.92047,-9.06854,34.7097,-10.7762,-5.24131,11.6833,-6.67406,-1.48211,8.44835e-14,-5.725e-14,-58.8003,-53.302,-12.4392,59.9817,-63.7884,11.0526,-3.94405,7.12502,36.124,-30.23,8.44835e-14,-5.725e-14,-56.3415,10.7791,72.6155,42.402,6.19141,-8.36476,50.1823,7.12502,17.5578,79.4095,-21.3868,-7.4645,14.8837,73.1367,-9.43508,-12.4145,9.14096,-10.5791,2.7838,-26.6469,37.0141,-15.6218,-3.34479,-14.0748
3.84945,17.7393,32.8134,-10.4307,-8.20673,3.21537,23.7306,-2.11288,-4.25255,1.77784,-3.36061,4.77471,-10.7417,-1.25194,8.95449,-0.21376,-8.88816,-9.01406,34.8472,-10.7424,-5.22018,11.7373,-6.65437,-1.48736,-2.68359e-14,-3.02153e-14,-60.5956,-55.1605,-8.72207,60.009,-60.5974,13.7911,-4.11277,7.12502,38.7125,-29.7145,-2.68359e-14,-3.02153e-14,-56.6228,10.5663,72.262,42.5728,6.26831,-8.10807,50.1357,7.12502,17.8049,79.3406,-19.8216,-7.42282,15.1319,73.3434,-9.39544,-11.6397,7.49895,-10.7229,2.9769,-26.2084,36.8099,-14.6885,-4.02673,-11.9899
3.85722,17.7451,32.6901,-10.3649,-8.20085,2.81157,23.6565,-2.11782,-3.88586,1.62253,-3.26004,4.82537,-10.9153,-1.20669,8.77177,0.280425,-8.86334,-9.16147,34.4801,-10.8059,-5.00133,11.5185,-6.67226,-1.34235,-1.76918e-14,6.99722e-14,-60.3675,-54.194,-7.9935,61.2367,-60.8749,14.5318,-4.11836,7.12502,39.4107,-29.5195,-1.76918e-14,6.99722e-14,-56.7889,10.3945,71.9529,42.6615,6.33783,-8.01979,50.4045,7.12502,17.8898,79.6017,-18.5529,-7.12071,15.5736,73.4539,-9.07188,-10.9673,5.55727,-10.999,3.18489,-25.6916,36.624,-13.1591,-4.73063,-6.13993
3.86616,17.7519,32.5711,-10.3858,-7.83347,2.96163,23.3683,-2.1395,-3.97744,1.82853,-3.33334,4.61878,-10.5187,-1.27077,8.56747,-0.377542,-8.91963,-8.86511,34.3537,-10.8996,-4.77599,11.5824,-6.64652,-1.34766,6.95746e-14,-1.43125e-14,-60.7987,-54.6473,-6.55511,62.3125,-60.9308,15.3708,-4.49824,7.12502,40.2005,-29.6635,6.95746e-14,-1.43125e-14,-56.1045,10.4041,71.5203,42.6476,6.21766,-7.80478,50.5489,7.12502,18.0967,79.7271,-17.1106,-7.129,15.2377,73.4132,-8.7223,-9.99315,3.28521,-11.2687,3.20931,-25.8515,36.4164,-12.5086,-5.15165,-6.23185
3.87193,17.7545,32.4636,-10.444,-7.25958,3.15925,22.7913,-2.29904,-4.18883,2.60598,-3.63014,4.27418,-9.28859,-1.50023,8.2766,-3.14142,-9.06794,-7.42306,34.6591,-10.904,-5.11536,12.1016,-6.49918,-1.87583,1.96797e-14,-2.38542e-14,-61.0883,-56.718,-5.54113,63.2284,-60.0169,16.4114,-4.35613,7.12502,41.1785,-29.2155,1.96797e-14,-2.38542e-14,-54.3973,10.7963,70.8951,42.7684,6.36594,-7.74257,50.6052,7.12502,18.1565,79.7778,-15.4115,-7.22313,14.8135,73.1877,-8.62828,-8.9374,1.35487,-11.5182,3.11745,-26.1016,36.2133,-11.7499,-5.71188,-4.598
3.87577,17.7594,32.3499,-10.4968,-6.84373,3.08371,22.506,-2.25653,-3.93041,2.55694,-3.51644,4.13497,-9.23543,-1.45924,7.91382,-2.959,-9.19413,-7.37421,34.5967,-11.164,-4.91286,12.0512,-6.58362,-1.82319,-3.75703e-14,6.52014e-14,-62.6053,-56.8299,-2.78061,64.33,-59.6458,17.0853,-4.12299,7.12502,41.8108,-28.7761,-3.75703e-14,6.52014e-14,-54.2346,10.2536,70.6831,42.9379,6.43903,-7.81644,50.3866,7.12502,18.0855,79.5658,-13.7128,-7.03244,14.8381,72.7993,-8.45102,-8.03137,0.875374,-11.8593,3.01383,-26.0436,36.0286,-10.9837,-6.15096,-3.74852
3.87754,17.7615,32.2191,-10.42,-6.60979,2.8375,22.5662,-2.27501,-3.7587,2.37678,-3.4968,4.13526,-9.4837,-1.43866,7.82549,-2.95775,-9.16669,-7.43637,34.7569,-11.1662,-4.75471,12.1341,-6.5759,-1.76568,-2.64384e-14,3.18055e-14,-62.526,-56.1623,-1.651,65.4777,-60.1855,17.5001,-4.09705,7.12502,42.1995,-28.6199,-2.64384e-14,3.18055e-14,-54.339,10.2272,70.2905,43.124,6.7534,-8.09852,50.3278,7.12502,17.814,79.5318,-12.3096,-6.53289,15.2638,72.2611,-8.42461,-7.21159,-0.805185,-12.6702,2.93007,-25.7447,36.0983,-10.9721,-6.58083,-6.69345
3.88503,17.7548,32.0843,-10.1499,-6.17702,2.81822,22.5228,-2.37441,-3.6488,2.11747,-3.60767,4.01929,-9.74946,-1.47773,7.67512,-2.95587,-9.07477,-7.3901,34.8529,-11.117,-4.50864,12.1852,-6.52144,-1.68201,6.36111e-14,-1.43125e-14,-63.3802,-56.5143,0.46133,66.8222,-59.765,18.0169,-4.20356,7.12502,42.6834,-28.5604,6.36111e-14,-1.43125e-14,-54.2752,10.1848,69.8272,43.2028,7.17427,-8.27852,50.1769,7.12502,17.6408,79.3966,-11.129,-6.22418,15.3724,71.6656,-8.67383,-6.06437,-3.66295,-13.3051,2.73822,-25.7936,36.1753,-10.4248,-6.80501,-6.01456
3.85561,17.756,31.9586,-10.3254,-6.65319,1.44688,22.883,-2.21204,-2.72079,2.07426,-3.12101,4.42607,-10.0945,-1.25895,7.48852,-2.60231,-9.01135,-7.41413,34.7254,-11.1068,-4.31305,12.0759,-6.49819,-1.57582,-4.1546e-14,6.36111e-14,-63.5636,-55.7816,1.82739,68.3017,-60.035,17.2114,-3.66705,7.12502,41.929,-28.2808,-4.1546e-14,6.36111e-14,-54.5161,10.0876,69.5597,43.655,7.75824,-8.69344,50.4433,7.12502,17.2415,79.6985,-9.40934,-4.82276,17.6799,70.7475,-8.34207,-5.77473,-4.13359,-13.5604,3.28495,-23.9506,36.3431,-9.57193,-7.23695,-4.05198
3.86778,17.7496,31.8324,-10.1487,-5.88128,1.88324,22.611,-2.34773,-2.93429,1.86323,-3.37015,4.20966,-10.1505,-1.36507,7.43174,-2.33824,-8.96299,-7.61047,34.7222,-11.1192,-4.02448,12.0587,-6.49585,-1.42538,1.46107e-14,-3.81667e-14,-63.4662,-55.0612,2.83824,69.7954,-60.3515,16.9517,-3.29917,7.12502,41.6855,-27.9937,1.46107e-14,-3.81667e-14,-54.6803,10.0895,69.2748,44.1034,8.43467,-8.94094,50.5523,7.12502,17.0033,79.8282,-7.90723,-4.69044,17.1961,69.7771,-8.08598,-4.64388,-3.77829,-14.2623,2.9116,-24.5891,36.3763,-8.65416,-7.74279,-1.36907
3.8758,17.742,31.7087,-10.1355,-5.33635,2.03256,22.4112,-2.47258,-2.96095,1.90797,-3.55748,4.03829,-9.97454,-1.46597,7.28724,-2.75071,-8.94265,-7.28962,34.7548,-11.0842,-4.05285,12.1234,-6.44082,-1.5072,-5.76476e-15,0,-63.3971,-54.9939,3.89903,71.1086,-60.1853,17.1622,-3.13433,7.12502,41.8828,-27.7635,-5.76476e-15,0,-54.4428,10.3155,68.846,44.515,9.16605,-9.29745,50.6505,7.12502,16.6601,79.9555,-6.15363,-4.29142,17.1857,68.5729,-8.07066,-3.59463,-4.6968,-14.8731,2.66317,-24.8692,36.4692,-8.1822,-8.16089,-1.71351
3.8783,17.7399,31.5797,-10.0203,-5.02339,1.74282,22.2429,-2.57838,-2.62503,1.89696,-3.61146,4.03542,-9.90955,-1.50882,7.09136,-3.04264,-8.94645,-6.98951,34.7526,-11.0553,-4.20587,12.1436,-6.40642,-1.62313,5.9039e-14,1.11319e-14,-63.5254,-55.1464,5.34244,72.4528,-59.9466,17.8884,-3.14527,7.12502,42.5631,-27.5438,5.9039e-14,1.11319e-14,-54.3705,10.813,68.2659,44.9239,9.62194,-9.60684,50.901,7.12502,16.3622,80.2308,-4.59722,-3.64061,17.8665,67.2695,-8.08428,-2.77391,-5.96095,-15.6591,2.38561,-24.5959,36.508,-8.03092,-8.5321,-4.28771
3.87156,17.7237,31.4376,-9.96717,-4.89163,1.11973,22.2867,-2.63582,-2.05904,1.77363,-3.53091,4.15798,-10.1101,-1.48077,6.89118,-2.72749,-8.90903,-7.10742,34.6392,-11.0998,-3.90434,12.0643,-6.40714,-1.47428,3.17062e-14,-3.81667e-14,-63.8037,-55.2036,7.05707,73.6253,-59.1836,19.3212,-3.11442,7.12502,43.9023,-27.0337,3.17062e-14,-3.81667e-14,-54.5533,10.9122,67.8478,45.3105,10.0778,-9.87197,50.7334,7.12502,16.1069,80.0841,-3.13994,-2.74406,19.165,65.9279,-7.61732,-2.39855,-5.00997,-16.368,2.25446,-23.8671,36.6783,-7.59451,-8.91394,-4.82223
3.86268,17.7006,31.2894,-9.88369,-4.83697,0.336452,22.1442,-2.69762,-1.28118,1.80883,-3.4079,4.27651,-10.048,-1.45699,6.52535,-2.84806,-8.87611,-7.35759,34.7436,-11.1688,-3.37583,12.1908,-6.40509,-1.26346,5.06901e-15,4.77083e-15,-64.1078,-55.4357,8.56802,74.9442,-58.4107,20.6909,-2.79812,7.12502,45.1781,-26.2272,5.06901e-15,4.77083e-15,-54.3386,11.0156,67.5235,45.5883,10.5477,-10.3511,50.4105,7.12502,15.6455,79.7978,-1.79567,-1.80079,20.7613,64.5303,-6.71513,-2.36782,-2.73587,-17.0808,2.23335,-22.9327,36.8662,-6.97801,-9.30603,-4.34285
3.85151,17.6943,31.1442,-9.72873,-4.68619,0.106775,21.7939,-2.71408,-1.07942,1.93237,-3.39479,4.20768,-9.73688,-1.47497,6.29073,-3.21007,-8.80086,-7.21216,34.8228,-11.1189,-3.13899,12.2985,-6.3329,-1.21807,2.87244e-14,-1.74931e-14,-64.201,-55.7328,9.64044,76.3409,-57.8259,20.6437,-2.19662,7.12502,45.1342,-25.6431,2.87244e-14,-1.74931e-14,-53.9719,11.2996,67.0549,46.0865,11.1676,-10.8223,50.668,7.12502,15.1916,80.0903,-0.59814,-0.880149,21.6788,63.0784,-6.33898,-2.27969,-1.0072,-17.9234,2.09623,-22.6278,37.0198,-6.2995,-9.53188,-3.32719
3.84561,17.6943,31.0069,-9.71854,-4.50164,0.0860819,21.6347,-2.74818,-1.05062,2.03925,-3.4447,4.13594,-9.5317,-1.51058,6.1879,-3.68348,-8.70167,-6.95251,35.0565,-10.9335,-3.27239,12.4573,-6.22997,-1.32455,1.16289e-14,-1.27222e-14,-63.9216,-55.997,10.5062,77.7306,-57.1536,20.1957,-1.73082,7.12502,44.7173,-25.3409,1.16289e-14,-1.27222e-14,-53.8623,11.5613,66.7548,46.8281,11.8374,-10.9913,50.7797,7.12502,15.0289,80.2142,0.890786,0.00382769,22.3052,61.4815,-6.2905,-2.30626,-1.01249,-18.5408,1.92572,-22.5877,37.103,-5.57434,-9.75921,-2.30275
3.84126,17.6804,30.8627,-9.65399,-4.40457,-0.349316,21.6311,-2.85584,-0.575693,1.99728,-3.47061,4.13904,-9.60269,-1.53866,5.92803,-3.82533,-8.53364,-6.39869,35.1092,-10.6716,-3.55695,12.4369,-6.07924,-1.49419,2.44505e-14,6.36111e-15,-63.7389,-56.008,11.3759,79.1595,-55.8086,20.6081,-1.55819,7.12502,45.1011,-25.0178,2.44505e-14,6.36111e-15,-54.0377,11.8033,66.3139,47.4983,12.3839,-11.4658,50.6565,7.12502,14.5717,80.1247,2.38765,0.863538,23.4967,59.7587,-6.23927,-2.89416,-2.11683,-19.1832,1.72928,-22.0774,37.1811,-4.87331,-9.97067,-1.59522
3.83432,17.6645,30.7019,-9.43945,-4.33497,-0.611367,21.6295,-2.88669,-0.2621,1.86645,-3.43351,4.11978,-9.77204,-1.52682,5.72427,-3.69861,-8.32273,-6.04696,35.0628,-10.4156,-3.57813,12.3563,-5.92586,-1.51545,-1.94809e-14,4.77083e-14,-63.6448,-56.0144,12.2536,80.7034,-54.2655,21.6834,-0.980182,7.12502,46.0999,-24.033,-1.94809e-14,4.77083e-14,-54.1634,12.0417,65.917,48.1444,12.6673,-11.8177,50.7369,7.12502,14.2327,80.2293,3.53176,1.75733,24.5204,57.9876,-5.8262,-3.61398,-2.23563,-20.0959,1.59934,-21.7353,37.2648,-4.133,-10.1978,-1.38616
3.82709,17.655,30.5421,-9.21323,-4.30799,-1.03498,21.6121,-2.93777,0.230205,1.68404,-3.37078,4.17294,-9.99873,-1.50754,5.49408,-3.33939,-8.11798,-6.01388,35.0197,-10.1777,-3.46816,12.2657,-5.80627,-1.42867,5.31749e-14,-4.13472e-14,-63.3074,-55.7035,12.8837,82.4509,-53.4343,22.6767,-0.624248,7.12502,47.0199,-23.2817,5.31749e-14,-4.13472e-14,-54.4334,12.2595,65.57,48.8132,12.6922,-11.8847,50.9854,7.12502,14.1681,80.4822,4.61303,2.65998,25.6941,56.1425,-5.36545,-4.34901,-0.0482386,-20.9533,1.51942,-21.206,37.3389,-3.14573,-10.2256,0.356176
3.81972,17.641,30.383,-9.14789,-4.29704,-1.3796,21.6452,-2.98009,0.738032,1.58329,-3.30329,4.12613,-10.1682,-1.49299,5.14047,-3.25047,-7.95807,-6.01475,35.1026,-10.0458,-3.16679,12.2991,-5.71353,-1.30021,-4.09496e-14,7.95139e-15,-63.1582,-55.4191,13.5885,84.3738,-53.2511,23.2989,-0.639729,7.12502,47.5949,-23.0394,-4.09496e-14,7.95139e-15,-54.582,12.3459,65.1874,49.4537,12.5269,-11.4357,51.4613,7.12502,14.6007,80.9274,5.90673,3.51597,26.7665,54.2422,-5.79564,-5.223,2.50324,-21.4618,1.41765,-20.759,37.2255,-2.17289,-10.1426,1.52337
3.81664,17.6301,30.2142,-8.91101,-4.09175,-1.3188,21.394,-3.05066,0.867237,1.57134,-3.38723,3.99058,-10.0538,-1.54478,4.92099,-3.47609,-7.79717,-5.70377,35.075,-9.80738,-3.25501,12.2993,-5.57659,-1.36494,2.55438e-14,1.90833e-14,-62.7248,-55.3776,13.9029,86.3796,-52.8111,23.3577,-0.414201,7.12502,47.6492,-22.789,2.55438e-14,1.90833e-14,-54.5694,12.4972,64.9581,50.2664,12.6875,-11.281,52.2614,7.12502,14.7498,81.7166,6.95069,4.21359,27.2517,52.2894,-6.64576,-5.8895,2.51806,-22.1309,1.13822,-20.8005,36.8847,-1.3428,-10.1351,2.24648
3.81586,17.623,30.0384,-8.66449,-3.9582,-1.16183,21.2628,-3.08055,0.932341,1.50859,-3.42476,3.87851,-10.0606,-1.56744,4.76372,-3.50825,-7.61727,-5.62179,34.9655,-9.5382,-3.27588,12.248,-5.4474,-1.35068,8.64713e-15,-2.06736e-14,-62.0998,-55.0317,14.0207,88.5077,-51.8871,23.5113,0.433091,7.12502,47.7909,-21.8767,8.64713e-15,-2.06736e-14,-54.6501,12.8215,64.7218,50.9509,12.7454,-11.4355,51.9537,7.12502,14.6009,81.4197,7.83957,4.91578,27.6037,50.2749,-7.61044,-6.52364,0.0447075,-22.7276,0.842052,-20.9154,36.2878,-0.192142,-10.0409,2.99498
3.81378,17.6172,29.8692,-8.48545,-4.02671,-1.02371,21.1027,-3.02054,1.0019,1.5283,-3.34993,3.73871,-9.96858,-1.54091,4.53344,-3.74607,-7.47797,-5.47214,35.0997,-9.35159,-3.23735,12.3413,-5.33847,-1.3568,1.26228e-14,-6.36111e-15,-61.6686,-54.6483,14.1936,90.8428,-51.0303,23.2716,0.512361,7.12502,47.5698,-21.8987,1.26228e-14,-6.36111e-15,-54.7111,13.0499,64.5126,51.8387,12.991,-11.5449,52.2161,7.12502,14.4955,81.6898,8.69511,5.68868,27.959,48.2638,-9.345,-6.99893,-3.22554,-23.0903,0.53846,-20.916,35.6069,0.960428,-9.7716,4.79406
3.81088,17.6098,29.692,-8.2373,-4.08811,-1.0108,20.9412,-3.01209,1.17808,1.59347,-3.31697,3.62298,-9.82675,-1.53931,4.27922,-4.10297,-7.33508,-5.40984,35.1424,-9.21501,-2.95679,12.4417,-5.23246,-1.26611,-1.87852e-14,-2.38542e-15,-61.059,-54.119,14.0568,93.3859,-50.2626,22.2247,0.516966,7.12502,46.6016,-22.3228,-1.87852e-14,-2.38542e-15,-54.6767,13.2513,64.3847,52.7691,13.1151,-11.5061,52.3939,7.12502,14.5329,81.8648,9.33751,6.39994,28.3769,46.2826,-11.7235,-7.24116,-4.7259,-23.5533,0.271624,-20.7654,34.7998,1.47536,-10.0033,2.87446
3.80634,17.5779,29.4899,-7.85817,-4.08802,-1.5167,21.0756,-3.12647,1.79639,1.48996,-3.30215,3.71767,-10.0474,-1.55135,4.0446,-4.24304,-7.16423,-5.39043,35.056,-8.9716,-2.89588,12.4319,-5.1127,-1.22062,2.5842e-15,-2.38542e-15,-60.751,-54.446,14.357,95.682,-48.5008,22.7807,0.911287,7.12502,47.1162,-21.7036,2.5842e-15,-2.38542e-15,-54.7572,13.5302,64.2851,53.4431,12.9871,-11.7509,51.9764,7.12502,14.297,81.4642,9.61134,6.86897,29.3159,44.4685,-13.7706,-7.91885,-4.0756,-24.3416,-0.242925,-19.946,33.9477,2.06126,-10.4497,-0.0636475
3.80046,17.5771,29.2851,-7.55714,-4.19499,-1.95417,21.3417,-3.26596,2.24829,1.39118,-3.34461,3.87169,-10.3195,-1.5819,3.99764,-4.45057,-6.84851,-5.49244,35.1452,-8.4983,-2.83855,12.5153,-4.90787,-1.13971,-3.17062e-14,2.38542e-15,-59.2749,-54.2126,13.5364,98.0967,-47.0244,22.9951,1.57252,7.12502,47.3143,-20.954,-3.17062e-14,2.38542e-15,-54.9363,14.0815,64.1489,53.9668,12.8935,-12.2984,50.9309,7.12502,13.7694,80.4553,9.81903,7.27022,30.1408,42.7936,-15.495,-9.15508,-4.4745,-24.8404,-0.992093,-19.0706,32.9198,3.27024,-10.4197,0.177949
3.79583,17.5893,29.0861,-7.25577,-4.36523,-1.99325,21.4225,-3.31676,2.26366,1.27573,-3.3856,3.99721,-10.4851,-1.59528,4.15474,-4.34262,-6.493,-5.62592,35.0883,-7.93913,-2.90425,12.4655,-4.68543,-1.06796,-1.17283e-14,3.33958e-14,-57.0715,-53.2945,11.9435,100.822,-45.9026,21.2067,1.97953,7.12502,45.6575,-21.2563,-1.17283e-14,3.33958e-14,-55.1456,14.6549,64.1803,54.3653,12.7049,-12.4966,50.2965,7.12502,13.5784,79.8337,9.78687,7.52965,30.3684,41.321,-16.9166,-10.2267,-5.61008,-25.2595,-1.70416,-18.5742,31.7686,4.66241,-10.1065,2.56521
3.7956,17.6064,28.8842,-6.93529,-4.58343,-2.0799,21.4567,-3.24282,2.44348,1.25289,-3.23211,4.0855,-10.5423,-1.52791,4.10942,-4.37427,-6.29609,-5.56594,34.8886,-7.63262,-2.95113,12.3761,-4.54347,-1.05184,5.34731e-14,-1.74931e-14,-55.4671,-52.3077,10.8788,103.667,-45.6094,18.7507,1.87405,7.12502,43.3696,-22.24,5.34731e-14,-1.74931e-14,-55.0057,14.7736,64.5576,54.8343,12.77,-12.7846,50.3287,7.12502,13.3009,79.8843,9.54402,7.53198,30.4442,40.0034,-18.0463,-10.8125,-4.44107,-25.6057,-2.52261,-17.9537,30.3537,5.98292,-9.71052,2.26603
3.80169,17.6286,28.6739,-6.63897,-4.75692,-2.37296,21.6334,-3.33505,2.84368,1.28179,-3.22932,4.24643,-10.6208,-1.53954,4.07271,-4.7877,-6.01482,-5.45485,34.7702,-7.14463,-3.13949,12.3889,-4.33102,-1.09592,-6.69904e-14,8.74653e-14,-53.485,-51.8541,9.43719,106.493,-45.1614,16.5822,1.82578,7.12502,41.3389,-22.9819,-6.69904e-14,8.74653e-14,-55.0941,15.2546,64.8508,55.4336,12.8021,-13.9267,50.3809,7.12502,12.1997,80.0051,9.14475,7.24711,30.6063,38.8688,-18.7841,-11.3332,-2.62445,-25.8563,-3.75863,-16.9766,28.8778,7.43489,-9.1602,0.811557
3.80899,17.6555,28.4593,-6.29165,-5.06202,-2.60294,21.8784,-3.45244,3.09079,1.22206,-3.28595,4.41892,-10.8251,-1.56946,4.16619,-4.88981,-5.63804,-5.56497,34.5099,-6.57512,-3.10949,12.3,-4.08588,-0.992824,1.33186e-14,-7.63333e-14,-51.0497,-51.2713,7.51693,109.355,-45.106,13.7336,1.48318,7.12502,38.6583,-24.1339,1.33186e-14,-7.63333e-14,-55.5711,15.9432,65.0111,56.1225,13.0579,-15.4702,50.2368,7.12502,10.7113,79.9437,8.47861,6.91539,30.6147,37.9553,-19.4178,-11.7667,-2.99224,-26.1492,-5.24865,-15.8658,27.4169,8.82414,-8.33862,-1.06855
3.8123,17.6726,28.2527,-5.95654,-5.52128,-2.9182,21.9193,-3.40956,3.39528,1.29022,-3.13578,4.59731,-10.7839,-1.50976,4.14594,-4.97046,-5.41875,-5.55762,34.2047,-6.22815,-3.16015,12.1815,-3.93158,-0.963834,-3.89618e-14,3.18055e-15,-48.8974,-49.6313,5.53827,112.783,-46.8409,8.10561,0.400312,7.12502,33.3274,-26.5302,-3.89618e-14,3.18055e-15,-55.5553,16.4184,65.3242,56.581,13.1996,-16.1086,50.3008,7.12502,10.0954,80.0387,7.72298,6.63553,30.6928,37.2369,-20.0396,-11.7887,-2.45239,-26.3909,-6.61915,-14.5651,26.0552,9.47594,-7.33679,-6.43801
3.81729,17.6885,28.0527,-5.73979,-5.81855,-2.99708,21.9447,-3.33495,3.58693,1.45713,-2.9935,4.63656,-10.6229,-1.45343,4.02782,-5.32807,-5.28014,-5.24958,33.9886,-6.00304,-3.29766,12.1406,-3.80369,-1.04541,-3.18055e-14,7.31528e-14,-48.4645,-50.1606,6.26401,114.245,-40.5312,13.091,2.22506,7.12502,38.0518,-23.56,-3.18055e-14,7.31528e-14,-55.2493,16.6069,65.7872,56.9615,13.067,-16.0297,50.763,7.12502,10.1715,80.4971,7.02061,6.10224,30.4829,36.7373,-20.1324,-11.6825,-1.07419,-26.5622,-8.04933,-13.5725,24.8465,9.3901,-5.75706,-12.2639
3.81898,17.7038,27.8559,-5.54613,-6.08817,-2.96652,22.0817,-3.26426,3.53984,1.51053,-2.89721,4.71591,-10.6346,-1.40369,4.12052,-5.44592,-5.07699,-4.98506,33.7842,-5.66925,-3.52958,12.0556,-3.64598,-1.13394,-3.75703e-14,4.45278e-14,-48.0209,-50.9725,7.19744,115.753,-32.9891,18.9792,4.64748,7.12502,43.583,-19.3892,-3.75703e-14,4.45278e-14,-55.304,16.71,66.2868,57.4849,12.6931,-15.7628,50.1175,7.12502,10.429,79.8389,6.32757,5.47757,30.167,36.3911,-20.024,-11.5572,0.798924,-26.7746,-9.38649,-12.7138,23.8888,8.64325,-3.89649,-17.776
3.82233,17.7188,27.6589,-5.21471,-6.47978,-3.05742,22.1329,-3.20782,3.57876,1.43934,-2.79259,4.84133,-10.7431,-1.3518,4.2158,-5.1734,-4.82735,-4.92366,33.4937,-5.34221,-3.51133,11.8752,-3.48673,-1.07963,-6.22196e-14,1.11319e-14,-45.8273,-49.8957,5.41332,118.399,-31.6776,17.8095,4.39839,7.12502,42.4892,-20.0256,-6.22196e-14,1.11319e-14,-55.705,16.8398,66.6502,58.2923,12.2503,-15.5324,49.2632,7.12502,10.6513,78.9732,5.37034,4.94229,29.9514,36.2226,-19.6064,-11.3934,0.171064,-27.1292,-10.001,-11.8773,23.2514,7.47142,-2.50432,-22.2573
3.82779,17.7426,27.4601,-4.83516,-6.72354,-3.15184,22.0418,-3.20015,3.72439,1.33842,-2.73926,4.91421,-10.8134,-1.33112,4.19888,-4.71063,-4.59303,-4.8126,33.118,-5.06674,-3.46869,11.6221,-3.33979,-1.02339,3.97569e-14,-6.52014e-14,-43.9251,-48.4729,3.85651,120.946,-29.5359,17.2323,4.58358,7.12502,41.9485,-20.0237,3.97569e-14,-6.52014e-14,-56.0242,16.7504,67.0767,58.9346,12.2909,-15.7101,48.8049,7.12502,10.4798,78.5237,4.21242,4.39944,29.7121,36.1554,-19.1696,-10.9775,0.192105,-27.6181,-10.0157,-11.3139,22.9386,6.05248,-1.69391,-26.5697
3.8202,17.7495,27.2688,-4.8742,-7.41892,-3.35484,22.2058,-3.04592,3.71521,1.52509,-2.53101,4.99512,-10.6959,-1.23298,4.22976,-4.53509,-4.35978,-4.31373,32.6227,-4.73788,-3.75262,11.3563,-3.15777,-1.15458,2.8625e-14,-1.90833e-14,-41.7602,-47.1324,1.84007,123.387,-26.871,16.9667,4.56472,7.12502,41.6996,-20.1252,2.8625e-14,-1.90833e-14,-56.0395,16.6061,67.5946,59.2062,12.7251,-15.7042,48.6023,7.12502,10.4855,78.3208,3.42147,4.46055,29.869,36.3356,-19.5925,-10.5606,0.889263,-27.3696,-9.04335,-10.8883,22.9762,4.01473,-1.71244,-30.8077
3.82124,17.7636,27.093,-4.98439,-7.85074,-3.0545,22.1448,-2.98482,3.41265,1.90078,-2.5709,4.84275,-10.2293,-1.2489,4.21379,-5.22203,-4.10772,-3.64038,32.5421,-4.3722,-3.99494,11.4277,-2.94094,-1.33607,4.96962e-14,-4.13472e-14,-39.4817,-45.8786,-0.605384,125.899,-23.9828,16.7727,4.37497,7.12502,41.5176,-20.3746,4.96962e-14,-4.13472e-14,-55.7706,16.509,68.0913,59.6771,12.8194,-15.3158,48.979,7.12502,10.8601,78.6782,2.77845,4.16092,29.3193,36.5316,-20.5479,-9.80756,-0.442243,-26.9891,-8.10809,-11.2037,23.1263,1.93826,-1.80199,-28.9896
3.82169,17.7627,26.8632,-4.87288,-8.00827,-3.32476,22.7237,-3.09358,3.46496,2.04251,-2.65942,4.92766,-10.3785,-1.28857,4.3387,-5.8003,-3.84954,-3.29555,32.4685,-4.02673,-4.00575,11.5028,-2.74664,-1.37502,7.73272e-14,-3.49861e-14,-36.9806,-44.3585,-3.35012,128.133,-20.6172,16.4029,4.61154,7.12502,41.1705,-20.2504,7.73272e-14,-3.49861e-14,-55.668,16.536,68.479,60.7063,12.0358,-13.7734,51.6089,7.12502,12.3476,81.2243,1.59272,3.97921,29.5957,36.8476,-20.7693,-9.37813,-2.03349,-27.1739,-7.15782,-10.8657,23.5252,0.566089,-1.86579,-22.2502
3.83086,17.7896,26.6934,-5.15063,-7.98885,-2.75872,22.5984,-3.15171,3.11079,2.35571,-2.87528,4.70194,-9.94165,-1.38757,4.32383,-5.98652,-3.65508,-3.09523,32.4037,-3.79275,-3.93819,11.51,-2.60917,-1.36109,1.61016e-14,4.77083e-15,-34.9827,-42.5209,-5.6742,130.288,-17.4256,16.1035,4.72944,7.12502,40.8894,-20.222,1.61016e-14,4.77083e-15,-55.4045,16.3309,68.993,60.7006,11.7739,-13.2704,50.7376,7.12502,12.8325,80.3232,1.11069,3.39345,28.7345,37.069,-21.2986,-8.68358,-3.20526,-26.7972,-6.84911,-11.5692,24.105,-1.30158,-2.52056,-26.4734
3.83862,17.8038,26.5108,-5.36168,-8.12302,-2.70532,22.8591,-3.12178,3.2183,2.47663,-2.80357,4.65494,-9.9571,-1.35875,4.19882,-5.91866,-3.56022,-3.02149,32.4385,-3.71883,-3.78038,11.5113,-2.54814,-1.30611,4.92986e-14,-1.59028e-14,-33.5894,-40.0679,-7.40609,132.505,-14.1454,15.6158,4.59812,7.12502,40.431,-20.4965,4.92986e-14,-1.59028e-14,-55.1704,15.5971,69.8229,60.6472,11.5379,-12.719,50.7678,7.12502,13.3641,80.3192,0.493557,3.01335,28.5583,37.3305,-21.2394,-8.35104,-2.96294,-26.5738,-6.37214,-11.6855,24.8862,-2.60688,-2.30926,-27.7271
3.84728,17.8179,26.3192,-5.52532,-8.23386,-2.81947,23.2796,-3.156,3.46897,2.47177,-2.75849,4.62688,-10.2042,-1.34442,4.04076,-5.52445,-3.42847,-2.86387,32.3918,-3.61196,-3.66435,11.4104,-2.46667,-1.26674,1.88845e-14,-2.54444e-14,-32.3143,-37.2373,-9.29064,134.408,-10.2387,15.3705,5.12449,7.12502,40.2003,-20.0408,1.88845e-14,-2.54444e-14,-55.3036,14.8363,70.484,60.8941,11.2336,-12.2831,50.182,7.12502,13.7842,79.7054,-0.142851,2.80666,28.6454,37.5185,-20.9378,-8.03865,-0.63768,-26.4011,-5.71182,-11.6838,25.8555,-3.41792,-1.85,-28.1235
3.85601,17.8402,26.1399,-5.76527,-8.22113,-2.67196,23.5093,-3.24668,3.35879,2.57082,-2.8989,4.59331,-10.2061,-1.40651,4.12037,-5.30523,-3.23431,-2.67952,32.3546,-3.37464,-3.67374,11.3468,-2.33885,-1.26949,6.36111e-15,-5.08889e-14,-30.7049,-34.4977,-11.5965,135.843,-6.01085,15.6197,6.14482,7.12502,40.4347,-18.9486,6.36111e-15,-5.08889e-14,-55.3941,14.4778,71.0475,61.2344,10.4644,-11.3748,50.3109,7.12502,14.6594,79.7727,-0.729026,2.42943,28.3975,37.7692,-20.6565,-7.65997,2.1106,-26.1878,-5.39268,-11.9958,27.1982,-4.37006,-1.18901,-28.0599
3.865,17.8604,25.9639,-5.97544,-8.30464,-2.50483,23.7823,-3.30077,3.15086,2.67457,-3.01271,4.58072,-10.2199,-1.45166,4.27425,-5.47007,-3.05111,-2.19256,32.4122,-3.07206,-4.06956,11.3838,-2.19268,-1.47214,-5.56597e-15,5.08889e-14,-29.1466,-30.8273,-14.1068,137.376,-2.07418,15.1144,6.13822,7.12502,39.9593,-19.1001,-5.56597e-15,5.08889e-14,-55.3546,14.1576,71.6214,61.4717,9.49634,-10.1777,50.9377,7.12502,15.8126,80.3119,-1.37537,2.22446,28.1885,38.0162,-20.1657,-7.56106,4.12615,-26.0265,-5.1143,-12.309,28.7849,-5.47459,-0.207065,-27.9576
3.87383,17.8672,25.7765,-6.0907,-8.63221,-2.87829,24.2101,-3.29964,3.51063,2.79941,-2.88913,4.63941,-10.3273,-1.40546,4.11878,-5.66186,-2.99874,-1.76192,32.5132,-2.9949,-4.30306,11.447,-2.13594,-1.63205,-4.83047e-14,-1.27222e-14,-28.111,-26.8365,-16.711,138.73,1.34772,14.3646,5.63959,7.12502,39.2532,-19.8074,-4.83047e-14,-1.27222e-14,-55.0942,13.636,72.1912,61.4272,8.66262,-9.65874,50.792,7.12502,16.3123,80.1259,-2.1015,2.46326,28.7291,38.2684,-19.4867,-7.78446,6.55712,-26.0014,-4.63365,-11.963,30.5349,-6.4521,0.883314,-29.5381
3.88731,17.8842,25.6131,-6.06428,-8.95821,-3.03304,24.2189,-3.22541,3.7405,2.80475,-2.72474,4.70657,-10.3401,-1.33648,4.01027,-5.45187,-2.97098,-1.89892,32.5945,-3.00933,-4.07079,11.445,-2.13163,-1.52153,1.64991e-14,-3.49861e-14,-27.6686,-22.2606,-18.8655,139.906,4.83186,13.6262,5.15681,7.12502,38.5569,-20.4887,1.64991e-14,-3.49861e-14,-54.8502,13.1419,72.8493,61.0278,7.84421,-9.72615,49.6649,7.12502,16.2473,79.0041,-2.82371,2.46378,28.9095,38.4754,-19.0166,-7.95657,6.25163,-25.9767,-4.14189,-11.9176,32.4531,-7.29621,1.89005,-28.4695
3.90228,17.9011,25.4411,-5.9858,-9.10915,-2.9135,24.2456,-3.16063,3.64421,2.72622,-2.65348,4.75904,-10.4392,-1.29676,4.10811,-5.46831,-2.92294,-1.96224,32.9506,-2.93525,-4.04987,11.5947,-2.10738,-1.50593,-1.68967e-14,-1.43125e-14,-27.1664,-17.9968,-21.3698,140.292,8.72421,13.0969,5.53946,7.12502,38.0574,-20.2441,-1.68967e-14,-1.43125e-14,-54.6114,12.7739,73.5201,60.5645,7.05257,-9.73242,48.9343,7.12502,16.2413,78.2741,-3.68989,2.46188,28.8012,38.6843,-18.6022,-8.05232,6.27553,-26.0745,-3.83538,-12.1803,34.4842,-7.93063,2.75315,-24.1073
3.91476,17.9179,25.2728,-5.95393,-9.14884,-2.78635,24.1793,-3.1123,3.59984,2.62542,-2.59908,4.77351,-10.5177,-1.26798,4.13384,-5.13108,-2.94852,-2.04911,33.1349,-3.00191,-3.95094,11.604,-2.13721,-1.4591,-5.36719e-15,2.8625e-14,-27.1435,-13.3735,-23.7976,140.393,12.1712,12.1911,5.63265,7.12502,37.2015,-20.3795,-5.36719e-15,2.8625e-14,-54.5481,12.1684,74.1721,60.188,6.31246,-9.79045,48.0822,7.12502,16.1854,77.4264,-4.46416,2.45212,28.6972,38.8305,-18.3774,-8.03166,7.91584,-26.1444,-3.57019,-12.4847,36.5411,-8.38768,3.34422,-22.1227
3.92619,17.9334,25.1117,-5.96813,-9.2455,-2.61761,23.9172,-3.01652,3.54918,2.67612,-2.51476,4.72472,-10.3234,-1.23027,4.05872,-4.7078,-2.98681,-2.07002,32.964,-3.14289,-3.71068,11.4526,-2.17154,-1.36646,-1.88845e-14,6.36111e-15,-27.3363,-9.03502,-26.3031,140.119,15.0665,11.1919,5.76647,7.12502,36.2559,-20.4868,-1.88845e-14,6.36111e-15,-54.1549,11.5867,74.7713,59.8397,5.57751,-9.97974,47.0244,7.12502,16.0032,76.3834,-5.16934,2.51287,28.5602,38.9551,-18.1061,-8.00948,9.66391,-26.2082,-3.08682,-12.845,38.6788,-8.64334,3.63902,-23.4602
3.93912,17.9508,24.9602,-6.05227,-9.33923,-2.54555,23.7151,-3.04904,3.43311,2.94511,-2.61963,4.71835,-9.90224,-1.28136,4.12061,-5.37589,-2.88744,-1.78852,33.0866,-3.00203,-3.78233,11.6294,-2.08559,-1.44563,1.59028e-14,-2.06736e-14,-27.1356,-4.97085,-29.1011,139.524,17.6442,10.1859,5.96886,7.12502,35.3026,-20.516,1.59028e-14,-2.06736e-14,-53.4513,11.6803,75.1217,59.3649,4.71498,-10.3011,46.3539,7.12502,15.6937,75.7374,-5.74203,2.52387,28.5018,39.1321,-17.8143,-8.10236,10.495,-26.0455,-2.40388,-13.1554,40.7186,-8.87189,3.61178,-23.7467
3.94949,17.9513,24.7892,-6.30726,-9.68114,-3.05552,24.2582,-3.06428,3.78364,3.08324,-2.50274,4.87354,-10.0477,-1.23538,4.08676,-5.7605,-2.82506,-1.82529,33.237,-2.95175,-3.59316,11.7739,-2.04805,-1.37636,5.04913e-14,-1.27222e-14,-27.4234,-0.775266,-31.8143,138.716,20.2397,8.85612,6.13195,7.12502,34.0406,-20.6428,5.04913e-14,-1.27222e-14,-53.1318,11.596,75.4517,59.1955,4.32614,-10.3881,46.5521,7.12502,15.6099,75.9422,-6.09512,2.86953,29.223,39.2869,-17.4421,-8.49485,11.4143,-25.7187,-1.68372,-12.7021,42.8586,-9.064,3.53432,-23.8624
3.972,17.9669,24.6253,-6.21679,-9.43618,-2.18714,24.1123,-3.01917,3.15247,2.84506,-2.62828,4.6453,-10.2173,-1.27105,4.2351,-5.27334,-2.87435,-1.81758,33.1166,-3.04665,-3.58329,11.6245,-2.08683,-1.37013,5.725e-14,3.18055e-15,-28.1456,3.35583,-34.3323,137.509,22.8767,7.80669,6.08228,7.12502,33.0432,-20.9088,5.725e-14,3.18055e-15,-53.1915,11.1554,75.8566,59.0594,4.06516,-10.2072,46.3865,7.12502,15.7841,75.763,-7.08564,2.52737,28.1319,39.5583,-17.1974,-8.17821,12.0535,-25.7946,-1.36437,-13.9291,44.8273,-9.30376,3.43828,-23.2464
3.97887,17.9628,24.4597,-6.39924,-9.69646,-2.47427,24.3838,-2.9511,3.24166,2.86305,-2.48145,4.81498,-10.3443,-1.20063,4.34576,-5.06715,-2.8469,-1.67286,33.0671,-2.96144,-3.84218,11.5552,-2.06037,-1.47603,3.26007e-14,-1.11319e-14,-28.6022,7.05359,-36.8659,135.909,25.6218,6.93708,5.99203,7.12502,32.2158,-21.1704,3.26007e-14,-1.11319e-14,-53.0972,10.7597,76.3039,58.9057,3.98238,-10.1055,46.8848,7.12502,15.882,76.2535,-7.57302,2.90771,28.5936,39.7525,-16.9292,-8.31338,12.6789,-25.4723,-0.527599,-13.6895,46.8672,-9.38348,3.08268,-22.6483
3.99176,17.962,24.2973,-6.59007,-9.83759,-2.1456,24.494,-2.83818,2.89035,2.91733,-2.43018,4.75769,-10.3313,-1.16398,4.46932,-5.39753,-2.8428,-1.57989,33.4118,-2.93228,-3.93486,11.7583,-2.05072,-1.54147,8.42847e-14,-7.95139e-15,-29.2649,10.4732,-39.4817,134.2,28.0895,6.2362,5.49103,7.12502,31.5484,-21.8045,8.42847e-14,-7.95139e-15,-52.7403,10.4751,76.7178,58.6054,3.80906,-10.0418,47.0723,7.12502,15.9434,76.4361,-8.1423,3.03208,28.2632,40.0047,-16.6445,-8.242,12.7487,-25.1218,0.10467,-14.1914,48.8779,-9.56699,2.95717,-23.0328
4.01101,17.9752,24.1501,-6.67002,-9.71867,-1.8981,24.1846,-2.83663,2.89636,3.07487,-2.46547,4.65902,-9.99152,-1.18862,4.33512,-5.94023,-2.9574,-1.53016,33.72,-3.07613,-3.96982,11.9915,-2.1159,-1.60169,-5.56597e-15,0,-30.0688,13.2596,-41.9709,132.304,30.1804,5.44901,5.11147,7.12502,30.7982,-22.3283,-5.56597e-15,0,-52.1885,10.1008,77.1252,58.4438,3.68859,-9.7953,47.2573,7.12502,16.1808,76.602,-8.67369,2.76166,27.8796,40.1127,-16.3862,-7.97128,13.3113,-24.7259,0.457898,-14.6796,50.7262,-9.81862,2.70464,-23.9418
4.02766,17.9591,23.9591,-6.36843,-9.76412,-2.62871,24.3678,-2.90356,3.49034,3.02675,-2.35205,4.93423,-10.1613,-1.15033,4.28469,-6.22819,-3.01916,-1.67475,33.7856,-3.16988,-3.84025,12.0834,-2.16079,-1.54754,4.09496e-14,-6.36111e-15,-30.7875,15.8315,-44.4832,130.088,32.0582,4.86154,4.74713,7.12502,30.2379,-22.7968,4.09496e-14,-6.36111e-15,-51.7829,9.87997,77.5024,58.3472,3.6503,-9.46196,47.6474,7.12502,16.5017,76.9657,-9.75556,3.11113,28.7592,40.2553,-15.9346,-8.2278,14.695,-24.9449,1.0161,-13.9251,52.6514,-9.41299,2.11565,-25.4408
4.04713,17.9814,23.8382,-6.70024,-9.55395,-1.37721,24.033,-2.84083,2.39545,3.01432,-2.60802,4.65202,-9.9499,-1.23709,4.65315,-5.96324,-3.03049,-1.95973,33.6205,-3.19273,-3.68976,11.9717,-2.18717,-1.43262,6.16232e-14,4.77083e-15,-31.6205,18.3934,-46.9381,127.573,33.6991,4.12538,4.24806,7.12502,29.5354,-23.4223,6.16232e-14,4.77083e-15,-51.9255,9.60539,77.8537,58.4301,4.02974,-9.49637,48.3616,7.12502,16.4686,77.6826,-10.0157,2.68406,27.2113,40.3351,-15.9521,-7.66292,15.4211,-23.9773,1.20172,-15.5441,54.1656,-9.57103,1.91393,-25.8645
4.06849,17.9763,23.6716,-6.67109,-9.61412,-1.03175,24.0421,-2.7499,2.10363,2.91691,-2.56469,4.60425,-10.0565,-1.20371,4.75945,-5.99928,-3.08716,-2.11152,33.5989,-3.27868,-3.58459,11.9759,-2.23143,-1.37683,3.02153e-14,-5.40694e-14,-32.3625,20.3326,-49.32,124.794,34.8603,2.9772,3.66385,7.12502,28.4388,-24.195,3.02153e-14,-5.40694e-14,-51.7946,9.07428,78.3065,58.3445,4.50795,-9.88792,48.2978,7.12502,16.0916,77.6496,-10.7409,2.869,26.8108,40.42,-15.6188,-7.51803,15.766,-23.6463,1.61259,-16.0547,55.8155,-9.59215,1.75635,-26.3286
4.08721,17.9722,23.5069,-6.64507,-9.6898,-1.05532,24.0605,-2.69659,2.11341,2.94336,-2.48613,4.66958,-10.0387,-1.16635,4.80214,-6.50006,-3.187,-2.21718,33.8614,-3.38838,-3.57159,12.1906,-2.2942,-1.38674,5.96354e-15,6.04305e-14,-33.1155,21.7929,-51.3619,122.262,35.9469,2.52342,3.68222,7.12502,28.0051,-24.2483,5.96354e-15,6.04305e-14,-51.3525,8.75179,78.7024,58.0566,4.71385,-10.1538,48.145,7.12502,15.8355,77.5174,-11.3809,3.04675,26.8435,40.3939,-15.2437,-7.56829,15.4688,-23.1967,1.99054,-16.1079,57.3178,-9.50541,1.42649,-26.6264
4.10285,17.9672,23.337,-6.69771,-9.69515,-1.05372,24.2863,-2.645,2.12932,2.80571,-2.39397,4.67605,-10.3209,-1.11689,4.7945,-6.30033,-3.32078,-2.38003,33.9238,-3.60076,-3.44634,12.181,-2.39424,-1.33306,-1.11319e-14,-2.8625e-14,-34.2596,23.0142,-53.4946,119.631,36.7789,2.3507,3.37384,7.12502,27.8399,-24.5835,-1.11319e-14,-2.8625e-14,-51.3253,8.22924,78.9833,58.097,4.92392,-10.1069,48.3467,7.12502,15.8807,77.7155,-11.9189,3.25865,26.8742,40.2755,-14.804,-7.68794,15.4213,-22.6773,2.30967,-16.1273,58.8724,-9.4443,0.922229,-26.6561
4.11956,17.9668,23.1751,-6.72824,-9.58568,-0.949985,24.4138,-2.62103,2.02763,2.57762,-2.36201,4.7506,-10.6426,-1.08764,4.95011,-5.83807,-3.43069,-2.79592,33.8729,-3.74568,-3.31546,12.0803,-2.49415,-1.21525,-2.16675e-14,-1.59028e-15,-35.2216,24.1999,-55.6217,116.509,37.2081,1.66999,3.0128,7.12502,27.1889,-25.0482,-2.16675e-14,-1.59028e-15,-51.609,7.79322,79.393,58.2828,5.11352,-9.90907,48.2584,7.12502,16.0712,77.6119,-12.388,3.33735,26.7513,40.0683,-14.4795,-7.71965,16.0916,-22.0034,2.53387,-16.2777,60.1259,-9.28236,0.347796,-25.8599
4.13666,17.9578,22.9959,-6.563,-9.68387,-1.33216,24.3196,-2.68161,2.19005,2.90326,-2.4011,4.93935,-10.2187,-1.11993,5.05654,-7.0379,-3.46195,-2.84006,33.8919,-3.72669,-3.31184,12.3394,-2.49056,-1.23616,3.63776e-14,2.22639e-14,-34.4427,24.8237,-57.344,112.875,37.5187,1.00216,3.0616,7.12502,26.5499,-25.0977,3.63776e-14,2.22639e-14,-50.6781,7.98136,79.5756,58.3872,5.17724,-9.8915,48.1748,7.12502,16.0881,77.527,-13.0967,3.75,27.2204,39.8502,-14.0532,-7.81487,18.197,-21.6082,2.82185,-15.8419,61.3895,-8.79102,-0.136286,-25.7619
4.15907,17.9812,22.8858,-6.90518,-9.52259,-0.236273,23.7874,-2.54042,1.39807,2.8429,-2.47596,4.67178,-9.97612,-1.13398,5.20014,-6.42936,-3.62566,-3.25136,33.8984,-3.96249,-3.16368,12.2326,-2.62825,-1.12153,1.98785e-15,0,-35.0731,25.3878,-59.0505,109.28,37.5707,0.31833,3.59685,7.12502,25.8952,-24.6597,1.98785e-15,0,-50.8947,7.38867,79.9669,58.5494,5.32838,-10.0205,48.0322,7.12502,15.9639,77.3943,-13.1821,3.4063,25.8598,39.6394,-14.1662,-7.04168,18.7544,-20.046,2.74191,-17.2533,62.0419,-8.68032,-0.287611,-25.3455
4.17731,17.9694,22.7031,-6.81319,-9.63379,-0.510199,24.0897,-2.39352,1.57063,2.7144,-2.20189,4.82169,-10.304,-0.999979,5.21161,-6.51199,-3.83801,-3.22871,34.0027,-4.23074,-3.28857,12.2891,-2.7594,-1.21021,-9.93923e-15,-7.95139e-15,-35.6579,25.9595,-60.9167,106.093,38.1977,0.0908637,1.98224,7.12502,25.6774,-26.306,-9.93923e-15,-7.95139e-15,-50.5863,6.85632,80.2783,58.542,5.32312,-9.76616,47.9783,7.12502,16.2088,77.3207,-13.9014,4.08224,26.2483,39.4325,-13.6745,-7.3874,18.792,-19.4368,2.91486,-16.9114,62.968,-8.23435,-0.753609,-24.5761
4.19965,17.9696,22.556,-6.90089,-9.65683,-0.179033,23.9792,-2.23113,1.37431,2.70069,-2.05191,4.75971,-10.2668,-0.923268,5.20003,-6.76206,-4.07944,-3.24085,34.286,-4.5039,-3.48693,12.4552,-2.9072,-1.3331,3.22031e-14,1.74931e-14,-36.0008,26.1877,-62.3976,102.615,38.5911,-0.173959,1.70548,7.12502,25.4237,-26.6191,3.22031e-14,1.74931e-14,-50.2018,6.23892,80.622,58.3998,5.24061,-9.73959,47.9367,7.12502,16.2344,77.277,-14.3623,4.38515,25.8525,39.2564,-13.2263,-7.68948,18.7647,-18.3208,2.94899,-17.3552,63.5639,-7.78777,-1.14397,-23.1991
4.21701,17.9589,22.3956,-6.95983,-9.70642,-0.402362,24.0797,-2.13228,1.64256,2.79807,-1.84713,4.80886,-10.2332,-0.838383,5.03582,-7.18949,-4.37974,-3.38501,34.5363,-4.92392,-3.38496,12.6591,-3.09815,-1.34351,-2.82274e-14,4.77083e-15,-35.8321,26.1053,-63.6299,98.8232,38.6131,-0.464203,2.33565,7.12502,25.1457,-26.0282,-2.82274e-14,4.77083e-15,-49.5963,5.66248,80.8403,58.2882,4.89533,-9.66168,47.868,7.12502,16.3094,77.2021,-14.8233,4.98125,26.1188,39.0785,-12.742,-8.11669,19.3506,-17.2442,3.01255,-17.0992,64.2826,-7.08076,-1.77131,-23.1905
4.2372,17.9413,22.2295,-6.8531,-9.7486,-0.627563,24.0641,-2.08641,1.85929,2.83833,-1.72174,4.91585,-10.1917,-0.787057,4.98846,-7.46154,-4.60846,-3.80229,34.618,-5.25412,-3.08981,12.7798,-3.25864,-1.21304,-1.45113e-14,-6.04305e-14,-35.7256,26.1659,-64.8754,95.6494,38.963,-0.0945414,1.49925,7.12502,25.4998,-26.8145,-1.45113e-14,-6.04305e-14,-49.058,5.40569,81.0062,58.2428,4.65775,-9.83087,47.5926,7.12502,16.1465,76.94,-15.5158,5.49177,26.3676,38.9983,-12.1852,-8.42192,19.5597,-16.3437,3.01499,-16.8667,64.832,-6.17957,-2.42447,-23.6038
4.26083,17.925,22.0703,-6.76418,-9.74817,-0.721111,23.985,-2.06657,1.98972,2.73702,-1.65302,4.97994,-10.2709,-0.756385,4.96483,-7.25389,-4.75888,-4.14459,34.7198,-5.47198,-2.92581,12.8019,-3.37874,-1.11631,3.49861e-14,-6.67916e-14,-35.7741,26.0857,-66.0921,92.3194,39.4192,0.402089,0.79111,7.12502,25.9754,-27.4537,3.49861e-14,-6.67916e-14,-48.9981,5.21673,81.1166,58.4356,4.5398,-9.74647,47.8687,7.12502,16.2278,77.2095,-16.1824,5.82355,26.4358,39.0269,-11.5688,-8.51841,20.7007,-15.4488,2.92936,-16.8227,65.2603,-5.39594,-2.95591,-24.2619
4.28248,17.9033,21.911,-6.84819,-9.7033,-0.626443,23.9895,-2.02281,1.90047,2.70079,-1.61144,5.02791,-10.3133,-0.730886,5.05975,-7.07457,-4.92639,-4.39853,34.7917,-5.66013,-2.98027,12.807,-3.50127,-1.11462,-3.04141e-14,-3.18055e-14,-35.3628,26.0156,-67.0831,88.389,39.6307,1.00766,0.880524,7.12502,26.5552,-27.278,-3.04141e-14,-3.18055e-14,-48.7989,5.11279,81.253,58.4869,4.53314,-9.64349,48.1971,7.12502,16.3269,77.5298,-16.7113,6.12397,26.324,39.2106,-10.8516,-8.63643,22.4542,-14.322,2.80167,-16.972,65.5156,-4.57946,-3.67044,-25.4417
4.30419,17.8865,21.7511,-6.93262,-9.61087,-0.362341,23.9865,-2.05453,1.46234,2.43923,-1.74425,5.1147,-10.5825,-0.764508,5.46996,-6.18631,-4.9637,-4.91251,34.7577,-5.68388,-2.96589,12.6321,-3.58024,-0.993257,-8.15017e-15,-2.70347e-14,-35.1472,26.6139,-68.1877,84.4167,39.4613,1.75225,1.37706,7.12502,27.2676,-26.6716,-8.15017e-15,-2.70347e-14,-49.2737,5.30946,81.3135,58.565,4.63502,-9.7754,48.1311,7.12502,16.1999,77.4742,-17.3051,6.34988,26.0038,39.4069,-10.2762,-8.77579,22.7141,-13.1443,2.57058,-17.3401,65.573,-3.68482,-4.43808,-24.9433
4.32958,17.866,21.5831,-6.84238,-9.50169,-0.195117,24.0205,-2.03754,1.22448,2.23269,-1.76471,5.17808,-10.8246,-0.753738,5.70166,-5.85963,-5.1397,-5.35657,34.9069,-5.8832,-2.97564,12.6531,-3.72901,-0.940855,1.63003e-14,-3.33958e-14,-34.8044,26.6926,-69.1153,80.6978,39.2075,2.2827,1.47691,7.12502,27.7749,-26.491,1.63003e-14,-3.33958e-14,-49.3154,5.2799,81.3779,58.5069,5.04579,-10.648,47.9824,7.12502,15.3596,77.392,-18.2377,6.47414,25.7343,39.6536,-9.67925,-8.8605,22.1918,-12.1379,2.29392,-17.64,65.4622,-2.54425,-5.26554,-23.8081
4.35522,17.8512,21.4182,-6.74439,-9.47185,-0.200665,23.9629,-1.99575,1.23565,2.12994,-1.69316,5.27226,-10.9144,-0.714852,5.78241,-5.74584,-5.36492,-5.78195,35.132,-6.14641,-2.97544,12.7536,-3.90162,-0.906265,4.55217e-14,-5.56597e-14,-34.2651,26.5574,-69.7751,77.0103,38.8449,2.85143,1.32005,7.12502,28.3186,-26.5588,4.55217e-14,-5.56597e-14,-49.1558,5.23962,81.4624,58.5134,5.28559,-11.858,47.4677,7.12502,14.1938,76.9628,-19.1405,6.63178,25.6472,39.8841,-9.00753,-8.95138,22.6049,-10.9857,2.01922,-17.7355,65.1163,-1.40634,-6.34899,-26.6963
4.38164,17.8335,21.2636,-6.78136,-9.47834,0.178525,23.7517,-1.91913,0.988643,2.15263,-1.67914,5.17804,-10.7709,-0.70308,5.79841,-5.80506,-5.55053,-5.91796,35.1126,-6.37197,-3.02354,12.7676,-4.02315,-0.932169,-5.10877e-14,-3.33958e-14,-33.6034,26.2357,-70.4365,73.4682,38.4729,3.71124,1.09403,7.12502,29.14,-26.6456,-5.10877e-14,-3.33958e-14,-48.9901,5.15626,81.4249,58.8337,5.65325,-12.103,47.6139,7.12502,13.9578,77.1254,-19.91,6.64858,25.1461,40.0828,-8.44849,-8.87601,23.3173,-9.58403,1.90677,-18.3046,64.5428,-0.728,-7.45197,-31.4124
4.40655,17.8146,21.1146,-6.85023,-9.39345,0.869377,23.392,-1.7774,0.447667,2.3022,-1.67765,4.97535,-10.3965,-0.694492,5.84922,-6.14423,-5.77575,-5.78896,35.1806,-6.63147,-3.2251,12.8575,-4.14313,-1.07985,3.97569e-16,-3.97569e-14,-32.7022,25.6487,-70.9801,69.956,37.6971,4.39043,0.796657,7.12502,29.7884,-26.8287,3.97569e-16,-3.97569e-14,-48.4613,5.03557,81.3595,58.8177,5.6269,-12.3063,46.6505,7.12502,13.7618,76.1754,-20.659,6.50924,24.3004,40.2325,-7.9924,-8.63952,22.8632,-8.18095,1.80314,-19.2423,63.786,-0.113651,-7.88936,-29.948
4.42806,17.7971,20.952,-6.87465,-9.39116,1.13816,23.2307,-1.63046,0.256922,2.40831,-1.5516,4.90502,-10.1981,-0.63504,5.82473,-6.3656,-6.01477,-5.72222,35.2606,-6.9204,-3.3908,12.9324,-4.27957,-1.20382,2.64384e-14,-7.95139e-15,-32.0096,24.6849,-71.4054,66.6414,36.7871,4.56153,0.710655,7.12502,29.9517,-26.8854,2.64384e-14,-7.95139e-15,-47.808,4.67843,81.3999,58.5721,5.67971,-12.9359,45.4018,7.12502,13.155,74.9668,-21.4208,6.61753,23.9587,40.4161,-7.40057,-8.71046,22.4717,-6.93311,1.6982,-19.6513,62.9644,1.05623,-8.30237,-27.0947
4.45227,17.7812,20.7847,-6.94489,-9.31997,1.33461,23.2041,-1.5455,0.10002,2.45555,-1.48382,4.89549,-10.133,-0.598835,5.87982,-6.54063,-6.26495,-5.91655,35.5084,-7.20192,-3.50096,13.0894,-4.44145,-1.26887,3.69739e-14,1.43125e-14,-31.4992,23.4934,-71.7199,63.5367,36.0985,4.72474,0.166847,7.12502,30.1074,-27.4009,3.69739e-14,1.43125e-14,-47.3513,4.58058,81.3961,58.394,5.72209,-12.8438,46.3836,7.12502,13.2438,75.9429,-22.1164,6.71711,23.6786,40.591,-6.77228,-8.85444,21.903,-5.62725,1.57785,-19.9896,62.0328,2.20645,-8.88925,-27.1343
4.48091,17.7488,20.6225,-7.08933,-9.09797,1.80495,23.2142,-1.4758,-0.336146,2.45608,-1.50813,4.84303,-10.1249,-0.593064,6.08208,-6.45019,-6.45816,-6.19817,35.5125,-7.45799,-3.43803,13.097,-4.58101,-1.22817,4.69132e-14,-5.725e-14,-30.8892,21.8086,-71.8255,60.4456,35.3078,5.459,-0.539424,7.12502,30.8077,-27.9774,4.69132e-14,-5.725e-14,-47.1897,4.55832,81.4731,58.4011,5.93057,-12.0031,47.758,7.12502,14.054,77.2628,-22.802,6.56198,23.0649,40.7978,-6.44344,-8.86005,22.4624,-4.09901,1.34467,-20.7403,60.9148,2.47804,-9.57275,-28.1105
4.50648,17.7107,20.4527,-7.18531,-9.00347,1.81488,23.3619,-1.42857,-0.401538,2.40774,-1.44739,4.93068,-10.2615,-0.554625,6.21239,-6.2833,-6.60655,-6.33887,35.5673,-7.6223,-3.56222,13.0922,-4.68684,-1.26934,-2.3059e-14,-6.36111e-15,-30.4738,20.0075,-71.8086,57.4243,33.9294,5.86601,-0.915601,7.12502,31.1956,-28.2796,-2.3059e-14,-6.36111e-15,-47.0941,4.48637,81.5554,58.3002,5.97033,-11.1623,48.3293,7.12502,14.8641,77.7761,-23.4511,6.60657,22.9881,40.8694,-6.00998,-8.93852,22.8839,-2.58333,1.19791,-20.9174,59.6979,1.98754,-10.6934,-30.4386
4.53043,17.6638,20.2634,-7.17646,-9.04869,1.68532,23.7099,-1.3609,-0.51869,2.31736,-1.35748,5.10459,-10.5543,-0.492383,6.47691,-6.36206,-6.77185,-6.66616,35.7713,-7.81993,-3.5074,13.2275,-4.80986,-1.23429,2.06736e-14,-3.33958e-14,-29.9795,18.2689,-71.6554,54.4841,31.8221,5.97013,-1.03007,7.12502,31.2949,-28.3749,2.06736e-14,-3.33958e-14,-46.8917,4.74404,81.4874,58.0391,5.61067,-10.8538,48.2415,7.12502,15.1613,77.6661,-24.3399,6.8526,23.0856,41.0001,-5.20541,-9.10339,22.9785,-1.15606,1.07802,-20.8792,58.3949,2.13062,-11.0705,-28.9559
4.55525,17.6665,20.1057,-7.21065,-8.90391,1.85351,23.589,-1.35199,-0.694743,2.32113,-1.39395,5.10815,-10.4761,-0.503947,6.58811,-6.19948,-6.96251,-6.9024,35.7134,-8.0941,-3.43336,13.1928,-4.95065,-1.19373,-2.50469e-14,9.54166e-15,-29.509,15.9511,-71.4241,51.7147,30.135,5.52714,-0.81849,7.12502,30.8726,-28.2442,-2.50469e-14,9.54166e-15,-46.7122,4.77899,81.4402,57.9772,5.7986,-11.392,48.0654,7.12502,14.6429,77.5284,-24.8222,6.71494,22.7896,40.8075,-4.52051,-9.07464,22.8439,-0.0166884,0.924365,-21.3579,57.04,2.2463,-11.2915,-29.7742
4.58273,17.6181,19.9242,-7.11526,-8.74942,2.00003,23.5456,-1.32477,-0.920441,2.24085,-1.4092,5.15164,-10.535,-0.496273,6.77698,-5.85787,-7.08957,-7.0304,35.4845,-8.26027,-3.50225,13.0293,-5.04735,-1.19454,4.17448e-14,-4.29375e-14,-29.2677,13.4085,-70.9462,49.2917,29.0192,4.04796,0.302784,7.12502,29.4615,-27.3807,4.17448e-14,-4.29375e-14,-46.6784,4.6842,81.445,57.966,6.14943,-11.9285,47.827,7.12502,14.1259,77.3268,-25.7045,6.7041,22.5009,40.7398,-3.70842,-9.15971,23.5598,1.44945,0.571203,-21.7713,55.501,1.86789,-11.7493,-29.2522
4.60982,17.6248,19.7444,-6.86344,-8.47012,2.24167,23.4194,-1.38964,-1.27322,2.16536,-1.582,5.17559,-10.5205,-0.559824,7.06237,-5.91129,-7.16231,-7.17375,35.4918,-8.31336,-3.57434,13.0521,-5.09753,-1.20953,-3.77691e-14,1.74931e-14,-28.7152,10.6383,-70.4178,46.9637,28.1463,2.72438,1.01999,7.12502,28.1972,-26.879,-3.77691e-14,1.74931e-14,-46.5599,4.9513,81.3295,58.0792,6.18383,-12.0352,48.3728,7.12502,14.0231,77.8798,-26.5346,6.60583,22.0464,40.4881,-2.95506,-9.23974,23.871,1.90605,0.119056,-22.3877,53.9107,1.73034,-12.1084,-29.8769
4.64174,17.588,19.564,-6.75173,-8.26334,2.65271,23.3029,-1.38338,-1.66144,2.15829,-1.68643,5.0715,-10.4432,-0.59666,7.19609,-6.3427,-7.33954,-7.28669,35.9449,-8.51524,-3.59609,13.3556,-5.20421,-1.27019,5.1684e-15,-2.8625e-14,-28.2659,7.59868,-69.8796,45.1263,27.1695,2.12259,0.923974,7.12502,27.6218,-27.0685,5.1684e-15,-2.8625e-14,-46.3145,5.0594,81.1635,58.1456,6.23627,-12.5129,48.731,7.12502,13.5627,78.2693,-27.4612,6.46522,21.4322,40.4802,-2.26864,-9.21121,23.9897,3.25915,-0.377072,-23.2873,51.9322,0.843127,-12.0489,-31.053
4.67182,17.5692,19.3817,-6.49755,-8.13082,3.07988,23.0269,-1.33561,-2.07296,2.10254,-1.73833,4.98862,-10.3395,-0.607527,7.34398,-7.01745,-7.51905,-7.28206,36.6258,-8.63873,-3.87396,13.7963,-5.29306,-1.46609,5.56597e-15,-2.06736e-14,-28.1752,4.56625,-69.184,43.8279,26.9863,0.908451,1.56795,7.12502,26.4602,-26.6049,5.56597e-15,-2.06736e-14,-46.2234,5.18714,81.0708,58.1379,6.22336,-12.4094,48.5733,7.12502,13.6625,78.1049,-28.3508,6.54202,20.7789,40.1516,-1.48273,-9.33709,24.5499,4.24683,-0.857064,-24.1682,49.953,-0.215414,-11.7001,-32.1226
4.70067,17.5336,19.1893,-6.16613,-7.93414,3.34345,22.896,-1.36161,-2.42497,2.08056,-1.8681,4.92715,-10.2655,-0.657051,7.51256,-6.55874,-7.57973,-7.24276,35.9991,-8.80002,-3.77143,13.4194,-5.34218,-1.39805,1.74931e-14,-3.33958e-14,-28.2391,1.96758,-68.604,43.4073,26.8602,0.0593278,1.99538,7.12502,25.6472,-26.2972,1.74931e-14,-3.33958e-14,-46.0723,5.36947,80.8734,58.2032,6.08469,-11.9857,48.8589,7.12502,14.0707,78.3626,-29.4054,6.58052,20.2681,39.901,-0.783731,-9.51217,25.8494,5.33939,-1.46649,-24.8933,47.7517,-1.23377,-11.1545,-32.7302
4.7309,17.5426,18.9941,-5.80262,-7.64546,3.37009,23.0075,-1.46572,-2.50258,1.80686,-2.01332,4.95424,-10.6114,-0.699787,7.65818,-6.07009,-7.63245,-7.43521,35.6849,-8.93752,-3.60877,13.2022,-5.40799,-1.28208,1.43125e-14,-3.33958e-14,-28.6196,-0.462568,-67.935,43.0444,26.6038,-0.371011,1.9428,7.12502,25.235,-26.4085,1.43125e-14,-3.33958e-14,-46.323,5.48516,80.691,58.225,6.21882,-12.6501,48.8678,7.12502,13.4305,78.4148,-30.143,6.53416,20.0025,39.2166,0.104871,-9.84172,26.2416,5.71045,-2.31419,-25.383,45.7436,-1.59433,-10.3595,-28.9398
4.761,17.5051,18.7897,-5.56491,-7.41566,3.55675,23.0614,-1.49709,-2.82253,1.94794,-2.13682,4.98266,-10.4489,-0.752629,7.91186,-6.76492,-7.71801,-7.53363,35.5721,-9.0183,-3.46741,13.3175,-5.43012,-1.25516,-1.51076e-14,3.18055e-15,-28.2108,-2.81552,-67.2752,42.6637,26.5101,-1.60334,2.03623,7.12502,24.0538,-26.4763,-1.51076e-14,3.18055e-15,-45.8985,5.75817,80.5923,58.4136,6.45247,-12.7045,48.5195,7.12502,13.378,78.07,-30.8707,6.59169,19.5756,38.4922,0.949662,-10.1732,26.2929,6.48365,-2.79923,-26.0246,43.6828,-3.38002,-9.76249,-22.9265
4.78906,17.4987,18.5863,-5.2283,-7.3117,3.38427,22.9986,-1.55357,-2.72335,1.83793,-2.17801,5.02186,-10.5356,-0.768929,7.91385,-6.39886,-7.71535,-7.56255,35.314,-9.07728,-3.3484,13.1359,-5.4452,-1.18095,1.35174e-14,4.77083e-15,-28.6368,-4.50958,-66.7073,42.886,25.9649,-3.29242,2.22951,7.12502,22.4333,-26.4877,1.35174e-14,4.77083e-15,-46.1914,5.70057,80.4499,58.7548,6.72551,-12.391,48.8083,7.12502,13.6802,78.3386,-31.4306,6.83738,19.5215,37.5333,1.47736,-10.7365,26.4573,6.81729,-3.43316,-26.2195,41.8877,-6.04927,-9.97378,-26.8057
4.8211,17.4869,18.3787,-4.90494,-7.18217,3.71469,22.9928,-1.53066,-3.16216,1.78528,-2.26442,4.97198,-10.5633,-0.787553,8.14408,-6.63021,-7.79995,-7.40338,35.1207,-9.15527,-3.49996,13.0815,-5.4741,-1.27807,-2.46493e-14,-6.36111e-15,-28.786,-5.97329,-66.1043,43.3628,25.0621,-4.58911,2.57171,7.12502,21.1882,-26.2904,-2.46493e-14,-6.36111e-15,-46.1448,5.82236,80.3471,58.7776,7.02305,-12.7245,49.0205,7.12502,13.3587,78.5723,-32.0872,6.79212,18.9279,36.6495,1.53419,-11.3721,25.6733,7.06085,-3.93008,-26.9729,40.228,-8.57827,-8.59471,-29.6549
4.85425,17.4646,18.1636,-4.65598,-7.04464,4.10716,23.1653,-1.47351,-3.68315,1.64971,-2.32333,4.96293,-10.7808,-0.775497,8.48101,-6.40698,-7.90346,-7.81282,34.7803,-9.34287,-3.18865,12.9408,-5.56662,-1.09294,-6.20208e-14,7.4743e-14,-29.0711,-7.02197,-65.3671,43.8617,23.9137,-5.67784,2.87512,7.12502,20.142,-26.1007,-6.20208e-14,7.4743e-14,-46.2313,5.84088,80.3746,58.6629,6.98395,-12.4106,48.5992,7.12502,13.6613,78.1308,-32.6155,6.73514,18.2778,35.6724,1.03318,-11.9571,22.8839,7.29794,-4.06984,-27.6926,38.8552,-11.0097,-6.72141,-31.2612
4.88413,17.4524,17.9467,-4.47638,-7.0823,4.03176,23.3697,-1.55954,-3.83265,1.86053,-2.48596,4.92983,-10.6188,-0.859997,8.58218,-6.89394,-7.9013,-7.38207,34.408,-9.35672,-3.22482,12.8466,-5.51739,-1.18549,-6.79844e-14,6.99722e-14,-28.6417,-8.0286,-65.261,44.2369,23.1729,-6.87974,3.23091,7.12502,18.9865,-25.8624,-6.79844e-14,6.99722e-14,-45.9179,6.08566,79.9888,58.7037,7.04975,-11.9278,48.3811,7.12502,14.1266,77.8808,-32.9292,6.7807,18.1998,34.728,-0.153467,-12.3969,19.2161,7.347,-3.96177,-27.8515,37.6439,-13.3585,-5.01347,-29.16
4.91547,17.4502,17.7348,-4.29007,-7.18011,4.27408,23.3573,-1.51662,-4.1339,2.00776,-2.52583,4.78943,-10.4306,-0.882747,8.59854,-6.95007,-7.94449,-7.21098,34.1482,-9.46907,-3.13295,12.7413,-5.53118,-1.1838,6.59965e-14,-2.38542e-14,-28.376,-9.26962,-64.9051,44.4565,22.792,-8.29258,3.40853,7.12502,17.6273,-25.8124,6.59965e-14,-2.38542e-14,-45.6711,6.0665,79.7297,58.6665,7.5414,-11.9835,48.4065,7.12502,14.0729,77.91,-33.2483,6.63038,17.8436,33.7543,-1.54226,-12.472,15.2211,7.03775,-3.73906,-28.3506,36.5549,-15.0182,-3.20082,-27.6633
4.94673,17.4516,17.5317,-4.19498,-7.24576,4.94336,23.2785,-1.41239,-4.8211,2.09884,-2.59384,4.53858,-10.2528,-0.902729,8.72241,-6.85876,-7.97218,-7.06671,33.9048,-9.55895,-3.06616,12.6133,-5.54351,-1.17723,1.82882e-14,-4.45278e-14,-28.1181,-11.1114,-64.3565,44.2295,23.6603,-10.3078,4.12206,7.12502,15.6872,-25.262,1.82882e-14,-4.45278e-14,-45.5506,5.9844,79.5046,58.5997,8.01751,-12.0959,48.7351,7.12502,13.9646,78.2461,-33.5103,6.24655,17.1066,32.7752,-3.07628,-12.2091,10.1964,6.74879,-3.42485,-29.3087,35.5186,-16.0969,-1.37994,-28.0941
4.96884,17.456,17.3289,-4.22221,-7.43757,5.12456,23.4249,-1.30407,-5.26013,2.22964,-2.57847,4.47128,-10.1688,-0.886624,8.90216,-6.82932,-7.98661,-7.02673,33.572,-9.64341,-2.86954,12.4769,-5.54993,-1.10496,1.15295e-14,-7.95139e-15,-28.9196,-10.7093,-63.8155,45.8303,22.6267,-12.1002,6.13078,7.12502,13.9604,-23.3805,1.15295e-14,-7.95139e-15,-45.5861,6.03484,79.2939,58.5234,8.2794,-12.4114,48.7392,7.12502,13.6605,78.2709,-33.4693,6.04798,17.0066,31.7436,-4.70746,-11.8961,6.27033,6.59922,-2.9025,-29.5905,34.6106,-16.9976,-0.059644,-27.942
5.00229,17.4609,17.1187,-4.03801,-7.31214,5.67847,23.6051,-1.33732,-5.89962,2.2066,-2.81647,4.27689,-10.2252,-0.971299,9.14176,-6.99445,-7.95963,-6.75221,33.4205,-9.61967,-2.93587,12.4219,-5.51344,-1.17195,-1.74931e-14,2.70347e-14,-28.289,-12.5472,-63.2415,45.0487,24.1667,-14.0677,8.2892,7.12502,12.0638,-21.3431,-1.74931e-14,2.70347e-14,-45.6866,6.2335,78.9892,58.3881,8.37055,-12.6881,48.561,7.12502,13.3939,78.1104,-33.5999,5.3755,16.4348,30.689,-6.45338,-11.6308,3.64234,6.08007,-2.83109,-30.328,33.8265,-17.5695,0.783796,-25.0873
5.02835,17.4675,16.9105,-3.83276,-7.4967,5.7167,23.7778,-1.25559,-6.0474,2.02257,-2.76056,4.23655,-10.5342,-0.913508,9.19088,-6.11433,-7.98811,-6.79075,33.2565,-9.70354,-3.00399,12.174,-5.57049,-1.14716,2.70347e-14,-5.24792e-14,-28.7334,-12.9562,-62.6602,45.6589,24.4306,-15.7113,8.83922,7.12502,10.4786,-20.8796,2.70347e-14,-5.24792e-14,-46.1318,5.97659,78.8705,58.1652,8.15285,-12.3675,48.8815,7.12502,13.7028,78.4104,-33.6964,5.33316,16.3736,29.67,-8.20085,-12.0986,3.18098,5.50911,-2.63135,-30.4305,33.1746,-18.2285,1.58231,-22.3338
5.05167,17.4798,16.7103,-3.673,-7.72532,5.55319,23.9367,-1.18508,-5.9877,2.03161,-2.6618,4.2147,-10.6332,-0.864377,9.11149,-6.07964,-8.03317,-6.75086,33.0258,-9.82617,-2.82848,12.0814,-5.59799,-1.09252,-2.90226e-14,-4.77083e-15,-28.7848,-13.5446,-62.1989,46.2195,24.7879,-16.9855,9.2598,7.12502,9.24935,-20.5173,-2.90226e-14,-4.77083e-15,-46.1789,5.6542,78.7581,57.8609,8.08296,-12.2293,49.1642,7.12502,13.836,78.684,-33.6732,5.40483,16.5584,28.7607,-9.7244,-13.1825,3.41372,4.97827,-2.38939,-30.2479,32.6329,-19.0237,2.50451,-22.9909
5.07828,17.4915,16.521,-3.71562,-7.73835,6.00653,23.7624,-1.16766,-6.50895,2.37872,-2.78875,4.02105,-10.1021,-0.951521,9.19784,-6.41215,-8.02728,-6.71106,32.7006,-9.86999,-2.54936,12.0296,-5.57351,-1.00609,-5.00937e-14,4.13472e-14,-28.359,-13.7389,-62.0333,47.1263,24.8549,-17.8275,9.24859,7.12502,8.43685,-20.5629,-5.00937e-14,4.13472e-14,-45.6363,5.67971,78.5511,57.3515,7.77751,-12.018,49.1606,7.12502,14.0397,78.6664,-33.4809,4.96618,16.1738,28.0901,-10.8209,-14.3984,3.88399,4.53573,-2.25352,-30.7004,32.1756,-19.0645,2.22305,-20.6507
5.09957,17.5073,16.3348,-3.61352,-7.85959,5.95386,23.8054,-1.12106,-6.59475,2.37248,-2.7533,4.01473,-10.1355,-0.928891,9.23429,-6.28024,-8.05618,-6.88087,32.6712,-9.97433,-2.27941,12.0221,-5.60868,-0.885681,-1.11319e-14,1.27222e-14,-28.6447,-13.6476,-61.492,48.2238,25.1425,-18.6534,10.0014,7.12502,7.63972,-19.8406,-1.11319e-14,1.27222e-14,-45.7446,5.64084,78.4194,56.7963,7.51582,-11.9177,48.8172,7.12502,14.1363,78.3163,-33.5037,4.60729,16.4233,27.8981,-11.7746,-15.9336,4.58915,3.93317,-2.03088,-30.4879,31.7911,-19.203,1.76454,-19.5682
5.12623,17.52,16.1535,-3.52591,-7.73045,5.97257,23.8886,-1.17764,-6.56145,2.19112,-2.83026,3.9593,-10.3764,-0.94589,9.19108,-5.74103,-8.0888,-7.13991,32.6829,-10.1072,-2.00771,11.9572,-5.67228,-0.734344,-1.39149e-14,1.11319e-14,-29.0554,-13.6087,-60.7833,48.8768,25.7325,-19.5248,11.0963,7.12502,6.79857,-18.7746,-1.39149e-14,1.11319e-14,-46.3077,5.36906,78.3581,56.5128,7.85721,-12.2208,48.6712,7.12502,13.8442,78.1904,-33.4763,3.46706,16.7906,27.9607,-12.5233,-17.3623,4.93129,3.23085,-2.14646,-30.4211,31.7052,-19.5426,1.51953,-19.1496
5.16431,17.5274,15.9679,-3.44778,-7.37191,6.54307,23.9324,-1.36764,-7.00728,2.28576,-3.22281,3.73775,-10.2004,-1.13144,9.3124,-6.58756,-8.06709,-6.73357,33.033,-9.96806,-2.40716,12.2143,-5.60454,-0.98631,4.65156e-14,1.27222e-14,-28.3866,-13.9632,-60.5104,49.2027,26.5621,-19.9458,12.4691,7.12502,6.3921,-17.4145,4.65156e-14,1.27222e-14,-46.2928,5.59164,78.0609,56.299,7.95956,-12.4109,48.7165,7.12502,13.661,78.2481,-33.6316,1.3899,16.7323,28.438,-12.6531,-18.088,5.64004,2.3509,-2.45773,-31.0163,31.8787,-19.7522,1.45066,-20.2546
5.17014,17.544,15.7808,-3.36106,-8.03721,5.24189,23.9993,-1.31876,-6.17218,2.43388,-2.90316,4.08414,-10.1573,-1.01714,9.12142,-6.88451,-8.03066,-6.2845,33.1886,-9.83933,-2.86663,12.2749,-5.54916,-1.23231,5.64548e-14,-2.54444e-14,-28.0834,-13.7304,-60.2286,50.098,26.5593,-19.6977,12.3388,7.12502,6.63169,-17.5374,5.64548e-14,-2.54444e-14,-46.5279,5.61032,77.8394,56.1066,7.85761,-12.1851,49.0591,7.12502,13.8786,78.576,-33.6192,1.40575,18.6523,29.2787,-13.1533,-19.4469,7.63599,1.45028,-2.07376,-29.3477,32.3189,-20.0376,1.31276,-21.8864
5.19238,17.5539,15.5894,-3.11601,-8.20294,5.26654,23.8855,-1.33917,-6.29376,2.39552,-2.96128,4.04625,-10.1243,-1.0413,9.16035,-6.9658,-7.94734,-6.18102,33.2152,-9.71623,-2.92487,12.2889,-5.49016,-1.25986,6.36111e-15,-7.95139e-15,-28.0506,-11.9526,-60.4553,52.5947,24.3058,-18.0638,8.03923,7.12502,8.20877,-21.7813,6.36111e-15,-7.95139e-15,-46.6891,5.79087,77.5753,55.606,7.58107,-11.9169,49.065,7.12502,14.137,78.5641,-34.0674,0.396074,19.0975,30.5488,-13.7813,-20.2694,7.57816,0.160415,-2.12596,-29.2692,32.8153,-20.002,1.21097,-21.981
5.21656,17.5608,15.4076,-3.1264,-8.4614,5.39241,24.2322,-1.33549,-6.51911,2.08014,-3.03856,4.028,-10.6445,-1.02302,9.34439,-6.16285,-7.73041,-6.46129,33.1062,-9.45452,-2.80427,12.1021,-5.40292,-1.09082,2.42517e-14,-1.27222e-14,-28.5304,-10.5642,-59.8685,53.723,24.364,-18.1089,9.21924,7.12502,8.1652,-20.603,2.42517e-14,-1.27222e-14,-47.4922,5.97486,77.3622,54.9139,7.33552,-12.0103,48.5659,7.12502,14.0471,78.0712,-34.237,-0.720007,19.456,31.9958,-13.8242,-20.4747,8.20415,-0.896354,-2.06296,-29.3568,33.4676,-19.5896,1.36134,-22.302
5.24043,17.5695,15.2304,-3.19512,-8.79389,5.18241,24.4611,-1.37332,-6.33714,1.95804,-3.04813,4.06116,-10.9142,-1.01323,9.30541,-5.54498,-7.53262,-6.88024,32.9659,-9.23908,-2.50203,11.9611,-5.32752,-0.849438,2.18663e-14,-9.54166e-15,-28.6327,-9.2587,-59.5687,54.7261,24.516,-18.4346,9.53508,7.12502,7.85091,-20.2992,2.18663e-14,-9.54166e-15,-48.2168,6.21576,77.0992,54.4786,7.0598,-12.0083,48.3781,7.12502,14.049,77.8832,-34.3785,-1.58178,20.1015,33.9099,-13.7212,-20.3765,9.82819,-1.69347,-1.83704,-29.0901,33.9962,-19.2098,1.6678,-23.9383
5.26216,17.577,15.0556,-3.38039,-9.19243,5.09521,24.6864,-1.39157,-6.30774,2.05633,-3.08037,4.01882,-10.92,-1.03413,9.2604,-5.65179,-7.38393,-6.68313,32.9979,-8.97131,-2.77057,11.961,-5.21856,-0.953231,-1.74931e-14,4.77083e-15,-28.4315,-7.84404,-59.6216,55.9671,24.5383,-18.5547,9.30269,7.12502,7.73494,-20.5358,-1.74931e-14,4.77083e-15,-48.6414,6.65099,76.6736,54.097,6.90065,-11.8893,48.2521,7.12502,14.1637,77.7492,-34.4174,-2.21374,20.5195,36.009,-13.6159,-20.101,9.90243,-2.3724,-1.45772,-28.9687,34.526,-19.2651,1.9405,-23.7149
5.28649,17.5836,14.8882,-3.51754,-9.51954,5.20028,24.8955,-1.32108,-6.19961,2.10073,-2.9918,3.82062,-11.0164,-0.99862,8.95058,-6.11115,-7.43494,-6.31393,33.3577,-8.98338,-3.09178,12.1595,-5.21866,-1.16981,1.86858e-14,-2.70347e-14,-28.7706,-6.51291,-59.6657,57.643,24.5274,-18.6369,9.03001,7.12502,7.65566,-20.8114,1.86858e-14,-2.70347e-14,-48.7315,6.5416,76.3539,53.4072,6.81756,-11.7725,48.2175,7.12502,14.2762,77.7068,-34.4761,-2.76911,20.5903,38.21,-13.3376,-19.5784,10.5593,-3.14891,-1.17782,-29.0922,35.084,-19.6515,1.78817,-20.5496
5.30704,17.5955,14.7233,-3.62597,-9.75144,5.2513,24.6439,-1.28097,-5.99214,2.33782,-2.88854,3.65353,-10.6493,-0.996,8.56648,-6.17764,-7.51118,-6.37077,33.1457,-9.14121,-2.85627,12.1053,-5.26378,-1.08792,8.74653e-15,-2.70347e-14,-28.7803,-5.98455,-59.6057,58.947,25.2778,-18.353,9.45014,7.12502,7.92962,-20.3811,8.74653e-15,-2.70347e-14,-48.3994,6.60188,76.035,52.5529,6.72782,-11.5537,48.2651,7.12502,14.487,77.7393,-34.4971,-3.17946,20.6186,40.4989,-13.5684,-19.7405,6.22441,-3.98731,-0.900993,-29.1298,35.6631,-19.7447,1.68772,-17.7056
5.32422,17.6099,14.5623,-3.73343,-9.95718,5.1969,24.4788,-1.25608,-5.65171,2.40087,-2.76945,3.53772,-10.5342,-0.967694,8.17873,-5.86449,-7.43199,-6.41259,32.8342,-9.06939,-2.7349,11.9218,-5.22209,-0.99907,5.28767e-14,-2.22639e-14,-29.1514,-5.40153,-59.3717,60.2484,25.8287,-18.101,9.25703,7.12502,8.17289,-20.5649,5.28767e-14,-2.22639e-14,-48.5912,6.56428,75.78,51.9169,6.68269,-11.6222,48.176,7.12502,14.421,77.655,-34.4103,-3.44006,20.6613,42.8208,-13.6904,-19.3602,5.36471,-4.76647,-0.626559,-29.053,36.2517,-19.4614,1.93406,-17.156
5.33775,17.6236,14.4012,-3.81872,-10.0974,5.17936,24.3149,-1.25758,-5.49744,2.78752,-2.73754,3.39473,-10.0271,-1.00363,7.87959,-7.09013,-7.55002,-6.02638,33.0679,-9.20983,-2.76363,12.2413,-5.23228,-1.16027,-6.04305e-14,-3.33958e-14,-28.9148,-5.25978,-59.4012,61.7594,26.6909,-17.2256,8.54219,7.12502,9.01765,-21.2451,-6.04305e-14,-3.33958e-14,-48.0629,7.00718,75.3271,51.1714,6.51524,-11.75,48.0516,7.12502,14.2979,77.5394,-34.2968,-3.59657,20.5629,45.1408,-14.0387,-18.4715,7.84764,-5.60376,-0.328938,-28.9732,36.8176,-19.0765,2.02533,-17.0406
5.34652,17.6373,14.2456,-3.81983,-10.1954,5.11062,24.766,-1.23536,-5.36385,2.45981,-2.6969,3.3601,-10.6568,-0.945768,7.79878,-6.91804,-7.57212,-6.02089,33.3957,-9.22758,-2.90066,12.3343,-5.26144,-1.21947,1.39149e-14,6.36111e-15,-29.9801,-4.5615,-59.0292,63.7098,27.631,-16.3089,8.83422,7.12502,9.90214,-20.9129,1.39149e-14,6.36111e-15,-48.8613,7.27975,74.8822,50.6568,6.33065,-11.5645,48.2361,7.12502,14.4767,77.7111,-34.1527,-3.74182,20.5014,47.4382,-13.9987,-18.0232,7.27336,-6.46601,-0.0646706,-28.81,37.3256,-18.646,1.98439,-16.4242
5.35099,17.6493,14.0886,-3.87777,-10.1099,5.16464,24.6128,-1.26004,-5.34934,2.52707,-2.72551,3.29835,-10.4972,-0.972314,7.71366,-6.73009,-7.5794,-5.89449,33.1405,-9.2427,-2.97899,12.1766,-5.26259,-1.24971,1.74931e-14,-1.43125e-14,-30.4512,-4.38037,-58.793,65.5059,28.3897,-15.6402,9.06239,7.12502,10.5472,-20.653,1.74931e-14,-1.43125e-14,-49.0974,7.71949,74.4602,50.1883,6.09014,-11.1724,49.1354,7.12502,14.8544,78.5829,-33.8805,-3.91346,20.2711,49.6114,-13.6182,-18.3352,4.45574,-7.27801,-0.0680341,-28.791,37.7632,-18.0702,1.91369,-15.9286
5.3495,17.6711,13.9324,-3.92983,-10.0561,5.24104,24.4899,-1.19881,-5.34709,2.56681,-2.64672,3.23317,-10.4029,-0.943341,7.60196,-6.67504,-7.65549,-5.89987,33.02,-9.38411,-2.86766,12.1246,-5.31124,-1.21751,3.57812e-15,-1.43125e-14,-31.0272,-4.37804,-58.5357,67.2718,28.8203,-15.2693,8.19387,7.12502,10.905,-21.503,3.57812e-15,-1.43125e-14,-49.2399,8.06812,74.0885,49.4749,5.72696,-11.0193,49.761,7.12502,15.0019,79.1976,-33.5985,-3.90567,20.0046,51.7418,-13.6081,-17.9292,6.34759,-8.06267,0.0550525,-28.7257,38.1569,-17.5836,1.67675,-15.2965
5.34279,17.7152,13.7763,-3.94499,-10.2782,4.60826,24.4748,-1.11774,-4.80926,2.67094,-2.38001,3.3771,-10.3369,-0.84445,7.36175,-6.71814,-7.72892,-5.75054,32.778,-9.51621,-2.83195,12.0275,-5.34555,-1.23647,7.83212e-14,-1.43125e-14,-31.6391,-4.33273,-58.2663,69.1376,29.3168,-14.9363,7.31036,7.12502,11.2262,-22.3693,7.83212e-14,-1.43125e-14,-49.3392,8.36283,73.7656,48.8339,5.55385,-11.0869,50.059,7.12502,14.9368,79.5005,-33.0082,-3.53894,20.5826,53.5895,-13.6186,-17.6826,6.52442,-8.79062,0.389817,-27.8185,38.604,-16.8763,1.53843,-17.3329
5.34862,17.7335,13.6169,-3.85193,-9.86267,4.67927,24.3949,-1.32019,-4.74508,2.60242,-2.62348,3.37957,-10.3366,-0.959415,7.40187,-6.6598,-7.67951,-5.78319,32.5736,-9.42521,-2.8719,11.9309,-5.31375,-1.22305,1.03368e-14,-5.08889e-14,-32.2576,-3.8195,-58.0325,71.1561,29.4754,-14.5981,6.73131,7.12502,11.5524,-22.9303,1.03368e-14,-5.08889e-14,-49.7106,8.98957,73.4074,48.448,5.75558,-11.2797,50.4837,7.12502,14.751,79.9388,-32.4936,-3.94124,20.2306,55.4465,-13.7852,-17.3141,6.23377,-9.76712,0.272494,-27.7794,39.0547,-15.9839,1.33131,-18.9998
5.33438,17.7539,13.466,-3.98232,-9.74636,4.11267,24.4971,-1.47062,-4.42319,2.55713,-2.70817,3.63935,-10.4314,-1.00098,7.54794,-5.97775,-7.53596,-6.05014,32.1255,-9.24395,-2.76497,11.6342,-5.25561,-1.06655,-1.11319e-14,2.06736e-14,-32.8396,-3.32604,-57.804,72.8586,30.0331,-14.2586,5.99844,7.12502,11.8798,-23.6445,-1.11319e-14,2.06736e-14,-50.3499,9.67932,73.0385,48.0514,6.00905,-11.4478,50.7335,7.12502,14.5891,80.2004,-31.4293,-3.62675,20.6033,57.0888,-13.9837,-17.6712,8.15703,-10.3815,0.480292,-26.9076,39.5319,-15.6464,0.723335,-15.734
5.32662,17.7746,13.3184,-4.12337,-9.48691,3.89837,24.6033,-1.5403,-4.16118,2.47029,-2.72339,3.70318,-10.5943,-1.00722,7.48535,-5.57766,-7.55287,-6.25144,32.0912,-9.29977,-2.64311,11.5623,-5.29238,-0.97568,1.94809e-14,-4.77083e-15,-33.7274,-3.61113,-57.4661,74.4431,31.1415,-14.1997,5.76217,7.12502,11.9365,-23.8775,1.94809e-14,-4.77083e-15,-50.8233,9.91055,72.7757,47.6073,6.32722,-11.9987,50.3053,7.12502,14.0582,79.8098,-30.465,-3.68024,20.5405,58.746,-14.204,-17.7077,10.4706,-10.9166,0.574573,-26.4985,39.891,-15.3437,0.264838,-13.9657
5.31755,17.7947,13.1699,-4.19786,-9.20145,3.85248,24.5571,-1.56074,-3.98573,2.46165,-2.70542,3.6623,-10.5929,-1.00723,7.32711,-5.56491,-7.66768,-6.42507,32.129,-9.53681,-2.3045,11.6111,-5.3783,-0.854831,2.18663e-14,-4.6118e-14,-34.6456,-4.33861,-57.0721,76.0583,32.3857,-14.0521,5.99797,7.12502,12.0789,-23.6334,2.18663e-14,-4.6118e-14,-51.1005,9.98108,72.4872,47.4422,7.00337,-12.2628,50.3916,7.12502,13.8037,79.9136,-29.5659,-3.80288,20.3415,60.2675,-14.0802,-17.8651,12.7994,-11.5447,0.60977,-26.2834,40.1545,-14.771,-0.0902993,-15.1243
5.30266,17.8219,13.0258,-4.289,-8.92407,3.80983,24.4024,-1.66042,-3.93563,2.5269,-2.82143,3.63879,-10.4221,-1.07459,7.29252,-5.58247,-7.64125,-6.40861,32.113,-9.52812,-2.20814,11.612,-5.36119,-0.821696,-2.8625e-14,9.54166e-15,-35.4877,-4.90657,-56.9208,77.8618,33.3741,-13.9206,5.99595,7.12502,12.2057,-23.6279,-2.8625e-14,9.54166e-15,-51.4278,10.3675,72.0656,47.3662,7.31146,-12.2336,50.9265,7.12502,13.8319,80.4466,-28.4879,-3.73565,20.1357,61.6379,-14.0232,-18.0933,14.4161,-12.0881,0.785622,-26.0428,40.3024,-14.051,-0.534257,-15.2494
5.28855,17.848,12.8736,-4.34583,-8.54575,3.71852,24.4173,-1.80749,-3.86714,2.48849,-2.99234,3.66161,-10.4505,-1.15474,7.3357,-5.6272,-7.59706,-6.21378,32.3251,-9.41991,-2.47985,11.6746,-5.32373,-0.948307,1.31198e-14,1.74931e-14,-36.5157,-5.47361,-56.8132,79.935,34.391,-13.2455,5.1381,7.12502,12.8565,-24.4459,1.31198e-14,1.74931e-14,-51.7996,10.7481,71.6987,47.0633,7.50916,-12.4736,51.2685,7.12502,13.6005,80.8043,-27.3831,-3.7143,19.9365,62.865,-14.0507,-17.9048,14.8135,-12.7028,0.882747,-25.7894,40.5141,-13.3396,-0.92953,-14.7107
5.27241,17.8693,12.7174,-4.32262,-8.16502,3.56712,24.3618,-1.93447,-3.74385,2.47522,-3.11695,3.71922,-10.4207,-1.21829,7.36536,-5.65199,-7.56161,-6.09407,32.2609,-9.35577,-2.57591,11.6386,-5.29178,-0.99307,-8.11041e-14,3.97569e-14,-37.3851,-6.54142,-56.5323,81.6767,35.5119,-12.6981,4.98762,7.12502,13.3842,-24.5625,-8.11041e-14,3.97569e-14,-52.1126,10.9117,71.5229,46.8803,8.03269,-12.6841,51.141,7.12502,13.3977,80.6902,-26.2581,-3.68656,19.8296,63.8627,-14.3152,-17.706,16.4684,-13.3672,1.08236,-25.4728,40.5714,-12.3812,-1.36528,-16.6478
5.2507,17.8806,12.5531,-4.24156,-7.83636,3.128,24.1501,-1.97037,-3.21534,2.6139,-3.01826,3.73387,-10.1925,-1.20814,7.01847,-5.77697,-7.63151,-5.79554,32.0669,-9.53766,-2.40444,11.5775,-5.31448,-0.9983,-2.10712e-14,-1.59028e-14,-38.4457,-8.43229,-56.1266,83.342,36.6178,-12.2026,4.87135,7.12502,13.8618,-24.6467,-2.10712e-14,-1.59028e-14,-51.9588,10.6774,71.3737,46.8462,8.29815,-12.133,51.1651,7.12502,13.9288,80.6786,-25.2055,-3.34461,20.1464,64.7228,-14.4085,-17.8151,17.6333,-14.2146,1.37028,-24.7994,40.7875,-11.2908,-1.83367,-21.3437
5.23445,17.9286,12.4443,-4.52802,-7.29347,3.18534,24.3664,-2.06378,-3.14831,2.32614,-3.12123,3.73594,-10.6244,-1.23213,7.04827,-5.42489,-7.67392,-5.87071,32.3822,-9.60898,-2.45417,11.6375,-5.3664,-1.00722,-2.78299e-14,2.54444e-14,-40.3171,-9.23615,-55.3353,85.3781,37.1755,-11.5065,2.97854,7.12502,14.5325,-26.4924,-2.78299e-14,2.54444e-14,-52.8762,10.4437,71.2781,46.7547,8.46919,-11.7854,51.2623,7.12502,14.2638,80.7524,-23.1501,-3.48701,19.6591,65.159,-14.8103,-17.2787,17.4555,-14.1611,1.56678,-24.8053,40.613,-10.4095,-2.22755,-24.2638
5.20713,17.9428,12.2618,-4.49467,-7.0122,2.58066,24.0819,-2.05216,-2.54802,2.63288,-2.93197,3.86769,-10.1742,-1.19282,6.7493,-5.78333,-7.83729,-5.66187,32.2794,-9.84848,-2.4307,11.6589,-5.43891,-1.07438,-2.54444e-14,-4.77083e-15,-41.2555,-11.2126,-54.8676,87.2701,38.089,-10.9919,1.25893,7.12502,15.0283,-28.1757,-2.54444e-14,-4.77083e-15,-52.3985,10.3411,71.2857,46.6313,8.41923,-12.1825,50.3711,7.12502,13.8811,79.8879,-21.9184,-2.96752,20.2666,65.5439,-15.2849,-17.1432,13.9018,-14.92,1.64966,-23.9618,40.5499,-9.09054,-2.60923,-24.1948
5.18878,17.9885,12.1421,-4.80154,-6.56424,2.76692,23.8829,-2.14678,-2.7209,2.75307,-3.10148,3.86461,-9.9006,-1.28019,6.87632,-5.79783,-7.88547,-5.94556,32.3686,-9.94431,-2.18745,11.735,-5.48527,-0.957517,3.06128e-14,-2.22639e-14,-42.4461,-12.3812,-54.2412,89.157,38.8577,-11.1723,0.558103,7.12502,14.8545,-28.8894,3.06128e-14,-2.22639e-14,-52.6381,10.472,71.2163,46.4784,8.49898,-12.9141,49.223,7.12502,13.176,78.7867,-19.9075,-2.93534,19.7093,65.6011,-15.4325,-16.7323,9.82525,-14.7915,1.6163,-24.093,40.0982,-8.18306,-2.94671,-22.0031
5.16298,18.0191,12.0049,-5.00846,-6.25186,2.43291,23.9104,-2.24433,-2.53732,2.86198,-3.16441,4.03583,-9.78393,-1.32092,6.97867,-5.86235,-7.87169,-5.92174,32.195,-9.8982,-2.24886,11.6717,-5.46737,-0.97449,-6.20208e-14,9.54166e-15,-43.5105,-13.8524,-53.5294,90.8066,39.1271,-11.8968,0.522603,7.12502,14.1565,-28.9751,-6.20208e-14,9.54166e-15,-52.7851,10.6874,71.136,46.4175,8.55212,-13.1707,48.9769,7.12502,12.9286,78.5564,-18.1571,-2.59798,19.9005,65.6037,-14.4234,-16.7868,9.99782,-14.9156,1.77986,-23.6116,39.8842,-7.90227,-3.09672,-19.7448
5.13852,18.0389,11.8559,-5.01455,-5.92788,2.5044,23.7661,-2.26673,-2.6989,2.85615,-3.23065,4.0709,-9.6933,-1.34921,7.12175,-5.56475,-7.87469,-6.00318,31.8621,-9.94001,-2.10535,11.4944,-5.47982,-0.886427,-5.36719e-14,4.77083e-14,-44.6377,-15.3943,-52.7596,92.371,39.3981,-12.8365,0.674997,7.12502,13.2508,-28.8838,-5.36719e-14,4.77083e-14,-53.0747,10.6113,71.1188,46.7713,8.85617,-12.7705,49.8106,7.12502,13.3144,79.3653,-16.6272,-2.15188,19.6575,65.5321,-13.7543,-16.5519,12.2922,-15.2682,1.8449,-23.5992,39.4375,-7.18628,-3.30645,-10.1616
5.10124,18.0566,11.7121,-5.14483,-6.05883,2.06279,23.7119,-2.10519,-2.5258,2.89128,-2.95561,4.26044,-9.66094,-1.22426,7.14702,-5.0056,-7.9357,-6.39462,31.4674,-10.1617,-1.51842,11.296,-5.55925,-0.5972,1.55052e-14,-2.8625e-14,-46.1468,-16.6696,-51.7742,94.0773,39.3995,-13.7332,0.423377,7.12502,12.3864,-29.1897,1.55052e-14,-2.8625e-14,-53.5289,10.3182,71.1937,47.3111,9.23149,-11.7034,50.8524,7.12502,14.3428,80.337,-14.9208,-1.13601,20.2156,65.287,-13.2341,-16.4486,13.2949,-15.5949,2.3166,-22.8722,39.2492,-6.9306,-3.60328,-12.5117
5.0931,18.0708,11.5605,-5.10598,-5.33,2.4261,23.8486,-2.2311,-2.59455,2.47901,-3.1349,4.20729,-10.1742,-1.27486,7.21833,-4.13315,-7.96406,-6.98401,31.4046,-10.3017,-1.0891,11.1733,-5.64914,-0.320758,2.70347e-14,-4.92986e-14,-47.5037,-18.4438,-50.3371,94.9668,39.5335,-14.5464,0.716168,7.12502,11.6022,-28.9426,2.70347e-14,-4.92986e-14,-54.4009,10.05,71.234,47.7111,9.26852,-10.9512,51.4476,7.12502,15.0675,80.8792,-13.3064,-1.26114,19.4652,64.9549,-12.055,-15.8742,15.2905,-16.1209,1.98079,-23.2911,39.0321,-6.63736,-3.91985,-14.1193
5.06552,18.0799,11.4148,-5.36795,-5.02762,1.632,23.5889,-2.42477,-1.89445,2.91571,-3.19151,4.43563,-9.56112,-1.36037,7.03851,-4.54801,-7.97055,-7.02074,31.3343,-10.3183,-0.90695,11.2409,-5.63304,-0.270678,4.77083e-15,-3.18055e-15,-47.8415,-20.2314,-49.687,95.9189,39.3024,-15.7011,0.102534,7.12502,10.4885,-29.6158,4.77083e-15,-3.18055e-15,-54.0922,10.1885,71.2246,47.8909,9.37485,-10.6559,51.4291,7.12502,15.3519,80.8391,-11.2332,-0.701958,20.3577,64.3645,-11.7039,-15.9731,15.5691,-16.3308,1.9782,-22.2368,38.9303,-5.87095,-4.29012,-12.65
5.03913,18.0803,11.2726,-5.59446,-4.84694,1.12155,23.6006,-2.53436,-1.53903,2.99265,-3.22279,4.65707,-9.48361,-1.3889,7.08877,-4.5248,-7.94489,-7.04916,31.3386,-10.2535,-0.995801,11.2326,-5.61722,-0.289256,2.98177e-14,-9.54166e-15,-48.8119,-21.1469,-48.674,97.105,38.8506,-16.7671,-0.139473,7.12502,9.46004,-29.9071,2.98177e-14,-9.54166e-15,-54.4961,10.2897,71.2422,48.2098,9.48625,-10.7187,51.3462,7.12502,15.2914,80.7609,-9.27535,-0.056977,20.9539,63.7202,-11.5763,-16.0307,15.1212,-16.5493,2.01687,-21.5112,38.7827,-5.1958,-4.5426,-11.234
5.02284,18.0817,11.1328,-5.71677,-4.69918,1.09311,23.4691,-2.54421,-1.40071,3.06354,-3.20103,4.68312,-9.34332,-1.38993,7.01591,-4.58078,-7.97315,-6.96833,31.1934,-10.2597,-1.11283,11.1742,-5.62167,-0.342551,3.26007e-14,-2.22639e-14,-49.8356,-22.3818,-47.5114,98.0694,38.1439,-17.6521,0.4764,7.12502,8.60607,-29.3282,3.26007e-14,-2.22639e-14,-54.6932,10.3216,71.2271,48.5476,9.64959,-10.9076,50.7394,7.12502,15.1095,80.1679,-7.49894,0.493465,20.9102,63.0005,-11.2034,-15.985,14.8387,-16.8844,1.93911,-21.3859,38.6988,-4.78416,-4.67295,-10.8612
5.00931,18.0798,10.9889,-5.70487,-4.61774,0.898045,23.134,-2.56842,-1.049,3.17145,-3.14805,4.72736,-9.06846,-1.38866,6.81197,-4.71234,-8.00312,-6.8451,31.2276,-10.2707,-1.2446,11.1971,-5.62496,-0.417805,2.78299e-15,-1.27222e-14,-50.6503,-23.7363,-46.4952,98.6912,37.5277,-18.517,1.01258,7.12502,7.7714,-28.8246,2.78299e-15,-1.27222e-14,-54.8514,10.2206,71.2582,49.0291,9.87068,-10.8648,50.6063,7.12502,15.1507,80.0317,-5.889,1.09366,21.0776,62.2083,-10.5867,-16.1886,15.2001,-17.3401,1.81819,-21.069,38.5923,-4.34821,-4.76982,-9.42967
4.99233,18.0739,10.8378,-5.71401,-4.74315,0.761647,22.6931,-2.49615,-0.832777,3.45368,-3.01663,4.74653,-8.54648,-1.35618,6.61744,-5.01899,-8.0361,-6.62487,31.2593,-10.3073,-1.30648,11.251,-5.61853,-0.495235,4.69132e-14,0,-51.1898,-25.0047,-45.6648,99.2133,36.9656,-19.0395,1.48567,7.12502,7.26703,-28.3695,4.69132e-14,0,-54.7057,10.2243,71.2853,49.3491,10.0182,-10.9585,50.4838,7.12502,15.0605,79.916,-4.34129,1.87401,21.2313,61.3636,-9.9678,-16.3373,14.7043,-17.8033,1.82029,-20.7768,38.4231,-3.92392,-4.87351,-10.023
4.98244,18.0628,10.685,-5.76991,-4.84292,0.599089,23.3842,-2.48058,-0.624653,2.87561,-2.89588,4.87772,-9.57726,-1.25764,6.70012,-4.3267,-7.96823,-6.7715,31.5647,-10.191,-1.53526,11.229,-5.61962,-0.514982,2.38542e-15,1.11319e-14,-52.6928,-24.7129,-44.3122,99.7703,36.3838,-19.7449,1.82346,7.12502,6.58606,-28.0541,2.38542e-15,1.11319e-14,-56.072,10.0695,71.2934,49.6364,10.2807,-11.4983,49.98,7.12502,14.5404,79.4504,-2.71149,2.50614,21.3316,60.4306,-9.3213,-16.1284,10.6667,-18.2483,1.79204,-20.4773,38.3197,-3.60212,-5.13682,-11.0091
4.98048,18.0502,10.5446,-5.88553,-4.71374,0.819007,22.7832,-2.54526,-0.474797,3.11819,-2.97813,4.75942,-8.99072,-1.32833,6.44156,-4.40151,-7.98927,-6.68235,31.5203,-10.1993,-1.61961,11.215,-5.62036,-0.562128,-4.05521e-14,3.81667e-14,-53.2488,-25.6061,-43.5733,100.172,35.8725,-20.3891,2.0127,7.12502,5.96418,-27.8834,-4.05521e-14,3.81667e-14,-55.937,10.1804,71.3023,49.6481,10.4876,-11.8486,49.8807,7.12502,14.2029,79.3751,-0.925219,2.86577,20.8809,59.3564,-9.27403,-16.2123,12.9132,-18.5279,1.48526,-20.6806,38.1729,-3.50858,-5.18605,-12.497
4.97062,18.0333,10.3832,-5.94725,-4.77525,0.625737,22.7698,-2.53316,0.00635001,3.26377,-2.85304,4.72371,-8.86145,-1.29075,6.07631,-4.91506,-8.05942,-6.42911,31.6926,-10.3084,-1.60468,11.3692,-5.63298,-0.641919,2.94201e-14,-3.18055e-15,-53.8427,-26.5763,-42.8861,100.266,34.9542,-21.132,2.54364,7.12502,5.24685,-27.3714,2.94201e-14,-3.18055e-15,-55.8751,10.0481,71.2882,50.073,10.8437,-12.0014,50.2305,7.12502,14.0557,79.7352,0.586119,3.39208,21.0427,58.2503,-8.30306,-16.4797,14.1094,-18.9708,1.28298,-20.3194,38.071,-3.13645,-5.36476,-13.8569
4.96781,18.0189,10.2358,-5.97781,-4.84839,0.577616,22.6823,-2.48644,0.534571,3.62746,-2.69189,4.60058,-8.45844,-1.24645,5.55855,-6.29314,-8.21767,-5.85718,31.8988,-10.51,-1.69676,11.6822,-5.65086,-0.869826,5.32743e-14,-4.29375e-14,-54.0551,-27.9017,-42.3451,100.12,34.0756,-21.7828,3.12926,7.12502,4.61849,-26.8004,5.32743e-14,-4.29375e-14,-55.2514,9.98435,71.3395,50.5643,11.0168,-11.7473,50.5012,7.12502,14.3005,79.9888,2.18139,3.80162,20.9183,57.0041,-10.0553,-16.2282,4.58386,-19.382,1.0319,-20.1472,37.9491,-2.76002,-5.47024,-15.4293
4.96471,18.002,10.0616,-5.90138,-5.17334,0.47015,22.7457,-2.5695,0.685555,3.69135,-2.75814,4.67957,-8.41836,-1.2836,5.57989,-6.88541,-8.05454,-5.83004,32.106,-10.2267,-1.77787,11.8707,-5.52521,-0.907759,3.57812e-14,-2.38542e-14,-53.8501,-28.1659,-42.1937,99.7545,33.3988,-22.5853,4.1951,7.12502,3.84358,-25.75,3.57812e-14,-2.38542e-14,-55.5351,10.719,71.0913,50.9721,11.2233,-11.7227,50.5669,7.12502,14.3242,80.0528,3.38772,4.44146,20.9004,55.8147,-9.70923,-16.2857,3.94161,-20.1246,0.721418,-19.815,37.9699,-2.18867,-5.45865,-16.2993
4.96171,17.9784,9.89309,-5.92012,-5.51213,0.492247,22.7709,-2.47901,0.859074,3.51892,-2.5824,4.76131,-8.64247,-1.19652,5.53205,-6.2115,-7.99757,-6.14816,31.9444,-10.1313,-1.76764,11.692,-5.5251,-0.800317,-3.81667e-14,-2.54444e-14,-54.4143,-28.443,-41.361,99.2655,32.8811,-23.047,5.47848,7.12502,3.39775,-24.4742,-3.81667e-14,-2.54444e-14,-56.1295,10.8347,71.1628,51.1934,11.4987,-11.7382,50.7329,7.12502,14.3092,80.2199,4.69196,5.03782,20.7168,54.5444,-9.30383,-16.1695,4.90639,-20.7536,0.404617,-19.6021,38.0257,-1.76417,-5.47643,-16.1811
4.95309,17.9414,9.71416,-5.74121,-5.89428,0.146289,22.672,-2.38673,1.44701,3.56563,-2.31919,4.83901,-8.58131,-1.08915,5.19407,-6.4106,-8.03252,-5.88107,31.9556,-10.1417,-2.00308,11.7027,-5.52352,-0.939381,3.18055e-15,-3.18055e-15,-54.6849,-28.5419,-41.1862,98.8328,32.2085,-24.0541,5.57078,7.12502,2.42511,-24.3952,3.18055e-15,-3.18055e-15,-56.0684,10.8128,71.2385,51.3611,11.8253,-11.8389,51.0278,7.12502,14.2122,80.5215,5.66163,5.58719,20.9702,53.2826,-9.03089,-16.2291,5.51722,-21.612,0.172673,-18.9332,38.1036,-1.44073,-5.50661,-16.883
4.94717,17.9078,9.53075,-5.64496,-6.35265,-0.182516,22.5421,-2.39135,1.92992,3.64026,-2.21157,4.94052,-8.4523,-1.05395,4.98596,-6.29117,-7.94898,-6.00661,31.8492,-10.036,-1.8981,11.6491,-5.47936,-0.858246,2.98177e-14,-6.83819e-14,-54.4578,-28.393,-41.3995,98.0661,31.6785,-25.017,5.69416,7.12502,1.49516,-24.2803,2.98177e-14,-6.83819e-14,-56.2041,11.2695,71.1653,51.5397,12.1005,-12.1979,50.8895,7.12502,13.8663,80.4073,6.75782,6.20006,21.2019,51.8879,-8.75587,-16.2505,6.39298,-22.3139,-0.0449056,-18.2511,38.0894,-1.09707,-5.5488,-18.1275
4.94718,17.89,9.35418,-5.58129,-6.96141,-0.038885,22.0991,-2.21523,2.08095,3.93672,-1.99265,4.88777,-7.91232,-0.964963,4.73504,-6.39281,-7.95635,-6.11174,31.5745,-10.0818,-1.65073,11.5833,-5.47931,-0.75312,4.53229e-14,-1.59028e-14,-54.0896,-28.4709,-41.7985,97.1655,31.4241,-26.0101,5.75456,7.12502,0.535988,-24.2245,4.53229e-14,-1.59028e-14,-55.8316,11.6456,71.1659,51.5014,12.2899,-12.2404,50.7416,7.12502,13.8253,80.2622,7.8331,6.9197,20.8016,50.4075,-8.97524,-16.1383,4.98294,-22.864,-0.189794,-18.0986,37.9358,-0.735393,-5.38038,-18.4595
4.94909,17.8752,9.17398,-5.45236,-7.6091,0.171644,22.2863,-2.27624,1.72681,3.40669,-2.10194,5.07927,-8.57054,-0.991784,5.22282,-4.7791,-7.51364,-6.81724,31.2226,-9.42509,-1.74154,11.1513,-5.29351,-0.502759,-3.10104e-14,3.18055e-15,-53.8344,-26.5205,-42.0973,96.0244,31.1509,-27.2595,6.42584,7.12502,-0.670714,-23.5528,-3.10104e-14,3.18055e-15,-57.4443,12.5306,70.9097,51.6372,12.4161,-12.3343,50.5991,7.12502,13.7348,80.1258,8.686,7.68009,20.3118,48.8221,-7.68906,-15.9158,8.6095,-23.4097,-0.0991954,-18.0347,37.6456,-0.321238,-5.33851,-17.7527
4.94574,17.8563,8.98501,-5.45669,-8.38531,0.100128,22.4397,-1.93835,2.31125,3.90963,-1.56002,4.89854,-8.15561,-0.761533,4.51148,-6.62934,-7.79441,-6.01844,31.5382,-9.74892,-1.99071,11.5814,-5.35802,-0.860247,-3.61788e-14,4.6118e-14,-53.2749,-27.5747,-42.6854,94.4387,31.1967,-28.5214,7.5438,7.12502,-1.88948,-22.4276,-3.61788e-14,4.6118e-14,-56.0715,12.3942,71.1397,51.545,12.4562,-12.3656,50.6166,7.12502,13.7046,80.1454,9.57677,8.56636,20.2623,47.202,-7.17772,-15.5967,7.00765,-23.7353,0.0986586,-17.6238,37.2301,0.0976389,-5.22103,-16.0686
4.94306,17.8363,8.78839,-5.31149,-9.34434,-0.157568,22.4283,-1.73145,2.72235,4.08327,-1.19724,5.01758,-7.98467,-0.60099,4.29472,-7.01584,-7.73441,-5.94899,31.5222,-9.58476,-2.19364,11.6325,-5.29601,-0.94321,-1.39149e-14,4.45278e-14,-52.3759,-27.3527,-43.348,92.5807,31.1762,-29.9487,8.51763,7.12502,-3.26796,-21.4371,-1.39149e-14,4.45278e-14,-55.7883,12.9833,71.1692,51.3727,12.2764,-12.2972,50.3307,7.12502,13.7706,79.855,10.2025,9.60831,20.4322,45.588,-6.371,-15.4355,4.76042,-24.1253,0.328939,-16.9783,36.7824,0.468311,-4.86091,-19.4966
4.94124,17.8151,8.57137,-5.06481,-10.2853,-0.537468,23.0441,-1.69582,3.00537,3.50947,-0.987038,5.25723,-8.95943,-0.495773,4.39315,-5.44478,-7.37788,-6.36854,31.2634,-9.0825,-2.31996,11.2282,-5.14853,-0.774374,-2.22639e-14,-5.40694e-14,-52.0464,-25.6577,-43.852,90.5755,30.9323,-31.385,10.0164,7.12502,-4.65494,-19.9125,-2.22639e-14,-5.40694e-14,-57.0536,13.4147,70.9953,51.2702,12.5529,-12.2665,50.3388,7.12502,13.8002,79.861,10.5519,10.655,20.762,44.02,-4.02545,-15.1065,8.07655,-24.6532,0.507382,-16.172,36.2458,1.08175,-4.41715,-19.7256
4.93424,17.7931,8.34424,-4.7739,-11.0363,-0.742184,22.893,-1.63745,3.22176,3.71526,-0.874826,5.37227,-8.65736,-0.452087,4.34737,-5.45942,-7.16807,-6.42764,30.8659,-8.75239,-2.35284,11.0703,-5.00669,-0.725154,2.78299e-15,5.725e-14,-50.5779,-25.3908,-44.9274,88.0244,30.9829,-32.6654,11.9192,7.12502,-5.89116,-17.9789,2.78299e-15,5.725e-14,-56.6857,14.0362,71.1417,51.0642,12.6392,-12.5546,50.7075,7.12502,13.5225,80.2485,10.7619,11.5686,20.9134,42.4803,-4.59552,-14.556,1.0479,-25.2407,0.518418,-15.5528,35.6244,1.77078,-3.9072,-18.9185
4.92624,17.7782,8.11843,-4.51713,-11.783,-0.63313,23.1545,-1.54947,3.10317,3.67839,-0.769567,5.39025,-8.84036,-0.397878,4.41793,-5.72088,-6.98798,-6.47936,30.8322,-8.45187,-2.40992,11.1022,-4.88281,-0.713522,1.98785e-15,-5.24792e-14,-49.2761,-24.8355,-46.0038,85.26,30.9331,-34.1735,13.3652,7.12502,-7.34706,-16.4872,1.98785e-15,-5.24792e-14,-56.7247,14.5759,71.1436,50.9828,12.5989,-12.7118,50.3341,7.12502,13.371,79.885,10.8902,12.3202,20.6133,40.9862,-5.46095,-13.7995,-3.8301,-25.7452,0.461453,-15.2701,34.8467,2.5552,-3.29398,-18.8621
4.91119,17.763,7.88648,-4.26329,-12.6681,-0.778218,23.3084,-1.41841,3.26005,3.87708,-0.571092,5.35304,-8.71222,-0.312218,4.22397,-6.15671,-6.87023,-6.16136,30.607,-8.27109,-2.50761,11.0716,-4.77292,-0.790328,7.95139e-16,-3.65764e-14,-47.6542,-24.5923,-47.4106,82.1816,30.7602,-35.5092,14.7772,7.12502,-8.63621,-15.0261,7.95139e-16,-3.65764e-14,-56.1716,14.9896,71.132,50.761,12.4011,-12.6879,50.5884,7.12502,13.394,80.1378,10.926,13.1913,20.6813,39.5742,-6.48341,-13.1039,-7.08352,-26.1075,0.321392,-14.5939,33.9208,3.48686,-2.40721,-19.0157
4.8892,17.7482,7.64696,-4.05104,-13.5627,-0.954254,23.6082,-1.11303,3.48472,3.80726,-0.0858366,5.44255,-8.97227,-0.0871145,4.06111,-5.75032,-6.84575,-6.51389,30.4641,-8.25892,-2.31495,10.9671,-4.78398,-0.640648,-5.24792e-14,4.77083e-14,-46.6309,-24.4187,-48.0133,78.736,30.8383,-36.2033,16.2072,7.12502,-9.30598,-13.5674,-5.24792e-14,4.77083e-14,-55.9463,14.7319,71.6279,50.4767,12.2841,-12.742,50.7828,7.12502,13.3418,80.3356,10.8194,14.0408,20.8342,38.3485,-7.9083,-11.8905,-7.61716,-26.3027,0.205447,-13.8079,32.7914,4.65286,-1.50163,-18.9626
4.86857,17.7331,7.40224,-3.71442,-14.2428,-1.03266,23.826,-1.08284,3.3797,3.77518,-0.0497367,5.52798,-9.12481,-0.0661883,4.21599,-5.98674,-6.50713,-6.37514,30.4572,-7.69516,-2.62338,10.9761,-4.54964,-0.718065,5.52621e-14,1.43125e-14,-44.7668,-23.7631,-49.2224,74.9556,30.8843,-36.2377,17.0853,7.12502,-9.33913,-12.6878,5.52621e-14,1.43125e-14,-56.031,15.0453,71.8554,50.4431,12.2236,-12.7719,51.0084,7.12502,13.3131,80.5631,10.4406,14.3662,20.7111,37.3208,-9.51985,-11.3164,-10.199,-26.5596,-0.193172,-13.1395,31.5113,5.9251,-0.492421,-19.0807
4.84765,17.7262,7.15311,-3.44666,-14.7402,-0.910859,24.249,-1.18847,2.87207,3.51573,-0.252703,5.70877,-9.62723,-0.138172,4.80629,-5.45672,-6.01116,-6.56466,30.2116,-6.90516,-2.99037,10.7584,-4.25675,-0.700036,1.86858e-14,0,-42.8129,-21.9821,-50.4374,71.2029,30.5416,-36.3019,17.174,7.12502,-9.40114,-12.5963,1.86858e-14,0,-56.6774,15.5408,72.0474,50.4609,12.3491,-12.8317,51.2421,7.12502,13.2555,80.8006,9.96105,14.2776,20.3057,36.4853,-11.0793,-10.9775,-12.2296,-26.7054,-1.021,-12.6108,30.0494,7.23706,0.839869,-18.0176
4.82766,17.7233,6.90669,-3.2272,-15.0977,-0.96102,24.3408,-1.12555,2.9931,3.98868,-0.180376,5.62107,-9.14814,-0.11824,4.5969,-6.85795,-6.0541,-6.1178,30.2398,-6.93279,-2.94484,11.0219,-4.20978,-0.815072,-4.85035e-14,-2.8625e-14,-39.9718,-23.8657,-51.5008,66.1584,31.935,-35.7439,18.2398,7.12502,-8.86267,-11.5541,-4.85035e-14,-2.8625e-14,-55.1244,15.5038,72.5542,49.8987,11.9733,-12.6781,51.3596,7.12502,13.4035,80.9084,9.44955,13.9154,20.1088,35.782,-12.7071,-10.6051,-14.0779,-26.7459,-1.88821,-11.8908,28.4825,8.53315,2.12163,-17.5976
