JuanDHNZ/ProyectoFinalCD/preprocessing/sports_trials_csv/06_03.csv
root1,root2,root3,root4,root5,root6,lowerback1,lowerback2,lowerback3,upperback1,upperback2,upperback3,thorax1,thorax2,thorax3,lowerneck1,lowerneck2,lowerneck3,upperneck1,upperneck2,upperneck3,head1,head2,head3,rclavicle1,rclavicle2,rhumerus1,rhumerus2,rhumerus3,rradius1,rwrist1,rhand1,rhand2,rfingers1,rthumb1,rthumb2,lclavicle1,lclavicle2,lhumerus1,lhumerus2,lhumerus3,lradius1,lwrist1,lhand1,lhand2,lfingers1,lthumb1,lthumb2,rfemur1,rfemur2,rfemur3,rtibia1,rfoot1,rfoot2,rtoes1,lfemur1,lfemur2,lfemur3,ltibia1,lfoot1,lfoot2,ltoes1
2.27908,17.5149,-33.5891,-5.3321,-6.06102,-1.96686,19.4809,-0.15005,0.602205,-0.32342,0.333578,3.4576,-11.3627,0.243256,3.39253,-11.6831,-2.43024,-3.11303,18.7461,-2.31345,-2.14237,7.72482,-1.53178,-0.421405,-2.18663e-15,2.3059e-14,-43.9059,-53.3473,-27.6591,67.5898,-75.9621,-18.9351,-4.81918,7.12502,7.3678,-34.6709,-2.18663e-15,2.3059e-14,-47.2213,-3.00158,78.5153,55.8747,0.0834686,-4.18563,57.8887,7.12502,21.5757,86.7068,-4.79531,-0.899561,26.7411,32.5016,-21.0866,-15.8065,15.907,-13.5932,-2.02052,-12.5129,44.9298,-16.8121,4.3894,-19.0097
2.26999,17.5148,-33.5862,-5.373,-6.08713,-1.93154,19.6822,-0.173348,0.502736,-0.110209,0.29352,3.60055,-11.2357,0.23216,3.61919,-12.3014,-2.5536,-3.67219,18.9851,-2.38148,-1.91432,7.92813,-1.58722,-0.272773,1.78906e-15,1.43125e-14,-43.1201,-53.5245,-28.1779,67.5137,-76.056,-18.7083,-5.48321,7.12502,7.58667,-35.3271,1.78906e-15,1.43125e-14,-46.8566,-2.8722,78.9905,55.4612,1.95086,-7.70518,52.608,7.12502,18.1925,81.7773,-4.67838,-0.772054,26.7769,32.3533,-21.0678,-15.7594,15.9863,-13.9693,-1.71221,-12.4909,45.1591,-16.7835,4.28594,-19.8223
2.25814,17.5144,-33.5949,-5.17063,-6.14059,-2.63412,19.96,-0.451579,0.729838,-1.00685,0.0802147,4.09747,-12.408,0.161161,4.14997,-9.06754,-1.93397,-4.05055,18.3719,-1.62991,-1.99567,7.14671,-1.24231,-0.118408,9.93923e-16,-2.22639e-14,-43.2767,-51.3044,-28.0213,67.5006,-76.3416,-18.5159,-5.93804,7.12502,7.77241,-35.7752,9.93923e-16,-2.22639e-14,-49.1385,-2.51558,79.4682,55.3648,3.64357,-8.85123,56.3208,7.12502,17.0896,85.5891,-4.74004,-0.430457,27.7011,32.0624,-20.8827,-16.0995,16.1344,-14.6423,-1.46001,-11.53,45.3323,-16.612,3.60991,-17.7527
2.25825,17.5261,-33.5645,-5.42487,-6.15507,-2.14584,19.6668,-0.124738,0.783226,-0.226272,0.430527,3.63395,-11.3651,0.283782,3.45861,-11.0804,-2.22448,-3.11262,18.426,-2.04353,-2.23977,7.50957,-1.40507,-0.414996,3.97569e-16,-2.70347e-14,-43.9729,-53.2767,-27.5642,67.4839,-76.0694,-18.9403,-5.20311,7.12502,7.36276,-35.055,3.97569e-16,-2.70347e-14,-47.3893,-3.62577,79.5946,55.0906,4.23508,-9.29768,57.1815,7.12502,16.6599,86.4865,-4.25145,-0.595128,27.0729,31.8655,-20.96,-15.8227,16.3445,-14.5864,-1.44208,-12.0961,45.3324,-17.0051,3.21373,-14.9764
2.25329,17.5293,-33.5581,-5.36371,-6.22279,-2.40284,19.5549,-0.126473,1.25408,0.447981,0.508208,3.67731,-10.5431,0.284497,3.19322,-13.6276,-2.03325,-3.24679,19.1468,-1.66327,-2.01509,8.20844,-1.23182,-0.31725,-6.75868e-15,3.89618e-14,-42.8764,-54.9051,-28.4992,67.3439,-75.6586,-19.2293,-4.36394,7.12502,7.08378,-34.2254,-6.75868e-15,3.89618e-14,-45.9419,-3.41197,79.5172,55.1468,3.64143,-8.5823,57.4827,7.12502,17.3485,86.7284,-4.16386,-0.501212,27.4034,31.6676,-20.8404,-16.2182,15.1282,-15.0609,-1.11289,-11.7801,45.3511,-16.7197,3.17441,-16.8703
2.25191,17.5311,-33.5441,-5.38058,-6.20319,-2.32409,19.3262,0.0123445,1.34017,0.85558,0.674199,3.57471,-9.96472,0.350411,2.9701,-14.229,-2.35112,-2.48516,18.4862,-2.14163,-2.59082,8.07994,-1.4544,-0.68789,2.37051e-14,-6.20208e-14,-43.15,-56.0523,-28.292,67.3867,-75.4698,-19.2467,-4.28472,7.12502,7.06703,-34.1467,2.37051e-14,-6.20208e-14,-45.1061,-3.68332,79.4035,55.4779,2.28454,-6.12191,57.4308,7.12502,19.7152,86.451,-4.05347,-0.5823,27.3146,31.5739,-20.9572,-15.8108,15.7197,-15.3229,-0.915237,-11.8931,45.1355,-16.4608,3.43541,-19.7179
2.25057,17.5354,-33.5263,-5.33362,-6.06872,-2.1911,20.0144,-0.0210987,1.2686,0.314162,0.655556,3.51551,-10.956,0.351296,2.97407,-13.7501,-2.52061,-2.84876,19.1494,-2.38804,-2.1737,8.22631,-1.5622,-0.517673,-2.5842e-15,-8.74653e-15,-44.2104,-55.4687,-27.4102,67.4398,-75.5643,-19.1963,-4.43131,7.12502,7.11564,-34.2917,-2.5842e-15,-8.74653e-15,-46.1942,-4.22944,79.7555,55.2394,4.65234,-10.815,51.8525,7.12502,15.1987,81.2743,-4.0022,-0.703495,27.147,31.4678,-20.9045,-16.1352,15.8118,-15.6177,-0.975832,-12.0432,44.8741,-16.9434,3.20849,-21.5779
2.24984,17.5415,-33.5086,-5.22972,-5.98624,-2.0658,19.8181,-0.0533882,1.19474,0.317167,0.587616,3.50291,-10.8396,0.322308,3.01878,-13.552,-2.47903,-2.87476,19.1239,-2.33257,-2.17867,8.18231,-1.5374,-0.505683,-7.00716e-15,-9.54166e-15,-44.3327,-55.6953,-27.2513,67.368,-75.3786,-18.9872,-4.63637,7.12502,7.31751,-34.4898,-7.00716e-15,-9.54166e-15,-46.2044,-3.82773,79.4854,55.7283,2.2439,-8.07481,50.4176,7.12502,17.8369,79.6196,-3.99519,-0.771314,26.9962,31.3616,-20.8693,-16.0137,15.6314,-15.9111,-1.04916,-12.1733,44.5041,-16.7442,2.88659,-19.921
2.25121,17.5492,-33.4937,-5.2484,-5.92267,-1.98982,19.9039,-0.136031,1.17038,0.309488,0.480626,3.54521,-10.8924,0.274999,3.11245,-13.4913,-2.30121,-2.94985,19.1519,-2.05861,-2.2435,8.18082,-1.41996,-0.484216,1.97294e-14,-3.33958e-14,-44.0222,-55.3711,-27.5354,67.3366,-75.5799,-19.1858,-4.49279,7.12502,7.12578,-34.3528,1.97294e-14,-3.33958e-14,-46.3507,-3.62528,79.6465,55.7948,2.18495,-6.77189,53.4749,7.12502,19.0902,82.558,-3.82371,-0.818685,26.8859,31.1967,-20.8638,-16.1729,15.4754,-16.0923,-1.10487,-12.2828,44.0855,-16.4128,2.82087,-18.8977
2.25298,17.5601,-33.4688,-5.11396,-6.21044,-1.9628,19.3257,-0.502289,0.686439,-0.439494,-0.0547061,3.98661,-11.3868,0.076394,4.04778,-9.07139,-1.76912,-3.87253,17.72,-1.38836,-2.31044,6.92993,-1.12841,-0.223389,-5.56597e-15,-7.15625e-15,-42.8954,-52.3905,-28.5731,67.3399,-76.0438,-19.366,-4.46534,7.12502,6.9519,-34.3312,-5.56597e-15,-7.15625e-15,-48.9901,-2.05832,79.714,56.3431,1.65707,-6.93083,52.6139,7.12502,18.9373,81.7121,-3.7694,-0.605551,26.8555,31.004,-21.0044,-15.8898,16.2441,-16.3043,-0.799808,-12.2944,43.6001,-16.7057,2.9394,-18.5979
2.24978,17.5671,-33.4568,-5.08836,-6.24156,-2.00634,19.9751,-0.424553,0.861364,-0.3844,0.103738,3.9501,-11.7042,0.142749,3.87722,-10.5994,-1.95863,-3.85381,18.4414,-1.54785,-2.32003,7.43723,-1.22589,-0.265851,2.93704e-14,-2.94201e-14,-43.0169,-52.9221,-28.4711,67.2786,-76.0002,-19.3335,-4.15603,7.12502,6.98325,-34.0208,2.93704e-14,-2.94201e-14,-48.7709,-2.33499,79.9087,56.3249,2.66451,-7.70612,54.2392,7.12502,18.1916,83.4086,-3.62652,-0.416983,26.9498,30.81,-21.0788,-16.0341,16.6279,-16.5297,-0.681525,-12.2128,43.0808,-16.5662,2.90221,-18.2742
2.25592,17.5752,-33.4243,-5.0423,-6.46063,-1.77247,19.921,-0.350944,0.712711,-0.539974,0.163822,3.88941,-11.8542,0.180766,3.88078,-10.0559,-1.91445,-3.8234,18.3519,-1.51046,-2.39609,7.30991,-1.20858,-0.285437,-3.13086e-15,-1.27222e-14,-43.382,-52.7992,-28.1442,67.2593,-75.9972,-19.3717,-3.90283,7.12502,6.94638,-33.7689,-3.13086e-15,-1.27222e-14,-49.2901,-2.30164,79.8812,56.3928,2.39827,-6.87181,55.7403,7.12502,18.9941,84.8328,-3.48315,-0.322118,26.6415,30.6443,-21.1255,-15.8319,16.7518,-16.6156,-0.494381,-12.5165,42.4717,-16.3288,3.3266,-19.0931
2.25967,17.5777,-33.4096,-5.02681,-6.27958,-1.77403,19.9312,-0.402916,0.859554,-0.284099,0.117319,3.8728,-11.5653,0.143775,3.78252,-10.9616,-1.93406,-3.74161,18.5216,-1.48033,-2.48689,7.52549,-1.20447,-0.337036,2.27608e-14,-3.26007e-14,-43.1244,-53.6248,-28.2796,67.1988,-75.847,-19.319,-4.12624,7.12502,6.99719,-33.9906,2.27608e-14,-3.26007e-14,-48.6819,-2.2499,79.861,56.2337,2.29093,-6.45763,56.2553,7.12502,19.3924,85.3083,-3.34003,-0.395173,26.6226,30.4827,-21.1847,-15.8714,17.0843,-16.8258,-0.559546,-12.5554,41.834,-16.1376,3.66467,-18.7704
2.26329,17.5804,-33.392,-4.99064,-6.29867,-1.86671,20.2984,-0.445539,0.970982,-0.555206,0.116465,3.91848,-12.0842,0.146798,3.79039,-10.6479,-1.9477,-3.76779,18.9943,-1.46604,-2.65963,7.62457,-1.22366,-0.388779,-1.98785e-15,1.74931e-14,-43.4723,-53.1644,-28.0092,67.2642,-75.8155,-19.2218,-4.37436,7.12502,7.09101,-34.2356,-1.98785e-15,1.74931e-14,-49.2113,-2.17577,79.8202,56.1806,1.83074,-6.28722,55.4249,7.12502,19.5562,84.4613,-3.22782,-0.317985,26.7163,30.3131,-21.143,-15.9199,17.3721,-16.9845,-0.574359,-12.4587,41.1172,-15.9638,3.99598,-18.8028
2.26651,17.5863,-33.3686,-4.96509,-6.36067,-1.94445,19.6798,-0.490957,1.03169,-0.507954,0.0529672,3.97151,-11.6735,0.109909,3.81427,-9.21215,-1.77618,-3.55021,18.1744,-1.32256,-2.90202,7.09518,-1.13652,-0.467066,-2.48481e-16,5.1684e-14,-43.5626,-52.7769,-27.9804,67.3289,-75.9745,-19.0995,-4.65413,7.12502,7.20906,-34.5113,-2.48481e-16,5.1684e-14,-49.4756,-2.025,79.7273,56.1211,1.32893,-7.03383,50.8621,7.12502,18.8383,79.9699,-3.0568,-0.226701,26.7925,30.0813,-21.0759,-15.9769,17.2581,-17.087,-0.655387,-12.3817,40.3858,-15.9631,4.41153,-19.1839
2.27132,17.5969,-33.3401,-4.91345,-6.45271,-1.88507,19.9099,-0.464819,1.0933,-0.534698,0.108179,3.94346,-11.8383,0.133022,3.7387,-9.9689,-1.74412,-3.50685,18.6503,-1.21982,-2.96495,7.38422,-1.10472,-0.497658,1.67476e-14,4.77083e-15,-43.6042,-52.8525,-27.9438,67.3326,-76.096,-19.2009,-4.44257,7.12502,7.1112,-34.3031,1.67476e-14,4.77083e-15,-49.4134,-1.94647,79.7164,55.9716,1.06546,-6.73919,48.6627,7.12502,19.1216,77.7427,-2.87226,-0.177649,26.6999,29.7432,-20.8654,-15.9237,16.1377,-17.1101,-0.787933,-12.4668,39.5852,-16.074,4.8004,-19.2646
2.27898,17.614,-33.3121,-4.81758,-6.48558,-1.75079,19.614,-0.535565,0.974319,-0.806738,-0.0126295,3.94356,-11.9723,0.0876162,3.84453,-8.4352,-1.57104,-3.50223,18.1737,-1.05862,-3.07513,6.95537,-1.01665,-0.500358,-7.05686e-15,0,-43.8433,-52.0964,-27.8028,67.3372,-76.4021,-19.4365,-3.76178,7.12502,6.88381,-33.6299,-7.05686e-15,0,-50.241,-1.73122,79.6748,55.9388,1.05592,-6.86383,51.8172,7.12502,19.0018,80.909,-2.74514,-0.219341,26.4888,29.4688,-20.7868,-16.0331,15.3272,-17.2151,-0.936968,-12.648,38.8032,-15.8837,5.08591,-18.589
2.28676,17.6379,-33.2881,-4.67729,-6.4398,-1.69085,19.4343,-0.598253,1.00546,-0.88142,-0.0918316,3.9435,-11.9497,0.0488463,3.84717,-8.34528,-1.13806,-3.61945,18.5044,-0.466319,-2.92808,7.04674,-0.734072,-0.384857,3.72721e-16,1.11319e-14,-43.8505,-51.9107,-27.8138,67.3463,-76.5545,-19.5673,-3.3886,7.12502,6.75755,-33.2608,3.72721e-16,1.11319e-14,-50.4832,-1.55687,79.6823,55.8159,1.28558,-7.02657,51.6098,7.12502,18.8453,80.7169,-2.63788,-0.138878,26.4041,29.1636,-20.7527,-16.1153,15.1421,-17.3936,-1.14347,-12.753,37.9811,-15.5113,5.46746,-17.4518
2.29419,17.6277,-33.2716,-4.57263,-6.3695,-1.71069,19.6247,-0.587034,1.17252,-0.667574,-0.0415086,3.93188,-11.8181,0.0583502,3.72096,-9.49799,-1.45936,-3.48218,18.3817,-0.83093,-3.14521,7.21132,-0.924087,-0.517882,-9.64106e-15,8.74653e-15,-43.6338,-52.7273,-27.8921,67.3635,-76.4348,-19.4487,-3.64551,7.12502,6.87202,-33.514,-9.64106e-15,8.74653e-15,-49.767,-1.66355,79.7821,55.4389,1.57089,-7.32069,51.6041,7.12502,18.5624,80.7385,-2.50083,-0.0929189,26.4186,28.7947,-20.879,-16.2916,14.6575,-17.5593,-1.43562,-12.7084,37.1672,-15.4849,5.74419,-18.4636
2.30277,17.6318,-33.2463,-4.45734,-6.62767,-1.89366,19.9166,-0.339692,1.47997,-0.557923,0.360409,3.89,-11.8803,0.22524,3.38237,-11.0213,-1.50391,-3.29372,19.2928,-0.828756,-3.08324,7.78168,-0.933945,-0.550237,-1.44616e-14,5.08889e-14,-44.3927,-53.5039,-27.1337,67.4585,-76.4698,-19.1999,-4.00022,7.12502,7.11219,-33.8607,-1.44616e-14,5.08889e-14,-49.126,-2.33566,79.9466,55.0443,1.62822,-6.89657,52.7175,7.12502,18.9703,81.8124,-2.3193,0.143128,26.62,28.3672,-20.308,-16.4258,14.9438,-17.5728,-1.58057,-12.4255,36.3117,-15.6804,5.99858,-17.0146
2.31155,17.6619,-33.2099,-4.31273,-6.80299,-1.8963,19.6236,-0.46869,1.14919,-0.553793,0.139577,4.22959,-11.7011,0.153663,4.01152,-10.8162,-1.17056,-3.84379,19.2281,-0.269707,-3.12065,7.72841,-0.708804,-0.414268,6.26172e-15,-1.74931e-14,-42.9432,-53.1405,-28.0969,67.3506,-76.3565,-19.1377,-3.9639,7.12502,7.17219,-33.8224,6.26172e-15,-1.74931e-14,-49.4517,-1.16312,79.9371,55.0312,0.810534,-6.82377,49.7932,7.12502,19.0403,78.8812,-2.18005,0.306583,26.5845,28.0224,-20.1661,-16.4703,13.7109,-17.6528,-1.72252,-12.4357,35.424,-15.4214,6.60981,-16.8726
2.32026,17.6784,-33.1802,-4.2103,-6.8188,-1.82645,19.2517,-0.474107,1.11365,-0.386276,0.100437,4.21433,-11.296,0.130547,4.00855,-10.8621,-1.13374,-3.85631,18.9791,-0.236289,-3.05025,7.65412,-0.681396,-0.38428,2.5842e-15,1.27222e-14,-42.7006,-53.5891,-28.2786,67.2726,-76.1781,-19.2112,-3.63669,7.12502,7.10125,-33.4976,2.5842e-15,1.27222e-14,-49.1888,-0.990599,79.8435,54.8499,0.629853,-6.514,51.6437,7.12502,19.3382,80.7022,-1.97114,0.409722,26.4774,27.6254,-20.1056,-16.4435,14.3902,-17.7666,-1.96218,-12.536,34.5129,-14.895,7.03054,-17.7618
2.33014,17.6789,-33.1529,-4.19825,-6.85126,-1.76479,19.0834,-0.0866134,1.65748,-0.0505698,0.652841,3.65694,-10.8391,0.334708,2.90348,-11.9204,-1.60635,-2.73428,19.1184,-1.03504,-3.1154,7.87901,-0.996626,-0.681141,-7.45443e-16,2.8625e-14,-45.1314,-55.1852,-26.4412,67.4379,-76.2254,-19.1465,-3.79032,7.12502,7.16372,-33.6491,-7.45443e-16,2.8625e-14,-47.9627,-2.80182,79.7236,54.3967,1.06507,-7.16209,51.2732,7.12502,18.7149,80.3929,-1.67528,0.650083,26.4092,27.2111,-20.0766,-16.6001,14.7516,-17.6844,-2.35936,-12.5783,33.6053,-14.5901,7.19637,-17.5581
2.3426,17.6799,-33.1225,-4.08123,-6.99238,-1.83692,19.2763,-0.12763,1.65303,-0.368697,0.632941,3.77239,-11.309,0.333111,3.05215,-11.242,-1.50854,-2.81179,19.0492,-0.893144,-3.23858,7.73495,-0.940816,-0.687215,1.85864e-14,-5.56597e-14,-45.1069,-54.653,-26.3496,67.4381,-76.2115,-19.0744,-4.07199,7.12502,7.23335,-33.9284,1.85864e-14,-5.56597e-14,-48.8173,-2.6259,79.8485,54.4144,1.6941,-7.54137,51.5437,7.12502,18.3501,80.6982,-1.53941,0.848525,26.4575,26.9142,-20.0379,-16.6261,15.2483,-17.6795,-2.68792,-12.4753,32.7786,-14.3442,7.46052,-18.6368
2.35669,17.6981,-33.0816,-3.93272,-7.30916,-1.76578,18.845,-0.404049,1.36038,-0.75773,0.227913,4.01819,-11.4892,0.172883,3.61307,-9.10921,-1.02122,-3.27875,18.3249,-0.237383,-3.39832,7.12202,-0.643613,-0.577383,1.80894e-14,-4.77083e-15,-43.7972,-53.3277,-27.4965,67.3298,-76.0631,-19.1604,-3.91576,7.12502,7.15036,-33.775,1.80894e-14,-4.77083e-15,-50.3442,-1.32,79.6365,54.5896,1.43899,-5.67407,56.9249,7.12502,20.1457,85.9004,-1.45098,1.02078,26.2925,26.6903,-20.198,-16.4283,14.9691,-17.7311,-2.92677,-12.5553,31.9563,-13.9946,7.99927,-16.5874
2.36874,17.7071,-33.0584,-3.98977,-7.1859,-1.59589,18.9118,-0.0928172,1.72672,0.0544984,0.634719,3.53703,-10.6204,0.317167,2.73068,-12.552,-1.43597,-2.30217,19.093,-0.794949,-3.45036,7.98042,-0.88841,-0.844721,2.44505e-14,-1.82882e-14,-44.7066,-55.7916,-26.8079,67.3828,-75.9556,-19.1752,-3.97184,7.12502,7.13604,-33.8315,2.44505e-14,-1.82882e-14,-47.9062,-2.59323,79.5045,54.0118,1.48776,-5.61295,55.7322,7.12502,20.2044,84.7014,-1.17632,0.939494,26.0372,26.4532,-20.1599,-16.4508,14.2453,-17.7585,-3.39758,-12.7879,31.1702,-13.3608,8.38596,-17.8658
2.38434,17.7072,-33.0184,-3.98416,-7.41795,-1.45762,19.0551,-0.0571476,1.45272,-0.164831,0.651346,3.67096,-10.9539,0.346689,3.03927,-11.9578,-1.35261,-2.72838,18.9879,-0.627615,-3.41649,7.84382,-0.829916,-0.73902,2.83765e-14,2.22639e-14,-44.5525,-55.089,-26.6998,67.3813,-76.2537,-19.0133,-4.33565,7.12502,7.29229,-34.19,2.83765e-14,2.22639e-14,-48.4115,-2.2613,79.6478,53.7769,1.33211,-6.60896,51.9495,7.12502,19.2469,81.0171,-0.915379,1.09202,25.8078,26.1748,-20.0821,-16.3751,14.0782,-17.5536,-3.9095,-12.9274,30.4151,-12.9286,8.74224,-20.9757
2.40061,17.7112,-32.9794,-3.97235,-7.52539,-1.32834,19.2894,-0.135194,1.27652,-0.491718,0.535792,3.71045,-11.4537,0.308888,3.23064,-11.162,-1.15012,-3.01519,18.9224,-0.352641,-3.31332,7.68253,-0.702341,-0.622855,-2.92213e-14,-2.8625e-14,-44.4525,-54.3392,-26.7968,67.3848,-76.3798,-18.9902,-4.39141,7.12502,7.31466,-34.245,-2.92213e-14,-2.8625e-14,-49.3558,-1.9369,79.6127,53.8025,1.63559,-6.52861,53.8881,7.12502,19.3241,82.9479,-0.664246,1.25713,25.6073,25.9029,-20.077,-16.4088,14.5284,-17.4361,-4.62131,-13.0584,29.7073,-12.9286,8.74224,-20.9757
2.41781,17.7241,-32.9444,-3.8564,-7.6203,-1.31986,19.0512,-0.202821,1.44998,-0.21441,0.453575,3.61905,-10.9981,0.252314,3.04023,-12.0928,-1.08175,-2.92928,18.9767,-0.23811,-3.26543,7.86768,-0.645796,-0.616925,-8.84592e-15,3.97569e-15,-43.7774,-55.0304,-27.5459,67.37,-76.1061,-19.0275,-4.19777,7.12502,7.27858,-34.0526,-8.84592e-15,3.97569e-15,-48.8293,-1.63208,79.2971,53.6844,1.31257,-6.30411,52.6908,7.12502,19.54,81.7289,-0.52294,1.34955,25.5271,25.6251,-19.9835,-16.4166,13.9297,-17.6486,-5.42574,-13.0321,29.0834,-12.9286,8.74224,-20.9757
2.43311,17.7352,-32.9175,-3.69342,-7.54765,-1.41553,19.5152,-0.181743,1.52696,-0.419851,0.529849,3.65146,-11.4977,0.288756,3.02521,-12.5717,-1.18009,-2.64187,19.2523,-0.335857,-3.58855,8.04382,-0.712885,-0.787946,-1.83379e-14,5.56597e-15,-44.1923,-54.9444,-27.1048,67.4915,-76.2954,-19.0982,-4.29258,7.12502,7.21037,-34.1497,-1.83379e-14,5.56597e-15,-48.8542,-1.81523,79.339,53.4146,1.27829,-6.387,52.0142,7.12502,19.4603,81.0603,-0.437887,1.4574,25.5969,25.32,-19.8548,-16.6008,13.5687,-18.0884,-6.14619,-12.8999,28.5989,-12.9286,8.74224,-20.9757
2.44926,17.7363,-32.8825,-3.60296,-7.59017,-1.49343,19.4935,-0.354942,1.48189,-0.668475,0.319571,3.82099,-11.7613,0.202586,3.30946,-11.563,-1.0962,-2.60135,18.9761,-0.177216,-4.12301,7.77192,-0.671926,-0.9444,-1.56046e-14,5.56597e-15,-43.7076,-54.2391,-27.3975,67.4956,-76.4088,-19.0532,-4.6301,7.12502,7.25376,-34.4858,-1.56046e-14,5.56597e-15,-49.5266,-1.21591,79.304,53.2022,1.29978,-6.9786,51.0406,7.12502,18.8914,80.1432,-0.262892,1.55659,25.6207,25.0501,-19.9765,-16.5612,14.1016,-18.2124,-6.59296,-12.8144,28.2213,-12.9286,8.74224,-20.9757
2.46863,17.7327,-32.8395,-3.46956,-7.73971,-1.5616,19.39,-0.0999575,1.82656,-0.350768,0.688804,3.56691,-11.3499,0.341443,2.70918,-13.0698,-1.44019,-1.95688,19.1069,-0.703035,-4.18635,8.07532,-0.898136,-1.14229,-1.53064e-14,3.18055e-15,-44.72,-55.6078,-26.5275,67.56,-76.3247,-18.9883,-4.61741,7.12502,7.31648,-34.4709,-1.53064e-14,3.18055e-15,-48.4522,-2.09938,79.2531,52.9501,1.37285,-6.95135,51.0436,7.12502,18.9176,80.1437,-0.146389,1.6081,25.5825,24.8389,-20.1142,-16.3568,14,-18.1542,-6.99059,-12.7477,27.8679,-12.9286,8.74224,-20.9757
2.48692,17.7324,-32.8062,-3.38992,-7.90669,-1.61727,19.1397,-0.199438,1.80465,-0.303199,0.549927,3.66515,-11.1505,0.28006,2.86534,-12.5662,-1.35397,-1.98937,18.6569,-0.56609,-4.42287,7.83692,-0.845205,-1.18989,1.54058e-14,-7.15625e-15,-43.9554,-55.6532,-27.1508,67.5343,-76.1289,-18.9983,-4.55179,7.12502,7.30677,-34.4056,1.54058e-14,-7.15625e-15,-48.5654,-1.56078,79.1424,52.8347,1.30624,-6.80412,51.0067,7.12502,19.0592,80.0929,-0.0605178,1.82833,25.6003,24.6972,-20.1223,-16.4612,13.9538,-18.1249,-7.43164,-12.6767,27.5161,-12.9286,8.74224,-20.9757
2.51095,17.7405,-32.7501,-3.42197,-8.00294,-1.34133,18.8444,-0.148009,1.69226,-0.176706,0.55731,3.50472,-10.8386,0.282754,2.74087,-13.0692,-1.34519,-1.94442,19.1484,-0.530543,-4.39311,8.09147,-0.837231,-1.19532,-1.77912e-14,1.98785e-14,-44.07,-55.7872,-27.1181,67.6335,-76.1647,-19.0836,-4.65394,7.12502,7.22443,-34.5106,-1.77912e-14,1.98785e-14,-48.3631,-1.73752,79.1135,52.5606,1.7533,-7.50103,50.599,7.12502,18.3889,79.7499,0.208757,1.82676,25.1615,24.6348,-20.3261,-16.2507,13.36,-17.9322,-7.99092,-13.0689,27.1738,-12.9286,8.74224,-20.9757
2.53183,17.7442,-32.7079,-3.41783,-8.19068,-1.34037,19.2936,-0.299001,1.40252,-0.770129,0.362565,3.74241,-11.7638,0.22493,3.25307,-11.3434,-0.96768,-2.42195,18.5719,-0.0196626,-4.33699,7.59985,-0.593325,-1.02304,-2.127e-14,3.18055e-14,-43.7341,-54.1714,-27.2873,67.6478,-76.5187,-19.199,-4.35796,7.12502,7.11307,-34.2184,-2.127e-14,3.18055e-14,-50.0195,-0.912582,79.0193,52.8869,1.04177,-6.39486,51.8452,7.12502,19.4527,80.8921,0.400643,2.00058,25.0816,24.5806,-20.4242,-16.1753,14.1813,-17.8421,-8.0266,-13.1597,26.883,-12.9286,8.74224,-20.9757
2.55035,17.738,-32.671,-3.36686,-8.39947,-1.35006,18.5028,-0.524865,1.25525,-0.572251,0.00739012,3.89499,-11.0706,0.0650442,3.58192,-10.2084,-0.579089,-3.09979,17.858,0.4881,-3.98819,7.17019,-0.336115,-0.735945,-3.27995e-15,-2.62396e-14,-42.148,-53.7847,-28.763,67.6161,-76.5661,-19.5118,-3.86331,7.12502,6.81109,-33.7338,-3.27995e-15,-2.62396e-14,-50.3306,0.0238638,78.7762,53.0205,0.936318,-6.19928,52.1118,7.12502,19.6408,81.1396,0.508535,2.23193,25.0354,24.4719,-20.4356,-16.1893,12.783,-17.8655,-8.06079,-13.2194,26.7215,-12.9286,8.74224,-20.9757
2.5736,17.7391,-32.6265,-3.33376,-8.52856,-1.40886,19.0831,-0.0776616,1.43311,-0.702015,0.643395,3.66604,-11.577,0.349849,3.06256,-11.431,-0.859731,-2.46346,19.0038,0.0789955,-3.93393,7.75808,-0.521269,-0.878506,-1.56543e-14,-1.59028e-14,-44.3654,-53.9962,-26.7842,67.8267,-77.0584,-19.7937,-3.7908,7.12502,6.53901,-33.6698,-1.56543e-14,-1.59028e-14,-49.8827,-1.53506,79.0611,52.7538,1.22411,-6.60914,51.7472,7.12502,19.2467,80.8148,0.684797,2.19326,24.9736,24.3622,-20.6071,-16.0273,13.4845,-17.824,-8.17239,-13.291,26.6525,-12.9286,8.74224,-20.9757
2.59923,17.7427,-32.5844,-3.24269,-8.57981,-1.59881,18.7835,0.0635697,1.97697,0.172642,0.878334,3.4833,-10.4196,0.416042,2.45678,-14.699,-1.42445,-1.89989,19.5715,-0.601734,-4.24453,8.52838,-0.87636,-1.18402,2.28602e-15,-3.49861e-14,-44.1469,-56.5462,-26.8194,67.7421,-76.6803,-19.4927,-4.0941,7.12502,6.82956,-33.9639,2.28602e-15,-3.49861e-14,-47.6052,-1.99678,78.9853,52.2075,1.45428,-6.8167,51.6066,7.12502,19.0471,80.694,0.774919,2.33273,25.0988,24.3348,-20.771,-16.0953,12.5488,-17.8625,-8.09628,-13.2413,26.6823,-12.9286,8.74224,-20.9757
2.62561,17.7441,-32.5271,-3.28967,-8.61195,-1.34163,18.3257,-0.189335,1.64014,-0.270734,0.475732,3.52043,-10.6469,0.247127,2.80415,-11.7065,-0.775569,-2.16967,17.9295,0.136396,-4.07961,7.45308,-0.466326,-0.961184,-7.95139e-16,-3.02153e-14,-43.8294,-55.1831,-27.1536,67.7713,-76.8339,-19.5575,-3.91962,7.12502,6.76704,-33.7915,-7.95139e-16,-3.02153e-14,-49.1167,-1.35429,78.8264,52.2029,1.4582,-7.01482,51.8199,7.12502,18.8566,80.9259,0.989955,2.28648,24.6734,24.3579,-20.909,-16.0659,12.8411,-17.6623,-8.13293,-13.7317,26.7055,-12.9286,8.74224,-20.9757
2.651,17.7336,-32.4825,-3.32488,-8.70667,-1.22024,19.0559,-0.381326,1.07137,-0.966091,0.18817,3.84207,-11.8439,0.169901,3.60614,-10.5567,-0.291485,-2.88345,18.3182,0.888852,-4.02149,7.38473,-0.148086,-0.749656,2.20154e-14,-5.00937e-14,-42.9435,-53.3118,-27.8212,67.7866,-76.8101,-19.7093,-4.02285,7.12502,6.62043,-33.8994,2.20154e-14,-5.00937e-14,-50.6452,-0.275118,78.8254,52.1818,0.532258,-6.05701,52.9661,7.12502,19.7776,81.9799,1.15986,2.31354,24.4232,24.3646,-20.9812,-16.0318,11.5457,-17.5626,-8.0314,-14.0348,26.8623,-12.9286,8.74224,-20.9757
2.67346,17.7143,-32.4479,-3.25782,-8.85442,-1.49253,18.9274,0.0626972,1.85257,0.182197,0.84307,3.36792,-10.4883,0.402111,2.41154,-15.268,-0.801744,-1.85272,19.5374,0.211633,-3.97459,8.63096,-0.466119,-1.01038,-2.78299e-15,-6.36111e-15,-43.702,-56.691,-27.3496,67.8421,-76.3437,-19.601,-4.66507,7.12502,6.72497,-34.5383,-2.78299e-15,-6.36111e-15,-47.3014,-1.80154,78.7072,51.527,0.616118,-6.09046,52.7439,7.12502,19.7454,81.761,1.17938,2.5179,24.67,24.4583,-21.1067,-16.144,12.1474,-17.6111,-7.8417,-13.8583,27.0101,-12.9286,8.74224,-20.9757
2.70109,17.7196,-32.4008,-3.30887,-8.98087,-1.37781,19.6855,0.0284165,1.42658,-0.924692,0.796602,3.50906,-12.1804,0.419781,2.86183,-12.3438,-0.751766,-1.84749,19.3978,0.252053,-4.40182,8.05457,-0.458151,-1.12818,-9.24349e-15,4.05521e-14,-45.2214,-54.5464,-25.7119,68.0052,-76.9709,-19.3327,-5.65324,7.12502,6.98396,-35.518,-9.24349e-15,4.05521e-14,-49.8189,-1.91064,78.9361,51.8185,1.03612,-6.46892,52.7301,7.12502,19.3815,81.7842,1.34546,2.63422,24.4247,24.5286,-21.2099,-16.078,12.3411,-17.4197,-7.65013,-14.1733,27.2766,-12.9286,8.74224,-20.9757
2.73311,17.7119,-32.3521,-3.25448,-9.00691,-1.37359,19.1153,-0.240809,1.2767,-0.983835,0.409202,3.70959,-11.9073,0.255497,3.27782,-10.7233,-0.765258,-2.40359,18.4515,0.233734,-4.40064,7.45218,-0.468107,-1.01707,7.00716e-15,3.18055e-15,-44.1596,-53.9641,-26.4627,68.0055,-77.1733,-19.0598,-6.2213,7.12502,7.24745,-36.0772,7.00716e-15,3.18055e-15,-50.4987,-1.04075,78.8468,51.9568,1.14267,-7.07516,51.0258,7.12502,18.7985,80.1374,1.44893,2.65132,24.2771,24.5152,-20.8975,-16.1651,9.92504,-17.4129,-7.5086,-14.3575,27.5603,-12.9286,8.74224,-20.9757
2.76167,17.6999,-32.3042,-3.27445,-8.87992,-1.44737,18.6131,-0.340025,1.37927,-0.744987,0.27027,3.7014,-11.34,0.177785,3.23056,-10.5164,-0.605919,-2.61575,18.1382,0.419137,-4.13634,7.31447,-0.359958,-0.874107,2.27111e-14,-4.05521e-14,-43.8749,-54.5176,-26.671,67.9076,-77.0116,-19.0896,-5.52795,7.12502,7.2187,-35.3848,2.27111e-14,-4.05521e-14,-50.1179,-0.931994,78.7304,51.7829,1.00025,-7.13385,50.6419,7.12502,18.7421,79.759,1.67974,2.51728,24.2427,24.4205,-21.0542,-16.1985,9.62034,-17.3885,-7.37811,-14.4644,27.906,-12.9286,8.74224,-20.9757
2.79829,17.6989,-32.2345,-3.28928,-9.11793,-1.28127,18.6155,-0.0880144,1.59236,-0.201016,0.59296,3.38482,-10.7361,0.300461,2.65241,-13.4024,-0.808195,-2.1924,18.9647,0.214269,-4.11496,8.10177,-0.474537,-0.982115,-6.4605e-15,-5.56597e-15,-44.2921,-56.2838,-26.2852,67.8704,-76.7454,-18.9779,-5.10096,7.12502,7.32652,-34.9541,-6.4605e-15,-5.56597e-15,-48.4835,-1.46641,78.6663,51.3975,0.928761,-7.17041,50.8995,7.12502,18.7069,80.02,1.88384,2.50103,23.8526,24.3952,-21.009,-16.1337,9.50517,-17.1838,-7.39408,-14.8408,28.143,-12.9286,8.74224,-20.9757
2.8316,17.6962,-32.1767,-3.32957,-9.40308,-1.26309,18.9139,-0.134608,1.48141,-0.574905,0.537764,3.42034,-11.3268,0.285944,2.78487,-12.3424,-0.775098,-2.11994,18.5655,0.224237,-4.31836,7.77841,-0.465197,-1.04946,4.03036e-14,-4.05521e-14,-44.2799,-55.3646,-26.3384,67.8601,-76.7696,-18.869,-5.21957,7.12502,7.43157,-35.069,4.03036e-14,-4.05521e-14,-49.3301,-1.21819,78.5663,51.4486,0.759747,-6.80096,51.477,7.12502,19.0622,80.5629,2.09621,2.66496,23.6798,24.3929,-21.2571,-15.9963,10.0447,-16.989,-7.39479,-14.9994,28.3159,-12.9286,8.74224,-20.9757
2.86313,17.6927,-32.1209,-3.40555,-9.63318,-1.19181,18.6124,-0.220255,1.26522,-0.900361,0.382242,3.45431,-11.518,0.230011,2.99378,-10.204,-0.529655,-2.30827,17.9557,0.458858,-4.2044,7.19858,-0.318876,-0.940582,-1.6201e-14,2.54444e-14,-44.2593,-54.0963,-26.4822,67.9119,-77.0833,-19.252,-4.81797,7.12502,7.06195,-34.6802,-1.6201e-14,2.54444e-14,-50.3467,-0.863313,78.3717,51.4295,0.526083,-6.39556,51.7297,7.12502,19.4521,80.7767,2.32369,2.74871,23.4602,24.4104,-21.3327,-15.9652,10.0863,-16.7824,-7.29772,-15.2122,28.4146,-12.9286,8.74224,-20.9757
2.89664,17.6894,-32.0621,-3.44642,-9.72474,-1.00139,18.4192,0.215543,1.44722,0.238315,0.900705,3.0319,-10.1392,0.439565,2.25154,-15.0719,-0.956698,-1.55887,19.2203,-0.0577506,-4.14643,8.48261,-0.581804,-1.14363,1.89839e-14,7.15625e-15,-44.6575,-56.9833,-26.1207,67.9209,-77.1027,-19.5577,-4.23959,7.12502,6.76677,-34.1115,1.89839e-14,7.15625e-15,-47.0747,-1.90262,78.4409,50.7536,0.962511,-6.90435,51.3478,7.12502,18.9628,80.4434,2.46235,2.64283,23.1,24.4911,-21.134,-16.1218,7.14921,-16.6509,-7.34906,-15.5499,28.4439,-12.9286,8.74224,-20.9757
2.93035,17.6844,-32.0019,-3.53619,-9.73919,-0.926696,17.8365,-0.475693,0.68644,-0.349917,-0.107154,3.66251,-10.4326,0.0256979,3.65501,-10.669,-0.241057,-3.04092,17.4881,0.962842,-4.06668,7.13525,-0.1081,-0.72676,-1.71949e-14,-1.11319e-14,-41.7737,-54.2682,-28.44,67.7828,-77.2568,-19.7686,-3.98952,7.12502,6.56321,-33.8678,-1.71949e-14,-1.11319e-14,-49.506,0.652819,78.2454,51.0092,0.192486,-6.12208,51.9488,7.12502,19.715,80.9691,2.64049,2.62669,22.9007,24.6532,-21.0898,-16.3318,6.69687,-16.4625,-7.35818,-15.768,28.4248,-12.9286,8.74224,-20.9757
2.96649,17.676,-31.9404,-3.59627,-9.87922,-0.78581,18.1046,0.283698,1.30774,0.574279,0.922762,2.88079,-9.5892,0.450845,2.1527,-15.7451,-1.00135,-1.54846,19.1082,-0.12041,-4.0657,8.56538,-0.606369,-1.12992,-2.38542e-14,-3.18055e-15,-44.7911,-57.8526,-25.9528,67.9637,-76.9888,-19.5414,-3.46362,7.12502,6.78255,-33.335,-2.38542e-14,-3.18055e-15,-46.2859,-1.95513,78.3384,50.5489,0.514904,-6.09583,52.085,7.12502,19.7402,81.1026,2.74376,2.60773,22.5704,24.8708,-21.072,-16.3042,4.38526,-16.3191,-7.22103,-16.0381,28.4331,-12.9286,8.74224,-20.9757
3.00132,17.6709,-31.8787,-3.65801,-10.1969,-0.646795,18.7907,0.266272,0.943835,-0.333091,0.885655,2.96858,-10.9948,0.462,2.48618,-13.9446,-0.780169,-2.04088,19.7435,0.228111,-3.91707,8.46054,-0.458882,-0.951026,-5.81445e-15,-1.35174e-14,-45.5039,-56.0643,-25.2337,67.9293,-77.0768,-18.8586,-5.85926,7.12502,7.44167,-35.7084,-5.81445e-15,-1.35174e-14,-48.2453,-1.83107,78.439,50.6434,0.911321,-6.57451,52.083,7.12502,19.28,81.1473,2.79425,2.81127,22.2712,25.1435,-21.0881,-16.3323,3.12919,-16.086,-6.85444,-16.3136,28.4988,-12.9286,8.74224,-20.9757
3.03469,17.6668,-31.8229,-3.75758,-10.3771,-0.649614,18.1525,-0.0351193,0.673802,-0.537946,0.44106,3.1906,-10.8487,0.27581,3.0053,-11.4583,-0.433386,-2.45766,19.3186,0.755352,-4.31821,7.87683,-0.24578,-0.941753,9.98893e-15,-1.35174e-14,-44.3482,-54.8717,-26.3095,67.8827,-77.0067,-19.2331,-5.42166,7.12502,7.08017,-35.2832,9.98893e-15,-1.35174e-14,-49.3442,-0.725319,78.2682,50.5136,0.898558,-6.77652,51.694,7.12502,19.0857,80.7776,2.86422,3.01709,22.1745,25.5092,-21.3709,-16.2748,3.62164,-15.8098,-6.44244,-16.4396,28.5771,-12.9286,8.74224,-20.9757
3.07123,17.6626,-31.7666,-3.87802,-10.3889,-0.653071,18.4719,0.251422,0.945592,-0.0922638,0.837666,2.86805,-10.5396,0.433017,2.38061,-13.6539,-0.845608,-1.5963,19.2764,0.116759,-4.4327,8.24827,-0.519121,-1.20305,-2.63887e-14,-1.03368e-14,-45.6639,-56.5388,-25.2454,68.004,-76.9062,-19.0893,-5.61704,7.12502,7.21891,-35.4739,-2.63887e-14,-1.03368e-14,-47.7311,-1.59405,78.1477,50.2823,0.404048,-6.20382,52.6257,7.12502,19.6364,81.654,2.97478,3.13467,22.0618,25.9136,-21.9379,-16.0576,6.73995,-15.54,-6.16448,-16.6095,28.652,-12.9286,8.74224,-20.9757
3.10864,17.6607,-31.7041,-3.99837,-10.3998,-0.364766,18.46,0.0634953,0.460603,-0.645515,0.51071,2.95002,-11.1471,0.315714,2.84899,-11.5545,-0.471063,-2.14262,19.1769,0.6181,-4.21441,7.84357,-0.275586,-0.972763,1.63997e-14,2.62396e-14,-45.5168,-55.0461,-25.4187,67.9876,-77.0571,-18.6632,-6.41121,7.12502,7.63023,-36.2536,1.63997e-14,2.62396e-14,-49.3111,-1.09399,78.1863,50.485,0.98882,-7.37683,51.2122,7.12502,18.5084,80.3517,3.05017,3.05085,21.559,26.3384,-21.8225,-16.0818,5.78994,-15.3156,-5.91895,-17.1197,28.7974,-12.9286,8.74224,-20.9757
3.1472,17.6585,-31.6372,-4.18091,-10.4471,0.000424416,18.1828,-0.297725,-0.0308893,-1.02309,-0.0641551,3.01244,-11.386,0.0824947,3.3632,-9.0337,-0.051962,-2.72535,18.2682,1.13331,-4.15167,7.09927,-0.0155587,-0.79291,1.84124e-14,-1.59028e-15,-44.3999,-53.4722,-26.5714,67.8658,-77.1155,-18.9131,-5.57958,7.12502,7.38908,-35.4305,1.84124e-14,-1.59028e-15,-50.7667,-0.00908763,77.8794,50.7697,0.888655,-7.28835,51.0065,7.12502,18.5935,80.1379,3.18151,2.99593,20.956,26.7497,-21.9548,-15.809,6.64325,-15.0134,-5.86907,-17.7369,28.9713,-12.9286,8.74224,-20.9757
3.1802,17.6524,-31.5949,-4.17509,-10.5549,-0.250136,19.4925,0.2192,0.119555,-0.94707,0.675412,2.98618,-12.0946,0.425943,3.05896,-11.9881,-0.661185,-2.12919,19.271,0.423156,-4.45051,7.95214,-0.397328,-1.07634,-2.41026e-14,-1.74931e-14,-46.1374,-54.8355,-24.6168,67.9042,-77.0677,-19.2485,-4.65634,7.12502,7.06532,-34.5184,-2.41026e-14,-1.74931e-14,-49.4215,-1.14271,78.386,50.5078,0.854162,-7.10112,51.7245,7.12502,18.7736,80.8386,3.07149,3.28241,21.2153,27.186,-22.031,-16.1795,6.43419,-14.9816,-5.43893,-17.5738,29.1443,-12.9286,8.74224,-20.9757
3.21628,17.6488,-31.5454,-4.20417,-10.6228,-0.347481,18.3467,-0.098498,0.0475546,-0.972327,0.230409,3.10941,-11.4409,0.220083,3.34665,-8.98369,-0.196218,-2.62558,18.0257,0.91466,-4.19475,7.00984,-0.110202,-0.840768,-6.43565e-15,-3.4191e-14,-45.2533,-54.0414,-25.5858,67.806,-76.9174,-19.2137,-4.50019,7.12502,7.09886,-34.3611,-6.43565e-15,-3.4191e-14,-50.1301,-0.339073,78.0849,50.4465,0.830985,-6.60322,53.0841,7.12502,19.2524,82.1511,2.94187,3.36719,21.236,27.6805,-21.8083,-16.4008,4.98337,-14.8673,-5.18753,-17.6196,29.2968,-12.9286,8.74224,-20.9757
3.25476,17.6486,-31.4839,-4.26686,-10.6644,-0.218146,18.581,0.334525,0.501215,0.137575,0.813024,2.54878,-10.3436,0.43258,2.28712,-14.7581,-0.524369,-1.55631,19.936,0.604987,-4.367,8.68075,-0.304514,-1.1473,9.88954e-15,3.18055e-15,-46.1378,-57.2402,-25.0486,67.8274,-76.5972,-19.0818,-4.41206,7.12502,7.22622,-34.2687,9.88954e-15,3.18055e-15,-46.5839,-1.68031,78.0776,49.8111,1.06258,-6.33281,54.6339,7.12502,19.5124,83.6748,2.8195,3.33775,20.9351,28.2709,-21.5874,-16.5887,3.24805,-14.6703,-5.07863,-17.9577,29.3927,-12.9286,8.74224,-20.9757
3.2938,17.6417,-31.4226,-4.49421,-10.6834,0.0599692,19.2843,0.201953,-0.158545,-0.849147,0.554862,2.76073,-11.8558,0.375094,2.99668,-11.2115,-0.645142,-2.06882,18.6479,0.379818,-4.48062,7.60486,-0.393506,-1.08973,1.3741e-14,4.77083e-15,-46.4224,-54.7046,-24.6427,67.8487,-77.0083,-19.3536,-4.61684,7.12502,6.96385,-34.4823,1.3741e-14,4.77083e-15,-48.8351,-1.17834,78.2814,50.0876,1.00988,-6.09241,56.2945,7.12502,19.7435,85.3118,2.8463,3.10186,20.3953,28.966,-21.4394,-16.3229,2.53928,-14.2589,-5.00775,-18.4834,29.3639,-12.9286,8.74224,-20.9757
3.33679,17.6436,-31.3561,-4.77202,-10.8292,0.50006,19.0132,0.512116,-0.234977,-0.0426859,0.868916,2.26925,-10.7974,0.492976,2.38924,-13.8831,-0.718132,-1.65016,19.5451,0.252753,-4.09679,8.3814,-0.432275,-1.07109,1.73937e-15,7.15625e-15,-47.2412,-56.7549,-24.0981,67.8181,-76.9625,-19.3713,-4.63272,7.12502,6.94671,-34.4987,1.73937e-15,7.15625e-15,-46.7589,-1.96299,78.1036,49.7771,0.86183,-6.10363,55.7923,7.12502,19.7327,84.8107,2.80693,2.91205,19.6394,29.7686,-21.0553,-16.0863,0.404617,-13.6905,-5.0823,-19.206,29.2299,-12.9286,8.74224,-20.9757
3.37936,17.6499,-31.295,-4.92001,-10.8349,0.712763,18.7333,0.0743047,-0.700884,-0.41236,0.219954,2.52793,-11.0278,0.227747,3.12674,-11.3773,-0.186487,-2.60993,18.7748,1.01811,-3.91743,7.68164,-0.0794379,-0.753546,-2.59911e-14,1.19271e-14,-45.5493,-55.3318,-25.5836,67.7412,-76.8241,-19.4301,-4.53837,7.12502,6.88994,-34.4063,-2.59911e-14,1.19271e-14,-48.3076,-0.488171,77.9729,50.1251,0.671187,-6.75077,52.819,7.12502,19.1105,81.9001,2.57914,2.71362,19.1591,30.6612,-20.6034,-16.0873,-1.99613,-13.2682,-5.27681,-19.6727,29.091,-12.9286,8.74224,-20.9757
3.41868,17.6528,-31.2338,-5.05955,-10.8824,0.787923,18.9982,0.0265169,-0.98452,-0.621464,0.110411,2.63132,-11.4099,0.204427,3.44463,-10.8539,-0.163319,-2.87183,18.8331,1.08264,-3.94919,7.60791,-0.0665858,-0.71357,-3.4017e-14,-7.15625e-15,-45.4453,-54.7771,-25.6988,67.807,-76.8347,-19.5154,-4.34709,7.12502,6.80767,-34.2176,-3.4017e-14,-7.15625e-15,-48.9144,-0.173093,78.0667,50.343,0.677408,-6.54844,53.904,7.12502,19.3051,82.9658,2.34114,2.59213,18.8562,31.6008,-20.2477,-15.9668,-3.11245,-12.8842,-5.2439,-19.9699,28.9856,-12.9286,8.74224,-20.9757
3.45722,17.6516,-31.1773,-5.2155,-10.8734,0.768097,18.8508,0.290845,-0.719827,-0.0730001,0.471458,2.3001,-10.7257,0.332547,2.81097,-12.3828,-0.523491,-2.12083,19.1022,0.531921,-4.01482,7.96611,-0.302759,-0.922415,-1.66979e-14,1.59028e-15,-46.6483,-56.1977,-24.8654,67.8045,-76.8283,-19.4713,-4.37317,7.12502,6.8502,-34.2423,-1.66979e-14,1.59028e-15,-47.3942,-1.25433,78.1228,50.0997,0.824907,-6.56645,55.1069,7.12502,19.2878,84.1704,2.10943,2.52917,18.6949,32.6154,-19.9358,-15.8436,-3.19809,-12.5567,-5.20747,-20.1475,28.9471,-12.9286,8.74224,-20.9757
3.49476,17.6501,-31.1223,-5.2998,-10.9235,0.746337,18.6395,0.11987,-0.862834,-0.094515,0.224222,2.40399,-10.6177,0.225739,3.07353,-11.4603,-0.370621,-2.31946,18.6077,0.742907,-4.1136,7.63971,-0.205583,-0.892591,7.15625e-15,3.49861e-14,-45.8548,-55.7321,-25.6142,67.6672,-76.8518,-19.4931,-4.56717,7.12502,6.82913,-34.437,7.15625e-15,3.49861e-14,-47.6526,-0.810809,78.0979,50.1137,0.86262,-6.73786,54.4149,7.12502,19.1229,83.4948,1.74392,2.57362,18.5303,33.7342,-19.7351,-15.5839,-3.91571,-12.2893,-5.20729,-20.3192,28.9216,-12.9286,8.74224,-20.9757
3.5301,17.6501,-31.0668,-5.33095,-11.1338,0.733775,19.127,0.513897,-0.721565,0.308326,0.742833,2.14577,-10.4672,0.449254,2.56342,-14.5575,-0.80469,-1.74216,19.9953,0.209676,-4.16455,8.65735,-0.482856,-1.09342,1.57537e-14,-3.18055e-15,-47.0969,-57.3817,-24.5408,67.6228,-76.5923,-19.5126,-4.56616,7.12502,6.81036,-34.4366,1.57537e-14,-3.18055e-15,-46.0169,-1.85047,78.2248,49.9652,1.07427,-8.10069,50.9112,7.12502,17.812,80.1155,1.18541,2.62702,18.3343,34.9684,-19.3072,-15.3868,-2.81749,-12.0097,-5.08393,-20.4785,28.85,-12.9286,8.74224,-20.9757
3.56678,17.6535,-31.0086,-5.4043,-11.2233,0.73428,19.5254,0.446484,-1.02197,-0.119733,0.619326,2.36242,-11.1736,0.426585,3.01929,-13.8912,-0.827937,-2.22403,20.6752,0.327404,-4.3325,8.77245,-0.491318,-1.05976,2.03257e-14,-1.35174e-14,-46.9136,-56.3875,-24.5322,67.5289,-76.6478,-19.4412,-4.34478,7.12502,6.87928,-34.213,2.03257e-14,-1.35174e-14,-46.9725,-1.43611,78.4586,50.1842,1.25233,-9.38488,48.7534,7.12502,16.5759,78.0655,0.596499,2.43719,18.0762,36.352,-18.5129,-15.2507,-6.71672,-11.6549,-5.09656,-20.6737,28.7852,-12.9286,8.74224,-20.9757
3.60418,17.6604,-30.9513,-5.54439,-11.1495,0.931293,19.0764,0.231885,-1.40137,-0.24505,0.259295,2.42886,-11.0402,0.280829,3.41005,-11.6359,-0.761581,-2.31577,18.9927,0.294191,-4.45931,7.79531,-0.463737,-1.05651,-1.31695e-14,-2.8625e-14,-46.3404,-55.5929,-25.1508,67.5016,-76.7034,-19.3836,-4.48236,7.12502,6.93483,-34.3488,-1.31695e-14,-2.8625e-14,-47.6919,-0.885847,78.3401,50.5092,0.73617,-7.50846,52.0673,7.12502,18.3817,81.2188,0.0405283,2.14766,17.5452,37.8041,-17.942,-14.7353,-8.3044,-11.2117,-5.11862,-21.1124,28.6478,-12.9286,8.74224,-20.9757
3.63964,17.6523,-30.8977,-5.74086,-11.2235,1.09694,19.2515,0.202022,-1.73122,-0.339069,0.147421,2.44207,-11.2394,0.252319,3.65095,-11.4986,-0.397678,-2.67446,19.6141,0.827557,-4.16153,7.98272,-0.221659,-0.84938,4.09993e-15,-3.10104e-14,-46.2421,-55.3857,-25.2937,67.4564,-76.7778,-19.2924,-4.69812,7.12502,7.02289,-34.5616,4.09993e-15,-3.10104e-14,-47.9422,-0.875838,78.4666,50.5373,1.08,-6.75906,54.5207,7.12502,19.1025,83.6026,-0.541752,2.08777,17.0742,39.3147,-17.4524,-14.0994,-5.32935,-10.7237,-4.87288,-21.4727,28.4755,-12.9286,8.74224,-20.9757
3.67093,17.65,-30.839,-6.02223,-11.6085,1.28235,19.9394,0.400123,-2.28407,-0.568358,0.293636,2.57027,-11.909,0.376081,4.08766,-11.4002,-0.0966239,-2.83062,19.6538,1.27819,-4.18865,7.98293,-0.0219638,-0.786499,-1.27471e-14,2.78299e-14,-46.3237,-54.7786,-25.1523,67.4728,-76.9773,-19.2335,-4.64339,7.12502,7.07972,-34.505,-1.27471e-14,2.78299e-14,-48.3041,-0.839072,78.795,50.5585,1.51786,-7.15955,55.2405,7.12502,18.7174,84.3599,-1.10861,2.16091,16.5741,40.8531,-16.8745,-13.4025,-4.96733,-10.1127,-4.58902,-21.827,28.2912,-11.3597,5.34502,-11.1457
3.70721,17.6496,-30.7791,-6.13807,-11.2955,1.47024,19.2589,0.335022,-2.22216,-0.053293,0.188843,2.2606,-10.9257,0.283012,3.7141,-11.7978,-0.471049,-2.77476,19.6074,0.719294,-3.96016,8.03253,-0.263577,-0.778065,3.08116e-15,-1.59028e-15,-46.4863,-55.2204,-25.5512,67.6248,-77.4354,-19.3053,-4.35243,7.12502,7.01049,-34.2163,3.08116e-15,-1.59028e-15,-47.2847,-1.30994,78.5945,50.764,1.43383,-6.75277,55.2471,7.12502,19.1086,84.3285,-1.7229,1.68345,16.0116,42.3947,-16.0971,-12.868,-4.14179,-9.78086,-4.80345,-22.2653,28.0984,-11.3219,5.32235,-8.74579
3.74061,17.6451,-30.7192,-6.2783,-11.162,1.76199,18.6294,0.290152,-2.38032,0.471791,0.0719615,2.00104,-9.9731,0.20081,3.53108,-12.5161,-0.428315,-2.44704,19.3919,0.729465,-3.92818,8.0896,-0.233306,-0.821885,-6.95746e-15,-2.54444e-14,-46.577,-57.1698,-25.418,67.5232,-76.4958,-18.8766,-4.94643,7.12502,7.42423,-34.7962,-6.95746e-15,-2.54444e-14,-46.3028,-1.55226,78.3882,50.9068,1.02481,-6.49482,54.5515,7.12502,19.3566,83.6081,-2.41218,1.3275,15.3576,43.9444,-14.9931,-12.4396,-5.02118,-9.4423,-4.42677,-22.7565,27.9517,-11.4038,4.90159,-6.32659
3.77111,17.6538,-30.6604,-6.38079,-11.0627,1.98754,19.4669,0.607603,-2.63207,0.459094,0.398209,1.7853,-10.4835,0.371587,3.35844,-14.5734,-0.55975,-1.74187,20.3335,0.545253,-4.08726,8.78027,-0.324436,-1.03193,-9.54166e-15,2.38542e-15,-48.2734,-58.0202,-23.9266,67.6631,-76.3337,-18.8893,-4.84679,7.12502,7.41203,-34.6969,-9.54166e-15,2.38542e-15,-45.5929,-2.69849,78.6039,50.9692,0.865608,-6.23939,54.4132,7.12502,19.6022,83.445,-3.17995,1.02162,14.797,45.4957,-13.8924,-11.884,-4.67408,-9.08976,-4.40739,-23.2139,27.8015,-11.4624,4.90776,-6.30931
3.79639,17.6522,-30.5987,-6.29444,-10.0829,1.86521,18.9672,-0.00440759,-2.67073,-0.0836455,-0.398128,1.87229,-10.7453,0.0147642,3.70006,-11.5157,-0.333222,-2.09807,19.461,0.755085,-3.96109,7.93059,-0.190182,-0.884908,2.37796e-14,-1.51076e-14,-48.0622,-56.0203,-24.607,67.7676,-76.7341,-19.1492,-4.38347,7.12502,7.16117,-34.2423,2.37796e-14,-1.51076e-14,-47.243,-2.54124,78.568,51.4112,1.05895,-6.22469,54.4046,7.12502,19.6164,83.4349,-3.89006,0.0886457,14.6719,47.0354,-12.5019,-11.7752,-4.77469,-9.03693,-4.82762,-23.297,27.7687,-11.4118,4.38892,-6.70582
3.82118,17.6602,-30.5552,-6.36116,-10.4364,1.84818,18.7185,-0.149827,-3.3004,-0.163139,-0.676744,2.31064,-10.66,-0.0693926,4.62091,-10.0967,-0.0476238,-2.91087,18.7756,1.22462,-4.04715,7.455,-0.00222722,-0.724332,1.00386e-14,1.59028e-15,-46.2391,-55.3902,-25.984,67.643,-76.5044,-18.9148,-4.57519,7.12502,7.38743,-34.4262,1.00386e-14,1.59028e-15,-47.9639,-1.52682,78.8544,51.6339,1.40233,-6.87741,54.5205,7.12502,18.9887,83.6136,-4.86782,0.0955448,14.4794,48.5921,-11.6425,-11.5329,0.292392,-8.80544,-4.39229,-23.383,27.7376,-11.4604,4.35513,-6.47291
3.84423,17.6626,-30.5045,-6.43581,-10.0222,1.69961,18.956,0.106967,-2.92161,0.481061,-0.292512,2.00968,-10.1149,0.0576497,3.95568,-12.9613,-0.550236,-2.05325,19.4036,0.530454,-4.09129,8.17187,-0.319557,-0.965037,-3.91606e-14,6.36111e-15,-47.7183,-57.1351,-24.9795,67.8574,-76.7177,-18.9902,-4.4327,7.12502,7.31463,-34.2863,-3.91606e-14,6.36111e-15,-45.8548,-3.11796,79.0158,51.5519,2.0059,-7.06591,55.624,7.12502,18.8074,84.7348,-5.57292,-0.336056,14.4412,50.0652,-11.1509,-11.3078,6.69089,-8.5808,-4.40709,-23.3988,27.7517,-11.378,4.10778,-6.7742
3.87375,17.6542,-30.4602,-6.5921,-10.3414,2.00986,19.548,-0.111527,-3.10226,-0.492122,-0.670434,1.70997,-11.5111,-0.0685342,3.86709,-9.72486,-0.123486,-2.16946,18.8122,0.920508,-3.77802,7.39405,-0.0673777,-0.787328,1.69215e-14,-9.54166e-15,-48.0721,-53.3025,-26.1991,68.5609,-78.2895,-19.7514,-3.61697,7.12502,6.57986,-33.4947,1.69215e-14,-9.54166e-15,-48.0749,-3.0702,78.4543,52.0222,1.78304,-6.70524,55.7376,7.12502,19.1543,84.8144,-6.58664,-0.293631,13.8767,51.5729,-11.2559,-11.3334,17.2492,-8.28743,-4.06557,-23.8912,27.6557,-11.2618,4.24997,-6.489
3.90113,17.6563,-30.3919,-6.60693,-10.2597,2.2276,19.4204,-0.241947,-3.27275,-0.442007,-0.890819,1.60759,-11.3609,-0.170497,3.90934,-9.91022,-0.128196,-2.26375,18.6777,0.927138,-3.74984,7.38324,-0.0674041,-0.761394,-2.02636e-14,-7.95139e-16,-47.6231,-52.7059,-27.0337,68.8355,-78.7024,-19.8268,-3.62101,7.12502,6.50703,-33.501,-2.02636e-14,-7.95139e-16,-47.9635,-3.05292,78.3274,52.1359,1.23735,-6.51586,54.6237,7.12502,19.3364,83.6823,-7.47315,-0.550993,13.4101,52.9432,-7.25001,-11.0683,7.81444,-8.04997,-3.95969,-24.3103,27.5358,-11.1882,4.21943,-5.4437
3.91816,17.654,-30.3421,-6.78168,-10.0248,2.4434,19.6294,-0.0509003,-3.53967,-0.00211467,-0.724202,1.41715,-10.9969,-0.101125,3.79901,-12.0212,-0.25945,-1.89719,19.4547,0.792,-3.75234,8.0185,-0.142838,-0.847035,-2.20899e-14,1.27222e-14,-48.2325,-53.966,-26.5728,68.9994,-78.5486,-20.061,-4.55209,7.12502,6.28093,-34.439,-2.20899e-14,1.27222e-14,-46.7779,-3.95261,78.3968,52.3153,1.54718,-7.23578,52.9852,7.12502,18.644,82.1117,-8.21399,-0.826769,12.9907,54.3117,-5.26002,-10.8809,15.784,-7.6618,-3.80589,-24.6931,27.3953,-11.2013,4.01618,-5.98344
3.93662,17.6538,-30.2962,-6.93862,-9.95912,2.36861,19.7918,-0.244778,-3.86878,-0.472195,-1.04564,1.60402,-11.5838,-0.200261,4.30414,-9.62442,-0.283793,-1.94989,18.6879,0.719132,-4.13051,7.33512,-0.177051,-0.956274,-1.73937e-15,2.38542e-15,-48.2446,-52.6681,-26.7005,69.0831,-78.5939,-20.0378,-4.79628,7.12502,6.30336,-34.6825,-1.73937e-15,2.38542e-15,-48.1611,-3.72477,78.4913,52.6927,1.99814,-6.89946,55.1042,7.12502,18.9675,84.1994,-8.95105,-0.964997,12.958,55.5812,-4.10999,-11.1012,20.5183,-7.20535,-3.84117,-24.774,27.1534,-11.1342,4.09782,-7.26315
3.9554,17.6533,-30.2596,-7.03142,-9.82167,2.31062,20.0818,-0.117075,-3.89842,-0.317862,-0.900751,1.53354,-11.5887,-0.135873,4.20493,-10.585,-0.387645,-1.54275,19.3664,0.620177,-4.40318,7.72995,-0.24544,-1.1325,1.72818e-14,6.36111e-15,-48.9035,-53.1865,-26.2964,69.1527,-78.5807,-20.0203,-4.20806,7.12502,6.32021,-34.0938,1.72818e-14,6.36111e-15,-47.556,-4.31676,78.5816,52.7708,2.12667,-7.10317,55.4569,7.12502,18.7716,84.5712,-9.75697,-1.11734,12.9655,56.8232,-2.22891,-11.9378,42.4297,-6.90965,-4.02707,-24.8502,26.9853,-11.1247,4.11444,-6.46441
3.97738,17.6477,-30.1985,-7.41035,-9.49985,2.89541,20.14,-0.204203,-4.58711,-0.246791,-1.19119,1.44509,-11.5014,-0.238476,4.58688,-10.5205,-0.492511,-1.91358,19.8498,0.563464,-4.41694,7.87901,-0.31188,-1.08535,-2.5519e-14,8.74653e-15,-48.5439,-53.0256,-26.6758,69.0782,-78.6532,-20.0105,-3.69565,7.12502,6.32966,-33.5811,-2.5519e-14,8.74653e-15,-47.7149,-4.11989,78.5818,53.0432,2.07371,-7.2991,55.0716,7.12502,18.5831,84.204,-10.1293,-1.67305,12.0804,57.9547,-1.58535,-12.3535,42.4297,-6.285,-4.14015,-25.7205,26.8578,-11.2884,4.14915,-7.40289
3.99424,17.6463,-30.148,-7.39028,-9.47266,2.9316,20.0245,-0.191092,-4.74302,-0.233739,-1.20837,1.41652,-11.417,-0.241795,4.64542,-10.4202,-0.376881,-1.92734,19.5439,0.667078,-4.20607,7.75962,-0.23519,-0.999846,9.88954e-15,1.59028e-15,-48.8756,-53.2526,-26.5061,69.1017,-78.4573,-19.7259,-3.94668,7.12502,6.60445,-33.8237,9.88954e-15,1.59028e-15,-47.6029,-4.35148,78.5313,53.2305,2.22206,-7.45471,54.8515,7.12502,18.4334,83.9981,-10.9956,-1.9095,12.0111,58.9982,-1.705,-13.0622,42.4297,-6.11821,-4.09652,-25.8746,26.7967,-11.2884,4.14915,-7.40289
4.01056,17.6496,-30.0974,-7.43544,-9.40359,2.76655,20.1426,-0.235602,-4.75743,-0.104506,-1.26375,1.5069,-11.3282,-0.269672,4.77164,-11.437,0.167167,-2.17677,20.3961,1.47736,-3.8754,8.23626,0.132368,-0.775825,-2.25124e-14,2.94201e-14,-48.651,-53.4912,-26.7917,69.2077,-78.6404,-19.7833,-3.83259,7.12502,6.54903,-33.7113,-2.25124e-14,2.94201e-14,-47.1253,-4.13528,78.4053,53.1333,1.91146,-7.248,54.3373,7.12502,18.6323,83.4649,-11.6033,-2.08832,12.172,59.869,-2.40265,-13.9667,42.4297,-5.81462,-4.11377,-25.8174,26.6967,-11.2884,4.14915,-7.40289
4.02698,17.6463,-30.0437,-7.53642,-9.34752,2.73303,20.2942,-0.282955,-5.01581,-0.595241,-1.3933,1.5956,-11.9522,-0.276293,5.07734,-9.36996,0.195931,-2.05268,19.8348,1.42343,-4.07333,7.6746,0.132516,-0.863337,4.14777e-14,-9.54166e-15,-49.4606,-52.4768,-26.1521,69.3027,-78.7487,-19.6912,-4.07715,7.12502,6.63797,-33.9531,4.14777e-14,-9.54166e-15,-48.2203,-4.16434,78.3962,53.2468,1.69667,-6.96928,53.9781,7.12502,18.9004,83.0798,-12.1607,-2.23311,12.1938,60.6458,-2.61627,-15.2287,42.4297,-5.51229,-4.14796,-25.9206,26.7081,-11.2884,4.14915,-7.40289
4.04226,17.6451,-29.9839,-7.62874,-9.4594,2.92091,20.3703,-0.0330431,-5.12957,-0.145522,-1.10991,1.38856,-11.5185,-0.17205,4.81677,-11.6819,0.0689204,-1.6043,20.5868,1.29593,-4.1257,8.34607,0.0588642,-0.975865,-1.23619e-14,-7.15625e-15,-50.0141,-53.931,-25.7896,69.3892,-78.5274,-19.6097,-4.19804,7.12502,6.71656,-34.0715,-1.23619e-14,-7.15625e-15,-46.945,-4.79825,78.3089,53.2313,2.18555,-7.4454,53.4662,7.12502,18.4424,82.612,-12.797,-2.3435,11.9702,61.2779,-3.78367,-14.7554,42.4297,-5.22424,-3.84335,-26.2037,26.6821,-11.2884,4.14915,-7.40289
4.05078,17.6427,-29.9518,-7.84125,-9.36618,2.85124,20.8677,-0.35961,-5.63515,-0.697929,-1.66658,1.70088,-12.3459,-0.339715,5.66199,-9.31232,0.544167,-2.10697,19.9878,1.94414,-4.20441,7.72286,0.360348,-0.849799,-2.13259e-14,1.35174e-14,-49.1841,-52.3618,-26.6251,69.44,-78.5325,-19.5821,-4.47969,7.12502,6.74321,-34.3523,-2.13259e-14,1.35174e-14,-48.5236,-3.57265,78.0685,53.5429,1.52023,-6.97604,53.8908,7.12502,18.8939,82.9932,-13.297,-2.55848,12.064,61.7837,-3.50156,-15.8806,18.0957,-4.84002,-3.82649,-26.2316,26.6329,-11.2884,4.14915,-7.40289
4.06275,17.6451,-29.8991,-7.8361,-9.02875,2.794,20.8164,-0.154902,-5.26999,0.0430468,-1.32688,1.37341,-11.5268,-0.269554,4.95473,-12.4004,0.165592,-1.61055,20.893,1.43723,-3.9765,8.58252,0.125734,-0.912847,1.2101e-14,-5.96354e-15,-50.2784,-54.7601,-25.853,69.5888,-78.0532,-19.7269,-4.61364,7.12502,6.60347,-34.4907,1.2101e-14,-5.96354e-15,-46.2313,-4.60939,77.8643,53.3223,1.59871,-7.143,53.9004,7.12502,18.7333,83.0184,-13.8033,-2.99748,12.1035,62.0909,-3.90025,-16.5088,19.7266,-4.64141,-4.00634,-26.3159,26.6188,-11.2884,4.14915,-7.40289
4.07453,17.6469,-29.8491,-7.8572,-9.0712,2.75579,20.7266,-0.1434,-5.44202,-0.0765551,-1.34056,1.46131,-11.6057,-0.256725,5.15702,-11.5548,0.131189,-1.96069,20.8408,1.39817,-3.83997,8.40661,0.10355,-0.811456,-1.22625e-14,-5.1684e-15,-50.648,-54.7931,-25.5151,69.6029,-77.5615,-19.5984,-4.63775,7.12502,6.72755,-34.5109,-1.22625e-14,-5.1684e-15,-46.5781,-4.61351,77.9611,53.4958,2.23363,-7.99786,53.1986,7.12502,17.9109,82.3939,-14.3731,-2.99977,12.2091,62.2458,-3.96518,-17.1825,19.8871,-4.44584,-4.0455,-26.3902,26.6523,-14.67,4.07821,14.4734
4.08531,17.6497,-29.8018,-7.74342,-8.98633,2.4268,20.6881,-0.260828,-5.33626,-0.340836,-1.45456,1.61877,-11.8698,-0.293015,5.31388,-10.5069,0.14173,-1.9706,20.9083,1.43782,-4.13476,8.24057,0.101042,-0.904136,-1.00635e-15,-1.11319e-14,-51.0553,-54.5467,-25.1745,69.653,-77.2164,-19.371,-4.64713,7.12502,6.94705,-34.5131,-1.00635e-15,-1.11319e-14,-47.188,-4.34209,77.8015,53.7389,1.79758,-7.50594,53.5367,7.12502,18.3842,82.6879,-14.9558,-3.05449,12.6668,62.2464,-4.29595,-17.7378,20.8932,-4.39906,-4.18817,-26.1297,26.6819,-12.0461,4.34488,-6.91481
4.09909,17.6526,-29.7446,-7.72405,-9.01791,2.22907,20.5238,-0.510819,-5.47929,-0.574338,-1.77987,1.92305,-11.9883,-0.41317,5.83836,-9.35146,0.216933,-2.59203,20.8539,1.61202,-4.19442,8.01318,0.142061,-0.802276,-4.57205e-14,1.59028e-14,-50.236,-53.8216,-25.789,69.623,-76.873,-19.317,-4.74269,7.12502,6.99915,-34.607,-4.57205e-14,1.59028e-14,-48.0306,-3.31948,77.6768,53.9306,1.66767,-7.30337,53.5871,7.12502,18.579,82.7199,-15.383,-3.08444,12.9282,62.1235,-4.68531,-18.0178,21.3345,-4.18896,-4.32664,-26.057,26.7152,-12.2971,4.49875,-5.37319
4.11224,17.652,-29.6875,-7.74849,-9.13598,2.12677,20.5894,0.0701658,-4.9234,0.466121,-0.914712,1.47654,-10.9715,-0.12317,4.73178,-13.8832,-0.344416,-1.45412,21.7469,0.773333,-3.96464,9.14054,-0.204522,-1.02284,1.25234e-14,1.47101e-14,-52.2979,-56.9444,-24.1427,69.9037,-76.4437,-19.4024,-4.84802,7.12502,6.91673,-34.715,1.25234e-14,1.47101e-14,-44.8127,-4.93319,77.4805,53.4752,1.832,-7.36824,53.649,7.12502,18.5166,82.7877,-15.7869,-3.08078,13.0985,61.8882,-8.25559,-17.1011,15.5215,-3.93827,-4.2699,-26.0629,26.7622,-12.4338,4.55737,-5.31763
4.12104,17.6495,-29.6457,-7.76879,-8.8312,2.0578,21.3297,0.51045,-4.53122,2.8812,-0.277537,1.1813,-8.75153,0.0287373,3.96939,-26.0188,-0.949596,-0.310444,25.0141,0.0554562,-4.17955,12.6587,-0.611958,-1.55299,-2.17669e-14,7.15625e-15,-50.682,-63.205,-25.5715,69.8773,-75.6309,-19.5798,-4.48708,7.12502,6.74542,-34.3596,-2.17669e-14,7.15625e-15,-38.1359,-5.52076,77.0111,52.5773,2.15136,-7.74693,53.7934,7.12502,18.1523,82.9664,-16.1324,-3.39005,13.2094,61.5783,-6.72148,-18.8751,17.8053,-3.78653,-4.24633,-26.0621,26.8174,-12.5611,4.42048,-4.9368
4.13298,17.6489,-29.588,-7.66883,-9.15325,2.06075,20.6113,-0.470142,-5.80224,-0.458537,-1.78053,2.14551,-11.8897,-0.392087,6.27787,-10.0376,0.049827,-2.70848,20.8394,1.41696,-4.11541,8.13101,0.0403167,-0.77571,2.64135e-14,-2.14687e-14,-50.237,-54.2498,-25.7658,69.8998,-76.1535,-19.6491,-4.25637,7.12502,6.67856,-34.1311,2.64135e-14,-2.14687e-14,-47.4317,-2.93499,77.6566,53.7427,2.60624,-8.13865,54.6203,7.12502,17.7754,83.8279,-16.6973,-3.18431,13.2864,61.1558,-6.02219,-18.9396,24.8768,-3.71299,-4.13437,-26.1567,26.8561,-12.8917,4.77546,-5.1611
4.14066,17.6383,-29.5435,-7.72272,-8.85953,2.03315,20.6898,-0.379533,-5.54093,-0.25377,-1.62641,1.90001,-11.7354,-0.358022,5.79858,-10.8592,-0.0843721,-2.27558,21.0327,1.17181,-3.99931,8.3427,-0.0429088,-0.836556,-2.68359e-15,-5.56597e-15,-51.7146,-55.2865,-24.6062,70.0556,-75.7204,-19.5495,-4.14809,7.12502,6.77472,-34.0197,-2.68359e-15,-5.56597e-15,-46.5368,-3.55271,77.374,53.5926,2.0394,-6.08485,58.3666,7.12502,19.7508,87.3831,-16.9211,-3.3759,13.326,60.665,-6.90216,-18.5803,30.1035,-3.58257,-3.96579,-26.1726,26.989,-12.9997,4.35105,-6.31162
4.14876,17.639,-29.4926,-7.72026,-8.69963,2.02862,20.8164,-0.368807,-5.60398,-0.34897,-1.63779,1.88726,-11.9138,-0.349261,5.8328,-11.1992,0.0652111,-2.45876,21.9231,1.392,-3.65859,8.70663,0.0558533,-0.675025,-1.49089e-15,-3.57812e-14,-52.5229,-55.4586,-23.7874,70.1561,-75.2984,-19.4143,-3.82632,7.12502,6.9052,-33.6937,-1.49089e-15,-3.57812e-14,-46.5557,-3.69882,77.3422,53.6576,2.0348,-7.44402,54.9865,7.12502,18.4437,84.1322,-17.0908,-3.36872,13.3499,59.9855,-11.4991,-16.3918,23.4763,-3.48125,-4.29426,-26.3011,27.1813,-13.188,4.44206,-6.07093
4.16069,17.6314,-29.4359,-7.55641,-8.5605,1.97106,20.7262,-0.162262,-5.33477,0.0409889,-1.31007,1.68736,-11.4718,-0.248749,5.33767,-13.8448,-0.225084,-1.73849,23.2044,1.00538,-3.74437,9.64582,-0.126285,-0.886108,1.76421e-14,-7.95139e-16,-53.9999,-57.1405,-22.3677,70.2662,-74.6622,-19.446,-3.34041,7.12502,6.8746,-33.2088,1.76421e-14,-7.95139e-16,-45.145,-4.50523,77.2698,53.4677,2.01987,-17.7105,36.372,7.12502,8.54968,66.1789,-17.4314,-3.59537,13.4476,59.1729,-12.3184,-16.7458,16.5421,-3.59805,-4.51281,-26.3573,27.4802,-13.419,4.6215,-6.46627
4.17114,17.6209,-29.3795,-7.35266,-8.40655,1.84686,20.4959,-0.387081,-5.36702,-0.15457,-1.58559,1.86753,-11.5228,-0.362478,5.63756,-13.0079,-0.24648,-2.16631,22.9732,1.00602,-3.63323,9.40537,-0.139005,-0.770702,-1.1778e-14,1.19271e-15,-53.7501,-56.9349,-22.3715,70.3244,-74.0885,-19.3191,-3.21371,7.12502,6.99711,-33.0781,-1.1778e-14,1.19271e-15,-45.7213,-4.00255,77.2386,53.6551,1.99091,-7.3706,53.6657,7.12502,18.5144,82.8047,-17.794,-3.85757,13.6843,58.2069,-12.4242,-16.7182,10.4305,-3.72292,-4.71176,-26.3258,27.6912,-13.6196,4.75568,-7.43717
4.17301,17.6116,-29.3506,-7.33687,-8.75135,1.59076,20.9062,-0.160367,-5.25913,-0.0270141,-1.2713,1.92722,-11.6522,-0.217009,5.56229,-13.8319,-0.602408,-2.1273,23.1621,0.505454,-3.49948,9.62187,-0.364474,-0.796525,-1.95057e-14,1.78906e-14,-54.6044,-58.0008,-21.277,70.3166,-73.1944,-19.0438,-3.49397,7.12502,7.26282,-33.3493,-1.95057e-14,1.78906e-14,-45.2494,-4.3049,77.2291,53.7815,2.25555,-7.72613,53.6858,7.12502,18.1723,82.8569,-18.1779,-3.48568,14.1743,57.1934,-12.4767,-16.5885,8.08404,-3.68024,-4.43208,-26.0427,27.8578,-13.813,4.73206,-6.85333
4.18199,17.6137,-29.2932,-7.33961,-8.60562,1.59054,20.8976,-0.3413,-5.41258,-0.218389,-1.53421,2.06843,-11.8238,-0.31295,5.89571,-12.8005,-0.821378,-2.45825,22.681,0.205474,-3.46663,9.25703,-0.51178,-0.754674,2.00648e-14,-1.39149e-14,-53.9696,-57.0468,-21.7716,70.3359,-72.8542,-19.1943,-2.87368,7.12502,7.11761,-32.734,2.00648e-14,-1.39149e-14,-45.8533,-3.91667,77.2645,53.8932,2.24821,-8.09222,52.7286,7.12502,17.8201,81.9322,-18.3217,-3.5485,14.183,56.1406,-12.8256,-16.144,6.45778,-3.48889,-4.53315,-26.1424,27.9022,-13.9765,4.61862,-6.13149
4.18882,17.6198,-29.2398,-7.26218,-8.2857,1.58685,20.8336,-0.498891,-5.64695,-0.792698,-1.79842,2.14424,-12.4032,-0.376155,6.21563,-10.6758,-0.645791,-2.45314,22.7586,0.39002,-3.61993,8.8873,-0.426448,-0.77618,-5.65977e-14,2.06736e-14,-55.0804,-56.2074,-20.5001,70.3998,-71.939,-19.0431,-2.77174,7.12502,7.26358,-32.6271,-5.65977e-14,2.06736e-14,-47.1858,-4.04484,77.3915,54.0461,2.35966,-7.85114,53.3094,7.12502,18.0521,82.4917,-18.4675,-3.75948,14.1596,55.093,-13.3535,-15.3602,7.22791,-3.38875,-4.72587,-26.217,27.8961,-14.2368,4.5421,-5.32584
4.19198,17.6215,-29.1971,-7.12172,-7.93379,1.5354,20.8197,-0.760509,-5.8307,-0.987903,-2.17407,2.30939,-12.5532,-0.518414,6.63149,-10.4339,-0.23289,-2.72373,23.4469,1.05616,-3.71153,9.0874,-0.162309,-0.695808,7.51655e-16,7.95139e-16,-54.6257,-55.6061,-20.676,70.441,-71.4178,-19.0867,-2.43167,7.12502,7.22143,-32.2885,7.51655e-16,7.95139e-16,-47.7366,-3.63463,77.4548,54.217,2.61677,-7.98804,54.359,7.12502,17.9203,83.5534,-18.6939,-3.84671,14.226,54.0275,-13.9518,-14.7519,8.95812,-3.35,-4.77719,-26.1941,27.8169,-14.2994,4.42963,-6.24007
4.20175,17.6176,-29.137,-6.9169,-7.85437,1.46142,20.5615,-0.431741,-5.25718,-0.173838,-1.61185,1.9492,-11.5786,-0.375109,5.67748,-14.0629,-0.853651,-1.99141,24.468,0.177672,-3.54131,10.1289,-0.53677,-0.891737,-1.28962e-14,1.11319e-14,-56.6954,-58.1583,-18.6744,70.5252,-70.2068,-19.043,-2.0845,7.12502,7.26365,-31.9398,-1.28962e-14,1.11319e-14,-45.2771,-4.90232,77.365,53.9671,2.65492,-7.63258,56.2164,7.12502,18.2623,85.3791,-19,-3.77224,14.3328,52.8992,-14.4029,-14.3534,7.12367,-3.30731,-4.8173,-26.1807,27.7451,-14.5267,4.39303,-5.66814
4.20778,17.6121,-29.0824,-6.7796,-7.75961,1.45544,20.6151,-0.469749,-5.33531,-0.231843,-1.67649,2.01867,-11.6624,-0.39287,5.82463,-14.0955,-1.21343,-2.13276,24.4013,-0.333979,-3.40046,10.1066,-0.768659,-0.882852,4.55465e-14,-2.50469e-14,-56.8746,-58.288,-18.1834,70.5637,-69.038,-19.0887,-1.58558,7.12502,7.21955,-31.4424,4.55465e-14,-2.50469e-14,-45.256,-4.8053,77.381,54.0002,2.56771,-7.89801,54.7874,7.12502,18.007,83.9738,-19.2468,-3.72673,14.3712,51.7751,-14.7348,-14.0231,6.69372,-3.27237,-4.82309,-26.2252,27.7918,-14.6952,4.30045,-5.25574
4.21037,17.6171,-29.0328,-6.71297,-7.82232,1.40735,20.8029,-0.662225,-5.69038,-0.948231,-2.01173,2.26719,-12.5284,-0.456648,6.45038,-11.3942,-1.04866,-2.58085,23.8932,-0.132254,-3.41137,9.41409,-0.690493,-0.758015,-3.61043e-14,-1.59028e-15,-56.4589,-56.5923,-18.2383,70.6014,-68.0251,-19.126,-1.31021,7.12502,7.1835,-31.1683,-3.61043e-14,-1.59028e-15,-47.0853,-4.15994,77.4131,54.2258,2.50381,-8.45631,53.086,7.12502,17.4697,82.321,-19.3895,-3.62767,14.475,50.5901,-14.9591,-13.5482,4.94159,-3.15939,-4.58694,-26.1804,27.8162,-14.7882,4.23605,-6.32203
4.20908,17.6015,-28.99,-6.75126,-8.03774,1.37152,21.2415,-0.657606,-5.99706,-1.19267,-2.08479,2.48261,-13.0371,-0.425524,6.93336,-10.7684,-0.947711,-2.90142,23.9155,0.0536724,-3.44577,9.30722,-0.633185,-0.690891,-6.01727e-14,1.51076e-14,-56.119,-56.0349,-18.1049,70.6596,-66.9487,-18.8389,-1.38949,7.12502,7.46065,-31.2379,-6.01727e-14,1.51076e-14,-47.7564,-3.77683,77.5606,54.3652,2.92419,-14.7343,40.6904,7.12502,11.421,70.3594,-19.5564,-3.33858,14.6115,49.4702,-15.1957,-13.3803,2.63027,-2.9751,-4.15617,-26.1172,27.8533,-14.9723,4.15657,-7.16919
4.21323,17.6039,-28.9383,-6.59157,-7.73587,1.33912,21.016,-0.731987,-5.73604,-1.0003,-2.11853,2.34467,-12.6905,-0.489626,6.61176,-11.4999,-1.09275,-2.68123,24.4284,-0.15006,-3.42472,9.62434,-0.721982,-0.755094,-3.04389e-15,-5.56597e-15,-56.9273,-56.6926,-17.2038,70.7977,-65.6909,-18.5021,-1.10194,7.12502,7.78569,-30.9386,-3.04389e-15,-5.56597e-15,-47.258,-4.22415,77.6171,54.3431,3.58623,-8.37224,53.505,7.12502,17.5506,82.7328,-19.7417,-3.34674,14.6528,48.3209,-15.6933,-13.4062,1.72235,-2.95658,-4.34314,-26.1529,27.8357,-15.1016,4.17551,-8.10866
4.21816,17.6014,-28.8826,-6.45772,-7.55626,1.34813,20.9165,-0.633833,-5.52586,-0.766899,-1.94548,2.18589,-12.4008,-0.451113,6.24037,-12.5743,-1.3924,-2.39065,24.8741,-0.590948,-3.36225,9.98394,-0.907243,-0.850088,-4.84413e-14,1.11319e-14,-58.3138,-57.6403,-15.7333,71.0359,-64.1535,-18.5404,-0.32237,7.12502,7.7488,-30.1604,-4.84413e-14,1.11319e-14,-46.4625,-4.66371,77.488,54.2256,2.74703,-13.0573,47.8413,7.12502,13.038,77.4139,-19.8707,-3.28316,14.6187,47.2076,-15.9996,-13.2498,1.61966,-2.92339,-4.38039,-26.1886,27.8381,-15.3242,3.95986,-7.43673
4.22067,17.6022,-28.8306,-6.24537,-7.391,1.34444,20.8111,-0.857894,-5.68485,-1.03497,-2.26009,2.3631,-12.592,-0.562398,6.63589,-11.7617,-1.29855,-2.83191,24.9828,-0.403772,-3.32928,9.87251,-0.856597,-0.735378,-1.27843e-14,0,-57.8714,-57.1569,-15.7351,71.252,-62.5718,-18.4009,0.0248932,7.12502,7.88339,-29.8081,-1.27843e-14,0,-47.2463,-4.10661,77.4983,54.4786,2.52906,-8.16035,52.7319,7.12502,17.7545,81.9414,-20.0959,-3.25552,14.6172,46.0931,-16.0875,-13.1874,1.54026,-2.88074,-4.5518,-26.2104,27.6751,-15.5187,3.75944,-6.49969
4.22306,17.6091,-28.7836,-6.05323,-7.17428,1.3274,20.9567,-1.04704,-5.85782,-1.49638,-2.55443,2.50455,-13.1552,-0.63687,7.01941,-10.1459,-0.889008,-3.15133,24.8414,0.137133,-3.2678,9.51688,-0.615171,-0.584146,2.43822e-15,-2.94201e-14,-57.7427,-56.0058,-15.5512,71.5563,-61.4908,-18.1742,0.230726,7.12502,8.10222,-29.594,2.43822e-15,-2.94201e-14,-48.4053,-3.85649,77.5728,54.7992,2.67576,-7.80307,53.5257,7.12502,18.0983,82.7037,-20.2922,-3.18501,14.6484,45.0051,-16.1057,-13.3399,0.589696,-2.79158,-4.61069,-26.2077,27.4368,-15.5185,3.6223,-6.93755
4.22388,17.6189,-28.7355,-6.01204,-7.10728,1.30352,21.2366,-1.22374,-6.06495,-1.7711,-2.83466,2.73185,-13.5746,-0.706671,7.5226,-9.56563,-0.973344,-3.34012,24.9946,0.12705,-3.68387,9.46453,-0.684097,-0.695838,3.30386e-14,-3.26007e-14,-56.8867,-55.0705,-15.9505,71.8411,-60.3352,-18.2082,0.705552,7.12502,8.06944,-29.1204,3.30386e-14,-3.26007e-14,-49.2453,-3.30962,77.6672,54.9207,2.57268,-7.87249,53.5724,7.12502,18.0315,82.7566,-20.4024,-2.95878,14.703,43.9923,-16.0884,-13.5452,-1.05394,-2.50134,-4.63982,-26.2179,27.1583,-15.5195,3.64443,-6.82072
4.226,17.6296,-28.6837,-5.95363,-7.07919,1.29339,21.3436,-1.14988,-5.99386,-1.75015,-2.7277,2.69671,-13.6351,-0.661387,7.41362,-9.88175,-0.857751,-3.1887,25.3456,0.263615,-3.5725,9.64835,-0.604652,-0.673836,-3.15444e-14,0,-57.6575,-55.2106,-14.9721,72.2299,-58.8699,-18.0786,1.14083,7.12502,8.19452,-28.6803,-3.15444e-14,0,-49.1782,-3.66527,77.7193,54.9842,2.53851,-7.77576,53.182,7.12502,18.1246,82.3575,-20.5214,-2.72682,14.7116,43.0526,-16.3275,-13.5503,-1.35639,-2.24448,-4.57941,-26.2327,26.9086,-15.5944,3.58627,-6.66017
4.22717,17.6257,-28.6279,-5.93382,-6.92143,1.36628,21.4879,-1.04496,-5.81532,-1.37911,-2.5592,2.56126,-13.323,-0.631884,7.08957,-11.6591,-1.17212,-2.95904,25.9423,-0.123342,-3.53109,10.2033,-0.783293,-0.763374,1.42876e-14,-1.59028e-14,-58.4821,-56.0782,-14.0027,72.6995,-57.3299,-17.8932,1.3995,7.12502,8.37344,-28.4145,1.42876e-14,-1.59028e-14,-48.2351,-4.0488,77.7089,55.0422,2.67139,-7.40698,53.2642,7.12502,18.4794,82.4064,-20.5055,-2.61965,14.5975,42.2037,-16.5069,-13.3081,-1.79587,-1.95154,-4.47212,-26.3223,26.6591,-15.704,3.33498,-6.22423
4.22421,17.6241,-28.584,-5.72844,-6.63897,1.3322,21.576,-1.24073,-5.85444,-1.39319,-2.81198,2.73283,-13.3385,-0.735519,7.39606,-12.2787,-1.0013,-3.13949,26.6381,0.240827,-3.62313,10.5852,-0.666177,-0.734996,2.0686e-14,2.38542e-15,-57.775,-55.9933,-14.3184,73.1885,-55.7188,-17.6525,1.73149,7.12502,8.60574,-28.0731,2.0686e-14,2.38542e-15,-48.2167,-3.56952,77.8178,54.9637,2.92823,-7.58871,53.5321,7.12502,18.3045,82.6909,-20.6803,-2.36026,14.5959,41.4158,-16.5394,-12.8957,-1.0674,-1.92658,-4.60569,-26.3,26.4448,-15.6406,3.25206,-6.27547
4.2238,17.6255,-28.5254,-5.59887,-6.93332,1.34958,21.1107,-1.21276,-6.08922,-1.37792,-2.79014,2.88834,-13.0381,-0.720433,7.67266,-11.099,-0.995566,-3.33211,25.9206,0.200691,-3.62679,10.0922,-0.677558,-0.690693,2.16551e-14,-7.15625e-15,-57.3004,-55.7179,-14.4619,73.6786,-53.8869,-17.7944,2.34699,7.12502,8.46874,-27.4632,2.16551e-14,-7.15625e-15,-48.486,-3.32245,78.0189,54.9007,3.35579,-8.42727,53.293,7.12502,17.4977,82.5255,-20.8965,-1.80735,14.5978,40.7506,-16.3966,-12.3389,0.15979,-1.75915,-4.47574,-26.3387,26.2883,-15.7281,3.41631,-6.24152
4.22273,17.6265,-28.4801,-5.56122,-6.87191,1.50075,20.4598,-0.796959,-6.19682,-0.446982,-2.22048,2.80738,-11.6842,-0.558183,7.38136,-12.6918,-1.65839,-2.87961,25.589,-0.744836,-3.68236,10.2714,-1.07651,-0.911562,-1.86858e-14,3.97569e-15,-58.6893,-57.61,-12.7156,74.2566,-51.9948,-18.1599,3.0279,7.12502,8.116,-26.7962,-1.86858e-14,3.97569e-15,-46.2985,-4.02293,78.1986,54.7047,2.80352,-7.63851,54.2207,7.12502,18.2566,83.384,-21.0293,-1.61123,14.414,40.1263,-16.0762,-12.2515,0.386752,-1.54158,-4.54951,-26.5456,26.1006,-15.8489,3.40306,-5.52747
4.22151,17.6058,-28.4521,-5.7877,-8.25083,1.89772,22.162,-0.316956,-6.62964,-1.50002,-1.84162,2.61603,-13.9521,-0.197594,7.44659,-10.3584,-1.69582,-2.61414,25.5762,-0.902082,-3.9876,9.80867,-1.14436,-1.05476,-4.70871e-15,6.36111e-15,-59.4602,-55.6156,-12.0579,74.9674,-50.2083,-18.0942,3.47054,7.12502,8.17942,-26.3511,-4.70871e-15,6.36111e-15,-48.5107,-4.18221,78.0172,55.0186,2.72654,-7.63484,53.7466,7.12502,18.2602,82.9095,-21.4127,-0.455387,14.1121,39.6469,-15.468,-11.9586,-0.169478,-1.10808,-3.685,-27.0009,25.8619,-16.0171,3.95997,-5.41088
4.22063,17.6223,-28.3859,-5.42188,-6.86115,1.61202,22.1574,-1.22252,-6.14333,-1.70247,-2.89087,2.82239,-14.0106,-0.694055,7.75325,-10.188,-1.37581,-3.16092,25.5823,-0.39347,-3.81309,9.78961,-0.942413,-0.841959,4.92365e-14,-5.56597e-15,-57.5031,-54.8601,-13.8149,75.6685,-48.4766,-18.4388,4.04309,7.12502,7.84681,-25.7913,4.92365e-14,-5.56597e-15,-49.1167,-3.17866,77.8445,55.1817,2.78115,-7.81172,53.1564,7.12502,18.09,82.3351,-21.4014,-0.903295,14.2671,39.1841,-15.8439,-12.5313,-0.800624,-1.12141,-4.45811,-26.6854,25.6042,-15.8928,3.26584,-5.4279
4.21923,17.6278,-28.3308,-5.15592,-6.63408,1.6343,22.1851,-1.39197,-6.09737,-1.88066,-3.09847,2.90192,-14.1998,-0.770948,7.89934,-10.0865,-1.34935,-3.34057,25.7646,-0.348229,-3.70761,9.83778,-0.9312,-0.771301,4.06515e-14,1.03368e-14,-56.9736,-54.2964,-14.1187,76.3929,-46.7389,-18.587,4.48404,7.12502,7.70383,-25.3556,4.06515e-14,1.03368e-14,-49.5496,-2.9667,77.9419,55.379,2.79406,-7.71576,53.6068,7.12502,18.1823,82.777,-21.7065,-0.874454,14.2116,38.8302,-15.8816,-12.3083,-0.358142,-1.10066,-4.63013,-26.7208,25.4031,-15.9292,3.16639,-5.60578
4.21562,17.6275,-28.2831,-5.16131,-6.7887,1.66121,22.5797,-1.26261,-6.01447,-1.84733,-2.92968,2.86146,-14.4259,-0.688343,7.77655,-10.657,-1.52995,-3.09685,26.1963,-0.555875,-3.91443,10.1008,-1.04105,-0.921705,-6.21202e-15,-2.54444e-14,-57.2057,-54.0532,-13.8611,77.302,-45.1736,-18.4463,4.71685,7.12502,7.83959,-25.1178,-6.21202e-15,-2.54444e-14,-49.541,-3.27481,78.0466,55.4673,2.99652,-7.74697,54.1837,7.12502,18.1523,83.3567,-21.7894,-0.651904,14.204,38.4631,-15.6699,-11.9062,0.307163,-0.81361,-4.56189,-26.7778,25.2412,-16.0556,3.21554,-4.97867
4.21443,17.6249,-28.2367,-5.18041,-6.76113,1.59791,22.9103,-1.33607,-5.96432,-1.76983,-3.01002,2.99789,-14.5059,-0.717304,7.95424,-10.9871,-1.39842,-3.0613,26.2095,-0.328265,-4.02983,10.1714,-0.948839,-0.945432,2.03754e-15,-6.36111e-15,-56.4197,-53.9175,-14.4178,78.1316,-43.1899,-18.3764,5.05677,7.12502,7.90707,-24.7754,2.03754e-15,-6.36111e-15,-49.5811,-2.91078,78.1209,55.4123,2.98494,-7.94694,54.2599,7.12502,17.9599,83.4507,-21.849,-0.558271,14.2726,38.2448,-15.1575,-11.7074,0.403893,-0.500411,-4.52936,-26.7274,25.0273,-16.1358,3.15916,-4.71934
4.21076,17.6218,-28.1919,-5.06726,-6.78213,1.4612,23.0376,-1.34761,-5.72564,-1.77928,-2.96405,3.00269,-14.6099,-0.708382,7.8157,-10.9562,-1.68917,-3.10519,26.6515,-0.73052,-3.9976,10.3247,-1.14506,-0.981873,-2.18415e-14,-1.82882e-14,-56.4184,-53.9078,-14.4823,78.9592,-40.6775,-18.4675,5.56163,7.12502,7.81912,-24.2738,-2.18415e-14,-1.82882e-14,-49.6507,-3.03033,78.1379,55.4003,2.87709,-7.99217,54.1212,7.12502,17.9164,83.316,-22.0376,-0.454597,14.4457,38.0648,-14.737,-11.5829,0.125524,-0.340061,-4.49071,-26.5763,24.821,-16.2578,3.12379,-5.05036
4.20882,17.6168,-28.1356,-5.05098,-6.70977,1.94054,23.0881,-1.40378,-6.16168,-1.85381,-3.17133,2.97015,-14.6733,-0.761823,8.10949,-10.6934,-1.63884,-3.14101,26.6727,-0.614469,-4.19632,10.2827,-1.11756,-1.02996,3.23025e-15,-2.06736e-14,-55.4852,-53.3818,-15.3686,79.8196,-38.4855,-18.8065,6.38866,7.12502,7.4919,-23.4587,3.23025e-15,-2.06736e-14,-49.981,-2.795,78.2144,55.4063,2.78122,-7.88371,53.421,7.12502,18.0207,82.6061,-22.1741,-0.548722,13.9101,37.9426,-14.6172,-11.2823,0.289766,-0.0858609,-4.36219,-27.1217,24.6014,-16.3977,3.06923,-5.77649
4.20682,17.6194,-28.0792,-4.96702,-6.72492,1.99213,23.2923,-1.65114,-6.53542,-2.23388,-3.57962,3.30928,-15.1343,-0.850135,8.91132,-9.36316,-1.51802,-3.7933,26.7751,-0.371484,-4.28214,10.0722,-1.07559,-0.90886,4.82798e-14,-2.06736e-14,-53.426,-51.7803,-17.139,80.6864,-36.4199,-19.2315,7.1368,7.12502,7.08165,-22.7247,4.82798e-14,-2.06736e-14,-51.204,-1.79013,78.3459,55.4468,2.70018,-7.75351,52.9761,7.12502,18.146,82.1497,-22.301,-0.429111,13.8668,37.8117,-14.4403,-11.1214,0.376494,0.121093,-4.27181,-27.2036,24.4312,-16.5547,3.1365,-6.85387
4.20273,17.6245,-28.0228,-4.84839,-6.93751,1.81671,23.3374,-1.30523,-5.75973,-1.65888,-2.93283,2.98139,-14.6443,-0.692798,7.81477,-11.8613,-2.09069,-3.02182,27.5945,-1.208,-4.1453,10.8489,-1.40009,-1.13895,2.49226e-14,1.27222e-14,-54.7263,-53.0705,-16.3584,81.7409,-34.0145,-19.3855,7.6643,7.12502,6.93304,-22.2022,2.49226e-14,1.27222e-14,-49.5103,-3.16814,78.4286,55.2121,2.96429,-7.67126,53.7508,7.12502,18.2251,82.917,-22.4655,-0.205438,14.1198,37.7375,-14.2856,-10.8659,0.0728457,0.319347,-4.24811,-27.0193,24.2338,-16.5744,3.18411,-6.45828
4.19087,17.6207,-27.9812,-4.71706,-6.82066,1.64968,23.3992,-1.91207,-6.25107,-2.2123,-3.80752,3.60184,-15.1211,-0.96093,9.17849,-9.33643,-1.52029,-4.07263,27.1382,-0.309345,-4.30229,10.2046,-1.08949,-0.867979,-1.32192e-14,-4.29375e-14,-51.2943,-50.8563,-19.2861,82.5325,-31.452,-19.1861,8.19267,7.12502,7.12548,-21.6674,-1.32192e-14,-4.29375e-14,-51.6206,-1.18817,78.4763,55.4925,2.97711,-7.34938,54.6447,7.12502,18.5348,83.7817,-22.6007,-0.25931,14.366,37.663,-13.7912,-10.7867,-1.5494,0.380026,-4.43214,-26.8181,24.2014,-16.5478,3.15013,-6.12575
4.18639,17.6105,-27.9229,-4.75266,-6.97331,1.65437,23.5879,-1.76944,-5.97876,-1.95402,-3.55471,3.51616,-14.989,-0.892005,8.82859,-10.4044,-1.98944,-3.85426,27.5906,-0.888595,-4.46792,10.5761,-1.37281,-1.05384,5.39203e-15,-3.73715e-14,-51.0436,-51.2238,-19.688,83.4824,-28.8415,-19.3046,8.84458,7.12502,7.01114,-21.0193,5.39203e-15,-3.73715e-14,-51.0329,-1.61028,78.6439,55.2688,2.73795,-7.47107,53.9269,7.12502,18.4177,83.075,-22.6026,0.0109337,14.4049,37.6947,-13.2839,-10.8552,-3.49981,0.689321,-4.64708,-26.9162,24.1141,-16.739,3.49622,-5.76104
4.17363,17.6049,-27.8859,-4.64423,-6.92327,1.6109,23.9686,-1.62466,-5.81869,-1.86243,-3.33365,3.50087,-15.1513,-0.79658,8.66801,-11.3437,-2.27754,-3.58508,28.2757,-1.23317,-4.61845,11.0135,-1.54324,-1.22612,2.13197e-14,-1.03368e-14,-50.8361,-51.2288,-20.0676,84.4983,-26.5791,-19.6049,9.41621,7.12502,6.72128,-20.4571,2.13197e-14,-1.03368e-14,-50.4863,-2.18661,78.9107,55.0247,2.73833,-7.67429,53.3991,7.12502,18.2222,82.5656,-22.7825,0.161437,14.511,37.7895,-12.862,-11.1163,-5.15547,0.750654,-4.60533,-26.8313,24.0263,-16.8507,3.48221,-6.52455
4.1698,17.6007,-27.8089,-4.60856,-7.33548,1.89127,23.9225,-1.7503,-6.52623,-2.66882,-3.64422,4.06764,-15.3967,-0.86351,9.45078,-9.53189,-1.97641,-4.14353,28.3815,-0.69289,-5.04607,10.7079,-1.39917,-1.1953,-2.00276e-14,1.98785e-14,-48.8481,-48.8088,-21.7213,85.4982,-24.5928,-19.4081,10.0521,7.12502,6.91124,-19.8151,-2.00276e-14,1.98785e-14,-52.1949,-1.12871,79.224,55.0379,2.68719,-7.87907,53.3097,7.12502,18.0252,82.4944,-22.8904,0.268588,14.2687,37.925,-12.5237,-10.6512,-5.97739,1.07956,-4.33245,-27.2059,23.8975,-17.1294,3.78871,-7.38917
4.16014,17.5961,-27.7428,-4.61563,-7.81171,1.99008,23.9253,-1.51686,-6.42218,-2.44814,-3.31748,3.93569,-15.2146,-0.752864,9.11359,-10.4064,-2.52838,-4.10869,29.1464,-1.42223,-4.97684,11.1676,-1.74821,-1.29846,-2.5842e-15,2.38542e-15,-48.5325,-48.6359,-22.3745,86.5164,-22.2024,-19.5853,10.7496,7.12502,6.74016,-19.1231,-2.5842e-15,2.38542e-15,-51.6475,-1.70557,79.4005,54.7416,2.90789,-7.76318,53.3011,7.12502,18.1367,82.4755,-22.9521,0.676656,14.265,38.0431,-12.3788,-10.3668,-5.23961,1.41203,-4.1908,-27.3635,23.7823,-17.3432,4.10575,-7.14832
4.14966,17.5925,-27.7005,-4.57284,-7.77177,1.90099,24.1567,-1.79538,-6.58688,-2.57448,-3.70782,4.23908,-15.3851,-0.882042,9.7076,-9.5219,-2.51562,-4.60418,29.0248,-1.31288,-5.20573,10.9557,-1.77245,-1.26593,4.81059e-14,-3.89618e-14,-46.4498,-47.2738,-24.4354,87.4427,-19.724,-19.8624,11.3032,7.12502,6.4727,-18.5779,4.81059e-14,-3.89618e-14,-52.2922,-0.942799,79.553,54.7395,3.12241,-8.03937,53.5065,7.12502,17.871,82.7054,-22.9721,0.745662,14.4183,38.1753,-12.4142,-10.1985,-3.34036,1.6007,-4.23265,-27.2529,23.6592,-17.3878,4.04765,-6.85537
4.14437,17.5933,-27.6389,-4.26067,-7.79726,1.867,23.8311,-1.79331,-6.14874,-2.35775,-3.5772,4.07986,-15.0178,-0.902813,9.19576,-10.5759,-2.75346,-4.19513,29.4034,-1.65226,-5.18955,11.3009,-1.89794,-1.40171,1.98288e-14,-2.8625e-14,-45.9715,-47.4048,-25.3608,88.4494,-17.1368,-19.6189,11.7999,7.12502,6.70775,-18.0739,1.98288e-14,-2.8625e-14,-51.6182,-1.60642,79.7376,54.5388,3.33772,-8.19269,53.8123,7.12502,17.7234,83.0246,-23.177,0.726611,14.4911,38.2854,-12.3286,-9.90403,-1.41851,1.5202,-4.36778,-27.2448,23.6621,-17.5569,4.23168,-7.10987
4.13341,17.5874,-27.5865,-4.34576,-8.26879,1.88275,24.2301,-1.68696,-6.26591,-2.38186,-3.47096,4.21117,-15.2651,-0.819938,9.40154,-10.5515,-2.98985,-4.66243,29.8835,-1.90425,-5.10293,11.4943,-2.06759,-1.33673,4.72611e-14,-2.14687e-14,-44.727,-46.3742,-26.7063,89.3121,-14.5933,-19.7486,12.3974,7.12502,6.58251,-17.4803,4.72611e-14,-2.14687e-14,-51.8023,-1.4731,79.98,54.4672,3.10773,-7.59675,54.1224,7.12502,18.2968,83.2819,-23.0725,0.986555,14.5953,38.4044,-11.7611,-9.66041,-1.49436,1.80742,-4.36405,-27.3499,23.7152,-17.768,4.71598,-6.95491
4.11698,17.5829,-27.5279,-4.20668,-8.24602,1.75427,24.4959,-1.85396,-6.56118,-2.79474,-3.74555,4.59073,-15.8054,-0.842073,10.1509,-9.31103,-3.10805,-5.298,30.125,-1.99914,-5.2595,11.354,-2.20264,-1.28038,-1.03368e-14,3.02153e-14,-43.2845,-44.1908,-28.1391,90.0649,-11.7171,-20.1052,12.8945,7.12502,6.23821,-16.9936,-1.03368e-14,3.02153e-14,-52.8758,-0.865611,80.3114,54.4433,2.75561,-7.39824,53.9053,7.12502,18.4878,83.0467,-23.0385,1.17624,14.8298,38.519,-11.2464,-9.88782,-1.931,1.85018,-4.50698,-27.1927,23.7587,-17.8717,4.72812,-6.5243
4.10511,17.5799,-27.4705,-4.03322,-8.29434,1.67154,24.6795,-1.78018,-6.38457,-2.77529,-3.59011,4.65948,-15.9209,-0.776226,10.0861,-9.43459,-3.77057,-5.79258,30.7064,-2.84161,-5.20055,11.6237,-2.64984,-1.30259,5.17834e-14,9.54166e-15,-42.4205,-43.4279,-29.231,90.7378,-8.54013,-20.0611,13.3406,7.12502,6.28086,-16.5463,5.17834e-14,9.54166e-15,-52.5575,-1.16693,80.7198,54.1344,2.74093,-8.22261,52.4263,7.12502,17.6946,81.6411,-23.044,1.26802,15.0068,38.6251,-11.1802,-9.93296,-0.947321,1.86061,-4.44429,-27.0654,23.7718,-17.84,4.68436,-7.27426
4.09397,17.5735,-27.4012,-3.92511,-8.57923,1.56177,24.6735,-1.61708,-6.05313,-2.67178,-3.27902,4.58631,-15.8808,-0.677787,9.69551,-10.5219,-3.97912,-5.31234,31.3584,-3.11901,-5.25084,12.0903,-2.74792,-1.49025,5.48646e-14,-2.70347e-14,-42.0571,-42.618,-30.0993,91.4869,-5.57108,-20.0798,13.6518,7.12502,6.26278,-16.2357,5.48646e-14,-2.70347e-14,-52.1796,-1.7715,80.9882,53.8648,2.7195,-9.36316,50.3697,7.12502,16.5968,79.68,-22.9963,1.3886,15.2137,38.7469,-11.6174,-9.9663,1.33124,2.01232,-4.14816,-26.9347,23.8183,-18.3483,4.70624,-6.40785
4.08082,17.5671,-27.3355,-3.90385,-8.58202,1.61989,24.898,-1.97895,-6.59284,-3.07416,-3.8741,5.05327,-16.3049,-0.819318,10.8033,-9.28831,-3.81931,-6.08131,31.8375,-2.67834,-5.76777,12.0552,-2.71996,-1.48372,4.47266e-15,2.06736e-14,-39.8535,-39.4909,-32.2548,92.1161,-3.35376,-20.6187,13.806,7.12502,5.74249,-16.0962,4.47266e-15,2.06736e-14,-53.4941,-0.253673,81.1176,53.977,2.23887,-9.30014,49.9608,7.12502,16.6575,79.266,-22.8448,1.30575,15.213,38.8087,-11.1111,-10.119,-1.38988,2.21745,-4.23714,-27.0343,23.8732,-18.4026,4.91584,-7.65377
4.06646,17.5465,-27.2966,-3.96622,-10.4099,1.84764,25.4753,-1.33443,-7.42814,-3.22217,-3.27456,5.27466,-16.8792,-0.404711,11.3838,-8.99145,-3.92312,-6.42698,32.0512,-2.74481,-5.914,12.0932,-2.81719,-1.49062,4.21423e-14,3.18055e-15,-38.5103,-37.586,-33.8051,92.601,-0.759387,-20.5197,14.2077,7.12502,5.8381,-15.6919,4.21423e-14,3.18055e-15,-53.8638,0.154874,81.3503,53.7587,1.85659,-7.77754,51.4275,7.12502,18.1229,80.6032,-23.1523,2.45035,15.1561,38.9003,-10.8258,-9.42945,-1.73648,2.42379,-3.43488,-27.4148,23.9237,-18.7791,5.92039,-7.43602
4.0493,17.5585,-27.2257,-3.72686,-9.41926,1.47938,20.37,-2.66012,-3.61094,0.263803,-4.08686,2.55357,-10.6966,-1.66093,6.07819,-11.0252,-4.49993,-4.04477,30.6915,-4.51571,-4.04996,11.8895,-3.06259,-1.42944,-2.08724e-14,3.18055e-15,-36.4375,-42.2991,-40.0303,93.1415,2.79484,-19.9176,14.9207,7.12502,6.41937,-14.962,-2.08724e-14,3.18055e-15,-47.9249,-2.70361,78.0217,52.9984,2.5247,-7.15412,51.8734,7.12502,18.7226,80.9924,-22.7987,2.12382,15.5196,38.9087,-11.5093,-9.94508,-0.531585,2.44238,-4.03413,-26.9261,24.0544,-18.9593,5.42756,-7.11209
4.03362,17.5497,-27.1623,-3.67738,-10.2933,1.49361,20.3575,-2.54005,-3.55864,0.133714,-3.91944,2.53198,-10.8624,-1.57543,5.985,-10.4425,-4.56432,-4.35201,30.8083,-4.63932,-3.865,11.8332,-3.13421,-1.31147,-1.13307e-14,8.74653e-15,-35.4802,-40.02,-41.6226,93.4582,4.77035,-20.2429,14.9893,7.12502,6.10532,-14.9028,-1.13307e-14,8.74653e-15,-48.4258,-2.56968,78.0921,52.928,2.45946,-8.10536,51.2973,7.12502,17.8075,80.502,-22.8406,2.83133,15.5704,39.0379,-11.7454,-9.74087,0.107756,2.66611,-3.78929,-27.0519,24.0972,-19.2154,6.02542,-6.82818
4.01019,17.5484,-27.1202,-3.45574,-9.64807,1.20643,20.5422,-2.95882,-3.13342,-0.0139865,-4.37065,2.5859,-11.1049,-1.79491,5.95268,-10.0807,-4.68372,-4.49447,31.0293,-4.82626,-3.81542,11.8544,-3.23392,-1.28988,-3.37934e-14,-3.97569e-15,-34.5108,-37.9594,-43.2928,93.5925,7.14901,-20.7873,14.7773,7.12502,5.5797,-15.1292,-3.37934e-14,-3.97569e-15,-48.6252,-2.50581,78.1127,52.7575,2.19045,-8.23212,50.6853,7.12502,17.6855,79.901,-22.7547,2.72046,15.8821,39.1324,-11.9416,-10.1272,0.663294,2.60618,-4.20351,-26.6387,24.1329,-19.1528,5.7655,-7.21978
4.0009,17.54,-27.0355,-3.37782,-10.1949,1.42098,20.1229,-2.69107,-3.29638,0.308426,-4.04597,2.57523,-10.5332,-1.66651,5.88845,-10.3476,-5.15408,-4.55953,31.1898,-5.45488,-3.87643,11.976,-3.53032,-1.39899,-6.17226e-14,3.4191e-14,-33.3454,-36.7423,-44.6206,93.4895,9.30344,-21.0114,14.8402,7.12502,5.36333,-15.0719,-6.17226e-14,3.4191e-14,-47.7968,-2.78888,78.4773,52.3292,1.56974,-9.40697,49.0708,7.12502,16.5547,78.3846,-22.7786,2.90942,15.6436,39.3398,-12.2181,-9.63731,1.32408,2.86843,-4.02604,-27.0013,24.0669,-19.2137,6.26076,-7.60755
3.98317,17.5371,-26.9774,-3.30548,-10.5733,1.27245,20.2764,-2.25183,-3.99362,0.345619,-3.55271,3.31546,-10.5449,-1.37598,6.99495,-10.899,-5.6355,-5.08206,31.8363,-5.79146,-4.51717,12.3612,-3.82808,-1.64452,4.04527e-14,-1.82882e-14,-32.1653,-34.7461,-44.8182,93.0947,11.0118,-21.0315,14.9316,7.12502,5.34393,-14.981,4.04527e-14,-1.82882e-14,-47.4701,-2.43502,79.6851,52.033,0.7646,-7.07283,51.8712,7.12502,18.8008,80.9827,-22.7805,3.28129,15.8587,39.5236,-12.3338,-9.43222,2.4329,3.03594,-3.83048,-26.8531,24.0201,-19.101,6.55514,-8.65212
3.96512,17.5372,-26.9147,-3.2625,-10.6192,1.06593,20.5309,-2.37098,-3.71079,0.27138,-3.64325,3.37453,-10.7715,-1.41849,6.94861,-11.1259,-6.31514,-5.40509,32.7327,-6.71564,-4.4718,12.8016,-4.28355,-1.75341,-1.33186e-14,1.66979e-14,-31.2181,-32.6223,-46.2455,92.5457,12.8968,-20.8877,15.1397,7.12502,5.48279,-14.7694,-1.33186e-14,1.66979e-14,-47.5865,-2.33094,79.7835,51.8236,0.775767,-7.96409,50.7505,7.12502,17.9434,79.9427,-22.6676,3.26563,16.1475,39.7527,-12.4928,-9.20827,3.21113,3.31315,-3.9034,-26.6496,23.9188,-19.064,6.77105,-9.55818
3.95254,17.5361,-26.8295,-2.92958,-11.0273,1.00008,20.1114,-2.57646,-3.86162,-0.0604883,-3.90923,3.6828,-10.8422,-1.51676,7.44455,-10.0013,-6.2451,-6.24278,32.8379,-6.53256,-4.45704,12.6585,-4.31211,-1.54253,9.14409e-15,6.36111e-15,-29.886,-29.6969,-47.6615,91.6229,14.6031,-20.873,15.5791,7.12502,5.49696,-14.3296,9.14409e-15,6.36111e-15,-48.4813,-1.31787,79.9993,51.7706,0.815409,-8.75902,50.1305,7.12502,17.1784,79.3911,-22.9099,3.4295,16.2412,39.9675,-12.9903,-8.83231,4.99558,3.25654,-4.14356,-26.7122,23.9882,-19.388,7.20201,-8.25863
3.93026,17.53,-26.7741,-2.82976,-11.075,1.05763,19.0825,-2.46664,-3.31014,0.930601,-3.67106,3.17694,-9.26152,-1.54332,6.34671,-11.1722,-6.66957,-5.40826,32.7463,-7.32104,-4.19283,12.8296,-4.51223,-1.73517,3.55825e-14,1.59028e-15,-28.5885,-29.4738,-49.6669,90.7015,16.1036,-21.49,15.5213,7.12502,4.9012,-14.402,3.55825e-14,1.59028e-15,-46.2387,-2.23748,79.5876,51.4111,0.781681,-7.62735,50.9716,7.12502,18.2674,80.1338,-22.98,3.42596,16.2337,40.2042,-13.4923,-8.6832,5.88092,3.29591,-4.34788,-26.7963,24.0898,-19.5367,7.3358,-8.00542
3.90872,17.5243,-26.7158,-2.75898,-11.418,1.06144,19.8342,-2.39666,-3.49522,0.470129,-3.61601,3.3482,-10.1773,-1.45208,6.71797,-10.5609,-6.72744,-5.71996,33.1812,-7.30583,-4.46844,12.892,-4.58994,-1.78027,-1.65985e-14,-3.97569e-15,-28.5722,-26.3397,-50.2884,89.808,17.1394,-21.9433,15.2044,7.12502,4.46352,-14.7286,-1.65985e-14,-3.97569e-15,-46.8933,-1.95746,79.9092,51.3416,0.640765,-8.76424,50.4606,7.12502,17.1734,79.7217,-23.0429,3.54427,16.3114,40.4369,-13.8233,-8.43656,5.62536,3.35859,-4.21636,-26.8278,24.3014,-19.5738,7.67559,-9.57943
3.89083,17.521,-26.6415,-2.69894,-11.9236,1.0984,20.2318,-2.41251,-3.82525,-0.0290724,-3.69319,3.6198,-10.9133,-1.41551,7.30146,-9.28978,-6.52907,-6.41327,33.2214,-6.96325,-4.53069,12.6803,-4.54206,-1.58814,4.64162e-14,0,-28.5913,-22.5761,-50.9663,88.8153,18.0232,-22.2624,14.8919,7.12502,4.1554,-15.0473,4.64162e-14,0,-47.9731,-1.18272,80.2137,51.395,0.640098,-7.88075,50.635,7.12502,18.0236,79.8199,-23.026,3.59991,16.3341,40.6291,-14.0694,-7.92566,5.73043,3.46434,-3.83741,-26.9234,24.5928,-19.5845,8.12521,-11.7414
3.86198,17.5188,-26.5905,-2.63396,-12.1305,0.944422,19.8333,-2.065,-3.26294,0.774117,-3.13541,3.2536,-9.91911,-1.25541,6.33167,-10.7292,-7.06543,-5.50861,33.2709,-7.89507,-4.28709,12.9614,-4.79626,-1.84047,-8.05078e-15,-8.74653e-15,-27.5842,-23.2116,-52.4151,87.0804,19.6186,-22.1093,15.4792,7.12502,4.30324,-14.4571,-8.05078e-15,-8.74653e-15,-45.8461,-2.53773,80.1557,51.088,1.19073,-9.87322,49.7559,7.12502,16.1057,79.1066,-22.9669,3.73626,16.6173,40.7587,-14.0706,-7.70853,5.66216,3.43281,-3.69234,-26.6992,24.978,-19.5571,8.08796,-11.8884
3.83525,17.5257,-26.5181,-2.26317,-11.4628,0.794672,19.9934,-2.75751,-3.46144,-0.0485765,-4.05051,3.70507,-10.7669,-1.60931,7.26562,-8.63273,-6.59935,-6.64248,33.0989,-7.16877,-4.26171,12.5176,-4.62777,-1.44148,-1.59028e-15,-8.74653e-15,-26.0751,-20.8066,-53.5914,84.1979,21.7459,-21.7937,16.5826,7.12502,4.60798,-13.3472,-1.59028e-15,-8.74653e-15,-47.6859,-1.03841,80.31,51.3774,1.38494,-10.7101,49.176,7.12502,15.2997,78.5901,-23.0117,3.37618,16.8222,40.905,-14.297,-7.91293,5.46714,3.15671,-4.24745,-26.4486,25.2385,-19.5323,7.72082,-10.2988
3.81115,17.5259,-26.4536,-1.92183,-11.7676,0.565368,19.3654,-2.73735,-2.11974,0.470705,-3.80065,2.84673,-10.0146,-1.62765,5.38247,-9.72974,-6.94502,-5.32243,33.4488,-7.97962,-3.91966,12.8291,-4.778,-1.7019,9.0447e-15,4.77083e-15,-25.7561,-20.5227,-55.8508,82.5149,22.964,-22.9567,15.1854,7.12502,3.48491,-14.7658,9.0447e-15,4.77083e-15,-46.3148,-2.46528,79.3369,51.2856,1.49775,-9.98726,49.9318,7.12502,15.9959,79.2914,-23.2308,3.72649,17.1373,41.0152,-14.5047,-7.87166,6.01436,2.84972,-4.11118,-26.1736,25.6197,-19.5347,7.87551,-10.9605
3.78422,17.5147,-26.3954,-2.22974,-12.8479,1.02544,19.2153,-2.20393,-3.35803,0.801846,-3.33301,3.22355,-9.51581,-1.36518,6.35799,-9.27136,-7.01479,-6.17656,33.1431,-7.95356,-3.80795,12.6666,-4.85264,-1.48237,2.62396e-14,-5.88403e-14,-24.8471,-17.7377,-56.1242,80.3969,22.9888,-23.7747,14.6078,7.12502,2.69499,-15.3549,2.62396e-14,-5.88403e-14,-45.8952,-1.66125,80.0246,51.1049,1.23208,-8.74307,50.8887,7.12502,17.1937,80.148,-23.0419,4.10921,16.7539,41.1533,-14.5971,-7.11151,6.24662,3.17062,-3.22483,-26.7335,25.9555,-19.7755,8.21659,-11.5208
3.74667,17.5093,-26.325,-2.27348,-13.2106,0.811214,19.4697,-2.2991,-3.34706,0.606163,-3.45107,3.32516,-9.85431,-1.40044,6.52639,-8.21093,-6.82372,-6.68298,32.9527,-7.76641,-3.49823,12.4104,-4.80029,-1.20108,-2.96189e-14,3.81667e-14,-24.2066,-15.6432,-57.2872,77.7993,23.5364,-23.855,14.53,7.12502,2.61735,-15.4337,-2.96189e-14,3.81667e-14,-46.515,-1.21314,80.0177,51.1798,1.58366,-9.42535,49.9431,7.12502,16.537,79.2584,-22.7754,4.46627,17.135,41.2116,-14.9198,-6.97566,7.04631,3.30049,-3.04437,-26.4774,26.4073,-19.726,8.34709,-12.1908
3.71407,17.508,-26.2444,-2.1672,-13.6657,0.672462,19.4306,-1.79231,-2.9588,0.91537,-2.71865,3.09083,-9.6133,-1.09124,5.82967,-8.35294,-7.654,-6.10659,33.2481,-9.04809,-3.60675,12.5361,-5.30765,-1.52418,-3.93594e-14,1.35174e-14,-23.5399,-16.7024,-58.1727,74.8721,24.5334,-23.5003,15.0769,7.12502,2.95999,-14.8823,-3.93594e-14,1.35174e-14,-45.2982,-2.6141,80.1986,50.9932,1.42878,-10.6595,48.2673,7.12502,15.3485,77.6776,-22.6537,4.87709,17.3843,41.2299,-15.3314,-6.65847,9.57193,3.26082,-3.05461,-26.3938,26.8899,-19.7018,8.68311,-12.228
3.67745,17.507,-26.184,-2.03597,-13.6533,0.655766,19.5671,-2.22791,-3.5979,0.384334,-3.38647,3.60484,-10.1337,-1.33261,6.98903,-6.17702,-7.17172,-7.64627,32.7119,-8.32212,-3.40194,11.9748,-5.16056,-0.978239,9.74045e-15,-3.18055e-15,-22.3427,-14.4636,-59.133,71.5329,25.6049,-22.6921,15.5419,7.12502,3.74048,-14.405,9.74045e-15,-3.18055e-15,-46.6965,-0.88154,80.3442,51.1536,1.45459,-10.6028,48.3223,7.12502,15.4031,77.7284,-22.528,5.08549,17.4875,41.1539,-15.4484,-6.48339,11.3733,2.97938,-3.13271,-26.3132,27.5723,-19.6443,8.71388,-12.7621
3.64249,17.5051,-26.1146,-1.99794,-13.7797,0.578654,19.6824,-2.22402,-3.61707,0.381084,-3.37816,3.70219,-10.1959,-1.32192,7.11681,-6.41443,-7.1144,-7.72159,33.0348,-8.17179,-3.51812,12.1526,-5.12139,-1.01536,-3.62782e-14,3.81667e-14,-21.7261,-12.8331,-59.914,68.8723,25.5522,-22.5769,14.5954,7.12502,3.85171,-15.3496,-3.62782e-14,3.81667e-14,-46.576,-0.854464,80.5334,51.0953,1.87131,-8.11365,51.1994,7.12502,17.7995,80.4048,-22.2536,5.4496,17.6456,41.0404,-15.2914,-6.24994,11.6083,2.83708,-2.99063,-26.1835,28.296,-19.4457,8.7943,-14.6259
3.60956,17.5038,-26.0354,-1.91144,-14.0673,0.45906,19.7233,-1.68785,-2.95797,0.868245,-2.56014,3.33844,-9.83574,-1.00003,6.08428,-8.31149,-7.76959,-6.64117,33.7435,-9.13461,-3.57025,12.7798,-5.40983,-1.45981,6.7885e-14,-2.38542e-14,-20.7418,-14.4223,-60.7939,65.4397,25.9134,-22.7911,13.9574,7.12502,3.64482,-15.9912,6.7885e-14,-2.38542e-14,-44.8255,-2.75193,80.8077,50.8527,2.38626,-10.4616,49.2453,7.12502,15.5391,78.641,-22.0074,5.81852,17.8422,40.9214,-15.2526,-6.10002,11.4114,2.63225,-2.60006,-25.9747,29.0859,-19.3014,8.69175,-15.7247
3.56931,17.5112,-25.9657,-1.81742,-14.0994,0.27307,19.9126,-1.72468,-2.99702,0.551931,-2.59602,3.54655,-10.2793,-0.985221,6.37908,-7.33327,-7.88956,-7.24262,33.8441,-9.35034,-3.3836,12.6782,-5.56685,-1.27727,5.59579e-14,-3.26007e-14,-19.8244,-14.087,-61.4909,61.3301,26.7892,-22.416,14.055,7.12502,4.00703,-15.8871,5.59579e-14,-3.26007e-14,-45.3794,-2.50036,81.0392,50.8798,2.25453,-10.1577,49.2003,7.12502,15.8318,78.573,-21.6898,6.01936,18.1347,40.7866,-15.4448,-6.18786,10.6798,2.34477,-2.4789,-25.6476,29.9672,-19.0495,8.46019,-15.7424
3.53083,17.515,-25.8869,-1.80585,-14.1633,0.215922,20.115,-1.61352,-2.97197,0.475296,-2.43376,3.65247,-10.4958,-0.895807,6.45676,-7.37959,-8.74802,-7.85098,34.476,-10.603,-3.10774,13.0555,-6.161,-1.28638,-7.83212e-14,-8.74653e-15,-18.7966,-14.4632,-62.0685,57.4821,27.7827,-20.7823,14.3517,7.12502,5.58455,-15.5547,-7.83212e-14,-8.74653e-15,-45.1776,-2.59749,81.3311,50.6351,1.95445,-8.57802,50.2627,7.12502,17.3526,79.5081,-21.2815,6.24086,18.2957,40.665,-15.7339,-6.20056,10.2846,2.08776,-2.63906,-25.5715,31.0045,-18.8499,8.37102,-14.8804
3.49417,17.5186,-25.8037,-1.81254,-14.276,0.161316,19.0271,-1.7576,-2.74813,0.907881,-2.576,3.57065,-9.40138,-1.03012,6.17947,-6.49259,-8.66986,-8.31332,33.9387,-10.658,-2.51821,12.7184,-6.17356,-0.923148,-6.65929e-15,-1.27222e-14,-17.3355,-14.6455,-63.2084,53.9847,28.4868,-19.8614,13.396,7.12502,6.47362,-16.4851,-6.65929e-15,-1.27222e-14,-44.5163,-2.4847,81.1424,50.3191,2.13842,-9.10583,49.398,7.12502,16.8446,78.6874,-20.8389,6.58088,18.4354,40.5401,-16.0517,-6.02585,11.827,1.75723,-2.55369,-25.4649,32.254,-18.5182,8.27169,-16.1873
3.45695,17.5184,-25.7236,-1.73044,-14.3691,-0.0369848,19.4679,-1.50886,-2.49815,0.769547,-2.18753,3.6332,-9.85518,-0.834351,6.03752,-6.88671,-8.92557,-8.08184,34.5405,-10.9913,-2.72328,13.0364,-6.31457,-1.13326,3.68746e-14,3.97569e-15,-16.8421,-15.5792,-63.4448,50.5889,29.1952,-18.9077,12.5254,7.12502,7.39422,-17.3254,3.68746e-14,3.97569e-15,-44.1936,-3.17646,81.5205,50.0936,2.2859,-10.8174,47.3837,7.12502,15.1964,76.8057,-20.488,6.83967,18.732,40.4188,-16.2363,-5.89243,13.3254,1.17245,-2.26641,-25.0951,33.7548,-18.0547,7.7951,-17.9876
3.4201,17.5159,-25.641,-1.66604,-14.3849,-0.232169,20.0467,-1.55024,-2.72937,0.0981626,-2.23857,4.1114,-10.8998,-0.777939,6.79752,-5.51036,-8.63085,-8.8808,34.6668,-10.5082,-2.92865,12.8452,-6.24967,-0.94741,4.91992e-14,-7.95139e-15,-16.8278,-14.8761,-63.2978,47.2854,29.5965,-17.3843,11.2157,7.12502,8.8645,-18.5781,4.91992e-14,-7.95139e-15,-45.3287,-2.49453,82.06,50.0451,2.07273,-10.345,47.7837,7.12502,15.6514,77.1706,-20.1128,6.8061,19.0351,40.2926,-16.364,-5.73257,13.8373,0.410471,-1.99511,-24.6849,35.5174,-17.3995,7.23455,-19.3384
3.38358,17.51,-25.5577,-1.68612,-14.4088,-0.427278,19.7583,-1.42922,-2.35516,0.438431,-1.99246,4.15354,-10.3984,-0.707508,6.52139,-6.18519,-8.69197,-8.55363,34.8964,-10.5027,-3.16023,13.0425,-6.22513,-1.13409,5.18828e-14,7.95139e-15,-15.7245,-16.1479,-63.7104,44.0628,29.7176,-15.1763,9.92489,7.12502,10.9947,-19.7672,5.18828e-14,7.95139e-15,-44.2813,-2.82071,82.2046,49.7052,2.03343,-7.4478,50.7073,7.12502,18.4401,79.8533,-19.6337,6.92286,19.3547,40.1595,-16.4753,-5.63837,14.292,-0.376286,-1.71014,-24.2612,37.4942,-16.7318,6.55533,-19.7305
3.34314,17.5074,-25.4846,-1.70263,-14.2894,-0.627817,19.8348,-1.11119,-1.78175,0.781832,-1.46929,3.9513,-10.1415,-0.508745,5.80346,-7.96082,-8.95215,-6.99124,35.6917,-10.746,-4.01443,13.5807,-6.22135,-1.88261,5.08889e-14,-4.21423e-14,-15.0559,-18.6067,-64.0618,41.0974,29.5308,-13.632,8.07135,7.12502,12.4839,-21.5358,5.08889e-14,-4.21423e-14,-42.8677,-4.07131,82.2376,49.3151,1.74496,-7.44829,50.3824,7.12502,18.4396,79.5284,-19.1422,6.94705,19.6888,39.9865,-16.5794,-5.5988,14.6588,-1.30044,-1.37393,-23.7444,39.5618,-15.7584,5.69266,-21.4678
3.30293,17.5119,-25.4101,-1.67119,-14.1369,-0.762655,19.784,-1.29917,-1.76593,0.640011,-1.68612,4.19574,-10.2412,-0.599976,6.13308,-7.01775,-8.7153,-7.84269,35.5105,-10.4243,-3.67017,13.391,-6.15681,-1.50652,-7.37491e-14,1.90833e-14,-14.5592,-18.7662,-64.3975,38.2308,28.6803,-11.8694,6.32698,7.12502,14.1829,-23.1689,-7.37491e-14,1.90833e-14,-43.2145,-3.2292,82.2895,49.405,1.34152,-6.69848,50.9313,7.12502,19.1608,80.0074,-18.6656,6.74142,19.9376,39.7447,-16.7171,-5.58789,13.8258,-2.42085,-0.967207,-23.2563,41.7478,-14.2436,4.55097,-24.8025
3.26863,17.522,-25.3131,-1.69259,-14.3195,-0.809552,19.5658,-0.845758,-1.27904,1.01352,-1.0098,3.98576,-9.79226,-0.32734,5.40126,-7.89289,-9.21814,-7.23419,35.8808,-11.2191,-3.62884,13.7082,-6.40126,-1.77094,4.37326e-15,-3.18055e-15,-14.054,-22.0312,-64.5409,35.4329,27.846,-9.84754,5.15279,7.12502,16.1305,-24.196,4.37326e-15,-3.18055e-15,-42.0561,-4.44159,82.4783,49.3595,1.35911,-9.12351,48.4943,7.12502,16.8275,77.7852,-18.0843,6.56442,20.0483,39.4082,-16.7654,-5.37241,12.4861,-3.5174,-0.387244,-22.935,44.0126,-12.588,3.63363,-24.1898
3.2291,17.5361,-25.2274,-1.60169,-14.1914,-0.984714,19.5333,-0.929574,-1.30075,0.76402,-1.08315,4.33462,-10.0389,-0.340993,5.83394,-7.06137,-9.14402,-8.08291,36.0113,-11.0561,-3.53362,13.6706,-6.43871,-1.53699,1.74931e-14,-2.8625e-14,-13.9717,-23.4653,-64.308,32.6446,26.531,-7.53346,5.03899,7.12502,18.3577,-24.1148,1.74931e-14,-2.8625e-14,-42.6173,-3.57819,82.678,49.531,0.969568,-7.56245,50.0721,7.12502,18.3298,79.2284,-17.5528,6.3242,20.322,39.0366,-16.7957,-5.41541,11.2505,-4.94285,0.130551,-22.3356,46.3588,-10.6025,2.4505,-22.8807
3.19073,17.5487,-25.1469,-1.49697,-14.0731,-1.30877,19.7705,-0.722231,-0.783741,0.83679,-0.687473,4.37843,-10.1386,-0.175126,5.4812,-7.32304,-8.89548,-7.47096,35.6608,-10.6857,-3.73057,13.4916,-6.21448,-1.64719,-2.10712e-14,-3.97569e-15,-14.0098,-26.6535,-64.0924,30.2168,24.8162,-5.47233,3.94526,7.12502,20.3395,-25.0096,-2.10712e-14,-3.97569e-15,-42.0983,-4.11583,82.8382,49.7133,1.05994,-10.2934,46.8612,7.12502,15.7011,76.2442,-16.9881,6.26706,20.7713,38.6322,-16.842,-5.62415,10.9761,-6.46503,0.581671,-21.5995,48.737,-8.31483,1.31119,-20.3864
3.15225,17.5517,-25.0632,-1.459,-13.8509,-1.57263,19.9408,-0.678381,-0.476267,0.779711,-0.540571,4.51113,-10.3145,-0.111535,5.42027,-7.49631,-9.46993,-7.89238,36.4345,-11.5169,-3.58671,13.9462,-6.60734,-1.7048,-1.19271e-15,-2.38542e-14,-14.3735,-29.212,-63.7353,28.0772,22.5947,-3.76586,0.303894,7.12502,21.9788,-28.4674,-1.19271e-15,-2.38542e-14,-42.0996,-4.11361,82.9539,50.0041,1.2158,-10.6889,46.1435,7.12502,15.3202,75.556,-16.3908,6.01921,21.1495,38.2745,-17.0215,-5.8762,10.1179,-7.86669,0.993709,-20.9579,51.0656,-5.61884,0.310255,-18.5668
3.11764,17.5519,-24.971,-1.5305,-13.597,-1.87392,19.9424,-1.02576,-0.530618,0.510341,-0.949116,5.01962,-10.5706,-0.276666,6.15429,-5.74806,-8.87455,-8.98042,35.8547,-10.6466,-3.42388,13.3993,-6.37158,-1.2091,-1.07344e-14,-4.45278e-14,-14.7978,-30.3056,-63.1499,26.0392,20.1549,-2.45908,0.00582525,7.12502,23.233,-28.6127,-1.07344e-14,-4.45278e-14,-43.2238,-2.61579,83.0705,50.5149,1.11997,-8.59293,48.1414,7.12502,17.3383,77.3881,-15.6611,5.48763,21.5379,37.9747,-17.3399,-5.89306,8.55558,-9.14302,1.36168,-20.3082,53.352,-2.85061,-0.632162,-17.0929
3.08196,17.5523,-24.8761,-1.64032,-13.4911,-2.05045,19.8641,-0.647754,0.197886,1.05262,-0.335377,4.76528,-9.9901,-0.0505716,5.24232,-7.0083,-9.42035,-8.05708,36.0223,-11.4831,-3.41237,13.6816,-6.58989,-1.54978,-4.73108e-14,6.67916e-14,-15.1069,-35.457,-62.6818,24.296,18.6803,-2.15602,-0.85615,7.12502,23.5237,-29.4377,-4.73108e-14,6.67916e-14,-41.8437,-3.93484,83.0475,50.7631,1.43231,-8.08129,48.7123,7.12502,17.8306,77.9149,-14.957,5.10633,21.7885,37.7173,-17.6033,-5.77104,7.69889,-10.4507,1.81955,-19.8341,55.5699,-0.493467,-1.4863,-15.757
3.04071,17.5409,-24.8049,-1.69339,-13.275,-2.44779,20.1193,-0.575812,0.690158,1.19151,-0.121617,4.82326,-9.99716,0.0278777,4.96603,-7.17612,-9.58733,-7.85069,36.0354,-11.762,-3.36907,13.7139,-6.6722,-1.61534,5.36719e-15,-2.06736e-14,-15.9295,-38.7387,-62.0186,22.8775,16.4568,-2.44183,-1.64442,7.12502,23.2496,-30.2609,5.36719e-15,-2.06736e-14,-41.6418,-4.06404,82.9186,51.3452,2.04748,-7.57771,49.4877,7.12502,18.3151,78.6454,-14.3097,4.984,22.3521,37.3748,-17.7712,-5.94014,7.93449,-11.8617,2.22641,-19.058,57.7424,1.35196,-2.59183,-15.9279
3.00024,17.5378,-24.7347,-1.77806,-12.9773,-2.90867,20.5459,-0.685864,0.978432,1.09705,-0.15261,5.08354,-10.3389,0.0132673,5.12067,-6.53763,-9.48344,-8.15851,35.8526,-11.6445,-3.23999,13.5314,-6.65185,-1.44997,3.18055e-15,-1.43125e-14,-17.1689,-40.4703,-61.1371,21.9082,13.5341,-3.03831,-2.75264,7.12502,22.6772,-31.4402,3.18055e-15,-1.43125e-14,-42.1304,-3.4714,82.8212,51.9451,2.4412,-8.16987,49.2476,7.12502,17.7454,78.4579,-13.6024,4.8476,23.0078,36.9925,-17.868,-6.25441,7.24475,-13.2763,2.52938,-18.2236,59.8154,2.19407,-3.42514,-16.8411
2.96622,17.5584,-24.6224,-1.85063,-12.4892,-3.07409,20.3982,-0.668787,1.535,1.39535,-0.0312476,5.01643,-9.93317,0.0341975,4.6703,-7.0908,-9.71206,-7.94755,35.8776,-12.0473,-2.97854,13.6713,-6.75227,-1.47662,-1.90833e-14,-1.43125e-14,-18.3534,-43.78,-60.2092,21.2029,11.1135,-4.07684,-3.6523,7.12502,21.6802,-32.4584,-1.90833e-14,-1.43125e-14,-41.5926,-3.65873,82.6905,52.313,2.72263,-10.8018,46.6477,7.12502,15.2114,76.0685,-12.7458,4.16211,23.2165,36.5706,-18.1381,-6.10089,7.00444,-14.4566,2.52677,-17.8755,61.5737,2.21823,-3.40446,-16.9593
2.93311,17.5588,-24.5187,-1.92734,-12.5848,-3.43861,20.2986,-0.570216,1.94228,1.57797,0.18858,5.15275,-9.6899,0.119413,4.51476,-6.87384,-9.79448,-8.10331,35.688,-12.225,-2.73871,13.5793,-6.81813,-1.36213,-1.09332e-14,-1.43125e-14,-19.8708,-46.9822,-58.88,20.5549,9.57571,-4.4764,-3.38294,7.12502,21.2964,-32.2328,-1.09332e-14,-1.43125e-14,-41.6028,-3.29971,82.637,52.736,3.25909,-11.1609,46.3625,7.12502,14.8655,75.8092,-11.955,3.94021,23.656,36.1626,-18.1907,-5.92754,7.27679,-15.4218,3.06556,-17.3269,63.1517,1.54374,-3.13838,-17.1521
2.89571,17.5525,-24.4241,-2.00636,-12.5315,-3.70471,20.9432,-0.562228,1.89331,1.17487,0.28101,5.47609,-10.5082,0.186213,4.91812,-6.08114,-9.75384,-8.68957,35.9609,-12.1356,-2.77981,13.585,-6.87239,-1.24,-1.59028e-15,-1.11319e-14,-22.4118,-47.9526,-56.9062,20.5239,6.97862,-4.66895,-3.41285,7.12502,21.1115,-32.2835,-1.59028e-15,-1.11319e-14,-42.7387,-2.7842,82.8569,53.2665,4.08059,-9.28615,49.6962,7.12502,16.671,79.0003,-11.2297,3.9377,24.0415,35.8062,-18.3644,-6.07213,8.02687,-16.3999,3.57337,-16.8591,64.4821,0.156703,-2.9243,-14.889
2.85958,17.5489,-24.3354,-2.09438,-12.2748,-3.91247,21.3775,-0.373917,2.3619,1.44771,0.637981,5.38739,-10.4603,0.326438,4.44311,-7.28881,-10.1573,-8.16843,36.3307,-12.7204,-2.78027,13.9784,-7.0322,-1.50574,7.7526e-15,-3.49861e-14,-24.0926,-49.7857,-56.0114,20.9493,3.66966,-5.38246,-3.95281,7.12502,20.4259,-32.8985,7.7526e-15,-3.49861e-14,-41.9957,-3.33224,82.7866,53.5041,4.91019,-8.74311,50.8487,7.12502,17.1937,80.108,-10.5026,3.96299,24.4014,35.4112,-18.5243,-6.54011,7.62215,-17.5075,3.93023,-16.43,65.6473,-0.379564,-3.05908,-14.386
2.82863,17.5495,-24.2138,-2.30559,-11.9105,-3.67502,20.9996,-0.784972,1.93234,1.17878,0.014819,5.61579,-10.5166,0.0631619,5.13457,-5.33031,-9.58463,-9.25875,35.9354,-11.9263,-2.5719,13.4785,-6.83756,-0.994785,9.93923e-15,-2.38542e-14,-25.669,-48.0061,-55.5287,21.4697,-0.402125,-5.93727,-4.00071,7.12502,19.8927,-33.0026,9.93923e-15,-2.38542e-14,-43.6104,-1.48963,82.5462,53.9922,5.34524,-9.01055,50.2301,7.12502,16.9363,79.5116,-9.58207,3.57447,24.174,35.0235,-18.8194,-6.57723,7.34712,-18.3055,4.09689,-16.5783,66.4508,-1.08231,-2.95557,-10.4065
2.79367,17.5786,-24.111,-2.36061,-11.7944,-3.78681,20.8371,-0.746307,2.09519,1.28561,0.0874524,5.60762,-10.3116,0.0858754,4.99821,-4.93167,-9.5937,-9.18559,35.8149,-12.0267,-2.44718,13.3467,-6.85963,-0.939252,-6.95746e-15,9.54166e-15,-27.4488,-48.3254,-54.8848,22.2204,-4.09478,-6.44969,-4.02223,7.12502,19.4,-33.0745,-6.95746e-15,9.54166e-15,-43.7511,-1.21652,82.3113,54.2023,6.02037,-9.14343,49.8965,7.12502,16.8084,79.1889,-8.79071,3.75535,24.417,34.5059,-19.0193,-6.89885,7.59126,-19.2163,4.63155,-16.2321,66.9782,-1.59321,-3.00246,-11.4227
2.76019,17.5899,-24.0081,-2.37473,-11.4076,-3.80296,20.8705,-0.579759,2.67028,1.67103,0.384756,5.2827,-9.91127,0.185647,4.19884,-6.2586,-10.0925,-8.3807,36.1849,-12.79,-2.40648,13.7455,-7.05537,-1.25947,5.96354e-15,-1.27222e-14,-29.0086,-49.7959,-54.5521,23.1943,-7.73546,-8.61912,-5.58041,7.12502,17.313,-34.8293,5.96354e-15,-1.27222e-14,-42.6329,-1.91523,82.0185,54.0142,6.66811,-8.96386,50.2235,7.12502,16.9812,79.5012,-8.10326,3.76138,24.5555,34.0472,-19.2637,-7.39884,7.55893,-20.2438,4.73911,-16.0924,67.3414,-1.59032,-3.01765,-15.1512
2.73109,17.596,-23.891,-2.5398,-11.2092,-3.66596,21.6728,-0.444605,2.60584,1.46686,0.616204,5.32771,-10.597,0.304513,4.24935,-6.81948,-10.3323,-8.50909,36.8438,-13.0509,-2.54992,14.1799,-7.18783,-1.41158,-5.96354e-16,1.27222e-14,-31.1621,-49.7634,-53.3671,24.0723,-10.6019,-9.64839,-5.41385,7.12502,16.3222,-34.7469,-5.96354e-16,1.27222e-14,-42.9714,-1.68077,82.0979,53.9235,7.01341,-8.85794,50.4057,7.12502,17.0832,79.6746,-7.18788,3.74168,24.4809,33.5353,-19.4251,-7.62551,7.65908,-20.9139,4.94497,-16.1617,67.5073,-2.21111,-2.47191,-13.887
2.70052,17.6001,-23.7786,-2.49601,-10.7501,-3.51545,20.9249,-0.776803,2.26118,1.20796,0.0885287,5.50414,-10.4468,0.0789035,4.7919,-4.70372,-9.87127,-9.40278,36.415,-12.4843,-2.30898,13.62,-7.06842,-0.933641,-3.00165e-14,7.95139e-15,-33.0345,-48.8468,-52.5316,24.6669,-12.8911,-10.5658,-5.27645,7.12502,15.4387,-34.6799,-3.00165e-14,7.95139e-15,-44.4059,-0.170003,81.751,54.1352,7.45615,-9.11115,50.1036,7.12502,16.8394,79.3934,-6.57531,3.56977,24.4017,33.1525,-19.5383,-7.99955,7.50401,-21.8864,5.01667,-16.2533,67.5561,-3.06243,-1.96153,-12.1572
2.66738,17.6024,-23.6698,-2.39734,-10.252,-3.75281,20.1912,-0.8525,2.84406,1.9309,0.0185114,5.40034,-9.22906,0.00273037,4.3023,-6.09898,-10.085,-8.84534,36.4304,-12.7554,-2.25333,13.8828,-7.07634,-1.12858,-6.02318e-14,6.67916e-14,-33.7715,-51.5965,-52.1701,24.9846,-14.1336,-11.4519,-5.16169,7.12502,14.5851,-34.6289,-6.02318e-14,6.67916e-14,-43.0935,0.149553,81.3261,53.8673,8.14398,-9.67302,49.4171,7.12502,16.2985,78.7522,-5.97995,3.5728,24.8078,32.7951,-19.7294,-8.34732,8.1664,-22.9365,5.07656,-15.8744,67.4698,-3.77037,-1.58755,-11.0597
