JuanDHNZ/ProyectoFinalCD/preprocessing/sports_trials_csv/06_01.csv
root1,root2,root3,root4,root5,root6,lowerback1,lowerback2,lowerback3,upperback1,upperback2,upperback3,thorax1,thorax2,thorax3,lowerneck1,lowerneck2,lowerneck3,upperneck1,upperneck2,upperneck3,head1,head2,head3,rclavicle1,rclavicle2,rhumerus1,rhumerus2,rhumerus3,rradius1,rwrist1,rhand1,rhand2,rfingers1,rthumb1,rthumb2,lclavicle1,lclavicle2,lhumerus1,lhumerus2,lhumerus3,lradius1,lwrist1,lhand1,lhand2,lfingers1,lthumb1,lthumb2,rfemur1,rfemur2,rfemur3,rtibia1,rfoot1,rfoot2,rtoes1,lfemur1,lfemur2,lfemur3,ltibia1,lfoot1,lfoot2,ltoes1
2.22874,17.6234,-24.8011,-5.29661,-1.63838,3.78514,18.4272,-0.624528,-5.29088,0.0431619,-1.83083,1.26174,-10.1189,-0.565375,4.89246,-13.7057,0.189904,-1.48068,24.5674,1.81927,-4.58235,10.1309,0.160064,-1.13476,6.01324e-15,1.35174e-14,-31.7639,-6.29712,-80.6418,37.0722,-3.15302,-11.3323,8.57436,7.12502,14.7004,-20.8845,6.01324e-15,1.35174e-14,-30.8361,1.52246,85.0881,46.1847,10.7055,-16.4248,52.0963,7.12502,9.79035,81.8488,-28.1486,-5.55088,18.2551,51.1457,-8.74589,-9.50664,1.48784,1.26435,-2.48452,-30.7387,23.2479,-15.2224,3.4492,-0.338003
2.23474,17.629,-24.6778,-5.21775,-1.48868,3.74688,18.5312,-0.681131,-5.25514,-0.106681,-1.90004,1.33031,-10.3357,-0.585858,4.97469,-12.9902,0.32535,-1.6444,24.1728,1.95559,-4.39077,9.85023,0.248429,-1.01736,-4.09993e-15,-9.54166e-15,-32.0514,-6.13513,-80.6097,37.2083,-3.47927,-11.724,8.74826,7.12502,14.3229,-20.7377,-4.09993e-15,-9.54166e-15,-30.9165,1.84775,84.8689,45.8371,9.29103,-14.4766,50.5082,7.12502,11.6695,80.1633,-28.2156,-5.6713,18.3961,48.8771,-9.10883,-9.68237,3.81692,2.01926,-2.52641,-30.7675,22.5362,-15.2145,3.45254,-0.677019
2.24212,17.6297,-24.5459,-5.13697,-1.23536,4.01052,18.4181,-0.706336,-5.40515,-0.11852,-1.97037,1.23174,-10.2753,-0.616652,4.96543,-12.7036,0.279056,-1.7099,23.8696,1.83131,-4.19486,9.6819,0.217822,-0.949751,1.17531e-14,-1.59028e-15,-32.0593,-6.69089,-80.3903,37.3868,-2.25703,-11.9246,9.02494,7.12502,14.1296,-20.4746,1.17531e-14,-1.59028e-15,-30.757,1.38043,85.002,46.1038,9.39376,-15.179,49.9986,7.12502,10.9921,79.6908,-28.2742,-5.88268,18.15,46.6131,-9.26946,-9.86608,4.04756,2.58586,-2.59946,-31.1406,22.2209,-15.4631,3.44087,-1.26472
2.23973,17.6209,-24.4413,-4.84745,-1.20892,3.56882,18.1362,-0.753003,-4.906,0.217432,-1.89481,1.3088,-9.76234,-0.63118,4.72342,-13.7785,0.136017,-1.6903,23.9066,1.64333,-4.10051,9.89671,0.129671,-0.944541,-3.82164e-14,-1.11319e-14,-31.0941,-7.34665,-80.4591,37.1008,-1.65553,-11.9787,8.56249,7.12502,14.0775,-20.9407,-3.82164e-14,-1.11319e-14,-29.7327,1.15477,85.0078,46.1656,9.18161,-15.6593,49.1623,7.12502,10.5289,78.8786,-28.4694,-5.36676,18.6519,44.276,-9.90596,-9.95659,8.29115,2.90948,-2.64095,-30.6577,21.675,-15.4978,3.42553,-1.20635
2.24278,17.628,-24.3159,-4.78562,-1.10199,3.9177,18.1883,-0.743688,-5.30477,0.251294,-1.96672,1.32371,-9.73284,-0.647647,4.9877,-14.0944,0.0905811,-2.00557,24.009,1.65476,-4.02292,9.99293,0.109215,-0.864102,1.69464e-14,-1.03368e-14,-30.8806,-7.3341,-80.3087,36.8184,-1.59633,-11.935,9.14441,7.12502,14.1197,-20.3558,1.69464e-14,-1.03368e-14,-29.5361,1.36964,85.0536,45.9114,8.68771,-16.4915,44.232,7.12502,9.72597,73.9874,-28.4835,-5.46494,18.3053,41.9378,-9.63594,-9.91166,7.10913,3.65618,-2.36092,-31.0227,20.9814,-15.4727,3.11411,-0.818765
2.24289,17.6372,-24.1923,-4.69461,-1.12065,4.00776,18.5161,-0.70848,-5.51219,-0.170478,-1.9857,1.39441,-10.3781,-0.607625,5.21703,-13.4312,0.294393,-1.93419,23.9218,1.90475,-4.06564,9.83856,0.23637,-0.85848,9.93923e-15,7.95139e-16,-31.6905,-7.16104,-80.0789,36.7787,-1.40538,-11.6645,10.2139,7.12502,14.3803,-19.268,9.93923e-15,7.95139e-16,-30.2793,0.887855,85.3378,46.1609,9.52722,-15.8475,51.4903,7.12502,10.3472,81.2157,-28.4255,-5.19941,18.2045,39.4331,-9.52593,-9.94639,6.5816,4.34411,-2.03742,-31.0759,20.3441,-15.3925,2.77936,-0.424168
2.23794,17.6491,-24.067,-4.55573,-1.05631,4.07184,18.3391,-0.675648,-5.57528,-0.128938,-1.95176,1.3276,-10.2362,-0.597407,5.16129,-13.4513,-0.0159446,-1.92025,23.8796,1.46613,-4.07972,9.82122,0.0336081,-0.919545,4.91992e-15,4.77083e-15,-31.6701,-7.42712,-80.1409,36.7291,-1.23919,-12.4352,8.37706,7.12502,13.6376,-21.1562,4.91992e-15,4.77083e-15,-30.1173,0.404392,85.4209,46.2854,9.90946,-16.2909,52.2148,7.12502,9.91949,81.9611,-28.334,-4.7057,18.0829,36.9017,-9.70176,-10.1852,6.23917,5.19941,-1.82237,-31.0721,19.3142,-15.0996,2.41177,1.07966
2.23476,17.6823,-23.9352,-4.35091,-0.856143,4.00271,18.2322,-0.86309,-5.56797,-0.407848,-2.18962,1.4255,-10.4541,-0.691894,5.33158,-12.7428,0.1487,-2.22206,23.8321,1.66979,-3.81281,9.66754,0.1398,-0.749336,-2.8625e-14,1.51076e-14,-32.1905,-7.0476,-80.122,36.6544,-0.918331,-12.2338,9.32676,7.12502,13.8317,-20.1934,-2.8625e-14,1.51076e-14,-30.7222,0.956032,85.2283,46.1011,8.97848,-15.3095,50.4015,7.12502,10.8663,80.1004,-28.1084,-4.26363,18.0612,34.2325,-9.99398,-10.5344,5.65217,5.79417,-1.5313,-30.9039,18.3817,-14.6432,2.16154,-0.423877
2.23001,17.69,-23.8048,-4.15131,-0.537961,3.95594,17.3363,-0.927312,-5.46807,0.135674,-2.19495,1.37282,-9.34576,-0.761678,5.15777,-13.4244,0.0449032,-2.11215,23.6012,1.49089,-3.70754,9.71231,0.0767402,-0.751546,-1.44119e-15,-1.43125e-14,-31.3022,-7.66891,-80.291,36.3418,-0.345166,-12.3943,10.0457,7.12502,13.677,-19.4849,-1.44119e-15,-1.43125e-14,-29.6715,0.232207,85.4067,46.1195,9.92637,-16.0935,51.0999,7.12502,10.11,80.837,-27.9075,-3.69323,17.9333,31.6226,-10.3248,-11.0304,4.35703,6.6136,-1.40299,-30.7766,17.4112,-14.4175,1.93721,-1.85834
2.22053,17.6903,-23.6754,-4.00335,-0.333788,3.87579,17.6308,-0.914219,-5.39484,-0.0738652,-2.18472,1.36552,-9.74865,-0.738592,5.12565,-13.6036,-0.0422299,-1.95561,23.8478,1.35336,-3.72853,9.83308,0.0176688,-0.804624,2.5842e-15,1.51076e-14,-31.651,-7.9365,-80.2403,36.1371,0.0756887,-12.7325,10.0043,7.12502,13.351,-19.548,2.5842e-15,1.51076e-14,-29.8501,0.166311,85.3118,45.6099,9.40522,-15.6797,48.2933,7.12502,10.5091,78.0106,-27.6666,-2.83397,17.8062,29.1026,-10.3697,-11.6764,1.45741,7.46109,-1.25496,-30.6108,16.4776,-14.1562,1.80789,-2.9627
2.21286,17.6852,-23.5352,-3.93812,-0.161914,4.03687,17.5929,-1.06896,-5.81234,-0.588984,-2.47358,1.51202,-10.2431,-0.8168,5.61464,-11.6244,0.119221,-2.20673,23.3648,1.55248,-3.7955,9.28861,0.111922,-0.755243,-2.57923e-14,2.46493e-14,-32.7642,-7.13205,-80.0618,36.1044,0.277406,-12.8752,9.47611,7.12502,13.2135,-20.0851,-2.57923e-14,2.46493e-14,-31.129,0.267417,85.6285,46.3116,9.86008,-16.2349,50.8439,7.12502,9.97351,80.5876,-27.3357,-1.9641,17.3849,26.8413,-10.4996,-12.3944,-1.51383,8.38473,-1.09419,-30.7315,15.5277,-13.8985,1.52629,-2.69188
2.20448,17.6737,-23.3988,-3.78054,-0.0481297,4.12881,17.4309,-0.984014,-5.8455,-0.398751,-2.3638,1.40314,-9.95679,-0.783886,5.47089,-12.6298,0.00552194,-1.91919,23.6125,1.38131,-3.79781,9.56466,0.0414117,-0.827593,3.3197e-14,-1.03368e-14,-32.4016,-7.65375,-80.1306,35.9912,0.493703,-12.8583,9.1869,7.12502,13.2298,-20.3733,3.3197e-14,-1.03368e-14,-30.5149,-0.160589,85.6313,46.1582,9.28757,-15.662,49.8394,7.12502,10.5262,79.5559,-27.1258,-0.695563,16.8967,24.7352,-11.0133,-13.1811,-1.91252,9.16618,-0.988548,-30.7923,14.6803,-13.6216,1.27456,-2.33779
2.19293,17.6748,-23.2682,-3.57288,0.188067,4.10987,17.2766,-1.06819,-5.90871,-0.347172,-2.47378,1.44091,-9.79261,-0.840828,5.56603,-12.8887,0.0684969,-1.89176,23.5056,1.45705,-3.74903,9.5765,0.0840497,-0.805711,1.45113e-14,2.38542e-14,-32.1336,-7.69624,-80.1562,35.7458,0.631398,-12.859,9.08107,7.12502,13.2291,-20.4791,1.45113e-14,2.38542e-14,-30.3656,-0.114328,85.6753,45.924,9.40648,-16.2457,49.1029,7.12502,9.9631,78.8472,-27.0136,0.896509,16.3629,22.8642,-11.9186,-14.3599,-1.24046,9.92659,-1.08735,-30.7139,13.8184,-13.3593,0.926835,-1.22382
2.18247,17.6762,-23.1317,-3.38881,0.586413,4.01638,16.8917,-1.24159,-5.88079,-0.492306,-2.67449,1.491,-9.70675,-0.937633,5.63852,-11.8695,0.0977191,-1.94492,23.1111,1.43659,-3.67588,9.24351,0.0971951,-0.769571,6.32632e-14,-3.18055e-14,-32.461,-7.66118,-80.0917,35.5033,0.7322,-12.8827,9.07629,7.12502,13.2063,-20.4854,6.32632e-14,-3.18055e-14,-30.8824,0.0548212,85.6235,46.2294,8.26358,-14.9394,51.441,7.12502,11.2232,81.1208,-26.851,2.61561,15.7773,21.1735,-13.0615,-15.9285,-1.26753,10.6943,-1.28055,-30.5594,13.0552,-13.0292,0.759719,-1.18618
2.17075,17.6745,-22.9942,-3.24755,0.979946,4.02756,16.5983,-1.50677,-5.84737,-0.453731,-3.00363,1.46837,-9.45454,-1.11049,5.65318,-11.784,0.158786,-2.09282,23.0236,1.50349,-3.49774,9.19526,0.137182,-0.675295,-2.0276e-14,-5.56597e-15,-32.3393,-7.65038,-80.2041,35.1169,0.902901,-12.8276,9.73847,7.12502,13.2594,-19.8198,-2.0276e-14,-5.56597e-15,-30.9915,0.340333,85.4772,45.9723,8.49935,-16.1131,50.8603,7.12502,10.091,80.5983,-26.6719,4.37373,15.0527,19.7082,-14.4097,-17.6327,-0.611142,11.3435,-1.47541,-30.5367,12.5369,-12.8264,0.725105,-1.81149
2.15603,17.6796,-22.8625,-3.12795,1.22996,3.81014,16.7392,-1.38302,-5.60861,-0.108657,-2.78823,1.49053,-9.19109,-1.03783,5.48571,-13.7398,-0.0632408,-1.99386,23.675,1.24578,-3.3893,9.79225,0.00572386,-0.69166,1.35174e-14,3.18055e-15,-31.6487,-8.68304,-80.0437,34.8487,1.11559,-12.6447,10.4264,7.12502,13.4357,-19.1203,1.35174e-14,3.18055e-15,-30.0134,0.128399,85.5962,45.7318,7.7684,-14.7991,50.4716,7.12502,11.3586,80.144,-26.5491,5.97502,14.698,18.5858,-16.0434,-19.1389,0.324234,11.8668,-1.46344,-30.1914,12.1163,-12.684,0.524516,-2.35809
2.14296,17.6682,-22.7307,-2.98062,1.3657,3.67766,16.9467,-1.36836,-5.60834,-0.389873,-2.77705,1.60191,-9.61607,-1.00348,5.62808,-13.4038,0.0561273,-1.83935,23.6586,1.3905,-3.49559,9.725,0.0785201,-0.736279,3.84151e-14,-6.36111e-15,-32.3128,-8.50136,-79.8891,34.9791,0.973429,-12.4635,10.1466,7.12502,13.6103,-19.3884,3.84151e-14,-6.36111e-15,-30.6647,0.0905484,85.8402,45.7558,8.20732,-14.8847,49.1567,7.12502,11.276,78.8336,-26.7073,6.62093,14.5961,18.0701,-17.3625,-19.5111,0.829781,12.4207,-1.4136,-29.9646,11.5887,-12.4922,0.357712,-3.62583
2.1374,17.6607,-22.5947,-2.82792,1.64326,3.80322,16.668,-1.41279,-5.77082,-0.340573,-2.84933,1.62093,-9.38525,-1.04177,5.74104,-13.2956,0.0546529,-1.67977,23.4222,1.37304,-3.6376,9.62208,0.0746812,-0.812615,-5.27276e-14,2.38542e-15,-32.2822,-8.55009,-79.8108,34.8719,1.02844,-12.3061,9.62528,7.12502,13.7621,-19.8996,-5.27276e-14,2.38542e-15,-30.6078,0.141324,86.03,45.4579,8.61729,-15.2613,48.5548,7.12502,10.9127,78.2512,-26.8851,6.01813,14.5682,17.9138,-16.9604,-19.1971,-0.47118,12.9285,-1.53287,-30.0649,11.2982,-12.2141,0.210138,-3.71591
2.1344,17.6511,-22.4555,-2.71836,2.12814,4.14396,16.7135,-1.57144,-6.03839,-0.548562,-3.12831,1.55163,-9.59398,-1.14899,5.89352,-12.6656,0.0701787,-1.65066,23.229,1.37644,-3.712,9.43522,0.0809086,-0.840348,2.07233e-14,2.38542e-15,-32.7255,-8.29085,-79.7082,34.7243,0.997199,-12.4034,9.48165,7.12502,13.6683,-20.0495,2.07233e-14,2.38542e-15,-30.9788,0.357723,86.1213,45.1697,8.4324,-15.2148,48.8697,7.12502,10.9576,78.5638,-27.0271,4.75343,14.4833,18.1807,-16.3792,-18.6226,-0.878515,13.413,-1.74512,-30.3953,11.2431,-12.0662,-0.120506,-3.32468
2.11711,17.6444,-22.3125,-2.68058,1.93495,3.87407,16.6391,-1.51601,-5.89999,-0.627346,-3.01783,1.62702,-9.65739,-1.09617,5.87084,-12.215,0.110141,-1.548,22.9607,1.38632,-3.72458,9.25635,0.103253,-0.858003,1.35671e-14,7.95139e-15,-33.0558,-8.24559,-79.7006,34.4926,1.14431,-12.912,9.85708,7.12502,13.1781,-19.7064,1.35671e-14,7.95139e-15,-31.3196,0.397426,86.1736,45.2569,8.19125,-15.0979,50.2904,7.12502,11.0703,79.9784,-27.2983,4.51724,15.1195,18.7788,-16.0278,-18.4878,-0.499024,14.0305,-1.71199,-30.0483,10.9128,-11.8626,-0.261643,-2.99787
2.106,17.633,-22.178,-2.49466,1.5509,3.75811,16.6695,-1.37926,-5.84563,-0.917572,-2.83261,1.65565,-10.0253,-0.985061,5.84212,-11.303,0.101479,-1.53929,22.5688,1.31236,-3.66507,8.94716,0.0930864,-0.843223,5.91384e-15,-1.59028e-14,-33.6315,-8.29111,-79.608,34.2284,1.40679,-13.4011,10.0467,7.12502,12.7065,-19.5467,5.91384e-15,-1.59028e-14,-32.0752,0.580641,86.1528,45.0147,8.23874,-15.9544,49.7651,7.12502,10.2442,79.4956,-27.8105,3.96625,15.7233,19.5199,-15.1027,-17.9795,-0.292094,14.3991,-1.5575,-29.9017,10.6976,-11.6357,-0.194625,-4.3978
2.09562,17.6177,-22.0276,-2.59721,1.34074,3.89705,16.8929,-1.18669,-5.91376,-0.555676,-2.60086,1.57815,-9.78273,-0.892967,5.73859,-12.9287,0.0099202,-1.53795,22.9945,1.22606,-3.54612,9.39886,0.0413631,-0.818202,-9.29318e-15,2.3059e-14,-33.0312,-8.75834,-79.6546,34.0527,1.59761,-13.47,9.77491,7.12502,12.6401,-19.8226,-9.29318e-15,2.3059e-14,-31.3734,0.695476,86.2253,45.0308,7.91671,-15.6981,51.3792,7.12502,10.4914,81.0974,-27.7649,3.04084,16.1325,20.1042,-13.9252,-17.0245,-0.203799,14.8791,-1.43281,-30.0472,11.0189,-11.6725,-0.0985307,-6.00566
2.06907,17.6189,-21.8714,-2.77007,1.85436,3.93694,16.9814,-1.33263,-6.19227,-0.665109,-2.85112,1.66139,-9.90345,-0.98689,6.05887,-12.2608,-0.154087,-1.68027,23.2078,1.0415,-3.6623,9.34614,-0.0674737,-0.856257,-1.59028e-15,5.56597e-15,-33.6266,-8.65382,-79.4332,33.9591,1.52882,-13.0099,10.1619,7.12502,13.0837,-19.4077,-1.59028e-15,5.56597e-15,-32.1639,1.07215,86.3689,45.1608,8.01588,-15.8904,47.903,7.12502,10.3059,77.6305,-27.3171,2.87602,16.2413,20.6052,-13.5707,-16.8998,0.748798,15.4101,-1.714,-29.9432,11.3674,-11.4745,-0.281095,-7.96766
2.04957,17.6305,-21.7195,-2.8568,2.1872,3.81374,17.0281,-1.29342,-5.99554,-0.0119967,-2.74624,1.62554,-9.22916,-0.996136,5.85791,-14.6821,-0.293696,-1.56732,23.5515,0.861883,-3.45307,9.9241,-0.14636,-0.835564,-1.51076e-14,-1.35174e-14,-32.5077,-9.53109,-79.4638,33.6098,1.72982,-13.0348,10.193,7.12502,13.0597,-19.3781,-1.51076e-14,-1.35174e-14,-31.0541,1.08028,86.4129,44.3105,8.59495,-15.658,47.8122,7.12502,10.5301,77.5285,-26.9507,2.71938,16.5487,21.0865,-12.904,-16.5004,1.58176,15.7148,-1.88332,-29.689,11.8355,-11.2401,-0.457368,-9.69904
2.03396,17.6434,-21.5581,-2.91115,2.42098,3.62415,16.9473,-1.42344,-5.93813,-0.205962,-2.89646,1.74672,-9.37333,-1.05618,5.99684,-13.6733,-0.134013,-1.61686,23.1889,1.03593,-3.38775,9.60453,-0.0467993,-0.776135,1.09332e-15,1.82882e-14,-33.1915,-9.27782,-79.2605,33.3989,1.80802,-13.1396,9.67382,7.12502,12.9586,-19.9038,1.09332e-15,1.82882e-14,-31.8743,1.38021,86.5498,44.9902,7.94362,-15.8585,49.1154,7.12502,10.3367,78.8414,-26.5524,2.44767,16.9783,21.5069,-12.2922,-15.6447,3.38917,15.8071,-2.02189,-29.3485,12.7139,-11.1565,-0.742566,-10.4375
2.01856,17.6404,-21.3929,-3.01088,2.55486,3.38366,17.0201,-1.48568,-5.76428,-0.432413,-2.94624,1.83245,-9.66243,-1.06667,6.01763,-12.9104,-0.0189876,-1.60199,23.0991,1.15713,-3.35345,9.42926,0.0236239,-0.749785,5.91384e-15,2.14687e-14,-33.8741,-9.22244,-79.0627,33.1703,1.83768,-13.0416,10.1926,7.12502,13.0531,-19.3789,5.91384e-15,2.14687e-14,-32.6088,1.4415,86.7331,44.6998,8.72044,-15.9427,51.4669,7.12502,10.2554,81.1969,-26.1204,2.29192,17.466,21.9209,-11.6337,-14.612,3.7184,15.9506,-2.13508,-28.9829,13.6238,-11.0393,-0.958278,-12.437
2.00694,17.6257,-21.2309,-3.12557,2.71537,3.3385,17.0304,-1.6049,-5.7072,-0.681892,-3.09891,1.84742,-9.92638,-1.12336,6.04939,-11.5699,-0.0676897,-1.8906,22.8473,1.05292,-3.16874,9.08585,-0.0131228,-0.645696,4.87519e-14,3.97569e-15,-34.6132,-9.02619,-78.9377,32.921,1.93689,-13.1997,10.5339,7.12502,12.9006,-19.0474,4.87519e-14,3.97569e-15,-33.6341,2.21608,86.5255,44.433,7.87963,-14.9898,49.7935,7.12502,11.1746,79.4759,-25.6887,2.14954,17.7011,22.3492,-10.9231,-13.4558,2.29085,16.1877,-2.19705,-28.8518,14.4087,-10.9,-1.24172,-13.5748
1.98152,17.6276,-21.0551,-3.13214,3.10074,3.32672,17.1373,-1.60539,-5.69232,-0.572943,-3.10367,1.80394,-9.86814,-1.13283,5.99563,-12.4959,-0.235053,-1.77155,23.1815,0.81756,-3.09102,9.37403,-0.118132,-0.670282,6.5102e-15,7.15625e-15,-34.4586,-9.70466,-78.7541,32.3835,2.26732,-13.295,11.0503,7.12502,12.8088,-18.5368,6.5102e-15,7.15625e-15,-33.6116,1.83187,86.8282,44.3668,9.09815,-16.2091,51.3961,7.12502,9.99845,81.1386,-25.1902,2.34566,17.8075,22.6937,-10.5807,-12.599,2.26278,16.4855,-2.28235,-28.5919,14.9983,-10.5556,-1.83961,-13.7849
1.95809,17.6373,-20.8807,-3.12792,3.20324,3.08274,17.2553,-1.70259,-5.66453,-0.914317,-3.22295,1.99703,-10.2904,-1.15613,6.24601,-11.6224,-0.158214,-1.9212,22.9933,0.924829,-3.10645,9.14483,-0.0720976,-0.634664,8.34896e-15,7.95139e-15,-35.2358,-9.3523,-78.451,32.0747,2.2194,-13.2306,10.8313,7.12502,12.8709,-18.7518,8.34896e-15,7.95139e-15,-34.5122,2.50201,86.8799,43.826,9.14269,-16.2589,50.7957,7.12502,9.95042,80.5405,-24.7486,2.91846,18.1335,22.8708,-9.62526,-11.8544,3.12956,16.724,-2.36858,-28.1632,15.5325,-9.87145,-2.17073,-14.9966
1.93522,17.6719,-20.7011,-3.07356,3.21221,2.84742,16.7134,-1.48288,-5.44597,-0.14861,-2.83883,2.00559,-9.1946,-1.05512,5.97046,-14.1692,-0.331446,-1.65674,23.2794,0.689129,-2.98691,9.72379,-0.170848,-0.674869,-1.59028e-14,-1.19271e-14,-34.0061,-10.4946,-78.4472,31.7577,2.45759,-13.2939,10.0429,7.12502,12.8099,-19.5441,-1.59028e-14,-1.19271e-14,-33.0978,2.41021,87.0236,43.1343,8.59402,-17.372,51.2835,7.12502,8.87639,81.0768,-24.3168,4.10597,18.2626,22.7699,-8.41339,-11.7776,4.97914,16.9267,-2.58492,-27.7988,15.9215,-8.96311,-2.40016,-15.9598
1.91013,17.7039,-20.5229,-2.95493,3.50493,2.49338,16.0895,-1.64786,-5.36552,-0.551569,-3.0011,2.20867,-9.25672,-1.12027,6.16469,-11.8759,-0.362251,-1.93029,22.7765,0.605061,-2.93939,9.11347,-0.201803,-0.610873,-1.74434e-14,3.97569e-15,-35.2408,-10.2296,-78.0859,31.7102,2.38352,-13.1088,10.7497,7.12502,12.9883,-18.826,-1.74434e-14,3.97569e-15,-34.6108,2.93936,87.0345,43.0391,8.20273,-15.7042,51.0006,7.12502,10.4855,80.7191,-23.9361,5.1383,18.447,22.4922,-6.97103,-11.9103,8.53052,16.9531,-3.13545,-27.305,16.5424,-8.05626,-2.76432,-16.673
1.88176,17.7381,-20.3275,-3.05664,4.21952,1.98108,15.9309,-1.86995,-4.87055,-0.442867,-3.18229,2.3201,-9.03965,-1.24076,6.02836,-12.3499,-0.467406,-1.92347,23.0536,0.457378,-2.83845,9.29755,-0.267415,-0.59796,-6.21202e-15,-7.95139e-16,-35.2972,-10.708,-77.9153,31.3485,2.58353,-13.1465,10.1454,7.12502,12.9519,-19.4326,-6.21202e-15,-7.95139e-16,-34.581,3.0826,87.0757,42.4168,8.13775,-17.6794,51.3608,7.12502,8.57975,81.1665,-23.1659,5.65687,18.9159,22.1423,-5.63228,-12.2952,12.1781,17.1092,-3.91221,-26.5489,17.4345,-7.14169,-3.34406,-17.1675
1.87399,17.7462,-20.164,-3.12967,3.24174,1.68032,16.2868,-1.58214,-4.5509,-0.787243,-2.75265,2.37674,-9.69251,-1.01194,5.84951,-11.7862,-0.423794,-1.93084,23.3124,0.492696,-2.77543,9.2814,-0.244843,-0.570916,4.74101e-14,-1.59028e-14,-35.9801,-10.8143,-77.6231,30.6993,3.0351,-13.4783,10.5307,7.12502,12.6321,-19.0674,4.74101e-14,-1.59028e-14,-35.5663,3.43701,87.0951,42.1835,8.43443,-16.4209,52.0439,7.12502,9.79408,81.7961,-22.8577,5.77588,19.6066,21.9239,-3.31226,-11.4829,12.8759,16.9335,-3.7285,-26.4127,18.6436,-6.21538,-2.97764,-18.7004
1.86063,17.7642,-19.9931,-3.11461,2.72154,1.22691,16.6759,-1.46391,-4.05438,-0.835548,-2.49553,2.53476,-10.0147,-0.895133,5.70379,-12.9516,-0.371272,-2.09582,23.9987,0.634293,-2.64836,9.74546,-0.199668,-0.491077,3.86388e-14,-1.98785e-14,-35.799,-11.0895,-77.3792,29.8859,3.52542,-13.5351,11.238,7.12502,12.5773,-18.3634,3.86388e-14,-1.98785e-14,-35.8458,4.117,87.0701,41.6649,8.33689,-17.6941,50.9655,7.12502,8.56553,80.7718,-22.517,5.84493,20.4301,21.9161,-1.65665,-11.3624,12.0179,16.5934,-3.73873,-25.945,19.9847,-5.10588,-2.9098,-21.1104
1.83617,17.7946,-19.8036,-3.20017,2.95619,0.775397,16.2317,-1.46033,-3.77439,-0.845783,-2.40621,2.69532,-9.78741,-0.871865,5.67437,-11.9953,-0.542438,-2.14088,23.6221,0.353697,-2.62773,9.4289,-0.318223,-0.503514,4.26642e-14,3.18055e-15,-36.2704,-11.4719,-76.996,29.5587,3.64997,-13.4808,11.3429,7.12502,12.6297,-18.2553,4.26642e-14,3.18055e-15,-36.3286,4.65226,86.8529,40.282,7.56432,-18.8415,45.0511,7.12502,7.45815,74.8996,-21.8935,5.98308,21.139,22.173,-1.0915,-11.9712,11.5143,16.3443,-4.23303,-25.3257,21.4656,-3.86248,-3.24028,-23.3448
1.82307,17.8204,-19.6193,-3.29559,3.1076,0.544377,16.0901,-1.44062,-3.52487,-1.07689,-2.32682,2.71406,-9.98122,-0.83497,5.53575,-10.7097,-0.710737,-2.17727,23.4088,0.0561648,-2.5587,9.11008,-0.440443,-0.49987,2.6339e-15,-7.95139e-16,-37.2232,-11.6099,-76.6783,29.4574,3.53667,-13.5055,10.8418,7.12502,12.6059,-18.7578,2.6339e-15,-7.95139e-16,-37.1489,4.55493,86.9909,40.7465,6.69143,-16.3532,49.7992,7.12502,9.85942,79.5483,-21.3976,5.75924,21.6179,22.666,-0.951415,-11.7628,12.9823,15.9507,-4.72607,-25.0357,23.1243,-2.38055,-3.52635,-23.8156
1.80471,17.8337,-19.4449,-3.43356,2.49161,0.409193,16.2501,-1.26299,-3.45405,-1.00075,-2.07463,2.76809,-10.0187,-0.716356,5.50054,-11.5518,-0.608266,-2.16025,23.9054,0.237551,-2.54666,9.4436,-0.366445,-0.485854,2.36554e-14,5.56597e-15,-37.171,-11.8212,-76.5118,28.8724,3.78157,-13.6881,10.8797,7.12502,12.4299,-18.7307,2.36554e-14,5.56597e-15,-37.3717,5.18161,86.8411,40.17,6.60567,-16.1551,49.7813,7.12502,10.0505,79.5213,-21.0484,5.99468,22.0802,23.295,-0.85404,-10.7726,15.062,15.5202,-4.53833,-24.8503,24.7806,-0.537301,-3.88461,-23.6173
1.7797,17.8368,-19.2686,-3.38622,2.49941,0.183465,16.1777,-1.1756,-3.16508,-0.575024,-1.9023,2.74212,-9.53517,-0.674443,5.24388,-14.022,-0.691866,-2.01743,24.7259,0.155271,-2.38656,10.2087,-0.401051,-0.481585,9.98893e-15,6.36111e-15,-36.2685,-12.9244,-76.4129,28.1029,4.33533,-13.7552,11.0429,7.12502,12.3652,-18.5715,9.98893e-15,6.36111e-15,-36.6998,5.36287,86.7674,39.7584,6.40615,-15.3489,50.0095,7.12502,10.8282,79.7104,-20.8995,6.21487,22.5287,24.0957,-1.23729,-10.2611,17.434,14.8031,-4.71761,-24.4019,26.3793,1.87713,-4.46045,-22.4703
1.76777,17.8465,-19.1081,-3.62283,1.57323,0.180374,16.2453,-0.878156,-3.28855,-0.783624,-1.52893,2.77455,-9.84281,-0.474298,5.27379,-12.6216,-0.716296,-2.2253,24.4583,0.090452,-2.29374,9.84294,-0.427424,-0.413131,1.58282e-14,-5.56597e-15,-37.0397,-12.781,-76.1154,27.7363,4.40996,-13.7058,11.0757,7.12502,12.4128,-18.5357,1.58282e-14,-5.56597e-15,-37.8581,5.81735,86.6183,39.4231,6.21838,-14.8214,50.1183,7.12502,11.337,79.7919,-20.4957,6.34392,22.889,24.8024,-1.34199,-8.99859,18.637,14.201,-4.17253,-24.3596,28.1244,4.40882,-4.57217,-22.2085
1.75063,17.8701,-18.9005,-3.81047,1.67218,0.353866,15.8173,-0.892926,-3.45558,-0.888043,-1.58121,2.67117,-9.70642,-0.496957,5.25329,-11.4932,-0.672233,-2.16838,24.0802,0.0653575,-2.19607,9.49213,-0.410757,-0.384005,2.55935e-14,3.18055e-15,-37.7303,-12.5275,-76.132,27.5935,4.0223,-13.7038,10.6916,7.12502,12.4147,-18.9197,2.55935e-14,3.18055e-15,-38.8043,6.00973,86.4191,39.0074,5.99469,-14.0276,50.6766,7.12502,12.1025,80.3066,-19.6976,6.16527,22.9455,25.3135,-1.89323,-8.77873,19.0489,13.5174,-4.29134,-24.3556,30.0625,7.14219,-5.01032,-21.8304
1.72701,17.8908,-18.7269,-3.91345,1.96381,0.0417866,16.0115,-1.00535,-3.07774,-1.11144,-1.66455,2.65267,-10.066,-0.541339,5.05259,-11.0881,-0.703014,-2.24975,24.3524,-0.02728,-1.96093,9.51073,-0.437147,-0.299481,-3.74461e-14,2.14687e-14,-38.2306,-12.8276,-75.9759,27.2859,4.59731,-13.5729,10.535,7.12502,12.5409,-19.0686,-3.74461e-14,2.14687e-14,-39.5917,6.06139,86.1761,38.6883,6.00318,-13.3679,50.7335,7.12502,12.7386,80.3249,-19.0424,6.07548,23.467,25.5869,-2.22185,-8.92696,20.0168,12.4182,-4.49243,-23.7158,32.0756,10.1937,-5.45342,-18.9819
1.69868,17.8993,-18.5695,-4.02657,2.05487,-0.709626,15.9024,-1.03636,-2.50466,-0.754372,-1.56975,2.90631,-9.62551,-0.538134,4.96176,-12.2118,-0.710741,-2.36235,24.5739,-0.0277735,-1.72276,9.8042,-0.429198,-0.203613,1.71452e-14,-8.74653e-15,-37.5192,-13.0165,-76.0628,27.0511,4.7622,-13.5311,10.168,7.12502,12.5812,-19.4332,1.71452e-14,-8.74653e-15,-39.1609,6.17763,86.2985,38.2377,6.06862,-13.2455,50.8939,7.12502,12.8565,80.478,-18.5367,6.19586,24.4984,25.7786,-2.33597,-8.92271,21.4955,11.1336,-4.48319,-22.5021,34.1715,13.4058,-6.19109,-17.4112
1.68139,17.9153,-18.3928,-4.08243,1.92888,-1.16818,15.6316,-1.02902,-2.07489,-0.492401,-1.46672,3.03378,-9.20012,-0.522671,4.80936,-13.1621,-0.741106,-2.52095,24.845,-0.0504322,-1.49951,10.0848,-0.436531,-0.106392,-2.31336e-14,2.14687e-14,-37.0701,-13.3311,-75.9461,26.4791,5.28812,-13.4299,10.8794,7.12502,12.6788,-18.7157,-2.31336e-14,2.14687e-14,-39.0314,6.26032,86.4114,37.9374,6.28361,-12.9653,52.4644,7.12502,13.1267,82.0312,-17.9286,6.17949,25.2184,25.846,-2.60931,-8.65313,22.2219,9.77714,-4.34458,-21.704,36.4418,16.5452,-6.55645,-12.8677
1.67418,17.9308,-18.2198,-4.11571,1.79655,-1.12126,15.3971,-0.910627,-1.93692,-0.379718,-1.29707,2.88799,-8.96549,-0.459358,4.51897,-13.3622,-0.851107,-2.41694,24.7817,-0.260336,-1.36277,10.1005,-0.507364,-0.10263,-7.62836e-15,2.38542e-15,-37.0567,-13.5891,-75.9792,26.2893,5.42646,-13.4058,10.7237,7.12502,12.702,-18.87,-7.62836e-15,2.38542e-15,-39.1432,5.89801,86.4516,37.6101,6.41091,-13.2457,51.4975,7.12502,12.8564,81.0815,-17.3581,5.93227,25.3502,25.951,-3.05487,-8.36051,22.2452,8.4048,-4.20613,-21.5719,38.7094,19.1691,-6.5247,-9.18337
1.6725,17.9368,-18.0643,-4.22074,1.80239,-1.1182,16.0573,-0.91828,-1.79016,-0.942359,-1.28098,2.84284,-9.96727,-0.426887,4.42747,-12.3201,-0.876129,-2.46152,24.8353,-0.324384,-1.35328,9.91947,-0.537381,-0.0950868,-2.07854e-14,7.15625e-15,-38.1212,-12.7441,-76.007,26.4788,5.01744,-13.495,10.3293,7.12502,12.616,-19.2698,-2.07854e-14,7.15625e-15,-40.5932,5.85838,86.3632,37.4727,6.36654,-13.2436,50.4196,7.12502,12.8584,80.0035,-16.7832,5.50361,25.4918,26.0319,-3.4697,-8.09362,21.5996,7.01626,-4.20126,-21.4782,40.9778,22.2124,-6.56074,-6.57596
1.65367,17.945,-17.8966,-4.27851,1.93317,-1.29359,15.737,-0.989827,-1.72908,-0.967729,-1.35497,2.92668,-9.80481,-0.466995,4.49004,-11.6331,-1.00825,-2.63688,24.6845,-0.498886,-1.35537,9.73605,-0.630935,-0.0827266,1.88038e-14,-1.51076e-14,-38.1943,-12.3317,-76.0527,26.2529,5.12864,-13.4862,10.1477,7.12502,12.6245,-19.4508,1.88038e-14,-1.51076e-14,-41.167,5.85784,86.4131,37.3393,6.06172,-12.9434,50.3322,7.12502,13.1478,79.8977,-16.1104,5.21087,25.8887,26.0355,-3.82827,-7.97392,20.6689,5.54773,-4.14286,-21.0258,43.3605,24.172,-7.06226,-7.82815
1.63065,17.9626,-17.7329,-4.4136,1.98951,-1.79901,15.2978,-1.0127,-1.35924,-0.663768,-1.30411,3.09897,-9.22761,-0.474459,4.42605,-11.8281,-0.901874,-2.6287,24.331,-0.369095,-1.27147,9.64651,-0.556214,-0.038956,1.73937e-15,-3.49861e-14,-37.6082,-12.5352,-75.9438,25.7959,5.68904,-13.2202,10.2836,7.12502,12.8809,-19.299,1.73937e-15,-3.49861e-14,-41.0037,5.71267,86.6397,37.0769,5.78164,-12.9702,50.2919,7.12502,13.122,79.8591,-15.3104,5.35836,26.6556,25.9289,-4.2508,-8.02503,21.0907,4.06936,-4.01836,-20.1704,45.8636,26.4071,-7.66661,-6.90949
1.60865,17.9718,-17.5754,-4.56724,2.23481,-2.40192,15.3215,-1.09758,-0.823436,-0.548042,-1.30529,3.26755,-9.12223,-0.499661,4.30039,-12.2239,-0.836032,-2.70721,24.379,-0.27324,-1.14663,9.73887,-0.506349,0.0272251,1.56916e-14,-7.95139e-15,-37.3892,-12.3979,-76.0048,25.8406,5.87863,-12.9907,10.5013,7.12502,13.1022,-19.0672,1.56916e-14,-7.95139e-15,-41.0435,5.58594,86.7878,36.7627,5.51711,-13.0851,50.269,7.12502,13.0112,79.8432,-14.4761,5.70587,27.4949,25.7222,-4.81518,-8.9882,21.0366,2.4728,-4.0926,-19.2485,48.4324,28.3311,-8.01315,-4.13784
1.59621,17.9754,-17.4321,-4.71195,1.89784,-2.58176,15.4353,-0.921059,-0.607125,-0.493047,-1.0328,3.24427,-9.15221,-0.379373,4.09184,-12.2803,-0.946309,-2.76152,24.4915,-0.45894,-0.962153,9.79151,-0.57792,0.0779191,-7.98866e-15,1.82882e-14,-37.38,-12.3189,-76.1636,26.0224,5.98645,-12.9531,10.5783,7.12502,13.1384,-18.9878,-7.98866e-15,1.82882e-14,-41.0111,5.41243,86.7639,36.3659,4.70889,-12.2119,51.0196,7.12502,13.8528,80.5382,-13.6439,5.90588,27.8837,25.3781,-4.9727,-8.86788,20.7926,0.8935,-3.61362,-18.9073,50.9825,28.7342,-8.49371,-3.30004
1.57372,17.9841,-17.2663,-4.69334,2.46863,-2.92223,15.8036,-1.07967,-0.258211,-0.897336,-1.16411,3.24146,-9.80464,-0.443601,3.94842,-12.0978,-1.0798,-2.7411,24.9118,-0.688556,-0.827464,9.90892,-0.671601,0.0933781,-1.86174e-14,-1.59028e-15,-37.9784,-11.9143,-76.2798,26.0622,5.84203,-13.1322,10.972,7.12502,12.9657,-18.6052,-1.86174e-14,-1.59028e-15,-41.601,5.03647,86.707,35.7793,4.18483,-11.9982,49.4464,7.12502,14.0587,78.9509,-12.876,5.86512,28.4043,25.0675,-5.4231,-9.39714,20.8912,-0.900015,-3.82348,-18.2887,53.4965,29.391,-8.8326,-3.56964
1.55547,17.9836,-17.1173,-5.05192,2.06041,-3.59743,15.7702,-0.84083,0.336212,-0.416865,-0.734913,3.37093,-9.29184,-0.275739,3.63107,-12.8843,-1.0823,-2.48642,24.5753,-0.751078,-0.728002,9.93783,-0.66232,0.0745893,5.11871e-15,1.98785e-14,-37.2315,-11.9838,-76.5472,26.133,5.61559,-13.0577,10.8567,7.12502,13.0375,-18.7158,5.11871e-15,1.98785e-14,-40.9238,4.28285,87.0731,35.5435,3.86389,-11.6374,51.4233,7.12502,14.4064,80.9033,-11.8142,5.96252,29.3893,24.8185,-5.85428,-9.265,21.1265,-2.19044,-3.19534,-17.2893,55.9376,27.8251,-8.83643,-0.126363
1.53974,17.9806,-16.9673,-5.39725,2.28171,-4.19113,16.1907,-0.920379,0.948706,-0.6509,-0.697874,3.44279,-9.79877,-0.278274,3.37288,-11.9244,-1.2064,-2.49855,24.4867,-0.980513,-0.632788,9.72452,-0.756919,0.0881018,-9.8709e-15,2.90226e-14,-37.8184,-11.4956,-76.6783,26.4523,5.40569,-13.0658,10.4038,7.12502,13.0297,-19.1693,-9.8709e-15,2.90226e-14,-41.6748,3.8737,87.1182,35.4787,3.4692,-11.4349,50.9326,7.12502,14.6015,80.3986,-10.7647,5.75604,30.2157,24.5375,-6.33374,-9.39579,21.3945,-3.57389,-3.18346,-16.4709,58.3211,25.8524,-8.49157,-1.62139
1.52862,17.9778,-16.8225,-5.62875,2.15803,-4.56644,15.8676,-0.853459,1.24594,-0.277558,-0.561366,3.60032,-9.21263,-0.230715,3.31997,-11.9486,-1.38099,-2.71011,24.1751,-1.19113,-0.588128,9.6232,-0.866008,0.115596,9.91439e-15,2.5842e-14,-37.1334,-10.6652,-77.2577,26.7482,5.28875,-13.9061,8.56464,7.12502,12.2197,-21.0584,9.91439e-15,2.5842e-14,-40.939,4.00907,87.2484,34.7462,3.04031,-11.2489,52.1611,7.12502,14.7807,81.614,-9.84035,5.54733,30.7841,24.2244,-6.39522,-9.01261,20.2124,-4.94577,-2.80943,-15.9484,60.6057,23.2258,-8.20766,-2.78761
1.51894,17.9778,-16.6721,-5.80062,2.44444,-4.81494,16.2314,-1.03234,1.48884,-0.681492,-0.716154,3.67732,-9.86036,-0.306759,3.32867,-10.8496,-1.36024,-2.96302,24.082,-1.16342,-0.528882,9.38416,-0.868217,0.189928,-2.52216e-14,5.12864e-14,-37.801,-9.73641,-77.4187,26.9615,5.03348,-14.1995,8.32904,7.12502,11.9367,-21.3106,-2.52216e-14,5.12864e-14,-41.8257,4.2207,87.1427,34.4414,2.80334,-11.0867,52.2603,7.12502,14.9369,81.7017,-9.00166,5.08692,31.1463,23.965,-6.608,-8.69297,18.9179,-6.36195,-2.7352,-15.5898,62.6899,20.4176,-7.73722,-4.95295
1.50486,17.9733,-16.5305,-5.92236,2.27853,-5.25785,16.0443,-0.854898,1.93602,0.0641086,-0.425389,3.76069,-8.94993,-0.195373,3.06385,-13.2853,-1.49905,-2.8246,24.6161,-1.29469,-0.521826,10.0399,-0.921005,0.133987,-2.52457e-14,-2.10712e-14,-36.0908,-10.3396,-77.5653,26.7513,4.88029,-14.166,8.87119,7.12502,11.9691,-20.7666,-2.52457e-14,-2.10712e-14,-40.2171,4.04873,87.2855,34.0519,2.33076,-10.9961,51.9136,7.12502,15.0243,81.3485,-8.09601,4.85527,31.7604,23.4207,-6.85642,-8.36946,18.439,-7.84594,-2.22992,-14.9417,64.529,18.0198,-7.23321,-7.20585
1.49382,17.9795,-16.3628,-6.02099,1.96825,-5.45455,15.9448,-0.742582,2.06309,0.00028336,-0.245602,3.85679,-8.97114,-0.112012,3.05316,-13.154,-1.46015,-3.07302,24.796,-1.23737,-0.312003,10.0824,-0.894888,0.25727,-1.717e-14,4.05521e-14,-36.1326,-10.0268,-77.4763,26.5992,4.44887,-13.958,9.41204,7.12502,12.1696,-20.214,-1.717e-14,4.05521e-14,-40.4763,4.42845,87.2253,33.8234,1.83112,-11.4159,51.2504,7.12502,14.6198,80.7151,-7.20545,4.92151,32.1394,23.0988,-7.32336,-8.19876,18.457,-9.14688,-1.62695,-14.619,66.109,15.9191,-6.75968,-8.56618
1.47722,18.0232,-16.2068,-6.20625,2.38207,-5.62429,15.8651,-0.894277,2.19476,0.0727605,-0.424251,3.91393,-8.841,-0.202887,3.07757,-12.9595,-1.57312,-3.41359,24.9054,-1.36935,-0.131128,10.0915,-0.967895,0.363045,-1.27968e-15,-1.98785e-15,-35.8637,-9.98647,-77.3991,26.4229,4.44534,-14.9205,12.5868,7.12502,11.2414,-17.092,-1.27968e-15,-1.98785e-15,-40.4188,4.86108,87.1413,33.5866,1.67717,-11.8581,51.1059,7.12502,14.1937,80.601,-6.31428,4.62954,32.4205,22.8473,-7.84803,-8.4602,18.3777,-11.5952,-1.98728,-14.4376,67.3562,15.5982,-5.40365,-6.07712
1.47027,17.999,-16.0734,-6.33675,1.93322,-5.62443,16.2285,-0.668918,2.17517,-0.350123,-0.100535,3.81863,-9.52293,-0.0456756,2.93139,-11.7193,-1.45331,-3.01398,24.6663,-1.31851,-0.228419,9.76072,-0.916116,0.277086,-1.51309e-14,-1.35174e-14,-36.6482,-9.90278,-77.3124,26.48,4.5061,-15.7703,15.7661,7.12502,10.4217,-13.9556,-1.51309e-14,-1.35174e-14,-41.4311,4.85486,86.8277,33.6374,1.76397,-11.567,51.6819,7.12502,14.4743,81.1571,-5.68846,4.58922,32.5275,22.7604,-8.04149,-8.0831,17.7726,-12.2147,-1.25384,-14.3409,68.7495,13.0373,-5.01772,-9.0723
1.44253,17.9728,-15.9229,-6.76773,2.76195,-5.89396,16.4702,-0.912196,2.20407,-0.150455,-0.40787,3.89216,-9.42947,-0.19246,3.0701,-12.3263,-1.56446,-3.054,25.1733,-1.42683,-0.279542,10.0616,-0.979972,0.246866,-8.03214e-15,-1.43125e-14,-36.2329,-9.7662,-77.4355,26.6462,4.32596,-15.8322,13.9924,7.12502,10.362,-15.7323,-8.03214e-15,-1.43125e-14,-41.1196,5.26524,86.5055,33.2736,1.97102,-11.6893,50.8811,7.12502,14.3564,80.3647,-4.75833,4.4375,33.0402,22.7816,-8.38061,-8.71763,17.987,-12.822,-1.56082,-13.8894,70.0283,10.8337,-5.11581,-12.2473
1.43202,17.9671,-15.7874,-6.74426,2.44837,-6.05105,16.4564,-0.698921,2.28695,-0.334027,-0.0979305,3.91934,-9.63571,-0.0462729,2.98257,-11.5942,-1.73622,-3.02164,25.217,-1.68851,-0.339716,9.93923,-1.10502,0.194521,2.74053e-14,-1.51076e-14,-36.7239,-9.6099,-77.3415,27.169,3.86176,-15.1413,11.8406,7.12502,11.0284,-17.8497,2.74053e-14,-1.51076e-14,-41.4199,5.46098,86.2812,32.8294,2.2678,-12.6684,49.0046,7.12502,13.4128,78.5528,-4.47281,4.54161,33.3526,23.2027,-9.04435,-8.72971,17.2712,-14.4883,-1.01812,-13.6483,71.0656,9.62653,-4.5225,-13.1431
1.42728,17.9501,-15.6484,-6.75075,2.25928,-6.1772,16.4077,-0.523482,2.44709,-0.485728,0.167863,3.8844,-9.7844,0.0722775,2.79135,-11.8256,-1.9126,-2.39929,25.943,-1.87545,-1.06373,10.2343,-1.21973,-0.195247,-2.32578e-14,1.35174e-14,-37.0109,-9.76726,-77.1991,27.3766,3.71412,-15.1594,11.5442,7.12502,11.011,-18.147,-2.32578e-14,1.35174e-14,-41.8076,5.51182,86.1252,32.8253,2.59364,-13.1219,48.4027,7.12502,12.9757,77.9792,-4.07089,4.42003,33.5988,23.465,-9.31086,-8.44483,15.0766,-15.805,-0.691652,-13.5301,71.9083,8.22722,-4.02642,-14.0784
1.42401,17.9371,-15.5035,-6.64072,1.70697,-6.21309,16.0851,-0.319666,2.50754,-0.280641,0.424306,3.89633,-9.38194,0.191526,2.69563,-11.7186,-1.90675,-2.85069,25.4243,-1.9169,-0.50937,10.0374,-1.2146,0.0764075,-7.82132e-15,-5.48646e-14,-36.2683,-9.82312,-77.2351,27.2491,3.7475,-15.3475,11.9707,7.12502,10.8296,-17.7301,-7.82132e-15,-5.48646e-14,-41.5259,5.89419,86.016,33.1117,2.91046,-12.758,49.3491,7.12502,13.3265,78.903,-3.72376,4.3688,33.7087,23.615,-9.95073,-7.90517,16.6567,-17.1654,-0.109004,-13.5327,72.4284,7.37396,-3.39511,-12.7316
1.4025,17.9199,-15.3554,-6.98439,2.07163,-6.28712,15.8605,-0.382343,2.31233,0.166121,0.281501,4.00711,-8.76212,0.133747,2.94518,-12.2006,-1.95685,-3.14806,25.2792,-1.95529,-0.302861,10.0852,-1.23522,0.190517,-1.70147e-14,-1.19271e-15,-35.3681,-9.85074,-77.2477,27.2818,3.76253,-15.2166,11.963,7.12502,10.9558,-17.7311,-1.70147e-14,-1.19271e-15,-40.9379,6.28362,86.0355,33.238,3.19808,-12.6238,50.639,7.12502,13.4558,80.1844,-2.95393,4.21731,33.9852,23.8569,-10.2187,-8.2303,14.5761,-17.8779,-0.33534,-13.4294,72.7238,6.70146,-2.92343,-10.5491
1.39811,17.9064,-15.2276,-7.23862,1.53607,-6.54427,16.4213,-0.206021,2.60611,0.116949,0.605608,4.04184,-9.14204,0.277571,2.75024,-12.8886,-1.91312,-2.84512,25.9818,-1.83204,-0.688078,10.4658,-1.1991,0.00724163,2.50966e-15,-4.53229e-14,-35.3793,-9.68299,-77.3069,27.5144,3.58314,-15.3075,11.9197,7.12502,10.8682,-17.779,2.50966e-15,-4.53229e-14,-41.0097,6.49155,85.861,33.2441,3.58461,-12.7425,51.1304,7.12502,13.3414,80.6833,-2.32315,4.17613,34.3701,24.0767,-10.7324,-7.95839,13.7987,-18.7317,0.198635,-13.1366,72.8871,5.13314,-2.71259,-11.0654
1.38956,17.8882,-15.085,-7.14003,1.42225,-6.69691,16.3782,-0.1341,2.87169,-0.0225541,0.747946,3.94895,-9.27051,0.330945,2.46629,-12.7985,-2.00024,-2.76928,26.1359,-2.00063,-0.599852,10.5063,-1.2596,0.00419919,1.25258e-14,-1.27222e-14,-35.4751,-9.63241,-77.4547,27.7261,3.46916,-15.5315,11.9515,7.12502,10.6521,-17.7585,1.25258e-14,-1.27222e-14,-41.0581,6.58771,85.5673,33.1826,4.13373,-13.0507,50.954,7.12502,13.0443,80.5262,-1.95989,4.21882,34.6548,24.2411,-11.4647,-8.00746,14.0758,-20.027,0.320799,-13.0022,72.9397,3.60384,-2.49956,-12.3291
1.38401,17.8709,-14.947,-7.12046,1.11584,-6.73514,16.2541,0.00029165,2.99801,0.0615898,0.929071,3.84873,-9.10778,0.409841,2.23876,-12.5061,-2.13134,-2.99703,25.8577,-2.26531,-0.149633,10.3588,-1.34894,0.174195,2.14315e-14,4.49253e-14,-35.1402,-9.52695,-77.688,27.8967,3.35696,-15.8579,12.1315,7.12502,10.3372,-17.5944,2.14315e-14,4.49253e-14,-40.8614,6.74356,85.3208,33.3574,4.21045,-12.6545,51.5803,7.12502,13.4262,81.1276,-1.44676,4.29594,34.8115,24.3014,-11.8758,-7.99399,13.9326,-21.126,0.52795,-13.0147,72.8552,2.05491,-2.20099,-12.8552
1.3778,17.8544,-14.8193,-7.17409,0.697629,-6.84067,16.3929,0.133327,3.06236,0.0697236,1.12817,3.88004,-9.18073,0.502703,2.1895,-12.8532,-2.03936,-2.85417,26.0769,-2.11244,-0.309842,10.5008,-1.28432,0.107406,8.15172e-15,2.3059e-14,-34.9098,-9.17624,-77.8451,28.3416,2.76866,-15.6015,11.9769,7.12502,10.5846,-17.7365,8.15172e-15,2.3059e-14,-41.015,6.92959,85.2377,33.6475,4.4272,-12.8229,51.4943,7.12502,13.2639,81.0522,-0.938452,4.34451,35.0336,24.4026,-12.3055,-7.89731,14.2045,-22.1202,0.835372,-12.924,72.6153,0.731164,-2.07979,-12.7524
1.36334,17.8368,-14.6727,-7.28725,1.36756,-7.17694,16.4094,-0.157957,3.26603,-0.0678506,0.802665,4.0167,-9.33607,0.340343,2.30441,-12.1671,-1.9143,-3.27867,25.7807,-1.95296,0.0378633,10.2655,-1.21069,0.331427,-1.20925e-14,7.55382e-15,-34.919,-8.63758,-77.9384,29.1833,1.47299,-14.3151,10.3878,7.12502,11.8253,-19.2583,-1.20925e-14,7.55382e-15,-41.4237,7.23261,85.1401,33.8716,4.73247,-12.9548,51.4995,7.12502,13.1368,81.0657,-0.350675,4.11675,35.5717,24.4547,-13.1693,-8.46357,15.5267,-23.2065,0.156539,-12.6358,72.2323,-0.376066,-2.18864,-13.1849
1.35946,17.8188,-14.545,-7.18367,0.896417,-7.29197,16.7001,0.055679,3.45934,-0.0356431,1.13499,3.96736,-9.46636,0.487929,2.06186,-13.3613,-2.03454,-3.03894,26.3987,-2.0897,-0.129084,10.7242,-1.27167,0.199182,1.86182e-14,3.69739e-14,-34.4955,-8.76037,-78.0083,28.6888,2.42097,-15.4837,12.7757,7.12502,10.6982,-16.9319,1.86182e-14,3.69739e-14,-41.0177,7.19542,85.076,33.8721,4.80697,-12.8276,51.7442,7.12502,13.2594,81.3025,0.0533643,4.2691,35.7885,24.46,-13.6497,-8.17531,15.978,-24.2097,0.388821,-12.563,71.6383,-1.31309,-1.84809,-13.3296
1.35523,17.8054,-14.4099,-7.10358,0.793505,-7.1622,16.205,0.192467,3.41084,0.24592,1.24978,3.86162,-8.87587,0.547469,1.93889,-13.5151,-2.15809,-2.9641,26.0618,-2.28695,-0.0971239,10.6318,-1.34802,0.1721,-6.40149e-15,-5.60573e-14,-33.8769,-8.7348,-78.1854,28.9286,2.21929,-15.5034,13.2609,7.12502,10.6792,-16.4477,-6.40149e-15,-5.60573e-14,-40.575,7.00135,85.1665,34.1978,5.00296,-12.7884,51.6425,7.12502,13.2972,81.1983,0.496135,4.29958,35.7351,24.4895,-14.0909,-8.09725,16.1193,-25.0685,0.26289,-12.8066,70.7771,-2.09065,-1.33692,-12.3394
1.35122,17.7936,-14.2635,-7.04202,0.948477,-7.1475,15.9032,0.208899,3.52829,0.159388,1.26802,3.73568,-8.79445,0.548616,1.73196,-12.4872,-2.17962,-3.19926,25.3744,-2.44078,0.441593,10.192,-1.37686,0.398071,-2.56712e-15,-1.94809e-14,-33.9324,-8.61253,-78.3719,29.8531,1.09877,-14.3797,11.3552,7.12502,11.763,-18.2945,-2.56712e-15,-1.94809e-14,-40.8544,6.60394,85.1514,34.6049,5.27077,-12.9882,51.2311,7.12502,13.1046,80.7993,0.96449,4.20313,35.8161,24.5183,-14.6399,-8.29924,15.7295,-25.8657,-0.0913208,-12.9284,69.7129,-3.06728,-1.08169,-13.3513
1.35699,17.7876,-14.1369,-6.83372,-0.414239,-7.10595,16.0216,0.679963,3.64713,-0.0767414,1.92684,3.64433,-9.11653,0.852606,1.41414,-11.7317,-2.08045,-3.3259,24.9319,-2.39412,0.814251,9.89144,-1.32522,0.565166,-1.79226e-14,-7.95139e-15,-34.1705,-8.013,-78.7383,31.1511,-0.405231,-13.5473,8.02184,7.12502,12.5656,-21.5803,-1.79226e-14,-7.95139e-15,-41.1828,6.44126,85.0383,34.7468,5.41103,-13.205,50.7797,7.12502,12.8956,80.3613,1.29286,4.53551,35.7285,24.5732,-14.8042,-7.43651,15.5903,-26.5319,0.881265,-12.9682,68.4926,-4.11516,-0.737061,-15.8078
1.35057,17.772,-14.0015,-6.85473,-0.305566,-7.41086,16.185,0.609676,3.99141,-0.0277213,1.90778,3.66365,-9.14558,0.827846,1.24346,-11.696,-2.07606,-3.56178,24.5417,-2.42052,1.15358,9.75334,-1.31962,0.721113,-1.14899e-14,-4.7112e-14,-33.8894,-7.76894,-78.914,30.8623,0.369112,-14.668,10.7121,7.12502,11.4849,-18.9533,-1.14899e-14,-4.7112e-14,-40.8923,6.57516,84.9285,34.7465,5.2767,-13.2712,50.6057,7.12502,12.8318,80.1913,1.90132,4.58748,36.2055,24.3685,-15.0206,-7.74661,15.7025,-27.2289,0.533193,-12.6806,67.1273,-4.71314,-0.523527,-15.6422
1.34549,17.7387,-13.8747,-6.75051,-0.33656,-7.79069,16.5067,0.548455,4.47648,-0.187545,1.9512,3.65981,-9.48903,0.819327,0.954124,-12.1058,-2.0663,-3.39598,25.0447,-2.38615,0.974173,10.0067,-1.30899,0.630241,8.49106e-16,3.02153e-14,-33.7978,-7.15281,-79.3689,32.031,-0.981628,-13.5439,8.74496,7.12502,12.5688,-20.857,8.49106e-16,3.02153e-14,-40.9421,6.64975,84.7326,34.867,5.15408,-13.2437,50.6627,7.12502,12.8583,80.2467,2.28557,4.74975,36.7654,24.2529,-15.2583,-7.94197,15.5402,-28.0587,0.225586,-12.2692,65.7231,-5.19968,-0.138309,-13.6929
1.34263,17.7569,-13.7404,-6.54642,-0.403954,-7.84356,15.9354,0.614084,4.51938,0.0690196,1.99353,3.71969,-8.88322,0.851217,0.987422,-12.3453,-2.12959,-3.53212,24.801,-2.43084,0.96811,9.96873,-1.34072,0.643621,5.46658e-16,1.49089e-14,-32.8573,-7.05792,-79.3921,31.9107,-1.11587,-13.6738,9.72858,7.12502,12.4436,-19.881,5.46658e-16,1.49089e-14,-40.2654,6.76516,84.8959,34.797,5.06739,-13.2721,50.555,7.12502,12.8309,80.1406,2.69742,4.79114,36.8685,24.0203,-15.3522,-7.94775,16.1857,-28.5999,0.107736,-12.2111,63.9106,-5.81323,0.214031,-12.2995
1.34149,17.7429,-13.6042,-6.41297,-0.252065,-7.7995,15.99,0.548363,4.58622,-0.0762593,1.92394,3.63204,-9.06897,0.808457,0.871778,-12.5853,-2.17568,-3.44763,25.1667,-2.46563,0.802203,10.1446,-1.36876,0.563706,3.16813e-16,-4.13472e-14,-32.7501,-6.51912,-79.6732,32.4623,-1.708,-13.7665,9.16818,7.12502,12.3542,-20.4468,3.16813e-16,-4.13472e-14,-40.3161,6.64427,84.8613,34.8701,5.19858,-13.3144,50.622,7.12502,12.7901,80.2102,3.22688,4.64582,36.8674,23.7142,-15.6447,-8.02539,15.5052,-29.1717,-0.304085,-12.3148,62.0839,-6.43035,0.904176,-12.401
1.33918,17.7348,-13.4672,-6.2817,-0.602403,-7.86028,16.0673,0.634878,4.70983,-0.163059,2.07163,3.61842,-9.20139,0.870012,0.752674,-13.3153,-2.23029,-3.19815,25.8567,-2.45785,0.348349,10.5291,-1.39527,0.35173,3.07417e-14,2.98177e-14,-32.7621,-5.89205,-79.9104,33.243,-2.17494,-13.1406,7.27319,7.12502,12.9577,-22.3045,3.07417e-14,2.98177e-14,-40.3688,6.70571,84.8268,35.0289,5.24264,-13.3851,50.5976,7.12502,12.722,80.1901,3.89008,4.72666,36.9723,23.1952,-15.6652,-7.95618,14.8599,-29.501,-0.318157,-12.2245,60.0366,-6.9594,1.77334,-13.3888
1.33365,17.7358,-13.3138,-6.33786,-0.414184,-7.98023,15.8788,0.538733,4.83524,-0.0392056,1.94919,3.66257,-8.95847,0.812273,0.759368,-12.8155,-2.16502,-3.59755,25.2252,-2.38493,0.724285,10.2104,-1.35435,0.569224,5.65294e-16,-6.95746e-15,-32.4052,-5.63047,-79.918,32.7343,-1.21834,-14.7621,10.4337,7.12502,11.3942,-19.2367,5.65294e-16,-6.95746e-15,-40.3723,6.83544,84.8532,35.3564,5.22556,-13.3931,50.3975,7.12502,12.7143,79.9905,4.69864,4.52302,37.2118,22.8068,-15.9372,-8.29159,14.5216,-29.5785,-0.829872,-12.0844,57.8729,-7.56167,2.67471,-14.2709
1.33939,17.7392,-13.1761,-6.11656,-0.754163,-8.06091,15.8075,0.660758,5.00568,-0.138195,2.14285,3.65844,-9.01709,0.895364,0.61562,-12.5194,-2.11747,-3.67008,25.0139,-2.3342,0.812393,10.0774,-1.32733,0.622213,-3.16099e-14,-2.14687e-14,-32.1923,-5.27108,-80.0785,32.885,-1.81184,-14.4914,10.3728,7.12502,11.6553,-19.283,-3.16099e-14,-2.14687e-14,-40.439,6.75939,84.882,35.5255,5.27662,-13.2726,50.7749,7.12502,12.8304,80.3606,5.2091,4.47523,37.2685,22.4206,-16.0981,-7.99438,14.4113,-29.7895,-0.951351,-11.9431,55.5724,-8.0888,3.82528,-15.2455
1.34265,17.7332,-13.0379,-5.73414,-0.850744,-8.0615,15.6819,0.735464,5.1488,-0.454013,2.27039,3.56179,-9.28068,0.939147,0.404463,-12.3576,-2.12348,-3.45039,25.2563,-2.34573,0.600591,10.1281,-1.33806,0.510238,-1.28488e-14,-9.74045e-15,-32.4993,-4.93859,-80.2776,33.3564,-1.55228,-14.0262,8.90628,7.12502,12.1038,-20.7236,-1.28488e-14,-9.74045e-15,-40.6161,6.54209,84.8162,35.4249,5.31614,-13.2502,51.0608,7.12502,12.852,80.6452,5.5678,4.46578,37.2748,21.9299,-16.1767,-7.88759,14.2011,-29.9922,-1.33549,-11.8533,53.1336,-8.13054,4.8234,-12.6345
1.34359,17.7164,-12.8999,-5.50632,-0.991393,-8.0847,15.4832,0.86048,5.23904,-0.324656,2.42397,3.51988,-9.01532,1.01439,0.275877,-13.8786,-2.29916,-2.85117,26.0868,-2.4718,-0.197469,10.7122,-1.43205,0.0882443,-2.57038e-14,-1.47101e-14,-32.0896,-5.13315,-80.2543,33.6939,-1.08516,-15.135,10.1319,7.12502,11.0346,-19.558,-2.57038e-14,-1.47101e-14,-40.1029,6.43813,84.9153,35.514,5.39504,-13.3611,50.9917,7.12502,12.7451,80.5827,6.13309,4.46243,37.3488,21.3724,-16.1153,-7.93614,13.9235,-29.9075,-1.63728,-11.7139,50.5734,-8.41539,5.51772,-10.9123
1.34355,17.7199,-12.7591,-5.38961,-1.1662,-8.06924,15.3547,0.910542,5.19336,-0.407913,2.48205,3.57096,-9.03635,1.04463,0.345972,-12.573,-2.27769,-3.44498,25.2705,-2.48646,0.337357,10.1754,-1.43199,0.396604,-3.89571e-14,-6.55989e-15,-32.1077,-4.6808,-80.2253,34.0025,-1.10572,-15.2102,10.0261,7.12502,10.962,-19.6677,-3.89571e-14,-6.55989e-15,-40.3465,6.6178,84.9902,35.8445,5.52285,-13.6648,51.3961,7.12502,12.4523,81.0052,6.8874,4.30971,37.3306,20.7045,-15.973,-7.97674,13.1877,-29.8598,-1.9378,-11.6077,47.8788,-8.95875,6.21023,-12.2936
1.34671,17.7417,-12.6144,-5.09961,-1.37325,-8.02768,15.2787,0.953325,5.21446,-0.629835,2.55007,3.55572,-9.23366,1.06946,0.304173,-12.0898,-2.09833,-3.66835,24.8729,-2.28779,0.675451,9.94131,-1.32168,0.583991,-2.37175e-14,-5.40694e-14,-32.0538,-4.16794,-80.3291,34.1484,-1.32083,-14.6965,9.59254,7.12502,11.4575,-20.0744,-2.37175e-14,-5.40694e-14,-40.6101,7.02937,84.7489,35.7057,5.46437,-13.6462,49.9611,7.12502,12.4703,79.5691,7.58656,4.3246,37.2552,19.8111,-15.7488,-8.04769,13.1268,-29.9773,-2.38413,-11.4958,45.0469,-9.12005,7.28667,-12.332
1.3529,17.7519,-12.4706,-4.71541,-1.64466,-7.91795,15.1943,1.038,5.23885,-0.830401,2.66426,3.45787,-9.39673,1.11456,0.160812,-12.2667,-1.99133,-3.52846,24.9649,-2.15234,0.638891,10.0024,-1.25017,0.562285,-1.59631e-14,4.17448e-15,-31.9771,-3.74705,-80.5541,34.4405,-1.74652,-14.4447,9.32144,7.12502,11.7003,-20.3318,-1.59631e-14,4.17448e-15,-40.624,7.13736,84.6217,35.6654,5.57176,-13.609,49.6711,7.12502,12.5061,79.2769,8.47099,4.38794,37.0787,18.4493,-15.4419,-7.94665,13.0397,-30.0548,-2.94395,-11.4092,42.2068,-9.03639,8.58775,-10.99
1.35992,17.7655,-12.3238,-4.35058,-1.6919,-7.67338,14.9058,1.03984,5.11125,-0.871272,2.6146,3.36749,-9.27822,1.09715,0.151907,-12.3586,-2.00282,-3.66673,24.913,-2.14734,0.694497,10.0041,-1.25406,0.604994,1.64393e-14,4.27387e-14,-31.7637,-3.43302,-80.7086,34.7381,-1.79414,-14.696,9.51473,7.12502,11.4579,-20.1522,1.64393e-14,4.27387e-14,-40.3306,7.24034,84.6927,35.7017,5.66001,-13.5982,50.2845,7.12502,12.5165,79.8897,9.4335,4.29866,36.7312,17.0347,-15.2495,-7.71409,13.4385,-29.9929,-3.87407,-11.4061,39.2735,-9.14938,9.83997,-9.98439
1.35517,17.7756,-12.1595,-4.4543,-2.19879,-7.92599,14.7392,1.16977,5.26907,-0.579624,2.79573,3.51926,-8.85857,1.19311,0.19093,-12.8583,-2.04198,-3.84518,24.948,-2.13701,0.687109,10.1159,-1.26559,0.629242,-2.63483e-14,-4.29375e-14,-31.3326,-3.10479,-80.8017,35.012,-1.88804,-14.7048,10.1207,7.12502,11.4495,-19.5467,-2.63483e-14,-4.29375e-14,-39.9313,7.51551,84.7791,35.6722,5.74767,-13.7531,49.4637,7.12502,12.3672,79.0779,10.9148,4.60483,37.132,15.6908,-14.9652,-7.75941,13.5623,-29.3122,-4.52111,-10.7069,36.4353,-9.62101,11.1088,-9.23987
1.36488,17.7798,-12.007,-4.25866,-2.05744,-7.46774,14.4527,1.162,4.94398,-0.512732,2.69228,3.40999,-8.6329,1.16148,0.284514,-13.2239,-2.03968,-3.92492,25.0064,-2.07342,0.595436,10.2068,-1.25371,0.615038,2.74447e-14,6.36111e-15,-31.0047,-2.86344,-80.8195,35.3678,-2.08858,-14.2314,10.005,7.12502,11.906,-19.6365,2.74447e-14,6.36111e-15,-39.7486,7.67929,84.8743,35.8275,5.84029,-13.7888,49.197,7.12502,12.3328,78.8132,11.9979,4.09208,36.4408,14.2516,-14.5805,-7.28488,13.2919,-29.0589,-5.61237,-10.9621,33.6204,-9.72392,12.2588,-9.77965
1.3694,17.7756,-11.8696,-3.98583,-2.2611,-7.67636,14.4471,1.22649,5.20273,-0.850812,2.84612,3.42841,-8.98519,1.21287,0.125852,-12.3194,-2.05105,-3.78336,24.869,-2.1139,0.404707,9.97959,-1.28231,0.527522,-8.57259e-15,-3.33958e-14,-31.4624,-2.5906,-80.8743,35.7616,-2.27119,-14.1092,9.41264,7.12502,12.0238,-20.222,-8.57259e-15,-3.33958e-14,-40.277,7.58049,84.7873,35.9476,5.77291,-13.4989,48.9103,7.12502,12.6123,78.5095,13.0066,4.23763,36.6929,12.7348,-13.8415,-7.28675,12.8765,-29.0406,-6.63886,-10.2586,31.0346,-9.6362,13.3941,-10.6258
1.37985,17.7863,-11.7115,-3.71788,-2.61425,-7.77939,14.064,1.35649,5.45587,-0.848359,3.02755,3.39837,-8.74345,1.29358,-0.0765689,-12.668,-1.96949,-3.5361,24.8638,-2.01705,0.311458,10.0378,-1.22411,0.461768,-3.54784e-14,-2.40529e-14,-31.2658,-2.51613,-80.9228,35.8979,-2.47191,-14.1594,9.5107,7.12502,11.9754,-20.1267,-3.54784e-14,-2.40529e-14,-40.1684,7.39129,84.8841,36.0109,5.72884,-13.4381,49.7972,7.12502,12.6709,79.3929,14.1206,4.33879,36.727,11.2644,-13.2315,-7.1019,12.2127,-28.8749,-7.97446,-9.54067,28.6247,-10.1063,14.6485,-10.19
1.38682,17.7883,-11.5512,-3.47277,-3.20167,-7.82099,13.7664,1.56339,5.4947,-0.858292,3.28644,3.41841,-8.57371,1.42161,-0.121394,-13.1778,-2.06897,-3.30228,25.3769,-2.07603,-0.129709,10.3163,-1.28337,0.252296,1.1382e-14,-1.64991e-14,-31.1005,-2.47979,-80.9074,35.945,-2.68496,-14.164,10.0856,7.12502,11.9709,-19.5521,1.1382e-14,-1.64991e-14,-40.0817,7.33286,84.9693,35.9633,5.73731,-13.4085,50.7057,7.12502,12.6994,80.2996,15.183,4.71336,36.7338,9.99272,-12.6368,-6.87588,11.6802,-28.6311,-9.21081,-8.83652,26.5375,-10.8112,15.8009,-9.58058
1.41224,17.7943,-11.3343,-3.60059,-5.02596,-7.57663,13.3023,2.13028,5.43315,-0.555229,3.96587,3.37914,-7.95388,1.77187,-0.242752,-12.9995,-1.89865,-3.6713,24.9356,-1.86653,0.297346,10.1265,-1.16891,0.495325,5.59424e-14,2.127e-14,-30.9516,-2.43949,-80.8758,36.1526,-2.59487,-14.3361,10.127,7.12502,11.805,-19.5203,5.59424e-14,2.127e-14,-39.8893,7.54869,84.9433,35.6919,5.62547,-13.1529,50.1043,7.12502,12.9458,79.6827,16.9872,6.22423,36.4617,8.64816,-12.0013,-6.57254,11.1304,-27.5246,-11.0796,-8.1164,24.7807,-12.5367,18.2505,-8.21891
1.39324,17.767,-11.2479,-3.29489,-3.79468,-7.82972,13.8434,1.6754,5.39839,-0.753746,3.43094,3.56536,-8.51346,1.50182,0.058551,-13.1808,-1.92029,-4.07828,24.8973,-1.85257,0.533348,10.1552,-1.17282,0.647544,1.90989e-14,3.33958e-14,-30.6253,-2.17513,-80.8548,36.4279,-2.62438,-14.3789,9.33921,7.12502,11.7638,-20.3104,1.90989e-14,3.33958e-14,-39.642,7.71133,85.0749,35.6685,5.46554,-13.1844,49.2194,7.12502,12.9155,78.7997,17.2737,4.81895,36.6564,7.75815,-11.5471,-6.27177,10.4548,-28.469,-12.64,-7.33689,23.3369,-12.5099,17.7447,-9.76612
1.40487,17.7631,-11.0814,-3.26358,-4.09991,-7.61083,14.1511,1.75165,5.30881,-1.31066,3.56983,3.42758,-9.29137,1.54317,-0.0832194,-11.8903,-1.907,-3.72016,24.9679,-1.88734,0.183925,9.92463,-1.19884,0.470739,-4.47545e-14,-4.63168e-14,-31.6611,-2.01818,-80.9372,36.6281,-2.61244,-14.2115,8.91544,7.12502,11.9251,-20.7249,-4.47545e-14,-4.63168e-14,-41.0558,7.22337,84.9672,36.2494,5.58058,-13.4171,48.7866,7.12502,12.6911,78.381,17.871,4.90889,36.2988,7.7322,-11.5949,-5.97411,9.78355,-28.2961,-14.3738,-6.90136,22.0706,-13.6676,18.6123,-9.90921
1.4185,17.7564,-10.9401,-3.01645,-4.4011,-7.98925,14.1851,1.70794,5.80997,-1.13781,3.59892,3.55385,-9.10029,1.54195,-0.232876,-13.1777,-1.71088,-3.48521,25.2305,-1.52176,-0.143861,10.2555,-1.04685,0.349371,2.95319e-14,-2.46493e-14,-30.8774,-1.81783,-80.9838,36.4476,-2.5447,-14.0303,9.29884,7.12502,12.0999,-20.3313,2.95319e-14,-2.46493e-14,-40.6986,7.46152,85.0601,36.5265,5.47162,-13.5071,48.9533,7.12502,12.6043,78.553,17.6674,4.9936,36.5845,8.48034,-11.6392,-5.79263,8.42306,-28.358,-15.1058,-6.02346,21.0763,-14.6971,18.5695,-9.67007
1.43951,17.7594,-10.7757,-2.85534,-4.44257,-7.46469,13.9556,1.72028,5.52849,-1.11845,3.52982,3.374,-8.95274,1.52231,-0.246408,-13.4755,-1.72544,-3.51316,25.3869,-1.52161,-0.145577,10.3709,-1.05117,0.350647,2.81001e-14,1.55052e-14,-30.7064,-1.81927,-81.0077,36.5269,-2.59017,-13.8469,9.6227,7.12502,12.2767,-19.9969,2.81001e-14,1.55052e-14,-40.6319,7.28489,85.2179,36.851,5.70997,-13.3297,49.9264,7.12502,12.7754,79.5155,17.6016,4.91241,35.8006,9.19357,-11.8203,-5.55497,6.06736,-28.2254,-15.374,-6.57195,20.439,-15.446,17.8053,-9.95872
1.45059,17.7509,-10.6094,-2.88377,-4.76859,-7.51558,13.9378,1.80049,5.62994,-1.10484,3.65286,3.39633,-8.91851,1.57815,-0.303801,-12.8114,-1.85984,-3.84777,25.0995,-1.73845,0.140782,10.1483,-1.1474,0.487098,-2.56991e-14,6.75868e-15,-30.7028,-1.94146,-80.9802,36.5938,-2.46862,-13.7656,9.52054,7.12502,12.3551,-20.0944,-2.56991e-14,6.75868e-15,-40.6255,7.28256,85.2225,36.7302,5.67987,-13.2992,49.462,7.12502,12.8047,79.0493,17.8797,4.98009,35.7428,9.78662,-11.9054,-5.14981,4.76754,-27.8073,-14.8166,-6.7172,20.0925,-15.1881,16.6986,-11.3396
1.45205,17.7389,-10.4608,-2.72425,-4.43981,-7.41928,14.0332,1.6952,5.50642,-1.28651,3.51183,3.38042,-9.18452,1.50677,-0.227566,-12.9565,-1.66051,-3.63868,25.0194,-1.51057,0.179054,10.1394,-1.01712,0.492914,1.2129e-15,9.54166e-15,-30.8769,-1.93903,-80.9426,36.6359,-2.44151,-14.0757,9.46782,7.12502,12.0561,-20.1649,1.2129e-15,9.54166e-15,-40.8126,7.14792,85.3005,36.803,5.50438,-13.1746,49.826,7.12502,12.9249,79.4057,17.7359,4.47053,35.505,10.619,-12.104,-4.67677,4.21912,-27.9367,-13.4182,-7.44635,20.2393,-13.3901,14.7416,-14.2657
1.46005,17.7465,-10.2891,-2.61682,-4.38247,-7.34064,13.9043,1.67034,5.47099,-1.2488,3.45869,3.37425,-9.07238,1.48649,-0.19854,-13.5373,-1.68702,-3.31051,25.3006,-1.50066,-0.205914,10.3478,-1.02865,0.297388,-3.6508e-14,-3.10104e-14,-30.8741,-2.01777,-80.8626,36.8713,-2.54549,-14.1943,9.69816,7.12502,11.9417,-19.9412,-3.6508e-14,-3.10104e-14,-40.7598,7.02313,85.4207,36.8818,5.50979,-13.1568,50.0806,7.12502,12.9421,79.6592,17.875,4.53793,35.371,11.218,-12.0994,-4.43029,3.91159,-27.9161,-12.0599,-8.18272,20.8026,-11.8159,13.2037,-14.8599
1.47199,17.7155,-10.1204,-2.48134,-4.20757,-7.37347,13.6309,1.66396,5.60453,-1.06744,3.43626,3.37164,-8.70989,1.48124,-0.26037,-14.3207,-1.78826,-3.15676,25.5587,-1.61009,-0.353068,10.5942,-1.08336,0.197084,-1.94157e-14,9.93923e-15,-30.5013,-2.31225,-80.7702,37.0602,-2.68211,-14.0746,9.85645,7.12502,12.0572,-19.7762,-1.94157e-14,9.93923e-15,-40.2732,6.74674,85.6403,36.8376,5.4651,-13.2503,49.7555,7.12502,12.852,79.3398,17.93,4.57734,35.3856,11.9863,-12.1784,-4.18292,3.98152,-28.0644,-10.521,-8.89186,21.5276,-10.3275,11.5733,-14.0123
1.48348,17.7014,-9.95335,-2.49831,-3.96364,-7.27505,13.6865,1.48272,5.51883,-1.01484,3.19141,3.47687,-8.7052,1.37079,-0.0512777,-14.8856,-1.48187,-3.13401,25.4819,-1.11732,-0.504168,10.6681,-0.873398,0.201145,3.29237e-15,1.15295e-14,-30.2544,-2.03034,-80.6967,37.0225,-2.79987,-13.9,9.79871,7.12502,12.2255,-19.824,3.29237e-15,1.15295e-14,-40.1204,7.17086,85.7584,36.7458,5.17878,-13.3132,49.5997,7.12502,12.7913,79.1879,18.0843,4.63993,35.3109,12.7906,-12.2081,-4.25013,4.06806,-28.043,-9.13031,-9.77361,22.3078,-9.11332,9.95201,-14.4168
1.49304,17.6837,-9.79188,-2.61624,-3.51286,-7.1097,13.9147,1.33059,5.41727,-1.32325,3.01032,3.44368,-9.18411,1.27235,-0.000285199,-13.3407,-1.74361,-3.47448,25.275,-1.49578,-0.40528,10.3017,-1.06549,0.256691,-9.22174e-15,-2.38542e-15,-30.9259,-2.2148,-80.5497,36.902,-2.53938,-13.9238,9.4968,7.12502,12.2026,-20.1273,-9.22174e-15,-2.38542e-15,-40.7874,6.88719,85.8167,36.7962,5.12949,-13.2511,50.3333,7.12502,12.8511,79.9176,18.126,4.64562,35.2665,13.87,-12.1867,-4.73725,3.06633,-28.017,-8.33355,-10.6027,23.2047,-8.64384,8.5007,-15.2742
1.50963,17.6719,-9.60699,-2.79396,-3.7398,-6.91518,14.102,1.41455,5.36406,-1.04396,3.10304,3.38136,-8.98023,1.32522,-0.0612773,-14.0159,-1.69323,-3.53827,24.9818,-1.46916,-0.0739578,10.3276,-1.01702,0.383928,1.58282e-14,2.38542e-14,-30.4433,-2.61489,-80.4298,36.6656,-2.3345,-13.9965,9.23853,7.12502,12.1325,-20.3897,1.58282e-14,2.38542e-14,-40.2201,6.58216,86.0286,36.7077,5.32837,-13.1821,50.6818,7.12502,12.9177,80.262,18.4805,5.04142,35.1333,14.7386,-11.8888,-4.89633,2.0172,-27.5433,-7.71911,-11.2156,23.9001,-8.36458,7.37888,-16.8891
1.52336,17.6679,-9.4249,-2.97972,-3.92291,-6.89915,14.5311,1.41162,5.43183,-1.48155,3.17751,3.3865,-9.70422,1.33411,-0.123851,-12.3146,-1.56185,-3.58462,24.5312,-1.38705,0.0682838,9.83632,-0.963855,0.465329,8.93755e-15,1.98785e-14,-31.5838,-2.62212,-80.3229,36.6903,-2.35767,-13.8718,9.44351,7.12502,12.2527,-20.1776,8.93755e-15,1.98785e-14,-41.1614,6.52576,85.8897,36.5313,5.2409,-13.1832,49.6589,7.12502,12.9166,79.2392,19.0284,5.38779,35.2258,15.2735,-11.3383,-5.06918,1.10052,-26.9865,-7.54261,-11.4704,24.2773,-7.3627,6.2041,-16.6976
1.53772,17.6742,-9.23854,-3.17064,-3.86142,-6.77185,14.2794,1.3602,5.39337,-0.961912,3.04919,3.43291,-8.99566,1.29943,-0.0154039,-13.4503,-1.63084,-3.85539,24.7359,-1.41063,0.234022,10.1332,-0.981944,0.558347,1.89653e-14,1.39149e-14,-30.7447,-2.85764,-80.1901,36.2972,-2.26192,-14.0834,10.14,7.12502,12.0487,-19.4931,1.89653e-14,1.39149e-14,-40.0966,7.00801,85.9688,36.1209,4.93453,-13.2096,49.2375,7.12502,12.8911,78.8193,19.6444,5.43589,35.1498,15.6112,-10.5719,-5.25426,0.102556,-26.5148,-7.73742,-11.7963,24.512,-5.87583,5.02344,-16.8228
1.55146,17.7219,-9.04893,-3.23194,-3.79011,-6.44041,14.1437,1.42693,5.17931,-0.991097,3.08238,3.32091,-8.95204,1.32377,-0.0194809,-13.0502,-1.76082,-3.85451,24.9438,-1.60339,0.200547,10.1354,-1.07698,0.524676,-4.0813e-15,3.81667e-14,-31.139,-3.37551,-79.9818,36.0993,-2.10487,-14.2783,10.3736,7.12502,11.8608,-19.2705,-4.0813e-15,3.81667e-14,-40.1513,6.76981,86.056,36.1676,4.95494,-13.0098,50.4121,7.12502,13.0837,79.9817,19.9438,5.41717,34.7578,16.0956,-9.51915,-5.37673,-0.972338,-26.1312,-8.97322,-12.0084,24.4631,-4.63023,4.8527,-17.4828
1.59249,17.7695,-8.77591,-3.34665,-5.58013,-5.45996,13.1668,2.09528,4.51937,-0.695017,3.74754,3.05154,-8.06793,1.69328,-0.036647,-13.1444,-1.58593,-3.76194,24.8288,-1.39126,0.26512,10.1061,-0.961506,0.558024,2.0773e-14,2.62396e-14,-31.3057,-3.69931,-79.7693,35.8407,-2.04,-14.2164,9.89848,7.12502,11.9204,-19.7422,2.0773e-14,2.62396e-14,-40.2937,6.9068,85.9924,35.9593,4.57449,-13.1728,49.4556,7.12502,12.9266,79.0352,20.5013,6.64165,33.3849,16.9612,-8.55261,-4.65134,-1.27567,-24.8969,-9.91905,-12.7219,24.2481,-4.08409,6.14576,-18.9923
1.6148,17.7996,-8.55476,-3.4751,-6.14928,-4.62949,12.7212,2.3598,3.91421,-0.87709,3.96358,2.75366,-8.02123,1.81785,-0.0410064,-11.6703,-1.66898,-3.74211,24.5272,-1.61631,0.401392,9.72005,-1.04771,0.585275,-8.07407e-14,-2.06736e-14,-32.0417,-4.34204,-79.5953,35.3324,-1.73795,-14.3093,9.59493,7.12502,11.8309,-20.0509,-8.07407e-14,-2.06736e-14,-40.3838,7.07447,85.6373,34.7981,4.18548,-13.0723,48.92,7.12502,13.0235,78.4935,20.5093,7.25543,32.441,18.283,-7.58235,-4.49466,-1.00982,-23.8967,-10.1254,-13.7673,23.9074,-1.84949,6.06228,-22.7638
1.62581,17.819,-8.36192,-3.67824,-6.0448,-3.9751,12.7654,2.40693,3.41474,-0.579674,3.91697,2.50189,-7.73957,1.81816,-0.0164964,-12.8063,-1.6525,-3.35849,24.7386,-1.60637,0.297697,10.0077,-1.019,0.476881,-3.23771e-14,-2.0276e-14,-31.5596,-5.19156,-79.4912,34.7955,-1.45764,-14.4477,9.36947,7.12502,11.6974,-20.284,-3.23771e-14,-2.0276e-14,-39.8552,6.89385,85.6799,34.9198,4.3716,-13.143,49.2889,7.12502,12.9553,78.8667,20.0377,7.2591,31.7283,20.3702,-6.68514,-4.44592,-0.396027,-23.0592,-9.80962,-14.8331,23.7673,-0.539899,5.1646,-20.6351
1.63514,17.8356,-8.16523,-3.84786,-5.9828,-3.50182,12.4964,2.41928,3.03757,-0.76413,3.86214,2.37035,-7.80087,1.80283,0.0734965,-11.4682,-1.59481,-3.18523,24.4771,-1.60567,0.252114,9.65485,-1.00793,0.442043,4.51956e-14,3.73715e-14,-32.4822,-5.61511,-79.2913,34.5573,-1.33329,-14.4718,9.31607,7.12502,11.6741,-20.3387,4.51956e-14,3.73715e-14,-40.6168,6.96352,85.4401,34.9261,4.22638,-13.2045,48.9807,7.12502,12.8961,78.5622,19.2706,7.00085,31.0506,22.9324,-5.63614,-4.09753,-0.795544,-22.2957,-9.42625,-15.6762,23.7975,-0.0623791,4.60009,-15.8405
1.63144,17.8488,-8.01731,-3.93851,-5.3185,-3.15654,13.379,2.17667,2.57266,-1.01189,3.51723,2.34962,-8.60405,1.6399,0.336655,-11.9746,-1.76318,-3.45761,25.3635,-1.72984,0.129588,10.0756,-1.11144,0.4246,-4.05148e-14,-1.63003e-14,-32.7471,-6.18365,-79.0126,33.8942,-0.846102,-14.3636,9.80729,7.12502,11.7785,-19.8415,-4.05148e-14,-1.63003e-14,-40.8522,7.40642,85.2219,34.8741,3.97308,-13.0448,49.1167,7.12502,13.05,78.6884,18.0944,6.32766,30.6,25.6019,-4.04402,-3.90066,-0.0259257,-21.9642,-8.84435,-16.4503,24.0297,0.317602,3.46008,-16.525
1.61953,17.8542,-7.90175,-3.78377,-3.54127,-3.14063,14.1261,1.52804,2.40832,-1.26574,2.67215,2.38451,-9.3245,1.23027,0.617138,-13.0748,-1.6401,-2.97446,26.0135,-1.47332,-0.434106,10.5127,-1.01737,0.163817,-1.04393e-14,-5.1684e-15,-32.8899,-6.72159,-78.8297,33.4045,-0.33079,-14.3328,10.338,7.12502,11.8082,-19.3091,-1.04393e-14,-5.1684e-15,-40.7233,7.75916,85.0683,34.8666,3.99993,-13.0978,49.704,7.12502,12.999,79.279,16.5246,4.78325,30.4886,28.1452,-2.11448,-3.97009,2.13545,-22.2171,-8.25251,-17.0284,24.3992,0.378062,1.41252,-17.6777
1.64312,17.8763,-7.71564,-3.87062,-3.63225,-3.09275,14.1341,1.50697,2.65707,-1.06131,2.67182,2.31726,-9.09044,1.21908,0.406226,-13.3736,-1.58094,-2.95451,25.8639,-1.42914,-0.268699,10.516,-0.974153,0.223344,3.22839e-14,-3.97569e-16,-32.9456,-7.1843,-78.7648,33.3915,-0.0665055,-14.3944,10.1418,7.12502,11.7488,-19.5087,3.22839e-14,-3.97569e-16,-40.2086,8.00807,84.9156,34.5518,3.96459,-13.3114,49.1994,7.12502,12.793,78.7874,15.3663,4.54905,30.053,30.6862,0.595393,-3.55378,5.85299,-21.6602,-7.67198,-17.3782,24.8259,-0.438123,1.29474,-13.7176
1.69108,17.9095,-7.46146,-4.22354,-5.07989,-2.62777,13.3641,2.01717,2.76301,-1.06847,3.314,2.08282,-8.63043,1.5251,-0.0136872,-11.2306,-1.55002,-2.88218,25.0304,-1.55262,-0.00579753,9.80009,-0.988754,0.307666,8.34274e-15,3.69739e-14,-33.7114,-8.07146,-78.335,32.4477,0.554544,-14.6865,10.0718,7.12502,11.4671,-19.5946,8.34274e-15,3.69739e-14,-41.1293,7.65752,84.7262,34.7001,4.05492,-13.3189,49.0851,7.12502,12.7858,78.6736,14.6324,5.21615,28.9034,33.2478,4.35675,-2.64821,9.71899,-20.3745,-6.94915,-18.0842,25.2897,-1.52973,1.90257,-10.7951
1.70802,17.9225,-7.28245,-4.34923,-4.89144,-2.34421,13.3714,1.94335,2.67558,-1.01436,3.18934,1.96373,-8.57482,1.46702,-0.0657341,-11.1755,-1.5228,-2.81329,24.8288,-1.56109,0.107323,9.71742,-0.972402,0.335315,-2.73018e-14,-3.06128e-14,-33.7562,-9.12393,-77.898,31.2552,1.56693,-14.6049,11.6107,7.12502,11.5458,-18.0513,-2.73018e-14,-3.06128e-14,-41.2029,7.49906,84.6815,34.9375,4.19316,-12.845,49.7763,7.12502,13.2426,79.3356,13.306,4.73029,28.1745,35.8483,7.0464,-2.01851,7.41758,-19.8082,-6.28081,-18.7381,25.6013,-1.69968,0.676747,-10.2833
1.69419,17.9232,-7.18595,-4.32318,-3.2669,-2.39406,14.413,1.36397,2.52478,-1.12807,2.44797,2.04401,-9.31719,1.10662,0.228294,-12.4898,-1.60279,-2.73759,25.7226,-1.54043,-0.291868,10.2901,-1.00637,0.1717,-1.86361e-16,-1.59028e-14,-33.7168,-9.31945,-77.9265,31.7503,0.875021,-13.6428,9.29833,7.12502,12.4735,-20.3094,-1.86361e-16,-1.59028e-14,-40.8491,7.51581,84.7416,34.9924,4.48938,-12.7104,50.1128,7.12502,13.3723,79.6637,11.3892,3.29362,28.0817,38.6692,9.46028,-1.90992,6.92157,-19.7998,-6.1046,-19.038,25.699,-1.2848,-1.44477,-7.99918
1.71572,17.9524,-6.99464,-4.56828,-3.79676,-2.00442,14.5575,1.42215,2.32752,-0.67636,2.47592,2.0103,-8.91172,1.13508,0.297301,-13.8282,-1.62085,-3.13417,26.0484,-1.43974,-0.211454,10.6762,-0.991762,0.268634,3.36924e-15,-1.70955e-14,-33.1891,-9.54539,-77.8698,31.2144,1.60116,-14.3795,11.1335,7.12502,11.7632,-18.5162,3.36924e-15,-1.70955e-14,-40.1056,7.82727,84.8156,35.0627,4.7298,-12.7375,49.9976,7.12502,13.3462,79.5502,9.91942,3.51329,27.2927,41.6195,11.8421,-1.80675,9.33695,-18.7138,-6.17152,-19.6098,25.5902,-1.65768,-1.12268,-6.39674
1.72147,17.9736,-6.84526,-4.66486,-3.53757,-1.58263,14.8502,1.2845,1.87681,-1.14504,2.23591,1.95707,-9.60926,1.03169,0.537634,-11.1288,-1.45893,-3.39046,24.8777,-1.34367,0.0840078,9.72927,-0.929428,0.450384,1.31384e-14,-9.93923e-15,-34.4648,-9.18189,-77.7379,31.2174,1.42714,-14.3578,10.6831,7.12502,11.7841,-18.9653,1.31384e-14,-9.93923e-15,-41.3095,7.63653,84.7022,35.465,5.12295,-12.8513,49.8967,7.12502,13.2365,79.4564,8.07133,3.15412,26.5781,44.6499,14.7506,-2.17503,15.5237,-18.0174,-6.35981,-20.2703,25.3645,-1.61926,-1.34748,-6.06463
1.73582,17.9969,-6.67558,-4.68545,-3.61166,-0.907077,14.8035,1.33594,1.3308,-0.81866,2.17707,1.76714,-9.23588,1.02904,0.658045,-11.8283,-1.49288,-3.47582,24.8208,-1.35689,0.134901,9.8447,-0.936721,0.476501,2.72568e-14,2.22639e-14,-33.9807,-9.52364,-77.7445,30.9251,1.12588,-13.381,8.10768,7.12502,12.7259,-21.4845,2.72568e-14,2.22639e-14,-40.7165,7.40236,84.8762,35.7548,5.45482,-12.8787,50.2315,7.12502,13.2102,79.793,6.26045,3.08223,25.5338,47.6014,16.7456,-2.90605,21.3856,-17.2249,-6.40311,-21.2266,25.0066,-1.68884,-1.29623,-5.1231
1.75029,18.0157,-6.49818,-4.76934,-3.83541,-0.469209,14.9676,1.45169,1.05184,-1.03005,2.27525,1.60098,-9.56569,1.08281,0.609015,-11.3211,-1.33195,-3.12766,24.6281,-1.19824,0.0174731,9.67106,-0.842448,0.398833,-2.39784e-15,-7.95139e-15,-34.7437,-10.025,-77.3467,30.3826,1.33761,-13.1943,11.5632,7.12502,12.9059,-18.0177,-2.39784e-15,-7.95139e-15,-41.2843,6.7057,84.9723,36.1019,5.77455,-12.8227,50.7534,7.12502,13.2641,80.3113,4.53059,3.17859,24.833,50.5499,18.3995,-3.26962,23.6945,-16.2846,-6.28969,-21.9147,24.6587,-1.8877,-1.29581,-4.20109
1.76428,18.032,-6.31937,-4.8646,-4.28748,0.0769706,14.7913,1.56115,0.625458,-0.834614,2.32624,1.49231,-9.26271,1.1274,0.727645,-11.3195,-1.2326,-3.31069,24.277,-1.06436,0.191157,9.54613,-0.774798,0.505869,-3.03209e-14,1.51076e-14,-34.3547,-9.63667,-77.6394,30.5912,0.841759,-12.9524,10.3697,7.12502,13.1391,-19.1963,-3.03209e-14,1.51076e-14,-41.0667,6.61429,85.0443,36.2483,5.83751,-12.888,51.0458,7.12502,13.2011,80.6078,2.78846,3.41718,24.0155,53.4174,20.0207,-3.15181,20.1775,-15.3539,-6.05915,-22.6945,24.4026,-1.88451,-1.20146,-5.02905
1.75634,18.0415,-6.19309,-4.97627,-3.72925,0.413818,15.1295,1.35023,0.107969,-0.815442,1.95591,1.48395,-9.44776,0.974235,1.08872,-11.0676,-1.06655,-3.07975,23.9945,-0.832344,-0.0492836,9.39177,-0.669723,0.411543,8.0104e-15,2.70347e-14,-34.5549,-9.07932,-77.7912,29.969,1.93238,-14.4972,13.1615,7.12502,11.6497,-16.4946,8.0104e-15,2.70347e-14,-40.93,6.54675,85.0588,36.3591,5.86197,-12.9936,50.7417,7.12502,13.0994,80.3103,0.948684,2.81723,23.5823,56.2435,19.7574,-4.73723,18.4596,-14.7355,-5.88127,-23.2586,24.1749,-1.67457,-1.88194,-5.31091
1.76447,18.0557,-6.02637,-5.18366,-4.0684,0.699264,15.1674,1.40133,-0.157729,-0.723122,1.97188,1.45838,-9.37671,0.993984,1.20793,-10.5515,-1.22497,-3.28167,23.909,-1.04266,-0.0197627,9.26988,-0.782625,0.434758,-2.1169e-14,-5.96354e-15,-34.6348,-8.76699,-77.8915,29.8296,1.76776,-13.9973,13.3226,7.12502,12.1317,-16.3056,-2.1169e-14,-5.96354e-15,-40.8324,6.2787,85.1194,36.4146,5.92094,-13.0374,50.0984,7.12502,13.0572,79.6697,-0.646565,2.86376,23.1288,58.9032,19.209,-5.97511,15.7247,-13.7426,-5.61704,-23.7176,23.8662,-2.09846,-1.69268,-4.94335
1.77478,18.0653,-5.86271,-5.32607,-4.16903,1.30212,15.2173,1.4314,-0.740236,-0.566379,1.89606,1.37171,-9.2479,0.982528,1.46239,-10.7801,-1.18168,-3.29464,23.9294,-0.949451,-0.104963,9.31859,-0.749838,0.416801,-3.6383e-15,6.36111e-15,-34.455,-8.47759,-77.9915,29.6981,2.01791,-13.8339,13.7682,7.12502,12.2893,-15.8506,-3.6383e-15,6.36111e-15,-40.5135,6.04097,85.298,36.5316,5.84943,-12.8754,50.3413,7.12502,13.2133,79.9026,-2.28693,2.6435,22.241,61.4785,17.3179,-6.90729,12.4233,-12.8882,-5.38796,-24.5572,23.6361,-2.53492,-1.76536,-4.97865
1.78872,18.0781,-5.69151,-5.55704,-4.26236,1.9117,15.2263,1.46085,-1.20527,-0.324096,1.83488,1.22196,-8.99581,0.96829,1.58055,-10.9455,-1.10898,-3.284,23.5963,-0.853037,-0.0740375,9.23147,-0.697139,0.435868,-1.31012e-14,5.56597e-15,-34.3277,-8.31165,-78.1038,29.7288,2.53373,-14.0248,13.9892,7.12502,12.1052,-15.6406,-1.31012e-14,5.56597e-15,-40.1553,5.74023,85.4679,36.6899,5.79789,-12.9803,50.9444,7.12502,13.1122,80.5122,-3.75747,2.27923,21.289,63.8651,14.7096,-7.39671,9.29777,-11.93,-5.30053,-25.4288,23.4784,-2.77667,-1.55468,-3.44351
1.78075,18.0775,-5.56154,-5.66686,-3.79303,2.06365,15.7485,1.25036,-1.44982,-0.312596,1.50577,1.22353,-9.27335,0.822796,1.78969,-10.7501,-1.16455,-3.30589,23.5775,-0.893505,-0.248191,9.18886,-0.736855,0.376245,1.57164e-14,7.95139e-16,-34.2568,-8.18475,-78.1869,29.5484,3.0509,-14.1775,13.9405,7.12502,11.958,-15.6979,1.57164e-14,7.95139e-16,-39.9538,5.52099,85.5075,36.7568,5.82278,-13.5029,50.6436,7.12502,12.6084,80.2431,-5.4502,1.48917,21.0238,66.1362,12.776,-8.26243,8.33019,-11.2357,-5.45083,-25.7239,23.2429,-3.09316,-1.85334,-3.50558
1.77405,18.079,-5.41673,-5.79466,-3.68056,2.21864,16.0299,1.14205,-1.73001,-0.0559205,1.3115,1.29606,-9.1515,0.741011,2.07136,-11.6476,-0.805652,-2.98519,23.3483,-0.359048,-0.515705,9.26734,-0.48606,0.286915,2.08724e-15,-4.77083e-15,-33.5689,-8.00335,-78.2992,29.1687,3.40436,-14.3116,14.0788,7.12502,11.8286,-15.5671,2.08724e-15,-4.77083e-15,-39.3861,5.41456,85.6648,37.0549,5.9202,-13.5929,50.2068,7.12502,12.5216,79.8116,-7.06683,1.04215,20.7973,68.1825,11.5469,-9.05176,9.4849,-10.483,-5.57385,-26.0047,23.0413,-3.47946,-1.71604,-3.88849
1.78352,18.09,-5.24354,-6.03303,-3.95328,2.67344,15.9485,1.27552,-2.10366,-0.231981,1.40859,1.16669,-9.30972,0.804946,2.12093,-10.1983,-0.918596,-2.97026,23.2324,-0.576937,-0.524542,8.95745,-0.584313,0.262674,6.52883e-15,-1.19271e-14,-34.4009,-7.78302,-78.2949,29.3016,3.29598,-14.332,13.9951,7.12502,11.8089,-15.652,6.52883e-15,-1.19271e-14,-40.0404,4.86672,85.6985,37.5431,6.04951,-13.2581,50.2336,7.12502,12.8444,79.8184,-8.48067,0.910007,20.1002,69.9465,9.28217,-9.50258,7.78654,-9.55168,-5.67767,-26.6774,22.9666,-4.00093,-1.20987,-4.24477
1.77382,18.0935,-5.10973,-6.13336,-3.32914,2.95666,16.4571,1.02671,-2.55307,0.015256,0.987117,1.2186,-9.31227,0.622328,2.53141,-11.4399,-0.958375,-3.25035,23.7109,-0.529028,-0.487739,9.35945,-0.590478,0.322135,1.18153e-14,1.27222e-14,-33.7763,-7.60586,-78.3541,29.2396,3.52228,-14.3788,14.3736,7.12502,11.7638,-15.276,1.18153e-14,1.27222e-14,-39.2934,5.16374,85.6778,37.6592,5.64555,-12.9449,49.9718,7.12502,13.1463,79.5374,-10.0421,0.00903517,19.6234,71.5105,7.52828,-10.4051,7.80699,-8.91763,-5.85464,-27.1299,22.8457,-4.33448,-1.54341,-3.77232
1.76774,18.0899,-4.96296,-6.29794,-3.15978,3.14896,16.6439,0.981966,-2.85672,-0.36415,0.861982,1.20467,-9.83354,0.589829,2.72006,-9.48427,-0.790029,-2.88439,23.07,-0.395084,-0.735687,8.76537,-0.510759,0.198501,-8.27441e-15,-8.74653e-15,-34.9391,-7.45926,-78.1986,29.3924,3.63823,-13.9867,13.8295,7.12502,12.1419,-15.7982,-8.27441e-15,-8.74653e-15,-40.2298,4.91438,85.5156,37.8858,5.33409,-12.8338,49.605,7.12502,13.2534,79.1637,-11.3715,-0.505763,19.306,72.8457,5.76744,-10.3534,4.69407,-8.1179,-5.95549,-27.4754,22.6466,-4.69602,-1.4702,-3.41102
1.7726,18.0832,-4.80506,-6.41344,-3.27025,3.49821,16.5556,0.979605,-3.13826,-0.119675,0.801824,1.14748,-9.51282,0.564387,2.83299,-9.94396,-0.515692,-2.31864,22.7841,0.0304487,-1.32732,8.74743,-0.320794,-0.0537242,1.31508e-14,3.18055e-15,-34.6427,-7.56619,-78.2307,29.4623,3.40375,-12.349,10.1244,7.12502,13.7206,-19.4033,1.31508e-14,3.18055e-15,-39.7004,4.8429,85.5373,37.9379,5.43004,-12.9614,49.546,7.12502,13.1304,79.1126,-12.7154,-0.774627,18.7907,73.972,4.49949,-10.5937,3.82358,-7.42257,-5.82567,-28.0135,22.605,-5.10742,-1.30152,-3.40449
1.77627,18.0807,-4.65432,-6.49595,-3.17223,3.88228,16.4129,0.901651,-3.44956,-0.010225,0.632501,1.0293,-9.30143,0.489321,2.92322,-10.4874,-0.623989,-1.56495,23.6062,0.0131599,-2.39114,9.13247,-0.388601,-0.55093,8.19987e-15,1.43125e-14,-34.6615,-7.49644,-78.3871,29.6461,2.77326,-12.9693,11.0367,7.12502,13.1228,-18.5304,8.19987e-15,1.43125e-14,-39.4583,4.65649,85.472,38.0605,5.51683,-13.082,49.5028,7.12502,13.0141,79.0769,-14.114,-1.13438,18.2407,74.8728,3.63914,-10.523,4.66865,-6.86226,-5.71104,-28.5727,22.6925,-5.62552,-1.38756,-3.33154
1.77133,18.0744,-4.51301,-6.52032,-3.07892,4.01684,16.5687,0.817278,-3.67854,0.260495,0.476253,1.05761,-9.08235,0.416762,3.12191,-11.4205,-0.697741,-1.61191,24.1204,-0.00776985,-2.53413,9.48995,-0.430847,-0.603264,-6.98231e-15,-1.59028e-15,-34.0805,-7.45766,-78.506,29.7131,2.40849,-13.4662,11.2972,7.12502,12.6438,-18.3001,-6.98231e-15,-1.59028e-15,-38.6088,4.57559,85.5111,38.0485,5.71846,-13.2707,47.9023,7.12502,12.8322,77.4879,-15.595,-1.43329,18.0766,75.5952,4.81248,-10.6408,13.083,-6.40953,-5.7182,-28.808,22.8151,-6.06519,-1.37815,-3.60599
1.76953,18.0607,-4.3643,-6.60199,-3.12866,4.18975,16.5223,0.806012,-3.90311,0.29258,0.421796,1.07177,-9.01882,0.398998,3.27833,-11.0008,-0.516298,-1.66352,23.7536,0.190291,-2.34535,9.28219,-0.315142,-0.502359,-1.30204e-14,3.18055e-15,-34.2544,-7.57893,-78.3837,29.847,2.41022,-13.7862,11.8789,7.12502,12.3352,-17.7373,-1.30204e-14,3.18055e-15,-38.4804,4.30243,85.5472,38.2769,6.18195,-13.0549,50.1153,7.12502,13.0402,79.6877,-16.906,-1.57553,17.8781,76.1157,2.9422,-10.2687,10.8566,-5.91208,-5.6883,-29.1097,23.0175,-6.50023,-1.21303,-3.56866
1.76745,18.0506,-4.21476,-6.71203,-2.92623,4.38544,16.5196,0.704352,-4.12971,0.411234,0.246519,1.08307,-8.87338,0.319503,3.46142,-10.8335,-0.339654,-1.73324,23.2578,0.387989,-2.14846,9.07807,-0.200125,-0.397752,1.3418e-15,1.43125e-14,-34.2549,-7.81773,-78.2509,30.1134,2.42515,-13.8947,13.1424,7.12502,12.2306,-16.4799,1.3418e-15,1.43125e-14,-38.3574,4.2238,85.5734,38.923,6.43786,-12.9265,50.8061,7.12502,13.1641,80.3705,-18.0487,-1.93952,17.6127,76.4103,1.61894,-9.97091,10.7856,-5.40393,-5.65877,-29.4417,23.3068,-6.87633,-1.29236,-1.87014
1.76079,18.0423,-4.07545,-6.7185,-2.63185,4.42269,16.831,0.526554,-4.19672,0.253004,-0.0177417,1.08121,-9.1982,0.206679,3.5655,-10.6083,-0.426108,-1.60435,23.7323,0.332783,-2.51843,9.20181,-0.259844,-0.554557,-9.29318e-15,-2.8625e-14,-34.6635,-7.77136,-78.3277,30.7733,1.69114,-13.4438,11.431,7.12502,12.6654,-18.165,-9.29318e-15,-2.8625e-14,-38.8073,4.13377,85.4735,39.7853,6.4386,-13.1945,50.6054,7.12502,12.9057,80.1864,-19.3194,-2.31946,17.572,76.516,-0.0234051,-9.67218,11.8715,-5.04606,-5.75103,-29.5741,23.6354,-7.47245,-1.45637,-2.7261
1.76065,18.0311,-3.94146,-6.62988,-2.47781,4.53091,17.016,0.427536,-4.21871,0.117369,-0.168474,1.02822,-9.43802,0.14289,3.56078,-10.7268,-0.40008,-1.12402,23.8668,0.383682,-2.96079,9.27183,-0.243791,-0.783764,1.32565e-14,-1.59028e-15,-34.9543,-8.37764,-78.0185,30.2678,1.92953,-12.9438,9.72035,7.12502,13.1474,-19.8452,1.32565e-14,-1.59028e-15,-38.8738,3.89566,85.4081,40.085,6.47905,-13.2673,50.9768,7.12502,12.8355,80.5622,-20.7519,-2.51842,17.4333,76.4863,-1.64168,-9.225,12.2433,-4.86581,-5.845,-29.8002,24.0286,-7.98521,-1.42274,-2.31094
1.7598,18.0177,-3.80047,-6.63153,-2.43668,4.63351,17.0407,0.377397,-4.28965,0.187055,-0.250166,1.0159,-9.36728,0.103649,3.60766,-10.4793,-0.575915,-1.37563,23.8016,0.149207,-2.83863,9.20037,-0.360406,-0.723311,4.89507e-15,7.15625e-15,-34.8713,-8.7342,-77.946,30.1278,1.69436,-13.2505,11.3733,7.12502,12.8517,-18.211,4.89507e-15,7.15625e-15,-38.5447,3.63608,85.3877,40.1932,6.76615,-13.1331,51.255,7.12502,12.9649,80.8321,-21.9176,-2.54432,17.3528,76.2053,-2.9338,-8.70759,12.3148,-4.62575,-5.79878,-30.0155,24.4792,-8.49783,-1.42621,-1.76983
1.75183,17.9944,-3.65431,-6.79196,-2.36645,4.64146,17.0074,0.288552,-4.40011,0.398162,-0.376343,1.10399,-9.10296,0.0392942,3.79495,-10.853,-0.370014,-1.11217,23.8418,0.469893,-3.14697,9.28886,-0.223705,-0.840599,3.65267e-15,5.56597e-15,-34.7312,-8.59578,-78.0697,30.5866,1.09412,-13.6309,12.0757,7.12502,12.485,-17.5314,3.65267e-15,5.56597e-15,-38.2147,3.57605,85.3987,40.3459,6.89659,-13.3186,50.3673,7.12502,12.786,79.9557,-22.8159,-2.54862,17.4311,75.6978,-3.90075,-8.20302,12.0871,-4.17341,-5.79845,-30.1288,24.9462,-9.06666,-1.37911,-1.75808
1.74611,17.977,-3.51847,-6.83692,-2.2615,4.6748,17.0176,0.184413,-4.49015,0.515697,-0.525582,1.15587,-8.96358,-0.0333039,3.9379,-10.7815,-0.24773,-1.08659,23.6054,0.626984,-3.14798,9.19471,-0.144386,-0.825547,1.56046e-14,0,-34.6335,-8.36143,-78.1758,30.9122,0.43451,-13.6453,12.2744,7.12502,12.4711,-17.3335,1.56046e-14,0,-37.6046,3.66298,85.3595,39.9547,6.87752,-13.963,49.4573,7.12502,12.1648,79.0836,-23.8437,-2.5808,17.4628,74.948,-5.1752,-7.86829,12.1695,-3.89001,-5.86519,-30.2748,25.4385,-9.61163,-1.25729,-2.95122
1.74312,17.9655,-3.3884,-6.80527,-2.1466,4.73809,17.2942,0.0958024,-4.56915,0.429116,-0.671506,1.16972,-9.1985,-0.0906526,4.04074,-10.6071,-0.231546,-1.1094,23.6541,0.650922,-3.15028,9.17912,-0.135076,-0.819778,-7.52897e-15,1.59028e-15,-34.6889,-8.47257,-78.0726,30.8749,0.385151,-13.531,11.1487,7.12502,12.5813,-18.4524,-7.52897e-15,1.59028e-15,-37.9769,3.53003,85.3467,40.9534,6.9721,-14.346,49.3964,7.12502,11.7955,79.0442,-24.8436,-2.63857,17.4206,73.9934,-6.70089,-7.08179,9.39006,-3.65452,-5.92115,-30.4454,25.8736,-10.1542,-1.12119,-3.54406
1.73726,17.9487,-3.2524,-6.8061,-2.02691,4.83516,17.5334,0.0206147,-4.72348,0.337937,-0.812319,1.19838,-9.41685,-0.141559,4.20236,-10.6114,-0.162847,-0.885451,23.8148,0.779893,-3.45579,9.23933,-0.0903003,-0.950017,-2.3556e-14,3.97569e-15,-34.9671,-8.3698,-78.0399,31.094,0.417223,-13.8377,10.1131,7.12502,12.2856,-19.506,-2.3556e-14,3.97569e-15,-37.8668,3.50693,85.3046,41.0776,6.89859,-13.7613,50.0346,7.12502,12.3593,79.6493,-25.6913,-2.63534,17.3609,72.8717,-7.75846,-6.54182,7.81702,-3.25679,-5.99604,-30.6566,26.1133,-10.6937,-0.987893,-5.03482
1.72988,17.9328,-3.10945,-6.86341,-1.93957,5.08536,17.5403,-0.037446,-5.06266,0.39591,-0.957208,1.19722,-9.33643,-0.19924,4.43055,-10.6523,-0.156939,-0.746786,24.0472,0.845862,-3.7773,9.33151,-0.0859977,-1.07954,-9.69075e-15,-5.56597e-15,-35.1023,-8.25544,-78.0737,31.3753,0.33725,-14.1835,9.91636,7.12502,11.9521,-19.7224,-9.69075e-15,-5.56597e-15,-37.5799,3.32419,85.3237,41.1815,7.2359,-13.9259,50.5455,7.12502,12.2006,80.1696,-26.4297,-2.60906,17.1028,71.5249,-8.39878,-6.5025,7.27411,-2.79726,-5.95352,-31.0361,26.3749,-11.2957,-0.86896,-5.93983
1.72593,17.9202,-2.95569,-7.06713,-1.92182,5.5094,17.5045,-0.0316734,-5.43838,0.623355,-1.02998,1.07418,-9.0535,-0.235504,4.5235,-10.6073,-0.0230692,-0.704394,23.4639,0.966665,-3.62351,9.12038,0.000102925,-1.01448,2.10463e-14,-7.15625e-15,-34.9288,-8.49417,-78.0965,31.4554,0.380117,-14.0327,9.49205,7.12502,12.0976,-20.1382,2.10463e-14,-7.15625e-15,-37.3945,3.03095,85.3138,41.7335,7.46329,-14.9999,49.4312,7.12502,11.1648,79.1141,-26.8887,-2.53371,16.5838,69.9635,-10.1405,-6.12644,4.19119,-2.10254,-5.86961,-31.6308,26.5416,-11.7881,-0.752708,-5.37749
1.71398,17.9147,-2.82209,-7.08176,-2.16609,5.11041,17.7008,-0.00811096,-5.1293,0.692566,-0.932466,1.21586,-9.10028,-0.198521,4.48156,-10.7475,0.00709266,-0.625595,23.1859,0.985327,-3.61979,9.05055,0.0189013,-1.02221,5.96354e-16,-8.74653e-15,-34.8476,-8.81095,-78.0296,31.484,0.549105,-13.8264,9.27427,7.12502,12.2964,-20.3442,5.96354e-16,-8.74653e-15,-37.165,2.91224,85.2905,42.0503,7.33002,-15.2681,48.6824,7.12502,10.9062,78.3791,-27.4816,-2.04643,17.1723,68.1286,-11.6337,-5.98602,0.861033,-1.64177,-5.7085,-31.2095,26.5992,-12.0943,-0.653311,-5.25111
1.70486,17.9087,-2.68493,-6.97878,-2.16364,5.23421,17.8146,-0.0253435,-5.3728,0.605543,-1.00905,1.25497,-9.24699,-0.216423,4.6879,-10.4999,0.0571345,-0.553623,23.0442,1.05472,-3.72379,8.95708,0.0510603,-1.06055,-5.31749e-15,1.66979e-14,-34.9126,-8.91672,-77.9254,31.392,0.800395,-13.7197,9.57683,7.12502,12.3993,-20.0354,-5.31749e-15,1.66979e-14,-36.979,2.8659,85.3453,42.1481,7.37043,-15.1905,50.1541,7.12502,10.981,79.8469,-28.1055,-1.88826,17.0826,66.1497,-11.4694,-6.17867,1.64161,-1.14552,-5.72743,-31.4053,26.3926,-12.2143,-0.573805,-5.4417
1.69915,17.8994,-2.53678,-6.90472,-2.02671,5.60885,17.6869,-0.073746,-5.768,0.622739,-1.15121,1.197,-9.13376,-0.273247,4.8821,-9.95675,-0.0318827,-0.761128,22.6056,0.908101,-3.57294,8.70101,-0.00819651,-0.984492,-3.13086e-15,-7.95139e-16,-34.8826,-8.80755,-77.9368,31.3597,0.795958,-13.7601,9.48066,7.12502,12.3604,-20.1339,-3.13086e-15,-7.95139e-16,-36.5747,2.7571,85.4147,42.0695,7.61964,-16.3619,51.4091,7.12502,9.85099,81.1587,-28.5299,-1.96153,16.6638,63.9514,-10.7375,-6.63188,2.47179,-0.612055,-5.7669,-31.9018,26.2758,-12.4435,-0.575176,-5.16901
1.69187,17.9001,-2.37054,-7.10334,-1.7975,6.05159,17.5137,-0.132602,-6.15812,0.798274,-1.30332,1.07488,-8.81907,-0.349323,4.99977,-9.92493,-0.0382677,-0.664632,22.5749,0.913951,-3.7273,8.68562,-0.0124302,-1.05208,3.13086e-15,3.97569e-15,-34.8818,-8.76934,-77.9905,31.5191,0.550353,-13.6599,9.0761,7.12502,12.4571,-20.5327,3.13086e-15,3.97569e-15,-36.6662,2.53485,85.4808,42.8888,7.92231,-17.371,51.5315,7.12502,8.8773,81.3248,-28.4124,-2.08902,16.0783,61.5345,-10.8744,-6.87746,4.09349,0.447656,-5.73575,-32.5098,25.9073,-12.7121,-0.583444,-4.93201
1.67287,17.9103,-2.24515,-6.84488,-1.76591,5.70869,17.5024,-0.215762,-5.9271,0.781584,-1.35825,1.16825,-8.82643,-0.382339,4.98311,-10.4095,0.138618,-0.105541,22.7249,1.16162,-4.13794,8.83577,0.10178,-1.26268,1.89342e-14,2.38542e-15,-34.6614,-9.13617,-77.987,31.228,0.807068,-13.6345,9.65611,7.12502,12.4815,-19.9512,1.89342e-14,2.38542e-15,-36.442,2.3905,85.2786,43.0542,7.84238,-17.3757,49.1694,7.12502,8.87281,78.9628,-28.8446,-1.723,16.5193,58.8266,-11.2506,-7.53095,5.02427,0.831814,-5.71312,-32.0871,25.5196,-12.6038,-0.637947,-5.75127
1.65907,17.9204,-2.11079,-6.62996,-1.55519,5.73562,17.5171,-0.330553,-6.06111,0.755606,-1.53534,1.20066,-8.83627,-0.459922,5.13927,-10.4536,0.104355,-0.221825,22.6668,1.10315,-4.00335,8.82159,0.0784396,-1.20299,1.21756e-14,-2.70347e-14,-34.4614,-9.20172,-77.9851,30.8819,1.17494,-13.7289,10.4603,7.12502,12.3905,-19.1525,1.21756e-14,-2.70347e-14,-36.2316,2.30374,85.2294,43.2327,8.08705,-17.9968,48.822,7.12502,8.27346,78.64,-29.0973,-1.51963,16.4108,55.9687,-11.5664,-8.12977,5.11098,1.38258,-5.74427,-32.1317,25.0282,-12.5345,-0.683137,-7.49117
1.64606,17.9312,-1.96695,-6.52286,-1.44352,5.68293,17.6403,-0.412288,-6.101,0.615437,-1.65714,1.26529,-9.04081,-0.50296,5.27067,-10.3325,0.170578,-0.265573,22.8178,1.19844,-3.96639,8.85267,0.122067,-1.17425,-4.96962e-17,-1.11319e-14,-34.8446,-8.83988,-78.0481,31.1818,1.08483,-13.5972,10.4178,7.12502,12.5175,-19.1873,-4.96962e-17,-1.11319e-14,-36.2667,2.45885,85.1776,43.3237,7.94084,-18.1816,49.37,7.12502,8.09503,79.195,-29.1148,-1.2613,16.394,52.9465,-11.2366,-9.04135,5.03725,2.06692,-5.60795,-32.087,24.5918,-12.6023,-0.705451,-9.73179
1.63439,17.9454,-1.82078,-6.45253,-1.4272,5.70293,17.6525,-0.452816,-6.13042,0.56411,-1.71859,1.26916,-9.09525,-0.527413,5.30857,-10.204,0.214728,-0.224921,22.8422,1.26048,-4.01003,8.83882,0.150998,-1.18948,-1.82882e-14,6.36111e-15,-35.1402,-8.68186,-78.1438,31.5286,0.953547,-13.422,10.2085,7.12502,12.6863,-19.3861,-1.82882e-14,6.36111e-15,-36.2361,2.46801,85.1552,43.4912,7.94428,-17.3751,49.1418,7.12502,8.87343,78.9352,-28.9982,-0.976964,16.3258,49.8424,-10.9315,-10.0146,4.20491,2.92607,-5.47103,-32.1288,23.925,-12.5548,-0.665397,-10.8861
1.62188,17.9485,-1.6717,-6.30224,-1.33783,5.93852,17.3325,-0.448345,-6.32896,0.67064,-1.73649,1.18272,-8.79339,-0.54548,5.31652,-10.0724,0.128918,-0.189056,22.5217,1.10784,-3.95908,8.70048,0.0938527,-1.19082,-7.20594e-15,0,-34.9754,-9.15296,-78.0954,31.3217,1.11643,-13.4908,10.1537,7.12502,12.6201,-19.4451,-7.20594e-15,0,-35.7923,2.11628,85.2212,43.5633,8.29484,-16.855,49.0286,7.12502,9.37528,78.8001,-28.913,-0.659415,15.947,46.6937,-11.2121,-11.0465,3.66462,3.69915,-5.47513,-32.4187,23.243,-12.4391,-0.60084,-11.6052
1.61157,17.9541,-1.51651,-6.1467,-1.25938,6.10978,17.0401,-0.452569,-6.47673,0.725313,-1.75364,1.13822,-8.56473,-0.560199,5.34378,-10.0349,0.000813612,-0.2699,22.3885,0.915132,-3.85486,8.64304,0.00933003,-1.16042,-6.31141e-15,-8.74653e-15,-34.9212,-9.41653,-78.0062,30.9749,1.19799,-13.7374,10.8438,7.12502,12.3823,-18.7695,-6.31141e-15,-8.74653e-15,-35.3677,1.85734,85.2501,42.577,9.4119,-19.5677,45.1128,7.12502,6.75712,74.985,-28.587,-0.252998,15.5985,43.4004,-11.3916,-12.1252,3.41402,4.46238,-5.49916,-32.6448,22.5786,-12.2618,-0.540748,-12.6148
1.60043,17.9557,-1.36505,-6.12992,-1.27489,6.1517,17.089,-0.487823,-6.56409,0.637141,-1.82331,1.14099,-8.67692,-0.582811,5.41729,-9.86986,-0.0243417,-0.246929,22.447,0.885053,-3.90449,8.63191,-0.00749528,-1.18437,1.45113e-14,2.3059e-14,-35.2681,-9.27412,-77.9853,30.9072,1.14391,-13.8219,11.5581,7.12502,12.3009,-18.0601,1.45113e-14,2.3059e-14,-35.2281,2.02454,85.074,42.8912,7.84409,-17.0468,48.9031,7.12502,9.19022,78.6828,-28.0424,0.353231,15.3947,39.9934,-11.6116,-13.3456,3.05582,5.3017,-5.43431,-32.7222,22.0099,-12.1618,-0.499983,-14.1723
1.5838,17.9659,-1.21619,-6.05623,-1.35991,5.86141,17.0411,-0.531505,-6.36053,0.557942,-1.83204,1.23466,-8.73878,-0.588574,5.40577,-9.67633,0.0478748,-0.00598647,22.5542,0.97904,-4.07545,8.63559,0.0399156,-1.27397,1.74931e-14,-2.62396e-14,-35.4564,-9.44708,-77.9048,30.7487,1.32529,-13.5658,11.267,7.12502,12.5478,-18.3363,1.74931e-14,-2.62396e-14,-35.5785,1.81976,85.0644,43.7601,7.29457,-15.9268,50.8404,7.12502,10.2708,80.5697,-27.4818,1.34254,15.5066,36.411,-11.9922,-14.7904,3.62661,6.03279,-5.30547,-32.3459,21.487,-12.1016,-0.649055,-14.9861
1.56596,17.9782,-1.07214,-5.79762,-1.32691,5.59526,16.7622,-0.595799,-6.07482,0.569986,-1.83937,1.27794,-8.57496,-0.610467,5.27982,-9.60356,0.018062,0.143263,22.3767,0.909586,-4.1092,8.56002,0.0195488,-1.31558,-1.85367e-14,9.54166e-15,-35.3511,-9.8414,-77.875,30.5624,1.6117,-13.5384,11.5094,7.12502,12.5742,-18.0922,-1.85367e-14,9.54166e-15,-35.428,1.42836,85.1427,43.7547,8.06707,-17.3029,48.8469,7.12502,8.94304,78.6374,-26.9769,2.34672,15.5082,32.7272,-12.3691,-16.0849,4.01191,6.4856,-5.21527,-31.9295,21.0341,-11.9391,-1.00905,-15.1463
1.55251,17.9974,-0.921818,-5.60886,-1.14486,5.64597,16.4587,-0.68145,-6.10314,0.671596,-1.93829,1.25218,-8.28035,-0.672762,5.27517,-9.82152,-0.0763272,0.141808,22.367,0.79865,-4.18929,8.5948,-0.0432043,-1.35423,1.26725e-14,1.35174e-14,-35.2158,-9.98331,-77.9381,30.5476,1.7311,-13.6938,12.1067,7.12502,12.4243,-17.504,1.26725e-14,1.35174e-14,-34.9759,1.27328,85.1324,43.6197,8.18896,-17.523,47.874,7.12502,8.73066,77.6734,-26.2737,3.237,15.0666,29.0465,-12.7063,-17.2035,3.98204,6.99033,-5.23173,-31.8939,20.5874,-11.692,-1.492,-13.1395
1.53692,18.0194,-0.758932,-5.63885,-1.05116,5.78709,16.3177,-0.708427,-6.28784,0.727059,-1.99863,1.24303,-8.12712,-0.703051,5.37684,-10.0972,-0.0725452,-0.168453,22.8697,0.825013,-3.92921,8.81778,-0.040341,-1.2175,-1.20762e-14,2.38542e-15,-35.4198,-9.78545,-77.9764,30.6053,1.55952,-13.57,11.7552,7.12502,12.5437,-17.8482,-1.20762e-14,2.38542e-15,-34.8366,1.1821,85.1528,43.6428,7.92566,-17.1161,47.9882,7.12502,9.12332,77.7708,-25.3902,4.32413,14.4801,25.5597,-12.9444,-18.2548,4.35694,7.8249,-5.33363,-32.0304,20.0519,-11.5065,-1.80672,-11.6039
1.51601,18.0324,-0.602648,-5.53609,-0.953816,5.86232,16.2594,-0.718001,-6.4379,0.608725,-2.04064,1.2229,-8.21415,-0.711135,5.45091,-10.8071,-0.0100853,-0.704983,23.9773,0.860962,-3.06342,9.33174,-0.000742385,-0.839142,1.37658e-14,-2.22639e-14,-35.8107,-9.78033,-77.9693,30.5769,1.45337,-13.6476,11.5157,7.12502,12.4689,-18.0923,1.37658e-14,-2.22639e-14,-34.9277,0.813049,85.24,43.6264,7.86509,-17.0507,48.2786,7.12502,9.18642,78.0585,-24.7861,5.48497,13.9331,22.4362,-13.0766,-19.2669,4.80233,8.60789,-5.26163,-32.0184,19.3035,-11.0907,-2.35973,-10.9949
1.49661,18.0396,-0.447171,-5.38614,-0.630787,6.0864,16.0557,-0.786614,-6.63932,0.601823,-2.16356,1.12083,-8.08759,-0.770395,5.47294,-11.3599,-0.0317268,-0.976455,24.6228,0.789616,-2.55133,9.66081,-0.0151405,-0.629876,-2.33075e-14,7.15625e-15,-35.8158,-10.2144,-77.9167,30.3145,1.60803,-13.8157,13.2314,7.12502,12.3068,-16.3864,-2.33075e-14,7.15625e-15,-34.6834,0.450119,85.2702,43.5794,7.75836,-16.4688,48.6264,7.12502,9.74789,78.3808,-24.2218,6.53727,13.1408,19.6135,-13.3599,-20.16,5.24087,9.2244,-5.17411,-32.127,18.7262,-10.9211,-3.26307,-14.3218
1.47849,18.0464,-0.276801,-5.44513,-0.248765,6.34025,15.9266,-0.886019,-6.88624,0.657955,-2.33619,1.03582,-7.924,-0.85529,5.55089,-10.382,-0.190373,-0.360938,23.5406,0.589888,-3.36645,9.09567,-0.120078,-1.02607,4.30866e-14,-3.18055e-15,-35.818,-10.2601,-77.9821,30.1834,1.41529,-13.9808,14.6497,7.12502,12.1477,-14.9776,4.30866e-14,-3.18055e-15,-34.6864,0.176674,85.3076,43.8654,7.66499,-15.935,48.9343,7.12502,10.2628,78.6639,-23.5424,7.59362,12.3219,17.4229,-14.115,-20.9024,4.85629,10.1946,-5.11446,-32.3088,18.0796,-10.0951,-3.90769,-11.1263
1.45235,18.0469,-0.128787,-5.27873,-0.118297,5.92265,15.9724,-0.976626,-6.56301,0.57177,-2.39142,1.17801,-8.04193,-0.883567,5.53786,-11.0085,-0.121287,-0.66331,24.2473,0.666164,-2.90019,9.46111,-0.0751764,-0.814508,1.83876e-15,-6.36111e-15,-35.9825,-9.92683,-78.1136,30.3486,1.13901,-14.1666,13.1475,7.12502,11.9685,-16.4903,1.83876e-15,-6.36111e-15,-34.7368,0.0213659,85.3831,43.9565,7.75316,-16.7518,47.2697,7.12502,9.47484,77.0367,-23.2703,9.43565,12.1074,15.5913,-15.542,-21.9175,4.77898,10.7005,-5.02908,-31.6961,17.7694,-10.1531,-4.01691,-14.8335
1.43701,18.0409,0.0419989,-5.34008,0.134301,6.31455,15.7815,-1.01107,-6.8515,0.768064,-2.48362,1.00042,-7.70448,-0.941807,5.51343,-12.1698,-0.00329406,-0.99783,25.1146,0.777516,-2.21489,9.99023,0.00393237,-0.51445,1.09829e-14,5.56597e-15,-35.9833,-9.94827,-78.2732,30.4753,1.04464,-14.385,11.693,7.12502,11.7579,-17.9569,1.09829e-14,5.56597e-15,-34.3785,-0.244544,85.416,43.7796,7.7472,-17.2224,43.8766,7.12502,9.02071,73.6637,-22.7432,10.0477,11.3226,14.2509,-16.3386,-21.8377,1.30188,11.2403,-5.25567,-32.1303,17.7414,-10.1368,-4.06925,-13.4284
1.4122,18.0332,0.1891,-5.28365,0.100988,5.88262,15.7579,-1.01221,-6.44588,0.817998,-2.40194,1.08756,-7.66047,-0.91835,5.35705,-12.304,-0.073823,-1.18911,25.1489,0.654206,-1.93928,10.026,-0.0405981,-0.400384,-7.40473e-15,3.18055e-15,-36.044,-10.2435,-78.2718,30.4235,1.06694,-14.396,12.504,7.12502,11.7473,-17.1466,-7.40473e-15,3.18055e-15,-34.2741,-0.54128,85.4583,43.9616,7.62118,-16.7668,46.6455,7.12502,9.46032,76.4132,-22.6097,10.6428,11.6483,13.5272,-16.4115,-21.7443,0.650516,11.5311,-5.39862,-31.6028,18.0106,-10.0473,-4.31411,-12.1781
1.38892,18.0271,0.336363,-5.1684,0.102034,5.61678,15.7606,-1.0227,-6.23895,0.700927,-2.3753,1.17729,-7.79714,-0.902221,5.33463,-10.0768,-0.201969,0.384853,22.3414,0.483777,-3.77324,8.62371,-0.130947,-1.28781,-2.28105e-14,7.15625e-15,-36.1718,-10.4015,-78.1665,30.1335,1.18368,-14.1592,12.5516,7.12502,11.9756,-17.0858,-2.28105e-14,7.15625e-15,-34.3466,-0.808523,85.5434,44.146,7.7566,-15.5966,49.2745,7.12502,10.5893,78.9877,-22.7663,10.237,12.1247,13.7132,-15.7952,-20.9429,0.584211,11.9282,-5.55369,-31.2647,18.1038,-9.76899,-4.73775,-11.3766
1.37262,18.0172,0.491112,-5.06221,0.0786673,5.92682,15.8242,-0.975971,-6.54169,0.537165,-2.3836,1.10514,-8.00186,-0.883026,5.43878,-11.3968,-0.135352,-0.819039,24.4232,0.561727,-2.37776,9.59351,-0.0848374,-0.62132,1.75427e-14,3.18055e-15,-36.4446,-10.5077,-78.024,29.9153,1.51215,-13.8287,11.366,7.12502,12.2943,-18.2526,1.75427e-14,3.18055e-15,-34.3623,-1.0904,85.6913,43.8395,8.37962,-16.4811,48.6216,7.12502,9.73605,78.3766,-22.8307,9.0107,12.2339,14.0245,-13.9892,-19.7305,1.05516,12.121,-5.75336,-31.6405,18.6,-9.89989,-4.87369,-11.9322
1.361,18.0011,0.656581,-5.19306,0.00474628,6.09352,15.9294,-0.910079,-6.58324,0.548985,-2.31864,1.01267,-8.05943,-0.849507,5.35245,-10.1823,-0.431767,-0.579008,23.2305,0.155324,-2.8268,8.94256,-0.28053,-0.847599,-3.77691e-15,-6.36111e-15,-36.7856,-10.5431,-77.9927,29.9564,1.66654,-13.9128,10.7205,7.12502,12.2131,-18.9029,-3.77691e-15,-6.36111e-15,-34.426,-1.44686,85.8479,43.3159,9.54761,-18.6709,45.425,7.12502,7.62278,75.2677,-22.9397,7.47187,12.6686,15.2188,-11.3875,-18.3814,-1.56001,12.8408,-5.99596,-31.983,18.7044,-9.91897,-4.7697,-13.2991
1.33801,17.988,0.800117,-5.24119,-0.402332,5.37056,16.1178,-0.847723,-5.94106,0.586882,-2.10901,1.25306,-8.16471,-0.764321,5.20931,-11.2219,-0.220701,-0.770572,24.2087,0.440131,-2.44617,9.48328,-0.140978,-0.665161,1.58531e-14,1.59028e-15,-36.9758,-10.3547,-77.9991,30.0364,1.68363,-14.0346,10.5105,7.12502,12.0958,-19.1199,1.58531e-14,1.59028e-15,-34.4344,-1.20293,85.7716,44.0178,8.07008,-15.925,48.6073,7.12502,10.2725,78.3365,-23.2793,7.03673,13.9428,16.6021,-11.123,-17.6956,1.54051,13.2809,-6.13565,-31.265,18.9389,-9.78226,-4.49113,-14.3722
1.32265,17.9701,0.987967,-5.55659,-0.497222,5.64675,16.0367,-0.815681,-6.18318,0.815931,-2.10645,1.16881,-7.86474,-0.774119,5.24523,-10.6292,-0.240003,-0.248095,23.2392,0.452242,-3.19276,9.03425,-0.154333,-0.998571,-2.64881e-14,-7.15625e-15,-36.9393,-10.2666,-78.0669,29.9884,1.69738,-13.8588,10.2036,7.12502,12.2652,-19.4167,-2.64881e-14,-7.15625e-15,-34.401,-0.857471,85.6819,44.4568,6.97838,-14.1438,50.9345,7.12502,11.9904,80.5711,-23.0024,5.99883,14.1316,17.8862,-11.1473,-16.4103,2.78846,14.096,-6.31822,-31.7771,19.3444,-9.68777,-4.23523,-15.0701
1.29446,17.9478,1.14954,-5.65207,-0.645406,5.57027,16.0885,-0.762864,-6.23218,0.922305,-2.04129,1.22198,-7.78278,-0.746013,5.31617,-11.4664,-0.149438,-0.687347,23.948,0.579382,-2.67931,9.44056,-0.0928376,-0.74266,1.29707e-14,-3.97569e-15,-36.7527,-10.1202,-78.195,29.7707,1.57735,-13.9106,10.0489,7.12502,12.2153,-19.5744,1.29707e-14,-3.97569e-15,-34.3992,-0.805895,85.7115,44.3063,7.59969,-16.2722,45.8345,7.12502,9.93758,75.5799,-23.0506,6.01918,14.494,19.1612,-10.838,-15.8438,1.99012,14.5307,-6.4943,-31.7826,19.8151,-9.45172,-4.03863,-18.4438
1.26335,17.9326,1.31121,-5.74349,-0.557017,5.49608,16.2806,-0.746841,-6.31258,0.907093,-2.04204,1.28999,-7.90112,-0.736583,5.44491,-12.3381,-0.072148,-1.42224,25.0049,0.683623,-1.84014,9.9804,-0.0359391,-0.321671,2.01269e-14,7.95139e-16,-36.7729,-10.1896,-78.1069,29.3632,1.77202,-14.0964,10.0669,7.12502,12.0362,-19.567,2.01269e-14,7.95139e-16,-34.5553,-0.750121,85.8039,44.1887,8.25146,-15.9068,47.0834,7.12502,10.2901,76.8117,-22.8536,6.17224,14.7607,20.1981,-10.8313,-15.2118,1.5052,14.921,-6.64271,-31.7135,20.3457,-9.25574,-3.94966,-21.6797
1.24205,17.9144,1.51764,-6.00391,-0.11283,5.82243,16.1841,-0.86621,-6.62893,0.925068,-2.25702,1.21879,-7.78922,-0.836104,5.58991,-10.9939,-0.249963,-1.0391,23.8392,0.475783,-2.57748,9.31169,-0.157118,-0.657458,2.0276e-14,-1.59028e-14,-37.0632,-10.3214,-77.8463,28.9623,2.17922,-14.0674,10.4779,7.12502,12.0642,-19.1543,2.0276e-14,-1.59028e-14,-34.7644,-0.561179,85.9312,43.5599,9.25441,-18.1614,45.3785,7.12502,8.11453,75.2027,-21.9658,5.51232,14.6033,20.7317,-10.8778,-13.8695,0.0416293,15.5706,-6.9158,-32.2143,21.0332,-8.96903,-3.8679,-22.3561
1.21084,17.9186,1.70003,-5.89487,-0.050309,5.04817,15.8606,-0.972795,-5.97038,0.921684,-2.23644,1.48069,-7.62875,-0.851836,5.47932,-11.5836,-0.15225,-1.50055,24.6112,0.589678,-1.95462,9.69493,-0.0907345,-0.356785,3.29486e-14,3.97569e-15,-37.1912,-10.6155,-77.5527,28.5728,2.56301,-13.9925,10.8353,7.12502,12.1364,-18.7927,3.29486e-14,3.97569e-15,-34.7566,-0.199057,85.9061,43.8811,7.83782,-17.3642,46.7373,7.12502,8.88388,76.5303,-21.5397,5.80809,15.5951,20.8976,-10.9328,-13.2676,-0.105041,15.6366,-7.25013,-31.4282,21.7427,-8.30914,-3.97253,-22.8143
1.17963,17.9534,1.89192,-5.85377,0.151572,4.57438,15.598,-1.06795,-5.58464,0.958499,-2.26626,1.62571,-7.44675,-0.885707,5.40904,-11.4888,-0.195728,-1.19823,24.4135,0.540687,-2.29154,9.60771,-0.120004,-0.529524,-3.47376e-14,2.70347e-14,-37.2618,-11.0425,-77.3227,28.2863,2.95974,-13.7754,10.6249,7.12502,12.3457,-18.9906,-3.47376e-14,2.70347e-14,-34.9195,0.0234975,85.8748,44.064,7.13167,-17.3131,46.9162,7.12502,8.93321,76.7071,-21.0023,6.59994,16.0717,20.783,-9.99332,-13.6578,-0.130837,15.7431,-7.57965,-30.9345,22.4916,-7.35741,-4.16407,-22.5276
1.14855,17.9834,2.07296,-5.82858,0.555767,4.14927,15.5624,-1.23299,-5.22898,0.898102,-2.41307,1.73276,-7.48248,-0.964328,5.35242,-10.4764,-0.259983,-0.203756,23.1707,0.469835,-3.43633,8.98289,-0.165595,-1.08596,-5.37713e-14,1.98785e-14,-37.2974,-11.5731,-77.0637,27.7992,3.57031,-13.6817,10.4717,7.12502,12.436,-19.1383,-5.37713e-14,1.98785e-14,-35.1598,0.267605,85.7987,43.9162,7.01658,-16.6979,47.6133,7.12502,9.52688,77.3779,-20.3331,7.58581,16.3505,20.1966,-8.38455,-14.5699,1.21716,15.5912,-7.89674,-30.4075,23.6361,-6.42086,-4.53357,-22.0137
1.11733,18.0041,2.25642,-5.6682,0.831876,3.66136,15.29,-1.39322,-4.88379,0.756603,-2.53782,1.94717,-7.47244,-1.03055,5.40429,-10.3018,-0.0784642,0.0504933,22.9482,0.728138,-3.70586,8.87957,-0.0462809,-1.19032,-1.3418e-14,-7.95139e-15,-37.3751,-11.8988,-76.6655,27.234,4.10904,-13.6371,10.4556,7.12502,12.479,-19.1518,-1.3418e-14,-7.95139e-15,-35.4646,0.761835,85.8461,43.6293,6.98578,-14.6298,48.9864,7.12502,11.5218,78.6497,-19.8032,8.44017,16.733,19.5848,-6.61651,-15.0664,0.730608,15.2532,-8.28335,-29.8504,24.8554,-5.28814,-4.75329,-21.6456
1.09088,18.0254,2.44757,-5.5382,0.982362,3.05646,15.018,-1.50674,-4.36675,0.634449,-2.57054,2.19161,-7.45922,-1.05827,5.37036,-11.7384,-0.0913599,-1.32895,25.3712,0.748548,-2.30257,9.99995,-0.0509338,-0.493239,-1.04362e-15,-1.51076e-14,-37.6057,-12.056,-76.3086,26.8849,4.29351,-13.5402,10.5251,7.12502,12.5725,-19.0766,-1.04362e-15,-1.51076e-14,-35.7421,1.11621,85.954,43.332,6.85996,-16.9305,47.4861,7.12502,9.3024,77.2609,-19.2131,8.94848,17.3513,19.0832,-5.05052,-14.9919,1.89794,14.858,-8.65203,-29.2067,26.227,-3.85911,-4.88931,-21.5908
1.06794,18.0485,2.63784,-5.37613,1.08396,2.40714,14.7422,-1.60221,-3.74089,0.513677,-2.56354,2.43667,-7.45167,-1.07055,5.26627,-11.6452,-0.190962,-1.6533,25.6673,0.663422,-2.2185,10.0884,-0.115164,-0.420282,-2.47984e-14,1.27222e-14,-37.8422,-12.4089,-75.8531,26.5252,4.60564,-13.5088,10.7315,7.12502,12.6027,-18.8683,-2.47984e-14,1.27222e-14,-35.8058,1.34922,86.093,42.7419,6.96599,-17.7067,47.1521,7.12502,8.55335,76.9588,-18.7124,9.13127,18.0908,18.7278,-2.7382,-14.7101,5.42792,14.338,-8.84063,-28.4379,27.5804,-2.04256,-5.18811,-21.8363
1.0525,18.0687,2.83654,-5.21163,1.10233,2.14355,14.4012,-1.61457,-3.38356,0.354418,-2.50272,2.55462,-7.44904,-1.04894,5.16553,-11.6875,-0.180407,-1.87069,26.0644,0.705197,-2.08995,10.2408,-0.107822,-0.335101,-4.07509e-14,2.06736e-14,-38.1052,-12.9657,-75.2476,26.0122,5.02437,-13.6355,10.8465,7.12502,12.4805,-18.7608,-4.07509e-14,2.06736e-14,-36.0345,1.92746,86.1659,42.2444,6.72789,-17.48,47.5938,7.12502,8.77212,77.3915,-18.3383,8.63237,18.5474,18.6271,0.261546,-13.8502,11.1211,13.8612,-8.77334,-28.0923,28.9183,-0.368413,-5.44246,-22.4013
1.04203,18.0855,3.04488,-5.16632,1.01194,1.7848,14.1883,-1.60092,-2.84196,0.1261,-2.38408,2.63961,-7.60683,-1.00058,4.92252,-11.5017,-0.207216,-1.90908,26.427,0.691093,-2.13486,10.3376,-0.127235,-0.347904,-3.8266e-15,1.98785e-14,-38.6839,-13.4788,-74.634,25.6488,5.40772,-13.5873,10.7205,7.12502,12.527,-18.884,-3.8266e-15,1.98785e-14,-36.6351,2.4481,86.1358,41.9799,6.17069,-16.7197,49.4039,7.12502,9.50584,79.1695,-17.9178,7.63428,19.2753,18.8439,2.38147,-12.3387,17.0407,13.6063,-8.59065,-27.6728,30.2008,1.29455,-5.57286,-21.8362
1.01923,18.1041,3.22281,-5.09053,0.672037,1.4374,13.7863,-1.48632,-2.51037,0.203815,-2.16486,2.73678,-7.32772,-0.91392,4.77215,-11.754,-0.242038,-1.9542,26.7519,0.662664,-2.11209,10.5067,-0.148192,-0.337883,-1.21756e-15,-3.33958e-14,-38.7291,-14.1862,-74.2087,25.3409,5.86455,-13.6504,10.5719,7.12502,12.4662,-19.0363,-1.21756e-15,-3.33958e-14,-36.5832,2.76932,86.1351,41.6875,5.95402,-16.0113,50.3986,7.12502,10.1892,80.1319,-17.7322,7.28632,20.0425,19.3239,3.18096,-11.3561,19.5154,13.0018,-8.23994,-27.1092,31.5444,3.50777,-5.7277,-20.5124
0.996003,18.1231,3.40619,-5.0598,0.41106,1.22427,13.9308,-1.37724,-2.40361,-0.135608,-1.99215,2.8666,-7.79116,-0.81291,4.83732,-11.6627,-0.247311,-1.96978,27.3503,0.684514,-2.16462,10.7116,-0.154234,-0.35485,2.85753e-15,-3.18055e-15,-39.444,-14.4978,-73.5849,25.0807,6.1836,-13.6617,10.2925,7.12502,12.4553,-19.3164,2.85753e-15,-3.18055e-15,-37.3171,3.05931,86.2635,41.5036,6.14834,-15.2522,49.9595,7.12502,10.9215,79.6554,-17.3816,6.90937,20.6394,19.7949,3.17528,-10.5318,19.4372,12.2949,-7.9441,-26.6761,33.0516,6.14211,-5.95849,-18.7122
0.971009,18.1392,3.57843,-5.02081,0.189991,0.897171,14.0879,-1.28594,-2.19114,-0.39213,-1.82252,3.01783,-8.17634,-0.721115,4.86264,-11.535,-0.242911,-1.9487,27.6603,0.709817,-2.23709,10.803,-0.152766,-0.383158,2.47238e-15,1.98785e-14,-39.8747,-14.347,-73.3918,24.9749,5.72957,-13.9576,9.69082,7.12502,12.17,-19.9352,2.47238e-15,1.98785e-14,-37.7342,3.35058,86.3231,41.1118,6.20509,-14.1055,50.4412,7.12502,12.0273,80.0756,-17.129,6.81981,21.2685,20.4076,2.48715,-10.1204,18.7195,11.4722,-7.67428,-26.0806,34.5877,9.00121,-6.2178,-17.6857
