JuanDHNZ/ProyectoFinalCD/preprocessing/sports_trials_csv/06_07.csv
root1,root2,root3,root4,root5,root6,lowerback1,lowerback2,lowerback3,upperback1,upperback2,upperback3,thorax1,thorax2,thorax3,lowerneck1,lowerneck2,lowerneck3,upperneck1,upperneck2,upperneck3,head1,head2,head3,rclavicle1,rclavicle2,rhumerus1,rhumerus2,rhumerus3,rradius1,rwrist1,rhand1,rhand2,rfingers1,rthumb1,rthumb2,lclavicle1,lclavicle2,lhumerus1,lhumerus2,lhumerus3,lradius1,lwrist1,lhand1,lhand2,lfingers1,lthumb1,lthumb2,rfemur1,rfemur2,rfemur3,rtibia1,rfoot1,rfoot2,rtoes1,lfemur1,lfemur2,lfemur3,ltibia1,lfoot1,lfoot2,ltoes1
2.11174,18.3945,45.6441,-5.31461,12.2513,-2.94171,16.8758,-4.31554,-5.91181,-4.76801,-6.7784,2.86393,-13.8301,-2.46092,8.47585,11.3089,-21.9729,-12.4402,6.28154,-30.9658,6.72451,3.0947,-15.7542,3.08497,4.53478e-14,-9.14409e-15,-93.275,-85.9216,56.1101,33.3281,-53.0973,-11.3433,-5.47359,7.12502,14.6898,-34.9332,4.53478e-14,-9.14409e-15,-56.6105,10.99,67.4867,47.7147,10.6092,-7.41226,52.5749,7.12502,18.4743,81.7177,-0.513195,1.24045,22.8369,25.7248,-19.4349,-23.9354,13.9437,-3.3198,-10.4429,-17.055,26.3015,-13.8987,3.23826,-15.3
2.12792,18.3908,45.6342,-5.22124,12.5093,-2.61402,16.9246,-4.39161,-5.9693,-4.75919,-6.9155,2.71808,-13.8371,-2.52718,8.38072,11.2462,-21.9866,-12.4133,6.29273,-30.9758,6.73681,3.10616,-15.7571,3.07681,4.12478e-15,-3.04141e-14,-107.392,-86.0123,70.0876,33.5679,-52.1166,-12.3709,-4.14815,7.12502,13.6995,-33.6772,4.12478e-15,-3.04141e-14,-56.5013,11.0374,67.5054,47.8684,10.4106,-7.22089,52.7122,7.12502,18.6584,81.8374,-0.579423,0.705616,22.2919,25.8496,-19.3387,-23.5788,13.5736,-3.3276,-10.426,-17.4779,26.2014,-13.7461,3.09828,-15.4259
2.12405,18.3878,45.6397,-5.40747,12.3888,-2.7104,15.529,-4.42097,-6.30923,-3.77989,-6.8961,2.82959,-11.8088,-2.67143,8.41557,10.9977,-21.9764,-12.1336,5.29055,-30.8848,7.51032,2.90338,-15.6922,3.287,-6.40087e-14,2.98177e-15,-122.963,-86.6227,85.491,33.2031,-52.3004,-11.7147,-5.37249,7.12502,14.3319,-34.8578,-6.40087e-14,2.98177e-15,-55.0886,11.8125,67.5426,47.8622,9.95015,-7.02154,53.4552,7.12502,18.8501,82.5618,-0.373255,0.976994,22.4877,25.8491,-19.5102,-23.7264,13.9088,-3.12701,-10.2686,-17.3422,26.1843,-13.7611,3.00571,-14.6388
2.12111,18.3866,45.6369,-5.45447,12.2857,-2.79717,17.2307,-4.27012,-5.96016,-4.79268,-6.75875,2.79172,-14.0823,-2.42919,8.46437,11.3693,-21.9586,-12.4515,6.37572,-30.9484,6.57451,3.09193,-15.7483,3.05323,4.09496e-14,-1.78906e-15,-105.109,-85.8515,67.917,33.3999,-51.9877,-12.2052,-4.69058,7.12502,13.8593,-34.2088,4.09496e-14,-1.78906e-15,-56.6447,10.939,67.4805,48.2262,9.82162,-6.57944,54.1716,7.12502,19.2753,83.2364,-0.337629,1.23928,22.6591,25.853,-19.6659,-23.8213,14.3912,-3.08376,-10.2863,-17.2307,26.1489,-13.7673,3.04281,-14.5303
2.12474,18.3906,45.6397,-5.43697,12.2955,-2.83295,17.1672,-4.24343,-5.87474,-5.00388,-6.71359,2.74647,-14.3189,-2.39545,8.36604,12.07,-21.8556,-12.5427,6.31089,-30.8825,6.49978,2.9679,-15.7347,3.13707,6.85807e-14,3.29983e-14,-127.927,-85.0283,90.5804,34.1659,-49.9936,-10.3799,-7.07601,7.12502,15.6178,-36.4655,6.85807e-14,3.29983e-14,-57.166,10.3867,67.6057,48.6486,10.1017,-6.74693,54.3814,7.12502,19.1142,83.4622,-0.330679,1.2126,22.6723,25.7961,-19.652,-23.865,14.4162,-3.11726,-10.2654,-17.2018,26.1807,-13.7594,3.09369,-14.6396
2.12502,18.3959,45.6367,-5.45445,12.3294,-2.86268,17.2351,-4.26204,-5.8768,-4.84046,-6.72817,2.80899,-14.1541,-2.41467,8.43494,11.0823,-21.9813,-12.2805,6.91518,-30.926,6.04151,3.19129,-15.7331,2.84852,-1.44119e-15,-1.98785e-16,-126.815,-85.3299,89.51,33.8336,-50.5708,-9.73575,-7.48819,7.12502,16.2381,-36.8282,-1.44119e-15,-1.98785e-16,-56.8993,10.5521,67.7236,48.8483,10.1469,-6.74272,54.0745,7.12502,19.1182,83.1549,-0.349538,1.27605,22.7159,25.7709,-19.6095,-23.9935,14.3494,-3.16185,-10.3579,-17.1648,26.2036,-13.8109,3.1195,-14.1599
2.12665,18.391,45.6314,-5.44134,12.2636,-2.87928,15.7569,-4.36679,-6.25418,-3.64304,-6.80278,2.98477,-11.7896,-2.62847,8.55517,9.85601,-21.9878,-11.6977,5.63677,-30.7332,6.95059,3.01072,-15.5823,2.98128,4.52484e-14,-1.0138e-14,-152.384,-85.4994,114.781,33.7283,-50.7164,-9.6459,-7.10282,7.12502,16.3246,-36.4357,4.52484e-14,-1.0138e-14,-54.934,11.7179,67.9014,48.7399,10.1219,-6.82746,54.0384,7.12502,19.0368,83.1267,-0.372666,1.33391,22.7411,25.7862,-19.7018,-23.8868,14.5606,-3.20598,-10.2101,-17.1163,26.1868,-13.8648,2.93647,-14.1734
2.13454,18.3905,45.625,-5.34747,12.3248,-2.79764,17.2906,-4.25992,-5.76567,-4.91857,-6.71398,2.7448,-14.3038,-2.40805,8.31033,11.6836,-21.8284,-12.3686,6.12904,-30.784,6.62459,2.95156,-15.6712,3.13,-1.07841e-14,-2.32578e-14,-97.1418,-85.4865,59.7662,33.514,-52.9555,-9.83265,-6.45647,7.12502,16.1448,-35.8041,-1.07841e-14,-2.32578e-14,-56.8483,10.4717,67.7005,49.0222,10.066,-6.6997,54.3644,7.12502,19.1596,83.4407,-0.435021,1.10582,22.5646,25.7885,-19.8008,-23.5321,14.9636,-3.31992,-10.3425,-17.2395,26.183,-13.9631,2.58428,-14.0735
2.15034,18.3979,45.6153,-5.06016,12.557,-2.26933,15.7336,-4.44717,-6.37556,-4.03611,-6.98665,2.66029,-12.2241,-2.67809,8.33328,11.0202,-21.7578,-12.1129,5.3529,-30.5886,7.39144,2.86966,-15.5463,3.28332,6.73383e-15,-7.35503e-15,-95.5971,-86.4663,57.6375,33.8023,-54.0865,-10.454,-6.03426,7.12502,15.5464,-35.4293,6.73383e-15,-7.35503e-15,-55.3982,11.3328,67.6788,49.0678,9.9314,-6.31341,54.4131,7.12502,19.5311,83.4521,-0.679406,0.481507,21.7656,25.8165,-19.442,-23.2275,14.2269,-3.56032,-10.5841,-17.8904,26.1863,-14.0975,1.93086,-13.4157
2.1454,18.4029,45.6219,-5.27064,12.3242,-2.55352,16.201,-4.37771,-6.28554,-4.03323,-6.87881,2.85911,-12.5031,-2.6015,8.54331,10.2649,-21.779,-12.0493,5.8465,-30.5429,6.96808,3.05157,-15.5059,3.0593,-2.29596e-14,-2.80286e-14,-104.692,-86.7087,66.8244,33.8211,-53.3978,-11.3383,-5.48355,7.12502,14.6945,-34.9428,-2.29596e-14,-2.80286e-14,-55.4977,11.5986,67.6996,49.2238,9.7441,-6.18183,54.3781,7.12502,19.6576,83.4042,-0.573817,0.941941,22.1963,25.8217,-19.4779,-23.5633,14.3869,-3.39127,-10.4668,-17.5529,26.2233,-14.2313,2.07784,-14.1164
2.1413,18.3947,45.6236,-5.36693,12.1167,-2.67956,16.1598,-4.27031,-6.32796,-4.20644,-6.73897,2.93191,-12.6924,-2.51006,8.62965,11.3762,-21.5884,-12.5412,5.5966,-30.4459,7.19827,2.91031,-15.4925,3.30431,-7.33764e-14,5.96354e-15,-119.623,-86.3236,81.6741,34.547,-52.2203,-10.1617,-7.13566,7.12502,15.8279,-36.5087,-7.33764e-14,5.96354e-15,-55.9281,11.3248,67.7009,49.2999,9.66911,-6.25563,54.3314,7.12502,19.5866,83.3647,-0.454705,1.25415,22.4307,25.796,-19.6522,-23.6429,14.6863,-3.2892,-10.4539,-17.3971,26.287,-14.1889,2.87631,-14.0498
2.14607,18.3868,45.6197,-5.33558,12.0516,-2.7246,16.0342,-4.22635,-6.28144,-3.93969,-6.6454,2.99237,-12.3219,-2.50253,8.6089,10.4398,-21.6883,-12.3122,5.81425,-30.4671,7.09204,3.06515,-15.476,3.13502,3.46879e-14,-1.19271e-15,-131.453,-86.3425,93.539,34.4374,-52.0825,-9.82295,-7.57611,7.12502,16.1541,-36.9229,3.46879e-14,-1.19271e-15,-55.2253,11.5835,67.8645,49.1851,9.69045,-6.34079,54.4468,7.12502,19.5047,83.4884,-0.390625,1.21229,22.4519,25.6964,-19.8094,-23.3872,15.2824,-3.36873,-10.3757,-17.3441,26.4101,-14.1379,3.15595,-13.9618
2.14982,18.3912,45.6136,-5.29604,12.0425,-2.99713,15.8655,-4.22983,-5.93093,-4.02431,-6.56163,3.05429,-12.3639,-2.48261,8.44917,11.3217,-21.5798,-12.6735,5.43022,-30.4485,7.50933,2.93309,-15.4927,3.39012,1.03293e-13,-1.96797e-14,-80.0192,-86.2037,42.0346,34.3543,-55.1263,-10.7288,-6.94004,7.12502,15.2817,-36.3555,1.03293e-13,-1.96797e-14,-55.2393,11.2994,67.981,49.0861,9.94524,-6.61939,54.1599,7.12502,19.2368,83.2285,-0.536768,1.19568,22.7228,25.6733,-19.5746,-23.4724,15.0503,-3.53217,-10.3765,-17.0279,26.4562,-14.0659,3.09323,-13.3859
2.15515,18.3944,45.6125,-5.32382,12.0454,-2.98395,15.5505,-4.25487,-5.9887,-3.75659,-6.57545,3.10942,-11.8524,-2.52807,8.48142,11.2238,-21.4427,-12.7108,4.86706,-30.2473,7.94257,2.82437,-15.3873,3.53963,-1.74434e-14,5.96354e-16,-85.9117,-86.6854,47.9533,34.2642,-54.9272,-11.4342,-6.10833,7.12502,14.6022,-35.5743,-1.74434e-14,5.96354e-16,-54.7493,11.5649,68.0388,48.8785,10.0019,-6.85266,53.8366,7.12502,19.0125,82.9273,-0.535101,1.23128,22.6848,25.6834,-19.5966,-23.5234,15.1165,-3.46417,-10.4753,-17.0869,26.4237,-14.0846,3.16207,-13.3668
2.15591,18.3941,45.6119,-5.35816,12.0159,-2.78507,15.4989,-4.22407,-6.22385,-3.64593,-6.58287,3.04863,-11.6762,-2.53302,8.53038,10.975,-21.3333,-12.508,5.26134,-30.0602,7.66844,2.8935,-15.2871,3.42224,-2.05991e-14,1.2921e-14,-87.3816,-86.7977,49.3479,34.2347,-54.9637,-10.6716,-6.53818,7.12502,15.3369,-35.9494,-2.05991e-14,1.2921e-14,-54.5408,11.6451,67.9231,48.8006,10.0208,-6.8911,53.6211,7.12502,18.9755,82.7155,-0.496734,1.28207,22.4729,25.7295,-19.5388,-23.5369,14.6159,-3.29316,-10.4798,-17.3311,26.3253,-14.1261,3.2203,-13.6263
2.16052,18.396,45.6091,-5.26779,12.023,-2.61676,15.4488,-4.225,-6.36586,-3.51279,-6.60954,3.01431,-11.4784,-2.55522,8.5588,8.88178,-21.2039,-11.9679,6.88414,-29.6506,6.48858,3.40695,-15.0344,2.78653,6.22444e-14,-1.39149e-15,-56.9078,-85.7861,18.659,34.243,-57.391,-11.7398,-5.63208,7.12502,14.3077,-35.1191,6.22444e-14,-1.39149e-15,-54.1332,11.8626,67.8435,48.5649,9.84665,-6.93132,53.3937,7.12502,18.9369,82.4919,-0.641566,1.34088,22.2706,25.8418,-19.5724,-23.5386,14.477,-3.27413,-10.4976,-17.5325,26.1762,-14.0577,3.26891,-13.6711
2.16401,18.3962,45.6034,-5.20607,12.0083,-2.54502,15.4521,-4.21852,-6.38035,-3.45743,-6.60496,2.98789,-11.4195,-2.55886,8.53164,8.96236,-21.0736,-11.6582,6.59179,-29.4439,6.56044,3.25461,-14.9266,2.83007,-2.44257e-14,-2.98177e-15,-77.3829,-86.9414,39.049,34.5003,-55.881,-12.093,-5.10582,7.12502,13.9674,-34.6166,-2.44257e-14,-2.98177e-15,-53.9042,11.9653,67.7814,48.434,9.83539,-6.7334,53.3024,7.12502,19.1272,82.3818,-0.802137,1.30675,22.1545,25.9751,-19.5232,-23.5195,14.1215,-3.2655,-10.5138,-17.625,26.0526,-13.9518,3.3317,-14.0742
2.16831,18.3956,45.6005,-5.20138,11.9575,-2.48623,15.458,-4.18405,-6.37056,-3.44029,-6.56126,2.94372,-11.4177,-2.54105,8.46664,5.95802,-21.009,-10.2444,9.44763,-28.945,3.96215,3.96831,-14.6305,1.61372,1.18128e-13,-3.77691e-15,-82.3427,-87.0903,43.9974,34.4853,-55.6368,-12.5247,-4.71528,7.12502,13.5514,-34.2543,1.18128e-13,-3.77691e-15,-53.8444,11.9039,67.7221,48.5256,9.7557,-6.65091,53.8128,7.12502,19.2065,82.8844,-0.846103,1.2646,22.0546,26.0661,-19.5071,-23.4466,14.0466,-3.22766,-10.4162,-17.6991,26.0023,-13.9367,3.37251,-15.0282
2.16933,18.3944,45.5991,-5.20482,11.9229,-2.42982,15.4636,-4.1177,-6.41548,-3.41929,-6.48377,2.91763,-11.4097,-2.50316,8.44531,4.08409,-20.5777,-9.02227,10.5632,-28.0982,2.6317,4.18541,-14.1817,0.984484,2.16178e-15,-1.19271e-14,-75.4161,-86.7843,37.1144,34.4314,-56.2666,-12.6507,-4.81109,7.12502,13.4299,-34.3582,2.16178e-15,-1.19271e-14,-53.8332,11.7497,67.7495,48.6621,9.87231,-6.80045,54.0428,7.12502,19.0627,83.1286,-0.82713,1.21658,21.9831,26.1415,-19.6551,-23.3115,14.3309,-3.18939,-10.3494,-17.7672,25.9696,-13.9378,3.38483,-15.2365
2.16973,18.3929,45.593,-5.1453,11.9496,-2.4991,15.4577,-4.10837,-6.30005,-3.49864,-6.44973,2.92142,-11.5146,-2.48527,8.38374,5.72732,-20.6056,-9.79894,9.74503,-28.3613,3.76505,3.96687,-14.3323,1.5361,5.97845e-14,1.37161e-14,-71.8616,-86.4405,33.621,34.3415,-56.6934,-12.6025,-4.67845,7.12502,13.4763,-34.2225,5.97845e-14,1.37161e-14,-53.862,11.61,67.7066,48.535,9.90793,-6.92607,53.5597,7.12502,18.9419,82.6573,-0.966694,1.22313,22.0615,26.2366,-19.6479,-23.412,13.905,-3.25321,-10.3191,-17.6639,25.9015,-13.9006,3.2551,-15.0939
2.17587,18.3984,45.5836,-5.00626,11.9995,-2.30922,15.4745,-4.09138,-6.35809,-3.55586,-6.4518,2.83017,-11.5946,-2.4785,8.32191,5.63409,-20.2198,-9.79832,9.83294,-27.872,4.09144,4.02092,-14.0811,1.63905,-1.10673e-13,-3.95581e-14,-70.6219,-86.3136,32.2791,34.4662,-56.8016,-12.6309,-4.55482,7.12502,13.449,-34.1006,-1.10673e-13,-3.95581e-14,-53.7226,11.4794,67.6626,48.3981,9.85532,-6.7573,53.5011,7.12502,19.1042,82.5829,-1.17089,1.2222,21.8096,26.3663,-19.6428,-23.3739,14.1593,-3.35296,-10.2939,-17.8715,25.7983,-13.7977,3.23338,-14.9355
2.18928,18.4027,45.5748,-4.88729,12.1011,-1.96915,15.4782,-4.10147,-6.51074,-3.56781,-6.51242,2.69226,-11.6004,-2.50132,8.26784,6.23813,-19.901,-10.0763,9.44341,-27.5581,4.87874,3.93339,-13.928,1.97221,7.69794e-14,-1.39149e-15,-64.052,-86.0412,25.49,34.7197,-57.1804,-12.6969,-4.57276,7.12502,13.3854,-34.1228,7.69794e-14,-1.39149e-15,-53.6148,11.4781,67.5569,48.3774,9.62066,-6.46037,53.7395,7.12502,19.3897,82.7928,-1.30689,0.824172,21.2827,26.4732,-19.4268,-23.0399,13.5289,-3.37789,-10.3259,-18.3038,25.7006,-13.6784,3.25143,-14.9329
2.19447,18.401,45.5663,-4.83594,12.0756,-1.7305,15.5606,-4.02911,-6.64634,-3.66345,-6.46265,2.59668,-11.7656,-2.45692,8.24513,7.6984,-19.5796,-10.6267,8.53749,-27.3278,6.0289,3.64696,-13.8409,2.53768,-3.45637e-14,-1.98785e-15,-52.9547,-84.7934,14.2195,35.0409,-58.4553,-13.3579,-4.39828,7.12502,12.7482,-33.9891,-3.45637e-14,-1.98785e-15,-53.6475,11.3607,67.5174,48.2928,9.47586,-6.33454,53.9668,7.12502,19.5107,83.0079,-1.40716,0.531704,20.9232,26.5847,-19.3355,-22.8065,13.1271,-3.34893,-10.2641,-18.5767,25.5951,-13.7247,2.81907,-13.7906
2.1933,18.4025,45.5619,-4.77105,12.0462,-1.64788,15.5168,-3.99356,-6.72361,-3.74115,-6.43369,2.5734,-11.8294,-2.43198,8.25799,8.90477,-19.1744,-11.2325,7.98365,-26.981,7.04332,3.48225,-13.7008,3.03614,7.49667e-14,-2.76311e-14,-51.8385,-84.4936,13.0518,35.2379,-58.6555,-12.2935,-6.53986,7.12502,13.7742,-36.0639,7.49667e-14,-2.76311e-14,-53.677,11.1919,67.495,48.1558,9.53399,-6.38163,54.0783,7.12502,19.4655,83.1239,-1.52539,0.607755,20.8476,26.683,-19.3791,-22.8719,13.1344,-3.42916,-10.3289,-18.6572,25.5475,-13.7464,2.11355,-12.5933
2.19049,18.4022,45.5572,-4.81085,11.939,-1.74418,15.5031,-3.91862,-6.65356,-3.70377,-6.31589,2.57695,-11.8063,-2.38384,8.19229,9.6978,-18.7381,-11.6882,7.54122,-26.5561,8.06548,3.38217,-13.5131,3.48238,-1.05555e-13,9.74045e-15,-52.0362,-84.3909,13.2332,35.2551,-58.778,-12.7729,-5.87371,7.12502,13.3121,-35.4285,-1.05555e-13,9.74045e-15,-53.5255,11.034,67.4942,48.1058,9.64277,-6.63377,54.1406,7.12502,19.223,83.2106,-1.64503,0.788573,20.9959,26.9367,-19.5747,-22.8497,13.7947,-3.3756,-10.2802,-18.5352,25.4539,-13.6903,2.15213,-12.6456
2.19042,18.3889,45.5512,-4.90925,11.8684,-2.0253,15.5714,-3.88543,-6.36137,-3.69608,-6.20842,2.63729,-11.8788,-2.34643,8.07925,5.03335,-18.3677,-10.8777,12.6859,-25.6513,5.13747,5.11819,-12.9771,1.96003,-5.3324e-14,-1.03368e-14,-49.3873,-83.9392,10.6292,34.9879,-59.2026,-13.1168,-5.16896,7.12502,12.9806,-34.7451,-5.3324e-14,-1.03368e-14,-53.4871,10.9067,67.5029,48.1208,9.61318,-6.68997,54.0057,7.12502,19.169,83.081,-1.66505,0.907093,21.3281,27.0157,-19.7083,-22.7785,14.4979,-3.20317,-10.1098,-18.2384,25.4182,-13.5383,3.00635,-15.1431
2.19204,18.3579,45.5433,-4.88216,11.8888,-1.96669,15.6239,-3.86207,-6.3839,-3.76041,-6.19038,2.61014,-11.9882,-2.32772,8.06931,4.33483,-17.9582,-10.9862,13.7787,-25.107,5.09649,5.53537,-12.6955,1.883,-3.23025e-15,-7.35503e-15,-56.2525,-84.7392,17.5149,35.1233,-58.1474,-13.0183,-5.04895,7.12502,13.0755,-34.6191,-3.23025e-15,-7.35503e-15,-53.443,10.8563,67.4302,47.9587,9.49457,-6.72184,54.1077,7.12502,19.1383,83.1861,-1.73963,0.837109,21.2364,27.0804,-19.6967,-22.7018,14.5007,-2.98049,-9.84829,-18.329,25.3919,-13.4529,3.6774,-19.3632
2.19331,18.3878,45.5461,-4.82284,11.8466,-1.6954,15.618,-3.75839,-6.6348,-3.7805,-6.11245,2.5317,-12.0068,-2.27375,8.10689,3.62007,-17.5188,-10.665,14.6417,-24.453,4.76325,5.78645,-12.3561,1.71199,-7.60351e-14,1.07344e-14,-68.2849,-85.5115,29.6572,35.0732,-56.9124,-12.5264,-4.88072,7.12502,13.5497,-34.4198,-7.60351e-14,1.07344e-14,-53.2988,10.7199,67.4715,47.8336,9.60029,-6.89697,54.4012,7.12502,18.9699,83.4961,-1.68094,1.00873,20.9613,26.9746,-19.7118,-22.7922,14.561,-3.2248,-10.0888,-18.6115,25.4584,-13.3744,3.42929,-15.7679
2.19038,18.3989,45.5477,-4.91857,11.6681,-1.96675,15.6461,-3.66314,-6.3876,-3.77307,-5.92571,2.61031,-12.0627,-2.19646,8.01694,3.52787,-16.9343,-10.0247,14.8373,-23.6265,4.5682,5.69644,-11.9325,1.65762,-5.95609e-14,1.03368e-14,-68.1913,-85.3152,29.5742,35.1867,-56.9938,-12.7173,-4.33801,7.12502,13.3657,-33.8893,-5.95609e-14,1.03368e-14,-53.2984,10.6067,67.477,47.9038,9.49741,-6.59799,54.6781,7.12502,19.2574,83.7447,-1.56907,1.17908,21.3013,26.7947,-19.5256,-22.8968,14.345,-3.28786,-10.0815,-18.2957,25.5793,-13.4614,3.38908,-14.3401
2.18606,18.4015,45.5488,-5.06191,11.4776,-2.38366,15.6986,-3.61638,-6.03197,-3.78725,-5.77848,2.7317,-12.1554,-2.14104,7.92641,1.77332,-16.4146,-9.52125,16.6896,-22.768,3.68732,6.34241,-11.4832,1.18773,-3.16068e-14,-1.90833e-14,-75.8983,-85.6142,37.2639,35.4824,-56.2877,-13.2013,-3.91525,7.12502,12.8991,-33.4966,-3.16068e-14,-1.90833e-14,-53.3483,10.5322,67.4337,47.9265,9.30153,-6.37582,54.4514,7.12502,19.471,83.4965,-1.36679,1.47792,21.8331,26.4237,-19.2851,-23.1264,14.1562,-3.35171,-10.0214,-17.813,25.8211,-13.6155,3.39378,-14.0027
2.17799,18.4007,45.5503,-5.2714,11.2346,-2.62576,15.7842,-3.50105,-5.94488,-3.66173,-5.59481,2.82939,-12.0909,-2.06351,7.9446,-0.53007,-15.9771,-9.29076,18.6864,-22.0328,3.14391,7.22961,-11.0759,0.775324,4.68386e-14,-2.50469e-14,-59.0636,-84.4307,20.3021,35.5175,-58.1628,-14.0246,-3.50963,7.12502,12.1054,-33.1394,4.68386e-14,-2.50469e-14,-53.1945,10.5724,67.4163,47.8233,9.29151,-6.67581,53.8395,7.12502,19.1826,82.9135,-1.08443,1.95308,22.2418,26.1963,-19.3195,-23.4297,14.3021,-3.27877,-9.95771,-17.5304,26.0296,-13.721,3.52678,-14.255
2.17457,18.3968,45.546,-5.39216,11.1178,-2.66389,15.9695,-3.39526,-5.951,-3.61982,-5.46018,2.85178,-12.1733,-1.99311,7.95942,0.190298,-15.3883,-9.40938,18.0873,-21.4049,4.11286,6.99183,-10.7398,1.22868,3.18801e-14,-1.17283e-14,-65.1056,-84.8094,26.4738,35.4679,-57.6058,-13.4916,-4.64867,7.12502,12.6193,-34.2475,3.18801e-14,-1.17283e-14,-53.0364,10.4029,67.5381,47.7089,9.49753,-7.18948,53.7075,7.12502,18.6886,82.8297,-0.942349,2.04435,22.3202,26.1545,-19.3331,-23.3086,14.4963,-3.19965,-9.82981,-17.4684,26.1077,-13.8091,3.49858,-14.297
2.17395,18.4005,45.5372,-5.38056,11.0278,-2.79411,16.0275,-3.3507,-5.81243,-3.68565,-5.37105,2.89474,-12.3067,-1.9486,7.92023,-0.172219,-14.8461,-9.25459,18.8917,-20.6961,4.12434,7.24797,-10.3729,1.22536,-2.44754e-14,-2.78299e-15,-63.4755,-84.5038,24.7196,35.8465,-57.8917,-13.2519,-5.56056,7.12502,12.8504,-35.145,-2.44754e-14,-2.78299e-15,-53.0828,10.3792,67.4986,47.6218,9.42752,-7.29979,53.5438,7.12502,18.5825,82.6763,-1.15445,2.1604,22.4759,26.3486,-19.1865,-23.3977,14.2536,-3.22,-9.76573,-17.3064,26.0422,-13.7653,3.46994,-14.5599
2.17102,18.3971,45.5315,-5.39969,10.8667,-2.73617,16.1096,-3.23534,-5.89909,-3.81288,-5.24151,2.90307,-12.5176,-1.86274,7.96799,-0.580095,-14.372,-8.91124,19.8179,-20.0316,3.7906,7.50199,-10.0386,1.08591,1.36416e-14,1.82882e-14,-49.474,-82.3098,10.7131,35.7732,-60.172,-13.5412,-5.19626,7.12502,12.5715,-34.798,1.36416e-14,1.82882e-14,-53.2579,10.2684,67.4582,47.5156,9.33348,-6.94042,53.7372,7.12502,18.9281,82.8363,-1.25273,2.39328,22.4569,26.435,-19.0586,-23.6059,13.5805,-3.09985,-9.62109,-17.3732,26.0232,-13.8226,3.67353,-16.2568
2.16762,18.3718,45.5237,-5.39918,10.7283,-2.774,16.1491,-3.09584,-5.84982,-4.00487,-5.04998,2.91096,-12.8011,-1.752,7.92324,-0.199299,-13.836,-8.86998,20.0323,-19.3765,4.00901,7.47962,-9.71624,1.24002,-2.21148e-14,-8.15017e-15,-54.3284,-82.5129,15.6664,35.9713,-59.1839,-12.8167,-5.56411,7.12502,13.2699,-35.1217,-2.21148e-14,-8.15017e-15,-53.4292,9.95142,67.4909,47.3705,9.20747,-6.55633,53.9437,7.12502,19.2975,83.0063,-1.33193,2.55311,22.5358,26.4857,-19.1578,-23.638,13.8843,-2.8848,-9.22367,-17.3157,26.0004,-13.9198,3.93921,-19.525
2.16899,18.4016,45.5229,-5.38926,10.703,-2.71656,16.1956,-3.01931,-5.84787,-4.12825,-4.95512,2.8899,-12.9917,-1.69259,7.89011,0.30051,-13.3169,-9.15058,19.6208,-18.8239,4.91219,7.33465,-9.42328,1.66089,-1.30701e-14,-2.26615e-14,-54.1726,-82.0525,15.5966,35.9414,-59.2792,-12.6784,-5.31335,7.12502,13.4032,-34.8622,-1.30701e-14,-2.26615e-14,-53.5586,9.70269,67.5753,47.3118,9.45027,-6.56901,53.9648,7.12502,19.2853,83.0286,-1.27002,2.51294,22.452,26.4068,-19.3012,-23.4355,14.7384,-3.16919,-9.53151,-17.3777,26.062,-13.8282,3.72656,-15.8044
2.17039,18.4094,45.5206,-5.34571,10.7085,-2.64555,16.1403,-2.9666,-5.89175,-4.11207,-4.88878,2.90111,-12.9468,-1.66096,7.90503,4.30047,-12.3781,-9.88468,15.4846,-17.9998,7.97351,5.61805,-9.04683,3.18041,2.90723e-15,-1.98785e-15,-50.0528,-81.021,11.5138,36.012,-60.6287,-13.0001,-4.82038,7.12502,13.0931,-34.3894,2.90723e-15,-1.98785e-15,-53.434,9.69893,67.7028,47.2388,9.71621,-6.95012,53.8056,7.12502,18.9188,82.9055,-1.22681,2.43351,22.3469,26.2912,-19.1858,-23.2966,14.9375,-3.31453,-9.60286,-17.4607,26.1563,-13.7892,3.7007,-15.1886
2.17007,18.4078,45.5164,-5.34579,10.6042,-2.76315,16.1128,-2.92973,-5.7778,-4.04459,-4.80585,2.94473,-12.8705,-1.63588,7.86148,6.35283,-11.7356,-10.3725,13.0958,-17.3434,9.92516,4.68391,-8.76207,4.09234,2.22142e-14,-3.18055e-14,-54.6827,-82.0216,16.162,36.1445,-59.6503,-15.0338,1.60209,7.12502,11.1322,-28.0826,2.22142e-14,-3.18055e-14,-53.2738,9.6009,67.7789,47.2895,9.96252,-7.42919,53.8751,7.12502,18.458,83.0194,-1.14244,2.46665,22.4734,26.0186,-18.7716,-23.4066,14.6227,-3.42373,-9.62042,-17.334,26.3476,-13.9677,3.42571,-15.0444
2.16752,18.4086,45.512,-5.35288,10.4791,-2.76864,16.1196,-2.87568,-5.81525,-3.9978,-4.73806,2.96276,-12.8276,-1.60413,7.88411,7.75208,-10.5639,-10.7817,11.8654,-15.8997,11.1803,4.04961,-8.09432,4.75499,3.74709e-14,1.70955e-14,-52.827,-81.6724,14.3756,35.776,-60.2407,-15.7109,3.45814,7.12502,10.479,-26.2607,3.74709e-14,1.70955e-14,-53.1619,9.64946,67.7777,47.2482,10.0175,-7.76109,53.3862,7.12502,18.1387,82.5604,-1.12849,2.49152,22.4797,25.934,-18.6841,-23.3245,14.7047,-3.48427,-9.55728,-17.318,26.4332,-14.162,2.78023,-14.2869
2.16248,18.4095,45.5066,-5.43758,10.2643,-2.96181,16.2157,-2.78647,-5.68292,-3.97144,-4.58521,3.0322,-12.8845,-1.53599,7.85784,7.15974,-10.0919,-10.3118,12.1248,-15.2006,11.1228,4.09957,-7.70806,4.67215,5.48397e-14,-1.90833e-14,-60.5714,-82.7595,22.1851,35.9202,-58.7801,-14.8459,0.953363,7.12502,11.3134,-28.7215,5.48397e-14,-1.90833e-14,-53.1418,9.67592,67.7457,47.2586,9.99667,-7.74397,53.1589,7.12502,18.1552,82.3316,-1.10605,2.74391,22.7485,25.8681,-18.7312,-23.3938,14.7686,-3.48382,-9.49715,-17.078,26.5439,-14.119,2.8371,-13.566
2.155,18.4115,45.503,-5.51358,10.0965,-3.12621,16.3122,-2.67987,-5.59027,-3.9911,-4.41827,3.102,-12.995,-1.45352,7.85434,7.01894,-9.34656,-9.84684,12.3419,-14.1576,11.0492,4.02837,-7.16857,4.63305,3.46134e-14,-1.8487e-14,-73.4747,-83.8082,35.1994,36.1564,-56.857,-11.2244,-6.68051,7.12502,14.8044,-36.1317,3.46134e-14,-1.8487e-14,-53.1724,9.51418,67.7943,47.2794,10.0506,-7.56299,53.3338,7.12502,18.3293,82.4902,-1.11492,3.00699,23.0024,25.8563,-18.6669,-23.4823,14.7528,-3.47387,-9.33286,-16.863,26.6191,-13.8821,3.66128,-15.5686
2.15183,18.412,45.497,-5.64298,9.98162,-3.39635,16.4772,-2.62021,-5.31529,-3.99535,-4.2765,3.17551,-13.1356,-1.39588,7.76128,-3.01191,-10.2555,-7.03286,22.6554,-14.631,4.57701,8.39438,-7.17432,1.39814,-6.83571e-14,1.66979e-14,-61.4904,-82.472,23.1958,35.7978,-58.4863,-12.2136,-5.24197,7.12502,13.8511,-34.7608,-6.83571e-14,1.66979e-14,-53.1992,9.46396,67.7809,47.3098,10.0349,-7.68597,53.0269,7.12502,18.211,82.1944,-1.07603,3.11297,23.3288,25.8637,-18.5976,-23.5621,14.7605,-3.42627,-9.31055,-16.5681,26.6877,-13.9036,4.04502,-15.3524
2.15144,18.4126,45.4878,-5.54498,10.0105,-3.27157,16.4374,-2.59932,-5.3954,-4.02169,-4.26944,3.13736,-13.1414,-1.38718,7.7602,-3.41252,-9.83478,-6.72824,23.037,-14.0708,4.55741,8.5329,-6.87117,1.37572,-4.18442e-14,1.47101e-14,-68.2966,-83.0711,30.0294,35.9628,-57.4491,-11.6509,-5.54796,7.12502,14.3934,-35.0289,-4.18442e-14,1.47101e-14,-52.9043,9.48598,67.7521,46.9932,9.88932,-7.57015,53.028,7.12502,18.3224,82.1851,-1.20841,2.96511,23.1534,25.9495,-18.4818,-23.4829,14.192,-3.56471,-9.30145,-16.6875,26.7028,-13.8848,3.97658,-14.4473
2.15489,18.4133,45.4773,-5.46513,10.1106,-3.07348,16.5222,-2.5884,-5.50169,-4.14873,-4.29157,3.08495,-13.3348,-1.37577,7.78451,-3.72568,-9.36133,-5.25382,23.2711,-13.2673,3.25238,8.41383,-6.47901,0.794046,-3.73715e-14,1.05356e-14,-61.4771,-82.1126,23.0939,36.2007,-58.6849,-15.0559,1.50084,7.12502,11.1109,-28.185,-3.73715e-14,1.05356e-14,-52.9186,9.45813,67.7905,46.8515,9.80548,-7.5496,53.3223,7.12502,18.3422,82.4776,-1.35853,2.7368,22.8644,26.1195,-18.4934,-23.3278,13.8525,-3.62578,-9.33174,-16.9218,26.6373,-13.8362,3.96474,-15.2154
2.16106,18.4102,45.4584,-5.40457,10.1568,-2.904,16.6935,-2.5494,-5.51829,-4.24755,-4.26116,3.02351,-13.5633,-1.34578,7.73957,-3.6084,-8.99014,-4.93421,23.2854,-12.7528,3.11487,8.3392,-6.22377,0.758897,-7.11649e-14,-7.55382e-15,-59.0776,-81.5375,20.56,36.559,-59.3642,-12.3298,-5.58774,7.12502,13.7392,-35.1141,-7.11649e-14,-7.55382e-15,-52.976,9.31905,67.8593,46.9217,9.78133,-7.33064,53.4202,7.12502,18.5528,82.5555,-1.64089,2.36223,22.5493,26.4932,-18.5909,-22.8934,13.9526,-3.60045,-9.41551,-17.1509,26.4549,-13.719,4.0413,-15.5051
2.18805,18.4075,45.4306,-5.22809,10.4526,-2.42243,16.9381,-2.66167,-5.49839,-4.36157,-4.45462,2.78001,-13.8335,-1.4301,7.53065,-3.32065,-8.59925,-5.13515,23.2459,-12.3105,3.65286,8.30159,-5.98866,1.02332,1.88348e-14,9.14409e-15,-53.4604,-80.4346,14.6612,36.736,-60.6708,-15.4885,1.99357,7.12502,10.6936,-27.7143,1.88348e-14,9.14409e-15,-53.1255,9.31983,67.7425,47.0865,9.71418,-7.14699,53.2785,7.12502,18.7294,82.3968,-1.95057,1.31723,21.6792,26.8332,-18.3956,-22.2345,13.0791,-3.66075,-9.54289,-17.8082,26.2812,-13.4534,3.98773,-15.4926
2.22582,18.3969,45.3979,-4.8159,11.1259,-1.58845,17.1274,-2.87716,-5.5979,-4.60059,-4.8338,2.41186,-14.194,-1.58868,7.30132,-3.19155,-8.32079,-5.84268,23.5208,-12.0916,4.63928,8.47119,-5.85416,1.47863,5.83681e-14,-1.43125e-14,-55.9402,-80.8358,17.1269,36.8307,-59.9206,-14.7062,0.334263,7.12502,11.4481,-29.3332,5.83681e-14,-1.43125e-14,-53.3352,9.35088,67.6594,47.183,9.66196,-7.20355,53.1313,7.12502,18.675,82.2548,-2.33657,-0.565867,20.1715,27.1265,-18.1853,-21.0322,11.8157,-3.93716,-9.82099,-18.9328,26.1709,-13.2391,3.80106,-15.6374
2.21848,18.4014,45.3935,-4.86226,10.9034,-1.81082,17.0474,-2.80113,-5.44398,-4.73136,-4.68184,2.51344,-14.3281,-1.51479,7.29215,-2.46874,-7.99531,-6.1714,23.6044,-11.7236,5.01856,8.39078,-5.69009,1.72543,1.1455e-14,-8.34896e-15,-52.796,-79.9029,14.103,36.4825,-60.5554,-15.1108,2.81492,7.12502,11.0579,-26.8738,1.1455e-14,-8.34896e-15,-53.6847,9.15276,67.7439,47.1897,9.70977,-7.36647,52.9853,7.12502,18.5183,82.1239,-2.52782,-0.207505,20.5095,27.3886,-18.3233,-21.1406,11.863,-3.8985,-9.6922,-18.6314,26.074,-13.3249,3.51703,-15.348
2.21369,18.4073,45.3837,-4.82807,10.7281,-2.06926,16.9806,-2.76029,-5.25363,-4.28111,-4.54764,2.658,-13.7753,-1.50668,7.27332,-4.62327,-7.76717,-5.77976,24.3758,-11.3483,4.81265,8.98801,-5.43394,1.52596,-2.15184e-14,7.55382e-15,-58.9678,-81.9234,20.263,36.5882,-59.2291,-13.7441,-1.93789,7.12502,12.3758,-31.5516,-2.15184e-14,7.55382e-15,-52.6237,9.61072,67.9143,46.9682,9.63573,-7.44096,52.7985,7.12502,18.4467,81.9438,-2.82969,0.0592046,20.8423,27.6416,-18.465,-21.1623,12.1357,-4.03833,-9.57528,-18.2737,26.0154,-13.4584,2.68575,-13.6502
2.21323,18.4062,45.3637,-4.7452,10.7731,-1.67127,17.3763,-2.72525,-5.48001,-4.52485,-4.6019,2.48982,-14.2945,-1.48153,7.28008,-4.62327,-7.44996,-5.42343,24.7988,-10.9265,4.61072,9.07512,-5.21837,1.44249,6.98231e-15,2.38542e-15,-61.5587,-81.9524,22.7363,36.853,-58.5759,-14.98,2.19035,7.12502,11.1841,-27.4916,6.98231e-15,2.38542e-15,-53.0419,9.33272,67.8583,47.0479,9.72351,-7.63497,52.4831,7.12502,18.26,81.646,-2.99676,-0.216202,20.3406,27.801,-18.3247,-21.0005,11.5242,-4.13875,-9.54016,-18.714,26.007,-13.3449,2.63327,-13.6008
2.20173,18.4023,45.3523,-4.78405,10.5451,-1.49764,17.5125,-2.52954,-5.89473,-4.66574,-4.433,2.59449,-14.5378,-1.3398,7.61546,-4.22176,-7.19991,-5.33652,24.9889,-10.5576,4.3943,9.02764,-5.06429,1.41029,3.54582e-14,-2.22639e-14,-62.1333,-81.7871,23.6189,36.7763,-58.2591,-14.3832,0.398754,7.12502,11.7595,-29.2511,3.54582e-14,-2.22639e-14,-53.4764,9.11002,68.1218,47.1929,9.80394,-7.54551,52.4647,7.12502,18.3461,81.6195,-3.08738,0.134204,20.2656,27.9552,-18.3488,-21.1158,11.5891,-4.07165,-9.40813,-18.8432,26.008,-13.1278,3.43185,-14.4808
2.20266,18.4001,45.3414,-4.7785,10.5177,-1.60263,17.3671,-2.49821,-5.75354,-4.25727,-4.32374,2.69349,-13.9819,-1.34338,7.57532,-5.59108,-7.02422,-5.00984,25.2905,-10.2501,4.14279,9.33756,-4.87905,1.24597,-4.5795e-14,-1.31198e-14,-52.662,-80.6452,13.8579,37.0707,-60.6653,-15.8753,2.06673,7.12502,10.3205,-27.66,-4.5795e-14,-1.31198e-14,-52.6381,9.37363,68.4213,47.1274,9.90519,-7.68773,52.5938,7.12502,18.2093,81.7615,-3.24082,-0.105523,20.3042,28.1305,-18.339,-20.7954,11.8852,-4.04781,-9.38371,-18.7599,25.9378,-12.961,3.92146,-16.1297
2.20524,18.3992,45.333,-4.85557,10.3764,-1.75845,17.3134,-2.49618,-5.54273,-4.0753,-4.25942,2.7308,-13.7552,-1.34878,7.46199,-5.80926,-6.68387,-4.43876,25.2077,-9.75464,3.82387,9.2728,-4.62304,1.09209,-8.69186e-14,2.78299e-15,-53.6675,-81.0205,14.7074,37.2572,-60.7658,-14.062,-1.44177,7.12502,12.0693,-31.0737,-8.69186e-14,2.78299e-15,-52.4026,9.47259,68.4648,47.1353,10.0233,-7.73754,52.6148,7.12502,18.1614,81.787,-3.28835,-0.242242,20.4135,28.237,-18.2928,-20.5494,11.8042,-3.99541,-9.30839,-18.6071,25.9651,-12.9802,3.95612,-15.6518
2.20287,18.4006,45.3263,-4.91538,10.2864,-1.70139,17.783,-2.54865,-5.39576,-4.43629,-4.35223,2.56264,-14.4763,-1.3582,7.27921,-5.10068,-6.42049,-4.43315,25.5062,-9.49022,4.0747,9.24484,-4.48573,1.22867,1.68967e-15,3.77691e-15,-53.2571,-80.4181,13.9355,37.4239,-60.687,-16.0705,2.1941,7.12502,10.1321,-27.5419,1.68967e-15,3.77691e-15,-53.2883,9.09582,68.0968,47.4787,9.96431,-7.29363,53.2477,7.12502,18.5884,82.3795,-3.27574,-0.269866,20.3478,28.2818,-18.2192,-20.4849,11.3955,-3.95815,-9.34678,-18.6878,26.0435,-13.1167,4.07259,-15.2923
2.19683,18.3974,45.3187,-4.95947,10.1466,-1.74012,17.368,-2.41638,-5.67998,-3.89667,-4.169,2.82729,-13.5765,-1.30536,7.6194,-6.20699,-6.3473,-4.68935,25.6368,-9.33103,4.1487,9.50823,-4.40039,1.27106,-4.96962e-16,-7.55382e-15,-57.5734,-82.1859,18.5916,37.2864,-59.753,-15.2623,2.79387,7.12502,10.9117,-26.9026,-4.96962e-16,-7.55382e-15,-52.3099,9.76056,68.4851,47.3745,9.59923,-6.82523,53.4814,7.12502,19.0389,82.5696,-3.32228,-0.187515,20.4197,28.3362,-18.0822,-20.4787,10.89,-4.01277,-9.32151,-18.6273,26.1605,-13.1572,4.1685,-15.1329
2.18653,18.3992,45.3105,-4.87731,9.95001,-1.8166,17.1215,-2.34488,-5.73252,-4.01006,-4.06657,2.8918,-13.5714,-1.24815,7.68282,-5.25721,-6.11632,-4.71152,25.3739,-9.04714,4.27421,9.22835,-4.27983,1.38453,2.45748e-14,-3.29983e-14,-61.054,-82.5104,22.161,37.2618,-58.8712,-13.2866,-1.37755,7.12502,12.8169,-30.9641,2.45748e-14,-3.29983e-14,-52.6406,9.55677,68.5221,47.4214,9.80167,-7.03869,53.4161,7.12502,18.8336,82.5243,-3.51534,0.107863,20.598,28.423,-18.2709,-20.5154,11.9259,-4.20512,-9.19399,-18.4644,26.2396,-13.1009,4.22486,-15.7212
2.18805,18.3984,45.2925,-4.80981,9.94195,-1.88404,17.0162,-2.38581,-5.48598,-3.93472,-4.06357,2.85305,-13.4374,-1.28018,7.48122,-5.47943,-5.97295,-4.5822,25.5171,-8.86901,4.30202,9.30559,-4.17502,1.38314,1.91579e-14,-1.43125e-14,-49.9935,-80.4946,10.4833,37.8355,-61.5178,-14.2204,0.428787,7.12502,11.9165,-29.2121,1.91579e-14,-1.43125e-14,-52.4698,9.60217,68.4618,47.3597,9.65744,-7.01441,53.6452,7.12502,18.857,82.7512,-3.70997,-0.184097,20.5983,28.5513,-18.1793,-20.2221,11.9638,-4.38167,-9.10695,-18.3719,26.3146,-13,4.13832,-15.8618
2.18277,18.3954,45.2804,-4.81973,9.86717,-1.84201,17.0073,-2.36017,-5.52544,-3.80576,-4.03454,2.85175,-13.2832,-1.27622,7.48486,-6.11669,-5.83386,-4.3758,25.9211,-8.66888,4.15996,9.54168,-4.05814,1.29819,-4.52484e-14,1.39149e-14,-50.4897,-80.8803,10.7855,38.0799,-61.378,-12.9291,-3.59281,7.12502,13.1615,-33.1574,-4.52484e-14,1.39149e-14,-52.2301,9.7372,68.4717,47.3454,9.46606,-6.79825,53.9739,7.12502,19.0648,83.0596,-3.8328,-0.181914,20.5545,28.6588,-17.9518,-20.2274,11.2319,-4.39327,-9.11573,-18.4081,26.3306,-13.0846,4.20824,-15.5569
2.17209,18.3938,45.2649,-4.86634,9.68946,-1.74074,17.1684,-2.26887,-5.69477,-3.78236,-3.95742,2.85264,-13.3554,-1.22186,7.57566,-6.02726,-5.66501,-4.11861,25.9523,-8.41514,3.9391,9.50014,-3.93923,1.21038,-4.87022e-14,-1.78906e-14,-53.8919,-81.657,14.132,38.2425,-60.6864,-12.4646,-2.90936,7.12502,13.6093,-32.4445,-4.87022e-14,-1.78906e-14,-52.256,9.80432,68.4504,47.4142,9.29441,-6.78061,53.8072,7.12502,19.0818,82.8912,-3.98486,0.144488,20.5235,28.8367,-17.9948,-20.367,11.2824,-4.34995,-9.07856,-18.4825,26.3042,-13.052,4.33619,-15.5617
2.15987,18.3983,45.2478,-4.73361,9.51229,-1.8128,16.9665,-2.21209,-5.6585,-3.58034,-3.85283,2.89086,-13.015,-1.20089,7.53993,-6.29166,-5.5351,-3.87456,25.8172,-8.21798,3.8139,9.47521,-3.83295,1.14083,3.57315e-14,-1.98785e-15,-61.9659,-83.2242,22.1745,38.2159,-59.2414,-12.761,-2.78104,7.12502,13.3236,-32.3351,3.57315e-14,-1.98785e-15,-51.7712,9.98963,68.4915,47.369,9.12945,-6.63182,53.9312,7.12502,19.2249,83.001,-4.40508,0.488405,20.7069,29.102,-18.1355,-20.5675,11.6598,-4.52379,-8.94308,-18.3025,26.2161,-12.9432,4.33706,-15.541
2.1489,18.3872,45.2293,-4.75389,9.36475,-1.76288,16.9185,-2.15267,-5.72537,-3.21651,-3.77608,2.89656,-12.5718,-1.19593,7.5365,-7.27102,-5.46617,-3.87954,26.0858,-8.12792,3.90284,9.75754,-3.75925,1.1499,4.57702e-14,-7.95139e-15,-73.8386,-84.7523,33.9675,38.1071,-57.57,-12.5813,-4.14152,7.12502,13.4968,-33.6842,4.57702e-14,-7.95139e-15,-51.1221,10.2238,68.6014,47.3516,9.11633,-6.63298,53.7814,7.12502,19.2238,82.8513,-4.55362,0.767727,20.7257,29.2013,-18.1802,-20.6812,11.8572,-4.48514,-8.802,-18.3273,26.2398,-12.9513,4.5415,-17.2867
2.13849,18.3568,45.216,-4.85721,9.25385,-1.96067,16.9283,-2.13798,-5.54277,-3.10327,-3.70516,2.97163,-12.4635,-1.18213,7.49209,-7.47892,-5.38992,-3.95502,26.3627,-8.01617,3.90618,9.89559,-3.70636,1.16855,2.83268e-15,1.51076e-14,-56.0916,-83.1355,15.8606,38.3152,-59.7181,-12.6478,-0.162837,7.12502,13.4327,-29.7097,2.83268e-15,1.51076e-14,-51.0385,10.2183,68.6882,47.3399,9.16551,-6.54643,53.9753,7.12502,19.307,83.0369,-4.52264,1.0048,21.0228,29.23,-18.2164,-20.7596,12.3245,-4.2672,-8.31529,-18.0868,26.2824,-13.1035,4.45899,-21.884
2.12954,18.388,45.2046,-4.96354,9.08117,-1.96217,17.0714,-2.05013,-5.61116,-3.1038,-3.60204,3.03127,-12.5588,-1.11954,7.58514,-7.13724,-5.32867,-4.07815,26.3917,-7.92525,3.93247,9.84288,-3.67907,1.21887,-1.56543e-14,-1.35174e-14,-50.2537,-82.0207,9.78323,38.7312,-60.9323,-11.8547,-3.8443,7.12502,14.197,-33.3391,-1.56543e-14,-1.35174e-14,-51.0669,10.0499,68.8794,47.2137,9.32824,-6.60934,54.2063,7.12502,19.2465,83.2739,-4.39956,1.31601,21.1139,29.1599,-18.2568,-20.8262,13.0757,-4.50556,-8.73477,-18.0332,26.3534,-13.139,3.59326,-15.3438
2.12211,18.4019,45.1945,-5.02564,8.84919,-1.93868,17.0877,-1.94912,-5.6315,-3.05345,-3.4681,3.05278,-12.5305,-1.05705,7.58526,-6.96317,-5.2534,-4.00811,26.4373,-7.79527,3.77736,9.8098,-3.63068,1.17314,-3.03147e-15,-3.57812e-15,-55.206,-82.9915,14.7484,38.8439,-59.8761,-11.9171,-3.71239,7.12502,14.1369,-33.2114,-3.03147e-15,-3.57812e-15,-50.9685,9.92182,69.009,47.0354,9.43311,-6.8361,54.282,7.12502,19.0285,83.3713,-4.34561,1.62805,21.1602,29.0601,-18.2043,-20.8841,13.46,-4.5265,-8.8726,-18.0384,26.3732,-13.1084,3.69187,-13.4019
2.11785,18.4026,45.1873,-5.0238,8.71181,-1.94333,17.0265,-1.94028,-5.57493,-3.09633,-3.4412,3.05651,-12.5511,-1.04635,7.54791,-6.59344,-5.09276,-3.92001,26.4905,-7.5883,3.753,9.74345,-3.53464,1.18377,-2.23633e-15,-1.31198e-14,-55.0379,-83.0018,14.365,39.2002,-59.5341,-11.2394,-5.59133,7.12502,14.7899,-35.0436,-2.23633e-15,-1.31198e-14,-51.1446,9.84243,69.0004,47.0245,9.46513,-6.97775,54.0554,7.12502,18.8922,83.158,-4.31135,1.62446,21.1653,28.8549,-18.0528,-20.7799,13.4513,-4.53355,-8.88553,-18.0388,26.4066,-12.8943,4.58402,-15.1433
2.11065,18.4008,45.179,-5.08351,8.53748,-2.00141,16.9886,-1.93018,-5.49685,-3.01494,-3.40711,3.05653,-12.444,-1.0447,7.48585,-6.63196,-5.00154,-3.92911,26.6308,-7.48713,3.84299,9.80071,-3.4768,1.22608,7.57867e-15,-1.59028e-15,-45.4532,-81.1117,4.29753,39.5524,-61.7122,-12.8879,-4.19074,7.12502,13.2013,-33.7528,7.57867e-15,-1.59028e-15,-51.0783,9.89155,68.9079,46.9435,9.44935,-6.88261,53.8401,7.12502,18.9837,82.9337,-4.28373,1.82638,21.272,28.7568,-17.9288,-20.8319,13.4568,-4.43435,-8.78754,-17.9528,26.3979,-12.8498,4.99956,-15.209
2.10492,18.4027,45.1662,-5.15373,8.32454,-1.92951,17.1437,-1.87738,-5.60762,-2.92663,-3.36225,3.09062,-12.4337,-1.01619,7.58376,-6.88671,-4.90926,-3.94638,26.8702,-7.33709,3.76374,9.9267,-3.41004,1.21015,2.8948e-14,3.18055e-15,-52.4506,-83.1175,11.2621,39.8219,-59.6419,-11.344,-6.51921,7.12502,14.6891,-35.9788,2.8948e-14,3.18055e-15,-51.0191,10.0183,68.9216,46.9128,9.49028,-6.94915,53.8766,7.12502,18.9197,82.9764,-4.29909,2.03366,21.2258,28.6616,-17.509,-20.9507,12.7988,-4.37789,-8.81219,-18.0365,26.4373,-12.9026,5.28126,-15.1554
2.09978,18.4053,45.1521,-5.15928,8.13843,-2.2025,17.2389,-1.90966,-5.33269,-2.96347,-3.33595,3.2047,-12.544,-1.01118,7.5582,-6.96618,-4.80272,-3.87405,27.3306,-7.16389,3.55279,10.0904,-3.33937,1.13997,-1.46107e-14,-2.66371e-14,-46.0817,-82.0929,4.52015,40.2335,-60.6227,-12.1224,-5.57891,7.12502,13.939,-35.0917,-1.46107e-14,-2.66371e-14,-51.1836,10.1717,68.8783,46.9585,9.42797,-7.11613,54.1047,7.12502,18.7591,83.2201,-4.38748,2.29053,21.576,28.5474,-17.2388,-21.1406,12.4526,-4.5425,-8.67319,-17.6891,26.5229,-12.8544,5.26339,-15.0236
2.09483,18.409,45.1414,-5.16966,8.04147,-2.48678,17.287,-1.95076,-5.0183,-3.14802,-3.31161,3.32073,-12.7995,-0.998392,7.51891,-6.5158,-4.69457,-3.81587,27.8464,-6.99583,3.31645,10.1736,-3.28407,1.07647,-2.7159e-14,4.6118e-14,-42.352,-80.7922,0.548485,40.3881,-61.3332,-11.8411,-5.23115,7.12502,14.2101,-34.7251,-2.7159e-14,4.6118e-14,-51.5863,10.2689,68.7604,46.8299,9.19989,-6.84545,54.0955,7.12502,19.0195,83.1856,-4.40235,2.405,21.9234,28.4186,-17.1613,-21.2135,12.6732,-4.7091,-8.69967,-17.3628,26.667,-12.795,5.40572,-15.1677
2.08924,18.4059,45.1281,-5.18231,7.87888,-2.42213,17.3679,-1.88864,-5.00128,-3.39013,-3.23119,3.31826,-13.1442,-0.936216,7.50802,-5.62116,-4.6144,-3.90932,28.1536,-6.88797,3.24294,10.1102,-3.26345,1.10131,-2.78299e-14,-2.70347e-14,-49.0351,-82.2158,7.27322,40.5912,-58.988,-10.2975,-6.99855,7.12502,15.6972,-36.3819,-2.78299e-14,-2.70347e-14,-52.1394,10.1506,68.733,46.7904,9.17264,-6.90294,53.6222,7.12502,18.9642,82.7177,-4.36998,2.5676,21.8783,28.2752,-17.1265,-21.1489,13.2161,-4.81676,-8.61744,-17.4145,26.853,-12.8692,5.52679,-15.5596
2.08403,18.4011,45.1158,-5.26034,7.61831,-2.50151,17.3824,-1.84448,-4.97098,-2.85151,-3.13901,3.47769,-12.5342,-0.935536,7.61352,-7.61301,-4.60424,-3.97403,28.8754,-6.77942,3.05302,10.7597,-3.2025,1.00179,1.46107e-14,-2.14687e-14,-41.2201,-81.8761,-0.901805,41.0997,-60.4999,-11.8869,-5.7803,7.12502,14.166,-35.2773,1.46107e-14,-2.14687e-14,-51.1701,10.8818,68.9954,46.6637,9.13043,-7.04685,53.5604,7.12502,18.8258,82.6694,-4.28553,2.84216,22.0136,28.1661,-17.1274,-21.1237,13.6717,-4.84249,-8.53745,-17.3319,27.0126,-12.8691,5.79718,-16.6821
2.07981,18.3992,45.1038,-5.40893,7.40655,-2.69154,17.4854,-1.81313,-4.768,-2.70741,-3.03919,3.59899,-12.4478,-0.906006,7.60688,-7.98762,-4.57597,-3.90052,29.2387,-6.66411,2.73118,10.952,-3.16973,0.8762,-2.5022e-14,-1.47101e-14,-42.2573,-82.8494,-0.0814259,41.5812,-59.6435,-13.2437,-4.45911,7.12502,12.8582,-34.043,-2.5022e-14,-1.47101e-14,-51.0321,11.2453,69.0441,46.5792,8.95836,-6.94908,53.75,7.12502,18.9198,82.8498,-4.12517,3.00283,22.25,28.0945,-17.2124,-21.0126,14.4774,-4.77015,-8.5246,-17.1498,27.1208,-12.851,6.04807,-16.8976
2.07531,18.3989,45.0892,-5.5045,7.20069,-2.84932,17.5859,-1.78446,-4.62257,-2.67885,-2.95785,3.70988,-12.4883,-0.871397,7.63389,-7.94172,-4.50184,-3.83206,29.506,-6.50524,2.46201,11.0259,-3.11952,0.786708,4.20927e-14,-3.02153e-14,-35.013,-80.3431,-7.58476,41.8761,-62.1231,-13.1521,-3.95473,7.12502,12.9466,-33.5331,4.20927e-14,-3.02153e-14,-51.0721,11.5255,68.9836,46.4795,8.55381,-6.63776,53.8607,7.12502,19.2192,82.931,-4.05811,3.12557,22.4509,28.0411,-17.1616,-20.9337,14.3323,-4.73548,-8.34507,-16.9635,27.204,-12.8374,6.03795,-16.5783
2.07558,18.3981,45.0719,-5.49125,7.05163,-2.77801,17.5467,-1.77019,-4.55815,-2.57585,-2.92546,3.68428,-12.3556,-0.87199,7.5488,-8.32338,-4.45079,-3.68575,29.9642,-6.42498,2.31612,11.2648,-3.07515,0.706395,-3.2054e-14,2.18663e-14,-36.5974,-81.6882,-6.31073,42.3305,-60.9272,-12.414,-4.81183,7.12502,13.658,-34.3437,-3.2054e-14,2.18663e-14,-50.8935,11.6336,68.9616,46.3685,8.42687,-6.37576,54.0222,7.12502,19.4711,83.0673,-4.11833,3.13221,22.3338,28.0554,-17.2091,-20.6175,14.647,-4.77329,-8.3794,-17.0585,27.2364,-12.8065,6.12675,-16.1033
2.07932,18.3968,45.0509,-5.39696,7.1123,-2.6222,17.4019,-1.84282,-4.5133,-2.52957,-3.01173,3.65272,-12.2067,-0.92679,7.49504,-8.61637,-4.39549,-3.73394,30.4951,-6.33701,2.27661,11.529,-3.0374,0.700712,-1.00635e-14,-1.27222e-14,-36.5274,-82.1994,-6.66842,42.7626,-60.5591,-12.0434,-6.56508,7.12502,14.0151,-36.0726,-1.00635e-14,-1.27222e-14,-50.7824,11.6223,69.0814,46.1714,8.58763,-6.52864,54.0289,7.12502,19.3241,83.0888,-4.27831,2.88939,22.074,28.0908,-17.0745,-20.3354,15.1367,-4.93108,-8.39387,-17.251,27.2789,-12.6803,6.12956,-16.5325
2.07532,18.3943,45.0276,-5.29593,7.02945,-2.53802,17.4075,-1.84872,-4.51538,-2.59223,-3.01668,3.68577,-12.2797,-0.921966,7.53986,-8.71662,-4.35012,-3.6411,31.0498,-6.1941,1.89518,11.7463,-3.00321,0.55644,2.61402e-14,6.36111e-15,-31.4985,-79.7572,-11.9955,43.0508,-62.8624,-14.8721,-2.92407,7.12502,11.2881,-32.6003,2.61402e-14,6.36111e-15,-50.8034,11.6348,69.1812,45.9182,8.65727,-6.40308,53.9829,7.12502,19.4448,83.0307,-4.49255,2.89336,21.9687,28.149,-17.0187,-20.2551,15.0382,-5.12258,-8.51057,-17.3502,27.3246,-12.5453,6.31033,-16.9835
2.06802,18.3939,45.0082,-5.39821,6.74198,-2.8386,17.6105,-1.82239,-4.17705,-2.64767,-2.89717,3.8084,-12.4913,-0.871447,7.47188,-8.52885,-4.29425,-3.49132,31.5287,-6.03875,1.47341,11.873,-2.96677,0.395532,1.56046e-14,1.07344e-14,-32.2178,-80.6453,-11.3791,42.9846,-61.7584,-12.4828,-4.32198,7.12502,13.5917,-33.8583,1.56046e-14,1.07344e-14,-51.0028,11.5107,69.2971,45.825,8.85424,-6.51013,53.9646,7.12502,19.3419,83.0227,-4.6209,3.13443,22.3558,28.3161,-16.853,-20.3076,14.3566,-5.10432,-8.41273,-16.9773,27.3204,-12.4317,6.33836,-16.4681
2.07222,18.3925,44.9867,-5.32427,6.61095,-2.93989,17.5558,-1.84264,-3.9087,-2.70023,-2.8556,3.86713,-12.5352,-0.865516,7.37177,-8.23607,-4.2288,-3.35967,31.9712,-5.86155,1.04553,11.9655,-2.92468,0.239925,-3.67255e-14,7.95139e-15,-30.4882,-79.1293,-13.6318,44.052,-63.1352,-14.1541,-3.12133,7.12502,11.9805,-32.7585,-3.67255e-14,7.95139e-15,-51.1516,11.3884,69.4388,45.8968,8.90147,-6.58363,53.8634,7.12502,19.2712,82.9285,-4.84776,3.02377,22.4096,28.414,-16.6587,-20.2046,13.7639,-5.24292,-8.4244,-16.8813,27.374,-12.4566,6.4978,-16.3853
2.08613,18.3836,44.9652,-5.0608,6.67129,-2.35957,17.1272,-1.86381,-4.12473,-2.5921,-2.94351,3.67848,-12.144,-0.923764,7.26484,-8.38861,-4.25932,-3.33229,32.4128,-5.85684,0.843213,12.1689,-2.93992,0.151199,3.28492e-14,-4.77083e-15,-31.4128,-80.9316,-12.73,43.844,-61.5852,-13.9492,-1.85054,7.12502,12.1781,-31.4761,3.28492e-14,-4.77083e-15,-50.951,11.3965,69.5747,46.0343,9.03466,-6.84531,53.6166,7.12502,19.0196,82.7067,-5.15087,2.4594,21.576,28.4921,-16.4676,-19.5936,13.2198,-5.44651,-8.51434,-17.6051,27.3681,-12.437,6.64681,-16.436
2.08121,18.3868,44.9545,-5.1565,6.39125,-2.54018,16.9516,-1.84955,-3.88579,-2.37568,-2.86011,3.74456,-11.813,-0.920224,7.15292,-8.70506,-4.33452,-3.40151,32.9325,-5.92661,0.738525,12.4511,-2.98685,0.0993079,-1.71452e-15,1.90833e-14,-27.0632,-77.6005,-17.7454,44.603,-65.0449,-15.6079,0.494523,7.12502,10.5784,-29.2193,-1.71452e-15,1.90833e-14,-50.71,11.5327,69.6395,46.0492,9.09591,-7.28207,53.677,7.12502,18.5995,82.8078,-5.20212,2.68884,21.8237,28.6196,-16.329,-19.6988,12.6753,-5.32067,-8.54197,-17.3962,27.243,-12.4336,6.83781,-15.9454
2.07372,18.3944,44.9404,-5.24643,6.1796,-2.38071,17.0086,-1.80942,-4.06077,-2.22427,-2.84861,3.71487,-11.6689,-0.91459,7.21214,-8.86559,-4.30741,-3.10832,33.1898,-5.84635,0.40243,12.5658,-2.95478,-0.0758077,5.97348e-14,2.14687e-14,-27.042,-80.1295,-17.9792,44.6973,-62.7392,-14.751,0.273456,7.12502,11.4049,-29.3964,5.97348e-14,2.14687e-14,-50.5126,11.6129,69.6553,46.083,9.1422,-7.37655,53.7888,7.12502,18.5086,82.9283,-5.28416,2.94526,21.7014,28.8066,-16.3371,-19.7238,12.7491,-5.14171,-8.63905,-17.5755,27.0302,-12.2189,7.08185,-15.094
2.09763,18.3944,44.9179,-5.15162,6.22269,-1.7866,17.07,-1.87857,-4.20122,-2.21861,-2.99749,3.50053,-11.68,-0.983978,7.09257,-8.60832,-4.3087,-2.98575,33.1603,-5.7954,0.131913,12.4832,-2.95424,-0.185262,1.62506e-14,-3.10104e-14,-24.8183,-79.2046,-20.621,45.1022,-63.4674,-17.2999,3.62472,7.12502,8.94599,-26.1656,1.62506e-14,-3.10104e-14,-50.5281,11.8081,69.6402,46.121,9.02431,-7.24506,53.7837,7.12502,18.6351,82.9111,-5.46819,2.30344,20.7783,28.9571,-16.2779,-18.9224,12.7032,-5.07386,-8.8,-18.3958,26.8541,-12.0781,7.34636,-15.3808
2.0993,18.3963,44.9031,-5.16652,5.77799,-1.63205,17.1533,-1.77357,-4.23827,-2.32853,-2.86907,3.49066,-11.8725,-0.908872,7.08326,-7.89248,-4.32909,-3.17034,33.2707,-5.79669,0.0791998,12.385,-2.991,-0.155435,-4.12478e-15,-1.19271e-14,-24.696,-80.3429,-20.9222,45.4141,-62.2652,-15.4406,1.89767,7.12502,10.7398,-27.8078,-4.12478e-15,-1.19271e-14,-50.8844,11.7564,69.6658,46.1945,8.91145,-7.05157,53.6927,7.12502,18.8212,82.8021,-5.70747,2.51724,20.6039,29.2145,-16.1486,-18.7998,11.9109,-4.91565,-8.64586,-18.5792,26.6762,-12.0556,7.64165,-15.5454
2.10552,18.3939,44.8752,-5.0722,5.59052,-1.42382,17.3426,-1.7488,-4.26071,-2.56592,-2.84778,3.48876,-12.2585,-0.871891,7.1174,-7.14441,-4.38463,-3.52571,33.5729,-5.82575,0.027051,12.3689,-3.0609,-0.101793,-3.68994e-14,4.92986e-14,-25.1623,-81.4673,-20.5624,45.7059,-60.7982,-16.4111,4.13478,7.12502,9.80353,-25.617,-3.68994e-14,4.92986e-14,-51.4101,11.8021,69.6699,46.3086,8.73975,-6.88629,53.6461,7.12502,18.9802,82.74,-6.0497,2.3334,20.2844,29.5201,-16.2866,-18.3821,12.0838,-4.96304,-8.49137,-18.8297,26.5381,-11.8993,7.81825,-16.4195
2.10586,18.3858,44.8522,-5.0258,5.41976,-1.22036,17.5005,-1.69361,-4.37166,-2.82922,-2.80367,3.49793,-12.6574,-0.815512,7.20888,-6.02285,-4.4485,-3.95871,33.692,-5.91171,0.107716,12.2096,-3.15366,0.0222676,-8.79622e-15,9.54166e-15,-24.2614,-76.4967,-21.777,45.9213,-64.8615,-16.306,1.56083,7.12502,9.90493,-28.1862,-8.79622e-15,9.54166e-15,-51.9404,11.6625,69.7303,46.2979,8.63554,-6.86569,53.367,7.12502,19,82.459,-6.30556,2.26877,20.0249,29.7264,-16.2934,-18.1415,12.2963,-5.01561,-8.37948,-19.0419,26.4951,-11.8007,7.88494,-16.2696
2.10249,18.3848,44.8372,-5.07729,5.24952,-1.08541,17.6768,-1.66611,-4.44208,-2.972,-2.78673,3.5174,-12.9264,-0.783254,7.28963,-5.06801,-4.518,-4.31317,33.6699,-5.99934,0.12424,12.0231,-3.24429,0.106267,5.31749e-15,-1.03368e-14,-24.3859,-76.8732,-21.9317,46.6217,-64.1439,-15.7235,-0.789074,7.12502,10.4669,-30.5085,5.31749e-15,-1.03368e-14,-52.3352,11.5482,69.7961,46.244,8.61013,-6.88771,52.8857,7.12502,18.9788,81.9798,-6.41525,2.38855,19.897,29.8651,-16.106,-18.14,11.7076,-4.99593,-8.11221,-19.1462,26.4972,-11.7128,7.73017,-16.0474
2.09529,18.3904,44.8237,-5.24297,5.03053,-1.05858,17.861,-1.66628,-4.51867,-2.81506,-2.80381,3.5617,-12.8451,-0.790737,7.39279,-5.1637,-4.58907,-4.43202,33.9926,-6.08069,0.090307,12.1836,-3.30013,0.0958735,2.79292e-14,1.82882e-14,-22.7681,-75.5023,-24.0392,47.0039,-65.6634,-15.2676,-1.9107,7.12502,10.9067,-31.6074,2.79292e-14,1.82882e-14,-52.3023,11.6644,69.8402,46.2815,8.6788,-6.96598,52.6956,7.12502,18.9035,81.797,-6.38146,2.60317,19.9237,29.9385,-15.8964,-18.2118,11.363,-4.87895,-7.84745,-19.1322,26.5526,-11.7031,7.6615,-15.9877
2.0897,18.3885,44.8082,-5.36291,4.83038,-1.10827,17.8314,-1.68128,-4.50406,-2.6806,-2.81153,3.62066,-12.6682,-0.805388,7.44291,-4.82944,-4.72268,-4.57361,34.0176,-6.23673,-0.0231593,12.1328,-3.40552,0.0678169,-2.20154e-14,-1.90833e-14,-22.0617,-74.4749,-25.1635,47.3124,-66.9047,-16.076,-1.59017,7.12502,10.1269,-31.3265,-2.20154e-14,-1.90833e-14,-52.3218,11.6741,69.908,46.3923,8.93824,-7.13786,52.9415,7.12502,18.7382,82.059,-6.3752,2.70308,20.0105,30.0025,-15.8259,-18.1473,11.6209,-4.83409,-7.60349,-19.0347,26.6145,-11.6927,7.60874,-16.5646
2.08581,18.3836,44.7876,-5.46063,4.51875,-1.2121,17.8471,-1.6678,-4.42892,-2.34755,-2.76226,3.72781,-12.2984,-0.810429,7.48807,-5.351,-4.88386,-4.51043,34.1886,-6.35559,-0.366523,12.2997,-3.48797,-0.106673,2.65129e-14,-1.90833e-14,-19.9814,-74.5121,-27.4147,47.1515,-67.1172,-15.2235,-2.69797,7.12502,10.9492,-32.3925,2.65129e-14,-1.90833e-14,-51.7994,11.9566,70.0443,46.4629,9.06654,-7.13924,53.4087,7.12502,18.7369,82.5263,-6.42707,2.71897,20.1314,30.0536,-15.6793,-17.8009,11.0034,-4.85231,-7.25346,-18.8527,26.7334,-11.7274,7.53073,-16.0908
2.07783,18.3782,44.7716,-5.51062,4.16618,-1.20028,17.6961,-1.66087,-4.5911,-1.65403,-2.76775,3.85001,-11.4027,-0.861658,7.66716,-7.33847,-5.09804,-4.39134,34.7167,-6.46741,-0.804267,12.9217,-3.55962,-0.386023,7.95139e-16,1.66979e-14,-15.5528,-75.0937,-32.4693,48.1814,-67.1598,-14.9329,-5.18077,7.12502,11.2295,-34.8602,7.95139e-16,1.66979e-14,-50.4786,12.7698,70.1885,46.2662,8.97042,-6.93056,53.4965,7.12502,18.9376,82.5946,-6.62007,2.92616,20.1691,30.2988,-15.6697,-17.6718,11.0059,-4.84841,-6.77295,-18.7816,26.8042,-11.7373,7.44383,-16.3647
2.06571,18.3733,44.7615,-5.6694,3.8309,-1.3354,17.5111,-1.62532,-4.53366,-1.28492,-2.6913,3.94304,-10.8877,-0.862052,7.68321,-8.03657,-5.41079,-4.61742,35.2339,-6.81453,-0.950919,13.3117,-3.75445,-0.489951,7.92033e-15,-9.54166e-15,-15.0569,-73.0744,-33.4647,48.6408,-69.043,-14.3629,-6.94206,7.12502,11.7792,-36.5908,7.92033e-15,-9.54166e-15,-50.012,12.9675,70.3371,46.2813,8.94049,-6.72345,53.6593,7.12502,19.1368,82.7378,-6.68247,3.32495,20.4291,30.537,-15.7378,-17.7287,11.531,-4.86645,-6.4162,-18.545,27.119,-11.9175,7.45087,-16.1719
2.0804,18.3619,44.7407,-5.64656,4.02398,-0.596044,17.351,-1.66136,-4.84342,-1.25348,-2.82907,3.67441,-10.7369,-0.927818,7.58001,-7.4271,-5.77478,-5.05638,35.3769,-7.29737,-0.96085,13.2804,-4.03083,-0.467935,1.44119e-14,-1.51076e-14,-15.237,-73.5048,-33.4562,48.7438,-68.6586,-15.187,-3.95365,7.12502,10.9844,-33.6463,1.44119e-14,-1.51076e-14,-50.042,12.7813,70.4733,46.4502,8.99725,-6.98823,53.5826,7.12502,18.8821,82.6861,-6.91275,2.54311,19.3709,30.9468,-15.9851,-16.9287,11.8541,-4.88012,-6.36237,-19.4528,27.0837,-11.7934,7.36783,-16.1558
2.06634,18.3595,44.665,-5.4638,3.48846,-1.45674,17.6218,-1.59868,-3.99184,-1.37168,-2.53688,3.98831,-11.0943,-0.807182,7.39355,-6.38324,-6.07205,-5.68353,35.1895,-7.71189,-0.837901,13.0311,-4.28947,-0.325733,-5.11249e-15,1.59028e-15,-14.6121,-74.5821,-34.215,48.9672,-67.5127,-14.166,-5.3985,7.12502,11.969,-35.0363,-5.11249e-15,1.59028e-15,-50.1122,12.7721,70.5949,46.6059,8.94406,-7.23897,53.4355,7.12502,18.641,82.5623,-7.70562,3.20577,20.4933,31.1798,-15.7124,-17.262,11.6937,-5.65147,-5.93607,-18.2676,27.3998,-11.5954,7.27707,-16.0578
2.0676,18.3599,44.6946,-5.99151,3.40648,-0.206241,17.0986,-1.46851,-5.08395,-0.846567,-2.61859,3.59938,-10.1627,-0.857229,7.5424,-5.71471,-6.39672,-6.06171,34.953,-8.18949,-0.740527,12.832,-4.5432,-0.255202,7.47384e-15,1.98785e-14,-14.9987,-73.5458,-34.2518,49.3902,-68.148,-14.3622,-6.97725,7.12502,11.7799,-36.626,7.47384e-15,1.98785e-14,-49.8409,12.629,70.7025,46.7307,9.0647,-7.18855,53.3672,7.12502,18.6895,82.4894,-7.10679,2.7951,19.0115,31.5401,-15.9333,-16.6162,11.1785,-4.76211,-5.70891,-19.79,27.3491,-11.7369,7.42558,-16.3078
2.04903,18.3595,44.6357,-5.8115,3.04074,-1.25194,17.5169,-1.52039,-4.18911,-0.946969,-2.4755,3.96934,-10.5572,-0.803553,7.43841,-5.66668,-6.71981,-6.15737,35.1873,-8.56338,-1.0503,12.9273,-4.76097,-0.412677,-2.44039e-14,-8.74653e-15,-15.8096,-71.1029,-34.0195,49.7719,-69.6607,-15.8612,-3.09107,7.12502,10.3341,-32.8172,-2.44039e-14,-8.74653e-15,-49.8126,12.8219,70.6369,46.6853,8.97366,-7.23817,53.0551,7.12502,18.6417,82.1819,-7.76737,3.5141,20.3583,31.7163,-15.7833,-17.0258,12.6292,-5.39614,-5.35094,-18.4199,27.5052,-11.3315,7.31938,-17.0645
2.06262,18.3541,44.6492,-6.05087,3.17496,-0.419887,17.5068,-1.6339,-4.78632,-0.688378,-2.77612,3.74295,-10.1983,-0.945717,7.58857,-5.94913,-7.06701,-6.33862,35.478,-8.94181,-1.34634,13.1237,-4.9865,-0.570764,-2.60222e-14,3.89618e-14,-14.8521,-70.4311,-35.257,49.9201,-69.6608,-17.4481,-0.196678,7.12502,8.80294,-29.9931,-2.60222e-14,3.89618e-14,-49.6617,13.1032,70.5755,46.603,8.96213,-7.3941,52.9223,7.12502,18.4918,82.0634,-7.59679,2.79959,19.2372,32.2438,-16.1093,-16.2112,12.7317,-4.76206,-5.14373,-19.4711,27.1037,-11.1792,7.25536,-17.3455
2.06253,18.3461,44.647,-6.35816,3.03305,-0.181581,17.7894,-1.68986,-4.94146,-0.540482,-2.89933,3.67797,-10.1692,-1.00316,7.64732,-5.90132,-7.38643,-6.485,35.783,-9.3226,-1.60748,13.2566,-5.20836,-0.708685,-4.64846e-14,1.35174e-14,-14.6292,-70.198,-35.8315,50.1599,-69.321,-15.7492,-1.3279,7.12502,10.4421,-31.0486,-4.64846e-14,1.35174e-14,-49.6903,13.1745,70.4836,46.599,8.97403,-7.414,52.972,7.12502,18.4726,82.1149,-7.40189,2.55385,18.9121,32.5725,-16.2922,-15.7037,12.9714,-4.41576,-4.76576,-19.7416,27.2013,-11.318,7.12223,-17.3619
2.10556,18.3273,44.5968,-6.01018,3.67457,1.52548,17.9719,-1.80205,-5.74476,-0.734588,-3.29807,3.02591,-10.421,-1.15097,7.50185,-5.27627,-7.84708,-6.66665,35.8297,-9.98134,-1.7356,13.1723,-5.54496,-0.787534,-1.02685e-13,5.40694e-14,-16.1796,-70.1775,-34.6233,50.5261,-69.081,-14.4646,-3.38282,7.12502,11.6811,-33.0372,-1.02685e-13,5.40694e-14,-49.6481,12.9546,70.5152,46.7801,8.92259,-7.15566,53.1154,7.12502,18.7211,82.2346,-7.99933,0.691211,16.4085,33.0943,-16.1353,-14.159,12.4141,-4.7396,-4.80532,-21.9094,27.097,-11.0591,7.00529,-18.5453
2.08984,18.3315,44.5679,-5.92041,3.39162,0.820299,17.649,-1.788,-5.00076,-0.58584,-3.08444,3.21878,-10.1316,-1.10353,7.20321,-4.67831,-8.32676,-6.94771,35.7009,-10.6883,-1.71982,13.0376,-5.89654,-0.793445,-2.52705e-14,3.89618e-14,-17.6015,-70.2237,-33.5019,51.0114,-68.9023,-14.7509,-2.71186,7.12502,11.405,-32.3817,-2.52705e-14,3.89618e-14,-49.3407,12.8221,70.6501,46.9621,8.78603,-7.3673,53.0286,7.12502,18.5175,82.1672,-8.48779,1.27357,17.3631,33.3995,-16.1437,-14.5672,12.7792,-5.18407,-4.26024,-20.9537,27.3525,-10.9362,6.70205,-19.708
2.07456,18.3296,44.5326,-5.80443,3.24604,0.554293,17.0847,-1.73307,-4.64929,-0.203079,-2.9096,3.27262,-9.42617,-1.08137,6.95723,-4.37501,-8.93005,-7.30232,35.4725,-11.6154,-1.46761,12.9564,-6.32027,-0.739031,-2.47735e-14,3.97569e-15,-18.5018,-70.8128,-32.7954,51.2184,-68.211,-13.7017,-4.21418,7.12502,12.4167,-33.8254,-2.47735e-14,3.97569e-15,-48.4773,12.845,70.7963,46.9213,8.67122,-8.28257,51.7792,7.12502,17.6369,80.9993,-8.99777,1.61043,17.7839,33.7199,-15.9583,-14.8891,12.2959,-5.70758,-3.81403,-20.5066,27.683,-10.864,6.37226,-20.4269
2.05786,18.3246,44.4975,-5.75405,3.13353,0.322027,17.4311,-1.69438,-4.40158,-0.40883,-2.80942,3.37812,-9.87236,-1.01601,6.94283,-3.32765,-9.39454,-8,35.3912,-12.404,-1.08754,12.8311,-6.72688,-0.52739,1.9456e-14,-4.45278e-14,-20.6424,-70.7557,-30.8937,51.8241,-67.2166,-16.5514,2.18049,7.12502,9.66815,-27.5776,1.9456e-14,-4.45278e-14,-48.6787,12.6624,70.7795,47.0272,8.59531,-8.88511,50.7423,7.12502,17.057,80.0135,-9.2565,1.98179,18.1713,33.7273,-15.6042,-15.2501,10.9479,-6.22952,-3.5118,-20.1231,28.2355,-10.9055,6.18505,-20.5898
2.04505,18.3149,44.4679,-5.9408,3.03816,0.321359,17.9368,-1.65837,-4.35605,-0.441061,-2.76888,3.36404,-10.2041,-0.982081,6.92711,-2.60227,-9.83899,-8.31233,35.3495,-13.1272,-0.94539,12.7408,-7.08159,-0.474993,1.05356e-14,7.95139e-16,-22.5123,-71.424,-29.1861,52.0353,-65.9763,-16.6949,3.73451,7.12502,9.52973,-26.03,1.05356e-14,7.95139e-16,-48.7819,12.4232,70.7285,47.2547,8.67584,-8.87631,50.3718,7.12502,17.0655,79.6422,-9.18069,2.24718,18.2606,33.6988,-15.436,-15.4018,10.9631,-6.42285,-3.16804,-20.0497,28.7901,-10.9508,6.08351,-20.8518
2.02408,18.3179,44.4435,-6.12399,2.97198,0.0815859,18.5253,-1.60602,-4.25502,-0.567979,-2.67967,3.5078,-10.692,-0.913109,7.055,-1.92908,-10.286,-8.4593,35.439,-13.7538,-1.19338,12.6685,-7.41813,-0.585905,-2.60905e-15,1.51076e-14,-24.8641,-71.9027,-26.7788,52.1844,-64.7457,-12.0327,-2.08922,7.12502,14.0255,-31.596,-2.60905e-15,1.51076e-14,-48.9865,12.2302,70.7431,47.3477,8.7562,-8.8833,50.0476,7.12502,17.0588,79.3186,-9.13048,2.6543,18.6648,33.7683,-15.5999,-15.659,12.389,-6.57206,-2.82714,-19.6774,29.1777,-10.9424,5.90415,-21.4864
1.98443,18.3132,44.4259,-6.44852,2.71437,-0.828505,18.3228,-1.56609,-3.75231,0.104653,-2.47187,3.90135,-9.85739,-0.883087,7.1008,-2.36987,-10.8121,-8.27013,35.2608,-14.4018,-1.49639,12.6639,-7.70461,-0.831559,7.42958e-15,2.22639e-14,-25.2737,-71.357,-26.4136,52.377,-65.1062,-13.8566,-0.375772,7.12502,12.2674,-29.996,7.42958e-15,2.22639e-14,-47.9723,12.5789,70.9321,47.3826,8.78883,-8.9813,50.1175,7.12502,16.9644,79.3967,-8.97116,3.54659,20.0037,33.8197,-15.7092,-16.3261,13.747,-6.6323,-2.42802,-18.4426,29.5509,-10.9756,5.65991,-21.9111
2.00427,18.2987,44.3854,-6.1594,3.52649,0.196256,17.9864,-1.79395,-4.23558,0.66752,-2.89777,3.60092,-8.97314,-1.12641,7.09532,-3.53937,-11.3862,-8.26814,35.2233,-15.1549,-1.45905,12.9208,-8.00263,-1.00482,4.47266e-15,-1.82882e-14,-24.9385,-71.3375,-26.8097,52.8876,-65.2733,-13.2356,-0.167296,7.12502,12.8661,-29.7507,4.47266e-15,-1.82882e-14,-46.686,13.2094,71.1056,47.5763,8.78405,-8.91924,50.1369,7.12502,17.0242,79.4109,-9.18564,2.24174,18.51,33.7328,-15.6042,-15.6647,13.2004,-7.36946,-2.6903,-19.761,30.0984,-10.8998,5.44282,-22.2536
2.0194,18.2957,44.3326,-5.95887,4.07833,0.563848,18.1479,-1.79226,-3.74541,-0.55518,-2.81908,3.37855,-10.4717,-1.02276,6.62379,2.29597,-11.5822,-10.255,33.7427,-16.1262,0.0348876,11.5785,-8.63238,0.19414,-2.01021e-14,2.06736e-14,-32.4636,-70.2003,-18.5012,52.3959,-63.7314,-8.39433,-5.90927,7.12502,17.5294,-35.139,-2.01021e-14,2.06736e-14,-49.0456,11.6797,71.1676,48.2876,9.10512,-8.65013,50.6567,7.12502,17.2832,79.9082,-9.40967,1.28833,17.8288,33.654,-15.2536,-15.2234,13.1621,-8.10693,-2.89607,-20.3116,30.7268,-10.9527,5.24689,-22.0286
1.94495,18.2993,44.3154,-6.44792,3.18315,-1.39036,19.9055,-1.58041,-2.71165,-1.25293,-2.22819,4.19374,-12.3608,-0.67434,6.95085,2.96394,-11.8625,-10.7929,34.3555,-16.5776,-0.134404,11.7845,-8.93495,0.17589,-3.088e-14,6.12257e-14,-34.1451,-64.8497,-17.3024,53.5179,-66.3317,-12.6479,0.656232,7.12502,13.4326,-28.8907,-3.088e-14,6.12257e-14,-50.8099,11.4167,70.9088,48.9053,9.33716,-7.86835,52.1027,7.12502,18.0355,81.2865,-9.25047,3.53597,20.7654,33.6133,-15.1776,-16.9691,13.1611,-8.23618,-2.23394,-17.6371,31.3382,-11.0273,4.99332,-21.8246
1.91181,18.2918,44.2729,-6.53711,2.90168,-1.83479,20.5169,-1.51655,-2.61979,-1.29884,-2.08358,4.50532,-12.7795,-0.578012,7.25911,4.08353,-12.1236,-10.7395,34.2934,-16.9099,-0.659731,11.5182,-9.15377,0.0352814,-4.82697e-14,4.45278e-14,-36.1712,-66.7518,-14.8914,53.7826,-63.5508,-11.1363,-0.992657,7.12502,14.8892,-30.4376,-4.82697e-14,4.45278e-14,-51.0911,11.6211,70.8817,49.1455,9.56603,-7.34601,53.1121,7.12502,18.538,82.2488,-9.47482,4.29581,21.5264,33.644,-14.9866,-17.644,13.3044,-8.68001,-2.03989,-16.9533,31.9021,-10.9383,5.01912,-22.4949
1.90765,18.2843,44.2015,-6.3136,3.53565,-1.58902,20.1983,-1.73194,-2.52878,-0.830528,-2.36695,4.40018,-12.0228,-0.764869,7.1143,3.97274,-12.5637,-10.4591,33.9715,-17.514,-0.666902,11.4118,-9.38525,-0.0661345,-3.42655e-14,3.18055e-14,-37.4199,-68.1861,-13.5294,53.9487,-61.8566,-8.12545,-4.39865,7.12502,17.7881,-33.6051,-3.42655e-14,3.18055e-14,-49.9382,11.8323,70.9921,49.1548,9.88998,-7.35613,53.3374,7.12502,18.5283,82.475,-9.98372,3.73373,21.1537,33.7157,-14.6182,-17.7602,12.2162,-9.49651,-2.45469,-17.2806,32.3763,-10.6408,4.87933,-23.2319
1.89819,18.2831,44.151,-6.22425,3.92405,-1.00829,19.9507,-1.80819,-2.97545,-0.393771,-2.58908,4.32075,-11.3358,-0.885135,7.29981,3.80751,-12.8945,-10.419,33.797,-17.9714,-0.619825,11.4001,-9.57252,-0.11253,4.70126e-14,-1.19271e-14,-37.8869,-68.04,-12.9737,54.4399,-61.2459,-10.9112,0.815264,7.12502,15.106,-28.6135,4.70126e-14,-1.19271e-14,-49.1956,12.0707,71.1414,49.3148,10.2674,-7.43526,53.1324,7.12502,18.4522,82.2772,-10.3658,3.41518,20.4781,33.9751,-14.513,-17.8829,11.6706,-10.0253,-2.75875,-17.9514,32.7871,-10.5652,4.85216,-23.0563
1.89237,18.2822,44.1349,-6.4201,4.22802,-0.590772,20.1438,-1.9477,-3.27393,-0.268164,-2.84762,4.32765,-11.2502,-0.995543,7.56036,3.32498,-12.9273,-11.0961,33.1571,-18.2196,0.436952,11.4385,-9.64397,0.297309,6.97734e-14,-5.48646e-14,-38.6411,-66.8843,-12.129,55.0893,-60.7484,-9.88046,-0.332059,7.12502,16.0988,-29.6834,6.97734e-14,-5.48646e-14,-49.4927,12.1801,71.1856,49.5801,10.6372,-7.48145,52.8354,7.12502,18.4077,81.9844,-10.3039,2.96911,19.9556,34.2912,-14.791,-17.7155,12.0427,-10.0074,-2.86768,-18.4566,33.0565,-10.5399,4.68602,-22.7945
1.85741,18.2712,44.0684,-6.6345,3.91091,-1.71482,21.2288,-2.0044,-2.40901,-0.447053,-2.64967,4.85746,-12.1141,-0.886555,7.70589,4.2898,-13.1137,-11.4383,33.6348,-18.4209,-0.180761,11.4507,-9.85407,0.161595,-2.41026e-14,3.18055e-15,-39.7522,-65.9525,-10.8083,55.7479,-59.657,-9.35803,1.36694,7.12502,16.6018,-27.943,-2.41026e-14,3.18055e-15,-50.1359,12.2675,71.1995,49.89,11.0872,-7.41645,52.8187,7.12502,18.4703,81.9618,-10.5946,3.70215,21.4905,34.5385,-14.9335,-18.339,13.1217,-10.4028,-2.66769,-16.9749,33.3817,-10.2064,4.44509,-22.6935
1.84326,18.2667,44.0258,-6.56427,4.19757,-1.16222,21.4937,-2.07524,-2.84897,-0.439302,-2.85933,4.82751,-12.2045,-0.952567,8.01272,4.13114,-13.2174,-11.6527,33.2689,-18.6599,0.270865,11.4232,-9.93591,0.31849,-4.05521e-14,3.33958e-14,-42.2642,-67.4024,-8.17375,56.7954,-56.2332,-6.60625,-0.980755,7.12502,19.2495,-30.0481,-4.05521e-14,3.33958e-14,-50.3639,12.3847,71.2208,50.1724,11.3097,-7.54568,52.7903,7.12502,18.3459,81.9452,-10.8642,3.26031,20.8605,34.8398,-14.9852,-18.1547,13.375,-10.7355,-2.79438,-17.5865,33.5561,-9.92058,4.3304,-22.9982
1.84425,18.2631,44.0051,-6.64555,4.54779,-0.462586,21.304,-2.19209,-3.12522,-0.143039,-3.11011,4.63872,-11.713,-1.09246,7.99175,4.22172,-13.4763,-11.6939,33.3831,-19.0309,0.223285,11.4824,-10.1097,0.264042,6.6742e-14,4.77083e-15,-42.5554,-65.9003,-7.83504,57.4247,-55.6386,-5.36805,-1.38185,7.12502,20.4398,-30.326,6.6742e-14,4.77083e-15,-50.1926,12.4218,71.2671,50.3228,11.4792,-7.41562,52.6602,7.12502,18.4711,81.8033,-10.8134,2.32807,19.932,34.9995,-14.8641,-17.6979,12.5762,-10.8532,-3.05378,-18.48,33.9658,-9.96596,4.41814,-23.434
1.84363,18.2546,43.967,-6.70512,4.814,0.19798,21.1877,-2.27286,-3.42123,0.232784,-3.31129,4.48442,-11.1788,-1.21187,8.00721,4.26573,-13.6867,-11.5172,33.0495,-19.3381,0.305214,11.3487,-10.2173,0.253016,2.28602e-14,-1.59028e-15,-42.2017,-63.8683,-8.39006,58.5113,-55.793,-6.64927,0.0767956,7.12502,19.2081,-28.9946,2.28602e-14,-1.59028e-15,-49.727,12.2774,71.4614,50.2112,11.8472,-7.2809,52.5502,7.12502,18.6006,81.6809,-10.8867,1.52345,19.0451,35.1254,-14.6285,-17.1923,12.2464,-11.05,-3.24456,-19.2971,34.3073,-9.97972,4.47676,-24.793
1.80318,18.2482,43.92,-6.96859,4.34296,-0.751271,21.4903,-2.2673,-2.80124,0.574723,-3.1015,4.9596,-10.998,-1.14724,8.1311,4.07039,-13.7598,-11.6674,32.7264,-19.507,0.697181,11.3294,-10.2639,0.382075,-2.8625e-14,3.65764e-14,-44.9756,-67.5465,-4.96979,58.9263,-50.4851,-6.14523,1.93775,7.12502,19.6927,-27.0848,-2.8625e-14,3.65764e-14,-49.5679,12.3105,71.6155,50.2807,12.116,-7.31433,52.771,7.12502,18.5685,81.9048,-10.9399,2.40323,20.4601,35.1545,-14.5202,-17.8398,13.2684,-11.3179,-2.93133,-17.9548,34.7064,-9.82119,4.25219,-25.6805
1.77024,18.2434,43.8744,-7.34592,4.02879,-1.5312,21.9093,-2.45479,-2.31255,1.00589,-3.19682,5.29716,-10.7329,-1.22884,8.26521,3.73917,-13.798,-11.4939,32.5636,-19.5347,0.722412,11.3057,-10.2465,0.344595,-6.43068e-14,4.29375e-14,-43.2377,-65.5999,-7.19932,60.224,-50.3912,0.0405801,-0.847589,7.12502,25.6292,-29.1428,-6.43068e-14,4.29375e-14,-49.4918,12.6632,71.3724,50.4074,12.1926,-7.36669,52.4846,7.12502,18.5181,81.6232,-10.8429,2.87436,21.5733,35.2483,-14.7185,-18.2326,14.369,-11.3296,-2.73116,-16.8798,35.0352,-9.6181,4.03121,-26.7373
1.76913,18.2437,43.8334,-7.13617,4.43431,-0.464788,21.4514,-2.76515,-3.17775,1.53884,-3.86423,4.98914,-9.73956,-1.57737,8.52278,3.06492,-13.784,-10.7189,31.8323,-19.4541,0.80178,11.038,-10.1068,0.26189,-5.96354e-15,3.65764e-14,-43.5968,-68.0093,-6.97731,61.314,-46.4216,-4.26847,2.12322,7.12502,21.4961,-26.704,-5.96354e-15,3.65764e-14,-49.018,13.4264,70.9285,50.4965,12.0566,-7.65404,51.6087,7.12502,18.2417,80.7733,-11.1686,2.05706,20.2369,35.3536,-14.4827,-17.899,13.6439,-11.7538,-3.13321,-18.107,35.3115,-9.51874,4.01633,-27.3472
1.77122,18.2384,43.7773,-6.86149,4.91831,0.68304,21.4841,-2.82696,-3.78556,1.54162,-4.11787,4.74159,-9.68769,-1.68029,8.66676,3.17212,-13.9432,-10.8735,31.6188,-19.7289,1.02904,11.0002,-10.2249,0.342559,2.08724e-14,-9.54166e-15,-42.9061,-63.5894,-8.01956,62.8616,-47.6485,-1.86859,1.19251,7.12502,23.7994,-27.3534,2.08724e-14,-9.54166e-15,-49.0551,13.3046,71.1099,50.5481,11.6184,-8.25214,50.0687,7.12502,17.6662,79.2861,-11.5701,0.988922,18.7304,35.4735,-14.4257,-17.2141,14.0382,-12.2447,-3.69624,-19.4554,35.4902,-9.2203,4.13885,-27.6398
1.74555,18.2366,43.7233,-6.87253,4.58076,0.340262,22.4552,-2.64431,-3.19827,0.941449,-3.69469,5.0719,-10.9874,-1.40837,8.72575,4.93384,-14.0637,-11.8815,31.548,-20.0859,1.22883,10.8404,-10.5156,0.646568,-1.68967e-14,-6.36111e-15,-45.9497,-63.5921,-3.98554,63.6932,-44.2569,-1.46935,3.01861,7.12502,24.1823,-25.4769,-1.68967e-14,-6.36111e-15,-50.2818,12.4345,71.5939,50.7109,11.4679,-9.02447,49.1675,7.12502,16.9229,78.4502,-11.8985,1.30882,19.2969,35.5138,-14.0418,-17.4726,13.842,-12.7335,-3.77704,-18.8409,35.8162,-9.05423,4.11055,-29.8193
1.71326,18.2402,43.6664,-6.89417,3.9689,-0.650155,22.8498,-2.58002,-2.15072,0.919729,-3.28498,5.49975,-11.3333,-1.23721,8.52411,5.01256,-14.2074,-11.8712,31.7825,-20.2402,0.956445,10.8996,-10.6069,0.532292,8.94531e-15,-3.18055e-15,-47.4034,-63.5505,-2.16408,64.8888,-41.4554,3.36746,2.63663,7.12502,28.8116,-25.1594,8.94531e-15,-3.18055e-15,-50.6604,11.9307,71.8506,50.8894,11.3966,-8.92239,49.5211,7.12502,17.0211,78.7954,-12.2566,2.05541,20.6854,35.4315,-13.5509,-18.2448,14.6229,-13.4291,-3.73141,-17.3969,36.1916,-9.08319,3.9255,-32.6361
1.67575,18.2353,43.5828,-6.87084,3.38308,-1.58423,23.3123,-2.60386,-1.33995,1.06128,-3.05006,5.90395,-11.4842,-1.15162,8.47759,4.96909,-14.2911,-11.7937,31.8679,-20.3194,0.803847,10.9198,-10.6443,0.455094,5.1684e-14,-3.81667e-14,-47.4885,-63.0043,-2.09874,66.2838,-39.1914,1.12116,4.1582,7.12502,26.6638,-23.9838,5.1684e-14,-3.81667e-14,-50.8114,11.9194,71.8477,51.0416,11.1016,-8.43985,50.1753,7.12502,17.4856,79.4089,-12.7422,2.92065,22.0325,35.3071,-12.4566,-19.7352,14.2073,-14.2024,-3.61921,-15.9716,36.5568,-8.46505,3.08234,-31.494
1.67246,18.2502,43.5527,-6.88964,3.45921,-0.826515,23.2252,-2.7265,-1.75262,1.23011,-3.34206,5.79366,-11.1807,-1.28897,8.65941,5.12054,-14.2771,-12.0606,32.1573,-20.3473,0.859005,11.0522,-10.6794,0.502002,7.41467e-14,-2.70347e-14,-46.8555,-61.1555,-2.98367,68.1069,-38.1092,6.26458,3.64874,7.12502,31.5754,-23.6414,7.41467e-14,-2.70347e-14,-51.1273,12.0075,71.8722,51.1474,10.8558,-8.277,50.3633,7.12502,17.6423,79.5829,-12.6908,2.38429,21.1043,35.2157,-12.8195,-18.1909,15.55,-14.0944,-3.81669,-16.8023,36.6777,-7.26481,2.12953,-24.3895
1.67313,18.2605,43.4972,-6.77988,3.6631,0.193483,23.4538,-2.85616,-2.31324,1.28418,-3.68564,5.57809,-11.1676,-1.42914,8.86076,4.73482,-14.1069,-12.1965,31.0705,-20.2824,1.92876,10.8244,-10.5603,0.897913,-5.80451e-14,5.56597e-14,-45.911,-59.1319,-4.16767,69.8009,-36.6122,-1.75161,4.88567,7.12502,23.9116,-23.6456,-5.80451e-14,5.56597e-14,-51.3853,12.0734,71.8652,51.2741,10.7252,-8.4023,50.6087,7.12502,17.5217,79.8391,-13.0392,1.50907,19.824,35.3669,-12.6208,-17.1273,15.4731,-14.1813,-4.15535,-17.9523,36.4654,-6.89112,1.51993,-23.9568
1.64565,18.2588,43.4323,-6.87044,3.13126,-0.103565,23.666,-2.80505,-1.91049,1.64183,-3.49685,5.75389,-10.9182,-1.37583,8.76061,4.38132,-14.2133,-11.8725,31.0187,-20.3862,1.88583,10.8286,-10.5642,0.803131,-3.10104e-14,-7.95139e-15,-45.3893,-57.7948,-4.79022,71.1877,-34.3476,0.289733,6.22025,7.12502,25.8679,-22.0403,-3.10104e-14,-7.95139e-15,-51.0972,11.9994,71.981,51.1243,10.5029,-8.10941,51.0357,7.12502,17.8036,80.2407,-13.4255,2.12236,20.368,35.5874,-12.7002,-17.4264,16.3178,-14.3244,-4.13913,-17.3038,36.0749,-6.70648,1.06077,-25.8533
1.65809,18.2606,43.3698,-6.4096,3.35557,1.10328,23.4551,-2.94231,-2.32808,1.6612,-3.83074,5.40531,-10.7249,-1.53343,8.68011,4.06359,-14.2575,-11.7755,31.2648,-20.443,1.89015,10.9746,-10.5659,0.747337,2.127e-14,-4.45278e-14,-45.8875,-58.6213,-4.125,72.4044,-30.2541,0.982524,7.76262,7.12502,26.5311,-20.3995,2.127e-14,-4.45278e-14,-51.0295,11.7971,72.0574,50.9172,10.3085,-8.087,50.9859,7.12502,17.8251,80.1889,-14.2234,1.16173,18.8053,35.9584,-12.8239,-16.7267,16.2505,-14.8247,-4.63056,-18.6538,35.6935,-6.31848,0.97467,-26.3627
1.64717,18.2604,43.3064,-6.24234,3.17834,1.62754,23.6424,-2.9867,-2.51992,1.70334,-3.9451,5.35614,-10.7502,-1.57852,8.78533,4.29129,-14.3012,-11.7209,31.3187,-20.4752,1.68439,10.9271,-10.5974,0.686799,1.98785e-15,-3.18055e-14,-44.9646,-56.2133,-5.56529,74.5635,-28.7632,-3.28994,8.6735,7.12502,22.4357,-20.0434,1.98785e-15,-3.18055e-14,-51.3228,11.9804,71.9865,50.9749,10.0313,-8.26013,50.6965,7.12502,17.6585,79.9147,-14.8487,0.979947,18.2593,36.2854,-12.5688,-16.4724,16.0325,-15.0256,-4.63973,-19.0931,35.4534,-6.00389,0.869186,-26.4028
1.63171,18.248,43.2019,-5.97154,2.91998,1.77269,23.9402,-3.02397,-2.38349,1.84844,-3.94867,5.43457,-10.7487,-1.58677,8.81507,4.02175,-14.2985,-11.6045,30.9233,-20.4618,1.87092,10.8246,-10.5538,0.730045,-2.74323e-14,1.11319e-14,-44.0064,-54.3436,-7.14983,76.8781,-27.4206,-2.83569,8.78872,7.12502,22.8717,-19.875,-2.74323e-14,1.11319e-14,-51.2664,12.0931,72.0748,51.0738,10.0763,-8.35037,50.8676,7.12502,17.5717,80.0936,-15.805,1.26085,18.1941,36.6344,-12.4158,-16.5317,17.3005,-15.5452,-4.47987,-19.0409,35.2452,-5.39063,0.684165,-25.6089
1.61075,18.2491,43.1494,-5.93172,2.4001,2.22079,23.6395,-2.89902,-2.64053,2.29757,-3.87071,5.38676,-10.0741,-1.58724,8.81819,3.29827,-14.2578,-11.3766,30.3777,-20.4515,2.44264,10.7757,-10.4541,0.852311,-1.94809e-14,3.33958e-14,-43.7415,-53.334,-7.91233,78.876,-24.9612,-1.23745,9.53143,7.12502,24.4046,-18.9343,-1.94809e-14,3.33958e-14,-50.8331,11.9354,72.2701,50.7991,10.1651,-8.51694,50.8246,7.12502,17.4114,80.0648,-16.1792,1.68202,17.8378,36.7852,-12.3617,-16.3671,18.0438,-15.4899,-4.09656,-19.3483,35.1006,-4.60723,0.891551,-21.9233
1.6071,18.2543,43.0887,-5.82541,2.19414,2.37309,23.461,-3.07055,-2.39918,2.63659,-4.03816,5.41825,-9.58262,-1.70969,8.71691,3.28518,-14.2981,-11.3075,30.1975,-20.4698,2.37972,10.6934,-10.4589,0.827378,1.47101e-14,-9.54166e-15,-43.0145,-52.7457,-8.83544,80.4126,-21.9694,-0.176797,10.6378,7.12502,25.421,-17.6872,1.47101e-14,-9.54166e-15,-50.5699,11.9379,72.4322,50.6386,10.2916,-8.64721,50.9327,7.12502,17.286,80.184,-16.5025,1.39971,17.6509,36.7958,-12.1983,-15.824,19.1031,-15.6328,-4.09234,-19.4132,35.0109,-4.55274,0.688425,-23.1262
1.59378,18.2626,43.0393,-5.80156,1.65385,2.33716,22.9,-3.06819,-2.02962,3.23154,-3.9576,5.47685,-8.65162,-1.74349,8.44187,2.89853,-14.3691,-11.1195,29.6735,-20.5598,2.65189,10.5751,-10.4453,0.87004,-5.80451e-14,4.92986e-14,-42.5417,-52.0126,-9.72987,82.1881,-19.2988,-0.824378,11.6082,7.12502,24.8005,-16.8036,-5.80451e-14,4.92986e-14,-49.9822,11.9964,72.5701,50.4865,10.1205,-8.41021,51.2877,7.12502,17.5141,80.5188,-16.7833,1.74512,17.7961,36.7415,-11.8415,-15.769,18.8301,-15.6887,-3.92328,-19.1704,34.8917,-4.79723,0.640477,-21.644
1.58282,18.2628,42.976,-5.76747,1.05535,2.47339,23.3799,-2.99276,-1.80974,3.06809,-3.787,5.53477,-9.12604,-1.64165,8.38982,3.06444,-14.303,-11.1672,29.8268,-20.4614,2.51739,10.5864,-10.4201,0.853184,6.0033e-14,-8.42847e-14,-42.4307,-49.7866,-10.2778,84.3031,-17.384,12.695,15.9959,7.12502,37.6778,-9.89027,6.0033e-14,-8.42847e-14,-50.5903,11.7535,72.6697,50.4496,10.1226,-8.15816,51.5228,7.12502,17.7567,80.732,-17.1946,2.15554,17.766,36.7389,-11.1202,-15.9919,18.4189,-15.8505,-3.78209,-19.1031,34.8648,-5.52893,0.584026,-21.274
1.58222,18.2509,42.8757,-5.34548,0.657345,2.75488,23.8976,-3.00174,-1.61961,2.80766,-3.73319,5.53078,-9.71539,-1.58868,8.3285,3.13501,-14.216,-11.1472,29.5085,-20.4136,2.85264,10.4833,-10.3711,0.986556,5.08889e-14,-1.59028e-14,-41.8798,-48.1398,-11.3363,86.2622,-15.2229,-5.10149,12.2898,7.12502,20.6959,-16.6267,5.08889e-14,-1.59028e-14,-50.9085,11.5797,72.7481,50.2579,10.2364,-8.18804,51.5736,7.12502,17.7279,80.7855,-18.1681,2.2768,17.4818,36.7885,-10.1121,-16.6039,17.6924,-16.5889,-3.82858,-19.2305,34.8286,-6.1396,0.53086,-22.2873
1.59224,18.2265,42.7597,-4.98339,0.273798,2.9575,24.582,-3.08802,-1.28908,2.66971,-3.74256,5.50273,-10.2584,-1.57686,8.18312,2.88119,-14.1767,-10.6573,29.6682,-20.2387,2.35881,10.4564,-10.2794,0.758429,-3.22031e-14,-6.36111e-15,-41.2035,-47.2446,-12.4633,87.8402,-11.8961,-3.88382,12.0072,7.12502,21.8655,-16.7773,-3.22031e-14,-6.36111e-15,-50.9337,11.6407,72.7001,49.9548,9.97823,-7.88481,51.4698,7.12502,18.0197,80.655,-19.2265,2.22203,17.223,37.0022,-9.47006,-16.688,18.0565,-17.1733,-3.8303,-19.3543,34.7389,-6.52565,0.70894,-22.0187
1.57872,18.2214,42.7114,-5.10557,-0.522497,3.11016,24.7425,-2.97932,-1.35217,2.89278,-3.61352,5.59121,-10.0982,-1.5238,8.27895,2.87695,-14.1357,-10.428,29.675,-20.0723,1.92171,10.3681,-10.2198,0.607473,-5.20816e-14,5.56597e-14,-40.4231,-46.3421,-13.4785,89.2014,-8.08676,-2.47483,12.7634,7.12502,23.2179,-15.8571,-5.20816e-14,5.56597e-14,-51.0906,11.7842,72.7234,49.9123,9.47714,-7.27286,51.7557,7.12502,18.6084,80.8857,-19.5673,2.74931,17.1911,37.2425,-9.46362,-16.196,17.9401,-16.831,-3.47029,-19.3697,34.5885,-7.30563,0.924272,-21.9314
1.59705,18.2131,42.6312,-4.87892,-0.77981,3.75834,24.9883,-3.08671,-1.42702,2.82921,-3.77208,5.54373,-10.2756,-1.58626,8.34684,2.7642,-13.787,-10.7169,28.324,-19.7363,3.02428,10.0075,-10.0063,1.08676,3.81667e-14,3.02153e-14,-39.4463,-44.5794,-14.7326,90.9884,-5.54987,-2.13608,12.5363,7.12502,23.5429,-16.0428,3.81667e-14,3.02153e-14,-51.4226,12.0089,72.8706,49.9148,8.99101,-6.45188,51.9932,7.12502,19.3979,81.0457,-20.3228,2.12729,16.3816,37.4463,-9.14571,-15.085,17.1082,-17.0476,-3.65959,-20.1291,34.4685,-8.12877,1.21043,-21.7126
1.61952,18.2011,42.5496,-4.73459,-1.01548,4.29479,25.197,-3.21144,-1.24751,2.87509,-3.89507,5.42631,-10.3369,-1.65129,8.16159,3.01892,-13.9317,-10.7086,29.1925,-19.8306,2.25088,10.2115,-10.1116,0.811412,-3.69739e-14,6.52014e-14,-38.6587,-43.0967,-16.1027,92.7295,-3.22058,-2.18602,12.2784,7.12502,23.495,-16.3068,-3.69739e-14,6.52014e-14,-51.543,11.9875,73.1008,49.8848,8.74952,-5.93412,52.2923,7.12502,19.8957,81.2938,-20.9314,1.43163,15.7087,37.5967,-8.76889,-14.2275,15.8011,-17.1183,-3.70581,-20.7974,34.3019,-9.25311,1.31901,-22.151
1.59303,18.1907,42.4877,-4.93225,-2.2337,3.9138,25.3449,-2.89691,-1.0456,3.26522,-3.41674,5.65764,-10.0356,-1.45159,8.14034,2.21044,-13.8073,-10.6504,28.4423,-19.7504,3.10883,10.152,-9.97638,1.05366,-9.54166e-15,-2.38542e-14,-37.8718,-42.4142,-17.3863,93.9875,0.0463492,-1.57711,12.9277,7.12502,24.0789,-15.5816,-9.54166e-15,-2.38542e-14,-51.3487,11.8581,73.37,49.8473,8.6045,-5.64408,52.5601,7.12502,20.1745,81.5325,-21.1972,2.83662,16.4151,37.5845,-8.63464,-14.4821,16.1867,-17.0425,-2.87495,-20.0959,34.5558,-10.5385,1.44088,-23.1824
1.62392,18.1747,42.4024,-4.9842,-2.37471,4.37374,25.7741,-3.12782,-0.885315,3.25279,-3.66716,5.60275,-10.2535,-1.56581,8.1055,2.00028,-13.5907,-10.4164,28.1294,-19.3381,2.81677,9.97823,-9.79086,0.97288,4.53229e-14,-5.725e-14,-36.6578,-40.9721,-18.9702,95.1592,3.53298,-0.886128,13.9868,7.12502,24.7413,-14.4332,4.53229e-14,-5.725e-14,-51.52,12.0925,73.529,49.7859,8.39553,-5.61986,52.5582,7.12502,20.1978,81.5282,-21.4781,2.02173,15.7808,37.644,-8.53503,-13.4954,15.2681,-17.303,-2.94775,-20.7527,34.8914,-11.4817,1.58054,-20.3734
1.60015,18.1552,42.3256,-5.31689,-3.59373,3.32958,26.3354,-3.08623,-0.321131,3.46991,-3.38619,6.16817,-10.3351,-1.4457,8.37722,2.53016,-13.4948,-10.6176,29.0685,-19.0224,1.68053,10.1144,-9.77288,0.673541,2.8625e-14,-8.11041e-14,-35.1002,-38.7901,-20.911,96.4365,6.40116,-0.774387,14.5091,7.12502,24.8484,-13.8962,2.8625e-14,-8.11041e-14,-51.8907,12.4988,73.7123,49.6833,8.22836,-5.71427,52.2062,7.12502,20.107,81.1857,-21.528,3.52092,17.2319,37.581,-8.26471,-13.8857,15.2512,-17.0404,-1.51453,-19.4442,35.6168,-12.3858,1.72368,-22.0237
1.62603,18.1399,42.2242,-5.10116,-3.79086,4.29143,26.3784,-3.18564,-0.702763,3.55473,-3.64626,5.99138,-10.211,-1.56382,8.47806,2.40564,-13.2788,-10.9259,28.4466,-18.7934,2.26807,9.98232,-9.64426,0.945812,-5.56597e-14,4.13472e-14,-33.752,-36.8923,-22.8908,97.4664,8.76001,-1.11266,14.5195,7.12502,24.5242,-13.9301,-5.56597e-14,4.13472e-14,-51.6248,12.5381,73.9872,49.5392,7.98105,-5.59168,51.8945,7.12502,20.2248,80.8616,-22.3907,2.92308,16.058,37.707,-7.71089,-13.081,14.4794,-17.4739,-1.02392,-20.7254,36.1778,-12.7861,2.06186,-21.8452
1.64178,18.1147,42.114,-5.14804,-4.13456,4.8263,26.7692,-3.15468,-0.802093,3.75654,-3.63837,5.92382,-10.1819,-1.56227,8.47576,2.11417,-13.1923,-10.7476,28.0132,-18.6323,2.34059,9.8466,-9.54004,0.958136,3.81667e-14,4.6118e-14,-32.6699,-35.2226,-24.7083,98.1321,11.3352,-1.44429,14.8335,7.12502,24.2063,-13.6588,3.81667e-14,4.6118e-14,-51.0677,12.3111,74.4315,49.3367,7.79659,-5.63977,51.6906,7.12502,20.1786,80.6625,-23.0895,2.87623,15.4457,37.8338,-7.01143,-12.7605,12.7143,-17.9597,-0.443281,-21.461,37.3883,-13.2966,2.29772,-22.1002
1.66282,18.1124,42.0702,-5.55974,-4.29287,5.62847,26.899,-3.27151,-0.937978,3.92948,-3.85753,5.70197,-10.0263,-1.67488,8.36778,2.25568,-13.1058,-10.5292,27.7112,-18.4438,2.06702,9.64324,-9.46254,0.88539,-2.8625e-14,-1.74931e-14,-31.7724,-32.8519,-26.505,98.625,13.5635,-2.01179,14.6281,7.12502,23.6621,-13.9356,-2.8625e-14,-1.74931e-14,-51.1577,11.9185,74.7926,49.3646,7.63728,-5.44424,51.6354,7.12502,20.3665,80.5874,-22.9768,2.17808,14.4686,38.0844,-7.19649,-11.6905,10.9464,-17.5557,0.306859,-22.6661,38.4275,-13.7725,2.39228,-23.081
1.64795,18.0588,41.9077,-5.3486,-5.19609,4.75248,28.3067,-3.12863,-0.454395,3.6875,-3.41757,6.20342,-11.0888,-1.42125,8.68137,2.15817,-12.9721,-10.7138,27.4221,-18.2737,2.27263,9.5821,-9.38294,0.997979,1.03368e-14,3.33958e-14,-30.6548,-30.1834,-28.3823,98.8529,15.7417,-2.37932,13.9889,7.12502,23.3095,-14.6199,1.03368e-14,3.33958e-14,-51.2976,11.8541,75.0981,49.2484,7.351,-5.20581,51.7341,7.12502,20.5957,80.6615,-24.1469,3.85403,15.5985,38.4005,-7.02941,-12.349,11.9681,-18.3613,1.55857,-21.6339,39.9173,-13.6058,2.48073,-25.5362
1.66705,18.0433,41.8396,-5.44919,-5.50098,5.05941,28.2379,-3.24667,-0.284591,3.91841,-3.53749,6.16642,-10.7817,-1.50424,8.55293,2.26712,-12.9861,-10.7804,28.0675,-18.2045,1.71472,9.74746,-9.40287,0.818521,3.26007e-14,2.22639e-14,-29.569,-27.7183,-30.2635,98.7785,17.9365,-2.47172,13.5083,7.12502,23.2209,-15.1118,3.26007e-14,2.22639e-14,-50.8001,11.4521,75.54,48.8984,7.2827,-4.94175,51.4399,7.12502,20.8494,80.3396,-24.6038,3.6525,15.1952,38.783,-6.73978,-11.8338,11.9625,-18.4115,2.39317,-22.2466,41.3221,-13.9304,2.62762,-26.4567
1.69116,18.0258,41.7537,-5.47105,-5.67716,5.79197,27.7988,-3.27414,-0.341538,4.40756,-3.65087,5.97639,-9.98812,-1.6045,8.31658,1.02227,-12.86,-10.6404,27.1227,-18.0621,2.59979,9.68042,-9.2184,1.04084,-7.95139e-16,-4.45278e-14,-28.5049,-25.8067,-32.1171,98.4279,19.7035,-2.43544,13.2134,7.12502,23.2557,-15.4022,-7.95139e-16,-4.45278e-14,-49.6194,10.8455,76.1909,48.5803,7.29124,-4.96717,51.1893,7.12502,20.825,80.0917,-25.1946,3.30439,14.3068,39.1762,-6.35523,-11.1892,12.2953,-18.8275,3.1313,-23.3641,42.9282,-14.268,2.85968,-28.5561
1.6918,18.0093,41.6655,-5.79138,-6.23619,5.36885,27.6428,-3.22056,0.144967,5.14866,-3.45974,6.21825,-9.10211,-1.57826,8.17251,0.996832,-13.0582,-10.3941,27.0368,-18.2083,2.10436,9.58965,-9.30001,0.831809,2.3059e-14,-1.59028e-14,-26.9828,-24.1382,-34.0592,97.1866,21.2733,-3.05875,13.2283,7.12502,22.6576,-15.4617,2.3059e-14,-1.59028e-14,-48.386,10.453,76.8232,48.4382,7.12568,-5.00635,50.9211,7.12502,20.7873,79.8276,-25.1491,3.58055,14.9469,39.6599,-6.94699,-10.8847,13.3264,-18.715,4.26523,-23.016,44.3174,-14.13,2.69481,-28.0776
1.7139,17.9825,41.5713,-6.11301,-6.65335,5.35763,28.6299,-3.23287,0.440503,5.02121,-3.32692,6.32745,-9.77137,-1.4932,8.1845,0.846544,-12.8903,-10.2781,26.7524,-17.9503,2.09227,9.47957,-9.17184,0.841061,5.56597e-15,1.27222e-14,-26.6706,-20.5869,-35.3364,96.2851,22.4663,-3.83962,12.3355,7.12502,21.908,-16.4441,5.56597e-15,1.27222e-14,-48.5993,9.93772,77.2421,48.6068,6.97956,-4.93061,50.8356,7.12502,20.8601,79.7342,-25.5382,3.55703,15.0227,39.9822,-6.62223,-10.7474,11.498,-18.7038,5.09426,-23.1945,45.8202,-14.2571,2.5481,-26.4583
1.74154,17.95,41.4789,-6.12966,-6.75237,6.57473,28.5645,-3.08917,-0.0893464,5.10055,-3.3367,6.05132,-9.63316,-1.49196,8.16238,0.629152,-12.9328,-10.0833,26.3466,-17.9636,2.06891,9.34917,-9.1574,0.804136,-8.74653e-15,2.8625e-14,-26.2781,-18.0256,-36.5946,95.0146,23.689,-4.60917,11.3586,7.12502,21.1689,-17.5057,-8.74653e-15,2.8625e-14,-48.0587,9.4073,77.7359,48.6743,6.58082,-4.69367,50.8374,7.12502,21.0877,79.7107,-26.3817,3.12265,13.5901,40.4022,-6.18319,-10.3055,12.4443,-19.0534,5.56656,-24.8732,47.3434,-14.4034,2.85522,-28.4544
1.76545,17.9225,41.3834,-6.2058,-6.93666,6.12523,29.1209,-3.24328,0.715028,5.04444,-3.23906,6.2778,-10.021,-1.4503,7.97739,0.915437,-12.9035,-10.0429,25.9385,-17.8992,1.96793,9.13406,-9.14083,0.810804,-1.82882e-14,-9.54166e-15,-25.8362,-15.2144,-37.8171,93.4602,24.8393,-5.21219,10.8336,7.12502,20.5895,-18.0945,-1.82882e-14,-9.54166e-15,-47.9453,9.05576,78.1289,48.7537,6.42471,-4.27613,50.931,7.12502,21.4888,79.7591,-26.7107,2.92911,14.0493,40.606,-5.7257,-9.50736,14.054,-19.1872,6.22044,-24.6667,49.0271,-14.0844,1.78748,-26.1088
1.76067,17.8869,41.2782,-6.07993,-7.51612,6.25336,29.5073,-2.97617,0.422221,4.73243,-2.94288,6.73259,-10.0228,-1.35391,8.01703,0.795987,-12.9018,-10.0692,26.3377,-17.8359,1.64914,9.26583,-9.1351,0.695487,-6.20208e-14,2.22639e-14,-25.1098,-12.5473,-39.1137,91.3372,26.0824,-6.0978,10.1654,7.12502,19.7383,-18.8524,-6.20208e-14,2.22639e-14,-47.6765,8.61502,78.6023,48.8405,6.46263,-4.40903,50.9404,7.12502,21.3611,79.783,-27.6849,3.76016,14.0159,40.9932,-5.38058,-8.91179,14.5102,-19.848,7.25834,-24.9056,50.7239,-13.6289,1.03773,-24.7794
1.78174,17.8519,41.1729,-6.05573,-7.69208,6.35748,29.8395,-2.95672,0.63507,4.70956,-2.82004,6.856,-10.212,-1.2961,8.01088,0.648294,-12.9168,-10.4976,26.3143,-17.909,2.05219,9.37361,-9.16499,0.86195,-4.85035e-14,1.90833e-14,-24.3184,-10.2543,-40.237,88.6701,27.2033,-7.21809,9.84704,7.12502,18.6611,-19.2779,-4.85035e-14,1.90833e-14,-47.3713,8.09219,79.1229,49.0805,6.52325,-4.41127,50.7293,7.12502,21.359,79.5721,-28.2607,3.65601,13.8925,41.1761,-5.10901,-8.22258,13.837,-20.3564,7.81089,-25.2964,52.5359,-13.455,0.797298,-25.0169
1.80313,17.8135,41.0766,-6.09053,-7.81709,6.78528,30.1137,-2.88132,0.613255,4.60321,-2.70769,6.87185,-10.4618,-1.23297,8.02195,0.864762,-12.8893,-10.4362,25.7748,-17.861,2.06554,9.13339,-9.14252,0.899733,1.35174e-14,-2.54444e-14,-23.6669,-8.16479,-41.1605,85.6438,28.3003,-8.47698,10.0188,7.12502,17.4498,-19.218,1.35174e-14,-2.54444e-14,-47.2237,7.57306,79.5685,49.4242,6.49518,-4.57818,50.7696,7.12502,21.1987,79.6305,-28.8409,3.46764,13.3725,41.4304,-4.75443,-7.93509,13.6321,-20.6548,8.23913,-26.06,54.291,-13.4249,0.528162,-24.5337
1.80528,17.7828,40.9893,-6.43863,-8.40324,6.19163,30.3621,-2.76289,1.24084,4.93501,-2.33778,7.13761,-10.257,-1.09283,7.82599,1.0544,-13.0546,-10.4573,25.9783,-18.0164,1.6459,9.14676,-9.25096,0.758393,-1.11319e-14,6.36111e-15,-22.8973,-6.57692,-42.142,82.5192,29.4606,-9.81947,9.88452,7.12502,16.1575,-19.462,-1.11319e-14,6.36111e-15,-46.6961,7.10277,79.8856,49.7392,6.51332,-4.30822,50.6837,7.12502,21.458,79.5153,-28.9189,4.17432,14.1275,41.6342,-4.38578,-8.53383,12.6875,-20.4316,9.11449,-25.4199,56.0411,-13.134,-0.601842,-22.7301
1.82908,17.7481,40.8917,-6.67307,-8.55634,6.13527,29.9306,-2.75503,1.88143,5.6563,-2.21309,7.06938,-9.30088,-1.08664,7.29105,0.358449,-13.2818,-9.9769,25.6441,-18.2581,1.62605,9.1125,-9.30356,0.620941,2.54444e-14,-6.36111e-15,-21.8286,-6.21687,-43.2254,79.2059,30.6181,-10.7244,9.87414,7.12502,15.286,-19.541,2.54444e-14,-6.36111e-15,-45.1257,6.33537,80.198,49.7991,6.65078,-4.03956,50.5621,7.12502,21.716,79.3641,-29.1601,4.04589,14.1865,41.9013,-4.08007,-8.32054,11.7145,-20.3903,9.55632,-25.5717,57.7441,-12.692,-1.54525,-22.3481
1.86139,17.708,40.7836,-6.67198,-8.50523,6.77647,30.7942,-2.71257,1.63438,5.06359,-2.13716,7.07375,-10.3279,-1.01236,7.4792,0.894515,-13.2095,-10.3037,25.598,-18.1931,1.64113,9.03487,-9.31239,0.719289,-1.02573e-13,1.20861e-13,-21.4889,-4.64767,-43.7726,75.805,31.706,-11.1059,9.83961,7.12502,14.9185,-19.6032,-1.02573e-13,1.20861e-13,-45.4866,5.9638,80.5133,49.9992,6.64749,-3.94193,50.575,7.12502,21.8097,79.3661,-29.8969,3.3787,13.4173,42.1979,-3.79988,-7.45716,11.9939,-20.653,9.7333,-26.655,59.3451,-12.3288,-2.11998,-23.3427
1.849,17.6641,40.6959,-6.8969,-9.23941,6.79144,31.772,-2.30489,1.1778,4.59793,-1.63996,7.39585,-11.3154,-0.734084,7.97391,1.45082,-13.1055,-10.7408,26.0905,-18.0508,1.35277,9.12307,-9.32021,0.724727,-6.67916e-14,5.08889e-14,-21.1158,-3.24757,-44.2739,72.3207,32.76,-11.0367,9.64102,7.12502,14.9851,-19.7968,-6.67916e-14,5.08889e-14,-46.1646,5.71249,80.7776,50.3252,6.63567,-4.47551,49.8072,7.12502,21.2973,78.657,-30.4804,4.27637,13.5906,42.5434,-3.47369,-7.47503,11.8448,-20.5752,10.748,-26.5919,61.0012,-11.6266,-3.28463,-22.6176
1.8643,17.6218,40.6075,-7.2801,-9.50639,6.66163,30.9035,-2.16352,1.71729,5.62643,-1.41213,7.4151,-9.83244,-0.697949,7.5179,0.645961,-13.0899,-10.3937,24.5527,-18.0744,2.30383,8.77417,-9.20502,0.972711,7.31528e-14,-6.36111e-14,-19.5564,-4.41678,-45.0523,68.718,33.633,-10.2365,9.52145,7.12502,15.7559,-19.8572,7.31528e-14,-6.36111e-14,-44.2002,5.07605,81.0951,50.2407,6.5665,-4.99366,48.7047,7.12502,20.7995,77.6099,-30.6744,4.29696,13.8139,42.9139,-3.19872,-6.90873,12.6251,-20.1394,11.2351,-26.5293,62.5584,-10.5401,-4.61061,-21.2162
1.88441,17.5716,40.4983,-7.40183,-9.60682,6.77509,31.4093,-2.06336,1.80787,5.37289,-1.18473,7.56836,-10.3543,-0.579648,7.5857,0.99284,-13.4026,-10.4492,25.2536,-18.3837,1.41533,8.90355,-9.42859,0.666275,1.90833e-14,6.36111e-15,-18.9473,-4.2973,-45.4393,65.1701,34.0277,-8.89921,9.06085,7.12502,17.0435,-20.2115,1.90833e-14,6.36111e-15,-44.097,4.5711,81.4143,50.4185,6.78439,-4.91889,48.5441,7.12502,20.8713,77.4414,-31.2394,4.14079,13.6898,43.2897,-2.71928,-6.07884,16.069,-20.1503,11.4793,-26.8464,64.0792,-9.44942,-5.73948,-21.5354
1.9007,17.5211,40.3946,-7.50078,-9.72331,7.03476,31.673,-1.88682,1.79226,5.22745,-0.925147,7.64985,-10.6585,-0.449566,7.60437,1.18579,-13.4338,-10.6471,25.5745,-18.3768,1.08615,8.97312,-9.47058,0.591045,1.59028e-14,-2.54444e-14,-18.3553,-4.59578,-45.7568,61.4371,34.6381,-8.03018,8.41572,7.12502,17.8798,-20.7824,1.59028e-14,-2.54444e-14,-43.9126,4.10492,81.658,50.7851,6.96837,-4.68575,48.6831,7.12502,21.0953,77.5556,-31.8828,3.93948,13.438,43.7237,-2.26199,-5.27695,16.8105,-20.0773,11.7357,-27.3195,65.4145,-8.55919,-6.68834,-21.8649
1.91373,17.4791,40.3078,-7.83043,-9.75775,7.43293,32.1985,-1.70532,1.56579,4.93382,-0.695517,7.77582,-11.2386,-0.318024,7.81517,1.55834,-13.364,-11.1175,25.8459,-18.2804,0.955065,9.03767,-9.48339,0.638534,1.74931e-14,-1.11319e-13,-18.0028,-4.77931,-45.8299,57.6783,35.1751,-7.51757,8.23241,7.12502,18.373,-20.9199,1.74931e-14,-1.11319e-13,-44.1949,3.75663,81.9518,51.1805,7.23984,-4.66512,48.573,7.12502,21.1151,77.4433,-32.2409,3.58467,13.0745,44.1865,-1.99691,-4.71571,15.4654,-19.483,11.94,-27.9046,66.6147,-7.90889,-7.58884,-22.9654
1.9305,17.4305,40.2227,-8.19921,-9.65534,7.88735,31.5348,-1.58337,1.44672,5.53319,-0.667474,7.78059,-10.2956,-0.329236,7.82215,1.41862,-13.4927,-11.2788,25.5122,-18.458,1.18916,8.99682,-9.55088,0.715168,3.18055e-15,1.59028e-14,-16.6307,-6.11617,-46.162,53.7738,35.3184,-6.68238,7.56185,7.12502,19.1763,-21.5128,3.18055e-15,1.59028e-14,-42.9372,3.59499,82.1321,51.2905,7.36997,-4.45591,48.7124,7.12502,21.3161,77.5601,-32.536,3.07475,12.6068,44.6027,-1.73971,-4.18794,15.0406,-18.7461,11.9907,-28.5997,67.7239,-7.13996,-8.3959,-24.6922
1.94485,17.3626,40.0975,-8.26293,-9.9292,7.40947,32.7932,-1.48052,1.7998,4.81194,-0.228697,8.17262,-11.6903,-0.0976106,7.97042,2.157,-13.3382,-11.4377,25.2855,-18.225,0.793495,8.75239,-9.50685,0.703658,-3.65764e-14,-5.40694e-14,-16.6254,-6.02359,-46.1859,50.5083,35.0321,-5.0241,6.38838,7.12502,20.7703,-22.52,-3.65764e-14,-5.40694e-14,-43.6998,3.47043,82.251,51.651,7.33234,-3.95934,48.7937,7.12502,21.793,77.5867,-33.1934,3.23701,13.2395,44.9454,-1.27371,-4.15388,14.7306,-18.622,12.2841,-28.1625,69.011,-6.19436,-9.28185,-25.7953
1.95033,17.3084,39.9953,-8.51434,-10.2868,7.02362,33.195,-1.2243,2.12731,4.74305,0.295858,8.55345,-12.0096,0.139756,8.02054,2.34786,-13.3912,-12.0073,25.4243,-18.3336,0.93712,8.85342,-9.5944,0.817918,-1.59028e-15,-5.40694e-14,-16.3382,-7.03904,-46.0176,47.1775,35.4891,-4.12081,5.40262,7.12502,21.6379,-23.4083,-1.59028e-15,-5.40694e-14,-43.6153,3.31371,82.5357,51.9874,7.33572,-3.91193,48.8504,7.12502,21.8385,77.6381,-33.5141,3.60828,13.7844,45.238,-1.00753,-4.19514,15.5867,-18.0697,12.6518,-27.688,70.0489,-5.5697,-10.0667,-26.4782
1.96658,17.2632,39.8974,-8.58335,-10.1795,7.18323,32.5018,-1.30693,1.93161,5.89657,-0.0521375,8.44147,-10.3793,-0.0645078,8.064,-0.963949,-13.6051,-10.2154,25.7992,-18.2046,0.0482058,9.27058,-9.39849,0.0425997,-3.49861e-14,-9.85972e-14,-13.5975,-9.9033,-47.3822,43.3116,36.8304,-3.70291,5.16772,7.12502,22.0392,-23.5965,-3.49861e-14,-9.85972e-14,-41.2264,4.09337,81.8332,52.2255,7.66075,-4.08374,48.9954,7.12502,21.6735,77.8023,-34.0016,3.1779,13.6217,45.5141,-0.724102,-3.85882,15.859,-17.5956,12.4633,-28.1072,70.8404,-4.82907,-10.5225,-26.557
1.99156,17.216,39.8,-8.77457,-9.91247,7.65026,32.1743,-1.33317,1.81302,6.2963,-0.193817,8.34073,-9.7801,-0.143808,8.04399,-2.18433,-13.6922,-9.69521,25.8891,-18.1869,-0.257553,9.4308,-9.35108,-0.221907,-2.06736e-14,-1.01778e-13,-12.5626,-12.1993,-47.8184,40.0077,37.485,-3.19954,4.92262,7.12502,22.5225,-23.7838,-2.06736e-14,-1.01778e-13,-40.3159,4.45642,81.5845,52.7228,7.75968,-4.21972,48.9904,7.12502,21.543,77.8122,-34.4234,2.56474,13.0609,45.7912,-0.39191,-3.36342,15.5345,-16.8972,12.1314,-28.948,71.3783,-3.9596,-10.8515,-26.8668
2.00664,17.1654,39.6945,-8.98098,-10.0441,7.55381,32.4625,-1.18438,2.02715,5.94274,0.147444,8.57012,-10.3403,0.026718,8.07372,-1.49684,-13.6866,-10.1889,25.912,-18.1793,-0.365904,9.36067,-9.41223,-0.138531,-3.49861e-14,7.63333e-14,-13.1021,-13.8376,-47.3622,37.2434,37.5054,-3.16041,4.90916,7.12502,22.56,-23.7927,-3.49861e-14,7.63333e-14,-40.8375,4.4328,81.7273,53.1885,7.91528,-4.35974,49.1166,7.12502,21.4085,77.9538,-34.7966,2.63891,13.225,46.0344,-0.0766444,-3.30582,15.2416,-16.2024,12.2562,-28.9437,71.9036,-3.33016,-11.4231,-27.3685
2.01686,17.1124,39.5755,-9.04383,-10.1592,7.34634,32.8572,-1.02217,2.34517,5.42084,0.577769,8.84347,-11.1475,0.240308,8.06822,-0.355455,-13.6767,-10.8713,25.8532,-18.2316,-0.348548,9.21912,-9.51208,0.0421334,1.11319e-14,-1.01778e-13,-14.233,-15.308,-46.6111,35.2414,36.881,-3.19586,4.55957,7.12502,22.526,-24.1464,1.11319e-14,-1.01778e-13,-41.6243,4.26117,81.9873,53.5613,8.11436,-4.91258,49,7.12502,20.8774,77.8966,-35.3456,2.9166,13.4885,46.2566,0.322887,-3.4983,15.694,-15.7487,12.3122,-28.8104,72.2765,-2.36315,-11.6948,-25.6493
2.02674,17.0714,39.4719,-9.3622,-10.337,7.48915,33.1561,-0.920282,2.08445,5.58738,0.619159,8.84157,-11.0938,0.261567,8.19364,-1.20354,-13.6915,-10.1329,26.0986,-18.1043,-0.937609,9.30927,-9.43205,-0.302563,1.59028e-15,2.8625e-14,-14.2166,-17.6277,-46.894,33.5502,36.088,-3.37187,4.23668,7.12502,22.357,-24.4897,1.59028e-15,2.8625e-14,-41.4232,4.77371,81.5904,54.0371,8.46661,-5.48711,48.455,7.12502,20.3253,77.4114,-35.5804,3.3004,13.3744,46.3522,0.72642,-3.56516,16.1324,-14.8553,12.3788,-29.0278,72.3541,-1.26869,-11.6939,-22.154
2.05362,17.0382,39.3682,-9.58858,-9.92263,8.31297,32.8981,-0.900621,1.72147,5.79438,0.4507,8.56107,-10.7294,0.18588,8.1326,-1.9006,-13.8493,-9.79677,26.4608,-18.2916,-0.981342,9.53073,-9.47833,-0.454621,-1.43125e-14,0,-14.5118,-20.3263,-46.9216,32.1908,34.8389,-4.23147,3.84282,7.12502,21.5317,-24.9803,-1.43125e-14,0,-40.8686,4.98221,81.3451,54.4416,8.9483,-6.01497,48.3203,7.12502,19.818,77.33,-35.8809,2.71418,12.3362,46.3776,0.868022,-3.2712,15.7189,-13.9366,11.7545,-30.3985,72.0575,-0.235314,-10.9117,-19.6446
2.06889,17.0097,39.241,-9.51376,-9.70222,8.36774,33.0085,-0.891994,1.81503,5.38231,0.549929,8.60352,-11.2515,0.247596,8.11013,-0.946417,-13.842,-9.83472,26.642,-18.2926,-1.35225,9.39368,-9.53147,-0.495461,4.29375e-14,2.54444e-14,-15.6933,-22.7105,-46.3082,30.9085,33.9779,-5.60441,4.41223,7.12502,20.2126,-24.5562,4.29375e-14,2.54444e-14,-41.527,4.98834,81.2391,54.9266,9.33154,-6.40136,48.3036,7.12502,19.4465,77.3512,-36.3581,2.77263,12.1442,46.2267,0.965922,-3.78745,14.0976,-13.4556,11.2172,-30.8088,71.7566,1.21808,-10.0223,-17.9674
2.077,16.9834,39.1027,-9.38601,-9.5538,8.32017,32.8152,-0.91677,1.74426,5.50687,0.479407,8.67191,-11.0291,0.213379,8.24283,-1.66271,-13.6649,-9.46097,25.731,-18.0951,-0.825538,9.19493,-9.35376,-0.369558,1.27222e-14,-6.36111e-15,-16.4454,-23.6236,-46.4125,31.0965,31.4921,-6.90111,4.49538,7.12502,18.9659,-24.6,1.27222e-14,-6.36111e-15,-41.3948,5.56987,80.9635,55.4194,9.84313,-6.982,48.0222,7.12502,18.8881,77.1252,-36.8418,3.02574,12.0903,45.9083,1.42769,-4.29877,13.7556,-13.0753,10.6753,-31.0273,71.2381,2.86443,-8.94961,-15.422
2.10903,16.9545,38.9594,-9.34823,-9.07809,8.50361,32.8239,-1.14733,1.91743,5.40174,0.244196,8.5571,-11.1101,0.102653,8.11644,-1.79487,-13.7976,-9.46757,26.2158,-18.2633,-0.946689,9.38847,-9.43742,-0.459834,-4.29375e-14,-8.90555e-14,-17.3511,-24.7897,-46.3788,31.0833,29.7279,-8.50978,4.30434,7.12502,17.4183,-24.9352,-4.29375e-14,-8.90555e-14,-41.4521,5.88426,80.75,55.6327,10.431,-7.92381,47.7646,7.12502,17.9821,76.9533,-37.0391,2.60582,11.7099,45.331,2.20035,-4.08539,13.6216,-12.4737,9.7172,-31.7141,70.4853,3.6154,-7.80118,-13.5775
2.11347,16.9469,38.8519,-9.42972,-9.22529,8.50347,32.4771,-1.14483,1.65874,5.70303,0.106757,8.56463,-10.6183,0.0331937,8.29798,-2.49672,-13.7004,-8.83984,26.1979,-18.0133,-1.42884,9.37799,-9.30637,-0.719827,5.725e-14,4.77083e-14,-17.5353,-26.7697,-46.7531,30.7158,29.2418,-10.4649,4.53064,7.12502,15.5359,-24.8653,5.725e-14,4.77083e-14,-41.3066,6.59793,80.3766,55.7719,11.1547,-8.89886,47.3848,7.12502,17.0438,76.6571,-37.0501,3.04803,11.7045,44.7871,2.74905,-4.29302,13.4718,-11.3975,9.33225,-31.9044,69.2915,3.28004,-6.99796,-11.2067
2.12141,16.9464,38.7167,-9.37956,-9.47387,7.48958,32.6361,-1.25121,2.43984,5.46301,0.312642,8.92254,-10.9782,0.115801,8.19988,-1.35389,-13.5569,-9.19675,25.6947,-17.9317,-1.12709,9.06115,-9.29118,-0.451991,2.06736e-14,-7.63333e-14,-19.0107,-27.912,-46.1824,31.012,28.8206,-12.4408,4.95618,7.12502,13.6322,-24.5774,2.06736e-14,-7.63333e-14,-42.0869,6.80065,80.3878,55.9461,11.8291,-9.74419,47.5254,7.12502,16.23,76.866,-36.936,3.7251,12.7873,43.998,3.47012,-4.79661,13.2097,-10.4515,8.93053,-30.8583,67.9674,2.12267,-6.86782,-11.1559
2.14777,16.921,38.5623,-8.95856,-8.79568,9.11147,32.1789,-1.29258,0.862941,5.40804,-0.350647,8.45187,-10.7736,-0.141622,8.79718,-1.87936,-13.4742,-8.84913,25.7217,-17.8058,-1.11832,9.12067,-9.19611,-0.523481,-4.77083e-15,-5.725e-14,-19.3551,-28.855,-46.8768,31.9029,28.1206,-14.0339,5.36894,7.12502,12.0964,-24.2614,-4.77083e-15,-5.725e-14,-41.9984,7.73895,79.9389,56.0936,12.3456,-10.1564,47.4803,7.12502,15.833,76.8529,-37.928,3.06511,10.7369,43.3883,4.36746,-4.53558,14.0552,-10.1512,7.51031,-33.3271,65.9697,0.511106,-6.63971,-15.6025
2.14955,16.9186,38.4242,-8.96678,-9.20387,8.59597,32.0968,-1.30972,0.927803,5.62645,-0.371523,8.5182,-10.4935,-0.166871,8.82926,-2.25336,-13.4307,-8.58519,25.9345,-17.7453,-1.14052,9.2291,-9.14247,-0.597809,3.65764e-14,-6.04305e-14,-20.3204,-28.7932,-47.5154,33.4255,26.799,-15.8098,5.44711,7.12502,10.3836,-24.2765,3.65764e-14,-6.04305e-14,-42.2089,8.21997,79.5137,56.3065,13.0569,-11.0301,47.3858,7.12502,14.9915,76.8231,-37.8875,3.9776,11.2815,42.487,5.26146,-4.95894,14.6731,-9.10005,7.15818,-32.8259,63.9967,-1.9829,-7.72042,-21.87
2.17335,16.911,38.2789,-9.01768,-8.97205,9.12904,32.0236,-1.46957,0.39305,5.62059,-0.782876,8.30601,-10.4069,-0.34568,9.0451,-2.40059,-13.3452,-8.37222,25.99,-17.5669,-1.45688,9.21419,-9.0724,-0.720097,6.36111e-15,-6.04305e-14,-21.4241,-28.403,-47.9628,35.0643,25.3286,-17.7831,6.18013,7.12502,8.47962,-23.6296,6.36111e-15,-6.04305e-14,-42.6624,8.71571,79.2763,56.384,13.4664,-11.6818,47.7416,7.12502,14.3636,77.2247,-37.9294,3.76524,10.5794,41.6625,6.24347,-4.64991,14.5472,-7.96192,6.21649,-33.853,61.8066,-5.24211,-7.7714,-28.1688
2.19074,16.9019,38.1262,-8.82401,-8.95812,9.22854,31.8025,-1.58116,0.20532,5.45265,-0.992793,8.2425,-10.4705,-0.43139,9.16022,-1.53671,-13.2454,-8.67477,26.058,-17.4954,-1.37264,9.12239,-9.07028,-0.580404,-9.22361e-14,8.5875e-14,-22.5982,-29.8805,-47.836,35.9167,25.5817,-19.6011,8.19576,7.12502,6.7249,-21.6775,-9.22361e-14,8.5875e-14,-43.3612,8.79486,79.1818,56.4322,14.0433,-12.0208,48.2121,7.12502,14.037,77.7181,-37.9948,3.79778,10.3597,40.3908,7.47532,-4.43918,14.0959,-7.22129,5.57882,-34.3502,60.081,-8.24089,-6.27814,-31.2862
2.21124,16.9186,37.9667,-8.49542,-9.02129,9.1707,30.1442,-1.60637,0.474414,6.23521,-1.10031,8.07236,-8.8878,-0.546964,8.75937,-1.53783,-13.3398,-8.81943,24.9949,-17.7819,-0.35381,8.87308,-9.12046,-0.223218,-1.74931e-14,7.63333e-14,-23.2412,-31.658,-48.2466,37.4984,25.3263,-21.0708,9.29197,7.12502,5.30598,-20.6216,-1.74931e-14,7.63333e-14,-42.224,8.41653,79.395,55.9104,14.3819,-12.7592,48.2755,7.12502,13.3253,77.8294,-38.1297,3.95223,10.2522,39.007,8.68085,-4.49997,15.0958,-6.94038,4.94967,-34.5999,58.4768,-9.78575,-4.99344,-31.9763
2.2288,16.9445,37.7845,-8.07163,-9.21399,8.83982,30.9961,-1.66368,0.507823,5.23287,-1.02769,8.18714,-10.3718,-0.452174,8.92578,-0.283615,-13.1511,-8.87143,25.0781,-17.5168,-0.910833,8.62298,-9.0767,-0.266867,-2.06736e-14,-6.36111e-14,-25.9383,-30.009,-47.734,40.037,24.4449,-21.9943,9.43548,7.12502,4.41424,-20.4985,-2.06736e-14,-6.36111e-14,-44.1416,8.22272,79.3398,55.7931,14.5947,-13.705,47.7056,7.12502,12.4135,77.317,-38.2689,4.39392,10.3783,37.3102,10.233,-4.98278,17.4662,-7.40456,4.31805,-34.4257,57.3179,-10.9181,-4.7525,-29.9935
2.25554,16.9828,37.6448,-8.15258,-9.22497,8.73026,31.2455,-1.83422,0.499884,4.89592,-1.20864,8.20181,-10.8279,-0.515919,9.04363,0.517798,-13.0122,-8.99244,24.9969,-17.3506,-1.09636,8.44367,-9.04036,-0.226058,-4.77083e-15,2.54444e-14,-27.9954,-28.3524,-47.6615,42.8112,23.5044,-22.7377,9.62624,7.12502,3.69645,-20.3214,-4.77083e-15,2.54444e-14,-45.2526,8.06411,79.4075,55.4928,14.8563,-14.3688,47.6158,7.12502,11.7735,77.2649,-37.6746,4.22096,10.2887,35.6362,11.7146,-5.10641,20.0446,-6.80971,3.95032,-34.6326,56.0071,-12.7022,-3.73463,-29.1422
2.25911,16.9946,37.4461,-7.80281,-9.83796,8.17551,31.6463,-1.6611,0.267492,4.65991,-0.9888,8.5207,-11.3047,-0.383945,9.47955,0.848038,-12.949,-9.36827,25.1281,-17.3026,-0.995416,8.4785,-9.04707,-0.12216,-3.49861e-14,-3.49861e-14,-32.1758,-20.019,-49.0245,51.9862,16.8029,-23.0503,4.78542,7.12502,3.39448,-25.1673,-3.49861e-14,-3.49861e-14,-45.9776,8.16057,79.5201,55.2261,14.8077,-14.1545,48.0895,7.12502,11.9801,77.7267,-38.0168,5.65599,10.475,34.0086,13.6914,-6.60232,22.2056,-7.16716,4.17659,-34.0883,55.0383,-13.788,-2.70568,-28.653
2.28765,17.0104,37.2615,-7.61512,-9.65782,8.78503,31.5935,-1.76778,-0.414471,4.60425,-1.37741,8.32211,-11.2754,-0.539538,9.78946,0.841901,-12.8439,-9.49734,25.0922,-17.1957,-0.77904,8.49472,-8.99098,-0.0266344,5.08889e-14,-9.54166e-15,-32.0287,-22.9336,-48.8531,51.5814,20.3552,-23.7149,6.96565,7.12502,2.75265,-22.9963,5.08889e-14,-9.54166e-15,-46.2352,8.29813,79.5414,54.8009,14.6033,-14.0294,47.948,7.12502,12.1007,77.5781,-38.3861,5.72265,9.23083,32.7739,15.4504,-7.89752,24.8235,-7.24535,3.76882,-35.0865,53.7062,-14.4466,-1.82456,-24.1207
2.31741,17.0297,37.0899,-7.63144,-9.63864,9.76646,31.1386,-1.7976,-1.23542,4.94428,-1.78798,7.85115,-10.6144,-0.741034,9.83365,0.339292,-12.6684,-9.2794,24.6274,-17.0163,-0.224066,8.43801,-8.83573,0.117474,-4.29375e-14,6.04305e-14,-31.6687,-27.2932,-48.7734,51.199,24.7161,-24.1143,9.52327,7.12502,2.367,-20.4433,-4.29375e-14,6.04305e-14,-45.8009,8.03339,79.5103,54.1994,14.5342,-13.6712,48.0136,7.12502,12.4462,77.623,-38.6035,5.84787,7.5484,31.4434,16.9617,-9.36724,27.218,-7.32663,3.64355,-36.4541,52.6316,-15.3341,-0.658727,-21.194
