JuanDHNZ/ProyectoFinalCD/preprocessing/sports_trials_csv/06_04.csv
root1,root2,root3,root4,root5,root6,lowerback1,lowerback2,lowerback3,upperback1,upperback2,upperback3,thorax1,thorax2,thorax3,lowerneck1,lowerneck2,lowerneck3,upperneck1,upperneck2,upperneck3,head1,head2,head3,rclavicle1,rclavicle2,rhumerus1,rhumerus2,rhumerus3,rradius1,rwrist1,rhand1,rhand2,rfingers1,rthumb1,rthumb2,lclavicle1,lclavicle2,lhumerus1,lhumerus2,lhumerus3,lradius1,lwrist1,lhand1,lhand2,lfingers1,lthumb1,lthumb2,rfemur1,rfemur2,rfemur3,rtibia1,rfoot1,rfoot2,rtoes1,lfemur1,lfemur2,lfemur3,ltibia1,lfoot1,lfoot2,ltoes1
1.82697,17.3022,-33.3735,-1.60688,11.6732,3.09909,20.1659,-0.953735,-6.05276,2.32486,-2.49963,0.671109,-8.45996,-0.973909,4.85646,-7.79585,5.89777,0.767304,32.0937,9.88141,-4.29391,12.106,4.04687,-0.500853,-2.79292e-14,-1.90833e-14,-39.0806,-20.4676,-63.1686,37.1794,-1.60725,-8.38593,5.0932,7.12502,17.5375,-24.1358,-2.79292e-14,-1.90833e-14,-18.0856,2.14316,74.7012,37.7372,-28.0201,-5.72419,56.003,7.12502,20.0975,84.9836,-31.0737,-1.15121,10.1264,27.2406,-13.7442,-21.5577,13.7557,7.84828,-5.45757,-27.4268,16.7169,-20.1836,-0.928209,-10.5373
1.81657,17.297,-33.2814,-1.41238,11.3382,3.24236,20.2906,-0.888673,-6.30074,2.17238,-2.48853,0.622722,-8.68952,-0.947574,4.95246,-7.35266,5.85991,1.11427,31.7332,9.83822,-4.68592,11.911,4.04208,-0.728834,1.36913e-14,-1.59028e-15,-39.3108,-20.2081,-63.3399,37.6777,-1.43723,-8.13128,5.184,7.12502,17.7825,-24.0229,1.36913e-14,-1.59028e-15,-18.5033,2.92482,75.2389,36.9616,-26.7032,-5.04203,54.6338,7.12502,20.753,83.5441,-31.4046,-0.711332,10.0838,26.7229,-13.9644,-21.7132,13.9208,8.15758,-5.22841,-27.5093,16.3745,-20.0234,-0.951498,-10.7098
1.80881,17.2852,-33.1872,-1.34467,11.0501,3.25845,20.9137,-1.01232,-6.30377,2.05452,-2.69762,0.629553,-9.13256,-1.02362,5.05049,-8.55637,6.13189,0.598758,32.8031,10.2539,-4.06493,12.5473,4.17383,-0.303219,-2.85256e-14,-2.40529e-14,-38.9732,-19.6472,-63.7445,37.9714,-1.33876,-7.98195,5.15889,7.12502,17.9262,-24.035,-2.85256e-14,-2.40529e-14,-18.8725,4.62222,75.5952,36.2058,-25.2663,-3.70768,58.168,7.12502,22.0346,86.9327,-31.7262,-0.433834,10.1925,26.4996,-14.0534,-21.835,14.0887,8.67587,-5.13881,-27.5227,15.8984,-19.739,-0.729129,-10.9604
1.8052,17.272,-33.0904,-1.08199,10.9377,3.50627,20.8058,-0.905381,-6.4398,1.68711,-2.62076,0.4048,-9.49932,-0.961997,4.8652,-6.74897,5.97609,1.61491,32.257,9.89108,-4.51178,12.0185,4.14296,-0.762209,2.20403e-14,1.59028e-14,-40.0982,-19.4974,-63.7196,38.6942,-1.63239,-8.04785,5.2751,7.12502,17.8628,-23.9245,2.20403e-14,1.59028e-14,-19.5788,5.05997,75.9022,35.3596,-23.2137,-3.54524,59.0533,7.12502,22.1906,87.7995,-32.0988,-0.643067,10.0992,26.2158,-14.0539,-21.6712,14.5302,8.97158,-5.09205,-27.7578,15.5364,-19.5796,-0.683369,-10.6606
1.79946,17.2574,-32.9879,-0.836409,10.743,3.61415,20.701,-1.11222,-6.66784,2.11818,-2.90069,0.567065,-8.90469,-1.1203,5.23115,-8.08886,6.34525,1.18198,32.0358,10.5647,-4.72625,12.2245,4.33353,-0.631286,-2.24875e-14,4.17448e-15,-38.6937,-18.9698,-64.4467,39.1861,-1.78942,-8.28397,5.27949,7.12502,17.6356,-23.9407,-2.24875e-14,4.17448e-15,-18.9623,7.61335,76.3212,34.544,-21.1392,-4.05087,58.2441,7.12502,21.7051,87.0473,-32.4948,-0.571587,10.1139,26.0205,-13.913,-21.6757,14.2491,9.25134,-4.92864,-27.799,15.2106,-19.5405,-0.772462,-9.67341
1.78925,17.2426,-32.8872,-0.629083,10.3873,3.65716,20.4761,-1.02094,-6.87748,2.11539,-2.80967,0.598176,-8.78559,-1.07492,5.34995,-7.99391,6.26491,1.2171,32.1211,10.4247,-4.67111,12.232,4.2807,-0.638805,-2.21396e-14,3.37934e-15,-38.8762,-18.6839,-64.5834,39.9535,-2.18419,-8.31885,5.03227,7.12502,17.602,-24.1909,-2.21396e-14,3.37934e-15,-19.3662,8.7375,76.7136,34.1793,-18.4033,-4.5617,57.9921,7.12502,21.2145,86.8512,-33.0144,-0.350612,10.2398,25.9823,-13.5355,-21.7261,13.5517,9.67469,-4.68827,-27.779,14.61,-19.3411,-0.69668,-8.8806
1.78489,17.23,-32.7896,-0.326287,10.1715,3.81352,20.4515,-0.981654,-6.91538,2.01025,-2.77897,0.504812,-8.89666,-1.05282,5.26271,-8.22188,6.15689,1.07103,32.484,10.2211,-4.32858,12.3883,4.19611,-0.502531,2.7159e-14,-1.70955e-14,-39.1932,-18.6994,-64.65,40.6492,-2.49334,-8.23708,5.08101,7.12502,17.6807,-24.1351,2.7159e-14,-1.70955e-14,-19.878,9.70469,76.9941,34.0146,-15.2374,-5.25206,58.567,7.12502,20.5512,87.4992,-33.5298,-0.471257,10.2858,25.9476,-13.0992,-21.5042,13.2626,10.043,-4.86188,-27.9894,14.0303,-19.0879,-0.383518,-9.43951
1.74928,17.2463,-32.6439,-0.442489,11.5748,3.70904,21.2548,-1.57364,-6.69431,1.6456,-3.58231,0.476086,-9.64721,-1.39586,5.37793,-7.1539,6.25859,1.85798,31.8944,10.3255,-4.89922,12.0137,4.31109,-0.878392,2.3233e-14,1.39149e-14,-40.1001,-18.3106,-64.7838,41.3277,-2.66539,-8.31454,5.16659,7.12502,17.6062,-24.0562,2.3233e-14,1.39149e-14,-21.3184,10.6157,76.7734,34.239,-11.2066,-5.734,58.9104,7.12502,20.088,87.8919,-32.8607,-0.144905,10.0858,25.9828,-14.2696,-22.8612,14.5899,10.9603,-5.45381,-27.4296,13.5239,-18.775,-1.2572,-9.91921
1.7287,17.244,-32.5204,-0.332383,12.0569,3.79623,20.6025,-1.69144,-6.95038,1.98677,-3.72215,0.563573,-8.86768,-1.49971,5.60311,-7.14492,6.2027,1.80012,31.8006,10.1931,-4.74537,11.9532,4.26572,-0.829792,4.75344e-14,-3.27995e-15,-39.8982,-18.8075,-64.7033,41.6097,-2.70349,-8.48412,5.31273,7.12502,17.443,-23.9247,4.75344e-14,-3.27995e-15,-21.3262,12.079,77.1632,34.0127,-7.84656,-6.48188,58.9218,7.12502,19.3691,87.9771,-32.9077,-0.309576,10.0719,26.1339,-14.5507,-23.1307,15.6744,11.6422,-5.60519,-27.2858,12.8692,-18.1996,-1.62949,-9.97859
1.72066,17.2189,-32.4247,0.0653832,11.151,4.22709,20.8251,-1.45539,-7.43763,1.91637,-3.5496,0.518682,-9.06523,-1.38741,5.80283,-8.38308,6.23304,1.06444,32.5134,10.1892,-3.9151,12.4027,4.22241,-0.345241,-3.11843e-14,-3.05134e-14,-39.6331,-18.6173,-64.826,41.9052,-3.01529,-8.70375,5.56978,7.12502,17.2316,-23.6862,-3.11843e-14,-3.05134e-14,-21.6162,13.8291,77.3588,34.0108,-4.0427,-7.28606,60.0143,7.12502,18.5957,89.1454,-33.7293,-0.672963,10.1242,26.1764,-13.3219,-22.1738,14.7479,11.8061,-5.03481,-27.7941,12.5705,-18.0453,-1.25668,-9.52416
1.70064,17.2158,-32.2992,0.0732297,11.7835,4.36634,21.2558,-1.77153,-7.45445,1.99243,-3.99785,0.508089,-9.14719,-1.596,5.94342,-8.24356,6.25917,1.26631,31.6219,10.2841,-4.49462,12.0625,4.24677,-0.594944,3.70982e-14,5.66536e-15,-39.5609,-18.3286,-65.1285,42.4902,-3.43394,-8.95912,5.62691,7.12502,16.9858,-23.6504,3.70982e-14,5.66536e-15,-22.0365,15.506,77.3701,34.218,-0.112453,-8.16859,61.2076,7.12502,17.7466,-90.4178,-33.4748,-0.907852,10.0329,26.2211,-13.5076,-22.3824,15.1994,12.3465,-5.2763,-27.7379,12.438,-17.9709,-1.3495,-11.9194
1.69265,17.197,-32.2022,0.453712,10.6319,4.23375,21.3669,-1.39897,-7.31446,1.5672,-3.52329,0.38032,-9.77415,-1.33476,5.61872,-7.52112,6.14202,1.74082,31.6972,10.016,-4.48963,11.9593,4.19851,-0.735143,-1.24986e-14,-4.47266e-15,-40.5976,-18.16,-65.1507,43.2338,-3.9675,-9.24834,5.60368,7.12502,16.7074,-23.6974,-1.24986e-14,-4.47266e-15,-23.2186,16.387,77.1716,34.7215,4.08729,-8.87692,62.0164,7.12502,17.0649,-91.2869,-34.4166,-0.597454,10.6003,26.3381,-12.715,-21.7521,14.7037,12.4122,-4.71586,-27.7178,12.1373,-17.6466,-0.511208,-13.8982
1.66036,17.208,-32.0511,0.513546,11.2912,4.09696,21.424,-1.63387,-7.1882,2.00839,-3.77236,0.4567,-9.27589,-1.49314,5.68478,-9.31071,6.1519,1.58397,31.9917,10.0447,-4.31958,12.4322,4.15718,-0.571443,4.14715e-14,-1.12313e-14,-39.9676,-18.5166,-65.561,43.5437,-4.84318,-9.48966,6.07208,7.12502,16.475,-23.2484,4.14715e-14,-1.12313e-14,-22.8394,18.0169,77.4046,35.041,8.17415,-9.49757,62.1492,7.12502,16.4674,-91.4704,-34.1693,-0.45784,10.8015,26.4879,-12.8843,-22.3986,14.9216,12.9388,-4.98991,-27.2208,11.9407,-17.4911,-0.895567,-13.0702
1.63139,17.2134,-31.9008,0.581466,11.9858,4.14448,20.904,-1.99895,-7.53585,2.16608,-4.25899,0.686585,-8.70172,-1.74461,6.2227,-8.92422,6.23111,1.05247,31.9001,10.1861,-4.10618,12.2739,4.19523,-0.400078,1.22501e-14,-1.21259e-14,-39.9132,-18.202,-65.4308,43.5621,-4.91227,-9.99835,6.65873,7.12502,15.9852,-22.7017,1.22501e-14,-1.21259e-14,-23.725,20.0256,77.3146,35.6354,12.2598,-9.84602,62.4547,7.12502,16.1319,-91.8033,-33.8434,-0.602428,10.8708,26.5711,-12.7675,-22.8118,16.4477,13.202,-5.24878,-26.9274,12.2359,-17.5377,-1.2852,-15.09
1.6274,17.194,-31.7966,0.965413,10.8973,4.19385,20.8607,-1.56458,-7.41119,2.24196,-3.67052,0.523645,-8.70445,-1.47316,5.81352,-9.55758,6.06475,1.31072,31.8648,9.89423,-4.11272,12.3953,4.07956,-0.461126,-4.19684e-14,-1.16289e-14,-39.9363,-19.2009,-65.2515,43.5507,-4.17872,-10.9199,6.48014,7.12502,15.0977,-22.9492,-4.19684e-14,-1.16289e-14,-23.8169,20.9232,77.4666,36.2478,16.4913,-10.7423,63.8436,7.12502,15.2688,-93.26,-34.684,-1.08638,11.5514,26.777,-11.1136,-21.6163,15.7614,13.1611,-4.70089,-27.0934,12.2494,-17.3574,-0.746986,-14.745
1.61321,17.186,-31.6874,1.14486,10.177,3.92185,21.9737,-1.50444,-6.9512,1.75808,-3.60094,0.463374,-9.8958,-1.38161,5.55464,-10.0728,6.18228,1.09185,32.3033,10.0294,-3.72195,12.6513,4.13457,-0.235556,-5.1684e-14,7.95139e-15,-40.4834,-18.5854,-65.5292,43.8982,-4.64406,-12.1143,6.07148,7.12502,13.9469,-23.4407,-5.1684e-14,7.95139e-15,-25.2866,22.2699,76.9349,37.2283,20.9027,-11.888,65.7406,7.12502,14.165,-95.2376,-35.243,-1.30764,12.4331,27.126,-10.2375,-20.8625,14.6196,13.3302,-4.59994,-26.9105,12.2325,-17.1534,-0.173241,-16.4304
1.57348,17.2,-31.5418,1.24188,10.5648,3.63922,21.4912,-1.57155,-7.0897,1.55587,-3.67616,0.657071,-9.8269,-1.4068,5.849,-7.9479,6.02253,1.56845,31.4953,9.72667,-4.11022,11.9176,4.08442,-0.58985,-3.3048e-14,4.07509e-15,-41.5539,-18.5548,-65.0342,43.8315,-4.56868,-12.1212,7.00827,7.12502,13.9402,-22.5044,-3.3048e-14,4.07509e-15,-26.6224,23.1472,76.7255,37.9774,25.5219,-12.7358,66.702,7.12502,13.3479,-96.2545,-35.175,-1.13782,12.9496,27.4901,-10.4813,-21.2982,15.2142,13.4278,-4.94678,-26.3165,12.6401,-16.9457,-0.284378,-18.0599
1.55557,17.1994,-31.3913,1.40304,10.5933,3.97928,21.049,-1.49936,-7.48241,2.15776,-3.60652,0.669789,-8.89526,-1.42457,6.0146,-9.20454,5.958,1.38291,31.356,9.66464,-4.10264,12.1071,4.00864,-0.518305,3.44146e-14,-1.2921e-15,-40.6303,-19.1805,-65.1979,43.6721,-4.7277,-12.3069,6.89103,7.12502,13.7612,-22.6339,3.44146e-14,-1.2921e-15,-26.0893,24.467,77.2357,38.6361,30.4115,-13.6046,67.4751,7.12502,12.5104,-97.0806,-35.206,-1.61681,12.9985,27.996,-10.1073,-20.7384,15.2293,13.6918,-5.12082,-26.5757,12.9428,-16.6492,-0.361999,-18.8114
1.53651,17.199,-31.2566,1.74611,10.2196,3.9834,21.4728,-1.46782,-7.26698,1.65841,-3.59339,0.48793,-9.7145,-1.37235,5.7334,-8.58845,5.95156,1.6509,31.3591,9.56492,-4.01401,11.9858,4.0196,-0.566623,1.73812e-14,-4.62174e-15,-41.5306,-19.0235,-65.1492,43.5142,-4.89785,-12.4563,7.33717,7.12502,13.6173,-22.1974,1.73812e-14,-4.62174e-15,-27.6232,25.0633,76.529,39.6634,35.5447,-14.2635,68.5145,7.12502,11.875,-98.1577,-35.6807,-1.62128,13.3728,28.5803,-9.29659,-20.1057,14.5333,13.8885,-5.35745,-26.5759,12.6773,-16.0473,-0.341195,-17.7058
1.50145,17.2047,-31.1139,1.76728,10.1512,3.83397,22.4011,-1.47962,-7.07301,1.0707,-3.67234,0.421395,-10.8958,-1.33929,5.65267,-7.72292,5.92956,1.75216,31.3484,9.46117,-3.86439,11.7956,4.02319,-0.57418,-5.00068e-15,5.81445e-15,-42.7351,-18.802,-64.8789,43.1206,-5.02072,-12.1556,8.02054,7.12502,13.9071,-21.4944,-5.00068e-15,5.81445e-15,-29.5324,25.387,75.7109,40.6454,40.4077,-13.844,68.7826,7.12502,12.2796,-98.402,-35.6682,-1.38181,13.7725,29.2212,-8.6653,-19.5874,15.2541,14.3723,-5.58144,-26.2435,12.507,-15.3582,-0.60465,-16.1496
1.4709,17.2407,-30.9394,1.95927,10.6092,3.66678,21.4777,-1.58332,-6.8358,2.15154,-3.6173,0.470968,-9.18819,-1.44043,5.45515,-10.3756,5.85812,1.60508,31.3291,9.36648,-3.77259,12.3183,3.91224,-0.431401,2.93332e-14,1.16786e-15,-41.1494,-20.1121,-65.4542,42.9079,-5.54271,-11.6691,7.29982,7.12502,14.3759,-22.1824,2.93332e-14,1.16786e-15,-27.8003,26.2533,76.6448,41.4059,45.0413,-14.0745,69.7539,7.12502,12.0572,-99.3866,-35.5044,-1.23169,14.0429,29.814,-7.96411,-19.4342,17.292,14.6451,-6.0025,-25.7568,12.521,-14.6986,-1.00698,-18.1401
1.4496,17.2582,-30.7966,2.04151,10.296,3.48052,21.0827,-1.531,-6.81175,2.09196,-3.50463,0.609491,-9.04782,-1.39231,5.543,-8.83399,5.81911,1.58788,30.5474,9.32663,-4.04533,11.6991,3.91619,-0.596045,-5.35476e-15,-1.54058e-15,-41.6277,-19.9939,-65.059,42.758,-5.2432,-10.5458,6.82315,7.12502,15.458,-22.5788,-5.35476e-15,-1.54058e-15,-29.042,26.8454,76.5442,42.6152,49.4407,-13.7002,69.8521,7.12502,12.4181,-99.4632,-35.672,-0.909707,14.4086,30.4199,-6.72113,-18.9597,18.7889,14.869,-6.17852,-25.5516,12.6902,-13.921,-0.726988,-21.22
1.40862,17.297,-30.6248,2.05532,10.8188,3.21666,22.0581,-1.74695,-6.40937,1.77928,-3.76887,0.651691,-9.91533,-1.47852,5.50704,-9.55094,5.8546,1.56595,31.1739,9.39412,-3.90364,12.091,3.92726,-0.500923,4.43787e-14,-8.44835e-16,-42.213,-19.9732,-64.9277,42.491,-5.02576,-10.0632,6.72636,7.12502,15.9228,-22.6391,4.43787e-14,-8.44835e-16,-30.2806,26.7788,76.3344,43.9905,53.5873,-12.7895,69.4404,7.12502,13.2961,-98.9963,-35.4844,-0.46125,14.6465,31.0298,-6.14611,-19.561,19.0981,15.0781,-6.7735,-24.9404,13.0619,-13.0802,-1.13158,-23.8882
1.37733,17.3158,-30.4654,2.17621,10.4342,2.93372,21.5728,-1.47951,-6.42418,1.9264,-3.36976,0.782518,-9.52986,-1.31065,5.51314,-9.19687,5.66763,1.8326,30.8858,9.12804,-4.17844,11.9218,3.82226,-0.697357,8.49804e-15,-7.00716e-15,-42.5616,-20.2098,-64.7353,42.2824,-5.241,-10.1728,6.50993,7.12502,15.8172,-22.8639,8.49804e-15,-7.00716e-15,-30.8178,26.4136,76.7086,45.3061,57.1497,-12.8126,70.1066,7.12502,13.2738,-99.6639,-35.6608,0.115049,15.0911,31.647,-5.55516,-19.4736,19.3365,14.9841,-7.0687,-24.5904,13.8408,-12.3545,-1.16507,-23.5056
1.34803,17.3256,-30.3056,2.27551,10.1258,2.59018,22.1366,-1.49004,-6.02099,1.70367,-3.32724,0.827952,-10.1138,-1.27191,5.36379,-9.67071,5.72605,1.57003,31.1456,9.21668,-3.93994,12.1,3.84231,-0.535131,-6.1499e-16,9.81499e-15,-42.9001,-19.7943,-64.8165,41.9631,-5.46586,-10.087,6.06843,7.12502,15.8999,-23.2988,-6.1499e-16,9.81499e-15,-31.8398,26.563,76.5427,46.6849,60.3631,-11.8907,69.6731,7.12502,14.1623,-99.1703,-35.6805,0.390567,15.6927,32.0777,-5.51788,-19.1186,19.4563,14.6105,-7.27009,-24.154,15.0922,-11.7909,-1.23319,-24.0313
1.32756,17.3338,-30.1369,2.23737,9.83585,2.65488,21.9433,-1.40887,-6.04563,2.06512,-3.2011,0.81544,-9.61762,-1.24365,5.30214,-10.087,5.72677,1.21797,30.8742,9.22175,-3.77042,12.0474,3.82227,-0.400122,1.71452e-14,1.67973e-14,-42.2011,-20.2906,-64.8579,41.0522,-5.17583,-9.93573,5.73011,7.12502,16.0455,-23.6255,1.71452e-14,1.67973e-14,-31.9185,26.7066,76.9644,48.0526,63.7303,-11.4345,69.464,7.12502,14.6019,-98.93,-35.3736,0.214531,15.9389,32.4207,-5.35419,-18.1051,18.5315,14.4567,-7.39363,-24.2269,16.4254,-11.0858,-1.31771,-26.4858
1.29999,17.336,-29.9896,2.41989,8.69089,2.16369,21.6541,-0.995415,-5.89036,1.921,-2.59856,0.947769,-9.7006,-0.956741,5.18013,-9.06117,5.69541,1.28544,30.5241,9.13489,-3.80243,11.6985,3.82062,-0.473799,-9.19379e-16,2.8128e-14,-42.3886,-20.4668,-64.6475,40.2579,-4.98069,-9.97384,5.47641,7.12502,16.0088,-23.8821,-9.19379e-16,2.8128e-14,-32.9452,26.5269,77.0193,49.5147,66.9941,-11.5181,69.6165,7.12502,14.5214,-99.0882,-35.6144,1.01816,16.7393,32.5977,-4.60706,-17.131,17.4295,13.844,-7.34416,-23.7996,17.8842,-10.2283,-1.32691,-24.9339
1.25366,17.3683,-29.7882,2.40435,8.8254,1.87684,21.103,-1.04405,-5.77775,2.37039,-2.57595,1.0513,-8.90189,-0.99418,5.1814,-9.72242,5.6399,1.07762,30.3686,9.0725,-3.74034,11.7553,3.76539,-0.402705,-1.42131e-14,-1.34677e-14,-41.8574,-20.8809,-64.845,39.5296,-4.7987,-9.77209,5.67896,7.12502,16.2031,-23.6639,-1.42131e-14,-1.34677e-14,-32.8545,26.7803,77.3264,50.8084,69.6794,-10.3846,69.2391,7.12502,15.6133,-98.629,-35.0687,1.38597,17.1676,32.7526,-4.47014,-17.1248,18.2726,13.6529,-7.45741,-23.1666,19.1421,-9.24024,-1.77071,-30.4335
1.23256,17.3928,-29.6182,2.50971,8.62099,1.64686,21.0976,-1.09946,-5.38848,2.44737,-2.55744,1.03949,-8.83401,-1.00399,4.93731,-10.1671,5.65518,0.968612,30.4094,9.11079,-3.69547,11.8558,3.7636,-0.347208,1.52381e-14,2.36057e-15,-41.6582,-20.8838,-64.9853,38.6271,-4.78674,-9.60701,6.51672,7.12502,16.3621,-22.8131,1.52381e-14,2.36057e-15,-33.2352,27.3515,77.2485,52.0227,72.125,-10.1826,69.3931,7.12502,15.8078,-98.7677,-34.7669,1.21721,17.6586,32.7688,-3.6821,-16.3351,18.8118,13.0737,-7.74042,-22.8605,20.7159,-8.0043,-2.0805,-32.3139
1.1741,17.4297,-29.404,2.28743,9.42439,1.19278,21.9158,-1.32446,-5.06218,1.74549,-2.82879,1.14153,-10.0407,-1.0772,5.0065,-8.88249,5.59007,1.40559,30.6507,8.9444,-3.73181,11.7074,3.75712,-0.498318,1.63314e-14,-1.50331e-14,-43.1789,-20.3798,-64.4649,37.8359,-4.37066,-9.48535,6.78227,7.12502,16.4792,-22.5379,1.63314e-14,-1.50331e-14,-35.7157,26.7481,76.4422,53.9144,75.1699,-10.11,69.1364,7.12502,15.8777,-98.5054,-33.784,1.27648,18.3358,32.9382,-3.76785,-16.6111,19.4747,12.8526,-8.55027,-21.8386,22.1707,-6.39825,-3.15199,-31.651
1.16293,17.4355,-29.2273,2.54025,8.21899,0.959908,21.3294,-0.962446,-4.76173,1.58778,-2.2779,0.977663,-9.98112,-0.835984,4.47084,-7.99516,5.4903,1.62888,30.3583,8.71482,-3.68294,11.4112,3.7111,-0.579728,1.51511e-14,3.29486e-14,-43.6058,-20.4903,-64.3415,36.9157,-3.82198,-9.38055,6.94992,7.12502,16.5801,-22.3618,1.51511e-14,3.29486e-14,-36.8143,26.5091,76.1358,55.6153,77.6011,-9.11354,67.9503,7.12502,16.8371,-97.2403,-33.8798,1.59605,18.9046,33.1279,-3.18722,-15.5182,19.936,12.0601,-8.33979,-21.7902,23.8573,-4.72544,-2.97085,-29.2978
1.12466,17.4466,-29.0342,2.25268,8.67139,0.901467,21.0024,-1.11111,-4.91317,2.03531,-2.45772,1.18385,-9.26638,-0.946395,4.8067,-8.25875,5.46346,1.28015,30.1815,8.74187,-3.71902,11.3812,3.67874,-0.52337,-3.0251e-14,-1.67414e-14,-42.8989,-20.5861,-64.2933,36.0039,-3.34576,-9.31381,7.15359,7.12502,16.6443,-22.1528,-3.0251e-14,-1.67414e-14,-36.9979,27.0548,76.521,57.2909,79.5959,-8.4223,67.1535,7.12502,17.5025,-96.3856,-33.0734,1.33186,19.2081,33.4446,-3.51485,-15.6838,20.6688,11.6426,-9.0254,-21.5119,25.642,-2.70431,-3.51532,-29.6148
1.0939,17.4764,-28.8424,2.09549,9.04282,1.05331,20.8989,-1.1913,-4.91646,2.40506,-2.55524,1.09943,-8.7921,-1.01965,4.72422,-8.98165,5.41064,1.23976,30.2169,8.65653,-3.6348,11.5318,3.62911,-0.472248,1.06785e-14,-7.31155e-15,-42.4282,-20.9794,-64.435,35.3497,-2.95803,-9.20397,7.17864,7.12502,16.7501,-22.1188,1.06785e-14,-7.31155e-15,-36.8496,27.0656,76.8934,58.9845,81.4431,-8.68675,67.1146,7.12502,17.248,-96.3692,-32.3856,0.757436,19.3436,33.811,-3.84771,-15.5346,21.3331,10.9407,-9.54066,-21.4807,27.6182,-0.171297,-4.10551,-29.4928
1.06482,17.4891,-28.6538,2.09941,8.46218,0.799828,20.8026,-0.97801,-4.74223,2.30076,-2.23756,1.08143,-8.89922,-0.869387,4.51772,-8.70084,5.31312,1.4472,30.1776,8.49728,-3.72474,11.4688,3.57704,-0.569693,-3.43401e-14,-7.67806e-15,-42.8953,-20.6401,-64.4495,35.1198,-2.8358,-8.9957,6.95788,7.12502,16.9506,-22.3225,-3.43401e-14,-7.67806e-15,-37.5827,26.6967,76.894,60.8204,83.0435,-9.43427,67.2967,7.12502,16.5284,-96.6127,-32.1385,0.95313,19.897,34.235,-4.14141,-14.8285,22.6627,9.92772,-9.21287,-21.0948,29.8043,2.94226,-4.66059,-27.6669
1.02011,17.5026,-28.4595,1.98741,8.84295,0.165927,21.7221,-1.2089,-4.09265,1.61669,-2.43074,1.21169,-10.1642,-0.924861,4.40817,-8.16684,5.24551,1.42012,30.5688,8.38168,-3.55516,11.5,3.54432,-0.53274,-1.75055e-14,-1.05604e-14,-44.2579,-19.6224,-64.2878,35.1171,-2.84578,-8.66557,7.04896,7.12502,17.2683,-22.2038,-1.75055e-14,-1.05604e-14,-39.4731,26.1833,76.331,62.9325,84.3902,-8.52657,65.7663,7.12502,17.4021,-95.0073,-31.4848,1.19568,20.785,34.4738,-4.64315,-14.8026,24.4718,8.81511,-9.38927,-19.9727,32.037,5.70356,-5.43553,-30.3107
1.00241,17.5134,-28.2982,2.09279,8.28808,-0.102017,21.2846,-1.11252,-3.73805,1.85724,-2.19942,1.20912,-9.69258,-0.852117,4.10756,-8.54543,5.15249,1.049,30.3394,8.23365,-3.3138,11.4511,3.46166,-0.390458,-4.01297e-15,8.39865e-15,-43.7553,-19.9042,-64.3779,34.5817,-2.33106,-8.30218,7.44547,7.12502,17.6181,-21.7763,-4.01297e-15,8.39865e-15,-39.4161,25.9568,76.6568,64.9655,85.6873,-8.71432,65.1986,7.12502,17.2214,-94.4555,-31.2377,1.39575,21.3184,34.5973,-4.72114,-14.0694,24.7617,7.16314,-8.9374,-19.5756,34.7309,8.5389,-5.75718,-28.1388
0.957726,17.5668,-28.0947,1.87598,8.67723,-0.326683,21.1509,-1.21952,-3.81263,2.16052,-2.31782,1.48302,-9.25533,-0.918746,4.47015,-9.22965,5.10677,0.621385,30.3269,8.25791,-3.29732,11.5656,3.41357,-0.287484,-3.27125e-14,-7.57245e-15,-42.8323,-20.2929,-64.2815,33.7546,-1.54385,-8.32099,7.49478,7.12502,17.6,-21.7286,-3.27125e-14,-7.57245e-15,-39.3833,26.0336,77.1833,67.0617,86.9502,-9.92545,65.4725,7.12502,16.0554,-94.8273,-30.1262,1.46028,21.8291,34.5257,-5.67608,-14.3911,25.309,5.69497,-9.01818,-18.9197,37.5156,10.4083,-7.40944,-30.2563
0.941255,17.5813,-27.9399,1.96117,7.60182,-0.590491,20.954,-0.820456,-3.60289,1.80055,-1.75466,1.41568,-9.61428,-0.645106,4.121,-7.46806,4.92005,1.10469,29.5318,7.93396,-3.67556,10.9332,3.33197,-0.605948,9.7156e-15,-2.71962e-14,-44.2457,-19.5922,-64.09,34.3084,-1.84774,-8.18268,6.93689,7.12502,17.7331,-22.2745,9.7156e-15,-2.71962e-14,-40.5907,25.2718,76.9282,69.2708,88.3146,-9.80333,64.9252,7.12502,16.173,-94.2705,-29.7711,1.79137,22.389,34.3671,-5.84109,-13.609,25.0772,3.73571,-7.90302,-18.6003,40.5605,13.8189,-5.71308,-22.2792
0.902221,17.6094,-27.7644,1.66117,7.96994,-1.01885,21.2835,-0.939111,-3.1124,2.03761,-1.79015,1.51986,-9.53837,-0.684566,3.97032,-8.12831,4.84441,1.16389,29.3018,7.83735,-3.78804,10.9814,3.27378,-0.649313,3.25324e-14,2.80783e-15,-43.864,-19.8012,-64.2537,34.216,-1.5033,-8.27293,6.12609,7.12502,17.6462,-23.0931,3.25324e-14,2.80783e-15,-40.2941,24.9789,77.2664,71.1832,89.3579,-9.80521,64.1227,7.12502,16.1712,-93.4682,-28.67,1.62711,23.138,34.1394,-6.39316,-13.7624,24.6704,2.04106,-7.93036,-17.8254,43.5735,16.57,-5.67795,-20.7195
0.875163,17.6368,-27.5818,1.50297,8.02481,-1.31432,21.3399,-0.969526,-2.86786,2.05971,-1.75823,1.66878,-9.54992,-0.675869,3.987,-8.41204,4.65455,0.602217,29.4124,7.59501,-3.47317,11.0343,3.13199,-0.461677,-2.25516e-14,1.22905e-14,-43.6576,-19.7309,-64.1964,33.9026,-1.22184,-8.29107,5.98949,7.12502,17.6288,-23.2313,-2.25516e-14,1.22905e-14,-40.8429,24.5635,77.5401,73.8192,90.6841,-11.0705,63.8677,7.12502,14.9525,-93.3079,-27.7077,1.73397,23.6918,33.9104,-6.96567,-13.9461,24.3978,0.297807,-7.78934,-17.3204,46.5194,19.0419,-5.54358,-17.3287
0.857819,17.6486,-27.4355,1.63213,7.03343,-1.59465,21.4236,-0.63692,-2.63269,1.95723,-1.27097,1.66639,-9.7574,-0.4485,3.71526,-8.59875,4.43113,0.355847,29.3812,7.28942,-3.34876,11.0357,2.97873,-0.407133,-2.25877e-14,1.6378e-14,-44.7331,-18.3892,-64.5585,35.1853,-2.45029,-8.1912,6.1786,7.12502,17.7249,-23.0336,-2.25877e-14,1.6378e-14,-41.12,23.6323,78.0449,76.4911,91.6911,-14.9994,65.4673,7.12502,11.1653,-95.1502,-27.2956,2.11983,24.2303,33.6535,-7.17344,-13.4035,24.1291,-1.78111,-6.61652,-16.9814,49.4079,21.4071,-5.77236,-13.4899
0.814025,17.6783,-27.2354,0.958528,8.11919,-2.14345,21.9901,-1.03311,-1.95104,2.02769,-1.62241,1.76747,-9.97463,-0.634823,3.55626,-8.55753,4.29033,0.605446,29.2834,7.05062,-3.4124,10.9958,2.89311,-0.502825,3.19919e-15,-2.75814e-15,-44.3402,-18.6838,-64.6466,34.5861,-2.13724,-8.24795,6.61117,7.12502,17.6703,-22.6059,3.19919e-15,-2.75814e-15,-41.5938,22.7413,78.145,78.946,92.588,-16.9282,65.224,7.12502,9.30467,-94.9986,-25.5632,1.97325,25.0687,33.3334,-8.20856,-14.2489,23.9643,-3.10533,-7.13071,-16.0037,52.0614,23.5118,-6.39283,-11.6497
0.800947,17.6903,-27.0751,0.916176,7.06223,-2.68406,21.2293,-0.653076,-1.77467,2.28144,-1.04424,2.08627,-9.31715,-0.380204,3.60624,-7.76836,4.11387,0.341763,28.3409,6.87083,-3.73664,10.4827,2.78338,-0.618996,2.16178e-14,1.43622e-14,-43.7268,-18.5339,-64.4935,34.3516,-2.11231,-8.09503,6.69961,7.12502,17.8174,-22.5042,2.16178e-14,1.43622e-14,-41.7864,22.624,78.5049,81.0102,92.4056,-19.1663,66.977,7.12502,7.14467,-96.8364,-24.8706,2.44487,25.8862,32.9813,-8.23012,-13.7005,23.1318,-4.88539,-5.91497,-15.4504,54.6485,24.4547,-6.76073,-7.74714
0.789504,17.702,-26.9154,0.873938,6.04854,-3.07792,21.3164,-0.375486,-1.31851,2.46059,-0.577593,2.08363,-9.20476,-0.180263,3.20609,-8.61651,4.00745,0.0980934,28.3807,6.73564,-3.57009,10.6456,2.69817,-0.513104,-6.64686e-16,1.16786e-15,-43.1679,-18.5002,-64.7991,34.4468,-2.12105,-7.99597,6.33404,7.12502,17.9127,-22.861,-6.64686e-16,1.16786e-15,-41.6462,22.5679,78.3888,82.7626,91.57,-17.9284,66.5586,7.12502,8.33944,-96.3739,-24.1074,2.81702,26.5181,32.604,-8.33868,-13.1425,22.9409,-6.57616,-4.66914,-15.0884,57.0526,24.3665,-7.01346,-5.27253
0.760106,17.7251,-26.7193,0.252564,6.92407,-3.48834,22.2343,-0.739698,-0.746151,1.80532,-0.902875,2.14945,-10.4226,-0.329115,3.08654,-7.26974,3.8201,-0.0340248,28.7929,6.38445,-3.16876,10.5055,2.58434,-0.418997,3.74895e-15,-2.43138e-14,-44.5788,-17.7766,-64.4209,34.5245,-1.99659,-8.03049,6.46835,7.12502,17.8795,-22.7298,3.74895e-15,-2.43138e-14,-43.8146,22.1161,77.3337,84.555,90.5468,-16.2582,64.9956,7.12502,9.95105,-94.7404,-22.4524,2.42047,27.1931,32.2472,-9.23337,-13.6043,23.0788,-7.65268,-5.09692,-14.4685,59.1595,23.0488,-7.26542,-6.2628
0.75788,17.7275,-26.565,0.327963,5.80964,-3.98653,21.5562,-0.356711,-0.359692,2.39062,-0.299708,2.35685,-9.43467,-0.0749726,2.88318,-8.87696,3.63589,-0.454047,29.0806,6.20593,-3.00823,10.9091,2.44334,-0.271668,-2.91965e-15,1.19271e-15,-43.278,-18.2455,-64.4767,34.3995,-1.75708,-8.11421,6.70889,7.12502,17.7989,-22.4966,-2.91965e-15,1.19271e-15,-43.0314,22.3312,77.8167,86.3483,90.1301,-15.9829,63.5793,7.12502,10.2167,-93.3112,-21.8881,2.80328,27.8903,31.9147,-9.26324,-12.8784,22.4192,-9.29849,-3.84312,-14.0662,61.1835,20.9049,-7.09644,-7.99174
0.730627,17.7438,-26.3836,-0.339984,6.57963,-4.21864,21.7249,-0.701901,0.057746,3.01589,-0.653944,2.41599,-8.81801,-0.26694,2.80085,-9.7691,3.63497,-0.348372,28.7173,6.25631,-3.27623,10.9643,2.4389,-0.361368,-4.76586e-14,2.9768e-14,-42.1879,-18.2819,-64.974,34.5504,-1.98021,-8.37551,6.62065,7.12502,17.5475,-22.6074,-4.76586e-14,2.9768e-14,-42.5125,22.5905,77.8889,88.2025,88.9967,-17.2997,64.4753,7.12502,8.94615,-94.2656,-20.2889,2.44301,28.3518,31.6255,-10.0473,-13.324,22.3941,-10.3402,-4.19328,-13.7427,62.8735,19.1696,-7.44898,-9.00818
0.712806,17.7602,-26.2042,-0.31246,5.94727,-4.30761,22.1329,-0.50397,0.112183,2.16704,-0.370111,2.33801,-9.99669,-0.11975,2.62952,-8.08461,3.43635,-0.25324,28.9128,5.88002,-3.09501,10.6911,2.32316,-0.393594,1.61885e-14,-9.01985e-15,-43.7462,-17.4938,-64.673,35.0102,-2.2479,-8.32885,6.54483,7.12502,17.5924,-22.6792,1.61885e-14,-9.01985e-15,-44.8617,22.2275,76.8257,90.3847,88.0984,-16.8482,63.5412,7.12502,9.38181,-93.3124,-19.4623,2.79623,28.6405,31.314,-10.4129,-13.1048,21.9316,-11.8059,-3.21597,-13.6631,64.3577,16.8158,-7.25909,-11.6205
0.711637,17.7671,-26.0402,-0.0662779,5.12066,-4.43221,20.7385,-0.257234,0.250348,3.07118,-0.0479921,2.42991,-8.25568,0.00943785,2.51407,-9.16013,3.36977,-0.351256,28.1615,5.88563,-3.46837,10.6328,2.27112,-0.489232,1.63997e-14,6.41081e-15,-42.0434,-18.0724,-64.9574,35.2279,-2.21599,-8.15472,6.90909,7.12502,17.76,-22.2999,1.63997e-14,6.41081e-15,-43.3993,22.8127,77.5587,92.0573,86.5992,-16.8708,63.2519,7.12502,9.36005,-93.0241,-18.9654,3.03211,28.8805,30.9623,-10.6253,-12.536,21.2265,-13.5345,-2.18226,-13.7078,65.6328,14.6392,-6.83939,-12.8285
0.687374,17.7832,-25.8525,-0.633711,6.22226,-4.62418,20.9364,-0.569394,0.289881,2.75553,-0.40784,2.72058,-8.69251,-0.152758,2.91924,-7.38139,3.19088,-0.293626,27.9904,5.61046,-3.60155,10.2203,2.17142,-0.61319,4.4975e-15,-1.27222e-14,-43.0316,-17.2582,-64.4069,35.8058,-2.70591,-8.17614,6.79613,7.12502,17.7394,-22.4147,4.4975e-15,-1.27222e-14,-44.7027,22.213,77.707,93.9484,84.1129,-18.6171,64.6562,7.12502,7.67474,-94.497,-17.4406,2.71927,29.284,30.63,-11.5081,-13.2772,21.5324,-14.6453,-2.87444,-13.4873,66.609,12.8807,-6.78195,-14.8247
0.665765,17.7942,-25.665,-0.838435,6.36146,-4.72666,21.236,-0.65422,0.525934,2.36874,-0.460802,2.60923,-9.28265,-0.180924,2.69273,-6.91025,2.97886,-0.262063,28.3572,5.24557,-3.34415,10.248,2.03528,-0.575899,-1.03368e-14,8.94531e-15,-43.6151,-17.0948,-64.4077,36.0941,-2.81896,-8.50256,6.39581,7.12502,17.4252,-22.8432,-1.03368e-14,8.94531e-15,-45.7954,21.9419,76.8305,95.7326,82.033,-18.2531,64.7543,7.12502,8.02602,-94.5819,-16.3198,2.72368,29.606,30.3204,-12.0867,-13.4304,21.6449,-15.8947,-2.68692,-13.4223,67.3611,10.9241,-6.52341,-15.6639
0.668931,17.7872,-25.5184,-0.690403,4.74974,-4.84691,21.417,-0.233523,0.637461,2.36595,0.118725,2.61729,-9.40788,0.089839,2.47434,-7.90787,2.98281,-0.807851,28.8556,5.30448,-3.00305,10.6061,2.01618,-0.335439,-7.70291e-16,1.10325e-14,-42.913,-16.9933,-64.5848,36.3342,-2.87881,-8.6694,6.26256,7.12502,17.2647,-22.9906,-7.70291e-16,1.10325e-14,-45.6377,22.1527,76.8946,97.5284,80.6364,-20.3675,65.5322,7.12502,5.98497,-95.4277,-15.825,2.99914,29.8341,30.0359,-11.9095,-12.2795,20.2045,-17.3371,-0.979939,-13.5969,68.0166,9.18148,-6.04329,-15.2457
0.662609,17.7872,-25.352,-0.740048,3.92108,-4.88827,21.3556,0.139335,0.627256,2.49419,0.602939,2.65768,-9.25139,0.318907,2.38176,-8.21849,2.90867,-0.700143,28.7447,5.23782,-3.20016,10.6342,1.97348,-0.426146,-1.59028e-15,1.35174e-14,-42.6664,-17.2686,-64.3587,36.6535,-3.09132,-8.65011,6.7729,7.12502,17.2832,-22.4786,-1.59028e-15,1.35174e-14,-45.3793,21.9897,77.0439,99.1675,78.5986,-19.9619,64.6838,7.12502,6.37662,-94.5678,-15.0393,3.18473,30.0298,29.8449,-11.6636,-11.9204,16.2342,-18.523,-0.00330726,-13.7933,68.3891,7.56635,-5.45595,-15.0066
0.650392,17.7897,-25.1719,-0.578801,3.93257,-4.93849,20.7292,0.155926,0.911968,1.97605,0.673689,2.50008,-9.48233,0.340894,2.0266,-5.82877,2.73252,-0.170591,28.0284,4.84664,-3.34951,9.91097,1.88467,-0.65422,2.95692e-15,4.96962e-15,-44.0482,-16.914,-64.1528,37.3562,-3.50181,-8.86716,7.02161,7.12502,17.0743,-22.2481,2.95692e-15,4.96962e-15,-46.6056,21.4451,76.0813,101.077,77.2825,-19.4725,63.8278,7.12502,6.84903,-93.697,-14.4802,3.23781,30.2341,29.7642,-11.2417,-12.1206,10.987,-20.094,0.211639,-13.9248,68.6259,5.75599,-4.24181,-14.0812
0.643771,17.7834,-24.9859,-0.587369,3.80856,-4.95192,20.3424,-0.030766,1.10865,2.71763,0.446065,2.54875,-8.44557,0.222284,2.01805,-8.70288,2.71392,-1.08021,28.7096,4.92759,-2.79628,10.6892,1.82983,-0.244213,-7.45443e-15,2.18663e-15,-42.0139,-16.8854,-64.9528,37.7802,-3.90225,-9.25951,6.54784,7.12502,16.6966,-22.7541,-7.45443e-15,2.18663e-15,-45.0061,22.3891,76.4836,102.624,75.3164,-20.4626,64.1037,7.12502,5.89321,-94.0017,-13.6931,3.24186,30.363,29.6881,-10.3731,-12.0861,2.98454,-21.3343,0.482007,-14.1383,68.6294,3.93127,-2.99523,-1.03133
0.615273,17.7709,-24.8411,-0.705598,4.26646,-5.26705,20.463,-0.138364,1.47911,2.58619,0.397079,2.57034,-8.65178,0.18786,1.84611,-8.02748,2.51665,-0.696031,28.2526,4.5718,-2.93701,10.3922,1.71117,-0.412708,-1.61761e-14,-1.18277e-14,-42.1797,-16.9163,-65.1354,38.506,-4.68223,-9.78369,5.8208,7.12502,16.1919,-23.5229,-1.61761e-14,-1.18277e-14,-44.9946,21.9014,76.2291,104.57,73.4903,-21.4156,64.7716,7.12502,4.97306,-94.6932,-13.0497,3.29393,30.8967,29.6648,-11.0584,-12.5285,4.73255,-22.9376,0.280326,-13.8993,68.6531,2.54675,-2.30365,-19.6716
0.597151,17.7643,-24.6697,-0.789402,4.23105,-5.38334,20.3826,-0.131395,1.60623,2.46888,0.437394,2.59187,-8.73755,0.203231,1.78674,-7.63723,2.39666,-0.692689,28.1531,4.36096,-2.84253,10.2727,1.63276,-0.409206,2.09469e-14,-3.57812e-15,-42.2992,-16.6747,-65.1948,39.0703,-5.18211,-10.112,5.38825,7.12502,15.8758,-23.9809,2.09469e-14,-3.57812e-15,-45.2027,21.5134,76.1824,106.333,70.6899,-22.1903,64.9439,7.12502,4.22505,-94.8817,-12.3305,3.38614,31.1938,29.6831,-13.2143,-12.4029,13.6835,-24.1855,0.478748,-13.9533,68.4309,1.16868,-1.81009,-14.2299
0.59073,17.7463,-24.4937,-0.820409,4.04236,-5.41592,20.2551,-0.055995,1.79028,2.50885,0.567894,2.56081,-8.62475,0.258742,1.61042,-6.44025,2.40541,0.791235,26.4983,4.4195,-4.37587,9.51149,1.692,-1.20764,3.23025e-16,5.36719e-15,-42.2902,-16.4887,-65.2878,39.7795,-5.73699,-10.4796,4.62789,7.12502,15.5218,-24.7691,3.23025e-16,5.36719e-15,-44.9324,20.997,76.4471,107.887,67.0069,-23.9786,65.7246,7.12502,2.49802,-95.6897,-11.649,3.28798,31.3733,29.731,-14.835,-12.1576,16.6752,-25.3502,0.753444,-14.1873,68.0824,-0.610452,-1.38268,-13.3489
0.581931,17.7216,-24.322,-0.869327,3.99912,-5.60843,20.1838,-0.102732,2.0494,2.59499,0.567123,2.66132,-8.49017,0.251922,1.5708,-8.25498,2.19471,-0.864793,27.9452,4.1034,-2.81514,10.3088,1.49583,-0.389807,1.88597e-14,-4.96962e-15,-42.0958,-15.9307,-65.4743,40.6004,-6.47404,-10.4687,5.62837,7.12502,15.5323,-23.7678,1.88597e-14,-4.96962e-15,-44.3506,20.746,76.8494,109.3,63.178,-25.1088,66.1297,7.12502,1.4065,-96.1048,-11.0315,3.33323,31.752,29.8315,-15.5164,-12.2734,16.7238,-26.5076,0.849748,-14.2055,67.5295,-2.63365,-1.00917,-13.5984
0.573896,17.6982,-24.1484,-0.991953,3.71631,-5.76867,20.2377,0.0148562,2.26126,2.5658,0.774093,2.69989,-8.55214,0.344077,1.43659,-8.3538,2.0569,-0.896486,28.0414,3.87252,-2.63831,10.3555,1.40392,-0.34611,1.15544e-14,4.96962e-16,-42.0338,-15.9417,-65.4603,41.1364,-6.68249,-10.714,5.89317,7.12502,15.296,-23.5212,1.15544e-14,4.96962e-16,-43.9793,20.0267,77.2802,110.724,59.4262,-27.3817,66.826,7.12502,-0.788698,-96.8043,-10.295,3.47286,32.059,29.9876,-16.1561,-12.0873,17.3639,-27.4578,1.13417,-14.2775,66.7644,-3.95542,-0.304035,-14.9852
0.566336,17.6792,-23.9755,-1.09098,3.65385,-5.70771,20.2803,0.0807907,2.27123,2.07925,0.88041,2.67313,-9.11207,0.390416,1.37791,-6.52052,1.9618,-0.656583,27.5498,3.6599,-2.73299,9.82211,1.35204,-0.466271,-9.14409e-15,-3.38928e-14,-42.8546,-15.6206,-65.2704,41.577,-6.87965,-10.5354,7.06807,7.12502,15.468,-22.3331,-9.14409e-15,-3.38928e-14,-44.6884,18.9873,77.342,112.207,55.4364,-28.7911,66.978,7.12502,-2.14997,-96.9469,-9.53164,3.46603,32.0864,30.1256,-17.1934,-11.7602,19.9806,-28.3629,1.0981,-14.6185,65.7854,-4.2676,0.691676,-12.346
0.561029,17.6595,-23.8006,-1.0313,3.34348,-5.64621,20.2645,0.0786362,2.24345,2.4136,0.864003,2.74092,-8.73606,0.387007,1.46879,-8.31861,2.03952,-0.989783,27.8072,3.89183,-2.77659,10.2643,1.39244,-0.377461,-1.00386e-14,-1.09332e-14,-42.6431,-14.5344,-65.5836,42.9816,-8.13092,-10.7766,6.61452,7.12502,15.2357,-22.8044,-1.00386e-14,-1.09332e-14,-43.2514,19.1931,77.985,113.306,50.4495,-28.9148,67.4572,7.12502,-2.26939,-97.4249,-8.89544,3.69695,32.1481,30.1617,-17.9196,-11.7842,20.0985,-29.3526,1.28322,-14.9539,64.6299,-5.82627,1.17624,-16.1002
0.55435,17.6391,-23.6373,-1.10671,2.93905,-6.01596,20.5484,0.167127,2.71282,2.25971,1.1058,2.77428,-9.05498,0.483325,1.17308,-8.30965,1.93042,-0.916259,27.8697,3.7183,-2.74855,10.2838,1.3226,-0.399589,-4.72114e-15,7.15625e-15,-41.9952,-14.8602,-65.6162,42.671,-7.83864,-10.8428,7.19869,7.12502,15.1719,-22.2251,-4.72114e-15,7.15625e-15,-42.7945,18.989,77.8315,114.219,43.7044,-25.0998,67.343,7.12502,1.41521,-97.3181,-8.14401,3.91382,32.6992,30.0902,-18.426,-12.0813,18.8091,-30.2388,1.62069,-14.7621,63.3744,-6.84723,1.86168,-17.7931
0.543766,17.6274,-23.4655,-1.04193,2.72112,-6.17064,20.7135,0.270229,2.96784,1.98061,1.31504,2.73937,-9.44829,0.567531,0.932892,-7.9907,1.77681,-0.90621,27.8648,3.43354,-2.53492,10.211,1.22106,-0.360858,1.37161e-14,4.96962e-14,-42.1028,-14.7941,-65.6752,43.0137,-8.07599,-10.8408,7.84833,7.12502,15.1738,-21.5753,1.37161e-14,4.96962e-14,-42.5652,18.1754,77.972,115.209,38.414,-23.9633,66.3169,7.12502,2.51283,-96.2818,-7.43676,4.15057,33.0234,29.869,-18.9367,-12.3063,18.4034,-31.1034,1.68353,-14.7456,61.9129,-7.46934,2.43105,-16.6509
0.538762,17.6131,-23.2886,-0.87309,2.43944,-6.17735,20.7717,0.276049,3.05136,1.46684,1.36657,2.7308,-10.0504,0.579885,0.865086,-6.94143,1.79554,-0.943282,27.7056,3.43752,-2.54152,9.94845,1.23288,-0.368136,-2.98177e-15,-1.19271e-14,-42.6256,-13.9634,-65.7001,43.5622,-8.4139,-10.8018,7.85868,7.12502,15.2115,-21.5621,-2.98177e-15,-1.19271e-14,-42.6282,17.688,77.937,116.151,34.0628,-24.2532,66.49,7.12502,2.23285,-96.4581,-6.79999,4.33747,33.1397,29.5486,-19.116,-12.2964,18.6927,-32.0046,1.73892,-14.922,60.2968,-8.51481,1.97003,-16.7027
0.533573,17.6007,-23.1049,-0.899529,2.12772,-6.17041,20.8743,0.291793,3.2357,1.45343,1.42164,2.60221,-10.1134,0.593087,0.602237,-7.44185,1.76494,-0.993579,27.8743,3.36707,-2.34381,10.1012,1.20772,-0.291903,5.71506e-15,1.13307e-14,-42.202,-13.7437,-66.0986,44.0282,-8.39492,-11.0631,7.4011,7.12502,14.9597,-22.0386,5.71506e-15,1.13307e-14,-41.8421,17.1356,78.0279,116.996,30.0334,-24.055,65.5874,7.12502,2.42427,-95.5534,-5.91226,4.53442,33.2627,29.2446,-19.1889,-12.1292,19.1348,-32.567,1.77838,-15.07,58.4921,-9.40755,1.98184,-16.3152
0.512632,17.579,-22.957,-0.834333,2.41982,-6.54128,20.6288,0.135918,3.41726,1.80733,1.25862,2.87972,-9.58902,0.523283,0.848685,-8.28551,1.71334,-1.40402,27.7121,3.35536,-2.24313,10.1979,1.16436,-0.177999,-6.06293e-15,4.17448e-15,-40.9072,-13.4778,-66.4305,44.6808,-8.33289,-11.1651,6.43209,7.12502,14.8615,-23.0149,-6.06293e-15,4.17448e-15,-40.213,16.9195,78.8194,117.658,26.0337,-24.4496,65.2918,7.12502,2.04311,-95.2618,-5.20893,4.59371,33.8985,28.7533,-19.5073,-12.4737,19.7549,-33.552,1.46731,-14.766,56.5686,-9.18534,2.29792,-15.2315
0.488314,17.5533,-22.8225,-0.481114,2.67593,-6.87241,20.7863,0.0622981,3.65872,1.28035,1.264,2.97996,-10.2621,0.507206,0.825581,-7.32779,1.56806,-1.27055,27.5456,3.1023,-2.2786,9.95137,1.0708,-0.251,-1.78658e-14,-2.74323e-14,-41.3923,-13.046,-66.422,45.2666,-8.45592,-11.121,6.56054,7.12502,14.9039,-22.8833,-1.78658e-14,-2.74323e-14,-40.1728,15.9203,78.9981,118.396,22.0254,-24.8596,65.5543,7.12502,1.64715,-95.5277,-4.89004,4.6751,34.4855,28.2591,-19.8092,-13.1744,18.736,-34.7986,1.22144,-14.4643,54.4843,-8.4321,2.65712,-12.8884
0.51681,17.5711,-22.5815,-0.89613,0.50426,-6.82288,20.5195,0.768585,3.78617,1.41597,2.1731,2.76471,-9.93796,0.929021,0.255755,-6.4988,1.5469,-0.804628,27.1457,3.0124,-2.48598,9.65569,1.06907,-0.420811,-1.59525e-14,-5.86415e-15,-41.6435,-12.7073,-66.6054,45.8906,-8.62486,-11.0685,6.56524,7.12502,14.9545,-22.8749,-1.59525e-14,-5.86415e-15,-39.9401,14.5568,79.2479,119.071,18.3429,-26.4107,66.162,7.12502,0.149055,-96.1417,-3.00619,5.49506,34.3814,27.642,-20.0631,-12.3944,17.0789,-33.8224,2.31739,-14.5035,52.1654,-9.17718,3.58627,-12.4415
0.512686,17.5588,-22.4049,-0.884097,0.351055,-6.6644,20.6516,0.711623,3.62191,1.38475,2.0696,2.76655,-10.0536,0.885203,0.378851,-7.28409,1.64978,-1.08432,27.7145,3.18599,-2.26951,10.0074,1.12624,-0.271477,-2.06239e-15,-1.68967e-14,-41.1414,-12.0395,-66.9106,46.3495,-8.71831,-11.0685,6.84619,7.12502,14.9545,-22.5939,-2.06239e-15,-1.68967e-14,-39.3226,13.7847,79.673,119.518,14.2234,-26.3865,65.2565,7.12502,0.172474,-95.2362,-1.98321,5.50229,34.3111,27.0059,-20.3381,-12.4439,16.906,-33.9361,1.95977,-14.6768,49.7563,-9.81822,3.79991,-13.3129
0.511099,17.5397,-22.2284,-0.854137,0.0551474,-6.72239,20.9985,0.746843,3.53016,1.18474,2.13807,2.89225,-10.4776,0.916957,0.545786,-7.78786,1.67359,-1.32262,28.2462,3.26194,-2.14576,10.2962,1.13574,-0.17282,1.44616e-14,4.77083e-14,-41.0058,-11.3721,-66.9454,46.8128,-8.88124,-10.9919,6.9423,7.12502,15.0283,-22.4923,1.44616e-14,4.77083e-14,-39.1268,12.7639,80.173,119.969,10.3571,-26.792,64.3938,7.12502,-0.219176,-94.3734,-0.877528,5.67274,34.5012,26.1621,-20.4669,-12.513,16.5527,-34.0224,1.62797,-14.5169,47.2165,-9.87948,3.83577,-15.7519
0.503412,17.531,-22.0509,-0.664024,-0.178128,-6.90508,20.7582,0.749908,3.66144,1.20425,2.16528,2.96142,-10.3206,0.9281,0.542547,-7.78237,1.79833,-1.00876,27.8693,3.46434,-2.51365,10.1704,1.22631,-0.335223,2.98177e-16,-1.33186e-14,-40.5295,-11.1439,-67.1079,47.1539,-8.90568,-10.9703,7.11739,7.12502,15.0491,-22.3156,2.98177e-16,-1.33186e-14,-38.6331,11.6128,80.6414,120.33,6.66335,-27.2035,63.2343,7.12502,-0.616603,-93.2132,0.00322844,5.93356,34.8373,25.4348,-20.6322,-12.7009,16.4721,-34.3805,1.16027,-14.1545,44.6076,-9.37898,4.10266,-18.1063
0.497777,17.5262,-21.8675,-0.449633,-0.507867,-7.09141,20.5958,0.827671,3.95323,1.12223,2.31944,2.86791,-10.3046,0.984008,0.23169,-7.92671,1.79795,-0.641997,27.8533,3.42191,-2.60272,10.1994,1.23297,-0.432825,-1.23246e-14,1.86858e-14,-39.9868,-11.4923,-67.3694,47.141,-8.50109,-10.7507,7.34859,7.12502,15.2606,-22.0685,-1.23246e-14,1.86858e-14,-38.1847,9.89635,80.9855,120.708,2.50363,-27.4861,63.4445,7.12502,-0.889547,-93.4224,1.01983,6.07191,35.1282,24.5093,-20.5822,-12.7838,16.0704,-34.6903,0.694095,-13.749,41.9316,-9.051,4.7575,-19.2341
0.495462,17.5154,-21.6859,-0.331156,-0.808248,-7.17153,20.4452,0.760167,3.95684,1.28413,2.22091,2.94578,-10.0453,0.945052,0.3457,-9.06421,1.83406,-1.26905,28.3286,3.52535,-2.19556,10.5817,1.23885,-0.155786,-1.21259e-14,1.61016e-14,-39.3882,-10.7552,-67.7779,47.8075,-8.7284,-10.8852,7.0583,7.12502,15.131,-22.3686,-1.21259e-14,1.61016e-14,-37.4935,8.93869,81.3678,120.852,-1.22092,-27.8587,62.4895,7.12502,-1.24942,-92.4656,2.17006,6.03913,35.2613,23.4172,-20.4005,-12.7386,15.2106,-34.7447,0.02395,-13.3601,39.1736,-8.6432,5.31456,-18.3107
0.497145,17.5134,-21.4916,-0.196933,-1.30363,-7.31338,19.6012,0.892703,4.00936,0.885909,2.38643,3.03222,-10.0202,1.02245,0.377804,-6.13095,1.86758,-0.945803,27.381,3.48873,-2.52107,9.6747,1.26835,-0.365608,-1.35422e-14,-2.74323e-14,-39.7567,-10.2583,-67.725,47.7755,-8.64438,-10.9136,6.8381,7.12502,15.1037,-22.5908,-1.35422e-14,-2.74323e-14,-38.48,7.23538,81.7404,120.983,-4.94122,-28.5697,61.8407,7.12502,-1.93616,-91.8117,3.3829,6.02803,35.3836,22.1958,-20.3444,-12.4679,14.8248,-34.6754,-0.827771,-12.7499,36.3784,-8.04548,6.04838,-18.2764
0.495093,17.5152,-21.3114,-0.0030104,-1.83128,-7.47012,19.5703,0.976341,4.11472,1.00404,2.51175,3.04689,-9.86528,1.08046,0.300345,-7.13353,1.80021,-0.951079,27.6944,3.45007,-2.60251,9.98293,1.22335,-0.385757,2.75068e-14,3.20043e-14,-38.8434,-10.1949,-68.0334,47.8664,-8.6401,-10.9352,6.7733,7.12502,15.0829,-22.6572,2.75068e-14,3.20043e-14,-37.5915,5.92471,82.2503,120.585,-8.87138,-29.5616,61.7775,7.12502,-2.89403,-91.7377,4.54113,6.36323,35.5878,20.9066,-20.1417,-12.3616,15.4653,-34.7256,-2.03283,-11.8934,33.6362,-7.63066,7.20157,-18.173
0.499643,17.5128,-21.1141,0.177443,-2.06902,-7.28242,19.2123,0.962805,4.06018,1.08365,2.43776,2.88694,-9.57311,1.05014,0.183085,-7.70038,1.77621,-0.95431,27.8941,3.40913,-2.50441,10.1635,1.20382,-0.348999,-4.39811e-15,-8.64713e-15,-37.8722,-10.3209,-68.3902,47.5838,-8.40699,-10.9333,7.05939,7.12502,15.0848,-22.371,-4.39811e-15,-8.64713e-15,-36.9808,4.62425,82.5214,120.281,-12.8756,-28.9472,60.1168,7.12502,-2.30069,-90.0842,5.82569,5.95634,35.2485,19.5647,-19.6373,-11.9746,14.4812,-34.6379,-3.69492,-11.3525,31.0118,-7.78134,8.15289,-18.3185
0.486984,17.485,-20.9249,0.142315,-2.39908,-7.64688,19.6584,0.968488,4.23518,0.606624,2.54892,2.97199,-10.3489,1.07783,0.137861,-6.83354,1.79545,-0.898307,28.0149,3.41279,-2.5154,10.0406,1.21694,-0.371915,-3.3371e-14,-2.50469e-14,-38.7676,-9.77348,-68.4632,48.0874,-8.52026,-10.7463,7.3484,7.12502,15.2649,-22.0683,-3.3371e-14,-2.50469e-14,-37.958,2.66437,83.029,119.649,-16.155,-30.7361,61.9115,7.12502,-4.02829,-91.8532,7.27296,5.93583,35.7413,18.2965,-19.1137,-11.9284,13.5994,-34.3802,-5.45515,-9.96471,28.577,-8.29327,9.08964,-18.6414
0.478052,17.4547,-20.7441,0.120564,-2.65098,-7.96303,19.7385,1.0084,4.37104,0.508014,2.65705,3.09767,-10.5029,1.12167,0.167385,-6.38767,1.74226,-0.880842,27.8545,3.33176,-2.57277,9.89623,1.18236,-0.408398,-9.6659e-15,-1.8487e-14,-38.412,-9.77688,-68.5691,47.97,-8.28432,-10.7561,7.39196,7.12502,15.2554,-22.0255,-9.6659e-15,-1.8487e-14,-38.1515,0.850142,83.6135,118.727,-18.4408,-32.2514,62.3545,7.12502,-5.49151,-92.2633,8.58658,5.9162,36.1768,17.2351,-19.1436,-11.8157,13.8401,-34.3152,-7.35952,-8.5787,26.3583,-8.89249,10.2443,-18.0056
0.479834,17.4427,-20.5331,0.328894,-3.30668,-7.88524,18.7111,1.31444,4.33376,-0.00812091,3.00204,2.96723,-10.4883,1.2811,-0.027829,-3.29906,1.63894,-0.458762,26.9274,3.04708,-2.65164,8.98199,1.13251,-0.566459,9.19379e-16,-2.04748e-14,-39.4308,-9.77694,-68.488,48.0007,-8.12235,-11.0276,7.43334,7.12502,14.9939,-22.0038,9.19379e-16,-2.04748e-14,-39.4345,-1.23364,84.0435,117.728,-20.3773,-33.0052,62.114,7.12502,-6.21919,-92.0027,9.74498,5.92736,35.9639,16.2267,-19.1849,-11.3563,14.5331,-34.3435,-9.34982,-7.48826,24.3988,-9.88284,12.2797,-17.261
0.475946,17.4419,-20.3376,0.523687,-3.91272,-8.04789,18.752,1.48382,4.30414,-0.615172,3.26548,3.0099,-11.1929,1.38836,-0.0401364,-2.01894,1.6273,-0.375345,27.0579,2.9822,-2.56636,8.79005,1.12951,-0.570216,-3.1731e-14,-3.05134e-14,-40.2185,-9.33404,-68.5207,48.1904,-8.27428,-11.3284,6.18927,7.12502,14.7041,-23.2693,-3.1731e-14,-3.05134e-14,-40.6593,-2.51449,84.2885,116.498,-23.2917,-31.9197,58.4232,7.12502,-5.17118,-271.66,10.6914,5.79076,36.0168,15.1775,-18.4956,-11.1323,13.1491,-34.4676,-10.928,-6.21684,22.8378,-10.8067,13.9224,-16.3547
0.468849,17.4445,-20.1527,0.563476,-4.13297,-8.20323,19.2935,1.21926,4.15079,0.574979,2.86732,3.25206,-10.1927,1.24316,0.412622,-7.81343,2.00829,-1.30582,28.2896,3.77853,-2.37449,10.3271,1.33898,-0.201343,-5.39203e-15,1.6201e-14,-36.3037,-9.28743,-69.426,47.6951,-8.26971,-11.2447,6.40034,7.12502,14.7848,-23.0523,-5.39203e-15,1.6201e-14,-37.7462,-2.43488,84.5126,114.566,-25.3815,-32.9119,59.2521,7.12502,-6.12912,-270.857,11.6551,5.1242,36.1183,14.2345,-17.0235,-11.3936,9.05573,-34.566,-11.8864,-5.38886,21.5883,-11.8141,14.745,-15.4373
0.471632,17.4151,-19.9416,0.872578,-4.71058,-8.20208,19.0755,1.39996,4.19251,-0.103064,3.12685,3.09617,-10.8138,1.34257,0.149694,-6.09922,1.90954,-0.777645,28.2302,3.53645,-2.51466,9.98078,1.28699,-0.388882,2.34442e-14,8.94531e-15,-37.3704,-9.07713,-69.5417,47.8645,-8.36965,-11.2333,6.61192,7.12502,14.7957,-22.8399,2.34442e-14,8.94531e-15,-38.91,-3.9547,84.6609,112.968,-27.7084,-32.176,58.1191,7.12502,-5.41866,-271.97,12.4811,4.87491,35.9585,13.7462,-16.0024,-11.2426,6.43897,-34.9588,-12.2656,-4.87754,20.863,-12.9911,15.7841,-15.0443
0.472588,17.3883,-19.7377,1.08968,-5.22365,-8.14712,18.1108,1.60893,4.026,0.218817,3.28373,3.08632,-9.91265,1.44781,0.219442,-6.3869,1.86158,-0.610051,28.1604,3.48646,-2.67741,10.0163,1.26134,-0.476773,1.21383e-14,2.56432e-14,-36.5748,-9.53692,-69.7129,47.7612,-8.1822,-11.1874,6.57527,7.12502,14.84,-22.8733,1.21383e-14,2.56432e-14,-38.0966,-5.62432,85.3767,110.767,-28.0275,-34.6856,59.8401,7.12502,-7.84135,-270.325,13.3778,5.19162,35.8139,13.218,-15.6726,-10.7919,7.69388,-35.2183,-12.278,-4.6667,20.3855,-13.8675,16.2976,-14.3434
0.472536,17.3491,-19.5325,1.06286,-5.627,-8.20796,18.1438,1.66163,3.96997,0.101215,3.35488,3.1244,-10.0666,1.48151,0.272178,-6.05358,1.81771,-0.802843,28.253,3.42503,-2.58315,9.98016,1.22439,-0.420741,8.19987e-16,-2.29596e-14,-36.5932,-9.46022,-69.8814,47.7606,-7.88864,-11.2649,6.40154,7.12502,14.7653,-23.0525,8.19987e-16,-2.29596e-14,-38.3288,-6.55146,85.7456,108.709,-29.4016,-34.6496,57.6683,7.12502,-7.8066,-272.496,14.1954,5.326,35.7943,13.1774,-15.7642,-10.3823,7.22538,-35.2566,-12.0207,-4.6326,20.3287,-14.3537,16.2475,-14.3429
0.474725,17.3453,-19.3227,1.15129,-5.73793,-8.16252,18.0539,1.62937,3.94802,0.440862,3.27548,3.07525,-9.63765,1.45395,0.256928,-8.10564,2.04303,-0.752306,28.6879,3.85054,-2.75815,10.5531,1.37387,-0.421533,-2.4376e-14,-3.57812e-15,-35.4939,-9.83948,-70.2511,47.623,-7.75476,-12.5329,10.7056,7.12502,13.5435,-18.8339,-2.4376e-14,-3.57812e-15,-37.6553,-7.21095,85.9615,106.061,-32.001,-35.2521,56.9233,7.12502,-8.38811,-273.263,14.5496,5.21349,35.6212,13.7104,-16.0319,-10.1084,5.24087,-35.2972,-11.4005,-5.09317,20.3993,-13.9821,15.607,-13.9829
0.478026,17.3287,-19.116,1.25235,-5.73665,-7.95077,17.9523,1.50965,3.76545,0.253228,3.07924,3.02106,-9.79814,1.36412,0.352914,-7.93167,2.23144,-0.694311,28.7545,4.14046,-2.88361,10.5526,1.49834,-0.446084,-2.23633e-15,-6.85807e-15,-35.4485,-9.72504,-70.4843,47.5512,-7.40305,-11.2355,6.80374,7.12502,14.7936,-22.6483,-2.23633e-15,-6.85807e-15,-38.1715,-7.71101,86.271,103.479,-34.0286,-36.4789,59.9412,7.12502,-9.57189,-270.296,14.7317,5.10618,35.2672,14.4677,-16.2578,-9.85257,3.6106,-35.4721,-9.94394,-6.26881,20.8275,-12.6873,14.4532,-12.034
0.478703,17.3126,-18.9087,1.20709,-5.84499,-7.83524,17.9604,1.45258,3.59156,0.15068,2.97605,3.03815,-9.92789,1.32132,0.495604,-7.68088,2.40066,-0.615988,28.7176,4.40194,-3.04084,10.4996,1.61188,-0.49,8.75895e-15,-2.99171e-14,-35.2238,-9.78067,-70.6529,47.2454,-6.91869,-11.9062,7.74253,7.12502,14.1474,-21.7558,8.75895e-15,-2.99171e-14,-38.4912,-7.8118,86.4443,100.739,-36.3603,-36.2985,58.13,7.12502,-9.39779,-272.099,14.9766,5.12134,35.0545,15.415,-16.2731,-9.56616,1.89005,-35.5105,-8.35104,-7.43834,21.5547,-11.3803,13.4118,-11.9131
0.481803,17.2899,-18.6923,1.10771,-5.8971,-7.96764,17.9832,1.47292,3.78054,0.245329,3.03524,3.01405,-9.8238,1.34166,0.347248,-7.81327,2.07806,-0.940524,28.8508,3.95121,-2.82563,10.5568,1.39063,-0.406081,9.82742e-15,-1.33683e-14,-34.8484,-10.2542,-70.8572,46.9905,-7.03726,-12.1632,8.11224,7.12502,13.8998,-21.4032,9.82742e-15,-1.33683e-14,-37.9397,-8.6853,86.7466,96.9981,-37.2472,-37.309,57.4635,7.12502,-10.3727,-272.812,15.0825,5.13028,35.1337,16.8244,-16.2361,-9.39883,-0.395458,-35.5286,-6.98352,-8.28842,22.5012,-10.5004,12.4903,-10.6986
0.489312,17.2428,-18.475,0.980332,-5.86368,-8.09497,18.14,1.40919,3.97163,0.128774,3.01052,3.04496,-10.0348,1.31642,0.274844,-7.82532,2.28558,-0.438485,29.0789,4.26251,-3.17456,10.669,1.54259,-0.582499,-1.02871e-14,1.68967e-15,-34.9623,-10.4193,-70.9669,46.8945,-7.1783,-12.0438,7.40988,7.12502,14.0147,-22.0977,-1.02871e-14,1.68967e-15,-38.204,-8.79326,87.1086,93.9494,-38.2114,-36.9107,53.305,7.12502,-9.98849,-276.952,15.2247,4.9836,35.1817,18.2661,-15.9804,-9.05481,-1.11303,-35.649,-5.97627,-9.0421,23.6338,-9.8273,11.8471,-11.1118
0.493273,17.2198,-18.2556,0.852448,-5.91769,-7.94221,18.2898,1.32133,3.72258,-0.0280157,2.86946,3.13018,-10.3139,1.25873,0.541708,-7.36245,2.327,-0.690675,29.1059,4.39298,-3.30075,10.5891,1.56574,-0.576225,-6.98231e-15,-1.47101e-14,-35.2199,-10.371,-70.8846,46.5998,-6.65512,-11.5171,8.06749,7.12502,14.5223,-21.4042,-6.98231e-15,-1.47101e-14,-37.7396,-9.30516,87.5552,89.8752,-38.4157,-36.5326,51.6467,7.12502,-9.62365,-278.593,15.3677,4.72525,34.8211,19.6616,-15.5599,-8.40464,-1.76352,-35.6631,-5.12693,-10.0138,24.8101,-9.20237,11.2063,-12.7433
0.500454,17.2115,-18.0112,0.552521,-6.14007,-7.59911,18.3109,1.43199,3.40762,0.291491,2.92068,3.02558,-9.97791,1.30263,0.59233,-8.42165,2.30172,-0.519586,29.4963,4.39668,-3.39431,10.9543,1.55204,-0.625145,1.14798e-14,6.75868e-15,-34.8054,-10.7759,-71.1558,46.7906,-6.70953,-11.3902,7.09593,7.12502,14.6445,-22.367,1.14798e-14,6.75868e-15,-36.4819,-10.08,87.9117,85.7517,-37.9484,-37.0837,52.7869,7.12502,-10.1554,-277.478,15.8238,4.37656,34.1148,20.853,-14.9199,-7.55671,-2.73967,-35.2429,-4.77232,-10.9936,25.8592,-8.48458,10.5989,-13.9894
0.509376,17.209,-17.768,0.293146,-6.22863,-7.48904,18.1671,1.52294,3.43118,0.255775,3.03014,2.92872,-9.92838,1.35174,0.448019,-7.78851,2.19352,-0.0122678,29.5369,4.16771,-3.51989,10.8513,1.49738,-0.793344,-1.32937e-14,-3.26007e-14,-35.2591,-11.25,-71.1484,46.5958,-6.93891,-11.3357,6.92615,7.12502,14.6971,-22.5329,-1.32937e-14,-3.26007e-14,-36.0241,-10.8626,88.408,81.5711,-37.5481,-37.5079,54.3523,7.12502,-10.5646,-275.933,16.2064,3.91132,33.6416,21.9719,-13.8675,-6.74805,-4.49528,-34.8617,-4.98543,-11.4714,26.7821,-7.06705,9.57089,-12.7045
0.518577,17.2428,-17.5202,0.0778006,-6.31087,-7.3499,18.6747,1.4601,3.40519,0.000878849,2.97872,2.88031,-10.4985,1.31539,0.408992,-8.0047,2.56948,0.236103,30.0483,4.74478,-3.70513,11.1167,1.75313,-0.835282,2.89977e-14,1.72943e-14,-35.83,-11.292,-71.1221,46.2014,-6.8299,-11.4229,7.84555,7.12502,14.6131,-21.6196,2.89977e-14,1.72943e-14,-35.7293,-10.998,88.7494,77.2695,-37.4696,-34.2903,59.4875,7.12502,-7.45977,-270.664,16.4653,3.46889,33.0911,23.1451,-12.5645,-5.74836,-5.20485,-34.4918,-5.51743,-11.7911,27.6355,-4.93479,8.39507,-10.4634
0.531468,17.2608,-17.2769,-0.0338581,-6.15297,-7.02078,17.8592,1.421,3.33258,0.399914,2.83075,2.73499,-9.59076,1.26335,0.353152,-8.49432,2.51098,0.237892,30.4086,4.61731,-3.47749,11.3454,1.7078,-0.76191,-1.19271e-15,9.44227e-15,-35.3636,-11.6216,-71.5029,46.1589,-7.12489,-11.9484,6.52262,7.12502,14.1067,-22.9785,-1.19271e-15,9.44227e-15,-34.1352,-11.366,88.8736,72.8737,-37.4898,-33.6226,57.7178,7.12502,-6.81525,-272.412,16.3138,2.96061,32.3348,24.6821,-10.96,-4.73738,-5.66385,-34.3802,-6.65266,-12.1373,28.3796,-2.40744,7.42542,-11.1894
0.542585,17.2768,-17.033,-0.193637,-5.93729,-6.55566,18.427,1.43815,2.90421,-0.176201,2.81178,2.62923,-10.5673,1.25455,0.467652,-7.96572,2.59134,0.878826,31.0282,4.77027,-3.93189,11.5151,1.79427,-1.0326,-1.86609e-14,-7.7526e-15,-36.5691,-11.6688,-71.2375,45.8996,-6.97115,-12.1149,6.23411,7.12502,13.9463,-23.2782,-1.86609e-14,-7.7526e-15,-34.0499,-11.7401,89.4839,68.7615,-37.6221,-36.691,49.4341,7.12502,-9.77648,-280.813,15.9888,2.55927,31.4624,26.5459,-9.11575,-3.7139,-4.58236,-34.1544,-7.9897,-12.5274,29.0079,-0.202816,6.27878,-11.9233
0.552568,17.2818,-16.788,-0.459801,-5.69046,-6.01255,17.8845,1.38125,2.59625,-0.0563831,2.61677,2.39897,-10.1283,1.17908,0.455576,-7.03804,2.51709,0.902398,30.8513,4.60907,-3.82838,11.2492,1.75321,-1.02991,2.17172e-14,9.19379e-15,-36.8219,-12.4173,-71.0749,45.0491,-6.16874,-11.5855,7.53138,7.12502,14.4564,-21.9451,2.17172e-14,9.19379e-15,-33.097,-11.9542,89.5879,64.5569,-37.9565,-33.179,51.568,7.12502,-6.387,-278.548,15.4757,2.10432,30.4863,28.8506,-7.04292,-2.67312,-4.50234,-33.8409,-9.04168,-13.1413,29.7324,1.62153,4.4604,-9.08939
0.56316,17.2821,-16.5475,-0.659544,-5.1978,-5.68548,18.3899,1.30314,2.46093,-0.206202,2.49499,2.23191,-10.5799,1.11623,0.369661,-7.74095,2.47942,1.00018,31.6872,4.51879,-3.60719,11.7164,1.72677,-0.971032,-2.55935e-15,1.0138e-14,-37.1782,-12.7158,-71.2686,44.8556,-6.6873,-11.9836,6.6179,7.12502,14.0728,-22.8856,-2.55935e-15,1.0138e-14,-32.3619,-12.2154,89.8355,60.715,-37.8123,-32.0985,48.4606,7.12502,-5.34385,-281.627,14.6249,1.40011,29.7097,31.3389,-4.41617,-1.92442,-4.40789,-33.6909,-10.15,-13.609,30.5719,3.08085,3.17162,-1.83092
0.573204,17.2844,-16.3085,-0.954401,-4.80732,-5.32709,18.1244,1.19683,2.28012,-0.276145,2.29234,2.08273,-10.5084,1.02684,0.368522,-6.9269,2.51234,1.06697,31.8851,4.48299,-3.35973,11.6222,1.75677,-0.907362,-5.66847e-15,1.26725e-14,-37.8024,-12.9902,-71.2799,44.4273,-6.46713,-11.9345,6.79731,7.12502,14.1201,-22.7029,-5.66847e-15,1.26725e-14,-32.1811,-12.2401,90.0712,57.4908,-37.5326,-27.4825,49.2319,7.12502,-0.886092,-280.79,13.6776,0.72688,28.8212,33.9798,-1.20269,-1.07145,-2.05608,-33.3761,-10.9704,-14.2739,31.6103,3.93272,2.83604,2.89343
0.590969,17.2875,-16.0743,-1.10083,-4.485,-4.98517,18.1692,1.04564,2.17027,-0.181494,2.05434,1.9668,-10.4283,0.91758,0.36708,-7.76072,2.6247,0.875466,32.5791,4.61956,-3.0353,12.065,1.81186,-0.726229,-6.12195e-15,-5.91384e-15,-37.7254,-13.3186,-71.3511,43.7417,-6.00488,-11.8518,7.58804,7.12502,14.1998,-21.9066,-6.12195e-15,-5.91384e-15,-31.3783,-11.8901,90.1251,54.3973,-37.1934,-27.9253,43.3682,7.12502,-1.31372,-286.656,12.466,0.0237905,27.8031,36.7029,2.27642,-0.436029,1.61918,-33.1937,-11.6075,-14.9813,32.8624,3.57704,3.62653,1.01535
0.606485,17.2887,-15.8564,-1.22431,-4.15773,-4.85056,18.2322,0.883581,2.22594,-0.12553,1.84647,1.91673,-10.399,0.815162,0.335346,-8.02582,2.72278,0.758784,32.9266,4.74285,-2.84248,12.2578,1.86708,-0.614076,-1.98163e-15,-2.69353e-14,-37.7393,-13.3244,-71.5507,43.2377,-6.19021,-11.8686,7.89546,7.12502,14.1836,-21.6003,-1.98163e-15,-2.69353e-14,-30.6915,-11.2604,90.1328,51.5646,-36.4755,-22.4435,46.2792,7.12502,3.98054,-283.778,11.0684,-0.487965,27.1272,39.4982,6.13251,0.231355,3.89703,-33.0784,-11.7169,-15.5544,34.2071,2.99207,3.32489,1.19681
0.618403,17.2903,-15.6396,-1.47963,-4.10181,-4.91133,18.6826,0.79771,2.37559,0.0705678,1.77515,1.925,-10.4314,0.773382,0.272471,-9.10062,2.79715,0.519924,33.5127,4.85909,-2.59322,12.719,1.89563,-0.444553,3.75206e-15,1.07841e-14,-37.3099,-13.5829,-71.7483,42.5487,-5.85041,-11.5146,7.90368,7.12502,14.5247,-21.5679,3.75206e-15,1.07841e-14,-29.8021,-10.2867,90.0223,49.1446,-34.8469,-19.6077,43.9475,7.12502,6.71856,-286.179,9.67556,-0.542926,26.8288,42.3545,9.70155,0.272215,7.22121,-32.7003,-11.2785,-15.9598,35.4616,1.95566,2.45112,1.41188
0.628649,17.3045,-15.4136,-1.74935,-4.23254,-4.93977,17.9895,0.8378,2.42021,0.586836,1.79844,1.99325,-9.46896,0.797361,0.326172,-9.15148,2.97242,0.645048,33.2331,5.10284,-2.67957,12.6239,2.01266,-0.465801,2.60284e-15,-1.21259e-14,-36.6764,-14.0035,-71.7498,41.8474,-4.91727,-10.9417,7.68002,7.12502,15.0767,-21.7509,2.60284e-15,-1.21259e-14,-28.7948,-9.12551,89.9347,46.8839,-32.399,-14.3238,47.4979,7.12502,11.8169,-282.855,8.22591,-0.323074,26.5494,45.2721,13.4262,0.0499333,11.4415,-32.0705,-10.9499,-16.2918,36.5206,0.662007,2.07462,1.6116
0.63706,17.3257,-15.1858,-1.97613,-4.18171,-4.61475,18.7693,0.7667,2.37063,0.100324,1.71081,1.69793,-10.4398,0.736193,0.0428574,-8.71895,3.12319,1.09625,33.7634,5.25072,-2.68869,12.7738,2.13043,-0.536396,7.86131e-15,2.41151e-14,-37.7954,-14.0141,-71.8842,41.5879,-4.09066,-10.5173,7.14514,7.12502,15.4854,-22.2547,7.86131e-15,2.41151e-14,-29.4531,-7.80325,89.4681,44.9484,-29.7111,-11.8558,46.7896,7.12502,14.196,-283.715,6.65801,-0.252591,25.9126,48.2543,15.9574,0.289294,12.4457,-31.3796,-10.8878,-17.0003,37.3505,-0.459359,1.91496,-0.458398
0.638634,17.3437,-14.9737,-2.27716,-4.52905,-4.06782,18.7201,0.948643,1.73136,0.299148,1.78979,1.55886,-10.2032,0.804973,0.234028,-8.38406,3.22307,1.35166,33.588,5.4067,-2.91715,12.6488,2.21041,-0.654457,1.67942e-14,2.39784e-15,-37.686,-14.0742,-72.0897,41.0574,-3.7388,-10.1462,6.93278,7.12502,15.8428,-22.439,1.67942e-14,2.39784e-15,-29.0274,-5.78032,88.9236,42.927,-27.0451,-9.0314,48.5754,7.12502,16.9162,-282.141,5.03049,0.155996,25.1179,51.268,18.4938,0.506903,14.2936,-30.4465,-10.3779,-17.9286,37.8474,-1.32802,1.83135,-2.30097
0.629958,17.3551,-14.7638,-2.4371,-4.67594,-3.49545,18.3056,1.05257,1.01565,0.720316,1.74193,1.44202,-9.52111,0.818923,0.535136,-8.72362,3.35525,1.34583,33.4797,5.62867,-3.01785,12.6858,2.29144,-0.655829,6.80527e-15,-8.7341e-15,-36.9084,-14.0937,-72.4939,40.2539,-3.64078,-9.87587,7.10828,7.12502,16.1032,-22.2427,6.80527e-15,-8.7341e-15,-28.1064,-3.38723,88.2047,40.9674,-24.437,-6.64046,50.1269,7.12502,19.2166,-280.802,3.21807,0.383065,24.3862,54.2914,20.311,0.42165,14.46,-29.5736,-9.80264,-18.8669,38.0944,-2.26645,1.60829,-2.64685
0.624082,17.3885,-14.548,-2.65062,-4.83057,-2.81958,18.1684,1.14046,0.201769,0.950243,1.67264,1.33911,-9.21086,0.819779,0.907681,-8.77763,3.50298,1.13068,33.4327,5.89575,-3.03627,12.6794,2.38013,-0.588614,1.87013e-14,1.06847e-14,-36.5087,-13.6667,-72.9093,39.7215,-3.73333,-10.1097,7.42515,7.12502,15.878,-21.9439,1.87013e-14,1.06847e-14,-27.6977,-0.415577,87.3473,38.7917,-23.3198,-5.60804,48.6016,7.12502,20.2091,-282.43,1.53144,0.450782,23.4929,57.1819,20.3093,-0.921564,15.0855,-28.4522,-9.36065,-19.9054,38.0903,-3.36515,1.67945,-0.558832
0.620044,17.4185,-14.3393,-2.98941,-5.04398,-2.34245,18.8734,1.20677,-0.235278,1.17432,1.64906,1.13974,-9.36186,0.820205,0.936576,-9.94123,3.65445,1.09634,33.8212,6.14836,-3.01802,13.1011,2.46236,-0.515364,5.7896e-15,-5.7337e-15,-35.8322,-13.551,-73.5145,39.1517,-3.43172,-10.1726,7.49177,7.12502,15.8175,-21.882,5.7896e-15,-5.7337e-15,-27.2425,2.27179,86.3124,37.0109,-21.6197,-5.85806,47.0232,7.12502,19.9688,-283.983,0.0209397,0.450635,22.8416,59.9323,20.291,-1.95205,17.4215,-27.2102,-8.87194,-20.7105,38.0097,-3.993,1.60048,0.213759
0.620275,17.4437,-14.13,-3.0941,-5.32744,-1.93717,18.914,1.32499,-0.595679,0.717371,1.71955,0.995263,-9.89741,0.868454,0.961149,-7.85496,3.73197,1.29887,33.5166,6.23429,-3.15309,12.5409,2.54954,-0.638423,3.764e-15,1.18432e-14,-36.7025,-13.2361,-73.5104,38.4431,-2.81967,-9.52879,8.77463,7.12502,16.4374,-20.549,3.764e-15,1.18432e-14,-28.565,4.4962,85.3351,35.562,-19.5827,-4.68642,48.2633,7.12502,21.0947,-282.864,-1.68338,0.446592,22.2809,62.5166,16.2387,-2.68454,8.45436,-26.1978,-8.35922,-21.364,37.8382,-4.38511,1.39569,-0.514555
0.617699,17.4676,-13.9321,-3.1347,-5.26369,-1.72123,18.9509,1.25176,-0.739158,0.635707,1.5876,0.94669,-10.0079,0.811902,1.02446,-7.59871,3.89785,1.09444,33.8581,6.50035,-3.03822,12.6274,2.65374,-0.530227,3.06641e-15,9.5106e-15,-36.5695,-13.3231,-73.5665,37.663,-1.63502,-8.3476,10.2947,7.12502,17.5744,-18.931,3.06641e-15,9.5106e-15,-29.2763,6.61503,84.4278,34.7127,-17.1166,0.679262,54.6434,7.12502,26.2408,-277.151,-3.43151,0.0418717,21.9466,64.8519,13.0617,-4.21821,2.55496,-25.3417,-8.14515,-21.7959,37.6715,-4.8999,1.1679,-1.05583
0.61602,17.4916,-13.7279,-3.3346,-5.11132,-1.44232,19.1299,1.17021,-0.908709,0.731441,1.43419,0.87972,-9.99989,0.744594,1.08792,-8.65106,4.01947,0.417452,35.0511,6.67974,-2.36001,13.3167,2.68853,-0.0946801,6.73228e-15,-3.46631e-15,-36.3643,-13.4607,-73.6667,37.4367,-0.363807,-7.21459,8.1086,7.12502,18.6644,-21.016,6.73228e-15,-3.46631e-15,-29.4468,8.66526,83.5782,33.5098,-14.27,-0.734619,53.109,7.12502,24.8866,-278.491,-4.96964,-0.5055,21.5159,66.9302,11.1538,-5.49583,2.07308,-24.256,-8.0802,-22.3586,37.4903,-5.56736,1.12908,-1.88336
0.614202,17.5318,-13.5122,-3.61562,-4.93469,-1.37462,18.944,1.13257,-0.974683,1.09188,1.37804,0.970606,-9.49944,0.71953,1.24459,-9.22137,4.11691,0.177316,35.5201,6.91161,-2.33784,13.6454,2.74142,0.00710206,-2.89418e-14,-5.41688e-15,-35.8493,-13.5306,-73.744,37.0893,0.187228,-7.18992,12.5446,7.12502,18.6882,-16.5777,-2.89418e-14,-5.41688e-15,-29.4452,10.4138,82.9978,32.5346,-10.6999,-1.21874,55.6658,7.12502,24.4225,-275.871,-6.19772,-1.04536,21.3403,68.6059,9.71151,-6.75398,4.46541,-22.9676,-8.17151,-22.6902,37.2865,-6.3104,1.21197,-2.0058
0.611073,17.5596,-13.3105,-3.77972,-4.53351,-1.27598,18.8625,1.08259,-0.972124,0.903808,1.31522,0.970293,-9.65992,0.691733,1.2596,-7.55693,4.16513,0.556954,35.1161,6.97668,-2.70565,13.1391,2.81361,-0.242439,-8.09426e-15,5.06901e-15,-36.5836,-13.8877,-73.4636,36.8962,0.810927,-7.01078,15.2554,7.12502,18.8604,-13.8502,-8.09426e-15,5.06901e-15,-30.7571,11.3814,82.1789,32.1651,-6.38549,-2.98781,54.6722,7.12502,22.7257,-276.646,-7.54991,-1.74252,21.1628,70.0772,7.80224,-7.80124,2.9358,-21.863,-8.43517,-23.0324,36.9667,-6.85305,1.04415,-1.6768
0.612636,17.5789,-13.1159,-3.76234,-4.05904,-1.06223,18.7889,0.859832,-1.11628,1.084,0.998199,1.05208,-9.41374,0.546953,1.51696,-7.3359,4.45991,0.896762,34.5478,7.57053,-3.50445,12.9185,3.03714,-0.540116,5.28022e-15,1.31198e-14,-36.142,-13.9648,-73.4366,36.7326,1.55762,-6.81099,16.2564,7.12502,19.0526,-12.8304,5.28022e-15,1.31198e-14,-31.1114,13.3369,81.4696,31.9673,-1.66836,-4.86327,53.7519,7.12502,20.9248,-277.357,-9.05974,-2.46107,20.8048,71.3805,6.00337,-8.92979,3.10643,-21.0016,-8.65834,-23.4986,36.5994,-7.14694,0.71907,-0.822834
0.618184,17.6169,-12.9107,-3.79705,-3.72313,-0.640407,18.794,0.682237,-1.49579,1.17748,0.688852,1.1095,-9.30745,0.415581,1.87816,-7.55979,4.67621,0.685848,34.6857,8.02998,-3.75426,13.0476,3.17338,-0.532381,4.29872e-15,3.77691e-15,-35.9899,-13.5886,-73.4461,36.8091,1.89436,-6.90869,16.0938,7.12502,18.9586,-13.0023,4.29872e-15,3.77691e-15,-31.6801,15.421,80.7314,32.0719,2.55871,-5.83658,54.2025,7.12502,19.9894,-276.806,-10.3674,-2.9481,20.1798,72.4278,5.20728,-9.86678,9.47513,-19.9499,-8.7711,-24.2211,36.174,-7.68021,0.853074,-0.757588
0.620725,17.6463,-12.7096,-3.90351,-3.45306,-0.457688,18.6886,0.741325,-1.57169,1.16821,0.750072,1.08444,-9.26258,0.44723,1.87816,-7.25053,4.56804,0.738349,34.987,7.85912,-3.68966,13.1058,3.11401,-0.547493,7.95139e-16,4.96962e-15,-36.549,-14.0826,-73.1733,37.0625,2.16812,-6.97357,15.7923,7.12502,18.8962,-13.3098,7.95139e-16,4.96962e-15,-32.6403,16.4844,79.9732,32.6223,6.13312,-6.18512,55.6471,7.12502,19.6544,-275.326,-11.7292,-3.41029,19.9212,73.2753,2.77721,-10.4076,6.43431,-18.8138,-8.92303,-24.6674,35.7152,-8.28862,1.12591,-1.98882
0.616181,17.6703,-12.5169,-3.99447,-3.05783,-0.420237,18.6823,0.716054,-1.56425,1.1461,0.720887,1.1053,-9.28229,0.434058,1.90435,-7.57434,4.46121,0.194753,35.8729,7.63355,-2.94729,13.4957,3.00926,-0.180514,-9.93923e-17,5.76476e-15,-37.1639,-14.3369,-73.0279,37.542,1.99417,-6.91957,15.7937,7.12502,18.9482,-13.3034,-9.93923e-17,5.76476e-15,-33.9662,17.2408,79.289,34.0252,10.1376,-7.26088,56.7062,7.12502,18.6199,-274.165,-13.1567,-3.95367,19.9596,73.8569,1.55116,-10.9132,3.83552,-17.7324,-9.22413,-24.9163,35.2466,-8.67538,1.17043,-2.00841
0.6143,17.6938,-12.3231,-4.02744,-2.46681,-0.0151971,18.4401,0.606766,-1.91535,1.21031,0.506614,1.09756,-9.07037,0.343563,2.15217,-7.34454,4.47779,-0.0646325,35.958,7.64912,-2.75661,13.4619,3.00978,-0.0647774,-3.23025e-16,-4.17448e-15,-37.6131,-14.1558,-72.9336,38.124,1.61127,-7.05865,15.0904,7.12502,18.8144,-14.0198,-3.23025e-16,-4.17448e-15,-34.6426,18.6977,78.5731,34.555,13.361,-8.43925,57.3126,7.12502,17.4862,-273.454,-14.5493,-4.65029,19.4791,74.292,2.49162,-10.9979,11.1021,-16.6781,-9.60468,-25.613,34.7553,-9.07131,1.26314,-2.17647
0.626646,17.7201,-12.1137,-4.15459,-3.14456,-0.119923,18.258,0.789002,-1.70308,1.63572,0.800766,1.19467,-8.51722,0.467634,2.06014,-8.33625,4.63632,-0.188116,36.1233,7.95384,-2.76704,13.7566,3.10093,0.0269786,3.95085e-15,3.97569e-16,-37.1634,-14.282,-72.9834,38.2446,1.38747,-7.39066,12.8244,7.12502,18.4951,-16.3164,3.95085e-15,3.97569e-16,-34.8986,20.682,77.7484,35.0371,15.4198,-8.87034,56.328,7.12502,17.0712,-274.402,-15.8793,-3.9798,19.7093,74.5085,0.566305,-10.9526,9.15363,-15.4727,-9.28587,-25.6877,34.2916,-9.57702,1.83574,-2.01962
0.642042,17.7359,-11.8955,-4.0808,-3.48364,0.422525,17.7535,1.01405,-2.07085,1.708,1.02204,1.07881,-8.1754,0.580619,2.09149,-8.32174,4.5797,-0.304878,36.189,7.8953,-2.7424,13.7754,3.06327,0.0491684,-1.63749e-14,-9.34288e-15,-37.5716,-14.331,-72.7795,38.5186,0.861952,-6.8917,9.03595,7.12502,18.975,-20.0585,-1.63749e-14,-9.34288e-15,-35.7825,21.4776,77.3298,36.6653,19.4771,-12.0878,59.6984,7.12502,13.9724,-270.791,-17.2777,-3.68752,19.0357,74.665,0.199197,-10.5969,13.213,-14.441,-9.14314,-26.5488,33.7547,-9.99322,2.26449,-2.49096
0.63394,17.7485,-11.7002,-4.30574,-2.86169,0.516605,17.9465,0.976827,-2.14936,1.81035,0.954934,1.08578,-8.1681,0.550081,2.15938,-8.4694,4.47942,-0.174516,36.2787,7.71102,-2.68362,13.8471,3.00498,0.0301372,-1.14301e-14,1.31198e-14,-38.0116,-14.5663,-72.6354,38.9589,0.13031,-7.53207,10.7868,7.12502,18.359,-18.3669,-1.14301e-14,1.31198e-14,-36.4325,22.3031,76.7385,37.7918,21.6978,-13.1477,60.6287,7.12502,12.9509,-450.207,-18.1489,-4.02764,19.0715,74.6125,-0.865141,-10.4079,18.1351,-13.2658,-9.4554,-26.8516,33.3249,-10.3098,2.14987,-2.4469
0.630323,17.7534,-11.5111,-4.29762,-2.33471,0.900582,17.9618,0.914611,-2.48207,1.63402,0.801564,1.02475,-8.36398,0.491539,2.32104,-7.83493,4.43489,-0.213662,36.1884,7.56472,-2.49221,13.6493,2.97745,0.072302,9.14409e-15,7.15625e-15,-38.6631,-14.3925,-72.4948,39.2834,-0.755284,-8.29347,8.03027,7.12502,17.6264,-21.1908,9.14409e-15,7.15625e-15,-37.7492,23.0087,75.9615,39.1575,24.1213,-14.0425,60.9147,7.12502,12.0882,-450.546,-19.3251,-4.27307,18.729,74.4497,-2.44829,-10.1205,19.2342,-12.3718,-9.51515,-27.4668,32.9343,-10.6173,1.98262,-2.4906
0.626215,17.7584,-11.3287,-4.36078,-2.07693,1.07025,18.0188,1.071,-2.55862,0.451289,0.976542,0.905398,-9.70488,0.607989,2.18891,-3.27743,4.15315,0.503006,35.4794,6.92875,-2.62386,12.3886,2.88075,-0.321693,7.72775e-15,1.07344e-14,-41.9804,-14.1185,-71.6579,39.8667,-1.61574,-8.71287,8.10236,7.12502,17.2228,-21.1544,7.72775e-15,1.07344e-14,-41.3177,22.2359,74.4668,40.9806,27.527,-15.1924,61.4862,7.12502,10.9791,-451.179,-20.4886,-4.24004,18.6956,74.0478,-4.06206,-9.94407,16.3877,-11.4873,-9.1849,-27.804,32.6838,-10.9941,1.64855,-2.41145
0.619753,17.7637,-11.1373,-4.41313,-1.89067,1.15917,18.195,1.10101,-2.62295,1.4595,1.00381,0.920554,-8.69634,0.598378,2.23614,-6.9174,4.1952,-0.0172688,35.8729,7.04073,-2.22221,13.2895,2.83831,0.0448659,-3.3048e-15,-8.74653e-15,-39.9717,-14.7972,-72.1243,39.8276,-2.23272,-9.05656,8.28022,7.12502,16.892,-21.0051,-3.3048e-15,-8.74653e-15,-39.528,23.9268,74.5276,41.7257,29.8364,-15.2507,60.9264,7.12502,10.923,-450.622,-21.6718,-4.08117,18.7955,73.4941,-5.41685,-9.60439,13.9788,-10.6062,-9.02085,-28.0338,32.5086,-11.4719,1.53866,-2.3589
0.610037,17.7649,-10.9436,-4.38455,-1.36107,1.37214,18.1404,0.966733,-2.93427,1.70008,0.775295,1.01043,-8.39471,0.494699,2.56964,-7.73201,4.25517,-0.410095,35.8605,7.18491,-2.08878,13.44,2.85275,0.208596,-9.39258e-15,3.97569e-16,-39.6489,-14.5654,-72.1042,39.9497,-2.91525,-9.15765,8.52612,7.12502,16.7947,-20.7675,-9.39258e-15,3.97569e-16,-39.8557,24.9244,74.1651,43.1978,32.8947,-15.6909,61.1639,7.12502,10.4983,-450.882,-22.7485,-4.24893,18.7284,72.7783,-6.40349,-8.97941,13.7142,-9.84675,-9.02355,-28.3905,32.3865,-11.8552,1.27824,-3.52493
0.603753,17.7533,-10.7621,-4.36824,-1.26389,1.84683,18.1662,1.12891,-3.45426,1.55895,0.873032,0.902771,-8.57629,0.563479,2.72477,-7.04792,4.15012,-0.304223,35.579,6.93883,-1.98255,13.161,2.79306,0.176369,9.64106e-15,3.57812e-15,-40.342,-14.4615,-71.9311,40.3186,-3.71409,-9.31869,8.30565,7.12502,16.6396,-21.0011,9.64106e-15,3.57812e-15,-40.8902,25.2255,73.4269,44.615,35.9589,-15.5809,61.3113,7.12502,10.6044,-451.024,-23.9392,-4.00914,18.3316,72.0438,-6.76261,-9.19185,11.2462,-9.16218,-8.71977,-29.0146,32.2928,-12.2578,1.11516,-3.01862
0.596094,17.7426,-10.5781,-4.34923,-0.549879,2.21776,18.0972,1.06514,-3.83474,1.58537,0.711966,0.858703,-8.50143,0.497785,2.93506,-6.63951,4.08179,-0.125144,35.2605,6.80011,-2.05163,12.9418,2.76301,0.0862866,3.23025e-15,1.98785e-15,-40.7347,-14.5741,-71.7426,40.6872,-4.38467,-9.41419,7.8796,7.12502,16.5477,-21.4348,3.23025e-15,1.98785e-15,-41.3773,25.8886,72.8799,46.0662,40.2702,-16.8468,62.9484,7.12502,9.38313,-452.72,-24.9379,-4.3469,18.013,71.1139,-7.71162,-9.21833,11.1006,-8.42479,-8.86673,-29.5417,32.1519,-12.5756,0.723858,-2.28701
0.595162,17.7253,-10.4042,-4.24184,-0.632501,2.38709,17.9425,1.1945,-3.97242,1.72671,0.861177,0.833936,-8.27524,0.566989,2.94982,-6.53266,4.09612,0.127436,34.7688,6.81885,-2.28078,12.7275,2.78947,-0.0501769,-7.7526e-15,-3.97569e-16,-40.7067,-14.7399,-71.6625,40.8964,-4.80179,-9.54551,7.58032,7.12502,16.4213,-21.7446,-7.7526e-15,-3.97569e-16,-42.2135,26.0714,72.3962,48.0298,43.5934,-15.6228,62.9472,7.12502,10.5641,-452.662,-26.2466,-4.02656,17.9589,70.0691,-8.86629,-9.09305,9.14731,-7.83084,-8.53337,-29.8424,32.0008,-12.9747,0.795991,-2.04013
0.585862,17.7237,-10.2088,-4.28405,0.0333684,2.56162,17.9911,1.11975,-4.07019,1.75855,0.734268,0.743535,-8.25672,0.507026,2.93906,-5.85338,4.13914,0.976085,33.9212,6.88142,-2.9392,12.2909,2.87561,-0.463262,5.66536e-15,-6.36111e-15,-40.9111,-14.9881,-71.5617,40.8747,-5.10098,-9.91687,7.90582,7.12502,16.0637,-21.4483,5.66536e-15,-6.36111e-15,-42.3982,27.1168,71.3739,48.2777,45.7473,-14.9167,63.5038,7.12502,11.2451,-453.182,-27.01,-4.27253,17.8926,68.7402,-11.0324,-8.80693,3.49112,-6.88557,-8.47025,-30.1457,31.7146,-13.4892,0.53236,-2.0214
0.572635,17.715,-10.0375,-4.30614,0.66457,2.84368,18.4484,1.07734,-4.33797,1.66976,0.595389,0.664261,-8.59645,0.457367,3.04017,-6.08764,4.04254,0.934423,34.2079,6.68987,-2.69088,12.4418,2.80685,-0.377464,8.89561e-15,-8.34896e-15,-41.1315,-15.07,-71.4585,40.9145,-5.43908,-9.958,7.94345,7.12502,16.0241,-21.4139,8.89561e-15,-8.34896e-15,-42.8283,27.279,70.9177,49.663,48.7859,-14.9989,64.6539,7.12502,11.1658,-454.337,-27.8875,-4.51571,17.6599,67.3129,-12.5082,-8.47759,1.03711,-6.03781,-8.15667,-30.5152,31.3442,-13.8542,0.0756566,-1.76644
0.563606,17.7134,-9.8442,-4.1917,1.19964,3.11525,18.4203,1.00108,-4.58724,1.51326,0.437404,0.607331,-8.74078,0.396227,3.16113,-5.04208,3.96655,1.45979,33.3942,6.59415,-3.19331,11.9251,2.80332,-0.69905,-1.83876e-15,-5.56597e-15,-41.6389,-14.9,-71.3238,41.153,-5.78575,-9.87226,7.92016,7.12502,16.1067,-21.4305,-1.83876e-15,-5.56597e-15,-43.6011,27.2156,70.4645,51.2047,51.8843,-14.9353,65.1435,7.12502,11.2272,-454.823,-28.6714,-4.68699,17.4632,65.6526,-11.9707,-9.31308,3.84399,-5.18192,-7.76195,-30.8411,30.9168,-14.2862,-0.33253,-1.79305
0.559301,17.7029,-9.65365,-4.08515,1.5869,3.47823,18.402,1.00242,-4.83287,1.4896,0.376947,0.47094,-8.75205,0.374633,3.16817,-5.76174,3.95806,0.921079,34.0641,6.46334,-2.38075,12.2924,2.75235,-0.293923,3.37934e-15,-3.57812e-15,-41.9423,-15.0131,-71.203,41.261,-5.82641,-9.72797,8.28916,7.12502,16.2456,-21.0502,3.37934e-15,-3.57812e-15,-44.0125,27.0242,70.1839,52.7177,54.8905,-15.2558,65.6859,7.12502,10.918,-455.382,-29.4498,-4.82435,17.1341,63.914,-11.135,-10.5087,7.83765,-4.23931,-7.67365,-31.3501,30.3953,-14.5396,-0.290001,-0.787197
0.544463,17.7029,-9.48784,-3.82675,2.32549,3.35212,18.5161,0.873054,-4.71153,1.45362,0.22984,0.520671,-8.84074,0.303858,3.19141,-5.62888,3.74253,0.962623,33.724,6.15469,-2.47569,12.1203,2.61726,-0.378968,4.82053e-15,-1.59028e-14,-41.9268,-15.3548,-71.0122,41.1147,-5.78388,-9.75966,8.04074,7.12502,16.2151,-21.3011,4.82053e-15,-1.59028e-14,-43.8425,27.1466,70.0968,53.708,57.1359,-13.3367,64.3948,7.12502,12.7686,-453.984,-30.2936,-5.09517,17.4335,61.8899,-11.1251,-11.7435,8.01734,-3.51703,-7.76834,-31.2076,29.7786,-14.6294,-0.517884,0.473284
0.540062,17.7029,-9.28845,-3.8165,2.96082,3.71749,18.3378,0.763127,-5.08619,1.65791,0.0215284,0.497967,-8.49907,0.205039,3.43205,-5.80425,3.72959,0.861185,33.5172,6.14876,-2.48641,12.0673,2.60226,-0.362617,2.43511e-15,7.95139e-16,-41.6119,-15.5014,-70.8313,40.8403,-5.58634,-9.64118,7.90036,7.12502,16.3292,-21.4322,2.43511e-15,7.95139e-16,-43.562,27.591,70.1186,54.6272,58.9331,-12.8471,64.7609,7.12502,13.2406,-454.32,-30.6288,-5.39656,17.0519,59.7627,-11.6547,-12.3974,7.76667,-2.29853,-7.73328,-31.6852,29.118,-14.9723,-0.721106,1.88583
0.532538,17.7038,-9.0903,-3.751,3.55595,3.88364,18.194,0.640739,-5.2547,1.80028,-0.159563,0.513756,-8.2455,0.1146,3.58882,-6.2525,4.03086,1.22627,33.4533,6.58375,-2.67542,12.1666,2.81449,-0.432968,3.8763e-15,-5.96354e-15,-41.4552,-15.311,-70.7889,40.8026,-5.73954,-9.64798,7.99693,7.12502,16.3226,-21.3361,3.8763e-15,-5.96354e-15,-43.4708,27.7326,70.1988,55.9315,60.9632,-14.35,66.8427,7.12502,11.7916,-456.491,-30.8944,-5.60314,16.9191,57.4284,-11.8725,-13.1599,8.64559,-1.14959,-7.99977,-31.958,28.4593,-15.4011,-0.645313,1.58231
0.526129,17.6978,-8.92391,-3.40773,3.81013,3.95658,18.1452,0.613804,-5.26677,1.77882,-0.197444,0.484814,-8.23839,0.0966383,3.57325,-7.1189,3.96116,1.0177,34.1268,6.40809,-2.19645,12.5967,2.74334,-0.210474,4.96962e-16,1.39149e-14,-41.4704,-15.1339,-70.8423,41.0162,-5.74446,-9.73393,7.69037,7.12502,16.2398,-21.6495,4.96962e-16,1.39149e-14,-43.2521,27.6992,70.227,57.2034,63.3518,-13.7695,67.2137,7.12502,12.3513,-456.829,-31.6442,-5.54566,16.946,54.9934,-11.6042,-13.8837,9.29723,-0.507291,-7.97738,-32.0306,27.7083,-15.4799,-0.722279,1.93308
0.516159,17.6927,-8.74667,-3.08497,4.06731,3.98709,18.2621,0.692106,-5.31142,1.25136,-0.127184,0.460873,-8.88961,0.161238,3.55938,-5.41121,3.84136,1.94023,33.3083,6.25181,-2.90842,11.9589,2.74525,-0.705024,4.22417e-15,-7.95139e-16,-42.5633,-15.141,-70.3786,41.0359,-5.44127,-9.44251,7.53378,7.12502,16.5204,-21.7829,4.22417e-15,-7.95139e-16,-44.1529,27.1507,69.8001,58.5297,65.3583,-13.9161,68.0631,7.12502,12.21,-457.687,-32.2878,-5.40699,17.0338,52.3907,-11.0268,-14.7901,10.172,0.146383,-7.82358,-31.9929,26.9947,-15.6412,-0.812187,0.389827
0.498095,17.6828,-8.56254,-2.92613,4.57602,4.01781,18.3153,0.745098,-5.42783,1.16823,-0.087993,0.44323,-9.01484,0.189858,3.59745,-5.4859,3.62776,2.06224,33.2321,5.91523,-2.89028,11.9346,2.6133,-0.757212,-1.83876e-15,-2.78299e-15,-42.8522,-15.4084,-70.1454,40.6294,-5.7415,-9.44975,8.50684,7.12502,16.5135,-20.8104,-1.83876e-15,-2.78299e-15,-44.1819,26.6012,69.83,59.9073,67.2403,-14.7556,69.0638,7.12502,11.4004,-458.734,-32.5889,-5.36466,17.071,49.6624,-10.4594,-15.7948,12.7733,1.02747,-7.73909,-31.9037,26.2889,-15.8274,-1.24535,-1.50294
0.482324,17.676,-8.3752,-2.82371,5.11478,4.05052,18.2038,0.767236,-5.53597,1.27583,-0.0685929,0.461557,-8.83627,0.196521,3.67269,-5.50563,3.43254,2.12394,33.013,5.59061,-2.8196,11.8369,2.48726,-0.779176,8.79622e-15,-1.86858e-14,-42.8742,-15.4866,-70.034,40.9207,-5.46809,-9.3478,7.4056,7.12502,16.6116,-21.9035,8.79622e-15,-1.86858e-14,-43.9788,26.2737,70.0282,61.4506,68.8548,-11.6719,66.3623,7.12502,14.3731,-455.845,-32.6405,-5.38798,17.0982,46.8196,-9.83544,-16.6428,15.3964,2.08367,-7.7791,-31.8241,25.4421,-15.8989,-1.76501,-1.80555
0.470838,17.6779,-8.18469,-2.62021,5.67057,4.08952,18.0711,0.697543,-5.62588,1.2984,-0.16814,0.473726,-8.7271,0.149025,3.76109,-5.90448,3.18971,1.65436,33.3017,5.12839,-2.17135,11.9857,2.2909,-0.500149,2.93207e-15,7.15625e-15,-42.72,-15.3597,-69.9613,40.6795,-5.31762,-9.22091,7.21661,7.12502,16.7338,-22.0822,2.93207e-15,7.15625e-15,-44.0323,26.1338,70.0348,63.1405,70.2357,-11.974,67.7167,7.12502,14.082,-457.22,-32.7008,-5.34904,17.0755,43.8617,-8.98277,-17.5357,17.6158,3.08212,-7.79493,-31.7117,24.4996,-15.9322,-2.40107,-1.80118
0.459195,17.6733,-7.99511,-2.32735,6.21472,4.38408,18.0948,0.628254,-5.9203,1.25114,-0.330582,0.378621,-8.77424,0.0834166,3.86675,-6.38863,3.19885,1.69135,33.0333,5.13882,-2.22402,11.9781,2.29056,-0.516042,-1.35174e-14,5.1684e-15,-42.5015,-15.5324,-69.8235,40.179,-4.73948,-9.01085,7.19606,7.12502,16.936,-22.0855,-1.35174e-14,5.1684e-15,-44.2741,26.1843,69.8296,64.9582,71.4168,-10.797,67.5728,7.12502,15.2161,-456.993,-32.8465,-5.25493,16.7109,40.8599,-7.7747,-18.354,18.9863,4.06012,-7.74823,-31.8482,23.4589,-15.9769,-3.01479,-2.72828
0.448553,17.6632,-7.80892,-2.14315,6.81822,4.56534,18.3346,0.490914,-6.04396,1.18518,-0.560345,0.321291,-8.95412,-0.0150049,3.93664,-6.35154,3.18935,2.02298,32.5532,5.16283,-2.60801,11.7979,2.3012,-0.716218,1.28216e-14,3.18055e-15,-42.4279,-15.5013,-69.7514,39.9788,-4.32745,-8.9242,7.36651,7.12502,17.0194,-21.9079,1.28216e-14,3.18055e-15,-44.8333,26.4552,69.4377,67.0827,73.0925,-10.1023,66.9014,7.12502,15.8851,-456.27,-32.813,-5.18151,16.4273,37.8257,-6.55485,-19.154,19.1812,5.16279,-7.68292,-31.8495,22.329,-15.8392,-3.67377,-3.71951
0.432914,17.659,-7.61955,-2.0565,7.29371,4.69196,18.8904,0.380958,-6.18308,1.00399,-0.783155,0.282488,-9.43769,-0.0949117,4.04247,-6.63849,3.04897,1.32131,32.6776,4.9027,-1.99514,11.8596,2.16726,-0.390665,-7.95139e-16,1.39149e-14,-42.66,-15.2425,-69.7472,40.0559,-3.85179,-9.00167,7.40569,7.12502,16.9448,-21.8752,-7.95139e-16,1.39149e-14,-45.7256,26.7594,68.8472,69.4634,75.1448,-10.8199,67.9889,7.12502,15.194,-457.411,-32.5379,-4.69812,16.1109,34.7747,-6.11194,-19.8121,20.6046,6.37202,-7.42985,-31.7347,21.1773,-15.6535,-4.40238,-4.07654
0.419009,17.659,-7.42583,-1.93215,7.86306,4.93957,18.7046,0.298038,-6.5104,1.06084,-0.952863,0.210807,-9.24821,-0.171552,4.19053,-5.83657,2.55587,0.361847,31.8304,4.11895,-1.30997,11.2977,1.79741,-0.0799783,-2.43014e-14,-1.03368e-14,-42.6795,-15.2815,-69.6644,39.7706,-3.24851,-8.95618,8.17068,7.12502,16.9886,-21.1064,-2.43014e-14,-1.03368e-14,-46.2096,27.2935,68.3094,71.4657,76.568,-10.6276,68.6875,7.12502,15.3792,-458.096,-32.1366,-4.2747,15.6106,31.7443,-6.33498,-20.2273,21.0545,7.4795,-7.35901,-31.7503,20.2071,-15.4991,-5.26062,-2.45285
0.404411,17.6661,-7.2373,-1.70648,8.43014,5.06632,18.6272,0.143123,-6.72565,1.18072,-1.18726,0.248,-9.03915,-0.284241,4.41113,-6.48968,2.5884,0.342511,31.6327,4.17372,-1.34179,11.3522,1.8112,-0.0721422,-3.29983e-14,-1.59028e-15,-42.2213,-15.3327,-69.5922,39.4136,-2.63601,-8.87534,8.88285,7.12502,17.0664,-20.3875,-3.29983e-14,-1.59028e-15,-46.4355,28.6405,67.5633,73.0824,77.9779,-10.0912,68.657,7.12502,15.8958,-458.025,-31.7457,-3.68094,15.1809,28.7134,-6.59024,-20.709,18.5076,8.36115,-7.53756,-31.658,19.3347,-15.2364,-6.02783,0.539242
0.389393,17.6537,-7.04578,-1.61137,8.82901,5.01507,18.7476,-0.0200253,-6.74322,1.37595,-1.39542,0.360193,-8.86007,-0.392067,4.59733,-7.14449,2.65152,0.176011,31.2912,4.29679,-1.38288,11.3484,1.83868,-0.0350087,2.05742e-14,1.98785e-15,-41.4488,-15.3348,-69.5533,38.9815,-2.22121,-8.92529,9.12364,7.12502,17.0184,-20.1509,2.05742e-14,1.98785e-15,-47.231,29.6609,66.7061,75.5497,80.1564,-10.8522,68.9754,7.12502,15.1629,-458.4,-31.2286,-2.55139,14.7989,25.848,-7.05249,-21.4307,16.0323,9.41136,-7.67194,-31.445,18.4977,-15.0044,-6.45349,1.70994
0.373371,17.6435,-6.83826,-1.58773,9.03903,4.95964,18.7965,0.0485701,-6.7235,1.33851,-1.3094,0.323884,-8.9409,-0.348179,4.52625,-6.48739,2.48081,0.916653,30.4303,4.04407,-1.93008,10.9088,1.7616,-0.406015,-1.47598e-14,1.19271e-14,-41.5484,-15.6322,-69.3386,38.6948,-1.85868,-8.85963,9.08392,7.12502,17.0816,-20.1851,-1.47598e-14,1.19271e-14,-47.9489,30.2284,65.8996,77.5169,80.9593,-11.7699,68.9916,7.12502,14.2788,-458.481,-30.6786,-0.846784,14.2445,23.402,-8.29797,-22.2969,15.1484,10.581,-7.57492,-31.2405,17.5855,-14.7179,-6.67859,0.353358
0.362699,17.6442,-6.6195,-1.59236,9.20433,4.94308,18.6561,0.076042,-6.74633,1.42127,-1.26304,0.329858,-8.77687,-0.333648,4.52897,-7.12752,2.38632,0.615855,30.7647,3.86627,-1.55165,11.1471,1.68126,-0.225514,-2.03754e-15,6.75868e-15,-41.4006,-15.7772,-69.1966,38.4799,-1.58884,-8.83645,8.76366,7.12502,17.1039,-20.5035,-2.03754e-15,6.75868e-15,-48.6649,30.7293,65.1749,79.5031,80.8216,-11.9871,68.5423,7.12502,14.0694,-458.046,-30.1355,0.890379,13.6441,21.4136,-10.2605,-22.9521,13.5406,11.648,-7.42195,-31.0837,16.8688,-14.3153,-6.97645,-0.147299
0.351286,17.6269,-6.41068,-1.6194,9.78293,5.30712,18.7357,-0.0423702,-7.02633,1.4673,-1.49335,0.195803,-8.73764,-0.438129,4.60119,-7.0393,2.26284,0.178584,30.5751,3.63081,-1.09812,11.0329,1.57997,-0.0138836,-1.82882e-14,3.49861e-14,-41.4083,-16.1035,-68.9925,38.3011,-1.07553,-8.57946,8.86377,7.12502,17.3512,-20.3817,-1.82882e-14,3.49861e-14,-49.3803,31.2024,64.3013,81.3546,80.3281,-11.3162,67.6788,7.12502,14.7158,-457.137,-29.6043,2.1248,12.6526,20.0022,-12.5201,-23.5049,13.1415,12.8602,-7.61304,-31.3734,16.2268,-13.9125,-7.20557,-2.66801
0.341519,17.6138,-6.2143,-1.39134,10.0288,5.17133,18.6674,-0.142526,-6.84265,1.38631,-1.57879,0.262951,-8.78108,-0.480909,4.59104,-6.55906,2.22931,0.728683,29.8741,3.62126,-1.66174,10.6922,1.58289,-0.323857,4.2043e-14,1.19271e-14,-41.3375,-16.3456,-68.6791,38.0215,-0.745559,-8.46939,9.0316,7.12502,17.4571,-20.2045,4.2043e-14,1.19271e-14,-50.1394,31.8989,63.3299,83.143,80.1539,-9.99602,66.7352,7.12502,15.9875,-456.095,-29.7338,3.07592,12.4558,19.1859,-13.6856,-23.8489,11.8514,13.5005,-7.63271,-31.0685,15.8826,-13.5607,-7.3378,-7.55215
0.34219,17.6114,-6.00054,-1.23144,10.383,5.26381,18.52,-0.269279,-6.71622,1.37481,-1.71257,0.218422,-8.70017,-0.553823,4.4992,-6.82363,2.19431,0.38999,29.8561,3.53178,-1.31145,10.722,1.54228,-0.145512,2.26615e-14,-2.78299e-15,-41.1259,-16.9169,-68.2762,37.3169,-0.243364,-8.65856,9.42274,7.12502,17.2751,-19.8295,2.26615e-14,-2.78299e-15,-50.6893,32.6883,62.3108,84.7315,79.7338,-8.46212,65.8586,7.12502,17.4641,-455.094,-29.6886,2.86011,12.4247,18.8555,-14.9261,-23.2884,12.7279,13.9466,-7.73477,-31.0445,15.9915,-12.9923,-7.77217,-8.33067
0.339533,17.6013,-5.7783,-1.36372,10.6393,5.17179,18.526,-0.286295,-6.39621,1.52475,-1.66423,0.197696,-8.55354,-0.552317,4.27934,-7.1481,2.14115,0.536238,29.5506,3.46765,-1.47016,10.6755,1.5114,-0.231509,-6.19214e-14,5.56597e-15,-41.4808,-16.9872,-68.1923,38.1044,-0.456323,-8.85473,8.92948,7.12502,17.0863,-20.3392,-6.19214e-14,5.56597e-15,-50.5018,33.3911,61.745,85.9947,78.5283,-9.10828,65.9876,7.12502,16.8422,-455.277,-29.3017,2.34524,12.895,18.7128,-12.3777,-22.8464,7.18474,14.461,-8.26449,-31.0841,16.6378,-12.5192,-7.53682,-8.34563
0.329109,17.5908,-5.559,-1.60625,10.7274,4.9319,18.6586,-0.264502,-6.10884,1.66339,-1.56949,0.307005,-8.48936,-0.520629,4.21276,-7.95349,2.53886,1.97135,29.8792,4.08039,-2.53309,11.0289,1.81657,-0.781322,-7.55382e-15,1.19271e-15,-41.3474,-17.1761,-67.9534,38.0787,-0.655397,-9.18301,8.60961,7.12502,16.7703,-20.6861,-7.55382e-15,1.19271e-15,-50.3502,34.0794,61.2446,87.1084,76.8808,-9.16721,66.0182,7.12502,16.7855,-455.313,-28.9781,1.9533,13.6302,19.0084,-11.7499,-22.2611,8.31611,14.9648,-8.22582,-30.7431,17.4612,-12.2614,-7.74095,-9.52789
0.316431,17.581,-5.32996,-1.72349,10.7685,4.80371,18.652,-0.233513,-5.97901,1.71368,-1.49094,0.399913,-8.44004,-0.488822,4.21946,-7.44327,1.85412,-0.361986,29.5316,3.04544,-0.831238,10.694,1.29234,0.110098,-1.80894e-14,-1.39149e-14,-41.3467,-17.473,-67.5956,37.9061,-0.703274,-9.1631,8.44635,7.12502,16.7894,-20.8477,-1.80894e-14,-1.39149e-14,-50.4485,34.4477,60.5594,88.3279,75.2372,-9.58597,66.2872,7.12502,16.3823,-455.615,-28.8607,1.44439,14.3122,19.7786,-11.2262,-21.3779,9.86411,15.3306,-8.20789,-30.4857,18.3733,-11.9333,-8.05501,-10.9027
0.307631,17.5739,-5.09546,-1.85183,10.8239,4.56488,18.6105,-0.215796,-5.62036,1.68287,-1.38845,0.441341,-8.47025,-0.450128,4.03382,-7.29243,1.80331,0.1077,29.376,3.0072,-1.27129,10.6211,1.27934,-0.135615,3.48867e-14,-1.63003e-14,-41.7862,-17.6316,-67.3446,38.0292,-1.11534,-9.34046,8.4049,7.12502,16.6187,-20.9036,3.48867e-14,-1.63003e-14,-50.5984,34.5601,59.6295,89.415,73.8603,-8.55763,65.4772,7.12502,17.3722,-454.721,-28.8569,0.710318,15.1954,20.9712,-9.16166,-20.5319,11.9847,15.7038,-8.32273,-30.1435,19.2594,-11.172,-8.42553,-11.415
0.299041,17.5786,-4.8708,-1.92606,10.9301,4.42263,18.6327,-0.166344,-5.31507,1.6437,-1.26078,0.464957,-8.54541,-0.396171,3.8546,-7.15351,1.67616,0.277138,29.1768,2.83241,-1.4179,10.522,1.20503,-0.238574,-3.02153e-14,2.42517e-14,-42.1357,-17.9496,-66.9895,38.066,-1.45585,-9.50261,8.2947,7.12502,16.4626,-21.0268,-3.02153e-14,2.42517e-14,-50.3846,34.8339,58.9327,90.2913,72.6403,-9.66725,66.1592,7.12502,16.3041,-455.494,-29.0288,0.378004,15.7535,22.4675,-6.7208,-20.3654,13.2634,15.9047,-8.48064,-29.876,20.2268,-10.1551,-8.97087,-12.362
0.290938,17.5966,-4.65548,-1.92054,11.1232,4.47595,18.6457,-0.118975,-5.23776,1.65079,-1.17931,0.501391,-8.55397,-0.358975,3.82992,-7.43101,1.53988,0.0525925,29.2691,2.64641,-1.27794,10.604,1.10996,-0.166857,-1.2424e-14,1.59028e-15,-42.2665,-18.2737,-66.6339,37.9506,-1.77225,-10.0004,8.0219,7.12502,15.9832,-21.3387,-1.2424e-14,1.59028e-15,-49.9532,35.1877,58.4158,91.0827,71.7139,-10.2361,66.2057,7.12502,15.7562,-455.584,-29.3426,0.381356,15.8093,24.045,-4.62994,-20.9514,15.5179,15.8612,-8.81432,-29.86,21.4305,-9.0295,-9.43577,-14.1574
0.278118,17.6127,-4.43769,-2.07057,11.3038,4.23808,18.7432,-0.123623,-4.95969,1.67683,-1.12162,0.615569,-8.58782,-0.338507,3.7831,-7.51324,1.42084,0.12517,29.2427,2.51239,-1.44824,10.6127,1.03762,-0.254496,1.88845e-15,-2.78299e-15,-42.4031,-18.4198,-66.3843,37.9102,-2.25259,-10.3677,7.82435,7.12502,15.6296,-21.5643,1.88845e-15,-2.78299e-15,-49.5776,35.6225,57.812,91.8575,70.6968,-10.0662,65.775,7.12502,15.9199,-455.141,-29.5295,0.827399,16.0284,25.6127,-3.76068,-21.8365,18.4211,15.8118,-9.20415,-29.5518,22.8213,-7.55852,-9.66467,-16.9866
0.261995,17.6197,-4.20488,-2.33398,11.2717,3.64831,18.932,-0.130738,-4.36834,1.72757,-0.998903,0.794214,-8.65487,-0.29662,3.6125,-8.1907,1.37247,-0.271561,29.6147,2.4468,-1.13758,10.8779,0.992675,-0.0743998,1.36167e-14,5.96354e-15,-42.3315,-18.5771,-66.2301,37.6889,-3.0213,-10.4691,7.57335,7.12502,15.5319,-21.8229,1.36167e-14,5.96354e-15,-49.2671,36.1558,57.0164,92.6121,69.7271,-9.41597,65.3794,7.12502,16.546,-454.694,-29.4901,1.44449,16.7115,26.997,-3.76095,-21.952,20.6659,15.6992,-9.43971,-28.8397,24.4961,-5.86327,-10.0083,-19.026
0.249876,17.6269,-3.97026,-2.53377,11.1292,3.38239,19.1414,-0.0784944,-4.14233,1.51977,-0.886877,0.897733,-9.0113,-0.236079,3.57556,-7.26702,1.27383,0.0444629,29.2225,2.31885,-1.45198,10.5535,0.943061,-0.265223,-1.49089e-14,4.37326e-15,-42.8085,-18.4482,-65.8775,37.313,-3.5092,-10.6612,7.44657,7.12502,15.3468,-21.9639,-1.49089e-14,4.37326e-15,-49.5415,36.4631,55.915,93.3709,68.7418,-9.75744,65.1083,7.12502,16.2172,-454.45,-29.3464,1.84927,17.1198,28.1355,-3.34886,-21.2844,20.9148,15.3183,-9.39896,-28.4151,26.4543,-3.78362,-10.5363,-19.5363
0.24018,17.6446,-3.73749,-2.72705,11.1162,2.93959,19.1536,-0.108637,-3.71977,1.49973,-0.823646,1.0395,-9.04955,-0.218186,3.47289,-7.21139,1.14532,-0.232629,29.2697,2.1126,-1.18711,10.5518,0.848857,-0.145419,1.77912e-14,-2.78299e-15,-42.8047,-18.4874,-65.6633,36.7329,-3.60512,-10.9589,7.47822,7.12502,15.06,-21.954,1.77912e-14,-2.78299e-15,-49.2659,37.1593,55.134,93.9124,67.1825,-5.79921,64.5109,7.12502,20.0254,-453.499,-29.0851,2.14134,17.6806,29.0338,-2.00645,-20.4143,21.3785,14.6148,-9.30473,-27.6803,28.6186,-1.1411,-11.2249,-19.0186
0.229827,17.6608,-3.5007,-2.88812,11.0508,2.42857,18.9936,-0.130163,-3.26708,1.55735,-0.73372,1.20512,-8.90888,-0.193846,3.36688,-7.64891,1.11043,-0.0879919,29.4889,2.07559,-1.2987,10.7239,0.830522,-0.211194,-1.45113e-14,1.31198e-14,-42.5238,-18.5367,-65.5979,36.1904,-3.56549,-11.2993,7.36582,7.12502,14.7321,-22.0907,-1.45113e-14,1.31198e-14,-49.4232,37.0443,54.3922,95.1885,66.1728,-5.68537,63.9087,7.12502,20.1348,-452.885,-28.8483,2.34425,18.4,29.8861,-0.476578,-19.3212,22.8966,13.7192,-9.07074,-26.77,30.8391,2.15272,-11.9567,-18.1494
0.214962,17.6717,-3.26047,-3.13508,10.9783,1.85205,18.9071,-0.182436,-2.94433,1.56222,-0.706749,1.47266,-8.8585,-0.189081,3.46542,-7.95305,1.23346,0.165552,29.6634,2.28775,-1.57585,10.8595,0.919692,-0.328771,-2.95195e-14,1.47101e-14,-42.3212,-18.1586,-65.5932,35.8213,-3.76445,-11.5507,6.73478,7.12502,14.4899,-22.7393,-2.95195e-14,1.47101e-14,-49.7891,37.6057,53.1833,96.3514,64.675,-8.48778,64.2459,7.12502,17.4394,-453.484,-28.5446,2.48642,19.2608,30.8477,0.0562547,-18.6868,24.4081,12.7785,-8.75634,-25.6925,33.1415,5.96795,-12.5054,-17.2299
0.200636,17.6807,-3.01737,-3.28887,11.0205,1.51605,18.799,-0.236718,-2.77644,1.47081,-0.729384,1.59894,-8.89798,-0.20176,3.51232,-7.78577,1.04574,-0.484236,29.8345,1.93499,-0.841798,10.872,0.771884,0.00802698,-2.01766e-14,2.8625e-14,-42.4308,-18.0184,-65.4403,35.4681,-3.71227,-11.2229,6.51314,7.12502,14.8058,-22.938,-2.01766e-14,2.8625e-14,-49.8145,38.2008,52.3637,97.2518,62.353,-9.94957,64.6641,7.12502,16.0322,-454.021,-28.1867,2.31105,19.922,31.8715,-0.317011,-18.3583,25.5948,11.6699,-8.65189,-24.9128,35.427,10.4904,-12.6103,-13.7839
0.192384,17.6802,-2.77604,-3.3183,11.1209,1.66577,18.5456,-0.256171,-2.98006,1.44362,-0.797714,1.53742,-8.78048,-0.230512,3.57379,-7.95053,0.919998,-0.961719,30.1102,1.67309,-0.217208,10.9986,0.669243,0.289589,4.72114e-15,-5.1684e-15,-42.408,-18.1893,-65.2605,34.9776,-3.52764,-10.7613,6.72599,7.12502,15.2504,-22.6918,4.72114e-15,-5.1684e-15,-49.8767,38.4004,51.4792,98.4519,60.4036,-11.3688,65.0355,7.12502,14.6652,-454.497,-27.8483,1.91447,20.0657,32.8714,-0.677394,-17.5943,26.206,10.3587,-8.70836,-24.7667,37.726,14.9773,-12.2696,-9.3336
0.178693,17.6951,-2.54436,-3.31759,11.2446,1.67729,18.3086,-0.298509,-3.12906,1.48584,-0.878093,1.5332,-8.59435,-0.268734,3.66813,-7.5988,0.935353,0.17785,29.3343,1.72059,-1.14499,10.6527,0.71416,-0.242678,-7.95139e-16,-9.93923e-15,-42.1199,-18.3401,-65.1985,34.5721,-3.23522,-10.1711,6.7618,7.12502,15.8188,-22.6119,-7.95139e-16,-9.93923e-15,-49.775,38.5049,50.7838,99.8429,58.4629,-13.0485,64.8187,7.12502,13.0465,-454.391,-27.5194,1.79823,20.3222,33.7429,-1.30819,-17.0987,26.4674,8.81854,-8.83763,-24.4543,40.1143,19.2236,-11.8685,-6.71664
0.155534,17.7287,-2.32347,-3.4103,11.3194,1.30036,18.3478,-0.365482,-3.09099,1.43295,-0.941348,1.73649,-8.66573,-0.293779,3.88615,-7.77657,0.741961,-0.781203,29.5656,1.39426,-0.316551,10.7588,0.552623,0.186506,9.49197e-15,6.36111e-15,-41.8202,-18.2271,-65.0629,34.224,-2.88733,-9.61809,6.55964,7.12502,16.3514,-22.7711,9.49197e-15,6.36111e-15,-49.7564,38.5719,50.2401,101.17,55.6874,-12.6468,64.4979,7.12502,13.4337,-454.045,-27.0075,1.98431,20.9865,34.317,-2.26816,-17.1036,26.5525,7.07434,-8.90763,-23.6509,42.6632,23.1182,-11.6149,-5.21468
0.136898,17.7555,-2.11048,-3.55203,11.3297,0.64998,18.5656,-0.438092,-2.63343,1.27429,-0.93153,1.91457,-8.96576,-0.293332,3.82572,-7.70277,0.72733,-0.241068,29.3777,1.33763,-0.576213,10.6787,0.556338,-0.0081878,-4.96962e-17,-1.03368e-14,-41.8343,-18.198,-64.9443,34.1967,-2.55792,-9.04914,6.35387,7.12502,16.8991,-22.9309,-4.96962e-17,-1.03368e-14,-49.4365,38.7026,49.8143,102.257,52.2277,-11.0444,64.1311,7.12502,14.9777,-453.569,-26.3413,2.03899,21.9798,34.6127,-2.56006,-17.0489,24.4361,5.21115,-8.98114,-22.6392,45.2549,26.5033,-11.506,-2.60474
0.117319,17.7839,-1.90808,-3.72951,11.2939,-0.362489,18.8972,-0.531512,-1.82393,1.15493,-0.860945,2.19582,-9.29483,-0.277182,3.6637,-7.98277,0.585657,-0.161193,29.452,1.12202,-0.584534,10.7623,0.463457,-0.0481605,4.21423e-14,-3.18055e-14,-41.8064,-18.2063,-64.8642,34.3349,-2.05155,-8.42081,6.59437,7.12502,17.5039,-22.6376,4.21423e-14,-3.18055e-14,-49.1359,38.1356,49.7363,103.947,49.6233,-11.2375,63.2951,7.12502,14.7917,-452.747,-25.5991,2.25421,23.3393,34.6588,-2.12933,-16.9647,19.6357,3.18527,-8.98685,-21.1997,47.9204,29.8313,-11.8513,-0.646258
0.112785,17.8078,-1.67801,-4.00234,11.4669,-0.574556,18.8389,-0.594342,-1.76706,1.29548,-0.921689,2.29724,-9.10221,-0.311649,3.75277,-8.32933,0.580743,-0.0903806,29.2794,1.05016,-0.420648,10.7646,0.455725,-0.0086044,-2.30093e-14,7.15625e-15,-41.5864,-17.9954,-64.912,34.5092,-1.71547,-7.89271,6.94508,7.12502,18.0121,-22.2409,-2.30093e-14,7.15625e-15,-48.2069,38.271,49.9044,105.241,46.6497,-11.9291,62.9219,7.12502,14.1254,-452.422,-24.4467,1.95638,23.8025,34.6594,-2.2603,-16.7504,16.4485,1.70903,-9.32965,-20.9267,50.4605,32.6094,-11.786,0.281515
0.104709,17.8299,-1.46018,-4.24468,11.3636,-1.30096,18.7178,-0.607136,-1.28323,1.39003,-0.81255,2.54895,-8.94294,-0.277309,3.71646,-8.37054,0.504463,0.0657605,28.8866,0.89472,-0.391702,10.6245,0.404709,-0.0436666,3.3197e-14,-7.95139e-16,-41.3312,-17.8605,-64.9287,34.6723,-1.48803,-7.62356,7.19528,7.12502,18.271,-21.9666,3.3197e-14,-7.95139e-16,-47.3384,37.9804,50.2474,106.639,43.4553,-12.5666,62.6561,7.12502,13.511,-452.198,-23.4544,1.76648,24.8746,34.5483,-3.42356,-16.7707,17.9232,0.0827554,-9.40762,-19.9896,52.9821,33.9821,-12.0019,-1.43197
0.0969664,17.8518,-1.25352,-4.40707,11.1519,-2.07929,18.7986,-0.61261,-0.665014,1.30042,-0.666115,2.77634,-9.10185,-0.223168,3.57773,-8.09811,0.256921,-0.102383,28.7637,0.530759,-0.246671,10.5226,0.237159,-0.00472456,6.4605e-16,1.11319e-14,-41.2461,-17.6045,-64.9235,34.7992,-1.28521,-7.52703,7.45928,7.12502,18.3639,-21.6939,6.4605e-16,1.11319e-14,-46.7249,37.3691,50.4915,107.927,40.0001,-12.249,61.7738,7.12502,13.817,-451.295,-22.5834,1.57087,25.9987,34.3749,-4.95262,-16.8472,22.0145,-1.63796,-9.30477,-18.958,55.4182,33.7555,-12.1451,-2.6226
0.0952279,17.8685,-1.0468,-4.66201,10.8295,-2.62805,18.9681,-0.535796,-0.206092,1.26625,-0.451369,2.91127,-9.25053,-0.13366,3.41169,-7.86347,0.0860136,-0.362598,28.5873,0.203427,0.222712,10.4091,0.112823,0.170681,-4.62174e-15,-1.35174e-14,-41.2073,-17.55,-64.8533,34.8835,-0.994818,-7.71768,7.81033,7.12502,18.1805,-21.36,-4.62174e-15,-1.35174e-14,-45.9479,36.8017,50.7918,109.054,36.5637,-12.0548,60.9888,7.12502,14.0042,-450.497,-21.5141,1.4092,26.8469,34.1107,-5.99144,-16.6543,23.9959,-3.1802,-9.07161,-18.2323,57.7289,32.156,-12.0887,-1.51143
0.0957245,17.8909,-0.831863,-4.95554,10.41,-3.21386,18.9639,-0.392181,0.212206,1.38232,-0.154124,3.12774,-9.1393,-0.00584213,3.32765,-7.91182,-0.0519153,-0.44525,28.3743,-0.0294391,0.406488,10.3402,0.0177398,0.224208,-1.02374e-14,1.47101e-14,-40.9807,-17.4556,-64.812,35.0314,-1.01423,-8.06252,8.08957,7.12502,17.8487,-21.1113,-1.02374e-14,1.47101e-14,-44.8883,36.3612,51.5653,110.179,33.1199,-12.8259,61.2382,7.12502,13.261,-450.796,-20.316,1.39674,27.7081,33.8099,-6.35406,-16.2455,22.8582,-4.63308,-8.85604,-17.5186,59.8807,29.5237,-11.7298,-1.57262
0.101728,17.9166,-0.610159,-5.1144,10.0668,-3.37352,18.6875,-0.265716,0.283284,1.57334,0.024061,3.20735,-8.7867,0.0733466,3.31691,-7.85666,-0.149625,-0.310421,27.9527,-0.164827,0.292814,10.1741,-0.0441576,0.144837,-1.83876e-14,1.19271e-14,-40.7213,-17.1779,-64.9909,35.4947,-1.33469,-8.54039,8.13534,7.12502,17.3888,-21.1068,-1.83876e-14,1.19271e-14,-43.6548,35.867,52.6381,111.183,29.6259,-13.8047,61.5919,7.12502,12.3174,-451.209,-19.1918,1.20333,28.0862,33.613,-6.77002,-15.6936,20.8964,-5.9874,-8.61674,-17.3218,61.7585,26.4705,-11.6945,-4.25433
0.101707,17.9326,-0.412789,-5.15918,9.59925,-3.60411,18.7249,-0.129471,0.393191,1.5262,0.234814,3.27411,-8.87101,0.172449,3.27408,-7.85958,-0.189322,-0.729499,27.9837,-0.29838,0.862077,10.1879,-0.0858043,0.404096,1.31695e-14,-1.63003e-14,-40.8679,-16.8617,-65.1043,36.1477,-1.46063,-8.85677,8.01855,7.12502,17.0843,-21.2503,1.31695e-14,-1.63003e-14,-42.849,35.0585,53.3709,111.975,25.7917,-14.0029,61.3813,7.12502,12.1263,-451.01,-18.3431,1.29983,28.569,33.4191,-7.37842,-15.5139,19.2505,-7.55876,-8.23748,-16.9255,63.4555,23.378,-11.6835,-6.53957
0.107452,17.9443,-0.217302,-5.15412,9.00828,-3.51099,18.8953,0.088304,0.212666,1.37707,0.489759,3.25444,-9.14447,0.304245,3.29506,-7.35143,-0.315054,-0.886263,27.7382,-0.519205,1.11568,10.0021,-0.177334,0.49598,-3.00662e-14,-1.98785e-14,-41.0765,-16.4211,-65.2122,36.7707,-1.75281,-9.39912,7.36544,7.12502,16.5622,-21.9478,-3.00662e-14,-1.98785e-14,-42.4942,33.8378,53.9282,112.775,22.1406,-14.5454,60.9161,7.12502,11.6031,-450.575,-17.5108,1.33119,28.6857,33.2633,-8.00054,-15.1546,15.7371,-8.94688,-7.73683,-16.9483,64.8256,20.2215,-11.5261,-10.4936
0.114951,17.9619,-0.0166742,-5.22371,8.34569,-3.69762,18.8206,0.322822,0.344778,1.4507,0.830437,3.33307,-9.04097,0.462048,3.21335,-7.1667,-0.591496,-1.17262,27.5752,-0.897233,1.25167,9.91363,-0.367345,0.552956,-1.16786e-14,-3.33958e-14,-40.7908,-16.2669,-65.3422,37.0893,-2.16398,-10.2521,7.39197,7.12502,15.7409,-21.9879,-1.16786e-14,-3.33958e-14,-41.8181,32.5497,54.9431,113.455,18.6396,-15.6997,60.9286,7.12502,10.4899,-450.647,-16.5815,1.37081,29.0871,33.0267,-8.62298,-14.6932,15.3874,-10.2358,-7.22052,-16.6436,65.8999,17.3198,-10.7577,-12.7527
0.114999,17.9829,0.188092,-5.31211,7.85036,-3.94167,18.7733,0.466278,0.506801,1.48462,1.05614,3.3852,-8.9882,0.564015,3.1173,-7.55458,-0.613623,-1.41521,27.8134,-0.990262,1.64709,10.0802,-0.390105,0.724533,3.8763e-14,-3.97569e-15,-40.4826,-16.1767,-65.51,37.1556,-2.66158,-10.9235,7.84036,7.12502,15.0942,-21.5893,3.8763e-14,-3.97569e-15,-41.1647,31.2709,55.9336,113.871,15.1185,-16.5412,60.9736,7.12502,9.67805,-450.731,-15.5978,1.4069,29.5512,32.7087,-9.14773,-14.4959,19.4528,-11.5238,-6.85785,-16.2362,66.7099,14.6376,-9.66526,-14.7024
0.1183,18.0001,0.395332,-5.38466,7.30748,-4.26122,18.7362,0.54946,0.71556,1.44069,1.21642,3.45605,-9.02209,0.634221,3.03362,-7.66378,-0.542928,-1.4037,28.0412,-0.936471,1.80071,10.1846,-0.346588,0.783776,3.23025e-14,-2.98177e-14,-40.4261,-15.8651,-65.7842,37.551,-3.07235,-11.4532,7.79956,7.12502,14.5839,-21.6677,3.23025e-14,-2.98177e-14,-40.7694,30.1146,56.7313,114.112,11.6663,-16.9202,60.4817,7.12502,9.31238,-450.256,-14.5764,1.48879,30.1053,32.3309,-9.59478,-14.4794,21.5249,-12.6908,-6.41405,-15.7328,67.2919,12.0363,-8.63655,-16.6281
0.125779,18.0141,0.599777,-5.49741,6.65183,-4.61573,18.6221,0.657442,0.971222,1.50665,1.41745,3.57732,-8.89397,0.72206,2.96611,-7.04793,-0.582606,-1.51248,27.4472,-1.01194,1.93876,9.85059,-0.38293,0.839899,2.54941e-14,1.94809e-14,-40.1818,-15.4458,-66.1081,38.0616,-3.70263,-11.9583,7.5927,7.12502,14.0972,-21.9091,2.54941e-14,1.94809e-14,-40.4343,28.9015,57.7369,114.273,8.40739,-17.5059,59.8995,7.12502,8.74715,-270.302,-13.5319,1.50771,30.6702,32.0172,-10.0002,-14.2009,21.0791,-13.7247,-5.9145,-15.2488,67.6511,9.7525,-7.60804,-16.906
0.13756,18.0234,0.792745,-5.50808,6.11294,-4.7264,18.3738,0.70789,1.12946,1.67813,1.50082,3.57521,-8.56843,0.754194,2.84951,-6.50481,-0.613962,-1.49146,26.94,-1.03192,1.82433,9.56326,-0.407454,0.791817,1.19271e-15,-1.78906e-14,-39.5191,-15.2712,-66.5322,38.4163,-4.36299,-12.3049,7.20585,7.12502,13.7632,-22.3189,1.19271e-15,-1.78906e-14,-40.0583,27.5971,58.7554,114.402,5.82314,-19.1863,60.1336,7.12502,7.12535,-270.006,-12.5295,1.54466,30.8757,31.7017,-10.7648,-13.6722,22.478,-14.9204,-5.56933,-15.0922,67.8575,8.04124,-6.4407,-15.407
0.155193,18.027,0.979857,-5.32631,5.69649,-4.53911,18.5723,0.750641,1.12625,1.39516,1.56029,3.43725,-8.98694,0.781125,2.68832,-6.51357,-0.52771,-1.60486,27.3424,-0.937639,1.98214,9.70892,-0.35753,0.878274,-9.59136e-15,-2.3059e-14,-39.472,-15.0288,-66.7583,38.8796,-5.06882,-12.4075,6.4911,7.12502,13.6643,-23.0404,-9.59136e-15,-2.3059e-14,-40.318,25.8561,59.6073,114.427,3.71294,-21.4197,60.8965,7.12502,4.96906,-90.8183,-11.7915,1.4011,30.7024,31.4835,-11.438,-13.0732,22.7199,-16.2831,-5.40941,-15.3614,67.8799,6.30232,-5.30895,-15.7639
