JuanDHNZ/ProyectoFinalCD/preprocessing/sports_trials_csv/06_02.csv
root1,root2,root3,root4,root5,root6,lowerback1,lowerback2,lowerback3,upperback1,upperback2,upperback3,thorax1,thorax2,thorax3,lowerneck1,lowerneck2,lowerneck3,upperneck1,upperneck2,upperneck3,head1,head2,head3,rclavicle1,rclavicle2,rhumerus1,rhumerus2,rhumerus3,rradius1,rwrist1,rhand1,rhand2,rfingers1,rthumb1,rthumb2,lclavicle1,lclavicle2,lhumerus1,lhumerus2,lhumerus3,lradius1,lwrist1,lhand1,lhand2,lfingers1,lthumb1,lthumb2,rfemur1,rfemur2,rfemur3,rtibia1,rfoot1,rfoot2,rtoes1,lfemur1,lfemur2,lfemur3,ltibia1,lfoot1,lfoot2,ltoes1
1.5828,17.7359,-29.0692,-4.334,-5.31647,-1.14488,16.7855,-0.635141,-2.82247,-1.87675,-1.09337,3.02308,-11.4327,-0.213999,5.23845,-7.0072,-9.49502,-8.21338,13.3022,-12.0635,1.29162,5.75536,-6.20784,0.807302,-8.59744e-15,1.43125e-14,-25.7345,-42.5664,-55.0444,89.7085,-83.5746,-30.1675,-4.64245,7.12502,-3.47919,-34.5938,-8.59744e-15,1.43125e-14,-44.2484,-3.77347,80.4882,59.5872,6.81694,-9.60538,52.5825,7.12502,16.3636,81.9122,-5.9539,4.52782,24.9011,31.235,0,0,0,-4.30844,-10.7822,-15.2943,27.0842,0,0,0
1.5697,17.7315,-29.066,-4.43399,-5.32523,-0.711984,16.1887,-0.385559,-2.88963,-0.841363,-0.803979,2.70348,-9.96195,-0.147512,4.79217,-9.98097,-9.96923,-7.30023,13.7693,-12.5497,1.06094,6.35008,-6.38234,0.39098,1.37161e-14,3.18055e-15,-24.0779,-44.3985,-56.5613,89.783,-83.4306,-29.9317,-5.32093,7.12502,-3.25153,-35.2759,1.37161e-14,3.18055e-15,-41.4563,-4.46397,80.4563,59.2311,6.96044,-9.65715,52.9898,7.12502,16.3138,82.3236,-5.98479,4.33924,24.4264,31.4907,0,0,0,-4.06767,-10.9025,-15.7923,26.861,0,0,0
1.55402,17.731,-29.0655,-4.49191,-5.49401,-0.633503,15.4394,-0.58449,-3.14122,-0.928876,-1.08329,2.90064,-9.59359,-0.271997,5.19617,-7.59919,-9.6171,-8.08406,12.6637,-12.1974,1.44243,5.65999,-6.2424,0.809625,7.11587e-15,-1.19271e-14,-23.9194,-43.2249,-57.1635,89.6897,-83.4721,-30.0279,-4.07744,7.12502,-3.34438,-34.031,7.11587e-15,-1.19271e-14,-41.8399,-3.74216,80.531,59.2159,6.94913,-9.62665,53.0678,7.12502,16.3431,82.3992,-5.94541,4.36443,24.3938,31.5241,0,0,0,-3.98134,-10.9669,-15.8583,26.8825,0,0,0
1.53646,17.7307,-29.0713,-4.48951,-5.58386,-0.713794,15.2953,-0.688731,-3.13428,-1.08264,-1.20844,2.99568,-9.66516,-0.324513,5.32518,-6.35828,-9.4353,-8.21783,11.9818,-12.0451,1.51655,5.24495,-6.17709,0.946676,6.80682e-15,-8.74653e-15,-23.9247,-42.8126,-57.6431,89.7023,-83.3421,-29.9937,-3.77897,7.12502,-3.31133,-33.733,6.80682e-15,-8.74653e-15,-41.9511,-3.57999,80.5668,59.1791,7.13851,-9.6793,52.8572,7.12502,16.2925,82.1927,-5.96154,4.49033,24.5615,31.5586,0,0,0,-3.97449,-10.8999,-15.6993,26.8779,0,0,0
1.5207,17.7335,-29.0824,-4.47844,-5.61252,-0.866092,16.1862,-0.558629,-2.91219,-1.35824,-1.00831,2.97741,-10.5106,-0.209083,5.17461,-7.05339,-9.56134,-7.65045,12.4611,-12.1775,1.11755,5.45579,-6.23954,0.684515,-2.55935e-15,7.95139e-16,-24.4016,-43.0483,-57.6474,89.833,-83.4535,-29.7575,-3.78399,7.12502,-3.08322,-33.7414,-2.55935e-15,7.95139e-16,-41.7463,-4.17256,80.7326,59.2021,7.32102,-9.733,52.5207,7.12502,16.2407,81.8604,-5.98791,4.50507,24.7939,31.5314,0,0,0,-4.05983,-10.7589,-15.439,26.9145,0,0,0
1.50729,17.7361,-29.0855,-4.48504,-5.56418,-0.790261,15.7216,-0.784248,-3.00515,-1.29769,-1.3107,3.07059,-10.138,-0.35839,5.383,-6.24866,-9.27935,-7.98706,11.9639,-11.8438,1.31178,5.1846,-6.08285,0.874397,-1.48467e-15,-4.77083e-15,-23.9658,-42.4252,-58.4567,89.885,-83.5281,-29.1112,-4.27742,7.12502,-2.45911,-34.243,-1.48467e-15,-4.77083e-15,-41.6928,-3.62311,80.6983,59.2987,7.19169,-10.1328,50.8797,7.12502,15.8558,80.2505,-5.98266,4.39373,24.7348,31.5025,0,0,0,-4.09295,-10.7323,-15.4681,26.9345,0,0,0
1.49456,17.7352,-29.0824,-4.54386,-5.53878,-0.646941,15.0556,-1.0924,-3.32472,-1.47505,-1.75431,3.22393,-9.88733,-0.554104,5.81525,-3.81702,-8.75063,-8.60532,10.7998,-11.3208,1.67789,4.4547,-5.84188,1.26304,-5.28022e-15,7.95139e-15,-24.1173,-41.3673,-58.8815,90.0144,-83.5069,-29.6522,-4.06429,7.12502,-2.98156,-34.0232,-5.28022e-15,7.95139e-15,-42.4322,-2.88207,80.7299,59.4857,7.06105,-11.4841,47.3319,7.12502,14.5541,76.8014,-5.87163,4.38733,24.6263,31.4582,0,0,0,-4.00622,-10.7928,-15.6174,26.926,0,0,0
1.47892,17.7355,-29.0811,-4.60309,-5.58088,-0.514922,16.123,-0.963171,-3.46035,-1.66174,-1.61976,3.31335,-10.7242,-0.442545,6.02324,-5.60124,-8.85347,-8.36923,11.8359,-11.2665,1.16312,5.02528,-5.83148,0.966534,-1.16786e-15,-2.14687e-14,-24.0126,-41.5362,-59.0385,90.0809,-83.4831,-29.4094,-4.76983,7.12502,-2.74709,-34.7319,-1.16786e-15,-2.14687e-14,-42.0653,-3.07101,81.1673,59.4513,7.21535,-10.2958,51.6086,7.12502,15.6988,80.9917,-5.78553,4.37118,24.5257,31.4404,0,0,0,-3.93532,-10.8468,-15.7371,26.9587,0,0,0
1.46263,17.7396,-29.0855,-4.6003,-5.75393,-0.521165,15.8664,-0.741673,-3.30326,-1.27882,-1.30327,3.18008,-10.1936,-0.332818,5.67983,-6.56457,-9.05363,-7.71075,11.8479,-11.5137,1.10478,5.15665,-5.91821,0.786398,6.37664e-15,2.8625e-14,-23.5621,-42.4167,-59.7506,90.1388,-83.5816,-29.2096,-4.89477,7.12502,-2.5541,-34.8592,6.37664e-15,2.8625e-14,-40.786,-3.80353,81.2594,59.2907,7.43725,-11.4768,45.8396,7.12502,14.5611,75.3085,-5.81174,4.35326,24.5717,31.4334,0,0,0,-3.92019,-10.8,-15.6733,27.0101,0,0,0
1.44625,17.7346,-29.0914,-4.52493,-5.92805,-0.803721,15.8904,-0.557281,-2.98232,-1.11292,-0.994532,3.20251,-10.0644,-0.209852,5.44073,-7.52149,-9.19131,-7.11805,12.0858,-11.6708,0.922741,5.34931,-5.97369,0.578849,1.27409e-14,-1.59028e-14,-23.4452,-43.0174,-60.0822,90.1498,-83.6519,-29.2,-4.7646,7.12502,-2.5449,-34.7292,1.27409e-14,-1.59028e-14,-39.8716,-4.47137,81.4738,59.1755,7.46283,-11.3257,46.4115,7.12502,14.7067,75.8698,-5.91023,4.43893,24.9601,31.4447,0,0,0,-4.0297,-10.677,-15.2534,27.1083,0,0,0
1.43197,17.731,-29.0984,-4.51663,-5.85796,-0.880892,16.0143,-0.703062,-3.04648,-1.32823,-1.187,3.34912,-10.3496,-0.279664,5.69987,-6.96586,-8.93356,-7.15439,11.9627,-11.3568,0.88688,5.20607,-5.82891,0.629837,1.37783e-14,1.27222e-14,-23.6254,-42.5262,-60.3283,90.187,-83.5844,-29.119,-4.71907,7.12502,-2.46665,-34.6846,1.37783e-14,1.27222e-14,-40.1352,-4.29287,81.6235,59.2829,7.35802,-11.0945,46.7872,7.12502,14.9294,76.2291,-5.95018,4.46197,25.1186,31.4668,0,0,0,-4.11752,-10.6658,-15.0838,27.1647,0,0,0
1.4176,17.7285,-29.1079,-4.52978,-5.7147,-0.815103,16.126,-0.652477,-2.97208,-1.1672,-1.12161,3.21476,-10.2454,-0.263656,5.4904,-7.9054,-9.01475,-6.53969,12.2635,-11.4593,0.768744,5.41623,-5.85338,0.442237,2.37493e-14,-3.65764e-14,-23.337,-43.2071,-61.0193,90.2953,-83.4725,-28.9499,-4.57658,7.12502,-2.30329,-34.5439,2.37493e-14,-3.65764e-14,-39.3637,-4.95381,81.7365,59.2387,7.57823,-11.2767,48.1587,7.12502,14.7539,77.6136,-5.984,4.40939,25.1064,31.5383,0,0,0,-4.16152,-10.7928,-15.1102,27.1643,0,0,0
1.40133,17.7298,-29.1143,-4.55598,-5.65016,-0.740318,15.875,-1.02596,-3.40192,-1.58922,-1.66352,3.54645,-10.4892,-0.469405,6.24399,-5.32189,-8.37123,-7.3953,11.2733,-10.7065,0.957381,4.71047,-5.524,0.831187,-3.95457e-14,2.06736e-14,-23.7274,-41.6192,-61.1121,90.2896,-83.4287,-28.7931,-4.59661,7.12502,-2.15185,-34.5655,-3.95457e-14,2.06736e-14,-40.5292,-4.03124,81.9977,59.4333,7.68081,-11.4248,49.2875,7.12502,14.6112,78.7528,-5.9945,4.25134,25.0659,31.6,0,0,0,-4.10247,-10.8388,-15.1265,27.0613,0,0,0
1.38634,17.7316,-29.1142,-4.54783,-5.66187,-0.473968,16.3999,-0.958841,-3.63811,-1.68149,-1.63523,3.50681,-10.8961,-0.424343,6.36136,-6.44013,-8.30568,-6.91154,11.7781,-10.5321,0.536904,4.99602,-5.44032,0.582611,6.41081e-15,-1.19271e-14,-23.7462,-41.6041,-61.3097,90.3021,-83.5345,-28.8302,-4.36345,7.12502,-2.18774,-34.332,6.41081e-15,-1.19271e-14,-40.2829,-4.32066,82.2437,59.391,7.48634,-11.4788,48.4582,7.12502,14.5592,77.9272,-6.03836,4.17357,24.7965,31.6275,0,0,0,-4.0757,-10.8038,-15.3665,26.9812,0,0,0
1.37453,17.7323,-29.1088,-4.48809,-5.75018,-0.460103,16.0329,-0.809561,-3.49903,-1.21754,-1.41117,3.42522,-10.1989,-0.366089,6.09601,-7.81426,-8.37997,-6.2596,11.6972,-10.6014,0.511597,5.1635,-5.43599,0.413016,-1.51954e-14,-2.06736e-14,-22.9555,-42.5275,-62.0965,90.3667,-83.4822,-28.4214,-5.02881,7.12502,-1.79287,-35.001,-1.51954e-14,-2.06736e-14,-39.068,-5.05822,82.4019,59.3356,7.5594,-11.4949,48.1315,7.12502,14.5437,77.6017,-6.08754,4.22621,24.8256,31.6308,0,0,0,-4.0718,-10.7895,-15.3443,26.9394,0,0,0
1.35971,17.7311,-29.1116,-4.41487,-5.83208,-0.670712,16.7879,-0.621245,-3.34721,-1.44415,-1.13124,3.53266,-10.9259,-0.205127,6.10401,-8.82203,-8.39919,-5.67396,12.2755,-10.5832,0.0586562,5.4543,-5.42875,0.129474,-5.31128e-16,3.18055e-14,-23.3942,-42.991,-61.8602,90.4877,-83.3053,-27.8212,-5.9334,7.12502,-1.21325,-35.9097,-5.31128e-16,3.18055e-14,-38.9475,-5.85358,82.8835,59.3427,7.45414,-11.7239,47.2801,7.12502,14.323,76.766,-6.14321,4.3745,25.1425,31.6113,0,0,0,-4.14862,-10.7978,-15.0381,26.9554,0,0,0
1.34539,17.7278,-29.1157,-4.43614,-5.90773,-0.752276,15.7072,-0.857791,-3.21506,-1.11942,-1.40185,3.56292,-9.9066,-0.385974,6.063,-7.58697,-7.96663,-5.75041,11.3395,-10.1004,0.365343,4.96275,-5.17765,0.351215,5.82066e-15,3.02153e-14,-22.8414,-42.9229,-62.7596,90.465,-83.4717,-27.9644,-5.21645,7.12502,-1.35149,-35.1919,5.82066e-15,3.02153e-14,-38.7001,-5.68164,82.7416,59.4594,7.60037,-11.8769,47.4826,7.12502,14.1756,76.979,-6.12388,4.50767,25.3134,31.6053,0,0,0,-4.13205,-10.693,-14.8771,26.9728,0,0,0
1.3333,17.7275,-29.1156,-4.43345,-5.89191,-0.749042,15.6554,-1.1483,-3.57879,-1.53321,-1.81843,3.93819,-10.2636,-0.530076,6.80582,-6.34257,-7.48628,-6.42052,12.0242,-9.43267,0.0908063,4.96945,-4.91236,0.454258,-9.38015e-15,2.22639e-14,-23.3446,-41.8058,-62.4051,90.5194,-83.919,-28.6044,-3.42075,7.12502,-1.96969,-33.3914,-9.38015e-15,2.22639e-14,-39.7486,-4.94711,83.1549,59.568,7.49534,-12.0527,47.2345,7.12502,14.0063,76.7426,-6.1043,4.46457,25.3463,31.5953,0,0,0,-4.10921,-10.7437,-14.8451,26.9896,0,0,0
1.32199,17.7315,-29.1102,-4.37973,-5.7662,-0.467121,15.6564,-1.07469,-3.53626,-1.41535,-1.74282,3.63397,-10.1525,-0.513695,6.41812,-7.41055,-7.39423,-5.51887,12.2766,-9.31796,-0.0877015,5.16859,-4.82411,0.223063,3.31101e-15,-2.70347e-14,-23.3306,-42.4545,-62.8921,90.6534,-83.5505,-28.0724,-5.62797,7.12502,-1.45582,-35.6027,3.31101e-15,-2.70347e-14,-38.9077,-5.95662,83.1833,59.2575,7.53116,-12.1811,46.6277,7.12502,13.8825,76.1443,-6.14497,4.25516,25.0274,31.5872,0,0,0,-4.15815,-10.9729,-15.1475,26.9713,0,0,0
1.30738,17.7338,-29.1089,-4.35673,-5.72334,-0.400123,15.7823,-1.0872,-3.62391,-1.26291,-1.77226,3.71232,-10.0468,-0.527688,6.56254,-8.68647,-7.16574,-5.07655,12.6277,-8.93314,-0.492237,5.44225,-4.63963,0.00314924,-8.47164e-16,7.95139e-16,-22.8204,-42.3148,-63.5041,90.7256,-83.1527,-26.2253,-8.52998,7.12502,0.328154,-38.5095,-8.47164e-16,7.95139e-16,-38.133,-6.10437,83.4154,58.8987,7.38811,-12.4478,43.9181,7.12502,13.6254,73.4521,-6.1542,4.17458,25.0052,31.5481,0,0,0,-4.20274,-10.9458,-15.1468,26.9631,0,0,0
1.29345,17.7346,-29.1105,-4.39311,-5.79999,-0.615886,16.3079,-0.954357,-3.54458,-1.55666,-1.57238,3.85761,-10.705,-0.397732,6.67431,-8.553,-6.96482,-4.62286,12.8476,-8.67495,-0.922504,5.44242,-4.52531,-0.177422,1.22004e-14,-4.77083e-15,-23.9067,-42.1981,-62.7304,90.961,-83.2215,-26.8618,-7.05673,7.12502,-0.286594,-37.0363,1.22004e-14,-4.77083e-15,-38.4709,-6.82209,83.9064,58.951,7.34101,-10.5048,51.9138,7.12502,15.4974,81.3127,-6.08796,4.3091,25.3336,31.4917,0,0,0,-4.15159,-10.8682,-14.8519,26.961,0,0,0
1.2814,17.7352,-29.1163,-4.32407,-5.76319,-0.765412,16.5514,-1.04099,-3.46702,-1.7206,-1.65744,4.02699,-11.0165,-0.419682,6.86274,-8.55605,-6.61727,-4.60742,12.9152,-8.19767,-0.984211,5.45244,-4.2971,-0.163265,2.03257e-14,-8.74653e-15,-24.3041,-41.9119,-62.5039,91.1401,-83.2132,-28.1298,-5.08428,7.12502,-1.51129,-35.0587,2.03257e-14,-8.74653e-15,-38.7277,-7.11619,84.2673,59.1451,7.84235,-13.6719,46.4984,7.12502,12.4455,76.1079,-6.15596,4.30693,25.5385,31.4579,0,0,0,-4.24072,-10.9176,-14.6176,26.9261,0,0,0
1.27121,17.7346,-29.1215,-4.30164,-5.70132,-0.845571,16.6196,-0.988497,-3.34622,-1.73122,-1.56525,4.00879,-11.0845,-0.380969,6.75339,-8.69753,-6.47129,-4.08432,12.8354,-8.04851,-1.10917,5.42023,-4.20703,-0.274027,2.09469e-14,-2.70347e-14,-24.5674,-42.3989,-62.4089,91.2519,-82.9532,-28.556,-4.82642,7.12502,-1.92294,-34.7975,2.09469e-14,-2.70347e-14,-38.521,-8.09312,84.6832,58.9598,8.86731,-10.184,52.1525,7.12502,15.8065,81.5272,-6.19214,4.18788,25.6449,31.4551,0,0,0,-4.24456,-11.0326,-14.49,26.8467,0,0,0
1.26734,17.7354,-29.1083,-4.32347,-5.78443,-0.555484,16.3041,-0.824113,-3.42971,-1.39201,-1.37886,3.83578,-10.5479,-0.322993,6.52771,-9.72064,-6.43146,-3.4556,12.8248,-8.02451,-1.19571,5.55762,-4.16825,-0.432474,1.6835e-14,1.27222e-14,-24.2034,-43.2651,-62.7819,91.317,-82.7146,-28.6333,-4.81586,7.12502,-1.99757,-34.7863,1.6835e-14,1.27222e-14,-37.5771,-9.0261,84.9029,58.6326,9.28906,-9.38916,53.4664,7.12502,16.5718,82.7788,-6.17773,4.08863,25.3101,31.5067,0,0,0,-4.07426,-11.2735,-14.8798,26.6997,0,0,0
1.25486,17.7357,-29.1037,-4.30525,-5.64638,-0.339584,15.815,-1.33812,-4.10734,-2.02404,-2.14671,4.22207,-10.8336,-0.607332,7.54622,-5.73917,-5.6775,-4.4586,10.7129,-7.12464,-0.868721,4.74388,-3.74119,0.0643143,8.59744e-15,2.78299e-14,-25.3855,-40.9776,-62.0706,91.4326,-82.899,-28.745,-4.5778,7.12502,-2.10544,-34.5472,8.59744e-15,2.78299e-14,-39.6112,-7.54707,85.2439,58.9695,8.68385,-9.36396,52.8905,7.12502,16.5961,82.2009,-6.19901,3.92266,25.0895,31.5491,0,0,0,-4.03708,-11.3394,-15.0821,26.5696,0,0,0
1.23867,17.7339,-29.1012,-4.3506,-5.6457,-0.331334,15.9194,-1.22512,-4.0743,-1.62075,-1.98742,4.28677,-10.465,-0.558187,7.5458,-7.5522,-5.5698,-4.35339,11.482,-6.88192,-0.91417,4.80757,-3.62449,-0.0222323,-2.93704e-14,0,-24.7449,-41.6593,-62.3346,91.594,-82.8468,-28.6557,-5.00382,7.12502,-2.01917,-34.974,-2.93704e-14,0,-38.5205,-8.04836,85.484,58.8275,8.32756,-9.40934,52.2168,7.12502,16.5524,81.5309,-6.15098,3.87751,25.1374,31.5801,0,0,0,-3.91854,-11.3107,-15.0407,26.4774,0,0,0
1.22446,17.7333,-29.1024,-4.25598,-5.61613,-0.527854,15.5402,-1.21627,-3.73544,-1.46935,-1.9112,4.20597,-10.1004,-0.564928,7.20809,-7.43452,-5.50128,-3.79994,11.2289,-6.852,-1.01302,4.68495,-3.58978,-0.128466,1.95554e-14,1.82882e-14,-24.9805,-42.2745,-62.312,91.7366,-82.6945,-28.5342,-5.43722,7.12502,-1.90187,-35.4085,1.95554e-14,1.82882e-14,-38.0713,-8.86868,85.468,58.6945,8.19652,-9.64286,52.4061,7.12502,16.3275,81.7387,-6.2317,3.88159,25.4127,31.5749,0,0,0,-4.03006,-11.3968,-14.7487,26.4792,0,0,0
1.21061,17.7335,-29.1066,-4.15555,-5.57903,-0.616697,15.5888,-1.08564,-3.3884,-1.11856,-1.69102,4.03928,-9.78393,-0.505012,6.75417,-9.41392,-5.44518,-3.1794,11.8775,-6.76758,-1.0145,5.19304,-3.52364,-0.292609,-7.0991e-14,3.81667e-14,-24.6483,-43.2829,-62.7149,91.8302,-82.4651,-28.4857,-5.07425,7.12502,-1.85504,-35.0459,-7.0991e-14,3.81667e-14,-36.9078,-9.84419,85.312,58.4895,8.08082,-9.83082,52.4992,7.12502,16.1466,81.8466,-6.33447,3.97935,25.5805,31.5643,0,0,0,-4.16327,-11.4353,-14.5772,26.485,0,0,0
1.19667,17.7324,-29.1121,-4.12462,-5.59402,-0.579617,16.0526,-0.962972,-3.55711,-1.39262,-1.56043,4.07858,-10.3701,-0.401099,6.9047,-9.22746,-5.27966,-2.9872,11.778,-6.57833,-1.0252,5.12166,-3.42314,-0.304565,1.2115e-14,-6.36111e-15,-25.6723,-43.2506,-61.9326,91.9848,-82.3312,-28.5555,-4.63757,7.12502,-1.9224,-34.6087,1.2115e-14,-6.36111e-15,-37.1164,-10.0313,85.4454,58.3843,6.67162,-8.78446,51.9866,7.12502,17.1539,81.2494,-6.39546,4.14371,25.6225,31.5638,0,0,0,-4.19788,-11.4039,-14.5491,26.4776,0,0,0
1.18922,17.7322,-29.101,-4.16679,-5.52799,-0.411753,16.2195,-1.26108,-3.8531,-1.89645,-1.99924,4.2491,-10.955,-0.548617,7.41201,-7.25972,-4.86223,-3.54573,11.1201,-6.04442,-0.882404,4.60686,-3.17432,-0.0691673,-3.10228e-14,2.70347e-14,-26.6434,-41.9993,-61.2833,92.0795,-82.3564,-28.7076,-4.43642,7.12502,-2.06932,-34.4061,-3.10228e-14,2.70347e-14,-38.2391,-8.54499,85.1789,58.6,3.04367,-5.18869,51.6337,7.12502,20.6121,80.5593,-6.3071,4.02363,25.4409,31.5762,0,0,0,-4.08221,-11.5414,-14.7602,26.4235,0,0,0
1.18045,17.732,-29.0942,-4.21512,-5.50403,-0.329353,16.6555,-0.959652,-3.73029,-1.73352,-1.59977,4.06863,-11.093,-0.370247,7.05511,-9.19819,-5.06015,-2.86467,12.2213,-6.29814,-1.045,5.24738,-3.28543,-0.316472,-4.84413e-14,5.32743e-14,-27.0356,-43.2418,-60.7681,92.1933,-82.1621,-28.6981,-4.14284,7.12502,-2.06015,-34.1126,-4.84413e-14,5.32743e-14,-37.6368,-10.4959,85.9419,58.3427,7.31645,-10.9114,51.4206,7.12502,15.1058,80.8494,-6.2231,3.88364,25.3567,31.548,0,0,0,-4.02016,-11.6144,-14.8624,26.4103,0,0,0
1.16948,17.7338,-29.0874,-4.21908,-5.50817,-0.347294,16.6092,-0.920611,-3.6379,-1.69827,-1.53588,3.99441,-11.0394,-0.351778,6.89708,-9.51013,-5.02948,-2.45503,12.4881,-6.28959,-1.16621,5.36497,-3.27186,-0.431544,2.39411e-14,-1.27222e-14,-27.6646,-43.5277,-60.2684,92.3411,-82.0181,-28.4757,-4.34135,7.12502,-1.84534,-34.3131,2.39411e-14,-1.27222e-14,-37.3844,-10.4437,85.556,58.2449,4.60183,-6.88962,52.8221,7.12502,18.977,81.9164,-6.18164,3.81798,25.3959,31.4978,0,0,0,-4.00417,-11.7195,-14.8304,26.4083,0,0,0
1.15242,17.7335,-29.0903,-4.0742,-5.33037,-0.644182,16.4838,-1.49141,-4.02242,-2.57606,-2.29989,4.64075,-11.8156,-0.604106,8.09177,-5.61283,-4.35051,-3.77121,11.0627,-5.39483,-0.991447,4.77866,-2.87326,0.0105503,2.16178e-14,-3.97569e-14,-29.0748,-41.1058,-59.0182,92.4176,-81.8612,-28.1639,-5.14257,7.12502,-1.54423,-35.1167,2.16178e-14,-3.97569e-14,-39.9081,-9.01599,86.3024,58.4586,5.92391,-9.77833,50.9693,7.12502,16.1971,80.3126,-6.28784,3.81343,25.8071,31.4551,0,0,0,-4.20392,-11.741,-14.3693,26.4094,0,0,0
1.14404,17.733,-29.0791,-4.14615,-5.35582,-0.693069,16.0976,-1.26143,-3.59251,-1.77897,-1.92645,4.43655,-10.765,-0.534665,7.43997,-8.19181,-4.56672,-3.13639,12.0963,-5.63078,-1.06262,5.04158,-2.97328,-0.201647,-3.39798e-14,-1.43125e-14,-28.0812,-43.062,-59.4855,92.3961,-81.1428,-27.9589,-5.39559,7.12502,-1.34622,-35.3711,-3.39798e-14,-1.43125e-14,-38.0298,-10.1463,86.1942,58.07,6.29492,-10.6011,50.3229,7.12502,15.4047,79.729,-6.14846,3.86408,25.9056,31.4327,0,0,0,-4.05976,-11.8142,-14.3242,26.4325,0,0,0
1.13764,17.7298,-29.0614,-4.24307,-5.35531,-0.440464,15.5699,-1.34375,-3.72472,-1.42511,-2.06363,4.37945,-10.04,-0.636519,7.43084,-8.63917,-4.47011,-3.03002,12.0183,-5.4886,-1.12097,5.08639,-2.90148,-0.236611,1.96331e-14,-6.12257e-14,-27.6433,-43.2659,-59.7238,92.3535,-80.4958,-27.8807,-5.03529,7.12502,-1.27073,-35.0113,1.96331e-14,-6.12257e-14,-37.4724,-9.92897,86.0067,57.9317,5.92235,-10.3325,49.4652,7.12502,15.6635,78.8512,-6.00235,3.67345,25.6039,31.462,0,0,0,-3.84896,-11.9757,-14.6685,26.41,0,0,0
1.12094,17.7252,-29.0747,-4.18859,-5.27853,-0.621618,15.9327,-1.29561,-3.73044,-1.58406,-1.99583,4.46984,-10.4347,-0.57826,7.55257,-8.8176,-4.27114,-2.83201,12.4702,-5.22596,-1.21442,5.24635,-2.77421,-0.289415,-6.20146e-14,3.65764e-14,-28.5335,-43.2187,-58.9059,92.4241,-80.1896,-27.9101,-4.35289,7.12502,-1.29905,-34.3287,-6.20146e-14,3.65764e-14,-37.5594,-9.98914,86.0142,57.7058,5.33911,-9.96562,49.8693,7.12502,16.0168,79.2272,-6.14901,3.80933,25.9207,31.5357,0,0,0,-3.94136,-11.9858,-14.3361,26.3262,0,0,0
1.105,17.7225,-29.0753,-4.1089,-5.10533,-0.520304,16.1508,-1.23279,-3.94275,-1.7601,-1.95566,4.47227,-10.7591,-0.526267,7.69404,-8.82595,-4.30191,-2.70103,12.6621,-5.26866,-1.33724,5.3007,-2.79903,-0.354543,2.62147e-14,-3.97569e-14,-29.2014,-43.6025,-58.0766,92.4154,-79.6377,-27.8242,-3.93373,7.12502,-1.21615,-33.91,2.62147e-14,-3.97569e-14,-37.6752,-9.98824,86.008,57.5352,4.3843,-8.8234,50.5257,7.12502,17.1164,79.7918,-6.28213,3.8477,25.8858,31.6114,0,0,0,-4.02677,-12.0578,-14.3666,26.2034,0,0,0
1.09428,17.7211,-29.0668,-4.06463,-4.89273,-0.437871,15.7898,-1.31105,-3.66538,-1.48846,-2.03252,4.16509,-10.2507,-0.620926,7.16578,-9.50915,-4.2722,-2.21326,12.9695,-5.28771,-1.24908,5.50029,-2.78031,-0.427881,-2.62458e-14,1.03368e-14,-29.2102,-44.3585,-58.241,92.4339,-79.1442,-27.9005,-3.5555,7.12502,-1.28982,-33.5314,-2.62458e-14,1.03368e-14,-36.9926,-10.1857,85.354,57.2853,3.82195,-8.19458,50.2481,7.12502,17.7216,79.4606,-6.28669,3.64423,25.8063,31.6326,0,0,0,-4.05923,-12.2137,-14.4279,26.1477,0,0,0
1.08284,17.7193,-29.0589,-4.1094,-4.71194,-0.479463,15.7324,-1.24005,-3.4243,-0.912144,-1.90861,4.03485,-9.60566,-0.619243,6.81749,-11.9164,-4.40937,-1.66658,13.7957,-5.48347,-1.33395,6.15155,-2.8549,-0.631303,-6.41081e-15,-2.38542e-15,-28.4434,-45.5355,-58.642,92.338,-78.5541,-27.8683,-3.0851,7.12502,-1.25875,-33.0611,-6.41081e-15,-2.38542e-15,-35.4357,-10.4474,84.9029,56.9176,3.48878,-8.20666,49.6158,7.12502,17.71,78.8293,-6.17758,3.40179,25.8605,31.6172,0,0,0,-3.9768,-12.3178,-14.3615,26.0976,0,0,0
1.067,17.7194,-29.0571,-4.1096,-4.72374,-0.554961,16.032,-1.45822,-3.81458,-1.65477,-2.24176,4.36397,-10.5336,-0.688169,7.55075,-9.15507,-4.09882,-2.24129,13.2385,-5.04034,-1.38386,5.52069,-2.67303,-0.442303,-2.66061e-14,7.15625e-15,-30.0892,-43.9716,-57.1738,92.3456,-78.1235,-27.902,-2.5066,7.12502,-1.29126,-32.4824,-2.66061e-14,7.15625e-15,-37.2808,-9.38957,85.1545,57.0273,3.2786,-7.5625,50.811,7.12502,18.3298,79.9674,-6.12403,3.37216,26.001,31.5446,0,0,0,-3.95693,-12.2622,-14.2088,26.0914,0,0,0
1.05333,17.7177,-29.0564,-4.05628,-4.83546,-0.680261,15.5498,-1.31783,-3.48929,-0.967126,-2.00552,4.20424,-9.541,-0.659157,7.05814,-11.164,-4.2004,-1.94326,13.8532,-5.20916,-1.08353,6.05613,-2.71793,-0.466937,1.43995e-14,-3.18055e-14,-29.2478,-45.391,-57.6824,92.2819,-77.3617,-28.1235,-2.03259,7.12502,-1.5052,-32.007,1.43995e-14,-3.18055e-14,-35.8044,-9.98289,84.8245,56.7286,4.24777,-8.76253,50.2174,7.12502,17.175,79.4784,-6.1412,3.56171,26.2031,31.4754,0,0,0,-3.97904,-12.1892,-14.0109,26.1053,0,0,0
1.04386,17.7172,-29.0431,-3.9197,-4.29808,-0.826484,16.1064,-1.52351,-3.41971,-1.69239,-2.25697,4.30566,-10.632,-0.715653,7.2661,-9.85418,-4.21567,-1.96383,13.8712,-5.25141,-1.16915,5.83658,-2.74885,-0.462681,-4.74598e-14,2.38542e-14,-31.1199,-44.8791,-55.9115,92.4019,-76.8185,-28.6404,-1.36057,7.12502,-2.00438,-31.3309,-4.74598e-14,2.38542e-14,-37.2246,-9.96917,85.2945,56.6989,5.60791,-9.64532,50.4956,7.12502,16.3252,79.8284,-6.17923,3.34799,26.4106,31.3977,0,0,0,-4.2255,-12.5413,-13.7697,26.1406,0,0,0
1.03129,17.7135,-29.0398,-3.94289,-4.66209,-0.733717,15.983,-1.3018,-3.5324,-1.46946,-1.99209,4.21944,-10.3494,-0.603195,7.15095,-10.4945,-4.22425,-1.74324,14.2419,-5.28883,-1.12605,6.05784,-2.75231,-0.509044,-1.2862e-14,1.74931e-14,-31.3677,-45.623,-55.4706,92.4547,-76.1265,-28.645,-0.235681,7.12502,-2.00887,-30.206,-1.2862e-14,1.74931e-14,-36.7086,-10.0312,85.1072,56.4066,5.49335,-9.32292,50.5994,7.12502,16.6356,79.9065,-6.16718,3.40806,26.3236,31.3623,0,0,0,-4.09564,-12.4813,-13.8901,26.168,0,0,0
1.01482,17.7096,-29.0317,-3.79502,-4.16603,-0.74628,15.7022,-1.86938,-3.83718,-1.87274,-2.76897,4.55925,-10.4945,-0.929329,7.89722,-8.62508,-3.83233,-2.52357,13.7932,-4.68884,-1.14362,5.61602,-2.50355,-0.291939,-1.02039e-13,5.00937e-14,-31.6519,-44.1527,-55.0133,92.4598,-75.6541,-28.2448,0.544553,7.12502,-1.62236,-29.429,-1.02039e-13,5.00937e-14,-37.7485,-7.86318,84.6972,56.3038,2.86145,-6.97279,50.6389,7.12502,18.897,79.741,-6.26025,3.06982,26.3874,31.3228,0,0,0,-4.33808,-12.7308,-13.7648,26.1717,0,0,0
1.00747,17.7069,-29.0395,-3.92427,-4.39804,-0.779811,16.0031,-1.66873,-3.75445,-1.62619,-2.49711,4.50434,-10.4414,-0.814049,7.73034,-9.97664,-3.85271,-2.43673,14.8055,-4.69361,-1.06764,6.1661,-2.50097,-0.326228,4.76307e-14,-4.05521e-14,-31.8309,-44.9074,-54.5497,92.5146,-75.1555,-27.8157,-0.695222,7.12502,-1.20789,-30.6715,4.76307e-14,-4.05521e-14,-37.2959,-8.44419,84.9552,55.9417,5.26415,-9.5343,50.6868,7.12502,16.4321,80.0108,-6.16768,2.87258,26.3951,31.3026,0,0,0,-4.14629,-12.662,-13.7563,26.1447,0,0,0
0.994595,17.7044,-29.033,-4.01515,-3.95506,-0.797454,16.0552,-1.74962,-3.79499,-1.59883,-2.61284,4.52023,-10.42,-0.868037,7.80091,-10.0767,-3.92333,-2.24564,15.2435,-4.78224,-1.28986,6.31227,-2.55356,-0.443222,1.24473e-14,-2.38542e-15,-32.3943,-45.3062,-53.6886,92.5383,-74.5949,-27.941,1.57217,7.12502,-1.32893,-28.4034,1.24473e-14,-2.38542e-15,-37.4486,-8.44496,85.0271,55.7736,6.07005,-10.4149,50.4718,7.12502,15.5841,79.864,-5.9827,2.52558,26.4451,31.2466,0,0,0,-4.12304,-12.9681,-13.7199,26.1234,0,0,0
0.983666,17.7034,-29.02,-4.12046,-3.57531,-0.816226,15.9859,-2.09081,-4.05058,-1.91882,-3.093,4.7561,-10.6378,-1.05519,8.34494,-8.35669,-3.66368,-2.79648,15.0887,-4.41808,-1.2037,5.98115,-2.40256,-0.257967,4.43663e-14,-3.18055e-14,-33.0007,-44.3395,-52.7834,92.5407,-73.9795,-28.0492,2.38683,7.12502,-1.43345,-27.5881,4.43663e-14,-3.18055e-14,-38.6048,-7.37277,85.0487,55.7195,6.18948,-10.4649,50.0481,7.12502,15.5359,79.444,-5.75419,2.40919,26.5323,31.1805,0,0,0,-4.03153,-13.3169,-13.706,26.1171,0,0,0
0.9708,17.7054,-29.0123,-4.08968,-3.59862,-0.816059,14.9407,-2.04422,-3.6891,-1.06007,-2.98064,4.44133,-9.13057,-1.12975,7.6147,-9.64546,-3.7089,-2.21499,14.951,-4.54825,-1.04001,6.14899,-2.41716,-0.336054,-3.39798e-14,1.74931e-14,-32.175,-45.9608,-53.4462,92.5647,-73.2193,-27.8359,2.43124,7.12502,-1.22744,-27.545,-3.39798e-14,1.74931e-14,-37.018,-7.68483,84.347,55.3427,6.55883,-10.5708,50.3445,7.12502,15.4339,79.7483,-5.71524,2.42792,26.5791,31.0945,0,0,0,-4.03608,-13.3104,-13.6674,26.1297,0,0,0
0.951405,17.7056,-29.0101,-4.05545,-3.8729,-0.927549,16.0972,-1.78967,-3.90247,-1.6511,-2.67731,4.62828,-10.4835,-0.884242,8.0074,-10.0992,-3.67642,-2.40968,16.409,-4.44486,-1.12302,6.69518,-2.39427,-0.351859,-4.53974e-14,5.56597e-15,-33.7801,-45.7547,-51.5055,92.6688,-72.812,-27.6794,2.48107,7.12502,-1.07628,-27.496,-4.53974e-14,5.56597e-15,-37.9712,-7.4294,84.6459,55.172,6.53014,-10.503,51.2779,7.12502,15.4992,80.6767,-5.73991,2.52417,26.7671,31.0796,0,0,0,-3.96232,-13.1107,-13.4706,26.1356,0,0,0
0.932193,17.7058,-29.0062,-4.04505,-3.94053,-0.986824,15.8248,-1.75478,-3.84468,-1.50799,-2.62586,4.52646,-10.1809,-0.885527,7.81708,-10.0842,-3.75207,-2.30629,16.8914,-4.58212,-1.04015,6.84761,-2.4498,-0.360756,3.38885e-14,-3.4191e-14,-34.3207,-46.2503,-50.8984,92.7994,-72.2316,-27.5195,2.32263,7.12502,-0.92186,-27.6551,3.38885e-14,-3.4191e-14,-37.8677,-7.2649,84.2801,54.9214,6.49099,-10.1838,52.0075,7.12502,15.8067,81.3822,-5.70225,2.49799,26.8946,31.0376,0,0,0,-3.93495,-13.1476,-13.3573,26.1701,0,0,0
0.924679,17.7019,-29.0193,-4.09424,-5.35986,-0.854371,15.947,-1.14368,-3.95677,-1.1784,-1.85157,4.3719,-10.0085,-0.528979,7.51845,-10.9454,-3.96216,-1.95942,17.2989,-4.89524,-1.10578,7.12094,-2.58341,-0.492194,-6.95001e-14,2.8625e-14,-34.3475,-47.1444,-50.6113,92.8172,-71.6537,-27.1065,2.05114,7.12502,-0.522919,-27.928,-6.95001e-14,2.8625e-14,-37.1397,-7.15521,83.8618,54.5396,5.72723,-9.17437,52.5173,7.12502,16.7786,81.8123,-5.78845,2.99717,26.7098,31.0436,0,0,0,-3.56912,-12.7484,-13.6276,26.188,0,0,0
0.916888,17.7006,-29.0019,-4.05764,-4.45788,-1.02045,15.8141,-1.7589,-3.88163,-1.69782,-2.63073,4.58928,-10.3824,-0.869146,7.9222,-8.6294,-3.67231,-2.43414,16.8657,-4.48564,-1.12831,6.58538,-2.42184,-0.328062,-9.31803e-16,1.59028e-15,-35.3715,-45.7029,-49.519,92.8988,-71.2978,-26.6076,1.16184,7.12502,-0.041085,-28.8179,-9.31803e-16,1.59028e-15,-38.5717,-5.6161,83.5668,54.4562,4.15816,-15.3557,40.9352,7.12502,10.8216,70.6364,-5.70087,2.50117,26.9332,31.0253,0,0,0,-3.76915,-13.3905,-13.3932,26.1999,0,0,0
0.903877,17.7018,-28.9947,-3.94292,-4.16541,-0.977435,15.8308,-1.46691,-3.59323,-1.15329,-2.21921,4.28368,-9.87092,-0.735028,7.28371,-11.8411,-3.91012,-1.48658,18.4275,-4.83043,-1.4474,7.62606,-2.55354,-0.712637,8.75895e-15,8.74653e-15,-35.6454,-47.5435,-48.9613,92.9814,-70.8026,-26.6004,1.70813,7.12502,-0.0341027,-28.2716,8.75895e-15,8.74653e-15,-36.9341,-6.2772,83.2353,53.915,3.36395,-12.3883,47.0842,7.12502,13.6828,76.6144,-5.79106,2.38131,26.9332,31.0265,0,0,0,-3.97396,-13.6533,-13.3701,26.2194,0,0,0
0.888275,17.7016,-28.9896,-3.77709,-4.09289,-0.985541,16.1124,-1.68577,-3.86891,-1.75994,-2.54363,4.50184,-10.643,-0.816224,7.82162,-10.6165,-3.60001,-1.96156,18.9306,-4.33215,-1.5227,7.58408,-2.36128,-0.591194,4.93421e-14,-3.57812e-14,-36.3081,-46.6096,-47.9388,93.0912,-70.1657,-26.8669,2.33425,7.12502,-0.291563,-27.6453,4.93421e-14,-3.57812e-14,-38.4047,-5.19135,83.194,53.765,3.32937,-11.3419,49.7749,7.12502,14.6911,79.2344,-5.89842,2.28338,26.986,30.91,0,0,0,-4.24897,-13.6194,-13.2491,26.3232,0,0,0
0.869272,17.7023,-28.9842,-3.66844,-3.96069,-1.06536,15.5248,-1.72588,-3.80113,-1.47768,-2.58182,4.44174,-9.98652,-0.880253,7.66269,-10.8948,-3.59123,-1.74331,19.186,-4.35366,-1.51974,7.71231,-2.35632,-0.638019,1.35795e-14,-3.73715e-14,-36.0948,-47.7149,-47.6754,93.2199,-69.295,-26.8314,2.35207,7.12502,-0.257237,-27.6275,1.35795e-14,-3.73715e-14,-38.0208,-5.01299,82.8848,53.4625,3.59953,-11.225,49.4487,7.12502,14.8037,78.8999,-5.95247,2.21551,27.1471,30.8612,0,0,0,-4.40526,-13.5416,-13.0367,26.3749,0,0,0
0.851418,17.7019,-28.9807,-3.79174,-4.01332,-1.28184,15.7504,-1.64138,-3.74306,-1.47855,-2.45433,4.51538,-10.137,-0.812346,7.69896,-10.7655,-3.67317,-1.51747,19.4822,-4.46994,-1.73772,7.7756,-2.41766,-0.759649,4.53695e-14,-1.43125e-14,-36.9669,-47.53,-46.6067,93.3641,-69.148,-26.5537,2.24233,7.12502,0.0109531,-27.7374,4.53695e-14,-1.43125e-14,-38.3758,-4.89817,82.9291,53.2234,4.34698,-13.3142,43.7638,7.12502,12.7903,73.352,-5.74406,2.2561,27.4694,30.7772,0,0,0,-4.30011,-13.3648,-12.7417,26.4778,0,0,0
0.844753,17.7024,-28.9803,-3.91061,-3.91852,-1.01816,15.9726,-1.38441,-3.65175,-0.545906,-2.13181,4.25504,-9.29056,-0.73006,7.24121,-15.0279,-3.74062,-0.981744,21.2235,-4.57034,-1.82844,9.12385,-2.42852,-1.01939,1.77912e-14,2.78299e-14,-35.9639,-49.4311,-47.0799,93.319,-68.6792,-25.9317,2.00012,7.12502,0.611722,-27.9787,1.77912e-14,2.78299e-14,-36.3348,-5.5677,82.9709,52.5053,6.75125,-13.429,50.3206,7.12502,12.6797,79.9157,-5.61233,2.01543,27.1663,30.7366,0,0,0,-4.22801,-13.4329,-13.0467,26.5279,0,0,0
0.834683,17.7,-28.9791,-3.86708,-3.93302,-1.21022,15.6424,-1.92229,-3.76827,-1.23759,-2.8292,4.58619,-9.7424,-1.01391,7.85465,-11.245,-3.17934,-2.13621,20.6181,-3.69915,-1.51333,8.26203,-2.08214,-0.533745,-1.35049e-14,-1.35174e-14,-36.5364,-47.131,-46.4639,93.4429,-68.2958,-25.7914,2.1364,7.12502,0.747183,-27.842,-1.35049e-14,-1.35174e-14,-38.6418,-3.1649,82.3414,52.6499,4.05696,-9.76833,50.6395,7.12502,16.2067,79.9821,-5.63539,1.97952,27.4179,30.7213,0,0,0,-4.25679,-13.409,-12.7649,26.5382,0,0,0
0.822673,17.7002,-28.9752,-3.77082,-3.97028,-1.14789,15.9016,-2.11564,-4.23983,-1.85636,-3.15061,4.88347,-10.4929,-1.07657,8.60179,-9.46755,-2.8432,-2.85291,20.7284,-3.16072,-1.53102,7.98922,-1.88742,-0.336283,6.87671e-15,-2.06736e-14,-36.8877,-46.1024,-45.5503,93.8244,-67.7881,-26.0723,2.26243,7.12502,0.475932,-27.7168,6.87671e-15,-2.06736e-14,-40.3528,-1.6963,82.2382,52.6191,3.10975,-8.68231,51.9949,7.12502,17.2522,81.2491,-5.79949,1.90372,27.3751,30.8374,0,0,0,-4.273,-13.4032,-12.796,26.427,0,0,0
0.815462,17.7005,-28.9653,-3.72376,-3.85084,-0.869769,15.9899,-2.05728,-4.31477,-1.81291,-3.11019,4.67638,-10.5092,-1.06004,8.40523,-10.207,-2.82414,-2.47384,21.4159,-3.14162,-1.67311,8.34423,-1.86929,-0.465536,-4.73045e-14,1.11319e-14,-37.4367,-46.1183,-44.9417,93.9055,-67.8137,-26.1964,3.04323,7.12502,0.35602,-26.9362,-4.73045e-14,1.11319e-14,-40.347,-1.63502,82.044,52.3724,3.23251,-11.344,47.4171,7.12502,14.6891,76.8767,-5.8433,1.51082,27.0286,30.8544,0,0,0,-4.31607,-13.5155,-13.1187,26.4439,0,0,0
0.810712,17.6976,-28.9633,-3.97599,-4.83522,-0.516733,15.5843,-1.7188,-4.41983,-1.33161,-2.70858,4.28984,-9.81864,-0.923775,7.87568,-10.1533,-2.7035,-1.99373,21.2783,-3.07536,-1.63135,8.27796,-1.79387,-0.521817,-5.93e-14,-1.35174e-14,-37.2696,-47.0471,-45.0658,94.1464,-67.503,-26.0687,2.92443,7.12502,0.479405,-27.0548,-5.93e-14,-1.35174e-14,-40.0638,-1.55962,81.4419,52.2628,3.52235,-7.54126,52.6799,7.12502,18.3502,81.8344,-5.63345,1.6527,26.5665,30.8747,0,0,0,-3.7374,-13.0508,-13.6755,26.4251,0,0,0
0.79473,17.698,-28.9604,-3.93205,-4.56893,-0.975293,16.3824,-1.64159,-3.88401,-1.35555,-2.51145,4.35618,-10.3553,-0.828647,7.65205,-11.7344,-2.84622,-1.58659,22.2518,-3.23589,-1.94773,8.88687,-1.87516,-0.753981,-3.9086e-14,3.97569e-14,-37.7715,-47.4632,-44.1767,94.2125,-67.5477,-25.9662,2.92756,7.12502,0.578395,-27.0514,-3.9086e-14,3.97569e-14,-39.9751,-1.74727,81.4742,52.1117,3.81872,-14.0062,44.2087,7.12502,12.1231,73.8375,-5.62715,1.6975,27.1988,30.8526,0,0,0,-3.86373,-13.128,-13.0235,26.4514,0,0,0
0.783379,17.699,-28.9508,-3.87937,-4.59649,-1.19021,15.7887,-1.64366,-3.55212,-1.01226,-2.44875,4.2849,-9.65708,-0.860597,7.30252,-11.9013,-2.8141,-1.41948,22.2624,-3.24497,-1.84546,8.91959,-1.8541,-0.751281,4.00054e-14,-2.38542e-15,-37.6325,-47.7797,-44.0918,94.6029,-67.6861,-26.0933,2.34297,7.12502,0.455672,-27.6363,4.00054e-14,-2.38542e-15,-39.6982,-1.63905,81.2131,51.8777,4.0472,-14.5556,43.4143,7.12502,11.5934,73.0736,-5.6543,1.79868,27.5104,30.8565,0,0,0,-3.85492,-13.3296,-12.7348,26.4861,0,0,0
0.775287,17.6967,-28.9458,-3.8231,-4.57919,-1.13455,15.7151,-1.61481,-3.51885,-1.03844,-2.4111,4.19199,-9.65454,-0.846617,7.16741,-11.8589,-2.59411,-1.1647,22.7557,-2.95351,-2.00937,9.07511,-1.71601,-0.823606,2.57923e-14,-2.8625e-14,-38.1019,-47.6859,-43.5733,94.5423,-68.1272,-26.0996,2.95978,7.12502,0.44959,-27.0195,2.57923e-14,-2.8625e-14,-40.0366,-1.3859,81.0215,51.6887,4.0431,-14.6892,42.6817,7.12502,11.4645,72.3482,-5.68982,1.81012,27.4742,30.8498,0,0,0,-3.94049,-13.3467,-12.7569,26.5473,0,0,0
0.766882,17.6956,-28.944,-3.74913,-4.43637,-1.00486,15.8004,-1.83115,-3.85046,-1.28031,-2.74812,4.35232,-9.90067,-0.968884,7.63609,-11.0392,-2.31976,-1.42358,22.6757,-2.49113,-2.20285,8.89912,-1.54159,-0.780724,1.00759e-14,-4.45278e-14,-38.2052,-46.7198,-42.9964,94.6726,-69.5297,-25.8068,3.42426,7.12502,0.732351,-26.5542,1.00759e-14,-4.45278e-14,-40.9607,-0.254511,80.8739,51.4679,4.08025,-14.5905,42.0891,7.12502,11.5597,71.7503,-5.79183,1.67638,27.3484,30.9266,0,0,0,-4.10121,-13.2671,-12.8299,26.5273,0,0,0
0.756852,17.6964,-28.9409,-3.71991,-4.4024,-0.805544,16.0384,-1.60267,-3.81576,-0.950467,-2.45989,4.17673,-9.72374,-0.853261,7.35045,-12.736,-2.81639,-1.37269,23.2994,-3.15146,-2.19486,9.42991,-1.84984,-0.899521,3.46879e-14,-6.59965e-14,-38.2097,-47.4039,-42.559,94.8948,-69.8816,-25.4888,2.50744,7.12502,1.03943,-27.4698,3.46879e-14,-6.59965e-14,-40.0264,-0.392221,80.8691,50.8109,4.29887,-14.6057,41.594,7.12502,11.545,71.256,-5.87711,1.56802,27.1426,31.035,0,0,0,-4.15215,-13.2883,-13.0135,26.5025,0,0,0
0.747054,17.6943,-28.9412,-3.79775,-4.46803,-0.80676,15.7976,-1.78269,-3.82253,-0.905924,-2.69565,4.19607,-9.49949,-0.977618,7.40997,-11.7654,-2.90645,-1.8526,23.3906,-3.22142,-2.10628,9.29088,-1.91612,-0.780548,4.72114e-16,-3.26007e-14,-37.6129,-46.5792,-43.045,95.0191,-69.5848,-25.9853,2.06534,7.12502,0.559942,-27.9137,4.72114e-16,-3.26007e-14,-40.6067,0.514719,80.5318,50.5491,4.24756,-14.7149,41.6569,7.12502,11.4397,71.3248,-5.85046,1.48794,27.1721,31.117,0,0,0,-4.05336,-13.3657,-13.0032,26.4995,0,0,0
0.736133,17.6938,-28.9408,-3.77816,-4.42075,-0.818171,16.3768,-2.0138,-4.21269,-1.53739,-3.06035,4.49664,-10.4456,-1.05841,8.14271,-9.8837,-2.48244,-2.31528,22.6845,-2.58919,-2.16931,8.7045,-1.65968,-0.612986,-2.19843e-14,-1.03368e-14,-37.4275,-44.848,-42.8513,95.1875,-69.7057,-26.6793,1.76506,7.12502,-0.110389,-28.2147,-2.19843e-14,-1.03368e-14,-42.5477,1.76776,80.4348,50.8461,4.61145,-14.6104,42.5517,7.12502,11.5405,72.2139,-5.88478,1.50533,27.2406,31.17,0,0,0,-4.13546,-13.2675,-12.9049,26.5281,0,0,0
0.724882,17.6925,-28.9401,-3.77809,-4.51516,-0.831308,15.1919,-2.02283,-3.63968,-0.590984,-2.99213,3.98475,-8.78138,-1.17605,7.07149,-10.9535,-2.5245,-1.44141,22.4504,-2.79582,-2.12456,8.8056,-1.6763,-0.779471,3.8266e-14,-1.35174e-14,-36.0542,-46.7548,-44.3076,95.4806,-69.8078,-27.2075,1.0706,7.12502,-0.620466,-28.9082,3.8266e-14,-1.35174e-14,-41.2421,1.54634,79.7171,50.5414,5.07323,-11.6149,48.8633,7.12502,14.4281,78.3418,-5.88222,1.68359,27.3288,31.1865,0,0,0,-4.15638,-13.1898,-12.8221,26.6013,0,0,0
0.718959,17.6904,-28.947,-3.8536,-4.93945,-0.823793,15.9063,-1.79007,-3.55218,-0.6823,-2.68748,3.87664,-9.34133,-1.00845,6.89018,-11.3235,-2.35818,-1.43092,22.6099,-2.62465,-1.82156,8.93413,-1.56412,-0.668181,1.3418e-15,-4.77083e-15,-36.5865,-45.7418,-44.1019,95.6585,-70.9777,-28.0413,1.44412,7.12502,-1.42578,-28.5309,1.3418e-15,-4.77083e-15,-41.5142,1.58251,79.6165,50.2193,5.31037,-15.1665,39.8633,7.12502,11.0042,69.5549,-5.84151,1.92198,27.3573,31.1858,0,0,0,-4.03467,-12.9149,-12.8104,26.6827,0,0,0
0.715659,17.6904,-28.9543,-3.85164,-5.4416,-0.927679,16.5634,-1.61904,-3.58831,-1.02912,-2.46498,3.99092,-10.1275,-0.853245,7.0515,-11.3538,-2.21869,-1.66547,23.314,-2.38631,-1.78537,9.18906,-1.4745,-0.599844,4.46023e-14,-2.22639e-14,-36.6611,-45.1222,-43.8015,96.0224,-71.5944,-28.385,0.276087,7.12502,-1.75776,-29.6964,4.46023e-14,-2.22639e-14,-42.4384,1.91214,79.7004,50.0263,5.7926,-13.7322,45.4317,7.12502,12.3873,75.0447,-5.87942,1.82721,27.4248,31.1387,0,0,0,-3.98744,-12.4802,-12.6558,26.7758,0,0,0
0.705265,17.6956,-28.953,-3.73708,-5.51906,-0.949716,16.0036,-1.73748,-3.57984,-0.828092,-2.61128,4.00961,-9.56201,-0.953789,7.05197,-11.521,-1.9827,-1.8688,23.5236,-2.03,-1.68505,9.29855,-1.31714,-0.495992,5.99087e-14,-2.78299e-14,-35.7627,-44.5126,-44.66,96.064,-72.4093,-29.0087,0.31675,7.12502,-2.36014,-29.6499,5.99087e-14,-2.78299e-14,-42.5382,2.33018,79.6622,49.6957,7.11811,-10.5119,51.9111,7.12502,15.4906,81.3105,-6.01571,1.44899,27.4139,31.1202,0,0,0,-4.12939,-12.327,-12.5474,26.8414,0,0,0
0.689881,17.6997,-28.9438,-3.56074,-4.98736,-0.99562,15.7574,-1.89884,-3.47185,-0.728353,-2.80829,3.94338,-9.29072,-1.07027,6.93714,-12.1733,-1.95913,-1.6651,23.7538,-2.01248,-1.71801,9.49927,-1.29662,-0.550435,8.94531e-16,-3.18055e-15,-35.444,-44.2466,-45.101,96.1231,-73.2721,-29.7854,1.08593,7.12502,-3.11017,-28.8711,8.94531e-16,-3.18055e-15,-42.4227,2.54951,79.4676,49.3255,6.93434,-8.56218,55.016,7.12502,17.3678,84.2601,-6.14013,1.14296,27.5314,31.087,0,0,0,-4.47778,-12.4208,-12.3478,26.9006,0,0,0
0.684847,17.7,-28.9487,-3.614,-5.20006,-0.85976,16.2092,-1.80502,-3.53103,-0.922328,-2.71387,3.808,-9.78042,-0.999466,6.84196,-12.0933,-1.90517,-1.52779,23.9713,-1.96625,-1.73031,9.55857,-1.26612,-0.573956,7.03449e-14,-4.92986e-14,-35.4314,-43.9321,-45.2625,96.369,-73.8596,-29.923,0.219028,7.12502,-3.24309,-29.7361,7.03449e-14,-4.92986e-14,-43.0892,2.86024,79.1889,49.2054,6.42821,-8.8128,53.89,7.12502,17.1266,83.1551,-6.09952,1.23006,27.4006,31.0678,0,0,0,-4.42025,-12.1655,-12.4839,26.9371,0,0,0
0.678163,17.7013,-28.9514,-3.60071,-5.29909,-0.873379,16.3394,-1.87614,-3.34969,-0.870921,-2.7847,3.71488,-9.80024,-1.04581,6.65599,-12.4366,-1.789,-1.50128,24.0231,-1.79523,-1.74672,9.64211,-1.18698,-0.568759,-3.46879e-14,-1.59028e-14,-35.3202,-42.6902,-45.9425,96.5004,-74.9653,-29.8303,-0.0102971,7.12502,-3.15353,-29.9667,-3.46879e-14,-1.59028e-14,-43.369,3.3331,78.9111,48.999,6.35294,-7.87247,55.1262,7.12502,18.0315,84.3104,-6.09622,1.40853,27.4689,31.0395,0,0,0,-4.4384,-12.1011,-12.4158,26.9668,0,0,0
0.671061,17.7072,-28.9478,-3.5784,-5.5191,-0.881376,16.193,-1.84386,-3.07468,-0.613733,-2.70775,3.50004,-9.46427,-1.04826,6.21726,-13.2093,-1.79744,-1.21301,24.1528,-1.86242,-1.71541,9.83164,-1.18973,-0.625288,1.93318e-14,-2.54444e-14,-34.8729,-42.3227,-46.9193,96.7088,-75.558,-30.2566,0.202133,7.12502,-3.56529,-29.7478,1.93318e-14,-2.54444e-14,-43.1778,3.3632,78.6673,48.7079,6.67207,-7.82824,55.2622,7.12502,18.0741,84.4424,-6.11122,1.5113,27.5123,31.0424,0,0,0,-4.36794,-11.9265,-12.3683,26.9641,0,0,0
0.666291,17.7115,-28.9407,-3.55264,-5.76305,-0.809394,16.5011,-1.65754,-3.10858,-0.657571,-2.4748,3.45466,-9.71823,-0.924725,6.15449,-13.7712,-1.89499,-1.08514,24.4095,-1.97247,-1.88838,10.0272,-1.25055,-0.731246,3.13086e-14,-1.59028e-15,-34.7035,-41.9911,-47.3248,96.9498,-75.9401,-30.6806,0.348387,7.12502,-3.97469,-29.5943,3.13086e-14,-1.59028e-15,-43.3583,3.28336,78.8401,48.4127,6.86803,-8.1674,54.4571,7.12502,17.7478,83.6672,-6.09133,1.51093,27.4244,31.0009,0,0,0,-4.2902,-11.7347,-12.4463,26.9829,0,0,0
0.66108,17.711,-28.9391,-3.56949,-5.99624,-0.745787,15.6899,-2.21312,-3.52275,-0.982143,-3.2523,3.75991,-9.47696,-1.27346,6.87124,-10.0405,-1.30482,-2.20477,22.8351,-1.06771,-1.69376,8.78562,-0.889314,-0.315893,-4.18442e-14,-1.51076e-14,-33.5874,-39.3422,-48.809,97.0598,-76.3966,-30.7173,0.0731652,7.12502,-4.01019,-29.8688,-4.18442e-14,-1.51076e-14,-45.2329,5.30351,78.3669,48.1554,6.92901,-8.59762,53.8993,7.12502,17.3337,83.1464,-6.06699,1.58379,27.3693,30.9755,0,0,0,-4.20322,-11.5401,-12.512,26.9746,0,0,0
0.65796,17.7097,-28.9379,-3.65076,-6.1078,-0.811297,15.8348,-1.98768,-3.25052,-0.59666,-2.91396,3.65575,-9.19934,-1.1465,6.51209,-11.4674,-1.53825,-2.07689,23.0763,-1.36734,-1.68509,9.13505,-1.02215,-0.38138,2.33075e-14,7.15625e-15,-32.9837,-39.9313,-49.5772,97.249,-76.9989,-30.3458,-1.0861,7.12502,-3.6514,-31.0346,2.33075e-14,7.15625e-15,-44.2563,5.21123,78.5448,47.4638,6.67318,-8.49892,54.4857,7.12502,17.4287,83.7244,-5.98332,1.5472,27.4455,30.9904,0,0,0,-4.04266,-11.5754,-12.4366,26.9309,0,0,0
0.65429,17.7132,-28.9331,-3.63197,-6.19451,-0.681716,16.1225,-1.84134,-3.29118,-0.662253,-2.73862,3.57128,-9.46083,-1.0498,6.42584,-12.0598,-1.63043,-1.92663,23.4505,-1.46604,-1.84869,9.37452,-1.07779,-0.483504,5.84178e-14,-3.49861e-14,-32.9405,-39.7575,-49.95,97.5011,-77.854,-30.2554,-2.26193,7.12502,-3.56415,-32.2119,5.84178e-14,-3.49861e-14,-44.3433,5.2191,78.6478,46.9554,6.33151,-8.5828,54.1166,7.12502,17.348,83.3624,-6.00447,1.47573,27.2899,31.0269,0,0,0,-3.98296,-11.6766,-12.5788,26.881,0,0,0
0.649857,17.7152,-28.9293,-3.61128,-6.52681,-0.533912,15.7528,-1.81386,-3.33881,-0.684769,-2.72015,3.40381,-9.28338,-1.05044,6.24076,-11.2231,-1.61905,-1.88955,23.0472,-1.49589,-1.82193,9.0759,-1.08012,-0.471207,2.6339e-14,-9.54166e-15,-32.833,-39.1887,-50.749,97.8167,-78.5111,-30.7424,-1.07562,7.12502,-4.03435,-31.0172,2.6339e-14,-9.54166e-15,-44.749,5.43387,78.4109,46.3842,6.41707,-8.22699,54.2571,7.12502,17.6904,83.4723,-6.0391,1.4894,27.1112,31.0487,0,0,0,-3.90242,-11.4161,-12.7493,26.8583,0,0,0
0.645175,17.7146,-28.9248,-3.59695,-6.94206,-0.51346,16.3594,-1.69628,-3.53992,-1.20074,-2.59518,3.5797,-10.2029,-0.924993,6.59085,-10.6515,-1.53402,-2.23049,23.2909,-1.28386,-1.99447,9.05669,-1.03142,-0.446207,-2.86995e-14,-3.97569e-15,-32.9579,-38.1224,-50.8539,98.1302,-79.0049,-31.1638,-0.183448,7.12502,-4.44131,-30.1169,-2.86995e-14,-3.97569e-15,-45.8657,5.89293,78.5471,46.1742,5.92608,-8.37236,53.3127,7.12502,17.5505,82.5405,-6.06148,1.58154,27.0899,31.072,0,0,0,-3.78156,-11.174,-12.7731,26.8166,0,0,0
0.637906,17.7157,-28.935,-3.59751,-6.93506,-0.527833,16.5125,-1.51245,-3.3277,-1.00367,-2.33292,3.36207,-10.123,-0.825372,6.16291,-11.6493,-1.75798,-1.7349,23.5228,-1.62859,-2.14082,9.31732,-1.16891,-0.631141,-3.90115e-14,2.14687e-14,-32.0595,-39.4104,-51.8782,98.3277,-78.9384,-30.8226,-1.68958,7.12502,-4.11181,-31.6296,-3.90115e-14,2.14687e-14,-45.202,5.36637,78.6497,45.6004,6.06837,-8.17001,53.9611,7.12502,17.7452,83.1714,-6.08105,1.64411,27.1449,31.081,-19.3814,-15.23,19.234,-3.83286,-11.142,-12.6766,26.8117,-13.4606,10.1903,-18.6447
0.637197,17.7201,-28.9234,-3.57675,-7.26378,-0.445212,15.5108,-1.59932,-2.96462,-0.454179,-2.39203,3.06765,-8.96247,-0.935822,5.55717,-12.0432,-1.68387,-1.75354,23.3092,-1.57747,-1.86251,9.31933,-1.11469,-0.528592,4.26642e-14,-3.4191e-14,-31.3619,-38.5929,-53.8069,98.4724,-79.6698,-30.3322,-3.33663,7.12502,-3.63823,-33.2853,4.26642e-14,-3.4191e-14,-44.4567,5.65267,78.3331,44.9724,6.30897,-8.52596,53.2697,7.12502,17.4027,82.5107,-6.05766,1.78294,27.0371,31.0558,-19.5929,-14.8523,20.7256,-3.75376,-11.1059,-12.7924,26.851,-13.3526,10.3298,-17.4327
0.629354,17.7214,-28.9338,-3.52801,-7.33631,-0.46796,16.3362,-1.53982,-3.14466,-0.928638,-2.345,3.21425,-9.9496,-0.854174,5.88202,-11.8576,-1.69416,-1.93089,23.701,-1.50165,-2.08545,9.42277,-1.12403,-0.569089,-9.69075e-15,1.82882e-14,-31.696,-37.3685,-54.1532,98.6307,-80.1511,-30.1125,-2.81107,7.12502,-3.42606,-32.7633,-9.69075e-15,1.82882e-14,-45.1705,5.94879,78.5278,44.4467,6.22094,-8.98566,52.3464,7.12502,16.9602,81.6259,-6.10845,1.87976,27.109,31.0196,-19.3287,-14.9936,19.2912,-3.88733,-11.0394,-12.6999,26.9357,-13.0901,10.3427,-18.0087
0.629129,17.7221,-28.9349,-3.58933,-7.74953,-0.514697,16.406,-1.36352,-3.11589,-0.917947,-2.1036,3.23584,-10.0073,-0.73757,5.83555,-11.186,-2.0347,-1.7072,23.0523,-1.92264,-2.64319,9.06031,-1.35225,-0.828696,-2.64881e-14,-7.95139e-16,-30.953,-37.4588,-55.0452,98.5832,-80.1608,-29.8482,-3.7735,7.12502,-3.17086,-33.7297,-2.64881e-14,-7.95139e-16,-45.2831,6.17248,78.6609,44.0242,6.01878,-9.04749,51.783,7.12502,16.9007,81.0676,-6.0242,2.09145,27.1523,30.9854,-19.295,-14.7427,19.7225,-3.75283,-10.9509,-12.6989,27.0297,-13.0771,10.6101,-18.4769
0.627026,17.7168,-28.9355,-3.63339,-8.08649,-0.493144,16.3817,-1.63233,-3.6615,-1.58193,-2.52453,3.67038,-10.6438,-0.853855,6.76862,-8.27743,-1.55997,-2.77507,22.5128,-1.17289,-2.69072,8.35276,-1.07897,-0.547416,-5.88092e-14,3.33958e-14,-30.0521,-36.0804,-55.8454,98.3831,-80.0025,-29.5967,-5.64123,7.12502,-2.928,-35.6009,-5.88092e-14,3.33958e-14,-47.4508,7.78858,78.4431,43.9445,5.73416,-8.61779,52.3914,7.12502,17.3143,81.6402,-5.98095,2.22729,27.1283,30.9679,-19.2909,-14.5352,19.9378,-3.66117,-10.7252,-12.7405,27.1435,-13.0031,10.7551,-20.5107
0.62512,17.7116,-28.936,-3.68108,-8.28259,-0.426668,16.1303,-1.11426,-3.14114,-0.699751,-1.78152,3.14747,-9.64859,-0.60219,5.6518,-11.4982,-2.25507,-1.83227,23.586,-2.15096,-2.79509,9.30418,-1.49338,-0.897627,1.05853e-14,7.95139e-15,-29.6188,-37.5847,-57.0673,98.5179,-80.7795,-29.4707,-5.0134,7.12502,-2.80632,-34.9747,1.05853e-14,7.95139e-15,-44.8856,6.58599,78.7431,43.0213,5.46053,-8.28824,53.089,7.12502,17.6315,82.3096,-5.95587,2.34285,27.0649,30.9493,-19.0241,-14.5263,19.0713,-3.62167,-10.5633,-12.8253,27.2773,-12.9264,10.8779,-22.239
0.624289,17.7101,-28.9377,-3.6937,-8.32877,-0.439909,15.7488,-1.32401,-3.17174,-0.958597,-2.05069,3.23227,-9.68102,-0.721549,5.81703,-9.58633,-2.12968,-2.31645,22.9585,-1.97557,-2.72684,8.73835,-1.43306,-0.737172,2.50966e-14,-1.19271e-14,-29.3507,-36.608,-57.8862,98.6053,-81.4214,-29.4615,-5.27606,7.12502,-2.79741,-35.2375,2.50966e-14,-1.19271e-14,-45.7056,7.3054,78.5705,42.5652,5.26527,-8.34847,53.3021,7.12502,17.5735,82.5279,-5.92592,2.45598,27.1013,30.9157,-19.2253,-14.501,19.6721,-3.66783,-10.6514,-12.8087,27.4415,-13.2112,10.8982,-21.5101
0.623103,17.7079,-28.9389,-3.69533,-8.3538,-0.511513,16.1962,-1.0865,-3.0218,-0.827497,-1.71149,3.25334,-9.83642,-0.562597,5.69237,-11.2084,-2.45915,-2.3421,23.65,-2.32259,-2.86069,9.28008,-1.62592,-0.850487,-4.92986e-14,1.66979e-14,-28.3056,-37.2954,-58.784,98.4967,-81.8736,-29.6711,-4.74504,7.12502,-2.99979,-34.7037,-4.92986e-14,1.66979e-14,-44.8838,7.13696,79.0474,41.9165,5.17137,-8.69813,52.6501,7.12502,17.237,81.9056,-5.87802,2.49119,27.1959,30.8747,-19.2492,-14.5817,18.948,-3.74512,-10.664,-12.7044,27.6226,-13.363,10.81,-20.9205
0.622553,17.7092,-28.9355,-3.71687,-8.41951,-0.510774,15.6322,-1.20253,-2.97861,-0.938708,-1.85113,3.22259,-9.62242,-0.638705,5.64239,-9.37138,-2.51191,-2.59907,22.9496,-2.4548,-2.77289,8.69905,-1.68626,-0.751113,4.13721e-14,-2.78299e-14,-28.0341,-36.5189,-59.7644,98.3391,-82.3027,-29.8354,-3.64717,7.12502,-3.15847,-33.6035,4.13721e-14,-2.78299e-14,-45.4075,7.51053,78.8451,41.5021,5.04284,-8.90519,51.5639,7.12502,17.0377,80.8367,-5.82408,2.45854,27.1848,30.8359,-18.7216,-14.5855,16.996,-3.79645,-10.6379,-12.6786,27.7911,-13.4476,10.6586,-19.0676
0.619485,17.7116,-28.939,-3.73441,-8.41064,-0.45002,15.6886,-1.03435,-2.85203,-0.492771,-1.62033,3.08367,-9.19673,-0.560381,5.34828,-11.3922,-2.8488,-2.32405,23.5846,-2.84208,-2.96086,9.28788,-1.87687,-0.948329,4.85532e-14,-3.10104e-14,-26.5124,-37.2689,-61.3135,98.063,-82.5549,-29.4387,-4.03445,7.12502,-2.77538,-33.9961,4.85532e-14,-3.10104e-14,-44.108,7.42545,79.0498,40.9699,4.75653,-8.89019,51.1338,7.12502,17.0521,80.4054,-5.80314,2.38578,27.1174,30.8063,-19.1752,-14.3851,18.3947,-3.9071,-10.6062,-12.6935,27.9741,-13.4623,10.4333,-16.9999
0.616465,17.7094,-28.9423,-3.72846,-8.59173,-0.521243,15.7346,-0.936096,-2.81321,-0.494495,-1.47995,3.11664,-9.24063,-0.492383,5.33235,-11.664,-3.01192,-2.21457,24.0254,-2.97795,-3.37118,9.48486,-1.982,-1.13697,-2.47238e-14,2.38542e-14,-25.8753,-37.1111,-62.2505,97.8776,-83.004,-28.5227,-5.74579,7.12502,-1.89074,-35.7172,-2.47238e-14,2.38542e-14,-44.0263,7.60735,79.1399,40.7604,4.52515,-8.5363,51.6974,7.12502,17.3928,80.9393,-5.79802,2.57976,27.2116,30.7985,-18.9634,-14.3107,17.6159,-3.97383,-10.321,-12.5965,28.1792,-13.2159,10.517,-20.0597
0.615075,17.7018,-28.9459,-3.74569,-8.80291,-0.637821,15.7497,-0.968105,-2.82607,-0.717977,-1.5069,3.29329,-9.48807,-0.48775,5.54989,-10.9341,-2.95875,-2.61613,24.1448,-2.82057,-3.48262,9.39786,-1.95726,-1.07834,2.27608e-14,-8.74653e-15,-25.5103,-36.3993,-62.93,97.5773,-83.7792,-28.403,-5.09057,7.12502,-1.77515,-35.0629,2.27608e-14,-8.74653e-15,-44.616,8.22265,79.158,40.5476,4.21644,-8.20538,52.3969,7.12502,17.7112,81.6103,-5.78238,2.86502,27.384,30.8237,-19.0248,-14.4101,16.9627,-4.03257,-10.038,-12.4391,28.4109,-13.0263,10.5395,-22.8359
0.615641,17.6956,-28.9459,-3.75881,-8.94735,-0.755013,15.7555,-0.724383,-2.52501,-0.511621,-1.13729,3.19255,-9.31327,-0.337049,5.17282,-11.3171,-3.64137,-2.989,24.2768,-3.78503,-3.05785,9.52987,-2.39488,-0.990357,1.2424e-16,9.54166e-15,-24.6188,-37.312,-63.8942,97.1542,-84.6845,-28.3089,-3.24585,7.12502,-1.68427,-33.219,1.2424e-16,9.54166e-15,-43.8708,7.94263,79.3363,40.2084,3.69598,-7.64863,53.0329,7.12502,18.2469,82.1971,-5.74174,3.21407,27.55,30.866,-19.2278,-14.4419,17.5091,-4.11331,-9.89585,-12.2978,28.6718,-12.9159,10.5557,-23.8731
0.614808,17.6877,-28.954,-3.80785,-8.87971,-0.887372,15.8677,-0.857987,-2.47748,-0.726096,-1.2904,3.34649,-9.59523,-0.396343,5.36318,-10.1856,-3.7613,-3.64283,23.9433,-3.92222,-2.89338,9.22157,-2.49404,-0.807604,-4.25648e-14,-6.36111e-15,-24.1334,-36.6031,-64.7019,96.7273,-85.4227,-27.8734,-4.00631,7.12502,-1.26368,-33.9823,-4.25648e-14,-6.36111e-15,-44.4694,8.47386,79.3219,40.2582,3.43952,-7.40715,53.3774,7.12502,18.4792,82.5196,-5.7204,3.33071,27.7194,30.9382,-19.2897,-14.5595,17.4784,-4.21702,-9.80203,-12.1091,28.8531,-12.8166,10.3686,-24.6107
0.609571,17.6857,-28.964,-3.80423,-8.9463,-0.916269,15.9989,-0.766275,-2.48256,-0.774351,-1.16749,3.36976,-9.73662,-0.331183,5.37038,-10.5417,-3.91318,-3.77192,24.3463,-4.08778,-2.88197,9.43529,-2.58806,-0.817644,-9.26834e-15,-3.97569e-15,-23.5182,-36.5787,-65.5375,96.4758,-85.6856,-28.2054,-3.08467,7.12502,-1.58431,-33.0585,-9.26834e-15,-3.97569e-15,-44.3397,8.49286,79.4738,40.0189,3.75906,-7.84257,52.0643,7.12502,18.0603,81.2458,-5.79197,3.56833,27.7876,31.0093,-19.3164,-14.5762,18.0975,-4.38879,-9.68073,-12.0212,29.0896,-12.8685,10.235,-24.7169
0.609264,17.6857,-28.947,-3.97201,-8.8848,-0.529101,15.8526,-0.697252,-2.73238,-0.7361,-1.13405,3.24257,-9.61229,-0.310577,5.35861,-10.3312,-4.38414,-4.1091,24.9345,-4.65329,-3.02741,9.61464,-2.9066,-0.883826,2.6662e-14,-3.18055e-14,-23.0081,-36.4352,-66.311,96.2179,-86.0191,-28.2853,-4.04328,7.12502,-1.66145,-34.0166,2.6662e-14,-3.18055e-14,-44.2868,8.4413,79.6162,39.8822,3.86345,-7.95878,50.8539,7.12502,17.9485,80.0457,-5.6352,3.33636,27.2974,31.1244,-19.3745,-14.298,17.6256,-4.21636,-9.78471,-12.5247,29.2252,-12.9661,10.2554,-24.1946
0.602931,17.6809,-28.9724,-3.85298,-8.91007,-0.84987,16.1104,-0.501408,-2.3701,-0.584711,-0.810767,3.22054,-9.63268,-0.176608,5.05382,-11.5694,-4.65779,-3.88744,25.4201,-5.00257,-3.04286,10.0185,-3.05492,-1.01377,-4.64659e-15,3.18055e-14,-22.1097,-37.0372,-67.2906,95.8739,-85.991,-28.2573,-3.28181,7.12502,-1.6344,-33.2553,-4.64659e-15,3.18055e-14,-43.5238,8.09365,79.7979,39.7902,3.51014,-7.5721,51.3504,7.12502,18.3205,80.5076,-5.89848,3.58396,27.7385,31.2461,-18.8898,-14.6564,15.2924,-4.53543,-9.55487,-12.0159,29.3853,-12.754,10.0313,-24.6054
0.601116,17.6752,-28.9729,-3.84559,-8.71063,-0.710116,16.0295,-0.497767,-2.41088,-0.577321,-0.81872,3.15964,-9.5777,-0.181762,5.00898,-11.7739,-4.88904,-4.03499,25.5797,-5.29893,-2.9835,10.1242,-3.20035,-1.01526,3.04141e-14,0,-21.4252,-37.2527,-68.1054,95.5235,-85.8013,-28.0197,-3.55117,7.12502,-1.40495,-33.5263,3.04141e-14,0,-43.321,8.07107,79.9104,39.6968,3.40637,-7.71062,51.132,7.12502,18.1873,80.3018,-5.97302,3.39239,27.5587,31.3696,-19.6573,-14.4316,17.6304,-4.70114,-9.45253,-12.1259,29.5187,-12.6847,9.82346,-25.6688
0.596346,17.6706,-28.9788,-3.90299,-8.52206,-0.594336,16.0574,-0.740593,-2.71826,-0.909974,-1.18123,3.32908,-9.91547,-0.318394,5.47225,-10.4555,-4.79164,-4.73452,25.3575,-5.12037,-2.89817,9.81993,-3.17372,-0.804277,3.32095e-14,1.59028e-14,-21.1915,-36.3086,-68.6788,95.1618,-85.7481,-27.9296,-4.26212,7.12502,-1.3179,-34.2378,3.32095e-14,1.59028e-14,-44.2708,8.96189,79.7405,39.8352,3.09248,-7.7122,51.3671,7.12502,18.1857,80.537,-5.95949,3.42227,27.4511,31.4306,-19.7836,-14.3895,18.5165,-4.91731,-9.46166,-12.1985,29.8235,-12.7127,9.56263,-25.2247
0.592813,17.6673,-28.9819,-3.90418,-8.45017,-0.662213,16.1391,-0.664072,-2.55601,-0.795189,-1.05318,3.29713,-9.85247,-0.27065,5.31181,-11.1104,-4.94977,-4.7729,25.8144,-5.28552,-2.8996,10.1139,-3.25964,-0.849306,1.66482e-14,-1.03368e-14,-20.3072,-36.6512,-69.645,94.7514,-85.5233,-27.8068,-2.84859,7.12502,-1.19936,-32.825,1.66482e-14,-1.03368e-14,-43.9192,8.9139,79.8412,40.0069,2.82451,-7.56863,51.5045,7.12502,18.3239,80.6614,-5.97181,3.46155,27.5482,31.4731,-19.8449,-14.5167,18.4494,-5.13058,-9.44591,-12.0743,30.1507,-12.6925,9.34943,-25.0569
0.587911,17.6645,-28.9892,-3.87636,-8.26741,-0.800553,16.2685,-0.587166,-2.32428,-0.701177,-0.911884,3.2581,-9.84132,-0.218209,5.10284,-11.8108,-5.20583,-4.66032,26.202,-5.59219,-3.01259,10.386,-3.40669,-0.977691,1.66482e-15,1.51076e-14,-19.558,-37.1645,-70.4993,94.4803,-85.4506,-27.6246,-4.29094,7.12502,-1.02338,-34.2682,1.66482e-15,1.51076e-14,-43.4057,8.51911,80.0273,40.0747,2.94345,-7.58179,51.6213,7.12502,18.3112,80.7794,-5.9696,3.4552,27.7243,31.4086,-19.8633,-14.564,19.4699,-5.3552,-9.38558,-11.8473,30.417,-12.6159,9.05291,-24.9579
0.583238,17.6592,-28.9995,-3.86945,-8.04541,-0.944352,16.7485,-0.711744,-2.45598,-1.32118,-1.07168,3.52937,-10.7856,-0.23839,5.56279,-10.1468,-5.2237,-5.1716,25.9554,-5.58124,-3.19574,9.99144,-3.47133,-0.896378,-7.66563e-15,-9.54166e-15,-20.178,-36.4542,-70.3236,94.2665,-85.5405,-27.8493,-3.69857,7.12502,-1.24036,-33.6747,-7.66563e-15,-9.54166e-15,-44.7334,8.7976,80.0257,40.5406,2.52839,-6.69815,52.8863,7.12502,19.1611,81.9624,-5.95145,3.37767,27.9098,31.3147,-19.8254,-14.7096,19.327,-5.59968,-9.24467,-11.5988,30.7024,-12.4515,8.70685,-25.6204
0.613345,17.6693,-28.906,-4.36616,-9.89218,-0.791808,15.5646,-0.0160084,-1.78453,-0.291735,-0.0645289,3.13595,-9.07613,0.132239,4.42497,-11.5798,-5.55896,-4.87456,26.2223,-6.03194,-3.11511,10.3587,-3.64107,-1.0269,4.17448e-15,1.51076e-14,-18.3844,-37.755,-71.9359,93.8821,-85.3392,-27.5645,-4.74911,7.12502,-0.965268,-34.7267,4.17448e-15,1.51076e-14,-43.3573,8.25014,80.2162,40.4837,3.31302,-7.9317,50.7273,7.12502,17.9746,79.9167,-5.1111,4.1945,27.5923,31.2561,-19.9202,-13.6407,19.0012,-4.3094,-9.04453,-12.2629,30.957,-13.3006,10.0568,-23.9866
0.608287,17.6739,-28.9066,-4.38019,-9.87625,-0.722641,15.9024,-0.0184167,-2.03982,-0.678619,-0.0955531,3.28391,-9.69229,0.154075,4.75946,-10.8424,-5.59909,-5.30578,26.3926,-6.01292,-3.24722,10.2942,-3.69412,-0.980435,7.92654e-15,-1.74931e-14,-18.5966,-37.4065,-71.9925,93.6444,-85.5113,-27.3806,-5.41802,7.12502,-0.787721,-35.3963,7.92654e-15,-1.74931e-14,-44.2312,8.59065,80.1992,41.7308,1.52774,-4.59068,58.1825,7.12502,21.1866,87.0448,-5.10999,4.25969,27.5402,31.2474,-19.8192,-13.7333,18.5345,-4.50525,-9.11124,-12.2775,31.2139,-13.348,9.79993,-20.2441
0.597201,17.6569,-28.9308,-4.36743,-9.45818,-0.835048,16.5435,-0.0396388,-2.15604,-0.927782,-0.13322,3.40321,-10.3328,0.166258,4.99161,-10.8812,-5.80131,-5.47196,26.5781,-6.23336,-3.34759,10.3771,-3.8261,-1.02311,-7.0817e-15,3.33958e-14,-18.4449,-37.5278,-72.2663,93.5969,-86.481,-27.7445,-4.88024,7.12502,-1.13914,-34.8569,-7.0817e-15,3.33958e-14,-44.4311,8.57623,80.3054,41.2257,3.05367,-7.42781,51.6209,7.12502,18.4593,80.7651,-5.20985,4.11193,27.7324,31.284,-19.2956,-14.0565,16.9902,-4.86623,-8.93531,-11.985,31.4221,-12.8551,9.34159,-25.0941
0.594638,17.6485,-28.9285,-4.39202,-9.40692,-0.888798,16.5856,0.0438591,-1.98963,-0.940273,0.00375311,3.32891,-10.3841,0.221195,4.78039,-10.879,-6.03284,-5.50664,26.6698,-6.56776,-3.29534,10.4174,-3.97766,-1.04339,2.02388e-14,-1.51076e-14,-18.1693,-38.0092,-72.7448,93.6508,-87.4321,-28.4892,-3.9539,7.12502,-1.85838,-33.9256,2.02388e-14,-1.51076e-14,-44.3095,8.32383,80.2846,41.4822,2.9999,-7.38066,51.8578,7.12502,18.5047,80.9976,-5.19048,4.00479,27.7846,31.3471,-19.6297,-13.9187,18.0282,-4.9619,-8.71863,-11.9091,31.6973,-12.5577,9.33023,-27.5004
0.590358,17.6454,-28.9273,-4.45811,-9.29937,-0.750729,16.6203,-0.00969048,-2.23307,-1.08627,-0.105492,3.40918,-10.5569,0.192645,5.0427,-10.2229,-6.05354,-5.93263,26.5945,-6.56043,-3.29265,10.2842,-4.01615,-0.946181,1.5002e-14,-1.27222e-14,-18.0001,-37.9621,-72.9921,93.4729,-87.5688,-28.7203,-3.34796,7.12502,-2.08162,-33.3175,1.5002e-14,-1.27222e-14,-44.8597,8.69877,80.2445,41.9929,3.05098,-7.69548,51.4565,7.12502,18.2018,80.6249,-5.14633,4.01544,27.6415,31.4144,-19.6004,-13.955,17.9736,-5.08082,-8.66243,-12.0428,31.9838,-12.4158,9.24572,-28.1108
0.590018,17.6452,-28.9043,-4.62272,-9.54949,-0.680218,16.3699,0.138762,-2.31906,-0.930227,0.078334,3.44922,-10.2589,0.275926,5.07944,-10.236,-6.20603,-6.14345,26.6408,-6.7281,-3.30067,10.3169,-4.11487,-0.937781,2.01642e-14,2.22639e-14,-17.4506,-38.3833,-73.3512,93.0696,-87.1334,-28.538,-3.17913,7.12502,-1.90549,-33.1504,2.01642e-14,2.22639e-14,-44.8172,8.77929,80.3548,42.3073,3.25906,-7.98068,51.1959,7.12502,17.9274,80.3897,-4.89332,4.15908,27.5552,31.4204,-20.0875,-13.6539,19.7874,-4.89807,-8.48481,-12.1587,32.2635,-12.5473,9.19655,-28.1654
0.583216,17.6459,-28.8989,-4.58713,-9.44067,-0.751204,15.3647,0.31743,-1.80782,0.0687345,0.364919,3.09034,-8.60722,0.324376,4.27902,-12.1735,-6.71932,-5.48615,26.6117,-7.47323,-3.1783,10.6609,-4.36781,-1.17081,-1.92324e-14,-2.46493e-14,-15.2169,-40.1067,-75.1464,92.649,-86.6404,-28.2803,-3.75385,7.12502,-1.65666,-33.7272,-1.92324e-14,-2.46493e-14,-42.498,8.14583,80.3805,42.2539,3.28058,-7.68229,51.7911,7.12502,18.2145,80.9583,-4.86407,4.2092,27.6726,31.4038,-19.8229,-13.9001,18.1309,-5.10345,-8.38981,-11.9963,32.4909,-12.4477,8.90961,-27.4289
0.563173,17.6387,-28.9374,-4.57853,-8.55153,-0.900226,16.2032,-0.039419,-2.32001,-0.659678,-0.153066,3.54764,-9.83828,0.152867,5.23337,-10.2776,-6.61991,-6.45079,26.3129,-7.26664,-3.21961,10.2325,-4.37491,-0.918248,-1.02001e-14,3.18055e-15,-15.8352,-39.6643,-74.4499,92.4111,-86.302,-28.1387,-4.71962,7.12502,-1.51987,-34.6939,-1.02001e-14,3.18055e-15,-43.9806,8.97277,80.285,42.8786,2.83621,-6.69033,53.3659,7.12502,19.1686,82.4413,-4.92937,3.90043,27.9564,31.3899,-20.035,-14.329,19.2539,-5.73956,-8.46221,-11.5543,32.8361,-12.0931,7.92919,-27.6983
0.569851,17.6457,-28.8976,-4.51699,-9.03065,-0.757895,16.4119,0.564569,-2.1573,-0.473617,0.653647,3.29864,-9.83184,0.519183,4.66644,-12.3428,-7.22662,-5.76612,27.1936,-8.00975,-3.56602,10.9178,-4.69194,-1.36345,2.48481e-16,2.38542e-15,-15.4395,-40.9598,-74.3976,92.1114,-86.2379,-28.1534,-3.66313,7.12502,-1.53402,-33.6374,2.48481e-16,2.38542e-15,-43.0746,7.80347,80.669,43.1738,2.92,-6.48018,53.7323,7.12502,19.3707,82.7875,-4.88781,4.07728,27.7245,31.3201,-19.9151,-14.0675,18.7527,-5.74143,-8.39519,-11.8148,33.1897,-12.3776,8.14379,-26.6163
0.542833,17.6347,-28.954,-4.53749,-7.67164,-0.954874,17.3336,0.0659409,-2.34856,-0.945025,-0.0261456,3.49257,-10.8181,0.244966,5.19722,-11.1586,-7.19151,-6.34303,26.8942,-7.97385,-3.39768,10.6157,-4.7141,-1.14432,1.20513e-15,-1.90833e-14,-15.8609,-40.5844,-74.0939,91.8591,-86.1083,-27.9792,-3.30462,7.12502,-1.36578,-33.28,1.20513e-15,-1.90833e-14,-44.028,8.09934,80.4937,43.6783,3.75277,-7.78203,51.4978,7.12502,18.1186,80.674,-4.93284,3.55315,28.1082,31.1679,-20.3148,-14.7956,20.4931,-6.59465,-8.53387,-11.2423,33.6534,-11.8473,6.89815,-26.7663
0.534426,17.6408,-28.9481,-4.56501,-7.49839,-1.07957,16.9059,0.0959112,-2.22717,-0.874051,0.0370469,3.45984,-10.4991,0.257141,5.0605,-10.1225,-7.40421,-6.46059,26.237,-8.3846,-3.22987,10.1932,-4.88763,-1.04871,-2.83765e-14,3.97569e-15,-15.8704,-41.3474,-73.8824,91.5607,-85.5573,-27.2825,-4.52774,7.12502,-0.692908,-34.5064,-2.83765e-14,3.97569e-15,-44.0517,7.77285,80.4192,44.0834,3.87674,-7.84487,51.4105,7.12502,18.0581,80.5922,-4.72536,3.49048,28.2823,30.8887,-19.7696,-15.0473,18.6961,-6.8595,-8.41726,-11.0036,34.0165,-11.7189,6.5042,-26.3918
0.524577,17.66,-28.938,-4.55343,-7.35271,-1.07495,16.7873,0.0872286,-2.21314,-0.854418,0.0268107,3.44103,-10.4079,0.248177,5.03044,-9.95899,-7.57101,-6.56686,26.0178,-8.5948,-3.29825,10.089,-4.99918,-1.06647,-1.43746e-14,1.82882e-14,-15.8411,-41.7909,-73.6742,91.166,-84.617,-26.3342,-5.65271,7.12502,0.222956,-35.6323,-1.43746e-14,1.82882e-14,-44,7.7496,80.3315,44.3695,3.85253,-7.8185,51.7587,7.12502,18.0835,80.938,-4.53534,3.45445,28.3029,30.577,-19.798,-15.0754,19.525,-7.22815,-8.56268,-10.9252,34.4373,-11.7094,6.14936,-24.1249
0.516159,17.679,-28.9235,-4.58402,-7.12878,-0.862938,16.7383,0.113728,-2.47922,-0.865488,0.0093519,3.44101,-10.3912,0.254604,5.18758,-9.75842,-7.76867,-6.84741,25.7743,-8.83792,-3.2864,9.98503,-5.1327,-1.0307,1.76546e-14,-4.53229e-14,-15.8981,-42.1075,-73.2623,90.8941,-84.0377,-25.9082,-6.23014,7.12502,0.63441,-36.2089,1.76546e-14,-4.53229e-14,-43.9707,7.8897,80.3045,44.6279,3.58327,-7.36696,52.5656,7.12502,18.5179,81.7042,-4.28779,3.32329,28.0628,30.2522,-19.8191,-15.0275,20.1713,-7.45051,-8.71443,-11.1327,34.7335,-11.6113,5.93408,-23.064
0.509725,17.6805,-28.9128,-4.58991,-6.90772,-0.910502,16.4074,0.0963794,-2.44457,-0.678396,-0.00400055,3.47103,-9.99193,0.233244,5.19007,-9.54241,-7.9696,-7.05707,25.2932,-9.12362,-3.18639,9.79406,-5.26509,-0.971282,-6.1002e-15,-1.90833e-14,-15.5406,-42.6072,-73.1981,90.7013,-83.5089,-25.9978,-6.83611,7.12502,0.547842,-36.8151,-6.1002e-15,-1.90833e-14,-43.7605,8.00359,80.2414,45.0339,3.80786,-7.50084,52.1321,7.12502,18.3891,81.2829,-4.11057,3.19731,28.1254,30.0127,-19.8302,-15.179,20.246,-7.6322,-8.77647,-11.0372,34.9946,-11.5004,5.64304,-23.0154
0.5021,17.6794,-28.9075,-4.60455,-6.77745,-0.966299,16.3988,0.0380664,-2.46279,-0.844311,-0.0812857,3.481,-10.1631,0.205284,5.2354,-8.51914,-8.00609,-7.36194,24.8205,-9.25606,-3.02022,9.46316,-5.3329,-0.817714,2.0363e-14,-1.74931e-14,-16.0055,-42.7411,-72.6757,90.4032,-82.6217,-26.5202,-7.18501,7.12502,0.0433513,-37.1647,2.0363e-14,-1.74931e-14,-44.3339,8.20173,79.8881,45.5656,4.30257,-7.65807,51.4113,7.12502,18.2378,80.5763,-4.01277,3.18763,28.2228,29.9153,-19.7076,-15.3679,19.7047,-7.76423,-8.75827,-10.9145,35.176,-11.3444,5.39325,-23.0288
0.50204,17.6815,-28.8894,-4.5836,-6.73917,-0.936696,15.7684,0.0320242,-2.3437,-0.526597,-0.0750445,3.39515,-9.45087,0.174878,5.04445,-8.48831,-8.17689,-7.53375,24.4168,-9.52119,-2.79088,9.34306,-5.43926,-0.729561,-6.64686e-15,3.97569e-15,-15.4387,-43.2751,-72.7643,89.9881,-81.8573,-25.628,-8.15971,7.12502,0.905025,-38.1375,-6.64686e-15,3.97569e-15,-43.9443,8.32836,79.6947,45.876,4.53871,-7.85306,50.8198,7.12502,18.0502,80.0023,-3.98111,3.08186,28.1549,29.8827,-20.0071,-15.2191,20.8048,-7.85739,-8.82222,-10.9825,35.4024,-11.3085,5.3747,-23.2345
0.497378,17.683,-28.8725,-4.59363,-6.60006,-0.730949,15.4437,0.0250675,-2.50913,-0.385152,-0.12234,3.30721,-9.10516,0.146333,5.0421,-8.25672,-8.33476,-7.74267,24.0009,-9.7637,-2.63453,9.18156,-5.54751,-0.647934,-9.38015e-15,-3.97569e-15,-15.3949,-43.6098,-72.4355,89.7727,-81.458,-25.3573,-7.45138,7.12502,1.16649,-37.4279,-9.38015e-15,-3.97569e-15,-43.7647,8.48186,79.4941,45.9851,4.76226,-8.21467,49.4805,7.12502,17.7023,78.6947,-3.92565,3.06493,27.9502,29.8466,-19.9599,-15.3784,20.6739,-7.9784,-8.71362,-11.1885,35.6414,-11.26,5.16302,-23.854
0.486574,17.6811,-28.863,-4.58058,-6.26627,-0.813718,15.7184,-0.0585112,-2.55558,-0.639148,-0.235044,3.37214,-9.52913,0.112187,5.18079,-7.60284,-8.40326,-8.00722,23.672,-9.88051,-2.63265,8.96713,-5.62231,-0.577218,-9.81499e-16,2.38542e-14,-16.0832,-43.6934,-71.5052,89.57,-81.0878,-25.5184,-4.04549,7.12502,1.01089,-34.0228,-9.81499e-16,2.38542e-14,-44.267,8.61041,79.2689,46.2912,4.93959,-8.35713,49.2449,7.12502,17.5652,78.4714,-3.87032,2.95104,28.0928,29.7846,-20.1091,-15.6314,21.0295,-8.238,-8.66729,-10.9992,35.8985,-11.1273,4.80563,-23.9921
0.475231,17.6769,-28.856,-4.60818,-5.94199,-1.09713,16.3946,0.00924853,-2.36762,-0.894224,-0.106301,3.41497,-10.213,0.188343,5.11478,-7.65666,-8.64465,-7.86274,23.8023,-10.1847,-2.85909,9.00947,-5.77702,-0.715062,1.25172e-14,1.59028e-15,-16.6594,-44.4035,-70.5449,89.2577,-80.5797,-25.9789,-2.5164,7.12502,0.566101,-32.4954,1.25172e-14,1.59028e-15,-44.4875,8.25142,79.2265,46.6429,5.16237,-8.57589,49.8856,7.12502,17.3547,79.1308,-3.75118,2.79525,28.4591,29.7305,-20.1857,-15.8363,21.1407,-8.46589,-8.66258,-10.579,36.1603,-10.9458,4.39987,-23.4841
0.466729,17.6752,-28.8468,-4.64547,-5.65727,-1.15405,16.0141,-0.0410911,-2.14786,-0.57201,-0.149085,3.25642,-9.63283,0.130949,4.80394,-7.60804,-8.8585,-7.88782,23.2848,-10.5475,-2.56988,8.84729,-5.90985,-0.635155,1.34055e-14,-4.77083e-14,-16.2189,-45.136,-70.5772,88.9775,-80.2436,-25.5934,-4.06433,7.12502,0.938445,-34.042,1.34055e-14,-4.77083e-14,-43.9174,8.05217,79.0431,46.979,5.48357,-8.89832,50.5293,7.12502,17.0443,79.8016,-3.642,2.64536,28.5593,29.6802,-20.2289,-16.0225,21.0272,-8.66353,-8.68,-10.4437,36.4333,-10.8173,4.07017,-23.2955
0.459187,17.6772,-28.842,-4.50722,-5.26004,-1.08726,16.3088,-0.158574,-2.34334,-0.850857,-0.336863,3.2973,-10.0908,0.0691475,5.02353,-7.17381,-8.94322,-8.20288,22.9932,-10.67,-2.52059,8.69586,-5.98624,-0.552966,3.41661e-15,-3.4191e-14,-16.8621,-45.023,-69.5863,88.8436,-80.1343,-25.9666,-3.40263,7.12502,0.577965,-33.3816,3.41661e-15,-3.4191e-14,-44.3626,8.21705,78.867,47.4105,5.65747,-8.65637,50.7089,7.12502,17.2772,79.9609,-3.75337,2.42274,28.5059,29.6526,-20.1388,-16.2107,20.7795,-9.09949,-8.69496,-10.4179,36.6969,-10.6745,3.66438,-23.3194
0.450673,17.6775,-28.8354,-4.43272,-4.98461,-1.09048,17.0279,0.237435,-2.13244,-0.523426,0.193894,3.02108,-10.1896,0.299194,4.47276,-10.0442,-9.69146,-7.16984,23.8026,-11.5288,-2.92599,9.42804,-6.33358,-1.12684,-5.04416e-15,-1.11319e-14,-16.3203,-46.9894,-69.303,88.6258,-79.607,-26.0157,-2.52606,7.12502,0.530599,-32.5051,-5.04416e-15,-1.11319e-14,-42.7635,7.14578,79.0808,47.4692,5.81333,-8.62193,50.5147,7.12502,17.3103,79.7638,-3.79801,2.36343,28.5592,29.657,-20.3842,-16.3893,20.9536,-9.38787,-8.7456,-10.337,36.9233,-10.5454,3.31033,-23.1251
0.442984,17.6747,-28.8212,-4.41017,-4.85333,-1.21324,16.9916,0.177672,-2.17132,-0.723077,0.118822,3.10651,-10.385,0.276136,4.61301,-8.82048,-9.66917,-7.45385,23.273,-11.5681,-2.86683,9.04276,-6.37188,-0.978492,1.15171e-14,1.66979e-14,-17.2499,-46.8052,-68.0837,88.3412,-78.5984,-26.1869,-1.88432,7.12502,0.365221,-31.8638,1.15171e-14,1.66979e-14,-43.4563,7.4381,78.7882,47.8959,5.81032,-9.78674,50.0711,7.12502,16.189,79.4151,-3.7672,2.40502,28.7454,29.6672,-20.5274,-16.4948,21.5473,-9.5545,-8.66098,-10.1228,37.1412,-10.5025,2.96152,-22.8579
0.434797,17.6725,-28.8045,-4.41008,-4.65959,-1.13177,16.4721,0.11435,-2.30075,-0.498185,0.00637575,3.0731,-9.82744,0.211415,4.66148,-8.2015,-9.70592,-7.62778,22.59,-11.6859,-2.67158,8.72099,-6.41558,-0.840418,2.88238e-15,3.97569e-15,-17.0833,-46.9395,-67.7576,88.0857,-77.2501,-25.9122,-3.47743,7.12502,0.63055,-33.4562,2.88238e-15,3.97569e-15,-43.4784,7.6558,78.5457,48.2767,5.95085,-11.0553,49.4157,7.12502,14.9673,78.8549,-3.71337,2.25742,28.6785,29.6482,-20.4864,-16.6184,21.353,-9.6926,-8.65811,-10.1645,37.3491,-10.427,2.73867,-23.0052
0.427258,17.6709,-28.7893,-4.41829,-4.38691,-1.05377,16.4002,0.0532597,-2.35737,-0.486137,-0.0906949,3.01859,-9.76334,0.164527,4.65582,-7.85866,-9.77764,-7.89895,22.3058,-11.8143,-2.47605,8.59701,-6.47603,-0.721424,4.47266e-15,-1.74931e-14,-17.3811,-47.204,-67.0247,87.8645,-76.1948,-26.0974,-3.69831,7.12502,0.45166,-33.6776,4.47266e-15,-1.74931e-14,-43.6345,7.81218,78.2106,48.411,6.15598,-11.0944,48.7121,7.12502,14.9295,78.1541,-3.643,2.00966,28.6232,29.6017,-20.5452,-16.8515,21.0301,-9.85019,-8.75542,-10.2251,37.5572,-10.2663,2.58058,-23.5298
0.418242,17.6699,-28.777,-4.44214,-4.06198,-1.04412,16.7488,0.219068,-2.36639,-0.424964,0.116043,2.93925,-9.91416,0.264079,4.52873,-8.56776,-10.1623,-7.7155,22.4941,-12.303,-2.52019,8.78655,-6.69124,-0.865952,-7.50412e-15,-4.85035e-14,-17.8091,-48.091,-65.942,87.6244,-75.5228,-26.675,-2.4537,7.12502,-0.106198,-32.4334,-7.50412e-15,-4.85035e-14,-43.0993,7.44859,78.1575,48.2604,6.22779,-11.3767,48.3341,7.12502,14.6576,77.7961,-3.55094,1.66384,28.6225,29.5447,-20.4438,-17.0681,19.7651,-10.0069,-8.91826,-10.1962,37.7654,-10.1886,2.34311,-23.3659
0.406172,17.6632,-28.7696,-4.53031,-3.72425,-1.11822,16.4513,0.152018,-2.46328,-0.145181,0.0151405,3.015,-9.42647,0.206636,4.67985,-8.3029,-10.2849,-7.96636,21.957,-12.4941,-2.31768,8.59203,-6.77486,-0.749298,-7.97623e-15,-3.18055e-15,-17.5808,-48.3953,-65.4591,87.2941,-74.8607,-26.9225,-1.52504,7.12502,-0.345273,-31.5045,-7.97623e-15,-3.18055e-15,-42.751,7.57492,78.2001,48.4684,6.74018,-12.4132,47.7521,7.12502,13.6587,77.2839,-3.39754,1.50918,28.7644,29.4991,-20.5842,-17.322,20.1248,-10.1302,-9.00947,-10.0355,37.9763,-10.015,1.95425,-23.116
0.394001,17.6591,-28.7598,-4.53399,-3.43563,-1.25622,16.7876,0.0764736,-2.53988,-0.350054,-0.0898869,3.13271,-9.83382,0.177438,4.89251,-7.98542,-10.322,-8.21641,21.9592,-12.5339,-2.32721,8.55603,-6.81646,-0.702428,1.4884e-14,2.06736e-14,-18.3689,-48.41,-64.2207,87.1627,-74.1917,-26.5106,-1.73252,7.12502,0.0525538,-31.7123,1.4884e-14,2.06736e-14,-43.2988,7.49878,78.2533,48.9166,7.62211,-13.1148,43.9894,7.12502,12.9825,73.5655,-3.32112,1.43224,28.995,29.4681,-20.6655,-17.6755,19.8894,-10.3453,-9.0315,-9.77995,38.2063,-9.83008,1.54939,-22.6041
0.384901,17.6566,-28.7463,-4.47515,-3.14801,-1.31524,16.6939,-0.07737,-2.3758,-0.317171,-0.273314,3.01258,-9.72522,0.0744945,4.7075,-7.75434,-10.375,-8.21126,21.5828,-12.6635,-2.16437,8.40001,-6.8583,-0.636623,5.24295e-15,-1.82882e-14,-18.7185,-48.6654,-63.6999,87.151,-73.4086,-26.3651,-2.23624,7.12502,0.193136,-32.2159,5.24295e-15,-1.82882e-14,-43.3832,7.81999,77.6496,49.1587,7.06913,-12.1965,37.1818,7.12502,13.8676,66.6995,-3.31793,1.28777,29.0947,29.4578,-20.4233,-17.8248,19.3527,-10.6244,-9.09323,-9.64252,38.4524,-9.74743,1.29037,-22.5223
0.375061,17.6504,-28.7295,-4.52133,-2.87775,-1.25289,17.3118,-0.129658,-2.65624,-0.671602,-0.393637,3.0983,-10.4583,0.0604599,5.02211,-7.26713,-10.3553,-8.45313,21.5323,-12.6281,-2.25849,8.30773,-6.87259,-0.597481,-5.70264e-15,-7.95139e-15,-19.7469,-48.4875,-62.2943,87.1619,-72.7402,-26.2157,-2.20842,7.12502,0.337401,-32.1879,-5.70264e-15,-7.95139e-15,-44.1521,7.75295,77.7261,49.5538,8.78794,-13.0496,43.8375,7.12502,13.0454,73.4095,-3.22714,1.066,29.0592,29.4762,-20.7974,-17.9355,20.1221,-10.767,-9.08371,-9.6624,38.7144,-9.62954,1.0437,-22.2903
0.362072,17.6423,-28.7195,-4.59214,-2.73439,-1.40618,16.8932,-0.19365,-2.64936,-0.591002,-0.469686,3.12922,-10.1209,0.0138203,5.05649,-5.79929,-10.2591,-8.70872,20.6639,-12.6707,-1.9242,7.79747,-6.87824,-0.338571,3.19546e-14,7.95139e-16,-20.2347,-48.6382,-61.4719,87.14,-72.1362,-25.9272,-1.87038,7.12502,0.61603,-31.8492,3.19546e-14,7.95139e-16,-44.4177,7.88959,77.3504,49.9035,9.03669,-12.5845,47.3726,7.12502,13.4937,76.9154,-3.15575,1.05874,29.3242,29.5141,-20.7197,-18.3361,19.3892,-10.8956,-8.92437,-9.40063,39.0044,-9.5241,0.691687,-22.9366
0.35099,17.6381,-28.7113,-4.62249,-2.65407,-1.41935,17.4065,0.0126814,-2.58965,-0.459325,-0.204291,2.99936,-10.2954,0.135526,4.82145,-6.99875,-10.5447,-8.195,21.1121,-12.9738,-2.1457,8.11515,-7.0008,-0.60214,1.82882e-14,-1.98785e-14,-20.5132,-49.5932,-60.6718,87.1437,-71.432,-26.0333,-1.37398,7.12502,0.513571,-31.3531,1.82882e-14,-1.98785e-14,-43.8161,7.65618,77.1263,49.8331,8.50055,-11.8464,48.5526,7.12502,14.205,78.0469,-3.12532,1.08024,29.4059,29.5561,-20.7127,-18.5247,19.4732,-11.064,-8.76169,-9.3068,39.3235,-9.4067,0.395432,-23.2459
0.34178,17.6371,-28.6943,-4.54229,-2.56402,-1.40471,16.6849,-0.207981,-2.86109,-0.464302,-0.526623,3.1568,-9.85376,-0.0114139,5.21288,-5.33713,-10.2341,-8.9313,20.3068,-12.6866,-1.74098,7.62675,-6.88247,-0.21053,-2.3382e-14,1.03368e-14,-20.6822,-48.9357,-60.077,87.0353,-70.4797,-26.175,-0.75495,7.12502,0.376679,-30.7344,-2.3382e-14,1.03368e-14,-44.4996,8.42867,76.7545,49.761,8.67928,-12.195,48.7299,7.12502,13.869,78.2475,-3.13826,1.16224,29.4364,29.5513,-20.9447,-18.5356,20.3594,-11.3353,-8.58071,-9.24625,39.6806,-9.31025,0.135195,-22.9504
0.332819,17.6363,-28.6778,-4.47095,-2.2104,-1.39722,16.4262,-0.20962,-2.89133,-0.244623,-0.535681,3.12655,-9.46251,-0.0306009,5.18427,-5.62796,-10.3269,-8.70038,20.2303,-12.804,-1.7772,7.63624,-6.92054,-0.28067,5.49143e-15,1.59028e-14,-20.5764,-49.4657,-59.5513,86.9371,-69.5768,-26.1021,-0.328055,7.12502,0.447182,-30.3073,5.49143e-15,1.59028e-14,-44.0147,8.56874,76.4975,49.5161,7.86118,-11.3649,50.2971,7.12502,14.6689,79.7582,-3.14927,0.975701,29.4606,29.5285,-20.9423,-18.7572,19.7637,-11.7163,-8.49438,-9.17312,40.0728,-9.15664,-0.246193,-22.9474
0.322282,17.6358,-28.6653,-4.46116,-1.92262,-1.48264,17.3608,-0.25587,-2.86687,-0.68429,-0.601298,3.13712,-10.4762,-0.0242971,5.24237,-5.77041,-10.312,-8.60111,20.7564,-12.7381,-2.02427,7.81083,-6.91188,-0.393747,6.16232e-15,-1.82882e-14,-21.7821,-49.2258,-58.0782,87.0478,-68.8971,-26.118,-0.0938324,7.12502,0.431816,-30.0731,6.16232e-15,-1.82882e-14,-44.7508,8.52324,76.1908,49.5519,7.79286,-10.9534,49.7723,7.12502,15.0654,79.2041,-3.10713,0.776072,29.5916,29.4772,-21.0255,-18.8478,20.0065,-12.0504,-8.4066,-8.99051,40.4992,-8.97808,-0.639299,-23.3409
0.312298,17.6291,-28.6519,-4.46477,-1.76589,-1.68993,17.0419,-0.338411,-2.79115,-0.432737,-0.680188,3.26708,-10.0045,-0.0807592,5.34365,-5.8094,-10.2637,-8.64224,20.5611,-12.6554,-2.03915,7.7519,-6.87267,-0.379442,2.08475e-14,-1.90833e-14,-21.5075,-49.3111,-57.7249,87.0841,-68.2079,-27.1478,3.27234,7.12502,-0.562835,-26.7067,2.08475e-14,-1.90833e-14,-44.5204,8.60424,76.407,49.4633,9.39509,-12.2988,47.2433,7.12502,13.7691,76.7677,-3.0319,0.644584,29.8642,29.4279,-20.9885,-19.009,19.7766,-12.3425,-8.16911,-8.6545,40.9315,-8.81764,-1.04084,-23.722
0.303685,17.6208,-28.6417,-4.61677,-1.4931,-1.82848,17.5225,-0.348804,-2.61403,-0.417308,-0.669876,3.20803,-10.2641,-0.0793134,5.18942,-6.16999,-10.3277,-8.26525,20.8916,-12.7237,-2.21958,7.88709,-6.8962,-0.530374,-3.2054e-15,8.74653e-15,-21.9552,-49.6718,-56.9191,87.1547,-67.4769,-26.304,0.533199,7.12502,0.252085,-29.4464,-3.2054e-15,8.74653e-15,-44.3922,8.43474,76.2269,49.2752,9.49989,-12.4421,47.489,7.12502,13.6309,77.0227,-2.80791,0.388153,30.0441,29.3822,-21.1387,-19.0296,20.2307,-12.5304,-8.01192,-8.41489,41.3326,-8.50148,-1.5216,-22.992
0.299755,17.6217,-28.6185,-4.51745,-1.34988,-1.75417,16.4929,-0.345752,-2.55632,0.172341,-0.657529,3.12056,-9.03059,-0.124285,5.00319,-6.55502,-10.3688,-8.1812,20.7947,-12.7907,-2.0143,7.93148,-6.89723,-0.503482,1.3244e-14,4.01545e-14,-21.1526,-50.6153,-57.0008,87.141,-66.662,-26.1546,1.98567,7.12502,0.396411,-27.9937,1.3244e-14,4.01545e-14,-43.4313,8.84486,75.9398,48.9962,8.12551,-11.4341,49.5253,7.12502,14.6023,78.9913,-2.8169,0.287786,29.9629,29.354,-21.1994,-19.1106,19.3844,-12.8431,-7.76332,-8.42371,41.6693,-8.33282,-1.8759,-22.7262
0.295914,17.6204,-28.5964,-4.47796,-1.17977,-1.68263,16.9661,-0.421655,-2.70466,-0.184722,-0.785274,3.16251,-9.67626,-0.152693,5.19304,-6.29702,-10.163,-8.30105,21.2424,-12.4825,-2.18522,8.02493,-6.78455,-0.510134,8.94531e-16,-2.06736e-14,-22.0356,-50.3033,-55.7153,87.2779,-65.9134,-25.9466,1.88693,7.12502,0.597347,-28.092,8.94531e-16,-2.06736e-14,-44.2416,9.00447,75.7068,48.8535,8.301,-12.3859,50.1447,7.12502,13.6851,79.6747,-2.76956,0.105722,29.8715,29.3328,-21.4023,-19.0115,19.8551,-13.1012,-7.55446,-8.44103,41.9787,-8.12624,-2.26115,-22.6276
0.291119,17.6221,-28.5719,-4.43207,-1.1026,-1.60765,16.5887,-0.531094,-2.74737,-0.0738535,-0.936563,3.14971,-9.32291,-0.236107,5.22299,-5.94635,-9.9212,-8.44735,21.2071,-12.1837,-2.07098,7.95952,-6.64522,-0.400191,1.16538e-14,-1.03368e-14,-21.8504,-50.229,-55.4561,87.3547,-64.9985,-25.7576,2.11012,7.12502,0.779877,-27.8682,1.16538e-14,-1.03368e-14,-44.4305,9.25278,75.4827,48.7537,8.35071,-12.5981,50.6894,7.12502,13.4806,80.2331,-2.71465,-0.0718471,29.7665,29.2979,-21.3987,-19.026,18.6875,-13.3359,-7.35097,-8.46283,42.3062,-7.81215,-2.58565,-22.0838
0.285494,17.6212,-28.5595,-4.50843,-0.782237,-1.56206,16.4858,-0.525959,-2.72026,0.204576,-0.930869,3.09247,-8.9603,-0.251599,5.1301,-6.16276,-9.94954,-8.16855,21.2236,-12.2142,-2.17978,7.9764,-6.64617,-0.490758,-9.93923e-16,-2.50469e-14,-21.5784,-50.8453,-55.1633,87.4134,-63.973,-25.5047,2.06228,7.12502,1.02407,-27.915,-9.93923e-16,-2.50469e-14,-44.065,9.09834,75.5318,48.637,8.29704,-12.6155,52.0691,7.12502,13.4638,81.6139,-2.57322,-0.434119,29.689,29.237,-21.4542,-19.0154,18.9088,-13.6058,-7.27284,-8.45712,42.7025,-7.44585,-2.96006,-21.1261
0.281648,17.6187,-28.5433,-4.51765,-0.718535,-1.69017,16.8622,-0.631223,-2.53907,0.0171535,-1.03587,3.11854,-9.37001,-0.294362,5.09965,-6.30146,-9.76319,-8.20526,21.8844,-11.914,-2.30523,8.21003,-6.52814,-0.52664,7.52897e-15,6.75868e-15,-21.823,-50.7574,-54.5873,87.5157,-62.7647,-24.9703,1.60582,7.12502,1.54021,-28.3684,7.52897e-15,6.75868e-15,-44.5267,9.32663,75.2716,48.4295,8.11557,-12.664,52.8397,7.12502,13.417,82.3877,-2.44202,-0.549746,29.8281,29.1387,-21.4653,-18.9585,19.1926,-13.867,-6.9112,-8.22305,43.1579,-7.21867,-3.60309,-28.2016
0.279112,17.6173,-28.5253,-4.53237,-0.739246,-1.82035,16.4533,-0.690916,-2.44702,0.298697,-1.08686,3.21992,-8.82434,-0.341065,5.14485,-6.38179,-9.59026,-8.30602,21.9846,-11.6651,-2.22951,8.2627,-6.41166,-0.469801,1.33186e-14,-2.54444e-14,-21.1438,-51.0176,-54.6081,87.5622,-61.5379,-24.9872,2.30304,7.12502,1.52393,-27.6713,1.33186e-14,-2.54444e-14,-44.2779,9.7439,75.2174,48.0878,7.97805,-12.8083,52.5617,7.12502,13.278,82.1187,-2.29842,-0.616002,29.9699,29.0308,-21.499,-18.8786,19.2679,-14.1089,-6.56475,-7.99725,43.662,-7.09069,-3.94766,-25.6152
0.279485,17.6169,-28.5058,-4.51936,-0.597943,-1.87592,16.8357,-0.666865,-2.31187,0.172526,-1.03255,3.19686,-9.18667,-0.308957,5.04781,-6.80857,-9.5079,-7.90491,22.739,-11.4998,-2.55443,8.54286,-6.34183,-0.666581,-8.99501e-15,1.66979e-14,-21.6379,-51.1511,-53.699,87.7293,-60.5825,-25.3622,3.25557,7.12502,1.16176,-26.721,-8.99501e-15,1.66979e-14,-44.4778,9.53961,75.1728,47.842,7.94246,-12.2597,52.4426,7.12502,13.8068,81.9644,-2.20367,-0.78379,30.0043,28.932,-21.462,-18.9064,18.6029,-14.4705,-6.35986,-7.86583,44.1701,-6.83352,-4.27467,-20.5284
0.281558,17.6137,-28.4882,-4.45595,-0.441451,-1.99537,17.4721,-0.807882,-2.45919,-0.440714,-1.21973,3.47358,-10.1989,-0.342362,5.53484,-6.02322,-9.12706,-8.11031,23.3206,-10.9291,-2.95678,8.57704,-6.14406,-0.685082,-9.49197e-15,1.19271e-14,-22.4762,-50.1431,-52.3309,87.8431,-59.5608,-24.8494,3.06365,7.12502,1.65702,-26.9097,-9.49197e-15,1.19271e-14,-45.9124,9.83587,75.1503,47.7644,8.3835,-11.8414,54.1378,7.12502,14.2098,83.6318,-2.19428,-0.994584,30.1031,28.8491,-21.3617,-18.8646,18.4325,-14.9077,-6.11528,-7.64603,44.6824,-6.47517,-4.58295,-19.4983
0.285152,17.6117,-28.4747,-4.3401,-0.290187,-2.12051,17.035,-0.686694,-1.86914,0.273096,-0.969184,3.2468,-9.20095,-0.298226,4.83655,-8.2007,-9.35817,-7.2602,24.0699,-11.1492,-3.06502,9.17186,-6.18433,-1.01819,-2.03754e-14,-2.06736e-14,-21.248,-52.0373,-52.905,88.0006,-58.2037,-24.0042,2.55003,7.12502,2.47329,-27.4154,-2.03754e-14,-2.06736e-14,-44.1618,9.39479,75.2823,47.2762,8.0834,-11.9527,51.1017,7.12502,14.1026,80.6032,-2.25167,-1.14309,30.216,28.8128,-21.4858,-18.9145,18.2269,-15.3922,-5.94385,-7.42892,45.1686,-6.10358,-4.75801,-17.9396
0.287395,17.6078,-28.4633,-4.3736,-0.255025,-2.25989,17.0644,-0.886321,-1.91837,0.0602379,-1.21627,3.50469,-9.42231,-0.398556,5.2183,-7.05359,-8.98715,-7.84144,24.0492,-10.657,-2.99502,8.9887,-6.00326,-0.790345,-1.49585e-14,8.74653e-15,-20.9395,-51.4468,-52.5951,88.1329,-56.9362,-23.5338,2.40675,7.12502,2.92755,-27.5529,-1.49585e-14,8.74653e-15,-45.2044,10.0065,75.0951,47.214,7.71599,-11.3235,49.9393,7.12502,14.7088,79.3975,-2.1748,-1.24622,30.3576,28.8141,-21.5933,-18.8195,18.888,-15.6848,-5.73117,-7.2336,45.6303,-5.92359,-4.68892,-19.5073
0.289182,17.6028,-28.4451,-4.42065,-0.382103,-2.21067,17.2695,-0.749093,-1.79295,0.0752274,-1.0214,3.37937,-9.54562,-0.311305,4.96758,-7.30499,-8.99823,-7.60131,24.5436,-10.6823,-3.01034,9.19047,-6.00178,-0.865382,1.51076e-14,-2.3059e-14,-21.1079,-51.9341,-52.0958,88.317,-55.753,-23.0524,2.36982,7.12502,3.39246,-27.5829,1.51076e-14,-2.3059e-14,-45.2508,9.61625,75.0656,46.964,7.63307,-10.5984,51.6618,7.12502,15.4074,81.0676,-2.08219,-1.10888,30.2969,28.8681,-21.754,-18.7766,19.0738,-15.8235,-5.43046,-7.27335,46.0611,-5.98483,-4.21575,-20.1398
0.296591,17.5996,-28.4162,-4.42909,-0.402947,-1.99715,17.2658,-0.827167,-1.92557,0.0486838,-1.15244,3.36941,-9.5576,-0.367283,5.06634,-7.24665,-8.73519,-7.66269,24.8874,-10.298,-3.05413,9.29362,-5.83853,-0.83749,3.60794e-14,-5.08889e-14,-20.7127,-51.6221,-52.0128,88.4666,-54.7611,-22.6032,2.45296,7.12502,3.82629,-27.4924,3.60794e-14,-5.08889e-14,-45.6759,9.9543,74.9484,46.7673,7.5422,-10.2806,52.8549,7.12502,15.7135,82.2369,-1.97424,-1.28439,29.9719,28.9154,-22.0218,-18.4654,19.6071,-15.9871,-5.17774,-7.55642,46.4797,-6.07733,-3.67684,-21.5409
0.301631,17.5958,-28.4026,-4.28226,-0.459979,-2.00154,17.1923,-0.814889,-1.77019,0.223684,-1.11015,3.34328,-9.33044,-0.363744,4.92807,-8.00661,-8.60333,-7.35638,25.4223,-10.0568,-3.19235,9.59089,-5.71737,-0.962124,1.60519e-14,1.43125e-14,-19.944,-52.0422,-52.2069,88.6952,-53.6927,-22.1213,2.19512,7.12502,4.29164,-27.7414,1.60519e-14,1.43125e-14,-45.3585,10.0854,74.967,46.4746,7.48668,-10.3123,52.8395,7.12502,15.6829,82.2239,-2.1179,-1.25982,29.9754,28.9728,-21.9529,-18.5406,18.6355,-16.4519,-4.83691,-7.51869,46.8974,-6.16105,-3.28736,-22.5601
0.307916,17.589,-28.3855,-4.19053,-0.742742,-2.24708,17.0385,-0.747858,-1.42951,0.389095,-0.94979,3.42022,-9.08162,-0.308849,4.76562,-8.23268,-8.4654,-7.14076,25.6733,-9.85129,-3.29811,9.69832,-5.61552,-1.02756,2.78299e-15,-9.54166e-15,-19.3086,-52.3791,-52.2571,88.8953,-52.3274,-21.3877,2.07827,7.12502,4.99997,-27.8427,2.78299e-15,-9.54166e-15,-45.1584,10.27,74.9995,46.1793,7.22119,-10.1483,52.8198,7.12502,15.8409,82.1917,-2.20433,-1.00743,30.2715,29.0477,-22.1057,-18.4762,19.6632,-16.7679,-4.36595,-7.19693,47.3131,-6.38665,-2.82304,-22.6264
0.318574,17.5845,-28.363,-4.36877,-0.53721,-2.19,16.7374,-0.826924,-1.21668,0.967033,-1.03214,3.35741,-8.27787,-0.38461,4.56316,-9.27452,-8.424,-6.97591,26.1333,-9.73866,-3.24664,10.0509,-5.54231,-1.09283,-2.25621e-14,2.22639e-14,-17.7531,-53.0861,-53.1237,89.0196,-50.8343,-20.6019,1.9803,7.12502,5.75869,-27.9214,-2.25621e-14,2.22639e-14,-44.2502,10.5464,75.094,45.7549,7.03326,-10.1517,52.4631,7.12502,15.8376,81.8354,-1.95943,-1.15861,30.1529,29.1274,-22.1967,-18.626,18.7662,-16.8496,-4.36609,-7.33889,47.6831,-6.71711,-2.41834,-22.7874
0.330111,17.579,-28.3458,-4.36755,-0.500875,-2.05724,17.2682,-0.858778,-1.36087,0.674162,-1.08616,3.43815,-8.88567,-0.385184,4.77766,-9.05382,-8.20465,-7.02001,26.5895,-9.39065,-3.43636,10.1623,-5.41512,-1.11502,-3.21037e-14,6.04305e-14,-17.8217,-52.6519,-52.5452,89.2868,-49.5496,-19.982,1.75619,7.12502,6.35722,-28.1284,-3.21037e-14,6.04305e-14,-45.0112,10.6899,75.1158,45.6601,6.97311,-10.2415,52.2748,7.12502,15.751,81.6538,-1.90732,-1.14017,29.9709,29.1667,-22.3077,-18.6232,18.7705,-17.0929,-4.19295,-7.55404,47.9962,-6.97701,-2.08039,-22.999
0.336744,17.5769,-28.3369,-4.42799,-0.591657,-2.00695,17.8702,-0.849926,-1.54262,0.199414,-1.09156,3.52155,-9.74215,-0.349165,5.01786,-7.73713,-7.93302,-7.04869,26.6773,-9.076,-3.61456,9.93063,-5.29954,-1.0717,-1.73937e-15,-1.03368e-14,-18.5953,-51.8524,-51.5157,89.61,-48.3219,-19.5084,1.6857,7.12502,6.81443,-28.1846,-1.73937e-15,-1.03368e-14,-46.248,10.6983,74.9641,45.6151,6.88476,-9.99652,52.3768,7.12502,15.987,81.7371,-1.79342,-1.07059,29.8992,29.1877,-22.4015,-18.6176,18.6463,-17.2405,-3.94201,-7.64746,48.228,-7.2921,-1.8717,-22.6686
0.350601,17.5794,-28.3078,-4.37613,-0.923568,-2.10654,17.7824,-0.778483,-1.35789,0.140709,-0.949818,3.60178,-9.77331,-0.286685,4.96266,-7.44293,-7.82842,-7.06007,26.9341,-8.91222,-3.76385,9.9591,-5.24607,-1.09739,-1.20265e-14,4.53229e-14,-18.5083,-51.4996,-51.171,89.8897,-47.1375,-19.1773,1.91071,7.12502,7.13397,-27.9491,-1.20265e-14,4.53229e-14,-46.6849,10.6901,75.0102,45.5097,6.89895,-9.79429,52.4935,7.12502,16.1817,81.8381,-1.71507,-1.0375,29.9245,29.168,-22.1492,-18.4546,17.6386,-17.3424,-3.55011,-7.58931,48.3975,-7.72923,-1.55724,-21.9066
0.363818,17.583,-28.276,-4.20254,-1.02078,-2.09418,17.248,-0.797879,-1.06281,0.464643,-0.932978,3.5389,-9.12185,-0.313977,4.68627,-8.04329,-7.75092,-6.9313,27.1426,-8.76983,-3.74991,10.1398,-5.16716,-1.13289,-3.47873e-15,-3.10104e-14,-17.3243,-51.8615,-51.9157,90.1422,-45.7983,-18.5142,1.91305,7.12502,7.77403,-27.924,-3.47873e-15,-3.10104e-14,-46.1794,10.7791,75.09,45.1793,6.9129,-9.82403,52.5253,7.12502,16.1531,81.8722,-1.76014,-0.981547,29.8646,29.099,-22.285,-18.3899,18.2677,-17.6468,-3.26377,-7.6466,48.4483,-7.93246,-1.29385,-20.9664
0.372762,17.5866,-28.253,-4.05014,-1.12098,-2.16742,17.575,-0.799441,-0.917158,0.30136,-0.892239,3.60594,-9.49059,-0.288922,4.68462,-8.27578,-7.56106,-6.79459,27.5998,-8.45657,-3.92006,10.3317,-5.0358,-1.20458,-1.04362e-15,2.38542e-15,-16.953,-51.5971,-51.8873,90.4543,-44.6013,-17.7068,1.73823,7.12502,8.55326,-28.0685,-1.04362e-15,2.38542e-15,-46.4168,10.9761,75.0858,44.7904,6.7625,-9.71212,52.5373,7.12502,16.2609,81.8754,-1.8193,-0.836455,29.941,29.0112,-22.288,-18.3803,18.9667,-17.9877,-3.00235,-7.57146,48.4638,-8.1312,-1.02484,-19.6587
0.383828,17.5928,-28.2199,-4.18216,-0.913151,-1.8081,17.2419,-0.839764,-1.13528,0.520518,-1.01181,3.45646,-9.05008,-0.352955,4.65441,-7.96355,-7.44741,-6.50187,27.6777,-8.36302,-3.96578,10.2778,-4.96973,-1.24264,5.2181e-15,-2.38542e-15,-16.6032,-51.7404,-51.9135,90.6915,-42.65,-16.0265,1.35092,7.12502,10.1746,-28.383,5.2181e-15,-2.38542e-15,-46.273,11.0584,75.0446,44.3738,6.52906,-9.61158,52.436,7.12502,16.3577,81.7662,-1.50351,-1.25432,29.4032,28.959,-22.5337,-18.1863,18.3883,-17.9545,-3.14623,-8.13461,48.3385,-8.43605,-0.330726,-20.0409
0.39233,17.586,-28.2146,-4.1661,-0.98344,-2.03966,17.8869,-0.925439,-0.941504,0.427209,-1.05978,3.6483,-9.51106,-0.367682,4.79546,-8.55963,-7.25917,-6.52692,28.2755,-7.96565,-4.21682,10.6025,-4.8279,-1.33072,9.98893e-15,-3.18055e-15,-15.8854,-51.0435,-52.1515,90.8504,-41.1063,-15.4919,1.60326,7.12502,10.6903,-28.1048,9.98893e-15,-3.18055e-15,-46.399,11.6821,75.0354,43.902,6.27595,-9.63389,52.217,7.12502,16.3362,81.549,-1.47961,-0.93695,29.7057,28.9092,-22.4794,-18.4166,17.8282,-18.2433,-2.89412,-7.90192,48.2279,-8.33332,0.75172,-21.8035
0.409212,17.5876,-28.1811,-4.02459,-0.8919,-1.87593,17.8057,-0.791566,-0.685607,0.775143,-0.858302,3.44864,-9.10588,-0.300295,4.36148,-10.1327,-7.40392,-5.92394,28.9783,-8.09748,-4.41273,11.1332,-4.85375,-1.61409,9.64106e-15,-1.90833e-14,-15.0783,-51.6554,-52.5054,90.9953,-39.7811,-16.3293,3.01452,7.12502,9.88242,-26.7335,9.64106e-15,-1.90833e-14,-45.3365,11.4242,75.3024,43.382,6.09384,-9.62221,52.0558,7.12502,16.3474,81.3869,-1.48088,-0.980307,29.4509,28.8841,-22.6366,-18.3768,18.1568,-18.5067,-2.90689,-8.19083,47.9928,-8.58915,0.775977,-21.4126
0.423869,17.5919,-28.1442,-3.96389,-0.943901,-1.74165,17.7619,-1.02449,-0.945808,0.445386,-1.1919,3.66748,-9.40859,-0.43285,4.84657,-8.69452,-6.94946,-6.55881,28.8031,-7.43584,-4.43665,10.8159,-4.62319,-1.36589,-6.55989e-15,-3.18055e-14,-14.9352,-49.9939,-52.2372,91.2414,-38.8118,-19.3586,5.9106,7.12502,6.95899,-23.955,-6.55989e-15,-3.18055e-14,-46.746,12.1893,75.1749,43.5486,6.10944,-9.52266,52.3012,7.12502,16.4433,81.6244,-1.38146,-0.920423,29.2418,28.8624,-22.6882,-18.2809,18.7937,-18.6125,-2.88713,-8.43513,47.7178,-8.8991,0.919705,-20.8014
0.437265,17.5908,-28.1122,-3.89311,-1.1595,-1.67881,18.3785,-0.898865,-0.963395,0.137513,-1.01372,3.67713,-10.1126,-0.325697,4.86,-8.96247,-6.90356,-6.39259,29.5154,-7.30743,-4.66174,11.1214,-4.58642,-1.49739,1.19271e-14,-3.26007e-14,-15.5344,-49.2008,-51.4654,91.6115,-37.8945,-19.0898,6.19922,7.12502,7.21843,-23.6577,1.19271e-14,-3.26007e-14,-47.4354,12.1174,75.1275,43.4428,5.96896,-9.37618,51.4617,7.12502,16.5843,80.773,-1.2987,-0.898975,29.0909,28.8122,-22.7315,-18.1171,18.7309,-18.6915,-2.7235,-8.56397,47.3269,-9.03273,1.27227,-20.6286
0.451214,17.5882,-28.0851,-3.88069,-1.22912,-1.66044,18.6425,-0.940561,-1.01118,-0.0577863,-1.06196,3.77061,-10.4732,-0.331704,5.02399,-8.59282,-6.77562,-6.48654,29.7525,-7.10504,-4.77117,11.1395,-4.52254,-1.48988,3.77691e-14,6.36111e-15,-15.5254,-48.0273,-51.2995,91.907,-36.8501,-19.2589,6.63101,7.12502,7.05524,-23.2314,3.77691e-14,6.36111e-15,-48.1964,12.3698,75.1056,43.5905,5.86177,-9.03829,52.3298,7.12502,16.9096,81.6137,-1.1685,-0.962452,28.9839,28.7155,-22.6738,-17.9826,18.5457,-18.7872,-2.70593,-8.66491,46.8611,-9.19586,1.62017,-21.0444
0.462011,17.5919,-28.0592,-3.80698,-1.21385,-1.73764,18.0541,-0.89766,-0.600461,0.52254,-0.954468,3.62833,-9.51469,-0.334445,4.55333,-9.42833,-6.8931,-6.09588,29.8065,-7.29168,-4.71234,11.3067,-4.55602,-1.5935,1.37161e-14,-2.22639e-14,-14.3678,-48.3344,-52.2521,92.1528,-35.3925,-19.0623,6.78548,7.12502,7.24499,-23.0705,1.37161e-14,-2.22639e-14,-47.031,12.2574,75.2952,43.3221,5.74638,-8.66284,53.2765,7.12502,17.271,82.5291,-1.10923,-0.893321,29.0561,28.5825,-22.8411,-18.1596,18.5592,-18.9896,-2.74507,-8.63661,46.3178,-9.24436,1.59876,-20.5947
0.47019,17.5929,-28.0354,-3.76849,-1.28582,-1.89481,18.3256,-1.0137,-0.654081,0.0968312,-1.08667,3.80367,-10.1252,-0.371538,4.84107,-8.05183,-6.56683,-6.14413,29.9228,-6.86695,-4.945,11.069,-4.39938,-1.56045,-1.97791e-14,5.40694e-14,-14.8903,-46.6793,-51.8249,92.4309,-34.043,-18.8907,7.14267,7.12502,7.41065,-22.7075,-1.97791e-14,5.40694e-14,-48.2277,12.537,75.0711,43.1599,5.83346,-8.83538,52.9579,7.12502,17.1049,82.2249,-0.997233,-0.590135,29.2821,28.4189,-22.5836,-18.4911,17.6411,-19.1453,-2.67755,-8.48536,45.7437,-9.25753,1.48059,-20.554
0.484569,17.5954,-27.9955,-3.69192,-1.25127,-1.88699,18.552,-0.898234,-0.249031,0.472554,-0.870719,3.63342,-9.86151,-0.30298,4.35629,-10.0929,-6.71227,-5.61664,30.7731,-6.96274,-5.06172,11.7778,-4.4113,-1.82695,8.64713e-15,-2.54444e-14,-14.2603,-46.9262,-52.2787,92.6589,-32.519,-18.8612,7.54481,7.12502,7.43908,-22.3044,8.64713e-15,-2.54444e-14,-47.0879,12.3255,75.3427,42.6954,5.90972,-9.19985,52.352,7.12502,16.7541,81.6491,-0.819645,-0.548475,29.2245,28.2095,-22.8389,-18.4876,18.3916,-19.2533,-2.76625,-8.56704,45.107,-9.35783,1.56254,-20.5444
0.499386,17.5951,-27.9613,-3.55441,-1.25476,-1.95535,18.3091,-1.02399,-0.112518,0.4005,-1.00653,3.67933,-9.79645,-0.373633,4.35757,-9.49219,-6.46023,-5.8848,31.0827,-6.63917,-4.87744,11.801,-4.27827,-1.66028,8.05078e-15,-1.59028e-15,-14.3224,-45.6542,-52.3433,92.9848,-31.2243,-18.9254,8.1742,7.12502,7.37713,-21.6772,8.05078e-15,-1.59028e-15,-47.5447,12.7136,75.1773,42.6066,5.81475,-9.12802,52.3728,7.12502,16.8232,81.6641,-0.738975,-0.34791,29.2924,28.0157,-23.0747,-18.4976,19.5209,-19.507,-2.80017,-8.53935,44.4676,-9.28257,1.55513,-20.6035
0.514384,17.6006,-27.9212,-3.41065,-1.41376,-2.08631,18.2397,-0.891506,0.291444,0.648587,-0.76332,3.5994,-9.5072,-0.28569,3.96215,-10.2716,-6.53208,-5.61095,31.3379,-6.73351,-4.87186,12.0476,-4.29022,-1.75997,5.96354e-16,-6.36111e-15,-14.0159,-45.4454,-52.6801,93.2951,-29.7882,-19.2844,8.74917,7.12502,7.03064,-21.1141,5.96354e-16,-6.36111e-15,-46.83,12.5297,75.3782,42.3826,5.73507,-9.08807,52.6768,7.12502,16.8617,81.9648,-0.678958,-0.15246,29.4077,27.8493,-22.9042,-18.7146,18.0746,-19.6931,-2.81322,-8.43102,43.7657,-9.14621,1.8327,-20.5873
0.526185,17.6034,-27.8928,-3.2742,-1.37581,-2.10773,18.4775,-0.983575,0.229659,0.358348,-0.869953,3.7291,-9.95279,-0.320316,4.18841,-9.38318,-6.27192,-5.74676,31.2947,-6.3588,-5.00751,11.8506,-4.1544,-1.69816,1.69961e-14,-2.8625e-14,-14.1831,-44.0849,-52.6311,93.5841,-28.2689,-19.0731,9.00529,7.12502,7.23456,-20.851,1.69961e-14,-2.8625e-14,-47.5277,12.7347,75.3924,42.4023,5.74855,-9.12245,52.6485,7.12502,16.8286,81.9393,-0.667654,-0.210765,29.3872,27.7228,-22.8978,-18.7572,18.0689,-19.9446,-2.9173,-8.43907,43.0195,-9.13873,1.97321,-20.8952
0.54236,17.6058,-27.8622,-3.1169,-1.29506,-1.97793,17.9219,-0.971264,0.422126,0.843273,-0.859038,3.5702,-9.11094,-0.345396,3.86142,-9.87012,-6.22043,-5.42875,31.1765,-6.30895,-5.01266,11.8846,-4.09246,-1.76026,2.3059e-14,-2.46493e-14,-13.2902,-43.9486,-53.5275,93.7934,-26.7117,-18.8221,9.17137,7.12502,7.4769,-20.6765,2.3059e-14,-2.46493e-14,-46.5934,12.7286,75.5985,42.3084,5.68878,-9.05028,52.5903,7.12502,16.898,81.8751,-0.700403,-0.205292,29.1892,27.6849,-22.8394,-18.9193,17.2304,-20.1999,-3.13876,-8.65455,42.2268,-9.1308,1.4647,-20.3097
0.559142,17.6103,-27.8278,-2.95876,-1.41079,-1.84231,18.3798,-0.936273,0.248524,0.484176,-0.819623,3.63059,-9.76308,-0.304225,4.04691,-9.73963,-6.11716,-5.35129,31.5586,-6.08288,-5.33832,11.9972,-4.02907,-1.8756,1.87852e-14,-9.54166e-15,-13.7968,-42.4554,-53.2501,94.0463,-25.4756,-18.7765,9.42298,7.12502,7.52084,-20.4233,1.87852e-14,-9.54166e-15,-47.3903,12.7584,75.6408,42.395,5.65862,-9.04932,52.3784,7.12502,16.899,81.6632,-0.724465,0.0504028,29.0052,27.6676,-23.0912,-18.8473,18.2314,-20.3541,-3.31271,-8.84376,41.3719,-9.01654,1.70128,-19.806
0.576277,17.5993,-27.7907,-2.8402,-1.54356,-1.78176,18.7811,-0.946034,0.103124,0.259741,-0.835681,3.74037,-10.2339,-0.291425,4.28012,-9.57787,-5.92453,-5.48394,31.7893,-5.73034,-5.5087,12.0611,-3.91203,-1.87531,2.64384e-14,-2.54444e-14,-13.9202,-40.997,-53.3675,94.2828,-24.0501,-18.6963,9.7566,7.12502,7.59828,-20.0869,2.64384e-14,-2.54444e-14,-48.0504,13.0648,75.6273,42.5115,5.53855,-8.91666,52.1429,7.12502,17.0267,81.4167,-0.715432,0.290182,28.9172,27.6612,-23.3372,-18.9071,18.6785,-20.4371,-3.46657,-8.91746,40.4832,-8.88406,1.94668,-13.8679
0.592068,17.6001,-27.7507,-2.77228,-1.53933,-1.78454,18.613,-1.04658,0.0758233,0.243036,-0.967761,3.84267,-10.1464,-0.351339,4.43883,-8.92739,-5.78042,-5.77599,31.6272,-5.52375,-5.48412,11.8789,-3.84566,-1.75817,-6.16232e-15,3.81667e-14,-13.8679,-39.6051,-53.6924,94.5382,-22.3015,-18.5688,9.82769,7.12502,7.72138,-20.0113,-6.16232e-15,3.81667e-14,-48.4826,13.3684,75.6346,42.6172,5.62431,-8.9274,52.2272,7.12502,17.0163,81.5019,-0.601805,0.363171,28.8847,27.6211,-23.5606,-18.9521,19.1185,-20.4774,-3.69169,-8.93552,39.5266,-8.99186,2.13624,-12.1691
0.60633,17.6038,-27.7144,-2.66911,-1.53602,-1.72862,18.575,-0.933952,0.320006,0.600123,-0.793432,3.69735,-9.74598,-0.294412,4.07565,-9.83935,-5.82676,-5.63345,31.953,-5.58455,-5.30558,12.1969,-3.83976,-1.77303,2.38542e-15,1.35174e-14,-13.443,-39.4451,-54.3807,94.7246,-20.6085,-18.7358,10.1428,7.12502,7.56013,-19.7021,2.38542e-15,1.35174e-14,-47.554,13.0319,75.9621,42.5325,5.65304,-8.85416,52.3633,7.12502,17.0868,81.6319,-0.512152,0.486694,28.7984,27.5498,-23.6981,-19.0206,19.1862,-20.6391,-3.92621,-9.05311,38.5992,-9.09704,2.36212,-15.4786
0.620441,17.605,-27.6791,-2.51288,-1.71863,-1.74082,18.3181,-0.820519,0.475941,0.75456,-0.633349,3.58805,-9.44465,-0.233902,3.80912,-9.45674,-5.74968,-5.37454,31.7384,-5.57988,-5.24927,12.0175,-3.7939,-1.76827,-1.37161e-14,1.90833e-14,-13.3441,-38.8484,-55.0453,94.87,-19.1632,-19.0658,10.6126,7.12502,7.24159,-19.2435,-1.37161e-14,1.90833e-14,-47.2041,12.7095,76.0452,42.4499,5.6644,-8.76416,52.1902,7.12502,17.1734,81.4512,-0.438555,0.662551,28.7832,27.2943,-23.5466,-19.2089,18.5518,-20.7569,-4.02628,-9.06449,37.6029,-9.21935,2.74764,-21.7532
0.636976,17.6088,-27.6426,-2.30537,-1.97887,-1.91927,17.9482,-0.683032,0.89079,1.25269,-0.401948,3.51257,-8.70818,-0.154335,3.40269,-10.9244,-5.86112,-5.08247,32.182,-5.69032,-5.21831,12.4899,-3.8125,-1.89828,-6.55989e-15,-1.59028e-15,-12.4086,-38.6277,-56.2896,94.8011,-17.3704,-19.1629,11.051,7.12502,7.14788,-18.8083,-6.55989e-15,-1.59028e-15,-45.9786,12.6916,76.243,42.2154,5.55411,-8.67582,52.0231,7.12502,17.2585,81.2768,-0.403108,0.845075,28.9231,26.9999,-23.3286,-19.2769,18.6004,-20.9325,-4.14486,-8.83658,36.6571,-9.30151,3.15908,-20.0667
0.656746,17.6314,-27.5901,-2.17681,-2.28309,-1.89856,17.2309,-0.754797,0.670855,0.888844,-0.537651,3.64668,-8.69714,-0.206098,3.69835,-8.19326,-5.54218,-5.37892,31.505,-5.37082,-5.29263,11.6636,-3.6972,-1.69734,-1.02374e-14,3.33958e-14,-13.3757,-36.2237,-56.266,94.8165,-15.725,-19.4202,11.3221,7.12502,6.89955,-18.5454,-1.02374e-14,3.33958e-14,-47.4334,13.1056,75.9025,42.338,5.54161,-8.62135,51.8582,7.12502,17.3109,81.1073,-0.185152,0.929695,28.7844,26.6605,-22.9048,-19.245,17.7838,-20.9289,-4.41703,-8.84701,35.6515,-9.36186,3.75126,-17.1647
0.669783,17.6354,-27.5578,-2.08982,-2.29302,-1.97223,17.9391,-0.700616,0.681555,0.815109,-0.428302,3.77033,-9.17959,-0.144654,3.82467,-8.76575,-5.46726,-5.456,31.9321,-5.15397,-5.39895,11.9551,-3.63058,-1.73676,-2.23633e-14,-5.56597e-15,-13.4508,-35.0328,-56.6297,94.8721,-14.2179,-20.0058,11.522,7.12502,6.33425,-18.3633,-2.23633e-14,-5.56597e-15,-47.4076,13.1976,76.1567,42.4226,5.55625,-8.80938,51.6064,7.12502,17.1299,80.8713,-0.0113579,0.930888,28.8442,26.3198,-22.9077,-19.3005,18.1982,-21.1353,-4.74681,-8.73056,34.7463,-9.39754,4.22468,-16.453
0.689612,17.6464,-27.4993,-1.98968,-2.16025,-1.56132,17.8585,-0.650999,0.431647,0.95966,-0.431146,3.65893,-8.97391,-0.141728,3.83934,-9.25222,-5.51152,-5.50449,32.0763,-5.17703,-5.34476,12.1184,-3.64274,-1.73603,1.50082e-14,2.38542e-15,-13.3941,-34.192,-57.2057,94.8604,-12.6419,-20.0573,11.6849,7.12502,6.28454,-18.2019,1.50082e-14,2.38542e-15,-47.0837,13.1372,76.3981,42.4258,5.44164,-8.71135,51.6129,7.12502,17.2243,80.8696,0.252007,0.566868,28.2356,25.9906,-22.8082,-19.1459,17.7214,-21.1957,-5.31741,-9.24316,33.8033,-9.51746,4.88739,-17.5279
0.706182,17.6452,-27.4637,-1.85941,-2.14692,-1.6902,17.605,-0.742319,0.712606,1.14338,-0.514006,3.60828,-8.62904,-0.199506,3.63031,-8.84689,-5.35472,-5.60214,31.7442,-5.03342,-5.12966,11.9105,-3.55525,-1.59171,-6.95746e-15,7.95139e-15,-13.1569,-33.1928,-58.2752,94.7547,-10.6352,-19.7149,11.6121,7.12502,6.615,-18.2646,-6.95746e-15,7.95139e-15,-46.8018,13.3786,76.2555,42.4355,5.24558,-8.40074,51.8359,7.12502,17.5232,81.0661,0.337789,0.591417,28.338,25.753,-22.732,-19.277,17.4779,-21.4625,-5.62617,-9.06632,32.9726,-9.51936,5.31673,-17.9055
0.723559,17.643,-27.4217,-1.72754,-2.34147,-1.6817,18.2267,-0.53066,0.822057,1.02982,-0.199058,3.50342,-9.11802,-0.0492966,3.39434,-9.57259,-5.522,-5.208,32.1544,-5.22723,-5.33822,12.2013,-3.62977,-1.80419,7.85199e-15,-5.56597e-15,-13.523,-32.3353,-58.8578,94.4787,-9.41372,-20.1721,12.1095,7.12502,6.1737,-17.7805,7.85199e-15,-5.56597e-15,-46.6835,12.9044,76.4152,42.5686,5.19216,-8.24072,51.8549,7.12502,17.6772,81.0714,0.49395,0.762435,28.273,25.4531,-22.6861,-19.2701,17.3416,-21.6886,-5.7408,-9.05068,32.2419,-9.69669,5.75325,-17.9498
0.741324,17.6497,-27.3699,-1.52841,-2.63463,-1.55197,18.2646,-0.476472,0.640088,0.825259,-0.156097,3.51226,-9.3663,-0.0170002,3.50393,-9.15413,-5.31954,-5.41482,32.3698,-4.90548,-5.3672,12.214,-3.51708,-1.73221,-3.97569e-16,-3.4191e-14,-13.9092,-30.2022,-59.614,94.2318,-9.46432,-21.7327,12.7812,7.12502,4.66687,-17.1473,-3.97569e-16,-3.4191e-14,-47.2794,13.023,76.3809,42.8499,5.39292,-8.44555,51.5343,7.12502,17.4801,80.7684,0.633634,0.891154,28.0342,25.1482,-22.5524,-19.2073,16.6761,-21.9038,-6.0243,-9.16083,31.5993,-9.99147,6.43595,-18.4613
0.749747,17.6449,-27.3329,-1.59469,-2.60121,-2.01239,18.6785,-0.476078,1.06944,1.01638,-0.0481102,3.63333,-9.39314,0.0178859,3.36775,-9.75808,-5.18026,-5.44345,32.666,-4.64548,-5.32686,12.4667,-3.40597,-1.71251,2.23633e-14,2.3059e-14,-13.766,-29.1756,-60.5083,93.8353,-7.88268,-21.8319,12.844,7.12502,4.5711,-17.0867,2.23633e-14,2.3059e-14,-46.7136,13.0891,76.5484,42.6915,5.48124,-8.60663,51.6642,7.12502,17.3251,80.912,1.03609,1.07294,28.5871,24.8146,-22.3251,-19.566,16.0684,-22.0218,-6.22179,-8.59029,31.0081,-10.1017,6.58743,-18.7351
