JuanDHNZ/ProyectoFinalCD/preprocessing/sports_trials_csv/06_09.csv
root1,root2,root3,root4,root5,root6,lowerback1,lowerback2,lowerback3,upperback1,upperback2,upperback3,thorax1,thorax2,thorax3,lowerneck1,lowerneck2,lowerneck3,upperneck1,upperneck2,upperneck3,head1,head2,head3,rclavicle1,rclavicle2,rhumerus1,rhumerus2,rhumerus3,rradius1,rwrist1,rhand1,rhand2,rfingers1,rthumb1,rthumb2,lclavicle1,lclavicle2,lhumerus1,lhumerus2,lhumerus3,lradius1,lwrist1,lhand1,lhand2,lfingers1,lthumb1,lthumb2,rfemur1,rfemur2,rfemur3,rtibia1,rfoot1,rfoot2,rtoes1,lfemur1,lfemur2,lfemur3,ltibia1,lfoot1,lfoot2,ltoes1
1.008,16.7952,-23.3347,-36.4673,-84.0412,37.7039,34.999,0.74106,3.51773,8.09082,2.04988,9.14616,-9.10124,0.377078,7.19827,-9.40444,-5.4387,-5.34081,24.804,-5.5753,-7.40205,9.32785,-4.07335,-2.27987,-1.74931e-14,-7.95139e-14,-0.14323,-39.5225,-75.3005,29.1031,-23.6157,-23.9908,-3.89312,7.12502,2.48623,-33.8584,-1.74931e-14,-7.95139e-14,-40.8197,5.15112,87.381,56.8869,8.07543,-14.4217,49.5535,7.12502,11.7225,79.2055,-25.5838,1.9927,1.60506,46.9283,-14.0393,-15.2394,-16.3541,-35.0208,-3.10919,-8.20403,55.169,-1.98706,-15.6155,-20.1193
0.992634,16.7987,-23.1364,-25.5833,-85.3654,25.2362,36.6317,0.323543,5.58112,8.30156,2.25902,9.1773,-9.33707,0.37346,6.0705,-9.47156,-5.4863,-5.3106,24.8606,-5.65228,-7.34004,9.35961,-4.10097,-2.2765,-1.59028e-15,-3.18055e-15,-1.07928,-41.9792,-74.6495,29.9423,-26.6427,-22.8089,-4.63479,7.12502,3.6276,-34.5837,-1.59028e-15,-3.18055e-15,-41.2226,5.93217,87.0322,56.6381,7.42501,-8.9748,49.2193,7.12502,16.9707,78.498,-23.0437,3.03706,2.82757,45.068,-13.5599,-14.84,-15.7054,-33.3825,-1.63566,-7.20355,56.062,-1.74005,-18.0525,-21.5071
0.962745,16.8146,-22.9006,-32.3753,-86.3544,32.8602,35.2393,0.661264,5.36096,8.37356,2.49349,9.30677,-8.79707,0.509029,6.2138,-9.12822,-5.28726,-5.92576,24.6787,-5.28175,-7.47804,9.26117,-3.99897,-2.16698,-2.06736e-14,-3.81667e-14,-2.04917,-43.3172,-73.0352,30.5762,-29.3103,-21.3534,-5.33572,7.12502,5.03316,-35.2559,-2.06736e-14,-3.81667e-14,-41.7726,6.65738,87.8521,56.4701,8.91729,-11.4413,48.7388,7.12502,14.5953,78.2053,-23.3805,3.30249,1.41324,43.9017,-13.2691,-13.9783,-13.9845,-33.6758,-2.94358,-8.5075,56.9663,-3.39035,-16.4842,-27.1475
0.972584,16.7885,-22.7313,-24.8354,-86.1764,25.6551,34.8874,0.55467,5.83915,8.19982,2.53194,9.19203,-8.81716,0.537943,5.81798,-9.57475,-5.57687,-5.57473,25.1501,-5.72023,-7.36509,9.49309,-4.173,-2.26766,1.27222e-14,7.31528e-14,-3.42885,-45.4736,-71.7455,31.2392,-30.9942,-19.3985,-6.30456,7.12502,6.92053,-36.1714,1.27222e-14,7.31528e-14,-41.9128,6.26111,87.7879,56.0513,9.01818,-15.7449,49.2495,7.12502,10.4462,78.97,-23.0372,3.06755,1.2368,42.7864,-12.4307,-14.3767,-15.0672,-34.404,-1.95442,-8.79036,57.7012,-2.31918,-17.5739,-19.5789
0.955498,16.7801,-22.5641,-22.8134,-86.6462,23.5724,34.6846,0.642417,5.87159,8.32498,2.60124,9.15068,-8.60027,0.56861,5.72549,-9.42295,-5.367,-5.29776,25.104,-5.4547,-7.52853,9.43404,-4.0416,-2.33162,-4.77083e-15,-9.54166e-15,-4.314,-47.1214,-70.7987,31.6314,-31.4287,-17.0215,-7.01767,7.12502,9.21463,-36.7963,-4.77083e-15,-9.54166e-15,-42.1535,6.50556,87.6704,55.5679,8.36816,-8.10085,49.3583,7.12502,17.8118,78.5626,-22.4792,3.80198,1.04466,41.7535,-11.6636,-15.3973,-17.371,-34.2702,0.192341,-9.25591,58.2833,-3.04664,-18.5934,-17.4359
0.932324,16.7912,-22.3538,-18.4201,-86.9308,19.1265,34.6153,-0.669942,8.27108,8.15507,1.63534,7.22385,-8.42148,0.133177,2.76195,-8.83297,-4.27714,-3.0501,24.6093,-4.35695,-7.47983,9.07695,-3.29426,-2.52204,1.27222e-14,0,-5.74762,-49.0302,-71.8322,31.9636,-30.9729,-14.1649,-6.95675,7.12502,11.9701,-36.5945,1.27222e-14,0,-42.6506,5.8152,85.1997,55.2312,8.15666,3.18004,48.5491,7.12502,28.6326,76.3754,-21.8823,4.2927,0.650858,40.8501,-11.2226,-15.1971,-15.29,-33.894,-1.80076,-9.81167,58.6132,-5.36088,-15.4994,-20.7744
0.931941,16.7963,-22.176,-11.8072,-87.1558,12.7357,34.401,-0.398733,7.66302,8.08916,1.80973,7.90191,-8.49706,0.208051,3.73608,-9.49361,-4.68722,-3.86216,24.996,-4.73982,-7.50828,9.35998,-3.57064,-2.478,3.81667e-14,7.63333e-14,-6.61478,-49.0245,-69.7794,32.0834,-31.0863,-11.2957,-6.92308,7.12502,14.7356,-36.3793,3.81667e-14,7.63333e-14,-43.063,6.53189,85.9772,54.6316,8.04537,-15.6928,49.9095,7.12502,10.4965,79.6275,-21.5896,4.95002,0.427207,39.8935,-10.4125,-15.7734,-14.9295,-33.88,-2.61064,-10.1288,58.6881,-6.55247,-13.9065,-20.4515
0.929376,16.7883,-21.999,-5.90005,-87.5792,6.71734,34.424,0.375442,6.61432,8.15417,2.49347,8.90765,-8.60747,0.514413,5.11147,-9.64043,-4.89948,-4.3178,25.2847,-4.81393,-8.16696,9.49262,-3.73903,-2.65908,-3.33958e-14,3.81667e-14,-7.72868,-48.8947,-67.101,32.621,-32.6,-9.4218,-6.57946,7.12502,16.5404,-35.8945,-3.33958e-14,3.81667e-14,-43.2654,6.60117,87.4881,53.8141,8.51775,-15.161,48.8739,7.12502,11.0095,78.5652,-21.0254,5.83042,0.185804,38.8964,-9.93509,-15.7591,-14.8042,-33.6172,0.518475,-10.6457,58.6794,-6.91064,-15.8586,-17.0429
0.915927,16.7898,-21.7894,-8.27029,-87.8939,9.01505,34.2164,0.110237,6.7428,8.25732,2.12739,8.54395,-8.3587,0.3499,4.78491,-9.57461,-4.21742,-3.89356,24.9737,-3.87414,-8.43974,9.37293,-3.28642,-2.7088,5.24792e-14,3.18055e-15,-8.4358,-48.2166,-66.6386,33.4674,-34.7821,-8.12941,-5.90301,7.12502,17.7843,-35.1098,5.24792e-14,3.18055e-15,-43.5404,6.88213,87.2374,53.235,8.80708,-16.2083,49.3462,7.12502,9.9992,79.0887,-20.5098,6.51953,-0.599696,37.9575,-9.16366,-16.0213,-14.3494,-33.1322,0.936778,-11.7624,58.5406,-8.39336,-14.7964,-18.0968
0.904814,16.8011,-21.5811,-8.89516,-88.0881,9.68886,33.8721,0.158032,6.81601,8.22483,2.18139,8.39263,-8.25134,0.387738,4.55858,-9.58697,-4.42664,-3.7051,24.9596,-4.21048,-8.39805,9.3536,-3.4176,-2.75934,7.95139e-15,-6.83819e-14,-9.87666,-47.8808,-65.1353,34.4471,-37.3781,-6.69804,-5.2694,7.12502,19.1612,-34.3455,7.95139e-15,-6.83819e-14,-43.8275,6.41338,87.4187,52.4544,8.60239,-13.0085,48.9465,7.12502,13.085,78.5161,-20.1047,7.39437,-1.35647,37.0738,-8.14803,-16.6694,-15.5702,-32.7291,-0.0118404,-12.781,58.3356,-9.93047,-12.5297,-20.3274
0.892474,16.8137,-21.3789,-13.3673,-88.6331,14.023,33.8114,0.464681,6.22782,8.24696,2.37856,8.59514,-8.27152,0.482556,5.01257,-9.07001,-3.88625,-3.37324,24.6361,-3.42301,-9.06566,9.14283,-3.08421,-2.93408,-4.77083e-15,3.02153e-14,-11.0046,-47.1323,-63.5348,35.5931,-39.7617,-5.01021,-4.54052,7.12502,20.7836,-33.4474,-4.77083e-15,3.02153e-14,-44.1459,6.05491,87.9872,51.6289,8.98031,-10.6356,49.2855,7.12502,15.3716,78.6941,-19.6394,7.98375,-2.07091,35.9805,-5.97229,-16.9826,-16.5764,-32.0211,0.198595,-13.7045,57.9589,-10.6433,-11.6825,-17.9304
0.882693,16.818,-21.17,-45.9949,-89.0838,46.4646,34.0239,0.537032,5.66561,8.13914,2.30735,8.34458,-8.49057,0.460737,5.06953,-9.086,-3.82831,-3.63816,24.7839,-3.34177,-8.85831,9.21317,-3.05807,-2.81826,-1.11319e-14,3.18055e-15,-12.2417,-46.5205,-62.5656,37.1024,-41.1286,-2.59443,-4.4193,7.12502,23.1031,-33.0542,-1.11319e-14,3.18055e-15,-44.7853,6.42582,87.974,50.9249,8.89902,-14.2499,49.2033,7.12502,11.8882,78.8458,-19.4242,9.62147,-3.12427,35.3561,-4.61043,-17.8117,-18.3503,-31.1778,0.259523,-14.9148,57.5033,-11.2294,-11.0522,-13.7446
0.862798,16.8642,-20.9272,7.9883,-89.6987,-7.81599,34.1818,0.274612,6.59005,8.0928,2.2883,8.41044,-8.53736,0.425516,4.66377,-8.93093,-3.30653,-3.49443,24.777,-2.57438,-9.21253,9.19859,-2.73075,-2.88382,-7.95139e-15,6.52014e-14,-13.4815,-46.2556,-61.249,38.3106,-40.616,0.671064,-2.54685,7.12502,26.233,-30.7537,-7.95139e-15,6.52014e-14,-45.0888,6.3248,88.2373,50.1256,8.96754,-12.6844,49.0059,7.12502,13.3974,78.5552,-18.9389,10.9271,-3.03472,34.7164,-3.75464,-19.1206,-15.6444,-30.0781,-3.67207,-15.1676,56.9018,-12.5667,-7.10112,-12.9348
0.889546,16.8381,-20.7776,9.23572,-90.7105,-8.82642,34.12,1.13549,5.30327,7.96523,2.9999,8.58392,-8.81003,0.784123,5.26193,-9.36639,-3.74789,-3.63141,25.3724,-3.15343,-9.08748,9.47782,-3.02891,-2.91589,2.06736e-14,6.67916e-14,-15.3594,-47.7108,-59.0415,39.5961,-37.0141,6.69462,-1.59683,7.12502,31.985,-28.8058,2.06736e-14,6.67916e-14,-45.3603,5.89828,88.5557,49.2156,8.75138,-9.88929,49.4159,7.12502,16.0903,78.7678,-19.7748,12.5613,-3.6789,34.5272,-2.8518,-20.5466,-11.1292,-30.1103,1.79796,-15.8052,56.4075,-13.1293,-10.9928,-15.5151
0.88149,16.8533,-20.5507,-4.50654,-90.9283,4.82187,33.9584,0.95027,6.07203,7.88994,2.9931,8.21022,-8.73611,0.780172,4.45506,-9.26419,-3.63791,-2.96143,25.4349,-3.09337,-9.22074,9.4575,-2.95208,-3.0662,7.95139e-15,3.81667e-14,-17.1018,-47.6184,-57.8699,41.3858,-38.4555,8.75141,0.534162,7.12502,33.9412,-26.2626,7.95139e-15,3.81667e-14,-45.4292,5.3527,88.4977,48.1373,8.23401,-15.9512,49.5199,7.12502,10.2473,79.2503,-19.7948,13.147,-3.98278,34.3304,-1.22417,-22.1014,-7.92878,-29.551,0.866007,-16.6316,55.8022,-14.7379,-8.82361,-24.8825
0.869698,16.8781,-20.3385,-3.16334,-91.6216,3.36163,33.8563,1.20548,6.07159,7.86253,3.30241,8.04843,-8.72709,0.930861,4.1652,-8.97309,-3.47829,-2.25401,25.4073,-2.92962,-9.629,9.36918,-2.85061,-3.29947,-2.38542e-14,-5.56597e-14,-18.8764,-47.1491,-56.4363,43.8354,-40.2389,10.6981,0.453359,7.12502,35.7882,-25.9149,-2.38542e-14,-5.56597e-14,-45.5898,4.59126,88.8135,47.2703,7.89528,-11.2439,49.6836,7.12502,14.7856,79.1361,-20.2016,13.5883,-4.29803,34.5264,0.568306,-23.8437,-5.38409,-28.7177,-0.437538,-17.269,55.1594,-14.8679,-8.39333,-17.7519
0.894805,16.9083,-20.1626,-6.30119,-91.9094,7.05043,33.2425,1.51268,5.72177,7.67173,3.58234,8.01132,-8.74263,1.09139,4.2052,-8.94433,-3.32242,-1.48561,25.6267,-2.77674,-9.92687,9.4199,-2.74731,-3.52673,-1.90833e-14,-2.06736e-14,-20.6206,-46.5396,-55.1998,47.0475,-42.6166,12.0518,-1.25954,7.12502,37.0697,-27.3059,-1.90833e-14,-2.06736e-14,-45.7415,3.391,89.0431,46.6645,8.12539,-11.3327,49.181,7.12502,14.7,78.6399,-21.1742,13.639,-4.28179,34.736,2.05969,-25.4307,5.94989,-28.9276,-1.14723,-17.4913,54.5126,-14.483,-9.11786,-7.21876
0.88791,16.9341,-19.9582,-12.5634,-92.3018,13.3943,32.7718,1.39003,5.91764,7.69766,3.4365,7.91763,-8.4978,1.02995,4.05728,-8.99135,-3.00916,-1.27564,25.796,-2.33885,-10.0617,9.50457,-2.54987,-3.57672,-1.27222e-14,-2.70347e-14,-21.5251,-45.7485,-54.4885,50.1161,-44.0417,13.7779,-3.4332,7.12502,38.7,-29.0385,-1.27222e-14,-2.70347e-14,-45.9065,3.22969,88.9362,46.1668,8.03139,-9.24216,49.6887,7.12502,16.7133,78.9893,-21.6832,13.2508,-3.96279,35.1544,2.75785,-26.6554,13.6493,-28.7929,0.189137,-17.7987,53.9429,-13.8536,-11.1201,2.19886
0.899213,16.9528,-19.785,-9.74035,-92.7183,10.4478,32.7077,1.17056,4.95749,7.80604,2.83185,8.22104,-8.42602,0.747864,5.11381,-8.90343,-2.29577,-2.77476,25.6583,-1.15893,-9.76749,9.53913,-2.12354,-3.09542,1.90833e-14,-2.22639e-14,-20.7379,-43.4789,-54.9374,52.8744,-44.8724,14.5295,-4.36366,7.12502,39.4086,-29.7654,1.90833e-14,-2.22639e-14,-46.3235,5.0698,88.8995,45.8227,7.62259,-11.0793,50.0055,7.12502,14.9441,79.4463,-22.272,12.6217,-3.66103,36.1885,2.89171,-27.0529,17.4511,-28.5079,3.53476,-18.3418,53.4643,-12.9922,-14.5758,10.2495
0.880145,16.9794,-19.5906,-3.56494,-93.3294,4.06667,32.4396,1.40284,4.56897,7.91814,2.95582,8.07318,-8.22173,0.81754,5.11583,-8.91608,-2.02076,-2.68555,25.8813,-0.78202,-9.75604,9.63633,-1.95179,-3.07808,1.59028e-14,7.63333e-14,-21.6796,-42.4973,-54.4872,55.3649,-44.409,13.6353,-1.66171,7.12502,38.5656,-27.3048,1.59028e-14,7.63333e-14,-46.5809,4.78569,88.9812,45.4812,7.49444,-13.833,50.3983,7.12502,12.2901,80.0171,-22.5946,11.8913,-3.59773,36.9833,2.28228,-26.0954,19.7179,-27.8058,4.86916,-19.2558,52.7546,-12.025,-16.0582,20.1033
0.900041,16.97,-19.4473,-5.87182,-93.5892,6.54217,32.1582,1.59489,4.21917,7.84944,3.09629,8.11848,-8.22688,0.897593,5.30114,-9.46901,-2.292,-2.75293,26.5037,-1.13415,-9.58536,9.95481,-2.13849,-3.08378,1.74931e-14,6.83819e-14,-22.7114,-42.7535,-53.7271,58.4235,-44.3687,14.6765,-2.39945,7.12502,39.547,-27.7606,1.74931e-14,6.83819e-14,-46.8605,4.68065,88.8646,45.2654,7.4858,-17.0762,51.1087,7.12502,9.16179,80.8897,-23.4987,10.8059,-2.76421,38.4177,1.09479,-24.4589,19.5417,-27.7164,7.51899,-20.2546,51.9388,-14.8626,-14.7312,-3.23062
0.915727,17.0958,-19.2649,-9.02737,-93.5954,9.55974,32.147,1.43998,4.16301,7.88478,2.86914,8.12341,-8.17195,0.787872,5.41889,-9.52724,-1.74895,-2.72295,26.5672,-0.351787,-9.63013,10.024,-1.78828,-3.02538,1.59028e-15,-9.54166e-15,-23.2208,-42.5784,-53.4623,61.2636,-43.6035,15.6045,-2.1925,7.12502,40.4203,-27.2904,1.59028e-15,-9.54166e-15,-47.1982,5.31425,88.6654,45.2619,7.30712,-14.8476,50.4348,7.12502,11.3117,80.1098,-23.5639,9.51333,-1.66656,39.4663,0.345246,-22.6873,18.3983,-26.4446,-1.78148,-20.6264,50.6753,-14.3442,-7.24135,10.681
0.940396,17.1074,-19.1241,-0.0687195,-93.3393,0.495008,32.1239,1.43648,3.45746,7.84,2.64739,7.86477,-8.22489,0.706313,5.59922,-10.006,-1.85014,-2.82962,27.0956,-0.473288,-9.41264,10.3085,-1.86167,-2.97629,-9.54166e-15,-1.90833e-14,-24.2383,-42.8818,-53.0297,64.2308,-42.1559,16.3583,-1.615,7.12502,41.1286,-26.4904,-9.54166e-15,-1.90833e-14,-47.5996,5.77495,88.2698,45.3335,6.66793,-13.2803,50.0753,7.12502,12.8229,79.6615,-24.0258,8.10454,-1.33366,41.0634,-0.46267,-21.2022,17.2723,-25.7134,-2.60168,-22.3875,49.4052,-14.9261,-2.8571,-15.1056
0.959921,17.1938,-18.9643,4.4176,-93.1732,-4.09511,32.0318,1.38263,3.27989,7.85648,2.5029,7.57058,-8.14767,0.650232,5.42964,-9.84736,-1.49598,-2.47726,27.1154,-0.0643453,-9.33144,10.2956,-1.62608,-2.95831,-3.33958e-14,-7.95139e-14,-25.4255,-43.2948,-52.6578,67.5825,-41.7218,16.2726,-1.61228,7.12502,41.0482,-26.5133,-3.33958e-14,-7.95139e-14,-47.6085,5.78744,87.4575,45.1695,5.92001,-11.3888,49.997,7.12502,14.646,79.4598,-24.1239,7.12499,-0.538025,42.3058,-1.70463,-20.5336,16.1996,-25.0263,-3.06534,-22.7837,48.0924,-13.1892,-5.90447,14.216
0.984036,17.2579,-18.8223,13.669,-92.9572,-13.4231,32.0021,1.38547,2.80975,7.83695,2.35648,7.32824,-8.15767,0.598244,5.47468,-10.1006,-1.68982,-2.31922,27.3903,-0.355315,-9.28512,10.4313,-1.75193,-3.01839,3.97569e-14,4.45278e-14,-26.619,-43.3873,-52.1623,70.8575,-42.1813,15.6396,-1.41106,7.12502,40.4534,-26.4987,3.97569e-14,4.45278e-14,-47.6469,5.688,87.0839,45.1329,6.95878,-12.3357,49.7666,7.12502,13.7335,79.2933,-24.4759,6.22674,0.0779101,44.0003,-3.57377,-20.1667,16.4912,-24.3893,-2.81129,-23.8897,46.8029,-12.2344,-5.82761,12.8796
1.00855,17.3393,-18.6816,20.8197,-92.9649,-20.572,31.9367,1.42614,2.32043,7.83871,2.24974,7.1773,-8.13933,0.561283,5.6147,-9.31713,-1.18837,-2.05332,26.716,0.282247,-9.49331,10.0545,-1.41562,-3.02358,3.18055e-15,0,-27.6273,-43.274,-51.727,74.1814,-42.7305,14.8929,-1.30441,7.12502,39.7508,-26.6051,3.18055e-15,0,-47.6506,4.68581,86.9692,45.3183,8.4262,-12.5683,49.6005,7.12502,13.5093,79.1424,-24.8591,5.3768,0.894221,45.4329,-4.30657,-19.3995,15.8447,-23.8587,-3.07964,-24.7948,45.6213,-11.1903,-5.47057,9.44227
1.02463,17.4016,-18.5325,23.5981,-92.0919,-23.4483,31.966,0.920659,2.98681,7.7774,1.8198,7.10803,-8.14206,0.352408,5.33503,-8.78231,-0.831986,-2.0535,26.2819,0.766502,-9.62854,9.81627,-1.18028,-2.9937,-1.11319e-14,-5.725e-14,-28.6638,-43.0868,-51.2517,77.4913,-43.4193,14.0453,-1.33162,7.12502,38.9523,-26.8653,-1.11319e-14,-5.725e-14,-47.743,5.07529,86.6977,45.3872,8.27874,-13.1174,49.7625,7.12502,12.9801,79.3388,-24.8471,4.14225,2.36583,46.8256,-4.78007,-18.8846,15.3984,-23.2119,-3.99242,-25.6515,44.4294,-10.8009,-2.74726,-20.8152
1.06326,17.5137,-18.3996,43.3663,-92.1204,-42.8122,31.5727,0.895762,2.31615,7.71384,1.57664,6.89971,-8.05704,0.265403,5.55788,-9.57119,-1.08388,-2.39712,26.6467,0.483208,-9.33041,10.0926,-1.33935,-2.88577,-7.95139e-15,-1.11319e-14,-29.4785,-42.7966,-51.0129,80.6551,-43.8846,12.9885,-1.37554,7.12502,37.955,-27.187,-7.95139e-15,-1.11319e-14,-47.7562,6.09854,86.022,45.501,7.73083,-14.0083,50.2308,7.12502,12.1211,79.8597,-25.5042,3.1468,3.09485,48.1379,-5.63338,-18.7702,14.9612,-23.2921,-3.42941,-26.2696,43.2573,-8.26391,-5.80084,-0.73205
1.10237,17.6399,-18.27,63.4232,-91.7862,-62.8506,31.6905,0.63282,2.28914,7.69231,1.24139,6.84226,-8.09826,0.109729,5.63087,-8.97874,-0.553711,-2.40741,26.1936,1.20337,-9.44401,9.84543,-0.991296,-2.82007,-1.74931e-14,5.88403e-14,-30.2293,-42.4453,-50.7981,83.7285,-43.8575,11.7755,-0.939633,7.12502,36.8084,-27.0534,-1.74931e-14,5.88403e-14,-47.6228,6.90639,85.5586,45.5647,7.40126,-15.9578,50.923,7.12502,10.2409,80.6537,-25.5371,2.2352,4.38351,49.2781,-6.66943,-18.7305,15.6749,-23.066,-3.57856,-26.2901,42.2101,-4.7025,-7.70776,21.707
1.11955,17.706,-18.128,80.511,-91.9082,-79.8217,31.4274,0.494756,2.35233,7.72541,1.07026,6.75112,-7.93519,0.0339113,5.55515,-9.17986,-0.764116,-2.83991,26.1404,0.962084,-9.25741,9.8574,-1.12323,-2.706,2.70347e-14,2.38542e-14,-31.2148,-42.2532,-50.1297,86.6994,-43.791,10.5962,-0.317956,7.12502,35.6916,-26.7096,2.70347e-14,2.38542e-14,-47.0398,5.5159,85.5244,45.5177,8.75179,-12.9051,49.7295,7.12502,13.1847,79.2926,-25.9063,1.09266,5.45281,50.4707,-6.83787,-18.3576,14.5699,-22.8344,-2.08062,-27.7047,41.1111,-4.30397,-8.08871,-8.31306
1.17458,17.8096,-18.023,109.141,-91.9137,-108.059,31.3242,0.352384,2.26073,7.58505,0.902283,6.90845,-8.0446,-0.0343515,5.834,-9.28428,-0.90074,-3.09351,26.0927,0.824049,-9.24721,9.85787,-1.20902,-2.67365,-3.49861e-14,-7.63333e-14,-32.1974,-42.2121,-49.4694,89.711,-43.7867,9.68618,0.0129832,7.12502,34.8286,-26.5829,-3.49861e-14,-7.63333e-14,-47.0084,6.76484,85.1642,45.7079,7.26799,-16.0844,50.8633,7.12502,10.1188,80.6,-26.3956,-0.485437,7.33374,51.4759,-6.18819,-18.5171,9.61974,-23.1914,-0.599975,-27.7665,40.204,-1.55526,-10.809,-5.59933
1.2127,17.914,-17.8992,127.188,-92.225,-125.813,31.1684,0.124291,2.38208,7.52655,0.659261,6.91521,-8.02091,-0.143891,5.85913,-8.6247,-0.598207,-3.27907,25.3984,1.19104,-9.17924,9.49586,-1.00211,-2.54535,-1.27222e-14,-1.90833e-14,-33.036,-42.1224,-49.0641,92.721,-43.4374,8.94174,0.457449,7.12502,34.1219,-26.2992,-1.27222e-14,-1.90833e-14,-46.6926,6.88631,84.7956,45.987,7.53794,-15.2151,50.4558,7.12502,10.9572,80.1498,-26.8518,-1.50171,8.82438,52.45,-7.54326,-18.2498,11.7756,-23.3559,0.164358,-28.0132,39.2256,1.20267,-12.4857,-6.91482
1.26042,18.0156,-17.7806,145.06,-92.7474,-143.195,30.9487,-0.153063,2.60555,7.36672,0.405958,7.00966,-8.08188,-0.254744,5.92721,-8.58645,-0.480212,-3.52753,25.3721,1.38437,-9.11942,9.488,-0.927783,-2.46077,-4.77083e-15,7.15625e-14,-33.7828,-41.9636,-48.6964,95.5702,-42.6754,8.55811,0.77378,7.12502,33.7575,-26.0635,-4.77083e-15,7.15625e-14,-46.4437,7.30412,84.5344,46.3376,7.41788,-14.4737,50.7594,7.12502,11.6724,80.4143,-27.4864,-2.95914,10.6644,53.2573,-7.55077,-18.0435,11.6723,-23.9176,0.378083,-27.9542,38.501,4.41541,-13.8901,-8.04773
1.28883,18.1102,-17.6396,146.375,-93.4982,-144.349,30.6469,-0.310707,2.53059,7.67843,0.164275,6.62303,-8.13179,-0.31654,6.05233,-8.11874,-0.18792,-3.59609,24.7437,1.71211,-8.94344,9.18488,-0.717241,-2.32912,-3.97569e-14,4.6118e-14,-34.5531,-41.8929,-48.4364,98.4473,-41.4185,7.85813,1.11043,7.12502,33.0921,-25.8703,-3.97569e-14,4.6118e-14,-46.1073,7.19285,84.2146,46.7116,7.39574,-15.1751,51.2793,7.12502,10.9958,80.9713,-27.8129,-4.68851,11.7356,53.9881,-6.85716,-17.141,10.6038,-23.9091,1.07907,-28.5569,37.6342,7.85515,-15.417,-7.99907
1.34625,18.1962,-17.5125,154.278,-94.4191,-151.801,30.5098,-0.595209,2.66978,7.53557,-0.129453,6.6208,-8.20373,-0.444292,6.07516,-9.11285,-0.637858,-3.50045,25.2237,1.18075,-8.93312,9.52687,-0.992572,-2.42089,2.06736e-14,-6.36111e-15,-35.1317,-41.8006,-48.3519,101.245,-39.5504,7.14691,1.64673,7.12502,32.4155,-25.475,2.06736e-14,-6.36111e-15,-45.8027,6.41791,84.1253,47.3061,8.10444,-14.5133,50.9951,7.12502,11.6342,80.6521,-28.534,-6.82196,13.3799,54.774,-5.9313,-16.2944,15.4842,-24.4247,0.124627,-27.9225,36.6919,15.1087,-11.7053,21.4769
1.37121,18.289,-17.3681,158.061,-94.8148,-155.313,30.1753,-0.742591,2.88054,7.56347,-0.271426,6.64328,-7.99899,-0.514296,6.01081,-8.63098,-0.285627,-3.20958,24.6961,1.6419,-9.28039,9.2663,-0.752263,-2.52171,1.59028e-14,-3.02153e-14,-35.4536,-41.6283,-48.2839,103.957,-37.1165,6.73651,2.07897,7.12502,32.0248,-25.122,1.59028e-14,-3.02153e-14,-45.6644,6.83882,84.0724,47.9547,7.74504,-15.1016,50.7823,7.12502,11.0667,80.4705,-28.9852,-7.62144,14.7525,55.4035,-6.10384,-15.0196,19.5879,-24.6154,0.425229,-27.7494,35.6222,18.0497,-12.7043,-2.19892
1.42503,18.3203,-17.2608,159.716,-95.6849,-156.732,30.2832,-0.495119,2.85662,7.39113,0.0775488,6.43922,-8.27888,-0.328309,5.67214,-8.5911,-0.807418,-2.32706,24.6602,0.723697,-9.04652,9.19785,-1.05668,-2.67945,-1.11319e-14,-2.70347e-14,-37.3337,-42.3553,-47.214,106.797,-34.391,6.04924,2.53062,7.12502,31.3702,-24.7996,-1.11319e-14,-2.70347e-14,-45.2495,5.28373,83.9039,48.5689,8.07783,-15.2767,51.085,7.12502,10.8979,80.7822,-29.5433,-8.4193,16.017,56.113,-5.42113,-14.0489,14.7577,-24.8015,1.55393,-28.0313,34.652,19.9871,-14.8195,-2.60749
1.46048,18.397,-17.1237,161.358,-96.1801,-158.15,30.1433,-0.493455,2.94791,7.3162,0.115758,6.37569,-8.30029,-0.303013,5.52716,-8.3124,-0.816746,-2.22048,24.5235,0.646489,-8.92453,9.09126,-1.05552,-2.65409,-3.65764e-14,-7.4743e-14,-37.8803,-41.9474,-46.9167,109.334,-31.3938,4.92015,3.15558,7.12502,30.2938,-24.3781,-3.65764e-14,-7.4743e-14,-45.111,4.73211,84.0835,49.1242,7.59166,-15.1566,52.0165,7.12502,11.0137,81.7076,-29.8438,-9.26849,17.2685,56.47,-4.24737,-12.3789,8.22453,-24.8401,-0.898421,-27.0642,33.7319,20.7851,-10.3273,-11.3748
1.50349,18.4542,-16.9944,165.791,-96.2024,-162.047,29.7071,-0.516615,2.92699,7.22154,0.0903043,6.61459,-8.19668,-0.31036,5.80964,-7.91058,-0.62504,-2.75691,23.9119,0.87229,-8.53543,8.81319,-0.922353,-2.38271,-3.02153e-14,-2.38542e-14,-37.2951,-40.7935,-47.3233,111.674,-28.137,3.78252,3.58431,7.12502,29.208,-24.1435,-3.02153e-14,-2.38542e-14,-45.1863,4.82242,84.0818,49.9504,7.77392,-14.4203,51.9406,7.12502,11.7238,81.5925,-30.5152,-9.42897,18.9623,56.6649,-3.05933,-10.4244,4.50643,-25.4842,-0.977622,-26.1534,33.2285,17.2717,-15.4186,-33.4285
1.5356,18.5024,-16.8564,159.311,-96.7855,-155.64,29.7943,-0.633498,1.80786,7.27502,-0.391275,6.51078,-8.1371,-0.520216,6.52192,-7.60922,-0.140767,-3.18924,23.5962,1.58071,-8.56071,8.6756,-0.61578,-2.23973,-3.49861e-14,-3.18055e-15,-36.1173,-39.2412,-48.2263,113.848,-24.8763,3.62237,3.83323,7.12502,29.0551,-23.921,-3.49861e-14,-3.18055e-15,-45.3747,5.66975,83.9037,50.8551,8.1208,-16.864,51.0329,7.12502,9.36659,80.8048,-30.2507,-9.59122,18.9294,56.7343,-2.11884,-8.37113,4.28149,-25.3366,0.198711,-26.785,33.0468,9.71997,-20.4697,-39.7635
1.57285,18.5542,-16.7164,165.856,-96.9491,-161.901,29.4823,-0.743073,2.49439,7.17307,-0.323479,6.57192,-8.10993,-0.492576,6.15303,-8.14309,-0.596615,-3.10495,24.0512,0.930498,-8.242,8.90809,-0.906618,-2.22364,-7.95139e-15,-5.24792e-14,-35.9858,-38.441,-48.6496,115.952,-22.0293,3.28063,4.17219,7.12502,28.7287,-23.6379,-7.95139e-15,-5.24792e-14,-45.3655,5.09405,83.7051,51.6946,8.68609,-16.2009,50.7393,7.12502,10.0064,80.4814,-30.4104,-9.79098,20.6171,56.6159,-1.25972,-6.68743,5.611,-25.7209,-2.11776,-24.9931,33.2576,11.1079,-15.562,-35.8623
1.59942,18.5786,-16.5704,162.106,-97.0949,-158.206,29.3834,-0.685329,2.0308,7.19023,-0.40227,6.30936,-8.03781,-0.518209,6.14253,-7.96995,-0.396407,-3.016,23.9288,1.15256,-8.10557,8.83781,-0.770926,-2.16486,1.74931e-14,1.11319e-14,-35.4667,-37.2738,-49.3394,117.945,-19.0794,2.75528,4.39565,7.12502,28.2267,-23.4985,1.74931e-14,1.11319e-14,-45.5284,4.99294,83.4403,52.532,8.95623,-15.6015,50.6319,7.12502,10.5846,80.3454,-30.1085,-9.84418,20.7248,56.5317,0.0490226,-3.61674,-0.958069,-25.6265,-2.5027,-24.6926,33.6163,9.05125,-7.95338,-11.5194
1.66586,18.575,-16.4485,162.281,-97.6808,-158.026,29.2405,-0.513772,2.12359,6.98669,-0.143651,5.89818,-8.22722,-0.374004,5.52196,-7.43918,-0.56403,-2.17871,23.6684,0.692395,-7.81724,8.62302,-0.853173,-2.2385,4.77083e-15,5.40694e-14,-35.8813,-36.8808,-49.8975,120.03,-16.9418,1.53753,4.23893,7.12502,27.0622,-23.8418,4.77083e-15,5.40694e-14,-45.3868,3.3572,83.2346,53.3363,9.19273,-15.5449,50.91,7.12502,10.6392,80.6207,-30.3726,-9.83514,21.2596,56.4868,0.603334,-1.89143,-0.174253,-26.1401,-2.91416,-24.214,33.8911,5.62125,-8.44247,-31.256
1.68992,18.5715,-16.3188,163.724,-97.362,-159.481,29.1775,-0.21946,2.29197,6.99835,0.266436,5.70988,-8.21461,-0.180568,5.05794,-7.30137,-0.77172,-1.95331,23.5178,0.249763,-7.25687,8.52573,-0.969668,-2.12066,-6.36111e-15,-5.08889e-14,-35.4629,-36.1253,-50.7411,121.606,-13.8077,1.63462,4.45406,7.12502,27.1551,-23.6122,-6.36111e-15,-5.08889e-14,-45.3385,2.40029,82.9447,54.1283,9.48519,-15.1171,49.8371,7.12502,11.0518,79.5262,-30.0951,-8.87183,22.0609,56.2508,0.70895,-1.03879,1.79013,-26.238,-2.4963,-23.3004,34.307,2.0153,-7.89974,-42.6238
1.71754,18.5759,-16.1887,145.286,-97.7243,-141.47,29.5335,0.558335,-0.301475,7.1584,0.45361,4.94769,-8.24129,-0.0468871,5.64317,-7.47278,-0.744648,-1.53864,23.7785,0.250578,-7.2943,8.64322,-0.947312,-2.21206,1.27222e-14,-3.33958e-14,-34.4341,-34.7064,-51.8921,122.8,-10.9781,1.81132,4.9789,7.12502,27.3241,-23.0609,1.27222e-14,-3.33958e-14,-45.4914,2.16435,82.5326,54.9818,9.60124,-15.4092,49.7504,7.12502,10.7701,79.4543,-29.1405,-8.17153,19.8618,56.0753,0.818965,0.00978747,1.67475,-25.2788,-1.62492,-24.9722,34.6057,-1.38379,-6.22318,-20.1125
1.7749,18.5724,-16.058,149.647,-97.456,-146.347,30.1647,0.523505,0.354598,7.15432,0.601969,4.91579,-8.5577,0.010642,5.18746,-7.45799,-0.775929,-1.25745,23.813,0.116698,-7.05194,8.64421,-0.958783,-2.19005,6.36111e-15,0,-33.4197,-33.1961,-53.1022,123.819,-8.49836,1.47049,5.30776,7.12502,26.9981,-22.7829,6.36111e-15,0,-45.6097,1.66505,82.2376,55.665,9.86382,-16.1511,49.479,7.12502,10.0544,79.2188,-28.0532,-7.53178,21.0302,55.4836,1.07867,-0.39272,-1.89773,-24.9534,-1.09656,-23.2239,35.0942,-2.59602,-6.2478,0.247333
1.82715,18.5557,-15.9135,149.569,-97.5767,-146.756,30.7424,0.591551,0.441827,7.09657,0.716393,4.74878,-8.90837,0.0666958,4.92007,-6.96752,-0.90926,-1.41856,23.5224,-0.184612,-6.52385,8.4443,-1.04336,-1.99795,-1.11319e-14,-2.22639e-14,-32.5292,-31.5716,-54.1016,124.721,-5.95189,0.911986,5.4802,7.12502,26.4636,-22.6921,-1.11319e-14,-2.22639e-14,-45.7455,1.01073,82.0799,56.2656,10.4873,-16.5504,49.2696,7.12502,9.66914,79.0277,-26.9854,-7.13117,21.2074,54.9271,1.71474,-1.37185,-2.97677,-24.4855,-0.50517,-22.3511,35.4147,-2.55015,-7.07617,-27.3363
1.87524,18.5256,-15.7767,146.515,-98.1737,-143.857,30.9483,0.749976,-0.325968,7.00261,0.690324,4.59354,-9.12105,0.0799005,5.20999,-7.54532,-1.21079,-1.53472,24.158,-0.576433,-6.39019,8.76002,-1.25086,-1.99202,-8.74653e-15,-9.54166e-15,-31.3672,-29.706,-55.0875,125.385,-3.1117,0.712934,5.92438,7.12502,26.2731,-22.2765,-8.74653e-15,-9.54166e-15,-45.8624,0.668567,82.0051,56.8156,11.1155,-16.7983,49.2131,7.12502,9.42999,78.9821,-26.1804,-6.83811,20.6571,54.1873,2.21594,-2.92873,-0.162206,-24.5336,-0.374264,-22.1305,36.1701,-4.12774,-7.38393,-27.4325
1.91651,18.4884,-15.6605,144.849,-99.0346,-141.924,30.6103,0.858745,-1.24431,6.89462,0.55763,4.42196,-9.07714,0.0495859,5.5947,-7.43591,-1.11228,-1.45174,23.9032,-0.481507,-6.25958,8.65368,-1.17385,-1.94449,1.90833e-14,-9.54166e-15,-30.0856,-27.8051,-56.2127,125.853,-0.258882,0.707811,6.47074,7.12502,26.2682,-21.7308,1.90833e-14,-9.54166e-15,-45.7979,0.404278,81.8789,57.2734,11.314,-17.5185,49.0156,7.12502,8.73496,78.8148,-25.8423,-6.23049,20.1326,53.5838,1.78696,-4.58153,0.986033,-24.9006,-1.27153,-21.7295,36.513,-4.79734,-7.04327,-31.3846
1.97055,18.4337,-15.4986,150.659,-98.9501,-148.278,30.9195,0.455587,0.147137,6.98874,0.450609,4.39237,-9.09509,-0.0390332,4.78899,-6.64898,-0.854036,-1.37604,23.2119,-0.210445,-6.10659,8.2784,-0.992882,-1.85547,1.03368e-14,-2.8625e-14,-28.7782,-25.4268,-57.6992,126.276,1.99718,-0.262756,6.09697,7.12502,25.3387,-22.2397,1.03368e-14,-2.8625e-14,-45.7537,0.4913,81.5657,57.7081,10.8058,-14.9057,48.6953,7.12502,11.2557,78.3733,-24.501,-5.66983,21.1011,52.6334,0.5496,-5.53732,0.769089,-24.8655,-0.578438,-19.7033,37.2783,-4.72912,-8.20572,-29.6764
1.98684,18.3738,-15.3847,142.69,-100.632,-139.778,30.0575,0.814757,-1.98139,6.98005,0.237547,3.82831,-8.67922,-0.0888155,5.44256,-7.01319,-1.06188,-1.1444,23.2969,-0.517686,-6.04403,8.36345,-1.11333,-1.90643,7.15625e-15,-1.27222e-14,-27.6618,-22.647,-59.3215,126.9,3.31193,-2.81419,3.89107,7.12502,22.8923,-24.7701,7.15625e-15,-1.27222e-14,-45.4317,0.385348,81.5204,57.9398,10.2531,-18.4399,47.8555,7.12502,7.84577,77.6899,-24.3672,-5.46091,18.7731,52.1075,-1.68058,-6.43457,-0.651367,-25.2294,-3.53188,-20.7195,37.688,-5.88458,-5.34311,-30.4743
2.02939,18.3103,-15.2012,154.113,-99.8227,-152.151,31.3009,0.106089,0.373966,6.41521,0.118967,4.62529,-9.22389,-0.222747,4.70195,-6.73888,-0.793619,-1.89584,23.3493,-0.161423,-5.53243,8.34791,-0.963818,-1.57375,-3.97569e-15,-3.18055e-14,-26.7555,-19.717,-60.309,127.003,5.93938,-2.84134,4.29689,7.12502,22.8662,-24.3675,-3.97569e-15,-3.18055e-14,-46.087,1.10225,81.4301,58.331,10.145,-18.6195,47.9964,7.12502,7.67242,77.8372,-22.5624,-5.6263,21.0524,51.2107,-4.49466,-7.52675,-1.3055,-24.8723,-2.79881,-17.316,38.5422,-5.96105,-5.64556,-31.5494
2.09363,18.2248,-15.0781,148.638,-100.884,-146.649,31.4642,0.260273,-0.98921,6.34648,-0.134355,4.25708,-9.35067,-0.301415,5.14304,-7.23482,-0.923627,-1.89062,23.4305,-0.306557,-5.53078,8.46434,-1.03581,-1.59349,9.54166e-15,3.02153e-14,-25.6411,-17.5337,-61.6225,126.979,8.27215,-3.20135,4.34774,7.12502,22.5207,-24.3589,9.54166e-15,3.02153e-14,-45.7772,1.02702,81.0452,58.565,10.4905,-17.5222,48.2009,7.12502,8.73142,78.0003,-22.1642,-5.40942,19.4955,50.9943,-6.82062,-8.85301,-1.69682,-25.0809,-2.56095,-17.6129,38.9349,-5.43064,-5.73455,-29.9176
2.13419,18.1471,-14.9231,148.087,-101.248,-146.444,31.7616,0.126691,-0.918202,6.36863,-0.301455,4.10951,-9.42854,-0.382822,5.0106,-6.9875,-0.791712,-1.96169,22.9453,-0.0957296,-5.67794,8.25924,-0.938232,-1.59946,-3.97569e-15,1.59028e-15,-24.5543,-15.0282,-62.6931,126.579,10.2631,-3.93842,4.18006,7.12502,21.8131,-24.6106,-3.97569e-15,1.59028e-15,-45.5729,1.31674,80.7369,58.7144,10.1627,-15.6898,48.5542,7.12502,10.4994,78.272,-21.3599,-4.81436,18.984,50.601,-8.39866,-10.172,-3.81899,-25.0362,-3.14363,-16.632,39.6366,-4.93183,-4.78828,-25.6159
2.19582,18.0644,-14.7949,149.979,-101.634,-148.345,31.9551,-0.0564967,-0.923217,6.2288,-0.504517,4.2733,-9.64579,-0.468727,5.27038,-7.64501,-0.887451,-2.62652,23.2848,-0.131914,-5.42779,8.50221,-1.00536,-1.41932,7.39479e-14,2.22639e-14,-23.4176,-12.0878,-63.4574,125.794,12.0591,-4.86354,4.17149,7.12502,20.9245,-24.7199,7.39479e-14,2.22639e-14,-45.5452,2.04064,80.5676,58.8626,9.5659,-13.4369,49.0729,7.12502,12.6721,78.6684,-21.2149,-4.07111,18.9592,50.5857,-10.0368,-11.596,-6.34235,-25.3397,-4.23759,-15.0693,40.0175,-4.11608,-3.40587,-20.2639
2.23999,17.9859,-14.6371,150.587,-101.657,-149.449,32.3995,-0.205478,-0.827502,6.29818,-0.660124,4.46764,-9.73598,-0.552833,5.49237,-7.16635,-0.462941,-3.42515,22.5757,0.505381,-5.26687,8.18885,-0.728674,-1.15613,3.26007e-14,-1.59028e-14,-22.0876,-8.97855,-64.2445,125.01,14.2523,-5.27291,4.29297,7.12502,20.5312,-24.6414,3.26007e-14,-1.59028e-14,-45.5031,3.14751,80.4638,58.951,9.28799,-13.2864,49.1684,7.12502,12.8171,78.7549,-20.4663,-3.35096,18.7256,50.4288,-11.8636,-12.4843,-6.45542,-25.0385,-4.78482,-13.6938,40.5309,-3.67243,-2.15512,-19.357
2.29265,17.8978,-14.4753,149.146,-101.783,-148.043,32.4761,-0.260743,-1.13362,6.32545,-0.843469,4.39681,-9.71707,-0.633387,5.65116,-7.22403,-0.309552,-3.73384,22.1607,0.780009,-5.34107,8.06553,-0.615826,-1.09848,-7.15625e-15,3.02153e-14,-20.8563,-6.17038,-65.3933,124.124,16.7461,-5.84587,4.2323,7.12502,19.9805,-24.7605,-7.15625e-15,3.02153e-14,-45.3563,4.36758,80.202,59.0075,9.31025,-14.9728,48.8258,7.12502,11.1909,78.5073,-20.3683,-2.7753,17.8771,50.4205,-13.7321,-13.0304,-3.81651,-25.2292,-4.68837,-12.8571,41.0998,-2.97271,-1.3975,-18.8287
2.34865,17.827,-14.3106,151.365,-101.099,-150.905,33.1827,-0.391794,-0.350275,6.43083,-0.760431,4.5548,-9.89115,-0.628368,5.37924,-7.5356,-0.160851,-3.70689,22.0122,1.06673,-5.63853,8.07899,-0.50417,-1.17568,-2.06736e-14,-1.11319e-14,-19.7963,-3.47752,-66.3686,122.863,18.7968,-6.65358,4.16482,7.12502,19.204,-24.907,-2.06736e-14,-1.11319e-14,-45.1827,5.35643,79.926,59.0096,9.33778,-14.2358,49.4858,7.12502,11.9018,79.1275,-19.6427,-2.05874,18.2666,50.325,-14.8885,-13.7377,-4.88609,-24.8278,-4.14498,-10.8264,41.7701,-2.34456,-0.664758,-18.5869
2.40647,17.7453,-14.1581,152.786,-100.494,-152.594,33.6578,-0.338135,-0.061803,6.46952,-0.587391,4.74943,-10.0514,-0.564149,5.3781,-8.38195,-0.139969,-3.75745,22.2896,1.2214,-5.82441,8.33339,-0.474735,-1.22277,1.59028e-14,4.29375e-14,-18.7776,-0.893245,-67.1677,121.356,20.588,-7.41496,4.27942,7.12502,18.4717,-24.8636,1.59028e-14,4.29375e-14,-44.9208,6.2027,79.7623,58.9063,9.05928,-14.2165,50.0177,7.12502,11.9203,79.6583,-19.4868,-1.45002,18.3784,50.4222,-15.5096,-14.366,-8.64119,-24.7718,-3.90291,-9.01304,42.3813,-1.73588,0.492528,-18.455
2.46631,17.6565,-13.999,155.513,-100.293,-155.541,33.9644,-0.536895,0.658195,6.5766,-0.599329,4.85852,-10.0475,-0.599567,5.11556,-8.7925,-0.0728324,-3.97743,22.2845,1.41577,-5.95524,8.41319,-0.419245,-1.21282,2.62396e-14,-3.65764e-14,-17.8251,1.33557,-67.8524,119.733,22.0712,-8.11961,4.56143,7.12502,17.7937,-24.6445,2.62396e-14,-3.65764e-14,-44.604,7.51398,79.5137,58.8326,8.11028,-14.7162,50.1233,7.12502,11.4385,79.7913,-19.4434,-1.43579,18.4221,50.5735,-16.5839,-14.466,-8.62205,-24.9122,-3.50648,-7.20401,42.8886,-1.21279,0.987655,-18.5909
2.51434,17.5783,-13.8426,154.644,-99.9602,-154.897,34.3038,-0.488483,0.135408,6.67801,-0.708192,5.16173,-10.0629,-0.651915,5.77417,-9.31317,0.130345,-4.8189,22.2192,1.87543,-5.90931,8.49509,-0.275694,-1.01273,5.00937e-14,-4.77083e-14,-16.6175,4.32784,-68.1197,117.762,23.3356,-9.01752,5.19478,7.12502,16.9296,-24.0874,5.00937e-14,-4.77083e-14,-44.8495,10.1466,79.2699,59.0382,7.00564,-14.8102,50.5337,7.12502,11.3478,80.2067,-19.4614,-1.2656,17.8137,50.9497,-18.2134,-13.8888,-4.57624,-24.6011,-3.88046,-5.99618,43.2189,-1.02584,2.74491,-16.9166
2.56824,17.5089,-13.6775,155.135,-100.08,-155.478,34.4343,-0.549368,0.310099,6.70799,-0.72774,5.16294,-10.0766,-0.668077,5.69089,-9.13423,0.290045,-4.88557,21.8133,2.07513,-5.87206,8.32484,-0.159782,-0.963702,-3.97569e-15,1.11319e-14,-16.0247,6.21464,-68.7068,115.57,24.618,-10.1129,5.75484,7.12502,15.875,-23.6144,-3.97569e-15,1.11319e-14,-44.6359,11.0846,79.1459,58.9262,6.61744,-15.5703,50.6454,7.12502,10.6147,80.3573,-19.6235,-1.53734,17.2128,51.3837,-19.4567,-13.6807,-2.86124,-24.5102,-5.86082,-4.76049,43.3511,-0.971431,5.67346,-12.8844
2.62437,17.422,-13.5157,155.608,-100.136,-155.939,34.4687,-0.131719,0.929697,6.60463,0.00046711,4.74397,-10.2495,-0.332114,4.62363,-9.03522,-0.211733,-2.95281,22.0135,1.16525,-6.3775,8.36249,-0.478174,-1.54671,3.18055e-14,5.40694e-14,-16.5879,6.04222,-69.769,113.202,26.1783,-11.5346,5.93606,7.12502,14.5055,-23.5369,3.18055e-14,5.40694e-14,-43.8353,9.10411,79.1675,58.4695,6.87137,-17.1238,50.7854,7.12502,9.11585,80.5684,-20.0041,-1.56326,16.7074,51.9089,-20.0025,-14.1777,-4.79194,-24.6314,-4.82939,-3.58371,43.273,-0.552095,5.84093,-10.9756
2.66168,17.3504,-13.3392,152.808,-100.081,-153.712,35.0005,-0.0177763,0.63414,6.86833,-0.00632063,4.64693,-10.1568,-0.349068,4.68432,-9.66891,-0.199559,-2.88329,22.2357,1.25835,-6.52961,8.5595,-0.460609,-1.60798,9.54166e-15,-5.24792e-14,-15.2995,8.0202,-72.2869,109.342,29.2055,-13.505,6.03311,7.12502,12.6063,-23.5665,9.54166e-15,-5.24792e-14,-43.3257,9.53335,79.2319,58.1805,6.97878,-17.2118,51.7169,7.12502,9.03095,81.5036,-19.6665,-1.50913,15.609,52.3744,-20.8652,-14.202,-4.53372,-23.8549,-4.3701,-3.04588,43.2049,-0.610491,6.47835,-9.99333
2.70834,17.289,-13.1916,151.011,-100.311,-151.994,35.1103,0.312626,0.0201327,7.00327,0.189252,4.74979,-10.0751,-0.252907,5.04744,-9.35904,-0.20823,-2.94623,21.5667,1.23137,-6.58399,8.27515,-0.449349,-1.60427,1.19271e-14,9.54166e-15,-15.2148,9.13771,-70.8972,107.484,28.5392,-14.5364,6.03193,7.12502,11.6119,-23.6263,1.19271e-14,9.54166e-15,-42.682,9.56949,79.6169,57.8072,7.1071,-16.2714,52.6111,7.12502,9.93837,82.3565,-19.8728,-1.88676,14.6207,52.8436,-21.6241,-14.2739,-4.59842,-23.4114,-7.88024,-2.37574,42.9434,-1.11538,10.3421,-9.51473
2.76054,17.1949,-13.0306,152.659,-99.3899,-154.474,36.0126,0.744279,0.328211,7.26228,0.831373,5.09754,-10.1776,0.00322092,5.01092,-10.107,-0.459662,-2.78853,21.8363,0.946659,-6.6967,8.49914,-0.600176,-1.70658,6.36111e-15,0,-14.5779,10.1694,-71.0185,104.367,29.3286,-15.4979,6.60935,7.12502,10.6845,-23.099,6.36111e-15,0,-42.0615,9.54481,80.0488,57.3594,7.12757,-16.517,53.1161,7.12502,9.70141,82.8727,-19.4033,-1.58944,14.9027,53.2318,-21.898,-14.5213,-7.12311,-22.4158,-4.76452,-0.503244,42.7783,-0.330287,7.99712,-12.0282
2.81058,17.1437,-12.8487,152.918,-100.07,-154.726,35.9948,0.480128,0.326357,7.3169,0.488499,5.04342,-10.0791,-0.155993,5.08878,-10.6355,-0.512688,-3.07423,22.0672,0.91665,-6.41305,8.67478,-0.623549,-1.57383,-7.95139e-16,6.36111e-15,-13.7827,11.4134,-71.5057,100.921,30.0489,-16.396,7.18245,7.12502,9.8181,-22.5687,-7.95139e-16,6.36111e-15,-41.6919,9.97885,80.3639,57.0242,6.65426,-16.9743,53.2705,7.12502,9.26012,83.0471,-19.5717,-2.75548,13.6817,53.5936,-22.7806,-13.2901,-4.47314,-22.5039,-6.85992,0.0606613,42.3668,0.0231852,9.61582,-11.7631
2.85529,17.0839,-12.66,153.481,-100.344,-155.502,36.1151,0.359031,0.515011,7.46918,0.38213,5.04055,-9.93913,-0.220202,5.02523,-10.7535,-0.591683,-3.4559,21.9784,0.807692,-6.02137,8.66296,-0.661371,-1.38739,7.95139e-15,4.77083e-15,-12.9498,12.1942,-71.9831,97.162,30.9546,-17.1842,7.89529,7.12502,9.0576,-21.8902,7.95139e-15,4.77083e-15,-41.1983,10.1269,80.7826,56.6434,6.09715,-16.0168,51.5295,7.12502,10.1839,81.263,-19.4975,-2.63722,13.0726,53.9121,-23.0411,-14.3451,-7.22101,-22.2766,-8.28033,0.868146,42.031,0.195736,10.9098,-10.247
2.90146,17.0294,-12.4717,152.839,-100.38,-155.252,36.6072,0.473543,0.625634,7.54187,0.540657,4.97975,-9.9195,-0.163998,4.8616,-10.5131,-0.636805,-3.2968,21.6308,0.682135,-5.97671,8.49597,-0.683077,-1.40364,1.19271e-14,5.24792e-14,-12.1864,12.5004,-72.419,93.1202,31.9124,-18.1442,8.55828,7.12502,8.1312,-21.2653,1.19271e-14,5.24792e-14,-40.5259,9.17991,81.2879,56.1421,6.17017,-23.3266,51.8043,7.12502,3.12768,81.7611,-19.2175,-2.39544,12.2774,54.1746,-23.3534,-14.5845,-8.48332,-21.6363,-8.92081,1.50226,41.5214,0.622776,11.6065,-9.7661
2.9567,16.965,-12.2999,153.213,-100.37,-155.568,36.6365,0.680834,0.425892,7.59591,0.733013,5.08711,-9.89385,-0.0753227,5.00674,-11.1596,-0.771649,-2.71473,21.9745,0.538067,-6.43347,8.73021,-0.769891,-1.68271,-1.03368e-14,1.43125e-14,-11.3405,12.7899,-72.7802,89.0384,32.647,-18.4731,9.35731,7.12502,7.8137,-20.4783,-1.03368e-14,1.43125e-14,-39.8864,8.37522,81.7058,55.6015,6.17619,-30.4228,46.4895,7.12502,-3.72578,76.4367,-19.5213,-2.28957,11.7006,54.4683,-23.244,-15.0356,-10.9286,-21.5834,-9.03928,2.41962,41.0798,1.05397,11.7822,-9.16068
2.98832,16.917,-12.1072,154.296,-100.06,-156.866,36.7083,0.83192,0.61462,7.78222,0.974056,5.21887,-9.73039,0.0165378,4.95049,-11.2694,-0.822008,-2.61799,21.6585,0.46076,-6.47044,8.64031,-0.788816,-1.71398,-1.19271e-14,7.95139e-15,-10.3769,12.9599,-73.0785,84.76,33.2933,-18.873,9.8225,7.12502,7.42773,-20.0271,-1.19271e-14,7.95139e-15,-39.6058,8.53472,82.2696,55.3727,5.23085,-26.6797,51.2177,7.12502,-0.110731,81.1974,-19.4721,-2.10326,11.3538,54.678,-23.189,-15.5578,-13.3384,-21.1021,-9.35617,3.39821,40.6953,1.36994,12.1585,-8.76315
3.03569,16.8688,-11.8974,154.794,-100.107,-157.408,36.7761,0.781156,0.899465,7.8503,1.00416,5.21868,-9.67179,0.0201492,4.78631,-11.415,-0.876747,-2.71175,21.5793,0.412689,-6.46616,8.64003,-0.816357,-1.70165,2.54444e-14,4.77083e-15,-9.40148,13.2129,-73.3304,80.4374,33.6983,-18.7611,10.0011,7.12502,7.53572,-19.8447,2.54444e-14,4.77083e-15,-39.115,7.55561,82.6587,55.0089,5.26263,-16.719,51.6735,7.12502,9.50646,81.4391,-19.5846,-2.18007,10.6135,54.8748,-23.3328,-15.5246,-13.6259,-20.9571,-9.71533,3.97047,40.3401,2.29435,12.4553,-9.77445
3.09432,16.8158,-11.704,157.072,-100.114,-159.631,36.8577,0.692182,1.27229,7.79497,1.04868,5.3196,-9.75884,0.034316,4.68173,-11.2645,-0.930221,-2.94677,21.4516,0.334442,-6.29071,8.56762,-0.846846,-1.60711,8.74653e-15,5.24792e-14,-8.4542,13.31,-73.696,76.038,33.968,-17.9987,10.2868,7.12502,8.27155,-19.5312,8.74653e-15,5.24792e-14,-39.1905,6.96921,83.6962,55.4231,7.13487,-20.9394,52.3786,7.12502,5.43287,82.289,-19.8405,-2.1261,10.2856,55.0548,-23.2467,-15.7189,-14.348,-21.0536,-9.77111,4.95318,40.0137,3.49213,12.1212,-10.6684
3.11546,16.7878,-11.4835,157.814,-99.6263,-160.636,36.9812,0.770104,1.59143,7.90849,1.2456,5.37157,-9.68024,0.107679,4.48989,-11.8554,-0.992791,-2.92181,21.8998,0.31622,-6.37486,8.83117,-0.886442,-1.65697,1.35174e-14,-2.06736e-14,-7.3876,13.0897,-74.1854,71.5956,34.0472,-17.0657,10.2141,7.12502,9.17193,-19.5664,1.35174e-14,-2.06736e-14,-39.5528,8.24541,83.7132,55.809,5.05584,-20.7217,52.0157,7.12502,5.64309,81.9206,-19.6871,-1.67965,9.7758,55.109,-22.8436,-15.9686,-16.7967,-20.311,-10.1615,5.56322,39.6505,4.40062,12.4912,-10.1806
3.161,16.7495,-11.2649,158.143,-99.7281,-160.77,36.884,0.807079,1.7154,7.87388,1.34823,5.40271,-9.6883,0.157095,4.41619,-11.3049,-0.953274,-3.38572,21.2894,0.325594,-5.97328,8.52159,-0.846255,-1.42462,2.78299e-14,-2.22639e-14,-6.35548,12.5173,-74.4439,67.3264,33.2983,-16.1331,9.99337,7.12502,10.0717,-19.7456,2.78299e-14,-2.22639e-14,-39.3732,7.82633,84.0211,55.32,2.92366,-19.3883,50.951,7.12502,6.93038,80.8176,-20.0027,-1.59326,8.85717,55.1665,-22.6244,-15.816,-17.5039,-20.3988,-10.296,5.87238,39.276,5.52346,12.3688,-10.122
3.21973,16.7272,-11.0195,153.637,-100.098,-155.905,36.8118,0.898985,1.40987,7.80204,1.33625,5.07135,-9.73761,0.170941,4.22381,-12.4008,-1.41496,-3.61409,22.0581,-0.213313,-5.72767,8.98206,-1.13006,-1.38806,3.97569e-15,-7.15625e-14,-5.39424,11.8108,-74.6292,63.3512,31.6875,-15.067,9.50653,7.12502,11.1001,-20.1799,3.97569e-15,-7.15625e-14,-39.3683,8.33429,84.1808,55.046,-0.25358,-15.9126,49.8371,7.12502,10.2845,79.5657,-20.3145,-1.74251,6.69807,55.0878,-22.761,-14.677,-15.7308,-20.4244,-10.826,4.98519,38.9593,6.2434,12.9348,-8.81001
3.26315,16.6937,-10.798,154.354,-99.9565,-156.716,37.0734,0.989251,1.18965,7.78944,1.39757,5.34508,-9.87148,0.195061,4.61478,-11.9267,-1.18452,-3.79765,21.5868,0.138983,-5.94509,8.73976,-0.983078,-1.37845,1.90833e-14,5.56597e-14,-4.38931,11.7302,-74.8809,59.4931,29.4095,-13.9623,8.0925,7.12502,12.1654,-21.5338,1.90833e-14,5.56597e-14,-39.5541,8.31848,84.4506,55.0255,-0.845077,-14.0501,49.9907,7.12502,12.0808,79.6219,-20.1323,-1.66298,5.99766,54.8463,-22.3686,-14.6081,-17.3505,-20.0489,-10.6243,5.41411,38.7148,6.28854,12.3853,-5.34189
3.29724,16.6489,-10.5878,157.713,-99.5204,-160.297,37.3117,1.25079,1.26774,7.83746,1.79171,5.80253,-9.95476,0.360367,4.91183,-12.1985,-1.3188,-3.39169,21.6941,0.00838229,-6.49964,8.82398,-1.07797,-1.65466,-4.13472e-14,-1.11319e-14,-3.56466,10.634,-75.1397,55.6393,26.7331,-12.7502,6.75823,7.12502,13.334,-22.7952,-4.13472e-14,-1.11319e-14,-39.6859,7.6572,85.244,55.1399,-0.0957594,-20.1744,49.7554,7.12502,6.17148,79.6455,-19.8762,-1.43943,6.12901,54.4364,-20.8679,-16.045,-24.0858,-19.6972,-8.25285,6.41113,38.6266,6.65633,9.19715,-6.04046
3.3239,16.644,-10.3462,158.614,-99.2486,-161.419,37.2271,1.43541,1.76968,8.11975,2.16289,5.84288,-9.61294,0.507099,4.53643,-11.5024,-1.36091,-3.41523,20.6765,-0.143666,-6.40583,8.34484,-1.08949,-1.60507,7.95139e-15,-2.38542e-14,-2.54246,7.81,-75.5447,51.6391,24.3727,-11.5257,5.7003,7.12502,14.5141,-23.772,7.95139e-15,-2.38542e-14,-39.2779,6.60089,86.0391,54.968,0.16995,-20.7057,50.0606,7.12502,5.65848,79.9651,-19.3225,-0.74343,5.44476,53.7842,-21.162,-15.2969,-20.9341,-19.0421,-9.54129,6.33596,38.6597,6.90227,8.74982,-10.6723
3.36186,16.6339,-10.0927,159.734,-99.0874,-162.488,37.1192,1.51342,1.9883,8.2019,2.3426,6.03496,-9.4967,0.580337,4.556,-12.1759,-1.52491,-3.76534,21.0649,-0.261534,-6.26977,8.60293,-1.18132,-1.53003,-3.18055e-14,4.77083e-15,-1.86184,5.72767,-75.4887,48.0104,20.5967,-9.52112,5.84804,7.12502,16.4448,-23.475,-3.18055e-14,4.77083e-15,-39.1626,6.17375,86.8845,54.6567,-0.246972,-21.2333,50.1878,7.12502,5.14912,80.1053,-19.0292,-0.376559,4.73683,53.0455,-20.844,-15.1729,-20.1768,-18.8282,-10.0142,6.17803,38.8377,7.07124,7.37785,-22.5548
3.4068,16.6165,-9.82385,160.529,-99.1708,-163.091,37.05,1.50356,2.0389,8.12174,2.38178,6.22866,-9.57629,0.600054,4.72378,-12.5817,-1.65592,-3.96584,21.3812,-0.356471,-6.2864,8.78785,-1.26178,-1.52517,-9.54166e-15,-2.06736e-14,-1.29245,3.87222,-75.57,44.4888,15.9057,-9.29455,4.75597,7.12502,16.6629,-24.5488,-9.54166e-15,-2.06736e-14,-39.3185,6.18347,87.6517,54.4436,-0.805086,-21.8758,50.3036,7.12502,4.52866,80.2352,-18.7956,-0.373279,3.78552,52.1896,-20.0856,-15.2303,-21.4104,-18.9394,-9.85653,5.9609,39.1188,6.00584,6.25661,-26.9736
3.44636,16.6016,-9.55252,159.513,-99.1187,-162.009,36.9805,1.69061,2.42168,8.20145,2.72915,6.06622,-9.45045,0.756633,4.20567,-12.8754,-1.98395,-3.78762,21.3992,-0.84526,-6.16336,8.83784,-1.46227,-1.5716,-1.27222e-14,-3.18055e-15,-0.652422,-1.17145,-75.7026,40.6456,14.7538,-8.05588,5.93724,7.12502,17.8551,-23.2631,-1.27222e-14,-3.18055e-15,-39.0167,4.8528,88.1352,54.1693,-0.831654,-18.0507,50.1225,7.12502,8.22143,79.9426,-18.4008,0.109346,2.60307,51.2768,-19.4681,-15.153,-21.2751,-18.6799,-9.43197,5.41514,39.5455,3.54337,5.90703,-32.8473
3.48076,16.598,-9.27306,159.162,-98.9057,-161.634,37.2217,2.011,2.16614,8.05683,3.10638,6.44216,-9.77128,0.931267,4.59451,-12.7517,-2.06724,-3.82529,21.2387,-0.898799,-6.50955,8.75987,-1.52195,-1.68403,2.54444e-14,1.1291e-13,-0.56345,-2.84674,-75.37,37.6303,7.75842,-11.5606,3.30028,7.12502,14.4804,-26.1745,2.54444e-14,1.1291e-13,-39.2496,4.17799,89.0103,53.892,-0.576015,-17.9434,50.0856,7.12502,8.32496,79.9015,-17.8944,0.944809,1.65373,50.2214,-19.0343,-15.3465,-20.549,-18.2858,-8.89162,4.75076,40.068,0.960563,5.72984,-38.0322
3.52033,16.5936,-8.96918,160.253,-99.0676,-162.36,36.7264,1.94317,2.78547,8.09993,3.23773,6.50784,-9.51824,0.989361,4.2884,-13.1559,-2.381,-3.9781,21.2143,-1.2888,-6.40015,8.82268,-1.70617,-1.67164,-9.54166e-15,5.725e-14,0.0234582,-7.52761,-75.3544,34.4931,5.37855,-12.6972,3.00141,7.12502,13.3851,-26.5486,-9.54166e-15,5.725e-14,-39.1369,3.3888,89.8482,53.615,-1.15834,-19.5889,50.3151,7.12502,6.73668,80.1879,-17.5713,0.970306,0.663786,49.0246,-17.9331,-15.9011,-22.146,-18.6582,-8.41551,4.05046,40.5873,-1.36489,5.44165,-40.5298
3.56053,16.5844,-8.67103,161.415,-99.1395,-163.199,36.5455,1.86813,3.07954,7.96778,3.28086,6.62307,-9.59359,1.0113,4.24169,-13.3605,-2.45249,-4.03105,21.2314,-1.35933,-6.39619,8.86651,-1.74556,-1.67383,1.74931e-14,1.59028e-14,0.31912,-11.7585,-75.3723,31.8011,3.45312,-14.4047,2.91888,7.12502,11.7389,-26.7322,1.74931e-14,1.59028e-14,-39.7712,2.38679,91.278,53.1078,-6.63396,-18.5708,52.8455,7.12502,7.71942,82.6846,-17.2333,0.776054,-0.126888,47.7282,-15.493,-17.2134,-28.5374,-19.0899,-7.87244,3.45301,41.0795,-3.7779,4.69478,-40.5016
3.59623,16.5914,-8.36799,160.595,-99.2191,-162.103,36.3813,1.86249,2.91635,7.98032,3.22492,6.6813,-9.65781,0.994635,4.37421,-13.3738,-2.32943,-3.65452,20.805,-1.21665,-6.71272,8.71771,-1.66665,-1.81719,-7.95139e-15,1.11319e-14,0.641731,-15.3184,-75.3163,29.6753,1.22837,-16.2675,2.81604,7.12502,9.94212,-26.9292,-7.95139e-15,1.11319e-14,-39.7683,3.91855,90.4154,53.5537,-1.11094,-15.1835,50.0012,7.12502,10.9878,79.6936,-16.6032,2.02625,-1.65847,46.367,-17.6154,-15.1558,-14.4024,-19.4085,-7.29613,2.351,41.5158,-5.85649,3.82718,-40.604
3.64467,16.5967,-8.09705,160.442,-99.4772,-161.626,36.6209,2.06987,2.61051,7.63083,3.48203,6.95463,-10.203,1.12799,4.72575,-13.1509,-2.4989,-3.69675,20.6533,-1.43118,-6.89705,8.62076,-1.78291,-1.88901,-1.59028e-14,-7.95139e-15,0.444059,-21.1889,-75.0518,28.1803,1.68446,-17.1351,3.03317,7.12502,9.10495,-26.7503,-1.59028e-14,-7.95139e-15,-40.3038,3.18565,91.2109,53.4153,-1.20091,-14.9015,49.7486,7.12502,11.2597,79.4264,-16.1041,2.77896,-2.54909,45.044,-16.125,-16.6959,-17.1806,-19.9971,-5.83969,1.34194,41.9425,-7.24854,2.42875,-40.9833
3.6849,16.6122,-7.81459,159.337,-99.608,-160.19,36.3815,2.20754,2.72574,7.68042,3.66696,6.75303,-10.0447,1.21892,4.37238,-13.365,-2.62893,-3.41628,20.2426,-1.6978,-6.7137,8.50973,-1.84922,-1.89558,-1.27222e-14,1.59028e-14,0.0715831,-25.0889,-74.7161,27.9034,0.195407,-18.2851,2.78643,7.12502,7.99515,-27.0424,-1.27222e-14,1.59028e-14,-40.2155,1.97404,91.4964,53.3467,-0.392969,-14.5604,49.7994,7.12502,11.5887,79.4589,-15.5811,4.23004,-3.67527,43.6647,-15.2399,-17.7043,-15.3008,-20.5806,-4.08988,0.0211618,42.5279,-8.42793,1.25176,-41.5398
3.72328,16.635,-7.51832,157.523,-99.7321,-158.087,36.219,2.38171,2.52327,7.63325,3.8214,6.73274,-10.0634,1.30267,4.39571,-13.7854,-2.96796,-3.48586,20.1142,-2.17791,-6.43267,8.53651,-2.04729,-1.84791,-1.43125e-14,-1.74931e-14,-0.693521,-28.4141,-73.89,28.1691,-1.02394,-19.1068,2.82127,7.12502,7.20202,-27.0362,-1.43125e-14,-1.74931e-14,-40.5153,1.5579,91.9934,53.3177,0.229893,-14.5948,49.8703,7.12502,11.5556,79.5317,-15.0149,5.92128,-4.97332,42.237,-14.3941,-18.7761,-12.7206,-21.2336,-2.62242,-1.65708,43.3755,-9.57403,1.17037,-42.7493
3.76025,16.6654,-7.2083,157.577,-99.7599,-157.841,36.0565,2.48906,2.64964,7.49,4.05095,6.97434,-10.1966,1.41244,4.49688,-13.4386,-3.13116,-3.95908,19.7552,-2.3623,-6.32212,8.35992,-2.14347,-1.73731,-3.18055e-15,5.40694e-14,-1.88113,-30.6393,-72.3858,29.0659,-2.77495,-20.103,2.81693,7.12502,6.24036,-27.0712,-3.18055e-15,5.40694e-14,-41.1152,1.57859,92.6944,53.3817,0.352668,-14.4584,49.6786,7.12502,11.6871,79.3326,-14.4933,7.85867,-5.90099,40.8205,-12.8152,-20.354,-12.2021,-22.118,-1.50707,-3.06666,44.4908,-10.6432,1.49799,-40.2971
3.79729,16.6912,-6.89294,158.409,-99.5868,-158.512,36.0255,2.40646,3.27119,7.4186,4.17746,6.96929,-10.2196,1.45737,4.1116,-13.1757,-3.12149,-4.04109,19.2172,-2.37189,-6.302,8.13285,-2.13007,-1.69908,-3.49861e-14,-3.49861e-14,-3.12083,-32.1353,-71.2855,30.429,-4.80356,-21.1501,2.90905,7.12502,5.22938,-27.0064,-3.49861e-14,-3.49861e-14,-41.5199,1.0017,93.0538,53.3785,1.07466,-14.5033,49.7398,7.12502,11.6438,79.3962,-14.0225,10.0526,-6.53869,39.4912,-10.2537,-22.4364,-13.944,-22.9233,0.233963,-4.2413,45.6518,-11.5932,1.12824,-35.9526
3.84712,16.7061,-6.60342,159.178,-99.454,-159.164,36.0971,2.48379,3.39248,7.44967,4.32961,7.13232,-10.2272,1.51891,4.16126,-13.7834,-3.33773,-3.85218,19.146,-2.62577,-6.50921,8.20862,-2.26037,-1.83881,2.06736e-14,-1.27222e-14,-4.23663,-33.1992,-70.245,32.1682,-6.58347,-21.879,3.23676,7.12502,4.52565,-26.6949,2.06736e-14,-1.27222e-14,-41.7283,0.312234,93.5166,53.3917,2.32206,-15.0184,50.0555,7.12502,11.147,79.7394,-13.6517,12.1409,-7.03678,38.3515,-10.2857,-24.6238,-3.50215,-23.7465,3.13965,-5.37383,46.7485,-12.3397,0.0920148,-35.0777
3.90499,16.7518,-6.32612,159.916,-99.402,-159.748,36.2618,2.55392,3.36436,7.39782,4.44111,7.30738,-10.3752,1.56593,4.31721,-13.0834,-3.16312,-3.94948,18.271,-2.44596,-6.52719,7.79526,-2.14657,-1.77186,9.54166e-15,6.36111e-15,-5.49922,-33.7853,-69.0936,34.3494,-8.7041,-21.877,3.18324,7.12502,4.52749,-26.7484,9.54166e-15,6.36111e-15,-42.0133,-0.0837442,93.8036,53.325,3.51634,-15.1226,50.581,7.12502,11.0465,80.2703,-13.4124,14.1207,-7.41289,37.4474,-7.91186,-26.9207,-1.17988,-24.3636,4.59599,-6.56732,47.4699,-13.0105,0.306833,-34.9242
3.9563,16.7968,-6.03694,160.783,-99.1686,-160.498,36.2539,2.50904,3.62378,7.46752,4.46462,7.36705,-10.2779,1.56548,4.23645,-13.9243,-3.18001,-4.20851,18.4835,-2.40599,-6.14273,8.02701,-2.12191,-1.62157,-7.95139e-15,-9.54166e-15,-6.60679,-34.1856,-68.2175,36.8918,-11.0288,-21.4658,2.99566,7.12502,4.92455,-26.9271,-7.95139e-15,-9.54166e-15,-42.2566,-0.0401858,93.8643,53.2315,4.13215,-14.3479,50.5811,7.12502,11.7937,80.2291,-13.4448,15.6685,-7.62088,36.8269,-9.79227,-29.3937,14.4534,-24.7294,6.05019,-7.6182,47.8739,-13.6232,0.0943451,-33.5035
3.98642,16.8376,-5.78443,158.38,-99.0595,-157.71,35.7724,2.72865,2.73708,7.71329,4.35648,7.28156,-9.89011,1.54232,4.66393,-15.4232,-3.07116,-3.95459,18.9515,-2.22908,-5.84078,8.45396,-2.01562,-1.58454,1.59028e-14,-4.45278e-14,-7.19154,-34.8483,-68.1148,39.4019,-12.4709,-20.937,3.14343,7.12502,5.43517,-26.7669,1.59028e-14,-4.45278e-14,-42.3296,-0.0953585,93.5519,53.2427,4.68823,-13.5667,50.4556,7.12502,12.5469,80.0589,-13.8895,16.718,-8.31206,36.4539,-11.2405,-31.715,24.7038,-24.9971,7.31204,-9.12871,47.8487,-14.3193,-0.523383,-31.3089
4.02939,16.8688,-5.50426,156.114,-99.4378,-154.913,35.294,2.6702,2.52446,7.59138,4.21208,7.16159,-9.84537,1.50012,4.71006,-14.0433,-2.88268,-4.531,17.8948,-2.0342,-5.57537,7.86672,-1.88931,-1.3298,-6.36111e-15,-1.59028e-14,-8.61564,-35.4749,-66.9866,42.0974,-13.5505,-20.3,3.0541,7.12502,6.05023,-26.8395,-6.36111e-15,-1.59028e-14,-42.8528,-0.689797,93.7335,53.2617,5.74423,-13.2466,50.5964,7.12502,12.8555,80.1805,-14.482,16.2871,-9.22465,36.3889,-11.5523,-33.0277,31.2059,-25.4909,7.42926,-10.9906,47.6742,-14.9413,-0.306924,-32.4516
4.06477,16.9086,-5.24681,156.893,-98.8964,-155.812,35.5482,2.83663,2.66233,7.57557,4.4875,7.28664,-9.97915,1.61498,4.6581,-15.3477,-3.09623,-3.86495,18.7543,-2.24858,-6.10141,8.36957,-2.03991,-1.68313,3.18055e-15,-2.54444e-14,-10.0374,-36.0829,-66.0267,44.9916,-14.733,-19.5865,2.8425,7.12502,6.73903,-27.0303,3.18055e-15,-2.54444e-14,-43.4893,-0.815202,93.7333,53.247,6.36305,-12.4315,50.665,7.12502,13.6411,80.198,-14.9617,16.1042,-8.68703,36.8484,-10.664,-33.5484,32.6196,-24.9899,8.15947,-11.5436,47.3867,-15.7875,-0.227632,-34.6872
4.11213,16.9303,-4.96871,159.27,-99.0142,-158,35.5184,2.49513,3.24852,7.42846,4.28149,7.24927,-10.0618,1.51082,4.38975,-13.6733,-2.85493,-3.14362,17.1614,-2.13805,-6.77328,7.52043,-1.9354,-1.93838,3.49861e-14,4.45278e-14,-11.4307,-35.9798,-65.2274,48.0928,-16.4242,-19.5164,2.63842,7.12502,6.80665,-27.2322,3.49861e-14,4.45278e-14,-44.1787,-0.664406,93.5208,53.2213,6.83434,-12.2028,50.8789,7.12502,13.8616,80.397,-15.5497,14.5027,-8.19391,37.7576,-9.66301,-32.598,30.2429,-25.2442,7.87829,-12.2769,47.3022,-16.416,-0.266003,-34.8158
4.15907,16.9502,-4.72415,158.679,-99.1975,-157.115,35.4867,2.34989,2.94687,7.26855,4.01949,7.22327,-10.2361,1.4046,4.62614,-14.2461,-2.54965,-3.70014,17.6356,-1.65992,-6.06524,7.80302,-1.69722,-1.58507,-1.59028e-14,-2.54444e-14,-12.6247,-36.6946,-64.8199,51.3865,-16.4613,-18.936,2.67565,7.12502,7.36688,-27.1761,-1.59028e-14,-2.54444e-14,-44.9192,-0.230473,93.0678,53.3076,7.7857,-12.2639,50.8658,7.12502,13.8027,80.3879,-16.525,12.6625,-8.05538,39.3031,-9.68375,-30.4057,28.3845,-25.5901,7.67793,-13.4324,47.2882,-16.6762,-0.680632,-32.6061
4.19239,16.9674,-4.46957,156.336,-99.5015,-154.257,35.0363,2.18034,2.60381,7.13709,3.68208,7.06207,-10.2031,1.2759,4.77319,-14.5009,-2.50522,-4.16889,17.7346,-1.54268,-5.67479,7.89268,-1.64055,-1.37314,-6.83819e-14,-1.01778e-13,-14.0128,-35.1581,-63.848,54.3911,-18.1757,-19.0162,2.49354,7.12502,7.28951,-27.3609,-6.83819e-14,-1.01778e-13,-45.5266,-0.156327,92.7913,53.2483,8.86664,-11.8902,50.8617,7.12502,14.1628,80.3589,-17.8181,10.7144,-8.44026,41.138,-11.5493,-27.1438,30.8413,-26.32,7.25539,-15.1845,47.4587,-16.599,-0.14334,-31.7784
4.2471,17.0089,-4.26746,154.574,-100.113,-152.088,35.0056,2.15121,1.77889,7.06838,3.36282,6.91709,-10.2917,1.15911,5.18475,-14.4275,-2.32964,-4.00963,17.2795,-1.3609,-5.64713,7.72772,-1.52309,-1.36024,1.59028e-14,1.11319e-14,-14.9371,-36.3156,-63.7451,57.7583,-17.4178,-17.6331,2.12512,7.12502,8.62445,-27.6787,1.59028e-14,1.11319e-14,-45.8406,-0.0984724,92.2552,53.2137,9.43403,-11.7406,51.0733,7.12502,14.307,80.5604,-19.3041,7.43131,-7.82468,43.3227,-4.83165,-25.9712,11.3419,-26.9608,6.81111,-16.7831,47.4919,-16.3468,0.223601,-30.6724
4.28943,17.0597,-4.0556,155.59,-100.148,-152.94,34.9078,2.00234,1.50184,7.27924,3.02371,6.77521,-9.99526,1.00153,5.31517,-15.1492,-2.01101,-3.0416,17.0398,-1.03913,-5.93989,7.76643,-1.33218,-1.58642,-1.59028e-15,-2.22639e-14,-15.2437,-35.8591,-63.9953,60.5153,-17.8735,-17.2333,2.28246,7.12502,9.01022,-27.5051,-1.59028e-15,-2.22639e-14,-45.8792,0.811302,91.0627,53.1376,9.31482,-11.4896,51.1142,7.12502,14.5488,80.584,-20.2729,6.22953,-6.80281,45.4178,-9.10059,-23.9548,18.9734,-27.1942,6.19564,-17.5094,47.4485,-16.2651,0.423458,-27.1437
4.34538,17.1159,-3.85469,157.113,-100.248,-154.601,35.3224,2.00891,1.78183,7.24317,3.15889,6.92405,-10.1972,1.05024,5.27059,-15.0995,-2.3552,-3.72303,16.6456,-1.48168,-5.33795,7.63147,-1.51258,-1.31704,6.36111e-15,3.02153e-14,-16.7048,-36.0601,-62.68,63.6782,-18.3386,-17.0146,2.26667,7.12502,9.22126,-27.5117,6.36111e-15,3.02153e-14,-46.3425,0.86072,90.9131,52.9692,9.29582,-11.6383,50.9697,7.12502,14.4055,80.4498,-20.9453,5.13815,-5.35866,47.4934,-12.0796,-22.2206,23.726,-26.9756,5.77914,-18.0165,47.1142,-16.1211,0.187824,-23.2215
4.39352,17.1802,-3.64558,157.629,-100.443,-155.15,35.5425,1.84672,1.90965,7.31138,2.98137,6.82486,-10.1696,0.95886,5.165,-14.3871,-2.28672,-3.75674,15.6201,-1.45596,-5.41243,7.17004,-1.46952,-1.30491,-1.43125e-14,4.77083e-15,-17.668,-36.0197,-62.114,66.6861,-18.4416,-16.7085,2.16499,7.12502,9.5166,-27.6001,-1.43125e-14,4.77083e-15,-46.5554,1.12846,90.3968,52.8388,9.56311,-12.2202,51.3037,7.12502,13.8448,80.8229,-21.6657,3.57133,-4.02009,49.3912,-13.1282,-21.2956,23.7608,-26.705,4.92434,-18.8473,46.581,-15.9077,0.629726,-20.3128
4.42391,17.2589,-3.4651,156.715,-100.34,-154.444,35.8603,2.12388,1.61774,7.44247,3.2238,6.9452,-10.1908,1.0649,5.35206,-14.1446,-2.57869,-3.34618,14.8024,-1.91646,-5.89312,6.84683,-1.68219,-1.55631,-3.02153e-14,-1.59028e-14,-18.8186,-35.9954,-60.8603,69.504,-18.6862,-16.4383,2.3074,7.12502,9.77728,-27.4456,-3.02153e-14,-1.59028e-14,-46.6296,1.16829,90.1364,52.5,9.61934,-12.2872,51.5656,7.12502,13.7802,81.0892,-22.2515,2.6745,-2.59825,51.2455,-14.5726,-20.7702,24.8085,-25.9493,4.43181,-19.6422,45.8514,-15.7524,1.17013,-19.258
4.46025,17.3334,-3.28427,156.581,-100.169,-154.457,36.1092,2.22886,1.41283,7.63146,3.24915,6.9237,-10.0835,1.06653,5.42646,-14.8336,-2.49535,-3.63399,15.1709,-1.75871,-5.37557,7.09575,-1.59258,-1.34392,-9.54166e-15,2.54444e-14,-19.4652,-35.9805,-60.3884,72.2543,-18.8171,-15.8816,2.36723,7.12502,10.3144,-27.3598,-9.54166e-15,2.54444e-14,-46.4921,1.53982,89.271,52.0996,9.64124,-11.944,51.64,7.12502,14.111,81.1409,-22.9708,1.91324,-0.984801,53.1132,-15.9617,-20.3171,26.3538,-25.2988,4.35577,-20.3007,45.0707,-15.433,1.48479,-20.2194
4.50549,17.3962,-3.07907,158.182,-100.705,-155.713,35.7871,1.9237,1.66192,7.64379,2.94873,6.92198,-9.90896,0.928819,5.41366,-14.846,-2.4407,-4.02603,14.9914,-1.64459,-5.12629,7.0479,-1.53223,-1.1851,-7.95139e-15,-9.54166e-15,-20.1411,-35.6802,-59.5644,74.723,-18.8697,-15.3968,2.13475,7.12502,10.782,-27.5685,-7.95139e-15,-9.54166e-15,-46.3339,0.0479877,89.4727,51.6049,11.5101,-12.6765,52.1984,7.12502,13.405,81.7471,-24.0337,-0.0493753,0.532826,54.9829,-16.2225,-20.12,25.3166,-25.4023,3.74856,-21.1874,44.3281,-14.6909,1.60966,-21.0483
4.55244,17.4571,-2.87816,157.952,-101.329,-154.962,35.2844,1.74655,1.51548,7.65161,2.67062,6.93147,-9.70085,0.81441,5.61381,-14.2744,-2.51933,-4.49475,14.2798,-1.73656,-5.056,6.72526,-1.56936,-1.07664,-5.88403e-14,-1.09729e-13,-20.6653,-36.7953,-58.8051,77.114,-17.6599,-14.2686,2.38755,7.12502,11.8701,-27.256,-5.88403e-14,-1.09729e-13,-46.2268,1.16644,88.9274,51.3403,11.0721,-12.8239,52.5512,7.12502,13.2629,82.1092,-25.3244,-2.16352,1.72645,56.7747,-15.8985,-19.8232,23.4468,-25.715,3.23975,-22.4573,43.6646,-13.77,1.49977,-20.8176
4.59875,17.5195,-2.70159,157.698,-101.502,-154.33,35.0424,1.72971,1.2738,7.69997,2.54747,6.84199,-9.55277,0.765964,5.69497,-14.2115,-2.61854,-3.32917,13.4533,-2.02376,-5.92683,6.42125,-1.69434,-1.5582,1.59028e-15,2.54444e-14,-20.9889,-36.1853,-58.1808,79.2693,-18.6995,-12.4211,1.99736,7.12502,13.6512,-27.535,1.59028e-15,2.54444e-14,-46.1808,2.54266,87.9451,51.2546,10.5871,-13.2629,52.9,7.12502,12.8398,82.4851,-26.5548,-3.51003,3.35212,58.3796,-15.6989,-20.0624,22.0228,-25.8888,3.50662,-23.377,43.0874,-12.8532,0.966371,-20.1424
4.63726,17.597,-2.5383,157.719,-101.44,-154.009,34.9018,1.82181,1.01835,7.67524,2.56981,6.73544,-9.5361,0.787186,5.70838,-13.3999,-2.13017,-4.09789,12.8892,-1.3962,-5.11544,6.12529,-1.33264,-1.09448,-6.36111e-15,4.77083e-15,-21.5187,-35.8186,-57.6041,81.4593,-18.9904,-11.4045,1.6426,7.12502,14.6308,-27.8213,-6.36111e-15,4.77083e-15,-46.3627,2.89761,87.1583,51.2519,10.6497,-14.1799,53.0028,7.12502,11.9556,82.6414,-27.6805,-4.36307,5.28288,59.7326,-16.1463,-20.4811,22.5743,-26.0303,4.01635,-23.9877,42.6055,-11.8831,0.03374,-18.0711
4.67299,17.6806,-2.36797,157.657,-101.436,-153.765,34.9572,1.88064,0.828837,7.63699,2.5844,6.70866,-9.60955,0.800112,5.77586,-14.7356,-2.36822,-3.79123,13.6654,-1.64859,-5.16655,6.59521,-1.48104,-1.21471,9.54166e-15,2.06736e-14,-21.9686,-35.574,-56.9491,83.6312,-19.0425,-10.3969,1.52311,7.12502,15.6014,-27.8677,9.54166e-15,2.06736e-14,-46.5768,3.03401,86.6588,51.2589,10.8729,-14.8001,53.0263,7.12502,11.3575,82.6988,-28.5389,-5.37916,7.11381,60.8428,-16.6611,-20.1599,24.3656,-26.0814,4.4456,-24.6118,42.2676,-10.7242,-0.932853,-17.4524
4.71243,17.7546,-2.19789,157.954,-101.636,-153.838,34.9184,1.85764,0.800152,7.62546,2.54255,6.63069,-9.59908,0.784692,5.72322,-13.5496,-2.34569,-3.49582,12.3477,-1.76082,-5.54918,5.96435,-1.49974,-1.35739,-1.59028e-15,-3.65764e-14,-22.3717,-35.8133,-56.1716,85.7881,-19.2631,-8.44001,1.25692,7.12502,17.4854,-27.9767,-1.59028e-15,-3.65764e-14,-46.7248,3.33555,86.0852,51.3547,11.023,-14.4932,52.8585,7.12502,11.6535,82.5144,-29.3514,-6.83984,8.95964,61.7557,-16.0797,-19.8701,23.218,-26.3702,5.26567,-25.3074,42.133,-9.28522,-2.39357,-19.4143
4.7621,17.828,-2.02937,158.658,-102.104,-154.193,34.8629,1.74246,0.807899,7.53267,2.41271,6.55332,-9.66282,0.733734,5.68677,-13.8797,-2.50477,-3.47972,12.3091,-1.99885,-5.25003,6.0063,-1.5907,-1.29107,8.42847e-14,2.06736e-14,-22.8421,-36.3723,-55.2998,88.0727,-19.1653,-5.91111,0.640131,7.12502,19.9178,-28.3592,8.42847e-14,2.06736e-14,-47.0396,3.92704,85.394,51.6865,10.7619,-13.7668,52.9882,7.12502,12.354,82.6032,-30.2052,-8.60842,10.775,62.46,-15.0634,-19.284,21.1043,-26.9721,6.04446,-25.9936,42.1661,-7.49614,-4.32127,-20.4099
4.81432,17.9039,-1.86603,160.701,-102.566,-155.948,34.9152,1.41755,0.992023,7.44403,2.07925,6.50924,-9.73707,0.580762,5.67195,-13.8741,-2.32733,-4.01596,12.1001,-1.77164,-4.39865,5.95357,-1.42791,-0.910471,7.95139e-15,3.18055e-15,-22.9646,-36.4895,-55.0404,90.4259,-17.9239,-1.90297,1.33608,7.12502,23.7665,-27.2141,7.95139e-15,3.18055e-15,-47.4614,4.60604,84.6246,52.1909,10.8488,-14.1747,53.4417,7.12502,11.9607,83.08,-30.9266,-10.2321,12.872,62.9086,-14.2858,-17.9804,20.6187,-27.6268,6.38504,-26.1754,42.2727,-5.49571,-6.6363,-19.2354
4.8602,17.9803,-1.71111,162.564,-103.038,-157.707,35.0556,1.14418,1.20024,7.44718,1.80711,6.4744,-9.74847,0.449217,5.62961,-14.1238,-2.21207,-3.91696,11.8352,-1.67042,-4.06074,5.91193,-1.3394,-0.809953,-3.81667e-14,-3.02153e-14,-23.1233,-36.416,-54.8472,92.6775,-15.685,0.288155,1.93352,7.12502,25.8663,-26.3273,-3.81667e-14,-3.02153e-14,-47.7379,4.74264,84.0543,52.7244,11.4123,-14.6261,53.6811,7.12502,11.5254,83.3442,-31.3124,-11.3957,14.915,63.1912,-13.689,-16.581,19.3781,-28.0761,6.39074,-26.09,42.4745,-3.26166,-9.05769,-16.3702
4.88781,18.0615,-1.58781,161.478,-102.598,-156.683,35.2645,1.71082,0.342538,7.68911,2.18589,6.46377,-9.63273,0.626444,5.92852,-14.1342,-2.20297,-3.71618,11.1708,-1.74966,-3.82299,5.70116,-1.33064,-0.766791,-3.81667e-14,-1.11319e-14,-23.3135,-36.0263,-54.8769,95.0516,-14.4359,-0.349735,1.91225,7.12502,25.2553,-26.4362,-3.81667e-14,-1.11319e-14,-47.7667,4.63021,83.6357,53.1075,11.9434,-14.8163,53.9063,7.12502,11.3419,83.5796,-31.4219,-11.31,16.6252,63.2322,-12.5977,-15.1506,15.6895,-28.0393,7.28865,-26.0436,42.6114,-0.664638,-10.6859,-5.9543
4.94719,18.0984,-1.38963,163.554,-104.215,-158.221,34.8192,0.710046,1.26847,7.58824,1.23207,6.09146,-9.42609,0.185335,5.39787,-14.2014,-2.13728,-3.76321,10.7203,-1.73252,-3.2478,5.57361,-1.2666,-0.57217,2.70347e-14,-3.81667e-14,-23.3671,-35.0719,-55.2534,97.3285,-12.8697,-1.56013,1.83154,7.12502,24.0952,-26.6755,2.70347e-14,-3.81667e-14,-47.8998,4.78295,82.9561,53.5333,12.7779,-15.1793,54.1439,7.12502,10.9918,83.8362,-32.2495,-13.3444,17.8292,63.3837,-11.5163,-12.7194,14.826,-29.0915,5.55992,-26.3648,42.9175,1.99183,-11.5535,-0.94021
4.98764,18.1616,-1.23942,163.953,-104.529,-158.438,34.7298,0.565049,1.30265,7.68379,1.02932,5.89146,-9.25783,0.0900659,5.23885,-14.2344,-2.14094,-3.77639,10.2834,-1.79244,-2.86339,5.4436,-1.25584,-0.450564,3.18055e-15,3.02153e-14,-23.3662,-33.7863,-55.5357,99.4795,-11.4164,-2.98754,1.89604,7.12502,22.7259,-26.7856,3.18055e-15,3.02153e-14,-47.953,5.0736,82.3234,53.8988,13.434,-15.0961,53.9722,7.12502,11.0721,83.6601,-32.5654,-13.4473,19.1633,63.2224,-10.5299,-10.4727,12.3602,-29.5538,5.31863,-26.0397,43.0345,5.00248,-13.2262,0.0230846
5.02289,18.169,-1.09259,164.527,-104.513,-159.056,34.7768,0.676302,1.39999,7.86393,1.16886,5.80598,-9.07857,0.14463,5.0381,-14.0511,-2.19499,-3.44056,9.62335,-1.95361,-2.91263,5.20145,-1.30938,-0.525591,-1.59028e-14,9.54166e-15,-23.5461,-32.8571,-55.5197,101.584,-9.99327,-3.62715,2.09119,7.12502,22.112,-26.6644,-1.59028e-14,9.54166e-15,-47.8613,5.06531,82.0067,54.1497,13.5939,-14.7621,53.6769,7.12502,11.3942,83.3473,-32.7896,-13.347,20.8361,63.0411,-8.62749,-8.97414,-2.49501,-30.0793,8.16331,-25.6505,43.2465,10.4705,-15.9394,14.6184
5.06199,18.1933,-0.927855,164.675,-105.003,-159.039,34.8715,0.777285,1.00454,7.72823,1.21552,6.08548,-9.29794,0.178821,5.53736,-13.483,-2.23758,-3.56441,9.01608,-2.01262,-3.15113,4.91796,-1.34497,-0.572623,3.02153e-14,-4.6118e-14,-23.9035,-31.5467,-54.8867,103.588,-8.11967,-3.66149,2.42322,7.12502,22.079,-26.3363,3.02153e-14,-4.6118e-14,-48.0832,5.02069,82.2829,54.2963,14.0334,-14.8796,53.826,7.12502,11.2808,83.5027,-32.9119,-13.173,21.5773,62.6546,-8.51997,-6.20737,-6.29594,-30.4412,8.02306,-25.4357,43.1749,10.7148,-20.9025,0.912406
5.09532,18.2158,-0.764552,164.198,-105.369,-158.412,34.7658,0.689826,0.783045,7.69958,1.02345,5.9433,-9.27348,0.100065,5.57641,-12.8939,-2.27795,-3.9371,8.27142,-2.10904,-2.64977,4.59865,-1.35081,-0.350748,-5.88403e-14,5.08889e-14,-24.0933,-30.0607,-55.0806,105.586,-6.1562,-3.88904,2.72873,7.12502,21.8605,-26.0564,-5.88403e-14,5.08889e-14,-48.2661,5.08286,81.8578,54.5187,14.4411,-13.0767,54.2056,7.12502,13.0193,83.7793,-32.7482,-12.9041,22.1782,61.9501,-8.23965,-4.01443,-12.7473,-30.6734,6.85286,-25.1063,43.1649,12.6574,-19.3509,-29.6619
5.12731,18.2578,-0.597882,163.954,-105.546,-158.137,34.7975,0.661906,0.757603,7.65915,0.976555,5.8169,-9.32055,0.083465,5.4725,-12.5437,-2.39809,-4.29568,7.83332,-2.29534,-2.10657,4.41653,-1.40716,-0.131544,1.90833e-14,1.59028e-14,-24.5058,-28.3372,-55.1408,107.752,-4.33047,-4.43811,2.97255,7.12502,21.3332,-25.8732,1.90833e-14,1.59028e-14,-48.5428,4.99487,81.7041,54.7942,14.7201,-10.5047,54.6079,7.12502,15.4976,84.0068,-32.3103,-12.1544,22.5732,61.0578,-8.02122,-1.82674,-11.4544,-30.6764,6.02267,-24.5781,43.0915,12.1245,-19.7654,-26.512
5.16293,18.2902,-0.422713,164.14,-105.76,-158.341,34.8021,0.410655,1.18457,7.63948,0.775555,5.43553,-9.29684,-0.0112954,4.90892,-12.587,-2.43883,-4.22095,7.74084,-2.40275,-1.66703,4.39929,-1.42657,-0.0153102,-6.36111e-15,1.59028e-14,-24.9246,-26.6818,-55.8163,109.963,-2.0246,-4.92434,3.34556,7.12502,20.8661,-25.5523,-6.36111e-15,1.59028e-14,-48.7221,4.65943,81.2839,55.0487,15.0807,-9.53834,54.509,7.12502,16.4282,83.8334,-31.7434,-11.3384,22.9222,60.0222,-7.56796,-0.222372,-8.95545,-30.656,4.97169,-23.8352,43.2058,8.85794,-18.2441,-27.482
5.19454,18.3049,-0.244928,163.644,-105.981,-157.757,34.5934,0.226766,1.46153,7.64388,0.596827,4.99636,-9.17628,-0.0900643,4.35356,-12.7808,-2.45855,-3.79469,7.7147,-2.49199,-1.64872,4.41773,-1.4553,-0.0864497,6.36111e-15,1.90833e-14,-25.3318,-25.0085,-56.6693,112.081,0.817615,-5.04196,3.79099,7.12502,20.7531,-25.1193,6.36111e-15,1.90833e-14,-48.7307,4.19383,80.7291,55.1791,15.3506,-9.41686,54.1144,7.12502,16.5451,83.429,-31.2433,-10.72,23.0146,58.9633,-6.87262,0.419853,-9.63997,-30.6867,3.40305,-23.1621,43.4553,4.42292,-16.0785,-31.319
5.22595,18.3001,-0.0707346,162.881,-106.228,-156.98,34.4731,0.141018,1.40833,7.6357,0.456482,4.82513,-9.12675,-0.149264,4.25015,-12.6387,-2.4039,-3.64933,7.44758,-2.43151,-1.91834,4.30657,-1.43367,-0.184408,2.38542e-14,7.95139e-15,-25.5564,-22.7612,-57.2336,114.002,3.74617,-5.57803,4.09854,7.12502,20.2379,-24.8672,2.38542e-14,7.95139e-15,-48.8018,3.95745,80.5317,55.2796,15.3529,-9.06801,53.6196,7.12502,16.881,82.9059,-30.6427,-10.118,22.8731,57.9532,-5.96731,0.465096,-9.0963,-30.6518,2.36258,-22.5657,43.8342,-0.468169,-14.0354,-38.413
5.25482,18.295,0.0993532,161.769,-106.449,-155.874,34.2787,0.176637,1.2369,7.6639,0.426776,4.68954,-9.02032,-0.156379,4.20464,-12.2519,-2.38681,-3.85923,7.02119,-2.40297,-1.94651,4.11462,-1.41913,-0.149218,3.65764e-14,5.88403e-14,-25.8416,-20.5483,-57.6734,115.687,6.90731,-6.65739,4.07102,7.12502,19.2003,-25.0012,3.65764e-14,5.88403e-14,-48.8178,3.63546,80.5237,55.3601,15.4403,-8.85705,53.4383,7.12502,17.084,82.7072,-29.9135,-9.29963,22.4839,56.9372,-5.5635,-0.435462,-6.00573,-30.6617,1.9577,-21.9668,44.2869,-3.44007,-12.0606,-40.4184
5.28281,18.2917,0.271239,160.811,-106.519,-155.008,34.1763,0.246086,1.12166,7.69259,0.455654,4.51889,-8.94909,-0.138431,4.07099,-12.0667,-2.36637,-3.7188,6.32857,-2.41605,-1.994,4.30262,-1.41153,-0.189917,6.52014e-14,-7.31528e-14,-25.857,-18.6808,-58.7324,117.169,10.5369,-7.51133,4.17019,7.12502,18.379,-24.9816,6.52014e-14,-7.31528e-14,-48.9325,3.56482,80.3685,55.4873,15.0702,-8.51191,53.1355,7.12502,17.4162,82.3753,-28.9924,-8.46834,22.17,55.9146,-6.17463,-1.80348,1.83802,-30.6027,1.64888,-21.1414,44.7297,-5.45442,-10.286,-40.1322
5.31076,18.278,0.432039,160.313,-106.447,-154.631,34.3807,0.412823,0.791692,7.53471,0.580757,4.56037,-9.21806,-0.0692257,4.25007,-11.831,-2.40426,-3.83981,6.06733,-2.47553,-1.89559,4.16444,-1.43331,-0.133407,4.77083e-14,2.22639e-14,-26.0917,-16.155,-59.6559,118.505,13.6732,-8.5653,4.12148,7.12502,17.3648,-25.1228,4.77083e-14,2.22639e-14,-49.4786,4.13576,80.2762,55.6835,14.0229,-7.81408,52.7554,7.12502,18.0877,81.9344,-28.0021,-7.54264,22.1233,54.9484,-7.62541,-2.56597,7.87577,-30.54,1.76263,-20.1827,45.1317,-6.87607,-8.80016,-38.7653
5.34021,18.2489,0.581843,159.645,-106.438,-154.034,34.607,0.671855,0.213603,7.314,0.760157,4.7629,-9.58301,0.033304,4.71539,-11.497,-2.51854,-4.63894,5.84694,-2.56265,-1.52215,4.04038,-1.47277,0.134568,-1.74931e-14,4.77083e-14,-26.3804,-13.4478,-60.3997,119.512,16.4412,-9.80645,4.08845,7.12502,16.17,-25.2571,-1.74931e-14,4.77083e-14,-49.8192,4.01093,80.3203,55.7401,13.7399,-7.27311,52.6331,7.12502,18.6081,81.7631,-27.0596,-6.56764,21.9672,54.0943,-10.3709,-5.59557,3.06421,-30.5358,1.97065,-19.2688,45.4349,-7.71978,-7.57772,-36.435
5.37938,18.2137,0.763166,159.741,-107.323,-154.032,34.4853,0.262283,0.386498,7.08394,0.328919,4.64685,-9.75193,-0.151947,4.66608,-10.9302,-2.5234,-4.6291,5.17225,-2.61446,-1.65854,3.68482,-1.49046,0.0966098,1.74931e-14,3.81667e-14,-26.4464,-10.5159,-61.5258,120.322,19.2261,-10.8903,4.01941,7.12502,15.1261,-25.4078,1.74931e-14,3.81667e-14,-50.1583,4.3765,80.0807,55.8104,13.1881,-6.55259,52.3384,7.12502,19.3011,81.4006,-26.3687,-6.72342,21.3791,53.3962,-12.0184,-7.45055,2.6393,-30.9255,1.09617,-18.549,45.669,-8.37187,-6.26871,-36.011
5.40649,18.1772,0.925087,158.07,-107.403,-152.627,34.7933,0.444986,-0.145419,7.05851,0.362935,4.49874,-9.9037,-0.12379,4.7842,-10.3689,-2.57923,-3.46161,3.97958,-2.8582,-2.62492,3.12166,-1.60843,-0.420609,-7.95139e-15,-1.90833e-14,-26.4637,-7.94253,-63.0733,120.808,22.5605,-11.8655,4.16101,7.12502,14.1866,-25.3346,-7.95139e-15,-1.90833e-14,-50.3198,4.86379,79.6574,55.9098,12.6405,-5.64062,51.8858,7.12502,20.1778,80.8578,-25.2718,-5.86522,20.6117,52.759,-13.2504,-8.4627,5.54915,-30.591,0.893288,-17.8093,45.8447,-8.98819,-4.97532,-35.4136
5.4392,18.1198,1.0914,156.95,-107.655,-151.721,35.1131,0.559048,-0.528228,6.94815,0.384525,4.48647,-10.1545,-0.0993155,4.97465,-10.6754,-2.54497,-4.01681,4.25019,-2.73876,-2.18874,3.2913,-1.5468,-0.181603,-1.59028e-14,4.29375e-14,-26.5767,-5.32891,-64.2565,120.991,25.7776,-12.8027,4.27771,7.12502,13.2833,-25.279,-1.59028e-14,4.29375e-14,-50.5363,5.14278,79.5256,56.0254,12.188,-5.01802,51.5995,7.12502,20.7761,80.5073,-24.4308,-4.80862,19.9259,52.2162,-14.4451,-9.59333,3.91906,-30.4186,0.565465,-17.0139,45.9423,-9.00145,-3.92855,-33.7239
5.47877,18.0575,1.26524,156.97,-107.848,-151.916,35.3431,0.569442,-0.467921,6.82617,0.452639,4.6577,-10.388,-0.0634665,5.10569,-10.0313,-2.66091,-3.93456,3.24737,-2.95301,-2.68312,2.8127,-1.65249,-0.348276,3.18055e-15,4.77083e-15,-26.7038,-2.52991,-64.9304,121.019,28.4417,-13.6053,4.23957,7.12502,12.5096,-25.366,3.18055e-15,4.77083e-15,-50.6458,5.64385,79.6224,56.0558,11.5798,-6.52645,51.8025,7.12502,19.3262,80.8622,-23.8463,-3.70757,19.4646,51.7788,-15.925,-10.7132,3.05285,-30.4406,0.172063,-15.8442,45.9364,-8.44323,-3.15296,-31.6402
5.51625,18.0208,1.43539,157.038,-107.939,-152.223,35.2745,0.512483,0.108065,7.01602,0.542662,4.46559,-10.1389,-0.0454269,4.54791,-10.5114,-2.75797,-4.63782,3.37827,-3.00539,-1.79963,2.97905,-1.65818,0.0487726,-1.11319e-14,2.70347e-14,-26.5556,-0.739406,-66.2142,120.591,30.9139,-14.5025,4.62275,7.12502,11.6445,-25.0337,-1.11319e-14,2.70347e-14,-50.1265,5.58264,79.3766,56.0134,11.1519,-10.0757,52.1617,7.12502,15.9108,81.5281,-23.1856,-2.49183,18.8441,51.5574,-17.9541,-10.6102,8.81097,-30.3551,-0.683333,-14.3663,45.8118,-7.51084,-2.67069,-23.9724
5.55146,17.9876,1.60571,157.029,-108.013,-152.402,35.4296,0.402022,0.447905,7.05521,0.500464,4.28717,-10.1361,-0.0749064,4.19107,-10.5175,-2.73416,-4.26451,2.82957,-3.03383,-1.95295,2.78122,-1.66374,-0.0621121,-4.77083e-15,2.22639e-14,-26.3371,0.9892,-67.793,119.701,33.0711,-15.4684,5.65741,7.12502,10.713,-24.0494,-4.77083e-15,2.22639e-14,-50.0162,5.79462,79.0187,56.1099,10.46,-11.7799,51.9471,7.12502,14.2691,81.4369,-22.6431,-1.34503,18.0624,51.5879,-19.9659,-9.64319,15.6758,-30.3056,-1.55152,-12.9129,45.6313,-6.49584,-2.14591,-13.7723
5.57444,17.917,1.71682,153.768,-105.617,-148.96,35.3284,2.12765,-1.34745,7.2042,2.04375,4.66711,-10.129,0.661924,4.95069,-10.0476,-2.87574,-3.95866,1.75672,-3.31058,-2.45658,2.31564,-1.79782,-0.272652,-2.54444e-14,7.95139e-15,-26.1681,3.33388,-68.4888,118.667,34.633,-16.6847,5.55286,7.12502,9.53955,-24.2112,-2.54444e-14,7.95139e-15,-49.8611,6.29979,79.1448,56.043,9.65886,-11.4215,51.4381,7.12502,14.6144,80.9031,-22.9958,2.07179,17.6218,51.8456,-21.3603,-9.10194,19.0825,-29.6953,1.05798,-11.5217,45.4853,-5.95361,-1.65537,-17.3117
5.63577,17.8484,1.95816,157.72,-107.993,-153.472,35.7981,0.515487,0.937152,7.08836,0.854263,4.64314,-10.2597,0.0681537,4.17567,-9.81206,-3.03692,-4.07747,0.983295,-3.55711,-2.61202,2.01404,-1.91422,-0.300812,-1.74931e-14,-1.59028e-14,-25.8762,5.17148,-69.2671,117.163,36.3563,-17.7314,5.6218,7.12502,8.52956,-24.1859,-1.74931e-14,-1.59028e-14,-49.6249,6.74835,79.2941,56.0327,9.55477,-11.0829,51.6619,7.12502,14.9406,81.103,-22.2385,0.151888,16.9082,52.1409,-22.7181,-8.92893,19.368,-30.1934,-1.17452,-10.5826,45.3931,-4.5074,-1.47708,-23.5325
5.68597,17.7785,2.15023,158.334,-107.946,-154.328,36.1995,0.470162,1.3603,7.00077,0.98148,4.86673,-10.3878,0.109453,4.16757,-9.9822,-3.07418,-4.27483,0.674614,-3.58727,-2.88276,1.94064,-1.938,-0.354053,-7.95139e-15,-4.6118e-14,-25.435,6.72687,-69.9067,115.307,38.433,-18.7219,5.9353,7.12502,7.57359,-23.9091,-7.95139e-15,-4.6118e-14,-49.4261,7.2665,79.5281,56.0299,9.44125,-8.977,52.1132,7.12502,16.9686,81.392,-22.1914,0.157166,16.5616,52.487,-22.7144,-9.96589,12.1383,-30.1584,-1.58071,-9.15,45.3006,-3.19868,-1.09576,-21.8892
5.72783,17.704,2.3302,158.425,-107.748,-154.429,36.289,0.618229,1.31347,7.03141,1.16225,5.01724,-10.406,0.189095,4.28345,-10.2387,-3.03298,-4.16294,0.400768,-3.54011,-3.24759,1.88631,-1.92502,-0.48755,-9.54166e-15,-5.56597e-14,-24.9555,8.53354,-70.8431,113.165,39.5048,-20.6985,5.29037,7.12502,5.66544,-24.6139,-9.54166e-15,-5.56597e-14,-49.0993,7.90361,79.6001,55.8342,8.99088,-5.55266,52.1775,7.12502,20.2623,81.1406,-22.5582,-0.154649,16.3049,52.7628,-20.6478,-13.594,-9.08124,-30.2316,-2.00871,-7.84241,45.0792,-1.91312,-0.469066,-19.9944
5.77346,17.6479,2.51933,158.767,-107.916,-154.827,36.3745,0.48572,1.58037,7.05403,1.09991,5.09185,-10.4021,0.151328,4.24809,-10.3536,-2.98867,-4.19107,0.0137518,-3.49182,-3.41277,1.77567,-1.90172,-0.529753,-6.52014e-14,-1.59028e-15,-24.4452,10.0958,-71.457,110.955,40.4274,-22.0366,4.6682,7.12502,4.37344,-25.2666,-6.52014e-14,-1.59028e-15,-48.9084,8.76136,79.658,55.7739,8.45846,-4.30972,52.3298,7.12502,21.4565,81.1616,-22.7189,-0.482486,15.6409,53.2028,-20.7367,-13.9842,-12.6221,-30.3223,-2.6067,-6.70472,44.6785,-0.491129,-0.301059,-20.7809
5.82066,17.6114,2.70871,159.386,-107.819,-155.761,36.7159,0.491633,2.01072,7.14151,1.28602,5.3642,-10.4367,0.213889,4.24228,-10.4437,-3.0619,-4.3813,-0.453643,-3.59162,-3.55616,1.63794,-1.95102,-0.543203,4.13472e-14,-4.92986e-14,-23.6672,10.755,-71.4736,108.28,41.3645,-22.3632,6.13503,7.12502,4.05803,-23.8061,4.13472e-14,-4.92986e-14,-48.5544,9.50937,80.1209,55.6363,7.98176,-7.69241,51.7236,7.12502,18.2048,80.8917,-22.6042,-0.816623,15.1896,53.6055,-21.3425,-13.3731,-12.0331,-29.95,-2.99131,-5.34038,44.0415,0.894355,-0.401767,-22.1258
5.86635,17.5653,2.90012,160.191,-107.567,-156.908,37.095,0.563764,2.54709,7.2448,1.59237,5.61861,-10.4659,0.326753,4.1123,-10.5426,-3.15141,-4.32278,-0.944521,-3.74347,-3.83289,1.48737,-2.02875,-0.642314,4.45278e-14,-4.6118e-14,-22.8796,11.1994,-71.7633,105.295,41.9965,-23.1946,6.87914,7.12502,3.25515,-23.0758,4.45278e-14,-4.6118e-14,-47.9444,9.58444,80.7463,55.3491,7.79986,-15.3498,49.5674,7.12502,10.8274,79.2683,-22.557,-0.685418,14.8108,54.1578,-22.4475,-12.1855,-7.32476,-29.4917,-3.54597,-3.77447,43.3702,1.99456,-0.072293,-20.9658
5.89455,17.5244,3.0573,158.288,-105.977,-155.717,38.1425,1.55969,1.77169,7.50959,2.54141,5.87189,-10.6521,0.742315,4.40781,-10.9588,-3.13864,-4.17541,-1.07132,-3.72959,-3.96911,1.51385,-2.03011,-0.716139,2.70347e-14,-6.04305e-14,-21.983,11.9116,-72.2666,102.019,42.0875,-24.5826,6.94508,7.12502,1.91467,-23.0261,2.70347e-14,-6.04305e-14,-47.396,9.67278,81.2059,55.0664,7.74702,-12.9055,50.661,7.12502,13.1843,80.2241,-22.1716,0.887678,14.4323,54.5984,-23.042,-11.7875,-5.37382,-27.6899,-3.21691,-2.29929,42.5934,2.38549,1.03079,-16.8625
5.94928,17.4735,3.27988,159.091,-106.864,-156.396,38.0643,1.00421,2.33722,7.44427,2.07495,5.84969,-10.6359,0.522804,4.28011,-11.1355,-3.01788,-4.04826,-1.34961,-3.59199,-4.1645,1.4479,-1.96492,-0.792277,-3.18055e-14,-8.5875e-14,-21.0633,12.5408,-72.6155,98.5971,41.9393,-25.5639,7.44141,7.12502,0.966937,-22.5361,-3.18055e-14,-8.5875e-14,-47.1168,10.2595,81.4874,54.9374,7.40967,-12.129,51.4904,7.12502,13.9327,81.0036,-22.4538,-0.427557,13.4235,55.0532,-23.0424,-12.4023,-10.1503,-28.1198,-4.89032,-1.49438,41.9182,3.13468,2.569,-14.2295
5.99095,17.4251,3.47454,158.091,-106.959,-155.554,38.3627,1.09441,1.94248,7.49683,2.04981,5.98685,-10.7078,0.51262,4.64941,-11.4016,-2.88761,-4.07578,-1.47749,-3.40989,-4.40125,1.44972,-1.88377,-0.857696,-3.18055e-14,-1.59028e-15,-19.9172,12.9271,-72.8417,94.8921,41.7498,-26.3146,8.52265,7.12502,0.241873,-21.457,-3.18055e-14,-1.59028e-15,-46.7511,10.9113,81.8553,54.6111,6.7646,-12.7456,51.7701,7.12502,13.3385,81.3232,-22.3659,-0.772505,12.4359,55.3481,-22.9879,-13.2415,-15.0106,-27.6673,-5.73226,-0.880109,41.2158,3.52193,4.26881,-13.0311
6.02467,17.3813,3.6767,156.837,-106.736,-154.632,38.6701,1.38376,1.70153,7.66316,2.31205,6.14652,-10.6679,0.622552,4.84024,-11.2249,-3.01414,-4.43549,-1.95881,-3.58217,-4.19838,1.26898,-1.95239,-0.730666,4.29375e-14,3.18055e-15,-18.7885,12.8368,-72.781,91.101,41.4165,-26.8983,9.11068,7.12502,-0.321876,-20.8688,4.29375e-14,3.18055e-15,-46.2087,10.5948,82.6627,54.2556,6.0843,-13.6914,51.4772,7.12502,12.4267,81.0878,-21.9991,-0.836786,11.4854,55.5161,-23.264,-13.4678,-17.051,-26.8482,-6.33492,-0.255846,40.5997,3.42011,5.93332,-12.5246
6.06669,17.3336,3.88818,156.354,-106.485,-154.448,38.8548,1.48896,1.75149,7.87853,2.43791,6.26352,-10.502,0.661922,4.88736,-11.3376,-2.92233,-4.18953,-2.28472,-3.50801,-4.52472,1.17268,-1.92108,-0.868779,2.22639e-14,9.54166e-15,-17.4507,12.6188,-72.7395,87.1699,41.2285,-27.2175,10.3479,7.12502,-0.630184,-19.6309,2.22639e-14,9.54166e-15,-45.5664,10.3653,83.3318,53.8888,5.39892,-13.9795,51.2458,7.12502,12.1489,80.8731,-21.649,-0.652405,10.7221,55.5555,-23.6733,-13.5661,-17.6496,-26.1754,-6.67058,0.511842,39.9899,3.46018,7.34516,-12.0837
6.10987,17.2851,4.09703,155.658,-106.341,-153.833,38.9132,1.48012,1.4182,8.14556,2.2436,6.21664,-10.2179,0.56436,5.09189,-9.69054,-2.83693,-5.71939,-4.84605,-3.45458,-1.9456,0.149138,-1.75533,0.237692,1.11319e-14,-4.77083e-14,-15.628,12.7345,-73.1045,83.035,41.0464,-27.0593,11.6929,7.12502,-0.47736,-18.2864,1.11319e-14,-4.77083e-14,-44.762,10.4362,83.5404,53.5458,5.07836,-14.6256,51.2718,7.12502,11.5258,80.9349,-21.5014,-0.464387,9.82689,55.5334,-24.0475,-13.91,-18.0896,-25.7537,-6.99062,1.08952,39.4354,3.62371,8.95906,-9.26591
6.14784,17.2411,4.30703,155.248,-106.139,-153.411,38.8965,1.5776,1.50731,8.26324,2.37156,6.16211,-10.0803,0.615542,4.93063,-11.8931,-2.5791,-3.17937,-3.08208,-3.20873,-5.02253,0.990277,-1.78441,-1.18224,-6.36111e-15,4.77083e-15,-14.3282,12.2624,-73.1957,78.9694,41.0026,-26.9939,12.4079,7.12502,-0.414168,-17.5715,-6.36111e-15,4.77083e-15,-44.1259,9.63625,84.1114,53.2365,4.46616,-15.4538,50.9349,7.12502,10.7271,80.6411,-21.4411,-0.377649,8.98,55.4335,-24.7245,-13.7748,-16.5581,-25.4402,-7.39099,1.68738,38.9891,3.91989,10.4961,-7.88348
6.18944,17.2007,4.53375,155.289,-105.879,-153.495,38.9932,1.63166,1.68785,8.30617,2.50758,6.2441,-10.071,0.667871,4.86797,-11.8757,-2.55646,-2.99795,-3.43531,-3.23389,-5.30127,0.866633,-1.79979,-1.2969,6.36111e-15,-2.8625e-14,-13.08,11.8993,-73.1448,75.0481,40.7366,-26.4861,12.6819,7.12502,0.0762883,-17.2978,6.36111e-15,-2.8625e-14,-43.727,8.98875,84.7564,52.9831,3.5814,-15.5464,50.4552,7.12502,10.6377,80.1659,-21.3043,-0.109148,8.20062,55.2679,-25.5121,-13.1748,-13.4869,-25.1179,-7.93088,2.33316,38.6292,4.48243,11.8842,-8.23219
6.23095,17.1582,4.76341,156.262,-105.321,-154.62,39.3153,1.77804,2.0006,8.29018,2.84914,6.59528,-10.2334,0.804064,4.94355,-12.1099,-2.60407,-3.23288,-3.40887,-3.26136,-5.41351,0.915854,-1.82185,-1.2996,-7.95139e-15,-4.92986e-14,-11.8952,11.3398,-72.9228,71.1782,40.1417,-25.4932,12.9269,7.12502,1.03519,-17.0504,-7.95139e-15,-4.92986e-14,-43.5343,8.6583,85.4756,52.8645,2.38656,-14.793,49.7292,7.12502,11.3644,79.4012,-21.0801,0.516039,7.93121,54.9723,-25.6343,-13.6528,-14.3548,-24.6834,-8.12447,3.32162,38.3656,5.25906,12.6124,-7.97319
6.27125,17.1171,4.99697,157.128,-104.792,-155.444,39.4761,1.96108,2.28645,8.20617,3.23609,6.91569,-10.4223,0.968064,4.97962,-12.0772,-2.70904,-3.53003,-3.62747,-3.38915,-5.47537,0.840013,-1.88244,-1.27053,-1.27222e-14,2.54444e-14,-10.9084,10.6022,-72.639,67.4681,38.7123,-24.4874,12.8571,7.12502,2.00667,-17.1132,-1.27222e-14,2.54444e-14,-43.5026,8.26164,86.2705,52.8168,0.832103,-14.091,48.9114,7.12502,12.0414,78.545,-21.0261,1.23977,7.64901,54.639,-25.1401,-15.1998,-18.622,-24.4559,-8.30312,4.20358,38.1598,6.07043,12.8931,-6.99067
6.30959,17.081,5.2387,158.071,-104.328,-156.318,39.5703,2.0375,2.67942,8.13692,3.5188,7.14139,-10.5473,1.08308,4.89991,-11.6954,-2.76133,-4.00873,-4.17011,-3.46673,-5.34489,0.606709,-1.89649,-1.13569,-2.70347e-14,-2.54444e-14,-9.93874,9.8637,-72.4991,63.875,36.3456,-23.7995,12.3454,7.12502,2.671,-17.6176,-2.70347e-14,-2.54444e-14,-43.4528,7.77448,87.0085,52.7663,-0.449566,-14.3574,48.0379,7.12502,11.7845,77.6864,-20.9183,2.07657,7.26451,54.2625,-25.0007,-15.9749,-20.1865,-24.2585,-8.39013,4.96968,37.9968,6.96942,12.654,-6.45255
6.34789,17.0485,5.47961,158.462,-103.893,-156.69,39.7471,2.18579,2.70776,8.09449,3.7555,7.44883,-10.7025,1.18085,5.11983,-12.0683,-2.61807,-3.68158,-3.99732,-3.30293,-6.31668,0.710497,-1.85491,-1.50432,4.92986e-14,-2.54444e-14,-8.91718,9.22844,-72.3413,60.3498,33.3838,-23.1898,11.5301,7.12502,3.25981,-18.4248,4.92986e-14,-2.54444e-14,-43.4343,7.44697,87.7725,52.7598,-1.41498,-15.0108,47.4586,7.12502,11.1544,77.1421,-20.8518,1.88071,6.50649,53.9245,-24.9558,-15.2693,-20.7365,-23.955,-8.53274,5.46041,37.8583,8.0499,12.0586,-7.10107
6.39043,17.0245,5.72372,158.569,-103.506,-156.721,40.0073,2.37673,2.49507,7.96877,3.97593,7.80111,-11.0076,1.27914,5.52214,-12.1415,-2.45178,-3.23729,-4.11449,-3.16506,-7.26565,0.672228,-1.81458,-1.88176,-3.65764e-14,4.13472e-14,-8.01632,8.21012,-72.1738,56.9333,30.2683,-22.1325,10.9399,7.12502,4.28079,-18.9968,-3.65764e-14,4.13472e-14,-43.5285,7.26123,88.479,52.7759,-2.2081,-15.2249,47.0291,7.12502,10.9479,76.7236,-20.7862,3.34625,5.7949,53.5713,-24.8634,-15.7396,-20.5651,-23.7308,-8.81062,5.76066,37.8053,9.12888,11.0999,-8.67698
6.43318,16.9977,5.98092,158.578,-103.194,-156.574,39.5167,2.32623,3.60335,8.38121,4.19433,7.32485,-10.2403,1.35447,4.33143,-12.6397,-2.84542,-3.01083,-4.75105,-3.75167,-6.72861,0.539979,-2.09735,-1.77186,-3.02153e-14,-4.77083e-14,-6.60538,4.97242,-72.4312,53.4782,26.7178,-20.683,10.4719,7.12502,5.68041,-19.432,-3.02153e-14,-4.77083e-14,-42.413,5.55038,88.6489,52.7954,-2.65085,-15.8126,46.461,7.12502,10.3809,76.1847,-20.8104,3.84097,4.81315,53.1752,-24.652,-15.4109,-20.5064,-23.6362,-8.78441,5.87877,37.8648,10.1004,9.17589,-11.6677
6.47145,16.9676,6.24932,158.297,-102.843,-156.13,39.2877,2.39539,4.00796,8.57899,4.36927,7.18416,-9.89685,1.42814,3.89875,-13.197,-2.94082,-2.76371,-4.95741,-3.91255,-6.76832,0.558546,-2.19334,-1.84489,-1.27222e-14,1.27222e-14,-5.43711,2.51941,-72.4432,50.0172,22.2226,-19.2722,9.87305,7.12502,7.04237,-19.9898,-1.27222e-14,1.27222e-14,-42.0095,4.826,88.8753,52.9373,-3.24374,-18.9868,45.6598,7.12502,7.31793,75.5132,-20.7527,4.93726,3.91225,52.6805,-23.8845,-16.4932,-22.965,-23.5332,-8.43967,5.78767,38.0443,10.7077,6.04919,-18.0212
6.5065,16.9475,6.52371,158.074,-102.442,-155.802,39.2569,2.5806,4.18226,8.61568,4.66767,7.31809,-9.85938,1.5572,3.8297,-13.7319,-2.94274,-2.48716,-4.77905,-3.93063,-7.32039,0.694137,-2.2392,-2.09249,-3.18055e-15,-1.59028e-14,-4.55974,-0.170036,-72.1966,46.636,17.434,-18.7594,9.40229,7.12502,7.53738,-20.4434,-3.18055e-15,-1.59028e-14,-41.9468,4.33619,89.3348,52.9511,-3.63447,-15.2212,45.5347,7.12502,10.9514,75.2291,-20.5975,5.70815,3.07675,52.0375,-22.6644,-17.7216,-26.2234,-23.3411,-8.3896,5.62972,38.298,10.7028,3.0875,-23.9185
6.54339,16.9341,6.81336,157.096,-102.352,-154.581,39.1382,2.6886,4.09558,8.5424,4.8027,7.54888,-9.94634,1.62098,4.0681,-12.9362,-3.12041,-3.49279,-5.76378,-4.15178,-6.55756,0.261773,-2.28006,-1.64148,1.27222e-14,-1.59028e-14,-3.74787,-3.38954,-71.7343,43.3173,13.5973,-19.0788,8.88862,7.12502,7.22908,-20.9679,1.27222e-14,-1.59028e-14,-42.0415,4.31304,89.9676,52.9466,-3.54683,-13.8988,45.5179,7.12502,12.2267,75.1405,-20.4146,5.95062,1.71272,51.2741,-22.1933,-17.686,-26.7954,-23.3472,-8.66559,5.05724,38.5772,10.6469,1.03217,-27.2936
6.57855,16.9203,7.10795,156.646,-102.366,-153.915,38.9722,2.54587,4.25791,8.51868,4.68488,7.57433,-9.89789,1.56795,4.06283,-12.824,-3.15512,-3.92135,-6.25882,-4.19154,-6.22742,0.0952393,-2.27534,-1.45421,9.54166e-15,9.54166e-15,-2.77283,-7.49946,-71.6885,40.1032,11.1044,-19.0681,8.89887,7.12502,7.23941,-20.9573,9.54166e-15,9.54166e-15,-42.0846,4.45306,90.2811,53.071,-3.2548,-14.34,45.8799,7.12502,11.8013,75.5274,-20.0785,6.01399,0.467971,50.3928,-21.5525,-17.8739,-27.8977,-23.3865,-9.01382,4.49426,38.9473,10.219,-0.317951,-31.3199
6.60393,16.9037,7.3922,155.807,-102.24,-152.862,38.7533,2.75713,3.82192,8.57637,4.78324,7.77938,-9.83206,1.6215,4.47268,-13.0055,-3.09351,-3.63666,-6.56994,-4.18322,-6.54344,0.0148919,-2.2822,-1.60324,2.70347e-14,-1.59028e-14,-1.92573,-10.5323,-71.745,37.695,5.58292,-21.2545,6.85852,7.12502,5.12863,-23.0594,2.70347e-14,-1.59028e-14,-42.1371,4.57025,90.6487,53.224,-2.97404,-15.9166,46.0272,7.12502,10.2806,75.7559,-19.7366,6.35512,-0.698677,49.4536,-20.5356,-18.4446,-29.7959,-23.2352,-9.05266,3.79848,39.4047,9.10411,-0.469748,-35.9167
6.63473,16.8822,7.70314,156.004,-102.388,-152.829,38.4589,2.53694,4.19791,8.56125,4.62719,7.64398,-9.68638,1.55425,4.19911,-13.3792,-3.07696,-4.3548,-6.26899,-3.97566,-5.49131,0.204401,-2.15822,-1.15224,1.74931e-14,-2.54444e-14,-0.946655,-16.1469,-72.1842,35.1211,4.46607,-21.5015,6.43892,7.12502,4.8901,-23.4846,1.74931e-14,-2.54444e-14,-42.0383,4.27768,90.6036,53.1937,-2.6731,-18.9661,46.1097,7.12502,7.33787,75.9625,-19.2292,6.71839,-1.97246,48.4617,-20.5544,-17.9758,-27.5414,-23.2986,-8.86469,2.97401,39.9881,6.07555,0.123603,-42.2625
6.66401,16.8615,8.02121,155.153,-102.558,-151.71,38.1875,2.44117,4.32786,8.47919,4.55868,7.60106,-9.66475,1.53172,4.11541,-13.2922,-3.11307,-4.76999,-6.42438,-3.97057,-4.99639,0.154984,-2.13341,-0.923668,6.04305e-14,1.24042e-13,-0.390098,-21.1806,-72.0253,33.2197,2.90427,-22.7707,5.84799,7.12502,3.6645,-24.1002,6.04305e-14,1.24042e-13,-42.0561,3.70469,90.8194,53.2248,-1.85408,-15.656,46.307,7.12502,10.532,76.0231,-18.7318,7.41064,-3.57672,47.4509,-21.0022,-17.0756,-22.9273,-23.3031,-8.30763,1.70699,40.5776,3.19646,0.315593,-45.0854
6.68721,16.8469,8.32735,153.999,-102.541,-150.374,38.0019,2.5726,4.15691,8.38556,4.68675,7.74929,-9.74806,1.59885,4.31274,-13.2893,-3.14453,-4.75576,-6.41673,-4.02648,-5.28,0.151013,-2.16864,-1.0174,-1.59028e-15,3.81667e-14,-0.170351,-25.7634,-71.4034,31.9153,1.34558,-23.8757,5.12665,7.12502,2.59736,-24.8373,-1.59028e-15,3.81667e-14,-42.2067,2.89388,91.3106,53.3045,-0.343363,-15.2132,46.5544,7.12502,10.9591,76.2484,-18.1993,8.3294,-4.97296,46.4056,-20.4718,-17.0445,-21.0056,-23.2772,-7.29582,0.443646,41.2803,0.272084,-0.327181,-45.2585
6.70239,16.8405,8.6247,152.676,-102.233,-149.042,38.0387,2.871,3.93392,8.26031,5.02293,7.93165,-9.9684,1.75629,4.4852,-12.6688,-3.27393,-5.04009,-6.80654,-4.23284,-5.15051,-0.0685231,-2.24302,-0.919277,-9.54166e-15,-6.36111e-14,-0.283074,-30.442,-70.6059,31.1298,0.262114,-24.1692,4.79063,7.12502,2.31392,-25.1766,-9.54166e-15,-6.36111e-14,-42.5656,2.52641,91.6679,53.3662,0.659127,-14.9281,46.8198,7.12502,11.2341,76.499,-17.6335,9.62411,-6.06786,45.3679,-19.0393,-17.7535,-22.2561,-23.0578,-5.66263,-0.726804,42.0369,-2.43123,-1.27449,-44.5737
6.72925,16.834,8.95897,153.721,-102.366,-149.841,37.6785,2.80163,4.36672,8.07286,5.14686,8.19695,-10.0522,1.81435,4.49999,-12.0979,-3.41871,-5.49662,-7.1054,-4.43206,-5.01563,-0.245455,-2.31352,-0.794113,-1.59028e-15,-1.90833e-14,-0.697624,-34.3761,-69.2162,30.9062,-1.28416,-24.4696,4.65132,7.12502,2.02381,-25.3188,-1.59028e-15,-1.90833e-14,-42.9709,2.66707,92.145,53.4504,1.07105,-13.7277,46.7703,7.12502,12.3917,76.383,-17.075,10.5857,-7.11208,44.3699,-17.7516,-18.2201,-22.1656,-23.699,-4.37776,-1.87918,43.0288,-4.7625,-1.76243,-44.3167
6.75854,16.823,9.28929,154.883,-102.357,-150.889,37.4428,2.40565,5.23523,7.99441,4.94003,7.91146,-9.91879,1.71207,3.8291,-12.2897,-3.38123,-5.01964,-6.99987,-4.41198,-5.02258,-0.188973,-2.31786,-0.878183,3.49861e-14,6.67916e-14,-1.03407,-37.5831,-68.7482,31.2191,-3.4243,-24.8066,4.92459,7.12502,1.69838,-25.0484,3.49861e-14,6.67916e-14,-43.0757,2.0487,91.8485,53.4538,2.03968,-13.3991,46.7828,7.12502,12.7085,76.3761,-16.4707,12.2641,-8.05843,43.5014,-17.7872,-18.0231,-14.6059,-24.2629,-2.76802,-3.08592,44.1826,-6.97946,-1.80148,-44.7928
6.78699,16.8159,9.61357,156.296,-102.185,-152.284,37.3162,2.16301,5.82097,7.9078,4.85353,7.90572,-9.90607,1.662,3.55729,-12.3613,-3.27263,-4.46249,-6.9161,-4.33288,-5.35535,-0.165994,-2.29641,-1.07304,-4.29375e-14,-1.59028e-14,-1.79154,-39.2643,-67.5965,32.1256,-6.5019,-24.9347,5.01511,7.12502,1.57461,-24.9588,-4.29375e-14,-1.59028e-14,-43.3254,1.38918,91.7789,53.5485,3.12169,-13.3427,46.6445,7.12502,12.7628,76.2344,-16.0001,13.9232,-8.73385,42.7882,-17.15,-18.4293,-7.926,-24.7737,-0.917356,-4.18633,45.497,-8.94536,-1.63273,-45.3958
6.80838,16.8184,9.93328,156.828,-102.044,-152.835,37.1112,2.16119,5.93432,7.88676,4.89895,8.10389,-9.8706,1.6812,3.6972,-12.2911,-3.1818,-4.13511,-6.89213,-4.26423,-5.67846,-0.180312,-2.27163,-1.22516,3.33958e-14,1.59028e-14,-2.30575,-42.438,-66.5329,33.1566,-7.0502,-24.2036,5.30531,7.12502,2.28075,-24.6622,3.33958e-14,1.59028e-14,-43.56,1.40691,91.782,53.5652,3.83871,-13.2996,46.7005,7.12502,12.8043,76.2878,-15.7047,15.3315,-9.48116,42.2873,-15.1707,-19.7367,-6.57598,-25.1742,0.704272,-5.46776,46.7558,-10.5129,-1.33975,-44.4057
6.82958,16.8265,10.243,157.932,-101.952,-154.082,37.1382,2.23347,5.99954,7.74334,5.08167,8.48856,-10.0917,1.75579,4.0042,-12.1193,-3.26537,-4.27496,-6.66914,-4.34973,-5.7174,-0.13663,-2.31323,-1.21626,-6.36111e-15,-2.8625e-14,-3.65188,-43.5167,-64.5028,34.5326,-8.68099,-23.778,5.23092,7.12502,2.69175,-24.7318,-6.36111e-15,-2.8625e-14,-44.1212,1.47789,91.9974,53.6231,4.40762,-13.4342,46.7154,7.12502,12.6747,76.3108,-15.3789,16.6796,-9.94404,41.9441,-12.6949,-21.2463,-5.8629,-25.4999,2.08464,-6.59211,47.9187,-11.8274,-1.15425,-42.2005
6.85587,16.8423,10.546,160.487,-101.923,-156.715,37.0719,2.02222,6.14613,7.73013,4.88933,8.78688,-10.0953,1.65772,4.33224,-12.2713,-3.0254,-3.98105,-6.68202,-4.06384,-5.91341,-0.120613,-2.18153,-1.32053,-4.77083e-15,3.18055e-15,-4.18542,-43.6315,-63.5323,35.966,-10.2458,-22.8397,4.88763,7.12502,3.59787,-25.0617,-4.77083e-15,3.18055e-15,-44.4089,1.72131,91.8069,53.7138,5.1147,-13.6964,46.7421,7.12502,12.4218,76.353,-15.2342,17.7689,-9.94603,41.7421,-9.51737,-23.1045,-4.76694,-25.9558,3.2958,-7.45603,48.9014,-12.8934,-0.602082,-41.9237
6.8807,16.8615,10.8488,162.733,-101.894,-159.038,36.9133,1.92906,6.43057,7.65551,4.92632,9.21687,-10.2689,1.66397,4.57723,-11.8568,-2.98011,-4.30284,-6.61494,-3.98866,-6.06397,-0.163281,-2.13188,-1.30383,-5.725e-14,-9.85972e-14,-5.37506,-44.0221,-61.5979,37.5368,-11.2802,-21.9459,4.66691,7.12502,4.46103,-25.2661,-5.725e-14,-9.85972e-14,-44.9478,1.59951,91.9934,53.7835,6.05311,-13.7049,47.0631,7.12502,12.4136,76.6745,-15.2164,18.7132,-9.94758,41.6072,-6.89818,-24.9764,-0.601202,-26.3089,4.23613,-8.29881,49.7235,-13.8335,-0.135043,-41.3274
6.88972,16.8852,11.1349,162.308,-101.374,-158.864,37.0835,2.28521,6.00004,7.63314,5.25924,9.46372,-10.4573,1.81733,4.92985,-12.0875,-2.99056,-3.9799,-5.92844,-3.98178,-6.62046,0.078719,-2.16523,-1.54949,4.13472e-14,0,-6.63181,-44.6455,-59.7529,39.1453,-11.7228,-21.6592,4.99996,7.12502,4.73782,-24.9271,4.13472e-14,0,-45.4046,1.6082,91.8909,53.721,6.65805,-13.0306,47.3837,7.12502,13.0637,76.9546,-15.4271,20.0392,-10.2737,41.6507,-5.27993,-26.8253,6.59855,-25.9555,5.49012,-9.33185,50.2803,-14.9184,0.0676351,-41.1101
6.91006,16.9066,11.4518,162.568,-102.079,-159.347,37.0026,1.80857,6.30917,7.55123,4.77819,9.38503,-10.447,1.59544,4.88328,-12.4704,-2.96254,-3.43648,-5.45103,-3.9544,-7.00566,0.281811,-2.18802,-1.78144,-4.92986e-14,-4.45278e-14,-7.58299,-45.2994,-58.5957,40.9579,-12.0267,-21.6505,5.58736,7.12502,4.74626,-24.3395,-4.92986e-14,-4.45278e-14,-45.6958,1.74728,91.4766,53.6092,7.14948,-12.8318,47.5762,7.12502,13.2554,77.1347,-15.0668,19.9257,-10.6685,41.8859,-3.98438,-28.4379,14.3974,-25.9961,5.00379,-10.7363,50.6464,-15.6887,0.422394,-41.4076
6.9239,16.9347,11.7298,162.746,-102.056,-159.603,36.8517,1.7449,6.08653,7.54515,4.60563,9.38145,-10.4132,1.52643,5.06717,-12.5845,-2.85426,-2.92666,-5.2579,-3.85033,-7.17981,0.356436,-2.15253,-1.92765,4.45278e-14,1.20861e-13,-8.40236,-45.549,-57.7946,42.811,-12.5185,-20.1497,5.40447,7.12502,6.19533,-24.4849,4.45278e-14,1.20861e-13,-46.0112,1.76327,90.9564,53.49,7.87912,-13.3249,47.562,7.12502,12.78,77.1508,-15.5068,20.0344,-10.7305,42.4246,-1.96348,-29.805,19.3824,-25.8151,5.00045,-11.6915,50.7618,-16.5346,0.549699,-41.356
6.94257,16.9561,12.0021,163.169,-102.066,-159.962,36.6242,1.69325,5.89569,7.50718,4.4669,9.43088,-10.392,1.47393,5.27858,-13.5622,-2.7936,-2.17636,-4.24636,-3.74366,-7.91034,0.83412,-2.17504,-2.33985,1.59028e-15,-9.54166e-15,-9.21874,-45.4773,-56.7809,44.6905,-13.2916,-19.6976,5.4276,7.12502,6.63177,-24.4486,1.59028e-15,-9.54166e-15,-46.2925,1.71762,90.549,53.2954,8.5046,-13.1943,47.5703,7.12502,12.9059,77.1512,-16.239,19.4344,-10.7454,43.2858,0.142019,-29.7635,21.9668,-25.7777,4.78655,-12.539,50.81,-17.4,0.437415,-40.5232
6.95541,16.9762,12.2752,163.216,-101.981,-160.126,36.514,1.68232,5.74253,7.51259,4.38979,9.45771,-10.3601,1.44453,5.42012,-13.8449,-2.66109,-1.9587,-3.87862,-3.54784,-8.04782,1.00645,-2.09746,-2.43059,6.83819e-14,-5.08889e-14,-10.148,-46.1043,-55.7722,46.8916,-13.8073,-18.8215,5.52441,7.12502,7.47745,-24.3234,6.83819e-14,-5.08889e-14,-46.5719,1.79296,90.0893,53.0589,8.65715,-12.6406,47.7067,7.12502,13.4397,77.2531,-16.9397,18.2848,-10.7253,44.5054,0.457618,-27.9687,24.4049,-25.3878,4.37708,-13.3356,50.7171,-18.1029,0.133414,-38.6487
6.97093,16.987,12.5408,163.719,-101.899,-160.809,36.5022,1.60012,5.80734,7.46684,4.31538,9.45052,-10.395,1.40876,5.40938,-13.9123,-2.70424,-2.03116,-3.67508,-3.56948,-7.89222,1.08706,-2.10884,-2.3727,1.90833e-14,4.77083e-14,-11.2597,-46.5425,-54.6739,49.1098,-14.3383,-17.8813,5.41548,7.12502,8.38485,-24.3981,1.90833e-14,4.77083e-14,-46.9049,1.74826,89.5525,52.8797,8.8362,-12.3707,47.8265,7.12502,13.6997,77.3555,-17.5932,17.8549,-10.3186,45.9982,-0.409812,-26.5306,25.5093,-24.9938,3.82825,-14.0498,50.6527,-18.6687,0.089173,-36.9813
6.97194,17.0179,12.7572,161.789,-100.804,-159.052,36.6934,2.32825,4.83935,7.56691,4.88173,9.49544,-10.501,1.68574,5.73149,-14.1298,-2.80125,-2.00764,-3.32862,-3.65984,-7.8662,1.23635,-2.16653,-2.38648,1.74931e-14,7.95139e-14,-12.5144,-45.8922,-53.3744,51.093,-15.522,-17.6242,5.18392,7.12502,8.63299,-24.6196,1.74931e-14,7.95139e-14,-47.1381,1.48502,89.0163,52.6604,9.17516,-12.7545,48.0084,7.12502,13.3298,77.5621,-19.0584,17.6742,-9.89647,47.7086,-1.05719,-22.8057,18.1319,-24.1489,4.61542,-14.8605,50.4557,-19.3179,0.568848,-37.4287
6.97807,17.0497,12.9933,158.985,-100.416,-156.345,36.7714,2.7307,4.28695,7.47757,5.21052,9.39485,-10.7047,1.85553,5.77347,-14.0034,-2.96794,-2.21643,-3.03509,-3.82651,-7.8115,1.30926,-2.24963,-2.34245,6.20208e-14,5.40694e-14,-14.2201,-45.528,-51.5462,53.1177,-16.5964,-16.7485,4.70599,7.12502,9.47799,-25.0609,6.20208e-14,5.40694e-14,-47.557,0.998039,88.6218,52.4538,9.55471,-12.8667,48.4532,7.12502,13.2217,78.0139,-20.2698,16.7195,-9.717,49.535,-1.80124,-19.8256,11.9711,-23.5709,4.90212,-16.2073,50.254,-19.6659,0.993551,-36.4162
6.98852,17.0793,13.2374,156.774,-100.467,-154.215,36.8194,2.84703,4.06965,7.27755,5.32306,9.32083,-10.9732,1.92135,5.75787,-13.6288,-3.21795,-3.09161,-2.83169,-4.02986,-7.44955,1.32168,-2.33153,-2.0721,1.43125e-14,-2.54444e-14,-16.0072,-45.8038,-49.3983,55.2115,-17.4984,-14.3639,4.02674,7.12502,11.7782,-25.6221,1.43125e-14,-2.54444e-14,-47.9904,0.656757,88.2866,52.1402,9.87426,-12.6009,48.8379,7.12502,13.4779,78.3818,-21.1925,15.6455,-9.44514,51.4089,-3.3051,-17.7343,11.1205,-23.133,4.83899,-17.6825,49.9706,-19.7015,1.56965,-34.9064
7.00226,17.1119,13.4705,154.975,-100.721,-152.474,36.7575,2.7171,3.86628,7.2363,5.06692,9.05895,-10.9607,1.81789,5.68746,-13.8471,-3.27035,-3.531,-2.53047,-3.99455,-7.14343,1.47173,-2.31509,-1.90638,-2.22639e-14,-2.8625e-14,-17.0738,-46.5583,-48.168,57.1877,-18.3457,-11.1974,3.57061,7.12502,14.8303,-25.8787,-2.22639e-14,-2.8625e-14,-48.1284,0.689546,87.4832,51.8801,10.0042,-12.7544,48.842,7.12502,13.3299,78.3956,-21.9986,14.3633,-9.03884,53.2455,-4.87532,-16.1812,11.9081,-22.7804,4.7393,-19.1897,49.6745,-19.4973,2.58582,-35.1518
7.01817,17.1549,13.697,153.281,-100.935,-150.764,36.5784,2.5204,3.5622,7.30424,4.6521,8.72588,-10.7694,1.64371,5.66063,-14.1138,-3.16054,-3.53947,-2.46669,-3.82526,-6.97087,1.54641,-2.23205,-1.84815,9.22361e-14,9.22361e-14,-17.5483,-47.2316,-47.8475,59.2123,-18.929,-8.72359,3.37896,7.12502,17.2125,-25.8787,9.22361e-14,9.22361e-14,-48.118,1.42476,86.3632,51.4677,9.51497,-13.1437,48.5849,7.12502,12.9546,78.1627,-22.9288,13.1557,-8.47514,55.0255,-6.42877,-15.0707,12.3993,-22.494,4.63397,-20.668,49.3489,-19.1123,3.70281,-35.8539
7.02972,17.209,13.9248,152.465,-101.011,-150.002,36.5101,2.39177,3.51408,7.29957,4.45162,8.54793,-10.7148,1.55692,5.57622,-13.9754,-3.16282,-3.7961,-2.54954,-3.80535,-6.7506,1.50136,-2.20841,-1.72474,7.95139e-15,5.725e-14,-18.3579,-47.2448,-46.9647,61.0643,-19.677,-7.11959,3.2867,7.12502,18.7558,-25.8291,7.95139e-15,5.725e-14,-48.2175,2.24442,85.4004,51.1319,9.22274,-13.3885,48.5801,7.12502,12.7187,78.1728,-23.7902,11.9049,-7.52814,56.7169,-7.90071,-14.2002,12.6719,-22.1024,4.46771,-21.8189,49.0101,-18.773,3.93237,-34.5277
