JuanDHNZ/ProyectoFinalCD/preprocessing/sports_trials_csv/06_08.csv
root1,root2,root3,root4,root5,root6,lowerback1,lowerback2,lowerback3,upperback1,upperback2,upperback3,thorax1,thorax2,thorax3,lowerneck1,lowerneck2,lowerneck3,upperneck1,upperneck2,upperneck3,head1,head2,head3,rclavicle1,rclavicle2,rhumerus1,rhumerus2,rhumerus3,rradius1,rwrist1,rhand1,rhand2,rfingers1,rthumb1,rthumb2,lclavicle1,lclavicle2,lhumerus1,lhumerus2,lhumerus3,lradius1,lwrist1,lhand1,lhand2,lfingers1,lthumb1,lthumb2,rfemur1,rfemur2,rfemur3,rtibia1,rfoot1,rfoot2,rtoes1,lfemur1,lfemur2,lfemur3,ltibia1,lfoot1,lfoot2,ltoes1
-0.155528,17.0669,-19.492,-170.664,-85.7559,168.639,33.3319,0.492591,6.78846,8.68618,2.31119,7.39871,-7.4714,0.449296,3.45602,-11.3239,-2.93413,-3.85958,25.2027,-1.65738,-9.59552,9.85479,-2.44907,-2.94939,-1.27222e-14,-3.65764e-14,8.96891,-9.64045,-66.8833,27.1959,24.0605,-5.92333,5.50324,7.12502,19.9061,-23.4973,-1.27222e-14,-3.65764e-14,-42.6672,0.30011,88.3564,52.3022,12.9247,-16.5152,48.6777,7.12502,9.70311,78.4342,-25.5378,13.7288,5.18899,36.6338,-12.7593,-3.13521,-16.1445,-20.2963,6.18967,-20.5582,58.8504,-12.6279,-1.31583,-28.0965
-0.118022,17.0522,-19.393,-170.348,-86.0323,168.558,33.2814,0.47089,6.65016,8.69116,2.24839,7.62845,-7.47014,0.415142,3.79553,-11.1876,-2.89224,-4.30778,24.9027,-1.54739,-9.52224,9.73712,-2.41751,-2.82026,-4.77083e-15,7.95139e-15,9.83468,-12.937,-67.5951,24.2802,21.4056,-4.74205,4.10629,7.12502,21.0412,-24.7722,-4.77083e-15,7.95139e-15,-42.5536,1.69154,88.1659,52.4436,12.6395,-13.7138,47.9181,7.12502,12.405,77.53,-25.9031,14.2866,4.68784,36.8231,-13.4654,-2.80069,-9.72751,-20.5946,8.36016,-20.8226,58.7422,-13.2663,-1.81245,-25.7734
-0.0886748,17.0493,-19.2843,-168.478,-86.3246,166.801,33.379,0.48701,6.44391,8.60827,2.24278,7.78535,-7.6243,0.410767,4.07468,-11.2984,-3.41911,-4.81058,24.9183,-2.2712,-9.11358,9.75718,-2.75155,-2.67806,1.74931e-14,-2.22639e-14,10.4565,-17.3216,-68.4902,21.5854,19.2605,-4.49891,3.03142,7.12502,21.2748,-25.8209,1.74931e-14,-2.22639e-14,-42.8702,4.56295,87.3823,52.7889,10.0294,-10.8637,46.8074,7.12502,15.1518,76.2327,-25.9673,14.8239,4.0553,36.8274,-14.1519,-2.2078,-4.46763,-20.552,7.88882,-21.6138,58.4749,-13.8408,-0.783325,-21.7748
-0.0607524,17.0241,-19.1772,-166.323,-86.5948,164.845,33.3732,0.485681,6.35864,8.5421,2.23717,7.8524,-7.70588,0.410842,4.1934,-10.8995,-2.97963,-4.30931,24.674,-1.71342,-9.49822,9.59383,-2.47491,-2.81222,-5.08889e-14,-1.90833e-14,11.4368,-23.9555,-70.2173,19.086,19.3966,-4.99063,2.65384,7.12502,20.8024,-26.251,-5.08889e-14,-1.90833e-14,-42.7874,4.03775,87.5267,52.8706,10.7709,-14.8726,47.9748,7.12502,11.2876,77.6511,-26.1667,15.33,3.42157,36.8093,-14.8016,-1.8421,-1.94578,-20.6116,8.03907,-22.4327,58.1648,-14.4654,0.83302,-24.051
-0.0522595,17.0065,-19.0483,-158.637,-86.9253,157.158,33.3375,0.323141,6.38726,8.52874,2.04557,7.87002,-7.69881,0.322953,4.26587,-11.0193,-3.27672,-4.67003,24.7193,-2.08476,-9.34026,9.63205,-2.6657,-2.74356,4.77083e-14,7.95139e-14,12.6391,-31.2887,-72.0716,17.1112,20.7573,-6.11958,2.42091,7.12502,19.7174,-26.5991,4.77083e-14,7.95139e-14,-42.9341,4.29273,87.6353,53.0223,10.8477,-11.2401,46.6344,7.12502,14.7892,76.0868,-25.9839,15.6143,2.49361,36.734,-15.5681,-1.89139,-1.89152,-20.4574,8.42486,-23.4252,57.7067,-15.0224,1.24538,-21.4403
-0.027603,17.0038,-18.9535,-150.746,-87.2907,149.808,32.9053,0.443224,6.01363,8.38877,2.10145,8.0457,-7.72774,0.367712,4.62687,-11.1973,-3.55877,-4.92058,24.9519,-2.44234,-9.18254,9.74769,-2.84838,-2.70206,7.95139e-15,6.36111e-15,13.2592,-37.2,-73.1881,16.1216,21.2248,-7.86848,2.0273,7.12502,18.0354,-27.1565,7.95139e-15,6.36111e-15,-43.181,4.82887,87.7028,53.2242,10.7532,-11.6692,45.8368,7.12502,14.3758,75.3191,-26.3356,15.979,1.76333,36.6846,-16.2196,-2.68638,-3.83424,-20.7602,6.97602,-24.3582,57.1712,-15.6639,2.57301,-18.8031
-0.00711293,16.977,-18.854,-140.363,-87.3351,139.331,33.1287,0.454965,5.62492,8.35953,2.02066,7.99521,-7.86559,0.33441,4.80996,-11.2769,-3.65303,-4.93076,25.0937,-2.56119,-9.18568,9.81084,-2.91185,-2.72358,1.90833e-14,-1.27222e-14,13.7502,-42.1149,-74.3471,15.6315,21.5134,-9.80518,1.62557,7.12502,16.1712,-27.7199,1.90833e-14,-1.27222e-14,-43.376,5.06182,87.5884,53.3774,11.415,-12.9566,46.0602,7.12502,13.1351,75.6265,-26.1822,16.5178,0.919425,36.7037,-16.9834,-3.05426,-3.51049,-20.4511,7.61526,-25.1156,56.6871,-16.3338,2.14973,-17.68
0.0103025,16.9579,-18.7428,-138.263,-88.0127,137.306,33.1343,0.336592,6.29524,8.31502,2.10099,8.07125,-7.88005,0.364854,4.50838,-11.3517,-4.02744,-4.89687,25.1058,-3.09413,-9.14484,9.81316,-3.14622,-2.77738,1.59028e-15,-6.04305e-14,13.4006,-45.7289,-74.4683,15.9837,20.2065,-12.2531,1.16778,7.12502,13.8131,-28.3536,1.59028e-15,-6.04305e-14,-43.3251,4.48282,87.6458,53.3726,11.9027,-11.2968,46.8135,7.12502,14.7346,76.2698,-26.0944,16.6749,0.944725,36.7789,-17.8162,-3.29213,-1.75021,-20.3669,7.30456,-25.163,56.2482,-16.89,2.3381,-19.3642
0.0351137,16.9329,-18.6362,-129.047,-88.6326,128.239,33.1422,0.115309,6.2179,8.23727,1.83622,8.50739,-7.98999,0.229737,5.11608,-11.2134,-4.10448,-5.81259,25.0159,-3.07839,-9.00319,9.78971,-3.20872,-2.56958,-1.11319e-14,-8.26944e-14,12.88,-46.9255,-73.9434,16.6389,18.1979,-14.0312,1.17076,7.12502,12.099,-28.4594,-1.11319e-14,-8.26944e-14,-43.6259,5.78829,87.6682,53.413,11.8249,-12.4343,46.7598,7.12502,13.6385,76.293,-26.1765,16.7631,0.88971,37.0241,-18.4525,-3.93521,-1.68228,-20.3708,6.64725,-25.2989,55.87,-17.501,2.63605,-21.8049
0.0521457,16.9168,-18.526,-102.227,-88.9138,101.55,33.0594,0.225623,6.03151,8.18766,1.94943,8.81158,-8.05273,0.284988,5.50117,-10.9287,-3.7985,-5.56922,24.7347,-2.6754,-9.25238,9.63303,-3.01118,-2.6296,0,7.63333e-14,11.0746,-47.1457,-71.8575,17.6956,14.894,-15.0463,0.913108,7.12502,11.1201,-28.7723,0,7.63333e-14,-43.7795,6.14082,87.6431,53.2056,10.7245,-10.0738,45.8224,7.12502,15.9126,75.1887,-26.2399,16.5891,0.561434,37.3035,-19.0859,-4.40007,-1.43278,-20.2371,5.56864,-25.7184,55.3807,-18.0436,2.58855,-21.5905
0.0868015,16.8981,-18.4384,-63.5561,-88.9641,62.9704,33.1762,0.191221,6.48768,8.09857,2.07636,8.49931,-8.15101,0.352434,4.87809,-10.6556,-4.05525,-4.71984,24.4273,-3.27672,-8.99827,9.42689,-3.15092,-2.72028,6.36111e-15,6.36111e-15,8.66696,-47.5268,-70.2497,19.1336,11.0075,-16.097,0.710441,7.12502,10.1066,-29.0268,6.36111e-15,6.36111e-15,-43.6665,4.9458,87.2541,53.1523,11.8393,-9.91421,45.3453,7.12502,16.0663,74.6992,-26.3829,15.4478,0.662031,37.8144,-19.6971,-3.72564,-0.153831,-20.1831,6.013,-25.4555,54.8897,-18.6224,0.205411,-19.1298
0.0936997,16.8693,-18.329,-39.5608,-88.6207,39.1424,32.9102,-0.0791887,6.55414,7.96277,1.76866,8.5613,-8.18291,0.215933,5.01988,-10.1329,-4.30697,-5.41674,23.9258,-3.69838,-8.38356,9.17446,-3.31128,-2.40095,4.77083e-15,-2.8625e-14,6.58814,-46.7852,-68.5745,20.7306,7.39867,-16.692,0.539846,7.12502,9.53256,-29.2245,4.77083e-15,-2.8625e-14,-44.2414,5.65531,87.0888,53.2141,12.2897,-6.26355,44.4327,7.12502,19.579,73.4668,-26.5553,17.7824,0.133628,38.351,-20.3078,-6.28433,0.975154,-19.9309,3.59713,-26.1545,54.2583,-18.9299,2.66552,-26.7301
0.101509,16.8215,-18.2282,-38.5758,-88.0303,38.257,32.7907,-0.0189091,6.28619,7.97782,1.75488,8.48673,-8.13232,0.22281,5.08331,-10.2615,-4.60439,-5.63592,23.7724,-4.11569,-8.10053,9.15011,-3.48312,-2.31015,2.22639e-14,-2.22639e-14,4.71425,-46.5091,-66.783,22.2189,3.81184,-17.0319,0.601744,7.12502,9.20457,-29.1774,2.22639e-14,-2.22639e-14,-44.2535,5.61449,86.8672,53.029,12.2342,-6.14888,44.7046,7.12502,19.6892,73.7275,-26.801,18.0843,-0.56118,38.9262,-20.7672,-6.40643,2.88614,-19.7505,4.68319,-26.8697,53.6917,-19.4398,3.44144,-36.2005
0.123586,16.8073,-18.1345,-30.8048,-87.8022,30.6669,32.7098,0.182337,6.24059,7.95827,2.00668,8.52481,-8.14167,0.347563,5.05566,-10.3999,-4.91035,-5.32023,23.7886,-4.56731,-8.17314,9.15898,-3.66954,-2.43862,1.59028e-14,-9.54166e-15,2.45668,-45.8791,-64.6275,23.693,-0.101109,-17.6429,0.821795,7.12502,8.61496,-28.9824,1.59028e-14,-9.54166e-15,-44.1828,4.99801,86.714,52.7667,12.4699,-12.835,46.9841,7.12502,13.2522,76.5428,-27.0773,18.7005,-0.692984,39.3717,-21.1399,-6.51753,5.70986,-19.6656,3.85829,-27.0983,53.1955,-19.8476,3.70946,-34.8817
0.14479,16.8107,-18.0301,-21.1001,-87.5826,21.1092,32.7027,0.381848,6.5067,7.87555,2.37121,8.50641,-8.22892,0.521916,4.76301,-10.818,-5.35354,-4.4755,24.325,-5.23398,-8.46818,9.36691,-3.9541,-2.78534,-5.08889e-14,-1.08139e-13,0.0157654,-46.3655,-62.5374,25.4178,-3.31153,-17.5056,0.595006,7.12502,8.74744,-29.2037,-5.08889e-14,-1.08139e-13,-44.1627,4.08706,86.5164,52.4761,12.7707,-10.0663,45.8561,7.12502,15.9198,75.2217,-27.2988,19.0694,-0.593074,39.7837,-21.0885,-6.61951,6.15195,-19.6935,3.17857,-27.0283,52.8491,-20.4961,1.58033,-24.2071
0.16038,16.8092,-17.9235,-15.2186,-87.2596,15.3037,32.7294,0.221795,6.43262,7.84658,2.16244,8.66957,-8.27829,0.420575,5.05472,-11.0003,-5.44552,-4.71406,24.4002,-5.26531,-8.64795,9.43396,-4.01742,-2.82438,-5.40694e-14,-6.99722e-14,-1.12077,-46.3574,-61.3585,26.8452,-5.46634,-16.7656,0.245894,7.12502,9.4615,-29.5217,-5.40694e-14,-6.99722e-14,-44.5289,4.92261,86.1451,52.3255,12.8279,-12.043,46.3458,7.12502,14.0156,75.8532,-27.4773,19.0006,-0.465041,40.2079,-20.42,-6.55219,4.14287,-19.7203,2.9068,-27.1269,52.5586,-20.8853,-0.696784,-10.71
0.170103,16.8001,-17.8139,-13.7397,-87.004,13.9031,32.7641,0.111359,6.34469,7.8299,2.00223,8.66715,-8.3079,0.346952,5.1577,-10.7534,-5.1538,-4.59098,23.9552,-4.85856,-8.88511,9.23046,-3.82644,-2.85159,5.24792e-14,1.90833e-14,-2.33594,-46.5666,-60.2671,28.315,-7.55545,-15.9954,-0.383809,7.12502,10.2046,-30.1163,5.24792e-14,1.90833e-14,-44.811,5.54245,85.6378,52.0016,12.6014,-13.2691,46.5162,7.12502,12.8338,76.1017,-27.8346,18.877,-0.473581,40.9062,-19.8152,-6.07974,3.45494,-19.7267,3.09937,-27.5355,52.3056,-21.2124,-1.60806,-3.45877
0.191569,16.7864,-17.714,-13.113,-86.7394,13.5761,32.6742,0.105072,6.208,7.72543,1.96613,8.54862,-8.38818,0.342676,5.11517,-10.3092,-4.97683,-4.475,23.2034,-4.71629,-8.71219,8.88753,-3.69301,-2.74455,9.54166e-15,1.90833e-14,-3.98414,-46.6477,-58.9435,29.8395,-10.2508,-15.8297,-0.769215,7.12502,10.3645,-30.4938,9.54166e-15,1.90833e-14,-45.1399,5.53369,85.1093,51.7937,12.3809,-12.4812,46.8626,7.12502,13.5933,76.3988,-28.5384,18.3918,-0.41391,41.8968,-19.3078,-5.92297,1.97739,-19.7617,1.21559,-28.4501,51.9476,-21.4435,1.14349,-5.53609
0.209789,16.7511,-17.6208,-16.3937,-86.5227,16.8944,32.9281,0.0101514,5.9864,7.69283,1.79432,8.36002,-8.51664,0.267212,5.09604,-10.3683,-4.9336,-5.10222,22.9799,-4.64843,-8.12917,8.86186,-3.64201,-2.43127,-2.38542e-14,-2.54444e-14,-5.15122,-46.8737,-57.9789,31.2096,-12.3178,-15.9683,-1.09471,7.12502,10.2307,-30.8259,-2.38542e-14,-2.54444e-14,-45.4377,6.1201,84.5071,51.427,11.9317,-12.431,46.3148,7.12502,13.6416,75.8478,-29.1847,17.6426,-0.370174,43.2319,-18.961,-5.52762,0.956969,-19.7756,3.50808,-28.938,51.6552,-21.6672,-0.445541,-4.82056
0.230109,16.7414,-17.5281,-18.8058,-86.2087,19.3887,33.0945,0.157541,5.53134,7.75038,1.84628,8.38991,-8.552,0.296913,5.35229,-10.8945,-5.13809,-5.34274,23.0888,-4.85728,-7.97912,9.00772,-3.75017,-2.38752,1.59028e-15,-5.08889e-14,-6.25752,-47.5529,-56.7056,32.544,-13.8704,-16.1721,-1.27974,7.12502,10.0342,-31.0205,1.59028e-15,-5.08889e-14,-45.3451,6.3953,84.3156,50.9191,11.9949,-10.1165,46.3917,7.12502,15.8715,75.7612,-29.8495,16.45,-0.213399,44.6389,-18.7374,-4.94899,0.334276,-19.6463,3.66694,-29.6426,51.2329,-21.9203,-0.363927,-4.11802
0.258256,16.7298,-17.4445,-16.5265,-85.9981,17.6005,32.8564,0.0416396,5.06814,7.62545,1.57147,8.54956,-8.61818,0.182109,5.87291,-11.2964,-5.01772,-5.46681,23.4516,-4.52741,-8.44662,9.21258,-3.68459,-2.52376,-1.90833e-14,-6.36111e-15,-6.95383,-47.2214,-55.8926,33.7404,-15.2282,-16.0965,-1.45837,7.12502,10.1071,-31.1956,-1.90833e-14,-6.36111e-15,-45.9426,7.66068,83.802,50.7468,12.0411,-8.9573,46.7433,7.12502,16.9875,76.0205,-31.0263,15.306,0.273275,46.138,-18.4193,-4.4886,-0.294107,-20.0007,3.96627,-29.9328,50.861,-22.0822,-0.227109,-6.13473
0.270245,16.7271,-17.3325,-14.7308,-85.7597,15.7942,33.0059,-0.0339201,5.39677,7.64222,1.58054,8.39559,-8.62957,0.181466,5.52878,-10.5443,-4.88577,-4.79708,22.3056,-4.52139,-8.68339,8.64173,-3.58913,-2.63399,2.22639e-14,4.77083e-15,-8.40721,-48.1024,-54.4942,35.0183,-16.5812,-15.2016,-1.66304,7.12502,10.9703,-31.3564,2.22639e-14,4.77083e-15,-46.1668,8.33451,83.2908,50.3881,11.298,-9.34957,46.9699,7.12502,16.6099,76.2791,-31.571,14.0816,0.849388,47.5486,-18.113,-3.79016,-0.705442,-19.7335,3.41572,-30.3938,50.408,-22.0883,0.183734,-6.03527
0.279397,16.7296,-17.2197,-14.5105,-85.5311,15.5608,33.1067,-0.326005,5.25478,7.74225,1.15059,8.48919,-8.54191,-0.0277817,5.86538,-10.4098,-4.56639,-5.50545,21.8186,-4.02242,-8.44032,8.49403,-3.3694,-2.3647,-9.54166e-15,-4.29375e-14,-8.44445,-48.0066,-53.8757,35.8715,-17.2963,-13.7529,-2.26405,7.12502,12.3674,-31.8782,-9.54166e-15,-4.29375e-14,-46.5048,9.70272,82.7441,49.9117,10.8504,-9.6155,47.2525,7.12502,16.3539,76.583,-32.1481,12.5741,1.38717,48.9234,-17.692,-3.13647,-2.11587,-19.4327,2.76512,-30.9426,49.901,-22.0034,0.414337,-5.61611
0.299581,16.7334,-17.1312,-13.2377,-85.3811,14.3811,33.2014,-0.0880961,5.21752,7.81062,1.43602,8.39523,-8.5195,0.108205,5.67754,-10.6098,-4.81128,-5.26331,21.8306,-4.44139,-8.08555,8.52384,-3.5034,-2.33242,-3.49861e-14,-2.54444e-14,-9.98284,-49.0199,-52.2343,36.8019,-18.2147,-12.6758,-2.21672,7.12502,13.4057,-31.7654,-3.49861e-14,-2.54444e-14,-46.26,9.09125,82.3992,49.3068,10.5581,-9.3981,47.6205,7.12502,16.5632,76.9336,-32.9706,11.5468,2.1679,50.3895,-17.2304,-3.54356,-5.32368,-19.3443,3.40754,-31.0347,49.4112,-21.9403,-1.22424,-2.32789
0.324159,16.7534,-17.0203,-13.1786,-84.86,14.614,33.0493,-0.406037,5.32544,7.83222,1.04448,8.24774,-8.39626,-0.0708762,5.60079,-10.8527,-4.73685,-5.33742,21.8674,-4.28714,-8.13259,8.58656,-3.44665,-2.33055,2.06736e-14,7.31528e-14,-10.4057,-48.7251,-51.5503,37.661,-20.2175,-12.6193,-1.49837,7.12502,13.4601,-31.0434,2.06736e-14,7.31528e-14,-46.3466,9.50299,82.0325,48.9612,10.5562,-9.40793,48.3684,7.12502,16.5537,77.6824,-33.8666,10.2808,2.74893,51.7718,-16.5477,-4.89044,-12.7542,-19.2289,0.546747,-31.8253,48.6956,-21.5311,0.183452,1.41741
0.33637,16.7604,-16.9508,-15.5459,-85.0661,17.0042,33.3025,-0.00884624,4.67342,7.96235,1.33559,8.25982,-8.40576,0.0683941,5.85735,-11.5736,-4.7546,-4.51432,22.5231,-4.23305,-8.87648,8.90204,-3.46849,-2.76109,9.54166e-15,-6.36111e-15,-11.3615,-48.3487,-50.1525,38.4995,-22.6206,-12.0956,-0.842092,7.12502,13.9648,-30.3531,9.54166e-15,-6.36111e-15,-46.1241,8.79679,81.9774,48.3337,10.7773,-10.2446,48.3894,7.12502,15.7481,77.7687,-34.7403,10.5301,3.00949,53.361,-17.0085,-3.71572,-4.80639,-19.0539,3.75867,-31.8804,48.0485,-21.4234,-2.43969,1.2875
0.338865,16.7882,-16.8564,-20.8692,-85.0151,22.3072,33.4897,-0.0657391,3.8094,8.03372,0.979772,8.27749,-8.41454,-0.0932018,6.47551,-10.7254,-4.29274,-5.29735,21.43,-3.667,-8.31559,8.42168,-3.15406,-2.315,6.36111e-15,-1.11319e-14,-11.1231,-47.7752,-49.6597,39.1581,-23.2662,-10.245,-1.40064,7.12502,15.7477,-30.78,6.36111e-15,-1.11319e-14,-46.6288,10.1374,81.7117,47.9342,10.4028,-11.0614,48.6378,7.12502,14.9613,78.0774,-35.5543,9.69911,3.40518,54.7356,-16.3325,-4.75624,-11.9797,-18.4259,1.6287,-33.0243,47.1955,-20.9124,-0.140635,1.10837
0.369132,16.8038,-16.764,-20.4104,-84.101,22.4588,33.1467,-0.269835,3.8151,7.93156,0.721399,8.01437,-8.35956,-0.1923,6.27626,-10.8742,-4.29773,-4.77011,21.2951,-3.72949,-8.43135,8.3816,-3.1443,-2.4441,-4.45278e-14,-6.99722e-14,-12.1113,-48.6126,-48.5365,40.115,-24.2928,-8.64495,-2.03017,7.12502,17.2882,-31.2812,-4.45278e-14,-6.99722e-14,-46.2484,9.87404,81.2596,47.1881,9.99914,-11.472,48.913,7.12502,14.5657,78.3816,-36.8621,8.15724,3.80683,56.207,-15.9476,-5.12788,-14.3329,-18.7735,1.3172,-33.6308,46.545,-20.3655,-1.20724,4.25282
0.376836,16.8309,-16.6587,-18.7667,-83.9169,21.0632,32.9749,-0.491829,3.84284,8.01482,0.421619,8.03032,-8.17481,-0.337137,6.38226,-11.2155,-3.86944,-4.53746,21.7432,-3.00524,-9.09822,8.60042,-2.8863,-2.66156,2.70347e-14,9.54166e-15,-12.0465,-48.4151,-47.9985,40.8846,-26.0516,-7.68315,-2.03708,7.12502,18.2137,-31.2043,2.70347e-14,9.54166e-15,-46.2065,10.5597,80.9184,46.6282,9.4112,-11.3861,49.0162,7.12502,14.6485,78.4788,-37.8239,7.37748,4.60583,57.4358,-15.5929,-4.96786,-14.7804,-18.6692,1.5287,-33.8724,45.8014,-19.8467,-2.23059,7.99604
0.404381,16.8607,-16.5845,-15.0552,-83.5288,17.4739,33.308,-0.569287,3.68529,7.99423,0.314249,8.29649,-8.33402,-0.394715,6.80596,-11.9188,-4.08671,-4.5372,22.2251,-3.19901,-9.22504,8.89049,-3.0224,-2.76658,1.27222e-14,4.45278e-14,-12.2721,-48.6973,-47.1681,41.7884,-27.4241,-6.86207,-1.92135,7.12502,19.0035,-31.013,1.27222e-14,4.45278e-14,-46.2646,11.2609,80.7608,46.198,8.51695,-11.4479,48.8588,7.12502,14.589,78.3257,-38.6215,6.70457,5.71207,58.645,-15.1871,-4.89727,-15.487,-18.567,2.10777,-33.7403,45.1766,-19.5088,-2.88636,6.42059
0.390328,16.8931,-16.4674,-16.4824,-83.4978,18.9013,33.3553,-0.58521,3.54989,8.07719,0.236189,8.30662,-8.25835,-0.435408,6.91781,-11.2217,-3.66089,-4.41597,21.5224,-2.68615,-9.42354,8.5289,-2.7535,-2.75122,-2.22639e-14,1.11319e-14,-12.5588,-49.7174,-46.2248,42.6076,-28.0875,-6.50133,-2.03104,7.12502,19.3504,-31.0883,-2.22639e-14,1.11319e-14,-46.1854,11.3805,80.7466,45.5847,8.30955,-12.2048,49.0219,7.12502,13.8596,78.5401,-39.22,6.44891,6.02194,59.7151,-15.2082,-3.28983,-9.62904,-18.1093,1.79773,-34.3867,44.4363,-19.3584,-2.37598,6.44961
0.402694,16.9384,-16.3691,-16.0155,-82.9682,18.7113,33.4533,-0.91852,3.47451,7.94863,-0.180374,8.27043,-8.39893,-0.622788,7.08049,-11.3977,-3.39755,-4.48478,21.7066,-2.27097,-9.47854,8.63971,-2.58455,-2.72822,-2.70347e-14,6.83819e-14,-12.5152,-50.8735,-45.8478,43.1639,-28.2043,-6.32532,-1.68264,7.12502,19.5196,-30.7228,-2.70347e-14,6.83819e-14,-46.3671,11.7239,80.5247,45.2241,7.88469,-11.9732,49.4435,7.12502,14.0828,78.9463,-40.1092,5.52065,6.67291,60.7205,-14.8,-2.33914,-8.43285,-17.967,1.06643,-34.8481,43.648,-18.6092,-2.90423,9.75701
0.41256,16.9696,-16.2846,-16.8779,-82.5852,19.8655,33.4456,-1.06509,2.98108,7.90409,-0.514387,8.28189,-8.42409,-0.76892,7.4861,-11.6994,-3.24426,-4.46107,22.0085,-1.97453,-9.72727,8.80784,-2.49378,-2.80651,3.49861e-14,-2.06736e-14,-12.2911,-52.0345,-45.6094,43.6571,-28.4205,-5.78097,-1.64083,7.12502,20.0429,-30.6271,3.49861e-14,-2.06736e-14,-46.6488,12.3076,80.313,45.1273,7.0365,-10.9782,49.7702,7.12502,15.0415,79.2039,-40.9998,4.70088,7.31303,61.5671,-14.3382,-1.20773,-11.0449,-17.7946,1.52858,-35.3221,42.8355,-17.8751,-3.99963,12.092
0.411804,16.9991,-16.187,-18.3943,-82.3561,21.5848,33.3619,-1.08108,2.51167,7.95125,-0.697767,8.26884,-8.32869,-0.849376,7.79031,-11.0823,-2.77885,-4.54822,21.5372,-1.3985,-9.69263,8.55192,-2.19529,-2.68678,2.54444e-14,-1.43125e-14,-12.4529,-53.2039,-44.8304,44.0684,-29.109,-3.95212,-1.65023,7.12502,21.7999,-30.4425,2.54444e-14,-1.43125e-14,-46.7011,12.4723,80.3089,44.9826,6.51664,-10.7442,49.5855,7.12502,15.2669,79.0021,-41.8076,4.05623,7.91286,62.3105,-13.8637,-0.00506439,-14.2264,-17.4801,2.04726,-35.9604,42.0753,-17.0865,-4.68636,12.099
0.406862,17.0306,-16.0841,-16.4066,-82.1101,19.6601,33.4079,-1.2597,2.7353,8.00254,-0.86048,8.2462,-8.26668,-0.933201,7.70275,-11.6269,-2.80217,-4.50573,22.1575,-1.38615,-9.51475,8.86687,-2.20601,-2.66673,4.45278e-14,-4.13472e-14,-13.0066,-54.4692,-43.7174,44.4806,-29.9138,-1.36477,-1.76918,7.12502,24.2825,-30.2513,4.45278e-14,-4.13472e-14,-46.621,12.2668,80.2504,44.9084,6.01028,-10.143,49.1261,7.12502,15.8459,78.4976,-42.3589,3.51049,8.92539,62.836,-13.4017,1.23724,-13.3513,-17.1378,2.16702,-36.1826,41.3819,-16.3943,-4.80201,7.2476
0.416895,17.0598,-15.9937,-14.5582,-81.5878,18.3772,33.0503,-1.38743,2.87486,7.87643,-0.967157,8.14734,-8.25184,-0.967364,7.54872,-12.2482,-3.00166,-4.11625,22.8056,-1.67101,-9.40259,9.19041,-2.32988,-2.76235,-4.77083e-15,-1.27222e-14,-14.2399,-55.414,-42.1562,44.9067,-31.119,0.720268,-1.71259,7.12502,26.2801,-29.9124,-4.77083e-15,-1.27222e-14,-46.4694,11.4902,80.274,44.8314,5.97296,-11.6287,48.4997,7.12502,14.4148,77.9791,-43.3985,2.74421,9.87309,63.2336,-12.8328,2.56403,-11.7339,-17.3847,2.37521,-36.3815,40.7457,-15.7353,-5.54765,2.84925
0.403455,17.0945,-15.8789,-14.0289,-81.2663,17.9695,32.9629,-1.82666,2.77569,7.98128,-1.57816,8.29172,-8.03679,-1.26898,7.97463,-11.4012,-2.14556,-4.89521,21.7424,-0.494078,-9.19761,8.71633,-1.76413,-2.37953,-2.54444e-14,1.90833e-14,-12.9849,-55.1567,-42.4877,45.242,-32.2883,2.33073,-1.49914,7.12502,27.8208,-29.4596,-2.54444e-14,1.90833e-14,-46.658,12.3584,80.4095,45.0237,5.92297,-15.5873,48.7605,7.12502,10.5982,78.4733,-43.8223,2.24166,10.7416,63.4248,-12.2164,3.96544,-12.1978,-17.0493,2.25474,-36.7849,40.1383,-15.0858,-5.6958,13.5411
0.406773,17.1372,-15.7812,-11.0802,-81.0279,15.1333,33.0385,-1.96832,2.92275,7.97731,-1.69531,8.4862,-8.05762,-1.33243,8.15414,-11.8757,-2.24559,-4.78713,22.3222,-0.543533,-9.39196,9.00346,-1.83972,-2.49855,3.18055e-14,-4.13472e-14,-13.3733,-55.2885,-41.7003,46.1327,-33.2878,3.57468,-1.52458,7.12502,29.0096,-29.2867,3.18055e-14,-4.13472e-14,-46.6056,12.0776,80.6392,45.0499,5.82537,-15.5971,48.6407,7.12502,10.5888,78.354,-44.1973,1.81703,12.1858,63.4165,-11.6064,5.37123,-13.339,-16.7927,2.51428,-36.66,39.5874,-14.6193,-5.99483,5.77697
0.391837,17.1622,-15.7028,-11.0937,-80.6437,15.523,32.6844,-1.87188,2.45955,7.99432,-1.73028,8.51594,-7.89909,-1.33912,8.4349,-11.7456,-2.20237,-4.51889,22.1814,-0.559034,-9.35802,8.92403,-1.80797,-2.52469,-3.49861e-14,8.5875e-14,-14.3376,-55.3797,-40.3844,47.0885,-34.1775,4.75469,-1.7753,7.12502,30.136,-29.3379,-3.49861e-14,8.5875e-14,-46.4469,11.2157,80.852,45.2092,5.96518,-10.7373,48.5473,7.12502,15.2735,77.9634,-44.8502,1.11532,13.1719,63.3876,-11.1431,6.56444,-15.5679,-16.7804,3.46948,-36.9879,39.0163,-13.9566,-7.30201,6.44592
0.382559,17.2021,-15.6055,-8.95099,-80.2974,13.7515,32.2828,-1.99484,2.71112,7.98349,-1.82227,8.47623,-7.741,-1.3795,8.26748,-11.6307,-2.26195,-4.43565,22.106,-0.719051,-9.10602,8.86873,-1.83883,-2.46337,6.67916e-14,-7.15625e-14,-15.2142,-55.1153,-39.0963,47.7521,-34.9311,5.90933,-1.43621,7.12502,31.2369,-28.7923,6.67916e-14,-7.15625e-14,-46.3925,10.9501,80.6806,45.3337,5.3255,-13.5539,48.1217,7.12502,12.5592,77.7242,-45.3858,0.336323,14.5942,63.1838,-10.8047,7.51725,-16.4602,-16.7648,3.22889,-37.0086,38.4625,-13.2766,-7.69763,6.38355
0.380443,17.2274,-15.4978,-8.51883,-79.8169,13.5852,32.1283,-2.19656,2.91262,7.90437,-2.0111,8.32846,-7.74429,-1.45865,8.0581,-12.5877,-2.87648,-4.54655,22.8249,-1.53433,-8.57504,9.27851,-2.21295,-2.39731,-2.54444e-14,4.6118e-14,-16.0868,-54.4939,-37.9443,48.5798,-35.4689,6.50716,-0.881663,7.12502,31.8064,-28.1262,-2.54444e-14,4.6118e-14,-46.4393,10.7273,80.5147,45.5904,4.68874,-14.7817,47.3817,7.12502,11.3753,77.0532,-45.8223,-0.32946,15.5781,62.9984,-10.2824,8.70336,-15.3148,-16.6123,3.6286,-37.3534,37.8561,-12.5486,-8.45572,6.72086
0.371437,17.2403,-15.3897,-9.57912,-79.4396,14.9633,31.9129,-2.22823,2.73032,7.81235,-2.10289,8.17034,-7.74938,-1.48475,8.01057,-11.7022,-2.47891,-4.12889,22.2033,-1.13127,-8.76872,8.89635,-1.96834,-2.4461,3.49861e-14,-1.43125e-14,-17.094,-54.0093,-36.592,49.5538,-35.9197,7.50406,-0.486319,7.12502,32.7554,-27.5378,3.49861e-14,-1.43125e-14,-46.4517,10.1266,80.5414,45.9019,4.75394,-13.7078,47.3619,7.12502,12.4109,76.9735,-46.3209,-1.05278,16.3271,62.781,-9.97494,10.0281,-15.88,-16.421,4.22812,-38.0402,37.1498,-12.0336,-8.97057,6.75203
0.361386,17.2583,-15.2864,-10.1417,-79.0719,15.8187,31.7227,-2.20737,2.53897,7.73214,-2.12816,8.0663,-7.75843,-1.48159,8.00462,-11.4216,-2.43262,-3.47806,21.9787,-1.16971,-9.05249,8.75076,-1.94501,-2.64091,-2.38542e-14,-1.74931e-14,-18.0899,-54.0078,-35.2622,50.624,-36.219,8.80944,-0.302355,7.12502,33.9963,-27.0869,-2.38542e-14,-1.74931e-14,-46.2022,8.58169,80.6123,46.1931,5.76563,-13.2097,47.5008,7.12502,12.891,77.0826,-46.7383,-1.837,17.2639,62.4688,-9.68907,11.221,-16.1181,-16.1726,4.34906,-38.6057,36.413,-11.3666,-9.38213,7.32173
0.350318,17.2727,-15.1856,-11.963,-78.6406,18.0751,31.4375,-2.23937,2.00877,7.61892,-2.326,7.89958,-7.74184,-1.5524,8.17284,-11.3284,-2.2136,-2.59175,21.99,-0.94533,-9.54273,8.7272,-1.81662,-2.93092,-3.49861e-14,-8.42847e-14,-18.7045,-53.964,-34.4941,51.9556,-36.4061,10.0224,-0.0330771,7.12502,35.1475,-26.5546,-3.49861e-14,-8.42847e-14,-46.4831,8.8884,80.4006,46.8064,5.33361,-12.1664,46.6717,7.12502,13.8966,76.1873,-47.2343,-2.68123,17.9047,62.0186,-9.31702,12.1784,-15.5238,-16.0405,4.7549,-39.4387,35.7058,-10.4315,-10.307,10.1201
0.339039,17.2886,-15.0833,-12.1538,-78.3207,18.5536,31.2807,-2.34592,1.69601,7.52995,-2.54578,7.88501,-7.74515,-1.64469,8.40116,-11.6042,-2.44323,-3.43077,22.2957,-1.20551,-8.85266,8.89215,-1.95247,-2.59862,-1.43125e-14,8.26944e-14,-18.9119,-53.4755,-33.9711,53.2779,-36.9588,10.9532,0.514742,7.12502,36.0299,-25.7944,-1.43125e-14,8.26944e-14,-46.6159,9.34241,80.1594,47.2383,5.35493,-13.237,46.4572,7.12502,12.8647,76.0407,-47.4845,-3.37806,18.9837,61.3729,-9.00251,12.6557,-16.1509,-15.9835,6.16264,-39.8572,35.2369,-9.57277,-11.6812,12.1783
0.335201,17.3152,-14.974,-8.8514,-78.0726,15.402,31.2651,-2.51404,2.20443,7.39377,-2.57377,8.00921,-7.89028,-1.65652,8.27465,-11.1845,-2.20627,-3.40332,22.0186,-0.950246,-8.71898,8.726,-1.79704,-2.51185,-1.59028e-14,-2.70347e-14,-19.6918,-52.765,-32.8872,54.8016,-38.0799,11.7576,0.616576,7.12502,36.7914,-25.5015,-1.59028e-14,-2.70347e-14,-46.643,8.88717,80.0666,47.6361,5.82118,-12.4823,46.4477,7.12502,13.5922,75.984,-47.4843,-4.14846,20.9156,60.5578,-8.71686,12.9646,-18.4954,-15.7565,5.07452,-39.657,34.7249,-9.28153,-10.3878,9.94786
0.32888,17.3182,-14.8595,-5.07683,-77.785,11.6782,31.241,-2.6584,2.9519,7.32229,-2.50932,8.14708,-7.97356,-1.63389,7.99678,-11.3543,-2.44894,-2.90715,22.0516,-1.32451,-8.93272,8.74541,-1.95454,-2.71091,3.18055e-14,3.81667e-14,-20.7264,-52.3326,-31.5732,56.5124,-38.6793,12.517,0.629789,7.12502,37.5095,-25.3012,3.18055e-14,3.81667e-14,-46.6252,8.18026,80.0721,48.0923,6.46089,-11.7697,46.5692,7.12502,14.2789,76.0583,-47.374,-5.12837,23.0291,59.6888,-8.21739,13.1356,-20.0497,-15.6824,7.06806,-39.1602,34.4677,-8.78095,-12.3972,9.49401
0.2993,17.3203,-14.7509,-8.59598,-77.4295,15.5203,30.7186,-2.67518,2.15409,7.43255,-2.82507,7.89478,-7.5954,-1.77165,8.23009,-11.1473,-2.20185,-3.17362,21.4982,-1.01684,-8.64288,8.5345,-1.77335,-2.51297,-3.65764e-14,5.88403e-14,-20.8297,-52.1131,-31.2269,58.4245,-38.6337,13.157,0.716687,7.12502,38.1141,-25.0514,-3.65764e-14,5.88403e-14,-46.4943,8.41751,79.805,48.5272,6.42961,-12.8165,46.46,7.12502,13.2701,76.0176,-47.4353,-6.18489,23.3317,58.96,-7.6142,13.403,-20.3898,-15.4419,8.33858,-40.4365,34.069,-8.32565,-13.4682,10.3118
0.284727,17.3351,-14.6467,-6.44915,-76.9349,13.7721,30.3784,-2.63563,2.50006,7.09134,-2.62079,7.89603,-7.85891,-1.6484,7.97321,-11.0665,-2.7234,-2.65264,22.0084,-1.84302,-8.58714,8.65315,-2.12759,-2.67959,6.36111e-14,-1.59028e-15,-23.1583,-51.8963,-29.1692,60.6301,-38.5232,13.3196,0.92,7.12502,38.2676,-24.8059,6.36111e-14,-1.59028e-15,-46.65,7.39076,79.5936,48.857,6.39445,-12.2728,46.6,7.12502,13.7942,76.1226,-47.5835,-7.24239,24.9416,58.1008,-6.83857,13.3199,-19.1245,-15.5564,9.00075,-40.4434,33.6975,-7.20596,-14.4402,14.0288
0.265386,17.344,-14.5348,-5.68031,-76.4367,13.2249,30.1754,-2.71042,2.64864,6.85314,-2.63581,7.91722,-8.03602,-1.63853,7.92234,-10.6097,-2.61044,-2.33196,22.0073,-1.72105,-8.89591,8.56256,-2.07105,-2.81488,-1.11319e-14,-6.36111e-15,-24.4496,-51.4039,-27.7273,62.7048,-38.2305,13.6162,1.34205,7.12502,38.5476,-24.3061,-1.11319e-14,-6.36111e-15,-46.6997,6.87296,79.5575,49.1178,6.79756,-12.465,47.0987,7.12502,13.6089,76.6339,-47.511,-8.50255,26.2736,57.2497,-5.78747,13.2247,-16.9174,-15.3418,9.23958,-40.7324,33.2543,-6.01975,-14.8693,18.3389
0.241301,17.3391,-14.4205,-7.76321,-76.0338,15.4229,29.9932,-2.79932,2.17634,6.84258,-2.90335,7.71702,-7.93576,-1.75148,8.04316,-10.5112,-2.50504,-2.2675,21.7803,-1.6077,-8.84539,8.47034,-1.99594,-2.78683,5.725e-14,-4.29375e-14,-24.4371,-50.0963,-27.1618,64.7647,-38.7054,13.6221,1.0482,7.12502,38.5531,-24.5984,5.725e-14,-4.29375e-14,-46.6105,6.62289,79.3971,49.4849,7.54543,-13.5299,47.1617,7.12502,12.5823,76.7628,-47.2543,-9.65723,26.8431,56.4477,-4.8419,12.9904,-15.9564,-14.8719,9.15548,-41.7365,32.8031,-5.23592,-14.6408,21.2101
0.22052,17.3538,-14.3184,-5.42716,-75.6148,13.2763,29.7918,-3.40598,2.16649,6.89402,-3.68915,8.04239,-7.68993,-2.1428,8.65019,-10.4386,-1.81121,-3.07822,21.454,-0.537101,-8.74519,8.40207,-1.54171,-2.5004,2.06736e-14,-1.11319e-14,-21.9425,-48.9769,-28.9206,66.8256,-38.301,13.4106,1.05131,7.12502,38.3535,-24.6508,2.06736e-14,-1.11319e-14,-46.7142,8.21032,78.8397,49.8133,8.06536,-13.2714,47.0558,7.12502,12.8315,76.6414,-47.0356,-10.5104,28.4594,55.5255,-4.19785,12.1538,-15.8214,-14.7447,9.43626,-41.5524,32.345,-4.18668,-14.6608,23.6245
0.189734,17.338,-14.2155,-4.65718,-75.1599,12.3956,29.8223,-3.60205,2.40575,6.86746,-3.86545,7.9514,-7.72076,-2.22525,8.48129,-10.9493,-2.08707,-2.93828,21.8672,-0.93443,-8.50009,8.62167,-1.7138,-2.50242,2.54444e-14,0,-22.4412,-48.7856,-28.5319,69.2143,-37.5501,13.3498,1.36218,7.12502,38.2962,-24.3558,2.54444e-14,0,-46.5532,7.95613,78.4995,50.1236,8.82574,-15.3294,47.0717,7.12502,10.8471,76.7715,-46.4935,-11.4098,29.6154,54.7574,-3.77962,11.2885,-11.8458,-14.0573,11.1352,-41.8636,31.9319,-5.08693,-15.2643,14.3789
0.164356,17.3414,-14.1128,-4.63559,-74.5925,12.5732,29.6157,-3.72768,2.23257,6.73359,-4.05727,8.03355,-7.74719,-2.3051,8.72409,-11.0694,-2.02587,-2.79564,21.9871,-0.793077,-8.86051,8.68762,-1.68292,-2.64122,9.54166e-14,-1.57437e-13,-22.5967,-48.5095,-27.9235,71.5017,-36.6786,13.7431,1.55434,7.12502,38.6673,-24.0602,9.54166e-14,-1.57437e-13,-46.5747,8.33246,78.4274,50.4363,9.05238,-14.1811,47.0627,7.12502,11.9545,76.7014,-46.3142,-12.4628,30.5596,54.179,-3.68892,10.5747,-2.61332,-13.72,11.9074,-42.262,31.3821,-4.01031,-15.9448,16.8335
0.137924,17.3824,-13.9513,-3.18617,-74.2966,10.9088,29.5703,-3.97303,3.05732,6.68531,-4.11911,8.19463,-7.79716,-2.3474,8.46945,-10.6667,-1.93503,-3.04734,21.7624,-0.643603,-8.96284,8.54553,-1.63066,-2.60425,2.38542e-14,-6.67916e-14,-22.8238,-47.8434,-27.0542,74.0377,-35.3103,12.7586,1.55346,7.12502,37.7379,-24.3166,2.38542e-14,-6.67916e-14,-46.5583,8.73723,78.5726,50.6678,8.97711,-14.4521,47.4511,7.12502,11.6932,77.1048,-45.4564,-13.7262,31.7426,53.6313,-4.0313,10.4472,7.7316,-13.0944,10.1501,-41.8576,30.8767,-1.06131,-14.2381,32.2959
0.113532,17.3351,-13.8435,-4.07884,-73.5132,12.1421,29.1083,-4.19806,2.74823,6.75847,-4.49186,7.88397,-7.87949,-2.45588,9.00379,-10.7223,-1.87978,-3.2717,21.9201,-0.545229,-8.80626,8.61693,-1.59562,-2.50955,2.8625e-14,7.95139e-15,-22.7686,-47.4216,-26.7123,76.4459,-34.3358,12.9028,1.86356,7.12502,37.8741,-23.9698,2.8625e-14,7.95139e-15,-46.359,8.852,78.4086,50.7671,9.27118,-12.4207,46.9072,7.12502,13.6516,76.4395,-45.573,-14.6649,32.0053,53.5887,-5.00149,8.78879,17.9094,-12.6165,11.2203,-43.0439,30.376,-2.56801,-14.9964,19.2665
0.0925768,17.3547,-13.7152,-3.8375,-72.999,12.2239,28.7564,-4.51028,2.81573,6.58888,-4.86739,7.87718,-7.85974,-2.62584,9.05926,-11.032,-1.84419,-3.47817,22.3647,-0.439679,-8.68572,8.83457,-1.57816,-2.4428,-1.27222e-14,-1.27222e-14,-22.6507,-47.1079,-26.7439,79.2035,-33.4665,13.474,1.93915,7.12502,38.4133,-23.7464,-1.27222e-14,-1.27222e-14,-46.3189,9.18655,78.1674,50.9559,9.25792,-14.4234,47.2855,7.12502,11.7209,76.9376,-45.298,-15.0126,32.1939,53.1928,-6.8465,5.94403,21.9543,-12.6439,11.0807,-43.2251,30.2694,-0.358149,-15.2455,28.3881
0.0741595,17.3298,-13.5857,-3.43412,-72.5817,12.7407,27.5991,-4.68307,2.91731,6.3531,-5.1009,7.86381,-7.54384,-2.7314,8.9421,-11.2053,-1.90866,-3.44527,22.369,-0.513331,-8.71532,8.86584,-1.61539,-2.46955,-1.43125e-14,-6.52014e-14,-22.8906,-47.1346,-26.5876,82.1369,-32.0389,13.8184,1.98382,7.12502,38.7383,-23.6107,-1.43125e-14,-6.52014e-14,-46.1772,9.76738,77.9435,51.111,8.86356,-12.0103,47.7664,7.12502,14.0471,77.2717,-45.8422,-14.6597,32.144,52.9193,-9.13744,3.28305,21.3986,-13.1923,11.0063,-43.926,29.9871,0.709994,-15.4208,29.3914
0.0571725,17.2707,-13.4777,-3.53665,-71.9782,12.9166,27.5694,-4.83305,2.95936,6.21039,-5.25769,7.85385,-7.6761,-2.79395,8.96785,-10.5664,-1.76268,-3.25612,22.0207,-0.376329,-8.91352,8.62798,-1.53082,-2.53208,-3.18055e-15,5.40694e-14,-23.1715,-46.7897,-26.1478,84.7402,-30.6592,13.7686,1.99541,7.12502,38.6914,-23.6123,-3.18055e-15,5.40694e-14,-45.9147,9.7758,77.8654,51.2637,9.00678,-11.25,47.9482,7.12502,14.7797,77.4012,-45.4041,-14.343,31.9188,52.3391,-10.9811,1.41694,16.6941,-13.0678,12.3719,-44.3033,30.2543,1.25704,-16.9652,27.0301
0.0385803,17.244,-13.36,-3.7009,-71.622,13.0976,27.528,-4.91815,2.89658,6.14326,-5.37471,7.84965,-7.71213,-2.84346,9.03887,-10.559,-1.80083,-3.28319,22.0918,-0.440627,-8.81951,8.64886,-1.55606,-2.50403,-2.8625e-14,-6.20208e-14,-22.9734,-45.4899,-25.5778,86.8007,-29.6107,13.2106,2.16835,7.12502,38.1647,-23.5859,-2.8625e-14,-6.20208e-14,-45.6303,9.58584,77.8878,51.4193,9.3831,-12.2334,47.8588,7.12502,13.8321,77.3789,-44.7789,-13.0363,30.8366,51.9543,-12.0762,0.548664,20.512,-13.0357,13.4358,-44.6223,30.8552,1.31912,-18.1244,23.0112
0.0155074,17.1974,-13.2199,-2.15935,-71.5906,11.1843,27.722,-5.10538,3.8114,6.19306,-5.3574,7.86638,-7.82949,-2.85051,8.54701,-11.1097,-2.00436,-3.04897,22.7244,-0.673651,-8.94837,8.95823,-1.69602,-2.64263,-1.59028e-15,5.56597e-14,-22.9962,-45.007,-25.622,89.3728,-28.0515,12.9835,2.29493,7.12502,37.9502,-23.5178,-1.59028e-15,5.56597e-14,-45.3644,9.5353,77.8841,51.6225,9.43126,-14.2314,47.5773,7.12502,11.906,77.2187,-43.8978,-11.6275,30.3727,51.6732,-12.7258,0.170582,21.8286,-13.0659,14.3377,-44.2865,31.8002,0.840337,-19.1362,14.8942
0.0288241,17.1584,-13.1426,-1.3644,-70.8261,10.5723,27.8839,-5.13086,3.69136,5.97907,-5.35598,8.16517,-8.10969,-2.83374,9.00949,-10.5557,-1.87338,-3.21873,22.153,-0.553236,-8.79822,8.66416,-1.60247,-2.52067,-5.88403e-14,3.18055e-14,-23.1691,-44.5423,-25.1291,91.8158,-26.2368,13.1628,2.85498,7.12502,38.1196,-22.9116,-5.88403e-14,3.18055e-14,-45.0039,9.69035,78.1472,51.7609,9.03516,-12.6782,47.747,7.12502,13.4034,77.2958,-43.7233,-10.4645,29.64,51.5485,-13.2466,0.195204,22.428,-13.9372,15.3003,-43.9933,33.3998,2.47713,-21.6978,15.764
-0.00791463,17.1461,-12.9903,-1.395,-70.9576,10.0344,28.029,-5.11219,4.18432,6.16241,-5.21514,8.1369,-8.0323,-2.78666,8.64512,-10.6274,-1.97484,-3.20839,22.4079,-0.655282,-8.93413,8.76153,-1.67701,-2.58908,-5.725e-14,6.99722e-14,-23.2196,-43.7392,-24.7474,94.3813,-25.1867,12.5319,2.10583,7.12502,37.5237,-23.8214,-5.725e-14,6.99722e-14,-44.5815,9.49668,78.4205,51.8755,8.92924,-11.6295,47.8605,7.12502,14.414,77.34,-42.5489,-8.47285,28.1286,51.807,-13.9481,1.19437,25.7231,-14.0788,15.3803,-43.5415,34.9643,6.55325,-22.5158,27.7109
0.0140106,17.1462,-12.9348,-0.278585,-70.2042,9.43604,27.9209,-4.99407,3.7828,5.89553,-5.12065,8.39844,-8.2349,-2.71773,9.16639,-10.1581,-2.01186,-3.17638,21.9358,-0.810917,-8.69873,8.50571,-1.69029,-2.50511,-6.52014e-14,7.15625e-14,-23.3498,-43.0339,-24.5353,96.7662,-23.4466,12.2724,2.1056,7.12502,37.2783,-23.8864,-6.52014e-14,7.15625e-14,-44.1411,8.85703,78.5666,52.1706,9.09404,-11.6874,47.6347,7.12502,14.3583,77.1182,-42.7094,-6.61442,27.1909,51.8263,-14.4274,0.885666,24.4393,-16.0254,14.5263,-42.7518,37.4082,13.9478,-22.0692,45.3419
-0.0296599,17.1259,-12.7805,-0.456801,-70.7204,8.52793,28.5108,-4.85745,4.32137,6.26975,-4.81621,8.23144,-8.19105,-2.60162,8.59063,-10.657,-2.46041,-2.98437,22.4601,-1.42627,-8.62071,8.75347,-1.98112,-2.5997,8.74653e-14,-1.59028e-15,-23.548,-42.3975,-24.3912,98.961,-20.9071,12.5004,2.61867,7.12502,37.4939,-23.3165,8.74653e-14,-1.59028e-15,-43.6814,8.24809,78.783,52.6449,9.33147,-15.2286,47.7248,7.12502,10.9443,77.4195,-41.1669,-3.92635,25.3353,52.2639,-14.8459,3.34423,35.0092,-16.1641,16.5621,-42.0905,39.5096,18.4465,-22.4023,51.476
-0.00658262,17.1893,-12.6927,0.959486,-69.1733,7.08643,28.8183,-5.33977,4.67803,5.85493,-5.25535,8.70153,-8.30511,-2.86002,8.52184,-11.2611,-2.69603,-2.71128,22.9346,-1.77181,-8.47392,9.01321,-2.12723,-2.66077,2.8625e-14,6.36111e-15,-23.1869,-41.6505,-24.9961,100.965,-18.0587,12.8772,3.56266,7.12502,37.8499,-22.2773,2.8625e-14,6.36111e-15,-43.3155,8.20841,78.7188,53.1505,9.46402,-13.2033,48.5967,7.12502,12.8972,78.1782,-40.7297,-3.73693,24.8792,52.1792,-15.2053,3.70718,36.4933,-18.0761,14.8559,-40.2885,42.1877,24.7216,-20.2263,55.542
-0.0292638,17.0773,-12.5756,1.93992,-69.0606,5.36312,29.2033,-5.49361,5.3341,6.01611,-5.25921,8.63505,-8.32749,-2.88331,8.11914,-10.0337,-2.34883,-2.51094,22.0448,-1.4632,-8.36099,8.48428,-1.90105,-2.56552,-5.40694e-14,3.18055e-14,-22.8893,-40.4261,-25.6804,103.126,-15.6317,12.6511,3.8294,7.12502,37.6363,-22.0679,-5.40694e-14,3.18055e-14,-43.2162,8.07494,78.5951,53.7564,9.4661,-10.2723,49.2095,7.12502,15.7215,78.5909,-40.1401,-4.08862,25.616,52.2737,-15.5388,2.38361,26.0794,-18.5868,15.1351,-39.2333,44.5782,28.0505,-18.1692,57.1511
-0.043124,17.0733,-12.4796,2.65263,-68.9003,4.12822,29.4956,-5.3618,5.51706,6.10881,-5.02176,8.65308,-8.37853,-2.77929,7.97921,-10.2064,-2.6503,-2.22366,22.4543,-1.93226,-8.24428,8.63345,-2.09946,-2.63707,3.18055e-15,-5.40694e-14,-22.8694,-39.0251,-26.1576,105.388,-13.3603,11.4793,2.46076,7.12502,36.528,-23.7243,3.18055e-15,-5.40694e-14,-42.9241,7.09018,78.89,54.3601,9.96931,-15.7328,48.3646,7.12502,10.4579,78.0845,-39.3993,-3.35261,25.3808,52.2698,-15.6263,2.32136,29.2689,-19.448,15.5148,-38.0912,47.2772,29.6159,-17.523,56.2174
-0.0651788,17.064,-12.3757,3.14404,-68.8828,3.23848,29.4669,-5.19635,5.86513,6.23731,-4.74442,8.37283,-8.27987,-2.65287,7.38143,-9.51244,-2.6112,-1.72092,22.1723,-2.0959,-7.81683,8.394,-2.06558,-2.56548,-8.26944e-14,1.11319e-13,-23.4454,-38.1573,-26.5167,106.95,-9.81348,11.5075,3.9913,7.12502,36.5547,-22.187,-8.26944e-14,1.11319e-13,-42.496,5.51118,78.9609,54.9259,10.3419,-14.0707,49.5868,7.12502,12.0609,79.2192,-38.7982,-3.3096,25.5383,52.073,-15.5444,1.24045,25.7779,-20.4366,15.8806,-36.9929,49.7803,30.0913,-18.2945,53.4187
-0.0921059,17.0678,-12.2515,3.42899,-68.9063,2.42167,29.2415,-5.15183,6.25232,6.75206,-4.65802,7.77551,-8.18787,-2.56933,6.93646,-9.85953,-2.81213,-1.26289,22.8237,-2.51806,-7.33261,8.65959,-2.19442,-2.54756,-6.36111e-15,3.18055e-14,-23.5188,-36.742,-27.5639,108.682,-6.82181,10.8418,4.00324,7.12502,35.9244,-22.3318,-6.36111e-15,3.18055e-14,-42.2137,4.42458,78.791,55.5809,10.6086,-12.5567,49.9161,7.12502,13.5205,79.4572,-37.8612,-3.39829,25.4958,51.7511,-15.7291,0.79912,24.1785,-21.2773,15.9892,-35.884,52.5159,29.3637,-20.2629,49.2007
-0.117411,17.1255,-12.1214,2.94747,-68.8453,2.3267,29.333,-5.24476,6.5126,6.87544,-4.73268,7.36543,-8.14261,-2.60582,6.33747,-9.86115,-2.99364,-1.13691,23.2951,-2.89757,-6.8156,8.81217,-2.31781,-2.44567,-3.18055e-14,2.54444e-14,-23.3325,-34.688,-29.0041,110.312,-3.8848,9.54597,3.69341,7.12502,34.6956,-22.9332,-3.18055e-14,2.54444e-14,-42.3539,3.75971,78.5903,56.4692,11.0572,-1.22349,46.4152,7.12502,24.418,74.8792,-36.5677,-3.52123,24.9657,51.257,-16.2116,1.13797,25.3811,-21.8918,14.9436,-35.0641,55.2786,27.2122,-21.5436,43.675
-0.121699,17.1518,-12.027,3.43521,-68.6218,1.61704,29.3145,-5.31633,6.65669,6.8847,-4.79565,7.13042,-8.15268,-2.6329,6.00375,-9.84394,-3.04973,-1.23813,23.6961,-3.07929,-6.24437,8.95315,-2.36,-2.26487,-8.42847e-14,1.1609e-13,-23.0046,-32.5381,-30.7539,111.747,-0.965788,8.65371,3.36686,7.12502,33.8483,-23.4504,-8.42847e-14,1.1609e-13,-42.4001,3.65494,78.1999,57.1335,10.5467,3.42458,44.9726,7.12502,28.8662,72.7593,-35.9154,-3.36278,24.8825,50.7271,-16.3544,0.633474,22.9502,-23.5155,14.5384,-33.6562,58.3259,26.2336,-20.9357,40.2342
-0.115248,17.1062,-11.945,4.0325,-68.6153,0.519505,29.7309,-5.24698,6.75728,6.94905,-4.65353,6.93175,-8.31135,-2.56609,5.70555,-10.0802,-3.15538,-1.18479,24.2966,-3.34655,-5.70244,9.20677,-2.43514,-2.14091,5.56597e-15,0,-22.8031,-30.1735,-32.5577,112.993,1.76974,7.54374,2.51103,7.12502,32.7931,-24.5326,5.56597e-15,0,-42.2853,3.22837,77.7981,57.7086,10.1179,0.0146787,45.6864,7.12502,25.6044,73.9852,-35.2561,-2.87646,25.0323,50.4516,-16.4097,-0.260621,19.0809,-24.3372,15.5997,-32.4982,61.3059,23.1006,-21.8693,30.6055
-0.127606,17.1269,-11.7933,4.20945,-69.2088,-0.630932,30.5709,-5.60567,7.11008,6.7713,-4.95746,7.00081,-8.26486,-2.77394,5.37369,-9.95068,-2.72128,-2.24321,24.562,-2.6738,-5.18484,9.32664,-2.17599,-1.72114,6.67916e-14,6.52014e-14,-21.0229,-27.544,-34.6735,113.154,5.77342,7.73305,5.04608,7.12502,32.9732,-21.9598,6.67916e-14,6.52014e-14,-42.7371,4.50247,77.6447,58.2557,10.1542,-10.6211,47.3436,7.12502,15.3855,76.7511,-33.7961,-2.27651,24.865,50.0603,-16.4828,-0.387397,17.7018,-24.4801,15.5499,-31.4097,64.0747,17.9105,-22.5644,7.20091
-0.140654,17.1433,-11.6578,3.73897,-69.4294,-0.490338,30.4859,-5.44576,7.09471,6.84093,-4.79075,6.82023,-8.17179,-2.69266,5.11828,-9.89336,-2.85772,-2.41632,24.9532,-2.89704,-4.94485,9.45729,-2.27964,-1.64309,2.22639e-14,-3.49861e-14,-20.8668,-24.8576,-36.1251,113.767,8.66617,5.83405,3.93708,7.12502,31.1652,-23.4328,2.22639e-14,-3.49861e-14,-42.7216,4.51618,77.915,58.6704,9.86362,1.17221,44.5394,7.12502,26.7127,72.6739,-33.0687,-1.79168,24.2154,49.871,-16.6742,-0.364345,18.0346,-25.3883,15.4736,-30.6961,66.8617,12.8805,-21.3961,-15.974
-0.115621,17.1702,-11.5695,4.27691,-69.1966,-1.0865,30.6593,-4.90698,6.79634,6.72568,-4.13548,7.07864,-8.37202,-2.37976,5.34266,-9.49814,-3.21365,-2.14461,24.8402,-3.45794,-4.97635,9.32456,-2.50987,-1.74551,1.05753e-13,-1.41535e-13,-21.4376,-22.8082,-36.8657,114.132,11.3425,4.27087,3.02919,7.12502,29.6743,-24.6166,1.05753e-13,-1.41535e-13,-42.1783,3.80524,78.5367,58.8127,9.56356,-12.6825,46.6299,7.12502,13.3992,76.179,-32.6077,-1.66958,24.1295,49.2193,-16.5649,-0.855972,15.9446,-26.806,14.3662,-29.6073,69.3977,9.79743,-18.1238,-17.0151
-0.117193,17.1602,-11.4455,5.22766,-69.8602,-2.3896,30.9998,-3.65806,5.25055,6.77485,-2.91288,8.51802,-8.45645,-1.81515,7.31218,-8.98499,-3.54029,-2.95691,24.4751,-3.63249,-5.74507,9.10715,-2.73967,-1.86793,-3.33958e-14,6.36111e-14,-20.8497,-19.8725,-36.445,114.1,13.5281,2.77609,1.7532,7.12502,28.2466,-26.1376,-3.33958e-14,6.36111e-14,-41.8571,4.06188,80.7295,58.8783,9.39213,-13.7494,46.8382,7.12502,12.3707,76.4522,-31.993,-1.09086,24.1582,48.857,-16.5145,-0.814831,14.5456,-27.9874,15.5703,-27.909,72.0701,7.25645,-17.5146,-21.2929
-0.162409,17.2691,-11.2952,6.12021,-72.2861,-4.22542,31.6891,-2.81076,5.08345,7.06813,-1.92534,8.0413,-8.49756,-1.36143,6.55615,-8.91472,-3.69096,-2.64261,24.8889,-3.94811,-5.57343,9.22601,-2.85018,-1.90475,2.8625e-14,-7.95139e-15,-20.9412,-17.2709,-38.6271,113.574,15.9658,1.21826,2.89838,7.12502,26.7567,-25.2294,2.8625e-14,-7.95139e-15,-41.9708,3.47085,80.4692,59.0459,9.70957,-14.2082,47.0282,7.12502,11.9283,76.6684,-30.1758,0.828411,24.0457,47.9327,-16.3718,-0.317576,13.8082,-27.6524,15.6275,-26.5033,73.8177,5.79432,-13.5663,-20.3174
-0.143293,17.2338,-11.1887,6.84911,-71.6815,-4.73248,31.5797,-2.8988,5.25484,6.70889,-1.91456,8.15373,-8.85132,-1.3422,6.59564,-8.15531,-3.48842,-2.79649,24.8798,-3.71151,-5.49576,9.08989,-2.74665,-1.80803,-2.3059e-14,-5.24792e-14,-20.9591,-14.7595,-40.1987,112.714,18.1542,-0.466812,3.63604,7.12502,25.1432,-24.7282,-2.3059e-14,-5.24792e-14,-42.2445,3.20549,80.9358,59.3069,9.66764,-12.3036,47.1547,7.12502,13.7644,76.6794,-30.2683,0.631478,23.889,47.6362,-16.4055,-0.39889,13.7788,-29.2775,15.624,-25.3216,75.977,3.54719,-12.5547,-25.3629
-0.146508,17.296,-11.0133,6.44812,-71.028,-4.60784,31.3653,-3.28853,6.25938,6.71273,-2.13479,7.82927,-8.74375,-1.45616,5.77327,-8.28932,-3.71113,-2.75119,25.2104,-4.06361,-5.31416,9.22737,-2.89352,-1.80239,2.94201e-14,-3.49861e-14,-21.0079,-12.7156,-41.9736,111.606,20.1246,-2.64152,3.81346,7.12502,23.058,-24.8271,2.94201e-14,-3.49861e-14,-41.9019,2.39508,81.3064,59.3392,9.90585,-9.50871,47.5553,7.12502,16.4567,76.8773,-29.3256,-0.193655,23.2662,46.9488,-16.5853,-0.0592913,12.8237,-29.8992,13.5322,-24.4961,77.4073,2.95624,-10.1761,-20.9317
-0.161355,17.3054,-10.8519,4.84913,-71.0741,-3.16901,30.9985,-3.37609,6.32306,6.84256,-2.30846,7.42188,-8.44771,-1.52985,5.33403,-8.21499,-3.78874,-2.99526,25.3639,-4.20192,-5.03243,9.27954,-2.95365,-1.68207,9.54166e-15,-5.56597e-14,-20.7318,-10.354,-44.1484,110.15,22.2201,-5.01543,4.33229,7.12502,20.7786,-24.5752,9.54166e-15,-5.56597e-14,-41.74,2.7421,81.3371,59.4265,9.60304,-9.57407,47.9414,7.12502,16.3938,77.2686,-28.9543,-0.636857,22.1515,47.2526,-17.1483,0.561797,12.0345,-30.6819,13.4369,-23.8208,79.0533,2.47214,-9.05051,-15.5297
-0.14639,17.3212,-10.7574,5.72722,-71.2134,-3.93177,31.2169,-3.41206,5.8413,6.59951,-2.42995,7.63785,-8.79429,-1.57797,5.89238,-7.72429,-3.48674,-3.70043,25.2739,-3.72235,-4.96336,9.18515,-2.79324,-1.47828,-7.95139e-15,-8.74653e-14,-19.8084,-7.21218,-46.5785,108.17,24.4332,-7.8997,4.96535,7.12502,18.0053,-24.2212,-7.95139e-15,-8.74653e-14,-42.5365,6.10433,80.7399,59.9714,7.82457,-11.2356,47.8036,7.12502,14.7936,77.2556,-28.8778,-0.454732,22.0916,46.9479,-17.3055,0.656807,11.0361,-32.039,12.8178,-22.3251,80.3128,2.11904,-7.54089,-15.6264
-0.158397,17.1929,-10.5866,5.36609,-71.9216,-3.91867,31.358,-3.52747,5.74764,6.60868,-2.61329,7.52459,-8.83125,-1.66597,5.89364,-7.45557,-3.07817,-4.13081,25.4624,-3.08454,-5.11164,9.21684,-2.56718,-1.39419,-5.32743e-14,4.92986e-14,-18.8781,-4.14557,-48.5549,105.876,26.2916,-10.7094,5.58072,7.12502,15.3004,-23.8333,-5.32743e-14,4.92986e-14,-42.7654,6.71925,80.8211,59.856,8.63218,-13.3236,48.3642,7.12502,12.7812,77.953,-28.5739,-0.319858,21.3833,46.8662,-17.4739,1.45967,10.8966,-33.0236,16.6327,-20.5184,81.8797,1.38926,-9.03555,-15.0044
-0.17157,17.327,-10.4313,4.48878,-72.3911,-3.23916,31.4729,-3.41553,5.44834,6.64826,-2.57571,7.3416,-8.83784,-1.6421,5.84647,-7.32588,-2.97647,-4.1709,25.4308,-2.93568,-5.1697,9.1827,-2.50838,-1.38908,1.51076e-14,-7.4743e-14,-18.4139,-1.97793,-50.2933,103.45,28.0992,-13.3751,6.33292,7.12502,12.7316,-23.2589,1.51076e-14,-7.4743e-14,-42.651,6.68068,81.0408,59.7113,9.04309,-15.1325,49.221,7.12502,11.037,78.9108,-27.3705,0.112551,20.542,45.843,-17.8474,1.61683,10.0937,-32.7969,14.0451,-19.9905,81.6073,1.07743,-6.04835,-14.6746
-0.170794,17.4651,-10.2885,5.62628,-72.9558,-4.67092,31.8126,-3.23132,5.56738,6.66771,-2.28271,7.37017,-8.97057,-1.514,5.72668,-7.48488,-2.93894,-4.22324,25.6466,-2.83683,-5.28882,9.28985,-2.4897,-1.42146,2.38542e-15,3.33958e-14,-17.9858,-0.0537705,-52.0336,100.802,29.9303,-15.9731,6.37691,7.12502,10.2261,-23.3545,2.38542e-15,3.33958e-14,-42.6568,6.98165,81.3214,59.6557,8.71428,-17.2155,49.5408,7.12502,9.02736,79.3276,-26.2024,0.898481,20.4991,44.7268,-18.0482,1.27638,7.89998,-32.5002,10.46,-18.9089,81.0554,0.700762,-2.12615,-14.9689
-0.188684,17.4884,-10.1529,4.30623,-73.7789,-3.3093,31.7185,-2.77665,4.57479,6.71823,-2.03444,7.38373,-8.89276,-1.37912,6.17554,-7.65166,-2.88453,-4.96943,25.9547,-2.68208,-5.05957,9.45585,-2.47961,-1.21526,6.36111e-14,-4.45278e-14,-17.326,1.97883,-53.4678,97.766,31.124,-18.4282,6.66085,7.12502,7.8571,-23.1731,6.36111e-14,-4.45278e-14,-42.806,7.93462,81.675,59.6973,7.91848,-19.2406,49.555,7.12502,7.07287,79.4168,-25.4812,1.66696,19.5158,43.4772,-18.0113,1.18219,5.55775,-32.6894,10.2808,-18.2805,80.5899,0.122276,-0.580168,-13.2678
-0.180549,17.5023,-9.99676,5.73505,-74.499,-4.99124,32.0431,-2.75566,4.97838,6.66249,-1.8607,7.31031,-9.0964,-1.30903,5.83623,-7.67189,-2.83415,-5.65246,26.1526,-2.59272,-4.66817,9.55366,-2.47236,-0.962859,3.97569e-15,4.29375e-14,-16.7547,4.23321,-55.0469,94.65,31.8091,-20.6691,6.25239,7.12502,5.69381,-23.6511,3.97569e-15,4.29375e-14,-42.9093,8.31425,81.7855,59.5612,7.91918,-20.9737,49.8448,7.12502,5.39971,79.756,-24.7467,1.96192,19.4598,42.5414,-18.0045,1.77507,4.89193,-32.7919,10.0767,-16.6375,80.1539,-0.413979,0.50916,-7.33816
-0.16434,17.506,-9.8606,8.20544,-74.9635,-7.58001,32.2641,-2.60067,5.41134,6.56497,-1.49372,7.34072,-9.31275,-1.14843,5.51891,-7.41369,-2.69478,-5.61583,26.1833,-2.45003,-4.58669,9.51426,-2.39573,-0.921414,-6.99722e-14,4.45278e-14,-16.4412,6.11272,-56.2911,91.5353,32.1783,-22.2254,6.77372,7.12502,4.19111,-23.1648,-6.99722e-14,4.45278e-14,-42.8698,7.93556,81.948,59.4058,8.16206,-22.3244,50.4169,7.12502,4.09552,80.3572,-24.4152,2.03087,19.7548,42.1023,-18.0374,2.3855,5.36042,-33.1475,9.81075,-14.4355,79.7355,-1.04387,0.885478,-1.13537
-0.177561,17.5194,-9.69494,6.51117,-75.8436,-6.09714,32.2396,-2.05567,5.19093,6.62192,-0.920494,6.77743,-9.27084,-0.865875,4.81289,-7.01863,-2.91158,-4.60204,26.0774,-2.90726,-4.76047,9.37071,-2.51813,-1.18494,2.06736e-14,3.33958e-14,-16.8914,6.49004,-57.966,88.4832,32.536,-23.3186,8.72381,7.12502,3.1354,-21.2329,2.06736e-14,3.33958e-14,-42.8078,6.79641,82.0391,59.3732,7.8638,-24.4901,50.868,7.12502,2.00401,80.8384,-23.8528,2.15121,18.6932,41.7516,-18.1248,2.89635,2.96773,-32.7507,9.49777,-13.7979,78.8593,-1.89173,1.47453,-4.50943
-0.158833,17.496,-9.56202,11.6573,-76.3128,-11.0811,32.2763,-2.09673,5.77417,6.61667,-0.766825,7.17019,-9.29143,-0.821034,4.87191,-7.91129,-2.85057,-5.45886,26.4551,-2.60997,-4.71604,9.7022,-2.47849,-1.02631,-1.27222e-14,-2.70347e-14,-15.7093,7.38049,-59.6555,84.9314,33.2345,-24.3883,8.58712,7.12502,2.10238,-21.3823,-1.27222e-14,-2.70347e-14,-42.8476,8.09419,82.2752,59.3708,7.27268,2.73475,44.0982,7.12502,28.2071,71.9956,-24.0809,2.69401,19.5171,41.401,-18.0808,2.64046,0.4016,-33.5652,9.68715,-11.2636,78.1632,-1.99744,1.16304,-15.3333
-0.16065,17.4863,-9.39445,13.9097,-76.9375,-13.4544,32.0926,-1.52225,6.93937,6.68182,0.275965,6.69786,-9.13478,-0.350498,3.3553,-7.26642,-3.33415,-4.43166,25.8826,-3.55296,-4.44897,9.34642,-2.75147,-1.1697,-4.77083e-15,2.38542e-14,-16.2162,6.14506,-61.0032,81.458,33.125,-24.9253,10.0852,7.12502,1.58374,-19.8887,-4.77083e-15,2.38542e-14,-42.2287,5.94513,82.6521,59.1992,6.94158,-12.8889,47.7942,7.12502,13.2003,77.3562,-23.8798,2.83298,19.4592,41.1356,-18.0576,2.67588,-2.86807,-33.5327,9.50109,-9.62554,76.9893,-2.27989,1.09849,-9.60803
-0.164208,17.5118,-9.23473,13.5593,-77.5449,-13.3444,32.4821,-1.36415,6.42913,6.61915,0.362781,6.8104,-9.38429,-0.308501,3.72614,-7.32878,-3.24723,-4.93723,26.0867,-3.3269,-4.57198,9.44538,-2.7203,-1.1132,-1.43125e-14,-9.54166e-15,-15.2137,6.92786,-61.9239,77.4,33.4684,-25.5024,12.0208,7.12502,1.02635,-17.9565,-1.43125e-14,-9.54166e-15,-42.6342,6.66399,83.0366,59.1853,6.43475,-11.7116,47.6953,7.12502,14.3349,77.1804,-23.3568,2.71065,18.782,40.8198,-17.9769,3.22026,-3.31709,-32.819,7.82136,-8.70174,75.3465,-2.8622,2.17617,-6.88833
-0.164292,17.5032,-9.08887,13.7657,-78.2758,-13.7201,32.6784,-1.06032,5.98808,6.67909,0.608546,6.83083,-9.42092,-0.190495,3.89431,-7.55609,-3.23303,-5.4595,26.2583,-3.27015,-4.28174,9.57045,-2.7206,-0.930373,-2.62396e-14,-1.59028e-15,-14.2662,7.82639,-62.9936,73.6438,33.7293,-25.548,11.9831,7.12502,0.982293,-17.9944,-2.62396e-14,-1.59028e-15,-42.719,6.54737,83.5093,59.1998,6.87366,-12.843,48.1295,7.12502,13.2445,77.6887,-23.0395,3.26881,18.1522,40.6403,-17.7971,3.69523,-1.77506,-32.2549,7.2514,-7.59772,73.6815,-3.49654,2.45724,-7.30013
-0.169874,17.4701,-8.94194,16.262,-79.0385,-16.7094,33.0512,-1.1545,5.53636,6.94278,0.331666,7.21852,-9.29352,-0.337104,4.65965,-7.64334,-2.65389,-6.78778,25.9355,-2.2456,-4.23825,9.50309,-2.36816,-0.583737,-1.03368e-14,-6.04305e-14,-12.1171,9.73265,-63.7951,69.4007,34.1601,-25.2069,12.8914,7.12502,1.31176,-17.0843,-1.03368e-14,-6.04305e-14,-43.0311,8.07267,83.8793,59.4231,7.64857,-14.7262,48.6342,7.12502,11.4288,78.3027,-22.5371,4.01499,18.0858,40.5456,-17.6459,3.6983,-2.35636,-31.395,7.01177,-5.87068,71.9712,-3.88589,2.17448,-7.94934
-0.160443,17.4338,-8.75968,16.7705,-78.7076,-17.3396,33.0586,-0.995817,6.79005,6.89479,0.930284,6.80531,-9.29984,-0.0743085,3.32884,-7.69168,-3.10443,-4.37673,25.7783,-3.00166,-5.31524,9.379,-2.58533,-1.42978,-1.59028e-14,-2.38542e-14,-12.1441,7.12301,-64.8765,65.4722,35.3292,-24.9662,13.1603,7.12502,1.54421,-16.8139,-1.59028e-14,-2.38542e-14,-42.3297,5.81631,83.9901,58.94,6.54005,-12.1786,47.7967,7.12502,13.8848,77.3132,-22.4488,3.01663,17.7486,40.6416,-17.574,3.68094,-6.41364,-31.4499,5.68285,-4.56245,70.1749,-3.97899,1.95483,-6.87242
-0.165766,17.4114,-8.60114,15.4152,-79.3774,-16.132,33.32,-0.85792,6.39444,6.84241,0.986128,6.56193,-9.47064,-0.0400533,3.26145,-7.7394,-3.01693,-5.2716,25.8671,-2.90641,-4.53178,9.45578,-2.54662,-1.00422,1.82882e-14,-3.33958e-14,-11.2869,7.24831,-65.9072,61.656,35.9473,-25.0522,12.3615,7.12502,1.46114,-17.6132,1.82882e-14,-3.33958e-14,-42.482,5.28909,84.3547,59.0497,7.62139,-13.3113,48.5898,7.12502,12.7931,78.1778,-22.3214,3.01958,16.741,40.8049,-17.3231,4.07729,-6.68217,-30.7488,4.93929,-3.85409,68.0682,-4.4017,1.98208,-5.66328
-0.162151,17.3995,-8.45505,12.9509,-79.9052,-13.8722,33.4944,-0.438087,5.19302,6.99179,1.12736,6.82207,-9.44589,0.0425407,4.12411,-7.95771,-3.03315,-5.60574,25.8301,-2.78813,-4.81492,9.49136,-2.55578,-1.03887,2.06736e-14,-1.59028e-15,-9.89011,6.77166,-66.1353,57.7366,37.2428,-23.8009,14.1435,7.12502,2.66963,-15.8195,2.06736e-14,-1.59028e-15,-42.3718,5.27434,85.1745,58.9164,7.72216,-14.679,48.3268,7.12502,11.4743,77.9928,-22.1284,3.1647,15.6174,40.9996,-16.89,4.73202,-3.49229,-29.9392,3.92621,-3.31561,65.7337,-4.7505,2.01183,-7.9073
-0.174813,17.3755,-8.27592,12.3717,-80.5248,-13.5254,33.5152,-0.460454,5.13909,7.12071,1.03281,6.58081,-9.29764,-0.00253739,3.92723,-8.15186,-2.90798,-5.57458,25.833,-2.56677,-4.95439,9.52693,-2.46834,-1.07377,6.36111e-15,2.22639e-14,-8.7949,6.98924,-67.2658,54.2549,36.6568,-23.7722,13.0755,7.12502,2.69738,-16.8871,6.36111e-15,2.22639e-14,-42.3418,5.06122,85.0834,58.6632,7.08786,-14.3874,48.0834,7.12502,11.7555,77.7336,-21.9995,3.22991,14.763,41.1843,-16.4046,5.37446,-2.02087,-29.0473,2.68308,-2.67348,63.4038,-5.12044,2.54122,-9.82376
-0.168526,17.3361,-8.11128,14.4701,-80.7853,-15.8629,33.8737,-0.272703,4.92902,7.06224,1.26285,6.99817,-9.54113,0.0944769,4.40929,-8.39246,-2.96694,-6.06221,26.1881,-2.50506,-5.14466,9.71341,-2.52764,-1.06829,-4.69132e-14,7.95139e-15,-7.86787,6.09533,-67.4843,50.9101,36.8611,-22.1841,14.7171,7.12502,4.23097,-15.2206,-4.69132e-14,7.95139e-15,-42.4142,5.45114,85.6325,58.2943,5.66279,-13.7665,47.877,7.12502,12.3543,77.492,-21.8764,3.43077,14.573,41.3141,-16.2173,5.30469,-3.03571,-28.3938,1.36744,-1.31311,61.1171,-5.39266,2.71131,-11.3343
-0.166019,17.2972,-7.94327,16.9896,-80.9747,-18.4256,33.8511,-0.198611,5.23832,7.06357,1.45948,7.05656,-9.52695,0.176118,4.23292,-8.47221,-3.02918,-5.39943,26.1838,-2.54649,-5.80848,9.70232,-2.55626,-1.41618,-3.18055e-15,3.18055e-14,-7.14241,5.29775,-68.0859,47.9961,35.8738,-20.6355,14.7076,7.12502,5.72629,-15.195,-3.18055e-15,3.18055e-14,-42.1874,4.50549,85.7541,57.9421,5.39992,-13.8139,47.6433,7.12502,12.3085,77.261,-21.9156,3.37027,14.4144,41.3781,-16.0678,5.21271,-4.81528,-27.9709,0.241907,0.0497317,58.8991,-5.64579,2.44469,-12.1581
-0.169815,17.2636,-7.7744,19.2466,-81.0428,-20.9918,33.8982,-0.193866,5.8915,7.24759,1.64191,6.99438,-9.30599,0.239982,3.74943,-8.73842,-3.06853,-4.15268,26.0628,-2.5503,-6.8459,9.66345,-2.54655,-1.98827,3.89618e-14,2.70347e-14,-6.39808,4.21007,-68.8031,45.2178,34.1294,-19.2753,13.9083,7.12502,7.03945,-15.9547,3.89618e-14,2.70347e-14,-41.5373,4.01981,86.1955,57.2895,4.39009,-13.4245,46.8644,7.12502,12.6839,76.4592,-21.5665,3.40331,14.251,41.4072,-15.9563,5.34203,-5.43979,-27.3136,-1.01407,1.31983,56.7011,-5.79888,2.2074,-12.4392
-0.175181,17.231,-7.62111,22.3554,-80.9713,-24.3575,33.9358,-0.128402,6.66815,7.30429,1.97451,7.01962,-9.21912,0.374555,3.24269,-9.0468,-3.49496,-4.88857,26.5034,-3.16341,-6.06977,9.90524,-2.82801,-1.68297,-1.59028e-14,-8.26944e-14,-6.06802,2.26878,-69.3971,42.5968,32.4037,-17.8483,13.2587,7.12502,8.41675,-16.5535,-1.59028e-14,-8.26944e-14,-41.0868,3.1887,86.5894,56.6764,3.38437,-12.8228,46.5517,7.12502,13.264,76.1097,-21.2163,4.38496,14.2452,41.3815,-15.694,4.9098,-2.52715,-26.8302,-2.41562,2.77869,54.6217,-5.85762,1.72968,-12.8301
-0.158326,17.2053,-7.41515,19.4165,-81.4317,-21.1659,34.057,-0.198037,6.06977,7.04981,1.74514,7.02019,-9.58189,0.282496,3.64918,-9.33896,-3.44586,-5.9103,27.0863,-2.96945,-5.73023,10.2145,-2.83359,-1.40124,2.38542e-15,3.18055e-14,-5.47449,1.34081,-69.8835,39.9506,30.762,-16.4143,12.9398,7.12502,9.80048,-16.8122,2.38542e-15,3.18055e-14,-41.3122,4.06186,86.8788,56.2382,2.34307,-12.4986,46.0853,7.12502,13.5765,75.6227,-21.4204,4.94673,12.7462,41.322,-15.6094,4.86194,-0.722977,-26.7644,-3.99343,2.62686,52.711,-5.96453,1.51128,-14.3174
-0.1571,17.17,-7.22663,19.7577,-81.3624,-21.5632,34.1778,0.148031,6.31366,6.94675,2.31205,7.14194,-9.75204,0.538469,3.43694,-9.223,-3.79881,-5.68984,27.2357,-3.56835,-5.52159,10.2401,-3.06072,-1.43291,1.03368e-14,-3.97569e-14,-5.6325,-2.40596,-69.982,37.6662,29.7236,-14.9832,12.8714,7.12502,11.181,-16.8107,1.03368e-14,-3.97569e-14,-40.8045,2.62748,87.5504,55.54,1.8381,-12.1668,45.9398,7.12502,13.8963,75.4555,-21.2092,5.1063,12.1491,41.2154,-15.6854,4.45638,-2.16823,-26.7397,-4.62918,3.08137,51.0656,-5.92701,0.00528785,-20.1322
-0.14917,17.1303,-7.02147,22.1735,-81.2626,-24.2305,34.4479,-0.164246,6.72902,6.95313,2.0926,7.45941,-9.83419,0.409685,3.64996,-9.04965,-3.44904,-5.453,26.9216,-2.93569,-6.3914,10.0757,-2.84121,-1.6941,4.05521e-14,4.29375e-14,-4.95134,-4.81627,-70.3237,35.3431,28.2918,-14.0972,12.5859,7.12502,12.0354,-17.048,4.05521e-14,4.29375e-14,-40.6453,3.28928,87.7919,55.1032,1.10237,-12.3832,45.7919,7.12502,13.6877,75.3218,-20.8263,5.36558,11.9219,41.0698,-15.824,3.98251,-4.88183,-26.6443,-4.89044,3.75318,49.6693,-5.91416,-2.05211,-24.4255
-0.150218,17.1039,-6.83078,21.3494,-81.4162,-23.3181,34.4549,-0.0592306,6.6637,6.84664,2.22358,7.39833,-9.96074,0.475484,3.56859,-9.27216,-3.71745,-5.51252,27.3009,-3.3409,-6.14755,10.2601,-3.01941,-1.66304,1.03368e-14,3.18055e-15,-4.99313,-8.47357,-70.7729,33.5107,26.3239,-15.0526,11.7995,7.12502,11.114,-17.8862,1.03368e-14,3.18055e-15,-40.4361,2.62391,87.884,54.6855,0.508167,-12.7202,45.8228,7.12502,13.3629,75.3743,-20.6956,5.94689,11.0517,40.862,-15.9363,3.26955,-7.78029,-26.7349,-5.60849,3.67073,48.5066,-5.83093,-3.41745,-26.8937
-0.133775,17.0711,-6.60431,20.1271,-81.1206,-21.9944,34.5358,-0.141403,6.87134,6.62751,2.26999,7.7003,-10.2465,0.488002,3.77159,-9.3406,-4.00343,-5.75428,27.6041,-3.6468,-6.37851,10.3896,-3.22484,-1.75447,-2.22639e-14,1.59028e-14,-5.23905,-11.1642,-70.2627,32.1201,23.5489,-17.2401,10.2655,7.12502,9.00367,-19.5224,-2.22639e-14,1.59028e-14,-40.4545,2.4694,88.6908,54.277,-0.686501,-12.7688,45.6347,7.12502,13.316,75.1892,-20.4474,6.0145,10.1238,40.5393,-15.9185,2.83335,-9.40968,-27.2446,-6.30045,3.43293,47.7286,-5.96591,-4.74589,-30.9805
-0.12862,17.0402,-6.37914,18.7115,-81.1907,-20.5554,34.4928,-0.101029,6.92543,6.58666,2.35647,7.83165,-10.2845,0.526214,3.85143,-9.11951,-3.9632,-5.819,27.4967,-3.56211,-6.55231,10.3072,-3.20895,-1.7854,2.70347e-14,-4.6118e-14,-5.31195,-13.9846,-69.9344,30.8855,21.0349,-18.5547,9.23222,7.12502,7.73501,-20.6063,2.70347e-14,-4.6118e-14,-40.3258,2.46586,89.3212,53.8958,-1.97677,-12.6857,45.4689,7.12502,13.3962,75.0182,-20.1275,6.71362,9.03211,40.1458,-15.9177,2.17749,-10.3886,-27.5095,-5.70249,2.81319,47.4266,-6.71168,-6.40646,-35.8109
-0.12581,17.0209,-6.15287,19.0879,-81.2709,-20.8955,34.3923,-0.330141,7.43179,6.58978,2.21365,7.7046,-10.1927,0.448612,3.50401,-9.18432,-4.14495,-5.95913,27.3602,-3.79937,-6.50102,10.274,-3.31955,-1.76793,-6.36111e-15,-4.45278e-14,-5.28933,-16.6449,-70.1356,29.935,18.7664,-19.4269,8.67907,7.12502,6.89311,-21.1887,-6.36111e-15,-4.45278e-14,-40.2032,2.2961,89.3821,53.6181,-1.95111,-12.7979,44.753,7.12502,13.288,74.3094,-19.73,7.95764,8.25813,39.6031,-15.91,1.00794,-11.7312,-27.6977,-6.05486,2.47772,47.7558,-7.28376,-7.02601,-34.7424
-0.118218,16.9993,-5.90693,17.7609,-81.3978,-19.4477,34.1387,-0.359919,7.76763,6.62287,2.25627,7.68044,-10.0329,0.465587,3.28222,-8.83561,-4.26715,-6.09374,26.8775,-3.99429,-6.45866,10.0337,-3.39381,-1.72298,3.65764e-14,3.65764e-14,-5.37638,-19.475,-69.6916,29.2488,16.7695,-20.5549,7.52509,7.12502,5.80411,-22.3754,3.65764e-14,3.65764e-14,-39.9758,1.4042,89.9147,53.4909,-0.534887,-13.2356,44.4419,7.12502,12.866,74.0253,-19.3354,8.94054,7.12152,38.9337,-15.7921,-0.124424,-12.4161,-28.0366,-5.37916,1.51089,48.649,-7.71455,-7.82171,-33.6166
-0.111947,16.987,-5.65779,16.9212,-81.5994,-18.3163,33.6989,-0.319905,8.12844,6.60251,2.38364,7.61496,-9.85649,0.527575,2.96936,-8.97623,-4.57636,-6.15235,27.0801,-4.42203,-6.39286,10.1365,-3.59446,-1.75035,-9.54166e-15,-3.33958e-14,-5.58439,-22.3438,-69.1894,28.8022,14.3119,-21.6557,6.62857,7.12502,4.74122,-23.2984,-9.54166e-15,-3.33958e-14,-39.8589,0.387321,90.4403,53.429,0.354202,-13.485,44.4911,7.12502,12.6256,74.0896,-19.1,9.64099,6.01636,38.1661,-15.6238,-1.00994,-13.3047,-28.6187,-4.06865,0.357899,49.8467,-8.34729,-8.24366,-35.045
-0.109259,16.9813,-5.4137,17.1019,-81.7643,-18.4692,33.6428,-0.370991,8.37409,6.58631,2.40011,7.68745,-9.8393,0.527303,2.91346,-9.03127,-4.66822,-6.17837,27.097,-4.52045,-6.49758,10.1521,-3.65586,-1.79701,2.70347e-14,3.33958e-14,-5.74161,-24.3762,-68.6999,28.5591,11.4098,-22.9201,6.05664,7.12502,3.52027,-23.894,2.70347e-14,3.33958e-14,-40.0339,0.0771127,90.8795,53.6288,0.655587,-13.2115,44.6486,7.12502,12.8893,74.2306,-18.5268,10.9425,5.19606,37.2725,-15.4294,-1.93776,-11.3247,-29.0022,-2.48285,-0.776606,50.9714,-9.02092,-8.40629,-36.1594
-0.11068,16.9746,-5.17209,16.7244,-82.3647,-18.2509,33.6724,-0.291291,8.29533,6.76093,2.43009,7.62451,-9.6559,0.541873,2.87444,-9.00994,-4.66097,-5.91662,26.7898,-4.50847,-6.72,10.0198,-3.63754,-1.90328,-4.77083e-15,-1.74931e-14,-5.73267,-26.3186,-68.4552,28.4346,8.7986,-23.6303,5.62681,7.12502,2.83437,-24.3341,-4.77083e-15,-1.74931e-14,-40.0569,0.17422,90.8817,53.6906,0.660401,-12.2521,44.4231,7.12502,13.814,73.9444,-17.8709,13.1167,4.30225,36.4323,-15.2714,-3.71596,-11.6585,-28.9575,-0.24366,-2.18216,51.8216,-9.92191,-8.80566,-35.9864
-0.112051,16.9989,-4.92711,15.5942,-83.137,-17.4126,33.8651,-0.0634113,7.98972,6.92966,2.59245,7.57339,-9.5619,0.618935,2.9177,-9.02388,-4.73407,-5.65198,26.6666,-4.60109,-6.97938,9.95985,-3.67894,-2.043,-2.06736e-14,-2.70347e-14,-6.01464,-28.0273,-67.8542,28.5851,6.21146,-23.5835,5.2513,7.12502,2.87958,-24.709,-2.06736e-14,-2.70347e-14,-40.191,0.339265,90.9353,53.8172,0.733639,-11.664,44.056,7.12502,14.3808,73.5378,-17.1112,15.4427,3.4131,35.6485,-15.1522,-5.92634,-10.1032,-28.3492,-0.180877,-3.68334,52.2345,-10.9686,-7.37911,-34.9826
-0.107968,16.997,-4.68115,11.728,-83.75,-13.9655,34.3219,0.166445,7.41143,6.97046,2.72935,7.65068,-9.74433,0.68242,3.25321,-8.94775,-4.8601,-6.11305,26.8406,-4.74904,-6.82707,10.0309,-3.78405,-1.93649,-4.77083e-14,-1.36764e-13,-6.4885,-29.9802,-66.746,28.5901,4.59988,-23.2118,5.37374,7.12502,3.2386,-24.5814,-4.77083e-14,-1.36764e-13,-40.6819,0.23193,91.5992,54.0908,1.94075,-13.132,44.704,7.12502,12.966,74.2811,-16.2117,17.234,2.44126,34.9496,-14.9572,-8.23169,-7.67879,-27.8184,1.639,-5.40277,52.553,-11.8268,-7.65913,-35.3568
-0.0962636,17.0071,-4.42092,3.36506,-84.4681,-5.01715,33.6488,0.45654,6.78831,6.96969,2.81972,7.46381,-9.52362,0.76281,3.3375,-8.88125,-5.04292,-6.68148,26.8549,-4.98829,-6.52104,10.0549,-3.91528,-1.76261,1.90833e-14,1.43125e-14,-6.81559,-32.1243,-65.7547,28.6755,2.91098,-22.9945,5.48238,7.12502,3.44839,-24.4695,1.90833e-14,1.43125e-14,-40.9213,-0.530294,92.2917,54.3816,3.7731,-14.1429,45.3286,7.12502,11.9913,74.9652,-16.5141,17.7743,0.778283,34.437,-14.141,-10.558,-8.08391,-28.123,2.67524,-7.67225,52.7432,-12.4703,-6.81719,-35.5265
-0.10652,17.0347,-4.17622,14.8921,-84.9899,-16.5594,33.3994,0.253436,7.97145,7.0714,2.89501,7.55303,-9.22507,0.766954,2.78826,-8.84975,-4.97205,-6.68161,26.7364,-4.88079,-6.58406,10.0045,-3.87023,-1.76702,9.54166e-15,3.02153e-14,-6.9936,-34.3279,-65.1928,28.7222,1.79951,-22.3171,5.79671,7.12502,4.10258,-24.1435,9.54166e-15,3.02153e-14,-41.2705,-0.76059,92.393,54.65,4.81748,-14.2991,45.5685,7.12502,11.8407,75.2138,-16.2863,18.3164,1.81552,34.2586,-13.4331,-13.3704,-7.58307,-27.7744,2.80094,-7.52227,53.0113,-13.251,-6.02014,-32.7456
-0.11144,17.0449,-3.974,30.589,-85.0096,-32.5255,33.5378,0.243228,8.87481,7.19811,3.17031,7.89903,-9.08644,0.855945,2.59247,-8.7909,-4.97298,-6.38374,26.5568,-4.87842,-6.87408,9.90773,-3.86603,-1.90688,3.65764e-14,-1.59028e-15,-7.14698,-37.0893,-64.486,28.6624,1.50662,-21.6976,6.52352,7.12502,4.70079,-23.4043,3.65764e-14,-1.59028e-15,-41.6065,-0.950826,92.4972,54.8574,5.58909,-14.5745,45.6462,7.12502,11.5751,75.3066,-16.0955,18.039,3.60807,34.6871,-12.9826,-16.0016,-5.25602,-27.1921,2.87341,-6.7469,52.9809,-14.1338,-5.89672,-29.7682
-0.114368,17.0421,-3.82672,49.9738,-84.204,-52.5451,34.1402,0.402632,9.59186,7.37179,3.66616,8.69209,-9.1232,1.0219,2.89675,-8.83822,-4.93967,-6.36867,26.5318,-4.81944,-6.93456,9.9062,-3.84542,-1.925,-1.59028e-15,-3.18055e-15,-7.31296,-38.8747,-63.9555,28.9065,0.326739,-21.9282,6.29287,7.12502,4.47809,-23.6398,-1.59028e-15,-3.18055e-15,-41.9474,-0.92539,92.5275,55.0914,6.28733,-14.3897,46.48,7.12502,11.7533,76.1303,-15.8953,17.7069,6.64184,35.7606,-12.9085,-18.9319,1.36815,-26.2871,3.71696,-4.95445,52.7515,-15.21,-6.43137,-29.3504
-0.0628717,17.0465,-3.51457,28.3004,-86.2462,-30.1585,33.9334,0.230512,7.9141,7.10039,2.88967,7.89742,-9.42907,0.731289,3.19547,-8.42615,-4.57644,-6.64101,26.2272,-4.2641,-7.20911,9.72728,-3.64185,-1.89131,3.97569e-14,4.45278e-14,-7.15719,-39.0074,-63.6905,29.2793,-1.56387,-22.0213,5.43243,7.12502,4.38822,-24.5021,3.97569e-14,4.45278e-14,-42.5357,-0.0465904,92.4939,55.2283,6.85208,-14.5402,46.6625,7.12502,11.6082,76.3209,-17.428,13.8674,3.49719,37.5378,-13.047,-18.7272,6.50887,-26.3488,2.82532,-9.33241,52.0548,-16.0258,-4.4548,-29.9785
-0.0193508,17.0506,-3.3158,13.5715,-86.6795,-15.0503,33.9422,0.526277,6.88831,6.9844,2.94482,7.66129,-9.62995,0.792742,3.45405,-8.73571,-4.76381,-6.12692,26.3563,-4.52799,-7.43418,9.80434,-3.74348,-2.097,-9.54166e-15,-2.70347e-14,-7.63712,-40.4815,-62.9043,29.8391,-3.47226,-22.0802,4.77087,7.12502,4.33136,-25.1648,-9.54166e-15,-2.70347e-14,-42.7827,-0.466938,92.3776,55.1919,6.97661,-14.0032,46.475,7.12502,12.126,76.1036,-18.7776,10.9527,2.94688,39.9338,-14.0736,-18.5688,11.7457,-26.4334,2.40992,-11.3041,51.3876,-16.4396,-3.74529,-28.9255
-4.28286e-05,17.0752,-3.12548,10.3024,-87.5899,-11.7477,34.1711,0.912234,6.17305,7.02629,3.18854,7.47176,-9.72033,0.919979,3.53214,-8.95634,-4.78535,-5.80007,26.4187,-4.60111,-7.38388,9.85495,-3.74194,-2.15029,7.95139e-15,4.45278e-14,-7.95004,-41.431,-62.519,30.3074,-5.37499,-22.7898,4.43263,7.12502,3.64606,-25.5159,7.95139e-15,4.45278e-14,-43.1707,-0.988754,92.0547,55.284,7.23565,-13.7139,46.6412,7.12502,12.405,76.2531,-19.9806,9.6154,3.20748,42.5906,-15.7178,-17.0122,19.2035,-25.7449,1.18581,-12.4894,50.6379,-16.8067,-1.73716,-27.6108
0.0419561,17.0863,-2.91948,6.53843,-87.6901,-7.48248,33.9397,0.772522,6.02884,6.94511,2.9507,7.33828,-9.71539,0.822677,3.55497,-9.29179,-4.75716,-6.21617,26.6318,-4.57416,-6.83255,10.0271,-3.71795,-1.90768,1.90833e-14,-5.08889e-14,-7.95213,-41.6345,-62.4019,30.8383,-7.66186,-23.719,4.4388,7.12502,2.74872,-25.5232,1.90833e-14,-5.08889e-14,-43.4468,-1.20537,91.8036,55.3313,7.609,-14.4288,46.8736,7.12502,11.7156,76.526,-21.6531,6.9736,3.93269,45.5079,-13.8485,-16.6246,10.8426,-26.069,0.0834073,-13.5835,50.0762,-16.727,-0.299206,-27.3684
0.0687721,17.1202,-2.75378,-0.207271,-88.3355,-0.513599,33.9369,1.13824,4.97456,7.01755,3.0553,7.44533,-9.72872,0.893678,4.18616,-9.47009,-4.7253,-6.6,26.6092,-4.53219,-6.43006,10.0784,-3.69068,-1.70483,3.02153e-14,1.27222e-14,-7.88341,-42.2156,-62.0042,31.3231,-7.89897,-23.538,3.75402,7.12502,2.92353,-26.2057,3.02153e-14,1.27222e-14,-43.7133,-0.757921,91.5779,55.3976,7.82149,-14.6605,47.0793,7.12502,11.4922,76.7443,-23.0311,5.59449,4.67633,48.4316,-13.6268,-15.4124,9.71651,-25.857,-0.209161,-14.5946,49.5057,-16.5581,0.589902,-25.4818
0.112271,17.1689,-2.59174,-14.8704,-88.6478,14.4129,33.9306,1.31918,4.28711,7.10222,3.02552,7.28288,-9.66841,0.897731,4.38682,-9.52464,-4.66039,-5.96202,26.2703,-4.51628,-6.56903,9.93497,-3.62064,-1.8427,-1.90833e-14,-2.22639e-14,-8.04182,-41.9313,-61.8191,32.1629,-9.52454,-23.9183,3.31045,7.12502,2.55626,-26.654,-1.90833e-14,-2.22639e-14,-43.7276,-0.835617,91.078,55.2729,8.09351,-22.9926,52.3159,7.12502,3.45025,82.2677,-24.3892,4.0878,5.39837,51.3889,-13.5971,-13.8787,10.3084,-25.9015,-0.530007,-15.606,48.9753,-16.1911,0.9365,-23.1404
0.159924,17.2201,-2.42899,-23.3141,-88.8837,23.0861,33.9949,1.38053,4.25861,7.13676,3.07092,7.06215,-9.63993,0.920181,4.14669,-9.11918,-4.48102,-4.78687,25.6942,-4.39141,-7.12159,9.5904,-3.4857,-2.17462,7.95139e-15,3.18055e-15,-8.43319,-42.6703,-61.4417,32.8866,-9.69296,-23.9389,3.59905,7.12502,2.53641,-26.3656,7.95139e-15,3.18055e-15,-43.6861,-1.38367,90.6654,54.9562,8.23807,-5.81729,39.8576,7.12502,20.008,68.8475,-25.6559,2.79828,6.49859,54.2183,-12.9582,-12.5395,8.28384,-25.9613,-0.995495,-16.2935,48.4275,-15.5851,1.20981,-22.5754
0.194568,17.2806,-2.26723,-51.4806,-88.7606,51.3054,34.147,1.466,3.79536,7.27309,2.98864,6.87646,-9.55975,0.888429,4.2242,-8.89815,-4.42207,-5.50095,25.2014,-4.29559,-6.69254,9.41157,-3.43974,-1.87329,-1.27222e-14,1.59028e-15,-8.59974,-43.6665,-61.0249,33.5763,-8.72872,-22.9272,4.43945,7.12502,3.5134,-25.5113,-1.27222e-14,1.59028e-15,-43.5292,-1.11921,90.252,54.5282,7.56236,-14.6448,46.4499,7.12502,11.5073,76.114,-26.6217,1.94183,7.08991,56.866,-12.9872,-10.9865,7.74466,-25.7482,-2.15118,-17.4738,47.8408,-14.8791,2.03301,-23.4019
0.246596,17.3443,-2.12383,-62.1949,-88.3421,62.1962,34.2771,1.57332,3.24467,7.34953,2.91675,6.6794,-9.54241,0.867048,4.33235,-8.78172,-4.39364,-5.43772,24.7885,-4.27311,-6.69852,9.24113,-3.40462,-1.8638,1.59028e-15,-3.02153e-14,-8.87986,-43.8596,-60.7268,34.4839,-9.42075,-22.3817,4.73032,7.12502,4.04015,-25.2111,1.59028e-15,-3.02153e-14,-43.2654,-1.34203,89.7933,54.0855,7.10215,-15.0955,47.6494,7.12502,11.0726,77.3373,-27.5648,1.04055,7.90139,59.3068,-13.2168,-9.78085,6.4543,-25.7413,-2.95304,-18.4514,47.2267,-13.9775,2.19527,-24.2185
0.294691,17.4101,-1.98281,-65.1694,-87.9588,65.42,34.3094,1.57971,2.91484,7.42675,2.78154,6.42918,-9.46231,0.813226,4.29072,-8.80363,-4.45391,-5.58549,24.5653,-4.38935,-6.3956,9.17744,-3.42695,-1.7402,3.18055e-15,-4.6118e-14,-9.26812,-43.4835,-60.5029,35.783,-11.1114,-21.9192,4.28655,7.12502,4.48681,-25.6459,3.18055e-15,-4.6118e-14,-42.9353,-1.71817,89.2311,53.6219,6.91883,-15.243,48.0019,7.12502,10.9304,77.6974,-28.5112,-0.0665681,8.92724,61.4519,-13.2165,-8.89348,2.73082,-25.8716,-3.05713,-19.3113,46.5797,-12.9548,1.53201,-26.9285
0.344719,17.4846,-1.84753,-64.4949,-87.6368,64.9925,34.3088,1.24384,2.31131,7.7039,2.10835,6.60008,-9.15737,0.493787,5.05518,-9.55738,-4.17249,-7.71159,24.6148,-3.74416,-5.40823,9.43592,-3.22516,-1.01361,-9.54166e-15,1.74931e-14,-8.03796,-42.5556,-61.2245,37.0728,-12.0289,-20.9759,4.32608,7.12502,5.39765,-25.5852,-9.54166e-15,1.74931e-14,-42.3669,-0.0315029,88.6884,53.0766,6.54241,-16.5603,48.7415,7.12502,9.65957,78.5,-29.3136,-1.40229,10.1657,63.2118,-13.0925,-8.23781,-0.861027,-26.0382,-2.50054,-19.9451,45.9323,-11.8991,-0.282025,-26.1599
0.39591,17.5677,-1.71284,-62.7422,-87.1261,63.4912,34.3615,1.14924,1.89409,7.86791,1.81886,6.57085,-8.99238,0.358186,5.35691,-9.87694,-4.00288,-7.89724,24.4832,-3.43262,-5.38036,9.45398,-3.09012,-0.944202,-3.18055e-15,-4.6118e-14,-7.86627,-42.1627,-61.15,38.425,-14.0072,-20.5101,4.75653,7.12502,5.84738,-25.1428,-3.18055e-15,-4.6118e-14,-41.7494,0.492316,88.295,52.4917,6.68209,-18.4025,50.1935,7.12502,7.88189,80.0265,-29.9746,-2.51953,11.2407,64.5597,-13.1627,-7.79662,-1.64441,-26.2815,-2.03241,-20.6126,45.2867,-10.368,-2.54507,-20.1536
0.437397,17.6663,-1.58021,-59.9987,-86.8351,61.1744,34.2822,1.05669,1.63311,7.86322,1.61563,6.56536,-8.96288,0.270683,5.5684,-9.61158,-3.85134,-7.72691,24.0701,-3.23313,-5.64496,9.24691,-2.99132,-1.02224,1.27222e-14,-5.08889e-14,-8.19266,-41.9417,-60.5981,39.9235,-14.5728,-19.1306,4.0586,7.12502,7.1791,-25.7996,1.27222e-14,-5.08889e-14,-41.5226,1.19511,87.7439,52.1234,6.70685,-19.1041,50.8101,7.12502,7.20466,80.6674,-30.5435,-2.63098,12.5271,65.4582,-13.9079,-7.55798,2.37285,-26.6656,-1.18499,-21.0749,44.6537,-8.60892,-4.7769,-16.6425
0.478035,17.7514,-1.45274,-56.865,-86.4549,58.6611,34.035,0.926342,1.32816,7.84931,1.34563,6.49154,-8.86986,0.157327,5.75347,-9.38623,-3.65546,-7.22332,23.4518,-2.95789,-6.24769,8.96389,-2.85323,-1.25722,-1.59028e-14,-4.77083e-15,-8.38312,-41.9271,-60.4665,41.6115,-15.3794,-18.4989,3.63494,7.12502,7.78882,-26.2016,-1.59028e-14,-4.77083e-15,-41.2941,1.81797,87.0053,51.9443,6.87599,-18.8823,50.793,7.12502,7.41878,80.643,-31.4759,-5.4518,14.0635,66.1138,-12.8086,-7.74004,-7.70276,-27.3228,0.375673,-21.7389,44.0926,-7.02663,-7.545,-17.7631
0.526486,17.8219,-1.3285,-51.5441,-85.8521,54.1329,33.8342,0.689677,1.23781,7.69046,1.03599,6.33253,-8.93625,0.0330802,5.74747,-9.8131,-3.54589,-7.3544,23.764,-2.77026,-5.9947,9.15901,-2.76703,-1.14841,0,3.65764e-14,-8.80964,-42.3548,-60.2395,43.5363,-16.2966,-17.6595,3.16499,7.12502,8.59892,-26.6399,0,3.65764e-14,-41.2455,2.04589,86.2765,52.1109,7.26884,-18.378,50.7699,7.12502,7.90555,80.6021,-32.5033,-6.89474,15.1862,66.4168,-12.6371,-6.98176,-3.23592,-28.2423,2.5878,-22.6413,43.2849,-5.65874,-11.2485,-23.3678
0.56946,17.8671,-1.20387,-51.1218,-84.732,54.5228,33.6011,0.575796,0.735092,7.50556,0.743258,6.04878,-9.02752,-0.0694096,5.82286,-9.58486,-3.58034,-7.33652,23.1989,-2.84654,-6.0242,8.91836,-2.77242,-1.14805,-6.36111e-15,-6.36111e-15,-9.4483,-43.0032,-59.5635,45.3186,-17.217,-16.745,2.81935,7.12502,9.48141,-26.9474,-6.36111e-15,-6.36111e-15,-41.2088,2.13185,85.6728,52.2857,7.73928,-17.6375,50.6626,7.12502,8.62014,80.4666,-33.5791,-8.22257,15.737,66.569,-12.0959,-6.86487,-2.67151,-29.1499,4.44345,-23.7668,42.4342,-0.113521,-14.4653,6.5952
0.624994,18.0015,-1.08545,-47.7932,-83.9187,51.8792,33.5432,0.419371,0.497311,7.36831,0.492744,5.9878,-9.13702,-0.166777,5.98163,-9.3188,-3.49,-6.82281,22.4972,-2.77164,-6.41285,8.60687,-2.69637,-1.32912,-2.22639e-14,-4.77083e-15,-9.92148,-43.4036,-58.8382,47.0778,-18.6097,-15.307,2.23102,7.12502,10.8686,-27.4677,-2.22639e-14,-4.77083e-15,-41.0543,2.51413,85.1743,52.3936,8.21084,-17.381,50.5037,7.12502,8.86766,80.2973,-34.0903,-8.7795,16.3599,66.1453,-12.2887,-5.32014,7.25845,-29.1958,0.0984391,-23.644,41.1656,1.70521,-12.4909,9.68796
0.660868,18.0773,-0.94,-44.4424,-83.6655,48.7459,33.8171,0.170324,0.926911,7.34501,0.325623,5.95409,-9.24063,-0.253073,5.78029,-9.10862,-3.46658,-6.58529,21.8922,-2.7725,-6.62169,8.35216,-2.66597,-1.416,7.95139e-15,2.70347e-14,-10.3647,-43.7036,-58.1748,48.7729,-19.8925,-15.9847,2.50323,7.12502,10.2149,-27.2288,7.95139e-15,2.70347e-14,-41.0118,3.31717,84.644,52.5986,8.19124,-17.01,50.3165,7.12502,9.2257,80.0947,-34.1768,-9.36803,17.609,65.543,-11.6828,-4.88496,1.84285,-29.0329,0.0203996,-23.4314,39.9369,4.09565,-14.3075,8.54744
0.705421,18.1352,-0.814765,-41.6527,-83.2685,46.5997,33.5934,0.0106264,1.03997,7.30815,0.169502,5.94984,-9.17863,-0.320975,5.76957,-9.12146,-3.4319,-6.95422,21.5118,-2.74442,-6.19301,8.24007,-2.61847,-1.19987,4.77083e-15,-1.90833e-14,-10.8151,-44.0962,-57.5035,50.4579,-20.584,-15.7568,2.54366,7.12502,10.4348,-27.1774,4.77083e-15,-1.90833e-14,-41.0142,3.93888,84.2566,52.97,8.34663,-16.6196,50.0394,7.12502,9.60233,79.8005,-34.7932,-9.83878,18.8855,64.6992,-11.438,-5.13322,1.18307,-29.3039,-0.0892677,-23.0758,38.5294,7.14699,-15.5867,10.7923
0.746705,18.1841,-0.685576,-40.3237,-82.8207,45.7819,33.4914,-0.0962561,0.965118,7.31274,0.0128301,5.95574,-9.12156,-0.389825,5.87267,-9.29879,-3.31168,-7.22784,21.221,-2.57747,-5.83253,8.18434,-2.51076,-1.0153,1.59028e-15,2.38542e-14,-11.1842,-44.6496,-56.7426,52.0814,-20.9362,-14.8244,2.04545,7.12502,11.3341,-27.6283,1.59028e-15,2.38542e-14,-41.1105,4.15554,83.9775,53.4907,8.8904,-16.1423,49.5278,7.12502,10.0629,79.2672,-35.2413,-10.2373,19.8088,63.7468,-11.3174,-4.82717,-1.81539,-29.5251,0.00831043,-22.7803,37.4,9.77736,-16.6085,8.78614
0.789543,18.2382,-0.549211,-39.3739,-82.4866,45.2422,33.5881,-0.117957,0.800804,7.24194,-0.0387385,6.12265,-9.24082,-0.407169,6.16592,-9.06154,-3.12411,-7.71943,20.6379,-2.33733,-5.50194,7.95833,-2.37284,-0.784715,2.22639e-14,-5.56597e-14,-11.5458,-44.8851,-55.5155,53.4563,-21.4475,-13.8021,1.74669,7.12502,12.3199,-27.8704,2.22639e-14,-5.56597e-14,-41.2808,4.20456,83.8886,53.9598,9.34314,-15.1053,48.6003,7.12502,11.0632,78.2887,-35.4267,-10.2862,20.5215,62.591,-10.9745,-3.7745,-6.01635,-29.5551,-1.73152,-22.1223,36.5052,9.95775,-17.1296,-4.47202
0.822655,18.2846,-0.40927,-40.9131,-82.0426,47.1325,33.4929,-0.0514575,0.429608,7.288,-0.0801869,6.13785,-9.1557,-0.41962,6.39595,-9.14923,-3.14991,-7.76549,20.2019,-2.35246,-5.5507,7.82938,-2.36614,-0.787798,1.59028e-14,-1.59028e-14,-11.7786,-45.1731,-54.3133,54.6068,-21.6068,-12.781,1.67474,7.12502,13.3043,-27.8806,1.59028e-14,-1.59028e-14,-41.3145,4.12864,83.8743,54.4348,10.2294,-14.412,47.7308,7.12502,11.7318,77.3823,-35.5443,-9.90351,20.5718,61.435,-10.6479,-2.47098,-6.37494,-29.5292,-2.33397,-22.0469,35.952,8.88471,-18.4871,-36.3957
0.855374,18.3186,-0.260995,-42.7667,-82.1875,49.0674,33.6056,0.0152961,0.438005,7.38231,-0.0156723,6.05788,-9.09866,-0.396945,6.28008,-8.96415,-3.06608,-7.57861,19.5224,-2.2957,-5.59248,7.564,-2.29231,-0.808703,1.11319e-14,-7.31528e-14,-12.1345,-45.6728,-53.3681,55.8995,-20.902,-11.1361,1.29976,7.12502,14.8894,-28.1452,1.11319e-14,-7.31528e-14,-41.6109,4.3469,83.6527,55.1325,11.0781,-14.8388,48.7054,7.12502,11.3202,78.3798,-35.2643,-9.55905,21.0628,60.1706,-10.1646,-1.49878,-10.6073,-29.1047,-2.32111,-21.5723,35.7501,4.83979,-17.7724,-25.6327
0.892518,18.3347,-0.0877882,-46.8242,-82.3592,52.9887,33.9072,0.143686,0.586293,7.45798,0.163826,5.83201,-9.13785,-0.321667,5.89139,-8.98123,-3.065,-7.52545,19.3211,-2.33452,-5.39605,7.50037,-2.27616,-0.75237,3.49861e-14,3.49861e-14,-12.7671,-46.303,-52.1102,57.1158,-19.9765,-9.58826,1.18279,7.12502,16.3801,-28.1455,3.49861e-14,3.49861e-14,-41.9768,4.31625,83.2686,55.6895,11.2054,-15.7434,50.5354,7.12502,10.4477,80.2558,-34.7534,-9.6428,21.1983,59.0136,-9.53431,-0.179573,-24.7352,-28.3696,-2.52388,-21.3228,35.815,-0.700222,-14.3902,-36.9823
0.925471,18.3572,0.0776015,-50.4426,-82.4383,56.5444,34.0931,0.268312,0.65035,7.54638,0.314785,5.6858,-9.11815,-0.258885,5.64276,-9.28461,-3.06706,-7.53295,19.3286,-2.31311,-5.28869,7.55807,-2.25764,-0.719706,2.22639e-14,-2.22639e-14,-13.0071,-46.4442,-50.9372,58.1355,-20.0736,-9.39608,1.33709,7.12502,16.5651,-27.9759,2.22639e-14,-2.22639e-14,-42.235,4.20932,82.8113,56.0856,10.8022,-15.1215,51.2206,7.12502,11.0476,80.9099,-34.26,-9.61726,21.1358,57.9208,-8.72338,1.34217,-10.7033,-27.7556,-3.65476,-20.5772,36.0563,-3.55139,-9.76676,-33.896
0.961245,18.3698,0.225579,-54.6722,-82.1983,60.7621,34.2776,0.402422,0.296836,7.59132,0.338747,5.46873,-9.14019,-0.243014,5.59226,-9.48931,-2.95684,-7.06267,19.0901,-2.17816,-5.49907,7.50208,-2.16806,-0.850761,-1.27222e-14,8.26944e-14,-12.9404,-46.4281,-49.9204,58.9613,-19.8779,-8.95263,1.15076,7.12502,16.992,-28.126,-1.27222e-14,8.26944e-14,-42.6224,4.23218,82.4084,56.6418,10.6669,-14.6562,50.8314,7.12502,11.4963,80.4961,-33.8448,-9.3464,20.6655,56.9909,-7.50535,1.83594,-8.36666,-27.2022,-4.37294,-20.2858,36.3675,-6.71333,-5.83369,-34.4113
0.997976,18.3691,0.363885,-57.1948,-82.031,63.5533,34.1976,0.3886,0.163608,7.50825,0.261685,5.16265,-9.18705,-0.265568,5.36376,-8.92231,-2.67128,-6.69069,18.3945,-1.92923,-5.46809,7.16187,-1.98112,-0.8544,6.36111e-15,1.27222e-14,-12.767,-46.9141,-49.0851,59.5901,-17.88,-7.00843,1.14703,7.12502,18.8627,-27.9584,6.36111e-15,1.27222e-14,-43.3694,4.13554,81.9006,57.529,11.4036,-14.7317,50.3023,7.12502,11.4236,79.9711,-33.6746,-8.65662,20.4138,56.0621,-6.36505,1.15342,-6.29548,-27.0153,-4.45478,-19.7703,36.6647,-8.96564,-2.99719,-33.9889
1.03593,18.3535,0.503011,-59.1693,-81.7352,65.7336,34.2036,0.525134,-0.321995,7.39116,0.288124,5.15766,-9.3304,-0.234839,5.61348,-8.55279,-2.50181,-6.81175,17.8269,-1.75322,-5.35504,6.9132,-1.86541,-0.767191,2.06736e-14,-1.11319e-14,-12.5417,-47.0479,-48.1707,60.4963,-16.5993,-5.40163,1.17364,7.12502,20.4075,-27.774,2.06736e-14,-1.11319e-14,-44.0551,3.99156,81.7144,58.2784,12.4222,-14.1114,50.0714,7.12502,12.0217,79.7061,-33.3376,-8.0343,20.028,55.1822,-5.65576,0.165489,-2.28246,-26.8311,-3.81352,-19.3725,36.9689,-10.3287,-1.52896,-33.8103
1.07216,18.3353,0.664032,-61.3723,-81.4826,67.8078,34.4369,0.54081,-0.294131,7.33236,0.304416,4.94959,-9.47772,-0.222996,5.3722,-8.51993,-2.43982,-6.57757,17.5783,-1.69258,-5.47171,6.82123,-1.81814,-0.83283,3.02153e-14,2.54444e-14,-12.4967,-46.9688,-47.2808,61.5157,-16.2519,-3.90662,1.09415,7.12502,21.8436,-27.693,3.02153e-14,2.54444e-14,-44.7049,3.52224,81.4056,58.9436,12.9605,-13.612,49.6818,7.12502,12.5032,79.2877,-32.4786,-7.61146,19.4242,54.3426,-6.11231,-0.000314293,8.4679,-26.2755,-3.44399,-18.9274,37.3653,-11.4071,-0.710634,-30.6753
1.11347,18.3086,0.816292,-62.7051,-81.1594,69.0176,34.5424,0.483626,-0.133362,7.36411,0.250953,4.61545,-9.46371,-0.249806,4.94644,-8.70062,-2.44484,-5.90582,17.4517,-1.73484,-5.74536,6.79781,-1.8111,-1.03356,3.18055e-15,-1.74931e-14,-12.206,-47.3893,-46.6125,62.4083,-14.7921,-1.08421,1.14282,7.12502,24.5515,-27.3031,3.18055e-15,-1.74931e-14,-45.2941,2.89291,81.0163,59.7333,13.497,-15.4687,49.6648,7.12502,10.7127,79.3716,-31.685,-7.07578,18.7679,53.6249,-7.59208,-0.0236232,13.8832,-25.8156,-3.21536,-18.3874,37.8377,-12.0059,-0.420281,-25.656
1.16211,18.2596,0.958399,-63.1195,-81.098,69.6012,34.4585,0.301281,0.112883,7.24736,0.0927494,4.30379,-9.53656,-0.316056,4.54047,-8.88645,-2.26697,-5.15656,17.5292,-1.53775,-6.00089,6.84108,-1.69289,-1.22463,7.95139e-15,-5.40694e-14,-11.7711,-47.4454,-46.3669,63.3927,-12.2569,1.95554,1.28149,7.12502,27.4621,-26.7364,7.95139e-15,-5.40694e-14,-46.1778,2.80353,80.4376,60.4541,13.6204,-16.7413,49.7294,7.12502,9.48493,79.4959,-31.4225,-6.63548,18.5653,53.0769,-9.41216,-0.974995,12.4694,-25.815,-2.85509,-17.4935,38.3923,-12.1312,0.12851,-25.8825
1.20474,18.1971,1.10167,-63.287,-80.7739,69.8338,34.5257,-0.0781031,0.287028,7.0961,-0.351484,3.83131,-9.68715,-0.511387,4.11427,-8.89996,-1.9759,-4.45641,17.3286,-1.21545,-6.18847,6.76874,-1.49856,-1.36829,-3.18055e-14,-1.43125e-14,-11.0936,-47.1167,-46.691,64.3522,-9.26598,4.21157,1.93096,7.12502,29.6177,-25.7249,-3.18055e-14,-1.43125e-14,-47.1894,2.80962,79.503,61.1597,13.848,-13.354,48.0884,7.12502,12.752,77.679,-31.1764,-6.07942,18.0142,52.6636,-11.1533,-2.69377,11.0353,-25.7653,-3.30089,-16.8013,39.0081,-11.8771,1.26886,-28.6442
1.25254,18.1225,1.22881,-64.623,-80.1812,71.3061,34.8225,0.121522,-0.667321,6.79159,-0.383614,3.91882,-10.1432,-0.486039,4.74624,-8.82794,-1.88924,-4.31931,17.2533,-1.08646,-6.457,6.73052,-1.44876,-1.46439,-2.38542e-14,4.13472e-14,-10.8069,-46.1378,-46.055,65.4225,-7.12248,5.21067,2.73396,7.12502,30.5709,-24.7484,-2.38542e-14,4.13472e-14,-48.3234,2.89315,79.3871,61.9039,14.3908,-15.5052,48.6041,7.12502,10.6774,78.3128,-31.2842,-5.27829,17.1192,52.4372,-12.8059,-4.27968,11.544,-25.842,-3.41186,-16.3479,39.661,-11.34,1.54028,-27.5712
1.30091,18.0416,1.36363,-66.7387,-79.733,73.4316,35.0949,0.251654,-1.3369,6.67529,-0.455152,3.84721,-10.3701,-0.494934,5.06537,-9.18609,-1.69464,-4.1776,17.3949,-0.783541,-6.58964,6.84183,-1.31664,-1.51226,-6.36111e-15,-2.22639e-14,-10.3341,-44.8431,-45.9992,66.7218,-5.486,4.81268,3.14684,7.12502,30.1913,-24.4056,-6.36111e-15,-2.22639e-14,-49.1869,3.16942,79.1442,62.4945,14.8405,-14.4452,47.9644,7.12502,11.6998,77.6177,-31.3809,-4.77682,16.3315,52.3271,-13.9695,-5.30462,9.8298,-25.7125,-3.28049,-15.759,40.3329,-10.5143,1.24384,-24.2369
1.34913,17.9646,1.51629,-68.9147,-79.4578,75.4232,35.474,0.325292,-1.58917,6.64353,-0.470733,3.75813,-10.5444,-0.49538,5.11874,-9.63428,-1.55304,-4.04008,17.5336,-0.541092,-6.74616,6.96857,-1.21712,-1.57276,-1.43125e-14,3.18055e-14,-9.95853,-43.1483,-45.5555,68.1531,-4.93882,4.03638,2.67638,7.12502,29.4504,-25.009,-1.43125e-14,3.18055e-14,-49.7432,3.16991,79.0323,62.7188,15.2774,-13.1841,47.5127,7.12502,12.9157,77.093,-31.3587,-4.48482,15.5894,52.3754,-14.8321,-6.1699,6.40097,-25.3504,-3.51181,-15.0942,41.012,-9.59833,1.72268,-22.6249
1.4031,17.8965,1.67074,-70.8638,-79.7596,76.9598,36.197,0.345966,-1.26497,6.61475,-0.35139,3.79903,-10.7326,-0.460026,4.96214,-9.97432,-1.46403,-3.98088,17.4478,-0.383618,-6.85624,7.00352,-1.14838,-1.60706,-2.06736e-14,2.38542e-14,-9.60847,-41.1113,-44.9217,69.6865,-5.5144,3.27792,2.62033,7.12502,28.7261,-25.1902,-2.06736e-14,2.38542e-14,-50.0723,2.80385,78.888,62.7754,16.1248,-12.9399,47.7512,7.12502,13.1512,77.3165,-31.1505,-4.14291,15.3942,52.5291,-15.8469,-6.79611,6.46296,-24.7978,-3.31087,-13.8479,41.7364,-8.46733,1.72209,-23.7446
1.46104,17.8337,1.82448,-72.428,-80.0767,78.3016,36.6292,0.181587,-0.940565,6.72167,-0.458444,3.89054,-10.7616,-0.532377,4.93728,-10.2296,-1.21484,-3.97533,16.979,0.0213911,-7.25124,6.90609,-0.974579,-1.69564,-6.36111e-15,9.54166e-15,-8.66355,-38.9821,-45.0934,71.3777,-5.72009,2.19263,2.9124,7.12502,27.6888,-25.0693,-6.36111e-15,9.54166e-15,-50.3183,3.39464,78.6279,62.6877,16.3736,-12.4979,48.4251,7.12502,13.5772,77.9624,-31.2456,-3.86193,15.2478,52.7671,-16.6427,-7.36732,6.38995,-24.4707,-2.84025,-12.5283,42.3828,-7.19028,1.1226,-24.0749
1.51078,17.7634,1.97504,-75.3726,-80.4325,81.0338,37.0049,-0.109833,-1.13372,6.90745,-0.913345,4.16293,-10.65,-0.7613,5.5247,-10.7873,-0.57797,-4.61187,16.5761,1.08328,-7.62727,6.90326,-0.537468,-1.61814,4.13472e-14,1.59028e-15,-6.42096,-36.3761,-46.5088,73.1226,-5.35845,1.4758,3.22264,7.12502,27.0032,-24.8673,4.13472e-14,1.59028e-15,-50.7573,5.67084,78.2549,62.4287,16.2958,-11.7528,48.5524,7.12502,14.2952,78.0403,-31.4619,-3.45554,15.1674,53.1445,-17.0613,-8.1777,3.5476,-24.0344,-2.45744,-11.2155,42.9387,-5.97178,0.791716,-22.5843
1.5584,17.7153,2.12444,-78.261,-80.742,83.5608,37.5266,0.179424,-0.555826,6.95255,-0.379408,3.91315,-10.8286,-0.537855,4.73687,-10.7828,-0.747166,-3.17729,16.4445,0.702552,-8.23108,6.84852,-0.670805,-2.08086,1.59028e-15,3.81667e-14,-7.59988,-35.7775,-45.9516,75.4292,-4.69074,1.00362,3.44666,7.12502,26.5513,-24.7124,1.59028e-15,3.81667e-14,-50.4361,4.43014,78.0687,61.8841,16.5821,-10.5779,48.2635,7.12502,15.427,77.6678,-31.5083,-3.29488,15.0253,53.5874,-17.4569,-8.78241,0.334745,-23.2933,-2.32754,-9.96353,43.2715,-4.95874,0.794892,-22.3388
1.60813,17.65,2.27373,-81.5878,-80.6967,86.6346,37.9014,0.352711,-0.492202,7.05149,-0.186312,3.71875,-10.8598,-0.46226,4.41651,-10.8275,-0.782421,-2.71929,16.1014,0.57733,-8.30332,6.73965,-0.690752,-2.18487,-6.36111e-15,-1.11319e-14,-7.69965,-34.3208,-45.8761,77.6526,-3.94008,0.367757,3.40037,7.12502,25.9426,-24.8493,-6.36111e-15,-1.11319e-14,-50.2218,4.08208,77.9647,61.3817,16.663,-9.95036,48.2884,7.12502,16.0314,77.6451,-31.8604,-3.13754,14.36,54.2604,-17.8097,-8.59311,-0.661715,-22.5856,-2.03363,-9.06525,43.474,-4.30088,1.02789,-21.6995
1.65559,17.5863,2.42298,-84.1779,-80.7399,88.8495,38.4332,0.25484,-0.499781,7.15747,-0.357948,3.61473,-10.9102,-0.555521,4.38601,-10.999,-0.536332,-2.51341,15.8239,0.909502,-8.51514,6.69256,-0.528244,-2.25476,-1.59028e-15,5.725e-14,-6.85695,-32.3678,-46.6939,79.5839,-2.38215,0.150234,3.46296,7.12502,25.7343,-24.817,-1.59028e-15,5.725e-14,-50.1599,4.77476,77.6421,60.7135,16.4129,-10.2341,48.4334,7.12502,15.7582,77.8119,-32.0706,-2.54009,13.6815,55.0331,-18.3199,-8.10724,1.63357,-21.7374,-1.94324,-8.02295,43.5102,-4.04041,1.63231,-19.1758
1.70483,17.5243,2.57386,-85.5933,-80.8846,89.9123,38.8723,0.139198,-0.340589,7.23719,-0.462209,3.65158,-10.9625,-0.6201,4.3923,-10.9778,-0.343122,-2.44754,15.5642,1.18132,-8.75652,6.61728,-0.403918,-2.31536,-1.27222e-14,-6.99722e-14,-6.3873,-29.3897,-47.63,82.1052,-4.09128,-3.2801,0.807534,7.12502,22.4451,-27.9083,-1.27222e-14,-6.99722e-14,-49.9678,4.96047,77.6227,59.944,16.5274,-11.0638,48.7154,7.12502,14.959,78.1551,-32.3592,-1.80796,13.0725,55.9245,-19.0998,-7.52564,6.37367,-20.9992,-2.01876,-6.89191,43.4998,-3.95883,2.2724,-16.4539
1.75235,17.4576,2.72025,-86.5375,-80.7304,90.5536,39.155,0.0884506,-0.405612,7.39501,-0.58504,3.64278,-10.8702,-0.690582,4.47032,-11.0655,-0.257461,-2.48471,15.3376,1.31885,-8.91124,6.56705,-0.345901,-2.34427,-6.36111e-15,6.20208e-14,-5.79251,-28.8691,-48.3645,83.3158,0.406809,-0.815822,3.9098,7.12502,24.8087,-24.5009,-6.36111e-15,6.20208e-14,-49.6061,4.85907,77.8432,59.3164,17.0808,-12.4746,49.2198,7.12502,13.5996,78.7555,-32.7341,-1.53466,12.2591,56.8079,-19.4645,-7.46541,6.00793,-20.381,-2.17995,-6.08551,43.4259,-3.98306,2.73197,-13.3468
1.79618,17.3858,2.86483,-88.1955,-80.4413,91.8347,39.4032,-0.0630066,-0.50807,7.63189,-0.889624,3.39885,-10.6601,-0.847348,4.38587,-11.2694,-0.0626471,-2.47055,15.1739,1.59932,-8.9897,6.56197,-0.213821,-2.34589,6.36111e-15,1.27222e-14,-5.08154,-27.1403,-49.6653,84.8921,2.77608,-0.818635,4.72529,7.12502,24.806,-23.6858,6.36111e-15,1.27222e-14,-49.0492,5.36387,77.7354,58.3736,16.7037,-14.0316,49.6269,7.12502,12.0986,79.2571,-32.9803,-1.06828,11.3167,57.6355,-19.7416,-7.80448,3.84323,-19.6172,-2.11438,-5.54322,43.3112,-3.86612,3.37063,-13.5352
1.84081,17.3225,3.01718,-89.4137,-80.166,92.7232,39.7502,-0.0340265,-1.10927,7.7643,-1.09947,3.65375,-10.6074,-0.95066,5.07264,-11.6913,0.21927,-2.6818,15.2875,2.1219,-9.45116,6.69988,-0.0357306,-2.41833,4.45278e-14,-1.74931e-14,-4.0045,-24.822,-50.6506,86.0596,4.7315,-1.81554,5.49425,7.12502,23.8503,-23.045,4.45278e-14,-1.74931e-14,-48.6372,6.45158,78.3124,57.2838,15.8707,-15.6356,49.9973,7.12502,10.5516,79.7124,-33.1705,-0.043896,10.3877,58.3569,-19.8572,-9.00757,-0.731927,-18.9483,-2.09423,-5.07674,43.1018,-3.54308,4.06255,-16.6089
1.8835,17.2645,3.17052,-90.2616,-79.9918,93.2739,40.0154,-0.131669,-1.44824,7.87409,-1.37233,3.79213,-10.5431,-1.08538,5.52048,-11.9183,0.495084,-2.95579,15.3913,2.60803,-9.72018,6.79687,0.142005,-2.41882,-1.59028e-14,-1.90833e-14,-3.37941,-22.0316,-51.8592,87.4037,6.18929,-3.95723,5.06154,7.12502,21.795,-23.7312,-1.59028e-14,-1.90833e-14,-48.2151,7.33181,78.6526,56.3094,15.1609,-16.9725,50.7871,7.12502,9.26184,80.5636,-33.3918,-0.5792,9.65506,58.9762,-20.0013,-8.92546,-4.51587,-18.3116,-2.43869,-4.47707,42.8505,-3.3509,4.73184,-18.4203
1.92177,17.2155,3.32845,-90.8412,-79.8508,93.6031,40.142,-0.113176,-1.56757,7.94555,-1.4042,3.88988,-10.4991,-1.10814,5.70456,-11.843,0.580042,-3.30142,15.4535,2.78147,-9.72353,6.80896,0.19987,-2.3479,-2.38542e-14,1.27222e-14,-3.33495,-19.7521,-52.5761,88.2974,8.03958,-5.76351,4.98137,7.12502,20.0597,-24.0031,-2.38542e-14,1.27222e-14,-47.6527,7.55712,79.086,55.3437,14.6276,-18.3857,51.5143,7.12502,7.89805,81.3468,-33.6031,-0.707756,8.70229,59.5167,-21.1469,-7.24423,3.72004,-17.7109,-2.79335,-3.91886,42.5348,-3.14835,5.34204,-15.137
1.96234,17.1519,3.49969,-91.0449,-79.5297,93.7413,40.0626,-0.0368953,-1.67622,7.96345,-1.36246,3.79958,-10.4557,-1.08605,5.64266,-11.6939,0.597818,-3.10541,15.4968,2.77002,-9.76377,6.79765,0.205072,-2.3943,-3.81667e-14,-3.18055e-15,-3.22047,-17.84,-52.8041,88.4179,9.78394,-7.28304,5.17654,7.12502,18.5986,-23.9544,-3.81667e-14,-3.18055e-15,-46.9242,7.20617,79.4919,54.2715,13.9874,-19.7187,51.7582,7.12502,6.61141,81.635,-33.9351,-1.35405,7.84389,59.9306,-21.2315,-7.85009,-1.58567,-17.4506,-2.92674,-3.62369,42.2625,-2.63565,5.9134,-15.4451
2.00621,17.0971,3.67593,-90.1582,-79.7521,92.9438,39.8647,-0.324064,-1.15796,7.97896,-1.50762,3.78746,-10.3652,-1.16203,5.41111,-11.9841,0.685956,-2.81195,15.7291,2.93636,-10.1456,6.94064,0.247284,-2.55621,4.77083e-15,1.74931e-14,-3.55252,-15.8515,-54.5831,89.0427,12.7271,-9.03015,5.89226,7.12502,16.9174,-23.3909,4.77083e-15,1.74931e-14,-46.193,7.08397,79.8309,53.3579,12.8971,-20.7755,52.5632,7.12502,5.5911,82.4695,-34.327,-1.9281,7.48523,60.21,-21.6015,-7.81509,-1.8036,-17.3906,-3.40227,-2.72973,41.8367,-2.04849,6.47738,-17.4062
2.05781,17.0457,3.85619,-88.5788,-80.0248,91.3848,39.8364,-0.737841,-0.622634,7.94085,-1.7871,3.91695,-10.3799,-1.29904,5.38784,-12.2315,0.772937,-3.29668,15.8768,3.16062,-10.0734,7.03774,0.313539,-2.4346,4.13472e-14,6.36111e-15,-3.2102,-13.6715,-55.7984,88.6752,15.2863,-10.5421,7.11347,7.12502,15.4615,-22.2882,4.13472e-14,6.36111e-15,-45.7182,7.46226,80.2927,52.5903,11.5676,-19.9328,52.3351,7.12502,6.40468,82.2182,-34.5897,-2.54095,7.2162,60.3874,-21.6317,-8.41548,-5.83096,-17.3895,-4.22529,-1.80933,41.425,-1.43412,6.93218,-17.4365
2.09008,17.0013,3.99954,-93.2241,-79.9622,95.609,40.2605,0.101928,-0.753988,7.94949,-0.830997,3.73149,-10.5884,-0.861441,4.86352,-12.0256,0.312067,-2.30624,16.1973,2.37399,-10.1536,7.07696,-0.0133608,-2.70411,9.54166e-15,-7.95139e-15,-4.17776,-13.216,-56.3909,87.8049,17.433,-12.3584,8.26223,7.12502,13.7116,-21.266,9.54166e-15,-7.95139e-15,-44.9967,5.49308,80.9097,51.8248,10.2964,-14.9596,49.7644,7.12502,11.2037,79.4452,-34.4264,-1.75682,6.67174,60.5235,-21.4937,-9.50346,-11.8764,-16.1298,-4.20687,-1.25467,40.8211,-1.22086,7.108,-14.2851
2.13631,16.9546,4.18433,-94.3244,-79.9118,96.6428,40.3846,0.0194105,-0.649742,7.93822,-0.902414,3.68099,-10.6354,-0.897136,4.78738,-12.3082,0.421398,-2.53522,16.4414,2.59874,-10.114,7.21578,0.0620363,-2.63751,6.36111e-15,5.56597e-14,-3.74397,-11.3215,-57.4563,86.3365,19.2774,-14.776,9.45227,7.12502,11.3808,-20.2189,6.36111e-15,5.56597e-14,-44.6509,5.79629,81.2868,51.223,8.39363,-14.8001,49.2251,7.12502,11.3576,78.8975,-34.7016,-2.01311,5.92004,60.6742,-21.3326,-9.39864,-14.7894,-15.6965,-4.60291,-0.869672,40.1824,-0.407386,7.3281,-14.4068
2.18089,16.9158,4.37348,-94.9497,-79.9568,97.2894,40.3195,-0.234228,-0.51024,7.96078,-1.16621,3.69243,-10.5683,-1.02377,4.83646,-12.62,0.695162,-2.7469,16.4914,3.08623,-10.4052,7.31541,0.238808,-2.65303,-7.95139e-15,-4.77083e-15,-3.03822,-9.18058,-58.8328,84.4008,21.1259,-17.4112,10.1517,7.12502,8.83855,-19.6432,-7.95139e-15,-4.77083e-15,-44.4688,6.0607,81.718,51.1932,8.19242,-15.8371,49.2548,7.12502,10.3573,78.9798,-35.1202,-1.98605,5.18589,60.8632,-21.1592,-8.83766,-14.1334,-15.3585,-5.14205,-0.527245,39.4146,0.824815,7.55152,-19.0837
2.21277,16.8874,4.54486,-99.3133,-79.9985,101.238,40.7063,0.168649,-0.604664,8.05433,-0.737224,3.70147,-10.6201,-0.842174,4.72041,-12.4878,0.633725,-2.61165,16.3159,2.96009,-10.4495,7.23031,0.197139,-2.69885,9.54166e-15,-3.65764e-14,-2.95371,-7.788,-60.0185,82.0655,22.9092,-19.8696,11.0485,7.12502,6.46572,-18.8328,9.54166e-15,-3.65764e-14,-44.0791,5.43638,82.3798,51.2299,8.84095,-17.2209,49.2183,7.12502,9.0222,79.0053,-35.0594,-0.84711,4.55436,60.9976,-21.0918,-8.68186,-13.3262,-14.2028,-5.38639,-0.193287,38.7635,1.34332,7.42439,-22.8609
2.26154,16.8511,4.73607,-101.416,-79.7528,103.167,40.8926,0.502618,-0.774434,8.0654,-0.408148,3.65099,-10.6925,-0.69201,4.61725,-12.5833,0.573486,-2.16258,16.4561,2.85662,-10.727,7.29643,0.141551,-2.87827,-7.95139e-15,1.59028e-14,-2.73775,-6.55461,-60.3553,79.1928,24.0041,-21.8604,12.3257,7.12502,4.54353,-17.6055,-7.95139e-15,1.59028e-14,-43.7213,5.07208,82.8669,51.132,7.45326,-16.4489,48.7746,7.12502,9.76708,78.5282,-35.2776,-0.579314,3.60228,61.1476,-20.9045,-8.34204,-13.8887,-13.489,-5.54513,-0.126853,38.0093,1.56766,7.15267,-22.1115
2.3209,16.8178,4.95317,-100.21,-80.1804,102.346,40.5832,0.0648289,-0.342891,7.95937,-0.717602,3.92704,-10.6923,-0.834017,4.82101,-13.0282,0.785521,-2.69421,16.6739,3.32027,-10.8715,7.47153,0.284377,-2.79807,-9.54166e-15,3.18055e-15,-1.66253,-4.71073,-61.2336,75.7611,26.008,-23.4697,13.6092,7.12502,2.98949,-16.3496,-9.54166e-15,3.18055e-15,-43.6351,6.45724,82.9084,50.8584,3.23919,-12.0282,47.0116,7.12502,14.0298,76.5181,-35.9629,-1.19788,3.14188,61.1514,-20.6895,-7.4107,-12.2004,-13.9225,-6.21043,0.540462,37.3685,1.83319,6.82924,-22.0991
2.37207,16.7868,5.09427,-104.653,-80.881,106.684,40.9512,0.781011,-0.167421,7.91798,0.273485,4.21842,-10.9389,-0.394656,4.62936,-12.8056,0.403935,-2.41783,16.521,2.68236,-10.663,7.34701,0.0377965,-2.83495,-6.36111e-15,-1.74931e-14,-1.61874,-5.21515,-62.4739,72.1048,29.2056,-24.7398,13.9776,7.12502,1.76288,-15.9948,-6.36111e-15,-1.74931e-14,-43.3083,4.23668,84.236,51.3511,5.07853,-15.1156,48.0624,7.12502,11.0532,77.7513,-36.1461,-0.300266,3.42396,61.0398,-20.7275,-6.77453,-8.44394,-13.2573,-6.36856,1.78937,36.7194,1.68597,6.04021,-23.4209
2.41349,16.7622,5.29184,-106.344,-81.4055,108.429,40.7698,0.789589,0.438132,7.97221,0.547,4.40918,-10.8332,-0.289738,4.39783,-12.9356,0.290925,-2.71326,16.5691,2.57912,-10.5522,7.37831,-0.0267346,-2.76166,3.18055e-14,3.02153e-14,-0.622986,-4.91881,-63.1451,67.9265,32.0337,-25.3787,14.0783,7.12502,1.14584,-15.8984,3.18055e-14,3.02153e-14,-42.9541,3.23563,85.1324,51.5537,5.75886,-16.3158,48.4488,7.12502,9.89548,78.1962,-36.3333,-0.157986,3.20447,60.7962,-20.4272,-6.29143,-7.74956,-13.1596,-6.97417,2.46523,36.2917,1.39572,5.15942,-22.7636
2.45355,16.7388,5.51139,-107.143,-81.4278,109.132,40.6491,0.646994,0.638766,8.1212,0.426419,4.43925,-10.6125,-0.36003,4.37261,-13.2365,0.394498,-3.02163,16.5559,2.81936,-10.6529,7.44059,0.0478568,-2.72165,1.74931e-14,4.77083e-15,1.00974,-4.03757,-63.4875,63.6146,34.0955,-25.2719,14.3199,7.12502,1.24893,-15.6562,1.74931e-14,4.77083e-15,-42.4201,3.62637,85.6102,51.4531,5.43936,-16.0175,47.7146,7.12502,10.1833,77.4482,-36.2899,-0.36075,2.39425,60.4632,-19.9767,-5.98404,-9.32388,-12.8852,-7.51929,2.36859,35.7642,1.42594,3.75933,-23.0452
2.51606,16.7092,5.72463,-106.001,-81.5605,108.185,40.4028,0.527226,0.874324,8.10883,0.386087,4.48922,-10.5409,-0.378345,4.31675,-13.3998,0.322755,-3.30812,16.4315,2.76446,-10.5561,7.42377,0.0142507,-2.64669,1.59028e-14,2.54444e-14,2.27321,-3.71403,-63.87,59.6105,35.4812,-24.6117,14.0055,7.12502,1.88658,-15.9659,1.59028e-14,2.54444e-14,-42.0266,3.7312,86.1581,51.476,4.77534,-15.0951,46.4929,7.12502,11.073,76.1808,-36.5359,-0.684502,1.67863,60.1103,-19.4886,-6.13498,-11.3398,-13.1692,-7.71549,2.43149,35.2155,1.7754,1.90533,-25.0365
2.54478,16.6936,5.94447,-109.375,-81.2852,111.139,40.6141,0.908294,0.872896,8.26583,0.816645,4.41735,-10.4556,-0.196781,4.05585,-13.5719,0.0306124,-3.47499,16.4505,2.38604,-10.393,7.44134,-0.165663,-2.60579,4.29375e-14,5.24792e-14,3.25877,-4.23872,-64.2387,55.6927,35.7902,-23.9684,13.4373,7.12502,2.50792,-16.5278,4.29375e-14,5.24792e-14,-41.5804,2.79375,86.9039,51.5642,4.44536,-9.54794,43.5197,7.12502,16.4189,72.8448,-36.1593,-0.195383,0.628982,59.6587,-19.1534,-5.87283,-12.336,-12.261,-8.09116,1.84839,34.5881,2.14737,0.97717,-27.3775
2.58049,16.6753,6.11826,-118.567,-81.0378,119.56,41.342,2.05436,0.0306322,8.54598,1.86237,4.83866,-10.4912,0.248303,4.50945,-13.5498,-0.131005,-3.52888,16.2322,2.17323,-10.5212,7.35962,-0.271103,-2.65714,1.59028e-15,3.81667e-14,4.49903,-5.1143,-64.5676,51.8649,35.2081,-22.317,13.1563,7.12502,4.10269,-16.784,1.59028e-15,3.81667e-14,-40.9822,2.59238,87.7053,51.4353,3.99147,-8.20068,43.0766,7.12502,17.7157,72.2896,-35.6496,1.41622,0.272541,59.1591,-18.8603,-5.65413,-11.9258,-10.5046,-7.34506,1.82005,34.0112,2.3125,-0.557272,-29.6783
2.62372,16.6568,6.34698,-112.292,-80.727,113.565,40.9971,1.96409,-0.281755,8.42658,1.67381,4.88366,-10.519,0.19008,4.80237,-13.5998,-0.217149,-3.42771,16.1482,2.08868,-10.9059,7.34497,-0.341117,-2.80926,-1.59028e-15,2.38542e-14,5.61921,-6.42594,-65.1293,48.3375,34.523,-19.847,12.4426,7.12502,6.48748,-17.438,-1.59028e-15,2.38542e-14,-40.5781,2.4222,88.4088,51.4129,3.74877,-8.76552,43.8341,7.12502,17.1721,73.0953,-35.6516,0.489544,-1.4891,58.5634,-18.3745,-5.26985,-12.3808,-11.2595,-8.3158,0.67494,33.6307,2.19807,-1.35553,-32.1093
2.66416,16.6392,6.60589,-112.187,-81.122,113.578,40.8013,1.68003,0.657592,8.32501,1.72799,4.8818,-10.5394,0.20751,4.28418,-13.5893,-0.306392,-3.43618,16.1965,1.98903,-11.0332,7.35697,-0.404926,-2.86154,2.54444e-14,5.40694e-14,6.41872,-8.17351,-65.8691,45.056,33.8952,-17.6539,10.7748,7.12502,8.60432,-19.0299,2.54444e-14,5.40694e-14,-40.5081,1.7002,88.9339,51.6905,3.95652,-9.08681,44.4338,7.12502,16.8629,73.7216,-35.4749,0.302506,-2.10336,57.7578,-17.7311,-5.22193,-13.5909,-11.5375,-8.72626,0.522249,33.6375,0.681028,-1.6699,-37.1992
2.71328,16.6311,6.84549,-117.342,-82.0684,118.403,41.4382,1.94468,1.41699,8.1759,2.46849,5.63482,-10.9775,0.506599,4.39225,-13.4218,-0.477853,-4.03927,16.1971,1.86998,-11.1725,7.32609,-0.515317,-2.82036,-9.54166e-15,0,7.16199,-10.0127,-65.7464,41.7715,32.2345,-15.5417,8.30544,7.12502,10.6422,-21.4051,-9.54166e-15,0,-40.6358,1.07867,90.1038,52.1262,4.25285,-9.52583,45.2428,7.12502,16.4402,74.5661,-34.8353,1.09887,-1.75575,56.8555,-17.3065,-5.19998,-12.8324,-11.1648,-8.10047,1.29552,34.0558,-1.47946,-2.29682,-39.4624
