JuanDHNZ/ProyectoFinalCD/preprocessing/sports_trials_csv/06_05.csv
root1,root2,root3,root4,root5,root6,lowerback1,lowerback2,lowerback3,upperback1,upperback2,upperback3,thorax1,thorax2,thorax3,lowerneck1,lowerneck2,lowerneck3,upperneck1,upperneck2,upperneck3,head1,head2,head3,rclavicle1,rclavicle2,rhumerus1,rhumerus2,rhumerus3,rradius1,rwrist1,rhand1,rhand2,rfingers1,rthumb1,rthumb2,lclavicle1,lclavicle2,lhumerus1,lhumerus2,lhumerus3,lradius1,lwrist1,lhand1,lhand2,lfingers1,lthumb1,lthumb2,rfemur1,rfemur2,rfemur3,rtibia1,rfoot1,rfoot2,rtoes1,lfemur1,lfemur2,lfemur3,ltibia1,lfoot1,lfoot2,ltoes1
0.0294067,17.6304,-26.0174,-1.81212,-6.27325,-2.23239,18.8244,-1.89634,0.855722,0.629095,-1.93553,3.87126,-9.7874,-0.860914,4.27482,-8.42404,-7.35067,-5.71092,30.5879,-8.87113,-2.44946,11.5018,-4.98752,-1.02366,5.66536e-15,7.15625e-15,-28.4584,-40.7809,-40.6691,88.2595,5.24499,-12.7059,7.77426,7.12502,13.3767,-21.7763,5.66536e-15,7.15625e-15,-51.1633,11.7286,75.3591,45.4772,8.01725,-9.19208,52.3652,7.12502,16.7615,81.6616,2.61042,5.1969,28.1689,24.1106,-21.531,-19.2581,14.6334,-27.0474,-0.804769,-15.2944,41.7926,-11.4129,6.32694,-11.797
0.0346751,17.629,-25.9562,-1.45102,-6.69093,-2.35828,18.5547,-1.72162,0.963249,0.691151,-1.68853,3.92065,-9.58553,-0.751333,4.18534,-7.93577,-7.55856,-6.0656,30.0278,-9.23183,-2.07289,11.2361,-5.14336,-0.834175,1.96797e-14,-1.03368e-14,-27.7475,-38.7126,-42.175,87.2726,7.66291,-13.5586,7.99414,7.12502,12.5547,-21.6087,1.96797e-14,-1.03368e-14,-50.8525,11.6878,75.5512,44.973,7.80102,-9.25356,52.51,7.12502,16.7023,81.8114,2.61494,5.49962,28.2501,23.7445,-21.3579,-19.2303,14.3113,-27.6631,-0.739511,-15.0362,40.6167,-10.8967,6.6794,-11.5635
0.0375565,17.631,-25.8857,-1.76761,-7.30067,-2.4919,19.464,-1.56537,0.84598,0.485665,-1.45904,4.01566,-10.3322,-0.619164,4.35154,-7.27874,-7.54507,-6.2576,30.1374,-9.21072,-2.15024,11.1569,-5.17186,-0.801051,1.21259e-14,7.95139e-16,-27.5949,-35.707,-43.3036,86.2011,9.58017,-13.7887,8.32664,7.12502,12.3328,-21.2896,1.21259e-14,7.95139e-16,-51.5365,11.7824,75.4975,44.6396,7.59474,-9.32786,52.0961,7.12502,16.6308,81.4036,3.44558,5.81094,28.3994,23.3,-21.3231,-19.1197,14.1936,-27.3323,-0.759402,-14.6858,39.3763,-10.6074,7.21688,-10.6463
0.0370604,17.6236,-25.8423,-1.69514,-7.16505,-2.6177,19.2477,-1.70984,1.10497,0.623409,-1.6212,3.86276,-10.058,-0.718796,4.06058,-6.57353,-7.48353,-6.18813,29.8713,-9.23904,-1.94996,10.9213,-5.15859,-0.700734,4.47266e-15,2.70347e-14,-27.129,-33.5944,-45.0312,84.89,11.5542,-13.9542,8.70517,7.12502,12.1733,-20.9206,4.47266e-15,2.70347e-14,-51.3673,11.7535,75.2235,44.2937,7.36873,-9.12748,51.921,7.12502,16.8237,81.2122,3.76981,5.64418,28.522,22.8341,-21.24,-19.2056,13.833,-27.6764,-1.33844,-14.3425,38.0867,-9.93692,7.65476,-9.94523
0.0495444,17.6336,-25.7547,-1.6072,-7.94347,-2.57747,19.6536,-1.24533,1.2552,0.713501,-0.978329,3.71179,-10.2268,-0.423518,3.6437,-7.87739,-7.75789,-5.79172,30.3812,-9.5851,-2.06415,11.3513,-5.27349,-0.928042,-2.74323e-14,3.33958e-14,-27.0127,-32.3596,-46.0326,83.2874,13.685,-14.4989,8.73196,7.12502,11.648,-20.9243,-2.74323e-14,3.33958e-14,-50.8496,11.2245,75.5516,44.0656,7.17673,-8.92157,52.4031,7.12502,17.0219,81.6773,4.25046,5.89273,28.2914,22.3233,-21.2016,-18.6582,13.4743,-27.6678,-1.34452,-14.1721,36.7408,-9.28274,8.43982,-9.8716
0.0467569,17.6332,-25.7132,-1.81046,-7.70883,-2.60785,20.1738,-1.36898,1.12996,0.594742,-1.1441,3.73349,-10.639,-0.488243,3.81342,-6.94461,-7.66288,-6.00653,30.2107,-9.505,-1.95173,11.1191,-5.25682,-0.791521,1.10325e-14,1.27222e-14,-26.4902,-30.485,-47.4491,81.2803,15.6236,-15.1853,8.77347,7.12502,10.986,-20.9191,1.10325e-14,1.27222e-14,-51.3638,11.3848,75.4222,43.9859,7.02168,-8.92886,52.4834,7.12502,17.0149,81.7582,4.92405,5.70699,28.3721,21.8303,-21.2636,-18.7077,13.3769,-27.7263,-1.71991,-13.958,35.3879,-8.16452,8.63855,-10.5217
0.0425052,17.6313,-25.6617,-1.38391,-7.66252,-2.72368,19.9221,-1.3755,1.23992,0.742382,-1.1469,3.69026,-10.3356,-0.501589,3.68593,-7.62722,-7.776,-5.88196,30.5023,-9.62436,-2.0235,11.3583,-5.29879,-0.895908,-2.76311e-14,4.53229e-14,-25.3289,-29.6733,-49.1363,78.9182,17.2315,-15.7892,8.99092,7.12502,10.4035,-20.7317,-2.76311e-14,4.53229e-14,-50.7962,11.3735,75.5046,43.7836,7.03845,-8.92524,52.5712,7.12502,17.0184,81.8458,4.9888,5.66285,28.4633,21.1952,-20.98,-18.7227,12.5028,-28.3823,-2.01841,-13.5624,34.0524,-6.80406,8.94163,-11.3152
0.0448168,17.6262,-25.5985,-1.5676,-7.97856,-2.98037,19.9054,-1.20612,1.6575,1.23631,-0.872062,3.47716,-9.79893,-0.405057,3.11373,-8.60058,-8.00426,-5.50095,30.7954,-10.0062,-1.8824,11.6578,-5.3996,-1.01433,6.36111e-15,1.59028e-15,-25.5983,-27.116,-50.2947,77.5404,16.5715,-16.834,7.74414,7.12502,9.39554,-22.0265,6.36111e-15,1.59028e-15,-49.7929,10.9026,75.5539,43.5097,6.98996,-8.86418,52.6856,7.12502,17.0772,81.955,5.76073,5.7483,28.7257,20.5804,-20.4948,-18.7437,10.5506,-28.2334,-2.4187,-12.9679,32.7507,-5.31385,9.5492,-12.4763
0.0604272,17.635,-25.4921,-1.5127,-8.96214,-3.09811,19.7346,-0.957758,1.58558,1.15253,-0.551601,3.6137,-9.80851,-0.246619,3.21367,-7.7435,-7.92406,-6.16821,30.7094,-9.89829,-1.61132,11.5132,-5.4028,-0.750947,-1.35174e-14,-3.02153e-14,-24.2521,-27.5498,-51.5093,74.129,18.856,-15.9419,9.02661,7.12502,10.2562,-20.7033,-1.35174e-14,-3.02153e-14,-50.3219,11.2618,75.5967,43.3645,6.67579,-8.65088,52.6262,7.12502,17.2825,81.8777,6.39906,6.10837,28.6216,19.9011,-20.1749,-18.2668,9.02333,-28.0357,-2.67117,-12.4797,31.501,-4.25196,10.6144,-14.1591
0.0523238,17.6286,-25.4485,-1.39398,-8.69117,-3.29989,19.3761,-0.812898,1.88805,1.84498,-0.356087,3.43997,-8.85551,-0.178488,2.76446,-8.87843,-8.30135,-5.7501,30.7159,-10.5218,-1.3186,11.747,-5.58174,-0.851276,-1.89839e-14,-4.77083e-15,-23.0137,-28.4782,-52.9707,71.2907,19.8914,-16.0524,9.06941,7.12502,10.1496,-20.6658,-1.89839e-14,-4.77083e-15,-48.4724,10.8914,75.7963,42.9518,6.29911,-8.43003,52.1646,7.12502,17.495,81.3974,6.86028,5.89563,28.8691,19.1344,-19.9635,-18.2815,9.00203,-28.4295,-3.05559,-11.9798,30.2917,-3.73675,10.6087,-13.5617
0.0539632,17.6298,-25.3779,-1.35732,-8.80929,-3.49671,20.5527,-0.645518,1.65507,1.17179,-0.0828762,3.69742,-10.2612,-0.0222372,3.15723,-8.11305,-8.42692,-6.22745,31.1988,-10.6262,-1.49828,11.8132,-5.71363,-0.832825,-6.36111e-15,-7.95139e-16,-23.6335,-26.8912,-53.0225,68.817,20.3745,-16.0434,8.66701,7.12502,10.1583,-21.0678,-6.36111e-15,-7.95139e-16,-49.4725,10.8687,75.9724,42.8964,6.06991,-8.64934,50.1728,7.12502,17.284,79.4242,7.57103,5.86823,29.0261,18.2364,-19.85,-18.0858,9.66079,-28.524,-3.61234,-11.3943,29.1718,-5.16857,11.2777,-8.17194
0.059839,17.6291,-25.3002,-1.14722,-8.77402,-3.63853,19.5975,-0.590435,2.10935,1.84343,-4.35858e-05,3.50368,-8.99097,-0.0151389,2.61786,-8.69037,-8.67067,-6.24449,30.8048,-11.0571,-1.00426,11.8182,-5.83658,-0.726253,-1.78906e-14,-2.70347e-14,-22.2452,-27.5616,-54.5368,65.8919,21.0769,-15.7139,8.24613,7.12502,10.4761,-21.4728,-1.78906e-14,-2.70347e-14,-47.9957,10.7223,76.1327,42.6132,6.01201,-8.44506,51.3413,7.12502,17.4806,80.5753,8.02674,5.72641,29.0698,17.4758,-19.7915,-17.8867,9.80903,-28.8223,-4.31103,-10.8757,28.1452,-5.10615,11.7153,-9.07256
0.0700151,17.6325,-25.1988,-1.24033,-9.23082,-3.74449,20.0752,-0.313448,2.15638,1.52066,0.409131,3.48158,-9.6229,0.17878,2.47125,-7.65417,-8.77885,-6.50995,30.8019,-11.2875,-0.828528,11.6488,-5.9633,-0.595191,-5.1684e-15,-3.49861e-14,-22.1546,-27.9926,-54.9031,62.2164,22.2154,-15.0158,8.3207,7.12502,11.1495,-21.3631,-5.1684e-15,-3.49861e-14,-48.6139,10.2309,76.2123,42.6475,5.76406,-8.51716,50.1077,7.12502,17.4112,79.3479,8.99899,5.92617,29.0835,16.5055,-19.4793,-17.6793,9.07175,-28.6063,-4.65815,-10.4549,27.2118,-5.43371,12.2957,-9.85747
0.0616999,17.6172,-25.1553,-0.990942,-8.60533,-4.04785,19.9421,-0.524049,2.21948,1.42779,0.158281,3.61293,-9.6462,0.0607929,2.64977,-6.67275,-8.76237,-7.0507,30.5855,-11.3499,-0.410474,11.4406,-6.01609,-0.308629,5.26779e-15,-1.51076e-14,-20.6714,-29.6859,-55.9437,57.8749,24.5962,-13.5894,9.70424,7.12502,12.525,-19.9004,5.26779e-15,-1.51076e-14,-48.6173,10.3317,76.1907,42.6473,5.59551,-8.10871,51.7216,7.12502,17.8042,80.9265,9.34762,5.90694,29.5858,15.7447,-19.3183,-18.1923,9.42847,-29.2495,-5.18099,-9.83378,26.2837,-5.49883,11.9472,-7.74423
0.0790525,17.622,-25.0398,-1.17748,-9.22171,-4.02841,20.3731,-0.141598,2.16825,1.36687,0.671327,3.5996,-9.96784,0.305983,2.52868,-6.78526,-9.00555,-7.16267,31.1622,-11.6406,-0.58827,11.7008,-6.1758,-0.419051,-1.12313e-14,-1.27222e-14,-20.8949,-28.8097,-56.1149,55.0911,24.5317,-13.077,9.06432,7.12502,13.019,-20.5094,-1.12313e-14,-1.27222e-14,-48.514,10.1036,76.4307,42.5292,5.46986,-8.01053,51.1903,7.12502,17.8987,80.3867,10.3703,6.03187,29.3527,14.9365,-19.0822,-17.6678,8.87454,-28.8224,-6.06411,-9.36573,25.4251,-6.36998,12.9762,-7.60497
0.0812022,17.613,-24.9648,-0.729965,-8.8659,-4.02567,20.4809,-0.0318266,2.10075,1.11347,0.820026,3.6104,-10.3164,0.380944,2.54345,-7.16601,-9.24512,-7.06657,31.8488,-11.9021,-0.911573,12.0337,-6.31086,-0.632486,-8.64713e-15,0,-20.7032,-29.292,-56.3636,51.8563,25.1847,-12.3727,7.88158,7.12502,13.6978,-21.6476,-8.64713e-15,0,-48.2314,10.0458,76.5413,42.4694,5.19289,-7.74512,50.7374,7.12502,18.1541,79.9102,10.5136,5.81645,29.2808,14.265,-19.1224,-17.5921,9.53754,-29.5478,-6.77415,-8.98579,24.6002,-6.42165,13.2073,-7.99598
0.0922299,17.612,-24.849,-0.663393,-9.30799,-4.02471,19.1629,0.312956,2.39388,1.97273,1.21368,3.39879,-8.63605,0.552592,2.00979,-9.06502,-9.44152,-6.62148,32.2931,-12.1296,-0.950148,12.5715,-6.32661,-0.877116,-3.50855e-14,-3.18055e-14,-19.3704,-31.1515,-57.37,48.6609,25.9451,-11.4308,5.48434,7.12502,14.6054,-23.9814,-3.50855e-14,-3.18055e-14,-46.5438,9.98064,76.7097,42.4521,5.05323,-7.19945,51.5582,7.12502,18.679,80.6814,11.239,6.07355,29.1474,13.5425,-18.9119,-17.3771,8.69456,-29.4216,-7.27831,-8.59996,23.8242,-6.60891,13.8797,-8.20615
0.0936388,17.6013,-24.7717,-0.754135,-8.96068,-4.27602,20.0963,0.436513,2.46605,1.78582,1.46309,3.57818,-9.36364,0.668878,2.10204,-8.94775,-9.69008,-6.97941,32.4642,-12.4694,-0.816152,12.6731,-6.49842,-0.822895,3.39922e-14,1.90833e-14,-19.4919,-31.9081,-57.2091,45.7555,26.1429,-10.0115,5.83699,7.12502,15.9726,-23.5245,3.39922e-14,1.90833e-14,-46.4099,9.75029,77.0033,42.5458,4.92733,-7.31475,50.3442,7.12502,18.5681,79.478,11.9927,6.04201,29.5073,12.9468,-18.3614,-17.703,7.43042,-29.4318,-7.8021,-8.09625,23.1204,-6.48464,13.6895,-8.86582
0.100149,17.5912,-24.6863,-0.660712,-8.78516,-4.51809,19.9125,0.507409,2.70946,1.74818,1.60751,3.61867,-9.30214,0.72935,1.96798,-8.02005,-9.79589,-7.25317,32.2833,-12.6766,-0.642332,12.4531,-6.61543,-0.682234,-1.04362e-14,-1.59028e-15,-19.7991,-32.4631,-57.1543,42.9105,25.6542,-9.01768,5.893,7.12502,16.9294,-23.3892,-1.04362e-14,-1.59028e-15,-46.2982,9.65231,76.9638,42.6148,4.71972,-7.09769,49.9404,7.12502,18.7769,79.0541,12.5788,6.07238,29.7858,12.2861,-18.3893,-17.7088,8.19073,-29.6374,-8.24911,-7.57687,22.601,-6.30194,13.6238,-7.81448
0.117331,17.5837,-24.561,-0.654752,-8.77954,-4.48646,19.8737,0.733906,2.77527,1.51359,1.92925,3.59248,-9.54322,0.877767,1.8152,-6.9984,-10.0289,-7.51006,32.2867,-13.0561,-0.592012,12.2895,-6.82312,-0.614235,1.5207e-14,-1.90833e-14,-20.8795,-33.0621,-56.4805,40.245,24.5049,-7.78992,4.81101,7.12502,18.111,-24.3658,1.5207e-14,-1.90833e-14,-46.6159,9.2958,77.0484,42.9359,4.70162,-6.87125,50.544,7.12502,18.9946,79.6365,13.316,5.84566,29.5563,11.6397,-17.9006,-17.5233,6.07623,-29.6078,-8.7576,-7.45702,22.2514,-6.36877,13.9061,-7.40446
0.129436,17.5767,-24.4444,-0.418448,-8.83968,-4.2587,19.4357,0.834072,2.42151,1.18196,1.99031,3.68421,-9.68557,0.924934,2.10584,-5.40037,-9.89904,-8.24062,31.9964,-12.8978,-0.445345,11.9212,-6.84718,-0.318091,9.74045e-15,1.82882e-14,-21.7214,-33.1133,-55.9928,37.8399,22.5188,-5.98246,4.87879,7.12502,19.8492,-24.1276,9.74045e-15,1.82882e-14,-47.4181,9.80253,76.8729,43.3296,4.60314,-6.3813,51.0986,7.12502,19.4658,80.1442,13.6593,5.86658,29.1786,11.1997,-17.675,-17.449,5.04614,-29.8053,-8.91465,-7.57789,22.0372,-6.55673,14.0952,-7.83045
0.146847,17.5702,-24.3198,-0.67234,-8.89146,-4.29938,19.5217,1.089,2.78647,1.80683,2.36311,3.57904,-9.02978,1.08821,1.67698,-7.02106,-10.3571,-8.1109,32.3763,-13.4642,-0.405796,12.4223,-7.04132,-0.52062,-8.74653e-15,-2.3059e-14,-21.2959,-35.61,-56.1468,35.3597,20.4852,-4.10613,5.20918,7.12502,21.652,-23.6002,-8.74653e-15,-2.3059e-14,-45.9997,9.95099,76.9733,43.3676,4.34199,-6.12941,50.965,7.12502,19.7079,79.986,14.6789,5.87811,29.141,10.6637,-17.2873,-17.3559,3.59972,-29.4381,-9.02689,-7.6079,22.0385,-6.6757,14.1475,-7.41759
0.161857,17.5577,-24.2087,-0.385447,-8.56764,-4.5618,19.0875,1.12225,3.16416,1.67878,2.48015,3.66146,-8.9216,1.13325,1.52719,-6.89698,-10.4237,-8.21035,32.688,-13.5319,-0.504169,12.5316,-7.09292,-0.555717,6.06293e-15,8.74653e-15,-22.2613,-37.2501,-55.441,33.1107,17.7011,-2.40421,3.93557,7.12502,23.2857,-24.6763,6.06293e-15,8.74653e-15,-46.1588,9.95751,76.949,43.9573,4.5292,-5.99971,51.7974,7.12502,19.8326,80.8055,14.8733,5.86656,29.3846,10.5772,-17.1848,-17.4142,3.13157,-29.8253,-8.65613,-7.521,22.1697,-6.51023,13.4919,-7.36432
0.181383,17.5449,-24.09,-0.673151,-8.53939,-4.66249,19.3984,1.33517,3.58529,2.0332,2.83432,3.54899,-8.67805,1.2873,1.06759,-8.43121,-10.7167,-7.85575,33.47,-13.868,-0.712402,13.1428,-7.18376,-0.871449,4.96962e-15,-2.22639e-14,-22.8741,-39.9901,-54.8546,30.9921,14.7689,-1.15194,1.06149,7.12502,24.4866,-27.3932,4.96962e-15,-2.22639e-14,-45.3631,9.75723,77.0059,44.3637,4.83977,-5.89538,51.7805,7.12502,19.9329,80.7782,15.6955,5.92697,29.4512,10.4372,-16.981,-17.3728,2.09316,-29.4951,-8.46992,-7.65822,22.4766,-6.4804,13.2242,-8.26878
0.188403,17.5234,-24.0022,-0.538271,-7.68606,-4.66016,20.0019,1.23311,3.5314,1.3611,2.77577,3.62194,-9.76167,1.24517,1.18147,-6.24142,-10.7946,-8.434,32.7438,-14.145,-0.292362,12.4919,-7.37103,-0.491468,1.25234e-14,2.14687e-14,-25.2293,-41.0612,-53.1275,29.2286,11.3239,-0.944973,-1.18088,7.12502,24.685,-29.6086,1.25234e-14,2.14687e-14,-46.4181,9.77328,76.7584,44.9663,5.18163,-5.73227,51.8296,7.12502,20.0897,80.811,15.5489,5.7427,29.5918,11.0041,-16.977,-17.9729,1.08198,-29.9381,-8.18432,-8.00966,22.7574,-5.94045,12.1995,-10.1682
0.215906,17.519,-23.8543,-0.697771,-7.84729,-4.63548,19.374,1.39687,3.77004,1.70563,2.97817,3.57413,-9.01762,1.34394,0.951693,-5.52519,-10.9707,-8.74423,32.2508,-14.4596,-0.00931626,12.2158,-7.52586,-0.319441,-2.40529e-14,-1.66979e-14,-26.3092,-43.1825,-52.1836,27.4208,7.88604,-1.54245,-2.09526,7.12502,24.1122,-30.6001,-2.40529e-14,-1.66979e-14,-46.0578,10.147,76.6705,45.334,5.61735,-5.79544,51.8072,7.12502,20.029,80.7949,15.9198,5.86003,29.4193,11.5994,-17.0059,-17.7872,0.140604,-29.4999,-7.92189,-8.30735,23.1083,-5.96141,12.0249,-10.9505
0.218347,17.4936,-23.7818,-0.56998,-6.61163,-4.76328,19.9334,1.16799,3.78479,1.41935,2.75415,3.75817,-9.6549,1.22976,1.19428,-4.97509,-11.1322,-9.16974,32.2177,-14.717,0.15925,12.1655,-7.67651,-0.194595,-2.36554e-14,-1.11319e-14,-28.139,-45.6742,-50.3928,25.8257,4.88218,-2.70499,-3.36419,7.12502,22.9971,-32.0123,-2.36554e-14,-1.11319e-14,-46.2346,10.5067,76.5961,45.7144,6.20071,-6.22975,51.6086,7.12502,19.6115,80.6394,15.7353,5.43312,29.7863,12.2609,-16.9681,-18.3723,-0.301183,-29.9859,-7.34907,-8.72333,23.4842,-5.28481,10.3736,-11.6328
0.241252,17.4933,-23.6314,-0.458206,-6.57221,-4.35348,19.7739,1.39846,3.54904,1.53097,2.97376,3.61106,-9.44517,1.34447,1.10914,-5.58136,-11.4146,-9.1383,32.5548,-15.0778,0.120926,12.441,-7.81794,-0.321269,1.35174e-14,1.43125e-14,-30.2383,-49.3096,-48.212,24.3665,2.98644,-4.27832,-4.44457,7.12502,21.4867,-33.2729,1.35174e-14,1.43125e-14,-45.7371,10.7261,76.5442,45.8184,6.77765,-6.9243,51.4672,7.12502,18.9436,80.5647,15.7172,5.34162,29.1293,12.9947,-17.0771,-17.985,-0.852268,-29.7779,-7.10357,-9.48473,23.9172,-5.45173,10.1964,-10.6511
0.277892,17.4978,-23.4571,-0.775117,-7.01574,-4.05007,19.9168,1.63782,3.48359,1.50196,3.27049,3.476,-9.55056,1.48266,0.913508,-5.19832,-11.5143,-9.30956,32.8069,-15.226,0.0715829,12.4917,-7.91412,-0.319111,1.98785e-14,7.95139e-15,-34.0616,-52.7482,-44.4424,23.0635,3.15691,-4.93017,-3.7898,7.12502,20.8605,-32.6883,1.98785e-14,7.95139e-15,-46.0842,11.1161,76.2516,46.0634,6.9733,-7.07511,51.9857,7.12502,18.7986,81.0974,16.1674,5.51698,28.539,13.8067,-16.9248,-17.6493,-2.49895,-28.8305,-7.00935,-10.1134,24.2955,-6.03975,10.5677,-9.46392
0.28826,17.4793,-23.3491,-0.831906,-5.92234,-4.0172,20.6012,1.40351,3.49376,1.23686,3.02766,3.5236,-10.2284,1.35611,1.01149,-5.08669,-11.648,-9.42155,33.052,-15.4032,0.00469596,12.5885,-8.01185,-0.355613,-3.57812e-14,-4.29375e-14,-37.418,-54.3052,-41.5753,22.5958,1.25806,-6.00027,-3.67396,7.12502,19.8321,-32.6821,-3.57812e-14,-4.29375e-14,-46.6878,11.2956,76.0813,46.6917,7.78058,-7.83874,51.5745,7.12502,18.064,80.7557,16.2699,5.00642,28.6628,14.4522,-16.6894,-18.1682,-3.23057,-28.8539,-6.64735,-10.73,24.7775,-5.9642,9.17233,-10.3763
0.322959,17.4891,-23.169,-0.813062,-5.85396,-3.55298,19.7478,1.52454,3.16997,1.29576,3.05684,3.46848,-9.70278,1.3935,1.14485,-4.26218,-11.6753,-9.69601,32.8728,-15.493,0.109124,12.3933,-8.08785,-0.223536,3.39922e-14,3.4191e-14,-40.8436,-55.507,-38.6191,22.3757,-0.362433,-6.44444,-3.03299,7.12502,19.4051,-32.0847,3.39922e-14,3.4191e-14,-47.1375,11.7969,75.9022,46.8656,8.31776,-8.50694,51.3886,7.12502,17.421,80.6279,16.5331,4.92459,27.9425,14.9812,-16.5398,-17.922,-3.37482,-28.404,-6.4722,-11.6487,25.1997,-6.02912,8.97078,-11.5232
0.340448,17.4905,-23.0372,-0.765227,-5.30223,-3.80494,19.8013,1.5193,3.51959,1.31065,3.13383,3.50663,-9.69995,1.41569,0.966082,-4.437,-11.882,-9.51465,33.094,-15.8146,0.11485,12.521,-8.19983,-0.314837,-9.93923e-15,-1.03368e-14,-44.9644,-57.3893,-35.0481,22.3211,-1.31076,-7.58061,-3.14814,7.12502,18.3123,-32.3062,-9.93923e-15,-1.03368e-14,-47.0891,11.9121,75.7782,47.0331,9.02425,-9.09018,51.2887,7.12502,16.8596,80.5768,16.4941,5.0543,28.4146,15.7814,-16.3319,-18.3615,-3.79918,-28.3187,-6.30633,-11.6965,25.4654,-5.21954,8.46844,-12.7569
0.375676,17.5173,-22.8477,-0.712822,-5.10348,-3.10304,19.1861,1.52165,2.95299,1.05884,2.98523,3.40892,-9.6612,1.36991,1.23386,-3.41516,-11.7783,-10.0682,33.2658,-15.6852,0.109939,12.4427,-8.22833,-0.151899,1.11319e-14,3.89618e-14,-48.4008,-57.2946,-32.3428,22.5508,-2.58217,-9.47782,-4.30954,7.12502,16.4864,-33.6291,1.11319e-14,3.89618e-14,-48.2369,12.2776,75.5184,47.6606,9.70817,-9.1442,53.1042,7.12502,16.8076,82.3968,16.6012,4.90805,27.4047,16.4983,-15.8746,-18.0898,-5.06057,-27.9647,-6.53009,-12.7476,25.5958,-4.69045,8.81521,-13.2064
0.394282,17.5321,-22.7103,-0.739221,-4.11019,-2.59333,19.1654,1.31643,2.87632,1.31479,2.65488,3.11892,-9.35166,1.21381,1.05037,-4.41822,-11.9943,-9.79128,33.6257,-15.934,0.0308946,12.7732,-8.28669,-0.346336,4.7112e-14,1.51076e-14,-51.114,-58.5269,-30.5205,22.9027,-4.02526,-11.1569,-4.72531,7.12502,14.8693,-34.1717,4.7112e-14,1.51076e-14,-47.5969,12.7109,75.1994,47.1432,10.4708,-9.96402,50.6775,7.12502,16.0183,80.0353,16.5373,4.20438,26.7979,17.4336,-15.3094,-18.092,-5.53052,-27.9139,-6.69531,-13.6901,25.6353,-3.91863,8.37981,-14.7391
0.430324,17.5529,-22.5488,-0.86279,-3.83625,-2.31392,19.3642,1.31489,2.52032,1.08136,2.6155,3.28541,-9.74551,1.21023,1.44124,-3.88389,-11.9499,-10.1346,33.842,-15.7803,-0.273362,12.7581,-8.30348,-0.356045,3.91606e-14,4.77083e-14,-53.5331,-57.9687,-28.6293,23.3955,-6.24805,-12.3269,-4.8077,7.12502,13.742,-34.3339,3.91606e-14,4.77083e-14,-48.436,12.8829,75.5642,48.3486,11.6053,-10.1907,57.5401,7.12502,15.8,86.9153,16.5377,4.04535,26.3364,18.5021,-14.4517,-18.0405,-6.89582,-27.45,-7.05067,-14.2086,25.5498,-3.66636,8.63297,-14.6121
0.468275,17.5739,-22.3843,-1.02713,-3.66639,-2.0203,19.6458,1.31112,2.30065,0.93458,2.58775,3.32996,-10.0775,1.20518,1.61832,-3.74808,-11.8922,-10.3086,34.1069,-15.6323,-0.475561,12.8357,-8.28295,-0.385942,-2.28602e-14,-2.46493e-14,-55.0763,-57.0162,-27.9742,24.1251,-9.2486,-13.5309,-4.98263,7.12502,12.5814,-34.5838,-2.28602e-14,-2.46493e-14,-49.1914,13.5405,75.084,47.4537,11.7368,-10.5706,52.6744,7.12502,15.4341,82.0781,16.4045,4.09534,25.9028,19.9122,-13.6979,-18.0524,-8.18097,-26.8165,-7.25808,-14.7382,25.4066,-3.65115,8.5167,-13.3128
0.501599,17.5977,-22.2141,-1.07703,-3.49227,-1.7386,18.8628,1.51725,2.44428,1.88638,2.78509,3.10887,-8.57541,1.30341,1.25872,-5.84434,-12.3349,-9.48138,34.2333,-16.1691,-0.582954,13.2429,-8.37717,-0.787667,2.62396e-14,2.78299e-14,-57.0989,-58.8953,-26.5454,24.6669,-11.3531,-13.8698,-4.78806,7.12502,12.2547,-34.409,2.62396e-14,2.78299e-14,-47.3333,13.7724,75.266,46.4251,11.9299,-11.3104,50.1584,7.12502,14.7214,79.6157,16.0909,4.17107,25.4874,21.4519,-12.7354,-17.8357,-8.31108,-26.2487,-7.36079,-15.2457,25.3094,-3.63059,8.17776,-13.1862
0.538225,17.6207,-22.053,-1.07049,-2.97106,-1.3502,19.3544,1.30152,2.07522,1.18675,2.48227,3.14419,-9.63308,1.16478,1.5761,-4.52106,-12.0651,-9.81064,34.2755,-15.7763,-0.812571,12.9833,-8.30505,-0.665282,-1.55052e-14,-2.70347e-14,-59.2917,-57.2254,-25.1598,25.2702,-13.7548,-13.7139,-4.47472,7.12502,12.405,-34.0866,-1.55052e-14,-2.70347e-14,-49.1527,14.1811,74.7237,46.2221,12.1694,-11.6969,49.7605,7.12502,14.3491,79.2446,15.5591,3.86663,24.8758,23.1808,-11.3212,-17.0957,-7.62762,-25.8845,-7.5239,-15.9775,25.2732,-3.29238,7.61864,-14.3438
0.57248,17.635,-21.8736,-1.1853,-2.30508,-0.872798,18.3507,1.21067,1.67422,1.61509,2.22342,3.16492,-8.61668,1.06575,1.90922,-4.14617,-12.109,-9.82774,33.7361,-15.8657,-0.71445,12.6928,-8.34251,-0.584197,-1.33186e-14,-1.51076e-14,-61.3841,-57.6404,-23.3295,25.7105,-15.2244,-13.7535,-4.34455,7.12502,12.3668,-33.9588,-1.33186e-14,-1.51076e-14,-49.1663,14.5532,74.9712,46.5415,12.2178,-11.5247,51.7799,7.12502,14.515,81.2521,15.1879,3.39174,24.1579,25.0374,-10.3848,-16.6648,-7.45423,-25.3607,-7.49108,-16.9002,25.3037,-3.05585,6.69478,-14.8718
0.602179,17.6403,-21.7042,-1.32952,-1.60983,-0.641108,19.0348,1.02356,1.22495,1.00458,1.95232,3.35331,-9.68467,0.958362,2.43837,-3.12321,-11.9482,-10.1521,33.8162,-15.6515,-0.855045,12.5332,-8.32484,-0.484827,1.61016e-14,6.36111e-15,-63.8511,-56.2784,-21.2397,26.1888,-16.8757,-13.6188,-4.28873,7.12502,12.4967,-33.8951,1.61016e-14,6.36111e-15,-50.5978,14.6823,74.7618,46.0872,12.2784,-11.3882,51.8539,7.12502,14.6465,81.3166,14.7851,2.97023,23.788,26.8805,-9.11449,-16.3482,-6.69884,-24.7496,-7.31853,-17.5255,25.3775,-2.8928,5.49078,-13.2681
0.632231,17.6448,-21.5423,-1.40241,-0.756365,-0.523272,18.4724,0.718131,1.28415,1.39695,1.52663,3.34232,-8.92093,0.75197,2.50397,-3.28042,-11.8947,-9.94027,33.3808,-15.612,-0.691188,12.3701,-8.2611,-0.440252,4.37326e-15,2.62396e-14,-66.3493,-57.1882,-18.8707,26.4821,-18.1,-12.7669,-4.13763,7.12502,13.3179,-33.6921,4.37326e-15,2.62396e-14,-50.2034,14.9485,74.7517,45.5814,12.2948,-11.4553,51.8904,7.12502,14.5819,81.3578,13.9944,2.46139,23.5761,29.0663,-7.37888,-16.2985,-5.6602,-24.2467,-7.30509,-17.9997,25.5235,-2.82496,4.28982,-12.4723
0.66215,17.6466,-21.3534,-2.04307,0.745503,-0.101365,19.2926,0.149185,0.826258,1.1912,0.725705,3.45052,-9.57952,0.395261,3.1053,-2.91069,-11.7045,-10.0544,33.3755,-15.2981,-0.903505,12.2697,-8.16917,-0.429377,-9.74045e-15,6.36111e-15,-69.1496,-56.9473,-15.7301,26.5833,-19.5442,-11.7459,-3.88392,7.12502,14.3019,-33.3714,-9.74045e-15,6.36111e-15,-51.3967,15.1923,74.5986,45.4656,12.2157,-11.4312,51.9344,7.12502,14.605,81.4001,13.9318,1.3438,23.1016,31.3202,-5.6335,-16.4511,-2.84129,-23.109,-7.86196,-18.8958,25.6619,-3.11078,3.05764,-12.0936
0.704472,17.6721,-21.2188,-1.50636,-0.784709,-0.213463,19.1809,0.658755,0.710512,1.22087,1.37526,3.53525,-9.52165,0.710244,3.08697,-4.3247,-11.7126,-9.62617,33.9461,-15.1301,-1.32606,12.697,-8.06532,-0.751689,-3.12092e-14,-2.06736e-14,-66.5204,-55.165,-19.9746,28.3034,-25.5635,-12.2786,-4.75834,7.12502,13.7885,-34.2814,-3.12092e-14,-2.06736e-14,-51.3125,15.2637,74.7954,45.1485,12.0016,-11.2836,52.2868,7.12502,14.7473,81.7422,11.8428,2.19515,22.5454,33.7951,-2.4717,-15.6704,-1.18885,-23.2454,-6.60187,-18.8139,25.7684,-3.32834,3.15841,-12.7531
0.738169,17.6834,-21.0532,-1.71386,-0.399737,0.0108622,18.8485,0.530175,0.550646,1.79332,1.14099,3.53128,-8.69771,0.596664,3.22683,-6.16927,-11.8134,-9.18977,34.5738,-15.0825,-1.69861,13.259,-7.99628,-1.11553,1.31198e-14,1.59028e-14,-67.7959,-56.1612,-18.6306,28.6619,-27.5978,-12.26,-4.83768,7.12502,13.8064,-34.3595,1.31198e-14,1.59028e-14,-50.5522,15.3535,75.1499,44.5738,11.5466,-11.0882,52.3979,7.12502,14.9356,81.8394,10.8173,1.84495,22.0474,36.33,0.0162432,-15.0444,1.03925,-22.6187,-6.65186,-19.3055,25.8137,-3.26387,2.71015,-12.3166
0.769929,17.6882,-20.8819,-1.96676,0.0789787,0.300328,18.8131,0.141358,-0.0490052,1.49785,0.53118,3.71872,-8.97688,0.337201,3.9416,-4.22704,-11.3333,-9.80038,33.9426,-14.5088,-1.50295,12.6472,-7.83713,-0.696625,1.98785e-14,4.92986e-14,-69.8363,-55.8441,-15.8738,28.3896,-27.8014,-12.0677,-4.71636,7.12502,13.9918,-34.2255,1.98785e-14,4.92986e-14,-52.2299,15.7718,74.8425,44.3516,11.0147,-10.5556,52.0819,7.12502,15.4486,81.4845,9.76119,1.39879,21.4772,39.0325,2.7232,-14.6369,3.64557,-21.752,-6.71602,-19.8772,25.8256,-3.54601,2.17269,-10.4258
0.801967,17.698,-20.726,-2.02864,-0.178004,0.55025,18.7586,0.296825,-0.268852,1.87559,0.666656,3.61245,-8.54215,0.39894,3.90741,-5.15274,-11.5156,-9.42806,33.9897,-14.7641,-1.4451,12.8322,-7.88007,-0.834612,2.5842e-15,1.43125e-14,-73.6898,-57.5548,-11.33,28.1653,-27.5569,-12.0855,-4.73543,7.12502,13.9746,-34.2457,2.5842e-15,1.43125e-14,-51.6276,15.3189,75.1928,43.7742,10.4236,-10.0289,51.4701,7.12502,15.9559,80.8329,8.31496,1.56206,20.8719,41.7276,5.36398,-14.1345,6.8622,-21.06,-6.20516,-20.3504,25.8114,-3.82286,1.76848,-8.8549
0.832934,17.7112,-20.5639,-2.10775,-0.177959,1.00723,18.79,0.174902,-0.958911,1.4278,0.373285,3.58593,-9.03438,0.29645,4.36219,-3.26662,-11.2404,-9.85019,33.6351,-14.543,-1.24376,12.354,-7.84822,-0.515269,-1.8487e-14,-2.38542e-14,-75.684,-56.7258,-8.96095,28.2776,-28.4729,-12.1479,-4.87023,7.12502,13.9144,-34.3847,-1.8487e-14,-2.38542e-14,-53.2361,14.8542,75.0545,43.5641,10.0127,-9.66805,51.1363,7.12502,16.3033,80.4709,6.84436,1.57684,20.1108,44.4788,7.87685,-13.6394,8.53399,-20.3641,-5.93015,-21.087,25.7982,-4.00561,1.36082,-7.85014
0.86764,17.7257,-20.4197,-2.23987,-0.612229,1.37611,19.1588,0.268298,-1.45014,1.41277,0.38785,3.51722,-9.25885,0.325877,4.57368,-3.66587,-11.2164,-9.69914,33.9795,-14.4493,-1.44713,12.5401,-7.80752,-0.642833,-8.74653e-15,1.43125e-14,-77.2008,-56.8502,-7.15364,28.5422,-29.3954,-12.2586,-5.09314,7.12502,13.8078,-34.6149,-8.74653e-15,1.43125e-14,-53.605,14.5757,75.1362,43.1295,9.32749,-9.0668,50.5283,7.12502,16.8821,79.8145,5.07939,1.89355,19.383,47.2983,10.5092,-12.9524,8.69507,-19.6477,-5.51769,-21.7041,25.7486,-4.26437,1.17424,-6.58034
0.896366,17.7338,-20.28,-2.39991,-0.610459,1.8778,19.1307,0.140438,-1.99477,1.48957,0.0858295,3.36388,-9.13077,0.196331,4.79706,-3.5413,-11.0353,-9.72505,33.9895,-14.2362,-1.33648,12.5203,-7.70878,-0.561055,-5.96354e-15,3.18055e-15,-78.7806,-57.068,-5.28065,28.7424,-29.8739,-12.0109,-5.32053,7.12502,14.0465,-34.8259,-5.96354e-15,3.18055e-15,-53.8459,14.3639,75.0673,42.4422,8.74979,-8.61615,49.6564,7.12502,17.3159,78.905,3.42012,1.83517,18.5338,50.0555,12.9499,-12.5937,10.8985,-18.8891,-5.37535,-22.4915,25.6058,-4.5714,0.957789,-5.91001
0.925388,17.743,-20.1289,-2.42135,-0.394732,2.38981,19.4708,-0.0786997,-2.6177,1.24515,-0.34576,3.27425,-9.54334,0.0289857,5.1899,-3.39388,-10.7939,-9.62785,34.0574,-13.8731,-1.51322,12.4754,-7.56505,-0.582832,2.0276e-14,-6.36111e-15,-79.587,-56.7097,-4.10287,28.9517,-30.7125,-11.9255,-5.54253,7.12502,14.1288,-35.0421,2.0276e-14,-6.36111e-15,-54.6781,14.0976,75.0371,42.1467,8.22901,-8.52512,49.1831,7.12502,17.4035,78.424,1.73971,1.59403,17.6904,52.7281,15.5045,-12.727,15.8136,-18.2116,-5.461,-23.2794,25.4203,-5.03076,0.8033,-4.63226
0.95195,17.7527,-19.9738,-2.53357,-0.0623235,2.97395,19.6107,-0.229107,-3.20801,1.3024,-0.692483,3.11598,-9.51383,-0.116419,5.45263,-3.73155,-10.7282,-9.38255,34.0714,-13.7482,-1.63542,12.5072,-7.49177,-0.670064,-3.85642e-14,1.43125e-14,-79.7017,-56.6086,-3.94048,29.4312,-32.59,-12.525,-5.64882,7.12502,13.551,-35.1879,-3.85642e-14,1.43125e-14,-54.8383,13.4981,75.3341,41.9831,7.7514,-8.12903,49.7032,7.12502,17.7847,78.9099,0.256362,1.25687,16.8048,55.2582,16.541,-13.2515,18.9664,-17.3585,-5.61005,-24.1607,25.1514,-5.08379,0.647605,-4.0048
0.973165,17.761,-19.827,-2.71863,0.436684,3.41939,19.7543,-0.42862,-3.51878,1.5627,-1.05003,2.89437,-9.26021,-0.29233,5.47942,-4.50718,-10.7067,-8.93409,34.0541,-13.698,-1.68485,12.6035,-7.41091,-0.799054,-1.0138e-14,4.77083e-15,-80.2766,-56.8906,-3.47689,30.0001,-34.4281,-12.7656,-5.77505,7.12502,13.3192,-35.3294,-1.0138e-14,4.77083e-15,-54.3186,12.9702,75.471,41.2536,7.08416,-7.61195,49.4926,7.12502,18.2822,78.6535,-1.0985,0.670006,16.1095,57.6901,17.0687,-13.7105,21.8539,-16.4671,-5.79284,-24.8829,24.8615,-5.19958,0.3825,-4.03235
0.986825,17.7677,-19.6878,-2.96524,0.936036,3.83802,20.0625,-0.757632,-4.14818,1.52312,-1.6339,2.87428,-9.3862,-0.539657,5.99356,-4.2894,-10.4052,-9.09996,33.9642,-13.2626,-1.66895,12.5196,-7.24418,-0.691073,3.16068e-14,-3.18055e-15,-80.5391,-56.6826,-2.76337,30.3497,-35.5897,-12.7051,-5.58345,7.12502,13.3775,-35.134,3.16068e-14,-3.18055e-15,-54.6262,12.9733,75.3992,40.4265,6.33032,-7.18618,48.7962,7.12502,18.6918,77.9182,-2.39973,0.084446,15.5262,60.0093,17.4705,-14.0737,24.5887,-15.5558,-5.87532,-25.5503,24.59,-5.25956,0.0279813,-3.43208
1.00987,17.7719,-19.5498,-3.04695,0.899798,4.27456,20.241,-0.704586,-4.56248,1.59072,-1.68059,2.69904,-9.39636,-0.549749,6.05658,-4.59917,-10.3751,-8.76515,33.9951,-13.2247,-1.73676,12.5545,-7.19183,-0.78163,-7.55382e-15,1.59028e-15,-82.5971,-56.9313,-0.286451,30.7538,-36.425,-12.4641,-5.20088,7.12502,13.6097,-34.736,-7.55382e-15,1.59028e-15,-54.3735,12.182,75.6814,39.7334,5.89713,-6.96573,48.454,7.12502,18.9038,77.5554,-4.05087,-0.180332,14.8308,62.2589,15.9662,-13.6134,22.4863,-14.819,-5.90938,-26.1967,24.3578,-5.36115,0.144931,-2.83447
1.03605,17.7755,-19.3968,-3.08511,0.549137,4.55277,20.1062,-0.732715,-5.04564,1.41699,-1.82666,2.67222,-9.48169,-0.592376,6.34653,-3.83784,-10.0364,-8.71798,33.7497,-12.7567,-1.90101,12.26,-7.01414,-0.724189,-7.4743e-14,-1.59028e-14,-83.3114,-56.4931,0.992679,31.1113,-37.0884,-11.8616,-4.8052,7.12502,14.1903,-34.3005,-7.4743e-14,-1.59028e-14,-55.0272,11.8871,75.6303,39.2513,5.38381,-6.58725,48.7851,7.12502,19.2678,77.8506,-5.72049,-0.183233,14.33,64.3063,14.7781,-13.4327,21.297,-14.0778,-5.7576,-26.6571,24.2103,-5.66073,0.339014,-2.88728
1.04828,17.775,-19.2608,-3.32072,0.747016,4.80448,20.48,-0.788992,-5.24495,1.68038,-1.97651,2.49675,-9.37133,-0.670474,6.3146,-4.85322,-10.0221,-8.10564,33.906,-12.6802,-2.11503,12.4517,-6.91955,-0.95638,-1.59028e-14,2.94201e-14,-84.996,-57.0382,2.92891,31.6706,-37.727,-11.3079,-4.56805,7.12502,14.7239,-34.0251,-1.59028e-14,2.94201e-14,-54.219,11.3868,75.6657,38.4382,4.73793,-6.267,48.7672,7.12502,19.5757,77.8017,-7.04874,-0.607476,13.96,66.153,13.397,-13.4984,20.4069,-13.2369,-5.57162,-27.1024,24.11,-5.95168,0.0911897,-3.73246
1.06691,17.7786,-19.1017,-3.46389,0.777787,4.85849,20.4557,-0.965909,-5.49048,1.56212,-2.25953,2.56723,-9.43626,-0.787724,6.616,-4.32231,-9.68743,-8.13077,33.8177,-12.1988,-2.24688,12.2821,-6.73591,-0.899305,8.34896e-15,1.27222e-14,-85.0479,-56.5389,3.59187,32.2068,-38.7813,-10.3878,-4.15848,7.12502,15.6102,-33.5486,8.34896e-15,1.27222e-14,-54.4856,11.4109,75.4955,37.6819,3.9616,-6.18381,48.7541,7.12502,19.6556,77.7804,-8.3242,-0.896007,13.8126,67.7385,11.6891,-13.6253,20.0911,-12.4795,-5.46433,-27.3182,24.1097,-6.40691,0.0116074,-4.12538
1.08084,17.7793,-18.9552,-3.75186,1.10582,5.07995,20.7681,-1.14586,-5.81302,1.51775,-2.59022,2.53686,-9.59417,-0.922846,6.87861,-4.11787,-9.38802,-7.92636,33.7933,-11.7434,-2.48375,12.1791,-6.54257,-0.944151,-6.75868e-15,5.56597e-15,-85.4773,-56.2044,4.47953,32.9647,-39.7508,-9.56414,-3.97171,7.12502,16.4033,-33.2981,-6.75868e-15,5.56597e-15,-54.4565,11.3487,75.2718,36.9102,3.16564,-6.01198,48.776,7.12502,19.8208,77.7853,-9.39896,-1.45571,13.4598,69.1476,10.0067,-13.8612,20.8551,-11.5921,-5.6586,-27.7192,24.1227,-6.9046,-0.101534,-3.77395
1.09828,17.7791,-18.82,-3.54029,0.88962,5.22169,20.6175,-1.11222,-5.77529,1.52004,-2.55254,2.3126,-9.52738,-0.915453,6.58585,-4.60339,-9.42034,-7.58807,34.0577,-11.8429,-2.39275,12.3663,-6.5318,-1.01669,2.90226e-14,7.95139e-16,-86.6504,-56.0954,5.57997,33.9477,-40.7004,-9.52255,-3.73386,7.12502,16.4434,-33.057,2.90226e-14,7.95139e-16,-54.0357,11.0168,74.8928,36.3429,2.44279,-5.55314,48.9423,7.12502,20.2619,77.9055,-11.3221,-1.61917,13.2114,70.4234,8.9038,-13.9082,20.788,-11.3615,-5.54261,-27.9674,24.1631,-7.26112,0.0416497,-3.35041
1.11366,17.7831,-18.6768,-3.52884,0.785887,5.2858,19.9922,-1.46363,-6.31459,1.4178,-3.08484,2.53926,-9.1747,-1.15867,7.25785,-3.2846,-8.78049,-8.2357,33.6557,-10.9501,-2.32564,11.965,-6.22331,-0.685504,-3.63776e-14,7.95139e-16,-84.9069,-55.4699,4.47325,34.6928,-41.1786,-9.26125,-3.39763,7.12502,16.6949,-32.6997,-3.63776e-14,7.95139e-16,-55.0394,11.968,74.3538,36.4776,1.9162,-5.26281,49.6766,7.12502,20.5409,78.6099,-12.8513,-1.7273,13.0932,71.4364,7.59404,-14.0728,20.0706,-10.8263,-5.42535,-28.1608,24.0903,-7.54077,0.0793185,-3.28325
1.12933,17.7891,-18.5252,-3.62155,0.941172,5.35548,20.2404,-1.48804,-6.29092,1.4493,-3.13273,2.45904,-9.27399,-1.17925,7.18185,-3.96525,-8.70594,-7.8247,34.0647,-10.8052,-2.47967,12.2213,-6.12352,-0.843339,-1.59028e-14,1.03368e-14,-86.0276,-55.2605,5.91247,35.3521,-40.893,-7.81335,-2.74371,7.12502,18.0884,-31.9226,-1.59028e-14,1.03368e-14,-54.7517,11.6707,74.1792,36.3713,1.6117,-5.54578,50.1082,7.12502,20.269,79.0706,-13.994,-1.98832,12.9522,72.1831,5.81135,-14.146,18.3832,-10.0842,-5.38756,-28.3883,23.9973,-7.84424,-0.00978546,-3.29393
1.13946,17.8005,-18.3776,-3.72587,1.27587,5.44167,20.7204,-1.63514,-6.22234,1.3567,-3.35379,2.32162,-9.61749,-1.26819,7.08429,-4.57666,-8.62073,-7.55696,34.5558,-10.6864,-2.48785,12.5252,-6.03753,-0.929288,2.88238e-14,-1.35174e-14,-86.8478,-54.8081,6.96387,35.8167,-40.0189,-6.18848,-2.38041,7.12502,19.6512,-31.4072,2.88238e-14,-1.35174e-14,-54.5381,11.5918,73.6814,35.9525,1.24368,-6.28573,49.6865,7.12502,19.5577,78.7228,-15.0749,-2.34619,12.8615,72.7038,3.75372,-14.3307,17.9506,-9.31625,-5.48596,-28.6065,23.8557,-8.06754,-0.169346,-2.64406
1.15287,17.8013,-18.236,-3.83695,1.51035,5.4962,20.3366,-1.80273,-6.14736,1.81,-3.53656,2.19248,-8.88431,-1.41405,6.89344,-5.34487,-8.4687,-7.24662,34.57,-10.4855,-2.37539,12.6638,-5.88841,-0.953597,-2.84262e-14,-1.59028e-15,-88.0943,-55.1272,8.50957,36.1252,-39.4377,-4.69663,-2.5417,7.12502,21.0849,-31.4153,-2.84262e-14,-1.59028e-15,-53.5286,11.6886,73.3506,35.5982,0.905751,-6.36039,50.0531,7.12502,19.4859,79.0967,-16.1686,-2.68216,12.7972,73.0253,1.56107,-14.5625,19.1028,-8.62486,-5.61731,-28.8171,23.7586,-8.31843,-0.15601,-2.85562
1.17159,17.7912,-18.0895,-3.81129,1.25991,5.71404,20.8253,-1.80227,-6.38037,1.47254,-3.63247,2.14023,-9.50249,-1.4076,7.04752,-5.69162,-8.17438,-7.03654,35.1163,-10.0121,-2.60918,12.9255,-5.68453,-1.05565,2.38542e-15,-1.98785e-14,-88.2186,-54.2154,9.19011,36.657,-40.5212,-3.09679,-2.54331,7.12502,22.6211,-31.2378,2.38542e-15,-1.98785e-14,-54.0343,11.6169,73.0034,35.8134,1.14064,-6.00139,51.2179,7.12502,19.831,80.2262,-17.5628,-2.63266,12.5264,73.2447,0.214918,-14.428,18.2916,-8.20738,-5.45892,-29.2189,23.7866,-8.64422,0.10614,-4.74585
1.1931,17.786,-17.936,-3.63121,0.560678,5.86092,20.2575,-1.57844,-6.43459,1.68821,-3.32274,2.02099,-9.005,-1.29482,6.81351,-6.37748,-8.07718,-6.72862,35.257,-9.88672,-2.56823,13.1049,-5.57814,-1.11549,8.34896e-15,-6.36111e-15,-89.2225,-54.1064,10.4856,37.5344,-42.6427,-1.75235,-2.02945,7.12502,23.9109,-30.5608,8.34896e-15,-6.36111e-15,-53.4047,11.4522,72.8411,35.9184,1.35273,-6.33403,51.3655,7.12502,19.5112,80.4065,-19.2112,-2.12815,12.3948,73.2657,-1.00753,-14.287,17.7468,-7.9997,-5.23366,-29.5,23.9945,-9.17755,0.637394,-5.44975
1.20364,17.7802,-17.7998,-3.6803,0.538959,5.71757,20.479,-1.73385,-6.57904,1.38904,-3.56365,2.21341,-9.40005,-1.36937,7.20523,-5.71649,-7.6812,-6.96757,35.2296,-9.30607,-2.61368,12.9552,-5.36973,-0.9809,-8.54774e-15,-8.74653e-15,-88.3687,-53.1236,10.1718,38.6688,-44.7077,-0.103626,-1.88159,7.12502,25.4911,-30.1966,-8.54774e-15,-8.74653e-15,-53.9166,11.7704,72.4689,35.9247,1.7717,-7.29626,51.1584,7.12502,18.5859,80.2905,-20.3726,-2.1536,12.6431,73.0578,-2.63225,-14.2642,18.5978,-7.52676,-5.40173,-29.4427,24.2654,-9.78395,0.783251,-3.91928
1.21212,17.7683,-17.6554,-3.85682,0.572532,5.54512,20.6975,-1.86087,-6.56132,1.3189,-3.72917,2.34278,-9.56292,-1.43433,7.40377,-5.59384,-7.41391,-6.99077,35.2244,-8.87861,-2.75155,12.9105,-5.20505,-0.967175,6.55989e-15,2.3059e-14,-88.0799,-52.5388,10.307,39.9595,-46.0068,1.56691,-1.89743,7.12502,27.0903,-29.9738,6.55989e-15,2.3059e-14,-54.0868,11.9514,72.2096,36.2096,2.31584,-8.16096,51.1467,7.12502,17.754,80.3562,-21.2768,-2.15254,12.9376,72.6962,-4.32517,-13.8284,19.522,-6.86491,-5.59909,-29.3752,24.4842,-10.4206,0.970068,-3.91022
1.22579,17.7495,-17.5073,-3.93163,0.642732,5.79935,20.5557,-1.97128,-6.86347,1.37009,-3.93566,2.33408,-9.37279,-1.5332,7.60824,-5.63189,-7.11156,-6.97161,35.1058,-8.41875,-2.80114,12.8515,-5.00666,-0.926167,1.0138e-14,-8.74653e-15,-87.6168,-52.1851,10.1999,41.4034,-46.7681,2.42497,-1.84063,7.12502,27.9109,-29.7865,1.0138e-14,-8.74653e-15,-54.1408,12.1829,71.9483,36.6134,2.87018,-8.76178,51.1752,7.12502,17.1757,80.4361,-22.2644,-2.31789,12.6529,72.2341,-5.83786,-14.0669,18.332,-6.28548,-5.85113,-29.8184,24.6539,-10.9602,1.19919,-3.99857
1.24037,17.7272,-17.355,-3.87009,0.794459,6.37341,19.8583,-2.06055,-7.2603,1.68768,-4.11306,2.05996,-8.59853,-1.66566,7.5009,-6.08016,-6.85776,-6.60187,34.9282,-8.08889,-2.74782,12.8369,-4.80353,-0.936314,0,1.59028e-15,-88.016,-52.37,10.6657,42.9445,-46.8903,3.09031,-1.92048,7.12502,28.5469,-29.7613,0,1.59028e-15,-53.5014,11.9644,71.7965,37.0213,3.71606,-8.88095,51.8592,7.12502,17.061,81.13,-23.3339,-2.64366,11.9649,71.6687,-7.19002,-14.0731,18.091,-5.81097,-5.94867,-30.5931,24.7833,-11.502,1.20249,-3.3009
1.25153,17.7133,-17.2085,-3.85079,0.883949,6.49358,20.0955,-2.23563,-7.67825,1.33781,-4.44766,2.2614,-9.01043,-1.76874,8.08892,-5.6642,-6.43593,-6.75707,34.9032,-7.3913,-3.03717,12.7214,-4.55716,-0.912039,-6.50026e-14,1.59028e-15,-86.5454,-51.6818,9.98721,44.3341,-46.604,4.16627,-1.92915,7.12502,29.5744,-29.5926,-6.50026e-14,1.59028e-15,-54.2663,12.2057,71.6553,37.6186,4.56844,-8.63849,52.6544,7.12502,17.2944,81.9049,-24.3307,-2.8156,11.8903,70.8918,-8.14491,-14.1934,18.4365,-5.33017,-5.87511,-30.8137,24.9027,-12.0322,1.06773,-3.67497
1.25929,17.6969,-17.0655,-3.77783,0.260041,6.33955,20.3658,-1.94032,-7.33562,1.60293,-3.99983,2.1682,-8.97719,-1.57983,7.68229,-7.66281,-6.54442,-5.9673,35.306,-7.43518,-3.35734,13.2548,-4.50663,-1.27556,3.95581e-14,-1.98785e-14,-86.9466,-52.0189,10.3573,45.8229,-46.1944,5.17619,-1.92772,7.12502,30.538,-29.4162,3.95581e-14,-1.98785e-14,-52.9855,11.6734,71.753,37.8195,5.50849,-8.66959,52.9203,7.12502,17.2645,82.1734,-25.5813,-2.23627,12.2436,70.0054,-9.00202,-14.535,18.1521,-5.00813,-5.48153,-30.6753,25.083,-12.5623,1.22702,-3.88363
1.26089,17.6776,-16.9418,-3.71905,0.600474,6.43426,20.1828,-2.273,-7.799,1.42712,-4.52086,2.32986,-8.92926,-1.8058,8.25534,-6.56928,-5.94239,-6.0137,34.6515,-6.57266,-3.52999,12.7225,-4.15762,-1.14596,-2.52457e-14,3.10104e-14,-84.5162,-51.3932,8.45177,47.2115,-46.0383,5.4214,-1.48914,7.12502,30.7718,-28.9338,-2.52457e-14,3.10104e-14,-53.2674,12.2042,71.3652,37.7515,6.02115,-8.87653,52.604,7.12502,17.0653,81.8745,-26.5565,-2.54898,12.2328,68.9735,-9.86856,-15.0697,17.6573,-4.72741,-5.50443,-30.8037,25.2951,-12.9521,0.925702,-4.2813
1.27384,17.6505,-16.8084,-3.70977,0.358316,6.74448,20.4208,-2.28377,-8.05097,1.40967,-4.62024,2.23996,-9.04822,-1.83592,8.34602,-7.10177,-5.5357,-5.70151,34.5735,-5.95282,-3.66953,12.7711,-3.86159,-1.18954,2.38542e-15,2.38542e-14,-83.4263,-51.404,7.85329,48.4812,-45.5927,5.32932,-0.883574,7.12502,30.684,-28.3448,2.38542e-15,2.38542e-14,-53.2597,12.1559,71.2852,38.5515,6.72973,-9.27545,52.4005,7.12502,16.6813,81.7037,-27.5894,-2.5053,11.9215,67.8471,-10.7035,-15.4385,17.4089,-4.3037,-5.37614,-31.2456,25.4434,-13.4701,1.02607,-4.26544
1.28191,17.6376,-16.6659,-3.74338,0.395789,6.85046,20.7298,-2.31896,-8.01778,1.46681,-4.69069,2.13504,-9.15177,-1.86702,8.25036,-7.82501,-5.41256,-5.34339,34.7506,-5.74695,-3.80326,12.975,-3.74356,-1.30853,5.76476e-14,-1.51076e-14,-82.6498,-51.3935,7.45733,49.8302,-45.4415,5.38765,-0.551626,7.12502,30.7397,-28.0024,5.76476e-14,-1.51076e-14,-52.8431,11.8681,71.1831,39.0587,7.4745,-9.66023,51.9579,7.12502,16.3108,81.292,-28.3328,-2.59723,11.9003,66.479,-11.893,-15.8006,15.5622,-3.74505,-5.37048,-31.4295,25.5666,-13.9762,0.924303,-3.7869
1.28756,17.6171,-16.5239,-3.87097,0.17267,7.14996,20.6646,-2.32004,-8.33419,1.62638,-4.76874,1.98587,-8.90987,-1.91696,8.26786,-7.83068,-5.16346,-5.18417,34.4384,-5.44556,-3.71452,12.8338,-3.5773,-1.2494,-1.51076e-14,2.38542e-15,-81.4687,-51.4041,6.64144,51.1564,-44.9668,5.59538,-0.520327,7.12502,30.9377,-27.9337,-1.51076e-14,2.38542e-15,-52.5894,11.6244,71.0548,39.7655,8.40344,-9.88061,52.064,7.12502,16.0986,81.4153,-29.0397,-2.49167,11.6603,65.0195,-12.9622,-16.089,13.3598,-3.06168,-5.14619,-31.8268,25.6084,-14.5131,0.862711,-3.62501
1.28565,17.6085,-16.3944,-3.78742,0.291665,6.86837,20.8355,-2.47641,-8.30681,1.44844,-4.9734,2.15077,-9.14931,-1.98948,8.51576,-7.49467,-4.84336,-5.00492,34.316,-4.96935,-3.94149,12.6923,-3.37376,-1.28846,-6.79844e-14,8.74653e-15,-80.015,-51.1267,5.86883,52.3616,-44.4912,5.70194,-0.252146,7.12502,31.0393,-27.6461,-6.79844e-14,8.74653e-15,-52.7808,11.3831,71.0412,40.3574,8.99566,-9.96481,52.0843,7.12502,16.0175,81.4421,-29.794,-2.4778,12.1459,63.3594,-12.9861,-16.9176,13.8848,-2.57317,-5.16714,-31.5,25.4122,-14.7583,0.692143,-3.63723
1.28845,17.5952,-16.2563,-3.78892,-0.231219,6.81945,20.5462,-2.38854,-8.45865,1.55386,-4.8635,2.17304,-8.8799,-1.95426,8.56711,-7.61689,-4.56217,-4.5915,34.2118,-4.56195,-4.17502,12.6475,-3.17064,-1.39588,1.80894e-14,2.06736e-14,-78.926,-51.2372,5.47593,53.533,-44.0127,5.95664,-0.201255,7.12502,31.282,-27.5486,1.80894e-14,2.06736e-14,-52.5706,11.1294,71.0597,41.0099,9.4367,-10.1367,52.1244,7.12502,15.852,81.4954,-30.5514,-2.06882,12.3426,61.5849,-13.1666,-17.5363,13.4737,-1.98675,-4.81167,-31.4732,25.171,-15.1304,0.900855,-3.59423
1.31168,17.5852,-16.1083,-3.61474,0.278264,7.47146,20.5873,-2.82211,-9.00207,1.22006,-5.58464,2.11408,-9.08579,-2.25138,9.01384,-6.76053,-4.1682,-5.06844,33.8003,-4.00124,-4.06967,12.3172,-2.96531,-1.1639,4.96962e-14,-4.77083e-15,-76.6266,-50.9509,4.25262,54.6258,-43.272,6.70657,-0.0538969,7.12502,31.9963,-27.2606,4.96962e-14,-4.77083e-15,-53.1661,11.3185,70.9782,41.7863,10.0292,-10.3158,52.0295,7.12502,15.6795,81.4142,-31.0881,-2.99017,11.5151,59.6749,-13.2418,-17.7355,12.5393,-1.38316,-4.96029,-32.2964,24.8564,-15.4879,0.562954,-3.15263
1.31513,17.5781,-15.972,-3.85582,-0.392504,7.26601,21.1554,-2.50206,-8.71539,1.42379,-5.14377,2.03649,-9.29344,-2.04441,8.69623,-7.44947,-4.07324,-4.82319,33.6622,-3.92799,-3.84072,12.397,-2.87152,-1.12446,1.78906e-14,-4.77083e-15,-76.494,-51.3366,4.559,56.0131,-42.869,7.16294,0.0821237,7.12502,32.4308,-27.0365,1.78906e-14,-4.77083e-15,-52.2071,10.5566,71.1782,42.2579,10.362,-10.1818,52.3502,7.12502,15.8086,81.7248,-31.3997,-2.40158,11.8824,57.5555,-13.0002,-18.1586,11.8888,-0.459526,-4.46211,-32.1222,24.4384,-15.7704,0.638142,-2.73017
1.31171,17.5891,-15.8282,-3.82793,0.106172,6.98482,21.2293,-2.69663,-8.2319,1.64247,-5.28722,1.96326,-9.10933,-2.1544,8.36449,-8.09654,-3.97196,-4.31885,33.4819,-3.85854,-3.77523,12.4376,-2.76737,-1.18889,1.2921e-14,-7.95139e-15,-76.0697,-51.6741,4.4012,57.6053,-43.0493,7.15351,0.218584,7.12502,32.4218,-26.9019,1.2921e-14,-7.95139e-15,-51.2484,9.69241,71.3933,42.731,10.765,-10.2269,52.6131,7.12502,15.7651,81.9911,-31.5101,-2.56163,12.2562,55.315,-13.0815,-18.6697,12.989,0.399226,-4.68421,-31.791,23.8459,-15.8235,0.325629,-3.18254
1.3166,17.5877,-15.6877,-3.66204,-0.221857,6.94795,21.0632,-2.63667,-8.10659,1.60764,-5.17513,1.88561,-9.09889,-2.10742,8.16384,-7.96824,-3.85461,-3.99922,33.4338,-3.75288,-3.81004,12.3771,-2.68485,-1.23796,-2.8625e-14,-1.59028e-14,-75.3787,-51.6437,4.21756,59.2224,-43.097,7.33545,0.266813,7.12502,32.5949,-26.818,-2.8625e-14,-1.59028e-14,-50.8426,9.04158,71.4536,43.2205,10.914,-10.2284,52.6455,7.12502,15.7637,82.0236,-32.0173,-2.37335,12.3747,52.9746,-12.6002,-18.7124,13.144,1.02909,-4.49767,-31.8049,23.2755,-15.9424,0.476286,-3.49085
1.3229,17.5849,-15.5441,-3.58696,-0.505454,7.15475,21.082,-2.40428,-8.09018,1.85094,-4.87509,1.69652,-8.91268,-1.98873,7.85308,-9.41137,-3.88111,-3.30708,33.7911,-3.79958,-3.9701,12.8031,-2.64365,-1.47644,-3.83654e-14,2.22639e-14,-75.5818,-52.3256,4.86179,60.7746,-42.4155,9.00251,0.463976,7.12502,34.1797,-26.2797,-3.83654e-14,2.22639e-14,-49.5094,8.24926,71.658,43.5628,10.9618,-10.0257,52.8531,7.12502,15.9589,82.2157,-32.3796,-2.27838,12.1882,50.5438,-11.7097,-18.6558,13.1431,1.81196,-4.24704,-32.0962,22.5916,-16.0567,0.56472,-3.35692
1.31887,17.5894,-15.3955,-3.42988,-0.17261,7.24139,20.1556,-3.11962,-8.65944,1.9059,-5.83337,2.05839,-8.07004,-2.48674,8.71819,-8.40703,-3.17042,-4.46241,33.2386,-2.61127,-3.89758,12.4046,-2.24793,-1.05264,1.43125e-14,2.70347e-14,-70.8103,-52.3017,1.22819,62.3163,-41.7787,9.90663,0.49385,7.12502,35.0378,-26.0534,1.43125e-14,2.70347e-14,-50.0317,9.69745,71.394,44.2682,10.9453,-9.70608,53.196,7.12502,16.2667,82.5337,-32.5178,-2.35904,12.0779,48.0321,-10.9654,-18.7833,14.1012,2.58808,-4.20175,-32.1424,21.8032,-15.9548,0.221954,-3.53329
1.31661,17.5907,-15.2533,-3.32495,-0.294919,7.15308,20.7233,-3.15638,-8.92804,1.31878,-5.99077,2.35912,-8.94178,-2.45897,9.3516,-8.4013,-2.59537,-4.11565,33.8313,-1.62555,-4.57328,12.6415,-1.8672,-1.26302,2.24627e-14,8.74653e-15,-68.2902,-50.9849,-0.33926,64.0742,-41.6338,9.87121,0.79442,7.12502,35.0042,-25.7607,2.24627e-14,8.74653e-15,-50.743,9.51962,71.5531,44.7967,10.6896,-9.61536,53.0317,7.12502,16.354,82.3622,-32.6744,-1.98339,12.1597,45.4261,-10.1317,-18.8251,16.1076,3.42269,-3.94268,-32.0322,20.888,-15.8348,0.17665,-4.08952
1.31301,17.5945,-15.1084,-3.25868,-0.427866,7.27099,20.5567,-2.89364,-8.85459,1.2432,-5.64768,2.04707,-9.05114,-2.29262,8.86411,-7.24053,-2.87096,-3.64091,33.3295,-2.27108,-4.3809,12.1687,-2.05219,-1.31201,-4.17448e-14,1.43125e-14,-68.7182,-50.3364,-0.0562817,66.1229,-41.1022,10.0211,1.06568,7.12502,35.1464,-25.4561,-4.17448e-14,1.43125e-14,-50.1231,7.81074,71.6689,45.2328,10.431,-9.58246,52.5167,7.12502,16.3857,81.8445,-32.6982,-1.60764,11.9811,42.7522,-9.11426,-18.6991,18.185,4.38733,-3.69524,-32.1494,19.9856,-15.7295,0.124556,-3.77114
1.3111,17.6039,-14.955,-3.15325,-0.0281691,7.42369,20.6292,-3.36005,-9.05924,1.18196,-6.29753,2.26112,-8.97578,-2.59484,9.38792,-7.47713,-2.37884,-4.49638,33.2293,-1.44719,-4.15582,12.2062,-1.76548,-0.980403,-3.57812e-15,0,-65.2403,-49.9649,-2.74136,67.9776,-40.0929,10.2509,1.44445,7.12502,35.3642,-25.0258,-3.57812e-15,0,-50.1558,8.53284,71.7163,45.9551,10.1465,-9.40524,52.6381,7.12502,16.5563,81.9518,-32.4898,-1.46802,11.6285,40.044,-8.0008,-18.7869,18.9684,5.39171,-3.70491,-32.2837,19.0576,-15.5856,-0.106209,-4.42102
1.30756,17.5984,-14.8172,-3.21576,-0.6286,7.36621,20.298,-3.10228,-8.7679,1.68108,-5.85975,2.03814,-8.38427,-2.46445,8.79496,-8.3002,-2.40045,-3.97878,33.0473,-1.54815,-4.0788,12.2893,-1.73567,-1.0622,2.08724e-14,-2.38542e-14,-64.7093,-50.3259,-3.41499,70.1142,-39.0246,10.3929,1.80667,7.12502,35.4989,-24.6314,2.08724e-14,-2.38542e-14,-48.7037,7.86301,71.7048,46.3987,9.90317,-9.28371,52.7401,7.12502,16.6733,82.044,-32.4257,-0.507381,11.6056,37.3726,-6.47581,-18.7248,18.6727,6.46213,-3.22629,-32.2778,17.9506,-15.3568,0.235275,-5.3926
1.30336,17.5952,-14.6712,-3.19849,-0.820167,7.49788,20.683,-2.51556,-8.23464,1.8491,-5.04431,1.47151,-8.6757,-2.08503,7.69056,-9.83408,-2.86691,-2.26779,33.7144,-2.37894,-4.44845,12.8367,-1.94971,-1.65926,-4.37326e-15,-2.46493e-14,-66.7233,-50.1525,-2.15679,72.5944,-38.3786,10.4946,2.00128,7.12502,35.5953,-24.4136,-4.37326e-15,-2.46493e-14,-46.8463,5.48463,71.873,46.5209,9.72477,-9.46848,52.3166,7.12502,16.4954,81.6354,-32.3117,0.369992,11.2271,34.8239,-5.50966,-18.7344,19.2965,7.6332,-3.0218,-32.4575,16.6372,-14.957,0.421929,-7.1908
1.30255,17.596,-14.5135,-3.10387,-0.772174,7.80793,20.249,-2.81698,-8.69332,1.75306,-5.4993,1.61302,-8.40392,-2.30121,8.18401,-8.40983,-2.55568,-3.27707,32.7961,-1.89532,-4.13163,12.1874,-1.80337,-1.24173,-5.30755e-14,3.18055e-14,-63.4735,-49.2661,-4.85112,74.8102,-37.4953,10.3332,2.35135,7.12502,35.4423,-24.1003,-5.30755e-14,3.18055e-14,-47.0614,6.09112,71.822,47.1392,9.32582,-9.46351,52.1531,7.12502,16.5002,81.4715,-32.1363,1.01152,10.5633,32.3689,-4.72803,-18.5171,19.7854,8.83691,-2.95109,-32.8287,15.3202,-14.5691,0.444212,-8.01255
1.30073,17.5909,-14.3594,-3.10899,-0.705023,8.1979,20.1311,-2.51476,-8.70969,1.98486,-5.1173,1.24452,-8.19114,-2.14526,7.66819,-10.1488,-2.78386,-1.94662,33.7704,-2.24043,-4.68301,12.9193,-1.87956,-1.79666,-1.76918e-14,1.59028e-15,-63.8768,-49.323,-4.81761,77.2482,-36.4305,9.8288,2.80937,7.12502,34.9639,-23.7551,-1.76918e-14,1.59028e-15,-45.7474,4.71676,71.9532,47.727,9.13742,-9.28329,52.1703,7.12502,16.6737,81.4741,-31.8747,1.60719,9.80219,30.0762,-4.35905,-18.2454,19.9168,10.1551,-2.84593,-33.2968,13.9408,-14.084,0.533053,-9.26851
1.28983,17.5878,-14.2104,-3.084,-0.763593,8.12793,20.229,-2.5542,-8.61216,1.98527,-5.15521,1.25405,-8.24453,-2.16282,7.64097,-10.2489,-2.52753,-1.80241,33.6272,-1.90429,-4.66213,12.8837,-1.70986,-1.76553,9.38264e-14,1.74931e-14,-62.1259,-48.7755,-6.60634,79.7372,-35.1373,9.40665,3.17124,7.12502,34.5633,-23.4857,9.38264e-14,1.74931e-14,-45.3733,4.49583,71.9014,48.4779,9.07769,-9.46222,52.2888,7.12502,16.5015,81.6071,-31.6473,2.67375,9.51336,27.9907,-4.70025,-18.4369,20.223,11.443,-2.67238,-33.2008,12.4917,-13.5304,0.55066,-10.54
1.27379,17.5863,-14.0573,-3.00082,-0.806294,7.9399,20.2687,-3.07033,-8.88082,1.55677,-5.87473,1.7401,-8.52694,-2.45697,8.53532,-8.87703,-1.684,-2.85742,33.049,-0.519884,-4.66833,12.397,-1.21714,-1.36023,8.07066e-14,-1.19271e-14,-57.5713,-46.9296,-10.3635,82.0433,-33.8517,8.95002,3.52565,7.12502,34.1298,-23.2292,8.07066e-14,-1.19271e-14,-46.5124,5.91808,71.769,49.2463,8.90869,-9.92417,52.5069,7.12502,16.0567,81.8616,-31.4616,4.03758,9.27262,26.1063,-5.54555,-19.1443,19.5562,12.4841,-2.6317,-32.9724,11.3603,-13.067,0.567459,-11.3137
1.2594,17.59,-13.8889,-2.85297,-0.0930485,7.91836,20.1361,-3.40617,-8.72958,1.30919,-6.27771,1.79545,-8.65923,-2.63693,8.6077,-7.97592,-1.41087,-2.9415,32.6137,-0.17218,-4.66191,12.0348,-1.05501,-1.27597,1.51871e-13,-5.56597e-14,-56.228,-46.2894,-11.5068,84.5997,-31.9181,8.96254,3.9337,7.12502,34.1417,-22.8185,1.51871e-13,-5.56597e-14,-46.4777,5.70491,71.7867,49.5616,8.89287,-10.3408,52.2007,7.12502,15.6555,81.5873,-31.0911,4.84252,8.74899,24.5259,-7.01154,-20.2105,18.9238,13.472,-2.91247,-32.8562,10.4226,-12.606,0.270916,-12.5693
1.25886,17.5739,-13.7431,-2.73188,-0.512279,7.93295,19.974,-2.96316,-8.21761,1.44676,-5.59624,1.40127,-8.64524,-2.34219,7.69438,-8.15595,-1.66274,-1.82037,32.4005,-0.732378,-4.73585,11.9561,-1.17182,-1.56362,9.93923e-15,6.36111e-15,-56.928,-46.2795,-11.544,87.1862,-29.7846,8.31532,4.63146,7.12502,33.5268,-22.2561,9.93923e-15,6.36111e-15,-45.1024,4.10179,71.8226,49.8451,9.04157,-10.6563,51.5726,7.12502,15.3516,80.9828,-31.2365,5.27061,8.63684,23.3229,-8.03869,-19.9454,18.7025,14.2728,-2.47547,-32.919,9.61397,-12.2647,0.360611,-13.082
1.24475,17.568,-13.5794,-2.9223,-0.0460513,7.9325,20.0562,-3.40248,-8.2854,1.51018,-6.17404,1.60083,-8.48196,-2.62695,8.09203,-7.87675,-1.22118,-2.37698,31.9202,-0.0284833,-4.67837,11.7267,-0.906786,-1.34408,-2.22639e-14,1.66979e-14,-53.7765,-45.0958,-14.5969,89.6296,-27.7628,6.92333,5.21364,7.12502,32.2027,-21.9514,-2.22639e-14,1.66979e-14,-45.0427,5.17091,71.6607,50.341,9.02916,-11.193,50.575,7.12502,14.8345,80.024,-30.7332,5.60214,8.4209,22.5876,-9.27048,-20.3298,16.6908,15.4417,-2.85441,-32.9323,9.04173,-11.89,0.346437,-13.6379
1.22736,17.5648,-13.4183,-2.98912,0.283963,7.72577,20.132,-3.30361,-7.70747,1.61502,-5.93213,1.41585,-8.53234,-2.53431,7.50454,-7.92519,-1.33929,-1.63835,31.7054,-0.323676,-4.7448,11.6344,-0.953043,-1.52738,-2.38542e-15,-2.06736e-14,-53.8061,-44.5369,-15.2776,92.368,-26.2238,6.42835,5.29088,7.12502,31.7314,-21.9686,-2.38542e-15,-2.06736e-14,-44.1295,4.19934,71.6826,50.7635,9.33148,-11.7988,49.6331,7.12502,14.2508,79.1241,-30.3959,5.8432,8.56344,22.1234,-10.4918,-20.6458,15.7349,16.0491,-3.14381,-32.7145,9.2138,-11.6763,0.369374,-14.6425
1.20947,17.5589,-13.2626,-2.93032,0.527748,7.57995,20.3779,-3.64942,-7.64621,1.33129,-6.37744,1.70144,-8.87614,-2.7125,7.938,-7.36146,-0.904762,-2.33114,31.4515,0.385467,-4.69116,11.441,-0.700377,-1.29163,-8.18993e-14,2.94201e-14,-51.1429,-42.9341,-17.8209,94.8574,-24.3859,6.0076,5.55433,7.12502,31.3306,-21.7836,-8.18993e-14,2.94201e-14,-44.5907,4.98841,71.7064,51.4075,9.553,-12.1355,49.4426,7.12502,13.9264,78.9563,-30.2495,5.84096,8.75373,21.9334,-10.9567,-20.5842,14.6958,16.2251,-3.37279,-32.552,9.80839,-11.5219,0.45381,-16.1885
1.18562,17.5571,-13.1042,-2.64586,0.605291,7.47979,19.5154,-3.42276,-6.9952,1.90917,-5.88149,1.32835,-7.96101,-2.58232,6.91215,-8.33843,-1.23177,-1.58763,31.236,-0.291825,-4.33112,11.5317,-0.875954,-1.3712,5.88403e-14,-7.95139e-15,-51.2545,-43.1618,-18.9334,97.5097,-22.0276,5.00587,5.65775,7.12502,30.3756,-21.8609,5.88403e-14,-7.95139e-15,-42.5584,3.75899,71.7366,51.7701,9.79195,-12.2215,49.8416,7.12502,13.8435,79.361,-30.3917,5.67437,9.01302,21.9764,-10.5311,-20.1166,13.5555,15.8613,-3.50013,-32.3562,10.8866,-11.5266,0.272057,-16.0109
1.165,17.5705,-12.9336,-2.83004,0.977029,7.29809,20.1526,-3.8395,-7.27549,1.36295,-6.50908,1.8681,-8.71394,-2.80002,7.91673,-7.09219,-0.78512,-2.62938,30.9667,0.500902,-4.40051,11.1982,-0.63369,-1.10643,5.00937e-14,-2.3059e-14,-48.2562,-40.6549,-21.5787,99.5263,-19.4004,3.99618,6.07211,7.12502,29.4121,-21.62,5.00937e-14,-2.3059e-14,-43.8006,5.10868,71.9365,52.5776,10.1602,-12.7457,50.5111,7.12502,13.3383,80.0642,-29.8897,5.13225,9.51154,22.3206,-9.84572,-19.5185,12.0588,15.9309,-3.94386,-32.1346,12.1189,-11.5178,-0.000797192,-14.9702
1.13988,17.5752,-12.7568,-2.75988,0.670938,7.29562,19.3931,-3.48926,-6.95391,1.8436,-5.93646,1.53605,-7.93854,-2.60754,7.12129,-7.63617,-1.01501,-1.71867,30.724,0.028617,-4.41324,11.1956,-0.740989,-1.32228,4.03533e-14,-5.56597e-15,-48.1741,-40.0659,-23.0236,102.109,-17.1881,2.85136,6.12274,7.12502,28.3185,-21.7562,4.03533e-14,-5.56597e-15,-42.1511,4.05096,72.0344,52.9301,11.156,-13.6545,51.0654,7.12502,12.4622,80.6738,-29.8177,4.71878,9.99284,22.8477,-9.01087,-18.595,11.5737,15.5709,-3.88849,-32.1302,13.5529,-11.5261,0.0711303,-16.839
1.11272,17.5822,-12.573,-2.921,1.15884,7.13176,19.5942,-3.68001,-6.69282,1.83491,-6.13941,1.58819,-8.04574,-2.70571,7.0984,-7.7028,-0.931701,-1.69946,30.6892,0.152289,-4.43147,11.1978,-0.684743,-1.31792,7.17613e-14,-1.03368e-14,-46.733,-38.9729,-25.0191,104.008,-14.6201,2.83326,6.70936,7.12502,28.3012,-21.1724,7.17613e-14,-1.03368e-14,-41.8917,4.2951,72.0273,53.304,11.3243,-14.2818,51.1983,7.12502,11.8574,80.8426,-29.2576,4.47334,10.4135,23.651,-8.67068,-18.4805,12.8607,15.652,-4.33044,-31.8862,14.8702,-11.3398,-0.189911,-18.667
1.08323,17.5882,-12.4003,-2.94685,1.27766,6.6962,20.3518,-3.76912,-6.39208,1.17495,-6.23547,1.86173,-9.17681,-2.66758,7.38247,-6.73415,-0.847343,-1.88362,30.8034,0.295946,-4.531,11.0523,-0.646554,-1.30042,5.86415e-14,7.95139e-15,-45.6638,-36.7946,-26.6324,105.737,-11.6105,2.4379,7.13933,7.12502,27.9233,-20.8045,5.86415e-14,7.95139e-15,-42.9003,4.62978,71.9783,53.8685,10.6591,-13.343,52.4324,7.12502,12.7625,82.0223,-29.0925,4.35902,11.2158,24.6865,-8.32562,-18.2863,13.8172,15.6482,-4.6178,-31.3415,16.0024,-10.9509,-0.414931,-19.4448
1.05845,17.6024,-12.2382,-2.89445,1.27958,6.72484,19.8443,-3.73081,-6.28095,1.49347,-6.12567,1.78756,-8.58245,-2.66787,7.13326,-6.86806,-0.898266,-1.88905,30.5098,0.164191,-4.32352,10.962,-0.677066,-1.23303,-7.196e-14,8.74653e-15,-44.3871,-35.7305,-29.0482,107.492,-8.40463,0.77314,7.25672,7.12502,26.3307,-20.9355,-7.196e-14,8.74653e-15,-41.9165,4.59463,72.1694,53.8961,11.8126,-14.7033,51.6288,7.12502,11.4509,81.2961,-29.1539,4.1386,11.4487,25.6177,-7.65025,-18.0911,13.5868,15.4821,-4.84381,-31.3392,17.0727,-10.2178,-0.622244,-20.4522
1.03118,17.6255,-12.0713,-2.89246,0.906671,6.72224,20.1222,-3.54733,-6.38695,1.24212,-5.92699,1.85712,-9.02716,-2.53249,7.27018,-6.62303,-0.865533,-1.85011,30.6713,0.23478,-4.44973,10.9769,-0.655872,-1.27931,1.09332e-14,3.18055e-15,-43.5679,-33.3372,-31.1227,109.177,-5.58322,-0.998838,7.16439,7.12502,24.6333,-21.2704,1.09332e-14,3.18055e-15,-41.8989,4.77107,72.2991,54.1317,11.7913,-14.9947,50.4565,7.12502,11.1699,80.1392,-29.2809,4.64258,11.5268,26.386,-6.89495,-18.3117,14.5462,15.2198,-4.86867,-31.356,18.3758,-9.4267,-0.653008,-22.5907
0.998343,17.6559,-11.8975,-3.01153,0.0194443,6.37071,20.4796,-3.21925,-6.21586,1.22116,-5.45915,2.04401,-9.31881,-2.29288,7.30302,-7.32402,-0.854446,-1.88621,31.183,0.349237,-4.59948,11.3213,-0.642013,-1.33185,6.42074e-14,1.74931e-14,-42.3776,-31.4102,-33.4357,110.601,-2.42234,-1.91565,7.32096,7.12502,23.7543,-21.2308,6.42074e-14,1.74931e-14,-41.6687,5.14596,72.4887,54.5818,11.5364,-14.9707,49.5542,7.12502,11.193,79.2356,-29.3598,5.73965,12.0205,27.075,-6.41996,-18.5622,15.9864,14.9944,-4.6129,-31.0247,19.8398,-8.6104,-0.54688,-23.9387
0.970607,17.6775,-11.7073,-3.02693,-0.0870178,5.86821,19.5998,-3.3211,-5.74559,1.56339,-5.41666,2.19345,-8.49111,-2.34902,7.08063,-7.17332,-0.828262,-2.00904,31.027,0.388316,-4.56573,11.2313,-0.629732,-1.28886,8.68689e-14,-1.82882e-14,-40.9008,-29.8394,-36.1355,111.605,0.93253,-2.88399,7.65913,7.12502,22.8253,-21.0103,8.68689e-14,-1.82882e-14,-41.2484,5.48701,72.692,55.0056,11.8423,-14.1821,50.625,7.12502,11.9535,80.2637,-29.1066,6.28328,12.6069,27.5445,-6.56551,-18.9065,17.1583,14.6749,-4.86725,-30.4655,21.4736,-7.63742,-0.790744,-25.399
0.943758,17.684,-11.5181,-3.05001,-0.425143,5.66121,19.6127,-3.14897,-5.45903,1.58198,-5.12617,2.20817,-8.5466,-2.21702,6.86473,-7.63518,-0.936992,-1.83858,31.3411,0.242643,-4.60223,11.4444,-0.69002,-1.35961,-4.17448e-15,-1.82882e-14,-40.1967,-28.1025,-38.3609,112.372,4.10134,-4.52778,7.71845,7.12502,21.2471,-21.137,-4.17448e-15,-1.82882e-14,-41.0376,5.44425,72.9797,55.2499,12.3699,-13.9827,51.8823,7.12502,12.1458,81.5097,-28.8155,6.73628,12.9508,27.8556,-6.64704,-18.5689,16.8955,14.1779,-4.85118,-30.232,23.337,-6.4454,-1.09873,-26.194
0.912388,17.7112,-11.3291,-3.12671,-0.656276,5.34301,19.5535,-3.05164,-5.13565,1.61453,-4.91685,2.28755,-8.52962,-2.12889,6.71031,-7.72096,-1.00074,-1.66606,31.4345,0.172995,-4.7637,11.4964,-0.722426,-1.46071,2.38542e-15,-4.6118e-14,-39.4714,-26.0793,-40.6689,112.795,7.17732,-6.21833,7.81378,7.12502,19.6225,-21.2159,2.38542e-15,-4.6118e-14,-40.9104,5.50966,73.1964,55.441,12.4547,-14.7545,50.1025,7.12502,11.4015,79.7725,-28.3981,7.17131,13.4315,28.1952,-6.37429,-18.1244,14.5865,13.562,-4.67241,-29.7233,25.3676,-5.04037,-1.72296,-26.4499
0.887188,17.7404,-11.1406,-3.15559,-0.764456,5.05402,19.4519,-3.04084,-4.78967,1.55239,-4.81727,2.36775,-8.57865,-2.08871,6.57247,-7.51055,-1.01695,-1.6772,31.5467,0.165239,-4.82444,11.4981,-0.734229,-1.4828,-5.18828e-14,-1.59028e-15,-38.7189,-23.8403,-43.0923,112.807,10.2507,-7.73973,7.93214,7.12502,18.1593,-21.2402,-5.18828e-14,-1.59028e-15,-40.8208,5.39623,73.5562,55.6337,12.6099,-14.8571,48.813,7.12502,11.3025,78.4885,-27.9584,7.09615,13.9519,28.5278,-5.5508,-17.2677,11.6662,12.7591,-4.58744,-29.2642,27.5307,-3.17484,-2.33398,-26.8972
0.866994,17.7572,-10.9486,-3.13395,-0.89953,5.11458,19.4232,-3.0183,-4.73892,1.4384,-4.77559,2.39025,-8.6969,-2.06174,6.56303,-7.71666,-0.999286,-1.92206,31.9274,0.241406,-4.76046,11.6967,-0.730633,-1.4185,2.46493e-14,4.77083e-15,-37.9047,-21.4912,-45.5458,112.451,12.7445,-9.45925,7.96045,7.12502,16.5043,-21.3576,2.46493e-14,4.77083e-15,-40.8756,5.34306,74.0893,55.9746,13.1279,-13.2989,50.5071,7.12502,12.8051,80.0943,-27.5592,6.75552,14.0933,28.8122,-4.51073,-15.8938,10.9689,11.8117,-4.44821,-29.2357,29.7335,-0.82512,-2.67254,-28.0075
0.838755,17.7714,-10.7569,-3.09471,-1.07388,4.86849,19.0693,-3.0108,-4.47213,1.53721,-4.68914,2.44572,-8.42252,-2.04587,6.41374,-7.98838,-1.00655,-1.87204,32.068,0.245798,-4.78701,11.8091,-0.731321,-1.44283,9.74045e-14,-3.81667e-14,-36.9181,-19.3787,-48.2074,111.715,14.9198,-11.3045,7.99008,7.12502,14.7272,-21.4668,9.74045e-14,-3.81667e-14,-41.007,5.25339,74.4488,56.6289,13.3862,-14.4425,50.1896,7.12502,11.7025,79.8427,-27.2291,6.54905,14.5858,29.1966,-3.90543,-14.5848,12.609,10.6839,-4.1668,-28.7632,32.0263,1.79427,-3.10657,-27.4219
0.805625,17.7839,-10.5718,-3.11309,-1.25629,4.7888,18.8166,-2.93729,-4.43388,1.73585,-4.57059,2.47246,-8.08249,-2.01097,6.35908,-8.59735,-1.04224,-1.7552,32.1816,0.227707,-4.87172,11.9803,-0.743484,-1.5065,1.74931e-14,-8.74653e-15,-35.8218,-17.5078,-50.7181,110.544,17.2422,-12.4802,8.08556,7.12502,13.5943,-21.4506,1.74931e-14,-8.74653e-15,-40.7568,5.19652,74.8237,57.1195,13.5892,-14.6244,50.22,7.12502,11.527,79.883,-26.9591,6.39562,14.9131,29.6931,-3.70985,-13.7203,13.4984,9.4918,-3.85947,-28.4328,34.33,4.83473,-3.38495,-24.5244
0.774712,17.792,-10.3834,-3.20687,-1.37672,4.65193,18.89,-2.86446,-4.39941,1.53527,-4.46702,2.53818,-8.35429,-1.9439,6.40587,-8.10358,-1.07571,-1.66731,32.1528,0.184779,-5.02331,11.8647,-0.765197,-1.57826,-2.76311e-14,-2.94201e-14,-35.5109,-15.2594,-52.7797,109.118,19.2967,-13.6264,8.36696,7.12502,12.4894,-21.2398,-2.76311e-14,-2.94201e-14,-41.1414,4.87285,75.2164,57.3858,13.4238,-14.6513,50.5471,7.12502,11.501,80.2115,-26.5288,6.33389,15.2721,30.1877,-4.02165,-13.4797,13.6941,8.33336,-3.53742,-28.0331,36.6815,7.9921,-3.82169,-22.7423
0.743461,17.7985,-10.1947,-3.41607,-1.42363,4.51049,19.223,-2.79219,-4.38596,1.28766,-4.37287,2.64993,-8.8151,-1.8689,6.54237,-7.68025,-1.09626,-1.82988,32.2866,0.185311,-5.05837,11.8334,-0.786784,-1.56184,-1.61016e-14,0,-35.3448,-12.9985,-54.6076,107.485,21.1632,-14.8764,8.62142,7.12502,11.2839,-21.0551,-1.61016e-14,0,-41.747,4.72779,75.5435,57.7291,12.2687,-13.5745,50.5964,7.12502,12.5394,80.2001,-25.9104,6.30853,15.6376,30.6674,-4.3329,-13.4558,13.3282,7.27269,-3.37557,-27.6504,39.0591,10.9349,-4.11523,-20.3563
0.712529,17.811,-10.0115,-3.51265,-1.47238,4.12984,18.737,-2.77166,-4.0308,1.69558,-4.24394,2.73496,-8.13587,-1.86014,6.3365,-8.24691,-1.18127,-1.85565,32.2692,0.0814608,-5.01252,11.9415,-0.835063,-1.55829,-4.96962e-15,2.06736e-14,-34.1845,-11.656,-56.8239,105.564,22.6653,-15.5972,9.26465,7.12502,10.5887,-20.4486,-4.96962e-15,2.06736e-14,-41.0962,4.37578,76.1177,57.7976,12.7336,-14.4567,48.8383,7.12502,11.6887,78.4922,-25.3707,6.24252,16.2652,31.0809,-4.47142,-13.1892,13.8449,5.95959,-3.2892,-26.986,41.4986,14.0867,-4.18353,-15.4244
0.68071,17.8279,-9.83399,-3.57203,-1.55859,3.54942,18.9732,-2.68882,-3.60289,1.51131,-4.03525,2.92001,-8.51156,-1.75069,6.27588,-8.18807,-1.29463,-1.77209,32.5552,-0.0839025,-5.04143,12.0408,-0.906774,-1.61113,1.19271e-14,-2.38542e-15,-33.7916,-10.0805,-58.5727,103.461,23.9976,-15.875,9.18352,7.12502,10.3208,-20.5432,1.19271e-14,-2.38542e-15,-41.3213,4.0132,76.5015,57.9111,11.3847,-13.5258,49.0341,7.12502,12.5863,78.635,-24.7637,6.32545,17.1109,31.2695,-4.69921,-12.8608,15.1343,4.42396,-3.23063,-26.1203,44.0475,17.4901,-4.18993,-11.0999
0.654727,17.8462,-9.65505,-3.6324,-1.671,3.15632,18.9801,-2.59872,-3.31309,1.43212,-3.84386,3.04503,-8.63749,-1.66023,6.20644,-8.08779,-1.34872,-1.83326,32.7922,-0.179615,-4.93001,12.1153,-0.945919,-1.57506,-4.45278e-14,1.43125e-14,-33.3217,-8.64936,-60.1907,101.038,25.2012,-16.2349,9.76242,7.12502,9.97354,-19.9813,-4.45278e-14,1.43125e-14,-41.5291,3.38963,77.1145,58.2256,11.0753,-14.2994,49.1756,7.12502,11.8404,78.8209,-24.0245,6.3238,17.7336,31.2417,-5.03487,-12.4162,16.313,2.81656,-3.15704,-25.5333,46.6842,20.7279,-4.18402,-9.35534
0.628734,17.8739,-9.48047,-3.74136,-1.91858,2.4963,18.965,-2.54461,-2.6861,1.63273,-3.62495,3.20881,-8.46432,-1.58584,5.96112,-8.74431,-1.31717,-1.71954,33.1345,-0.0862063,-5.02267,12.3962,-0.913036,-1.63675,-2.20651e-14,2.22639e-14,-32.4531,-7.3511,-61.8851,98.4401,26.4012,-16.9118,10.221,7.12502,9.32042,-19.553,-2.20651e-14,2.22639e-14,-41.0164,3.0791,77.527,58.3722,10.6122,-14.103,47.4022,7.12502,12.0298,77.0364,-23.1009,6.2383,18.7174,31.0089,-5.18325,-12.0159,16.4226,1.20649,-3.0564,-24.6432,49.3042,23.5602,-3.80376,-7.75327
0.594911,17.8974,-9.30302,-3.82606,-2.08042,1.58366,18.8581,-2.57062,-2.13678,1.43895,-3.51279,3.52741,-8.64469,-1.53667,5.97312,-7.61084,-1.31297,-1.79239,33.0336,-0.111856,-5.04778,12.1164,-0.924548,-1.61936,-1.94809e-14,1.43125e-14,-32.3104,-5.67989,-63.2751,95.7886,28.0112,-16.9592,10.5455,7.12502,9.27474,-19.2305,-1.94809e-14,1.43125e-14,-41.5512,2.93256,77.8856,58.3015,10.3834,-15.3948,37.7522,7.12502,10.7839,67.4554,-22.1753,6.28055,19.9897,30.7302,-5.23815,-12.0669,16.8339,-0.510999,-2.98435,-23.4013,51.8835,26.1,-3.46706,-6.49086
0.564168,17.9259,-9.12583,-4.01671,-2.17113,0.830694,19.0812,-2.43138,-1.38987,1.74854,-3.16214,3.66158,-8.49999,-1.40215,5.60392,-8.37055,-1.66148,-2.16761,32.9472,-0.686515,-4.46564,12.2325,-1.15867,-1.41039,-4.11484e-14,1.43125e-14,-31.1504,-5.21069,-64.6627,92.7395,29.5553,-17.2625,11.0835,7.12502,8.98209,-18.7053,-4.11484e-14,1.43125e-14,-40.7371,2.28655,78.5659,57.7266,11.5736,-14.0074,42.962,7.12502,12.122,72.5909,-21.1439,6.42387,21.0359,30.3909,-5.43047,-12.2364,17.4241,-2.07242,-2.85898,-22.3584,54.2884,28.4903,-3.54504,-4.47623
0.537333,17.9485,-8.95405,-4.20182,-2.4136,0.342641,19.2519,-2.27772,-1.03689,1.63594,-2.87102,3.76565,-8.7595,-1.26356,5.46051,-8.1301,-1.73102,-1.99056,33.1905,-0.806529,-4.53275,12.2773,-1.19991,-1.48481,2.8625e-14,-7.15625e-15,-30.8616,-4.16996,-65.8998,89.6192,30.7659,-18.8539,10.9012,7.12502,7.44617,-18.9478,2.8625e-14,-7.15625e-15,-41.0075,1.92844,78.9352,58.3378,10.0408,-11.5093,47.7334,7.12502,14.5298,77.2045,-20.1761,6.62224,21.8051,30.1229,-5.70192,-12.0847,17.3681,-3.53586,-2.58848,-21.6377,56.5825,29.2136,-3.8954,-3.70638
0.51499,17.9602,-8.7776,-4.42558,-2.83808,-0.119673,19.3872,-2.01456,-0.564727,1.74958,-2.42148,3.78574,-8.7715,-1.06614,5.09834,-8.73384,-1.92603,-1.81378,33.6042,-1.12782,-4.4146,12.5684,-1.31463,-1.5322,-4.07509e-14,2.06736e-14,-30.3016,-3.54087,-67.0904,86.4146,31.7931,-18.5044,11.228,7.12502,7.78351,-18.6088,-4.07509e-14,2.06736e-14,-40.747,1.57795,79.1824,58.5553,8.48577,-10.8565,48.512,7.12502,15.1587,77.9368,-19.1475,6.83175,22.5795,29.9084,-5.95917,-11.7338,17.0403,-4.80574,-2.11276,-20.9513,58.7225,29.6067,-4.32571,-1.7018
0.486023,17.9697,-8.61684,-4.73808,-2.7845,-0.626082,20.0142,-2.02471,-0.283375,1.62953,-2.33902,3.97916,-9.25899,-1.01888,5.17359,-8.70538,-1.99176,-2.16722,33.8894,-1.20167,-4.22496,12.6895,-1.37168,-1.41449,4.19436e-14,9.54166e-15,-29.6739,-2.47008,-68.0766,83.0142,32.864,-19.3661,10.9504,7.12502,6.95178,-18.9155,4.19436e-14,9.54166e-15,-40.9949,1.6749,79.4909,58.5736,7.69121,-10.8562,48.8258,7.12502,15.159,78.2505,-18.0712,6.83545,23.3632,29.7762,-6.37336,-11.7174,17.2046,-6.17288,-2.03351,-20.2347,60.7919,28.1665,-5.11566,-1.36018
0.459173,17.981,-8.44991,-4.88643,-3.00935,-1.15245,19.7123,-1.84871,0.249242,2.1194,-2.00918,4.01974,-8.59919,-0.901093,4.7821,-8.99347,-2.26709,-2.57619,33.5062,-1.68914,-3.64313,12.5942,-1.55956,-1.17613,-5.14852e-14,4.21423e-14,-28.0812,-2.51049,-69.0928,79.3357,34.0874,-19.2844,10.6939,7.12502,7.03063,-19.1693,-5.14852e-14,4.21423e-14,-39.8245,1.345,79.793,58.0592,7.26863,-10.2145,47.9801,7.12502,15.777,77.3571,-17.202,6.98772,24.1735,29.6501,-6.55125,-11.6359,16.9373,-7.68835,-1.79561,-19.4953,62.6962,26.5809,-5.67212,-0.0145266
0.430948,17.9878,-8.28288,-5.04792,-3.19151,-1.50055,19.9489,-1.76023,0.346923,1.78073,-1.83857,4.17262,-9.11375,-0.80592,4.87893,-7.13954,-2.32786,-3.22929,32.9657,-1.86943,-3.23714,11.9977,-1.65511,-0.885458,-3.02153e-14,2.62396e-14,-28.0082,-1.56235,-69.8262,75.8932,34.9439,-18.9783,10.2047,7.12502,7.32612,-19.6484,-3.02153e-14,2.62396e-14,-40.5603,1.43617,80.1006,57.8721,6.574,-8.30484,47.2481,7.12502,17.6155,76.4701,-16.3385,7.13801,24.7861,29.5059,-6.56557,-11.6961,16.2867,-9.08945,-1.56833,-18.9413,64.3948,24.1676,-5.94534,0.613629
0.406213,18.0012,-8.11598,-5.23798,-3.33914,-1.69287,20.2465,-1.49424,0.509278,1.76894,-1.44479,4.14378,-9.3259,-0.62027,4.66192,-7.01459,-2.66523,-3.4451,33.0837,-2.42845,-2.87924,12.0287,-1.88734,-0.780511,3.37934e-15,2.38542e-14,-27.3848,-1.60902,-70.5391,72.5048,35.3698,-18.3155,9.67067,7.12502,7.96581,-20.1592,3.37934e-15,2.38542e-14,-40.3369,1.01065,80.4348,57.5074,5.98641,-8.40052,46.2984,7.12502,17.5234,75.5286,-15.4595,7.26742,25.2056,29.4166,-6.74592,-11.7273,16.4821,-10.5021,-1.35727,-18.6205,65.8308,21.2174,-6.23138,-1.13521
0.383561,18.0229,-7.94592,-5.27143,-3.45589,-1.99193,20.3396,-1.36849,0.647892,1.65859,-1.22902,4.25968,-9.51638,-0.51594,4.66051,-7.63087,-2.78199,-3.26515,33.8655,-2.485,-3.2163,12.4738,-1.94246,-0.977103,8.74653e-15,7.95139e-16,-26.6285,-1.49337,-71.1029,68.8244,35.9358,-17.2753,9.68116,7.12502,8.96966,-20.1082,8.74653e-15,7.95139e-16,-40.3113,1.09589,80.7466,57.1257,5.5142,-8.38228,45.4226,7.12502,17.541,74.6513,-14.7537,7.37672,25.7144,29.4416,-7.25699,-11.7484,18.2405,-12.0567,-1.12053,-18.211,66.9963,18.994,-6.52629,-3.89554
0.366339,18.021,-7.78204,-5.26713,-3.34616,-2.24159,20.3608,-1.32044,0.885671,1.65791,-1.10278,4.33747,-9.54154,-0.463328,4.57586,-7.49462,-3.02784,-3.87028,33.689,-2.86272,-2.78552,12.395,-2.12886,-0.74789,-1.19271e-14,-2.46493e-14,-25.6042,-1.48256,-71.6622,65.461,35.6653,-15.8659,9.06946,7.12502,10.3296,-20.6569,-1.19271e-14,-2.46493e-14,-39.9419,1.32922,81.0177,56.66,5.02182,-7.0866,48.2513,7.12502,18.7875,77.364,-14.2149,7.2789,26.1204,29.6172,-7.44879,-11.6921,17.2089,-13.4263,-0.973554,-17.9039,67.9523,16.3004,-6.9172,-8.34647
0.348238,18.0107,-7.61193,-5.31651,-3.30734,-2.42339,20.3237,-1.1781,1.13782,1.76102,-0.868691,4.28615,-9.42787,-0.365873,4.30211,-7.29883,-3.28483,-4.14253,33.3323,-3.33371,-2.33264,12.2241,-2.30989,-0.575012,5.46658e-15,-3.02153e-14,-24.5088,-2.13828,-72.225,62.0317,35.9105,-14.9623,8.37133,7.12502,11.2011,-21.3097,5.46658e-15,-3.02153e-14,-39.6824,1.18927,81.1571,56.5632,4.73154,-7.28305,46.3414,7.12502,18.5986,75.4723,-13.6418,7.28164,26.4754,29.8517,-7.82653,-11.7608,16.1013,-14.5853,-0.864705,-17.6611,68.6071,13.6174,-6.75544,-13.2457
0.327773,18.0047,-7.43669,-5.40563,-3.31926,-2.4045,20.0962,-1.11572,0.941202,1.53411,-0.826876,4.3136,-9.55419,-0.333657,4.43399,-5.59675,-3.31529,-4.57659,32.8372,-3.47826,-2.08286,11.6914,-2.39149,-0.376438,-3.18055e-14,3.89618e-14,-24.2928,-2.02962,-72.7005,58.9618,35.2099,-13.1292,7.80354,7.12502,12.9686,-21.7734,-3.18055e-14,3.89618e-14,-40.7452,1.51543,81.2406,56.962,4.4688,-7.32619,47.4304,7.12502,18.5571,76.5653,-13.0219,7.22148,26.6253,30.152,-8.65534,-11.7739,16.4978,-15.714,-0.832553,-17.6579,68.9548,11.2547,-5.82113,-12.685
0.305882,18.0148,-7.26154,-5.53163,-3.21216,-2.33571,20.0781,-0.888034,0.97517,1.90189,-0.544456,4.21903,-9.1567,-0.210883,4.21622,-6.49481,-3.73718,-4.76314,32.9896,-4.05499,-1.87085,11.9567,-2.64498,-0.356536,4.07509e-15,-5.24792e-14,-23.014,-3.24436,-73.039,55.9819,34.1891,-10.6808,5.466,7.12502,15.328,-23.9459,4.07509e-15,-5.24792e-14,-39.4653,1.51458,81.4381,56.0944,4.15718,-7.31337,47.2059,7.12502,18.5694,76.3396,-12.3209,7.13075,26.718,30.3858,-9.12874,-11.9365,14.7285,-16.7019,-0.843781,-17.7377,68.9873,9.87181,-5.60475,-14.2474
0.288036,18.0157,-7.08998,-5.62257,-3.06193,-2.32702,20.1067,-0.762957,0.937483,1.77968,-0.382119,4.20929,-9.31813,-0.128854,4.18767,-7.45358,-3.902,-4.19698,34.2976,-4.08719,-2.67596,12.6647,-2.69877,-0.817987,1.10325e-14,-1.66979e-14,-22.6836,-4.07263,-73.1963,53.0801,32.6992,-8.37514,3.12071,7.12502,17.5479,-26.1073,1.10325e-14,-1.66979e-14,-39.7088,1.60966,81.5818,55.7926,3.85767,-7.16017,46.7524,7.12502,18.7168,75.8719,-11.6682,6.86848,26.8326,30.5421,-9.72519,-12.0306,13.7458,-17.7695,-0.88985,-17.7646,68.8675,8.37406,-5.01789,-13.1119
0.271992,18.0061,-6.9137,-5.68439,-2.98831,-2.56319,19.9866,-0.673899,1.20865,1.66045,-0.203163,4.20931,-9.39712,-0.052609,3.98231,-7.08506,-4.12734,-4.22913,34.6889,-4.42332,-2.69146,12.7576,-2.85604,-0.861616,-1.09332e-14,-5.64548e-14,-22.5012,-5.31034,-73.334,50.2105,30.7804,-7.29108,1.8087,7.12502,18.5908,-27.3229,-1.09332e-14,-5.64548e-14,-40.168,1.60834,81.6274,55.7539,3.90323,-7.35653,46.3907,7.12502,18.5279,75.5283,-10.9534,6.67906,27.2177,30.6255,-10.5972,-12.1733,14.038,-18.7875,-0.953467,-17.5299,68.582,5.31325,-3.94565,-8.19293
0.252234,17.9965,-6.73676,-5.77965,-2.90632,-2.95672,19.962,-0.605663,1.56821,1.69335,-0.02526,4.31313,-9.35862,0.0193965,3.83956,-6.94023,-4.32156,-4.65921,34.8472,-4.75226,-2.30443,12.827,-3.00795,-0.680849,1.09332e-15,1.27222e-14,-22.0205,-7.03857,-73.3404,47.2528,28.6871,-4.74652,0.577257,7.12502,21.0369,-28.3017,1.09332e-15,1.27222e-14,-40.0818,1.86921,81.7061,55.3809,3.9453,-7.73515,46.3285,7.12502,18.1637,75.5004,-10.0538,6.73767,27.7674,30.6895,-11.9164,-12.1898,17.6058,-19.743,-0.994175,-17.0783,68.147,4.42492,-4.05982,-13.1497
0.234629,17.9904,-6.55974,-5.82723,-2.76201,-3.21264,20.0249,-0.51097,1.84747,1.82744,0.165108,4.38389,-9.25505,0.0991684,3.70226,-7.78154,-4.57413,-4.76234,35.2668,-5.02719,-2.35642,13.197,-3.14702,-0.756605,-1.20265e-14,-2.54444e-14,-21.1972,-9.3001,-73.1972,43.9751,25.8891,-1.84794,-2.29777,7.12502,23.8192,-30.8411,-1.20265e-14,-2.54444e-14,-39.7246,2.12363,81.8114,55.1147,3.93764,-7.76652,46.4318,7.12502,18.1335,75.6066,-9.21429,6.73389,28.1443,30.7248,-13.1564,-11.9971,20.3024,-20.636,-1.09841,-16.7856,67.4789,2.87747,-3.86447,-16.0743
0.219974,17.9823,-6.38167,-5.91989,-2.83491,-3.3777,19.998,-0.356342,2.02894,1.71605,0.413081,4.37628,-9.37523,0.211162,3.52361,-7.15953,-4.75691,-4.84528,35.3012,-5.32156,-2.33152,13.0872,-3.2845,-0.752687,3.57812e-15,-3.81667e-14,-21.1841,-11.5867,-72.976,40.8212,22.1344,-1.20271,-3.10164,7.12502,24.4379,-31.5629,3.57812e-15,-3.81667e-14,-40.2231,2.25366,81.7709,55.1276,4.27272,-8.40763,45.9454,7.12502,17.5166,75.1762,-8.45224,6.55636,28.4879,30.6984,-13.4813,-12.0822,18.4741,-21.4035,-1.03931,-16.6165,66.6534,1.08986,-3.3994,-17.3334
0.203089,17.9751,-6.19626,-6.14789,-2.90188,-3.56093,20.0053,-0.22814,2.20032,1.78773,0.619024,4.40042,-9.30813,0.30235,3.39299,-6.80567,-4.87262,-4.98682,35.1951,-5.51887,-2.21131,12.979,-3.37323,-0.692799,4.87022e-15,3.18055e-15,-21.0013,-14.1359,-72.664,37.6935,18.2589,-1.67618,-2.311,7.12502,23.9839,-30.8328,4.87022e-15,3.18055e-15,-40.4831,2.53479,81.6976,55.0463,4.88937,-9.39202,45.1222,7.12502,16.5691,74.4349,-7.49065,6.41647,28.8803,30.6473,-13.6173,-12.3803,15.7815,-21.9515,-1.05407,-16.4142,65.6134,-0.378257,-2.77315,-16.6826
0.188381,17.9708,-6.01228,-6.20701,-2.76707,-3.86339,19.9853,-0.197675,2.51885,1.75305,0.736938,4.45973,-9.33811,0.347384,3.24384,-6.78383,-4.99372,-5.09829,35.3543,-5.71204,-2.09481,13.0566,-3.4578,-0.657573,4.77083e-15,8.74653e-15,-20.7228,-17.1788,-72.1234,34.4049,14.7478,-1.39264,-1.63086,7.12502,24.2558,-30.1166,4.77083e-15,8.74653e-15,-40.6758,2.9041,81.5344,54.7861,5.11897,-8.0934,47.4576,7.12502,17.819,76.6612,-6.64081,6.24409,29.3251,30.5303,-14.2629,-12.51,15.398,-22.6604,-1.30325,-16.1133,64.4024,-1.61868,-2.01503,-15.4166
0.174211,17.9616,-5.83535,-6.19354,-2.62151,-4.00533,19.9747,-0.130619,2.647,1.56118,0.866841,4.47954,-9.5491,0.405304,3.161,-5.94375,-5.17432,-5.41553,35.3586,-6.03908,-1.8757,12.9105,-3.61826,-0.532525,1.09332e-15,-2.78299e-14,-21.1012,-19.9642,-71.3486,31.7417,11.3421,-1.11434,-1.99317,7.12502,24.5226,-30.443,1.09332e-15,-2.78299e-14,-41.295,3.23614,81.3364,54.621,5.28154,-4.44278,54.7173,7.12502,21.3287,83.5636,-5.91729,6.14302,29.5791,30.3765,-14.377,-12.7662,13.4715,-23.3582,-1.49057,-16.0025,63.0142,-2.72654,-1.3417,-15.4941
0.158276,17.9466,-5.66196,-6.23674,-2.5633,-4.39254,20.1058,0.0407187,3.15939,1.85597,1.19778,4.48942,-9.29633,0.541865,2.78141,-6.22032,-5.57274,-5.84046,34.9298,-6.73334,-1.19585,12.8491,-3.88713,-0.286997,4.87022e-15,1.82882e-14,-20.7324,-23.5774,-70.7103,29.2096,8.6886,-1.45282,-2.33657,7.12502,24.1981,-30.83,4.87022e-15,1.82882e-14,-40.7837,3.30907,81.2988,54.2289,6.23765,-8.53614,45.1357,7.12502,17.3929,74.3775,-5.13013,6.04812,30.1296,30.2093,-15.6589,-12.848,16.276,-23.9354,-1.52273,-15.5656,61.4882,-3.62848,-0.839741,-15.1426
0.145044,17.9349,-5.48477,-6.32813,-2.48075,-4.79059,20.1824,0.0392342,3.5303,1.74686,1.30253,4.60655,-9.458,0.578702,2.67297,-6.40193,-5.62531,-5.7045,35.5889,-6.68479,-1.63564,13.1493,-3.9033,-0.497549,-1.76918e-14,3.18055e-15,-21.2196,-26.8387,-69.6148,26.5953,7.03564,-2.0395,-2.33614,7.12502,23.6355,-30.9033,-1.76918e-14,3.18055e-15,-41.431,3.92066,81.0496,53.9267,7.03652,-10.6779,44.5752,7.12502,15.3308,73.9869,-4.29855,5.91557,30.6951,30.0611,-15.9823,-13.0745,15.3518,-24.383,-1.56646,-15.119,59.8117,-4.57946,-0.271283,-14.1329
0.138878,17.9256,-5.30326,-6.22936,-2.40157,-4.89904,20.0821,0.10179,3.73429,1.66774,1.42867,4.60122,-9.48872,0.630044,2.51617,-6.33019,-5.76586,-5.75215,35.5961,-6.88625,-1.62773,13.1456,-3.99601,-0.510511,1.6201e-14,1.03368e-14,-21.863,-30.3374,-68.3732,24.4755,5.91774,-2.46037,-2.4299,7.12502,23.2318,-31.0486,1.6201e-14,1.03368e-14,-41.7663,4.44952,80.7739,53.9422,7.17715,-8.89737,46.8981,7.12502,17.0452,76.1703,-3.63191,5.70758,30.8673,29.812,-16.3443,-13.27,14.9414,-24.9594,-1.66767,-15.0432,57.9489,-5.41186,0.412412,-13.4129
0.131765,17.9045,-5.11778,-6.08747,-2.25033,-5.00033,19.8786,0.146402,3.93555,1.60122,1.51833,4.55822,-9.44558,0.663822,2.32894,-6.36268,-5.96961,-5.79787,35.6612,-7.20016,-1.54972,13.1956,-4.12888,-0.51749,2.40529e-14,2.14687e-14,-22.9104,-33.5569,-67.0126,22.9811,5.23006,-2.89212,-2.06306,7.12502,22.8175,-30.7334,2.40529e-14,2.14687e-14,-41.9419,4.74783,80.4222,53.9011,7.16896,-6.82364,49.0435,7.12502,19.0404,78.1315,-2.92568,5.28471,30.9833,29.4664,-16.3291,-13.449,15.2756,-25.5167,-1.78379,-14.9836,55.9782,-5.88954,1.22566,-13.659
0.119451,17.8975,-4.93196,-6.04393,-2.24894,-5.23983,19.8657,0.236965,4.18606,1.61013,1.69674,4.60972,-9.42608,0.739717,2.1936,-6.47775,-6.08287,-5.92712,35.8927,-7.32259,-1.57512,13.3334,-4.20012,-0.533598,-1.90833e-14,-1.35174e-14,-23.9623,-36.4467,-65.5631,21.7512,4.84019,-3.54293,-1.80661,7.12502,22.1928,-30.5526,-1.90833e-14,-1.35174e-14,-42.0509,5.36489,80.0057,52.4689,8.44952,-9.66311,44.2965,7.12502,16.308,73.6307,-2.03507,5.25051,31.3545,29.0148,-16.1702,-13.8379,16.7246,-25.8052,-1.69401,-14.7088,53.7927,-6.31546,2.07984,-15.0097
0.105295,17.8957,-4.74742,-6.01392,-2.27014,-5.5273,19.7379,0.38174,4.45244,1.57196,1.94339,4.65037,-9.3936,0.847367,2.01945,-6.0374,-6.26027,-6.12496,35.8327,-7.65624,-1.31638,13.2464,-4.34106,-0.424578,-1.2921e-14,-4.21423e-14,-25.5084,-39.1776,-63.8539,20.821,4.55707,-4.18475,-1.36775,7.12502,21.5765,-30.1858,-1.2921e-14,-4.21423e-14,-43.3432,5.1966,79.9709,54.9714,9.13826,-9.52988,49.6475,7.12502,16.4363,78.9712,-1.11005,5.37127,31.8312,28.5274,-16.3635,-14.2528,17.3059,-26.0136,-1.65006,-14.3419,51.4611,-6.75514,2.72083,-14.9636
0.0931257,17.8975,-4.5604,-5.95201,-2.1864,-5.54453,19.4329,0.468624,4.48274,1.73225,2.02705,4.62854,-9.04601,0.890989,1.9534,-6.06101,-6.42578,-6.3247,35.7043,-7.9376,-1.06346,13.2287,-4.45647,-0.328221,1.83876e-14,4.53229e-14,-26.614,-41.574,-62.5722,20.2044,4.53062,-4.95808,-0.452408,7.12502,20.8337,-29.3538,1.83876e-14,4.53229e-14,-42.8615,5.61294,79.764,54.0369,10.5908,-11.4815,49.6019,7.12502,14.5566,79.0711,-0.157126,5.21139,31.9235,27.9221,-16.7202,-14.2538,16.6688,-26.1002,-1.65458,-14.2902,48.956,-7.09507,3.29197,-14.6201
0.084985,17.8883,-4.37017,-5.89212,-2.09185,-5.33956,19.3237,0.546579,4.31395,1.73996,2.07853,4.56202,-8.98047,0.921838,1.96252,-6.69836,-6.45098,-6.20101,36.2246,-7.87401,-1.32158,13.5758,-4.43803,-0.483102,2.8625e-14,3.81667e-14,-27.9271,-42.3677,-61.6455,20.3277,3.24591,-5.93972,-0.290124,7.12502,19.8903,-29.2923,2.8625e-14,3.81667e-14,-43.0497,6.21438,79.429,53.5341,11.2244,-12.1558,48.9479,7.12502,13.9069,78.4628,0.782592,4.79216,31.6697,27.3463,-17.0551,-13.9663,16.3797,-26.0672,-1.78122,-14.4874,46.3696,-7.09416,4.33009,-13.0188
0.0739116,17.8851,-4.19044,-5.71898,-2.02972,-5.44596,19.3039,0.596314,4.36511,1.6707,2.16059,4.58211,-9.04574,0.958445,1.93452,-5.43122,-6.51589,-6.69824,35.0942,-8.13023,-0.738532,12.8754,-4.55147,-0.123386,6.75868e-15,4.77083e-15,-29.1106,-42.3731,-61.1377,20.9193,1.16987,-7.23949,-0.871149,7.12502,18.6405,-29.998,6.75868e-15,4.77083e-15,-43.518,7.29963,78.5719,52.747,9.86453,-10.1726,45.4864,7.12502,15.8174,74.8602,1.59763,4.75866,31.8608,26.6559,-17.2489,-14.0866,15.2989,-26.1822,-2.01834,-14.2849,43.6727,-7.04736,4.52873,-10.3494
0.0632692,17.8795,-4.02132,-5.43197,-1.93962,-5.66058,19.3252,0.640593,4.54856,1.48659,2.27506,4.59752,-9.25585,1.00239,1.81884,-6.03762,-6.66922,-6.4843,35.8427,-8.22159,-1.17321,13.3007,-4.61218,-0.385686,1.56046e-14,2.46493e-14,-30.3388,-42.1367,-60.7366,21.6977,-1.27255,-8.77928,-1.69068,7.12502,17.1589,-30.953,1.56046e-14,2.46493e-14,-44.0437,7.68545,78.2037,52.5854,10.6978,-11.0043,47.3481,7.12502,15.0163,76.7836,2.27107,4.8049,32.1998,25.8954,-17.1797,-14.3955,13.9977,-26.4789,-2.37654,-13.8957,40.9409,-6.769,4.97918,-9.91026
0.0624821,17.8937,-3.81634,-5.23241,-2.01783,-5.68474,18.9723,0.731516,4.6401,1.44735,2.38779,4.58089,-9.09961,1.05459,1.72148,-5.975,-6.72348,-6.70497,35.7982,-8.32442,-0.98201,13.2961,-4.66182,-0.285032,-4.6615e-14,-3.89618e-14,-31.3685,-41.6518,-60.4834,22.5795,-4.14795,-10.0023,-1.17504,7.12502,15.9815,-30.5358,-4.6615e-14,-3.89618e-14,-44.4779,8.36872,77.7029,52.0643,10.8154,-11.1842,47.4421,7.12502,14.8431,76.8904,3.27716,4.48577,32.167,25.0033,-17.1916,-14.2063,14.1302,-26.3875,-2.77795,-13.7248,38.1159,-6.42937,5.54957,-10.67
0.057187,17.8978,-3.62004,-5.08504,-2.22326,-5.77773,18.8366,0.871321,4.71208,1.40763,2.57974,4.58658,-9.06554,1.14382,1.63814,-6.03148,-6.80309,-6.69038,35.8014,-8.41931,-1.03705,13.3093,-4.70687,-0.324308,5.05907e-14,4.05521e-14,-32.5185,-41.316,-60.1091,23.5728,-6.96216,-10.6974,0.231359,7.12502,15.312,-29.1818,5.05907e-14,4.05521e-14,-44.9633,9.08054,77.1342,51.4448,11.1332,-11.4376,47.2592,7.12502,14.599,76.7254,4.2951,4.53667,32.3282,24.1087,-17.1786,-14.2433,14.9293,-26.209,-3.37659,-13.3472,35.2984,-5.93038,6.22764,-10.8097
0.0522262,17.8939,-3.43045,-4.88277,-2.34206,-5.79751,18.5916,0.980496,4.74225,1.46843,2.70045,4.53311,-8.85797,1.2031,1.53381,-6.3397,-6.92154,-6.62568,35.7921,-8.56296,-1.09141,13.369,-4.76404,-0.389444,-2.98177e-16,1.27222e-14,-33.3898,-41.0704,-60.0127,24.5914,-9.50825,-11.8544,0.565583,7.12502,14.1973,-28.9292,-2.98177e-16,1.27222e-14,-45.1698,9.79682,76.5005,50.7944,11.2781,-10.8447,48.7869,7.12502,15.1701,78.2108,5.24153,4.60539,32.3889,23.1941,-17.2666,-14.1385,14.8952,-26.1311,-4.25998,-12.9759,32.501,-5.38897,6.85972,-10.6708
0.0485887,17.8884,-3.24239,-4.64584,-2.42091,-5.88662,18.3186,1.04327,4.77304,1.50589,2.76706,4.55814,-8.66518,1.23821,1.53029,-6.19102,-6.95977,-6.72744,35.545,-8.61851,-1.03959,13.2396,-4.7956,-0.346038,5.06901e-15,1.19271e-14,-34.0026,-40.4424,-60.1578,25.6627,-11.96,-13.3163,0.0882244,7.12502,12.7882,-29.5001,5.06901e-15,1.19271e-14,-45.6308,10.5402,75.9024,50.4671,10.8924,-9.73427,50.4861,7.12502,16.2395,79.826,6.14504,4.64783,32.5318,22.2838,-17.0581,-14.1597,11.0697,-26.1101,-5.33167,-12.4508,29.8089,-5.24304,7.54475,-10.1954
0.0457199,17.8865,-3.05087,-4.43706,-2.69151,-6.04295,18.111,1.15883,4.83148,1.52918,2.91664,4.60494,-8.52394,1.31143,1.51386,-6.42839,-6.95003,-6.69377,35.7041,-8.57679,-1.09389,13.3542,-4.77683,-0.382416,-2.34566e-14,-4.53229e-14,-34.6449,-40.0167,-60.1722,26.7433,-14.1886,-14.2625,-0.1828,7.12502,11.8759,-29.826,-2.34566e-14,-4.53229e-14,-46.1815,11.2368,75.3106,49.9329,10.8091,-9.88791,50.3636,7.12502,16.0916,79.7155,7.04001,4.72692,32.7411,21.4446,-16.3935,-14.258,8.42477,-26.0056,-6.47673,-11.7551,27.288,-5.18169,8.59808,-10.594
0.0459873,17.8935,-2.85696,-4.33201,-2.99851,-6.15553,17.9602,1.26682,4.88587,1.62002,3.05267,4.63323,-8.33916,1.37916,1.48275,-6.36521,-6.96176,-6.79042,35.4533,-8.59931,-1.01202,13.2415,-4.78898,-0.327582,3.27995e-15,5.56597e-15,-35.243,-39.6312,-60.1628,27.9246,-16.6566,-14.5048,-0.0697273,7.12502,11.6423,-29.7263,3.27995e-15,5.56597e-15,-46.6787,11.9035,74.8151,49.447,11.2621,-10.6969,50.1789,7.12502,15.3124,79.592,8.08904,4.7908,32.845,20.6516,-16.7675,-13.849,9.89557,-25.7353,-7.74,-11.0985,24.9645,-5.34579,9.97882,-11.2496
0.0462374,17.8881,-2.66458,-4.21903,-3.02042,-6.09011,17.8085,1.28497,4.79153,1.64396,3.04083,4.59947,-8.23172,1.37857,1.50501,-6.41762,-6.96206,-6.81021,35.3731,-8.57678,-1.04816,13.2161,-4.78552,-0.335319,1.5704e-14,1.66979e-14,-36.0808,-39.3821,-59.9532,29.1174,-18.9848,-14.4283,0.388693,7.12502,11.7161,-29.2637,1.5704e-14,1.66979e-14,-47.4215,12.4936,74.2984,49.3484,11.8286,-11.2129,50.9988,7.12502,14.8154,80.4492,9.03046,4.62939,32.7238,19.9994,-17.0801,-13.4928,10.5438,-25.6384,-8.91455,-10.7157,22.8796,-5.68818,11.1298,-11.9004
0.0486297,17.8781,-2.46654,-4.00366,-3.19655,-6.03611,17.6784,1.3602,4.69867,1.5592,3.11373,4.5544,-8.25427,1.41534,1.49331,-6.65191,-6.95423,-6.7675,35.5401,-8.53227,-1.13171,13.3311,-4.76923,-0.384356,-3.27995e-14,-3.57812e-14,-37.1023,-39.145,-59.6042,30.5523,-21.8304,-14.7019,-0.459034,7.12502,11.4523,-30.1262,-3.27995e-14,-3.57812e-14,-47.8979,13.3554,73.495,48.1703,11.4965,-11.3845,50.8236,7.12502,14.6501,80.2861,9.76228,4.55293,32.5946,19.4608,-16.8646,-13.3024,8.9827,-25.7079,-9.97625,-10.2694,21.1599,-6.25708,12.3621,-11.7671
0.0549717,17.8715,-2.25297,-3.92933,-3.52708,-5.77655,17.4997,1.46094,4.40639,1.56504,3.166,4.44844,-8.15753,1.45079,1.53434,-6.94117,-6.89544,-6.54446,35.7443,-8.38374,-1.40141,13.4493,-4.70775,-0.524731,4.12478e-14,5.40694e-14,-38.0785,-39.047,-59.1961,31.8053,-24.1845,-14.7693,-0.632872,7.12502,11.3873,-30.3037,4.12478e-14,5.40694e-14,-48.468,14.2482,72.6322,47.059,10.823,-11.3771,50.052,7.12502,14.6572,79.514,10.6059,4.50589,32.209,19.1829,-16.7342,-12.9984,6.79788,-25.5207,-10.7207,-10.2016,19.7949,-7.17388,13.5198,-11.4086
0.0569271,17.8632,-2.06782,-3.84986,-3.94245,-6.14883,17.6604,1.50121,4.64824,1.58479,3.28203,4.51802,-8.21608,1.49762,1.44197,-6.397,-6.91241,-6.73759,35.1649,-8.46857,-1.19606,13.1036,-4.7497,-0.382829,-4.87022e-15,-1.98785e-14,-38.6022,-39.1118,-59.0706,32.9464,-26.6106,-15.0676,-0.487872,7.12502,11.0996,-30.1743,-4.87022e-15,-1.98785e-14,-48.9228,15.0208,71.9455,46.1918,10.683,-11.9278,50.6376,7.12502,14.1265,80.1374,11.1917,4.78977,32.6586,19.2054,-16.7676,-12.9696,4.97818,-25.4739,-11.1325,-9.41469,18.8727,-8.68334,14.3638,-10.8085
0.0682241,17.8564,-1.84992,-3.79684,-4.08552,-5.7517,17.3012,1.5272,4.24122,1.66881,3.19204,4.37192,-7.93829,1.4717,1.54319,-6.41425,-6.86445,-6.64586,35.061,-8.40477,-1.22707,13.0516,-4.71482,-0.398882,-1.88845e-14,-1.27222e-14,-39.0243,-38.3669,-59.4454,34.7815,-30.5274,-16.2924,-1.35968,7.12502,9.91802,-31.106,-1.88845e-14,-1.27222e-14,-49.518,15.3206,71.602,45.8897,11.688,-13.3066,53.7531,7.12502,12.7977,83.3408,11.7587,4.68614,32.0818,19.515,-17.0304,-12.613,3.25323,-25.3186,-11.3716,-9.7645,18.337,-9.63931,14.8496,-11.4234
0.0706834,17.8302,-1.68653,-3.54937,-4.21519,-6.24599,17.5951,1.4619,4.59233,1.51579,3.21523,4.47858,-8.25605,1.4655,1.4483,-6.74587,-6.74213,-6.28145,35.1835,-8.16461,-1.56558,13.126,-4.60357,-0.574903,-9.34288e-15,-6.36111e-15,-39.5538,-37.4439,-59.7983,36.8495,-34.7363,-17.8295,-2.59233,7.12502,8.43485,-32.4039,-9.34288e-15,-6.36111e-15,-50.2849,16.1862,70.571,44.5843,10.8335,-12.7643,52.1073,7.12502,13.3204,81.6615,11.7794,5.05669,32.7224,20.0113,-17.0014,-12.7254,1.89916,-25.7525,-10.9061,-9.18026,18.2782,-9.96733,14.6667,-10.8428
0.07521,17.8076,-1.511,-3.38897,-4.29242,-6.30767,17.7465,1.43771,4.55736,1.46245,3.19051,4.4637,-8.39943,1.45136,1.45451,-6.23702,-6.69466,-6.31103,34.6008,-8.15329,-1.4501,12.7729,-4.59217,-0.483591,-1.95803e-14,1.19271e-14,-40.007,-37.1183,-59.834,38.5315,-38.0049,-19.2096,-3.55256,7.12502,7.10283,-33.4134,-1.95803e-14,1.19271e-14,-50.7646,16.9954,69.7002,43.1701,10.1165,-12.3626,51.523,7.12502,13.7075,81.0515,11.8645,5.27977,32.8264,20.6749,-16.9633,-12.7854,0.110747,-26.0372,-10.2169,-9.28176,18.492,-9.54463,14.3894,-9.49354
0.0866165,17.794,-1.31088,-3.28096,-4.31212,-6.13268,17.5813,1.42838,4.33942,1.49755,3.11507,4.40199,-8.27705,1.42449,1.53237,-6.89989,-6.65375,-6.04241,35.069,-7.99938,-1.783,13.0773,-4.52775,-0.678743,-5.06901e-15,2.94201e-14,-40.4029,-37.0096,-59.6927,39.9489,-40.3815,-20.3303,-4.38009,7.12502,6.02096,-34.2745,-5.06901e-15,2.94201e-14,-51.0713,17.7142,69.0921,41.9162,9.90038,-12.3623,52.2344,7.12502,13.7079,81.7629,11.9826,5.16406,32.5026,21.5759,-16.8398,-12.6138,-1.74498,-26.1825,-9.27891,-9.88536,19.0126,-8.66856,13.9664,-7.72009
0.103708,17.7847,-1.09571,-3.28814,-4.2194,-5.89712,17.3522,1.36663,4.10556,1.54192,2.9644,4.35058,-8.11011,1.36278,1.64953,-6.7331,-6.57264,-6.14097,34.9255,-7.90719,-1.67398,12.9886,-4.48794,-0.59634,-1.8487e-14,9.54166e-15,-41.0989,-36.5775,-59.4671,41.7662,-42.8951,-20.5493,-5.3257,7.12502,5.80946,-35.2261,-1.8487e-14,9.54166e-15,-51.5459,17.9387,68.9337,41.2381,10.5671,-13.0916,53.7865,7.12502,13.0049,83.3611,12.1814,5.06758,32.1546,22.6138,-16.7215,-12.4393,-3.12228,-26.2115,-8.27638,-10.6991,19.8044,-7.87732,13.4671,-6.95655
0.116233,17.7661,-0.885905,-3.35662,-3.93935,-5.79718,17.3722,1.19311,3.966,1.49204,2.71302,4.34154,-8.18051,1.24556,1.7785,-6.45267,-6.49041,-6.3232,34.7871,-7.81827,-1.53294,12.8853,-4.45784,-0.484347,-6.65929e-15,-2.46493e-14,-41.8602,-35.6109,-59.5005,43.9772,-46.2729,-21.6451,-6.22593,7.12502,4.75148,-36.1527,-6.65929e-15,-2.46493e-14,-52.2384,18.6463,67.9863,39.5788,9.42276,-12.3983,52.3638,7.12502,13.6731,81.8947,12.3711,4.99154,32.0661,23.7054,-16.6053,-12.3046,-3.49165,-26.3144,-7.30385,-11.3963,20.8393,-7.19161,12.8635,-6.79544
0.126171,17.7431,-0.681717,-3.54798,-3.90755,-5.95996,17.6886,1.06908,4.00447,1.46098,2.58613,4.40002,-8.39057,1.18083,1.84663,-6.08473,-6.40796,-6.36347,34.5121,-7.7347,-1.4759,12.6924,-4.42274,-0.421463,-1.07344e-14,-4.13472e-14,-42.5472,-34.6903,-59.6065,46.1194,-49.4892,-23.1802,-6.93639,7.12502,3.26904,-36.8911,-1.07344e-14,-4.13472e-14,-52.8251,19.3716,67.1726,38.2574,8.80197,-12.5502,53.0178,7.12502,13.5267,82.5584,12.6222,5.02841,32.292,24.9126,-16.2572,-12.2227,-4.24094,-26.2052,-6.22041,-11.7707,21.951,-6.65069,12.2589,-7.5518
0.141508,17.7348,-0.467344,-3.75694,-4.12994,-5.97058,17.872,1.10178,3.95447,1.55771,2.62352,4.38122,-8.38773,1.20011,1.84246,-6.37348,-6.37218,-6.04214,34.5268,-7.6532,-1.69795,12.7262,-4.37241,-0.560885,7.95139e-15,3.73715e-14,-43.2183,-34.3343,-59.4479,47.8681,-51.9457,-23.61,-7.42094,7.12502,2.85401,-37.3816,7.95139e-15,3.73715e-14,-53.1797,19.6339,66.7968,37.3327,8.51437,-12.449,53.8137,7.12502,13.6243,83.3479,12.8325,5.03576,32.2545,26.2653,-15.5368,-12.2004,-6.6002,-25.9952,-5.41902,-12.1915,23.1617,-6.15283,11.8685,-8.77072
0.167188,17.7438,-0.235291,-3.92202,-4.167,-5.58534,17.6666,1.09712,3.6964,1.70362,2.52755,4.20605,-8.11575,1.16394,1.82417,-6.54636,-6.35659,-5.79748,34.5168,-7.63075,-1.8116,12.7368,-4.34534,-0.648579,-2.0276e-14,-3.26007e-14,-43.895,-34.0536,-59.2052,49.4528,-53.9195,-22.9406,-7.78243,7.12502,3.50047,-37.7334,-2.0276e-14,-3.26007e-14,-53.4779,19.9445,66.2852,36.1331,7.68328,-11.8323,53.5766,7.12502,14.2186,83.0699,12.8893,4.71919,31.6046,27.7431,-14.5684,-11.8232,-8.90351,-25.805,-5.21056,-12.9772,24.372,-5.39404,11.432,-8.80563
0.192723,17.7404,-0.00635509,-4.14554,-3.98946,-5.49443,17.5925,0.947923,3.74137,1.7722,2.32422,4.13708,-7.99304,1.06505,1.77391,-6.47467,-6.28582,-5.57604,34.4747,-7.52007,-1.98617,12.6794,-4.29181,-0.732831,-6.4605e-15,3.18055e-15,-44.6912,-33.3128,-59.0493,51.3364,-56.206,-22.7335,-8.14955,7.12502,3.70049,-38.0972,-6.4605e-15,3.18055e-15,-53.9335,20.4051,65.5965,34.7755,6.77415,-11.4024,52.7779,7.12502,14.6328,82.2416,12.8442,4.26484,31.2936,29.4231,-13.5341,-11.2344,-8.661,-25.5391,-5.30237,-13.4063,25.3923,-4.17004,10.8293,-9.03872
0.216904,17.746,0.216566,-4.25193,-3.92691,-5.43252,17.589,0.808138,3.73663,1.71925,2.13972,4.11042,-8.04641,0.975088,1.79257,-6.27776,-6.1402,-5.33429,34.3137,-7.30436,-2.18426,12.5417,-4.19316,-0.806977,7.45443e-15,2.06736e-14,-45.613,-32.2851,-58.9484,53.469,-58.3765,-23.1297,-8.73766,7.12502,3.31783,-38.6916,7.45443e-15,2.06736e-14,-54.6085,20.8978,64.9538,33.6434,6.0408,-11.3103,52.3286,7.12502,14.7216,81.7859,12.4609,3.95462,30.9953,31.3769,-12.1866,-10.6032,-8.00813,-25.3551,-5.75561,-13.6058,26.1622,-2.81797,10.6819,-9.8882
0.238799,17.7587,0.435831,-4.38684,-3.94474,-5.09913,17.6596,0.746415,3.41617,1.70165,1.99455,4.02791,-8.11082,0.913882,1.9195,-6.12575,-6.02857,-5.33191,34.2532,-7.13728,-2.23627,12.4789,-4.12733,-0.797954,6.95746e-15,2.22639e-14,-46.4459,-31.2524,-58.9035,55.5802,-60.3296,-22.5105,-8.97803,7.12502,3.91576,-38.9218,6.95746e-15,2.22639e-14,-55.1714,21.1371,64.6486,32.8426,5.60596,-11.3264,53.0471,7.12502,14.706,82.5055,11.9248,3.72692,30.3718,33.5976,-10.5946,-9.94611,-8.06439,-25.0526,-6.26368,-14.0451,26.792,-1.89644,10.341,-10.8408
0.260394,17.7685,0.659649,-4.62595,-3.97991,-4.7825,17.786,0.715223,3.14714,1.74907,1.89498,3.90612,-8.13152,0.872698,1.96327,-6.07967,-5.95462,-5.41447,34.3297,-7.06799,-2.08807,12.5113,-4.09065,-0.720186,1.13307e-14,2.14687e-14,-47.246,-30.5405,-58.8152,57.4573,-62.0346,-21.7594,-8.97677,7.12502,4.64112,-38.9059,1.13307e-14,2.14687e-14,-55.5582,21.4833,64.1501,31.9292,4.74961,-10.7163,54.4285,7.12502,15.2938,83.8431,11.3062,3.59211,29.8147,36.081,-8.66686,-9.60476,-5.67914,-24.4368,-6.6801,-14.4849,27.2022,-1.30826,9.35838,-11.2216
0.283808,17.7759,0.885286,-4.92945,-4.03665,-4.57198,17.8741,0.731424,3.11319,1.89367,1.89248,3.74699,-8.01727,0.870794,1.80925,-6.14224,-5.91303,-5.43082,34.3131,-7.08604,-1.8213,12.5295,-4.06795,-0.620584,6.06293e-15,1.43125e-14,-47.918,-30.2507,-58.6913,59.1855,-63.4027,-21.3316,-9.39549,7.12502,5.05414,-39.3152,6.06293e-15,1.43125e-14,-55.6464,21.7818,63.641,30.8862,3.85633,-10.3592,54.7728,7.12502,15.6378,84.1607,10.5198,3.40512,29.3319,38.7367,-6.06605,-9.2361,-5.25898,-23.6831,-6.94951,-14.8458,27.4816,-0.627146,8.10585,-8.26463
0.306873,17.784,1.10808,-5.17592,-3.92268,-3.87359,17.8354,0.718605,2.50582,2.02293,1.72834,3.51342,-7.86278,0.808935,1.94083,-6.52982,-5.82426,-5.41612,34.3243,-6.98127,-1.68355,12.6175,-4.00126,-0.572923,9.44227e-15,4.77083e-14,-48.4676,-29.5921,-58.768,61.0638,-64.881,-20.9037,-9.68622,7.12502,5.46736,-39.5957,9.44227e-15,4.77083e-14,-55.6992,22.3387,63.0718,29.8233,2.86144,-10.4527,53.7991,7.12502,15.5476,83.1941,9.42403,3.0159,28.2234,41.4756,-2.70549,-8.69925,-5.16368,-22.9882,-7.1192,-15.8444,27.7723,0.066081,7.01157,-4.24639
0.325677,17.7883,1.32807,-5.32626,-3.5363,-3.04976,17.8074,0.598299,1.67439,1.98195,1.39087,3.2974,-7.89893,0.669512,2.26258,-6.21683,-5.76602,-5.6146,34.0029,-6.93629,-1.50357,12.4337,-3.9866,-0.445305,1.98785e-16,-2.62396e-14,-49.4065,-28.5073,-58.791,63.3157,-66.2761,-20.1125,-9.8638,7.12502,6.2312,-39.7522,1.98785e-16,-2.62396e-14,-56.0901,22.9422,62.3477,28.7127,1.74186,-10.4864,52.0859,7.12502,15.5153,81.4834,8.02367,2.37832,26.9187,44.3069,1.0717,-8.33566,-0.884458,-22.4929,-7.02798,-17.1077,28.2965,0.327145,6.14407,-1.87186
0.347556,17.7936,1.55545,-5.40661,-3.07946,-2.2347,17.6282,0.453726,0.952554,1.94223,1.03554,3.04888,-7.84004,0.517631,2.49144,-4.51052,-5.63054,-6.18472,32.0694,-7.01451,-0.583147,11.3651,-3.98423,0.0895687,-4.57205e-15,-1.51076e-14,-50.2733,-27.6355,-58.8644,65.5745,-67.4154,-19.0693,-10.3062,7.12502,7.23825,-40.1624,-4.57205e-15,-1.51076e-14,-56.5855,23.2843,61.7001,27.9096,0.926931,-10.3744,50.5423,7.12502,15.6231,79.9315,6.56257,1.68748,25.5393,47.0941,5.04448,-7.88246,3.61892,-21.9727,-6.95618,-18.3973,28.7964,0.150585,5.86719,-1.84407
0.364543,17.7936,1.73191,-5.31381,-3.13414,-2.61121,17.9764,0.318009,1.33479,1.77371,0.953603,3.11707,-8.2072,0.467561,2.37045,-3.83362,-5.47779,-6.45969,31.2036,-6.9277,-0.112833,10.9195,-3.92451,0.354857,1.19271e-15,-7.95139e-15,-50.9838,-26.8314,-59.0294,67.7605,-68.6636,-18.4279,-10.7241,7.12502,7.85734,-40.5581,1.19271e-15,-7.95139e-15,-57.0999,23.5478,61.2111,27.6567,0.394778,-10.1996,50.1102,7.12502,15.7914,79.486,4.54384,1.68952,25.7792,49.948,8.89969,-7.85591,6.81267,-21.884,-6.66062,-18.1269,29.4382,-0.10203,5.86096,-1.62628
0.394478,17.8039,1.96384,-5.61292,-3.12031,-1.84292,17.8698,0.271206,0.764432,1.8997,0.749307,2.85714,-8.00734,0.382833,2.46241,-3.73585,-5.32448,-6.49078,30.7696,-6.72984,-0.0296813,10.7291,-3.82736,0.421731,-9.93923e-17,-1.51076e-14,-51.6852,-26.223,-59.0284,69.9259,-69.879,-18.0213,-10.9989,7.12502,8.24975,-40.8179,-9.93923e-17,-1.51076e-14,-57.4629,23.625,61.0804,27.6453,0.0845729,-9.75617,49.8396,7.12502,16.2184,79.1812,3.25929,1.47971,24.4764,52.6906,12.1397,-7.51438,9.63928,-20.9952,-6.43715,-19.3251,30.0387,-0.858188,5.58827,-0.0781175
0.410996,17.8079,2.16291,-5.81901,-3.15863,-1.53453,18.1641,0.26695,0.504939,1.90966,0.690306,2.75994,-8.15762,0.36175,2.52168,-4.04167,-5.22868,-6.31869,30.7521,-6.54624,-0.208773,10.7601,-3.74225,0.339171,1.08338e-14,2.78299e-14,-52.542,-25.8206,-58.9087,72.3098,-70.9055,-17.6012,-10.9136,7.12502,8.65517,-40.7162,1.08338e-14,2.78299e-14,-57.7169,23.1428,61.47,28.0162,0.388785,-9.30645,49.3407,7.12502,16.6514,78.6464,1.62841,1.50898,23.9518,55.4758,15.5306,-8.20201,13.8908,-20.3345,-6.03015,-19.8971,30.5804,-1.49693,4.94804,2.08176
0.425767,17.8129,2.3665,-5.91067,-3.16965,-1.1599,18.2165,0.258303,0.181498,1.8963,0.605717,2.64699,-8.19919,0.330234,2.60559,-4.39167,-5.10902,-5.87308,30.7582,-6.26313,-0.754159,10.7813,-3.62186,0.0887445,-2.18663e-15,1.51076e-14,-53.4801,-25.4969,-58.7714,74.8548,-71.4236,-17.2815,-10.6483,7.12502,8.96372,-40.4379,-2.18663e-15,1.51076e-14,-57.9166,22.7093,61.8758,28.4497,0.885894,-9.17161,49.86,7.12502,16.7812,79.1547,-0.120637,1.5082,23.3819,58.1679,18.2253,-9.08113,16.1672,-19.6371,-5.71543,-20.5386,30.8387,-2.08905,4.44848,2.35766
0.434707,17.8256,2.56905,-6.03709,-3.08298,-0.601946,18.1663,0.274937,-0.396891,2.14629,0.493334,2.50355,-7.89756,0.288406,2.80526,-5.39978,-5.0436,-5.41897,30.7546,-6.03229,-1.24965,10.9338,-3.51579,-0.171472,8.34896e-15,1.66979e-14,-53.8853,-25.4858,-58.8529,77.3461,-71.0728,-16.9535,-10.373,7.12502,9.2802,-40.1488,8.34896e-15,1.66979e-14,-57.4857,22.8277,62.2621,28.6186,0.992753,-8.40093,50.2046,7.12502,17.523,79.4349,-1.845,1.40206,22.6605,60.8319,18.8576,-9.72373,13.8638,-18.8784,-5.49115,-21.3703,31.025,-2.48985,4.2392,2.33363
0.440682,17.8356,2.76964,-6.25999,-3.04984,0.0545022,18.3195,0.322294,-1.08442,2.20421,0.404794,2.34048,-7.91681,0.264275,3.04456,-5.4385,-4.91437,-5.34576,30.4722,-5.809,-1.40852,10.8189,-3.4214,-0.211305,2.5842e-15,6.36111e-15,-54.6456,-25.3508,-58.735,79.8383,-70.1581,-17.1066,-10.0769,7.12502,9.1325,-39.8591,2.5842e-15,6.36111e-15,-57.4105,22.6214,62.6265,28.9053,1.1633,-7.44623,50.0733,7.12502,18.4416,79.2191,-3.51182,1.28352,21.8563,63.4463,17.5227,-10.627,9.69342,-17.9778,-5.1575,-22.2879,31.1525,-3.06589,4.03915,2.2148
0.446384,17.8423,2.96539,-6.46157,-3.10179,0.703496,18.4882,0.405748,-1.70035,2.21057,0.373129,2.13901,-8.00228,0.266158,3.18813,-5.26338,-4.78125,-5.37343,30.1933,-5.63643,-1.36346,10.6762,-3.33893,-0.160547,2.78299e-15,2.38542e-15,-55.4338,-25.3923,-58.5377,82.2305,-69.146,-17.3047,-9.84484,7.12502,8.94137,-39.6354,2.78299e-15,2.38542e-15,-57.353,21.9034,63.2944,29.6346,1.64902,-7.0469,50.4218,7.12502,18.8257,79.5308,-5.15366,1.20143,21.1016,65.915,15.9466,-11.472,8.03462,-17.0293,-4.78815,-23.18,31.1097,-3.90477,3.9898,0.4896
0.454174,17.8445,3.14879,-6.59271,-3.32987,1.2181,18.7483,0.498263,-2.07369,2.19729,0.395515,1.90295,-8.16102,0.287367,3.14231,-5.30215,-4.61254,-5.23271,29.9526,-5.40669,-1.39173,10.5796,-3.21962,-0.165607,1.36167e-14,1.59028e-14,-56.163,-25.5004,-58.4622,84.6011,-68.1635,-17.3112,-9.67565,7.12502,8.93503,-39.4665,1.36167e-14,1.59028e-14,-57.1118,21.2055,63.9106,30.387,2.13418,-6.6593,51.1037,7.12502,19.1985,80.1761,-6.68583,1.20017,20.5436,68.2224,13.7209,-11.9864,8.58592,-16.1895,-4.59389,-23.8793,30.9906,-4.21194,4.28535,-2.51062
