JuanDHNZ/ProyectoFinalCD/preprocessing/sports_trials_csv/06_15.csv
root1,root2,root3,root4,root5,root6,lowerback1,lowerback2,lowerback3,upperback1,upperback2,upperback3,thorax1,thorax2,thorax3,lowerneck1,lowerneck2,lowerneck3,upperneck1,upperneck2,upperneck3,head1,head2,head3,rclavicle1,rclavicle2,rhumerus1,rhumerus2,rhumerus3,rradius1,rwrist1,rhand1,rhand2,rfingers1,rthumb1,rthumb2,lclavicle1,lclavicle2,lhumerus1,lhumerus2,lhumerus3,lradius1,lwrist1,lhand1,lhand2,lfingers1,lthumb1,lthumb2,rfemur1,rfemur2,rfemur3,rtibia1,rfoot1,rfoot2,rtoes1,lfemur1,lfemur2,lfemur3,ltibia1,lfoot1,lfoot2,ltoes1
-2.72211,18.1995,6.68313,176.398,-1.71663,-177.812,17.3894,1.32539,-4.06415,-1.41902,1.21071,3.83925,-11.5809,0.928598,6.27747,-6.15657,5.73776,0.230705,26.3061,7.46328,-6.04327,9.54067,2.01432,-1.52951,4.21175e-15,-1.66979e-14,-80.4289,-62.262,29.8064,61.2508,-77.0333,-18.625,1.57431,7.12502,7.66713,-28.2667,4.21175e-15,-1.66979e-14,-44.8817,9.72613,73.6272,45.4126,8.23197,-7.63576,53.8562,7.12502,18.2593,83.0192,-0.654017,5.21274,18.3677,24.6722,-16.4494,-17.0809,4.14771,-1.12225,-7.17141,-20.1033,23.7332,-14.8189,7.66789,-11.3347
-2.72287,18.1982,6.67942,176.363,-1.61503,-177.943,17.4001,1.33561,-4.25623,-1.38234,1.1812,3.80467,-11.5455,0.924517,6.3574,-6.8738,5.34494,0.0047041,26.923,6.965,-6.13139,9.87728,1.69074,-1.5704,-6.78353e-15,4.45278e-14,-79.9743,-62.241,29.2512,61.1609,-76.8139,-18.5711,1.82597,7.12502,7.71909,-28.0131,-6.78353e-15,4.45278e-14,-44.9804,9.84046,73.6393,45.2869,8.22166,-7.78926,53.0844,7.12502,18.1116,82.2611,-0.699551,5.1994,18.2023,24.8192,-16.4911,-17.1312,3.5456,-0.996025,-7.11498,-20.265,23.6519,-14.8154,7.71949,-11.1061
-2.72383,18.1966,6.68133,176.3,-1.60056,-177.988,17.4652,1.30301,-4.35699,-1.29156,1.10815,3.78434,-11.4713,0.889614,6.41207,-7.44846,4.91006,-0.363245,27.3719,6.38477,-6.02423,10.1142,1.35465,-1.53152,2.77056e-15,-3.97569e-15,-79.7736,-62.4175,28.8869,61.0775,-76.4344,-18.6867,2.10567,7.12502,7.60753,-27.7375,2.77056e-15,-3.97569e-15,-44.944,9.89672,73.6826,45.2278,8.2948,-7.82222,52.5186,7.12502,18.0799,81.6983,-0.663799,5.19243,18.1434,24.8737,-16.601,-17.0678,3.70603,-0.924801,-7.07155,-20.3225,23.6537,-14.8273,7.69681,-11.1163
-2.72512,18.1956,6.68504,176.248,-1.54159,-178.053,17.585,1.2861,-4.47692,-1.25518,1.05178,3.74606,-11.4929,0.868984,6.45514,-7.4221,4.38573,-0.568453,27.3326,5.67167,-6.15761,10.068,0.983422,-1.62303,-3.65267e-15,-1.11319e-14,-79.4371,-62.3858,28.3563,61.04,-76.2225,-18.8305,1.72764,7.12502,7.46879,-28.1205,-3.65267e-15,-1.11319e-14,-45.0836,9.84599,73.7036,45.2881,8.42991,-7.90624,52.4281,7.12502,17.9991,81.6152,-0.658989,5.2462,18.0724,24.9205,-16.6068,-16.9873,3.65827,-0.885933,-7.09406,-20.4131,23.6879,-14.8435,7.76104,-11.0414
-2.72515,18.1948,6.69054,176.191,-1.39203,-177.883,17.6779,1.27375,-4.38944,-1.20975,1.04976,3.80604,-11.4944,0.860582,6.47372,-7.32491,3.84332,-0.926764,27.2277,4.93938,-6.23873,9.97896,0.59753,-1.66996,-5.97596e-15,1.51076e-14,-78.9888,-62.3098,27.748,61.0053,-76.0655,-18.5591,1.29109,7.12502,7.73075,-28.5476,-5.97596e-15,1.51076e-14,-45.207,9.82979,73.7521,45.2567,8.56042,-8.22301,52.0386,7.12502,17.6943,81.2535,-0.653283,5.38172,18.2817,24.925,-16.5546,-17.0651,3.8627,-0.878186,-7.01447,-20.2261,23.7625,-14.8596,7.83644,-11.2058
-2.72445,18.1934,6.69577,176.195,-1.32104,-177.794,17.601,1.24681,-4.37107,-1.08506,1.01432,3.83582,-11.3035,0.830711,6.50241,-7.56863,3.36862,-1.14105,27.2219,4.33698,-6.36915,10.0037,0.280177,-1.74182,-7.57867e-16,3.49861e-14,-79.3447,-62.6487,27.9729,60.9774,-75.3916,-18.0535,1.23264,7.12502,8.21872,-28.5875,-7.57867e-16,3.49861e-14,-45.0896,9.89638,73.8071,45.2136,8.55069,-8.22459,52.0853,7.12502,17.6927,81.3004,-0.688528,5.42114,18.3882,24.9024,-16.5038,-17.0403,4.34436,-0.937288,-7.00271,-20.1179,23.8311,-14.8655,7.85648,-11.1845
-2.72305,18.1922,6.69618,176.227,-1.29047,-177.795,17.4472,1.20576,-4.47421,-0.979377,0.939364,3.85829,-11.087,0.790243,6.6031,-7.28809,2.83638,-1.54112,26.8335,3.61979,-6.38286,9.77873,-0.0681643,-1.74547,1.04113e-14,-3.33958e-14,-80.0772,-63.1252,28.7205,60.9085,-74.525,-17.6574,1.07984,7.12502,8.60094,-28.725,1.04113e-14,-3.33958e-14,-45.0953,10.0129,73.8365,45.2789,8.43612,-7.95357,52.5694,7.12502,17.9535,81.7607,-0.721436,5.35357,18.3745,24.8853,-16.4302,-16.9219,4.26233,-0.985115,-7.02723,-20.1114,23.8896,-14.8835,7.86152,-10.9581
-2.72587,18.1911,6.69396,176.213,-1.25717,-177.788,17.4201,1.15746,-4.47244,-0.948128,0.874423,3.86824,-11.0265,0.7558,6.62961,-6.96417,2.37721,-1.88325,26.4803,2.97298,-6.30641,9.56414,-0.37018,-1.71774,7.85199e-15,-1.51076e-14,-80.1874,-63.2208,28.869,60.783,-74.102,-17.4267,1.19572,7.12502,8.82361,-28.5998,7.85199e-15,-1.51076e-14,-45.2802,10.0393,73.8557,45.3875,8.34683,-7.74309,52.9747,7.12502,18.156,82.1474,-0.709785,5.2092,18.335,24.9196,-16.4199,-16.768,3.8266,-0.936484,-7.11467,-20.1425,23.9017,-14.9574,7.94676,-10.5095
-2.7291,18.1898,6.69331,176.214,-1.24971,-177.856,17.4267,1.12621,-4.52137,-0.869724,0.816362,3.85013,-10.9335,0.723759,6.65146,-7.21802,1.93307,-2.27668,26.4996,2.3907,-6.16967,9.59894,-0.664112,-1.66124,-4.5969e-15,-7.95139e-16,-80.0817,-63.293,28.6676,60.7411,-73.9124,-17.2106,1.58263,7.12502,9.03216,-28.204,-4.5969e-15,-7.95139e-16,-45.2638,10.095,73.9104,45.383,8.19084,-7.67977,53.3405,7.12502,18.2169,82.5075,-0.728355,5.02857,18.2014,24.976,-16.4235,-16.5097,3.83826,-0.918479,-7.18714,-20.255,23.9033,-14.9926,8.02711,-10.6792
-2.72923,18.188,6.69687,176.235,-1.24997,-177.944,17.496,1.13021,-4.60593,-0.796883,0.795422,3.81951,-10.889,0.713092,6.67141,-7.41723,1.49092,-2.66055,26.4335,1.8171,-6.03531,9.59666,-0.944132,-1.60437,3.67752e-15,5.56597e-15,-80.0507,-63.2323,28.5337,60.7705,-73.7946,-16.9401,1.64944,7.12502,9.2931,-28.1257,3.67752e-15,5.56597e-15,-45.1996,10.0289,73.9972,45.3548,8.06915,-7.49721,53.3096,7.12502,18.3926,82.46,-0.808594,4.93796,18.0774,25.0546,-16.4533,-16.3339,4.29689,-0.95854,-7.15032,-20.339,23.9217,-14.9803,7.98456,-10.8243
-2.72569,18.185,6.70273,176.263,-1.15138,-177.854,17.6193,1.12768,-4.59166,-0.822486,0.792216,3.8445,-10.9886,0.715345,6.69566,-7.21667,1.19367,-2.76012,26.1789,1.40441,-6.07471,9.45863,-1.13229,-1.63442,-4.72114e-16,-4.69132e-14,-79.2683,-62.784,27.5899,60.8242,-74.0702,-16.7427,1.81041,7.12502,9.48359,-27.9562,-4.72114e-16,-4.69132e-14,-45.3543,9.93291,73.9982,45.3383,8.04716,-7.39124,52.8445,7.12502,18.4945,81.9853,-0.934651,4.9705,18.1844,25.1468,-16.4113,-16.3375,4.36626,-1.0248,-7.0541,-20.2017,23.9789,-14.9912,7.94545,-10.8147
-2.72296,18.1834,6.70856,176.259,-1.06493,-177.686,17.8772,1.10366,-4.48334,-0.933766,0.780895,3.90128,-11.2602,0.718174,6.70878,-7.09553,1.01212,-2.83783,26.0891,1.14209,-6.08856,9.39814,-1.26046,-1.64925,5.71506e-16,-3.4191e-14,-78.3944,-62.2141,26.6266,60.8679,-74.1454,-16.3759,2.04614,7.12502,9.8375,-27.7041,5.71506e-16,-3.4191e-14,-45.7496,9.85444,73.9752,45.4915,8.05877,-7.41043,52.4691,7.12502,18.476,81.6116,-1.04197,4.9741,18.3741,25.2477,-16.3781,-16.3882,3.72184,-1.06829,-6.98016,-19.9846,24.0443,-15.0057,7.91715,-10.9441
-2.72014,18.1833,6.71715,176.272,-1.10023,-177.621,17.8407,1.0437,-4.44745,-0.842682,0.704235,3.92347,-11.1241,0.67028,6.73093,-7.02944,0.768249,-2.97835,25.7325,0.831803,-6.03533,9.25284,-1.38015,-1.62465,-4.27387e-15,-2.14687e-14,-78.7138,-62.356,26.9633,60.737,-73.2171,-15.5642,2.04084,7.12502,10.6205,-27.6708,-4.27387e-15,-2.14687e-14,-45.8311,9.77647,74.0454,45.7814,8.20808,-7.49272,52.8784,7.12502,18.3969,82.0284,-1.14251,4.89566,18.4483,25.3324,-16.4126,-16.3897,3.47731,-1.17766,-6.9804,-19.8767,24.1337,-14.9829,7.85077,-11.1246
-2.71963,18.1832,6.72576,176.322,-1.06115,-177.689,18.0837,1.02615,-4.50399,-0.913379,0.661525,3.88928,-11.3377,0.663647,6.74457,-6.75958,0.50693,-2.98064,25.2548,0.487065,-6.12841,9.02759,-1.51372,-1.67207,1.59028e-15,-7.95139e-16,-78.9816,-62.3489,27.2997,60.598,-72.2248,-15.0083,2.12751,7.12502,11.1568,-27.5559,1.59028e-15,-7.95139e-16,-46.015,9.74005,74.0189,45.8562,8.19633,-7.37518,53.3015,7.12502,18.51,82.4409,-1.27965,4.87206,18.3584,25.4331,-16.3801,-16.2716,3.80217,-1.2771,-7.02913,-19.9499,24.1834,-14.9706,7.89503,-10.9595
-2.71976,18.1775,6.73339,176.337,-0.964729,-177.661,18.4052,1.01876,-4.46285,-0.983626,0.650825,3.88871,-11.6003,0.667675,6.73297,-6.5275,0.270102,-2.91468,24.7958,0.175412,-6.23428,8.81772,-1.62783,-1.7316,3.32964e-15,-7.15625e-15,-79.1062,-62.2914,27.456,60.6383,-71.463,-14.6558,2.03842,7.12502,11.4967,-27.6263,3.32964e-15,-7.15625e-15,-46.1525,9.81955,73.9333,45.8161,8.12927,-7.34932,53.174,7.12502,18.5348,82.3109,-1.36906,4.83066,18.3669,25.5034,-16.3658,-16.0571,4.51871,-1.31174,-7.01502,-19.908,24.2248,-15.0175,7.91763,-10.7202
-2.71747,18.1741,6.74228,176.342,-0.950947,-177.64,18.7145,1.0124,-4.46978,-1.01922,0.631395,3.91442,-11.8169,0.668052,6.78115,-6.46493,0.176689,-3.06434,24.331,0.095194,-6.17249,8.64474,-1.63123,-1.67622,4.47266e-16,-4.69132e-14,-79.6073,-62.3157,28.074,60.7269,-70.5859,-13.77,1.48029,7.12502,12.3509,-28.1349,4.47266e-16,-4.69132e-14,-46.2847,9.78342,73.956,45.9191,8.11077,-7.25726,53.5132,7.12502,18.6234,82.6417,-1.45814,4.85963,18.3941,25.5706,-16.3896,-16.0702,5.10344,-1.32358,-7.04719,-19.8582,24.245,-15.0657,7.8544,-10.4089
-2.7144,18.1779,6.74982,176.332,-0.831898,-177.572,18.9698,1.05859,-4.44379,-1.00602,0.689901,3.9643,-11.9589,0.698132,6.81281,-6.15338,-0.0835228,-3.37334,24.1102,-0.357181,-5.61713,8.50455,-1.79367,-1.46554,-5.11871e-15,-2.38542e-15,-80.0456,-62.2937,28.6755,60.7163,-69.7195,-12.4814,1.0666,7.12502,13.593,-28.4696,-5.11871e-15,-2.38542e-15,-46.2907,9.7098,74.0139,45.9466,8.09963,-7.15268,53.6342,7.12502,18.724,82.7531,-1.54222,5.03142,18.4969,25.6164,-16.3831,-16.1888,4.66353,-1.34104,-7.0751,-19.7758,24.2682,-15.0514,7.93126,-10.4094
-2.71268,18.1799,6.75614,176.415,-0.68703,-177.61,18.9857,1.0952,-4.51126,-0.932221,0.719354,3.98415,-11.89,0.7104,6.86492,-6.42828,-0.252663,-3.6503,23.8518,-0.499226,-5.56287,8.46853,-1.8511,-1.40749,-7.33018e-15,9.54166e-15,-79.7586,-62.143,28.3746,60.8484,-69.3972,-12.0866,1.21129,7.12502,13.9736,-28.2991,-7.33018e-15,9.54166e-15,-46.1591,9.71612,74.0481,45.8167,8.14491,-7.20808,53.1249,7.12502,18.6707,82.2489,-1.70868,5.08465,18.4462,25.6907,-16.4389,-16.0027,4.6118,-1.43366,-7.08717,-19.8116,24.2495,-15.0315,8.06875,-10.0687
-2.71208,18.1768,6.75767,176.483,-0.614446,-177.632,18.804,1.07215,-4.51982,-0.786718,0.683875,3.98794,-11.614,0.676761,6.87567,-6.74756,-0.288778,-3.59764,23.5616,-0.479392,-5.50049,8.42851,-1.79431,-1.3867,-1.19271e-15,-1.59028e-15,-79.117,-61.8751,27.5784,61.0774,-69.1146,-12.1236,1.36231,7.12502,13.9379,-28.1505,-1.19271e-15,-1.59028e-15,-45.9633,9.75101,74.0394,45.675,8.18899,-7.11215,52.8655,7.12502,18.763,81.9806,-1.83292,4.92766,18.3829,25.7727,-16.4187,-15.8835,4.20744,-1.4618,-7.0737,-19.8191,24.2401,-15.1555,8.02861,-9.29058
-2.7091,18.1752,6.76233,176.556,-0.568387,-177.738,18.7252,1.03954,-4.62712,-0.67154,0.612428,3.99673,-11.4286,0.637264,6.96367,-6.63027,-2.54041,-3.25162,22.558,0.0183878,-6.23282,8.09588,-0.189952,-1.42876,4.00054e-15,7.95139e-16,-78.4303,-61.737,26.8623,61.2217,-68.5858,-11.5884,1.55773,7.12502,14.4536,-27.9189,4.00054e-15,7.95139e-16,-45.7006,10.0061,74.0277,45.4345,8.19399,-7.24833,52.8944,7.12502,18.632,82.0221,-2.03052,4.97014,18.261,25.9029,-16.4662,-16.0474,4.18342,-1.5203,-7.04192,-19.9128,24.222,-15.1247,8.00448,-9.16269
-2.70417,18.1756,6.77253,176.649,-0.575468,-177.796,18.7785,1.02027,-4.70488,-0.579893,0.562637,4.03696,-11.3492,0.61093,7.06842,-6.43682,-2.62294,-3.34073,21.6097,-0.281142,-6.25971,7.73765,-0.360364,-1.44126,-1.73937e-15,1.74931e-14,-77.6895,-61.5664,26.1445,61.36,-68.1394,-10.9838,1.81905,7.12502,15.0361,-27.615,-1.73937e-15,1.74931e-14,-45.6087,10.113,74.0945,45.476,8.28152,-7.39976,52.8389,7.12502,18.4863,81.9805,-2.27352,4.9906,18.1981,26.04,-16.5057,-16.0614,4.59351,-1.66272,-6.99673,-19.9285,24.2076,-15.0233,7.9217,-9.53891
-2.70254,18.1737,6.7768,176.728,-0.614069,-177.84,18.8104,0.949375,-4.68345,-0.529733,0.46634,4.03308,-11.2946,0.558665,7.07819,-6.16542,-2.79486,-3.84434,20.6754,-0.720907,-5.91615,7.38018,-0.595886,-1.27267,-4.87022e-15,7.95139e-15,-76.2416,-60.9312,24.6052,61.5444,-68.1051,-10.6825,2.076,7.12502,15.3264,-27.3361,-4.87022e-15,7.95139e-15,-45.8362,9.97545,74.1136,45.8942,8.62791,-7.49439,53.1829,7.12502,18.3953,82.3332,-2.44897,4.88049,18.1224,26.1721,-16.5561,-15.8864,4.63385,-1.77748,-7.07084,-19.9692,24.2105,-14.9797,7.95268,-9.81909
-2.69924,18.1738,6.78045,176.751,-0.567891,-177.888,18.9633,0.924114,-4.71205,-0.512008,0.418616,4.05443,-11.355,0.538768,7.13715,-5.55707,-2.76969,-3.63932,19.5194,-0.883311,-6.13871,6.88639,-0.67132,-1.37552,-1.05853e-14,2.70347e-14,-74.7335,-60.1344,23.0485,61.8,-67.9808,-10.4465,2.06157,7.12502,15.5537,-27.333,-1.05853e-14,2.70347e-14,-46.1159,9.86479,74.1556,46.3445,8.82421,-7.51546,53.7358,7.12502,18.375,82.8879,-2.56933,4.73386,18.0419,26.3088,-16.6266,-15.6716,4.56547,-1.81209,-7.08925,-20.0106,24.1979,-14.9753,8.01163,-9.69739
-2.69292,18.1747,6.79016,176.783,-0.538228,-177.877,19.1521,0.933189,-4.72147,-0.422452,0.41466,4.0997,-11.3614,0.532049,7.19904,-5.64837,-2.8053,-3.60665,18.9543,-1.06807,-6.06844,6.71599,-0.771532,-1.36991,-7.30534e-15,2.46493e-14,-74.1851,-59.8136,22.5021,62.0907,-67.1706,-10.0471,1.99733,7.12502,15.9383,-27.3669,-7.30534e-15,2.46493e-14,-46.1505,9.81075,74.2363,46.7,8.95984,-7.80948,53.8457,7.12502,18.0921,83.0243,-2.71401,4.7915,18.0843,26.4424,-16.7192,-15.6748,4.90878,-1.85825,-6.99345,-19.9374,24.1638,-14.9838,7.89065,-9.289
-2.68911,18.173,6.79356,176.804,-0.609217,-178.164,19.2304,0.90836,-4.99796,-0.316094,0.306195,4.04903,-11.2699,0.487418,7.33342,-5.88251,-2.79365,-3.77415,18.5342,-1.19444,-5.70845,6.62423,-0.841346,-1.23736,1.59028e-15,3.26007e-14,-73.6163,-59.5647,21.9206,62.4422,-66.3088,-9.42486,2.1153,7.12502,16.5374,-27.2,1.59028e-15,3.26007e-14,-46.1657,9.84668,74.2076,46.8188,8.85388,-7.93847,53.6735,7.12502,17.968,82.8635,-2.79477,4.72992,17.7692,26.5692,-16.8318,-15.6702,5.23192,-1.86179,-7.00877,-20.2283,24.1107,-14.9611,7.78581,-9.1033
-2.68564,18.1734,6.79754,176.838,-0.536869,-178.324,19.3664,0.882811,-5.15897,-0.324514,0.229923,4.04522,-11.3459,0.464618,7.45037,-5.80911,-2.60034,-3.76504,18.0381,-1.06753,-5.48307,6.45371,-0.771186,-1.15355,1.2921e-15,-1.98785e-14,-72.3572,-58.9233,20.6196,62.9113,-65.728,-8.98202,2.35686,7.12502,16.9637,-26.9224,1.2921e-15,-1.98785e-14,-46.2497,9.99409,74.0941,46.6151,8.7736,-7.91014,53.8195,7.12502,17.9953,83.007,-2.91422,4.80959,17.606,26.676,-16.8671,-15.6899,5.09345,-1.89124,-6.95424,-20.3838,24.0553,-14.8711,7.83184,-9.59516
-2.68117,18.1765,6.80588,176.828,-0.393426,-178.312,19.6053,0.87394,-5.16941,-0.305013,0.204858,4.12264,-11.4567,0.456653,7.56088,-5.78994,-2.42408,-3.86023,17.5185,-0.930826,-5.33171,6.28742,-0.70798,-1.0767,6.70898e-15,5.56597e-15,-70.7324,-58.1806,18.9749,63.4726,-64.9855,-8.92664,2.50133,7.12502,17.0171,-26.7733,6.70898e-15,5.56597e-15,-46.3167,10.0974,74.0894,46.5416,8.8508,-7.73721,53.9251,7.12502,18.1617,83.0972,-3.04318,4.9029,17.6421,26.7625,-16.8219,-15.7316,4.7566,-1.91369,-6.844,-20.3461,24.0081,-14.7652,7.9292,-10.0526
-2.67784,18.1763,6.80833,176.827,-0.266657,-178.31,19.7551,0.846601,-5.17155,-0.300061,0.163185,4.20676,-11.5303,0.440246,7.67692,-5.7005,-2.28872,-3.98592,17.0737,-0.818142,-5.23888,6.13318,-0.656507,-1.01526,-7.85199e-15,-1.11319e-14,-69.4053,-57.5069,17.6776,64.1943,-64.0714,-8.43129,2.44027,7.12502,17.4938,-26.7926,-7.85199e-15,-1.11319e-14,-46.6582,10.07,74.1441,46.8454,9.11459,-7.89284,53.9108,7.12502,18.0119,83.0968,-3.12166,4.91565,17.6429,26.8255,-16.9121,-15.6399,5.01951,-1.90793,-6.90015,-20.3496,24.0042,-14.6993,8.06045,-9.77871
-2.67578,18.1746,6.81081,176.864,-0.119016,-178.278,19.9093,0.838272,-5.06683,-0.285962,0.168,4.25699,-11.6026,0.437467,7.67736,-5.64122,-2.1699,-4.21031,16.6366,-0.74695,-4.9813,5.98819,-0.622084,-0.88961,1.21756e-14,-5.1684e-14,-68.4487,-56.9321,16.7191,65.0246,-63.2009,-7.59059,2.55505,7.12502,18.3027,-26.6039,1.21756e-14,-5.1684e-14,-46.8069,9.98174,74.1657,46.9278,9.27929,-8.11842,53.8777,7.12502,17.7949,83.0835,-3.23563,4.90081,17.6565,26.9055,-16.9456,-15.4612,5.48241,-1.92413,-6.97336,-20.3205,24.0091,-14.6825,8.15261,-9.99498
-2.67427,18.1733,6.81532,176.924,0.0921723,-178.33,19.9784,0.520301,-5.13612,-0.17223,0.252031,4.27497,-11.5076,0.691312,7.66684,-5.69067,-1.97699,-4.53295,16.0702,-0.600831,-4.60373,5.82259,-0.554078,-0.706611,-1.08835e-14,-2.38542e-14,-67.4979,-56.5696,15.6887,65.9443,-62.1353,-6.67815,2.54551,7.12502,19.1803,-26.5287,-1.08835e-14,-2.38542e-14,-46.6326,10.0332,74.1573,46.7763,9.33816,-8.17979,53.546,7.12502,17.7358,82.7572,-3.41719,4.95807,17.5795,27.0184,-16.942,-15.3216,5.47011,-1.97149,-6.9017,-20.3778,24.001,-14.5982,8.28629,-10.525
-2.67266,18.1696,6.81776,176.946,0.264287,-178.423,19.9654,0.46117,-5.14754,-0.0534141,0.183657,4.29909,-11.3524,0.654584,7.71586,-5.71059,-1.86656,-4.59233,15.4408,-0.570953,-4.43525,5.62815,-0.540193,-0.640833,7.7526e-15,-7.95139e-16,-66.1193,-55.9829,14.0933,67.0035,-60.8715,-6.01226,2.45195,7.12502,19.8206,-26.5574,7.7526e-15,-7.95139e-16,-46.6157,10.1157,74.1479,46.7933,9.43324,-8.22717,52.9977,7.12502,17.6902,82.213,-3.55319,4.92029,17.451,27.15,-16.8748,-15.1998,5.01308,-1.94915,-6.87186,-20.4931,23.9835,-14.6343,8.40342,-10.1882
-2.66833,18.1688,6.82303,176.977,0.385378,-178.455,20.0235,0.379728,-5.11962,0.0588501,0.0936626,4.32111,-11.241,0.607993,7.74793,-6.3694,-1.71221,-4.26069,15.324,-0.404638,-4.51855,5.70095,-0.472993,-0.715765,9.54166e-15,-7.39479e-14,-64.4141,-54.9809,11.9985,68.2566,-59.8697,-6.07202,2.83311,7.12502,19.7631,-26.1822,9.54166e-15,-7.39479e-14,-46.5991,10.1673,74.0848,46.782,9.55116,-8.24829,52.9668,7.12502,17.6699,82.1839,-3.7382,4.90111,17.4082,27.3162,-16.8471,-15.1077,4.66221,-1.9521,-6.93503,-20.5309,23.9188,-14.5548,8.56583,-10.2633
-2.66371,18.1717,6.82887,177.054,0.463967,-178.568,20.0714,0.313386,-5.17855,0.191123,5.74692e-05,4.31884,-11.1005,0.56142,7.80326,-6.66649,-1.54427,-4.45349,15.0962,-0.234713,-4.21851,5.6821,-0.395039,-0.580585,-8.44835e-15,3.65764e-14,-62.9919,-54.1978,10.2097,69.6681,-58.8834,-5.80551,2.69662,7.12502,20.0193,-26.2921,-8.44835e-15,3.65764e-14,-46.4427,10.1702,74.0663,46.8247,9.70608,-8.17635,53.6648,7.12502,17.7391,82.8757,-3.95286,4.86685,17.2726,27.4778,-16.8698,-15.0089,5.13158,-2.02507,-7.02651,-20.6467,23.8249,-14.39,8.71325,-10.7868
-2.6583,18.1697,6.83239,177.132,0.590133,-178.765,20.052,0.237311,-5.31537,0.35472,-0.124849,4.29705,-10.8808,0.498596,7.88745,-7.12333,-1.28473,-4.53741,14.7833,0.0557855,-4.00797,5.66198,-0.262171,-0.483556,1.88845e-15,1.82882e-14,-61.6612,-53.7752,8.60191,71.0703,-57.5481,-5.14583,2.5759,7.12502,20.6533,-26.3452,1.88845e-15,1.82882e-14,-46.3498,10.2654,74.0492,47.0667,9.88972,-8.15115,54.3826,7.12502,17.7634,83.5912,-4.14655,4.96683,17.0604,27.6329,-17.0092,-14.9012,5.86991,-2.04584,-7.02729,-20.8505,23.6872,-14.2786,8.84749,-11.3549
-2.65077,18.1678,6.83845,177.155,0.837511,-178.871,20.1093,0.205847,-5.36623,0.477188,-0.171227,4.29159,-10.7651,0.474492,7.92125,-7.33067,-1.04421,-4.31902,14.3033,0.306165,-4.08669,5.54518,-0.141914,-0.527312,-4.37326e-15,-9.54166e-15,-60.5163,-53.4147,7.18388,72.4274,-55.8525,-4.86902,2.88772,7.12502,20.9193,-26.0043,-4.37326e-15,-9.54166e-15,-46.3991,10.2573,74.0165,47.2371,10.1258,-8.05557,54.4091,7.12502,17.8554,83.6094,-4.3261,5.1935,16.9801,27.771,-16.9496,-14.9456,5.52883,-1.96411,-6.93137,-20.949,23.5196,-14.17,8.99266,-11.608
-2.64598,18.1698,6.84177,177.118,1.11654,-179.072,20.2486,0.234178,-5.48886,0.4588,-0.178081,4.23997,-10.8628,0.479343,7.94272,-7.16689,-0.959019,-3.93709,13.965,0.358385,-4.31123,5.40987,-0.107516,-0.655311,6.95746e-16,2.14687e-14,-59.3318,-52.5516,5.68079,73.9368,-54.3285,-4.50286,2.93011,7.12502,21.271,-25.9227,6.95746e-16,2.14687e-14,-46.876,10.0593,73.9694,47.5362,10.17,-7.97358,53.8656,7.12502,17.9343,83.0587,-4.44848,5.31419,16.7576,27.8926,-16.8846,-14.8189,4.77863,-1.78352,-6.87989,-21.1806,23.341,-14.0941,9.17611,-11.5501
-2.64609,18.1706,6.841,177.075,1.37688,-179.171,20.3685,0.20392,-5.39235,0.63012,-0.184455,4.22468,-10.7337,0.466849,7.86658,-7.78179,-0.917364,-3.89277,13.798,0.385142,-4.25858,5.46227,-0.109754,-0.6472,-3.67752e-15,2.38542e-14,-57.7885,-51.638,3.69274,75.7116,-53.1941,-4.04692,2.84332,7.12502,21.7089,-25.9595,-3.67752e-15,2.38542e-14,-46.8499,9.96803,74.079,47.6274,10.0941,-8.24634,53.28,7.12502,17.6718,82.4969,-4.50085,5.31958,16.6221,27.9984,-16.8241,-14.5996,4.39994,-1.5902,-6.86827,-21.3241,23.1686,-14.0812,9.36656,-11.621
-2.64817,18.1707,6.84148,177.115,1.56542,-179.146,20.3696,0.0833013,-5.12353,0.753383,-0.268412,4.21574,-10.5803,0.407976,7.71612,-8.22204,-0.782283,-3.9553,13.6478,0.523762,-4.02975,5.48976,-0.0463029,-0.557758,7.55382e-15,1.19271e-14,-56.2111,-50.7394,1.72076,77.4987,-51.8259,-3.47273,2.36114,7.12502,22.2602,-26.3768,7.55382e-15,1.19271e-14,-46.6797,9.89367,74.1664,47.4807,10.1683,-8.52536,53.3353,7.12502,17.4033,82.5762,-4.58963,5.34225,16.6279,28.0743,-16.8719,-14.4086,4.54005,-1.53225,-6.98058,-21.3314,23.0753,-14.1715,9.56109,-11.1024
-2.64598,18.1715,6.8518,177.231,1.68921,-179.3,20.4678,-0.0216264,-5.12288,0.793655,-0.408291,4.1969,-10.5651,0.341169,7.73644,-7.89582,-0.445568,-4.17516,13.0327,0.893077,-3.77131,5.24073,0.150088,-0.414885,-2.33572e-14,9.38264e-14,-54.6473,-50.0158,-0.214738,79.2883,-50.4064,-3.25216,1.95463,7.12502,22.4719,-26.7579,-2.33572e-14,9.38264e-14,-46.598,9.84618,74.2504,47.5515,10.5331,-8.63943,53.7363,7.12502,17.2935,82.9869,-4.80435,5.39942,16.4498,28.1459,-16.8978,-14.3283,4.67019,-1.67006,-7.11191,-21.5046,23.0632,-14.2092,9.76012,-10.7191
-2.64348,18.1726,6.87048,177.394,1.97189,-179.257,20.7625,-0.0639079,-4.9346,0.696486,-0.432002,4.19394,-10.8371,0.33438,7.64485,-8.22687,-0.364802,-4.0841,12.8942,0.960161,-3.67411,5.25264,0.181836,-0.395806,-6.26172e-15,2.62396e-14,-53.2064,-48.8378,-2.16158,80.9627,-49.1119,-3.20986,2.59401,7.12502,22.5125,-26.1136,-6.26172e-15,2.62396e-14,-46.7588,9.70095,74.2575,47.7434,10.7584,-8.84778,53.8639,7.12502,17.093,83.132,-5.126,5.45702,16.4781,28.1893,-16.7827,-14.1117,4.60955,-1.93012,-7.16319,-21.4482,23.1292,-14.1606,10.0119,-10.3364
-2.64199,18.1739,6.88291,177.511,2.43539,-179.299,20.9355,-0.0561744,-4.83708,0.652613,-0.412437,4.15202,-10.988,0.343432,7.54255,-8.38923,-0.189384,-3.83853,12.9507,1.16038,-3.6474,5.29722,0.285247,-0.413848,-2.18663e-15,-3.57812e-14,-51.6649,-47.4017,-4.24557,82.6951,-47.6235,-3.16507,3.08694,7.12502,22.5555,-25.6155,-2.18663e-15,-3.57812e-14,-46.8636,9.53262,74.2532,47.8201,10.6932,-8.85435,54.3446,7.12502,17.0866,83.6132,-5.4148,5.67052,16.4098,28.1957,-16.6092,-13.8311,4.18106,-2.12606,-7.09916,-21.5048,23.2676,-14.212,10.3568,-10.0458
-2.63911,18.1787,6.88688,177.603,2.96888,-179.332,20.893,-0.0476151,-4.80516,0.753905,-0.382184,4.16929,-10.8541,0.35128,7.52824,-8.64923,-0.0526337,-3.79677,12.9601,1.33015,-3.57397,5.34362,0.366191,-0.385971,5.1684e-15,-4.53229e-14,-49.9399,-46.2842,-6.52018,84.5841,-45.2992,-3.23049,3.2659,7.12502,22.4927,-25.4441,5.1684e-15,-4.53229e-14,-46.7466,9.49349,74.3311,47.7597,10.4374,-8.57767,54.4734,7.12502,17.3529,83.7188,-5.62812,6.0693,16.3786,28.156,-16.4973,-13.6926,4.38176,-2.30057,-7.03641,-21.5492,23.4424,-14.3125,10.7611,-9.9138
-2.63387,18.1865,6.89446,177.652,3.44858,-179.226,20.9569,-0.0354308,-4.64984,0.868939,-0.310574,4.21543,-10.7715,0.378227,7.46531,-8.26041,0.136866,-3.2745,12.2609,1.50324,-4.03453,5.06566,0.460364,-0.603635,2.20651e-14,-2.54444e-14,-48.3102,-45.2298,-8.76806,86.5279,-43.0998,-3.36038,3.40983,7.12502,22.3681,-25.3152,2.20651e-14,-2.54444e-14,-46.6029,9.34134,74.4523,47.773,10.2525,-8.42995,54.374,7.12502,17.4951,83.6067,-5.84583,6.43686,16.5275,28.2581,-16.4249,-13.5815,4.33104,-2.43028,-7.02225,-21.3986,23.452,-14.3044,10.981,-8.75502
-2.63416,18.192,6.90705,177.63,3.76479,-179.264,21.1888,-0.058251,-4.46799,0.981809,-0.29589,4.16304,-10.7755,0.377216,7.29726,-7.7454,0.155339,-2.96955,11.2897,1.42988,-4.37409,4.68159,0.438049,-0.764642,1.38155e-14,-3.4191e-14,-46.7071,-44.2202,-10.9949,88.4424,-41.5197,-3.33593,3.22901,7.12502,22.3915,-25.4932,1.38155e-14,-3.4191e-14,-46.4425,9.0395,74.6096,47.9885,10.3241,-8.46672,54.5235,7.12502,17.4597,83.7594,-5.97276,6.60344,16.4734,28.3544,-16.4122,-13.4183,3.87685,-2.46431,-7.17521,-21.4491,23.4357,-14.4012,11.1738,-6.75123
-2.63336,18.1718,6.92323,177.591,3.97183,-179.504,21.419,-0.0818942,-4.46458,1.10067,-0.331317,4.0782,-10.7624,0.358895,7.21207,-7.33426,0.151656,-2.51513,10.4191,1.34891,-4.89721,4.34967,0.40785,-1.00478,4.85035e-14,-7.4743e-14,-45.1032,-43.2495,-13.1684,90.3233,-39.4555,-3.52239,2.8857,7.12502,22.2125,-25.858,4.85035e-14,-7.4743e-14,-46.1857,8.93398,74.7767,48.0518,10.2774,-8.55667,54.5449,7.12502,17.3731,83.7884,-6.13128,6.68336,16.1914,28.5147,-16.3656,-13.2265,3.56593,-2.19695,-6.83726,-21.7809,23.396,-14.3464,11.4721,-9.68111
-2.62989,18.1731,6.9354,177.633,4.16018,-179.409,21.5999,-0.167326,-4.19653,1.19267,-0.366245,4.08476,-10.7542,0.333492,7.07452,-8.60795,0.364526,-2.7562,11.6775,1.70424,-4.22586,4.94823,0.560587,-0.734511,-8.15017e-15,3.02153e-14,-43.7037,-42.1309,-15.2634,92.1638,-36.6526,-3.29229,2.83102,7.12502,22.4334,-25.8862,-8.15017e-15,3.02153e-14,-45.7993,8.92185,74.8799,47.7464,10.0423,-8.65043,54.513,7.12502,17.2829,83.7646,-6.3376,6.85069,16.318,28.7135,-16.3871,-13.1577,3.79946,-2.18825,-6.95408,-21.6989,23.2737,-14.2489,11.8486,-10.3356
-2.63007,18.1746,6.95041,177.765,4.48183,-179.3,21.7179,-0.211532,-3.86857,1.26983,-0.333754,4.08372,-10.7392,0.335524,6.87128,-9.19283,0.414296,-2.65775,12.2136,1.80655,-4.1765,5.21448,0.597814,-0.726384,-1.47101e-14,-1.74931e-14,-42.3582,-40.8532,-17.3252,93.9069,-33.6357,-2.36924,2.97408,7.12502,23.3192,-25.6336,-1.47101e-14,-1.74931e-14,-45.3791,8.81994,75.0599,47.4618,9.8959,-8.69164,54.9331,7.12502,17.2432,84.1881,-6.67879,6.98339,16.4051,28.9266,-16.3465,-12.9503,3.85907,-2.25823,-6.94885,-21.592,23.1682,-14.167,12.1342,-10.025
-2.63426,18.1747,6.96332,177.912,4.85715,-179.576,21.8029,-0.21867,-3.92207,1.2517,-0.379958,3.97126,-10.7999,0.311885,6.79277,-9.17646,0.468828,-2.30265,12.3139,1.88138,-4.47496,5.24892,0.631295,-0.871645,1.70955e-14,-4.77083e-14,-40.8592,-39.217,-19.6655,95.7418,-31.1935,-2.91803,2.87211,7.12502,22.7926,-25.8013,1.70955e-14,-4.77083e-14,-45.4459,8.5661,75.2324,47.729,10.0901,-8.67009,55.2345,7.12502,17.264,84.4876,-7.03556,6.98445,16.0009,29.0053,-16.208,-12.5646,3.31309,-2.45808,-6.81619,-21.9211,23.2353,-14.2288,12.3745,-9.51383
-2.63438,18.1764,6.97512,178.041,5.252,-179.615,21.9391,-0.260053,-3.85518,1.20907,-0.423933,3.96575,-10.9178,0.292094,6.76758,-9.19176,0.610473,-2.04082,12.3878,2.06496,-4.64368,5.28045,0.720615,-0.953562,3.97569e-16,-2.06736e-14,-39.1687,-37.6451,-22.1913,97.4062,-28.7208,-5.1197,2.66574,7.12502,20.6784,-26.2527,3.97569e-16,-2.06736e-14,-45.6444,8.41707,75.3885,47.9956,10.1797,-8.68132,55.0427,7.12502,17.2532,84.2968,-7.36572,7.11372,15.9111,29.1026,-16.1335,-12.3154,3.01892,-2.67409,-6.59264,-21.9508,23.2991,-14.2514,12.5867,-9.55356
-2.63303,18.1804,6.99252,178.186,5.70596,-179.467,22.1227,-0.267439,-3.58745,1.18346,-0.361148,4.00169,-11.0597,0.316963,6.63985,-9.32192,0.766831,-1.86949,12.6541,2.27091,-4.6252,5.38945,0.823275,-0.960115,-5.96354e-15,5.88403e-14,-37.5073,-36.2526,-24.68,98.8069,-25.8007,-3.33882,2.90533,7.12502,22.3888,-25.8173,-5.96354e-15,5.88403e-14,-45.6019,8.34645,75.5722,48.1011,10.0544,-8.63499,55.2928,7.12502,17.2978,84.543,-7.77552,7.48256,16.0621,29.2361,-16.0491,-12.2605,3.05829,-2.90489,-6.47197,-21.7709,23.3253,-14.1603,12.8801,-9.08238
-2.63576,18.1833,7.01363,178.254,6.15978,-179.569,22.3657,-0.238748,-3.54366,1.17082,-0.320842,3.96167,-11.2145,0.338487,6.56535,-8.82232,0.796999,-1.93209,12.3589,2.24328,-4.37894,5.20807,0.833855,-0.877816,2.50469e-14,-4.29375e-14,-35.9718,-34.616,-27.113,100.18,-22.8648,-3.02644,2.9861,7.12502,22.6886,-25.7001,2.50469e-14,-4.29375e-14,-45.4231,8.20325,75.8132,48.0909,10.1119,-8.48725,55.9038,7.12502,17.44,85.1415,-8.14161,7.75844,15.8962,29.3587,-15.9603,-12.09,2.88366,-3.1592,-6.36555,-21.8985,23.4467,-14.0235,13.2903,-8.79514
-2.63956,18.1834,7.03064,178.394,6.57886,-179.616,22.48,-0.243198,-3.41781,1.21037,-0.297333,3.9231,-11.2368,0.343278,6.44239,-8.38033,0.752426,-2.00871,11.9012,2.10568,-4.15134,4.98562,0.787179,-0.807176,-1.98785e-16,-3.73715e-14,-34.3915,-33.024,-29.6469,101.482,-20.1937,-3.31098,2.82486,7.12502,22.4155,-25.8945,-1.98785e-16,-3.73715e-14,-45.1455,7.89628,76.1428,48.0966,10.4295,-8.60786,56.2706,7.12502,17.3239,85.5185,-8.57678,7.8254,15.757,29.5426,-15.9251,-11.7296,2.25845,-3.46018,-6.19381,-21.9727,23.5544,-13.7469,13.7564,-9.97024
-2.6431,18.1854,7.0478,178.675,7.03683,-179.671,22.4387,-0.213148,-3.29749,1.30575,-0.234243,3.83602,-11.1147,0.358684,6.24731,-8.67981,0.635024,-1.79838,11.9723,1.91369,-4.12049,5.05668,0.693198,-0.844283,5.56597e-15,-2.14687e-14,-32.6278,-31.6711,-32.4272,102.524,-17.5516,-3.60829,2.71593,7.12502,22.1301,-26.0375,5.56597e-15,-2.14687e-14,-44.7346,7.60725,76.4023,48.2771,10.4941,-8.41952,56.5889,7.12502,17.5051,85.8207,-9.18937,7.75762,15.5807,29.7588,-15.8233,-11.2506,1.79438,-3.77658,-5.90358,-22.0247,23.6808,-13.9344,13.8654,-9.18573
-2.64698,18.1826,7.06825,178.825,7.42677,-179.872,22.5885,-0.10755,-3.33058,1.44017,-0.112412,3.71408,-11.0599,0.4127,6.08893,-8.71411,0.734257,-0.832878,11.8011,1.98479,-4.77331,5.02389,0.728495,-1.1999,2.32578e-14,-6.36111e-15,-31.0537,-30.2042,-35.112,103.346,-14.484,-4.21412,2.7998,7.12502,21.5483,-26.0215,2.32578e-14,-6.36111e-15,-44.1397,7.24141,76.729,48.4413,10.3812,-8.61902,55.7443,7.12502,17.3131,84.9931,-9.6521,7.69539,15.2734,29.9452,-15.6964,-10.8827,1.83313,-4.10796,-5.67394,-22.2459,23.9428,-14.0841,14.0328,-8.83969
-2.64938,18.1825,7.09108,178.954,7.89031,-179.858,22.6268,-0.16208,-3.2853,1.55354,-0.156427,3.74843,-10.9461,0.390503,6.11194,-8.67967,0.621329,-1.22604,11.954,1.81861,-4.24775,5.05393,0.658983,-0.984313,-6.95746e-15,-3.81667e-14,-29.1543,-27.9327,-38.0218,103.897,-11.2874,-5.34742,2.90708,7.12502,20.4596,-26.035,-6.95746e-15,-3.81667e-14,-43.7966,7.37382,76.9816,48.5782,10.4808,-8.67651,55.9453,7.12502,17.2578,85.199,-10.117,7.7645,15.2349,30.1369,-15.5313,-10.6411,1.66071,-4.52328,-5.44523,-22.2246,24.3045,-14.2273,14.2814,-8.33596
-2.65277,18.1829,7.12017,179.167,8.39698,-179.645,22.8583,-0.164541,-3.07451,1.53775,-0.0899877,3.83696,-11.1008,0.422847,6.07595,-8.20587,0.604607,-1.20315,11.8626,1.77428,-4.19343,4.94417,0.651952,-0.975516,-6.75868e-15,-3.18055e-14,-27.561,-25.5836,-40.7242,104.288,-8.20412,-6.82766,3.0107,7.12502,19.0366,-26.0777,-6.75868e-15,-3.18055e-14,-43.6292,7.34781,77.2662,48.8015,10.5291,-8.41713,56.18,7.12502,17.5074,85.4116,-10.7007,7.78389,15.4173,30.3654,-15.276,-10.3596,0.831385,-5.04048,-5.24286,-21.9866,24.6492,-14.4102,14.622,-7.38523
-2.65558,18.1763,7.14674,179.322,8.84789,-179.602,23.0261,-0.135623,-2.95541,1.58361,-0.0170995,3.82783,-11.1502,0.454535,5.97573,-7.71178,0.719215,-0.860888,11.7635,1.90443,-4.40508,4.83639,0.72963,-1.08987,1.19271e-15,3.33958e-14,-26.0233,-23.5201,-43.3634,104.283,-5.03072,-7.88249,3.45981,7.12502,18.0219,-25.7252,1.19271e-15,3.33958e-14,-43.3234,7.19065,77.5589,49.0641,10.5886,-8.09679,56.7286,7.12502,17.8157,85.9325,-11.2025,7.74784,15.4029,30.6411,-15.1231,-9.94902,1.26756,-5.42234,-4.94221,-21.9244,24.9728,-14.5683,14.7775,-6.91348
-2.6599,18.1695,7.17167,179.407,9.2077,-179.734,23.217,-0.0594133,-2.94525,1.66972,0.0896974,3.79598,-11.1697,0.506442,5.90124,-8.16861,0.363615,-1.53799,12.3668,1.45309,-3.64502,5.08242,0.510076,-0.772246,6.95746e-15,1.43125e-14,-24.7194,-21.4486,-45.7453,104.009,-1.82792,-8.91358,4.03382,7.12502,17.0296,-25.2397,6.95746e-15,1.43125e-14,-42.8571,6.86677,78.05,49.2571,10.6267,-8.06556,57.0099,7.12502,17.8458,86.2111,-11.6701,7.61668,15.1812,30.9491,-15.0205,-9.59975,1.7206,-5.74188,-4.70357,-22.0642,25.2924,-14.7446,14.9236,-6.67323
-2.66803,18.1622,7.1962,179.507,9.61985,-179.909,23.4221,-0.00768931,-3.00763,1.72199,0.143704,3.77992,-11.2287,0.538201,5.90568,-7.97057,0.354658,-1.42807,12.4869,1.45158,-3.74331,5.08728,0.51305,-0.820971,3.69739e-14,1.43125e-14,-23.3729,-18.9598,-48.1658,103.332,1.43177,-10.5737,4.61645,7.12502,15.4311,-24.7876,3.69739e-14,1.43125e-14,-42.4922,6.83129,78.466,49.4396,10.5868,-8.27099,56.4588,7.12502,17.6481,85.6778,-12.2249,7.41614,14.9062,31.3234,-14.8459,-9.2202,0.789534,-6.07821,-4.37863,-22.2644,25.5599,-14.7184,15.1145,-7.39568
-2.67373,18.1536,7.21746,179.641,10.189,-179.869,23.604,0.0406216,-2.97191,1.65684,0.216435,3.82019,-11.4122,0.577097,5.91455,-7.5143,0.288173,-1.44293,12.8411,1.39819,-3.73578,5.11868,0.498793,-0.819924,-5.36719e-15,-1.59028e-14,-22.239,-16.2032,-50.5196,102.334,4.42284,-12.099,5.23519,7.12502,13.9616,-24.276,-5.36719e-15,-1.59028e-14,-42.4203,6.67362,78.827,49.585,10.8219,-8.5864,56.0176,7.12502,17.3445,85.2637,-12.8005,7.3399,14.8997,31.7259,-14.6639,-8.84038,-0.194166,-6.38714,-3.97386,-22.2347,25.8179,-14.6822,15.3545,-7.63393
-2.67762,18.1441,7.24092,179.74,10.8047,-179.783,23.8939,0.182304,-2.83966,1.79781,0.45235,3.80885,-11.4378,0.68647,5.74787,-8.78504,-0.0134789,-1.27071,14.3767,1.11472,-3.80121,5.81234,0.338048,-0.888346,-9.34288e-15,6.36111e-15,-21.0708,-14.0254,-52.8016,101.013,7.12571,-13.6698,5.72248,7.12502,12.4475,-23.8869,-9.34288e-15,6.36111e-15,-41.6532,6.15011,79.3168,49.4448,11.0826,-8.78419,55.8413,7.12502,17.1542,85.104,-13.3456,7.25654,14.9755,32.1525,-14.4338,-8.18061,-0.177591,-6.65403,-3.5164,-22.1355,26.086,-14.7733,15.5133,-7.17768
-2.68453,18.1367,7.26782,179.873,11.2936,-179.984,24.2081,0.294534,-3.00653,1.82168,0.553354,3.78993,-11.5947,0.747619,5.79664,-9.65951,-0.308923,-1.26594,15.7747,0.836642,-3.75395,6.40192,0.192873,-0.899163,1.80894e-14,-4.45278e-14,-19.9135,-11.6743,-54.9693,99.212,9.61625,-15.2016,6.26356,7.12502,10.9703,-23.4298,1.80894e-14,-4.45278e-14,-41.188,5.92991,79.7872,49.4559,11.0532,-8.86334,55.4284,7.12502,17.078,84.6977,-13.9925,7.05008,14.684,32.6048,-14.3376,-7.36195,1.23428,-7.09588,-3.11038,-22.3503,26.3889,-14.6907,15.7531,-8.00598
-2.69188,18.1316,7.29318,180.045,11.6906,-180.193,24.4453,0.41832,-3.09681,1.79081,0.678722,3.74233,-11.7751,0.813258,5.75876,-9.80275,-0.605951,-1.26478,16.5386,0.488769,-3.64822,6.66561,0.0357078,-0.896851,-9.93923e-16,1.27222e-14,-18.9701,-9.49266,-56.9441,97.1144,11.744,-16.1526,6.80278,7.12502,10.053,-22.9371,-9.93923e-16,1.27222e-14,-40.932,5.5897,80.2959,49.841,11.0361,-9.13443,55.1749,7.12502,16.817,84.4667,-14.7352,6.75509,14.3893,33.12,-14.314,-7.15934,0.413947,-7.60014,-2.72697,-22.5572,26.7268,-14.706,15.8101,-8.37559
-2.69832,18.1245,7.31987,180.176,12.1395,-180.233,24.5974,0.545778,-2.99129,1.90312,0.880016,3.70238,-11.7516,0.902161,5.58107,-10.0405,-0.938889,-1.28867,17.2145,0.0855992,-3.54699,6.91917,-0.151072,-0.898596,-2.68359e-14,-2.54444e-14,-17.9134,-7.65865,-58.8174,94.6633,13.4225,-16.7821,7.28374,7.12502,9.44563,-22.4846,-2.68359e-14,-2.54444e-14,-40.403,5.07426,80.8463,50.1932,10.9296,-9.21133,55.1811,7.12502,16.743,84.4791,-15.4742,6.56762,14.3107,33.7063,-14.2438,-7.11105,-0.626258,-8.01677,-2.35126,-22.592,27.0909,-14.8026,15.89,-8.59996
-2.70123,18.1114,7.35991,180.249,12.6025,-180.231,24.9348,0.620345,-2.96193,2.07301,1.005,3.69482,-11.753,0.965867,5.51183,-10.619,-1.22538,-1.46829,18.1655,-0.234689,-3.28944,7.3274,-0.298666,-0.821882,1.35174e-14,-3.89618e-14,-16.5227,-5.88127,-60.7984,91.6734,14.8185,-17.4784,7.84411,7.12502,8.7737,-21.9535,1.35174e-14,-3.89618e-14,-39.7014,4.72216,81.313,50.4868,10.8535,-8.97932,55.5081,7.12502,16.9663,84.7871,-16.1918,6.56016,14.3071,34.3217,-14.2287,-6.7394,0.534829,-8.44161,-1.89828,-22.5514,27.4833,-14.8085,15.9396,-8.6435
-2.70094,18.0982,7.4026,180.3,13.0973,-180.352,25.2454,0.742034,-3.16946,2.21256,1.12654,3.72794,-11.778,1.04094,5.62948,-10.9721,-1.52841,-1.78807,19.0644,-0.547854,-3.04061,7.68555,-0.443863,-0.723476,-2.5842e-15,-1.74931e-14,-15.1566,-3.95709,-62.5939,88.3907,15.4193,-18.2329,8.22366,7.12502,8.04558,-21.6032,-2.5842e-15,-1.74931e-14,-39.1289,4.52137,81.8065,50.8055,10.885,-8.67496,55.8734,7.12502,17.2593,85.127,-16.9417,6.65745,14.1672,34.9638,-14.3172,-6.34325,2.15085,-8.88404,-1.42093,-22.6258,27.8571,-14.786,15.9547,-8.90747
-2.70168,18.0864,7.43375,180.342,13.5214,-180.514,25.4139,0.892759,-3.26901,2.37557,1.31155,3.72134,-11.7049,1.1347,5.61261,-10.8615,-1.82578,-2.01891,19.481,-0.896338,-2.88024,7.80375,-0.601434,-0.666918,-3.57812e-15,3.10104e-14,-14.0215,-2.20492,-64.1242,85.0147,15.477,-19.2203,8.28933,7.12502,7.0925,-21.5718,-3.57812e-15,3.10104e-14,-38.4491,4.06342,82.3924,50.9175,10.6839,-8.46718,55.7895,7.12502,17.4593,85.0255,-17.6036,6.59095,13.9811,35.5909,-14.4203,-5.97602,2.97113,-9.24489,-0.968679,-22.7617,28.2081,-14.895,15.9019,-8.50142
-2.70658,18.0757,7.45783,180.401,13.8543,-180.798,25.586,1.06173,-3.33133,2.61496,1.52294,3.60846,-11.5447,1.23409,5.43997,-11.187,-2.18259,-2.05423,19.9212,-1.37566,-2.72166,8.00744,-0.819098,-0.662599,1.59028e-15,2.8625e-14,-12.6537,-1.08395,-65.6654,81.2635,15.5939,-20.2071,8.55932,7.12502,6.13988,-21.3317,1.59028e-15,2.8625e-14,-37.3625,3.16612,83.0461,50.8658,10.4588,-8.2853,55.817,7.12502,17.6343,85.0373,-18.2695,6.39622,13.6281,36.1693,-14.3979,-5.55893,3.65194,-9.6038,-0.571461,-23.0548,28.5387,-14.9892,15.8644,-8.53535
-2.70954,18.0687,7.48838,180.46,14.1111,-180.962,25.8103,1.04431,-3.4828,2.74343,1.47812,3.6419,-11.5142,1.22731,5.58163,-11.7535,-2.48583,-2.21269,21.0017,-1.63772,-2.75746,8.47528,-0.950551,-0.688544,1.98785e-14,2.3059e-14,-11.0019,0.272141,-67.2486,76.9734,15.6472,-20.7785,9.9326,7.12502,5.5882,-19.9737,1.98785e-14,2.3059e-14,-36.7352,2.81825,83.5648,51.0455,10.5616,-8.30527,56.0178,7.12502,17.6151,85.2399,-18.8712,6.18074,13.4322,36.651,-14.3875,-5.20454,3.78636,-10.0065,-0.114305,-23.1888,28.911,-15.0032,15.6634,-9.04022
-2.711,18.0604,7.53434,180.593,14.3442,-180.92,26.2078,1.1126,-3.37059,2.90045,1.62961,3.68295,-11.562,1.30504,5.50727,-12.6727,-2.87551,-2.23667,22.196,-2.03054,-2.82952,9.05249,-1.14152,-0.774355,-7.95139e-16,-8.74653e-15,-9.26099,1.00782,-68.6366,72.4943,15.9228,-21.3556,12.0031,7.12502,5.03097,-17.9172,-7.95139e-16,-8.74653e-15,-35.941,2.14776,84.1585,51.3876,10.885,-8.77155,55.5949,7.12502,17.1663,84.8566,-19.4852,6.09758,13.4729,37.0524,-14.3419,-4.92104,4.05947,-10.559,0.252349,-23.0879,29.3648,-14.92,15.5257,-9.39751
-2.71286,18.0476,7.5748,180.655,14.6422,-180.799,26.6373,1.25816,-3.06945,3.08207,1.94604,3.74037,-11.6127,1.45276,5.27871,-12.3497,-3.25434,-2.68593,22.2325,-2.54643,-2.41949,9.01718,-1.36964,-0.613679,7.55382e-15,-1.51076e-14,-7.77757,1.6491,-69.6561,68.378,16.3159,-22.1292,12.8878,7.12502,4.28401,-17.0489,7.55382e-15,-1.51076e-14,-35.0173,1.19204,84.9302,51.4652,11.0605,-9.36776,54.5039,7.12502,16.5924,83.8146,-19.9449,6.05087,13.6108,37.3874,-14.2653,-4.62305,4.08026,-11.025,0.509686,-22.9172,29.8856,-14.9692,15.5496,-9.35181
-2.71383,18.0349,7.60422,180.66,14.9368,-180.764,26.9055,1.3655,-2.84525,3.31311,2.20316,3.83873,-11.5146,1.57597,5.16094,-11.6614,-3.54605,-3.36833,21.8738,-2.93246,-1.99863,8.78837,-1.55553,-0.385954,3.57812e-15,-4.77083e-14,-6.34238,2.37012,-70.4805,64.4718,16.6443,-22.4257,12.9448,7.12502,3.99773,-16.9974,3.57812e-15,-4.77083e-14,-34.0585,0.297275,85.8079,51.3759,11.1946,-10.1391,53.8174,7.12502,15.8497,83.1886,-20.2512,6.01737,13.6508,37.6483,-14.2908,-4.29198,4.42398,-11.4264,0.755576,-22.8543,30.4398,-15.0192,15.6144,-9.8095
-2.7108,18.0235,7.63669,180.65,15.1413,-181.053,27.1457,1.60256,-2.93006,3.31309,2.48099,3.7997,-11.6744,1.71057,5.06221,-10.4659,-3.88322,-3.44669,21.6337,-3.36812,-2.08663,8.48949,-1.74923,-0.422911,-1.43125e-14,6.36111e-15,-5.4403,2.63213,-71.3037,60.6649,16.9029,-21.9124,13.2562,7.12502,4.49335,-16.6761,-1.43125e-14,6.36111e-15,-33.6444,-1.14641,86.6602,51.5691,11.6382,-10.8317,54.0234,7.12502,15.1826,83.4464,-20.5789,5.89085,13.341,37.8557,-14.2444,-3.96642,4.93383,-11.8971,1.00408,-23.1322,30.983,-15.0897,15.6207,-10.8839
-2.70693,18.0137,7.66813,180.776,15.2533,-181.134,27.4278,1.7536,-2.78552,3.45435,2.74738,3.81731,-11.6843,1.83647,4.89354,-10.8557,-4.47394,-3.95499,22.3868,-4.11673,-1.6033,8.84948,-2.08663,-0.271837,-7.43455e-14,9.54166e-15,-4.06097,2.36753,-72.057,56.9296,17.9618,-20.2696,13.7205,7.12502,6.07952,-16.1723,-7.43455e-14,9.54166e-15,-32.784,-2.55295,87.4681,51.6192,11.9463,-11.2666,53.9295,7.12502,14.7637,83.3837,-20.9578,5.71345,13.2523,38.0313,-14.1386,-3.62001,5.15629,-12.4462,1.22593,-23.1843,31.4971,-15.2352,15.5566,-11.2751
-2.70171,18.0033,7.70203,180.92,15.2804,-181.05,27.8487,1.83794,-2.47428,3.64628,3.00035,3.88684,-11.6999,1.95638,4.68793,-11.5471,-4.64498,-3.90351,22.8549,-4.26358,-1.79854,9.13634,-2.17286,-0.383678,-4.13472e-14,-5.08889e-14,-2.51165,1.89212,-72.7355,53.1203,18.3846,-18.1345,14.0081,7.12502,8.14054,-15.8151,-4.13472e-14,-5.08889e-14,-31.7233,-3.89107,88.2406,51.6251,12.0623,-11.713,53.7254,7.12502,14.3335,83.2106,-21.3094,5.63031,13.3627,38.2171,-14.0654,-3.47615,4.44351,-12.963,1.39999,-23.035,31.9683,-15.3745,15.4337,-11.4357
-2.69167,17.9867,7.74099,180.986,15.388,-181.051,28.3635,2.00205,-2.32927,3.88515,3.3139,3.94429,-11.7192,2.11398,4.53863,-11.4124,-5.09101,-4.1208,22.8119,-4.87607,-1.65406,9.11397,-2.46236,-0.365376,-4.21423e-14,4.6118e-14,-0.87704,1.33989,-73.3208,49.4047,17.9105,-16.3859,13.7883,7.12502,9.82788,-15.9624,-4.21423e-14,4.6118e-14,-30.4184,-5.3277,89.0128,51.3736,12.2247,-12.536,53.2945,7.12502,13.5405,82.8342,-21.6375,5.72989,13.4009,38.4042,-14.0887,-3.50057,3.59305,-13.4216,1.61479,-22.9609,32.4369,-15.4137,15.3456,-11.357
-2.67894,17.9694,7.77989,181.113,15.5099,-181.29,28.7098,2.2329,-2.45793,4.13776,3.61813,3.96,-11.643,2.27394,4.50563,-12.907,-5.478,-3.95055,23.3204,-5.40036,-1.71774,9.57001,-2.71997,-0.527462,1.27222e-14,4.13472e-14,0.663754,1.02669,-73.68,46.0472,16.3571,-14.8658,13.0865,7.12502,11.2942,-16.5894,1.27222e-14,4.13472e-14,-28.8194,-6.79018,89.6936,50.9579,12.5482,-12.8153,53.4868,7.12502,13.2713,83.0443,-22.0969,5.91305,13.1382,38.5849,-14.2673,-3.46497,3.89787,-14.026,1.91005,-23.152,32.9398,-15.337,15.2592,-11.5792
-2.66437,17.96,7.82096,181.307,15.364,-181.409,29.1063,2.34695,-2.46029,4.33688,3.82117,4.04465,-11.6417,2.38626,4.51513,-13.2812,-5.70294,-3.7617,23.6624,-5.57121,-2.25674,9.7406,-2.83582,-0.780756,2.06736e-14,-6.36111e-15,1.71559,0.95331,-73.8539,43.4456,14.0074,-13.1024,11.4681,7.12502,12.9945,-18.1072,2.06736e-14,-6.36111e-15,-27.3421,-7.90613,90.3071,50.8023,12.2696,-11.9994,54.639,7.12502,14.0575,84.1435,-22.5092,5.9802,13.0145,38.7449,-14.5483,-3.49589,3.52093,-14.7294,2.00776,-23.1784,33.4456,-15.3509,15.011,-12.2216
-2.64352,17.9493,7.86158,181.62,15.1383,-181.129,29.7171,2.40675,-2.10312,4.06374,4.07711,4.38871,-11.5839,2.46911,4.23199,-13.8329,-6.07569,-3.84487,23.8974,-6.05407,-2.24003,9.93624,-3.07065,-0.845346,-7.95139e-16,-1.27222e-14,2.28153,0.909235,-73.9327,41.3154,11.3964,-11.0382,9.24449,7.12502,14.9837,-20.1934,-7.95139e-16,-1.27222e-14,-26.2586,-9.22897,91.0929,50.5535,12.7894,-13.3483,53.7243,7.12502,12.7574,83.3145,-22.9093,6.05138,13.3718,38.8867,-14.5561,-3.75293,2.30264,-15.4518,2.13097,-22.7366,33.9163,-15.4024,14.6511,-12.7293
-2.62114,17.9337,7.89155,181.904,14.9628,-180.926,30.0986,2.50193,-1.79411,4.10359,4.34483,4.4913,-11.7213,2.59244,4.05475,-13.9201,-6.34437,-3.81435,23.913,-6.45223,-2.17756,9.96158,-3.24699,-0.883307,1.35174e-14,7.63333e-14,2.81761,0.548616,-74.0951,39.0019,9.41471,-8.56188,7.3009,7.12502,17.3681,-21.9431,1.35174e-14,7.63333e-14,-25.1133,-10.3228,91.6962,50.2988,11.9882,-12.552,54.2243,7.12502,13.525,83.765,-23.2801,6.11738,13.6345,39.0436,-14.4213,-3.90261,1.53923,-16.041,2.32347,-22.3963,34.32,-15.4937,14.269,-12.106
-2.59831,17.9247,7.91522,182.09,14.6892,-181.117,30.3299,2.54354,-1.82528,4.20413,4.41269,4.4794,-11.7144,2.63327,4.02322,-14.0132,-6.49267,-3.79091,23.9283,-6.69936,-2.04833,9.98982,-3.34694,-0.878144,-1.82882e-14,-1.59028e-15,3.43246,0.174985,-74.3988,36.923,8.14487,-5.43005,5.25504,7.12502,20.3802,-23.6955,-1.82882e-14,-1.59028e-15,-23.8487,-11.1165,92.1355,49.9644,11.4014,-11.9502,54.3039,7.12502,14.105,83.8052,-23.6437,6.018,13.4487,39.257,-14.4299,-3.85836,1.99527,-16.5447,2.44807,-22.4998,34.6501,-15.423,13.9797,-12.3609
-2.57332,17.9205,7.94408,182.328,14.4216,-181.479,30.6245,2.60479,-1.97749,4.17591,4.42862,4.36263,-11.8709,2.64437,3.96137,-13.9227,-6.64444,-3.9119,23.9058,-7.00994,-1.58798,9.99025,-3.45088,-0.736303,-3.97569e-15,4.45278e-14,3.59019,-0.203873,-74.7518,35.4132,7.78753,-1.70418,3.06109,7.12502,23.9571,-25.4642,-3.97569e-15,4.45278e-14,-22.8688,-11.7248,92.5131,49.8843,11.1489,-11.7896,53.9945,7.12502,14.2598,83.485,-24.1886,5.98147,13.0686,39.533,-14.4786,-3.83108,3.24193,-17.1572,2.43086,-22.7855,34.858,-15.0949,13.8399,-14.4309
-2.54412,17.9159,7.97373,182.679,14.0642,-181.545,29.6648,2.55866,-1.61292,5.27411,4.54908,4.05836,-10.8542,2.75044,3.73241,-14.3538,-6.92429,-4.10347,23.2351,-7.67782,-0.671939,9.88675,-3.71189,-0.48437,-1.74931e-14,-2.22639e-14,4.71025,-1.8317,-75.225,33.7629,8.92644,1.3573,2.19288,7.12502,26.8898,-25.9145,-1.74931e-14,-2.22639e-14,-20.6825,-12.8587,92.6537,49.8399,11.268,-11.738,53.4156,7.12502,14.3095,82.9025,-24.7722,5.98144,13.0321,39.8134,-14.4972,-4.01045,4.85614,-17.7992,2.38294,-22.7178,34.9665,-14.8487,13.5554,-15.7751
-2.51341,17.9145,7.99273,182.966,13.4741,-181.55,29.522,2.3425,-1.33461,5.40301,4.37598,4.01437,-10.5967,2.66911,3.59252,-13.7658,-6.92795,-4.23701,22.8148,-7.7891,-0.256146,9.65332,-3.737,-0.306061,-6.36111e-15,-2.54444e-14,4.53033,-2.40062,-75.7137,32.7581,10.0707,2.60405,3.01311,7.12502,28.0821,-24.9048,-6.36111e-15,-2.54444e-14,-19.75,-13.2171,92.8684,50.0832,11.1156,-11.7454,52.654,7.12502,14.3024,82.1414,-25.1095,5.68921,13.1176,40.0613,-14.6206,-4.29836,5.54648,-18.2663,2.26235,-22.5733,35.0554,-14.8178,13.048,-15.7451
-2.48212,17.9191,8.0041,183.268,12.9585,-181.598,29.7947,2.20213,-1.25099,5.21174,4.2122,4.02825,-10.9367,2.58636,3.6135,-13.6832,-6.98417,-4.34828,23.1057,-7.8683,-0.041552,9.75774,-3.7473,-0.225979,1.98785e-14,-2.06736e-14,3.53034,-2.29915,-76.0097,32.4254,11.0936,2.11484,4.8175,7.12502,27.6144,-23.1762,1.98785e-14,-2.06736e-14,-19.4025,-13.2635,93.233,50.4946,10.6493,-11.5711,52.1558,7.12502,14.4703,81.6312,-25.4682,5.29755,13.1846,40.2781,-14.6729,-4.63508,4.74802,-18.6822,2.14757,-22.5001,35.0898,-14.773,12.6315,-16.0498
-2.44558,17.9199,8.02443,183.689,12.6104,-181.559,30.0189,2.18212,-1.19623,5.08375,4.20131,4.04822,-11.1951,2.57722,3.60145,-14.2757,-7.08972,-4.19633,23.5416,-8.05781,0.0810519,10.027,-3.79943,-0.26214,1.98785e-14,3.65764e-14,2.66556,-2.40525,-76.3025,32.2087,12.8084,0.825709,6.14719,7.12502,26.381,-22.0375,1.98785e-14,3.65764e-14,-18.8151,-13.5863,93.6554,50.7805,11.0324,-12.267,51.5341,7.12502,13.7997,81.0564,-26.0251,5.10797,13.3553,40.469,-14.6041,-5.03398,4.42005,-19.2201,2.07564,-22.32,35.0478,-14.5729,12.4018,-16.7255
-2.40361,17.9224,8.03939,184.004,12.2534,-181.78,30.4667,2.24886,-1.39356,4.50182,4.19862,4.1462,-11.3561,2.53705,3.51015,-13.9171,-7.15033,-4.05214,23.5022,-8.195,0.157121,9.94389,-3.83817,-0.262085,2.8625e-14,-2.8625e-14,1.41285,-2.43948,-76.4833,32.4118,14.8279,-0.0634018,6.37284,7.12502,25.5296,-21.9366,2.8625e-14,-2.8625e-14,-18.5261,-13.8771,94.1988,51.1804,11.1653,-12.2135,52.0358,7.12502,13.8513,81.5546,-26.5004,4.97657,13.2608,40.6535,-14.5658,-5.44851,4.66453,-19.6551,1.98968,-22.4028,34.9459,-14.4572,12.14,-17.0396
-2.36251,17.9301,8.0429,184.155,11.8527,-182.004,30.6521,2.1079,-1.60799,4.46266,3.94074,4.08435,-11.4642,2.42575,3.65098,-13.0217,-6.98721,-4.04826,23.2659,-7.98492,0.218644,9.68881,-3.73105,-0.175746,1.11319e-14,2.06736e-14,0.393272,-2.10724,-76.8758,32.7642,16.4364,-1.22426,7.02468,7.12502,24.4172,-21.4394,1.11319e-14,2.06736e-14,-18.2802,-13.7333,94.5512,51.73,11.2753,-12.098,52.8255,7.12502,13.9625,82.3367,-26.6975,4.75536,13.1861,40.8085,-14.6551,-5.86492,4.53051,-19.8178,1.88051,-22.4898,34.8122,-14.4853,11.836,-16.7594
-2.32225,17.9357,8.05339,184.361,11.3455,-181.988,30.8297,1.92374,-1.56227,4.47584,3.73771,4.09048,-11.5056,2.33748,3.70347,-13.2162,-6.94965,-3.91331,23.3811,-7.99205,0.340759,9.76491,-3.7078,-0.165446,-7.15625e-15,-8.90555e-14,-0.524169,-2.05163,-77.2475,33.212,17.5976,-2.84242,7.83519,7.12502,22.8652,-20.8293,-7.15625e-15,-8.90555e-14,-17.8076,-14.0078,94.8703,52.1817,11.7801,-12.4817,53.4762,7.12502,13.5928,83.0124,-26.8843,4.50609,13.3743,40.9695,-14.766,-6.25084,4.54046,-19.9823,1.73898,-22.3082,34.5816,-14.343,11.4937,-16.5963
-2.27924,17.9439,8.06978,184.578,10.7456,-182.02,31.1052,1.73449,-1.56771,4.41365,3.50396,4.09375,-11.6729,2.23447,3.78956,-13.4044,-6.82095,-3.46698,23.5375,-7.83469,0.0507569,9.81719,-3.62356,-0.325027,-1.19271e-14,-5.88403e-14,-1.78824,-1.94235,-77.5568,34.0985,18.5537,-4.07408,7.88135,7.12502,21.6828,-20.9244,-1.19271e-14,-5.88403e-14,-17.3873,-14.3914,95.2025,52.6031,12.4222,-13.2307,53.8269,7.12502,12.8708,83.41,-27.0838,4.2708,13.5071,41.1078,-14.8394,-6.65144,4.84663,-20.1639,1.47594,-22.1558,34.2735,-14.1823,11.1346,-15.8549
-2.23385,17.9503,8.07797,184.673,10.2621,-182.45,31.4767,1.61114,-1.9533,4.24711,3.18605,3.98339,-11.9982,2.09808,3.99257,-13.2965,-6.57833,-2.99873,23.6811,-7.48402,-0.356319,9.8015,-3.45596,-0.492481,-9.54166e-15,-6.36111e-15,-3.50635,-1.43128,-77.8243,35.3709,19.2009,-5.29462,7.9756,7.12502,20.5103,-20.961,-9.54166e-15,-6.36111e-15,-17.3567,-14.5666,95.5845,53.2283,12.9178,-13.9511,53.7189,7.12502,12.1762,83.3446,-27.1991,4.09166,13.1927,41.1759,-14.9312,-6.93995,5.20011,-20.2398,1.18166,-22.4392,33.959,-14.1308,10.8778,-14.7308
-2.18733,17.9557,8.08411,184.769,9.82775,-182.891,31.473,1.47773,-2.39798,4.35229,2.86671,3.90007,-11.8591,1.97316,4.26996,-13.4251,-6.49277,-3.05473,23.8744,-7.35551,-0.283435,9.89894,-3.38743,-0.449568,-1.90833e-14,1.74931e-14,-4.58284,-0.960268,-78.102,36.3869,19.34,-7.00243,8.70391,7.12502,18.8685,-20.4009,-1.90833e-14,1.74931e-14,-16.9535,-14.7446,95.8907,53.844,13.3351,-14.5323,53.8853,7.12502,11.6158,83.5433,-27.2752,3.95708,12.869,41.1287,-14.8966,-7.27292,4.93415,-20.2662,0.770536,-22.7348,33.6261,-13.9647,10.8173,-14.6726
-2.1421,17.969,8.08382,184.996,9.47223,-182.684,31.4249,1.25144,-2.21881,4.36967,2.64696,3.91715,-11.7928,1.86871,4.27756,-13.0374,-6.33565,-3.15103,23.6102,-7.20947,0.0294424,9.74648,-3.2999,-0.290795,1.51076e-14,1.59028e-14,-5.53595,-0.620539,-78.4836,37.0379,19.1289,-8.38316,8.88734,7.12502,17.5401,-20.3414,1.51076e-14,1.59028e-14,-16.5983,-14.6313,95.9911,54.807,15.2405,-13.9104,55.2434,7.12502,12.2155,84.8667,-27.2843,3.93231,13.2584,40.9386,-14.8275,-7.63971,4.6479,-20.2964,0.481811,-22.3329,33.3072,-13.7733,10.7721,-14.8426
-2.09808,17.9862,8.07868,185.118,9.19728,-182.278,31.6478,1.01714,-1.89242,4.27129,2.47105,3.99449,-11.9754,1.7803,4.24659,-12.3298,-6.23854,-3.6467,23.0056,-7.22485,0.917431,9.45847,-3.2711,0.121078,5.56597e-15,-4.77083e-15,-6.80109,-0.291134,-78.7863,37.5596,18.7308,-9.59886,8.63536,7.12502,16.3699,-20.6938,5.56597e-15,-4.77083e-15,-16.7422,-14.8828,96.3489,55.1162,14.5728,-14.6702,54.8926,7.12502,11.4829,84.5581,-27.0762,4.00153,13.8609,40.6523,-14.8514,-7.86598,4.65793,-20.1794,0.373111,-21.7263,33.0244,-13.5438,10.7054,-15.7131
-2.0524,17.9934,8.08163,185.247,8.74973,-182.197,31.9809,0.793334,-1.78719,4.08015,2.21006,3.99738,-12.3044,1.65671,4.28988,-11.1446,-6.0291,-4.0214,22.5999,-7.01299,1.56785,9.13143,-3.1364,0.469854,1.51076e-14,-1.59028e-15,-8.38931,0.089247,-79.049,38.5002,17.8678,-10.9276,8.53327,7.12502,15.0902,-20.8967,1.51076e-14,-1.59028e-15,-16.8939,-14.8007,96.6492,56.0379,15.2581,-14.5835,55.7952,7.12502,11.5664,85.456,-27.0181,3.93611,14.1075,40.3741,-14.7357,-7.96816,5.24341,-20.175,0.162069,-21.4436,32.7851,-13.2913,10.4827,-16.2343
-2.00866,17.9967,8.07994,185.393,8.46556,-182.349,31.866,0.656791,-1.90372,4.15262,1.99304,3.94393,-12.1534,1.56304,4.38274,-10.8824,-5.84361,-4.05023,22.4448,-6.79605,1.73906,9.02952,-3.02281,0.566568,0,9.54166e-15,-9.46754,0.156574,-79.2813,39.2968,16.9805,-12.4128,8.8129,7.12502,13.6592,-20.7189,0,9.54166e-15,-16.5794,-15.0789,96.9047,56.6183,15.6613,-14.7598,56.0718,7.12502,11.3964,85.7421,-27.0652,3.88221,14.0731,40.18,-14.6666,-7.93699,6.17758,-20.1606,-0.131345,-21.4344,32.5252,-13.1856,10.4064,-16.2066
-1.96522,18.0039,8.07397,185.473,8.46748,-182.317,31.6183,0.558911,-2.00825,4.49301,1.88015,3.954,-11.6569,1.52717,4.49427,-11.186,-5.54595,-3.83013,22.137,-6.41792,1.54254,8.95156,-2.86565,0.49983,-3.18055e-15,1.11319e-14,-10.0471,0.177086,-79.4634,40.4853,15.0563,-12.2447,7.72017,7.12502,13.8212,-21.8007,-3.18055e-15,1.11319e-14,-15.9365,-15.6491,97.1102,56.5759,17.3047,-17.5239,51.1035,7.12502,8.72975,80.903,-26.9325,3.95314,14.2644,40.0786,-14.8664,-7.9016,6.57261,-19.996,-0.345662,-21.2367,32.226,-13.1126,10.5699,-16.0927
-1.9207,18.0137,8.07272,185.55,8.44898,-182.197,31.7464,0.458643,-2.03734,4.23124,1.69537,3.93028,-11.9882,1.43272,4.55901,-9.85857,-5.2357,-3.74482,21.7516,-5.99599,1.52798,8.55827,-2.65804,0.566951,-2.06736e-14,-1.25632e-13,-11.9247,0.355649,-79.688,41.387,14.1218,-13.075,7.68186,7.12502,13.0209,-21.8918,-2.06736e-14,-1.25632e-13,-16.56,-15.2654,97.338,58.2733,15.2571,-14.5514,58.2121,7.12502,11.5974,87.8712,-26.8195,4.03258,14.571,40.0002,-14.9531,-8.0231,6.6804,-19.8302,-0.599591,-20.9205,31.8869,-13.0771,10.7371,-16.0049
-1.87683,18.0291,8.06304,185.677,8.41986,-182.23,31.6722,0.396239,-2.2245,4.18153,1.53544,3.92769,-12.0013,1.36224,4.72344,-9.24331,-5.02932,-3.78846,21.511,-5.72992,1.63424,8.36076,-2.52643,0.654521,-7.15625e-15,-3.18055e-14,-13.3592,0.462712,-79.7636,42.047,12.7108,-13.992,8.7051,7.12502,12.1368,-20.9229,-7.15625e-15,-3.18055e-14,-16.8488,-15.1435,97.6144,59.4503,14.2306,-14.1531,59.9481,7.12502,11.9815,89.5852,-26.8206,4.04712,14.6722,39.8834,-14.972,-8.04376,7.07461,-19.7092,-0.787904,-20.7905,31.5205,-13.0206,10.8463,-15.7619
-1.83959,18.0416,8.04287,185.748,8.60412,-182.332,31.5416,0.372541,-2.44631,4.27882,1.427,3.88187,-11.8267,1.31896,4.8378,-9.88625,-4.81694,-3.59784,22.2283,-5.37081,1.40511,8.69933,-2.3441,0.567637,-6.36111e-15,3.81667e-14,-14.5533,0.520037,-79.8257,42.6136,10.8885,-14.8454,10.3302,7.12502,11.3139,-19.3446,-6.36111e-15,3.81667e-14,-16.8578,-15.117,97.886,60.4565,12.9931,-14.7213,60.4358,7.12502,11.4335,-90.1041,-26.7409,4.04416,14.6711,39.7344,-15.0482,-7.8269,7.14433,-19.4411,-0.986888,-20.7792,31.1402,-13.0563,11.1869,-15.5925
-1.80567,18.0547,8.02739,185.797,8.85797,-182.313,31.4637,0.327852,-2.49973,4.35844,1.34489,3.80736,-11.6925,1.28067,4.81814,-11.7367,-4.52526,-2.73821,24.1741,-4.76431,0.419979,9.65515,-2.03675,0.112158,-1.98785e-14,-1.59028e-14,-15.7061,0.515091,-79.9545,44.0374,7.97425,-13.392,8.55485,7.12502,12.7153,-21.038,-1.98785e-14,-1.59028e-14,-16.9947,-14.9747,98.0675,61.6117,11.2742,-16.0215,60.4573,7.12502,10.1794,-90.1911,-26.625,4.14192,14.7942,39.526,-15.0298,-7.66505,7.40271,-19.1727,-1.19871,-20.6377,30.7803,-13.0704,11.5935,-15.9536
-1.76744,18.0658,8.01947,185.856,9.10562,-182.334,31.4588,0.274364,-2.61583,4.52031,1.24132,3.69262,-11.4928,1.23859,4.79485,-10.7793,-4.24089,-3.11409,22.814,-4.59019,1.18635,9.02508,-1.9505,0.478804,-1.11319e-14,-2.46493e-14,-16.4905,0.0809657,-80.0648,44.6811,6.90209,-12.7225,8.02382,7.12502,13.3607,-21.5278,-1.11319e-14,-2.46493e-14,-16.8332,-14.8583,98.0077,62.864,9.83305,-17.5122,60.7126,7.12502,8.74106,-90.5116,-26.5857,4.259,14.898,39.3148,-14.9954,-7.5024,7.85282,-19.0353,-1.34718,-20.5111,30.508,-12.9442,11.9071,-16.0736
-1.72876,18.0764,8.01455,185.957,9.47969,-182.271,31.5208,0.281791,-2.73858,4.60566,1.20361,3.59201,-11.4153,1.22506,4.76593,-11.973,-3.85307,-2.11116,23.7283,-3.97789,0.213702,9.50654,-1.66386,0.0247417,3.18055e-14,7.15625e-15,-17.4459,-0.299223,-80.153,45.3093,6.01799,-11.8584,7.89882,7.12502,14.1935,-21.5963,3.18055e-14,7.15625e-15,-16.7718,-14.8497,97.9299,64.0278,9.02153,-19.1439,61.164,7.12502,7.1662,-91.0227,-26.6285,4.49541,15.0843,39.0901,-14.9288,-7.3256,8.48748,-18.9709,-1.47677,-20.2785,30.318,-12.8145,12.2749,-15.4931
-1.69396,18.0833,8.01349,186.176,9.81022,-182.124,31.4202,0.249789,-2.63888,4.74745,1.18951,3.44124,-11.2042,1.21255,4.55357,-12.6458,-3.57019,-1.5902,24.106,-3.63844,-0.00549584,9.74625,-1.48177,-0.111531,-2.38542e-15,0,-18.4418,-0.604383,-80.2618,46.5087,4.74774,-10.2843,6.63412,7.12502,15.7098,-22.7482,-2.38542e-15,0,-16.6809,-14.8869,97.8206,65.1377,7.87473,-20.5139,61.6132,7.12502,5.84366,-91.5126,-26.7709,4.59782,15.344,38.8812,-14.8237,-7.06709,8.79391,-19.0358,-1.60363,-19.9804,30.1404,-12.5895,12.7087,-16.1254
-1.6607,18.0876,8.00483,186.451,10.0027,-182.014,31.1846,0.0972591,-2.62136,4.65395,0.96537,3.42479,-11.1879,1.09638,4.61657,-12.1772,-3.14043,-1.42554,23.9035,-3.02184,-0.204257,9.57325,-1.20189,-0.125391,-2.54444e-14,-5.40694e-14,-19.8627,-0.13511,-80.2595,47.5484,3.5583,-9.30582,6.28305,7.12502,16.652,-23.0226,-2.54444e-14,-5.40694e-14,-17.3339,-14.034,97.989,66.5929,6.27203,-20.0416,63.023,7.12502,6.29966,-92.9093,-26.9005,4.56448,15.5447,38.6712,-14.7889,-6.79125,9.5255,-19.1186,-1.86569,-19.727,29.9771,-12.4957,13.0822,-16.4267
-1.62707,18.0921,7.98808,186.57,10.3379,-182.056,31.1708,0.0574351,-2.77851,4.56802,0.828149,3.36412,-11.2637,1.03035,4.6916,-12.0253,-2.82507,-1.409,23.9243,-2.58176,-0.175856,9.54909,-0.989391,-0.0641735,-5.56597e-15,7.95139e-15,-21.1849,0.3828,-80.2608,48.1236,2.52069,-9.16729,6.26094,7.12502,16.7854,-23.0335,-5.56597e-15,7.95139e-15,-17.9365,-13.2182,98.146,68.1141,4.75827,-18.5399,63.889,7.12502,7.74923,-93.727,-26.9136,4.50288,15.6019,38.4674,-14.6165,-6.4708,8.47679,-18.9821,-2.15488,-19.6317,29.8186,-12.8157,13.4237,-14.5131
-1.59643,18.0986,7.97884,186.643,10.7482,-182.017,31.2468,0.0423535,-2.75117,4.60345,0.796796,3.21004,-11.2466,1.01198,4.52167,-12.7247,-2.76184,-1.49831,24.66,-2.54329,0.274175,9.95245,-0.915789,0.103302,4.57205e-14,3.57812e-14,-22.2505,0.398477,-80.2944,48.0401,2.80821,-10.0372,7.37796,7.12502,15.9479,-21.9855,4.57205e-14,3.57812e-14,-18.1551,-12.611,98.0427,69.4715,3.04125,-18.5557,67.0259,7.12502,7.734,-96.8645,-26.9317,4.54215,15.7405,38.2869,-14.484,-6.05181,8.12367,-18.8569,-2.43033,-19.4507,29.6725,-13.0478,13.857,-13.0418
-1.56834,18.1061,7.97763,186.851,11.0841,-181.916,31.2005,-0.00232838,-2.6176,4.69277,0.772659,3.06906,-11.1188,0.993505,4.30541,-12.4893,-2.15951,-0.420179,23.8099,-1.76669,-0.774353,9.57184,-0.605069,-0.348583,-4.73108e-14,-5.56597e-14,-23.0962,0.41218,-80.3216,48.5139,2.81245,-9.96672,6.97707,7.12502,16.0157,-22.3809,-4.73108e-14,-5.56597e-14,-17.9862,-12.0807,97.8244,70.5813,1.54557,-19.2387,67.8598,7.12502,7.07476,-97.7216,-27.0873,4.70113,15.9063,38.1135,-14.4394,-5.82437,8.50042,-18.9507,-2.59864,-19.2083,29.6074,-13.2154,14.1508,-11.6802
-1.54036,18.1095,7.98073,187.069,11.3787,-181.975,31.1996,-0.0765263,-2.6711,4.73939,0.637595,2.90737,-11.0483,0.929,4.21133,-12.9995,-2.0049,-0.693052,24.2286,-1.64086,-0.114322,9.82793,-0.495056,-0.0635608,-1.94809e-14,-4.29375e-14,-24.0018,0.778478,-80.3758,49.2542,2.68636,-9.73993,6.64757,7.12502,16.2341,-22.6927,-1.94809e-14,-4.29375e-14,-17.8742,-11.481,97.5485,71.7562,0.658551,-20.118,69.2091,7.12502,6.22593,-99.0976,-27.2861,4.71469,15.9015,37.9378,-14.3726,-5.50817,7.97689,-19.2231,-2.57027,-19.1684,29.7093,-13.2417,14.345,-10.6641
-1.50686,18.1105,7.98467,187.249,11.7725,-181.817,31.2625,-0.120467,-2.64422,4.77644,0.578059,2.80766,-11.0245,0.899128,4.1113,-13.3274,-1.833,-1.03785,24.5267,-1.4811,0.566787,10.0068,-0.372341,0.250853,2.78299e-15,4.69132e-14,-24.934,1.0272,-80.4539,49.7876,2.91053,-9.74095,7.05548,7.12502,16.2331,-22.2849,2.78299e-15,4.69132e-14,-18.0146,-10.8963,97.3278,72.9664,0.13055,-21.723,69.7731,7.12502,4.67628,-99.7015,-27.4389,4.85873,16.1573,37.7847,-14.2235,-5.24559,7.32199,-19.5229,-2.37474,-18.8852,29.9175,-13.1786,14.5435,-9.94329
-1.47277,18.1089,7.98595,187.471,12.1985,-181.486,31.1895,-0.190912,-2.50709,4.88618,0.541598,2.78128,-10.867,0.87762,4.02103,-12.6908,-1.14425,-0.226651,23.3225,-0.639596,-0.0988117,9.44274,-0.02021,-0.019815,-3.22031e-14,1.27222e-14,-25.7291,1.29645,-80.5008,50.3279,3.12499,-9.72087,7.14596,7.12502,16.2524,-22.1929,-3.22031e-14,1.27222e-14,-18.2035,-9.97611,97.1186,74.616,-2.00605,-21.6347,67.119,7.12502,4.76155,-97.0455,-27.6058,5.20014,16.582,37.6429,-14.0586,-5.02693,7.71224,-19.8191,-2.10214,-18.414,30.1803,-13.225,14.7023,-9.86186
-1.44381,18.1047,7.98659,187.716,12.6358,-181.326,31.0804,-0.234172,-2.49742,4.97498,0.486292,2.72285,-10.7158,0.84876,3.97355,-12.8263,-0.826425,-0.136251,23.1022,-0.2772,-0.00102204,9.39081,0.153313,0.0387129,-1.15295e-14,4.53229e-14,-26.5666,1.71081,-80.4915,50.9637,3.16513,-9.65013,6.89157,7.12502,16.3205,-22.4417,-1.15295e-14,4.53229e-14,-18.6386,-8.69745,96.9134,76.388,-4.11944,-25.6501,75.6685,7.12502,0.883716,-105.646,-27.8276,5.3954,16.8009,37.5258,-13.9762,-4.61266,7.56843,-20.1022,-1.81721,-18.1518,30.437,-13.3851,14.7776,-9.51855
-1.42012,18.1026,7.99219,187.906,13.0473,-181.139,31.5115,-0.248917,-2.4764,4.69998,0.43524,2.74862,-11.2,0.821083,4.01188,-12.4115,-0.478575,-0.0906603,23.0642,0.253932,-0.134471,9.29929,0.397058,0.0478501,1.63003e-14,1.27222e-14,-27.9993,2.46644,-80.4011,51.8366,3.19083,-9.61871,6.9376,7.12502,16.3508,-22.3931,1.63003e-14,1.27222e-14,-19.2937,-6.72776,96.629,78.111,-5.6653,-25.9986,79.9437,7.12502,0.547066,-109.923,-27.9921,5.55838,17.0313,37.4285,-14.008,-4.1734,8.13856,-20.2993,-1.59681,-17.8817,30.6512,-13.5474,14.9439,-9.42455
-1.39352,18.1019,7.99733,187.988,13.603,-180.998,31.7653,-0.126041,-2.44974,4.85554,0.620205,2.65549,-11.1433,0.913887,3.82259,-12.9803,-0.283436,-0.020392,23.1863,0.453536,0.00528816,9.44915,0.501215,0.107575,4.37326e-15,3.37934e-14,-28.711,2.51321,-80.2939,52.6791,3.17878,-9.79035,7.14812,7.12502,16.1855,-22.1962,4.37326e-15,3.37934e-14,-19.5215,-4.92197,96.2056,80.5097,-6.41167,-24.3493,81.2446,7.12502,2.14001,-111.214,-28.1088,5.87358,17.215,37.3672,-13.985,-3.80337,8.83674,-20.3249,-1.33248,-17.6789,30.7898,-13.7837,15.2131,-9.39873
-1.36875,18.0972,7.99631,188.031,14.2779,-180.943,31.9397,-0.0516645,-2.59016,4.91531,0.656519,2.5279,-11.1473,0.935873,3.74609,-13.0592,-0.125538,-0.262762,23.2906,0.616255,0.489434,9.49852,0.609294,0.335733,-1.86858e-14,1.59028e-14,-29.416,2.74154,-80.2809,53.0297,3.32992,-10.1119,7.64711,7.12502,15.8759,-21.7221,-1.86858e-14,1.59028e-14,-20.1389,-2.9411,95.5155,83.1474,-5.79619,-21.8584,82.1087,7.12502,4.54547,-112.04,-28.1979,6.18596,17.2978,37.286,-13.8698,-3.31396,9.61812,-20.2819,-0.996271,-17.5919,30.9326,-13.9674,15.4592,-9.01816
-1.34909,18.0944,7.99348,188.089,14.7942,-180.822,32.1075,-0.114168,-2.52683,5.0491,0.596828,2.35046,-11.0555,0.910816,3.54089,-12.3858,0.527876,0.86865,21.9006,1.41028,-0.570094,8.9016,0.925545,-0.141516,-1.90833e-14,-7.95139e-15,-29.8276,3.06585,-80.3667,53.1493,3.47642,-10.3698,7.86675,7.12502,15.6275,-21.522,-1.90833e-14,-7.95139e-15,-20.5117,-1.64626,94.6684,85.2208,-4.95098,-19.465,82.1576,7.12502,6.85631,-112.027,-28.2166,6.2801,17.4671,37.1964,-13.8125,-2.80601,10.3369,-20.262,-0.665524,-17.4603,31.133,-14.1394,15.6001,-8.46663
-1.32622,18.0974,7.99497,188.316,15.3247,-180.523,32.1866,-0.0859835,-2.39194,5.14212,0.686362,2.30471,-10.9888,0.950351,3.38299,-12.9017,0.745065,1.05446,21.9789,1.63934,-0.558791,9.02796,1.03765,-0.140623,-2.54444e-14,2.78299e-15,-30.2254,3.26443,-80.2772,53.2338,3.54486,-10.4945,8.03347,7.12502,15.5074,-21.3646,-2.54444e-14,2.78299e-15,-20.8399,-1.07553,93.9903,86.8325,-4.25767,-16.9278,81.963,7.12502,9.30505,-111.738,-28.4247,6.43631,17.8301,37.1502,-13.7475,-2.39411,10.4302,-20.4352,-0.233531,-17.1244,31.4151,-14.4306,15.6724,-8.14065
-1.30036,18.0927,7.99884,188.559,16.1024,-180.229,32.2253,0.0962232,-2.41604,5.26775,0.91921,2.2524,-10.8795,1.06014,3.24991,-13.0178,0.963356,1.20127,21.6988,1.86231,-0.528782,8.95628,1.14364,-0.13175,1.59028e-15,-1.74931e-14,-30.5048,3.10424,-80.1515,53.2935,3.69349,-10.7605,8.39814,7.12502,15.2512,-21.0196,1.59028e-15,-1.74931e-14,-20.8221,-0.825999,93.1852,87.9798,-5.43779,-11.4354,83.1959,7.12502,14.601,-112.662,-28.7641,6.90201,18.1524,37.1558,-13.5534,-2.05039,9.72685,-20.6475,0.420138,-16.823,31.748,-14.6218,15.8848,-8.66278
-1.27879,18.0744,8.00919,188.728,16.6351,-180.224,32.2892,0.179628,-2.53492,5.38458,0.981545,2.10232,-10.7745,1.09457,3.12837,-12.8758,1.15002,1.20337,21.2501,2.01994,-0.256938,8.77481,1.23388,-0.0276008,-2.18663e-14,4.37326e-15,-30.968,2.92703,-80.0807,53.7861,3.79761,-11.0869,8.5894,7.12502,14.9368,-20.852,-2.18663e-14,4.37326e-15,-20.4633,-0.513607,92.1307,88.8322,-9.13012,-1.51583,86.3722,7.12502,24.1377,-114.874,-29.094,7.15147,18.1722,37.1801,-13.4323,-1.70892,9.97136,-20.9334,0.891782,-16.8142,32.1275,-14.8822,15.9672,-9.51664
-1.25924,18.0634,8.02432,188.868,16.9068,-180.196,32.4485,0.146865,-2.50467,5.47504,0.959341,2.02871,-10.7332,1.08935,3.03889,-13.3096,1.20522,0.696224,21.5623,2.04907,0.464384,8.94876,1.28299,0.311588,-5.36719e-15,-2.3059e-14,-31.5145,2.77947,-79.9006,54.4815,3.96527,-11.1646,8.63009,7.12502,14.8619,-20.8169,-5.36719e-15,-2.3059e-14,-19.7839,-0.251958,91.1995,89.0228,-12.3087,7.40405,88.6923,7.12502,32.6602,-115.764,-29.3581,7.08654,18.2722,37.2466,-13.4017,-1.32711,10.5121,-21.2401,1.05994,-16.7329,32.5097,-15.1483,16.0146,-11.1516
-1.24006,18.0627,8.02993,189.009,17.3235,-179.885,32.2936,0.114426,-2.2424,5.81505,1.06169,1.99819,-10.2955,1.14207,2.82615,-13.2465,1.43794,0.824007,20.8944,2.32613,0.259451,8.71294,1.38033,0.24294,-4.55217e-14,-3.18055e-15,-31.5407,2.49327,-79.7487,54.7977,4.20282,-11.3213,8.70231,7.12502,14.711,-20.7557,-4.55217e-14,-3.18055e-15,-18.5555,-0.146787,90.4009,88.4166,-14.9569,14.7176,-90.1031,7.12502,39.5858,-115.453,-29.5127,7.13291,18.66,37.3417,-13.4369,-0.885365,10.4482,-21.4588,1.32554,-16.3827,32.889,-15.3132,16.2439,-8.37848
-1.22028,18.0596,8.03439,189.112,17.648,-179.903,32.1031,0.155176,-2.25677,6.08918,1.14898,1.96389,-9.91842,1.19213,2.7668,-13.8549,1.29701,0.180368,21.3888,2.11782,1.01252,8.97759,1.31436,0.593779,2.42517e-14,-3.22031e-14,-31.6556,2.20306,-79.4812,55.1459,4.38696,-11.5304,8.26269,7.12502,14.5095,-21.2099,2.42517e-14,-3.22031e-14,-17.2591,-0.371351,89.8422,87.1434,-17.2092,20.6568,-90.5537,7.12502,45.1465,-113.995,-29.7173,7.23755,18.6602,37.4394,-13.4658,-0.521705,10.9634,-21.7946,1.55761,-16.3922,33.2984,-15.0151,16.555,-9.91528
-1.19935,18.0542,8.05021,189.248,17.6142,-180.053,32.1523,0.107481,-2.34834,6.1254,1.06974,1.9923,-9.89427,1.16051,2.87488,-12.8956,1.62446,0.736545,20.3304,2.59734,0.134724,8.45846,1.47731,0.235041,-1.13307e-14,-5.48646e-14,-31.9427,1.94983,-79.2195,55.464,4.69331,-11.726,7.80832,7.12502,14.321,-21.6778,-1.13307e-14,-5.48646e-14,-16.1661,-0.697261,89.3734,85.4442,-19.0535,25.2869,-90.3551,7.12502,49.4244,-111.875,-29.9598,7.22922,18.5288,37.5312,-13.5767,-0.297554,11.9639,-22.3175,1.62351,-16.4884,33.7803,-14.4885,16.6631,-13.0512
-1.18185,18.0453,8.0646,189.355,17.3915,-179.861,32.5091,-0.0931874,-2.16005,6.09911,0.911052,2.16286,-10.0603,1.09192,3.00866,-13.0357,1.65429,0.6256,20.6905,2.69806,0.0899877,8.60551,1.51722,0.255652,1.59028e-14,-1.39149e-14,-32.1366,1.9455,-79.0336,55.7003,4.812,-11.7877,7.59972,7.12502,14.2616,-21.8906,1.59028e-14,-1.39149e-14,-15.2771,-0.786306,89.0336,83.6241,-20.7593,28.7706,89.3116,7.12502,52.5983,-109.055,-30.0318,7.10277,18.8041,37.6658,-13.8045,-0.104475,11.9728,-22.7167,1.49011,-16.1652,34.303,-14.4868,16.6578,-11.4121
-1.16504,18.0335,8.07743,189.337,17.2664,-179.659,32.9369,-0.221958,-1.99163,6.17057,0.86348,2.32921,-10.1517,1.08305,3.10641,-13.7643,1.66432,0.399127,21.4734,2.77392,0.200372,9.00291,1.551,0.357705,3.97569e-16,-2.34566e-14,-32.1705,1.82372,-78.8134,55.8999,4.78356,-12.014,7.36383,7.12502,14.0435,-22.1417,3.97569e-16,-2.34566e-14,-14.3072,-1.06562,88.8877,81.579,-22.373,31.173,87.6321,7.12502,54.7583,-105.944,-30.0059,6.97142,19.1132,37.7996,-13.8299,0.0333021,11.5742,-23.0041,1.50795,-15.8694,34.8429,-14.718,16.8332,-7.58869
-1.14838,18.0277,8.09169,189.323,17.197,-179.78,33.1377,-0.289109,-2.0788,6.21754,0.778844,2.41206,-10.1754,1.05456,3.27084,-13.3046,1.85244,0.735319,21.0139,3.0692,-0.380384,8.77624,1.6511,0.127754,-4.41302e-14,1.59028e-15,-32.2013,1.7863,-78.6616,56.0339,4.65811,-12.3547,7.17579,7.12502,13.7152,-22.3522,-4.41302e-14,1.59028e-15,-13.2939,-1.45911,88.8523,79.1029,-23.7208,32.4633,85.4006,7.12502,55.9069,-102.862,-30.1436,6.85235,19.0508,37.9098,-13.7171,0.165255,11.3299,-23.4287,1.59101,-15.9701,35.3987,-14.7546,17.024,-7.14927
-1.13133,18.031,8.10836,189.337,16.9809,-180.001,33.2732,-0.43269,-2.1091,6.17105,0.586038,2.4242,-10.2669,0.967966,3.37255,-12.4941,1.95808,0.906135,20.478,3.25684,-0.771695,8.45651,1.71695,-0.0268113,-1.94809e-14,2.46493e-14,-32.3126,1.86473,-78.698,56.1596,4.5105,-12.8335,6.88857,7.12502,13.2536,-22.6701,-1.94809e-14,2.46493e-14,-12.4086,-1.96571,88.8543,76.5839,-24.2645,32.1634,83.8432,7.12502,55.6407,-101.508,-30.271,6.70521,18.8998,37.9138,-13.6859,0.052263,10.6591,-23.9565,1.51652,-16.1409,35.9236,-14.4895,17.0573,-8.59664
-1.10987,18.0284,8.13771,189.413,16.5459,-180.05,33.5679,-0.680253,-2.02477,6.1124,0.312404,2.45878,-10.4286,0.846464,3.46699,-12.2993,2.02772,1.08776,20.4724,3.35798,-0.921477,8.42587,1.76692,-0.0983979,2.42517e-14,1.70955e-14,-32.2252,1.99311,-78.9147,56.2013,4.56431,-13.455,6.73945,7.12502,12.6546,-22.8572,2.42517e-14,1.70955e-14,-10.9929,-2.75129,88.6082,72.3592,-26.8611,31.6013,78.9049,7.12502,55.1405,-96.9414,-30.4155,6.54825,18.9637,37.9389,-13.715,-0.203459,10.3897,-24.6101,1.48433,-16.0782,36.543,-14.097,16.7839,-9.56754
-1.09856,18.0345,8.10631,188.958,17.1178,-179.719,34.0018,-0.620817,-1.90976,6.38922,0.506675,2.47701,-10.3018,0.959124,3.34215,-12.6071,2.07823,1.21086,20.8265,3.43082,-0.971114,8.60622,1.80576,-0.119902,-7.95139e-15,7.15625e-15,-31.8066,2.14669,-79.1292,56.1502,4.70871,-13.9905,6.75109,7.12502,12.1382,-22.8768,-7.95139e-15,7.15625e-15,-9.44748,-3.4694,88.5735,68.9923,-26.578,28.4643,77.4061,7.12502,52.3211,-97.319,-29.7036,6.9879,19.3299,37.8811,-13.8053,0.0121876,9.84757,-24.1199,2.06382,-15.8679,37.2403,-14.0759,16.8978,-11.074
-1.08338,18.0221,8.12446,189.106,16.6873,-179.565,34.1756,-1.01179,-1.95422,6.26482,0.0194337,2.75909,-10.4777,0.736395,3.85807,-11.9776,2.3318,0.924843,20.6346,3.85864,-0.97344,8.42536,1.99287,-0.0369007,1.47101e-14,4.13472e-14,-31.4382,3.27222,-79.4967,56.1809,4.93664,-14.4505,6.49525,7.12502,11.6947,-23.1583,1.47101e-14,4.13472e-14,-8.3841,-3.3965,88.6287,65.0531,-28.1705,24.1014,74.1174,7.12502,48.3349,-96.1724,-29.7745,6.87243,19.5533,37.855,-13.8549,-0.21396,9.62999,-24.8837,2.20035,-15.6791,38.1122,-13.7063,16.5747,-12.6759
-1.06818,18.0143,8.14283,189.186,16.2023,-179.446,34.4679,-1.34152,-1.77488,6.28149,-0.298978,2.82371,-10.5487,0.597785,3.95375,-12.1966,2.45937,1.30752,20.6635,3.97475,-1.12333,8.48768,2.05508,-0.134747,-4.96962e-15,5.32743e-14,-30.8326,3.82224,-80.0016,56.1997,5.03363,-15.0069,6.36347,7.12502,11.1581,-23.3198,-4.96962e-15,5.32743e-14,-6.69409,-4.0208,88.5049,60.9149,-29.0049,17.9331,71.6429,7.12502,42.605,-96.0269,-29.7374,6.69812,19.7654,37.8156,-13.9952,-0.448128,9.35885,-25.6723,2.20177,-15.4896,39.065,-13.8396,16.2359,-11.7056
-1.05602,18.0099,8.16143,189.237,15.7122,-179.331,34.6925,-1.73263,-1.42519,6.31999,-0.640643,2.81097,-10.5693,0.443975,3.88475,-12.4187,2.53229,1.59959,20.8221,4.0392,-1.23241,8.59172,2.09357,-0.207719,-7.55382e-15,-1.66979e-14,-30.173,4.40892,-80.561,56.1024,5.0948,-15.584,6.1936,7.12502,10.6014,-23.519,-7.55382e-15,-1.66979e-14,-4.96148,-4.58866,88.4244,56.8457,-29.3142,10.3439,70.0058,7.12502,35.4525,-96.455,-29.7421,6.44978,19.9772,37.8871,-14.1716,-0.553358,9.57854,-26.5256,2.08945,-15.3094,40.1131,-13.7603,16.0887,-11.7707
-1.04698,18.0045,8.18006,189.246,15.2566,-179.272,34.8939,-2.1253,-1.06989,6.39484,-0.982503,2.73974,-10.5428,0.291367,3.75017,-12.5493,2.58088,1.81833,20.7219,4.04309,-1.26101,8.58709,2.10252,-0.252759,-1.59028e-14,-2.64384e-14,-29.4205,4.80698,-81.1912,56.1277,5.42237,-15.7998,6.26573,7.12502,10.3933,-23.4574,-1.59028e-14,-2.64384e-14,-3.31177,-5.24554,88.3484,52.8804,-29.7367,1.91814,68.8633,7.12502,27.4263,-96.8869,-29.7944,6.22979,20.1343,37.996,-14.2559,-0.805402,9.28163,-27.3982,2.06195,-15.221,41.1858,-13.3951,15.8896,-12.9442
-1.03529,17.9944,8.20041,189.323,14.9717,-179.342,35.1599,-2.32359,-1.06931,6.34377,-1.22468,2.7339,-10.683,0.185918,3.84263,-12.7482,2.60813,2.06844,20.7943,4.02389,-1.28719,8.65393,2.10596,-0.301707,3.97569e-14,-3.75703e-14,-28.8393,5.2137,-81.7472,56.3758,5.80011,-15.7662,6.24246,7.12502,10.4257,-23.4791,3.97569e-14,-3.75703e-14,-1.97202,-6.04162,88.3326,49.1713,-30.073,-6.7065,68.4824,7.12502,19.1531,-97.5594,-30.0971,6.18109,20.1265,38.2314,-14.3379,-1.07716,9.02462,-28.4201,2.15392,-15.2968,42.378,-13.0556,15.6717,-13.8479
-1.02258,17.9843,8.21287,189.404,14.9493,-179.341,35.4874,-2.40368,-1.22572,6.20779,-1.38307,2.80683,-10.9427,0.118682,4.07599,-12.7788,2.62184,2.03035,20.955,4.03061,-1.13664,8.71024,2.12388,-0.241804,-4.59193e-14,1.13307e-14,-28.3701,6.01711,-82.3467,56.7203,5.82754,-15.6741,5.02758,7.12502,10.5145,-24.6894,-4.59193e-14,1.13307e-14,-0.932407,-6.57799,88.4138,45.6717,-30.6778,-14.7738,68.6431,7.12502,11.3829,-98.3142,-30.4074,6.3311,20.1539,38.5421,-14.4522,-1.25048,8.99017,-29.3429,2.4206,-15.3409,43.603,-12.8005,15.5033,-14.6726
-1.01319,17.9512,8.21742,189.413,14.9381,-179.186,35.7735,-2.5433,-1.19964,6.19412,-1.52158,2.88927,-11.0541,0.0630561,4.21027,-12.9622,2.62505,1.75812,21.0975,4.02164,-0.810699,8.77941,2.13027,-0.0836228,-7.95139e-16,1.2921e-14,-27.5947,6.84263,-82.9697,56.8346,5.82536,-15.4712,3.75935,7.12502,10.7103,-25.9476,-7.95139e-16,1.2921e-14,0.0680422,-6.90666,88.5105,42.246,-32.239,-21.9242,68.965,7.12502,4.48194,-98.8976,-30.5972,6.42332,20.3603,38.9292,-14.6058,-1.37268,8.46641,-30.1649,2.75252,-15.2533,44.8792,-12.3142,15.3254,-14.3152
-1.00354,17.936,8.22344,189.405,15.0167,-179.205,36.161,-2.59186,-1.36319,6.08247,-1.63563,2.89175,-11.1899,0.0213261,4.3574,-13.0704,2.60403,1.68294,20.9854,3.94435,-0.623237,8.75429,2.10171,-0.0169399,1.37161e-14,2.60408e-14,-26.7188,7.43573,-83.5552,56.6961,6.12759,-15.3565,4.1662,7.12502,10.8209,-25.535,1.37161e-14,2.60408e-14,0.826785,-7.34261,88.5566,39.3036,-33.7029,-27.8131,69.0075,7.12502,-1.20543,-98.9838,-30.8094,6.49617,20.381,39.281,-14.752,-1.37707,8.18598,-30.9882,2.97392,-15.3586,46.1086,-11.4202,15.302,-11.1725
-0.996052,17.9252,8.22995,189.33,15.211,-179.249,36.5989,-2.55748,-1.5223,6.04058,-1.6463,2.83997,-11.394,0.0301504,4.39803,-13.2618,2.5443,1.77478,20.9336,3.79549,-0.51427,8.76965,2.04476,-0.0105154,1.69961e-14,1.40143e-14,-25.7943,7.75596,-84.106,56.5783,6.4248,-15.3018,5.03052,7.12502,10.8737,-24.668,1.69961e-14,1.40143e-14,1.46214,-8.12791,88.4978,36.9876,-33.4761,-30.0953,69.4909,7.12502,-3.40948,-99.4433,-30.9772,6.64487,20.3693,39.6553,-14.8732,-1.3801,8.12483,-31.7212,3.23123,-15.5107,47.33,-10.6125,15.3323,-7.60838
-0.992273,17.9053,8.23578,189.437,15.3689,-178.999,36.684,-2.72698,-1.44198,6.11695,-1.80634,2.8751,-11.3273,-0.0401957,4.45717,-12.8515,2.772,2.06004,20.1663,4.10562,-1.01503,8.45537,2.14902,-0.206899,-1.69961e-14,-2.0773e-14,-24.6574,8.6194,-84.7226,56.4715,6.416,-15.2737,5.62513,7.12502,10.9007,-24.0719,-1.69961e-14,-2.0773e-14,1.45375,-7.16661,88.6055,36.6934,-33.6209,-27.3178,69.7717,7.12502,-0.726998,-99.7503,-31.1485,6.73413,20.6637,39.8278,-14.8863,-1.33825,8.31424,-32.5386,3.7006,-15.3779,48.4496,-10.3829,15.1701,-5.33364
-0.990651,17.8774,8.24124,189.739,15.5,-178.813,36.383,-2.88085,-1.32531,6.22958,-1.95456,2.89028,-11.0804,-0.117252,4.46284,-13.0439,2.84773,1.94722,20.1166,4.22041,-1.04164,8.47362,2.18491,-0.18223,-6.58971e-14,1.38652e-14,-23.4458,9.35781,-85.3679,56.3808,6.65018,-15.1755,5.9293,7.12502,10.9955,-23.7627,-6.58971e-14,1.38652e-14,1.42161,-5.66917,88.8376,36.9157,-34.0245,-18.3744,69.832,7.12502,7.90896,-99.664,-31.5543,6.72552,20.8635,39.9533,-14.8142,-1.21693,8.34156,-33.5989,4.17138,-15.3678,49.5203,-10.5931,15.0391,-4.76348
-0.997004,17.8898,8.21674,189.494,15.9946,-178.538,36.5776,-2.898,-1.12858,6.39665,-1.86055,2.85514,-10.9773,-0.0662823,4.27888,-12.8252,2.90184,2.1473,19.8109,4.32359,-1.45722,8.34687,2.2041,-0.349456,-1.69961e-14,-2.93207e-15,-22.5124,9.96342,-85.8964,56.4818,7.16067,-15.1288,6.2952,7.12502,11.0405,-23.3944,-1.69961e-14,-2.93207e-15,1.02736,-5.13639,89.1918,37.2896,-31.5107,-18.2807,70.1732,7.12502,7.99941,-100.002,-31.1351,6.85446,21.1393,39.9245,-14.8373,-0.857402,8.54712,-33.7014,4.64315,-15.3106,50.3457,-11.2197,15.305,-4.1983
-1.00767,17.8938,8.18456,189.419,16.3798,-178.567,36.4197,-2.94127,-0.99541,6.46438,-1.88153,2.75662,-10.8472,-0.083175,4.10553,-12.4359,2.93267,2.28953,19.5561,4.41358,-1.82505,8.20452,2.22414,-0.493967,2.4202e-14,-3.78933e-14,-21.8227,10.5317,-86.4366,56.8281,7.27668,-15.4967,7.70709,7.12502,10.6856,-22.0012,2.4202e-14,-3.78933e-14,0.454005,-5.12765,89.4029,37.9944,-28.4278,-18.6137,70.7042,7.12502,7.67802,-100.545,-30.9588,6.62207,21.0854,39.9412,-14.9736,-0.334921,8.43101,-34.0204,4.98283,-15.5923,51.0416,-11.7745,15.6392,-4.41349
-1.02024,17.9017,8.1392,189.365,16.8082,-178.875,36.0571,-2.91601,-1.09412,6.52917,-1.92135,2.66219,-10.6361,-0.110837,4.06439,-12.2376,2.87249,2.09665,19.5356,4.40953,-1.95944,8.16031,2.19955,-0.510259,6.60959e-15,4.07509e-15,-21.047,11.1357,-86.924,57.2357,6.99127,-16.0086,8.59559,7.12502,10.1919,-21.1375,6.60959e-15,4.07509e-15,-0.254579,-5.33775,89.6764,39.0022,-24.7646,-19.4711,71.2638,7.12502,6.8504,-101.133,-30.8126,6.08179,20.7407,39.9457,-15.1665,0.484814,8.23757,-34.2151,5.35527,-16.2468,51.557,-12.2767,15.5785,-6.15939
-1.02766,17.897,8.11366,189.321,17.2208,-179.01,36.0014,-2.79845,-1.28764,6.51317,-1.84765,2.74572,-10.6312,-0.0779179,4.22827,-12.1107,2.72842,1.62692,19.6369,4.32124,-1.93604,8.15814,2.13156,-0.435091,-1.16289e-14,1.82882e-14,-20.2248,11.9305,-87.2885,57.4327,6.63515,-16.2662,8.4665,7.12502,9.94332,-21.2787,-1.16289e-14,1.82882e-14,-1.19676,-5.36935,90.1711,40.3262,-21.2048,-20.4918,71.2523,7.12502,5.86505,-101.151,-30.8157,5.81486,20.594,40.1001,-15.2631,0.951711,7.8595,-34.5839,5.84195,-16.65,52.0883,-12.5803,14.9634,-7.38325
-1.03147,17.8793,8.10631,189.269,17.5764,-178.895,35.9253,-2.84644,-1.30343,6.65786,-1.89276,2.75729,-10.4357,-0.0958524,4.26077,-12.0801,2.77973,1.4356,19.6524,4.44353,-1.97994,8.15696,2.17132,-0.405276,2.41026e-14,3.80673e-14,-19.2126,13.0352,-87.896,57.5201,6.06006,-16.7406,8.327,7.12502,9.48566,-21.4395,2.41026e-14,3.80673e-14,-1.88578,-5.29511,90.2815,41.774,-17.5608,-21.3709,70.9068,7.12502,5.01621,-100.827,-30.8631,5.98948,20.7007,40.2997,-15.267,0.808973,7.53849,-35.1375,6.27416,-16.6982,52.6282,-12.7139,14.2004,-7.58814
-1.037,17.8624,8.09611,189.189,17.9156,-178.676,36.1316,-2.63464,-1.16879,6.8042,-1.52,2.81184,-10.3791,0.0874382,4.09806,-12.571,2.70207,1.97046,19.8047,4.32456,-2.5008,8.31918,2.09388,-0.671168,-1.36167e-14,2.85256e-14,-18.2376,13.2792,-88.2339,57.7982,5.18344,-17.007,8.44986,7.12502,9.22857,-21.3282,-1.36167e-14,2.85256e-14,-2.37866,-5.91998,90.6029,43.3002,-14.4858,-21.9469,70.2922,7.12502,4.46001,-100.225,-30.8329,6.22211,20.8926,40.5113,-15.2965,0.758024,7.55117,-35.6183,6.67894,-16.6364,53.1114,-12.9077,13.4503,-8.00087
-1.04315,17.8515,8.08488,189.124,18.1559,-178.451,36.3776,-2.53007,-0.946248,6.80636,-1.27476,2.8785,-10.4904,0.20378,3.95669,-12.7431,2.6162,2.14745,20.034,4.23169,-2.72005,8.43432,2.04167,-0.779812,6.85807e-15,1.33186e-14,-17.4576,13.65,-88.6547,58.1093,4.28056,-16.931,8.7543,7.12502,9.30196,-21.0205,6.85807e-15,1.33186e-14,-3.24787,-6.18655,90.9622,44.9184,-11.9933,-22.1465,69.2724,7.12502,4.2673,-99.2094,-30.7721,6.32481,21.113,40.6947,-15.3777,0.91486,7.90525,-36.0428,6.96914,-16.5385,53.4452,-13.1811,12.6203,-8.33816
-1.04876,17.842,8.06756,189.036,18.4277,-178.344,36.4403,-2.52787,-0.660176,6.86596,-1.16372,2.76544,-10.4611,0.253521,3.63754,-12.7854,2.49591,2.24544,20.1085,4.06798,-2.80302,8.46655,1.96452,-0.841075,-6.95746e-14,-2.68359e-14,-16.4438,13.8713,-89.2572,58.1533,3.95524,-16.9648,9.02781,7.12502,9.2693,-20.7484,-6.95746e-14,-2.68359e-14,-4.18234,-6.48884,91.0912,46.6146,-9.32877,-21.7072,68.0941,7.12502,4.69153,-98.0221,-30.6888,6.40926,21.2024,40.8523,-15.4446,1.26375,8.70861,-36.3856,7.16958,-16.584,53.6099,-13.3479,11.8271,-9.33412
-1.05486,17.833,8.04513,188.937,18.7129,-178.338,36.635,-2.24543,-0.843821,6.81494,-0.831881,3.04925,-10.6086,0.412693,3.91068,-12.7791,2.198,1.81401,20.1765,3.77885,-2.88763,8.47382,1.79152,-0.829344,-9.52179e-14,8.18993e-14,-15.5687,14.1577,-89.1914,58.1407,3.75663,-17.1574,9.10776,7.12502,9.08344,-20.6766,-9.52179e-14,8.18993e-14,-5.35962,-6.70453,91.8834,48.3152,-6.79387,-20.6693,66.9792,7.12502,5.69363,-96.8828,-30.6009,6.49829,21.1722,40.9796,-15.5264,1.49211,8.93115,-36.7346,7.33846,-16.7498,53.6174,-13.3354,11.0674,-10.8694
-1.06134,17.8237,8.0201,188.843,18.8292,-178.287,36.6886,-2.10989,-0.778577,6.80597,-0.597447,3.26303,-10.6578,0.522229,4.01246,-12.9038,1.87554,1.20385,20.5113,3.43112,-2.58405,8.58494,1.61672,-0.661399,2.127e-14,6.1822e-14,-14.7833,14.407,-89.2058,58.3618,3.55922,-17.4684,8.66217,7.12502,8.78334,-21.1351,2.127e-14,6.1822e-14,-6.50306,-6.91454,92.598,49.8432,-4.65265,-19.7057,65.708,7.12502,6.62389,-95.5844,-30.467,6.48561,21.2033,41.0922,-15.6357,1.53108,8.65336,-37.1422,7.36091,-16.8219,53.5118,-13.4218,10.2056,-11.5547
-1.06622,17.8127,7.99308,188.689,18.8051,-178.131,36.8407,-2.04206,-0.622681,6.83729,-0.383519,3.53035,-10.6986,0.628141,4.1309,-12.5204,1.86633,1.25279,19.9398,3.51462,-3.24059,8.33749,1.59822,-0.885981,1.47101e-14,7.15625e-15,-13.874,14.6357,-89.1743,58.492,3.55724,-17.8086,8.24569,7.12502,8.45507,-21.5651,1.47101e-14,7.15625e-15,-7.37768,-7.12955,93.2588,51.1972,-2.10514,-18.6565,64.4955,7.12502,7.63672,-94.3376,-30.2056,6.52404,21.3668,41.1875,-15.7995,1.39249,8.20332,-37.4365,7.38622,-16.7734,53.2873,-13.4999,9.29419,-12.1486
-1.06887,17.8058,7.96607,188.534,18.8495,-178.064,36.6458,-2.14825,-0.215983,7.0906,-0.348075,3.34366,-10.3462,0.648502,3.6918,-12.699,1.85712,1.63045,19.7844,3.45046,-3.50137,8.32716,1.56316,-1.04226,2.5842e-14,2.78299e-15,-12.6156,14.6876,-89.6284,58.4189,3.77636,-18.5056,8.7433,7.12502,7.78237,-21.0935,2.5842e-14,2.78299e-15,-7.84813,-7.71364,93.1159,52.5353,1.02712,-17.702,63.2619,7.12502,8.5579,-93.0685,-29.9775,6.65956,21.4365,41.2613,-15.9277,1.23422,7.49938,-37.6354,7.46464,-16.8551,52.9224,-13.6284,8.55198,-13.0979
-1.07169,17.8004,7.9359,188.407,19.0621,-178.14,36.6463,-1.80198,-0.524022,7.09955,0.0193861,3.64934,-10.3655,0.825243,4.03685,-12.7308,1.63409,1.34954,19.918,3.26603,-3.69247,8.37199,1.44108,-1.0785,-3.97569e-15,-2.50469e-14,-11.8529,14.9062,-89.3402,58.5205,4.10912,-19.3735,9.86901,7.12502,6.94457,-19.9971,-3.97569e-15,-2.50469e-14,-8.79983,-8.08434,93.833,53.9287,3.88943,-17.305,62.1468,7.12502,8.94106,-91.9373,-29.8764,6.92119,21.3248,41.4376,-16.0376,1.03582,6.72761,-37.8708,7.65915,-17.1079,52.4837,-13.8311,7.88936,-13.4658
-1.07529,17.7942,7.90641,188.223,19.0211,-178.209,36.6687,-1.69669,-0.519556,7.09637,0.181494,3.7841,-10.3927,0.903213,4.11413,-12.5541,1.45191,1.13222,19.8553,3.0709,-3.71363,8.31055,1.33729,-1.07155,1.70955e-14,-9.66093e-14,-11.1308,15.0613,-89.3087,58.6037,4.5431,-20.293,10.813,7.12502,6.05694,-19.0805,1.70955e-14,-9.66093e-14,-9.75655,-8.41202,94.351,55.079,6.55654,-17.4272,61.0977,7.12502,8.82315,-90.8932,-29.724,7.10945,21.2412,41.6543,-16.2141,0.855312,6.89782,-38.141,7.66638,-17.2958,51.9427,-14.003,7.31809,-14.1269
-1.07836,17.7559,7.88791,188.076,18.5395,-178.131,36.8198,-1.84306,-0.159805,7.05754,0.170606,3.8717,-10.4929,0.900117,4.02127,-12.4805,1.324,1.20892,19.7755,2.88745,-3.77923,8.26718,1.25212,-1.1266,2.74323e-14,8.34896e-15,-10.5653,15.0626,-89.4223,58.9375,4.89715,-20.9858,11.3279,7.12502,5.38803,-18.5836,2.74323e-14,8.34896e-15,-10.5401,-8.67723,94.6575,56.1163,9.39209,-18.3119,59.9041,7.12502,7.96933,-270.266,-29.7136,7.13599,21.3694,42.0361,-16.5337,0.551112,7.49634,-38.5629,7.38209,-17.2849,51.4034,-14.0919,6.84252,-14.9943
-1.07764,17.7354,7.86439,188.005,18.084,-177.96,36.8157,-1.91759,0.21887,7.06921,0.262031,3.99425,-10.4878,0.943523,3.91377,-12.7582,1.15586,1.34293,20.0013,2.65468,-3.84157,8.38946,1.14301,-1.1939,2.46493e-14,-8.11041e-14,-9.95156,14.781,-89.4732,59.2501,5.38409,-21.588,11.868,7.12502,4.80663,-18.0575,2.46493e-14,-8.11041e-14,-11.1594,-8.8963,94.9255,57.1375,12.0932,-19.5109,58.707,7.12502,6.81202,-271.423,-29.6744,7.1228,21.6012,42.4335,-16.9476,0.34381,8.1246,-38.8353,7.21299,-17.2287,50.6809,-13.9577,6.45451,-15.5272
-1.07146,17.7188,7.83729,187.881,17.7647,-178.108,36.6036,-1.82105,0.154705,7.14452,0.384202,4.11242,-10.3385,1.00619,4.02392,-12.9355,0.95344,1.27926,20.077,2.38413,-3.81129,8.43833,1.01159,-1.20233,5.60573e-14,-1.19271e-15,-8.97684,14.5319,-89.347,59.2175,6.08354,-22.3627,12.5773,7.12502,4.05853,-17.3638,5.60573e-14,-1.19271e-15,-11.6032,-8.8776,95.3652,57.8724,14.7166,-15.6844,60.3579,7.12502,10.5046,-450.075,-29.6193,7.30126,21.4585,42.7567,-17.2199,0.00403877,8.73721,-39.1447,7.20777,-17.5424,49.7978,-13.6216,6.22874,-17.0032
-1.06488,17.7163,7.81545,187.625,17.1833,-178.592,36.3938,-1.82685,-0.129752,7.18234,0.286196,4.21517,-10.2161,0.969926,4.32422,-12.9806,0.789745,1.18767,20.0706,2.19699,-3.89195,8.4392,0.909305,-1.23444,4.29375e-14,3.26007e-14,-8.0096,14.4935,-89.1967,59.4468,6.60198,-23.4992,13.007,7.12502,2.96097,-16.9522,4.29375e-14,3.26007e-14,-12.0427,-8.55971,95.8446,58.4586,17.733,-15.4859,60.1805,7.12502,10.6961,-270.112,-29.4361,7.27911,20.9932,42.9445,-17.4022,-0.61788,8.58753,-39.4842,6.88634,-18.1615,48.7179,-13.2157,6.15704,-17.1602
-1.06773,17.7492,7.74463,187.081,17.0813,-178.769,36.1098,-1.88376,-0.0521205,7.40734,0.273553,4.21195,-9.85887,0.975707,4.27958,-12.8967,0.670479,0.880388,19.9666,2.0734,-3.79625,8.38187,0.839948,-1.16425,-9.70069e-14,-4.77083e-15,-7.27762,14.4767,-89.0902,60.0153,6.83459,-24.3759,13.7598,7.12502,2.11436,-16.2094,-9.70069e-14,-4.77083e-15,-12.4489,-8.08197,96.2088,59.0329,21.3734,-14.5411,61.0481,7.12502,11.6073,-90.7066,-28.5727,7.32359,20.8276,43.0099,-17.7748,-0.914975,8.18498,-39.0726,6.8553,-18.4811,47.5108,-12.8429,6.42321,-15.6423
-1.06537,17.7521,7.70218,186.914,16.6405,-178.727,35.7333,-1.8881,0.389673,7.62993,0.446598,4.18143,-9.60682,1.06067,3.92202,-13.0669,0.385911,0.963015,19.7692,1.57959,-3.57303,8.3314,0.627883,-1.15741,-1.59028e-14,-3.4191e-14,-6.5178,13.5968,-88.9886,60.6129,6.90945,-24.3364,14.6004,7.12502,2.15248,-15.3685,-1.59028e-14,-3.4191e-14,-12.6161,-8.34781,96.4613,59.4374,25.319,-13.6214,62.433,7.12502,12.4941,-92.0395,-28.1811,7.40213,20.9272,43.1122,-18.084,-1.66997,7.75291,-39.1094,6.77367,-18.5845,46.2887,-12.3421,6.64817,-15.781
-1.0577,17.7311,7.68309,186.772,16.0317,-178.715,35.9203,-1.76212,0.351096,7.48069,0.648125,4.49783,-9.86712,1.15817,4.2024,-13.2679,0.0502313,0.683505,19.9947,1.15521,-3.38128,8.43091,0.426904,-1.09372,-7.15625e-15,-4.53229e-14,-6.01444,12.8689,-88.6302,61.0342,7.07722,-24.0526,15.301,7.12502,2.42652,-14.665,-7.15625e-15,-4.53229e-14,-12.9924,-7.93422,97.1323,59.9854,31.039,-13.2253,64.8177,7.12502,12.876,-94.4005,-27.92,7.5501,21.034,43.1468,-18.1793,-2.66452,7.21125,-39.1915,6.67183,-18.7061,45.0051,-12.3533,7.03885,-17.508
-1.04817,17.722,7.65555,186.593,15.2633,-178.968,35.602,-1.9135,0.388816,7.53061,0.466697,4.48323,-9.68127,1.07738,4.23691,-13.4392,-0.136868,0.511245,20.0791,0.853443,-3.0167,8.48152,0.305314,-0.976873,-3.57812e-14,-4.77083e-15,-5.05123,12.2881,-88.6751,61.0556,7.3263,-24.1017,15.9718,7.12502,2.37918,-13.9946,-3.57812e-14,-4.77083e-15,-12.9322,-7.48549,97.2646,60.1886,36.6574,-12.1488,67.9874,7.12502,13.9136,-97.5019,-27.6457,7.41602,20.874,43.2485,-18.3635,-3.47499,6.47136,-39.2987,6.49286,-19.1392,43.6723,-12.8651,7.5173,-17.2838
-1.04492,17.7388,7.57802,185.992,15.2931,-179.138,35.5979,-1.69544,0.170362,7.58792,0.693843,4.58979,-9.63862,1.19331,4.37738,-13.4915,-0.392723,0.00938353,20.4011,0.597327,-2.77282,8.59436,0.17862,-0.839996,-4.69132e-14,6.91771e-14,-4.60238,11.9221,-88.3118,61.4306,7.13997,-24.2702,16.403,7.12502,2.2164,-13.5652,-4.69132e-14,6.91771e-14,-13.1237,-6.93935,97.7848,60.1983,41.8667,-13.6947,67.4737,7.12502,12.4235,-97.0845,-26.7212,7.80841,20.7347,43.3034,-18.654,-4.04689,5.10212,-38.5766,6.76886,-19.4587,42.2703,-13.4292,8.18159,-15.8832
-1.03741,17.7401,7.53442,185.674,14.807,-179.326,35.5033,-1.6224,0.101148,7.57285,0.772985,4.65499,-9.63033,1.23421,4.4528,-13.2894,-0.578372,0.312745,20.1933,0.360403,-3.2001,8.48337,0.0511586,-1.05895,6.36111e-15,-8.90555e-14,-4.07714,11.2324,-88.057,61.9557,6.75495,-24.2514,16.5931,7.12502,2.23456,-13.3749,6.36111e-15,-8.90555e-14,-13.2919,-7.08943,98.3467,59.5235,48.3697,-14.8586,66.3193,7.12502,11.3011,-95.9948,-26.1789,8.02879,20.628,43.2787,-18.6866,-4.93088,3.98757,-38.3934,6.74584,-19.789,40.8387,-13.3865,8.55049,-14.9167
-1.02662,17.7259,7.51771,185.629,13.6267,-179.358,35.4385,-1.80373,0.309753,7.41022,0.642646,4.83474,-9.78293,1.17213,4.58569,-13.5064,-0.824899,0.484002,20.3786,0.0384689,-3.38618,8.57854,-0.105591,-1.1882,1.59028e-15,6.12257e-14,-3.43212,10.4618,-87.853,62.4449,6.10144,-23.8226,16.0892,7.12502,2.64871,-13.8741,1.59028e-15,6.12257e-14,-13.2791,-6.94563,98.8097,59.4708,54.213,-15.999,68.1347,7.12502,10.2011,-97.8673,-25.9207,7.81613,20.7358,43.2234,-18.6092,-5.92023,3.42918,-38.683,6.23972,-19.9387,39.4263,-13.0606,8.7856,-13.7799
-1.02387,17.7329,7.44965,185.23,13.3638,-179.098,35.5213,-1.78834,0.569994,7.38738,0.797441,4.95146,-9.85344,1.24856,4.50905,-13.6378,-1.0184,0.422699,20.6208,-0.184573,-3.40787,8.68015,-0.213595,-1.21259,-8.74653e-15,-4.37326e-14,-2.90409,10.1303,-87.6401,62.9338,5.00364,-23.8247,15.0506,7.12502,2.64664,-14.9127,-8.74653e-15,-4.37326e-14,-13.1816,-6.37102,99.1967,59.133,58.8356,-16.1465,68.8586,7.12502,10.0588,-98.5982,-25.0374,8.17395,21.0957,43.1264,-18.8278,-6.56162,3.85662,-38.1292,6.24061,-19.6786,38.0218,-13.1334,9.36697,-12.5743
-1.01684,17.7336,7.39469,184.979,12.7522,-178.975,35.4533,-1.83035,0.822858,7.27819,0.855883,5.09389,-9.95801,1.2728,4.5035,-13.4593,-1.29426,0.105662,20.7571,-0.509553,-3.21572,8.68912,-0.36145,-1.13005,-1.43125e-14,-3.26007e-14,-2.50628,9.34691,-87.4227,63.3251,4.03546,-24.0545,14.7627,7.12502,2.42477,-15.2033,-1.43125e-14,-3.26007e-14,-13.1372,-5.88439,99.7282,58.9372,62.7108,-15.4484,68.8856,7.12502,10.7323,-98.5914,-24.3283,8.13619,21.3487,42.9865,-19.2134,-7.19364,4.54142,-37.8236,6.0119,-19.5636,36.5041,-13.0693,9.74438,-12.3134
-1.01145,17.7333,7.34538,184.7,12.0173,-179.033,35.3396,-1.87059,1.0049,7.12744,0.876176,5.21821,-10.0892,1.27641,4.53242,-13.2994,-1.67067,-0.466768,21.027,-0.948005,-2.82216,8.75066,-0.55925,-0.950206,-1.35174e-14,2.38542e-14,-2.19161,8.04008,-87.2559,63.5244,2.77898,-23.4958,14.9505,7.12502,2.96427,-15.0086,-1.35174e-14,2.38542e-14,-13.3021,-5.66134,100.46,58.9256,65.8806,-14.9402,68.9134,7.12502,11.2225,-98.5932,-23.6251,7.95207,21.4084,42.8254,-19.4662,-7.78745,5.23507,-37.4807,5.721,-19.6722,34.9096,-13.1264,10.0318,-12.0484
-1.00731,17.754,7.29266,184.439,11.5253,-179.055,35.179,-1.84072,1.09596,6.99251,0.933046,5.29525,-10.1869,1.29437,4.54533,-12.836,-1.87594,-0.539165,20.7751,-1.17878,-2.99401,8.57605,-0.681669,-1.01405,4.53229e-14,8.11041e-14,-1.91234,6.93697,-87.1254,63.727,0.914714,-22.3962,14.7273,7.12502,4.02613,-15.2144,4.53229e-14,8.11041e-14,-13.3658,-5.48654,101.141,58.8144,68.6158,-15.0261,68.8437,7.12502,11.1396,-98.528,-22.9842,8.00202,21.4782,42.6857,-19.6354,-8.35518,5.64952,-36.9358,5.65012,-19.7954,33.246,-13.1469,10.5569,-12.2947
-1.00496,17.7497,7.229,184.295,11.0695,-179.126,34.909,-1.8265,1.06647,6.80952,0.88823,5.3154,-10.2885,1.25773,4.60397,-12.4568,-1.96596,-0.552307,20.6524,-1.27205,-3.09533,8.46294,-0.727656,-1.04988,-2.22639e-14,-7.07673e-14,-1.73262,6.21538,-87.0886,63.9841,-1.23419,-21.4594,14.0755,7.12502,4.93079,-15.8471,-2.22639e-14,-7.07673e-14,-13.4261,-5.33349,101.695,58.7533,70.8192,-15.476,68.8477,7.12502,10.7056,-98.5549,-22.5869,8.05741,21.4871,42.6796,-19.8724,-9.08117,5.08274,-36.5101,5.54207,-19.9953,31.6595,-13.0127,11.2959,-13.1624
-1.00471,17.7377,7.16433,184.149,10.4612,-179.053,34.7372,-1.96964,1.18055,6.65193,0.717071,5.32838,-10.3857,1.16672,4.62669,-12.3263,-1.99598,-0.361589,20.66,-1.29821,-3.30657,8.43731,-0.741172,-1.15338,-3.02153e-14,-7.31528e-14,-1.46095,5.70431,-87.1576,64.1724,-3.53131,-20.514,13.001,7.12502,5.84355,-16.8984,-3.02153e-14,-7.31528e-14,-13.4308,-5.35907,102.137,58.9143,72.5386,-16.4222,68.6049,7.12502,9.79285,-98.3572,-22.1581,7.91591,21.6603,42.6907,-20.0135,-9.80701,4.18227,-36.1244,5.04638,-19.8802,30.1603,-12.9614,11.9529,-11.7296
-0.99675,17.72,7.11874,184.158,9.54351,-178.821,34.4945,-2.1647,1.49337,6.49392,0.566473,5.40184,-10.4581,1.08473,4.59835,-12.0619,-2.08114,-0.0321879,20.4075,-1.41394,-3.68847,8.29438,-0.804591,-1.34213,2.8625e-14,-1.43125e-14,-0.946008,4.99182,-87.1842,64.0862,-5.90882,-19.3728,11.5935,7.12502,6.94526,-18.2726,2.8625e-14,-1.43125e-14,-13.2754,-5.69033,102.626,59.1102,73.9447,-17.5348,68.3677,7.12502,8.71926,-98.1676,-21.9451,7.56495,22.0505,42.7982,-20.2069,-10.4851,3.3109,-36.0217,4.35176,-19.5196,28.8083,-12.6624,12.4031,-9.9874
-0.99913,17.7162,7.04439,184.104,8.99553,-178.911,33.8668,-2.21679,1.63792,6.45437,0.468068,5.30417,-10.2483,1.02125,4.45259,-12.2668,-2.26703,-0.261301,20.9101,-1.66215,-3.29239,8.50301,-0.893361,-1.20522,-3.65764e-14,-1.11319e-14,-0.349964,4.19054,-87.2547,63.7044,-7.91677,-18.3003,10.2013,7.12502,7.98052,-19.628,-3.65764e-14,-1.11319e-14,-13.1623,-6.14404,103.188,59.5341,74.8586,-18.7846,68.7557,7.12502,7.51306,-98.6022,-21.6269,7.25931,21.9819,42.9019,-20.6907,-10.8105,2.70027,-35.6282,3.79437,-19.5523,27.5361,-12.473,13.1463,-9.86989
-0.998443,17.7191,6.97233,183.899,8.49194,-179.053,33.6128,-2.26152,1.60421,6.36702,0.333752,5.15437,-10.2326,0.946537,4.36272,-12.544,-2.40976,-0.26191,21.2554,-1.87874,-3.09676,8.66931,-0.974019,-1.17029,1.03368e-14,7.95139e-14,-0.0631635,3.52228,-87.4478,63.6603,-9.53489,-17.1522,8.3397,7.12502,9.08847,-21.4445,1.03368e-14,7.95139e-14,-12.9754,-6.58795,103.655,60.0166,74.8391,-20.0539,70.4949,7.12502,6.2878,-100.382,-21.1321,6.94057,21.8959,42.9899,-21.1578,-11.1702,2.35267,-35.094,3.38236,-19.6597,26.379,-12.1133,13.9848,-9.90255
-0.987195,17.7011,6.94367,183.577,7.16274,-178.813,34.2961,-2.68893,1.8695,5.9696,-0.0622145,5.2277,-10.9161,0.758371,4.46659,-12.5191,-2.50196,-0.303717,21.6114,-1.99161,-2.9427,8.78662,-1.00383,-1.12631,-4.77083e-14,-2.46493e-14,-0.158452,3.23822,-87.6151,63.8512,-10.9879,-15.9919,6.36121,7.12502,10.208,-23.3711,-4.77083e-14,-2.46493e-14,-12.6898,-7.04265,104.109,60.059,74.498,-21.4695,71.9325,7.12502,4.92098,-101.855,-20.5332,6.24263,22.3726,43.0717,-21.4725,-11.91,2.19284,-34.7611,2.49718,-19.3313,25.4,-11.985,14.5821,-7.57654
-0.982841,17.6872,6.88077,183.459,6.36264,-178.652,34.2013,-2.91744,1.97737,5.72655,-0.346172,5.26002,-11.1337,0.612022,4.56203,-11.9815,-2.3954,0.000195261,21.4836,-1.82249,-3.25724,8.63825,-0.919478,-1.25444,-3.02153e-14,-3.97569e-15,-0.281033,3.2861,-87.6402,63.9859,-12.5415,-14.9348,4.34055,7.12502,11.2276,-25.339,-3.02153e-14,-3.97569e-15,-12.4941,-7.49408,104.672,60.1964,74.0935,-23.1444,72.4329,7.12502,3.30362,-102.387,-20.0962,5.91336,22.6647,43.1311,-21.7575,-12.4626,2.09169,-34.5008,1.69628,-18.9935,24.6483,-13.3403,15.5113,0.940584
-0.982475,17.6758,6.80699,183.478,5.8083,-178.495,33.7519,-2.98289,2.07684,5.56901,-0.461438,5.27498,-11.1277,0.538098,4.56927,-11.9961,-2.56997,-0.230234,21.7162,-2.01635,-3.12303,8.72181,-1.00785,-1.19367,-2.8625e-14,-4.6118e-14,-0.22528,3.12819,-87.6213,63.8507,-14.0632,-13.7216,2.01825,7.12502,12.3975,-27.5941,-2.8625e-14,-4.6118e-14,-12.4375,-8.22635,105.31,60.7333,73.4375,-24.8031,72.9718,7.12502,1.70169,-102.945,-19.8001,5.73622,22.8985,43.184,-21.996,-12.9184,2.15844,-34.3921,1.13503,-18.7147,24.2288,-12.0006,16.669,-4.04233
-0.980268,17.6619,6.73667,183.461,5.16285,-178.325,33.4056,-3.06837,2.12956,5.47135,-0.586809,5.32808,-11.0932,0.47024,4.64501,-12.2683,-2.62657,-0.16531,21.9389,-2.07561,-3.19669,8.84548,-1.03736,-1.24247,1.74931e-14,7.95139e-16,-0.100513,3.24129,-87.5162,63.7675,-15.7613,-12.7187,0.72819,7.12502,13.3643,-28.8232,1.74931e-14,7.95139e-16,-12.2215,-9.05555,105.867,61.3381,72.5306,-26.1698,73.7243,7.12502,0.381714,-103.704,-19.4683,5.39509,23.1625,43.2234,-22.3027,-13.3247,2.7147,-34.3474,0.966843,-18.6281,24.1649,-11.5385,17.3101,-4.38619
-0.976736,17.644,6.66383,183.352,4.51199,-178.162,33.0978,-3.2279,2.13936,5.53609,-0.806208,5.30197,-10.8826,0.370756,4.6886,-12.8316,-2.61016,0.0820662,22.0096,-2.11145,-3.28033,8.96856,-1.0564,-1.32719,2.46493e-14,1.43125e-14,-0.00579853,3.80079,-87.5452,64.0084,-17.2167,-12.7962,1.60846,7.12502,13.2896,-27.9478,2.46493e-14,1.43125e-14,-11.7627,-9.88558,106.141,62.0605,71.3993,-27.3338,74.8692,7.12502,-0.742439,-104.848,-19.0096,4.98323,23.4363,43.2417,-22.5889,-13.7243,2.52517,-34.3052,1.43526,-18.8298,24.44,-11.383,17.3843,-3.15447
-0.970152,17.624,6.59478,183.175,4.07913,-177.933,32.9037,-3.26737,2.18859,5.62656,-0.86019,5.19345,-10.6993,0.346684,4.5586,-13.3538,-2.71329,0.132914,22.1523,-2.35484,-2.98706,9.11325,-1.14648,-1.27504,-4.21423e-14,-1.03368e-14,-0.156417,4.31883,-87.5934,64.4166,-17.4504,-13.9212,3.03353,7.12502,12.2051,-26.5904,-4.21423e-14,-1.03368e-14,-11.369,-10.9484,106.309,62.7872,70.2642,-28.4114,75.704,7.12502,-1.78323,-105.676,-18.4856,4.84636,23.802,43.2073,-22.73,-14.1904,1.68228,-34.2489,2.06529,-18.9481,25.0269,-10.7977,17.6004,-1.89404
-0.970098,17.6133,6.52084,182.95,3.53129,-177.779,32.7428,-3.35678,2.33936,5.64224,-0.95163,5.06196,-10.6115,0.299015,4.36681,-13.705,-2.86308,-0.0188825,22.4184,-2.62555,-2.55508,9.27566,-1.24043,-1.14311,1.59028e-14,5.48646e-14,-0.434727,4.61957,-87.6096,64.7199,-16.4183,-15.5262,3.01611,7.12502,10.6572,-26.6936,1.59028e-14,5.48646e-14,-11.0739,-11.9112,106.522,63.3868,69.1988,-29.2832,75.8519,7.12502,-2.62522,-105.815,-17.8484,4.5247,24.0476,43.1137,-22.948,-14.4883,1.55299,-34.1765,2.78455,-19.2983,25.8334,-10.1668,17.8134,-0.506106
-0.971129,17.6134,6.43444,182.635,2.76804,-177.736,32.6713,-3.53963,2.42241,5.55938,-1.18099,4.97818,-10.6617,0.186852,4.32062,-13.9878,-2.93428,0.0601313,22.7255,-2.7175,-2.57938,9.43253,-1.27469,-1.18396,1.03368e-14,-2.70347e-14,-0.971923,4.62047,-87.7165,65.3621,-15.3143,-15.6372,2.22719,7.12502,10.5501,-27.488,1.03368e-14,-2.70347e-14,-10.9005,-12.5421,106.856,63.9951,67.6838,-29.7544,76.0047,7.12502,-3.08031,-105.962,-17.0365,4.02507,24.1891,42.979,-23.3401,-14.7885,2.15153,-34.0923,3.55876,-19.8509,26.7797,-10.4174,18.0216,4.06535
-0.968941,17.6138,6.34631,182.325,2.12604,-177.931,32.5934,-3.58585,2.1903,5.43232,-1.37481,4.84844,-10.7569,0.0898464,4.38364,-13.8709,-3.01363,0.13288,22.7977,-2.82144,-2.61436,9.43196,-1.31421,-1.21874,-1.94809e-14,4.77083e-15,-1.87437,4.3811,-87.8646,66.5398,-15.5484,-15.5562,0.934011,7.12502,10.6283,-28.7772,-1.94809e-14,4.77083e-15,-11.0012,-13.0962,107.24,64.8383,65.762,-29.9778,76.3889,7.12502,-3.29605,-106.343,-16.2458,3.63635,24.0704,42.8519,-23.7375,-15.1125,2.32294,-34.0417,4.34465,-20.57,27.6861,-8.13248,18.0089,-2.68793
-0.962862,17.6022,6.26615,182.124,1.51913,-177.956,32.5087,-3.60745,2.16255,5.27668,-1.46645,4.7285,-10.8909,0.033695,4.3091,-13.7226,-3.12167,0.0293141,22.8799,-2.96846,-2.45247,9.43533,-1.3661,-1.16085,-3.37934e-14,-5.08889e-14,-2.85727,4.09014,-87.9605,67.8535,-17.0566,-15.3301,0.977788,7.12502,10.8464,-28.7221,-3.37934e-14,-5.08889e-14,-11.205,-13.6944,107.574,65.6601,63.9119,-29.9695,76.4666,7.12502,-3.28805,-106.421,-15.5886,3.38152,24.1496,42.7487,-23.9506,-15.561,1.64057,-34.0669,4.87996,-20.8998,28.4326,-7.68996,17.928,-2.89286
