JuanDHNZ/ProyectoFinalCD/preprocessing/sports_trials_csv/06_13.csv
root1,root2,root3,root4,root5,root6,lowerback1,lowerback2,lowerback3,upperback1,upperback2,upperback3,thorax1,thorax2,thorax3,lowerneck1,lowerneck2,lowerneck3,upperneck1,upperneck2,upperneck3,head1,head2,head3,rclavicle1,rclavicle2,rhumerus1,rhumerus2,rhumerus3,rradius1,rwrist1,rhand1,rhand2,rfingers1,rthumb1,rthumb2,lclavicle1,lclavicle2,lhumerus1,lhumerus2,lhumerus3,lradius1,lwrist1,lhand1,lhand2,lfingers1,lthumb1,lthumb2,rfemur1,rfemur2,rfemur3,rtibia1,rfoot1,rfoot2,rtoes1,lfemur1,lfemur2,lfemur3,ltibia1,lfoot1,lfoot2,ltoes1
-1.79695,17.9492,47.9434,175.913,-4.79547,-177.007,14.2121,-0.800481,-5.66257,-1.78061,-1.85392,2.61163,-9.68554,-0.508119,6.48096,-5.55662,-5.33256,-4.0276,28.4112,-2.95184,-4.98032,9.93932,-1.31317,-1.1801,2.70936e-15,-2.35637e-14,-28.0343,-74.7766,-18.0306,48.8944,-67.3795,-14.4577,-0.563691,7.12502,11.6878,-30.2177,2.70936e-15,-2.35637e-14,-45.9189,9.28978,75.5835,47.5998,12.1892,170.134,66.9422,7.12502,-163.887,37.592,-4.97269,3.05759,27.5206,37.4296,-23.94,-20.0493,10.0744,-7.06435,-6.67452,-19.3497,37.7772,-21.142,6.14787,-6.91133
-1.79639,17.947,47.9406,175.917,-4.73096,-177.015,14.1947,-0.771984,-5.68597,-1.56283,-1.8181,2.65972,-9.43791,-0.508046,6.53116,-6.45322,-5.22134,-4.02114,28.6338,-2.79605,-4.93347,10.1965,-1.27124,-1.17501,2.83385e-15,-2.98425e-14,-27.4308,-75.2474,-18.5914,49.0794,-67.3162,-14.2115,-0.538681,7.12502,11.9251,-30.179,2.83385e-15,-2.98425e-14,-45.5301,9.47447,75.7045,47.5575,12.0771,170.307,66.8256,7.12502,-163.721,37.489,-4.95256,3.16945,27.5325,37.4182,-23.9513,-20.0894,9.94923,-7.04567,-6.66858,-19.354,37.7695,-21.1779,6.10168,-6.70943
-1.79536,17.9483,47.9368,175.956,-4.78489,-177.116,14.1459,-0.778378,-5.78928,-1.41929,-1.84434,2.64383,-9.24515,-0.529685,6.57097,-6.85564,-5.13486,-3.94006,28.6335,-2.69857,-4.95295,10.2722,-1.24066,-1.19612,1.24937e-14,1.46231e-14,-27.044,-75.5331,-19.0305,49.3607,-67.1325,-14.1824,-0.868428,7.12502,11.9532,-30.5072,1.24937e-14,1.46231e-14,-45.1825,9.61855,75.7302,47.3486,11.86,170.323,66.7903,7.12502,-163.705,37.455,-4.97475,3.10834,27.4075,37.4248,-24.0601,-19.9885,10.041,-7.05257,-6.70058,-19.4618,37.733,-21.1537,6.12619,-6.5501
-1.79451,17.9491,47.9355,175.963,-4.83411,-177.113,14.2024,-0.794314,-5.77691,-1.37787,-1.86729,2.64799,-9.22858,-0.543862,6.57447,-7.11226,-5.0527,-3.86109,28.7465,-2.57468,-4.95959,10.3628,-1.18191,-1.20591,-2.46741e-14,1.97791e-14,-27.0649,-75.5414,-19.0416,49.519,-67.1356,-14.2166,-1.07315,7.12502,11.9202,-30.7138,-2.46741e-14,1.97791e-14,-45.0839,9.69607,75.6883,47.2035,11.8224,170.018,66.3494,7.12502,-163.999,36.9902,-4.9777,3.07609,27.4149,37.415,-24.1444,-20.0211,10.2586,-7.0658,-6.68442,-19.4536,37.7203,-21.105,6.14588,-7.07902
-1.79241,17.9503,47.9331,175.975,-4.89906,-177.099,14.3054,-0.804009,-5.77821,-1.43081,-1.88496,2.65947,-9.34319,-0.544817,6.59869,-7.0577,-4.99503,-3.84965,28.8026,-2.4814,-4.92772,10.3741,-1.12632,-1.18489,2.7414e-14,1.38155e-14,-27.4413,-75.2974,-18.7124,49.7891,-67.1835,-14.3173,-1.36177,7.12502,11.8232,-31.008,2.7414e-14,1.38155e-14,-45.0994,9.72292,75.6845,46.9134,11.6811,169.176,65.2258,7.12502,-164.81,35.8033,-4.97812,3.05781,27.4445,37.4042,-24.1761,-20.0488,10.3291,-7.05629,-6.77444,-19.4207,37.6976,-21.2017,5.98578,-6.10294
-1.79134,17.9493,47.9292,176.031,-4.88228,-177.063,14.284,-0.81928,-5.77157,-1.49345,-1.89893,2.71001,-9.39661,-0.545988,6.65507,-6.93274,-4.92288,-3.95434,28.7943,-2.38602,-4.80283,10.3525,-1.07247,-1.10881,-1.89828e-14,3.12589e-14,-27.2725,-74.8604,-18.8719,50.0151,-67.3377,-14.678,-1.08033,7.12502,11.4753,-30.7463,-1.89828e-14,3.12589e-14,-45.2148,9.83565,75.6615,46.7796,11.7017,168.789,64.6546,7.12502,-165.183,35.2043,-5.03062,3.07648,27.4833,37.3812,-24.0604,-20.1325,9.75022,-7.08388,-6.72607,-19.3627,37.6972,-21.283,5.97623,-6.24559
-1.79092,17.9493,47.9281,176.033,-4.86841,-177.074,14.3229,-0.835226,-5.80091,-1.46233,-1.9259,2.74539,-9.37855,-0.558868,6.71767,-7.14783,-4.86205,-3.98631,29.0064,-2.25294,-4.78083,10.4768,-1.0109,-1.08746,-8.50814e-15,1.02374e-14,-26.9877,-74.7757,-19.2141,50.4403,-67.3194,-14.9069,-1.24707,7.12502,11.2545,-30.9252,-8.50814e-15,1.02374e-14,-45.1513,10.0027,75.667,46.5546,11.6344,168.855,64.7535,7.12502,-165.119,35.3079,-5.01925,3.0916,27.4735,37.3606,-24.028,-20.1178,9.62232,-7.07896,-6.70889,-19.3716,37.6904,-21.2663,6.07667,-6.68645
-1.79077,17.9488,47.9274,176.036,-4.93207,-177.08,14.4309,-0.869574,-5.75176,-1.50131,-1.97042,2.72431,-9.47885,-0.577316,6.68241,-6.8789,-4.82306,-3.84806,28.7961,-2.21694,-4.91548,10.3397,-0.989257,-1.14662,-9.06023e-15,2.26615e-14,-27.3779,-74.613,-18.8964,50.7305,-67.2972,-14.7375,-1.03535,7.12502,11.4179,-30.7045,-9.06023e-15,2.26615e-14,-45.2968,10.0065,75.5584,46.4622,11.5262,168.952,64.8349,7.12502,-165.025,35.3963,-5.01593,3.02023,27.4538,37.336,-24.0115,-20.1101,9.77981,-7.10845,-6.7753,-19.3742,37.6905,-21.1986,5.93402,-6.70346
-1.78986,17.9485,47.9263,176.035,-4.93971,-177.083,14.4579,-0.847668,-5.7513,-1.38199,-1.94448,2.72594,-9.36648,-0.574909,6.67523,-7.11128,-4.81878,-3.65743,28.6705,-2.23611,-5.09608,10.3297,-1.01631,-1.25024,2.05897e-14,-1.77912e-14,-27.5564,-74.7468,-18.765,50.9717,-67.092,-14.6466,-1.08529,7.12502,11.5056,-30.7495,2.05897e-14,-1.77912e-14,-44.9964,10.1221,75.5716,46.2032,11.3317,168.98,64.6664,7.12502,-164.999,35.2297,-5.0384,2.95893,27.435,37.3331,-23.9977,-20.1047,9.8464,-7.0828,-7.00712,-19.4089,37.6816,-21.2636,5.93927,-5.29082
-1.78846,17.9475,47.9251,176.038,-4.92217,-177.095,14.5247,-0.811226,-5.70792,-1.04498,-1.89875,2.7418,-9.04102,-0.584376,6.64881,-8.37504,-4.75989,-3.7676,28.9154,-2.21999,-4.84147,10.6761,-1.05167,-1.17393,8.61316e-15,-3.27995e-14,-26.5583,-75.293,-19.7589,51.2027,-66.8701,-14.6621,-1.05518,7.12502,11.4907,-30.7202,8.61316e-15,-3.27995e-14,-44.1801,10.5478,75.644,45.9116,11.1511,169.409,65.4077,7.12502,-164.586,36.0024,-5.04203,2.98686,27.4128,37.3526,-24.1341,-19.9594,11.0722,-7.08269,-6.96864,-19.4101,37.6841,-21.3355,5.92045,-5.0795
-1.78793,17.9464,47.9206,176.094,-4.91252,-177.166,14.4012,-0.813243,-5.74736,-0.996529,-1.90487,2.69241,-8.91647,-0.593619,6.61026,-8.29811,-4.74219,-3.74408,28.8749,-2.26008,-4.67861,10.6456,-1.05036,-1.12224,4.0151e-15,-1.04362e-15,-26.7834,-75.2433,-19.5996,51.5168,-66.7509,-14.6828,-1.28056,7.12502,11.4707,-30.9467,4.0151e-15,-1.04362e-15,-44.1452,10.5895,75.5577,45.7725,10.9224,169.921,66.081,7.12502,-164.092,36.7143,-5.1018,2.94427,27.3196,37.3923,-24.1988,-19.923,11.1459,-7.12056,-6.94229,-19.4801,37.6879,-21.3578,5.93929,-5.3296
-1.7825,17.9427,47.9187,176.175,-4.89216,-177.161,14.3761,-0.783725,-5.79358,-1.06149,-1.86929,2.70502,-8.97751,-0.568112,6.64458,-8.14517,-4.75506,-3.74159,29.0106,-2.25595,-4.61574,10.6674,-1.02562,-1.09638,1.71968e-14,1.50579e-14,-27.5231,-74.8597,-18.8747,51.8772,-66.935,-14.73,-1.51624,7.12502,11.4251,-31.185,1.71968e-14,1.50579e-14,-44.2965,10.5102,75.5884,45.7386,10.9435,169.408,65.5088,7.12502,-164.587,36.1034,-5.19942,2.97379,27.3492,37.4433,-24.3143,-19.9001,11.2696,-7.21978,-6.89487,-19.4261,37.6994,-21.4488,5.85284,-4.85228
-1.77933,17.9403,47.9142,176.29,-4.87292,-177.177,14.2843,-0.770388,-5.87123,-1.2953,-1.85212,2.73651,-9.18211,-0.535515,6.72468,-7.31671,-4.7748,-3.80569,28.8127,-2.27938,-4.58508,10.4321,-1.00486,-1.05473,2.76726e-16,-9.24349e-15,-28.5664,-74.2105,-17.7773,52.1457,-66.9575,-14.4521,-1.54796,7.12502,11.6931,-31.2016,2.76726e-16,-9.24349e-15,-44.8072,10.3379,75.64,45.7173,10.9087,168.992,64.7771,7.12502,-164.987,35.3414,-5.34364,2.96122,27.3237,37.5237,-24.468,-19.8095,11.0632,-7.30648,-6.83468,-19.4082,37.6846,-21.4611,5.87749,-5.41228
-1.77358,17.9367,47.9112,176.347,-4.86895,-177.166,14.1909,-0.747866,-5.92006,-1.36292,-1.8223,2.75439,-9.20603,-0.514074,6.76433,-7.00517,-4.75977,-3.70414,28.7683,-2.2646,-4.59422,10.3512,-0.972591,-1.06524,-9.43354e-15,1.28216e-14,-29.4168,-73.8829,-16.9536,52.5683,-66.8459,-14.3487,-2.05904,7.12502,11.7928,-31.707,-9.43354e-15,1.28216e-14,-45.0126,10.2014,75.6704,45.6145,10.9664,169.048,64.769,7.12502,-164.934,35.3372,-5.44552,2.90005,27.3402,37.6122,-24.5073,-19.687,11.394,-7.36241,-6.59023,-19.3094,37.6747,-21.4584,5.61532,-6.01611
-1.77028,17.9321,47.9079,176.399,-4.88797,-177.246,14.1063,-0.742525,-5.9486,-1.30427,-1.81816,2.71494,-9.0938,-0.518778,6.72994,-7.11952,-4.69272,-3.58232,28.7667,-2.19888,-4.58339,10.3696,-0.933687,-1.07753,4.6429e-15,-2.5345e-15,-29.9188,-73.914,-16.5274,53.0346,-66.5532,-14.116,-2.42665,7.12502,12.0172,-32.0616,4.6429e-15,-2.5345e-15,-44.9025,10.0839,75.7344,45.4619,11.0808,169.015,64.8595,7.12502,-164.965,35.4254,-5.56085,2.69804,27.2032,37.7122,-24.3538,-19.5729,10.8686,-7.35564,-6.52873,-19.3678,37.6445,-21.5219,5.56179,-6.29592
-1.76368,17.9264,47.9039,176.414,-4.84214,-177.231,14.1244,-0.723757,-5.94589,-1.20068,-1.794,2.74297,-8.99332,-0.515885,6.75155,-7.36802,-4.63904,-3.50996,28.7327,-2.14366,-4.62528,10.4032,-0.919845,-1.10454,-1.21938e-14,-6.55989e-15,-30.004,-73.9796,-16.5042,53.4801,-66.2725,-13.879,-2.62161,7.12502,12.2457,-32.2431,-1.21938e-14,-6.55989e-15,-44.8027,10.0635,75.817,45.4668,11.2878,168.935,64.922,7.12502,-165.042,35.4821,-5.62287,2.67321,27.2287,37.8153,-24.6045,-19.3799,11.637,-7.36865,-6.46024,-19.3067,37.65,-21.5515,5.53898,-6.14762
-1.76074,17.9227,47.901,176.386,-4.83827,-177.305,14.3791,-0.710813,-5.93263,-1.1428,-1.79383,2.70114,-9.07729,-0.516251,6.70787,-7.6593,-4.60092,-3.3907,28.7601,-2.10584,-4.68149,10.4667,-0.909986,-1.14795,-4.34133e-14,2.12203e-14,-30.3546,-74.1469,-16.2008,53.8209,-65.7761,-13.6431,-2.59223,7.12502,12.4732,-32.2,-4.34133e-14,2.12203e-14,-44.6679,10.0635,75.835,45.401,11.4158,168.957,64.871,7.12502,-165.021,35.4327,-5.62248,2.51221,27.1206,37.9152,-24.5266,-19.334,11.2227,-7.33185,-6.53006,-19.3827,37.6676,-21.611,5.44891,-5.34963
-1.7558,17.9198,47.8999,176.455,-4.87043,-177.414,14.5138,-0.727757,-6.02042,-1.23737,-1.83972,2.67113,-9.2503,-0.522275,6.74499,-7.42424,-4.55159,-3.47361,28.6854,-2.07382,-4.51233,10.397,-0.877939,-1.06403,1.67049e-14,-5.36719e-15,-30.9308,-73.8173,-15.6884,54.2414,-65.4333,-13.4734,-2.49275,7.12502,12.6368,-32.0905,1.67049e-14,-5.36719e-15,-44.9149,9.89653,75.8682,45.3815,11.5318,168.891,65.1322,7.12502,-165.085,35.6892,-5.73669,2.41827,26.9935,38.0164,-24.677,-19.2736,11.1928,-7.43092,-6.54883,-19.4816,37.7248,-21.6724,5.4462,-5.06115
-1.74957,17.9167,47.8987,176.481,-4.81301,-177.411,14.5829,-0.722288,-6.04161,-1.36352,-1.83774,2.67678,-9.42914,-0.506291,6.77114,-6.88628,-4.55227,-3.52415,28.5669,-2.09937,-4.39059,10.2501,-0.860658,-1.00183,-7.41094e-15,2.03257e-14,-31.6503,-73.1738,-15.0497,54.7231,-65.3124,-13.2967,-2.51453,7.12502,12.8071,-32.1017,-7.41094e-15,2.03257e-14,-45.1878,9.84182,75.8347,45.2491,11.4526,169.006,65.0502,7.12502,-164.974,35.6154,-5.82026,2.32676,26.9865,38.1164,-24.7226,-19.1864,10.95,-7.47879,-6.48012,-19.4448,37.7778,-21.8233,5.57328,-5.84275
-1.73991,17.9096,47.897,176.475,-4.69545,-177.391,14.6962,-0.708737,-6.04936,-1.43745,-1.82638,2.68433,-9.57775,-0.490209,6.78993,-6.3848,-4.57309,-3.56406,28.3585,-2.16448,-4.32807,10.0768,-0.874989,-0.967716,9.6662e-15,2.43511e-15,-31.993,-72.8735,-14.7577,55.0815,-64.8441,-13.0585,-2.9135,7.12502,13.0368,-32.4861,9.6662e-15,2.43511e-15,-45.3035,9.79387,75.824,45.0722,11.5537,168.726,64.8837,7.12502,-165.244,35.429,-5.88549,2.4335,27.0616,38.2437,-24.7768,-19.2268,11.043,-7.47928,-6.35209,-19.3613,37.8041,-21.8961,5.50263,-5.70446
-1.72944,17.9053,47.8944,176.524,-4.58855,-177.446,14.8116,-0.698781,-6.0442,-1.29807,-1.82454,2.64376,-9.4913,-0.500673,6.74205,-6.82559,-4.53118,-3.40176,28.3043,-2.14466,-4.43967,10.1359,-0.88893,-1.04302,1.07559e-14,1.2424e-14,-31.9966,-72.9857,-14.8633,55.4768,-64.5247,-12.7214,-3.25214,7.12502,13.3618,-32.8037,1.07559e-14,1.2424e-14,-44.8955,10.051,75.7634,44.8555,11.4278,168.737,64.9949,7.12502,-165.233,35.5409,-5.98507,2.42301,27.0235,38.3841,-24.8328,-19.0975,11.2504,-7.51519,-6.17314,-19.3517,37.7917,-21.8964,5.42076,-5.71733
-1.723,17.9015,47.8902,176.49,-4.42853,-177.686,14.8471,-0.675798,-6.24372,-0.717696,-1.84488,2.65665,-8.86264,-0.556842,6.85689,-8.69835,-4.41692,-3.55205,28.6248,-2.00186,-4.38193,10.6285,-0.916495,-1.02776,3.12496e-14,-1.33186e-14,-29.9501,-73.8176,-16.9196,55.8888,-64.0055,-12.5924,-2.91413,7.12502,13.486,-32.4575,3.12496e-14,-1.33186e-14,-44.0317,10.5051,76.0303,45.0903,11.3628,168.709,64.9024,7.12502,-165.26,35.4465,-6.01758,2.44393,26.7595,38.5396,-24.8877,-19.004,10.8585,-7.36802,-6.08142,-19.6127,37.7492,-21.8969,5.38804,-5.43314
-1.71777,17.8981,47.8799,176.547,-4.36653,-177.909,14.7215,-0.624469,-6.38682,-0.543784,-1.80159,2.59476,-8.60534,-0.550577,6.84988,-9.06527,-4.41743,-3.53855,28.7186,-2.0241,-4.31824,10.7363,-0.933395,-1.0193,5.65604e-15,-4.82053e-15,-30.5599,-73.9442,-16.3185,56.4299,-63.585,-12.0126,-3.01033,7.12502,14.0448,-32.5158,5.65604e-15,-4.82053e-15,-44.0031,10.2866,76.2459,45.5344,11.4087,168.667,64.6452,7.12502,-165.3,35.1864,-6.10747,2.39273,26.5069,38.6936,-24.9076,-18.9187,10.9863,-7.3195,-5.96087,-19.8264,37.6738,-21.9278,5.34199,-5.60371
-1.71494,17.8937,47.8576,176.78,-4.0498,-178.024,14.486,-0.595747,-6.60803,-0.900323,-1.76961,2.67356,-8.86032,-0.492218,7.05918,-7.94635,-4.35224,-3.62208,28.5508,-1.85198,-4.40833,10.4561,-0.819271,-0.989588,-1.5075e-14,9.83984e-15,-31.3616,-72.8586,-15.4505,56.9985,-63.1715,-11.4877,-3.38846,7.12502,14.5506,-32.8581,-1.5075e-14,9.83984e-15,-45.0893,10.1718,76.3059,45.9277,11.6048,168.551,64.4212,7.12502,-165.412,34.9542,-6.35768,2.54691,26.37,38.8168,-24.9218,-18.7613,10.5968,-7.4057,-5.81955,-19.9377,37.602,-21.9508,5.64029,-6.60735
-1.70546,17.8913,47.8469,176.884,-3.93601,-178.249,13.4292,-0.654697,-6.90487,-0.505366,-1.83236,2.62047,-7.80912,-0.578589,7.12047,-7.30464,-4.21876,-3.50133,27.9801,-1.78445,-4.39948,10.1156,-0.772639,-0.983466,2.78112e-14,-1.86858e-14,-31.3549,-73.0365,-15.5691,57.5705,-62.6412,-11.0012,-4.00146,7.12502,15.0193,-33.4367,2.78112e-14,-1.86858e-14,-44.87,10.2156,76.2912,46.0143,11.6678,168.671,64.3603,7.12502,-165.296,34.9018,-6.46608,2.58624,26.1425,38.9266,-25.0098,-18.6718,10.3026,-7.3952,-5.79322,-20.1619,37.5189,-21.9284,5.70559,-6.38866
-1.69726,17.888,47.8401,176.935,-4.05888,-178.365,13.8038,-0.705254,-6.9372,-0.799081,-1.92993,2.56,-8.32695,-0.585775,7.11926,-6.56759,-4.18332,-3.45499,27.7714,-1.74799,-4.39857,9.89555,-0.721656,-0.970388,6.83012e-15,3.4191e-14,-32.7237,-72.2188,-14.3428,58.2962,-62.3109,-10.4555,-4.34477,7.12502,15.545,-33.74,6.83012e-15,3.4191e-14,-45.539,9.82367,76.315,46.1912,11.7629,168.618,64.2291,7.12502,-165.348,34.7667,-6.50551,2.44682,26.0318,38.9839,-25.0997,-18.7015,10.0017,-7.41312,-5.84986,-20.2503,37.4867,-21.9491,5.6479,-6.17403
-1.68923,17.8852,47.8332,176.972,-4.22805,-178.544,14.1185,-0.706968,-6.98929,-0.821637,-1.96785,2.49971,-8.52528,-0.592245,7.10666,-6.73737,-4.21341,-3.52939,27.863,-1.81916,-4.22603,9.96441,-0.750415,-0.908786,-6.54747e-15,-1.2424e-14,-33.9363,-72.0745,-13.2081,59.0488,-61.5135,-9.80612,-4.67383,7.12502,16.1703,-34.0193,-6.54747e-15,-1.2424e-14,-45.468,9.67924,76.4006,46.0431,11.5718,168.631,64.3349,7.12502,-165.335,34.8734,-6.52327,2.2765,25.8505,39.0327,-25.1987,-18.7173,9.95186,-7.43576,-5.88094,-20.4001,37.4671,-21.9933,5.48277,-6.09359
-1.67492,17.8844,47.8263,177.015,-4.38787,-178.458,14.3213,-0.738106,-6.80604,-0.75481,-1.99715,2.47243,-8.56863,-0.61728,6.98444,-7.06714,-4.23996,-3.44144,27.8687,-1.92332,-4.14083,10.0272,-0.800805,-0.91242,-8.8366e-15,3.57812e-15,-35.3359,-72.0656,-11.9734,59.8721,-60.6995,-9.13904,-5.06684,7.12502,16.8126,-34.359,-8.8366e-15,3.57812e-15,-45.1115,9.54487,76.4299,45.7188,11.5299,168.628,64.54,7.12502,-165.338,35.0783,-6.56579,2.17467,26.0089,39.0667,-25.3015,-18.7821,10.1203,-7.51208,-5.9837,-20.2355,37.5046,-22.0271,5.39411,-6.33696
-1.65642,17.8811,47.8261,177.024,-4.55293,-178.434,14.5771,-0.768516,-6.7804,-0.751825,-2.05279,2.46757,-8.70276,-0.639565,6.98852,-7.15423,-4.23397,-3.20169,27.9279,-1.918,-4.25593,10.058,-0.787243,-0.995132,-1.46697e-14,9.34288e-15,-36.4975,-71.655,-10.9731,60.7807,-60.0691,-8.61821,-5.38278,7.12502,17.3139,-34.6316,-1.46697e-14,9.34288e-15,-44.8545,9.39383,76.4635,45.339,11.356,168.759,64.5688,7.12502,-165.211,35.1165,-6.5875,2.0657,26.1069,39.0824,-25.274,-18.8965,10.372,-7.59372,-6.1244,-20.1478,37.586,-22.0165,5.35652,-6.46505
-1.64243,17.8766,47.8241,177.016,-4.55797,-178.534,14.8105,-0.713234,-6.84761,-0.696165,-2.00875,2.47969,-8.77995,-0.614317,7.0416,-7.29645,-4.21886,-3.17747,27.8986,-1.90832,-4.27261,10.074,-0.790189,-1.007,-2.02108e-14,3.77691e-15,-37.4758,-71.4295,-10.0974,61.867,-59.3505,-8.05266,-5.69321,7.12502,17.8582,-34.8933,-2.02108e-14,3.77691e-15,-44.5014,9.26758,76.65,44.9845,11.4259,168.602,64.6103,7.12502,-165.363,35.1469,-6.57635,1.9724,26.0296,39.1272,-25.3819,-18.7754,10.9179,-7.61162,-5.99928,-20.1824,37.6434,-22.0439,5.24774,-6.38943
-1.63126,17.8712,47.8132,177.001,-4.5797,-178.334,14.8964,-0.778876,-6.57307,-0.510447,-2.05311,2.5987,-8.62124,-0.664935,7.02187,-7.94299,-4.1824,-3.20483,28.1131,-1.78796,-4.42961,10.2801,-0.775056,-1.05975,-1.17159e-14,3.97569e-16,-37.0974,-71.1028,-10.5933,62.8062,-58.1929,-7.65041,-5.56174,7.12502,18.2452,-34.7261,-1.17159e-14,3.97569e-16,-44.2073,9.4081,76.7686,44.9175,11.565,168.573,64.727,7.12502,-165.391,35.2616,-6.52304,1.83362,26.2801,39.1437,-25.4742,-18.7131,10.8029,-7.62048,-6.00521,-19.9066,37.7111,-22.156,5.18816,-6.20701
-1.61909,17.8656,47.7965,177.011,-4.62778,-178.61,14.9303,-0.776669,-6.74567,-0.375757,-2.09269,2.50758,-8.48409,-0.691545,7.02591,-8.08694,-4.17579,-3.302,28.1391,-1.81701,-4.25224,10.3215,-0.788017,-0.987279,2.48046e-14,-1.90833e-14,-37.5091,-70.4526,-10.4688,63.8938,-56.7812,-7.39254,-5.11025,7.12502,18.4933,-34.2512,2.48046e-14,-1.90833e-14,-44.118,9.40336,76.775,44.9437,11.4545,168.717,64.7644,7.12502,-165.252,35.3091,-6.47179,1.74645,26.0166,39.1956,-25.5469,-18.7635,10.2527,-7.55753,-6.06042,-20.177,37.7362,-22.2289,5.2871,-5.77729
-1.60694,17.8604,47.78,177.036,-4.63123,-178.617,14.9155,-0.942034,-6.82812,-0.605817,-2.31264,2.61863,-8.68371,-0.770045,7.24988,-6.88574,-4.0328,-3.54134,27.9111,-1.53569,-4.26192,10.0131,-0.629645,-0.89281,3.52159e-14,1.0138e-14,-36.7601,-68.7232,-11.3642,64.92,-55.456,-8.05617,-3.92378,7.12502,17.8548,-33.1241,3.52159e-14,1.0138e-14,-44.9726,9.80457,76.5785,45.0831,11.317,168.712,64.8339,7.12502,-165.257,35.3782,-6.43122,1.77824,26.0744,39.2138,-25.5634,-18.9226,9.89481,-7.53834,-6.03464,-20.1295,37.789,-22.3225,5.1663,-5.70134
-1.58911,17.8566,47.7702,177.106,-4.62732,-178.576,15.1611,-0.90702,-6.75745,-0.647094,-2.26768,2.66561,-8.87743,-0.739417,7.26725,-6.94518,-4.0023,-3.49741,27.9088,-1.50997,-4.23312,10.0229,-0.612737,-0.888476,3.50358e-14,-2.52457e-14,-37.7169,-67.8391,-10.6211,66.3597,-54.3541,-8.04939,-3.44919,7.12502,17.8613,-32.649,3.50358e-14,-2.52457e-14,-44.9598,9.65816,76.6625,44.9651,11.3524,168.55,64.7751,7.12502,-165.413,35.308,-6.50449,1.90575,26.2297,39.2551,-25.583,-19.1297,9.55799,-7.62826,-6.14324,-20.0211,37.8367,-22.3752,5.17083,-5.40049
-1.57365,17.8547,47.7635,177.157,-4.55094,-178.568,15.7762,-0.869832,-6.61746,-1.03596,-2.22906,2.6325,-9.67178,-0.668949,7.19118,-6.39072,-4.03155,-3.3736,28.0488,-1.48059,-4.31563,9.96402,-0.55583,-0.924201,1.45423e-14,-3.18055e-15,-38.9344,-66.3444,-9.80127,67.9448,-53.1216,-7.93067,-3.53087,7.12502,17.9755,-32.7202,1.45423e-14,-3.18055e-15,-45.6903,9.26595,76.5919,45.1112,11.4316,168.648,64.6844,7.12502,-165.318,35.2242,-6.53137,1.93695,26.2856,39.2574,-25.6333,-18.9588,9.8877,-7.72503,-6.125,-19.9514,37.9407,-22.4283,5.17323,-5.2511
-1.5605,17.8529,47.7548,177.162,-4.35523,-178.529,15.1453,-0.878293,-6.51604,-0.565368,-2.18843,2.66575,-8.79983,-0.72128,7.10704,-6.29165,-3.97169,-3.35316,27.654,-1.49322,-4.29862,9.79971,-0.57651,-0.920989,-9.29318e-15,1.66979e-14,-38.9284,-66.1913,-10.1933,69.4975,-51.8419,-7.22576,-3.6551,7.12502,18.6537,-32.7807,-9.29318e-15,1.66979e-14,-45.1083,9.50417,76.6391,45.1361,11.5312,168.711,64.8402,7.12502,-165.258,35.3844,-6.51789,2.03237,26.3482,39.2678,-25.8542,-18.7275,9.93087,-7.71957,-6.0517,-19.8912,38.021,-22.4575,5.46924,-6.4361
-1.54405,17.8493,47.7428,177.151,-4.1717,-178.385,14.9949,-0.92026,-6.39078,-0.303838,-2.21525,2.78061,-8.42269,-0.771155,7.1492,-6.38377,-3.82796,-3.40055,27.4413,-1.35175,-4.23749,9.74251,-0.526524,-0.878882,1.55301e-15,7.15625e-15,-38.4037,-65.6367,-11.1369,71.11,-50.7477,-6.76097,-3.60722,7.12502,19.1007,-32.6893,1.55301e-15,7.15625e-15,-44.9326,9.87195,76.6107,45.2457,11.5619,168.691,64.8896,7.12502,-165.277,35.4325,-6.47529,2.0242,26.5437,39.2569,-25.834,-18.6814,9.05263,-7.70159,-5.90487,-19.6573,38.1065,-22.6074,5.39907,-6.14192
-1.52876,17.848,47.7237,177.194,-4.17277,-178.597,15.1589,-1.00532,-6.49156,-0.309758,-2.35845,2.77123,-8.49482,-0.832741,7.23633,-6.51723,-3.71578,-3.38726,27.5841,-1.1246,-4.36454,9.8215,-0.430453,-0.904599,2.00027e-14,-1.43125e-14,-38.1455,-64.2554,-11.8674,72.8523,-49.6507,-6.98553,-3.54415,7.12502,18.8847,-32.6474,2.00027e-14,-1.43125e-14,-45.2458,10.0257,76.5439,45.4374,11.5689,168.632,64.644,7.12502,-165.334,35.1827,-6.43119,1.84903,26.3258,39.2522,-25.9246,-18.5358,8.67492,-7.72295,-5.82385,-19.8154,38.1974,-22.7119,5.22665,-5.93374
-1.51591,17.8456,47.7091,177.182,-4.07328,-178.553,15.4489,-0.992378,-6.21132,-0.334581,-2.31437,2.71959,-8.70579,-0.814348,7.0255,-6.68331,-3.72837,-3.27834,27.8199,-1.13389,-4.31369,9.937,-0.416981,-0.909787,-2.74696e-14,-1.43125e-14,-38.8794,-62.9243,-11.8558,74.7393,-48.4986,-6.90954,-3.48937,7.12502,18.9578,-32.5855,-2.74696e-14,-1.43125e-14,-45.3898,9.87557,76.4995,45.4932,11.6841,168.461,64.5113,7.12502,-165.499,35.038,-6.37777,1.78984,26.4032,39.261,-26.0438,-18.4258,8.73297,-7.71502,-5.78156,-19.7152,38.3281,-22.8457,5.27687,-5.98802
-1.50073,17.8382,47.6973,177.157,-3.91957,-178.317,15.7519,-1.00839,-5.85145,-0.281093,-2.28858,2.82057,-8.83172,-0.815852,6.93927,-6.89656,-3.68254,-3.22325,27.8757,-1.05301,-4.39445,9.99792,-0.390753,-0.943043,9.33046e-15,1.39149e-15,-38.7565,-61.8503,-12.5909,76.6885,-47.106,-7.16366,-3.23836,7.12502,18.7134,-32.3582,9.33046e-15,1.39149e-15,-45.3651,10.0358,76.5196,45.4964,11.698,168.492,64.6112,7.12502,-165.469,35.1401,-6.34523,1.87756,26.7283,39.3035,-26.1102,-18.3576,8.80826,-7.7239,-5.8325,-19.4231,38.4869,-22.9635,5.39793,-6.1461
-1.48855,17.8291,47.684,177.243,-3.68854,-178.259,15.8453,-1.06008,-5.63541,-0.230328,-2.32606,2.84586,-8.82944,-0.847472,6.85407,-7.22037,-3.52744,-2.94407,28.0511,-0.795322,-4.602,10.1215,-0.27167,-1.04234,2.6985e-14,-7.15625e-15,-38.2865,-60.6694,-13.831,78.6452,-45.7127,-7.43958,-3.0565,7.12502,18.448,-32.2017,2.6985e-14,-7.15625e-15,-45.3067,10.2872,76.3615,45.3881,11.7653,168.594,64.5823,7.12502,-165.371,35.1183,-6.45268,1.90674,26.8143,39.3823,-26.1038,-18.2379,8.4715,-7.8377,-5.8644,-19.3363,38.7034,-23.1043,5.45567,-5.38103
-1.47458,17.8175,47.6704,177.279,-3.43719,-178.324,15.8968,-1.11469,-5.54022,-0.264961,-2.385,2.82095,-8.89189,-0.876426,6.78888,-6.7053,-3.47921,-2.95541,27.9874,-0.680049,-4.68902,10.0001,-0.204352,-1.05007,-1.15544e-15,-2.16675e-14,-38.2321,-59.1585,-14.7774,80.7136,-44.2501,-7.59088,-3.24904,7.12502,18.3025,-32.408,-1.15544e-15,-2.16675e-14,-45.7291,10.3539,76.1874,45.5464,11.7599,168.774,64.601,7.12502,-165.197,35.1497,-6.47362,1.82121,26.7448,39.4787,-26.0789,-17.9878,8.39241,-7.92504,-5.78558,-19.3767,38.9605,-23.1481,5.62115,-5.34593
-1.46098,17.8086,47.6586,177.437,-3.21129,-178.389,15.7888,-1.1608,-5.47478,-0.329363,-2.42487,2.82959,-8.89737,-0.894865,6.76572,-6.16892,-3.36826,-2.86249,27.8535,-0.49275,-4.81697,9.84842,-0.0968353,-1.08247,1.35671e-14,-1.66979e-14,-38.1702,-57.6457,-15.6179,82.6888,-42.8325,-7.46411,-3.11083,7.12502,18.4244,-32.2583,1.35671e-14,-1.66979e-14,-46.307,10.4095,76.0887,46.001,11.9582,168.768,64.511,7.12502,-165.203,35.0593,-6.63333,1.80133,26.6823,39.5846,-26.1827,-17.8211,8.14382,-8.17742,-5.6746,-19.4179,39.2375,-23.0606,5.99473,-6.91156
-1.44571,17.7988,47.6425,177.427,-2.87155,-178.5,15.9294,-1.17532,-5.45001,-0.249215,-2.45317,2.82554,-8.88573,-0.915355,6.75825,-6.16135,-3.2234,-2.90211,27.8711,-0.28827,-4.76318,9.85725,-0.000418921,-1.03617,1.93318e-14,-1.76918e-14,-37.5837,-56.3753,-17.2351,84.7793,-41.3136,-8.03073,-2.7612,7.12502,17.8793,-31.9593,1.93318e-14,-1.76918e-14,-46.4963,10.6279,76.0186,46.1073,12.1303,168.542,64.5984,7.12502,-165.421,35.1308,-6.57388,1.89739,26.5968,39.647,-26.2028,-17.7344,7.48566,-8.24621,-5.50855,-19.5281,39.5838,-23.1007,6.38036,-7.97715
-1.43212,17.7904,47.6237,177.359,-2.46447,-178.349,16.1627,-1.16526,-5.00034,0.121011,-2.3949,2.80732,-8.63776,-0.941358,6.46468,-7.56715,-3.09898,-2.62826,28.3703,-0.0954415,-4.88408,10.3123,0.0488879,-1.12733,1.13307e-14,-1.19271e-14,-36.8794,-55.6316,-19.0584,86.7639,-39.6664,-8.1922,-2.30425,7.12502,17.7239,-31.5165,1.13307e-14,-1.19271e-14,-45.712,10.9556,75.9427,45.6569,11.7751,168.807,64.7445,7.12502,-165.166,35.2955,-6.47895,1.95594,26.7805,39.6936,-26.2219,-17.5528,7.15863,-8.25362,-5.34656,-19.3363,39.9672,-23.3142,6.50087,-7.87191
-1.41756,17.7809,47.6149,177.225,-2.12247,-178.035,16.5657,-1.12725,-4.52484,0.098693,-2.27438,2.87549,-8.92129,-0.893737,6.26321,-7.23159,-3.11392,-2.44688,28.3854,-0.0939046,-4.9967,10.2492,0.0748919,-1.19351,-1.53561e-14,8.54774e-15,-37.0867,-54.2389,-19.9228,88.8102,-37.9458,-8.02732,-2.25396,7.12502,17.8826,-31.4518,-1.53561e-14,8.54774e-15,-45.9676,10.8487,75.9122,45.5491,11.8294,168.78,64.6889,7.12502,-165.192,35.238,-6.36105,1.92692,27.1529,39.7518,-26.207,-17.2776,7.22909,-8.27778,-5.24214,-18.9489,40.3898,-23.3201,6.49145,-7.66112
-1.4031,17.7736,47.6034,177.177,-1.68308,-178.045,16.615,-1.11608,-4.46502,0.169101,-2.25552,2.90236,-8.87551,-0.893717,6.25423,-6.74593,-2.99455,-2.33378,28.1853,0.080295,-5.1262,10.0823,0.170283,-1.233,1.04362e-14,-1.59028e-15,-36.6436,-52.9019,-21.5162,90.8659,-36.2824,-8.10362,-2.17378,7.12502,17.8091,-31.3783,1.04362e-14,-1.59028e-15,-46.1835,11.0614,75.8039,45.4663,11.8694,168.66,64.8237,7.12502,-165.307,35.3644,-6.3277,2.01075,27.1628,39.8425,-26.2171,-16.9736,7.31743,-8.38866,-5.22796,-18.9655,40.8367,-23.262,6.84377,-7.97285
-1.3857,17.7655,47.5909,177.176,-1.10926,-178.157,16.5691,-1.08355,-4.54687,0.354817,-2.23858,2.93192,-8.6444,-0.901935,6.32036,-6.70023,-2.76445,-2.36052,28.0999,0.388017,-5.08584,10.0485,0.311183,-1.18145,2.80783e-15,-3.18055e-15,-35.8048,-51.5791,-23.609,92.8761,-34.408,-8.62744,-1.84931,7.12502,17.305,-31.0989,2.80783e-15,-3.18055e-15,-46.1246,11.5522,75.6818,45.2619,11.7756,168.81,65.0449,7.12502,-165.162,35.5962,-6.34564,2.27755,27.0866,39.9443,-26.1592,-16.7776,7.12655,-8.53328,-5.07106,-19.1057,41.3992,-23.263,7.31792,-8.62131
-1.36935,17.7579,47.5835,177.19,-0.681135,-178.218,16.8685,-0.985316,-4.52859,0.537747,-2.1331,2.98526,-8.62554,-0.865193,6.35465,-7.34451,-2.67133,-2.1477,28.3273,0.577937,-5.34496,10.2607,0.369818,-1.29782,-4.71617e-14,2.06736e-14,-35.1776,-50.3845,-25.4067,94.7949,-32.6188,-9.52432,-1.5822,7.12502,16.4417,-30.9054,-4.71617e-14,2.06736e-14,-45.9352,11.7286,75.8278,45.2157,11.6739,168.933,65.1012,7.12502,-165.044,35.6612,-6.40727,2.3905,27.0414,40.0576,-26.1634,-16.5975,6.81058,-8.79941,-4.93775,-19.1681,42.0586,-23.2503,7.57658,-9.22143
-1.34782,17.7497,47.5858,177.21,-0.590712,-178.032,17.5721,-1.04358,-4.39279,0.389198,-2.20216,3.15177,-9.17242,-0.876562,6.52385,-7.29507,-2.57433,-2.1084,28.4602,0.779885,-5.43976,10.3056,0.467092,-1.31591,-4.23411e-14,-5.56597e-15,-34.8665,-48.7013,-27.058,96.7344,-31.076,-9.85419,-1.30398,7.12502,16.1241,-30.6532,-4.23411e-14,-5.56597e-15,-46.4331,11.926,75.8827,45.4616,11.7653,168.909,64.8762,7.12502,-165.067,35.4345,-6.47877,2.35466,27.3148,40.1156,-26.2031,-16.4973,7.15634,-9.31836,-4.95917,-18.9086,42.8845,-23.0351,7.86379,-10.6548
-1.32676,17.7396,47.5812,177.164,-0.089992,-177.959,18.1731,-1.03193,-4.49334,0.251904,-2.21796,3.35137,-9.649,-0.852978,6.8515,-6.99045,-2.39559,-2.27997,28.5644,1.15104,-5.51578,10.2971,0.637041,-1.26962,2.03257e-14,-2.82274e-14,-34.1085,-46.7129,-29.085,98.4482,-29.3074,-10.6035,-1.13721,7.12502,15.4024,-30.5434,2.03257e-14,-2.82274e-14,-47.051,12.3347,75.8878,45.5927,11.874,168.857,64.5296,7.12502,-165.117,35.0842,-6.4469,2.71798,27.5018,40.1825,-26.215,-16.4796,7.05675,-9.69508,-4.72666,-18.7744,43.7867,-22.666,8.23116,-12.8497
-1.30461,17.7346,47.5724,177.062,0.476437,-177.855,17.8369,-1.26739,-4.26091,0.975557,-1.9549,3.24893,-8.69256,-0.581663,6.44908,-7.67296,-2.28113,-2.07806,28.2984,1.11471,-5.4073,10.3267,0.593131,-1.27809,-3.57812e-14,4.37326e-14,-33.1016,-46.3432,-31.8037,99.9733,-26.8659,-11.1854,-0.834566,7.12502,14.8419,-30.283,-3.57812e-14,4.37326e-14,-45.9408,12.3539,76.0188,45.406,11.7545,169.026,64.42,7.12502,-164.954,34.9867,-6.31316,3.04302,27.7111,40.2048,-26.1837,-16.4196,6.54786,-10.0788,-4.37123,-18.5782,44.8266,-22.2039,8.32967,-14.218
-1.28624,17.7271,47.561,177.066,0.857699,-178.018,17.9461,-1.22536,-4.38134,1.1637,-1.91043,3.23642,-8.54821,-0.558616,6.4912,-7.6638,-2.19536,-2.07616,28.1763,1.21404,-5.43309,10.2821,0.629337,-1.2769,2.61402e-14,-1.90833e-14,-32.4323,-44.8002,-34.1063,101.319,-24.4399,-12.0768,-0.489047,7.12502,13.983,-29.9988,2.61402e-14,-1.90833e-14,-45.7016,12.4092,76.1677,45.1866,11.579,169.109,64.4652,7.12502,-164.875,35.0379,-6.32095,3.17109,27.5805,40.2866,-26.1415,-16.3052,6.29542,-10.5955,-4.13257,-18.6901,45.895,-21.7673,8.29426,-14.8453
-1.27243,17.7221,47.5514,177.105,1.08124,-177.881,18.204,-1.31184,-4.12638,1.09043,-1.96995,3.31036,-8.76979,-0.58323,6.45606,-6.97686,-2.08201,-2.11787,27.9946,1.43142,-5.56339,10.0882,0.744362,-1.28596,3.83654e-14,-5.1684e-14,-31.9953,-42.9314,-36.2273,102.45,-21.947,-12.4296,-0.203177,7.12502,13.643,-29.7361,3.83654e-14,-5.1684e-14,-45.8632,12.4245,76.2378,44.8686,11.7075,169.126,64.4035,7.12502,-164.858,34.9774,-6.34997,3.10698,27.7417,40.3212,-26.1823,-16.0898,6.33103,-11.3067,-3.92404,-18.4452,47.1243,-21.1854,8.24878,-16.0844
-1.25501,17.7185,47.5425,177.157,1.40079,-177.942,18.0737,-1.28471,-3.90873,1.80872,-1.83395,3.1687,-7.93856,-0.548897,6.10173,-8.59723,-1.93831,-1.7669,28.0589,1.43384,-5.46995,10.4244,0.695142,-1.3287,-2.13197e-14,8.34896e-15,-30.5444,-42.5087,-39.3149,103.354,-19.5643,-12.8219,0.0462794,7.12502,13.2649,-29.5116,-2.13197e-14,8.34896e-15,-44.2347,12.3704,76.5459,44.3049,11.62,169.305,64.3685,7.12502,-164.686,34.9555,-6.39484,3.11277,27.6954,40.3556,-26.2697,-15.8736,5.9743,-12.0923,-3.56888,-18.3595,48.4419,-20.5692,7.75246,-15.9371
-1.23411,17.7181,47.5292,177.168,2.01151,-177.948,18.2992,-0.986929,-3.73887,2.40805,-1.3525,3.06859,-7.4768,-0.322311,5.76488,-10.4907,-1.97494,-1.22113,28.4192,1.23528,-5.5605,10.9267,0.559013,-1.50031,5.76476e-15,-2.3059e-14,-29.5806,-42.178,-41.9276,104.134,-17.1318,-13.7099,0.356694,7.12502,12.4088,-29.255,5.76476e-15,-2.3059e-14,-42.7673,11.7117,77.1072,44.0195,11.9211,168.844,64.6149,7.12502,-165.13,35.1685,-6.32651,3.35613,27.7188,40.3256,-26.2359,-15.5368,6.21998,-12.9129,-2.99529,-18.1758,49.9378,-19.6972,7.18186,-15.7016
-1.21351,17.7145,47.5185,177.171,2.44748,-177.799,18.4692,-1.07383,-3.8031,2.10823,-1.48945,3.2812,-7.87233,-0.373426,6.087,-8.65415,-1.82228,-1.52205,28.0116,1.57723,-5.61924,10.4216,0.76192,-1.40909,-3.762e-14,2.82274e-14,-29.2669,-39.3125,-44.1138,104.612,-14.7751,-14.6885,0.687853,7.12502,11.4652,-28.9786,-3.762e-14,2.82274e-14,-43.9159,11.9449,77.0306,44.176,12.0454,168.41,64.9331,7.12502,-165.548,35.4564,-6.24859,3.57898,27.937,40.2764,-26.1981,-15.4002,6.62482,-13.8744,-2.519,-17.7876,51.5691,-18.6982,6.53545,-15.7203
-1.19228,17.7076,47.5203,177.248,2.48045,-177.528,18.9725,-1.2376,-3.68536,1.8234,-1.67491,3.53616,-8.43212,-0.437968,6.38074,-7.5857,-1.70447,-1.76188,27.8991,1.88468,-5.728,10.1825,0.925723,-1.36325,-8.64713e-15,-1.35174e-14,-28.9791,-36.8053,-46.2162,104.796,-12.222,-15.7372,1.14545,7.12502,10.4537,-28.5746,-8.64713e-15,-1.35174e-14,-44.6432,12.0415,77.2032,44.3489,12.3688,168.338,64.6709,7.12502,-165.618,35.1891,-6.29461,3.54809,28.3144,40.196,-26.1788,-15.5716,6.15368,-15.1137,-2.35752,-17.2406,53.3319,-17.6448,5.6926,-14.2866
-1.16531,17.6964,47.5339,177.325,2.23784,-177.187,19.9691,-1.36731,-3.34194,1.64555,-1.76036,3.6648,-9.17124,-0.45002,6.40317,-7.7632,-1.68149,-1.63412,28.1513,1.97886,-5.83183,10.3143,0.971883,-1.41329,3.07122e-14,-2.10712e-14,-28.6896,-35.0755,-48.5233,104.801,-9.89481,-16.5176,1.56061,7.12502,9.70079,-28.196,3.07122e-14,-2.10712e-14,-44.702,11.7677,77.4185,44.3431,12.3578,168.318,64.5826,7.12502,-165.637,35.0995,-6.3331,3.35284,28.8029,40.0697,-26.2395,-15.7377,5.75649,-16.4915,-2.3701,-16.5756,55.0948,-16.2887,4.78264,-13.3321
-1.1356,17.6901,47.5462,177.26,1.95871,-176.939,20.4169,-1.50386,-3.05316,2.03863,-1.8178,3.69604,-8.98028,-0.475506,6.28812,-8.54047,-1.64118,-1.32528,28.2605,1.95487,-5.87959,10.5061,0.943449,-1.49307,3.3197e-14,-4.6118e-14,-27.6041,-34.0815,-51.3734,104.363,-7.53939,-17.3165,1.88517,7.12502,8.92997,-27.9058,3.3197e-14,-4.6118e-14,-43.741,11.461,77.7434,44.164,12.0612,168.298,64.4868,7.12502,-165.656,35.0023,-6.24351,3.06001,29.1934,39.9857,-26.3412,-15.7825,5.83041,-17.8348,-2.38549,-16.0009,56.8786,-14.758,3.92646,-12.9613
-1.13501,17.6945,47.4859,177.314,3.1079,-176.968,19.5537,-1.34515,-2.99473,2.2078,-1.58785,3.7396,-8.35306,-0.394537,6.19231,-7.33051,-1.73135,-1.75347,27.8871,1.87613,-5.81955,10.1292,0.919203,-1.39778,2.3556e-14,3.57812e-15,-27.1207,-32.1396,-53.5764,103.6,-4.86526,-17.5873,2.43632,7.12502,8.66864,-27.3657,2.3556e-14,3.57812e-15,-44.0839,11.4817,78.0396,44.1705,11.5626,168.2,64.6049,7.12502,-165.751,35.1137,-6.00643,3.56398,29.0858,39.8764,-26.3798,-15.3244,5.43078,-18.56,-1.74706,-15.9571,58.4434,-13.6068,3.63021,-11.9177
-1.12005,17.67,47.4734,177.439,3.18437,-176.538,19.493,-1.45896,-2.41098,2.49044,-1.56323,3.82681,-8.02808,-0.396775,5.9278,-7.32872,-1.60042,-1.64804,27.5724,1.9881,-5.89295,10.0165,0.960471,-1.42985,-2.18663e-14,1.47101e-14,-26.2671,-30.8756,-56.1016,102.527,-2.29606,-18.5062,2.72552,7.12502,7.78176,-27.1113,-2.18663e-14,1.47101e-14,-43.4938,11.1893,78.3912,44.0782,11.1619,168.235,64.854,7.12502,-165.716,35.3653,-6.05506,3.53505,29.6101,39.8121,-26.3986,-15.3311,5.44024,-19.8643,-2.07125,-15.357,60.1042,-12.2283,3.19965,-11.9662
-1.10414,17.666,47.4571,177.529,3.36984,-176.319,19.7381,-1.37117,-1.93769,3.08679,-1.2771,3.76074,-7.5554,-0.260216,5.49325,-9.18997,-1.55999,-1.24834,27.8349,1.86618,-5.8045,10.4708,0.855276,-1.49553,-1.96797e-14,-1.07344e-14,-24.8556,-30.1626,-59.0282,101.167,-0.750304,-20.5957,3.2299,7.12502,5.76473,-26.6717,-1.96797e-14,-1.07344e-14,-41.8721,10.483,78.9515,44.042,11.0716,168.615,64.6155,7.12502,-165.35,35.153,-6.06598,3.51765,29.8691,39.7273,-26.3827,-15.1509,5.59869,-21.0538,-2.02914,-14.9343,61.5261,-11.4916,2.3576,-11.5372
-1.08783,17.6596,47.4431,177.63,3.50816,-176,20.0817,-1.42914,-1.64877,2.89335,-1.27373,3.93027,-7.95682,-0.251221,5.53322,-8.11411,-1.5674,-1.34885,27.5133,1.91858,-5.94546,10.1445,0.902178,-1.51352,1.30204e-14,-1.35174e-14,-24.755,-27.9101,-61.0502,99.6881,0.0906203,-22.6632,3.57808,7.12502,3.76835,-26.3684,1.30204e-14,-1.35174e-14,-42.2845,10.2399,79.2349,44.3421,11.2014,168.61,64.3686,7.12502,-165.355,34.9058,-6.06835,3.44364,30.237,39.6554,-26.363,-15.0639,4.90934,-22.2851,-1.96902,-14.3936,62.87,-11.4708,1.48715,-12.3001
-1.06656,17.6506,47.4351,177.795,3.46894,-175.808,20.3649,-1.63269,-1.81134,2.46947,-1.56159,4.27117,-8.53037,-0.366994,6.11315,-6.15931,-1.52051,-2.0134,27.07,2.12609,-5.91333,9.61451,1.03064,-1.3536,2.66371e-14,-2.82274e-14,-24.6924,-25.3575,-62.7699,97.8781,1.54329,-23.1013,3.81313,7.12502,3.34524,-26.1404,2.66371e-14,-2.82274e-14,-43.3542,10.717,79.3846,44.7151,11.2941,168.487,64.4504,7.12502,-165.474,34.9789,-6.13916,3.388,30.5207,39.5356,-26.2914,-15.1599,4.2847,-23.6105,-1.98689,-13.9874,63.9393,-11.6075,0.552751,-12.8404
-1.04764,17.6382,47.4208,177.846,3.53276,-175.328,20.7582,-1.63335,-1.29083,2.80861,-1.36319,4.41016,-8.40344,-0.263776,5.91346,-7.1946,-1.758,-1.92643,27.3147,1.77184,-5.96872,9.89295,0.815087,-1.43136,1.48095e-14,-1.15295e-14,-23.6696,-25.0805,-64.6681,95.675,4.21894,-21.6445,4.35378,7.12502,4.75205,-25.5729,1.48095e-14,-1.15295e-14,-42.5075,10.369,79.8779,44.9553,11.3412,168.601,64.4558,7.12502,-165.364,34.9923,-6.03839,3.44079,31.151,39.4056,-26.258,-15.3126,4.08003,-24.6951,-1.97025,-13.2394,64.7746,-11.622,-0.816873,-12.3326
-1.03698,17.6309,47.385,177.843,3.96738,-175.165,21.0566,-1.50858,-1.04692,3.02952,-1.09823,4.45087,-8.35477,-0.129487,5.74739,-7.76304,-1.86089,-1.86554,27.5292,1.64782,-6.03306,10.0788,0.731949,-1.48295,1.35174e-14,1.31198e-14,-22.9391,-23.9178,-66.5546,93.2805,5.01747,-22.1809,4.71111,7.12502,4.2341,-25.2266,1.35174e-14,1.31198e-14,-42.1013,10.007,80.2941,45.3816,11.6254,168.566,64.4312,7.12502,-165.397,34.9653,-5.77598,3.61851,31.3506,39.2612,-26.3119,-15.0915,4.19286,-25.379,-1.8169,-12.9222,65.2574,-11.6565,-1.88924,-12.6462
-1.02724,17.6293,47.3438,177.899,4.41557,-175.238,21.1186,-1.28933,-0.944094,3.27496,-0.771894,4.36747,-8.15526,0.0267202,5.49744,-8.03218,-1.94474,-1.72334,27.5535,1.47472,-5.99908,10.1333,0.653316,-1.51718,1.09332e-15,-1.82882e-14,-22.2649,-23.0884,-68.2777,90.7424,5.46009,-22.5786,4.94981,7.12502,3.85001,-24.9952,1.09332e-15,-1.82882e-14,-41.3019,9.50006,80.7381,45.3966,11.5816,168.578,64.4344,7.12502,-165.386,34.9692,-5.55937,3.79716,31.259,39.0744,-26.4449,-14.729,4.19811,-26.0417,-1.61209,-12.9017,65.4449,-11.942,-2.45583,-12.2324
-1.01774,17.6298,47.3099,178.006,4.68453,-175.011,21.3597,-1.08299,-0.463915,3.51223,-0.352298,4.3305,-8.07198,0.228788,5.06042,-8.50136,-2.14726,-1.49937,27.6516,1.12436,-5.98702,10.2481,0.491314,-1.59588,-9.24349e-15,5.80451e-14,-21.4915,-22.6449,-69.8883,87.8608,5.83557,-23.47,5.15821,7.12502,2.98923,-24.8006,-9.24349e-15,5.80451e-14,-40.2627,8.83057,81.1763,45.2235,11.5896,168.627,64.5305,7.12502,-165.338,35.0688,-5.4028,3.76639,31.4806,38.8352,-26.4741,-14.4962,3.81071,-26.8434,-1.54899,-12.5648,65.4308,-12.1641,-2.67544,-12.5496
-1.00613,17.6355,47.2703,178.024,5.00959,-174.902,21.5072,-1.04313,-0.392088,3.59106,-0.24254,4.47859,-8.07409,0.291921,5.15365,-7.90044,-2.13191,-1.91588,27.377,1.19088,-5.9237,10.0356,0.510085,-1.48642,-1.98785e-15,-2.90226e-14,-20.7813,-21.3347,-71.2579,84.7085,6.30642,-23.9669,5.46222,7.12502,2.50934,-24.5028,-1.98785e-15,-2.90226e-14,-40.1327,8.95407,81.5532,45.4762,11.6829,168.444,64.6454,7.12502,-165.515,35.171,-5.11831,3.93469,31.6209,38.5822,-26.4651,-14.4087,3.84545,-27.4638,-1.44278,-12.3382,65.1525,-12.3751,-2.9554,-11.6451
-0.99723,17.6388,47.2268,178.01,5.31419,-174.858,21.7965,-0.92433,-0.227579,3.78218,-0.00423626,4.50771,-8.04075,0.416887,5.02462,-8.1147,-2.22984,-1.95599,27.4472,1.12973,-6.11463,10.104,0.451814,-1.55576,-6.55989e-15,-4.45278e-14,-19.8439,-20.493,-72.4841,81.3806,6.4696,-23.7874,5.39152,7.12502,2.68264,-24.5714,-6.55989e-15,-4.45278e-14,-39.5023,8.9261,81.9231,45.5529,11.4844,168.657,64.6777,7.12502,-165.31,35.2181,-4.75466,4.10365,31.696,38.3302,-26.5214,-14.3066,3.96612,-27.9601,-1.45063,-12.2045,64.6939,-12.4899,-2.90851,-11.6422
-0.985031,17.6411,47.178,178.148,5.55435,-175.018,22.0121,-0.724859,-0.224127,3.84495,0.266313,4.45044,-8.11003,0.550415,4.88519,-8.19293,-2.3416,-1.96542,27.4229,0.980177,-6.16198,10.1065,0.37293,-1.58781,3.57812e-15,-2.54444e-14,-19.0278,-19.8648,-73.5965,77.8679,6.56436,-23.5397,5.2496,7.12502,2.92185,-24.7101,3.57812e-15,-2.54444e-14,-39.013,8.65777,82.2975,45.6071,11.4508,168.569,64.7572,7.12502,-165.394,35.2915,-4.59006,4.23901,31.5347,38.1337,-26.6453,-14.1354,4.00705,-28.6038,-1.46296,-12.3077,64.0193,-12.4218,-2.42219,-11.5542
-0.97257,17.6403,47.1282,178.311,5.68429,-175.123,22.1308,-0.586447,-0.175842,3.8188,0.459819,4.43538,-8.21883,0.64278,4.78789,-7.87086,-2.37343,-2.11338,27.4033,0.960062,-6.06925,10.0371,0.377061,-1.52754,-3.37934e-15,-1.27222e-14,-18.4236,-19.103,-74.4031,74.4182,6.35786,-22.8997,4.85645,7.12502,3.53996,-25.0939,-3.37934e-15,-1.27222e-14,-38.8728,8.31921,82.6576,45.9722,11.4279,168.822,64.7274,7.12502,-165.151,35.2795,-4.49565,4.40571,31.4658,37.9809,-26.8027,-14.116,3.80602,-29.2595,-1.70232,-12.3552,63.1991,-12.9707,-1.62002,-12.9112
-0.960486,17.6383,47.0826,178.468,5.68835,-175.24,22.6217,-0.509466,-0.288356,3.63674,0.557687,4.54444,-8.69099,0.701206,4.96003,-7.53091,-2.31272,-2.48014,27.4873,1.15092,-5.97684,10.0111,0.465099,-1.40703,1.82882e-14,7.15625e-15,-17.7953,-18.1472,-74.9335,70.8684,5.92391,-21.8437,4.2067,7.12502,4.55967,-25.7242,1.82882e-14,7.15625e-15,-38.9518,8.30099,83.0478,46.3309,11.511,168.912,64.5174,7.12502,-165.064,35.0759,-4.43001,4.39318,31.3596,37.8585,-26.9451,-14.0394,3.85693,-29.9083,-2.1237,-12.3814,62.2477,-13.1773,-0.933852,-12.3233
-0.950306,17.6385,47.0341,178.643,5.73386,-175.306,22.5764,-0.458312,-0.193166,3.90867,0.680782,4.55629,-8.37631,0.767428,4.87282,-8.01607,-2.29079,-2.6061,27.5726,1.20443,-5.9491,10.1396,0.458247,-1.37477,2.98177e-15,2.62396e-14,-16.3828,-17.5657,-75.7488,67.4502,5.20424,-20.0107,3.09001,7.12502,6.32948,-26.7954,2.98177e-15,2.62396e-14,-38.0469,8.22605,83.508,46.5794,11.655,168.916,64.6872,7.12502,-165.06,35.2461,-4.37339,4.52948,31.3297,37.7535,-27.1121,-14.0666,4.11597,-30.532,-2.48865,-12.3543,61.1703,-13.2192,-0.382243,-12.9891
-0.939383,17.6376,46.9769,178.877,5.67033,-175.351,22.47,-0.376549,0.0483174,4.0874,0.85687,4.50641,-8.13552,0.850087,4.61921,-8.25652,-2.44187,-2.57291,27.5652,0.963204,-5.9335,10.1773,0.337895,-1.40421,-9.93923e-15,6.36111e-15,-15.243,-17.0394,-76.361,64.1047,4.01685,-18.1769,2.07026,7.12502,8.09965,-27.7545,-9.93923e-15,6.36111e-15,-37.2481,7.78754,83.9249,46.8414,11.6933,168.969,64.7057,7.12502,-165.009,35.2684,-4.34271,4.57056,31.3221,37.6258,-27.2519,-14.1463,4.66807,-31.1817,-2.87309,-12.3173,59.9767,-13.2081,0.336403,-18.5931
-0.923133,17.6371,46.9212,179.05,5.56586,-175.603,22.458,-0.231662,0.0136738,4.15127,1.03224,4.42695,-8.07196,0.934066,4.49846,-7.73141,-2.62902,-2.70999,27.2314,0.645406,-5.84949,9.94613,0.202006,-1.3778,-1.35174e-14,2.78299e-14,-14.4398,-16.6396,-76.8116,60.9333,2.74885,-16.7139,0.600538,7.12502,9.51143,-29.1648,-1.35174e-14,2.78299e-14,-36.7954,7.27418,84.3532,47.1844,11.78,168.82,64.821,7.12502,-165.153,35.3729,-4.31154,4.62803,31.146,37.4832,-27.1842,-14.5827,3.71124,-31.7005,-3.28033,-12.4806,58.6739,-13.5061,1.06189,-22.2907
-0.90777,17.6361,46.8644,179.276,5.40391,-175.603,22.6073,-0.166922,0.119936,4.2617,1.18012,4.49291,-8.04096,1.01472,4.4654,-8.01069,-2.68134,-2.83131,27.1965,0.553128,-5.76413,9.98674,0.14107,-1.34004,-1.51076e-14,-6.36111e-15,-13.473,-16.0781,-77.098,58.0035,1.46763,-14.4391,-0.667268,7.12502,11.7057,-30.3202,-1.51076e-14,-6.36111e-15,-36.1626,6.9063,84.8753,47.6784,11.952,168.884,64.7651,7.12502,-165.091,35.3216,-4.232,4.69733,31.2425,37.2902,-27.2893,-14.8483,3.90327,-32.27,-3.78929,-12.3208,57.3389,-13.9138,1.34498,-21.4366
-0.88847,17.6355,46.8026,179.496,5.29912,-175.607,22.982,0.00989121,0.129607,4.33203,1.4687,4.61196,-8.18668,1.16939,4.50706,-8.88359,-2.79347,-2.7895,27.5124,0.447256,-5.82674,10.2708,0.0585701,-1.39384,-3.27995e-14,-8.82604e-14,-12.589,-15.9973,-77.1594,55.0477,0.933791,-10.8909,-1.05603,7.12502,15.1255,-30.4833,-3.27995e-14,-8.82604e-14,-35.4261,6.39903,85.5966,48.1318,12.1347,168.828,64.884,7.12502,-165.145,35.4365,-4.14272,4.87003,31.3717,37.0993,-27.3063,-15.2926,3.93261,-32.821,-4.22123,-12.1121,55.9567,-14.3432,1.19762,-19.1087
-0.867929,17.6384,46.7329,179.808,5.22569,-175.714,22.6795,0.183203,0.302338,4.66717,1.74237,4.48419,-7.67228,1.30388,4.17898,-9.81548,-2.85804,-2.36451,27.5543,0.230093,-5.8539,10.4571,-0.0498626,-1.51581,-1.39149e-14,-3.18055e-14,-11.1577,-16.5873,-77.648,51.8246,0.82996,-7.80155,-1.38897,7.12502,18.0998,-30.5668,-1.39149e-14,-3.18055e-14,-34.2474,5.64777,86.0758,48.5387,12.1333,168.942,65.0178,7.12502,-165.035,35.5785,-4.10231,5.18699,31.4027,36.904,-27.3053,-15.6122,4.75765,-33.4386,-4.61289,-11.9981,54.5555,-14.5674,1.05394,-17.2578
-0.843338,17.6347,46.6635,180.083,5.11985,-175.902,23.409,0.511615,-0.0443298,4.19218,2.09211,4.62769,-8.62225,1.47283,4.43888,-9.40073,-3.1085,-2.6211,27.7038,-0.00547289,-5.83109,10.43,-0.148734,-1.48447,9.54166e-15,3.33958e-14,-11.1787,-16.4561,-77.3121,48.8842,0.805698,-5.02833,-2.3065,7.12502,20.7662,-31.2153,9.54166e-15,3.33958e-14,-34.6145,4.88662,86.7964,49.2778,12.3744,168.946,64.9625,7.12502,-165.031,35.5235,-4.0743,5.42366,31.3652,36.8013,-27.3978,-15.7964,5.83539,-33.985,-4.90418,-11.9593,53.2241,-14.5606,0.577357,-16.6971
-0.821071,17.6225,46.5934,180.243,4.87336,-176.058,23.3079,0.597396,0.141016,4.39869,2.24,4.42041,-8.33742,1.53976,4.05355,-9.75467,-3.17732,-2.1643,27.6937,-0.199062,-5.92282,10.4824,-0.220594,-1.62419,1.70955e-14,3.81667e-14,-10.2551,-16.9392,-77.7426,46.0365,0.843809,-2.17324,-2.45729,7.12502,23.5072,-31.041,1.70955e-14,3.81667e-14,-33.807,3.85679,87.148,49.907,12.5491,168.949,64.7799,7.12502,-165.028,35.3411,-3.97642,5.55317,31.3739,36.7367,-27.4953,-16.1008,6.44471,-34.4464,-5.25336,-11.9188,51.9726,-14.2648,0.0327449,-19.0262
-0.798579,17.5983,46.5176,180.366,4.56964,-176.15,23.4247,0.66194,0.288471,4.70583,2.40005,4.32613,-8.061,1.63044,3.81121,-10.5787,-3.40361,-2.32122,27.8129,-0.617486,-5.58749,10.6822,-0.433815,-1.54442,3.57812e-14,5.48646e-14,-9.15478,-17.2203,-78.1329,43.2599,0.0846638,0.618689,-1.89202,7.12502,26.1828,-30.1063,3.57812e-14,5.48646e-14,-32.6613,3.10068,87.6245,50.3971,12.7087,168.781,64.9815,7.12502,-165.19,35.5307,-3.8186,5.66358,31.4737,36.6829,-27.6,-16.5156,6.97967,-34.8691,-5.64373,-11.7809,50.8955,-14.2474,-0.557539,-19.7177
-0.772215,17.5892,46.4273,180.601,4.36145,-176.326,23.6035,0.835707,0.0430449,4.44429,2.54812,4.37631,-8.46597,1.69617,3.96336,-10.1214,-3.50677,-2.29388,27.8349,-0.695136,-5.6933,10.5973,-0.449784,-1.58663,3.89618e-14,6.67916e-14,-9.4181,-16.5437,-77.9747,40.8774,-1.18247,2.808,-1.62855,7.12502,28.2771,-29.5143,3.89618e-14,6.67916e-14,-32.7642,2.42557,88.1476,51.1422,12.9512,168.927,65.0625,7.12502,-165.05,35.6221,-3.67388,5.81071,31.4812,36.5578,-27.6857,-17.0216,6.66455,-35.257,-5.91178,-11.7498,49.9069,-14.3995,-1.13422,-21.2043
-0.745003,17.5801,46.3351,180.698,4.09859,-176.426,23.5287,0.904145,0.0614366,4.57473,2.6491,4.31991,-8.28605,1.74885,3.85908,-9.76813,-3.76463,-2.75113,27.5392,-1.17945,-5.17534,10.4184,-0.663346,-1.37187,1.11319e-14,9.54166e-15,-8.9951,-16.255,-78.2106,38.4706,-1.93778,3.32476,-1.16394,7.12502,28.7708,-28.9669,1.11319e-14,9.54166e-15,-32.1687,1.81351,88.5262,51.7608,13.1046,169.104,65.2066,7.12502,-164.879,35.779,-3.29974,5.9462,31.5934,36.3378,-27.9576,-17.4196,7.01407,-35.5331,-6.19365,-11.6218,49.1206,-14.5622,-2.24563,-21.4979
-0.721752,17.5684,46.2387,180.734,3.61518,-176.535,23.6542,0.885258,0.14499,4.53018,2.64894,4.29176,-8.39654,1.74765,3.77772,-9.23318,-4.00756,-3.1568,27.4012,-1.54082,-4.8471,10.2685,-0.817223,-1.21604,-3.18055e-14,-4.53229e-14,-9.00376,-16.335,-78.3196,36.2162,-1.70587,2.91076,-0.219661,7.12502,28.3753,-28.0891,-3.18055e-14,-4.53229e-14,-32.0535,1.17936,88.9857,52.549,13.2167,169.29,65.4105,7.12502,-164.701,35.9964,-2.84655,5.87617,31.6814,36.0527,-28.6039,-17.603,8.29746,-35.7665,-6.59509,-11.5797,48.5103,-14.601,-2.99987,-22.0515
-0.703062,17.5441,46.1396,180.833,3.02295,-176.302,23.6214,0.777429,0.717749,4.38524,2.63883,4.2571,-8.51697,1.72364,3.41211,-8.13101,-4.1628,-3.28647,26.9432,-1.85435,-4.60462,9.88768,-0.917101,-1.11655,-1.82882e-14,-3.26007e-14,-9.46024,-16.7066,-78.4613,34.3712,-0.449867,2.40263,-0.320264,7.12502,27.8896,-28.2696,-1.82882e-14,-3.26007e-14,-32.0362,0.311252,89.3873,53.2215,13.4231,169.132,65.625,7.12502,-164.853,36.1993,-2.41952,5.67111,32.1232,35.7459,-28.9937,-17.8881,8.92957,-36.1034,-7.12553,-11.1304,48.1755,-14.4465,-3.45696,-21.408
-0.677109,17.5246,46.0343,180.864,2.62532,-176.47,23.3928,0.807689,0.532021,3.68012,2.52686,4.26254,-9.18159,1.63048,3.56886,-4.55732,-4.24878,-3.74601,26.0834,-1.97822,-4.30021,8.91824,-0.847887,-0.866788,-1.35174e-14,-5.725e-14,-11.663,-15.8848,-78.1035,33.5419,1.07058,1.02273,1.13299,7.12502,26.5696,-27.0233,-1.35174e-14,-5.725e-14,-33.5987,-0.0971146,89.7666,54.0806,13.5786,169.266,65.4746,7.12502,-164.724,36.0587,-1.95569,5.53164,32.1287,35.5459,-29.4889,-17.9638,9.61868,-36.2678,-7.46224,-11.1593,48.0151,-14.1907,-3.55705,-22.1392
-0.651696,17.5061,45.9214,180.832,2.27597,-176.535,23.6076,0.92232,0.994894,4.7451,2.90977,3.95804,-8.0987,1.86336,2.83823,-8.77465,-1.90719,-3.80324,27.2547,-3.55065,-2.9286,10.1251,-3.12422,-0.914456,3.57812e-15,-2.54444e-14,-9.90899,-17.2878,-78.8963,32.7838,3.02503,0.253522,1.07352,7.12502,25.8332,-27.1921,3.57812e-15,-2.54444e-14,-30.6262,-1.64611,90.1915,54.4559,13.7784,169.34,65.4153,7.12502,-164.652,36.005,-1.44232,5.25548,32.204,35.3881,-29.8103,-18.1882,9.29021,-36.305,-7.76899,-11.0967,48.0528,-14.0938,-3.67138,-22.1868
-0.625999,17.4815,45.8087,180.888,1.76663,-176.792,23.7248,0.972243,0.936412,4.59145,2.92992,3.82841,-8.32601,1.86117,2.72009,-8.37848,-2.04027,-3.99025,27.3139,-3.85245,-2.62033,10.0818,-3.25878,-0.801541,-3.02153e-14,-4.92986e-14,-11.2135,-17.42,-78.6676,32.4861,4.86942,1.4673,-0.271882,7.12502,26.995,-28.363,-3.02153e-14,-4.92986e-14,-30.556,-2.46335,90.6092,55.2437,14.14,169.379,65.5515,7.12502,-164.614,36.144,-1.10851,4.86149,32.0735,35.3163,-30.0656,-18.5283,8.86586,-36.401,-8.16556,-11.2381,48.1955,-14.1198,-3.82177,-22.0046
-0.59443,17.4517,45.6949,180.927,1.37049,-176.9,23.9932,1.07466,0.885288,4.4636,3.04186,3.74932,-8.61093,1.908,2.62118,-8.18165,-2.17506,-4.17628,27.3159,-4.12601,-2.24238,10.0592,-3.36004,-0.662655,3.61788e-14,6.67916e-14,-12.367,-17.5547,-78.5178,32.3491,6.52678,0.574021,1.09461,7.12502,26.1401,-27.126,3.61788e-14,6.67916e-14,-30.4265,-3.36739,91.0598,56.2452,14.6692,169.285,65.8204,7.12502,-164.705,36.406,-0.730433,4.56481,32.137,35.2772,-30.1738,-18.8084,8.20502,-36.4272,-8.36279,-11.1954,48.4915,-13.8927,-4.03307,-21.3963
-0.558709,17.419,45.5764,180.967,0.90589,-177.043,23.8153,1.15261,0.752081,4.62086,3.10972,3.6569,-8.347,1.95077,2.57937,-8.27731,-2.34229,-4.14874,27.3032,-4.38321,-2.05205,10.0793,-3.44011,-0.62898,-9.54166e-15,-1.51076e-14,-12.8531,-18.0322,-78.6453,32.0361,8.17214,-0.790012,2.92837,7.12502,24.8335,-25.4789,-9.54166e-15,-1.51076e-14,-29.8561,-4.3097,91.4808,57.213,15.1097,169.658,65.8881,7.12502,-164.346,36.5014,-0.358131,4.23333,32.1927,35.3421,-30.4531,-19.0201,7.46393,-36.4629,-8.55725,-11.1793,48.8568,-13.3208,-4.50495,-19.6933
-0.525082,17.38,45.4547,180.978,0.462331,-177.296,23.8354,1.26348,0.5691,4.65906,3.19039,3.47922,-8.3163,1.99099,2.46361,-8.35508,-2.55108,-4.11076,27.413,-4.76896,-1.71339,10.1462,-3.57025,-0.563439,1.43125e-14,4.05521e-14,-13.8066,-18.0268,-78.7277,32.2942,8.97178,-1.70142,4.17052,7.12502,23.9597,-24.3544,1.43125e-14,4.05521e-14,-29.4189,-5.26245,91.8624,57.963,15.3821,170.252,65.4579,7.12502,-163.774,36.1169,0.00342398,3.82976,32.1018,35.508,-30.8241,-19.2378,6.11895,-36.3653,-8.67863,-11.3633,49.266,-12.8985,-4.60472,-19.9625
-0.493076,17.3429,45.3303,181.17,0.0167337,-177.761,23.245,1.38326,0.234366,4.93667,3.23699,3.24621,-7.70545,2.02552,2.40524,-8.54198,-2.8377,-4.0514,27.1501,-5.1558,-1.44965,10.0971,-3.67533,-0.51793,-1.03368e-14,-1.59028e-14,-14.3016,-18.0324,-78.8961,32.6208,9.44692,-2.53518,4.69996,7.12502,23.16,-23.9278,-1.03368e-14,-1.59028e-14,-28.5603,-6.03428,92.1122,58.304,15.2117,170.114,65.9073,7.12502,-163.906,36.5556,0.103235,3.3119,31.7206,35.81,-31.3064,-19.2607,6.04434,-36.2945,-8.82337,-11.7585,49.6348,-12.8642,-4.74868,-20.3637
-0.460696,17.3046,45.2076,181.197,-0.261806,-177.952,23.1715,2.69426,0.514195,4.98467,2.87718,3.24206,-7.57494,0.947168,2.46999,-8.83983,-2.8918,-4.28165,27.267,-5.25819,-1.05318,10.2178,-3.69153,-0.362152,-1.90833e-14,-4.77083e-15,-14.9181,-17.5222,-79.0975,32.9209,9.86653,-3.45169,4.77811,7.12502,22.2804,-23.9575,-1.90833e-14,-4.77083e-15,-27.98,-6.27859,92.3214,58.6616,14.8297,170.511,66.5511,7.12502,-163.524,37.2307,0.284858,2.86603,31.6285,36.2908,-31.7346,-19.0731,5.4875,-35.9355,-8.70294,-11.8876,49.9192,-13.3,-5.53159,-19.7979
-0.426933,17.2527,45.0793,181.178,-0.56087,-177.849,23.4574,2.57645,0.469362,4.76908,2.75464,3.21302,-7.95703,0.903365,2.49435,-8.64356,-2.78181,-4.42321,27.3998,-5.17105,-0.902662,10.2351,-3.66662,-0.275422,-2.98177e-14,-5.725e-14,-16.1599,-16.2177,-79.2818,33.4555,9.61349,-4.34969,4.60798,7.12502,21.4181,-24.2281,-2.98177e-14,-5.725e-14,-28.0053,-6.5295,92.5935,59.9102,16.2018,170.074,66.2306,7.12502,-163.945,36.8758,0.445535,2.38337,31.8811,36.9251,-32.1618,-18.9605,5.2462,-35.549,-8.62938,-11.6594,50.1401,-14.2804,-6.83035,-18.6068
-0.394864,17.2014,44.9464,181.244,-0.785723,-178.055,23.928,2.62309,0.330943,4.26605,2.87427,2.91226,-8.75677,1.00233,2.19316,-8.01068,-2.78949,-4.24575,27.5529,-5.41219,-0.633729,10.1744,-3.76216,-0.227863,1.37161e-14,-1.11319e-14,-18.2506,-15.543,-79.2793,34.2629,9.30574,-5.18301,5.41524,7.12502,20.6176,-23.5098,1.37161e-14,-1.11319e-14,-28.5955,-7.41796,92.9256,60.7132,16.9735,169.43,65.8589,7.12502,-164.566,36.4552,0.485903,1.7828,31.7192,37.695,-32.461,-18.605,7.20903,-35.249,-8.50809,-11.8215,50.3349,-15.2811,-7.85908,-19.1393
-0.360904,17.1551,44.8136,181.286,-0.795567,-178.252,23.818,2.78967,-0.0123099,4.33025,2.99322,2.75188,-8.64268,1.06866,2.1776,-8.06505,-2.85284,-4.22267,27.5381,-5.54197,-0.412867,10.1879,-3.78623,-0.168835,5.96354e-16,4.77083e-15,-19.2965,-14.5505,-79.4554,35.2336,8.43988,-5.89915,5.58675,7.12502,19.9293,-23.4113,5.96354e-16,4.77083e-15,-28.4901,-8.03488,93.2073,61.5128,17.4814,168.921,66.0946,7.12502,-165.055,36.6538,0.449743,1.22774,31.527,38.6396,-32.2636,-18.4342,2.35784,-34.8757,-7.89762,-12.069,50.5926,-15.9278,-8.62732,-19.6054
-0.327007,17.1235,44.6822,181.383,-0.872527,-178.345,23.7889,2.81512,-0.327035,4.40604,2.93437,2.71725,-8.55623,1.04503,2.33917,-8.41046,-2.81206,-4.408,27.5587,-5.44535,-0.207147,10.2726,-3.72262,-0.0627201,1.13307e-14,-2.38542e-15,-20.055,-13.3037,-79.661,36.1503,7.70205,-6.57471,5.44696,7.12502,19.2798,-23.6173,1.13307e-14,-2.38542e-15,-28.1896,-8.04285,93.5174,62.4446,17.457,169.338,65.6686,7.12502,-164.654,36.2581,0.216256,0.636757,31.4319,39.7818,-31.9147,-18.1835,0.898605,-34.6884,-7.202,-12.2133,50.9174,-16.4384,-9.04591,-20.4322
-0.293113,17.0956,44.5539,181.47,-1.171,-178.7,23.7706,2.8187,-0.596766,4.34296,2.87124,2.38358,-8.60972,1.03167,2.14343,-8.0273,-2.8537,-4.04065,27.3183,-5.59286,-0.125489,10.1034,-3.74061,-0.0957985,-1.05356e-14,1.82882e-14,-21.0855,-13.0597,-79.9581,36.81,7.42735,-7.13641,5.32542,7.12502,18.7396,-23.7919,-1.05356e-14,1.82882e-14,-27.8919,-8.67758,93.6485,63.2225,17.0545,170.31,65.7571,7.12502,-163.718,36.4207,-0.188572,-0.0895039,31.0627,41.24,-31.6651,-17.7061,-0.158045,-34.6714,-6.8405,-12.594,51.3118,-16.6567,-9.62487,-19.4214
-0.255988,17.0866,44.4238,181.571,-1.48708,-179.236,23.9255,2.78573,-1.1113,4.33969,2.67916,2.08725,-8.69593,0.954801,2.16749,-8.2428,-2.87654,-3.99793,27.2262,-5.62822,0.0899534,10.1174,-3.71076,-0.0333501,2.82274e-14,-7.15625e-15,-21.7834,-12.5729,-80.225,37.2634,7.03663,-7.80702,5.16574,7.12502,18.0945,-24.0126,2.82274e-14,-7.15625e-15,-27.4448,-8.80958,93.736,64.0162,16.6766,170.924,66.3198,7.12502,-163.127,37.0329,-0.759462,-0.968421,30.4278,42.987,-31.0371,-17.1979,-2.60958,-34.6236,-6.70874,-13.1835,51.6628,-16.711,-9.98354,-18.4614
-0.221273,17.0592,44.2965,181.541,-2.034,-179.789,24.1521,2.63642,-1.66313,4.4962,2.29209,1.88526,-8.63574,0.7696,2.38046,-8.93449,-2.83282,-4.0277,27.2837,-5.49053,0.213585,10.2742,-3.60901,0.0140826,7.95139e-16,-2.42517e-14,-22.1151,-11.9245,-80.4569,37.4694,6.57191,-8.30374,5.50573,7.12502,17.6166,-23.7162,7.95139e-16,-2.42517e-14,-26.9623,-8.83684,93.8892,65.0019,17.4055,168.962,67.1485,7.12502,-165.016,37.7106,-1.41674,-2.3347,29.6399,45.0928,-30.2056,-16.2678,-4.67524,-34.5068,-6.90146,-13.7745,52.0674,-16.7115,-10.3989,-17.7063
-0.187352,17.038,44.1673,181.561,-2.27548,-180.076,24.2565,2.74087,-1.83851,4.33339,2.38709,1.54518,-8.86873,0.833695,2.07095,-8.25844,-2.92203,-3.69395,26.9933,-5.83643,0.687069,10.0488,-3.68923,0.107888,-2.00773e-14,-4.77083e-15,-23.5845,-11.9732,-80.4916,38.2366,5.94636,-8.4298,5.53823,7.12502,17.4952,-23.6945,-2.00773e-14,-4.77083e-15,-27.2721,-10.1002,94.2785,66.2538,19.3112,168.765,66.0611,7.12502,-165.206,36.6092,-2.31454,-3.6732,28.9874,47.4813,-28.9444,-15.0783,-7.19806,-34.3149,-6.80246,-14.0731,52.4584,-17.1802,-10.4576,-18.8947
-0.15594,17.0121,44.0436,181.591,-2.61066,-179.959,24.4995,2.38307,-1.83167,4.69508,1.84189,1.65059,-8.56717,0.535411,2.35803,-9.90099,-2.75349,-4.24347,27.0843,-5.2841,0.796939,10.4076,-3.41348,0.266371,1.86858e-14,-3.97569e-16,-23.2851,-10.2374,-80.8171,38.633,4.9106,-8.36881,5.87413,7.12502,17.5539,-23.3534,1.86858e-14,-3.97569e-16,-26.0817,-9.13138,94.2573,66.86,19.0906,169.814,66.9014,7.12502,-164.196,37.5266,-3.43677,-5.12714,28.7485,50.0934,-27.3104,-13.8156,-9.27282,-34.2236,-6.84679,-13.8824,52.8924,-17.5467,-10.7456,-18.4783
-0.129569,16.9868,43.9232,181.545,-2.8709,-180.017,24.7508,2.20757,-1.90519,4.83696,1.54498,1.59128,-8.52312,0.377829,2.42855,-10.319,-2.64634,-4.37869,26.8726,-5.04422,1.00323,10.4138,-3.26337,0.388475,-2.18663e-14,-1.78906e-14,-23.6866,-9.16859,-80.9019,38.9767,3.87925,-8.55982,5.89485,7.12502,17.3701,-23.349,-2.18663e-14,-1.78906e-14,-25.721,-9.04336,94.475,67.9479,20.1279,167.761,65.654,7.12502,-166.173,36.1336,-4.64177,-6.5484,28.2175,52.8799,-25.3506,-12.1607,-10.307,-33.9669,-7.01047,-13.9311,53.2619,-18.1138,-10.7015,-19.1934
-0.103951,16.9681,43.7955,181.423,-2.99862,-179.928,24.782,2.20934,-1.76711,4.92276,1.55332,1.45717,-8.43614,0.36882,2.19846,-9.91646,-2.70331,-4.14975,26.5192,-5.24331,1.32494,10.2137,-3.29011,0.454711,2.08724e-15,7.15625e-15,-24.3343,-8.93336,-80.9085,39.2315,3.00444,-8.59514,5.59132,7.12502,17.3361,-23.6555,2.08724e-15,7.15625e-15,-25.6515,-9.56203,94.7392,68.9535,21.0225,167.217,64.9735,7.12502,-166.698,35.4181,-5.82237,-7.78742,27.7525,55.7335,-23.233,-9.90315,-8.81988,-33.5239,-7.21832,-13.8064,53.5453,-18.7187,-10.5143,-19.8692
-0.0765417,16.9601,43.6653,181.34,-2.87489,-180.043,24.7601,2.46602,-1.80036,4.7836,1.88602,1.16093,-8.5873,0.54112,1.78311,-8.59815,-2.89123,-3.44612,25.9757,-5.77252,1.51732,9.76259,-3.47004,0.380038,-1.32192e-14,-1.15295e-14,-25.6391,-9.42148,-80.7975,39.7409,2.49559,-8.24135,5.03499,7.12502,17.6766,-24.1815,-1.32192e-14,-1.15295e-14,-25.8576,-10.5442,95.0279,69.627,21.3714,167.626,67.535,7.12502,-166.304,38.0057,-7.12881,-8.7289,27.0023,58.591,-20.4898,-7.50723,-6.02617,-32.9676,-7.52499,-13.8955,53.7457,-19.3058,-9.84239,-20.2992
-0.0495579,16.9524,43.5372,181.218,-2.68541,-180.403,24.9802,2.48555,-2.2984,4.53517,1.8005,1.01449,-8.98649,0.533298,1.92899,-7.41502,-2.71728,-3.59567,25.6048,-5.67286,1.83885,9.41558,-3.44223,0.558014,-2.51463e-14,-3.97569e-16,-26.8047,-8.64276,-80.7114,40.1556,1.86056,-7.69209,4.27739,7.12502,18.2051,-24.8907,-2.51463e-14,-3.97569e-16,-26.2067,-10.2021,95.2895,70.2857,21.2874,167.773,68.7581,7.12502,-166.162,39.2384,-8.42983,-9.6573,25.9015,61.3667,-17.0477,-5.44325,-3.24296,-32.3153,-7.9471,-14.2721,53.8413,-19.6482,-9.15494,-20.0676
-0.022786,16.9429,43.4068,181.184,-2.5203,-180.512,25.1593,2.30191,-2.56715,5.0466,1.37793,1.08066,-8.49576,0.281654,2.29788,-9.57072,-2.51669,-4.13547,25.9379,-5.08295,1.97478,9.94684,-3.12864,0.715961,7.95139e-15,-6.75868e-15,-26.0268,-7.03324,-80.9293,40.431,0.945643,-7.45188,3.85729,7.12502,18.4362,-25.2891,7.95139e-15,-6.75868e-15,-24.8589,-9.15461,95.2987,71.0022,21.8065,166.936,68.9372,7.12502,-166.969,39.3642,-9.83222,-10.5269,25.1134,63.9701,-13.6089,-3.90017,0.401294,-31.7805,-8.3475,-14.3612,53.9021,-19.9065,-8.534,-19.6349
0.00473929,16.9462,43.2749,181.184,-2.21455,-180.861,25.1574,2.49452,-2.97447,4.60132,1.58233,0.815716,-9.00795,0.434691,2.16753,-7.77935,-2.44753,-3.55607,25.6445,-5.31381,2.05333,9.49165,-3.24015,0.654993,1.88845e-15,1.39149e-15,-27.9666,-6.75934,-80.6907,41.0648,0.493475,-7.1574,4.03925,7.12502,18.7194,-25.08,1.88845e-15,1.39149e-15,-26.0006,-9.42296,95.6035,72.108,22.038,166.612,67.1776,7.12502,-167.281,37.585,-11.3084,-11.2635,23.993,66.4474,-10.8045,-2.50813,4.48869,-31.0615,-8.67121,-14.7144,53.8348,-20.4636,-7.87393,-19.6964
0.034629,16.9496,43.1459,181.136,-1.75682,-181.226,25.2553,2.46116,-3.53444,5.00927,1.29092,0.760638,-8.59871,0.25958,2.52747,-9.5122,-2.2617,-3.80301,26.0578,-4.82948,1.9802,9.9604,-2.99416,0.689208,5.26779e-15,-1.98785e-16,-27.4345,-5.59866,-80.7585,41.3167,0.376518,-6.69417,4.29187,7.12502,19.1649,-24.7839,5.26779e-15,-1.98785e-16,-24.9361,-7.90529,95.2848,74.4361,19.8339,170.22,66.2621,7.12502,-163.804,36.9186,-12.7751,-11.7249,22.8949,68.7808,-8.58898,-1.13595,7.86704,-30.2429,-8.70752,-15.1256,53.7034,-21.2584,-6.98542,-21.5983
0.0625143,16.949,43.0208,181.038,-1.34049,-181.478,25.3432,2.59201,-3.77848,4.91909,1.37914,0.543548,-8.7517,0.312335,2.39725,-9.0821,-2.19535,-3.33187,25.8922,-4.83235,1.89665,9.80345,-2.97138,0.589294,8.19987e-15,6.55989e-15,-28.2725,-5.55765,-80.571,41.7361,0.431878,-6.07695,4.67424,7.12502,19.7584,-24.3415,8.19987e-15,6.55989e-15,-25.1629,-7.46086,95.2667,76.5766,18.4893,173.34,63.2262,7.12502,-160.803,34.1537,-14.1306,-12.2586,21.937,70.9141,-8.92093,-0.56421,4.23624,-29.3966,-8.81899,-15.3823,53.489,-21.8507,-6.41828,-22.2195
0.0936769,16.9551,42.8907,180.973,-0.990023,-181.683,25.5881,2.54022,-3.96361,4.65973,1.26021,0.342831,-9.15967,0.283573,2.31551,-8.68649,-1.96155,-3.02446,26.0508,-4.63332,1.82061,9.76832,-2.88993,0.535387,-9.44227e-15,9.93923e-15,-29.2346,-5.12865,-80.5151,42.0781,0.678296,-5.80084,4.88935,7.12502,20.0238,-24.0989,-9.44227e-15,9.93923e-15,-25.8234,-6.77242,95.2146,78.764,19.2857,172.906,61.3055,7.12502,-161.219,32.1922,-15.4162,-12.8181,21.0828,72.7311,-9.63502,-0.725865,3.07531,-28.5479,-8.79712,-15.5917,53.1709,-22.2475,-5.97181,-23.3787
0.128677,16.9654,42.7518,180.857,-0.99066,-182.06,26.087,2.32052,-4.16851,4.28971,0.898412,0.0505565,-9.80756,0.150983,2.22266,-8.24649,-1.69112,-2.75941,26.3082,-4.44231,1.88595,9.76567,-2.81084,0.534487,6.16232e-15,3.13086e-15,-30.542,-4.62209,-80.5753,42.7495,1.15575,-5.50223,4.82165,7.12502,20.3108,-24.1363,6.16232e-15,3.13086e-15,-26.766,-6.12834,95.0238,80.8909,21.5086,174.814,55.6354,7.12502,-159.385,26.7101,-16.5096,-13.6447,20.067,74.3448,-10.7941,-1.34251,2.90863,-27.5858,-9.17447,-15.9759,52.8057,-22.5758,-5.43758,-24.5245
0.173221,16.9901,42.6023,180.344,-1.79176,-182.136,26.5012,1.93153,-4.10622,4.37352,0.35885,0.05077,-9.88912,-0.115979,2.37314,-8.14539,-1.59415,-2.45702,26.304,-4.33553,1.71824,9.73125,-2.7584,0.43727,-8.7341e-15,7.60351e-15,-31.2681,-4.28494,-80.3642,43.2473,1.52709,-5.42435,5.3069,7.12502,20.3857,-23.6431,-8.7341e-15,7.60351e-15,-27.2214,-5.53739,95.0002,82.8785,24.2112,169.612,57.9345,7.12502,-164.39,28.5444,-16.7856,-15.1475,19.3096,75.4698,-12.0522,-2.36638,4.67182,-26.2571,-10.113,-16.0194,52.3098,-22.735,-5.49008,-24.0683
0.199005,16.9999,42.4925,180.79,0.169347,-182.612,26.0386,1.3205,-5.47917,4.12718,1.14659,-0.320493,-9.93324,1.12667,2.33584,-7.71488,-1.43968,-2.07432,26.045,-4.15286,1.5698,9.54039,-2.6629,0.350108,-8.85989e-15,1.73315e-14,-32.0406,-3.96786,-80.2887,43.8536,1.92068,-5.24046,5.27009,7.12502,20.5624,-23.6609,-8.85989e-15,1.73315e-14,-27.8666,-4.83963,94.7649,84.8872,26.5569,166.063,58.9288,7.12502,-167.81,29.3039,-19.2003,-14.3187,18.2043,76.8198,-12.0808,-3.38049,4.54023,-25.7196,-9.03275,-16.5666,51.852,-22.8538,-4.73332,-23.5864
0.240236,17.027,42.3544,180.723,0.597016,-182.821,25.9683,1.34739,-5.73219,4.04359,1.07755,-0.503733,-9.98505,1.09617,2.29964,-7.31584,-1.28816,-1.54727,25.9519,-4.05613,1.52031,9.41799,-2.59123,0.259395,-1.35919e-14,5.51627e-15,-32.8999,-3.8837,-80.2042,44.4363,2.1698,-5.02055,5.26727,7.12502,20.7737,-23.6407,-1.35919e-14,5.51627e-15,-28.4857,-4.30563,94.3767,86.793,28.4763,163.516,58.7844,7.12502,-170.267,29.0293,-20.3529,-14.7764,17.3712,77.5861,-12.4716,-4.443,-2.19295,-24.6568,-9.10717,-16.7766,51.291,-23.0785,-4.31284,-23.8456
0.284188,17.0541,42.2166,180.694,1.16977,-182.771,25.9837,1.3406,-5.65964,3.8714,1.03164,-0.644702,-10.1834,1.06313,2.11401,-6.89943,-1.0796,-1.07173,25.8722,-3.8541,1.41269,9.29645,-2.48375,0.167628,0,2.78299e-15,-33.7622,-3.90078,-80.0709,44.9269,2.42079,-5.11002,5.37543,7.12502,20.6877,-23.542,0,2.78299e-15,-29.1748,-3.50323,93.8211,88.6501,29.3653,162.082,59.1876,7.12502,-171.651,29.3726,-21.5339,-14.9764,16.8858,78.1377,-11.6671,-6.61121,5.32577,-23.6439,-8.91877,-16.705,50.7642,-23.2849,-3.59125,-25.9195
0.331117,17.0887,42.0812,180.763,1.68485,-182.77,26.12,1.2545,-5.72553,3.77017,0.865735,-0.669855,-10.357,0.985628,2.1778,-7.20818,-0.854346,-1.02669,25.9102,-3.51403,1.38486,9.36156,-2.31717,0.179733,-3.47873e-16,-1.0138e-14,-34.1649,-3.63183,-79.8223,45.4167,2.35564,-5.20689,5.32474,7.12502,20.5946,-23.6028,-3.47873e-16,-1.0138e-14,-29.3517,-2.28679,93.1024,90.4863,29.0374,162.757,61.4591,7.12502,-170.999,31.6711,-22.8302,-15.19,16.4028,78.3659,-12.4036,-7.77697,11.3311,-22.7661,-8.82087,-16.6444,50.165,-23.2828,-3.13803,-26.5343
0.381663,17.1291,41.9451,180.859,2.34519,-182.869,26.1273,1.04326,-6.1165,4.17796,0.57644,-0.572328,-9.87003,0.874621,2.61346,-9.45894,-2.81312,-1.10475,26.3873,-2.17544,0.654172,9.94003,-0.421189,0.282847,5.2181e-15,2.08724e-14,-33.289,-2.78609,-79.7051,45.7911,1.97334,-5.55524,4.88708,7.12502,20.2599,-24.0763,5.2181e-15,2.08724e-14,-28.372,-0.0799996,92.22,92.5223,26.8969,165.888,64.4359,7.12502,-167.979,34.8012,-24.1832,-15.223,15.8935,78.289,-14.7305,-8.31707,3.36917,-21.8445,-8.84236,-16.7232,49.5509,-23.1447,-2.41561,-27.8082
0.434747,17.1734,41.809,180.906,2.93261,-183.073,26.1828,1.00287,-6.4559,3.86854,0.34975,-0.574722,-10.2315,0.771856,2.88261,-8.63887,-2.56288,-1.22651,26.074,-1.7822,0.656765,9.66742,-0.245871,0.353737,2.33572e-15,-3.04141e-14,-34.303,-2.63247,-79.1158,45.9316,1.37636,-5.2221,6.89442,7.12502,20.58,-22.0347,2.33572e-15,-3.04141e-14,-29.0485,2.08301,91.0744,94.696,22.6089,171.267,69.0713,7.12502,-162.796,39.8128,-25.3551,-15.2569,15.2606,77.9087,-15.3607,-9.32596,3.70636,-20.8648,-8.94052,-16.9188,48.8963,-22.8689,-1.91854,-27.9109
0.490515,17.2151,41.6713,180.937,3.5245,-182.968,26.2443,0.93288,-6.42644,3.81063,0.245655,-0.55263,-10.3204,0.719788,2.92655,-8.8502,-2.26857,-1.06896,26.0596,-1.38445,0.514522,9.69556,-0.0712203,0.317688,1.09332e-15,-2.66371e-14,-34.7644,-2.46464,-78.8089,46.1725,1.13196,-5.73039,6.97432,7.12502,20.0915,-22.0068,1.09332e-15,-2.66371e-14,-29.2116,3.38092,90.0718,96.5806,21.8848,171.621,69.5519,7.12502,-162.456,40.3235,-26.4291,-15.2066,15.0168,77.2642,-15.9364,-10.2253,5.25563,-19.8953,-9.01266,-16.754,48.2645,-22.5154,-1.49049,-28.3182
0.551194,17.2618,41.5392,180.953,3.96452,-183.071,26.3706,0.902282,-6.46345,3.8038,0.179198,-0.624534,-10.387,0.691796,2.88882,-9.13891,-2.12485,-0.941928,25.9389,-1.26224,0.530937,9.70521,-0.0191003,0.310442,-1.62506e-14,1.49089e-14,-35.2624,-2.46544,-78.6271,46.8306,0.845974,-6.55523,5.90042,7.12502,19.2985,-23.162,-1.62506e-14,1.49089e-14,-29.1957,4.43542,89.0309,98.1462,22.3058,171.42,69.0872,7.12502,-162.649,39.8417,-27.4331,-15.1397,14.5512,76.3571,-16.5081,-10.9414,7.31658,-18.982,-9.22382,-16.8163,47.6586,-22.0975,-0.970983,-29.3775
0.612955,17.3036,41.4123,181.013,4.25125,-183.279,26.5056,0.835489,-6.59947,3.67281,0.0129314,-0.659193,-10.5906,0.619863,2.98512,-9.0552,-2.01449,-0.934558,25.8775,-1.11441,0.524997,9.66585,0.0465689,0.322816,1.88845e-15,-9.93923e-15,-35.8869,-2.38428,-78.3951,47.355,0.658414,-7.61576,5.02078,7.12502,18.2785,-24.1404,1.88845e-15,-9.93923e-15,-29.4644,6.11271,87.7091,99.7782,23.0798,172.521,69.152,7.12502,-161.59,40.0032,-28.4832,-15.1471,14.0184,75.2813,-16.9754,-11.8066,8.10516,-18.1883,-9.35026,-16.9731,47.1096,-21.7011,-0.548417,-30.7566
0.671814,17.3478,41.2698,181.164,4.79653,-183.167,26.5061,0.767235,-6.42063,3.51283,-0.0652434,-0.615607,-10.7701,0.570591,2.96028,-9.07071,-1.87624,-0.948129,25.9114,-0.89203,0.424456,9.67889,0.136505,0.314321,-1.88348e-14,-1.72943e-14,-36.6945,-2.23785,-78.166,48.0185,0.409909,-8.7046,4.35124,7.12502,17.2308,-24.9048,-1.88348e-14,-1.72943e-14,-29.8339,8.02073,86.2335,101.394,25.0688,172.455,68.4855,7.12502,-161.653,39.3307,-29.414,-14.8237,13.8464,73.9062,-16.9203,-13.453,10.0137,-17.3997,-9.35046,-16.7974,46.5985,-21.3557,-0.142177,-31.762
0.741428,17.3923,41.1373,181.265,5.30117,-183.322,26.1215,0.712519,-6.58983,3.77044,-0.118762,-0.670828,-10.2657,0.542227,3.01392,-9.44444,-1.66121,-0.659496,25.4908,-0.701773,0.221237,9.59573,0.191247,0.206655,1.33186e-14,9.74045e-15,-36.6146,-2.31751,-77.9355,48.4918,-0.597637,-9.05995,4.21972,7.12502,16.8887,-25.0659,1.33186e-14,9.74045e-15,-29.4889,9.94879,84.6903,102.895,27.2725,171.922,67.5487,7.12502,-162.166,38.3464,-30.3195,-14.45,13.4277,72.3532,-17.3199,-13.3548,10.1566,-16.6653,-9.36583,-16.8885,46.0863,-20.8279,0.161156,-32.4183
0.819404,17.4408,40.9972,181.401,5.99305,-183.272,25.4947,0.7433,-6.78465,4.01617,-0.0475841,-0.562504,-9.66317,0.563889,3.22512,-9.63114,-1.42628,-0.479938,25.1372,-0.41604,-0.0439914,9.50279,0.284325,0.109629,3.42904e-15,2.40529e-14,-36.5369,-2.79002,-77.2521,48.9559,-2.62754,-7.6283,4.5011,7.12502,18.2665,-24.6612,3.42904e-15,2.40529e-14,-29.4411,11.8719,83.2195,104.398,29.0662,170.685,65.1255,7.12502,-163.357,35.8191,-31.2609,-13.8756,13.3487,70.5384,-17.5291,-13.7279,7.38364,-15.8615,-9.01205,-16.7013,45.5263,-20.2383,0.273721,-32.9899
0.898751,17.4934,40.8664,181.621,6.37143,-183.117,25.4206,0.646193,-6.7047,3.94116,-0.163859,-0.451059,-9.69892,0.500645,3.34387,-9.53022,-1.24881,-0.535489,24.8681,-0.198227,-0.0307573,9.38834,0.368607,0.144302,2.37548e-14,-2.18663e-14,-36.8182,-3.06747,-76.7664,48.8362,-3.13594,-8.04632,5.56664,7.12502,17.8643,-23.6329,2.37548e-14,-2.18663e-14,-29.9726,13.4958,81.5912,105.873,30.448,169.937,64.4977,7.12502,-164.077,35.1322,-32.1688,-13.4506,13.3804,68.5673,-17.6141,-14.5756,5.23056,-15.2626,-9.08851,-16.3783,44.9439,-19.5687,0.401557,-33.416
0.983946,17.5479,40.7275,181.687,6.82549,-183.277,25.7119,0.640953,-6.83924,3.68233,-0.283948,-0.493831,-10.1327,0.454051,3.41498,-9.3753,-1.10632,-0.725204,24.8319,-0.00249961,0.148532,9.3464,0.462901,0.259294,-1.02374e-14,-1.13307e-14,-37.5118,-3.20956,-76.4109,49.0282,-4.0909,-8.36013,5.82397,7.12502,17.5623,-23.4028,-1.02374e-14,-1.13307e-14,-30.6929,14.7809,79.694,107.088,31.3641,169.282,64.7902,7.12502,-164.708,35.3755,-32.7833,-12.9355,12.9534,66.4564,-17.9794,-14.9256,4.98285,-14.3928,-9.08,-16.4487,44.2968,-18.9734,0.585948,-33.9193
1.0634,17.5925,40.5994,181.796,7.34807,-183.377,25.9691,0.671425,-6.92043,3.41544,-0.343596,-0.529298,-10.5672,0.433851,3.44437,-9.11238,-0.985445,-0.479641,24.8217,0.162734,0.0442848,9.29166,0.558148,0.1996,-2.06736e-14,-2.98177e-15,-38.2029,-3.36253,-76.0727,49.3839,-5.12906,-8.77192,4.89093,7.12502,17.166,-24.3708,-2.06736e-14,-2.98177e-15,-31.2273,15.946,77.8728,108.163,31.167,169.069,65.2228,7.12502,-164.913,35.7926,-33.4446,-12.3622,12.5801,64.205,-17.8738,-15.2845,3.74413,-13.617,-9.07286,-16.4803,43.6672,-18.2326,0.742374,-33.8015
1.14345,17.6374,40.456,182.038,7.9748,-183.469,25.7279,0.734963,-7.05117,3.26662,-0.319416,-0.502455,-10.6133,0.440215,3.54262,-8.83923,-0.88877,-0.285999,24.5732,0.305335,-0.215415,9.15271,0.609809,0.0898555,3.65267e-14,4.28381e-14,-38.8238,-3.36034,-75.6912,49.7689,-6.14945,-9.73528,3.68922,7.12502,16.2386,-25.6507,3.65267e-14,4.28381e-14,-31.8338,16.8843,76.2329,109.316,30.4296,170.367,67.0049,7.12502,-163.663,37.673,-34.1432,-11.7007,12.2166,61.885,-17.9023,-15.5651,2.65368,-12.8834,-8.98333,-16.5272,42.9798,-17.3298,1.03723,-33.6679
1.22245,17.6871,40.3143,182.187,8.30421,-183.512,25.5396,0.611638,-6.9902,3.19118,-0.470989,-0.466873,-10.5849,0.358834,3.59965,-8.40562,-0.733712,-0.267632,24.2114,0.530825,-0.365036,8.94575,0.695836,0.0550091,1.51573e-14,-5.66536e-15,-39.2543,-3.39196,-75.2589,49.8467,-7.01876,-9.84327,3.90582,7.12502,16.1346,-25.4426,1.51573e-14,-5.66536e-15,-32.5307,17.6276,74.505,110.445,29.6321,169.538,65.7243,7.12502,-164.462,36.3286,-34.5299,-11.1125,11.7445,59.4905,-18.287,-15.1976,4.0221,-12.0842,-9.13881,-16.5311,42.301,-16.344,1.08947,-29.8599
1.31099,17.739,40.1747,182.387,8.81825,-183.356,25.3654,0.608813,-6.68837,3.49477,-0.330725,-0.526722,-10.1651,0.405356,3.30917,-9.82008,-0.667763,-0.0130489,24.4484,0.468368,-0.290911,9.29445,0.659815,0.0303836,3.77691e-15,-4.47266e-15,-38.7932,-4.15882,-74.9804,49.4769,-7.91384,-9.9301,5.40931,7.12502,16.051,-23.9459,3.77691e-15,-4.47266e-15,-31.9295,17.9864,72.9876,111.197,28.8691,168.881,64.7662,7.12502,-165.094,35.3225,-34.9225,-10.1253,11.441,57.0145,-18.4415,-14.5769,6.81688,-11.2212,-9.1428,-16.3036,41.5441,-15.7802,1.67374,-34.8356
1.40217,17.7811,40.0353,182.631,9.28537,-183.143,25.3474,0.494766,-6.57563,3.14152,-0.514284,-0.373989,-10.5422,0.311042,3.48166,-8.82853,-0.476628,-0.303507,24.1291,0.785681,-0.148402,8.99579,0.811035,0.1585,-6.90777e-15,1.40143e-14,-39.4732,-3.63532,-74.7009,49.762,-8.41928,-9.99454,4.62844,7.12502,15.9889,-24.7317,-6.90777e-15,1.40143e-14,-33.0871,18.7453,70.8969,112.064,28.0002,170.362,66.1519,7.12502,-163.668,36.8196,-35.2434,-9.20722,11.2419,54.39,-18.0326,-14.7925,8.24836,-10.4239,-9.08166,-15.9724,40.7553,-14.7191,1.68885,-35.1824
1.49421,17.8176,39.8889,182.724,9.64669,-183.297,25.6081,0.500946,-6.71769,2.75484,-0.631219,-0.312759,-11.1104,0.270809,3.67863,-8.29766,-0.39668,-0.455063,24.1127,0.95793,-0.128703,8.89024,0.89583,0.207798,-9.0447e-15,4.96962e-16,-40.3203,-3.44815,-74.2419,49.8964,-8.72886,-10.0873,4.31532,7.12502,15.8996,-25.052,-9.0447e-15,4.96962e-16,-34.091,19.154,68.936,112.951,27.6103,171.119,66.8847,7.12502,-162.939,37.6139,-35.3881,-8.47177,10.6362,51.7024,-16.3482,-15.1655,7.87916,-9.44038,-9.05892,-16.1205,39.8814,-14.0395,2.24818,-36.3725
1.58907,17.8592,39.741,182.828,10.0993,-183.288,25.2252,0.523798,-6.51733,3.01901,-0.486585,-0.387801,-10.6229,0.314718,3.42435,-9.09341,-0.366482,-0.264546,24.1413,0.878827,-0.0389813,9.04923,0.858674,0.198525,-3.8763e-15,-1.98785e-16,-40.2209,-4.1107,-73.8971,49.9593,-9.00505,-10.07,3.97704,7.12502,15.9163,-25.3889,-3.8763e-15,-1.98785e-16,-33.5366,19.4338,67.4171,113.532,27.6188,170.859,67.0119,7.12502,-163.189,37.7196,-35.4414,-7.65834,10.1779,48.9535,-13.9361,-15.0464,7.36346,-8.45266,-9.04951,-16.1111,38.9925,-13.2414,2.68753,-34.4567
1.69155,17.8973,39.5979,182.991,10.4825,-183.395,24.996,0.570767,-6.53579,3.06592,-0.415262,-0.415906,-10.4555,0.340538,3.37813,-9.5281,-0.331119,-0.101814,24.1053,0.845242,-0.00969046,9.11862,0.843861,0.176889,-5.46658e-16,7.15625e-15,-40.3395,-4.525,-73.5043,50.0475,-9.30177,-9.80456,3.5965,7.12502,16.1718,-25.7489,-5.46658e-16,7.15625e-15,-33.2951,19.7959,65.9054,114.079,27.5925,170.388,66.7827,7.12502,-163.643,37.4525,-35.6203,-6.75862,9.60083,46.2698,-11.6313,-15.4254,7.1489,-7.55637,-8.95351,-16.1396,38.0362,-12.4934,2.91329,-31.1421
1.7955,17.9293,39.4548,183.155,10.5928,-183.35,24.8665,0.498049,-6.41294,2.90603,-0.498111,-0.342408,-10.5627,0.292115,3.41902,-9.11886,-0.264968,0.0343867,23.9548,0.945622,-0.109036,8.99021,0.897685,0.127966,-2.55935e-14,-8.94531e-16,-40.9516,-4.72238,-73.008,50.1885,-9.59534,-9.34628,4.16938,7.12502,16.6131,-25.1396,-2.55935e-14,-8.94531e-16,-33.4035,20.0009,64.2325,114.464,27.7155,170.272,66.6141,7.12502,-163.755,37.2747,-35.7011,-6.02198,9.16459,43.6706,-9.43695,-15.7081,6.41765,-6.63672,-8.97942,-16.0044,37.1026,-11.6819,3.46567,-31.5405
1.89987,17.9508,39.3031,183.156,10.6295,-183.351,24.7155,0.385012,-6.27539,2.87814,-0.604748,-0.293978,-10.5049,0.231457,3.42924,-8.86708,-0.185393,0.0213656,23.8111,1.02487,0.0238078,8.89253,0.9475,0.181048,-1.95306e-14,9.0447e-15,-41.3588,-5.09872,-72.4857,50.056,-9.88393,-8.691,5.10982,7.12502,17.2439,-24.1451,-1.95306e-14,9.0447e-15,-33.2536,20.225,62.5603,114.729,28.2336,169.762,66.2776,7.12502,-164.245,36.8988,-35.5229,-5.36379,8.66077,41.2304,-7.03595,-15.7023,6.76735,-5.52363,-9.02828,-15.936,36.1738,-11.0333,3.84535,-29.5358
2.00856,17.9691,39.1507,183.119,10.5695,-183.566,24.5767,0.26133,-6.3534,2.89848,-0.775965,-0.283605,-10.388,0.150129,3.54017,-8.77915,-0.183157,0.145587,23.7014,1.03327,-0.149803,8.83963,0.940769,0.100153,7.70291e-16,-8.15017e-15,-41.7511,-5.12214,-72.1251,50.2382,-10.2127,-8.55028,5.24119,7.12502,17.3793,-24.0018,7.70291e-16,-8.15017e-15,-33.05,20.7016,60.854,115.027,28.6441,169.873,66.7186,7.12502,-164.139,37.3482,-35.2276,-4.62036,7.87575,39.0266,-5.87339,-16.3095,7.01362,-4.51902,-9.0605,-16.0395,35.2772,-10.2709,4.04622,-27.4918
2.12402,17.98,38.9984,182.978,10.6413,-183.622,24.433,0.209029,-6.30626,3.0399,-0.797506,-0.261643,-10.1483,0.133372,3.54143,-8.69027,-0.192021,0.285851,23.4,1.00115,-0.345697,8.72076,0.905781,0.00294144,2.48481e-15,1.75924e-14,-42.0427,-5.30757,-71.7998,50.3673,-10.4671,-8.39311,5.36418,7.12502,17.5306,-23.8654,2.48481e-15,1.75924e-14,-32.6057,21.0541,59.2983,115.267,29.3743,169.652,67.0925,7.12502,-164.352,37.7054,-34.8352,-3.63847,7.30099,37.0579,-5.2631,-17.7389,6.54109,-3.34463,-9.06233,-15.986,34.419,-9.58002,4.24493,-25.8893
2.24527,17.9866,38.8523,182.974,10.5501,-183.787,24.314,0.175889,-6.38426,3.01572,-0.859476,-0.257466,-10.1043,0.103846,3.60971,-8.63463,-0.149225,0.508727,23.3048,1.02114,-0.387058,8.67873,0.927653,-0.0479842,-1.00883e-14,-1.78906e-15,-42.5095,-5.62831,-71.442,50.6313,-9.929,-8.30663,4.47975,7.12502,17.6138,-24.7424,-1.00883e-14,-1.78906e-15,-32.0127,21.2406,57.8001,115.191,29.9713,169.282,67.1144,7.12502,-164.708,37.6997,-34.6527,-2.82405,6.67266,35.4456,-4.62142,-19.0518,6.42296,-2.41783,-9.23431,-15.9973,33.6258,-9.20037,4.52104,-21.5573
2.36725,17.9824,38.6983,182.852,10.4238,-183.528,24.305,0.0692182,-5.98831,3.06666,-0.878316,-0.161663,-10.0464,0.0795584,3.49528,-8.72151,-0.143181,0.592355,23.2054,0.964494,-0.273324,8.66024,0.912128,-0.030527,-1.77718e-14,-7.10966e-15,-42.8924,-5.88823,-71.1427,50.8653,-9.67275,-8.14962,3.87989,7.12502,17.7649,-25.3286,-1.77718e-14,-7.10966e-15,-31.1583,21.5369,56.3579,114.872,30.1841,170.387,68.7831,7.12502,-163.644,39.4528,-34.2855,-1.88291,6.51822,34.1735,-3.93998,-20.4055,5.9589,-1.27612,-9.25831,-15.5422,32.9297,-8.39006,4.63363,-18.4015
2.49219,17.9685,38.5455,182.762,10.2563,-183.64,24.0194,-0.0153621,-6.06183,3.23642,-0.958011,-0.0942319,-9.69066,0.0369966,3.6317,-8.97059,-0.145664,0.662652,23.094,0.916561,-0.309492,8.66855,0.878307,-0.0605662,1.2306e-14,7.60351e-15,-42.9714,-5.99058,-70.9002,50.8915,-9.78396,-8.39211,3.48509,7.12502,17.5315,-25.7444,1.2306e-14,7.60351e-15,-30.6231,21.7554,55.0914,114.895,31.7025,169.167,67.4442,7.12502,-164.819,38.0211,-34.2,-1.18039,6.07726,33.3826,-3.37416,-21.7101,9.87592,-0.344174,-9.2945,-15.4427,32.3439,-7.86264,4.72755,-34.8637
2.62122,17.9528,38.3944,182.604,10.0082,-183.593,23.963,-0.0608778,-6.01108,3.27899,-0.980016,0.058108,-9.60831,0.024892,3.77812,-8.98106,-0.178502,0.649397,23.1315,0.860159,-0.23527,8.68264,0.859967,-0.0384817,-5.64051e-15,7.65321e-15,-43.3968,-6.1003,-70.4782,51.0121,-9.73309,-8.40168,3.00468,7.12502,17.5223,-26.2257,-5.64051e-15,7.65321e-15,-29.7833,21.9434,54.0938,114.38,31.671,169.828,68.2296,7.12502,-164.182,38.8558,-34.079,-0.909964,6.06325,33.1148,-3.00911,-22.7189,11.7082,0.620134,-9.54276,-15.1836,31.8617,-7.2991,4.87214,-35.6183
2.75228,17.9348,38.2445,182.458,9.76046,-183.387,24.044,-0.113488,-5.90492,3.17324,-1.01864,0.33289,-9.76378,0.00861036,4.03995,-8.62884,-0.232936,0.583639,23.1424,0.853744,-0.34763,8.62116,0.851771,-0.065813,-3.80673e-14,1.03368e-14,-43.8975,-6.0592,-69.9667,50.9022,-9.41194,-8.44266,2.66577,7.12502,17.4829,-26.5681,-3.80673e-14,1.03368e-14,-28.9077,21.9666,53.2808,113.421,32.0576,169.558,67.7264,7.12502,-164.442,38.3322,-34.1129,-1.11634,6.51417,33.5206,-2.60202,-23.4773,10.4808,1.53023,-9.84237,-14.7444,31.5361,-7.17186,4.92054,-37.239
2.88756,17.9072,38.0919,182.212,9.65429,-183.494,23.7774,-0.137316,-6.01313,3.33674,-1.03288,0.377351,-9.43205,-0.00218331,4.14808,-8.41794,-0.22608,0.447001,23.005,0.822983,-0.0744692,8.53353,0.852781,0.0445191,2.25124e-14,-1.46107e-14,-43.9234,-6.36477,-69.6806,50.4688,-9.06814,-8.54772,3.0598,7.12502,17.3818,-26.183,2.25124e-14,-1.46107e-14,-27.5369,21.989,52.454,112.349,32.5604,168.943,66.9566,7.12502,-165.034,37.5174,-34.2636,-2.07878,6.99334,34.6005,-2.44696,-23.2734,8.79007,2.4299,-10.0675,-14.6624,31.417,-6.814,4.99764,-36.8717
3.02302,17.868,37.942,181.955,9.42187,-183.391,24.1624,-0.169434,-5.98148,3.09857,-1.10417,0.571994,-9.89429,-0.0207563,4.38281,-8.22988,-0.224361,0.159781,23.404,0.879329,0.232242,8.63286,0.911129,0.206823,2.55935e-14,-1.45113e-14,-44.5342,-6.23757,-69.2363,50.109,-8.88218,-8.8812,3.19385,7.12502,17.0608,-26.077,2.55935e-14,-1.45113e-14,-26.7295,21.6091,51.5494,110.994,33.0476,168.05,66.1302,7.12502,-165.895,36.6289,-34.3687,-3.59964,7.96609,36.2508,-3.03974,-22.2103,8.12857,3.21455,-10.4334,-14.361,31.5178,-6.25863,5.17089,-37.228
3.15993,17.8205,37.7956,181.71,9.26973,-183.289,24.0028,-0.252401,-5.97282,3.20418,-1.17042,0.721425,-9.67849,-0.055903,4.56018,-8.21652,-0.170768,0.14495,23.4716,0.966593,0.235653,8.65347,0.954637,0.219865,3.16068e-14,-1.76918e-14,-44.4734,-6.29811,-68.9673,49.4804,-8.68474,-9.05668,3.33192,7.12502,16.8919,-25.9535,3.16068e-14,-1.76918e-14,-25.3747,21.7514,50.8503,109.65,32.6274,167.557,64.8917,7.12502,-166.37,35.3579,-34.5904,-5.31444,9.03319,38.2614,-3.94879,-20.41,7.3439,3.84351,-10.7991,-14.0595,31.8213,-5.80248,5.30764,-37.3205
3.30127,17.7702,37.6498,181.389,9.36243,-183.037,24.5325,-0.0911177,-6.0715,2.93039,-1.01755,1.05584,-10.2803,0.0460715,4.96459,-8.01451,-0.193476,0.0428542,23.8058,1.03281,0.185392,8.7306,0.995915,0.231269,2.92213e-14,5.96354e-16,-45.1089,-6.11922,-68.4047,49.1338,-8.60138,-9.01645,3.46005,7.12502,16.9306,-25.822,2.92213e-14,5.96354e-16,-24.4114,21.5304,50.3494,108.162,31.9306,167.822,65.0805,7.12502,-166.114,35.5641,-34.7851,-6.60139,10.1823,40.3404,-4.42059,-18.3056,5.22668,4.56631,-10.8806,-13.5948,32.2718,-5.24453,5.42213,-37.0818
3.44276,17.7253,37.5014,181.108,9.58768,-182.785,24.2289,-0.0470605,-5.86838,3.23399,-0.843679,1.0602,-9.80011,0.107949,4.78205,-8.21105,-0.183637,0.264263,23.7356,0.96968,0.231582,8.74346,0.98075,0.202411,8.54774e-15,2.38542e-15,-44.8241,-6.65077,-68.347,48.493,-8.34217,-8.78447,3.92552,7.12502,17.1539,-25.3373,8.54774e-15,2.38542e-15,-22.4697,21.6657,49.8365,106.473,31.2655,168.031,65.5434,7.12502,-165.913,36.0409,-35.0402,-7.40112,11.1166,42.3214,-5.1336,-16.7931,3.56379,5.24088,-10.8902,-13.1792,32.7796,-4.37387,5.60023,-36.9241
3.58414,17.683,37.3553,180.771,9.73286,-182.687,24.041,9.49089e-05,-5.87002,3.51896,-0.724223,1.07814,-9.39228,0.157873,4.75521,-8.55573,-0.216164,0.299572,23.7942,0.855614,0.397844,8.82724,0.939301,0.242676,-1.5207e-14,1.19271e-14,-44.4603,-7.18568,-68.2627,47.7673,-7.90904,-9.06239,3.87727,7.12502,16.8864,-25.4086,-1.5207e-14,1.19271e-14,-20.6501,21.685,49.5976,104.766,31.5824,166.715,64.2377,7.12502,-167.181,34.6513,-35.1473,-7.67417,11.575,44.0551,-6.34546,-16.4576,3.76032,5.89314,-11.0532,-12.9789,33.3509,-3.55279,5.79674,-36.579
3.72756,17.648,37.2088,180.342,9.78027,-182.802,24.1603,0.046183,-6.11027,3.60318,-0.710048,1.11219,-9.35589,0.177222,4.92816,-8.53891,-0.182724,0.0467214,23.8366,0.867306,0.771656,8.83613,0.963484,0.414077,8.05078e-15,4.57205e-15,-44.3497,-7.34118,-68.1327,47.1673,-7.71558,-9.35358,3.42199,7.12502,16.6061,-25.8876,8.05078e-15,4.57205e-15,-19.0035,21.8024,49.4548,102.956,31.7092,165.724,63.5699,7.12502,-168.137,33.9259,-35.0739,-7.89748,11.7047,45.6005,-7.08621,-16.2937,4.36967,6.46884,-11.2605,-13.039,34.0236,-2.80965,6.05772,-37.7149
3.86696,17.6131,37.0665,180.112,9.75643,-182.491,24.0492,-0.0739862,-5.74654,3.64535,-0.759953,1.13946,-9.25075,0.138064,4.76088,-8.17782,-0.0790825,0.0721486,23.7459,0.977381,0.989223,8.73595,1.04603,0.491916,-7.35503e-15,9.54166e-15,-44.0748,-7.70858,-68.1401,46.1197,-7.47312,-9.29793,3.57311,7.12502,16.6596,-25.7319,-7.35503e-15,9.54166e-15,-17.4299,22.0284,49.1182,101.221,31.9489,165.171,63.546,7.12502,-168.67,33.872,-34.9511,-8.07128,12.3253,46.9321,-7.49877,-15.7078,4.97517,6.72672,-11.454,-12.5892,34.8761,-1.68245,6.48997,-38.0117
4.00469,17.5743,36.9219,179.878,9.78983,-182.079,24.5406,-0.0591319,-5.67452,3.33076,-0.756144,1.4636,-9.86314,0.160293,5.10055,-7.78516,-0.0777473,-0.109457,24.0394,1.08941,0.974381,8.76257,1.108,0.532466,-3.57812e-15,9.54166e-15,-44.1361,-7.70357,-67.6563,44.939,-7.12492,-9.19742,3.6674,7.12502,16.7564,-25.6295,-3.57812e-15,9.54166e-15,-16.6812,22.1989,49.0694,99.66,32.2817,164.153,61.8642,7.12502,-169.653,32.1387,-34.651,-8.12516,13.0879,48.0523,-8.03207,-14.9365,6.49907,6.83106,-11.6585,-12.0566,35.9756,-0.215845,6.80528,-36.351
4.13987,17.5375,36.7784,179.637,9.73286,-181.719,24.5327,-0.153155,-5.38558,3.48922,-0.76205,1.5655,-9.68241,0.149044,5.04519,-8.20813,-0.0827604,-0.0835586,24.292,1.04053,1.12554,8.92838,1.10281,0.580424,-7.85199e-15,1.51076e-14,-43.4492,-8.45678,-67.4936,43.6605,-6.51356,-9.10184,3.83773,7.12502,16.8484,-25.4513,-7.85199e-15,1.51076e-14,-14.9997,22.5904,49.216,97.9295,32.4044,164.316,62.2573,7.12502,-169.495,32.5398,-34.1792,-8.22384,13.8291,48.9134,-8.87408,-14.5992,7.06144,6.73445,-11.8035,-11.5429,37.2948,1.55925,7.05754,-33.8817
4.27553,17.506,36.639,179.628,9.59847,-180.975,24.58,-0.249291,-4.76002,3.53344,-0.68638,1.79698,-9.6757,0.170835,4.91844,-8.55241,-0.0662868,0.105811,24.4484,1.02158,1.1325,9.04826,1.11049,0.552808,-6.95746e-16,-8.34896e-15,-42.8647,-9.41133,-67.2181,42.4426,-5.98017,-8.99573,3.71319,7.12502,16.9506,-25.5672,-6.95746e-16,-8.34896e-15,-13.4681,22.7697,49.5945,96.3081,31.9407,164.481,62.1372,7.12502,-169.336,32.4278,-33.7364,-8.16339,15.0549,49.4647,-9.8072,-15.179,5.7136,6.26819,-11.9295,-10.5025,38.7754,3.50946,7.49144,-30.7049
4.40769,17.4825,36.4952,179.682,9.36823,-180.554,24.3107,-0.476479,-4.49612,3.37141,-0.90883,2.02736,-9.69246,0.0527954,5.0932,-7.87427,0.092864,-0.0349396,24.3281,1.29171,1.22051,8.8763,1.24659,0.628503,1.47101e-14,-1.70955e-14,-42.4144,-9.60279,-66.9661,41.0692,-5.47683,-9.04885,3.31799,7.12502,16.8994,-25.9667,1.47101e-14,-1.70955e-14,-12.7552,22.968,49.7412,94.6403,30.9916,164.155,61.1664,7.12502,-169.651,31.4411,-33.2557,-8.29275,15.9442,49.8233,-10.7587,-15.8462,4.19161,5.53728,-11.9224,-9.79351,40.3456,5.30766,8.0013,-29.1795
4.53008,17.4677,36.3522,179.671,9.18481,-180.129,24.0565,-0.657748,-4.10189,3.32809,-1.02237,2.21648,-9.59933,-0.0172831,5.10659,-7.76231,0.0916281,0.00369552,24.5412,1.34164,1.1441,8.92972,1.27987,0.604387,9.14409e-15,-3.18055e-15,-41.7978,-10.3114,-66.5886,39.5148,-4.87626,-9.28043,3.60586,7.12502,16.6765,-25.6978,9.14409e-15,-3.18055e-15,-11.7008,23.2815,50.1803,92.9096,28.4393,165.549,61.8907,7.12502,-168.306,32.2371,-32.6358,-8.45801,16.754,50.0321,-11.6287,-16.2226,4.7389,4.87433,-12.1493,-9.29534,42.0341,6.84752,8.67865,-27.7289
4.64785,17.4673,36.2131,179.879,8.93796,-179.805,23.7602,-0.798925,-3.82274,3.2271,-1.11906,2.43945,-9.54731,-0.0754892,5.21903,-7.85104,0.0992853,-0.0713052,24.6897,1.37426,1.1611,8.99719,1.29497,0.629488,1.80894e-14,-3.06128e-14,-41.0371,-11.2437,-66.0141,37.9305,-4.32278,-9.28233,4.14461,7.12502,16.6747,-25.1592,1.80894e-14,-3.06128e-14,-10.5611,23.2843,50.9964,91.0798,26.9139,165.379,61.7845,7.12502,-168.47,32.1217,-32.2888,-8.70404,17.4339,50.2389,-12.3389,-16.3637,5.61758,3.80782,-12.3191,-8.83292,43.786,8.26039,9.26144,-24.4548
4.76,17.4658,36.0786,179.935,8.82086,-179.429,23.6823,-0.899429,-3.53802,3.15577,-1.15688,2.65474,-9.5845,-0.0986278,5.30686,-7.79356,0.354425,0.232416,24.8209,1.77382,0.900024,9.03479,1.49178,0.530743,-4.80065e-14,3.18055e-15,-40.3455,-12.1778,-65.4953,36.554,-3.67775,-9.08714,4.0711,7.12502,16.8626,-25.2168,-4.80065e-14,3.18055e-15,-9.21474,23.3217,52.0646,88.911,25.6953,164.69,61.2247,7.12502,-169.134,31.5258,-31.7905,-8.80669,18.108,50.4264,-13.1278,-16.3444,6.41434,2.82463,-12.2876,-8.34704,45.6584,9.60494,9.69157,-22.0757
4.86499,17.4626,35.9484,179.98,8.93845,-179.272,23.5686,-0.856524,-3.42684,3.05076,-1.0699,2.78701,-9.65263,-0.0607624,5.3641,-7.87227,0.134872,0.276223,24.9624,1.50591,0.738462,9.10152,1.35882,0.444674,3.37934e-15,-1.23246e-14,-39.8942,-13.0533,-65.0454,35.4241,-3.12009,-9.09097,3.78897,7.12502,16.8589,-25.4992,3.37934e-15,-1.23246e-14,-7.75478,23.169,53.3679,86.614,24.4642,164.174,60.6229,7.12502,-169.632,30.8985,-31.4198,-8.65532,18.5239,50.639,-13.9043,-16.4336,6.57628,1.87338,-12.2784,-8.32619,47.6096,10.8082,10.3224,-19.1961
4.96624,17.4603,35.821,179.985,9.08416,-178.948,23.5141,-0.84853,-3.27752,2.90391,-1.00745,3.0265,-9.79537,-0.0300513,5.53109,-7.52597,0.0979604,0.183357,25.0435,1.51557,0.730501,9.06414,1.36952,0.458567,-9.83984e-15,4.37326e-15,-39.5561,-13.5675,-64.6423,34.5097,-2.74893,-9.27729,3.42332,7.12502,16.6795,-25.8801,-9.83984e-15,4.37326e-15,-6.57296,23.2312,54.694,84.3355,22.8642,164.6,61.4577,7.12502,-169.221,31.7543,-30.9647,-8.4036,19.1382,50.8397,-14.5485,-16.686,6.19459,0.969365,-12.3458,-8.24008,49.5783,11.8519,10.9011,-16.5335
5.05461,17.4572,35.6929,179.899,9.28641,-178.591,23.428,-0.833584,-2.8245,2.92356,-0.852036,3.13097,-9.75347,0.0297124,5.33286,-7.32296,0.116812,0.313843,24.9667,1.53354,0.713588,9.00014,1.39178,0.429985,4.07509e-15,-2.5842e-14,-39.0084,-14.7274,-64.2909,33.3707,-2.10597,-9.91282,2.93425,7.12502,16.0676,-26.4196,4.07509e-15,-2.5842e-14,-5.54015,23.1674,55.8285,82.4258,20.7152,166.297,63.0962,7.12502,-167.585,33.4849,-30.375,-8.29255,19.7607,50.9772,-15.0569,-16.9188,5.23838,0.182747,-12.1993,-8.16526,51.4627,12.6924,11.2813,-14.2825
5.1426,17.4572,35.5699,179.922,9.90562,-178.753,23.0727,-0.622609,-2.99156,3.04063,-0.615773,3.1148,-9.45626,0.136014,5.3243,-7.54823,0.186002,0.178655,24.9852,1.59249,0.890413,9.04627,1.41832,0.520567,1.94809e-14,1.82882e-14,-38.2122,-15.7653,-64.0607,32.3169,-1.43452,-10.539,2.90392,7.12502,15.4645,-26.4975,1.94809e-14,1.82882e-14,-4.66876,23.0289,56.9696,80.5097,19.0118,167.195,63.5835,7.12502,-166.719,34.0267,-30.073,-8.06672,19.8352,51.0626,-15.5946,-16.5705,6.16226,-0.657848,-11.833,-8.78306,53.1977,13.0014,10.6787,-9.28531
5.22231,17.4746,35.4337,179.614,9.60988,-178.78,23.2496,-0.776687,-2.78054,3.0922,-0.742277,3.16757,-9.48128,0.0776211,5.30242,-7.67596,0.143035,0.100007,25.0732,1.54451,0.895676,9.10064,1.38971,0.53347,-4.17448e-15,-1.43125e-14,-37.5761,-16.2768,-63.9935,31.4784,-1.12207,-11.1926,2.78086,7.12502,14.835,-26.6681,-4.17448e-15,-1.43125e-14,-3.91151,22.434,58.2281,78.4063,17.659,167.62,64.0989,7.12502,-166.309,34.5692,-29.1254,-8.69239,19.9647,51.0025,-15.8696,-16.6179,4.76975,-1.35112,-12.3942,-9.32426,54.7916,12.8736,9.77675,-7.10548
5.3037,17.4914,35.3076,179.348,9.54803,-178.737,23.7357,-0.809464,-2.68395,2.9003,-0.755405,3.29411,-9.95513,0.086198,5.41549,-7.52385,0.114914,0.181238,25.3188,1.62774,0.558215,9.16151,1.4201,0.416658,2.46493e-14,1.66979e-14,-37.2921,-16.2583,-64.0013,30.8566,-0.794439,-12.1694,2.14506,7.12502,13.8938,-27.3708,2.46493e-14,1.66979e-14,-3.49183,21.5866,59.3931,75.8278,16.0897,168.188,64.731,7.12502,-165.762,35.239,-28.2427,-8.85958,20.1833,50.8951,-16.0903,-16.9503,2.85906,-2.00546,-12.7322,-9.80233,56.2513,12.515,8.52873,-9.32306
5.37901,17.4999,35.1838,179.274,9.77901,-178.468,23.4079,-0.81917,-2.13539,3.08447,-0.607081,3.29198,-9.59889,0.130772,5.02983,-7.7212,0.081157,0.185143,25.4936,1.55394,0.708996,9.25899,1.40518,0.46473,2.68359e-14,-3.57812e-14,-36.3971,-17.3492,-64.1578,29.9247,0.29875,-12.983,1.74321,7.12502,13.1096,-27.8247,2.68359e-14,-3.57812e-14,-2.34312,20.6056,60.6662,73.1756,14.5914,169.023,64.8738,7.12502,-164.957,35.4403,-27.5173,-8.5528,20.6545,50.7355,-16.3877,-17.369,2.36361,-2.78528,-12.7518,-9.99774,57.6607,11.2605,7.01029,-11.2144
5.45058,17.5146,35.0516,179.139,9.96435,-178.532,23.1998,-0.810434,-2.01934,3.15368,-0.561749,3.29854,-9.41686,0.144152,4.94712,-7.80515,0.0557535,0.147454,25.7536,1.58563,0.605334,9.36739,1.41682,0.444323,-2.18663e-14,-3.97569e-14,-35.6664,-17.9397,-64.3169,29.0978,1.20127,-13.7448,1.81664,7.12502,12.3752,-27.7971,-2.18663e-14,-3.97569e-14,-1.79531,19.7251,61.9548,70.7071,12.7578,170.026,65.2649,7.12502,-163.992,35.9063,-26.745,-8.31633,20.7225,50.6047,-16.7114,-17.6932,1.62248,-3.54196,-12.585,-10.6278,58.9621,9.96214,5.41645,-13.8968
5.51816,17.5345,34.9218,179.149,10.0182,-178.593,23.0622,-0.852328,-1.97522,3.0753,-0.599221,3.42698,-9.42688,0.125175,5.07534,-7.74273,-0.00775768,-0.0037717,25.9263,1.62996,0.309022,9.41863,1.4028,0.375687,-3.97569e-16,-2.3059e-14,-34.892,-17.7861,-64.5772,28.3641,1.93335,-14.6802,1.79521,7.12502,11.4732,-27.8708,-3.97569e-16,-2.3059e-14,-1.56134,18.8048,63.3161,68.1703,11.0448,170.88,65.8032,7.12502,-163.169,36.5127,-26.1266,-8.1258,20.7865,50.4541,-17.2871,-17.9145,2.39258,-4.67083,-12.3917,-11.2502,60.1726,8.72489,3.69828,-18.7224
5.57556,17.5396,34.7973,179.156,9.98386,-178.439,22.8256,-0.95961,-1.49745,3.14402,-0.608222,3.46503,-9.23043,0.10344,4.83299,-7.80166,-0.00499201,0.24207,26.033,1.67343,0.0383731,9.47191,1.42201,0.247011,-3.51849e-14,2.14687e-14,-34.0192,-17.8472,-65.0468,27.645,2.56052,-15.6818,2.06009,7.12502,10.5071,-27.6573,-3.51849e-14,2.14687e-14,-0.895603,17.5475,64.6363,65.4659,9.65624,171.713,66.7112,7.12502,-162.367,37.4908,-25.4614,-8.06117,21.0245,50.2847,-17.8265,-17.9821,3.62851,-5.78871,-12.3509,-11.6499,61.3458,7.60986,1.74269,-22.2107
5.63308,17.5493,34.6693,179.136,10.1898,-178.293,22.6031,-0.915227,-1.14596,3.185,-0.451047,3.54881,-9.0852,0.166718,4.66733,-7.68513,0.247241,0.544731,26.1572,2.08288,-0.202618,9.50036,1.62899,0.156203,-3.53837e-14,9.14409e-14,-33.3187,-17.8563,-65.4828,27.0795,3.25712,-16.2822,2.13853,7.12502,9.92791,-27.6074,-3.53837e-14,9.14409e-14,-0.438101,16.0877,65.9979,62.6725,8.10006,172.785,68.1264,7.12502,-161.336,39.0018,-24.7668,-7.824,21.2848,49.9872,-17.8717,-18.3945,1.66354,-6.72809,-12.1616,-12.0874,62.3904,6.21878,0.0786467,-22.7051
5.69012,17.5693,34.5378,179.213,10.2932,-178.248,22.3294,-0.883809,-0.845158,3.14376,-0.338471,3.621,-8.99825,0.207438,4.53371,-7.68105,0.0978595,0.405247,26.2651,1.93495,-0.273152,9.53696,1.54684,0.142655,-4.73108e-14,2.14687e-14,-32.7471,-17.1336,-66.137,26.894,3.47575,-17.2226,1.67182,7.12502,9.02058,-28.1153,-4.73108e-14,2.14687e-14,-0.30242,14.5329,67.2903,59.9662,6.8379,173.644,69.8205,7.12502,-160.51,40.7774,-24.1143,-7.6706,21.4423,49.6303,-18.3153,-18.6039,1.67013,-7.83226,-12.2374,-12.6307,63.323,4.65957,-1.16508,-21.3158
5.74699,17.5977,34.4121,179.278,10.2293,-178.044,22.2019,-1.03321,-0.443148,3.1429,-0.419356,3.73478,-8.92862,0.160164,4.44727,-7.87294,0.156678,0.314419,26.4871,2.07587,-0.349343,9.65403,1.59947,0.151463,8.15017e-15,-9.54166e-15,-31.9364,-16.4974,-66.9107,26.6066,4.00517,-17.7314,1.46238,7.12502,8.52953,-28.3453,8.15017e-15,-9.54166e-15,-0.407352,12.9925,68.3391,57.4363,5.66904,174.407,71.601,7.12502,-159.776,42.6338,-23.3496,-7.45467,21.7731,49.202,-18.8603,-18.8528,2.48267,-8.98926,-12.2323,-12.8974,64.1042,3.16777,-2.69629,-22.2418
5.79889,17.6159,34.2855,179.301,9.93864,-177.792,22.1657,-1.27047,0.0490597,3.08081,-0.589494,3.86885,-8.97099,0.0702188,4.36185,-8.00367,0.238066,0.448429,26.7535,2.26787,-0.588651,9.78036,1.68515,0.0711958,-1.76918e-14,-3.73715e-14,-31.2704,-16.0384,-67.4957,26.2458,4.9027,-17.8586,2.25904,7.12502,8.40682,-27.5536,-1.76918e-14,-3.73715e-14,-0.793582,11.1384,69.4226,55.2114,5.19826,174.082,72.8764,7.12502,-160.089,43.8764,-22.4818,-7.37145,22.1082,48.7698,-19.5808,-18.9552,4.4947,-10.0823,-12.2843,-13.1477,64.7167,1.58433,-3.71686,-23.6289
5.85274,17.6381,34.1615,179.351,9.58545,-177.746,22.0934,-1.47694,0.271268,2.98763,-0.793705,3.99203,-9.02287,-0.0305822,4.43082,-8.33909,0.292427,0.729348,27.2468,2.45732,-0.970809,10.0338,1.77246,-0.0793806,1.11319e-14,-5.56597e-15,-30.6402,-15.0653,-68.2077,26.0327,5.17934,-18.0348,3.5462,7.12502,8.23676,-26.2732,1.11319e-14,-5.56597e-15,-1.43937,8.64922,70.4419,53.5285,6.07558,172.149,72.7078,7.12502,-161.948,43.5256,-21.6989,-7.31416,22.271,48.3256,-20.2648,-19.1959,6.07189,-11.2602,-12.4667,-13.6308,65.1842,0.00684519,-4.7035,-25.1483
5.90487,17.6743,34.0308,179.406,9.34339,-177.812,21.9356,-1.61161,0.431725,2.87076,-0.940639,4.03815,-9.05972,-0.108846,4.43121,-8.69911,0.382975,1.22465,28.0076,2.74537,-1.45449,10.4005,1.92986,-0.287716,-2.46493e-14,1.82882e-14,-30.153,-13.7387,-69.1502,26.1407,4.84328,-18.2379,4.18847,7.12502,8.04074,-25.6386,-2.46493e-14,1.82882e-14,-1.98986,5.75147,71.4407,51.6418,7.17114,169.876,71.6838,7.12502,-164.136,42.3137,-20.9019,-7.41802,22.3051,47.8441,-20.533,-19.6018,6.11883,-12.414,-12.6915,-14.2626,65.5309,-1.58478,-5.83859,-25.8878
5.95376,17.7034,33.9055,179.385,9.19371,-177.816,22.0805,-1.75989,0.532035,2.69012,-1.09881,4.1409,-9.32743,-0.183396,4.54709,-8.38384,0.549619,1.71615,28.1611,3.15114,-2.12312,10.4212,2.11616,-0.563099,-2.3059e-14,1.82882e-14,-29.844,-11.7989,-70.223,26.5982,4.1626,-18.4223,4.4148,7.12502,7.86273,-25.419,-2.3059e-14,1.82882e-14,-2.64126,3.44032,72.2382,49.4276,5.88763,170.284,70.5453,7.12502,-163.743,41.2069,-20.0778,-7.32988,22.406,47.3557,-20.6797,-20.1491,5.13201,-13.4341,-12.7189,-14.8623,65.7174,-3.08938,-6.58639,-25.8703
6.00352,17.7175,33.7853,179.542,8.97298,-177.75,21.9721,-1.93981,0.776726,2.65216,-1.26681,4.21824,-9.30381,-0.269174,4.53827,-8.82015,0.483491,1.58748,28.5669,3.10947,-2.10532,10.656,2.08702,-0.530636,-1.05356e-14,-1.74931e-14,-29.1504,-10.8652,-71.1386,26.7288,4.35675,-18.1732,4.67849,7.12502,8.10315,-25.1461,-1.05356e-14,-1.74931e-14,-3.10664,0.93509,73.0204,47.5771,4.70013,170.253,69.2081,7.12502,-163.773,39.8672,-19.4973,-7.19538,22.6289,46.9083,-20.7183,-20.7944,4.6871,-14.6705,-12.7268,-15.2981,65.7936,-4.45545,-7.22584,-26.7817
6.05455,17.7309,33.665,179.625,8.73938,-177.593,21.9413,-2.15906,1.03267,2.64463,-1.46587,4.34772,-9.28585,-0.364455,4.59169,-8.91744,0.4795,1.26315,28.5541,3.11017,-1.97064,10.664,2.06101,-0.426244,4.17448e-15,-6.91771e-14,-28.3514,-9.73987,-72.1273,26.9078,4.23188,-18.1142,4.42721,7.12502,8.16013,-25.3952,4.17448e-15,-6.91771e-14,-3.74006,-1.73121,73.8357,46.0702,4.04308,169.224,68.5499,7.12502,-164.764,39.131,-18.804,-7.09847,22.946,46.5156,-21.1998,-21.1398,5.15048,-15.7516,-12.7486,-15.6448,65.7001,-5.81818,-7.67614,-27.3717
6.10398,17.7434,33.5438,179.766,8.60735,-177.76,21.9091,-2.29451,0.924895,2.4924,-1.67201,4.42548,-9.41728,-0.459845,4.8071,-8.17641,0.373688,0.539279,28.0172,2.94678,-1.59119,10.2997,1.95478,-0.199227,-5.1684e-15,8.74653e-14,-27.9174,-7.91203,-73.1953,27.5802,3.26776,-17.7818,3.72777,7.12502,8.48091,-26.0819,-5.1684e-15,8.74653e-14,-4.34418,-4.26179,74.9065,44.289,3.13705,168.023,68.1854,7.12502,-165.921,38.6823,-18.3038,-7.0492,22.8968,46.2229,-21.6432,-21.3522,5.726,-16.8694,-12.6716,-16.3257,65.4567,-7.16643,-7.76315,-23.2934
6.15542,17.7631,33.4226,179.792,8.5868,-177.76,22.1004,-2.41204,0.927239,2.39216,-1.80347,4.51965,-9.61974,-0.515161,4.96485,-8.54437,0.641648,1.08596,28.3877,3.45015,-2.22215,10.538,2.17543,-0.451666,3.97569e-15,-2.38542e-15,-27.4619,-6.21578,-74.2147,28.1866,2.42098,-17.4297,3.41869,7.12502,8.82072,-26.377,3.97569e-15,-2.38542e-15,-5.27864,-6.41464,76.0386,43.4927,1.33651,167.275,67.3867,7.12502,-166.642,37.8349,-17.6873,-6.75362,23.0561,45.9323,-22.1028,-21.772,5.84815,-17.844,-12.4804,-16.8211,65.0944,-8.26876,-7.78688,-19.8166
6.20154,17.7743,33.2935,179.914,8.56819,-177.761,22.0399,-2.47505,1.07974,2.32318,-1.85185,4.54282,-9.66542,-0.544508,4.91771,-8.39684,0.420536,0.608404,28.2834,3.12355,-1.91825,10.4515,2.00967,-0.301462,-7.27552e-14,-2.38542e-15,-27.0684,-4.74244,-75.269,28.8571,1.26377,-17.307,3.38656,7.12502,8.93907,-26.4041,-7.27552e-14,-2.38542e-15,-6.14777,-8.59333,77.2397,43.2497,-0.323045,166.225,66.2047,7.12502,-167.654,36.5892,-17.1808,-6.53974,23.2038,45.6774,-22.2334,-22.1945,4.16111,-18.8359,-12.1543,-17.3366,64.6944,-9.48448,-7.69738,-21.6808
