JuanDHNZ/ProyectoFinalCD/preprocessing/sports_trials_csv/06_14.csv
root1,root2,root3,root4,root5,root6,lowerback1,lowerback2,lowerback3,upperback1,upperback2,upperback3,thorax1,thorax2,thorax3,lowerneck1,lowerneck2,lowerneck3,upperneck1,upperneck2,upperneck3,head1,head2,head3,rclavicle1,rclavicle2,rhumerus1,rhumerus2,rhumerus3,rradius1,rwrist1,rhand1,rhand2,rfingers1,rthumb1,rthumb2,lclavicle1,lclavicle2,lhumerus1,lhumerus2,lhumerus3,lradius1,lwrist1,lhand1,lhand2,lfingers1,lthumb1,lthumb2,rfemur1,rfemur2,rfemur3,rtibia1,rfoot1,rfoot2,rtoes1,lfemur1,lfemur2,lfemur3,ltibia1,lfoot1,lfoot2,ltoes1
-0.55638,18.1838,-1.65846,178.937,-3.0546,179.444,23.8383,-0.0007328,-0.399235,3.01843,-0.45758,5.6715,-9.93156,-0.478141,6.80858,-8.6605,-5.18336,-5.90882,28.0338,-1.34289,-7.68324,10.4838,-1.14274,-1.71696,-1.86858e-14,-4.29375e-14,-31.0531,-60.1316,-21.7307,69.8481,-38.9372,4.12649,-0.607646,7.12502,29.5365,-28.2779,-1.86858e-14,-4.29375e-14,-45.1697,5.20742,82.9229,58.3144,10.3423,-10.6804,51.8658,7.12502,15.3284,81.2777,-14.8973,1.36615,20.5171,34.3523,-12.2875,-14.7369,2.44261,-13.3831,-3.53639,-17.4183,35.3049,-16.3386,-2.57162,-23.7413
-0.578627,18.2017,-1.6095,178.818,-2.40799,179.368,24.3334,0.00637775,-0.272199,3.36345,-0.50791,5.7265,-9.79926,-0.553904,6.82608,-9.34897,-4.92131,-6.19996,28.038,-0.912157,-7.63054,10.6388,-1.00697,-1.61701,-4.77083e-15,-1.43125e-14,-27.5375,-60.0108,-25.4449,71.5514,-35.9851,4.53846,-0.130289,7.12502,29.9296,-27.7303,-4.77083e-15,-1.43125e-14,-45.0621,5.63545,82.9835,58.9612,11.0014,-11.1862,51.6343,7.12502,14.8411,81.0828,-14.9422,1.62469,20.3444,34.1559,-11.8502,-14.3637,1.83984,-12.9392,-3.5233,-17.3631,35.294,-16.1489,-1.86041,-23.4183
-0.612033,18.2035,-1.56238,178.818,-1.87828,178.924,24.4633,0.0268712,-0.427362,3.65141,-0.593349,5.6418,-9.53291,-0.623841,6.84113,-9.6881,-4.74743,-5.96354,27.7936,-0.632089,-8.06338,10.6128,-0.919296,-1.78257,8.34896e-15,-3.02153e-14,-25.0877,-58.9483,-28.3679,73.6996,-33.2291,4.18657,0.236858,7.12502,29.5938,-27.4232,8.34896e-15,-3.02153e-14,-45.06,5.67281,83.1043,59.58,11.7812,-11.3719,52.7152,7.12502,14.6622,82.1768,-15.2942,1.37398,19.6946,34.3838,-11.7123,-13.6042,1.31124,-12.6806,-3.61863,-17.783,35.5141,-15.7913,-1.16894,-21.6855
-0.6464,18.1974,-1.51535,178.802,-1.36994,178.437,24.5454,0.026181,-0.638848,3.8173,-0.693391,5.5425,-9.37707,-0.68418,6.88026,-9.7127,-4.48755,-6.00176,27.8346,-0.218032,-8.09875,10.643,-0.734938,-1.74018,-1.19271e-15,-2.54444e-14,-23.7914,-56.2667,-30.5547,76.6501,-31.7931,4.90041,0.411763,7.12502,30.275,-27.1254,-1.19271e-15,-2.54444e-14,-45.2682,5.60267,83.2252,60.1082,12.4624,-12.1411,51.8719,7.12502,13.921,81.3859,-15.574,1.01782,18.9869,34.4756,-11.5807,-12.7809,1.12445,-12.4007,-3.75608,-18.2627,35.8086,-15.5906,-0.239667,-20.5431
-0.678302,18.2043,-1.45951,178.849,-0.864053,178.194,24.9016,-0.00514542,-0.578265,3.7879,-0.726607,5.46461,-9.59452,-0.70021,6.78801,-9.37415,-4.2837,-5.99418,27.6795,0.0677915,-8.19548,10.5239,-0.594243,-1.73194,1.90833e-14,-4.13472e-14,-21.8693,-55.298,-32.9533,78.4102,-29.114,5.86416,0.911805,7.12502,31.1939,-26.4525,1.90833e-14,-4.13472e-14,-45.5443,5.43483,83.2946,60.4176,12.9805,-12.3348,51.7859,7.12502,13.7344,81.3126,-15.9526,1.00844,18.5845,34.5892,-11.4782,-12.3241,2.1349,-12.2884,-3.82562,-18.4468,36.2307,-15.4173,0.709422,-20.4748
-0.699996,18.2068,-1.40118,178.813,-0.131355,178.294,25.3982,0.0807238,-0.443563,3.85611,-0.612633,5.50086,-9.79142,-0.665459,6.73997,-9.41407,-4.14658,-5.93222,27.6061,0.219763,-8.19369,10.5051,-0.52582,-1.72419,-3.97569e-15,6.36111e-14,-20.2016,-54.0135,-35.2545,80.3836,-26.0645,7.17492,1.69915,7.12502,32.4422,-25.4171,-3.97569e-15,6.36111e-14,-45.5931,5.22772,83.3449,60.583,13.4248,-12.3179,52.0687,7.12502,13.7506,81.5943,-16.3053,1.30362,18.6419,34.6985,-11.5787,-11.9452,5.41292,-12.1921,-3.65464,-18.1848,36.766,-14.9832,1.43529,-19.6618
-0.722306,18.2042,-1.34703,178.758,0.700414,178.392,25.8291,-1.216,-1.04948,4.08263,-0.0810735,5.46222,-9.80651,0.590056,6.71296,-9.31955,-3.99049,-5.55226,27.7756,0.61906,-8.78171,10.5575,-0.346279,-1.9518,6.36111e-15,-1.59028e-14,-18.9479,-52.0342,-37.3237,82.5419,-22.9299,7.5432,2.3289,7.12502,32.7926,-24.7148,6.36111e-15,-1.59028e-14,-45.7064,4.94574,83.4678,60.7396,13.769,-12.2786,52.3913,7.12502,13.7885,81.9143,-16.6503,1.62659,18.7029,34.7809,-11.5738,-11.5008,7.01609,-12.0172,-3.49161,-17.9448,37.3171,-14.4404,2.23475,-18.5439
-0.761123,18.1954,-1.29719,178.791,1.39652,178.104,26.0094,-1.19179,-1.11601,4.27553,-0.0635431,5.33854,-9.68244,0.600117,6.60236,-9.59372,-3.80206,-5.19538,27.8248,0.969398,-9.20318,10.6381,-0.204275,-2.12849,-2.38542e-15,-4.6118e-14,-17.4206,-49.6762,-39.7848,84.6329,-20.3492,3.78531,2.09003,7.12502,29.2107,-25.6373,-2.38542e-15,-4.6118e-14,-45.4024,4.70128,83.5951,60.5429,13.7862,-12.1115,52.4395,7.12502,13.9495,81.9515,-17.063,1.50823,18.2317,34.9365,-11.1628,-10.7255,3.90064,-11.8267,-3.5365,-18.2332,37.8587,-13.9053,2.93487,-17.8172
-0.800637,18.1891,-1.24954,178.823,1.99113,177.812,25.8591,-1.1821,-1.13192,4.52824,-0.0581327,5.21608,-9.31895,0.596351,6.45386,-9.33549,-3.64121,-4.97353,27.4306,1.09821,-9.39474,10.4398,-0.134492,-2.20823,1.43125e-14,-5.88403e-14,-16.3001,-47.0851,-41.8549,86.6841,-18.2591,3.60703,2.20863,7.12502,29.0405,-25.5482,1.43125e-14,-5.88403e-14,-45.028,4.34214,83.7939,60.3802,13.5912,-11.7889,52.5174,7.12502,14.2604,82.0078,-17.4393,1.3995,17.7566,35.1232,-11.2352,-9.97942,5.57283,-11.6164,-3.59951,-18.5137,38.3723,-13.3924,3.35755,-16.9899
-0.83461,18.1908,-1.19533,178.898,2.54446,177.462,26.3008,-1.13981,-1.38125,4.36914,-0.0976281,5.14017,-9.71944,0.584789,6.55001,-8.94328,-3.47189,-4.82454,27.3752,1.3739,-9.62635,10.3517,0.00930858,-2.27665,1.90833e-14,-4.6118e-14,-15.5703,-44.0679,-43.586,88.551,-16.1389,3.03307,2.48387,7.12502,28.4922,-25.3661,1.90833e-14,-4.6118e-14,-45.477,4.15587,83.9291,60.791,13.4671,-11.2713,52.8609,7.12502,14.7591,82.3154,-17.968,1.43091,17.2473,35.3195,-11.2134,-9.39519,7.11128,-11.5361,-3.59224,-18.8112,38.8615,-12.9191,3.56542,-16.8061
-0.86901,18.1908,-1.13379,179.069,3.25968,177.391,26.5039,-1.12472,-1.45607,4.85038,-0.0154531,5.16708,-9.28641,0.643764,6.58334,-10.8695,-3.25637,-4.42269,27.8868,1.90331,-10.1212,10.953,0.135268,-2.50458,-7.95139e-15,4.45278e-14,-12.9843,-42.1287,-46.6714,89.8481,-13.2226,2.40313,2.80504,7.12502,27.8901,-25.1442,-7.95139e-15,4.45278e-14,-44.3995,4.05342,84.1936,60.8796,13.4489,-10.9772,53.0666,7.12502,15.0425,82.5002,-18.6581,1.60188,17.065,35.4538,-10.7128,-8.87529,6.04294,-11.5918,-3.40909,-18.788,39.3865,-12.6081,3.53074,-18.145
-0.908639,18.1856,-1.06907,179.205,3.98371,177.23,26.7496,-1.01352,-1.39308,4.54917,0.0834211,5.06908,-9.76823,0.677662,6.42136,-9.28183,-3.09948,-4.01442,27.3997,2.13574,-10.7441,10.4664,0.324172,-2.73392,-1.90833e-14,-1.59028e-14,-12.4465,-39.0045,-48.2796,90.8681,-10.1487,1.51911,3.17094,7.12502,27.0446,-24.9125,-1.90833e-14,-1.59028e-14,-44.8928,3.35197,84.3974,60.7336,13.2927,-10.6983,53.1447,7.12502,15.3111,82.5579,-19.2434,1.77416,16.7607,35.5048,-10.111,-8.40038,4.49036,-11.624,-3.32139,-18.9123,39.9359,-12.3363,3.40581,-19.4339
-0.9473,18.1804,-1.0054,179.289,4.46033,177.077,26.2576,-1.06338,-1.36691,5.21279,0.0862918,4.99591,-8.76464,0.67973,6.2802,-10.1025,-2.9854,-3.98645,27.2215,2.17899,-10.6376,10.562,0.293616,-2.706,2.8625e-14,-4.92986e-14,-10.3891,-36.5635,-50.9496,91.6293,-7.07394,-0.0362909,3.13117,7.12502,25.5556,-25.1746,2.8625e-14,-4.92986e-14,-43.4189,2.80964,84.7058,60.2798,13.1133,-10.4999,53.1828,7.12502,15.5022,82.5814,-19.6728,1.7483,16.4594,35.5019,-10.2217,-7.97478,8.08577,-11.6237,-3.42143,-19.0049,40.4888,-11.9506,3.04706,-19.7682
-0.982868,18.1804,-0.946961,179.29,4.68911,177.284,26.9916,-1.23517,-1.09103,4.92997,-0.0354776,5.11629,-9.44742,0.633581,6.32982,-9.61202,-2.83367,-4.04705,27.2091,2.47793,-10.8059,10.4791,0.443354,-2.71285,-3.4191e-14,-4.6118e-14,-10.2193,-32.5278,-52.2632,92.2709,-4.29104,-1.89523,3.00487,7.12502,23.7739,-25.5444,-3.4191e-14,-4.6118e-14,-43.8501,2.46776,85.0509,60.2308,13.1277,-10.475,53.0822,7.12502,15.5262,82.4789,-19.9067,1.59326,16.5798,35.4774,-9.50111,-7.53081,4.16549,-11.4838,-3.58863,-18.6556,40.9806,-11.5899,2.27688,-20.2668
-1.01523,18.1793,-0.88828,179.499,5.57037,177.397,27.5295,-0.994901,-1.03233,4.64472,0.277715,5.16631,-10.0859,0.78269,6.27265,-9.3313,-2.76329,-3.94167,27.4066,2.68942,-10.9919,10.5111,0.55724,-2.77315,1.19271e-14,2.22639e-14,-10.3437,-28.9288,-53.3833,92.5327,-1.42648,-3.48291,3.39495,7.12502,22.2504,-25.3442,1.19271e-14,2.22639e-14,-44.1747,1.73246,85.5009,60.1461,13.0644,-10.7725,52.5095,7.12502,15.2396,81.9281,-20.5429,1.77391,16.6028,35.5002,-9.38405,-6.86032,7.79262,-11.3969,-3.21012,-18.4329,41.3746,-11.4296,1.72351,-21.4781
-1.04975,18.1761,-0.830999,179.645,6.08855,177.194,27.913,-0.91489,-1.25602,4.66034,0.32692,5.15128,-10.2679,0.819496,6.38119,-10.0737,-2.63661,-3.80685,27.8226,3.01251,-11.1379,10.8371,0.661262,-2.83067,1.59028e-14,-1.74931e-14,-9.4804,-25.699,-55.0803,92.1286,1.70461,-5.17372,4.12916,7.12502,20.6265,-24.7949,1.59028e-14,-1.74931e-14,-43.9369,1.16369,85.9043,60.1692,12.8341,-10.9636,52.1171,7.12502,15.0556,81.5496,-21.0723,1.66009,16.2628,35.5474,-8.63066,-6.12382,0.668901,-11.2856,-3.11187,-18.5935,41.7233,-11.3088,1.1805,-22.6739
-1.08712,18.1702,-0.762417,179.674,6.44557,176.756,28.1471,-0.862219,-1.68273,4.87518,0.290781,5.08027,-10.1319,0.82177,6.56296,-10.6439,-2.51498,-3.63844,27.8273,3.21808,-11.3542,10.9699,0.713213,-2.92207,3.97569e-15,0,-8.41411,-22.6662,-56.7965,91.4166,4.64896,-6.98233,4.66275,7.12502,18.8878,-24.4402,3.97569e-15,0,-43.12,0.676206,86.286,60.0333,12.323,-10.6228,52.3539,7.12502,15.3838,81.7616,-21.5598,1.46102,15.6604,35.6339,-8.21318,-5.50419,-1.71026,-11.1866,-3.17602,-19.0062,42.0433,-11.2628,0.521557,-21.98
-1.12365,18.1591,-0.689877,179.822,6.73972,176.687,28.1019,-0.905234,-1.76225,5.20633,0.262443,5.0931,-9.72464,0.817985,6.6202,-10.9848,-2.34696,-3.6038,27.4876,3.34763,-11.3841,10.9165,0.743317,-2.92019,-4.29375e-14,4.92986e-14,-7.3882,-19.6754,-58.4269,90.3742,7.23638,-8.8671,5.14805,7.12502,17.0744,-24.1216,-4.29375e-14,4.92986e-14,-42.0092,0.229589,86.607,59.784,11.5206,-9.95299,52.5209,7.12502,16.0289,81.8779,-22.1265,1.38376,15.4717,35.7061,-8.00042,-5.17284,0.847562,-11.2376,-3.32713,-18.9816,42.386,-11.2922,0.0894257,-21.5146
-1.15567,18.1502,-0.626044,179.978,7.05008,176.882,28.2835,-0.847814,-1.4841,5.40832,0.453664,5.04253,-9.61108,0.909984,6.3255,-11.4808,-2.32993,-3.35489,27.3545,3.18668,-11.2417,10.9494,0.664864,-2.9366,1.98785e-14,-4.77083e-15,-6.76198,-17.0216,-59.8594,88.8525,9.28248,-10.9615,5.73228,7.12502,15.0576,-23.7001,1.98785e-14,-4.77083e-15,-41.1484,-0.787113,86.9454,59.587,11.0419,-10.0839,51.8669,7.12502,15.9029,81.234,-22.6268,1.45026,15.5716,35.8045,-8.22299,-5.0255,8.82734,-11.2428,-3.4051,-18.6612,42.76,-11.3384,-0.222779,-22.6831
-1.19011,18.1438,-0.560482,180.137,7.40315,176.996,28.5563,-0.85846,-1.51869,5.25846,0.432054,5.13745,-9.91767,0.905661,6.47698,-10.8077,-2.19356,-3.51883,26.9267,3.33248,-11.3144,10.6632,0.749306,-2.89758,3.18055e-15,4.77083e-14,-6.29095,-13.4654,-61.0713,86.7569,10.8569,-13.3392,6.3305,7.12502,12.7662,-23.2592,3.18055e-15,4.77083e-14,-41.2011,-1.0978,87.4067,59.6228,11.0956,-10.6856,51.1866,7.12502,15.3233,80.5989,-23.0977,1.48,15.5909,35.7748,-8.12669,-4.66179,9.77064,-11.1994,-3.40482,-18.4565,43.0331,-11.3689,-0.525144,-24.6141
-1.22569,18.125,-0.483504,180.335,7.65324,176.887,28.7707,-0.755665,-1.62156,5.04567,0.49933,5.11675,-10.2784,0.936069,6.50426,-9.71067,-2.18382,-3.57389,26.4878,3.24966,-11.3465,10.2765,0.770423,-2.88687,-3.73715e-14,2.54444e-14,-6.13305,-10.572,-62.2035,84.1219,12.4342,-15.6647,7.53772,7.12502,10.5236,-22.1788,-3.73715e-14,2.54444e-14,-41.3293,-1.89996,87.9351,59.861,11.4485,-11.4636,50.5757,7.12502,14.5739,80.0437,-23.7307,1.48997,15.3611,35.7381,-7.3663,-4.24049,5.00759,-11.3068,-3.48163,-18.47,43.2161,-11.165,-0.793397,-24.2605
-1.25903,18.1371,-0.406551,180.565,7.95378,176.854,28.9109,-0.730515,-1.78816,5.32,0.521374,5.08118,-10.0342,0.959712,6.54663,-10.7541,-2.06694,-3.34362,26.6602,3.40334,-11.3834,10.5561,0.787206,-2.93868,3.73715e-14,9.22361e-14,-4.70235,-8.31892,-63.7452,80.8263,14.2409,-17.4036,9.05309,7.12502,8.84585,-20.7415,3.73715e-14,9.22361e-14,-40.4126,-2.33904,88.2184,60.1101,11.5285,-11.8112,50.7401,7.12502,14.2389,80.232,-24.3081,1.78787,15.213,35.6132,-7.25771,-4.32415,9.45585,-11.3408,-3.47005,-18.3911,43.1647,-10.7576,-0.948387,-23.4856
-1.29187,18.1311,-0.337625,180.743,8.3272,176.888,28.889,-0.64885,-1.85526,5.56637,0.629619,5.02227,-9.75306,1.01413,6.46879,-11.6234,-2.05164,-3.24382,26.9622,3.37783,-11.1513,10.8352,0.744303,-2.89389,-4.92986e-14,-3.18055e-14,-3.39044,-6.35973,-65.1181,77.2125,15.9717,-18.815,10.2609,7.12502,7.48372,-19.5867,-4.92986e-14,-3.18055e-14,-39.475,-2.99401,88.5365,60.101,10.9503,-11.7964,50.8733,7.12502,14.2532,80.3642,-24.7713,2.14875,15.135,35.4665,-6.48039,-4.11797,4.62093,-11.1723,-3.43138,-18.2628,42.966,-10.3892,-1.03863,-23.0996
-1.32286,18.1239,-0.272182,180.989,8.70449,176.957,28.4403,-0.542777,-1.92425,5.9817,0.778221,4.96935,-9.0724,1.08157,6.37143,-12.3667,-2.09326,-3.34512,27.1502,3.21928,-10.7254,11.0361,0.647911,-2.75675,2.78299e-14,3.33958e-14,-1.92884,-4.52481,-66.421,73.3602,17.0575,-20.5599,11.2138,7.12502,5.79929,-18.6869,2.78299e-14,3.33958e-14,-38.0736,-3.74991,88.788,60.0309,11.1243,-11.847,50.9513,7.12502,14.2044,80.4456,-25.1912,2.45979,15.0967,35.1683,-6.41848,-4.17997,9.67296,-10.9484,-3.39846,-18.0889,42.5308,-9.9979,-1.11735,-22.8882
-1.35852,18.1275,-0.206594,181.186,9.05707,177.033,29.1091,-0.374619,-2.09977,5.60218,0.908839,5.01967,-9.85793,1.15267,6.51251,-11.619,-2.00521,-3.04503,26.9427,3.36961,-11.143,10.8241,0.753429,-2.92706,-5.00937e-14,-5.56597e-14,-1.85334,-1.82413,-67.1882,69.7449,17.4477,-22.13,12.5517,7.12502,4.28326,-17.385,-5.00937e-14,-5.56597e-14,-38.0285,-4.27499,89.2833,59.9353,11.3068,-12.3869,50.6714,7.12502,13.6842,80.2015,-25.5647,2.82451,15.0496,34.8974,-6.21621,-4.13451,10.1494,-10.6156,-3.51631,-17.9503,41.9434,-9.44874,-0.955828,-23.2869
-1.39634,18.1323,-0.140364,181.389,9.40497,177.154,29.3296,-0.224065,-2.10489,5.48855,1.0899,5.04271,-10.1234,1.23891,6.48333,-11.4762,-2.11877,-3.45073,27.1699,3.21088,-10.6883,10.8629,0.691064,-2.71516,-2.38542e-14,-6.20208e-14,-1.47906,0.257419,-67.7802,66.0863,18.2286,-22.6388,13.4514,7.12502,3.79196,-16.4946,-2.38542e-14,-6.20208e-14,-37.5692,-4.93534,89.7522,59.9127,11.428,-12.43,50.9076,7.12502,13.6426,80.4405,-25.9439,3.17603,15.0478,34.6513,-5.61482,-4.03307,7.6958,-10.2353,-3.66503,-17.7862,41.2022,-8.64483,-0.850613,-24.1756
-1.43376,18.1236,-0.0640755,181.763,9.82024,177.232,28.9695,-0.0242101,-2.17072,5.79874,1.35184,5.02524,-9.62172,1.35891,6.38957,-12.1411,-2.17029,-3.42402,27.0477,3.06244,-10.6329,10.941,0.586448,-2.72509,1.11319e-14,-5.08889e-14,0.124453,1.52456,-68.4756,61.9643,19.6496,-22.3034,12.6518,7.12502,4.11576,-17.2882,1.11319e-14,-5.08889e-14,-36.2093,-5.71025,90.0986,59.9228,11.7108,-12.2226,51.2625,7.12502,13.8425,80.7819,-26.6179,3.47526,15.0031,34.4422,-4.8222,-3.72387,4.322,-10.0456,-3.76609,-17.6456,40.2779,-8.16169,-1.04418,-25.5982
-1.47291,18.1066,0.0173206,182.097,10.1753,177.311,29.9936,0.255519,-2.27222,4.84164,1.61055,5.28242,-10.636,1.43412,6.19437,-11.5993,-2.27938,-3.64307,27.4205,3.04541,-10.5259,10.9722,0.606341,-2.65078,-7.15625e-15,-7.15625e-14,0.719304,3.25659,-69.1933,57.4868,21.1082,-21.8108,11.8668,7.12502,4.59144,-18.0635,-7.15625e-15,-7.15625e-14,-36.4073,-6.46093,90.6868,59.9736,12.1698,-12.7632,50.8285,7.12502,13.3215,80.3827,-27.2804,3.72228,14.9564,34.2637,-4.68279,-3.64863,6.39416,-9.81705,-3.93369,-17.5038,39.1937,-8.54734,-1.55698,-27.5521
-1.51521,18.0927,0.092395,182.31,10.5635,177.51,30.4963,0.446404,-2.24147,4.63771,1.8509,5.27667,-11.1084,1.54615,6.07905,-11.424,-2.24063,-3.63494,27.3258,3.09025,-10.5619,10.9039,0.635215,-2.65511,1.74931e-14,5.88403e-14,2.22681,4.21163,-70.1246,52.4324,22.9446,-21.4722,12.5089,7.12502,4.91843,-17.414,1.74931e-14,5.88403e-14,-35.7851,-7.02972,91.0322,59.8225,11.9454,-12.8234,50.433,7.12502,13.2634,79.991,-27.7646,4.10395,15.0166,34.1257,-3.84496,-3.3159,1.99731,-9.34375,-4.21964,-17.3306,37.9719,-9.80113,-1.72259,-31.1778
-1.55648,18.0843,0.171455,182.622,10.9933,177.735,30.2895,0.652194,-2.10595,4.98529,2.17862,5.15956,-10.659,1.69556,5.75215,-12.026,-2.2438,-3.482,27.0827,2.89067,-10.3804,10.9155,0.530917,-2.64469,-8.74653e-15,2.22639e-14,4.3711,4.16991,-71.0052,47.6369,24.6301,-20.4086,12.9101,7.12502,5.94531,-16.9865,-8.74653e-15,2.22639e-14,-34.1824,-7.82857,91.1655,59.6177,11.4604,-12.1903,50.5837,7.12502,13.8736,80.1009,-28.409,4.43895,15.1211,34.0023,-3.25607,-3.18301,0.813307,-9.02963,-4.49717,-17.1513,36.6825,-10.9372,-1.36277,-33.2899
-1.59738,18.0774,0.250901,182.976,11.3491,177.764,31.1313,0.940159,-2.30093,4.39254,2.40923,5.10338,-11.7118,1.79669,5.70414,-11.7259,-2.20334,-3.34215,27.2672,2.98123,-10.4141,10.9291,0.602872,-2.66924,-5.08889e-14,-1.74931e-14,4.79915,4.74595,-71.8571,43.8804,25.2832,-17.8974,12.3853,7.12502,8.36935,-17.4289,-5.08889e-14,-1.74931e-14,-34.0629,-8.36981,91.5596,59.5411,11.299,-11.7645,50.9742,7.12502,14.2839,80.4629,-29.1615,4.46648,15.0324,33.8745,-2.81075,-2.90426,1.47654,-8.87483,-4.65778,-17.2003,35.4639,-11.373,-0.989932,-32.1623
-1.64679,18.07,0.321755,183.268,11.6391,177.493,30.2066,1.08786,-2.3643,5.19425,2.59893,4.76068,-10.4182,1.88495,5.30906,-12.642,-2.18343,-2.97227,26.729,2.72014,-10.3821,10.8908,0.455073,-2.75738,-4.92986e-14,-8.5875e-14,7.07745,3.80353,-72.8206,40.4054,25.7256,-15.0562,12.2331,7.12502,11.1106,-17.4528,-4.92986e-14,-8.5875e-14,-31.45,-9.55476,91.5319,58.9815,11.4214,-11.7889,51.1905,7.12502,14.2604,80.6809,-29.8469,4.12044,14.6173,33.7837,-2.52005,-2.3369,2.37134,-8.75604,-4.69289,-17.7027,34.5695,-11.8654,-0.519083,-30.2163
-1.69195,18.0569,0.405542,183.683,11.8991,177.494,30.9033,1.33246,-2.40858,4.77873,2.82144,4.58155,-11.1898,1.97597,5.04181,-12.7001,-2.24656,-2.89268,26.8299,2.53628,-10.14,10.9239,0.394663,-2.71067,1.59028e-15,1.11319e-14,7.36846,3.62158,-73.7301,37.8569,25.6485,-13.4276,12.547,7.12502,12.681,-17.048,1.59028e-15,1.11319e-14,-30.7668,-10.2793,91.7674,58.6907,11.4735,-11.9721,51.5792,7.12502,14.0839,81.0819,-30.6478,3.94327,14.4981,33.7082,-2.38035,-2.21064,5.51926,-8.98226,-4.45489,-17.9102,33.9728,-12.4627,0.093905,-29.1313
-1.72559,18.0275,0.504178,184.281,12.2561,177.939,31.4356,1.62964,-2.21371,4.4552,3.21484,4.47797,-11.8033,2.13831,4.65785,-12.7863,-2.32825,-2.92806,26.8456,2.23538,-9.63481,10.9202,0.290599,-2.5627,-2.38542e-14,-6.99722e-14,7.35999,3.27222,-74.556,36.015,24.9953,-10.1996,10.0563,7.12502,15.7915,-19.3196,-2.38542e-14,-6.99722e-14,-29.8048,-11.1128,91.9065,58.2946,11.4738,-11.8227,51.8229,7.12502,14.2279,81.3156,-31.68,4.09361,14.8695,33.5944,-2.42642,-2.82957,14.4627,-9.59083,-3.82145,-17.5904,33.5975,-13.0571,0.956377,-26.4672
-1.75983,18.0134,0.587714,184.718,12.6757,178.084,31.9915,2.00371,-2.33986,4.07344,3.57795,4.33301,-12.4995,2.29053,4.40949,-12.7347,-2.40992,-3.04656,26.8796,1.95299,-9.08652,10.8991,0.200966,-2.38075,6.75868e-14,3.97569e-14,6.96314,2.88319,-75.3027,34.5848,23.7144,-7.76301,8.5516,7.12502,18.1369,-20.6228,6.75868e-14,3.97569e-14,-29.0158,-11.8303,92.1164,57.9255,11.4326,-11.8218,51.3197,7.12502,14.2287,80.8123,-32.4934,4.15856,14.9298,33.4328,-1.90184,-2.60984,13.1344,-10.088,-3.11259,-17.7219,33.3641,-13.6161,2.15718,-27.8778
-1.79398,18.0177,0.6701,185.143,12.8393,177.968,31.2623,2.22814,-2.7508,4.73261,3.7798,4.2202,-11.4778,2.41142,4.45834,-13.8211,-2.45308,-3.00422,26.4915,1.63592,-8.76896,10.9496,0.0208215,-2.32621,-4.45278e-14,-1.00187e-13,8.06219,2.02809,-75.8733,33.4183,22.0794,-6.75843,8.31348,7.12502,19.1031,-20.7684,-4.45278e-14,-1.00187e-13,-26.643,-12.2612,92.1397,57.5827,11.3718,-12.081,50.8095,7.12502,13.979,80.3195,-33.154,4.07899,14.6697,33.2124,-1.70487,-2.63108,14.0269,-10.74,-2.53895,-18.1443,33.1826,-14.0394,3.26912,-27.58
-1.82585,18.0127,0.762398,185.725,12.7438,177.92,32.634,2.53064,-2.92303,3.61714,3.93579,4.05375,-13.3304,2.4521,4.25533,-13.3172,-2.48596,-2.69861,26.8387,1.59054,-8.75222,10.9734,0.0624689,-2.37656,-5.64548e-14,-6.36111e-14,6.61168,1.48181,-76.6218,32.5777,20.7959,-4.86285,7.63599,7.12502,20.9252,-21.2554,-5.64548e-14,-6.36111e-14,-27.1099,-12.5066,92.6536,57.5909,11.2655,-12.5384,50.3614,7.12502,13.5381,79.9013,-33.9559,3.94889,14.462,33.0003,-1.87456,-2.78749,13.6186,-11.6662,-2.03141,-18.4204,32.9092,-14.4576,4.17695,-26.464
-1.85396,18.0091,0.841714,186.303,12.6434,178.097,32.7359,2.69631,-2.98623,3.31565,4.07254,4.01002,-13.7351,2.50233,4.18115,-12.6612,-2.65059,-3.0131,26.6037,1.16631,-8.11913,10.7306,-0.0738741,-2.13452,2.3059e-14,3.18055e-14,6.29524,1.08018,-77.1633,31.6376,19.5996,-0.260478,4.47053,7.12502,25.3409,-23.8658,2.3059e-14,3.18055e-14,-26.4469,-12.6509,93.01,57.4576,11.2277,-12.8703,49.8749,7.12502,13.2182,79.4359,-34.6186,3.73647,14.5602,32.734,-2.26235,-2.94326,10.6827,-12.4098,-1.41039,-18.4793,32.6238,-14.9218,5.0245,-26.0041
-1.87312,18.0044,0.910914,186.718,12.5334,178.167,31.2682,2.70255,-3.26095,4.6967,4.15394,3.90193,-11.5547,2.58716,4.24663,-14.622,-2.6442,-2.9007,25.9738,0.773465,-7.64583,10.8618,-0.314141,-2.06101,-3.49861e-14,-3.81667e-14,8.45402,0.330832,-77.7289,30.9238,18.4154,-0.130847,3.367,7.12502,25.465,-24.9517,-3.49861e-14,-3.81667e-14,-22.9872,-12.9951,92.6503,57.2474,11.2528,-12.9734,49.9709,7.12502,13.1188,79.5383,-35.0754,3.40362,14.5953,32.4776,-2.83022,-3.06233,7.28032,-12.9286,-1.04413,-18.6479,32.4079,-15.2644,5.86426,-25.4787
-1.88918,17.9989,0.981923,187.176,12.2128,178.45,33.1204,2.9133,-3.4009,3.0326,4.14616,3.91065,-14.246,2.54668,4.25119,-12.8834,-2.64187,-2.78089,26.4214,0.819491,-7.46809,10.6814,-0.172228,-1.98761,3.97569e-14,4.92986e-14,5.52457,0.797519,-78.3043,30.9365,17.222,-0.80518,3.16798,7.12502,24.8189,-25.2413,3.97569e-14,4.92986e-14,-24.8157,-12.8286,93.348,57.4463,11.1705,-13.0962,50.3789,7.12502,13.0004,79.9538,-35.4738,2.85441,14.9436,32.214,-3.22947,-3.55258,5.83892,-13.5104,-1.21481,-18.4415,32.1962,-15.7429,6.33887,-23.7224
-1.90263,17.9888,1.05382,187.615,11.9586,178.739,33.9287,3.01362,-3.65993,2.21816,4.07993,3.96371,-15.5589,2.51838,4.45118,-11.7316,-2.58902,-2.82073,26.4345,0.849702,-7.21031,10.4567,-0.081159,-1.86642,7.95139e-16,-2.70347e-14,3.79365,1.3471,-78.7534,30.9481,16.1847,-2.15692,4.08017,7.12502,23.5229,-24.5015,7.95139e-16,-2.70347e-14,-25.0592,-12.3918,93.7126,57.3908,11.3549,-13.2413,51.1548,7.12502,12.8606,80.7386,-35.941,2.38373,15.3359,32.0339,-3.83658,-4.11044,2.71843,-14.06,-1.64452,-18.1422,31.9441,-16.2949,6.76322,-22.6507
-1.90917,17.9777,1.12299,187.906,11.59,179.175,34.3429,3.02821,-3.79792,2.06934,4.0497,4.04853,-15.9236,2.52135,4.61893,-11.9867,-2.5433,-2.59085,26.5651,0.824826,-7.07906,10.5497,-0.0722447,-1.86851,1.82882e-14,1.59028e-15,2.68297,1.83196,-79.1055,31.6338,15.3096,-3.88278,5.12062,7.12502,21.8665,-23.6638,1.82882e-14,1.59028e-15,-24.1513,-11.9764,93.7869,57.5249,11.703,-13.3228,51.6461,7.12502,12.782,81.2349,-36.1779,1.9585,15.9071,31.9738,-4.8126,-4.93376,1.11173,-14.3845,-2.29858,-17.5943,31.6491,-16.7013,7.14731,-22.3937
-1.91107,17.9756,1.1828,188.061,11.0781,179.66,34.1866,2.86164,-3.68079,2.48034,3.94701,4.05514,-15.3488,2.48237,4.60991,-13.0309,-2.52307,-2.42799,26.5333,0.586338,-6.59785,10.7296,-0.177978,-1.77243,-4.13472e-14,-2.38542e-15,2.1205,2.32387,-79.4666,32.9937,14.5644,-5.48666,5.31835,7.12502,20.3258,-23.638,-4.13472e-14,-2.38542e-15,-22.5664,-11.8608,93.6733,57.6171,12.1456,-13.8191,51.6997,7.12502,12.3035,81.3177,-36.2327,1.3453,16.6176,32.1354,-6.13176,-6.05289,1.76222,-14.5358,-2.9921,-16.9449,31.3573,-17.0972,7.38646,-21.5417
-1.91504,17.9695,1.23079,188.051,10.8165,180.042,32.6459,2.60702,-3.40626,3.96431,3.89431,3.8262,-12.9327,2.46959,4.28574,-14.1483,-2.41925,-2.07694,25.8757,0.292205,-6.15966,10.6876,-0.311096,-1.72611,3.97569e-15,9.54166e-15,3.14423,2.43646,-79.8209,34.3011,14.0977,-6.72538,5.02739,7.12502,19.1349,-24.0513,3.97569e-15,9.54166e-15,-19.2325,-12.1631,93.0983,57.2513,12.6776,-14.0039,51.7628,7.12502,12.1253,81.3914,-36.2386,0.466599,17.3633,32.4198,-7.41444,-7.24293,3.29408,-14.3972,-3.45593,-16.4793,31.0866,-17.6299,7.67593,-20.8747
-1.90315,17.953,1.30469,188.341,10.3323,180.263,32.1239,2.50567,-3.60986,4.37291,3.74066,3.73382,-12.234,2.41648,4.38015,-14.4302,-2.26472,-1.96076,25.555,0.244111,-5.69984,10.6178,-0.299564,-1.58976,-8.74653e-15,3.89618e-14,2.73922,3.03188,-80.1516,35.8225,13.7698,-7.86707,4.69816,7.12502,18.0367,-24.4855,-8.74653e-15,3.89618e-14,-17.325,-12.053,92.8318,56.9301,13.1544,-13.5855,52.3587,7.12502,12.5288,81.9631,-36.6948,-0.543036,17.9977,32.7553,-8.58527,-9.01336,4.33021,-14.9094,-3.5569,-16.0464,30.9324,-17.596,7.75329,-21.8795
-1.88798,17.9501,1.3534,188.5,10.184,180.601,32.0472,2.58959,-3.83918,4.44004,3.7604,3.6182,-12.1277,2.43288,4.37481,-14.5969,-2.22395,-1.74867,25.5657,0.0703591,-5.21853,10.6442,-0.320876,-1.48076,-2.0276e-14,3.02153e-14,1.55984,3.52975,-80.5943,37.6258,13.2619,-8.55139,4.0722,7.12502,17.3782,-25.1709,-2.0276e-14,3.02153e-14,-16.1909,-11.9023,92.7049,56.6616,13.4798,-13.2691,53.1161,7.12502,12.8338,82.7016,-36.9137,-1.23764,18.7038,33.1827,-9.95846,-10.9121,5.34731,-15.2667,-3.37657,-15.5789,30.8625,-17.56,7.92773,-22.176
-1.87556,17.9526,1.39698,188.641,9.88285,181.012,32.1833,2.5701,-3.83978,4.30915,3.70422,3.54042,-12.3194,2.4033,4.30782,-14.4869,-2.22022,-1.53476,25.6484,-0.0521718,-4.96894,10.6461,-0.327376,-1.44398,-3.61788e-14,-3.97569e-14,0.142318,3.99985,-81.0171,39.0872,12.6296,-8.90919,3.37108,7.12502,17.0338,-25.9021,-3.61788e-14,-3.97569e-14,-15.6279,-11.5369,92.755,56.5962,13.4093,-13.0286,53.8459,7.12502,13.0657,83.4167,-37.1123,-2.17834,19.5106,33.7807,-11.4622,-12.6479,7.11679,-15.5885,-3.15677,-15.0268,30.8587,-17.6366,7.7609,-21.8419
-1.86851,17.9437,1.45331,188.79,9.4678,180.922,32.2141,2.52107,-4.10418,4.13355,3.48479,3.33484,-12.5013,2.30287,4.31642,-13.9258,-2.20519,-1.41981,25.4989,-0.168705,-4.66007,10.4755,-0.322471,-1.35945,1.47101e-14,2.38542e-15,-1.27451,4.20964,-81.483,40.2082,12.4217,-11.26,5.21368,7.12502,14.77,-24.24,1.47101e-14,2.38542e-15,-15.1412,-11.2049,92.7813,56.722,13.33,-12.7587,54.529,7.12502,13.3258,84.083,-37.5839,-3.37901,19.7408,34.5107,-12.7379,-14.1971,9.65756,-15.9788,-3.11293,-15.0077,30.8372,-17.7785,7.47214,-22.0377
-1.86243,17.9318,1.50757,188.888,9.18503,180.535,32.1179,2.49327,-4.68472,4.23179,3.21326,3.02302,-12.3143,2.19716,4.40718,-14.1999,-2.0657,-1.22322,25.3932,-0.20083,-4.22736,10.486,-0.290473,-1.24741,1.35174e-14,-2.0276e-14,-2.28284,4.47322,-81.9062,41.6009,12.2298,-11.7739,5.50046,7.12502,14.2749,-23.9889,1.35174e-14,-2.0276e-14,-14.0757,-10.8171,92.5974,56.786,13.264,-13.006,54.1294,7.12502,13.0874,83.6987,-38.1708,-4.40413,19.5392,35.4077,-14.1289,-15.622,13.7811,-16.2975,-3.18487,-15.3249,30.8227,-17.9365,7.21938,-22.1298
-1.85365,17.9255,1.55273,188.9,8.90406,180.467,32.1844,2.47586,-4.97255,4.23996,3.07269,2.882,-12.3143,2.14432,4.46439,-14.1444,-2.02132,-1.38325,25.2075,-0.283559,-3.7202,10.4065,-0.29414,-1.0496,-1.27222e-14,1.82882e-14,-3.61433,4.72658,-82.1055,43.1865,11.9772,-11.7406,5.26351,7.12502,14.307,-24.2236,-1.27222e-14,1.82882e-14,-13.2129,-10.6787,92.6493,56.7205,13.6454,-17.2494,49.4495,7.12502,8.99467,79.2378,-38.5534,-5.19292,19.5819,36.3783,-15.1766,-17.0078,16.9513,-16.5201,-3.34968,-15.2711,30.8715,-17.8133,6.9818,-22.1423
-1.83793,17.9212,1.59938,188.931,8.58561,180.506,32.3715,2.45237,-5.20295,4.10997,2.92347,2.78429,-12.5219,2.08493,4.53694,-13.9491,-1.96909,-1.49751,25.1039,-0.285194,-3.40049,10.3315,-0.267989,-0.914471,7.95139e-15,-1.35174e-14,-5.12666,5.0495,-82.3483,44.718,11.916,-12.0718,5.28659,7.12502,13.9878,-24.2228,7.95139e-15,-1.35174e-14,-12.7055,-10.4967,92.6953,56.9208,13.7626,-13.9386,54.2023,7.12502,12.1883,83.8272,-38.8464,-5.66247,19.5881,37.2962,-15.3854,-18.4107,17.8909,-16.8889,-3.40502,-15.0579,31.0379,-17.555,6.57433,-21.8061
-1.81692,17.9215,1.64125,188.865,8.31018,180.808,32.5079,2.37933,-5.27135,4.11844,2.8007,2.72247,-12.5506,2.03543,4.5518,-13.9614,-1.8715,-1.33502,25.2977,-0.255304,-3.09044,10.4028,-0.201905,-0.829537,-3.18055e-15,-2.34566e-14,-6.45289,5.33928,-82.7122,46.1213,11.9281,-12.2618,5.22408,7.12502,13.8047,-24.2979,-3.18055e-15,-2.34566e-14,-12.2817,-10.0008,92.6131,57.508,13.2533,-16.4857,51.8444,7.12502,9.7316,81.5995,-38.9139,-5.83825,19.7794,38.1249,-15.1538,-19.4245,19.1389,-17.1713,-3.27058,-14.5697,31.3683,-17.3746,6.18897,-22.3203
-1.79078,17.9243,1.67605,188.815,8.08589,181.201,32.0488,2.25303,-5.27134,4.56457,2.72418,2.65648,-11.8385,2.00392,4.5254,-14.3229,-1.60831,-0.999146,24.9003,-0.02339,-3.21703,10.328,-0.104875,-0.904968,-1.07344e-14,2.22639e-14,-7.06774,5.45545,-83.0185,47.4124,11.8201,-12.5532,5.36203,7.12502,13.5239,-24.1788,-1.07344e-14,2.22639e-14,-11.2481,-9.78083,92.3684,58.1166,13.1624,-14.498,54.5844,7.12502,11.6489,84.2406,-38.9054,-5.81653,20.008,38.78,-14.0883,-20.045,20.2143,-17.7519,-3.15134,-13.9653,32.3593,-17.6297,5.81016,-22.4206
-1.76268,17.9267,1.71393,188.817,7.9005,181.336,32.1363,2.23725,-5.4531,4.49115,2.61188,2.55357,-11.9416,1.95785,4.55421,-14.2172,-1.59014,-1.06196,24.9627,-0.133157,-2.66281,10.3282,-0.0966772,-0.71195,1.47101e-14,-2.10712e-14,-8.35154,5.60162,-83.345,48.5341,11.6128,-12.7882,5.42329,7.12502,13.2974,-24.1325,1.47101e-14,-2.10712e-14,-11.0204,-9.67684,92.2572,58.9935,13.1858,-14.7522,55.2247,7.12502,11.4038,84.8945,-39.0164,-5.81213,19.918,39.4567,-12.5051,-20.4848,20.9249,-18.2852,-3.00915,-13.672,32.9151,-17.5264,5.65424,-23.2642
-1.72471,17.8808,1.84814,189.354,7.78719,183.532,33.289,2.18147,-4.04356,3.9572,3.01099,2.97495,-13.059,2.09721,4.04874,-14.466,-1.53101,-0.895215,25.4399,-0.0632906,-2.55256,10.5507,-0.0287681,-0.694494,6.95746e-15,-3.57812e-15,-9.79937,5.68442,-83.6469,49.3742,11.5157,-13.0318,5.72979,7.12502,13.0626,-23.8412,6.95746e-15,-3.57812e-15,-11.0645,-9.59693,92.105,60.2893,13.1779,-14.6018,56.0263,7.12502,11.5488,85.6881,-39.7997,-4.28309,21.93,40.1531,-11.2075,-21.9038,23.2805,-19.7572,-2.33212,-10.89,33.542,-16.7824,5.40729,-21.5176
-1.72033,17.9367,1.80396,188.697,7.28585,182.602,32.8886,1.86112,-4.38462,4.09939,2.42674,2.4905,-12.6458,1.83574,3.9608,-12.7727,-1.50147,-1.35521,24.1304,-0.187549,-1.96665,9.75115,-0.0553089,-0.412912,-2.56432e-14,2.5842e-15,-11.5272,5.75178,-83.9054,50.0851,11.8196,-13.9248,6.986,7.12502,12.2016,-22.6381,-2.56432e-14,2.5842e-15,-11.4055,-9.36188,91.9961,61.7775,13.2068,-14.5743,56.2868,7.12502,11.5753,85.9471,-38.8199,-5.60129,20.6162,40.946,-10.4256,-21.0409,25.2281,-19.0246,-3.00883,-12.0001,33.611,-17.0319,5.65992,-22.2735
-1.70803,17.9366,1.80186,188.319,6.95946,182.27,32.6874,1.63691,-4.48443,4.28051,2.09978,2.20317,-12.3067,1.69001,3.8409,-13.0876,-1.45643,-1.54087,24.6358,-0.240406,-1.17091,9.99298,-0.00371087,-0.111039,1.09829e-14,2.25124e-14,-12.8398,5.90514,-84.0968,51.2234,11.1293,-13.8932,6.6859,7.12502,12.2321,-22.9364,1.09829e-14,2.25124e-14,-11.4486,-9.09847,91.8695,63.3797,13.2744,-14.5365,56.3581,7.12502,11.6117,86.0164,-38.3851,-6.18511,19.8487,41.7375,-9.35569,-20.3457,25.7687,-18.4876,-3.47365,-12.3432,33.6757,-17.3044,5.82819,-25.2074
-1.68369,17.9453,1.82447,188.119,6.97394,182.573,32.6806,1.5474,-4.36889,4.40441,2.04045,2.11959,-12.1495,1.66208,3.71147,-13.4038,-1.17051,-1.08323,24.4699,0.142501,-1.6575,9.99265,0.146419,-0.314404,-5.82688e-15,-2.33324e-14,-13.8448,5.9273,-84.2629,51.9149,10.727,-13.3861,6.82848,7.12502,12.721,-22.764,-5.82688e-15,-2.33324e-14,-11.4209,-8.74757,91.7339,65.0721,13.1945,-14.5303,56.8972,7.12502,11.6177,86.5551,-38.1002,-6.00532,19.7336,42.5147,-8.42776,-19.731,25.1913,-18.0749,-3.59887,-11.9404,33.133,-16.8669,6.12099,-23.7866
-1.65942,17.9637,1.83665,188.041,6.93205,182.749,32.4637,1.41891,-4.26532,4.40663,1.89214,2.00008,-12.036,1.58292,3.59191,-13.6328,-1.00809,-1.07042,24.6564,0.352283,-1.54022,10.1044,0.25697,-0.249494,8.74653e-15,-5.46658e-16,-14.9948,5.85545,-84.4335,52.5409,10.2307,-12.4318,6.91876,7.12502,13.6409,-22.6143,8.74653e-15,-5.46658e-16,-11.5493,-8.40583,91.6032,66.5716,12.6308,-14.6046,57.5557,7.12502,11.546,87.2177,-37.8455,-6.13946,19.5604,43.2227,-7.34477,-19.0384,23.6579,-17.9098,-3.87453,-11.6707,32.8594,-16.6672,6.40078,-23.1867
-1.64066,17.9771,1.84293,187.994,6.92529,182.656,32.0449,1.29449,-4.29569,4.41214,1.68832,1.79858,-11.8291,1.47698,3.48283,-13.6349,-0.87994,-1.1529,24.83,0.491518,-1.21815,10.1669,0.355472,-0.103504,-4.96962e-16,-9.83984e-15,-16.1426,5.82417,-84.5727,53.0806,9.34753,-11.643,6.88268,7.12502,14.401,-22.5977,-4.96962e-16,-9.83984e-15,-11.6579,-8.01594,91.4513,68.0102,11.594,-14.6199,58.0702,7.12502,11.5313,87.733,-37.6388,-6.41018,19.0704,43.8116,-6.50676,-18.192,21.7877,-17.771,-4.14217,-11.7102,32.6546,-16.571,6.54081,-22.8628
-1.61829,17.9839,1.84991,187.809,7.27903,182.479,32.1903,1.49282,-4.72652,4.09845,1.71425,1.73454,-12.2506,1.49448,3.63494,-13.4818,-0.792802,-1.13677,25.3407,0.702932,-1.2082,10.3232,0.480454,-0.070699,1.10325e-14,3.8763e-15,-17.8561,5.68419,-84.4698,53.733,8.47431,-10.7797,6.78695,7.12502,15.2327,-22.6322,1.10325e-14,3.8763e-15,-12.409,-7.43428,91.6267,69.6488,10.2043,-14.5723,58.5841,7.12502,11.5772,88.2444,-37.3296,-6.09579,18.3355,44.3771,-6.33832,-17.5045,20.4931,-17.404,-4.17843,-11.872,32.3451,-16.4588,6.72858,-22.2556
-1.58857,17.9927,1.85468,187.651,7.60419,182.392,31.9058,1.58299,-4.98734,4.11566,1.71778,1.57299,-12.1086,1.49641,3.60754,-13.5566,-0.642763,-0.86383,25.5692,0.909705,-1.30988,10.4222,0.596382,-0.124785,3.22031e-14,-1.17283e-14,-18.9358,5.25894,-84.489,54.2221,7.65717,-9.86724,6.70111,7.12502,16.1115,-22.6492,3.22031e-14,-1.17283e-14,-12.7681,-6.9033,91.5237,71.316,8.50216,-14.703,58.8798,7.12502,11.4512,88.5471,-36.9586,-5.68014,17.6807,44.867,-6.62516,-17.0875,20.6223,-17.0104,-4.2891,-11.9156,32.0098,-16.3207,7.05019,-22.0933
-1.55712,18.0044,1.86524,187.516,7.67855,182.289,31.7967,1.54258,-5.10893,4.05616,1.58565,1.38866,-12.1105,1.43312,3.52964,-13.4179,-0.536578,-0.896101,25.5065,0.967722,-0.961817,10.3698,0.661499,0.011119,5.1684e-15,-8.15017e-15,-20.0362,4.88749,-84.5808,54.7919,6.48315,-8.93255,6.36448,7.12502,17.0114,-22.9106,5.1684e-15,-8.15017e-15,-13.1737,-6.31658,91.3287,72.9387,6.74516,-14.8434,59.3996,7.12502,11.3158,89.0744,-36.6217,-5.55393,17.0952,45.2291,-6.39564,-16.9551,19.4446,-16.6912,-4.44156,-11.9423,31.6959,-16.175,7.28916,-22.2723
-1.52492,18.0151,1.87295,187.373,7.8866,182.544,31.9628,1.5614,-4.93478,3.79847,1.60308,1.32022,-12.4707,1.42682,3.35263,-13.2931,-0.515424,-1.0173,25.6874,0.953195,-0.561898,10.4086,0.700725,0.174044,2.67365e-14,-1.21259e-14,-21.5594,4.49828,-84.585,55.502,5.64919,-8.34986,5.87073,7.12502,17.5722,-23.3552,2.67365e-14,-1.21259e-14,-14.0071,-5.6683,91.24,74.6954,5.28065,-14.0461,61.874,7.12502,12.0847,268.495,-36.163,-5.18522,16.8793,45.4426,-5.95694,-16.9769,17.7407,-16.2687,-4.32847,-11.5828,31.3615,-16.0734,7.31538,-22.1902
-1.49139,18.0271,1.87636,187.274,8.05954,182.881,31.8226,1.54435,-4.64415,3.7452,1.66676,1.30111,-12.4751,1.43634,3.15423,-13.5512,-0.458333,-0.948006,25.8983,1.00417,-0.457223,10.5358,0.743892,0.208711,2.08724e-14,-8.15017e-15,-22.6775,3.88978,-84.4011,55.8217,5.62167,-8.28414,6.3123,7.12502,17.6354,-22.9079,2.08724e-14,-8.15017e-15,-14.435,-5.24574,91.1678,76.2435,4.70339,-14.7277,64.197,7.12502,11.4273,266.134,-35.5833,-4.88081,16.7353,45.5532,-5.87875,-16.9295,17.303,-15.8526,-4.24901,-11.1256,30.9857,-15.9252,7.40065,-22.2644
-1.45889,18.0359,1.8747,187.191,8.09016,182.776,31.5169,1.48298,-4.66134,3.73027,1.56147,1.17781,-12.3494,1.37894,3.0802,-13.2607,-0.364279,-0.929357,25.5691,1.05402,-0.294315,10.3567,0.783386,0.265292,2.5842e-14,-5.56597e-15,-23.6462,3.34996,-84.2027,55.9828,5.53448,-8.34686,6.92851,7.12502,17.5751,-22.2971,2.5842e-14,-5.56597e-15,-14.8197,-4.85722,90.995,77.8886,4.2311,-14.5605,65.1361,7.12502,11.5886,265.204,-35.0232,-4.87944,16.1278,45.6207,-5.92337,-16.8522,17.2558,-15.5115,-4.46321,-11.1517,30.5825,-15.7846,7.58937,-22.1094
-1.42341,18.0423,1.86541,187.063,8.19742,182.622,31.3021,1.45706,-4.7771,3.63205,1.45157,1.06083,-12.3574,1.32285,3.06582,-13.4454,-0.0741646,-0.392852,25.6709,1.41253,-0.559779,10.4335,0.968398,0.127302,8.54774e-15,1.51076e-14,-24.8333,3.16611,-84.0213,56.3572,5.12954,-8.29956,6.48542,7.12502,17.6206,-22.7361,8.54774e-15,1.51076e-14,-15.5232,-4.46423,90.7766,79.8683,4.3463,-14.2978,67.0012,7.12502,11.8419,263.354,-34.431,-4.80442,15.4772,45.6303,-5.54403,-16.8444,16.1553,-15.0629,-4.66132,-11.2544,30.2085,-15.7513,7.84219,-21.8494
-1.38198,18.0467,1.86419,186.93,8.41158,182.541,30.8631,1.43843,-4.96547,3.82655,1.39279,0.966037,-11.9425,1.2979,3.09815,-13.5725,0.112801,-0.608626,25.2926,1.54027,-0.122263,10.3144,1.03717,0.329954,2.80286e-14,0,-25.3979,3.11183,-83.8957,56.7223,4.86573,-8.48562,5.83446,7.12502,17.4415,-23.4031,2.80286e-14,0,-15.7041,-4.15767,90.4092,81.9372,4.26937,-13.1376,69.2813,7.12502,12.9605,261.141,-33.8183,-4.48546,14.8974,45.5845,-5.40963,-16.8472,16.0443,-14.5894,-4.69818,-11.28,29.8514,-15.6701,8.1728,-22.4403
-1.33542,18.0519,1.87626,186.905,8.61506,182.671,30.4972,1.4822,-4.94146,3.80473,1.45596,0.992301,-11.8181,1.31524,3.09892,-13.3118,0.198825,-0.881935,24.9482,1.62497,0.141584,10.1341,1.07577,0.473747,1.82882e-14,-1.82882e-14,-26.4407,2.97007,-83.6068,57.3041,4.66133,-8.98105,5.9067,7.12502,16.9647,-23.3724,1.82882e-14,-1.82882e-14,-16.3446,-4.07582,90.2734,84.0069,2.79821,-10.4944,72.5103,7.12502,15.5075,258.092,-33.3223,-4.01645,14.5919,45.5287,-5.47566,-16.8977,16.3944,-14.3376,-4.79182,-10.9773,29.4868,-15.5722,8.345,-21.6517
-1.29148,18.0688,1.88696,186.895,8.69999,182.627,30.5102,1.44667,-4.94059,3.49294,1.33221,0.898599,-12.163,1.24653,3.04658,-12.7962,0.295265,-0.613084,24.8374,1.68681,0.250552,9.99467,1.15341,0.469966,-2.5842e-15,1.07344e-14,-27.9318,2.80131,-83.4678,57.9558,4.94665,-9.23658,6.07355,7.12502,16.7187,-23.2265,-2.5842e-15,1.07344e-14,-17.5848,-3.65073,89.9169,85.8347,-0.345036,-6.17905,72.5204,7.12502,19.6602,258.454,-32.8194,-3.8481,14.1482,45.3644,-5.3049,-16.6027,14.4677,-14.2745,-5.22983,-10.816,29.177,-15.5313,8.43422,-19.0612
-1.24432,18.056,1.90407,186.965,8.85118,182.461,30.6311,1.49322,-5.13197,3.32934,1.28862,0.869446,-12.3975,1.23225,3.1337,-13.5274,0.318088,-0.887861,25.1417,1.67537,0.633815,10.2399,1.15715,0.659041,1.15295e-14,3.57812e-15,-28.833,2.48226,-83.0302,58.4289,5.98184,-9.45114,6.50473,7.12502,16.5121,-22.8127,1.15295e-14,3.57812e-15,-18.5176,-2.95371,89.6171,87.7121,-4.30606,-0.330354,70.2795,7.12502,25.2739,261.375,-32.5386,-3.59185,13.5532,45.1972,-5.1704,-16.094,12.5498,-13.9645,-5.20395,-10.9053,28.897,-15.446,8.86895,-21.2503
-1.19339,18.058,1.91433,186.987,9.1425,182.689,30.5947,1.51866,-5.08151,3.22571,1.32261,0.933506,-12.5055,1.24112,3.16441,-13.6804,0.410039,-1.07822,25.0778,1.76559,0.87978,10.2411,1.20215,0.789138,-2.28602e-14,1.94809e-14,-29.7065,2.24157,-82.6541,58.7324,7.08453,-9.8907,7.06616,7.12502,16.0889,-22.2859,-2.28602e-14,1.94809e-14,-19.6108,-1.78356,89.1523,90.1105,-6.17472,6.06589,67.7341,7.12502,31.3861,264.939,-32.0071,-2.98254,13.3883,44.8931,-5.18557,-15.5499,12.2853,-13.6312,-5.16511,-10.534,28.606,-15.3001,9.29002,-22.3309
-1.14019,18.0665,1.92036,186.917,9.48497,182.968,30.3218,1.55489,-4.93498,3.30515,1.43885,0.970839,-12.3082,1.28232,3.08704,-13.4487,0.532318,-1.00681,24.6147,1.8761,0.851606,10.0285,1.24467,0.770072,-9.14409e-15,-7.95139e-15,-30.4121,1.9195,-82.2966,59.1239,7.61431,-9.83935,7.02762,7.12502,16.1383,-22.3205,-9.14409e-15,-7.95139e-15,-20.4002,-0.849763,88.6476,92.7477,-5.44322,11.3925,66.2293,7.12502,36.4459,267.565,-31.3324,-2.34032,13.3203,44.5401,-5.29653,-14.8462,12.0821,-13.2482,-5.10473,-10.0979,28.23,-15.1361,9.58967,-22.7441
-1.0892,18.0739,1.93005,186.846,9.85489,182.95,30.146,1.66665,-5.00248,3.24145,1.54355,0.935762,-12.3131,1.32551,3.05071,-13.1548,0.599325,-0.873839,24.394,1.93527,0.820572,9.89363,1.28077,0.737662,-1.64991e-14,1.27222e-14,-31.3666,1.56099,-81.93,59.7715,7.63638,-9.61679,6.86895,7.12502,16.3526,-22.4616,-1.64991e-14,1.27222e-14,-21.2719,-0.18675,88.1461,95.5648,-2.97982,15.4924,66.9959,7.12502,40.3149,267.874,-30.7691,-1.91905,12.9956,44.098,-5.24537,-13.9322,9.60516,-12.9299,-5.19463,-9.99091,27.8587,-15.0527,9.97207,-22.7856
-1.04117,18.0818,1.92845,186.701,10.184,182.926,30.2772,1.73224,-4.97413,2.90356,1.55903,0.863397,-12.754,1.32233,2.94984,-12.3832,0.714304,-0.551956,24.2659,2.09178,0.700235,9.70351,1.38717,0.652262,2.10712e-14,9.93923e-15,-32.7708,1.50724,-81.6886,60.2506,7.38407,-10.3506,7.57136,7.12502,15.646,-21.816,2.10712e-14,9.93923e-15,-22.6577,0.359178,87.4886,98.172,-0.994345,19.45,68.9935,7.12502,44.0224,267.132,-30.0421,-1.56456,12.6614,43.6131,-5.35821,-12.8993,7.30773,-12.3911,-5.5281,-9.92363,27.4475,-15.1201,10.4694,-22.1602
-0.987395,18.0852,1.94288,186.731,9.94903,182.836,30.1513,1.55498,-4.79918,2.98727,1.40548,0.861807,-12.5883,1.24369,2.91545,-12.6217,0.862543,-0.50368,23.961,2.25104,0.611531,9.64135,1.43611,0.628127,1.51076e-14,2.74323e-14,-33.2211,1.38888,-81.3135,60.5983,6.87595,-11.319,8.26941,7.12502,14.7132,-21.1885,1.51076e-14,2.74323e-14,-22.825,0.82157,86.9873,99.8602,0.370707,22.7693,68.6086,7.12502,47.1056,268.772,-29.3894,-1.66664,12.347,43.1586,-5.40864,-11.9423,5.32453,-12.3157,-6.00951,-9.81734,27.0222,-14.8203,10.8801,-23.1433
-0.927723,18.0906,1.95144,186.802,10.0859,183.042,29.2689,1.46248,-4.51852,3.87965,1.49073,0.76484,-11.9305,1.28642,2.84248,-13.4528,0.956376,-0.515224,23.7244,2.26115,0.734324,9.71355,1.41991,0.675896,1.25234e-14,-9.14409e-15,-33.0877,0.991022,-80.9991,61.1481,6.32844,-11.3509,8.32187,7.12502,14.6824,-21.1383,1.25234e-14,-9.14409e-15,-22.2978,0.724909,86.5826,100.962,-0.250614,25.3965,67.7093,7.12502,49.5249,89.1779,-28.7751,-1.38379,12.388,42.6899,-5.49329,-10.9338,2.74853,-12.0167,-6.13717,-9.40624,26.5739,-14.7904,11.1527,-22.9815
-0.866268,18.0848,1.96395,186.803,10.4683,183.168,29.4324,1.59844,-4.50249,3.71711,1.64082,0.813606,-12.2199,1.35283,2.82833,-13.8133,0.920959,-0.763068,24.0573,2.19968,1.09528,9.89366,1.41346,0.845637,-1.8487e-14,-2.50469e-14,-34.0063,0.839048,-80.6036,61.8151,5.98258,-11.2597,8.32961,7.12502,14.7703,-21.1241,-1.8487e-14,-2.50469e-14,-22.8242,0.575213,86.2714,102.061,-0.429132,26.9991,66.6163,7.12502,50.9899,87.3033,-28.2633,-0.866455,12.3713,42.2562,-5.5664,-10.0387,0.86732,-11.6453,-6.31474,-9.09519,26.1786,-14.9566,11.5151,-21.9349
-0.805892,18.0775,1.96869,186.655,10.7999,183.031,29.7878,1.78789,-4.66083,3.09704,1.78104,0.933154,-12.3377,1.40224,2.78334,-13.4968,0.878558,-0.987777,24.1257,2.15683,1.36765,9.85189,1.41665,0.972168,-2.98177e-15,1.03368e-14,-35.1095,0.61285,-80.0405,62.2725,5.99748,-11.4474,8.85697,7.12502,14.5895,-20.6099,-2.98177e-15,1.03368e-14,-23.5104,-0.013194,86.2548,103.042,0.304815,26.1046,65.3934,7.12502,50.1733,86.5247,-27.6093,-0.452134,12.0837,41.8243,-5.47338,-9.27102,-0.286274,-11.2,-6.7206,-9.11096,25.8621,-15.0916,12.0917,-21.3854
-0.737598,18.072,1.98285,186.677,10.9304,182.935,29.5582,1.83942,-4.68846,3.11133,1.84078,0.916262,-12.2254,1.42561,2.76413,-13.1751,0.877334,-1.02362,23.7835,2.11633,1.45718,9.66764,1.40042,0.994005,-3.45885e-14,1.15295e-14,-35.7354,0.39103,-79.7232,63.5257,4.62928,-10.2229,6.79101,7.12502,15.769,-22.5866,-3.45885e-14,1.15295e-14,-23.668,-0.834981,86.2783,103.878,1.12876,24.2147,64.6253,7.12502,48.4392,86.6305,-27.0792,-0.104541,11.9163,41.4022,-5.80918,-8.31091,-1.53442,-11.0345,-7.1278,-8.96691,25.5443,-15.1047,12.4256,-20.5977
-0.664083,18.0696,2.00269,186.755,10.9557,182.922,29.2113,1.82991,-4.65726,3.54955,1.86094,0.829346,-12.3274,1.44958,2.85386,-13.1581,0.88657,-0.952073,23.5111,2.08921,1.40653,9.56978,1.37829,0.955064,-8.15017e-15,1.63003e-14,-36.1392,0.119409,-79.457,64.1271,4.11039,-10.0285,6.02098,7.12502,15.9562,-23.3418,-8.15017e-15,1.63003e-14,-23.7099,-1.43868,86.2176,104.317,0.862362,23.9128,63.5059,7.12502,48.1612,85.6431,-26.597,0.179205,11.9355,40.9472,-6.66179,-7.06993,-3.87999,-10.9454,-7.53703,-8.64492,25.2412,-15.4188,12.3566,-18.0023
-0.594979,18.0604,2.01575,186.719,11.0126,182.831,29.2683,1.84896,-4.67138,3.4256,1.85462,0.818912,-12.5025,1.44447,2.85123,-12.974,0.892536,-0.79826,23.5144,2.10582,1.27899,9.53919,1.39047,0.885515,-3.89618e-14,1.03368e-14,-36.7178,-0.0542692,-79.2157,64.4076,3.91029,-10.2443,5.39598,7.12502,15.7484,-23.9833,-3.89618e-14,1.03368e-14,-24.0633,-1.77185,86.0436,104.48,-0.603882,25.6161,61.889,7.12502,49.7262,83.2543,-26.0664,0.291002,11.9081,40.4248,-7.53745,-5.78921,-5.9934,-10.7806,-7.94468,-8.48664,25.0045,-15.5283,12.5804,-16.7706
-0.522192,18.0393,2.03927,186.728,11.0346,182.944,29.2801,1.83219,-4.45896,3.44383,1.90566,0.834039,-12.487,1.45813,2.72513,-12.8945,0.88196,-0.768891,23.3512,2.04236,1.38395,9.46632,1.37122,0.905244,-8.34896e-15,1.98785e-15,-36.9614,-0.391562,-79.0289,64.7121,3.73592,-10.3576,5.17464,7.12502,15.6393,-24.2132,-8.34896e-15,1.98785e-15,-23.9561,-2.41664,85.9491,104.635,-2.04805,26.4067,60.4469,7.12502,50.4494,81.4305,-25.6341,0.49106,12.154,39.8165,-8.32561,-4.76381,-6.20837,-10.575,-7.74083,-8.18945,24.8399,-15.0849,13.0652,-20.7545
-0.44139,18.0212,2.06362,186.709,11.0912,183.008,29.158,1.87613,-4.48113,3.58395,1.9966,0.933764,-12.2712,1.5054,2.8201,-13.088,0.831894,-0.908387,23.2305,1.91106,1.64426,9.45751,1.31721,1.00214,-1.19271e-15,4.37326e-15,-37.0799,-0.625496,-78.7897,65.1273,3.62524,-10.3748,5.23965,7.12502,15.6227,-24.1495,-1.19271e-15,4.37326e-15,-23.6942,-3.19637,86.1848,104.731,-2.77571,25.1815,59.8733,7.12502,49.3277,81.4419,-25.1702,0.830255,12.3857,39.1031,-9.23129,-4.01219,-5.13697,-10.4356,-7.67718,-7.84693,24.6765,-14.7994,13.2852,-22.1009
-0.360007,18.0097,2.07694,186.689,11.0865,182.916,28.8429,1.8875,-4.72431,3.73655,1.98762,1.0865,-11.9409,1.51479,3.14733,-13.3421,0.869039,-0.961196,23.2423,1.95345,1.66619,9.50822,1.32811,1.02594,-1.94809e-14,-1.98785e-16,-37.1024,-0.57989,-78.5298,65.5246,3.45414,-10.2,4.73408,7.12502,15.791,-24.6418,-1.94809e-14,-1.98785e-16,-23.5914,-3.55064,86.5536,104.805,-4.44992,25.792,63.5808,7.12502,49.8873,84.8625,-24.6796,0.854916,12.5239,38.3078,-10.1157,-3.67316,-5.85462,-10.4253,-7.89293,-7.64853,24.6152,-14.6984,13.505,-21.9452
-0.28452,18.0017,2.0923,186.679,10.92,183.014,28.6745,1.77778,-4.49717,3.75826,1.94224,1.23659,-11.8247,1.48487,3.20879,-12.8854,0.854572,-1.26081,23.0534,1.96437,1.84517,9.35029,1.33077,1.13111,3.18055e-15,6.55989e-15,-37.2768,-0.516764,-78.3144,65.8255,3.31342,-10.1707,4.19165,7.12502,15.8192,-25.182,3.18055e-15,6.55989e-15,-23.7776,-4.16125,87.1263,104.126,-4.41226,21.8511,60.435,7.12502,46.2554,83.4224,-24.1376,0.575852,12.9133,37.5203,-10.8828,-3.81685,-6.82368,-10.4437,-8.26892,-7.24147,24.5542,-14.6661,13.6999,-22.2517
-0.206836,17.9886,2.12213,186.719,10.8463,183.348,28.5667,1.62212,-4.11246,4.0056,1.91787,1.31804,-11.472,1.4645,3.08991,-12.8487,0.891613,-1.33222,22.541,1.91657,2.07657,9.16185,1.30878,1.20518,-2.08724e-15,5.56597e-15,-36.86,-0.642845,-78.4283,65.9402,3.43446,-10.487,4.57571,7.12502,15.5146,-24.8218,-2.08724e-15,5.56597e-15,-23.1895,-4.7733,87.3885,103.208,-4.76243,18.258,58.8574,7.12502,42.909,83.1355,-23.7254,0.393462,13.6081,36.8171,-11.5537,-4.14428,-6.07579,-10.4116,-8.53524,-6.55382,24.4015,-14.4988,13.8858,-22.4014
-0.126085,17.966,2.14669,186.692,11.1659,183.498,28.4148,1.64468,-4.02411,4.10663,1.99588,1.35365,-11.2829,1.49676,3.0527,-13.0251,0.97442,-0.852574,22.7417,2.035,1.65278,9.27307,1.36074,0.998844,-1.49089e-15,-1.96797e-14,-36.7192,-0.616099,-78.5935,66.1274,3.29709,-10.8542,4.73037,7.12502,15.1609,-24.6943,-1.49089e-15,-1.96797e-14,-22.935,-5.36091,87.6931,101.93,-5.48456,14.7229,57.664,7.12502,39.5907,83.0122,-23.469,0.402211,14.1265,36.3069,-12.3511,-4.0262,-4.97019,-10.1094,-8.42977,-6.15389,24.2681,-14.4998,14.0988,-23.2142
-0.0492272,17.949,2.14759,186.577,11.8737,183.635,28.244,1.81027,-3.97728,4.13486,2.22954,1.38647,-11.1835,1.59877,2.97887,-12.8411,0.984954,-0.935673,22.9536,2.09454,1.69929,9.3101,1.39848,1.03839,-5.47652e-14,-4.37326e-15,-36.6626,-0.416594,-78.7096,66.3237,2.7328,-10.864,4.22953,7.12502,15.1515,-25.1958,-5.47652e-14,-4.37326e-15,-22.8457,-6.00012,88.0847,100.205,-6.36045,10.8683,56.5025,7.12502,35.9494,82.8314,-23.1888,0.486421,14.6388,35.9191,-13.145,-3.62668,-4.48459,-9.48363,-8.26376,-5.92773,24.2134,-14.9167,14.5685,-25.0274
0.0318494,17.9327,2.19384,186.668,11.5389,183.769,28.3547,1.54767,-3.63675,4.10936,1.99909,1.46149,-11.244,1.4825,2.95128,-12.7459,1.01013,-1.08749,22.9588,2.12097,1.90256,9.28917,1.42189,1.1358,-1.09332e-15,3.77691e-15,-36.3429,-0.139486,-78.9742,66.4649,2.38839,-10.8614,3.84957,7.12502,15.154,-25.5756,-1.09332e-15,3.77691e-15,-22.4213,-6.6676,88.3378,98.2752,-7.09058,6.39253,55.872,7.12502,31.6973,83.1382,-23.1314,-0.228053,15.3174,35.6155,-13.6819,-3.80105,-5.05358,-9.76589,-8.51859,-5.39156,24.2895,-14.9679,14.5732,-22.8057
0.108733,17.9158,2.22399,186.713,11.4885,184.079,28.3262,1.35041,-3.1568,4.2012,1.91798,1.54838,-11.1081,1.43121,2.80262,-12.7664,1.03133,-0.998292,22.8596,2.13707,1.80655,9.2604,1.42106,1.08753,-3.97569e-15,-1.90833e-14,-35.9276,0.127773,-79.301,66.4809,2.25865,-11.1646,4.3611,7.12502,14.862,-25.0859,-3.97569e-15,-1.90833e-14,-21.8981,-7.28316,88.5827,96.1216,-8.01379,1.41225,54.6402,7.12502,26.9424,82.7395,-22.9814,-0.555122,16.0815,35.3192,-14.0754,-4.076,-5.24787,-9.88063,-8.72783,-4.76997,24.5231,-15.1,14.799,-23.5093
0.183999,17.9081,2.25395,186.728,11.7426,184.423,28.4029,1.28976,-2.72369,4.11314,1.96564,1.62987,-11.2456,1.43507,2.62531,-12.4345,1.06196,-0.787871,22.9773,2.22241,1.57528,9.24345,1.46543,0.981813,-2.13694e-14,1.49089e-14,-35.7905,0.475092,-79.6345,66.3344,2.10976,-11.9856,6.05369,7.12502,14.0709,-23.45,-2.13694e-14,1.49089e-14,-21.7884,-7.74725,88.8559,93.7851,-9.5271,-3.29032,52.3443,7.12502,22.4353,81.0612,-22.8442,-0.435568,16.7818,35.0829,-14.3967,-4.37992,-6.40694,-10.0329,-8.84254,-4.18335,24.9393,-15.2715,15.2487,-20.4693
0.251369,17.903,2.29543,186.655,12.0329,184.49,28.648,1.22462,-2.48672,4.31282,1.98839,1.60619,-11.1343,1.4488,2.44767,-13.2428,1.14814,-0.601155,23.2978,2.33047,1.38581,9.51167,1.50131,0.912508,0,-1.98785e-15,-34.8017,0.697506,-79.9947,66.1979,2.29448,-12.7803,7.55099,7.12502,13.305,-22.0043,0,-1.98785e-15,-20.5802,-7.42956,88.6912,92.0403,-16.5409,1.68073,63.1411,7.12502,27.1992,-91.2005,-22.7783,-0.116134,17.0556,34.9493,-14.7709,-4.3402,-7.47396,-10.2037,-8.96066,-3.95749,25.3598,-15.1484,15.9827,-20.3033
0.316272,17.8939,2.3327,186.588,12.4648,184.461,28.8589,1.21554,-2.41371,4.33597,2.00093,1.59024,-11.2134,1.45476,2.37882,-13.0598,1.25822,-0.35026,23.1605,2.51874,0.97671,9.43631,1.56302,0.746691,1.37161e-14,7.95139e-15,-34.1616,1.15209,-80.3855,66.1474,2.3964,-13.3469,7.66129,7.12502,12.7588,-21.9289,1.37161e-14,7.95139e-15,-19.806,-8.26306,89.0339,88.2776,-14.7249,-11.5314,58.1214,7.12502,14.5085,87.5941,-22.8757,0.544885,17.1165,34.9816,-15.0392,-3.86457,-7.51967,-10.2785,-9.0435,-3.88865,25.7956,-15.1278,16.7142,-20.2263
0.380865,17.8868,2.3588,186.425,13.1096,184.412,28.9614,1.24871,-2.48357,4.47619,2.04336,1.58949,-11.1075,1.48364,2.40084,-13.0556,1.36953,-0.337241,23.0963,2.69967,0.815047,9.41446,1.62608,0.70858,-2.33572e-14,-7.15625e-15,-33.2199,1.83809,-80.8293,65.84,2.12323,-13.5464,7.15537,7.12502,12.5664,-22.4467,-2.33572e-14,-7.15625e-15,-18.9093,-8.95009,89.2923,84.7177,-14.3093,-21.3789,56.4749,7.12502,5.00845,86.3957,-23.0173,1.37118,17.1084,35.2093,-15.2968,-3.2275,-7.77817,-10.1444,-9.11355,-3.92565,26.2973,-15.5393,17.4385,-18.4921
0.44387,17.8723,2.3911,186.247,13.5375,184.633,29.0778,1.1196,-2.13617,4.76004,2.03402,1.57973,-10.8281,1.48218,2.18959,-13.3276,1.4654,-0.217095,23.0352,2.79094,0.752625,9.44647,1.66052,0.679135,-5.86415e-15,1.39149e-14,-31.951,2.43078,-81.4186,65.6664,1.84896,-13.3159,6.26139,7.12502,12.7887,-23.3269,-5.86415e-15,1.39149e-14,-17.8202,-9.5811,89.4039,81.5298,-15.507,-27.9687,58.8386,7.12502,-1.3557,88.8141,-23.1083,1.97352,17.4673,35.5309,-15.525,-3.00583,-9.27555,-10.0407,-9.02999,-3.66393,26.8976,-15.9261,17.983,-17.21
0.506355,17.854,2.43557,186.257,13.6609,184.852,29.0112,0.889283,-1.95141,4.97972,1.85331,1.75299,-10.5324,1.40667,2.34836,-13.3265,1.5614,-0.332307,22.8915,2.96104,0.619545,9.39551,1.70723,0.66963,-5.96354e-16,1.43125e-14,-30.5535,3.36949,-81.8175,65.1837,1.62868,-13.1317,5.49556,7.12502,12.9662,-24.0815,-5.96354e-16,1.43125e-14,-16.8069,-9.72437,89.6189,78.4261,-17.4367,-27.4409,59.1475,7.12502,-0.845928,89.1256,-23.3231,2.28474,17.9006,35.8037,-15.753,-3.00676,-10.617,-10.4257,-8.80892,-3.30999,27.6298,-15.94,18.63,-17.7799
0.567825,17.8398,2.47354,186.196,13.8821,184.874,28.79,0.701266,-2.45897,5.21758,1.54352,2.16824,-10.1487,1.29448,3.23236,-12.7053,1.94338,-0.206062,22.2983,3.63953,-0.274835,9.09101,1.93184,0.402967,1.33186e-14,7.55382e-15,-28.9973,5.02869,-82.0081,64.3377,1.24616,-12.9975,4.96209,7.12502,13.0957,-24.6067,1.33186e-14,7.55382e-15,-15.7072,-9.18054,89.8964,74.9943,-20.0222,-25.888,59.3123,7.12502,0.653902,89.291,-23.4745,2.41951,18.1585,36.0478,-15.9768,-2.8167,-10.7156,-10.7918,-8.73745,-3.23061,28.4946,-16.1272,19.7973,-18.0237
0.629207,17.8305,2.50133,186.018,14.1693,185.238,30.4479,0.585082,-2.02243,4.06251,1.44001,2.36039,-11.5292,1.20224,2.99292,-12.4454,1.94384,-0.100333,23.4025,3.77271,-0.22377,9.42834,2.04875,0.434942,2.45499e-14,9.34288e-15,-29.3026,6.09242,-82.7316,63.8986,0.892057,-12.9441,4.28055,7.12502,13.1471,-25.285,2.45499e-14,9.34288e-15,-16.1592,-9.75849,90.0255,71.5246,-22.6502,-24.9045,58.7378,7.12502,1.60377,88.7115,-23.4022,2.49622,18.8195,36.3042,-16.1411,-2.63611,-10.3303,-10.9238,-8.59959,-2.84183,29.4955,-16.2386,20.8949,-17.1362
0.685175,17.8232,2.5267,185.871,14.1742,185.203,30.2743,0.261162,-2.04862,4.67896,1.06717,2.34206,-11.4793,1.07188,3.37404,-12.6028,2.20465,0.240491,23.4355,4.18956,-0.775651,9.49136,2.20461,0.239761,-4.96962e-15,-7.55382e-15,-27.801,7.30172,-83.2335,63.0901,0.525009,-12.918,3.86744,7.12502,13.1723,-25.6965,-4.96962e-15,-7.55382e-15,-15.0592,-10.2158,90.0442,68.0151,-24.8295,-24.8856,58.669,7.12502,1.62206,88.6426,-23.4214,2.15634,19.0448,36.5778,-16.3343,-2.65514,-10.321,-11.443,-8.1963,-2.87485,30.6457,-16.028,21.3606,-15.7775
0.735354,17.8077,2.55739,185.778,14.0294,184.843,30.2169,-0.0367296,-2.20052,4.78432,0.65112,2.34678,-11.2947,0.889581,3.62889,-12.4607,2.34756,0.444573,23.4001,4.44151,-1.16055,9.46847,2.29846,0.100209,-7.95139e-16,-1.25234e-14,-26.1697,8.1446,-83.6864,61.8457,0.519277,-12.7024,3.48434,7.12502,13.3801,-26.066,-7.95139e-16,-1.25234e-14,-13.9148,-11.0712,90.0576,64.3922,-26.6037,-24.6877,58.1256,7.12502,1.81322,88.0976,-23.5734,1.75264,18.881,36.8817,-16.6074,-2.68204,-9.94694,-12.3088,-7.57484,-3.27047,31.9335,-16.0041,21.3371,-13.633
0.784487,17.7938,2.58544,185.649,14.0114,184.887,30.3685,-0.263801,-2.03449,4.88628,0.452537,2.45417,-11.2364,0.803754,3.73168,-12.5427,2.36897,0.60004,23.5821,4.5098,-1.38343,9.55835,2.31983,0.00973266,3.46879e-14,-1.25234e-14,-24.6152,8.78724,-84.1014,60.4896,0.600893,-12.5415,3.66208,7.12502,13.5351,-25.878,3.46879e-14,-1.25234e-14,-12.768,-12.2098,90.0423,60.7204,-29.2579,-23.2969,59.4907,7.12502,3.15635,89.4471,-23.5925,1.61796,19.136,37.1927,-16.8535,-2.66951,-9.84702,-13.0491,-6.82991,-3.30341,33.4026,-16.0853,21.139,-10.8541
0.834201,17.7935,2.60313,185.336,13.9246,184.724,30.6851,-0.522513,-2.0507,4.65255,0.158874,2.67613,-10.8832,0.651127,3.81201,-12.733,2.46954,0.741267,23.9093,4.71843,-1.6382,9.72352,2.40155,-0.0686836,5.26779e-15,1.89839e-14,-23.1833,9.75497,-84.5292,59.2013,0.380947,-12.7705,3.93627,7.12502,13.3144,-25.6184,5.26779e-15,1.89839e-14,-11.9548,-13.1777,90.0383,57.5071,-33.0833,-20.3281,60.059,7.12502,6.02303,89.9533,-23.4245,1.45244,19.1662,37.4877,-17.04,-2.50068,-9.2621,-13.7058,-6.19151,-3.63271,35.0385,-16.2374,20.8977,-7.92261
0.877609,17.7861,2.61664,184.945,13.8529,184.732,30.9936,-0.838829,-1.924,4.81216,-0.1442,2.80071,-10.8132,0.524834,3.98404,-12.7857,2.59638,0.897265,24.1295,4.98064,-1.98682,9.83021,2.50019,-0.179333,-2.5196e-14,1.73937e-14,-21.6495,10.8283,-84.9314,57.9275,0.646496,-13.2237,3.21573,7.12502,12.8776,-26.367,-2.5196e-14,1.73937e-14,-11.3501,-14.031,90.0182,54.662,-36.4303,-18.0622,59.2931,7.12502,8.21026,89.1136,-23.1195,1.24356,19.375,37.7251,-17.1846,-2.51589,-10.359,-14.285,-5.46056,-3.81919,36.7916,-16.5671,20.4773,-6.29214
0.918528,17.768,2.63864,184.82,13.9413,184.886,31.2848,-1.02474,-1.83121,4.84636,-0.29619,3.04227,-10.8886,0.465391,4.2484,-13.0219,2.65782,1.01596,24.4702,5.17265,-2.35279,10.0155,2.5577,-0.293781,6.95746e-15,3.97569e-15,-20.1997,11.8221,-85.1851,56.8657,1.14977,-13.0792,1.9611,7.12502,13.0169,-27.6128,6.95746e-15,3.97569e-15,-10.8286,-15.0847,90.1045,51.9908,-38.5557,-16.5534,57.5569,7.12502,9.6663,87.3151,-23.1566,1.13381,19.7519,37.9563,-17.2781,-2.76333,-12.7896,-15.123,-4.60409,-3.8397,38.558,-16.5612,20.1358,-5.55818
0.957968,17.7548,2.66773,184.894,13.9812,184.881,31.3403,-1.15108,-1.8384,4.8608,-0.421534,3.26573,-10.8878,0.41406,4.53875,-13.3223,2.65843,1.1219,24.8064,5.28077,-2.72179,10.2119,2.57222,-0.417405,2.37299e-14,-1.61016e-14,-18.8441,12.6522,-85.3622,55.7837,1.24149,-12.7944,1.63931,7.12502,13.2914,-27.9169,2.37299e-14,-1.61016e-14,-10.7457,-15.5142,90.4885,50.5174,-39.8068,-14.776,55.9588,7.12502,11.3808,85.63,-23.4396,1.09884,19.9156,38.1686,-17.3852,-2.83753,-13.5174,-16.2851,-3.85001,-4.03744,40.3204,-16.0214,19.8512,-4.58575
0.994765,17.7479,2.688,184.821,14.0394,184.94,31.4106,-1.3183,-1.59421,4.97263,-0.509021,3.38776,-10.7886,0.37611,4.56601,-13.4299,2.60876,1.12846,24.8907,5.27142,-2.93662,10.2704,2.54153,-0.492484,-2.27733e-14,-4.02539e-15,-17.4104,13.1141,-85.5926,54.3393,1.11565,-12.5887,2.77472,7.12502,13.4896,-26.7684,-2.27733e-14,-4.02539e-15,-10.7099,-16.2069,90.8375,49.4633,-39.4333,-12.7584,55.4757,7.12502,13.326,85.0296,-23.4523,1.18314,20.0974,38.3019,-17.6433,-2.76001,-13.1439,-17.1765,-3.24753,-4.2049,41.9631,-15.8062,19.0964,-3.36199
1.02793,17.7476,2.68979,184.794,14.2637,185.173,31.4171,-1.49039,-1.20061,5.03059,-0.564414,3.518,-10.7281,0.344826,4.5101,-13.3725,2.62509,1.15447,24.9905,5.38301,-3.20257,10.3079,2.56928,-0.575541,4.24281e-15,4.83295e-15,-16.2121,13.7188,-85.9472,53.0172,0.738078,-11.9921,4.0335,7.12502,14.0646,-25.4706,4.24281e-15,4.83295e-15,-11.1005,-16.4515,91.2331,49.081,-38.1398,-9.82634,55.9956,7.12502,16.1509,85.3427,-23.3745,1.25345,20.4591,38.3366,-17.8547,-2.59736,-13.6844,-17.8846,-2.52056,-4.24457,43.4149,-15.8787,17.9373,-4.17793
1.05474,17.7593,2.67367,184.74,14.5106,185.212,31.3989,-1.6422,-0.96489,4.9748,-0.668566,3.65438,-10.7784,0.289624,4.56857,-13.2639,2.65034,0.989312,25.2705,5.57749,-3.40411,10.3971,2.63174,-0.591448,-6.12257e-14,1.86112e-14,-15.5838,14.6288,-86.3047,52.1901,0.243197,-11.8574,4.11074,7.12502,14.1944,-25.3843,-6.12257e-14,1.86112e-14,-11.8266,-16.5515,91.8674,48.9031,-34.5467,-8.87778,56.5131,7.12502,17.0641,85.7837,-23.1546,1.1231,20.5872,38.243,-18.0472,-2.28355,-14.4229,-18.5047,-1.85988,-4.58385,44.6443,-15.8743,16.8558,-6.45051
1.07861,17.7756,2.66154,184.682,14.6181,184.971,31.2618,-1.7757,-0.843901,4.98901,-0.796664,3.70328,-10.6968,0.225157,4.60079,-13.6279,2.57639,0.630791,25.7951,5.61922,-3.34557,10.6512,2.62143,-0.492506,-4.00054e-14,1.97791e-14,-14.9036,15.1282,-86.5415,51.5637,0.439766,-11.7776,4.04624,7.12502,14.2713,-25.4434,-4.00054e-14,1.97791e-14,-12.3902,-16.4427,92.428,48.9954,-31.4595,-7.46701,57.5309,7.12502,18.4216,86.6787,-22.9629,0.925125,20.3982,38.0835,-18.2326,-1.99995,-14.7047,-19.2289,-1.3856,-5.22279,45.6736,-15.7801,15.6733,-7.95558
1.10419,17.7891,2.65174,184.593,14.7909,184.9,31.1059,-1.85966,-0.589486,5.1543,-0.796273,3.7214,-10.4514,0.223089,4.47386,-13.6124,2.55469,1.21446,25.5728,5.63462,-4.15668,10.6108,2.58826,-0.879727,-1.18426e-13,2.127e-14,-13.7868,15.152,-86.7077,50.5926,1.23987,-11.4417,5.01249,7.12502,14.595,-24.454,-1.18426e-13,2.127e-14,-12.8523,-16.1602,92.819,49.3393,-29.2737,-5.77706,58.5585,7.12502,20.0467,87.5443,-22.7078,0.81784,20.4023,37.92,-18.3626,-1.7727,-14.449,-19.8069,-0.877738,-5.64988,46.5838,-15.8894,14.206,-8.72282
1.12764,17.7979,2.64069,184.474,15.1021,184.81,31.2449,-1.85151,-0.524178,5.15932,-0.741853,3.80159,-10.5096,0.251691,4.50562,-14.4247,2.37736,0.861446,26.6525,5.53164,-3.84574,11.152,2.53301,-0.701326,-3.97569e-15,2.74323e-14,-12.9883,15.3029,-86.9002,49.8401,1.88787,-11.2992,5.94542,7.12502,14.7323,-23.5111,-3.97569e-15,2.74323e-14,-13.749,-15.6077,93.3319,49.89,-27.1066,-5.18968,59.1942,7.12502,20.6112,88.1199,-22.4518,0.763783,20.3731,37.731,-18.3401,-1.48565,-13.7742,-20.2593,-0.216359,-6.12265,47.3213,-16.08,12.7542,-10.1531
1.14946,17.7984,2.64453,184.617,15.339,184.775,31.3127,-1.80633,-0.409498,5.02014,-0.638416,3.95643,-10.7042,0.294846,4.57643,-13.9485,2.37547,1.14832,26.2217,5.60273,-4.49985,10.9284,2.53048,-0.985309,4.27387e-15,-9.80008e-14,-12.6203,15.4744,-87.0267,49.6291,2.23803,-11.1514,6.22238,7.12502,14.8746,-23.2236,4.27387e-15,-9.80008e-14,-14.7764,-15.1167,93.9676,50.5033,-24.5939,-5.95281,59.1507,7.12502,19.8777,88.1541,-22.5416,0.853489,20.4171,37.5174,-18.2827,-1.47188,-13.9472,-21.0965,0.461665,-6.49338,47.9677,-16.1558,11.3577,-11.6374
1.16355,17.812,2.60956,184.412,16.3137,184.82,31.1275,-1.56853,-0.256004,5.3704,-0.244798,3.95311,-10.2697,0.483545,4.33184,-14.3302,2.25362,1.12734,26.3275,5.46507,-4.62967,11.0433,2.43712,-1.04227,5.01931e-14,-7.33515e-14,-11.797,15.378,-87.1158,49.318,2.73626,-11.206,6.72313,7.12502,14.822,-22.7268,5.01931e-14,-7.33515e-14,-15.2437,-14.7069,94.278,51.1682,-22.4565,-4.83631,59.5252,7.12502,20.9507,88.4137,-22.1722,1.39938,20.4443,37.3371,-18.3947,-1.20857,-15.2924,-21.0595,1.39596,-6.89881,48.466,-16.5289,10.2909,-12.5048
1.18155,17.8238,2.57855,184.287,17.1605,184.968,31.0523,-1.24565,-0.0020379,5.38467,0.2746,4.1202,-10.2659,0.719911,4.18102,-13.8013,1.9362,0.67259,26.3796,5.19364,-4.65263,10.9385,2.29564,-1.0149,1.98785e-15,-1.78906e-14,-11.7994,14.9838,-87.0422,49.1642,3.22544,-11.2874,7.53612,7.12502,14.7436,-21.9195,1.98785e-15,-1.78906e-14,-16.437,-14.3001,95.0321,51.9925,-20.8438,-4.09053,59.36,7.12502,21.667,88.1676,-21.7742,1.90528,20.5989,37.0507,-18.267,-0.861042,-15.7035,-21.1039,2.19423,-7.1288,48.7575,-16.9522,9.22555,-12.3599
1.21437,17.8209,2.61007,184.692,16.5158,184.834,31.0194,-1.31749,0.102823,5.03586,0.229214,4.46033,-10.646,0.689492,4.51281,-13.5124,1.67657,0.415717,26.5408,5.04956,-4.96526,10.9421,2.192,-1.10376,1.63003e-14,-3.37934e-14,-11.8843,14.5627,-86.9183,49.1691,3.50781,-11.4209,8.36322,7.12502,14.615,-21.1018,1.63003e-14,-3.37934e-14,-17.7741,-13.999,95.8394,52.8257,-19.4883,-4.38951,58.7381,7.12502,21.3799,87.5785,-22.1047,1.59592,20.6214,36.7681,-18.0697,-1.18377,-16.1484,-22.596,2.14237,-7.4163,48.9185,-16.7157,7.88756,-12.3852
1.22601,17.8531,2.53727,184.429,17.1541,184.577,30.4337,-1.14531,0.226609,5.53166,0.460813,4.25439,-10.5428,0.827739,4.46189,-13.4485,1.45419,0.441893,26.7673,4.86806,-5.2469,11.0181,2.09155,-1.23346,-2.76311e-14,-2.42517e-14,-11.9801,14.312,-86.9752,49.232,3.58172,-11.8163,8.87595,7.12502,14.234,-20.6163,-2.76311e-14,-2.42517e-14,-19.0028,-13.8524,96.3581,53.4094,-18.3248,-5.22621,57.6127,7.12502,20.5761,86.5422,-21.4524,1.70897,20.2734,36.4208,-18.337,-0.673626,-16.2888,-22.3245,2.50409,-8.18573,48.7773,-17.1119,7.59162,-13.6594
1.24342,17.8775,2.50172,184.262,17.0084,184.175,30.364,-1.17497,0.322584,5.43179,0.432284,4.22692,-10.6218,0.805331,4.38671,-13.3017,1.23035,0.46339,26.8803,4.59888,-5.323,11.024,1.97396,-1.30149,2.10712e-14,6.36111e-14,-12.2348,14.1058,-87.096,49.3847,3.59596,-12.4723,9.06809,7.12502,13.6018,-20.4676,2.10712e-14,6.36111e-14,-20.3746,-13.7584,96.8259,54.1411,-16.862,-5.76286,56.7653,7.12502,20.0603,85.7498,-21.0295,1.46619,19.853,36.1682,-18.4995,-0.490226,-15.8813,-22.6558,2.40692,-8.97212,48.6063,-17.2373,7.27735,-15.2636
1.26536,17.8946,2.4743,184.052,17.0692,183.882,30.3868,-1.04388,0.365693,5.4457,0.630392,4.28143,-10.6331,0.89999,4.34755,-13.2576,1.02149,0.310592,26.8185,4.35251,-5.38209,10.982,1.84447,-1.32943,-1.39149e-14,-4.92986e-14,-12.2521,13.7584,-86.9913,49.5789,3.47107,-13.2626,9.46251,7.12502,12.84,-20.1226,-1.39149e-14,-4.92986e-14,-21.6202,-13.8331,97.4473,54.9096,-15.2726,-6.28997,56.0384,7.12502,19.5536,85.0752,-20.5829,1.55729,19.58,35.8586,-18.4322,-0.74399,-16.3131,-22.9216,2.55192,-9.5688,48.3515,-17.3022,6.95883,-15.5421
1.28458,17.9016,2.46391,184.03,17.0537,184.013,30.4398,-0.966917,0.743008,5.45528,0.894847,4.45221,-10.6703,1.0221,4.22101,-13.1807,0.739999,0.159168,26.6877,4.00804,-5.50084,10.9059,1.66411,-1.39193,-7.95139e-16,8.98507e-14,-12.2027,13.2266,-86.8839,49.7368,3.28442,-14.3621,10.361,7.12502,11.7799,-19.2877,-7.95139e-16,8.98507e-14,-22.6723,-14.0662,97.9547,55.6542,-13.025,-7.11633,55.5641,7.12502,18.7589,84.6796,-20.3605,1.71708,19.7863,35.6703,-18.3384,-1.69004,-17.3421,-23.4713,2.79042,-9.65771,48.169,-17.2469,6.74365,-15.6353
1.30544,17.9038,2.45748,184.138,16.9201,184.294,30.7835,-0.90831,1.15182,4.91264,1.16675,4.89354,-10.7564,1.10255,4.05791,-13.0058,0.410977,-0.0675438,26.7621,3.66579,-5.61654,10.887,1.48779,-1.43953,-9.93923e-15,-3.26007e-14,-12.4602,12.7322,-86.7587,49.9882,2.99195,-15.4688,10.5278,7.12502,10.7126,-19.179,-9.93923e-15,-3.26007e-14,-23.9368,-13.8264,98.4812,56.8187,-9.9354,-7.43646,55.6322,7.12502,18.451,84.7772,-20.2974,1.95261,20.1748,35.5995,-18.3112,-1.46741,-15.772,-24.1964,2.98267,-9.55044,48.0441,-17.3337,6.64718,-15.6987
1.32997,17.9141,2.44117,184.086,16.7686,184.057,30.8912,-0.741636,1.03953,4.77695,1.38029,5.12124,-10.9824,1.20733,4.28502,-12.9845,0.107054,-0.314132,26.968,3.42387,-5.84015,10.9552,1.34128,-1.50903,-8.74653e-15,9.30312e-14,-12.667,12.2315,-86.51,50.216,2.62813,-16.5544,10.1818,7.12502,9.66532,-19.5765,-8.74653e-15,9.30312e-14,-25.2798,-13.5387,99.125,58.2141,-6.64528,-8.25083,55.7025,7.12502,17.6675,84.9198,-20.2028,2.14731,20.0094,35.507,-18.2823,-2.0297,-15.9546,-24.784,3.02361,-9.99422,47.8061,-17.4356,6.52231,-16.0548
1.35294,17.9059,2.42205,184.016,16.4451,183.853,30.8475,-0.708984,1.03529,4.76747,1.45446,5.2883,-10.9892,1.24935,4.43861,-13.121,-0.151402,-0.433891,27.0407,3.16042,-6.02828,11.004,1.18876,-1.5912,-2.34566e-14,1.27222e-14,-12.6836,11.8266,-86.3612,50.5565,1.97639,-17.2988,9.8554,7.12502,8.94706,-19.9349,-2.34566e-14,1.27222e-14,-26.3772,-13.3314,99.5583,59.2923,-3.87956,-9.436,55.5228,7.12502,16.5267,84.8389,-20.0684,2.15484,19.8659,35.4325,-18.0578,-1.35994,-13.1252,-25.4031,2.92336,-10.3725,47.5023,-17.3413,6.43854,-16.8086
1.37572,17.9201,2.39925,184.06,16.1422,183.813,30.7647,-0.739697,1.16992,4.70902,1.47946,5.42608,-11.0255,1.26007,4.50469,-13.2912,-0.388092,-0.535876,27.1191,2.88681,-6.11607,11.0591,1.04119,-1.64253,-5.84427e-14,1.59028e-14,-12.8148,11.3419,-86.3672,51.1629,1.09227,-17.8376,9.18788,7.12502,8.42709,-20.624,-5.84427e-14,1.59028e-14,-27.4818,-13.0523,99.7248,60.2054,-1.84703,-10.0494,55.7095,7.12502,15.9361,85.0739,-19.8853,2.16138,19.9009,35.2545,-18.0718,-1.29495,-12.7508,-25.9521,2.89339,-10.5719,46.9207,-17.2873,6.51663,-18.147
1.39734,17.9334,2.36915,183.998,15.9499,183.763,30.8351,-0.709412,1.2971,4.57954,1.58106,5.54676,-11.2115,1.30339,4.52828,-13.3297,-0.668306,-0.799885,27.2702,2.57047,-6.05401,11.1108,0.88289,-1.61733,2.38542e-14,1.03368e-14,-13.1893,10.8651,-86.3185,52.0594,-0.143622,-18.5693,8.10582,7.12502,7.72092,-21.7332,2.38542e-14,1.03368e-14,-28.721,-12.7688,99.8701,61.1219,-0.256097,-10.3519,55.7989,7.12502,15.6448,85.1864,-19.4829,2.20511,19.9231,34.8378,-17.9567,-1.62962,-13.0825,-26.2088,2.85839,-10.7826,46.0865,-17.0578,6.69161,-18.4695
1.4182,17.9547,2.31943,183.726,15.6847,183.556,30.7675,-0.73587,1.41712,4.59038,1.59186,5.55656,-11.1686,1.30739,4.46881,-13.2538,-0.885426,-0.959387,27.2563,2.29769,-6.02701,11.0802,0.751717,-1.61537,2.54444e-14,4.45278e-14,-13.5365,10.2213,-86.2722,52.8371,-1.43438,-19.1244,7.75613,7.12502,7.18503,-22.1019,2.54444e-14,4.45278e-14,-29.859,-12.5297,99.9305,62.0721,1.13472,-10.7158,55.7059,7.12502,15.2942,85.1204,-18.7178,2.09378,19.7442,34.3366,-17.9191,-1.70847,-11.7514,-26.1641,2.68036,-11.161,45.1563,-16.7805,6.81641,-16.8989
1.4357,18.0168,2.24123,183.396,15.4232,183.183,30.1568,-0.767115,1.52741,5.12081,1.54241,5.2913,-10.9798,1.3283,4.48312,-13.2737,-1.09785,-1.1113,27.2332,1.98523,-5.88859,11.0627,0.609904,-1.58021,-1.66979e-14,-8.98507e-14,-13.6965,9.29964,-86.2059,53.3721,-2.82134,-19.4896,7.83779,7.12502,6.83256,-22.032,-1.66979e-14,-8.98507e-14,-31.048,-12.3267,99.9686,63.3502,2.26392,-11.0699,55.9479,7.12502,14.9531,85.3881,-17.8038,1.72015,19.3543,33.9228,-18.0496,-1.63521,-11.1963,-25.9859,2.4947,-11.763,44.1886,-16.747,7.04675,-14.8639
1.46329,18.0171,2.24727,183.57,14.9818,183.658,30.5521,-0.790653,1.93044,4.6586,1.74069,5.74233,-11.0067,1.37723,4.33064,-13.4944,-1.34835,-1.19729,27.2907,1.64923,-5.87563,11.118,0.443603,-1.60771,3.4191e-14,-5.40694e-14,-13.7967,8.46118,-86.0752,54.0729,-4.14142,-19.8028,6.55504,7.12502,6.53014,-23.3243,3.4191e-14,-5.40694e-14,-31.9471,-12.3011,99.9827,64.238,3.46661,-11.5782,55.8617,7.12502,14.4634,85.3377,-17.7335,2.33622,20.0399,33.7005,-17.8019,-2.79217,-11.0215,-26.8403,2.44052,-11.2147,43.3942,-16.4161,7.01334,-14.5731
1.48884,17.9943,2.23961,183.659,14.3927,183.778,30.5842,-0.799164,2.12237,4.64139,1.84297,5.9086,-11.0509,1.43027,4.36499,-13.9193,-1.6213,-1.02925,27.4356,1.28132,-6.04983,11.2476,0.261377,-1.75571,-1.74931e-14,5.56597e-14,-13.8348,7.49315,-85.8957,54.8589,-5.22403,-20.1492,4.66362,7.12502,6.1958,-25.2258,-1.74931e-14,5.56597e-14,-32.5739,-12.3123,99.8564,64.9447,4.22021,-11.5383,55.8359,7.12502,14.5019,85.3091,-17.6181,2.54032,20.3047,33.6175,-17.8113,-3.64796,-10.9193,-27.5925,2.2509,-11.0812,42.5646,-16.4934,6.88199,-13.9108
1.5132,18.0014,2.20983,183.509,13.9092,183.555,30.6296,-0.723315,2.10645,4.61685,1.94832,5.92457,-11.1068,1.48218,4.35064,-14.3614,-1.99273,-1.15791,27.9134,0.818027,-5.90059,11.5046,0.0516819,-1.75348,-7.95139e-15,-4.77083e-14,-14.072,6.36515,-85.7217,55.6869,-5.97344,-20.4512,3.39204,7.12502,5.90417,-26.5057,-7.95139e-15,-4.77083e-14,-33.3793,-12.3079,99.7533,65.7088,5.20425,-11.3092,56.2331,7.12502,14.7226,85.6903,-17.2966,2.56934,20.1654,33.6969,-17.9889,-4.03682,-10.1538,-27.8959,2.03342,-11.3707,41.685,-16.7347,6.83329,-12.8393
1.53497,18.0123,2.17171,183.285,13.5381,183.14,30.5487,-0.637961,1.91932,4.63852,1.98027,5.86497,-11.0531,1.5018,4.37686,-14.3111,-2.28249,-1.24863,27.8873,0.414111,-5.86068,11.4715,-0.1324,-1.77782,5.1684e-14,5.725e-14,-14.3992,5.38574,-85.5568,56.7084,-6.55534,-20.6066,2.58599,7.12502,5.75419,-27.3159,5.1684e-14,5.725e-14,-34.1517,-12.1258,99.5627,66.4019,6.8028,-11.652,55.5353,7.12502,14.3923,85.0164,-16.938,2.60741,19.7849,33.6963,-18.0703,-4.23881,-8.81655,-28.0082,1.84467,-11.8906,40.6833,-16.3927,7.08747,-15.6977
1.55623,18.0231,2.13804,183.142,13.0323,183.008,30.3181,-0.703575,1.98912,4.75459,1.92412,5.88349,-10.8198,1.48346,4.37913,-14.2142,-2.53771,-1.5102,27.5876,-0.0162863,-5.61823,11.3254,-0.331519,-1.69782,-1.11319e-14,5.56597e-14,-14.6477,4.43136,-85.3683,57.7594,-7.20117,-20.5201,2.0374,7.12502,5.83772,-27.8622,-1.11319e-14,5.56597e-14,-34.7296,-11.9001,99.2642,66.9934,8.13322,-12.1363,54.6454,7.12502,13.9257,84.1591,-16.5383,2.69634,19.7434,33.5242,-18.063,-4.83647,-8.72637,-28.2329,1.5823,-12.0681,39.5598,-15.6488,7.2852,-18.4451
1.57485,18.0269,2.10331,183.075,12.5745,183.446,30.3144,-0.851585,2.48535,4.77971,1.9631,6.09049,-10.7888,1.5053,4.31409,-14.134,-2.78505,-1.66173,27.405,-0.326987,-5.71096,11.2331,-0.498169,-1.74396,-1.82882e-14,-7.31528e-14,-15.079,3.58214,-85.1049,58.7863,-7.78092,-20.601,1.79825,7.12502,5.75955,-28.1035,-1.82882e-14,-7.31528e-14,-35.3776,-11.6564,99.0544,67.5991,9.49744,-12.3958,54.9939,7.12502,13.6756,84.5246,-16.0123,2.83467,20.3462,33.2369,-18.0592,-5.69792,-9.72028,-28.4032,1.46801,-11.6049,38.3754,-15.1847,7.27867,-19.1301
1.59035,18.0278,2.06844,182.866,12.0673,183.559,30.6008,-0.95785,2.71793,4.65746,1.96492,6.22455,-11.0483,1.50621,4.32895,-14.0824,-3.01624,-1.81925,27.5163,-0.544039,-5.82638,11.2622,-0.616601,-1.78862,1.11319e-14,-5.40694e-14,-15.719,2.66307,-84.7714,59.7996,-8.23339,-20.3342,1.90674,7.12502,6.01721,-27.9878,1.11319e-14,-5.40694e-14,-36.099,-11.2905,98.8146,68.287,11.2922,-12.318,55.2637,7.12502,13.7506,84.7893,-15.4239,2.79672,20.5771,32.9545,-18.0859,-6.17555,-9.09674,-28.4451,1.32031,-11.5028,37.1693,-14.9449,7.25065,-19.0982
1.60765,18.0507,2.03121,182.691,11.44,183.245,30.5825,-1.00041,2.65377,4.57332,1.88638,6.22623,-11.1321,1.46964,4.39609,-14.1717,-3.31231,-2.0811,27.8436,-0.860622,-5.71872,11.4024,-0.765774,-1.75411,-4.85035e-14,-6.83819e-14,-16.2729,1.51261,-84.3771,60.7433,-8.92985,-19.9056,2.53277,7.12502,6.43094,-27.3496,-4.85035e-14,-6.83819e-14,-36.741,-10.9216,98.5209,69.0917,12.8266,-12.2962,54.806,7.12502,13.7715,84.3302,-14.9124,2.62507,20.3182,32.6533,-18.3125,-6.39196,-7.60979,-28.51,0.992296,-11.8728,35.8702,-14.738,7.42304,-19.5926
1.622,18.0564,1.98942,182.6,10.7662,183.111,30.439,-1.0307,2.62819,4.52545,1.8674,6.39878,-11.1356,1.4701,4.60327,-14.1376,-3.65875,-2.54545,28.0078,-1.22643,-5.58198,11.4608,-0.953366,-1.6763,1.98785e-14,-4.77083e-15,-16.7809,0.657001,-83.8443,61.962,-9.60052,-20.2674,1.52122,7.12502,6.08163,-28.3715,1.98785e-14,-4.77083e-15,-37.3178,-10.5256,98.5231,69.7448,13.8417,-12.461,54.1862,7.12502,13.6127,83.7212,-14.4713,2.41996,20.2441,32.4429,-18.5236,-6.64701,-6.26905,-28.5996,0.567162,-12.0538,34.5513,-14.4282,7.82327,-20.867
1.63584,18.0585,1.94717,182.49,10.2613,183.159,30.3621,-1.09127,2.77688,4.5222,1.86555,6.49953,-11.1076,1.47367,4.63061,-14.0516,-3.94861,-2.82269,27.8857,-1.6069,-5.50542,11.3953,-1.14416,-1.64935,1.11319e-14,-1.90833e-14,-17.4064,-0.249226,-83.4294,63.1847,-10.5888,-20.4312,1.90095,7.12502,5.92353,-27.9963,1.11319e-14,-1.90833e-14,-37.8686,-10.2567,98.4107,70.4134,14.7985,-12.5588,54.0818,7.12502,13.5185,83.623,-14.0293,2.45675,20.3985,32.2153,-18.4394,-7.19241,-5.85564,-28.5891,0.282083,-12.0007,33.1818,-14.0449,8.08738,-20.989
1.65333,18.0574,1.9036,182.305,9.80767,183.164,30.5023,-1.10196,2.77193,4.43815,1.88834,6.59961,-11.2708,1.48925,4.73247,-14.0382,-4.23497,-3.15341,27.9455,-1.96952,-5.32286,11.4189,-1.31823,-1.57697,-6.20208e-14,-1.145e-13,-18.2852,-1.04942,-82.9977,64.9013,-12.0748,-20.3349,1.23623,7.12502,6.0165,-28.6583,-6.20208e-14,-1.145e-13,-38.4926,-10.0522,98.2443,71.1362,16.0029,-12.5379,54.5677,7.12502,13.5386,84.1076,-13.5396,2.54327,20.5344,32.0508,-18.3241,-7.79989,-6.0929,-28.5603,0.046404,-11.9603,31.9258,-14.0903,8.16446,-19.4722
1.66908,18.0601,1.85834,182.061,9.22919,183.136,30.4079,-1.16845,2.85042,4.53524,1.85011,6.6319,-11.1183,1.48219,4.73614,-13.9849,-4.52486,-3.30641,27.8617,-2.37719,-5.25442,11.374,-1.51087,-1.57942,-4.6118e-14,0,-18.8381,-1.80243,-82.64,66.4902,-13.3823,-20.7614,0.69093,7.12502,5.60467,-29.215,-4.6118e-14,0,-38.7747,-10.0566,97.9576,71.8534,17.4842,-12.2902,55.3697,7.12502,13.7774,84.8935,-12.9631,2.36056,20.6316,31.9205,-18.33,-8.36594,-6.50244,-28.4621,-0.39379,-11.9219,30.6761,-14.7504,8.13495,-16.9442
1.68671,18.059,1.81926,181.875,8.61634,183.227,30.3395,-1.24125,3.03412,4.66754,1.85352,6.68195,-10.9383,1.49652,4.68483,-14.0037,-4.82919,-3.39021,27.7646,-2.7986,-5.27385,11.336,-1.71575,-1.62914,5.56597e-15,1.74931e-14,-19.2295,-2.62888,-82.2906,68.0543,-14.0509,-21.7004,0.7925,7.12502,4.69807,-29.1354,5.56597e-15,1.74931e-14,-38.9607,-10.0596,97.6691,72.7545,18.912,-12.2829,56.1888,7.12502,13.7844,85.7121,-12.5121,2.42191,20.9008,31.8652,-18.2705,-9.16532,-6.50834,-28.4573,-0.878168,-11.7163,29.4083,-14.9555,8.27267,-15.6556
1.70612,18.0561,1.7742,181.611,8.13541,183.204,30.1691,-1.25111,2.94459,4.90528,1.84437,6.75099,-10.6077,1.51859,4.80663,-13.9494,-5.08875,-3.66117,27.6021,-3.15828,-5.15412,11.2685,-1.89562,-1.58493,-7.15625e-15,-7.63333e-14,-19.5412,-3.4765,-81.9206,69.5503,-13.9514,-22.7703,1.37183,7.12502,3.66495,-28.5764,-7.15625e-15,-7.63333e-14,-39.0166,-9.93399,97.367,73.667,20.1635,-12.3396,56.9198,7.12502,13.7297,86.4468,-12.0552,2.67136,21.037,31.8896,-18.1709,-9.96804,-5.72134,-28.312,-1.26837,-11.6353,28.1168,-14.6913,8.67397,-15.976
1.71844,18.0521,1.73047,181.37,7.55847,182.915,29.6288,-1.29832,2.53299,5.44333,1.63013,6.61324,-10.3825,1.49574,5.35995,-13.4219,-5.32112,-4.22551,27.195,-3.53322,-4.7405,11.0314,-2.07099,-1.36858,-3.18055e-14,-3.02153e-14,-19.904,-4.18494,-81.5798,70.9795,-13.618,-23.4992,1.75512,7.12502,2.96101,-28.2041,-3.18055e-14,-3.02153e-14,-39.0424,-9.58577,97.1148,74.3766,21.2962,-12.48,57.152,7.12502,13.5945,86.6881,-11.6956,2.52987,20.8313,32.0451,-18.1278,-10.5485,-6.09582,-28.2609,-1.84147,-11.85,26.8986,-14.5357,9.17825,-15.9735
1.7278,18.0415,1.69037,181.186,6.86492,182.755,29.4956,-1.43108,2.33251,5.60138,1.43279,6.69633,-10.1225,1.42797,5.64006,-13.5538,-5.537,-4.71663,26.938,-3.87405,-4.36989,10.9839,-2.24763,-1.20035,-2.70347e-14,-4.45278e-14,-20.1398,-5.10158,-81.1553,72.4346,-13.4013,-23.8121,1.10134,7.12502,2.65879,-28.8618,-2.70347e-14,-4.45278e-14,-38.9621,-9.30906,96.9517,74.9329,21.9805,-12.5102,57.0586,7.12502,13.5653,86.5967,-11.4183,2.27821,20.7783,32.2963,-18.1797,-11.2283,-6.79353,-28.2939,-2.50071,-11.933,25.848,-14.498,9.57383,-15.1519
1.73877,18.0165,1.64633,181.039,6.19033,182.843,29.6727,-1.55846,2.35054,5.45189,1.31307,6.7997,-10.3756,1.37869,5.80459,-13.3304,-5.70287,-4.67859,26.9184,-4.02877,-4.64621,10.9256,-2.33551,-1.31857,-3.4191e-14,-6.20208e-14,-21.0609,-6.18248,-80.6505,74.2062,-13.6676,-23.1929,1.37636,7.12502,3.25686,-28.5785,-3.4191e-14,-6.20208e-14,-39.4483,-9.1628,96.8834,75.473,22.1321,-12.3779,57.1531,7.12502,13.6928,86.6826,-11.158,2.13689,21.0129,32.5967,-18.455,-11.939,-5.85225,-28.2595,-2.85284,-11.8378,24.9421,-14.4922,9.70887,-15.3377
1.7497,17.9859,1.60362,180.997,5.58504,183.247,29.6262,-1.70581,2.69006,5.45512,1.2752,6.91695,-10.3459,1.36686,5.75335,-13.2874,-5.85095,-4.51805,26.8837,-4.2174,-4.86188,10.8922,-2.42829,-1.44518,-1.59028e-14,3.33958e-14,-21.6864,-7.32897,-80.2592,75.9497,-14.5153,-23.5612,0.538691,7.12502,2.90114,-29.4213,-1.59028e-14,3.33958e-14,-39.5356,-9.12497,96.6533,76.3346,23.2628,-12.7664,58.2002,7.12502,13.3183,87.7546,-10.9517,2.00216,21.5697,32.8786,-18.9547,-12.3219,-3.85965,-28.3972,-3.18674,-11.3363,24.1441,-14.4352,10.0541,-15.2292
1.75809,17.966,1.56021,180.781,4.92383,183.379,29.1299,-1.89287,2.81278,5.95668,1.10744,6.93985,-9.50737,1.31981,5.73669,-13.7936,-6.03256,-4.62331,26.7747,-4.55587,-4.60607,10.9587,-2.58904,-1.39834,1.27222e-14,4.77083e-15,-21.2851,-8.48022,-80.0436,77.4096,-16.3297,-24.5104,-0.90298,7.12502,1.98442,-30.8735,1.27222e-14,4.77083e-15,-38.8342,-9.22668,96.4011,76.9696,24.0982,-13.9629,57.8786,7.12502,12.1649,87.5049,-10.6041,1.70176,21.8284,33.1572,-19.4433,-12.67,-2.47034,-28.4613,-3.88155,-11.047,23.4045,-14.2468,10.5531,-13.4428
1.7636,17.9539,1.50612,180.47,4.21303,183.28,30.0093,-2.0324,2.86636,5.15589,0.989013,7.10069,-10.2196,1.19481,5.52702,-13.253,-6.24905,-4.90005,27.0787,-4.76584,-4.4879,10.9813,-2.66982,-1.32504,3.65764e-14,4.45278e-14,-22.4871,-9.29553,-79.3788,78.8035,-18.8564,-24.8063,-2.27113,7.12502,1.69862,-32.2441,3.65764e-14,4.45278e-14,-39.8637,-9.04905,96.4656,77.8431,24.6457,-14.7206,57.5503,7.12502,11.4342,87.2185,-10.1738,1.37358,21.8235,33.4131,-19.8171,-13.1842,-1.45032,-28.3934,-4.61315,-11.0557,22.7096,-14.3225,11.0294,-10.1509
1.76543,17.9364,1.45595,180.209,3.61018,183.175,30.4047,-2.10644,2.78001,4.93736,0.893214,7.08869,-10.6251,1.14741,5.60375,-12.9808,-6.40134,-4.88954,27.0446,-4.95074,-4.60239,10.9111,-2.75641,-1.38145,-2.94201e-14,-5.56597e-14,-23.1596,-10.177,-78.6115,79.8404,-21.0896,-23.9997,-2.87828,7.12502,2.47768,-32.8436,-2.94201e-14,-5.56597e-14,-40.302,-8.85773,96.4674,78.7497,25.1778,-15.0264,57.5896,7.12502,11.1393,87.2739,-9.7985,1.05423,21.7874,33.6344,-20.0508,-13.6079,-0.653685,-28.2902,-5.15766,-11.1018,21.9765,-14.6043,11.3752,-5.60657
1.76705,17.9147,1.41214,180.086,3.14576,183.195,30.4274,-2.16105,2.56724,4.96049,0.780646,7.16458,-10.6076,1.10996,5.84292,-12.8201,-6.45213,-4.86049,26.8816,-5.03663,-4.66954,10.8148,-2.79986,-1.41209,-3.4191e-14,1.145e-13,-23.212,-10.7485,-77.9774,80.5345,-22.9889,-22.6113,-2.76295,7.12502,3.81843,-32.7085,-3.4191e-14,1.145e-13,-40.2879,-8.4432,96.455,79.6983,25.7872,-15.1947,58.1662,7.12502,10.977,87.8592,-9.55444,0.841576,21.8622,33.8195,-20.2546,-13.887,0.232103,-28.2991,-5.50693,-11.0081,21.3206,-14.6533,11.7961,-3.19677
1.7638,17.8966,1.3547,179.973,2.68401,183.282,28.6304,-2.34067,2.82834,6.40241,0.550306,6.75662,-8.70097,1.09157,5.68566,-13.6115,-6.59776,-4.67174,26.3476,-5.52357,-4.28705,10.7689,-3.0137,-1.39232,0,-8.11041e-14,-21.7496,-11.8831,-77.9877,81.0291,-24.8459,-21.345,-2.63572,7.12502,5.0412,-32.5558,0,-8.11041e-14,-38.4406,-8.87017,95.9568,80.3419,26.7252,-15.2051,59.144,7.12502,10.9669,88.8376,-9.24156,0.403469,21.9493,34.0118,-20.3677,-14.0738,-0.0919091,-28.3466,-5.78601,-10.909,20.8547,-14.5243,12.2954,-2.49065
1.76169,17.8756,1.28836,179.748,2.274,183.568,28.905,-2.43529,2.79284,6.19947,0.464974,6.90684,-9.06205,1.05647,5.92649,-13.5685,-6.70129,-4.77841,26.6841,-5.54835,-4.40051,10.8889,-3.03444,-1.42419,-5.80451e-14,-9.06458e-14,-22.3854,-11.649,-77.3093,81.566,-26.6433,-20.6322,-3.39898,7.12502,5.72948,-33.3015,-5.80451e-14,-9.06458e-14,-38.8262,-8.44095,96.1359,81.2038,27.5484,-14.8983,60.8661,7.12502,11.2628,-90.5438,-8.76404,0.0748364,22.2705,34.1943,-20.6732,-14.2522,0.725024,-28.3094,-5.90386,-10.6441,20.5612,-14.2563,12.6148,-3.15782
1.76302,17.8475,1.2351,179.575,1.97462,183.852,27.9601,-2.51017,3.25924,6.914,0.478181,6.72768,-7.78779,1.08986,5.38856,-14.122,-6.83083,-4.5511,26.2914,-5.96068,-4.11605,10.8456,-3.20476,-1.43013,-4.37326e-14,-9.06458e-14,-21.084,-12.3797,-77.492,81.5048,-27.9753,-20.6359,-4.40314,7.12502,5.72593,-34.3058,-4.37326e-14,-9.06458e-14,-37.522,-9.15936,95.9137,81.8327,28.7094,-16.1393,58.7064,7.12502,10.0657,88.4456,-8.45701,0.0626641,22.6633,34.3683,-20.9927,-14.7358,0.857221,-28.3913,-5.93649,-10.3294,20.3917,-13.7454,12.9315,-4.97238
1.76114,17.822,1.18538,179.451,1.6911,184.087,27.6446,-2.57553,3.36725,7.19037,0.435777,6.71199,-7.31908,1.08993,5.30545,-14.2671,-6.85725,-4.59057,26.0986,-6.08067,-3.92404,10.8095,-3.25451,-1.37394,2.94201e-14,4.13472e-14,-20.4533,-12.1032,-77.4075,81.7664,-29.4048,-18.8792,-4.21478,7.12502,7.42175,-34.0646,2.94201e-14,4.13472e-14,-36.7642,-9.40983,96.0235,82.3384,29.9682,-17.3931,58.0032,7.12502,8.85599,87.7974,-8.24873,0.109605,23.0072,34.557,-21.1063,-15.4265,-0.0895027,-28.5874,-6.04413,-10.0383,20.37,-13.4182,13.2654,-5.20013
1.75438,17.7976,1.13131,179.268,1.43948,184.387,27.6461,-2.63261,3.43784,7.34687,0.433386,6.77699,-7.14515,1.11047,5.33445,-14.4931,-6.93828,-4.72998,26.095,-6.21409,-3.75203,10.865,-3.31746,-1.31835,-4.05521e-14,-1.74931e-14,-20.3371,-11.4488,-77.0749,82.3376,-30.9204,-18.0203,-4.52661,7.12502,8.25073,-34.3455,-4.05521e-14,-1.74931e-14,-36.0397,-9.53813,96.2395,82.8416,30.6918,-16.9033,61.5295,7.12502,9.32867,-91.3031,-7.95643,0.00722611,23.363,34.8091,-21.2014,-15.7333,0.291784,-28.6853,-6.18337,-9.69621,20.3985,-13.1366,13.5616,-5.22602
1.74142,17.7692,1.07321,179.075,1.1939,184.525,27.661,-2.65885,3.46377,7.46398,0.438991,6.78289,-7.02192,1.1283,5.32112,-14.5752,-6.97193,-4.61927,25.9679,-6.25756,-3.92132,10.8223,-3.35181,-1.40277,2.8625e-14,5.24792e-14,-19.9662,-11.0137,-76.8367,82.3288,-32.2047,-17.5573,-4.81857,7.12502,8.69757,-34.6194,2.8625e-14,5.24792e-14,-35.286,-9.80404,96.536,83.2667,30.9721,-17.2021,60.8938,7.12502,9.04029,-90.6801,-7.59815,-0.188221,23.4922,35.0877,-21.3857,-15.9131,0.66802,-28.7279,-6.17657,-9.64809,20.4887,-12.8815,13.6428,-5.8555
1.72634,17.7429,1.01232,178.935,0.943304,184.385,27.6373,-2.63007,3.29441,7.48657,0.408839,6.6848,-6.98094,1.11198,5.3169,-14.5008,-7.0201,-4.7722,25.7336,-6.39348,-3.68134,10.7363,-3.4082,-1.30372,-1.03368e-14,9.06458e-14,-19.5387,-10.6941,-76.7555,82.0784,-33.2328,-17.1115,-5.13776,7.12502,9.12772,-34.9202,-1.03368e-14,9.06458e-14,-34.6156,-10.21,96.8863,83.5951,31.4949,-19.0767,57.9861,7.12502,7.23115,87.8425,-7.32933,-0.375152,23.2968,35.4034,-21.758,-16.2089,-0.0232802,-28.806,-6.18649,-9.92142,20.6423,-12.8173,13.681,-5.57486
1.71778,17.7154,0.958672,178.781,0.814457,184.536,27.7321,-2.56406,3.22496,7.48898,0.496476,6.71646,-7.03121,1.15931,5.36587,-14.3073,-7.03027,-4.95073,25.4996,-6.44605,-3.49989,10.6273,-3.43075,-1.20511,-1.59028e-15,-2.06736e-14,-19.2734,-10.249,-76.6338,82.0832,-34.2645,-16.3585,-4.98254,7.12502,9.8543,-34.7319,-1.59028e-15,-2.06736e-14,-33.7636,-10.5621,97.2662,83.7869,32.109,-18.2728,58.8579,7.12502,8.00707,88.6862,-7.1318,-0.402489,23.4915,35.7089,-22.1555,-16.5711,-0.546629,-28.9126,-6.0866,-9.81872,20.8722,-12.8068,13.7793,-4.95971
1.71195,17.689,0.907758,178.619,0.820714,184.641,27.9897,-2.3844,3.13139,7.58014,0.739932,6.66543,-7.07265,1.28744,5.28346,-14.7621,-7.05614,-4.69037,25.5201,-6.52031,-3.61092,10.7058,-3.46472,-1.31554,1.59028e-15,5.88403e-14,-18.6296,-10.2964,-76.7765,81.9562,-35.1196,-15.7484,-4.71604,7.12502,10.4428,-34.4367,1.59028e-15,5.88403e-14,-32.3658,-11.2899,97.5528,83.7353,32.8469,-17.9841,59.7756,7.12502,8.28569,89.5931,-6.95608,-0.273106,23.6577,36.0115,-21.1519,-17.5688,-6.79595,-28.9844,-5.93097,-9.72823,21.1389,-12.7248,13.802,-4.5776
1.69702,17.6661,0.84751,178.461,0.887579,184.799,28.1351,-2.32166,3.09695,7.52893,0.808275,6.61893,-7.20564,1.31566,5.23141,-14.4793,-6.92469,-4.58145,25.1291,-6.40759,-3.65219,10.4993,-3.41208,-1.31144,1.03368e-14,-2.54444e-14,-18.0437,-10.0251,-77.048,81.4152,-35.8087,-15.1207,-4.91308,7.12502,11.0483,-34.6023,1.03368e-14,-2.54444e-14,-31.3336,-11.6191,97.9398,83.7464,34.0058,-19.393,59.328,7.12502,6.92577,89.1947,-6.69291,-0.148297,23.8225,36.2902,-20.8432,-18.1773,-9.54365,-29.0617,-5.67131,-9.66444,21.5651,-12.5522,13.6511,-4.84162
1.67682,17.6383,0.785853,178.354,0.773548,184.991,28.927,-2.22274,3.22194,7.04164,1.00182,6.6419,-8.1572,1.38221,5.14431,-14.1767,-6.9397,-4.73799,25.0692,-6.42383,-3.54477,10.4306,-3.41404,-1.23681,-9.54166e-15,1.59028e-15,-18.1137,-9.81133,-76.9932,80.9548,-36.4221,-14.1144,-5.96846,7.12502,12.0187,-35.6034,-9.54166e-15,1.59028e-15,-30.8556,-12.0556,98.7262,83.8073,34.9334,-18.1053,62.6686,7.12502,8.16868,267.509,-6.48455,-0.279265,23.9708,36.5843,-21.0005,-18.3479,-9.83801,-29.2654,-5.45785,-9.63266,22.1078,-12.5392,13.3211,-4.19288
1.65868,17.604,0.724562,178.32,0.607521,185.248,30.7754,-2.12589,3.66029,5.39502,1.28331,6.72285,-10.2626,1.36988,4.56899,-13.1355,-6.95068,-4.73124,25.4891,-6.32264,-3.70013,10.3785,-3.33592,-1.24385,5.56597e-15,-3.18055e-14,-19.5428,-9.49566,-76.932,80.7427,-36.7839,-13.0604,-7.96092,7.12502,13.035,-37.5336,5.56597e-15,-3.18055e-14,-31.514,-12.3811,99.6096,83.9764,35.1582,-15.9976,66.6658,7.12502,10.2025,263.602,-6.38057,-0.408069,24.2022,36.8829,-21.3776,-18.4648,-9.19172,-29.5594,-5.17227,-9.54941,22.67,-12.2917,12.9762,-3.89428
1.63756,17.57,0.660573,178.248,0.440541,185.389,30.7482,-2.11636,3.84909,5.38544,1.3325,6.5993,-10.2526,1.38334,4.31626,-13.0062,-6.84514,-4.50132,25.1077,-6.2852,-3.71648,10.2017,-3.30813,-1.26821,-2.06736e-14,-4.77083e-14,-18.9301,-9.40852,-77.396,80.2249,-36.8051,-11.6377,-5.66115,7.12502,14.4061,-35.1412,-2.06736e-14,-4.77083e-14,-29.7764,-12.8482,99.9365,83.8759,35.1816,-14.8386,66.7168,7.12502,11.3204,263.609,-6.20052,-0.521862,24.291,37.1575,-21.9225,-18.658,-8.79509,-29.7871,-4.74662,-9.68931,23.2906,-11.9803,12.5304,-4.2346
1.61091,17.5458,0.593178,178.194,0.122623,185.262,30.597,-2.12126,3.84065,5.45909,1.27948,6.43075,-10.0955,1.35702,4.15878,-12.9314,-6.74603,-4.4313,24.5385,-6.30703,-3.51586,9.98408,-3.30815,-1.19807,1.59028e-15,1.11319e-14,-18.1786,-9.2292,-77.8911,79.7828,-36.6637,-10.7227,-4.3926,7.12502,15.2876,-33.8076,1.59028e-15,1.11319e-14,-27.9364,-13.571,100.573,83.3149,36.6866,-18.3475,63.1271,7.12502,7.93493,267.042,-5.96898,-0.903422,24.0176,37.3999,-22.7197,-18.5373,-7.5437,-30.009,-4.44192,-10.1907,23.985,-12.061,11.9654,-3.76631
1.5843,17.5262,0.522496,178.178,-0.138533,185.247,30.4306,0.201374,5.19123,5.20085,0.628514,6.54248,-10.1316,-0.671367,4.08679,-12.8711,-6.61318,-4.45028,23.9418,-6.24744,-3.34645,9.76468,-3.28151,-1.11505,-9.54166e-15,5.08889e-14,-17.4219,-8.84726,-78.3481,79.3987,-36.4782,-10.1083,-3.57328,7.12502,15.8793,-32.9422,-9.54166e-15,5.08889e-14,-25.9497,-14.038,101.277,82.6053,37.4154,-21.6712,54.4284,7.12502,4.7263,444.356,-5.7303,-1.22028,23.8713,37.5917,-23.8898,-18.2153,-4.91421,-30.2852,-4.20338,-10.5138,24.7403,-11.3402,11.5607,-4.3998
1.55341,17.5059,0.45386,178.284,-0.421515,185.116,30.1989,0.215848,5.06528,5.48006,0.625319,6.28976,-10.4028,-0.602901,4.1831,-12.653,-6.47358,-4.53529,23.1636,-6.22019,-3.0435,9.46091,-3.26281,-0.971648,-1.19271e-14,-7.31528e-14,-16.7432,-8.42164,-78.8671,78.9661,-36.0439,-9.78887,-2.90908,7.12502,16.1869,-32.2532,-1.19271e-14,-7.31528e-14,-23.9774,-14.4301,102.018,81.7359,37.7375,-24.3111,46.2576,7.12502,2.17695,436.226,-5.63055,-1.46887,23.6052,37.797,-24.2094,-18.3358,-5.51241,-30.7424,-3.95931,-10.988,25.574,-8.58168,11.2985,-10.1945
1.52256,17.4838,0.396952,178.422,-0.945678,184.94,30.0494,0.132638,5.10753,5.552,0.514229,6.09457,-10.2383,-0.647187,3.96144,-12.8963,-6.3757,-4.54352,22.4591,-6.31176,-2.55003,9.27525,-3.28578,-0.811055,-1.19271e-15,-4.92986e-14,-15.6033,-8.1861,-79.6276,78.4256,-35.4307,-9.50221,-2.67968,7.12502,16.463,-32.0012,-1.19271e-15,-4.92986e-14,-21.6804,-14.7858,102.5,81.0434,37.749,-26.1882,39.6124,7.12502,0.364001,429.592,-5.59584,-1.87405,23.2999,38.0143,-23.5704,-18.9791,-9.74683,-31.4155,-3.85876,-11.5374,26.5909,-7.87836,10.9832,-9.98891
1.50011,17.4594,0.343748,178.435,-1.40575,184.933,30.1251,0.110722,5.20389,5.68584,0.483246,5.97531,-10.1153,-0.671415,3.77545,-13.7567,-6.28708,-4.53965,22.3362,-6.3279,-2.11092,9.40602,-3.27351,-0.694282,0,-1.59028e-14,-14.441,-7.83649,-80.3837,78.0582,-35.0078,-9.53324,-2.14593,7.12502,16.4331,-31.4699,0,-1.59028e-14,-19.3778,-15.0327,102.944,80.635,37.393,-27.6337,34.231,7.12502,-1.03217,424.208,-5.49237,-2.12715,23.2615,38.2597,-23.1588,-19.6029,-12.5763,-32.0136,-3.79169,-11.8145,27.6702,-7.72666,10.789,-7.32638
1.48284,17.4342,0.282942,178.415,-1.69475,185.252,30.7695,0.146078,5.4006,5.14418,0.690925,6.19388,-10.3196,-0.624513,3.58228,-14.462,-6.14647,-4.51902,22.4993,-6.13667,-2.03918,9.5942,-3.18412,-0.676375,2.06736e-14,5.56597e-14,-13.9011,-7.28644,-80.8792,77.888,-34.8234,-9.42655,-1.33093,7.12502,16.5358,-30.6464,2.06736e-14,5.56597e-14,-16.836,-15.3065,103.679,78.9752,36.8328,-28.8708,29.2016,7.12502,-2.22691,419.17,-5.37242,-2.12545,23.6586,38.4615,-23.2919,-20.0938,-12.6395,-32.5585,-3.5852,-11.6485,28.7158,-8.20358,10.5442,-2.52675
1.46336,17.4126,0.215159,178.413,-2.00325,185.469,30.7564,0.111424,5.64645,5.22551,0.69856,6.0776,-10.2082,-0.630052,3.31999,-14.5288,-5.84048,-3.98964,21.5954,-5.91565,-2.1644,9.26023,-3.07828,-0.764188,5.56597e-15,3.33958e-14,-13.0237,-6.71484,-81.7698,77.7138,-34.6383,-9.56731,-0.870527,7.12502,16.4003,-30.1972,5.56597e-15,3.33958e-14,-14.1993,-15.5453,104.085,77.5877,35.7547,-29.9983,25.0537,7.12502,-3.3158,415.008,-5.24913,-2.14423,23.921,38.6834,-24.4541,-20.221,-9.73299,-33.0173,-3.34091,-11.6117,29.5909,-6.49129,9.64712,-11.1502
1.4398,17.3945,0.148254,178.409,-2.50086,185.597,30.8204,-0.00867117,5.86468,5.24743,0.610344,5.93637,-10.1946,-0.674324,3.08393,-14.0729,-5.52587,-3.3971,20.0955,-5.75932,-2.25706,8.63181,-2.99963,-0.832605,3.45885e-14,7.71285e-14,-12.1225,-6.00015,-82.6044,77.3256,-34.0479,-9.80727,-0.506005,7.12502,16.1692,-29.8516,3.45885e-14,7.71285e-14,-11.61,-15.6009,104.537,76.1453,33.9563,-31.103,22.0203,7.12502,-4.38263,411.955,-5.02279,-2.30036,24.0597,38.772,-23.5734,-21.1947,-14.0171,-33.4659,-3.10252,-11.7353,30.3576,-6.43792,8.82829,-10.0988
1.42218,17.3688,0.102315,178.731,-3.90213,185.518,30.6451,-0.445659,5.98241,4.98719,0.174441,5.81318,-10.3995,-0.841373,3.04545,-13.3062,-4.60775,-3.2374,18.8937,-5.89245,-1.88796,8.08769,-3.41483,-0.760183,5.08889e-14,1.01778e-13,-11.4969,-5.19802,-83.4356,77.0739,-33.7296,-10.4413,-0.518911,7.12502,15.5586,-29.9131,5.08889e-14,1.01778e-13,-9.44123,-15.5626,105.168,74.7592,31.4051,-32.3693,20.1904,7.12502,-5.60527,410.096,-5.20031,-3.16873,23.9767,38.8818,-24.1977,-21.5306,-12.9855,-34.511,-3.25816,-12.248,30.9849,-5.61235,7.57697,-10.7727
1.375,17.3666,-0.00670033,178.826,-3.81753,185.439,30.0845,-0.372941,5.97392,5.39439,0.221745,5.5012,-10.4121,-0.761738,2.8859,-13.1303,-4.60708,-3.46577,18.2766,-5.91451,-1.21843,7.87942,-3.34851,-0.485123,2.38542e-15,-6.59965e-14,-11.0209,-4.201,-84.259,76.9959,-33.4659,-11.0371,-0.898625,7.12502,14.9848,-30.3365,2.38542e-15,-6.59965e-14,-7.25478,-15.6269,105.79,73.2345,28.334,-33.8538,19.2881,7.12502,-7.0384,409.151,-4.86959,-3.04504,23.7223,38.8753,-25.8749,-20.7768,-7.7893,-34.594,-2.69009,-12.6216,31.5087,-5.26642,7.15041,-10.6538
1.35511,17.3511,-0.0806889,178.895,-4.15785,185.641,30.252,-0.418616,6.01124,5.28973,0.221261,5.49097,-10.6171,-0.756417,2.86397,-13.1061,-4.52703,-3.66386,17.4814,-5.77783,-0.686152,7.63331,-3.21304,-0.24584,1.59028e-14,1.51076e-14,-10.3799,-2.90843,-85.0544,76.5079,-32.681,-11.7179,-0.220254,7.12502,14.3289,-29.7058,1.59028e-14,1.51076e-14,-4.5561,-15.9253,106.276,71.2345,24.9242,-35.6543,19.7135,7.12502,-8.77625,409.511,-4.64132,-3.02905,23.986,38.9108,-26.2057,-21.1023,-7.36853,-34.8784,-1.78644,-12.7893,31.9765,-4.57459,6.00132,-12.3696
1.32118,17.3451,-0.161062,178.999,-4.43018,185.393,30.2011,-0.407339,5.78109,5.29558,0.171972,5.34825,-10.5894,-0.760445,2.84576,-13.2828,-4.44686,-3.89954,16.6874,-5.60415,-0.240528,7.42158,-3.07015,-0.0328706,-2.38542e-15,-3.26007e-14,-9.31856,-1.50454,-85.8402,75.9292,-31.6004,-12.7631,0.413394,7.12502,13.3215,-29.1408,-2.38542e-15,-3.26007e-14,-2.27028,-16.1964,106.769,69.7446,21.1497,-37.1373,21.2074,7.12502,-10.2071,410.94,-4.36503,-2.97371,23.6757,38.9004,-25.7943,-21.802,-9.49039,-35.0592,-1.21716,-13.3971,32.4425,-4.03503,5.28719,-14.4499
1.2837,17.3345,-0.244531,179.074,-4.50842,185.049,30.0747,-0.286048,5.47142,5.42401,0.199288,5.18544,-10.3829,-0.734246,2.81317,-13.9804,-4.41794,-4.11995,16.1739,-5.46845,0.112476,7.38992,-2.95402,0.124867,1.63003e-14,1.43125e-14,-8.03396,-0.0998814,-86.5599,75.4775,-30.3847,-13.9263,0.754895,7.12502,12.2002,-28.8693,1.63003e-14,1.43125e-14,0.297809,-16.232,107.342,67.8635,16.8832,-38.1306,22.8854,7.12502,-11.1652,412.568,-4.09473,-2.74635,23.2354,38.9802,-27.6669,-20.9829,-2.35701,-35.1441,-0.624071,-14.0571,32.8987,-3.53856,4.85771,-15.2275
1.2488,17.3261,-0.330995,179.178,-4.5344,184.837,29.9442,-0.166872,5.18616,5.47324,0.255748,5.06995,-10.2672,-0.69153,2.81432,-14.3124,-4.29635,-4.15816,15.5375,-5.26044,0.390583,7.24392,-2.8056,0.246807,7.95139e-16,-2.38542e-15,-7.20397,1.22076,-87.226,75.3079,-28.7462,-17.8482,1.93129,7.12502,8.41679,-27.881,7.95139e-16,-2.38542e-15,2.93912,-15.8584,108.007,65.4717,12.4268,-38.8136,23.9104,7.12502,-11.8239,413.557,-3.97848,-2.45989,22.9807,39.159,-25.5386,-22.4919,-10.5428,-35.2596,-0.0201235,-14.5159,33.3295,-2.90138,4.66212,-15.2866
1.21945,17.3168,-0.411442,178.92,-5.03121,185.007,30.3181,-0.320763,5.34615,5.39057,0.14628,5.06769,-10.5444,-0.749109,2.77964,-13.7944,-4.0857,-3.94989,14.4638,-4.98676,0.389509,6.794,-2.64469,0.268194,1.27222e-14,6.04305e-14,-6.95094,1.98593,-87.8459,75.5923,-27.8983,-18.911,1.66371,7.12502,7.39103,-28.1872,1.27222e-14,6.04305e-14,4.52625,-14.2608,108.778,64.4467,10.6742,-37.5621,21.5101,7.12502,-10.6169,411.222,-3.53444,-2.41964,23.2175,39.4806,-25.4866,-22.9022,-10.1387,-35.1121,0.297021,-14.5739,33.826,-2.22671,4.54139,-12.4261
1.19078,17.3024,-0.490254,178.667,-5.53021,185.218,30.991,-0.501067,5.64331,4.82167,0.101369,5.18678,-10.7313,-0.818028,2.58829,-13.4246,-3.94817,-4.02948,13.5093,-4.77024,0.469261,6.42351,-2.52183,0.348036,-3.57812e-14,-7.95139e-16,-6.47968,2.3712,-88.5167,75.6237,-27.3584,-20.6971,-0.072522,7.12502,5.66678,-29.9767,-3.57812e-14,-7.95139e-16,5.56403,-13.2076,109.023,65.0405,12.6992,-35.1508,18.846,7.12502,-8.29028,408.663,-3.18791,-2.33363,23.5046,40.0183,-26.855,-22.3036,-4.20716,-34.9761,0.709695,-14.61,34.3488,-1.76649,4.35203,-9.58645
1.16112,17.2957,-0.582508,178.918,-5.35456,185.403,30.8402,-0.338979,5.67216,4.66838,0.368125,5.21904,-10.8428,-0.680114,2.50737,-13.5541,-3.87704,-4.15455,12.8501,-4.6179,0.539174,6.23641,-2.43315,0.41066,-9.54166e-15,-6.2816e-14,-5.51446,2.27814,-89.1889,75.3502,-27.1021,-22.8195,0.190693,7.12502,3.61742,-29.7584,-9.54166e-15,-6.2816e-14,5.2058,-12.1022,109.552,66.8515,13.751,-32.5395,17.3389,7.12502,-5.76966,407.24,-3.54399,-1.72439,23.7488,40.7665,-27.2086,-22.0598,-2.00284,-35.268,1.7632,-14.65,34.8742,-1.56718,3.86667,-10.5099
1.12497,17.2971,-0.68161,179.089,-5.35121,185.29,30.7625,-0.261104,5.60753,4.48777,0.506435,5.11818,-11.015,-0.59263,2.38225,-13.4486,-3.83399,-4.09229,11.9408,-4.53125,0.445799,5.9239,-2.38025,0.391861,-1.43125e-14,-1.82882e-14,-4.614,1.81879,-89.9095,75.2621,-26.5316,-23.9878,0.808561,7.12502,2.48918,-29.1567,-1.43125e-14,-1.82882e-14,6.48549,-12.9401,108.847,67.1888,15.9272,-31.4548,17.6459,7.12502,-4.72226,407.573,-3.92344,-1.30193,23.5876,41.8028,-26.1704,-22.657,-4.98906,-35.4001,2.63184,-15.0793,35.3583,-1.56885,3.0584,-12.1667
1.08259,17.2951,-0.777977,178.877,-5.81816,185.021,31.1541,-0.449477,5.58774,4.2788,0.332833,4.99973,-11.4135,-0.662771,2.34335,-13.673,-3.59814,-4.27308,11.6697,-4.15582,0.465966,5.87188,-2.1983,0.460877,3.10104e-14,3.97569e-14,-4.9376,1.18476,-90.7733,77.0264,-25.3895,-24.4416,1.53626,7.12502,2.0509,-28.4336,3.10104e-14,3.97569e-14,7.43322,-14.0624,107.786,67.9585,17.3259,-31.0496,19.5448,7.12502,-4.331,409.481,-3.90724,-1.26933,23.2343,43.0657,-24.7104,-23.4373,-8.61491,-35.0843,3.01057,-15.702,35.7526,-1.67116,1.92312,-11.7606
1.0503,17.3014,-0.867476,178.889,-5.42005,184.92,31.3841,-0.195706,5.26294,4.10044,0.623882,5.04592,-11.7282,-0.509071,2.46533,-13.6894,-3.34029,-4.33935,11.1261,-3.7383,0.11246,5.6879,-2.01917,0.403039,3.97569e-16,8.98507e-14,-4.96033,1.02303,-91.2423,78.4635,-24.2697,-24.7699,2.07753,7.12502,1.73381,-27.8952,3.97569e-16,8.98507e-14,8.24923,-15.5882,106.537,69.0727,18.4904,-31.0571,22.552,7.12502,-4.33825,412.488,-4.4525,-0.392088,23.1014,44.628,-23.5602,-23.2473,-7.89983,-34.8709,4.08333,-16.0332,36.0499,-1.7032,0.817091,-9.86668
1.01267,17.3165,-0.960417,178.684,-5.71827,184.876,31.7457,-0.232813,5.29873,3.96282,0.64447,5.12528,-12.0377,-0.503135,2.53561,-11.156,-2.8842,-5.31615,8.03775,-3.18927,1.07946,4.3271,-1.68482,0.965457,1.51076e-14,-6.2816e-14,-4.63793,1.04787,-91.3724,79.6771,-23.0118,-24.8471,2.01417,7.12502,1.65926,-27.9591,1.51076e-14,-6.2816e-14,9.95945,-17.4811,104.953,69.3773,19.7086,-31.3612,25.8363,7.12502,-4.63192,415.766,-4.88465,-0.121205,23.0059,46.3933,-22.0389,-23.2265,-8.98996,-34.524,4.56563,-16.3846,36.3025,-1.62071,-0.151598,-7.5601
0.967399,17.3267,-1.04622,178.619,-6.14005,184.673,32.0485,-0.350787,5.30057,3.76105,0.565227,5.11906,-12.3942,-0.531302,2.5696,-9.98792,-2.67351,-5.0852,5.89145,-2.97293,0.58766,3.81841,-1.58162,0.909247,8.74653e-15,8.50798e-14,-4.24862,1.21492,-91.3976,80.8376,-21.7022,-24.7372,1.13967,7.12502,1.76538,-28.8328,8.74653e-15,8.50798e-14,11.4052,-18.9534,103.42,69.78,20.4117,-31.2491,28.8506,7.12502,-4.52365,418.782,-5.65985,-0.0613615,22.6551,48.4074,-20.3789,-22.9957,-9.77152,-34.2826,4.67583,-16.8973,36.545,-1.68961,-0.584375,-6.23027
0.918087,17.331,-1.13805,178.511,-6.39016,184.558,32.268,-0.423889,5.30605,3.61182,0.525984,5.14205,-12.6572,-0.544509,2.61567,-10.4195,-2.53274,-4.82394,5.66748,-2.76125,-0.00343059,3.79851,-1.4997,0.675319,-1.51076e-14,2.46493e-14,-3.76466,1.72501,-91.3017,81.8585,-20.4019,-25.4586,1.78953,7.12502,1.06868,-28.1875,-1.51076e-14,2.46493e-14,12.9052,-20.0923,101.879,70.0743,21.2362,-30.7812,31.6378,7.12502,-4.07185,421.579,-6.47918,0.0128215,22.3368,50.5219,-18.3711,-22.7193,-10.7292,-33.9011,4.82581,-17.2903,36.7281,-1.85796,-0.787677,-5.43582
