JuanDHNZ/ProyectoFinalCD/preprocessing/sports_trials_csv/06_10.csv
root1,root2,root3,root4,root5,root6,lowerback1,lowerback2,lowerback3,upperback1,upperback2,upperback3,thorax1,thorax2,thorax3,lowerneck1,lowerneck2,lowerneck3,upperneck1,upperneck2,upperneck3,head1,head2,head3,rclavicle1,rclavicle2,rhumerus1,rhumerus2,rhumerus3,rradius1,rwrist1,rhand1,rhand2,rfingers1,rthumb1,rthumb2,lclavicle1,lclavicle2,lhumerus1,lhumerus2,lhumerus3,lradius1,lwrist1,lhand1,lhand2,lfingers1,lthumb1,lthumb2,rfemur1,rfemur2,rfemur3,rtibia1,rfoot1,rfoot2,rtoes1,lfemur1,lfemur2,lfemur3,ltibia1,lfoot1,lfoot2,ltoes1
-1.34681,17.8807,46.5181,-179.119,8.4775,-175.293,21.1403,0.150697,4.63241,3.89232,2.97166,6.70324,-7.74965,1.87541,3.79977,-11.8782,-3.13029,-2.65535,19.8618,-2.25845,-3.77508,8.11066,-1.36789,-1.00901,-2.70347e-14,-7.95139e-15,-8.19758,-31.8998,-64.1089,27.8179,6.00987,-7.2364,0.13308,7.12502,18.6434,-28.9935,-2.70347e-14,-7.95139e-15,-40.4601,0.647605,89.4941,46.1754,6.04572,-6.24824,51.6384,7.12502,19.5937,80.671,1.19433,5.45116,29.6779,29.0044,-24.829,-14.5236,6.84217,-34.0322,-4.61623,-14.9255,39.4372,-5.12499,6.44728,-3.19251
-1.33426,17.8728,46.4565,-178.882,8.00022,-174.994,22.1418,0.158495,4.64791,3.3008,3.16862,7.06199,-8.97384,1.9613,4.13153,-11.3825,-3.21575,-2.85528,19.9262,-2.2887,-3.86905,8.04558,-1.38493,-1.00067,-2.78299e-14,-6.04305e-14,-9.36312,-34.2899,-63.0224,26.1471,2.16289,-8.14537,-1.39655,7.12502,17.769,-30.6047,-2.78299e-14,-6.04305e-14,-41.3328,0.579194,89.8109,46.7195,6.02604,-6.08285,51.6169,7.12502,19.7527,80.6332,1.67714,5.41849,30.1458,28.1069,-24.6464,-14.8882,7.44667,-34.5663,-4.96653,-14.4108,37.8132,-4.02855,6.31183,-3.78445
-1.34427,17.9,46.3199,-178.751,8.7992,-175.154,21.346,0.483766,4.6062,3.69137,3.48637,7.03466,-8.12755,2.12956,4.03571,-11.2805,-3.20784,-2.87086,19.5449,-2.3243,-3.85541,7.90008,-1.40536,-0.991664,3.1408e-14,1.59028e-14,-9.45778,-38.2204,-62.6902,24.4301,0.618611,-9.08025,-2.1524,7.12502,16.8692,-31.4397,3.1408e-14,1.59028e-14,-41.134,0.548651,89.8018,47.2835,6.19647,-5.8158,51.6649,7.12502,20.0094,80.6546,2.5021,5.86607,29.7351,27.1068,-24.4628,-14.4094,7.1982,-34.4007,-5.27112,-14.284,36.1587,-4.25806,7.33161,-2.65504
-1.35063,17.9079,46.207,-178.693,9.00706,-175.201,21.3386,0.585259,4.62511,3.66941,3.64068,7.12611,-8.16096,2.20675,4.08262,-10.8214,-3.23015,-3.03896,19.3453,-2.32082,-3.9202,7.75416,-1.40805,-0.973849,1.03368e-14,-2.22639e-14,-10.4258,-41.6247,-61.7904,23.2779,-0.750362,-10.0021,-2.81897,7.12502,15.9816,-32.1797,1.03368e-14,-2.22639e-14,-41.3438,0.778531,89.7865,47.5196,6.31802,-5.69301,50.9938,7.12502,20.1274,79.9711,3.27227,5.897,29.5664,26.2627,-24.2389,-14.2423,6.31422,-34.3413,-5.69337,-14.0825,34.5651,-4.14576,7.94089,-2.82579
-1.35357,17.908,46.0992,-178.47,9.00802,-175.122,20.9528,0.56621,4.91261,3.86565,3.64877,7.12201,-7.72251,2.21871,3.91649,-10.9456,-3.18146,-3.04043,19.0921,-2.30897,-3.82819,7.69356,-1.40348,-0.942469,-3.57812e-14,-1.62208e-13,-11.0865,-44.884,-61.3669,22.5909,-2.37188,-11.8302,-3.73164,7.12502,14.2206,-33.2248,-3.57812e-14,-1.62208e-13,-41.0416,0.962101,89.5437,47.6868,6.58683,-5.81121,50.3382,7.12502,20.0138,79.3275,3.81211,5.88969,29.5774,25.4974,-23.8981,-14.2793,5.49381,-34.4871,-6.17216,-13.712,32.9921,-4.52473,8.36859,-2.24873
-1.34943,17.9048,46.0042,-178.275,8.78804,-175.204,20.882,0.62839,4.96927,4.02979,3.73637,7.0788,-7.50152,2.26981,3.81285,-11.6242,-3.24675,-2.91035,19.1482,-2.4426,-3.75525,7.83114,-1.47225,-0.967109,-3.4191e-14,-2.22639e-14,-12.0476,-48.0169,-60.7404,22.3239,-3.58859,-13.5567,-4.39907,7.12502,12.5565,-34.0018,-3.4191e-14,-2.22639e-14,-40.4988,0.80998,89.3644,47.7284,6.99093,-6.10286,49.7861,7.12502,19.7335,78.8044,4.19999,5.90082,29.4951,24.9851,-23.899,-14.3096,5.26212,-34.7419,-6.59205,-13.5462,31.5948,-4.98515,8.47738,-1.33091
-1.33916,17.8982,45.9185,-178.028,8.43522,-175.235,20.7923,0.570748,4.95174,3.92394,3.65449,7.12404,-7.57102,2.22746,3.89704,-10.8544,-3.18919,-3.07095,18.5056,-2.45434,-3.53137,7.48654,-1.45835,-0.847979,3.18055e-15,4.77083e-14,-13.7203,-49.928,-59.6573,22.3639,-4.67145,-14.9676,-4.48662,7.12502,11.196,-34.1679,3.18055e-15,4.77083e-14,-40.7167,1.09968,89.0623,48.0496,7.22318,-5.78805,49.9279,7.12502,20.0361,78.9149,4.5093,5.84916,29.5258,24.5066,-23.5718,-14.399,4.01137,-35.1124,-7.07189,-13.2928,30.3656,-5.4059,8.40579,-0.202878
-1.33466,17.8943,45.8201,-177.765,8.2234,-175.193,21.3733,0.634827,4.87105,3.56553,3.81336,7.27446,-8.30119,2.2923,4.05674,-10.9032,-3.25753,-3.09351,18.5669,-2.48952,-3.72053,7.51385,-1.49052,-0.91049,9.54166e-15,7.95139e-14,-16.0062,-50.8198,-57.9953,22.7537,-6.45064,-16.2954,-4.31597,7.12502,9.91513,-34.0625,9.54166e-15,7.95139e-14,-41.2884,1.42402,88.9685,48.3841,7.39263,-5.78205,50.2182,7.12502,20.0419,79.2045,4.86637,5.9964,29.6057,24.1034,-23.2865,-14.3434,2.99651,-35.3438,-7.66395,-12.89,29.2251,-6.05629,8.54585,1.411
-1.32927,17.8911,45.7044,-177.612,8.2324,-175.053,21.0803,0.682553,5.06426,3.95585,3.91283,7.30391,-7.70936,2.36686,3.95377,-11.9764,-3.28869,-2.89708,18.6229,-2.52874,-3.90722,7.71772,-1.54201,-1.02941,2.54444e-14,1.25632e-13,-17.0078,-51.9488,-57.5655,23.4625,-8.50579,-17.2671,-4.32984,7.12502,8.9776,-34.1188,2.54444e-14,1.25632e-13,-40.5121,1.63558,88.7086,48.2988,7.9104,-6.1259,50.5631,7.12502,19.7113,79.5838,5.41585,6.48612,29.8105,23.7111,-23.3636,-14.0489,3.76202,-35.4131,-8.15359,-12.399,28.222,-6.1779,8.85927,-0.234987
-1.32643,17.8904,45.588,-177.478,8.18213,-175.216,21.0214,0.750522,4.926,4.0121,3.95481,7.27175,-7.62315,2.39022,3.98653,-12.2587,-3.29397,-2.90006,18.6001,-2.55782,-3.8282,7.76141,-1.55798,-1.0115,-7.95139e-16,-6.36111e-15,-18.8034,-52.2219,-56.6397,24.4642,-10.9453,-17.4957,-4.057,7.12502,8.75703,-33.8553,-7.95139e-16,-6.36111e-15,-40.4309,2.09356,88.3627,48.2254,8.41138,-6.42026,50.6996,7.12502,19.4283,79.749,5.91831,6.85025,29.657,23.305,-23.3777,-13.9525,3.88151,-35.6239,-8.52731,-12.3698,27.393,-5.9798,9.16777,-3.94591
-1.32298,17.8822,45.4761,-177.479,8.00262,-175.413,21.2073,0.698864,4.71828,3.89038,3.85244,7.26412,-7.86335,2.33578,4.12196,-11.779,-3.21605,-3.07922,18.2733,-2.47665,-3.70314,7.5734,-1.51143,-0.92018,7.95139e-15,8.5875e-14,-20.9354,-51.5855,-55.5034,25.5863,-13.6064,-18.3424,-4.24636,7.12502,7.93986,-34.0772,7.95139e-15,8.5875e-14,-40.8833,2.61678,87.9335,48.263,9.1584,-6.58541,50.5637,7.12502,19.2695,79.629,6.60372,7.07669,29.5231,22.7909,-23.1489,-14.1466,3.06406,-35.7727,-8.80966,-12.4833,26.8384,-5.59081,9.16385,-6.12825
-1.31462,17.8633,45.3692,-177.517,7.6426,-175.555,21.6385,0.638186,4.51284,3.69286,3.7768,7.29751,-8.32317,2.295,4.29184,-11.3167,-3.14469,-3.21414,17.9723,-2.40137,-3.62346,7.39617,-1.46808,-0.853017,3.18055e-15,5.725e-14,-23.3488,-51.3862,-54.0294,26.7154,-15.8885,-19.427,-4.52229,7.12502,6.89294,-34.3901,3.18055e-15,5.725e-14,-41.468,3.078,87.5389,48.3482,9.81482,-6.79379,50.242,7.12502,19.0691,79.3272,7.20763,7.07293,29.4813,22.4879,-22.9594,-14.3001,2.7171,-35.8346,-9.03705,-12.5828,26.4098,-5.46584,8.73795,-5.338
-1.32173,17.8585,45.211,-177.409,8.12556,-175.466,21.5548,0.916492,4.6107,3.69386,4.14554,7.28053,-8.28816,2.46464,4.1122,-11.4398,-3.23225,-3.22793,18.1301,-2.51969,-3.53372,7.47062,-1.51928,-0.836849,-2.54444e-14,-2.8625e-14,-25.9257,-51.6448,-52.3529,27.9602,-17.8878,-19.8189,-4.66579,7.12502,6.51465,-34.5456,-2.54444e-14,-2.8625e-14,-41.7489,3.25243,87.1952,48.2774,10.5054,-7.12765,49.9109,7.12502,18.748,79.0274,7.79599,7.36434,29.3846,22.1912,-22.7835,-13.911,1.74218,-35.738,-9.45117,-12.2296,26.3236,-6.05375,9.37878,-2.46687
-1.30175,17.8392,45.1271,-177.248,7.17631,-175.497,21.6815,0.702903,4.53301,3.81093,3.88948,7.31817,-8.22228,2.36068,4.26834,-11.9556,-3.23834,-3.0596,17.8747,-2.58144,-3.59109,7.47382,-1.56101,-0.896884,-5.56597e-15,-1.11319e-14,-27.3291,-52.486,-51.5793,29.0311,-19.6382,-19.7335,-4.66661,7.12502,6.59713,-34.5439,-5.56597e-15,-1.11319e-14,-41.2856,3.57873,86.8196,48.1816,11.2747,-7.35684,50.2501,7.12502,18.5276,79.3878,8.01802,6.93365,29.6035,22.0418,-22.5673,-14.3649,1.16434,-36.2612,-9.01128,-12.5964,26.4248,-6.14858,7.48818,-5.94579
-1.30386,17.8292,44.9874,-177.022,7.17422,-175.468,21.5872,0.66222,4.48777,3.70207,3.82263,7.3834,-8.2966,2.3264,4.38873,-11.6101,-3.14577,-3.25159,17.5736,-2.45413,-3.55605,7.31882,-1.50307,-0.832028,-2.8625e-14,-6.36111e-14,-29.0642,-51.7819,-50.6591,30.3306,-22.1251,-19.7499,-5.00674,7.12502,6.58128,-34.8845,-2.8625e-14,-6.36111e-14,-41.9117,4.13077,86.4819,48.4558,11.755,-7.67731,50.9134,7.12502,18.2193,80.0801,8.38721,6.99275,29.5781,21.7979,-22.3187,-14.1552,0.854453,-36.5379,-8.88666,-12.6408,26.845,-5.5224,7.68384,-2.43999
-1.30239,17.8139,44.8563,-176.886,6.8042,-175.594,21.7528,0.529822,4.28926,3.40473,3.62177,7.44029,-8.7195,2.22197,4.62609,-10.8458,-3.04541,-3.37764,17.1681,-2.31663,-3.6473,7.05382,-1.4345,-0.810076,7.15625e-15,3.33958e-14,-31.1695,-50.8152,-49.4493,31.7458,-24.7853,-19.6763,-5.40885,7.12502,6.65227,-35.2844,7.15625e-15,3.33958e-14,-42.7262,4.7794,86.0786,48.4524,11.8435,-8.04939,51.4854,7.12502,17.8613,80.6851,8.64968,6.82854,29.4726,21.9237,-22.2615,-14.0795,1.19082,-36.7967,-8.7529,-13.0382,27.3499,-5.20809,7.47159,-2.12905
-1.31735,17.8083,44.6812,-177.11,7.16495,-175.582,21.0604,0.495576,4.51778,3.9452,3.5437,7.31895,-7.72465,2.2022,4.38549,-10.7497,-2.94056,-3.2464,16.643,-2.24603,-3.71366,6.86374,-1.40129,-0.840275,-1.51076e-14,-8.26944e-14,-32.3644,-50.7717,-49.1066,33.1864,-27.0548,-19.4812,-5.77355,7.12502,6.84065,-35.643,-1.51076e-14,-8.26944e-14,-42.4353,5.38048,85.577,48.1081,11.8905,-8.35644,52.0455,7.12502,17.5659,81.2719,9.46772,6.90637,29.3036,21.9692,-22.188,-13.6292,1.25472,-36.3705,-8.55877,-13.3005,28.1209,-5.49371,7.82201,-2.52006
-1.30053,17.7861,44.5757,-176.708,6.25712,-175.429,21.3437,0.286464,4.39123,3.63163,3.32295,7.5444,-8.23342,2.10127,4.77083,-11.1341,-2.91641,-3.27915,16.8934,-2.14722,-3.83999,7.01242,-1.37215,-0.875166,-1.74931e-14,-5.08889e-14,-34.2508,-50.2541,-47.9386,34.7187,-29.2095,-19.2042,-6.09516,7.12502,7.10808,-35.9558,-1.74931e-14,-5.08889e-14,-42.7255,5.94351,85.3384,47.7131,11.9066,-8.57427,52.2891,7.12502,17.3562,81.5342,9.36348,6.60252,29.733,22.0965,-21.9297,-14.1346,0.465995,-37.1091,-7.87927,-13.6366,29.0176,-5.20654,6.64827,-3.88905
-1.29952,17.7745,44.4348,-176.583,6.00634,-175.361,21.3758,0.231953,4.39271,3.68822,3.27009,7.57712,-8.18737,2.08376,4.82031,-11.8051,-2.87326,-3.10935,17.0802,-2.07118,-3.96969,7.18759,-1.35239,-0.951019,1.98785e-14,5.08889e-14,-35.8549,-50.2868,-47.067,36.2812,-31.1341,-18.9834,-6.18417,7.12502,7.32121,-36.0375,1.98785e-14,5.08889e-14,-42.7793,6.14029,85.0344,47.3757,11.9767,-9.03895,52.3845,7.12502,16.9089,81.6684,9.69879,6.43784,29.8216,22.1383,-21.4898,-14.3574,-1.86552,-37.3428,-7.48903,-13.9282,30.1204,-5.40157,6.43895,-3.88449
-1.30939,17.7675,44.2782,-176.457,5.97216,-175.416,21.3137,0.216048,4.31081,3.64535,3.22274,7.59541,-8.20355,2.06073,4.90263,-11.816,-2.80543,-3.12665,17.0332,-1.95979,-4.05509,7.17464,-1.30665,-0.964751,1.27222e-14,-4.45278e-14,-37.6049,-49.8664,-46.0616,38.0366,-33.2346,-18.8984,-6.29592,7.12502,7.40322,-36.1464,1.27222e-14,-4.45278e-14,-43.1817,6.59698,84.7296,46.9993,11.6896,-9.30324,52.3981,7.12502,16.6545,81.7036,9.93796,6.18765,29.6054,22.4523,-21.1812,-14.0701,-3.89607,-37.4271,-7.21207,-14.3151,31.2359,-6.00263,6.59133,-1.43278
-1.32012,17.7593,44.109,-176.44,6.10227,-175.3,21.5298,0.259074,4.32319,3.49002,3.31984,7.67432,-8.50293,2.10437,4.95678,-11.8442,-2.72798,-3.12212,17.2018,-1.80717,-4.17413,7.23493,-1.24089,-0.991148,3.33958e-14,6.83819e-14,-39.8194,-49.2879,-44.5961,39.8157,-35.0016,-18.609,-6.18367,7.12502,7.68252,-36.0241,3.33958e-14,6.83819e-14,-43.7592,6.9553,84.4503,46.4509,11.4839,-9.48212,52.134,7.12502,16.4823,81.4539,10.3855,6.11059,29.5519,22.7248,-20.9177,-13.4733,-3.80268,-37.2178,-6.96183,-14.4492,32.356,-6.99845,6.89706,0.875963
-1.32472,17.7489,43.9619,-176.177,5.81409,-175.304,21.2671,0.184158,4.44945,3.72511,3.21447,7.58613,-8.083,2.05933,4.81378,-13.2706,-2.66437,-2.9108,17.5428,-1.72776,-4.1576,7.59656,-1.22688,-1.03978,-8.74653e-15,-7.63333e-14,-41.1227,-49.5398,-44.1245,41.766,-36.2696,-18.4413,-6.15689,7.12502,7.84443,-35.9914,-8.74653e-15,-7.63333e-14,-43.2305,7.20004,84.1254,45.8,11.2539,-9.65408,52.4693,7.12502,16.3167,81.8029,10.4016,5.91411,29.515,23.1087,-20.532,-13.3275,-4.24164,-37.342,-6.6546,-14.7591,33.3687,-7.67352,6.72516,0.707232
-1.33378,17.7477,43.8069,-175.972,5.91806,-175.476,21.2196,0.117004,4.11751,3.52298,3.02192,7.58507,-8.28292,1.95852,5.06303,-12.5596,-2.49255,-3.0767,17.3189,-1.47486,-4.19248,7.40161,-1.10042,-0.984466,-1.27222e-14,7.4743e-14,-42.6491,-48.4929,-43.5507,43.7817,-37.4935,-18.1628,-5.74346,7.12502,8.11324,-35.5677,-1.27222e-14,7.4743e-14,-44.181,7.78717,83.7181,45.6667,10.9782,-9.8515,52.7773,7.12502,16.1266,82.1263,10.4345,5.75696,29.1126,23.5198,-19.8107,-12.8658,-5.64432,-37.3503,-6.13807,-15.3123,34.2227,-8.23854,7.01941,0.368327
-1.3447,17.7517,43.6502,-175.818,6.14659,-175.478,21.3035,0.207917,3.91421,3.37874,3.09649,7.61826,-8.50369,1.99127,5.19883,-12.0017,-2.46962,-2.83687,17.0522,-1.44694,-4.55621,7.21053,-1.08653,-1.12803,-3.02153e-14,-1.1609e-13,-44.5268,-47.8381,-42.5199,45.8876,-38.4898,-17.9513,-5.35553,7.12502,8.3173,-35.1718,-3.02153e-14,-1.1609e-13,-44.7257,8.04296,83.443,45.0327,10.4766,-10.1354,52.7317,7.12502,15.8533,82.1027,10.4742,5.54848,28.783,24.002,-18.9974,-12.0434,-5.89765,-37.278,-5.6309,-15.6596,34.8392,-8.03659,7.6475,-1.53222
-1.35596,17.7673,43.4848,-175.672,6.21952,-175.551,21.3893,0.297469,3.83293,3.29961,3.17566,7.52833,-8.64046,2.01887,5.12348,-12.1385,-2.4233,-2.48806,16.9191,-1.44247,-4.71085,7.18509,-1.08174,-1.23603,-7.95139e-15,-3.33958e-14,-46.4563,-47.4824,-41.5239,48.0715,-39.4889,-17.8089,-4.91526,7.12502,8.4548,-34.726,-7.95139e-15,-3.33958e-14,-44.9402,8.20514,83.0649,44.2556,9.97241,-10.3468,52.6295,7.12502,15.6497,82.0165,10.4897,5.02874,28.318,24.4786,-18.0543,-11.2825,-7.69856,-37.1794,-5.3673,-15.9872,35.2547,-7.80428,8.46559,-2.61308
-1.37056,17.7939,43.3061,-175.539,6.33703,-175.821,21.3937,0.190656,3.36144,2.96375,2.90192,7.55579,-9.01751,1.8828,5.51598,-11.1652,-2.16682,-2.74149,16.7089,-1.05749,-4.73851,6.95399,-0.885235,-1.15045,7.15625e-15,2.22639e-14,-47.9901,-46.0994,-40.9017,50.288,-40.0509,-17.2239,-4.43203,7.12502,9.01933,-34.2192,7.15625e-15,2.22639e-14,-46.1911,8.94636,82.618,43.8015,9.66464,-10.2544,52.5702,7.12502,15.7387,81.9503,10.4989,4.63998,27.6708,25.0582,-17.1863,-10.7207,-9.65548,-37.0061,-5.14974,-16.5206,35.4611,-7.96607,9.58864,-5.09599
-1.38358,17.8114,43.129,-175.467,6.37551,-176.004,21.5164,0.125913,3.10439,2.843,2.74567,7.51362,-9.21316,1.80645,5.66816,-11.0938,-2.08532,-2.71289,16.7838,-0.900063,-4.93039,6.96705,-0.81892,-1.202,-3.65764e-14,-1.00187e-13,-49.3303,-44.9394,-40.6484,52.8347,-41.0235,-16.779,-4.04508,7.12502,9.44855,-33.8133,-3.65764e-14,-1.00187e-13,-46.8263,9.24532,82.3121,43.418,9.51807,-10.244,53.0352,7.12502,15.7487,82.4144,10.5619,4.42105,27.2488,25.6801,-16.0426,-10.2573,-10.093,-36.6592,-4.83497,-16.9957,35.53,-7.82266,10.3191,-9.08039
-1.38988,17.8291,42.9555,-175.275,6.18373,-176.291,21.4628,0.0692066,2.77525,2.74541,2.55463,7.42949,-9.28333,1.71269,5.82471,-11.2916,-2.0018,-2.48659,16.8432,-0.780824,-5.13456,7.01978,-0.769882,-1.29725,2.94201e-14,1.31993e-13,-50.7558,-43.9514,-40.4161,55.588,-42.3634,-17.0978,-3.62657,7.12502,9.14096,-33.4085,2.94201e-14,1.31993e-13,-47.1056,9.28479,82.0924,42.7615,9.40607,-10.3099,53.213,7.12502,15.6852,82.5973,10.2825,4.20336,26.8226,26.6448,-14.8671,-9.94813,-9.98429,-36.4053,-4.77111,-17.487,35.4653,-7.46416,10.4931,-10.706
-1.41565,17.8592,42.7305,-175.305,6.89452,-176.598,21.0417,0.241441,2.56999,2.94509,2.62841,7.19141,-8.83215,1.73299,5.64746,-11.4683,-1.86182,-2.27665,16.7596,-0.633785,-5.19129,7.0237,-0.698624,-1.33823,1.51076e-14,2.8625e-14,-51.9922,-43.0152,-40.4907,58.3768,-43.4527,-18.1302,-3.30396,7.12502,8.14465,-33.127,1.51076e-14,2.8625e-14,-47.3567,9.27201,81.8343,42.107,9.06787,-10.3104,52.8402,7.12502,15.6847,82.2245,10.1489,4.40907,26.0004,27.9146,-13.4951,-9.2388,-10.9171,-35.5311,-4.47904,-18.0265,35.3276,-7.20993,10.9584,-11.4438
-1.41543,17.8693,42.5751,-175.086,6.31278,-176.846,21.0653,0.0399046,2.31985,2.8771,2.28138,7.09803,-8.89293,1.56557,5.79093,-11.8655,-1.78593,-2.09618,16.8058,-0.562333,-5.20917,7.10805,-0.668886,-1.37266,1.82882e-14,3.02153e-14,-53.1649,-42.0474,-40.645,61.17,-44.4694,-19.8265,-3.51182,7.12502,6.50732,-33.3919,1.82882e-14,3.02153e-14,-47.4946,9.38953,81.5161,41.424,8.54364,-9.95893,52.7327,7.12502,16.0232,82.0901,9.51361,3.92826,25.7208,29.2672,-11.9403,-9.08241,-10.663,-35.3474,-4.2657,-18.5394,35.1795,-6.4132,9.90124,-12.9831
-1.41692,17.8795,42.4191,-174.897,5.64226,-177.315,21.1832,-0.177749,1.79103,2.75979,1.85114,7.02034,-9.0571,1.36696,6.14283,-12.1824,-1.69016,-1.93143,16.7529,-0.453777,-5.30975,7.14722,-0.625851,-1.42562,7.95139e-15,6.20208e-14,-54.304,-41.0759,-40.5746,63.6754,-45.6129,-21.9703,-4.31302,7.12502,4.43749,-34.2465,7.95139e-15,6.20208e-14,-47.6352,9.54833,81.2921,40.6189,8.15138,-9.44867,52.6418,7.12502,16.5145,81.959,8.73749,3.17063,25.138,30.8186,-10.1817,-8.82282,-11.0024,-35.1244,-4.06895,-19.3027,35.084,-5.91732,8.22921,-13.2804
-1.46268,17.9129,42.1586,-175.159,6.99268,-177.534,20.6293,0.0884221,1.62536,3.14198,2.07146,6.81052,-8.35011,1.45873,5.92359,-12.5058,-1.52537,-1.84689,16.9366,-0.2197,-5.34383,7.26834,-0.521373,-1.43336,1.19271e-14,3.02153e-14,-55.4839,-40.1935,-40.1876,65.8525,-47.4801,-22.8483,-5.11075,7.12502,3.58958,-35.0603,1.19271e-14,3.02153e-14,-47.8447,9.91192,81.0459,39.816,7.56952,-8.90479,52.4484,7.12502,17.0381,81.7213,8.45435,3.6574,24.0854,32.548,-8.09387,-7.7927,-10.3538,-33.8045,-3.53504,-19.76,35.1179,-6.50269,7.66755,-9.2518
-1.47305,17.9217,41.9838,-175.091,6.84052,-177.661,20.6777,-0.147025,1.37954,2.98207,1.68758,6.77338,-8.51912,1.2731,6.13912,-11.9219,-1.29251,-1.84434,16.7057,0.0558105,-5.28608,7.09534,-0.369106,-1.38049,9.54166e-15,7.4743e-14,-56.9495,-39.2908,-39.468,67.7608,-49.2712,-22.2171,-5.09324,7.12502,4.1991,-35.0316,9.54166e-15,7.4743e-14,-48.592,10.3094,80.6206,39.273,7.10916,-8.30386,52.3079,7.12502,17.6164,81.5298,7.53239,3.14105,23.6733,34.4578,-5.50531,-7.50895,-9.43642,-33.3575,-3.17992,-20.0971,35.2089,-6.69842,5.96112,-3.19343
-1.47864,17.925,41.8181,-174.891,6.73224,-177.654,20.7812,-0.387605,1.2322,2.70583,1.31149,6.70835,-8.84264,1.08577,6.27039,-11.1305,-1.05976,-1.77716,16.3423,0.301859,-5.23005,6.84245,-0.221824,-1.34129,2.94201e-14,8.74653e-14,-58.596,-38.5993,-38.5574,69.5725,-50.864,-20.9115,-4.6914,7.12502,5.45979,-34.6011,2.94201e-14,8.74653e-14,-49.5009,10.4584,80.1447,38.9559,6.96805,-7.91441,52.0577,7.12502,17.9912,81.2456,6.34222,2.61989,23.4097,36.3813,-2.90433,-7.39254,-7.07484,-33.0962,-2.8962,-20.2156,35.3709,-7.05399,4.95018,-0.58291
-1.49174,17.9308,41.6488,-174.774,6.58736,-177.862,20.9093,-0.5721,0.998548,2.56225,0.983418,6.58136,-9.03613,0.924453,6.3668,-11.054,-0.825318,-1.68702,16.3191,0.558512,-5.05395,6.82519,-0.0807549,-1.27587,-3.18055e-15,-1.74931e-14,-60.2279,-38.2835,-37.47,71.2849,-52.3023,-19.0115,-4.40502,7.12502,7.29406,-34.2593,-3.18055e-15,-1.74931e-14,-50.0192,10.5124,79.8325,38.6935,6.94053,-7.76303,51.9388,7.12502,18.1368,81.1132,4.97268,2.09397,22.8632,38.633,-0.402885,-7.50948,-2.44497,-32.6921,-2.97425,-20.5324,35.4499,-7.30303,4.89784,-1.96072
-1.51788,17.9471,41.4388,-175.026,7.281,-178.055,20.8896,-0.495206,0.676345,2.757,0.981102,6.45747,-8.80896,0.923856,6.4092,-11.264,-0.617087,-1.53704,16.3829,0.836868,-5.14767,6.88849,0.0473482,-1.30716,-2.62396e-14,5.24792e-14,-61.6834,-37.9568,-36.406,73.1363,-53.441,-17.3371,-4.1828,7.12502,8.91003,-33.9747,-2.62396e-14,5.24792e-14,-50.5216,10.4813,79.7598,38.6159,6.86942,-7.44107,51.739,7.12502,18.4466,80.8844,3.88708,2.35975,22.1309,41.0132,2.7887,-7.34816,0.749394,-31.5679,-2.86018,-20.8482,35.4303,-7.92008,5.50285,-1.56051
-1.53026,17.9559,41.2722,-175.02,6.95605,-178.283,20.7198,-0.803985,0.663283,2.96666,0.519954,6.18863,-8.43015,0.686329,6.23232,-11.6465,-0.366915,-1.18834,16.1968,1.05879,-5.07459,6.89921,0.163015,-1.32252,-2.38542e-14,-2.54444e-14,-62.8294,-38.177,-35.893,74.9447,-53.8514,-16.3578,-3.9662,7.12502,9.85501,-33.7156,-2.38542e-14,-2.54444e-14,-50.4675,10.3068,79.4786,38.4895,6.91269,-7.10776,51.7055,7.12502,18.7672,80.8202,2.26899,2.0771,21.7264,43.6242,6.04094,-7.4104,2.17193,-30.9284,-3.20321,-21.1474,35.2769,-8.12612,5.01024,-5.99196
-1.53726,17.9579,41.1048,-175.13,6.44823,-178.771,21.0535,-1.08785,0.264607,2.91056,0.0273305,5.97487,-8.61579,0.45229,6.37689,-12.0338,-0.168457,-0.977937,16.4003,1.28373,-4.99509,7.03752,0.275696,-1.31325,-5.1684e-14,8.5875e-14,-63.8447,-37.931,-35.4295,76.703,-53.8587,-15.7526,-3.75955,7.12502,10.4388,-33.4804,-5.1684e-14,8.5875e-14,-50.7401,10.0806,79.3123,38.2766,7.04404,-7.0903,51.4125,7.12502,18.784,80.5256,0.731454,1.82668,21.1701,46.3625,8.75273,-7.91443,5.29824,-30.1323,-3.47505,-21.7777,35.059,-8.60546,4.19457,-6.83782
-1.54281,17.9623,40.9388,-175.224,6.28643,-179.317,21.5295,-1.26132,-0.466863,2.69684,-0.388509,5.89615,-9.05363,0.274503,6.86479,-11.7748,-0.0217413,-1.26597,16.3642,1.50666,-4.82829,6.98311,0.386344,-1.18953,-1.39149e-14,6.36111e-15,-64.5381,-37.0075,-35.0283,78.3858,-53.3999,-15.2051,-3.5396,7.12502,10.9669,-33.2332,-1.39149e-14,6.36111e-15,-51.4125,10.2324,79.1853,38.0125,6.84239,-6.98913,50.4973,7.12502,18.8813,79.6009,-1.00676,1.74163,20.4758,49.2492,11.3494,-8.12364,8.46224,-29.278,-3.33033,-22.53,34.7906,-9.10648,3.48446,-6.20508
-1.54806,17.9728,40.7775,-175.388,6.30588,-179.792,21.9727,-1.38662,-1.20218,2.61485,-0.742258,5.81981,-9.32645,0.131438,7.33909,-11.2355,0.113627,-1.3751,15.9243,1.68263,-4.90655,6.75077,0.473849,-1.1783,2.90226e-14,1.90833e-14,-64.8379,-36.1422,-34.8393,79.9675,-52.638,-15.4501,-3.11533,7.12502,10.7306,-32.8213,2.90226e-14,1.90833e-14,-51.9827,10.2131,79.1653,38.0054,6.59712,-6.41896,50.5263,7.12502,19.4296,79.5755,-2.77057,1.7776,19.8679,52.1783,13.4895,-8.86345,13.9406,-28.337,-3.08818,-23.1894,34.4485,-9.39967,2.99039,-3.61522
-1.56135,17.9804,40.61,-175.716,6.46056,-180.457,21.8997,-1.44477,-1.7875,3.09246,-0.997605,5.45373,-8.71102,5.11446e-05,7.31406,-11.799,0.275177,-1.04691,15.5577,1.80927,-5.01947,6.73657,0.525061,-1.25749,-1.19271e-14,4.45278e-14,-64.8323,-36.4467,-34.9016,81.2778,-51.2281,-15.5419,-2.72882,7.12502,10.642,-32.4393,-1.19271e-14,4.45278e-14,-51.3163,9.90159,79.0994,37.7149,6.2595,-5.67004,50.7102,7.12502,20.1495,79.6853,-4.38321,1.81777,18.9471,55.1291,15.4121,-10.8507,23.7622,-27.1803,-2.88693,-24.1085,34.0602,-9.6865,2.87335,1.39724
-1.57294,17.9831,40.4404,-175.951,6.56809,-181.211,22.039,-1.40467,-2.54561,3.22598,-1.17083,5.16493,-8.59765,-0.0769072,7.4837,-11.9872,0.454794,-0.740473,15.3501,2.00171,-5.20131,6.71093,0.614153,-1.34846,3.53837e-14,-3.33958e-14,-65.2049,-36.3794,-34.4012,82.5529,-49.5231,-14.9976,-2.46518,7.12502,11.167,-32.148,3.53837e-14,-3.33958e-14,-51.141,9.43302,79.1188,37.4181,5.9905,-5.42201,50.4338,7.12502,20.3879,79.3836,-6.14299,1.65318,17.9669,58.0781,17.4019,-13.258,29.5306,-26.1108,-2.80713,-25.0797,33.6655,-10.3371,2.65843,6.33017
-1.58379,17.9884,40.2783,-176.129,6.56238,-181.774,22.5342,-1.4343,-3.29758,2.96006,-1.43378,5.08837,-9.09797,-0.169798,7.95731,-11.3373,0.606514,-0.765807,15.3051,2.25904,-5.40727,6.59233,0.742125,-1.38644,-1.51076e-14,-5.40694e-14,-65.5858,-35.3937,-33.7378,83.8555,-47.9851,-14.7846,-1.84985,7.12502,11.3725,-31.5215,-1.51076e-14,-5.40694e-14,-51.8309,9.08824,79.2204,37.4872,6.03667,-5.11729,50.2003,7.12502,20.6807,79.1184,-8.06227,1.18937,17.2562,60.9532,16.572,-8.12721,15.379,-25.1016,-2.715,-25.8416,33.286,-10.6208,2.31838,-0.164882
-1.59132,17.9905,40.1222,-176.168,6.83,-182.177,22.4553,-1.49269,-3.79809,3.03341,-1.67131,4.88051,-8.92384,-0.286653,8.07697,-10.9793,0.852255,-0.728486,15.0473,2.57071,-5.46456,6.4568,0.900735,-1.38328,1.23246e-14,-4.45278e-14,-65.5139,-34.9767,-33.6336,85.2011,-46.6661,-14.91,-1.62713,7.12502,11.2516,-31.3054,1.23246e-14,-4.45278e-14,-51.8965,8.76716,79.0987,37.5797,6.05089,-4.43814,50.4892,7.12502,21.3332,79.335,-10.0487,0.967097,16.752,63.6837,15.7153,-7.97243,14.7595,-24.3177,-2.45204,-26.4132,32.9402,-10.8985,2.1728,-4.42559
-1.59876,17.9847,39.965,-176.427,6.9023,-182.74,22.7698,-1.48814,-4.4692,3.12758,-1.8497,4.7193,-8.93505,-0.352867,8.35456,-11.1539,1.03827,-0.687073,15.0319,2.83741,-5.58556,6.49196,1.01786,-1.40448,-3.85642e-14,-3.33958e-14,-65.4395,-35.0386,-33.1281,86.271,-45.2947,-14.884,-1.20363,7.12502,11.2767,-30.8805,-3.85642e-14,-3.33958e-14,-51.8258,8.41402,79.1831,37.6887,5.93936,-3.8918,50.6741,7.12502,21.8579,79.4595,-11.6621,0.579739,16.0964,66.2383,13.7097,-8.19594,13.1151,-23.3336,-2.22632,-27.1862,32.6462,-11.2301,2.00886,0.169258
-1.60694,17.9764,39.8043,-176.669,6.78976,-183.417,22.9976,-1.52121,-5.16727,3.23066,-2.08675,4.53924,-8.87475,-0.450429,8.63823,-11.1798,1.21993,-0.47699,14.7826,3.07703,-5.89405,6.4315,1.12294,-1.51586,7.95139e-16,4.45278e-14,-65.2933,-35.1664,-32.6526,87.2972,-43.8431,-14.7507,-1.05938,7.12502,11.4052,-30.7292,7.95139e-16,4.45278e-14,-51.6142,7.99052,79.2963,37.7482,5.7301,-3.60153,50.409,7.12502,22.1366,79.1617,-13.3347,-0.0958287,15.3502,68.5905,12.1658,-7.96628,12.6766,-22.3978,-2.13226,-28.0637,32.4283,-11.7412,1.67339,4.34792
-1.61603,17.9661,39.6456,-176.735,6.47062,-183.935,23.0334,-1.73287,-5.59158,3.28985,-2.48974,4.36714,-8.73892,-0.642102,8.80657,-10.946,1.39683,-0.291741,14.4561,3.30981,-6.21239,6.30247,1.2319,-1.62793,7.91163e-14,-5.88403e-14,-64.9387,-35.1475,-32.4331,88.4614,-42.784,-14.5178,-0.947122,7.12502,11.6298,-30.6044,7.91163e-14,-5.88403e-14,-51.3247,7.74698,79.217,37.6913,5.49525,-3.55599,50.1569,7.12502,22.1803,78.9044,-15.0944,-0.880213,14.8156,70.6647,10.4679,-8.35213,11.8493,-21.6651,-2.28634,-28.7374,32.2473,-12.3539,1.53297,-3.30327
-1.62544,17.9621,39.4888,-176.735,6.10897,-184.132,22.9358,-1.9833,-5.65272,3.37561,-2.83046,4.27842,-8.52731,-0.81618,8.82523,-10.6996,1.47735,-0.220787,14.273,3.42242,-6.39186,6.20984,1.28687,-1.68791,-3.57812e-15,-3.33958e-14,-64.646,-35.2556,-32.0818,89.6131,-42.1488,-14.6353,-0.619877,7.12502,11.5165,-30.2835,-3.57812e-15,-3.33958e-14,-50.8193,7.43269,79.188,37.5958,5.37036,-3.54827,50.415,7.12502,22.1877,79.1616,-16.7136,-1.60878,14.6716,72.4077,8.5016,-9.12944,12.4376,-21.0401,-2.34433,-29.0687,32.1609,-12.959,1.24002,-5.78812
-1.62892,17.9568,39.334,-176.773,5.95645,-184.239,23.0407,-2.05503,-5.74731,3.35408,-2.96067,4.21723,-8.58017,-0.873918,8.85642,-10.3844,1.47892,-0.230408,14.1686,3.4137,-6.37699,6.12136,1.29363,-1.68401,5.56597e-15,-4.77083e-14,-64.5459,-35.3155,-31.6057,90.7381,-41.5818,-14.7841,-0.345014,7.12502,11.373,-30.0166,5.56597e-15,-4.77083e-14,-50.5398,6.81138,79.1883,37.5335,5.05648,-3.21145,50.707,7.12502,22.511,79.4149,-18.3885,-2.11035,14.7052,73.8889,6.75721,-9.43772,12.93,-20.3928,-2.28348,-29.2702,32.1168,-13.5223,0.980935,-5.27581
-1.63392,17.9471,39.1792,-176.707,5.80257,-184.301,23.1514,-2.09968,-5.86572,3.30277,-3.0538,4.24145,-8.66972,-0.908869,8.99164,-10.3669,1.49936,-0.13356,14.2511,3.47333,-6.57152,6.15162,1.31535,-1.75657,-3.26007e-14,-2.22639e-14,-64.2921,-35.5621,-31.0999,91.8037,-40.9991,-14.7032,-0.214843,7.12502,11.451,-29.8821,-3.26007e-14,-2.22639e-14,-50.2235,6.39484,79.2281,37.4915,4.77019,-3.39784,50.447,7.12502,22.3321,79.1764,-20.221,-2.59978,14.8495,75.1775,5.17048,-10.2138,10.9672,-19.8351,-2.21095,-29.4235,32.0698,-14.0982,0.71539,-5.74
-1.63782,17.9386,39.0157,-176.727,5.55265,-184.615,23.2469,-2.18087,-6.2691,3.27555,-3.26479,4.26292,-8.68175,-0.99591,9.32288,-10.3038,1.59111,-0.0679397,14.242,3.6513,-6.88791,6.15187,1.38804,-1.85262,2.94201e-14,3.49861e-14,-63.6495,-35.7028,-30.7435,92.7239,-40.2084,-14.4272,-0.178236,7.12502,11.7172,-29.8305,2.94201e-14,3.49861e-14,-49.8719,6.41369,79.1495,37.5569,4.58158,-3.64495,50.8041,7.12502,22.0949,79.5618,-21.8271,-3.16106,14.6988,76.2278,3.67538,-10.4952,11.9692,-19.1246,-2.15926,-29.8513,31.9367,-14.6555,0.377623,-5.66121
-1.64794,17.9281,38.8551,-176.755,5.39816,-185.058,23.3076,-2.20692,-6.63549,3.32272,-3.40138,4.15928,-8.61489,-1.05611,9.45982,-10.3388,1.63704,-0.0073784,14.1738,3.72296,-7.03131,6.14308,1.41617,-1.90164,7.95139e-16,-3.18055e-14,-63.1058,-35.988,-30.4448,93.6048,-38.8034,-14.6004,-0.103146,7.12502,11.5502,-29.7649,7.95139e-16,-3.18055e-14,-49.2879,6.42467,78.9257,37.7497,4.08145,-3.41162,51.625,7.12502,22.3189,80.356,-23.4493,-3.68313,14.3783,77.0873,2.18628,-10.6817,12.157,-18.4416,-1.98651,-30.4618,31.7682,-14.9494,0.128311,-5.61636
-1.66034,17.9159,38.6909,-176.73,5.24935,-185.389,23.249,-2.23514,-6.74505,3.37681,-3.47667,4.01288,-8.51012,-1.09935,9.36872,-10.4818,1.6345,0.100064,14.1816,3.7075,-7.07784,6.17223,1.40555,-1.93471,-8.38871e-14,3.81667e-14,-62.695,-36.4527,-30.1053,94.425,-37.3879,-14.5894,0.114826,7.12502,11.5608,-29.5463,-8.38871e-14,3.81667e-14,-48.7074,6.21083,78.6673,38.1264,3.86661,-3.33348,52.4281,7.12502,22.3939,81.15,-25.0385,-4.13701,14.1907,77.7066,0.669037,-10.6365,11.6947,-17.779,-1.82598,-30.9523,31.5734,-15.2273,-0.155859,-6.00816
-1.66819,17.9015,38.5365,-176.673,5.1632,-185.639,23.3593,-2.25024,-6.91054,3.28681,-3.56844,3.92547,-8.64582,-1.13352,9.40645,-10.3418,1.66226,0.0603026,14.2577,3.74726,-6.99499,6.17113,1.43213,-1.89937,-2.0276e-14,1.27222e-14,-62.2691,-36.734,-29.7432,95.2496,-36.0922,-14.3262,0.330298,7.12502,11.8146,-29.3164,-2.0276e-14,1.27222e-14,-48.3849,5.90809,78.5136,38.4915,4.01866,-3.80712,52.5926,7.12502,21.9392,81.3686,-26.6836,-4.51469,14.1799,78.125,-0.499328,-10.6481,12.38,-17.2582,-1.5537,-31.3105,31.4501,-15.5963,-0.513961,-5.54401
-1.67221,17.8824,38.3832,-176.579,5.1124,-185.952,23.4929,-2.21809,-7.27093,3.15434,-3.6502,3.89343,-8.82592,-1.15299,9.62521,-10.1376,1.64565,-0.0989878,14.4002,3.76736,-6.94868,6.17833,1.44409,-1.85785,-1.10922e-13,-1.90833e-14,-61.6836,-37.0742,-29.3949,95.9916,-34.4137,-14.0721,0.659962,7.12502,12.0596,-28.9725,-1.10922e-13,-1.90833e-14,-47.8913,5.87217,78.3483,38.6025,4.05237,-4.44276,52.5852,7.12502,21.3287,81.4315,-28.3631,-4.71241,14.1464,78.3654,-2.16508,-10.4724,11.5054,-16.8197,-1.27405,-31.6993,31.4509,-16.0923,-0.899963,-2.01023
-1.6818,17.8617,38.2254,-176.49,5.05402,-186.259,23.5502,-2.20053,-7.56223,3.04251,-3.72172,3.90646,-8.94567,-1.17156,9.84511,-9.74984,1.62919,-0.246142,14.2086,3.78801,-7.11472,6.05295,1.45364,-1.88639,-3.53837e-14,3.33958e-14,-60.9844,-37.4102,-29.05,96.7729,-32.7045,-13.7721,0.938482,7.12502,12.3489,-28.6768,-3.53837e-14,3.33958e-14,-47.4598,5.96151,78.2613,38.9117,3.99119,-4.94388,52.737,7.12502,20.8473,81.6369,-29.9304,-4.93593,14.1091,78.3905,-3.64652,-10.3899,9.27728,-16.4079,-1.00325,-32.1305,31.5362,-16.7604,-1.02492,-6.43876
-1.69138,17.8388,38.0672,-176.32,4.99716,-186.395,23.4507,-2.20146,-7.61133,3.02881,-3.7385,3.88173,-8.90332,-1.18357,9.84295,-9.79324,1.65083,-0.0951444,14.1082,3.80664,-7.2654,6.03488,1.4597,-1.95712,-4.05521e-14,-3.49861e-14,-60.3015,-37.9885,-28.8378,97.58,-31.3761,-14.0749,1.20344,7.12502,12.0569,-28.4292,-4.05521e-14,-3.49861e-14,-46.908,5.84667,78.1374,39.3798,3.97983,-5.41958,53.1448,7.12502,20.3902,82.0943,-31.4991,-5.05894,14.2538,78.2095,-5.60899,-9.73123,11.9568,-16.0715,-0.659292,-32.3716,31.6424,-17.5038,-1.22291,-8.29977
-1.69935,17.8143,37.9078,-176.23,4.95628,-186.546,23.6453,-2.09626,-7.70546,2.95144,-3.64568,3.87248,-9.10874,-1.12109,9.88358,-10.0183,1.62712,0.0979067,14.2205,3.78504,-7.42971,6.11483,1.43974,-2.04162,-5.4467e-14,1.90833e-14,-59.8193,-38.7526,-28.3422,98.4288,-29.964,-14.179,1.19231,7.12502,11.9565,-28.4462,-5.4467e-14,1.90833e-14,-46.3814,5.44108,78.1603,39.9066,4.22976,-6.12663,53.35,7.12502,19.7106,82.3707,-33.0289,-5.18489,14.4311,77.8292,-5.86484,-10.0118,11.2821,-15.6011,-0.441545,-32.5839,31.74,-18.1227,-1.59923,-6.18806
-1.70762,17.7981,37.7499,-176.235,4.80513,-186.857,23.3808,-2.14389,-7.67598,3.26041,-3.67475,3.60061,-8.63365,-1.1722,9.51685,-10.2849,1.60533,0.364259,13.9575,3.65046,-7.36306,6.07446,1.38109,-2.07448,-2.26615e-14,2.38542e-14,-59.2073,-40.2426,-28.3196,99.3266,-28.4086,-13.5895,1.36625,7.12502,12.5249,-28.2384,-2.26615e-14,2.38542e-14,-45.1588,4.93767,77.8933,40.3415,4.70602,-6.88811,53.5233,7.12502,18.9784,82.6174,-34.3947,-5.36891,14.3982,77.2809,-6.525,-9.97254,11.665,-15.0662,-0.239978,-32.9683,31.7972,-18.6276,-1.94717,-5.98961
-1.71502,17.7806,37.5931,-176.208,4.66412,-187.109,23.4855,-2.18327,-7.83289,3.25779,-3.77257,3.57449,-8.66094,-1.21105,9.61469,-10.2749,1.63985,0.185371,13.9069,3.70948,-7.28309,6.05524,1.40759,-2.01443,3.37934e-14,-5.24792e-14,-58.3224,-40.9899,-28.2452,100.263,-26.628,-12.6654,1.63547,7.12502,13.4157,-27.9125,3.37934e-14,-5.24792e-14,-44.6486,4.83499,77.817,41.0208,5.00683,-7.3469,54.0416,7.12502,18.5372,83.1784,-35.7159,-5.52023,14.4446,76.5527,-7.8806,-9.52957,11.7889,-14.5487,0.0519678,-33.3047,31.8006,-19.0969,-2.05031,-7.67939
-1.71854,17.7452,37.4408,-176.137,4.58252,-187.521,23.652,-2.12857,-8.3113,3.12878,-3.84851,3.61344,-8.83948,-1.21962,9.98549,-10.0186,1.61856,-0.0604465,13.8572,3.7402,-7.35451,5.99476,1.41831,-1.9949,-2.38542e-15,1.11319e-14,-57.3387,-41.4589,-28.1382,101.188,-24.7869,-11.7523,1.9378,7.12502,14.2957,-27.5501,-2.38542e-15,1.11319e-14,-44.3151,4.8132,77.8939,41.8018,5.35348,-7.64496,54.5258,7.12502,18.2504,83.6896,-37.1702,-5.63117,14.3555,75.7533,-9.97294,-8.41574,7.75882,-14.0553,0.191886,-33.8057,31.7958,-19.6296,-2.04461,-8.63931
-1.72344,17.7242,37.2815,-176.021,4.40171,-187.732,23.7895,-2.12198,-8.4498,3.05364,-3.8919,3.62663,-8.97623,-1.22462,10.1115,-9.96748,1.58816,-0.2009,13.7458,3.70901,-7.33856,5.94747,1.40151,-1.96929,-6.12257e-14,-2.06736e-14,-56.3688,-42.2669,-28.1835,102.019,-22.5651,-11.2675,2.26852,7.12502,14.7628,-27.1857,-6.12257e-14,-2.06736e-14,-43.679,4.55534,77.951,42.352,5.93353,-8.1429,54.4311,7.12502,17.7713,83.6391,-38.4942,-5.83677,14.4823,74.7005,-10.5698,-8.42736,7.86183,-13.5679,0.312746,-34.0731,31.8074,-20.1526,-2.21944,-9.2118
-1.72942,17.7072,37.1179,-175.813,4.15768,-187.925,23.8421,-2.08002,-8.44288,2.96573,-3.85207,3.62082,-9.11469,-1.19627,10.1004,-9.98392,1.49881,-0.190897,13.5851,3.57073,-7.36314,5.89497,1.33494,-1.98978,1.03368e-14,5.24792e-14,-55.5233,-43.0615,-28.1711,102.914,-20.3912,-11.1579,2.33537,7.12502,14.8684,-27.1111,1.03368e-14,5.24792e-14,-42.9659,3.91465,78.1533,42.9564,6.65801,-9.04852,54.124,7.12502,16.8997,83.4087,-39.7741,-6.16963,14.633,73.4899,-11.0633,-8.3334,7.47189,-13.1878,0.445152,-34.3392,31.7801,-20.4906,-2.24112,-10.7455
-1.73152,17.6888,36.9575,-175.673,3.78052,-188.026,23.6834,-2.12033,-8.27435,3.13173,-3.8282,3.56709,-8.86338,-1.20721,9.90631,-10.0645,1.38696,-0.16613,13.2403,3.35267,-7.27692,5.79056,1.23526,-1.98372,-4.33351e-14,-3.18055e-15,-54.4493,-44.1238,-28.6043,103.785,-17.805,-11.3608,2.44485,7.12502,14.6729,-27.016,-4.33351e-14,-3.18055e-15,-41.8197,3.376,78.1671,43.5346,7.22164,-9.42799,54.1394,7.12502,16.5344,83.455,-40.8612,-6.53912,14.9003,72.0717,-11.6648,-8.30042,6.99034,-12.6703,0.576714,-34.4722,31.7235,-20.8075,-2.13241,-11.7273
-1.72885,17.6652,36.7992,-175.549,3.47896,-188.356,23.7126,-2.1197,-8.47089,3.18479,-3.8811,3.46641,-8.79914,-1.23086,9.9188,-10.1423,1.29688,-0.101274,13.0208,3.17639,-7.20638,5.72758,1.15525,-1.98594,4.37326e-14,-6.36111e-15,-53.1137,-44.8706,-29.3051,104.519,-14.9,-11.0257,2.94691,7.12502,14.9957,-26.4901,4.37326e-14,-6.36111e-15,-41.0305,2.80122,78.1223,44.3717,7.8055,-9.49753,54.3456,7.12502,16.4675,83.6667,-41.9409,-6.83175,14.8968,70.5472,-12.0541,-8.40899,6.50539,-12.1217,0.696101,-34.8384,31.5712,-21.0479,-2.29999,-10.4968
-1.73139,17.6496,36.6348,-175.401,3.39761,-188.343,23.6616,-2.06245,-8.29357,3.336,-3.73238,3.44168,-8.64859,-1.17309,9.7295,-10.658,1.21901,-0.0369098,13.0343,3.03455,-7.09314,5.81368,1.07824,-1.97084,-1.11319e-14,3.65764e-14,-51.647,-45.7641,-30.1664,105.227,-12.0733,-10.7738,3.14187,7.12502,15.2384,-26.2769,-1.11319e-14,3.65764e-14,-39.8776,2.21223,78.1787,44.9842,8.34501,-9.74864,54.0124,7.12502,16.2257,83.3534,-42.9406,-6.92153,15.2463,68.8018,-12.1816,-8.6782,6.88546,-11.5858,0.697606,-34.9011,31.3548,-21.2688,-2.17246,-9.72154
-1.73473,17.6353,36.4693,-175.37,3.17275,-188.579,23.688,-2.08285,-8.45842,3.29534,-3.80676,3.45337,-8.67861,-1.20105,9.86554,-10.1315,1.24759,-0.106937,12.7262,3.05597,-7.10402,5.62687,1.10524,-1.96205,-3.02153e-14,-7.95139e-15,-49.96,-45.6787,-31.2222,105.947,-9.2875,-10.964,3.28072,7.12502,15.0552,-26.1519,-3.02153e-14,-7.95139e-15,-39.2775,1.90147,78.2876,45.5634,8.78713,-10.2181,53.7192,7.12502,15.7736,83.0965,-43.7428,-7.1766,15.2647,66.9525,-12.4729,-8.6662,8.64797,-10.8329,0.585376,-35.2314,31.0567,-21.646,-1.75278,-10.9818
-1.7411,17.6168,36.3164,-175.344,3.37804,-188.679,24.0126,-1.96079,-8.61263,3.16697,-3.71658,3.52763,-8.99936,-1.12667,10.0528,-9.53831,1.22658,-0.384035,12.2796,3.02014,-7.05964,5.38095,1.10381,-1.90664,-3.57812e-14,3.02153e-14,-48.3144,-44.767,-32.4798,106.94,-6.72459,-11.7781,3.20274,7.12502,14.2708,-26.2869,-3.57812e-14,3.02153e-14,-38.9303,1.6029,78.4785,46.4114,9.38707,-10.6066,53.4402,7.12502,15.3994,82.8466,-44.675,-7.06713,15.4079,64.9702,-12.2207,-8.66829,8.34686,-10.1626,0.785501,-35.4931,30.7224,-21.8502,-1.2189,-11.3745
-1.73965,17.6048,36.1552,-175.027,2.5755,-188.75,24.2165,-2.20597,-8.46464,2.97745,-4.01221,3.68946,-9.25363,-1.24745,10.2683,-9.46986,1.19496,-0.614955,12.1038,2.9996,-7.06148,5.31169,1.09047,-1.87062,-6.67916e-14,6.04305e-14,-46.3027,-44.5779,-33.7451,107.379,-3.91493,-11.9965,3.23298,7.12502,14.0604,-26.2714,-6.67916e-14,6.04305e-14,-38.347,1.38075,78.6617,47.1117,9.83216,-10.7005,53.1614,7.12502,15.309,82.5748,-45.5423,-7.60721,15.639,62.9276,-12.013,-9.09354,7.54823,-9.61581,0.322229,-35.5679,30.2742,-21.6465,-1.17302,-10.3743
-1.73276,17.5925,35.9813,-174.788,1.62477,-188.717,24.1673,-2.4903,-8.11825,2.98188,-4.26615,3.7882,-9.18306,-1.37949,10.2453,-9.63948,1.14894,-0.521,11.9466,2.92347,-7.16798,5.2919,1.04841,-1.92413,-6.2816e-14,5.88403e-14,-44.5258,-44.511,-35.0509,107.817,-1.479,-11.8429,3.5398,7.12502,14.2083,-25.9542,-6.2816e-14,5.88403e-14,-37.3911,0.78257,78.8105,47.7207,10.1639,-10.764,53.3794,7.12502,15.2478,82.7974,-46.1266,-8.19362,15.9544,60.8373,-11.9809,-9.69895,7.4057,-8.80439,-0.358628,-35.4924,29.7153,-21.4792,-1.22151,-8.20849
-1.72379,17.5764,35.8035,-174.743,0.830961,-188.928,24.0591,-2.65147,-8.02129,3.15013,-4.41571,3.73916,-8.91165,-1.46948,10.1493,-9.72945,1.09581,-0.292949,11.6457,2.77838,-7.17681,5.21063,0.985682,-1.97463,-3.18055e-14,1.74931e-14,-43.0615,-44.2549,-36.3748,108.435,0.539164,-11.7234,3.66752,7.12502,14.3235,-25.8184,-3.18055e-14,1.74931e-14,-36.2464,-0.168008,78.939,48.2839,10.6375,-10.8675,53.1226,7.12502,15.1481,82.5482,-46.5098,-8.63792,15.8487,58.7704,-12.1583,-10.0905,8.77397,-7.82496,-0.826807,-35.6943,29.2825,-21.5081,-1.27982,-6.37634
-1.7153,17.5652,35.623,-174.843,-0.211243,-189.031,24.1132,-1.9143,-7.3101,3.26355,-4.89747,3.8121,-8.84967,-2.39162,10.0707,-9.82236,0.966592,-0.161754,11.3883,2.55119,-7.16909,5.13907,0.880048,-2.01,5.32743e-14,1.90833e-14,-41.2187,-44.3583,-37.636,108.572,2.81031,-11.593,3.94168,7.12502,14.4492,-25.5353,5.32743e-14,1.90833e-14,-35.0972,-1.1326,79.1331,48.7676,11.2197,-11.0898,53.0556,7.12502,14.934,82.4973,-46.6133,-9.10407,15.7705,56.6519,-11.9378,-10.7447,10.0399,-6.62638,-1.49419,-35.7455,28.8534,-21.3509,-1.20696,-4.83679
-1.72934,17.509,35.4835,-174.446,1.00333,-189.006,23.9927,-2.33899,-7.83475,3.30937,-3.93206,3.70482,-8.82145,-1.24884,9.8462,-9.73996,0.811908,-0.151936,11.0239,2.28948,-7.09583,5.00138,0.763282,-2.00721,-4.69132e-14,-1.59028e-14,-39.192,-44.2617,-39.1969,108.342,5.1355,-12.0301,3.97147,7.12502,14.028,-25.5352,-4.69132e-14,-1.59028e-14,-34.261,-1.84746,79.2803,49.6653,11.53,-11.1964,53.3015,7.12502,14.8313,82.7507,-48.0639,-8.0668,15.8898,54.5362,-10.7361,-11.1798,11.3255,-6.56977,-1.08887,-36.1408,28.5884,-21.4697,-0.18062,-3.76584
-1.72219,17.4745,35.312,-174.353,0.637115,-189.117,24.239,-2.37441,-7.86358,3.16858,-4.0081,3.76437,-9.08746,-1.26225,9.98508,-9.56997,0.77422,-0.264199,10.998,2.23963,-7.00376,4.96065,0.745139,-1.96386,-5.08889e-14,2.8625e-14,-37.1894,-43.189,-40.8998,108.098,7.2329,-12.9327,3.95429,7.12502,13.158,-25.6105,-5.08889e-14,2.8625e-14,-33.7454,-2.35816,79.4354,50.4625,11.7673,-11.1153,53.1789,7.12502,14.9094,82.6224,-48.5149,-7.96361,15.7166,52.3992,-9.98379,-11.9065,13.1013,-5.81988,-1.23152,-36.2802,28.3164,-21.866,-0.373638,-2.76078
-1.71355,17.44,35.1446,-174.29,0.272241,-189.149,24.2628,-1.44334,-7.43355,3.08619,-4.27802,3.88615,-9.24579,-2.04065,10.0822,-9.34641,0.742631,-0.100103,10.8201,2.17688,-7.1566,4.86866,0.721551,-2.04245,-5.08889e-14,-3.97569e-14,-35.4401,-41.8756,-42.4739,107.939,9.16808,-13.5443,3.99131,7.12502,12.5685,-25.6106,-5.08889e-14,-3.97569e-14,-32.9251,-3.0911,79.6128,51.0262,11.8883,-11.0353,53.6758,7.12502,14.9865,83.1135,-48.8988,-7.84422,15.6001,50.2323,-9.02696,-12.9379,13.2239,-5.14262,-1.44759,-36.3204,28.2218,-22.3323,-0.693128,-0.27954
-1.70064,17.4051,34.9693,-174.336,-0.12695,-189.402,24.3282,-1.41482,-7.56156,3.18247,-4.29559,3.84784,-9.16178,-2.0607,10.1181,-9.37333,0.6437,0.0506447,10.7105,2.01023,-7.1774,4.83414,0.644332,-2.08506,7.15625e-15,7.95139e-15,-33.8749,-40.5804,-44.0073,107.568,11.0746,-13.9563,4.07303,7.12502,12.1712,-25.5529,7.15625e-15,7.95139e-15,-31.867,-4.02614,79.7577,51.3888,11.9661,-11.0347,54.1126,7.12502,14.9871,83.5503,-49.0867,-7.71944,15.1865,48.062,-8.06348,-14.0088,13.3784,-4.25481,-1.58091,-36.5554,28.0385,-22.5758,-0.932948,2.36981
-1.68368,17.3749,34.7981,-174.383,-0.558468,-189.632,24.3929,-1.35804,-7.71638,3.32439,-4.28908,3.83217,-9.02726,-2.0773,10.1861,-9.54536,0.549364,0.0422688,10.6708,1.8473,-6.98261,4.84238,0.568613,-2.03463,1.43125e-14,3.02153e-14,-32.4407,-39.23,-45.4625,107.073,13.1507,-14.6464,4.31149,7.12502,11.5058,-25.3527,1.43125e-14,3.02153e-14,-30.72,-5.07853,79.9291,51.7605,12.1457,-11.221,54.1578,7.12502,14.8076,83.6088,-49.1931,-7.53569,14.7183,45.8258,-7.29935,-15.1658,14.8066,-3.50526,-1.54498,-36.7291,27.9277,-22.6072,-1.0133,1.84694
-1.66455,17.3432,34.6262,-174.387,-0.935235,-189.848,24.3386,-1.32515,-7.8844,3.46653,-4.30716,3.78321,-8.82622,-2.10901,10.2181,-9.52626,0.461507,0.141142,10.4349,1.67323,-6.89055,4.75928,0.493621,-2.03368,2.38542e-15,-2.38542e-14,-31.071,-37.8051,-47.0035,106.373,15.2382,-15.5363,4.65143,7.12502,10.6474,-25.0588,2.38542e-15,-2.38542e-14,-29.6078,-5.90643,79.9686,52.0905,12.0631,-11.378,54.1203,7.12502,14.6563,83.5823,-49.3229,-7.26377,14.2681,43.5893,-6.47328,-16.4101,14.8432,-2.86562,-1.26344,-36.9134,27.8356,-22.6186,-0.371283,-4.42686
-1.64338,17.3026,34.4488,-174.366,-1.35918,-189.847,24.2263,-1.3453,-7.8466,3.62927,-4.33585,3.80454,-8.57891,-2.15842,10.2062,-9.40452,0.380751,0.215989,9.9919,1.49196,-6.78057,4.59495,0.420032,-2.02253,5.80451e-14,1.43125e-14,-29.5521,-36.2515,-48.6499,105.311,17.172,-16.5055,4.95255,7.12502,9.7125,-24.8035,5.80451e-14,1.43125e-14,-28.4924,-6.73216,80.0263,52.452,12.049,-11.3759,54.1002,7.12502,14.6584,83.5621,-49.3509,-6.94829,13.9796,41.3203,-6.03576,-17.6149,16.4671,-2.10477,-0.957973,-36.8021,27.7873,-22.9296,0.146909,-9.80676
-1.62473,17.2632,34.264,-174.41,-1.77721,-190.103,24.2358,-1.31961,-8.02854,3.69409,-4.3606,3.73466,-8.49771,-2.17629,10.2355,-9.30446,0.239069,0.322456,9.88373,1.2579,-6.68015,4.53555,0.316333,-2.02412,-4.69132e-14,1.90833e-14,-28.5703,-34.6912,-49.9742,104.142,19.2846,-17.2306,5.12385,7.12502,9.01282,-24.6636,-4.69132e-14,1.90833e-14,-27.5174,-7.54282,80.1324,52.7401,11.9092,-11.6785,53.7172,7.12502,14.3668,83.2,-49.1679,-6.60395,13.2565,39.0541,-6.16875,-18.7401,18.9285,-1.38339,-0.903969,-36.9076,27.6802,-23.0045,-0.199496,-9.5613
-1.60183,17.2271,34.0746,-174.411,-2.19598,-190.162,24.3048,-1.32228,-8.17614,3.6129,-4.38799,3.82477,-8.59948,-2.16778,10.4473,-9.04706,0.122762,0.373802,9.89595,1.10983,-6.76946,4.4912,0.248409,-2.06929,-2.3059e-14,6.36111e-15,-28.066,-32.6216,-50.8706,102.901,21.1025,-18.1613,5.4216,7.12502,8.11462,-24.4026,-2.3059e-14,6.36111e-15,-27.0018,-8.24179,80.4114,53.1662,11.7088,-11.9185,53.5902,7.12502,14.1355,83.0894,-48.9896,-6.02583,12.615,36.8675,-6.66616,-20.0711,20.816,-0.500758,-1.02305,-36.8034,27.3359,-23.2053,-0.259258,-10.7109
-1.57552,17.1887,33.882,-174.346,-2.70349,-190.184,24.2416,-1.37852,-8.19559,3.54281,-4.44169,3.87094,-8.62681,-2.18039,10.5254,-8.77611,0.0304453,0.318879,9.91329,0.968564,-6.58868,4.44431,0.192052,-2.01299,6.12257e-14,1.74931e-14,-27.6874,-30.8018,-51.7294,101.428,22.7422,-19.0866,6.06167,7.12502,7.22157,-23.7951,6.12257e-14,1.74931e-14,-26.2388,-9.04104,80.53,53.3589,11.4787,-11.4111,54.136,7.12502,14.6245,83.6004,-48.7866,-5.29333,11.8374,34.7405,-7.85207,-21.6397,22.9435,0.511746,-1.26889,-36.6108,26.7887,-23.3855,-0.434795,-11.3545
-1.55317,17.1495,33.681,-174.371,-3.26916,-190.533,24.0052,-1.41232,-8.34459,3.71713,-4.52948,3.75231,-8.28551,-2.25874,10.4626,-8.80106,-0.140701,0.338382,9.84395,0.688544,-6.32898,4.41563,0.0658333,-1.95381,1.51076e-14,6.04305e-14,-26.8838,-29.6575,-52.8736,99.5924,24.1993,-19.9839,6.84322,7.12502,6.35534,-23.0414,1.51076e-14,6.04305e-14,-24.4876,-9.95447,80.4274,52.9671,11.316,-10.8768,54.3017,7.12502,15.1392,83.728,-48.4303,-4.75528,10.698,32.7432,-8.5924,-23.097,23.3993,1.82838,-1.38983,-36.7182,25.9998,-23.562,-0.907761,-11.9191
-1.52981,17.1115,33.4803,-174.327,-3.80476,-190.823,24.0761,-1.45153,-8.51633,3.65868,-4.6222,3.70097,-8.35741,-2.28492,10.5404,-8.85791,-0.273023,0.286588,10.0236,0.498954,-6.10037,4.47257,-0.0217388,-1.8882,-6.36111e-15,-4.77083e-14,-26.3613,-28.3823,-53.7322,97.5526,25.6129,-20.7703,7.89025,7.12502,5.59616,-22.0159,-6.36111e-15,-4.77083e-14,-24.1331,-10.5221,80.649,53.5285,11.0064,-10.9427,54.471,7.12502,15.0757,83.9021,-48.0916,-3.86993,9.38167,30.9234,-10.1321,-24.5703,23.7549,3.14855,-1.2464,-36.6586,25.0255,-23.6762,-1.75741,-11.6616
-1.50819,17.0771,33.267,-174.241,-4.24272,-190.76,23.8155,-1.49874,-8.33258,3.68128,-4.60525,3.73055,-8.21093,-2.29091,10.4326,-8.93263,-0.4183,0.219968,10.1447,0.294716,-5.90644,4.51486,-0.117831,-1.83166,-7.15625e-14,2.8625e-14,-25.9631,-27.3763,-54.459,95.4145,26.9215,-21.1297,9.19273,7.12502,5.24909,-20.7223,-7.15625e-14,2.8625e-14,-23.4449,-11.059,80.9158,53.5837,10.3436,-11.0145,54.1403,7.12502,15.0065,83.5765,-47.707,-2.72916,8.34309,29.1142,-12.0611,-25.9988,24.0622,4.46105,-1.50903,-36.3427,24.0391,-23.6216,-2.34214,-9.86068
-1.49075,17.0351,33.0443,-174.28,-4.62833,-190.805,23.6171,-1.54694,-8.20672,3.74524,-4.62343,3.71056,-8.04283,-2.31937,10.3149,-9.08329,-0.568017,0.00276555,10.4373,0.0963858,-5.54704,4.62353,-0.210599,-1.70066,-1.19271e-14,-6.36111e-15,-25.342,-26.3752,-55.2901,92.8391,28.0574,-22.3411,9.59976,7.12502,4.07941,-20.3409,-1.19271e-14,-6.36111e-15,-22.6475,-11.5617,81.1489,53.4664,9.80992,-10.9776,53.8433,7.12502,15.042,83.2769,-47.0048,-1.56265,7.1857,27.1341,-13.8106,-27.2329,24.5419,5.84752,-2.44866,-36.3801,23.3102,-23.6482,-2.31243,-7.8309
-1.47416,16.9731,32.8133,-174.243,-4.93832,-190.917,23.4642,-1.59357,-8.16678,3.71956,-4.65195,3.69752,-7.98891,-2.33223,10.2695,-9.3086,-0.723435,-0.125455,10.7976,-0.0815293,-5.42196,4.76738,-0.302457,-1.65647,1.03368e-14,7.95139e-15,-24.594,-25.4598,-56.1297,89.9318,29.512,-23.7065,9.81372,7.12502,2.76078,-20.1482,1.03368e-14,7.95139e-15,-22.0635,-11.9151,81.4902,53.3869,9.49433,-11.1819,54.1135,7.12502,14.8453,83.5617,-46.471,-0.391466,6.00339,25.3194,-15.9051,-28.4261,25.0438,7.09909,-2.85049,-36.3526,22.6439,-23.678,-2.75665,-6.63597
-1.45681,16.8994,32.5768,-174.2,-5.21977,-190.894,23.3631,-1.67436,-7.97093,3.59135,-4.67439,3.72856,-8.08651,-2.32503,10.1941,-9.19538,-0.873447,-0.405518,10.9961,-0.250696,-5.22479,4.80609,-0.382493,-1.56138,2.38542e-15,4.92986e-14,-23.9295,-24.6287,-56.9183,86.786,30.8917,-24.0118,11.1496,7.12502,2.46599,-18.8159,2.38542e-15,4.92986e-14,-21.832,-12.0199,81.8997,53.4425,9.06034,-11.1342,54.4006,7.12502,14.8912,83.8454,-46.0954,0.642033,5.10994,23.9669,-18.9664,-28.9736,31.5218,8.39586,-3.21461,-36.1982,21.963,-23.5689,-2.81496,-7.18265
-1.43814,16.8591,32.3358,-174.198,-5.50873,-190.973,23.2993,-1.70794,-7.88937,3.47933,-4.67036,3.74599,-8.18359,-2.30427,10.166,-8.85051,-1.05796,-0.631863,10.9842,-0.475093,-5.13618,4.73999,-0.486642,-1.50898,-1.35174e-14,-2.70347e-14,-23.1763,-23.9239,-57.7378,83.4842,31.8803,-23.8312,11.4117,7.12502,2.64039,-18.5517,-1.35174e-14,-2.70347e-14,-21.6403,-12.1097,82.3468,53.3317,8.45715,-10.9961,53.8308,7.12502,15.0242,83.2657,-45.7416,1.14025,4.57948,23.2901,-19.9498,-29.4069,29.8191,9.82059,-3.62882,-36.1544,21.1811,-23.28,-3.07434,-6.52751
-1.41827,16.8441,32.0955,-174.167,-5.6981,-190.838,23.2384,-1.74757,-7.73545,3.41463,-4.66135,3.86803,-8.22678,-2.29403,10.2121,-9.06919,-1.1258,-0.828794,11.3438,-0.508915,-5.09432,4.88834,-0.513432,-1.47023,-7.95139e-14,4.45278e-14,-22.2746,-23.1648,-58.5219,80.0801,32.7049,-23.6417,11.2553,7.12502,2.82341,-18.7058,-7.95139e-14,4.45278e-14,-21.4064,-12.0753,82.7755,53.2136,8.16732,-11.0871,53.1971,7.12502,14.9366,82.6385,-45.7909,1.01893,4.92072,23.588,-19.0377,-29.584,20.3746,11.2216,-3.99776,-35.8568,20.1718,-22.6552,-3.5044,-7.40531
-1.402,16.8259,31.8496,-174.143,-5.84012,-190.812,23.2432,-1.73608,-7.57825,3.28806,-4.58327,3.90815,-8.39675,-2.23467,10.1545,-9.35153,-1.22344,-0.79634,11.8684,-0.582749,-5.1853,5.09632,-0.560373,-1.51501,-8.0309e-14,7.95139e-15,-21.7536,-22.6434,-58.9467,76.7103,33.4137,-22.6191,11.5513,7.12502,3.81092,-18.3944,-8.0309e-14,7.95139e-15,-21.3869,-12.1553,83.252,53.1641,7.96449,-11.2399,52.5831,7.12502,14.7894,82.0354,-46.0979,0.39659,5.48756,24.756,-18.9109,-28.5517,19.9049,12.7643,-4.31712,-35.68,18.9056,-21.7081,-4.02437,-10.5926
-1.3855,16.8143,31.5923,-174.181,-5.78405,-190.655,23.121,-1.65585,-7.42345,3.25951,-4.41523,4.03805,-8.40141,-2.15434,10.158,-9.68177,-1.3211,-0.831351,12.2088,-0.643262,-5.37042,5.25654,-0.608654,-1.57682,-6.75868e-14,-8.5875e-14,-20.9412,-22.1353,-59.3714,73.2362,33.4285,-21.3968,11.6766,7.12502,4.99124,-18.2446,-6.75868e-14,-8.5875e-14,-21.403,-12.0855,83.8121,53.1838,7.73946,-11.1163,52.4552,7.12502,14.9084,81.8987,-46.4225,-0.21965,6.3747,26.2794,-19.4777,-26.8734,21.5021,14.2986,-4.41806,-35.3941,17.7102,-20.373,-4.29694,-13.2904
-1.36789,16.8031,31.3369,-174.135,-5.64773,-190.372,23.0434,-1.61253,-7.14506,3.21086,-4.2678,4.19297,-8.4546,-2.08378,10.1292,-9.93042,-1.37067,-0.902646,12.2675,-0.665601,-5.51081,5.31688,-0.635302,-1.6134,-7.95139e-16,8.11041e-14,-19.9932,-21.6067,-59.9544,69.8904,33.3522,-20.3446,10.9921,7.12502,6.00715,-18.9028,-7.95139e-16,8.11041e-14,-21.5159,-12.0379,84.3934,53.3069,8.21546,-11.7628,52.9394,7.12502,14.2856,82.428,-47.0119,-0.909726,7.53364,27.915,-18.0361,-25.5904,20.7746,15.5481,-4.46588,-34.965,16.7688,-18.8852,-4.46689,-14.7592
-1.35,16.802,31.0855,-174.024,-5.59768,-190.279,23.1382,-1.62888,-7.07591,3.01259,-4.24435,4.35524,-8.7235,-2.03775,10.2938,-9.83275,-1.35711,-1.01898,12.2926,-0.575821,-5.766,5.31105,-0.605586,-1.66631,3.97569e-15,-5.56597e-14,-19.35,-20.8414,-60.3011,66.8745,33.0768,-19.0075,10.4475,7.12502,7.29788,-19.4066,3.97569e-15,-5.56597e-14,-21.9489,-11.7377,85.0614,53.41,8.73491,-12.9562,52.9117,7.12502,13.1354,82.478,-47.7682,-1.64989,8.37853,29.6451,-11.0923,-26.3102,20.5121,16.4823,-4.58343,-34.6903,16.1959,-17.512,-4.89834,-16.304
-1.34112,16.8195,30.8352,-173.996,-5.54829,-190.069,23.4073,-1.64065,-6.80182,2.78629,-4.17308,4.57287,-9.13864,-1.96603,10.41,-9.72596,-1.32571,-1.1408,12.441,-0.443038,-6.0449,5.34344,-0.556017,-1.72351,-1.59028e-14,-2.8625e-14,-18.7497,-20.4507,-60.474,63.5246,32.1895,-18.1615,10.4026,7.12502,8.11443,-19.4216,-1.59028e-14,-2.8625e-14,-22.5796,-11.1383,85.8088,53.5932,8.64095,-13.3664,52.334,7.12502,12.74,81.9253,-48.3992,-2.21232,9.05457,31.3939,-6.23881,-26.9344,21.8358,17.1135,-4.78908,-34.3581,16.2405,-16.0916,-5.46094,-17.4717
-1.33815,16.8282,30.5832,-174.002,-5.18142,-189.744,23.7704,-1.81393,-7.12391,1.83128,-4.36286,5.05448,-10.3093,-1.8666,11.3363,-6.09624,-1.09229,-1.67483,11.345,-0.0954252,-6.50766,4.40213,-0.308271,-1.71708,8.74653e-15,4.6118e-14,-19.0766,-18.5598,-60.1598,60.0188,30.5029,-17.0293,9.9475,7.12502,9.20705,-19.8315,8.74653e-15,4.6118e-14,-25.3608,-9.58448,86.9811,54.1049,8.97384,-14.0988,51.5558,7.12502,12.0338,81.1898,-49.0232,-2.46211,9.7545,33.2243,-3.85686,-26.606,23.6125,17.3973,-5.03651,-34.1262,17.0268,-14.6123,-5.69938,-17.9847
-1.33633,16.8282,30.3316,-174.012,-4.68022,-189.339,24.0815,-1.48993,-5.84764,2.61705,-3.74969,4.94578,-9.817,-1.75186,10.2425,-10.3029,-1.23154,-1.29519,12.4792,-0.181873,-6.54519,5.46282,-0.474403,-1.84063,-8.26944e-14,-1.41535e-13,-16.6905,-20.7652,-61.191,56.2567,28.788,-15.297,9.35797,7.12502,10.8783,-20.3403,-8.26944e-14,-1.41535e-13,-23.5574,-10.0827,87.0318,53.9682,9.49221,-14.3989,51.0815,7.12502,11.7445,80.7323,-49.6022,-2.79575,10.7181,35.1298,-2.77229,-25.4256,23.4933,17.2948,-5.3455,-33.9042,18.5257,-13.1173,-5.83651,-17.9513
-1.3289,16.8317,30.0848,-174.081,-4.13265,-188.812,24.5337,-1.3178,-5.138,2.67079,-3.37469,5.10332,-10.1066,-1.59936,9.93539,-11.0282,-1.23347,-1.33779,12.6107,-0.13006,-6.66733,5.63006,-0.478124,-1.87616,8.74653e-15,-1.59028e-14,-15.5848,-21.7038,-61.6209,52.6743,26.918,-13.5993,8.92774,7.12502,12.5155,-20.6775,8.74653e-15,-1.59028e-14,-23.8605,-9.85925,87.4484,54.1973,9.24254,-13.4279,51.5375,7.12502,12.6807,81.1325,-50.089,-2.91713,11.7838,37.0567,-2.11846,-24.2474,22.2812,16.847,-5.42214,-33.4447,20.5338,-11.351,-6.20971,-18.4685
-1.31892,16.84,29.8346,-173.993,-3.48303,-188.342,24.8316,-1.1052,-4.6782,2.66372,-2.98499,5.32949,-10.3619,-1.42599,9.83775,-11.5822,-1.19499,-1.27854,12.6988,0.0011519,-7.03506,5.75731,-0.447263,-1.99723,-4.69132e-14,5.24792e-14,-14.7276,-22.9447,-61.8267,49.3185,25.0965,-12.361,7.87675,7.12502,13.7091,-21.6517,-4.69132e-14,5.24792e-14,-24.2546,-9.42618,87.8877,54.3788,8.77395,-12.0571,51.5496,7.12502,14.002,81.058,-50.7134,-3.1088,12.8649,38.9366,-0.971929,-22.498,21.5597,15.9525,-5.41038,-33.015,22.9226,-9.2091,-6.58478,-19.9393
-1.30788,16.8543,29.5784,-173.96,-2.94819,-188.097,25.0702,-0.930663,-4.46111,2.73102,-2.72091,5.51083,-10.4649,-1.3178,9.85771,-11.9623,-1.19378,-1.43466,12.5521,0.0444057,-7.11976,5.77899,-0.444669,-1.99698,-4.45278e-14,-1.04958e-13,-13.8992,-24.2746,-62.0608,46.0091,22.8079,-11.5225,5.71773,7.12502,14.5171,-23.7544,-4.45278e-14,-1.04958e-13,-24.5872,-9.12054,88.35,54.353,9.1937,-11.8228,51.3131,7.12502,14.2277,80.8058,-51.1242,-3.56788,13.7602,40.75,-0.273648,-20.2914,22.4959,14.9749,-5.39005,-32.7801,25.3969,-6.4271,-6.91108,-21.262
-1.2885,16.8686,29.3285,-173.928,-2.61728,-187.911,25.3807,-1.15136,-4.85805,2.16015,-3.03632,5.93239,-11.1801,-1.35456,10.7752,-9.25446,-0.877339,-2.19296,11.4472,0.46287,-7.20233,4.98957,-0.173175,-1.83331,-1.51076e-14,4.6118e-14,-13.8368,-23.9334,-62.0409,42.6111,19.2363,-11.0933,3.56057,7.12502,14.9306,-25.8813,-1.51076e-14,4.6118e-14,-26.7397,-7.58001,89.0402,54.4646,9.7018,-11.8795,51.4701,7.12502,14.1731,80.9667,-51.4263,-4.21787,14.6154,42.4464,-0.299407,-18.272,22.3527,13.8509,-5.37014,-32.4546,27.8906,-3.05071,-7.5067,-21.3532
-1.26906,16.8824,29.0817,-173.904,-2.42877,-187.772,25.6561,-1.15018,-4.82474,2.0877,-3.02878,6.1707,-11.4018,-1.33703,11.0761,-8.80054,-0.753273,-2.33017,11.0695,0.639915,-7.41212,4.80252,-0.078205,-1.85815,-1.66979e-14,8.74653e-14,-13.0542,-26.2042,-62.1542,38.6757,15.7582,-10.9713,4.00627,7.12502,15.0481,-25.4268,-1.66979e-14,8.74653e-14,-27.6919,-7.16652,89.5462,54.585,10.0319,-11.8212,51.0102,7.12502,14.2293,80.5028,-51.5916,-4.98916,15.3641,43.9833,-0.814313,-16.9712,22.6703,12.6209,-5.45221,-32.1633,30.4543,0.651847,-8.12912,-20.7728
-1.24829,16.8984,28.8391,-173.956,-2.18984,-187.733,25.8732,-0.982335,-4.67009,2.32715,-2.81951,6.24991,-11.2901,-1.28297,11.0132,-9.11168,-0.730162,-1.95777,10.6588,0.666655,-7.94466,4.7315,-0.0759652,-2.08105,2.62396e-14,-4.6118e-14,-12.2944,-30.1556,-62.0367,34.8107,13.4688,-10.4867,6.29906,7.12502,15.5149,-23.0985,2.62396e-14,-4.6118e-14,-27.8751,-7.42606,89.8943,54.5349,10.239,-11.6282,50.5815,7.12502,14.4152,80.0609,-51.547,-5.44155,15.8303,45.3774,-1.18047,-16.2207,23.2598,11.2087,-5.55467,-32.0198,33.1028,4.62741,-8.40488,-19.4444
-1.22978,16.9238,28.5963,-173.963,-2.12243,-187.522,25.9767,-0.933126,-4.34481,2.58234,-2.72225,6.42734,-11.0776,-1.30034,10.9904,-9.498,-0.681179,-1.83921,10.3195,0.760834,-8.35352,4.69818,-0.0452331,-2.22034,-1.11319e-14,-1.27222e-14,-11.4893,-31.8499,-62.5556,32.9974,8.81094,-11.5429,0.819541,7.12502,14.4975,-28.654,-1.11319e-14,-1.27222e-14,-27.9422,-7.78786,90.203,54.3864,10.5653,-11.4326,50.8958,7.12502,14.6037,80.3616,-51.3265,-5.51305,16.237,46.6006,-1.64171,-15.6489,23.1097,9.57081,-5.74376,-31.652,35.8627,8.30603,-8.60962,-19.7067
-1.21419,16.9464,28.3483,-174.151,-2.05971,-187.389,26.188,-0.822438,-4.08075,2.85592,-2.57212,6.59646,-10.9096,-1.28978,10.9862,-9.90205,-0.72508,-1.98168,10.1823,0.735505,-8.39896,4.72415,-0.0707596,-2.21421,5.00937e-14,2.22639e-14,-10.9966,-35.1691,-62.482,30.5712,5.83082,-12.473,-0.842965,7.12502,13.6012,-30.3787,5.00937e-14,2.22639e-14,-27.9896,-8.40018,90.6873,53.9351,10.79,-11.4005,51.1456,7.12502,14.6346,80.6092,-50.7598,-5.2576,16.3305,47.7002,-2.56277,-15.2963,24.3928,8.0736,-5.93303,-31.4362,38.7723,11.6671,-8.62169,-18.1322
-1.1942,16.9782,28.1059,-174.255,-1.94495,-187.078,26.3745,-0.714821,-3.77299,3.07957,-2.40643,6.84187,-10.7868,-1.26789,11.0443,-10.2099,-0.76086,-2.08586,10.06,0.721622,-8.48489,4.73901,-0.0883743,-2.22573,-1.19271e-14,-9.85972e-14,-10.8333,-38.8057,-62.1393,28.1886,3.4358,-13.6076,-0.401119,7.12502,12.5075,-30.0068,-1.19271e-14,-9.85972e-14,-28.0335,-9.07993,91.1264,53.4653,11.0647,-11.3871,51.0974,7.12502,14.6475,80.5601,-50.2326,-4.89252,16.665,48.6452,-3.53251,-15.2961,24.3792,6.30964,-6.10295,-31.0343,41.8263,15.0131,-8.54436,-12.7034
-1.17643,17.0101,27.8732,-174.328,-1.78034,-186.871,26.7892,-0.626433,-3.5648,2.90808,-2.24701,7.36714,-10.8333,-1.27378,10.8207,-10.0813,-0.7743,-2.09654,9.85227,0.72688,-8.73818,4.6555,-0.0844061,-2.2993,-5.56597e-14,-1.59028e-15,-11.1966,-41.1664,-61.6748,26.9205,0.234071,-14.9845,-1.96467,7.12502,11.1797,-31.6468,-5.56597e-14,-1.59028e-15,-28.4798,-9.56762,91.576,53.0232,10.9534,-11.1698,50.9921,7.12502,14.8569,80.4395,-49.7976,-4.72015,16.9951,49.5295,-4.33847,-15.3362,24.016,4.36673,-6.14823,-30.7576,44.9197,18.1972,-8.73133,-7.94432
-1.16119,17.0275,27.6395,-174.448,-1.65198,-186.641,26.8805,-0.547153,-3.11876,3.17783,-2.08909,7.45079,-10.6182,-1.26769,10.595,-10.179,-0.790166,-1.92946,9.58925,0.694759,-8.98122,4.59115,-0.0995162,-2.40252,-7.31528e-14,3.18055e-15,-11.4883,-44.3051,-61.3065,25.6807,-1.83239,-16.0335,-2.07817,7.12502,10.1678,-31.8125,-7.31528e-14,3.18055e-15,-28.7667,-10.1184,91.8438,52.8495,10.5712,-10.8614,51.2057,7.12502,15.154,80.6308,-49.2693,-4.73134,17.3803,50.3496,-5.26961,-15.1353,23.3374,2.43813,-5.97465,-30.4228,48.0548,20.6672,-9.3438,-6.27444
-1.14614,17.0422,27.404,-174.763,-1.48792,-186.485,27.2294,-0.367149,-2.79197,3.49183,-1.85432,7.56382,-10.4842,-1.22537,10.456,-10.6997,-0.794291,-1.84875,9.662,0.736507,-9.15967,4.70433,-0.10024,-2.47245,-1.27222e-14,1.90833e-14,-12.0312,-47.641,-60.6612,24.8081,-3.53994,-17.1896,-2.51098,7.12502,9.05234,-32.2967,-1.27222e-14,1.90833e-14,-28.9286,-10.7385,92.1421,52.6646,10.3642,-10.5738,50.7781,7.12502,15.431,80.1821,-48.5285,-4.76239,17.6623,51.127,-6.22998,-14.8712,22.4993,0.774864,-5.68703,-30.1803,51.1355,21.7416,-9.62601,-4.81493
-1.12972,17.0569,27.1762,-175.089,-1.23373,-186.297,27.8103,-0.161668,-2.5375,3.7064,-1.59367,7.72672,-10.5678,-1.15347,10.4228,-11.3938,-0.795989,-1.8058,9.94396,0.829639,-9.38915,4.91458,-0.0903061,-2.55181,-1.43125e-14,-5.24792e-14,-12.9086,-50.7757,-59.7022,24.175,-5.14332,-18.4136,-3.21348,7.12502,7.87118,-33.0469,-1.43125e-14,-5.24792e-14,-29.0608,-11.1995,92.4331,52.2306,9.99151,-10.3023,49.5094,7.12502,15.6925,78.8931,-47.7459,-4.5007,17.8922,51.8689,-7.1851,-14.8535,21.3562,-0.862851,-5.37379,-29.9335,54.1796,21.2302,-9.68661,-4.10243
-1.11648,17.0738,26.953,-175.354,-0.84769,-185.982,28.3682,0.0349688,-2.17751,3.87493,-1.30396,7.89304,-10.6934,-1.06789,10.3227,-11.7345,-0.772266,-1.88466,9.97377,0.9088,-9.45184,4.98563,-0.0662506,-2.55528,1.43125e-14,-5.24792e-14,-14.1642,-52.5081,-58.6169,24.1115,-7.73973,-19.6722,-3.66932,7.12502,6.65623,-33.5447,1.43125e-14,-5.24792e-14,-29.3367,-11.4383,92.6572,51.7738,9.2431,-9.72337,48.5776,7.12502,16.25,77.9166,-46.9735,-4.13782,18.2472,52.5301,-8.1656,-14.8239,21.1163,-2.61095,-4.92692,-29.5816,57.1557,19.3983,-9.46613,-4.37068
-1.10448,17.0826,26.7288,-175.576,-0.465238,-185.766,28.7564,0.187905,-1.8944,4.01863,-1.0803,7.99954,-10.7518,-1.00545,10.2133,-11.8002,-0.761793,-1.84644,9.89128,0.961395,-9.71096,4.97605,-0.0474399,-2.63787,7.63333e-14,4.77083e-15,-15.6919,-53.0812,-57.654,24.7578,-11.3006,-20.9082,-4.26488,7.12502,5.46303,-34.1745,7.63333e-14,4.77083e-15,-29.778,-11.7108,92.7997,51.3687,8.55209,-8.9446,48.5188,7.12502,16.9998,77.7949,-46.2842,-3.86328,18.5227,53.1655,-9.129,-14.7782,20.4849,-4.40132,-4.37414,-29.3013,60.0359,16.9887,-8.87897,-5.60719
-1.09303,17.0955,26.5005,-175.849,-0.0535222,-185.405,29.1735,0.320982,-1.40921,4.18517,-0.831546,8.04891,-10.7951,-0.944488,9.91395,-11.8872,-0.757433,-1.61968,9.84563,0.961839,-9.93556,4.97846,-0.0514703,-2.74542,-1.59028e-15,-3.97569e-14,-17.2116,-54.0221,-56.8424,25.5138,-14.6132,-22.1304,-4.6195,7.12502,4.28289,-34.5562,-1.59028e-15,-3.97569e-14,-30.2792,-11.9934,92.7977,50.9735,7.66794,-8.90169,47.7665,7.12502,17.0411,77.039,-45.4281,-3.60949,18.9818,53.6716,-10.1462,-14.8432,19.6101,-6.14566,-3.69739,-28.8586,62.7511,14.0125,-8.45877,-9.33388
-1.07685,17.1121,26.2766,-176.068,0.199657,-185.105,29.2173,-1.66856,-2.20598,4.97807,-0.126316,7.95687,-10.0165,0.803798,9.70122,-12.2058,-0.740782,-1.36895,9.54034,0.936762,-10.0803,4.93747,-0.0635879,-2.83337,2.8625e-14,7.63333e-14,-18.0586,-54.8306,-56.709,26.5126,-18.0651,-22.9488,-4.67148,7.12502,3.49254,-34.6226,2.8625e-14,7.63333e-14,-30.4083,-11.8446,92.5743,50.8764,7.06205,-8.6571,47.3516,7.12502,17.2765,76.6037,-44.5534,-3.44254,19.3713,54.1314,-11.2517,-14.9012,20.1571,-7.98136,-3.10104,-28.3806,65.2403,11.3348,-7.72536,-12.2882
-1.06069,17.1294,26.0591,-176.147,0.402203,-184.621,29.554,-1.72817,-1.77477,5.07102,0.0178232,8.10803,-10.0933,0.885222,9.57092,-12.0748,-0.649019,-1.18763,9.15509,1.03686,-10.405,4.80438,-0.00457325,-2.95161,-3.97569e-14,-6.36111e-14,-19.7527,-54.9606,-55.7834,27.7003,-21.5412,-23.2141,-4.85565,7.12502,3.2363,-34.8108,-3.97569e-14,-6.36111e-14,-31.0328,-11.4379,92.4458,50.7519,6.88461,-8.56627,47.2094,7.12502,17.3639,76.4538,-43.8082,-3.29927,19.985,54.5124,-12,-15.0409,20.397,-9.96604,-2.40691,-27.6529,67.4623,9.19436,-7.07359,-15.0708
-1.04367,17.1368,25.8415,-176.164,0.55328,-184.477,29.7727,-1.76695,-1.59812,5.09022,0.0546939,8.14073,-10.1749,0.907631,9.49498,-11.8111,-0.550147,-1.163,8.87447,1.13826,-10.4885,4.67943,0.0607431,-2.9691,-6.36111e-15,-3.18055e-14,-21.5274,-54.4965,-54.9522,29.1593,-25.5698,-23.6529,-5.11082,7.12502,2.81258,-35.072,-6.36111e-15,-3.18055e-14,-31.7523,-10.9947,92.3228,50.3661,6.90279,-9.12764,46.3024,7.12502,16.8236,75.5936,-43.2057,-3.3711,20.2692,54.9195,-12.6118,-15.1053,19.7221,-11.9776,-1.78059,-27.3335,69.4068,7.49423,-6.24468,-15.9197
-1.02336,17.1549,25.6216,-176.293,0.666795,-184.386,29.9563,-1.78486,-1.52885,5.25866,0.106823,8.1825,-10.0777,0.94305,9.4768,-11.8208,-0.472493,-1.21643,8.8164,1.23366,-10.4186,4.66719,0.110047,-2.93096,1.59028e-14,-9.54166e-14,-22.9705,-54.7327,-54.3186,30.6308,-28.837,-24.1931,-5.40485,7.12502,2.29087,-35.3723,1.59028e-14,-9.54166e-14,-32.288,-10.4628,92.1233,50.1097,7.15209,-9.02287,46.2214,7.12502,16.9244,75.5039,-42.3804,-3.37611,20.4667,55.3083,-13.4852,-15.2427,18.0569,-13.8063,-1.13627,-27.0393,71.0085,6.17841,-5.4136,-15.689
-1.00293,17.1689,25.4036,-176.441,0.839817,-184.398,30.0718,-1.77742,-1.59924,5.50917,0.141117,8.18645,-9.85502,0.969857,9.49824,-11.9686,-0.381919,-1.10853,8.65842,1.34833,-10.5639,4.65107,0.16446,-2.98486,2.54444e-14,-7.63333e-14,-24.2587,-55.0447,-53.8906,32.2871,-32.0213,-24.6795,-5.41455,7.12502,1.82114,-35.3865,2.54444e-14,-7.63333e-14,-32.6633,-9.89873,91.8383,49.8976,7.93332,-9.07769,47.031,7.12502,16.8716,76.3181,-41.556,-3.40241,20.5325,55.6793,-14.32,-15.2303,17.3403,-15.5805,-0.366489,-26.8652,72.3858,4.76116,-4.74618,-16.1992
-0.986748,17.1744,25.1863,-176.547,0.996478,-184.305,30.1307,-1.80364,-1.53098,5.78635,0.183009,8.19602,-9.58012,0.998402,9.44311,-12.419,-0.304726,-0.843908,8.69046,1.46283,-10.8092,4.74626,0.20155,-3.09961,1.59028e-15,1.11319e-14,-25.5473,-54.9374,-53.5966,34.2618,-35.0765,-24.9152,-5.667,7.12502,1.5935,-35.6408,1.59028e-15,1.11319e-14,-32.7851,-9.19205,91.464,49.3358,8.58323,-8.92364,47.8159,7.12502,17.0199,77.0903,-40.7844,-3.43009,20.7061,56.007,-15.1933,-15.3584,17.0141,-17.327,0.279658,-26.6739,73.5405,3.43895,-4.19178,-16.3637
-0.97398,17.183,24.9675,-176.728,1.12098,-184.109,30.528,-1.86471,-1.32439,5.85376,0.232386,8.24067,-9.68428,1.03578,9.35786,-12.5204,-0.246037,-0.648783,8.73415,1.5546,-11.0558,4.78563,0.236635,-3.20285,-2.8625e-14,6.20208e-14,-27.2047,-54.5091,-52.9833,36.2814,-37.8599,-25.0046,-6.03506,7.12502,1.50712,-36.0095,-2.8625e-14,6.20208e-14,-33.3358,-8.35178,91.2005,48.8002,9.08011,-9.35022,48.4041,7.12502,16.6093,77.7134,-39.932,-3.52613,20.9886,56.3039,-15.9915,-15.5304,15.9382,-18.9389,0.853048,-26.4501,74.4629,2.14557,-3.59619,-16.6854
-0.961507,17.192,24.751,-176.884,1.2394,-183.855,30.934,-1.94386,-1.08914,5.79635,0.258206,8.31648,-9.92671,1.0593,9.30516,-11.9488,-0.186266,-0.613117,8.43583,1.61048,-11.2583,4.60371,0.288079,-3.26102,6.04305e-14,1.60618e-13,-29.3017,-53.5965,-52.0459,38.5659,-41.0791,-25.3861,-6.22437,7.12502,1.13869,-36.2011,6.04305e-14,1.60618e-13,-34.1543,-7.5262,90.9754,48.3005,9.49593,-10.0507,48.4801,7.12502,15.9348,77.8446,-39.0758,-3.64421,21.3275,56.5702,-16.8136,-15.6356,14.8088,-20.5794,1.46451,-26.2044,75.1626,0.708991,-3.15064,-17.284
-0.94952,17.1954,24.5309,-176.844,1.30248,-183.799,31.0178,-2.00149,-1.00059,5.72265,0.223649,8.3719,-10.0407,1.04447,9.33359,-11.3643,-0.125306,-0.636516,8.0617,1.67773,-11.4975,4.3979,0.348391,-3.31967,1.74931e-14,7.95139e-14,-31.444,-52.7076,-50.9625,41.0229,-44.2105,-25.2457,-6.35732,7.12502,1.27431,-36.3333,1.74931e-14,7.95139e-14,-34.8963,-6.58411,90.7442,47.6893,9.97058,-10.6226,48.4158,7.12502,15.384,77.8234,-38.4335,-3.79469,21.4408,56.8384,-17.513,-15.77,13.3368,-22.411,1.91078,-26.2023,75.6701,-0.731534,-2.78577,-17.5228
-0.936337,17.1966,24.3179,-176.778,1.37173,-183.606,30.7597,-2.10046,-0.750639,5.97663,0.19992,8.35819,-9.64392,1.03058,9.17216,-11.5531,-0.0790444,-0.517157,7.89042,1.70352,-11.5075,4.3792,0.362292,-3.34023,-1.90833e-14,-1.04958e-13,-32.9412,-52.6921,-50.4712,43.2357,-46.1849,-24.8857,-6.06402,7.12502,1.62198,-36.0376,-1.90833e-14,-1.04958e-13,-35.0749,-5.73282,90.224,47.1356,10.7559,-10.7234,49.0842,7.12502,15.2869,78.4992,-37.7995,-3.8375,21.7,57.0707,-18.0819,-16.0331,11.8513,-24.2606,2.30741,-26.0614,76.0475,-1.95077,-2.48528,-18.2406
-0.921417,17.1886,24.1092,-176.699,1.5684,-183.224,30.8949,-2.12106,-0.542787,6.02034,0.292912,8.47932,-9.67247,1.0831,9.15408,-11.8785,0.0218366,-0.301491,7.99676,1.85688,-11.722,4.47976,0.418848,-3.43426,4.6118e-14,6.83819e-14,-34.6575,-52.3297,-49.7514,45.4579,-47.4958,-24.5018,-6.04016,7.12502,1.99277,-36.0106,4.6118e-14,6.83819e-14,-35.5456,-4.67916,89.8132,46.5597,11.3402,-10.8804,49.6191,7.12502,15.1357,79.0457,-37.1876,-3.70123,22.1719,57.2991,-18.8244,-16.1975,11.0804,-26.1041,2.90057,-25.7186,76.302,-3.11995,-2.38265,-18.5657
-0.909443,17.1779,23.8994,-176.644,1.83813,-182.93,30.9961,-2.07088,-0.43051,6.01647,0.437912,8.63012,-9.75014,1.15957,9.20512,-11.7901,0.0410545,-0.359726,7.92452,1.90554,-11.8372,4.4475,0.445118,-3.45569,3.65764e-14,-4.13472e-14,-36.5244,-51.5355,-48.8891,47.8904,-48.9568,-24.4629,-5.76129,7.12502,2.03028,-35.7314,3.65764e-14,-4.13472e-14,-36.2185,-3.70111,89.526,46.0608,11.7481,-11.3707,49.8992,7.12502,14.6634,79.3607,-36.4664,-3.50988,22.4926,57.4892,-19.9798,-15.9775,12.2056,-27.895,3.40408,-25.5129,76.3654,-4.45133,-2.25175,-18.0959
-0.901392,17.1671,23.6841,-176.547,2.06823,-182.671,31.0266,-2.01215,-0.265236,6.0284,0.602245,8.75047,-9.78161,1.24171,9.18376,-11.8362,0.0360106,-0.350309,7.82746,1.91215,-11.963,4.42812,0.448375,-3.49523,6.36111e-15,-2.22639e-14,-38.4824,-51.103,-47.7858,50.1706,-50.0163,-23.2308,-5.30997,7.12502,3.22021,-35.2654,6.36111e-15,-2.22639e-14,-36.7637,-2.8535,89.2089,45.5241,11.9852,-11.3407,50.3027,7.12502,14.6923,79.7621,-35.7514,-3.49741,22.7964,57.6424,-21.2356,-15.7287,13.939,-29.7492,3.77868,-25.4067,76.2569,-5.7522,-2.10756,-17.6837
-0.897509,17.1621,23.4672,-176.609,2.27657,-182.455,31.2234,-2.00028,0.000126059,6.03692,0.728691,8.74048,-9.87067,1.30168,8.97669,-11.7817,0.0657373,-0.192814,7.66956,1.92002,-12.0788,4.3736,0.459572,-3.55516,-4.6118e-14,5.725e-14,-40.5579,-50.3144,-46.9135,52.6565,-51.1131,-22.3514,-4.8864,7.12502,4.06947,-34.8273,-4.6118e-14,5.725e-14,-37.3354,-2.11843,88.7366,44.9564,12.2273,-10.7169,51.4193,7.12502,15.2932,80.8339,-34.8956,-3.57161,23.0313,57.7471,-22.1465,-15.7193,13.7344,-31.3349,4.11262,-25.3463,75.9045,-6.84337,-2.28746,-17.7029
-0.894535,17.1507,23.2545,-176.547,2.5937,-182.194,31.0863,-2.00487,0.246862,6.20634,0.822266,8.76119,-9.63726,1.34581,8.81893,-11.9965,0.122118,-0.274773,7.60698,1.99011,-11.9546,4.39264,0.491072,-3.49822,-2.38542e-14,-1.08139e-13,-41.9043,-49.33,-46.6492,55.0235,-52.1,-23.331,-5.05569,7.12502,3.1234,-35.0126,-2.38542e-14,-1.08139e-13,-37.6638,-1.17293,88.2282,44.4536,12.3999,-10.6433,52.0926,7.12502,15.3641,81.5017,-34.2374,-3.53794,23.3443,57.8394,-22.4061,-16.165,10.3285,-32.9163,4.46209,-25.275,75.3464,-7.78805,-2.54017,-18.0364
-0.890879,17.1365,23.0453,-176.493,2.7307,-182.078,30.8886,-2.08801,0.404125,6.3857,0.765976,8.72105,-9.34245,1.31809,8.70022,-12.1311,0.164049,-0.177937,7.44848,2.01121,-11.953,4.36848,0.504074,-3.51153,4.77083e-15,2.06736e-14,-43.1999,-48.2588,-46.4751,57.4094,-53.4698,-25.0231,-6.66158,7.12502,1.48925,-36.6361,4.77083e-15,2.06736e-14,-38.1083,-0.29442,87.6649,44.1621,12.4331,-11.0382,51.8803,7.12502,14.9837,81.3182,-33.5203,-3.61054,23.4733,57.9397,-22.8781,-16.4264,7.94262,-34.4316,4.69744,-25.3585,74.6018,-8.73044,-2.64349,-18.4029
-0.88269,17.1231,22.8368,-176.472,3.01024,-181.832,30.8755,-2.04112,0.480473,6.495,0.873716,8.76623,-9.2338,1.3737,8.66408,-12.1354,0.199759,-0.0401493,7.18606,2.01954,-12.0579,4.29197,0.517947,-3.56421,-3.02153e-14,2.8625e-14,-44.9282,-47.722,-45.571,59.5622,-55.4356,-24.8274,-7.52534,7.12502,1.67826,-37.4985,-3.02153e-14,2.8625e-14,-38.5479,0.560931,87.1438,43.6672,12.0342,-11.3688,51.5296,7.12502,14.6651,80.991,-32.7539,-3.44034,23.7472,58.0381,-23.6268,-16.7164,6.74971,-35.8837,5.08145,-25.2702,73.6901,-9.53413,-2.75774,-18.307
-0.873671,17.1081,22.6229,-176.394,3.24332,-181.684,30.7569,-1.93853,0.527452,6.5974,1.02366,8.78653,-9.09387,1.4454,8.60182,-12.166,0.173066,0.0199642,6.90419,1.94426,-12.0682,4.20664,0.493242,-3.58057,9.54166e-15,4.45278e-14,-47.0494,-47.7278,-44.1375,61.724,-57.9873,-23.5734,-5.84176,7.12502,2.8893,-35.8019,9.54166e-15,4.45278e-14,-38.7861,1.1645,86.6975,42.9397,11.6898,-11.4098,51.1695,7.12502,14.6257,80.6337,-31.9979,-3.29646,23.9021,58.1176,-24.464,-16.9156,6.45249,-37.3488,5.3634,-25.2819,72.6196,-10.2635,-2.84015,-18.3871
-0.866188,17.095,22.4067,-176.38,3.38835,-181.632,30.6895,-1.91526,0.598221,6.681,1.05744,8.69298,-8.97107,1.45692,8.44492,-12.2626,0.179684,0.0489802,6.74972,1.88907,-11.8224,4.16799,0.475183,-3.51226,6.20208e-14,1.52667e-13,-49.3865,-47.6653,-42.8607,64.0704,-59.8202,-22.0533,-3.82936,7.12502,4.35733,-33.7645,6.20208e-14,1.52667e-13,-39.2068,1.559,86.1606,42.6105,11.6365,-11.4936,50.9012,7.12502,14.545,80.3713,-31.1149,-3.29038,23.9293,58.1213,-25.3699,-16.9123,7.10373,-38.5952,5.46242,-25.3713,71.3229,-10.8235,-2.89993,-18.0912
-0.86849,17.0866,22.1967,-176.378,3.50633,-181.479,31.2931,-1.871,0.709188,6.29464,1.17508,8.76517,-9.66945,1.50762,8.43077,-11.8206,0.255303,-0.0706202,6.69568,1.97084,-11.7094,4.08041,0.532069,-3.4492,4.77083e-15,-6.99722e-14,-51.9907,-46.4237,-41.3878,66.4268,-59.956,-20.8324,-3.16155,7.12502,5.53618,-33.0692,4.77083e-15,-6.99722e-14,-40.4888,2.10456,85.8153,42.4989,11.5512,-11.6653,50.5452,7.12502,14.3795,80.0272,-30.2269,-3.43581,24.0327,57.9852,-26.0395,-16.9419,6.89989,-39.7891,5.438,-25.3676,69.8765,-11.3091,-2.89171,-18.4641
-0.867852,17.0907,21.9761,-176.43,3.58497,-181.419,30.9643,-2.03871,0.946564,6.57584,0.997652,8.54965,-9.17733,1.41743,8.11879,-11.9335,0.417154,0.168179,6.38759,2.0843,-11.5744,4.01135,0.600661,-3.43719,-1.27222e-14,-6.99722e-14,-53.4833,-46.0856,-41.1512,68.5695,-59.0596,-19.3474,-3.18125,7.12502,6.96978,-33.0465,-1.27222e-14,-6.99722e-14,-40.7422,2.68797,85.08,42.0742,11.3946,-11.9456,50.497,7.12502,14.1094,79.9979,-29.1032,-3.52442,24.0131,57.6764,-26.879,-16.9322,6.19379,-40.6667,5.24956,-25.3741,68.146,-11.8391,-2.81644,-18.4798
-0.868009,17.0956,21.7518,-176.524,3.50291,-181.333,30.8982,-2.27875,1.1252,6.70155,0.758981,8.50375,-8.9727,1.30898,8.0524,-11.9406,0.556714,0.180588,6.1283,2.2425,-11.5832,3.94381,0.688318,-3.42913,-1.43125e-14,-1.74931e-14,-54.6394,-45.4016,-40.8742,70.6265,-58.5349,-18.1524,-3.10332,7.12502,8.12327,-32.9272,-1.43125e-14,-1.74931e-14,-41.3199,3.45859,84.5402,41.8761,11.2425,-12.0829,50.9641,7.12502,13.9772,80.4742,-27.8128,-3.70381,24.0524,57.1951,-27.5647,-17.2015,4.75916,-41.3621,4.79377,-25.3043,66.2213,-12.3825,-2.49788,-19.4731
-0.869871,17.1001,21.5313,-176.609,3.46125,-181.303,31.1303,-2.61866,0.847373,6.61697,0.300534,8.74832,-9.11449,1.10911,8.64783,-11.4902,0.818965,-0.680266,5.77414,2.68758,-11.4587,3.77907,0.932653,-3.21509,1.90833e-14,-4.13472e-14,-54.7041,-43.3277,-41.2238,72.7877,-58.8575,-17.8047,-3.11001,7.12502,8.45879,-32.9206,1.90833e-14,-4.13472e-14,-42.4715,5.09842,84.1661,41.7066,11.1043,-12.0875,51.0449,7.12502,13.9727,80.5554,-26.5454,-3.80831,24.0114,56.6234,-28.0977,-17.3813,4.35535,-41.9674,4.41559,-25.2629,64.1038,-12.6771,-2.25432,-19.9757
-0.873086,17.1128,21.3054,-176.764,3.38503,-181.16,31.0974,-2.83147,1.04806,6.7578,0.118139,8.72624,-8.9165,1.02979,8.57238,-11.5285,0.893931,-0.724733,5.56683,2.77209,-11.4317,3.72629,0.982692,-3.19288,-2.54444e-14,9.38264e-14,-55.3474,-41.9911,-41.5285,75.1401,-59.2325,-18.2916,-2.8281,7.12502,7.98889,-32.6571,-2.54444e-14,9.38264e-14,-42.9518,5.5954,83.7474,41.2859,11.2154,-12.2157,50.3127,7.12502,13.8492,79.8316,-25.0818,-3.91124,24.0769,55.9551,-28.7674,-17.5509,4.12265,-42.3162,3.91059,-25.0064,61.8342,-12.8747,-1.91472,-20.5937
-0.873517,17.1215,21.0837,-176.647,3.94576,-180.831,30.7603,-2.72735,1.17654,6.89028,0.255406,8.70215,-8.64806,1.08587,8.41718,-11.3372,0.930603,-0.760299,5.29138,2.76909,-11.3022,3.60767,1.00146,-3.14668,5.08889e-14,-4.77083e-15,-56.0237,-40.7385,-41.7553,77.4042,-59.9101,-18.6841,-2.38393,7.12502,7.61011,-32.227,5.08889e-14,-4.77083e-15,-43.5813,5.81677,83.3318,41.1629,11.4337,-11.7215,50.5949,7.12502,14.3254,80.0807,-23.9511,-3.43352,24.3501,55.2969,-29.1828,-17.9333,3.06717,-42.912,3.92684,-24.5186,59.4962,-12.9286,-1.56318,-20.0535
-0.875997,17.1245,20.8666,-176.653,4.24483,-180.596,30.7025,-2.72119,1.29107,6.97346,0.307247,8.72145,-8.53973,1.11204,8.35298,-11.2563,0.989641,-0.822153,5.1562,2.8464,-11.3292,3.55759,1.0474,-3.13936,1.43125e-14,1.98785e-13,-56.5378,-39.6469,-41.7655,79.4366,-60.3802,-18.7846,-2.26344,7.12502,7.51302,-32.11,1.43125e-14,1.98785e-13,-44.1764,6.07674,83.0642,40.9599,11.256,-11.3114,50.5958,7.12502,14.7204,80.0531,-22.699,-3.17003,24.5191,54.6367,-29.6578,-18.2049,2.30856,-43.3433,3.60516,-24.0629,57.007,-12.7922,-1.0223,-18.6885
-0.879483,17.1277,20.6511,-176.639,4.50309,-180.519,30.6633,-2.75529,1.25232,7.03139,0.239766,8.69063,-8.44925,1.07787,8.36337,-11.4117,1.17817,-0.751889,5.17183,3.10905,-11.4399,3.60602,1.16837,-3.1671,2.8625e-14,4.77083e-15,-56.9764,-38.6303,-41.8516,81.4156,-60.543,-19.0511,-1.65139,7.12502,7.25579,-31.507,2.8625e-14,4.77083e-15,-44.6439,6.54973,82.7029,40.5314,10.9713,-11.5653,50.1427,7.12502,14.4759,79.6178,-21.5828,-2.99663,24.5145,54.0162,-29.9217,-18.4868,1.95239,-43.6877,3.18025,-23.7435,54.344,-12.1717,-0.393689,-17.8071
-0.884036,17.1416,20.4271,-176.655,4.99753,-180.385,30.3251,-2.76632,1.24237,7.22481,0.175424,8.59265,-8.08304,1.04006,8.27645,-11.1026,1.39007,-0.570123,4.7018,3.32701,-11.6572,3.43245,1.30325,-3.24908,-2.22639e-14,-1.43125e-13,-57.3846,-37.9655,-41.8165,83.3192,-60.3868,-18.4393,-1.18917,7.12502,7.8463,-31.0236,-2.22639e-14,-1.43125e-13,-45.2097,7.0577,82.2247,40.3116,10.6949,-11.3951,49.945,7.12502,14.6398,79.4083,-20.3926,-2.68561,24.5461,53.3488,-30.0321,-18.8307,0.766107,-43.7726,2.88866,-23.2675,51.5198,-11.2533,0.22095,-17.5661
-0.890978,17.1543,20.2076,-176.596,5.68948,-180.242,29.9792,-2.55523,1.52764,7.48035,0.449208,8.26676,-7.67782,1.15626,7.66,-11.3827,1.44177,-0.023131,4.45752,3.3032,-11.7913,3.41367,1.29425,-3.38042,2.70347e-14,5.56597e-14,-58.4621,-38.4891,-41.3187,85.2841,-59.7446,-17.3896,-0.854054,7.12502,8.85936,-30.6481,2.70347e-14,5.56597e-14,-45.2261,6.75058,81.6814,40.1018,10.628,-10.9189,49.8139,7.12502,15.0986,79.2432,-19.3657,-2.26651,24.5638,52.641,-29.8984,-19.0209,-0.900393,-43.8508,2.58429,-22.6778,48.6057,-10.3437,1.00161,-16.392
-0.897104,17.159,19.9879,-176.579,6.14677,-179.912,30.2431,-2.47812,1.17623,7.22961,0.497248,8.66453,-8.09152,1.18259,8.27941,-10.6635,1.63564,-0.736962,4.37517,3.6438,-11.7532,3.27977,1.48588,-3.23222,5.40694e-14,1.09729e-13,-58.964,-37.4833,-40.4036,87.2609,-58.8413,-16.8927,-0.819966,7.12502,9.33884,-30.5931,5.40694e-14,1.09729e-13,-46.4914,7.93656,81.5194,39.9111,10.1294,-10.4538,49.5531,7.12502,15.5466,78.9482,-18.167,-2.07478,24.8247,51.8233,-29.9632,-19.1958,-1.92662,-43.8865,1.93922,-21.7412,45.6668,-8.79712,1.96359,-14.9158
-0.90487,17.1565,19.7613,-176.634,6.57104,-179.493,29.8899,-2.5561,1.68288,7.45583,0.493375,8.40754,-7.67734,1.17209,7.71243,-10.6641,1.70904,-0.271594,4.35336,3.64509,-11.7174,3.27903,1.48577,-3.29779,1.27222e-14,1.79701e-13,-59.7389,-38.1463,-40.0099,89.1947,-57.4076,-16.2852,-0.571755,7.12502,9.92506,-30.3178,1.27222e-14,1.79701e-13,-46.7351,8.03368,80.7923,39.7487,9.97851,-9.98915,49.9895,7.12502,15.9941,79.3493,-16.6854,-1.98662,25.1854,50.9145,-30.1008,-19.5998,-2.19433,-43.7502,1.17511,-20.5839,42.7063,-6.79973,2.93575,-14.937
-0.914217,17.147,19.5339,-176.746,7.18881,-179.242,29.6737,-2.51704,1.74301,7.76666,0.518293,8.01354,-7.65512,1.22321,7.78963,-10.2898,1.85035,-0.160946,4.25156,3.77132,-11.643,3.19367,1.5623,-3.28766,0,-1.7334e-13,-60.1974,-38.6902,-39.3865,90.8473,-55.9433,-15.3537,-0.503427,7.12502,10.8236,-30.2045,0,-1.7334e-13,-47.3344,8.6075,80.1192,39.5665,9.62368,-9.44703,50.1937,7.12502,16.5161,79.5108,-15.1452,-1.70763,25.2928,49.9669,-30.0987,-19.8929,-0.683963,-43.4716,0.269604,-19.423,39.678,-5.02648,4.17017,-14.6568
-0.925628,17.1481,19.3085,-176.808,7.75136,-179.081,29.563,-2.44915,1.71119,7.86566,0.55735,7.90479,-7.49307,1.2331,7.66011,-10.1954,2.05334,-0.00166751,4.25573,3.99995,-11.5993,3.1944,1.67572,-3.28704,1.11319e-14,1.27222e-14,-60.3949,-39.3285,-38.6628,92.3071,-54.472,-14.164,-0.323862,7.12502,11.9709,-29.9616,1.11319e-14,1.27222e-14,-47.8281,9.2422,79.5105,39.3694,9.3851,-9.35138,50.0273,7.12502,16.6082,79.3367,-13.7013,-1.59117,25.2798,49.0103,-30.2229,-19.8432,0.191964,-43.1261,-0.897631,-18.2032,36.5865,-3.81707,5.58528,-13.5491
-0.937063,17.1506,19.0866,-176.933,8.34218,-178.924,29.6886,-2.28491,1.54816,7.86148,0.718687,7.92556,-7.57769,1.308,7.72826,-10.0775,2.21436,0.058763,4.29313,4.21664,-11.7054,3.20334,1.78163,-3.31672,-4.6118e-14,-7.15625e-14,-60.5447,-39.651,-37.6699,93.8277,-52.8865,-13.7618,-0.329866,7.12502,12.3588,-29.9446,-4.6118e-14,-7.15625e-14,-48.513,9.74625,79.1382,39.2986,9.13279,-9.0087,49.6724,7.12502,16.9381,78.9538,-12.2596,-1.49551,25.2535,48.1129,-30.1351,-19.9176,-0.936494,-42.6304,-2.3372,-16.7607,33.4751,-3.34174,7.31885,-12.0432
-0.9467,17.1458,18.8568,-177.041,9.02114,-178.471,29.7763,-2.15716,1.59837,7.85484,0.908444,8.00151,-7.65314,1.39837,7.72211,-9.83501,2.35674,0.0470962,4.43762,4.40603,-11.6773,3.21718,1.87385,-3.29644,4.77083e-15,3.18055e-15,-60.383,-39.856,-36.9203,95.1836,-51.0198,-14.4448,-0.370366,7.12502,11.7002,-30.0236,4.77083e-15,3.18055e-15,-49.182,10.3152,78.6909,39.1772,8.8847,-8.8831,49.5863,7.12502,17.059,78.8573,-10.8421,-1.27466,25.5554,47.2771,-29.9284,-20.2252,-3.31614,-42.0577,-3.89369,-14.8098,30.4336,-2.64482,9.25961,-12.2883
-0.959194,17.1357,18.6238,-177.101,9.81822,-178.057,29.6538,-2.02002,1.61839,8.00961,1.07973,7.99669,-7.44005,1.47846,7.63458,-9.79562,2.54531,-0.0456842,4.48491,4.634,-11.4121,3.22884,1.98636,-3.18673,-7.15625e-14,6.20208e-14,-59.6312,-40.43,-36.6567,96.4672,-49.1642,-14.85,-0.422079,7.12502,11.3094,-30.0972,-7.15625e-14,6.20208e-14,-49.4775,11.1089,78.1226,38.8776,8.40774,-9.01381,49.3981,7.12502,16.9331,78.68,-9.53766,-1.00746,25.7301,46.5135,-29.9534,-19.9863,-4.37174,-41.4515,-5.56595,-12.7337,27.5704,-3.41601,11.3885,-10.0249
-0.976182,17.1229,18.3888,-177.059,10.718,-177.669,29.2978,-1.8279,1.69837,8.21297,1.30443,7.93628,-7.06549,1.5778,7.42185,-9.82373,2.64267,-0.00628045,4.45827,4.7292,-11.2464,3.22674,2.03467,-3.1367,3.57812e-14,0,-58.6789,-41.3321,-36.4005,97.5319,-47.0607,-14.3916,-0.620703,7.12502,11.7515,-30.2711,3.57812e-14,0,-49.5191,11.7154,77.5801,38.5007,8.01219,-8.77904,49.4119,7.12502,17.1591,78.6743,-8.35357,-0.654964,25.7993,45.8282,-29.9222,-19.5897,-4.91181,-40.9687,-7.3864,-10.5332,24.9423,-5.13023,13.7452,-7.63287
-0.994761,17.1112,18.1403,-177.074,11.6772,-177.458,28.9012,-1.565,1.64541,8.35853,1.56066,7.8684,-6.74083,1.68683,7.27322,-9.72562,2.68178,-0.0749822,4.44415,4.76361,-11.0881,3.20193,2.05648,-3.07645,-2.54444e-14,-8.26944e-14,-57.6749,-42.0247,-36.0782,98.4887,-44.5484,-13.8143,-0.273501,7.12502,12.3082,-29.8913,-2.54444e-14,-8.26944e-14,-49.7846,12.0235,77.2763,38.295,7.81791,-8.68525,49.5157,7.12502,17.2494,78.7701,-7.06653,-0.19916,25.6089,45.1696,-29.8347,-19.2464,-6.06651,-40.5521,-9.31143,-8.46154,22.675,-6.65711,16.2557,-6.67695
-1.01094,17.0961,17.8934,-177.134,12.6649,-177.263,28.6752,-1.26728,1.40614,8.39386,1.82665,7.89357,-6.62843,1.80059,7.34816,-9.43826,2.7516,-0.0314218,4.48989,4.86741,-11.2681,3.18063,2.1107,-3.135,-2.94201e-14,-7.63333e-14,-56.354,-42.2741,-36.0068,99.4464,-42.0149,-13.994,0.344452,7.12502,12.1349,-29.2836,-2.94201e-14,-7.63333e-14,-50.2543,12.3625,77.0863,37.9882,7.7609,-9.04635,49.5481,7.12502,16.9018,78.8326,-5.78124,0.337614,25.381,44.5947,-29.7476,-18.7108,-6.90856,-40.1691,-11.022,-6.51218,20.7279,-7.71088,18.6538,-5.89636
-1.02689,17.0752,17.6456,-177.333,13.6796,-176.76,28.4511,-1.17394,1.5273,8.57864,1.94101,7.78806,-6.32127,1.84981,7.10993,-8.92197,2.97998,0.200622,4.27565,5.09983,-11.3371,3.05154,2.24703,-3.1873,3.97569e-15,-2.54444e-14,-54.5385,-42.5252,-36.7562,100.358,-39.4918,-14.2614,1.12626,7.12502,11.877,-28.5169,3.97569e-15,-2.54444e-14,-50.652,13.0877,76.3106,37.6487,7.49676,-8.92045,49.171,7.12502,17.023,78.4451,-4.32402,0.880667,25.4743,44.0781,-29.3434,-18.4273,-9.26779,-39.5777,-12.5384,-4.38932,19.0401,-9.04696,20.7396,-4.47227
-1.04693,17.042,17.4002,-177.517,14.5813,-176.296,28.5265,-1.04739,1.62318,8.58677,2.11588,7.76498,-6.3668,1.92831,6.96775,-8.43714,3.14071,0.322612,4.06274,5.25106,-11.0864,3.21236,2.3693,-3.48387,-7.15625e-15,-1.90833e-14,-52.8845,-42.6304,-37.1003,101.33,-36.7773,-13.7831,1.74066,7.12502,12.3382,-27.8753,-7.15625e-15,-1.90833e-14,-51.0752,13.7123,75.7395,37.1774,7.13462,-8.67835,49.1259,7.12502,17.256,78.3798,-2.92501,1.50208,25.5383,43.686,-29.3475,-17.9414,-10.5703,-39.1516,-14.1944,-2.27331,17.6546,-9.97109,22.7153,-3.77828
-1.07327,17.0056,17.1495,-177.678,15.4359,-176.265,28.5148,-0.834549,1.43835,8.4827,2.27128,7.66305,-6.49663,1.9812,6.90758,-7.98289,3.23873,0.226836,4.20564,5.37116,-10.9305,3.17134,2.43515,-3.40785,1.98785e-14,6.67916e-14,-51.1007,-42.8,-37.4,102.082,-33.7799,-12.5178,2.1873,7.12502,13.558,-27.3513,1.98785e-14,6.67916e-14,-51.4748,14.039,75.3887,36.6357,6.99582,-8.68266,49.2056,7.12502,17.2519,78.4599,-1.67332,2.027,25.0139,43.3775,-29.6651,-16.8576,-10.8175,-38.936,-15.5133,-0.924059,16.8023,-11.7343,23.9967,-2.60903
-1.09737,16.9629,16.8971,-177.889,16.2313,-176.098,28.3795,-0.714487,1.38453,8.5471,2.36947,7.58435,-6.36844,2.01897,6.81424,-7.62379,3.40306,0.137938,4.22304,5.57309,-10.8041,3.11199,2.54334,-3.33769,-3.57812e-14,3.33958e-14,-48.812,-43.1672,-38.0922,102.621,-30.4052,-11.4379,2.76859,7.12502,14.5986,-26.6976,-3.57812e-14,3.33958e-14,-51.7751,14.386,75.0732,36.5645,7.08681,-8.56386,49.6776,7.12502,17.3662,78.9218,-0.371612,2.56636,24.6537,43.1504,-29.8686,-15.8285,-10.5637,-38.5596,-16.0057,-0.0583283,16.3739,-12.1534,24.2065,-2.98991
-1.11925,16.9118,16.6368,-178.1,17.0818,-175.685,28.1705,-0.574583,1.55279,8.68035,2.57562,7.56903,-6.13696,2.11718,6.62599,-7.3637,3.54778,0.191356,4.26141,5.75395,-10.8088,3.08933,2.63779,-3.34202,-4.92986e-14,3.18055e-14,-46.4184,-43.4657,-38.9387,103.116,-26.8712,-10.6519,3.67786,7.12502,15.3558,-25.7319,-4.92986e-14,3.18055e-14,-52.0586,14.6921,74.7912,36.6951,7.11724,-8.4594,50.1375,7.12502,17.4668,79.3728,1.00978,3.18387,24.5522,42.9943,-29.668,-14.7676,-9.41578,-37.9814,-15.1798,0.187418,16.3527,-11.4887,23.0097,-4.96253
-1.14155,16.8594,16.3799,-178.459,17.8071,-175.239,28.1827,-0.577953,1.78545,8.79345,2.63517,7.51792,-6.01353,2.14995,6.41039,-7.05495,3.69214,0.406344,4.38659,5.92719,-10.8635,3.09606,2.72656,-3.39669,-2.70347e-14,-7.15625e-14,-43.7519,-43.1657,-40.3339,103.84,-23.6111,-10.2618,4.23943,7.12502,15.7316,-25.1412,-2.70347e-14,-7.15625e-14,-52.304,15.1809,74.174,36.4796,5.73313,-6.61467,50.6759,7.12502,19.2414,79.744,2.44007,3.59171,24.5268,42.9313,-28.8792,-14.4042,-11.0729,-37.3846,-14.1401,0.182663,16.7873,-10.6003,21.13,-7.59664
-1.16966,16.8055,16.1205,-178.876,18.1617,-175.05,28.2685,-0.750093,1.94922,8.66164,2.43076,7.43947,-6.17341,2.04076,6.29415,-6.15609,3.83896,0.376871,4.41374,6.09776,-10.8225,2.94216,2.83509,-3.37842,6.04305e-14,1.19271e-13,-41.4224,-41.6655,-41.5727,104.746,-20.5173,-10.5165,4.099,7.12502,15.4863,-25.3008,6.04305e-14,1.19271e-13,-52.9131,15.6493,73.5929,35.9893,5.33061,-6.35039,50.5569,7.12502,19.4955,79.5995,3.7335,3.67364,24.2076,43.0374,-28.2961,-13.9186,-13.2263,-37.0188,-13.2805,-0.235202,17.5086,-9.47071,19.0376,-9.132
-1.20112,16.7424,15.8528,-179.185,18.2407,-175.017,28.094,-0.868922,2.19688,8.7417,2.31676,7.29609,-5.97619,1.98636,6.02265,-6.1359,3.82947,0.689723,4.45485,6.06143,-10.8993,2.96687,2.81702,-3.46729,1.27222e-14,-2.54444e-14,-38.7388,-41.9,-42.6729,105.009,-16.7196,-9.58488,4.24436,7.12502,16.3834,-25.0837,1.27222e-14,-2.54444e-14,-52.5684,15.622,73.4896,35.3173,5.77268,-7.15154,50.0264,7.12502,18.7251,79.1451,4.85164,3.61217,23.6659,43.354,-28.2771,-12.8029,-13.4978,-36.9664,-12.5833,-0.847197,18.4408,-8.21602,16.8662,-10.2829
-1.23494,16.6708,15.5862,-179.441,18.4681,-175.102,27.8398,-0.954788,2.29674,8.84753,2.18511,7.12118,-5.71359,1.91971,5.80829,-6.34514,3.91874,0.968828,4.52787,6.1762,-11.0279,3.05799,2.86505,-3.55779,4.85035e-14,-3.33958e-14,-35.7557,-41.5805,-44.1435,105.199,-12.886,-8.80785,4.55462,7.12502,17.1314,-24.7101,4.85035e-14,-3.33958e-14,-52.0971,15.7718,73.3506,34.7971,5.90852,-7.45919,49.9551,7.12502,18.4291,79.1022,5.72855,3.64533,22.9473,43.9087,-27.8616,-11.8228,-13.9341,-37.059,-11.5547,-1.70503,19.6839,-6.86491,14.5178,-12.5665
-1.27054,16.6031,15.3314,-179.809,19.0846,-174.912,27.8905,-0.969873,2.56102,8.98047,2.22077,6.91964,-5.57855,1.94148,5.41415,-6.55278,4.06947,1.23331,4.73302,6.35761,-10.9371,3.18784,2.94228,-3.56486,-6.36111e-14,-1.04958e-13,-32.3364,-41.8182,-45.9494,104.646,-8.5735,-7.00021,5.40439,7.12502,18.8706,-23.7003,-6.36111e-14,-1.04958e-13,-51.7671,16.0441,72.9118,34.4089,5.08232,-6.83587,50.3363,7.12502,19.0287,79.4255,6.48107,3.92668,22.5039,44.7109,-26.8322,-11.3485,-16.2618,-37.0601,-10.0003,-2.42271,21.2835,-3.0281,12.4925,-16.4877
-1.31077,16.5588,15.0896,-180.27,19.5725,-174.776,28.4582,-0.946469,2.64224,8.89207,2.31343,6.88024,-5.95357,1.98628,5.29144,-6.67437,4.14072,1.26069,5.44014,6.52855,-11.152,3.13563,2.97029,-3.25353,2.78299e-14,-5.08889e-14,-29.7551,-40.8856,-47.0661,104.506,-4.54981,-5.83852,5.91346,7.12502,19.9876,-23.0786,2.78299e-14,-5.08889e-14,-51.7463,16.1246,72.8228,34.0513,4.03584,-5.98753,50.6425,7.12502,19.8443,79.6494,7.05499,4.13127,22.0395,45.79,-25.5671,-10.6085,-18.0973,-37.3708,-8.37398,-3.25302,23.2528,3.4536,11.7711,-22.8649
-1.35593,16.5123,14.8553,-180.848,19.8147,-174.951,29.0399,-0.916992,2.63235,8.81473,2.38928,6.80321,-6.32125,2.02357,5.18364,-6.61232,4.08205,1.31095,5.73533,6.50249,-11.3206,3.21962,2.94814,-3.31329,-2.62396e-14,6.67916e-14,-27.597,-39.831,-47.7963,104.475,-1.00451,-4.94803,6.42924,7.12502,20.8433,-22.4711,-2.62396e-14,6.67916e-14,-51.2764,16.0451,72.9589,33.4304,3.42087,-5.65794,50.7263,7.12502,20.1612,79.7001,7.46317,4.2197,21.2853,47.1825,-24.0382,-9.82965,-17.8138,-37.8788,-6.97441,-4.42959,25.5698,8.31681,10.5612,-23.0508
-1.40008,16.4497,14.6199,-181.447,20.0602,-175.109,29.5917,-0.944438,2.70112,8.80674,2.41363,6.66922,-6.58657,2.04034,4.98211,-6.65751,4.06277,1.32693,5.96957,6.51274,-11.3806,3.3007,2.9433,-3.33094,-8.42847e-14,-7.15625e-14,-25.2288,-38.6021,-48.8903,104.278,2.39274,-4.6022,6.6804,7.12502,21.1756,-22.1831,-8.42847e-14,-7.15625e-14,-50.6114,16.1218,72.9615,32.7257,3.20038,-5.71726,50.4517,7.12502,20.1041,79.4315,7.77751,4.47929,20.608,48.8953,-22.4241,-8.75241,-14.3922,-38.4136,-5.63502,-5.59308,28.2687,12.0074,8.68687,-15.3912
-1.44026,16.3914,14.3875,-182.06,20.3229,-175.581,29.8834,-0.913104,2.51161,8.95651,2.39736,6.38643,-6.54628,2.03895,4.77614,-7.07824,4.02621,1.46975,6.15993,6.46935,-11.3671,3.42916,2.90224,-3.34319,-3.81667e-14,4.92986e-14,-22.6692,-37.2117,-50.332,103.856,5.73966,-4.69451,6.64843,7.12502,21.0869,-22.225,-3.81667e-14,4.92986e-14,-49.7118,16.3812,72.7939,32.1699,2.64891,-5.97024,50.1919,7.12502,19.861,79.1971,7.7127,4.67733,19.5719,50.9431,-20.0656,-7.95007,-10.0606,-39.1413,-4.273,-7.099,31.3258,12.0085,7.06878,-15.5959
-1.47903,16.3465,14.1709,-182.582,20.5782,-175.889,30.4524,-0.821118,2.40487,8.94843,2.51426,6.23185,-6.82752,2.09753,4.61893,-7.39215,3.87777,1.3619,6.47834,6.29357,-11.1446,3.5547,2.79777,-3.26085,-8.74653e-15,-6.04305e-14,-20.7517,-35.1998,-51.2413,103.387,8.48768,-5.2184,6.28876,7.12502,20.5836,-22.6399,-8.74653e-15,-6.04305e-14,-48.955,16.2943,72.9067,31.7926,2.29084,-6.32318,49.9153,7.12502,19.5217,78.9553,7.21208,4.75553,18.7261,53.2257,-17.1597,-7.53877,-6.55678,-40.0382,-2.20737,-8.74907,34.6773,11.4211,4.89321,-15.6189
-1.51187,16.3028,13.9732,-183.212,20.7584,-176.239,31.2171,-0.675355,2.22901,8.96379,2.7095,6.10442,-7.18059,2.20055,4.50067,-7.59398,3.67092,1.05534,6.65705,6.03201,-10.7973,3.60512,2.6609,-3.11669,2.22639e-14,5.88403e-14,-19.1923,-33.0867,-51.8298,102.722,10.5181,-5.83908,5.8801,7.12502,19.987,-23.112,2.22639e-14,5.88403e-14,-47.9811,15.9604,73.2826,31.4456,2.116,-6.98215,49.6912,7.12502,18.888,78.7941,6.60321,4.75956,17.9009,55.6754,-15.0019,-6.80272,-2.98694,-40.7963,-0.0645597,-10.3983,38.0875,9.92149,2.37482,-14.6984
-1.54474,16.267,13.7723,-183.765,21.0618,-176.697,32.125,-0.456209,2.15918,8.62281,2.99844,6.00126,-7.37418,2.30627,3.99262,-8.24319,3.37914,0.386915,7.26222,5.67719,-9.87086,3.82783,2.45935,-2.73435,-2.8625e-14,-7.95139e-14,-18.0501,-31.1238,-52.2553,101.726,12.6513,-6.74312,5.7397,7.12502,19.1179,-23.3407,-2.8625e-14,-7.95139e-14,-46.692,15.3396,73.6592,30.9852,1.75112,-6.66909,50.2181,7.12502,19.1891,79.2915,5.87131,4.9135,16.976,58.1503,-13.2312,-6.10079,0.692227,-41.4688,1.74068,-11.8662,41.3146,8.167,0.262642,-16.4873
-1.5748,16.2344,13.5637,-184.436,21.3706,-177.235,32.6757,-0.279356,2.0001,8.70389,3.19146,5.70733,-7.49571,2.40712,3.6864,-7.52274,3.46211,1.49834,6.24319,5.6919,-11.1234,3.46941,2.50959,-3.31226,-2.14687e-14,-6.99722e-14,-16.8188,-29.112,-52.8027,100.423,14.9647,-6.96731,5.88378,7.12502,18.9023,-23.2178,-2.14687e-14,-6.99722e-14,-45.3266,14.965,73.8784,30.6485,1.28757,-7.19312,49.868,7.12502,18.6851,78.9906,5.26335,5.05257,16.0115,60.6102,-10.9211,-6.08974,4.70043,-41.8058,3.21243,-13.2579,44.088,6.5606,-1.07446,-20.3393
-1.60446,16.2014,13.356,-184.896,21.7496,-177.5,32.9063,-0.192683,2.00914,8.83789,3.31835,5.52393,-7.42968,2.47954,3.43923,-7.72931,3.37701,1.27616,6.40285,5.60827,-10.9699,3.5361,2.45755,-3.23018,-4.53229e-14,7.95139e-15,-15.4498,-26.5625,-53.4125,98.8798,17.1203,-7.28122,5.82042,7.12502,18.6003,-23.3103,-4.53229e-14,7.95139e-15,-44.2459,14.5384,74.273,30.9111,1.14614,-7.10655,50.3193,7.12502,18.7683,79.4339,4.51145,5.34604,15.452,62.9993,-10.3716,-6.10714,5.67907,-41.9783,4.49776,-14.1468,46.3168,5.0131,-1.861,-20.6288
-1.63223,16.1812,13.1603,-185.186,22.2245,-177.617,33.0784,-0.0529625,2.00756,8.96739,3.51834,5.45827,-7.35941,2.58588,3.2971,-7.60745,3.31272,1.01519,6.30687,5.55153,-10.9876,3.47748,2.43488,-3.1984,4.53229e-14,6.36111e-14,-13.9641,-23.8082,-54.0709,96.7216,18.8782,-8.68873,5.95279,7.12502,17.2461,-23.3019,4.53229e-14,6.36111e-14,-43.194,13.9445,74.9091,31.5023,1.56127,-7.37713,50.9166,7.12502,18.5081,80.0562,3.56021,5.72021,15.1556,65.3281,-9.43537,-7.0236,9.27508,-42.1099,5.71711,-14.7236,48.0466,3.8942,-2.4043,-18.3311
-1.6609,16.1707,12.9645,-185.562,22.5404,-178,33.3126,0.120131,1.93454,9.02242,3.71885,5.31264,-7.38988,2.68557,3.10476,-7.8592,3.23805,1.04193,6.5215,5.52201,-11.2704,3.59228,2.40107,-3.28601,3.4191e-14,1.74931e-14,-12.7169,-21.2964,-54.5129,94.2085,20.3596,-10.5515,6.07908,7.12502,15.4525,-23.3233,3.4191e-14,1.74931e-14,-42.0888,13.2441,75.4989,32.1729,2.14323,-7.57223,51.5411,7.12502,18.3204,80.6983,2.67721,5.87112,14.5731,67.531,-8.97795,-8.87597,10.1213,-42.0823,6.73746,-15.5866,49.4243,2.81473,-2.71308,-16.8576
-1.68149,16.1593,12.7729,-186.035,22.6951,-178.667,33.3914,0.264679,1.48865,9.00607,3.72349,5.17346,-7.44997,2.68094,3.19129,-7.56782,3.24889,1.02465,6.6269,5.60913,-11.6476,3.59257,2.44463,-3.39678,-2.70347e-14,-4.92986e-14,-11.6381,-18.5796,-54.9724,91.5131,22.0348,-12.2029,5.90381,7.12502,13.8615,-23.6143,-2.70347e-14,-4.92986e-14,-41.2954,12.6258,76.0374,33.0176,2.92239,-7.7397,52.4173,7.12502,18.1593,81.5896,1.7674,5.9052,13.7574,69.6922,-9.33357,-11.1625,9.50178,-41.7334,7.48216,-16.7144,50.5177,1.47163,-2.96587,-17.6726
-1.69915,16.1481,12.6034,-186.212,22.5881,-179,33.3758,0.252855,1.4233,9.08219,3.672,4.98307,-7.34459,2.66308,3.04707,-8.0204,3.27068,1.17161,7.12841,5.70306,-11.755,3.83341,2.45661,-3.4397,-4.37326e-14,-9.85972e-14,-10.4803,-16.415,-55.68,88.5208,23.6248,-12.9949,5.9128,7.12502,13.0981,-23.6559,-4.37326e-14,-9.85972e-14,-40.0077,11.7489,76.6278,33.8583,3.3217,-8.22527,52.4817,7.12502,17.6921,81.6968,0.624916,5.71979,13.3942,71.7168,-9.74422,-13.4695,11.2578,-41.6246,7.90088,-17.5375,51.4418,0.372858,-3.21756,-20.1667
-1.70602,16.1407,12.4546,-186.315,22.1998,-179.381,33.3475,0.232956,1.31393,9.08858,3.58631,4.78954,-7.31133,2.62383,2.93381,-8.26883,3.16187,1.24359,7.51104,5.5803,-11.6523,3.98091,2.37756,-3.42383,-1.35174e-14,1.74931e-14,-9.2581,-14.8586,-56.6445,84.974,25.201,-13.8169,6.34319,7.12502,12.3056,-23.2747,-1.35174e-14,1.74931e-14,-38.7821,10.6977,77.2239,34.8741,3.68786,-8.89193,52.0884,7.12502,17.0505,81.3601,-0.595973,5.3277,13.0604,73.6112,-10.5544,-15.5372,13.7962,-41.697,8.04546,-18.3728,52.1797,-0.204646,-3.41011,-21.571
-1.70701,16.142,12.3045,-186.435,21.7331,-179.475,33.739,0.265975,1.20091,8.84603,3.61291,4.9257,-7.74354,2.62376,3.10796,-8.23575,2.92541,0.65604,8.04885,5.34973,-11.1933,4.09497,2.25211,-3.20079,5.32743e-14,1.08139e-13,-8.04001,-13.7528,-57.4915,80.7432,26.908,-14.247,6.64181,7.12502,11.8909,-23.0005,5.32743e-14,1.08139e-13,-37.9939,9.79218,77.9811,35.9803,4.05401,-9.06844,52.6469,7.12502,16.8806,81.9332,-1.53384,4.92804,13.1491,75.2174,-11.5176,-17.3907,14.524,-41.569,7.92916,-18.7595,52.797,-0.484145,-3.51623,-19.5248
-1.70648,16.1468,12.1583,-186.577,21.1323,-179.563,34.1106,0.259591,1.16873,8.74855,3.6448,5.02523,-8.00218,2.64325,3.20278,-8.71126,2.66429,0.0304554,8.62947,5.07457,-10.556,4.3029,2.08956,-2.91385,7.23576e-14,2.22639e-14,-6.96221,-12.9752,-58.1641,76.4894,28.2476,-14.2066,7.00431,7.12502,11.9299,-22.6358,7.23576e-14,2.22639e-14,-36.8768,8.71043,78.8218,37.2065,4.51164,-9.14664,53.3149,7.12502,16.8053,82.6076,-2.50786,4.41609,13.272,76.6756,-12.2939,-18.9224,14.4939,-41.3349,7.71364,-19.1457,53.2893,-0.855481,-3.56604,-15.7297
-1.70164,16.1651,12.0274,-186.653,20.4086,-179.81,34.3742,0.236507,0.960062,8.63559,3.56428,5.03612,-8.2317,2.60568,3.34377,-8.99496,2.48773,-0.147722,8.89803,4.85215,-10.2435,4.40792,1.9688,-2.80035,-1.11319e-14,9.54166e-14,-6.27573,-12.1939,-58.7608,72.4415,29.111,-14.3138,7.49436,7.12502,11.8265,-22.1517,-1.11319e-14,9.54166e-14,-35.7723,7.62257,79.485,38.5756,5.45236,-9.68517,53.6256,7.12502,16.2868,82.9616,-3.73226,3.86238,13.2503,77.987,-12.6188,-19.91,15.6063,-41.1579,7.58774,-19.7739,53.6786,-1.49368,-3.83187,-15.0059
-1.69683,16.1927,11.9068,-186.425,19.8078,-179.52,34.6568,0.227796,1.32656,8.3582,3.69982,5.17116,-8.64346,2.65373,3.22468,-9.08122,2.18998,-0.402189,9.2265,4.46041,-9.79705,4.48551,1.77434,-2.64725,-3.65764e-14,-1.43125e-14,-6.04634,-11.5998,-59.0663,68.3558,29.8079,-14.4899,6.90281,7.12502,11.6567,-22.7529,-3.65764e-14,-1.43125e-14,-34.9608,6.24174,80.2132,40.2648,6.46416,-10.5422,54.1468,7.12502,15.4615,83.5484,-5.14172,3.38792,13.8587,79.0805,-12.3775,-20.4716,16.4283,-41.1356,7.45581,-19.7798,54.0417,-1.98997,-4.11723,-14.4079
-1.69253,16.212,11.7829,-186.177,19.2994,-179.398,34.7987,0.347667,1.48781,8.15561,3.92183,5.30505,-8.93643,2.74459,3.18595,-9.42232,1.85812,-0.669099,9.5064,4.01515,-9.30427,4.59066,1.54897,-2.47989,4.37326e-14,-3.33958e-14,-5.62308,-11.5322,-59.3706,63.8599,30.8736,-14.4634,6.70259,7.12502,11.6822,-22.9517,4.37326e-14,-3.33958e-14,-34.0426,4.83203,81.0111,42.0591,7.22763,-11.2609,54.2553,7.12502,14.7692,83.7091,-6.51457,3.00799,14.2163,80.0301,-12.797,-20.3295,17.5474,-41.1693,7.39232,-19.9771,54.3158,-2.67207,-4.33499,-14.2898
-1.68647,16.2296,11.6576,-186.103,18.9054,-179.427,34.3984,0.337219,1.69183,8.46708,3.98892,5.16721,-8.42222,2.80456,2.92593,-10.011,1.56314,-0.693545,9.39361,3.53494,-8.81652,4.62205,1.31477,-2.35587,-5.24792e-14,-7.95139e-14,-4.29633,-12.2521,-60.1899,58.606,32.305,-14.6896,7.77022,7.12502,11.4641,-21.8963,-5.24792e-14,-7.95139e-14,-32.4467,3.52065,81.4768,43.7166,7.88228,-12.072,53.5839,7.12502,13.9876,83.0933,-7.72358,2.75419,14.3845,80.8359,-13.5656,-19.4078,16.276,-40.9562,7.36372,-20.2919,54.5175,-3.49038,-4.45635,-16.1888
-1.67884,16.2562,11.5405,-185.927,18.513,-179.439,34.366,0.567863,1.50074,8.37973,4.24566,5.44541,-8.56001,2.9217,3.22158,-10.1916,1.15582,-1.35057,9.57466,3.03649,-8.25917,4.66908,1.06823,-2.11113,2.62396e-14,4.77083e-15,-3.11649,-12.7061,-60.3907,52.9712,33.662,-14.7921,8.82889,7.12502,11.3653,-20.8431,2.62396e-14,4.77083e-15,-31.6518,2.64658,82.323,45.6457,8.48281,-13.3037,52.4581,7.12502,12.8005,82.0457,-9.19106,2.44398,14.5837,81.5182,-13.7863,-18.2667,14.6457,-40.777,7.1602,-20.5282,54.5866,-3.9261,-4.41868,-16.536
-1.67675,16.2857,11.4282,-185.757,18.0225,-179.527,34.4618,0.893465,1.66266,8.30184,4.73455,5.50492,-8.70474,3.14765,3.00532,-10.712,0.547098,-1.4185,9.7366,2.20691,-7.91978,4.76998,0.656975,-2.05463,-3.49861e-14,-1.06549e-13,-2.34919,-14.153,-60.4898,47.6504,34.7919,-14.4429,8.67527,7.12502,11.7021,-20.9779,-3.49861e-14,-1.06549e-13,-30.7548,0.89041,83.2132,47.8239,8.97964,-14.1671,51.7508,7.12502,11.968,81.3887,-10.6847,1.9998,14.6846,81.9996,-13.299,-17.292,11.8815,-40.6179,6.84996,-20.8663,54.5733,-4.19025,-4.43076,-16.0448
