JuanDHNZ/ProyectoFinalCD/preprocessing/sports_trials_csv/06_11.csv
root1,root2,root3,root4,root5,root6,lowerback1,lowerback2,lowerback3,upperback1,upperback2,upperback3,thorax1,thorax2,thorax3,lowerneck1,lowerneck2,lowerneck3,upperneck1,upperneck2,upperneck3,head1,head2,head3,rclavicle1,rclavicle2,rhumerus1,rhumerus2,rhumerus3,rradius1,rwrist1,rhand1,rhand2,rfingers1,rthumb1,rthumb2,lclavicle1,lclavicle2,lhumerus1,lhumerus2,lhumerus3,lradius1,lwrist1,lhand1,lhand2,lfingers1,lthumb1,lthumb2,rfemur1,rfemur2,rfemur3,rtibia1,rfoot1,rfoot2,rtoes1,lfemur1,lfemur2,lfemur3,ltibia1,lfoot1,lfoot2,ltoes1
-2.07649,18.1232,39.692,-178.868,2.6458,178.657,21.4786,-1.4431,-2.59027,3.10996,-1.30246,4.7379,-8.41685,-0.162009,7.0412,-9.53837,-0.875464,-1.70493,18.3587,0.734901,-4.79691,7.21916,0.0921666,-1.17221,1.39149e-14,7.4743e-14,-64.9834,-38.5342,-26.9178,78.4976,-36.2318,-9.37253,-1.37219,7.12502,16.5878,-30.6833,1.39149e-14,7.4743e-14,-52.5516,9.17812,76.5205,36.4844,6.86747,-6.33269,51.0029,7.12502,19.5125,80.0438,-10.5542,0.425062,17.2718,65.5427,10.2486,-11.9587,16.6537,-18.6263,-3.64907,-25.2944,30.3575,-9.2909,3.51774,-7.51836
-2.08299,18.1182,39.5743,-178.989,1.91491,178.375,21.7569,-1.60979,-2.86706,3.21803,-1.5782,4.64084,-8.39985,-0.282042,7.1793,-10.2658,-0.845322,-1.5184,18.5779,0.772423,-4.87198,7.42134,0.0928907,-1.22961,-2.50469e-14,1.43125e-14,-64.8131,-38.7642,-26.6311,79.5176,-34.9126,-9.45197,-0.977848,7.12502,16.5113,-30.2953,-2.50469e-14,1.43125e-14,-51.9121,8.84326,76.5409,36.196,7.13611,-6.10407,51.8637,7.12502,19.7323,80.8821,-11.8793,-0.441632,17.1363,67.3825,9.14102,-12.1131,14.9606,-17.9916,-4.07099,-25.6892,30.141,-9.32049,2.95509,-6.22244
-2.12447,18.1221,39.3882,-179.496,2.60913,178.197,21.6846,-1.50678,-3.03848,3.39477,-1.48333,4.55361,-8.17552,-0.240527,7.14324,-10.1297,-0.718214,-1.55053,18.6123,1.02,-5.10862,7.41521,0.19756,-1.27723,-1.98785e-15,-1.43125e-14,-64.1625,-38.4439,-26.5975,80.5116,-33.6856,-9.85783,-0.822811,7.12502,16.1206,-30.1724,-1.98785e-15,-1.43125e-14,-51.9981,8.90982,76.4964,36.1366,7.42723,-6.28776,52.3776,7.12502,19.5557,81.4141,-12.6712,-0.102383,16.7914,68.8805,8.17569,-11.6925,12.9602,-16.6058,-4.03616,-26.1723,29.9238,-9.71758,3.20982,-4.06908
-2.14338,18.1161,39.2552,-179.512,2.42242,178.033,21.9518,-1.59074,-3.35601,3.12042,-1.68954,4.6221,-8.57897,-0.319593,7.49239,-9.53444,-0.694682,-1.70647,18.6078,1.15642,-5.35369,7.31259,0.258507,-1.31475,3.97569e-16,-7.95139e-15,-63.6087,-37.8171,-26.3863,81.6534,-33.2461,-9.91984,-0.738799,7.12502,16.0608,-30.0932,3.97569e-16,-7.95139e-15,-52.2139,9.1242,76.3742,35.9221,7.1751,-6.42919,52.2609,7.12502,19.4197,81.3112,-14.1145,-0.538936,16.6932,70.428,7.0499,-11.8922,11.6545,-16.0182,-4.10926,-26.4922,29.7719,-10.2158,2.94705,-4.03821
-2.16792,18.1136,39.108,-179.655,2.42663,177.918,21.6829,-1.68494,-3.37376,3.30588,-1.81486,4.52264,-8.21287,-0.394942,7.40101,-9.34438,-0.708552,-1.78419,18.4334,1.145,-5.41931,7.22223,0.248592,-1.32249,4.53229e-14,3.81667e-14,-62.9893,-37.9595,-26.4713,82.856,-33.2402,-9.92167,-0.668448,7.12502,16.0591,-30.023,4.53229e-14,3.81667e-14,-51.6402,9.24889,76.1777,35.536,6.77838,-6.0324,52.0962,7.12502,19.8012,81.1075,-15.3424,-0.809522,16.6431,71.7262,5.73745,-12.4063,11.2948,-15.2266,-4.12974,-26.7838,29.6431,-11.248,3.08109,-5.936
-2.17315,18.1039,39.0004,-179.694,1.64625,177.753,21.988,-1.92991,-3.56286,3.17393,-2.19055,4.50777,-8.45696,-0.559269,7.62346,-9.044,-0.656425,-1.65522,18.3547,1.24711,-5.67291,7.14709,0.298603,-1.41522,3.97569e-14,-3.81667e-14,-62.5875,-38.0683,-26.3754,84.1289,-33.7167,-9.90603,-0.565863,7.12502,16.0741,-29.9192,3.97569e-14,-3.81667e-14,-51.3271,9.13731,76.1207,35.494,6.60061,-7.36201,51.3712,7.12502,18.5226,80.5093,-16.7353,-1.63128,16.7205,72.9464,4.41003,-13.0951,11.479,-14.7394,-4.29834,-27.0297,29.5586,-11.487,2.83679,-7.7164
-2.19427,18.0971,38.8678,-179.737,1.51706,177.586,22.0036,-1.97934,-3.70208,3.16966,-2.29573,4.46936,-8.4487,-0.607749,7.69216,-9.32554,-0.503314,-1.42342,18.6632,1.52011,-5.93074,7.30699,0.418381,-1.51557,2.42517e-14,-9.54166e-15,-62.124,-38.4714,-26.2005,85.4394,-33.6981,-9.47792,-0.3357,7.12502,16.4863,-29.6552,2.42517e-14,-9.54166e-15,-50.942,9.17673,76.0516,35.5605,6.39364,-7.6795,51.6151,7.12502,18.2172,80.7821,-18.0855,-1.92203,16.6554,73.9154,2.89219,-13.5728,13.1146,-14.1633,-4.24274,-27.3451,29.5055,-11.5776,3.21394,-8.05025
-2.22106,18.0882,38.7264,-179.83,1.59112,177.308,21.9484,-1.96684,-3.85009,3.24517,-2.32856,4.33656,-8.32905,-0.628828,7.63053,-9.69917,-0.365496,-1.26236,18.8686,1.71936,-5.99662,7.44742,0.506301,-1.54806,2.26615e-14,-1.59028e-14,-61.6145,-38.9395,-26.1686,86.7944,-32.9326,-8.80698,0.214336,7.12502,17.1322,-29.0503,2.26615e-14,-1.59028e-14,-50.5365,9.28206,75.8718,35.7478,6.04162,-7.70973,51.6832,7.12502,18.1881,80.8529,-19.3401,-2.07376,16.4122,74.7477,1.33517,-13.7743,12.6243,-13.5019,-4.15235,-27.815,29.4864,-11.9743,3.53979,-8.24963
-2.24182,18.0716,38.5952,-179.881,1.73713,177.085,22.0488,-1.96594,-4.12791,3.11853,-2.42337,4.28175,-8.49766,-0.665982,7.77162,-9.56741,-0.239175,-1.23838,19.0808,1.96249,-6.13413,7.50196,0.622226,-1.57458,1.35174e-14,-4.29375e-14,-60.7606,-38.9147,-26.5245,88.1166,-31.4056,-8.66632,0.750606,7.12502,17.2676,-28.5022,1.35174e-14,-4.29375e-14,-50.5209,9.47326,75.6593,36.0495,5.8065,-7.61752,51.8734,7.12502,18.2768,81.0348,-20.7044,-2.08269,16.2927,75.4218,0.0639307,-13.7466,12.6593,-12.9767,-3.8897,-28.1848,29.4878,-12.447,3.51247,-8.77793
-2.25968,18.0518,38.4642,-179.772,2.01674,176.918,22.0193,-1.90401,-4.37696,2.93242,-2.43605,4.26896,-8.67627,-0.66594,7.91639,-9.31895,-0.196507,-1.41634,19.3302,2.10614,-6.13027,7.54307,0.693819,-1.53005,1.98785e-14,3.49861e-14,-59.821,-38.7416,-26.9903,89.5433,-29.5732,-8.75897,1.11812,7.12502,17.1784,-28.1425,1.98785e-14,3.49861e-14,-50.5661,9.68019,75.5095,36.4538,5.51262,-7.86829,51.9875,7.12502,18.0356,81.1713,-22.265,-1.95838,16.2951,75.9344,-0.883202,-13.7855,12.055,-12.5893,-3.54694,-28.4428,29.4691,-12.9134,3.35581,-7.64325
-2.2812,18.0374,38.3289,-179.751,2.16268,176.802,21.8458,-1.89557,-4.40039,2.97127,-2.44004,4.19236,-8.54215,-0.678386,7.83142,-9.30253,-0.223839,-1.38268,19.3841,2.10071,-6.2471,7.55938,0.686245,-1.57447,2.98177e-14,-1.59028e-15,-58.8383,-38.8597,-27.6763,91.0667,-27.6425,-8.85499,1.48441,7.12502,17.086,-27.7843,2.98177e-14,-1.59028e-15,-50.0713,9.79128,75.3989,36.6521,5.24466,-8.03106,52.2525,7.12502,17.879,81.4507,-23.5719,-2.0408,16.3235,76.2151,-1.81383,-13.6998,11.1702,-12.1032,-3.24496,-28.6917,29.4623,-13.2479,3.30977,-7.5472
-2.30284,18.0239,38.1942,-179.882,2.24967,176.522,21.7439,-1.90111,-4.59038,3.06473,-2.50059,4.07151,-8.36985,-0.713762,7.81116,-9.18512,-0.138133,-1.3123,19.2034,2.19505,-6.31822,7.48255,0.733342,-1.60004,-2.38542e-14,-9.06458e-14,-57.6227,-38.9264,-28.6938,92.6432,-25.6315,-8.83625,1.8286,7.12502,17.1041,-27.4385,-2.38542e-14,-9.06458e-14,-49.4838,9.80278,75.3723,36.7552,5.12753,-8.03245,52.6866,7.12502,17.8776,81.8849,-24.6469,-2.1393,16.1839,76.2913,-3.00702,-13.4703,11.8409,-11.445,-2.92021,-29.1225,29.4235,-13.7292,3.14561,-7.73835
-2.32392,18.0073,38.061,-179.969,2.34002,176.243,21.7509,-1.92167,-4.79394,3.03494,-2.59989,3.95555,-8.38577,-0.760906,7.82889,-9.08314,-0.0555619,-1.22151,19.2685,2.35255,-6.50275,7.49322,0.806485,-1.66102,-1.31198e-14,1.59028e-15,-56.3261,-38.8072,-29.726,94.0995,-23.513,-8.35946,2.33665,7.12502,17.5629,-26.8901,-1.31198e-14,1.59028e-15,-49.1776,9.71757,75.4086,37.1643,5.17572,-8.36984,52.9849,7.12502,17.553,82.2125,-25.8068,-2.17918,16.0646,76.1777,-4.09137,-13.0166,13.3442,-10.8338,-2.6832,-29.5568,29.4012,-14.4112,3.08402,-6.97565
-2.34138,17.9916,37.9287,-179.994,2.29958,176.018,21.9729,-1.94365,-5.10448,2.84222,-2.72536,4.00744,-8.6791,-0.798879,8.13,-8.7932,-0.0325785,-1.43241,19.3103,2.46478,-6.59065,7.45903,0.854961,-1.64344,2.34566e-14,-7.63333e-14,-54.9984,-38.2595,-30.6248,95.6376,-21.3906,-8.22698,2.96036,7.12502,17.6904,-26.2549,2.34566e-14,-7.63333e-14,-49.2085,9.80239,75.5706,37.6927,5.22514,-8.82786,52.6921,7.12502,17.1121,81.9585,-26.9386,-2.28116,16.0321,75.883,-5.08497,-12.9466,13.85,-10.348,-2.49119,-29.9082,29.4207,-14.937,3.04175,-6.28484
-2.35929,17.9719,37.7986,-179.965,2.27186,175.856,21.746,-1.98367,-5.06999,2.96499,-2.7718,3.86633,-8.42217,-0.839692,7.9403,-9.03543,-0.00917754,-1.17207,19.3508,2.48101,-6.72863,7.5194,0.858416,-1.73137,5.48646e-14,-7.95139e-15,-53.6471,-38.19,-31.9786,97.2248,-19.03,-7.94233,3.79967,7.12502,17.9643,-25.3907,5.48646e-14,-7.95139e-15,-48.5681,9.43859,75.7361,38.1762,5.44605,-9.10371,52.8114,7.12502,16.8466,82.1006,-28.0672,-2.33936,16.1034,75.4309,-5.66684,-13.2621,12.4696,-9.98131,-2.3743,-30.1957,29.488,-15.2524,3.09276,-7.19206
-2.3801,17.9474,37.6662,-179.915,2.48475,175.75,21.5532,-1.95693,-5.08173,3.0165,-2.74514,3.78433,-8.27022,-0.838915,7.83204,-9.16801,0.112372,-1.03814,19.4214,2.64179,-6.76677,7.57302,0.935557,-1.75199,6.75868e-15,-1.74931e-14,-52.0834,-37.8975,-33.5114,98.7333,-16.3566,-7.69501,4.49218,7.12502,18.2023,-24.6761,6.75868e-15,-1.74931e-14,-48.0113,9.02678,76.0172,38.7311,5.90557,-9.26458,53.7229,7.12502,16.6917,83.0253,-29.2677,-2.21432,16.2236,74.8452,-6.4875,-13.283,13.0523,-9.61082,-2.09312,-30.4464,29.587,-15.6701,3.26418,-7.31853
-2.40123,17.9247,37.5355,-179.943,2.60504,175.579,21.6496,-1.93818,-5.20513,2.95339,-2.76538,3.75308,-8.38369,-0.841717,7.88451,-9.14201,0.177576,-1.01424,19.469,2.76054,-6.85672,7.58969,0.989327,-1.77447,2.70347e-14,3.18055e-15,-50.453,-37.3715,-35.0443,100.164,-13.3591,-7.92017,5.09084,7.12502,17.9856,-24.0975,2.70347e-14,3.18055e-15,-47.7038,8.71834,76.3226,39.3498,6.41228,-9.45376,54.1723,7.12502,16.5096,83.4899,-30.3014,-2.22457,16.2381,74.0804,-7.34263,-13.1656,15.3513,-9.13783,-2.00523,-30.7888,29.6845,-16.1928,3.46769,-7.10466
-2.41831,17.9027,37.405,-179.9,2.535,175.354,21.5688,-1.93918,-5.21934,3.02209,-2.78078,3.59975,-8.26902,-0.858425,7.715,-9.43496,0.192311,-0.777245,19.4953,2.73252,-6.87541,7.65176,0.97605,-1.82363,2.5842e-14,-6.36111e-15,-48.8536,-37.1398,-36.7077,101.603,-10.513,-8.02558,5.64036,7.12502,17.8842,-23.5573,2.5842e-14,-6.36111e-15,-46.866,8.38523,76.4728,39.7535,6.8134,-9.68867,54.2071,7.12502,16.2834,83.5434,-31.3037,-2.42368,16.2189,73.1493,-8.01526,-13.1435,14.9732,-8.76134,-1.88689,-31.1796,29.731,-16.7942,3.73901,-9.08488
-2.43419,17.8816,37.2703,-179.853,2.55213,175.134,21.5579,-1.90692,-5.30142,2.97971,-2.78162,3.47956,-8.31258,-0.860063,7.6298,-9.516,0.182037,-0.529448,19.5707,2.70901,-6.99735,7.69356,0.96861,-1.9082,-1.55052e-14,-1.59028e-14,-47.2288,-36.5065,-38.4712,102.998,-7.73556,-7.94051,6.15835,7.12502,17.9661,-23.0318,-1.55052e-14,-1.59028e-14,-46.2619,7.87057,76.7193,40.2573,7.35128,-9.95003,54.3872,7.12502,16.0318,83.7439,-32.2685,-2.49961,16.1995,72.0475,-9.59316,-12.6735,12.13,-8.37669,-1.85658,-31.5855,29.7444,-17.273,4.24094,-10.6831
-2.45066,17.8607,37.1401,-179.887,2.79495,174.961,21.6234,-1.83127,-5.49072,2.96514,-2.73719,3.44514,-8.36291,-0.832393,7.69488,-9.39296,0.209829,-0.601062,19.5628,2.74993,-6.94038,7.66886,0.99288,-1.87341,-2.18663e-14,8.5875e-14,-45.3963,-35.5336,-40.3532,104.193,-4.6151,-7.95421,6.74421,7.12502,17.9529,-22.4472,-2.18663e-14,8.5875e-14,-45.7222,7.5284,77.0288,40.7444,7.72852,-9.99812,54.8343,7.12502,15.9855,84.1947,-33.1668,-2.38416,16.2207,70.8151,-10.8295,-12.1169,10.0382,-7.93147,-1.75403,-31.9505,29.8117,-17.4615,4.68323,-9.495
-2.46713,17.8378,37.0156,-179.856,3.22117,174.944,21.5818,-1.72448,-5.55255,3.03349,-2.60437,3.44348,-8.28382,-0.770742,7.68737,-9.44152,0.189949,-0.774108,19.5246,2.72268,-6.84111,7.66167,0.973113,-1.8141,-8.34896e-15,-6.20208e-14,-43.4915,-34.3627,-42.3949,105.446,-1.51664,-8.3625,6.93081,7.12502,17.56,-22.2962,-8.34896e-15,-6.20208e-14,-45.0002,7.40845,77.2496,41.1133,7.96494,-9.97263,54.5499,7.12502,16.01,83.9083,-34.1289,-2.10208,16.4396,69.4086,-11.1998,-12.0226,9.87108,-7.56694,-1.58848,-32.174,29.834,-17.7667,5.18346,-8.91644
-2.48075,17.8056,36.8882,-179.795,3.38864,174.943,21.4376,-1.67835,-5.4825,3.09655,-2.524,3.39373,-8.15634,-0.742495,7.55706,-9.32792,0.108976,-0.822471,19.3278,2.55433,-6.71497,7.56798,0.900719,-1.77979,1.43125e-14,-2.8625e-14,-42.136,-32.746,-44.3324,106.914,1.05276,-9.37494,7.00146,7.12502,16.5855,-22.3098,1.43125e-14,-2.8625e-14,-44.2331,7.04454,77.4746,41.5732,8.26352,-10.1422,54.2075,7.12502,15.8467,83.579,-34.9969,-2.01098,16.6781,67.824,-11.6134,-12.0614,10.7096,-7.13833,-1.55174,-32.356,29.7643,-18.2215,5.50805,-8.62812
-2.49197,17.7935,36.7457,-179.73,2.99675,174.896,21.5054,-1.82398,-5.5291,2.94261,-2.73273,3.50167,-8.3206,-0.83256,7.77367,-9.14881,0.165149,-0.81852,19.2909,2.67112,-6.8703,7.53007,0.9539,-1.81996,-3.97569e-14,2.54444e-14,-40.6767,-30.7561,-46.0864,107.91,3.44449,-10.0072,7.17212,7.12502,15.9767,-22.189,-3.97569e-14,2.54444e-14,-43.8873,6.88971,77.8301,42.0059,8.40643,-10.3766,53.8673,7.12502,15.621,83.2566,-35.5077,-2.4324,16.8561,66.0034,-12.0174,-12.0347,11.5137,-6.57368,-1.78606,-32.5465,29.6777,-18.5774,5.77573,-9.16487
-2.50296,17.8077,36.5993,-179.52,2.61691,175.143,21.2904,-1.9723,-5.22633,2.92767,-2.83364,3.63934,-8.21402,-0.892497,7.76515,-9.29764,0.151989,-0.829375,19.3358,2.65801,-6.86648,7.57127,0.94139,-1.81833,1.94809e-14,-2.38542e-14,-39.0986,-29.111,-47.8823,108.635,6.04766,-10.3975,7.71171,7.12502,15.6009,-21.6791,1.94809e-14,-2.38542e-14,-43.1536,6.59924,78.2285,42.4471,8.66264,-10.4718,53.8042,7.12502,15.5293,83.2006,-35.9889,-2.70781,17.3713,63.8981,-12.2827,-12.1292,12.177,-6.08084,-2.09357,-32.3974,29.429,-18.6381,6.13437,-10.6213
-2.51365,17.7858,36.4695,-179.462,2.54211,175.09,21.4062,-1.94917,-5.195,2.90038,-2.80438,3.60782,-8.31487,-0.874308,7.71275,-9.5228,0.103139,-0.750336,19.5199,2.58753,-6.82003,7.66979,0.90795,-1.82408,-2.22639e-14,-1.59028e-15,-37.0929,-27.923,-49.8632,108.666,9.12408,-10.7071,8.38943,7.12502,15.3026,-21.0244,-2.22639e-14,-1.59028e-15,-42.2812,6.09599,78.5803,42.8158,9.03686,-10.6449,53.8144,7.12502,15.3626,83.2237,-36.5567,-2.8114,17.5239,61.8242,-12.3892,-12.1044,13.334,-5.46298,-2.18285,-32.6039,29.0364,-18.9073,6.4086,-11.4686
-2.52793,17.7767,36.3362,-179.486,2.39521,174.868,21.5775,-1.99676,-5.30819,2.79137,-2.91619,3.56485,-8.50551,-0.917077,7.77794,-9.28625,0.0726893,-0.862376,19.5291,2.57005,-6.79168,7.62843,0.905337,-1.79721,1.63003e-14,3.49861e-14,-35.5551,-25.7112,-51.7094,108.805,12.0921,-11.9002,8.28722,7.12502,14.1532,-21.2107,1.63003e-14,3.49861e-14,-41.8252,5.71061,78.912,43.3687,9.44653,-10.7716,54.2392,7.12502,15.2405,83.6578,-36.9106,-3.10525,17.4621,59.5842,-12.1558,-12.0908,12.6399,-4.62801,-2.2991,-32.9855,28.5031,-19.2645,6.61344,-11.5012
-2.53838,17.7664,36.2004,-179.368,2.24508,174.869,21.4913,-2.07516,-5.37256,2.6424,-3.04076,3.66577,-8.59479,-0.972216,7.96581,-8.51865,0.043165,-1.03875,19.207,2.52536,-6.77777,7.38134,0.904358,-1.76508,3.37934e-14,-4.45278e-14,-34.3492,-23.1527,-53.3587,108.874,14.8334,-12.7514,8.58802,7.12502,13.3328,-20.9654,3.37934e-14,-4.45278e-14,-41.4736,5.45231,79.2817,43.7735,9.51588,-10.9122,54.0865,7.12502,15.1051,83.5153,-37.3622,-3.31764,17.6594,57.3044,-11.8234,-12.0957,11.3745,-3.88787,-2.47912,-33.05,27.9565,-19.8081,6.42107,-8.50042
-2.54683,17.7558,36.058,-179.186,2.11845,174.92,21.3078,-1.9816,-5.05303,2.96133,-2.80388,3.5829,-8.20357,-0.882345,7.59163,-10.1018,-0.117057,-0.78697,19.6771,2.2523,-6.64315,7.81246,0.73529,-1.79393,1.98785e-14,2.8625e-14,-33.0032,-21.8405,-55.1114,108.782,17.3241,-13.6184,8.8143,7.12502,12.497,-20.792,1.98785e-14,2.8625e-14,-39.7031,4.47104,79.7996,43.8782,9.48216,-11.1233,53.6888,7.12502,14.9017,83.1328,-37.7745,-3.40224,17.9012,54.874,-11.3626,-12.3176,10.7787,-3.09565,-2.84104,-33.0276,27.2689,-20.2271,5.88697,-2.6592
-2.55367,17.7476,35.9163,-179.076,1.91207,174.754,21.3003,-2.04825,-5.16113,2.81631,-2.94261,3.5463,-8.33413,-0.94518,7.65817,-10.0514,-0.0592121,-0.688486,19.8706,2.34299,-6.62829,7.87059,0.790308,-1.79764,-3.18055e-14,-3.97569e-14,-32.0548,-19.2988,-56.7734,108.32,19.4335,-14.9582,8.87169,7.12502,11.2051,-20.8091,-3.18055e-14,-3.97569e-14,-39.1334,4.02769,80.1217,44.2172,9.53583,-11.1385,53.7392,7.12502,14.887,83.1843,-38.0437,-3.60721,17.8856,52.3694,-10.703,-12.4713,11.604,-2.28701,-3.06396,-33.247,26.556,-20.347,5.42847,0.634412
-2.55823,17.7475,35.7796,-178.915,1.74983,174.7,21.3064,-2.07115,-5.16884,2.63897,-2.99885,3.55326,-8.52504,-0.967291,7.69637,-9.75416,-0.101843,-0.77816,19.9325,2.29831,-6.52999,7.83369,0.784553,-1.75393,-4.37326e-15,-5.08889e-14,-31.1386,-16.9982,-58.3124,107.443,21.5856,-16.0223,9.386,7.12502,10.1787,-20.3478,-4.37326e-15,-5.08889e-14,-38.6048,3.3571,80.5504,44.6651,9.76241,-11.2786,53.9138,7.12502,14.7521,83.3688,-38.2862,-3.6634,17.9676,49.783,-10.2049,-12.6409,13.5408,-1.57267,-2.99078,-33.3136,25.7829,-20.2501,5.11652,0.519341
-2.56246,17.7416,35.638,-178.757,1.68702,174.647,21.2454,-2.04034,-5.18788,2.49874,-2.98244,3.55562,-8.65047,-0.95752,7.71017,-9.58324,-0.184196,-0.882671,20.0386,2.20274,-6.42262,7.8328,0.749547,-1.71005,5.1684e-15,3.65764e-14,-30.4755,-14.6668,-59.698,106.33,23.6702,-17.2531,9.70558,7.12502,8.99108,-20.0828,5.1684e-15,3.65764e-14,-38.04,2.70197,80.938,45.058,9.87148,-11.2973,53.7426,7.12502,14.7341,83.1989,-38.5074,-3.61281,18.0313,47.1719,-9.41633,-12.7568,15.1888,-0.765932,-2.90608,-33.4109,24.9298,-20.0832,4.87846,1.14542
-2.56711,17.7305,35.485,-178.705,1.67928,174.481,21.2846,-1.94612,-5.35285,2.41025,-2.91532,3.5299,-8.77408,-0.916996,7.76767,-9.74145,-0.234015,-0.7788,20.2416,2.15017,-6.44985,7.9279,0.725847,-1.74295,4.92986e-14,-3.33958e-14,-29.8661,-12.6002,-60.8929,104.923,25.5689,-18.4055,10.3125,7.12502,7.879,-19.5206,4.92986e-14,-3.33958e-14,-37.4332,2.12735,81.3192,45.4464,9.63835,-11.2808,53.6392,7.12502,14.75,83.0944,-38.5528,-3.56469,17.9556,44.4877,-8.22057,-12.8816,15.8159,0.212438,-2.87212,-33.6762,24.0712,-19.8459,4.88249,2.16018
-2.5745,17.7259,35.3298,-178.671,1.50018,174.209,21.0852,-1.91805,-5.4338,2.48742,-2.90511,3.37696,-8.58628,-0.924656,7.62227,-9.94303,-0.336294,-0.708533,20.3594,1.94411,-6.21662,7.99405,0.6429,-1.69933,1.19271e-14,3.18055e-15,-29.0206,-10.9445,-62.2012,103.12,27.4405,-19.7534,11.1118,7.12502,6.57792,-18.7661,1.19271e-14,3.18055e-15,-36.4437,1.29997,81.6515,45.7308,9.71969,-11.4368,53.2162,7.12502,14.5997,82.6824,-38.4355,-3.69418,17.697,41.698,-7.44802,-12.8748,17.4289,1.21163,-2.47079,-34.0076,23.1507,-19.463,5.06895,-0.986272
-2.5763,17.7294,35.179,-178.502,1.27443,174.095,20.8577,-1.90463,-5.41286,2.4876,-2.89143,3.28523,-8.47218,-0.930272,7.48871,-10.0029,-0.463661,-0.646983,20.3736,1.71285,-6.0619,8.00029,0.546546,-1.68173,-3.37934e-14,-4.6118e-14,-28.3195,-9.45634,-63.3505,101.14,29.3454,-20.9598,11.7889,7.12502,5.41313,-18.122,-3.37934e-14,-4.6118e-14,-35.6143,0.46334,81.9953,46.1425,9.88181,-11.7325,52.779,7.12502,14.3148,82.2655,-38.3736,-3.59789,17.5857,38.8688,-6.79975,-13.2583,18.3111,2.00462,-1.85423,-34.1235,22.1974,-18.9042,5.47591,-7.49847
-2.57708,17.7446,35.0294,-178.34,1.00671,174.098,20.7354,-1.90353,-5.28514,2.43906,-2.86912,3.25,-8.47299,-0.927081,7.36393,-10.1027,-0.598082,-0.718738,20.4396,1.48772,-5.82812,8.03103,0.450173,-1.61526,-1.51076e-14,-4.13472e-14,-27.7317,-8.11381,-64.3689,98.9342,31.0893,-21.865,12.4539,7.12502,4.53912,-17.4775,-1.51076e-14,-4.13472e-14,-34.9315,-0.340556,82.3532,46.5738,9.90287,-12.0248,52.7236,7.12502,14.0331,82.2299,-38.222,-3.38617,17.577,36.0723,-6.29253,-13.7776,17.3103,2.86337,-1.48716,-34.0655,21.1971,-18.4105,5.47863,-10.9523
-2.57342,17.7401,34.8792,-178.202,0.642648,173.853,20.6187,-1.95162,-5.46681,2.36167,-2.99206,3.17955,-8.46996,-0.986014,7.41943,-10.1612,-0.686273,-0.85024,20.5367,1.34226,-5.57994,8.06777,0.391088,-1.52606,1.19271e-14,-4.77083e-15,-27.1757,-6.67422,-65.3068,96.539,32.6725,-22.7472,12.894,7.12502,3.68722,-17.0539,1.19271e-14,-4.77083e-15,-34.2185,-0.941897,82.6488,46.8169,9.72467,-11.9731,52.5474,7.12502,14.0829,82.0502,-38.0316,-3.1162,17.1707,33.4581,-6.42021,-14.334,16.8583,3.806,-1.3206,-34.2441,20.1594,-17.9602,5.34122,-11.556
-2.57512,17.7306,34.7243,-178.121,0.2036,173.733,20.5025,-2.02093,-5.43148,2.34377,-3.0815,3.11911,-8.418,-1.03559,7.34757,-10.247,-0.79346,-0.88032,20.5969,1.15324,-5.37585,8.09662,0.313343,-1.47297,-2.62396e-14,3.49861e-14,-26.5711,-5.61304,-66.1613,93.8592,34.028,-23.5971,13.3818,7.12502,2.86647,-16.5786,-2.62396e-14,3.49861e-14,-33.443,-1.75048,82.9748,47.0741,9.35045,-11.9893,52.089,7.12502,14.0673,81.5929,-37.7161,-2.71569,16.7347,31.0796,-6.90882,-14.9789,15.7814,4.91637,-1.35354,-34.3486,19.0324,-17.4147,5.50863,-11.444
-2.57872,17.7206,34.5628,-178.133,-0.190808,173.673,20.4087,-1.41574,-5.03098,2.33188,-3.23911,3.05531,-8.42216,-1.5543,7.14823,-10.2743,-0.91733,-0.754386,20.5398,0.91387,-5.25986,8.07463,0.215719,-1.47958,9.93923e-15,-3.97569e-14,-26.004,-4.81194,-66.9376,91.0858,35.0623,-23.8887,13.5441,7.12502,2.58489,-16.42,9.93923e-15,-3.97569e-14,-32.7201,-2.63831,83.3161,47.4982,8.99747,-11.8239,52.0858,7.12502,14.2267,81.5786,-37.3219,-2.1397,16.2626,29.094,-7.90286,-15.691,16.0518,6.14181,-1.4623,-34.4161,17.915,-17.1485,5.52052,-10.5173
-2.57255,17.7094,34.4024,-178.075,-0.658015,173.511,20.4658,-1.46479,-5.21023,2.03211,-3.304,3.07584,-8.7628,-1.53594,7.31071,-9.57335,-1.08903,-1.01102,20.5026,0.687541,-5.0057,7.92805,0.139019,-1.36882,1.15295e-14,-1.90833e-14,-26.048,-3.79382,-67.3944,88.3644,35.7148,-24.1647,13.659,7.12502,2.31826,-16.3082,1.15295e-14,-1.90833e-14,-32.6242,-3.4176,83.7627,47.9964,8.81171,-11.2694,52.7972,7.12502,14.7609,82.2516,-37.0139,-1.28058,15.5382,27.4592,-9.7199,-16.7289,17.3698,7.26503,-1.54584,-34.4899,16.8176,-16.9094,5.0612,-9.83319
-2.56339,17.6971,34.2383,-178.061,-1.17998,173.443,20.5501,-1.42582,-5.21778,2.03498,-3.25602,3.09478,-8.81147,-1.50985,7.33004,-10.2222,-1.31124,-1.05404,20.9106,0.39903,-4.88313,8.17601,-0.00598789,-1.3563,-4.77083e-14,9.54166e-15,-25.4388,-3.49096,-67.8476,85.3673,35.9131,-24.2091,13.7957,7.12502,2.27544,-16.172,-4.77083e-14,9.54166e-15,-31.7812,-4.26809,84.185,48.2865,8.48483,-10.8383,52.9609,7.12502,15.1763,82.3844,-36.7168,-0.290933,14.855,26.204,-11.4841,-17.8735,16.7963,8.40883,-1.65049,-34.4414,15.8346,-16.5552,4.72315,-9.94175
-2.55687,17.6824,34.0671,-178.035,-1.76891,173.278,20.4523,-1.46349,-5.35428,2.02224,-3.32262,3.1493,-8.75069,-1.5366,7.48061,-10.4877,-1.46654,-1.21892,21.1276,0.211015,-4.74997,8.29438,-0.0996372,-1.30653,2.46493e-14,-4.45278e-14,-24.6683,-3.26373,-68.2244,81.9353,36.1454,-24.0323,14.1325,7.12502,2.44615,-15.8332,2.46493e-14,-4.45278e-14,-31.1021,-4.91712,84.6654,48.415,8.2635,-10.6802,52.6051,7.12502,15.3285,82.017,-36.4755,0.980246,13.9114,25.3726,-13.1336,-19.4589,14.2774,9.50098,-1.77751,-34.4955,15.0811,-16.1133,4.55093,-11.4527
-2.55021,17.6669,33.8935,-178.005,-2.26501,173.119,20.6108,-1.48038,-5.5122,1.778,-3.35613,3.19889,-9.09042,-1.50847,7.66167,-10.3337,-1.62433,-1.37466,21.3142,0.0414677,-4.66272,8.32662,-0.171496,-1.26744,1.11319e-14,-3.49861e-14,-24.3149,-3.12032,-68.4438,78.5028,36.4803,-23.4416,14.2497,7.12502,3.0166,-15.7087,1.11319e-14,-3.49861e-14,-30.8018,-5.58587,85.1635,48.5293,8.08966,-10.414,52.6235,7.12502,15.5849,82.0156,-36.3092,1.8491,13.2417,24.9759,-14.3243,-20.6438,11.4105,10.416,-1.87737,-34.5503,14.6395,-15.6846,4.25204,-13.5381
-2.54339,17.6551,33.7224,-178.076,-2.87052,173.23,20.1921,-1.58854,-5.22498,2.07523,-3.44346,3.16571,-8.5369,-1.61096,7.43148,-10.5588,-1.78029,-1.46627,21.1576,-0.272679,-4.34538,8.30952,-0.312996,-1.18012,6.79844e-14,-3.18055e-15,-23.2081,-3.63333,-68.9061,74.8789,37.2741,-22.998,14.6765,7.12502,3.44503,-15.2754,6.79844e-14,-3.18055e-15,-29.6277,-6.15425,85.2427,48.5086,7.93014,-9.95593,52.5283,7.12502,16.0261,81.8855,-36.0876,2.23882,13.1168,24.9868,-15.1068,-21.6481,11.3606,11.2137,-2.20416,-34.3122,14.5579,-15.6325,3.67368,-14.5387
-2.53507,17.64,33.5495,-178.077,-3.49008,173.224,20.7935,-1.57088,-5.349,1.64504,-3.42079,3.41055,-9.32321,-1.5223,7.84472,-10.3473,-2.11443,-1.82805,21.4434,-0.586186,-4.40611,8.36623,-0.474794,-1.16974,-1.94809e-14,-4.77083e-15,-23.075,-3.54155,-68.6218,71.5377,37.4928,-22.5055,14.7061,7.12502,3.92061,-15.2376,-1.94809e-14,-4.77083e-15,-29.6514,-6.61028,86.0079,48.6702,7.76881,-9.50698,52.81,7.12502,16.4584,82.1319,-35.9834,1.78146,13.2806,25.37,-14.8759,-21.9273,13.0179,11.7658,-2.69962,-34.1996,14.8088,-15.6525,3.23551,-15.759
-2.52874,17.6222,33.3721,-178.058,-3.87718,173.24,20.6354,-1.61013,-5.33138,1.65935,-3.45437,3.50239,-9.21017,-1.5445,7.93343,-10.3757,-2.26707,-2.10304,21.5154,-0.777194,-4.21479,8.39706,-0.567552,-1.07987,-8.74653e-15,4.77083e-15,-22.2275,-3.69552,-68.7651,68.2063,37.5023,-21.8202,14.4928,7.12502,4.58242,-15.4377,-8.74653e-15,4.77083e-15,-29.1601,-6.76724,86.3067,48.8791,7.45441,-8.83647,52.991,7.12502,17.1038,82.2581,-35.9651,1.22603,13.6307,26.086,-13.8998,-21.6055,13.9861,12.1564,-3.06279,-34.0835,15.2696,-15.5137,2.80777,-17.8058
-2.52485,17.6014,33.1889,-178.101,-4.1197,173.351,20.828,-1.58821,-5.31489,1.4718,-3.40247,3.67829,-9.52355,-1.48897,8.13643,-10.3625,-2.34479,-2.25924,21.7932,-0.795923,-4.2386,8.49102,-0.58019,-1.06443,-3.61788e-14,-1.90833e-14,-21.7758,-3.57245,-68.6975,65.127,36.8855,-20.465,13.6045,7.12502,5.89088,-16.2936,-3.61788e-14,-1.90833e-14,-29.0879,-6.85089,86.7518,49.1291,7.29079,-8.75466,52.9992,7.12502,17.1826,82.2595,-35.9278,0.595693,14.1846,27.0605,-12.3987,-20.7433,14.7058,12.5732,-3.36094,-33.9178,15.8309,-15.2817,2.57801,-19.2449
-2.51913,17.5923,33.0057,-178.103,-4.36976,173.578,20.4819,-1.5652,-4.98185,1.67158,-3.29487,3.74927,-9.14363,-1.48548,7.95448,-10.8309,-2.44168,-2.30708,21.821,-0.956685,-4.13222,8.58594,-0.66667,-1.0444,2.62396e-14,-3.81667e-14,-20.8655,-4.04113,-68.8533,62.2735,35.8504,-18.7352,11.8526,7.12502,7.56071,-17.9923,2.62396e-14,-3.81667e-14,-28.489,-7.19263,86.9348,49.4764,7.36885,-8.84578,52.958,7.12502,17.0949,82.2259,-36.0394,0.216856,14.7478,28.1902,-9.99781,-20.0887,15.1696,12.8518,-3.53751,-33.5578,16.5281,-14.9378,2.14342,-20.6463
-2.51219,17.6036,32.8229,-178.204,-4.50273,173.934,20.7771,-1.45862,-4.66769,1.56821,-3.0769,3.9818,-9.46007,-1.37261,8.0075,-11.099,-2.62418,-2.58154,22.061,-1.11384,-4.13216,8.72051,-0.762945,-1.02014,3.69739e-14,2.22639e-14,-20.3521,-4.39101,-68.7573,59.4852,34.4649,-17.0264,9.96154,7.12502,9.20989,-19.8173,3.69739e-14,2.22639e-14,-28.4942,-7.4398,87.3891,49.8973,7.74376,-8.92719,53.1165,7.12502,17.0165,82.3911,-36.1321,0.332467,15.2004,29.3454,-7.15352,-19.6657,16.5704,13.0777,-3.77224,-33.094,17.3989,-14.3943,1.77215,-22.0166
-2.5095,17.6159,32.637,-178.324,-4.37932,174.382,20.953,-1.29483,-4.2463,1.53829,-2.76095,4.19384,-9.65118,-1.23084,7.93301,-11.4413,-2.82704,-2.65475,22.4171,-1.27656,-4.3179,8.9057,-0.863189,-1.09579,3.97569e-15,4.45278e-14,-19.7009,-4.99056,-68.707,56.6097,32.7428,-15.0614,8.22483,7.12502,11.1056,-21.4613,3.97569e-15,4.45278e-14,-28.3736,-7.52696,87.7632,50.1403,7.93671,-8.82265,53.2328,7.12502,17.1172,82.4987,-36.2436,0.91599,15.5753,30.4201,-4.91632,-19.2922,20.5384,13.1131,-3.91136,-32.6181,18.6023,-13.7036,1.5308,-23.2818
-2.51074,17.624,32.4456,-178.52,-4.22275,174.777,21.2663,-1.15539,-3.8087,1.49652,-2.47953,4.35491,-9.92635,-1.10434,7.80936,-11.7513,-2.97771,-2.6453,22.7034,-1.40124,-4.48501,9.06042,-0.938754,-1.17525,-1.23246e-14,-6.20208e-14,-19.2311,-5.87125,-68.6433,53.9156,30.8387,-12.4498,5.99216,7.12502,13.6235,-23.542,-1.23246e-14,-6.20208e-14,-28.3942,-7.42204,88.079,50.3507,8.01482,-8.52703,53.8739,7.12502,17.4017,83.1149,-36.1132,1.57144,15.8852,31.3639,-4.00066,-18.6622,24.7467,13.0483,-4.13684,-32.2513,20.1835,-13.0397,1.27669,-22.7617
-2.5092,17.6316,32.2471,-178.823,-4.04265,175.278,21.4664,-1.02771,-3.33036,1.52824,-2.20705,4.55696,-10.053,-0.998011,7.69666,-11.6888,-3.06338,-2.64591,22.7348,-1.46002,-4.66368,9.05814,-0.977526,-1.24117,3.45885e-14,8.74653e-14,-18.8693,-6.99843,-68.5059,51.3111,28.6402,-9.85248,3.41996,7.12502,16.1257,-25.9292,3.45885e-14,8.74653e-14,-28.5907,-7.21159,88.3644,50.6531,8.12418,-8.8044,53.6366,7.12502,17.1347,82.901,-35.7041,2.18467,16.3596,32.1601,-3.99389,-17.9181,26.679,12.9115,-4.25885,-31.7546,22.117,-12.2242,1.06214,-22.4418
-2.50707,17.6383,32.0478,-178.948,-3.76812,175.621,21.471,-0.887471,-3.0585,1.4843,-1.94734,4.73543,-10.1471,-0.882076,7.67045,-11.4144,-3.13958,-2.89406,22.6755,-1.54229,-4.54039,8.9909,-1.01394,-1.16095,4.8901e-14,-3.33958e-14,-18.6409,-8.3119,-68.3526,48.5958,25.8116,-7.71472,1.26553,7.12502,18.1833,-27.9046,4.8901e-14,-3.33958e-14,-29.0342,-6.88735,88.625,50.9639,8.48042,-10.0839,52.1625,7.12502,15.9029,81.5295,-35.4812,2.65747,16.7263,32.8647,-3.67643,-17.6796,25.7546,12.4102,-4.18337,-31.3622,24.2292,-10.9655,0.748642,-23.5782
-2.50174,17.6558,31.8472,-179.078,-3.58345,176.012,21.5513,-0.819583,-2.7141,1.42559,-1.76884,4.90381,-10.2889,-0.807088,7.61924,-11.2307,-3.18381,-3.05283,22.6514,-1.59136,-4.44674,8.95157,-1.03367,-1.10423,-1.98785e-15,-2.70347e-14,-18.4563,-9.9548,-68.2134,45.735,21.9865,-6.06527,0.054898,7.12502,19.7696,-28.9597,-1.98785e-15,-2.70347e-14,-29.5581,-6.56355,88.7794,51.2222,8.9779,-11.6165,50.3729,7.12502,14.4265,79.8515,-35.181,3.09955,17.1707,33.5378,-2.87298,-18.1351,24.5574,11.7896,-4.08979,-30.8371,26.4426,-9.28899,0.225805,-25.4373
-2.49448,17.6782,31.6438,-179.261,-3.51267,176.075,21.6375,-0.710715,-2.67867,1.4839,-1.62499,4.97861,-10.2909,-0.746106,7.64534,-11.4284,-3.22968,-3.06639,22.7055,-1.64112,-4.46448,9.00697,-1.06498,-1.11756,-3.81667e-14,-6.20208e-14,-18.1932,-12.2875,-67.9302,42.7021,18.0334,-5.2411,0.600846,7.12502,20.5618,-28.3302,-3.81667e-14,-6.20208e-14,-29.8533,-6.33516,88.8753,51.4139,9.29218,-12.5153,49.3114,7.12502,13.5604,78.8498,-34.7051,3.34137,17.3096,34.2195,-2.04879,-18.3282,24.5324,11.0921,-3.46727,-30.3359,28.7276,-7.23188,-1.10065,-26.2848
-2.48548,17.6962,31.4386,-179.375,-3.45576,175.913,21.6781,-0.588911,-2.94394,1.48253,-1.52328,4.99539,-10.3233,-0.682164,7.79356,-11.4227,-3.28748,-2.89795,22.7577,-1.69659,-4.66048,9.01859,-1.09299,-1.21853,1.51076e-14,4.13472e-14,-18.2216,-14.7559,-67.4831,39.9233,13.9879,-4.69856,2.20595,7.12502,21.083,-26.6679,1.51076e-14,4.13472e-14,-30.2533,-6.14916,89.0045,51.4857,9.80257,-13.1666,49.0351,7.12502,12.9326,78.6144,-34.3652,3.32506,17.2812,35.0514,-2.04799,-17.6881,24.8551,10.2299,-3.15071,-30.1947,31.1055,-4.9142,-2.13529,-26.1566
-2.47676,17.7168,31.2303,-179.467,-3.40808,176.027,21.088,-0.582132,-2.89588,1.70824,-1.51868,5.03559,-9.74681,-0.719053,7.75963,-10.9233,-3.32775,-2.97232,22.3842,-1.83019,-4.50693,8.79733,-1.13936,-1.1556,6.24184e-14,-6.36111e-15,-18.1095,-17.4031,-67.1872,37.2505,9.85799,-4.39999,1.71853,7.12502,21.3698,-27.1231,6.24184e-14,-6.36111e-15,-30.4057,-5.91236,88.9282,51.4267,10.419,-12.3141,50.6637,7.12502,13.7543,80.1891,-34.0693,3.30862,17.5838,35.8862,-2.47646,-17.0588,25.0803,9.28774,-2.94187,-29.7711,33.4388,-2.1875,-3.12828,-24.8556
-2.46876,17.709,31.0235,-179.632,-3.36068,175.968,21.2318,-0.465984,-2.99915,1.66157,-1.38275,5.06349,-9.89588,-0.640377,7.82538,-11.0318,-3.43332,-2.98571,22.6194,-1.94177,-4.48868,8.89784,-1.18817,-1.16341,-3.57812e-15,7.95139e-14,-18.4545,-20.3801,-66.4664,34.5329,6.44927,-5.41951,-0.476895,7.12502,20.3903,-29.4264,-3.57812e-15,7.95139e-14,-31.0137,-5.73133,88.9554,51.5594,10.4536,-14.4731,47.5306,7.12502,11.6729,77.1854,-33.7283,3.17422,17.7511,36.7455,-2.71186,-16.6379,25.4085,8.38656,-2.68372,-29.5001,35.8282,1.0749,-4.12416,-22.5948
-2.45987,17.7336,30.8149,-179.813,-3.51923,176.079,21.0918,-0.489403,-2.86186,1.78235,-1.39688,5.11115,-9.68362,-0.671302,7.78834,-11.4161,-3.46431,-2.94917,22.9616,-1.94185,-4.49756,9.08742,-1.19081,-1.18354,1.07344e-14,7.95139e-15,-18.5928,-23.637,-65.8085,32.0746,3.90545,-6.43596,-1.31702,7.12502,19.4132,-30.3679,1.07344e-14,7.95139e-15,-31.4757,-5.5354,88.8796,51.6943,10.7499,-14.6738,47.1541,7.12502,11.4794,76.8198,-33.057,3.2543,17.9794,37.4016,-3.59408,-16.7174,27.9577,7.08664,-2.70239,-29.0295,38.2067,5.25046,-4.82688,-21.0748
-2.44431,17.7585,30.6138,-179.897,-3.66027,176.472,20.9756,-0.563461,-2.50446,1.78235,-1.4131,5.21373,-9.62285,-0.69952,7.69311,-11.5245,-3.46015,-2.89229,23.2002,-1.92762,-4.44225,9.19015,-1.17169,-1.17707,-2.34566e-14,0,-19.2173,-27.0298,-64.9448,30.1228,2.09099,-7.31412,-1.48709,7.12502,18.5687,-30.6208,-2.34566e-14,0,-32.0182,-5.41837,88.7743,51.5288,11.4809,-14.0551,48.6369,7.12502,12.0759,78.2684,-32.4576,3.65673,18.4774,37.922,-4.70159,-17.1195,29.7976,5.57666,-2.92421,-28.288,40.6404,9.32648,-5.33116,-19.9875
-2.42956,17.7822,30.4168,-179.93,-3.77444,176.864,20.8747,-0.595952,-2.12818,1.75618,-1.36685,5.28383,-9.60983,-0.694429,7.53429,-11.6674,-3.51743,-2.82405,23.4654,-2.01652,-4.32822,9.30803,-1.1948,-1.16507,2.46493e-14,-7.15625e-14,-20.1921,-30.6786,-63.8081,28.5102,0.976107,-8.63481,-1.33779,7.12502,17.2979,-30.588,2.46493e-14,-7.15625e-14,-32.4919,-5.29518,88.6266,51.3292,11.6837,-13.3604,49.512,7.12502,12.7458,79.103,-31.818,3.94487,19.0439,38.1227,-5.355,-17.4121,29.1562,3.94729,-3.31297,-27.6492,43.0366,13.0383,-5.73497,-17.7541
-2.4184,17.7995,30.2129,-180.071,-3.7927,177.244,20.6696,-0.550056,-1.78273,1.91367,-1.25216,5.38792,-9.34269,-0.677299,7.3977,-11.9344,-3.65324,-2.80231,23.6164,-2.19656,-4.32267,9.40903,-1.28226,-1.19473,-7.15625e-14,-1.59028e-15,-21.1955,-34.1686,-62.6197,27.4648,-0.0459061,-10.102,-1.47929,7.12502,15.8854,-30.8477,-7.15625e-14,-1.59028e-15,-32.6895,-5.08884,88.4752,51.2035,11.2575,-12.7765,49.7209,7.12502,13.3087,79.2759,-30.9595,4.05397,19.6782,38.1971,-5.89731,-17.5761,27.7394,2.40716,-3.52067,-27.0438,45.5462,16.3257,-6.44103,-15.8335
-2.4085,17.8421,30.0086,-180.24,-3.79376,177.726,20.6962,-0.702172,-1.59406,1.61979,-1.37225,5.68545,-9.6659,-0.718117,7.6793,-10.7172,-3.66472,-3.37102,23.5484,-2.0874,-4.19923,9.1721,-1.2194,-1.01763,-2.38542e-15,-1.17681e-13,-23.0109,-35.5241,-61.0996,27.0057,-1.61197,-12.0569,-2.12985,7.12502,14.0022,-31.6383,-2.38542e-15,-1.17681e-13,-34.018,-4.19552,88.4234,51.2058,11.0098,-12.4315,50.2287,7.12502,13.6411,79.7617,-29.9521,4.04083,20.4205,38.141,-6.7005,-17.6483,27.5921,0.877914,-3.54378,-26.295,48.0537,19.2135,-7.48598,-12.8514
-2.39527,17.8678,29.8183,-180.464,-3.83387,178.275,20.8641,-0.692694,-1.09896,1.71648,-1.27263,5.82859,-9.67051,-0.707233,7.53103,-11.3165,-3.74248,-3.30142,23.9533,-2.1542,-4.21351,9.42504,-1.25729,-1.0579,2.26615e-14,3.81667e-14,-24.4544,-37.6232,-59.89,26.9112,-2.99602,-14.0452,-2.63416,7.12502,12.0855,-32.2651,2.26615e-14,3.81667e-14,-34.3449,-4.05532,88.2505,50.9099,11.1987,-12.7108,50.2266,7.12502,13.372,79.7775,-28.9813,4.15009,21.2124,38.0738,-7.3322,-17.9208,27.8398,-0.70443,-3.54776,-25.4623,50.6171,21.3259,-8.63762,-8.61922
-2.38212,17.8883,29.6292,-180.641,-3.814,178.769,20.9658,-0.678938,-0.682696,1.76896,-1.1759,5.92887,-9.68583,-0.688975,7.37859,-11.755,-3.76158,-3.09717,24.3649,-2.16075,-4.24886,9.64866,-1.2504,-1.11832,2.22639e-14,-9.54166e-15,-26.151,-39.3185,-58.5809,27.0227,-4.6335,-15.6472,-2.77293,7.12502,10.5405,-32.4886,2.22639e-14,-9.54166e-15,-34.808,-4.00366,87.9579,50.5858,11.1682,-12.5651,50.0041,7.12502,13.5124,79.5457,-28.0441,4.30791,21.9176,37.9162,-7.89414,-18.1049,28.2531,-2.34617,-3.53384,-24.7129,53.1486,22.4463,-9.38253,-3.26092
-2.37106,17.9057,29.4378,-180.806,-3.6933,179.254,20.8564,-0.581117,-0.322029,1.87953,-0.990061,6.06547,-9.52923,-0.633244,7.25836,-11.8208,-3.81875,-2.98024,24.4242,-2.2464,-4.29691,9.67799,-1.28497,-1.16651,-1.23246e-14,2.38542e-14,-27.9118,-40.8035,-57.1596,27.2544,-6.4276,-16.9228,-2.36212,7.12502,9.30985,-32.1366,-1.23246e-14,2.38542e-14,-35.2038,-3.72879,87.7252,50.1964,10.7524,-12.337,49.6342,7.12502,13.7322,79.1611,-27.0963,4.2826,22.6581,37.7854,-8.374,-17.9688,27.4751,-3.92629,-3.46926,-24.0084,55.6002,22.2291,-9.85087,0.189987
-2.36106,17.9207,29.2504,-181.151,-3.60365,179.907,21.3637,-0.609513,0.182302,1.76496,-0.902254,6.2708,-9.94971,-0.608752,7.21309,-11.7337,-3.81428,-3.07082,24.5925,-2.17668,-4.32184,9.72436,-1.25268,-1.15111,4.69132e-14,4.77083e-14,-29.9828,-41.5617,-55.556,27.6504,-8.25017,-17.5378,-1.78473,7.12502,8.71637,-31.5848,4.69132e-14,4.77083e-14,-36.087,-2.95456,87.395,49.7065,10.3932,-12.3301,48.421,7.12502,13.7389,77.9474,-25.9175,4.28129,23.5689,37.6211,-8.9889,-17.8765,26.914,-5.33167,-3.39794,-23.1034,57.914,20.7473,-9.95607,-1.50223
-2.34955,17.936,29.066,-181.503,-3.54828,180.351,21.349,-0.701782,0.512611,1.94169,-0.994459,6.3826,-9.73465,-0.693043,7.16484,-11.4216,-3.7901,-3.29372,24.3679,-2.16288,-4.18111,9.59191,-1.24823,-1.05478,7.15625e-15,-3.81667e-14,-31.5172,-42.379,-54.4218,28.1479,-10.1647,-17.9482,-1.24898,7.12502,8.32031,-31.0651,7.15625e-15,-3.81667e-14,-36.6735,-1.93496,86.8687,49.5649,10.272,-11.8478,49.1059,7.12502,14.2037,78.6003,-24.7584,4.10015,24.2557,37.4602,-9.6905,-17.7008,27.1359,-6.66752,-3.32736,-22.4344,60.0028,18.6524,-9.64303,-5.94878
-2.33977,17.9499,28.8823,-181.834,-3.42378,180.674,21.214,-0.631312,0.875902,2.47226,-0.930782,6.37147,-9.07969,-0.733921,6.88292,-12.287,-3.85308,-3.18411,24.3535,-2.34789,-4.05715,9.74832,-1.35014,-1.07223,-6.36111e-15,-6.36111e-15,-32.6104,-44.1487,-53.544,28.7014,-12.082,-18.0946,-0.422952,7.12502,8.17907,-30.2446,-6.36111e-15,-6.36111e-15,-36.2741,-1.4134,86.3098,49.1124,9.94986,-11.1745,50.2298,7.12502,14.8523,79.6775,-23.6187,3.97671,24.7921,37.2859,-10.1713,-17.5001,26.5958,-7.9405,-3.23589,-21.929,61.8448,16.2964,-8.9127,-9.98252
-2.33584,17.9673,28.6962,-181.986,-3.36392,181.03,21.3757,-0.668973,1.07201,2.22479,-0.893274,6.51534,-9.44801,-0.706217,6.94716,-11.3646,-3.88132,-3.36847,24.285,-2.32803,-4.04892,9.55347,-1.32088,-1.01416,-2.82274e-14,-6.36111e-15,-35.0136,-44.1659,-51.6789,29.5158,-14.4404,-18.2616,-0.373615,7.12502,8.01781,-30.2015,-2.82274e-14,-6.36111e-15,-37.3829,-0.662379,85.9947,48.6992,9.81359,-11.5752,49.2939,7.12502,14.4663,78.7697,-22.6619,3.91329,25.3197,37.1187,-10.6366,-17.451,25.9843,-9.39825,-3.15502,-21.386,63.4257,14.0633,-8.20986,-14.775
-2.32939,17.9837,28.5093,-182.089,-3.39023,181.235,21.4894,-0.735042,1.23063,2.04655,-0.91087,6.53332,-9.70913,-0.706339,6.89822,-10.9815,-3.90216,-3.30663,24.3871,-2.32272,-4.11836,9.51462,-1.30066,-1.0398,8.74653e-15,-1.90833e-14,-37.2756,-44.5829,-49.8268,30.0665,-15.5776,-18.6593,-0.903681,7.12502,7.63402,-30.7459,8.74653e-15,-1.90833e-14,-38.285,0.0140842,85.4933,48.2372,9.7019,-10.9311,50.9848,7.12502,15.0869,80.415,-21.7194,3.77258,25.692,36.9413,-11.2774,-17.433,25.5324,-10.8425,-2.97692,-20.9403,64.7286,12.1316,-7.71514,-17.9236
-2.32311,18.0031,28.322,-182.274,-3.37358,181.237,21.5968,-0.796302,1.18573,2.08535,-1.00664,6.44951,-9.71448,-0.751585,6.86077,-11.265,-3.84788,-3.12151,24.5929,-2.26233,-4.1328,9.63707,-1.26365,-1.07724,-2.98177e-14,-1.04958e-13,-39.0859,-45.4451,-48.3985,30.6874,-16.5405,-18.99,-1.24037,7.12502,7.31483,-31.0939,-2.98177e-14,-1.04958e-13,-38.6613,0.905341,84.7845,47.4298,9.45873,-10.5293,51.7238,7.12502,15.4739,81.1245,-20.6522,3.65636,25.8629,36.737,-11.9541,-17.5062,25.2239,-12.0805,-2.92575,-20.8112,65.756,10.1647,-6.92072,-18.6447
-2.31494,18.0128,28.1362,-182.37,-3.15339,181.509,21.4391,-0.806472,1.31075,2.17562,-1.01949,6.49138,-9.52684,-0.775699,6.82436,-11.3847,-3.797,-3.08634,24.772,-2.17433,-4.12782,9.72372,-1.2186,-1.07551,-2.78299e-14,-8.90555e-14,-40.4007,-45.6005,-47.5831,31.6846,-18.8495,-19.0892,-1.56829,7.12502,7.21906,-31.4252,-2.78299e-14,-8.90555e-14,-39.0764,1.86709,84.1679,46.6904,9.11199,-10.5288,52.2892,7.12502,15.4744,81.6899,-19.7643,3.76071,26.3368,36.5717,-12.5085,-17.5053,25.0755,-13.3912,-2.79051,-20.3679,66.6163,8.39502,-5.86352,-18.2506
-2.30367,18.0199,27.9562,-182.318,-2.6715,181.83,21.238,-0.708398,1.40291,2.20626,-0.884121,6.53652,-9.3977,-0.721063,6.76876,-11.3218,-3.7514,-2.96549,24.8325,-2.11722,-4.16608,9.73038,-1.18154,-1.10163,9.54166e-15,2.06736e-14,-41.852,-45.8756,-46.6328,32.7441,-21.0941,-19.0391,-1.64076,7.12502,7.26743,-31.496,9.54166e-15,2.06736e-14,-39.6499,2.75242,83.5184,46.0015,8.95481,-10.7591,52.3319,7.12502,15.2526,81.7496,-19.1225,4.14738,26.8665,36.418,-12.8119,-17.5593,24.253,-14.9101,-2.4371,-19.8426,67.3256,7.07012,-4.88021,-17.5829
-2.30118,18.0275,27.7792,-182.049,-1.96508,181.868,20.9839,-0.540164,1.28425,2.10043,-0.669823,6.50856,-9.39943,-0.602401,6.7346,-11.1203,-3.70523,-2.98688,24.8655,-2.03454,-4.16755,9.705,-1.13612,-1.08481,-3.18055e-15,3.97569e-14,-43.4703,-45.8446,-45.4952,33.9145,-23.2529,-19.172,-1.87062,7.12502,7.13916,-31.7302,-3.18055e-15,3.97569e-14,-40.4715,3.58706,82.9209,45.3297,9.22311,-11.1934,52.1357,7.12502,14.8341,81.5847,-18.7285,4.46936,27.0342,36.2637,-13.0909,-17.377,23.8502,-16.559,-1.97398,-19.7116,67.7946,5.6952,-3.91098,-16.1568
-2.29449,18.0367,27.5947,-182.253,-1.79472,181.855,21.3129,-0.583987,1.14082,1.95666,-0.723686,6.46267,-9.73377,-0.606653,6.80934,-10.8281,-3.65504,-3.15515,25.0347,-1.92667,-4.02294,9.7159,-1.06907,-0.98897,-9.54166e-15,-6.20208e-14,-45.2114,-45.3179,-44.4075,35.2595,-25.475,-19.3506,-2.19375,7.12502,6.9667,-32.0591,-9.54166e-15,-6.20208e-14,-41.5991,4.4471,82.1953,44.7708,9.4012,-11.8577,51.9862,7.12502,14.1942,81.4812,-17.669,4.51412,27.1968,36.0774,-13.8079,-17.4564,23.8638,-17.5982,-1.95353,-19.6412,67.9844,3.66839,-3.02202,-15.1428
-2.28814,18.0451,27.4123,-182.419,-1.47902,182.073,21.1208,-0.471107,1.26816,2.26756,-0.614762,6.47484,-9.29327,-0.591534,6.68898,-11.3947,-3.6857,-3.16548,25.1415,-2.03299,-3.81878,9.86372,-1.12067,-0.941948,7.55382e-15,-4.6118e-14,-46.5467,-45.998,-43.353,36.531,-27.2165,-18.9855,-2.54154,7.12502,7.31918,-32.3949,7.55382e-15,-4.6118e-14,-41.7624,5.14478,81.6207,44.0455,9.38892,-12.4103,51.5082,7.12502,13.6616,81.0399,-16.6907,4.63353,27.6043,35.9361,-14.5627,-17.3546,24.202,-18.6789,-1.9142,-19.2952,68.0673,2.56038,-2.05628,-16.0167
-2.28416,18.047,27.2303,-182.582,-1.08524,182.289,21.0583,-0.506156,1.35458,2.29106,-0.654699,6.46614,-9.22937,-0.619141,6.63546,-10.9322,-3.54657,-3.078,24.9755,-1.84643,-3.91227,9.71397,-1.02399,-0.956776,-1.15295e-14,3.18055e-15,-47.9632,-45.6027,-42.6493,38.1355,-29.378,-18.5991,-2.85161,7.12502,7.69213,-32.6917,-1.15295e-14,3.18055e-15,-42.648,6.20605,80.7573,43.3597,9.34857,-12.5055,51.5026,7.12502,13.5698,81.0404,-15.706,4.75158,27.9811,35.7687,-15.1076,-17.1831,24.0402,-19.6318,-1.79357,-18.9603,67.9717,1.1211,-1.12784,-16.0402
-2.28497,18.0341,27.0754,-181.665,1.10107,182.727,20.5111,-0.963495,1.04259,2.18153,0.457485,6.43718,-9.18361,0.674108,6.32895,-10.8259,-3.43651,-2.97028,25.0801,-1.69821,-3.90637,9.72968,-0.938026,-0.954454,1.31198e-14,-4.29375e-14,-49.0397,-43.8803,-43.0923,40.72,-32.9854,-19.0647,-3.70814,7.12502,7.24274,-33.5642,1.31198e-14,-4.29375e-14,-43.5321,7.02119,79.9058,42.7156,9.66243,-12.6431,51.8324,7.12502,13.4372,81.379,-16.0732,5.80187,28.4966,35.5343,-14.8116,-16.384,22.4893,-21.7267,-0.0494677,-18.365,67.8035,-0.295681,-0.275659,-15.9688
-2.28771,18.0243,26.9112,-181.267,2.57252,183.076,20.3226,-0.588108,1.14749,2.0736,0.945289,6.44883,-9.25061,0.893378,6.14266,-10.8073,-3.35397,-2.95179,25.1993,-1.58265,-3.85612,9.7696,-0.874369,-0.927385,5.96354e-15,-3.18055e-15,-50.5001,-44.2292,-41.7426,41.7422,-34.2787,-18.6446,-3.49922,7.12502,7.64818,-33.3409,5.96354e-15,-3.18055e-15,-44.3761,7.80123,79.0842,42.0567,9.94616,-12.6058,52.0068,7.12502,13.4732,81.551,-15.8159,6.32205,28.9203,35.3028,-14.7354,-15.8729,20.7719,-23.1806,0.918119,-17.9364,67.3734,-1.5206,0.556128,-16.7018
-2.27802,18.0346,26.6897,-182.682,-0.422997,183.055,20.9081,-0.743743,2.05707,2.21593,-0.822374,6.36409,-9.22124,-0.728572,6.15438,-10.6793,-3.30842,-2.72036,25.1869,-1.54935,-3.93911,9.73516,-0.843278,-0.989214,3.22031e-14,-3.65764e-14,-52.4861,-45.5678,-39.5437,42.5058,-34.3973,-17.8311,-2.97694,7.12502,8.43332,-32.7886,3.22031e-14,-3.65764e-14,-45.022,8.36247,78.3068,41.3936,10.199,-12.5175,52.3423,7.12502,13.5583,81.8809,-13.2222,4.56861,29.2062,35.0325,-16.1159,-17.4243,20.2611,-22.7549,-2.15091,-17.8646,66.5237,-2.61131,0.851792,-16.7059
-2.2786,18.0313,26.5042,-182.655,-0.0581937,183.262,21.0446,-0.757339,2.27387,2.13933,-0.777341,6.32525,-9.38729,-0.711686,5.98436,-10.9521,-3.16834,-2.60537,25.4213,-1.331,-3.994,9.8713,-0.739903,-1.00891,4.29375e-14,8.42847e-14,-54.228,-45.8833,-38.0245,43.9483,-35.2428,-16.9356,-2.95935,7.12502,9.29746,-32.7343,4.29375e-14,8.42847e-14,-45.8029,8.91408,77.6149,40.8075,10.5225,-12.6843,52.5508,7.12502,13.3975,82.1,-12.4021,4.53015,29.4966,34.7811,-16.5799,-17.1224,20.2498,-23.6711,-2.24479,-17.5348,65.6342,-3.6894,1.49991,-15.3702
-2.27443,18.0172,26.3361,-182.609,0.313108,183.609,20.9162,-1.91096,2.15608,2.43487,-0.478952,6.27166,-9.04191,0.205327,5.76156,-11.2982,-3.02578,-2.61875,25.3886,-1.19897,-3.83203,9.92838,-0.681475,-0.941203,2.22639e-14,-3.81667e-14,-55.2982,-45.8856,-37.5091,45.7981,-36.4108,-16.4263,-3.12485,7.12502,9.78891,-32.8773,2.22639e-14,-3.81667e-14,-46.1707,9.41177,76.9543,40.1569,10.8504,-12.8468,52.3665,7.12502,13.2409,81.926,-11.6807,4.46227,29.9565,34.5528,-16.9492,-16.8552,19.5421,-24.677,-2.24934,-16.9894,64.6086,-4.48541,1.92896,-15.0943
-2.269,17.9982,26.1733,-182.621,0.633049,183.965,21.0946,-1.97047,2.32524,2.40843,-0.480991,6.35938,-9.17068,0.208387,5.77157,-11.4524,-2.93757,-2.67373,25.4983,-1.03903,-3.86847,10.0004,-0.619602,-0.928963,-3.61788e-14,-3.33958e-14,-56.4005,-45.5378,-36.7483,47.5146,-37.3164,-15.901,-3.04865,7.12502,10.2956,-32.7767,-3.61788e-14,-3.33958e-14,-46.8373,10.0871,76.2631,39.2141,10.9241,-12.8929,51.6339,7.12502,13.1965,81.1962,-10.9946,4.42338,30.4423,34.4834,-17.4704,-16.7735,19.2483,-25.5773,-2.27425,-16.4197,63.4968,-5.18246,2.26079,-15.2555
-2.26086,17.9821,25.9959,-182.727,0.543201,184.022,21.1409,-2.09217,2.30247,2.39353,-0.648519,6.33186,-9.19797,0.127987,5.80498,-11.3826,-2.88169,-2.5712,25.5546,-0.933052,-4.00286,10.0062,-0.570588,-0.979898,-1.43125e-14,-4.77083e-15,-57.8281,-45.4539,-35.5665,49.2656,-37.9686,-15.1356,-2.9988,7.12502,11.034,-32.6888,-1.43125e-14,-4.77083e-15,-47.4018,10.6615,75.5579,38.2279,10.7692,-12.7971,51.4888,7.12502,13.2888,81.0451,-10.1399,4.34316,30.6425,34.3851,-17.981,-17.1303,18.8619,-26.2454,-2.80726,-16.196,62.167,-5.94006,2.83388,-14.9614
-2.25848,17.9651,25.8149,-182.74,0.787218,184.121,21.0401,-2.13331,2.36938,2.3948,-0.717565,6.24406,-9.13782,0.0836708,5.68297,-11.252,-2.7663,-2.41048,25.5635,-0.814623,-3.97163,9.98258,-0.494017,-0.980436,1.47101e-14,1.43125e-14,-59.1799,-45.3001,-34.5872,51.0848,-38.5418,-14.3043,-2.80308,7.12502,11.8357,-32.4486,1.47101e-14,1.43125e-14,-48.1114,11.0826,74.8313,37.5408,10.653,-12.7307,51.541,7.12502,13.3528,81.0932,-9.35183,4.41869,30.8399,34.2336,-18.5064,-17.1238,18.5821,-26.8704,-3.07749,-15.915,60.6348,-6.54361,3.43295,-14.3465
-2.25709,17.9573,25.6317,-182.727,1.05431,184.221,21.1406,-2.16464,2.39429,2.24646,-0.759157,6.22651,-9.35473,0.0578982,5.67391,-11.3354,-2.65884,-2.33031,25.8251,-0.605158,-4.07787,10.0949,-0.394632,-1.0087,3.65764e-14,-3.97569e-14,-60.551,-44.8021,-33.4954,52.9593,-39.0286,-13.0633,-2.61635,7.12502,13.0322,-32.1893,3.65764e-14,-3.97569e-14,-49.1192,11.6773,74.0618,36.9336,10.3045,-12.4345,51.9323,7.12502,13.6383,81.4655,-8.49084,4.45006,31.0235,33.9543,-18.9523,-17.0941,18.3959,-27.362,-3.28228,-15.6013,58.8773,-7.06705,4.02826,-14.7204
-2.26038,17.9538,25.454,-182.708,1.07377,184.328,21.0372,-2.30168,2.55031,2.33721,-0.915199,6.17207,-9.189,-0.0236195,5.55742,-11.9645,-2.53821,-2.03418,26.0945,-0.417497,-4.30825,10.3139,-0.322404,-1.12864,-1.78906e-14,1.38354e-13,-61.6247,-44.8256,-32.4835,54.7008,-39.1915,-11.5717,-2.1954,7.12502,14.4698,-31.6709,-1.78906e-14,1.38354e-13,-49.4753,12.2005,73.4293,36.2383,9.99111,-11.9924,52.4143,7.12502,14.0644,81.9184,-7.61032,4.3305,31.1961,33.5319,-19.469,-17.1303,18.2589,-27.8633,-3.6304,-15.3025,56.9487,-7.37433,4.58294,-15.3594
-2.2611,17.9512,25.287,-182.49,2.03509,184.702,20.9924,-2.08296,2.73602,2.37382,-0.584966,6.20325,-9.15268,0.127515,5.38671,-12.3107,-2.3871,-1.84996,26.1645,-0.245057,-4.34234,10.4076,-0.242898,-1.15664,-2.64384e-14,2.70347e-14,-62.8759,-44.9001,-31.2629,56.5221,-39.2785,-10.0869,-1.84548,7.12502,15.9,-31.2127,-2.64384e-14,2.70347e-14,-49.9754,12.6343,72.8432,35.7151,9.57531,-11.8159,52.6219,7.12502,14.2344,82.1141,-6.87751,4.66125,31.5968,32.9895,-19.7115,-16.6323,18.0378,-28.4119,-3.19877,-14.5717,54.9227,-7.75424,4.99118,-13.5563
-2.25516,17.9451,25.1089,-182.538,2.31769,184.995,21.1311,-2.11412,2.78038,2.29064,-0.588401,6.2897,-9.32091,0.129855,5.46959,-11.9516,-2.2378,-1.82508,25.9933,-0.0318495,-4.41855,10.2782,-0.141447,-1.15566,8.34896e-15,-6.36111e-15,-64.0898,-44.6302,-29.9091,58.2946,-39.5124,-8.42126,-1.72163,7.12502,17.5035,-30.9536,8.34896e-15,-6.36111e-15,-50.8736,13.2509,72.1074,35.0172,8.81197,-11.0921,52.6246,7.12502,14.9317,82.0664,-5.79515,4.64867,31.9925,32.4013,-19.9993,-16.5287,17.8179,-28.6401,-3.31209,-13.9338,52.7002,-8.20092,5.20532,-14.0045
-2.25303,17.9403,24.9285,-182.447,2.66797,185.145,21.0515,-2.09356,2.85509,2.25914,-0.564173,6.25258,-9.31583,0.132395,5.37616,-11.8024,-2.11953,-1.69239,25.8331,0.0822922,-4.43917,10.1911,-0.0793775,-1.16932,-4.17448e-15,-4.77083e-14,-65.165,-44.3839,-28.803,60.1619,-40.0059,-6.57915,-1.65985,7.12502,19.2755,-30.7246,-4.17448e-15,-4.77083e-14,-51.4308,13.6797,71.3923,34.2528,8.26625,-10.473,53.5399,7.12502,15.5281,82.9364,-4.86433,4.7986,32.2119,31.7795,-20.1214,-16.5862,17.7374,-28.8898,-3.43884,-13.4355,50.3442,-8.34311,5.41164,-14.1408
-2.25604,17.9421,24.7473,-182.29,3.1047,185.021,20.8286,-2.02438,2.77817,2.41932,-0.541697,6.11614,-9.0171,0.134583,5.24396,-12.4374,-1.974,-1.54643,25.8142,0.205378,-4.41862,10.3086,-0.0373693,-1.18053,2.34566e-14,3.97569e-14,-65.8243,-44.4448,-28.0512,62.0982,-40.9329,-4.80061,-1.56681,7.12502,20.985,-30.4515,2.34566e-14,3.97569e-14,-51.5768,14.2193,70.8415,33.6669,7.68995,-10.2353,53.9904,7.12502,15.7571,83.369,-3.99027,4.85524,32.0322,31.1044,-20.2416,-16.35,17.7141,-28.9989,-3.62605,-13.2547,47.7723,-8.02852,5.8887,-13.6649
-2.25237,17.9388,24.5735,-182.164,3.42322,185.1,20.8585,-1.9539,2.68632,2.19988,-0.489344,6.10385,-9.27925,0.151976,5.28121,-12.0645,-1.9234,-1.50001,25.8245,0.277527,-4.39605,10.2404,0.0183399,-1.16706,-2.38542e-15,1.59028e-15,-66.9582,-43.7359,-26.8968,64.2044,-42.0757,-3.25961,-1.74149,7.12502,22.4648,-30.4549,-2.38542e-15,1.59028e-15,-52.4843,14.493,70.211,33.1938,7.00786,-10.1282,53.7349,7.12502,15.8602,83.1053,-3.06586,4.98034,32.1457,30.3711,-20.4049,-16.3056,16.9514,-29.125,-3.92171,-12.7785,45.12,-7.33544,6.16126,-12.2904
-2.24975,17.9325,24.3956,-182.124,3.66585,185.406,20.9654,-1.97683,2.74962,2.12635,-0.471018,6.22771,-9.42159,0.166827,5.38651,-12.166,-1.86723,-1.58608,25.961,0.388247,-4.36377,10.3131,0.0645422,-1.12906,4.96962e-15,-6.20208e-14,-67.7086,-43.4725,-25.5723,65.9851,-42.6905,-1.27005,-1.64672,7.12502,24.3733,-30.1167,4.96962e-15,-6.20208e-14,-53.1222,14.9457,69.7576,32.7133,6.41556,-10.0089,53.4455,7.12502,15.9751,82.8067,-1.94787,5.01066,32.5151,29.5245,-20.6145,-16.1999,16.23,-29.0748,-4.48635,-11.9894,42.345,-6.44737,6.15862,-12.5541
-2.2505,17.9318,24.2093,-181.942,4.03497,185.648,20.6709,-1.93734,2.84795,2.1438,-0.416412,6.26902,-9.24665,0.187108,5.34691,-12.356,-1.82851,-1.6837,26.0479,0.409191,-4.16235,10.3823,0.0792542,-1.04123,1.19271e-14,1.59028e-14,-68.8072,-43.6205,-23.7027,67.5965,-42.9922,1.36628,-1.50208,7.12502,26.8984,-29.6082,1.19271e-14,1.59028e-14,-53.5839,15.3525,69.2351,32.2895,5.84884,-9.6931,52.9599,7.12502,16.2792,82.2965,-0.901711,5.12835,32.7521,28.5815,-20.765,-16.0652,15.6914,-29.0963,-5.14329,-11.2005,39.5879,-5.64221,6.23802,-13.8669
-2.25421,17.9373,24.026,-181.783,4.33969,185.707,20.4048,-1.91979,2.87606,2.07031,-0.432235,6.21327,-9.18186,0.16616,5.26569,-12.0287,-1.7009,-1.60742,25.8301,0.518912,-4.08313,10.2392,0.150012,-1.00905,3.04141e-14,5.24792e-14,-70.0031,-43.3371,-21.9077,69.3535,-43.4923,3.84307,-1.78673,7.12502,29.2659,-29.5045,3.04141e-14,5.24792e-14,-54.3949,15.4411,68.8092,32.3218,5.6383,-9.39396,52.3983,7.12502,16.5672,81.7111,0.157349,5.20554,32.7655,27.5875,-20.6479,-15.9385,15.0383,-29.2198,-6.25472,-10.5287,36.8521,-4.75295,7.03727,-13.2704
-2.25756,17.9368,23.8408,-181.673,4.44622,185.775,20.1659,-1.98153,2.94446,2.08596,-0.535039,6.14796,-9.02761,0.106448,5.17133,-11.8312,-1.51107,-1.46233,25.386,0.646391,-3.98994,10.0396,0.22251,-0.983631,4.83047e-14,0,-71.0794,-43.3472,-20.2281,71.2044,-43.8392,6.12246,-1.97454,7.12502,31.44,-29.2912,4.83047e-14,0,-54.8101,15.6773,68.3918,31.9771,5.40898,-9.58698,51.9588,7.12502,16.3813,81.287,1.22615,5.06154,32.7668,26.6396,-20.6031,-15.7054,13.7354,-29.12,-7.67161,-9.79922,34.2491,-4.57695,8.00416,-13.1596
-2.26118,17.931,23.6571,-181.687,4.87765,186.02,20.4311,-1.92637,2.94132,2.02863,-0.420906,6.24884,-9.2442,0.169418,5.26809,-12.0186,-1.39523,-1.46784,25.3745,0.785222,-3.94879,10.0739,0.281262,-0.953331,2.06736e-14,-6.36111e-15,-71.7797,-43.0679,-18.8767,73.1187,-44.4997,7.28246,-1.83408,7.12502,32.5445,-28.9293,2.06736e-14,-6.36111e-15,-55.3054,16.1938,67.9585,31.3857,4.99247,-9.70825,51.5023,7.12502,16.2646,80.8401,2.36745,5.09559,32.9572,25.8061,-20.4438,-15.4274,11.9485,-28.8933,-8.92633,-8.82389,31.7941,-4.40613,8.94049,-15.4496
-2.26366,17.9258,23.475,-181.529,5.56906,186.228,20.3517,-1.74564,2.91972,1.95951,-0.205005,6.25443,-9.29236,0.266913,5.22658,-12.0128,-1.358,-1.3463,25.4126,0.799539,-3.91102,10.0857,0.302847,-0.959367,1.55052e-14,-3.02153e-14,-72.4601,-42.6501,-17.8343,75.1202,-45.3816,7.93399,-1.94123,7.12502,33.1643,-28.9066,1.55052e-14,-3.02153e-14,-55.9606,16.3898,67.502,31.2987,4.78939,-9.55284,51.3617,7.12502,16.4142,80.6872,3.28801,5.05297,33.0141,25.0845,-20.1808,-14.8853,11.2641,-28.8631,-10.0487,-7.80173,29.6562,-5.19902,10.2631,-14.1217
-2.27331,17.9151,23.293,-181.275,6.14033,186.192,19.8349,-1.63438,2.84822,2.00329,-0.154627,6.1455,-8.96227,0.275702,5.11104,-11.9177,-1.21753,-1.21897,25.1518,0.906028,-3.86363,9.97366,0.361424,-0.951304,-3.53837e-14,2.8625e-14,-72.6656,-42.2715,-17.3002,77.1107,-46.3924,8.30062,-2.31276,7.12502,33.5128,-29.2033,-3.53837e-14,2.8625e-14,-56.4389,16.3281,67.3763,31.6028,5.08149,-9.57805,51.5456,7.12502,16.3899,80.8731,4.08277,4.68593,32.7156,24.4417,-19.8475,-14.3713,10.3214,-29.0012,-11.263,-7.0638,27.7995,-5.89372,11.6396,-14.3497
-2.28037,17.8956,23.1118,-181.21,6.67404,186.438,19.8795,-1.54433,2.8437,1.95398,-0.0195814,6.23631,-9.05125,0.34423,5.18179,-11.8146,-1.09608,-1.09909,24.9789,1.05586,-3.98414,9.89476,0.42691,-0.995338,1.09332e-14,1.59028e-15,-72.002,-41.2885,-17.9229,79.685,-50.8799,4.6989,-2.6898,7.12502,30.0827,-30.2621,1.09332e-14,1.59028e-15,-56.934,16.6718,67.0418,31.4842,4.89059,-9.37407,51.4251,7.12502,16.5863,80.7363,4.98822,4.50425,32.8329,23.9275,-19.6533,-14.1178,9.56021,-28.9551,-12.3119,-6.10577,26.1925,-6.38016,12.7731,-15.5809
-2.28694,17.8761,22.9268,-181.286,7.20436,186.574,19.7132,-1.47853,2.83627,2.20118,0.0483045,6.20342,-8.69127,0.378443,5.11421,-11.9937,-0.935258,-1.03849,24.6625,1.14681,-3.8121,9.81563,0.471433,-0.936751,-2.74323e-14,-2.46493e-14,-71.3439,-40.8453,-18.5305,82.2085,-54.5978,1.99448,-2.67094,7.12502,27.4993,-30.683,-2.74323e-14,-2.46493e-14,-56.8752,17.2381,66.582,31.0721,4.45296,-9.08675,51.2543,7.12502,16.8629,80.5422,5.94601,4.36468,32.8268,23.5338,-19.5383,-13.8395,8.28558,-28.7454,-13.0523,-5.44897,24.8903,-8.12095,13.7466,-13.158
-2.29761,17.8637,22.7365,-181.351,7.57958,186.306,19.7545,-1.39505,2.47636,2.14019,0.0516026,6.12566,-8.77842,0.380587,5.23927,-11.8312,-0.806927,-1.23363,24.532,1.27889,-3.53498,9.73784,0.545029,-0.790972,1.09332e-14,-7.15625e-15,-72.3751,-41.0204,-15.7538,82.8791,-48.9832,10.6031,-2.79585,7.12502,35.6981,-29.186,1.09332e-14,-7.15625e-15,-57.317,17.4367,66.3564,30.9801,4.55839,-8.81321,50.9129,7.12502,17.1262,80.1781,6.80023,4.26323,32.3896,23.2688,-19.4667,-13.6865,7.08218,-28.6304,-13.6354,-5.4175,23.9327,-9.69774,14.6148,-10.8596
-2.31043,17.8458,22.5478,-181.426,8.05879,186.287,19.5819,-1.35233,2.44,2.15105,0.0602156,6.03214,-8.67145,0.375135,5.14812,-11.5316,-0.679354,-1.01329,24.4628,1.44603,-3.66708,9.65955,0.637592,-0.853648,-7.7526e-15,-9.54166e-15,-72.4872,-40.7418,-14.8241,84.7206,-48.4598,13.022,-3.12939,7.12502,37.9866,-28.9323,-7.7526e-15,-9.54166e-15,-57.7618,17.4428,66.1658,31.1786,4.95055,-8.67358,50.6979,7.12502,17.2606,79.9514,7.58961,4.55969,32.3273,23.2494,-19.4479,-13.8855,5.42996,-28.4272,-13.8054,-5.28058,23.2183,-11.0295,15.1707,-8.84623
-2.32384,17.8224,22.3641,-181.432,8.55559,186.437,19.7119,-1.30086,2.37721,1.96848,0.132872,6.12815,-8.95021,0.413335,5.28393,-11.0712,-0.623537,-0.959654,24.3654,1.58057,-3.88725,9.54192,0.698564,-0.921656,3.69739e-14,5.08889e-14,-72.2311,-39.9702,-14.1585,86.807,-48.3279,13.976,-3.3382,7.12502,38.8869,-28.8905,3.69739e-14,5.08889e-14,-58.458,17.6663,65.9203,31.227,4.95542,-8.49677,50.8725,7.12502,17.4308,80.111,8.176,4.87878,32.4343,23.5,-19.6079,-13.9947,4.2303,-28.2531,-13.4022,-5.15875,22.7766,-11.4126,15.2791,-11.2608
-2.34075,17.7989,22.1803,-181.524,8.97336,186.376,20.0265,-1.28332,2.17163,1.78915,0.127579,6.15192,-9.32075,0.417325,5.45011,-10.8604,-0.502868,-1.02733,24.3531,1.78918,-3.94186,9.50208,0.792521,-0.904519,1.98785e-15,-2.38542e-14,-71.785,-39.4466,-13.6223,88.946,-47.679,14.5761,-3.50915,7.12502,39.4525,-28.898,1.98785e-15,-2.38542e-14,-59.0439,18.1578,65.4709,31.0042,4.64087,-8.15939,50.9418,7.12502,17.7555,80.1512,8.72331,5.17804,32.2984,23.9633,-19.7264,-13.9633,3.22191,-28.0382,-12.7918,-5.46168,22.6907,-11.5884,15.0516,-13.0186
-2.35645,17.7765,21.9936,-181.6,9.5128,186.337,19.4279,-1.27897,2.42837,2.21238,0.0882157,5.82093,-8.51966,0.36946,4.90658,-11.0738,-0.288604,-0.675835,23.9411,1.88322,-3.81318,9.39765,0.85349,-0.911926,7.95139e-16,4.13472e-14,-71.5451,-40.1625,-13.6456,91.3697,-46.3805,15.1652,-3.63966,7.12502,40.0071,-28.8636,7.95139e-16,4.13472e-14,-58.3977,18.214,65.3178,30.991,4.72987,-7.81101,51.2846,7.12502,18.0907,80.4633,9.12104,5.3497,32.0916,24.6954,-19.6817,-13.6912,1.57801,-27.7852,-11.9189,-5.83138,22.8236,-11.3181,14.5738,-13.5291
-2.37348,17.7592,21.8077,-181.748,10.0163,186.473,19.646,-1.20652,2.46431,2.20589,0.212951,5.84691,-8.65517,0.431591,4.88818,-11.1144,-0.197195,-0.646003,23.9862,2.01018,-3.81521,9.42392,0.914298,-0.903337,-8.54774e-15,-5.64548e-14,-71.0903,-40.0097,-13.4055,93.8903,-45.1522,15.6474,-3.83142,7.12502,40.4607,-28.9168,-8.54774e-15,-5.64548e-14,-58.5686,18.1318,65.4337,31.2363,4.94122,-7.70395,51.5235,7.12502,18.1937,80.6927,9.44519,5.57472,32.0533,25.6442,-19.7538,-13.1606,1.49629,-27.4275,-10.4391,-6.2744,23.1764,-10.8602,13.412,-12.5296
-2.39634,17.7463,21.6204,-181.919,10.4604,186.414,19.7856,-1.19433,2.49927,2.18538,0.225766,5.74908,-8.75407,0.430315,4.76124,-11.1359,-0.141627,-0.629037,24.1535,2.11013,-3.81308,9.48909,0.965982,-0.893743,1.37161e-14,5.32743e-14,-70.5422,-39.8771,-13.3758,96.4966,-43.7253,15.2847,-3.84946,7.12502,40.1196,-29.0393,1.37161e-14,5.32743e-14,-58.7543,18.1775,65.3196,31.3316,4.878,-7.33341,51.4257,7.12502,18.5501,80.5612,9.61145,5.81744,31.7838,26.7753,-19.8781,-12.512,2.17355,-27.1136,-9.13127,-6.93345,23.7672,-9.88009,12.2154,-14.1339
-2.42231,17.7243,21.4278,-181.976,10.7528,186.454,19.627,-1.25824,2.75274,2.19013,0.167194,5.65304,-8.65805,0.386688,4.52011,-11.0259,-0.0553998,-0.571101,24.125,2.22387,-3.83517,9.46094,1.02455,-0.89841,-1.78906e-14,-9.54166e-15,-69.9523,-39.6962,-13.483,99.1219,-42.1745,14.6363,-3.52574,7.12502,39.5092,-28.898,-1.78906e-14,-9.54166e-15,-58.6639,18.2607,65.1891,31.0498,4.81002,-7.383,51.1029,7.12502,18.5024,80.2429,9.67437,5.55075,31.5396,28.0338,-19.3304,-12.3952,-1.20959,-27.0104,-8.18845,-7.44261,24.5712,-9.3798,11.0427,-12.911
-2.44998,17.7064,21.232,-182.045,11.0236,186.261,19.2867,-1.31237,2.73808,2.26145,0.0385606,5.52952,-8.38457,0.314835,4.41416,-10.9115,0.0962783,-0.425681,24.0057,2.4301,-3.98351,9.40455,1.11876,-0.951365,7.95139e-16,8.74653e-15,-69.069,-39.6019,-13.8219,101.75,-40.4309,14.7608,-3.22372,7.12502,39.6264,-28.5614,7.95139e-16,8.74653e-15,-58.502,18.5763,65.0521,30.9197,4.69805,-7.47848,51.0799,7.12502,18.4106,80.2286,9.6388,5.29725,31.0235,29.4817,-18.5046,-12.3172,-5.92048,-26.9363,-7.31143,-8.16847,25.451,-7.06648,9.44198,-17.4008
-2.48126,17.6995,21.0322,-182.308,11.3755,186.186,19.1587,-1.40347,2.87943,2.39365,-0.0765098,5.42188,-8.16351,0.252317,4.2361,-10.9786,0.222897,-0.124101,24.1169,2.63067,-4.25728,9.46751,1.21058,-1.07402,2.84262e-14,3.97569e-14,-68.018,-39.6461,-14.3715,104.392,-38.2126,14.8024,-2.75349,7.12502,39.6657,-28.0795,2.84262e-14,3.97569e-14,-58.4094,18.8115,65.0668,30.9699,4.57428,-7.45717,51.0832,7.12502,18.4311,80.2301,9.66016,5.18629,30.6295,31.1303,-17.71,-11.9572,-8.57556,-26.6898,-6.85174,-8.62142,26.4003,-4.86492,7.85196,-17.8552
-2.51094,17.6973,20.8364,-182.638,11.6847,186.088,19.6366,-1.40242,2.84414,2.19068,-0.0501141,5.42706,-8.64885,0.263815,4.27723,-10.7394,0.221391,-0.0597704,24.3668,2.73702,-4.4764,9.51721,1.26318,-1.14767,1.94809e-14,-6.44062e-14,-67.1758,-39.2121,-14.513,107.052,-35.9997,14.9663,-2.23835,7.12502,39.8199,-27.5185,1.94809e-14,-6.44062e-14,-58.74,18.4861,65.4853,31.2887,4.91026,-7.70883,50.9791,7.12502,18.189,80.1487,9.552,5.13591,30.2377,33.0766,-16.9205,-11.4688,-9.59178,-26.3848,-7.07805,-8.88306,27.306,-3.21274,6.73106,-16.1971
-2.53866,17.6918,20.6491,-183.018,11.8762,185.916,19.7047,-1.42828,2.8621,2.34455,-0.0953494,5.2812,-8.51383,0.239243,4.11445,-10.6014,0.218946,0.107594,24.2486,2.71052,-4.58623,9.45121,1.25574,-1.21769,6.55989e-15,-1.82882e-14,-66.322,-39.5396,-14.8396,109.602,-33.4618,15.9414,-1.30663,7.12502,40.737,-26.306,6.55989e-15,-1.82882e-14,-58.2145,18.2529,65.9347,31.3893,5.0425,-7.78023,51.3948,7.12502,18.1203,80.5708,9.23977,5.01824,29.7996,35.3602,-15.8901,-10.9369,-9.81918,-25.9955,-7.29686,-9.28043,28.1371,-2.11856,5.52566,-15.396
-2.56367,17.6929,20.4591,-183.458,12.1465,185.6,19.7749,-1.37788,2.69603,2.56299,-0.0917076,5.07169,-8.31033,0.241703,3.97244,-10.8562,0.291357,0.461685,24.3256,2.73782,-4.62433,9.5308,1.28476,-1.28845,-1.63003e-14,9.54166e-15,-65.432,-39.9696,-15.3487,112.179,-30.6154,16.6895,-0.521185,7.12502,41.4396,-25.2962,-1.63003e-14,9.54166e-15,-57.4317,18.3747,66.0265,31.126,4.50978,-7.63437,51.7689,7.12502,18.2606,80.9318,8.67229,4.94258,29.1847,38.0118,-14.5577,-10.4393,-9.07706,-25.4565,-7.42177,-9.87196,28.8718,-1.49228,4.21548,-13.6742
-2.58756,17.6983,20.2693,-183.91,12.4228,185.079,20.0578,-1.63485,1.88539,2.38302,-0.571653,5.2751,-8.62337,0.0407039,4.80916,-10.0348,0.638563,-0.435527,24.2605,3.4574,-4.57986,9.3643,1.58298,-1.04036,8.82604e-14,3.89618e-14,-62.4572,-38.8301,-17.1937,114.622,-27.7912,16.353,0.140069,7.12502,41.1237,-24.7369,8.82604e-14,3.89618e-14,-58.2266,19.6864,65.7625,30.9649,3.91317,-7.74777,52.2136,7.12502,18.1515,81.3866,7.82758,4.80428,28.274,40.9419,-12.606,-9.86167,-8.46977,-24.9223,-7.26088,-10.7483,29.6041,-0.958945,3.09387,-10.4333
-2.60713,17.7,20.0802,-184.337,12.6447,184.52,20.1451,-1.16681,1.7327,2.59183,-0.0699262,4.76647,-8.47323,0.262911,4.1944,-10.7936,0.244332,0.554723,24.6146,2.70783,-4.63596,9.62105,1.2893,-1.31157,-1.74931e-14,1.66979e-14,-62.9073,-39.2383,-17.2872,117.398,-25.1209,15.4732,0.524616,7.12502,40.2968,-24.6112,-1.74931e-14,1.66979e-14,-56.3183,18.4231,66.4392,30.5513,3.83669,-8.14245,52.342,7.12502,17.7718,81.5499,6.74896,4.51987,27.2928,44.0136,-10.052,-9.40433,-7.58256,-24.3348,-7.04135,-11.6553,30.3478,-0.844639,3.02109,-8.17035
-2.62764,17.6926,19.9046,-184.783,12.7691,184.174,20.3746,-1.25573,1.37127,2.62944,-0.26989,4.67673,-8.54041,0.176175,4.3636,-10.3694,0.343257,0.349485,24.3726,2.81204,-4.4209,9.45244,1.3496,-1.19144,3.77691e-15,-9.46215e-14,-60.8387,-38.701,-19.1211,119.767,-21.9383,15.0963,1.24722,7.12502,39.9422,-23.9962,3.77691e-15,-9.46215e-14,-55.9004,18.5412,66.6777,30.8274,4.14035,-8.46901,52.5029,7.12502,17.4575,81.739,5.54418,4.18835,26.6028,47.1087,-7.0517,-9.30592,-3.42164,-23.7117,-6.86284,-12.3139,31.1327,-1.15008,3.5802,-8.88613
-2.64791,17.6886,19.7232,-185.27,12.9014,183.776,20.6013,-1.71544,0.486803,2.40866,-1.0303,4.99339,-8.8293,-0.148487,5.45287,-8.92313,0.838505,-0.795524,23.9421,3.72708,-4.3041,9.03913,1.74212,-0.864109,-3.91606e-14,5.96354e-14,-56.901,-36.8299,-22.0242,121.848,-18.746,14.8817,2.22745,7.12502,39.7403,-23.0764,-3.91606e-14,5.96354e-14,-57.2021,19.7503,66.6544,31.6586,4.43405,-8.46779,52.6032,7.12502,17.4587,81.8392,4.24242,3.7121,25.7645,50.0961,-3.69601,-9.33482,1.76348,-22.9783,-6.31513,-13.0952,31.9093,-1.36845,3.35521,-8.85527
-2.66823,17.6867,19.5373,-185.597,13.0857,183.429,20.6476,-1.86371,-0.0239972,2.2349,-1.34538,5.0754,-9.00147,-0.282234,5.9391,-8.05222,1.04858,-1.16258,23.7553,4.10675,-4.31741,8.81546,1.92362,-0.775058,9.93923e-16,-2.22639e-14,-54.3825,-35.2127,-24.1903,124.003,-15.726,14.8105,2.84923,7.12502,39.6732,-22.4746,9.93923e-16,-2.22639e-14,-57.5526,19.8814,67.0243,32.0477,4.37426,-8.4244,52.3768,7.12502,17.5004,81.6091,2.67792,3.24481,24.9586,52.9623,0.345437,-9.52122,6.40495,-22.3944,-5.3377,-13.9212,32.6327,-1.52244,2.28631,-11.1008
-2.68778,17.6995,19.3566,-185.819,13.4352,183.044,20.6934,-1.77223,-0.434765,2.1167,-1.34493,5.01924,-9.14711,-0.273909,6.12402,-7.72,1.05418,-1.20075,23.6576,4.117,-4.32402,8.71962,1.93685,-0.773562,3.18055e-14,3.18055e-15,-52.4962,-33.7447,-26.1089,126.01,-12.4497,14.4399,3.65382,7.12502,39.3242,-21.7726,3.18055e-14,3.18055e-15,-57.1033,19.6681,67.4658,32.0272,3.89698,-8.5794,51.9094,7.12502,17.3513,81.1549,0.90595,2.89362,24.1276,55.6833,5.76521,-9.70444,13.7252,-21.9017,-4.08838,-14.7621,33.2273,-1.88521,1.29472,-12.9055
-2.70532,17.709,19.1797,-186.084,13.7414,182.317,20.6285,-1.46285,-0.862528,2.15501,-1.11613,4.62606,-9.09086,-0.175489,5.86553,-8.19769,0.828181,-0.747723,23.8346,3.70517,-4.2869,8.86512,1.76452,-0.874593,-3.94588e-14,5.00937e-14,-51.3491,-32.5787,-27.9518,128.07,-8.96269,13.8542,4.35383,7.12502,38.7721,-21.2311,-3.94588e-14,5.00937e-14,-55.8814,18.7783,68.0797,32.2408,3.56728,-8.62821,51.9437,7.12502,17.3043,81.1933,-0.859279,2.51876,22.9552,58.3248,7.89693,-9.31062,15.4323,-21.3701,-2.93266,-15.8898,33.649,-2.23119,0.857359,-12.4675
-2.72186,17.7084,19.007,-186.419,13.9906,181.516,20.4753,-0.845932,-0.828318,2.56444,-0.411983,3.77629,-8.63494,0.119639,4.68666,-9.96587,0.361158,0.745562,24.3645,2.69412,-4.19328,9.36816,1.36212,-1.19575,7.45443e-15,2.06736e-14,-51.2018,-32.5252,-29.7787,130.093,-5.26537,12.7129,4.55511,7.12502,37.6946,-21.3266,7.45443e-15,2.06736e-14,-53.2679,16.5004,69.0654,32.6593,3.67003,-8.44314,52.0234,7.12502,17.4824,81.2573,-2.50445,2.18727,21.8145,60.8938,8.85818,-9.77056,16.4624,-20.6589,-2.01305,-17.0241,33.8732,-2.67585,0.808037,-13.716
-2.7334,17.7158,18.8383,-186.748,14.2659,180.77,20.4971,-0.696515,-1.37969,2.64162,-0.386854,3.45906,-8.55949,0.134704,4.64725,-10.2751,0.474098,0.958864,24.3843,2.75196,-4.07216,9.4356,1.4055,-1.18392,1.39149e-15,-5.725e-14,-49.1403,-30.4445,-32.7601,131.792,-1.37113,11.5405,4.44256,7.12502,36.5859,-21.7278,1.39149e-15,-5.725e-14,-52.4215,15.7696,69.5959,33.377,3.99284,-8.05562,52.2746,7.12502,17.8553,81.4749,-4.11622,1.84952,20.8455,63.3421,9.48538,-10.8979,14.6622,-19.8458,-1.19909,-18.0486,33.9108,-3.20922,0.593054,-15.1775
-2.74377,17.7248,18.6807,-187.055,14.322,180.064,20.6991,-0.562398,-1.915,2.58216,-0.379358,3.16807,-8.73105,0.146056,4.64116,-10.3773,0.468979,1.11207,24.4009,2.68321,-3.9949,9.45884,1.39026,-1.19112,5.22804e-14,-4.13472e-14,-47.5666,-27.9038,-35.4444,133.339,2.66602,10.4374,4.67434,7.12502,35.5411,-21.7536,5.22804e-14,-4.13472e-14,-51.6633,15.0511,70.0143,33.9796,4.12381,-8.04018,51.8995,7.12502,17.8702,81.0985,-5.72689,1.29687,19.9921,65.6584,9.86171,-12.5518,12.7847,-19.0737,-0.641551,-18.9951,33.8214,-3.68399,0.248776,-14.1524
-2.75333,17.7285,18.5239,-187.462,14.3647,179.159,20.9909,-0.430288,-2.6492,2.46128,-0.428941,2.87082,-9.01191,0.140029,4.76256,-10.3651,0.465968,1.17295,24.4176,2.66262,-3.97577,9.46198,1.38886,-1.19726,-3.3197e-14,-6.36111e-15,-46.0657,-24.8735,-38.1814,134.629,6.84969,9.43508,4.85904,7.12502,34.5903,-21.7917,-3.3197e-14,-6.36111e-15,-51.1395,14.3339,70.465,34.7454,4.30706,-7.99229,51.6614,7.12502,17.9163,80.8562,-7.21634,0.757989,18.9571,67.8088,8.77531,-14.0617,11.6543,-18.1831,-0.169228,-20.1471,33.6408,-4.24876,0.139473,-14.3121
-2.75617,17.7335,18.3742,-187.86,14.3987,178.474,21.2994,-0.369482,-3.26038,2.45895,-0.523598,2.64246,-9.16595,0.11474,4.89817,-10.6885,0.575834,1.29375,24.5252,2.79411,-4.01418,9.56772,1.44657,-1.2155,-1.98785e-16,3.97569e-14,-44.3688,-21.6454,-41.2397,135.535,11.4245,8.33826,4.92177,7.12502,33.5486,-21.9611,-1.98785e-16,3.97569e-14,-50.3877,13.6448,70.963,35.628,4.6846,-7.77093,51.7694,7.12502,18.1292,80.9446,-8.64322,0.210085,18.2305,69.6987,6.80582,-15.3572,12.6144,-17.2765,0.323651,-20.991,33.4615,-4.76946,-0.166876,-13.0266
-2.76071,17.7386,18.2261,-188.234,14.3531,177.841,21.4955,-0.309423,-3.76081,2.4441,-0.597062,2.40809,-9.27599,0.094419,4.95425,-10.6747,0.613773,1.30747,24.4693,2.78619,-3.84073,9.54244,1.45935,-1.15917,3.58806e-14,-3.4191e-14,-43.3014,-18.0601,-44.0092,136.256,15.8931,6.97105,4.84891,7.12502,32.2481,-22.307,3.58806e-14,-3.4191e-14,-49.5297,12.787,71.5067,36.3703,5.1587,-7.73636,52.1485,7.12502,18.1625,81.3205,-10.0429,-0.537964,17.5233,71.2858,5.47982,-16.3025,14.1179,-16.4362,0.780307,-21.8133,33.3406,-5.25442,-0.451425,-12.3872
-2.76573,17.7468,18.0771,-188.532,14.189,177.661,21.6477,-0.370422,-3.75311,2.42528,-0.692655,2.28651,-9.37016,0.0493426,4.84658,-10.2948,0.586464,1.13303,24.1638,2.69894,-3.61283,9.35454,1.43029,-1.06296,3.47873e-15,-3.97569e-15,-42.5241,-14.3128,-46.5556,136.467,20.0231,5.23751,4.88651,7.12502,30.5965,-22.5911,3.47873e-15,-3.97569e-15,-48.6654,12.1375,71.8864,36.822,5.44786,-8.0036,51.7723,7.12502,17.9054,80.968,-11.3126,-1.34056,17.3546,72.4999,4.09209,-16.9388,14.4327,-15.6085,1.15267,-22.1757,33.2915,-5.6294,-0.757649,-12.011
-2.76911,17.7568,17.9309,-188.689,13.774,177.695,21.6755,-0.577783,-3.4392,2.49126,-0.896021,2.14568,-9.29725,-0.0613546,4.56586,-10.3373,0.578997,1.18969,23.9999,2.61313,-3.50261,9.30155,1.3975,-1.04516,-3.57812e-15,-3.33958e-14,-41.7737,-10.864,-49.2129,136.403,23.344,3.85784,4.64663,7.12502,29.28,-23.0686,-3.57812e-15,-3.33958e-14,-47.5674,11.6783,72.0425,37.2632,5.63006,-8.20643,51.7948,7.12502,17.7102,81.0083,-12.5429,-2.23359,17.4658,73.4198,2.39542,-17.1987,14.5528,-14.9574,1.22079,-22.329,33.2838,-6.08409,-1.0893,-11.0764
-2.77339,17.7649,17.7869,-188.8,13.3105,177.569,21.9508,-0.690107,-3.5151,2.3652,-1.07473,2.15163,-9.56644,-0.13511,4.68008,-10.5206,0.50941,1.07709,24.1313,2.51782,-3.39933,9.3773,1.35137,-1.00005,2.0276e-14,2.62396e-14,-41.2981,-7.37279,-51.4088,135.998,26.0194,2.59235,4.38823,7.12502,28.071,-23.5315,2.0276e-14,2.62396e-14,-46.8159,11.3135,72.4188,37.9865,5.95289,-8.79629,52.1842,7.12502,17.1425,81.448,-13.776,-3.11321,17.3988,74.1041,0.916861,-17.1641,14.7483,-14.4329,1.06501,-22.6935,33.379,-6.5659,-1.20715,-11.4742
-2.77816,17.7805,17.6463,-188.829,13.0489,177.667,22.1824,-0.775249,-3.33779,2.1897,-1.15838,2.1873,-9.88327,-0.173152,4.65508,-10.3583,0.450063,0.998786,24.0871,2.43227,-3.31299,9.3268,1.31857,-0.967027,3.89618e-14,-8.74653e-15,-41.1115,-3.95453,-53.46,135.272,28.2317,1.55107,4.18039,7.12502,27.0752,-23.8983,3.89618e-14,-8.74653e-15,-46.1691,10.8764,72.716,38.797,6.25002,-8.97872,52.6867,7.12502,16.9669,81.9657,-14.9958,-3.78777,17.6586,74.4888,-0.103424,-16.9349,15.0031,-13.9656,0.97685,-22.7962,33.5214,-6.83528,-1.18557,-13.2186
-2.77873,17.7927,17.5099,-188.795,12.8901,178.047,22.4122,-0.82008,-2.98792,2.03431,-1.12468,2.3442,-10.1911,-0.158601,4.63066,-9.8695,0.406347,0.835639,23.7488,2.36572,-3.23171,9.11208,1.28923,-0.921149,-3.51849e-14,4.13472e-14,-41.0315,-0.695026,-55.3344,134.211,29.8214,0.177533,3.76207,7.12502,25.7604,-24.5141,-3.51849e-14,4.13472e-14,-45.3411,10.4247,73.1167,39.3354,6.59386,-9.4348,52.7991,7.12502,16.5279,82.1152,-16.21,-4.28144,18.3392,74.6214,-0.914455,-16.6688,14.6113,-13.546,0.824189,-22.5502,33.6885,-7.18038,-1.08848,-13.6258
-2.77785,17.7934,17.3684,-188.887,12.6768,178.141,22.6403,-0.857215,-3.00083,1.93764,-1.16731,2.47244,-10.4167,-0.166479,4.80585,-9.47285,0.391936,0.53721,23.3781,2.34076,-3.1017,8.9046,1.2675,-0.831552,2.01766e-14,-1.51076e-14,-40.9321,2.51728,-57.2198,132.868,31.3428,-1.18001,3.38031,7.12502,24.4597,-25.078,2.01766e-14,-1.51076e-14,-44.6168,10.2915,73.4628,40.0119,6.69943,-10.0527,52.5748,7.12502,15.9328,81.9394,-17.2247,-4.67896,18.7055,74.5632,-2.25854,-16.2362,14.479,-12.9998,0.607808,-22.6438,33.8284,-7.65573,-0.818539,-13.7557
-2.77756,17.7947,17.2242,-188.974,12.2992,177.89,22.4274,-0.873706,-3.07417,2.1053,-1.21059,2.30607,-10.1093,-0.195505,4.66154,-9.68358,0.277706,0.650819,23.1232,2.07757,-3.01608,8.84995,1.14371,-0.850598,-3.93594e-14,7.95139e-15,-40.8359,4.91237,-59.3146,131.244,33.0209,-2.71756,2.91378,7.12502,22.985,-25.7358,-3.93594e-14,7.95139e-15,-43.4626,9.59519,73.8762,40.9894,7.25466,-10.9695,52.6956,7.12502,15.0499,82.1285,-18.2362,-5.17999,18.6318,74.3008,-3.59318,-15.521,14.3625,-12.5316,0.296397,-23.1587,34.0164,-8.08272,-0.540626,-13.2142
-2.77331,17.7974,17.0856,-189.06,12.0345,177.643,22.3332,-0.850833,-3.28464,2.22587,-1.23303,2.19569,-9.91752,-0.20388,4.65916,-9.9679,0.186294,0.813533,23.0552,1.87262,-2.97477,8.87559,1.05123,-0.886059,2.74323e-14,2.22639e-14,-40.6374,7.21194,-61.1891,129.296,34.3651,-4.21013,2.18283,7.12502,21.5522,-26.638,2.74323e-14,2.22639e-14,-42.3908,9.04942,74.1864,41.9967,7.83277,-11.4703,53.2252,7.12502,14.5674,82.6936,-19.2015,-5.5745,18.5844,73.8605,-4.57155,-14.7197,15.3685,-12.1131,0.0168101,-23.6336,34.2006,-8.45599,-0.239412,-13.7541
-2.76324,17.7953,16.9522,-189.051,11.906,177.572,22.116,-0.853331,-3.46394,2.32678,-1.26318,2.23204,-9.67792,-0.216292,4.80138,-10.1159,0.193625,0.805911,22.9022,1.84804,-2.96997,8.84998,1.02803,-0.886428,-1.2921e-15,1.59028e-14,-40.2914,9.39193,-62.8271,127.089,35.4595,-5.32341,1.74001,7.12502,20.4827,-27.1996,-1.2921e-15,1.59028e-14,-41.1406,8.8416,74.478,42.6615,8.27917,-11.4436,54.3324,7.12502,14.5931,83.7991,-20.2137,-5.59015,18.8729,73.2677,-5.19773,-13.9557,16.093,-11.7476,-0.00614374,-23.8444,34.3305,-8.91726,-0.109826,-14.8562
-2.75138,17.7881,16.819,-188.949,11.7777,177.567,21.8382,-0.852962,-3.62655,2.33182,-1.28552,2.35419,-9.51232,-0.22502,5.02829,-10.1273,0.208141,0.703418,22.7453,1.88898,-3.06282,8.79962,1.02433,-0.896649,4.07509e-15,-1.35174e-14,-40.1901,11.3884,-64.2795,124.757,36.4806,-6.33291,1.46712,7.12502,19.5123,-27.5738,4.07509e-15,-1.35174e-14,-40.0413,8.64716,74.8553,43.2253,8.50748,-11.5492,55.1676,7.12502,14.4914,84.6416,-21.2921,-5.60856,19.2704,72.4822,-5.80935,-13.3113,15.7536,-11.4242,-0.00869733,-23.9597,34.404,-9.36176,-0.0656427,-15.5283
-2.74401,17.7879,16.6771,-188.981,11.5078,177.239,21.7226,-0.764166,-3.93755,2.22298,-1.26621,2.28953,-9.56743,-0.209093,5.13064,-9.91673,0.0715053,0.68568,22.5917,1.6852,-3.03155,8.70271,0.933324,-0.904857,1.46107e-14,-5.56597e-15,-40.5518,12.8329,-65.7006,122.435,37.4809,-6.76212,1.21972,7.12502,19.0996,-27.8625,1.46107e-14,-5.56597e-15,-39.2671,8.1679,75.1981,43.7748,8.46155,-12.2269,54.0051,7.12502,13.8384,83.5247,-22.2175,-5.79391,19.1744,71.4862,-6.58492,-12.3806,13.2257,-11.0526,-0.221084,-24.4897,34.4872,-9.86113,0.105043,-13.9665
-2.73557,17.7853,16.5371,-189.046,11.1854,176.685,21.7828,-0.66525,-4.50385,2.02509,-1.31582,2.167,-9.80473,-0.210985,5.34552,-9.72061,-0.0312682,0.610164,22.6453,1.55364,-2.928,8.68041,0.885379,-0.870269,3.40916e-14,3.10104e-14,-40.8695,14.1703,-67.1039,119.898,38.218,-6.8334,0.985689,7.12502,19.031,-28.1033,3.40916e-14,3.10104e-14,-38.8219,7.41849,75.6175,45.0813,9.52883,-12.9768,54.3306,7.12502,13.1156,83.8982,-23.0787,-5.94207,18.7798,70.3358,-7.67392,-11.3627,10.7511,-10.7208,-0.496324,-25.2713,34.5747,-10.512,0.309482,-14.375
-2.72647,17.7774,16.4046,-188.978,10.8963,176.586,21.9048,-0.658293,-4.68272,1.82362,-1.37036,2.2212,-10.0852,-0.220634,5.53774,-9.59235,-0.0743754,0.504569,22.697,1.52175,-2.88436,8.67283,0.873621,-0.840425,6.16232e-15,7.95139e-15,-40.9843,15.3232,-68.3211,117.205,38.8492,-6.88987,0.800663,7.12502,18.9767,-28.2936,6.16232e-15,7.95139e-15,-38.3501,6.67978,76.129,46.2465,10.9684,-14.1914,54.9595,7.12502,11.9445,84.5988,-23.8638,-5.95541,18.9287,68.9791,-8.62629,-10.652,8.96173,-10.3821,-0.750192,-25.5109,34.6849,-11.0482,0.339482,-13.633
-2.71538,17.7643,16.2738,-188.855,10.5951,176.566,21.7814,-0.728739,-4.59918,1.75072,-1.45814,2.147,-10.0932,-0.270658,5.43011,-9.60918,-0.147129,0.488506,22.7204,1.3757,-2.68789,8.67941,0.822453,-0.786477,3.27001e-14,-3.18055e-15,-40.9662,15.9482,-69.5854,114.394,39.5397,-7.14013,0.816383,7.12502,18.736,-28.3013,3.27001e-14,-3.18055e-15,-37.5728,5.99531,76.4242,47.1363,12.1009,-15.462,54.9943,7.12502,10.7191,84.7008,-24.5831,-5.88558,19.1603,67.4684,-9.26306,-10.1496,7.79795,-10.083,-0.846924,-25.6367,34.8118,-11.5883,0.3779,-13.1794
-2.70188,17.7502,16.1385,-188.849,10.2811,176.463,21.7208,-0.698977,-4.66192,1.73615,-1.44129,2.09254,-10.0784,-0.263032,5.39875,-9.95901,-0.29129,0.475438,22.9446,1.14423,-2.52194,8.81594,0.725205,-0.751848,-1.19271e-14,-2.3059e-14,-40.92,16.1611,-70.6649,111.398,40.015,-7.65238,0.730083,7.12502,18.2433,-28.4344,-1.19271e-14,-2.3059e-14,-36.4772,4.97239,76.8722,47.6602,12.8351,-16.3693,52.6095,7.12502,9.84387,82.3594,-25.1235,-5.78505,19.2764,65.7748,-9.53991,-9.83648,7.05998,-9.67474,-0.941162,-25.8629,34.9553,-12.4137,0.392155,-14.4239
-2.68886,17.7437,16.0045,-188.879,9.91599,176.215,21.591,-0.656118,-4.88269,1.84914,-1.43267,1.99798,-9.87783,-0.258396,5.40913,-10.5456,-0.364371,0.402854,23.1724,0.989324,-2.27916,9.00011,0.659316,-0.674071,-1.97791e-14,-3.97569e-15,-40.4745,16.0522,-71.6218,108.22,40.3058,-8.20089,0.703537,7.12502,17.7155,-28.5095,-1.97791e-14,-3.97569e-15,-35.0586,3.86723,77.2577,48.2468,13.0218,-15.4831,52.3461,7.12502,10.6988,82.0536,-25.6451,-5.78374,19.1689,63.9293,-9.78135,-9.50335,6.1708,-9.20659,-1.11728,-26.2519,35.0027,-13.076,0.127147,-14.0841
-2.67412,17.7419,15.8682,-188.811,9.56159,176.155,21.2737,-0.705527,-4.89556,1.99469,-1.47785,1.96511,-9.53607,-0.292547,5.37587,-10.8168,-0.427988,0.227568,23.109,0.846993,-2.03107,9.02553,0.591045,-0.576466,3.1408e-14,-3.97569e-14,-39.9078,15.922,-72.4465,104.968,40.5013,-8.83393,0.861072,7.12502,17.1063,-28.4058,3.1408e-14,-3.97569e-14,-33.8975,3.06938,77.509,49.351,12.6817,-14.6784,54.653,7.12502,11.4749,84.3189,-26.0832,-5.78916,19.228,61.9306,-10.3872,-9.23051,6.58894,-8.76614,-1.34378,-26.4462,34.9898,-12.9375,0.252746,-11.8398
-2.65798,17.7399,15.7373,-188.71,9.22102,176.274,21.4785,-0.718799,-4.90412,1.74171,-1.51283,2.12767,-9.92261,-0.292273,5.58938,-10.7005,-0.562085,0.0298977,23.1967,0.726749,-2.04767,9.03262,0.525081,-0.560602,-2.76311e-14,-2.46493e-14,-40.0137,15.9514,-73.1059,101.882,40.8868,-9.5599,1.07537,7.12502,16.4074,-28.2507,-2.76311e-14,-2.46493e-14,-33.6408,2.30591,77.9451,50.6426,12.7123,-14.6997,54.1342,7.12502,11.4544,83.8013,-26.4708,-5.64406,19.4904,59.779,-10.6525,-9.4463,6.02461,-8.29595,-1.54673,-26.4201,34.8709,-13.2865,0.191985,-12.043
-2.64138,17.7243,15.6026,-188.66,8.7157,175.997,21.5373,-0.721717,-5.2369,1.53619,-1.62136,2.14683,-10.1618,-0.322329,5.8454,-10.4826,-0.65468,-0.272555,23.204,0.632969,-1.8686,8.99279,0.482679,-0.457452,1.3418e-14,-1.74931e-14,-39.7959,15.7919,-73.7115,98.4563,41.362,-10.3669,0.889329,7.12502,15.6303,-28.4992,1.3418e-14,-1.74931e-14,-33.2893,1.20032,78.4755,51.7764,13.5886,-15.8402,52.549,7.12502,10.3543,82.274,-26.8005,-5.78449,19.2346,57.5499,-10.7226,-9.65177,5.0366,-7.82866,-1.70038,-26.8322,34.755,-13.5944,0.036349,-12.5552
-2.62244,17.7219,15.4641,-188.647,8.31613,175.681,21.3014,-0.676748,-5.51728,1.59315,-1.62596,2.0656,-9.96159,-0.324331,5.90612,-10.6886,-0.771976,-0.335155,23.228,0.44691,-1.76247,9.03767,0.395857,-0.431425,3.60794e-14,1.35174e-14,-39.0479,15.3644,-74.2378,94.7664,41.8259,-11.1694,0.661953,7.12502,14.8573,-28.7853,3.60794e-14,1.35174e-14,-32.4675,-0.0885023,78.8721,52.8564,14.1743,-15.185,54.722,7.12502,10.9864,84.4145,-26.9154,-5.80101,18.918,55.1272,-10.9146,-9.76123,4.47595,-7.24886,-1.83368,-27.2773,34.5228,-13.9502,0.0318792,-13.4589
-2.60182,17.7225,15.3368,-188.523,7.97168,175.656,21.5279,-0.577451,-5.55736,1.37847,-1.53179,2.11671,-10.3393,-0.261697,5.97711,-10.7954,-0.962249,-0.397687,23.3067,0.209805,-1.7999,9.08313,0.277248,-0.459216,-2.16675e-14,2.38542e-15,-38.8008,14.9014,-74.6192,91.2937,42.3181,-11.5241,0.715775,7.12502,14.5156,-28.7564,-2.16675e-14,2.38542e-15,-31.7225,-1.45768,79.3146,53.6537,14.3804,-15.1017,53.0356,7.12502,11.0667,82.7238,-27.0517,-5.56878,18.9258,52.5676,-10.97,-10.2058,4.76023,-6.76795,-2.00778,-27.3791,34.2267,-14.3118,0.0138345,-14.0958
-2.58629,17.728,15.2054,-188.354,7.5462,175.643,21.3097,-0.595718,-5.40523,1.49986,-1.50456,2.04486,-10.0923,-0.267798,5.78692,-11.3215,-1.10196,-0.340366,23.2093,-0.0682854,-1.70792,9.14532,0.140575,-0.471883,4.37326e-14,6.36111e-15,-37.9472,14.1246,-75.0207,87.7065,42.6927,-11.6291,0.944674,7.12502,14.4144,-28.5348,4.37326e-14,6.36111e-15,-30.4341,-2.92409,79.5464,54.3822,14.4728,-14.4742,53.7341,7.12502,11.6719,83.389,-27.1076,-5.43783,18.8675,49.8907,-10.8135,-10.785,4.58599,-6.22449,-2.14443,-27.4714,33.8362,-14.6526,-0.176794,-14.2405
-2.56592,17.7353,15.0715,-188.271,7.26253,175.614,21.2287,-0.657731,-5.56956,1.34804,-1.62419,2.18685,-10.1935,-0.311439,6.07867,-10.7541,-1.17467,-0.745054,22.9186,-0.106019,-1.63778,8.94025,0.103003,-0.380859,6.95746e-15,0,-37.4029,14.183,-75.3141,83.8812,42.6171,-11.5128,1.39027,7.12502,14.5265,-28.0811,6.95746e-15,0,-30.2639,-3.64018,79.8057,55.5329,14.0255,-13.5198,54.6566,7.12502,12.5921,84.2571,-26.9914,-5.12282,18.7812,47.1444,-10.6511,-11.2418,6.06191,-5.58685,-2.17529,-27.5376,33.4298,-14.9026,-0.327268,-14.3611
-2.5411,17.7356,14.9432,-188.048,6.90633,175.455,21.1081,-0.635967,-5.84326,1.19579,-1.66572,2.27064,-10.2826,-0.315369,6.34485,-11.005,-1.32545,-0.991858,23.1499,-0.251361,-1.6148,9.06815,0.0183533,-0.347743,-1.39149e-14,2.3059e-14,-36.7557,13.9845,-75.4376,80.1907,42.9346,-10.9718,1.55296,7.12502,15.0476,-27.8802,-1.39149e-14,2.3059e-14,-29.8898,-4.49775,80.0631,56.5805,13.7182,-13.4,53.4372,7.12502,12.7076,83.0306,-27.0658,-4.76236,18.5609,44.4272,-10.1717,-11.9483,6.80589,-5.14268,-2.05456,-27.6929,32.9571,-15.122,-0.552556,-14.8387
-2.52223,17.7368,14.8102,-187.95,6.50012,175.223,20.909,-0.675019,-6.05486,1.18939,-1.75618,2.30802,-10.1584,-0.35451,6.52692,-11.3422,-1.43288,-1.36854,23.3457,-0.347626,-1.46344,9.20226,-0.0458077,-0.24463,1.92821e-14,3.57812e-14,-35.9337,13.8071,-75.4227,76.5575,43.6825,-10.029,2.47996,7.12502,15.9557,-26.8829,1.92821e-14,3.57812e-14,-29.2662,-5.39946,80.3057,57.3647,13.5449,-13.7837,51.5195,7.12502,12.3376,81.1355,-26.9592,-4.42287,18.1775,41.7651,-9.38048,-12.7701,8.03959,-4.515,-2.07452,-27.9702,32.4473,-15.4055,-0.854895,-14.7301
-2.50269,17.7362,14.6703,-187.896,6.26327,175.052,20.7401,-0.649021,-6.15982,1.06284,-1.75242,2.33828,-10.2048,-0.348128,6.6188,-11.0044,-1.554,-1.56701,23.1826,-0.459174,-1.5355,9.08359,-0.11624,-0.245763,4.92986e-14,-1.35174e-14,-35.2242,13.6874,-75.4313,72.8109,43.9709,-8.68752,3.28741,7.12502,17.2472,-25.9672,4.92986e-14,-1.35174e-14,-29.0214,-6.3966,80.5736,58.3064,13.288,-13.9688,50.4566,7.12502,12.1592,80.0833,-26.7724,-3.94887,17.8693,39.243,-8.49,-13.7132,10.2144,-3.76584,-2.06598,-28.1742,31.9125,-15.6271,-1.04239,-14.7397
-2.47889,17.7397,14.5356,-187.883,6.04179,174.84,20.7588,-0.585965,-6.3998,0.905377,-1.73971,2.38959,-10.3868,-0.321815,6.82036,-10.5476,-1.66796,-1.7992,22.8933,-0.571977,-1.59043,8.90014,-0.188886,-0.234419,-8.34896e-15,5.24792e-14,-34.4631,13.6863,-75.4754,69.2021,43.2567,-7.74042,2.95138,7.12502,18.1586,-26.221,-8.34896e-15,5.24792e-14,-28.88,-7.26745,80.8456,59.2088,12.7974,-13.5999,50.4816,7.12502,12.5149,80.0868,-26.5357,-3.45282,17.5219,36.9083,-7.94838,-15.1264,12.3672,-2.96065,-1.93395,-28.3665,31.2749,-15.8505,-1.32088,-14.4039
-2.45983,17.7382,14.3987,-187.946,5.78601,174.768,20.6957,-0.594355,-6.47288,0.929356,-1.7492,2.4865,-10.3176,-0.322538,6.971,-10.4632,-1.74826,-2.08581,22.8288,-0.637875,-1.54773,8.86526,-0.238044,-0.177945,4.01545e-14,-1.59028e-15,-33.449,13.7813,-75.4238,65.7131,41.855,-7.03716,2.46953,7.12502,18.8351,-26.6386,4.01545e-14,-1.59028e-15,-28.5416,-7.96115,81.0585,60.0845,12.6964,-13.5472,50.4285,7.12502,12.5657,80.0306,-26.2176,-3.06354,17.317,34.8244,-7.2721,-16.5978,13.3435,-2.07137,-1.7897,-28.4301,30.6994,-16.0012,-1.59278,-13.9593
-2.43929,17.7402,14.2659,-188.044,5.4712,174.427,20.5044,-0.551771,-6.72788,1.1789,-1.71873,2.44623,-9.9278,-0.315964,7.04547,-10.8185,-1.8799,-2.22385,22.6476,-0.838397,-1.5199,8.87109,-0.358436,-0.170812,-1.51076e-14,-4.77083e-15,-32.1234,13.5273,-75.2814,62.3037,40.3819,-6.59192,2.4525,7.12502,19.2633,-26.6134,-1.51076e-14,-4.77083e-15,-27.5961,-8.79677,81.0795,60.7554,12.5897,-13.1415,50.0689,7.12502,12.9568,79.6466,-25.9088,-2.70107,16.8016,32.9898,-6.76667,-18.0362,15.4343,-1.21671,-1.73099,-28.786,30.2072,-16.1371,-1.8612,-13.9694
-2.4168,17.7301,14.138,-188.006,5.26079,174.218,20.6066,-0.483271,-6.92093,1.00646,-1.69461,2.48792,-10.1767,-0.282235,7.2106,-10.5415,-1.99517,-2.42216,22.5945,-0.963002,-1.47635,8.80426,-0.420929,-0.133204,1.0635e-14,1.11319e-14,-31.503,13.1899,-75.1354,58.9576,38.8222,-4.30778,1.18833,7.12502,21.4584,-27.6432,1.0635e-14,1.11319e-14,-27.4178,-9.59623,81.2196,61.4426,12.2694,-12.7528,50.029,7.12502,13.3315,79.5826,-25.8466,-2.29107,16.4952,31.449,-6.42598,-19.7109,17.8922,-0.655053,-1.56302,-28.9503,29.8547,-16.1679,-2.17562,-13.0236
-2.39207,17.7241,14.0061,-188.047,5.27895,174.217,20.5944,-0.392116,-6.87333,0.960736,-1.563,2.53051,-10.2449,-0.217792,7.19577,-10.3889,-2.05418,-2.41568,22.6095,-1.0236,-1.52785,8.7811,-0.44727,-0.156251,-2.18663e-14,-3.81667e-14,-30.6852,12.5283,-74.9848,55.5021,36.6906,-1.62437,-0.174817,7.12502,24.0336,-28.69,-2.18663e-14,-3.81667e-14,-27.2564,-10.4461,81.2908,62.1121,11.9608,-12.7081,49.8399,7.12502,13.3746,79.3906,-25.7071,-1.69474,16.4883,30.1917,-6.3127,-21.7447,21.0909,-0.100255,-1.20672,-28.8371,29.6341,-16.2045,-2.59568,-10.5109
-2.36988,17.7125,13.8678,-188.187,5.24174,174.031,20.4123,-0.298155,-6.95822,1.15715,-1.42504,2.54059,-9.94312,-0.163352,7.202,-10.6426,-2.17417,-2.3958,22.6632,-1.15572,-1.68673,8.84643,-0.528543,-0.229953,3.62782e-14,1.27222e-14,-29.5148,11.4949,-74.5948,52.1082,34.4908,1.37424,-1.82326,7.12502,26.906,-29.9282,3.62782e-14,1.27222e-14,-26.6848,-11.1908,81.3167,62.606,11.9467,-12.7157,49.7788,7.12502,13.3672,79.33,-25.5388,-1.36129,16.3197,29.3194,-6.51567,-23.6344,25.7177,0.519363,-0.912719,-28.9582,29.6068,-16.4683,-2.91268,-9.29468
-2.35265,17.6929,13.7285,-188.275,5.27399,174.026,20.1826,-0.202311,-6.85137,1.35225,-1.22146,2.68019,-9.63066,-0.0821847,7.22399,-10.8602,-2.40708,-2.62536,22.6369,-1.41038,-1.81086,8.88163,-0.686149,-0.263439,7.05686e-15,-1.11319e-14,-28.4801,10.2213,-73.927,48.9474,32.1517,3.90793,-2.8905,7.12502,29.3278,-30.5974,7.05686e-15,-1.11319e-14,-26.1194,-11.7728,81.4413,63.0933,11.9116,-13.2186,48.6311,7.12502,12.8825,78.2135,-25.4992,-1.28144,16.4563,28.8996,-7.513,-25.8513,29.3641,1.13227,-0.772885,-28.9479,29.6236,-16.8819,-2.94065,-9.70363
-2.33989,17.6652,13.596,-188.364,5.11257,173.841,20.4761,-0.145541,-6.78609,1.16679,-1.16552,2.68603,-10.0132,-0.0380696,7.19605,-10.7684,-2.59819,-2.57073,22.8374,-1.58009,-2.10908,8.93164,-0.778991,-0.390381,-1.31198e-14,0,-28.057,8.3674,-73.3178,45.6117,29.9177,4.46096,-2.76897,7.12502,29.8557,-30.3823,-1.31198e-14,0,-26.2153,-12.3549,81.5615,63.5918,11.8586,-13.5987,47.4403,7.12502,12.516,77.0454,-25.6494,-1.76105,16.5105,29.0595,-8.56697,-27.5206,32.6883,1.67092,-0.903315,-29.2229,29.6317,-17.0981,-2.86392,-10.0039
-2.32227,17.6364,13.4666,-188.498,4.9726,173.521,20.6982,-0.0135507,-6.94258,1.15082,-1.03879,2.69302,-10.1731,0.0396006,7.26896,-11.0161,-2.75316,-2.67827,23.1798,-1.7062,-2.19768,9.09827,-0.849983,-0.419849,-3.29983e-14,4.29375e-14,-27.4075,5.80465,-72.4424,42.1119,27.8712,3.58037,-1.90549,7.12502,29.015,-29.6667,-3.29983e-14,4.29375e-14,-26.0689,-13.0044,81.7037,64.0405,12.0241,-12.9543,48.1481,7.12502,13.1373,77.7142,-25.8856,-2.76108,16.5778,29.6749,-9.03971,-28.5734,36.8047,2.22807,-0.978854,-29.6213,29.7217,-17.3025,-2.792,-11.1149
-2.30603,17.6053,13.334,-188.568,5.11985,173.375,20.5761,0.135893,-6.82735,1.32833,-0.785821,2.70652,-9.95067,0.144323,7.13423,-11.3047,-2.8858,-2.84567,23.2404,-1.88119,-2.08999,9.17781,-0.941681,-0.379087,1.77912e-14,-9.54166e-15,-26.7989,2.8387,-71.4887,39.2679,26.4677,2.50344,-1.15853,7.12502,27.986,-29.0922,1.77912e-14,-9.54166e-15,-25.6759,-13.4632,81.6808,64.4702,12.0826,-12.9392,48.7329,7.12502,13.1518,78.2982,-26.2475,-4.07242,17.0299,30.6143,-8.7497,-29.5314,37.0313,2.74113,-0.731777,-29.8025,29.9706,-17.6691,-2.41858,-14.5548
-2.2889,17.5734,13.2021,-188.638,5.40249,173.492,20.7649,0.241331,-6.60538,1.21637,-0.586496,2.93116,-10.2165,0.250541,7.21275,-11.2973,-2.97491,-3.14443,23.4538,-1.89068,-2.14151,9.25677,-0.967015,-0.347397,-4.96962e-15,2.06736e-14,-26.9913,0.148402,-70.3599,37.2692,25.6017,1.51394,-1.10489,7.12502,27.0396,-29.1891,-4.96962e-15,2.06736e-14,-25.9449,-13.5358,81.8714,64.8271,12.1212,-13.6638,48.0576,7.12502,12.4532,77.6665,-26.502,-5.1516,17.7726,31.7254,-8.38079,-29.7907,37.3682,3.18752,-0.365526,-29.6853,30.3697,-18.0776,-2.05073,-17.3549
-2.2673,17.5418,13.0763,-188.636,5.79737,173.617,20.9867,0.361549,-6.54224,0.980285,-0.401871,3.27177,-10.6384,0.369124,7.52639,-9.94487,-3.40837,-3.96187,22.513,-2.37729,-2.33052,8.69782,-1.26719,-0.302783,-2.74323e-14,4.45278e-14,-27.369,-2.43719,-68.9487,35.5694,25.1924,0.523356,-1.18997,7.12502,26.0916,-29.4177,-2.74323e-14,4.45278e-14,-26.598,-13.3611,82.2177,65.309,12.1644,-12.9117,47.9583,7.12502,13.1783,77.5218,-26.8267,-5.88022,18.5197,32.8847,-7.37571,-29.1457,35.5499,3.3516,0.0160023,-29.5555,30.9409,-18.2448,-1.56158,-18.4046
-2.24887,17.515,12.9434,-188.713,6.07336,173.553,20.9403,0.501381,-6.22901,1.20784,-0.117641,3.25097,-10.4056,0.47804,7.22526,-10.1982,-3.67277,-3.97763,22.2608,-2.75389,-2.45035,8.66003,-1.4737,-0.384361,1.41137e-14,-4.77083e-15,-27.1712,-6.46738,-67.5737,33.642,26.342,-1.51154,-0.378611,7.12502,24.1418,-28.8795,1.41137e-14,-4.77083e-15,-26.2952,-13.6833,82.0616,65.806,12.2939,-11.8018,48.5632,7.12502,14.248,78.0544,-26.9846,-6.58148,18.9095,33.9646,-6.8127,-27.0957,35.2524,3.52516,0.285174,-29.6708,31.6813,-18.304,-1.17221,-17.8116
-2.22884,17.5007,12.8094,-188.844,6.15085,173.301,20.9785,0.573392,-6.19763,1.45318,0.00929477,3.23165,-10.1701,0.528711,7.14026,-10.9424,-3.71177,-3.83542,22.4771,-2.78261,-2.59002,8.86716,-1.50611,-0.474362,9.93923e-17,-9.54166e-15,-27.1069,-10.4016,-66.204,32.012,28.2104,-4.48714,0.659144,7.12502,21.2861,-28.1919,9.93923e-17,-9.54166e-15,-26.0358,-13.5941,81.9084,66.1854,12.2534,-11.5226,48.6649,7.12502,14.517,78.137,-27.0248,-6.88931,18.8162,34.9988,-7.54223,-26.0499,34.2162,3.67447,0.411244,-29.9905,32.4995,-18.3447,-0.895773,-18.2017
-2.21091,17.5073,12.6761,-188.881,6.30522,173.227,21.549,0.563683,-6.29608,1.00289,-0.0555184,3.51533,-10.9871,0.553694,7.57381,-10.4151,-3.56773,-4.08451,22.6979,-2.38461,-2.95454,8.84656,-1.34531,-0.50244,3.20043e-14,-6.36111e-14,-28.2792,-12.3257,-64.6213,31.4134,28.776,-6.83992,0.518718,7.12502,19.0248,-28.5708,3.20043e-14,-6.36111e-14,-27.514,-12.8456,82.2836,66.7401,11.976,-11.848,48.2343,7.12502,14.2034,77.7287,-27.0946,-6.59428,18.7,35.9668,-8.05559,-25.8746,37.1013,3.65151,0.391978,-30.1157,33.3855,-18.1392,-0.982264,-17.4429
-2.19265,17.5118,12.5404,-188.876,6.45728,173.222,21.4925,0.544758,-6.04355,1.23495,0.0268698,3.61864,-10.7054,0.57443,7.50765,-11.349,-3.53707,-3.92318,22.9327,-2.27424,-3.24897,9.09533,-1.33318,-0.636628,-1.26228e-14,1.43125e-14,-28.4583,-15.4337,-63.296,30.9829,28.7581,-8.61015,-0.0677664,7.12502,17.3217,-29.3159,-1.26228e-14,1.43125e-14,-27.5058,-12.4071,82.1822,66.9259,11.731,-11.7696,46.63,7.12502,14.2791,76.1191,-27.1444,-6.12125,18.5718,36.8765,-8.90989,-26.3608,39.2913,3.55593,0.330495,-30.1701,34.4058,-17.9844,-1.09547,-16.0051
-2.16714,17.5022,12.4092,-188.897,6.6784,173.467,21.5845,0.517107,-5.65822,1.44174,0.13878,3.8126,-10.5404,0.615591,7.46316,-11.9638,-3.61113,-3.82138,23.0056,-2.3103,-3.57114,9.23082,-1.39194,-0.780571,-7.7526e-15,-4.13472e-14,-28.6878,-18.4195,-61.9698,30.5532,28.5772,-10.719,0.432253,7.12502,15.2912,-28.9825,-7.7526e-15,-4.13472e-14,-27.6384,-11.7276,82.1368,67.1925,11.5465,-9.11017,51.8628,7.12502,16.8404,81.1526,-27.1355,-5.69952,18.7731,37.6777,-9.61523,-26.4812,39.9462,3.40322,0.297046,-29.8971,35.6477,-17.8706,-1.09372,-15.3098
-2.13619,17.4951,12.2779,-188.859,6.96932,173.784,21.5744,0.445982,-5.37138,1.62666,0.184732,4.10244,-10.3335,0.633427,7.60386,-12.4127,-3.56781,-3.68078,22.9201,-2.1767,-4.01764,9.27861,-1.3783,-0.949731,-8.34896e-15,3.65764e-14,-28.8451,-20.8594,-60.7737,30.3159,28.1576,-12.8667,1.08018,7.12502,13.2217,-28.4805,-8.34896e-15,3.65764e-14,-28.1641,-10.6846,82.1147,67.7367,11.6259,-12.5508,46.3572,7.12502,13.5261,75.8979,-27.2216,-5.71928,19.1795,38.4689,-9.55271,-25.9323,38.9363,3.07613,0.355459,-29.4513,36.9939,-17.5212,-1.27305,-16.7669
-2.11003,17.494,12.1437,-188.782,7.18359,174.215,21.7076,0.250526,-4.94206,1.59239,0.0862254,4.42464,-10.4298,0.591438,7.75369,-12.3521,-3.38886,-3.48519,22.7097,-1.86916,-4.50276,9.1879,-1.26654,-1.10878,3.57812e-15,-3.81667e-14,-29.5348,-22.7949,-59.4414,30.5102,27.5288,-14.7145,1.35218,7.12502,11.4401,-28.3157,3.57812e-15,-3.81667e-14,-29.1869,-9.57698,82.1851,68.0781,11.9884,-13.552,45.3215,7.12502,12.561,74.9239,-27.1926,-6.0354,19.7133,39.1999,-9.57588,-25.1411,37.6712,2.70705,0.468611,-28.8428,38.4024,-16.6508,-1.41221,-20.6309
-2.08393,17.4968,11.9999,-188.755,7.3144,174.293,21.7596,0.0651975,-4.84952,1.45107,-0.105305,4.66608,-10.5861,0.516602,8.04213,-11.8215,-3.22241,-3.58399,22.5389,-1.55553,-4.77647,9.03304,-1.13515,-1.13708,-8.15017e-15,1.74931e-14,-30.729,-23.6189,-58.1757,31.3245,26.2714,-16.564,1.77244,7.12502,9.65602,-27.9862,-8.15017e-15,1.74931e-14,-30.5671,-8.43679,82.365,68.2113,12.0918,-12.856,47.3698,7.12502,13.232,76.9299,-27.0005,-6.55756,19.8383,39.8055,-9.89013,-24.2267,36.9795,2.38202,0.636672,-28.6032,39.8593,-15.4392,-1.62867,-24.1935
-2.05251,17.5053,11.8506,-188.767,7.64217,174.263,21.5097,0.0320051,-4.80368,1.65595,-0.0956512,4.78402,-10.2179,0.510005,8.12863,-12.2025,-3.11442,-3.34224,22.5979,-1.36314,-5.10953,9.12075,-1.06951,-1.27685,9.74045e-15,-3.81667e-14,-31.3127,-24.5576,-57.4826,32.3559,24.8462,-18.0793,1.93945,7.12502,8.19384,-27.8817,9.74045e-15,-3.81667e-14,-31.35,-7.49375,82.3536,68.3718,12.2753,-12.4115,49.0475,7.12502,13.6604,78.5792,-26.6982,-6.79583,19.8885,40.1998,-10.2135,-23.6174,36.5682,2.03194,0.961434,-28.4154,41.3717,-14.4776,-2.37833,-25.4537
-2.01473,17.5211,11.7123,-188.725,8.22326,174.638,21.4302,0.00530698,-4.50485,1.70689,-0.00859379,5.02692,-10.1335,0.548831,8.19881,-11.9738,-2.97779,-3.10871,22.4541,-1.15539,-5.44755,9.02543,-0.978421,-1.40135,-4.49253e-14,-1.90833e-14,-31.986,-25.7729,-56.6487,33.4214,24.2169,-18.6935,1.64582,7.12502,7.60101,-28.1976,-4.49253e-14,-1.90833e-14,-32.4686,-6.50266,82.2932,68.3855,12.3704,-12.5863,49.1232,7.12502,13.492,78.6662,-26.3787,-6.83129,20.5117,40.3859,-10.6894,-23.3084,36.6844,1.4898,1.42883,-27.6629,42.9874,-13.3325,-3.61886,-24.6887
-1.97635,17.5384,11.5747,-188.685,8.5992,175.05,21.3961,-0.164142,-4.16562,1.7213,-0.104062,5.24737,-10.0834,0.501212,8.27634,-11.6306,-2.83208,-2.88453,22.2333,-0.965031,-5.72008,8.88347,-0.887699,-1.50145,-1.07344e-14,-2.54444e-14,-32.8017,-26.5109,-55.8559,34.7233,23.5576,-18.5227,1.59243,7.12502,7.76588,-28.245,-1.07344e-14,-2.54444e-14,-33.5965,-5.40644,82.1713,68.155,12.6989,-13.3644,48.4252,7.12502,12.7419,78.0164,-25.9357,-7.18786,21.1705,40.3804,-10.6732,-23.0958,35.5325,0.816954,1.8196,-26.8168,44.7609,-11.5728,-4.83544,-24.9614
-1.93835,17.5576,11.4393,-188.658,8.85318,175.064,21.2878,-0.249097,-4.17518,1.82367,-0.192354,5.34334,-9.89243,0.457783,8.40882,-11.6872,-2.76396,-2.7746,22.1483,-0.896878,-5.78442,8.86389,-0.858478,-1.5345,-6.4605e-14,1.19271e-13,-33.5332,-27.4602,-55.1494,36.1645,22.9146,-18.4476,1.43389,7.12502,7.83836,-28.4008,-6.4605e-14,1.19271e-13,-34.5484,-4.5023,82.0995,67.8019,12.951,-14.0463,48.0779,7.12502,12.0845,77.7089,-25.483,-7.4591,21.3456,40.2737,-10.5357,-23.0304,34.3135,-0.0144594,2.14525,-26.4131,46.6421,-9.49757,-5.95665,-25.6383
-1.89792,17.5714,11.3117,-188.587,9.21754,175.077,21.3324,-0.238747,-4.22878,1.84636,-0.177777,5.419,-9.89335,0.471458,8.52448,-11.9105,-2.75857,-2.52578,22.3517,-0.881989,-5.93347,8.97143,-0.852774,-1.63184,-5.1684e-15,4.45278e-14,-34.2336,-28.4224,-54.495,37.5022,22.0436,-19.1824,0.747586,7.12502,7.12907,-29.1123,-5.1684e-15,4.45278e-14,-35.4708,-3.66072,82.0137,67.2649,13.2251,-14.3271,48.6699,7.12502,11.8137,78.3167,-25.1051,-7.42419,21.5173,40.1442,-10.7014,-22.9896,33.9821,-0.996056,2.55785,-25.9491,48.5382,-6.86583,-7.00212,-24.481
-1.86146,17.5841,11.1793,-188.499,9.77558,175.294,21.2911,-0.363417,-4.14745,1.74334,-0.289319,5.64869,-9.96684,0.430241,8.77707,-11.2691,-2.61941,-2.60112,22.1698,-0.651664,-6.08253,8.79535,-0.741381,-1.63094,1.07344e-14,-1.43125e-14,-35.0915,-28.4248,-53.8239,39.163,21.3246,-19.3964,0.504765,7.12502,6.92253,-29.362,1.07344e-14,-1.43125e-14,-36.9643,-2.38047,81.8826,66.7376,13.4204,-14.1853,50.0914,7.12502,11.9504,79.7303,-24.685,-7.32185,21.9009,40.049,-10.9218,-22.712,33.7414,-2.01935,3.06462,-25.2601,50.3441,-4.00167,-7.95832,-22.7687
-1.82968,17.6052,11.0421,-188.412,10.4074,175.557,21.229,-0.474694,-3.8568,1.73833,-0.343565,5.76453,-9.93099,0.397437,8.75033,-11.2366,-2.45189,-2.32363,22.27,-0.393636,-6.35488,8.82567,-0.621115,-1.74272,-1.31198e-14,-1.43125e-14,-36.0454,-28.3078,-53.3875,41.2265,20.5544,-19.1506,1.22861,7.12502,7.1598,-28.6303,-1.31198e-14,-1.43125e-14,-38.2187,-1.29131,81.5975,66.1174,13.706,-14.2688,51.3292,7.12502,11.8699,80.9727,-24.2048,-7.20114,22.3096,39.9316,-11.237,-22.3513,33.2212,-3.06508,3.56554,-24.5809,52.033,-1.18209,-8.72233,-21.1012
-1.80092,17.6261,10.9182,-188.287,10.9588,175.806,21.3156,-0.542401,-3.52823,1.7185,-0.334758,5.85241,-10.0055,0.397659,8.65797,-11.6959,-2.37257,-2.07331,22.6248,-0.251981,-6.50789,9.03464,-0.564015,-1.83367,-4.17448e-15,-1.11319e-14,-36.9096,-28.3989,-53.0157,43.3006,19.9774,-19.0085,1.76042,7.12502,7.29695,-28.0938,-4.17448e-15,-1.11319e-14,-39.2382,-0.478274,81.4091,65.3726,14.1426,-14.3838,52.1635,7.12502,11.759,81.8134,-23.7615,-7.13583,22.6629,39.7873,-11.6568,-21.9412,33.3613,-4.19732,3.96173,-24.0097,53.5529,1.87451,-9.53135,-19.79
-1.7692,17.6382,10.8022,-188.146,11.4549,176.07,21.419,-0.612183,-3.23309,1.67897,-0.327286,5.98749,-10.1108,0.402987,8.64254,-11.8278,-2.30969,-1.96703,22.6707,-0.138093,-6.68383,9.07761,-0.524142,-1.90191,1.11319e-14,-4.77083e-15,-37.7715,-28.4024,-52.629,45.5265,19.8538,-19.3052,1.3382,7.12502,7.01058,-28.5257,1.11319e-14,-4.77083e-15,-40.2116,0.42564,81.2441,64.4779,14.2215,-14.1727,52.4605,7.12502,11.9626,82.0986,-23.3352,-7.08611,23.0494,39.5918,-11.8872,-21.6047,33.1157,-5.37614,4.38422,-23.4462,54.969,4.83577,-10.6444,-19.8939
-1.73806,17.6512,10.6815,-188.097,12.2074,176.391,21.6064,-0.614991,-3.00808,1.60022,-0.231847,6.21335,-10.3214,0.463067,8.75477,-11.5022,-2.13094,-1.94356,22.5485,0.154202,-6.90502,8.98358,-0.39256,-1.94208,1.98785e-14,5.725e-14,-38.8167,-27.812,-52.1148,47.9236,19.809,-19.5263,1.41661,7.12502,6.79715,-28.4543,1.98785e-14,5.725e-14,-41.4365,1.29088,81.1882,63.5561,14.2346,-14.4646,51.8074,7.12502,11.6811,81.4617,-22.8014,-6.75454,23.5165,39.3659,-12.0836,-21.3487,32.8564,-6.27286,4.7495,-22.8389,56.2868,6.86657,-12.1797,-19.4158
-1.71579,17.662,10.5625,-188.042,13.3969,176.812,21.6255,-0.552639,-2.43423,1.79018,0.020109,6.28183,-10.164,0.558991,8.40572,-11.6643,-1.95233,-1.67248,22.3628,0.334431,-7.03431,8.95286,-0.311156,-2.01264,-3.77691e-14,5.08889e-14,-39.5795,-27.6481,-52.0766,50.4474,20.0247,-19.7313,1.66738,7.12502,6.59923,-28.2098,-3.77691e-14,5.08889e-14,-42.1592,1.85576,80.9212,62.5225,14.7576,-15.237,50.1724,7.12502,10.9361,79.8676,-22.2334,-6.42335,24.118,39.133,-12.356,-20.4696,33.3226,-7.10896,5.22918,-22.1388,57.5728,9.00298,-13.2558,-13.6114
