JuanDHNZ/ProyectoFinalCD/preprocessing/sports_trials_csv/06_12.csv
root1,root2,root3,root4,root5,root6,lowerback1,lowerback2,lowerback3,upperback1,upperback2,upperback3,thorax1,thorax2,thorax3,lowerneck1,lowerneck2,lowerneck3,upperneck1,upperneck2,upperneck3,head1,head2,head3,rclavicle1,rclavicle2,rhumerus1,rhumerus2,rhumerus3,rradius1,rwrist1,rhand1,rhand2,rfingers1,rthumb1,rthumb2,lclavicle1,lclavicle2,lhumerus1,lhumerus2,lhumerus3,lradius1,lwrist1,lhand1,lhand2,lfingers1,lthumb1,lthumb2,rfemur1,rfemur2,rfemur3,rtibia1,rfoot1,rfoot2,rtoes1,lfemur1,lfemur2,lfemur3,ltibia1,lfoot1,lfoot2,ltoes1
-0.515004,18.3415,49.3242,177.269,1.18871,-179.17,16.4116,-1.42641,-4.37214,0.231525,-2.00653,4.75037,-8.65127,-0.55006,8.15497,-4.85295,-3.24833,-3.17745,36.0401,3.28534,-6.56624,13.0027,1.98744,-1.21155,3.35946e-14,-5.56597e-15,-32.3355,-66.1765,-16.8223,66.4057,-69.584,-14.0774,-9.07263,7.12502,12.0545,-38.7054,3.35946e-14,-5.56597e-15,-48.2587,5.9933,78.3634,48.919,8.58528,-8.5321,52.8626,7.12502,17.3968,82.1041,-7.25072,3.8629,22.6064,32.3128,-18.613,-15.3065,11.2708,-4.64151,-11.5743,-19.0365,25.9256,-14.9513,3.73728,-6.15023
-0.508083,18.3391,49.3116,177.286,1.09107,-179.222,16.1564,-1.69298,-4.69563,-0.0584675,-2.41177,4.93567,-8.73679,-0.721573,8.64375,-3.17439,-3.0515,-3.71949,35.4886,3.63834,-6.59797,12.4283,2.16585,-1.08277,1.53064e-14,1.19271e-14,-31.2336,-65.2384,-17.7433,66.5467,-68.9046,-13.5614,-9.17799,7.12502,12.552,-38.7809,1.53064e-14,1.19271e-14,-49.4379,6.5755,78.2029,49.3304,8.75766,-8.44939,53.4856,7.12502,17.4764,82.72,-7.24612,3.59364,22.5498,32.3351,-18.6161,-15.2401,11.0825,-4.69864,-11.5564,-19.0637,26.0637,-15.0472,3.63318,-6.29497
-0.502204,18.3343,49.2988,177.291,0.946005,-179.227,16.7174,-1.66895,-4.74675,-0.342888,-2.40099,4.99948,-9.36664,-0.67296,8.80073,-3.32396,-3.12666,-3.726,35.7833,3.66145,-6.65753,12.5914,2.18113,-1.09871,3.77691e-14,-2.06736e-14,-31.8992,-64.7796,-16.8772,66.7821,-68.3988,-13.0599,-9.0837,7.12502,13.0355,-38.6564,3.77691e-14,-2.06736e-14,-49.8222,6.43274,78.3344,49.4824,8.72057,-8.61518,54.0446,7.12502,17.3168,83.2932,-7.25122,3.34443,22.5524,32.4393,-18.7954,-15.2388,11.3197,-4.69805,-11.5832,-19.064,26.0976,-15.0538,3.66441,-7.43939
-0.489367,18.3265,49.2855,177.296,0.864129,-179.266,16.4175,-1.73655,-4.69194,-0.197152,-2.48734,4.88644,-9.02625,-0.744004,8.6298,-3.21745,-3.08808,-3.60918,35.5783,3.5959,-6.60887,12.4739,2.16222,-1.11064,1.94809e-14,-4.77083e-14,-32.2409,-64.8936,-16.7248,67.086,-67.9727,-12.6678,-9.26842,7.12502,13.4134,-38.8166,1.94809e-14,-4.77083e-14,-49.5286,6.40582,78.1256,49.3486,8.57662,-8.48742,54.2574,7.12502,17.4398,83.4951,-7.2376,3.3802,22.5859,32.5233,-18.9061,-15.4821,11.168,-4.67379,-11.6314,-19.0654,26.1378,-15.1214,3.56713,-6.68332
-0.478965,18.3198,49.2738,177.221,0.789422,-179.318,16.3281,-1.83193,-4.72372,-0.0804364,-2.62239,4.8301,-8.8232,-0.8225,8.60126,-3.04073,-3.00888,-3.52993,35.3058,3.60184,-6.62073,12.3183,2.16595,-1.13138,2.69353e-14,-8.0309e-14,-32.0686,-64.7914,-16.952,67.2757,-67.4911,-12.2736,-9.07342,7.12502,13.7934,-38.5961,2.69353e-14,-8.0309e-14,-49.4692,6.62027,77.9111,49.3978,8.5971,-8.63321,53.9362,7.12502,17.2995,83.1863,-7.14845,3.40943,22.5867,32.6166,-19.0935,-15.5802,11.5305,-4.57285,-11.6528,-19.1057,26.1512,-15.1611,3.50236,-6.80795
-0.470458,18.3181,49.2601,177.22,0.763339,-179.323,16.3081,-1.80632,-4.64838,0.0849779,-2.5706,4.78057,-8.64403,-0.812266,8.47809,-3.42079,-2.99123,-3.40761,35.2699,3.50281,-6.49882,12.3719,2.11473,-1.11961,-1.51076e-14,3.73715e-14,-32.4031,-64.8747,-16.6683,67.576,-66.9779,-11.952,-8.77163,7.12502,14.1033,-38.273,-1.51076e-14,3.73715e-14,-49.0878,6.44094,77.944,49.4773,8.88526,-8.75931,53.8576,7.12502,17.1781,83.1183,-7.13644,3.44211,22.6243,32.6911,-19.1918,-15.5938,11.6225,-4.52962,-11.6625,-19.0944,26.1528,-15.1788,3.52962,-7.10432
-0.46146,18.3158,49.2438,177.253,0.784885,-179.385,16.3059,-1.69793,-4.5414,0.371132,-2.39986,4.69643,-8.36569,-0.750986,8.26609,-4.40942,-3.03586,-3.34148,35.3567,3.28933,-6.32216,12.6013,1.97333,-1.09182,5.96354e-16,1.11319e-14,-32.6513,-65.2627,-16.464,67.8955,-66.097,-11.5793,-8.60254,7.12502,14.4624,-38.0786,5.96354e-16,1.11319e-14,-48.4482,6.22188,78.0219,49.6599,8.9455,-8.69904,54.1203,7.12502,17.2361,83.3759,-7.10888,3.52551,22.6012,32.704,-19.2812,-15.6432,12.1041,-4.50815,-11.557,-19.1351,26.1541,-15.2141,3.53617,-8.03493
-0.448431,18.3139,49.229,177.205,0.63826,-179.383,16.4839,-1.67477,-4.32389,0.693422,-2.32197,4.5753,-8.13838,-0.733828,7.97905,-5.60374,-3.02108,-3.312,35.4405,3.06863,-5.9536,12.8708,1.82885,-0.987707,-3.50855e-14,8.18993e-14,-32.9795,-65.7298,-16.2643,68.2089,-65.3578,-11.3117,-8.62555,7.12502,14.7202,-38.0829,-3.50855e-14,8.18993e-14,-47.7253,5.9801,77.998,49.812,9.07037,-8.65901,54.0095,7.12502,17.2746,83.2617,-6.96569,3.48526,22.6687,32.6775,-19.4034,-15.7016,12.4117,-4.43701,-11.5932,-19.0954,26.1837,-15.3185,3.4115,-8.49548
-0.436811,18.3199,49.2143,177.328,0.453608,-179.374,16.6003,-1.84967,-4.4704,0.19273,-2.59933,4.6999,-8.69574,-0.831703,8.30313,-4.07147,-2.95683,-3.49652,35.0335,3.27127,-6.16317,12.387,1.9649,-1.00707,-1.88845e-15,1.11319e-14,-32.9792,-64.3428,-16.1319,68.5597,-65.1855,-10.7012,-8.80844,7.12502,15.3084,-38.2219,-1.88845e-15,1.11319e-14,-48.979,6.24275,77.8513,50.1765,9.05868,-8.56974,53.712,7.12502,17.3606,82.9567,-7.01039,3.49229,22.7387,32.6409,-19.462,-15.9294,11.8431,-4.59426,-11.7644,-19.0235,26.218,-15.4031,3.35603,-8.46379
-0.425001,18.3176,49.1936,177.336,0.390113,-179.323,16.7193,-1.83463,-4.38849,0.273778,-2.55608,4.70796,-8.6837,-0.812497,8.25762,-4.56305,-3.00194,-3.38966,35.1701,3.18453,-6.15738,12.5441,1.91094,-1.03509,5.26779e-15,-1.59028e-15,-33.5012,-64.3675,-15.5247,68.9298,-64.9174,-10.2283,-8.76206,7.12502,15.7638,-38.1401,5.26779e-15,-1.59028e-15,-48.6664,6.27078,77.8142,50.1254,9.01465,-8.49837,53.5212,7.12502,17.4293,82.7598,-6.93049,3.46157,22.8485,32.6441,-19.5064,-15.9805,11.5501,-4.57983,-11.8182,-18.9351,26.3035,-15.4414,3.288,-7.62994
-0.413957,18.3116,49.1721,177.358,0.435382,-179.279,16.4408,-1.74852,-4.2147,0.630015,-2.3894,4.65134,-8.17382,-0.765156,8.01543,-5.2519,-3.03363,-3.17445,35.0501,2.96358,-6.11711,12.6252,1.78317,-1.0893,-3.85642e-14,2.38542e-14,-34.1858,-64.9389,-14.8375,69.3328,-64.529,-9.65048,-8.41709,7.12502,16.3202,-37.7504,-3.85642e-14,2.38542e-14,-47.8564,6.22931,77.825,50.0517,8.95175,-8.48093,53.8083,7.12502,17.446,83.0455,-6.87537,3.48282,22.9453,32.6495,-19.6411,-15.9653,11.6551,-4.5584,-11.8231,-18.86,26.397,-15.4989,3.29568,-7.20465
-0.403557,18.3013,49.1492,177.367,0.41887,-179.296,16.0673,-1.83146,-4.27197,0.645527,-2.50456,4.67786,-7.92527,-0.832486,8.07794,-4.60464,-2.97546,-3.30974,34.7672,3.00261,-6.05237,12.3689,1.81796,-1.03476,1.51076e-14,-4.13472e-14,-33.9273,-64.321,-15.1585,69.7429,-63.8238,-9.41924,-7.78136,7.12502,16.5428,-37.0962,1.51076e-14,-4.13472e-14,-48.171,6.36351,77.7133,50.2346,9.06662,-8.57082,53.7331,7.12502,17.3595,82.9779,-6.82815,3.45001,22.9707,32.7195,-19.8131,-15.927,11.718,-4.54652,-11.7963,-18.8467,26.5154,-15.6635,3.23435,-7.15916
-0.38726,18.2968,49.1346,177.22,0.206979,-179.279,16.4903,-1.66098,-3.84951,1.34113,-2.17516,4.44895,-7.48136,-0.702831,7.49439,-7.32523,-3.12108,-2.7904,35.2697,2.49787,-5.80671,13.1348,1.51769,-1.11148,2.68359e-15,-4.77083e-15,-35.1417,-65.758,-14.1657,70.1643,-62.6899,-9.52493,-6.95184,7.12502,16.4411,-36.2751,2.68359e-15,-4.77083e-15,-46.3379,5.65157,77.8995,50.1495,9.33307,-8.80369,53.4803,7.12502,17.1354,82.7447,-6.60381,3.43639,23.0722,32.7779,-20.1454,-16.025,12.22,-4.41153,-11.9605,-18.8245,26.6344,-15.8363,3.20576,-7.76722
-0.373223,18.2922,49.1176,177.263,0.210835,-179.324,16.9964,-1.71138,-4.09174,0.597421,-2.32986,4.57272,-8.53836,-0.722834,7.88013,-5.44568,-3.12962,-3.00404,35.0288,2.73256,-6.06858,12.6458,1.69051,-1.13034,9.0447e-15,-2.70347e-14,-35.1357,-63.8758,-14.0878,70.5595,-61.9172,-9.44708,-6.16026,7.12502,16.516,-35.4773,9.0447e-15,-2.70347e-14,-47.982,5.87968,77.7769,50.3755,9.4101,-8.95039,53.5058,7.12502,16.9942,82.7824,-6.62062,3.44154,23.0644,32.8377,-20.3334,-15.9587,12.7145,-4.48077,-11.9117,-18.8249,26.7538,-15.9194,3.24123,-8.04487
-0.359953,18.2848,49.0975,177.353,0.244066,-179.283,16.3183,-1.86978,-4.04397,0.652242,-2.52352,4.58601,-8.0692,-0.844451,7.86258,-4.24975,-2.98306,-3.11484,34.3354,2.84494,-6.12042,12.1061,1.76187,-1.11501,-1.43125e-14,-1.19271e-14,-34.3933,-63.1346,-14.9854,70.9825,-61.1339,-8.7427,-6.16669,7.12502,17.1941,-35.426,-1.43125e-14,-1.19271e-14,-48.2312,6.26844,77.5141,50.3728,9.38799,-8.9762,53.3024,7.12502,16.9693,82.5812,-6.66541,3.48701,23.1627,32.8831,-20.3771,-15.9515,13.032,-4.51792,-11.9603,-18.7445,26.804,-16.0296,3.32263,-7.90372
-0.344881,18.2805,49.0785,177.379,0.180701,-179.238,16.6898,-2.05991,-4.24047,0.200928,-2.81266,4.80098,-8.70562,-0.935968,8.33489,-3.19581,-2.82351,-3.4618,34.1893,3.26471,-6.29868,11.8519,1.96392,-1.07017,1.83876e-14,-2.14687e-14,-33.4326,-61.6118,-15.8264,71.4844,-60.3994,-7.84824,-6.59875,7.12502,18.0549,-35.7808,1.83876e-14,-2.14687e-14,-49.4511,6.73806,77.4185,50.6323,9.4968,-9.03724,53.5103,7.12502,16.9106,82.7941,-6.63472,3.47554,23.274,32.9271,-20.3717,-16.0073,13.1468,-4.52998,-11.9567,-18.6357,26.8881,-16.1474,3.21625,-7.99923
-0.331059,18.2796,49.0568,177.383,0.197032,-179.341,16.5534,-1.70564,-3.61949,1.30496,-2.20921,4.32957,-7.56465,-0.72766,7.2412,-6.84724,-3.05278,-2.55877,34.8162,2.47928,-5.9437,12.8323,1.5268,-1.20684,5.36719e-15,-4.6118e-14,-35.385,-63.7705,-14.3638,72.1389,-59.2174,-7.82448,-5.88503,7.12502,18.0777,-35.0649,5.36719e-15,-4.6118e-14,-46.6296,5.64691,77.6181,50.4467,9.52182,-9.01316,53.8495,7.12502,16.9338,83.1313,-6.58685,3.47958,23.2237,32.9748,-20.4742,-16.0735,12.6225,-4.47973,-12.0913,-18.7467,26.9787,-16.2939,3.38946,-8.32515
-0.319968,18.2764,49.0373,177.396,0.162647,-179.24,16.5553,-1.99653,-3.70801,0.872905,-2.60672,4.58395,-7.96149,-0.895375,7.68487,-4.93574,-2.85453,-3.24233,34.299,2.94779,-6.02272,12.2338,1.74777,-1.04812,-1.05356e-14,3.18055e-14,-33.7848,-61.7983,-15.869,72.6037,-58.0364,-7.86316,-4.88235,7.12502,18.0405,-34.0657,-1.05356e-14,3.18055e-14,-48.0878,6.50733,77.4363,50.6788,9.45596,-9.15584,53.6884,7.12502,16.7964,82.9819,-6.55691,3.37008,23.3734,33.0214,-20.6962,-16.0287,12.1689,-4.45987,-12.0981,-18.6342,27.0799,-16.3049,3.64593,-10.2836
-0.309549,18.2714,49.0192,177.442,0.040907,-179.185,16.7892,-1.98741,-3.54159,0.920359,-2.55283,4.598,-8.055,-0.866459,7.6042,-5.53453,-2.89663,-3.16004,34.4611,2.85073,-5.96625,12.4219,1.68691,-1.0549,1.72943e-14,-6.83819e-14,-33.8332,-61.4343,-15.9925,73.2715,-56.8429,-7.61253,-4.33558,7.12502,18.2816,-33.4965,1.72943e-14,-6.83819e-14,-47.8744,6.37596,77.5443,50.6445,9.54598,-9.29668,53.6905,7.12502,16.6608,82.9955,-6.54866,3.3038,23.472,33.0631,-20.8232,-16.0823,11.6738,-4.54186,-12.1369,-18.5583,27.2295,-16.2249,3.78566,-11.1244
-0.293022,18.2664,49.0012,177.463,-0.0411486,-179.394,17.2394,-1.50872,-3.58946,0.589711,-2.65203,4.55078,-8.67304,-1.17296,7.69866,-5.18491,-2.94143,-2.95388,34.4849,2.85204,-6.13749,12.3613,1.72515,-1.15369,2.71341e-14,-2.3059e-14,-34.3675,-60.283,-15.7165,74.1252,-55.8325,-7.28403,-3.91332,7.12502,18.5976,-33.0443,2.71341e-14,-2.3059e-14,-48.4465,6.15904,77.536,50.8015,9.82081,-9.36166,53.398,7.12502,16.5983,82.7082,-6.50649,3.34183,23.3063,33.0939,-21.0276,-16.1502,11.3121,-4.67196,-12.2977,-18.7701,27.481,-16.2498,3.93899,-11.3702
-0.274594,18.2613,48.9817,177.41,0.0106565,-179.289,17.5016,-1.59092,-3.57241,0.327304,-2.74084,4.65292,-9.09126,-1.18459,7.85951,-4.32912,-2.92161,-3.0801,34.314,2.9915,-6.31166,12.1225,1.80783,-1.17719,1.22253e-14,-6.36111e-15,-34.055,-58.9011,-16.2387,74.9796,-54.5553,-7.06362,-3.65667,7.12502,18.8096,-32.7672,1.22253e-14,-6.36111e-15,-49.2835,6.46134,77.3957,50.9528,9.86917,-9.18554,53.2088,7.12502,16.7678,82.5047,-6.37951,3.37125,23.5012,33.1216,-21.1907,-16.1633,11.2205,-4.70089,-12.356,-18.6378,27.7917,-16.4702,3.99613,-10.5873
-0.255829,18.2558,48.9706,177.339,0.045803,-179.267,17.5404,-2.24048,-3.83041,0.2363,-2.96988,4.75065,-9.14025,-1.00072,8.13552,-3.23996,-2.70815,-3.40335,33.8916,3.33799,-6.39462,11.7404,1.96908,-1.11214,-7.72278e-14,1.145e-13,-32.7787,-57.4958,-17.8808,75.9192,-53.2204,-6.87157,-3.23676,7.12502,18.9943,-32.3293,-7.72278e-14,1.145e-13,-50.1067,7.0336,77.1389,51.0862,9.88755,-9.45964,53.411,7.12502,16.5039,82.7291,-6.26957,3.46948,23.6229,33.1299,-21.2701,-16.2047,11.3395,-4.77386,-12.348,-18.5732,28.1211,-16.6588,3.98471,-10.2739
-0.240989,18.253,48.9542,177.451,0.147771,-179.169,17.2432,-2.19647,-3.40331,0.820524,-2.79937,4.63234,-8.38389,-0.971298,7.65421,-4.74431,-2.69427,-3.13228,33.9721,3.15662,-6.2857,12.0681,1.81942,-1.14526,2.40529e-14,-4.45278e-14,-32.5166,-57.9903,-18.7051,77.0199,-51.6225,-6.75552,-2.50585,7.12502,19.1059,-31.5874,2.40529e-14,-4.45278e-14,-48.7475,6.94586,77.1866,50.7423,9.72148,-9.50591,53.5373,7.12502,16.4594,82.8591,-6.36081,3.43673,23.7564,33.1358,-21.3261,-16.0629,11.5283,-5.10469,-12.1133,-18.3888,28.5767,-16.7983,3.84328,-9.27197
-0.229175,18.2537,48.9263,177.567,0.534772,-179.083,17.3372,-2.13875,-3.13621,0.855026,-2.67009,4.59496,-8.43286,-0.916527,7.43181,-5.11919,-2.59582,-2.97928,33.9968,3.25855,-6.31285,12.1579,1.85469,-1.17251,-3.926e-14,6.20208e-14,-32.167,-57.2991,-19.6468,78.1755,-49.8651,-6.84701,-2.07072,7.12502,19.018,-31.161,-3.926e-14,6.20208e-14,-48.6331,6.89755,77.1663,50.5846,9.97771,-9.63518,53.625,7.12502,16.3349,82.9571,-6.44185,3.56521,23.8719,33.1714,-21.3932,-15.7977,11.637,-5.40346,-11.7282,-18.2477,29.1627,-17.0975,3.88509,-7.79074
-0.216153,18.2411,48.9151,177.571,0.408932,-178.977,17.1035,-2.12835,-2.70375,1.46097,-2.53993,4.47783,-7.68444,-0.892271,6.96995,-6.42923,-2.60632,-2.69108,33.9838,2.96821,-6.09637,12.4063,1.68235,-1.18399,4.17448e-15,-1.74931e-14,-32.0053,-57.8237,-20.4586,79.482,-47.6911,-6.86762,-1.59001,7.12502,18.9981,-30.6822,4.17448e-15,-1.74931e-14,-47.3134,6.64683,77.2998,50.3898,10.0089,-9.45855,53.9894,7.12502,16.505,83.3074,-6.43571,3.37734,24.0263,33.2485,-21.4102,-15.8389,10.905,-5.79882,-11.5987,-18.0657,29.8759,-17.2276,3.71092,-8.12384
-0.205113,18.2223,48.9012,177.58,0.326021,-178.817,17.0832,-2.16492,-2.34596,1.55724,-2.50949,4.45765,-7.59012,-0.888731,6.72662,-6.32173,-2.65545,-2.43278,33.7829,2.84483,-6.27673,12.2965,1.63475,-1.31394,8.54774e-15,3.4191e-14,-32.2014,-57.1121,-20.9275,80.9961,-45.7472,-6.94446,-1.05655,7.12502,18.9242,-30.156,8.54774e-15,3.4191e-14,-47.2187,6.33546,77.3945,50.4261,10.1782,-9.43491,53.9942,7.12502,16.5278,83.3103,-6.44753,3.26842,24.243,33.3528,-21.5116,-15.8697,10.7818,-6.25679,-11.3967,-17.8502,30.7265,-17.2955,3.65884,-9.77474
-0.191844,18.2106,48.8868,177.591,0.35437,-178.711,17.3446,-2.60807,-2.76661,0.752654,-3.1698,4.88232,-8.47924,-1.15313,7.65799,-3.34468,-2.35964,-3.15493,33.0578,3.63079,-6.79646,11.4357,2.02804,-1.28239,-1.75924e-14,3.97569e-15,-30.3536,-53.8529,-23.0819,82.3655,-43.8077,-7.10002,-0.583694,7.12502,18.7746,-29.6977,-1.75924e-14,3.97569e-15,-49.6957,7.58985,77.1043,50.6487,10.1199,-9.40787,53.5954,7.12502,16.5538,82.9093,-6.47688,3.29781,24.4168,33.4784,-21.5332,-15.9394,10.1612,-6.75942,-11.1673,-17.6994,31.7047,-17.4776,3.63447,-10.0135
-0.178338,18.1981,48.8753,177.486,0.456929,-178.606,17.8359,-2.45943,-2.24401,1.23102,-2.8459,4.69438,-8.31093,-1.0156,7.07522,-5.14824,-2.46266,-2.72765,33.3555,3.29504,-6.67567,11.9041,1.81848,-1.35474,-8.94531e-15,2.8625e-14,-30.4027,-53.962,-23.9659,83.8782,-41.6155,-7.66944,0.167037,7.12502,18.2269,-28.999,-8.94531e-15,2.8625e-14,-48.3475,6.98085,77.3188,50.322,10.1561,-9.21709,53.4625,7.12502,16.7375,82.761,-6.35017,3.45745,24.6007,33.5275,-21.6172,-15.9673,10.2169,-7.21319,-10.8375,-17.5584,32.7887,-17.6176,3.56168,-9.49492
-0.164328,18.1911,48.8571,177.404,0.543354,-178.506,18.0196,-2.5209,-1.99184,1.50089,-2.84161,4.71606,-8.12885,-1.01764,6.94781,-5.65092,-2.38045,-2.68992,33.2007,3.35424,-6.79168,11.948,1.79235,-1.40119,-5.725e-14,7.39479e-14,-29.5932,-53.2398,-25.4722,85.4232,-39.2826,-7.91966,0.828952,7.12502,17.9861,-28.3594,-5.725e-14,7.39479e-14,-47.9244,7.11669,77.4395,50.1734,9.99304,-9.16971,53.6199,7.12502,16.7831,82.9145,-6.1802,3.53467,24.7864,33.5267,-21.7868,-16.0246,10.4542,-7.74879,-10.6152,-17.4277,33.9479,-17.4773,3.50487,-9.09341
-0.154046,18.1886,48.8384,177.385,0.60594,-178.352,18.2085,-2.43223,-1.53532,1.88404,-2.59667,4.65268,-7.87071,-0.910102,6.54473,-6.85961,-2.47572,-2.3188,33.2993,3.07589,-6.83947,12.2272,1.6243,-1.52558,3.39922e-14,-4.05521e-14,-29.6197,-52.937,-26.289,87.092,-36.832,-8.29773,1.41367,7.12502,17.6223,-27.8077,3.39922e-14,-4.05521e-14,-46.9344,6.6819,77.7303,49.9521,9.99724,-9.22319,53.8536,7.12502,16.7316,83.1526,-6.09093,3.45794,24.9834,33.5078,-21.8413,-15.9574,10.1866,-8.41687,-10.4812,-17.2576,35.2005,-16.9538,3.66724,-10.6772
-0.149085,18.1801,48.8207,177.323,0.709434,-178.245,18.4736,-2.55682,-1.55556,1.5316,-2.7437,4.89104,-8.37161,-0.958186,6.89474,-5.3187,-2.46099,-2.61557,32.9206,3.30716,-7.20856,11.7736,1.74849,-1.57487,-1.07344e-14,-8.50798e-14,-29.2702,-50.517,-27.2888,88.8709,-34.6482,-8.88564,1.95757,7.12502,17.0565,-27.3136,-1.07344e-14,-8.50798e-14,-48.1576,7.06669,77.8783,50.159,9.92555,-8.99382,54.2399,7.12502,16.9524,83.5201,-5.96933,3.33153,25.0942,33.5067,-21.8773,-15.904,8.91536,-9.05086,-10.3139,-17.1757,36.5353,-16.53,3.67209,-10.2168
-0.145293,18.1706,48.8046,177.29,0.856022,-178.303,18.5803,-2.75314,-1.78444,1.24144,-3.04029,5.07834,-8.68859,-1.07854,7.33558,-3.72391,-2.3224,-2.95828,32.421,3.6472,-7.51948,11.2733,1.92445,-1.58649,-3.67752e-14,7.95139e-15,-28.3298,-47.997,-29.0304,90.5532,-32.1003,-9.73259,2.5859,7.12502,16.2411,-26.7538,-3.67752e-14,7.95139e-15,-49.2268,7.77164,77.8408,50.1553,9.78995,-8.90027,54.608,7.12502,17.0424,83.8804,-5.88151,3.21588,25.0028,33.507,-21.9479,-15.6744,8.51084,-9.71159,-10.0081,-17.2989,37.9256,-16.2299,3.8389,-10.2616
-0.140775,18.1658,48.7883,177.207,0.968208,-178.422,18.6503,-2.7284,-1.22656,2.1365,-2.86077,4.76128,-7.81476,-1.02776,6.5635,-6.39766,-2.26438,-2.5861,32.7476,3.42412,-7.19492,11.9276,1.7117,-1.56874,2.78299e-15,-5.08889e-14,-27.2189,-48.3929,-31.3466,92.2611,-29.2715,-10.353,3.43815,7.12502,15.6437,-25.9494,2.78299e-15,-5.08889e-14,-47.1226,7.46297,78.015,49.6981,9.63128,-8.95603,54.1024,7.12502,16.9888,83.3795,-5.77892,3.16008,24.8792,33.5723,-22.0181,-15.664,7.63528,-10.4346,-9.81206,-17.4911,39.414,-15.7577,4.00421,-9.53538
-0.139077,18.1632,48.7693,177.132,1.05017,-178.375,18.712,-2.87345,-0.98006,2.09261,-3.00182,4.73788,-7.89495,-1.10086,6.43633,-5.40266,-2.1816,-2.48804,32.3188,3.53751,-7.41735,11.5583,1.79957,-1.65167,3.79679e-14,3.73715e-14,-26.8848,-46.3681,-32.858,93.9079,-26.6198,-11.0482,4.35145,7.12502,14.9741,-25.0872,3.79679e-14,3.73715e-14,-47.5039,7.57367,77.9852,49.4884,9.44737,-8.94,53.1698,7.12502,17.0042,82.4455,-5.62674,3.08338,24.9247,33.5972,-22.3094,-15.4656,8.38086,-11.2493,-9.8312,-17.5163,40.9707,-15.2316,4.19401,-7.52301
-0.135336,18.1516,48.7497,177.114,1.18658,-178.28,18.87,-2.90504,-0.708134,2.03871,-2.97648,4.75563,-8.05753,-1.08915,6.30728,-4.70239,-2.22596,-2.4335,32.0371,3.51126,-7.66252,11.3086,1.80677,-1.75197,-6.08281e-14,-8.5875e-14,-26.8776,-44.4418,-34.0441,95.6329,-23.9656,-11.8524,5.01687,7.12502,14.1992,-24.4778,-6.08281e-14,-8.5875e-14,-47.7572,7.60886,78.0842,49.3007,9.15811,-8.75047,53.0791,7.12502,17.1866,82.3391,-5.53632,3.18664,25.0603,33.5993,-22.5499,-15.372,9.61601,-12.2189,-9.64976,-17.4514,42.6313,-14.7241,4.30347,-7.20538
-0.132566,18.1405,48.7274,176.994,1.34684,-178.126,19.1517,-2.68459,0.0804659,2.93242,-2.45289,4.50327,-7.34126,-0.84338,5.41329,-7.66994,-2.3999,-1.61139,32.5735,2.98848,-7.61871,12.104,1.48244,-1.9643,-5.96354e-16,-1.51076e-14,-26.44,-44.789,-35.7932,97.2453,-20.9875,-12.4911,5.69499,7.12502,13.5837,-23.8419,-5.96354e-16,-1.51076e-14,-45.4072,6.74853,78.4851,48.6627,9.00874,-8.64393,53.1518,7.12502,17.2892,82.4027,-5.2942,3.21721,25.262,33.5586,-22.5104,-15.4912,8.71181,-13.0573,-9.57687,-17.3791,44.3234,-14.011,4.62286,-7.30269
-0.12679,18.1353,48.709,176.795,1.46638,-178.008,19.7202,-2.85849,0.113948,2.86378,-2.60802,4.71815,-7.69995,-0.895095,5.70696,-7.13345,-2.29478,-1.96418,32.2774,3.24797,-7.8183,11.891,1.56141,-1.93898,-1.64991e-14,-5.56597e-15,-25.6294,-42.2311,-37.6117,98.7546,-18.1955,-13.1992,6.36378,7.12502,12.9012,-23.2174,-1.64991e-14,-5.56597e-15,-45.799,7.29436,78.6962,48.2818,8.64426,-8.77816,52.5043,7.12502,17.16,81.7666,-4.97492,3.36909,25.4641,33.5425,-22.656,-15.6458,7.9314,-13.8537,-9.44967,-17.328,45.9758,-13.2095,4.80897,-8.02502
-0.125883,18.1301,48.6872,176.579,1.44618,-177.995,20.654,-3.03188,-0.153646,2.34925,-2.83094,5.0435,-8.71731,-0.960743,6.37403,-5.54835,-2.24994,-2.49113,31.8983,3.52238,-8.07524,11.4364,1.69847,-1.89689,2.96189e-14,-5.88403e-14,-25.419,-38.7571,-38.8659,100.231,-15.412,-14.1547,6.92488,7.12502,11.9799,-22.7123,2.96189e-14,-5.88403e-14,-47.1939,7.89928,78.9843,48.147,8.03376,-9.14462,51.9441,7.12502,16.8072,81.2366,-4.60177,3.33332,25.5142,33.4888,-22.8979,-15.7406,7.41582,-14.5822,-9.55917,-17.4329,47.5418,-12.7851,5.04991,-7.67196
-0.127118,18.1274,48.6598,176.451,1.48452,-178.062,20.3734,-3.16134,0.0508898,2.80973,-2.93636,4.97127,-8.06207,-1.02156,6.1541,-5.44252,-2.17153,-2.42916,31.3219,3.45166,-8.14717,11.1827,1.64288,-1.93996,-3.69739e-14,-5.88403e-14,-24.7169,-36.88,-40.9617,101.565,-12.3009,-15.1594,7.49059,7.12502,11.011,-22.2006,-3.69739e-14,-5.88403e-14,-46.6852,8.03086,79.1647,48.0575,7.71008,-9.09186,52.018,7.12502,16.858,81.3062,-4.30115,3.30439,25.469,33.3995,-23.0004,-15.9116,6.41438,-15.4083,-9.43049,-17.6177,49.0105,-12.5642,5.31843,-9.1543
-0.129152,18.1239,48.6261,176.469,1.77067,-178.021,20.317,-3.02113,0.572528,3.37629,-2.60224,4.8166,-7.47935,-0.865627,5.55818,-6.91215,-2.23704,-1.93844,31.3911,3.18534,-8.21296,11.4934,1.46742,-2.09159,1.39149e-15,5.24792e-14,-24.2881,-35.7572,-42.8436,102.773,-8.97153,-16.1155,8.13964,7.12502,10.0887,-21.5985,1.39149e-15,5.24792e-14,-45.4177,7.44024,79.6033,47.9017,7.58205,-8.96691,52.3802,7.12502,16.9783,81.6581,-4.10116,3.51606,25.5381,33.2463,-23.206,-15.955,5.77465,-16.328,-9.14167,-17.6579,50.4172,-12.6683,5.4077,-10.6067
-0.129324,18.1234,48.5948,176.47,2.14074,-177.719,20.4875,-3.16051,0.657783,3.02958,-2.73313,5.12892,-7.92758,-0.919761,5.91951,-5.01738,-2.14699,-2.36007,30.7542,3.45191,-8.53472,10.8839,1.62016,-2.08871,4.13472e-14,3.81667e-14,-24.1668,-32.1458,-44.3566,103.677,-5.69482,-17.2241,8.94362,7.12502,9.01909,-20.8436,4.13472e-14,3.81667e-14,-46.7105,8.13523,79.7361,47.9903,7.31758,-8.94063,51.2392,7.12502,17.0036,80.515,-3.893,3.81021,25.9417,33.0687,-23.2025,-16.1638,5.11141,-17.2336,-8.74933,-17.3521,51.7136,-13.001,4.9368,-10.1454
-0.126152,18.124,48.5661,176.548,2.34632,-177.34,20.6345,-2.9529,1.54274,3.60033,-2.20611,4.98221,-7.47642,-0.664832,5.08571,-6.71007,-2.42754,-1.79044,31.0036,2.77216,-8.28902,11.2781,1.27931,-2.18977,4.21423e-14,-1.31993e-13,-23.9628,-31.2718,-46.128,104.404,-2.26187,-18.2531,9.5738,7.12502,8.02609,-20.2538,4.21423e-14,-1.31993e-13,-45.1304,7.09212,80.1358,47.58,7.03461,-9.02982,51.7232,7.12502,16.9177,81.0063,-3.7591,4.02828,26.4468,32.8891,-23.1501,-16.4831,4.36614,-18.2886,-8.37781,-16.9182,52.8754,-13.0352,4.32945,-9.24322
-0.121772,18.1207,48.5431,176.523,2.31883,-177.314,20.8094,-3.19751,1.45655,3.63707,-2.49078,5.17738,-7.49442,-0.784696,5.43414,-6.14224,-2.26243,-2.13967,30.6058,3.06797,-8.4698,11.0289,1.38089,-2.15303,1.74931e-14,-4.29375e-14,-23.2465,-28.1622,-48.0671,104.699,1.22982,-19.3946,10.3937,7.12502,6.92422,-19.4731,1.74931e-14,-4.29375e-14,-45.3198,7.76661,80.3335,47.4017,6.70077,-9.00418,51.5747,7.12502,16.9424,80.8557,-3.50973,4.00007,26.5122,32.6693,-23.235,-16.566,4.67064,-19.2141,-8.29707,-16.9221,53.7676,-13.0148,3.83773,-8.77832
-0.11968,18.1138,48.5226,176.383,2.33248,-177.327,21.1528,-3.32211,1.52239,3.78202,-2.58673,5.2006,-7.51254,-0.815757,5.46081,-5.97093,-2.17504,-2.14173,30.3518,3.15769,-8.5652,10.902,1.4124,-2.1746,4.77083e-15,3.65764e-14,-22.8531,-25.4009,-49.9382,104.685,4.60539,-21.0175,11.049,7.12502,5.35743,-18.8633,4.77083e-15,3.65764e-14,-45.1207,7.84385,80.5851,47.2624,6.73944,-8.89491,51.7836,7.12502,17.0476,81.0556,-3.16182,3.93114,26.5243,32.5037,-23.478,-16.6063,4.77109,-19.9623,-8.12312,-16.9831,54.4696,-13.0463,3.29728,-9.11211
-0.139518,18.1226,48.4459,176.605,3.48993,-177.326,20.7628,-2.9971,1.91137,4.00321,-2.11017,5.09334,-7.12344,-0.600667,4.95806,-6.22363,-2.22061,-1.98469,30.3177,3.04659,-8.62467,10.9339,1.35192,-2.23811,-4.29375e-14,2.54444e-14,-22.7598,-22.9529,-51.6103,104.377,7.7612,-22.7391,11.6722,7.12502,3.69501,-18.2755,-4.29375e-14,2.54444e-14,-44.7298,7.63931,80.8995,47.0191,6.61206,-8.94315,51.8551,7.12502,17.0012,81.1311,-3.06267,4.50516,26.4227,32.3703,-23.591,-16.337,3.59453,-20.5533,-7.24504,-17.0951,54.9142,-13.3612,3.37651,-9.86026
-0.1408,18.1161,48.4238,176.712,3.38292,-177.22,21.5869,-3.19733,1.61516,3.33681,-2.3511,5.54274,-8.24225,-0.694496,5.77638,-4.64547,-2.14578,-2.47476,30.0591,3.44841,-9.06904,10.5558,1.5524,-2.25669,-2.22639e-14,0,-22.9737,-18.8851,-52.7216,103.559,10.3613,-24.2145,12.6492,7.12502,2.27021,-17.3184,-2.22639e-14,0,-46.2479,8.36156,81.3545,47.2118,6.20317,-9.05127,51.92,7.12502,16.8971,81.205,-2.98289,4.42047,26.5173,32.1909,-23.7633,-16.318,4.09856,-21.4944,-7.24383,-17.0051,55.1933,-13.2097,2.98518,-9.45531
-0.141039,18.1039,48.3975,176.775,3.44542,-177.129,21.6617,-3.26105,1.93421,3.55197,-2.33733,5.48136,-8.06384,-0.686888,5.51225,-4.77542,-2.13387,-2.26647,29.8428,3.34682,-9.09815,10.4921,1.50261,-2.31386,7.95139e-15,-6.04305e-14,-22.4136,-16.6,-54.6559,102.075,12.8075,-26.4863,13.9789,7.12502,0.0760952,-16.0009,7.95139e-15,-6.04305e-14,-45.849,8.16425,81.5534,47.1007,5.98087,-9.14725,52.027,7.12502,16.8047,81.3198,-2.80306,4.43371,26.6225,31.9477,-23.7928,-16.5078,3.33332,-22.3358,-7.12581,-16.9252,55.2792,-13.0698,2.80105,-9.44418
-0.165628,18.1153,48.3133,176.712,4.70473,-177.219,21.4694,-2.89667,2.2171,3.94824,-1.80899,5.33492,-7.5833,-0.437791,5.00845,-5.20794,-2.20402,-2.16169,29.794,3.16901,-9.0893,10.5485,1.39705,-2.35018,-3.02153e-14,-7.95139e-15,-21.922,-14.484,-56.283,100.168,15.3457,-28.7218,15.3749,7.12502,-2.08307,-14.5946,-3.02153e-14,-7.95139e-15,-45.2668,8.1381,81.778,46.7281,5.61151,-8.841,51.8598,7.12502,17.0995,81.1273,-2.34419,4.8855,26.3509,31.7265,-23.8672,-16.052,1.45961,-22.4474,-6.3044,-17.1757,55.0657,-13.2766,3.02499,-10.2657
-0.171902,18.1242,48.2604,176.827,5.22933,-177.219,21.6148,-2.80046,2.24529,3.91755,-1.66047,5.38959,-7.70381,-0.364577,5.0209,-4.80714,-2.20092,-2.33051,29.5782,3.14142,-9.05152,10.3865,1.38786,-2.30538,-8.74653e-15,-2.8625e-14,-21.6402,-11.9689,-57.6214,97.933,18.2253,-30.6094,16.2514,7.12502,-3.90592,-13.6926,-8.74653e-15,-2.8625e-14,-45.3454,8.46147,81.951,46.5392,5.35431,-8.69081,51.7267,7.12502,17.244,80.9816,-2.17786,5.06313,26.2869,31.5517,-24.0946,-15.9493,0.31822,-23.018,-5.88561,-17.1877,54.6931,-13.4248,2.92155,-12.1449
-0.180991,18.1231,48.215,177.004,5.547,-177.146,21.6868,-2.77035,2.44818,3.96249,-1.55817,5.40879,-7.70622,-0.314801,4.89846,-4.77368,-2.2468,-2.4035,29.5265,3.06208,-9.03625,10.3568,1.34262,-2.29493,-2.90226e-14,2.54444e-14,-21.2305,-9.79351,-58.9845,95.4477,20.8379,-32.0771,16.9425,7.12502,-5.32318,-12.9707,-2.90226e-14,2.54444e-14,-45.2831,8.65323,82.0861,46.4727,5.23324,-8.64337,51.4088,7.12502,17.2897,80.6597,-2.14519,5.0687,26.268,31.3923,-24.0966,-15.9811,-0.420692,-23.6559,-5.70046,-17.1163,54.1482,-13.3558,3.09448,-12.2329
-0.189203,18.1141,48.1737,177.166,5.63546,-177.175,21.7926,-2.69564,2.8461,4.28783,-1.35677,5.20308,-7.43552,-0.214464,4.37643,-5.88045,-2.32331,-1.94174,29.6498,2.76814,-8.90083,10.5995,1.18906,-2.36856,1.98785e-15,4.77083e-15,-20.4783,-8.7034,-60.4641,92.8412,22.9892,-32.9309,17.5668,7.12502,-6.14753,-12.324,1.98785e-15,4.77083e-15,-44.3438,8.10686,82.2953,46.4076,5.18493,-8.49253,51.6088,7.12502,17.4349,80.8469,-2.11176,4.97315,26.1484,31.2948,-24.2455,-15.8779,-0.529893,-24.3087,-5.71406,-17.1348,53.5297,-12.8311,3.15436,-10.801
-0.196168,18.1084,48.1307,177.306,5.87558,-177.051,22.0715,-2.8645,2.64985,3.7669,-1.60042,5.47761,-8.12772,-0.337259,4.89999,-3.7841,-2.19007,-2.44716,29.034,3.04197,-9.05137,9.97834,1.37195,-2.28534,1.39149e-14,-3.18055e-15,-20.4502,-5.52313,-61.5893,90.0131,25.0766,-33.3614,18.1216,7.12502,-6.56306,-11.7567,1.39149e-14,-3.18055e-15,-45.8939,9.2644,82.1726,46.65,4.86419,-8.38714,51.8209,7.12502,17.5363,81.05,-2.06962,4.98439,26.2143,31.233,-24.3651,-15.8736,-1.53834,-24.9291,-5.51705,-16.9679,52.8291,-12.521,3.14318,-9.16968
-0.203051,18.1064,48.0838,177.533,6.29746,-176.885,22.2791,-2.60182,3.12439,4.17323,-1.09407,5.39706,-7.83634,-0.0822691,4.38289,-5.31816,-2.42402,-2.27175,29.2644,2.54293,-8.78006,10.3324,1.08037,-2.28245,2.78299e-15,5.40694e-14,-19.2472,-5.12244,-62.7697,86.7675,27.4023,-33.5755,18.597,7.12502,-6.76974,-11.2747,2.78299e-15,5.40694e-14,-44.6073,8.66972,82.6471,46.4091,4.86065,-8.25403,51.8459,7.12502,17.6644,81.0635,-2.05558,5.00412,26.2808,31.0817,-24.5013,-15.7042,-2.48875,-25.6108,-5.31072,-16.7236,52.0433,-12.3451,3.28632,-8.66796
-0.215842,18.1051,48.0268,177.668,6.76226,-176.835,22.4157,-2.39479,3.45507,4.48674,-0.717807,5.29144,-7.59101,0.108027,3.96082,-6.29697,-2.51099,-2.09932,29.3819,2.2571,-8.51876,10.5495,0.9247,-2.26011,4.73108e-14,0,-18.2288,-4.35557,-63.7846,83.4189,29.2817,-33.4287,19.193,7.12502,-6.62809,-10.6833,4.73108e-14,0,-43.6769,8.23588,82.9901,46.2044,4.94529,-8.42996,51.9808,7.12502,17.4951,81.2135,-1.90131,5.00939,26.1885,30.8558,-24.575,-15.3676,-3.07906,-26.0967,-5.1278,-16.637,51.1621,-12.2201,3.63397,-7.41257
-0.2349,18.1094,47.9497,177.815,7.35217,-176.842,22.2512,-2.42068,3.47975,4.26195,-0.785481,5.33349,-7.7485,0.0569476,4.01581,-4.78914,-2.36821,-2.45266,28.8645,2.46257,-8.51903,10.0722,1.06218,-2.1585,-1.59028e-14,5.725e-14,-17.7585,-2.16501,-64.7444,79.9939,30.7595,-32.607,19.7423,7.12502,-5.83482,-10.1574,-1.59028e-14,5.725e-14,-44.6236,8.80438,82.9602,46.2948,4.90116,-8.44024,52.0004,7.12502,17.4852,81.234,-1.64248,5.14154,26.0072,30.5259,-24.6329,-14.9803,-3.91581,-26.4684,-5.01598,-16.6157,50.2017,-12.2025,4.09921,-5.82007
-0.239536,18.1066,47.8999,177.968,7.49465,-176.751,22.4718,-2.4661,3.52321,4.18497,-0.805283,5.39922,-7.94878,0.0485194,4.08075,-4.31196,-2.37585,-2.7203,28.5828,2.37629,-8.35893,9.87177,1.02683,-2.05815,-1.59028e-14,-2.54444e-14,-16.8271,-0.833672,-65.7016,76.3863,32.0059,-31.4789,20.1948,7.12502,-4.74561,-9.73201,-1.59028e-14,-2.54444e-14,-44.803,8.93476,83.0722,46.1793,4.88782,-8.51991,51.8553,7.12502,17.4085,81.0957,-1.48024,5.04752,26.0421,30.2601,-24.604,-14.9689,-5.22939,-27.0468,-5.17345,-16.3964,49.1911,-11.9648,4.36833,-3.74204
-0.249038,18.1151,47.8312,178.151,8.0917,-176.598,22.4488,-2.29877,3.60553,4.34415,-0.539187,5.50517,-7.77411,0.1872,4.06677,-4.38747,-2.40653,-2.82513,28.4057,2.28388,-8.34525,9.81816,0.962261,-2.04329,-5.1684e-15,-3.81667e-14,-15.633,0.100754,-66.4358,72.7633,32.463,-30.2256,20.5684,7.12502,-3.53535,-9.38202,-5.1684e-15,-3.81667e-14,-44.5189,8.8446,83.4361,46.1856,5.23465,-8.59474,51.8648,7.12502,17.3365,81.1116,-1.31221,5.29999,26.0945,30.001,-24.601,-14.693,-5.6958,-27.492,-5.02396,-16.1066,48.1237,-11.8333,4.87245,-2.15662
-0.248648,18.1064,47.797,178.178,8.11382,-176.435,23.1873,-2.30908,3.37235,4.15725,-0.484436,5.82144,-8.36648,0.235537,4.57015,-3.71251,-2.40518,-3.25186,27.9802,2.30327,-8.44901,9.54121,0.954915,-1.99491,-7.95139e-15,-5.08889e-14,-14.7896,1.36027,-66.9572,69.1711,32.8191,-29.6057,20.1423,7.12502,-2.93668,-9.81721,-7.95139e-15,-5.08889e-14,-44.7778,9.25958,83.7304,46.0623,5.2612,-8.49375,51.7419,7.12502,17.4337,80.9801,-1.11196,5.09822,26.2297,29.8577,-24.7299,-14.4936,-6.39595,-27.9661,-5.04226,-15.7701,47.0055,-11.4274,4.96306,-3.51355
-0.255666,18.0977,47.7515,178.286,8.24576,-176.288,24.046,-1.89339,3.77717,4.63445,0.303258,5.7796,-8.33123,0.646234,4.05701,-6.47126,-2.7653,-2.48726,28.5661,1.69117,-8.49125,10.2559,0.58373,-2.23529,-1.98785e-14,0,-13.1314,0.0586284,-67.3102,65.5489,33.3347,-29.0566,19.1918,7.12502,-2.40641,-10.7743,-1.98785e-14,0,-42.7927,7.87777,84.5463,45.5575,5.43398,-8.67107,51.3966,7.12502,17.263,80.6498,-0.996075,4.75801,26.2406,29.7029,-24.7738,-13.97,-6.59006,-28.3953,-5.05634,-15.4793,45.7972,-10.9029,5.23922,-2.15706
-0.266195,18.0895,47.6857,178.431,8.59201,-176.282,23.5899,-1.81635,4.05692,5.01982,0.429877,5.62927,-7.67094,0.714995,3.6681,-6.51521,-2.75714,-2.33361,28.1238,1.48889,-8.36193,10.0868,0.494689,-2.23292,3.61788e-14,1.00187e-13,-11.6241,-0.132167,-68.1668,61.8777,33.6929,-27.6192,18.6865,7.12502,-1.0181,-11.2908,3.61788e-14,1.00187e-13,-42.271,7.42143,84.6659,45.6099,5.49397,-8.36456,51.301,7.12502,17.558,80.5281,-0.877182,4.7034,26.0953,29.5628,-24.6977,-13.522,-6.02981,-28.6701,-5.04709,-15.3214,44.5069,-10.578,5.59839,-0.0959707
-0.280908,18.0845,47.6014,178.426,9.11902,-176.278,23.5689,-1.62032,4.20862,5.29767,0.742939,5.61495,-7.36415,0.881646,3.46457,-6.57064,-2.85421,-2.40708,27.8087,1.25144,-8.30434,9.97176,0.368409,-2.22112,-1.47101e-14,-4.6118e-14,-10.1863,-0.503467,-68.7253,58.1392,33.6938,-25.5798,18.2808,7.12502,0.951623,-11.6968,-1.47101e-14,-4.6118e-14,-41.7478,6.97781,85.0403,45.3321,5.51008,-8.56076,51.0252,7.12502,17.3692,80.2691,-0.505097,4.80089,25.9342,29.3644,-24.5721,-13.0397,-5.87372,-28.6859,-5.03653,-15.1757,43.1791,-10.3665,6.05785,1.79932
-0.295749,18.0761,47.5227,178.471,9.52281,-176.245,23.7425,-1.46422,4.35524,5.46979,1.02754,5.65273,-7.27318,1.03305,3.33641,-6.49295,-2.94686,-2.49047,27.4323,1.05861,-8.3704,9.81288,0.259249,-2.24338,4.45278e-14,1.20861e-13,-8.87389,-0.922355,-69.197,54.518,33.4423,-23.8317,17.55,7.12502,2.63991,-12.4134,4.45278e-14,1.20861e-13,-41.1443,6.68464,85.3717,44.8928,5.22433,-8.39137,50.9353,7.12502,17.5322,80.1648,-0.138494,4.88078,25.8167,29.0576,-24.3636,-12.5499,-6.10918,-28.837,-5.02709,-14.9892,41.8284,-9.95731,6.50434,3.6912
-0.302313,18.0675,47.4586,178.739,9.62472,-176.002,23.8875,-1.49968,4.42603,5.34878,1.05449,5.90302,-7.48786,1.04932,3.56926,-5.85887,-2.92917,-2.86325,27.0433,1.12624,-8.49657,9.56,0.274953,-2.20207,-1.03368e-14,-1.90833e-14,-7.78733,-0.803185,-69.6429,50.9683,32.7406,-22.1486,16.2571,7.12502,4.26527,-13.68,-1.03368e-14,-1.90833e-14,-41.2528,6.88846,85.5854,44.846,4.89945,-8.02122,51.0843,7.12502,17.8884,80.2815,-0.0693004,4.75882,25.9525,28.8074,-24.1685,-12.0936,-5.78062,-29.3387,-5.05911,-14.509,40.5251,-9.38942,6.75327,5.49943
-0.320936,18.0734,47.3535,178.87,10.33,-176.001,23.9508,-1.04381,4.67173,5.79192,1.74511,5.83953,-7.04709,1.4097,3.14454,-7.55208,-3.2044,-2.38558,27.4707,0.723145,-8.6334,10.0196,0.0322698,-2.40556,-4.37326e-15,-4.29375e-14,-6.21128,-2.52087,-70.0659,47.6362,31.7919,-20.3208,14.597,7.12502,6.03014,-15.2971,-4.37326e-15,-4.29375e-14,-40.1218,5.9089,86.0582,44.7043,4.49158,-7.65255,50.8854,7.12502,18.2431,80.0499,0.244204,4.9851,25.723,28.5101,-23.9772,-11.5385,-5.77955,-29.4053,-5.01577,-14.3025,39.2171,-9.13594,7.55577,6.99258
-0.308002,18.0441,47.3397,178.91,9.09307,-175.815,25.1506,-1.36619,4.58903,5.40578,1.51123,6.18196,-8.09856,1.30447,3.656,-7.38452,-3.254,-2.42769,27.4896,0.771591,-8.89053,9.99917,0.0437819,-2.48069,1.19271e-14,5.40694e-14,-5.55256,-3.09644,-70.3724,44.5322,30.1647,-18.4132,12.3761,7.12502,7.87157,-17.4574,1.19271e-14,5.40694e-14,-40.3193,5.87655,86.2715,44.5696,3.98747,-7.4369,50.1675,7.12502,18.4506,79.3124,0.489283,4.20345,26.0722,28.2542,-23.5976,-11.8333,-4.69323,-30.1219,-5.69251,-13.8932,37.9464,-8.08484,7.27768,8.07844
-0.324877,18.0452,47.2289,179.076,9.73915,-175.855,25.069,-0.982911,4.62645,5.47802,2.00242,6.17658,-7.99248,1.53709,3.47083,-7.31265,-3.46923,-2.35968,27.3422,0.446451,-8.98799,9.91579,-0.107283,-2.55655,-6.36111e-15,-3.81667e-14,-4.88681,-4.4511,-70.8039,41.7207,27.7794,-16.3724,8.16403,7.12502,9.84088,-21.586,-6.36111e-15,-3.81667e-14,-40.1444,5.63966,86.3602,44.4509,3.28246,-7.00536,50.1696,7.12502,18.8657,79.2748,0.791205,4.39564,25.8267,27.9235,-23.2261,-11.3015,-4.68195,-30.1734,-5.68389,-13.6958,36.6176,-7.97438,7.80621,11.3941
-0.338366,18.0425,47.1175,179.284,10.3214,-175.712,24.7475,-0.712033,4.85663,5.65228,2.38492,6.17945,-7.63911,1.72577,3.22042,-7.16938,-3.69996,-2.52133,27.2334,0.0487468,-8.76503,9.83327,-0.284805,-2.48674,-7.95139e-16,9.54166e-15,-4.01546,-6.32274,-71.436,39.0097,24.5831,-14.5328,4.03292,7.12502,11.6153,-25.6252,-7.95139e-16,9.54166e-15,-39.8043,5.46706,86.329,44.3276,2.80784,-6.6869,50.0006,7.12502,19.1719,79.0757,1.01954,4.65417,25.81,27.6998,-23.0671,-10.7559,-4.53862,-30.2503,-5.58909,-13.2989,35.2967,-7.70168,8.24055,15.2309
-0.350086,18.0382,47.0081,179.391,10.6579,-175.633,24.8986,-0.558334,4.71828,5.6277,2.60538,6.4082,-7.76779,1.84083,3.48507,-6.92163,-3.82029,-2.89777,27.1035,-0.0385609,-8.83912,9.74406,-0.352712,-2.44907,-2.22639e-14,-1.59028e-14,-3.26806,-8.28532,-71.8354,35.8655,20.6486,-12.822,4.58716,7.12502,13.2648,-24.9707,-2.22639e-14,-1.59028e-14,-39.9799,5.95843,86.4061,44.3706,2.38602,-6.53967,49.5056,7.12502,19.3135,78.5665,1.40818,4.79903,25.7531,27.3982,-23.0143,-10.3716,-4.11861,-30.2522,-5.73805,-12.9837,33.9111,-7.44768,8.89857,17.3026
-0.344002,18.0177,46.9424,179.663,10.0079,-175.361,25.1469,-0.729369,4.85898,5.54395,2.50944,6.63329,-7.99296,1.80662,3.68524,-6.95032,-3.9111,-3.14703,27.037,-0.141398,-8.80667,9.72777,-0.422869,-2.40453,1.74931e-14,2.54444e-14,-2.45254,-11.377,-72.4199,32.6803,17.1537,-11.4117,3.97757,7.12502,14.6239,-25.4868,1.74931e-14,2.54444e-14,-39.963,6.33644,86.2505,44.5417,2.10449,-6.31093,49.3306,7.12502,19.5334,78.3694,1.58554,4.5367,26.1515,27.0987,-22.9369,-10.7208,-3.81063,-30.7932,-6.13587,-12.4216,32.5578,-6.84552,8.94444,20.2777
-0.345536,18.0088,46.8485,179.966,9.77975,-175.338,25.2752,-0.495834,4.97429,5.74681,2.88795,6.63877,-7.84262,2.00641,3.50121,-8.69359,-4.23932,-2.90327,27.7315,-0.5929,-8.66215,10.2985,-0.678243,-2.49652,-3.18055e-15,-1.90833e-14,-1.5052,-15.5728,-72.9691,30.0912,13.452,-11.7052,2.80644,7.12502,14.3411,-26.6782,-3.18055e-15,-1.90833e-14,-39.0216,5.75405,86.2968,44.4457,2.11852,-6.37033,49.5572,7.12502,19.4763,78.6018,1.78114,4.50938,26.188,26.7924,-22.946,-10.9142,-3.70818,-31.1343,-6.44868,-12.1223,31.1741,-6.61769,9.37768,22.1229
-0.348357,17.9996,46.7439,180.118,9.7547,-175.132,25.6876,-0.313899,5.01898,5.67903,3.23055,6.83402,-8.15238,2.17682,3.57991,-9.03461,-4.48264,-2.99789,28.0273,-0.849195,-8.65811,10.4688,-0.812846,-2.52229,1.59028e-14,5.08889e-14,-1.09633,-19.5063,-73.2411,27.5065,10.0971,-14.1114,1.13924,7.12502,12.0217,-28.4955,1.59028e-14,5.08889e-14,-38.965,5.76331,86.3143,44.3869,2.25382,-6.79468,49.7848,7.12502,19.0683,78.8701,2.22581,4.76038,26.4553,26.4173,-22.9116,-11.1428,-2.88051,-31.2082,-6.61077,-11.6581,29.8538,-6.58909,9.7367,24.1423
-0.352732,17.9937,46.6325,180.355,9.56981,-175.182,25.6075,-0.247849,5.01726,5.68944,3.31947,6.88422,-8.10674,2.22313,3.60893,-8.86943,-4.65149,-3.25448,27.7857,-1.12581,-8.54074,10.3434,-0.951841,-2.45786,-2.3059e-14,-1.11319e-13,-0.532392,-24.7321,-73.7032,24.8801,9.06654,-15.7103,1.08126,7.12502,10.4797,-28.6375,-2.3059e-14,-1.11319e-13,-38.9891,5.95236,86.1211,44.5519,2.50943,-7.10445,49.5505,7.12502,18.7704,78.6649,2.60496,4.78471,26.3894,25.9541,-22.9151,-11.3576,-2.77849,-31.4413,-6.88301,-11.4748,28.5618,-6.60881,10.0891,26.4303
-0.356653,17.9867,46.5146,180.617,9.33378,-175.179,25.2806,-0.210023,5.15445,5.79942,3.37062,6.85333,-7.80997,2.25406,3.48283,-8.88782,-4.8221,-3.3639,27.6057,-1.46795,-8.32411,10.2717,-1.10903,-2.39732,1.82882e-14,2.70347e-14,-0.139016,-28.5122,-74.2866,23.3824,6.09113,-16.8627,0.471062,7.12502,9.36778,-29.3008,1.82882e-14,2.70347e-14,-38.8206,6.07024,85.78,44.6085,2.76568,-7.43568,49.4887,7.12502,18.4518,78.6336,3.03898,4.6997,26.3608,25.3915,-22.939,-11.5509,-3.19222,-31.7072,-7.13081,-11.2654,27.3879,-6.57886,10.465,27.0632
-0.359773,17.977,46.3975,180.85,9.15566,-174.929,25.3608,-0.149567,5.41295,5.73159,3.54928,6.93171,-7.92559,2.33687,3.36422,-8.79699,-5.00828,-3.44724,27.5587,-1.7673,-8.19321,10.2295,-1.24,-2.36645,6.36111e-15,3.18055e-15,-0.154278,-33.104,-74.5531,21.9807,4.15839,-17.4001,0.943319,7.12502,8.84929,-28.8511,6.36111e-15,3.18055e-15,-38.9341,6.43801,85.3403,44.6336,3.14685,-7.72724,49.2595,7.12502,18.1713,78.4307,3.5413,4.72477,26.6367,24.8193,-22.891,-11.8664,-3.82697,-31.8522,-7.38064,-10.7496,26.2784,-6.72306,10.8918,28.8582
-0.361771,17.968,46.276,181.089,9.00688,-174.724,25.6834,0.0251142,5.41399,5.53088,3.85129,7.13179,-8.34094,2.47485,3.48478,-8.57169,-5.2179,-3.62437,27.5395,-2.03248,-8.14456,10.1763,-1.36037,-2.34098,-4.85035e-14,-7.79236e-14,-0.837925,-38.0338,-74.0019,21.0059,4.03924,-17.4673,0.656421,7.12502,8.78442,-29.1408,-4.85035e-14,-7.79236e-14,-39.1997,7.02218,84.9919,44.6115,3.77534,-7.96466,48.7482,7.12502,17.9428,77.9405,4.01206,4.73203,26.8679,24.2847,-22.7457,-12.2743,-5.11906,-31.995,-7.59563,-10.2876,25.2339,-6.42428,11.5625,27.9326
-0.368282,17.958,46.1482,181.434,8.72968,-174.625,25.957,0.179614,5.41032,5.28811,4.10633,7.27826,-8.77586,2.58363,3.56294,-8.61332,-5.45934,-3.66819,27.5814,-2.31092,-8.26226,10.1917,-1.50133,-2.40743,2.22639e-14,6.36111e-14,-2.07414,-40.8667,-73.0974,20.8574,1.92378,-18.9402,-0.398159,7.12502,7.36286,-30.25,2.22639e-14,6.36111e-14,-39.4822,7.42744,84.6432,44.7626,4.92244,-8.15281,48.4588,7.12502,17.7618,77.6676,4.35896,4.64936,26.9318,23.8019,-22.7763,-12.4758,-4.8248,-32.3383,-7.89258,-9.94558,24.2781,-6.17762,12.2749,26.6819
-0.372755,17.9466,46.0182,181.712,8.36873,-174.837,25.4526,0.170566,5.5008,5.55026,4.02154,7.03942,-8.19365,2.55245,3.28054,-9.04142,-5.54277,-3.44958,27.3558,-2.62891,-8.0543,10.175,-1.644,-2.415,2.94201e-14,0,-2.34845,-43.4646,-73.3065,20.989,-0.95912,-20.384,-1.26658,7.12502,5.96909,-31.1625,2.94201e-14,0,-39.2072,7.74729,83.928,45.1247,5.78191,-8.66195,48.3801,7.12502,17.2718,77.6325,4.76885,4.50168,26.6927,23.2512,-22.567,-12.7686,-4.90446,-32.6603,-8.15134,-10.0044,23.4915,-5.95326,12.8623,25.9448
-0.377688,17.9344,45.8839,182.049,7.98116,-174.881,25.152,0.228788,5.5077,5.5783,4.06183,7.02791,-8.00787,2.5744,3.25718,-9.00223,-5.6993,-3.39155,27.1078,-2.94388,-7.99729,10.0642,-1.78606,-2.43209,1.19271e-14,-7.79236e-14,-3.45989,-45.1779,-72.7217,21.6366,-4.25891,-21.5635,-1.90419,7.12502,4.83029,-31.8291,1.19271e-14,-7.79236e-14,-39.4447,8.0319,83.4651,45.5784,6.73559,-8.94076,50.028,7.12502,17.0035,79.3038,5.22315,4.31516,26.6411,22.5929,-22.4269,-13.0398,-5.35641,-33.0184,-8.4753,-9.85164,22.8863,-5.71966,13.4429,25.1279
-0.385964,17.9297,45.7326,182.271,7.89531,-174.725,24.7554,-0.543533,4.01824,4.51245,2.74459,8.10168,-9.07409,1.95769,5.77383,-3.45608,-4.67705,-6.29877,25.307,-1.25495,-7.98367,8.51979,-0.974928,-1.5917,-3.49861e-14,-8.74653e-14,-6.86875,-39.9881,-70.2666,22.4131,-9.08709,-22.8262,-2.62657,7.12502,3.61091,-32.5757,-3.49861e-14,-8.74653e-14,-44.1186,12.6352,82.1569,46.4305,7.73442,-9.40875,49.5693,7.12502,16.5529,78.8833,5.82806,4.30177,26.7678,22.0687,-22.2247,-13.2738,-6.17317,-33.0885,-8.70399,-9.49482,22.3566,-5.66587,14.1772,23.5958
-0.402566,17.9288,45.5544,182.341,8.24182,-174.609,24.8054,0.502082,5.75945,5.99214,4.48404,7.07015,-7.36834,2.81599,3.03951,-9.65292,-5.90096,-3.75121,26.8507,-3.37014,-7.55085,10.1052,-2.01818,-2.2793,9.93923e-14,1.79701e-13,-5.90784,-46.2285,-71.3144,23.94,-12.7334,-23.5388,-2.94923,7.12502,2.92275,-32.9089,9.93923e-14,1.79701e-13,-39.2883,9.40873,82.3378,45.3953,8.75107,-9.65283,50.6391,7.12502,16.3179,79.9726,6.77545,4.55315,26.7361,21.3872,-22.0909,-13.0464,-6.3033,-32.8623,-9.21352,-9.05303,22.0843,-6.16749,15.4855,22.9899
-0.400464,17.907,45.4261,182.987,7.58273,-174.563,24.4417,0.437104,5.61702,5.81588,4.33172,7.20926,-7.39564,2.73653,3.33034,-9.57181,-5.91423,-3.92404,26.6568,-3.39319,-7.52729,10.0257,-2.04332,-2.23723,-4.53229e-14,-4.77083e-14,-7.57589,-45.9693,-70.428,25.6171,-17.2795,-23.9757,-3.26154,7.12502,2.50087,-33.2266,-4.53229e-14,-4.77083e-14,-39.5906,10.4424,81.6908,45.2065,9.67122,-10.1505,50.6251,7.12502,15.8387,79.9972,6.95904,4.44792,26.8728,20.727,-22.1342,-13.1408,-5.28237,-33.7635,-9.2378,-8.89955,21.9865,-5.76098,15.596,22.7472
-0.42444,17.9046,45.2301,183.099,8.11513,-174.763,24.1116,0.740486,5.42378,5.98962,4.60199,7.08669,-7.04239,2.8702,3.23462,-9.63569,-5.92396,-3.94935,26.4527,-3.47214,-7.44721,9.96389,-2.08357,-2.2111,-2.38542e-15,-1.74931e-14,-9.37611,-45.8242,-69.5507,27.5954,-21.5348,-24.321,-3.76011,7.12502,2.16739,-33.7288,-2.38542e-15,-1.74931e-14,-39.9196,11.0844,81.0048,45.2042,10.7228,-10.817,50.3815,7.12502,15.1967,79.8034,7.65094,4.93712,26.4431,20.4096,-22.0431,-12.891,-5.944,-33.4368,-9.54144,-8.91218,21.8818,-6.32863,16.8881,22.0183
-0.43977,17.8916,45.0664,183.469,8.00721,-174.767,23.8874,0.868976,5.43558,5.93659,4.72717,7.04746,-6.98449,2.92149,3.15432,-9.64848,-5.99021,-4.13519,26.2228,-3.67692,-7.12945,9.89089,-2.17472,-2.08774,-1.43125e-14,-2.38542e-14,-11.4258,-45.5669,-68.5402,29.8155,-25.6173,-24.6934,-4.39115,7.12502,1.80765,-34.3632,-1.43125e-14,-2.38542e-14,-40.3954,11.5581,80.3157,45.2359,11.4453,-11.3024,49.7962,7.12502,14.7292,79.2529,7.84881,5.17823,26.4047,20.3482,-21.8595,-13.238,-7.46209,-33.6363,-9.89574,-8.75182,21.8569,-6.43958,17.8309,21.032
-0.42937,17.862,44.9616,183.876,6.7447,-174.906,24.2582,0.680248,5.24959,5.54569,4.4672,7.05128,-7.61451,2.76838,3.32606,-9.47406,-6.06519,-4.07662,26.0178,-3.87916,-7.00815,9.77807,-2.25157,-2.06695,-1.74931e-14,-9.38264e-14,-13.7699,-45.3248,-67.4293,32.1231,-29.0392,-24.7442,-4.92815,7.12502,1.75861,-34.9006,-1.74931e-14,-9.38264e-14,-40.9632,11.9794,79.5261,45.1088,12.0371,-11.8294,49.5673,7.12502,14.2214,79.0604,7.92272,4.87763,26.6076,20.2353,-21.9238,-13.8866,-6.3857,-34.4444,-9.56253,-9.18967,22.1307,-5.62228,16.9256,19.5594
-0.448691,17.8517,44.7896,183.985,6.70424,-174.995,24.3824,0.726784,5.12171,5.49738,4.49718,7.02009,-7.73886,2.77699,3.35116,-9.38804,-6.05409,-4.26507,25.8193,-3.90609,-6.86213,9.70036,-2.2694,-1.98083,3.33958e-14,6.04305e-14,-15.7634,-44.8721,-66.5172,34.3927,-31.761,-24.9895,-5.4299,7.12502,1.52174,-35.4042,3.33958e-14,6.04305e-14,-41.6538,12.6224,78.8431,44.9781,12.4078,-12.3666,49.5759,7.12502,13.7037,79.1047,8.35595,5.02042,26.4462,20.2818,-21.6979,-13.8573,-6.58973,-34.4869,-9.41752,-9.46928,22.7061,-5.62231,17.0533,18.0012
-0.469836,17.8398,44.6119,184.086,6.85594,-174.863,24.4373,0.762586,5.13095,5.61724,4.56702,7.03806,-7.63748,2.82216,3.34338,-9.57505,-5.98517,-4.39189,25.5296,-3.85016,-6.84008,9.63907,-2.26903,-1.94637,3.97569e-15,-2.54444e-14,-17.2877,-44.1933,-65.9386,36.6058,-34.0422,-25.5426,-5.88174,7.12502,0.987556,-35.8592,3.97569e-15,-2.54444e-14,-42.1,13.3392,78.2115,44.8267,12.8515,-13.0179,49.4868,7.12502,13.076,79.0569,8.82156,5.43124,26.524,20.3769,-21.3363,-13.7869,-7.40224,-34.5036,-9.02605,-9.63811,23.6142,-5.54559,17.2226,16.0568
-0.480191,17.8335,44.4574,184.422,6.36534,-174.708,24.1597,0.467377,4.72954,4.86617,4.05731,7.40003,-8.36636,2.54088,4.14148,-6.14509,-5.67939,-5.38374,24.3201,-3.46183,-6.71714,8.61737,-2.02262,-1.56656,-4.92986e-14,-1.44715e-13,-20.6199,-41.4029,-64.2459,39.2094,-36.3224,-25.8009,-6.18089,7.12502,0.738015,-36.1594,-4.92986e-14,-1.44715e-13,-44.8403,14.6159,77.0674,44.8954,13.2893,-13.4705,49.4095,7.12502,12.6396,79.007,8.85502,5.34452,26.7457,20.7618,-21.1737,-13.8769,-7.55953,-35.1618,-8.35063,-9.96083,24.7394,-4.64968,16.8235,15.5343
-0.500319,17.8385,44.2865,184.56,5.8344,-174.721,24.278,0.514333,5.19611,5.40941,4.25769,7.12186,-7.77944,2.66591,3.49753,-8.52916,-5.88267,-4.77483,24.6446,-3.91097,-6.44872,9.1483,-2.27212,-1.7021,-5.00937e-14,-1.17681e-13,-21.3893,-42.3123,-64.3949,41.7226,-37.5162,-25.5195,-5.88131,7.12502,1.00985,-35.8587,-5.00937e-14,-1.17681e-13,-43.4709,14.4652,76.8564,44.389,13.5939,-13.8356,49.7183,7.12502,12.2876,79.3373,9.20923,4.97943,26.7193,20.9184,-20.4904,-14.0541,-9.33403,-35.7394,-7.75636,-10.5993,26.1763,-1.99901,16.7733,5.11562
-0.496701,17.8127,44.1603,184.964,4.52643,-175.02,24.4855,0.234385,4.84816,5.0807,3.8183,7.14282,-8.25855,2.44011,3.85242,-8.35854,-5.80891,-4.82212,24.4167,-3.88043,-6.322,9.04066,-2.24936,-1.63828,1.11319e-14,1.90833e-14,-23.4463,-41.3393,-63.6431,44.2984,-38.4621,-25.0775,-5.70107,7.12502,1.43674,-35.676,1.11319e-14,1.90833e-14,-44.14,15.0014,76.1503,44.0368,13.6336,-14.1258,49.9856,7.12502,12.0078,79.6211,8.8924,4.28798,26.6744,21.5392,-19.8079,-14.5988,-10.5891,-36.6829,-6.6419,-12.0002,27.4963,0.722648,14.9801,-6.66968
-0.547288,17.8494,43.9046,184.665,5.71268,-175.17,24.3766,0.671171,4.73935,5.45635,4.29803,6.89137,-7.78784,2.67823,3.48749,-8.54786,-5.817,-4.65693,24.1642,-4.01263,-6.22469,8.98071,-2.30595,-1.64758,1.43125e-14,3.65764e-14,-25.4526,-40.5911,-62.9448,46.9596,-39.1385,-25.1797,-5.39423,7.12502,1.33801,-35.3698,1.43125e-14,3.65764e-14,-44.4025,15.3095,75.5764,43.4143,13.5231,-14.4362,50.5962,7.12502,11.7085,80.249,9.58462,4.88787,25.9622,22.2075,-19.2137,-13.7388,-11.433,-35.9006,-6.50242,-12.2233,28.7322,-0.842703,16.3951,-0.648195
-0.545775,17.8497,43.7722,185.05,4.42125,-175.301,24.5978,0.479295,4.61831,5.33571,4.05961,6.91967,-8.03745,2.56594,3.6559,-8.97473,-5.87543,-4.49639,23.8971,-4.24365,-6.04205,8.96094,-2.41318,-1.64533,-3.49861e-14,-7.63333e-14,-27.1663,-40.3298,-62.3719,49.5841,-39.4497,-25.1783,-5.03366,7.12502,1.33936,-35.0092,-3.49861e-14,-7.63333e-14,-44.3972,15.3472,75.2777,42.9534,13.5169,-14.7755,51.0111,7.12502,11.3813,80.6822,9.02651,4.13743,26.0674,23.3371,-18.4889,-14.2207,-11.9033,-36.733,-6.15265,-12.8007,29.6436,-0.901313,15.1715,0.220813
-0.570339,17.8637,43.5821,184.878,4.25757,-175.587,24.7547,0.338312,3.99136,5.02081,3.71332,7.03305,-8.49729,2.39048,4.25173,-6.813,-5.60203,-5.12181,22.8963,-3.95458,-5.87795,8.24805,-2.24043,-1.37291,-3.18055e-14,-4.45278e-14,-29.653,-38.5338,-61.3519,52.3233,-39.7652,-24.7522,-4.9064,7.12502,1.75087,-34.879,-3.18055e-14,-4.45278e-14,-46.368,16.1137,74.473,42.6916,13.5847,-15.1129,50.9492,7.12502,11.0559,80.638,9.23252,3.85153,25.5911,24.3194,-17.5077,-13.9337,-11.8779,-36.4276,-5.7977,-13.5528,30.4697,-1.66376,14.6122,0.0217451
-0.59313,17.872,43.3961,184.813,3.78455,-175.909,24.8218,0.325777,3.78503,5.20773,3.65456,6.95363,-8.32477,2.37887,4.29762,-7.04008,-5.62028,-5.16977,22.5874,-4.10162,-5.62372,8.18983,-2.31161,-1.29671,-7.15625e-15,-6.36111e-15,-31.3262,-38.4291,-60.7171,55.1233,-39.8921,-24.7797,-4.28676,7.12502,1.72429,-34.2595,-7.15625e-15,-6.36111e-15,-46.3163,16.3861,74.1997,41.8759,13.3827,-15.4516,51.142,7.12502,10.7291,80.848,8.98917,3.34294,25.1224,25.8963,-16.7279,-13.5915,-11.8991,-36.1561,-5.66238,-14.2977,30.9481,-2.26682,13.5893,1.78468
-0.627809,17.8786,43.1808,184.95,3.76715,-176.114,24.2716,0.41605,3.6262,5.42171,3.65906,6.85138,-7.80269,2.38809,4.28133,-6.79707,-5.6001,-5.16604,22.0083,-4.25577,-5.36174,7.95355,-2.36887,-1.20901,-6.36111e-15,-1.27222e-14,-33.1544,-38.2533,-60.0922,58.0429,-39.8975,-25.8051,-3.68446,7.12502,0.733978,-33.6629,-6.36111e-15,-1.27222e-14,-46.5056,16.5756,73.8842,41.2764,13.2038,-15.6152,51.6273,7.12502,10.5713,81.3415,8.49235,2.95281,24.5204,27.6295,-15.6226,-12.9637,-11.3861,-35.9289,-5.2521,-14.9523,31.269,-2.59126,12.3966,3.44154
-0.652121,17.884,42.9832,184.935,3.56298,-176.344,24.2841,0.483807,3.28782,5.48505,3.65368,6.80329,-7.75239,2.39162,4.42399,-6.62895,-5.59735,-4.99726,21.602,-4.37311,-5.30496,7.78048,-2.41111,-1.21704,2.54444e-14,6.67916e-14,-35.1436,-38.1356,-59.3183,60.8323,-39.7063,-28.3254,-3.51995,7.12502,-1.70016,-33.4929,2.54444e-14,6.67916e-14,-46.7944,16.5572,73.6105,40.6715,13.0044,-15.7421,51.9188,7.12502,10.449,81.6391,7.90755,2.51199,24.0314,29.6518,-14.5189,-12.5426,-9.89316,-35.5893,-4.66118,-15.7367,31.5069,-2.35918,10.761,4.77798
-0.672875,17.9053,42.7862,184.963,3.33627,-176.701,24.4986,0.613328,2.81072,5.40045,3.68816,6.72236,-7.97797,2.4038,4.59513,-6.79736,-5.58629,-4.77413,21.6187,-4.39689,-5.30058,7.80743,-2.41258,-1.25927,-3.18055e-14,-1.43125e-14,-37.3484,-38.337,-58.2573,63.6002,-39.6968,-31.4859,-4.15124,7.12502,-4.75232,-34.0779,-3.18055e-14,-1.43125e-14,-47.1278,16.4873,73.3615,39.9823,12.4732,-15.5499,51.567,7.12502,10.6344,81.2779,7.09538,1.92998,23.3553,31.8681,-12.9618,-12.0717,-7.67784,-35.2149,-4.15487,-16.5892,31.7778,-2.42023,9.58124,5.76409
-0.693794,17.9265,42.5912,185.163,3.25401,-176.75,24.294,0.726823,2.64477,5.43818,3.75534,6.64627,-7.83807,2.43321,4.58857,-6.99362,-5.56169,-4.59362,21.5989,-4.44514,-5.13962,7.83196,-2.42057,-1.24616,-3.4191e-14,-6.20208e-14,-39.439,-39.1446,-57.1941,66.3,-40.0797,-32.9537,-4.20999,7.12502,-6.16953,-34.1002,-3.4191e-14,-6.20208e-14,-47.4356,16.3931,73.0591,39.6778,12.1774,-15.2404,50.9969,7.12502,10.9329,80.6922,5.88961,1.52684,22.9895,34.2616,-10.6793,-11.8927,-3.61048,-34.9449,-3.71024,-16.9771,32.1055,-2.69217,9.25559,4.72351
-0.72472,17.9362,42.4055,185.513,3.41325,-176.714,23.8985,0.856098,2.48602,5.48506,3.83163,6.60999,-7.59284,2.46588,4.6243,-7.05043,-5.43235,-4.38913,21.4614,-4.34972,-5.06396,7.79017,-2.36138,-1.24596,1.59028e-15,-2.22639e-14,-41.5689,-39.8603,-55.9724,69.1647,-40.8799,-33.1291,-3.67294,7.12502,-6.33889,-33.5581,1.59028e-15,-2.22639e-14,-47.8537,16.4801,72.7746,39.4295,11.8976,-15.2553,50.493,7.12502,10.9185,80.1891,4.29362,1.23099,22.6259,36.7518,-7.77367,-11.7534,-1.22787,-34.8399,-3.35573,-17.1782,32.4811,-3.09764,9.40129,3.60767
-0.766304,17.9466,42.216,185.681,3.69728,-176.971,23.6114,1.0119,2.21493,5.61241,3.90227,6.42434,-7.30923,2.49432,4.55994,-7.46737,-5.22863,-3.78724,21.4629,-4.09759,-5.39613,7.83875,-2.2392,-1.44257,1.82882e-14,2.70347e-14,-43.6423,-41.2193,-54.3692,71.2381,-41.0689,-32.1733,-3.21637,7.12502,-5.41609,-33.1272,1.82882e-14,2.70347e-14,-47.9503,16.5536,72.4845,38.9628,11.6628,-14.7076,50.3311,7.12502,11.4467,79.9986,2.82453,0.883628,21.8691,39.249,-4.62998,-11.6252,-1.47115,-34.5101,-3.0928,-17.7096,32.8513,-3.73362,9.34293,4.55495
-0.808647,17.9597,42.0174,185.713,3.58769,-177.315,23.4185,1.00647,2.11836,5.71941,3.80965,6.15359,-7.06981,2.44157,4.34858,-7.95438,-5.13542,-3.34862,21.4805,-4.05718,-5.41524,7.91695,-2.21076,-1.53187,1.03368e-14,-1.74931e-14,-45.999,-42.4844,-52.6683,73.4696,-41.3273,-30.6244,-3.15217,7.12502,-3.92047,-33.0959,1.03368e-14,-1.74931e-14,-48.0404,16.5152,72.1374,38.5832,11.4511,-14.4605,49.6743,7.12502,11.685,79.3284,1.50152,0.297212,21.1222,41.8196,-1.93285,-11.6488,1.26537,-33.9859,-3.05145,-18.3889,33.1425,-4.27605,8.96687,5.1047
-0.823194,17.9722,41.8262,185.587,2.21276,-177.833,23.519,0.595771,1.94833,5.63617,3.21058,5.95706,-7.16639,2.14832,4.40488,-7.89013,-3.40978,-3.4635,21.4525,-4.71231,-4.59424,7.89539,-3.44578,-1.4327,-1.59028e-14,-4.77083e-14,-48.0844,-44.1521,-50.6487,74.4168,-40.9097,-28.5894,-2.78399,7.12502,-1.95517,-32.7548,-1.59028e-14,-4.77083e-14,-48.4886,16.2742,71.7409,38.44,11.1944,-14.2039,48.5837,7.12502,11.9325,78.2237,0.468899,-0.984432,20.6425,44.4094,0.278619,-11.9325,4.89726,-33.3803,-3.46387,-19.244,33.3361,-4.67679,7.84964,5.53757
-0.849552,17.9866,41.6388,185.52,1.65851,-178.476,23.6938,0.482755,1.52099,5.51406,2.89955,5.6631,-7.36888,1.98356,4.41732,-7.65462,-3.3854,-3.27899,21.112,-4.72425,-4.35562,7.73911,-3.39065,-1.36711,-1.59028e-14,-1.27222e-14,-50.0299,-45.0715,-49.0023,75.5843,-40.7086,-27.1288,-2.79354,7.12502,-0.544482,-32.7726,-1.59028e-14,-1.27222e-14,-49.0613,16.0562,71.33,38.3507,10.9665,-13.998,48.033,7.12502,12.131,77.6613,-0.871774,-1.68811,19.7968,47.0966,2.63865,-11.6453,12.8933,-32.5662,-3.40588,-20.2404,33.4198,-5.40855,7.06846,6.64043
-0.874363,18.0027,41.4543,185.574,1.10027,-178.707,23.6693,0.301352,1.38783,5.43832,2.59737,5.53247,-7.41537,1.83055,4.44107,-7.57095,-3.36386,-3.19073,20.9133,-4.72343,-4.13724,7.66064,-3.34745,-1.30085,5.56597e-15,4.77083e-15,-51.4619,-45.1974,-47.7703,76.8052,-40.8597,-25.9365,-2.70678,7.12502,0.607105,-32.6857,5.56597e-15,4.77083e-15,-49.6111,15.861,70.9661,38.3622,11.055,-13.5631,47.6576,7.12502,12.5503,77.2606,-2.41711,-2.24575,19.5057,49.7779,4.98542,-11.8816,16.9126,-31.8941,-3.28184,-20.7503,33.4324,-5.92241,6.23728,7.77574
-0.889277,18.0257,41.2793,185.589,0.890004,-178.918,23.7292,0.19817,0.936006,5.48936,2.35894,5.538,-7.3854,1.72554,4.78062,-7.77442,-4.764,-3.21585,20.6633,-3.98339,-4.37873,7.62841,-2.10969,-1.19262,3.4191e-14,7.4743e-14,-51.9844,-44.6739,-47.0526,77.8353,-40.7856,-24.6497,-2.52384,7.12502,1.84987,-32.4956,3.4191e-14,7.4743e-14,-50.2018,16.1835,70.6547,38.391,11.2157,-13.3309,46.8223,7.12502,12.7742,76.4115,-4.06239,-2.55033,19.2683,52.4764,6.54156,-12.1532,15.7999,-31.4496,-2.74273,-21.3174,33.3759,-5.92584,5.52438,4.58681
-0.905992,18.036,41.0978,185.315,0.324446,-179.284,24.0115,-0.178903,0.439824,5.66545,1.78982,5.51467,-7.29646,1.475,5.21324,-8.243,-4.43466,-3.50842,20.5133,-3.53677,-4.27357,7.67754,-1.93047,-1.08091,3.33958e-14,8.42847e-14,-51.7733,-43.9096,-46.8772,78.6798,-40.3237,-23.2269,-2.41172,7.12502,3.22402,-32.3671,3.33958e-14,8.42847e-14,-50.7154,16.9119,70.2649,38.385,11.2024,-13.0286,46.213,7.12502,13.0656,75.7837,-5.23713,-3.15642,18.927,55.0772,7.22649,-12.4681,15.8027,-30.4529,-2.74795,-21.96,33.2545,-6.20879,4.92049,3.23772
-0.921787,18.0476,40.9173,185.2,-0.138412,-179.734,24.0879,1.31589,0.741501,5.62832,0.915344,5.51164,-7.27662,-0.154511,5.45353,-8.52844,-4.20548,-3.70963,20.1946,-3.32465,-3.93532,7.63554,-1.83648,-0.922042,-4.77083e-15,-1.90833e-14,-51.8619,-43.322,-46.5384,79.5938,-39.9684,-21.8091,-2.07744,7.12502,4.59306,-32.0077,-4.77083e-15,-1.90833e-14,-50.9731,17.1486,70.0166,38.3408,11.2157,-12.9603,45.8833,7.12502,13.1315,75.4498,-6.57667,-3.77729,18.4759,57.6322,7.192,-12.7571,16.3924,-29.5485,-2.98136,-22.5967,33.0601,-6.52771,4.60406,2.65404
-0.938047,18.058,40.7461,185.111,-0.843014,-180.165,24.2388,1.00753,0.36754,5.61387,0.428912,5.37773,-7.33044,-0.374926,5.67182,-8.40358,-4.03474,-3.76902,19.8595,-3.18008,-3.73385,7.50717,-1.76084,-0.827646,2.38542e-14,1.59028e-15,-52.1321,-42.8096,-46.0367,80.4558,-39.3947,-20.1675,-1.80957,7.12502,6.1781,-31.6995,2.38542e-14,1.59028e-15,-51.4176,17.1761,69.7744,38.3557,11.2812,-13.0684,45.8302,7.12502,13.0273,75.4034,-7.91226,-4.5435,18.13,60.0892,6.26047,-13.1456,16.3351,-28.7128,-3.5148,-23.1627,32.8622,-6.82654,4.34148,1.97852
-0.960589,18.0669,40.584,185.165,-1.03116,-180.642,24.3149,0.93822,-0.162128,5.54307,0.236563,5.20888,-7.43492,-0.440452,5.85303,-8.21346,-3.87288,-3.65072,19.6017,-3.01384,-3.74422,7.38512,-1.6738,-0.829101,-4.77083e-15,5.08889e-14,-52.4092,-42.2886,-45.5331,81.3225,-38.6572,-18.9193,-1.47698,7.12502,7.38303,-31.3282,-4.77083e-15,5.08889e-14,-51.7283,16.9794,69.6816,38.368,11.3386,-12.9942,46.0854,7.12502,13.0988,75.654,-9.57868,-4.94921,17.6272,62.465,4.77215,-13.3569,14.8574,-28.0683,-3.79068,-23.8038,32.6917,-7.13146,4.36083,1.38567
-0.979673,18.0699,40.4135,185.095,-1.20862,-181.097,24.3093,0.888143,-0.688625,5.57616,0.0413375,5.08419,-7.37904,-0.521864,6.07752,-8.13581,-3.72163,-3.68396,19.4101,-2.84114,-3.68645,7.31024,-1.59053,-0.78646,-5.56597e-15,-3.18055e-15,-52.4753,-41.6035,-45.2004,82.3746,-37.9714,-17.992,-1.18868,7.12502,8.27808,-31.0065,-5.56597e-15,-3.18055e-15,-51.8487,16.9499,69.6166,38.2519,11.2329,-12.9219,46.4165,7.12502,13.1684,75.9806,-11.0387,-5.33008,17.1866,64.635,3.43073,-13.3688,14.5554,-27.2625,-3.967,-24.443,32.5488,-7.41498,4.37347,-0.188677
-0.992232,18.0751,40.2414,184.922,-1.49766,-181.348,24.3971,0.857655,-0.99,5.67473,-0.0954485,5.04057,-7.30108,-0.592604,6.24639,-8.26262,-3.61719,-3.59872,19.2939,-2.71508,-3.75336,7.29208,-1.53572,-0.812648,4.77083e-14,4.45278e-14,-52.4088,-41.0222,-44.9468,83.5773,-37.2351,-17.2087,-0.799311,7.12502,9.03399,-30.5859,4.77083e-14,4.45278e-14,-51.6601,16.6878,69.796,38.0545,11.0017,-12.7168,47.521,7.12502,13.3662,77.0723,-12.3358,-5.662,17.0987,66.5651,1.96472,-13.48,14.732,-26.3787,-4.14894,-24.8273,32.4079,-7.68026,4.29941,-1.42824
-1.00557,18.0848,40.0745,184.833,-1.91511,-181.408,24.5902,0.730658,-1.03407,5.68947,-0.281829,5.02579,-7.36212,-0.684178,6.31972,-8.55245,-3.49903,-3.294,19.3721,-2.5247,-4.07259,7.35926,-1.45597,-0.955767,1.03368e-14,2.38542e-14,-52.1401,-40.3758,-45.0191,84.9884,-36.525,-16.9501,-0.514779,7.12502,9.28353,-30.2904,1.03368e-14,2.38542e-14,-51.5624,16.339,69.9594,38.0647,10.8017,-12.3156,48.9708,7.12502,13.7529,78.4962,-13.7611,-6.10634,17.2546,68.268,0.530823,-13.6805,14.3506,-25.6233,-4.35316,-24.9749,32.2952,-7.94027,4.091,-2.52439
-1.02602,18.0888,39.9161,184.854,-2.23411,-181.82,24.7661,0.609964,-1.3896,5.61698,-0.51185,4.9352,-7.50541,-0.775378,6.50604,-8.3988,-3.36848,-3.3111,19.1098,-2.35378,-4.17306,7.24634,-1.38167,-0.965056,1.19271e-14,3.33958e-14,-51.6415,-39.7523,-45.183,86.3842,-35.5639,-16.9203,-0.265319,7.12502,9.31224,-30.0396,1.19271e-14,3.33958e-14,-51.5944,16.2346,70.0028,37.9576,10.5227,-12.3311,49.8083,7.12502,13.7379,79.3348,-15.3731,-6.56114,16.9106,69.8285,-0.408722,-13.8041,14.2747,-24.9708,-4.63573,-25.5421,32.1985,-8.18733,4.09374,-3.44483
-1.047,18.0904,39.7574,184.898,-2.20904,-182.104,24.6988,0.648505,-1.78041,5.64396,-0.558953,4.92667,-7.43348,-0.792459,6.73595,-8.27339,-3.21873,-3.42222,18.8508,-2.14919,-4.2271,7.14274,-1.29358,-0.941807,-1.43125e-14,-6.36111e-15,-50.8569,-39.3391,-45.4735,87.8358,-34.3673,-16.5317,-0.122891,7.12502,9.68714,-29.8801,-1.43125e-14,-6.36111e-15,-51.3074,16.3731,70.1033,37.6551,9.97605,-12.2905,50.245,7.12502,13.7771,79.7688,-17.0609,-6.57604,16.7261,71.1988,-1.30156,-13.651,14.0306,-24.375,-4.67085,-25.979,32.1332,-8.51311,4.22756,-4.25938
-1.07055,18.0912,39.5921,184.929,-2.01615,-182.281,24.4869,0.705886,-2.10974,5.70327,-0.569359,4.92747,-7.25625,-0.79879,6.92115,-8.06778,-3.11099,-3.47713,18.5917,-1.97923,-4.42479,7.02261,-1.22512,-0.976037,1.59028e-15,7.31528e-14,-49.9213,-38.7793,-45.9225,89.3054,-32.9459,-15.8621,0.346772,7.12502,10.3332,-29.3794,1.59028e-15,7.31528e-14,-51.017,16.6472,70.1125,37.3767,9.40778,-12.0328,50.6292,7.12502,14.0254,80.1361,-18.6567,-6.38232,16.6571,72.2939,-1.96154,-13.3645,12.3116,-23.7199,-4.60646,-26.3101,32.0785,-8.82364,4.42197,-4.98548
-1.09093,18.0888,39.4317,184.978,-1.96784,-182.506,24.6781,0.721529,-2.36592,5.51247,-0.570821,4.862,-7.56456,-0.764451,7.01423,-7.75817,-3.09458,-3.58057,18.615,-1.91934,-4.47063,6.97757,-1.19358,-0.963407,-1.59028e-15,-2.8625e-14,-49.354,-38.0679,-46.2566,90.8342,-31.1718,-15.4986,0.815641,7.12502,10.6838,-28.8927,-1.59028e-15,-2.8625e-14,-51.0857,16.5416,70.0473,37.2441,9.02082,-12.1715,50.1019,7.12502,13.8917,79.6179,-20.2432,-6.28104,16.5954,73.1991,-2.46361,-13.2148,11.4878,-23.1354,-4.53144,-26.6623,32.0496,-9.19624,4.42425,-5.09566
-1.11032,18.088,39.2715,185.041,-1.92405,-182.717,24.4876,0.713277,-2.48982,5.59505,-0.62327,4.71278,-7.36956,-0.794642,6.9207,-7.8191,-3.01711,-3.40679,18.5166,-1.82747,-4.60781,6.95252,-1.15191,-1.0288,7.95139e-15,-1.90833e-14,-48.3749,-37.7476,-47.1199,92.4664,-29.2233,-15.1477,1.03809,7.12502,11.0223,-28.6525,7.95139e-15,-1.90833e-14,-50.6978,16.4928,69.9562,37.2611,8.686,-12.1834,49.8622,7.12502,13.8802,79.379,-21.7601,-6.16463,16.5384,73.7831,-3.53643,-12.6016,10.2704,-22.5005,-4.56807,-26.9905,31.9104,-9.47731,4.60833,-5.85311
-1.12972,18.0874,39.1138,185.045,-1.5606,-182.903,24.4472,0.867078,-2.70562,5.67236,-0.49086,4.56858,-7.2817,-0.733326,6.83971,-8.08515,-2.92035,-3.09621,18.6281,-1.67973,-4.84639,7.02955,-1.08592,-1.14979,3.57812e-14,2.38542e-14,-47.2333,-37.3868,-48.126,94.0886,-26.7863,-14.9002,1.23594,7.12502,11.261,-28.4418,3.57812e-14,2.38542e-14,-50.2174,16.4077,69.9552,37.2541,8.37233,-12.0218,50.192,7.12502,14.036,79.6981,-23.2653,-5.72247,16.4713,74.1241,-4.39318,-12.0013,10.0653,-21.7842,-4.35649,-27.3154,31.6914,-9.78114,4.84914,-6.26244
-1.15382,18.0939,38.9437,184.184,-2.59736,-183.187,25.5046,0.456339,-2.3979,5.7603,-1.03936,4.44224,-7.65475,-1.02011,6.73322,-8.1454,-2.83993,-3.12236,18.7257,-1.56052,-4.80356,7.07408,-1.02816,-1.1234,6.36111e-15,-2.38542e-14,-46.162,-36.3474,-49.3332,96.0737,-24.4322,-15.0893,0.987807,7.12502,11.0786,-28.6998,6.36111e-15,-2.38542e-14,-49.9152,16.3484,69.9256,37.3228,8.20543,-11.917,50.5273,7.12502,14.137,80.0264,-23.2212,-6.457,16.353,74.0228,-5.43538,-11.4755,9.48679,-19.9546,-4.94191,-27.7386,31.3632,-10.0273,4.62615,-7.53732
-1.17034,18.0985,38.7713,183.932,-3.03469,-183.507,25.8074,0.2447,-2.59137,5.68354,-1.3667,4.35559,-7.84941,-1.16197,6.87064,-8.08793,-2.58791,-2.91882,18.7842,-1.19171,-5.00957,7.08263,-0.849234,-1.19182,-7.95139e-16,0,-44.6171,-35.5612,-50.4651,97.2839,-21.7688,-14.9576,1.25154,7.12502,11.2057,-28.4292,-7.95139e-16,0,-49.9412,16.2106,69.9608,37.7362,8.42986,-11.9865,50.3022,7.12502,14.0701,79.8059,-23.96,-6.6813,16.2273,73.7523,-6.54377,-10.8974,9.09676,-18.7808,-5.06216,-28.1963,31.0365,-10.2651,4.56788,-8.33386
-1.17553,18.1055,38.5972,184.025,-3.2221,-183.771,25.7307,0.0716959,-3.03458,5.46171,-1.65092,4.34103,-8.00926,-1.25564,7.20841,-7.94169,-2.13047,-2.59632,18.8797,-0.498011,-5.43824,7.09244,-0.517353,-1.32381,9.54166e-15,-2.8625e-14,-43.4034,-33.8663,-51.7349,98.9534,-19.3246,-14.773,1.56329,7.12502,11.3837,-28.1077,9.54166e-15,-2.8625e-14,-50.2463,16.2892,69.8814,38.1467,8.62731,-12.216,50.5767,7.12502,13.8488,80.0956,-25.1473,-6.577,16.2406,73.4142,-7.71847,-10.4889,9.2508,-18.1094,-5.17826,-28.5047,30.9447,-10.9026,4.62059,-8.526
-1.17951,18.1068,38.4296,184.184,-3.42388,-183.797,25.2339,-0.102544,-3.08052,5.55138,-1.88604,4.27056,-7.62449,-1.3819,7.19128,-7.83812,-2.00403,-2.40357,18.6901,-0.36019,-5.56512,7.01225,-0.447748,-1.38302,-2.78299e-14,-2.54444e-14,-41.1997,-33.2148,-53.6317,99.8572,-16.262,-14.4847,2.06406,7.12502,11.6617,-27.5914,-2.78299e-14,-2.54444e-14,-49.716,16.4719,69.8144,38.3572,8.49007,-12.0079,50.807,7.12502,14.0494,80.3122,-26.4494,-6.43695,16.5603,72.9514,-8.587,-10.5021,9.48189,-17.6847,-5.17084,-28.5491,31.0166,-11.6215,4.63881,-10.0082
-1.22563,18.0429,38.3352,184.76,-0.545161,-183.761,25.1217,0.888598,-3.53818,5.44148,-0.678649,3.98956,-7.85829,-0.766022,6.76883,-7.89296,-2.32726,-2.77591,18.8993,-0.78332,-5.24689,7.08821,-0.652525,-1.25593,1.98785e-14,3.18055e-14,-38.8441,-32.8655,-55.4185,100.412,-13.111,-14.7348,2.15014,7.12502,11.4206,-27.5188,1.98785e-14,3.18055e-14,-49.0793,16.2899,70.0042,38.6053,8.40218,-11.5484,50.3925,7.12502,14.4922,79.8664,-29.635,-3.97757,16.4228,72.8217,-8.57508,-9.98164,8.51751,-18.0652,-3.62495,-28.9024,31.2699,-12.3439,5.91585,-9.61093
-1.2397,18.0357,38.1751,184.8,-0.602729,-184.038,25.2141,0.854143,-3.68013,5.47559,-0.778989,3.83955,-7.85441,-0.81406,6.71609,-8.64237,-1.95671,-2.27604,18.9572,-0.310741,-5.49293,7.24215,-0.440183,-1.38812,-1.35174e-14,-2.70347e-14,-36.5718,-31.9139,-57.4255,101.176,-10.5645,-15.3814,2.31172,7.12502,10.7968,-27.3908,-1.35174e-14,-2.70347e-14,-48.4012,15.8522,70.418,39.0638,8.94971,-12.067,50.499,7.12502,13.9925,80.0081,-30.7397,-3.94019,16.3324,72.0702,-10.4305,-9.11152,15.3645,-17.7344,-3.51339,-29.3248,31.5219,-12.707,6.10547,-11.2758
-1.25278,18.0276,38.0159,184.831,-0.585083,-184.408,25.2081,0.771763,-4.18503,5.21361,-0.958748,3.76801,-8.11176,-0.847878,6.99557,-7.73186,-1.72235,-2.11575,18.6145,0.0215368,-5.80548,6.9735,-0.260335,-1.4754,-2.14687e-14,5.08889e-14,-34.9223,-29.964,-58.9645,101.866,-8.26243,-15.9166,2.82645,7.12502,10.2806,-26.9023,-2.14687e-14,5.08889e-14,-48.5903,15.6333,70.6107,39.5393,9.4479,-12.5097,51.0854,7.12502,13.5658,80.6234,-31.8579,-3.85592,16.1082,71.1883,-11.3619,-8.78895,6.67086,-17.4767,-3.41776,-29.8548,31.8396,-13.1621,6.35352,-11.2074
-1.2658,18.016,37.8616,184.733,-0.571483,-184.462,25.283,0.681011,-4.31265,5.14238,-1.10396,3.75925,-8.20609,-0.904791,7.11237,-7.43584,-1.61806,-2.21741,18.6199,0.203302,-5.85839,6.92772,-0.170388,-1.45773,6.36111e-15,2.06736e-14,-33.1388,-27.961,-60.6015,102.391,-5.58845,-16.0489,3.56325,7.12502,10.153,-26.1718,6.36111e-15,2.06736e-14,-48.3472,15.7284,70.7273,39.9314,9.8439,-12.8901,51.3546,7.12502,13.1992,80.9168,-32.7642,-3.71719,16.2478,69.9738,-11.972,-8.60702,3.75168,-16.8619,-3.53918,-30.0051,31.9233,-13.646,6.64084,-10.1627
-1.278,17.9982,37.707,184.767,-0.453489,-184.466,24.9925,0.663791,-4.27066,5.32798,-1.14042,3.68379,-7.84773,-0.953528,6.99135,-7.84422,-1.59989,-2.39672,18.7756,0.218234,-5.6152,7.05226,-0.173495,-1.35291,1.66979e-14,2.38542e-15,-30.9049,-26.1537,-62.6074,102.635,-2.87405,-16.6031,4.26448,7.12502,9.61831,-25.4959,1.66979e-14,2.38542e-15,-47.4232,15.5922,71.0735,40.3347,10.3627,-13.1586,51.4597,7.12502,12.9403,81.0384,-33.7848,-3.53634,16.4536,68.6363,-12.5598,-8.52784,2.4304,-16.322,-3.54635,-30.0974,31.949,-14.1644,6.87795,-8.46905
-1.29248,17.9788,37.5466,184.729,-0.277394,-184.762,25.3348,0.759425,-4.51295,5.24833,-1.0908,3.56534,-8.11747,-0.908871,7.00419,-8.54916,-1.60392,-2.42162,19.2504,0.252702,-5.49149,7.33375,-0.171922,-1.31475,5.56597e-15,3.65764e-14,-29.1941,-24.0798,-64.2628,102.7,-0.654972,-17.877,4.82398,7.12502,8.38903,-24.9894,5.56597e-15,3.65764e-14,-46.7868,15.1393,71.5162,40.8161,10.8461,-13.2351,51.9669,7.12502,12.8666,81.5503,-34.6547,-3.38849,16.2833,67.1592,-13.2348,-8.37143,2.09492,-15.6349,-3.39805,-30.5667,31.957,-14.7556,7.17395,-8.41551
-1.30538,17.967,37.3871,184.743,-0.17766,-184.906,25.5015,0.770396,-4.70683,5.02739,-1.09302,3.52858,-8.4466,-0.868489,7.09299,-8.44651,-1.54083,-2.37366,19.456,0.394929,-5.59478,7.3855,-0.100316,-1.34382,4.77083e-15,-2.06736e-14,-27.8811,-21.6245,-65.7132,102.51,1.53561,-19.7641,4.99321,7.12502,6.56756,-24.885,4.77083e-15,-2.06736e-14,-46.3204,14.6145,71.9699,41.1509,11.4551,-13.513,52.3784,7.12502,12.5986,81.9785,-35.4901,-3.31327,16.2925,65.5027,-12.9346,-8.90499,4.58074,-14.9973,-3.35112,-30.8531,31.9016,-15.2722,7.52201,-7.67343
-1.31323,17.9535,37.2312,184.844,-0.0491062,-184.765,25.5149,0.719406,-4.74197,4.8252,-1.12531,3.58059,-8.67294,-0.851372,7.19102,-8.27546,-1.43564,-2.3265,19.5289,0.593842,-5.77644,7.38333,-0.00640976,-1.39211,-5.56597e-15,-7.15625e-15,-26.3508,-19.0373,-67.1848,101.824,3.46706,-21.4115,5.798,7.12502,4.97706,-24.1236,-5.56597e-15,-7.15625e-15,-45.8932,14.6744,72.1724,41.4024,11.5982,-13.531,52.5687,7.12502,12.5813,82.1699,-36.3115,-3.04206,16.6492,63.6629,-13.7816,-8.65813,2.53481,-14.407,-3.14063,-30.8154,31.6812,-15.5228,7.85297,-8.96767
-1.32267,17.9453,37.0689,184.922,0.0641751,-184.712,25.4596,0.698534,-4.78392,4.67113,-1.12575,3.60063,-8.81576,-0.826082,7.24119,-8.05115,-1.38389,-2.35731,19.5035,0.702746,-5.89493,7.33799,0.0453446,-1.41391,-2.78299e-15,2.46493e-14,-24.6787,-16.7534,-68.5738,100.667,5.57977,-22.66,7.29494,7.12502,3.77147,-22.6514,-2.78299e-15,2.46493e-14,-45.3852,14.5605,72.4837,41.6387,11.6639,-13.7684,52.605,7.12502,12.3524,82.22,-36.9843,-2.94929,16.8885,61.6281,-13.7129,-9.00961,2.22644,-13.6485,-2.91387,-30.8786,31.2558,-15.7163,8.04848,-10.7015
-1.33107,17.9441,36.899,184.932,0.0491616,-185.074,25.1817,0.704765,-4.96411,4.71885,-1.16252,3.35567,-8.61539,-0.845304,7.06222,-7.96372,-1.39974,-2.11256,19.3366,0.609472,-5.90887,7.2636,0.0157127,-1.46617,1.59028e-14,1.11319e-14,-23.3516,-14.6272,-70.1243,99.6191,7.96962,-24.3641,8.01711,7.12502,2.1257,-21.952,1.59028e-14,1.11319e-14,-44.4613,14.1231,72.771,42.02,11.8087,-13.8987,53.0596,7.12502,12.2268,82.6822,-37.472,-3.01178,16.6173,59.4842,-13.8697,-9.03257,2.76678,-12.648,-2.89226,-31.377,30.6014,-15.8082,8.17175,-11.9564
-1.33619,17.9547,36.7279,184.951,-0.0224397,-185.179,25.0666,0.743998,-5.02541,4.72283,-1.11866,3.29467,-8.5584,-0.822251,7.0087,-8.338,-1.48204,-1.87182,19.5835,0.521526,-6.05562,7.40844,-0.0331121,-1.56646,-1.51076e-14,-3.97569e-15,-22.611,-11.9628,-71.1889,98.6991,9.93375,-26.649,8.6804,7.12502,-0.0810951,-21.2993,-1.51076e-14,-3.97569e-15,-43.4474,13.7349,73.2467,42.2281,11.8267,-13.7437,53.0277,7.12502,12.3763,82.6413,-37.8999,-2.99706,16.6238,57.2063,-13.7157,-9.03343,4.71673,-11.5476,-2.74227,-31.5673,29.7167,-15.8221,8.34975,-13.3005
-1.3403,17.9643,36.5593,185.056,-0.00805199,-185.326,24.96,0.797608,-5.21215,4.70369,-1.0847,3.23617,-8.52776,-0.797145,7.03623,-8.9119,-1.49234,-1.74321,19.8544,0.511199,-6.04642,7.59984,-0.0492213,-1.59303,8.34896e-15,0,-21.4126,-9.69423,-72.3957,96.9963,11.9739,-28.633,10.0742,7.12502,-1.99723,-19.8962,8.34896e-15,0,-42.5156,13.2556,73.7713,42.5821,12.0574,-13.9699,53.0125,7.12502,12.1581,82.6392,-38.4402,-2.84706,16.5608,54.82,-13.3635,-9.27091,5.38046,-10.5853,-2.21422,-31.8059,28.8573,-15.6609,8.55373,-16.8835
-1.34423,17.9706,36.3899,185.265,0.0252002,-185.563,24.8005,0.731212,-5.64487,4.27447,-1.18311,3.23849,-8.90064,-0.763305,7.32921,-8.15264,-1.45309,-2.11688,20.0109,0.635034,-5.83374,7.51917,0.0366401,-1.44359,-3.97569e-15,-1.11319e-14,-20.5748,-7.24182,-73.4104,94.4737,14.3914,-30.4087,11.913,7.12502,-3.71217,-18.0345,-3.97569e-15,-1.11319e-14,-42.6092,12.9376,74.1443,43.2165,12.1636,-14.0288,53.1925,7.12502,12.1014,82.8225,-38.9438,-2.85042,16.4571,52.2845,-12.6103,-9.45369,5.48573,-9.80058,-2.04892,-32.1038,28.1666,-15.6595,8.53484,-17.5677
-1.34344,17.9621,36.221,185.327,-0.0914745,-185.429,24.8027,0.654439,-5.62261,4.02581,-1.22613,3.29959,-9.17234,-0.743954,7.40776,-7.94021,-1.45409,-2.24416,20.2105,0.679173,-5.74795,7.54815,0.0687043,-1.38939,-2.38542e-14,7.15625e-15,-19.6931,-5.04563,-74.3905,91.7132,16.5438,-31.9403,13.6991,7.12502,-5.19106,-16.2173,-2.38542e-14,7.15625e-15,-42.1499,12.5906,74.6301,43.6459,12.2599,-14.2205,53.3331,7.12502,11.9165,82.974,-38.867,-2.76152,16.7455,49.5741,-11.8138,-9.38928,8.06556,-8.9544,-2.16166,-31.9187,27.6291,-15.9354,8.24038,-15.5605
-1.3399,17.9558,36.0504,185.405,-0.114233,-185.198,24.622,0.630261,-5.4143,3.95793,-1.17517,3.27785,-9.16674,-0.716362,7.23707,-8.15939,-1.51105,-2.1521,20.4298,0.599684,-5.68537,7.65741,0.0355824,-1.39436,-1.35174e-14,-3.73715e-14,-18.6498,-3.08256,-75.4504,88.8691,18.5176,-33.502,15.3042,7.12502,-6.6988,-14.5698,-1.35174e-14,-3.73715e-14,-41.1675,12.0588,75.0906,43.8514,12.4673,-14.3258,53.3442,7.12502,11.8149,82.9909,-38.7074,-2.26502,16.9969,46.7831,-11.1194,-9.43581,12.1364,-8.13694,-2.0984,-31.6794,27.1255,-15.9364,8.37527,-16.5554
-1.33649,17.9713,35.8748,185.567,-0.0435589,-185.114,24.425,0.793925,-5.33696,3.51722,-0.847362,3.10107,-9.61405,-0.492295,6.88959,-7.2041,-1.80417,-1.49489,20.5139,0.161323,-5.84325,7.49581,-0.0965592,-1.58655,-6.75868e-15,4.77083e-15,-18.5268,-1.74122,-76.3386,85.724,20.9035,-35.2557,16.6634,7.12502,-8.39156,-13.1499,-6.75868e-15,4.77083e-15,-40.8186,10.7397,75.5032,44.1972,12.5663,-14.5471,53.2481,7.12502,11.6015,82.907,-38.7529,-1.67442,17.0381,43.975,-10.0295,-9.9639,15.0402,-7.3694,-1.92333,-31.608,26.5073,-15.7499,8.53965,-17.8515
-1.33302,17.99,35.6979,185.668,-0.107402,-185.386,24.1888,0.835712,-5.60064,3.28467,-0.810783,2.91182,-9.75558,-0.431504,6.81179,-6.71578,-1.89573,-1.35876,20.5052,-0.0194084,-5.65006,7.39828,-0.138578,-1.55662,1.35174e-14,9.54166e-15,-17.6159,-0.574387,-77.1546,81.9347,23.6166,-35.6184,18.4957,7.12502,-8.74161,-11.3033,1.35174e-14,9.54166e-15,-40.4932,9.88665,75.9378,45.0425,12.7634,-14.5164,53.6115,7.12502,11.6312,83.2687,-38.7486,-1.2983,16.7124,41.2379,-8.55436,-10.5793,17.3381,-6.4122,-1.75055,-31.8525,25.6708,-15.5383,8.14164,-16.5516
-1.32752,17.9979,35.5166,185.704,-0.181014,-185.648,24.0039,0.818085,-5.94073,3.17132,-0.892949,2.81968,-9.76877,-0.442846,6.92637,-6.85458,-1.88952,-1.29648,20.7086,0.0332631,-5.73865,7.49099,-0.11579,-1.59423,-3.97569e-16,-2.78299e-14,-16.4556,0.895545,-77.8999,77.9251,25.9247,-35.7009,19.8057,7.12502,-8.82117,-9.98991,-3.97569e-16,-2.78299e-14,-40.0414,9.3818,76.4466,45.8242,12.9399,-14.6944,53.8807,7.12502,11.4595,83.5475,-38.6216,-0.904792,16.3857,38.6559,-7.13728,-11.2694,20.0345,-5.20494,-1.66682,-32.0759,24.6271,-15.394,7.72253,-14.1596
-1.32183,18.0016,35.3318,185.668,-0.212758,-185.641,23.8769,0.800107,-6.01895,3.04317,-0.905875,2.80033,-9.8424,-0.427911,6.95184,-7.04406,-1.89608,-1.30364,21.0339,0.0836365,-5.75431,7.63412,-0.092488,-1.59775,1.03368e-14,2.46493e-14,-15.3935,2.23127,-78.5662,73.9,27.9064,-35.7106,20.4163,7.12502,-8.83052,-9.37894,1.03368e-14,2.46493e-14,-39.4437,8.79589,77.0237,46.2943,13.1985,-14.7734,53.9484,7.12502,11.3833,83.6194,-38.3805,-0.397331,16.356,36.265,-5.77639,-12.0299,20.6571,-3.92097,-1.45525,-32.0224,23.5707,-15.0883,7.52669,-13.81
-1.31543,18.0058,35.1487,185.639,-0.373858,-185.848,23.766,0.800291,-6.2229,2.94518,-0.93931,2.69734,-9.88681,-0.422692,6.96154,-7.1779,-1.9485,-1.48396,21.2653,-0.0122167,-5.39287,7.73428,-0.123819,-1.45975,1.98785e-14,-4.05521e-14,-14.0281,3.33908,-79.1669,69.4579,29.4329,-35.5193,20.3972,7.12502,-8.64596,-9.40573,1.98785e-14,-4.05521e-14,-38.4906,8.17837,77.5935,46.4862,13.3085,-14.9257,54.1963,7.12502,11.2364,83.8754,-38.1573,-0.0127884,16.0868,34.1484,-4.67629,-12.8827,19.4337,-2.69244,-1.36743,-32.1907,22.545,-14.7899,7.36043,-14.2412
-1.30989,18.0124,34.9649,185.647,-0.607878,-185.952,23.5837,0.741983,-6.34038,2.87032,-1.01895,2.6694,-9.85906,-0.446932,7.01684,-7.45806,-1.98383,-1.62959,21.535,-0.0534472,-5.1739,7.87559,-0.141892,-1.37114,3.97569e-15,-1.35174e-14,-12.5351,4.31089,-79.687,65.1206,31.1276,-34.9624,19.6204,7.12502,-8.10849,-10.204,3.97569e-15,-1.35174e-14,-37.6985,7.5614,78.2585,46.8901,13.391,-15.0695,54.3223,7.12502,11.0977,84.0088,-37.9129,0.404112,15.9045,32.2621,-3.92166,-14.0468,19.5072,-1.57104,-1.51585,-32.2563,21.6943,-14.4386,7.23577,-14.8239
-1.30499,18.0168,34.7732,185.599,-0.806491,-186.057,23.3421,0.673879,-6.46624,2.80786,-1.10857,2.66351,-9.78282,-0.478486,7.1019,-7.91675,-2.03506,-1.6922,22.0875,-0.0179288,-5.2084,8.14639,-0.13574,-1.37635,1.66979e-14,-2.06736e-14,-11.1086,5.27304,-80.1307,60.9662,32.2685,-33.5239,18.991,7.12502,-6.71994,-10.8823,1.66979e-14,-2.06736e-14,-37.117,6.89881,78.9632,47.4073,13.3474,-15.1891,54.4295,7.12502,10.9823,84.1223,-37.6013,0.716313,15.8238,30.7494,-3.39748,-15.2407,19.4275,-0.44582,-1.82729,-32.3595,20.9598,-13.8476,7.35234,-15.8343
-1.29897,18.0195,34.5778,185.404,-0.932836,-185.849,23.2367,0.607666,-6.2633,2.70818,-1.11637,2.7101,-9.83953,-0.476156,7.03653,-7.96838,-2.03203,-1.85029,22.4283,0.0776815,-5.18112,8.27497,-0.0904555,-1.33345,-2.26615e-14,3.18055e-14,-9.98986,6.22228,-80.5451,57.0461,32.2467,-31.4597,18.9705,7.12502,-4.72706,-10.9568,-2.26615e-14,3.18055e-14,-36.5791,6.03915,79.662,47.8285,13.3777,-15.2698,54.5892,7.12502,10.9045,84.2861,-37.1403,0.976524,16.2324,29.5758,-2.90052,-16.2244,19.8009,0.738168,-1.86587,-32.0982,20.4327,-13.2436,7.24408,-17.1083
-1.29428,18.0173,34.3767,185.129,-1.09573,-185.845,23.2604,0.581816,-6.22312,2.61128,-1.12844,2.7058,-9.9601,-0.468677,7.01559,-8.15991,-2.08325,-2.04539,22.8319,0.0880358,-5.06862,8.44983,-0.0861507,-1.2654,-1.39149e-14,3.4191e-14,-8.94493,6.95664,-80.8596,52.8996,34.2885,-30.2956,17.4313,7.12502,-3.60293,-12.518,-1.39149e-14,3.4191e-14,-35.9762,5.22779,80.3386,48.1873,13.4477,-15.0101,54.6078,7.12502,11.155,84.2913,-36.6397,0.756885,16.6252,28.8579,-2.60513,-16.9161,21.7499,1.91379,-1.97096,-32.0715,20.1152,-12.7053,6.99843,-17.8749
-1.28601,18.0129,34.1717,184.9,-1.11785,-185.794,23.1317,0.640599,-6.22461,2.55397,-1.03017,2.71056,-9.9712,-0.414284,6.9874,-8.42975,-2.16515,-2.06534,23.2608,0.0606064,-5.09015,8.64655,-0.0996061,-1.27643,7.95139e-16,-2.62396e-14,-8.01627,7.69988,-81.1649,49.5113,35.7211,-28.2564,15.0195,7.12502,-1.63356,-14.954,7.95139e-16,-2.62396e-14,-35.3526,4.33003,81.0261,48.4835,13.3907,-14.9516,54.1275,7.12502,11.2115,83.8079,-36.3651,0.185767,17.3759,28.6846,-1.75584,-17.2494,22.3095,2.90117,-1.94558,-31.9841,20.0477,-12.5416,6.76867,-18.6703
-1.27982,18.0007,33.9689,184.727,-1.10574,-185.843,22.9934,0.739889,-6.28037,2.4719,-0.887991,2.70855,-10.0114,-0.332972,6.97019,-8.72347,-2.28315,-2.31484,23.7423,-0.0091855,-4.93113,8.86918,-0.134696,-1.19242,-9.14409e-15,-1.59028e-14,-7.09453,8.30328,-81.3595,46.5756,35.3643,-24.4912,13.4973,7.12502,2.00297,-16.473,-9.14409e-15,-1.59028e-14,-34.7471,3.44172,81.8135,48.6998,12.7517,-14.6367,53.9389,7.12502,11.5151,83.6027,-36.2805,-0.590156,18.1028,29.1178,-1.19126,-17.6029,24.6995,3.63712,-1.93617,-31.9927,20.2983,-12.5451,6.58725,-19.9337
-1.27363,17.9807,33.764,184.581,-1.03002,-186.04,22.9274,0.873474,-6.5179,2.28786,-0.74058,2.68908,-10.205,-0.225559,7.04352,-8.90755,-2.40292,-2.66264,24.2576,-0.0474559,-4.76434,9.08715,-0.155159,-1.08411,-8.74653e-15,-4.92986e-14,-6.29985,9.10297,-81.5078,43.7271,33.7629,-19.9829,11.6246,7.12502,6.35636,-18.26,-8.74653e-15,-4.92986e-14,-34.2075,2.47454,82.6154,48.8512,12.23,-14.3666,53.8739,7.12502,11.7756,83.5228,-36.2221,-1.58818,18.8054,30.0235,-1.07236,-18.1354,26.6602,4.15668,-1.92445,-32.1681,20.9348,-12.5335,6.44521,-22.8929
-1.26835,17.9582,33.5568,184.431,-0.912007,-185.978,22.7826,0.986186,-6.49049,2.17453,-0.552852,2.72131,-10.2856,-0.121435,7.00339,-9.16856,-2.53603,-2.86284,24.6908,-0.12822,-4.69501,9.2905,-0.198796,-1.03909,-1.43125e-14,-2.38542e-14,-5.67263,9.92692,-81.6899,41.4731,31.4706,-14.9027,8.39205,7.12502,11.2586,-21.2858,-1.43125e-14,-2.38542e-14,-33.5688,1.70322,83.3111,49.048,11.5422,-13.7083,53.4483,7.12502,12.4104,83.0599,-36.074,-2.52259,19.7594,31.2458,-1.67153,-18.7476,27.3053,4.53483,-1.88627,-32.0656,21.8733,-12.4313,6.29804,-25.2724
-1.25904,17.932,33.3493,184.253,-0.812518,-185.928,22.457,1.09706,-6.49791,2.22561,-0.382908,2.73452,-10.0793,-0.0509218,6.95746,-9.44969,-2.6259,-2.97125,24.9284,-0.206042,-4.64051,9.42855,-0.24273,-1.01449,4.37326e-15,1.43125e-14,-5.02391,10.4614,-81.8428,39.6128,28.82,-10.5702,4.97093,7.12502,15.4345,-24.4328,4.37326e-15,1.43125e-14,-32.717,0.995809,83.9053,49.3217,10.6831,-12.7209,52.9304,7.12502,13.3622,82.4819,-35.8463,-2.95187,20.3987,32.5829,-2.49381,-18.9574,26.1803,4.78074,-1.75214,-31.9204,23.1297,-12.019,5.94388,-26.1787
-1.25274,17.9198,33.1418,183.942,-0.83159,-185.891,22.5351,1.20019,-6.46623,2.18529,-0.235363,2.78674,-10.1917,0.026494,6.95703,-9.70606,-2.71397,-3.20279,25.2266,-0.240806,-4.56976,9.58702,-0.27113,-0.958402,-7.95139e-15,-9.54166e-15,-4.69911,10.6051,-81.9119,37.7706,26.4395,-3.32443,2.11159,7.12502,22.4026,-26.6093,-7.95139e-15,-9.54166e-15,-32.3094,0.364626,84.6089,49.9029,9.75303,-12.2112,52.4254,7.12502,13.8535,81.9441,-35.4492,-2.90113,20.6012,33.8564,-3.40975,-18.5539,26.1711,4.91715,-1.72952,-31.7537,24.7357,-11.2149,5.44016,-27.2493
-1.2485,17.917,32.9335,183.628,-0.937787,-185.884,22.6574,1.27796,-6.30773,2.12765,-0.0997261,2.73614,-10.3457,0.0936148,6.76975,-10.1611,-2.81897,-3.28579,25.8421,-0.29585,-4.41961,9.89621,-0.286766,-0.905888,7.95139e-15,3.18055e-14,-4.60965,10.1044,-82.1028,35.9728,24.4043,2.85751,0.275624,7.12502,28.3244,-27.6023,7.95139e-15,3.18055e-14,-32.2068,-0.473373,85.1828,50.8087,8.96586,-11.9427,51.5122,7.12502,14.1122,81.013,-34.9834,-2.26616,20.3556,35.0093,-4.30814,-18.2393,28.8381,4.7644,-1.68749,-31.5452,26.7344,-10.4348,4.47817,-27.6808
-1.24394,17.9168,32.7239,183.342,-0.938394,-185.82,22.7124,1.50233,-6.00821,2.14254,0.251945,2.55834,-10.4126,0.244088,6.28357,-10.8034,-0.874077,-3.36652,26.5754,-1.49156,-3.59463,10.2564,-2.1105,-0.996189,-7.95139e-15,-9.54166e-15,-4.56871,8.51869,-82.4026,34.2773,22.8667,8.58957,-0.870973,7.12502,33.7874,-27.7017,-7.95139e-15,-9.54166e-15,-31.7466,-1.71805,85.6727,51.7866,8.20534,-11.3979,51.7512,7.12502,14.6372,81.2146,-34.523,-1.29056,20.0513,36.0699,-5.08944,-19.7177,29.2007,4.28035,-1.33777,-31.1713,29.1618,-9.39553,3.25239,-28.5223
-1.23324,17.9145,32.5164,182.951,-0.962839,-185.263,22.9474,1.40662,-5.58783,2.0001,0.247133,2.77321,-10.6995,0.246237,6.2931,-10.7918,-0.788965,-3.78081,27.0131,-1.42206,-3.34422,10.4219,-2.13004,-0.843438,1.07344e-14,2.22639e-14,-4.87284,8.11981,-82.7043,32.598,21.5073,12.0837,-0.827575,7.12502,37.0999,-26.8661,1.07344e-14,2.22639e-14,-31.7455,-1.55336,86.1174,52.5402,7.21534,-10.9157,51.8049,7.12502,15.1017,81.234,-33.8838,-0.563279,20.4597,37.0022,-5.8008,-20.1809,27.8531,3.59437,-1.0714,-30.228,32.0449,-7.94745,1.90166,-28.9816
-1.22323,17.9008,32.3134,182.655,-1.04564,-184.704,22.9532,1.50412,-4.93712,2.03194,0.537576,2.78684,-10.7023,0.3487,5.83596,-11.1002,-0.95092,-3.56857,27.2979,-1.71199,-3.21821,10.5857,-2.23164,-0.880702,3.97569e-16,-1.11319e-14,-5.04786,6.29261,-83.0662,31.0472,20.8187,13.6614,0.183312,7.12502,38.5901,-25.4529,3.97569e-16,-1.11319e-14,-31.2311,-2.5889,86.6192,53.0553,6.92259,-11.4412,51.4599,7.12502,14.5955,80.9264,-33.2716,-0.283254,21.0319,37.8408,-7.063,-20.2113,27.8568,2.58153,-0.911136,-29.2699,35.1854,-5.85124,0.532484,-28.9624
-1.21209,17.8841,32.1076,182.401,-1.24078,-184.157,22.8591,1.5298,-4.27706,2.06748,0.739812,2.79197,-10.6283,0.407601,5.39035,-11.3195,-1.05038,-3.31686,27.3865,-1.89776,-3.1173,10.6587,-2.27119,-0.914174,2.38542e-15,3.65764e-14,-5.44884,4.7932,-83.3687,29.9537,20.0881,14.3226,1.35979,7.12502,39.2137,-24.0987,2.38542e-15,3.65764e-14,-30.9212,-3.67111,87.0459,53.7696,6.96748,-12.4726,50.3206,7.12502,13.6015,79.8563,-32.5799,-0.300683,21.6655,38.5152,-8.21753,-20.3078,28.0479,1.36558,-0.682096,-28.2123,38.3835,-3.13666,-0.88417,-27.4312
-1.20025,17.8813,31.8991,182.143,-1.59063,-183.554,22.863,1.38102,-3.673,2.05328,0.703506,2.90271,-10.6344,0.363638,5.17623,-11.3929,-1.099,-3.31433,27.4787,-2.00225,-2.98508,10.7085,-2.30563,-0.883686,7.95139e-16,-1.90833e-14,-6.04617,3.97003,-83.6073,29.2481,19.8613,14.6912,2.23472,7.12502,39.5609,-23.1223,7.95139e-16,-1.90833e-14,-30.6279,-3.89657,87.3688,54.3569,6.42325,-12.7584,49.3089,7.12502,13.3261,78.8628,-31.8515,-0.616835,22.445,39.079,-8.60546,-20.517,25.3942,0.0866477,-0.638889,-27.085,41.4008,0.257864,-2.16066,-25.1111
-1.18537,17.8934,31.6894,181.975,-1.89551,-182.793,22.735,1.21181,-2.9738,2.01226,0.674679,3.04252,-10.5995,0.320637,4.9352,-11.4174,-1.17113,-3.34917,27.5868,-2.18514,-2.69354,10.7569,-2.36213,-0.799085,2.10712e-14,2.22639e-14,-6.63528,3.16864,-83.8926,28.6713,20.0712,14.8764,3.12393,7.12502,39.7353,-22.1814,2.10712e-14,2.22639e-14,-30.5449,-4.08108,87.6009,55.2246,5.77626,-12.6027,49.4465,7.12502,13.4762,78.9905,-31.0589,-0.832025,23.4049,39.4571,-9.47007,-20.7281,24.8325,-1.34369,-0.556087,-25.7454,44.2243,4.04358,-3.40872,-21.5811
-1.16768,17.9118,31.479,181.829,-2.25701,-182.494,22.6508,1.06765,-2.78958,1.85677,0.557022,3.05005,-10.714,0.271948,4.87417,-11.311,-1.16159,-3.30451,27.7827,-2.29352,-2.44443,10.8108,-2.3934,-0.735286,2.38542e-15,1.59028e-14,-7.60544,2.56871,-84.1846,28.1933,20.514,13.6361,4.66758,7.12502,38.5664,-20.9753,2.38542e-15,1.59028e-14,-30.8011,-4.31881,87.843,56.2264,5.11475,-12.6859,49.5554,7.12502,13.396,79.1047,-30.1992,-1.19543,23.8349,39.7129,-11.06,-20.6634,26.5764,-2.84758,-0.734243,-24.972,46.8777,7.89573,-4.71351,-18.1602
-1.15269,17.9236,31.2699,181.651,-2.77947,-182.345,22.5441,0.863316,-2.70957,1.71227,0.330462,3.02033,-10.7937,0.175278,4.86501,-11.0429,-1.09996,-3.14675,27.8813,-2.3086,-2.39825,10.7919,-2.39492,-0.747288,-3.18055e-15,-1.10524e-13,-8.81219,0.977159,-84.2094,26.227,26.22,6.25673,11.7636,7.12502,31.5679,-15.5281,-3.18055e-15,-1.10524e-13,-31.0275,-4.41693,88.0578,57.1719,4.73637,-12.0055,50.837,7.12502,14.0517,80.342,-29.2684,-1.7723,24.0768,39.7886,-12.0098,-20.602,27.1747,-4.42493,-1.18958,-24.4611,49.5211,11.3693,-6.31162,-14.9946
-1.13786,17.9333,31.0678,181.418,-3.25707,-182.095,22.3845,0.703859,-2.59582,1.69637,0.160636,3.07794,-10.706,0.0911401,4.91323,-10.8571,-1.09183,-3.21964,27.8687,-2.35511,-2.20954,10.7535,-2.40591,-0.669953,1.19271e-15,4.77083e-14,-9.8774,2.49187,-84.5871,28.9357,19.1481,11.5543,5.60051,7.12502,36.599,-20.5666,1.19271e-15,4.77083e-14,-31.1204,-4.56577,88.3683,58.1322,4.62958,-11.5112,51.669,7.12502,14.528,81.1403,-28.2536,-2.31544,24.4512,39.7229,-12.3967,-20.6617,26.216,-5.99243,-1.63897,-23.9036,52.1561,14.1048,-7.99264,-11.1799
-1.12203,17.9505,30.8678,181.082,-3.72946,-181.542,22.2808,0.514307,-2.18899,1.73086,0.0151395,3.20449,-10.5941,-0.00125607,4.86158,-10.832,-1.07543,-3.26142,28.0747,-2.42627,-1.97026,10.8294,-2.42936,-0.591525,1.17283e-14,3.02153e-14,-10.932,2.3955,-84.722,29.4441,18.3557,9.56318,6.62805,7.12502,34.7119,-19.9948,1.17283e-14,3.02153e-14,-31.0587,-4.74054,88.7434,58.84,5.05481,-12.1621,51.9749,7.12502,13.9008,81.4903,-26.9993,-2.66521,25.121,39.478,-12.8777,-20.8668,25.1994,-7.48569,-2.12123,-23.0422,54.7381,16.1082,-9.15064,-5.94442
-1.10703,17.9641,30.6631,180.749,-4.27453,-180.987,22.2564,0.288155,-1.77258,1.70659,-0.173608,3.30919,-10.5891,-0.108905,4.79633,-10.934,-1.05791,-3.30908,28.3802,-2.52485,-1.62003,10.9704,-2.45494,-0.479637,4.17448e-15,-1.35174e-14,-12.1977,2.5589,-84.9699,30.379,16.9802,7.37773,7.16644,7.12502,32.6352,-19.91,4.17448e-15,-1.35174e-14,-31.043,-5.05307,89.0176,59.5067,5.68697,-12.4639,52.4828,7.12502,13.6099,82.0179,-25.6938,-2.92389,25.7657,39.1298,-13.82,-21.2106,25.7826,-8.96853,-2.67359,-22.205,57.188,16.9161,-9.59688,-2.61077
-1.09965,17.977,30.4639,180.309,-4.32709,-180.43,22.4435,0.275659,-1.34371,1.66367,-0.0831189,3.35732,-10.7481,-0.0841078,4.58146,-10.9679,-1.14792,-3.32527,28.703,-2.77704,-1.38039,11.1057,-2.56426,-0.432065,-1.05356e-14,-3.97569e-15,-13.5365,2.52386,-85.1833,31.5296,15.3348,5.88286,7.05013,7.12502,31.2117,-20.3108,-1.05356e-14,-3.97569e-15,-30.9743,-5.46304,89.2716,59.9952,6.21854,-12.8498,51.421,7.12502,13.238,80.9807,-24.2925,-2.74226,26.3783,38.7497,-14.4376,-21.5461,25.5714,-10.1759,-2.88431,-21.4646,59.4341,16.1458,-9.25467,-3.43359
-1.0893,17.9913,30.2629,179.879,-4.40871,-179.812,22.5821,0.248831,-0.920677,1.67657,-0.0161182,3.45834,-10.8145,-0.0758206,4.43405,-11.2242,-1.19802,-3.24859,29.0627,-2.92883,-1.27591,11.297,-2.62827,-0.440921,8.54774e-15,-1.51076e-14,-14.7178,2.27305,-85.333,32.6931,13.8767,5.35738,6.58646,7.12502,30.7108,-20.8697,8.54774e-15,-1.51076e-14,-31.0664,-5.7806,89.5635,60.7615,7.04694,-13.3997,50.7733,7.12502,12.7078,80.3666,-22.8797,-2.62343,27.0826,38.3343,-14.4544,-21.838,23.2557,-11.3418,-3.00835,-20.6155,61.4829,14.2336,-8.59102,-9.35049
-1.08066,18.0038,30.0679,179.459,-4.49483,-179.454,22.7369,0.233112,-0.751593,1.69464,0.0011203,3.50874,-10.8799,-0.0783145,4.39235,-11.4527,-1.19112,-3.27928,29.3549,-2.99126,-1.07492,11.4606,-2.64715,-0.382158,8.34896e-15,-3.81667e-14,-15.9662,2.19509,-85.4248,32.5676,15.0496,0.097324,9.46506,7.12502,25.6836,-18.8223,8.34896e-15,-3.81667e-14,-31.1961,-6.06292,89.8629,61.5804,7.94687,-12.8776,52.6116,7.12502,13.2111,82.173,-21.5082,-2.61252,27.5026,37.9495,-14.4822,-22.0595,21.2554,-12.5303,-3.13659,-20.0841,63.2933,12.0214,-7.59289,-14.6875
-1.07392,18.0132,29.877,179.101,-4.46494,-178.988,22.806,0.203433,-0.486109,1.70654,0.0253318,3.55921,-10.9055,-0.082606,4.29024,-11.6839,-1.12492,-3.08188,29.6294,-2.95899,-1.0806,11.6103,-2.62293,-0.425435,1.80894e-14,2.78299e-14,-16.9895,2.36008,-85.6836,33.7821,12.6659,-0.906319,8.50824,7.12502,24.722,-19.9144,1.80894e-14,2.78299e-14,-31.1911,-6.20676,90.0296,62.1841,8.66675,-13.9591,49.8542,7.12502,12.1686,79.4803,-20.2153,-2.59295,28.0507,37.5765,-14.9969,-22.1537,21.061,-13.7543,-3.20403,-19.4313,64.8478,9.99168,-6.49463,-17.9532
-1.06698,18.0207,29.6881,178.962,-4.40197,-178.579,22.7091,0.169664,-0.33657,1.65648,0.0294792,3.64571,-10.9093,-0.0845875,4.29869,-11.9421,-1.00385,-2.96607,30.0293,-2.85135,-1.09466,11.817,-2.58435,-0.452473,4.37326e-15,3.97569e-14,-17.909,2.47729,-85.8819,34.8504,10.3489,-1.71034,7.38836,7.12502,23.9512,-21.1377,4.37326e-15,3.97569e-14,-31.0623,-6.22577,90.1759,62.6088,9.45015,-14.0666,49.4813,7.12502,12.0649,79.1135,-19.2062,-2.5356,28.56,37.2414,-15.005,-22.3186,19.5224,-15.1483,-3.18107,-18.807,66.0873,8.40249,-5.4629,-18.939
-1.06064,18.0299,29.4956,178.764,-4.29354,-178.266,22.5671,0.189018,-0.170407,1.66921,0.0929473,3.62119,-10.821,-0.0648984,4.15011,-11.973,-0.992979,-2.97178,30.1473,-2.93555,-0.815369,11.8752,-2.59412,-0.362944,-2.5842e-15,3.10104e-14,-18.7371,2.01387,-85.991,35.9929,7.6799,-2.13316,6.64993,7.12502,23.5457,-21.9288,-2.5842e-15,3.10104e-14,-30.7201,-6.36851,90.2925,62.8387,10.3022,-13.803,50.4327,7.12502,12.319,80.0498,-18.1238,-2.48841,28.9414,36.9428,-15.2416,-22.312,18.5152,-16.3776,-3.1044,-18.3127,66.9375,6.74782,-4.65819,-17.4515
-1.05335,18.0456,29.3006,178.523,-4.09573,-178.02,22.4153,0.26128,-0.11491,1.63561,0.205765,3.56836,-10.7833,-0.0120709,4.01938,-11.7237,-1.08552,-2.94633,30.2516,-3.20831,-0.607108,11.8716,-2.70657,-0.327479,-2.34566e-14,-3.18055e-15,-19.7541,1.55365,-86.0809,36.8567,6.07504,-3.7019,6.86636,7.12502,22.0402,-21.8977,-2.34566e-14,-3.18055e-15,-30.6353,-6.55487,90.4343,63.1953,11.3114,-14.282,50.5741,7.12502,11.8572,80.2184,-16.9876,-2.27463,29.2458,36.722,-15.7979,-22.1703,18.6576,-17.5097,-2.94644,-17.9005,67.4278,4.2413,-3.90117,-15.363
-1.04921,18.0635,29.1028,178.403,-4.01714,-177.888,22.115,0.263454,-0.135866,1.55191,0.216271,3.50893,-10.7135,0.00115388,3.9546,-11.3761,-1.13914,-3.01073,30.2838,-3.40269,-0.401337,11.8204,-2.79513,-0.263335,1.55052e-14,-1.11319e-14,-20.8158,1.1683,-86.1579,37.5411,5.58313,-5.12815,6.81421,7.12502,20.6703,-22.1051,1.55052e-14,-1.11319e-14,-30.8223,-6.75643,90.6051,63.8649,12.5893,-15.3987,49.6177,7.12502,10.7802,79.3211,-15.9687,-1.97401,29.4176,36.5809,-16.4363,-22.1183,19.9479,-18.7033,-3.03039,-17.6379,67.5966,4.01508,-2.86429,-15.9895
-1.0528,18.0769,28.9016,178.258,-4.05528,-177.814,21.7566,0.191261,-0.132558,1.54796,0.12114,3.4359,-10.5138,-0.0429862,3.88963,-11.179,-0.992935,-2.95602,30.3689,-3.29564,-0.251558,11.813,-2.73863,-0.203214,-1.63997e-14,-1.35174e-14,-21.6469,0.77,-86.2083,37.9383,5.12612,-6.74918,7.27167,7.12502,19.112,-21.8093,-1.63997e-14,-1.35174e-14,-30.82,-6.63516,90.6267,64.4191,13.1585,-13.8974,53.3638,7.12502,12.228,82.9864,-14.9013,-1.91614,29.4786,36.4316,-17.0138,-21.947,19.747,-19.7005,-3.27147,-17.4946,67.4546,2.41524,-1.95947,-15.8358
-1.05574,18.0829,28.7051,178.065,-4.08559,-177.74,21.4657,0.0879206,-0.122624,1.59205,-0.0229298,3.34024,-10.2941,-0.114717,3.81058,-11.0113,-0.859642,-2.88511,30.3255,-3.19335,-0.0503872,11.7613,-2.66555,-0.124152,6.55989e-15,-1.66979e-14,-22.2147,0.493659,-86.3351,37.9365,4.28261,-8.84769,8.38752,7.12502,17.093,-20.8805,6.55989e-15,-1.66979e-14,-30.7001,-6.29591,90.4714,64.6141,13.4603,-14.0569,51.9928,7.12502,12.0742,81.6244,-13.8795,-1.80887,29.53,36.3127,-17.2544,-21.8623,18.7312,-20.5321,-3.47895,-17.356,67.0467,0.907981,-1.17663,-15.8011
-1.05406,18.0819,28.5184,177.866,-4.09647,-177.382,21.3747,-0.00510179,0.0840614,1.52411,-0.0881495,3.35521,-10.3157,-0.151167,3.72672,-10.8844,-0.750172,-2.76348,30.4837,-3.13025,-0.0214684,11.7948,-2.64013,-0.129919,1.02374e-14,-3.81667e-14,-23.1101,0.182269,-86.333,38.277,3.64828,-10.1704,9.05015,7.12502,15.8195,-20.3235,1.02374e-14,-3.81667e-14,-30.7224,-6.01564,90.4216,64.7383,14.1216,-14.3805,55.0881,7.12502,11.7622,84.7379,-12.8542,-1.58261,29.9215,36.135,-17.6904,-21.7314,18.8535,-21.4606,-3.7389,-16.8595,66.4636,-0.612825,-0.389113,-15.8706
-1.05684,18.0786,28.3301,177.715,-4.07792,-177.143,21.3779,-0.0890102,0.228382,1.42403,-0.152701,3.34162,-10.4257,-0.182192,3.65024,-11.0256,-0.719142,-2.59978,30.709,-3.13057,-0.119307,11.9091,-2.64737,-0.203623,1.37161e-14,-1.59028e-15,-24.0129,-0.166248,-86.2757,38.6599,3.19252,-11.0319,9.38558,7.12502,14.9898,-20.0519,1.37161e-14,-1.59028e-15,-30.7221,-5.7875,90.4511,65.2762,14.9262,-13.3774,56.4927,7.12502,12.7294,86.0847,-11.8664,-1.52844,30.1701,35.9082,-17.6785,-21.6343,17.5734,-22.3241,-3.97105,-16.5302,65.5849,-2.11505,0.483978,-16.2755
-1.06805,18.0833,28.1329,177.587,-3.97382,-176.996,21.2402,-0.0987091,0.458542,1.4634,-0.124442,3.22569,-10.3071,-0.183559,3.37479,-11.6689,-0.863039,-2.36699,31.0144,-3.36022,-0.174198,12.1641,-2.72343,-0.312442,-1.19271e-14,-2.26615e-14,-24.598,-0.771761,-86.168,38.9479,2.6857,-11.5804,9.54726,7.12502,14.4613,-19.9288,-1.19271e-14,-2.26615e-14,-30.5147,-5.52104,90.3112,65.4672,15.1013,-13.649,57.0717,7.12502,12.4675,86.6799,-10.8373,-1.63652,30.2556,35.619,-17.7408,-21.3487,16.8037,-23.0302,-4.26618,-16.3544,64.4421,-3.41723,1.37655,-15.6795
-1.07973,18.0932,27.933,177.396,-3.89596,-176.905,21.0132,-0.190466,0.460715,1.28108,-0.220584,3.19876,-10.3811,-0.216303,3.36948,-10.9409,-0.770488,-2.30886,30.9731,-3.35781,-0.153141,11.9949,-2.75041,-0.305895,4.57205e-15,-3.85642e-14,-25.712,-0.950417,-85.9818,39.2357,1.99794,-11.8703,9.82105,7.12502,14.182,-19.6749,4.57205e-15,-3.85642e-14,-31.0973,-5.10814,90.4137,66.2232,16.0905,-13.1378,56.7409,7.12502,12.9604,86.3184,-9.68978,-1.91775,30.2698,35.2639,-17.8535,-21.1447,15.8009,-23.4814,-4.61289,-16.242,63.0158,-4.4546,2.20012,-14.1277
-1.08705,18.0954,27.7421,177.297,-3.98063,-176.722,20.9067,-0.304594,0.578202,1.1501,-0.327355,3.19077,-10.4638,-0.264094,3.3245,-10.8788,-0.702234,-2.26041,31.1554,-3.34053,-0.11584,12.0548,-2.75262,-0.304013,-9.93923e-15,2.50469e-14,-26.4431,-1.42405,-85.7367,39.347,1.28822,-11.7108,9.54896,7.12502,14.3356,-19.9361,-9.93923e-15,2.50469e-14,-31.2989,-4.64719,90.4294,66.7811,17.3449,-15.2282,52.4599,7.12502,10.9447,82.1547,-8.64667,-2.10312,30.4465,34.8223,-18.2094,-21.127,15.9266,-24.1348,-5.00352,-15.985,61.4326,-4.98396,2.97468,-13.0451
-1.09119,18.097,27.5494,177.158,-3.91418,-176.289,20.683,-0.391374,0.843139,1.1646,-0.382851,3.29627,-10.3214,-0.305082,3.29913,-11.0814,-0.645941,-2.40593,31.2966,-3.28214,0.0487839,12.159,-2.72674,-0.216518,1.90833e-14,9.14409e-15,-27.0697,-1.79752,-85.4268,39.6093,0.568841,-11.5466,8.7603,7.12502,14.4939,-20.7135,1.90833e-14,9.14409e-15,-31.284,-3.95038,90.3444,67.1181,18.3572,-13.7607,59.2202,7.12502,12.3598,88.8349,-7.54773,-2.10507,30.9612,34.3178,-18.3159,-21.2352,15.8023,-24.7257,-5.35242,-15.3998,59.6839,-5.50052,3.66904,-13.1809
-1.09393,18.0935,27.3583,176.929,-3.69551,-175.978,20.3878,-0.383808,0.939085,1.2576,-0.365624,3.36914,-10.0548,-0.307465,3.30844,-11.09,-0.597737,-2.56508,31.401,-3.2784,0.287384,12.2102,-2.72399,-0.102527,3.23025e-14,-7.95139e-16,-27.4817,-2.29941,-85.0488,39.5138,-0.0354105,-11.5959,9.08376,7.12502,14.4464,-20.3934,3.23025e-14,-7.95139e-16,-31.3164,-3.38027,90.1719,67.398,19.6613,-13.5238,60.3553,7.12502,12.5883,89.9561,-6.34906,-2.15474,31.3277,33.7858,-18.3587,-21.2703,15.2064,-25.0301,-5.54997,-14.9193,57.753,-6.47477,4.13301,-12.6437
-1.10105,18.0918,27.1781,176.819,-3.50177,-175.771,20.4872,-0.386981,1.07942,1.07353,-0.313716,3.33295,-10.319,-0.279477,3.18087,-10.8162,-0.514648,-2.30143,31.4149,-3.24422,0.21454,12.1519,-2.70428,-0.169361,-8.44835e-15,-9.14409e-15,-28.2376,-2.81287,-84.7211,39.5492,-0.7633,-11.121,9.11197,7.12502,14.9039,-20.3319,-8.44835e-15,-9.14409e-15,-31.7866,-3.11376,90.0989,68.2105,21.8739,-14.0194,60.0377,7.12502,12.1104,89.6672,-5.28447,-2.14589,31.5939,33.1902,-18.3569,-21.3553,14.894,-25.4016,-5.78882,-14.5634,55.6181,-7.29125,4.77976,-12.2072
-1.11093,18.092,27.0046,176.859,-3.30002,-175.451,20.4283,-0.417057,1.29724,0.951333,-0.28786,3.39081,-10.425,-0.272055,3.11467,-10.8912,-0.424348,-2.04781,31.4825,-3.12075,0.0347384,12.1856,-2.64574,-0.267745,-1.16786e-14,4.21423e-14,-28.8991,-3.00635,-84.3447,39.7867,-1.68587,-9.56731,7.96699,7.12502,16.4003,-21.3597,-1.16786e-14,4.21423e-14,-32.0296,-2.75477,90.0927,69.2846,23.8378,-13.4459,58.614,7.12502,12.6634,88.2101,-4.3958,-2.1879,31.9785,32.542,-18.3513,-21.4974,14.541,-25.9246,-6.00105,-14.0504,53.3158,-7.7754,5.23419,-12.4022
-1.11696,18.0939,26.8316,176.792,-2.9473,-175.067,20.5295,-0.396462,1.47647,0.901762,-0.210725,3.48668,-10.5405,-0.243874,3.10133,-11.1004,-0.384956,-2.10893,31.5795,-3.05968,0.0809995,12.2699,-2.62014,-0.237143,-8.44835e-16,3.57812e-14,-29.3617,-3.27829,-83.9375,39.7996,-2.28652,-9.31666,7.02531,7.12502,16.6416,-22.2813,-8.44835e-16,3.57812e-14,-32.16,-2.40194,89.9959,70.197,25.786,-13.0517,62.0998,7.12502,13.0434,-91.672,-3.4079,-2.30031,32.4435,31.8552,-18.1197,-21.7422,12.905,-26.253,-6.09204,-13.4024,50.8249,-8.0828,5.65047,-13.2083
-1.12992,18.0946,26.6456,176.696,-2.52655,-174.689,20.6259,-0.374279,1.75273,0.789274,-0.102513,3.53167,-10.7253,-0.203581,2.96798,-10.7014,-0.451408,-2.43193,31.3181,-3.22104,0.502719,12.0957,-2.68165,-0.0333732,-2.28602e-15,-3.4191e-14,-29.9092,-3.65898,-83.5263,39.7709,-2.59787,-9.93908,6.34992,7.12502,16.0423,-23.0059,-2.28602e-15,-3.4191e-14,-32.398,-1.98432,89.8619,71.187,27.1376,-1.35799,84.0846,7.12502,24.289,-112.566,-2.27493,-2.47162,32.8479,31.0627,-17.7634,-21.9719,11.5169,-26.3289,-6.37063,-12.7627,48.1719,-8.19903,6.29337,-13.9153
