JuanDHNZ/ProyectoFinalCD/preprocessing/sports_trials_csv/10_06.csv
root1,root2,root3,root4,root5,root6,lowerback1,lowerback2,lowerback3,upperback1,upperback2,upperback3,thorax1,thorax2,thorax3,lowerneck1,lowerneck2,lowerneck3,upperneck1,upperneck2,upperneck3,head1,head2,head3,rclavicle1,rclavicle2,rhumerus1,rhumerus2,rhumerus3,rradius1,rwrist1,rhand1,rhand2,rfingers1,rthumb1,rthumb2,lclavicle1,lclavicle2,lhumerus1,lhumerus2,lhumerus3,lradius1,lwrist1,lhand1,lhand2,lfingers1,lthumb1,lthumb2,rfemur1,rfemur2,rfemur3,rtibia1,rfoot1,rfoot2,rtoes1,lfemur1,lfemur2,lfemur3,ltibia1,lfoot1,lfoot2,ltoes1
11.934,17.6827,-46.0196,2.96609,-8.08539,-4.84194,7.47919,1.78038,-1.79802,5.42368,2.23792,3.47755,1.21528,1.01191,4.467,-9.69682,3.34339,-13.0451,41.5972,6.80347,4.72714,15.8134,1.45785,5.42259,6.85807e-15,-1.90833e-14,-33.6382,-17.3956,-72.505,30.4831,-10.6121,-7.41902,16.4731,7.12502,18.4678,-12.6703,6.85807e-15,-1.90833e-14,-30.458,23.1081,70.7544,42.362,-1.9812,-10.2939,36.9332,7.12502,15.7006,66.3163,-22.3748,-2.27842,25.7979,43.2765,-21.912,-8.26547,24.8584,-22.1371,-2.80025,-11.6895,56.0868,-16.0058,-0.641676,-10.0401
11.9072,17.6818,-46.0089,2.95866,-7.46119,-4.94051,7.60746,1.6522,-1.68606,5.35967,2.07569,3.5328,1.09439,0.935872,4.46774,-9.44358,3.39134,-13.1111,41.6843,6.8228,4.81778,15.7865,1.46769,5.46933,2.23633e-14,1.35174e-14,-33.6217,-17.6168,-72.1331,30.1468,-10.1341,-7.05524,16.3515,7.12502,18.8177,-12.7583,2.23633e-14,1.35174e-14,-30.8186,23.0585,70.5198,42.4721,-1.91556,-10.4427,37.1325,7.12502,15.5573,66.5267,-22.2061,-2.56511,25.999,43.2181,-22.1185,-8.22076,25.7663,-23.1121,-2.90212,-11.2343,57.2722,-14.6194,-1.89734,-10.6381
11.8806,17.6791,-45.9965,2.93033,-6.84458,-5.06584,7.55865,1.44298,-1.62978,5.39133,1.80062,3.67763,1.17688,0.795476,4.60883,-9.10563,3.49136,-13.4023,41.6094,6.9661,4.86015,15.6363,1.50229,5.53131,8.54774e-15,2.8625e-14,-33.4509,-17.2208,-71.9384,30.0721,-10.0644,-6.97592,15.9489,7.12502,18.894,-13.1535,8.54774e-15,2.8625e-14,-31.2388,23.3228,70.3542,42.6126,-1.93081,-10.079,37.0114,7.12502,15.9075,66.3781,-21.9581,-2.95905,26.2423,43.0392,-22.3676,-8.17171,25.8081,-23.9908,-3.10488,-10.745,58.3295,-13.3011,-3.17573,-8.60512
11.8609,17.6868,-45.979,2.89,-6.52928,-5.18101,7.56365,1.5299,-1.31392,5.68255,1.92709,3.58886,1.47714,0.859839,4.33381,-9.65509,3.26576,-13.3199,41.6614,6.67204,4.98584,15.8263,1.3974,5.57072,-2.34566e-14,3.97569e-15,-32.9014,-17.7798,-71.9189,29.9848,-10.0443,-6.95303,15.4883,7.12502,18.916,-13.6119,-2.34566e-14,3.97569e-15,-30.6685,23.1099,70.5052,42.5905,-1.81603,-9.56476,36.2394,7.12502,16.4027,65.5659,-21.6993,-3.29419,26.4289,42.8373,-22.389,-8.08988,25.6008,-24.7829,-3.17199,-10.3369,59.3307,-12.1312,-4.24983,-5.70004
11.8438,17.6986,-45.9565,2.9552,-6.19392,-5.33772,7.5375,1.48648,-1.03525,5.66014,1.8855,3.60349,1.47909,0.847058,4.19409,-9.59084,3.21055,-13.3793,41.7122,6.56652,5.07426,15.8434,1.35408,5.60781,9.83984e-15,1.88845e-14,-32.7642,-17.5117,-71.9265,30.0381,-9.84617,-7.5722,14.7291,7.12502,18.3204,-14.4281,9.83984e-15,1.88845e-14,-30.9727,23.0498,70.3504,42.6732,-1.53756,-9.48882,35.6585,7.12502,16.4759,64.9789,-21.5193,-3.56669,26.6588,42.5905,-22.3475,-8.03358,26.2627,-25.6586,-3.22119,-9.90197,60.2493,-10.9565,-5.15239,-5.05665
11.843,17.7043,-45.9551,2.81596,-6.8451,-5.51996,8.05374,1.74616,-0.750467,5.80564,2.24486,3.62475,1.32639,1.03408,4.01932,-10.0661,3.14333,-13.5122,41.7428,6.62438,5.00301,15.9722,1.34071,5.63444,4.07509e-15,-1.11319e-14,-32.2619,-17.828,-71.5536,29.7231,-10.0716,-6.88061,15.4667,7.12502,18.9856,-13.6267,4.07509e-15,-1.11319e-14,-30.9232,23.3165,70.4106,42.6407,-1.45774,-9.55547,35.7113,7.12502,16.4117,65.037,-21.2336,-3.36668,26.79,42.344,-22.1816,-7.48845,26.3145,-26.1507,-2.56269,-9.62136,61.1025,-9.93661,-5.65887,-5.62152
11.8318,17.713,-45.9462,2.84579,-7.33384,-5.66126,8.1224,2.0218,-0.564289,5.50179,2.63169,3.60467,0.951528,1.24115,3.85399,-8.7347,3.26986,-13.1587,41.5765,6.5569,4.79274,15.5968,1.37153,5.39432,-1.55052e-14,1.59028e-15,-32.9464,-17.3115,-71.2949,30.0204,-10.2912,-7.58563,14.8493,7.12502,18.3075,-14.3091,-1.55052e-14,1.59028e-15,-31.6886,22.899,70.1536,42.5707,-1.42833,-9.19391,35.6163,7.12502,16.7598,64.9129,-21.1029,-3.05303,26.938,42.1523,-22.2178,-7.2114,25.7285,-26.8363,-1.94309,-9.30753,61.8772,-9.18338,-6.212,-6.0612
11.8116,17.7167,-45.9289,2.96344,-7.30449,-5.85595,7.99938,2.07839,-0.370717,5.75792,2.70884,3.67915,1.28551,1.27714,3.82809,-9.44564,3.20116,-13.3541,41.7304,6.61384,4.88365,15.8307,1.35883,5.52235,-4.27387e-15,1.90833e-14,-32.2649,-17.5141,-71.0097,29.8272,-11.043,-6.61631,16.1175,7.12502,19.2398,-12.9508,-4.27387e-15,1.90833e-14,-31.2521,23.1973,70.3665,42.3866,-1.45057,-8.77298,35.2903,7.12502,17.165,64.5521,-21.0593,-2.98156,27.2383,42.0384,-22.291,-7.36805,25.5748,-27.595,-1.67361,-8.83472,62.5917,-8.93747,-6.70691,-8.40866
11.7913,17.7115,-45.9106,3.06267,-6.98911,-5.99768,7.82965,2.09519,-0.187412,5.52225,2.74819,3.67621,1.13906,1.30627,3.71826,-8.46143,3.21963,-13.1313,41.615,6.41475,4.85935,15.5656,1.32914,5.39221,-4.37326e-15,1.86858e-14,-32.7773,-17.3971,-70.6967,30.0951,-11.6226,-6.46805,16.2534,7.12502,19.3824,-12.8006,-4.37326e-15,1.86858e-14,-31.8642,22.8126,70.1374,42.2966,-1.40306,-8.55883,35.0498,7.12502,17.3711,64.2936,-21.0427,-3.09624,27.5004,41.9897,-22.3135,-7.55665,26.4504,-28.3384,-1.72551,-8.4101,63.231,-9.36393,-6.89633,-12.3502
11.7758,17.7057,-45.8972,3.1575,-6.74894,-6.06461,7.44697,1.81535,-0.431201,5.06964,2.37245,3.95199,0.884924,1.11621,4.17143,-6.57598,3.63766,-13.1833,41.282,6.8529,4.40924,14.9349,1.49696,5.14059,2.98177e-15,-3.33958e-14,-33.3602,-15.652,-70.4939,30.4286,-12.0059,-7.30296,15.5074,7.12502,18.5794,-13.6253,2.98177e-15,-3.33958e-14,-33.7668,23.3579,69.5335,42.3767,-1.43936,-8.34983,34.6382,7.12502,17.5722,63.8641,-21.082,-3.12376,27.6454,42.0095,-22.3747,-7.62196,26.9287,-29.081,-1.84419,-8.09747,63.7969,-10.0338,-7.23912,-13.0606
11.7644,17.7029,-45.8934,3.28354,-6.43464,-6.20315,8.0302,1.63193,-0.276614,4.49796,2.16803,4.02975,-0.0115582,1.03177,4.15178,-5.87343,3.8771,-13.1399,41.3837,7.14962,4.22241,14.809,1.60869,5.05725,-1.2424e-14,-2.46493e-14,-33.8515,-14.2282,-70.6147,30.8335,-12.1117,-8.82547,14.4202,7.12502,17.1144,-14.846,-1.2424e-14,-2.46493e-14,-35.1525,23.3972,69.0011,42.3972,-1.28405,-8.07128,34.4797,7.12502,17.8403,63.6814,-21.162,-3.24997,27.8674,41.9363,-22.4303,-7.85796,25.8677,-29.8555,-2.04883,-7.70886,64.2172,-10.5134,-7.87117,-10.6316
11.7518,17.6995,-45.8957,3.45782,-5.87823,-6.19614,8.05685,1.4434,-0.343189,4.50218,1.9151,4.17096,-0.00912035,0.902588,4.35806,-5.99078,3.91441,-13.293,41.2901,7.30587,4.08071,14.7799,1.64107,5.04034,4.37326e-15,-7.03698e-14,-33.2994,-14.5159,-69.9537,30.5036,-12.6365,-7.57068,15.8746,7.12502,18.3219,-13.2825,4.37326e-15,-7.03698e-14,-35.2417,24.0222,69.0895,42.0881,-1.35789,-7.86409,34.585,7.12502,18.0396,63.7684,-21.3297,-3.58744,27.957,41.8822,-22.5652,-8.14241,25.0152,-30.7579,-2.4762,-7.4628,64.5038,-10.8859,-8.3137,-9.1879
11.7693,17.7149,-45.8085,2.9699,-7.48024,-6.22541,7.70164,1.94261,-0.0892705,4.98279,2.56777,4.09669,0.647639,1.22242,4.10446,-6.22405,3.89445,-13.4445,41.3467,7.36086,4.07357,14.8531,1.63494,5.08477,-1.0138e-14,1.98785e-15,-32.8785,-14.5332,-69.6356,30.4959,-12.5906,-7.65126,16.3386,7.12502,18.2444,-12.8258,-1.0138e-14,1.98785e-15,-35.3002,24.6197,69.1054,41.6333,-1.61528,-7.74451,34.2588,7.12502,18.1547,63.4315,-20.3034,-3.0284,27.7625,41.7261,-22.4878,-7.26782,24.9595,-29.6957,-1.51024,-7.55337,64.4619,-11.7426,-7.96696,-9.6073
11.7655,17.7142,-45.7857,2.98036,-7.63878,-6.17363,7.64051,1.97793,-0.120094,5.05621,2.60876,4.13109,0.751872,1.23995,4.15871,-6.44898,3.89261,-13.619,41.4431,7.45321,4.05387,14.9415,1.63613,5.13389,1.3418e-14,2.46493e-14,-32.4638,-14.1567,-69.57,30.6729,-12.5324,-8.34906,16.6473,7.12502,17.5729,-12.5785,1.3418e-14,2.46493e-14,-35.5237,25.1942,69.0826,41.2302,-1.79589,-7.7115,33.8062,7.12502,18.1864,62.9761,-20.2009,-2.89473,27.7064,41.6583,-22.2911,-7.30247,25.2993,-30.0257,-1.39724,-7.46557,64.4006,-11.6909,-7.98175,-9.46744
11.7616,17.7177,-45.7628,2.96057,-7.69044,-6.09379,7.47007,1.96392,-0.227093,5.21751,2.57469,4.21423,1.00816,1.21476,4.31874,-6.56047,3.92229,-13.8056,41.387,7.59092,3.95659,14.9274,1.65804,5.14139,1.65985e-14,1.43125e-14,-31.8624,-13.7961,-69.5224,30.9341,-12.4593,-9.18337,16.4857,7.12502,16.7699,-12.81,1.65985e-14,1.43125e-14,-35.6527,25.8425,69.1628,40.8293,-1.85876,-7.60189,33.5117,7.12502,18.2919,62.6717,-20.0548,-2.83654,27.6243,41.554,-22.2166,-7.33852,25.5325,-30.2496,-1.46867,-7.39663,64.1861,-11.6906,-7.76568,-9.72687
11.7551,17.7223,-45.7413,2.9738,-7.64145,-5.96269,7.72326,1.96771,-0.215011,5.03772,2.59173,4.13729,0.684061,1.23011,4.21687,-6.43312,3.97167,-13.8521,41.4563,7.62961,4.03328,14.9206,1.67569,5.18351,1.05356e-14,-1.63003e-14,-31.8368,-14.5305,-68.8884,30.8152,-13.0643,-7.99467,17.486,7.12502,17.914,-11.709,1.05356e-14,-1.63003e-14,-36.1247,26.0693,68.9131,40.3738,-2.04159,-7.1823,33.0887,7.12502,18.6955,62.2103,-19.982,-2.76772,27.5035,41.5337,-22.3064,-7.38681,26.0833,-30.5308,-1.63298,-7.36744,63.9493,-11.9745,-7.41767,-10.1891
11.7511,17.7253,-45.7192,3.0001,-7.79239,-5.88552,7.75538,2.06142,-0.194329,5.03408,2.71793,4.08575,0.656246,1.29476,4.14047,-6.45526,3.93805,-13.7877,41.3974,7.60624,3.93647,14.9095,1.66755,5.12739,-7.7526e-15,-1.86858e-14,-31.5675,-14.2903,-68.941,31.3171,-12.9935,-10.0283,15.7416,7.12502,15.9564,-13.6212,-7.7526e-15,-1.86858e-14,-36.262,26.617,68.7617,39.697,-2.73729,-6.56721,32.7419,7.12502,19.287,61.8055,-19.901,-2.60445,27.4268,41.4679,-22.3625,-7.44548,26.0411,-30.7635,-1.58605,-7.30308,63.6347,-12.0754,-7.24777,-10.1515
11.7528,17.7315,-45.6882,2.97903,-7.98208,-5.81279,7.73305,2.1574,-0.0758009,5.10566,2.84898,3.99146,0.743088,1.36251,3.96797,-6.71567,3.87416,-13.6631,41.4451,7.57921,3.83791,15.0097,1.65418,5.07918,-2.47487e-14,7.55382e-15,-31.2658,-14.336,-68.9007,31.8308,-13.4197,-9.23251,17.9623,7.12502,16.7226,-11.3374,-2.47487e-14,7.55382e-15,-36.2861,27.0036,68.7362,39.0645,-3.09519,-6.4288,32.9005,7.12502,19.4201,61.9507,-19.6979,-2.41802,27.3105,41.3825,-22.4845,-7.24178,26.5924,-30.8111,-1.62851,-7.26124,63.1794,-12.0651,-7.16217,-8.25513
11.7573,17.7393,-45.6513,2.92198,-8.06657,-5.73443,7.76699,2.14701,0.0263702,5.0758,2.84264,3.93898,0.701012,1.36283,3.85399,-6.88058,3.89055,-13.7655,41.6157,7.64486,3.90842,15.119,1.66063,5.15294,-3.17062e-14,8.74653e-15,-31.148,-14.0406,-68.815,32.3421,-13.8194,-9.22897,18.5331,7.12502,16.726,-10.7664,-3.17062e-14,8.74653e-15,-36.7157,27.2138,68.7006,38.6629,-2.80874,-6.91032,33.5477,7.12502,18.9571,62.6439,-19.438,-2.23818,27.1824,41.2793,-22.4168,-7.04603,28.1445,-30.7023,-1.87558,-7.2409,62.5677,-12.4925,-6.36039,-7.68243
11.7627,17.743,-45.6146,2.88553,-8.20099,-5.57468,7.68065,2.09734,-0.0996703,5.04356,2.76857,3.97249,0.712883,1.32276,3.9679,-6.74981,3.96633,-13.9532,41.5606,7.81424,3.78237,15.0486,1.69434,5.13883,2.85256e-14,3.69739e-14,-30.9364,-13.7652,-68.5189,32.66,-14.2849,-9.05831,18.6427,7.12502,16.8903,-10.6428,2.85256e-14,3.69739e-14,-37.3356,27.8425,68.5604,38.1838,-2.79087,-7.1038,34.0472,7.12502,18.771,63.1615,-19.2635,-2.19943,26.9813,41.1749,-22.1867,-7.06151,28.4793,-30.5901,-2.08092,-7.35114,61.8293,-12.9666,-5.49466,-7.87945
11.7674,17.7444,-45.5812,2.84125,-8.42784,-5.50608,7.61459,2.10657,-0.160949,5.04229,2.77586,4.02228,0.742445,1.32408,4.05625,-6.5422,4.01302,-13.9117,41.3702,7.94463,3.44456,14.9231,1.72951,4.98094,1.04362e-14,-7.15625e-15,-30.6492,-14.1289,-68.0253,32.807,-14.8529,-8.00756,18.9473,7.12502,17.9016,-10.2488,1.04362e-14,-7.15625e-15,-37.805,28.5471,68.4069,37.5279,-3.09233,-6.94042,33.8347,7.12502,18.9281,62.9337,-19.0527,-2.1385,26.8685,41.0756,-22.1749,-7.00033,28.1302,-30.4939,-2.17072,-7.36577,61.0281,-13.4144,-4.6607,-8.42481
11.7679,17.7462,-45.5545,2.828,-8.5973,-5.59334,7.74042,2.13273,-0.0657088,4.97303,2.82094,4.07441,0.599912,1.34992,4.04692,-6.51654,4.0064,-13.7889,41.3181,7.99495,3.19027,14.9137,1.73952,4.85506,2.69353e-14,5.4467e-14,-30.4803,-14.5706,-67.6337,33.0559,-15.1769,-7.38795,18.9865,7.12502,18.4977,-10.154,2.69353e-14,5.4467e-14,-38.283,29.0813,68.2108,36.8327,-3.39626,-6.88644,33.3879,7.12502,18.98,62.4818,-18.8535,-1.83969,26.9424,40.984,-22.3266,-7.00119,28.2576,-30.4499,-2.25307,-7.16016,60.1863,-13.6623,-3.98142,-8.31527
11.7696,17.752,-45.5266,2.85836,-8.69198,-5.54278,8.02889,2.14994,-0.0502291,4.72965,2.85932,4.05806,0.18721,1.37581,4.00084,-6.42206,3.98941,-13.8173,41.3362,7.96181,3.18319,14.9055,1.71991,4.84968,-1.20265e-14,1.03368e-14,-30.5798,-14.5943,-67.4264,33.504,-15.5359,-7.58896,18.6708,7.12502,18.3043,-10.488,-1.20265e-14,1.03368e-14,-38.9749,29.5018,67.8215,35.8927,-3.68279,-7.1004,32.3517,7.12502,18.7743,61.4657,-18.7525,-1.61522,26.8747,40.8965,-22.3282,-7.03754,28.4485,-30.4192,-2.4366,-7.12293,59.2671,-13.6993,-3.1546,-8.12409
11.7759,17.7579,-45.492,2.87465,-8.83427,-5.41057,8.48047,2.60598,0.548252,4.31622,3.52575,3.50381,-0.467785,1.73146,2.99911,-6.07015,3.58813,-13.0025,41.4961,7.01829,3.55984,14.9942,1.48313,4.76325,-3.21037e-14,7.55382e-15,-31.6862,-16.1224,-67.1846,34.1684,-15.8944,-8.61499,17.8372,7.12502,17.317,-11.4113,-3.21037e-14,7.55382e-15,-38.8487,28.2162,67.6265,34.5818,-3.95044,-7.61233,30.6595,7.12502,18.2818,59.8204,-18.6393,-1.54693,26.6913,40.8094,-22.2149,-6.96483,28.224,-30.2973,-2.69546,-7.21423,58.2609,-13.7184,-2.1249,-7.45349
11.7838,17.7616,-45.4537,2.95949,-8.86339,-5.32756,8.54039,3.71186,2.07079,4.11031,5.09621,2.24282,-0.542355,2.54532,0.704136,-5.52241,2.42129,-10.9099,41.3739,4.53949,4.23817,15.0555,0.847696,4.38508,6.2816e-14,-6.95746e-15,-33.6928,-20.4708,-66.7106,35.1159,-16.0557,-10.4955,16.4909,7.12502,15.5065,-12.9073,6.2816e-14,-6.95746e-15,-36.7107,24.5737,68.2249,33.1837,-4.28218,-7.86421,30.3297,7.12502,18.0395,59.5131,-18.5693,-1.50372,26.5529,40.722,-22.1929,-6.97378,27.5806,-30.2792,-3.09838,-7.23138,57.1789,-14.0118,-1.44976,-7.82776
11.7923,17.7674,-45.4159,3.12208,-8.69544,-5.1326,8.34661,2.65429,0.947877,5.21424,3.57698,3.14282,0.580795,1.75925,2.43358,-9.89154,2.80703,-13.714,41.8238,6.51652,4.18894,16.0652,1.16057,5.30276,9.0447e-15,1.35174e-14,-29.1626,-17.828,-67.6705,34.9059,-16.3822,-11.7332,15.858,7.12502,14.3141,-13.6286,9.0447e-15,1.35174e-14,-36.4963,29.9612,68.5152,32.5166,-5.32815,-7.65582,31.3337,7.12502,18.24,60.4985,-18.5982,-1.48643,26.2958,40.6125,-22.2649,-7.10163,26.5299,-30.4201,-3.66268,-7.36713,56.0217,-14.0698,-0.847929,-8.07486
11.8004,17.7728,-45.378,3.22178,-8.62033,-4.97278,7.70386,2.56224,0.762846,5.51851,3.41782,3.24399,1.23931,1.67092,2.69463,-10.7556,2.76183,-13.2944,41.9736,6.71146,3.66811,16.3915,1.20751,5.0793,8.24956e-15,1.59028e-15,-28.2389,-17.9006,-67.5888,35.1931,-16.6878,-11.8492,16.7198,7.12502,14.2023,-12.7747,8.24956e-15,1.59028e-15,-36.2294,31.0388,68.8103,31.6001,-6.16406,-7.42164,32.315,7.12502,18.4653,61.4586,-18.53,-1.35387,26.0752,40.4637,-22.2417,-7.22541,28.114,-30.4373,-4.18841,-7.47068,54.7849,-14.0948,-0.308738,-7.11877
11.808,17.7772,-45.3376,3.23105,-8.74389,-5.00582,8.51711,2.57333,0.920145,4.78033,3.48767,3.15965,0.0375705,1.71667,2.45129,-10.1658,2.71089,-13.3319,42.1201,6.46163,3.87295,16.3382,1.12217,5.12447,-3.42904e-14,-4.69132e-14,-29.3137,-17.459,-67.3296,35.9063,-17.3229,-11.9516,17.3532,7.12502,14.1037,-12.1481,-3.42904e-14,-4.69132e-14,-37.6667,30.7979,68.0799,30.9419,-6.55442,-7.27656,32.8912,7.12502,18.6048,62.0215,-18.2994,-1.11229,26.0733,40.28,-22.1011,-7.28225,28.7103,-30.2097,-4.65636,-7.33981,53.4644,-14.1959,-0.0871439,-6.05998
11.818,17.7865,-45.2882,3.21639,-9.10945,-4.9895,8.22981,2.67677,1.01407,5.20806,3.60749,3.12186,0.642823,1.77589,2.3781,-11.1301,2.39325,-13.6577,41.7926,6.19941,3.94247,16.4203,0.978932,5.19965,1.67973e-14,-3.97569e-16,-28.3738,-17.7371,-67.5231,36.4509,-17.8756,-12.4238,16.5884,7.12502,13.6486,-12.9441,1.67973e-14,-3.97569e-16,-37.0254,31.7942,68.3099,29.9347,-7.30891,-7.09803,32.7658,7.12502,18.7765,61.8796,-18.0493,-0.847,25.9797,40.1427,-22.0951,-7.24957,28.1735,-29.7876,-5.07374,-7.27587,52.0846,-14.1283,-0.121785,-4.831
11.8356,17.8005,-45.2258,3.17538,-9.79672,-4.85506,7.90264,2.81493,0.988306,5.22913,3.77945,3.05753,0.841156,1.86179,2.33045,-10.986,2.32627,-13.6837,41.4894,6.08959,3.84198,16.2408,0.938691,5.11742,-2.76311e-14,-9.93923e-15,-28.2413,-17.5709,-67.4945,36.9658,-18.3803,-12.8314,15.8999,7.12502,13.2557,-13.6586,-2.76311e-14,-9.93923e-15,-37.5612,32.4715,67.9747,29.0414,-8.00463,-6.94299,32.5464,7.12502,18.9257,61.6457,-17.7602,-0.56815,25.6673,40.0261,-22.0892,-6.95811,27.7832,-29.1717,-5.4065,-7.42185,50.657,-13.744,0.0153359,-3.57276
11.8427,17.8005,-45.2055,3.37014,-9.45943,-4.66904,7.82157,2.64464,0.789052,4.99002,3.54852,3.07944,0.631964,1.74353,2.47676,-10.7686,2.29001,-13.6019,41.1976,6.01945,3.65132,16.0556,0.91931,4.98126,-3.71727e-14,-3.26007e-14,-28.1671,-17.4385,-67.375,37.3961,-18.8326,-12.988,15.9188,7.12502,13.1048,-13.6495,-3.71727e-14,-3.26007e-14,-38.1579,33.2031,67.6065,28.0655,-8.90724,-6.87911,32.4161,7.12502,18.9871,61.5094,-17.9081,-0.806735,25.4745,40.0161,-22.1411,-7.28984,26.6122,-29.3382,-6.29079,-7.45629,49.2874,-12.9826,-0.372152,-2.56596
11.857,17.7994,-45.1573,3.29158,-9.34196,-4.55245,7.44419,2.53705,0.735564,5.07234,3.39174,3.13487,0.924773,1.6623,2.59585,-10.4024,2.2169,-13.4437,40.5402,5.8974,3.25941,15.667,0.890642,4.71203,-1.11319e-14,3.97569e-16,-27.9033,-17.3147,-67.2662,37.8605,-19.2382,-13.2913,15.8884,7.12502,12.8124,-13.6985,-1.11319e-14,3.97569e-16,-38.5045,34.3004,67.2581,26.93,-10.1771,-6.79532,31.9537,7.12502,19.0677,61.0391,-17.6256,-1.11219,25.3267,39.9628,-22.1109,-7.52253,24.9519,-29.0115,-7.29978,-7.51653,47.9702,-12.6774,-0.799269,-1.20967
11.8622,17.7995,-45.132,3.47017,-9.27916,-4.42916,7.6499,2.45937,0.546024,4.64869,3.29651,3.12613,0.366041,1.61531,2.67652,-10.2097,2.08011,-13.5412,40.4049,5.60865,3.40618,15.5715,0.783536,4.73794,4.12478e-14,9.14409e-15,-28.2405,-17.0637,-67.1485,38.4357,-19.5795,-13.5028,15.8501,7.12502,12.6085,-13.7494,4.12478e-14,9.14409e-15,-39.5008,34.9389,66.4699,26.0013,-11.2479,-6.66284,31.6319,7.12502,19.1951,60.7046,-17.7468,-1.1897,25.2014,39.9573,-21.9454,-7.75666,23.9405,-29.0446,-7.92919,-7.51882,46.7959,-12.5851,-1.19481,-0.256992
11.8825,17.8098,-45.0708,3.3479,-9.83325,-4.29302,7.55029,2.5715,0.521398,4.5144,3.44564,3.06081,0.27794,1.6913,2.61187,-9.80354,1.92783,-13.6904,39.97,5.28388,3.47114,15.283,0.666071,4.70844,-5.22804e-14,-4.85035e-14,-28.5015,-16.8988,-67.0311,39.038,-19.9485,-13.4253,15.9629,7.12502,12.6832,-13.6319,-5.22804e-14,-4.85035e-14,-40.3792,35.5507,65.7958,25.1736,-12.3051,-6.59676,31.8543,7.12502,19.2586,60.9208,-17.3782,-0.852707,24.8913,39.8588,-22.0087,-7.53766,23.3464,-28.3612,-8.44239,-7.71589,45.7387,-13.0212,-0.550897,-0.771959
11.8987,17.811,-45.0226,3.30198,-10.4019,-4.12881,7.34012,2.69439,0.390579,4.31516,3.60298,2.99697,0.177083,1.77025,2.61081,-8.83774,1.83915,-13.6427,39.1785,4.96605,3.30731,14.7095,0.578448,4.51273,-3.20043e-14,-1.90833e-14,-28.8689,-16.5804,-66.9376,39.6091,-20.3477,-13.5629,16.0694,7.12502,12.5506,-13.5336,-3.20043e-14,-1.90833e-14,-41.3863,36.0973,65.0327,24.4323,-13.3711,-6.44457,32.4233,7.12502,19.4049,61.4751,-17.1236,-0.397705,24.5824,39.7503,-22.057,-7.32312,23.3449,-27.817,-8.66595,-7.93779,44.8323,-13.5098,0.0535574,-1.42721
11.9164,17.8118,-44.9707,3.21841,-11.031,-4.05907,7.2761,2.81087,0.379558,4.49171,3.74913,2.92772,0.392533,1.84159,2.54409,-9.32696,1.59976,-13.4236,38.4523,4.75845,2.86918,14.5211,0.501681,4.24676,-4.37326e-15,3.97569e-16,-28.2924,-16.5848,-67.1422,39.9213,-20.52,-13.7042,16.1036,7.12502,12.4143,-13.5078,-4.37326e-15,3.97569e-16,-41.4819,37.1719,64.6348,23.5739,-14.6059,-6.21181,32.7536,7.12502,19.6287,61.7827,-16.8292,-0.0854584,24.363,39.6631,-21.8716,-7.00927,23.3776,-27.1736,-8.63606,-8.14403,44.0619,-13.9575,0.565134,-1.70811
11.9417,17.8178,-44.9013,3.08663,-11.6695,-4.03046,7.24455,2.91658,0.41853,4.41659,3.89303,2.93178,0.328523,1.91473,2.51513,-9.32544,1.43184,-13.2667,37.9293,4.57682,2.47725,14.3153,0.424399,4.01086,-2.15681e-14,3.18055e-15,-28.3389,-16.2219,-67.0943,40.4096,-20.868,-13.6527,16.0218,7.12502,12.4639,-13.5865,-2.15681e-14,3.18055e-15,-42.2671,37.8445,64.022,22.8253,-15.6331,-6.17312,32.4513,7.12502,19.6659,61.4765,-16.4706,0.161493,24.1409,39.6503,-22.1596,-6.68908,23.4148,-26.4071,-8.6565,-8.3954,43.4766,-14.449,1.31561,-2.58414
11.9541,17.8115,-44.882,3.27286,-11.1824,-3.89093,6.76401,2.69289,0.142057,4.57346,3.56906,3.08233,0.743616,1.74328,2.87723,-9.59605,1.11807,-13.7258,37.397,4.16767,2.66883,14.1548,0.238348,4.10176,6.36111e-15,6.75868e-15,-27.61,-16.0033,-67.1367,40.8625,-21.1975,-13.8379,16.0568,7.12502,12.2854,-13.5623,6.36111e-15,6.75868e-15,-42.3632,38.9616,63.976,22.1916,-16.7155,-6.0924,32.079,7.12502,19.7435,61.0963,-16.6253,0.0731384,23.9943,39.6714,-22.0574,-7.07591,23.0914,-26.5582,-8.70319,-8.53879,43.0271,-14.4572,0.9629,-2.16734
11.9682,17.8047,-44.8601,3.47021,-10.8108,-3.73129,7.04725,2.51521,-0.00116895,4.0927,3.34429,3.03599,0.095695,1.63652,2.896,-9.3732,0.830642,-14.0003,37.2828,3.5968,3.11105,14.0884,0.0166974,4.24703,-2.72335e-14,-1.07344e-14,-27.9109,-15.6884,-67.1625,41.2619,-21.2292,-14.0532,16.2876,7.12502,12.0778,-13.3438,-2.72335e-14,-1.07344e-14,-43.3947,39.2541,63.157,21.6286,-17.6727,-5.78276,32.0832,7.12502,20.0412,61.0696,-16.8164,0.0151455,23.8081,39.6959,-22.2896,-7.35485,23.7885,-26.4887,-8.3897,-8.82176,42.7345,-14.583,0.753411,-3.7313
11.9993,17.8085,-44.7887,3.2557,-11.5862,-3.6518,7.0023,2.71547,0.142899,4.03446,3.61827,2.89769,0.0638671,1.77739,2.65297,-9.26846,0.517606,-14.0164,36.9278,3.05017,3.24194,13.9542,-0.186362,4.21633,2.29596e-14,3.10104e-14,-28.0149,-15.6706,-67.2188,41.567,-21.2168,-14.0463,16.292,7.12502,12.0844,-13.3391,2.29596e-14,3.10104e-14,-44.1036,39.7548,62.3519,20.8727,-18.9205,-5.51937,31.9684,7.12502,20.2943,60.9281,-16.4283,0.361606,23.4913,39.7332,-22.2991,-6.98536,23.1628,-25.4707,-8.08888,-9.25867,42.4769,-15.2764,1.57447,-4.8603
12.0255,17.8135,-44.7317,3.20592,-12.1639,-3.53313,6.77127,2.85176,0.160372,4.16325,3.7922,2.79752,0.324323,1.86342,2.54389,-9.73934,0.148059,-14.2221,36.5006,2.55573,3.42038,13.9114,-0.385647,4.25429,1.50082e-14,2.66371e-14,-27.6217,-15.8376,-67.3682,41.8414,-21.2449,-13.769,16.3899,7.12502,12.3519,-13.2252,1.50082e-14,2.66371e-14,-44.309,40.5152,61.9112,20.2325,-20.0347,-5.2835,31.5618,7.12502,20.521,60.4972,-16.2743,0.67373,23.1832,39.7885,-22.5033,-6.71668,23.141,-24.7604,-7.69774,-9.66748,42.2534,-16.0103,2.19147,-5.85259
12.0467,17.8137,-44.6881,3.23117,-12.2869,-3.2754,6.6061,2.77708,-0.0847653,4.14958,3.67817,2.75395,0.394056,1.80262,2.65153,-10.093,-0.156916,-14.591,36.1332,2.15319,3.67191,13.8614,-0.560741,4.36023,3.44891e-14,5.56597e-15,-27.3012,-15.6926,-67.52,42.1089,-21.1715,-13.588,16.7352,7.12502,12.5264,-12.8693,3.44891e-14,5.56597e-15,-44.9158,41.4085,61.2169,19.7462,-21.1565,-4.97948,31.0433,7.12502,20.8131,59.947,-16.2491,0.729013,22.8048,39.8042,-22.5475,-6.79897,22.9516,-24.299,-7.32324,-10.1492,41.9643,-16.4815,2.33967,-5.52394
12.0609,17.8118,-44.6652,3.51461,-11.6789,-3.02228,6.46356,2.46349,-0.42035,3.87203,3.25066,2.77341,0.18722,1.58745,2.88571,-10.4383,-0.363324,-14.5286,35.9524,1.92161,3.56279,13.8876,-0.661176,4.27257,-4.07509e-15,-1.15295e-14,-27.2625,-15.2674,-67.6426,42.5006,-21.1923,-13.7885,16.7141,7.12502,12.3331,-12.9022,-4.07509e-15,-1.15295e-14,-45.6755,41.7751,60.7906,19.7236,-21.7585,-4.56967,31.0833,7.12502,21.2068,59.9433,-16.5125,0.48921,22.5368,39.8221,-22.6177,-7.18448,23.3637,-24.4551,-7.20954,-10.4856,41.6306,-16.7122,1.99983,-5.41787
12.076,17.8127,-44.6327,3.46772,-12.2363,-3.05187,6.732,2.57871,-0.597295,3.59289,3.4033,2.83329,-0.271049,1.66703,3.01548,-9.58672,-0.559063,-14.9189,35.0558,1.45822,3.78463,13.3475,-0.835123,4.31885,1.72943e-14,1.59028e-15,-27.5791,-14.7859,-67.6628,42.9637,-21.4271,-13.7416,16.5874,7.12502,12.3782,-13.0262,1.72943e-14,1.59028e-15,-46.5068,41.6723,60.5104,19.7938,-22.1201,-4.32362,31.1729,7.12502,21.4432,60.0061,-16.3454,1.00208,22.4636,39.7696,-22.6481,-7.33937,21.6578,-23.8951,-6.66173,-10.6493,41.2605,-17.0267,2.19479,-5.39789
12.1037,17.82,-44.5741,3.47907,-12.403,-3.01869,6.46364,2.53256,-0.503373,3.38884,3.35044,2.80168,-0.322878,1.64449,2.9402,-8.71136,-0.70365,-15.0085,34.2181,1.05267,3.84565,12.8396,-0.972594,4.2627,-1.91827e-14,3.97569e-16,-27.8567,-14.5253,-67.7226,43.3191,-21.5232,-13.5943,16.6599,7.12502,12.5203,-12.945,-1.91827e-14,3.97569e-16,-47.5029,42.3511,59.3246,19.0087,-23.6325,-4.49506,30.6246,7.12502,21.2785,59.4766,-16.1113,1.10768,22.2819,39.6327,-22.7254,-7.41153,20.1466,-23.4851,-6.76872,-10.8966,40.8833,-17.2196,2.67372,-5.38747
12.1339,17.8299,-44.5149,3.42381,-12.7545,-2.91602,5.92001,2.60335,-0.38393,3.48884,3.44323,2.6666,0.0912109,1.68965,2.75601,-8.32576,-1.01973,-14.8733,33.4202,0.432888,3.95473,12.4848,-1.17714,4.17401,4.67144e-15,-7.95139e-16,-27.771,-14.8399,-67.9067,43.6064,-21.3673,-13.7492,16.6818,7.12502,12.3709,-12.9322,4.67144e-15,-7.95139e-16,-47.8199,43.1675,58.3974,18.16,-25.1658,-4.51194,30.4691,7.12502,21.2623,59.3229,-15.7961,1.30918,22.0032,39.4276,-22.7017,-7.3713,19.085,-23.0255,-6.72594,-11.2535,40.5454,-17.3189,3.29885,-7.01888
12.1603,17.8398,-44.4646,3.39001,-12.9918,-2.94668,6.53913,2.60091,-0.46818,3.1585,3.44927,2.78349,-0.6045,1.69842,2.88421,-8.97701,-1.38572,-14.9736,33.4478,0.03767,3.94919,12.6845,-1.36902,4.14658,1.69961e-14,-2.5842e-14,-27.9579,-14.7304,-67.8344,43.8686,-21.3056,-13.5067,16.7892,7.12502,12.6048,-12.8105,1.69961e-14,-2.5842e-14,-48.5136,43.3157,57.9967,17.9693,-25.5008,-4.14997,30.8103,7.12502,21.6099,59.6245,-15.4842,1.55593,21.9124,39.1931,-22.63,-7.48059,18.8571,-22.6365,-6.37614,-11.4201,40.2723,-17.3403,3.4591,-8.27081
12.1774,17.8479,-44.4384,3.57103,-12.6853,-2.93493,6.64897,2.51124,-0.412208,3.21269,3.33165,2.69948,-0.595071,1.63983,2.77161,-10.1226,-1.86955,-14.7453,33.1312,-0.53061,3.9866,12.8557,-1.57008,4.04649,2.23633e-14,5.96354e-15,-27.4407,-15.3599,-68.1361,44.0106,-21.1599,-13.0138,16.9361,7.12502,13.0799,-12.6338,2.23633e-14,5.96354e-15,-47.763,43.7297,58.2712,17.6634,-25.9181,-3.82252,30.828,7.12502,21.9244,59.6057,-15.4683,1.65172,21.8646,38.9882,-22.5436,-7.90643,18.7459,-22.7182,-6.05837,-11.4988,40.0684,-17.34,2.92664,-7.78043
12.1979,17.8569,-44.3967,3.57346,-12.8438,-2.86711,6.58792,2.42572,-0.584654,3.08266,3.21183,2.78479,-0.703085,1.5802,2.96447,-9.85208,-2.06858,-15.042,32.4971,-0.846223,4.08475,12.5736,-1.70637,4.0723,1.39149e-15,-1.07344e-14,-27.473,-14.8819,-68.2318,44.2827,-21.1994,-13.2325,16.9101,7.12502,12.869,-12.6732,1.39149e-15,-1.07344e-14,-48.2511,43.888,58.0666,17.6396,-25.8576,-3.41846,30.6393,7.12502,22.3123,59.371,-15.2687,1.91641,21.6796,38.8369,-22.6798,-8.00136,18.147,-22.4425,-5.75925,-11.7198,39.9162,-17.5745,2.66051,-5.78736
12.2259,17.8637,-44.337,3.6149,-12.7913,-2.69014,6.26386,2.31981,-0.694655,2.96372,3.06608,2.78367,-0.643302,1.50762,3.0462,-9.56443,-2.36587,-15.2762,32.0429,-1.3163,4.17812,12.3861,-1.91363,4.07198,-2.50469e-14,6.36111e-15,-27.5984,-14.7353,-68.3079,44.4934,-21.2813,-13.5275,17.0544,7.12502,12.5846,-12.5465,-2.50469e-14,6.36111e-15,-48.5729,43.7207,58.0977,17.7674,-25.5888,-2.83087,30.8034,7.12502,22.8763,59.4666,-15.0887,1.89772,21.3496,38.726,-22.9502,-8.1097,17.4602,-22.247,-5.95073,-12.075,39.7601,-18.404,4.2087,-22.0503
12.2512,17.8609,-44.2849,3.6509,-12.9698,-2.32415,6.06542,2.31641,-1.13499,2.73991,3.04224,2.75837,-0.783267,1.49707,3.27144,-9.52001,-2.57626,-15.2388,31.9297,-1.61656,4.08965,12.3669,-2.05045,3.98748,7.25564e-15,1.35174e-14,-27.979,-14.5443,-68.3173,44.796,-21.4378,-13.7074,17.1135,7.12502,12.4112,-12.498,7.25564e-15,1.35174e-14,-48.6895,43.2549,58.4709,17.9692,-25.085,-2.24939,31.4649,7.12502,23.4342,60.0579,-15.0171,2.05462,20.8184,38.6303,-22.9197,-8.24966,17.0668,-22.0784,-6.30653,-12.614,39.604,-17.9338,3.68753,-10.8547
12.2727,17.8676,-44.2447,3.64777,-13.0231,-1.97325,9.10986,2.25776,-1.47708,0.413293,2.97222,2.51837,-4.8902,1.52911,3.06217,-8.45078,-2.42056,-15.1641,33.0012,-1.62834,4.14067,12.5884,-2.10542,4.02139,-9.44227e-15,-2.22639e-14,-31.641,-13.092,-68.071,45.6821,-21.7855,-14.0344,16.8963,7.12502,12.096,-12.7341,-9.44227e-15,-2.22639e-14,-51.4855,40.0228,57.4558,18.6473,-23.2208,-1.68051,31.9566,7.12502,23.9798,60.4789,-14.9027,2.19994,20.3643,38.5,-22.8351,-8.50519,16.3674,-21.9391,-6.18191,-13.0971,39.4257,-17.7228,3.02827,-5.04696
12.2955,17.8729,-44.202,3.62171,-13.0701,-1.86147,5.82534,2.25086,-1.45302,2.76622,2.93611,2.55572,-0.620898,1.44093,3.25841,-9.59242,-3.07804,-15.4583,30.5796,-2.41806,4.50375,11.9308,-2.32491,4.04319,4.63168e-14,-3.18055e-15,-27.9916,-14.6363,-68.9028,45.5142,-21.6707,-13.8365,16.9209,7.12502,12.2867,-12.6982,4.63168e-14,-3.18055e-15,-47.5255,42.8634,59.5653,18.2811,-24.4897,-1.21897,31.6101,7.12502,24.4223,60.0735,-14.6853,2.34623,20.1557,38.3837,-22.9584,-8.71636,15.5152,-21.7377,-5.752,-13.3443,39.2767,-17.7199,2.50359,-3.2893
12.324,17.8768,-44.1446,3.58997,-13.3777,-1.78718,5.70573,2.3171,-1.36986,2.68832,3.02897,2.4276,-0.630058,1.48956,3.0758,-9.67017,-3.34972,-15.3089,30.1473,-2.87117,4.63459,11.8227,-2.47818,3.99691,1.74931e-14,3.18055e-15,-28.3291,-14.7697,-69.1286,45.8028,-21.693,-13.6688,17.0147,7.12502,12.4484,-12.5945,1.74931e-14,3.18055e-15,-47.2357,42.5013,59.7479,18.3947,-24.1797,-0.679119,31.6522,7.12502,24.9397,60.0448,-14.4014,2.59666,19.895,38.1942,-23.1431,-8.587,15.7828,-21.4339,-5.08378,-13.625,39.1403,-17.9323,2.15529,-1.72681
12.3393,17.8845,-44.1368,3.99791,-12.7689,-1.58975,5.91158,2.03244,-1.7261,2.03481,2.64151,2.46332,-1.40969,1.31212,3.31817,-9.09721,-3.41738,-15.327,29.8094,-3.08574,4.67927,11.5978,-2.56536,3.98327,-1.27222e-14,2.06736e-14,-29.1717,-14.4831,-69.1346,46.1283,-21.6754,-13.5734,17.1454,7.12502,12.5404,-12.4583,-1.27222e-14,2.06736e-14,-47.4741,41.6466,60.0026,18.7258,-23.4054,-0.213937,32.1154,7.12502,25.3854,60.4454,-14.7256,2.42418,19.6692,38.0442,-23.2281,-8.86367,16.7689,-22.0393,-4.41583,-13.8272,39.0368,-17.7771,1.02262,-1.52849
12.3682,17.8894,-44.0875,3.80981,-13.677,-1.62327,6.28013,2.21014,-1.84699,1.70505,2.87506,2.57005,-1.98271,1.44048,3.4581,-8.41797,-3.42901,-15.5876,29.3303,-3.212,4.80746,11.2971,-2.62589,4.05214,-8.74653e-15,3.18055e-15,-29.8425,-14.0908,-69.0835,46.2835,-21.662,-13.0763,17.3116,7.12502,13.0197,-12.2621,-8.74653e-15,3.18055e-15,-47.9719,41.0533,60.1026,19.0923,-22.9116,0.119542,32.0162,7.12502,25.7049,60.3004,-14.4048,2.93366,19.487,37.9048,-23.1883,-8.53716,16.3449,-21.4165,-3.90909,-14.0233,38.9294,-17.9491,1.36313,-1.39342
12.3934,17.8947,-44.0447,3.90205,-13.5842,-1.55126,8.8437,2.0757,-2.24609,-0.275557,2.67743,2.75147,-5.49186,1.42412,3.78143,-7.88057,-3.29663,-15.752,30.4452,-3.04359,4.58089,11.6143,-2.65316,4.04312,9.24349e-15,-9.54166e-15,-32.7591,-12.5377,-68.581,46.7562,-21.9692,-12.8685,17.2308,7.12502,13.22,-12.33,9.24349e-15,-9.54166e-15,-50.9303,38.9081,59.0591,19.8183,-21.5163,0.471267,31.4956,7.12502,26.0417,59.7307,-14.3142,3.0319,19.3288,37.8205,-23.288,-8.8099,15.2248,-21.3837,-3.84944,-14.2146,38.8342,-17.88,1.31421,-0.879833
12.4198,17.8996,-43.9982,4.07779,-13.4097,-1.43363,8.56189,1.95898,-2.35537,-0.14454,2.51547,2.82177,-5.18951,1.34207,3.94876,-8.87119,-3.65335,-15.8983,30.241,-3.34109,4.5728,11.7786,-2.78605,4.01399,-1.68967e-14,2.38542e-15,-32.3964,-12.5787,-68.7611,46.8469,-22.0583,-13.1376,17.0772,7.12502,12.9605,-12.5003,-1.68967e-14,2.38542e-15,-49.9515,38.7461,60.1542,20.1888,-20.7228,0.87008,31.361,7.12502,26.4235,59.5393,-14.3099,3.04419,19.0999,37.7298,-23.2972,-8.96296,15.3057,-21.4541,-3.82903,-14.4689,38.7348,-17.8274,1.33255,-1.07298
12.4479,17.9045,-43.9548,4.20104,-13.3029,-1.42711,8.30581,1.82881,-2.37295,-0.263089,2.35008,2.91771,-5.1598,1.26401,4.08706,-8.58739,-3.76783,-16.0278,29.6807,-3.55238,4.63836,11.53,-2.86807,4.02212,-6.95746e-16,-1.82882e-14,-32.6158,-12.3372,-68.9004,46.9593,-22.0385,-13.6244,16.9459,7.12502,12.4913,-12.6608,-6.95746e-16,-1.82882e-14,-49.4077,37.935,61.2022,20.71,-19.5689,1.28305,31.8483,7.12502,26.8187,59.9666,-14.2561,2.94566,18.9678,37.6471,-23.2454,-8.95624,16.2639,-21.4258,-3.75612,-14.6159,38.6331,-17.8677,1.25908,-1.2879
12.4746,17.9062,-43.9281,4.21418,-12.977,-1.21161,8.38066,1.64835,-2.63689,-0.358765,2.08749,2.98623,-5.29136,1.14634,4.3424,-8.71689,-3.89866,-16.1738,29.3787,-3.71764,4.7423,11.4643,-2.93351,4.0564,-8.44835e-15,-1.51076e-14,-32.6775,-12.1826,-69.0589,47.0062,-22.0204,-13.8651,17.0138,7.12502,12.2592,-12.6069,-8.44835e-15,-1.51076e-14,-48.8977,37.472,62.002,21.1861,-18.8239,1.63955,32.1451,7.12502,27.1598,60.2106,-14.1647,2.6112,18.6522,37.5518,-23.2397,-9.20244,15.8131,-21.4405,-3.65786,-14.9546,38.5478,-17.8713,0.859725,-1.1106
12.5156,17.9089,-43.8531,4.23344,-13.7338,-0.982427,7.91177,1.9083,-2.64773,-0.227301,2.43175,2.85677,-4.91656,1.30667,4.1778,-9.30926,-4.20421,-16.1365,29.2471,-4.08114,4.8417,11.5777,-3.06987,4.03092,-1.83876e-14,3.65764e-14,-32.7198,-12.5341,-69.1413,47.0072,-21.9498,-13.5576,17.178,7.12502,12.5557,-12.4247,-1.83876e-14,3.65764e-14,-48.0812,37.1146,62.7107,21.5176,-18.6515,1.80555,31.7308,7.12502,27.3186,59.7714,-14.1142,2.62075,18.0918,37.4322,-23.1934,-8.89874,13.6103,-21.0862,-3.68983,-15.4777,38.4946,-18.2189,1.54481,-0.400252
12.551,17.9138,-43.7946,4.27343,-14.2262,-0.915797,7.68882,2.03122,-2.6568,-0.254964,2.59898,2.86146,-4.83634,1.38918,4.17216,-9.46034,-4.3366,-16.0221,28.9197,-4.23876,4.74846,11.4942,-3.12447,3.94599,2.70347e-14,-1.74931e-14,-32.9255,-12.4834,-69.2009,47.0246,-21.8739,-13.3371,17.0402,7.12502,12.7682,-12.5494,2.70347e-14,-1.74931e-14,-47.4899,36.4521,63.5401,21.9198,-18.0742,1.6768,31.4806,7.12502,27.1954,59.5405,-14.0573,2.71458,17.7941,37.3302,-23.1946,-8.6453,12.0367,-20.8284,-3.74767,-15.7615,38.4419,-18.4145,2.07919,-0.140539
12.5733,17.9185,-43.78,4.44582,-13.5571,-0.888887,8.00593,1.75984,-2.81482,-0.597984,2.22995,3.01774,-5.35361,1.22832,4.46373,-9.27612,-4.3709,-16.0473,28.5904,-4.29144,4.6604,11.3359,-3.15075,3.90477,-2.127e-14,1.59028e-14,-33.3062,-12.1127,-69.2333,47.0456,-22.0068,-13.3463,16.8961,7.12502,12.7594,-12.6941,-2.127e-14,1.59028e-14,-47.1989,35.5229,64.382,22.4404,-17.1156,1.60375,31.7214,7.12502,27.1256,59.7922,-14.0773,2.52144,17.7879,37.2638,-23.2631,-9.05258,12.4947,-21.0657,-3.94448,-15.809,38.3867,-18.3391,1.69336,-0.390912
12.6058,17.9201,-43.7295,4.55529,-14.1033,-0.910277,7.9001,1.8613,-2.90903,-0.813513,2.36847,3.15027,-5.54506,1.30979,4.6401,-9.0955,-4.4308,-16.2903,28.4356,-4.3914,4.75922,11.2636,-3.20777,3.96788,-1.88845e-15,8.74653e-15,-33.7027,-11.733,-69.2231,46.9672,-22.0048,-13.0845,17.0692,7.12502,13.0117,-12.505,-1.88845e-15,8.74653e-15,-47.1348,34.9089,64.907,22.9897,-16.5281,1.76182,31.9078,7.12502,27.2768,59.955,-14.1512,2.81763,17.6163,37.2461,-23.2141,-8.94062,12.4929,-20.8623,-4.33035,-15.9809,38.3285,-18.6378,2.53586,-0.058687
12.635,17.9206,-43.6943,4.53556,-14.8047,-0.835452,7.99453,1.96268,-3.24424,-0.938737,2.48141,3.32694,-5.76723,1.38664,5.00079,-9.1628,-4.41943,-16.6862,28.3714,-4.33401,4.93564,11.2636,-3.2016,4.10536,8.94531e-16,-2.94201e-14,-33.7942,-11.2521,-69.292,46.7488,-21.6972,-12.6939,17.3026,7.12502,13.3883,-12.2472,8.94531e-16,-2.94201e-14,-47.068,34.8877,65.1989,23.402,-16.2773,1.74456,31.6483,7.12502,27.2603,59.6981,-14.2244,3.2117,17.3334,37.3014,-23.1665,-8.90241,10.2149,-20.5778,-4.36586,-16.2652,38.2398,-18.8461,3.23592,-0.174171
12.6634,17.9237,-43.6676,4.68012,-15.1352,-0.708728,8.02987,1.95548,-3.58341,-1.08363,2.44729,3.45924,-5.95912,1.39135,5.33891,-9.40914,-4.42945,-16.8766,28.2603,-4.27023,4.96311,11.2703,-3.18283,4.15011,1.09332e-14,1.90833e-14,-33.7713,-10.9684,-69.3798,46.4857,-21.294,-12.4017,17.3796,7.12502,13.6699,-12.1515,1.09332e-14,1.90833e-14,-46.7623,34.8735,65.5198,23.6881,-16.0018,1.53815,30.9616,7.12502,27.0628,59.0422,-14.4803,3.40546,17.0275,37.3881,-23.1443,-8.93376,8.92703,-20.579,-4.28561,-16.5515,38.1248,-18.9072,3.49678,-0.558172
12.6947,17.9225,-43.6336,4.78494,-15.2223,-0.463302,7.92648,1.99883,-3.77208,-1.12967,2.48558,3.38517,-5.95898,1.4165,5.36439,-9.7021,-4.60568,-16.68,28.0307,-4.48936,4.90819,11.2596,-3.25425,4.0588,-3.61788e-14,-1.51076e-14,-33.8186,-11.4034,-69.3936,46.1606,-20.7196,-11.9303,17.5109,7.12502,14.1241,-11.989,-3.61788e-14,-1.51076e-14,-45.9474,34.3084,66.1578,24.0167,-15.6311,1.38403,30.8704,7.12502,26.9154,58.9738,-14.6619,3.3842,16.6242,37.4867,-23.1722,-8.93278,9.15952,-20.5864,-4.34631,-16.9532,38.0314,-18.942,3.63765,-0.558649
12.7256,17.9169,-43.5925,4.72059,-15.3923,-0.260289,7.84796,2.06442,-3.97446,-1.08006,2.55408,3.36739,-5.87932,1.45401,5.45377,-9.90937,-4.77341,-16.5163,27.7611,-4.69568,4.81603,11.2154,-3.32723,3.96058,1.799e-14,-1.74931e-14,-33.8156,-11.7584,-69.4115,45.8058,-20.3208,-11.6381,17.6163,7.12502,14.4057,-11.8638,1.799e-14,-1.74931e-14,-44.8116,33.0394,67.7112,25.1118,-14.2264,1.33692,34.0947,7.12502,26.8703,62.2051,-14.6032,3.45914,16.2739,37.5675,-23.323,-8.9655,9.63127,-20.3816,-4.27893,-17.3495,37.9786,-19.0385,3.7904,-0.984768
12.7578,17.9158,-43.5574,4.72499,-15.9466,-0.258053,7.83633,2.1936,-4.11081,-1.05238,2.7185,3.45239,-5.87632,1.54099,5.60038,-10.0767,-4.87229,-16.497,27.5471,-4.78973,4.75104,11.1771,-3.36464,3.91333,-6.4605e-15,2.06736e-14,-33.7826,-11.7599,-69.5039,45.5194,-20.1316,-11.6774,17.6057,7.12502,14.3678,-11.8771,-6.4605e-15,2.06736e-14,-44.5821,33.3516,67.5479,25.049,-14.8069,0.924294,31.7491,7.12502,26.4754,59.9196,-14.677,3.73968,16.0786,37.6433,-23.3901,-8.84586,9.66045,-20.1926,-3.92577,-17.5631,37.9477,-19.2,3.96148,-1.2118
12.7896,17.9176,-43.5162,4.83844,-16.4068,-0.27425,7.6209,2.23952,-3.6292,-1.08394,2.8139,3.13113,-5.75573,1.56327,4.97503,-10.106,-4.87202,-16.2624,27.3537,-4.9206,5.06064,11.1166,-3.35836,3.97023,3.72721e-14,1.43125e-14,-33.908,-12.2983,-70.0013,45.1011,-19.5156,-11.457,17.7849,7.12502,14.5802,-11.6826,3.72721e-14,1.43125e-14,-43.6838,32.2776,67.9695,25.6178,-13.782,0.517053,32.0835,7.12502,26.0855,60.3121,-14.8424,4.00987,15.8961,37.7166,-23.3952,-8.71826,8.98674,-20.1619,-3.71492,-17.7325,37.9798,-19.4171,4.42933,-1.48164
12.8227,17.9154,-43.4705,4.93339,-16.8455,-0.236709,7.26406,2.1723,-2.18801,-1.15178,2.80565,2.03942,-5.48785,1.48833,3.01889,-9.8087,-4.73352,-15.4002,27.0227,-5.15894,5.78404,10.9286,-3.29447,4.06659,4.12975e-14,3.97569e-15,-34.246,-13.5242,-71.4873,44.6206,-18.6027,-11.227,17.9383,7.12502,14.8018,-11.5131,4.12975e-14,3.97569e-15,-42.5784,30.4843,67.3901,26.0468,-12.6001,0.158458,32.1078,7.12502,25.7421,60.3867,-14.9378,4.21058,15.649,37.6647,-23.3328,-8.55108,8.44085,-20.1935,-3.65384,-17.9669,38.1474,-19.7794,5.00976,-2.14532
12.8449,17.9081,-43.4797,5.17433,-16.2701,0.0305464,4.96065,1.77717,-2.97604,0.166176,2.2679,2.51333,-2.82952,1.18628,4.1019,-9.78776,-4.76572,-15.8653,25.2631,-5.07365,5.83492,10.2799,-3.23224,4.13965,1.49089e-14,-5.56597e-15,-31.7567,-13.5107,-71.7194,43.9366,-18.3138,-11.0896,17.8991,7.12502,14.9342,-11.5425,1.49089e-14,-5.56597e-15,-40.0608,31.9391,68.9787,26.2548,-12.619,-0.139578,32.533,7.12502,25.4567,60.8529,-15.0923,4.10896,15.3444,37.6334,-23.6415,-8.61343,9.42862,-20.8173,-3.43373,-18.2278,38.3489,-19.7868,3.44191,-0.521204
12.8816,17.8791,-43.4234,5.00318,-17.224,0.0341645,5.21874,1.9597,-3.10456,0.0270247,2.50374,2.6525,-3.15309,1.31548,4.29086,-9.98037,-4.74294,-15.8655,25.4293,-4.95896,5.62192,10.3614,-3.20623,4.07617,2.09718e-14,-7.95139e-16,-32.079,-13.2193,-71.6213,43.532,-18.0542,-10.8989,17.9601,7.12502,15.1179,-11.4678,2.09718e-14,-7.95139e-16,-40.1245,31.4478,69.284,26.9406,-11.971,-0.427111,33.4664,7.12502,25.1812,61.8253,-14.4901,5.09455,14.9479,37.5787,-24.6576,-6.66904,16.4576,-20.4516,-3.40476,-18.5099,38.5873,-20.2367,4.39066,-0.482196
12.9132,17.874,-43.3898,5.04221,-17.6046,0.113209,4.84169,2.0025,-3.16665,0.285916,2.56324,2.65054,-2.68198,1.33223,4.3347,-10.3203,-4.89308,-15.6687,25.1355,-5.11692,5.51199,10.3292,-3.25631,3.97234,-5.14852e-14,8.74653e-15,-31.6083,-13.6465,-71.7987,42.9403,-17.399,-11.0278,18.0255,7.12502,14.9937,-11.4117,-5.14852e-14,8.74653e-15,-39.1196,31.0774,69.9307,27.4945,-11.4345,-0.568672,33.7376,7.12502,25.0456,62.1154,-14.6142,5.03808,14.7312,37.6781,-24.3613,-6.94502,12.9257,-20.4455,-3.30106,-18.7701,38.7131,-20.4206,4.71512,-0.976077
12.943,17.8707,-43.3686,5.21935,-17.7615,0.241199,4.88625,1.95827,-3.33625,0.137778,2.49528,2.65651,-2.86116,1.30711,4.43872,-10.3536,-4.91498,-15.5531,24.9775,-5.13546,5.39919,10.2734,-3.26079,3.90624,-5.11871e-14,-3.97569e-15,-31.6208,-14.0793,-71.7727,42.3057,-17.037,-10.5324,18.1348,7.12502,15.4709,-11.2661,-5.11871e-14,-3.97569e-15,-38.7028,30.6168,70.1479,27.9111,-10.8864,-0.987999,32.9441,7.12502,24.6437,61.3774,-14.9745,4.90038,14.4815,37.8264,-24.0994,-7.30648,11.4805,-20.6614,-3.07366,-19.0381,38.7617,-20.4188,4.65786,-1.39671
12.9737,17.8791,-43.3352,5.21644,-18.1813,0.330067,5.20082,1.97284,-3.59366,-0.079717,2.49714,2.77999,-3.28079,1.32631,4.70124,-10.3923,-4.8174,-15.6878,25.0293,-4.95703,5.3638,10.2834,-3.19734,3.9389,-3.68746e-14,5.56597e-15,-31.9163,-13.9535,-71.6683,41.8743,-16.6235,-10.519,18.1053,7.12502,15.4838,-11.2947,-3.68746e-14,5.56597e-15,-38.6776,30.2022,70.2985,28.3571,-10.2508,-1.66981,31.6533,7.12502,23.9901,60.1743,-15.3026,4.87448,14.2589,38.0337,-23.8205,-7.71991,11.3971,-20.5325,-2.7379,-19.3091,38.7681,-20.4492,4.69363,-1.54268
13.0054,17.884,-43.3027,5.08448,-18.5053,0.5977,5.29272,1.93217,-3.81439,-0.0592752,2.42505,2.72933,-3.31055,1.29383,4.77765,-10.6854,-4.75724,-15.6526,24.9956,-4.83728,5.39844,10.3118,-3.13049,3.95689,-1.68967e-14,6.36111e-15,-32.0188,-13.8755,-71.8296,41.6179,-16.4215,-10.2613,18.1162,7.12502,15.732,-11.2644,-1.68967e-14,6.36111e-15,-38.2488,29.7917,70.4683,28.8303,-9.63023,-1.79238,31.1604,7.12502,23.8725,59.6968,-15.4264,4.85706,13.8362,38.2082,-23.6856,-7.84963,7.65912,-20.347,-2.49692,-19.7545,38.7819,-20.5956,4.62305,-0.932247
13.037,17.8588,-43.2815,5.11347,-18.6378,0.726246,5.37606,1.84699,-3.92693,-0.151894,2.30247,2.73472,-3.44468,1.23986,4.85494,-10.6992,-4.70785,-15.5728,24.8201,-4.76803,5.35017,10.2377,-3.09076,3.93196,1.82882e-14,0,-32.1784,-14.0092,-71.8623,41.2323,-16.2271,-9.76549,18.1311,7.12502,16.2095,-11.2112,1.82882e-14,0,-37.9444,29.262,70.643,29.3723,-9.09032,-1.73902,31.4586,7.12502,23.9237,59.9883,-15.2155,5.09831,13.502,38.2861,-24.1417,-7.0729,10.1763,-20.4516,-2.3572,-20.0144,38.8898,-20.6621,4.43291,0.626407
13.0661,17.8556,-43.2585,5.17579,-18.8423,0.752406,5.50826,1.82801,-3.98466,-0.204414,2.26952,2.73353,-3.57223,1.2286,4.88558,-10.8517,-4.71621,-15.4617,24.7454,-4.78247,5.37237,10.2371,-3.08039,3.91663,4.47266e-15,1.19271e-14,-32.1738,-14.3422,-71.9337,40.7433,-15.9003,-9.73381,17.9632,7.12502,16.24,-11.3766,4.47266e-15,1.19271e-14,-37.4556,28.5661,70.9437,29.9471,-8.50397,-2.04698,31.7856,7.12502,23.6283,60.3537,-15.3803,5.17343,13.334,38.3805,-24.0789,-7.05368,9.45419,-20.4884,-2.08786,-20.179,38.9657,-20.4815,4.40865,0.0835512
13.0945,17.8531,-43.2354,5.16932,-19.0785,0.940422,5.76291,1.81687,-4.26858,-0.301644,2.22749,2.7267,-3.8233,1.22148,5.03674,-11.2331,-4.72273,-15.3689,24.9188,-4.75095,5.37373,10.3666,-3.05824,3.90386,6.06293e-15,2.38542e-15,-32.2967,-14.387,-72.0036,40.4107,-15.8838,-10.0306,17.7396,7.12502,15.9542,-11.6233,6.06293e-15,2.38542e-15,-37.0653,27.8757,71.1943,30.525,-7.88458,-2.39523,32.0938,7.12502,23.2943,60.7046,-15.5494,5.17175,13.0166,38.488,-24.0532,-7.01584,9.20404,-20.5122,-1.83746,-20.5087,39.0427,-20.2081,4.36631,-0.701537
13.1242,17.852,-43.2126,5.18859,-19.2733,1.10723,6.28053,1.73058,-4.65507,-0.695841,2.07211,2.87173,-4.52971,1.18306,5.41167,-11.0766,-4.60596,-15.5094,25.0369,-4.56456,5.27904,10.3617,-3.00412,3.92071,3.6477e-14,-3.57812e-14,-32.914,-14.0077,-71.8107,40.1409,-15.907,-10.0156,17.7443,7.12502,15.9686,-11.6175,3.6477e-14,-3.57812e-14,-37.5426,27.3397,71.1632,31.2692,-7.36021,-2.53922,31.8708,7.12502,23.1561,60.499,-15.7673,5.08786,12.7301,38.6793,-23.8506,-7.15545,7.47616,-20.5284,-1.69727,-20.8046,39.0072,-20.4197,4.16306,1.48305
13.1567,17.8508,-43.1758,5.13147,-19.7663,1.19148,6.06793,1.68483,-4.76017,-0.583204,2.01383,2.93882,-4.2906,1.1482,5.55413,-10.8551,-4.49993,-15.6792,24.6182,-4.42649,5.33897,10.1562,-2.93844,3.98395,-7.55382e-14,3.18055e-15,-32.818,-13.9694,-71.8647,39.721,-15.6124,-9.78253,17.8206,7.12502,16.1931,-11.5231,-7.55382e-14,3.18055e-15,-37.3561,27.1208,71.2945,31.9381,-7.00543,-2.62117,31.3599,7.12502,23.0775,59.998,-15.8734,5.22354,12.4392,38.8819,-23.8798,-6.93619,6.55568,-20.3488,-1.5303,-21.0859,38.9819,-20.6502,4.42472,2.47909
13.1911,17.8425,-43.1042,4.86943,-21.0575,1.12904,5.62971,1.94882,-4.53006,-0.238844,2.39572,2.87025,-3.72126,1.30817,5.32466,-10.8435,-4.43255,-15.678,24.3353,-4.35617,5.44553,10.0433,-2.88462,4.02693,-4.57205e-15,1.11319e-14,-32.7351,-14.1393,-72.0172,39.3662,-15.4866,-9.75891,17.7128,7.12502,16.2158,-11.629,-4.57205e-15,1.11319e-14,-36.7802,26.5911,71.5261,32.4994,-6.44219,-2.78188,31.8129,7.12502,22.9233,60.4702,-15.7545,5.93663,12.1739,39.0406,-23.9931,-6.30926,6.67967,-19.7039,-1.28618,-21.3601,38.9872,-21.0088,5.47812,2.39779
13.2142,17.8335,-43.0858,4.75729,-21.371,1.11946,5.78703,1.93953,-4.56229,-0.10948,2.37392,2.84473,-3.67244,1.29296,5.31578,-11.0579,-4.38967,-15.5027,24.1878,-4.2981,5.46584,10.0171,-2.83162,4.00802,1.78906e-14,-7.95139e-16,-32.6429,-14.5143,-72.1529,38.9466,-15.3158,-9.86088,17.5842,7.12502,16.1176,-11.7655,1.78906e-14,-7.95139e-16,-36.1343,25.8726,71.7536,33.1367,-5.69003,-2.79736,32.8923,7.12502,22.9084,61.5514,-15.7467,6.2102,12.1073,39.198,-23.9756,-6.26356,7.88636,-19.5493,-0.812036,-21.4567,39.01,-21.0324,5.31391,1.8614
13.2409,17.8266,-43.0654,4.77671,-21.4001,1.18327,5.90078,1.77059,-4.71353,-0.112103,2.13566,2.90348,-3.71697,1.17902,5.48507,-11.3537,-4.335,-15.3217,24.1684,-4.1665,5.29473,10.0428,-2.76868,3.92925,9.93923e-15,-1.90833e-14,-32.6113,-14.6523,-72.202,38.5568,-15.0957,-9.9572,17.5321,7.12502,16.0249,-11.8252,9.93923e-15,-1.90833e-14,-35.8219,25.2773,71.9162,33.8643,-5.11878,-2.84855,33.6837,7.12502,22.8593,62.3489,-15.8349,6.04332,11.944,39.3605,-24.0575,-6.01364,9.20418,-19.5841,-0.504293,-21.626,39.0229,-21.0691,5.08207,1.52454
13.2709,17.8237,-43.0417,4.88357,-21.1794,1.38637,5.85495,1.52759,-4.93564,-0.152661,1.79945,2.95208,-3.69809,1.01689,5.69731,-11.6681,-4.29909,-15.2466,24.2688,-4.04631,5.15813,10.1215,-2.7212,3.88101,4.77083e-15,8.74653e-15,-32.6899,-14.6157,-72.1898,38.3674,-15.0899,-9.98002,17.4816,7.12502,16.0029,-11.8775,4.77083e-15,8.74653e-15,-35.4663,24.7944,72.1226,34.3749,-4.79285,-3.20571,34.4096,7.12502,22.5165,63.1168,-16.0197,5.62263,11.5983,39.5296,-24.125,-5.81656,9.03256,-19.7315,-0.504382,-21.941,39.006,-21.1685,5.46634,-3.60216
13.2959,17.8223,-43.03,4.9174,-21.1343,1.63211,5.97846,1.37893,-5.2663,-0.217724,1.57314,2.96841,-3.81491,0.916228,5.92428,-11.7785,-4.2081,-15.2832,24.2446,-3.90958,5.22918,10.1194,-2.65202,3.92923,-1.49089e-15,2.54444e-14,-32.8465,-14.7099,-72.1208,38.145,-15.0765,-9.75011,17.5545,7.12502,16.2243,-11.7866,-1.49089e-15,2.54444e-14,-35.2232,24.4755,72.1616,34.7947,-4.62143,-3.46724,34.6502,7.12502,22.2655,63.3876,-16.2334,5.46159,11.2232,39.7166,-24.1175,-5.62267,9.36381,-19.8157,-0.322971,-22.2802,38.9798,-21.2706,5.74039,-8.23104
13.3259,17.8136,-42.9729,4.65923,-22.5138,1.66827,5.7827,1.66374,-5.29438,-0.0467091,1.95936,2.93214,-3.58095,1.09683,5.86823,-11.6706,-4.08566,-15.2651,24.0721,-3.766,5.2575,10.0184,-2.57687,3.95304,-8.3092e-14,3.18055e-15,-33.0381,-14.7767,-72.0879,37.9051,-15.1443,-9.71232,17.4803,7.12502,16.2607,-11.8579,-8.3092e-14,3.18055e-15,-35.1865,24.1698,72.0406,35.3306,-4.41544,-3.48471,34.3444,7.12502,22.2487,63.0837,-16.2517,6.11165,10.8423,39.864,-23.8711,-4.87145,8.99273,-19.2447,0.0720303,-22.6336,38.9393,-21.5017,6.0132,-2.25233
13.3549,17.8113,-42.9697,4.91015,-22.3248,1.7494,5.70354,1.44456,-5.36574,-0.0551317,1.66488,2.916,-3.50471,0.948954,5.92157,-11.7117,-4.06831,-15.1402,23.7649,-3.74118,5.19235,9.90787,-2.54961,3.90607,-5.26779e-15,-1.19271e-14,-32.9723,-15.0261,-72.1795,37.6423,-14.9616,-9.95542,17.3802,7.12502,16.0266,-11.9769,-5.26779e-15,-1.19271e-14,-34.7026,23.8101,71.9981,35.6555,-4.16356,-3.61955,33.4004,7.12502,22.1193,62.1552,-16.6253,5.8369,10.659,40.0267,-23.8727,-5.07156,7.7075,-19.6116,0.351297,-22.7734,38.923,-21.3864,4.89515,3.57167
13.385,17.8086,-42.9296,4.95326,-23.2005,1.60861,5.89283,1.56532,-5.40349,-0.183106,1.82001,3.07135,-3.77425,1.04091,6.08934,-11.7399,-4.03423,-15.2151,23.7152,-3.62668,5.00504,9.88376,-2.52218,3.86366,9.34288e-15,2.22639e-14,-33.3259,-15.0596,-71.9033,37.3381,-14.5999,-9.89339,17.5456,7.12502,16.0863,-11.8067,9.34288e-15,2.22639e-14,-34.8232,23.5337,71.9159,36.0397,-4.04787,-3.83252,31.6386,7.12502,21.9148,60.4174,-16.8361,6.27581,10.5255,40.123,-23.7068,-4.59349,7.94623,-19.4476,0.554377,-22.8691,38.9324,-21.4971,5.6245,2.76667
13.4114,17.8059,-42.9029,4.86824,-23.9598,1.55299,6.25055,1.65817,-5.55099,-0.273174,1.92148,3.19762,-4.09547,1.10908,6.29156,-11.8123,-3.9861,-15.2766,23.7309,-3.50018,4.86403,9.89009,-2.485,3.83817,-2.80286e-14,-1.51076e-14,-33.6535,-14.963,-71.7112,37.1479,-14.6643,-9.76323,17.4823,7.12502,16.2116,-11.8598,-2.80286e-14,-1.51076e-14,-34.9407,23.309,71.8073,36.6314,-4.0261,-2.99756,33.5973,7.12502,22.7163,62.2801,-16.9287,6.71895,10.3505,40.223,-23.4914,-4.01236,8.85136,-19.233,0.873653,-23.0104,38.9825,-21.6581,6.48274,0.72758
13.4389,17.7969,-42.8767,4.80551,-24.5477,1.62286,6.41493,1.66615,-5.72221,-0.305018,1.91354,3.25329,-4.22884,1.11508,6.4475,-11.774,-3.90972,-15.3547,23.6183,-3.37246,4.82092,9.82998,-2.43443,3.84977,4.07509e-14,6.36111e-15,-33.9047,-14.6937,-71.652,37.075,-14.8572,-9.89024,17.2533,7.12502,16.0893,-12.0988,4.07509e-14,6.36111e-15,-34.959,23.1852,71.6671,37.1293,-4.08228,-2.4424,34.9505,7.12502,23.249,63.567,-17.0769,6.82836,10.1007,40.2524,-23.0036,-3.85405,7.14893,-19.1248,1.17166,-23.266,39.0167,-21.7513,7.21267,-1.52898
13.4661,17.7876,-42.8407,4.82246,-25.4834,1.56523,6.22745,1.75404,-5.70493,-0.164401,2.04153,3.25846,-3.9951,1.16629,6.43343,-11.8669,-3.83446,-15.3754,23.4234,-3.25696,4.87097,9.7651,-2.36917,3.88161,-1.0138e-14,-1.66979e-14,-33.9068,-14.5808,-71.7534,36.9385,-14.8663,-10.1206,17.1916,7.12502,15.8676,-12.1782,-1.0138e-14,-1.66979e-14,-34.7591,23.1633,71.5023,37.4629,-4.15873,-2.35558,35.0709,7.12502,23.3323,63.6769,-17.171,7.53627,9.80199,40.3513,-23.0368,-2.60889,12.4143,-19.0161,1.27079,-23.4497,39.0686,-21.6482,7.55501,0.120503
13.4891,17.7903,-42.8098,4.6595,-23.9064,1.60196,6.48823,1.07614,-5.36563,-0.0965648,1.14701,3.22059,-3.92252,0.708172,6.28843,-11.942,-3.82356,-15.2777,23.3232,-3.2712,4.95705,9.74206,-2.35357,3.89256,-3.19049e-14,1.27222e-14,-34.0411,-14.7739,-71.8332,36.8069,-14.8038,-10.2087,17.2657,7.12502,15.7827,-12.1108,-3.19049e-14,1.27222e-14,-34.4446,22.8733,71.3154,37.7711,-4.09235,-1.04294,37.4319,7.12502,24.591,65.8724,-16.6541,6.33402,10.0128,40.4541,-23.1084,-3.93084,8.16956,-18.8637,0.425,-23.4229,39.1022,-21.5916,6.76393,-0.552631
13.5089,17.7968,-42.8026,5.1485,-24.7339,1.56861,6.06116,1.19885,-5.55548,-0.185615,1.31631,3.21135,-3.80496,0.795201,6.37378,-11.788,-3.81328,-15.2161,23.162,-3.2985,4.96294,9.65646,-2.35639,3.87951,-5.99336e-14,4.13472e-14,-34.2891,-15.0562,-71.7196,36.6668,-14.6413,-10.1826,17.3608,7.12502,15.8078,-12.0138,-5.99336e-14,4.13472e-14,-34.1273,22.4675,71.2352,37.7285,-3.12659,-2.21276,35.9448,7.12502,23.4693,64.5334,-17.4986,6.83203,9.77533,40.6462,-23.2357,-3.3012,11.0236,-19.3812,1.01248,-23.5362,39.1332,-21.6715,6.96126,-0.752937
13.5367,17.7974,-42.7813,5.34334,-24.5818,1.61616,5.88528,0.996809,-5.53442,-0.192042,1.05604,3.21443,-3.67221,0.660642,6.39136,-11.8645,-3.8209,-15.1255,23.1373,-3.29802,4.88591,9.659,-2.35505,3.83593,1.95803e-14,-1.59028e-15,-34.4364,-15.2833,-71.5594,36.5419,-14.6006,-10.1345,17.3923,7.12502,15.8541,-11.9786,1.95803e-14,-1.59028e-15,-33.821,22.1958,71.2046,38.1862,-3.33467,-1.96002,36.2834,7.12502,23.7117,64.8407,-17.771,6.53091,9.62262,40.8176,-23.411,-3.27233,10.5584,-19.5957,0.872157,-23.678,39.1358,-21.7061,6.90598,-0.849807
13.5579,17.7931,-42.7545,5.31311,-25.271,1.68056,5.85732,1.09205,-5.72934,-0.108022,1.17097,3.20352,-3.59038,0.716276,6.48134,-12.1572,-3.82249,-15.051,23.2002,-3.27203,4.90413,9.73148,-2.33382,3.83232,6.4605e-15,1.59028e-14,-34.5677,-15.45,-71.4644,36.4299,-14.5938,-10.0117,17.4327,7.12502,15.9723,-11.9288,6.4605e-15,1.59028e-14,-33.5464,21.907,71.1835,38.5558,-3.37625,-3.02005,34.5845,7.12502,22.6947,63.27,-18.0142,6.7021,9.35606,41.0045,-23.2641,-2.87942,10.283,-19.4897,1.16353,-23.9149,39.1343,-21.828,7.2408,-0.626776
13.5841,17.7909,-42.7246,5.33209,-25.7664,1.6101,5.8747,1.08103,-5.74844,-0.0585,1.15642,3.27494,-3.54824,0.707006,6.56986,-12.305,-3.77407,-15.0527,23.0859,-3.16638,4.85845,9.70661,-2.28418,3.82628,-8.34896e-15,2.06736e-14,-34.6671,-15.5385,-71.3217,36.1861,-14.4822,-10.101,17.4263,7.12502,15.8864,-11.942,-8.34896e-15,2.06736e-14,-33.3768,21.7859,71.1403,38.683,-3.22393,-2.33254,36.1719,7.12502,23.3544,64.7751,-18.1973,6.62226,9.25843,41.1408,-22.9712,-2.5137,10.4005,-19.3698,1.25976,-24.0238,39.1161,-21.9362,7.60031,-0.22404
13.6118,17.7896,-42.6774,5.22917,-26.5548,1.48692,5.90542,1.19318,-5.70707,0.0169773,1.3107,3.37178,-3.51249,0.780524,6.63463,-12.2474,-3.76273,-15.0441,22.9376,-3.12069,4.68732,9.63719,-2.27605,3.76681,-3.96575e-14,1.59028e-14,-34.9184,-15.5159,-71.0185,35.999,-14.6009,-10.1781,17.3898,7.12502,15.8122,-11.9844,-3.96575e-14,1.59028e-14,-33.3729,21.6066,71.1571,38.8261,-2.99403,-2.15518,36.3367,7.12502,23.5245,64.9181,-18.2926,6.6747,9.16687,41.2637,-22.7171,-2.14747,9.43073,-19.0092,1.22596,-24.1571,39.0805,-22.1571,8.27074,0.859411
13.6314,17.7906,-42.6618,5.23615,-26.8539,1.6449,6.14788,1.14478,-6.12864,-0.105475,1.2072,3.45725,-3.77291,0.751158,6.97815,-12.1463,-3.70846,-15.0778,22.8212,-3.03817,4.6146,9.5684,-2.24576,3.75522,-2.29596e-14,-2.14687e-14,-35.257,-15.2261,-70.773,35.9298,-14.9056,-10.1565,17.3965,7.12502,15.833,-11.9761,-2.29596e-14,-2.14687e-14,-33.4523,21.4288,71.1122,39.0775,-2.7367,-2.36136,36.1967,7.12502,23.3268,64.8034,-18.5361,6.57366,8.88708,41.3938,-22.5985,-2.07109,8.74705,-19.0486,1.42769,-24.4209,39.0707,-22.2677,8.27185,1.53984
13.6501,17.7898,-42.6498,5.32417,-27.0089,1.70468,6.23673,0.964922,-6.36934,-0.145527,0.946693,3.52363,-3.82729,0.630083,7.21471,-12.1194,-3.5931,-15.1192,22.6107,-2.87441,4.62463,9.47159,-2.16477,3.78242,2.69353e-14,0,-35.3003,-15.1218,-70.6986,35.6375,-14.8511,-10.5339,17.3142,7.12502,15.4695,-12.0868,2.69353e-14,0,-33.4397,21.6266,70.8453,39.2729,-2.96464,-2.93205,34.9643,7.12502,22.7792,63.6394,-18.7586,6.45923,8.74229,41.5296,-22.4898,-1.99448,9.04958,-19.1442,1.43465,-24.5602,39.0764,-22.4982,8.30982,1.54627
13.6681,17.7877,-42.6356,5.46975,-27.1291,1.48076,6.2317,0.848896,-6.21562,-0.0782321,0.804031,3.55345,-3.727,0.549773,7.17146,-12.1237,-3.54566,-15.0052,22.4433,-2.83552,4.64039,9.40554,-2.12896,3.77143,-4.01545e-14,4.29375e-14,-35.3631,-15.3701,-70.6907,35.4448,-14.8929,-10.9088,17.0174,7.12502,15.1083,-12.4112,-4.01545e-14,4.29375e-14,-33.1487,21.5762,70.6952,39.2874,-3.22174,-2.78411,35.1541,7.12502,22.9211,63.8116,-18.8888,6.43344,8.90615,41.6878,-22.2966,-1.839,9.70758,-19.1699,1.64767,-24.4032,39.0982,-22.7399,8.04491,1.54353
13.684,17.7846,-42.6199,5.51851,-27.3105,1.49047,6.20806,0.807843,-6.29524,-0.0458346,0.743838,3.52897,-3.67021,0.517688,7.19703,-12.1947,-3.52808,-14.9037,22.5016,-2.83053,4.6729,9.43583,-2.11651,3.76761,1.72943e-14,-3.49861e-14,-35.5478,-15.5602,-70.6266,35.3598,-15.1894,-10.9089,16.8579,7.12502,15.1082,-12.5707,1.72943e-14,-3.49861e-14,-32.6357,21.318,70.6782,38.9304,-3.35317,-3.39053,33.5297,7.12502,22.3391,62.2583,-19.0448,6.40548,8.81636,41.8438,-22.115,-1.6171,9.56858,-19.1862,2.10264,-24.49,39.0994,-22.7847,7.75258,1.63271
13.7029,17.7794,-42.6043,5.56958,-27.4183,1.75441,6.08941,0.628377,-6.61341,0.00856565,0.486285,3.47636,-3.50472,0.385939,7.3489,-12.6007,-3.47787,-14.7907,22.698,-2.71906,4.67272,9.56601,-2.05891,3.76375,7.95139e-15,5.56597e-15,-35.414,-15.5825,-70.6642,35.0948,-15.4072,-10.9145,16.839,7.12502,15.1028,-12.59,7.95139e-15,5.56597e-15,-32.1668,21.3855,70.5193,38.5394,-3.36487,-3.41346,33.9889,7.12502,22.3171,62.7201,-19.3075,6.18055,8.46291,41.9949,-22.03,-1.5794,7.83971,-19.3109,2.23525,-24.8426,39.0556,-22.7825,7.75882,1.68926
13.7237,17.7728,-42.575,5.5583,-27.7937,1.75546,5.84047,0.470266,-6.5487,0.382571,0.291274,3.33346,-2.93691,0.250088,7.17146,-13.4314,-3.40489,-14.3205,22.7831,-2.57678,4.63499,9.72439,-1.95084,3.68843,1.66979e-14,-3.18055e-15,-34.9153,-15.7069,-71.0626,34.8703,-15.6377,-10.9683,16.7163,7.12502,15.051,-12.7166,1.66979e-14,-3.18055e-15,-31.5255,21.5735,70.234,38.4577,-3.22088,-3.49016,34.1249,7.12502,22.2435,62.8649,-19.4241,6.16932,8.3181,42.16,-22.1804,-1.44128,7.07019,-19.1772,2.11147,-24.9972,38.9795,-22.9262,8.15497,1.95326
13.7433,17.7682,-42.5267,5.44518,-28.5996,1.50825,5.52225,0.611944,-5.95328,0.624105,0.53107,3.13219,-2.53956,0.338342,6.59036,-13.0516,-3.34768,-14.3243,22.5112,-2.6367,4.96643,9.56249,-1.93728,3.79743,3.68746e-14,-4.45278e-14,-35.2234,-16.2239,-71.0018,34.7126,-15.5846,-11.0045,16.6862,7.12502,15.0161,-12.7493,3.68746e-14,-4.45278e-14,-31.0805,20.9924,70.1379,38.3715,-2.95312,-3.59067,34.1949,7.12502,22.147,62.9464,-19.3956,6.52484,8.33092,42.2905,-22.1843,-0.859397,9.07071,-18.7356,1.94585,-24.998,38.928,-23.2363,8.90932,3.06975
13.7596,17.7663,-42.5203,5.60749,-28.6883,1.32748,6.02056,0.547838,-6.24017,0.347174,0.408452,3.45922,-3.09408,0.312395,7.11858,-13.0327,-3.31308,-14.6292,22.7109,-2.51281,4.91199,9.62412,-1.92048,3.84694,-3.57812e-14,1.59028e-15,-35.6271,-16.4246,-70.1793,34.2255,-14.7959,-11.1207,16.609,7.12502,14.9042,-12.8348,-3.57812e-14,1.59028e-15,-31.2427,20.872,70.3375,38.2309,-2.87154,-3.71922,33.6404,7.12502,22.0236,62.4064,-19.6062,6.53863,8.43927,42.4238,-21.829,-0.675291,10.6821,-18.8567,2.12945,-24.8493,38.9108,-23.2925,8.52623,4.77614
13.777,17.7689,-42.5007,5.73043,-28.9323,1.15085,5.83468,0.438283,-5.97711,0.523588,0.286381,3.34934,-2.78233,0.229247,6.85704,-13.0622,-3.29102,-14.4247,22.4351,-2.5287,4.94381,9.52825,-1.89618,3.81762,9.24349e-15,-6.36111e-15,-35.4427,-17.4812,-69.9672,33.5293,-13.5687,-10.9668,16.592,7.12502,15.0525,-12.8408,9.24349e-15,-6.36111e-15,-30.8194,20.7266,70.1124,38.1387,-2.88353,-3.72195,33.2106,7.12502,22.0209,61.977,-19.7799,6.51965,8.51598,42.5489,-21.5983,-0.553705,9.75401,-18.8446,2.45024,-24.7935,38.9378,-23.2926,8.56478,4.63631
13.7935,17.7716,-42.4768,5.78833,-29.2063,1.11611,6.04547,0.344846,-6.32576,0.393757,0.133866,3.60331,-3.01351,0.172176,7.34678,-12.8686,-3.21422,-14.5499,22.2908,-2.36518,4.68914,9.42666,-1.85563,3.76528,-6.57977e-14,2.14687e-14,-35.69,-17.1004,-69.4864,33.3117,-13.6116,-10.8269,16.6358,7.12502,15.1872,-12.7868,-6.57977e-14,2.14687e-14,-31.1929,20.8939,70.181,38.268,-2.971,-3.54321,33.6956,7.12502,22.1925,62.4416,-19.9475,6.47574,8.43683,42.6943,-21.6124,-0.406788,9.01473,-18.8355,2.50048,-24.8823,38.9789,-23.377,8.78614,4.6928
13.8072,17.77,-42.4608,5.8845,-29.4031,1.16356,6.22621,0.196732,-6.72402,0.314206,-0.0982794,3.73429,-3.15772,0.0713691,7.7427,-13.1429,-3.147,-14.3956,22.3488,-2.23028,4.55109,9.48036,-1.79487,3.70727,-1.61016e-14,3.02153e-14,-35.7753,-16.5958,-69.4452,33.2164,-13.9371,-10.9329,16.6377,7.12502,15.0852,-12.7926,-1.61016e-14,3.02153e-14,-31.296,21.1089,70.0875,38.2899,-2.95144,-3.51157,33.7433,7.12502,22.2229,62.4858,-20.1621,6.4864,8.29096,42.8053,-21.6111,-0.221442,9.94123,-18.9422,2.53343,-25.0239,39.0265,-23.459,8.9261,4.54871
13.8215,17.7649,-42.4411,6.01743,-29.5883,1.05491,6.57041,0.128039,-6.79075,-0.0642274,-0.213278,3.83112,-3.72755,0.0543443,7.9071,-12.4895,-3.05697,-14.5651,22.3479,-2.20979,4.67156,9.35887,-1.79531,3.78259,1.78906e-15,-2.70347e-14,-36.5261,-16.6097,-68.8723,32.9347,-13.8536,-10.4931,16.8819,7.12502,15.5087,-12.5162,1.78906e-15,-2.70347e-14,-31.8492,20.912,69.9204,38.1649,-3.04729,-3.60755,33.1655,7.12502,22.1308,61.9189,-20.3113,6.46112,8.29621,42.8972,-21.3773,-0.0399015,9.93468,-18.9669,2.56794,-25.0271,39.0313,-23.4354,9.15717,3.82006
13.8365,17.7589,-42.4092,5.99441,-29.9746,0.914942,6.47927,0.0348857,-6.69607,0.230292,-0.327122,3.75664,-3.346,-0.0324107,7.77594,-13.0533,-3.0422,-14.1733,22.3513,-2.17057,4.61675,9.45214,-1.74396,3.7019,-1.15295e-14,3.73715e-14,-36.1442,-16.9718,-68.9777,32.5312,-13.7246,-10.1221,17.0817,7.12502,15.8661,-12.2883,-1.15295e-14,3.73715e-14,-31.2087,21.059,69.7577,37.7628,-3.23894,-3.62946,32.9647,7.12502,22.1097,61.7206,-20.3151,6.54944,8.28547,42.993,-20.9944,0.24436,8.94227,-18.7596,2.63449,-25.0462,39.0372,-23.5655,9.49402,3.44654
13.8498,17.7517,-42.3733,5.77157,-30.4881,0.964635,6.53123,0.0683355,-6.80208,0.320988,-0.293101,3.75572,-3.28597,-0.0196751,7.83329,-12.8708,-2.94957,-14.2453,22.3257,-2.07506,4.69423,9.39997,-1.69896,3.75298,3.47873e-14,-2.62396e-14,-36.4225,-16.8134,-68.7558,32.4533,-13.7562,-10.1352,17.1411,7.12502,15.8534,-12.2298,3.47873e-14,-2.62396e-14,-31.0322,20.908,69.8627,37.4768,-3.18053,-4.17408,32.5105,7.12502,21.5868,61.3273,-20.2489,6.7608,8.07856,43.0958,-20.8075,0.615672,9.15041,-18.4362,2.61397,-25.2654,39.0454,-23.8252,9.90294,4.24441
13.8617,17.7513,-42.3687,5.92593,-30.4661,0.953335,6.62718,-0.0352137,-6.93287,0.2087,-0.445911,3.80646,-3.42834,-0.0832011,7.98192,-12.5612,-2.82536,-14.4303,22.2352,-1.96946,4.93739,9.3018,-1.63988,3.88155,-3.27995e-14,-7.15625e-15,-36.7484,-17.023,-68.4086,32.2901,-13.5053,-9.82377,17.4566,7.12502,16.1533,-11.8903,-3.27995e-14,-7.15625e-15,-30.8543,20.7398,70.0078,37.2699,-3.1844,-4.11042,33.4725,7.12502,21.6479,62.2823,-20.504,6.67247,8.04458,43.2498,-20.7949,0.657467,9.77728,-18.6244,2.69111,-25.2851,39.045,-23.6621,9.79547,4.49524
13.8737,17.7532,-42.3582,6.11185,-30.5501,0.770381,6.52941,-0.124622,-6.71834,0.350538,-0.54727,3.67129,-3.20798,-0.153201,7.71547,-12.7186,-2.7719,-14.1391,22.0236,-1.98689,5.17745,9.25133,-1.58799,3.91262,4.77083e-14,2.22639e-14,-36.6544,-17.8223,-68.4212,31.942,-13.1686,-9.54992,17.6953,7.12502,16.417,-11.63,4.77083e-14,2.22639e-14,-30.1603,20.5782,69.9047,36.9278,-3.4496,-3.80867,33.8459,7.12502,21.9377,62.622,-20.733,6.68121,8.15163,43.435,-20.7184,0.821643,10.8999,-18.7037,2.78245,-25.1719,39.0281,-23.4761,9.87485,3.8692
13.8856,17.754,-42.3357,6.18273,-30.7898,0.747177,6.5153,-0.115864,-6.70335,0.366246,-0.535878,3.59338,-3.18642,-0.149659,7.62112,-12.7102,-2.82279,-13.9104,21.8945,-2.10303,5.15119,9.21224,-1.62138,3.84929,2.27608e-14,-7.15625e-15,-36.8479,-18.3539,-68.1503,31.6696,-13.1608,-9.42188,17.7856,7.12502,16.5403,-11.5295,2.27608e-14,-7.15625e-15,-30.0196,20.2772,69.9967,36.8487,-3.44263,-4.02111,33.0643,7.12502,21.7337,61.8642,-20.9357,6.70143,8.06681,43.5909,-20.5324,0.956207,10.6199,-18.7407,2.88863,-25.2574,39.0483,-23.6168,9.97542,4.10784
13.8993,17.7471,-42.3074,6.11234,-31.0646,0.849161,6.85526,-0.154357,-7.03055,0.151142,-0.629453,3.72993,-3.58233,-0.164757,7.9788,-12.5707,-2.80381,-13.956,22.1683,-2.02532,4.84477,9.27552,-1.63461,3.76266,6.36111e-15,-3.02153e-14,-37.3312,-17.9184,-67.6862,31.6204,-13.7302,-9.26143,17.8221,7.12502,16.6948,-11.48,6.36111e-15,-3.02153e-14,-30.5471,20.2088,70.1895,36.8498,-3.33664,-4.33068,32.5372,7.12502,21.4364,61.3712,-21.0428,6.64856,7.84245,43.7596,-20.4386,1.10371,8.91958,-18.6623,2.97461,-25.4803,39.0326,-23.9112,10.0352,5.05962
13.9141,17.732,-42.281,6.01814,-31.3579,0.83667,6.46715,-0.301267,-6.66873,0.540052,-0.781903,3.44334,-2.93499,-0.291086,7.45675,-12.826,-2.7247,-13.7351,22.285,-1.96295,5.00035,9.35194,-1.57224,3.79078,4.4329e-14,1.11319e-14,-37.0148,-18.4519,-68.0303,31.3863,-13.6353,-9.27464,17.9455,7.12502,16.6821,-11.3576,4.4329e-14,1.11319e-14,-29.6844,20.2169,69.9929,36.381,-3.54183,-4.29288,33.008,7.12502,21.4727,61.8379,-21.0647,6.69488,7.71169,43.8818,-20.2871,1.52464,10.1797,-18.48,2.95602,-25.6013,39.0484,-24.1265,10.2794,5.63669
13.9261,17.7431,-42.2611,6.00478,-31.6995,0.729094,6.55679,-0.352917,-6.69818,0.589497,-0.857062,3.48626,-2.9191,-0.330697,7.52762,-12.652,-2.53214,-13.7614,21.7819,-1.75478,5.20169,9.12096,-1.43951,3.88135,8.91549e-14,-2.70347e-14,-37.0542,-18.7317,-67.7693,31.0687,-13.3106,-9.34259,18.0924,7.12502,16.6166,-11.2163,8.91549e-14,-2.70347e-14,-29.4997,20.3657,70.0616,36.1315,-3.77114,-4.26854,33.6667,7.12502,21.4961,62.4939,-21.1793,6.80645,7.73493,44.0541,-20.1736,1.60401,10.0969,-18.3283,3.04106,-25.6,39.0379,-24.0933,10.5523,5.69883
13.933,17.7451,-42.2547,6.11775,-31.8586,0.690279,6.7397,-0.416453,-6.94293,0.49427,-0.969352,3.56721,-3.09619,-0.37208,7.77315,-12.5459,-2.41668,-13.765,21.6447,-1.63246,5.30447,9.03985,-1.36854,3.92961,1.38155e-14,4.77083e-15,-37.2396,-18.6684,-67.5515,30.9866,-13.7499,-9.14765,18.115,7.12502,16.8043,-11.1779,1.38155e-14,4.77083e-15,-29.5244,20.3044,70.2021,36.0441,-3.72204,-4.64706,33.4018,7.12502,21.1325,62.2701,-21.3996,6.86298,7.73515,44.187,-20.034,1.69376,10.4834,-18.4529,3.35514,-25.5932,39.0699,-24.0247,10.392,5.85077
13.9421,17.7387,-42.2217,6.29618,-32.2649,0.685112,6.40205,-0.416894,-6.95707,0.577808,-0.952004,3.48486,-2.82333,-0.378824,7.68081,-12.8635,-2.35431,-13.559,21.8271,-1.57064,5.41317,9.15104,-1.3143,3.94521,-1.39149e-15,-1.90833e-14,-37.3109,-18.8653,-67.463,30.9476,-14.0064,-8.75108,18.2111,7.12502,17.186,-11.0489,-1.39149e-15,-1.90833e-14,-29.3344,20.1295,70.3591,35.2222,-5.69186,-6.23422,30.2224,7.12502,19.6072,59.2537,-21.716,6.90277,7.57268,44.3532,-19.8062,2.10709,11.4185,-18.5486,3.38562,-25.7621,39.0734,-24.2756,10.6776,6.61631
13.951,17.741,-42.1919,6.39885,-32.6227,0.718526,6.18738,-0.448242,-7.04476,0.642275,-0.987683,3.42483,-2.62831,-0.406948,7.66338,-13.0414,-2.22526,-13.4739,21.8888,-1.42926,5.60668,9.18758,-1.22104,4.01781,-2.17669e-14,0,-37.3443,-19.3255,-67.2038,30.6579,-13.2672,-8.81459,18.3749,7.12502,17.1249,-10.8904,-2.17669e-14,0,-29.3635,20.3922,70.3858,35.0345,-6.63904,-6.3251,29.1872,7.12502,19.5198,58.2274,-21.9654,6.893,7.41282,44.5178,-19.6008,2.3095,10.8729,-18.6215,3.37642,-25.9346,39.0921,-24.4114,11.0166,6.61339
13.9603,17.7415,-42.1695,6.38285,-32.8412,0.901271,6.1799,-0.538635,-7.28031,0.639746,-1.1259,3.34602,-2.59831,-0.475067,7.72574,-13.1968,-2.03959,-13.2917,21.935,-1.226,5.75959,9.20631,-1.09487,4.06698,-3.69739e-14,-7.95139e-15,-37.464,-19.8289,-66.9079,30.3688,-12.245,-9.73653,18.076,7.12502,16.2374,-11.264,-3.69739e-14,-7.95139e-15,-29.4554,20.4924,70.4113,35.1026,-6.75425,-5.99464,29.8637,7.12502,19.8375,58.8713,-22.1609,6.86622,7.1602,44.6934,-19.5183,2.2408,9.62064,-18.7152,3.32917,-26.1982,39.1277,-24.248,11.3547,5.49967
13.9695,17.7331,-42.145,6.28017,-33.0936,1.10884,6.22474,-0.56184,-7.49496,0.635228,-1.17693,3.25147,-2.61634,-0.497505,7.7537,-13.29,-1.92282,-13.1608,22.0176,-1.12214,5.92999,9.23771,-1.0194,4.1201,1.15593e-13,-1.35174e-14,-37.7302,-20.1328,-66.6368,30.2902,-11.7866,-10.7052,17.4874,7.12502,15.3044,-11.9263,1.15593e-13,-1.35174e-14,-29.4554,20.2134,70.595,35.1188,-6.56317,-5.83852,30.5682,7.12502,19.9876,59.5603,-22.3063,6.9822,6.84836,44.9171,-19.5412,2.44516,10.6927,-18.6809,3.39203,-26.4945,39.1613,-24.0779,11.6697,4.30636
13.9769,17.7268,-42.1217,6.27356,-33.4438,1.00546,6.37177,-0.539556,-7.48142,0.608528,-1.15669,3.25662,-2.73088,-0.481176,7.7544,-13.1399,-1.84356,-13.2917,22.0135,-1.06377,6.17951,9.20153,-0.978864,4.23643,3.22031e-14,7.95139e-16,-37.9812,-20.1151,-66.4056,30.2126,-11.7409,-10.8368,17.3123,7.12502,15.1777,-12.111,3.22031e-14,7.95139e-16,-29.4221,19.962,70.7925,34.9354,-6.29572,-6.07509,30.1412,7.12502,19.7602,59.1568,-22.4241,7.18499,6.84962,45.1665,-19.4771,2.7755,12.3489,-18.5821,3.63787,-26.5066,39.2164,-24.2121,11.7813,5.00309
13.9852,17.7248,-42.0999,6.2523,-33.7259,0.989946,6.51314,-0.564946,-7.53566,0.585516,-1.20503,3.24173,-2.82448,-0.499534,7.77812,-13.0272,-1.76543,-13.2404,21.8726,-0.990256,6.2186,9.12214,-0.933202,4.24591,3.00165e-14,1.11319e-14,-38.1364,-20.3576,-66.1152,30.0085,-11.3437,-10.6616,17.2863,7.12502,15.3465,-12.1242,3.00165e-14,1.11319e-14,-29.2666,19.7617,70.9734,34.5994,-6.12757,-6.46488,29.8223,7.12502,19.3854,58.876,-22.5681,7.22642,6.79905,45.4267,-19.3265,2.98804,13.0851,-18.5235,3.82574,-26.6052,39.2974,-24.4491,11.8133,6.13503
13.9946,17.7218,-42.077,6.26473,-34.0037,1.0981,6.36627,-0.568083,-7.56656,0.692115,-1.20349,3.09645,-2.63301,-0.511875,7.63319,-13.0052,-1.75671,-12.9847,21.5365,-1.02331,6.18616,9.00204,-0.919847,4.17942,-6.95746e-15,-2.38542e-15,-38.2017,-20.8582,-66.0182,29.9431,-10.9641,-10.8099,17.0648,7.12502,15.2036,-12.3565,-6.95746e-15,-2.38542e-15,-28.9651,19.479,71.189,34.5168,-5.99327,-6.57497,30.0651,7.12502,19.2796,59.1294,-22.827,7.30228,6.59813,45.6808,-19.2004,3.09448,13.2522,-18.5937,3.95382,-26.8237,39.3982,-24.5704,11.9562,6.28771
14.0032,17.7206,-42.0556,6.45137,-34.3142,0.97291,6.49168,-0.602276,-7.43415,0.597602,-1.25259,2.99189,-2.79843,-0.527011,7.45328,-13.0381,-1.65026,-12.6555,21.4534,-0.930495,6.12824,8.96538,-0.852898,4.11263,-2.39536e-14,2.46493e-14,-38.5056,-20.7531,-66.1282,30.0776,-10.9959,-11.0079,17.0615,7.12502,15.0129,-12.3742,-2.39536e-14,2.46493e-14,-29.1305,19.2769,71.1664,34.635,-5.85404,-6.76845,29.6872,7.12502,19.0935,58.77,-23.1331,7.45605,6.60854,45.9199,-18.9508,3.11459,12.3938,-18.773,4.19495,-26.8067,39.5064,-24.6903,11.9981,6.39313
14.012,17.7194,-42.036,6.60613,-34.4891,0.869585,6.77177,-0.661653,-7.21039,0.396714,-1.34135,2.85217,-3.15835,-0.551145,7.19357,-13.0612,-1.5411,-12.38,21.5302,-0.844313,6.14142,8.98324,-0.791514,4.0829,-1.31894e-13,3.29983e-14,-38.9437,-20.7377,-66.2023,30.2377,-11.2382,-11.3487,17.2322,7.12502,14.6845,-12.2278,-1.31894e-13,3.29983e-14,-29.2356,18.9307,71.1174,34.6701,-5.47263,-6.79091,29.46,7.12502,19.0719,58.5449,-23.3759,7.47409,6.63441,46.1729,-18.657,3.07464,10.8753,-18.8906,4.35774,-26.796,39.5703,-24.7715,12.0082,6.50087
14.0211,17.7165,-42.0153,6.62611,-34.6785,0.864267,6.92724,-0.714603,-7.17795,0.266,-1.42338,2.80704,-3.3702,-0.578647,7.14118,-12.8287,-1.43097,-12.3421,21.5007,-0.744288,6.19082,8.91823,-0.739394,4.10286,4.21423e-14,1.70955e-14,-39.2054,-20.47,-66.339,30.4998,-12.1613,-8.86217,17.784,7.12502,17.0791,-11.4853,4.21423e-14,1.70955e-14,-29.4318,18.7538,71.2636,35.0029,-4.71609,-6.03307,30.7106,7.12502,19.8006,59.722,-23.5596,7.5402,6.57313,46.4258,-18.5541,3.16892,10.4418,-18.8718,4.42626,-26.8889,39.5942,-24.6305,12.2602,5.98008
14.0258,17.717,-41.9906,6.55421,-34.9477,0.889724,6.87858,-0.687881,-7.21963,0.367472,-1.38872,2.7271,-3.24348,-0.570423,7.07282,-12.81,-1.41668,-12.2644,21.4229,-0.774993,6.33199,8.88904,-0.730752,4.13389,-1.39149e-15,-1.55052e-14,-39.4809,-21.5681,-65.506,30.1427,-9.57774,-10.2826,17.5478,7.12502,15.7115,-11.8343,-1.39149e-15,-1.55052e-14,-29.2476,18.6129,71.577,35.0745,-4.14476,-5.59599,32.0547,7.12502,20.2207,61.0222,-23.672,7.68979,6.48323,46.6567,-18.4395,3.39437,11.5923,-18.73,4.57505,-26.9844,39.562,-24.1955,12.5117,3.98578
14.0285,17.7202,-41.9687,6.59215,-34.9293,0.917112,6.73403,-0.63365,-7.14118,0.619773,-1.30309,2.50709,-2.91966,-0.552841,6.77583,-13.5783,-1.5727,-11.8272,21.5589,-1.04302,6.5566,9.10071,-0.788996,4.11769,6.65432e-14,-2.06736e-14,-39.5638,-22.6983,-65.2843,30.1507,-8.704,-9.60601,17.9548,7.12502,16.363,-11.3749,6.65432e-14,-2.06736e-14,-28.1619,18.1458,71.9871,34.4254,-4.03187,-5.92004,32.2146,7.12502,19.9092,61.2148,-23.7917,7.6597,6.44402,46.8776,-18.2455,3.41265,12.8751,-18.71,4.68125,-27.0216,39.5042,-24.5541,12.0663,5.93475
14.0357,17.7148,-41.9241,6.5537,-35.3705,0.690856,6.59973,-0.385223,-6.73656,1.02333,-0.934196,2.26417,-2.49574,-0.405056,6.24459,-14.6978,-1.76379,-11.168,21.8258,-1.36136,6.67415,9.42785,-0.859379,4.02407,6.4605e-15,8.54774e-15,-39.4368,-23.3765,-65.7004,30.4744,-9.78755,-10.0384,17.6745,7.12502,15.9467,-11.6891,6.4605e-15,8.54774e-15,-27.12,17.6486,72.368,34.0981,-4.35651,-5.6817,31.9531,7.12502,20.1383,60.9294,-23.7576,7.99203,6.52099,47.064,-18.1158,3.66837,13.5359,-18.3751,4.57479,-26.9803,39.4358,-24.6317,12.6178,5.89754
14.0454,17.7132,-41.8953,6.65833,-35.7991,0.493193,6.48332,-0.47433,-6.67263,1.15173,-1.03702,2.35772,-2.27988,-0.469765,6.31088,-14.86,-1.62749,-11.2671,21.7411,-1.11631,6.6471,9.4047,-0.752014,4.05978,-4.7112e-14,1.27222e-14,-38.9313,-22.1811,-66.6473,30.992,-12.6171,-10.9975,16.8132,7.12502,15.0229,-12.6218,-4.7112e-14,1.27222e-14,-27.3763,18.1735,72.5131,34.4242,-4.70505,-5.13481,31.7855,7.12502,20.6639,60.7055,-23.949,8.32892,6.56068,47.2498,-17.8127,3.84647,13.5888,-18.2624,4.50876,-26.9464,39.3858,-24.5871,13.1266,6.24446
14.0541,17.7158,-41.8712,6.70785,-36.234,0.625963,6.2497,-0.984114,-7.26433,0.894968,-1.73408,2.83069,-2.27325,-0.805017,7.20469,-13.693,-1.00544,-12.3063,21.2526,-0.0981919,6.47174,8.92141,-0.384859,4.26769,-6.17226e-14,-1.11319e-14,-38.5097,-19.4443,-67.1575,31.3098,-14.7432,-11.3842,16.3847,7.12502,14.6503,-13.0777,-6.17226e-14,-1.11319e-14,-28.9787,20.11,72.3061,34.9093,-5.65551,-4.72458,31.4373,7.12502,21.058,60.3139,-24.3053,8.57637,6.27429,47.4441,-17.4292,4.03085,14.1747,-18.305,4.44553,-27.2111,39.3416,-24.7275,13.5172,7.41896
14.062,17.7144,-41.8418,6.68972,-36.8005,0.716924,6.09415,-0.836396,-7.43479,0.967617,-1.5373,2.7927,-2.14153,-0.713834,7.24208,-13.7067,-0.999259,-12.154,21.0847,-0.0854913,6.32654,8.86565,-0.376293,4.18822,-3.72721e-14,-1.66979e-14,-38.5647,-19.4643,-67.1036,31.5064,-15.0859,-11.3785,16.4302,7.12502,14.6559,-13.0319,-3.72721e-14,-1.66979e-14,-28.9518,20.9133,72.3096,35.1232,-8.54029,-2.14673,32.1739,7.12502,23.5327,60.7543,-24.6131,8.87703,6.01947,47.6709,-17.2518,4.30669,14.979,-18.2666,4.60328,-27.4631,39.3187,-24.8862,13.8704,7.74639
14.0705,17.7135,-41.8188,6.71766,-37.1503,0.730905,6.14336,-0.774999,-7.43448,0.977481,-1.46059,2.70829,-2.17487,-0.674324,7.14762,-13.777,-1.00701,-12.1626,21.0392,-0.113428,6.45881,8.86449,-0.373767,4.23238,5.80451e-14,-6.36111e-15,-38.6351,-19.471,-67.2103,31.7111,-15.2574,-11.5074,16.3695,7.12502,14.5317,-13.1015,5.80451e-14,-6.36111e-15,-28.8,20.2318,72.9881,34.841,-6.06652,-5.37489,31.2535,7.12502,20.4332,60.1984,-24.8775,9.05212,5.90089,47.905,-17.1943,4.50158,15.1859,-18.2778,4.8511,-27.5951,39.3377,-24.7905,13.9104,7.41823
14.0787,17.7177,-41.8142,6.82434,-37.25,0.779862,6.61412,-0.806807,-7.69066,0.722939,-1.55759,2.76888,-2.67923,-0.687763,7.38743,-13.7714,-1.04864,-12.2983,21.0976,-0.140867,6.4504,8.88751,-0.400735,4.25055,6.62947e-14,-7.15625e-15,-38.8808,-19.3999,-67.0588,31.8954,-15.3961,-11.6636,16.2892,7.12502,14.3811,-13.1926,6.62947e-14,-7.15625e-15,-28.8075,19.9378,73.3988,34.3152,-5.60582,-5.56863,31.6743,7.12502,20.247,60.6391,-25.2,9.10499,5.81786,48.143,-17.0963,4.53288,15.2584,-18.4855,5.18104,-27.6592,39.417,-24.8454,14.4761,3.68409
14.0835,17.7208,-41.8066,6.93285,-37.659,0.576523,7.54736,-0.763651,-8.37757,0.217561,-1.61793,3.32798,-3.69015,-0.63509,8.44027,-13.448,-0.998349,-12.8613,21.2934,0.0636482,6.19708,8.88042,-0.389062,4.28018,1.83876e-14,-5.92378e-14,-39.361,-18.4652,-66.269,32.097,-15.5606,-11.7531,16.1515,7.12502,14.2949,-13.3364,1.83876e-14,-5.92378e-14,-29.5697,20.5242,73.8947,33.9329,-6.36621,-4.65806,31.8798,7.12502,21.1219,60.7493,-25.4291,9.47815,5.94839,48.3631,-16.8986,4.45942,15.6578,-18.5429,5.63428,-27.5195,39.5247,-24.7776,13.799,4.73701
14.0902,17.7224,-41.7929,7.02568,-38.0016,0.486683,7.81134,-0.78437,-8.56642,0.0741636,-1.68196,3.44212,-3.96913,-0.641599,8.69535,-13.2557,-0.954046,-13.1254,21.2752,0.128013,6.32044,8.83157,-0.369771,4.37198,-4.86029e-14,1.59028e-14,-39.5097,-18.2105,-66.1328,32.2825,-15.5995,-11.6804,16.1682,7.12502,14.3649,-13.3148,-4.86029e-14,1.59028e-14,-29.778,20.849,74.0905,33.7535,-6.73253,-4.34387,31.4161,7.12502,21.4237,60.2516,-25.6517,9.78846,5.94332,48.5416,-16.5631,4.52408,17.4464,-18.615,6.14069,-27.5036,39.6038,-24.6883,14.1555,3.17946
14.1002,17.7249,-41.7697,7.06192,-38.1169,0.601597,7.93834,-0.890318,-8.74358,-0.0785646,-1.85083,3.4988,-4.15999,-0.704586,8.88739,-13.1822,-0.905498,-13.2682,21.2893,0.216791,6.3134,8.81408,-0.342448,4.40241,1.00287e-13,-2.38542e-15,-39.6249,-17.8365,-66.1372,32.5377,-15.9206,-11.6704,16.2812,7.12502,14.3746,-13.2011,1.00287e-13,-2.38542e-15,-30.1306,21.1961,74.3146,33.7432,-7.15353,-4.15766,31.2927,7.12502,21.6026,60.1077,-25.837,9.77925,5.75873,48.7143,-16.2995,4.63157,18.4438,-18.7059,6.38448,-27.6887,39.6763,-24.6202,13.3022,5.49321
14.1053,17.7248,-41.7105,7.0219,-38.8428,0.36072,7.84104,-0.818904,-8.47354,-0.0224302,-1.72072,3.52927,-4.07996,-0.65214,8.7442,-13.222,-0.868279,-13.2774,21.3503,0.300629,6.19591,8.83501,-0.318536,4.37377,4.2043e-14,-2.14687e-14,-39.712,-17.4264,-66.1602,32.7581,-16.2322,-11.6796,16.4045,7.12502,14.3657,-13.0784,4.2043e-14,-2.14687e-14,-30.3375,21.4643,74.5045,33.7021,-7.95632,-2.96915,32.6751,7.12502,22.7436,61.3546,-25.8075,10.1843,5.81254,48.8492,-16.1889,4.7462,18.0562,-18.3027,6.08217,-27.728,39.6826,-25.1935,14.6574,3.82911
14.1145,17.7352,-41.7154,7.47133,-38.5426,0.160095,7.91448,-1.04795,-8.35368,-0.165453,-2.02336,3.54443,-4.21183,-0.792404,8.72822,-13.389,-0.850682,-13.1674,21.325,0.311856,6.25609,8.8543,-0.295126,4.3789,-9.85972e-14,8.74653e-15,-39.7023,-17.6012,-66.2178,32.8618,-16.0703,-11.3627,16.6178,7.12502,14.671,-12.8432,-9.85972e-14,8.74653e-15,-30.2007,21.2908,74.7167,33.4264,-7.14832,-3.43674,32.4369,7.12502,22.2948,61.1708,-26.2045,9.94736,6.10678,49.0297,-16.0513,4.11423,15.3228,-18.6896,6.11985,-27.4971,39.7142,-24.5804,13.9522,3.73366
14.1147,17.7358,-41.685,7.43479,-39.0807,0.277716,7.63162,-1.05235,-8.35434,-0.0339354,-2.01243,3.3421,-3.92218,-0.809729,8.48979,-13.4144,-0.873371,-13.1082,21.0499,0.236483,6.43514,8.76978,-0.296488,4.41618,2.56432e-14,-3.85642e-14,-39.5488,-17.8686,-66.4531,32.9756,-15.8647,-11.1701,16.6342,7.12502,14.8567,-12.8131,2.56432e-14,-3.85642e-14,-30.0945,21.3592,74.8015,33.4381,-6.97537,-2.96165,33.0298,7.12502,22.7508,61.7084,-26.4332,10.113,5.98932,49.1931,-16.0211,3.76728,7.92118,-18.6519,6.42993,-27.7257,39.7115,-24.4022,13.9746,4.32548
14.1139,17.7401,-41.6583,7.61179,-39.7024,0.0077214,7.48411,-0.982351,-8.22086,0.0585301,-1.8963,3.28174,-3.77126,-0.766664,8.32648,-13.3832,-0.942645,-12.9499,20.8495,0.106067,6.42456,8.70901,-0.33979,4.36605,2.6339e-14,1.59028e-14,-39.4396,-17.9463,-66.6701,33.1333,-15.9317,-11.1526,16.4967,7.12502,14.8735,-12.9494,2.6339e-14,1.59028e-14,-29.9854,21.5783,74.9049,33.3106,-7.7326,-7.90814,29.1891,7.12502,17.9972,58.3764,-26.6962,10.5153,6.22937,49.354,-15.8999,3.30772,10.1689,-18.675,7.0036,-27.5905,39.7742,-24.2103,14.0672,3.70575
14.1164,17.7508,-41.6335,7.78351,-40.0963,-0.246208,6.85872,-1.03475,-7.47728,0.510633,-1.86809,2.7535,-2.98925,-0.823382,7.28607,-13.6827,-0.98553,-12.225,20.5325,-0.100076,6.56856,8.6715,-0.349646,4.26748,1.1783e-13,-2.56432e-14,-39.0167,-19.039,-67.4885,33.1945,-15.5818,-11.0273,16.5917,7.12502,14.9942,-12.8454,1.1783e-13,-2.56432e-14,-29.0239,20.9086,74.8777,32.7282,-6.33962,-4.48701,32.4782,7.12502,21.2862,61.3293,-26.8869,10.4532,6.57734,49.3184,-15.4029,2.50099,2.74276,-18.6406,7.38136,-27.4468,39.7641,-24.6729,14.5153,1.93127
14.1194,17.7532,-41.6189,7.91766,-40.2273,-0.33693,7.12648,-1.1583,-7.68779,0.292726,-2.06702,2.93856,-3.31856,-0.89522,7.63945,-13.4064,-0.907033,-12.4214,20.4193,0.0417912,6.45648,8.56971,-0.310715,4.27062,3.84151e-14,-1.2921e-14,-39.1402,-18.8393,-67.2182,33.2438,-15.1879,-10.9328,16.7888,7.12502,15.0852,-12.6416,3.84151e-14,-1.2921e-14,-29.514,21.4885,74.9721,32.9239,-7.36908,-8.75652,27.7774,7.12502,17.1808,57.0378,-26.9164,10.9408,6.39127,49.4223,-15.0198,3.4334,19.0409,-18.6981,7.4292,-27.4213,39.8018,-24.6589,13.7578,4.98416
14.0936,17.7085,-41.4434,7.20403,-43.4176,-0.982045,6.30336,-0.359776,-6.91898,0.935481,-0.881192,2.90875,-2.41661,-0.377049,7.02659,-12.786,-0.935184,-13.0299,19.9477,0.0287835,6.60286,8.30031,-0.342114,4.40261,-1.12612e-13,4.37326e-15,-39.0116,-18.9489,-66.667,32.9036,-14.4415,-10.7978,17.082,7.12502,15.2153,-12.3385,-1.12612e-13,4.37326e-15,-29.854,22.094,75.2774,32.8042,-7.50194,-3.66057,32.0603,7.12502,22.0799,60.8197,-26.1541,12.7899,6.43852,49.3592,-15.0124,4.16681,16.2913,-16.8814,6.57534,-27.8287,39.769,-26.3878,18.0874,4.17896
14.1248,17.7606,-41.5956,7.94104,-40.5532,-0.42787,7.74222,-1.23566,-8.14796,0.0432836,-2.25095,3.21788,-3.86554,-0.939967,8.25952,-12.3305,-0.964512,-13.2813,19.4952,-0.0479767,6.76702,8.07386,-0.372396,4.477,-4.93483e-14,3.57812e-14,-39.3904,-17.5303,-67.3195,34.0732,-15.7653,-11.0877,16.5848,7.12502,14.936,-12.8567,-4.93483e-14,3.57812e-14,-29.7899,21.5645,75.9031,32.1579,-5.32514,-7.4627,29.4921,7.12502,18.4258,58.6394,-26.9894,11.1483,6.5492,49.6713,-14.7923,3.30478,20.0675,-18.5746,7.36268,-27.4058,39.7883,-24.4666,15.0449,0.966717
14.1264,17.7626,-41.5578,7.97463,-41.0747,-0.381816,7.48017,-1.09074,-8.05454,0.194194,-2.03403,2.9959,-3.6133,-0.853842,7.92843,-12.5738,-1.17888,-13.0178,19.436,-0.372853,6.81949,8.13181,-0.495777,4.41909,4.38817e-14,-2.36554e-14,-39.2531,-17.8417,-67.6011,34.3088,-15.9026,-11.0752,16.7044,7.12502,14.9481,-12.7362,4.38817e-14,-2.36554e-14,-29.368,21.2346,76.2779,31.7692,-5.9498,-7.98347,28.6593,7.12502,17.9247,57.8533,-27.2817,10.6023,6.72506,49.8234,-14.6937,2.26109,12.737,-18.5454,7.33253,-27.6436,39.8008,-24.2823,14.7195,1.29364
14.128,17.7645,-41.5354,7.94364,-41.3579,-0.331904,7.54908,-1.09384,-8.10656,0.232232,-2.05035,2.90736,-3.61022,-0.863208,7.86617,-13.3576,-1.26223,-12.6578,19.66,-0.453289,6.78628,8.35586,-0.505073,4.3514,-6.07784e-14,8.34896e-15,-39.1942,-16.6845,-68.3732,35.0653,-17.3771,-11.2006,16.4624,7.12502,14.8272,-12.9871,-6.07784e-14,8.34896e-15,-29.2693,21.882,76.1206,31.8173,-8.83985,-4.53716,30.0583,7.12502,21.2381,58.9148,-27.3917,10.8421,6.59703,50.0063,-14.5855,2.24962,19.0882,-18.4716,7.56971,-27.7632,39.7958,-24.2138,15.6484,-2.57229
14.1296,17.7698,-41.523,8.17194,-41.4725,-0.592452,7.79664,-1.43117,-8.36454,-0.0960227,-2.53532,3.31311,-3.97322,-1.06563,8.52276,-11.8366,-0.927252,-13.9795,19.1636,-0.0248449,7.2709,7.86963,-0.361568,4.75515,4.05024e-14,2.22639e-14,-38.9999,-16.2601,-67.9456,34.6351,-16.5297,-10.7139,16.8986,7.12502,15.2961,-12.5157,4.05024e-14,2.22639e-14,-30.1599,22.3402,76.4201,31.5758,-6.94785,-6.72702,29.2554,7.12502,19.1333,58.3343,-27.4434,10.7146,6.98339,49.9975,-14.5449,1.30683,15.1733,-18.5443,7.67037,-27.5433,39.8471,-24.3681,15.5767,-1.1849
14.1064,17.7493,-41.3803,7.44687,-43.9071,-1.15285,6.97166,-0.749961,-7.1298,0.695877,-1.46941,2.70151,-2.94031,-0.638221,6.99665,-11.5953,-0.997856,-13.4619,18.7604,-0.307104,7.55543,7.7183,-0.422543,4.7266,-3.26504e-14,1.31198e-14,-38.6926,-18.7792,-67.5821,33.6445,-14.4583,-10.4678,17.5214,7.12502,15.5332,-11.8748,-3.26504e-14,1.31198e-14,-29.8513,22.2385,76.0633,31.5713,-9.02395,-3.79582,30.9578,7.12502,21.95,59.7325,-26.5068,12.3239,6.9976,49.9071,-14.7803,2.27379,14.6578,-16.8926,6.94374,-27.7956,39.8469,-25.8155,18.0651,2.82578
14.1102,17.7545,-41.3879,7.65191,-43.6384,-1.12525,7.05774,-0.921166,-7.22754,0.552871,-1.71466,2.64709,-3.0948,-0.747516,7.02169,-11.4103,-0.990327,-13.3076,18.6448,-0.365504,7.62654,7.6516,-0.432965,4.7149,-1.47101e-14,-6.26172e-15,-38.578,-19.0388,-67.6999,33.5284,-14.272,-10.7959,17.6827,7.12502,15.2171,-11.7376,-1.47101e-14,-6.26172e-15,-29.8501,22.1256,76.2373,31.4535,-8.74038,-4.15101,31.0836,7.12502,21.6089,59.8979,-26.6673,11.7919,7.11821,49.9846,-14.9488,2.33085,13.961,-17.151,7.36522,-27.7309,39.8792,-25.4311,17.1605,3.2987
14.1203,17.7811,-41.4266,8.19429,-42.7615,-0.950217,7.42003,-1.11182,-7.80075,0.30505,-2.04115,2.79246,-3.477,-0.874015,7.5571,-12.0758,-1.24248,-13.1568,18.6929,-0.636094,7.57302,7.81836,-0.544817,4.65222,4.3012e-14,-1.98785e-15,-38.7191,-17.11,-68.7434,35.1983,-16.6686,-11.3345,16.8719,7.12502,14.6982,-12.5871,4.3012e-14,-1.98785e-15,-29.2795,22.1049,76.8355,31.1937,-8.94744,-10.306,25.93,7.12502,15.6889,55.3139,-27.3969,10.4801,7.40498,50.156,-14.7768,1.28384,9.11452,-17.9781,7.97875,-27.5933,39.848,-24.1984,14.7534,5.73238
14.1209,17.7911,-41.4062,8.21896,-42.9327,-0.871769,7.7769,-0.958398,-8.31782,0.214182,-1.90241,3.03624,-3.77557,-0.775701,8.12448,-12.3665,-1.46685,-13.4485,18.6652,-0.846522,7.60168,7.88903,-0.656122,4.69133,1.2921e-14,8.34896e-15,-38.7336,-16.5646,-68.675,35.8319,-17.3473,-11.273,16.5734,7.12502,14.7575,-12.8812,1.2921e-14,8.34896e-15,-28.9034,22.2015,77.6226,32.0051,-6.20707,-2.43136,33.9027,7.12502,23.2596,62.5178,-27.6796,9.76602,7.71426,50.4363,-14.3636,-0.181331,-1.03167,-18.03,7.99829,-27.6771,39.8016,-24.1478,14.5911,3.16765
14.1207,17.7913,-41.3746,8.31899,-43.2152,-1.02455,7.68329,-0.957141,-8.18996,0.267243,-1.88219,3.0042,-3.67582,-0.775499,8.00833,-12.2826,-1.48493,-13.4403,18.4806,-0.905402,7.73369,7.81869,-0.667153,4.72423,1.32291e-13,-2.38542e-15,-38.5911,-16.5116,-68.8867,36.0182,-17.5059,-11.177,16.4943,7.12502,14.85,-12.9536,1.32291e-13,-2.38542e-15,-28.7813,21.2022,78.3249,30.0851,-11.7428,-6.5877,30.2541,7.12502,19.2673,59.3196,-27.7479,9.32958,8.05963,50.6774,-14.6897,-0.774911,5.92958,-17.9026,7.89442,-27.6538,39.6889,-23.8326,15.7297,-0.42982
14.1176,17.8096,-41.358,8.44712,-43.2068,-0.906239,7.78333,-1.02794,-8.58884,0.0520187,-2.01914,3.15071,-3.9146,-0.81391,8.4225,-12.1424,-1.484,-13.5653,18.4773,-0.880139,7.63481,7.79133,-0.675958,4.71245,7.77993e-14,1.03368e-14,-38.6696,-16.0899,-68.7589,36.2924,-17.8222,-11.2231,16.4865,7.12502,14.8056,-12.9646,7.77993e-14,1.03368e-14,-28.9654,21.9618,78.315,30.5349,-10.0522,-3.88704,31.3285,7.12502,21.8624,60.1134,-27.9935,9.45149,7.80535,50.8214,-14.8227,-0.123081,17.2791,-17.9967,8.07791,-27.7668,39.5991,-23.3443,14.9822,0.347328
14.1119,17.8254,-41.3343,8.36707,-43.3413,-0.577681,7.55464,-1.10361,-8.72158,0.0492335,-2.12113,2.91654,-3.77176,-0.871407,8.24452,-11.6764,-1.4593,-13.6586,18.1025,-0.948048,7.96444,7.59082,-0.682081,4.82196,3.14577e-14,-1.08338e-14,-38.624,-16.3563,-68.9976,36.4504,-17.5067,-11.3241,16.5671,7.12502,14.7083,-12.8912,3.14577e-14,-1.08338e-14,-28.8515,21.9402,78.2468,30.6641,-9.01134,-3.39074,31.1349,7.12502,22.3389,59.8635,-28.1858,9.59167,7.36441,50.8896,-14.7426,0.469289,23.1666,-18.0603,8.16601,-28.0696,39.5947,-23.4121,14.9445,-0.503249
14.1078,17.8141,-41.3155,8.42466,-43.4879,-0.618848,7.60198,-1.17007,-8.81134,-0.0140283,-2.22199,2.9538,-3.84003,-0.913369,8.35032,-12.5134,-1.40344,-13.2203,18.6425,-0.813124,7.73391,7.90079,-0.609108,4.70258,3.43649e-14,-2.33572e-14,-38.5666,-16.2595,-69.0119,36.5453,-17.031,-11.2621,16.6563,7.12502,14.768,-12.7976,3.43649e-14,-2.33572e-14,-28.9966,21.8306,78.5018,30.7387,-8.42868,-3.63312,30.8903,7.12502,22.1062,59.6466,-28.0959,9.16202,7.56176,50.8887,-14.718,0.246885,18.7561,-18.0969,8.20224,-28.0596,39.706,-23.4067,14.9131,-1.15162
14.1024,17.8006,-41.3012,8.52198,-43.6763,-0.810538,7.274,-1.36854,-8.00537,0.269815,-2.40578,2.31614,-3.3761,-1.05844,7.18984,-12.0248,-1.20214,-12.8677,17.9163,-0.796651,8.48659,7.56333,-0.497083,4.88079,-7.23079e-15,-9.39258e-15,-38.164,-17.0181,-70.165,36.5564,-16.5046,-10.9184,16.8682,7.12502,15.0991,-12.5611,-7.23079e-15,-9.39258e-15,-28.5205,21.2466,77.8463,30.8244,-7.93481,-3.35071,31.3893,7.12502,22.3773,60.1133,-27.9628,8.81407,7.87527,50.907,-14.7497,0.0502891,13.9903,-18.0637,8.33833,-27.928,39.862,-23.2519,14.973,-2.12933
14.1009,17.8051,-41.2795,8.92022,-44.0165,-1.39599,7.17522,-1.35467,-7.44173,0.369817,-2.33453,2.21495,-3.2544,-1.04149,6.74524,-12.9226,-1.24483,-12.3029,18.4338,-0.862114,8.41061,7.89875,-0.490967,4.77482,-5.12864e-14,9.14409e-15,-37.9801,-17.2841,-70.5262,36.7072,-16.4022,-10.6939,17.0365,7.12502,15.3154,-12.3763,-5.12864e-14,9.14409e-15,-28.2705,21.0626,77.8498,30.9096,-7.516,-2.76886,31.7429,7.12502,22.9358,60.3986,-28.019,8.87236,8.41917,50.9445,-14.5725,-0.196912,11.8146,-18.1661,8.45497,-27.4864,40.0761,-23.537,14.8325,-0.770006
14.095,17.7998,-41.2629,9.05524,-44.2529,-1.44459,7.16723,-1.35986,-7.5754,0.284377,-2.35186,2.26628,-3.32931,-1.04136,6.88012,-12.4007,-1.17809,-12.6789,17.9632,-0.801361,8.73028,7.64389,-0.457835,4.93671,-5.84178e-14,1.73937e-14,-37.9897,-17.1168,-70.5666,36.9574,-16.4054,-10.6361,17.077,7.12502,15.371,-12.3316,-5.84178e-14,1.73937e-14,-28.4398,21.1263,78.092,31.1372,-6.94419,-2.51248,31.5049,7.12502,23.1818,60.1299,-28.211,8.6937,8.53276,51.071,-14.4082,-0.403266,10.7417,-18.3055,8.58159,-27.4914,40.196,-23.7743,14.6382,-0.131968
14.0896,17.7948,-41.2483,9.10052,-44.5078,-1.35361,7.13878,-1.34363,-7.81804,0.232933,-2.34891,2.26811,-3.35848,-1.03281,7.02117,-12.3534,-1.06583,-12.6797,17.8542,-0.657714,8.78329,7.58223,-0.38298,4.96552,5.0864e-14,-6.95746e-16,-37.9547,-17.0882,-70.6266,37.2496,-16.433,-10.5212,17.0592,7.12502,15.4817,-12.3409,5.0864e-14,-6.95746e-16,-28.5187,20.9411,78.4381,31.3814,-6.11911,-2.97356,31.1685,7.12502,22.7393,59.8485,-28.4281,8.36958,8.55932,51.2265,-14.2882,-0.495337,9.50922,-18.4062,8.93322,-27.6033,40.2624,-23.4435,14.6202,-2.24337
14.0809,17.792,-41.2313,8.92115,-44.8639,-1.08746,7.05154,-1.22884,-8.13916,0.31425,-2.21606,2.17301,-3.23973,-0.970847,7.08653,-11.6546,-1.03,-13.3173,17.0171,-0.717789,9.75525,7.19077,-0.363269,5.36997,-2.17918e-14,-8.24956e-15,-37.8475,-17.3558,-70.694,37.5086,-16.2827,-10.5442,17.055,7.12502,15.4595,-12.3468,-2.17918e-14,-8.24956e-15,-28.1499,20.2669,78.9102,31.422,-5.00345,-3.23388,31.1866,7.12502,22.4895,59.8971,-28.5404,8.04284,8.43596,51.3865,-14.0764,-0.589444,8.45093,-18.3507,9.36564,-27.8465,40.2933,-23.7724,14.3052,-0.652913
14.0721,17.7867,-41.2075,8.90838,-45.2614,-1.05914,7.17435,-1.1759,-8.36853,0.18207,-2.1765,2.21503,-3.44536,-0.931996,7.26862,-12.3472,-1.04861,-12.8017,18.1102,-0.693562,9.13532,7.66767,-0.383105,5.11086,7.71285e-14,-1.23246e-14,-37.9956,-17.1285,-70.6843,37.7428,-16.0377,-10.838,17.108,7.12502,15.1765,-12.3155,7.71285e-14,-1.23246e-14,-28.3,20.0632,79.11,31.5813,-4.32827,-2.79029,31.5199,7.12502,22.9152,60.1782,-28.653,7.76237,8.48016,51.5092,-13.9865,-0.575985,7.98239,-18.2874,9.43119,-27.9393,40.3327,-23.9662,14.3543,0.271361
14.0636,17.781,-41.1794,9.06013,-45.7037,-1.28186,7.01286,-1.07468,-8.18188,0.258905,-2.01368,2.13039,-3.31309,-0.863833,7.04842,-12.7869,-1.09089,-12.3178,18.5113,-0.744745,8.77686,7.8839,-0.40745,4.91636,2.82523e-14,-2.10712e-14,-37.9555,-17.1938,-70.8519,37.9979,-16.0041,-11.0802,17.1953,7.12502,14.9432,-12.2456,2.82523e-14,-2.10712e-14,-28.1233,19.8727,79.2362,31.7472,-3.99793,-2.66572,31.4257,7.12502,23.0348,60.0692,-28.7476,7.49997,8.71669,51.6241,-14.0317,-0.401833,7.67361,-18.1808,9.35258,-27.8568,40.3708,-24.322,14.4689,1.43477
14.055,17.7746,-41.1524,9.16029,-46.0705,-1.44431,7.04897,-1.06378,-8.18936,0.196766,-2.00263,2.1826,-3.39868,-0.851386,7.11065,-12.5544,-0.987953,-12.4662,18.3597,-0.604612,8.82802,7.77591,-0.347946,4.96622,-4.23163e-14,-1.31198e-14,-37.9809,-16.8421,-70.8776,38.2674,-16.1027,-10.8859,17.228,7.12502,15.1304,-12.1989,-4.23163e-14,-1.31198e-14,-28.0584,19.8243,79.3582,31.638,-3.7668,-2.31578,31.5035,7.12502,23.3705,60.1046,-28.8234,7.22251,8.89707,51.7752,-13.9915,-0.35833,6.8098,-18.0762,9.32926,-27.8133,40.4055,-24.5974,14.6369,2.03126
14.0482,17.7692,-41.1345,9.2027,-46.2644,-1.44791,7.06034,-1.10904,-8.27919,0.181558,-2.07066,2.21051,-3.40464,-0.882811,7.19877,-12.4491,-0.87422,-12.7575,18.2003,-0.413761,8.93644,7.68266,-0.265439,5.06552,-5.71506e-16,2.36554e-14,-37.8318,-16.7083,-70.9941,38.4869,-16.0641,-10.5958,17.2858,7.12502,15.4098,-12.1198,-5.71506e-16,2.36554e-14,-27.4001,19.3154,79.6039,30.9248,-3.11005,-1.75844,32.3623,7.12502,23.9051,60.8944,-28.9762,6.86038,8.96147,51.9661,-13.8626,-0.361647,5.97647,-18.0654,9.2878,-27.8606,40.4288,-24.7498,14.7952,1.49358
14.0412,17.7649,-41.1204,9.15778,-46.4462,-1.32596,7.05663,-1.19088,-8.45748,0.205251,-2.19474,2.16742,-3.35005,-0.945687,7.26464,-12.6323,-0.721709,-12.7125,18.1985,-0.176941,8.88394,7.6868,-0.150465,5.06468,5.49143e-14,-3.57812e-15,-37.6083,-16.4631,-71.3572,38.7237,-16.2047,-10.5608,17.3226,7.12502,15.4436,-12.0805,5.49143e-14,-3.57812e-15,-27.4229,19.6937,79.611,31.3382,-2.79998,-1.88641,32.9456,7.12502,23.7823,61.4937,-29.1558,6.55264,8.94039,52.1745,-13.6907,-0.394237,4.84759,-18.0395,9.28532,-27.9896,40.4303,-24.7888,14.872,0.749945
14.0323,17.7592,-41.0967,9.13253,-46.699,-1.33046,7.04734,-1.18805,-8.45666,0.250107,-2.19154,2.08937,-3.30128,-0.948738,7.17867,-12.2367,-0.612453,-13.2551,17.7395,-0.108293,9.71985,7.45107,-0.0753496,5.43132,-2.9768e-14,-2.46493e-14,-37.5555,-16.2989,-71.593,39.0065,-16.4612,-10.5502,17.3366,7.12502,15.4537,-12.0656,-2.9768e-14,-2.46493e-14,-27.5203,19.6238,79.7753,31.7015,-2.17144,-2.54625,32.41,7.12502,23.1494,61.0391,-29.2191,6.38149,8.99336,52.3605,-13.6469,-0.441294,4.00519,-17.8942,9.23062,-28.0544,40.4241,-24.7035,15.1262,-0.0300015
14.0215,17.7546,-41.0654,9.24597,-46.9808,-1.5942,7.05659,-1.11918,-8.21786,0.29732,-2.08091,2.06537,-3.28628,-0.899979,7.00593,-12.4512,-0.595605,-12.902,17.9605,-0.0683605,9.35075,7.55909,-0.0667264,5.25801,-6.21202e-15,1.09332e-14,-37.606,-16.2416,-71.6371,39.3116,-16.6058,-10.4648,17.4065,7.12502,15.536,-11.9894,-6.21202e-15,1.09332e-14,-27.3344,19.2963,80.0155,31.6671,-1.79942,-2.77011,31.9485,7.12502,22.9346,60.6044,-29.1809,6.35385,9.1811,52.5174,-13.6548,-0.427523,6.10881,-17.6592,9.11445,-27.9472,40.409,-24.7543,15.4809,-0.411947
14.0096,17.751,-41.0374,9.35257,-47.3044,-1.75912,7.08213,-1.16054,-8.29653,0.261803,-2.14122,2.19457,-3.3194,-0.925203,7.19638,-12.6982,-0.424463,-12.55,18.2244,0.22615,8.78253,7.65931,0.0436494,5.04235,1.44616e-14,-1.78906e-15,-37.5095,-15.6412,-71.722,39.5572,-16.6986,-10.3993,17.4344,7.12502,15.5991,-11.9566,1.44616e-14,-1.78906e-15,-27.2989,19.4746,80.1331,31.7246,-1.73344,-2.53571,32.1886,7.12502,23.1595,60.8164,-29.2305,6.28305,9.28844,52.696,-13.5665,-0.447838,6.84364,-17.493,9.12933,-27.9172,40.4045,-24.9862,15.5958,0.792607
13.9978,17.7466,-41.0141,9.37938,-47.669,-1.79587,7.04879,-1.15354,-8.39289,0.266799,-2.13637,2.20545,-3.29254,-0.922792,7.26147,-12.8494,-0.308943,-12.2244,18.3792,0.384023,8.50427,7.7216,0.114019,4.91375,1.90336e-14,1.51076e-14,-37.3397,-15.5861,-71.8078,39.618,-16.4732,-10.2381,17.4398,7.12502,15.7544,-11.939,1.90336e-14,1.51076e-14,-27.2841,19.5083,80.2469,31.9704,-1.44143,-2.47214,32.6135,7.12502,23.2205,61.2336,-29.362,6.0404,9.3364,52.9095,-13.4174,-0.386634,4.99905,-17.3933,9.2818,-27.9694,40.4479,-25.1983,15.6546,1.47906
13.9898,17.7425,-41.0033,9.57861,-47.7646,-1.88436,7.063,-1.16238,-8.37149,0.222486,-2.15022,2.16236,-3.347,-0.925782,7.20593,-12.9593,-0.281135,-11.9578,18.4427,0.380341,8.48248,7.7626,0.129109,4.86451,3.08613e-14,1.35174e-14,-37.2544,-15.9095,-71.8725,39.6637,-16.2426,-10.1894,17.5002,7.12502,15.8012,-11.8749,3.08613e-14,1.35174e-14,-27.1128,19.3624,80.3801,32.1208,-1.12812,-2.67095,32.8521,7.12502,23.0297,61.4962,-29.6594,5.61859,9.48338,53.1263,-13.174,-0.28299,4.54033,-17.5169,9.52496,-27.9065,40.4986,-25.125,15.5882,0.648052
13.9848,17.7405,-41.0078,10.0385,-47.5315,-1.98407,7.0591,-1.26606,-8.38835,0.071139,-2.29371,2.1537,-3.47732,-0.984627,7.22237,-12.5301,-0.260421,-12.3888,17.8603,0.314071,9.28624,7.49314,0.148135,5.18236,-5.58585e-14,-3.97569e-15,-37.2548,-15.955,-72.0253,39.8375,-16.3357,-10.4523,17.5847,7.12502,15.548,-11.8103,-5.58585e-14,-3.97569e-15,-26.9042,19.2407,80.4152,32.2353,-1.18043,-2.49766,32.9558,7.12502,23.196,61.579,-30.1751,5.16835,9.66736,53.3544,-13.0049,-0.168734,6.04442,-17.9774,9.81732,-27.7499,40.5602,-25.0628,15.0431,0.407084
13.9663,17.7345,-40.9695,9.88041,-48.016,-2.09178,7.0671,-1.13221,-8.27191,0.212264,-2.10584,2.06545,-3.37533,-0.903963,7.04175,-12.7864,-0.230301,-11.9049,17.9797,0.378907,8.7861,7.57607,0.16843,4.94296,-4.04527e-14,-1.72943e-14,-37.2402,-15.9402,-72.1171,40.0143,-16.4451,-10.5482,17.6008,7.12502,15.4557,-11.8013,-4.04527e-14,-1.72943e-14,-26.7924,18.9678,80.5019,32.376,-1.21402,-2.49032,32.6164,7.12502,23.203,61.2388,-30.0206,5.35027,9.63484,53.5524,-12.9567,0.264703,7.92354,-17.5631,9.90676,-27.7672,40.5708,-25.6125,15.1707,1.27439
13.9464,17.7296,-40.9346,9.59366,-48.4637,-1.86262,6.95303,-1.04909,-8.41189,0.328679,-1.99761,1.93886,-3.20839,-0.861273,6.97014,-13.0872,-0.14529,-11.6713,18.31,0.530349,8.47223,7.72498,0.225231,4.82497,9.89948e-14,-2.5842e-14,-37.1548,-15.8941,-72.259,40.1739,-16.4704,-10.5307,17.6195,7.12502,15.4726,-11.7813,9.89948e-14,-2.5842e-14,-26.6596,18.7798,80.5695,32.5107,-1.3011,-3.56536,31.6875,7.12502,22.1713,60.4361,-30.0497,5.31596,9.40853,53.806,-12.7234,0.492465,8.35467,-17.2655,10.0326,-28.0436,40.5462,-25.8305,15.355,1.04572
13.9307,17.7274,-40.9145,9.50182,-48.6071,-1.68198,6.93478,-1.07739,-8.57986,0.354479,-2.04922,1.84893,-3.15931,-0.888446,6.97317,-13.1974,-0.011295,-11.7405,18.4664,0.702489,8.64137,7.77441,0.31658,4.91756,5.22307e-14,6.36111e-15,-37.0434,-15.8613,-72.4492,40.267,-16.3653,-10.5849,17.7033,7.12502,15.4204,-11.7016,5.22307e-14,6.36111e-15,-26.3498,18.7368,80.5484,32.4288,-1.4037,-6.39647,30.4122,7.12502,19.4512,59.4593,-30.2578,4.99751,9.35238,54.0995,-12.5252,0.470499,7.76718,-17.1817,9.97454,-28.208,40.4891,-25.6098,15.5983,-0.379528
13.9174,17.7306,-40.9001,9.57586,-48.5898,-1.60648,7.01137,-1.16333,-8.80596,0.264028,-2.18862,1.93003,-3.26081,-0.945418,7.20622,-13.1707,0.146743,-11.9649,18.5565,0.93621,8.7691,7.77001,0.421365,5.02381,3.45885e-14,-2.26615e-14,-36.9889,-15.7734,-72.3946,40.3097,-16.324,-10.5422,17.684,7.12502,15.4615,-11.7177,3.45885e-14,-2.26615e-14,-26.1244,18.7518,80.6457,32.2873,-1.20407,-2.8794,32.9349,7.12502,22.8297,61.6037,-30.5178,4.77079,9.34668,54.4186,-12.5611,0.429983,7.98605,-17.2389,9.76345,-28.2567,40.4866,-25.4621,15.7076,-0.838297
13.9016,17.7326,-40.8924,9.68648,-48.6768,-1.56745,7.10731,-1.18709,-9.15735,0.140012,-2.256,2.09351,-3.4135,-0.959358,7.59634,-13.0018,0.292719,-12.1876,18.5867,1.17387,8.71432,7.72203,0.509442,5.06262,-2.8625e-14,-3.97569e-15,-36.9876,-15.6686,-72.2236,40.3419,-16.3426,-10.6671,17.64,7.12502,15.3412,-11.7709,-2.8625e-14,-3.97569e-15,-26.0973,18.8911,80.7897,32.4294,-1.0445,-3.57798,32.2733,7.12502,22.1592,61.0233,-30.8098,4.84596,9.31599,54.7281,-12.5076,0.403703,9.86672,-17.374,9.78274,-28.2567,40.5285,-25.4941,15.5201,0.0677432
13.8846,17.732,-40.8778,10.0201,-48.8158,-1.89453,7.11069,-1.14738,-8.99259,0.109855,-2.19029,2.10771,-3.46546,-0.925241,7.51241,-12.9022,0.347729,-12.0039,18.4982,1.23351,8.55277,7.67148,0.535761,4.97714,5.56597e-14,1.51076e-14,-36.9857,-16.0342,-72.2198,40.3322,-16.2088,-10.7109,17.7697,7.12502,15.299,-11.6445,5.56597e-14,1.51076e-14,-25.9543,18.6947,80.8246,32.5738,-1.05768,-4.21594,31.8817,7.12502,21.5466,60.7031,-31.0402,4.95712,9.5713,54.9956,-12.2307,0.33083,11.1602,-17.4685,9.85785,-28.0046,40.5815,-25.6247,15.3364,1.05093
13.8662,17.7316,-40.8399,10.2009,-48.9395,-2.0739,6.96729,-1.1361,-8.5963,0.148873,-2.13507,1.92702,-3.37477,-0.911677,7.07965,-13.0157,0.391688,-11.6418,18.4912,1.22194,8.59581,7.69146,0.561896,4.9317,3.49861e-14,2.18663e-14,-37.0384,-16.6402,-72.3302,40.3653,-15.9141,-10.5813,17.8964,7.12502,15.4238,-11.5082,3.49861e-14,2.18663e-14,-25.7361,18.2912,80.773,32.5609,-1.08346,-6.50388,30.1464,7.12502,19.3479,59.2039,-31.1458,4.71594,9.73018,55.2263,-11.8495,0.277916,9.53325,-17.372,9.78421,-27.936,40.6079,-25.7838,15.3956,1.04492
13.8451,17.7315,-40.8112,10.1238,-48.9853,-1.89578,6.9177,-1.18661,-8.66227,0.157744,-2.20707,1.80692,-3.32661,-0.949989,6.99269,-13.129,0.472352,-11.4614,18.613,1.29659,8.62216,7.74366,0.611487,4.92328,-1.72943e-14,-6.75868e-15,-37.0958,-16.6727,-72.4481,40.483,-15.8183,-10.6028,17.8625,7.12502,15.4031,-11.5437,-1.72943e-14,-6.75868e-15,-25.5525,18.1636,80.7072,32.49,-1.16539,-4.0079,32.652,7.12502,21.7464,61.4504,-31.2612,4.28496,9.7069,55.4462,-11.5273,0.00063864,6.01713,-17.2586,9.78529,-28.0917,40.5913,-25.668,15.5265,-0.00590811
13.8212,17.7328,-40.7921,10.1243,-49.1458,-1.96369,7.01939,-1.21755,-8.8318,0.17641,-2.26778,1.89024,-3.34341,-0.976919,7.18761,-13.2643,0.577225,-11.4809,18.7762,1.49559,8.42165,7.80307,0.683834,4.88445,-2.85256e-14,1.86858e-14,-36.9945,-16.1619,-72.5339,40.5197,-16.0864,-10.7,17.7731,7.12502,15.3095,-11.6402,-2.85256e-14,1.86858e-14,-25.4321,18.1291,80.742,32.4173,-1.02938,-4.0778,32.1278,7.12502,21.6792,60.934,-31.3205,4.20807,9.83579,55.6472,-11.2968,-0.254987,4.78798,-17.0814,9.93353,-28.0393,40.5561,-25.4838,15.6632,-0.894569
