JuanDHNZ/ProyectoFinalCD/preprocessing/sports_trials_csv/10_02.csv
root1,root2,root3,root4,root5,root6,lowerback1,lowerback2,lowerback3,upperback1,upperback2,upperback3,thorax1,thorax2,thorax3,lowerneck1,lowerneck2,lowerneck3,upperneck1,upperneck2,upperneck3,head1,head2,head3,rclavicle1,rclavicle2,rhumerus1,rhumerus2,rhumerus3,rradius1,rwrist1,rhand1,rhand2,rfingers1,rthumb1,rthumb2,lclavicle1,lclavicle2,lhumerus1,lhumerus2,lhumerus3,lradius1,lwrist1,lhand1,lhand2,lfingers1,lthumb1,lthumb2,rfemur1,rfemur2,rfemur3,rtibia1,rfoot1,rfoot2,rtoes1,lfemur1,lfemur2,lfemur3,ltibia1,lfoot1,lfoot2,ltoes1
10.4674,17.77,-18.1914,7.70326,-37.3715,-8.45669,4.49113,-0.246768,-2.33609,-1.49678,-0.316592,4.68927,-4.04018,-0.0448804,6.24129,-11.0524,-8.97525,-17.7371,16.4966,-11.7476,13.4955,8.84816,-5.57866,6.08995,-1.55673e-14,7.11649e-14,-39.067,-21.9912,-66.5157,32.0461,-16.1157,-10.4701,16.5218,7.12502,15.531,-12.8745,-1.55673e-14,7.11649e-14,-33.5853,23.4792,74.9611,25.6653,-11.3305,-0.790152,33.1208,7.12502,24.8333,61.5281,-14.8304,4.38153,23.4693,37.5368,-19.7241,-10.1013,10.7368,-12.5863,1.10708,-16.0853,37.7958,-24.5346,9.13174,6.41759
10.4675,17.7686,-18.1944,7.75319,-37.2759,-8.62284,4.58393,-0.290686,-2.1706,-1.55236,-0.362813,4.73713,-4.14545,-0.0684182,6.20344,-10.8628,-8.92617,-17.8965,16.4389,-11.7196,13.6952,8.81276,-5.56737,6.19735,9.14223e-14,2.42517e-14,-39.0669,-21.4745,-66.7603,32.3907,-16.3068,-10.7157,16.4816,7.12502,15.2944,-12.9329,9.14223e-14,2.42517e-14,-33.7014,23.411,74.924,25.7088,-11.2806,-0.829963,32.844,7.12502,24.7952,61.2566,-14.7921,4.39556,23.6539,37.56,-19.7767,-10.1564,11.1699,-12.566,1.25538,-15.8777,37.8024,-24.5331,8.9427,6.14196
10.4649,17.7644,-18.1731,7.24122,-37.3898,-8.0305,4.2265,-0.323779,-2.08665,-1.31964,-0.421098,4.25097,-3.6947,-0.11875,5.63136,-10.8892,-8.882,-17.6368,16.3441,-11.7577,13.9959,8.7947,-5.54493,6.2556,-6.60214e-14,2.54444e-14,-38.8278,-21.7373,-67.421,32.6205,-16.3323,-10.8421,16.2727,7.12502,15.1726,-13.151,-6.60214e-14,2.54444e-14,-33.3377,23.1064,74.6017,25.6573,-11.1396,-0.685385,32.8191,7.12502,24.9337,61.2125,-14.5694,4.18701,23.0593,37.6328,-19.8449,-9.93695,10.4627,-12.2111,1.16068,-16.4949,37.6785,-24.6323,9.14224,6.2056
10.4623,17.7649,-18.1704,7.1881,-37.4993,-7.92962,3.91214,-0.31265,-1.76106,-1.14102,-0.401524,3.90439,-3.33623,-0.129438,5.06944,-11.0637,-8.89761,-17.1291,16.1997,-11.8212,13.9546,8.75262,-5.53946,6.14007,-8.64247e-14,5.46658e-15,-38.5741,-22.1517,-68.0092,32.855,-16.3911,-10.6732,16.2105,7.12502,15.3353,-13.2009,-8.64247e-14,5.46658e-15,-32.8275,22.7594,74.3699,25.5291,-11.0528,-0.874419,32.6296,7.12502,24.7526,61.048,-14.5887,4.30349,22.9592,37.6707,-19.8906,-9.95201,10.7279,-12.157,0.931614,-16.6458,37.6286,-24.681,9.37117,6.70654
10.4599,17.7644,-18.1704,7.20687,-37.599,-7.91397,3.91145,-0.289287,-1.81079,-1.19252,-0.370943,3.93545,-3.39206,-0.110955,5.12932,-11.0986,-8.91908,-17.0386,16.1331,-11.8202,13.7935,8.71969,-5.54422,6.06524,2.4786e-15,-8.54774e-15,-38.5549,-22.0115,-68.0498,33.0973,-16.4648,-10.6781,16.3607,7.12502,15.3306,-13.0511,2.4786e-15,-8.54774e-15,-32.8088,22.6378,74.4442,25.4198,-10.941,-1.34353,32.2706,7.12502,24.3029,60.75,-14.6415,4.41229,22.9384,37.7058,-19.9228,-9.96461,11.0064,-12.1627,0.78183,-16.6839,37.5756,-24.7312,9.40935,7.50356
10.4586,17.7635,-18.1689,7.33168,-37.6215,-8.06534,4.10514,-0.303806,-2.00488,-1.37644,-0.389245,4.23082,-3.68911,-0.104185,5.55977,-11.1384,-8.9044,-17.254,16.2262,-11.7325,13.6582,8.74856,-5.52495,6.06546,4.00613e-14,1.43125e-14,-38.5747,-21.371,-67.9059,33.3528,-16.8005,-10.9571,16.372,7.12502,15.0618,-13.0601,4.00613e-14,1.43125e-14,-33.205,22.7738,74.6505,25.4713,-10.8154,-1.45513,32.2724,7.12502,24.1959,60.7661,-14.6816,4.44009,23.0724,37.7136,-19.9197,-9.95664,10.8927,-12.2095,0.78521,-16.5439,37.5817,-24.7182,9.41216,7.30876
10.4578,17.7647,-18.168,7.52091,-37.5987,-8.29888,4.2311,-0.35064,-2.02133,-1.52861,-0.443415,4.46047,-3.91202,-0.121358,5.82176,-11.1279,-8.8709,-17.451,16.3452,-11.6335,13.5242,8.7739,-5.502,6.06684,-3.22777e-14,1.98785e-15,-38.5401,-20.6703,-67.9666,33.6306,-17.1397,-11.1589,16.097,7.12502,14.8674,-13.3495,-3.22777e-14,1.98785e-15,-33.6346,22.9105,74.74,25.6986,-10.7121,-1.51763,32.3303,7.12502,24.136,60.832,-14.7356,4.48729,23.2904,37.7284,-19.9967,-9.90486,11.6901,-12.2561,0.851972,-16.3234,37.587,-24.6122,9.45413,6.97314
10.4555,17.7645,-18.1647,7.40461,-37.6351,-8.12284,4.23215,-0.363967,-2.17477,-1.56395,-0.469302,4.45203,-3.94572,-0.128922,5.90358,-11.0214,-8.89762,-17.6463,16.3085,-11.6592,13.5753,8.76282,-5.526,6.11551,-1.64122e-14,-5.32743e-14,-38.4663,-20.4714,-68.06,33.8079,-17.0347,-11.0628,16.0297,7.12502,14.96,-13.4099,-1.64122e-14,-5.32743e-14,-33.8099,22.8855,74.7643,25.9251,-10.6622,-1.60767,32.3594,7.12502,24.0496,60.8725,-14.7098,4.54436,23.1339,37.7434,-20.0379,-9.89646,11.9076,-12.2194,0.901886,-16.485,37.5976,-24.6073,9.4916,7.11792
10.4528,17.7628,-18.1598,7.18145,-37.6765,-7.86288,4.08763,-0.369758,-2.19432,-1.42551,-0.486655,4.23714,-3.71831,-0.146705,5.68254,-11.0734,-8.92453,-17.4843,16.1513,-11.7346,13.7294,8.73195,-5.53638,6.12866,-9.88954e-15,5.54609e-14,-38.2369,-20.7918,-68.3779,33.9096,-16.7309,-10.8183,16.3118,7.12502,15.1955,-13.1102,-9.88954e-15,5.54609e-14,-33.4933,22.7299,74.6756,25.9049,-10.659,-1.66836,32.3966,7.12502,23.9914,60.9174,-14.6145,4.53514,22.8955,37.7552,-20.0543,-9.92391,11.5516,-12.1185,0.87136,-16.7381,37.6135,-24.6965,9.56097,7.02598
10.4509,17.7625,-18.1622,7.3071,-37.5735,-8.03456,3.64754,-0.416116,-1.57633,-1.12194,-0.533145,3.86793,-3.15529,-0.203195,4.92945,-11.3054,-8.95009,-16.9567,15.9238,-11.8659,14.0039,8.70396,-5.53467,6.11001,-9.74262e-14,7.05686e-15,-37.795,-21.6455,-69.0338,33.9324,-16.2629,-10.5869,16.6319,7.12502,15.4185,-12.7731,-9.74262e-14,7.05686e-15,-32.5913,22.3549,74.4179,25.5869,-10.5024,-1.77193,32.3872,7.12502,23.8921,60.921,-14.6376,4.50555,23.0784,37.7806,-20.0787,-10.0203,11.6748,-12.1714,0.906734,-16.5425,37.6194,-24.6509,9.41667,7.05906
10.4497,17.7627,-18.1657,7.4715,-37.4314,-8.16158,3.90019,-0.381511,-1.81926,-1.38677,-0.484384,4.20371,-3.57446,-0.158756,5.42789,-11.2245,-9.01772,-17.2761,16.0511,-11.896,13.8558,8.74847,-5.58271,6.10863,-2.06798e-14,1.07344e-14,-37.9961,-21.251,-68.5764,34.1776,-16.5625,-10.7147,16.6401,7.12502,15.2953,-12.7744,-2.06798e-14,1.07344e-14,-32.7826,22.4605,74.7668,25.3779,-10.6028,-1.69353,32.441,7.12502,23.9673,60.965,-14.7437,4.46464,23.2277,37.8055,-20.0362,-10.126,11.5457,-12.3142,0.890637,-16.3699,37.6226,-24.5817,9.20586,7.74513
10.4486,17.7621,-18.1637,7.39982,-37.4234,-7.95914,3.98028,-0.355325,-2.08624,-1.54103,-0.457257,4.29808,-3.78148,-0.130728,5.68324,-11.0399,-9.03795,-17.4632,15.9893,-11.9113,13.845,8.70848,-5.60931,6.13751,-2.87927e-15,1.82882e-14,-38.0903,-20.4841,-68.6408,34.5465,-17.2569,-11.0882,16.5575,7.12502,14.9355,-12.8841,-2.87927e-15,1.82882e-14,-33.0497,22.6554,74.86,25.5116,-10.7668,-1.35842,32.7078,7.12502,24.2886,61.1891,-14.8043,4.41403,23.0399,37.8203,-20.0165,-10.0858,11.2803,-12.3603,0.845306,-16.5513,37.628,-24.6505,9.19637,7.90097
10.4471,17.7622,-18.1629,7.3496,-37.4187,-7.85969,4.00289,-0.395552,-2.19524,-1.613,-0.514428,4.33873,-3.8619,-0.153046,5.79473,-10.8652,-8.9682,-17.5137,15.9067,-11.8238,13.8404,8.63672,-5.57879,6.16193,6.63133e-15,1.11319e-14,-38.0861,-19.7001,-68.8909,34.8489,-17.5253,-11.2404,16.6092,7.12502,14.7889,-12.8432,6.63133e-15,1.11319e-14,-33.3203,22.9521,74.7982,25.7377,-10.7672,-1.06375,33.0459,7.12502,24.5711,61.4891,-14.8151,4.39322,22.9502,37.8317,-20.0396,-10.0102,11.3468,-12.355,0.84065,-16.6415,37.6174,-24.6959,9.23986,7.40435
10.4448,17.7638,-18.164,7.40686,-37.3259,-7.91775,3.99608,-0.433256,-2.16737,-1.66126,-0.560917,4.39613,-3.90279,-0.174707,5.84376,-10.774,-8.93733,-17.6515,15.8415,-11.796,13.9953,8.61287,-5.56551,6.24605,-4.73139e-14,-2.18663e-15,-38.0823,-19.3518,-68.9687,35.0892,-17.5732,-11.0808,16.655,7.12502,14.9426,-12.786,-4.73139e-14,-2.18663e-15,-33.3787,23.0101,74.8441,25.6916,-10.8117,-0.814813,32.9953,7.12502,24.8097,61.4058,-14.8508,4.38148,23.0315,37.8662,-20.0489,-10.0891,11.2306,-12.37,0.763965,-16.5624,37.5533,-24.6307,9.2321,7.366
10.4404,17.7636,-18.1597,7.41631,-37.4001,-7.97637,3.86168,-0.40062,-2.06433,-1.61939,-0.512717,4.39859,-3.78925,-0.156668,5.78038,-10.5753,-8.95009,-17.9242,15.6288,-11.8427,14.322,8.55393,-5.5858,6.40325,-7.71626e-14,-5.00937e-14,-38.0171,-19.4641,-68.9559,35.2245,-17.5795,-10.8964,16.6474,7.12502,15.1203,-12.7803,-7.71626e-14,-5.00937e-14,-33.283,22.9594,74.9267,25.5022,-10.9989,-0.947073,32.3155,7.12502,24.6829,60.7435,-14.8309,4.43935,23.0893,37.908,-20.0626,-10.1725,10.9411,-12.294,0.740842,-16.5233,37.5209,-24.6394,9.29413,7.56113
10.4343,17.7595,-18.1468,7.07814,-37.7076,-7.6155,3.64896,-0.3016,-2.24242,-1.50342,-0.394435,4.2846,-3.56142,-0.101237,5.74797,-10.4033,-8.97154,-18.1853,15.5397,-11.8883,14.5265,8.5323,-5.61395,6.51631,-1.3126e-14,-1.07344e-14,-37.9114,-19.704,-68.9556,35.3046,-17.4699,-10.9857,16.5866,7.12502,15.0343,-12.8475,-1.3126e-14,-1.07344e-14,-33.1474,22.8323,75.0638,25.3203,-11.0038,-1.32202,31.7264,7.12502,24.3235,60.203,-14.6736,4.47502,22.716,37.9429,-20.1071,-9.97407,10.8784,-12.0066,0.808515,-16.9273,37.4541,-24.7072,9.51445,7.56392
10.4324,17.7614,-18.1736,7.16145,-37.6752,-7.58947,3.79488,-0.257506,-2.42651,-1.61759,-0.341352,4.33046,-3.76853,-0.0626615,5.90325,-10.4439,-9.01816,-18.3548,15.769,-11.9543,14.5784,8.64313,-5.65071,6.55552,1.08394e-13,3.53837e-14,-37.9179,-19.8291,-68.9258,35.4128,-17.4107,-11.0494,16.5747,7.12502,14.9729,-12.864,1.08394e-13,3.53837e-14,-33.089,22.6535,75.2346,25.155,-11.0096,-1.44985,31.6721,7.12502,24.201,60.1652,-14.9015,4.88775,22.8083,37.9676,-20.0663,-10.2977,11.4839,-12.2708,0.950871,-16.8313,37.4562,-24.4977,9.40456,7.20324
10.4277,17.7602,-18.1489,7.15507,-37.851,-7.60995,3.53495,-0.210665,-2.23968,-1.58081,-0.270171,4.30373,-3.59189,-0.0368994,5.75818,-10.5964,-9.03166,-18.3479,16.0017,-11.963,14.5227,8.74628,-5.65355,6.53254,2.16427e-14,-3.71727e-14,-37.9077,-19.8439,-68.9364,35.5166,-17.4179,-10.8396,16.6669,7.12502,15.175,-12.7566,2.16427e-14,-3.71727e-14,-33.0781,22.7162,75.2776,25.0221,-11.1137,-1.67597,31.6879,7.12502,23.9842,60.2097,-14.7591,4.60223,22.7036,37.9564,-20.1682,-9.85026,11.3348,-12.0779,1.01128,-16.9231,37.4612,-24.69,9.60705,6.76165
10.4269,17.7615,-18.157,7.35689,-37.7405,-7.88338,3.62797,-0.230113,-2.04183,-1.64146,-0.28331,4.38112,-3.70646,-0.0441573,5.7299,-10.567,-9.01323,-18.2002,15.9488,-11.931,14.3707,8.69701,-5.64229,6.45827,4.22573e-14,-8.15017e-15,-37.8886,-19.7537,-69.0311,35.6814,-17.521,-10.9041,16.5079,7.12502,15.1129,-12.9204,4.22573e-14,-8.15017e-15,-33.0735,22.7255,75.3368,25.0122,-11.0841,-1.85757,31.6766,7.12502,23.81,60.2211,-14.7986,4.7041,23.0002,37.9168,-20.072,-10.1281,10.8966,-12.2189,1.04848,-16.6161,37.5461,-24.6508,9.50833,6.53001
10.4268,17.7628,-18.1627,7.56619,-37.6278,-8.15628,3.68056,-0.270355,-1.83252,-1.6892,-0.324052,4.43914,-3.78173,-0.0670214,5.67568,-10.449,-8.98947,-17.9583,15.7983,-11.896,14.136,8.5867,-5.63367,6.34073,-1.27023e-13,-2.62396e-14,-37.8364,-19.6006,-69.2174,35.8014,-17.4897,-11.2707,16.2817,7.12502,14.7597,-13.1728,-1.27023e-13,-2.62396e-14,-33.0946,22.6159,75.3845,25.103,-10.9747,-1.53791,32.0007,7.12502,24.1165,60.505,-14.8289,4.76764,23.2789,37.8519,-20.02,-10.3207,10.9582,-12.344,1.09265,-16.329,37.6018,-24.5993,9.42262,6.376
10.4255,17.7633,-18.1628,7.65604,-37.5919,-8.21111,3.63748,-0.371736,-1.83581,-1.68502,-0.459866,4.46761,-3.73759,-0.135702,5.71598,-10.6428,-8.91798,-17.7262,15.9277,-11.7756,13.9329,8.61491,-5.57152,6.24468,-2.45654e-14,1.80894e-14,-37.6095,-19.5766,-69.3775,35.7278,-17.1128,-11.2077,16.4776,7.12502,14.8204,-12.9725,-2.45654e-14,1.80894e-14,-33.0702,22.6251,75.3635,25.2024,-10.7671,-0.685525,32.9457,7.12502,24.9336,61.3391,-14.8716,4.77531,23.3331,37.8169,-20.0799,-10.3646,11.442,-12.4358,1.10596,-16.2688,37.6468,-24.6141,9.38514,6.52803
10.4238,17.7622,-18.1608,7.64712,-37.5415,-8.21933,3.61034,-0.467929,-1.83592,-1.66364,-0.588505,4.51481,-3.68516,-0.201203,5.77358,-10.8138,-8.83108,-17.6919,16.0507,-11.6319,13.8809,8.65638,-5.49948,6.23931,-3.55017e-15,6.75868e-15,-37.3992,-19.7679,-69.3267,35.5825,-16.6657,-10.7283,16.8255,7.12502,15.2822,-12.59,-3.55017e-15,6.75868e-15,-33.1227,22.5975,75.4515,25.3811,-10.4146,0.148007,34.0913,7.12502,25.7321,62.3716,-14.8311,4.74523,23.3572,37.8005,-20.133,-10.3333,11.4164,-12.4241,1.02192,-16.2459,37.6509,-24.6424,9.34766,6.6698
10.4219,17.7621,-18.1568,7.48773,-37.5809,-8.042,3.61676,-0.446377,-1.9184,-1.66569,-0.564389,4.48051,-3.6933,-0.187078,5.78314,-10.7669,-8.83498,-17.755,15.9995,-11.6388,13.9315,8.63935,-5.50415,6.26727,1.03048e-13,5.96354e-15,-37.4211,-19.555,-69.3523,35.708,-16.9448,-10.3749,16.8539,7.12502,15.6226,-12.5353,1.03048e-13,5.96354e-15,-33.2332,22.5088,75.5849,25.5458,-10.4183,-0.0534005,33.9025,7.12502,25.5392,62.2106,-14.753,4.79208,23.2036,37.8002,-20.1772,-10.2755,11.3064,-12.3109,0.887195,-16.4319,37.6279,-24.6782,9.51291,6.33092
10.4197,17.7637,-18.1511,7.44175,-37.726,-7.94789,3.55596,-0.341945,-1.90233,-1.66909,-0.425758,4.39028,-3.67861,-0.119145,5.66819,-10.8259,-8.89453,-17.6881,16.0443,-11.7402,13.9762,8.68148,-5.54223,6.2558,4.70871e-14,1.72943e-14,-37.5916,-19.0723,-69.5516,36.0474,-17.5059,-10.4298,16.7477,7.12502,15.5698,-12.6456,4.70871e-14,1.72943e-14,-33.2219,22.4484,75.6196,25.5233,-10.7795,-0.915536,32.5274,7.12502,24.7132,60.9512,-14.7558,4.90495,23.0971,37.8037,-20.1964,-10.2372,11.4642,-12.2391,0.844522,-16.5645,37.5948,-24.726,9.62548,6.44378
10.4178,17.7638,-18.149,7.4902,-37.7883,-8.0729,3.56652,-0.277007,-1.71187,-1.66485,-0.330609,4.33749,-3.69148,-0.0766703,5.49698,-10.937,-8.93533,-17.5947,16.1225,-11.8188,14.037,8.73969,-5.56472,6.24826,4.16702e-14,1.78906e-15,-37.6918,-19.0962,-69.6445,36.1581,-17.4147,-10.6803,16.7502,7.12502,15.3285,-12.6617,4.16702e-14,1.78906e-15,-33.1234,22.3127,75.6316,25.3976,-10.8821,-0.849738,32.578,7.12502,24.7762,60.9932,-14.7161,4.91324,23.203,37.7798,-20.1346,-10.2119,11.1463,-12.2061,0.970937,-16.4447,37.5874,-24.7218,9.50342,6.64402
10.4129,17.7634,-18.1482,7.38427,-37.6387,-8.02709,3.61022,-0.318188,-1.69733,-1.65904,-0.385878,4.29669,-3.70432,-0.104838,5.44969,-10.9475,-8.95913,-17.6094,16.1035,-11.8639,14.1208,8.74979,-5.57981,6.27318,-9.42674e-15,2.80286e-14,-37.6675,-19.2324,-69.7257,36.0816,-17.2676,-10.917,16.736,7.12502,15.1005,-12.6932,-9.42674e-15,2.80286e-14,-33.1156,22.2164,75.6586,25.3864,-10.8424,-0.481718,33.3167,7.12502,25.1289,61.6829,-14.6084,4.74436,23.1887,37.7884,-20.1446,-10.1884,10.9439,-12.1128,1.04484,-16.4415,37.5402,-24.6599,9.44067,6.03813
10.4132,17.7615,-18.1425,7.52673,-37.5924,-8.33624,3.624,-0.33539,-1.37596,-1.64833,-0.39209,4.34238,-3.70153,-0.116019,5.31449,-10.8838,-8.97932,-17.5982,16.0052,-11.8882,14.0932,8.70687,-5.59485,6.25778,3.20385e-14,-2.64384e-14,-37.6356,-19.0018,-69.9197,36.1433,-17.5446,-11.2718,16.5317,7.12502,14.7586,-12.9228,3.20385e-14,-2.64384e-14,-33.1761,22.2509,75.6922,25.4399,-10.8724,-0.991936,32.5426,7.12502,24.6399,60.9765,-14.5128,4.68633,23.4679,37.7447,-20.1778,-10.1171,11.4914,-12.0392,1.03081,-16.1681,37.554,-24.6735,9.54336,5.54833
10.4057,17.7623,-18.1421,7.28995,-37.6907,-7.82321,3.62568,-0.33369,-1.96204,-1.76765,-0.416898,4.31412,-3.82164,-0.109066,5.62412,-10.721,-8.93846,-17.6464,16.0053,-11.8321,14.0064,8.66459,-5.58536,6.2483,-3.24159e-14,-1.51076e-14,-37.7567,-18.5568,-69.9743,36.2672,-17.8287,-11.406,16.3078,7.12502,14.6294,-13.1562,-3.24159e-14,-1.51076e-14,-33.3654,22.3946,75.7263,25.4035,-10.8631,-1.40457,31.6093,7.12502,24.2444,60.0965,-14.5783,4.56908,22.9834,37.7338,-20.1923,-9.93229,11.7594,-12.0661,1.03,-16.651,37.5344,-24.6688,9.67191,5.26773
10.4068,17.7596,-18.1376,7.53377,-37.8074,-8.33707,3.80682,-0.326968,-1.57487,-1.86325,-0.380604,4.47641,-4.02911,-0.0940876,5.57669,-10.6475,-8.86678,-17.7272,16.168,-11.736,13.9467,8.69003,-5.55425,6.26015,8.36744e-14,-3.37934e-14,-37.8839,-18.3118,-69.9282,36.2367,-17.7647,-11.1421,16.3766,7.12502,14.8836,-13.0688,8.36744e-14,-3.37934e-14,-33.6312,22.6406,75.66,25.4315,-10.966,-0.879134,31.9583,7.12502,24.7481,60.3774,-14.4639,4.73548,23.4333,37.6767,-20.1538,-9.99506,11.4781,-11.9849,1.1483,-16.2085,37.5809,-24.7098,9.67884,5.35999
10.4051,17.7585,-18.1337,7.54587,-37.7342,-8.33517,3.75902,-0.375245,-1.52695,-1.85716,-0.443785,4.45939,-3.98903,-0.128101,5.53461,-10.8458,-8.87739,-17.5859,16.3127,-11.7371,13.8425,8.75884,-5.54688,6.19578,1.59199e-14,-3.45885e-14,-37.8032,-18.6254,-69.9201,36.0654,-17.367,-10.8855,16.5134,7.12502,15.1308,-12.9135,1.59199e-14,-3.45885e-14,-33.682,22.8647,75.5491,25.5453,-11.2388,-0.194883,32.5403,7.12502,25.4037,60.8677,-14.4426,4.78836,23.453,37.6624,-20.1677,-10.1423,11.1858,-12.0093,1.09269,-16.1902,37.5863,-24.7378,9.57898,5.86749
10.4011,17.7581,-18.1296,7.56183,-37.7055,-8.31717,3.70015,-0.400373,-1.53077,-1.86069,-0.478238,4.453,-3.95561,-0.145922,5.53137,-11.0474,-8.88941,-17.4104,16.4275,-11.7404,13.725,8.81556,-5.53914,6.12007,1.01919e-13,-1.11319e-14,-37.7451,-18.8751,-69.92,35.9363,-17.0642,-10.6837,16.5299,7.12502,15.3252,-12.8822,1.01919e-13,-1.11319e-14,-33.7648,23.116,75.4541,25.6431,-11.49,-0.530257,32.058,7.12502,25.0824,60.4307,-14.4335,4.78911,23.449,37.6143,-20.0788,-10.2351,10.5774,-12.047,1.05504,-16.2021,37.6314,-24.8026,9.556,5.89907
10.3978,17.7587,-18.1269,7.54907,-37.7612,-8.27763,3.77186,-0.416367,-1.63587,-1.96218,-0.500895,4.49907,-4.09892,-0.149321,5.64552,-10.99,-8.84429,-17.4993,16.5092,-11.6852,13.7489,8.83035,-5.52008,6.15506,-1.25906e-14,1.19271e-15,-37.8967,-18.6202,-69.8933,35.9268,-16.9992,-10.5116,16.5874,7.12502,15.4909,-12.812,-1.25906e-14,1.19271e-15,-34.0285,23.2352,75.4341,25.6915,-11.5052,-1.24483,31.3469,7.12502,24.3975,59.8136,-14.4377,4.77342,23.4052,37.5916,-20.0313,-10.2163,10.3095,-12.0399,1.01609,-16.2528,37.6481,-24.8556,9.59422,5.92754
10.3945,17.7587,-18.1256,7.52996,-37.8278,-8.28117,3.85721,-0.404846,-1.69831,-2.05099,-0.484968,4.53692,-4.24143,-0.134703,5.72397,-10.832,-8.82325,-17.6244,16.4863,-11.6736,13.8224,8.80467,-5.5234,6.20833,3.48479e-14,-1.19271e-14,-38.0627,-18.5248,-69.7881,35.8355,-16.9196,-10.4484,16.6969,7.12502,15.5518,-12.6978,3.48479e-14,-1.19271e-14,-34.1268,22.9544,75.5864,25.5974,-11.1971,-1.61835,31.0382,7.12502,24.0394,59.5527,-14.3916,4.86822,23.4029,37.5779,-20.133,-10.175,10.8859,-11.9992,1.07489,-16.2493,37.6559,-24.8304,9.5778,6.09425
10.3915,17.7585,-18.1229,7.61905,-37.8587,-8.41285,3.80178,-0.391998,-1.53372,-2.06876,-0.459095,4.52445,-4.23218,-0.126786,5.61373,-10.7703,-8.80419,-17.625,16.4073,-11.6742,13.9391,8.7745,-5.51687,6.25105,1.08089e-15,1.07344e-14,-38.0708,-18.7354,-69.7521,35.6477,-16.8946,-10.4149,16.7047,7.12502,15.584,-12.6875,1.08089e-15,1.07344e-14,-34.0257,22.625,75.7091,25.4435,-10.9238,-1.81855,30.7398,7.12502,23.8474,59.2795,-14.374,4.87063,23.5098,37.5683,-20.1999,-10.1088,11.1541,-11.9958,1.31578,-16.119,37.6679,-24.7567,9.54903,5.45723
10.3895,17.7586,-18.1225,7.57838,-37.8487,-8.33345,3.79281,-0.407106,-1.55534,-2.09547,-0.480864,4.48933,-4.25257,-0.136579,5.5908,-10.8048,-8.76098,-17.638,16.481,-11.6262,13.9972,8.80173,-5.48981,6.28201,-6.45522e-14,2.8625e-14,-38.1076,-18.77,-69.7526,35.55,-16.9495,-10.574,16.5399,7.12502,15.4309,-12.8641,-6.45522e-14,2.8625e-14,-34.0934,22.64,75.6935,25.4912,-10.9352,-1.82925,30.6108,7.12502,23.8372,59.1518,-14.371,4.75553,23.4344,37.555,-20.2157,-10.0369,11.2148,-12.0043,1.37421,-16.1898,37.6912,-24.7386,9.62822,4.93796
10.3871,17.7584,-18.129,7.49895,-37.7753,-8.22793,3.90287,-0.38323,-1.64141,-2.16813,-0.451267,4.47259,-4.39392,-0.115221,5.62392,-10.8831,-8.78818,-17.6797,16.6884,-11.6625,13.9736,8.8937,-5.50943,6.2763,3.45357e-14,-2.18663e-14,-38.282,-18.924,-69.5827,35.4163,-16.7593,-10.8332,16.4085,7.12502,15.1812,-13.0146,3.45357e-14,-2.18663e-14,-34.2297,22.6323,75.7484,25.62,-10.9156,-1.81118,30.8121,7.12502,23.8545,59.3508,-14.3511,4.76618,23.3802,37.5298,-20.2427,-10.081,11.7472,-12.0352,1.35158,-16.2438,37.7309,-24.7457,9.52785,4.99857
10.3842,17.7589,-18.1363,7.60271,-37.7472,-8.37237,3.92632,-0.293112,-1.47925,-2.22393,-0.319816,4.46311,-4.4804,-0.0521292,5.51266,-10.7637,-8.85953,-17.7236,16.6796,-11.778,13.9843,8.89287,-5.57057,6.27284,6.09446e-14,4.57205e-14,-38.4721,-19.2881,-69.3326,35.2234,-16.5609,-10.6567,16.5759,7.12502,15.3512,-12.8342,6.09446e-14,4.57205e-14,-34.1805,22.357,75.9007,25.5904,-10.833,-1.6163,31.1635,7.12502,24.0414,59.6776,-14.3744,4.93737,23.5499,37.5067,-20.2443,-10.189,12.0683,-12.1134,1.396,-16.0679,37.7766,-24.7442,9.35471,5.17753
10.381,17.7586,-18.1372,7.75288,-37.8134,-8.58586,3.84012,-0.1922,-1.22977,-2.24773,-0.170211,4.48032,-4.47224,0.0149889,5.37581,-10.4823,-8.89677,-17.9122,16.5753,-11.847,14.0476,8.8351,-5.62101,6.32262,-1.10304e-13,4.29375e-14,-38.6687,-19.5368,-69.0555,35.0803,-16.3913,-10.286,16.8811,7.12502,15.7082,-12.5014,-1.10304e-13,4.29375e-14,-34.181,22.125,76.0448,25.649,-10.8107,-1.23864,31.4691,7.12502,24.4035,59.9351,-14.3873,5.07312,23.7392,37.4969,-20.1853,-10.2422,11.6873,-12.141,1.37001,-15.8886,37.8092,-24.7478,9.46091,5.23245
10.3773,17.7573,-18.1368,7.82678,-37.9087,-8.64011,3.68127,-0.111864,-1.12024,-2.19778,-0.0606804,4.45343,-4.34065,0.0627898,5.27331,-10.4284,-8.92836,-18.021,16.5192,-11.8959,14.1489,8.82926,-5.6445,6.37009,-4.86401e-14,1.72943e-14,-38.7037,-19.7281,-68.9618,34.9558,-16.3091,-10.1429,17.0437,7.12502,15.8461,-12.3278,-4.86401e-14,1.72943e-14,-34.1042,22.0321,76.1426,25.8524,-10.763,-0.80735,31.8483,7.12502,24.8169,60.2579,-14.4247,5.15779,23.782,37.5024,-20.1262,-10.2914,11.3688,-12.1543,1.40375,-15.8596,37.8103,-24.7503,9.6185,4.96996
10.3748,17.7564,-18.1345,7.67953,-37.9367,-8.41541,3.571,-0.0774032,-1.23455,-2.09164,-0.0276203,4.34761,-4.17025,0.0770915,5.22108,-10.5503,-8.97983,-17.7666,16.3769,-11.9407,13.9854,8.78366,-5.65593,6.25574,-7.8068e-14,2.22639e-14,-38.5877,-19.7737,-69.0899,34.849,-16.6194,-10.0958,17.0631,7.12502,15.8914,-12.3049,-7.8068e-14,2.22639e-14,-33.8539,21.8915,76.2542,25.9368,-10.5944,-0.529597,32.135,7.12502,25.083,60.5077,-14.4206,5.15245,23.587,37.5247,-20.1502,-10.319,11.2942,-12.0952,1.38356,-16.0739,37.7649,-24.7528,9.69882,5.13789
10.3733,17.7564,-18.1292,7.44389,-37.8355,-8.15538,3.50194,-0.12175,-1.34146,-1.95892,-0.0995608,4.23662,-3.98522,0.0379173,5.16684,-10.8123,-9.00154,-17.4452,16.3677,-11.9378,13.7745,8.79223,-5.63985,6.11925,-4.85702e-16,3.81667e-14,-38.377,-20.029,-69.1756,34.6052,-16.5798,-9.96364,17.1103,7.12502,16.0187,-12.2475,-4.85702e-16,3.81667e-14,-33.5872,21.7423,76.3609,25.9131,-10.3589,-0.575043,32.2334,7.12502,25.0395,60.6121,-14.3264,5.03013,23.3677,37.56,-20.2062,-10.3019,11.1938,-11.9579,1.17401,-16.3138,37.6866,-24.7804,9.75095,5.38842
10.3686,17.7568,-18.1241,7.38861,-37.7679,-8.11273,3.29385,-0.173121,-1.28514,-1.7655,-0.174626,4.15274,-3.65841,-0.0104483,5.04546,-11.3976,-9.0049,-17.1578,16.6621,-11.9142,13.7006,8.97064,-5.59328,6.03603,-2.67016e-14,1.66979e-14,-38.0488,-20.4855,-69.2835,34.2912,-16.1556,-9.75589,17.1679,7.12502,16.2187,-12.1736,-2.67016e-14,1.66979e-14,-33.2471,21.6543,76.4193,25.9397,-10.2095,-0.580607,32.5092,7.12502,25.0341,60.8887,-14.2631,5.01538,23.3436,37.5893,-20.2371,-10.3309,10.8577,-11.8626,1.01481,-16.3547,37.6088,-24.8116,9.81095,4.85063
10.3636,17.7561,-18.1186,7.34767,-37.8266,-8.04405,3.17914,-0.153965,-1.33952,-1.7048,-0.154358,4.13875,-3.53237,-0.00212266,5.05821,-11.753,-9.0201,-17.075,16.9168,-11.9016,13.6152,9.10908,-5.57499,5.987,-4.40122e-14,1.8487e-14,-37.9906,-20.7157,-69.1715,34.042,-15.8147,-9.71323,17.1282,7.12502,16.2598,-12.2101,-4.40122e-14,1.8487e-14,-33.2274,21.6042,76.5127,26.1048,-10.1924,-0.636513,32.8338,7.12502,24.9806,61.2208,-14.2389,5.10569,23.2787,37.603,-20.2557,-10.364,10.5689,-11.7892,0.96303,-16.4417,37.5583,-24.8065,9.96084,4.41506
10.3617,17.7539,-18.1152,7.31857,-37.8747,-7.99733,3.21345,-0.110236,-1.3972,-1.77256,-0.0953694,4.18349,-3.62816,0.0318995,5.13608,-11.7036,-9.01125,-17.1878,16.9841,-11.8825,13.6141,9.12713,-5.5757,6.01076,-4.37885e-14,6.16232e-15,-38.1692,-20.6229,-68.9397,33.8972,-15.8247,-9.88414,17.0781,7.12502,16.0952,-12.2735,-4.37885e-14,6.16232e-15,-33.4055,21.4625,76.6856,26.1431,-10.1974,-0.940936,32.7206,7.12502,24.6888,61.1478,-14.2304,5.15051,23.2265,37.6085,-20.2914,-10.3456,10.9307,-11.7468,0.868992,-16.5174,37.536,-24.7411,10.2061,4.19026
10.3594,17.7526,-18.1146,7.37249,-37.8958,-8.0921,3.13438,-0.0621833,-1.28182,-1.73781,-0.0271291,4.19476,-3.55393,0.0613857,5.07651,-11.7148,-9.01082,-17.1982,16.989,-11.8834,13.638,9.13338,-5.57426,6.02074,-1.51232e-14,4.77083e-15,-38.1942,-20.4803,-68.9343,33.8006,-16.066,-9.99209,17.0853,7.12502,15.9913,-12.2747,-1.51232e-14,4.77083e-15,-33.3208,21.2717,76.848,26.0054,-10.2816,-1.03061,32.3165,7.12502,24.6029,60.7554,-14.2186,5.18171,23.3146,37.6074,-20.3289,-10.3453,11.2581,-11.743,0.968798,-16.4199,37.538,-24.6798,10.1907,4.0794
10.3561,17.7533,-18.1143,7.38278,-37.9337,-8.12653,3.04731,-0.0423138,-1.2316,-1.68367,-0.000655686,4.19311,-3.45093,0.0708391,5.04294,-11.751,-9.00502,-17.2416,16.9987,-11.8627,13.6473,9.14337,-5.56484,6.03352,5.79092e-14,1.68967e-14,-38.1513,-20.6483,-68.8641,33.5647,-15.82,-9.96946,17.1165,7.12502,16.0131,-12.2418,5.79092e-14,1.68967e-14,-33.3511,21.3911,76.8425,26.0516,-10.6127,-0.87059,32.0419,7.12502,24.7562,60.4598,-14.2019,5.19173,23.3518,37.5995,-20.3672,-10.2927,11.4739,-11.7319,0.981258,-16.3842,37.5573,-24.7341,10.1293,4.31085
10.3546,17.7555,-18.1197,7.49904,-37.8652,-8.24285,3.03526,-0.0901871,-1.14933,-1.7087,-0.0598236,4.23617,-3.46437,0.0401187,5.04505,-11.6533,-8.94953,-17.3984,16.942,-11.8023,13.8237,9.11798,-5.53604,6.13484,-1.06134e-13,3.39922e-14,-38.1378,-20.9012,-68.7464,33.2694,-15.3504,-10.073,17.1355,7.12502,15.9134,-12.2307,-1.06134e-13,3.39922e-14,-33.3834,21.4754,76.7973,26.0302,-10.6878,-0.831269,31.8887,7.12502,24.7939,60.3015,-14.2598,5.17792,23.491,37.5813,-20.3505,-10.3325,11.5594,-11.816,0.759491,-16.2717,37.5925,-24.7888,10.2177,4.37616
10.3531,17.7572,-18.1289,7.61093,-37.7433,-8.31451,3.04225,-0.150957,-1.1074,-1.74148,-0.137983,4.25791,-3.49485,0.00110185,5.04917,-11.617,-8.91063,-17.4127,16.8881,-11.76,13.8934,9.09112,-5.51285,6.16941,3.37864e-14,-6.95746e-15,-38.1138,-21.0131,-68.7405,33.0486,-15.135,-10.1212,17.0437,7.12502,15.867,-12.3262,3.37864e-14,-6.95746e-15,-33.296,21.488,76.7675,25.932,-10.5096,-0.728498,31.985,7.12502,24.8924,60.3841,-14.3416,5.24906,23.6175,37.5617,-20.2778,-10.5744,11.1172,-11.9521,0.714212,-16.1546,37.6267,-24.7727,10.2014,4.38671
10.3505,17.7583,-18.1324,7.64799,-37.6937,-8.29584,3.02287,-0.194785,-1.14415,-1.75941,-0.197648,4.27705,-3.49674,-0.0274108,5.0939,-11.7737,-8.89853,-17.2722,17.0364,-11.7057,13.6466,9.13515,-5.49291,6.06348,-6.83874e-14,-3.77691e-15,-38.1229,-20.8006,-68.7837,32.9334,-15.1592,-9.98368,16.9335,7.12502,15.9994,-12.4258,-6.83874e-14,-3.77691e-15,-33.3651,21.7199,76.7012,26.0257,-10.4257,-0.600575,32.3186,7.12502,25.015,60.7008,-14.3893,5.34011,23.6297,37.5496,-20.2646,-10.7247,10.9548,-12.0208,0.771766,-16.1461,37.638,-24.7166,10.1948,4.27798
10.3474,17.7584,-18.1302,7.65941,-37.7464,-8.33332,2.98822,-0.190653,-1.13689,-1.74355,-0.191956,4.3124,-3.46128,-0.0252902,5.12602,-11.8991,-8.87926,-17.1813,17.2105,-11.6427,13.4151,9.18541,-5.47265,5.97406,4.01561e-14,-2.82274e-14,-38.1609,-20.6273,-68.7422,32.8058,-15.1295,-9.80792,16.9657,7.12502,16.1686,-12.38,4.01561e-14,-2.82274e-14,-33.3242,21.6358,76.7912,25.9176,-10.2289,-0.774855,32.3797,7.12502,24.848,60.785,-14.3631,5.41409,23.6535,37.5542,-20.3213,-10.681,11.3726,-11.9677,0.790142,-16.1313,37.6186,-24.6656,10.2972,4.03086
10.3441,17.7587,-18.1261,7.54682,-37.8247,-8.21271,3.03208,-0.183249,-1.28847,-1.76509,-0.187478,4.31407,-3.50878,-0.0181263,5.21503,-11.8702,-8.85104,-17.0723,17.2622,-11.5895,13.2077,9.16768,-5.45984,5.8914,1.81702e-16,-6.63941e-14,-38.2867,-20.5862,-68.6479,32.6838,-15.0839,-9.83689,16.986,7.12502,16.1407,-12.3619,1.81702e-16,-6.63941e-14,-33.3653,21.4725,76.8596,25.7743,-10.1501,-0.677479,32.4622,7.12502,24.9413,60.8546,-14.3025,5.42768,23.5287,37.5715,-20.3377,-10.5966,11.3521,-11.8468,0.626915,-16.2799,37.5572,-24.7039,10.4902,4.12194
10.3421,17.7598,-18.1242,7.43821,-37.7679,-8.00145,3.17731,-0.244725,-1.52721,-1.91535,-0.275056,4.32716,-3.73793,-0.0491739,5.37512,-11.7221,-8.80883,-17.0896,17.2901,-11.534,13.1095,9.13514,-5.45,5.87252,-2.29486e-14,1.70955e-14,-38.5262,-20.1674,-68.6664,32.6741,-15.4823,-10.3084,16.8119,7.12502,15.6867,-12.5722,-2.29486e-14,1.70955e-14,-33.8365,21.8344,76.6582,25.924,-10.5216,-0.364402,32.5634,7.12502,25.2413,60.9138,-14.3164,5.29053,23.344,37.5888,-20.3143,-10.6176,10.6521,-11.8177,0.501396,-16.4688,37.4789,-24.711,10.5735,3.77062
10.3397,17.7598,-18.1215,7.34946,-37.7231,-7.88597,2.91959,-0.213949,-1.49443,-1.70892,-0.241385,4.2359,-3.38104,-0.0437867,5.25114,-11.7666,-8.91107,-17.2813,17.0421,-11.6798,13.4563,9.11936,-5.49717,6.00017,2.65284e-14,-7.55382e-15,-38.3127,-20.376,-68.7723,32.5936,-15.8456,-10.5923,16.5994,7.12502,15.4132,-12.806,2.65284e-14,-7.55382e-15,-33.4959,22.0631,76.6666,25.843,-10.9672,-0.177402,32.569,7.12502,25.4204,60.894,-14.2843,5.17595,23.2453,37.6003,-20.3393,-10.6159,10.3398,-11.7397,0.329715,-16.5967,37.4099,-24.6894,10.7651,3.45878
10.3362,17.76,-18.1192,7.31194,-37.7892,-7.8399,2.84926,-0.180175,-1.53934,-1.67796,-0.199321,4.23351,-3.31343,-0.0234045,5.27062,-11.6628,-8.93753,-17.442,16.9225,-11.7137,13.5683,9.08356,-5.51724,6.06243,1.0375e-13,-5.96354e-16,-38.3944,-20.5248,-68.6155,32.4879,-15.924,-10.3037,16.6569,7.12502,15.6912,-12.7269,1.0375e-13,-5.96354e-16,-33.4424,22.1515,76.6712,25.7496,-11.176,0.0916253,32.8519,7.12502,25.6781,61.1401,-14.2595,5.16071,23.1903,37.599,-20.3641,-10.4746,10.6388,-11.6612,0.170614,-16.6835,37.3603,-24.6716,10.9099,4.16767
10.3341,17.7605,-18.121,7.35934,-37.7721,-7.84287,3.00496,-0.228157,-1.6588,-1.84482,-0.261952,4.31351,-3.56814,-0.0436947,5.43162,-11.5623,-8.89475,-17.5137,17.0294,-11.6475,13.4689,9.08809,-5.50437,6.05366,-5.04158e-14,-6.20208e-14,-38.6702,-20.3939,-68.4246,32.3736,-15.8032,-10.0487,16.8717,7.12502,15.9368,-12.4926,-5.04158e-14,-6.20208e-14,-33.8301,22.3846,76.5274,25.8126,-11.3748,0.202478,32.9712,7.12502,25.7843,61.2439,-14.3101,5.0843,23.1935,37.5882,-20.3586,-10.3815,10.9061,-11.7017,0.250063,-16.653,37.3319,-24.6226,10.7611,4.56735
10.3329,17.7609,-18.1233,7.38625,-37.6792,-7.87967,3.26448,-0.312196,-1.73,-2.04342,-0.369429,4.4059,-3.91002,-0.0846154,5.58421,-11.3645,-8.79348,-17.7023,17.1677,-11.5303,13.5189,9.09388,-5.46764,6.12993,-2.31274e-14,4.21423e-14,-38.9575,-20.4524,-68.1313,32.145,-15.1675,-10.1522,16.9561,7.12502,15.8371,-12.4162,-2.31274e-14,4.21423e-14,-34.3039,22.5299,76.3555,25.8628,-11.4795,0.317947,32.8937,7.12502,25.8949,61.1504,-14.3198,4.99492,23.2429,37.5798,-20.3584,-10.3813,10.8316,-11.7221,0.0776453,-16.6022,37.3137,-24.6917,10.7699,4.64676
10.3317,17.7622,-18.1271,7.40975,-37.6151,-7.89145,2.95458,-0.299806,-1.54791,-1.7865,-0.355437,4.28914,-3.46941,-0.0963136,5.34614,-11.5798,-8.84766,-17.7412,17.0858,-11.602,13.7554,9.13656,-5.47379,6.20287,-7.05018e-14,-3.598e-14,-38.6403,-21.269,-68.1068,31.813,-14.4321,-10.2915,17.0406,7.12502,15.703,-12.3423,-7.05018e-14,-3.598e-14,-33.7841,22.409,76.4258,25.7799,-11.49,0.378123,32.8329,7.12502,25.9525,61.0812,-14.3459,5.00454,23.279,37.5715,-20.3432,-10.4312,10.7943,-11.7703,-0.139637,-16.5833,37.3154,-24.7798,10.807,4.78364
10.3302,17.763,-18.1327,7.4217,-37.6408,-7.83228,2.79529,-0.305364,-1.54678,-1.69345,-0.367429,4.23041,-3.28158,-0.107822,5.28034,-11.6773,-8.82766,-17.7364,17.044,-11.5722,13.848,9.14086,-5.44729,6.23693,5.16359e-14,-2.36554e-14,-38.5123,-21.3875,-68.1872,31.6342,-14.4502,-10.4054,17.039,7.12502,15.5933,-12.3525,5.16359e-14,-2.36554e-14,-33.615,22.4616,76.3863,25.6994,-11.5306,0.130155,32.6039,7.12502,25.715,60.8866,-14.4002,5.06794,23.2399,37.5658,-20.3226,-10.4816,11.0901,-11.8441,-0.0895918,-16.6155,37.3266,-24.8054,10.7172,4.85242
10.3284,17.7627,-18.1374,7.48671,-37.6993,-7.89455,2.82972,-0.284353,-1.54185,-1.75511,-0.336269,4.28563,-3.3682,-0.0893533,5.33556,-11.4693,-8.81151,-17.7782,16.9088,-11.5452,13.7702,9.04929,-5.45145,6.22304,-4.17525e-14,-4.96962e-15,-38.6484,-21.2613,-68.0596,31.5507,-14.6167,-10.7017,16.7608,7.12502,15.3078,-12.6527,-4.17525e-14,-4.96962e-15,-33.7577,22.6332,76.3333,25.6061,-11.7255,-0.0757564,32.3644,7.12502,25.5178,60.6756,-14.4289,5.12206,23.2997,37.5608,-20.2681,-10.564,10.8123,-11.8854,0.019762,-16.5433,37.3424,-24.8125,10.6803,4.91413
10.3266,17.7624,-18.1396,7.56806,-37.7151,-7.97216,2.87394,-0.303741,-1.55719,-1.81644,-0.359154,4.38125,-3.45431,-0.0970862,5.44828,-11.4539,-8.79387,-17.8039,16.9838,-11.4808,13.5666,9.04912,-5.44069,6.16515,1.76398e-14,5.96354e-15,-38.7169,-20.9,-68.0085,31.5144,-14.8555,-10.9444,16.5029,7.12502,15.074,-12.9283,1.76398e-14,5.96354e-15,-33.8754,22.9012,76.2861,25.4746,-11.7959,-0.0995518,32.475,7.12502,25.495,60.7895,-14.4709,5.13541,23.3767,37.5467,-20.2034,-10.6406,10.1586,-11.9425,0.0817741,-16.4599,37.3634,-24.7905,10.7257,4.59568
10.3252,17.7608,-18.1377,7.49418,-37.7604,-7.86613,2.99264,-0.370419,-1.7152,-1.90655,-0.451586,4.41772,-3.60446,-0.134616,5.58618,-11.5319,-8.69386,-17.7795,17.2378,-11.3197,13.3891,9.10871,-5.37786,6.12469,1.06177e-13,-3.18055e-14,-38.8119,-21.4469,-67.5695,31.0495,-13.9592,-10.7292,16.8147,7.12502,15.2813,-12.6008,1.06177e-13,-3.18055e-14,-34.068,23.0787,76.1509,25.3208,-11.6501,0.0535558,32.9625,7.12502,25.6417,61.2559,-14.4465,5.14672,23.2748,37.527,-20.2332,-10.5746,10.3149,-11.9231,0.0660926,-16.572,37.3818,-24.8295,10.8113,4.24431
10.3246,17.7602,-18.136,7.38971,-37.8075,-7.83011,3.36822,-0.421232,-1.84365,-2.16404,-0.515557,4.50229,-4.07761,-0.147984,5.76543,-11.2598,-8.51528,-17.8116,17.4511,-11.0957,13.2084,9.08253,-5.30471,6.11155,-3.73715e-14,9.93923e-15,-39.2709,-21.0744,-67.2923,30.9414,-13.7649,-10.597,16.8855,7.12502,15.4087,-12.5203,-3.73715e-14,9.93923e-15,-34.6214,23.0769,75.9972,25.2399,-11.4977,0.286861,33.4024,7.12502,25.8651,61.6634,-14.3345,5.14571,23.2328,37.5098,-20.3229,-10.4507,11.1115,-11.8143,0.0365679,-16.6253,37.4026,-24.8465,10.8598,4.43552
10.3243,17.7609,-18.1365,7.41168,-37.8196,-7.92871,3.2597,-0.299515,-1.62376,-2.08953,-0.344804,4.468,-3.95833,-0.0730203,5.58836,-11.1044,-8.56808,-17.9715,17.3633,-11.1915,13.3634,9.0606,-5.35225,6.18206,3.79896e-14,-1.51076e-14,-39.4526,-21.5594,-66.9496,30.8698,-13.5548,-10.4183,16.9229,7.12502,15.5808,-12.4695,3.79896e-14,-1.51076e-14,-34.3214,22.7116,76.2274,25.0564,-11.4832,0.391447,33.5756,7.12502,25.9653,61.822,-14.2857,5.12266,23.3166,37.4966,-20.3025,-10.4028,11.3442,-11.7888,0.21721,-16.514,37.4286,-24.7783,10.7261,4.67773
10.3243,17.7608,-18.1384,7.51038,-37.7718,-8.00397,3.49468,-0.321041,-1.66372,-2.35151,-0.363615,4.60809,-4.36308,-0.0670957,5.77064,-10.7466,-8.48628,-18.2782,17.4474,-11.0962,13.3769,9.02674,-5.34276,6.26407,2.42145e-14,1.98785e-15,-39.8865,-21.507,-66.4749,30.7683,-13.4595,-10.3368,17.0713,7.12502,15.6593,-12.315,2.42145e-14,1.98785e-15,-34.8145,22.8098,76.1515,25.0648,-11.6628,0.592271,33.8266,7.12502,26.1575,62.0446,-14.3463,5.09986,23.3926,37.4821,-20.2062,-10.4595,11.0022,-11.8911,0.3992,-16.4088,37.4645,-24.7801,10.528,4.50515
10.324,17.7614,-18.1452,7.60456,-37.7156,-8.02213,2.85225,-0.269612,-1.42743,-1.83104,-0.307032,4.4177,-3.46306,-0.0735575,5.40949,-11.2305,-8.7087,-18.1607,17.0579,-11.3674,13.6994,9.04495,-5.40954,6.29788,9.33923e-14,3.61788e-14,-39.1144,-22.6051,-66.7799,30.4969,-13.2171,-10.3497,17.0703,7.12502,15.6469,-12.317,9.33923e-14,3.61788e-14,-33.6514,22.8481,76.3099,24.8436,-11.9902,0.761719,33.9971,7.12502,26.3198,62.1909,-14.4577,5.14018,23.433,37.4736,-20.2417,-10.5327,11.2935,-12.0249,0.273517,-16.3808,37.4968,-24.8163,10.5422,4.6284
10.3236,17.7631,-18.1533,7.6782,-37.7996,-8.06319,3.46689,-0.406783,-1.73581,-2.30367,-0.483614,4.62063,-4.28335,-0.127208,5.83213,-10.8646,-8.46233,-18.1795,17.3234,-11.0527,13.4115,8.99444,-5.30669,6.26127,-7.85821e-16,-1.31198e-14,-39.6083,-21.6899,-66.6948,30.4823,-13.4953,-10.3064,16.8306,7.12502,15.6886,-12.5534,-7.85821e-16,-1.31198e-14,-34.7465,23.1518,75.9168,24.7313,-12.3778,0.0161534,33.1017,7.12502,25.6058,61.4003,-14.5515,5.24897,23.4798,37.4589,-20.229,-10.5555,11.2832,-12.1047,0.212788,-16.3456,37.5265,-24.7746,10.6678,5.04493
10.3229,17.7651,-18.1582,7.71701,-37.9021,-8.10129,3.25007,-0.357677,-1.62382,-2.10475,-0.421484,4.51557,-3.96024,-0.110687,5.6439,-10.8648,-8.53122,-17.9665,17.086,-11.1639,13.4102,8.91991,-5.34221,6.20407,-7.47632e-14,2.38542e-15,-39.4106,-22.0998,-66.824,30.3871,-13.3897,-10.2333,16.859,7.12502,15.759,-12.5195,-7.47632e-14,2.38542e-15,-34.3734,23.1167,75.8696,24.1904,-13.3894,-1.22723,31.4597,7.12502,24.4144,59.9241,-14.5958,5.30792,23.5167,37.4352,-20.0993,-10.5464,10.5398,-12.1447,0.311385,-16.3039,37.5546,-24.7271,10.7313,4.80037
10.3224,17.7653,-18.1613,7.77176,-37.8923,-8.2147,3.26712,-0.36792,-1.4826,-2.08619,-0.429031,4.50547,-3.95034,-0.119091,5.55265,-10.9384,-8.51358,-17.8571,17.2127,-11.1423,13.3256,8.96033,-5.33048,6.15917,-5.17407e-14,3.97569e-16,-39.4821,-22.3826,-66.6859,30.2765,-13.1532,-10.1069,16.9711,7.12502,15.8807,-12.3977,-5.17407e-14,3.97569e-16,-34.4339,23.365,75.6377,23.922,-14.313,-1.49992,30.6495,7.12502,24.153,59.149,-14.5762,5.31167,23.6318,37.4193,-20.1112,-10.5366,10.6934,-12.1533,0.319221,-16.1876,37.574,-24.7441,10.7038,4.4762
10.3224,17.7647,-18.1637,7.81862,-37.8886,-8.3236,3.31594,-0.36563,-1.37453,-2.10272,-0.419134,4.53337,-3.99673,-0.115793,5.52087,-11.0147,-8.48469,-17.8539,17.4152,-11.1079,13.3116,9.03602,-5.3146,6.16077,-2.7336e-14,-1.86858e-14,-39.6184,-22.4454,-66.5392,30.2633,-13.1612,-10.0065,16.8449,7.12502,15.9774,-12.5162,-2.7336e-14,-1.86858e-14,-34.536,23.4906,75.5393,23.8436,-14.5708,-1.27054,30.6456,7.12502,24.3729,59.1156,-14.5463,5.35304,23.7391,37.4191,-20.1771,-10.5634,11.199,-12.1387,0.325805,-16.082,37.5835,-24.8074,10.6581,4.63664
10.3224,17.7644,-18.1651,7.767,-37.9551,-8.23472,3.32756,-0.382627,-1.46277,-2.09979,-0.446795,4.51091,-3.99697,-0.127364,5.54957,-11.0549,-8.4521,-17.745,17.5008,-11.0741,13.2583,9.05634,-5.29565,6.12945,-5.08951e-14,-1.35174e-14,-39.6823,-22.2722,-66.5961,30.2723,-13.1531,-9.98913,16.8178,7.12502,15.9941,-12.5419,-5.08951e-14,-1.35174e-14,-34.5205,23.4581,75.4975,23.6961,-14.4331,-1.61906,30.5669,7.12502,24.0387,59.0814,-14.5462,5.40498,23.6472,37.4194,-20.1578,-10.5151,11.2497,-12.1439,0.382275,-16.167,37.6042,-24.864,10.6735,4.67209
10.3231,17.7641,-18.1682,7.72068,-38.0201,-8.14694,3.38538,-0.401693,-1.55238,-2.11783,-0.476234,4.49526,-4.04503,-0.138413,5.5877,-11.1304,-8.42402,-17.7005,17.6155,-11.0391,13.2419,9.09935,-5.27606,6.12183,6.33937e-15,1.11319e-14,-39.76,-21.9893,-66.6952,30.3154,-13.252,-10.1143,16.9428,7.12502,15.8735,-12.4266,6.33937e-15,1.11319e-14,-34.6073,23.5134,75.4201,23.6471,-14.3654,-2.15132,30.3693,7.12502,23.5283,58.9503,-14.5758,5.40213,23.5592,37.4371,-20.1231,-10.427,11.11,-12.1486,0.471886,-16.2416,37.59,-24.8071,10.6433,4.59069
10.3247,17.7651,-18.1793,7.88635,-37.9262,-8.38055,3.44727,-0.386423,-1.33894,-2.11025,-0.443982,4.52097,-4.07666,-0.127694,5.49153,-11.2388,-8.4425,-17.7364,17.6841,-11.0869,13.4223,9.16453,-5.28206,6.18461,-1.19131e-14,-1.59028e-15,-39.8432,-21.8032,-66.7965,30.4245,-13.4751,-10.5058,16.9164,7.12502,15.4965,-12.4826,-1.19131e-14,-1.59028e-15,-34.5557,23.428,75.4456,23.6354,-14.44,-2.00905,30.6661,7.12502,23.6647,59.2295,-14.6389,5.44099,23.813,37.4356,-20.1723,-10.5113,11.636,-12.2478,0.544065,-15.9765,37.6115,-24.6679,10.5308,4.36697
10.3243,17.7642,-18.1716,7.66124,-37.9833,-8.17873,3.40683,-0.385632,-1.35415,-2.02176,-0.448931,4.42255,-3.96112,-0.134224,5.39378,-11.2376,-8.40941,-17.7134,17.6546,-11.0558,13.4858,9.15108,-5.26056,6.20841,-4.53815e-14,9.14409e-15,-39.882,-21.5599,-66.9498,30.5152,-13.5854,-10.7139,16.8785,7.12502,15.2961,-12.5358,-4.53815e-14,9.14409e-15,-34.5533,23.4755,75.3548,23.6644,-14.6685,-1.44578,31.3177,7.12502,24.2049,59.8102,-14.4992,5.32924,23.6025,37.4442,-20.3565,-10.2932,12.7191,-12.0699,0.429748,-16.2093,37.5973,-24.7455,10.7213,4.17282
10.3258,17.7647,-18.1773,7.82618,-38.0062,-8.41232,3.46046,-0.464035,-1.19477,-2.03252,-0.543884,4.48279,-3.99366,-0.184906,5.37385,-11.1291,-8.32806,-17.5744,17.5471,-10.9281,13.2749,9.0503,-5.21273,6.12904,-1.22396e-14,1.63003e-14,-39.8332,-21.2839,-67.1159,30.515,-13.7358,-10.4581,16.9309,7.12502,15.5424,-12.4645,-1.22396e-14,1.63003e-14,-34.7285,23.739,75.1401,23.7442,-14.76,-1.24867,31.5653,7.12502,24.3938,60.0325,-14.5459,5.50206,23.827,37.4308,-20.3108,-10.4595,12.5279,-12.1343,0.401993,-15.9912,37.6163,-24.7663,10.7269,4.53
10.3261,17.7631,-18.1777,7.69301,-38.1416,-8.21538,3.43875,-0.48247,-1.39438,-1.97812,-0.581243,4.44538,-3.91961,-0.20053,5.44938,-11.0893,-8.29293,-17.3714,17.4378,-10.8523,13.0023,8.96377,-5.18692,6.00718,-1.97999e-14,-2.98177e-14,-39.7298,-21.1947,-67.1911,30.4793,-13.9405,-10.3167,16.8254,7.12502,15.6786,-12.5593,-1.97999e-14,-2.98177e-14,-34.694,23.8641,75.0619,23.6673,-14.6853,-1.15202,31.6932,7.12502,24.4865,60.1479,-14.5502,5.53601,23.6411,37.4545,-20.2354,-10.4737,11.2771,-12.068,0.441343,-16.1906,37.574,-24.7904,10.7509,4.9587
10.3263,17.7612,-18.1762,7.62614,-38.2492,-8.15259,3.38368,-0.412661,-1.38541,-1.90689,-0.490656,4.40184,-3.82394,-0.15877,5.38982,-11.0246,-8.32915,-17.4305,17.3549,-10.9007,13.0342,8.93767,-5.21231,6.02126,-3.18366e-14,4.77083e-15,-39.7303,-21.36,-67.1064,30.4634,-14.0535,-10.6096,16.5837,7.12502,15.3965,-12.823,-3.18366e-14,4.77083e-15,-34.4654,23.7738,75.1356,23.4579,-14.8011,-0.96032,31.8418,7.12502,24.6702,60.2716,-14.533,5.50186,23.5631,37.475,-20.2078,-10.3386,11.0037,-11.9961,0.435892,-16.2834,37.5597,-24.7874,10.9263,4.83292
10.3274,17.7614,-18.1771,7.50353,-38.2789,-7.98367,3.39996,-0.375298,-1.46341,-1.88206,-0.446168,4.34363,-3.81174,-0.135511,5.36984,-11.087,-8.35918,-17.5326,17.4063,-10.9436,13.1527,8.98754,-5.22711,6.07359,1.14938e-14,-1.74931e-14,-39.7779,-21.5049,-67.0218,30.4539,-14.1039,-10.7787,16.5782,7.12502,15.2337,-12.8409,1.14938e-14,-1.74931e-14,-34.3457,23.6904,75.1769,23.3439,-14.9042,-0.844556,31.947,7.12502,24.7812,60.3615,-14.534,5.45282,23.4027,37.5216,-20.2175,-10.2375,11.5724,-11.9479,0.400902,-16.4497,37.5134,-24.7191,11.1188,4.41664
10.3281,17.7623,-18.185,7.47163,-38.2498,-7.86784,3.48386,-0.421986,-1.64701,-1.94436,-0.514845,4.37554,-3.9158,-0.161498,5.51594,-11.1043,-8.30348,-17.5328,17.4801,-10.8572,13.0951,8.99743,-5.1916,6.06691,1.66735e-14,-5.56597e-15,-39.852,-21.2312,-67.0163,30.5392,-14.3695,-10.6316,16.7086,7.12502,15.3754,-12.6997,1.66735e-14,-5.56597e-15,-34.4495,23.7456,75.1338,23.337,-14.8481,-0.784166,32.177,7.12502,24.8391,60.5835,-14.6092,5.48463,23.3229,37.573,-20.2611,-10.2716,12.1837,-12.0042,0.51994,-16.5091,37.4703,-24.6393,11.0043,4.20011
10.3281,17.7623,-18.1876,7.43958,-38.3063,-7.76177,3.48323,-0.425191,-1.78967,-1.96554,-0.525601,4.38323,-3.93549,-0.162095,5.60695,-11.052,-8.2337,-17.5111,17.5328,-10.7711,13.0631,8.98753,-5.15544,6.06745,-5.03807e-14,1.90833e-14,-39.9206,-20.967,-67.0237,30.6388,-14.5653,-10.5249,16.751,7.12502,15.4782,-12.6494,-5.03807e-14,1.90833e-14,-34.4716,23.7624,75.1275,23.2859,-14.8329,-0.714733,32.1384,7.12502,24.9056,60.5357,-14.6835,5.54912,23.2277,37.6467,-20.325,-10.2638,12.3694,-12.0082,0.588627,-16.5951,37.4057,-24.624,10.8912,4.44531
10.3286,17.7633,-18.1881,7.35909,-38.3325,-7.52046,3.3609,-0.403043,-1.94086,-1.90845,-0.507613,4.27802,-3.80822,-0.153613,5.57757,-11.1656,-8.23388,-17.333,17.5935,-10.7818,13.014,9.01694,-5.14894,6.01693,-6.84704e-14,-4.05521e-14,-39.8683,-21.0009,-67.1278,30.6677,-14.5461,-10.4816,16.7968,7.12502,15.5198,-12.6004,-6.84704e-14,-4.05521e-14,-34.203,23.608,75.1684,23.1455,-14.826,-0.665014,31.7818,7.12502,24.9533,60.1725,-14.7927,5.5007,22.9927,37.7046,-20.3555,-10.2021,12.2978,-12.0603,0.543611,-16.8243,37.362,-24.6073,10.8703,4.68532
10.3301,17.7638,-18.1911,7.20987,-38.2539,-7.17713,3.25773,-0.442245,-2.16532,-1.84048,-0.574945,4.1649,-3.67063,-0.186532,5.58745,-11.2039,-8.24638,-17.19,17.4599,-10.7964,12.972,8.96974,-5.14683,5.97234,1.32502e-14,2.38542e-15,-39.7096,-21.095,-67.2839,30.661,-14.6902,-10.449,16.7921,7.12502,15.5512,-12.6026,1.32502e-14,2.38542e-15,-33.9335,23.475,75.222,23.0099,-14.7002,-0.740173,31.5914,7.12502,24.8812,59.9921,-14.8939,5.27207,22.6681,37.761,-20.3963,-10.0832,12.2643,-12.1229,0.527072,-17.1285,37.3181,-24.5482,10.8619,4.35841
10.3342,17.7621,-18.19,7.34723,-38.4011,-7.44802,3.23967,-0.441343,-1.9157,-1.74608,-0.563306,4.20695,-3.56495,-0.190646,5.48613,-11.2571,-8.18226,-17.0121,17.3606,-10.6938,12.8519,8.9105,-5.09398,5.91191,-7.44883e-14,4.53229e-14,-39.5317,-21.326,-67.2786,30.5659,-14.6356,-10.3445,16.778,7.12502,15.6519,-12.6089,-7.44883e-14,4.53229e-14,-33.8301,23.5627,75.1988,22.9389,-14.732,-0.732532,31.567,7.12502,24.8886,59.9667,-14.8958,5.45724,22.8978,37.7941,-20.4247,-10.1056,12.3593,-12.08,0.572151,-16.9138,37.3149,-24.5735,10.9938,4.21811
10.3373,17.7614,-18.1942,7.34455,-38.5221,-7.45463,3.30641,-0.453001,-1.95208,-1.71023,-0.58153,4.19799,-3.56326,-0.199549,5.49918,-11.53,-8.07116,-16.6912,17.6309,-10.5227,12.5798,8.98873,-5.0078,5.78455,3.15477e-14,1.49089e-14,-39.4688,-21.6559,-67.1662,30.4721,-14.2203,-10.1817,16.8557,7.12502,15.8086,-12.5188,3.15477e-14,1.49089e-14,-33.832,23.7265,75.063,22.9439,-14.9872,-0.641367,31.4983,7.12502,24.9759,59.8859,-14.9399,5.61391,22.8961,37.8411,-20.4911,-10.0889,12.8248,-12.0873,0.565628,-16.9218,37.309,-24.6018,11.0289,4.60418
10.3407,17.7616,-18.203,7.34427,-38.5864,-7.41944,3.46857,-0.480839,-2.0827,-1.77722,-0.622667,4.23494,-3.71902,-0.211946,5.62009,-11.7231,-7.92039,-16.5431,18.007,-10.3015,12.376,9.09578,-4.90854,5.72195,8.38405e-14,1.19271e-15,-39.556,-21.6222,-67.0614,30.5155,-14.0306,-9.96919,16.9701,7.12502,16.0133,-12.3881,8.38405e-14,1.19271e-15,-33.9811,23.8875,74.9476,22.9579,-15.0963,-0.584615,31.4693,7.12502,25.0303,59.8493,-14.9999,5.71422,22.862,37.8327,-20.5111,-10.0693,13.3327,-12.1721,0.633787,-16.9506,37.3832,-24.6289,10.9938,4.7862
10.3431,17.7631,-18.2107,7.20056,-38.5799,-7.077,3.53229,-0.540791,-2.42246,-1.84199,-0.719393,4.20417,-3.80882,-0.248408,5.79117,-11.8216,-7.7342,-16.3662,18.1974,-10.0526,12.261,9.12166,-4.78883,5.68986,-3.94619e-14,1.43125e-14,-39.5866,-21.3034,-67.1485,30.6663,-14.2272,-9.95946,16.9403,7.12502,16.0227,-12.4171,-3.94619e-14,1.43125e-14,-34.0837,23.9906,74.8811,22.9321,-15.0776,-0.493569,31.5142,7.12502,25.1175,59.882,-15.109,5.5827,22.5369,37.8335,-20.4284,-9.94799,13.2543,-12.3031,0.660631,-17.2556,37.4439,-24.6002,10.9588,4.7156
10.3524,17.7615,-18.2106,7.60503,-38.7177,-7.68024,3.56361,-0.519042,-1.85515,-1.82009,-0.660314,4.29024,-3.81471,-0.233544,5.55345,-11.9888,-7.53489,-16.1146,18.3435,-9.81711,12.2868,9.15116,-4.65494,5.69182,-9.42985e-15,-3.81667e-14,-39.5142,-21.1231,-67.3126,30.78,-14.498,-10.0409,16.8786,7.12502,15.9443,-12.4851,-9.42985e-15,-3.81667e-14,-34.0399,23.9669,74.8528,22.8839,-14.9961,-0.40836,31.6196,7.12502,25.1992,59.976,-15.1724,5.83629,23.057,37.8066,-20.2874,-10.0203,12.9526,-12.4178,0.822099,-16.7315,37.5409,-24.6124,10.9104,4.79554
10.3537,17.7609,-18.216,7.65578,-38.5991,-7.85625,3.61294,-0.588428,-1.69812,-1.74686,-0.745873,4.3356,-3.75817,-0.28243,5.51663,-12.0952,-7.32113,-16.0465,18.3797,-9.54948,12.4377,9.14389,-4.50838,5.77339,-4.35494e-14,-5.56597e-15,-39.3469,-20.8623,-67.5093,30.8843,-15.1308,-10.1021,16.7752,7.12502,15.8853,-12.5932,-4.35494e-14,-5.56597e-15,-33.8794,23.9688,74.8768,22.7218,-15.0204,-0.387438,31.6419,7.12502,25.2192,59.9955,-15.1095,5.78148,23.2294,37.8059,-20.3058,-10.0655,12.8255,-12.4335,0.922805,-16.5448,37.5902,-24.5781,10.8068,4.27587
10.3563,17.7614,-18.2208,7.61748,-38.5528,-7.76919,3.52869,-0.627602,-1.69617,-1.66358,-0.801421,4.30561,-3.61813,-0.314737,5.48369,-12.2419,-7.16358,-15.8987,18.4423,-9.31689,12.3385,9.14194,-4.39313,5.74512,4.47266e-14,2.98177e-14,-39.1587,-20.7496,-67.6971,30.9837,-15.6506,-10.2389,16.5697,7.12502,15.7536,-12.8091,4.47266e-14,2.98177e-14,-33.6545,24.0578,74.886,22.5523,-15.2749,-0.292993,31.5991,7.12502,25.3097,59.9399,-15.1406,5.77165,23.1634,37.794,-20.3014,-10.1563,12.5908,-12.5207,0.950088,-16.6097,37.6406,-24.55,10.8253,3.06555
10.3608,17.7616,-18.223,7.47685,-38.6459,-7.50517,3.49999,-0.585258,-1.81226,-1.63229,-0.753497,4.19906,-3.57427,-0.290099,5.43321,-12.4849,-7.0411,-15.7177,18.7672,-9.14571,12.2048,9.25479,-4.30683,5.69367,3.68e-14,-2.38542e-15,-39.1891,-21.1883,-67.5083,30.9317,-14.8886,-10.0979,16.5798,7.12502,15.8893,-12.7883,3.68e-14,-2.38542e-15,-33.4944,23.9368,74.9263,22.4642,-15.3772,-0.73781,30.738,7.12502,24.8835,59.1384,-15.2199,5.75454,22.9088,37.8398,-20.2778,-10.1961,11.9236,-12.5377,0.916055,-16.8815,37.6211,-24.5402,10.9341,2.8192
10.3663,17.7625,-18.2276,7.44259,-38.8162,-7.44903,3.605,-0.525999,-1.86764,-1.66343,-0.676129,4.18559,-3.67405,-0.24751,5.4486,-12.6513,-6.81803,-15.6949,19.147,-8.87476,12.3216,9.37741,-4.16653,5.77827,1.16879e-14,-5.1684e-15,-39.2698,-21.0672,-67.55,31.0438,-15.2419,-10.7375,16.5828,7.12502,15.2733,-12.8333,1.16879e-14,-5.1684e-15,-33.5134,23.8079,74.9617,22.4109,-15.5083,-1.86753,28.9377,7.12502,23.8004,57.4835,-15.2941,5.80383,22.8209,37.9238,-20.3102,-10.0994,12.1964,-12.4942,0.775339,-17.0103,37.5676,-24.4995,11.229,2.22764
10.3719,17.7635,-18.2366,7.27521,-38.946,-7.18086,3.74244,-0.499434,-2.13528,-1.68329,-0.654298,4.15348,-3.77294,-0.227467,5.56971,-12.7512,-6.54791,-15.5264,19.3468,-8.53714,12.3347,9.40258,-3.99457,5.80747,1.35907e-13,-2.82274e-14,-39.3025,-21.0724,-67.465,31.1165,-15.0498,-10.9324,16.5981,7.12502,15.0856,-12.8322,1.35907e-13,-2.82274e-14,-33.5304,23.803,74.9961,22.2746,-16.0812,-2.66934,27.7403,7.12502,23.0313,56.3842,-15.3811,5.94012,22.5774,38.0043,-20.3485,-10.0246,13.0777,-12.5019,0.748315,-17.2752,37.5183,-24.4475,11.3731,2.95569
10.3775,17.7636,-18.2438,7.01186,-39.0079,-6.70876,3.84277,-0.496094,-2.51907,-1.70076,-0.672407,4.04971,-3.84353,-0.225407,5.68347,-12.8089,-6.2813,-15.1025,19.4078,-8.19105,12.0792,9.34734,-3.82458,5.69282,-4.25586e-14,3.1408e-14,-39.2904,-20.9962,-67.5509,31.2559,-15.3053,-10.9391,16.6177,7.12502,15.0792,-12.8131,-4.25586e-14,3.1408e-14,-33.5534,24.1384,74.7303,21.995,-16.6422,-2.23991,26.8005,7.12502,23.4433,55.3923,-15.4936,6.03239,22.1627,38.0612,-20.2642,-10.1178,12.5927,-12.594,0.724228,-17.689,37.5031,-24.4293,11.3721,3.52312
10.3834,17.765,-18.2466,7.18666,-39.078,-6.85661,3.8951,-0.491497,-2.42636,-1.77114,-0.658674,4.11484,-3.94841,-0.216639,5.70089,-12.8659,-5.97342,-14.6797,19.5578,-7.76916,11.7092,9.30941,-3.63096,5.54904,-2.90723e-15,-2.18663e-14,-39.3302,-20.7451,-67.6192,31.3955,-15.7319,-10.8235,16.7125,7.12502,15.1905,-12.7099,-2.90723e-15,-2.18663e-14,-33.8133,25.4342,73.7866,21.5942,-16.3445,-0.373522,25.0771,7.12502,25.2326,53.4288,-15.6222,6.1265,22.2534,38.0943,-20.2317,-10.1276,12.4047,-12.6946,0.455793,-17.6286,37.5211,-24.4428,11.7289,3.55181
10.3906,17.7673,-18.2527,7.47981,-39.1395,-7.1827,3.92693,-0.453917,-2.17423,-1.80799,-0.591601,4.20864,-4.01391,-0.186969,5.65245,-13.0214,-5.71497,-14.3754,19.7126,-7.41611,11.508,9.31732,-3.45891,5.4754,-2.55066e-14,1.07344e-14,-39.3309,-20.8346,-67.529,31.445,-15.604,-10.6563,16.7735,7.12502,15.3515,-12.6366,-2.55066e-14,1.07344e-14,-33.2188,22.5386,75.8533,23.5118,-12.3703,0.511489,33.6445,7.12502,26.0802,61.874,-15.7639,6.2465,22.5034,38.105,-20.3091,-10.0363,13.3728,-12.8177,0.311059,-17.4,37.555,-24.3959,12.07,3.45683
10.3991,17.7684,-18.2595,7.56582,-39.1056,-7.23724,3.91418,-0.437588,-1.99152,-1.76696,-0.561946,4.15857,-3.9687,-0.179349,5.4915,-13.1154,-5.50379,-14.1741,19.7659,-7.17308,11.5883,9.31119,-3.32024,5.50441,-9.21243e-15,-1.31198e-14,-39.2934,-21.0728,-67.5394,31.5569,-15.4689,-10.6002,16.7155,7.12502,15.4056,-12.6904,-9.21243e-15,-1.31198e-14,-32.9969,22.3978,75.9218,23.6957,-11.7752,0.978817,34.1827,7.12502,26.5276,62.3453,-15.8695,6.20088,22.5366,38.1043,-20.2842,-9.99465,13.3754,-12.9607,0.198665,-17.3548,37.58,-24.3373,12.0842,4.19253
10.4077,17.7675,-18.2582,7.50126,-39.0928,-7.16575,3.906,-0.454257,-1.86578,-1.72726,-0.579769,4.10433,-3.9219,-0.193811,5.36242,-13.0954,-5.21398,-13.9714,19.8356,-6.8163,11.5776,9.2695,-3.14103,5.51696,-1.88348e-14,1.70955e-14,-39.3261,-20.9319,-67.6208,31.7824,-15.652,-10.6532,16.6215,7.12502,15.3545,-12.7884,-1.88348e-14,1.70955e-14,-32.9048,22.1788,76.0654,23.9631,-11.4022,1.24925,34.8357,7.12502,26.7864,62.959,-15.8787,6.04755,22.4434,38.143,-20.2145,-9.93892,12.7107,-12.9527,-0.0249052,-17.4621,37.5595,-24.3868,12.1656,4.78107
10.4144,17.7673,-18.2546,7.27554,-39.243,-6.84526,3.93596,-0.438859,-2.09367,-1.7097,-0.571792,4.10345,-3.91992,-0.184031,5.49167,-13.124,-4.88291,-13.723,19.8442,-6.34687,11.3468,9.19205,-2.92382,5.45372,3.18055e-14,-9.14409e-15,-39.3012,-20.6225,-67.6111,31.9417,-15.8278,-10.7333,16.6424,7.12502,15.2774,-12.7734,3.18055e-14,-9.14409e-15,-32.9247,22.1954,76.2461,24.0803,-11.2979,1.25755,35.0855,7.12502,26.7943,63.2076,-15.913,5.98267,22.1101,38.2424,-20.2468,-9.79085,12.7187,-12.8536,-0.126652,-17.8248,37.4771,-24.4902,12.3431,4.76215
10.4208,17.7674,-18.2556,7.03527,-39.4737,-6.43427,3.98001,-0.400541,-2.46546,-1.68135,-0.541705,4.08703,-3.91656,-0.159746,5.68561,-13.6992,-4.57551,-13.3134,20.2116,-5.91556,11.1555,9.34442,-2.69525,5.37742,-1.57934e-13,1.94809e-14,-39.137,-20.6536,-67.5049,31.9024,-15.7319,-10.6442,16.7632,7.12502,15.3632,-12.646,-1.57934e-13,1.94809e-14,-32.9379,22.4748,76.2938,24.0758,-11.5188,1.2731,34.794,7.12502,26.8092,62.9138,-16.0299,6.05934,21.697,38.3603,-20.2374,-9.62635,12.6103,-12.8103,-0.0790094,-18.2461,37.3847,-24.5187,12.462,5.01592
10.4279,17.7674,-18.2613,6.9383,-39.6667,-6.17114,4.07345,-0.40034,-2.7271,-1.72354,-0.555704,4.08925,-4.01034,-0.15655,5.8418,-14.7591,-4.17385,-12.7985,21.1031,-5.38735,11.0594,9.76123,-2.39597,5.34682,1.74931e-14,-2.06736e-14,-39.0671,-20.6509,-67.3934,31.9002,-15.555,-10.4142,16.8714,7.12502,15.5847,-12.5207,1.74931e-14,-2.06736e-14,-33.0553,22.6866,76.2474,23.9573,-12.0059,1.0292,33.9596,7.12502,26.5758,62.1149,-16.2189,6.16582,21.4261,38.4763,-20.1583,-9.52395,12.4092,-12.8688,-0.0392509,-18.5137,37.3222,-24.4889,12.5753,5.46133
10.4351,17.7682,-18.268,7.09706,-39.8485,-6.28538,4.22417,-0.417274,-2.75924,-1.8144,-0.576348,4.22085,-4.18736,-0.158352,6.00658,-15.344,-3.71164,-12.5161,21.6602,-4.75931,10.9902,9.97128,-2.07799,5.37615,-7.30285e-14,-2.78299e-15,-39.0599,-20.3847,-67.3282,32.0034,-15.4719,-10.2394,16.9894,7.12502,15.7531,-12.3895,-7.30285e-14,-2.78299e-15,-33.2236,22.7464,76.2858,23.8276,-12.3515,0.635608,33.2198,7.12502,26.199,61.4317,-16.4297,6.32857,21.4914,38.5835,-20.0736,-9.5478,12.2917,-12.9728,-0.133182,-18.4679,37.2964,-24.4985,12.8303,5.95707
10.4426,17.7675,-18.2723,7.24546,-39.9924,-6.47821,4.34667,-0.399602,-2.68541,-1.78611,-0.547092,4.31531,-4.23098,-0.144279,6.06446,-15.5415,-3.40465,-12.2552,21.8156,-4.3289,10.7901,9.99344,-1.87419,5.32139,2.88735e-14,1.55052e-14,-38.9087,-20.356,-67.353,32.0827,-15.4231,-10.2275,16.9762,7.12502,15.7646,-12.4018,2.88735e-14,1.55052e-14,-33.1327,22.7168,76.4189,23.8452,-12.2899,0.561269,33.2274,7.12502,26.1279,61.4498,-16.5502,6.47643,21.6301,38.6796,-20.0012,-9.6035,11.736,-12.9986,-0.0647754,-18.349,37.2993,-24.4598,13.0175,5.28813
10.4497,17.7681,-18.2761,7.19731,-40.0793,-6.34718,4.33729,-0.339136,-2.72007,-1.72227,-0.471212,4.24208,-4.16854,-0.108968,5.99914,-15.5044,-3.19227,-12.0065,21.8201,-4.06005,10.6404,9.94227,-1.74577,5.25956,4.06018e-14,-5.56597e-15,-38.8676,-20.4654,-67.4214,32.2766,-15.4552,-10.3146,16.8452,7.12502,15.6807,-12.5394,4.06018e-14,-5.56597e-15,-32.8753,22.3665,76.6425,23.8975,-11.8774,0.665468,33.6067,7.12502,26.2276,61.8144,-16.6795,6.47778,21.4819,38.7803,-19.9858,-9.53089,11.4541,-13.0375,0.270258,-18.4713,37.3057,-24.3663,12.9119,4.32417
10.4583,17.7705,-18.2817,7.2155,-40.1962,-6.24044,4.34558,-0.315237,-2.78833,-1.76152,-0.442795,4.23431,-4.21757,-0.0908832,6.02891,-15.3307,-2.86074,-11.8771,21.8346,-3.63279,10.5866,9.85276,-1.54752,5.27423,3.53216e-14,0,-38.9568,-20.1004,-67.5543,32.61,-15.7363,-10.568,16.7104,7.12502,15.4366,-12.6932,3.53216e-14,0,-32.9167,22.2849,76.7362,24.0159,-11.8189,0.840928,33.717,7.12502,26.3956,61.8996,-16.898,6.50208,21.344,38.8977,-19.9407,-9.46162,11.3498,-13.1809,0.468338,-18.5721,37.3065,-24.3404,12.7766,5.14279
10.4694,17.7709,-18.2906,7.26211,-40.3052,-6.23263,4.44769,-0.31454,-2.81633,-1.75791,-0.443438,4.26948,-4.27151,-0.0886751,6.08444,-15.3161,-2.51831,-11.7001,21.8538,-3.18067,10.5221,9.7921,-1.33013,5.27955,2.50966e-15,1.11319e-14,-38.8934,-19.7557,-67.7131,32.8583,-15.8438,-10.8291,16.6337,7.12502,15.1851,-12.7891,2.50966e-15,1.11319e-14,-32.8728,22.4153,76.7848,24.0726,-12.0563,0.915431,33.4514,7.12502,26.4669,61.6232,-17.0947,6.54997,21.3108,39.0253,-19.8101,-9.50582,10.4788,-13.3007,0.550534,-18.5876,37.2971,-24.3209,12.7239,5.96443
10.4824,17.7708,-18.3004,7.26433,-40.3417,-6.14952,4.4929,-0.273567,-2.7913,-1.6938,-0.389517,4.23308,-4.2371,-0.0649856,6.02661,-15.1678,-2.30051,-11.5995,21.6613,-2.9031,10.5325,9.65782,-1.19235,5.29364,-4.42296e-15,-4.25399e-14,-38.7639,-19.7691,-67.7896,32.9634,-15.6334,-11.1222,16.682,7.12502,14.9027,-12.7619,-4.42296e-15,-4.25399e-14,-32.4292,21.9953,77.0973,23.9237,-11.8276,0.97977,33.3951,7.12502,26.5285,61.5576,-17.2776,6.49853,21.2142,39.1353,-19.7461,-9.47856,10.156,-13.424,0.756894,-18.6521,37.2926,-24.2091,12.5744,5.91974
10.4951,17.7728,-18.307,7.3513,-40.3974,-6.12885,4.46425,-0.247046,-2.68892,-1.65036,-0.349804,4.18392,-4.18071,-0.0508608,5.91095,-15.1654,-2.09061,-11.3678,21.6006,-2.64738,10.4743,9.59841,-1.05924,5.26232,-7.57867e-15,-1.27222e-14,-38.662,-19.7422,-67.9061,33.056,-15.6314,-11.3634,16.8278,7.12502,14.6704,-12.6332,-7.57867e-15,-1.27222e-14,-32.0448,21.4834,77.3447,23.8709,-11.3867,1.17799,33.7026,7.12502,26.7182,61.8363,-17.4875,6.39068,21.1479,39.2207,-19.7704,-9.26705,10.9905,-13.5888,0.855399,-18.6918,37.2914,-24.0867,12.548,8.77193
10.5049,17.7745,-18.3079,7.41509,-40.5903,-6.16445,4.40266,-0.211013,-2.52381,-1.55637,-0.295067,4.11707,-4.05464,-0.0336721,5.73807,-15.3453,-1.84473,-11.1389,21.685,-2.36029,10.5353,9.62216,-0.896375,5.28557,-4.92986e-14,-3.81667e-14,-38.5403,-19.6448,-68.1151,33.2627,-15.9704,-11.2819,16.87,7.12502,14.7489,-12.5852,-4.92986e-14,-3.81667e-14,-31.8208,21.2417,77.4133,23.9334,-11.1218,0.994603,33.6111,7.12502,26.5427,61.7714,-17.6179,6.36961,21.1194,39.2958,-19.7139,-9.0175,11.4365,-13.628,0.822499,-18.7318,37.2759,-24.0626,12.733,6.26426
10.5122,17.7731,-18.305,7.33394,-40.7681,-6.05326,4.31118,-0.152289,-2.4673,-1.44123,-0.21625,4.06615,-3.89208,-0.00227526,5.64233,-15.4044,-1.63586,-11.0793,21.6925,-2.08999,10.6008,9.60081,-0.75671,5.33368,-6.57356e-14,-1.03368e-14,-38.4081,-19.6251,-68.1862,33.4227,-16.2126,-11.1654,16.8763,7.12502,14.8612,-12.5707,-6.57356e-14,-1.03368e-14,-31.8493,21.2966,77.5335,24.1679,-11.0667,0.681209,33.2526,7.12502,26.2427,61.458,-17.671,6.37554,20.9702,39.3702,-19.6898,-8.84611,11.4819,-13.5794,0.858662,-18.8955,37.2482,-24.0887,12.8489,9.19949
10.5191,17.7701,-18.3046,7.16194,-40.7583,-5.82069,4.3313,-0.129739,-2.5485,-1.38763,-0.192426,4.03939,-3.85037,0.00952248,5.65823,-15.4532,-1.45298,-10.849,21.6435,-1.82357,10.3631,9.55558,-0.636492,5.23879,2.80535e-14,1.90833e-14,-38.3659,-19.7754,-68.054,33.5032,-16.1337,-11.0912,16.9653,7.12502,14.9326,-12.4764,2.80535e-14,1.90833e-14,-32.1076,21.4353,77.6959,24.5783,-11.1914,0.880153,33.3009,7.12502,26.4331,61.4778,-17.701,6.34317,20.7566,39.4453,-19.7187,-8.9192,10.921,-13.5555,0.885976,-19.1143,37.2156,-24.0702,12.867,5.79386
10.5288,17.7694,-18.3112,7.06337,-40.7348,-5.65762,4.44246,-0.157648,-2.63866,-1.37595,-0.23612,4.03248,-3.89593,-0.00918265,5.70737,-15.5872,-1.19987,-10.5235,21.7178,-1.46925,10.0656,9.55929,-0.473823,5.12238,-1.9866e-13,2.3059e-14,-38.3523,-19.8347,-68.0001,33.7058,-15.9295,-10.9304,16.9089,7.12502,15.0875,-12.5212,-1.9866e-13,2.3059e-14,-32.2379,21.4442,77.8155,24.731,-11.5666,1.01765,33.3115,7.12502,26.5647,61.4685,-17.7805,6.4,20.6202,39.5054,-19.6514,-9.10592,10.183,-13.6048,0.914005,-19.2499,37.206,-24.008,12.8684,8.49303
10.5396,17.7707,-18.3172,7.12313,-40.8386,-5.64834,4.32095,-0.210225,-2.40134,-1.2649,-0.298493,3.87347,-3.70476,-0.0541799,5.40401,-15.7256,-0.915925,-10.1237,21.8223,-1.14184,9.95824,9.57952,-0.297917,5.06014,6.4779e-14,-1.70955e-14,-38.189,-20.0302,-68.3098,33.8557,-15.4436,-10.7519,16.8767,7.12502,15.2594,-12.5404,6.4779e-14,-1.70955e-14,-32.0243,21.2916,77.6991,24.6708,-11.9194,0.96671,33.2997,7.12502,26.516,61.4642,-17.9257,6.46956,20.5725,39.5428,-19.5843,-9.03949,10.3196,-13.7165,1.00436,-19.2832,37.2279,-23.9694,12.908,5.16573
10.5497,17.7712,-18.3183,7.36521,-40.9976,-5.90183,4.02568,-0.255111,-1.7447,-1.06712,-0.33284,3.61077,-3.33148,-0.0991659,4.74739,-15.7486,-0.602455,-9.68536,21.6785,-0.838467,10.0917,9.49533,-0.103227,5.06405,-8.40611e-14,-2.50469e-14,-37.9036,-20.4488,-68.8621,33.8661,-15.0735,-10.7201,17.0035,7.12502,15.2902,-12.4113,-8.40611e-14,-2.50469e-14,-31.6926,21.0533,77.3962,24.8428,-11.8024,1.40957,33.7828,7.12502,26.9398,61.8825,-18.0605,6.59527,20.729,39.5462,-19.5689,-8.93217,10.846,-13.8545,1.0645,-19.111,37.2932,-24.0443,12.9324,9.93838
10.5595,17.7712,-18.3211,7.6166,-41.2224,-6.1313,3.85223,-0.23657,-1.33634,-0.950272,-0.292959,3.5043,-3.11796,-0.0936604,4.39689,-15.6273,-0.283057,-9.40711,21.3631,-0.475858,10.1898,9.31952,0.100791,5.07998,1.40118e-13,-2.50469e-14,-37.6507,-20.7579,-69.2035,33.9143,-15.1822,-10.8535,17.0319,7.12502,15.1616,-12.3927,1.40118e-13,-2.50469e-14,-31.5572,20.8277,77.3282,25.2352,-11.4214,1.83009,34.2868,7.12502,27.3421,62.3237,-18.2279,6.77951,20.8589,39.5225,-19.5331,-8.84621,11.6258,-14.0225,1.11089,-18.9705,37.3735,-24.128,12.9999,6.16425
10.5713,17.7717,-18.3272,7.81295,-41.4063,-6.2836,3.84181,-0.204806,-1.18082,-0.898421,-0.243857,3.52595,-3.06308,-0.0736117,4.32724,-15.4605,-0.0657662,-9.22995,21.0381,-0.193358,10.1238,9.14378,0.240464,5.04292,1.85615e-14,2.0276e-14,-37.4975,-20.4643,-69.4983,34.2128,-15.8333,-11.0619,16.8021,7.12502,14.9609,-12.6375,1.85615e-14,2.0276e-14,-31.481,20.614,77.4956,25.5219,-11.1127,1.6749,34.5349,7.12502,27.1936,62.5951,-18.3949,6.93271,20.9267,39.5007,-19.4424,-8.80026,11.7876,-14.1796,1.13499,-18.8976,37.419,-24.1037,13.102,8.54995
10.582,17.7732,-18.3313,7.86439,-41.3992,-6.35318,4.12562,-0.204527,-1.3186,-0.990227,-0.241919,3.74293,-3.31774,-0.0633803,4.63747,-15.294,0.0903358,-9.23536,20.9813,0.0705025,9.89638,9.06457,0.336859,4.98772,5.29264e-15,-4.37326e-15,-37.6492,-19.6802,-69.395,34.6322,-16.518,-11.1241,16.543,7.12502,14.901,-12.9011,5.29264e-15,-4.37326e-15,-31.5565,20.5536,77.8472,25.565,-10.9719,1.27735,34.4672,7.12502,26.8133,62.5863,-18.4379,6.92459,20.9649,39.4984,-19.401,-8.81775,11.2963,-14.2263,1.00373,-18.8606,37.4156,-24.0827,13.1285,6.84004
10.5902,17.7761,-18.3288,7.59292,-41.2999,-5.97829,4.61605,-0.181136,-2.01451,-1.24923,-0.233412,4.08073,-3.86322,-0.026369,5.4009,-15.1573,0.216127,-9.39071,21.2411,0.350184,9.51069,9.09975,0.408494,4.91639,2.16675e-14,3.97569e-15,-38.0494,-19.2317,-68.606,34.8739,-16.6662,-10.9438,16.5015,7.12502,15.0746,-12.9296,2.16675e-14,3.97569e-15,-31.8591,20.5633,78.3967,25.5209,-10.9132,1.10585,34.1176,7.12502,26.6492,62.2619,-18.4279,6.67874,20.6317,39.5119,-19.4286,-8.71309,11.3183,-14.1834,0.813946,-19.1973,37.3693,-24.1134,13.1786,10.2967
10.601,17.7785,-18.3236,7.40667,-41.288,-5.65755,4.82289,-0.17173,-2.36784,-1.33235,-0.23702,4.21462,-4.06617,-0.0118871,5.75043,-15.1177,0.323131,-9.4788,21.3872,0.551411,9.34033,9.12179,0.474654,4.89846,4.08502e-14,7.95139e-16,-38.0973,-19.1532,-68.2305,34.9642,-16.7544,-10.8295,16.5743,7.12502,15.1847,-12.8485,4.08502e-14,7.95139e-16,-31.9353,20.5683,78.7376,25.5929,-10.7557,1.21925,33.9736,7.12502,26.7577,62.1013,-18.4775,6.53821,20.3148,39.5223,-19.42,-8.62881,11.3005,-14.1726,0.843727,-19.5121,37.3096,-24.0939,13.2106,6.7784
10.6119,17.7794,-18.3229,7.51875,-41.298,-5.72186,4.81468,-0.190213,-2.22134,-1.31189,-0.252735,4.23163,-4.03853,-0.0244666,5.68515,-14.8543,0.441931,-9.49954,21.2551,0.693356,9.39086,9.0106,0.541664,4.92521,-7.30782e-14,-4.77083e-14,-38.0139,-19.1009,-68.2901,35.036,-16.8525,-10.8913,16.7028,7.12502,15.1252,-12.7245,-7.30782e-14,-4.77083e-14,-31.8908,20.4737,78.8655,25.7229,-10.4711,1.21162,33.9967,7.12502,26.7504,62.1255,-18.5856,6.47486,20.3251,39.5252,-19.3453,-8.59469,10.7759,-14.2518,0.98943,-19.4749,37.2632,-24.0245,13.0687,6.9244
10.622,17.78,-18.3262,7.6556,-41.2552,-5.83929,4.98318,-0.207794,-2.16843,-1.44171,-0.267471,4.32532,-4.26792,-0.0247797,5.76068,-14.5162,0.621594,-9.44644,21.3153,0.893796,9.396,8.94572,0.632545,4.93492,2.15681e-14,-2.38542e-15,-38.244,-18.9484,-68.1574,35.1789,-16.8292,-11.0044,16.8029,7.12502,15.0163,-12.6326,2.15681e-14,-2.38542e-15,-32.0608,20.346,78.9515,25.7796,-10.5761,1.26206,33.9786,7.12502,26.7986,62.1,-18.6864,6.28071,20.4013,39.5173,-19.2232,-8.50731,10.1374,-14.3597,1.03142,-19.3717,37.2583,-24.0236,12.898,7.53347
10.6314,17.7805,-18.3287,7.68559,-41.3031,-5.87962,5.18101,-0.256321,-2.18848,-1.52679,-0.329152,4.41787,-4.4618,-0.0480116,5.88129,-14.43,0.909505,-9.36545,21.6032,1.26073,9.35838,8.98862,0.80088,4.95639,1.16786e-15,-2.34566e-14,-38.387,-18.7121,-68.0919,35.3714,-16.9541,-11.0194,16.8457,7.12502,15.0018,-12.5909,1.16786e-15,-2.34566e-14,-32.2183,20.4418,78.919,25.7936,-11.0936,1.48714,33.9079,7.12502,27.014,61.9961,-18.7233,6.2061,20.412,39.5158,-19.2144,-8.38325,10.2133,-14.3782,1.17341,-19.358,37.2675,-23.9999,12.9145,7.15227
10.6393,17.7799,-18.3299,7.66818,-41.4905,-5.86861,5.2536,-0.259362,-2.18385,-1.48663,-0.332807,4.45699,-4.46056,-0.0503742,5.92122,-14.4638,1.16965,-9.28947,21.7966,1.62151,9.26387,9.02403,0.963859,4.95689,-3.24764e-14,-3.33958e-14,-38.3958,-18.4492,-68.1255,35.6047,-17.2226,-11.0935,16.8527,7.12502,14.9305,-12.5891,-3.24764e-14,-3.33958e-14,-32.2368,20.6252,78.919,25.9002,-11.4195,1.65787,33.8386,7.12502,27.1773,61.9014,-18.7505,6.41222,20.3595,39.5402,-19.2965,-8.28894,11.0434,-14.3539,1.49157,-19.3988,37.2594,-23.915,12.9359,6.82179
10.6463,17.778,-18.3298,7.53698,-41.7257,-5.68889,5.26796,-0.169725,-2.2802,-1.39495,-0.222777,4.41237,-4.38583,0.00335353,5.91782,-14.4976,1.28378,-9.12994,21.824,1.78362,9.09609,9.027,1.03545,4.88959,-5.82439e-14,-1.51076e-14,-38.4091,-18.4689,-68.0766,35.7824,-17.3716,-11.1945,16.7389,7.12502,14.8331,-12.7101,-5.82439e-14,-1.51076e-14,-32.109,20.5679,79.0615,25.982,-11.637,1.53682,33.5376,7.12502,27.0615,61.6184,-18.7796,6.66025,20.151,39.5713,-19.3315,-8.27809,11.4036,-14.3164,1.68597,-19.5938,37.2427,-23.9851,12.8297,8.99898
10.6528,17.7767,-18.3286,7.39889,-41.8065,-5.40867,5.15465,-0.121465,-2.39155,-1.28359,-0.170929,4.30683,-4.21124,0.0250362,5.86103,-14.4441,1.34624,-8.99596,21.7042,1.85583,9.02655,8.971,1.07424,4.84369,3.28492e-14,-4.77083e-15,-38.2937,-18.8727,-68.0392,35.7823,-17.3045,-11.2651,16.5309,7.12502,14.7651,-12.9231,3.28492e-14,-4.77083e-15,-31.815,20.1816,79.2725,26.0402,-11.3846,1.21437,33.4334,7.12502,26.753,61.5618,-18.8573,6.75384,19.8675,39.5806,-19.3262,-8.36278,11.2577,-14.352,1.5957,-19.8857,37.2339,-24.0951,12.8498,8.053
10.6614,17.7777,-18.326,7.53577,-41.8848,-5.46241,5.02196,-0.119006,-2.2299,-1.21036,-0.159539,4.2765,-4.0609,0.0212482,5.7316,-14.3139,1.44796,-9.03402,21.5704,1.96815,9.17339,8.88556,1.13965,4.90468,-8.02593e-14,-4.21423e-14,-38.1636,-19.1595,-68.0678,35.7453,-17.1464,-11.43,16.3731,7.12502,14.6063,-13.0926,-8.02593e-14,-4.21423e-14,-31.5874,19.9207,79.4003,26.1339,-10.8409,0.777262,33.5532,7.12502,26.3346,61.7449,-18.9929,6.75797,19.8499,39.5507,-19.2861,-8.29286,11.4498,-14.4747,1.43552,-19.9184,37.253,-24.1104,13.0941,7.46233
10.6707,17.779,-18.3249,7.77344,-42.0643,-5.77166,5.09318,-0.123598,-1.97642,-1.21472,-0.147169,4.36345,-4.10735,0.0225985,5.67853,-14.1097,1.61453,-9.16614,21.4755,2.17025,9.38471,8.78723,1.2443,5.01259,-5.59082e-14,-4.6118e-14,-38.1908,-18.8529,-68.1423,35.8987,-17.3951,-11.4499,16.3402,7.12502,14.5871,-13.1268,-5.59082e-14,-4.6118e-14,-31.6103,20.0411,79.3807,26.155,-10.8187,0.530594,33.4036,7.12502,26.0985,61.6304,-19.0473,6.79782,20.0467,39.4912,-19.2319,-8.11004,11.634,-14.5316,1.33212,-19.7354,37.2995,-24.1383,13.3401,7.62543
10.6791,17.7787,-18.3281,7.92658,-42.1015,-5.97607,5.21988,-0.161612,-1.85123,-1.25987,-0.185251,4.4792,-4.22215,0.00451086,5.73576,-13.9742,1.78193,-9.25687,21.5359,2.37858,9.52088,8.75542,1.34581,5.09535,-6.27166e-14,3.18055e-15,-38.2814,-18.5643,-68.1014,36.0266,-17.5444,-11.3521,16.4673,7.12502,14.6813,-12.9929,-6.27166e-14,3.18055e-15,-31.6983,20.1183,79.4045,26.2035,-10.8312,0.785805,33.4593,7.12502,26.3428,61.6498,-19.0656,6.95801,20.2007,39.4281,-19.1493,-8.21677,11.3102,-14.6027,1.21479,-19.5885,37.363,-24.1553,13.4582,7.66568
10.6887,17.7786,-18.3307,7.99562,-42.0225,-6.00664,5.29024,-0.257406,-1.83335,-1.28574,-0.30865,4.57868,-4.27501,-0.055102,5.84387,-13.9443,1.94601,-9.30752,21.656,2.60337,9.55318,8.76439,1.44825,5.14178,-2.32081e-14,2.38542e-14,-38.2396,-18.6378,-67.9419,35.9192,-17.2166,-11.0607,16.7724,7.12502,14.962,-12.6671,-2.32081e-14,2.38542e-14,-31.7223,20.1295,79.5061,26.2776,-10.5457,0.825227,33.5398,7.12502,26.3806,61.7246,-19.1261,7.0154,20.2164,39.3829,-19.0548,-8.37117,10.97,-14.7208,1.06802,-19.5739,37.4083,-24.1452,13.5288,7.7617
10.6986,17.7802,-18.3335,8.08204,-42.0769,-6.06451,5.3924,-0.308121,-1.87327,-1.2811,-0.375963,4.68794,-4.31998,-0.08576,5.99117,-14.053,2.11162,-9.20721,21.7598,2.85594,9.38076,8.7984,1.55732,5.097,-4.12975e-14,-1.35174e-14,-38.1239,-18.5155,-67.9075,35.8805,-17.3524,-10.7016,16.9629,7.12502,15.3079,-12.4505,-4.12975e-14,-1.35174e-14,-31.6951,20.2974,79.5806,26.3687,-10.3136,0.850334,33.657,7.12502,26.4046,61.8381,-19.2225,7.05088,20.2371,39.3634,-19.0054,-8.32258,11.1462,-14.8131,0.980903,-19.5558,37.4268,-24.1894,13.5755,8.48909
10.7071,17.781,-18.3329,8.11966,-42.3042,-6.15072,5.44811,-0.245945,-1.8216,-1.17951,-0.291475,4.70413,-4.2555,-0.0482012,5.97021,-14.2492,2.19232,-8.96685,21.8053,2.9786,9.15714,8.84746,1.61364,4.9981,2.96189e-14,1.59028e-15,-38.01,-18.3885,-68.0591,35.9881,-17.8395,-10.8042,16.7634,7.12502,15.2091,-12.6576,2.96189e-14,1.59028e-15,-31.4944,20.2752,79.6879,26.3697,-10.3048,0.715215,33.6575,7.12502,26.2752,61.858,-19.2524,7.16994,20.2643,39.3689,-19.0274,-8.20066,11.5747,-14.7701,0.943124,-19.554,37.4183,-24.2966,13.7391,8.8558
10.7147,17.7813,-18.327,8.09088,-42.4611,-6.11765,5.41361,-0.24857,-1.77707,-1.08726,-0.295518,4.68827,-4.13927,-0.055826,5.92554,-14.2101,2.25972,-8.94839,21.7179,3.06924,9.15547,8.80114,1.65866,4.99836,-7.64327e-14,4.69132e-14,-37.8963,-18.3977,-68.1515,35.9873,-17.7503,-11.0443,16.552,7.12502,14.9778,-12.8863,-7.64327e-14,4.69132e-14,-31.3753,20.2346,79.7797,26.2712,-10.4107,-0.0907635,33.0883,7.12502,25.5034,61.4016,-19.2704,7.13246,20.1793,39.3915,-19.0649,-8.02759,11.9695,-14.7256,1.14772,-19.6372,37.3942,-24.2853,13.7044,8.56867
10.7196,17.7821,-18.3238,8.06779,-42.5098,-5.91788,5.38297,-0.29631,-2.01847,-1.12612,-0.372984,4.75342,-4.15244,-0.0867002,6.14102,-14.0778,2.34386,-9.10005,21.7309,3.19324,9.23002,8.76283,1.71001,5.05868,6.33626e-14,1.19271e-14,-37.9017,-18.2146,-68.0605,35.9287,-17.4218,-11.0917,16.6413,7.12502,14.9322,-12.8004,6.33626e-14,1.19271e-14,-31.4562,20.4282,79.8391,26.2758,-10.6333,-0.536298,32.7692,7.12502,25.0766,61.1428,-19.4139,7.01629,19.9572,39.4155,-19.075,-7.81141,12.4719,-14.8606,1.53486,-19.8026,37.3946,-24.2275,13.3558,8.65464
10.7223,17.7809,-18.3211,8.00356,-42.6075,-5.73041,5.33608,-0.268319,-2.21619,-1.11711,-0.348615,4.76928,-4.11878,-0.0702166,6.26876,-14.0066,2.4265,-9.1031,21.6968,3.29821,9.25734,8.72588,1.76174,5.07516,-2.18663e-15,4.77083e-15,-37.9431,-18.207,-67.9576,35.8582,-17.1957,-11.133,16.819,7.12502,14.8924,-12.6257,-2.18663e-15,4.77083e-15,-31.3717,20.5043,79.8759,26.3456,-11.0655,-0.15915,33.0046,7.12502,25.4379,61.3272,-19.5066,6.95022,19.7479,39.4379,-19.1007,-7.63216,12.8874,-14.9412,1.80178,-19.9769,37.4164,-24.2556,13.188,8.86423
10.7253,17.7797,-18.3204,8.13509,-42.7289,-5.90368,5.3034,-0.223813,-2.1091,-1.06695,-0.282088,4.82432,-4.05647,-0.041865,6.25846,-13.8358,2.53727,-9.11293,21.5397,3.43408,9.31472,8.62435,1.83153,5.09735,2.68359e-15,8.74653e-15,-37.9064,-18.8179,-67.6763,35.5564,-16.5513,-10.8657,17.0252,7.12502,15.1499,-12.4003,2.68359e-15,8.74653e-15,-31.2235,20.5971,79.8557,26.4497,-11.3697,0.325994,33.2456,7.12502,25.9026,61.5011,-19.5538,7.08082,19.8551,39.458,-19.072,-7.68626,12.5838,-14.9726,2.12517,-19.8584,37.4426,-24.1698,13.1612,8.17618
10.7298,17.7807,-18.3235,8.27347,-42.7573,-6.05377,5.35613,-0.183379,-2.02906,-1.07959,-0.220318,4.89218,-4.10738,-0.0110975,6.28076,-13.5445,2.56855,-9.23963,21.4088,3.48036,9.34292,8.51766,1.84367,5.11774,-3.34952e-14,-2.62396e-14,-37.9532,-19.3585,-67.3023,35.2798,-16.1699,-10.6019,17.1252,7.12502,15.404,-12.2809,-3.34952e-14,-2.62396e-14,-31.1599,20.5195,79.9402,26.4979,-11.3563,0.316362,33.1905,7.12502,25.8934,61.4473,-19.6232,7.24676,19.9704,39.4645,-19.0193,-7.82611,12.0585,-15.048,2.25412,-19.7376,37.4674,-24.0624,13.1686,7.10553
10.7343,17.7819,-18.322,8.19243,-42.8264,-5.88418,5.28,-0.143602,-2.00144,-1.00535,-0.171388,4.74763,-3.99261,0.00747568,6.10342,-13.4901,2.58246,-9.05699,21.3116,3.46814,9.29088,8.48126,1.84794,5.06172,-4.96962e-17,-3.97569e-15,-37.966,-19.2987,-67.4901,35.3108,-16.5008,-11.0519,17.0116,7.12502,14.9705,-12.4273,-4.96962e-17,-3.97569e-15,-30.8979,19.9093,80.0608,26.3468,-11.2099,-0.171533,32.7917,7.12502,25.4261,61.116,-19.6717,7.24448,19.8019,39.4541,-18.9786,-7.76214,11.8827,-15.0885,2.11956,-19.9143,37.492,-24.1136,13.2859,6.94892
10.7389,17.7834,-18.3203,8.2468,-42.9126,-5.87442,5.12846,-0.162033,-1.88358,-0.882793,-0.195703,4.63404,-3.77621,-0.0155115,5.91187,-13.8318,2.70708,-8.63166,21.4322,3.59006,9.18509,8.58442,1.9322,4.98099,-2.60905e-14,5.56597e-15,-37.8463,-18.9727,-68.0021,35.4501,-16.8176,-11.7073,16.7499,7.12502,14.339,-12.7349,-2.60905e-14,5.56597e-15,-30.59,19.5187,80.0399,26.2465,-11.1788,-0.376456,32.5029,7.12502,25.2297,60.8549,-19.7429,7.33379,19.7581,39.4347,-18.9431,-7.7628,12.035,-15.1708,2.07936,-19.9568,37.5138,-24.1518,13.4109,7.26193
10.7461,17.7823,-18.3158,8.35486,-42.9226,-6.07514,5.15384,-0.181428,-1.72992,-0.814314,-0.21248,4.70651,-3.71754,-0.0295941,5.90122,-14.1443,2.78648,-8.44082,21.7213,3.69032,9.08679,8.73724,1.98433,4.94737,-2.54941e-14,-3.49861e-14,-37.8039,-18.9228,-68.0742,35.4264,-16.7705,-11.8567,16.5894,7.12502,14.1951,-12.9056,-2.54941e-14,-3.49861e-14,-30.4896,19.6883,80.0189,26.3273,-11.4165,-0.0563945,32.5022,7.12502,25.5364,60.8107,-19.7083,7.46769,19.8997,39.4108,-19.0011,-7.80456,12.7999,-15.1798,2.07262,-19.8134,37.5472,-24.1914,13.4272,7.62949
10.7535,17.7784,-18.303,8.32265,-43.0915,-6.18861,5.20147,-0.0944568,-1.62529,-0.723212,-0.0911318,4.75186,-3.66371,0.0261284,5.87857,-14.2295,2.76403,-8.40509,21.8885,3.65524,9.06022,8.8152,1.96597,4.93897,5.46658e-14,-2.06736e-14,-37.8269,-19.2345,-67.8548,35.2398,-16.5684,-11.8086,16.7102,7.12502,14.2415,-12.7815,5.46658e-14,-2.06736e-14,-30.4667,19.7937,80.0851,26.4845,-11.7531,0.511798,32.7023,7.12502,26.0805,60.9317,-19.5827,7.57846,19.9316,39.395,-19.0765,-7.69129,13.531,-15.0412,2.11434,-19.8047,37.5992,-24.3319,13.4815,7.70883
10.76,17.7757,-18.2949,8.38516,-43.2115,-6.26583,5.13196,-0.0317867,-1.42438,-0.660708,0.0010709,4.69068,-3.56938,0.0644643,5.68861,-14.1095,2.76783,-8.34029,21.7993,3.6267,9.11012,8.76518,1.96275,4.93462,9.00495e-14,4.77083e-15,-37.8738,-19.5186,-67.8228,35.0956,-16.4764,-11.7496,16.8196,7.12502,14.2983,-12.6681,9.00495e-14,4.77083e-15,-30.4351,19.6774,80.0739,26.66,-11.884,1.19703,33.1093,7.12502,26.7364,61.2402,-19.5999,7.71915,19.9397,39.4088,-19.0569,-7.71054,13.4305,-15.0545,2.42174,-19.7804,37.6299,-24.3403,13.3405,6.83232
10.7656,17.7741,-18.2934,8.36768,-43.1709,-6.15221,4.98951,-0.0797112,-1.19202,-0.57804,-0.0582783,4.45883,-3.39589,0.0242534,5.31135,-14.0567,2.83423,-8.1348,21.6976,3.64108,9.23099,8.7201,1.99982,4.93689,3.83654e-14,1.27222e-14,-37.8395,-19.9133,-68.095,34.9439,-16.2507,-11.4815,16.857,7.12502,14.5566,-12.6123,3.83654e-14,1.27222e-14,-30.1794,19.255,79.9309,26.715,-11.3605,0.999663,33.242,7.12502,26.5475,61.4017,-19.6942,7.69232,19.8245,39.4536,-19.0206,-7.70126,12.9185,-15.1562,2.83496,-19.841,37.6174,-24.2193,12.989,5.96285
10.7686,17.7726,-18.2915,8.04746,-43.2197,-5.77322,4.91358,-0.14339,-1.22657,-0.414545,-0.157056,4.18006,-3.17339,-0.031988,5.04116,-14.0547,2.91982,-7.94233,21.6569,3.68172,9.37194,8.70183,2.04978,4.95515,-3.77691e-15,-2.62396e-14,-37.6519,-20.3063,-68.4735,34.7321,-15.9506,-11.2832,16.9963,7.12502,14.7476,-12.4591,-3.77691e-15,-2.62396e-14,-29.849,18.8498,79.7419,26.7317,-10.7487,0.15599,32.9685,7.12502,25.7398,61.2477,-19.6548,7.53999,19.5029,39.5084,-19.0234,-7.57615,12.265,-15.0603,2.9702,-20.1646,37.5875,-24.1497,12.9855,6.12341
10.7717,17.7745,-18.2909,7.91079,-43.2454,-5.62473,4.9786,-0.220756,-1.33383,-0.385056,-0.267986,4.13437,-3.16842,-0.0862124,5.06313,-13.7456,3.00811,-7.8654,21.4864,3.78952,9.28822,8.57993,2.09489,4.90543,-1.37758e-13,-1.59028e-14,-37.589,-20.2059,-68.6542,34.5954,-15.8458,-11.3078,17.171,7.12502,14.724,-12.2861,-1.37758e-13,-1.59028e-14,-29.833,18.8924,79.5481,26.8213,-10.7854,-0.0687755,32.8394,7.12502,25.5245,61.1496,-19.6453,7.44507,19.3804,39.5729,-19.0115,-7.58238,11.7423,-14.9769,2.83489,-20.3207,37.5068,-24.0341,13.2471,8.1552
10.7775,17.7771,-18.2952,8.14802,-43.1606,-5.86098,5.12437,-0.284956,-1.2447,-0.507295,-0.341389,4.24517,-3.37016,-0.118731,5.13874,-13.396,3.08954,-7.76308,21.3352,3.90218,9.09943,8.46108,2.13268,4.81539,-3.11595e-14,7.95139e-15,-37.7744,-19.952,-68.6406,34.5718,-15.806,-11.6092,17.0276,7.12502,14.4336,-12.4505,-3.11595e-14,7.95139e-15,-29.9607,19.0146,79.4194,26.8916,-11.094,0.291117,32.9909,7.12502,25.8692,61.2513,-19.7843,7.48649,19.5755,39.6081,-18.9953,-7.69242,12.1179,-15.109,2.66403,-20.1194,37.4552,-23.9529,13.2972,9.8446
10.7783,17.7732,-18.2806,7.79552,-43.0969,-5.5104,5.18493,-0.317409,-1.54284,-0.470183,-0.402963,4.26978,-3.35795,-0.14435,5.34058,-13.4562,3.15839,-7.81565,21.4938,3.99676,9.14503,8.51367,2.17647,4.85765,-3.65764e-14,-8.74653e-15,-37.8764,-19.9065,-68.4695,34.4995,-15.6999,-11.83,16.7802,7.12502,14.2209,-12.713,-3.65764e-14,-8.74653e-15,-29.9073,19.0794,79.5276,26.8385,-11.1632,0.594937,33.092,7.12502,26.1601,61.3096,-19.6153,7.3301,19.2693,39.6311,-19.1006,-7.59491,12.4657,-14.9247,2.47937,-20.431,37.421,-24.0842,13.283,6.7689
10.7795,17.7728,-18.277,7.87263,-42.842,-5.64652,5.20542,-0.429395,-1.58267,-0.425584,-0.552889,4.44609,-3.30602,-0.219656,5.56134,-13.6307,3.2279,-7.98243,21.6657,4.10311,9.2983,8.58454,2.22963,4.96206,4.29872e-14,1.59028e-15,-37.7956,-20.0651,-68.2034,34.2462,-15.2427,-11.5018,16.9123,7.12502,14.537,-12.5584,4.29872e-14,1.59028e-15,-29.7118,19.0991,79.7164,26.7524,-10.7987,0.313536,32.9904,7.12502,25.8907,61.2476,-19.5517,7.31616,19.4206,39.6345,-19.116,-7.84425,11.9753,-14.9456,2.40307,-20.2705,37.456,-24.1044,13.1033,10.2487
10.7841,17.7737,-18.2785,8.07646,-42.6486,-5.85697,5.19282,-0.549396,-1.36377,-0.421233,-0.700167,4.45918,-3.28068,-0.298006,5.46079,-13.5691,3.28938,-7.91087,21.6415,4.15181,9.36601,8.55955,2.26459,4.97452,-9.19876e-14,-3.10104e-14,-37.7612,-20.3628,-68.1576,33.9069,-14.4745,-11.1833,17.1847,7.12502,14.8439,-12.2636,-9.19876e-14,-3.10104e-14,-29.6342,19.2136,79.5695,26.8084,-10.5545,0.036421,32.9519,7.12502,25.6253,61.2476,-19.6221,7.30995,19.6174,39.6419,-19.0537,-8.03766,11.2126,-15.0882,2.40546,-20.0487,37.4937,-24.0976,12.8635,6.79395
10.7903,17.7717,-18.2759,8.15879,-42.6862,-5.90785,5.19742,-0.591911,-1.22724,-0.43841,-0.749277,4.40376,-3.29813,-0.324745,5.32823,-13.5152,3.34863,-7.77218,21.814,4.18872,9.35928,8.60773,2.28808,4.95815,-1.59028e-14,-2.38542e-15,-37.8139,-20.3036,-68.2739,33.7306,-14.2646,-11.1115,17.3423,7.12502,14.9131,-12.1009,-1.59028e-14,-2.38542e-15,-29.6715,19.4213,79.3629,26.8609,-10.5445,0.0651235,32.9631,7.12502,25.6527,61.2549,-19.7006,7.34181,19.6315,39.6433,-18.953,-8.06078,10.7887,-15.1924,2.41211,-20.0322,37.5589,-24.1245,12.8614,10.6177
10.7946,17.771,-18.2659,8.21281,-42.8931,-5.98226,5.16846,-0.519392,-1.12356,-0.409469,-0.647763,4.38172,-3.26331,-0.277153,5.23661,-13.4543,3.35069,-7.90377,21.9957,4.15988,9.56467,8.65057,2.28092,5.05466,2.65378e-14,7.95139e-15,-37.9315,-20.2527,-68.2836,33.7237,-14.6337,-10.9239,17.4118,7.12502,15.0938,-12.0179,2.65378e-14,7.95139e-15,-29.5134,19.1553,79.4155,26.7334,-10.4878,0.0524838,32.8414,7.12502,25.6406,61.1349,-19.7226,7.41343,19.6293,39.6719,-18.8851,-8.03788,10.3191,-15.1497,2.39495,-20.0651,37.5786,-24.1822,13.138,6.79969
10.7973,17.7714,-18.2587,8.21143,-43.077,-5.912,5.11083,-0.382722,-1.26618,-0.389726,-0.474098,4.41534,-3.22639,-0.188526,5.33894,-13.3685,3.26193,-8.18789,22.1008,4.03259,9.8115,8.66797,2.22016,5.17813,-5.36719e-14,-1.59028e-14,-38.0625,-20.4551,-68.0486,33.6684,-14.8279,-10.9299,17.2944,7.12502,15.0881,-12.1357,-5.36719e-14,-1.59028e-14,-29.3801,18.8642,79.6597,26.6806,-10.675,0.363408,32.8916,7.12502,25.9384,61.1419,-19.8022,7.4459,19.5075,39.7264,-18.8546,-7.92381,10.4922,-15.137,2.36175,-20.1982,37.5464,-24.2262,13.3322,10.6328
10.7992,17.7712,-18.2551,8.02344,-43.1595,-5.54606,5.10237,-0.303029,-1.80296,-0.418847,-0.396029,4.5424,-3.25636,-0.137834,5.77576,-13.2795,3.14064,-8.42963,22.1826,3.92724,9.72932,8.68698,2.13869,5.18162,-8.10048e-14,-7.95139e-15,-38.1619,-20.3159,-67.7186,33.6266,-14.8628,-11.1612,17.0828,7.12502,14.8652,-12.3639,-8.10048e-14,-7.95139e-15,-29.5063,19.0841,79.9727,26.8072,-10.8834,0.545859,33.0375,7.12502,26.1131,61.2621,-19.9141,7.36705,19.1633,39.7926,-18.8926,-7.66336,11.4976,-15.1599,2.31804,-20.5489,37.5054,-24.2196,13.4414,7.82959
10.8034,17.7714,-18.2488,7.9226,-43.2074,-5.32512,5.06547,-0.318876,-2.06353,-0.428262,-0.431453,4.60082,-3.23951,-0.15061,5.98986,-13.0899,3.06218,-8.55228,22.1658,3.86919,9.56151,8.65453,2.07987,5.13145,6.59965e-14,-3.89618e-14,-38.1958,-20.0456,-67.6311,33.5923,-15.0634,-11.524,16.8942,7.12502,14.5157,-12.578,6.59965e-14,-3.89618e-14,-29.6411,19.3978,80.0638,26.936,-10.8548,0.414324,33.0348,7.12502,25.9872,61.2779,-20.0105,7.21529,18.9381,39.8529,-18.9322,-7.4426,11.4549,-15.1801,2.26639,-20.7916,37.4928,-24.2173,13.6107,10.7111
10.808,17.7694,-18.2398,8.05559,-43.3319,-5.45489,4.9902,-0.329244,-1.9297,-0.415722,-0.43797,4.613,-3.18404,-0.157875,5.9247,-12.9097,3.01306,-8.63758,22.2236,3.79898,9.56526,8.64565,2.03498,5.13716,3.73715e-14,3.57812e-14,-38.2038,-20.0362,-67.65,33.4272,-15.1829,-11.9878,16.7618,7.12502,14.0688,-12.742,3.73715e-14,3.57812e-14,-29.7425,19.6735,79.9476,27.0829,-10.9995,0.663922,33.0326,7.12502,26.2261,61.2404,-20.1022,7.17046,18.9852,39.9054,-18.9123,-7.29501,11.0054,-15.2256,2.60019,-20.726,37.5192,-24.2107,13.4976,6.761
10.8116,17.7662,-18.2325,8.21403,-43.4673,-5.67762,5.03498,-0.287597,-1.7839,-0.450416,-0.371716,4.65531,-3.25362,-0.125204,5.88218,-12.8247,2.94401,-8.64448,22.4515,3.67683,9.58946,8.719,1.97262,5.14318,-5.41688e-14,4.77083e-15,-38.3538,-20.2247,-67.5004,33.2191,-14.8896,-12.0298,16.7991,7.12502,14.0283,-12.7075,-5.41688e-14,4.77083e-15,-29.8537,19.7415,79.8567,27.2095,-11.0474,1.11132,33.3598,7.12502,26.6544,61.5033,-20.1502,7.22435,19.1179,39.9574,-18.8848,-7.22829,10.9302,-15.252,2.93982,-20.5728,37.5718,-24.246,13.3036,9.85705
10.8164,17.7645,-18.2323,8.27745,-43.4636,-5.69906,5.15113,-0.282492,-1.82262,-0.548465,-0.36333,4.66135,-3.42175,-0.114754,5.91395,-12.7426,2.83679,-8.58257,22.6758,3.50577,9.52714,8.80126,1.88391,5.1028,5.29761e-14,-4.77083e-15,-38.5693,-20.4968,-67.301,33.0254,-14.5382,-11.7591,16.9356,7.12502,14.2892,-12.5527,5.29761e-14,-4.77083e-15,-29.9045,19.5641,79.8036,27.2157,-10.7545,1.19188,33.6589,7.12502,26.7315,61.7906,-20.2487,7.1564,19.1188,40.0122,-18.846,-7.26577,10.6313,-15.3644,3.02003,-20.5552,37.6269,-24.2518,13.1665,6.50294
10.821,17.7637,-18.2349,8.26428,-43.4577,-5.59341,5.20563,-0.260598,-1.9108,-0.574218,-0.339849,4.58573,-3.48183,-0.0997008,5.88382,-12.5692,2.62881,-8.65543,22.6182,3.21392,9.54135,8.77807,1.73886,5.08477,2.16675e-14,3.81667e-14,-38.686,-20.9519,-67.2061,32.8312,-14.2776,-11.597,17.0574,7.12502,14.4453,-12.4198,2.16675e-14,3.81667e-14,-29.8563,19.4675,79.7467,27.2081,-10.7924,0.524391,33.1896,7.12502,26.0926,61.4173,-20.3715,7.09914,19.0254,40.0687,-18.8506,-7.26556,11.0346,-15.4865,3.16439,-20.6275,37.6666,-24.1946,13.0401,9.90107
10.8243,17.7635,-18.2304,8.35605,-43.5427,-5.68072,5.18372,-0.254023,-1.84973,-0.52786,-0.329115,4.57377,-3.4228,-0.0978253,5.83397,-12.4402,2.46011,-8.78658,22.6715,3.00293,9.49084,8.79341,1.61872,5.06822,8.34896e-14,5.08889e-14,-38.6602,-21.0154,-67.3203,32.7603,-14.2922,-11.3621,17.1469,7.12502,14.6716,-12.314,8.34896e-14,5.08889e-14,-29.9216,19.8481,79.6016,27.3863,-11.0478,-0.237507,32.4601,7.12502,25.3629,60.7934,-20.4561,7.18323,19.0697,40.1195,-18.8538,-7.23848,11.0116,-15.521,3.10062,-20.5949,37.6887,-24.2058,13.241,6.09597
10.8273,17.7631,-18.2195,8.55048,-43.6998,-5.97894,5.16986,-0.278612,-1.66052,-0.493532,-0.350484,4.6443,-3.37748,-0.113721,5.80101,-12.4354,2.38334,-8.80174,23.0478,2.91944,9.30347,8.93493,1.54962,5.01404,-2.18166e-14,-1.59028e-14,-38.6207,-20.6843,-67.5191,32.7591,-14.6175,-11.1655,17.1919,7.12502,14.8611,-12.2551,-2.18166e-14,-1.59028e-14,-30.036,20.3246,79.3875,27.5856,-10.9988,-0.2143,32.2896,7.12502,25.3851,60.6197,-20.4857,7.32315,19.2628,40.1797,-18.8126,-7.19399,10.5954,-15.4752,2.96128,-20.4283,37.6811,-24.2369,13.5787,9.95836
10.8303,17.7617,-18.208,8.58364,-43.8916,-6.1044,5.17181,-0.225442,-1.53292,-0.453239,-0.273497,4.61911,-3.34589,-0.0792512,5.69427,-12.5838,2.27314,-8.73584,23.4938,2.74205,9.2787,9.13719,1.46212,5.00137,5.11871e-15,-8.74653e-15,-38.6914,-20.9878,-67.428,32.5717,-14.3293,-11.2273,17.2056,7.12502,14.8015,-12.2459,5.11871e-15,-8.74653e-15,-29.9581,20.1615,79.3701,27.461,-11.0659,-0.301359,32.2051,7.12502,25.3017,60.547,-20.4803,7.32283,19.3088,40.2621,-18.7648,-7.01336,10.8233,-15.3539,3.08727,-20.4002,37.6356,-24.2562,13.6562,6.6461
10.8327,17.7608,-18.1989,8.36515,-44.0141,-5.79735,5.11922,-0.175571,-1.70706,-0.388007,-0.222213,4.48283,-3.25387,-0.0537337,5.64388,-12.8479,2.15152,-8.72156,23.9984,2.52514,9.42184,9.3825,1.37116,5.05887,-4.9398e-14,-1.82882e-14,-38.7313,-21.4258,-67.2974,32.3533,-13.7367,-11.3785,17.1553,7.12502,14.6559,-12.3068,-4.9398e-14,-1.82882e-14,-29.809,19.8657,79.4451,27.2034,-11.6,-0.682276,31.7838,7.12502,24.9367,60.1768,-20.5434,7.08978,19.0265,40.3653,-18.6347,-6.8441,10.1778,-15.2669,3.30903,-20.6941,37.5684,-24.294,13.4908,10.2356
10.8332,17.7621,-18.1929,8.1604,-44.0934,-5.42686,5.06186,-0.190531,-2.03187,-0.367293,-0.263737,4.40282,-3.19459,-0.070329,5.74761,-12.8196,2.0315,-8.8281,24.4212,2.3546,9.40644,9.54237,1.26948,5.07308,-8.18496e-14,2.06736e-14,-38.7014,-21.1805,-67.393,32.2761,-13.8181,-11.4628,17.1061,7.12502,14.5747,-12.3618,-8.18496e-14,2.06736e-14,-29.7727,19.9527,79.383,27.1027,-11.9918,-0.420157,31.7017,7.12502,25.1879,60.0596,-20.667,6.89608,18.6947,40.4887,-18.5687,-6.64932,10.2104,-15.2507,3.47917,-21.0228,37.502,-24.3,13.3544,7.69533
10.834,17.7628,-18.1858,8.22402,-44.2197,-5.48471,5.05137,-0.204506,-2.04462,-0.387029,-0.282134,4.43466,-3.20695,-0.0785766,5.79024,-12.6106,1.90055,-8.9884,24.7957,2.19363,9.28389,9.65235,1.15235,5.05162,-2.2413e-14,2.78299e-14,-38.6807,-20.9862,-67.422,32.1448,-14.0008,-11.1958,17.2266,7.12502,14.8319,-12.2225,-2.2413e-14,2.78299e-14,-29.8226,20.1297,79.2787,27.0345,-11.9356,-0.147897,31.8958,7.12502,25.4487,60.2168,-20.7598,6.98337,18.6969,40.6092,-18.5823,-6.56707,10.6681,-15.2107,3.40692,-21.0403,37.4554,-24.3567,13.4984,10.7404
10.8362,17.7614,-18.1795,8.42355,-44.3296,-5.77579,5.08922,-0.172255,-1.85478,-0.383063,-0.227189,4.47284,-3.23094,-0.0541152,5.71798,-12.6605,1.73028,-9.06368,25.2643,1.9473,9.27269,9.85487,1.01844,5.05812,-6.11263e-15,-3.33958e-14,-38.73,-21.2506,-67.3127,31.9969,-13.7037,-11.0446,17.3801,7.12502,14.9776,-12.0582,-6.11263e-15,-3.33958e-14,-29.794,20.1813,79.2476,26.9964,-11.5652,-0.417282,32.1593,7.12502,25.1906,60.5169,-20.8288,7.17705,18.9031,40.7077,-18.5645,-6.72496,10.0469,-15.1965,3.32248,-20.858,37.4521,-24.4259,13.6159,7.46562
10.8386,17.7594,-18.1711,8.39695,-44.3897,-5.73723,5.08098,-0.168505,-1.87166,-0.359535,-0.224262,4.45536,-3.20218,-0.0534542,5.70845,-12.7532,1.52824,-9.11156,25.5962,1.67061,9.22645,10.0231,0.873238,5.03822,-8.91052e-14,-3.89618e-14,-38.7682,-21.2808,-67.2896,31.932,-13.26,-11.2269,17.349,7.12502,14.8019,-12.1023,-8.91052e-14,-3.89618e-14,-29.7298,20.3269,79.2028,27.0965,-11.055,-0.533494,32.6957,7.12502,25.0793,61.0689,-20.8714,7.14166,18.8447,40.7722,-18.5271,-6.75986,9.1857,-15.2196,3.47477,-20.9203,37.5212,-24.4451,13.569,10.8453
10.8415,17.7585,-18.1616,8.34535,-44.4667,-5.64731,5.05924,-0.191981,-1.94028,-0.359974,-0.259735,4.45983,-3.18616,-0.0702709,5.75501,-12.7968,1.34403,-9.20875,25.9093,1.43912,9.13521,10.1716,0.738529,5.01239,5.81445e-14,-3.33958e-14,-38.7583,-21.0749,-67.3409,31.9101,-13.1215,-11.2876,17.1851,7.12502,14.7434,-12.2706,5.81445e-14,-3.33958e-14,-29.732,20.5668,79.113,27.074,-11.0811,-0.598641,32.6645,7.12502,25.0169,61.0464,-20.929,7.09992,18.7419,40.8396,-18.3738,-6.80343,7.62667,-15.2369,3.57571,-21.0472,37.5833,-24.4433,13.6761,7.0888
10.8457,17.7577,-18.1611,8.75425,-44.496,-6.16365,5.17627,-0.197242,-1.70039,-0.396062,-0.24877,4.5816,-3.29133,-0.0660793,5.74789,-12.869,1.262,-9.33243,26.4546,1.29143,9.24998,10.3975,0.658065,5.08702,-2.34069e-14,-2.78299e-14,-38.7498,-21.1038,-67.3646,31.9029,-13.2147,-11.1147,17.2112,7.12502,14.91,-12.2322,-2.34069e-14,-2.78299e-14,-29.7788,20.6647,79.0475,26.923,-11.4471,-1.07269,31.8302,7.12502,24.5625,60.2746,-21.0468,7.31338,19.1389,40.9046,-18.231,-7.00461,6.7013,-15.361,3.66754,-20.6559,37.6497,-24.3794,13.7425,10.315
10.8483,17.7527,-18.1473,8.63533,-44.6637,-6.11617,5.27131,-0.192102,-1.79541,-0.338418,-0.249667,4.54953,-3.28469,-0.0661018,5.76914,-12.8784,1.26948,-9.33973,26.9739,1.23738,9.35911,10.594,0.630748,5.1477,8.05575e-14,4.77083e-15,-38.701,-20.9091,-67.5505,31.9818,-13.7333,-10.8665,17.2741,7.12502,15.1491,-12.1515,8.05575e-14,4.77083e-15,-29.8149,20.8144,78.9364,26.8262,-11.6023,-1.41806,31.2113,7.12502,24.2314,59.7003,-20.9933,7.32331,19.0448,41.003,-18.332,-6.88953,7.11695,-15.2189,3.58712,-20.7785,37.6558,-24.4612,13.9625,6.7843
10.8531,17.7487,-18.1348,8.55239,-44.6927,-6.0054,5.23543,-0.242651,-1.82493,-0.280182,-0.322208,4.4923,-3.19581,-0.105004,5.72957,-12.8732,1.20193,-9.31232,27.2989,1.11301,9.34205,10.7284,0.564601,5.13813,8.69186e-14,1.35174e-14,-38.6683,-20.2946,-67.8883,32.2068,-14.5957,-11.0053,17.0724,7.12502,15.0154,-12.3632,8.69186e-14,1.35174e-14,-29.6094,20.8622,78.8448,26.5382,-11.5593,-1.48586,31.042,7.12502,24.1664,59.5396,-21.0336,7.19511,18.9233,41.1256,-18.4706,-6.73473,8.88839,-15.1875,3.29039,-20.933,37.6453,-24.5849,14.1184,11.3907
10.858,17.7463,-18.1265,8.35259,-44.6966,-5.70863,5.18252,-0.255485,-1.94387,-0.203934,-0.351074,4.37261,-3.0835,-0.121458,5.67118,-12.6361,1.0213,-9.63143,27.3591,0.84416,9.54681,10.7291,0.424778,5.23677,1.23246e-14,-8.74653e-15,-38.6534,-20.188,-67.9936,32.2729,-14.7087,-11.2563,17.0088,7.12502,14.7736,-12.4446,1.23246e-14,-8.74653e-15,-29.2799,20.8603,78.7955,26.2297,-11.7235,-1.5375,30.9462,7.12502,24.1169,59.4504,-21.0961,6.96536,18.6641,41.2943,-18.6201,-6.39212,11.512,-15.1437,3.17292,-21.2082,37.5736,-24.6542,14.108,8.42017
10.8617,17.747,-18.1238,8.25975,-44.7608,-5.55788,5.18179,-0.24829,-2.06998,-0.115454,-0.352894,4.29067,-2.99081,-0.12414,5.6556,-12.3722,0.86278,-9.78378,27.2625,0.62009,9.58272,10.666,0.306369,5.24027,9.62615e-14,-2.78299e-14,-38.531,-20.6747,-67.9227,32.104,-14.1312,-11.1545,17.1908,7.12502,14.8716,-12.2555,9.62615e-14,-2.78299e-14,-29.1756,21.2919,78.6185,26.3945,-11.9111,-1.11901,31.4177,7.12502,24.5181,59.8681,-21.2134,6.75656,18.5616,41.4585,-18.6243,-6.33506,11.7224,-15.1282,3.25939,-21.3507,37.5227,-24.6684,14.0679,11.8534
10.8664,17.7488,-18.1182,8.25825,-44.8824,-5.53412,5.18159,-0.262909,-2.13064,0.00348792,-0.380852,4.20574,-2.86429,-0.142444,5.60092,-12.6135,0.794008,-9.45395,27.4297,0.504669,9.39387,10.7947,0.265281,5.11215,2.43014e-14,-3.97569e-14,-38.3103,-20.9773,-68.0697,32.0248,-13.8481,-10.8616,17.3369,7.12502,15.1538,-12.0883,2.43014e-14,-3.97569e-14,-29.1011,21.6344,78.4108,26.7296,-11.6629,-0.646551,32.1135,7.12502,24.9709,60.5018,-21.3708,6.53529,18.5924,41.6096,-18.4552,-6.59079,9.42543,-15.1319,3.30807,-21.4174,37.5125,-24.6744,14.2001,7.7678
10.8715,17.7493,-18.1106,8.40082,-45.0454,-5.67759,5.18099,-0.242218,-2.08155,0.0615794,-0.352317,4.1897,-2.8073,-0.131341,5.55287,-12.8364,0.711187,-9.35392,27.7993,0.355464,9.39125,10.9963,0.201397,5.09903,-1.29707e-14,-3.06128e-14,-38.1925,-20.769,-68.3316,32.1399,-14.1508,-10.7557,17.3326,7.12502,15.2558,-12.0849,-1.29707e-14,-3.06128e-14,-29.0113,21.6332,78.3771,26.6795,-11.9566,-0.971645,31.6759,7.12502,24.6594,60.1071,-21.5169,6.41868,18.722,41.7323,-18.3505,-6.69442,8.7745,-15.1769,3.31288,-21.3725,37.5649,-24.7578,14.3829,10.1589
10.8757,17.7494,-18.112,8.75836,-45.0887,-5.99498,5.21369,-0.213801,-2.01645,0.0126488,-0.307578,4.28776,-2.88134,-0.107289,5.61709,-12.6619,0.562704,-9.51755,27.9625,0.13823,9.43262,11.0476,0.0809702,5.1217,-4.01048e-14,-2.50469e-14,-38.2304,-20.4919,-68.4427,32.348,-14.4562,-10.8262,17.2112,7.12502,15.1879,-12.2114,-4.01048e-14,-2.50469e-14,-28.931,21.6686,78.4439,26.744,-11.6329,-0.987925,32.0578,7.12502,24.6438,60.4912,-21.7316,6.46561,18.9846,41.8489,-18.3434,-6.79743,9.94495,-15.3867,3.35837,-21.1323,37.6468,-24.7963,14.3521,7.53078
10.8796,17.7484,-18.1155,9.03846,-45.1182,-6.30721,5.2777,-0.183859,-1.91725,0.0582694,-0.262638,4.31286,-2.87539,-0.0873395,5.58366,-12.6819,0.430881,-9.42467,28.0327,-0.0699394,9.3968,11.1037,-0.0105167,5.07068,-1.0138e-14,1.78906e-14,-38.2339,-20.5342,-68.5285,32.5849,-14.5355,-10.6724,17.1757,7.12502,15.3361,-12.2356,-1.0138e-14,1.78906e-14,-28.6078,21.702,78.4441,27.1907,-9.89687,-0.197557,34.2311,7.12502,25.4011,62.5589,-21.8729,6.54916,19.245,41.9895,-18.3664,-6.85228,11.2216,-15.5227,3.54455,-20.8742,37.7139,-24.7288,14.2238,10.9596
10.8831,17.746,-18.1074,9.01502,-45.4129,-6.35483,5.34,-0.108614,-1.94637,0.154871,-0.16737,4.27028,-2.82088,-0.0423675,5.54772,-12.8141,0.340822,-9.35247,28.1781,-0.216367,9.39374,11.2034,-0.0714212,5.04873,8.78131e-14,2.50469e-14,-38.237,-20.4857,-68.5979,32.8322,-14.702,-10.4627,17.2111,7.12502,15.5381,-12.1846,8.78131e-14,2.50469e-14,-28.3397,21.7321,78.3854,27.2441,-9.28548,0.0474699,35.0381,7.12502,25.6358,63.3323,-21.9218,6.5737,19.2428,42.1681,-18.4094,-6.59802,12.5148,-15.4453,3.76079,-20.9088,37.7583,-24.8064,14.2454,8.2146
10.8852,17.7447,-18.094,8.85435,-45.7383,-6.17041,5.44635,-0.0627621,-2.24375,0.110986,-0.121818,4.32093,-2.93082,-0.0118727,5.77053,-12.6879,0.290624,-9.62466,28.418,-0.278918,9.47916,11.2762,-0.128749,5.13071,5.43179e-14,1.51076e-14,-38.3429,-20.1679,-68.5013,33.0162,-14.8789,-10.4278,17.2188,7.12502,15.5716,-12.1743,5.43179e-14,1.51076e-14,-28.4612,21.8828,78.3598,27.0815,-9.51554,-0.187081,34.6753,7.12502,25.4112,63.0016,-21.9913,6.52893,19.0501,42.3652,-18.4759,-6.2821,13.6505,-15.3518,3.8908,-21.1644,37.7894,-24.964,14.4062,11.0851
10.8892,17.7455,-18.0934,8.89078,-45.8373,-6.09939,5.47903,-0.107454,-2.48284,0.0850668,-0.194386,4.38885,-2.96693,-0.0430254,5.98664,-12.541,0.235728,-9.88508,28.4971,-0.340603,9.55895,11.2836,-0.181782,5.20053,-8.89561e-14,4.77083e-15,-38.2318,-19.6958,-68.6758,33.1447,-15.1448,-10.7387,17.169,7.12502,15.2722,-12.2472,-8.89561e-14,4.77083e-15,-28.5549,22.1372,78.3226,27.0961,-9.41223,-0.468612,34.4977,7.12502,25.1414,62.8622,-22.1652,6.57167,18.9832,42.553,-18.5846,-6.10645,15.6188,-15.4566,4.0782,-21.2557,37.8284,-24.9569,14.4096,7.47208
10.8966,17.7442,-18.0968,9.11994,-45.9469,-6.2865,5.41928,-0.130481,-2.37686,0.199678,-0.222812,4.33486,-2.81139,-0.0650862,5.8682,-12.3462,0.140139,-9.97606,28.2174,-0.50704,9.72404,11.1562,-0.246057,5.24163,4.35338e-14,1.63003e-14,-37.9684,-19.548,-69.0559,33.2579,-15.2782,-11.1277,17.1557,7.12502,14.8974,-12.2887,4.35338e-14,1.63003e-14,-28.3762,22.2181,78.1905,27.1252,-9.31446,-0.644775,34.2768,7.12502,24.9726,62.6648,-22.381,6.70702,19.1225,42.7221,-18.5961,-6.07918,17.1152,-15.6309,4.21001,-21.1339,37.9085,-24.8896,14.4247,12.8551
10.9048,17.7445,-18.093,9.4558,-46.138,-6.69696,5.46824,-0.115597,-2.06455,0.27789,-0.187659,4.28493,-2.76289,-0.0547681,5.6328,-12.2654,0.120778,-9.83,28.1722,-0.584647,9.74095,11.1314,-0.265772,5.20882,7.84702e-14,1.19271e-15,-37.8936,-19.7969,-69.1689,33.3624,-15.1154,-10.9852,17.3555,7.12502,15.0348,-12.0786,7.84702e-14,1.19271e-15,-28.2411,22.2662,77.9586,27.3292,-8.92078,-0.148374,34.7835,7.12502,25.4482,63.1046,-22.5912,6.82455,19.4415,42.8704,-18.3673,-6.37493,15.8516,-15.7277,4.2851,-20.8751,37.9822,-24.8566,14.5471,10.6107
10.9126,17.7473,-18.0994,9.81551,-46.2212,-7.00372,5.63606,-0.139788,-2.01945,0.210673,-0.214383,4.34321,-2.92381,-0.0640775,5.6739,-12.4158,0.139399,-9.61961,28.4425,-0.558249,9.53766,11.2631,-0.259328,5.11314,-1.2921e-14,3.53837e-14,-37.9365,-19.6283,-69.2559,33.6433,-15.2501,-10.5843,17.5044,7.12502,15.4209,-11.9004,-1.2921e-14,3.53837e-14,-28.1839,22.4831,77.766,27.2747,-8.96962,0.0971501,34.8128,7.12502,25.6834,63.1002,-22.9181,6.94613,19.7197,42.9648,-18.0613,-6.73884,13.7617,-15.9276,4.47968,-20.6482,37.955,-24.7237,14.5129,12.1544
10.915,17.7469,-18.0869,9.7161,-46.4855,-6.787,5.67259,-0.149132,-2.33277,0.174561,-0.245057,4.36826,-2.97719,-0.0727648,5.88406,-12.3083,0.153289,-9.86421,28.534,-0.53043,9.64666,11.2723,-0.265942,5.20371,-5.61567e-15,-1.03368e-14,-37.991,-18.9667,-69.3686,34.0196,-15.5825,-10.6266,17.3632,7.12502,15.3801,-12.0448,-5.61567e-15,-1.03368e-14,-28.0385,22.6528,77.676,26.7261,-9.4714,-0.282916,33.9091,7.12502,25.3194,62.2485,-23.0742,6.80622,19.5169,43.1163,-17.9233,-6.58018,11.841,-15.9044,4.57731,-20.919,37.9595,-24.8325,14.6543,9.91869
10.895,17.7324,-17.9684,9.12993,-48.5619,-7.17689,5.35001,0.30702,-1.73509,0.755538,0.378895,4.24993,-2.2637,0.204912,5.35911,-11.981,0.250223,-10.2812,28.4646,-0.387563,9.86961,11.1594,-0.226692,5.36954,8.37877e-14,-6.75868e-15,-37.7949,-18.4152,-69.5135,34.1296,-15.4508,-11.1193,17.1387,7.12502,14.9055,-12.305,8.37877e-14,-6.75868e-15,-28.0102,22.9261,77.5138,26.4147,-9.53353,-0.558162,33.443,7.12502,25.0556,61.8195,-22.1756,7.55067,19.2762,43.2531,-17.8529,-5.60541,9.88066,-14.3014,3.22794,-21.5552,37.9026,-26.3085,17.3663,15.3652
10.9233,17.7431,-18.0728,9.7612,-46.7981,-6.73139,5.64945,-0.406122,-2.59466,0.22181,-0.60529,4.46626,-2.86867,-0.252942,6.16644,-11.7405,0.343432,-10.5615,28.3581,-0.247555,10.0049,11.0504,-0.181247,5.47638,2.04748e-14,-1.19271e-15,-37.3096,-18.2577,-69.8091,34.0406,-15.0839,-11.3459,17.0789,7.12502,14.6872,-12.3809,2.04748e-14,-1.19271e-15,-28.2444,23.494,77.2447,26.6387,-9.44178,-0.666871,33.5893,7.12502,24.9515,61.9803,-23.3988,6.60711,19.3969,43.4693,-17.6671,-6.45247,10.8207,-15.9494,4.8316,-21.0732,37.9797,-25.0485,14.545,8.36197
10.9276,17.7366,-18.0697,9.72769,-46.9671,-6.60111,5.60484,-0.49622,-2.77296,0.343907,-0.740813,4.41815,-2.69824,-0.325563,6.22539,-11.9955,0.400131,-10.6536,28.5115,-0.165815,10.1374,11.1484,-0.137909,5.56605,-2.18663e-15,4.25399e-14,-36.8352,-18.1907,-70.1101,34.0419,-14.9791,-11.2307,17.2013,7.12502,14.7983,-12.2503,-2.18663e-15,4.25399e-14,-28.3525,24.1067,77.0203,26.932,-9.35633,-0.589216,34.0309,7.12502,25.0259,62.4115,-23.5647,6.79309,19.2106,43.6477,-17.6091,-6.20829,12.6783,-16.0246,5.08166,-21.2221,38.0256,-25.0957,14.5107,11.3857
