JuanDHNZ/ProyectoFinalCD/preprocessing/sports_trials_csv/10_04.csv
root1,root2,root3,root4,root5,root6,lowerback1,lowerback2,lowerback3,upperback1,upperback2,upperback3,thorax1,thorax2,thorax3,lowerneck1,lowerneck2,lowerneck3,upperneck1,upperneck2,upperneck3,head1,head2,head3,rclavicle1,rclavicle2,rhumerus1,rhumerus2,rhumerus3,rradius1,rwrist1,rhand1,rhand2,rfingers1,rthumb1,rthumb2,lclavicle1,lclavicle2,lhumerus1,lhumerus2,lhumerus3,lradius1,lwrist1,lhand1,lhand2,lfingers1,lthumb1,lthumb2,rfemur1,rfemur2,rfemur3,rtibia1,rfoot1,rfoot2,rtoes1,lfemur1,lfemur2,lfemur3,ltibia1,lfoot1,lfoot2,ltoes1
-1.08615,18.2954,-36.0871,3.05534,-0.995938,-0.48221,2.81578,-0.802097,-3.73385,-1.86149,-1.12635,3.42981,-3.3668,-0.432054,5.73065,-6.74525,-12.5153,-20.7516,14.9978,-16.8416,13.4612,8.72023,-8.2911,5.86242,1.70209e-15,2.38542e-15,-36.5087,-18.4411,-72.2613,24.2489,-7.55133,-13.036,16.9878,7.12502,13.0585,-12.5835,1.70209e-15,2.38542e-15,-35.7151,19.9488,79.2761,23.7473,-12.0322,0.325571,32.616,7.12502,25.9022,60.8716,-10.2882,0.597322,21.8668,30.777,0,0,0,-8.73715,-4.87897,-19.8547,27.7207,0,0,0
-1.09731,18.2988,-36.0935,3.26605,-0.778442,-0.465023,2.87424,-1.01861,-3.90086,-2.33829,-1.41812,3.55918,-3.85373,-0.546973,5.99099,-5.335,-12.0792,-21.3412,14.6563,-16.4703,13.7467,8.367,-8.19284,6.19313,-1.25483e-15,1.19271e-14,-37.1746,-17.614,-72.1784,24.2944,-7.70363,-11.5849,17.6494,7.12502,14.4569,-11.827,-1.25483e-15,1.19271e-14,-36.7061,20.0175,79.0831,24.0864,-11.8032,0.346879,32.7921,7.12502,25.9226,61.0447,-10.5434,0.592289,21.9187,30.7948,0,0,0,-9.07428,-4.86117,-19.7735,27.8014,0,0,0
-1.09661,18.2978,-36.0782,3.2202,-1.0928,-0.376873,2.99528,-0.799134,-3.84013,-2.01827,-1.13209,3.38583,-3.63003,-0.42177,5.75306,-6.76192,-12.4633,-20.8183,15.0096,-16.7815,13.5763,8.73338,-8.25829,5.92211,2.51587e-15,1.90833e-14,-36.5822,-18.1676,-72.4337,24.3084,-7.69437,-10.8794,17.5849,7.12502,15.1366,-11.8416,2.51587e-15,1.90833e-14,-35.8031,19.7767,79.3549,24.0314,-11.7379,0.298055,33.0937,7.12502,25.8758,61.3531,-10.4833,0.764278,21.7816,30.8423,0,0,0,-8.93426,-4.83915,-19.9312,27.7883,0,0,0
-1.10365,18.2985,-36.0777,3.28421,-0.947022,-0.331556,3.34938,-1.04075,-4.06778,-2.81488,-1.46708,3.54146,-4.61354,-0.531708,6.09817,-4.46139,-11.7583,-21.5649,14.6969,-16.2066,13.842,8.20411,-8.1166,6.35476,-5.44173e-15,-4.77083e-15,-37.9372,-16.8797,-72.2053,24.5148,-7.95558,-10.7457,17.4802,7.12502,15.2655,-11.9365,-5.44173e-15,-4.77083e-15,-37.6499,19.7783,78.9101,24.3878,-11.4282,0.185798,33.3448,7.12502,25.7683,61.6199,-10.5454,0.774304,21.7753,30.8749,0,0,0,-9.02084,-4.79144,-19.9286,27.7795,0,0,0
-1.11192,18.2975,-36.0791,3.28667,-0.671547,-0.302559,3.6119,-0.942317,-3.95857,-2.51349,-1.34565,3.33803,-4.46894,-0.489424,5.81186,-5.88199,-12.2497,-20.9219,15.1343,-16.6852,13.6679,8.61846,-8.25595,6.03835,6.86739e-15,6.36111e-15,-37.3307,-18.0057,-72.2845,24.3388,-7.56668,-10.6891,17.6342,7.12502,15.32,-11.7784,6.86739e-15,6.36111e-15,-36.677,18.9658,79.3781,24.532,-11.1697,-0.00630854,33.0468,7.12502,25.5843,61.3484,-10.5403,0.591783,21.7974,30.9088,0,0,0,-9.02693,-4.74998,-19.9005,27.7264,0,0,0
-1.11659,18.2966,-36.0739,3.2971,-0.623022,-0.266565,3.62082,-1.05201,-4.08486,-2.67799,-1.49587,3.42936,-4.62263,-0.550212,5.9959,-5.26227,-12.0607,-21.1707,15.0959,-16.5009,13.6004,8.47736,-8.21605,6.11858,-1.30825e-14,6.36111e-15,-37.5721,-17.6389,-72.1796,24.3553,-7.42936,-10.7741,17.4557,7.12502,15.2381,-11.9631,-1.30825e-14,6.36111e-15,-37.174,18.817,79.4774,24.838,-10.9202,-0.133525,32.8461,7.12502,25.4625,61.1651,-10.5366,0.506009,21.7796,30.928,0,0,0,-9.00129,-4.80489,-19.9262,27.6833,0,0,0
-1.12076,18.2977,-36.0636,3.35747,-0.614496,-0.236909,3.4215,-1.09641,-4.1444,-2.55423,-1.55135,3.48415,-4.3695,-0.586168,6.08191,-5.58191,-12.104,-21.1967,15.1504,-16.4692,13.4689,8.5372,-8.19643,6.06315,2.04375e-15,8.74653e-15,-37.2056,-17.606,-72.2414,24.3411,-7.31019,-10.4162,17.8694,7.12502,15.5828,-11.5228,2.04375e-15,8.74653e-15,-36.8366,18.7994,79.7648,24.8654,-10.8692,-0.199158,32.9998,7.12502,25.3996,61.3278,-10.5655,0.548359,21.7781,30.937,0,0,0,-9.00965,-4.89773,-19.9412,27.6606,0,0,0
-1.12561,18.2987,-36.0566,3.42913,-0.682819,-0.258026,3.27599,-1.08898,-4.18753,-2.66593,-1.53769,3.52083,-4.40398,-0.573698,6.14297,-4.84223,-11.9548,-21.3008,14.8559,-16.3825,13.5203,8.30503,-8.18907,6.15288,6.10642e-15,-2.38542e-15,-37.3515,-17.2472,-72.3198,24.4486,-7.5997,-11.0297,16.7775,7.12502,14.9919,-12.6598,6.10642e-15,-2.38542e-15,-37.0095,18.673,79.8412,24.9375,-10.8014,-0.245484,33.1489,7.12502,25.3552,61.4833,-10.6251,0.684508,21.8204,30.9319,0,0,0,-9.04156,-4.87173,-19.8969,27.6311,0,0,0
-1.13095,18.2985,-36.0613,3.54598,-1.09002,-0.346536,3.27918,-0.896508,-4.14013,-2.60615,-1.27777,3.5141,-4.37965,-0.447681,6.09082,-5.11934,-12.0756,-21.1407,14.9221,-16.5038,13.4467,8.37757,-8.22999,6.06754,-8.35517e-16,-7.95139e-16,-37.112,-17.3101,-72.4409,24.4323,-7.80371,-11.0165,16.9543,7.12502,15.0046,-12.482,-8.35517e-16,-7.95139e-16,-36.5974,18.5042,80.0528,24.9437,-10.6973,-0.223691,33.4686,7.12502,25.3761,61.8,-10.8225,0.979609,21.8953,30.9341,0,0,0,-9.1531,-4.68941,-19.8191,27.6304,0,0,0
-1.13929,18.2979,-36.0464,3.51692,-0.447628,-0.285429,3.17144,-1.17322,-4.26259,-2.67229,-1.64948,3.57333,-4.33292,-0.628527,6.24532,-4.56968,-11.9307,-21.2727,14.7488,-16.3841,13.4528,8.21266,-8.20369,6.1406,1.42255e-15,6.36111e-15,-37.2007,-17.2821,-72.2522,24.1959,-7.47214,-10.0601,18.9228,7.12502,15.9257,-10.4424,1.42255e-15,6.36111e-15,-36.7866,18.552,80.0912,25.1392,-10.5213,-0.0821294,33.4307,7.12502,25.5117,61.7428,-10.6486,0.821067,21.9474,30.9186,0,0,0,-9.12907,-5.02305,-19.7918,27.6365,0,0,0
-1.14255,18.2973,-36.042,3.50357,-0.929246,-0.267603,3.06012,-0.992279,-4.28047,-2.53751,-1.40666,3.53235,-4.16276,-0.516174,6.19035,-4.47749,-11.96,-21.2187,14.5289,-16.4364,13.5068,8.13308,-8.22381,6.14756,1.08089e-15,-5.08889e-14,-36.9312,-17.4519,-72.3214,24.1807,-7.44794,-10.5917,18.3705,7.12502,15.4138,-11.0348,1.08089e-15,-5.08889e-14,-36.511,18.5434,80.1718,25.2038,-10.5039,0.115335,32.8442,7.12502,25.7008,61.129,-10.6675,1.16672,21.9018,30.9209,0,0,0,-9.03387,-4.91542,-19.8771,27.6314,0,0,0
-1.14555,18.2959,-36.0353,3.51925,-1.04442,-0.296722,3.08958,-0.956409,-4.1881,-2.50638,-1.35565,3.51209,-4.15594,-0.494739,6.11291,-4.57043,-11.9658,-21.2549,14.5644,-16.4353,13.5623,8.16944,-8.21781,6.16687,-1.56093e-14,1.74931e-14,-36.7626,-17.4751,-72.3738,24.1884,-7.47934,-10.6507,18.1739,7.12502,15.357,-11.2358,-1.56093e-14,1.74931e-14,-36.4083,18.5712,80.1856,25.203,-10.5774,0.164424,32.492,7.12502,25.7479,60.7701,-10.6615,1.26413,21.9386,30.8938,0,0,0,-8.99597,-4.95817,-19.8626,27.6245,0,0,0
-1.14989,18.2951,-36.0281,3.56904,-1.1227,-0.263766,3.21311,-0.95579,-4.16093,-2.49894,-1.35798,3.48733,-4.21898,-0.495249,6.07468,-5.08405,-12.0294,-21.2398,14.897,-16.4379,13.4838,8.36327,-8.20311,6.10792,-3.04871e-14,1.03368e-14,-36.5377,-17.5524,-72.4038,24.1619,-7.26488,-10.4007,18.302,7.12502,15.5977,-11.0891,-3.04871e-14,1.03368e-14,-36.3412,18.5355,80.2681,25.4334,-10.5623,0.215518,32.7364,7.12502,25.7968,61.0073,-10.6685,1.25254,21.9022,30.8502,0,0,0,-9.01439,-5.01094,-19.9052,27.6462,0,0,0
-1.15794,18.2988,-36.0269,3.60846,-1.20145,-0.34858,3.32986,-1.09204,-4.2606,-2.96605,-1.54001,3.67706,-4.74478,-0.551257,6.36167,-3.47735,-11.5125,-21.835,14.6119,-15.9976,13.6462,7.96911,-8.08755,6.4162,2.01269e-14,-6.59965e-14,-37.2709,-16.8567,-72.0582,24.1281,-6.80408,-10.2187,18.7045,7.12502,15.773,-10.6728,2.01269e-14,-6.59965e-14,-37.5279,18.4931,80.1982,26.0683,-10.1422,0.262887,33.285,7.12502,25.8421,61.5494,-10.6745,1.3818,22.0304,30.7753,0,0,0,-9.05029,-5.07171,-19.794,27.647,0,0,0
-1.16166,18.3017,-36.022,3.61708,-1.29391,-0.464116,3.24181,-0.900776,-3.99645,-2.64411,-1.27393,3.53218,-4.40059,-0.44852,6.02718,-4.36397,-11.8748,-21.3089,14.7282,-16.3532,13.512,8.17226,-8.19658,6.18364,7.47617e-15,-1.51076e-14,-36.6601,-17.2737,-72.4675,24.3538,-7.4334,-10.6253,18.2367,7.12502,15.3814,-11.1712,7.47617e-15,-1.51076e-14,-36.6512,17.5647,80.7374,26.3526,-9.59283,0.145243,33.5763,7.12502,25.7295,61.857,-10.6465,1.48374,22.1699,30.7034,0,0,0,-9.01483,-5.17836,-19.6784,27.6059,0,0,0
-1.1622,18.2998,-36.0009,3.52485,-1.47176,-0.439949,3.10972,-0.911357,-4.03438,-2.62452,-1.28498,3.57763,-4.30205,-0.455702,6.09357,-4.14055,-11.7796,-21.4034,14.6231,-16.2263,13.4092,8.07367,-8.15682,6.19518,2.11706e-14,2.54444e-14,-36.5944,-16.7246,-72.6366,24.497,-7.91975,-10.7412,18.2125,7.12502,15.2698,-11.2039,2.11706e-14,2.54444e-14,-36.7045,17.8984,80.6275,26.0104,-9.83655,0.0418022,33.2547,7.12502,25.6304,61.5496,-10.4652,1.5584,22.1259,30.6806,0,0,0,-8.78902,-5.2832,-19.7733,27.5904,0,0,0
-1.17895,18.3019,-35.9962,3.54149,-0.865834,-0.263975,3.19111,-1.10321,-4.31737,-2.54244,-1.55975,3.57296,-4.21946,-0.588928,6.26809,-4.66451,-11.9087,-21.2898,14.6821,-16.2878,13.2756,8.17525,-8.16476,6.09163,1.54524e-14,2.94201e-14,-36.2189,-16.5824,-72.8707,24.7034,-8.09906,-10.7789,17.9536,7.12502,15.2335,-11.4656,1.54524e-14,2.94201e-14,-36.4375,17.5583,80.9333,26.3063,-9.58073,0.258365,33.7213,7.12502,25.8378,61.9862,-10.3645,1.40897,22.0686,30.6464,0,0,0,-8.83087,-5.55401,-19.8445,27.5562,0,0,0
-1.17803,18.3001,-35.9994,3.84771,-1.41065,-0.283538,3.048,-0.914256,-4.19058,-2.51383,-1.29828,3.50904,-4.14798,-0.466184,6.10666,-5.25226,-12.0729,-21.1199,14.7647,-16.4008,13.1713,8.3028,-8.18987,5.9777,-6.86428e-15,-6.36111e-15,-35.8864,-16.5614,-73.1346,24.9491,-8.24411,-10.6991,17.832,7.12502,15.3103,-11.5813,-6.86428e-15,-6.36111e-15,-35.9458,17.2873,81.1916,26.4316,-9.3,0.142201,34.4003,7.12502,25.7266,62.6814,-10.789,1.54473,21.9985,30.6628,0,0,0,-9.12326,-5.4192,-19.8888,27.5539,0,0,0
-1.18544,18.3019,-35.9909,3.84001,-0.941994,-0.399529,3.22558,-1.07519,-4.01096,-2.54728,-1.50858,3.53235,-4.25816,-0.572009,6.04727,-5.50078,-12.1255,-21.0354,14.9421,-16.4168,12.9991,8.3857,-8.19482,5.88888,-6.30831e-15,-2.78299e-14,-35.8218,-16.4418,-73.2282,25.1083,-8.34699,-10.6223,18.1271,7.12502,15.3843,-11.2805,-6.30831e-15,-2.78299e-14,-35.7601,17.554,81.0667,26.0362,-9.35435,-0.326189,33.2792,7.12502,25.2779,61.6245,-10.6743,1.45163,22.2232,30.6276,0,0,0,-9.12279,-5.71105,-19.6792,27.5611,0,0,0
-1.18666,18.3095,-35.9969,4.20844,-1.44856,-0.409703,3.02433,-0.920337,-3.99352,-2.63087,-1.29491,3.51818,-4.26047,-0.46413,6.00527,-5.65606,-12.172,-20.8989,15.0999,-16.4405,12.7907,8.43891,-8.20705,5.78418,8.85213e-16,1.11319e-14,-35.6585,-16.4486,-73.2707,25.2346,-8.30924,-10.6246,18.2803,7.12502,15.3821,-11.1275,8.85213e-16,1.11319e-14,-35.5617,17.6439,81.0852,25.9073,-9.37754,-0.194891,32.8427,7.12502,25.4037,61.1702,-11.1614,1.64039,22.1492,30.5985,0,0,0,-9.52272,-5.61983,-19.6944,27.6082,0,0,0
-1.19168,18.3094,-35.9845,4.0634,-1.00387,-0.36039,3.05216,-1.0593,-4.00592,-2.50795,-1.48388,3.49705,-4.12258,-0.565612,5.99885,-5.72196,-12.1803,-20.8299,15.0735,-16.4478,12.8123,8.43867,-8.20207,5.77678,2.13072e-15,1.51076e-14,-35.3852,-16.4159,-73.4079,25.4008,-8.46253,-10.8231,17.9586,7.12502,15.1909,-11.4638,2.13072e-15,1.51076e-14,-35.3769,17.5118,81.2231,26.0122,-9.37992,-0.0358105,32.3951,7.12502,25.5561,60.7008,-10.8438,1.39196,22.1604,30.488,0,0,0,-9.37802,-5.87914,-19.6921,27.6414,0,0,0
-1.19815,18.3078,-35.9771,4.01886,-0.892654,-0.433457,3.11515,-1.09261,-3.94794,-2.49546,-1.52647,3.51948,-4.1403,-0.587985,5.99359,-5.68137,-12.1074,-20.9162,14.9982,-16.3761,13.0156,8.41962,-8.16074,5.8743,3.75268e-14,-4.85035e-14,-35.2045,-16.2553,-73.547,25.5177,-8.91316,-11.2965,17.3684,7.12502,14.7349,-12.0879,3.75268e-14,-4.85035e-14,-35.3379,17.3833,81.3088,26.0436,-9.31144,-0.35378,31.8452,7.12502,25.2515,60.1942,-10.7017,1.43075,22.2924,30.3993,0,0,0,-9.3343,-5.97412,-19.5875,27.6907,0,0,0
-1.21043,18.31,-35.9778,4.09312,-0.767134,-0.597352,3.17091,-1.12256,-3.83295,-2.54073,-1.56049,3.55471,-4.21643,-0.604504,5.9701,-5.59337,-12.0541,-20.9977,14.9501,-16.3438,13.2133,8.40734,-8.14062,5.96537,2.33075e-14,-1.51076e-14,-35.0664,-16.2222,-73.6484,25.5862,-9.16904,-10.6555,18.2701,7.12502,15.3523,-11.14,2.33075e-14,-1.51076e-14,-35.3877,17.0829,81.4264,26.3752,-9.1018,-0.401357,32.2132,7.12502,25.2059,60.5686,-10.7245,1.63564,22.5669,30.2948,0,0,0,-9.44455,-5.93628,-19.3237,27.7041,0,0,0
-1.22125,18.3132,-35.9761,4.1765,-0.773002,-0.654931,3.05231,-1.10341,-3.79806,-2.43934,-1.53144,3.53706,-4.04794,-0.598744,5.9231,-5.84583,-12.0911,-21.0005,15.0317,-16.3829,13.3762,8.50191,-8.13771,6.00169,-2.16862e-14,-1.35174e-14,-34.7858,-16.185,-73.8672,25.8438,-9.1057,-10.7616,18.2593,7.12502,15.2501,-11.1585,-2.16862e-14,-1.35174e-14,-35.2513,16.5506,81.7313,26.9922,-8.63165,-0.133559,33.2742,7.12502,25.4624,61.5933,-10.7671,1.83523,22.6894,30.2063,0,0,0,-9.55861,-5.85449,-19.1946,27.7265,0,0,0
-1.22581,18.3121,-35.9647,4.12991,-0.814855,-0.636261,2.95337,-1.08351,-3.80211,-2.31659,-1.50454,3.50343,-3.86774,-0.593865,5.88198,-6.12831,-12.1281,-20.9234,15.1709,-16.3978,13.3647,8.59365,-8.12965,5.96835,-6.72141e-15,2.94201e-14,-34.63,-16.2065,-73.9297,26.1076,-9.4233,-10.552,18.2016,7.12502,15.4521,-11.2008,-6.72141e-15,2.94201e-14,-34.8631,16.3283,81.9406,26.99,-8.3264,-0.150562,33.9356,7.12502,25.4462,62.257,-10.6304,1.88208,22.6781,30.1392,0,0,0,-9.47825,-5.89987,-19.2159,27.7522,0,0,0
-1.22858,18.3103,-35.9523,4.09393,-0.816748,-0.747277,2.89825,-1.07313,-3.65533,-2.31945,-1.48238,3.49986,-3.84537,-0.587517,5.79128,-5.97946,-12.1472,-20.7686,15.2007,-16.4327,13.1376,8.54839,-8.15998,5.86937,8.51047e-15,-1.82882e-14,-34.6883,-15.9463,-74.0935,26.519,-10.014,-10.667,17.9155,7.12502,15.3413,-11.4954,8.51047e-15,-1.82882e-14,-34.8664,16.258,81.9261,26.9579,-8.26638,-0.365355,33.0508,7.12502,25.2404,61.4014,-10.5227,1.84921,22.8068,30.11,0,0,0,-9.39757,-5.95918,-19.1038,27.7518,0,0,0
-1.23426,18.3096,-35.9479,4.18895,-0.879148,-0.757132,2.80815,-1.03956,-3.67407,-2.38812,-1.43597,3.49287,-3.87159,-0.561665,5.79103,-5.7439,-12.1589,-20.7007,15.2083,-16.4835,13.0191,8.50107,-8.19878,5.82338,-1.00883e-14,1.43125e-14,-34.7271,-15.6628,-74.2323,26.8583,-10.375,-10.7326,18.0892,7.12502,15.2781,-11.3266,-1.00883e-14,1.43125e-14,-34.9774,15.9865,82.0593,27.1761,-8.24986,-0.489538,33.1561,7.12502,25.1214,61.5234,-10.6197,1.81696,22.8234,30.1175,0,0,0,-9.48376,-5.85827,-19.0852,27.7202,0,0,0
-1.24158,18.31,-35.9468,4.30065,-0.831326,-0.629511,2.74043,-1.06395,-3.8791,-2.47209,-1.47613,3.49139,-3.91169,-0.572937,5.90908,-5.54376,-12.1142,-20.7436,15.1656,-16.4619,13.0661,8.45544,-8.19655,5.86122,1.55922e-14,-6.36111e-15,-34.6297,-15.3447,-74.3458,27.0309,-10.4533,-11.5496,17.472,7.12502,14.491,-12.002,1.55922e-14,-6.36111e-15,-35.0486,15.9372,82.1022,27.3545,-8.19392,-0.168037,33.5774,7.12502,25.4294,61.9012,-10.7469,1.71796,22.7001,30.149,0,0,0,-9.60418,-5.74567,-19.1921,27.6947,0,0,0
-1.24698,18.3094,-35.9394,4.35472,-0.487818,-0.52341,2.73688,-1.19554,-4.00046,-2.56407,-1.65768,3.48757,-3.97934,-0.656107,5.98654,-5.38838,-12.063,-20.696,15.1199,-16.4142,13.0193,8.39516,-8.18139,5.85532,2.21086e-14,7.15625e-15,-34.539,-15.1473,-74.3975,27.0775,-10.4646,-10.9232,18.0188,7.12502,15.0945,-11.4109,2.21086e-14,7.15625e-15,-35.103,15.9233,82.0875,27.2511,-8.67697,-0.15187,33.5825,7.12502,25.4449,61.9041,-10.7604,1.45776,22.6303,30.1747,0,0,0,-9.64853,-5.87761,-19.242,27.6782,0,0,0
-1.24906,18.3064,-35.9405,4.35973,-0.473717,-0.450767,2.93548,-1.18392,-4.06122,-2.64487,-1.65143,3.45241,-4.17702,-0.64357,5.99266,-5.44033,-12.0362,-20.5906,15.217,-16.38,12.9738,8.41679,-8.1615,5.82751,6.11884e-15,-1.27222e-14,-34.5892,-15.116,-74.3672,27.2325,-10.5292,-11.3219,17.9074,7.12502,14.7104,-11.5507,6.11884e-15,-1.27222e-14,-35.0984,15.9185,82.0458,27.2177,-8.87084,-0.0116502,33.171,7.12502,25.5792,61.4733,-10.7683,1.34328,22.5438,30.175,0,0,0,-9.6487,-5.94105,-19.3097,27.6668,0,0,0
-1.25296,18.308,-35.9373,4.41864,-0.569863,-0.517213,2.86716,-1.14651,-3.9936,-2.61677,-1.5959,3.46054,-4.11744,-0.620282,5.95637,-5.4773,-12.0019,-20.5089,15.1818,-16.3304,12.9765,8.39535,-8.13167,5.82298,-7.16246e-15,3.02153e-14,-34.5072,-15.1193,-74.3939,27.5202,-10.5788,-11.1184,17.9929,7.12502,14.9065,-11.4508,-7.16246e-15,3.02153e-14,-34.99,15.913,82.0724,27.2633,-8.94969,0.194205,32.5384,7.12502,25.7764,60.8123,-10.8133,1.43015,22.6192,30.1762,0,0,0,-9.69093,-5.87005,-19.2201,27.6695,0,0,0
-1.24981,18.3073,-35.9179,4.32847,-1.03471,-0.614093,2.66777,-1.02332,-3.87269,-2.51847,-1.41937,3.48903,-3.92648,-0.543324,5.89883,-5.18333,-11.922,-20.4801,14.9878,-16.2516,12.9302,8.25746,-8.10733,5.83275,7.26806e-16,0,-34.3749,-14.8093,-74.5481,27.8999,-10.6886,-11.3978,17.4995,7.12502,14.6373,-11.9639,7.26806e-16,0,-34.9766,15.9065,82.1585,27.3969,-8.96276,0.487802,32.5662,7.12502,26.0575,60.799,-10.6743,1.54945,22.6554,30.1705,0,0,0,-9.44293,-5.73411,-19.2099,27.6652,0,0,0
-1.25834,18.3089,-35.9252,4.48583,-0.798103,-0.52835,2.73755,-1.1129,-4.01235,-2.65654,-1.54682,3.49602,-4.09073,-0.594622,5.99883,-4.97689,-11.8318,-20.4692,14.9747,-16.1682,12.9357,8.20095,-8.07629,5.85901,-1.23184e-14,7.95139e-16,-34.3787,-14.5896,-74.5563,28.0713,-10.9532,-11.4248,17.6717,7.12502,14.6113,-11.7936,-1.23184e-14,7.95139e-16,-34.944,15.9211,82.1963,27.3993,-8.89429,0.677464,32.6774,7.12502,26.2391,60.8833,-10.867,1.40167,22.6129,30.1589,0,0,0,-9.70484,-5.71078,-19.2155,27.6795,0,0,0
-1.25652,18.3058,-35.9092,4.36413,-1.0927,-0.634214,2.7827,-0.99428,-3.81243,-2.58774,-1.38137,3.45398,-4.07084,-0.520714,5.83026,-5.17752,-11.76,-20.3281,15.1388,-16.0627,12.9498,8.26058,-8.01114,5.84999,5.24295e-15,-3.18055e-15,-34.3015,-14.4142,-74.6764,28.2192,-11.1841,-11.4489,17.7918,7.12502,14.588,-11.6751,5.24295e-15,-3.18055e-15,-34.7368,15.8186,82.2333,27.2436,-8.87452,0.560755,32.3585,7.12502,26.1274,60.581,-10.6971,1.5206,22.7012,30.14,0,0,0,-9.46024,-5.71682,-19.1727,27.6765,0,0,0
-1.2684,18.3075,-35.9064,4.42612,-0.87706,-0.678043,2.83245,-1.2736,-4.00285,-2.99045,-1.75543,3.68905,-4.46193,-0.676511,6.2227,-4.20281,-11.1764,-20.8377,15.1235,-15.4093,13.064,8.01876,-7.76675,6.1244,-1.54617e-14,1.59028e-15,-34.6958,-13.4045,-74.5975,28.2444,-11.3658,-11.2319,17.8841,7.12502,14.7971,-11.5676,-1.54617e-14,1.59028e-15,-35.7037,16.1132,82.1624,27.4975,-8.75475,0.272491,32.4343,7.12502,25.8513,60.6973,-10.7337,1.5087,22.8271,30.1593,0,0,0,-9.52456,-5.74987,-19.029,27.6752,0,0,0
-1.28101,18.3062,-35.8908,4.44619,-0.740867,-0.670195,2.60935,-1.14399,-3.96976,-2.50603,-1.5826,3.53211,-3.85592,-0.624018,6.00647,-6.19419,-11.6002,-20.0452,15.7599,-15.7009,12.7908,8.54581,-7.79738,5.75913,1.59028e-15,-3.18055e-15,-33.6832,-14.4464,-74.7407,28.1806,-11.2607,-11.0307,17.9821,7.12502,14.9909,-11.4553,1.59028e-15,-3.18055e-15,-34.5004,15.4652,82.6047,27.5963,-8.57501,0.17155,32.8942,7.12502,25.7547,61.1713,-10.6674,1.56879,22.8965,30.1695,0,0,0,-9.50293,-5.77021,-18.9651,27.6775,0,0,0
-1.28375,18.3032,-35.8854,4.49997,-0.838551,-0.647901,2.57175,-1.16211,-4.01405,-2.57358,-1.60648,3.56413,-3.90025,-0.631326,6.06756,-6.30511,-11.4474,-19.9796,15.9754,-15.4623,12.6326,8.57641,-7.6902,5.72898,9.37394e-15,2.06736e-14,-33.7098,-14.0562,-74.8197,28.4963,-11.498,-11.0309,18.0531,7.12502,14.9908,-11.3843,9.37394e-15,2.06736e-14,-34.6989,15.6189,82.6027,27.874,-8.53201,0.299792,33.317,7.12502,25.8775,61.5762,-10.7281,1.50115,22.8577,30.1857,0,0,0,-9.54705,-5.7328,-18.9973,27.6927,0,0,0
-1.2929,18.2996,-35.8878,4.50335,-0.495438,-0.629088,2.87019,-1.2723,-4.04057,-2.7319,-1.76295,3.5557,-4.21389,-0.695201,6.09684,-6.43625,-11.2942,-19.8335,16.2646,-15.2507,12.5375,8.63909,-7.58689,5.70392,-9.41432e-15,-7.95139e-16,-33.8729,-13.6292,-75,28.9311,-11.6055,-11.3034,17.7266,7.12502,14.7282,-11.7302,-9.41432e-15,-7.95139e-16,-34.9503,15.5219,82.5692,28.0728,-8.52509,0.419144,33.7362,7.12502,25.9918,61.9787,-10.7338,1.2963,22.9072,30.2181,0,0,0,-9.60034,-5.79589,-18.9339,27.6843,0,0,0
-1.29154,18.2932,-35.8662,4.36722,-0.729721,-0.716411,2.88393,-1.22863,-3.91509,-2.85995,-1.69755,3.56291,-4.36735,-0.658582,6.03304,-6.05691,-10.9854,-19.8044,16.4442,-14.9134,12.5337,8.56865,-7.44614,5.77469,-1.08866e-15,-1.74931e-14,-34.1974,-13.3209,-74.9558,29.1011,-11.9333,-11.0587,17.7894,7.12502,14.9639,-11.65,-1.08866e-15,-1.74931e-14,-35.4733,15.3514,82.5028,28.2458,-8.34115,0.407873,34.0215,7.12502,25.981,62.2655,-10.5377,1.36892,22.9771,30.2366,0,0,0,-9.325,-5.80405,-18.9081,27.6607,0,0,0
-1.29824,18.2928,-35.8559,4.34718,-0.528909,-0.596901,2.89724,-1.24175,-4.02318,-2.81978,-1.72323,3.50728,-4.32832,-0.670987,6.03674,-6.50903,-10.9384,-19.5936,16.8433,-14.8065,12.4398,8.74054,-7.37504,5.70734,-1.59445e-14,-7.15625e-15,-34.0294,-13.1382,-75.1087,29.3391,-12.3787,-11.4372,17.5091,7.12502,14.5993,-11.9571,-1.59445e-14,-7.15625e-15,-35.3124,15.2038,82.5921,28.2541,-8.23107,0.363344,33.9991,7.12502,25.9383,62.2494,-10.4651,1.29618,22.8979,30.2655,0,0,0,-9.30621,-5.84512,-18.9971,27.6602,0,0,0
-1.3116,18.2935,-35.8424,4.31852,0.172931,-0.493832,2.98501,-1.4385,-4.16152,-2.88048,-1.99701,3.48717,-4.40196,-0.799795,6.11546,-6.89782,-10.8425,-19.4289,17.3793,-14.6531,12.3482,8.94484,-7.28907,5.66024,-7.08093e-15,5.56597e-15,-34.0921,-12.9475,-75.1768,29.623,-12.783,-11.5549,17.4239,7.12502,14.4859,-12.0505,-7.08093e-15,5.56597e-15,-35.2643,15.204,82.5688,28.1468,-8.28738,0.397833,33.7621,7.12502,25.9714,62.0076,-10.2878,1.14893,22.9467,30.2332,0,0,0,-9.29732,-6.09556,-18.9645,27.6403,0,0,0
-1.29995,18.2944,-35.855,4.47928,-1.17051,-0.607558,3.08239,-1.00806,-3.97071,-3.01206,-1.41323,3.46145,-4.67893,-0.503206,5.9508,-7.25287,-10.6371,-19.3313,17.9029,-14.3582,12.3327,9.12734,-7.13712,5.67634,-5.50385e-15,2.70347e-14,-34.2029,-12.8197,-75.1472,29.7991,-12.8588,-11.3421,17.4973,7.12502,14.6909,-11.9622,-5.50385e-15,2.70347e-14,-35.3106,15.3621,82.4706,28.0241,-8.36969,0.428224,33.5851,7.12502,26.0005,61.8263,-10.673,1.52118,22.8249,30.2228,0,0,0,-9.36419,-5.81345,-19.0778,27.6642,0,0,0
-1.31224,18.2942,-35.8343,4.39397,-0.848048,-0.620968,2.92297,-1.21428,-4.09067,-3.04072,-1.6865,3.58847,-4.57624,-0.635941,6.16686,-7.25958,-10.2819,-19.5103,18.2866,-13.8864,12.4284,9.19879,-6.92589,5.81976,1.92635e-14,-2.06736e-14,-34.2094,-12.3715,-75.1435,29.8876,-12.6137,-11.6059,17.4577,7.12502,14.4367,-12.0201,1.92635e-14,-2.06736e-14,-35.6085,15.8308,82.3518,28.0247,-8.44625,0.384697,33.2081,7.12502,25.9588,61.4553,-10.4306,1.4836,22.9426,30.1783,0,0,0,-9.23344,-5.92154,-18.9889,27.7055,0,0,0
-1.31291,18.2956,-35.8354,4.44577,-1.25847,-0.700316,2.63277,-0.957891,-3.86992,-2.47972,-1.33144,3.47564,-3.87795,-0.501988,5.87645,-9.19265,-10.5045,-19.0335,19.018,-13.9566,12.3453,9.77887,-6.85822,5.62741,1.23681e-14,-3.26007e-14,-32.9781,-13.3566,-75.2489,29.6951,-12.4166,-11.327,17.9411,7.12502,14.7055,-11.5173,1.23681e-14,-3.26007e-14,-34.2818,15.877,82.5637,27.7141,-8.65841,0.361623,32.537,7.12502,25.9367,60.7875,-10.5275,1.64843,22.9713,30.1627,0,0,0,-9.28017,-5.77702,-18.9683,27.7582,0,0,0
-1.32515,18.2956,-35.8356,4.4902,-0.971339,-0.794721,3.37307,-1.05522,-3.87673,-3.10302,-1.47509,3.53833,-4.9324,-0.525794,5.99463,-8.92657,-10.1439,-18.8541,19.7871,-13.5319,12.0249,9.8857,-6.69679,5.5785,1.30701e-14,-2.46493e-14,-33.8389,-13.0479,-75.062,29.8706,-12.5897,-11.281,17.9362,7.12502,14.7498,-11.519,1.30701e-14,-2.46493e-14,-35.304,15.786,82.3082,27.6967,-8.49344,0.133222,32.2801,7.12502,25.718,60.5625,-10.5307,1.74059,23.1813,30.116,0,0,0,-9.39612,-5.77188,-18.7481,27.7657,0,0,0
-1.33979,18.2954,-35.8336,4.48566,-0.52157,-0.803811,3.31961,-1.16366,-3.94537,-3.07354,-1.62235,3.55754,-4.84946,-0.599718,6.06163,-9.05907,-9.97336,-18.5721,19.989,-13.3064,11.9145,9.9114,-6.57855,5.53009,-2.32392e-14,4.05521e-14,-33.6962,-13.1304,-75.0661,29.9485,-12.7029,-11.3518,17.8828,7.12502,14.6816,-11.5774,-2.32392e-14,4.05521e-14,-35.1905,15.4922,82.5241,27.7866,-8.10436,-0.122705,32.9443,7.12502,25.4728,61.2619,-10.5054,1.67153,23.3223,30.1413,0,0,0,-9.4522,-5.79831,-18.5994,27.7716,0,0,0
-1.35005,18.2945,-35.8188,4.48296,-0.132227,-0.754253,3.18137,-1.25385,-4.01633,-3.10219,-1.74346,3.55599,-4.78288,-0.659193,6.10441,-9.00287,-9.72585,-18.3996,20.208,-13.0057,11.8732,9.90906,-6.43537,5.54445,-6.37353e-15,4.77083e-15,-33.7719,-13.1379,-74.9996,30.0588,-12.6586,-11.4934,17.8674,7.12502,14.5452,-11.6027,-6.37353e-15,4.77083e-15,-35.2814,15.2933,82.6462,27.8092,-8.20694,-0.266613,32.8913,7.12502,25.335,61.2285,-10.4256,1.43641,23.3507,30.1721,0,0,0,-9.40839,-5.86779,-18.5638,27.7444,0,0,0
-1.34024,18.2917,-35.8104,4.55641,-1.21845,-0.720102,2.96541,-0.867192,-3.95997,-3.07373,-1.21898,3.49151,-4.70243,-0.403914,5.96233,-9.27985,-9.48239,-18.3208,20.6608,-12.6585,11.8507,10.0542,-6.26511,5.57859,2.19222e-14,-1.03368e-14,-33.7232,-13.2273,-74.9225,30.1106,-12.5433,-11.5177,17.8847,7.12502,14.5217,-11.5871,2.19222e-14,-1.03368e-14,-35.1879,15.2631,82.7088,27.7402,-8.36214,-0.0893237,33.0024,7.12502,25.5048,61.3154,-10.6236,1.55688,23.0909,30.2359,0,0,0,-9.287,-5.6257,-18.8259,27.6953,0,0,0
-1.35904,18.2928,-35.8153,4.6217,0.0630629,-0.50247,3.07828,-1.26326,-4.21371,-3.077,-1.76697,3.48554,-4.69166,-0.668916,6.13954,-9.96806,-9.32669,-18.2267,21.2485,-12.3637,11.7805,10.3327,-6.10787,5.57235,8.27441e-15,-7.95139e-16,-33.4273,-13.3377,-74.9495,30.1835,-12.5989,-11.6325,17.7973,7.12502,14.4111,-11.6824,8.27441e-15,-7.95139e-16,-34.8599,15.2841,82.7968,27.7264,-8.6923,0.455358,33.6784,7.12502,26.0265,61.9157,-10.6109,1.00897,23.0732,30.268,0,0,0,-9.53218,-5.98095,-18.8012,27.6595,0,0,0
-1.34552,18.2855,-35.7939,4.52149,-1.14342,-0.611895,2.86772,-0.871221,-4.01822,-2.98958,-1.22563,3.47996,-4.55685,-0.411919,5.97901,-10.09,-9.11476,-18.0603,21.4834,-12.0445,11.5932,10.3603,-5.96366,5.52962,4.06266e-15,-4.77083e-15,-33.4382,-13.3395,-74.8604,30.2729,-12.8272,-11.5303,17.8828,7.12502,14.5096,-11.5898,4.06266e-15,-4.77083e-15,-34.9025,15.2617,82.8663,27.6027,-8.28083,-0.227504,32.7403,7.12502,25.3724,61.0721,-10.5492,1.27356,22.9632,30.327,0,0,0,-9.15723,-5.79653,-18.9624,27.6391,0,0,0
-1.35895,18.2824,-35.7882,4.45561,-0.235004,-0.599677,2.941,-1.1757,-4.05079,-3.0424,-1.63517,3.53122,-4.59744,-0.611832,6.08072,-9.96403,-8.85603,-17.8901,21.5779,-11.7012,11.4453,10.2888,-5.81224,5.5102,2.07481e-14,-3.73715e-14,-33.5109,-13.076,-74.923,30.5791,-12.8969,-11.884,17.3787,7.12502,14.1688,-12.1181,2.07481e-14,-3.73715e-14,-34.9492,15.4568,82.7998,27.541,-8.47646,-0.0561385,32.9221,7.12502,25.5366,61.2306,-10.3758,0.791647,23.1083,30.3452,0,0,0,-9.15789,-6.03407,-18.7833,27.6093,0,0,0
-1.35323,18.2809,-35.7846,4.56333,-0.898473,-0.582845,2.74712,-0.939895,-3.96696,-2.98699,-1.31188,3.47823,-4.47472,-0.459396,5.94941,-10.1488,-8.62845,-17.7582,21.8415,-11.3836,11.4196,10.3538,-5.65439,5.53091,-1.08089e-14,-7.95139e-16,-33.3824,-13.1504,-74.9003,30.6375,-13.0347,-11.6553,17.7269,7.12502,14.3891,-11.7543,-1.08089e-14,-7.95139e-16,-34.7682,15.6179,82.7689,27.4826,-8.82816,0.270808,33.4645,7.12502,25.8497,61.7278,-10.5624,0.808013,22.9453,30.3648,0,0,0,-9.17868,-5.8342,-18.9179,27.6086,0,0,0
-1.36502,18.2765,-35.7723,4.50893,-0.347224,-0.488825,2.80464,-1.08466,-4.09073,-2.98858,-1.51381,3.47417,-4.48009,-0.555933,6.02973,-10.3656,-8.42934,-17.6105,22.1683,-11.097,11.3408,10.4498,-5.51441,5.52466,-8.14085e-15,3.97569e-15,-33.5063,-12.9157,-74.9411,30.925,-13.2053,-11.6765,17.8263,7.12502,14.3687,-11.6564,-8.14085e-15,3.97569e-15,-34.7468,15.5753,82.8052,27.477,-8.91312,0.366337,33.8272,7.12502,25.9412,62.0771,-10.3971,0.629524,22.9651,30.3704,0,0,0,-9.16084,-5.8828,-18.8902,27.636,0,0,0
-1.37794,18.2732,-35.7639,4.48617,-0.120585,-0.578047,2.81655,-1.12468,-4.07006,-2.9584,-1.56515,3.5171,-4.44777,-0.583213,6.06602,-10.8428,-8.29506,-17.4283,22.6667,-10.8619,11.1938,10.663,-5.39491,5.4753,2.28323e-14,-1.03368e-14,-33.5819,-12.7861,-74.9468,31.1162,-13.3731,-11.4283,18.2143,7.12502,14.6078,-11.2512,2.28323e-14,-1.03368e-14,-34.6099,15.5497,82.844,27.4157,-8.89781,0.334419,33.4237,7.12502,25.9106,61.678,-10.3604,0.704898,23.1616,30.438,0,0,0,-9.16515,-5.75294,-18.6899,27.6701,0,0,0
-1.38755,18.272,-35.7608,4.51039,-0.16337,-0.641709,2.76398,-1.07012,-4.03116,-2.87807,-1.48888,3.51924,-4.34459,-0.551485,6.03771,-11.5346,-8.21704,-17.1805,23.2234,-10.6723,10.9831,10.9424,-5.29075,5.37967,-1.35562e-14,1.19271e-14,-33.4322,-12.6667,-75.0819,31.2856,-13.6865,-11.5178,18.139,7.12502,14.5216,-11.3328,-1.35562e-14,1.19271e-14,-34.4377,15.4972,82.8783,27.4488,-8.9521,0.381614,32.8025,7.12502,25.9558,61.0502,-10.437,0.774353,23.2635,30.5318,0,0,0,-9.20323,-5.56988,-18.5673,27.6983,0,0,0
-1.3956,18.2674,-35.7586,4.51351,-0.130836,-0.486151,2.76488,-1.0229,-4.18529,-2.84137,-1.43623,3.4427,-4.31251,-0.523369,6.0409,-11.7958,-8.10142,-16.9353,23.3599,-10.4904,10.8537,10.9898,-5.19217,5.31651,-9.71405e-15,-1.59028e-15,-33.3861,-12.5833,-75.2114,31.5249,-14.1111,-11.76,17.8707,7.12502,14.2883,-11.6178,-9.71405e-15,-1.59028e-15,-34.3972,15.2602,82.9296,27.5748,-8.94376,0.37883,32.6886,7.12502,25.9532,60.9367,-10.4941,0.668317,23.1107,30.6569,0,0,0,-9.25118,-5.46629,-18.6953,27.7736,0,0,0
-1.40463,18.2576,-35.7524,4.39415,-0.0348181,-0.354449,2.70344,-0.999517,-4.32536,-2.7347,-1.41303,3.36305,-4.1681,-0.515862,6.03083,-11.7679,-7.87955,-16.7677,23.3309,-10.2436,10.9813,10.9279,-5.05256,5.37877,-8.46388e-15,1.66979e-14,-33.3121,-12.7605,-75.2694,31.603,-14.0416,-11.9575,17.4965,7.12502,14.098,-12.0053,-8.46388e-15,1.66979e-14,-34.34,14.9626,82.9793,27.7295,-8.78914,0.368211,32.955,7.12502,25.943,61.2046,-10.3999,0.640568,23.0197,30.8077,0,0,0,-9.13573,-5.38925,-18.7805,27.8389,0,0,0
-1.40803,18.2496,-35.7482,4.41672,-0.484354,-0.521092,2.55162,-0.815107,-4.15074,-2.69843,-1.15286,3.37269,-4.08148,-0.394648,5.92157,-11.8467,-7.63954,-16.709,23.6625,-9.96944,11.1449,11.0255,-4.90726,5.48429,1.39631e-14,-7.95139e-15,-33.2187,-13.0954,-75.1635,31.3393,-13.8199,-11.8133,18.7236,7.12502,14.2369,-10.7685,1.39631e-14,-7.95139e-15,-34.3896,14.8592,82.9797,27.8327,-8.70999,0.441951,33.2499,7.12502,26.0136,61.4891,-10.5468,0.84066,23.1704,30.9929,0,0,0,-9.10791,-5.05914,-18.6116,27.8895,0,0,0
-1.40652,18.2424,-35.727,4.43419,-0.881806,-0.633085,2.32351,-0.674446,-3.97185,-2.64886,-0.949527,3.39288,-3.92877,-0.303862,5.82305,-12.1547,-7.49561,-16.5974,24.1287,-9.73247,10.9926,11.2063,-4.80084,5.45227,4.86401e-15,1.66979e-14,-33.1927,-12.8658,-75.2596,31.4559,-13.8019,-12.6974,17.8631,7.12502,13.3849,-11.687,4.86401e-15,1.66979e-14,-34.3776,14.9231,82.9925,27.7692,-8.72321,0.50972,33.4405,7.12502,26.0785,61.6702,-10.6056,0.802211,23.2244,31.1498,0,0,0,-9.01655,-4.84385,-18.5463,27.9438,0,0,0
-1.4196,18.2425,-35.7318,4.61998,-0.522848,-0.471029,2.31033,-0.77589,-4.19138,-2.7247,-1.09416,3.39219,-3.97894,-0.366378,5.95689,-12.4954,-7.36976,-16.5217,24.4513,-9.50302,10.8729,11.3468,-4.69533,5.43306,-1.67228e-14,4.77083e-14,-33.1909,-12.7757,-75.2339,31.4972,-13.9638,-13.1687,17.5719,7.12502,12.9306,-12.0074,-1.67228e-14,4.77083e-14,-34.3416,14.9255,83.033,27.7013,-8.65536,0.29656,33.06,7.12502,25.8744,61.3197,-10.8828,0.443663,23.1054,31.2964,0,0,0,-9.33555,-4.87139,-18.6036,28.0214,0,0,0
-1.43447,18.2392,-35.7328,4.52474,-0.387565,-0.402738,2.50056,-0.769248,-4.36216,-2.68117,-1.09837,3.40196,-4.03873,-0.362262,6.06926,-12.6661,-7.2776,-16.5466,24.6363,-9.3539,10.8931,11.4287,-4.62469,5.47185,-1.79776e-14,2.46493e-14,-33.1869,-12.6935,-75.2482,31.5414,-14.0074,-13.5794,17.3912,7.12502,12.5346,-12.2128,-1.79776e-14,2.46493e-14,-34.3347,14.7389,83.1217,27.7035,-8.35602,-0.359807,32.0849,7.12502,25.2457,60.4348,-10.8355,0.357738,23.0969,31.4374,0,0,0,-9.28671,-4.79374,-18.5915,28.0957,0,0,0
-1.44719,18.2303,-35.7256,4.35333,-0.206527,-0.339517,2.67292,-0.755558,-4.44938,-2.47255,-1.09134,3.36387,-3.9189,-0.365637,6.07838,-13.1038,-7.29587,-16.3564,24.7153,-9.30479,10.7097,11.5177,-4.59067,5.36973,-2.9035e-14,3.57812e-14,-33.0058,-12.6918,-75.4083,31.7253,-14.088,-13.6451,17.3067,7.12502,12.4713,-12.3012,-2.9035e-14,3.57812e-14,-33.9669,14.5068,83.2278,27.7102,-8.33682,-0.453183,31.8648,7.12502,25.1562,60.2272,-10.669,0.238469,23.0909,31.5881,0,0,0,-9.1376,-4.75062,-18.5828,28.1979,0,0,0
-1.45692,18.22,-35.7118,4.23483,0.0130385,-0.297721,2.68848,-0.798997,-4.47838,-2.32496,-1.15244,3.3395,-3.76505,-0.404325,6.06972,-13.2528,-7.21729,-16.1744,24.6549,-9.14458,10.4985,11.4767,-4.51803,5.27859,-1.14425e-14,-4.53229e-14,-32.9238,-12.797,-75.4892,31.7515,-13.8537,-13.5647,17.6131,7.12502,12.5488,-11.9901,-1.14425e-14,-4.53229e-14,-33.7717,14.5114,83.2099,27.7969,-8.59736,-0.0405627,32.3476,7.12502,25.5515,60.6539,-10.5171,0.0796325,23.0944,31.7113,0,0,0,-9.07154,-4.71142,-18.5641,28.3714,0,0,0
-1.46711,18.2121,-35.7049,4.1983,0.00478373,-0.316054,2.7798,-0.842963,-4.52747,-2.49929,-1.21432,3.3999,-3.98881,-0.42134,6.17154,-12.6512,-6.93828,-16.2961,24.5835,-8.79671,10.461,11.2779,-4.39392,5.3515,-2.19843e-14,1.90833e-14,-33.3291,-12.4618,-75.4364,31.6855,-13.7203,-13.3991,18.1716,7.12502,12.7085,-11.4217,-2.19843e-14,1.90833e-14,-34.2709,14.7115,83.0542,27.9226,-8.50445,0.0722424,32.6902,7.12502,25.6596,60.981,-10.5072,0.0931421,23.1494,31.8211,0,0,0,-9.15853,-4.52623,-18.5042,28.6395,0,0,0
-1.47396,18.2024,-35.7015,4.14568,-0.230221,-0.43369,3.00301,-0.597565,-4.27846,-2.16202,-0.885677,3.28403,-3.81272,-0.279494,5.88567,-14.2962,-7.18082,-16.0096,25.1473,-8.97759,10.436,11.8358,-4.40789,5.24907,-3.80176e-15,-7.95139e-16,-32.6673,-12.912,-75.6554,31.5778,-13.8212,-13.2435,18.4952,7.12502,12.8584,-11.0888,-3.80176e-15,-7.95139e-16,-33.3727,14.41,83.2183,27.8872,-8.51107,0.492253,33.355,7.12502,26.0618,61.5872,-10.5133,0.172935,23.2766,31.9203,0,0,0,-9.25674,-4.32653,-18.3834,28.9833,0,0,0
-1.47807,18.1899,-35.6916,3.99026,-0.470031,-0.637391,3.03802,-0.502158,-4.04262,-2.10803,-0.745352,3.3559,-3.79612,-0.216414,5.81808,-14.1574,-7.00979,-16.1777,25.4343,-8.73156,10.4438,11.8892,-4.32116,5.33451,-2.3643e-14,9.54166e-15,-32.6675,-12.7185,-75.6713,31.4927,-13.8379,-13.3663,18.3094,7.12502,12.7401,-11.2819,-2.3643e-14,9.54166e-15,-33.5209,14.4092,83.2303,27.825,-8.06491,-0.262102,32.1816,7.12502,25.3393,60.5182,-10.3606,0.265113,23.4889,31.9834,0,0,0,-9.25938,-4.12263,-18.1827,29.3994,0,0,0
-1.48293,18.1799,-35.6783,3.82526,-0.586481,-0.769244,2.94477,-0.395735,-3.84999,-1.69134,-0.592524,3.39516,-3.33009,-0.167306,5.73194,-15.0922,-7.05254,-16.1063,25.8055,-8.62471,10.2597,12.1951,-4.26387,5.26374,1.21756e-15,-4.13472e-14,-31.9786,-13.0122,-75.7213,31.1782,-13.6859,-13.0809,18.5274,7.12502,13.0152,-11.0466,1.21756e-15,-4.13472e-14,-32.802,14.4967,83.4273,27.6978,-8.14055,-0.559597,31.5697,7.12502,25.0543,59.9464,-10.1435,0.275357,23.6289,32.0022,0,0,0,-9.29614,-3.94479,-18.0524,29.9138,0,0,0
-1.48993,18.1726,-35.6676,3.71301,-0.481419,-0.904007,2.93304,-0.484977,-3.78632,-2.05154,-0.702043,3.52702,-3.6838,-0.203684,5.84666,-13.1396,-6.59457,-16.378,25.405,-8.1872,10.2394,11.5849,-4.14735,5.39525,4.06266e-15,-4.45278e-14,-32.9248,-12.2873,-75.5835,31.2254,-13.7855,-12.3597,18.9595,7.12502,13.7103,-10.5688,4.06266e-15,-4.45278e-14,-33.9357,14.6083,83.2083,27.9258,-8.20315,-0.594917,31.3139,7.12502,25.0204,59.6952,-9.95893,0.111797,23.7958,31.9947,0,0,0,-9.46851,-3.95099,-17.8923,30.5187,0,0,0
-1.50341,18.1655,-35.662,3.67875,-0.134658,-1.16223,2.99635,-0.508919,-3.53798,-1.9563,-0.722857,3.58373,-3.61915,-0.223591,5.76495,-13.2987,-6.64896,-16.1852,25.4378,-8.2184,9.99598,11.614,-4.16506,5.26078,6.58474e-16,-1.43125e-14,-32.8579,-12.4047,-75.5991,31.1468,-13.7377,-12.3845,18.8072,7.12502,13.6865,-10.7227,6.58474e-16,-1.43125e-14,-33.874,14.2719,83.31,28.2011,-8.15375,-0.432632,31.531,7.12502,25.1759,59.8906,-9.86246,-0.0149958,24.1793,31.9968,0,0,0,-9.82865,-4.06409,-17.5232,31.1857,0,0,0
-1.52079,18.1561,-35.6567,3.62778,0.277354,-1.29916,3.25696,-0.566365,-3.45723,-2.00149,-0.798979,3.63204,-3.80456,-0.256877,5.78039,-13.4112,-6.64194,-16.0462,25.5459,-8.16522,9.76637,11.6527,-4.15152,5.15776,-1.05356e-14,2.54444e-14,-32.9917,-12.4521,-75.546,31.052,-13.7364,-12.054,18.8565,7.12502,14.0049,-10.6518,-1.05356e-14,2.54444e-14,-34.0192,13.848,83.372,28.3948,-8.07644,0.11288,32.6259,7.12502,25.6985,60.9111,-9.73416,-0.00682308,24.4566,31.9929,0,0,0,-10.2432,-4.23856,-17.277,31.9552,0,0,0
-1.53357,18.1433,-35.657,3.50284,0.495369,-1.32286,3.72683,-0.640213,-3.4617,-1.92943,-0.905187,3.71109,-3.98151,-0.305219,5.88262,-14.1112,-6.60852,-16.1618,25.8574,-7.96112,9.67898,11.8861,-4.06667,5.17424,1.90336e-14,-2.3059e-14,-32.6255,-12.2209,-75.6379,30.7776,-13.6706,-11.4485,19.0743,7.12502,14.5884,-10.3926,1.90336e-14,-2.3059e-14,-33.878,13.9716,83.3882,28.314,-8.14205,0.384695,33.1857,7.12502,25.9588,61.433,-9.56328,-0.00510463,24.5351,31.967,0,0,0,-10.6427,-4.45083,-17.2274,32.8667,0,0,0
-1.54209,18.1325,-35.662,3.37948,0.492315,-1.61132,4.03972,-0.601777,-3.18312,-2.12772,-0.838234,3.77434,-4.37701,-0.263432,5.79684,-13.298,-6.3313,-16.2547,25.9449,-7.70219,9.75258,11.721,-3.97528,5.27761,7.82715e-16,1.66979e-14,-33.1729,-12.0004,-75.6183,30.7106,-13.5363,-12.1146,18.58,7.12502,13.9466,-10.9323,7.82715e-16,1.66979e-14,-34.484,13.8582,83.185,28.3948,-8.20834,0.475148,33.1987,7.12502,26.0454,61.4332,-9.43727,0.0713914,24.8765,31.9168,0,0,0,-11.0851,-4.50386,-16.9044,33.8904,0,0,0
-1.55285,18.1255,-35.6646,3.28864,0.62958,-1.99827,4.0698,-0.582331,-2.78567,-1.93036,-0.787988,3.87004,-4.19684,-0.257058,5.66316,-13.5365,-6.31589,-16.0449,25.9911,-7.63064,9.53533,11.7565,-3.9405,5.16635,1.22128e-14,1.59028e-14,-33.137,-11.977,-75.727,30.8504,-13.45,-12.1529,18.3563,7.12502,13.9097,-11.1584,1.22128e-14,1.59028e-14,-34.2105,13.7442,83.2496,28.4621,-8.09699,0.471698,33.1909,7.12502,26.0421,61.426,-9.32675,0.151166,25.3689,31.8331,0,0,0,-11.6471,-4.45422,-16.4292,35.0286,0,0,0
-1.56701,18.1174,-35.658,3.14807,0.897896,-2.26686,3.97435,-0.571611,-2.47397,-1.60249,-0.759478,3.89857,-3.80694,-0.26643,5.50388,-13.6051,-6.42356,-15.6252,25.5291,-7.73021,9.11676,11.5693,-3.97961,4.90099,2.78299e-15,-3.18055e-15,-32.85,-12.2892,-75.7854,30.6971,-13.3079,-11.9234,18.6983,7.12502,14.1308,-10.8012,2.78299e-15,-3.18055e-15,-33.6842,13.3914,83.4264,28.4794,-7.69181,0.0111073,32.811,7.12502,25.601,61.1102,-9.10536,0.199336,25.7595,31.7361,0,0,0,-12.2127,-4.50392,-16.0813,36.2598,0,0,0
-1.57808,18.1095,-35.6459,2.99572,0.830018,-2.59079,4.22509,-0.442799,-2.20134,-1.59962,-0.567926,4.0209,-3.96892,-0.17223,5.46863,-13.3821,-6.37413,-15.6917,25.4949,-7.64886,9.0259,11.4995,-3.96403,4.89288,-1.08835e-14,3.33958e-14,-32.972,-12.2825,-75.6597,30.4511,-13.2061,-11.8914,18.8307,7.12502,14.1617,-10.6667,-1.08835e-14,3.33958e-14,-33.8474,13.1016,83.5753,28.6257,-7.3791,-0.187448,32.8329,7.12502,25.4108,61.1593,-8.81469,0.428708,26.1763,31.5677,0,0,0,-12.7447,-4.46284,-15.7252,37.5736,0,0,0
-1.57159,18.1045,-35.6314,2.91842,0.570403,-2.63807,3.75825,-0.302455,-1.86455,-1.12256,-0.374598,3.94245,-3.2321,-0.108074,5.16389,-13.7076,-6.33877,-15.839,25.4645,-7.58101,9.31263,11.5612,-3.90519,5.03348,6.48535e-15,-1.19271e-14,-32.2253,-12.4221,-75.9,30.0802,-13.1149,-11.9812,18.7287,7.12502,14.0751,-10.7746,6.48535e-15,-1.19271e-14,-33.1952,13.0816,83.6585,28.6216,-7.43105,-0.0749739,32.9921,7.12502,25.5186,61.3031,-8.60913,0.118924,26.0832,31.42,0,0,0,-13.3406,-4.30805,-15.8092,38.9743,0,0,0
-1.59255,18.0952,-35.6162,2.41145,1.62697,-2.85409,4.45964,-0.607446,-1.84786,-1.07989,-0.773865,4.17515,-3.54026,-0.299751,5.43903,-13.6456,-6.32608,-15.8497,25.5315,-7.49269,9.029,11.5517,-3.90077,4.94217,-1.01132e-14,2.06736e-14,-32.3543,-11.837,-75.891,30.0457,-13.2596,-12.1962,18.4321,7.12502,13.8679,-11.0856,-1.01132e-14,2.06736e-14,-33.469,13.4238,83.6664,28.6721,-7.75249,-0.124095,32.8321,7.12502,25.4715,61.1499,-7.83837,-0.27803,26.5331,31.2333,0,0,0,-13.7876,-4.72706,-15.4244,40.4881,0,0,0
-1.60442,18.0937,-35.6223,2.43768,0.999296,-3.15448,4.36182,-0.324752,-1.58734,-0.855965,-0.384949,4.2332,-3.29555,-0.118697,5.31787,-13.5063,-6.39957,-15.6459,25.081,-7.57273,8.77273,11.3439,-3.93988,4.78607,7.95139e-16,-4.21423e-14,-32.2158,-11.6416,-76.1009,30.1258,-13.2638,-12.3753,18.165,7.12502,13.6954,-11.3644,7.95139e-16,-4.21423e-14,-32.9863,13.8074,83.5495,28.3307,-8.38418,0.177791,33.0777,7.12502,25.7607,61.3539,-7.79937,0.218768,26.8514,30.9913,0,0,0,-14.7406,-3.91209,-15.0696,42.1134,0,0,0
-1.61368,18.0878,-35.6242,2.2053,1.20321,-3.3733,4.63668,-0.280174,-1.29603,-0.658285,-0.311201,4.25731,-3.25433,-0.0909201,5.17265,-13.506,-6.44033,-15.5609,24.8677,-7.62704,8.73337,11.2651,-3.95592,4.74271,-1.82882e-14,3.97569e-15,-31.9823,-11.8706,-76.1043,29.7033,-13.01,-12.5891,17.8614,7.12502,13.4893,-11.6817,-1.82882e-14,3.97569e-15,-32.7994,13.7349,83.5844,28.6731,-8.92822,1.15002,34.4233,7.12502,26.6914,62.5611,-7.45979,0.164804,27.1497,30.8031,0,0,0,-15.5915,-3.78889,-14.7637,43.8801,0,0,0
-1.66103,18.0797,-35.5932,1.99069,3.10899,-3.56969,4.57283,-0.835657,-1.41781,-0.522739,-1.06044,4.41748,-2.99839,-0.468773,5.46011,-13.4454,-6.37487,-15.5799,24.8568,-7.55962,8.81976,11.243,-3.91828,4.79056,5.06901e-15,-2.94201e-14,-31.7404,-12.0351,-76.0922,29.0715,-12.7216,-12.3435,18.522,7.12502,13.726,-11.0053,5.06901e-15,-2.94201e-14,-32.7973,13.535,83.6334,28.9385,-8.84693,1.1927,34.6677,7.12502,26.7323,62.7993,-6.94504,-0.177158,27.8587,30.6133,-23.6036,-8.58954,28.2383,-16.6915,-4.73165,-14.1312,45.6939,-17.3396,1.14413,-7.84062
-1.63711,18.0834,-35.6352,2.28889,0.969657,-3.80794,4.8988,-0.0522247,-0.888473,-0.613474,0.023157,4.35708,-3.38865,0.071117,5.02259,-13.0823,-6.29765,-15.5732,24.7781,-7.50481,8.82155,11.1328,-3.89978,4.80321,-5.31749e-15,-2.70347e-14,-31.916,-11.9564,-76.1069,28.9181,-12.5147,-12.362,18.5338,7.12502,13.7082,-10.9947,-5.31749e-15,-2.70347e-14,-32.881,13.2718,83.6659,28.8679,-8.06015,0.221965,33.3785,7.12502,25.803,61.6485,-7.48438,0.392376,27.6894,30.5108,-23.258,-6.78483,31.3921,-18.0726,-3.04498,-14.0734,47.5949,-15.9293,0.905742,-12.3823
-1.64858,18.0822,-35.6231,2.14485,1.33435,-3.89132,5.06562,-0.0560199,-0.798348,-0.534929,0.0242721,4.37047,-3.40126,0.0692964,4.98592,-13.0023,-6.35139,-15.5718,24.8018,-7.58517,8.78591,11.1366,-3.94189,4.77905,1.83876e-14,-2.46493e-14,-32.1763,-12.1242,-76.0149,28.9008,-12.1896,-12.0718,18.6124,7.12502,13.9878,-10.897,1.83876e-14,-2.46493e-14,-32.8217,12.9094,83.7453,28.8724,-7.4156,-0.0884824,32.8418,7.12502,25.5056,61.1547,-7.19461,0.110718,27.8551,30.3455,-22.9488,-7.23423,28.3525,-19.1578,-3.14334,-13.832,49.4348,-14.6762,0.12504,-11.948
-1.65626,18.0779,-35.6161,2.11546,1.28515,-3.90598,5.21885,0.0637813,-0.764762,-0.414766,0.185316,4.37613,-3.37781,0.147222,4.95988,-13.3159,-6.41448,-15.5672,24.8676,-7.61186,8.73228,11.2256,-3.95208,4.74965,2.00276e-14,-4.77083e-14,-32.1303,-12.1766,-75.9993,28.7772,-11.9636,-12.0064,18.4653,7.12502,14.0508,-11.0397,2.00276e-14,-4.77083e-14,-32.7457,12.9804,83.7078,28.8065,-7.72171,-0.0980262,32.1655,7.12502,25.4965,60.4797,-7.11476,-0.176311,27.8382,30.2927,-23.2429,-6.54783,31.5636,-20.3213,-2.9941,-13.7133,51.2904,-13.4139,-0.313802,-12.8644
-1.67378,18.0743,-35.6061,1.73203,2.1259,-3.94075,5.64274,-0.159917,-0.770011,-0.19799,-0.112296,4.43056,-3.36419,-0.00383539,5.04681,-13.6123,-6.37455,-15.6621,24.838,-7.51644,8.87247,11.2692,-3.89354,4.82817,-6.26172e-15,-2.22639e-14,-31.8815,-11.783,-76.2412,28.7219,-11.9429,-12.3331,17.7675,7.12502,13.736,-11.7591,-6.26172e-15,-2.22639e-14,-32.6333,13.2575,83.6137,28.6765,-8.00603,-0.229661,31.7092,7.12502,25.3704,60.0414,-6.54921,-0.85411,27.9872,30.1106,-22.9924,-6.98288,28.8863,-21.2694,-3.49525,-13.4591,53.0502,-11.883,-1.16196,-11.7907
-1.68551,18.0729,-35.6098,1.82101,2.11217,-4.17117,5.7738,-0.117569,-0.509639,-0.0802844,-0.0381009,4.47862,-3.32288,0.0270359,4.94255,-14.0909,-6.35659,-15.9039,25.0091,-7.4465,9.19647,11.4432,-3.83916,5.0015,4.96962e-16,7.95139e-16,-31.5836,-11.6675,-76.3783,28.4124,-12.0223,-11.7752,18.2162,7.12502,14.2736,-11.2732,4.96962e-16,7.95139e-16,-32.4412,13.2063,83.6426,28.8605,-7.70641,-0.251534,32.11,7.12502,25.3494,60.4451,-6.58102,-0.997437,28.2562,29.9218,-22.9699,-6.64613,30.5263,-22.6934,-3.29841,-13.0158,54.7828,-10.2026,-1.90967,-9.72478
-1.70119,18.0666,-35.6015,1.7584,2.08508,-4.54961,5.93127,-0.0435592,-0.15926,0.117237,0.0844372,4.58148,-3.21735,0.0796264,4.83982,-14.653,-6.4287,-15.9746,25.2282,-7.46112,9.24612,11.6478,-3.83619,5.02804,1.11319e-14,-1.59028e-15,-31.3846,-11.6485,-76.4806,28.2118,-12.0129,-11.5381,18.4921,7.12502,14.5021,-10.9811,1.11319e-14,-1.59028e-15,-32.3384,13.1356,83.6701,29.1523,-7.68716,-0.267775,31.8294,7.12502,25.3339,60.1667,-6.37517,-0.941945,28.7424,29.6955,-22.5501,-7.041,26.8637,-23.8403,-3.128,-12.4059,56.4295,-8.74155,-2.5378,-10.3288
-1.72034,18.0574,-35.5857,1.44699,2.36379,-5.02553,6.16659,-0.0591872,0.207911,0.39555,0.0905985,4.77122,-3.0616,0.0738888,4.82915,-14.96,-6.46912,-16.0428,25.2593,-7.44123,9.22426,11.7214,-3.82824,5.03041,1.23246e-14,-3.89618e-14,-31.3558,-11.5356,-76.513,28.234,-12.0996,-11.4458,18.5542,7.12502,14.591,-10.9125,1.23246e-14,-3.89618e-14,-32.2451,12.9567,83.8445,29.6339,-7.55373,-0.104735,32.1047,7.12502,25.4901,60.4198,-5.89103,-0.960661,29.41,29.4854,-23.0459,-6.96402,30.4653,-24.7428,-3.2184,-11.6712,57.9564,-7.66052,-3.1602,3.70243
-1.7261,18.0505,-35.5827,1.35109,1.7756,-5.4826,6.31491,0.188212,0.645518,0.620212,0.450924,4.91617,-2.93979,0.245525,4.69977,-15.045,-6.45005,-16.2015,25.1743,-7.38126,9.34073,11.709,-3.79851,5.10849,-7.45443e-15,-1.11319e-14,-31.3084,-11.4859,-76.4838,28.2707,-11.6344,-10.3184,20.9641,7.12502,15.677,-8.42079,-7.45443e-15,-1.11319e-14,-32.239,12.6808,84.0325,30.1269,-7.25715,-0.0635559,32.3627,7.12502,25.5295,60.6721,-5.72077,-0.717918,29.889,29.3202,-22.4973,-7.20219,25.5823,-25.7046,-2.62887,-11.0557,59.3207,-6.95119,-3.49527,-8.76823
-1.72574,18.0472,-35.5627,1.33603,1.11603,-5.68848,6.21035,0.45424,0.915434,0.819718,0.811574,4.93874,-2.69907,0.41888,4.53687,-14.9766,-6.44564,-16.2227,25.0063,-7.38841,9.40777,11.6352,-3.79387,5.13283,-4.57205e-15,2.38542e-15,-31.2579,-11.1945,-76.6974,28.5059,-11.8315,-9.9795,18.5978,7.12502,16.0034,-10.7612,-4.57205e-15,2.38542e-15,-32.1404,12.4903,84.0779,30.0894,-7.0001,-0.27416,32.3632,7.12502,25.3277,60.7014,-5.53349,-0.628821,30.0233,29.1398,-22.6307,-6.46207,28.3286,-26.4859,-2.01916,-10.772,60.4666,-6.66645,-3.65581,-8.85125
-1.71707,18.0436,-35.5391,1.39675,0.226583,-5.73878,6.12377,0.804683,1.10297,0.894932,1.28289,4.89515,-2.60182,0.65079,4.34433,-14.7495,-6.42507,-16.2002,24.8807,-7.39621,9.40984,11.5417,-3.79791,5.12812,9.83984e-15,1.82882e-14,-31.3832,-11.8616,-76.2482,28.3467,-9.29524,-10.5693,16.3508,7.12502,15.4354,-13.0529,9.83984e-15,1.82882e-14,-32.3555,12.2795,84.0918,30.2802,-6.88452,-0.285879,32.4336,7.12502,25.3165,60.7734,-5.39561,-0.633777,29.8848,28.9748,-22.4171,-5.74341,27.4636,-27.1716,-1.20001,-10.737,61.4245,-6.80536,-3.91133,-6.12548
-1.71879,18.037,-35.5077,1.13388,0.15833,-5.93466,6.34545,0.874518,1.33528,0.912382,1.40198,4.95707,-2.71213,0.708574,4.26529,-14.2603,-6.3846,-16.2598,24.7724,-7.40415,9.42649,11.4076,-3.81537,5.1474,-2.42517e-14,2.38542e-15,-31.6554,-9.78382,-77.3876,28.6588,-15.0586,-11.325,16.7261,7.12502,14.7074,-12.7322,-2.42517e-14,2.38542e-15,-32.9458,12.1385,84.0403,30.6835,-6.88188,-0.202807,32.0701,7.12502,25.3961,60.3986,-4.88819,-0.854672,30.0783,28.838,-22.5335,-5.45186,28.1514,-27.6279,-1.01795,-10.4463,62.1971,-7.34202,-4.45378,-8.3805
-1.71473,18.0356,-35.4686,1.1083,-0.482806,-6.14239,6.21627,1.13707,1.63049,0.986741,1.76228,4.96861,-2.57786,0.884507,4.08052,-13.9004,-6.35945,-16.3283,24.6764,-7.43362,9.52679,11.3111,-3.83105,5.19571,9.93923e-16,3.97569e-15,-31.698,-11.3786,-76.37,27.2689,-10.9112,-8.55308,19.032,7.12502,17.3766,-10.2112,9.93923e-16,3.97569e-15,-33.3538,11.8676,83.997,30.9594,-6.69751,-0.215934,32.1668,7.12502,25.3835,60.4971,-4.59122,-0.722208,30.2073,28.6701,-22.3593,-5.13898,26.4685,-28.1653,-0.445418,-10.196,62.778,-7.90275,-4.62673,-9.41969
-1.72412,18.029,-35.4726,1.28012,-0.681051,-6.30155,6.50907,1.2639,1.78585,0.90624,1.9597,4.94802,-2.83107,0.982073,3.94828,-13.8319,-6.31054,-16.3082,24.6348,-7.41341,9.65854,11.2818,-3.80615,5.24645,1.44119e-14,5.56597e-15,-31.753,-11.1631,-76.5351,27.1243,-10.9165,-8.69438,18.9891,7.12502,17.2406,-10.2661,1.44119e-14,5.56597e-15,-33.4391,11.5887,83.9475,30.8941,-6.59743,-0.356754,32.8643,7.12502,25.2486,61.2137,-4.71968,-0.485223,30.4307,28.492,-22.2601,-5.12488,27.8997,-29.2554,-0.198104,-9.94594,63.2205,-8.06009,-4.7708,-6.80811
-1.72953,18.029,-35.4457,1.24695,-0.811229,-6.45703,6.62625,1.33212,1.9981,0.950431,2.06818,4.92758,-2.84878,1.03331,3.79509,-13.7269,-6.25387,-16.2197,24.5014,-7.37143,9.68602,11.2002,-3.7758,5.24633,-1.09332e-15,4.13472e-14,-31.8939,-10.928,-76.6961,26.9435,-11.064,-8.65896,19.8329,7.12502,17.2747,-9.4193,-1.09332e-15,4.13472e-14,-33.5629,11.6172,83.7709,30.7672,-6.54875,-0.489075,32.0237,7.12502,25.1218,60.3909,-4.49521,-0.51164,30.5992,28.3458,-22.4592,-4.87753,30.1517,-29.8307,-0.040174,-9.73445,63.4373,-8.44247,-4.76143,-4.30424
-1.74094,18.0243,-35.4141,1.19728,-0.719548,-6.58507,6.60697,1.34797,2.08729,1.02605,2.09099,4.94461,-2.75832,1.04353,3.76143,-13.6206,-6.20689,-16.1141,24.4011,-7.33128,9.64765,11.1283,-3.75254,5.21867,3.23025e-14,1.59028e-14,-31.9659,-11.0246,-76.6915,26.6262,-10.9236,-8.62845,20.6552,7.12502,17.3041,-8.59447,3.23025e-14,1.59028e-14,-33.8088,11.6592,83.5883,30.7982,-6.58463,-0.4642,31.5499,7.12502,25.1457,59.9138,-4.23562,-0.507907,30.8312,28.2324,-22.1205,-5.13022,27.4861,-30.3787,0.00621404,-9.4966,63.4709,-8.80507,-4.78733,-3.50685
-1.7467,18.0181,-35.3874,1.30307,-0.652822,-6.70833,6.59262,1.39845,2.26234,1.00114,2.17044,4.91626,-2.77256,1.08124,3.62583,-13.5671,-6.17985,-15.9999,24.4408,-7.33191,9.64806,11.1267,-3.74406,5.20178,-8.84592e-15,4.85035e-14,-32.162,-11.251,-76.6748,26.557,-10.6249,-8.73782,20.6873,7.12502,17.1988,-8.57157,-8.84592e-15,4.85035e-14,-34.2213,11.591,83.3735,30.9696,-6.65279,-0.214058,31.6117,7.12502,25.3853,59.9418,-4.12496,-0.461208,31.0287,28.0248,-22.5687,-4.9563,29.0329,-31.102,0.0478696,-9.30972,63.3246,-9.30701,-4.69322,-3.89414
-1.74234,18.0233,-35.3393,1.34329,-0.833821,-6.45582,6.43625,1.5177,2.16107,1.08373,2.30467,4.7633,-2.60341,1.14834,3.51513,-13.5906,-6.21745,-15.8088,24.4355,-7.39433,9.52112,11.1249,-3.76767,5.11079,1.78906e-15,3.73715e-14,-32.224,-11.48,-76.6715,26.3795,-10.2734,-8.78859,20.8852,7.12502,17.1499,-8.37793,1.78906e-15,3.73715e-14,-34.4742,11.6248,83.1984,31.0494,-6.77283,-0.194953,31.7646,7.12502,25.4036,60.092,-3.83702,-0.497247,30.6871,27.8103,-22.4084,-4.59534,29.4071,-31.4599,0.0993869,-9.64248,62.9482,-9.93892,-4.28966,-3.11879
-1.74407,18.0275,-35.2983,1.39927,-1.09208,-6.45145,6.19862,1.63478,2.13546,1.26712,2.43647,4.76306,-2.28807,1.21411,3.52617,-13.6883,-6.27944,-15.6984,24.3592,-7.45445,9.39321,11.1147,-3.79455,5.03004,-4.96962e-15,-7.95139e-15,-31.932,-11.7016,-76.6075,25.8121,-9.8574,-8.83079,21.7336,7.12502,17.1093,-7.5331,-4.96962e-15,-7.95139e-15,-34.3123,11.9752,83.0861,30.6776,-7.05468,-0.433371,31.5701,7.12502,25.1752,59.9298,-3.61482,-0.249793,30.6961,27.6026,-22.5577,-4.54472,30.4974,-31.8307,0.278933,-9.63651,62.4385,-10.4505,-4.02544,-3.38566
-1.74837,18.0264,-35.2681,1.46319,-1.15434,-6.51951,6.54465,1.6464,2.15972,1.10891,2.48082,4.78513,-2.64727,1.23604,3.52066,-13.8113,-6.27199,-15.7545,24.6768,-7.43575,9.41892,11.2597,-3.79109,5.05974,-2.38542e-15,1.59028e-14,-32.1288,-11.4991,-76.6513,25.5217,-9.4636,-9.21555,22.0468,7.12502,16.7389,-7.25155,-2.38542e-15,1.59028e-14,-34.6383,12.4383,82.7583,30.2201,-7.45277,-0.522939,31.207,7.12502,25.0894,59.5788,-3.45158,-0.0509668,30.8213,27.3472,-22.3836,-5.02503,28.5158,-32.3029,0.35208,-9.54011,61.7965,-10.874,-3.69916,-6.69364
-1.74878,18.0284,-35.2374,1.61787,-1.15936,-6.35169,6.49279,1.63217,2.00628,1.10883,2.44753,4.74743,-2.6215,1.22078,3.57198,-13.9152,-6.22873,-15.8334,24.748,-7.35044,9.45714,11.2997,-3.7541,5.10173,1.85864e-14,-7.15625e-15,-32.2662,-11.0175,-76.8308,25.3932,-9.24454,-9.80914,22.8752,7.12502,16.1674,-6.47059,1.85864e-14,-7.15625e-15,-34.7821,12.9895,82.4867,29.9001,-7.80351,-0.259739,31.7693,7.12502,25.3416,60.1056,-3.37312,-0.0965023,30.6164,27.1074,-22.4807,-5.14201,27.974,-32.8278,0.368245,-9.7715,60.9865,-11.4892,-3.16071,-8.15204
-1.76118,18.0318,-35.1954,1.66582,-1.41939,-6.51405,6.29811,1.72164,2.01625,1.16634,2.55666,4.82025,-2.4615,1.27546,3.63886,-13.7166,-6.10083,-15.7356,24.6508,-7.18743,9.34552,11.1897,-3.68649,5.068,-4.46272e-14,-3.10104e-14,-32.7016,-10.179,-77.1405,25.989,-9.66865,-10.062,22.7301,7.12502,15.9239,-6.63522,-4.46272e-14,-3.10104e-14,-35.0794,13.239,82.2898,29.7268,-7.87345,0.0218372,32.4607,7.12502,25.6113,60.7585,-3.15788,0.422687,30.9137,26.9217,-22.8219,-5.35247,29.6961,-33.1001,0.671508,-9.54078,60.0669,-12.2,-2.74152,-8.49352
-1.74848,18.0396,-35.1472,1.67881,-1.26553,-6.28246,6.26512,1.66823,2.05548,1.14718,2.48302,4.66975,-2.4506,1.23771,3.46651,-13.8053,-6.02435,-15.5568,24.8439,-7.07515,9.18477,11.249,-3.638,4.99834,1.66979e-14,-3.4191e-14,-32.4362,-11.1022,-76.8011,24.7689,-8.66069,-10.0973,23.7502,7.12502,15.89,-5.61784,1.66979e-14,-3.4191e-14,-35.5799,13.1612,82.1024,29.773,-7.8055,0.0828746,32.5249,7.12502,25.6697,60.8143,-2.92518,-0.0768264,30.525,26.7414,-22.5299,-5.28212,26.8999,-33.2484,0.342476,-9.90286,59.028,-12.9672,-2.09974,-8.73571
-1.74444,18.038,-35.1043,1.92968,-2.36732,-6.41269,6.17182,2.02411,2.23611,1.17073,2.96089,4.6227,-2.38466,1.47414,3.27881,-14.2027,-6.04178,-15.5055,25.1284,-7.03864,9.09294,11.4253,-3.62245,4.96294,5.86415e-15,-7.15625e-15,-32.3157,-11.4762,-76.7327,24.3144,-8.31403,-10.3349,23.8984,7.12502,15.6611,-5.48775,5.86415e-15,-7.15625e-15,-35.9122,13.1637,81.9222,29.7445,-7.73938,0.0117944,32.4983,7.12502,25.6017,60.7974,-2.85711,0.678678,30.5673,26.4463,-22.726,-4.67836,29.9693,-33.4173,1.17962,-9.79725,57.9586,-13.5297,-1.48508,-8.19112
-1.75369,18.0152,-35.042,1.84842,-1.13456,-6.60733,6.05593,1.59373,2.48604,1.12968,2.40225,4.70772,-2.33191,1.19426,3.27601,-14.3014,-6.00366,-15.5143,25.3618,-6.95123,8.99788,11.5187,-3.59671,4.94726,-2.17669e-14,-7.95139e-15,-32.4737,-11.6888,-76.5811,24.2149,-7.82621,-10.2991,23.512,7.12502,15.6956,-5.87144,-2.17669e-14,-7.95139e-15,-36.2921,13.2986,81.7065,29.4592,-7.75738,-0.0983465,32.7043,7.12502,25.4962,61.0185,-2.40177,0.345504,31.045,26.1324,-22.6069,-5.88367,26.6494,-33.8728,0.16817,-9.50607,56.8931,-13.7499,-1.4358,-5.60142
-1.75355,18.0252,-34.9879,1.92453,-0.960549,-6.65613,6.22504,1.54146,2.61664,0.844391,2.36604,4.67476,-2.71351,1.174,3.16357,-14.0671,-5.89616,-15.3967,25.6557,-6.83787,8.84067,11.5565,-3.56372,4.8969,1.65985e-14,4.77083e-15,-33.0143,-11.9589,-76.3463,24.0176,-7.44741,-10.1049,23.4448,7.12502,15.8826,-5.92385,1.65985e-14,4.77083e-15,-37.0289,13.3188,81.3496,29.1422,-7.92316,-0.204973,32.6951,7.12502,25.394,61.0239,-2.07715,0.359976,31.1354,25.7544,-23.3458,-5.64298,31.2151,-34.2107,-0.0452847,-9.44766,55.6995,-14.0079,-1.17346,-3.10909
-1.7461,18.0383,-34.9363,2.16479,-1.70043,-6.57585,6.32708,1.81426,2.64379,0.670898,2.74213,4.52906,-2.95568,1.35911,2.95851,-14.1302,-5.87133,-15.0779,25.7901,-6.81454,8.59831,11.5941,-3.55113,4.75631,2.52953e-14,3.49861e-14,-33.3948,-12.3304,-76.2042,23.9008,-7.2384,-9.90605,23.562,7.12502,16.0741,-5.79131,2.52953e-14,3.49861e-14,-37.2925,13.525,80.8729,28.3577,-8.35838,-0.300374,32.1492,7.12502,25.3026,60.491,-1.88309,0.733619,30.9124,25.2872,-22.4295,-5.72154,26.4237,-34.4531,0.404351,-9.58459,54.4238,-14.4532,-0.577381,-3.77476
-1.74465,18.0434,-34.8849,2.30505,-1.79916,-6.68103,6.23106,1.87949,2.84213,0.871023,2.82355,4.47747,-2.68516,1.39817,2.79252,-15.0485,-6.03955,-14.8307,25.9641,-6.94116,8.44099,11.8479,-3.58376,4.62528,5.97348e-14,3.18055e-14,-33.0531,-13.0327,-76.0692,23.7678,-7.25707,-9.33773,23.888,7.12502,16.6213,-5.42032,5.97348e-14,3.18055e-14,-36.9689,13.8194,80.6336,27.8522,-8.71998,-0.191997,32.0281,7.12502,25.4065,60.3551,-1.60732,0.839582,31.0246,24.7366,-22.6743,-5.46397,29.7475,-34.727,0.383754,-9.471,53.0287,-14.8745,-0.308289,-4.97571
-1.74653,18.0479,-34.8276,2.42534,-1.51313,-6.78664,5.99913,1.77867,2.94435,0.751332,2.69125,4.53649,-2.67349,1.3318,2.81325,-14.7192,-5.99192,-15.0932,26.086,-6.90168,8.58803,11.841,-3.58483,4.74146,-3.598e-14,-4.77083e-15,-33.4661,-13.4413,-75.6421,23.7526,-7.58512,-8.75223,22.851,7.12502,17.1849,-6.40905,-3.598e-14,-4.77083e-15,-37.4391,14.1454,80.3374,27.444,-9.13515,-0.0754553,32.0734,7.12502,25.5181,60.3845,-1.31769,0.779055,31.2101,24.2282,-22.1346,-6.06023,25.9527,-35.0061,0.114049,-9.33345,51.5787,-15.2333,-0.402437,-5.7323
-1.74068,18.0546,-34.7744,2.48534,-1.66195,-6.78923,6.23646,1.83356,2.97104,0.488268,2.79644,4.55244,-3.08167,1.38131,2.7949,-14.3829,-5.90617,-15.311,26.2845,-6.79038,8.61169,11.8456,-3.5656,4.81607,6.09275e-14,4.21423e-14,-34.1397,-13.852,-75.116,23.7042,-7.73548,-9.43909,18.4671,7.12502,16.5237,-10.8493,6.09275e-14,4.21423e-14,-38.0909,14.3101,80.0389,26.9861,-9.55238,0.0829485,31.9696,7.12502,25.6698,60.2589,-0.944397,0.860075,31.1729,23.7261,-22.7606,-5.59234,31.0426,-35.0903,0.0482346,-9.32953,50.085,-15.4738,-0.202538,-7.02297
-1.73865,18.0511,-34.7212,2.56798,-1.36803,-6.76226,6.52274,1.77977,2.97162,-0.0711607,2.77473,4.52426,-3.8215,1.36547,2.75177,-12.8792,-5.70289,-15.3565,26.0448,-6.70969,8.57952,11.438,-3.56739,4.83768,-5.69021e-14,-3.49861e-14,-35.3583,-14.3038,-74.5122,23.6611,-7.67977,-8.86589,21.9116,7.12502,17.0755,-7.35801,-5.69021e-14,-3.49861e-14,-39.3839,14.0071,79.6075,26.673,-9.8804,0.262008,31.9177,7.12502,25.8413,60.1822,-0.584091,0.768899,31.1836,23.1861,-21.9208,-6.18376,26.496,-35.3353,-0.356738,-9.32142,48.5403,-15.6112,-0.0738306,-8.38814
-1.74126,18.0486,-34.6693,2.893,-1.36836,-6.91547,6.3691,1.83265,3.12598,0.0214499,2.84263,4.54929,-3.63459,1.3979,2.69055,-13.6204,-5.85294,-15.271,26.0199,-6.801,8.49656,11.5847,-3.59165,4.76558,2.33572e-15,-2.14687e-14,-35.0311,-14.8585,-74.3695,23.543,-7.63817,-9.15431,21.5193,7.12502,16.7979,-7.7741,2.33572e-15,-2.14687e-14,-39.0989,14.2961,79.4095,25.9856,-10.4566,0.206323,31.8905,7.12502,25.788,60.1627,-0.45572,0.923195,31.3816,22.6016,-22.2582,-6.00921,29.8229,-35.7433,-0.387494,-9.08824,46.9491,-15.8151,-0.211614,-8.6407
-1.75028,18.0533,-34.6132,2.82041,-1.05474,-6.97771,6.48589,1.72445,3.1174,0.102836,2.70243,4.60666,-3.61533,1.32907,2.76605,-13.7402,-5.86315,-15.0754,25.7548,-6.77942,8.30739,11.4884,-3.57615,4.65362,-2.48481e-16,-3.89618e-14,-34.9943,-15.0666,-74.2513,23.5191,-7.72672,-9.61751,19.3588,7.12502,16.352,-9.97182,-2.48481e-16,-3.89618e-14,-39.0413,14.9148,79.0193,25.3042,-11.1069,0.151818,31.8612,7.12502,25.7358,60.141,0.114225,1.14036,31.6366,21.9551,-21.7963,-6.85657,26.8383,-35.7105,-0.675601,-8.94558,45.2334,-15.9748,-0.38312,-8.31098
-1.74663,18.0777,-34.5538,3.09703,-1.35105,-6.75491,6.29017,1.81763,2.91542,0.00866655,2.80199,4.51342,-3.61044,1.38152,2.77709,-13.5421,-5.78961,-14.8758,25.5424,-6.68853,8.10302,11.3388,-3.5392,4.55301,-2.78299e-15,-5.88403e-14,-35.2115,-15.5571,-73.9704,23.4054,-7.61485,-9.75049,18.4181,7.12502,16.2239,-10.923,-2.78299e-15,-5.88403e-14,-39.5675,15.1805,78.664,25.3732,-11.4025,0.326901,31.8581,7.12502,25.9035,60.1135,0.27497,1.14668,31.2956,21.4542,-21.4959,-6.69641,25.9557,-36.0785,-0.600755,-9.18393,43.5428,-15.9517,-0.188895,-8.00514
-1.7419,18.0963,-34.4938,3.44087,-1.68782,-6.49604,6.02472,1.97759,2.6623,-0.161127,2.98739,4.39431,-3.64894,1.47743,2.78365,-13.2489,-5.71539,-14.7462,25.3951,-6.62253,7.99188,11.2057,-3.51287,4.49968,1.74931e-14,8.74653e-15,-35.6014,-16.152,-73.6128,23.3054,-7.56181,-9.97945,18.0813,7.12502,16.0034,-11.2777,1.74931e-14,8.74653e-15,-39.7524,15.8233,77.9999,24.334,-12.3592,0.276465,31.2665,7.12502,25.8552,59.5289,0.448808,1.08993,30.8739,20.8491,-21.2452,-6.41496,25.2207,-36.1598,-0.507799,-9.43905,41.7756,-16.3449,-0.135348,-7.83142
-1.73786,18.0681,-34.4267,3.46617,-0.993724,-6.45329,5.91128,1.78598,2.67331,-0.255659,2.73259,4.41075,-3.67559,1.35088,2.82026,-12.8802,-5.68554,-14.7478,25.2077,-6.6116,7.93376,11.0587,-3.51878,4.48049,-4.72114e-15,-1.74931e-14,-35.9665,-16.413,-73.3285,23.2962,-7.88554,-10.376,17.677,7.12502,15.6215,-11.7122,-4.72114e-15,-1.74931e-14,-40.0416,16.2888,77.5318,23.7394,-13.0822,0.423223,31.3128,7.12502,25.9957,59.5547,0.95819,0.791497,30.9409,20.2049,-21.2519,-6.85929,25.3586,-36.3009,-1.18039,-9.4173,40.1241,-16.6086,-0.30539,-8.55029
-1.7402,18.0675,-34.3491,3.45367,-0.623892,-6.55778,5.70857,1.6848,2.73066,-0.0807657,2.5836,4.50379,-3.37722,1.27825,2.90599,-13.2033,-5.78185,-14.8541,25.1136,-6.66431,7.92417,11.0996,-3.54464,4.47914,-2.77802e-14,-3.18055e-15,-35.8061,-16.7223,-73.18,23.232,-8.18196,-10.8172,17.5052,7.12502,15.1966,-11.9168,-2.77802e-14,-3.18055e-15,-39.9797,16.8141,77.2489,23.2529,-13.6682,0.422316,31.166,7.12502,25.9948,59.408,1.54659,0.834511,31.1846,19.5648,-21.2534,-7.28541,25.9024,-36.3113,-1.58204,-9.19825,38.4527,-16.6485,-0.496085,-8.50478
-1.73215,18.0728,-34.2589,3.38543,-0.581976,-6.42632,5.55684,1.68854,2.67049,0.355111,2.55072,4.49437,-2.84134,1.2649,2.94194,-14.7037,-6.0033,-14.9626,25.388,-6.73241,7.94802,11.5183,-3.55537,4.47924,-2.16675e-14,-2.3059e-14,-35.1299,-17.2503,-73.1403,23.0884,-8.1285,-11.3226,17.4925,7.12502,14.7097,-11.9657,-2.16675e-14,-2.3059e-14,-39.5131,17.3747,77.1567,22.9245,-14.0289,0.327909,31.0188,7.12502,25.9044,59.2741,2.24383,0.769852,31.0119,18.9966,-21.2878,-7.27517,25.7152,-36.1426,-1.90129,-9.25392,36.9108,-17.0111,-0.491884,-7.84028
-1.72355,18.0758,-34.1853,3.41763,-0.533488,-6.21884,5.67387,1.77057,2.52614,-0.0613711,2.67656,4.35999,-3.34254,1.32696,2.86402,-13.4824,-5.84706,-14.9784,25.2517,-6.74073,8.11629,11.2294,-3.56571,4.56051,1.29707e-14,-1.90833e-14,-36.2808,-17.5297,-72.6812,23.1902,-8.13233,-11.682,17.3543,7.12502,14.3634,-12.1288,1.29707e-14,-1.90833e-14,-40.5286,17.1502,76.6198,22.7286,-14.225,0.444218,31.3729,7.12502,26.0158,59.6118,2.88957,0.633699,30.7333,18.1816,-21.1255,-7.30147,24.9034,-36.1238,-2.21569,-9.39289,35.3846,-17.3015,-0.23163,-8.48356
-1.72062,18.0729,-34.1236,3.55007,-0.466204,-6.15444,5.75431,1.71569,2.41305,0.162681,2.58968,4.41182,-3.1601,1.28634,2.98926,-14.777,-5.95347,-15.199,25.5694,-6.66244,8.19308,11.6117,-3.52026,4.62823,2.46493e-14,-7.15625e-15,-35.5314,-17.9249,-72.5859,22.8345,-7.94317,-11.6162,17.431,7.12502,14.4269,-12.0475,2.46493e-14,-7.15625e-15,-40.1119,18.2529,76.2119,22.1218,-14.9512,0.463726,31.4699,7.12502,26.0345,59.7061,3.40831,0.56543,30.6567,17.276,-20.8616,-7.41118,24.7947,-36.2688,-2.48255,-9.33865,33.8872,-17.1746,0.211428,-9.01641
-1.72019,18.0688,-34.0524,3.66255,-0.346441,-6.25744,5.68229,1.67883,2.45023,-0.0632747,2.55308,4.44971,-3.35277,1.2677,3.01047,-13.9191,-5.79581,-15.2185,25.2481,-6.56388,8.22274,11.3049,-3.48655,4.66186,-1.61513e-14,-3.81667e-14,-35.9786,-18.2359,-72.1964,22.5404,-7.76861,-11.5106,17.9914,7.12502,14.5286,-11.4799,-1.61513e-14,-3.81667e-14,-40.7701,18.6718,75.5613,21.7171,-15.4848,0.417387,31.5331,7.12502,25.9901,59.7758,3.91249,0.56149,30.8072,16.5231,-20.7279,-7.57945,24.9847,-36.4178,-2.81995,-9.05104,32.4937,-17.0991,0.783092,-8.4972
-1.71386,18.0844,-33.9897,3.94663,-1.01216,-6.5167,5.74173,1.89852,2.67724,-0.237185,2.87501,4.47496,-3.56877,1.4231,2.87759,-14.0289,-5.71919,-15.0772,25.3393,-6.44339,8.10097,11.3342,-3.43195,4.61123,1.70955e-14,-4.77083e-15,-36.2717,-18.3159,-72.0981,22.6751,-7.72595,-11.7106,17.6043,7.12502,14.3359,-11.8807,1.70955e-14,-4.77083e-15,-41.1553,19.2635,74.9494,21.2899,-16.0992,0.436085,31.551,7.12502,26.008,59.791,4.30102,0.994798,30.9671,15.627,-20.3946,-7.33697,25.653,-36.5569,-2.78369,-8.49322,31.1581,-17.2052,1.79011,-8.53843
-1.70656,18.0792,-33.9211,4.23294,-1.48859,-6.59522,5.65631,2.10122,2.72815,-0.250986,3.14387,4.45532,-3.53993,1.55584,2.80766,-14.5527,-5.75249,-14.9126,25.5024,-6.42068,7.97005,11.4865,-3.41282,4.53422,-1.46604e-14,1.35174e-14,-36.2953,-18.459,-72.0956,22.8451,-7.75314,-11.8522,17.2092,7.12502,14.1995,-12.2855,-1.46604e-14,1.35174e-14,-41.24,19.8351,74.4855,20.9288,-16.6337,0.45763,31.1539,7.12502,26.0286,59.3909,4.68454,1.32903,30.9621,14.7191,-19.7682,-7.37056,24.3408,-36.796,-2.83452,-8.15693,29.9669,-17.3901,2.66833,-8.68183
-1.71013,18.0719,-33.8281,4.03621,-0.419373,-6.43028,5.61563,1.79365,2.52452,-0.159812,2.71449,4.48904,-3.41991,1.34713,2.99668,-14.6648,-5.78454,-14.9777,25.4541,-6.44534,8.03074,11.4987,-3.41953,4.56171,2.49475e-14,3.97569e-14,-36.281,-18.5587,-72.0082,22.848,-7.75516,-11.8407,17.2256,7.12502,14.2105,-12.2683,2.49475e-14,3.97569e-14,-41.4214,20.0122,74.31,20.8988,-16.7332,0.632565,31.3302,7.12502,26.1961,59.5425,5.57002,0.991507,31.0735,13.8764,-19.8121,-8.31357,24.3538,-36.8286,-3.56174,-8.31182,28.8595,-17.8343,2.72392,-8.72239
-1.70475,18.0687,-33.7571,4.13017,-0.611443,-6.48487,5.63484,1.90976,2.4663,-0.192568,2.87032,4.53521,-3.47567,1.42614,3.063,-14.594,-5.76825,-15.1104,25.368,-6.42566,8.14667,11.4584,-3.4095,4.6302,1.11319e-14,1.11319e-14,-36.257,-18.7354,-71.8265,22.627,-7.66887,-11.8593,17.5491,7.12502,14.1926,-11.946,1.11319e-14,1.11319e-14,-41.6395,20.0388,74.1963,20.8564,-16.6614,0.734606,31.6705,7.12502,26.2938,59.8683,6.0568,1.25694,31.1429,13.2127,-19.7002,-8.5455,23.8836,-36.9941,-3.58704,-8.11444,27.9686,-18.5145,3.47688,-9.17861
-1.6969,18.0635,-33.6785,4.26595,-0.793834,-6.51671,5.56448,2.04495,2.46223,-0.120408,3.04286,4.54394,-3.36839,1.51256,3.06279,-14.9915,-5.78075,-15.0229,25.399,-6.37861,8.06043,11.5366,-3.38146,4.5854,5.76476e-15,-5.56597e-15,-36.0592,-19.0147,-71.7151,22.4449,-7.51724,-11.9496,17.5863,7.12502,14.1056,-11.9149,5.76476e-15,-5.56597e-15,-41.5732,20.3347,73.9651,20.591,-16.8476,0.754607,31.4916,7.12502,26.313,59.6865,6.7118,1.48959,31.1692,12.1881,-19.3224,-8.71532,22.816,-37.276,-3.53516,-7.97894,27.238,-18.8574,4.07969,-9.04722
-1.68591,18.0574,-33.5975,4.34668,-0.999505,-6.55314,5.60423,2.14093,2.49379,-0.45978,3.19503,4.55007,-3.74764,1.58685,3.03183,-13.7924,-5.5498,-15.0262,25.12,-6.21226,8.00746,11.1669,-3.33211,4.59996,-4.47266e-15,-2.38542e-15,-36.8255,-18.7579,-71.4584,22.5048,-7.46778,-12.0327,17.1368,7.12502,14.0255,-12.37,-4.47266e-15,-2.38542e-15,-42.496,20.564,73.2728,20.3652,-17.1813,0.925696,31.4053,7.12502,26.4767,59.5756,7.46566,1.68176,31.1572,11.1007,-19.1027,-8.68685,23.5746,-37.5178,-3.39098,-7.91023,26.6545,-18.801,4.69045,-9.04663
-1.68894,18.047,-33.498,4.18786,-0.345311,-6.54984,5.73083,1.91811,2.49711,-0.0517879,2.883,4.59195,-3.38569,1.43256,3.10258,-15.4315,-5.83362,-14.9174,25.4041,-6.31762,7.73032,11.6043,-3.37293,4.44439,-4.07509e-15,-2.22639e-14,-35.7776,-19.3203,-71.5419,22.0027,-6.88134,-12.091,17.0291,7.12502,13.9694,-12.4815,-4.07509e-15,-2.22639e-14,-41.9054,21.6857,72.8614,19.9251,-17.9541,0.97809,31.267,7.12502,26.5269,59.4298,8.5591,1.00782,31.2877,9.95563,-19.4465,-8.66889,25.7371,-37.6539,-3.49628,-8.05644,26.1742,-18.5522,4.69809,-9.59053
-1.68384,18.0317,-33.4003,4.15131,-0.0929141,-6.62178,5.72288,1.89568,2.53483,-0.188857,2.86348,4.59642,-3.52117,1.42205,3.08629,-14.6003,-5.82702,-14.8055,25.0441,-6.43539,7.65494,11.3098,-3.43364,4.38089,1.5704e-14,-2.3059e-14,-36.1213,-19.7392,-71.1585,21.5793,-6.24123,-11.8795,17.9312,7.12502,14.1731,-11.5654,1.5704e-14,-2.3059e-14,-42.422,21.7313,72.4196,19.7501,-18.2314,0.796064,31.048,7.12502,26.3526,59.237,9.58786,0.761181,31.4068,8.67876,-18.5558,-8.87097,23.4879,-37.8672,-3.60679,-7.97528,25.8069,-18.5492,4.91659,-9.45276
-1.67,18.0166,-33.3198,4.29184,-0.528773,-6.76119,5.61811,2.12543,2.59568,-0.180291,3.16894,4.62985,-3.46348,1.57365,3.06393,-14.401,-5.82191,-15.0338,24.9109,-6.49131,8.00973,11.2481,-3.44106,4.54515,3.08116e-15,-2.3059e-14,-36.0727,-19.5412,-71.2921,22.1069,-5.91996,-11.5624,16.4771,7.12502,14.4787,-12.9978,3.08116e-15,-2.3059e-14,-42.475,21.7279,72.4075,19.6419,-18.2997,0.677644,30.9781,7.12502,26.2393,59.184,10.5594,1.2401,31.4632,7.07804,-18.3954,-8.89437,24.7378,-38.162,-3.54076,-7.65281,25.5438,-18.6492,5.62113,-9.39473
-1.65939,18.0055,-33.2352,4.43597,-0.514819,-6.78349,5.41608,2.16609,2.53918,-0.148728,3.20836,4.67961,-3.32459,1.59567,3.15192,-14.288,-5.78515,-15.1951,24.7307,-6.45134,8.17624,11.1643,-3.41757,4.6386,7.65321e-15,-3.18055e-14,-35.8508,-19.1791,-71.5051,22.2324,-6.11538,-11.6062,15.9518,7.12502,14.4365,-13.5261,7.65321e-15,-3.18055e-14,-42.4941,21.6435,72.5622,19.699,-18.1645,0.951572,31.5696,7.12502,26.5015,59.7362,11.5639,1.27045,31.4467,5.4057,-17.3283,-8.97393,23.0682,-38.5302,-3.54099,-7.59026,25.3377,-18.5349,6.0256,-10.4486
-1.64828,17.9952,-33.1407,4.41597,-0.308382,-6.74489,5.4549,2.11169,2.49875,-0.0962387,3.133,4.6955,-3.29216,1.55905,3.19688,-14.394,-5.80272,-15.2437,24.679,-6.43937,8.16142,11.1661,-3.4148,4.64001,8.64713e-15,5.56597e-15,-35.6168,-18.9471,-71.6597,22.1448,-6.25569,-11.627,16.0538,7.12502,14.4164,-13.4256,8.64713e-15,5.56597e-15,-42.5506,21.4254,72.7622,19.9535,-17.7582,1.14681,32.3522,7.12502,26.6884,60.4905,12.614,1.07636,31.3869,4.0356,-16.7965,-9.08329,21.6104,-38.7164,-3.60017,-7.67006,25.1577,-18.525,6.07301,-13.2847
-1.6371,17.9784,-33.0418,4.2348,-0.124993,-6.77333,5.67878,2.06845,2.58652,0.258092,3.07269,4.70233,-3.04404,1.52761,3.15754,-15.588,-6.02273,-15.2057,24.9069,-6.56096,8.09672,11.5031,-3.45229,4.579,-6.06293e-15,1.19271e-14,-34.8312,-19.0689,-71.9262,22.0151,-6.21379,-11.2907,16.868,7.12502,14.7404,-12.5879,-6.06293e-15,1.19271e-14,-41.9738,21.7563,72.9107,19.998,-17.6796,1.07306,32.6576,7.12502,26.6178,60.8066,14.7422,0.880288,31.3886,0.912957,-15.5845,-9.14022,20.8982,-38.7103,-3.74403,-7.64288,25.0111,-18.4512,5.99234,-9.82883
-1.62457,17.966,-32.9465,4.50391,-0.745146,-6.78129,5.44667,2.38603,2.53942,0.167742,3.48279,4.61808,-3.02025,1.7324,3.06948,-14.9614,-6.06104,-14.8625,24.4676,-6.72541,7.86235,11.2113,-3.52591,4.40436,1.04362e-14,-1.59028e-14,-34.9727,-19.2237,-71.9115,21.918,-6.20668,-11.452,16.4272,7.12502,14.585,-13.04,1.04362e-14,-1.59028e-14,-42.0917,21.7342,72.6743,19.9069,-17.881,1.23966,32.7095,7.12502,26.7772,60.8342,15.3138,1.55611,31.3096,-3.18055e-14,-15.4231,-9.14444,22.0599,-38.9328,-3.66359,-7.36888,24.8542,-18.418,6.44693,-8.23438
-1.60481,17.9595,-32.8265,4.56268,-1.05215,-6.45591,5.27129,2.59011,2.27114,0.0281369,3.73197,4.45099,-3.08104,1.85956,3.03011,-14.4581,-5.9839,-14.9826,24.4279,-6.71495,8.05898,11.1074,-3.51993,4.50761,1.93815e-14,2.3059e-14,-35.4486,-19.0696,-71.9072,22.0358,-6.42984,-11.4511,16.4186,7.12502,14.5859,-13.0485,1.93815e-14,2.3059e-14,-42.5276,21.4371,72.4655,20.0602,-17.8413,1.55281,32.5779,7.12502,27.0768,60.6563,15.7113,1.86905,30.8774,2.22639e-14,-15.0726,-9.2502,19.4218,-38.8909,-4.02719,-7.45963,24.7101,-18.6641,6.81589,-9.94172
-1.59775,17.9414,-32.7378,4.56823,-0.873083,-6.37916,5.54752,2.63037,2.17832,-0.403405,3.81529,4.3709,-3.68763,1.90048,2.9697,-12.9418,-5.83993,-15.0617,24.0329,-6.76963,8.27223,10.6802,-3.55463,4.60727,9.19379e-15,3.18055e-15,-36.4526,-18.3537,-72.0303,22.5488,-7.07895,-11.2142,16.6517,7.12502,14.8142,-12.7987,9.19379e-15,3.18055e-15,-43.3404,20.7175,72.3021,20.4437,-17.238,1.75476,32.651,7.12502,27.27,60.6992,16.0557,1.70085,30.7998,1.59028e-14,-15.6233,-9.1883,22.3685,-39.0224,-4.09171,-7.53141,24.5488,-18.3131,6.53267,-13.8981
-1.58427,17.9198,-32.6456,4.57227,-1.03597,-6.70586,5.77038,2.70371,2.49891,-0.112695,3.93274,4.46359,-3.50111,1.95343,2.87273,-14.2982,-5.99206,-15.1557,24.2819,-6.7787,8.35082,11.047,-3.53245,4.63609,-2.21645e-14,-4.29375e-14,-35.678,-17.9496,-72.5526,22.7227,-7.333,-11.226,16.7811,7.12502,14.8028,-12.6702,-2.21645e-14,-4.29375e-14,-42.7361,20.978,72.5318,20.5622,-16.925,2.04753,33.4214,7.12502,27.55,61.4254,16.42,1.89273,31.1216,-2.54444e-14,-15.7208,-9.27586,20.5594,-39.0382,-4.07475,-7.06125,24.4599,-17.9919,6.43584,-9.77162
-1.56696,17.9041,-32.5419,4.63847,-1.07817,-6.74521,5.91285,2.75809,2.54327,-0.0531246,4.01256,4.46566,-3.51928,1.99191,2.83756,-14.9943,-6.07105,-15.1697,24.4255,-6.77496,8.32511,11.2377,-3.52182,4.62241,-4.08502e-14,-1.51076e-14,-35.3208,-17.6969,-72.8095,22.7211,-7.46391,-11.3637,16.9244,7.12502,14.6701,-12.5366,-4.08502e-14,-1.51076e-14,-42.4848,21.0421,72.6414,20.57,-16.9035,1.76297,32.7112,7.12502,27.2779,60.7583,16.7282,1.9658,31.1219,-1.90833e-14,-15.8956,-9.32431,21.2488,-39.0802,-4.15365,-6.9362,24.4278,-18.0035,6.02633,-8.53416
-1.54756,17.8911,-32.4273,4.68764,-1.01879,-6.67656,5.8685,2.75225,2.48355,-0.115113,4.00175,4.45825,-3.56187,1.98755,2.86483,-14.8625,-6.04094,-15.2161,24.398,-6.73554,8.31205,11.1977,-3.5121,4.6326,-9.83984e-15,-2.14687e-14,-35.3436,-17.0848,-73.0704,22.8603,-7.90838,-11.3586,16.8294,7.12502,14.675,-12.6313,-9.83984e-15,-2.14687e-14,-42.6211,21.1026,72.5846,20.6464,-16.9587,1.79769,32.107,7.12502,27.3111,60.1488,17.0926,1.93124,31.009,4.45278e-14,-15.6848,-9.43054,19.5247,-39.0778,-4.22676,-6.99916,24.4143,-17.9892,5.51064,-8.05889
-1.51574,17.8856,-32.3334,4.96204,-2.45,-6.88859,6.02817,3.26676,2.6651,-0.281326,4.71714,4.42238,-3.8317,2.33713,2.64785,-14.6413,-6.00383,-15.3276,24.4037,-6.72405,8.4402,11.1637,-3.50774,4.70528,-1.68967e-14,-5.1684e-14,-35.568,-16.5247,-73.3,23.0692,-8.30311,-11.3091,16.7298,7.12502,14.7227,-12.7274,-1.68967e-14,-5.1684e-14,-42.9001,20.8079,72.6328,20.9901,-16.5535,1.94845,31.9902,7.12502,27.4553,60.0092,17.2201,3.42406,31.0277,-1.59028e-14,-15.1734,-9.56743,18.4215,-38.8837,-4.06441,-6.32369,24.382,-18.0279,6.50159,-7.60713
-1.49911,17.8747,-32.2164,4.82029,-2.29348,-6.6309,6.22663,3.27905,2.4065,-0.256778,4.72191,4.35587,-3.93287,2.34327,2.71107,-14.594,-6.04593,-15.4948,24.2627,-6.7874,8.61291,11.1238,-3.53055,4.78595,-3.23025e-14,-9.54166e-15,-35.6274,-16.1308,-73.5108,23.2943,-8.70481,-11.2827,16.6582,7.12502,14.7481,-12.7971,-3.23025e-14,-9.54166e-15,-42.8252,20.6547,72.7556,21.1628,-16.2199,1.95683,32.4445,7.12502,27.4633,60.4622,17.8078,3.2416,30.7576,-1.59028e-14,-14.9822,-9.69428,17.02,-38.6184,-4.44483,-6.53997,24.394,-17.6862,6.28519,-7.70271
-1.46836,17.8669,-32.0922,4.89537,-2.21607,-6.31969,5.85412,3.30595,2.2489,-0.133094,4.71632,4.24554,-3.59742,2.34483,2.71003,-14.3499,-6.09518,-15.6114,23.9051,-6.86965,8.69059,10.962,-3.56816,4.81599,1.19271e-14,-9.54166e-15,-35.5072,-15.4986,-73.92,23.6557,-9.13415,-11.4477,16.6238,7.12502,14.5891,-12.8431,1.19271e-14,-9.54166e-15,-42.6122,20.7371,72.8296,21.3025,-16.1323,2.1018,32.5681,7.12502,27.6019,60.5638,18.1801,3.19302,30.3277,-1.27222e-14,-14.944,-9.84966,15.5728,-38.5014,-4.75769,-6.87858,24.4133,-17.3016,5.7266,-6.35765
-1.44027,17.8622,-31.9689,4.9709,-2.78259,-6.32525,5.62881,3.57111,2.3113,-0.0684597,5.05597,4.16396,-3.40244,2.51303,2.57678,-14.0505,-6.1454,-15.5467,23.6826,-6.99697,8.6965,10.8361,-3.62215,4.78666,6.32135e-14,9.54166e-15,-35.4134,-15.1263,-74.2862,23.677,-8.97787,-12.0114,17.2117,7.12502,14.046,-12.2937,6.32135e-14,9.54166e-15,-42.6525,20.4491,72.9066,21.7454,-15.8541,2.28225,32.5789,7.12502,27.7745,60.5468,18.5751,3.78729,30.2203,-5.40694e-14,-14.958,-9.95365,15.7762,-38.1474,-4.84478,-6.71498,24.4018,-17.0217,5.57981,-3.9753
-1.40669,17.8608,-31.8479,5.12899,-3.65311,-6.33127,5.54025,3.93241,2.3651,-0.0396143,5.53117,4.06283,-3.32252,2.74791,2.40895,-14.1398,-6.17884,-15.4168,23.6547,-7.05706,8.68024,10.8449,-3.63686,4.74765,-6.05299e-14,-1.19271e-14,-35.1743,-14.9789,-74.5109,23.4034,-8.79986,-12.4839,17.8321,7.12502,13.5906,-11.7043,-6.05299e-14,-1.19271e-14,-42.6203,20.332,72.9013,22.0093,-15.6723,2.12777,32.0522,7.12502,27.6268,60.0438,18.8817,4.70082,30.0554,4.45278e-14,-14.492,-9.98608,15.5376,-37.7714,-4.77229,-6.58068,24.4135,-16.5334,5.93726,-1.72708
-1.37533,17.8561,-31.7361,5.40509,-4.51506,-6.38913,5.53451,4.26705,2.42108,-0.105988,5.98149,3.99309,-3.38778,2.9696,2.26575,-14.2228,-6.14554,-15.4269,23.6581,-7.01034,8.74472,10.8582,-3.60731,4.77975,-4.83047e-14,-1.74931e-14,-35.0819,-14.6848,-74.7115,23.4637,-8.96433,-12.4382,18.1217,7.12502,13.6347,-11.4117,-4.83047e-14,-1.74931e-14,-42.5417,20.251,72.967,22.2255,-15.359,2.08292,31.7713,7.12502,27.5839,59.7698,18.9879,5.62905,29.933,-3.18055e-15,-13.5575,-9.91854,15.7086,-37.532,-4.5918,-6.4234,24.4174,-15.8735,6.36181,-0.433538
-1.34781,17.8571,-31.6003,5.5492,-4.61148,-6.47056,5.43928,4.33183,2.62364,-0.211571,6.07889,3.92791,-3.41824,3.01334,2.08241,-14.0864,-6.07933,-15.4853,23.6656,-6.95377,8.85945,10.8325,-3.57745,4.84394,-1.04362e-14,3.97569e-15,-35.1565,-14.6189,-74.8253,23.5585,-8.8803,-12.0619,18.8081,7.12502,13.9974,-10.7006,-1.04362e-14,3.97569e-15,-42.6167,19.9181,73.0482,22.5754,-14.9282,2.20702,32.199,7.12502,27.7026,60.1785,19.2391,5.78623,29.905,-2.22639e-14,-13.2476,-9.84271,15.6618,-37.2369,-4.74821,-6.37489,24.4295,-14.998,6.4481,-0.858348
-1.31759,17.8644,-31.4593,5.56386,-5.09339,-6.75604,5.46482,4.48371,2.98166,-0.232058,6.3062,3.9392,-3.42182,3.11927,1.87635,-14.0843,-6.05043,-15.4797,23.6946,-6.90376,8.81444,10.834,-3.55973,4.83444,4.68138e-14,0,-35.0896,-14.5002,-74.9612,23.5269,-8.74817,-12.0817,18.0672,7.12502,13.9783,-11.4428,4.68138e-14,0,-42.7766,19.7796,72.9932,22.8368,-14.5619,2.14601,32.1065,7.12502,27.6442,60.0954,19.6698,6.31957,30.0474,-9.85972e-14,-13.7409,-9.84185,17.631,-36.6159,-4.87684,-6.05491,24.4993,-13.975,6.91461,-1.02077
-1.2883,17.8625,-31.3143,5.54241,-5.28734,-6.67624,5.29552,4.5213,2.94793,-0.11401,6.33666,3.91047,-3.2051,3.13764,1.88261,-14.281,-6.08733,-15.5194,23.6682,-6.89786,8.75927,10.8621,-3.56156,4.8173,1.82882e-14,0,-34.834,-14.1113,-75.2189,23.6232,-8.8999,-12.1754,18.2213,7.12502,13.888,-11.295,1.82882e-14,0,-42.7757,19.8462,73.0146,23.1241,-14.1455,2.10724,32.0413,7.12502,27.6071,60.0361,20.191,6.54208,29.8304,-2.22639e-14,-13.7295,-9.84288,19.5995,-36.0662,-5.01387,-6.29938,24.6595,-13.0394,6.99813,-0.686439
-1.25994,17.8561,-31.1711,5.65781,-5.25591,-6.47877,5.03448,4.51352,2.75729,-0.075299,6.2975,3.86852,-3.03356,3.12349,1.97064,-14.4526,-6.10919,-15.6229,23.6834,-6.88128,8.7849,10.9048,-3.55663,4.84451,-1.81888e-14,-1.66979e-14,-34.6043,-13.8028,-75.3689,23.6437,-9.00345,-12.2461,18.4323,7.12502,13.8199,-11.0886,-1.81888e-14,-1.66979e-14,-42.7484,19.8017,73.2175,23.6165,-13.7292,2.12882,32.7568,7.12502,27.6278,60.7483,20.5699,6.55772,29.5012,-1.90833e-14,-11.8841,-9.7224,13.4684,-35.8249,-5.00937,-6.81164,24.9474,-11.9506,6.95086,-1.48552
-1.22434,17.8606,-31.0217,5.79549,-5.38027,-6.11959,4.89846,4.5345,2.42133,-0.136153,6.30058,3.78875,-3.04717,3.13016,2.08083,-14.8564,-6.09302,-15.7062,23.9638,-6.76352,8.71244,11.0733,-3.51482,4.85081,5.57591e-14,5.56597e-15,-34.4306,-13.5515,-75.4038,23.5868,-9.02168,-12.1862,18.1633,7.12502,13.8776,-11.3537,5.57591e-14,5.56597e-15,-42.6975,20.2245,73.0889,23.4857,-13.8386,1.79124,32.9443,7.12502,27.3049,60.987,20.9036,6.73107,28.9311,-2.54444e-14,-12.2282,-9.58375,14.2849,-35.7115,-4.9959,-7.50608,25.3364,-10.9805,7.15734,-4.99396
-1.18534,17.8779,-30.8636,5.78757,-5.49789,-5.63601,4.81125,4.55213,2.07225,-0.162459,6.29652,3.61848,-3.04315,3.13263,2.1036,-15.1594,-6.04606,-15.6246,24.1996,-6.63971,8.56761,11.1952,-3.46547,4.80369,2.61402e-14,-2.38542e-14,-34.3048,-13.5306,-75.4356,23.5632,-9.00414,-12.0221,18.0623,7.12502,14.0357,-11.4438,2.61402e-14,-2.38542e-14,-42.8603,20.3763,72.9366,23.6747,-13.6919,1.53725,32.376,7.12502,27.062,60.4568,21.431,6.8755,28.2142,0,-11.2338,-9.42386,11.1196,-35.5398,-5.08292,-8.31423,25.6995,-9.76908,7.44806,-4.28648
-1.15303,17.8955,-30.7142,5.72684,-5.34954,-5.22208,4.62058,4.52338,1.73001,-0.111625,6.22607,3.50744,-2.90552,3.10339,2.20092,-15.0957,-5.99271,-15.5103,24.1709,-6.56775,8.43859,11.1523,-3.43762,4.74689,-6.36111e-15,1.59028e-14,-34.1706,-13.6762,-75.3762,23.4764,-8.75694,-11.913,18.7763,7.12502,14.1409,-10.7225,-6.36111e-15,1.59028e-14,-42.7472,20.6836,72.7543,23.5639,-13.7905,1.51619,31.9605,7.12502,27.0418,60.0444,21.9796,6.74662,27.643,-6.67916e-14,-10.2905,-9.21897,10.2235,-35.4154,-5.18323,-9.04039,25.9612,-8.59148,7.82182,-3.36538
-1.1258,17.9142,-30.5759,5.79643,-5.03593,-4.85937,4.40872,4.45731,1.3654,-0.106991,6.10908,3.42644,-2.8075,3.05109,2.34417,-14.9759,-6.00223,-15.4491,24.0637,-6.58413,8.33611,11.085,-3.45128,4.69388,-2.51463e-14,1.03368e-14,-34.0387,-13.9216,-75.2462,23.4524,-8.40105,-11.4726,19.333,7.12502,14.5652,-10.1356,-2.51463e-14,1.03368e-14,-42.5456,20.9843,72.6355,23.4411,-13.9407,1.64097,32.183,7.12502,27.1612,60.2483,22.274,6.4607,27.1792,3.81667e-14,-9.22297,-9.19576,9.2735,-35.4229,-5.21477,-9.71232,26.1409,-7.82391,7.89661,-3.87668
-1.09525,17.9399,-30.4248,5.91006,-4.75514,-4.40581,4.27895,4.41212,1.01244,-0.228967,6.02657,3.23595,-2.87327,3.0143,2.35356,-14.7988,-6.08797,-15.459,24.0736,-6.72596,8.30895,11.0738,-3.52376,4.66578,5.9536e-14,-7.95139e-16,-34.1496,-14.3113,-75.1192,23.7392,-8.11231,-11.1768,23.459,7.12502,14.8502,-5.98881,5.9536e-14,-7.95139e-16,-42.5853,20.8478,72.5629,23.5516,-13.8768,1.69121,32.1751,7.12502,27.2092,60.2329,22.5351,6.20985,26.5915,-5.725e-14,-8.15574,-9.23582,8.02274,-35.3161,-5.25143,-10.4748,26.2155,-7.50302,7.72117,-4.30532
-1.06595,17.9618,-30.2666,5.91507,-4.45861,-3.85479,4.23992,4.35976,0.529867,-0.352509,5.93093,3.0513,-3.0044,2.97343,2.43389,-14.6794,-6.16308,-15.5009,24.2117,-6.83782,8.27148,11.1192,-3.58804,4.64624,-4.87022e-14,-1.66979e-14,-34.3682,-14.5048,-75.039,24.1321,-8.1225,-11.0121,24.242,7.12502,15.0089,-5.19405,-4.87022e-14,-1.66979e-14,-42.6689,20.5249,72.6165,23.6931,-13.7549,1.4896,31.8978,7.12502,27.0164,59.9857,22.9413,5.92944,25.8901,3.81667e-14,-7.07368,-9.19228,7.53978,-34.9949,-5.20096,-11.3806,26.2103,-7.1445,7.35588,-4.56339
-1.04266,17.9779,-30.1175,5.85358,-3.98004,-3.36554,4.37318,4.23425,0.0743321,-0.492296,5.74264,2.89403,-3.244,2.88689,2.52077,-14.6495,-6.12009,-15.3989,24.3526,-6.80002,8.21676,11.1542,-3.57123,4.61858,-7.34012e-14,-1.19271e-14,-34.6123,-14.5816,-75.0419,24.45,-8.39163,-10.95,23.9968,7.12502,15.0687,-5.43479,-7.34012e-14,-1.19271e-14,-42.7468,20.393,72.5119,23.7121,-13.8268,1.21735,31.7775,7.12502,26.7559,59.9054,23.3726,5.46121,25.2995,4.77083e-14,-5.76429,-9.16531,7.52484,-34.6226,-4.94405,-12.3249,26.2544,-6.58855,6.62547,-4.88667
-1.01863,17.9939,-29.9722,5.79182,-3.28551,-2.98978,4.59925,4.02771,-0.224992,-0.646772,5.45484,2.77744,-3.53359,2.74935,2.56575,-14.6406,-6.03428,-15.3173,24.5017,-6.69914,8.18715,11.1893,-3.52449,4.61368,-5.08889e-14,-2.38542e-14,-34.9537,-14.5648,-75.0488,24.9046,-8.74501,-10.7941,23.9377,7.12502,15.2189,-5.48258,-5.08889e-14,-2.38542e-14,-42.8178,20.5783,72.1993,23.5309,-14.0721,1.08205,31.5654,7.12502,26.6264,59.7131,23.7669,4.78773,24.851,1.90833e-14,-4.26201,-9.17839,7.50872,-34.2843,-4.4746,-13.2693,26.3858,-6.02592,5.48737,-4.85502
-0.991426,18.0108,-29.8219,5.72263,-2.68838,-2.89698,4.71233,3.86357,-0.264322,-0.679335,5.23603,2.78102,-3.62368,2.6416,2.60022,-14.6428,-6.05332,-15.3668,24.5328,-6.70866,8.16845,11.2048,-3.53598,4.61402,-4.75095e-14,-1.11319e-14,-35.1336,-14.5809,-75.0034,25.3588,-9.10001,-10.6735,23.7217,7.12502,15.335,-5.68969,-4.75095e-14,-1.11319e-14,-42.6606,20.7865,72.1043,23.3645,-14.1787,1.00601,31.1918,7.12502,26.5536,59.3505,21.7681,4.17496,24.6881,4.75027,-5.00699,-9.20924,7.45,-33.8898,-3.87222,-13.8871,26.5435,-5.75559,4.34043,-4.78696
-0.961755,18.0293,-29.6616,5.6593,-2.40218,-2.92031,5.60207,3.81273,-0.574299,-1.29827,5.18853,3.03285,-4.81982,2.63757,2.95349,-14.3909,-6.03913,-15.5994,24.9978,-6.62744,7.94345,11.3247,-3.56215,4.59501,-6.2965e-14,-2.06736e-14,-36.1787,-14.0843,-74.4819,25.7989,-9.47982,-10.6036,23.2976,7.12502,15.4023,-6.1086,-6.2965e-14,-2.06736e-14,-43.5966,20.5178,72.1949,23.6198,-13.9293,0.952929,31.1005,7.12502,26.5028,59.2669,20.3245,3.88407,24.641,8.38557,-5.02483,-9.30366,6.75262,-33.4017,-3.47685,-14.1966,26.6798,-5.8532,3.80959,-4.07668
-0.931967,18.0491,-29.4977,5.51639,-2.19197,-2.7019,5.92825,3.74387,-0.911482,-1.45288,5.08158,3.07529,-5.19421,2.59842,3.17035,-14.4188,-5.98672,-15.5799,25.1441,-6.53072,7.84004,11.3684,-3.5312,4.57071,-6.11263e-15,-1.66979e-14,-36.5093,-13.6963,-74.4118,26.2237,-9.92083,-10.6522,23.1969,7.12502,15.3555,-6.21294,-6.11263e-15,-1.66979e-14,-43.8857,20.2548,72.3943,24.0524,-13.5719,1.02884,31.3133,7.12502,26.5754,59.4687,19.2592,3.6538,24.3123,11.3921,-4.64059,-9.35558,6.652,-32.7648,-3.24393,-14.7029,26.7667,-5.9533,3.64749,-2.98319
-0.908822,18.0675,-29.347,5.34178,-1.83074,-2.45595,6.07992,3.66077,-1.21313,-1.37144,4.94402,3.04169,-5.20867,2.53806,3.3123,-14.6425,-6.01748,-15.4886,25.1724,-6.55389,7.80838,11.4216,-3.53252,4.53718,1.67476e-14,-1.27222e-14,-36.5724,-13.3298,-74.6257,26.9134,-10.7527,-10.6976,23.0401,7.12502,15.3118,-6.37305,1.67476e-14,-1.27222e-14,-43.6538,19.9102,72.7344,24.4592,-13.1841,1.22698,31.7388,7.12502,26.7651,59.8653,18.3005,3.32308,24.0358,14.2004,-4.01752,-9.5005,8.30337,-32.1096,-2.93554,-15.2439,26.7796,-5.91414,3.33149,-3.51295
-0.885398,18.0817,-29.2019,5.24548,-1.53078,-2.28329,6.25458,3.63584,-1.40267,-1.41405,4.89372,2.97389,-5.35897,2.51914,3.34117,-14.544,-6.04703,-15.4415,25.1619,-6.63097,7.83113,11.4072,-3.56194,4.5272,4.47266e-15,2.38542e-15,-36.8574,-13.074,-74.76,27.6059,-11.4784,-10.6236,22.4953,7.12502,15.383,-6.91236,4.47266e-15,2.38542e-15,-43.3894,19.3595,73.0718,24.7112,-12.8253,1.44337,32.2763,7.12502,26.9721,60.371,17.2638,2.89084,23.7811,16.8989,-2.90187,-9.51367,8.92331,-31.5318,-2.75115,-15.6116,26.7398,-5.73253,3.16215,-4.53252
-0.855523,18.0955,-29.0469,5.16641,-1.44573,-2.08898,6.3437,3.68634,-1.53363,-1.52925,4.94641,2.84253,-5.5337,2.54943,3.26173,-14.1389,-6.04337,-15.3883,25.0926,-6.7265,7.91181,11.3132,-3.59789,4.53891,-4.32357e-15,1.82882e-14,-37.2339,-13.1146,-74.7466,28.0478,-11.7897,-10.5506,21.8425,7.12502,15.4534,-7.55977,-4.32357e-15,1.82882e-14,-43.2586,18.5781,73.3809,25.012,-12.3647,1.7998,32.9087,7.12502,27.3131,60.9502,16.1688,2.46594,23.3885,19.5561,-1.40825,-9.35408,8.87028,-30.9048,-2.53416,-15.9916,26.7082,-5.50807,2.98807,-4.17847
-0.823063,18.1123,-28.8842,5.09308,-1.51188,-2.02221,6.25373,3.7586,-1.54141,-1.48691,5.03739,2.76712,-5.43831,2.59205,3.1835,-14.0734,-6.1523,-15.3673,25.0454,-6.90798,7.95127,11.3079,-3.67397,4.52188,-3.26504e-14,-2.14687e-14,-37.3202,-13.1726,-74.7618,28.4813,-11.9749,-10.4261,21.4478,7.12502,15.5733,-7.94523,-3.26504e-14,-2.14687e-14,-42.962,17.9188,73.7556,25.3457,-12.0087,2.22721,32.9695,7.12502,27.7219,60.9459,15.0542,2.1525,23.0898,22.0857,0.266182,-9.38751,10.3384,-30.2624,-2.0536,-16.2965,26.717,-5.474,2.49951,-3.05897
-0.78679,18.1293,-28.7264,5.08643,-1.72725,-1.99071,6.07555,3.80422,-1.57454,-1.31302,5.09336,2.79269,-5.1643,2.61746,3.23937,-14.5933,-6.24354,-15.4433,25.1239,-6.94194,7.97066,11.4506,-3.68466,4.52979,-1.4064e-14,-7.95139e-15,-37.0447,-12.7012,-74.9362,28.9839,-12.1994,-10.5242,20.4982,7.12502,15.4788,-8.9021,-1.4064e-14,-7.95139e-15,-42.5233,17.7572,74.1523,25.6574,-11.8463,2.42207,32.6347,7.12502,27.9082,60.581,13.8189,1.84882,22.6942,24.5996,2.15815,-9.42721,13.1943,-29.7247,-1.51293,-16.5879,26.7654,-5.55303,1.93554,-1.91842
-0.749439,18.1382,-28.5675,4.97153,-0.937419,-1.70165,6.03789,3.45725,-1.788,-1.23303,4.6138,2.84042,-5.04513,2.38534,3.46833,-14.9021,-6.15798,-15.536,25.2201,-6.75809,8.00862,11.5286,-3.60165,4.5868,-2.77802e-14,-2.14687e-14,-36.8903,-11.8795,-75.1015,29.4609,-12.3698,-10.9132,18.9072,7.12502,15.1041,-10.5217,-2.77802e-14,-2.14687e-14,-42.4269,17.5646,74.57,26.2184,-11.4031,2.53502,32.704,7.12502,28.0162,60.6327,12.8065,0.791154,22.231,27.0967,4.13904,-9.81664,17.3718,-29.2156,-1.59699,-17.1944,26.8274,-5.49012,0.78484,-0.179547
-0.723915,18.1552,-28.4216,5.01118,-1.06032,-1.4758,5.99345,3.45799,-2.21973,-1.30366,4.58461,2.8578,-5.12861,2.38659,3.73206,-14.6994,-6.06269,-15.495,25.1528,-6.65964,7.99298,11.4458,-3.55817,4.59107,-5.73494e-14,1.19271e-14,-36.9955,-11.2516,-75.2097,29.9461,-12.6201,-11.0249,18.5105,7.12502,14.9965,-10.9265,-5.73494e-14,1.19271e-14,-42.4559,16.9933,74.9838,26.8291,-10.8048,2.62035,32.4309,7.12502,28.0977,60.3463,11.4105,0.460066,21.696,29.6977,6.32145,-10.0935,20.6114,-28.8181,-1.31944,-17.6221,26.8636,-5.48348,0.123313,2.84775
-0.696788,18.1757,-28.2766,4.98172,-0.951495,-1.19629,6.02211,3.44349,-2.53109,-1.34041,4.5368,2.7633,-5.19647,2.37217,3.81066,-14.5834,-6.07581,-15.3415,25.0373,-6.73361,7.98961,11.3813,-3.57756,4.55137,4.17448e-15,-1.43125e-14,-37.0797,-10.8439,-75.4106,30.5095,-13.0258,-10.8366,18.4136,7.12502,15.1779,-11.0098,4.17448e-15,-1.43125e-14,-42.2007,16.1915,75.4336,27.2703,-10.2423,2.54387,32.0239,7.12502,28.0246,59.9513,10.0662,-0.164323,21.0769,32.3522,8.06479,-10.2253,21.6212,-28.3674,-1.26454,-18.1259,26.8396,-5.44554,-0.513855,6.02333
-0.668833,18.1894,-28.1327,4.90472,-0.770954,-0.736241,6.09719,3.39849,-2.95426,-1.33248,4.43375,2.59745,-5.24124,2.33146,3.88269,-14.6535,-6.08434,-15.1723,25.0364,-6.78364,8.00122,11.3937,-3.5814,4.51878,-2.91716e-14,-3.18055e-14,-36.9448,-10.4693,-75.6747,31.0038,-13.3102,-10.6805,17.9223,7.12502,15.3282,-11.4896,-2.91716e-14,-3.18055e-14,-41.9076,15.2827,75.9607,27.8289,-9.59095,2.47263,32.1569,7.12502,27.9565,60.0953,8.79455,-0.84608,20.2828,35.1049,9.5731,-10.2898,22.7102,-27.7621,-1.26182,-18.8422,26.7901,-5.54799,-1.15396,7.75421
-0.640489,18.2036,-27.9907,4.83372,-0.661395,-0.304058,6.22145,3.33649,-3.38128,-1.32996,4.30795,2.47653,-5.32065,2.28124,4.00418,-14.713,-6.06434,-15.0693,25.09,-6.76373,7.95724,11.4167,-3.56763,4.48845,-1.5704e-14,-2.46493e-14,-36.6969,-10.1612,-75.8445,31.3515,-13.3056,-10.6091,18.082,7.12502,15.397,-11.3246,-1.5704e-14,-2.46493e-14,-41.7555,14.6432,76.36,28.4687,-9.12596,2.53971,32.2382,7.12502,28.0206,60.1661,7.2137,-1.35361,19.6174,37.8571,11.9008,-10.1862,21.5817,-27.088,-1.41185,-19.4729,26.6943,-5.80454,-1.44464,8.22524
-0.611692,18.2156,-27.8531,4.79537,-0.56788,-0.0205941,6.31046,3.26819,-3.66629,-1.3567,4.18925,2.43388,-5.40586,2.23263,4.12875,-14.5763,-6.02585,-15.1455,25.0163,-6.72201,8.00983,11.3609,-3.5516,4.52806,4.19933e-14,7.95139e-16,-36.5914,-9.90554,-75.8937,31.6971,-13.2652,-10.6198,18.5653,7.12502,15.3868,-10.8421,4.19933e-14,7.95139e-16,-41.5909,14.3047,76.6266,28.9249,-8.91153,2.51658,32.1546,7.12502,27.9985,60.0862,5.69859,-1.63656,19.1731,40.6105,13.5284,-10.6544,22.4183,-26.4755,-1.67992,-19.9057,26.5664,-6.00018,-1.44827,8.57825
-0.580255,18.2274,-27.7156,4.77363,-0.448137,0.436847,6.37491,3.20013,-4.09757,-1.4388,4.05672,2.34645,-5.54061,2.18358,4.29064,-14.3603,-5.96776,-15.2928,25.0578,-6.67527,8.14658,11.3384,-3.53446,4.61668,2.6339e-14,-7.95139e-16,-36.6914,-9.71799,-75.8729,32.0521,-13.2798,-10.7588,18.9952,7.12502,15.2528,-10.4224,2.6339e-14,-7.95139e-16,-41.5084,13.7837,76.9783,29.4071,-8.55436,2.38656,32.1648,7.12502,27.8742,60.1166,4.1949,-1.99538,18.4898,43.3497,14.8218,-11.3866,23.379,-25.8417,-1.84393,-20.5789,26.373,-6.15988,-1.56224,9.27632
-0.552155,18.2372,-27.5795,4.68827,-0.326002,0.960118,6.29272,3.13888,-4.52209,-1.3284,3.93362,2.17146,-5.38165,2.12723,4.368,-14.2658,-5.93413,-15.2434,24.9766,-6.6806,8.24924,11.29,-3.52097,4.64626,-1.21756e-14,3.97569e-15,-36.4253,-9.7952,-75.9548,32.3578,-13.1839,-10.9258,19.2136,7.12502,15.092,-10.2162,-1.21756e-14,3.97569e-15,-41.172,13.0536,77.4073,29.9899,-7.98293,2.30285,32.1877,7.12502,27.7942,60.1524,2.75667,-2.36789,17.7602,46.0476,16.1861,-12.3056,25.0642,-25.0933,-1.96948,-21.3136,26.134,-6.36438,-1.69953,9.40049
-0.533595,18.2443,-27.4551,4.57576,-0.217997,1.44935,5.67749,3.06346,-4.79271,-0.677992,3.82733,1.89163,-4.33705,2.03948,4.28686,-14.503,-5.99307,-14.9808,24.3885,-6.79839,8.36252,11.122,-3.52016,4.60835,-6.11263e-15,-3.18055e-15,-35.3673,-10.1267,-76.3583,32.8714,-13.095,-10.8629,19.118,7.12502,15.1526,-10.3072,-6.11263e-15,-3.18055e-15,-39.7786,12.552,77.7779,30.3669,-7.57484,2.15693,32.213,7.12502,27.6547,60.2002,1.27769,-2.68641,17.1546,48.6923,17.7661,-13.3195,26.999,-24.2969,-2.06952,-21.9555,25.8673,-6.55703,-1.78743,8.67965
-0.514875,18.2493,-27.3314,4.47768,-0.0917212,2.04403,5.84098,3.01981,-5.38683,-0.574282,3.71233,1.71939,-4.33585,1.99128,4.44844,-14.5881,-6.02577,-14.8483,24.3311,-6.83289,8.24933,11.1121,-3.53342,4.53514,3.27498e-14,3.97569e-14,-35.2841,-10.0655,-76.4581,33.5382,-13.2108,-10.6764,18.9588,7.12502,15.3322,-10.4528,3.27498e-14,3.97569e-14,-39.2109,12.1668,77.9871,30.6603,-7.49253,1.9829,31.6575,7.12502,27.4882,59.6713,-0.138238,-3.01135,16.4236,51.2419,17.0193,-14.5704,26.0822,-23.5101,-1.97338,-22.7592,25.5488,-6.7974,-2.03628,8.03128
-0.495849,18.2484,-27.2013,4.39473,0.24345,2.61284,5.93454,2.88559,-5.91941,-0.522663,3.48334,1.55978,-4.33034,1.88621,4.60362,-14.4815,-5.99948,-14.7722,24.2216,-6.81759,8.21489,11.0432,-3.52389,4.51074,2.08724e-15,6.36111e-15,-34.9723,-10.2762,-76.4824,33.6079,-13.1159,-10.7711,18.8692,7.12502,15.241,-10.5494,2.08724e-15,6.36111e-15,-38.9284,11.6907,78.1532,31.1041,-7.32898,1.79043,31.144,7.12502,27.3041,59.1869,-1.27222,-3.44795,15.7417,53.6631,15.9648,-16.5088,30.2517,-22.7919,-1.86535,-23.5534,25.2551,-7.02112,-2.50326,7.86084
-0.481945,18.258,-27.0815,4.25577,0.225154,2.97467,6.04622,2.86056,-6.36323,-0.382265,3.41014,1.49177,-4.26025,1.85314,4.78928,-14.551,-5.95559,-14.7144,24.1393,-6.75129,8.20005,11.0137,-3.48716,4.50272,-7.60351e-15,-1.74931e-14,-34.3522,-10.6724,-76.4627,33.4788,-12.9074,-11.0484,18.9446,7.12502,14.9739,-10.494,-7.60351e-15,-1.74931e-14,-38.6023,11.2132,78.408,31.7211,-6.97728,1.36894,31.7677,7.12502,26.9009,59.8734,-2.86385,-3.78814,15.3356,55.9293,14.569,-15.9154,22.5646,-22.0594,-1.67954,-24.0625,25.0282,-7.2376,-2.72526,8.18379
-0.466902,18.2687,-26.9632,4.18836,0.361683,3.12528,6.24697,2.79413,-6.53939,-0.356444,3.29467,1.47397,-4.34054,1.80113,4.87521,-14.6839,-5.90491,-14.7283,24.2454,-6.67841,8.26806,11.0721,-3.44661,4.5428,-9.79014e-15,-1.90833e-14,-34.1082,-10.9904,-76.3779,33.6775,-13.1365,-10.9037,19.056,7.12502,15.1133,-10.3722,-9.79014e-15,-1.90833e-14,-38.3476,10.642,78.6423,32.3005,-6.45652,0.905607,32.3632,7.12502,26.4575,60.5364,-4.37329,-4.17793,15.1966,57.9955,13.1151,-15.2878,19.5635,-21.4842,-1.60291,-24.3194,24.8963,-7.48639,-2.96463,8.66324
-0.452608,18.2765,-26.8475,4.00064,0.454894,3.14037,6.74699,2.74745,-6.60294,-0.480611,3.19181,1.50333,-4.745,1.76787,4.93106,-14.3259,-5.82091,-14.7227,24.1941,-6.6081,8.24727,10.9719,-3.42375,4.54882,5.28767e-14,-1.19271e-14,-34.3588,-11.1746,-76.2095,34.1597,-13.7075,-10.3804,18.867,7.12502,15.6173,-10.5226,5.28767e-14,-1.19271e-14,-38.3552,10.139,78.7548,32.7702,-6.03416,0.736115,32.3758,7.12502,26.2953,60.5734,-5.68549,-4.48123,15.2132,59.8828,11.763,-14.5063,18.9504,-20.7999,-1.46917,-24.4157,24.8156,-7.76636,-3.18848,9.29595
-0.431529,18.2789,-26.7165,3.74977,0.513667,3.26131,6.89301,2.66554,-6.72555,-0.354235,3.06673,1.54241,-4.68642,1.70392,5.05433,-14.2197,-5.79947,-14.7188,24.0777,-6.54627,8.08622,10.8945,-3.41361,4.49539,-1.54555e-14,3.18055e-15,-34.223,-11.3669,-76.074,34.5913,-14.0207,-10.1817,18.2381,7.12502,15.8087,-11.1364,-1.54555e-14,3.18055e-15,-38.0261,10.1339,78.8373,33.0683,-6.01214,0.675745,32.2722,7.12502,26.2375,60.4784,-6.7859,-4.86728,14.9772,61.5565,10.8094,-13.6285,20.4275,-20.0001,-1.37643,-24.6834,24.834,-8.22388,-3.25078,9.25113
-0.410222,18.2792,-26.5885,3.63227,0.549679,3.3948,6.83166,2.60059,-6.81085,-0.161616,2.98132,1.53655,-4.44139,1.64988,5.11327,-14.4095,-5.79048,-14.8121,24.0801,-6.50218,8.16995,10.9333,-3.38856,4.5465,-2.73329e-14,1.27222e-14,-33.7919,-11.4801,-76.1284,34.7651,-14.5624,-10.2105,17.4662,7.12502,15.7809,-11.9105,-2.73329e-14,1.27222e-14,-37.4977,10.1192,78.9196,33.3814,-6.00676,0.716808,32.1977,7.12502,26.2768,60.398,-8.07654,-5.20185,14.7641,63.1022,10.1161,-12.8519,22.7975,-19.4472,-1.37235,-24.9577,24.9128,-8.78643,-3.07879,7.93226
-0.393587,18.2774,-26.4653,3.60201,0.78589,3.63692,6.93176,2.51911,-6.98704,-0.177521,2.84652,1.44399,-4.49965,1.58806,5.12777,-14.2753,-5.76003,-14.7855,24.0918,-6.50575,8.23769,10.9124,-3.3834,4.56937,5.96354e-15,2.70347e-14,-33.7338,-11.5127,-76.2644,34.7977,-15.5435,-10.1838,17.1602,7.12502,15.8067,-12.2145,5.96354e-15,2.70347e-14,-37.2034,9.77125,78.9566,33.7679,-5.84304,0.745653,32.322,7.12502,26.3044,60.5181,-9.37376,-5.64288,14.4955,64.5109,7.95743,-11.8707,22.2768,-19.0175,-1.38786,-25.3361,25.004,-9.21651,-3.1169,6.79343
-0.381709,18.2736,-26.3481,3.61626,0.996064,3.78443,7.15654,2.42989,-7.13177,-0.205403,2.6968,1.41879,-4.6403,1.52237,5.19357,-14.4503,-5.81831,-14.7507,24.2677,-6.54926,8.12707,11.0137,-3.41196,4.51696,6.65929e-15,-3.49861e-14,-33.585,-11.6728,-76.2991,34.7722,-16.0472,-10.7916,17.9219,7.12502,15.2212,-11.4982,6.65929e-15,-3.49861e-14,-36.852,9.51503,79.0497,34.1404,-5.58668,0.428432,32.7257,7.12502,26.0007,60.9669,-10.736,-5.93769,14.3962,65.7992,6.12406,-11.4272,23.8321,-18.6529,-1.42067,-25.5759,25.1028,-9.51274,-3.16742,6.67596
-0.361337,18.2711,-26.2275,3.60073,1.0913,3.82941,7.07986,2.31942,-7.1033,0.00540291,2.56474,1.45768,-4.35627,1.44057,5.24107,-14.9179,-5.86846,-14.8136,24.4177,-6.51801,8.05604,11.1588,-3.40424,4.50226,-8.64713e-15,1.43125e-14,-33.0245,-12.25,-76.0115,35.4046,-13.889,-10.8655,17.6136,7.12502,15.15,-11.8118,-8.64713e-15,1.43125e-14,-36.1586,9.50793,79.2214,34.492,-5.47606,0.295233,33.5769,7.12502,25.8731,61.8367,-12.1489,-6.15805,14.3503,66.9064,4.63033,-10.9828,25.1252,-18.2441,-1.61849,-25.7195,25.2182,-9.70688,-2.86254,7.89559
-0.337568,18.2683,-26.1047,3.62097,1.34749,4.06118,6.87878,2.16736,-7.16753,0.171168,2.37428,1.40881,-4.04146,1.33076,5.25706,-15.0909,-5.85418,-14.7784,24.4628,-6.45233,7.95023,11.1963,-3.38037,4.46512,-3.37934e-14,7.95139e-16,-32.6263,-11.899,-76.3045,35.2026,-15.9776,-12.1782,21.0051,7.12502,13.8853,-8.51135,-3.37934e-14,7.95139e-16,-35.5367,9.42751,79.3228,34.8409,-5.63259,0.630847,34.2747,7.12502,26.1945,62.4872,-13.5529,-6.6427,14.0671,67.7904,3.41946,-10.248,25.9343,-17.876,-1.87614,-26.1109,25.3974,-9.6616,-2.54957,9.50603
-0.318491,18.2595,-25.9836,3.62069,1.65329,4.2963,7.06152,2.03733,-7.28116,0.0886496,2.17326,1.35416,-4.20388,1.24086,5.28112,-15.095,-5.8298,-14.7867,24.5859,-6.41151,7.91749,11.2374,-3.36887,4.46348,-1.76918e-14,-1.59028e-15,-32.7349,-11.7585,-76.362,35.3216,-16.8625,-13.0837,19.2255,7.12502,13.0125,-10.3487,-1.76918e-14,-1.59028e-15,-35.3833,9.07396,79.3867,35.2749,-5.52797,0.774645,34.3566,7.12502,26.3321,62.5487,-14.8533,-7.12022,13.8367,68.4648,2.13508,-9.63993,26.3415,-17.5574,-2.05276,-26.5019,25.655,-9.81328,-2.4689,10.0452
-0.304066,18.2522,-25.8633,3.59877,1.85222,4.19751,7.35781,1.92495,-7.18071,-0.0148934,2.01051,1.44784,-4.45556,1.17136,5.33443,-15.2425,-5.79129,-14.9611,24.8286,-6.32742,8.028,11.3582,-3.33642,4.55223,-1.72943e-14,0,-32.9447,-11.5352,-76.3515,35.7143,-17.2371,-12.7239,19.6608,7.12502,13.3593,-9.89089,-1.72943e-14,0,-35.4236,8.54709,79.5558,35.9044,-4.96125,0.539634,34.2573,7.12502,26.1071,62.4827,-16.1267,-7.34974,14.0719,68.925,0.61195,-9.29872,25.8207,-17.29,-2.16003,-26.4852,25.9606,-10.3677,-2.51786,10.5047
-0.289997,18.247,-25.7426,3.58218,1.988,4.116,7.46825,1.82448,-7.11892,-0.00131433,1.87859,1.54888,-4.48541,1.10658,5.4204,-15.4109,-5.75181,-15.0356,24.9969,-6.23494,8.04235,11.4467,-3.30005,4.58718,4.47266e-15,-5.56597e-15,-32.8308,-11.4026,-76.3368,35.8187,-17.4856,-12.821,19.7636,7.12502,13.2657,-9.79427,4.47266e-15,-5.56597e-15,-35.2492,8.1158,79.7496,36.2965,-4.75124,0.160699,33.7516,7.12502,25.7443,62.0301,-17.4157,-7.52909,14.3015,69.1961,-0.930414,-8.90965,24.4133,-17.0411,-2.24009,-26.4935,26.3334,-11.0219,-2.49588,11.2247
-0.272093,18.2366,-25.6148,3.50258,2.03232,4.26623,7.51808,1.74331,-7.27845,0.00689414,1.7546,1.58615,-4.49296,1.04922,5.56512,-15.2936,-5.67362,-14.953,24.9506,-6.12067,7.89041,11.382,-3.25983,4.53337,-1.2921e-14,1.74931e-14,-32.7914,-11.226,-76.3009,35.8582,-17.5668,-13.0179,19.9238,7.12502,13.076,-9.64632,-1.2921e-14,1.74931e-14,-35.0348,7.83664,79.8825,36.3918,-4.99822,-0.184075,33.2413,7.12502,25.414,61.5673,-18.5914,-7.6531,14.2107,69.3196,-2.45037,-8.38166,23.0461,-16.7109,-2.31959,-26.7973,26.7842,-11.63,-2.27327,11.5462
-0.259777,18.2193,-25.4978,3.52841,2.26152,4.39913,7.61067,1.59862,-7.45427,0.0027044,1.54173,1.64623,-4.52413,0.949776,5.75386,-15.3148,-5.64281,-14.9071,24.92,-6.04387,7.7432,11.3582,-3.23691,4.4803,7.45443e-15,2.38542e-15,-32.7781,-10.9712,-76.3089,36.0677,-17.5937,-12.9747,20.273,7.12502,13.1176,-9.29443,7.45443e-15,2.38542e-15,-34.7718,7.42872,80.0806,36.7427,-4.85465,-0.402768,33.3133,7.12502,25.2045,61.6689,-19.8754,-7.87857,14.2081,69.3268,-3.68994,-8.00046,22.6028,-16.5698,-2.50947,-27.0582,27.2344,-12.0422,-2.12424,11.7058
