JuanDHNZ/ProyectoFinalCD/preprocessing/sports_trials_csv/10_03.csv
root1,root2,root3,root4,root5,root6,lowerback1,lowerback2,lowerback3,upperback1,upperback2,upperback3,thorax1,thorax2,thorax3,lowerneck1,lowerneck2,lowerneck3,upperneck1,upperneck2,upperneck3,head1,head2,head3,rclavicle1,rclavicle2,rhumerus1,rhumerus2,rhumerus3,rradius1,rwrist1,rhand1,rhand2,rfingers1,rthumb1,rthumb2,lclavicle1,lclavicle2,lhumerus1,lhumerus2,lhumerus3,lradius1,lwrist1,lhand1,lhand2,lfingers1,lthumb1,lthumb2,rfemur1,rfemur2,rfemur3,rtibia1,rfoot1,rfoot2,rtoes1,lfemur1,lfemur2,lfemur3,ltibia1,lfoot1,lfoot2,ltoes1
11.3942,17.3577,-36.7611,20.9827,-49.0413,-10.1247,8.59546,1.94677,-1.34996,0.483754,2.57217,2.95982,-4.51671,1.321,3.52346,-15.2396,2.47155,-7.74075,22.2557,3.48289,7.55979,9.20479,1.77285,4.33281,9.78426e-14,1.57956e-14,-34.475,-12.047,-73.7927,42.8133,-15.9127,-11.0944,17.4763,7.12502,14.9296,-11.9656,9.78426e-14,1.57956e-14,-27.4597,17.061,74.997,30.164,-6.84707,-4.01151,30.4576,7.12502,21.7429,59.2565,-20.5369,0.639504,18.2355,58.5255,-9.37586,-10.8255,13.2965,-28.3091,7.37713,-20.4499,51.9692,-22.5066,20.5916,-59.5134
11.3757,17.3519,-36.6601,21.1104,-48.9814,-10.1532,8.75066,1.91973,-1.36798,0.449949,2.53316,2.90963,-4.6346,1.30318,3.48163,-15.4197,2.49328,-7.462,22.4111,3.46552,7.48895,9.30156,1.77896,4.2709,1.15506e-13,-1.74931e-14,-34.5784,-11.9001,-74.0348,43.1799,-16.1081,-11.2558,17.4563,7.12502,14.7741,-11.9971,1.15506e-13,-1.74931e-14,-27.117,16.8279,74.9346,30.2268,-7.15066,-3.79559,30.6826,7.12502,21.9502,59.4573,-21.2989,0.535673,18.0962,59.8247,-9.01497,-10.5332,14.4405,-28.0301,7.64662,-20.6343,51.7898,-22.8496,20.6171,-59.5591
11.356,17.3519,-36.5603,21.207,-48.8659,-10.0347,8.88351,1.81977,-1.52581,0.356032,2.38696,2.90718,-4.80318,1.23769,3.58357,-15.4416,2.56004,-7.38693,22.4367,3.53291,7.51374,9.30937,1.81895,4.27593,-2.64632e-14,2.04748e-14,-34.662,-11.6595,-74.177,43.448,-16.0913,-11.382,17.4002,7.12502,14.6525,-12.0621,-2.64632e-14,2.04748e-14,-27.0145,16.79,74.847,30.4198,-7.30589,-3.10746,31.1283,7.12502,22.6108,59.824,-22.0516,0.32377,17.9194,60.8956,-8.15719,-10.5636,14.9648,-27.6796,7.56755,-20.9042,51.3241,-22.766,20.6639,-59.5192
11.3308,17.3673,-36.46,21.3216,-48.9,-9.92373,8.93107,1.69526,-1.82035,0.305958,2.19516,2.95678,-4.8812,1.15218,3.82717,-15.2844,2.68055,-7.61024,22.2362,3.73002,7.61328,9.18521,1.90537,4.35644,1.4197e-13,1.19271e-14,-34.6691,-11.0791,-74.3197,43.7289,-15.9806,-11.3477,17.361,7.12502,14.6855,-12.0989,1.4197e-13,1.19271e-14,-27.1173,17.2149,74.6415,30.7316,-7.90726,-2.23174,31.2045,7.12502,23.4511,59.7953,-22.8299,0.243551,17.7463,61.9845,-6.99871,-10.7698,15.2736,-27.3227,7.21005,-21.178,50.9385,-22.6113,20.8215,-59.4978
11.2995,17.3944,-36.3487,21.3295,-49.1791,-9.85697,8.99607,1.84642,-2.02668,0.453117,2.36395,2.78338,-4.77828,1.23472,3.73877,-15.6584,2.58323,-7.39635,22.1466,3.56746,7.63373,9.24278,1.85691,4.31814,-6.90528e-14,-3.53837e-14,-34.6107,-11.3436,-74.5405,44.0284,-15.8382,-11.3566,17.3583,7.12502,14.677,-12.1022,-6.90528e-14,-3.53837e-14,-26.4025,16.4606,74.84,30.82,-6.71999,-3.33766,31.1378,7.12502,22.3899,59.8603,-23.4088,0.404861,17.4959,62.9628,-5.993,-10.9846,17.3963,-26.69,6.62902,-21.5174,50.487,-21.796,21.0948,-59.5485
11.2743,17.3645,-36.2514,21.2183,-49.4107,-9.69052,8.96806,1.19327,-2.75464,0.376406,1.4466,3.33974,-4.80143,0.804984,4.8651,-14.8965,3.26989,-8.67562,22.0106,4.79911,7.59611,8.91203,2.31514,4.61584,5.91509e-14,2.84262e-14,-34.2882,-8.58788,-74.7526,44.1275,-15.9986,-11.0731,17.4923,7.12502,14.9501,-11.9481,5.91509e-14,2.84262e-14,-27.471,18.5382,74.4317,31.2272,-6.51124,-3.30126,31.1497,7.12502,22.4248,59.8679,-24.1512,0.509101,17.1921,64.1665,-5.56651,-11.4739,20.7754,-26.3819,7.57993,-21.919,50.3376,-22.8282,20.8119,-59.448
11.2478,17.3697,-36.1567,21.315,-49.2404,-9.45885,8.9822,1.11511,-3.00377,0.329185,1.31731,3.31227,-4.85037,0.748852,4.99584,-15.0343,3.23126,-8.55805,22.0556,4.75275,7.48624,8.96464,2.2911,4.56049,4.45526e-14,-4.79568e-14,-34.3158,-8.48462,-74.8383,44.3332,-16.0143,-11.0807,17.627,7.12502,14.9427,-11.8139,4.45526e-14,-4.79568e-14,-27.0811,18.3627,74.4511,31.3352,-6.59801,-3.06535,31.019,7.12502,22.6512,59.7098,-25.0202,0.299979,17.0944,65.1824,-5.73868,-12.2445,22.5153,-26.314,7.50782,-22.2089,50.1156,-22.9009,20.666,-59.4311
11.2285,17.3722,-36.0785,21.7478,-48.6792,-9.26085,8.87624,0.943088,-3.12642,0.12936,1.08305,3.33467,-4.97758,0.643847,5.12234,-14.9178,3.21488,-8.70593,21.9666,4.71174,7.68603,8.90505,2.28273,4.64204,-6.68413e-14,-1.05356e-14,-34.3851,-8.58699,-74.8885,44.4836,-15.8915,-11.1957,17.7275,7.12502,14.832,-11.7216,-6.68413e-14,-1.05356e-14,-26.7172,17.9122,74.5919,31.4239,-6.33388,-3.49199,30.6948,7.12502,22.2417,59.435,-26.324,-0.0936895,17.2913,66.351,-6.0773,-12.9513,22.5105,-26.8058,7.31345,-22.3188,50.172,-22.7934,20.665,-59.3737
11.192,17.3774,-35.9471,21.6239,-49.1293,-9.48765,9.07359,1.09508,-3.0445,0.319767,1.28061,3.2073,-4.90579,0.732021,4.91219,-14.803,3.18361,-8.77773,21.908,4.6326,7.87335,8.86243,2.26013,4.70423,1.23073e-13,1.81888e-14,-34.454,-8.89776,-75.0257,44.6252,-15.6734,-10.9084,17.8284,7.12502,15.1087,-11.6002,1.23073e-13,1.81888e-14,-26.251,17.3216,74.6545,31.4143,-5.97028,-3.88941,30.5647,7.12502,21.8602,59.3499,-26.5605,0.317698,17.1982,67.2773,-6.50652,-13.1929,22.6271,-25.905,7.20083,-22.5706,50.0117,-21.4902,21.1563,-58.9565
11.1678,17.3388,-35.8622,21.6223,-49.0813,-9.24148,9.16694,1.03882,-3.36181,0.295706,1.16924,3.14945,-4.97686,0.686282,5.04724,-14.7547,3.20272,-8.70514,21.7795,4.64551,7.85186,8.81092,2.2724,4.6787,5.05907e-14,-3.46879e-14,-34.4434,-9.09039,-75.1568,44.7071,-15.4027,-10.735,17.9332,7.12502,15.2758,-11.4827,5.05907e-14,-3.46879e-14,-25.8072,16.9967,74.6526,31.4633,-5.75967,-3.92766,30.7678,7.12502,21.8234,59.5573,-27.6022,0.191199,17.1318,68.4339,-7.28414,-13.6678,22.5937,-25.895,7.96136,-22.9344,50.0243,-21.6623,21.3077,-57.9489
11.1364,17.3362,-35.7551,21.4611,-49.0699,-8.98526,9.33043,0.937159,-3.64001,0.311642,0.999197,3.11993,-5.03725,0.609716,5.19835,-14.6542,3.31855,-8.68698,21.5714,4.80068,7.84642,8.70712,2.35035,4.6763,-3.01656e-14,1.90833e-14,-34.4466,-9.06658,-75.2399,44.7647,-15.2375,-10.5377,18.188,7.12502,15.4658,-11.2134,-3.01656e-14,1.90833e-14,-25.6646,17.0692,74.5785,31.7586,-5.96598,-3.7818,31.0889,7.12502,21.9635,59.862,-28.3021,0.0282949,17.0096,69.3099,-7.97225,-14.0497,22.1292,-25.4647,7.92992,-23.3157,49.8329,-21.2916,21.3354,-56.3665
11.1021,17.341,-35.6395,21.4276,-49.0635,-8.83189,9.4371,0.818146,-3.80766,0.288918,0.819972,3.11257,-5.1024,0.527373,5.31186,-14.6153,3.42591,-8.78244,21.483,4.95648,7.91492,8.64978,2.42509,4.72529,1.98785e-15,-3.35946e-14,-34.5583,-8.76231,-75.3487,44.9176,-15.2859,-10.6391,18.1852,7.12502,15.3681,-11.2236,1.98785e-15,-3.35946e-14,-25.6318,17.3922,74.4848,32.0642,-6.23678,-3.4289,31.7528,7.12502,22.3023,60.4857,-29.0154,0.101271,16.9453,70.155,-8.57647,-14.4072,21.7086,-25.1361,7.59976,-23.6222,49.7672,-20.9619,21.1506,-54.3355
11.0674,17.343,-35.529,21.5742,-48.9529,-8.76847,9.47957,0.730671,-3.93435,0.267199,0.690175,3.13869,-5.13549,0.468115,5.43091,-14.7786,3.44021,-8.92728,21.5678,5.00318,8.00845,8.69675,2.44528,4.79552,6.72389e-14,-3.93594e-14,-34.6412,-8.45239,-75.4447,45.1225,-15.4771,-11.1955,17.8997,7.12502,14.8322,-11.5495,6.72389e-14,-3.93594e-14,-25.3554,17.3508,74.5678,32.1421,-5.95613,-3.57177,31.7962,7.12502,22.1651,60.5455,-29.8571,0.290344,17.0098,70.8855,-9.4031,-14.6025,21.7007,-24.9747,7.43217,-23.8103,49.6544,-21.0607,20.7942,-51.9761
11.0373,17.3278,-35.4344,21.7685,-48.6924,-8.72179,9.54039,0.69663,-3.96729,0.259045,0.637343,3.08818,-5.17141,0.443493,5.40369,-14.932,3.33612,-8.90887,21.6597,4.84385,8.10059,8.76904,2.38122,4.81852,3.00165e-14,-1.90833e-14,-34.7117,-8.70689,-75.4989,45.2249,-15.5864,-11.312,17.8943,7.12502,14.7199,-11.5631,3.00165e-14,-1.90833e-14,-24.7593,16.8222,74.6442,32.0927,-5.79238,-3.68838,31.4779,7.12502,22.0532,60.2404,-30.8866,0.418233,17.1842,71.657,-10.4756,-14.5634,21.9961,-24.8735,7.6656,-23.8504,49.6799,-21.6312,20.7402,-51.031
11.0066,17.3348,-35.3338,21.8645,-48.243,-8.55688,9.62882,0.567803,-3.96399,0.235825,0.4603,3.01238,-5.22272,0.357097,5.34663,-14.9509,3.3178,-8.64761,21.6477,4.77394,8.01547,8.78532,2.36047,4.73909,3.39922e-14,-6.69904e-14,-34.6794,-9.28372,-75.5635,45.0369,-15.2989,-10.9438,18.2534,7.12502,15.0746,-11.1777,3.39922e-14,-6.69904e-14,-24.0113,16.4089,74.6094,31.9719,-5.78382,-3.22654,32.0113,7.12502,22.4965,60.7209,-31.8172,0.272262,17.3657,72.2576,-11.3906,-14.5155,22.0538,-24.5127,6.93073,-23.885,49.6437,-21.2189,20.7201,-52.208
10.9762,17.3446,-35.237,21.9847,-47.62,-8.24231,9.68263,0.309018,-4.13336,0.191262,0.0962497,3.01742,-5.25569,0.183843,5.50163,-15.0495,3.40517,-8.35048,21.5682,4.87115,7.84582,8.78135,2.41479,4.6409,7.83212e-14,9.54166e-15,-34.5582,-9.36044,-75.7197,44.9532,-15.1931,-10.8407,18.393,7.12502,15.1739,-11.0306,7.83212e-14,9.54166e-15,-23.6765,16.8309,74.677,32.1719,-6.14482,-3.24871,32.0013,7.12502,22.4753,60.7134,-32.8869,-0.107206,17.5812,72.7725,-12.0284,-14.5336,22.6282,-24.4352,6.24466,-24.0076,49.5075,-20.913,20.5639,-53.7906
10.9309,17.3283,-35.0974,21.9132,-47.9837,-8.39965,9.73514,0.339278,-4.16732,0.445353,0.126992,2.99223,-5.02128,0.185966,5.48745,-15.0701,3.44641,-8.54452,21.2944,4.95125,8.00991,8.67306,2.46227,4.72605,-1.78906e-15,-2.5842e-15,-34.5007,-8.90136,-75.8548,45.0753,-15.3532,-11.1772,18.2236,7.12502,14.8498,-11.2242,-1.78906e-15,-2.5842e-15,-24.2678,18.5397,74.8884,33.1474,-7.34571,-3.55129,31.4178,7.12502,22.1848,60.1648,-33.3983,0.274614,17.5926,73.1812,-12.3733,-14.2188,21.9597,-23.9364,6.77195,-24.3149,49.3181,-19.9582,20.4021,-55.2785
10.8928,17.3319,-34.9961,21.9956,-47.4864,-8.03845,9.90816,0.0657659,-4.50252,0.336049,-0.274724,3.08584,-5.18149,0.00441886,5.84074,-14.5358,3.46717,-9.23034,20.5949,5.014,8.50394,8.29541,2.50193,4.96406,-9.35282e-14,-3.57812e-15,-34.4907,-8.39302,-75.9614,45.0838,-15.3782,-11.4309,18.1316,7.12502,14.6053,-11.3342,-9.35282e-14,-3.57812e-15,-22.2984,16.5983,74.4699,31.8537,-4.9893,-2.69509,32.2229,7.12502,23.0066,60.8699,-34.4928,0.0716141,17.7449,73.4645,-12.6375,-14.1209,20.3926,-24.5743,6.26748,-24.6021,49.0717,-17.3463,20.0036,-58.3262
10.8602,17.3607,-34.9321,22.9768,-46.3306,-7.54916,9.54269,-0.362359,-4.95542,-0.18083,-0.869848,3.25763,-5.43348,-0.252151,6.36993,-15.0198,3.55067,-8.71996,21.0977,5.12115,8.09874,8.57252,2.54211,4.79123,1.41137e-14,-1.11319e-14,-34.5191,-8.42218,-76.028,44.9146,-15.2075,-11.3538,18.2203,7.12502,14.6796,-11.2401,1.41137e-14,-1.11319e-14,-21.6711,16.4165,74.53,31.5372,-4.96955,-2.7526,32.3041,7.12502,22.9514,60.9579,-36.703,-0.457014,18.2698,73.5729,-12.7634,-14.2334,19.5803,-26.5717,5.45909,-24.4429,49.0964,-17.8421,17.9336,-62.9716
10.8146,17.4178,-34.81,23.3995,-45.9371,-7.39021,9.40172,-0.437495,-5.08751,-0.301624,-0.979208,3.23974,-5.46414,-0.29792,6.44033,-15.0761,3.47217,-8.53761,21.1443,4.98136,8.04674,8.61916,2.48433,4.73397,2.01766e-14,2.78299e-15,-34.5696,-8.97243,-75.9574,44.6942,-14.8906,-11.1907,18.354,7.12502,14.8367,-11.0948,2.01766e-14,2.78299e-15,-21.0243,15.9019,74.7434,31.4745,-4.49696,-4.07711,31.6723,7.12502,21.6799,60.4784,-37.7696,-0.558074,18.5513,73.2547,-14.0059,-13.1766,15.4818,-27.4527,4.42097,-24.1614,49.2992,-17.7035,14.6094,-63.4968
10.7649,17.4822,-34.6565,23.3275,-45.905,-7.28334,9.51075,-0.410312,-5.15115,-0.163551,-0.958552,3.16194,-5.38285,-0.293787,6.39051,-15.0956,3.40657,-8.68431,21.0104,4.88736,8.25219,8.57488,2.45444,4.81452,-9.40251e-14,4.65156e-14,-34.6299,-9.13957,-75.9423,44.7085,-14.9195,-11.0313,18.4081,7.12502,14.9903,-11.0293,-9.40251e-14,4.65156e-14,-20.3389,15.588,74.9275,31.5103,-4.00755,-4.67516,31.5932,7.12502,21.1055,60.4646,-38.0849,-0.45118,18.6053,72.6009,-13.9068,-13.089,15.3854,-27.6011,3.27887,-23.8923,49.6347,-21.8974,7.85054,-59.9665
10.7158,17.5291,-34.5097,23.4462,-45.9096,-7.36216,9.6085,-0.44311,-5.18595,-0.0722701,-1.00961,3.18113,-5.333,-0.322407,6.43891,-15.0084,3.43009,-8.99199,20.7907,4.94648,8.47731,8.46211,2.48683,4.9353,-1.07344e-14,-5.1684e-15,-34.6878,-8.89967,-76.0132,44.7839,-15.1001,-10.7193,18.498,7.12502,15.2909,-10.9168,-1.07344e-14,-5.1684e-15,-19.6389,15.5007,75.0472,31.215,-3.60591,-4.90179,31.7952,7.12502,20.8878,60.6907,-38.5427,-0.161613,18.7907,71.9088,-13.9411,-12.9923,14.3365,-27.8747,2.55015,-23.4935,50.159,-23.3689,-0.633104,-48.8656
10.6625,17.6106,-34.3499,23.5272,-45.9073,-7.32838,9.70017,-0.476241,-5.1652,-0.0423153,-1.05876,3.11163,-5.3471,-0.348394,6.36095,-15.0844,3.45264,-8.88544,20.7876,4.96683,8.43809,8.47734,2.5015,4.90876,-1.45113e-14,5.36719e-14,-34.7784,-8.75254,-76.2262,44.8316,-15.801,-10.794,18.2933,7.12502,15.2189,-11.127,-1.45113e-14,5.36719e-14,-19.0361,15.4648,75.1321,30.9292,-3.81413,-5.11112,31.7688,7.12502,20.6866,60.6863,-38.9206,0.0241121,18.9013,71.0633,-14.4359,-12.3722,14.6777,-27.8722,1.05078,-23.2728,50.5051,-21.3693,-7.11634,-21.2325
10.62,17.6144,-34.2154,23.495,-45.7584,-7.27628,9.99548,-0.499306,-5.09457,-0.0381236,-1.09708,3.051,-5.50568,-0.364231,6.26958,-15.2283,3.40914,-8.67804,20.8669,4.87988,8.36897,8.54736,2.46916,4.85125,-4.53229e-14,8.34896e-15,-34.9909,-8.22862,-76.6643,45.22,-18.0306,-11.9635,17.2178,7.12502,14.0922,-12.2844,-4.53229e-14,8.34896e-15,-18.5397,15.3332,75.2136,30.9262,-4.29736,-4.64678,31.7677,7.12502,21.1328,60.636,-39.6256,0.025627,19.1214,70.6766,-14.675,-11.8431,12.8957,-27.9143,1.05873,-23.2433,50.9883,-18.4166,-11.7472,17.204
10.5756,17.6093,-34.0824,23.648,-45.6364,-7.56885,10.2932,-0.48816,-4.91475,-0.00145509,-1.07045,3.11479,-5.64033,-0.35167,6.23946,-14.9368,3.33481,-8.82347,20.5559,4.78488,8.43063,8.3924,2.42309,4.86326,2.92213e-14,-4.01545e-14,-35.19,-8.17125,-76.5671,45.0706,-17.8043,-12.078,17.2022,7.12502,13.9818,-12.3077,2.92213e-14,-4.01545e-14,-17.987,14.8948,75.3577,30.9148,-3.71098,-4.46449,31.7862,7.12502,21.3079,60.6348,-40.3574,0.120773,19.6404,70.3519,-14.7943,-11.4915,10.0974,-27.5866,0.925384,-23.1709,51.1766,-16.3371,-12.8683,34.4512
10.5296,17.5866,-33.9501,23.8224,-45.7226,-7.72306,10.3673,-0.444906,-4.91104,0.0789163,-1.01695,3.09052,-5.60498,-0.329258,6.20383,-14.748,3.33788,-8.8185,20.3014,4.77874,8.43798,8.27302,2.42463,4.84658,5.40694e-14,3.49861e-14,-35.2396,-8.28335,-76.5797,44.8475,-17.4554,-12.3043,17.226,7.12502,13.7638,-12.2988,5.40694e-14,3.49861e-14,-17.4222,14.4856,75.4946,30.9087,-3.31271,-4.78406,31.8771,7.12502,21.0009,60.7601,-41.3656,0.346089,19.9432,70.2186,-15.3872,-11.0159,10.0991,-27.3541,1.2624,-23.2685,51.1998,-17.1364,-13.2029,32.3011
10.4818,17.5787,-33.8203,23.8952,-45.7513,-7.6167,10.4901,-0.467784,-5.11762,0.111238,-1.08013,3.03646,-5.62841,-0.355266,6.27696,-14.8325,3.40227,-8.69634,20.2747,4.83723,8.47845,8.27549,2.46747,4.84735,-7.13637e-14,2.18663e-14,-35.3139,-8.12294,-76.715,44.7757,-17.4796,-12.2585,17.3496,7.12502,13.8078,-12.1721,-7.13637e-14,2.18663e-14,-16.9855,14.5638,75.5215,31.0175,-3.92197,-4.57191,32.2517,7.12502,21.2047,61.1119,-42.4577,0.414982,20.0965,70.055,-16.1593,-10.3227,11.6383,-27.1016,0.604546,-23.5297,51.1579,-17.141,-12.958,34.4848
10.433,17.5787,-33.6806,23.975,-45.729,-7.67636,10.6847,-0.507025,-5.12305,0.161662,-1.14291,3.01076,-5.67567,-0.386125,6.26673,-14.7168,3.43321,-8.76529,20.1066,4.86016,8.62725,8.18867,2.49059,4.89999,-9.93923e-16,-1.74931e-14,-35.5078,-7.62323,-76.8546,44.8751,-17.8902,-12.4066,17.2076,7.12502,13.6652,-12.3238,-9.93923e-16,-1.74931e-14,-16.4866,14.6796,75.4857,31.1454,-4.07249,-3.60328,33.2959,7.12502,22.1349,62.0487,-43.3844,0.454815,20.4484,69.7851,-16.5827,-9.78893,10.9426,-26.4315,-1.03221,-23.7943,50.9702,-17.0457,-11.3088,35.6857
10.3863,17.5455,-33.5378,24.1372,-45.7878,-7.86771,10.7867,-0.567825,-5.07136,0.271071,-1.22171,3.0203,-5.60621,-0.432179,6.25951,-14.5499,3.50926,-8.9845,19.8308,4.96939,8.83436,8.04199,2.55103,4.99823,-8.15017e-15,-2.38542e-15,-35.5026,-7.71171,-76.5375,44.3421,-16.0111,-11.5042,18.0198,7.12502,14.5347,-11.4511,-8.15017e-15,-2.38542e-15,-16.0322,14.9579,75.4953,31.2862,-4.08311,-2.40966,34.8067,7.12502,23.2804,63.4193,-44.4616,0.550046,20.9,69.6798,-16.9149,-9.66795,8.82463,-26.2141,0.389032,-23.9414,51.0135,-15.6654,-12.9502,42.4361
10.3374,17.5377,-33.392,24.1921,-45.7469,-7.86904,10.943,-0.656633,-5.22334,0.382729,-1.36334,3.0671,-5.55065,-0.50286,6.42107,-14.4882,3.57343,-9.12807,19.4951,5.07266,8.9674,7.90025,2.60995,5.05903,-8.72665e-14,3.02153e-14,-35.3562,-7.47439,-76.5368,44.0956,-15.848,-11.3107,18.0217,7.12502,14.7212,-11.4356,-8.72665e-14,3.02153e-14,-15.5063,15.1637,75.6251,31.2743,-4.22643,-2.16849,35.0298,7.12502,23.5118,63.6129,-45.4852,0.412992,21.3076,69.4783,-17.4224,-9.52456,6.13808,-25.7678,-0.333765,-24.1368,50.6983,-15.7982,-12.6332,42.0716
10.2884,17.5039,-33.2589,24.0882,-45.6452,-7.70351,11.1678,-0.670415,-5.36675,0.456115,-1.41215,3.02305,-5.58953,-0.524266,6.46987,-14.6477,3.51235,-8.87284,19.4762,4.96881,8.84361,7.94512,2.56951,4.97099,1.78906e-15,4.77083e-15,-35.3862,-7.1519,-76.8708,44.3333,-17.7391,-12.1291,16.9897,7.12502,13.9326,-12.5235,1.78906e-15,4.77083e-15,-14.7951,14.7522,75.7373,31.1995,-3.98874,-2.97131,33.4477,7.12502,22.7415,62.1274,-46.4232,1.12608,20.6839,69.5811,-20.2668,-4.82103,28.2606,-24.892,-0.834329,-24.6627,50.3204,-16.5401,-11.4095,38.9556
10.2388,17.459,-33.1199,24.1458,-45.5934,-7.64987,11.2912,-0.668298,-5.37879,0.473416,-1.42043,2.94916,-5.64066,-0.527304,6.40248,-15.0509,3.48718,-8.39905,19.828,4.89448,8.58317,8.16479,2.54047,4.82753,-1.41137e-14,6.83819e-14,-35.5849,-7.16359,-76.836,44.3311,-17.698,-11.7875,17.0302,7.12502,14.2618,-12.4601,-1.41137e-14,6.83819e-14,-14.2396,14.3198,75.7968,31.2761,-3.76623,-3.47547,32.3482,7.12502,22.2576,61.0865,-47.7693,0.839801,21.1917,69.4896,-20.4603,-5.08338,25.4409,-23.8283,-1.45159,-25.225,49.7363,-17.6207,-9.21705,31.1914
10.1888,17.4066,-32.9689,24.1357,-45.5424,-7.68763,11.5104,-0.68135,-5.23266,0.540482,-1.4329,2.87876,-5.6955,-0.538079,6.25067,-15.2174,3.46751,-8.29374,19.8961,4.84231,8.62865,8.22412,2.52929,4.82967,5.22804e-14,7.55382e-15,-35.8177,-6.97574,-76.8137,44.3788,-17.7944,-11.4711,17.2486,7.12502,14.5666,-12.2199,5.22804e-14,7.55382e-15,-13.6723,13.9592,75.928,31.2872,-3.3592,-3.49092,32.4083,7.12502,22.2427,61.1483,-48.9686,0.497414,21.7575,69.3337,-20.2937,-5.53876,22.0046,-23.0239,-0.956465,-25.5481,49.3334,-17.3724,-9.50681,33.0535
10.1411,17.3655,-32.7904,23.7026,-45.5661,-7.6602,12.0032,-0.744746,-4.98831,0.726752,-1.51265,2.77954,-5.77047,-0.587787,6.02926,-14.6874,3.40466,-9.01589,19.4448,4.78091,9.20918,7.94405,2.50772,5.10191,5.76476e-15,-1.98785e-14,-35.9552,-6.70446,-76.8108,44.3568,-17.981,-11.5505,17.1656,7.12502,14.4901,-12.3084,5.76476e-15,-1.98785e-14,-13.1671,13.6391,75.9584,31.3073,-2.80793,-3.5622,32.4567,7.12502,22.1743,61.2049,-49.6617,-0.0193837,22.2402,69.018,-20.118,-6.31513,15.3626,-21.943,-0.852172,-25.9889,48.9685,-16.5738,-10.1892,39.6683
10.0938,17.358,-32.6271,23.7481,-45.3195,-7.60731,12.1989,-0.951814,-4.87096,0.760308,-1.78039,2.77018,-5.81043,-0.722124,6.00169,-13.5895,3.32796,-10.4864,18.5959,4.72344,10.3152,7.39594,2.48298,5.63766,6.16232e-15,-7.95139e-16,-35.9985,-6.25634,-76.9118,44.3558,-17.9737,-11.8076,16.863,7.12502,14.2424,-12.6286,6.16232e-15,-7.95139e-16,-12.7614,13.5781,75.8576,31.4484,-2.68608,-3.67444,32.3566,7.12502,22.0666,61.1176,-50.835,-0.598921,23.018,68.5605,-19.8594,-7.83891,3.9266,-21.4424,-2.77179,-26.353,48.7393,-16.3356,-8.91284,41.9592
10.0436,17.2917,-32.4778,23.7137,-45.2657,-7.64474,12.4827,-0.967952,-4.79081,0.886248,-1.80842,2.67203,-5.83668,-0.741666,5.8628,-14.4628,3.3007,-9.71191,19.2073,4.64242,9.92652,7.79628,2.46425,5.43022,-4.55217e-14,-1.43125e-14,-36.1143,-6.15409,-77.0384,44.42,-17.8958,-11.9826,16.8711,7.12502,14.0738,-12.6324,-4.55217e-14,-1.43125e-14,-12.0222,13.2755,75.8211,31.4433,-2.59786,-3.41137,32.2405,7.12502,22.3191,60.9715,-52.1442,-0.857265,23.7171,68.3449,-19.6034,-8.89358,-2.24806,-20.4283,-2.8326,-26.8014,48.3781,-16.9,-7.89316,12.6967
9.98921,17.2252,-32.3402,23.8574,-45.1898,-7.66847,12.6214,-0.931122,-4.88159,0.967201,-1.77932,2.65284,-5.8298,-0.727771,5.89289,-16.6836,3.41628,-7.74312,20.9193,4.69907,8.63407,8.86676,2.50383,4.825,7.07673e-14,-2.38542e-15,-36.1735,-6.23286,-77.0168,44.3977,-17.8421,-12.0598,17.0933,7.12502,13.9994,-12.4153,7.07673e-14,-2.38542e-15,-11.1997,12.8626,75.9473,31.3953,-2.34796,-3.08549,32.2575,7.12502,22.6319,60.9506,-53.7206,-0.986466,24.3371,68.1879,-19.5554,-9.1649,-2.35595,-19.8848,-1.74038,-26.9967,48.0871,-17.0569,-8.6301,10.2253
9.93647,17.192,-32.2038,23.9403,-44.7492,-7.42515,12.784,-1.14431,-5.14254,0.9771,-2.09775,2.79019,-5.85202,-0.875437,6.25058,-18.4077,3.73722,-6.33257,22.2177,5.08536,7.51375,9.68257,2.66439,4.36727,2.66371e-14,-3.33958e-14,-35.9923,-6.12179,-76.8845,44.2208,-17.6286,-11.9757,17.2162,7.12502,14.0804,-12.2868,2.66371e-14,-3.33958e-14,-10.592,13.0835,76.0681,31.4206,-2.34316,-2.85937,32.4251,7.12502,22.8489,61.0916,-55.3345,-1.29255,24.8918,67.977,-19.5703,-8.55516,-3.83033,-19.4806,-2.4547,-27.2586,47.7093,-16.9406,-8.41213,10.0308
9.87646,17.1435,-32.0289,23.6368,-44.6523,-7.30208,13.0838,-1.2709,-5.17894,1.18796,-2.28769,2.73452,-5.76772,-0.978088,6.25039,-18.8205,4.0636,-5.60067,22.3075,5.45995,7.04385,9.80186,2.84555,4.14633,4.85035e-14,8.74653e-15,-35.9001,-6.06623,-76.8908,44.2291,-17.6493,-11.9591,17.1487,7.12502,14.0964,-12.3531,4.85035e-14,8.74653e-15,-9.87694,13.4206,75.97,31.5143,-2.23281,-2.5084,32.6157,7.12502,23.1857,61.2402,-56.3032,-1.45518,25.2653,67.7786,-19.8067,-7.38087,-1.88443,-18.4749,-2.95435,-27.7216,47.4294,-16.9656,-8.01784,10.7656
9.81065,17.0857,-31.8594,23.3741,-44.673,-7.16852,13.3619,-1.26249,-5.26593,1.39013,-2.31299,2.54459,-5.70756,-0.998576,6.10661,-19.382,3.97876,-5.05532,22.4259,5.23158,6.91879,9.98868,2.7739,4.01159,4.81059e-14,-1.19271e-14,-35.9591,-6.53912,-76.737,44.0784,-16.6341,-11.3472,17.579,7.12502,14.686,-11.8809,4.81059e-14,-1.19271e-14,-8.98285,13.1757,75.7576,31.6037,-1.73921,-2.39891,32.7377,7.12502,23.2907,61.3489,-57.3095,-1.54692,25.5493,67.5891,-20.3798,-7.67406,-1.44771,-17.4903,-3.18353,-28.23,47.1798,-17.092,-7.72957,10.2739
9.75276,17.0289,-31.7349,23.707,-43.966,-6.70493,13.3171,-1.47488,-5.61926,1.25672,-2.64139,2.56914,-5.76102,-1.14433,6.39343,-18.3907,3.94229,-5.58817,21.0491,5.1785,7.56903,9.28467,2.7985,4.22277,1.98785e-14,-1.98785e-14,-36.0341,-6.55519,-76.7892,44.4006,-16.9918,-11.9828,17.4317,7.12502,14.0736,-12.0718,1.98785e-14,-1.98785e-14,-8.15219,12.8265,75.6699,31.4921,-1.62274,-2.52371,32.3991,7.12502,23.171,61.0254,-59.4721,-1.96607,25.9509,67.5086,-20.6702,-7.16543,0.126513,-17.6147,-3.60733,-28.4053,47.0957,-17.0257,-8.19133,9.94953
9.69311,16.9695,-31.5996,23.9633,-43.0941,-6.30116,13.2952,-1.73104,-5.76122,1.16584,-2.99676,2.61754,-5.78271,-1.31068,6.58831,-15.8725,3.62142,-7.59938,18.3677,4.88454,9.17598,7.83258,2.69365,4.86279,2.18663e-14,-1.98785e-14,-36.2256,-6.49704,-76.8496,44.8726,-17.5635,-12.5458,16.9647,7.12502,13.531,-12.5756,2.18663e-14,-1.98785e-14,-7.32945,12.6166,75.6707,31.3151,-1.96289,-2.67196,31.94,7.12502,23.0288,60.5842,-61.5174,-2.5336,26.4782,67.4006,-20.6242,-6.44428,-0.28614,-17.6082,-3.78806,-28.4315,47.0854,-16.9549,-8.98673,10.0713
9.61819,16.8751,-31.4227,23.5943,-43.1225,-6.48035,13.734,-1.7389,-5.73479,1.43586,-3.02516,2.61685,-5.73486,-1.33612,6.59263,-15.6673,3.61235,-7.92161,17.988,4.89757,9.46526,7.65117,2.70911,4.99083,5.56597e-15,-1.98785e-14,-36.4428,-6.26813,-76.7532,45.2072,-17.1821,-12.8284,17.0992,7.12502,13.2586,-12.4591,5.56597e-15,-1.98785e-14,-6.5886,12.6301,75.5948,31.1636,-1.92341,-2.66143,32.0958,7.12502,23.0389,60.7387,-62.3396,-2.41309,26.9964,67.3195,-20.4697,-5.70079,-1.19777,-16.3286,-3.16063,-28.6339,47.0325,-17.2213,-9.4203,7.87811
9.5542,16.8337,-31.2981,23.7215,-42.0499,-5.78407,13.8938,-2.20287,-6.23535,1.23214,-3.71204,2.81217,-5.89052,-1.64507,7.22636,-15.7721,3.67502,-8.13233,17.8043,5.01985,9.63291,7.58593,2.77472,5.08887,9.14409e-15,-1.90833e-14,-36.5542,-5.84121,-76.6543,45.6403,-16.945,-12.9008,17.0641,7.12502,13.1889,-12.4987,9.14409e-15,-1.90833e-14,-5.90552,12.8019,75.4763,30.9309,-1.69788,-2.57581,32.1066,7.12502,23.121,60.7393,-64.3395,-2.86601,27.2461,67.0301,-20.3255,-5.20998,-0.480452,-16.3275,-4.65647,-28.8475,46.8909,-16.8704,-9.63185,9.53348
9.47567,16.7732,-31.1035,23.6385,-41.7943,-5.64566,13.9365,-2.31115,-6.36608,1.3418,-3.87516,2.83683,-5.75889,-1.73201,7.35269,-15.6868,3.67184,-8.05624,17.3881,5.01339,9.62487,7.43826,2.78078,5.05215,3.97569e-14,4.37326e-14,-36.7876,-5.97916,-76.3468,46.0674,-16.187,-12.593,17.187,7.12502,13.4855,-12.3564,3.97569e-14,4.37326e-14,-5.15043,12.7886,75.4129,30.6385,-2.00183,-2.45281,31.8767,7.12502,23.239,60.4944,-65.4958,-2.92315,27.4797,66.7499,-20.2625,-4.13554,1.25767,-15.3753,-5.13649,-29.2333,46.5779,-16.8326,-9.64825,10.675
9.39669,16.7076,-30.926,23.8903,-41.1675,-5.63154,13.9045,-2.48542,-6.32114,1.34178,-4.09028,2.9418,-5.69982,-1.84089,7.47349,-14.9225,3.62017,-8.38915,16.4825,4.95895,9.90106,6.99739,2.75822,5.12855,-1.15295e-14,3.73715e-14,-37.1577,-5.84122,-76.3229,46.9526,-16.8939,-13.4048,16.4218,7.12502,12.703,-13.1719,-1.15295e-14,3.73715e-14,-4.37932,12.7563,75.388,30.4136,-2.37748,-2.58899,32.2005,7.12502,23.1084,60.8347,-66.9582,-3.08733,28.0088,66.4315,-19.8729,-3.29985,2.37906,-14.7567,-5.17227,-29.1585,46.2443,-16.7589,-10.1983,5.93415
9.31258,16.6414,-30.7527,24.0356,-40.5524,-5.52246,13.9483,-2.67275,-6.40543,1.35051,-4.34733,3.03652,-5.65663,-1.967,7.66919,-15.7064,3.69743,-7.80245,16.9522,5.00586,9.64642,7.30766,2.80199,4.99946,-2.66371e-14,-5.08889e-14,-37.5302,-6.01476,-75.9838,47.4951,-15.9895,-13.1199,17.1302,7.12502,12.9776,-12.4462,-2.66371e-14,-5.08889e-14,-3.67005,12.8732,75.3496,30.3,-2.61108,-2.94638,32.5762,7.12502,22.7654,61.2529,-68.3206,-3.18447,28.4094,66.1294,-19.5575,-2.2933,2.88956,-14.0358,-5.09017,-29.1174,45.7613,-16.5631,-10.8474,10.6354
9.22229,16.571,-30.5583,23.8892,-40.2104,-5.33194,14.1365,-2.81419,-6.69347,1.37469,-4.58351,3.13757,-5.66202,-2.0763,7.99686,-15.9574,3.74291,-7.80415,17.0048,5.06547,9.74057,7.36009,2.84346,5.04797,-8.70677e-14,7.15625e-15,-37.9402,-5.94054,-75.5901,48.0757,-15.1253,-12.7972,17.7925,7.12502,13.2886,-11.7638,-8.70677e-14,7.15625e-15,-3.20381,13.1235,75.331,30.2029,-2.96951,-2.87341,32.6474,7.12502,22.8355,61.3155,-69.3004,-3.15435,28.4664,65.8988,-19.4892,-1.10349,3.60808,-12.9939,-4.7038,-29.3202,45.2754,-16.3135,-11.6591,8.80431
9.13018,16.5359,-30.3602,23.9895,-39.5958,-5.17169,14.1775,-3.04982,-6.89128,1.34365,-4.92,3.28334,-5.62635,-2.23724,8.32823,-15.7716,3.72132,-7.85983,16.6685,5.04202,9.80374,7.21698,2.83557,5.05514,-1.18476e-13,-1.35174e-14,-38.2347,-6.03658,-75.26,48.6006,-13.9656,-12.3402,18.4994,7.12502,13.7291,-11.0276,-1.18476e-13,-1.35174e-14,-2.63427,13.2543,75.2036,29.9663,-3.207,-2.98139,32.5663,7.12502,22.7318,61.2472,-70.2896,-3.16201,28.3627,65.6284,-19.3093,0.60331,6.47447,-12.0495,-5.51943,-29.4887,44.5278,-15.7948,-11.584,10.8452
9.03726,16.5011,-30.183,24.5641,-38.4637,-4.94523,13.8969,-3.40065,-6.92629,1.17289,-5.36423,3.45381,-5.55027,-2.45244,8.58642,-15.5725,3.79172,-7.35954,16.272,5.07239,9.54685,7.07416,2.85748,4.86668,1.59028e-14,-1.98785e-14,-38.6142,-6.13394,-75.1962,49.5781,-13.7177,-12.5479,18.2471,7.12502,13.5289,-11.2934,1.59028e-14,-1.98785e-14,-1.84435,13.3181,75.0622,29.6486,-3.54157,-3.21821,32.7498,7.12502,22.5045,61.4584,-71.8596,-3.36259,28.3192,65.4149,-18.6428,2.24827,7.42526,-11.7521,-6.14396,-29.1928,43.7029,-15.1712,-12.2595,8.16636
8.93417,16.4516,-29.9335,24.4366,-38.3356,-5.28168,14.018,-3.43446,-6.76072,1.36683,-5.38434,3.53523,-5.41221,-2.48109,8.58267,-15.5794,3.48914,-7.95054,16.0768,4.70174,10.1383,7.01374,2.70116,5.12142,4.09496e-14,-4.13472e-14,-39.0101,-6.19654,-74.9694,50.3835,-13.1591,-13.0259,18.2817,7.12502,13.0682,-11.2889,4.09496e-14,-4.13472e-14,-1.35489,13.7991,75.0008,29.4246,-4.07761,-3.09468,33.0041,7.12502,22.6231,61.6983,-71.9819,-3.157,28.4852,65.2424,-17.9376,3.5634,5.58077,-9.89737,-6.35096,-29.3687,42.6035,-14.7119,-12.0206,8.66478
8.8317,16.3967,-29.6896,24.359,-37.9551,-5.3412,14.1302,-3.62233,-6.71647,1.37283,-5.62458,3.68148,-5.41039,-2.60053,8.76432,-15.7249,3.76275,-7.2877,16.2922,5.004,9.65036,7.11275,2.84116,4.88979,2.42517e-14,-3.65764e-14,-39.4615,-6.17186,-74.6271,51.112,-12.4286,-13.3121,18.495,7.12502,12.7923,-11.0931,2.42517e-14,-3.65764e-14,-1.13957,14.1819,74.8557,29.2018,-4.30618,-3.34685,32.8177,7.12502,22.3811,61.5412,-72.3427,-3.1891,28.6122,65.1763,-17.3215,4.56769,5.50136,-8.2922,-6.76951,-29.5934,41.5957,-13.9135,-11.8086,5.64334
8.72525,16.3368,-29.4515,24.3673,-37.4034,-5.38979,14.2386,-3.82421,-6.6589,1.34634,-5.88016,3.84234,-5.43705,-2.72495,8.95913,-15.9056,3.89375,-6.84084,16.4989,5.12753,9.36495,7.22206,2.9018,4.74753,1.11319e-14,-4.37326e-14,-39.9738,-6.12694,-74.2671,51.9679,-11.9615,-13.4199,18.74,7.12502,12.6884,-10.8545,1.11319e-14,-4.37326e-14,-0.869473,14.0762,74.6175,28.9606,-3.9994,-3.76655,32.6791,7.12502,21.9781,61.4505,-72.7518,-3.27555,28.7695,65.2683,-16.4806,5.09439,2.4452,-6.7228,-7.13979,-29.6696,40.5498,-13.0153,-11.6255,2.71132
8.61799,16.2903,-29.211,24.5572,-36.851,-5.60964,14.3452,-4.01485,-6.59271,1.29415,-6.11411,4.10793,-5.48245,-2.83694,9.26352,-16.1213,3.94211,-6.73882,16.6419,5.17837,9.33932,7.30559,2.9324,4.74063,2.90226e-14,-4.77083e-14,-40.369,-5.88752,-73.9425,52.8303,-11.8632,-13.6908,18.8059,7.12502,12.4273,-10.8047,2.90226e-14,-4.77083e-14,-0.633073,14.0383,74.3839,28.6942,-3.53337,-3.56317,32.7389,7.12502,22.1734,61.4872,-73.0931,-3.39029,29.1885,65.5533,-15.8604,5.33195,-0.620912,-5.46795,-7.49762,-29.5784,39.504,-11.4421,-11.8287,6.07247
8.50858,16.2366,-28.9623,24.7993,-36.4636,-5.94899,14.422,-4.14725,-6.55265,1.2116,-6.26933,4.46605,-5.54467,-2.90766,9.67407,-16.1857,3.96067,-6.88695,16.7576,5.24616,9.30154,7.34496,2.95199,4.76547,-2.94201e-14,-3.26007e-14,-40.7311,-5.56576,-73.5462,53.6547,-11.9943,-13.817,18.9094,7.12502,12.3056,-10.7085,-2.94201e-14,-3.26007e-14,-0.494213,14.1913,74.2341,28.3072,-3.2621,-3.36621,32.5753,7.12502,22.3625,61.301,-73.3141,-3.4117,29.6333,66.1006,-15.1081,5.58972,-2.94134,-4.19433,-7.6219,-29.5024,38.49,-9.71307,-11.9024,6.22079
8.39692,16.1291,-28.7167,24.9398,-36.072,-6.05545,14.2613,-4.32727,-6.50324,1.20082,-6.4828,4.66603,-5.40454,-3.02324,9.87918,-16.2895,3.93218,-7.12118,16.8732,5.22907,9.49281,7.38889,2.94808,4.87467,9.42239e-14,-7.23576e-14,-40.9972,-5.53989,-73.2772,54.4207,-12.2672,-13.9393,19.0581,7.12502,12.1877,-10.5668,9.42239e-14,-7.23576e-14,-0.296144,14.4821,74.0022,27.9586,-3.28591,-3.71956,32.174,7.12502,22.0232,60.9401,-73.7657,-3.44372,29.7519,67.06,-13.9926,5.71372,-2.8179,-2.5964,-6.86532,-29.7085,37.476,-10.3113,-10.8085,-16.2919
8.28244,16.0647,-28.4466,25.0343,-35.5113,-6.10146,13.8985,-4.59167,-6.0939,1.28842,-6.75392,4.64922,-5.10336,-3.18834,9.61088,-16.3942,3.86758,-7.24281,16.9144,5.08521,9.94983,7.41594,2.91695,5.04017,1.85267e-13,-2.06736e-14,-41.1981,-5.89024,-73.2302,55.1073,-12.6131,-14.2854,19.033,7.12502,11.8539,-10.6114,1.85267e-13,-2.06736e-14,-0.067844,14.9381,73.5374,27.8051,-3.77954,-3.26716,32.074,7.12502,22.4575,60.7883,-73.7999,-3.661,29.7273,68.0943,-12.8223,5.58858,2.06976,-1.37191,-7.03444,-29.8708,36.7881,-9.01282,-10.7223,-23.9646
8.16422,16.0449,-28.1421,25.1987,-34.9132,-6.56619,13.9214,-4.8826,-5.47054,1.16741,-7.03367,4.88252,-5.2342,-3.32848,9.56328,-16.2286,3.9599,-7.2573,17.1078,5.18432,9.99485,7.4379,2.96202,5.06819,-7.95139e-14,4.77083e-14,-41.7092,-5.47376,-72.9694,55.88,-13.1137,-14.4882,18.9075,7.12502,11.6584,-10.7481,-7.95139e-14,4.77083e-14,-0.507361,15.7677,73.0657,27.767,-4.52927,-2.44932,32.1558,7.12502,23.2424,60.7732,-73.091,-3.92806,29.9972,69.0925,-12.1754,5.36554,10.6057,-0.258545,-8.35569,-29.8911,36.2944,-5.0866,-11.0221,-15.5174
8.042,16.0247,-27.8119,25.0604,-34.6857,-6.80189,13.6333,-4.93168,-4.90842,1.28201,-7.00375,4.92427,-5.02148,-3.34169,9.23741,-16.2573,3.87178,-7.23928,17.193,5.0698,9.92516,7.48475,2.9015,5.03651,4.41302e-14,-7.95139e-16,-42.1329,-5.55203,-72.5743,56.64,-13.6202,-14.4784,18.9557,7.12502,11.6678,-10.6995,4.41302e-14,-7.95139e-16,-0.426922,15.9365,72.8199,27.4738,-4.77756,-3.03835,31.7694,7.12502,22.6772,60.457,-71.9335,-4.25291,29.9942,70.0913,-12.577,5.3255,16.7085,0.504212,-8.68663,-29.9015,36.4,-0.171659,-11.4408,3.04356
7.92512,15.9602,-27.5554,25.7144,-34.3046,-7.50461,13.6969,-5.05391,-4.69153,0.968589,-7.1089,5.46254,-5.32783,-3.37333,9.75664,-16.3181,3.96297,-7.28583,17.577,5.24208,9.66383,7.61128,2.95171,4.99087,2.78299e-14,1.11319e-14,-42.4526,-4.95745,-71.9955,57.1127,-13.7945,-14.4927,19.2864,7.12502,11.654,-10.3695,2.78299e-14,1.11319e-14,-0.90513,16.8073,72.4965,27.2119,-4.93533,-3.97434,31.1591,7.12502,21.7786,59.9538,-71.6066,-3.77307,30.4651,71.1164,-13.7696,4.15833,15.5696,0.54588,-7.67118,-29.1329,36.5695,2.07787,-12.649,-8.88694
7.80495,15.9311,-27.2693,26.1164,-33.8733,-7.78833,13.7278,-5.28632,-4.56707,0.589576,-7.37869,5.82527,-5.66557,-3.47942,10.1645,-16.1022,4.08353,-7.29752,17.7734,5.4029,9.57652,7.62418,3.01214,4.97794,-8.38871e-14,2.62396e-14,-42.8504,-4.23336,-71.6037,57.5799,-14.1368,-14.8339,19.2845,7.12502,11.3249,-10.3898,-8.38871e-14,2.62396e-14,-1.76596,17.9187,71.8968,27.1968,-5.72287,-4.25043,30.5037,7.12502,21.5135,59.329,-71.0105,-3.70433,30.5886,72.0104,-15.4578,3.06745,11.8627,0.297653,-8.01246,-28.7432,37.0262,7.12632,-12.4397,0.232911
7.68745,15.875,-26.9495,25.8049,-33.5826,-7.31318,13.1664,-5.39659,-4.35108,0.676387,-7.49228,5.62748,-5.29446,-3.56527,9.7503,-16.0098,3.90201,-7.36063,17.5733,5.10625,9.91141,7.55785,2.90029,5.06185,4.85035e-14,-5.56597e-15,-42.9941,-4.44047,-71.6704,58.2856,-15.6013,-15.905,18.8033,7.12502,10.2918,-10.9249,4.85035e-14,-5.56597e-15,-1.81667,18.3708,71.3557,27.198,-6.65697,-4.14865,29.8275,7.12502,21.6112,58.6416,-70.224,-4.18649,29.9137,73.0432,-17.0802,2.71939,9.81513,0.607984,-8.66989,-29.4225,37.4351,11.6189,-11.5257,5.09355
7.57964,15.8344,-26.6609,26.1463,-33.1699,-7.73367,13.2623,-5.49369,-3.94065,0.42038,-7.54309,5.9506,-5.62058,-3.57506,9.91907,-16.2147,3.87817,-7.4605,18.1212,5.0819,9.90977,7.77311,2.87877,5.10757,-5.56597e-15,9.54166e-15,-43.1012,-4.262,-71.1938,58.5202,-15.5256,-15.9717,19.3522,7.12502,10.2275,-10.3791,-5.56597e-15,9.54166e-15,-2.37253,19.0365,70.7014,27.1119,-7.09422,-3.72448,29.785,7.12502,22.0185,58.5516,-69.46,-3.93892,29.9375,73.7095,-18.2981,1.75148,9.78641,0.217623,-8.76144,-28.9787,38.3102,15.9026,-10.8974,7.1059
7.47312,15.7862,-26.3534,26.2196,-33.003,-8.07974,13.3002,-5.48276,-3.51651,0.327848,-7.45334,6.1586,-5.78392,-3.53013,9.9106,-16.565,3.86542,-7.34743,18.5976,5.08508,9.66144,8.00447,2.86309,5.04025,9.54166e-15,-7.39479e-14,-43.0825,-3.96885,-70.6502,58.7795,-15.3603,-16.1519,19.2136,7.12502,10.0536,-10.5263,9.54166e-15,-7.39479e-14,-2.6897,19.5655,70.0194,26.8504,-7.53253,-3.4191,30.0773,7.12502,22.3117,58.8092,-68.386,-3.74045,29.872,74.4216,-19.7063,0.592098,12.3549,-0.0717327,-8.48862,-28.7675,39.4986,20.0603,-9.83684,8.41144
7.37155,15.7502,-26.0653,26.3481,-32.928,-8.31144,13.4601,-5.38189,-3.36484,0.188333,-7.28509,6.32639,-6.05096,-3.4319,10.0239,-16.4845,3.8426,-7.29091,18.4105,5.06424,9.56666,7.93515,2.84914,4.98551,-6.20208e-14,-6.36111e-15,-42.9648,-3.66895,-70.2057,59.0579,-15.046,-16.1999,18.8202,7.12502,10.0073,-10.9219,-6.20208e-14,-6.36111e-15,-2.98868,20.0432,69.2517,26.6414,-8.05083,-3.86252,29.7495,7.12502,21.886,58.5317,-67.4158,-3.42978,29.82,74.9796,-21.2823,-0.914243,13.4998,-0.921922,-8.77947,-28.8322,41.3039,24.1616,-8.10996,24.5472
7.27625,15.7024,-25.7749,26.568,-33.2045,-8.77721,13.5956,-5.25159,-3.24881,0.127241,-7.08561,6.47806,-6.22432,-3.32516,10.1232,-16.3073,3.847,-7.41092,18.207,5.09244,9.60586,7.8286,2.85821,5.00534,8.82604e-14,-6.91771e-14,-42.5386,-3.2143,-69.9969,59.1795,-14.4737,-15.9021,18.8813,7.12502,10.2946,-10.8467,8.82604e-14,-6.91771e-14,-3.37332,20.7453,68.0884,26.3853,-8.45652,-4.18272,28.9935,7.12502,21.5785,57.8113,-66.3913,-2.96866,29.9149,75.5747,-22.9823,-2.55674,11.371,-2.07944,-7.33317,-28.4061,43.5704,28.7155,-7.68343,29.8066
7.18331,15.665,-25.4846,26.7601,-33.3978,-9.29898,13.7118,-5.17196,-2.96988,0.170038,-6.93169,6.58839,-6.29125,-3.25482,10.0759,-16.3649,3.77969,-7.54996,18.1382,5.03761,9.63614,7.81648,2.82802,5.03266,-1.78906e-15,-7.95139e-16,-41.8425,-2.87349,-69.8756,59.2082,-13.7763,-15.4696,19.259,7.12502,10.7118,-10.4479,-1.78906e-15,-7.95139e-16,-3.5587,21.7697,66.7488,26.0135,-8.97044,-3.92629,28.6433,7.12502,21.8247,57.4326,-65.1543,-2.51485,29.9964,76.0022,-24.5294,-4.06767,9.06658,-3.41398,-6.48062,-28.0969,46.4602,31.1491,-5.97239,27.2329
7.09213,15.6366,-25.2004,26.9673,-33.3035,-9.83383,13.7836,-5.06653,-2.4203,0.25354,-6.70177,6.66645,-6.33804,-3.15701,9.81465,-16.4667,3.59874,-7.72234,17.946,4.81388,9.81882,7.78276,2.73332,5.09772,-2.82274e-14,-7.95139e-15,-41.0681,-2.74455,-69.7176,59.2501,-13.3428,-15.237,19.7474,7.12502,10.9361,-9.94779,-2.82274e-14,-7.95139e-15,-3.6447,22.4223,65.5697,25.822,-9.05003,-4.20967,28.6412,7.12502,21.5526,57.4619,-63.8501,-2.14676,30.0174,76.3765,-26.0865,-5.07703,8.08128,-4.9418,-5.70714,-27.573,49.6004,31.4414,-3.97122,29.5387
7.00043,15.6419,-24.9076,27.2491,-33.0765,-10.4347,13.926,-4.92525,-1.86514,0.244765,-6.41265,6.85946,-6.51729,-3.02115,9.68644,-16.6153,3.48108,-7.76176,18.0672,4.67146,9.79642,7.86315,2.66213,5.09429,-1.09133e-13,4.92986e-14,-40.2272,-2.47831,-69.4187,59.1877,-13.0926,-15.2146,20.2732,7.12502,10.9578,-9.42087,-1.09133e-13,4.92986e-14,-4.02584,22.9544,64.4914,25.786,-9.1763,-4.88094,28.3802,7.12502,20.9078,57.2735,-62.2937,-1.78876,29.9659,76.4315,-27.6525,-5.77547,6.44879,-6.96935,-5.09338,-26.7667,53.3359,30.6334,-0.657231,26.9188
6.91808,15.5746,-24.6473,27.4285,-32.913,-11.1075,14.2122,-4.80032,-1.3405,0.258384,-6.14432,7.08146,-6.7393,-2.89397,9.62622,-16.5735,3.39458,-7.93236,18.0424,4.60326,9.76209,7.85077,2.61467,5.1019,-8.11041e-14,4.37326e-14,-39.1206,-2.60374,-68.7179,58.5517,-10.8115,-14.2248,21.8303,7.12502,11.9123,-7.81082,-8.11041e-14,4.37326e-14,-4.58183,24.0654,63.2735,25.7665,-9.82218,-5.71402,28.3587,7.12502,20.1072,57.3382,-61.0032,-1.16241,29.8606,76.668,-28.8422,-6.50241,3.61782,-8.36925,-3.32774,-26.0848,57.0283,27.939,-1.05361,20.5791
6.82994,15.5627,-24.3571,27.482,-32.9348,-11.8041,14.503,-4.63102,-0.768642,0.405145,-5.82036,7.1241,-6.85014,-2.75044,9.31281,-16.3635,3.21471,-8.22129,17.6536,4.37391,10.0685,7.69221,2.51845,5.20803,4.09496e-14,5.96354e-15,-37.8809,-2.57754,-68.6025,58.2702,-9.81653,-14.3849,22.288,7.12502,11.758,-7.36194,4.09496e-14,5.96354e-15,-4.97197,25.0875,61.762,25.7631,-10.4347,-6.15377,28.8124,7.12502,19.6845,57.8357,-59.1453,-0.550764,29.6854,76.5275,-29.8761,-7.15177,0.016761,-10.2569,-1.85113,-25.2996,61.2182,24.5025,0.667911,21.2362
6.74399,15.5539,-24.064,27.6196,-32.8938,-12.5346,14.6136,-4.48487,-0.123977,0.573091,-5.51969,7.20235,-6.83163,-2.62719,8.97437,-16.4211,3.0358,-8.54481,17.5855,4.16174,10.3555,7.68619,2.42669,5.3389,-2.44505e-14,3.45885e-14,-36.4853,-2.28638,-68.5747,58.2148,-9.54577,-14.7084,22.3915,7.12502,11.446,-7.27608,-2.44505e-14,3.45885e-14,-5.40689,25.92,60.2111,25.7027,-11.0548,-5.60612,28.849,7.12502,20.211,57.8176,-57.3525,-0.170581,29.6776,76.2812,-30.826,-7.64121,-2.85763,-12.2485,-0.242199,-24.4286,65.323,20.8425,1.39357,23.8278
6.65225,15.5551,-23.7833,28.2989,-33.1072,-13.4361,14.5561,-4.18182,0.0576106,0.487712,-5.06891,7.54161,-6.94393,-2.40497,9.1694,-16.8663,2.89861,-8.80888,18.1369,4.04732,10.3536,7.9531,2.35601,5.41162,-4.39314e-14,9.14409e-15,-35.104,-1.51983,-68.3577,58.302,-9.7796,-14.7583,22.4963,7.12502,11.3979,-7.17397,-4.39314e-14,9.14409e-15,-6.24963,26.7221,58.6632,25.6125,-11.5236,-6.12941,27.9516,7.12502,19.7079,56.9725,-56.0063,0.563868,29.8389,75.8159,-31.5058,-8.27575,-5.17996,-15.0459,1.67261,-23.4373,69.5776,17.1462,1.84569,17.5079
6.57423,15.5852,-23.4828,27.8359,-32.1408,-13.7948,15.1601,-4.14698,0.951004,0.736213,-4.84892,7.64458,-7.11061,-2.32252,8.77666,-17.6756,2.55863,-8.56098,18.6227,3.57664,10.2278,8.32079,2.14673,5.33046,-1.19271e-15,3.81667e-14,-33.6256,-1.42834,-68.4303,58.6953,-10.6626,-15.6399,21.9555,7.12502,10.5475,-7.75985,-1.19271e-15,3.81667e-14,-6.12124,26.9821,57.4485,25.4287,-11.9904,-7.67072,26.6596,7.12502,18.2256,55.8257,-53.5975,-0.107195,30.1406,75.114,-32.2923,-9.41346,-9.09589,-17.0797,2.36249,-22.2554,73.5313,14.931,1.04284,16.348
6.49254,15.5963,-23.1789,28.0127,-32.3406,-14.7266,15.2854,-3.67419,1.53393,0.992899,-4.1287,7.70867,-7.03815,-1.99487,8.36164,-17.8022,2.25621,-8.46664,18.5454,3.1647,10.1521,8.3663,1.95479,5.24679,2.60408e-14,-6.20208e-14,-32.1923,-1.90979,-68.0204,58.8567,-8.79893,-15.3379,21.8746,7.12502,10.8388,-7.82571,2.60408e-14,-6.20208e-14,-6.32499,27.27,56.1432,25.4288,-12.8666,-8.25332,25.8847,7.12502,17.6651,55.1022,-51.4998,0.334193,30.3515,74.3834,-32.9443,-9.62877,-9.36379,-19.573,4.11145,-21.2188,77.412,12.7915,0.583625,16.208
6.41336,15.6228,-22.8736,27.567,-31.455,-14.8314,15.6644,-3.66169,2.27097,1.08276,-3.96303,7.70301,-7.22373,-1.93187,7.92935,-17.497,1.93586,-8.57513,18.2456,2.71661,10.2909,8.25485,1.7476,5.24425,-9.44227e-14,7.95139e-14,-31.0157,-2.03113,-67.8721,59.6662,-8.14945,-15.5536,20.7088,7.12502,10.6307,-9.00233,-9.44227e-14,7.95139e-14,-6.59197,27.4702,54.6536,25.3803,-13.5662,-7.96906,25.7197,7.12502,17.9386,54.9124,-49.2112,-0.451411,30.3791,73.5486,-33.6781,-10.0787,-10.7962,-22.1178,4.66572,-20.2296,81.0962,11.0503,-0.0111067,26.2481
6.32211,15.6462,-22.585,28.0749,-31.9529,-15.4228,15.3902,-3.11181,2.12277,1.08062,-3.27531,7.76838,-7.14002,-1.59308,7.91851,-17.4577,1.67837,-8.67519,18.3119,2.37053,10.3437,8.3051,1.5811,5.24483,-3.598e-14,5.58585e-14,-29.845,-1.79923,-67.7273,60.6566,-7.80202,-15.6852,20.1016,7.12502,10.5038,-9.61601,-3.598e-14,5.58585e-14,-6.94513,28.1096,52.9945,25.3439,-13.6167,-6.73523,26.6625,7.12502,19.1255,55.7422,-47.6741,0.204168,30.2241,72.6868,-34.0232,-10.4687,-12.4723,-25.5347,6.67758,-19.5066,84.7111,9.21986,-0.850935,12.0399
6.24538,15.6747,-22.2916,28.1814,-31.7217,-15.6879,15.6352,-2.86327,2.15343,0.85614,-2.88868,8.03003,-7.55447,-1.38888,8.15454,-17.2903,1.33396,-9.07092,18.4237,2.02146,10.169,8.34813,1.36639,5.21403,4.6615e-14,-5.20816e-14,-28.8984,-1.35754,-67.1666,61.6287,-7.33327,-15.5589,20.4817,7.12502,10.6256,-9.2297,4.6615e-14,-5.20816e-14,-7.83858,29.0225,51.3727,25.2867,-14.1173,-5.59671,27.5046,7.12502,20.22,56.4722,-45.8916,0.0352643,30.093,71.6819,-34.4045,-10.375,-12.9646,-28.8548,7.94209,-18.7371,88.0779,7.45844,-1.74514,13.2061
6.16587,15.7094,-22.0011,28.2407,-31.5337,-16.1443,15.7603,-2.34944,2.31658,0.913733,-2.15635,8.29527,-7.64669,-1.03318,8.20904,-17.9588,0.927509,-9.53647,19.1431,1.5153,10.5718,8.75823,1.14242,5.42683,-8.94034e-14,2.6985e-14,-27.8622,-1.88134,-66.3884,62.705,-6.93596,-15.151,21.379,7.12502,11.0191,-8.31183,-8.94034e-14,2.6985e-14,-7.6114,29.7561,50.4172,24.6306,-15.8429,-5.77286,26.4315,7.12502,20.0507,55.417,-43.8646,-0.0319748,30.0926,70.5419,-34.7596,-10.2728,-13.5282,-31.9484,9.37923,-17.8086,91.1031,5.72589,-2.73331,14.9306
6.08254,15.745,-21.6956,28.4413,-31.5543,-16.8353,15.5921,-1.94995,2.76797,1.10288,-1.57804,8.27057,-7.42999,-0.774835,7.76687,-17.9776,0.349635,-9.96383,18.9289,0.731203,11.1059,8.77416,0.802744,5.59232,-1.44367e-14,5.06404e-14,-26.8427,-2.1527,-66.3385,64.2992,-6.63023,-14.6645,21.2309,7.12502,11.4883,-8.43432,-1.44367e-14,5.06404e-14,-7.36647,30.4201,48.7099,24.155,-17.0722,-5.20393,26.1142,7.12502,20.5975,55.0414,-41.7261,0.0860583,30.1735,69.2457,-34.9777,-10.2757,-14.637,-35.1083,11.1319,-16.8699,93.7301,3.81685,-3.58762,14.2991
6.00351,15.784,-21.421,28.7853,-30.9125,-17.0196,15.5521,-1.78078,2.96696,0.883042,-1.29846,8.25984,-7.6835,-0.636488,7.59,-17.9626,0.0280544,-9.73798,18.8763,0.186245,11.2668,8.82053,0.580137,5.54567,-4.01297e-14,4.1546e-14,-26.1453,-2.12173,-66.3975,66.069,-6.51638,-14.7425,20.9911,7.12502,11.4131,-8.67832,-4.01297e-14,4.1546e-14,-7.8837,30.8507,46.6771,24.4408,-17.1726,-3.81644,27.1859,7.12502,21.9302,55.9629,-40.2165,-0.366449,30.2621,67.9038,-34.8266,-10.55,-16.7026,-39.2164,12.1033,-16.2053,96.1759,1.72979,-4.15725,9.75176
5.92052,15.8331,-21.1163,29.0001,-30.8437,-17.35,15.49,-1.37498,3.10327,0.771849,-0.733772,8.1539,-7.83337,-0.362861,7.26984,-17.8524,-0.261816,-9.46368,18.8818,-0.31158,11.2981,8.8634,0.366904,5.44922,-7.22831e-14,-1.66979e-14,-25.6015,-2.09158,-66.3752,67.9367,-6.54787,-15.1432,20.7435,7.12502,11.0266,-8.94692,-7.22831e-14,-1.66979e-14,-8.97245,30.8983,44.7176,25.2708,-16.9987,-3.58752,27.464,7.12502,22.15,56.2151,-38.2699,-0.421579,30.1182,66.3971,-34.6725,-10.4337,-18.1905,-42.6195,13.4025,-15.7923,98.0912,-0.691818,-4.27276,5.98865
5.83439,15.8817,-20.8014,29.2807,-31.121,-17.9106,15.3217,-0.883631,3.19719,0.734746,-0.079409,8.05744,-7.84553,-0.048245,6.95516,-17.8156,-0.577015,-9.27217,19.0581,-0.819619,11.293,8.97785,0.140318,5.35989,9.40127e-14,-5.36719e-14,-24.9977,-1.81597,-66.3386,69.8569,-6.73196,-15.3371,20.6666,7.12502,10.8397,-9.03364,9.40127e-14,-5.36719e-14,-10.4976,30.9519,42.6441,26.4296,-16.7808,-3.31704,27.8525,7.12502,22.4097,56.5726,-36.1635,-0.102166,29.9735,64.7693,-34.5783,-9.68548,-17.3919,-45.9088,15.0931,-15.3222,99.6462,-2.67959,-4.36237,4.10242
5.74949,15.9395,-20.4838,29.4085,-30.983,-18.3891,15.3239,-0.565207,3.38831,0.678076,0.381963,8.02541,-7.95173,0.170475,6.70915,-17.9657,-0.936389,-9.14954,19.3971,-1.39374,11.396,9.19078,-0.105697,5.3208,1.86982e-14,1.14898e-13,-24.3473,-1.54775,-66.3122,71.7365,-6.81675,-15.484,20.5843,7.12502,10.6979,-9.12333,1.86982e-14,1.14898e-13,-11.8823,31.1208,40.4349,27.3452,-16.343,-2.46779,28.5209,7.12502,23.2247,57.1405,-33.894,-0.139953,29.9715,62.9358,-34.1793,-9.10325,-17.1785,-49.2553,16.2972,-14.7702,100.768,-4.2919,-4.25017,3.12023
5.6648,16.015,-20.1444,29.3653,-30.6631,-18.8753,15.5099,-0.26303,3.64835,0.566423,0.863477,8.11313,-8.22157,0.398973,6.56159,-17.834,-1.348,-9.28885,19.6424,-2.00521,11.5892,9.32769,-0.385017,5.34492,-2.57675e-14,2.45313e-14,-24.0798,-0.891642,-65.9523,73.8915,-7.02996,-16.1433,20.2079,7.12502,10.0619,-9.53154,-2.57675e-14,2.45313e-14,-13.1005,30.8612,38.3456,27.8404,-15.5402,-2.13683,28.0828,7.12502,23.5422,56.662,-31.2628,-0.406416,30,60.8552,-33.4934,-8.5704,-17.7454,-52.2174,17.1526,-14.1689,101.332,-5.9426,-4.09496,4.4992
5.57731,16.1022,-19.7822,29.3056,-30.4997,-19.479,15.611,0.109236,3.91801,0.503807,1.42983,8.21777,-8.39466,0.6657,6.39994,-17.6845,-1.74873,-9.29985,19.9129,-2.61518,11.6595,9.46958,-0.666753,5.30204,-3.97569e-15,2.03754e-15,-23.9743,0.179333,-65.3749,76.1912,-7.59481,-16.8618,20.2023,7.12502,9.36868,-9.56951,-3.97569e-15,2.03754e-15,-14.3905,30.2379,36.3751,28.4828,-14.0495,-2.1279,28.4889,7.12502,23.5507,57.067,-28.3619,-0.424459,29.9519,58.5512,-32.54,-7.48265,-16.9812,-54.8193,18.0758,-13.5972,101.357,-7.17829,-4.12666,4.53654
5.48781,16.2012,-19.4154,29.1948,-30.2503,-19.9708,15.5973,0.436473,4.17459,0.493521,1.9167,8.29144,-8.43448,0.892263,6.22246,-17.785,-2.19043,-9.29721,20.32,-3.28469,11.7481,9.7151,-0.964743,5.2615,-1.73937e-15,6.32135e-14,-23.1554,0.205613,-65.0751,77.4414,-8.10554,-17.0687,20.5109,7.12502,9.16909,-9.2698,-1.73937e-15,6.32135e-14,-15.3254,30.3406,34.5392,28.9512,-12.5471,-2.17167,30.1266,7.12502,23.5087,58.71,-25.4674,-0.313605,29.8534,56.13,-31.0647,-6.46791,-16.6627,-57.3339,18.7179,-13.1664,100.866,-8.04909,-3.99441,1.95947
5.40044,16.3077,-19.0366,28.9092,-29.9446,-20.4346,15.7022,0.713208,4.5131,0.46157,2.3652,8.37078,-8.556,1.09642,6.01564,-17.7535,-2.66449,-9.49201,20.8901,-4.00844,11.9763,10.0097,-1.29059,5.3015,-2.14687e-14,-3.07122e-14,-22.6353,0.486433,-64.4565,78.7682,-8.23555,-16.8595,20.7988,7.12502,9.37092,-8.97291,-2.14687e-14,-3.07122e-14,-15.9646,31.0023,32.7274,28.886,-11.7404,-2.75867,31.8234,7.12502,22.9456,60.4779,-22.4444,-0.347485,29.7222,53.7357,-29.1233,-5.6866,-18.223,-59.3744,19.0748,-12.7137,99.8931,-8.92117,-3.73303,-0.561942
5.31503,16.4098,-18.6422,28.5071,-29.8172,-20.8192,15.8037,1.01792,4.75874,0.445713,2.82941,8.39491,-8.65564,1.31039,5.79435,-20.0331,-3.20534,-8.68312,23.4602,-4.91144,11.2996,11.4696,-1.63719,4.88478,7.99611e-14,-2.60408e-14,-22.3316,1.09539,-63.7521,80.1889,-8.3212,-16.7449,21.0769,7.12502,9.48151,-8.68985,7.99611e-14,-2.60408e-14,-16.9547,31.2509,30.8248,28.8112,-11.0909,-4.07872,32.1605,7.12502,21.6784,60.9668,-19.4124,-0.491731,29.336,51.4327,-26.8052,-4.45404,-19.4202,-60.9068,19.3749,-12.4185,98.5557,-10.0226,-3.32463,-3.59723
5.22936,16.5048,-18.2488,28.1686,-29.6365,-20.9981,15.7731,1.29201,4.74811,0.38602,3.2044,8.46827,-8.73667,1.49476,5.79604,-16.59,-3.46531,-9.99772,20.8726,-5.28073,12.7111,9.98064,-1.87727,5.47806,-1.10822e-13,8.3092e-14,-21.9339,1.92802,-62.9859,81.5226,-8.37378,-16.7423,21.4385,7.12502,9.48401,-8.32805,-1.10822e-13,8.3092e-14,-18.4164,31.5417,28.8088,28.7023,-10.2966,-4.98355,28.9812,7.12502,20.8092,57.8854,-16.7668,-0.745587,28.791,49.293,-23.9764,-2.9543,-19.6083,-62.6271,19.4284,-12.3353,96.9834,-11.2285,-2.78288,-4.19581
5.14314,16.6228,-17.8406,27.8783,-29.2517,-21.4377,15.8288,1.43243,4.96252,0.340471,3.45624,8.65679,-8.83872,1.61062,5.82728,-16.5992,-3.71183,-9.90998,21.3565,-5.69239,12.6586,10.206,-2.06276,5.403,3.06128e-14,1.14102e-13,-21.2157,2.6613,-62.3662,82.4562,-7.97108,-16.673,21.7403,7.12502,9.55087,-8.02323,3.06128e-14,1.14102e-13,-19.7953,31.4277,26.8191,29.1678,-8.30771,-4.53193,29.9908,7.12502,21.2431,58.8467,-14.096,-0.993667,28.5767,47.1147,-20.4251,-1.67279,-20.0373,-64.1032,19.3754,-11.805,94.9448,-11.9207,-2.64187,-1.64901
5.05905,16.7363,-17.4235,27.4895,-28.8226,-22.1128,16.0511,1.54914,5.39847,0.319656,3.73709,8.92039,-9.00245,1.72974,5.80871,-16.3126,-3.94476,-9.92726,21.7751,-6.10225,12.7043,10.3582,-2.25551,5.37975,2.15681e-14,-5.76476e-14,-19.5821,2.16083,-62.05,81.6273,-6.68311,-15.9963,22.841,7.12502,10.2037,-6.89151,2.15681e-14,-5.76476e-14,-20.9803,31.7539,24.7591,29.0067,-7.74848,-4.45758,30.7779,7.12502,21.3145,59.6257,-11.3548,-1.35848,28.5303,44.9241,-16.1307,-0.327104,-21.0483,-65.0507,19.3469,-10.9996,92.5756,-12.2822,-2.4528,-1.13734
4.97552,16.843,-16.9667,27.2148,-28.4128,-22.8538,15.7047,1.68308,6.21136,0.324065,4.03592,9.15557,-8.78642,1.84242,5.54131,-15.4855,-4.29304,-10.2224,21.8185,-6.6574,12.9393,10.3081,-2.53914,5.44262,5.15846e-14,4.37326e-14,-20.241,4.17068,-60.6859,84.1658,-7.42071,-16.3904,21.8649,7.12502,9.82353,-7.88592,5.15846e-14,4.37326e-14,-22.178,31.7593,22.9221,28.8935,-7.43127,-4.77549,31.5611,7.12502,21.0091,60.4431,-8.61258,-2.18122,28.2362,42.5551,-11.1282,1.69685,-20.4386,-65.5699,19.2407,-10.2587,90.0003,-13.0571,-1.80928,-2.46386
4.89376,16.9487,-16.5143,26.9658,-28.1219,-23.3346,15.1989,2.856,7.65917,0.902099,5.62715,8.16179,-7.69641,2.55128,3.27402,-17.9989,-5.88219,-7.29371,22.1112,-9.51659,12.6099,11.1447,-3.52759,4.35122,1.68967e-15,-6.7388e-14,-21.199,1.08184,-59.8757,86.3974,-7.22246,-16.5641,21.0376,7.12502,9.65596,-8.72105,1.68967e-15,-6.7388e-14,-17.5136,32.6226,23.7919,28.2243,-7.69564,-5.15681,33.0088,7.12502,20.6427,61.9311,-6.17653,-2.69074,27.6501,40.1204,-5.01141,3.16608,-14.474,-66.1544,19.0793,-9.78732,87.1675,-13.6526,-1.18897,-2.52522
4.80997,17.0443,-16.0656,26.7704,-27.7785,-23.8251,14.1535,1.58948,7.0703,0.599628,3.85856,9.8601,-7.59506,1.74787,5.89032,-14.2832,-4.64155,-11.788,22.2377,-7.03931,13.4187,10.3556,-2.83883,5.86572,5.06901e-14,-1.94809e-14,-16.8082,4.76261,-59.2079,83.2093,-4.95731,-15.137,22.8685,7.12502,11.0326,-6.82152,5.06901e-14,-1.94809e-14,-26.6878,32.6271,18.0141,29.0864,-6.99613,-5.50852,33.2472,7.12502,20.3048,62.2059,-3.95733,-3.06663,27.1034,37.621,2.12872,3.17049,-3.60859,-66.6938,18.9468,-9.26386,84.1347,-13.9252,-0.699741,-2.14139
4.72239,17.1287,-15.6161,26.4764,-27.2314,-24.2567,13.4853,1.8432,7.78543,0.85966,4.17261,9.84281,-6.89777,1.8858,5.40622,-14.8903,-5.33222,-11.6339,22.7855,-8.14741,13.7135,10.8538,-3.27584,5.80444,-6.40087e-14,-4.41302e-14,-16.6291,4.96658,-58.0031,84.424,-4.653,-15.4191,22.38,7.12502,10.7605,-7.32437,-6.40087e-14,-4.41302e-14,-26.7444,33.3212,16.4593,28.7386,-7.46201,-6.19332,32.9875,7.12502,19.6465,62.0148,-1.75892,-3.39459,26.6104,35.2023,8.83744,1.74435,6.55037,-67.0394,18.6935,-8.68541,80.915,-14.12,-0.44741,-1.26282
4.63293,17.2093,-15.1615,25.9885,-26.82,-24.6843,13.1247,1.97618,8.17303,0.958355,4.35002,10.0459,-6.58406,1.9689,5.38621,-13.991,-5.5619,-11.434,22.4412,-8.51773,13.4942,10.5863,-3.48672,5.62465,4.57205e-15,4.81059e-14,-17.3795,6.82972,-56.2596,86.7794,-5.23869,-16.3708,21.29,7.12502,9.84242,-8.46001,4.57205e-15,4.81059e-14,-27.7785,32.8366,14.7261,28.7819,-7.0125,-6.92771,34.0999,7.12502,18.9403,63.1978,0.714702,-3.4078,26.0668,32.8814,13.904,0.263614,10.0332,-66.9381,18.4851,-8.08531,77.4815,-14.4618,-0.18477,0.190652
4.54325,17.2801,-14.6911,25.3808,-26.881,-25.1264,13.0623,2.04945,8.04686,0.839904,4.46547,10.5116,-6.73618,2.03389,5.9584,-12.5887,-5.56669,-12.0219,22.4653,-8.49139,13.3279,10.3333,-3.5966,5.68713,-5.00937e-14,1.32391e-13,-17.1563,8.54769,-54.8054,87.5525,-5.31857,-16.8244,20.9168,7.12502,9.40482,-8.85334,-5.00937e-14,1.32391e-13,-30.1331,31.461,12.5865,29.1428,-6.00653,-7.35131,35.9339,7.12502,18.5329,65.0711,3.33915,-3.27095,25.1932,31.0373,17.3474,-0.161512,15.2639,-66.3031,18.5599,-7.59815,73.8483,-14.8925,0.425138,0.146124
4.45676,17.342,-14.1996,24.6453,-27.1814,-25.6329,13.5614,3.10972,8.86856,0.944816,6.02574,9.89555,-6.82135,2.75732,4.50155,-14.3476,-6.85808,-9.83809,23.4807,-10.6816,12.746,11.2279,-4.38019,4.75259,-3.04141e-14,3.53837e-14,-18.4248,6.41256,-53.9223,88.3263,-5.25696,-17.3537,20.725,7.12502,8.89408,-9.06755,-3.04141e-14,3.53837e-14,-27.1845,30.7083,12.8906,29.0383,-5.11586,-7.56072,38.4879,7.12502,18.3315,67.6441,6.26254,-2.97555,24.1659,29.4468,19.4382,-0.140623,15.8719,-65.2135,18.6898,-6.96935,70.1561,-15.2267,0.883295,-0.475792
4.37359,17.3941,-13.8263,24.0792,-25.0022,-25.1418,13.0588,2.46077,8.8736,0.587611,5.17678,10.3829,-6.9612,2.35108,5.22101,-13.4597,-6.9423,-10.735,23.6546,-10.7445,12.9806,11.1936,-4.49786,5.01062,-5.30755e-14,7.55382e-14,-17.8414,7.46428,-52.5924,88.7105,-5.26078,-17.7755,20.8199,7.12502,8.487,-8.98954,-5.30755e-14,7.55382e-14,-28.5014,30.7803,10.7671,28.6073,-4.63884,-7.99854,40.1583,7.12502,17.9102,69.3536,8.20395,-3.7663,24.2671,28.3556,19.7601,-1.58685,14.3154,-65.9477,17.1001,-6.80425,66.161,-14.5125,0.450643,-1.76674
4.28772,17.4306,-13.3182,23.0973,-25.7639,-25.5362,12.4141,2.63648,8.75264,1.0937,5.22511,10.6982,-6.08962,2.40556,5.64659,-12.7408,-6.94727,-11.4505,23.8777,-10.6895,13.0218,11.1707,-4.56017,5.18193,1.53064e-14,1.41535e-13,-17.0509,8.37735,-51.2501,88.8579,-5.2389,-17.9857,21.1923,7.12502,8.28415,-8.62529,1.53064e-14,1.41535e-13,-30.1416,30.3798,8.6804,28.5068,-4.02625,-8.53708,40.5412,7.12502,17.392,69.7831,11.1511,-3.03235,22.9433,27.5843,20.3836,-2.00454,13.1287,-64.2512,17.4542,-6.30728,62.3484,-14.6094,0.674072,-3.09959
4.20564,17.4567,-12.8425,22.2641,-25.979,-25.8295,12.0562,2.63981,8.50158,1.22216,5.14376,11.1773,-5.81745,2.38626,6.34706,-12.1017,-6.93304,-12.2333,24.4921,-10.6079,12.9212,11.3019,-4.62692,5.32691,-3.02153e-14,-3.97569e-14,-16.3997,9.39975,-49.8355,88.806,-5.41132,-18.2583,21.6621,7.12502,8.02108,-8.16572,-3.02153e-14,-3.97569e-14,-32.0848,28.9064,6.78447,28.7171,-3.22911,-8.67085,40.7033,7.12502,17.2633,69.9566,13.5994,-2.36165,22.0046,27.3749,20.5126,-3.27917,13.064,-62.8821,17.3813,-5.67448,58.3795,-14.2209,0.698976,-3.5579
4.12769,17.4752,-12.3906,21.4537,-25.8925,-26.1791,11.9896,2.53085,8.31613,1.17864,4.99901,11.7269,-5.89247,2.32683,7.09901,-11.2913,-6.87642,-13.1815,25.226,-10.4926,12.8835,11.4545,-4.69908,5.53968,-4.75095e-14,-5.32743e-14,-15.9979,10.4432,-48.4482,88.7955,-5.58311,-18.7372,22.0167,7.12502,7.5588,-7.82828,-4.75095e-14,-5.32743e-14,-33.9508,27.1599,4.9485,28.8682,-2.67479,-8.46089,40.1334,7.12502,17.4653,69.3688,15.9472,-1.643,21.4406,27.3661,20.3628,-4.40445,11.3623,-61.5357,17.0034,-4.76275,54.3802,-13.5479,0.802293,-3.79546
4.04926,17.4841,-11.9535,20.5753,-25.7323,-26.5315,12.0033,2.37373,8.1097,1.19925,4.78813,12.2627,-5.9345,2.23588,7.86474,-10.3682,-6.74261,-14.0373,25.7665,-10.2948,12.8588,11.4923,-4.73362,5.7513,-6.14245e-14,-6.20208e-14,-15.4362,11.133,-47.2912,88.5687,-5.62947,-19.0475,22.4705,7.12502,7.25932,-7.38494,-6.14245e-14,-6.20208e-14,-35.61,25.5719,3.16402,28.9416,-2.46008,-8.07005,38.722,7.12502,17.8414,67.9235,18.1185,-0.991361,20.9479,27.8245,19.8276,-5.29056,10.0833,-60.0292,16.5129,-3.73634,50.3099,-13.0496,1.0076,-6.01259
3.97378,17.4805,-11.5169,19.6054,-25.4208,-26.7026,12.0488,2.14383,7.81469,1.11726,4.49128,12.7964,-6.09952,2.10584,8.70606,-10.059,-6.68215,-14.7532,26.9393,-10.1505,12.5268,11.8858,-4.79432,5.82147,1.39149e-14,-9.54166e-15,-14.5793,11.3975,-46.3306,87.604,-5.68581,-19.1135,23.1139,7.12502,7.19562,-6.74381,1.39149e-14,-9.54166e-15,-37.0801,23.413,1.76402,29.166,-1.95093,-8.00691,39.2717,7.12502,17.9022,68.4678,20.1317,-0.499455,20.314,28.6345,19.1418,-5.9826,10.7906,-58.4298,15.605,-2.66115,46.2579,-12.9169,1.34593,-8.97878
3.9035,17.4673,-11.0553,18.6005,-25.3828,-26.769,11.9578,2.28951,7.83262,0.887762,4.72366,12.8749,-6.32944,2.22541,8.75129,-9.64141,-6.96081,-14.6948,28.342,-10.6979,12.1362,12.4273,-5.10353,5.63446,-9.30312e-14,-7.15625e-15,-15.596,10.9771,-45.5975,87.2857,-6.00812,-19.4531,23.3287,7.12502,6.86776,-6.53989,-9.30312e-14,-7.15625e-15,-36.8313,21.3711,0.916697,29.3317,-1.73659,-8.53256,41.5551,7.12502,17.3964,70.7966,21.947,0.175697,19.35,29.7634,18.9489,-5.54511,10.2172,-56.5496,14.3922,-1.42633,42.3282,-12.5358,2.16663,-8.95101
3.83581,17.4462,-10.5767,17.7329,-25.6941,-26.9367,11.7562,3.23534,8.75553,0.467191,6.11196,11.9554,-6.59926,2.86597,6.92849,-7.9708,-7.83924,-12.8417,28.5553,-12.6658,12.2576,12.3673,-5.83956,5.10016,-5.48646e-14,-1.43125e-14,-19.0131,8.15204,-45.7876,86.8984,-5.98774,-19.966,23.5403,7.12502,6.37266,-6.34386,-5.48646e-14,-1.43125e-14,-32.9381,20.1603,0.77367,29.1778,-1.99124,-9.32938,41.8271,7.12502,16.6294,71.1347,23.4097,1.08192,18.2108,31.1781,19.5851,-4.46839,10.6814,-54.489,13.1005,0.0879122,38.6197,-12.254,3.34287,-8.02838
3.76923,17.4116,-10.1028,16.9919,-25.8285,-27.1584,11.1484,2.7603,8.65915,1.26757,5.24489,12.6255,-5.40513,2.46691,7.9126,-9.54497,-7.64705,-14.2233,29.4611,-11.9415,12.011,13.0458,-5.62719,5.34185,3.95581e-14,1.11319e-13,-15.2669,7.03994,-45.4846,83.8132,-5.32039,-19.8479,24.5446,7.12502,6.48665,-5.33602,3.95581e-14,1.11319e-13,-36.0428,20.0323,-1.37148,29.8751,-1.83098,-10.0145,40.964,7.12502,15.9697,70.3257,24.532,1.925,17.2155,32.8988,20.6824,-3.55896,13.5563,-52.6575,11.6141,1.70229,35.2225,-12.5475,4.64557,-9.96071
3.70305,17.3595,-9.63176,16.1749,-25.801,-27.2338,10.7091,2.61642,8.83412,1.5009,4.96045,12.8288,-4.88572,2.33044,8.10516,-9.61614,-7.69338,-14.7388,30.0108,-11.936,11.9253,13.3293,-5.69233,5.41655,4.77083e-15,3.65764e-14,-16.7478,8.79457,-43.9192,85.4885,-7.50461,-21.388,23.0152,7.12502,4.99976,-6.90579,4.77083e-15,3.65764e-14,-37.1364,18.7533,-2.58863,30.7208,-1.35258,-10.6021,41.5413,7.12502,15.4038,70.9474,25.508,2.8581,16.3001,34.9592,21.4769,-2.68087,15.3257,-51.0393,9.90742,3.17683,32.237,-13.0558,6.23935,-12.1696
3.63633,17.2934,-9.15968,15.3294,-25.9072,-27.2693,10.2489,2.62523,9.01528,1.57331,4.89964,12.875,-4.53126,2.30333,8.07891,-9.06804,-7.76626,-14.8923,30.3545,-12.095,11.7794,13.3882,-5.82117,5.38523,3.97569e-16,-5.24792e-14,-17.5175,8.09014,-43.4379,84.876,-7.76605,-21.5809,22.7636,7.12502,4.81343,-7.16171,3.97569e-16,-5.24792e-14,-37.4355,17.4512,-3.56859,31.4132,-0.884489,-11.2592,41.5889,7.12502,14.7708,71.0426,26.2916,4.11571,15.4772,37.3681,21.8673,-1.6212,15.385,-49.4273,7.9948,4.73902,29.7337,-13.7478,8.38515,-11.6036
3.57052,17.2132,-8.68972,14.5716,-25.9955,-27.3959,9.61315,2.6544,9.31274,1.82714,4.8096,12.9103,-3.86886,2.26407,7.98606,-8.9948,-7.86726,-14.8172,30.6192,-12.2349,11.5538,13.4886,-5.9029,5.26685,-2.34566e-14,-4.69132e-14,-18.091,7.15263,-43.0309,84.0465,-7.93523,-21.7522,22.7151,7.12502,4.64809,-7.21387,-2.34566e-14,-4.69132e-14,-37.6478,16.9709,-4.6953,31.9667,-1.00789,-11.725,40.3474,7.12502,14.322,69.8334,26.7732,5.46015,14.8587,40.1353,22.1251,-0.740693,16.445,-48.0025,6.07351,6.3072,27.7272,-14.5626,10.9174,-10.2871
3.50623,17.1187,-8.22958,13.7842,-26.0205,-27.3594,9.88431,2.6195,9.06796,1.43103,4.86786,13.0809,-4.493,2.29295,8.30251,-8.59033,-7.85544,-14.7083,31.424,-12.2378,11.0062,13.7,-5.97722,5.06346,-1.63003e-14,-3.10104e-14,-19.2293,6.8603,-42.5745,82.9567,-8.22975,-21.7564,22.8796,7.12502,4.64397,-7.04953,-1.63003e-14,-3.10104e-14,-38.0964,15.1661,-5.54606,32.7718,-0.965691,-12.5603,39.873,7.12502,13.517,69.4143,27.0062,6.77053,14.1844,43.2131,22.4911,-0.403025,18.898,-46.9151,4.75775,7.14385,26.2402,-14.9295,12.9866,-9.69086
3.44002,17.0104,-7.7839,12.9917,-26.1172,-27.2679,9.41493,2.70925,9.02534,1.67427,4.85938,13.0718,-3.96649,2.29939,8.33228,-8.73798,-8.08028,-14.7581,31.7559,-12.5934,11.0175,13.9496,-6.133,5.02084,-1.49089e-14,8.90555e-14,-19.4554,4.87886,-42.3891,80.9616,-8.13495,-21.5654,23.4101,7.12502,4.82842,-6.51484,-1.49089e-14,8.90555e-14,-38.053,14.5829,-6.16366,33.4942,-0.733686,-13.8629,40.2832,7.12502,12.2613,69.9038,26.9772,8.20441,13.5645,46.5889,22.7849,-0.345357,20.5237,-46.0175,4.01055,7.53123,25.3152,-15.0755,14.1492,-9.2323
3.37322,16.8825,-7.33272,12.1646,-26.2596,-27.1956,9.0041,2.69059,8.92169,1.80815,4.73147,13.1615,-3.5964,2.24458,8.52561,-8.36797,-8.14121,-15.1834,32.0641,-12.7349,11.1242,14.0795,-6.25288,5.1374,1.2921e-14,-7.79236e-14,-21.6143,5.59508,-41.4944,81.9984,-9.65234,-22.4645,22.102,7.12502,3.96026,-7.84098,1.2921e-14,-7.79236e-14,-38.3206,14.0472,-6.95329,34.0728,-1.23741,-14.6147,39.8175,7.12502,11.5364,69.48,26.784,9.69897,12.9515,50.2353,22.6725,-0.482289,20.5732,-45.1755,3.47135,7.75189,24.9041,-15.3627,14.5986,-7.78469
3.30967,16.7449,-6.87956,11.1811,-26.413,-26.9043,8.90727,2.62235,8.59142,1.69952,4.61819,13.27,-3.68586,2.19594,8.85532,-7.7443,-8.1093,-15.5875,32.5279,-12.7233,10.979,14.174,-6.34589,5.18635,-4.1546e-14,-7.4743e-14,-21.756,3.08673,-41.5327,78.9532,-8.39738,-21.8444,23.018,7.12502,4.55903,-6.91292,-4.1546e-14,-7.4743e-14,-38.7693,12.9956,-7.60096,34.7481,-2.15683,-15.0378,39.1401,7.12502,11.1283,68.825,26.4624,11.1051,12.0682,53.8835,22.7781,-1.12773,20.2909,-44.5827,3.74403,7.03271,25.3544,-15.1568,14.2501,-6.86725
3.24606,16.6037,-6.44752,10.2628,-26.3866,-26.7255,9.07374,2.46515,8.24488,1.56949,4.43396,13.4289,-3.94415,2.11073,9.25699,-7.73235,-8.06702,-15.5978,33.2023,-12.587,10.4793,14.4154,-6.35502,5.02499,6.69904e-14,1.90833e-14,-22.9777,2.27787,-41.0864,77.9092,-8.35758,-21.7147,22.9323,7.12502,4.68429,-6.99587,6.69904e-14,1.90833e-14,-39.5113,11.6991,-7.996,35.7732,-2.45357,-15.8136,39.5421,7.12502,10.3799,69.2659,25.7648,12.2487,11.3621,57.7024,22.855,-1.84847,19.9422,-44.2733,5.07453,5.65826,26.3092,-14.1528,12.8837,-8.50306
3.18294,16.4223,-5.98384,9.35566,-25.8981,-26.9856,8.83424,2.12785,8.74473,1.63435,3.97243,13.6269,-3.67089,1.87217,9.26902,-7.93312,-8.05292,-15.581,33.8444,-12.4862,10.072,14.7077,-6.35828,4.88158,3.83654e-14,6.20208e-14,-24.0988,1.12498,-40.7214,76.6279,-8.21088,-21.5435,23.118,7.12502,4.84956,-6.80649,3.83654e-14,6.20208e-14,-40.1451,11.0276,-8.24391,36.7592,-2.33251,-16.9922,39.7143,7.12502,9.24289,69.4917,25.5692,12.9685,10.9717,61.2516,22.4422,-2.5018,20.7303,-44.2682,7.03265,4.07609,27.8957,-12.9607,10.2092,-10.6602
3.12096,16.2433,-5.563,8.34813,-25.5385,-27.0812,9.11812,1.92935,8.94473,1.56594,3.79166,13.7834,-3.88628,1.77733,9.35679,-7.5307,-8.06131,-15.948,34.1666,-12.5443,10.0891,14.8166,-6.45082,4.96659,-6.55989e-15,6.99722e-14,-25.6422,-0.13958,-40.303,75.3941,-8.12167,-21.7334,23.0691,7.12502,4.6662,-6.85953,-6.55989e-15,6.99722e-14,-40.2963,10.6844,-8.15153,37.5674,-2.18224,-18.0966,39.4014,7.12502,8.17707,69.2232,24.9718,13.7369,10.5474,64.9198,22.0645,-4.08434,23.1408,-44.3295,8.84872,2.57473,29.8592,-11.704,7.57925,-11.686
3.06037,16.0498,-5.13976,7.34171,-25.0519,-27.2851,9.39442,1.63607,9.34099,1.51032,3.49942,13.9692,-4.06273,1.6222,9.38554,-7.07418,-8.10158,-16.4113,34.3742,-12.6458,10.1473,14.8814,-6.57099,5.07547,2.18166e-14,-1.43125e-14,-27.3454,-1.16078,-39.7989,74.4419,-8.13963,-22.3128,22.6177,7.12502,4.10667,-7.32249,2.18166e-14,-1.43125e-14,-40.5553,10.466,-7.84185,38.4937,-2.17326,-18.8213,40.0245,7.12502,7.47762,69.8724,24.3258,14.328,10.1658,68.3709,21.2608,-5.81866,23.4197,-44.6635,10.4013,1.23101,32.5106,-9.88361,4.97904,-13.7917
3.00921,15.8625,-4.72083,6.31413,-24.3978,-27.4777,9.67031,1.2863,9.79691,1.56206,3.12022,14.1382,-4.11159,1.4228,9.37503,-7.13711,-8.2448,-16.5973,34.7077,-12.782,9.91413,15.0829,-6.68338,4.98875,1.41137e-14,1.19271e-13,-29.0522,-2.27651,-39.2052,73.6269,-8.16731,-22.7329,22.14,7.12502,3.70104,-7.80762,1.41137e-14,1.19271e-13,-40.9416,10.7585,-7.36429,39.5518,-1.92031,-19.7188,41.3186,7.12502,6.6113,71.1954,23.5189,14.7528,9.83848,71.688,20.2093,-7.63214,22.5634,-45.6054,11.7602,-0.0907281,35.7092,-5.04408,2.80718,0.322394
2.9791,15.7047,-4.31357,5.22892,-23.6049,-27.1795,10.5177,0.880854,9.75098,1.11218,2.82797,14.2347,-5.06487,1.27123,9.57554,-6.80913,-8.23258,-16.7124,35.3861,-12.7004,9.36439,15.2888,-6.75433,4.81695,-1.26477e-14,-6.52014e-14,-31.3095,-2.79823,-38.4278,72.8276,-8.14667,-22.7312,21.8952,7.12502,3.70268,-8.05235,-1.26477e-14,-6.52014e-14,-41.3461,10.8204,-6.67279,40.5821,-1.53578,-20.5257,41.7289,7.12502,5.83224,71.6286,22.2807,14.9598,8.98738,74.7965,19.142,-9.72774,23.3399,-47.5187,12.7306,-1.7073,39.7874,5.07577,2.3816,-13.44
2.96178,15.5415,-3.92182,3.86642,-22.7153,-26.3058,10.8572,0.565733,9.62948,1.12941,2.45324,14.0255,-5.19618,1.08709,9.46,-6.43592,-8.34968,-16.9239,35.495,-12.8737,9.24484,15.3019,-6.88407,4.7849,6.87671e-15,1.11319e-14,-33.2729,-4.58099,-37.688,71.7249,-7.67214,-22.3975,22.1021,7.12502,4.02491,-7.83961,6.87671e-15,1.11319e-14,-41.3261,12.682,-5.89624,41.3587,-1.86125,-20.5552,41.1618,7.12502,5.80383,71.0623,20.8499,15.0397,7.38085,77.7893,18.3096,-11.5831,27.5278,-49.5776,12.9461,-3.62641,44.6633,9.37091,-2.33301,8.96697
2.93727,15.3454,-3.56053,2.24183,-21.9359,-25.1886,12.3856,0.0497438,8.66535,0.643968,2.02162,14.079,-6.59524,0.900411,10.2231,-5.43321,-8.08903,-17.3448,35.9221,-12.4383,8.66458,15.1939,-6.87038,4.73136,-6.12754e-14,1.59028e-15,-34.9801,-5.36644,-36.768,70.2599,-6.8305,-22.0342,22.6907,7.12502,4.3757,-7.24413,-6.12754e-14,1.59028e-15,-42.716,13.3109,-5.01622,42.7241,-1.92151,-20.3062,40.9276,7.12502,6.04423,70.8214,19.2084,15.238,5.37901,80.8745,17.6339,-12.8292,31.9464,-50.9806,12.4787,-5.41949,49.9002,8.09195,-4.36201,19.2524
2.90222,15.1357,-3.23307,0.449539,-21.3374,-23.4133,12.9914,-0.162424,7.34006,1.07209,1.57107,13.7326,-6.4354,0.713918,10.6653,-5.47412,-8.12301,-17.2427,35.8152,-12.4263,8.50982,15.1255,-6.86074,4.64429,9.11925e-15,4.77083e-15,-36.1654,-7.89131,-36.3053,68.7726,-6.13916,-22.0975,23.0624,7.12502,4.31461,-6.87362,9.11925e-15,4.77083e-15,-43.6756,15.6887,-3.94027,44.1987,-1.66892,-20.4995,41.8834,7.12502,5.85754,71.7824,16.8272,15.5161,2.42942,84.1183,16.8444,-13.7122,35.8887,-52.0929,11.7533,-7.6085,55.0973,5.75019,-5.5701,19.6798
2.86767,14.9319,-2.96675,-1.65928,-20.1082,-21.1108,14.3245,-0.443529,5.51584,1.47087,1.0382,13.1121,-6.69216,0.498894,11.1441,-5.37329,-8.20966,-16.9512,35.3958,-12.6081,8.60536,14.9088,-6.87899,4.59802,2.97897e-14,-1.74931e-14,-37.6735,-10.5491,-36.1394,67.5666,-5.96793,-22.6791,22.9901,7.12502,3.75296,-6.95657,2.97897e-14,-1.74931e-14,-44.2637,18.6335,-2.80229,45.4126,-1.43555,-20.6243,42.9666,7.12502,5.73712,72.869,14.0762,15.12,-1.18694,87.3866,15.4992,-14.9472,39.5744,-52.9973,10.4949,-10.3211,59.6638,3.72493,-6.0904,18.1821
2.85535,14.7478,-2.68583,-3.59307,-19.712,-18.9607,15.5016,-0.49164,3.9961,2.00987,0.769347,12.4666,-6.72213,0.3945,11.3631,-5.04194,-8.23161,-16.7834,34.8406,-12.7009,8.72678,14.5768,-6.88027,4.6051,-1.44989e-14,3.18055e-14,-39.1179,-13.1681,-36.0274,66.1818,-5.60313,-23.2273,22.748,7.12502,3.22358,-7.20742,-1.44989e-14,3.18055e-14,-44.9579,21.759,-1.51875,46.4408,-1.30434,-19.9292,42.0424,7.12502,6.4082,71.9255,10.3939,15.3066,-4.84106,90.2551,14.0345,-16.7083,41.1086,-53.0915,9.78775,-12.7971,63.3553,1.99218,-6.01584,20.3761
2.87398,14.5968,-2.38437,-5.38384,-19.837,-17.2094,16.9518,-0.486199,3.04686,2.29284,0.703634,11.9607,-7.2057,0.388061,11.4053,-4.14951,-8.124,-16.9676,34.4611,-12.6041,8.67135,14.1969,-6.89183,4.65535,-1.25483e-15,-8.26944e-14,-41.1184,-14.2787,-35.8019,65.2206,-5.79615,-23.8097,21.9001,7.12502,2.6611,-8.06305,-1.25483e-15,-8.26944e-14,-46.1127,23.8635,0.207966,47.7726,-0.61567,-18.9762,40.1867,7.12502,7.32813,70.0398,6.25673,15.6767,-7.94575,92.356,13.0426,-18.7313,43.6748,-52.4348,9.4249,-14.8669,66.249,-0.151308,-5.60933,21.1445
2.92119,14.4836,-2.07917,-6.94168,-20.2722,-15.8174,17.9079,-0.362205,2.74696,2.91578,0.79643,11.4591,-7.05475,0.415683,10.9731,-3.25415,-8.22206,-17.3832,33.631,-12.8619,9.0132,13.7355,-7.03047,4.8396,4.50744e-14,-4.92986e-14,-43.0363,-15.5416,-35.8861,64.359,-6.67287,-24.678,20.759,7.12502,1.82252,-9.21301,4.50744e-14,-4.92986e-14,-46.9431,26.2344,2.41793,49.1778,0.657459,-18.7335,40.4309,7.12502,7.56237,70.2757,1.73078,15.9495,-10.3597,93.5704,11.0418,-20.8892,44.854,-51.4646,9.09415,-16.5253,68.5895,-2.35332,-4.50868,17.8782
2.98067,14.3955,-1.77385,-8.42815,-21.0303,-14.2857,18.7786,-0.154276,2.36832,3.54633,0.964809,10.9023,-6.8569,0.480167,10.5021,-3.4732,-8.1775,-16.2135,33.2148,-12.5637,8.09071,13.3626,-6.83229,4.29912,-1.86858e-14,-3.49861e-14,-44.4176,-17.219,-36.1293,62.7291,-7.24363,-25.436,20.021,7.12502,1.09051,-9.95592,-1.86858e-14,-3.49861e-14,-47.5658,28.1918,5.04493,50.3612,2.53803,-19.0234,41.6055,7.12502,7.28253,71.4602,-3.04042,16.0959,-12.5876,93.9714,9.15769,-23.1495,45.8464,-50.1895,8.78995,-18.2108,70.5134,-4.25277,-2.89727,15.4384
3.03018,14.3098,-1.46375,-10.2402,-21.5485,-11.9217,19.5023,0.0122658,1.22142,4.15281,0.896237,10.1576,-6.57059,0.441187,10.3329,-3.74009,-8.09487,-15.6629,33.1161,-12.2411,7.42234,13.2254,-6.68177,3.97742,-4.29375e-14,-5.08889e-14,-45.4424,-18.5345,-36.5383,60.986,-7.62676,-25.9582,19.1104,7.12502,0.586101,-10.8686,-4.29375e-14,-5.08889e-14,-48.1196,29.9801,7.8842,51.0367,4.15783,-19.0646,41.5077,7.12502,7.24283,71.3637,-7.25693,15.8387,-15.4445,93.3958,7.05599,-24.6746,48.7532,-48.6634,8.44291,-20.8049,72.1312,-6.0713,-1.28493,15.0647
3.06172,14.2251,-1.23735,-10.877,-22.1655,-11.1947,20.334,0.130126,1.20658,4.50433,1.0479,9.90011,-6.64908,0.503668,10.0187,-3.53615,-7.9941,-15.5953,32.8295,-12.025,7.19655,13.0033,-6.60164,3.91492,-5.46658e-15,-3.02153e-14,-46.4573,-19.5472,-37.1654,59.5908,-8.25918,-26.1691,18.2471,7.12502,0.382456,-11.7323,-5.46658e-15,-3.02153e-14,-48.0624,31.7113,11.0608,51.0629,5.24524,-18.6744,41.5246,7.12502,7.61942,71.3674,-13.0829,14.1753,-16.0431,92.8303,7.24736,-25.5304,48.8315,-48.4319,8.65895,-21.6469,73.5842,-7.24047,-0.526666,15.342
3.09743,14.1403,-0.981674,-12.0393,-23.1973,-9.85853,21.0175,0.418866,0.890192,5.04876,1.31658,9.47825,-6.45248,0.616232,9.64541,-3.17251,-7.88169,-15.7769,32.44,-11.8889,7.3231,12.7639,-6.55182,4.02647,3.34952e-14,-1.01778e-13,-47.3192,-20.3575,-37.915,58.1932,-9.25447,-25.5952,18.4605,7.12502,0.936744,-11.5172,3.34952e-14,-1.01778e-13,-47.4409,32.3422,15.0472,50.8982,7.00372,-18.0969,42.1563,7.12502,8.17685,71.978,-18.073,13.0454,-16.6349,91.1144,6.01373,-26.1962,45.1409,-47.473,9.44771,-23.143,75.0871,-8.97217,0.509676,14.6385
3.12255,14.0555,-0.728796,-13.7004,-23.3876,-7.53746,21.9421,0.606519,-0.538931,5.4071,1.22526,8.89073,-6.53999,0.580595,9.86584,-2.94584,-7.75446,-15.9093,32.1898,-11.6734,7.25245,12.5852,-6.48038,4.05867,2.46493e-14,-1.25632e-13,-48.0919,-20.4502,-38.778,56.9928,-10.1956,-24.4717,18.9557,7.12502,2.02177,-11.0144,2.46493e-14,-1.25632e-13,-46.7956,31.9834,19.4787,50.704,9.53659,-17.881,42.5924,7.12502,8.38521,72.406,-21.8413,11.3562,-17.8728,88.448,3.08467,-28.2227,49.1277,-46.2245,9.75032,-25.8453,76.2915,-10.6063,1.62735,14.1002
3.11524,13.9657,-0.536592,-13.0922,-22.3403,-8.75766,22.7031,-0.139264,0.682079,5.11427,0.610423,9.30191,-7.14646,0.282832,9.83542,-2.5394,-7.57221,-16.0186,31.8869,-11.3261,6.90654,12.3122,-6.38013,4.00395,-6.54995e-14,6.67916e-14,-48.991,-19.843,-39.7244,56.2157,-10.8753,-23.519,19.047,7.12502,2.94188,-10.9124,-6.54995e-14,6.67916e-14,-46.0875,31.3264,24.0164,50.2094,11.8624,-17.6779,42.722,7.12502,8.58121,72.5276,-25.4554,7.69709,-14.5209,85.5291,3.2842,-30.5129,49.7174,-46.8163,8.94396,-25.2334,77.7987,-11.6328,1.49324,14.4867
3.14897,13.889,-0.278575,-14.7149,-22.0555,-7.2517,24.0495,-0.257096,-0.0603092,5.28165,0.303719,8.95497,-7.60708,0.151193,10.0293,-2.14121,-7.38557,-16.2084,31.6179,-10.9964,6.64418,12.0734,-6.28706,3.9921,-3.49861e-14,1.04958e-13,-49.9779,-19.1801,-40.636,55.5883,-11.4688,-22.3355,19.6225,7.12502,4.08483,-10.3181,-3.49861e-14,1.04958e-13,-45.1662,30.6769,28.5598,49.3877,12.9433,-16.2806,41.5933,7.12502,9.92942,71.3391,-28.2343,5.60479,-13.7283,81.5502,0.478199,-32.6892,51.3348,-45.1502,8.99662,-27.2278,78.7897,-13.2387,2.12241,15.0874
3.14947,13.8023,-0.103729,-14.2524,-21.1702,-7.34556,24.7224,-0.703367,0.123143,4.97239,-0.163625,9.0702,-8.2198,-0.0498537,10.2615,-2.3609,-7.28671,-16.237,31.557,-10.7404,6.42925,12.0466,-6.18956,3.93974,4.41302e-14,-2.70347e-14,-50.7101,-19.3335,-41.3131,54.556,-10.4933,-20.6833,20.8403,7.12502,5.68015,-9.06357,4.41302e-14,-2.70347e-14,-43.9372,30.2079,33.0824,48.4498,13.3155,-14.8875,39.7939,7.12502,11.2732,69.471,-32.0893,2.5116,-10.886,77.2496,-0.851829,-35.2519,53.8107,-45.8809,8.4808,-27.8366,80.0032,-13.9356,1.909,16.7063
3.16851,13.7456,0.0996037,-14.0166,-20.1687,-7.31335,24.9922,-1.27736,0.374347,4.89683,-0.832815,9.04651,-8.32922,-0.374653,10.3181,-2.89338,-7.17663,-15.9564,31.5147,-10.427,6.12411,12.0535,-6.0328,3.79926,3.24019e-14,-1.06549e-13,-51.4522,-18.6175,-42.6983,54.2152,-9.35938,-19.7792,21.3977,7.12502,6.55299,-8.48092,3.24019e-14,-1.06549e-13,-42.8002,29.6477,37.5159,47.8953,13.3489,-13.8513,38.9752,7.12502,12.2724,68.5951,-35.0845,-0.264854,-7.94612,72.0003,-3.54023,-35.1965,52.32,-45.9612,8.03078,-28.6,80.9203,-14.8351,1.50535,20.2136
3.19345,13.7042,0.328743,-14.0287,-19.1239,-6.69839,24.9088,-1.795,0.227753,4.89189,-1.57093,8.8339,-8.16368,-0.735463,10.3785,-3.07878,-7.01445,-15.7608,31.2068,-10.1348,6.03736,11.904,-5.8758,3.7654,-1.96797e-14,5.40694e-14,-52.0195,-18.9308,-43.7313,53.4178,-7.63246,-19.3056,22.0256,7.12502,7.01013,-7.83829,-1.96797e-14,5.40694e-14,-41.8332,29.3292,41.697,47.59,11.9444,-13.319,38.7162,7.12502,12.7857,68.3047,-37.7828,-2.86485,-5.53297,66.4364,-2.04039,-34.6572,52.093,-45.5813,7.70562,-30.0201,81.5951,-16.0528,1.20389,22.9909
3.20694,13.6565,0.570411,-13.8852,-18.4201,-6.14756,24.5195,-2.14503,0.130906,5.00962,-2.09918,8.65832,-7.74111,-1.00993,10.3469,-3.49742,-6.96277,-15.5184,30.9309,-9.97581,5.96789,11.8322,-5.7648,3.70381,3.97569e-16,-6.36111e-14,-52.5367,-19.1445,-45.0296,52.9263,-6.9078,-19.5882,22.2572,7.12502,6.73739,-7.61556,3.97569e-16,-6.36111e-14,-40.1889,29.0657,46.176,47.3685,10.4525,-14.8901,38.4117,7.12502,11.2707,68.0889,-40.6034,-4.91497,-2.79759,60.8551,-0.435095,-33.4968,50.3016,-45.3071,7.7418,-31.2865,82.209,-17.2384,1.01671,24.3782
3.2475,13.6692,0.802029,-13.6413,-18.0782,-5.84621,24.0842,-2.39493,0.242169,5.14354,-2.44181,8.54736,-7.31758,-1.19936,10.2008,-4.10635,-6.95692,-14.9957,30.9253,-9.83016,5.60887,11.877,-5.66154,3.4797,5.4467e-14,-7.79236e-14,-53.1844,-18.6965,-46.6757,52.856,-7.13259,-20.3935,22.1756,7.12502,5.95992,-7.72058,5.4467e-14,-7.79236e-14,-38.2147,28.4074,50.8886,47.362,9.71726,-16.4938,38.3337,7.12502,9.72374,68.0893,-43.4273,-6.37958,0.293618,56.2639,-5.8151,-37.9354,54.0668,-44.6795,8.1637,-32.1981,82.3434,-18.3361,0.81773,25.1271
3.28875,13.6921,1.02893,-13.4167,-17.967,-5.73502,23.7966,-2.62974,0.367871,5.16445,-2.73475,8.5875,-7.09964,-1.35402,10.2297,-4.44342,-6.79609,-14.7051,30.9843,-9.502,5.31147,11.8917,-5.50737,3.35307,8.54774e-15,2.8625e-14,-53.829,-18.2641,-47.8258,52.4852,-7.23489,-20.9321,22.5291,7.12502,5.43986,-7.38103,8.54774e-15,2.8625e-14,-36.6701,27.9304,55.3732,47.3371,8.80461,-16.8103,38.8792,7.12502,9.41836,68.6487,-45.5631,-8.15796,3.98521,52.8097,-31.2299,-37.8057,66.3754,-43.9784,9.00028,-32.7812,82.3711,-19.4163,0.307343,27.3431
3.3371,13.7366,1.24008,-13.1182,-17.9059,-5.88593,23.4969,-2.86613,0.626272,5.19651,-2.99133,8.76846,-6.86801,-1.49444,10.3307,-4.8871,-6.5978,-14.4021,31.1135,-9.05881,4.84758,11.9375,-5.31811,3.17359,-1.78906e-14,-8.74653e-14,-54.357,-18.4977,-48.3288,51.6995,-6.44754,-20.945,23.1645,7.12502,5.42742,-6.74599,-1.78906e-14,-8.74653e-14,-35.0252,27.5413,59.8841,47.2435,8.09286,-16.745,39.9612,7.12502,9.48144,69.7279,-47.87,-10.194,8.13092,50.4096,-26.0318,-42.904,60.4019,-43.232,10.1016,-33.0505,82.1715,-20.3463,-0.30311,29.3387
3.37222,13.7585,1.45069,-12.9016,-17.5084,-5.99697,23.3033,-3.13622,0.862055,5.18466,-3.29073,8.90065,-6.7348,-1.64961,10.4116,-5.35381,-6.46322,-13.85,31.3248,-8.68346,4.15951,12.0081,-5.15815,2.85815,9.54166e-15,8.26944e-14,-54.8422,-18.6179,-49.3059,51.4224,-7.06348,-21.6233,21.9331,7.12502,4.77249,-7.99318,9.54166e-15,8.26944e-14,-33.1046,26.6637,64.4917,47.1961,8.29431,-16.4908,41.9321,7.12502,9.72667,71.6875,-50.1168,-12.7024,12.3474,48.4887,-12.6026,-41.1894,51.6668,-42.3943,11.0512,-33.4592,81.9696,-21.2501,-0.6813,29.3408
3.40759,13.7851,1.64987,-12.6903,-16.9744,-6.24871,23.1356,-3.47031,1.0874,5.15342,-3.67217,9.07485,-6.61888,-1.84426,10.5739,-5.65235,-6.27664,-13.4466,31.4213,-8.32193,3.7683,12.0256,-4.99123,2.68387,-1.47101e-14,-4.77083e-15,-55.3489,-19.0107,-49.7095,50.5952,-6.10141,-20.7482,22.0702,7.12502,5.61747,-7.83534,-1.47101e-14,-4.77083e-15,-31.0799,25.2928,69.0775,47.2073,9.63869,-16.9623,45.0695,7.12502,9.27176,74.8456,-52.1961,-14.9995,16.5196,46.7738,-0.368289,-28.914,44.9719,-41.5273,11.8659,-33.6992,81.7114,-22.0058,-1.3405,31.132
3.44286,13.8178,1.84502,-12.513,-16.4375,-6.48074,22.8489,-3.81939,1.17324,5.14835,-4.12132,9.22712,-6.39229,-2.07631,10.7934,-6.18696,-6.05204,-12.9862,31.7595,-7.90702,3.41197,12.1857,-4.79387,2.51355,-1.59028e-14,8.90555e-14,-55.7004,-19.0491,-50.5396,50.0973,-6.45855,-21.0205,21.2326,7.12502,5.35457,-8.67971,-1.59028e-14,8.90555e-14,-29.1134,23.6839,73.3935,47.0917,11.2542,-18.4757,46.6536,7.12502,7.81124,76.4893,-54.297,-17.0213,20.6821,45.4922,6.70455,-16.462,44.0165,-40.6272,12.5883,-33.8986,81.2155,-22.5226,-2.08901,33.7325
3.46546,13.8264,2.06286,-12.5973,-15.7229,-6.18133,22.4564,-4.10732,0.771098,5.19963,-4.62877,9.18406,-6.01521,-2.33912,11.0636,-7.00965,-5.85542,-12.301,32.2905,-7.52625,2.9946,12.4786,-4.59338,2.269,-1.39149e-13,1.54257e-13,-56.0313,-19.552,-50.9916,49.3466,-6.37044,-20.5031,20.6458,7.12502,5.85406,-9.25332,-1.39149e-13,1.54257e-13,-27.0903,22.0838,77.3927,46.458,12.2575,-20.2343,40.2759,7.12502,6.11366,70.1677,-56.4032,-19.163,24.5228,44.4733,12.2367,-10.0924,39.5118,-39.4598,12.9951,-34.7078,80.6557,-23.1571,-2.41569,34.2638
3.51259,13.861,2.30905,-14.3432,-13.9735,-2.59346,22.2602,-4.15808,-2.62971,5.48519,-5.56742,8.14053,-5.20526,-2.82102,12.0388,-7.30644,-5.61098,-11.7925,32.1497,-7.20424,2.95185,12.4173,-4.38761,2.20613,-6.16232e-14,3.02153e-14,-56.1692,-20.0254,-51.4571,48.5513,-6.55963,-19.3398,20.4008,7.12502,6.97717,-9.46422,-6.16232e-14,3.02153e-14,-24.7808,20.3175,81.1947,45.5807,12.5467,-16.9574,42.8685,7.12502,9.27643,72.6444,-57.3465,-21.794,23.7304,44.2708,15.2861,-10.7225,44.287,-36.1641,12.8737,-39.1716,79.2284,-24.2601,-1.88995,34.4083
3.54449,13.8827,2.49541,-14.253,-12.5413,-1.50962,21.4513,-4.47789,-3.89826,5.50287,-6.29953,7.83736,-4.49965,-3.22211,12.4924,-7.24815,-5.33372,-11.5042,31.5557,-6.93428,3.28983,12.1278,-4.18083,2.32754,5.725e-14,-8.74653e-14,-56.2213,-20.2943,-52.2811,47.8762,-6.8552,-19.371,19.7662,7.12502,6.94703,-10.0998,5.725e-14,-8.74653e-14,-22.3233,18.2723,84.6815,44.8188,11.8425,-17.2082,41.4325,7.12502,9.03446,71.219,-59.3993,-22.8544,25.6436,44.3619,16.2274,-15.1008,43.8666,-35.0349,12.5626,-40.986,78.4218,-24.8195,-1.82523,34.8576
3.57463,13.9258,2.5962,-12.1432,-11.9928,-3.88253,20.6882,-5.12726,-2.2665,4.70477,-6.72245,8.7587,-4.95541,-3.39083,12.6643,-6.84754,-4.87258,-11.5856,31.3911,-6.40741,3.63602,11.9415,-3.92146,2.55454,9.10434e-14,-5.08889e-14,-56.7665,-19.8498,-52.6538,47.0851,-6.75862,-19.9351,19.4866,7.12502,6.40244,-10.3966,9.10434e-14,-5.08889e-14,-20.8388,16.2113,87.7689,43.9652,11.0581,-16.4439,41.3377,7.12502,9.77195,71.091,-61.8567,-21.4608,30.5644,45.0557,13.3436,-20.2427,42.3622,-36.464,12.0894,-38.9854,78.3031,-24.5433,-2.58465,35.3449
3.59909,13.9273,2.77918,-12.1699,-10.5479,-3.10137,20.3998,-5.48045,-3.33342,4.54855,-7.42502,8.58922,-4.69815,-3.74583,13.2111,-6.61613,-4.49908,-11.6142,31.0213,-6.0046,4.07908,11.7173,-3.68883,2.78403,-9.89948e-14,7.31528e-14,-57.1122,-19.7839,-53.1093,46.4153,-6.89324,-19.8128,19.8908,7.12502,6.52057,-9.98877,-9.89948e-14,7.31528e-14,-18.6777,13.6736,90.7483,42.794,9.97504,-16.2106,38.9144,7.12502,9.99702,68.657,-63.1587,-22.2398,32.4702,45.9007,13.1404,-20.9924,40.3448,-35.2591,11.4578,-40.312,77.8778,-25.0484,-2.7284,36.4869
3.62776,13.9309,2.98091,-12.5432,-9.33055,-2.07724,20.107,-5.70293,-4.43956,4.74192,-7.98526,8.2019,-4.09844,-4.06772,13.4452,-7.91612,-4.34921,-10.7607,31.2214,-5.72683,3.89657,11.9916,-3.46938,2.583,6.36111e-14,-7.31528e-14,-57.3083,-19.4029,-54.3393,46.3478,-7.7909,-19.8791,20.0043,7.12502,6.45652,-9.87728,6.36111e-14,-7.31528e-14,-16.4347,11.0367,93.4669,41.9049,8.32855,-17.5828,35.7588,7.12502,8.67293,65.5606,-64.0572,-22.7841,33.8194,47.2215,14.9294,-18.6779,32.7635,-33.4819,11.1733,-41.8022,77.4648,-25.8477,-2.46845,36.914
3.6696,13.9553,3.14694,-12.1881,-9.36437,-2.84209,19.7997,-5.83738,-3.74928,4.85478,-8.02115,8.35789,-3.88117,-4.10732,13.1654,-8.47266,-4.09928,-10.3202,31.0001,-5.4266,4.09305,11.9728,-3.24665,2.61173,4.25399e-14,-2.54444e-14,-57.5085,-19.3116,-55.3344,46.1005,-8.07277,-20.3739,19.9572,7.12502,5.97881,-9.9384,4.25399e-14,-2.54444e-14,-14.5092,8.489,95.9223,41.1568,6.12188,-19.3294,33.7922,7.12502,6.98718,63.6569,-64.3698,-21.1619,36.2704,48.7004,14.3551,-16.8576,31.3944,-32.8302,11.5993,-41.1719,77.2708,-26.2948,-2.23191,35.8983
3.70438,13.9513,3.26443,-11.7163,-7.59684,-3.59817,20.275,-6.48907,-3.42847,4.35134,-8.76476,8.68242,-4.48778,-4.42506,13.6297,-8.49513,-3.79781,-10.2795,30.8129,-5.02744,4.23768,11.8661,-3.04243,2.71131,1.19668e-13,-1.90833e-14,-57.6531,-20.1705,-54.9439,44.6229,-6.8333,-21.0747,20.0589,7.12502,5.30226,-9.85476,1.19668e-13,-1.90833e-14,-13.0181,5.84428,98.3041,40.4067,4.12408,-20.1174,33.8199,7.12502,6.22648,63.7084,-65.2658,-20.8351,38.2786,50.3328,17.1341,-12.1937,21.7038,-32.2981,10.2685,-40.9345,77.2947,-26.1638,-2.43737,36.0646
3.77616,13.9949,3.43049,-11.6614,-7.5066,-4.31774,20.2963,-6.68349,-2.56039,4.32424,-8.82501,8.82371,-4.62584,-4.44877,13.3078,-8.29763,-3.5876,-10.9344,30.3633,-4.92235,5.35254,11.6811,-2.93323,3.25796,2.78299e-14,-1.59028e-14,-57.813,-21.719,-54.1389,42.8884,-5.12002,-21.6925,20.421,7.12502,4.70573,-9.5067,2.78299e-14,-1.59028e-14,-11.621,2.57336,100.408,39.8984,2.35796,-20.1409,33.7114,7.12502,6.20376,63.6006,-64.6188,-19.1658,39.6095,51.8809,16.4744,-10.2112,26.3074,-31.4002,10.5496,-40.3449,77.1459,-26.2375,-3.03214,37.2668
3.845,14.0398,3.58325,-11.2312,-7.68908,-5.33351,20.0261,-6.83115,-1.38601,4.35295,-8.77127,8.98579,-4.62176,-4.42797,12.7555,-9.17547,-3.38835,-10.4078,30.4448,-4.67577,5.48664,11.8503,-2.73284,3.24267,7.59357e-14,-1.59028e-15,-58.0361,-22.6503,-54.093,41.9104,-4.16295,-21.7357,21.2026,7.12502,4.66394,-8.72601,7.59357e-14,-1.59028e-15,-10.1979,-1.7992,101.976,39.5645,1.51256,-20.7664,33.1722,7.12502,5.59989,63.0782,-64.1312,-16.8581,41.1821,53.4077,16.4397,-8.8725,23.2256,-31.1928,11.0852,-39.4514,77.178,-26.1556,-3.09962,36.5272
3.90951,14.0813,3.74554,-11.0888,-7.17892,-5.89977,20.0302,-7.20036,-0.76323,4.23198,-9.11484,9.03814,-4.77091,-4.58929,12.5404,-9.52299,-3.05978,-9.93073,30.2552,-4.21876,5.38958,11.7822,-2.47541,3.17711,-4.41302e-14,4.45278e-14,-58.1382,-22.3856,-54.6466,41.2255,-4.16696,-21.6917,21.4987,7.12502,4.7065,-8.42899,-4.41302e-14,4.45278e-14,-9.12714,-7.10827,103.189,39.4822,2.07535,-21.9743,33.202,7.12502,4.43359,63.1356,-63.6188,-15.1766,41.8534,55.0288,16.7955,-8.33351,20.5805,-30.5316,11.127,-39.1279,77.1329,-26.0701,-2.93852,34.9426
3.98412,14.1227,3.91413,-10.3294,-7.13201,-7.41098,19.5393,-7.60658,1.01454,4.04011,-9.2742,9.3807,-4.91605,-4.66667,11.894,-9.76081,-2.76203,-9.5997,30.025,-3.8092,5.36064,11.6891,-2.24892,3.15658,-7.27552e-14,-2.54444e-14,-58.0049,-21.9155,-55.3301,40.4845,-4.79885,-21.6887,21.1192,7.12502,4.70936,-8.8085,-7.27552e-14,-2.54444e-14,-8.29748,-12.6315,104.178,39.8118,2.66094,-23.1116,33.1228,7.12502,3.33528,63.0765,-63.447,-13.0336,43.5582,57.0302,16.8029,-8.09231,21.841,-30.3783,11.1752,-37.7587,76.8735,-25.708,-3.41014,34.0405
4.04171,14.1188,4.06171,-9.92016,-6.97436,-7.8062,19.3235,-7.77757,1.38485,3.98318,-9.43444,9.37678,-4.89686,-4.74753,11.6805,-10.4399,-2.51228,-9.00606,30.0519,-3.48788,5.29682,11.7915,-2.03502,3.06857,-7.15625e-15,-5.56597e-14,-57.6666,-21.9519,-56.0173,39.6163,-5.3427,-21.3966,20.8251,7.12502,4.99146,-9.09613,-7.15625e-15,-5.56597e-14,-7.32042,-18.1573,104.57,40.364,2.59749,-23.5954,32.7259,7.12502,2.86806,62.6863,-63.3162,-10.5885,44.11,59.2319,17.2958,-7.27344,22.5939,-30.3624,11.2639,-37.5326,76.7533,-24.9351,-3.94165,33.6008
4.17356,14.218,4.29871,-11.5738,-6.07896,-4.14216,18.9019,-7.87309,-1.4702,4.56647,-10.273,7.86888,-3.68877,-5.21734,11.5555,-11.2602,-2.16513,-8.36312,30.103,-3.03462,5.23415,11.9236,-1.75514,2.99193,4.45278e-14,-5.88403e-14,-57.0364,-22.0583,-56.7411,38.6412,-5.42574,-20.7996,20.6121,7.12502,5.56788,-9.29478,4.45278e-14,-5.88403e-14,-6.12858,-23.2712,104.341,41.2483,2.1907,-23.1191,32.4589,7.12502,3.32807,62.4127,-61.7285,-10.9971,40.4059,61.8954,18.0703,-3.35413,20.2252,-26.4785,11.474,-41.7145,74.93,-24.5324,-3.94899,34.2886
4.25457,14.2422,4.45746,-11.2717,-5.5516,-4.18319,19.0897,-8.29908,-1.57993,4.16015,-10.8262,7.97565,-4.07249,-5.46354,11.9176,-11.5864,-1.69238,-8.11377,30.2981,-2.30406,4.9514,11.9993,-1.43521,2.94365,6.95746e-14,-3.18055e-15,-56.5767,-20.9815,-57.0624,37.7663,-5.46403,-20.0972,20.1587,7.12502,6.24598,-9.72924,6.95746e-14,-3.18055e-15,-5.64193,-26.6572,104.651,42.4638,0.780825,-21.5334,32.1012,7.12502,4.85936,62.0255,-61.4966,-9.81373,40.8936,64.1424,18.3287,-1.30306,19.1951,-25.8467,11.2189,-41.916,74.4288,-23.2462,-4.99561,36.7292
4.34642,14.2815,4.62675,-10.9109,-5.09311,-4.20331,18.8585,-8.56763,-1.60063,3.91731,-11.1747,8.169,-4.09725,-5.6338,12.1906,-12.0311,-1.43543,-7.97045,30.3225,-1.82535,4.63519,12.059,-1.23816,2.86442,-6.59965e-14,0,-55.9691,-20.2868,-57.2157,37.1222,-6.21549,-19.2532,19.7362,7.12502,7.06075,-10.126,-6.59965e-14,0,-4.67609,-30.7587,104.849,43.6294,-0.370311,-20.0514,31.413,7.12502,6.29017,61.2996,-61.0598,-8.68224,41.2881,66.1593,18.3385,0.193457,18.5601,-25.1455,11.1819,-42.1941,73.6535,-21.9174,-5.48833,38.9631
4.43481,14.2811,4.81979,-10.6244,-4.67064,-3.81208,18.5019,-8.68579,-1.96276,3.66704,-11.4003,8.28811,-4.03754,-5.74537,12.5204,-11.6714,-1.18613,-8.13256,29.7801,-1.39809,4.52254,11.737,-1.06956,2.8945,-2.98177e-14,-4.29375e-14,-55.518,-19.6501,-57.2182,36.7889,-7.68851,-18.3607,19.3517,7.12502,7.92222,-10.4799,-2.98177e-14,-4.29375e-14,-3.50375,-35.4377,104.83,44.8193,-0.787342,-19.3725,30.8927,7.12502,6.94557,60.7588,-60.5732,-7.50984,41.2754,67.8394,18.4034,1.07893,16.129,-24.6807,11.599,-42.954,73.4015,-21.1845,-5.59454,35.1493
4.54056,14.3685,4.98888,-10.3365,-4.17287,-3.50919,18.064,-8.83773,-2.16384,3.42083,-11.6415,8.35584,-3.96771,-5.86387,12.6848,-10.7985,-0.785997,-8.35477,28.9019,-0.85286,4.63928,11.1753,-0.820801,3.0228,-1.29608e-13,3.81667e-14,-55.202,-19.5676,-56.8393,36.2966,-7.98916,-17.8257,18.9677,7.12502,8.43851,-10.8437,-1.29608e-13,3.81667e-14,-2.37539,-39.4052,104.718,46.0772,-1.89961,-18.4636,30.1916,7.12502,7.82292,60.0269,-59.3913,-6.65508,41.1711,68.9165,18.4437,1.1994,14.4572,-23.9024,12.0395,-43.414,72.647,-20.102,-6.35028,35.1063
4.64301,14.4638,5.13617,-9.57111,-3.49302,-4.29329,17.4075,-9.19331,-1.30305,3.12862,-11.9406,8.69815,-3.97225,-6.01179,12.5434,-10.6879,-0.591551,-8.13516,28.4893,-0.566472,4.46416,10.9719,-0.677635,2.94519,-2.05543e-13,3.49861e-14,-54.8738,-20.02,-56.2276,35.6286,-7.1829,-17.2154,19.1061,7.12502,9.02752,-10.6807,-2.05543e-13,3.49861e-14,-0.973373,-42.9205,104.235,47.258,-3.48137,-17.4657,28.9289,7.12502,8.78594,58.726,-58.3071,-5.79321,42.1449,69.3055,18.7561,0.54951,14.997,-23.7098,12.0758,-42.7084,71.9964,-18.5032,-7.52465,34.7708
4.75173,14.5333,5.29264,-9.21811,-1.95478,-3.85998,17.3153,-9.72933,-1.69679,2.57917,-12.698,8.76727,-4.2542,-6.35711,12.9991,-11.1166,-0.514694,-7.88628,28.7226,-0.349986,4.01587,11.1329,-0.607696,2.77153,1.59028e-15,1.30403e-13,-54.6743,-18.9387,-56.2675,35.6852,-7.41292,-16.7711,19.0282,7.12502,9.45622,-10.7397,1.59028e-15,1.30403e-13,0.498207,-46.1337,103.615,48.4044,-4.07222,-17.1326,27.5156,7.12502,9.1074,57.2989,-57.2878,-5.84034,41.54,69.5264,19.2688,0.321414,16.5948,-22.6782,11.5802,-43.4559,70.9758,-16.9573,-8.31874,33.3672
4.84371,14.6584,5.42996,-8.34362,-0.374039,-3.67892,16.7496,-10.3159,-2.00573,1.83178,-13.5155,8.96469,-4.46253,-6.73266,13.4731,-11.0794,-0.411275,-7.78502,28.8402,-0.155282,3.74182,11.1584,-0.545605,2.67913,-2.5842e-14,2.54444e-14,-54.5846,-18.5053,-55.7558,35.3982,-6.71535,-16.6689,19.0679,7.12502,9.55483,-10.6954,-2.5842e-14,2.54444e-14,1.82522,-48.8316,102.992,49.4152,-4.54945,-17.1223,26.1522,7.12502,9.11729,55.9351,-56.2766,-5.50202,41.0378,69.1173,20.1723,-0.240602,20.018,-22.0627,10.7653,-43.7999,69.8412,-15.4303,-9.12012,32.848
4.97702,14.7123,5.67868,-8.5304,-1.85738,-3.26478,15.099,-9.89079,-1.43019,2.58393,-12.9695,8.36357,-3.18199,-6.54998,11.927,-11.2676,-0.440112,-7.22315,28.4077,-0.318608,3.83303,11.0372,-0.534559,2.58803,-1.60618e-13,2.22639e-14,-54.2677,-18.681,-56.4987,35.7329,-7.38876,-16.906,18.9626,7.12502,9.32605,-10.8111,-1.60618e-13,2.22639e-14,4.61134,-52.3582,100.77,50.1897,-5.62438,-17.3381,25.3615,7.12502,8.90913,55.1535,-53.3748,-3.39863,40.682,68.8475,20.1941,1.71815,32.2358,-20.8458,13.6392,-43.9705,68.6397,-14.5803,-10.1164,32.8725
5.0802,14.7674,5.86751,-8.17654,-1.18447,-2.5356,14.9874,-9.84846,-2.35944,1.95528,-13.0348,8.6719,-3.49994,-6.55095,12.8381,-11.0789,-0.387203,-7.54524,28.3037,-0.10045,3.56024,10.9503,-0.499235,2.56754,-1.03368e-14,-9.54166e-15,-54.3453,-17.3586,-55.8922,36.1561,-8.12752,-16.8408,19.4322,7.12502,9.38891,-10.3387,-1.03368e-14,-9.54166e-15,6.43007,-54.8571,100.696,50.7296,-6.83704,-17.2802,24.4086,7.12502,8.96498,54.1981,-51.5929,-2.98581,39.7771,68.1875,17.4478,6.03695,44.9063,-19.8482,14.8274,-44.6092,67.7877,-13.2277,-11.4393,33.5336
5.19802,14.8252,6.07548,-7.69503,-0.0255173,-1.86174,14.134,-10.1252,-2.75787,1.52766,-13.4733,8.70624,-3.30495,-6.76962,12.9906,-10.248,-0.169729,-8.08425,27.608,0.158894,3.96221,10.5043,-0.376841,2.8172,1.07741e-13,-6.99722e-14,-54.4205,-17.0076,-54.9697,36.0758,-6.89713,-16.3914,20.8072,7.12502,9.82254,-8.94373,1.07741e-13,-6.99722e-14,8.97691,-57.3432,99.4349,51.2354,-7.56921,-16.7975,23.0087,7.12502,9.43074,52.7777,-50.0085,-3.0109,38.6914,67.4562,9.83028,7.17961,43.8861,-18.6941,15.6279,-45.2059,66.9523,-11.871,-12.7536,33.8772
5.26657,14.8623,6.18845,-5.99414,0.957474,-3.54102,13.1128,-10.4439,-1.33798,0.863847,-13.6453,9.55295,-3.54195,-6.84394,13.0515,-10.9664,-0.389079,-7.68706,27.7348,-0.0758915,3.61806,10.7124,-0.479505,2.60463,-1.13307e-13,4.45278e-14,-54.3302,-16.8171,-54.8563,36.5471,-7.28878,-17.1122,19.8887,7.12502,9.12711,-9.89384,-1.13307e-13,4.45278e-14,12.4983,-59.9433,96.8098,51.8873,-7.84724,-16.4373,22.5878,7.12502,9.7783,52.3408,-49.8238,-1.04413,40.0897,65.9577,3.83853,1.76744,39.7424,-20.2678,15.9644,-43.3867,67.1998,-10.0495,-14.3185,32.8479
5.38458,14.8996,6.3667,-5.17537,0.607754,-2.83889,12.0827,-10.1268,-1.72834,0.633429,-13.311,9.497,-3.23387,-6.68258,12.9586,-10.9538,-0.444829,-7.65486,27.3707,-0.171183,3.6945,10.5796,-0.499979,2.60851,8.34896e-15,7.31528e-14,-54.0514,-15.3735,-56.4433,38.4859,-12.8576,-20.3436,15.6867,7.12502,6.00808,-14.2081,8.34896e-15,7.31528e-14,16.4714,-62.3183,93.7508,52.6421,-8.07897,-15.9352,22.625,7.12502,10.2627,52.3547,-48.5429,0.989186,38.6891,64.716,-0.882112,-1.8931,36.4939,-20.3414,18.088,-44.0581,66.7509,-8.59371,-15.6801,32.5786
5.49005,14.9555,6.55803,-4.46652,3.32094,-3.32683,11.3728,-10.8801,-0.984167,-0.155837,-14.1794,9.93906,-3.56099,-7.0905,13.0617,-10.8191,-0.487679,-8.0035,27.2339,-0.206896,3.86826,10.5057,-0.527536,2.72378,-9.78021e-14,0,-54.4365,-15.4946,-55.1892,38.6302,-12.9872,-20.2738,16.3261,7.12502,6.07546,-13.5668,-9.78021e-14,0,19.5244,-64.2129,91.9362,53.3102,-8.37295,-15.4666,22.2785,7.12502,10.7147,51.9852,-47.8682,0.692047,38.0227,63.4499,-4.77324,-1.67626,38.633,-19.419,17.8623,-43.0405,66.584,-6.28872,-17.5859,34.1326
5.59529,14.9881,6.71798,-3.78503,4.95037,-2.88658,10.9705,-11.0784,-1.14826,-0.837262,-14.4382,10.0301,-3.95257,-7.176,13.2727,-10.7378,-0.651353,-8.24696,27.0396,-0.439114,4.07228,10.4349,-0.628837,2.8078,1.01977e-13,-8.26944e-14,-55.1785,-17.3985,-52.3655,37.5538,-9.65102,-18.8044,19.281,7.12502,7.49392,-10.5663,1.01977e-13,-8.26944e-14,22.8884,-66.122,89.6068,54.0403,-8.23149,-15.1837,21.6816,7.12502,10.9876,51.374,-47.695,0.903633,36.6333,62.9733,-7.4214,-3.1632,37.408,-18.7583,18.6435,-43.068,66.1199,-3.73487,-19.0844,34.8206
5.70235,15.0346,6.88489,-3.28539,7.23551,-2.67726,10.0297,-11.5116,-1.02412,-1.0196,-15.0314,9.99819,-3.5434,-7.49546,12.9841,-10.9882,-0.867757,-8.23056,26.4547,-0.774702,4.34543,10.2918,-0.730749,2.85366,-4.01545e-14,5.08889e-14,-55.3207,-21.8253,-48.8481,35.891,-5.82445,-18.3171,20.6066,7.12502,7.96431,-9.22332,-4.01545e-14,5.08889e-14,28.1172,-67.7172,85.1693,54.732,-8.17892,-14.8068,21.0502,7.12502,11.3511,50.723,-47.6688,0.239202,35.6213,62.9,-8.66575,-5.74719,33.9516,-17.6244,18.9067,-42.5058,65.8149,-0.861792,-20.5745,35.2818
5.79226,15.1203,6.99373,-2.68215,8.9446,-2.34197,10.2748,-11.6735,-1.54366,-1.54688,-15.2703,10.1932,-3.99978,-7.56875,13.6309,-11.3491,-1.0957,-8.37755,26.1356,-1.03615,4.4283,10.2671,-0.84275,2.87295,-6.36111e-15,-1.90833e-14,-55.5898,-21.3329,-48.8685,36.7777,-7.66704,-18.695,20.2239,7.12502,7.59954,-9.61955,-6.36111e-15,-1.90833e-14,32.3997,-68.7316,81.8651,55.3404,-8.32016,-14.2814,20.864,7.12502,11.8578,50.5082,-48.5286,0.540449,34.3648,63.53,-8.9633,-7.68967,34.573,-17.3184,19.5522,-41.895,65.543,2.83258,-22.141,34.9737
5.88884,15.1762,7.0826,-1.95331,9.47016,-3.15034,10.584,-11.5095,-0.637993,-2.18919,-14.8395,10.693,-5.0536,-7.28148,13.9084,-11.4627,-1.35102,-8.68023,25.9777,-1.32403,4.48456,10.258,-0.991714,2.90787,-5.04913e-14,-6.67916e-14,-56.0947,-18.7389,-50.6579,39.355,-13.8629,-20.6692,17.5682,7.12502,5.69375,-12.3353,-5.04913e-14,-6.67916e-14,35.6396,-69.6266,79.6209,56.0076,-8.25871,-13.4322,20.6727,7.12502,12.6765,50.268,-49.4607,1.5469,34.4725,64.081,-8.92542,-8.98019,33.7752,-18.0169,20.797,-40.3139,65.5745,6.13024,-23.856,32.1885
5.99585,15.2133,7.18834,-1.76893,10.7156,-2.66217,11.3006,-11.4923,-0.84356,-2.69714,-14.7713,10.6769,-5.97068,-7.1572,14.2876,-11.9836,-1.64795,-8.94452,26.1743,-1.65606,4.57355,10.4628,-1.15642,2.94937,1.41535e-13,6.36111e-15,-56.9027,-18.8759,-49.7168,39.8379,-14.2061,-20.2868,18.5869,7.12502,6.06291,-11.3064,1.41535e-13,6.36111e-15,38.4446,-70.2917,77.7104,56.678,-8.04239,-12.3352,20.0154,7.12502,13.734,49.5421,-49.6052,1.05682,33.1373,64.788,-9.63495,-9.30287,33.6319,-17.233,21.2978,-39.7982,65.2893,8.60097,-25.44,28.0086
6.08237,15.2746,7.32042,-2.00971,11.7971,-2.42074,11.6197,-11.3222,-1.20098,-2.69551,-14.5831,10.5892,-6.1249,-7.0366,14.4485,-12.4185,-2.07989,-9.25288,26.0636,-2.22786,4.89332,10.561,-1.40152,3.04416,5.76476e-15,0,-57.4422,-19.9328,-48.7165,39.9,-14.3312,-20.4735,18.9802,7.12502,5.88264,-10.9181,5.76476e-15,0,39.4345,-70.6406,77.692,57.1459,-8.33261,-11.1211,18.8944,7.12502,14.9038,48.3383,-48.8238,0.844849,32.1437,65.1708,-10.8116,-9.75226,33.7376,-16.0468,22.0497,-38.5171,65.0951,9.98895,-27.1363,22.0476
6.17524,15.3389,7.43292,-1.97697,12.6957,-1.88441,11.6625,-10.9906,-1.60864,-2.62144,-14.212,10.3088,-6.13255,-6.83587,14.3146,-12.4546,-2.4845,-9.1629,25.5567,-2.82816,5.01809,10.4316,-1.63989,2.98805,1.55052e-14,4.13472e-14,-58.0121,-21.3161,-47.8374,39.7348,-14.3396,-20.5642,19.2861,7.12502,5.79511,-10.6147,1.55052e-14,4.13472e-14,37.806,-70.7979,80.3555,57.351,-9.25124,-10.1176,17.9716,7.12502,15.8704,47.3413,-48.2774,0.137007,31.0496,65.4508,-11.7509,-9.80107,33.2427,-15.2738,22.7489,-37.7323,64.8919,9.87321,-28.2617,14.3916
6.26543,15.3532,7.53453,-1.86068,13.5467,-1.377,12.2466,-10.7495,-1.97553,-2.92983,-13.9138,10.1562,-6.82065,-6.60537,14.5282,-12.6752,-2.895,-9.23795,25.5209,-3.38569,5.09394,10.512,-1.8882,2.95443,-8.74653e-15,-2.54444e-14,-58.3724,-21.6463,-47.5395,39.7399,-15.7874,-21.6246,18.595,7.12502,4.77122,-11.3313,-8.74653e-15,-2.54444e-14,36.5089,-70.9795,82.5384,57.486,-9.24566,-9.7004,17.8892,7.12502,16.2721,47.2264,-48.1636,-1.11365,30.2602,65.7288,-12.189,-9.55764,32.3382,-14.974,22.6418,-37.3057,65.161,7.68336,-28.5406,3.18569
6.35465,15.3989,7.63827,-1.84418,14.6307,-0.933408,12.2377,-10.5154,-2.26904,-2.74438,-13.6657,9.89414,-6.67137,-6.48699,14.327,-12.6453,-3.17297,-9.47159,24.8049,-3.87248,5.78318,10.3019,-2.04139,3.16862,-9.12422e-14,2.54444e-14,-58.2915,-22.6221,-47.631,39.4782,-16.7151,-22.4666,18.3136,7.12502,3.9582,-11.6294,-9.12422e-14,2.54444e-14,39.0274,-71.4991,80.8523,57.336,-8.55262,-9.35307,17.6135,7.12502,16.6065,46.923,-47.7895,-2.54136,29.4928,65.7734,-12.5943,-9.41404,31.4188,-14.4968,22.3303,-36.6388,65.6474,6.81766,-28.8162,-0.122801
6.44436,15.4482,7.72846,-1.68709,15.4816,-1.06791,11.3461,-10.1642,-1.89988,-2.15328,-13.1904,9.70889,-5.77406,-6.3469,13.5501,-12.8344,-3.62512,-9.71798,23.8918,-4.57892,6.54474,10.0941,-2.28538,3.37551,8.20981e-14,-5.725e-14,-57.845,-24.3988,-47.8449,39.027,-17.6125,-22.6545,18.225,7.12502,3.77673,-11.7213,8.20981e-14,-5.725e-14,39.0889,-71.4897,81.9672,56.4639,-9.21451,-8.61709,16.1029,7.12502,17.315,45.3516,-47.5637,-3.3289,29.2438,65.6787,-13.1115,-9.57488,30.2153,-14.5845,21.9497,-35.5198,66.6076,4.06772,-28.673,-5.35068
6.53807,15.5112,7.80263,-1.2846,15.7743,-1.83289,11.3354,-9.8248,-0.97322,-2.63495,-12.5417,9.96778,-6.5824,-5.97574,13.3769,-12.0107,-3.85722,-10.1671,23.6216,-4.90169,6.66009,9.88667,-2.47304,3.45446,-4.73108e-14,3.18055e-14,-57.9809,-24.3064,-47.5175,38.4254,-18.6773,-22.7141,17.8484,7.12502,3.71921,-12.0989,-4.73108e-14,3.18055e-14,53.82,-73.7272,64.9544,60.3267,-3.59303,-9.9453,19.1528,7.12502,16.0363,48.5091,-47.5834,-3.40587,29.6641,65.3077,-13.4562,-9.69945,29.3291,-16.2903,22.0569,-34.1719,67.7307,1.85122,-27.1062,-9.49749
6.61588,15.5629,7.88513,-1.02073,16.3254,-2.28738,10.9459,-9.48303,-0.542174,-2.6908,-12.0174,10.0772,-6.60555,-5.72365,13.1381,-11.5011,-4.15454,-10.3737,23.019,-5.33852,6.84334,9.62993,-2.67513,3.49521,4.77083e-14,1.27222e-14,-57.4691,-24.8539,-47.4374,37.2509,-19.0476,-22.9111,17.3334,7.12502,3.52899,-12.6171,4.77083e-14,1.27222e-14,52.9891,-74.0913,65.6505,60.9376,-2.83983,-10.056,19.3513,7.12502,15.9297,48.7162,-47.3911,-3.82734,29.821,64.9482,-13.5604,-9.63842,29.503,-16.8482,21.6367,-32.7115,69.053,0.512363,-24.4831,-6.12352
6.69284,15.6292,7.98501,-1.12564,17.3186,-2.38341,10.6668,-9.20577,-0.461733,-2.52843,-11.6554,9.97472,-6.38771,-5.56283,12.8526,-11.1603,-4.58519,-10.4142,22.3656,-5.94845,6.91443,9.40052,-2.95278,3.44568,6.16232e-15,-7.63333e-14,-56.9106,-26.3054,-46.7114,35.2975,-18.1991,-22.4371,17.2799,7.12502,3.98666,-12.6626,6.16232e-15,-7.63333e-14,52.9789,-74.492,65.3425,61.6091,-1.91279,-9.94222,19.5843,7.12502,16.0393,48.9404,-46.5717,-4.88786,29.5728,64.5366,-13.8395,-9.50246,29.571,-16.8131,21.0754,-31.3867,70.2202,-1.1847,-26.5628,-6.51951
