JuanDHNZ/ProyectoFinalCD/preprocessing/sports_trials_csv/10_01.csv
root1,root2,root3,root4,root5,root6,lowerback1,lowerback2,lowerback3,upperback1,upperback2,upperback3,thorax1,thorax2,thorax3,lowerneck1,lowerneck2,lowerneck3,upperneck1,upperneck2,upperneck3,head1,head2,head3,rclavicle1,rclavicle2,rhumerus1,rhumerus2,rhumerus3,rradius1,rwrist1,rhand1,rhand2,rfingers1,rthumb1,rthumb2,lclavicle1,lclavicle2,lhumerus1,lhumerus2,lhumerus3,lradius1,lwrist1,lhand1,lhand2,lfingers1,lthumb1,lthumb2,rfemur1,rfemur2,rfemur3,rtibia1,rfoot1,rfoot2,rtoes1,lfemur1,lfemur2,lfemur3,ltibia1,lfoot1,lfoot2,ltoes1
9.5234,17.7534,-14.1142,3.52634,-37.477,-5.55485,1.85717,-0.731567,-1.70699,-1.31094,-0.959278,4.13724,-2.29415,-0.426592,5.27746,-7.8737,-8.3112,-19.586,22.9033,-11.7888,13.1159,10.6025,-6.01473,6.50634,6.07287e-14,1.59028e-14,-37.0474,-18.2582,-68.3538,27.3509,-9.79806,-9.89371,16.9544,7.12502,16.086,-12.398,6.07287e-14,1.59028e-14,-31.2159,2.43749,85.433,26.459,-15.0991,0.502761,31.2731,7.12502,26.0718,59.5038,-13.1391,7.72951,16.2553,34.7909,-17.4417,-6.5588,6.7742,-7.02189,-0.137161,-17.2171,34.6886,-24.7482,13.8209,1.27931
9.52329,17.7516,-14.1114,3.44474,-37.5449,-5.47513,1.82418,-0.710358,-1.78809,-1.23912,-0.935447,4.07468,-2.20361,-0.41639,5.25535,-7.99613,-8.35314,-19.2808,22.8216,-11.8257,12.9569,10.5708,-6.01249,6.382,-3.84276e-14,2.22639e-14,-36.9824,-18.1096,-68.4355,27.4676,-10.0887,-9.99585,16.9745,7.12502,15.9876,-12.3857,-3.84276e-14,2.22639e-14,-31.0952,2.19429,85.4856,26.3592,-14.9394,0.366421,31.2809,7.12502,25.9413,59.5308,-13.1246,7.79069,16.1619,34.8539,-17.6187,-6.36767,7.9528,-6.93223,0.0271588,-17.2848,34.6214,-24.6971,13.8283,1.03057
9.52485,17.7492,-14.1064,3.30611,-37.5282,-5.30536,1.74709,-0.759111,-1.9021,-1.18013,-1.00546,4.03939,-2.09079,-0.452998,5.28316,-8.35794,-8.36849,-18.8646,23.0413,-11.7294,12.4084,10.6386,-5.97058,6.11224,7.36746e-15,5.56597e-15,-36.8413,-18.2099,-68.4004,27.4525,-10.0558,-10.2193,16.9482,7.12502,15.7724,-12.4292,7.36746e-15,5.56597e-15,-31.0333,2.12152,85.5777,26.3276,-14.4341,0.0145065,31.1631,7.12502,25.6043,59.4619,-13.0577,7.72126,15.9873,34.8539,-17.7222,-6.25562,8.1961,-6.87815,0.00564783,-17.4557,34.6099,-24.7405,13.8009,1.18071
9.5275,17.7473,-14.1029,3.32896,-37.5022,-5.37243,1.69897,-0.810925,-1.81954,-1.18084,-1.07248,4.08504,-2.05798,-0.48843,5.28505,-8.96736,-8.42063,-18.446,23.5681,-11.6177,11.6471,10.8543,-5.93883,5.76337,5.93621e-14,2.74323e-14,-36.7984,-18.3746,-68.2144,27.4489,-10.0436,-10.1207,16.9036,7.12502,15.8674,-12.4663,5.93621e-14,2.74323e-14,-31.1345,2.25395,85.6548,26.3786,-14.1413,-0.370113,31.0472,7.12502,25.2358,59.3984,-13.0276,7.74682,16.042,34.8674,-17.6985,-6.31072,7.88312,-6.83404,-0.139442,-17.4396,34.5773,-24.7537,13.8664,1.50768
9.52973,17.7455,-14.0978,3.27067,-37.5437,-5.31553,1.63708,-0.797016,-1.79719,-1.16719,-1.05402,4.05332,-2.01186,-0.480723,5.23685,-9.203,-8.46678,-18.2177,23.731,-11.6064,11.3023,10.9211,-5.93993,5.59195,4.76089e-14,-2.5842e-14,-36.8213,-18.5711,-68.0397,27.4831,-10.013,-10.0305,16.8996,7.12502,15.9543,-12.4634,4.76089e-14,-2.5842e-14,-31.1481,2.33243,85.6722,26.3171,-14.1339,-0.641134,30.9735,7.12502,24.9761,59.3611,-12.9934,7.79908,15.9639,34.8651,-17.7096,-6.24509,8.23713,-6.76682,-0.213927,-17.5443,34.5533,-24.7376,13.9809,1.55834
9.53139,17.7446,-14.0909,3.11677,-37.5858,-5.12249,1.57614,-0.761674,-1.89615,-1.152,-1.00985,4.00407,-1.96571,-0.458365,5.23885,-9.12513,-8.46572,-18.3067,23.6898,-11.6228,11.3928,10.9056,-5.94879,5.64001,-9.19503e-14,-2.78299e-15,-36.8381,-18.579,-67.9538,27.5532,-10.1213,-10.2137,16.9527,7.12502,15.7779,-12.4242,-9.19503e-14,-2.78299e-15,-31.1477,2.36344,85.7186,26.2461,-14.1587,-0.880189,30.8879,7.12502,24.747,59.3071,-12.942,7.72001,15.752,34.8513,-17.8249,-6.12839,8.5824,-6.7017,-0.318251,-17.765,34.5442,-24.8014,14.0504,1.79625
9.5337,17.7458,-14.0876,3.14,-37.5762,-5.18841,1.5954,-0.744701,-1.83565,-1.18722,-0.984571,4.049,-2.01578,-0.444914,5.25169,-9.06751,-8.46038,-18.573,23.7293,-11.639,11.6103,10.9454,-5.96225,5.76711,3.64894e-14,-7.95139e-15,-36.8563,-18.8095,-67.7112,27.5106,-10.0342,-10.3714,17.0091,7.12502,15.626,-12.3798,3.64894e-14,-7.95139e-15,-31.2747,2.42676,85.8078,26.266,-14.2756,-0.91656,30.8507,7.12502,24.7122,59.2747,-12.9198,7.66376,15.7956,34.8457,-17.8572,-6.18628,7.90823,-6.69284,-0.350593,-17.7223,34.5373,-24.8595,14.0227,2.14354
9.53592,17.7471,-14.0861,3.18903,-37.5425,-5.22699,1.58593,-0.751814,-1.79495,-1.2045,-0.992658,4.06222,-2.02785,-0.449047,5.24267,-8.98927,-8.48169,-18.708,23.6832,-11.6863,11.727,10.9389,-5.98682,5.82758,-1.39174e-13,-9.93923e-15,-36.7961,-19.418,-67.3938,27.3189,-9.5622,-10.5125,17.0035,7.12502,15.4901,-12.3959,-1.39174e-13,-9.93923e-15,-31.3258,2.48808,85.8379,26.2763,-14.1661,-1.05472,30.975,7.12502,24.5798,59.417,-12.9463,7.62585,15.8202,34.8445,-17.7588,-6.26647,6.931,-6.73377,-0.323513,-17.6954,34.5385,-24.8441,13.9501,2.1782
9.53678,17.7457,-14.085,3.15613,-37.5536,-5.12776,1.52434,-0.759891,-1.88878,-1.17478,-1.00665,4.0335,-1.96006,-0.456549,5.26478,-8.95199,-8.50941,-18.6845,23.6097,-11.7353,11.7459,10.9125,-6.00519,5.82225,-2.58793e-14,-1.51076e-14,-36.6224,-19.8105,-67.2537,27.0878,-9.13511,-10.5131,17.2185,7.12502,15.4895,-12.1811,-2.58793e-14,-1.51076e-14,-31.2062,2.47487,85.8396,26.1653,-13.7617,-0.952765,31.1611,7.12502,24.6775,59.5899,-12.9751,7.59312,15.7108,34.8435,-17.6828,-6.16844,7.01277,-6.76947,-0.28601,-17.7899,34.5588,-24.7946,13.9597,1.56095
9.5375,17.7438,-14.0859,3.16234,-37.5317,-5.1131,1.507,-0.775867,-1.95085,-1.16685,-1.02958,4.04176,-1.9386,-0.467683,5.30909,-9.19395,-8.53534,-18.6681,23.7707,-11.7649,11.8129,11.0286,-6.00469,5.83677,5.48397e-14,-3.37934e-14,-36.4733,-19.9897,-67.1872,26.9292,-8.93064,-10.3421,17.4423,7.12502,15.6542,-11.9444,5.48397e-14,-3.37934e-14,-31.0631,2.42639,85.8502,26.0169,-13.4233,-0.276551,31.2485,7.12502,25.3255,59.587,-12.9983,7.5828,15.6914,34.8594,-17.7316,-6.0801,7.78531,-6.80251,-0.228052,-17.7826,34.5781,-24.7963,13.8851,1.32425
9.53926,17.7436,-14.0889,3.17371,-37.3893,-5.12919,1.57629,-0.816464,-2.01482,-1.18786,-1.08473,4.06371,-1.99196,-0.492897,5.37209,-9.73622,-8.58653,-18.5238,24.145,-11.7952,11.7814,11.2694,-5.99455,5.78838,7.12892e-14,3.77691e-14,-36.4229,-19.9039,-67.2363,27.0053,-9.15172,-10.4506,17.2949,7.12502,15.5497,-12.0999,7.12892e-14,3.77691e-14,-31.0366,2.60166,85.806,25.9616,-13.3859,0.0705325,31.2797,7.12502,25.6579,59.5708,-13.0085,7.57596,15.7286,34.8981,-17.8521,-6.16961,8.27864,-6.83507,-0.274563,-17.7403,34.5813,-24.7946,13.7631,1.71508
9.54072,17.7434,-14.0915,3.0768,-37.3094,-5.03308,1.63028,-0.80679,-2.10098,-1.1926,-1.074,4.02696,-2.0276,-0.485452,5.38363,-9.89017,-8.64356,-18.4597,24.1905,-11.8767,11.819,11.3297,-6.01668,5.77488,-2.16178e-14,1.47101e-14,-36.4914,-19.7625,-67.2782,27.1696,-9.55389,-10.7392,17.1432,7.12502,15.2717,-12.273,-2.16178e-14,1.47101e-14,-31.1054,2.75831,85.791,25.9052,-13.5504,-0.230124,31.1387,7.12502,25.3699,59.4709,-12.9744,7.60946,15.6567,34.9413,-17.8663,-6.21537,8.21972,-6.81186,-0.207787,-17.7948,34.5826,-24.7233,13.6826,1.65443
9.54229,17.7414,-14.0924,2.91993,-37.3303,-4.80247,1.65367,-0.754031,-2.29987,-1.22675,-1.00775,4.00737,-2.08051,-0.447469,5.47587,-9.59774,-8.69891,-18.6744,23.9541,-11.9723,11.9223,11.2235,-6.07597,5.83672,-2.94574e-14,-1.78906e-14,-36.6124,-19.9779,-66.9833,27.1543,-9.4693,-10.607,17.3451,7.12502,15.399,-12.0613,-2.94574e-14,-1.78906e-14,-31.1738,2.65855,85.9519,25.8352,-13.3502,-0.459077,31.0625,7.12502,25.1506,59.4257,-12.9742,7.61119,15.4395,34.9814,-17.7612,-6.18406,7.26935,-6.79586,-0.0881051,-17.9891,34.5802,-24.6399,13.6745,1.36634
9.54485,17.7395,-14.0895,2.89173,-37.3187,-4.7299,1.63616,-0.704801,-2.36238,-1.24244,-0.942945,4.01163,-2.09317,-0.413389,5.51406,-9.47934,-8.77314,-18.7935,23.8719,-12.0748,11.9404,11.1988,-6.13398,5.84721,-8.36014e-14,1.59028e-15,-36.6572,-20.1876,-66.7953,27.1808,-9.47283,-10.2891,17.5387,7.12502,15.7053,-11.844,-8.36014e-14,1.59028e-15,-31.1216,2.57849,86.0637,25.7617,-12.9784,-0.440889,31.123,7.12502,25.168,59.4838,-12.9986,7.59391,15.3623,35.0063,-17.6865,-6.28445,6.00917,-6.80505,-0.129487,-18.0784,34.5759,-24.6002,13.7713,1.21353
9.54691,17.7388,-14.0828,2.93951,-37.3138,-4.80116,1.56993,-0.674655,-2.24694,-1.23965,-0.899614,4.00917,-2.05946,-0.394251,5.44279,-9.47218,-8.78106,-18.9692,23.9098,-12.1216,12.1709,11.2495,-6.15016,5.95893,6.4779e-14,-2.34566e-14,-36.663,-19.8731,-66.9797,27.3878,-10.0973,-10.2745,17.4547,7.12502,15.7193,-11.9269,6.4779e-14,-2.34566e-14,-31.089,2.64228,86.0605,25.6576,-12.8469,-0.339628,31.2059,7.12502,25.265,59.553,-13.0043,7.57645,15.4062,35.0115,-17.6954,-6.36379,5.81684,-6.78764,-0.14875,-18.0511,34.584,-24.5828,13.9017,0.565772
9.54884,17.74,-14.0805,2.97686,-37.2674,-4.86947,1.59415,-0.685488,-2.1823,-1.28147,-0.911484,4.04571,-2.11534,-0.399187,5.44572,-9.55817,-8.75087,-19.1473,24.0631,-12.0825,12.3119,11.3406,-6.13487,6.05162,-7.19476e-14,8.34896e-15,-36.6814,-19.2693,-67.2258,27.5825,-10.6328,-10.5297,17.3046,7.12502,15.4735,-12.0962,-7.19476e-14,8.34896e-15,-31.1949,2.71045,86.0967,25.651,-12.7683,0.104204,31.5642,7.12502,25.6902,59.8506,-13.0003,7.52755,15.4586,35.0055,-17.7761,-6.34458,6.93171,-6.78374,-0.279387,-18.0296,34.6052,-24.5688,14.0534,0.0326852
9.55101,17.7421,-14.0856,3.05372,-37.1354,-4.94314,1.63085,-0.696387,-2.10093,-1.31162,-0.923676,4.0234,-2.1672,-0.405067,5.37726,-9.74225,-8.78956,-19.0589,24.2261,-12.1297,12.2783,11.4391,-6.14734,6.01467,-7.47058e-14,-2.74323e-14,-36.7043,-18.9721,-67.4837,27.7379,-10.8545,-10.7762,17.2262,7.12502,15.2361,-12.1927,-7.47058e-14,-2.74323e-14,-31.1901,2.49527,86.1229,25.6134,-12.6704,1.17402,32.0388,7.12502,26.7144,60.1731,-13.0244,7.54773,15.5444,35.0069,-17.815,-6.44435,7.81021,-6.86299,-0.411621,-17.9506,34.6115,-24.5969,13.9721,0.656638
9.55267,17.7435,-14.0918,3.08595,-36.9628,-4.88797,1.62873,-0.714065,-2.16019,-1.34864,-0.948293,3.99525,-2.20111,-0.415187,5.38288,-9.78454,-8.84874,-19.064,24.2264,-12.2213,12.3313,11.4693,-6.18224,6.01896,-6.3872e-14,6.75868e-15,-36.7228,-18.7524,-67.6634,27.86,-11.0016,-10.7627,17.2612,7.12502,15.2491,-12.1568,-6.3872e-14,6.75868e-15,-31.1762,2.40657,86.1563,25.4878,-12.8849,2.72194,32.3874,7.12502,28.1948,60.2867,-13.0726,7.53422,15.5122,35.0219,-17.8452,-6.50158,8.55075,-6.99313,-0.279051,-17.9147,34.5965,-24.5876,13.6379,1.02016
9.55336,17.7431,-14.0894,2.97379,-36.8778,-4.73464,1.63401,-0.745216,-2.3461,-1.33744,-0.994664,4.01659,-2.1844,-0.435828,5.51307,-9.78916,-8.8972,-19.1414,24.103,-12.2523,12.3083,11.4341,-6.20181,6.01302,9.32424e-14,3.85642e-14,-36.6424,-18.3679,-67.8036,27.9329,-11.0931,-10.6491,17.3202,7.12502,15.3585,-12.0894,9.32424e-14,3.85642e-14,-31.2346,2.74112,86.1615,25.4211,-13.3404,3.43959,32.4106,7.12502,28.8805,60.1949,-13.0312,7.4347,15.364,35.0423,-17.9168,-6.36363,9.21452,-6.96389,-0.259043,-18.0333,34.5715,-24.6166,13.5225,0.827275
9.55327,17.7415,-14.0821,2.89908,-36.9417,-4.71726,1.61197,-0.728326,-2.37413,-1.27474,-0.973747,4.02484,-2.10906,-0.427632,5.53568,-9.82869,-8.95132,-19.1039,24.0043,-12.2876,12.2026,11.4012,-6.22007,5.95477,7.14258e-14,-9.14409e-15,-36.5353,-18.1098,-67.9892,28.0215,-11.1945,-10.7559,17.0989,7.12502,15.2557,-12.3186,7.14258e-14,-9.14409e-15,-31.208,2.95306,86.1255,25.3474,-13.5836,3.06459,32.0924,7.12502,28.5223,59.9374,-12.9662,7.51566,15.3326,35.0584,-17.9195,-6.38598,8.81125,-6.84038,-0.398589,-18.1091,34.546,-24.7199,13.6365,1.25327
9.55405,17.7409,-14.0801,2.89367,-36.9253,-4.75734,1.57047,-0.721469,-2.32693,-1.23698,-0.963962,4.02343,-2.04851,-0.425475,5.50544,-9.78168,-8.97401,-19.1159,23.9452,-12.3153,12.1856,11.3745,-6.23573,5.94506,-5.26158e-14,1.11319e-14,-36.4758,-17.8587,-68.2131,28.1589,-11.443,-10.9881,16.7611,7.12502,15.0319,-12.6732,-5.26158e-14,1.11319e-14,-31.1892,3.17016,86.058,25.2659,-13.8079,2.49984,31.6821,7.12502,27.9825,59.6163,-12.9287,7.62655,15.3772,35.0501,-17.9228,-6.59513,8.48139,-6.81711,-0.399764,-18.0777,34.5446,-24.7155,13.627,1.35066
9.55589,17.7423,-14.0804,2.92511,-36.7678,-4.7767,1.51607,-0.763999,-2.27598,-1.23556,-1.01961,4.00896,-2.01114,-0.455068,5.46155,-9.61588,-8.95889,-19.1151,23.8118,-12.3222,12.225,11.2949,-6.23935,5.96105,3.23025e-14,-2.34566e-14,-36.4319,-17.6358,-68.4449,28.2741,-11.8151,-10.9232,16.702,7.12502,15.0945,-12.7276,3.23025e-14,-2.34566e-14,-31.2001,3.47275,85.9368,25.1984,-14.1381,2.27448,31.4657,7.12502,27.7671,59.4348,-12.9182,7.58328,15.4068,35.0291,-17.9609,-6.73787,8.63097,-6.88574,-0.469159,-18.0444,34.5782,-24.661,13.5972,0.784132
9.55769,17.743,-14.0831,3.02614,-36.6022,-4.87274,1.5288,-0.806517,-2.19526,-1.29882,-1.07328,4.0255,-2.07867,-0.480648,5.43563,-9.45338,-8.93386,-19.1369,23.7443,-12.3235,12.2827,11.2429,-6.2423,5.99067,8.68813e-14,9.14409e-15,-36.4863,-17.381,-68.6217,28.383,-12.1987,-10.8598,16.5884,7.12502,15.1555,-12.8367,8.68813e-14,9.14409e-15,-31.2269,3.56862,85.9035,25.1255,-14.2113,2.15709,31.5106,7.12502,27.6548,59.4978,-12.928,7.52553,15.5063,35.0036,-17.9329,-6.82082,8.72498,-6.99035,-0.550606,-17.9342,34.6375,-24.6422,13.5455,0.441382
9.55899,17.7413,-14.0891,2.97075,-36.4609,-4.8035,1.59678,-0.825225,-2.30069,-1.3101,-1.10077,4.02767,-2.12377,-0.491538,5.50071,-9.52298,-8.96937,-19.2589,23.787,-12.3884,12.4495,11.3065,-6.26464,6.06334,2.08848e-14,-3.22031e-14,-36.4559,-17.4381,-68.658,28.341,-12.1126,-11.0374,16.4431,7.12502,14.9844,-12.9948,2.08848e-14,-3.22031e-14,-31.1954,3.56264,85.978,25.1139,-13.9585,1.47492,31.553,7.12502,27.0023,59.6431,-12.8908,7.46166,15.4675,34.9829,-17.8932,-6.87892,8.93158,-7.05225,-0.347291,-17.9092,34.6898,-24.6606,13.1979,0.883001
9.56047,17.7406,-14.0921,2.90741,-36.374,-4.77225,1.63271,-0.781871,-2.35437,-1.22951,-1.0457,4.01714,-2.06628,-0.465719,5.51809,-9.80923,-9.07456,-19.3313,23.8809,-12.5251,12.6175,11.4435,-6.30595,6.11008,-1.66818e-13,5.1684e-15,-36.3036,-17.8937,-68.5732,28.1339,-11.5538,-11.1164,16.6596,7.12502,14.9084,-12.7839,-1.66818e-13,5.1684e-15,-31.0002,3.37323,86.108,25.0528,-13.6082,0.460664,31.4015,7.12502,26.0315,59.6381,-12.838,7.42276,15.4568,34.9786,-17.8997,-6.95302,8.91801,-7.0475,-0.25782,-17.8948,34.7153,-24.6807,12.9754,1.47231
9.5615,17.7407,-14.09,2.95154,-36.3242,-4.87856,1.58141,-0.710398,-2.23986,-1.15861,-0.948366,4.01689,-1.97683,-0.421774,5.44725,-9.94745,-9.17948,-19.356,23.9106,-12.6513,12.6354,11.5107,-6.3571,6.09477,8.25329e-14,-2.46493e-14,-36.2395,-17.8112,-68.7067,28.1338,-11.499,-11.2247,16.8106,7.12502,14.8041,-12.6407,8.25329e-14,-2.46493e-14,-30.7361,3.00946,86.2439,24.8424,-13.4277,-0.0308389,31.1726,7.12502,25.5608,59.4775,-12.816,7.39558,15.5585,34.9932,-17.8889,-7.01566,8.40627,-7.0209,-0.367864,-17.8154,34.704,-24.6701,13.0081,1.6197
9.56164,17.7404,-14.0882,2.87589,-36.2504,-4.74863,1.4346,-0.620386,-2.26466,-1.05189,-0.830859,3.88303,-1.7985,-0.368413,5.31324,-9.93665,-9.34558,-19.2086,23.7586,-12.8877,12.5741,11.4801,-6.45312,6.00005,8.30547e-14,1.03368e-14,-36.1927,-17.6424,-69.0707,28.3335,-12.0628,-11.407,16.6934,7.12502,14.6284,-12.7706,8.30547e-14,1.03368e-14,-30.4299,2.69164,86.2309,24.6574,-13.5183,-0.218126,30.9255,7.12502,25.3814,59.2561,-12.8079,7.43399,15.4456,35.0136,-17.9091,-7.06596,8.37553,-7.01259,-0.442525,-17.9351,34.6681,-24.6855,12.9431,2.09973
9.56276,17.7401,-14.0863,2.70717,-36.1571,-4.49418,1.26234,-0.529161,-2.33065,-0.904557,-0.713078,3.66381,-1.56419,-0.316318,5.11346,-9.90504,-9.52274,-18.9724,23.5296,-13.1736,12.5865,11.4229,-6.55696,5.90994,4.91619e-14,8.34896e-15,-36.1268,-18.026,-69.3173,28.4546,-12.4374,-11.3633,16.6419,7.12502,14.6705,-12.8191,4.91619e-14,8.34896e-15,-30.1255,2.43309,86.1387,24.5395,-13.5293,-0.84889,30.6976,7.12502,24.777,59.1127,-12.7542,7.41825,15.2042,35.0191,-18.0108,-7.08157,8.57273,-6.98166,-0.558829,-18.1855,34.6375,-24.6852,12.9378,2.3583
9.56432,17.74,-14.0842,2.64002,-36.0535,-4.41545,1.17468,-0.515442,-2.27878,-0.852234,-0.694601,3.56509,-1.46455,-0.310705,4.97824,-9.91319,-9.58921,-18.9446,23.5024,-13.2797,12.6191,11.4347,-6.59839,5.89796,-6.28657e-15,-4.8901e-14,-36.0868,-18.4515,-69.3676,28.3743,-12.3587,-10.9548,16.7441,7.12502,15.064,-12.6878,-6.28657e-15,-4.8901e-14,-30.0041,2.26073,86.121,24.3934,-13.3756,-1.51547,30.4989,7.12502,24.138,59.0003,-12.6962,7.26228,15.1166,35.0121,-18.0801,-7.0532,8.50146,-6.96783,-0.601928,-18.2603,34.6293,-24.654,12.9317,1.9092
9.56505,17.7398,-14.085,2.73517,-35.9995,-4.61755,1.22088,-0.489277,-2.06254,-0.889189,-0.655324,3.57725,-1.53462,-0.291434,4.8678,-9.951,-9.61091,-19.0384,23.6222,-13.3173,12.6794,11.5077,-6.61834,5.93171,3.19795e-14,4.77083e-15,-36.1168,-18.8205,-69.3097,28.21,-12.0135,-10.4773,16.91,7.12502,15.5239,-12.4869,3.19795e-14,4.77083e-15,-30.1031,2.37639,86.0648,24.316,-13.6363,-1.80613,30.1002,7.12502,23.8593,58.6383,-12.6569,7.20043,15.3041,34.9856,-18.0359,-7.03832,8.53724,-6.9814,-0.585903,-18.0566,34.6538,-24.6657,12.8232,1.94161
9.56622,17.7389,-14.0865,2.7834,-35.8967,-4.81526,1.28057,-0.456074,-1.85206,-0.86398,-0.607683,3.56762,-1.54895,-0.270074,4.7372,-9.86809,-9.64999,-19.0806,23.4704,-13.4076,12.8401,11.467,-6.64872,5.98392,-6.55989e-14,-4.77083e-15,-36.1066,-19.236,-69.3041,28.108,-11.5756,-10.3489,17.0232,7.12502,15.6476,-12.364,-6.55989e-14,-4.77083e-15,-30.2152,2.83347,85.875,24.4235,-14.3507,-1.89451,29.6085,7.12502,23.7746,58.1577,-12.5457,7.23121,15.5121,34.9375,-17.9665,-7.12988,8.41191,-6.95417,-0.607987,-17.8626,34.6999,-24.6205,12.7975,1.87033
9.56764,17.7377,-14.086,2.70225,-35.7494,-4.80806,1.27271,-0.470039,-1.78712,-0.786773,-0.626864,3.51164,-1.46437,-0.283133,4.64131,-9.86573,-9.68611,-19.0876,23.3552,-13.4824,12.9781,11.4487,-6.66831,6.02227,4.641e-14,6.04305e-14,-36.0261,-19.3097,-69.5146,28.1172,-11.4372,-10.4357,17.0704,7.12502,15.564,-12.3233,4.641e-14,6.04305e-14,-30.2383,3.1849,85.6988,24.547,-14.8192,-1.5275,29.6425,7.12502,24.1265,58.1454,-12.405,7.18733,15.5266,34.8907,-18.0127,-7.20623,8.70345,-6.90784,-0.558776,-17.8461,34.7359,-24.5258,12.7811,1.28568
9.56723,17.7367,-14.0801,2.6466,-35.6996,-4.84537,1.23161,-0.45636,-1.69221,-0.748175,-0.60768,3.49956,-1.40436,-0.27612,4.57335,-9.81337,-9.70406,-19.1024,23.3565,-13.5104,12.958,11.4439,-6.68635,6.0137,1.3977e-14,-2.34566e-14,-36.0332,-18.9958,-69.7953,28.2387,-11.5959,-10.5005,17.0615,7.12502,15.5016,-12.3371,1.3977e-14,-2.34566e-14,-30.2521,3.00969,85.7468,24.4671,-14.6613,-0.790402,30.2371,7.12502,24.8331,58.6445,-12.2683,7.09733,15.5526,34.8548,-18.1125,-7.15844,9.35244,-6.81147,-0.54817,-17.8183,34.7504,-24.5776,12.7533,1.31902
9.56602,17.7369,-14.0758,2.60672,-35.6842,-4.84339,1.21487,-0.45234,-1.74527,-0.764194,-0.602664,3.55416,-1.41091,-0.272639,4.66038,-9.54877,-9.65561,-19.2193,23.1513,-13.4485,12.9816,11.3136,-6.67472,6.05725,-8.50985e-14,-3.97569e-15,-36.0499,-18.5681,-70.001,28.3454,-11.778,-10.5429,17.1225,7.12502,15.4608,-12.2793,-8.50985e-14,-3.97569e-15,-30.362,2.77683,85.9402,24.3708,-14.2759,-0.482615,30.5303,7.12502,25.128,58.8967,-12.1925,7.07172,15.5463,34.8331,-18.1237,-7.1531,9.48059,-6.74427,-0.634908,-17.8444,34.7463,-24.6633,12.8202,1.24588
9.56583,17.7379,-14.0789,2.63602,-35.6698,-4.83987,1.19317,-0.423867,-1.82704,-0.773576,-0.565611,3.58998,-1.41086,-0.253006,4.74337,-9.46733,-9.63849,-19.4062,23.037,-13.4462,13.1931,11.2864,-6.67178,6.1703,-1.32565e-14,2.3059e-14,-36.0107,-18.4102,-70.1431,28.3691,-11.9557,-10.6585,17.1199,7.12502,15.3494,-12.2904,-1.32565e-14,2.3059e-14,-30.4173,2.70662,86.07,24.3852,-14.1644,-0.398782,30.6603,7.12502,25.2084,59.0154,-12.2342,7.1039,15.5584,34.8172,-18.1156,-7.25186,9.2688,-6.78659,-0.738332,-17.8523,34.7345,-24.6716,12.8758,1.21282
9.56619,17.738,-14.0828,2.68212,-35.6176,-4.89148,1.21643,-0.382163,-1.82681,-0.767708,-0.509809,3.61348,-1.42308,-0.224833,4.76676,-9.71186,-9.73169,-19.4661,23.2461,-13.5482,13.1971,11.4399,-6.71441,6.15973,5.71506e-16,3.37934e-14,-35.962,-18.3586,-70.2784,28.3889,-12.0555,-10.7993,16.9534,7.12502,15.2138,-12.4672,5.71506e-16,3.37934e-14,-30.4465,2.89815,86.0715,24.452,-14.6062,-0.111833,30.994,7.12502,25.4833,59.3101,-12.2572,7.09245,15.6278,34.8032,-18.0894,-7.38393,8.65616,-6.8157,-0.81287,-17.8002,34.7267,-24.6565,12.8429,1.63225
9.56612,17.7358,-14.0778,2.60257,-35.5889,-4.84514,1.24005,-0.371632,-1.88556,-0.748433,-0.497022,3.63092,-1.41719,-0.218165,4.81826,-9.81901,-9.8061,-19.4843,23.3526,-13.6174,13.0995,11.5095,-6.75265,6.11045,2.20092e-14,-9.54166e-15,-35.9287,-18.1807,-70.4137,28.4158,-12.0834,-10.7756,16.8145,7.12502,15.2366,-12.6044,2.20092e-14,-9.54166e-15,-30.6387,3.32456,86.0112,24.252,-16.2059,-0.75274,30.0621,7.12502,24.8692,58.4645,-12.1622,6.97383,15.5681,34.7897,-18.0157,-7.28313,8.31746,-6.72624,-0.792596,-17.8676,34.7241,-24.6256,12.8904,1.32008
9.56576,17.7336,-14.0695,2.54155,-35.6209,-4.84854,1.16245,-0.309672,-1.80968,-0.693249,-0.414037,3.5982,-1.32556,-0.179822,4.73773,-9.60431,-9.85241,-19.5796,23.1365,-13.6981,13.1628,11.4142,-6.79717,6.13768,-6.83819e-14,1.74931e-14,-35.9364,-18.3319,-70.4728,28.4119,-12.1138,-10.7743,16.6368,7.12502,15.2379,-12.782,-6.83819e-14,1.74931e-14,-30.8181,3.33174,86.0174,23.3531,-19.4222,-3.42885,26.9226,7.12502,22.3023,55.6556,-12.0484,6.88041,15.5357,34.7621,-17.9912,-7.06208,8.7744,-6.62337,-0.793653,-17.9065,34.7306,-24.6081,13.0332,0.861668
9.56523,17.734,-14.0684,2.5629,-35.5583,-4.93089,1.12309,-0.289766,-1.69903,-0.663692,-0.386293,3.58835,-1.27636,-0.168266,4.66325,-9.62328,-9.86677,-19.6179,23.076,-13.6865,13.1249,11.3932,-6.79611,6.12843,3.77318e-14,5.1684e-15,-35.8563,-18.5636,-70.5666,28.3012,-12.0219,-10.9665,16.5807,7.12502,15.0528,-12.852,3.77318e-14,5.1684e-15,-30.7055,3.22749,86.1069,24.2663,-16.2366,-1.17347,29.8059,7.12502,24.4659,58.2634,-11.9877,6.83584,15.6169,34.7267,-18.0331,-7.0607,9.12362,-6.61783,-0.830708,-17.8161,34.7459,-24.6013,12.9992,1.0627
9.56463,17.7349,-14.0709,2.65113,-35.4871,-5.12238,1.1583,-0.290865,-1.57014,-0.651438,-0.385801,3.6341,-1.28407,-0.169244,4.63785,-9.84629,-9.86641,-19.6198,23.1601,-13.6519,13.1352,11.4637,-6.77053,6.1329,-5.21437e-14,2.66371e-14,-35.7009,-18.7793,-70.6618,28.1086,-11.7435,-10.9259,16.7842,7.12502,15.0919,-12.6456,-5.21437e-14,2.66371e-14,-30.7021,3.2733,86.1277,24.6039,-15.2407,-0.199274,31.2118,7.12502,25.3995,59.5399,-11.9377,6.88146,15.8215,34.686,-18.0827,-7.15214,9.41732,-6.64199,-0.911842,-17.6181,34.7801,-24.6308,12.9292,1.23594
9.56515,17.7356,-14.0739,2.72531,-35.4769,-5.25607,1.24975,-0.251706,-1.52551,-0.689799,-0.331344,3.69439,-1.37987,-0.14016,4.67528,-9.88494,-9.8958,-19.7414,23.172,-13.6963,13.2519,11.5049,-6.78848,6.18891,6.90715e-14,-2.14687e-14,-35.7141,-18.9856,-70.605,28.0318,-11.3996,-10.5397,17.069,7.12502,15.4639,-12.3324,6.90715e-14,-2.14687e-14,-30.9074,3.39638,86.1804,24.8079,-15.306,0.0385029,31.5857,7.12502,25.6273,59.8811,-11.9256,6.93909,15.9565,34.6472,-18.036,-7.14186,9.34293,-6.6903,-0.968684,-17.4914,34.83,-24.6614,12.9257,1.118
9.56519,17.7366,-14.0753,2.77057,-35.4325,-5.28276,1.34107,-0.260906,-1.62348,-0.780505,-0.342638,3.78658,-1.52261,-0.14092,4.82925,-9.93753,-9.92141,-19.8148,23.2594,-13.6878,13.1403,11.5446,-6.79995,6.15869,2.81156e-14,1.98785e-15,-35.8182,-18.7923,-70.5874,28.1051,-11.2685,-10.3951,17.1954,7.12502,15.6032,-12.1953,2.81156e-14,1.98785e-15,-31.2148,3.69339,86.2577,24.6696,-16.0957,-0.791772,30.7128,7.12502,24.8318,59.1204,-11.938,6.82819,15.9713,34.6088,-17.9445,-7.0658,8.83814,-6.76787,-0.773213,-17.4201,34.885,-24.6319,12.7386,0.87958
9.56272,17.7366,-14.0741,2.82901,-35.4342,-5.34176,1.3076,-0.271321,-1.63463,-0.804535,-0.356191,3.82008,-1.52703,-0.147118,4.8709,-10.0432,-9.92976,-19.6715,23.3428,-13.6587,12.9303,11.5622,-6.79053,6.05669,-7.442e-14,1.98785e-15,-35.8276,-18.4033,-70.8564,28.2634,-11.6739,-10.3793,17.1249,7.12502,15.6184,-12.2646,-7.442e-14,1.98785e-15,-31.2359,3.4507,86.3829,23.9199,-17.0658,-2.54736,29.0001,7.12502,23.1483,57.6293,-11.9469,6.78565,16.0254,34.5818,-17.9204,-7.09407,8.57821,-6.80142,-0.565897,-17.3306,34.9219,-24.6554,12.551,1.13391
9.56113,17.7357,-14.0719,2.84309,-35.4189,-5.41334,1.26233,-0.252452,-1.51935,-0.780288,-0.329814,3.77245,-1.47989,-0.1364,4.75412,-9.96692,-9.93859,-19.5478,23.2726,-13.6838,12.8604,11.5087,-6.80007,6.00579,-9.51185e-14,8.74653e-15,-35.8422,-18.2401,-71.1657,28.3903,-12.025,-10.1071,17.1711,7.12502,15.8805,-12.1978,-9.51185e-14,8.74653e-15,-31.2365,3.15753,86.3864,23.6649,-17.3911,-3.11569,28.4272,7.12502,22.6029,57.1239,-11.8978,6.83016,16.1071,34.5651,-17.9228,-7.20141,8.45041,-6.75725,-0.660508,-17.2877,34.9381,-24.7062,12.614,1.34549
9.56081,17.7348,-14.0707,2.75442,-35.3421,-5.34049,1.28215,-0.239699,-1.56406,-0.77215,-0.313754,3.73877,-1.48409,-0.127925,4.74409,-9.73203,-9.9315,-19.7022,23.132,-13.7141,13.0092,11.44,-6.82147,6.08851,-3.07371e-14,-1.98785e-15,-35.879,-18.5697,-71.0964,28.2367,-11.184,-9.63991,17.6393,7.12502,16.3304,-11.6931,-3.07371e-14,-1.98785e-15,-31.3513,3.30912,86.3089,23.934,-17.4796,-2.3207,28.8376,7.12502,23.3658,57.4393,-11.8146,6.76884,16.0427,34.5439,-17.9481,-7.16861,8.84106,-6.70629,-0.901185,-17.3968,34.9577,-24.7427,12.7701,1.27021
9.56004,17.7341,-14.0703,2.69972,-35.3247,-5.29539,1.31442,-0.195041,-1.62836,-0.829834,-0.253652,3.76079,-1.56701,-0.0947373,4.80297,-9.26306,-9.88944,-20.0451,22.8967,-13.7208,13.253,11.3089,-6.84879,6.24949,8.54153e-14,2.98177e-14,-36.0682,-18.876,-70.8055,28.0602,-9.99055,-9.08822,18.2781,7.12502,16.8615,-11.0099,8.54153e-14,2.98177e-14,-31.3919,3.25459,86.3677,24.0207,-17.324,-1.50428,29.1491,7.12502,24.1488,57.6491,-11.7699,6.75991,16.0007,34.5298,-17.9841,-7.14684,9.29317,-6.68433,-0.97907,-17.4569,34.9709,-24.762,12.8293,1.4022
9.55863,17.7354,-14.0732,2.87799,-35.2849,-5.54285,1.3678,-0.116333,-1.44907,-1.01095,-0.139791,3.87704,-1.79457,-0.0331138,4.82107,-8.70674,-9.8549,-20.2719,22.6965,-13.7031,13.1923,11.1355,-6.887,6.28143,2.74571e-14,-2.38542e-15,-36.4734,-18.7124,-70.5975,28.1606,-9.63673,-8.90674,18.5311,7.12502,17.0362,-10.7419,2.74571e-14,-2.38542e-15,-31.4652,3.02147,86.5453,23.959,-16.7777,-1.15617,29.3193,7.12502,24.4825,57.7745,-11.8043,6.81449,16.2443,34.5246,-17.9697,-7.25482,9.2488,-6.75442,-0.826159,-17.1799,34.9761,-24.6903,12.6721,1.37534
9.55599,17.7367,-14.0774,2.91288,-35.1872,-5.56525,1.40277,-0.0737306,-1.44,-1.10879,-0.0798749,3.89582,-1.92074,0.000380964,4.83477,-8.33077,-9.85036,-20.3729,22.4736,-13.7247,13.1743,10.9902,-6.91954,6.29555,3.44643e-14,-9.54166e-15,-36.6418,-18.9115,-70.4737,28.1224,-9.24287,-9.06364,18.6316,7.12502,16.8852,-10.6544,3.44643e-14,-9.54166e-15,-31.5193,2.97928,86.6172,23.9493,-16.1818,-1.20619,29.6151,7.12502,24.4346,58.0769,-11.8188,6.7484,16.2817,34.5212,-17.9471,-7.29267,9.11806,-6.79997,-0.857537,-17.1344,34.9867,-24.6682,12.6106,1.32177
9.55439,17.7363,-14.0773,2.73764,-35.1166,-5.37269,1.39695,-0.118424,-1.58212,-1.00355,-0.145792,3.79662,-1.80265,-0.0344904,4.81306,-8.40804,-9.85282,-20.4022,22.3146,-13.7703,13.488,10.9824,-6.90897,6.40667,-3.04141e-14,-4.17448e-14,-36.3745,-19.3226,-70.6384,27.9216,-8.75081,-9.22329,18.6922,7.12502,16.7315,-10.6068,-3.04141e-14,-4.17448e-14,-31.5767,3.40993,86.4137,24.098,-16.066,-1.24792,29.8889,7.12502,24.3946,58.356,-11.731,6.64707,16.1138,34.5199,-17.9595,-7.28222,8.93844,-6.72483,-1.01565,-17.3309,35.0009,-24.7204,12.7029,1.20411
9.55416,17.7356,-14.0792,2.69469,-35.0661,-5.39923,1.38824,-0.208279,-1.60224,-0.831595,-0.270483,3.76404,-1.60878,-0.102687,4.79251,-9.00481,-9.86227,-20.1206,22.4542,-13.7374,13.5282,11.1236,-6.84196,6.36358,1.20265e-14,3.18055e-15,-35.9171,-19.3306,-71.0891,27.8282,-8.59198,-9.33943,18.5872,7.12502,16.6197,-10.7212,1.20265e-14,3.18055e-15,-31.6967,4.09153,86.132,24.3979,-16.2888,-1.09619,30.0966,7.12502,24.54,58.544,-11.6607,6.6552,16.1597,34.5296,-17.9606,-7.32125,8.86396,-6.69261,-0.917688,-17.2556,35.0057,-24.7125,12.5546,1.12733
9.55321,17.7346,-14.083,2.7092,-35.0523,-5.46475,1.42459,-0.229768,-1.60684,-0.756108,-0.300846,3.77214,-1.54857,-0.11999,4.80411,-9.26857,-9.89636,-19.8471,22.4751,-13.7212,13.2951,11.1379,-6.82027,6.22184,-4.70623e-14,4.49253e-14,-35.6912,-19.2793,-71.3417,27.8171,-8.48778,-9.04964,18.7301,7.12502,16.8987,-10.5547,-4.70623e-14,4.49253e-14,-31.806,4.50099,85.9978,24.656,-16.3562,-0.836666,30.5857,7.12502,24.7888,58.9991,-11.6562,6.71828,16.2426,34.5536,-17.926,-7.4073,8.58468,-6.69398,-0.785067,-17.1431,34.9923,-24.6889,12.3702,1.38544
9.55142,17.7353,-14.0843,2.77381,-35.0028,-5.47688,1.41836,-0.201666,-1.62071,-0.798999,-0.262559,3.76976,-1.59283,-0.09922,4.80879,-9.12862,-9.96563,-19.8267,22.3566,-13.8078,13.1806,11.0726,-6.87211,6.16055,-4.33102e-14,3.02153e-14,-35.7092,-19.1996,-71.5003,27.9419,-8.68716,-8.86307,18.682,7.12502,17.0782,-10.5873,-4.33102e-14,3.02153e-14,-31.9574,4.68666,85.9604,24.785,-16.4869,-0.750814,31.0044,7.12502,24.871,59.4065,-11.7396,6.69107,16.2573,34.5933,-17.9327,-7.51509,8.18412,-6.75179,-0.817421,-17.1265,34.9668,-24.6288,12.4037,1.10731
9.5494,17.7356,-14.0819,2.68283,-34.9428,-5.25903,1.30119,-0.192652,-1.77507,-0.771805,-0.254598,3.68718,-1.49948,-0.0956545,4.80909,-9.13415,-10.033,-19.7607,22.2727,-13.8877,13.1159,11.0474,-6.9067,6.1079,-5.92254e-14,-2.74323e-14,-35.6365,-18.828,-71.9024,28.1819,-9.26919,-9.3296,18.0408,7.12502,16.6291,-11.2669,-5.92254e-14,-2.74323e-14,-31.9909,4.645,85.9689,24.8359,-16.3652,-0.998883,31.1635,7.12502,24.6333,59.5983,-11.773,6.54453,16.0386,34.6422,-18.0747,-7.40429,8.73516,-6.7539,-0.889259,-17.3437,34.9356,-24.5629,12.5129,0.653665
9.54772,17.7355,-14.0795,2.45083,-34.9147,-4.84924,1.18715,-0.200602,-2.09717,-0.725355,-0.271979,3.58471,-1.38512,-0.103935,4.8848,-9.38388,-10.0728,-19.7732,22.3411,-13.9093,13.1538,11.1304,-6.90336,6.11213,-9.13167e-16,-5.1684e-15,-35.4644,-18.5341,-72.2673,28.3006,-9.95714,-9.79589,17.4493,7.12502,16.1802,-11.8954,-9.13167e-16,-5.1684e-15,-31.9978,4.75381,85.9406,24.9112,-16.1053,-0.770019,31.5287,7.12502,24.8526,59.9333,-11.7772,6.38057,15.6387,34.6864,-18.2075,-7.17926,9.57274,-6.71764,-0.881912,-17.725,34.8976,-24.5752,12.4326,1.28749
9.54745,17.7371,-14.0832,2.55809,-34.8645,-4.89125,1.16338,-0.195402,-2.10439,-0.786069,-0.2638,3.61617,-1.43497,-0.0977667,4.92189,-9.70019,-10.1367,-19.8639,22.5516,-13.9632,13.2158,11.2954,-6.91823,6.13344,1.08772e-13,-2.78299e-14,-35.3347,-18.2327,-72.6352,28.4491,-11.2783,-8.4252,18.121,7.12502,17.4997,-11.1114,1.08772e-13,-2.78299e-14,-32.1735,5.05446,85.8909,25.0748,-16.059,-0.263583,32.0346,7.12502,25.3379,60.3714,-11.8968,6.39622,15.6913,34.7145,-18.1686,-7.27218,9.3852,-6.83282,-0.820901,-17.6437,34.8779,-24.5536,12.2635,1.57294
9.54731,17.7372,-14.0857,2.67171,-34.833,-5.08514,1.23733,-0.177146,-1.96778,-0.831867,-0.236138,3.66175,-1.52674,-0.0828371,4.89187,-9.84898,-10.2157,-19.7941,22.6297,-14.0307,13.0699,11.3495,-6.95024,6.04875,7.45443e-17,-3.57812e-15,-35.3358,-18.4136,-72.5829,28.3281,-10.859,-7.65794,18.6033,7.12502,18.2379,-10.5617,7.45443e-17,-3.57812e-15,-32.2747,5.05795,85.919,25.121,-15.6553,-0.00917616,32.4637,7.12502,25.5816,60.7657,-11.9111,6.47308,15.8986,34.7266,-18.1313,-7.44115,8.92267,-6.85853,-0.933938,-17.4651,34.885,-24.5712,12.3138,1.33236
9.54587,17.7366,-14.0864,2.60208,-34.7309,-5.04532,1.27143,-0.181588,-1.9799,-0.79738,-0.243253,3.61091,-1.50977,-0.0872091,4.84577,-9.84983,-10.2702,-19.7086,22.5199,-14.1023,13.0353,11.312,-6.9766,6.00534,-1.45486e-14,7.15625e-15,-35.2504,-18.5847,-72.6701,28.2518,-10.6402,-7.77711,18.5009,7.12502,18.1233,-10.6748,-1.45486e-14,7.15625e-15,-32.1531,4.84932,85.9541,24.9711,-15.0026,0.228177,32.6677,7.12502,25.8089,60.9369,-11.8406,6.40765,15.8813,34.7307,-18.1476,-7.47414,8.74684,-6.82359,-0.973763,-17.4802,34.8935,-24.5509,12.252,1.15389
9.54481,17.7375,-14.0886,2.6069,-34.564,-5.01827,1.27218,-0.209259,-1.99853,-0.811917,-0.28042,3.58724,-1.52149,-0.105228,4.83266,-9.74135,-10.2567,-19.8182,22.4206,-14.1169,13.2046,11.2799,-6.98042,6.08777,2.1183e-14,2.3059e-14,-35.2748,-18.4639,-72.7619,28.279,-10.5043,-8.02569,18.4589,7.12502,17.8841,-10.7388,2.1183e-14,2.3059e-14,-32.093,4.6415,86.039,24.7896,-14.586,0.333798,32.7091,7.12502,25.9101,60.9635,-11.8498,6.32858,15.8725,34.7482,-18.1622,-7.465,9.23421,-6.87816,-0.830513,-17.4267,34.8799,-24.4233,12.0083,0.87445
9.54391,17.7373,-14.0866,2.50225,-34.4534,-4.87343,1.34193,-0.241443,-2.15126,-0.886555,-0.325039,3.60822,-1.63244,-0.122455,4.944,-9.63525,-10.1848,-20.0206,22.45,-14.0206,13.2858,11.2757,-6.95175,6.17461,-6.24432e-14,7.95139e-16,-35.4238,-17.7876,-72.9083,28.4541,-10.6767,-8.14126,18.5492,7.12502,17.7729,-10.6586,-6.24432e-14,7.95139e-16,-32.2632,4.72913,86.1133,24.7363,-14.5442,0.623754,32.8828,7.12502,26.1877,61.0963,-11.814,6.21703,15.7422,34.7826,-18.1725,-7.39041,9.63874,-6.85251,-0.947874,-17.551,34.8477,-24.4367,11.9251,1.47529
9.54202,17.7359,-14.0854,2.38245,-34.4266,-4.71092,1.39868,-0.243107,-2.34816,-0.924171,-0.330723,3.61658,-1.7017,-0.120831,5.06611,-9.56966,-10.1578,-20.0731,22.4208,-13.9773,13.2727,11.2467,-6.94013,6.18773,1.80149e-15,-2.06736e-14,-35.4092,-17.3068,-73.1943,28.6503,-11.4683,-8.61465,18.1575,7.12502,17.3173,-11.0909,1.80149e-15,-2.06736e-14,-32.3912,4.97406,86.0875,24.7195,-14.7901,0.853331,32.8865,7.12502,26.4075,61.0673,-11.7809,6.2231,15.6027,34.8107,-18.1865,-7.48915,9.19207,-6.81581,-1.00755,-17.6927,34.8185,-24.4901,11.8543,1.90658
9.54044,17.7352,-14.0867,2.39606,-34.4533,-4.72037,1.39764,-0.201483,-2.35914,-0.917063,-0.275529,3.59327,-1.69964,-0.0932277,5.04638,-9.56743,-10.1988,-19.9616,22.3542,-14.0482,13.2635,11.2248,-6.9629,6.15159,5.96106e-14,-5.96354e-15,-35.359,-18.1003,-72.9216,28.3527,-10.3163,-8.47775,18.4041,7.12502,17.4491,-10.8328,5.96106e-14,-5.96354e-15,-32.399,5.32879,85.9242,24.6678,-15.2627,0.961896,32.7479,7.12502,26.5114,60.913,-11.7944,6.35032,15.6257,34.8219,-18.2434,-7.6203,9.30023,-6.80954,-0.955791,-17.6744,34.7882,-24.4548,11.9212,1.13634
9.53952,17.7347,-14.0851,2.37705,-34.3716,-4.75184,1.39193,-0.184526,-2.28187,-0.899776,-0.251767,3.5592,-1.6814,-0.0830127,4.96578,-9.59933,-10.2433,-19.8856,22.3617,-14.1183,13.249,11.2398,-6.98829,6.11977,3.93966e-14,2.98177e-14,-35.2939,-18.1218,-73.1294,28.4336,-10.9506,-8.83353,18.0339,7.12502,17.1067,-11.233,3.93966e-14,2.98177e-14,-32.4263,5.80816,85.7099,24.7027,-15.5087,1.22394,32.9357,7.12502,26.7622,61.0627,-11.7288,6.19041,15.6492,34.8143,-18.2327,-7.53195,9.25199,-6.75185,-0.979216,-17.6505,34.7673,-24.3882,12.0314,0.15692
9.53814,17.734,-14.0803,2.29238,-34.2394,-4.73093,1.43409,-0.204462,-2.27297,-0.909652,-0.278343,3.5541,-1.71258,-0.0956616,4.95649,-9.66564,-10.2747,-19.8883,22.4706,-14.1468,13.1858,11.2945,-7.00571,6.09039,2.97307e-14,4.96962e-14,-35.3694,-18.2535,-72.9847,28.358,-10.3583,-8.28444,18.2555,7.12502,17.6351,-10.9647,2.97307e-14,4.96962e-14,-32.5198,6.08303,85.6309,24.7421,-15.3704,1.52735,33.337,7.12502,27.0525,61.4193,-11.5984,5.9522,15.6207,34.795,-18.2266,-7.44198,8.82604,-6.6575,-0.926456,-17.6473,34.7557,-24.3909,11.8727,0.145705
9.53685,17.7322,-14.0753,2.21869,-34.2264,-4.70547,1.47718,-0.216249,-2.28869,-0.925473,-0.294468,3.55011,-1.7514,-0.102518,4.96223,-9.78626,-10.2773,-19.93,22.6062,-14.142,13.209,11.3741,-7.00169,6.10561,2.23633e-15,-1.11319e-14,-35.4098,-17.7131,-73.2596,28.5973,-11.0435,-8.25305,18.1061,7.12502,17.6653,-11.1114,2.23633e-15,-1.11319e-14,-32.6402,6.1669,85.6202,24.7224,-15.1506,1.85832,33.8288,7.12502,27.3691,61.8614,-11.5012,5.94326,15.595,34.7801,-18.277,-7.5015,8.69731,-6.55374,-0.987793,-17.6847,34.7349,-24.5059,11.7315,1.29965
9.53637,17.7324,-14.0765,2.21573,-34.1962,-4.68363,1.46756,-0.214331,-2.27895,-0.928948,-0.291943,3.50562,-1.75,-0.101483,4.90998,-9.75955,-10.2648,-19.9483,22.57,-14.1563,13.3345,11.37,-6.99923,6.15513,5.43428e-14,1.31198e-14,-35.4004,-17.303,-73.5775,28.8054,-11.509,-8.3476,17.993,7.12502,17.5744,-11.2327,5.43428e-14,1.31198e-14,-32.7253,6.16275,85.5895,24.7773,-14.8429,1.96044,34.3303,7.12502,27.4668,62.3475,-11.5053,5.95563,15.5865,34.7755,-18.2897,-7.61302,8.54394,-6.56609,-1.22217,-17.7263,34.7186,-24.5438,11.7581,1.87833
9.53625,17.7346,-14.0797,2.26329,-34.1251,-4.63043,1.40441,-0.19886,-2.30409,-0.925055,-0.271787,3.45751,-1.71259,-0.0920063,4.87286,-9.82376,-10.3143,-19.8774,22.5529,-14.2228,13.3226,11.3823,-7.02097,6.12355,4.01669e-14,-5.1684e-15,-35.319,-17.4418,-73.6363,28.7579,-11.3544,-8.43854,18.0907,7.12502,17.4868,-11.1428,4.01669e-14,-5.1684e-15,-32.7419,6.20307,85.5586,24.8754,-14.6351,1.91616,34.5446,7.12502,27.4244,62.5685,-11.5886,5.90088,15.5385,34.7673,-18.286,-7.57493,8.45437,-6.68447,-1.42538,-17.7792,34.7156,-24.5323,11.8103,1.58567
9.536,17.7346,-14.0789,2.30693,-34.1124,-4.65198,1.37501,-0.156716,-2.29142,-0.91222,-0.215137,3.45767,-1.68863,-0.0644301,4.86394,-9.86353,-10.3832,-19.7883,22.4703,-14.2977,13.2399,11.3589,-7.05121,6.05904,-9.54166e-15,3.33958e-14,-35.2435,-17.6175,-73.5921,28.6619,-11.233,-8.61509,18.1379,7.12502,17.3169,-11.1106,-9.54166e-15,3.33958e-14,-32.6866,6.10066,85.6179,24.9351,-14.3496,2.49522,35.0768,7.12502,27.9781,63.0117,-11.6112,5.90933,15.5507,34.7411,-18.2896,-7.55877,8.28933,-6.7201,-1.38507,-17.7521,34.7215,-24.5457,11.7865,1.43023
9.53485,17.7315,-14.073,2.31509,-34.0757,-4.78655,1.46196,-0.150647,-2.17009,-0.958113,-0.203967,3.49733,-1.7861,-0.0575929,4.83688,-9.56514,-10.348,-19.7463,22.2765,-14.2704,13.1636,11.2116,-7.05349,6.03536,-3.30976e-14,-1.03368e-14,-35.3867,-17.2669,-73.6421,28.7745,-11.5316,-8.75002,18.0158,7.12502,17.1871,-11.2441,-3.30976e-14,-1.03368e-14,-32.7974,6.16705,85.6102,25.18,-13.3453,3.46604,36.3243,7.12502,28.9058,64.1042,-11.4767,5.87419,15.6688,34.7009,-18.3548,-7.51536,8.80157,-6.61496,-1.22257,-17.6062,34.7336,-24.5312,11.7273,0.784542
9.53406,17.7286,-14.0636,2.31145,-33.9385,-4.90178,1.61248,-0.231789,-2.0598,-1.07376,-0.308033,3.56957,-1.97969,-0.105477,4.85493,-9.46801,-10.2666,-19.8281,22.3862,-14.1514,13.0881,11.2112,-7.0199,6.04803,-5.84675e-14,-3.97569e-16,-35.6147,-16.6844,-73.6907,28.923,-11.8733,-8.67223,17.9051,7.12502,17.2619,-11.3482,-5.84675e-14,-3.97569e-16,-32.8932,6.53731,85.4996,25.5787,-11.2566,4.04022,37.9952,7.12502,29.4541,65.68,-11.3073,5.63862,15.7499,34.6683,-18.4467,-7.31888,9.63344,-6.50892,-1.28355,-17.4972,34.7397,-24.5727,11.636,0.159553
9.5357,17.7293,-14.0638,2.34866,-33.732,-4.9028,1.82192,-0.176581,-1.98828,-1.48524,-0.224656,3.64278,-2.53066,-0.0475957,4.89376,-8.48561,-10.1835,-20.5151,22.3674,-14.1799,13.3363,11.0988,-7.11404,6.28868,-1.25731e-14,-1.78906e-14,-36.435,-16.4909,-73.1712,29.013,-11.9553,-8.63617,17.8635,7.12502,17.2966,-11.3868,-1.25731e-14,-1.78906e-14,-33.4279,5.86256,85.9596,24.292,-13.6859,1.02432,34.1668,7.12502,26.5711,62.3228,-11.3214,5.37643,15.7426,34.6627,-18.3944,-7.33041,9.28249,-6.58548,-1.4836,-17.483,34.733,-24.5671,11.5432,0.282126
9.53662,17.7314,-14.0734,2.36686,-33.6039,-4.75419,1.87874,-0.130981,-2.12818,-1.642,-0.165462,3.62198,-2.73062,-0.00901451,4.9515,-8.1069,-10.1662,-20.7176,22.2621,-14.2242,13.4717,11.0235,-7.15513,6.37859,-1.62034e-13,1.98785e-15,-36.6245,-16.8826,-72.7896,28.7895,-11.466,-8.36524,18.1226,7.12502,17.5574,-11.1046,-1.62034e-13,1.98785e-15,-33.4871,5.56518,86.0745,23.0498,-16.4514,-1.44678,30.6911,7.12502,24.2039,59.1838,-11.4741,5.32813,15.6244,34.6767,-18.2436,-7.51696,8.17989,-6.77395,-1.59183,-17.589,34.7348,-24.4852,11.4954,0.813074
9.53516,17.732,-14.08,2.38477,-33.6033,-4.65863,1.84726,-0.0916958,-2.24686,-1.67314,-0.116193,3.59727,-2.75017,0.0187977,4.99132,-8.05745,-10.131,-20.7815,22.2112,-14.196,13.5865,11.0041,-7.13902,6.43934,7.22085e-14,-2.78299e-15,-36.6207,-17.0235,-72.6772,28.6656,-11.2805,-8.10656,18.3786,7.12502,17.8063,-10.8261,7.22085e-14,-2.78299e-15,-33.4788,5.57101,86.0445,22.4997,-17.7716,-2.62486,29.168,7.12502,23.074,57.8065,-11.5744,5.5113,15.5547,34.6946,-18.2083,-7.6648,7.88863,-6.89804,-1.60764,-17.6559,34.7563,-24.4389,11.448,1.17709
9.5341,17.7328,-14.0851,2.53914,-33.5372,-4.92287,1.79854,-0.0880812,-2.01113,-1.63186,-0.104446,3.62607,-2.68103,0.0180848,4.88578,-8.08077,-10.1385,-20.7397,22.1745,-14.2036,13.5881,10.993,-7.13688,6.42996,4.41053e-14,3.97569e-15,-36.6085,-16.3766,-73.0751,28.9976,-12.1396,-8.33384,18.1066,7.12502,17.5876,-11.1179,4.41053e-14,3.97569e-15,-33.3963,5.63832,85.9639,22.384,-18.1125,-2.57949,28.9618,7.12502,23.1175,57.5949,-11.5755,5.71394,15.8469,34.7053,-18.3046,-7.87534,8.55007,-6.95153,-1.58611,-17.3634,34.7761,-24.4173,11.3316,1.00622
9.53341,17.7329,-14.0886,2.61396,-33.3035,-5.12174,1.68152,-0.130218,-1.77126,-1.44316,-0.157872,3.59326,-2.41481,-0.0211509,4.71408,-8.34727,-10.2445,-20.4881,22.1071,-14.3131,13.5135,11.0138,-7.15795,6.32786,5.602e-14,-1.15295e-14,-36.3827,-15.869,-73.5968,29.4087,-13.1493,-8.7552,17.5178,7.12502,17.1821,-11.7425,5.602e-14,-1.15295e-14,-33.019,5.69386,85.8272,22.2659,-18.5047,-2.35972,28.8679,7.12502,23.3283,57.4744,-11.4887,5.59827,16.0653,34.6992,-18.407,-7.91448,9.29643,-6.96675,-1.48679,-17.1011,34.7889,-24.379,11.0555,0.522674
9.53231,17.7312,-14.0831,2.44003,-33.0711,-4.9029,1.4167,-0.226474,-1.83752,-1.04934,-0.297229,3.40416,-1.84669,-0.106526,4.55315,-9.30754,-10.4018,-19.9787,22.1996,-14.4279,13.4655,11.21,-7.12745,6.1689,-6.48535e-15,7.15625e-15,-35.6562,-16.1007,-74.0496,29.3748,-13.0819,-8.86407,17.2863,7.12502,17.0773,-11.9831,-6.48535e-15,7.15625e-15,-32.2866,5.64039,85.6683,22.1152,-18.5948,-2.0631,29.0285,7.12502,23.6129,57.5986,-11.3448,5.2486,15.8315,34.6799,-18.4608,-7.69516,9.65597,-6.89706,-1.45039,-17.2796,34.7925,-24.3717,10.8238,0.157751
9.53066,17.7295,-14.0776,2.34733,-33.0002,-4.81357,1.31909,-0.106697,-1.75336,-1.07715,-0.135171,3.34796,-1.83555,-0.0264445,4.44152,-8.80184,-10.4587,-20.4605,22.0051,-14.5901,13.795,11.143,-7.23202,6.35922,-1.18389e-13,-2.8625e-14,-35.8238,-17.202,-73.3062,28.9102,-11.3538,-8.17393,17.8195,7.12502,17.7415,-11.3911,-1.18389e-13,-2.8625e-14,-32.3469,5.231,85.9477,22.2617,-17.7235,-1.33286,29.7784,7.12502,24.3131,58.2565,-11.2747,5.16049,15.7457,34.6747,-18.4319,-7.70114,9.30971,-6.82439,-1.39623,-17.3387,34.7677,-24.3714,10.6502,0.220445
9.52956,17.729,-14.079,2.36312,-33.0217,-4.87083,1.36302,-0.0866996,-1.76501,-1.05377,-0.108699,3.39042,-1.83858,-0.0131156,4.49178,-8.85772,-10.5068,-20.4342,21.9707,-14.6173,13.686,11.135,-7.2478,6.30395,-1.13618e-13,0,-35.5871,-18.4668,-72.6626,28.1238,-9.52585,-7.70191,18.5539,7.12502,18.1956,-10.6151,-1.13618e-13,0,-32.2422,5.64057,85.822,22.7167,-16.5557,0.12186,31.1164,7.12502,25.7071,59.4003,-11.2931,5.24823,15.8209,34.695,-18.3505,-7.90555,8.27438,-6.80446,-1.31111,-17.2563,34.7172,-24.3544,10.5616,0.477446
9.5295,17.7293,-14.0809,2.2926,-32.8975,-4.73626,1.44982,-0.132379,-1.94157,-1.0797,-0.173184,3.39183,-1.90799,-0.041366,4.59633,-9.03866,-10.5217,-20.2832,22.079,-14.5947,13.5087,11.1773,-7.2337,6.21045,-6.48286e-14,-1.35174e-14,-35.4611,-18.9889,-72.4114,27.7892,-9.06602,-7.81191,18.4832,7.12502,18.0898,-10.6956,-6.48286e-14,-1.35174e-14,-32.228,6.05062,85.656,22.9967,-16.1578,1.05589,31.8795,7.12502,26.6013,60.031,-11.2955,5.18416,15.7006,34.7193,-18.3868,-8.04871,7.71295,-6.8021,-1.51259,-17.4043,34.6764,-24.3497,10.6398,0.954367
9.5287,17.7311,-14.0825,2.20518,-32.5576,-4.54143,1.46366,-0.214228,-2.08817,-1.12217,-0.285684,3.34259,-1.94859,-0.094459,4.63218,-9.00736,-10.5235,-20.2777,22.0664,-14.598,13.4902,11.1651,-7.2376,6.20283,-2.07978e-14,-6.75868e-15,-35.6192,-18.8191,-72.3421,27.8435,-9.00087,-7.77185,18.5576,7.12502,18.1284,-10.6176,-2.07978e-14,-6.75868e-15,-32.2519,5.92446,85.706,23.0269,-15.8554,0.841351,31.7744,7.12502,26.396,59.9568,-11.2672,5.06064,15.5512,34.7395,-18.5694,-8.17331,8.70114,-6.86589,-1.81384,-17.566,34.6547,-24.293,10.5613,1.73573
9.52693,17.7327,-14.0832,2.17446,-32.3166,-4.48094,1.40928,-0.255827,-2.1085,-1.06079,-0.342958,3.28181,-1.84939,-0.125887,4.58097,-9.16053,-10.5574,-20.1318,22.0094,-14.6329,13.4881,11.1673,-7.2333,6.16437,7.09413e-14,-2.3059e-14,-35.623,-18.3553,-72.5945,28.0718,-9.61416,-7.98669,18.2998,7.12502,17.9216,-10.8945,7.09413e-14,-2.3059e-14,-32.145,5.90853,85.6515,23.06,-15.7682,0.758197,31.6175,7.12502,26.3164,59.8118,-11.2165,4.98288,15.5226,34.7418,-18.6828,-8.20281,9.67226,-6.92067,-1.91636,-17.5783,34.669,-24.2578,10.3849,1.92255
9.52602,17.7332,-14.0839,2.18889,-32.1597,-4.49019,1.32751,-0.278515,-2.05087,-0.970465,-0.373524,3.22195,-1.70804,-0.146122,4.48509,-9.33385,-10.6031,-19.9901,21.9147,-14.6922,13.547,11.1699,-7.23363,6.14378,7.3277e-14,-3.93594e-14,-35.4918,-18.2772,-72.8049,28.1516,-10.1099,-8.19825,18.0445,7.12502,17.7181,-11.1683,7.3277e-14,-3.93594e-14,-32.0411,5.93329,85.5555,23.1427,-16.0221,0.95519,31.5779,7.12502,26.505,59.7439,-11.1882,4.85881,15.5415,34.7373,-18.606,-8.20747,9.20523,-6.96682,-1.80803,-17.5077,34.694,-24.2553,10.1239,1.40633
9.52516,17.7365,-14.0966,2.41655,-31.8098,-4.75316,1.45265,-0.367975,-1.9078,-1.10183,-0.487543,3.33036,-1.9033,-0.199315,4.52245,-9.14752,-10.609,-20.1486,21.7998,-14.7079,13.5982,11.1127,-7.2561,6.1906,3.89991e-14,6.36111e-15,-35.6345,-17.9344,-72.8353,28.2699,-10.5286,-8.19203,17.9982,7.12502,17.7241,-11.214,3.89991e-14,6.36111e-15,-32.1613,5.90812,85.6055,23.183,-16.2702,1.02536,31.4508,7.12502,26.5721,59.6067,-11.2573,4.82453,15.8709,34.7179,-18.5146,-8.55803,8.78282,-7.20769,-1.66593,-17.0987,34.7326,-24.1807,9.63054,1.15608
9.52288,17.7375,-14.1002,2.3881,-31.5539,-4.65478,1.59153,-0.416824,-2.07645,-1.23857,-0.554421,3.39005,-2.11443,-0.22412,4.68593,-9.00006,-10.594,-20.4218,21.8089,-14.6944,13.6977,11.1184,-7.2702,6.28126,7.56376e-14,1.55052e-14,-35.8752,-17.3769,-72.7763,28.4088,-10.8816,-8.08768,18.1286,7.12502,17.8245,-11.0745,7.56376e-14,1.55052e-14,-32.2617,5.93439,85.6964,23.2244,-16.3077,1.18946,31.4304,7.12502,26.7292,59.5625,-11.2286,4.69355,15.804,34.6979,-18.5821,-8.69195,9.00653,-7.29885,-1.64341,-17.1203,34.7488,-24.1391,9.39533,0.999487
9.5196,17.7382,-14.0974,2.28812,-31.3832,-4.46157,1.57553,-0.418867,-2.26751,-1.25129,-0.561726,3.37016,-2.11653,-0.224624,4.77413,-8.93255,-10.595,-20.5828,21.7766,-14.7241,13.8765,11.1296,-7.28368,6.37265,-6.61332e-14,2.82274e-14,-35.9402,-17.2335,-72.6508,28.3363,-11.0141,-7.93826,18.349,7.12502,17.9682,-10.841,-6.61332e-14,2.82274e-14,-32.2464,5.85523,85.7754,23.3549,-16.2059,1.15254,31.3944,7.12502,26.6938,59.5319,-11.1573,4.48296,15.6003,34.6672,-18.6689,-8.62745,9.24308,-7.30147,-1.73762,-17.3104,34.7655,-24.1211,9.39359,0.715181
9.51631,17.7379,-14.0968,2.26031,-31.21,-4.49807,1.57709,-0.422795,-2.23645,-1.22206,-0.566615,3.36805,-2.08703,-0.228584,4.75407,-8.75597,-10.5931,-20.6552,21.6581,-14.7667,14.014,11.0783,-7.30372,6.43412,-2.49351e-14,1.59028e-14,-35.8575,-17.5895,-72.4497,28.0016,-10.6752,-7.83014,18.4724,7.12502,18.0723,-10.708,-2.49351e-14,1.59028e-14,-32.2551,5.75888,85.7934,23.4963,-16.2419,1.06662,31.2647,7.12502,26.6116,59.4147,-11.0429,4.3444,15.6443,34.635,-18.683,-8.66351,9.20796,-7.24733,-1.79447,-17.2654,34.76,-24.1086,9.36406,0.310484
9.51375,17.737,-14.0979,2.33395,-31.1115,-4.72579,1.56227,-0.41136,-1.99531,-1.16467,-0.546177,3.37789,-2.02327,-0.224028,4.62559,-8.71514,-10.6139,-20.5577,21.5789,-14.7994,13.968,11.0346,-7.31533,6.39435,-4.30493e-14,-1.11319e-14,-35.7165,-18.1879,-72.2511,27.6521,-10.0058,-7.65603,18.5809,7.12502,18.2398,-10.5839,-4.30493e-14,-1.11319e-14,-32.1692,5.60268,85.7746,23.572,-16.1751,0.992746,31.2132,7.12502,26.5409,59.3738,-10.9568,4.39393,15.9025,34.607,-18.6507,-8.81787,8.9253,-7.21787,-1.68959,-16.9959,34.7455,-24.0471,9.2495,0.0842693
9.51192,17.7364,-14.0915,2.32478,-31.0427,-4.80701,1.54984,-0.370307,-1.84051,-1.14212,-0.488159,3.35654,-1.9997,-0.198074,4.51304,-8.71403,-10.6744,-20.439,21.5353,-14.8655,13.8308,11.0089,-7.34673,6.30891,-2.10588e-14,1.39149e-14,-35.801,-18.3242,-72.1332,27.6342,-9.95043,-7.44449,18.6873,7.12502,18.4433,-10.4584,-2.10588e-14,1.39149e-14,-32.191,5.54261,85.7888,23.6968,-16.1132,0.771463,31.1208,7.12502,26.3291,59.3133,-10.8516,4.35489,15.9756,34.6071,-18.7194,-8.79989,9.068,-7.13748,-1.71327,-16.9221,34.7291,-24.0725,9.20155,0.202326
9.51014,17.7361,-14.0875,2.1492,-30.9138,-4.5622,1.62724,-0.302428,-1.99458,-1.18277,-0.401607,3.27087,-2.09274,-0.150502,4.50976,-8.59656,-10.7554,-20.5889,21.5256,-15.0247,13.9954,11.0434,-7.42234,6.37116,-2.97929e-14,3.18055e-15,-36.1158,-18.1741,-72.0138,27.817,-10.1821,-7.43236,18.7185,7.12502,18.4549,-10.426,-2.97929e-14,3.18055e-15,-32.3401,5.54293,85.8199,23.9207,-16.1755,1.06809,31.3168,7.12502,26.613,59.4665,-10.7621,4.15864,15.716,34.6316,-18.7861,-8.72411,9.18555,-7.03921,-1.81911,-17.1765,34.6876,-24.1674,9.10612,0.390896
9.50749,17.7378,-14.1019,2.06124,-30.6892,-4.25355,1.72619,-0.26151,-2.31734,-1.23984,-0.356165,3.17036,-2.21058,-0.120074,4.58847,-8.50484,-10.8291,-20.7299,21.4554,-15.1954,14.2862,11.0741,-7.48989,6.47615,-2.05245e-14,-1.66979e-14,-36.3185,-18.268,-71.8965,27.8461,-9.89089,-7.54565,18.8624,7.12502,18.346,-10.2925,-2.05245e-14,-1.66979e-14,-32.3197,5.21611,85.8932,24.0411,-16.1671,1.42569,31.5295,7.12502,26.9552,59.6268,-10.8634,4.17865,15.4857,34.6593,-18.7374,-8.97352,9.08801,-7.2022,-1.80611,-17.3792,34.6651,-24.0519,8.89691,0.266455
9.50574,17.7348,-14.0908,1.9733,-30.5809,-4.06528,1.5583,-0.253996,-2.38243,-1.21413,-0.347403,3.1039,-2.0904,-0.11778,4.55397,-8.27568,-10.7863,-20.6829,21.2393,-15.1594,14.2867,10.9374,-7.47812,6.48047,-1.17034e-13,1.0138e-14,-36.3198,-17.831,-72.1503,28.0162,-10.6863,-8.0696,18.3883,7.12502,17.8419,-10.8133,-1.17034e-13,1.0138e-14,-32.2944,4.88734,86.0134,24.1425,-15.8648,1.43077,31.618,7.12502,26.9601,59.7146,-10.79,3.976,15.2669,34.6384,-18.7646,-8.79418,9.46443,-7.18796,-1.80624,-17.5717,34.6886,-24.0548,8.90092,-0.0493663
9.50383,17.737,-14.0926,2.18438,-30.479,-4.39978,1.52177,-0.254134,-2.10847,-1.21926,-0.339419,3.20263,-2.07659,-0.117653,4.50062,-7.93249,-10.6672,-20.634,20.9297,-15.0276,14.3031,10.7265,-7.42572,6.51135,9.70318e-15,-1.74931e-14,-36.2316,-17.8167,-72.1297,27.8634,-10.6452,-8.19201,18.3527,7.12502,17.7241,-10.8595,9.70318e-15,-1.74931e-14,-32.2777,4.78466,86.0914,24.3443,-15.4798,1.51314,32.0325,7.12502,27.0389,60.1169,-10.8014,4.063,15.6301,34.5742,-18.7813,-8.95895,9.84023,-7.31838,-1.82723,-17.2077,34.7763,-24.0627,8.8296,0.0821377
9.49993,17.7409,-14.1027,2.49582,-30.3511,-5.03247,1.61794,-0.213346,-1.64899,-1.20759,-0.272002,3.37753,-2.12591,-0.0893621,4.42041,-7.64328,-10.6329,-20.7233,20.6136,-15.0247,14.4777,10.5783,-7.42666,6.59805,9.28076e-15,-1.51076e-14,-36.1851,-18.0091,-71.996,27.6943,-10.3695,-8.20758,18.3628,7.12502,17.7091,-10.8507,9.28076e-15,-1.51076e-14,-32.1602,4.61891,86.1848,24.4275,-15.4496,1.53985,32.2683,7.12502,27.0644,60.3487,-10.7692,4.28175,16.3252,34.4891,-18.7931,-9.3091,9.8456,-7.42821,-1.93876,-16.5416,34.8677,-24.0565,8.7843,0.1469
9.49549,17.742,-14.1069,2.56776,-30.2655,-5.24576,1.67418,-0.133598,-1.51348,-1.2181,-0.160636,3.45487,-2.17845,-0.0342709,4.42083,-7.5934,-10.6657,-20.7638,20.6344,-15.0613,14.4158,10.5823,-7.45359,6.57671,3.01904e-14,1.35174e-14,-36.3921,-17.729,-71.9446,27.8741,-10.6932,-8.15329,18.3151,7.12502,17.7613,-10.8938,3.01904e-14,1.35174e-14,-32.0661,4.32808,86.3324,24.3985,-15.6564,1.39252,32.0578,7.12502,26.9235,60.16,-10.6888,4.407,16.5787,34.4238,-18.8116,-9.46586,10.1665,-7.4457,-2.00357,-16.32,34.9456,-24.0869,8.8156,-0.442325
9.49136,17.7419,-14.1064,2.46228,-30.1528,-4.9951,1.59928,-0.00490298,-1.69432,-1.13032,0.00387955,3.33028,-2.06033,0.0472576,4.387,-8.24038,-10.8261,-20.2994,21.0442,-15.1782,13.9913,10.8004,-7.47864,6.29989,1.09853e-13,2.42517e-14,-36.4487,-18.0517,-71.8176,27.9325,-10.7539,-7.93888,18.4943,7.12502,17.9677,-10.6958,1.09853e-13,2.42517e-14,-31.7601,3.76007,86.4733,24.4386,-15.5834,1.24967,31.9277,7.12502,26.7868,60.0509,-10.668,4.38258,16.3558,34.4078,-18.8262,-9.57541,10.2167,-7.47784,-2.03156,-16.5487,34.9629,-24.098,8.8095,-1.00157
9.48665,17.7435,-14.1067,2.47979,-30.0743,-4.89794,1.43698,0.123414,-1.72494,-0.974647,0.170977,3.21375,-1.82311,0.124896,4.27642,-8.96029,-10.988,-19.842,21.3004,-15.3021,13.7088,10.9912,-7.48995,6.06957,-4.33226e-14,-1.8487e-14,-36.2158,-19.1476,-71.5054,27.579,-10.1261,-7.79408,18.7068,7.12502,18.107,-10.4704,-4.33226e-14,-1.8487e-14,-31.4036,3.32428,86.5345,24.6279,-15.2187,1.28362,32.0495,7.12502,26.8193,60.1678,-10.7382,4.38611,16.283,34.4393,-18.8237,-9.72028,9.79588,-7.54413,-2.15624,-16.6274,34.9198,-24.1033,8.72583,-0.319016
9.48223,17.7455,-14.1103,2.44686,-29.9383,-4.76617,1.36522,0.18166,-1.81433,-0.906092,0.245348,3.1382,-1.71872,0.160386,4.24606,-9.03373,-11.0096,-19.8592,21.1621,-15.337,13.8706,10.9778,-7.48748,6.12097,-3.43711e-14,2.38542e-15,-36.0812,-19.9776,-71.1807,27.2068,-9.42425,-8.01282,18.6737,7.12502,17.8965,-10.5228,-3.43711e-14,2.38542e-15,-31.2553,3.06612,86.5856,24.8507,-14.5338,1.20449,32.2076,7.12502,26.7436,60.3374,-10.7768,4.27972,16.1728,34.4817,-18.831,-9.78026,9.57051,-7.58821,-2.23638,-16.7162,34.8562,-24.0704,8.51017,0.775279
9.47871,17.7437,-14.1123,2.2729,-29.6158,-4.53168,1.44906,0.197569,-1.97384,-0.908628,0.2623,3.05448,-1.77033,0.171486,4.24898,-8.82052,-11.0074,-19.9383,20.9229,-15.3706,14.0296,10.877,-7.50298,6.19211,2.22701e-14,3.57812e-15,-36.1397,-20.5881,-70.8073,26.8776,-8.70999,-8.17681,18.8113,7.12502,17.7387,-10.3996,2.22701e-14,3.57812e-15,-31.1867,2.63856,86.6977,24.9856,-13.9419,1.23388,32.405,7.12502,26.7717,60.5306,-10.6479,3.97054,15.9665,34.4918,-18.8906,-9.77167,9.77002,-7.55246,-2.26455,-16.8768,34.8195,-23.9951,8.25499,0.715254
9.47462,17.7412,-14.1098,2.21502,-29.3866,-4.54246,1.52337,0.171241,-1.9391,-0.953139,0.228387,3.07365,-1.85485,0.156213,4.25038,-8.77882,-10.9204,-19.8846,20.9558,-15.2343,13.9103,10.8378,-7.44932,6.16668,5.33364e-14,1.09332e-14,-36.3153,-19.8982,-71.014,27.2079,-9.75339,-8.55242,18.1527,7.12502,17.3772,-11.0905,5.33364e-14,1.09332e-14,-31.3211,2.55909,86.708,25.1612,-14.0365,1.63623,32.5694,7.12502,27.1566,60.6354,-10.504,3.7925,16.0051,34.4692,-18.9364,-9.78851,9.87627,-7.47833,-2.25209,-16.8124,34.816,-23.9948,8.09796,0.257602
9.47013,17.7438,-14.1117,2.35159,-29.3272,-4.74672,1.56774,0.145124,-1.8165,-1.02674,0.198281,3.16633,-1.95284,0.14256,4.27852,-8.77374,-10.7559,-19.8037,20.9534,-14.9826,13.8059,10.7691,-7.33767,6.16157,6.42012e-14,1.21259e-14,-36.6097,-19.3399,-70.9632,27.411,-9.68624,-8.04113,18.4524,7.12502,17.8693,-10.7466,6.42012e-14,1.21259e-14,-31.5084,2.58595,86.7115,25.3207,-13.8787,1.54736,32.4405,7.12502,27.0716,60.5198,-10.5245,3.9271,16.2517,34.4468,-18.9353,-9.98762,9.867,-7.53332,-2.26363,-16.5776,34.8341,-23.9879,8.14176,-0.330983
9.46725,17.7464,-14.1159,2.47622,-29.1968,-4.91998,1.6106,0.166052,-1.66509,-1.07074,0.231008,3.20843,-2.02458,0.15877,4.23548,-8.54059,-10.6808,-19.8512,20.6207,-14.9063,13.9585,10.6053,-7.3011,6.24408,8.84592e-15,3.04141e-14,-36.7177,-19.0502,-71.008,27.4995,-9.97001,-8.01052,18.5726,7.12502,17.8987,-10.6238,8.84592e-15,3.04141e-14,-31.5735,2.49599,86.7339,25.4686,-13.5182,1.11898,32.1726,7.12502,26.6617,60.3149,-10.5551,3.98814,16.4618,34.4402,-18.9541,-10.1736,10.0067,-7.64276,-2.31741,-16.3728,34.867,-23.9066,8.19329,-1.21242
9.46493,17.7462,-14.1218,2.47594,-28.9961,-4.88931,1.66957,0.205195,-1.64592,-1.09242,0.283737,3.17184,-2.08423,0.185964,4.18477,-8.57419,-10.6698,-19.8249,20.5462,-14.9032,14.0601,10.5906,-7.28655,6.27602,5.36346e-14,-9.74045e-15,-36.7841,-18.8105,-71.1069,27.5619,-10.4165,-8.24102,18.6124,7.12502,17.6769,-10.6041,5.36346e-14,-9.74045e-15,-31.6161,2.4892,86.6842,25.6895,-13.4456,0.926441,31.9669,7.12502,26.4774,60.1371,-10.5547,3.94236,16.472,34.4389,-19.0322,-10.3162,10.2206,-7.74604,-2.21728,-16.332,34.9117,-23.8274,8.04437,-1.91492
9.46093,17.7473,-14.1306,2.48491,-28.8742,-4.80678,1.66847,0.215741,-1.73989,-1.1356,0.296212,3.16652,-2.12975,0.194933,4.2323,-8.64944,-10.5246,-19.8245,20.6097,-14.7134,14.1679,10.5995,-7.18788,6.35032,-6.7711e-15,1.53064e-14,-36.7501,-18.7777,-71.1177,27.4618,-10.16,-8.42689,18.5425,7.12502,17.498,-10.69,-6.7711e-15,1.53064e-14,-31.7187,2.46088,86.681,25.9224,-13.1521,0.654184,31.8848,7.12502,26.2168,60.094,-10.6023,4.00496,16.4439,34.4239,-19.045,-10.4901,10.3108,-7.8732,-2.18467,-16.3568,34.9657,-23.8312,7.9559,-2.09402
9.45646,17.7498,-14.1348,2.58766,-28.7275,-4.9297,1.53452,0.227331,-1.60649,-1.12784,0.315629,3.21963,-2.04756,0.201537,4.21121,-8.48387,-10.3329,-19.9598,20.4181,-14.4646,14.3527,10.476,-7.07451,6.49004,-3.47314e-14,5.56597e-15,-36.6329,-19.3672,-70.8494,27.1895,-9.26371,-8.7248,18.2129,7.12502,17.2113,-11.0449,-3.47314e-14,5.56597e-15,-31.6997,2.16193,86.8155,26.0749,-12.5205,0.358714,31.9651,7.12502,25.9339,60.2161,-10.6123,3.98832,16.6028,34.3896,-18.9959,-10.5964,10.1335,-7.97923,-2.31141,-16.2008,35.0156,-23.8576,7.85588,-1.69256
9.45265,17.752,-14.1341,2.66819,-28.519,-5.09987,1.42066,0.267193,-1.37009,-1.06747,0.373479,3.26137,-1.92481,0.224703,4.11854,-8.5832,-10.2033,-19.888,20.372,-14.2422,14.2859,10.4221,-6.96649,6.48777,-2.94077e-14,2.54444e-14,-36.5904,-20.0705,-70.4589,27.0364,-8.75097,-8.85514,17.8601,7.12502,17.0859,-11.4086,-2.94077e-14,2.54444e-14,-31.5392,1.68399,87.0054,26.0526,-12.0835,-0.0776212,31.7052,7.12502,25.516,60.0166,-10.5439,3.90149,16.8037,34.3476,-19.0248,-10.7371,9.82937,-8.04184,-2.41264,-15.9876,35.0372,-23.8339,7.65329,-1.13524
9.44922,17.7523,-14.1299,2.62033,-28.3594,-5.11164,1.41518,0.266282,-1.31237,-1.02228,0.373026,3.29531,-1.87503,0.222587,4.12104,-8.92244,-10.0011,-19.6425,20.4431,-13.8888,14.1192,10.408,-6.78385,6.43598,-1.81453e-14,-1.09332e-14,-36.5713,-19.9124,-70.3877,27.1046,-9.02407,-8.90607,17.6322,7.12502,17.0369,-11.6407,-1.81453e-14,-1.09332e-14,-31.4438,1.53855,87.0763,25.9766,-11.9045,-0.373113,31.4811,7.12502,25.2329,59.8327,-10.4133,3.78574,16.8343,34.3069,-18.9999,-10.8301,9.41375,-8.00908,-2.57968,-15.9661,35.0138,-23.8304,7.58938,-0.715833
9.44518,17.7499,-14.1222,2.44085,-28.245,-4.86341,1.42825,0.273308,-1.48511,-0.975811,0.377394,3.24187,-1.83579,0.225739,4.16321,-9.37867,-9.80953,-19.237,20.4567,-13.5457,13.9263,10.3842,-6.59049,6.3404,3.06998e-14,4.96962e-15,-36.5648,-19.5804,-70.4501,27.1843,-9.41599,-8.91034,17.832,7.12502,17.0327,-11.4413,3.06998e-14,4.96962e-15,-31.3488,1.46966,87.0341,25.998,-11.5501,-0.0354294,31.873,7.12502,25.5564,60.1786,-10.2658,3.55036,16.5706,34.2696,-18.9649,-10.6835,9.21108,-7.89953,-2.70128,-16.225,34.9714,-23.8473,7.59543,-0.615306
9.43947,17.7487,-14.1159,2.2626,-28.1036,-4.55214,1.42626,0.31363,-1.71179,-0.956121,0.425078,3.13425,-1.81932,0.251659,4.17838,-9.82949,-9.69229,-18.7492,20.5724,-13.3114,13.6035,10.4029,-6.45395,6.16618,-4.85159e-14,-1.47101e-14,-36.5907,-19.9782,-70.2197,27.0325,-9.10243,-8.70972,18.2606,7.12502,17.2258,-10.9959,-4.85159e-14,-1.47101e-14,-31.3692,1.47187,86.9022,26.1539,-11.5494,0.258916,31.9258,7.12502,25.8383,60.1907,-10.1446,3.3623,16.2557,34.2299,-19.0518,-10.5854,9.18526,-7.82017,-2.82221,-16.5338,34.9446,-23.8843,7.53538,-0.179887
9.43422,17.7502,-14.1183,2.35141,-27.8994,-4.73333,1.41704,0.381256,-1.47605,-0.911316,0.519575,3.12586,-1.77361,0.294647,4.03299,-10.3163,-9.61465,-18.3784,20.7419,-13.1386,13.3737,10.4782,-6.34563,6.03571,-2.42517e-14,-4.37326e-15,-36.7052,-20.509,-69.8989,27.0398,-8.66891,-8.39771,18.4517,7.12502,17.5261,-10.7783,-2.42517e-14,-4.37326e-15,-31.3148,1.43783,86.7807,26.3434,-11.7578,0.54539,31.7432,7.12502,26.1127,59.9678,-10.1143,3.34783,16.4979,34.192,-19.0763,-10.8909,8.59891,-7.8687,-2.95279,-16.3044,34.9531,-23.9034,7.36626,0.263194
9.43001,17.7522,-14.1291,2.56265,-27.6565,-5.14686,1.47897,0.448389,-1.02577,-0.911985,0.619709,3.18894,-1.81277,0.339827,3.83991,-10.6076,-9.47377,-18.1431,20.7865,-12.9053,13.2759,10.4813,-6.2162,5.99201,-2.69509e-14,1.05356e-14,-37.0026,-20.6524,-69.6407,27.3211,-8.67645,-8.02696,18.602,7.12502,17.8829,-10.5958,-2.69509e-14,1.05356e-14,-31.2571,1.14097,86.7693,26.5414,-11.5711,0.895632,31.7479,7.12502,26.448,59.9226,-10.1303,3.38003,16.9965,34.1766,-19.1011,-11.2278,8.49584,-7.99739,-2.92176,-15.7851,34.9697,-23.8186,7.14486,-0.212993
9.42506,17.7537,-14.1379,2.62892,-27.4498,-5.19668,1.57843,0.448163,-0.973807,-1.04859,0.624736,3.23047,-2.00956,0.345786,3.85291,-10.6243,-9.23072,-17.9185,20.8306,-12.5287,12.9943,10.3936,-6.05113,5.91462,-1.56854e-14,2.20651e-14,-37.34,-20.5579,-69.4206,27.5496,-8.67465,-8.03427,18.6003,7.12502,17.8759,-10.5981,-1.56854e-14,2.20651e-14,-31.5175,0.992923,86.7442,26.7975,-11.2251,0.695068,31.3353,7.12502,26.256,59.5387,-10.1448,3.37185,17.0896,34.1934,-19.227,-11.2515,9.71996,-8.1217,-2.84297,-15.6417,34.9695,-23.7139,6.98165,-0.871147
9.42093,17.7543,-14.1376,2.48986,-27.3085,-4.74931,1.53369,0.431671,-1.37502,-1.08531,0.593093,3.15702,-2.02349,0.336049,4.00527,-11.1628,-8.98544,-17.5698,21.1718,-12.0967,12.6434,10.4925,-5.8382,5.7893,-5.34979e-14,-1.05356e-14,-37.4499,-20.2771,-69.4462,27.88,-8.80733,-8.30306,18.4926,7.12502,17.6172,-10.7293,-5.34979e-14,-1.05356e-14,-31.5754,1.0037,86.6464,26.9331,-11.0434,0.667797,30.9483,7.12502,26.2299,59.1556,-10.2003,3.12177,16.6199,34.2472,-19.2611,-11.0844,10.1291,-8.18712,-2.88317,-16.074,34.9484,-23.6968,6.92175,-0.904755
9.41849,17.7538,-14.134,2.29917,-27.253,-4.2846,1.47223,0.450481,-1.77702,-1.03335,0.607338,3.0743,-1.94027,0.346629,4.14709,-11.8654,-8.67295,-17.3086,21.4568,-11.6023,12.628,10.6242,-5.56589,5.8102,2.97556e-15,1.96797e-14,-37.4104,-20.1933,-69.4142,28.1333,-8.99468,-8.22961,18.5073,7.12502,17.6879,-10.7082,2.97556e-15,1.96797e-14,-31.4471,0.958193,86.5453,26.9934,-11.0072,1.53602,31.246,7.12502,27.0608,59.327,-10.2378,2.84571,16.1178,34.3236,-19.2559,-10.9235,9.6179,-8.16221,-2.95802,-16.5663,34.9148,-23.7225,6.96366,-0.682628
9.41461,17.7536,-14.1388,2.33861,-27.2476,-4.38136,1.49998,0.506939,-1.70902,-0.998476,0.684451,3.13208,-1.92652,0.383943,4.16596,-12.2254,-8.39346,-17.1576,21.4213,-11.1805,12.6976,10.6004,-5.33837,5.87185,-8.66577e-15,-1.59028e-15,-37.2917,-20.6312,-69.1266,28.0753,-8.80272,-8.15444,18.417,7.12502,17.7602,-10.792,-8.66577e-15,-1.59028e-15,-31.3728,0.745749,86.4738,27.129,-10.7499,2.03766,31.2826,7.12502,27.5406,59.2881,-10.2708,2.97542,16.2618,34.3825,-19.2808,-11.0562,9.53935,-8.17384,-2.93107,-16.4369,34.8905,-23.6785,6.95715,-0.632765
9.40839,17.7553,-14.1487,2.46167,-27.1324,-4.61647,1.56764,0.550588,-1.53379,-1.03387,0.748738,3.23616,-2.00564,0.415926,4.17221,-12.4434,-8.18265,-16.941,21.4768,-10.8233,12.4377,10.5695,-5.17355,5.79256,-7.9868e-14,-2.46493e-14,-37.3781,-20.6822,-68.9134,28.2756,-8.82543,-8.32232,18.1467,7.12502,17.5987,-11.0768,-7.9868e-14,-2.46493e-14,-31.4014,0.622999,86.3956,27.2499,-10.613,1.85529,30.6672,7.12502,27.3662,58.7003,-10.311,3.15135,16.5938,34.4046,-19.291,-11.3318,9.48342,-8.2565,-2.82532,-16.1023,34.884,-23.5503,6.75584,-0.464428
9.40389,17.7562,-14.1484,2.35101,-26.9588,-4.46936,1.64914,0.579296,-1.60162,-1.11517,0.786861,3.21774,-2.13916,0.439039,4.18951,-12.4918,-7.91761,-16.748,21.4893,-10.4281,12.2486,10.4913,-4.99308,5.75317,2.91965e-15,-3.61788e-14,-37.769,-20.3922,-68.7249,28.7393,-9.17377,-8.32662,18.1622,7.12502,17.5945,-11.0617,2.91965e-15,-3.61788e-14,-31.5083,0.33959,86.3267,27.2621,-10.5833,2.1581,30.4351,7.12502,27.6558,58.4221,-10.2126,3.03444,16.4688,34.3942,-19.3658,-11.2834,9.92105,-8.22053,-2.87888,-16.221,34.8972,-23.5028,6.67153,-0.483794
9.40086,17.7534,-14.1416,2.13162,-26.849,-4.229,1.70959,0.618655,-1.6838,-1.1017,0.835951,3.13035,-2.16327,0.46455,4.14289,-12.7964,-7.66534,-16.6713,21.3538,-10.0703,12.4662,10.4472,-4.78774,5.8702,8.75274e-15,-1.51076e-14,-38.0415,-20.2614,-68.5725,29.1512,-9.53465,-8.34011,18.3007,7.12502,17.5816,-10.9243,8.75274e-15,-1.51076e-14,-31.5214,-0.1367,86.2143,27.3663,-10.3313,2.60786,30.4628,7.12502,28.0858,58.3801,-10.0245,2.84024,16.208,34.3674,-19.4033,-11.1631,10.2316,-8.08209,-3.07259,-16.4991,34.9186,-23.5418,6.75493,-0.546474
9.39634,17.751,-14.1386,2.13284,-26.7328,-4.3382,1.7117,0.634763,-1.49839,-1.06564,0.861726,3.14535,-2.12674,0.473695,4.0524,-13.5046,-7.41368,-16.5753,21.4761,-9.68154,12.7017,10.5685,-4.55203,5.99575,2.39039e-14,-2.90226e-14,-38.1866,-20.3187,-68.3849,29.4762,-9.56877,-8.31715,18.3671,7.12502,17.6037,-10.856,2.39039e-14,-2.90226e-14,-31.5898,-0.150386,85.931,27.7577,-10.4459,3.28244,30.6299,7.12502,28.7304,58.4397,-9.93472,2.75886,16.3466,34.3474,-19.3461,-11.361,9.47263,-8.05368,-2.99758,-16.3464,34.9454,-23.5262,6.50905,0.147502
9.39174,17.7523,-14.1414,2.29724,-26.6735,-4.70279,1.7183,0.684847,-1.13267,-1.06243,0.939127,3.24229,-2.12896,0.507467,3.94296,-14.0303,-7.16485,-16.2674,21.7431,-9.27869,12.4826,10.6686,-4.34669,5.92418,5.73742e-14,4.77083e-15,-38.3733,-20.6698,-67.9872,29.6792,-9.28073,-8.01456,18.6824,7.12502,17.8948,-10.5143,5.73742e-14,4.77083e-15,-31.6206,-0.100872,85.6516,28.0724,-10.7044,3.88225,30.8416,7.12502,29.3033,58.5528,-9.92932,2.86031,16.7606,34.352,-19.3485,-11.5744,9.0408,-8.10731,-2.82124,-15.9089,34.9805,-23.5129,6.20305,0.687562
9.38657,17.7531,-14.1493,2.36727,-26.7871,-4.82955,1.85866,0.790125,-1.09905,-1.12884,1.08461,3.34338,-2.2892,0.583257,4.02182,-14.0212,-6.90098,-16.0088,21.8359,-8.86123,12.0571,10.5942,-4.17811,5.78819,-6.8705e-15,-4.37326e-15,-38.5578,-20.3558,-67.8167,30.0664,-9.62683,-8.08836,18.6476,7.12502,17.8238,-10.5556,-6.8705e-15,-4.37326e-15,-31.5879,-0.197993,85.5016,28.0005,-10.8094,3.75594,30.3833,7.12502,29.1827,58.1155,-10.0017,3.07683,16.9209,34.3827,-19.3764,-11.6288,9.31512,-8.14406,-2.72536,-15.7596,35.0092,-23.5539,6.15229,0.996468
9.3829,17.7512,-14.1549,2.27109,-26.8142,-4.57952,1.96395,0.853232,-1.37114,-1.18702,1.16343,3.34669,-2.42062,0.629815,4.1749,-13.8796,-6.57403,-15.9566,21.8396,-8.40546,11.974,10.4852,-3.97779,5.82222,7.95139e-15,3.57812e-15,-38.7018,-19.7637,-67.8097,30.5535,-10.239,-8.25885,18.4648,7.12502,17.6598,-10.7532,7.95139e-15,3.57812e-15,-31.4801,-0.288392,85.3048,27.7773,-10.9027,3.70643,29.8184,7.12502,29.1354,57.5588,-10.0661,3.01394,16.6618,34.4417,-19.4479,-11.5177,9.96096,-8.14773,-2.67506,-16.0103,35.0031,-23.592,6.14293,1.16001
9.38225,17.7486,-14.1542,2.11021,-26.6367,-4.31784,1.87058,0.872238,-1.44804,-1.07952,1.18261,3.24023,-2.25796,0.6363,4.10838,-14.0823,-6.29576,-15.8514,21.8026,-8.04244,12.1633,10.4533,-3.77476,5.9289,-9.17205e-14,-1.70955e-14,-38.744,-20.083,-67.5484,30.8323,-10.3173,-8.03065,18.6566,7.12502,17.8794,-10.5415,-9.17205e-14,-1.70955e-14,-31.1497,-0.525933,85.0035,27.7028,-10.7799,3.67547,29.6608,7.12502,29.1058,57.4063,-9.99986,2.68067,16.3614,34.5102,-19.5191,-11.3342,10.1907,-8.089,-2.72299,-16.2771,34.9731,-23.6185,6.07143,1.00393
9.37911,17.747,-14.1526,2.03544,-26.5705,-4.24771,1.72186,0.941164,-1.35103,-0.934174,1.27279,3.15536,-2.02766,0.674445,3.96432,-14.3863,-6.12881,-15.6744,21.6937,-7.8155,12.2792,10.4312,-3.63108,5.97039,1.83503e-14,-1.70955e-14,-38.7379,-20.5538,-67.3155,31.1089,-10.3286,-8.07323,18.5434,7.12502,17.8384,-10.6585,1.83503e-14,-1.70955e-14,-30.7945,-0.822081,84.6811,27.7616,-10.6389,3.53421,29.8563,7.12502,28.9709,57.625,-9.94608,2.63711,16.2951,34.5554,-19.4885,-11.2923,9.86179,-8.03027,-2.76636,-16.3478,34.9566,-23.6158,6.04493,1.16222
9.37452,17.7473,-14.1561,2.11824,-26.5566,-4.40355,1.74079,1.00728,-1.16376,-0.955064,1.36652,3.17795,-2.06326,0.719518,3.87778,-14.5925,-5.97165,-15.337,21.6712,-7.55897,11.9668,10.3922,-3.50927,5.83,2.11209e-14,-8.74653e-15,-38.942,-20.3518,-67.232,31.584,-10.8746,-8.21736,18.375,7.12502,17.6997,-10.8395,2.11209e-14,-8.74653e-15,-30.717,-0.944506,84.3585,27.9016,-10.6515,3.60222,30.5701,7.12502,29.0359,58.3276,-9.96695,2.82215,16.5033,34.5698,-19.5373,-11.4247,10.1085,-8.07654,-2.80769,-16.162,34.9706,-23.5885,6.04745,1.38555
9.3695,17.7494,-14.16,2.25751,-26.5792,-4.62643,1.82721,1.06607,-0.941091,-1.05187,1.45424,3.23809,-2.21417,0.763327,3.80876,-14.5944,-5.75923,-14.9814,21.5499,-7.2256,11.5465,10.2633,-3.36766,5.65671,3.75889e-14,-3.18055e-15,-39.254,-20.1183,-67.0121,31.9681,-11.3465,-8.01776,18.6819,7.12502,17.8918,-10.515,3.75889e-14,-3.18055e-15,-30.7749,-0.769815,83.9835,28.0299,-10.8971,3.81746,31.2306,7.12502,29.2414,58.9525,-10.0219,3.01885,16.7849,34.5758,-19.6576,-11.6265,10.4387,-8.16282,-2.90231,-15.9163,35.0176,-23.5815,6.16245,1.60377
9.36184,17.7514,-14.1619,2.30106,-26.6808,-4.5989,1.81779,1.16139,-0.953203,-1.077,1.58139,3.209,-2.24363,0.827583,3.78025,-14.5129,-5.60096,-14.8667,21.267,-7.00959,11.5246,10.1069,-3.25934,5.65287,-4.96962e-15,5.56597e-15,-39.3563,-20.4568,-66.6313,31.984,-11.0335,-7.65603,19.2457,7.12502,18.2398,-9.91912,-4.96962e-15,5.56597e-15,-30.569,-0.556057,83.5062,28.0513,-10.8181,4.44735,31.7828,7.12502,29.8427,59.3984,-10.0989,3.19895,16.7982,34.5884,-19.695,-11.7151,10.3592,-8.23096,-2.88158,-15.9311,35.0858,-23.5763,6.3068,1.50085
9.35595,17.7525,-14.1692,2.37376,-26.6438,-4.5363,1.77256,1.1958,-1.00805,-1.06488,1.62469,3.16314,-2.20905,0.849303,3.76286,-15.0122,-5.47713,-14.511,21.3645,-6.8142,11.3599,10.1865,-3.14197,5.55779,-8.64092e-15,8.74653e-15,-39.2603,-20.6248,-66.4731,32.0346,-10.9312,-7.40754,19.5293,7.12502,18.4788,-9.61303,-8.64092e-15,8.74653e-15,-30.1636,-0.334436,82.9297,28.1582,-9.79281,5.24905,32.5892,7.12502,30.6075,60.0648,-10.2101,3.29065,16.7754,34.5963,-19.6621,-11.7253,10.5175,-8.39619,-2.75397,-15.932,35.1535,-23.5675,6.19801,1.22732
9.35181,17.7536,-14.177,2.51688,-26.5926,-4.68509,1.74728,1.19643,-0.857724,-1.05777,1.62956,3.20216,-2.1847,0.849291,3.71872,-15.6911,-5.24104,-14.0542,21.6841,-6.45636,11.0937,10.3499,-2.94985,5.43802,5.08889e-14,1.15295e-14,-39.1212,-20.5981,-66.3886,32.1661,-11.1161,-7.44252,19.3254,7.12502,18.4452,-9.82014,5.08889e-14,1.15295e-14,-30.0926,-0.372663,82.5906,27.278,-12.2763,2.73181,29.2067,7.12502,28.2043,57.1045,-10.316,3.4462,16.9833,34.6064,-19.618,-11.8757,10.7227,-8.54122,-2.73935,-15.7308,35.1984,-23.553,6.17964,1.12527
9.34788,17.7557,-14.1766,2.55812,-26.5717,-4.80127,1.71383,1.21626,-0.67995,-1.04095,1.66025,3.23938,-2.14672,0.861564,3.65649,-15.9847,-4.9922,-13.9995,21.8616,-6.10975,11.18,10.4192,-2.76946,5.51722,1.28092e-14,-4.37326e-15,-39.1137,-20.6451,-66.1501,32.2881,-11.2465,-7.61474,19.18,7.12502,18.2795,-9.98107,1.28092e-14,-4.37326e-15,-30.0025,0.114497,82.0778,27.515,-11.5779,3.65231,30.9121,7.12502,29.0837,58.6614,-10.3267,3.37649,17.1221,34.6169,-19.5615,-11.9705,10.2082,-8.53782,-2.77069,-15.6051,35.2284,-23.5541,6.22744,1.43256
9.34489,17.7564,-14.1716,2.50268,-26.564,-4.71608,1.55238,1.228,-0.64047,-0.95338,1.6726,3.21746,-1.96478,0.864354,3.61509,-16.3115,-4.82313,-14.0069,22.0745,-5.84876,11.231,10.5219,-2.63718,5.58291,4.25772e-14,0,-39.0946,-20.2408,-66.131,32.6095,-11.8561,-7.84284,19.0789,7.12502,18.0601,-10.1026,4.25772e-14,0,-29.8064,0.614844,81.5641,27.5074,-11.5399,3.63102,31.5957,7.12502,29.0634,59.3485,-10.3088,3.1114,17.0104,34.6229,-19.5156,-11.8346,9.70778,-8.49632,-2.7443,-15.706,35.2536,-23.5829,6.31876,1.19804
9.34097,17.754,-14.17,2.42109,-26.5786,-4.61144,1.50322,1.24761,-0.687935,-0.92612,1.69682,3.23694,-1.91284,0.876477,3.66255,-16.6626,-4.65728,-14.0595,22.4216,-5.59166,11.2999,10.681,-2.51031,5.66879,2.10215e-14,-1.98785e-15,-39.0688,-20.0315,-65.9495,32.7315,-12.0988,-7.86115,18.9995,7.12502,18.0424,-10.1836,2.10215e-14,-1.98785e-15,-29.6118,1.10785,81.1077,27.3335,-11.82,3.13102,31.4755,7.12502,28.5857,59.3098,-10.2771,3.1655,16.9283,34.6305,-19.5043,-11.9011,9.59637,-8.44015,-2.66151,-15.8113,35.2585,-23.5877,6.47936,-0.11169
9.33582,17.7529,-14.1757,2.4937,-26.5574,-4.68334,1.59765,1.27368,-0.661432,-1.05602,1.73773,3.325,-2.10459,0.900367,3.73426,-16.6548,-4.47758,-14.1554,22.5453,-5.33803,11.3759,10.691,-2.39581,5.75734,4.58571e-14,1.63003e-14,-39.1204,-20.3555,-65.4234,32.5036,-11.7709,-7.67917,19.133,7.12502,18.2175,-10.0339,4.58571e-14,1.63003e-14,-29.6228,1.50902,80.7107,27.2057,-11.8142,2.53113,31.2895,7.12502,28.0124,59.2188,-10.3249,3.30375,17.049,34.6221,-19.4716,-12.0847,9.51663,-8.51822,-2.53078,-15.6872,35.279,-23.5697,6.47218,-1.08185
9.3314,17.7563,-14.1832,2.54908,-26.3998,-4.59963,1.56928,1.20667,-0.747174,-1.09438,1.64693,3.33173,-2.12442,0.8569,3.79334,-16.474,-4.27475,-14.0207,22.2111,-5.04675,11.2301,10.4817,-2.26612,5.70864,2.95009e-14,-1.51076e-14,-38.9581,-20.4407,-65.2126,32.3647,-11.7574,-7.68862,19.2099,7.12502,18.2084,-9.95787,2.95009e-14,-1.51076e-14,-29.4997,2.02057,80.1693,27.1323,-11.6546,1.83911,30.7637,7.12502,27.3507,58.7993,-10.4179,2.94731,16.9497,34.6372,-19.4326,-11.9555,9.12023,-8.68802,-2.52936,-15.7199,35.309,-23.5326,6.2548,-0.450685
9.32488,17.7586,-14.1859,2.54912,-26.301,-4.78224,1.63867,1.15303,-0.613504,-1.03017,1.57866,3.40948,-2.09102,0.820144,3.80023,-16.5552,-4.08924,-13.8798,22.0801,-4.77944,11.1546,10.4036,-2.13461,5.68959,8.26012e-14,1.15295e-14,-38.732,-20.2862,-65.1908,32.3508,-11.8711,-8.03752,19.0355,7.12502,17.8727,-10.1633,8.26012e-14,1.15295e-14,-29.2997,2.58538,79.5998,27.0238,-11.6712,2.04166,30.9723,7.12502,27.5444,58.9771,-10.3129,2.84754,17.1828,34.6195,-19.3953,-12.0819,8.46509,-8.66528,-2.56678,-15.4916,35.3303,-23.5015,6.08822,0.284701
9.32149,17.7547,-14.189,2.42616,-26.2036,-4.63303,1.69027,1.15033,-0.743485,-1.00604,1.57196,3.40257,-2.09816,0.818556,3.86606,-16.6943,-4.00134,-13.8262,22.1382,-4.64112,11.1087,10.4282,-2.06814,5.68542,3.58434e-15,-4.81059e-14,-38.6301,-20.2826,-65.0014,32.2543,-11.889,-8.49264,18.8148,7.12502,17.4348,-10.4233,3.58434e-15,-4.81059e-14,-29.1048,2.90005,79.1985,26.8358,-11.4907,2.20098,31.8364,7.12502,27.6968,59.8168,-10.232,3.08457,17.0956,34.6342,-19.441,-12.3592,8.72069,-8.66714,-2.59994,-15.6244,35.3555,-23.4755,6.13664,-0.367799
9.31932,17.7592,-14.191,2.44335,-26.1577,-4.60528,1.63873,1.17385,-0.723869,-0.982831,1.60259,3.39475,-2.04673,0.832767,3.84685,-16.7542,-3.96931,-13.5288,21.9793,-4.56145,10.7335,10.3543,-2.04308,5.4981,-4.93794e-14,-1.35174e-14,-38.5545,-20.511,-64.6824,32.1011,-11.7706,-8.59991,18.806,7.12502,17.3315,-10.4413,-4.93794e-14,-1.35174e-14,-28.8314,3.17975,78.8052,26.6192,-11.4796,1.72439,32.0676,7.12502,27.241,60.1204,-10.2915,2.64346,17.0294,34.6325,-19.3181,-11.8988,9.12222,-8.71556,-2.64116,-15.638,35.3458,-23.4604,6.15836,-0.778811
9.31667,17.7554,-14.1949,2.51022,-26.1272,-4.70393,1.70532,1.19136,-0.631083,-1.03038,1.63077,3.43266,-2.13371,0.847121,3.83101,-16.8555,-3.91455,-13.1181,21.9006,-4.45495,10.2483,10.3089,-2.00888,5.25813,7.99673e-14,6.36111e-15,-38.563,-20.835,-64.2712,31.9336,-11.4104,-8.53414,18.7793,7.12502,17.3948,-10.4623,7.99673e-14,6.36111e-15,-28.6707,3.56202,78.3572,26.4959,-11.7431,1.8253,32.3335,7.12502,27.3375,60.3711,-10.3359,2.9358,17.198,34.6732,-19.375,-12.1984,9.58823,-8.78016,-2.6093,-15.5004,35.3335,-23.3782,6.15335,-1.10885
9.31274,17.7581,-14.1981,2.47214,-26.1119,-4.66348,1.80097,1.20324,-0.690408,-1.09113,1.64848,3.46538,-2.25417,0.859045,3.89555,-16.7241,-3.83455,-13.1013,21.7933,-4.34361,10.1985,10.2283,-1.96325,5.24886,-1.63003e-14,7.15625e-15,-38.5972,-20.6711,-64.0634,31.9109,-11.5552,-8.4124,18.6685,7.12502,17.512,-10.5628,-1.63003e-14,7.15625e-15,-28.6401,4.08856,77.9331,26.3345,-11.8762,1.68141,32.4186,7.12502,27.1999,60.4778,-10.337,2.61196,17.1458,34.694,-19.4029,-11.9763,9.69991,-8.75328,-2.52895,-15.5126,35.2681,-23.2397,6.23125,-1.18417
9.3106,17.758,-14.1974,2.41456,-26.091,-4.61715,1.7539,1.17458,-0.700906,-1.06723,1.60923,3.50152,-2.2016,0.83899,3.94175,-16.5805,-3.69677,-13.252,21.5753,-4.15775,10.3863,10.1044,-1.86936,5.36331,7.92157e-14,-7.95139e-15,-38.5276,-19.6649,-64.3163,32.2309,-12.5732,-8.45169,18.5273,7.12502,17.4742,-10.7073,7.92157e-14,-7.95139e-15,-28.6877,5.0383,77.4598,26.2239,-12.0992,0.676673,31.8348,7.12502,26.2383,60.0408,-10.2979,2.43043,17.0785,34.7412,-19.5241,-11.7693,10.2075,-8.66748,-2.55639,-15.575,35.2169,-23.2548,6.25855,-0.629508
9.31253,17.7574,-14.1966,2.35697,-26.2952,-4.50762,1.63748,1.1921,-0.737402,-0.981671,1.62827,3.51792,-2.051,0.846586,3.98167,-16.8301,-3.52364,-13.1608,21.5931,-3.8853,10.312,10.1168,-1.73755,5.35945,1.20265e-14,7.15625e-15,-38.0773,-20.3683,-63.8356,31.5803,-11.6106,-8.29765,18.8547,7.12502,17.6224,-10.3667,1.20265e-14,7.15625e-15,-28.6211,6.14309,76.9494,26.1215,-12.353,-0.0777332,31.4723,7.12502,25.5159,59.7837,-10.3382,2.43383,16.903,34.7821,-19.6038,-11.4661,10.6436,-8.5666,-2.7663,-15.7823,35.1487,-23.3987,6.4709,0.226464
9.31452,17.7577,-14.2016,2.32396,-26.7698,-4.36412,1.56317,1.32729,-0.856172,-0.902298,1.80341,3.52229,-1.94472,0.933922,4.04934,-17.1203,-3.4347,-13.0361,21.6472,-3.71207,10.1311,10.1618,-1.66047,5.29786,-5.58461e-14,-3.77691e-14,-37.7251,-20.8489,-63.4777,31.1696,-11.1195,-8.09774,18.9582,7.12502,17.8148,-10.2458,-5.58461e-14,-3.77691e-14,-28.2872,6.89888,76.5382,25.7379,-12.596,-0.45794,31.4778,7.12502,25.1517,59.8408,-10.5049,2.63973,16.6897,34.8234,-19.4783,-11.2575,10.0496,-8.51677,-2.91069,-16.0533,35.0954,-23.471,6.97103,0.739271
9.31238,17.7579,-14.2089,2.3709,-27.0378,-4.35926,1.60757,1.41624,-0.904814,-0.940316,1.92315,3.55969,-2.02119,0.996133,4.10997,-17.2715,-3.36467,-13.0847,21.7269,-3.60586,10.2203,10.207,-1.60301,5.35785,-2.50407e-14,5.56597e-15,-37.6425,-20.9912,-63.24,31.0532,-11.1961,-8.2077,18.8557,7.12502,17.709,-10.3579,-2.50407e-14,5.56597e-15,-28.1329,7.44196,76.1731,25.4556,-12.91,-0.674204,31.7391,7.12502,24.9444,60.131,-10.6364,2.78023,16.6779,34.8544,-19.3414,-11.2125,9.48606,-8.52962,-2.82352,-16.0871,35.0512,-23.4428,7.20555,0.557136
9.30872,17.7579,-14.2117,2.37291,-27.156,-4.37716,1.69699,1.44937,-0.904129,-1.00962,1.97036,3.57399,-2.14712,1.02213,4.11973,-17.4998,-3.24414,-13.0413,22.0149,-3.47589,10.3772,10.3371,-1.52108,5.43941,-6.61394e-14,-2.78299e-14,-37.6841,-21.073,-63.0629,30.9968,-11.3312,-8.45332,18.6729,7.12502,17.4726,-10.5618,-6.61394e-14,-2.78299e-14,-28.1891,7.89021,75.7708,25.3841,-13.0493,-0.560057,32.3109,7.12502,25.0538,60.6876,-10.6442,2.85935,16.7099,34.8722,-19.3747,-11.0701,9.6277,-8.46257,-3.005,-16.1147,35.0225,-23.4704,7.49505,0.373843
9.30781,17.7574,-14.2089,2.29933,-27.2802,-4.29628,1.67716,1.47327,-0.910683,-1.00574,2.00132,3.54139,-2.13342,1.0373,4.08882,-17.5679,-3.13409,-12.7219,21.9949,-3.34673,10.1594,10.3151,-1.45693,5.32074,2.99916e-14,7.95139e-16,-37.6452,-21.3626,-62.8445,30.8081,-11.2055,-8.32743,18.8183,7.12502,17.5938,-10.4057,2.99916e-14,7.95139e-16,-28.1586,8.12193,75.435,25.2,-12.8842,-0.863235,32.4458,7.12502,24.7633,60.8628,-10.6067,2.87936,16.6175,34.8679,-19.4052,-10.932,9.63946,-8.35119,-3.20714,-16.2707,35.0202,-23.5419,7.7892,0.296891
9.30777,17.7578,-14.2091,2.25611,-27.3999,-4.25871,1.65322,1.47015,-0.860687,-1.01189,1.99803,3.53361,-2.12394,1.03475,4.05307,-17.3308,-3.03008,-12.5172,21.7332,-3.20464,9.89096,10.149,-1.40559,5.19463,-4.27139e-14,-2.14687e-14,-37.5655,-21.4311,-62.729,30.6767,-11.1356,-8.24029,18.7704,7.12502,17.6776,-10.446,-4.27139e-14,-2.14687e-14,-28.078,8.27994,75.1403,24.841,-12.6933,-1.49098,32.1264,7.12502,24.1615,60.6247,-10.581,2.9348,16.5745,34.8453,-19.4205,-10.9611,9.79149,-8.30951,-3.09387,-16.3116,35.039,-23.583,7.79867,0.30111
9.30685,17.7573,-14.2107,2.24339,-27.6588,-4.42896,1.68263,1.5155,-0.600289,-0.982523,2.06435,3.54811,-2.10646,1.06348,3.91787,-17.2126,-2.96732,-12.5372,21.7917,-3.13064,9.89558,10.1379,-1.37647,5.21146,2.65253e-14,-3.69739e-14,-37.4829,-21.5098,-62.7032,30.6135,-11.1098,-8.49676,18.3528,7.12502,17.4308,-10.8857,2.65253e-14,-3.69739e-14,-27.8447,8.44521,74.803,24.5371,-12.2922,-1.40739,32.437,7.12502,24.2417,60.9246,-10.5126,3.17074,16.7478,34.8219,-19.4119,-10.9742,9.84162,-8.19357,-2.92455,-16.1583,35.0733,-23.6087,7.97657,-0.0763434
9.30713,17.7578,-14.2129,2.32763,-27.8106,-4.63097,1.67452,1.55138,-0.347603,-0.984606,2.11864,3.59348,-2.10044,1.087,3.8203,-17.1456,-2.93289,-12.565,21.8798,-3.08726,9.89121,10.1514,-1.36243,5.2234,-7.67806e-15,1.59028e-14,-37.4403,-21.7377,-62.5534,30.5326,-10.9683,-8.6809,18.2142,7.12502,17.2536,-11.0398,-7.67806e-15,1.59028e-14,-27.6638,8.84744,74.5033,24.3343,-12.0933,-1.13347,33.0967,7.12502,24.5043,61.549,-10.5346,3.27191,16.9509,34.8065,-19.3203,-10.9038,9.64376,-8.18177,-2.82891,-15.9634,35.111,-23.6309,8.06623,-0.435704
9.30911,17.7599,-14.2182,2.4716,-27.7961,-4.64828,1.63923,1.51689,-0.325992,-1.11105,2.07682,3.64423,-2.20912,1.06825,3.86188,-16.9112,-2.8287,-12.5559,21.8415,-2.95483,9.82749,10.0744,-1.31244,5.21356,2.64259e-14,1.35174e-14,-37.4709,-21.8748,-62.3125,30.4341,-10.7887,-8.32817,18.6095,7.12502,17.5931,-10.6145,2.64259e-14,1.35174e-14,-27.6875,9.55668,74.174,23.9194,-12.692,-1.02332,33.2126,7.12502,24.6099,61.6506,-10.7269,3.15205,16.9799,34.7991,-19.1605,-10.9157,8.78904,-8.36685,-2.86536,-15.9251,35.1325,-23.6362,8.00727,-0.00733344
9.31194,17.7598,-14.222,2.50228,-27.8285,-4.54273,1.60178,1.50956,-0.331497,-1.17479,2.06755,3.61025,-2.25191,1.06445,3.83027,-16.9803,-2.7581,-12.4148,22.0251,-2.87777,9.74971,10.1394,-1.27535,5.17812,-7.70291e-16,-9.14409e-15,-37.5026,-22.1738,-62.092,30.3596,-10.4888,-7.98733,18.9872,7.12502,17.921,-10.2071,-7.70291e-16,-9.14409e-15,-27.5204,10.021,73.8526,23.3627,-13.1706,-0.780462,32.9827,7.12502,24.8426,61.3888,-10.8691,2.98909,16.8689,34.8082,-18.9921,-10.8858,7.69074,-8.46253,-2.88211,-16.0301,35.1286,-23.6158,7.96311,0.813796
9.31487,17.758,-14.2192,2.46346,-27.9678,-4.47397,1.57963,1.53624,-0.276937,-1.17477,2.10394,3.6066,-2.23981,1.08159,3.79481,-17.1654,-2.70881,-12.346,22.2057,-2.80215,9.70071,10.2278,-1.23904,5.16631,-6.47293e-15,3.57812e-15,-37.5512,-22.3222,-61.9054,30.4721,-10.4265,-8.10069,18.9336,7.12502,17.812,-10.2706,-6.47293e-15,3.57812e-15,-27.367,10.3418,73.6709,22.9363,-13.2677,-0.953615,32.6039,7.12502,24.6767,61.0327,-10.8793,2.90834,16.7478,34.8285,-18.986,-10.6216,7.77864,-8.39299,-2.77738,-16.139,35.1081,-23.6078,8.0414,0.835404
9.31706,17.7573,-14.2128,2.41529,-28.1266,-4.37115,1.59695,1.52869,-0.329236,-1.23585,2.09534,3.65261,-2.31571,1.07971,3.87138,-17.1643,-2.61309,-12.3945,22.2822,-2.65597,9.6953,10.2366,-1.17778,5.19554,2.10712e-14,2.10712e-14,-37.6714,-22.1958,-61.7417,30.708,-10.7951,-7.96168,18.9127,7.12502,17.9457,-10.2793,2.10712e-14,2.10712e-14,-27.5131,10.9783,73.4564,22.7503,-13.5354,-1.35797,32.2468,7.12502,24.2891,60.728,-10.8724,2.86312,16.5819,34.8424,-19.0278,-10.2881,7.90129,-8.31376,-2.72147,-16.3034,35.0921,-23.6373,8.26666,0.477111
9.31848,17.7581,-14.2113,2.37327,-28.2584,-4.24732,1.65937,1.54254,-0.428132,-1.32443,2.1151,3.65433,-2.44736,1.09343,3.92565,-17.1464,-2.59706,-12.3239,22.407,-2.63425,9.58038,10.273,-1.17766,5.1481,6.52014e-14,-4.37326e-15,-37.8585,-22.1583,-61.5812,30.9037,-11.1172,-7.75644,18.8664,7.12502,18.1432,-10.3074,6.52014e-14,-4.37326e-15,-27.6605,11.524,73.2335,22.6793,-13.7349,-1.19669,32.5403,7.12502,24.4437,61.0007,-10.91,2.77025,16.4147,34.8523,-19.0506,-9.99093,8.21711,-8.28867,-2.7452,-16.4768,35.0966,-23.6707,8.53691,0.0334869
9.31982,17.7597,-14.2174,2.4085,-28.3757,-4.24375,1.72127,1.57961,-0.430952,-1.39581,2.16775,3.65923,-2.56002,1.12161,3.9277,-17.1024,-2.64473,-12.1907,22.4595,-2.70398,9.4039,10.2887,-1.22059,5.05156,1.91703e-14,-1.59028e-15,-37.9958,-22.3233,-61.4328,31.0232,-10.9621,-8.1112,18.6117,7.12502,17.8018,-10.5934,1.91703e-14,-1.59028e-15,-27.6958,11.8903,73.0708,22.5826,-13.8912,-0.737004,33.125,7.12502,24.8843,61.5253,-11.0339,2.71885,16.407,34.8729,-19.008,-10.0107,7.91135,-8.32757,-2.73199,-16.5012,35.1097,-23.6482,8.80433,-0.936213
9.32109,17.7625,-14.2309,2.51749,-28.5294,-4.30643,1.74581,1.61514,-0.411193,-1.42494,2.21758,3.69284,-2.60822,1.14717,3.94836,-17.0456,-2.68161,-12.1303,22.3448,-2.75427,9.32555,10.2413,-1.24672,5.00071,5.49018e-14,-1.98785e-14,-37.9591,-22.4367,-61.4395,31.1703,-10.9517,-8.49345,18.3667,7.12502,17.434,-10.8715,5.49018e-14,-1.98785e-14,-27.5853,12.199,72.9542,22.4244,-13.989,-0.577687,33.2352,7.12502,25.0369,61.6143,-11.2461,2.84059,16.5015,34.9028,-18.8534,-10.2792,6.61222,-8.45272,-2.57757,-16.4167,35.1259,-23.5862,8.91879,-1.84521
9.32242,17.7637,-14.2407,2.59927,-28.8773,-4.31465,1.75643,1.64814,-0.492922,-1.45738,2.26219,3.78411,-2.6583,1.17266,4.08702,-16.9802,-2.62466,-12.1954,22.2859,-2.65838,9.31843,10.1965,-1.20929,5.01987,2.1096e-14,-1.59028e-15,-37.7817,-21.9485,-61.6976,31.418,-11.8142,-8.69891,18.1847,7.12502,17.2362,-11.0709,2.1096e-14,-1.59028e-15,-27.6147,12.3951,72.9334,22.3534,-13.861,-0.635591,33.0588,7.12502,24.9814,61.4456,-11.4419,3.1188,16.4972,34.9301,-18.7742,-10.2051,6.721,-8.52866,-2.38749,-16.432,35.1472,-23.6227,9.06109,-1.80375
9.32484,17.7645,-14.2421,2.65839,-29.2813,-4.3233,1.72423,1.64783,-0.544281,-1.48415,2.26236,3.89062,-2.67462,1.17509,4.22775,-17.0003,-2.51742,-12.1318,22.3451,-2.4833,9.15186,10.197,-1.14279,4.97339,-4.96713e-14,-4.77083e-15,-37.5362,-21.0914,-62.2006,31.8455,-13.4249,-9.2961,17.6934,7.12502,16.6614,-11.6115,-4.96713e-14,-4.77083e-15,-27.7449,12.753,72.8628,22.296,-13.9884,-0.519051,32.8556,7.12502,25.0931,61.2268,-11.5876,3.36795,16.4478,34.9597,-18.7872,-9.92343,7.63941,-8.53825,-2.33578,-16.5008,35.1525,-23.7151,9.30131,-1.00612
9.32679,17.7654,-14.24,2.73363,-29.5897,-4.45442,1.6853,1.64581,-0.41093,-1.49235,2.26362,3.95596,-2.65877,1.17345,4.22136,-17.0278,-2.46019,-11.8784,22.3369,-2.40376,8.8874,10.1833,-1.11391,4.84301,-3.40419e-14,7.15625e-15,-37.4753,-20.5479,-62.5564,32.3369,-14.6341,-9.76441,17.2494,7.12502,16.2105,-12.0928,-3.40419e-14,7.15625e-15,-27.6726,13.0578,72.7257,21.9563,-14.2228,-0.427621,32.4707,7.12502,25.1807,60.8297,-11.6426,3.56141,16.516,34.9898,-18.9064,-9.59289,8.68421,-8.48926,-2.30477,-16.4396,35.1342,-23.7498,9.514,-0.253172
9.32698,17.7644,-14.2351,2.70348,-29.8983,-4.36999,1.63363,1.63536,-0.465245,-1.5394,2.24873,3.96691,-2.67976,1.16783,4.2651,-17.0257,-2.35005,-11.7589,22.5037,-2.28025,8.84033,10.2252,-1.05555,4.82771,1.42131e-14,3.97569e-14,-37.6571,-20.3072,-62.5091,32.62,-14.5602,-9.5331,17.4618,7.12502,16.4332,-11.8621,1.42131e-14,3.97569e-14,-27.6876,13.1184,72.6258,21.6295,-14.2422,-0.422384,32.0873,7.12502,25.1857,60.4456,-11.6706,3.67459,16.3627,34.9931,-18.9664,-9.19719,9.12217,-8.40615,-2.21356,-16.5968,35.1133,-23.7799,9.75816,0.117431
9.32834,17.7647,-14.2358,2.62964,-30.0158,-4.1285,1.59474,1.55261,-0.666866,-1.61137,2.13413,3.9603,-2.73056,1.11588,4.37775,-16.8897,-2.24284,-11.8939,22.6879,-2.16777,9.0333,10.2544,-1.00006,4.94283,1.14053e-14,3.97569e-15,-37.7666,-20.2107,-62.389,32.7582,-14.3244,-9.52409,17.6084,7.12502,16.4419,-11.7149,1.14053e-14,3.97569e-15,-27.8946,13.1663,72.5859,21.6403,-14.1371,-0.619483,31.7678,7.12502,24.9969,60.1525,-11.7368,3.64512,16.1094,34.9542,-18.8604,-9.09283,8.53092,-8.43868,-2.16172,-16.8468,35.1213,-23.8085,9.83058,-0.120924
9.33071,17.7672,-14.2402,2.72434,-29.8801,-4.30521,1.67772,1.43664,-0.467052,-1.6892,1.98891,4.01369,-2.84073,1.04143,4.32406,-16.5915,-2.25041,-11.9525,22.544,-2.21769,9.12999,10.1529,-1.02095,4.97424,-5.11125e-14,-1.82882e-14,-37.7913,-20.4322,-62.288,32.8231,-14.2018,-9.63124,17.6186,7.12502,16.3387,-11.7131,-5.11125e-14,-1.82882e-14,-28.0992,13.1168,72.5973,21.8759,-13.8872,-0.85375,31.6323,7.12502,24.7724,60.048,-11.7209,3.58589,16.3259,34.8935,-18.7822,-9.19496,8.35909,-8.50662,-2.25517,-16.6332,35.1495,-23.7958,9.7311,0.158233
9.33355,17.7683,-14.2416,2.90788,-29.8543,-4.7156,1.86676,1.36337,-0.0774303,-1.84219,1.91333,4.14241,-3.09117,0.99993,4.23618,-16.0888,-2.25474,-11.9345,22.2263,-2.25877,9.06209,9.94783,-1.05092,4.92558,-5.11622e-14,-3.81667e-14,-37.9873,-20.4562,-62.1603,33.0066,-14.01,-9.60878,17.6993,7.12502,16.3604,-11.6306,-5.11622e-14,-3.81667e-14,-28.3705,12.8462,72.6973,22.0008,-13.6624,-0.676325,31.7879,7.12502,24.9424,60.1801,-11.6766,3.55484,16.7498,34.8285,-18.6979,-9.21946,8.14522,-8.51708,-2.34398,-16.2259,35.1766,-23.7635,9.75695,0.894204
9.33785,17.7671,-14.2435,2.92532,-29.9611,-4.72113,1.98397,1.2925,-0.0816544,-1.96998,1.82697,4.21583,-3.2861,0.960538,4.31674,-15.7699,-2.21306,-12.0556,22.1328,-2.22134,9.13331,9.85128,-1.04131,4.97163,-1.29707e-14,-3.4191e-14,-38.1471,-20.2653,-62.1137,33.3415,-14.2244,-9.58943,17.6883,7.12502,16.379,-11.6401,-1.29707e-14,-3.4191e-14,-28.6279,12.6676,72.8389,21.9846,-13.7004,-0.587981,31.8113,7.12502,25.0271,60.1918,-11.7094,3.4582,16.7379,34.7701,-18.5703,-9.14073,7.26508,-8.54931,-2.15923,-16.1994,35.1924,-23.7488,9.66939,1.16901
9.34345,17.7674,-14.242,2.85008,-30.0933,-4.40299,1.79456,1.22418,-0.220746,-1.90941,1.72229,4.10574,-3.10862,0.908072,4.28933,-15.9815,-2.22314,-12.1245,22.2423,-2.24947,9.34319,9.93594,-1.03474,5.06221,2.05991e-14,2.46493e-14,-37.989,-20.5903,-62.2107,33.5733,-14.4117,-9.33542,17.6802,7.12502,16.6235,-11.6279,2.05991e-14,2.46493e-14,-28.4287,12.8409,72.8086,21.8027,-14.0864,-0.701261,31.3712,7.12502,24.9185,59.7668,-11.8113,3.27156,16.3442,34.7484,-18.5462,-8.74672,7.32184,-8.60979,-2.06316,-16.532,35.1701,-23.8166,9.60151,1.44091
9.34866,17.7696,-14.2392,2.86216,-30.3399,-4.21459,1.50957,1.19964,-0.191788,-1.7942,1.67737,3.96362,-2.81927,0.879565,4.13217,-16.1772,-2.26579,-12.0765,22.2745,-2.33711,9.48698,9.99588,-1.05184,5.09808,5.18083e-14,3.10104e-14,-37.7604,-20.8024,-62.533,33.85,-14.6097,-9.28883,17.6073,7.12502,16.6684,-11.6971,5.18083e-14,3.10104e-14,-28.0493,12.9403,72.7373,21.6299,-14.1398,-0.751818,31.0145,7.12502,24.8701,59.4168,-11.9726,3.1891,16.0599,34.7815,-18.5288,-8.29337,7.80161,-8.6288,-2.11689,-16.8122,35.1035,-23.8712,9.9307,0.838443
9.35197,17.7695,-14.2416,2.8347,-30.5451,-4.05314,1.49501,1.14935,-0.333134,-1.82196,1.6062,3.92673,-2.83734,0.847098,4.17688,-16.0518,-2.28355,-12.0643,22.2564,-2.40666,9.58441,9.97458,-1.07518,5.121,-1.04163e-13,1.35174e-14,-37.7319,-20.7077,-62.7416,34.1423,-14.8368,-9.58118,17.4619,7.12502,16.3869,-11.8659,-1.04163e-13,1.35174e-14,-28.1656,12.788,72.8016,21.8597,-13.8588,-0.622813,31.2134,7.12502,24.9937,59.5985,-12.0925,3.21018,15.8507,34.8332,-18.5465,-8.04495,8.25908,-8.61704,-2.08487,-17.0277,35.0463,-23.8397,10.2974,-0.324975
9.35416,17.7711,-14.2504,2.8072,-30.7163,-3.87171,1.65566,1.09923,-0.633915,-1.9776,1.53933,3.97459,-3.09398,0.825412,4.39726,-15.6991,-2.33134,-12.2953,22.1527,-2.51249,9.82429,9.88916,-1.1242,5.22867,2.40032e-14,1.03368e-14,-37.9113,-20.8078,-62.5961,34.3412,-14.6987,-9.98727,17.2973,7.12502,15.9959,-12.0623,2.40032e-14,1.03368e-14,-28.4812,12.6764,72.9345,22.1072,-13.8471,-0.208184,31.4815,7.12502,25.391,59.8107,-12.2307,3.24698,15.6467,34.868,-18.6098,-7.83619,8.85517,-8.69003,-2.03167,-17.2142,35.0384,-23.7906,10.465,-0.494582
9.35658,17.774,-14.266,2.98641,-31.0472,-3.97942,1.7845,1.10899,-0.691963,-2.09791,1.55779,4.05531,-3.29732,0.840641,4.51159,-15.5172,-2.40867,-12.5428,22.0983,-2.66121,10.1581,9.86122,-1.18158,5.37163,-2.63887e-14,-9.54166e-15,-38.0759,-20.9026,-62.5597,34.5934,-14.2878,-10.4219,17.2065,7.12502,15.5773,-12.1861,-2.63887e-14,-9.54166e-15,-28.3805,12.6042,73.0279,22.0062,-13.7026,0.128292,31.6437,7.12502,25.7132,59.9267,-12.5013,3.48308,15.7397,34.8869,-18.5537,-7.71389,9.31794,-8.88211,-1.64435,-17.0663,35.0649,-23.7056,10.4377,-0.294629
9.36142,17.7751,-14.2778,3.18241,-31.3227,-4.15948,1.85941,1.05778,-0.613874,-2.15261,1.49542,4.10522,-3.3905,0.809618,4.52148,-15.6183,-2.44221,-12.5715,22.2779,-2.75197,10.3579,9.95838,-1.20573,5.44621,-4.44781e-15,-3.49861e-14,-38.0852,-20.9177,-62.7395,34.87,-14.1128,-10.5506,17.2506,7.12502,15.4534,-12.1517,-4.44781e-15,-3.49861e-14,-28.151,12.6557,73.0197,21.852,-13.482,0.25994,31.885,7.12502,25.8393,60.1498,-12.722,3.69552,15.8999,34.9005,-18.4989,-7.62091,9.86123,-9.03375,-1.37827,-16.8773,35.0821,-23.6351,10.4726,0.131419
9.36761,17.776,-14.2764,3.23656,-31.4957,-4.09044,1.75864,0.974844,-0.636132,-2.16834,1.3817,4.08361,-3.3401,0.752535,4.51848,-15.473,-2.50411,-12.4431,22.1749,-2.85236,10.2168,9.90408,-1.25924,5.35367,-4.29872e-14,2.38542e-15,-38.0424,-20.9148,-62.8973,35.1384,-14.4223,-10.2481,17.4336,7.12502,15.7447,-11.946,-4.29872e-14,2.38542e-15,-28.1116,12.8359,73.0147,21.8823,-13.6868,0.272297,31.891,7.12502,25.8512,60.1541,-12.8621,3.64154,15.7855,34.9123,-18.5136,-7.40663,9.9839,-9.08666,-1.52698,-17.0187,35.0681,-23.6433,10.7529,0.525284
9.37247,17.7765,-14.2713,3.20415,-31.7178,-3.80432,1.52499,0.935844,-0.807195,-2.14858,1.31824,4.00181,-3.18404,0.721976,4.53589,-15.0107,-2.62648,-12.333,21.5874,-3.01944,9.98927,9.62709,-1.35417,5.2056,3.23771e-14,3.97569e-15,-38.0004,-20.8042,-63.0293,35.4175,-14.9397,-9.87841,17.6039,7.12502,16.1007,-11.7473,3.23771e-14,3.97569e-15,-28.0472,12.9496,73.0735,21.9065,-14.0295,0.229591,31.4786,7.12502,25.8103,59.7476,-13.0385,3.50763,15.4377,34.9212,-18.471,-7.07322,10.0581,-9.12157,-1.77449,-17.4022,35.0339,-23.7198,11.1634,0.429584
9.37626,17.7767,-14.2684,3.11633,-32.1224,-3.60734,1.49013,0.922948,-0.990299,-2.12986,1.29426,3.98141,-3.14684,0.7135,4.62015,-14.6896,-2.75814,-12.4729,21.1723,-3.20165,10.059,9.44877,-1.44491,5.21633,-8.90307e-14,7.95139e-15,-37.9586,-20.8315,-63.0453,35.5659,-15.0659,-9.69792,17.723,7.12502,16.2745,-11.614,-8.90307e-14,7.95139e-15,-27.9313,12.9399,73.1715,21.8976,-13.8573,0.398829,31.3271,7.12502,25.9723,59.5724,-13.1455,3.57959,15.1789,34.9282,-18.4178,-6.72548,10.4097,-9.02319,-2.00227,-17.7325,34.999,-23.8479,11.6928,0.739815
9.38045,17.7763,-14.273,3.22792,-32.6851,-3.88101,1.69224,0.934198,-0.853151,-2.2034,1.32014,4.10288,-3.3397,0.727631,4.66594,-14.3911,-2.87903,-12.7714,21.0322,-3.38533,10.293,9.37689,-1.53657,5.32376,4.24405e-14,-7.95139e-15,-38.0572,-20.9302,-62.9993,35.6709,-14.7299,-9.76419,17.7587,7.12502,16.2107,-11.5835,4.24405e-14,-7.95139e-15,-28.0116,12.9711,73.2245,22.057,-13.482,0.500314,31.4274,7.12502,26.0695,59.6584,-13.2345,3.96102,15.3966,34.9328,-18.3891,-6.54012,10.6763,-8.89816,-1.83985,-17.5661,34.9906,-23.9612,11.9788,1.49081
9.38526,17.7779,-14.2887,3.52789,-33.0875,-4.24936,1.81427,0.919441,-0.611446,-2.30327,1.31433,4.18882,-3.50831,0.722397,4.61764,-14.2326,-2.99285,-12.8924,21.0591,-3.58144,10.4604,9.38739,-1.62613,5.38124,1.64494e-14,1.98785e-14,-38.1625,-20.9305,-63.1137,35.8553,-14.694,-9.76681,17.8684,7.12502,16.2082,-11.4741,1.64494e-14,1.98785e-14,-27.9201,12.5986,73.3462,22.0869,-12.996,0.16608,31.3556,7.12502,25.7494,59.6334,-13.4805,4.30548,15.7373,34.9417,-18.2858,-6.49802,10.687,-9.01611,-1.48649,-17.2013,34.9959,-23.9806,11.9253,1.8202
9.39001,17.7816,-14.2997,3.72637,-33.4069,-4.29871,1.66868,0.90742,-0.55577,-2.23415,1.2933,4.1115,-3.34879,0.706689,4.50745,-14.4673,-3.18018,-12.7701,21.1971,-3.87131,10.518,9.51733,-1.74215,5.34951,-1.64246e-14,-1.59028e-14,-37.984,-21.1414,-63.4007,35.9684,-14.9019,-9.43509,18.1779,7.12502,16.5276,-11.1382,-1.64246e-14,-1.59028e-14,-27.3527,11.6067,73.632,21.9608,-12.1122,-0.0829975,31.4398,7.12502,25.5109,59.7519,-13.7848,4.46712,15.7487,34.9493,-18.199,-6.33679,10.7801,-9.22302,-1.34917,-17.159,35.0022,-23.9579,12.061,1.46626
9.39468,17.7835,-14.2989,3.7385,-33.7782,-4.09244,1.4434,0.8533,-0.716393,-2.14816,1.2081,4.03429,-3.12677,0.663539,4.52418,-14.4134,-3.33691,-12.8272,21.1036,-4.12011,10.6795,9.51254,-1.84694,5.38307,1.06598e-14,-4.69132e-14,-37.7285,-21.5579,-63.5222,35.9459,-14.6068,-9.30722,18.2896,7.12502,16.6507,-11.0162,1.06598e-14,-4.69132e-14,-27.0455,11.1889,73.7828,22.1026,-11.6743,0.387504,31.9401,7.12502,25.9615,60.187,-14.0136,4.46769,15.4742,34.9635,-18.1866,-5.97734,10.7096,-9.29548,-1.42516,-17.4471,34.9774,-23.9895,12.5021,1.17679
9.39943,17.7821,-14.2952,3.71955,-34.1529,-4.03156,1.42766,0.776032,-0.829141,-2.2067,1.10386,4.09758,-3.17362,0.615967,4.65946,-13.9588,-3.39999,-13.1406,20.9938,-4.27135,11.0281,9.42289,-1.91939,5.54106,-5.46409e-14,-3.89618e-14,-37.7369,-21.6737,-63.4356,35.9815,-14.2634,-9.7675,18.1189,7.12502,16.2075,-11.2236,-5.46409e-14,-3.89618e-14,-27.2561,11.3566,73.834,22.4307,-11.7607,0.953353,32.4111,7.12502,26.5032,60.5774,-14.1045,4.48256,15.3536,34.9848,-18.1687,-5.65241,10.1826,-9.19494,-1.49281,-17.6126,34.9169,-24.0613,12.8867,1.49304
9.4018,17.7815,-14.2967,3.71621,-34.5,-4.07373,1.53448,0.713914,-0.918914,-2.26798,1.02252,4.16755,-3.29383,0.580574,4.78694,-13.5655,-3.48347,-13.3545,20.8732,-4.45218,11.31,9.34271,-2.00343,5.65381,-5.31749e-14,6.36111e-15,-37.8244,-21.3193,-63.5791,36.1658,-14.4082,-10.344,17.9607,7.12502,15.6524,-11.4261,-5.31749e-14,6.36111e-15,-27.4476,11.4363,73.8952,22.6535,-11.7221,0.830142,32.4022,7.12502,26.3853,60.5862,-14.1383,4.519,15.3549,34.9874,-18.0857,-5.41369,9.07599,-9.08012,-1.40037,-17.6256,34.874,-24.1042,13.0648,1.84307
9.40291,17.7848,-14.3039,3.71494,-34.7986,-3.97823,1.51292,0.57587,-1.0998,-2.18778,0.829196,4.13347,-3.1832,0.485368,4.86274,-13.3522,-3.62196,-13.2966,20.3924,-4.65412,11.3141,9.16432,-2.09365,5.60377,-2.20651e-14,-3.4191e-14,-37.5893,-20.9657,-64.0643,36.348,-14.7292,-10.3227,17.8977,7.12502,15.6729,-11.4875,-2.20651e-14,-3.4191e-14,-27.2959,11.6579,73.8245,22.7643,-11.5563,0.418175,32.171,7.12502,25.9909,60.4136,-14.2748,4.47402,15.2247,34.9675,-17.974,-5.04567,8.49709,-9.10596,-1.27913,-17.7291,34.8614,-24.101,13.1964,1.9966
9.40726,17.7866,-14.313,3.86194,-35.2278,-4.09032,1.44623,0.550068,-0.970467,-2.15818,0.795349,4.08472,-3.10858,0.463077,4.7395,-12.908,-3.80013,-13.3629,19.8726,-4.93914,11.4437,8.94843,-2.22778,5.6109,-1.54307e-13,7.95139e-16,-37.5988,-20.7304,-64.3612,36.5967,-15.3473,-9.9047,17.8117,7.12502,16.0754,-11.5415,-1.54307e-13,7.95139e-16,-27.1839,11.5918,73.8289,22.9609,-11.4899,0.226752,32.0444,7.12502,25.8075,60.3138,-14.5094,4.63874,15.2851,34.9546,-17.9125,-4.70423,9.09709,-9.17424,-1.15184,-17.666,34.8495,-24.1073,13.4502,2.14908
9.41328,17.7852,-14.317,3.89671,-35.6837,-4.12479,1.32165,0.446362,-0.9398,-1.90888,0.647244,3.98543,-2.76475,0.379322,4.62337,-13.3335,-3.92056,-13.1109,19.7409,-5.13892,11.612,9.00831,-2.27232,5.59796,-9.0944e-14,3.57812e-14,-37.0996,-20.9675,-64.8182,36.5289,-15.3996,-9.58621,17.9111,7.12502,16.3821,-11.4171,-9.0944e-14,3.57812e-14,-26.6364,11.5518,73.7313,23.0349,-11.4312,0.223946,32.0811,7.12502,25.8049,60.3509,-14.6615,4.80488,15.2624,34.9548,-17.8856,-4.55476,8.68028,-9.14739,-1.01289,-17.7048,34.8331,-24.156,13.7348,2.20032
9.41715,17.7828,-14.3144,3.72785,-36.1201,-3.82732,1.24917,0.461708,-1.11953,-1.99709,0.663587,3.92544,-2.81801,0.392694,4.66281,-12.6827,-4.07807,-13.5249,19.4816,-5.40151,11.9081,8.85582,-2.41761,5.73792,2.86995e-14,-4.69132e-14,-37.4119,-21.6049,-64.2837,36.2841,-14.7719,-9.29912,18.2587,7.12502,16.6585,-11.0464,2.86995e-14,-4.69132e-14,-26.5735,10.9918,74.0132,23.0665,-11.1958,0.539938,32.4568,7.12502,26.1074,60.6822,-14.7662,4.79113,14.9158,34.9493,-17.8296,-4.32183,6.94768,-9.07186,-0.867317,-18.0729,34.8521,-24.2309,14.0376,2.0497
9.42144,17.783,-14.316,3.83789,-36.5636,-3.79918,1.08651,0.355656,-1.20133,-1.88935,0.514991,3.903,-2.60206,0.315133,4.69123,-13.1852,-4.2246,-13.1747,19.722,-5.57539,11.6095,9.03844,-2.4883,5.55241,4.12478e-15,1.51076e-14,-37.001,-22.2288,-64.3243,35.9087,-13.9546,-9.40085,18.433,7.12502,16.5605,-10.8803,4.12478e-15,1.51076e-14,-26.2321,10.9309,74.0325,23.2647,-10.8259,1.24724,33.3065,7.12502,26.7845,61.4301,-15.0187,4.91011,14.8361,34.9504,-17.767,-4.0533,6.00165,-9.15247,-0.84686,-18.1879,34.8876,-24.3188,14.3839,2.23553
9.42947,17.7845,-14.3264,4.19601,-36.8899,-4.12985,1.21128,0.259603,-1.07441,-2.08425,0.397365,4.06908,-2.86403,0.260961,4.79828,-12.9984,-4.36181,-13.2594,19.9163,-5.7498,11.4129,9.09229,-2.60431,5.4801,-5.09137e-14,2.14687e-14,-37.1289,-22.0171,-64.2231,35.8842,-13.8717,-9.71458,18.2859,7.12502,16.2585,-11.0524,-5.09137e-14,2.14687e-14,-26.397,11.1137,74.1291,23.3865,-10.8421,1.68758,33.9935,7.12502,27.2058,62.0519,-15.3139,5.13506,15.1149,34.9621,-17.7161,-3.9397,6.0033,-9.36163,-0.546277,-17.8633,34.9014,-24.2854,14.3504,2.22724
9.43591,17.7825,-14.333,4.30188,-37.2693,-4.20786,1.43375,0.128663,-1.21217,-2.2269,0.226139,4.1883,-3.12366,0.185335,5.01054,-12.8394,-4.41794,-13.4892,19.9912,-5.8494,11.5882,9.11473,-2.65866,5.57338,-1.14972e-13,-1.27222e-14,-37.2033,-21.3711,-64.383,36.0307,-14.2808,-9.68673,18.2858,7.12502,16.2853,-11.0503,-1.14972e-13,-1.27222e-14,-26.5394,11.462,74.1277,23.4338,-11.0267,1.38145,33.8606,7.12502,26.9129,61.9645,-15.4914,5.20429,15.1381,34.974,-17.681,-3.62714,6.39201,-9.40687,-0.11823,-17.7935,34.8965,-24.1957,14.3896,1.35002
9.43908,17.781,-14.3285,4.17311,-37.7837,-4.0348,1.47646,0.120737,-1.40628,-2.23646,0.209946,4.15876,-3.15717,0.182381,5.09124,-12.7205,-4.52636,-13.5573,20.0148,-6.03455,11.6989,9.13272,-2.74516,5.60277,-2.41523e-14,-3.18055e-15,-37.3101,-21.0129,-64.4631,36.0975,-14.4969,-9.36411,18.5226,7.12502,16.5959,-10.7878,-2.41523e-14,-3.18055e-15,-26.4778,11.2815,74.277,23.5689,-11.0082,0.960629,33.6643,7.12502,26.5102,61.8295,-15.555,5.21941,14.8884,34.9924,-17.6683,-3.03589,7.08366,-9.23092,-0.356392,-18.1225,34.8685,-24.3333,15.0668,1.27941
