JuanDHNZ/ProyectoFinalCD/preprocessing/sports_trials_csv/10_05.csv
root1,root2,root3,root4,root5,root6,lowerback1,lowerback2,lowerback3,upperback1,upperback2,upperback3,thorax1,thorax2,thorax3,lowerneck1,lowerneck2,lowerneck3,upperneck1,upperneck2,upperneck3,head1,head2,head3,rclavicle1,rclavicle2,rhumerus1,rhumerus2,rhumerus3,rradius1,rwrist1,rhand1,rhand2,rfingers1,rthumb1,rthumb2,lclavicle1,lclavicle2,lhumerus1,lhumerus2,lhumerus3,lradius1,lwrist1,lhand1,lhand2,lfingers1,lthumb1,lthumb2,rfemur1,rfemur2,rfemur3,rtibia1,rfoot1,rfoot2,rtoes1,lfemur1,lfemur2,lfemur3,ltibia1,lfoot1,lfoot2,ltoes1
11.8616,17.8214,-38.4744,7.01194,-18.4281,-0.411305,2.19425,-1.62706,-5.44671,-4.26916,-2.28993,3.78292,-5.3276,-0.828339,7.20087,-5.22495,-10.4481,-19.5721,13.2302,-14.0463,12.3195,7.17745,-7.0434,5.82898,5.37464e-14,-8.74653e-15,-36.734,-13.7238,-74.1951,29.6924,-12.1916,-12.7821,17.9262,7.12502,13.3033,-11.6292,5.37464e-14,-8.74653e-15,-33.3596,10.7662,88.7513,25.0768,-9.91623,-3.31803,32.8788,7.12502,22.4087,61.599,-17.5006,3.51161,23.8673,40.1301,-25.7245,-12.4239,18.5047,-16.2588,-4.57143,-20.256,37.9039,-24.4489,10.7888,5.31509
11.8595,17.8242,-38.4774,7.065,-18.324,-0.376108,2.18828,-1.64083,-5.49362,-4.29192,-2.31094,3.77712,-5.34379,-0.835656,7.22339,-5.28736,-10.4506,-19.5772,13.2417,-14.0566,12.4278,7.20213,-7.03981,5.86196,4.3919e-14,1.35174e-14,-36.7278,-13.8969,-74.1355,29.5972,-11.9844,-12.83,18.0386,7.12502,13.2571,-11.5198,4.3919e-14,1.35174e-14,-33.3673,10.7938,88.7322,25.0904,-10.0284,-3.3546,32.7172,7.12502,22.3736,61.4416,-17.5847,3.53005,23.8388,40.1885,-25.8907,-12.4295,19.0528,-16.317,-4.67577,-20.2629,37.8743,-23.4998,12.1508,-5.87351
11.857,17.8231,-38.484,7.10731,-18.2452,-0.428735,2.22641,-1.65894,-5.4666,-4.2909,-2.33473,3.79569,-5.36077,-0.847576,7.2308,-5.46423,-10.4475,-19.612,13.1587,-14.0422,12.6405,7.22226,-7.01364,5.93273,1.02001e-14,-6.36111e-15,-36.6848,-13.9951,-74.1432,29.5514,-11.9058,-12.8802,18.0074,7.12502,13.2087,-11.5542,1.02001e-14,-6.36111e-15,-33.3184,10.7308,88.7347,25.0983,-9.91365,-3.54727,32.7651,7.12502,22.1886,61.5116,-17.5983,3.53781,23.9309,40.1255,-25.8632,-12.5621,18.9962,-16.4074,-4.63924,-20.1665,37.9568,-23.8944,11.5696,-2.48595
11.8552,17.8238,-38.4917,7.14797,-18.138,-0.508104,2.27281,-1.68663,-5.39462,-4.27082,-2.36897,3.82062,-5.36159,-0.867682,7.21936,-5.66382,-10.4813,-19.6033,13.5025,-14.073,12.5781,7.36811,-7.02795,5.89634,3.34579e-14,3.89618e-14,-36.605,-13.9616,-74.2284,29.5454,-11.9383,-12.987,17.9742,7.12502,13.1058,-11.594,3.34579e-14,3.89618e-14,-33.2996,10.7138,88.7309,25.1998,-9.74405,-3.33157,33.5595,7.12502,22.3957,62.2812,-17.6047,3.52177,24.0457,40.0685,-25.8543,-12.5207,19.7934,-16.494,-4.60123,-20.0396,38.0185,-24.2295,10.6724,3.07356
11.855,17.8262,-38.4929,7.21476,-18.1513,-0.604838,2.20928,-1.64511,-5.24188,-4.2127,-2.30373,3.78818,-5.27944,-0.84725,7.08774,-5.94556,-10.5894,-19.4024,13.6269,-14.1778,12.4335,7.4491,-7.06674,5.78778,6.56114e-14,1.66979e-14,-36.5355,-14.1542,-74.2986,29.5202,-11.9052,-13.0756,18.0168,7.12502,13.0203,-11.5569,6.56114e-14,1.66979e-14,-33.1624,10.55,88.7181,25.1475,-9.74516,-3.07003,34.1847,7.12502,22.6468,62.876,-17.6143,3.56264,24.1315,40.0032,-25.8737,-12.4273,20.8053,-16.5464,-4.58898,-19.9328,38.0728,-23.7829,10.9563,0.570024
11.8556,17.8246,-38.4872,7.18535,-18.3399,-0.670493,2.10481,-1.55298,-5.09895,-4.13684,-2.17017,3.74304,-5.16571,-0.794031,6.9424,-6.04132,-10.6368,-19.3517,13.6765,-14.2325,12.4154,7.4859,-7.08804,5.76125,3.68373e-15,1.27222e-14,-36.5499,-14.3387,-74.3247,29.5087,-11.8549,-13.1523,18.0596,7.12502,12.9464,-11.5188,3.68373e-15,1.27222e-14,-33.0718,10.3744,88.702,25.0873,-9.89059,-2.8734,34.3035,7.12502,22.8355,62.9716,-17.5315,3.6533,24.1625,39.96,-25.8816,-12.4204,20.5463,-16.4436,-4.59697,-19.9174,38.094,-23.5023,11.7258,-3.85044
11.8548,17.8227,-38.4853,7.13394,-18.3531,-0.625212,2.18478,-1.55037,-5.12921,-4.22615,-2.17054,3.77311,-5.30452,-0.784468,6.99893,-5.92746,-10.5748,-19.6112,13.8442,-14.1684,12.4954,7.53599,-7.07234,5.84267,1.53685e-14,-2.62396e-14,-36.7571,-14.1882,-74.2318,29.5465,-11.8821,-13.1946,18.0335,7.12502,12.9056,-11.5475,1.53685e-14,-2.62396e-14,-33.2999,10.4193,88.7096,25.1843,-9.97328,-2.54443,34.5439,7.12502,23.1511,63.1728,-17.4775,3.65311,24.1126,39.9382,-25.9728,-12.3808,20.3906,-16.413,-4.65476,-19.983,38.0901,-24.4845,10.719,5.32865
11.8519,17.8236,-38.4901,7.16604,-18.2402,-0.58566,2.34597,-1.57093,-5.23254,-4.35635,-2.20804,3.83248,-5.5249,-0.785009,7.13653,-5.86429,-10.5481,-19.7736,13.9559,-14.1383,12.5111,7.57005,-7.06928,5.88012,5.27773e-14,-1.03368e-14,-36.9278,-14.0613,-74.1336,29.5987,-11.9404,-13.265,17.9282,7.12502,12.8378,-11.6571,5.27773e-14,-1.03368e-14,-33.5164,10.5688,88.7199,25.2823,-10.0829,-2.35129,34.7349,7.12502,23.3364,63.3403,-17.5176,3.64112,24.1051,39.9288,-26.0089,-12.3922,20.6462,-16.5121,-4.66504,-19.9811,38.0743,-23.5381,12.0397,-5.73118
11.8506,17.8212,-38.4908,7.17464,-18.2925,-0.597322,2.29262,-1.53318,-5.20928,-4.29131,-2.15412,3.81942,-5.43483,-0.764777,7.10115,-5.79025,-10.575,-19.7364,13.8138,-14.1826,12.5217,7.51632,-7.0888,5.87491,-1.41634e-15,-2.78299e-14,-36.8075,-14.1604,-74.2118,29.5863,-11.9288,-13.4362,17.787,7.12502,12.6727,-11.8085,-1.41634e-15,-2.78299e-14,-33.4679,10.657,88.6829,25.3422,-10.2613,-2.49168,34.4566,7.12502,23.2017,63.079,-17.5144,3.61291,24.1277,39.9113,-25.8751,-12.5075,20.0401,-16.5127,-4.66283,-19.9714,38.07,-24.427,10.7388,5.08889
11.8513,17.818,-38.4866,7.11232,-18.4054,-0.578667,2.16416,-1.48273,-5.12122,-4.17615,-2.07939,3.74199,-5.25524,-0.743135,6.95328,-5.76869,-10.5868,-19.6792,13.7555,-14.2157,12.5864,7.49964,-7.09782,5.88462,-2.12141e-14,-1.03368e-14,-36.695,-14.3112,-74.3138,29.5456,-11.8419,-13.475,17.7224,7.12502,12.6353,-11.8755,-2.12141e-14,-1.03368e-14,-33.3504,10.5682,88.6424,25.3331,-10.3143,-2.7081,34.0678,7.12502,22.9941,62.7163,-17.4408,3.59091,24.0874,39.879,-25.775,-12.4998,19.7448,-16.4225,-4.69861,-20.0333,38.0861,-24.1003,11.2933,1.95652
11.8506,17.8186,-38.4842,7.07125,-18.4453,-0.521077,2.12165,-1.44193,-5.11502,-4.1529,-2.02495,3.68108,-5.21668,-0.719612,6.87884,-5.81623,-10.5875,-19.6437,13.8899,-14.2279,12.6037,7.55223,-7.10067,5.88141,-8.74031e-15,6.36111e-15,-36.7946,-14.3254,-74.3433,29.6036,-11.8963,-13.3214,17.7714,7.12502,12.7834,-11.8173,-8.74031e-15,6.36111e-15,-33.3097,10.3659,88.6744,25.2673,-10.2167,-2.98854,33.6531,7.12502,22.725,62.3349,-17.3987,3.57424,24.0125,39.849,-25.821,-12.3878,20.0583,-16.3772,-4.71153,-20.1055,38.0984,-23.6006,11.6147,-0.736228
11.8486,17.8212,-38.4881,7.09582,-18.3623,-0.46742,2.17552,-1.45767,-5.19747,-4.21448,-2.05162,3.70612,-5.30604,-0.723771,6.95905,-5.55086,-10.5564,-19.7332,13.841,-14.2243,12.6163,7.49709,-7.11304,5.91276,5.07149e-14,-1.66979e-14,-36.937,-14.2057,-74.3003,29.6828,-11.9672,-13.3046,17.7803,7.12502,12.7996,-11.8073,5.07149e-14,-1.66979e-14,-33.3825,10.3001,88.7436,25.2296,-10.2052,-3.26826,32.9667,7.12502,22.4565,61.6812,-17.4422,3.4831,23.9704,39.8289,-25.8032,-12.3708,19.5363,-16.4379,-4.69719,-20.1304,38.0997,-23.1933,11.9707,-4.85045
11.8472,17.8207,-38.492,7.10021,-18.3361,-0.474427,2.13296,-1.47067,-5.19233,-4.14074,-2.06609,3.71958,-5.20085,-0.737025,6.96689,-5.3822,-10.5554,-19.7588,13.6488,-14.2443,12.6733,7.41493,-7.12461,5.94117,2.5637e-14,1.59028e-14,-36.7934,-14.1981,-74.3646,29.6828,-11.9638,-13.3775,17.7053,7.12502,12.7293,-11.8867,2.5637e-14,1.59028e-14,-33.2333,10.3213,88.7508,25.158,-10.3531,-3.44931,32.2079,7.12502,22.2827,60.9432,-17.45,3.46237,23.9867,39.8174,-25.8014,-12.319,19.094,-16.4675,-4.7218,-20.1104,38.0978,-24.1907,10.4834,6.69712
11.8462,17.8179,-38.4933,7.06438,-18.4434,-0.520109,1.77489,-1.46105,-4.9851,-3.81221,-2.03294,3.58649,-4.66268,-0.760667,6.67754,-5.52755,-10.5815,-19.5271,13.3674,-14.2688,12.7866,7.34395,-7.10844,5.93398,-6.25648e-14,1.59028e-14,-36.309,-14.4729,-74.7105,29.5992,-11.8624,-13.3718,17.7515,7.12502,12.7348,-11.8401,-6.25648e-14,1.59028e-14,-32.7131,10.2791,88.5847,25.039,-10.4255,-3.55512,31.824,7.12502,22.1811,60.5714,-17.4032,3.5565,24.0314,39.8072,-25.8961,-12.2382,19.4702,-16.4114,-4.75397,-20.0802,38.0963,-23.397,12.1968,-5.19102
11.8439,17.8171,-38.4978,7.06566,-18.5015,-0.548788,2.42973,-1.44758,-5.27508,-4.23146,-2.04698,3.83429,-5.46533,-0.708221,7.15279,-5.26741,-10.4606,-19.7091,13.5668,-14.0964,12.4659,7.32347,-7.06791,5.89016,-1.32937e-15,-3.18055e-15,-36.9002,-13.9123,-74.3197,29.6375,-11.9002,-13.3815,17.8239,7.12502,12.7254,-11.7684,-1.32937e-15,-3.18055e-15,-33.4348,10.6644,88.71,25.0811,-10.4826,-3.48996,32.0882,7.12502,22.2437,60.8281,-17.406,3.62611,24.0733,39.7929,-25.8298,-12.3305,19.6727,-16.4104,-4.72933,-20.0421,38.0947,-24.5276,10.9974,5.27119
11.8425,17.8179,-38.4981,7.03911,-18.515,-0.535641,2.13791,-1.4223,-5.09987,-4.00204,-1.99819,3.66571,-5.07115,-0.716622,6.84767,-5.36383,-10.4962,-19.5476,13.3964,-14.166,12.6858,7.30096,-7.07388,5.92601,-1.00635e-14,-2.38542e-14,-36.6169,-14.289,-74.5473,29.5794,-11.7904,-13.4265,17.8199,7.12502,12.6821,-11.775,-1.00635e-14,-2.38542e-14,-33.0299,10.2645,88.6533,25.0023,-10.2662,-3.42376,32.4389,7.12502,22.3072,61.1712,-17.3813,3.5764,24.0617,39.7708,-25.6902,-12.3981,19.583,-16.3745,-4.71892,-20.0582,38.091,-24.4587,11.1056,4.36402
11.8429,17.8178,-38.4932,6.98043,-18.5437,-0.53048,2.08885,-1.41505,-5.04585,-3.93208,-1.98443,3.64373,-4.97306,-0.717931,6.78794,-5.42601,-10.5001,-19.5421,13.3658,-14.1679,12.7501,7.30666,-7.06763,5.94371,3.51243e-14,1.59028e-15,-36.5302,-14.2205,-74.6471,29.5812,-11.8939,-13.5152,17.797,7.12502,12.5966,-11.8032,3.51243e-14,1.59028e-15,-32.9367,10.2271,88.6621,24.9801,-10.1441,-3.54487,32.2272,7.12502,22.191,60.9734,-17.3061,3.49745,24.039,39.7482,-25.6972,-12.2513,20.0534,-16.2758,-4.75625,-20.0942,38.0848,-23.8334,11.6644,0.0940804
11.8419,17.8168,-38.4915,6.93903,-18.602,-0.5436,2.16384,-1.38591,-5.06672,-3.9432,-1.94838,3.6656,-5.03227,-0.696014,6.82488,-5.32084,-10.5105,-19.4825,13.2323,-14.1839,12.6762,7.23772,-7.07948,5.91233,-9.79946e-15,-1.35174e-14,-36.5935,-14.0532,-74.688,29.6393,-12.0692,-13.62,17.7502,7.12502,12.4955,-11.8562,-9.79946e-15,-1.35174e-14,-32.9759,10.2546,88.6835,24.9797,-10.0883,-3.71139,31.9392,7.12502,22.0311,60.7044,-17.2414,3.48731,24.0453,39.7406,-25.6647,-12.1369,20.1122,-16.207,-4.75282,-20.0977,38.0685,-23.1871,12.292,-4.91084
11.8385,17.8181,-38.4939,6.95696,-18.6644,-0.550092,2.21154,-1.34382,-5.12103,-3.96824,-1.89645,3.66641,-5.09298,-0.66483,6.85698,-5.30629,-10.5471,-19.2668,13.2076,-14.2326,12.5209,7.20694,-7.10205,5.82117,-3.78312e-14,-2.46493e-14,-36.7304,-13.9937,-74.6863,29.7546,-12.1794,-13.5184,17.747,7.12502,12.5934,-11.8534,-3.78312e-14,-2.46493e-14,-33.0129,10.0661,88.7459,25.0049,-9.9308,-3.78994,31.9499,7.12502,21.9557,60.7239,-17.2383,3.58287,24.0504,39.7433,-25.6443,-12.0866,19.9811,-16.2254,-4.65995,-20.076,38.052,-24.0082,10.9312,5.46644
11.8356,17.8218,-38.4964,7.06211,-18.6743,-0.575859,2.17238,-1.34255,-5.13208,-4.02334,-1.89296,3.69508,-5.12848,-0.659321,6.89418,-5.20188,-10.5241,-19.1999,13.2154,-14.219,12.462,7.17922,-7.10033,5.79858,-2.08103e-15,3.10104e-14,-36.8236,-13.9279,-74.6414,29.8162,-12.2211,-13.307,17.8236,7.12502,12.7972,-11.7641,-2.08103e-15,3.10104e-14,-33.0897,9.98012,88.802,25.3449,-9.21749,-3.34574,33.0484,7.12502,22.3821,61.7718,-17.3538,3.65978,24.0771,39.7594,-25.7195,-12.1022,20.3771,-16.341,-4.55887,-20.0155,38.0406,-23.1874,12.3035,-5.97386
11.8358,17.8232,-38.4966,7.12428,-18.6536,-0.581207,2.16414,-1.35547,-5.12429,-4.07485,-1.90887,3.72129,-5.17533,-0.663932,6.92009,-4.93845,-10.4712,-19.2875,13.1437,-14.1897,12.5179,7.11632,-7.09722,5.84805,1.01504e-14,1.82882e-14,-36.864,-13.8425,-74.6211,29.8296,-12.2564,-13.1982,17.8396,7.12502,12.9021,-11.7416,1.01504e-14,1.82882e-14,-33.2078,10.0644,88.7837,25.0718,-10.0677,-3.77043,31.5797,7.12502,21.9744,60.3515,-17.4711,3.58417,24.0909,39.7869,-25.7319,-12.2341,20.1624,-16.4123,-4.58058,-20.0021,38.0361,-23.7655,11.6877,-0.865393
11.8365,17.822,-38.5003,7.12161,-18.5664,-0.566352,2.19876,-1.36455,-5.09171,-4.0615,-1.92192,3.69098,-5.18044,-0.672518,6.87045,-4.88687,-10.4789,-19.2773,13.1319,-14.2187,12.567,7.11128,-7.10974,5.86167,4.60031e-14,-4.29375e-14,-36.8484,-13.8891,-74.6624,29.8465,-12.2291,-13.1475,17.8584,7.12502,12.951,-11.7197,4.60031e-14,-4.29375e-14,-33.1341,9.96497,88.7855,24.9674,-10.1947,-4.00793,31.2618,7.12502,21.7463,60.0602,-17.5039,3.48016,24.1011,39.8075,-25.7437,-12.2482,20.3587,-16.4393,-4.63689,-19.9994,38.0427,-24.296,10.9789,4.57762
11.8333,17.8246,-38.5079,7.13765,-18.467,-0.582542,2.21593,-1.38443,-5.0539,-4.0317,-1.94801,3.67114,-5.15598,-0.689192,6.82851,-4.892,-10.4916,-19.2866,13.0661,-14.2405,12.6429,7.10115,-7.11514,5.88534,6.7975e-15,3.81667e-14,-36.8089,-13.8707,-74.7575,29.8961,-12.2035,-13.3109,17.8008,7.12502,12.7935,-11.7872,6.7975e-15,3.81667e-14,-32.9712,9.74884,88.8033,24.8931,-9.95516,-4.10552,31.4651,7.12502,21.6526,60.2744,-17.4972,3.55052,24.1379,39.8152,-25.8975,-12.026,21.9472,-16.4762,-4.55973,-19.9308,38.0511,-23.7512,11.4704,-0.700859
11.8301,17.826,-38.5112,7.12397,-18.4149,-0.563441,2.33586,-1.42311,-5.12506,-4.09285,-2.00614,3.72849,-5.27722,-0.707696,6.94126,-4.79047,-10.4729,-19.3941,12.9346,-14.213,12.6589,7.04624,-7.1086,5.91576,4.3596e-14,-1.90833e-14,-36.8605,-13.6262,-74.7648,29.9291,-12.2771,-13.5657,17.6945,7.12502,12.5479,-11.9087,4.3596e-14,-1.90833e-14,-33.0179,9.67151,88.8791,24.8875,-9.67991,-4.09531,31.6537,7.12502,21.6624,60.4618,-17.4607,3.58571,24.1174,39.8109,-26.0059,-11.8371,22.6262,-16.4682,-4.5324,-19.9261,38.0557,-23.1893,11.9959,-5.80815
11.8292,17.8219,-38.5093,7.07941,-18.4593,-0.520661,2.46162,-1.44342,-5.23355,-4.15092,-2.04156,3.79598,-5.40095,-0.712802,7.08572,-4.87042,-10.4593,-19.459,12.9442,-14.1621,12.594,7.05484,-7.08772,5.9066,-1.90833e-14,-1.90833e-14,-36.9038,-13.3977,-74.7304,29.9462,-12.4526,-13.6017,17.6383,7.12502,12.5132,-11.967,-1.90833e-14,-1.90833e-14,-33.1395,9.78262,88.9292,24.839,-9.63634,-4.36163,31.2534,7.12502,21.4067,60.0908,-17.4221,3.52401,24.0745,39.7993,-25.8685,-11.8817,21.6783,-16.4242,-4.60252,-19.9829,38.0552,-24.0133,10.6437,5.31144
11.8282,17.8212,-38.5041,7.0546,-18.6288,-0.508486,2.39996,-1.43149,-5.24772,-4.12384,-2.02356,3.80026,-5.33929,-0.706409,7.09386,-5.00151,-10.4077,-19.4844,13.0241,-14.0772,12.6378,7.09411,-7.04155,5.9308,-2.21148e-15,3.18055e-15,-36.8745,-13.2969,-74.7925,29.9491,-12.564,-13.6122,17.5951,7.12502,12.503,-12.0108,-2.21148e-15,3.18055e-15,-33.1552,9.90768,88.8706,24.8207,-9.6154,-4.28759,31.2683,7.12502,21.4778,60.0977,-17.4032,3.56442,24.0442,39.7774,-25.6055,-12.0221,20.3286,-16.3512,-4.59017,-20.0341,38.0538,-23.2396,12.1624,-5.54906
11.827,17.825,-38.4996,7.03266,-18.7214,-0.494725,2.38818,-1.42972,-5.25249,-4.10659,-2.02059,3.80781,-5.31439,-0.706046,7.10344,-5.11974,-10.3513,-19.5217,13.0893,-13.9908,12.7125,7.1293,-6.99372,5.96831,-2.66931e-14,-1.59028e-15,-36.8248,-13.272,-74.8133,29.8942,-12.4926,-13.6053,17.6873,7.12502,12.5097,-11.9182,-2.66931e-14,-1.59028e-15,-33.1548,9.99521,88.8416,24.929,-9.48253,-3.95567,31.8559,7.12502,21.7965,60.6485,-17.3914,3.5849,24.0177,39.7589,-25.5195,-12.1346,19.6587,-16.2801,-4.55599,-20.0782,38.0482,-23.8121,11.5919,0.0397939
11.8253,17.8264,-38.4999,7.01141,-18.6746,-0.467775,2.46688,-1.45704,-5.30487,-4.08948,-2.06166,3.84162,-5.33251,-0.723253,7.17512,-5.31098,-10.3543,-19.5791,13.0975,-13.9612,12.7693,7.1689,-6.97102,5.99106,4.46209e-14,-4.77083e-14,-36.7107,-13.247,-74.8178,29.8513,-12.4171,-13.6032,17.7769,7.12502,12.5116,-11.8285,4.46209e-14,-4.77083e-14,-33.1036,10.0479,88.8856,25.0412,-9.3091,-3.83003,32.2239,7.12502,21.9172,61.0025,-17.3688,3.53301,24.0065,39.7579,-25.7314,-12.091,20.3385,-16.2643,-4.57389,-20.0961,38.039,-24.3103,10.9258,5.60772
11.8237,17.8247,-38.5014,7.01025,-18.6418,-0.436409,2.46853,-1.45313,-5.31835,-4.1032,-2.05772,3.83001,-5.34867,-0.719928,7.17074,-5.30726,-10.3833,-19.6711,13.0774,-14.003,12.844,7.1816,-6.99079,6.02436,-2.0686e-14,2.46493e-14,-36.7294,-13.2287,-74.8302,29.8802,-12.5379,-13.5877,17.7094,7.12502,12.5267,-11.8951,-2.0686e-14,2.46493e-14,-33.1665,10.0057,88.9103,25.1377,-9.21332,-3.75989,32.4141,7.12502,21.9845,61.1847,-17.3516,3.50981,23.9721,39.7621,-25.9294,-11.8593,21.1587,-16.2932,-4.55023,-20.1126,38.0323,-23.7874,11.5554,0.203765
11.8218,17.824,-38.5047,7.03538,-18.5814,-0.367053,2.48733,-1.44699,-5.37799,-4.18436,-2.05446,3.81673,-5.44521,-0.709893,7.19446,-5.13966,-10.4002,-19.7692,13.038,-14.0478,12.8584,7.15606,-7.02239,6.04565,-1.13866e-14,1.43125e-14,-36.8527,-13.2036,-74.7775,29.8995,-12.665,-13.5747,17.5817,7.12502,12.5391,-12.0221,-1.13866e-14,1.43125e-14,-33.325,10.0547,88.9056,25.1323,-9.36526,-3.77019,32.4243,7.12502,21.9746,61.1961,-17.4005,3.49154,23.9042,39.7681,-25.9467,-11.7188,21.5685,-16.3759,-4.47949,-20.1537,38.0255,-23.2715,12.087,-5.43051
11.8205,17.8244,-38.5072,7.05384,-18.505,-0.326899,2.46247,-1.4654,-5.41625,-4.17602,-2.0804,3.80993,-5.41708,-0.722745,7.20933,-5.11722,-10.4194,-19.7589,13.0163,-14.0718,12.8238,7.146,-7.03591,6.02993,-1.05107e-14,-2.94201e-14,-36.7895,-13.1891,-74.8117,29.8803,-12.6554,-13.7807,17.4218,7.12502,12.3406,-12.194,-1.05107e-14,-2.94201e-14,-33.289,10.1596,88.8658,25.1263,-9.49715,-3.74169,32.5132,7.12502,22.002,61.2818,-17.4594,3.38715,23.8892,39.7704,-25.8311,-11.8015,21.5729,-16.4293,-4.48667,-20.1696,38.0237,-24.0135,10.656,4.72102
11.82,17.8219,-38.5033,7.03932,-18.4965,-0.376241,2.40253,-1.44763,-5.31939,-4.11471,-2.04928,3.79167,-5.32546,-0.717159,7.12719,-5.27954,-10.473,-19.6933,13.254,-14.129,12.735,7.24899,-7.06168,5.97385,3.47625e-14,-2.8625e-14,-36.7367,-13.1371,-74.9098,29.9536,-12.7094,-13.9868,17.2969,7.12502,12.1418,-12.3308,3.47625e-14,-2.8625e-14,-33.2143,10.0602,88.8752,25.1632,-9.45125,-3.64513,32.6158,7.12502,22.0947,61.3734,-17.4291,3.28533,23.9455,39.774,-25.7002,-11.8599,21.0318,-16.3952,-4.51692,-20.1288,38.0259,-23.1687,12.1227,-6.29394
11.8194,17.8187,-38.5004,7.03197,-18.5054,-0.400946,2.4165,-1.41431,-5.25529,-4.13041,-2.00234,3.77894,-5.35958,-0.694884,7.07502,-5.40022,-10.5393,-19.6751,13.5804,-14.2051,12.5855,7.37602,-7.10529,5.90344,7.76503e-16,-4.77083e-15,-36.8544,-13.0297,-74.9394,30.1099,-12.8334,-13.9776,17.2886,7.12502,12.1507,-12.3385,7.76503e-16,-4.77083e-15,-33.2354,9.9618,88.8981,25.1087,-9.53753,-3.5758,32.494,7.12502,22.1613,61.2437,-17.3854,3.29749,23.961,39.7742,-25.7277,-11.7953,20.8296,-16.3857,-4.48323,-20.1092,38.034,-23.9402,10.8115,4.40192
11.8184,17.8187,-38.5042,7.03838,-18.4894,-0.339917,2.49429,-1.41942,-5.33378,-4.20099,-2.01634,3.79367,-5.47479,-0.691572,7.14279,-5.4395,-10.5485,-19.7296,13.7868,-14.1995,12.4469,7.44277,-7.11487,5.86332,-5.50137e-14,-2.46493e-14,-36.939,-12.964,-74.8784,30.1345,-12.7933,-13.7788,17.4186,7.12502,12.3424,-12.1971,-5.50137e-14,-2.46493e-14,-33.3324,10.0821,88.8777,25.113,-9.66554,-3.57105,32.4742,7.12502,22.1658,61.2234,-17.4135,3.32006,23.9045,39.7693,-25.7828,-11.8417,20.8492,-16.433,-4.51855,-20.1619,38.0438,-23.221,12.1791,-5.97652
11.8178,17.8189,-38.5025,7.06386,-18.54,-0.353402,2.51176,-1.3967,-5.32415,-4.25529,-1.98503,3.82456,-5.5471,-0.671266,7.17137,-5.4926,-10.5318,-19.796,13.7857,-14.1517,12.4126,7.44623,-7.09523,5.86578,2.69788e-14,-3.18055e-15,-36.9705,-12.9688,-74.7795,30.0692,-12.7681,-13.6328,17.4959,7.12502,12.4831,-12.1112,2.69788e-14,-3.18055e-15,-33.4282,10.1407,88.9028,25.1126,-9.79794,-3.57345,32.6192,7.12502,22.1635,61.3687,-17.4374,3.3292,23.9155,39.7663,-25.7434,-11.8833,20.4277,-16.4399,-4.58356,-20.1599,38.0433,-23.9216,10.8898,4.65262
11.8173,17.8181,-38.4903,7.05761,-18.7658,-0.471821,2.43795,-1.29972,-5.18718,-4.24189,-1.84339,3.84723,-5.51581,-0.607757,7.10473,-4.80466,-10.4419,-19.99,13.5538,-14.1483,12.5647,7.27662,-7.11901,5.98131,-3.88251e-15,-2.38542e-15,-37.0369,-12.9527,-74.7178,30.0876,-12.9483,-13.5821,17.4826,7.12502,12.532,-12.1216,-3.88251e-15,-2.38542e-15,-33.4621,10.0777,88.9508,25.0658,-9.97438,-3.53339,32.7327,7.12502,22.202,61.4777,-17.3561,3.40636,23.9991,39.7632,-25.7542,-11.792,19.7577,-16.3016,-4.51856,-20.0941,38.0327,-23.1827,12.3468,-5.84091
11.8161,17.8186,-38.4828,6.9919,-18.9376,-0.528116,2.41533,-1.21617,-5.13863,-4.17333,-1.72658,3.86483,-5.44935,-0.555578,7.08542,-5.16833,-10.5564,-20.0149,13.5737,-14.2298,12.5474,7.36155,-7.14503,5.94878,5.09013e-14,-3.02153e-14,-37.037,-12.9376,-74.6823,30.1722,-13.0609,-13.5675,17.444,7.12502,12.5461,-12.1593,5.09013e-14,-3.02153e-14,-33.4814,10.0293,89.0265,25.1483,-10.0923,-3.4742,32.7741,7.12502,22.2588,61.5122,-17.2334,3.43975,24.0226,39.7543,-25.8521,-11.6652,19.4007,-16.1289,-4.49324,-20.079,38.0273,-23.9168,11.7778,-0.157964
11.8144,17.8188,-38.4832,6.94086,-18.9005,-0.477794,2.42219,-1.2101,-5.18884,-4.12665,-1.72096,3.86653,-5.40368,-0.553562,7.11458,-5.3717,-10.6108,-20.0475,13.6695,-14.2618,12.5054,7.43321,-7.15714,5.92431,5.3206e-14,-3.97569e-15,-36.9918,-12.9943,-74.6311,30.2357,-13.0021,-13.5915,17.4004,7.12502,12.5229,-12.2044,5.3206e-14,-3.97569e-15,-33.5327,10.0162,89.0939,25.2476,-10.2265,-3.41493,32.6805,7.12502,22.3157,61.4119,-17.1823,3.36759,23.9712,39.7464,-25.8557,-11.5888,19.6569,-16.075,-4.59388,-20.1282,38.0282,-24.4832,11.0226,6.07046
11.8129,17.8173,-38.4849,6.92064,-18.7712,-0.402571,2.38959,-1.28443,-5.24471,-4.09783,-1.82294,3.85178,-5.33706,-0.605898,7.13469,-5.3653,-10.5869,-19.991,13.5932,-14.2244,12.4814,7.39462,-7.13717,5.9135,-3.80176e-15,2.22639e-14,-36.9126,-13.0332,-74.6396,30.2161,-12.9438,-13.4958,17.4166,7.12502,12.6152,-12.1825,-3.80176e-15,2.22639e-14,-33.5046,10.0204,89.0728,25.2314,-10.3038,-3.32538,32.7204,7.12502,22.4017,61.4414,-17.2,3.25455,23.9256,39.761,-25.7877,-11.6797,20,-16.0862,-4.71501,-20.1858,38.0242,-24.3546,10.982,5.97779
11.8119,17.815,-38.4843,6.95384,-18.7417,-0.381223,2.27766,-1.3211,-5.23217,-4.04094,-1.8683,3.81757,-5.20623,-0.636666,7.08683,-5.58709,-10.6028,-19.8076,13.5405,-14.2114,12.446,7.39699,-7.11431,5.86493,1.71048e-14,-2.3059e-14,-36.805,-13.0647,-74.7278,30.2166,-12.9767,-13.3656,17.4372,7.12502,12.7408,-12.154,1.71048e-14,-2.3059e-14,-33.3771,10.0018,89.0231,25.2014,-10.2034,-3.41825,32.6434,7.12502,22.3125,61.3751,-17.2682,3.2077,23.9131,39.7959,-25.7414,-11.7169,19.9748,-16.1335,-4.7713,-20.2002,38.0168,-24.299,11.3393,3.67504
11.8087,17.8147,-38.4879,7.01704,-18.7366,-0.365441,2.24864,-1.34327,-5.28877,-4.06198,-1.89934,3.83147,-5.20535,-0.649067,7.13572,-5.46239,-10.5501,-19.7742,13.4542,-14.1562,12.433,7.33416,-7.09116,5.86987,-4.63448e-14,1.66979e-14,-36.7733,-13.0063,-74.7577,30.2033,-12.8766,-13.4158,17.478,7.12502,12.6924,-12.1163,-4.63448e-14,1.66979e-14,-33.3664,10.0936,89.0061,25.1727,-10.0423,-3.74827,32.2202,7.12502,21.9957,60.9895,-17.3588,3.26457,23.8952,39.8265,-25.7454,-11.6508,19.9905,-16.2343,-4.72098,-20.181,38.0074,-24.2348,11.0067,5.37289
11.8037,17.8152,-38.5001,6.99117,-18.5594,-0.32875,2.44402,-1.41852,-5.40295,-4.10228,-2.01324,3.8604,-5.33817,-0.693885,7.24867,-5.46269,-10.5269,-19.814,13.4609,-14.1267,12.471,7.33732,-7.07689,5.89306,-3.33492e-14,-1.43125e-14,-36.7282,-13.0027,-74.7444,30.129,-12.7199,-13.4151,17.5675,7.12502,12.693,-12.0268,-3.33492e-14,-1.43125e-14,-33.373,10.2395,88.975,25.1079,-10.1212,-3.9214,32.0196,7.12502,21.8294,60.8083,-17.365,3.29964,23.9068,39.8525,-25.8194,-11.6435,20.7768,-16.2757,-4.71092,-20.1388,38.0007,-24.2849,10.7578,5.74141
11.8051,17.8124,-38.4862,6.90642,-18.8178,-0.353461,2.33118,-1.40274,-5.33476,-4.00443,-1.98225,3.88974,-5.17549,-0.690085,7.23089,-5.66712,-10.4848,-19.9092,13.6094,-14.0318,12.482,7.41314,-7.02931,5.91506,6.01727e-14,-1.59028e-14,-36.5778,-12.8941,-74.7704,30.0854,-12.7376,-13.2234,17.7118,7.12502,12.8778,-11.8709,6.01727e-14,-1.59028e-14,-33.3523,10.6725,88.8261,25.1397,-10.8084,-3.06158,32.5832,7.12502,22.6549,61.2735,-17.2467,3.36977,23.8794,39.8702,-25.8164,-11.3994,21.5429,-16.0702,-4.849,-20.2138,37.9891,-24.4055,11.1283,6.03974
11.803,17.8131,-38.4848,6.93006,-18.8156,-0.343825,2.26499,-1.47554,-5.35671,-3.98298,-2.07616,3.94725,-5.09717,-0.738847,7.30695,-5.91168,-10.4405,-20.0315,13.8525,-13.9256,12.4644,7.52492,-6.97945,5.93155,7.237e-16,2.94201e-14,-36.4424,-12.6102,-74.8759,30.1254,-12.8559,-13.3807,17.6646,7.12502,12.7262,-11.9276,7.237e-16,2.94201e-14,-33.3219,11.1594,88.6334,25.1961,-11.9299,-1.50248,33.4602,7.12502,24.1505,61.96,-17.2851,3.33647,23.8822,39.8815,-25.772,-11.4771,21.2701,-16.0956,-4.80043,-20.2242,37.9881,-24.3051,11.1404,5.97969
11.7988,17.8141,-38.4859,6.95774,-18.7963,-0.375137,2.22992,-1.43919,-5.28783,-3.92468,-2.02436,3.89184,-5.02708,-0.721265,7.20124,-6.14579,-10.537,-19.8756,13.976,-14.036,12.4249,7.61028,-7.01875,5.86713,3.22252e-14,7.95139e-16,-36.4066,-12.6319,-75.0085,30.2337,-12.9901,-13.7433,17.482,7.12502,12.3766,-12.1316,3.22252e-14,7.95139e-16,-33.1421,11.0719,88.5763,25.1768,-12.4762,-0.783997,33.8534,7.12502,24.8392,62.2599,-17.2977,3.35855,23.9287,39.8761,-25.794,-11.5565,21.136,-16.1429,-4.63099,-20.1638,37.9932,-23.7896,11.7462,-0.06744
11.797,17.815,-38.4819,6.94162,-18.7988,-0.397421,2.23753,-1.40044,-5.22022,-3.87795,-1.97066,3.85016,-4.99341,-0.700496,7.11327,-6.27619,-10.6322,-19.7153,13.9352,-14.1415,12.3323,7.61846,-7.06059,5.78908,8.19987e-15,-8.74653e-15,-36.3812,-12.7576,-75.0207,30.2305,-12.9758,-13.7725,17.5301,7.12502,12.3485,-12.0852,8.19987e-15,-8.74653e-15,-33.0024,10.7738,88.704,25.1272,-11.9388,-1.08812,34.0063,7.12502,24.5477,62.4527,-17.2443,3.36276,23.9487,39.8654,-25.9366,-11.4392,21.7669,-16.1202,-4.59854,-20.1409,38.0107,-23.4732,12.4194,-5.39503
11.7969,17.814,-38.4793,6.93126,-18.7485,-0.430187,2.29908,-1.43377,-5.17883,-3.89077,-2.01446,3.88582,-5.0351,-0.721289,7.13302,-6.25271,-10.6369,-19.7357,13.8658,-14.1341,12.2803,7.58817,-7.06129,5.77638,1.40159e-15,-3.18055e-15,-36.2836,-12.9351,-74.9131,30.0584,-12.8471,-13.6865,17.6475,7.12502,12.4314,-11.9628,1.40159e-15,-3.18055e-15,-33.0134,10.4512,89.0059,25.0739,-10.3901,-2.69959,33.6344,7.12502,23.0022,62.2818,-17.2089,3.26211,23.9981,39.8454,-25.9376,-11.4324,21.224,-16.1056,-4.67151,-20.1069,38.0399,-24.6026,11.1123,5.00626
11.7947,17.812,-38.4845,6.95962,-18.683,-0.456854,2.36435,-1.45511,-5.18129,-3.91032,-2.04458,3.91742,-5.08733,-0.732956,7.17349,-6.09194,-10.6167,-19.7184,13.7377,-14.1232,12.2534,7.51302,-7.06168,5.77402,1.78184e-14,9.54166e-15,-36.2086,-12.9921,-74.8841,30.0143,-12.8565,-13.7193,17.5356,7.12502,12.3997,-12.0767,1.78184e-14,9.54166e-15,-32.9911,10.98,88.735,25.0836,-11.8414,-1.372,33.6726,7.12502,24.2756,62.1557,-17.2471,3.14128,24.0549,39.827,-25.8375,-11.5357,20.3108,-16.1566,-4.6792,-20.0453,38.0735,-23.6447,12.3195,-5.68489
11.7921,17.8119,-38.489,6.98689,-18.6428,-0.455463,2.36593,-1.45321,-5.18484,-3.90356,-2.04241,3.9126,-5.08148,-0.732222,7.17006,-5.67566,-10.5589,-19.7757,13.4313,-14.1201,12.4213,7.35719,-7.06529,5.86072,4.86471e-14,-7.95139e-16,-36.1907,-12.9904,-74.9001,30.0572,-12.7368,-13.8157,17.3672,7.12502,12.3068,-12.2506,4.86471e-14,-7.95139e-16,-32.8871,10.6013,88.9562,24.9234,-11.0024,-2.70032,32.5499,7.12502,23.0015,61.1975,-17.2946,3.05495,24.0713,39.8259,-26.0005,-11.4337,20.9559,-16.2066,-4.68757,-20.015,38.1014,-24.6486,10.8754,5.6321
11.7901,17.8115,-38.4885,6.999,-18.5974,-0.476878,2.63807,-1.46978,-5.16631,-4.09598,-2.07397,3.93699,-5.43625,-0.728657,7.20624,-5.27483,-10.4491,-19.9367,13.4085,-14.0521,12.5544,7.29042,-7.04919,5.96003,2.67583e-14,2.22639e-14,-36.4359,-13.2152,-74.6429,29.8823,-12.2527,-13.752,17.5203,7.12502,12.3682,-12.0939,2.67583e-14,2.22639e-14,-33.2036,10.3849,89.0919,24.866,-10.1912,-3.68299,31.9133,7.12502,22.0584,60.6752,-17.3122,3.02729,24.111,39.8506,-26.1568,-11.3427,21.7421,-16.2364,-4.64693,-19.9689,38.1153,-23.6538,12.1168,-4.53894
11.7878,17.8126,-38.4881,7.05358,-18.5891,-0.520747,2.55553,-1.46818,-5.03171,-4.06359,-2.064,3.87388,-5.36113,-0.734698,7.05526,-5.40026,-10.4712,-19.8757,13.4833,-14.0861,12.6366,7.34373,-7.05356,5.96804,-2.57473e-14,-2.38542e-15,-36.3348,-13.6114,-74.6003,29.6861,-11.937,-13.7153,17.7014,7.12502,12.4036,-11.9106,-2.57473e-14,-2.38542e-15,-33.1605,10.5225,88.9167,24.9209,-10.8136,-3.07814,32.3289,7.12502,22.639,61.0212,-17.3775,3.12234,24.1646,39.9053,-26.185,-11.3657,21.9576,-16.301,-4.5115,-19.8972,38.1118,-24.5617,10.7413,5.51757
11.7856,17.8137,-38.4895,7.13521,-18.5909,-0.575065,2.38314,-1.44797,-4.86458,-3.96514,-2.02536,3.7809,-5.17068,-0.734328,6.84602,-5.45489,-10.5356,-19.748,13.299,-14.1818,12.7564,7.30925,-7.08107,5.97284,1.21911e-15,-2.38542e-15,-36.184,-13.6846,-74.7985,29.7212,-12.0963,-13.7457,17.6529,7.12502,12.3743,-11.9609,1.21911e-15,-2.38542e-15,-32.9461,10.3928,88.8582,24.8844,-10.6978,-3.43755,32.1224,7.12502,22.294,60.8564,-17.4721,3.21552,24.2226,39.9733,-26.2941,-11.259,22.7462,-16.3833,-4.43747,-19.8168,38.1083,-24.38,10.7125,4.95424
11.7845,17.8117,-38.49,7.16994,-18.6441,-0.591237,2.35694,-1.4284,-4.81286,-3.94573,-1.99638,3.75902,-5.14143,-0.724021,6.78941,-5.21819,-10.5147,-19.7221,12.9628,-14.1788,12.8108,7.16113,-7.08065,5.99933,5.43101e-14,3.97569e-15,-36.1928,-13.4618,-74.9111,29.8623,-12.3785,-13.5728,17.66,7.12502,12.541,-11.9436,5.43101e-14,3.97569e-15,-32.8672,10.2974,88.8699,24.8988,-10.6092,-3.34412,32.2672,7.12502,22.3837,60.9904,-17.5435,3.19128,24.2287,40.054,-26.2025,-11.0751,23.0825,-16.4231,-4.33923,-19.7913,38.1259,-24.4297,10.6785,4.9024
11.7841,17.806,-38.491,7.04586,-18.71,-0.545865,2.59652,-1.41347,-4.88957,-3.97885,-1.98799,3.78069,-5.31269,-0.708648,6.86748,-5.25792,-10.47,-19.6572,13.0769,-14.096,12.6291,7.17191,-7.04858,5.938,3.58834e-14,6.36111e-15,-36.2828,-13.3289,-74.8456,29.8781,-12.3745,-13.3263,17.798,7.12502,12.7786,-11.7909,3.58834e-14,6.36111e-15,-33.0198,10.2563,88.9239,25.0133,-10.5617,-2.91668,32.8697,7.12502,22.7939,61.543,-17.4682,3.18282,24.1764,40.1425,-26.3501,-11.0037,23.8351,-16.3066,-4.23742,-19.8494,38.1621,-24.4523,10.6053,4.86763
11.7803,17.8054,-38.498,7.30192,-18.5849,-0.450359,2.59523,-1.48078,-5.02777,-4.18134,-2.0857,3.80654,-5.50752,-0.738399,6.98799,-5.55152,-10.4445,-19.4724,13.4616,-14.0037,12.301,7.29289,-7.00865,5.798,-5.77671e-14,-1.35174e-14,-36.372,-13.4353,-74.6957,29.771,-12.1467,-13.2189,17.8457,7.12502,12.8822,-11.7367,-5.77671e-14,-1.35174e-14,-33.2186,10.1293,89.0018,25.1814,-10.2288,-2.88779,33.306,7.12502,22.8217,61.9759,-17.8526,3.13648,24.0968,40.2545,-26.3213,-11.2575,23.2123,-16.6855,-4.20937,-19.877,38.2148,-24.4753,10.401,5.17777
11.7772,17.8006,-38.5048,7.34631,-18.5033,-0.350071,2.76286,-1.49042,-5.17702,-4.29902,-2.11386,3.8107,-5.72083,-0.734015,7.0921,-5.79661,-10.4309,-19.2795,13.7927,-13.9411,12.0205,7.39689,-6.98145,5.67114,4.93638e-14,-2.22639e-14,-36.5283,-13.5113,-74.5573,29.7857,-12.0835,-13.2844,17.8118,7.12502,12.819,-11.7746,4.93638e-14,-2.22639e-14,-33.3173,9.84032,89.1638,25.2141,-9.67698,-3.40631,33.3376,7.12502,22.324,62.0679,-18.0143,3.04949,23.9982,40.3816,-26.3174,-11.2439,22.5729,-16.8284,-4.12691,-19.9377,38.2679,-23.6421,11.568,-5.08886
11.7751,17.7929,-38.5086,7.30043,-18.4705,-0.284652,2.86787,-1.46472,-5.24167,-4.28306,-2.08882,3.77175,-5.76785,-0.717846,7.08991,-6.13675,-10.4318,-19.0663,14.056,-13.9046,11.8976,7.51048,-6.95124,5.5865,-4.99804e-14,-4.69132e-14,-36.5734,-13.6807,-74.5037,29.8182,-12.1322,-13.2984,17.8493,7.12502,12.8056,-11.7379,-4.99804e-14,-4.69132e-14,-33.2835,9.56254,89.2704,25.1672,-9.41789,-3.86858,33.3121,7.12502,21.8802,62.0949,-18.058,3.00036,23.9321,40.5084,-26.3769,-11.1155,22.6567,-16.8471,-3.95004,-19.9829,38.3424,-24.6123,10.148,4.77434
11.7737,17.7884,-38.51,7.25815,-18.5024,-0.234919,2.90417,-1.44949,-5.22838,-4.21454,-2.07134,3.71063,-5.7206,-0.714772,7.01436,-6.5278,-10.3932,-18.8768,14.2828,-13.8118,11.8519,7.61989,-6.888,5.53762,-4.96965e-14,1.59028e-14,-36.5147,-13.6067,-74.6689,29.9401,-12.3345,-13.4917,17.6267,7.12502,12.6192,-11.9721,-4.96965e-14,1.59028e-14,-33.1676,9.45845,89.2547,25.1285,-9.47982,-4.05135,33.2539,7.12502,21.7046,62.0572,-18.0998,2.95191,23.8788,40.6428,-26.4526,-11.0788,22.5993,-16.8538,-3.7743,-20.0279,38.4283,-24.5288,10.1475,3.68242
11.7714,17.7839,-38.513,7.27765,-18.4836,-0.180897,2.95697,-1.45509,-5.22816,-4.20689,-2.08315,3.66231,-5.74231,-0.721039,6.96506,-6.95237,-10.3434,-18.7045,14.6646,-13.6973,11.732,7.77896,-6.82081,5.46821,3.13629e-14,2.3059e-14,-36.4902,-13.4588,-74.8184,30.052,-12.4172,-13.6302,17.4623,7.12502,12.4856,-12.1447,3.13629e-14,2.3059e-14,-33.0887,9.37127,89.2432,25.1168,-9.48756,-4.11491,33.0229,7.12502,21.6436,61.8332,-18.2195,2.9618,23.8237,40.8036,-26.5948,-10.946,23.3964,-16.976,-3.5421,-20.0456,38.5304,-24.7025,9.83661,4.15828
11.769,17.7746,-38.5137,7.30396,-18.3855,-0.0582352,2.93579,-1.48242,-5.25657,-4.19191,-2.12481,3.56962,-5.70956,-0.744383,6.88303,-7.2548,-10.3068,-18.4471,14.8024,-13.6238,11.6607,7.84083,-6.7671,5.40225,-2.36103e-14,-2.8625e-14,-36.3994,-13.7428,-74.8115,29.9567,-12.2593,-13.4504,17.6684,7.12502,12.659,-11.928,-2.36103e-14,-2.8625e-14,-33.0007,9.23504,89.2193,25.1486,-9.24039,-4.53207,32.4572,7.12502,21.2429,61.3131,-18.3754,3.02079,23.718,41.0002,-26.8101,-10.9219,24.014,-17.1517,-3.375,-20.1274,38.6517,-23.7659,10.9313,-6.66671
11.7672,17.7621,-38.5149,7.25435,-18.3386,0.0581283,3.01747,-1.49291,-5.32212,-4.15079,-2.14839,3.51371,-5.70907,-0.755454,6.86435,-7.42031,-10.2195,-18.2703,14.7407,-13.4966,11.6971,7.81851,-6.68779,5.3993,-1.81639e-14,-3.49861e-14,-36.2701,-13.959,-74.7922,29.8608,-12.145,-13.4239,17.7951,7.12502,12.6846,-11.7997,-1.81639e-14,-3.49861e-14,-32.9613,9.19778,89.227,25.2527,-8.90499,-5.38167,31.7047,7.12502,20.4267,60.6503,-18.472,3.01779,23.6266,41.2227,-27.1593,-11.0041,23.747,-17.235,-3.24075,-20.2362,38.7905,-24.7654,9.38222,4.63108
11.7645,17.7517,-38.5232,7.2032,-18.304,0.121311,3.33652,-1.52202,-5.49686,-4.1966,-2.20833,3.60142,-5.92481,-0.764955,7.07959,-7.82795,-10.0736,-18.265,15.0675,-13.2325,11.6157,7.94967,-6.55596,5.39223,3.53837e-14,-3.97569e-14,-36.2117,-13.7312,-74.7354,29.8193,-12.0795,-13.539,17.8195,7.12502,12.5736,-11.7821,3.53837e-14,-3.97569e-14,-33.0617,9.44171,89.2641,25.3951,-8.95424,-9.54343,27.6532,7.12502,16.4233,56.978,-18.5752,2.97244,23.5947,41.4495,-27.4674,-11.0703,23.8448,-17.3235,-3.02058,-20.2744,38.9368,-23.7401,10.7075,-7.41828
11.7623,17.7451,-38.5232,7.16265,-18.3765,0.176612,3.53292,-1.54422,-5.66589,-4.23958,-2.25272,3.71736,-6.06862,-0.768976,7.31627,-8.38393,-9.8854,-18.3012,15.5682,-12.8793,11.4785,8.15067,-6.38561,5.38088,2.48574e-14,-2.54444e-14,-36.2351,-13.2677,-74.6924,29.8689,-12.1621,-13.7175,17.7375,7.12502,12.4015,-11.8747,2.48574e-14,-2.54444e-14,-33.1756,9.79372,89.2731,25.4822,-9.39842,-3.28164,34.5871,7.12502,22.4436,63.3031,-18.6527,2.98847,23.5287,41.6699,-27.5536,-11.0056,24.3638,-17.3788,-2.93077,-20.3339,39.0939,-24.9131,9.23116,3.70889
11.7612,17.7373,-38.5086,7.02518,-18.6308,0.224227,3.7675,-1.4683,-5.87069,-4.33626,-2.16823,3.87827,-6.3123,-0.699357,7.61781,-8.64284,-9.64764,-18.4387,15.9802,-12.4856,11.3381,8.27112,-6.21413,5.40359,4.55722e-14,2.46493e-14,-36.5228,-12.6289,-74.4867,30.0428,-12.4942,-13.8915,17.5384,7.12502,12.2337,-12.0838,4.55722e-14,2.46493e-14,-33.497,10.0475,89.4542,25.5458,-9.69703,-3.46723,33.619,7.12502,22.2655,62.3564,-18.5613,3.02407,23.4204,41.8606,-27.6145,-10.7341,24.585,-17.2536,-2.90469,-20.4567,39.2649,-24.1647,10.8061,-7.19923
11.7563,17.7277,-38.5165,7.02273,-18.391,0.332213,3.71535,-1.52447,-5.85864,-4.23586,-2.24417,3.78345,-6.16441,-0.749665,7.50712,-8.83193,-9.49349,-18.4127,16.0649,-12.2924,11.5763,8.31544,-6.0976,5.50505,-1.48064e-14,7.15625e-15,-36.3157,-12.7217,-74.6189,29.996,-12.5669,-14.0001,17.543,7.12502,12.129,-12.0854,-1.48064e-14,7.15625e-15,-33.2493,9.85038,89.4464,25.5398,-9.69324,-3.46424,33.3705,7.12502,22.2684,62.1075,-18.6885,2.86178,23.3612,42.0445,-27.8448,-10.662,25.0136,-17.4456,-2.80793,-20.4936,39.4573,-24.9049,9.16085,2.93612
11.7527,17.7162,-38.5264,6.97053,-18.1348,0.407879,3.82521,-1.59699,-5.84583,-4.13135,-2.34774,3.72438,-6.10024,-0.808909,7.44462,-9.74153,-9.45623,-18.2762,16.6919,-12.154,11.6056,8.65941,-5.99574,5.48556,-5.74985e-14,4.77083e-15,-36.0608,-12.922,-74.6728,29.8425,-12.4406,-13.9687,17.6768,7.12502,12.1593,-11.9499,-5.74985e-14,4.77083e-15,-33.0009,9.84785,89.3939,25.4527,-10.0165,-3.07196,33.3901,7.12502,22.6449,62.0817,-18.7575,2.72779,23.3488,42.2081,-28.0497,-10.6213,25.7908,-17.5959,-2.82262,-20.4962,39.6745,-24.8916,9.10947,1.57987
11.7499,17.7047,-38.5324,6.87785,-17.9539,0.495222,3.88574,-1.65665,-5.8074,-4.0027,-2.43032,3.65059,-5.98705,-0.862061,7.34658,-9.72326,-9.27027,-18.1667,16.6625,-11.9191,11.6414,8.60231,-5.8763,5.51773,-3.27373e-14,1.90833e-14,-35.8954,-13.0286,-74.7831,29.8648,-12.5444,-13.762,17.5833,7.12502,12.3585,-12.0314,-3.27373e-14,1.90833e-14,-32.7691,9.99115,89.2702,25.2212,-10.7171,-3.04749,32.7292,7.12502,22.6684,61.4179,-18.7593,2.63024,23.3078,42.3457,-28.0854,-10.6401,26.091,-17.7025,-2.91363,-20.5372,39.9304,-24.9722,8.72006,3.1335
11.7467,17.692,-38.5257,6.79463,-18.0527,0.346475,3.79893,-1.63166,-5.5181,-3.79935,-2.37322,3.60575,-5.73976,-0.863788,7.11478,-9.89631,-9.13592,-17.8971,16.6073,-11.717,11.5324,8.55689,-5.76626,5.46079,-2.30963e-14,-7.15625e-15,-35.6745,-13.1186,-75.0065,29.9015,-12.6261,-13.5769,17.4544,7.12502,12.5371,-12.1495,-2.30963e-14,-7.15625e-15,-32.4857,10.1473,89.1109,25.0024,-11.1743,-3.14568,32.3448,7.12502,22.5741,61.045,-18.649,2.65561,23.457,42.4573,-28.1513,-10.6,25.6151,-17.6592,-2.8274,-20.407,40.2022,-24.5526,10.1574,-7.39318
11.7426,17.6789,-38.509,6.68593,-18.3861,0.0847922,3.75407,-1.53354,-5.20175,-3.57962,-2.21659,3.61518,-5.51432,-0.814019,6.92095,-10.1658,-8.97918,-17.5713,16.4424,-11.4745,11.4566,8.48487,-5.62633,5.40813,-5.22307e-14,-8.74653e-15,-35.4934,-13.1197,-75.2051,29.9337,-12.4963,-13.6093,17.4467,7.12502,12.5058,-12.1591,-5.22307e-14,-8.74653e-15,-32.2528,10.1511,89.0583,24.9091,-11.1772,-3.22495,32.5178,7.12502,22.4981,61.2272,-18.4452,2.81526,23.6918,42.5624,-28.2656,-10.4559,25.2698,-17.504,-2.56795,-20.2021,40.4815,-25.5497,8.70477,3.89739
11.7367,17.6676,-38.5005,6.5691,-18.463,0.114673,3.90848,-1.46549,-5.20492,-3.5111,-2.13294,3.57624,-5.54453,-0.773354,6.8794,-10.6452,-8.84616,-17.1759,16.6214,-11.2334,11.1833,8.55132,-5.49558,5.27088,9.60254e-14,-1.03368e-14,-35.593,-12.9743,-75.2835,30.1131,-12.6469,-13.6736,17.4635,7.12502,12.4438,-12.1461,9.60254e-14,-1.03368e-14,-32.1837,9.92745,89.1282,24.8655,-11.1614,-3.49715,32.3801,7.12502,22.2368,61.1209,-18.3323,2.88213,23.6622,42.6516,-28.3646,-10.3183,25.7161,-17.4912,-2.33292,-20.2261,40.75,-24.5458,10.0574,-7.16119
11.7291,17.6586,-38.508,6.514,-18.0267,0.24766,4.20269,-1.53612,-5.28788,-3.55443,-2.24723,3.5437,-5.74024,-0.818072,6.91601,-11.4619,-8.7451,-16.8328,17.3317,-10.9966,10.81,8.85896,-5.37361,5.10055,-4.68883e-14,-7.15625e-15,-35.7099,-12.957,-75.2236,30.1663,-12.8356,-13.7041,17.5038,7.12502,12.4144,-12.1075,-4.68883e-14,-7.15625e-15,-32.2128,9.67355,89.2402,25.0066,-11.0472,-3.56764,32.5077,7.12502,22.1691,61.2566,-18.3467,2.63253,23.6123,42.7482,-28.561,-10.3915,26.0566,-17.6868,-2.33434,-20.2469,41.0551,-25.0024,8.19272,3.4599
11.7298,17.6463,-38.4838,6.33473,-18.3041,0.0430243,4.21705,-1.4161,-4.91579,-3.4152,-2.05988,3.54303,-5.63971,-0.747811,6.68219,-11.9153,-8.57514,-16.6524,17.7817,-10.7269,10.686,9.03543,-5.23625,5.05961,1.63003e-14,-6.36111e-15,-35.6703,-13.0714,-75.1487,30.0126,-12.8046,-13.7672,17.4917,7.12502,12.3536,-12.1233,1.63003e-14,-6.36111e-15,-32.2775,9.52188,89.2909,25.168,-10.9294,-3.44452,32.8851,7.12502,22.2873,61.6199,-18.0421,2.71115,23.7802,42.8028,-28.7134,-10.363,25.357,-17.4479,-2.33724,-20.1249,41.3551,-24.8216,9.96379,-7.60244
11.7225,17.6333,-38.4927,6.33558,-18.1573,-0.269527,4.49371,-1.37752,-4.60507,-3.34212,-1.99348,3.58706,-5.7376,-0.724425,6.55498,-12.1664,-8.4467,-16.4135,17.8967,-10.5566,10.6623,9.07866,-5.13565,5.03297,4.6615e-14,1.51076e-14,-35.5369,-13.4235,-75.0859,29.8582,-12.6299,-13.5869,17.623,7.12502,12.5274,-11.9815,4.6615e-14,1.51076e-14,-32.0722,9.23456,89.3224,25.0369,-10.9655,-3.36443,32.8898,7.12502,22.3642,61.6153,-17.9411,2.86304,24.1994,42.8061,-28.6874,-10.6547,25.3272,-17.5987,-2.25532,-19.7054,41.725,-25.3186,9.02484,-3.28939
11.7188,17.6196,-38.4694,6.10507,-18.5825,-0.521366,4.62839,-1.15471,-4.32074,-3.13181,-1.67707,3.60361,-5.64383,-0.586426,6.38106,-12.4249,-8.28463,-16.3336,18.0405,-10.3341,10.7574,9.14211,-5.01054,5.08244,-2.5345e-15,9.54166e-15,-35.5348,-13.601,-74.9874,29.8719,-12.5551,-13.3801,17.7096,7.12502,12.7268,-11.8825,-2.5345e-15,9.54166e-15,-31.8024,8.99145,89.4363,24.9556,-10.6959,-3.25008,33.0913,7.12502,22.4739,61.8036,-17.4825,3.1579,24.4171,42.7151,-28.5381,-10.5576,25.3314,-17.3134,-1.89602,-19.5169,42.1276,-25.8672,8.35346,1.15995
11.7121,17.6222,-38.4518,5.87349,-18.5445,-0.486469,4.98004,-1.16847,-4.36351,-3.16944,-1.70629,3.66343,-5.87916,-0.588406,6.48749,-12.3317,-7.9703,-16.4793,18.0989,-9.91377,10.9024,9.09745,-4.81529,5.225,2.71341e-14,-6.36111e-15,-35.8138,-13.2675,-74.8894,29.9565,-12.6208,-13.347,17.6433,7.12502,12.7586,-11.9468,2.71341e-14,-6.36111e-15,-31.9359,9.04585,89.5383,24.9953,-10.2171,-3.34667,33.2971,7.12502,22.3812,62.0206,-17.1429,3.04209,24.4077,42.6825,-28.6015,-10.6557,24.6612,-17.2716,-1.76644,-19.5058,42.5348,-25.8143,7.97162,1.50457
11.7065,17.6264,-38.4402,5.70581,-18.4695,-0.627556,5.39278,-1.23712,-4.22512,-3.25236,-1.79238,3.79958,-6.19198,-0.620518,6.58229,-12.1982,-7.66091,-16.5058,18.1477,-9.46391,10.7398,9.0142,-4.62691,5.2421,-3.1408e-14,-1.59028e-14,-36.0244,-12.8038,-74.8166,29.943,-12.659,-13.3681,17.6823,7.12502,12.7383,-11.9092,-3.1408e-14,-1.59028e-14,-32.194,9.13417,89.6783,24.9124,-9.64787,-4.57875,32.1755,7.12502,21.1981,61.0365,-16.7869,3.0101,24.5871,42.6194,-28.827,-10.6331,24.3416,-17.308,-1.63928,-19.3038,42.9614,-25.8211,7.66763,2.34305
11.7019,17.5937,-38.4377,5.67455,-18.4671,-0.941869,5.70585,-1.23414,-3.99126,-3.32269,-1.76501,4.01531,-6.45137,-0.601118,6.69358,-12.1515,-7.45006,-16.4977,18.2079,-9.12087,10.4634,8.96077,-4.49318,5.19385,2.40654e-14,-9.54166e-15,-36.1896,-12.2985,-74.6817,29.9886,-12.9235,-13.3606,17.7155,7.12502,12.7456,-11.8755,2.40654e-14,-9.54166e-15,-32.4111,9.06351,89.9889,24.9064,-8.84682,-5.10907,32.3486,7.12502,20.6886,61.2659,-16.5981,3.09682,24.9495,42.6,-28.9396,-10.5675,24.4164,-17.2282,-1.14209,-19.0127,43.3814,-25.891,8.21294,-1.85309
11.693,17.5894,-38.4259,5.66972,-18.559,-1.18846,5.83746,-1.13965,-3.79457,-3.30355,-1.61793,4.12601,-6.52983,-0.532013,6.68943,-12.264,-7.27725,-16.3739,18.2155,-8.86545,10.3752,8.93494,-4.36952,5.17654,9.7653e-15,3.18055e-14,-36.3589,-12.1121,-74.5797,30.1049,-13.1053,-13.294,17.6144,7.12502,12.8098,-11.9725,9.7653e-15,3.18055e-14,-32.4369,8.9725,90.148,24.996,-8.59053,-5.2024,32.391,7.12502,20.5989,61.318,-16.4408,3.23398,25.2235,42.6052,-28.9807,-10.5148,24.7445,-17.3682,-1.16089,-18.7363,43.8006,-25.9685,8.30156,-2.40527
11.6814,17.6055,-38.4165,5.74485,-18.4947,-1.27832,5.73423,-1.11351,-3.66398,-3.19132,-1.57133,4.10661,-6.36014,-0.523663,6.57985,-12.4962,-7.04898,-16.148,18.2138,-8.56105,10.4153,8.92137,-4.20032,5.19256,2.06985e-14,1.66979e-14,-36.2729,-12.3298,-74.6329,30.1108,-12.8684,-13.3985,17.4292,7.12502,12.7091,-12.164,2.06985e-14,1.66979e-14,-32.2038,9.02774,90.0636,25.053,-8.94543,-4.78927,32.6477,7.12502,20.9959,61.5312,-16.4286,3.24646,25.3595,42.6003,-28.9732,-10.5391,24.8195,-17.7523,-1.58927,-18.5417,44.2465,-25.8863,7.8707,-0.0307288
11.6744,17.5854,-38.4124,5.81736,-18.29,-1.24317,5.62687,-1.18612,-3.63176,-3.11091,-1.6655,4.09187,-6.20038,-0.579415,6.54749,-12.4784,-6.8047,-16.0146,18.0527,-8.23333,10.4002,8.80731,-4.03687,5.20937,1.65488e-14,-3.33958e-14,-36.0792,-12.3906,-74.7552,30.0341,-12.6551,-13.5058,17.3559,7.12502,12.6056,-12.2437,1.65488e-14,-3.33958e-14,-32.0686,9.36691,89.9354,25.1235,-9.36568,-4.60681,32.6192,7.12502,21.1712,61.4832,-16.5188,2.99954,25.3752,42.6058,-28.9298,-10.6284,24.1422,-17.9867,-1.55347,-18.5633,44.6723,-25.3066,8.27675,-4.23441
11.6697,17.5774,-38.396,5.75302,-18.2522,-1.31943,5.62746,-1.20865,-3.43589,-2.98478,-1.6802,4.09888,-6.06867,-0.601971,6.43907,-12.4064,-6.62389,-15.8335,17.7499,-7.98413,10.2929,8.64201,-3.91461,5.17234,-2.7805e-14,-2.06736e-14,-35.8539,-12.5776,-74.7561,29.7891,-12.3924,-13.3939,17.4345,7.12502,12.7134,-12.1584,-2.7805e-14,-2.06736e-14,-32.0215,9.82117,89.7923,25.2327,-9.6602,-4.56725,32.4347,7.12502,21.2092,61.2944,-16.3241,2.77766,25.4512,42.5637,-28.9548,-10.5618,23.577,-18.0892,-1.47501,-18.4907,45.2012,-25.5625,8.03022,-3.41828
11.6632,17.5737,-38.3766,5.70031,-18.3475,-1.43254,5.49336,-1.16871,-3.21653,-2.79407,-1.60802,4.1122,-5.8036,-0.587392,6.30772,-10.5994,-6.37601,-16.7083,17.4051,-7.87605,10.932,8.24674,-3.91669,5.58709,3.04389e-14,-2.06736e-14,-35.6,-12.8598,-74.6584,29.5116,-12.1215,-13.2878,17.5713,7.12502,12.8158,-12.0153,3.04389e-14,-2.06736e-14,-31.895,10.1261,89.7273,25.314,-9.81779,-4.86126,32.0571,7.12502,20.9267,60.9483,-16.1154,2.68007,25.5434,42.555,-28.9487,-10.2273,24.2521,-18.2454,-1.45187,-18.3576,45.7532,-25.4269,7.92666,-3.42152
11.6524,17.5715,-38.3627,5.76506,-18.3294,-1.51978,5.33345,-1.1334,-3.146,-2.6853,-1.55156,4.16853,-5.60462,-0.56953,6.31205,-10.8103,-6.18079,-16.7307,17.5386,-7.59313,11.0391,8.29076,-3.77073,5.66394,4.09993e-14,-1.43125e-14,-35.5873,-12.6568,-74.6104,29.5486,-12.2128,-13.225,17.6257,7.12502,12.8763,-11.9571,4.09993e-14,-1.43125e-14,-31.6954,10.1178,89.7971,25.2162,-9.94,-5.30168,31.5043,7.12502,20.5035,60.4416,-16.037,2.61879,25.662,42.4584,-28.938,-10.0084,25.5448,-18.6486,-1.44739,-18.1855,46.4068,-25.2208,7.73766,-3.60225
11.6419,17.5657,-38.3473,5.84726,-18.3263,-1.78772,5.42252,-1.07017,-2.91419,-2.73566,-1.44451,4.25856,-5.72582,-0.518823,6.27029,-11.3067,-5.98202,-16.3491,17.8218,-7.28759,10.8586,8.40557,-3.60589,5.57314,-1.99282e-14,2.94201e-14,-35.903,-11.9959,-74.8061,30.0266,-13.2659,-13.763,16.767,7.12502,12.3576,-12.8477,-1.99282e-14,2.94201e-14,-31.7305,9.80732,89.9176,25.1384,-9.72295,-5.36133,31.6974,7.12502,20.4462,60.6409,-15.9441,2.66363,25.9993,42.3514,-28.9642,-10.269,25.0888,-18.9762,-1.38162,-17.8364,47.0841,-24.9798,7.66446,-4.88932
11.6314,17.562,-38.3208,5.94565,-18.6445,-2.0991,5.50475,-0.924229,-2.5973,-2.8253,-1.22039,4.30315,-5.90129,-0.412349,6.1201,-11.9623,-5.74963,-15.6843,18.1612,-6.93477,10.4878,8.54568,-3.41312,5.37315,2.18912e-14,-1.51076e-14,-36.1789,-12.2853,-74.5618,29.7646,-12.6547,-13.4512,17.2491,7.12502,12.6582,-12.3473,2.18912e-14,-1.51076e-14,-31.9829,9.66599,89.9028,25.2693,-9.34741,-4.9951,32.4045,7.12502,20.7981,61.3099,-15.8153,2.90889,26.3199,42.2366,-28.9816,-10.4745,23.7654,-19.2318,-1.08205,-17.4949,47.7718,-24.6003,7.68022,-6.58293
11.6184,17.5621,-38.2953,6.04632,-19.0066,-2.19611,5.46348,-0.758,-2.52471,-2.85014,-0.991463,4.28968,-5.93359,-0.300567,6.04055,-12.7344,-5.59699,-15.064,18.5015,-6.67265,10.1136,8.72688,-3.2638,5.16689,2.18415e-14,-1.43125e-14,-36.1646,-12.6578,-74.4451,29.4251,-12.4443,-13.4248,17.4736,7.12502,12.6837,-12.1213,2.18415e-14,-1.43125e-14,-32.0757,9.87753,89.736,25.3759,-9.33188,-4.40169,32.8979,7.12502,21.3682,61.7397,-15.7455,3.19704,26.4025,42.136,-29.0344,-10.4834,23.1286,-19.6063,-0.760177,-17.3567,48.4696,-24.1707,7.5198,-7.67254
11.6044,17.5604,-38.2806,6.08689,-18.9877,-2.1984,5.55297,-0.70484,-2.57442,-2.88744,-0.922719,4.31085,-6.03236,-0.260455,6.08888,-13.1742,-5.4846,-14.864,18.8723,-6.49222,10.0047,8.89694,-3.16842,5.12055,4.85035e-14,2.22639e-14,-36.214,-12.9488,-74.2605,29.1971,-12.25,-13.5126,17.4209,7.12502,12.599,-12.1792,4.85035e-14,2.22639e-14,-32.1057,10.1656,89.6022,25.3104,-9.56782,-4.02768,33.155,7.12502,21.7274,61.9556,-15.6545,3.2733,26.4479,42.0702,-29.1046,-10.5238,22.9801,-20.0165,-0.695142,-17.2368,49.1883,-23.7543,6.98439,-7.38
11.5921,17.5566,-38.2643,6.10877,-18.8446,-2.18314,5.58274,-0.766531,-2.5927,-2.88388,-1.00591,4.33722,-6.03479,-0.300421,6.13701,-13.1345,-5.30177,-14.7579,19.0765,-6.25354,9.88669,8.91812,-3.06457,5.09728,-1.06872e-13,6.99722e-14,-36.3467,-12.7469,-74.301,29.3492,-12.5056,-13.6927,17.0592,7.12502,12.4254,-12.5515,-1.06872e-13,6.99722e-14,-32.082,10.3322,89.5034,25.2282,-9.50623,-3.74434,33.6542,7.12502,21.9994,62.4231,-15.5545,3.24003,26.4709,42.0442,-29.2647,-10.4176,23.4955,-20.4141,-0.694951,-17.1325,49.949,-23.3078,6.28653,-6.42873
11.5824,17.5562,-38.2415,6.11784,-18.8272,-2.06408,5.44406,-0.803574,-2.60675,-2.78997,-1.06083,4.27462,-5.84926,-0.335432,6.07595,-13.0937,-5.11589,-14.4724,18.9157,-6.00908,9.69221,8.80587,-2.94618,5.0093,-2.36057e-14,-3.57812e-14,-36.2505,-12.7342,-74.4086,29.3509,-12.6061,-13.7734,16.8683,7.12502,12.3476,-12.747,-2.36057e-14,-3.57812e-14,-31.9385,10.3954,89.3574,25.2868,-9.38357,-3.22237,34.4721,7.12502,22.5005,63.1812,-15.4906,3.18052,26.345,41.9986,-29.3339,-10.3072,23.7617,-20.8267,-0.621985,-17.1862,50.7138,-23.1917,6.02968,-7.68643
11.5711,17.5543,-38.2246,6.18529,-18.7211,-2.04634,5.45861,-0.782314,-2.58658,-2.77689,-1.03104,4.2719,-5.84775,-0.321737,6.05855,-13.151,-5.01376,-14.3207,18.8455,-5.86632,9.60202,8.76527,-2.87391,4.96831,6.2319e-14,1.74931e-14,-36.1289,-13.1274,-74.2584,29.0836,-12.3735,-13.711,16.9713,7.12502,12.4077,-12.6405,6.2319e-14,1.74931e-14,-31.9707,10.6626,89.2115,25.4481,-9.73837,-2.95258,34.8365,7.12502,22.7595,63.514,-15.4709,3.14374,26.3725,41.9656,-29.3214,-10.4226,23.6639,-21.3627,-0.558748,-17.0752,51.5444,-22.7022,5.41649,-7.56655
11.5652,17.5508,-38.1726,6.03437,-19.2747,-2.20075,5.40644,-0.54473,-2.39108,-2.64309,-0.696916,4.31864,-5.71892,-0.168533,5.95766,-13.1489,-4.92808,-14.233,18.8577,-5.73655,9.46445,8.74497,-2.81983,4.9218,-4.13472e-14,-3.18055e-14,-36.1321,-13.5282,-73.9567,28.8279,-12.1716,-13.6608,17.1066,7.12502,12.4561,-12.5022,-4.13472e-14,-3.18055e-14,-32.239,11.3231,89.0332,25.6211,-10.3866,-3.05988,34.4359,7.12502,22.6565,63.1261,-15.0104,3.37381,26.4227,41.9043,-29.4404,-10.1402,23.8769,-21.3783,-0.240927,-16.951,52.4081,-22.396,5.02904,-7.50189
11.5502,17.5443,-38.1672,6.08759,-18.8017,-2.21105,5.69251,-0.651444,-2.49674,-2.75455,-0.842183,4.41931,-5.98159,-0.225157,6.15253,-13.097,-4.79394,-14.2156,18.8978,-5.55367,9.42285,8.72295,-2.73849,4.92892,-2.63887e-14,9.54166e-15,-36.2055,-13.7752,-73.7166,28.6768,-12.0776,-13.6891,17.1736,7.12502,12.4289,-12.4369,-2.63887e-14,9.54166e-15,-32.4855,11.7566,88.925,25.7382,-10.5809,-3.29647,33.8951,7.12502,22.4294,62.6128,-14.9774,3.09363,26.5635,41.8396,-29.6022,-10.3111,24.4083,-22.1089,-0.445809,-16.6991,53.3926,-21.7868,4.27693,-8.36294
11.545,17.5256,-38.1224,6.12839,-19.2701,-2.57671,5.50826,-0.487908,-2.04032,-2.61754,-0.586877,4.4618,-5.76507,-0.124033,5.90033,-13.1918,-4.65619,-14.1166,19.0514,-5.38221,9.44029,8.76659,-2.64918,4.9429,-3.57315e-14,-1.03368e-14,-36.3122,-13.6252,-73.7634,28.7952,-12.3272,-13.4951,17.2266,7.12502,12.6159,-12.3724,-3.57315e-14,-1.03368e-14,-32.4604,11.7926,88.8611,25.6664,-10.338,-3.56463,33.5074,7.12502,22.172,62.2559,-14.7238,3.36065,26.8524,41.7623,-29.6388,-10.1668,24.1636,-22.4972,-0.177534,-16.3138,54.4281,-21.2773,3.87732,-7.63293
11.5327,17.5137,-38.1016,6.22671,-19.3426,-2.97624,5.57366,-0.466873,-1.66971,-2.49629,-0.528315,4.54488,-5.68292,-0.111712,5.76876,-13.3479,-4.52839,-13.9788,19.0266,-5.22173,9.49545,8.76212,-2.55389,4.95799,-2.17172e-14,-9.54166e-15,-36.2629,-13.448,-73.9061,28.8989,-12.4856,-13.2718,17.3357,7.12502,12.8312,-12.2499,-2.17172e-14,-9.54166e-15,-32.2498,11.9666,88.7132,25.4772,-10.2989,-3.6758,33.2682,7.12502,22.0653,62.0293,-14.5714,3.57163,27.3172,41.7096,-29.701,-10.2682,24.1309,-23.0525,0.0581072,-15.7184,55.4636,-20.0958,2.97114,-6.91233
11.5196,17.5108,-38.0802,6.2742,-19.2079,-2.97484,5.73475,-0.523241,-1.7024,-2.52383,-0.60227,4.59551,-5.79558,-0.143097,5.85425,-13.3608,-4.38226,-14.0904,18.979,-5.02945,9.68976,8.7303,-2.45162,5.06898,2.18166e-14,-4.77083e-15,-36.2368,-13.2356,-73.9538,28.9203,-12.6075,-13.5523,17.1697,7.12502,12.5607,-12.4327,2.18166e-14,-4.77083e-15,-32.2944,12.228,88.6164,25.4421,-10.2893,-3.79587,33.3207,7.12502,21.95,62.0954,-14.496,3.39814,27.3492,41.6614,-29.7551,-10.1704,24.1289,-23.7123,-0.0334109,-15.5232,56.4329,-18.6577,1.84115,-4.32157
11.5058,17.5159,-38.0614,6.35908,-18.9838,-2.78165,5.93621,-0.580245,-1.91842,-2.694,-0.690564,4.60292,-6.07955,-0.168262,6.00636,-13.2498,-4.26975,-14.1472,19.0804,-4.88168,9.68884,8.72599,-2.39093,5.09989,9.91439e-14,-2.14687e-14,-36.4241,-13.0768,-73.8758,28.9273,-12.6148,-13.7502,17.1843,7.12502,12.37,-12.4297,9.91439e-14,-2.14687e-14,-32.5343,12.4846,88.5045,25.4097,-10.505,-3.74005,33.5115,7.12502,22.0036,62.2799,-14.5484,3.01056,27.1716,41.6445,-29.7599,-10.0859,23.2703,-24.4911,-0.301637,-15.545,57.3401,-18.72,1.96798,-5.61093
11.4951,17.5122,-38.0435,6.37956,-18.8894,-2.85279,6.14668,-0.552615,-1.78989,-2.69618,-0.642905,4.57008,-6.20941,-0.147258,5.89808,-13.2175,-4.21683,-13.9176,19.0152,-4.83262,9.56467,8.68188,-2.36275,5.0219,4.86029e-14,1.74931e-14,-36.4996,-13.1575,-73.9835,29.1014,-13.0408,-13.8127,16.9351,7.12502,12.3097,-12.6826,4.86029e-14,1.74931e-14,-32.4779,12.5119,88.3275,25.1841,-10.8894,-3.5233,33.5077,7.12502,22.2117,62.2514,-14.4481,2.8518,27.2766,41.6364,-29.8312,-10.1558,22.4511,-24.9262,-0.240291,-15.3705,58.2341,-17.3162,0.497082,0.988245
11.487,17.4932,-38.0157,6.37877,-18.9107,-3.08795,6.08851,-0.521236,-1.41802,-2.49034,-0.577302,4.52253,-5.96774,-0.139728,5.61864,-13.3033,-4.15357,-13.6687,18.8266,-4.77991,9.58392,8.61977,-2.3127,4.98851,2.20651e-14,-7.95139e-16,-36.2455,-13.6843,-74.053,28.9686,-12.895,-13.7034,16.9008,7.12502,12.415,-12.7105,2.20651e-14,-7.95139e-16,-32.1517,12.376,88.1586,24.8786,-10.9951,-3.71715,33.0474,7.12502,22.0256,61.8132,-14.2285,2.87413,27.526,41.6167,-29.997,-10.1591,22.6681,-25.4173,-0.026085,-14.9632,59.1317,-16.1848,-0.724935,3.64695
11.4757,17.4848,-37.9785,6.51312,-18.9492,-3.32713,5.64408,-0.530658,-1.04787,-2.21059,-0.574298,4.50373,-5.4209,-0.168111,5.36696,-13.3595,-4.07844,-13.5083,18.5569,-4.69884,9.64435,8.52493,-2.25147,4.98629,-3.23025e-15,1.43125e-14,-35.8457,-14.1493,-74.0955,28.6925,-12.2707,-13.4911,17.2484,7.12502,12.6198,-12.3504,-3.23025e-15,1.43125e-14,-31.7619,12.4586,88.0047,24.7164,-10.8336,-4.17353,32.6456,7.12502,21.5873,61.4623,-14.0783,2.89695,27.7588,41.518,-30.0809,-10.1053,22.9271,-25.9648,0.0364227,-14.5719,59.982,-15.6257,-1.33955,3.16851
11.4643,17.4879,-37.9338,6.5969,-19.2075,-3.49279,5.56593,-0.388592,-0.854843,-2.14704,-0.372238,4.50164,-5.33054,-0.0771835,5.23072,-13.2669,-4.06226,-13.4123,18.4821,-4.71313,9.67869,8.48252,-2.24938,4.97935,2.71341e-14,2.38542e-15,-35.9483,-13.9287,-74.2443,28.9713,-12.7144,-13.4844,17.2092,7.12502,12.6262,-12.3892,2.71341e-14,2.38542e-15,-31.8317,13.0049,87.6209,24.9102,-12.273,-2.42285,33.5591,7.12502,23.2678,62.1732,-13.8902,2.96383,27.8688,41.4065,-30.0775,-10.0238,22.1101,-26.3569,0.0678678,-14.3175,60.7848,-15.3807,-1.66184,2.5431
11.4553,17.4929,-37.879,6.61184,-19.6825,-3.66177,5.66614,-0.164639,-0.588728,-2.14146,-0.0528427,4.43911,-5.41228,0.0722895,4.9818,-13.3084,-4.0758,-13.226,18.6776,-4.77154,9.63668,8.5571,-2.26955,4.93034,-3.79679e-14,1.66979e-14,-36.1955,-13.9768,-74.2585,29.1222,-12.9535,-13.4412,17.3555,7.12502,12.6679,-12.2404,-3.79679e-14,1.66979e-14,-31.9314,12.6844,87.6239,24.7736,-11.5678,-3.23709,33.3267,7.12502,22.4864,62.0375,-13.5906,3.10048,27.925,41.2631,-30.078,-9.83247,21.1302,-26.5479,0.256178,-14.121,61.5126,-15.5201,-1.82241,1.56531
11.4439,17.4789,-37.8541,6.72429,-19.4083,-3.83364,5.8973,-0.243611,-0.439159,-2.18854,-0.136525,4.52562,-5.58664,0.0302386,5.00219,-13.4468,-4.04875,-13.1188,18.8313,-4.7167,9.48855,8.62129,-2.24881,4.86941,4.57205e-15,-2.38542e-14,-36.2213,-13.8997,-74.2046,29.1352,-12.8789,-13.5268,17.4021,7.12502,12.5853,-12.1988,4.57205e-15,-2.38542e-14,-31.8878,12.7491,87.6242,24.4702,-11.1129,-4.02433,32.9751,7.12502,21.7306,61.7754,-13.4817,3.00255,28.18,41.1502,-30.0886,-10.0276,20.7523,-27.2094,0.0390301,-13.7419,62.2823,-15.652,-2.29696,1.09794
11.4303,17.468,-37.8235,6.78436,-19.247,-3.89765,6.1043,-0.33774,-0.449035,-2.24591,-0.252282,4.62592,-5.75524,-0.0215781,5.13262,-13.3163,-3.93526,-13.2709,18.7386,-4.55781,9.59038,8.5519,-2.177,4.94904,-1.49089e-15,6.2816e-14,-36.255,-13.5364,-74.2459,29.2084,-12.8014,-13.4549,17.4545,7.12502,12.6547,-12.1421,-1.49089e-15,6.2816e-14,-32.2174,13.3284,87.448,24.5818,-11.0301,-4.44951,32.824,7.12502,21.3222,61.671,-13.3319,2.95448,28.3022,41.0583,-30.1447,-10.1436,20.7739,-27.8053,-0.141479,-13.5087,63.007,-15.8792,-2.74606,1.00566
11.4159,17.4646,-37.7888,6.85844,-19.2667,-3.99093,6.32085,-0.358206,-0.465834,-2.3099,-0.269657,4.71778,-5.94543,-0.0238407,5.24865,-13.1091,-3.80801,-13.5036,18.5511,-4.40295,9.86071,8.44188,-2.09727,5.09896,-4.16454e-14,1.27222e-14,-36.3506,-13.2199,-74.2944,29.3481,-12.9506,-13.2307,17.4691,7.12502,12.8708,-12.114,-4.16454e-14,1.27222e-14,-32.5265,13.8802,87.2253,24.7466,-10.8735,-4.89302,32.7002,7.12502,20.8962,61.5948,-13.1817,2.99294,28.4099,40.9734,-30.2591,-10.1118,21.1537,-28.3115,-0.130784,-13.2812,63.6886,-16.1764,-3.15967,0.92198
11.4055,17.4558,-37.7521,6.99239,-19.3729,-4.2424,6.37334,-0.297203,-0.215658,-2.25336,-0.165028,4.76064,-5.92603,0.0180953,5.13922,-13.1457,-3.77737,-13.462,18.4912,-4.3713,9.9125,8.42406,-2.07254,5.11239,1.16786e-14,2.38542e-14,-36.3566,-13.2345,-74.2803,29.413,-13.0548,-13.0549,17.5575,7.12502,13.0403,-12.0149,1.16786e-14,2.38542e-14,-32.3336,13.9439,87.1026,24.5035,-10.5658,-5.47536,32.2997,7.12502,20.3366,61.2549,-13.0213,3.15021,28.6572,40.8348,-30.3227,-10.0982,21.1723,-28.8056,-0.0986267,-12.9032,64.2999,-16.4226,-3.46878,0.397123
11.396,17.4502,-37.7077,7.07467,-19.3204,-4.34424,6.22308,-0.288717,0.00666314,-2.08399,-0.14704,4.72481,-5.66285,0.0121283,4.96461,-13.3783,-3.79296,-13.271,18.5127,-4.39114,9.84856,8.47024,-2.06864,5.05481,3.77691e-15,-2.54444e-14,-36.1274,-13.2981,-74.4098,29.5011,-13.2534,-13.2961,17.3032,7.12502,12.8077,-12.2839,3.77691e-15,-2.54444e-14,-32.0067,13.8958,87.0313,24.2039,-10.3881,-5.79513,31.8841,7.12502,20.0293,60.8718,-12.8123,3.11991,28.7554,40.6392,-30.3612,-10.1624,20.6259,-29.2905,-0.36899,-12.6901,64.782,-16.593,-3.46308,-1.432
11.385,17.4523,-37.6554,7.10849,-19.261,-4.28805,6.13212,-0.301388,0.0895838,-1.98915,-0.166891,4.64998,-5.50906,-0.00512281,4.8357,-13.5245,-3.79075,-13.101,18.5018,-4.39593,9.80236,8.48857,-2.05931,5.00837,-2.67365e-14,-2.38542e-14,-35.9949,-13.2401,-74.5619,29.5468,-13.4136,-13.5332,17.2092,7.12502,12.5791,-12.3921,-2.67365e-14,-2.38542e-14,-31.8992,14.0873,86.8622,24.0134,-10.5188,-5.73562,31.8881,7.12502,20.0865,60.8697,-12.5517,2.97027,28.6691,40.4311,-30.2866,-10.3011,19.1472,-29.7459,-0.668207,-12.6448,65.1491,-16.7784,-3.41915,-2.92835
11.3725,17.455,-37.6058,7.24135,-19.3819,-4.39053,6.22888,-0.300687,0.192942,-2.05841,-0.150486,4.68108,-5.63893,0.00221858,4.81163,-13.4697,-3.70989,-12.9931,18.497,-4.28854,9.67982,8.45809,-2.0141,4.95998,2.6985e-14,0,-36.045,-13.0806,-74.5463,29.4575,-13.222,-13.4095,17.4013,7.12502,12.6985,-12.1926,2.6985e-14,0,-32.0662,14.5099,86.6119,23.8466,-10.7152,-5.57468,32.1726,7.12502,20.2412,61.1379,-12.3514,3.06395,28.7395,40.2295,-30.2816,-10.3144,18.8121,-30.2269,-0.714413,-12.4064,65.4328,-16.9201,-3.53572,-3.20973
11.3593,17.4522,-37.561,7.31197,-19.3565,-4.3927,6.4169,-0.365018,0.100405,-2.13858,-0.23155,4.77158,-5.82433,-0.0295833,4.97575,-13.5581,-3.59481,-12.9965,18.6926,-4.11085,9.6011,8.51606,-1.93862,4.9586,-1.87852e-14,2.3059e-14,-35.9953,-12.6624,-74.6223,29.5617,-13.4247,-13.4895,16.7721,7.12502,12.6213,-12.8266,-1.87852e-14,2.3059e-14,-32.3343,15.0304,86.4109,23.7775,-10.8067,-5.71003,32.1908,7.12502,20.1111,61.1699,-12.1542,3.10484,28.7523,40.0494,-30.4288,-10.26,19.8185,-30.7371,-0.907547,-12.238,65.6384,-16.8954,-3.6459,-2.27267
11.3469,17.4502,-37.5118,7.3321,-19.1999,-4.18745,7.12714,-0.45436,-0.321806,-2.59454,-0.343137,4.95467,-6.70478,-0.0442793,5.45724,-13.5706,-3.47044,-13.2426,19.2579,-3.90026,9.53707,8.68717,-1.87207,5.01717,-1.49585e-14,-5.56597e-15,-36.4507,-12.2885,-74.1692,29.3476,-13.2405,-13.471,17.0597,7.12502,12.6392,-12.5379,-1.49585e-14,-5.56597e-15,-33.296,15.8218,86.1552,23.5831,-11.5157,-6.52735,30.8151,7.12502,19.3253,59.8748,-11.97,2.97346,28.5458,39.8879,-30.5752,-10.2202,20.3208,-31.2595,-1.22671,-12.3133,65.7505,-16.8736,-3.57858,-0.906173
11.3338,17.4498,-37.469,7.55215,-18.9996,-4.17077,6.93114,-0.475499,-0.235545,-2.49875,-0.37566,4.88488,-6.48705,-0.0705958,5.32864,-13.6639,-3.53406,-13.2592,19.1405,-4.00906,9.73799,8.68211,-1.90054,5.07495,-7.71285e-14,3.26007e-14,-36.0679,-13.1188,-73.9947,28.9024,-12.7336,-13.4953,17.3231,7.12502,12.6157,-12.276,-7.71285e-14,3.26007e-14,-33.0706,16.2238,85.8165,22.9815,-12.8176,-7.33528,28.9998,7.12502,18.5483,58.1354,-11.9606,2.90192,28.5568,39.7228,-30.6466,-10.2675,20.6233,-31.9787,-1.38666,-12.1568,65.7987,-16.8539,-3.52275,-0.377164
11.317,17.4551,-37.4311,7.85719,-18.7522,-4.29609,6.86786,-0.450025,-0.0908794,-2.47914,-0.331651,4.85565,-6.43444,-0.0565977,5.2069,-13.5971,-3.65444,-13.1246,18.9484,-4.20467,9.73699,8.62695,-1.98159,5.02329,-2.00773e-14,-2.38542e-14,-35.9431,-13.7309,-73.8834,28.7793,-12.5683,-13.5014,17.3916,7.12502,12.6099,-12.2078,-2.00773e-14,-2.38542e-14,-32.8018,16.5928,85.4825,22.5103,-13.6477,-7.25274,28.4471,7.12502,18.6277,57.5752,-12.003,2.83412,28.7592,39.5007,-30.5921,-10.5544,20.2278,-32.7977,-1.6412,-11.7846,65.7319,-16.7438,-3.61939,0.4296
11.3007,17.4594,-37.3818,8.04674,-18.6847,-4.37081,6.80802,-0.443374,-0.0903574,-2.45503,-0.323093,4.89555,-6.37531,-0.0528001,5.24609,-13.3275,-3.65828,-13.0119,18.6572,-4.23373,9.64582,8.47871,-1.9985,4.96217,5.14355e-14,-4.6118e-14,-35.8456,-13.8973,-73.8196,28.7169,-12.408,-13.5787,17.4509,7.12502,12.5353,-12.153,5.14355e-14,-4.6118e-14,-32.663,17.3991,85.0535,22.2315,-13.9328,-6.52157,28.6602,7.12502,19.3309,57.7194,-11.9073,2.7862,28.8467,39.3197,-30.5775,-10.7215,19.3253,-33.4257,-1.90911,-11.5017,65.5873,-16.689,-3.61874,1.25875
11.2939,17.4526,-37.2955,7.89269,-19.3956,-4.38105,6.70151,-0.237388,-0.0166607,-2.24216,-0.0559033,4.81961,-6.11245,0.0682344,5.08237,-13.2731,-3.6277,-13.0154,18.5935,-4.2168,9.75449,8.44701,-1.98091,5.00175,-1.91827e-14,1.43125e-14,-35.7129,-14.0722,-73.7852,28.597,-12.2025,-13.5913,17.5164,7.12502,12.5232,-12.0883,-1.91827e-14,1.43125e-14,-32.622,17.8345,84.7599,22.1641,-13.7929,-5.99825,28.9941,7.12502,19.834,58.002,-11.2532,3.02436,28.6101,39.0626,-30.5256,-10.2738,18.5808,-33.3189,-1.6271,-11.5247,65.36,-16.9242,-3.28036,1.41706
11.2785,17.4373,-37.2666,8.15508,-18.7344,-4.22032,6.984,-0.448297,-0.164904,-2.43995,-0.337473,4.80448,-6.45866,-0.057446,5.19686,-13.4432,-3.64177,-13.0508,18.7833,-4.24662,9.88783,8.54888,-1.9831,5.05547,-1.43125e-14,-2.06736e-14,-35.828,-13.7981,-73.9207,28.8834,-12.618,-13.4152,17.5065,7.12502,12.6929,-12.0877,-1.43125e-14,-2.06736e-14,-32.7292,17.6923,84.7015,22.3296,-13.303,-5.78729,29.5281,7.12502,20.0368,58.515,-11.3416,2.76064,28.599,38.8162,-30.5443,-10.3399,19.5478,-34.3503,-2.14561,-11.3504,65.1349,-16.6969,-3.34239,1.96043
11.2669,17.4443,-37.1987,8.29093,-18.832,-4.38718,7.19567,-0.42616,-0.0253293,-2.50714,-0.281826,4.87953,-6.65766,-0.0302789,5.19802,-13.3384,-3.65943,-13.0754,18.7601,-4.26386,9.82081,8.52365,-2.0018,5.0336,1.22253e-14,-3.02153e-14,-36.0441,-13.365,-73.981,29.2169,-13.0537,-13.3865,17.3868,7.12502,12.7206,-12.2057,1.22253e-14,-3.02153e-14,-32.98,17.6985,84.6874,22.6573,-12.7963,-5.16372,30.8336,7.12502,20.6361,59.7566,-11.0115,2.81893,28.6971,38.4852,-30.7097,-10.0322,20.659,-34.6808,-2.36905,-11.0141,64.7261,-17.102,-3.00618,0.719028
11.2553,17.4539,-37.1359,8.34966,-18.868,-4.48711,7.37065,-0.351983,0.128069,-2.45304,-0.165549,4.85587,-6.71141,0.020278,5.07267,-13.3074,-3.73171,-13.027,18.5495,-4.37734,9.87416,8.46156,-2.0446,5.02553,2.08724e-15,2.06736e-14,-35.9599,-13.8914,-73.7935,29.0612,-12.8732,-13.3883,17.4014,7.12502,12.7189,-12.1912,2.08724e-15,2.06736e-14,-32.8124,17.6171,84.6746,22.7905,-12.282,-6.65861,29.9553,7.12502,19.1991,59.0276,-10.6457,2.84431,28.7417,38.1922,-30.9614,-10.0547,20.473,-34.9706,-2.70157,-10.7174,64.2614,-18.3009,-2.51548,-5.4892
11.2447,17.4558,-37.0748,8.45135,-18.8129,-4.44662,7.34263,-0.304281,0.19686,-2.34931,-0.104165,4.7779,-6.58979,0.0431291,4.93818,-13.5581,-3.80169,-13.0346,18.5918,-4.48938,10.0931,8.54049,-2.07097,5.0908,6.06293e-15,-5.1684e-14,-35.633,-14.8477,-73.4622,28.5239,-12.2942,-13.3822,17.6445,7.12502,12.7248,-11.9478,6.06293e-15,-5.1684e-14,-32.4434,17.5563,84.6554,22.7094,-11.9543,-4.40861,32.5475,7.12502,21.3615,61.39,-10.3448,2.85524,28.682,37.8145,-31.0806,-10.195,20.2496,-35.4186,-3.09405,-10.5456,63.7461,-18.0472,-2.65194,-4.68967
11.2313,17.4532,-37.0233,8.63082,-18.3069,-4.4324,7.44667,-0.471933,0.143782,-2.39614,-0.322167,4.89868,-6.68093,-0.05769,5.13007,-13.6574,-3.83222,-13.1869,18.7833,-4.49495,10.0861,8.62804,-2.08484,5.11795,4.1049e-14,2.14687e-14,-35.7659,-13.7308,-73.7774,29.2292,-13.3048,-13.7209,17.1843,7.12502,12.3982,-12.428,4.1049e-14,2.14687e-14,-32.4262,17.9146,84.6502,22.8046,-11.792,-4.83598,32.184,7.12502,20.951,61.0725,-10.1967,2.74566,28.8017,37.4824,-31.1281,-10.5688,20.0227,-36.1332,-3.76835,-10.2267,63.1995,-17.981,-2.52659,-5.3709
11.2199,17.452,-36.9533,8.61826,-17.6409,-4.38286,7.26114,-0.721953,0.471289,-2.15009,-0.649143,4.7518,-6.28784,-0.243798,4.81439,-13.7294,-3.8929,-12.987,18.5101,-4.60462,10.1193,8.55884,-2.11368,5.07525,-3.22031e-14,-2.38542e-15,-35.3763,-13.8077,-74.157,29.2537,-13.2795,-13.7654,17.3301,7.12502,12.3553,-12.2848,-3.22031e-14,-2.38542e-15,-32.0293,18.1045,84.4092,22.9019,-11.6323,-4.58394,32.6585,7.12502,21.1931,61.52,-9.77304,2.43803,28.8819,37.1251,-31.2605,-10.8947,19.8341,-36.5689,-4.66708,-9.93023,62.5247,-18.2429,-2.13841,-7.44815
11.2135,17.4589,-36.8948,8.86558,-18.1822,-4.48266,7.54827,-0.528479,0.380561,-2.23699,-0.381681,4.82803,-6.56588,-0.101854,4.92451,-13.7576,-3.90309,-12.9856,18.4552,-4.59941,10.0624,8.54374,-2.11507,5.05401,7.14631e-14,-2.8625e-14,-35.3496,-13.8241,-73.978,29.1083,-12.9104,-13.6193,17.5797,7.12502,12.4962,-12.0267,7.14631e-14,-2.8625e-14,-32.1894,18.5103,84.3203,23.1075,-11.4512,-4.5753,33.0574,7.12502,21.2014,61.918,-9.6622,2.63872,28.7795,36.8164,-30.9005,-10.5456,19.8042,-36.929,-4.57407,-9.62212,61.7363,-18.387,-1.87006,-8.21177
11.2025,17.4662,-36.814,8.74547,-17.7759,-4.4371,7.95205,-0.676298,0.41688,-2.31599,-0.554725,4.9055,-6.86797,-0.181751,5.02397,-13.7466,-3.8747,-13.1005,18.6312,-4.54561,10.0578,8.59699,-2.10078,5.08285,-2.68359e-14,2.62396e-14,-35.4897,-13.5044,-73.8456,29.1398,-12.9827,-13.536,17.5546,7.12502,12.5765,-12.0469,-2.68359e-14,2.62396e-14,-32.5332,18.6854,84.2903,23.4945,-10.9034,-4.46273,33.7067,7.12502,21.3096,62.5551,-9.1229,2.20513,28.7649,36.4907,-30.8188,-11.068,17.4359,-37.0616,-5.34342,-9.35508,60.8411,-18.1629,-1.9552,-6.7348
11.1933,17.4671,-36.7389,8.97305,-18.1599,-4.44035,8.09455,-0.52601,0.344501,-2.41121,-0.35024,4.93818,-7.06871,-0.0731738,5.0797,-13.8345,-3.9403,-13.2571,18.8448,-4.6131,10.1022,8.69939,-2.13985,5.12187,1.2921e-15,-2.06736e-14,-35.6272,-13.0628,-73.8402,29.351,-13.3475,-13.4615,17.5003,7.12502,12.6483,-12.0967,1.2921e-15,-2.06736e-14,-32.7083,18.6465,84.32,23.9306,-10.5314,-3.61492,34.9231,7.12502,22.1237,63.6773,-8.97055,2.21355,28.5985,36.2045,-30.5791,-10.7836,17.1899,-37.3789,-5.40868,-9.16607,59.9653,-17.9702,-1.87216,-5.30424
11.1851,17.4665,-36.6701,9.28715,-18.5686,-4.42644,8.11529,-0.365894,0.287193,-2.43578,-0.142122,4.90415,-7.12461,0.0321011,5.04806,-13.9844,-4.05016,-13.4146,18.9609,-4.7607,10.2997,8.79456,-2.19892,5.20294,-7.30534e-14,6.04305e-14,-35.816,-12.2492,-74.1809,30.04,-13.9615,-13.6053,17.1238,7.12502,12.5097,-12.4818,-7.30534e-14,6.04305e-14,-32.7044,18.5205,84.3796,24.386,-10.0323,-3.00683,35.8521,7.12502,22.7074,64.536,-8.90364,2.43311,28.4285,35.87,-30.4221,-10.8415,16.0474,-37.816,-5.55406,-8.91793,59.1194,-17.975,-1.89382,-4.54096
11.1781,17.4708,-36.5984,9.5009,-18.8189,-4.44807,8.01585,-0.26239,0.365029,-2.27778,-0.00950974,4.83093,-6.90922,0.0875332,4.89927,-14.3013,-4.12138,-13.3793,18.9835,-4.86022,10.4511,8.87641,-2.21982,5.23781,5.48646e-14,3.97569e-15,-35.2891,-12.5691,-74.2161,29.593,-13.5339,-13.7479,17.2531,7.12502,12.3722,-12.3608,5.48646e-14,3.97569e-15,-32.4273,18.3614,84.4633,24.6824,-9.47644,-2.76622,36.5753,7.12502,22.9383,65.2307,-8.69475,2.65022,28.3325,35.5511,-30.1895,-10.7858,15.6526,-38.2552,-5.99485,-8.53587,58.2905,-18.0102,-1.96178,-3.19571
11.1726,17.479,-36.5188,9.71371,-19.0091,-4.42155,7.72528,-0.203212,0.465991,-2.02711,0.0543551,4.73758,-6.47959,0.10471,4.72004,-14.6626,-4.19869,-13.1244,18.8685,-4.94294,10.3184,8.90491,-2.24169,5.13187,2.49475e-14,6.04305e-14,-34.7449,-12.662,-74.4052,29.4923,-13.4041,-13.9081,17.1132,7.12502,12.2177,-12.51,2.49475e-14,6.04305e-14,-31.9558,18.3561,84.4786,24.9237,-9.16102,-2.50459,37.366,7.12502,23.1893,65.9901,-8.44144,2.65626,28.1483,35.1535,-30.2162,-10.5367,15.8328,-38.6981,-6.36704,-8.2568,57.445,-18.0727,-1.82116,-3.09969
11.1628,17.4849,-36.4663,9.98302,-18.7478,-4.33882,7.87425,-0.256272,0.429568,-2.03413,-0.0174286,4.69556,-6.56657,0.0711676,4.70858,-14.6139,-4.30556,-12.9683,18.6215,-5.09326,10.2025,8.82467,-2.31084,5.0386,-1.43125e-14,-1.59028e-15,-34.675,-12.3059,-74.6387,29.914,-13.7249,-13.8856,16.8397,7.12502,12.2395,-12.7822,-1.43125e-14,-1.59028e-15,-31.6647,18.3172,84.4705,25.205,-8.62842,-2.44676,38.0193,7.12502,23.2448,66.6364,-8.33662,2.59427,28.0883,34.7281,-30.5863,-10.4766,17.2005,-39.3871,-6.69336,-7.95739,56.581,-18.0075,-1.98096,-4.67886
11.1551,17.4906,-36.3966,10.1166,-18.6987,-4.43343,8.36418,-0.205667,0.526499,-2.15979,0.0833011,4.71045,-6.98995,0.123522,4.66885,-14.4391,-4.3908,-12.99,18.5849,-5.23534,10.2378,8.80031,-2.38001,5.03662,8.24956e-15,7.95139e-16,-34.4523,-13.4815,-74.0209,28.9654,-12.5255,-13.391,17.6576,7.12502,12.7162,-11.9352,8.24956e-15,7.95139e-16,-31.6873,18.1013,84.5137,25.382,-8.0016,-2.57709,38.7023,7.12502,23.1198,67.3351,-7.98144,2.71957,28.1836,34.3347,-30.7646,-10.6035,17.4058,-39.728,-7.05559,-7.50422,55.6683,-17.9422,-2.23068,-4.36204
11.1487,17.4945,-36.3261,10.3884,-18.6846,-4.56393,8.23275,-0.21101,0.782498,-1.95423,0.0855974,4.63602,-6.6942,0.106994,4.43478,-14.6421,-4.45893,-12.9429,18.444,-5.34884,10.438,8.80842,-2.40332,5.08066,3.51849e-14,1.66979e-14,-34.3796,-12.81,-74.546,29.778,-13.2435,-13.3121,17.352,7.12502,12.7923,-12.2361,3.51849e-14,1.66979e-14,-31.5441,19.4456,83.5582,23.233,-12.6609,-5.34537,30.6389,7.12502,20.4616,59.5808,-7.80558,2.76603,28.3114,33.9457,-30.4389,-11.0512,15.3792,-40.2021,-7.54684,-6.92931,54.666,-17.7009,-2.35637,-1.91092
11.1433,17.4975,-36.2637,10.8824,-19.0684,-4.614,8.43503,-0.120943,0.574489,-2.1231,0.204741,4.74495,-7.0012,0.181596,4.66153,-14.7247,-4.47306,-13.1052,18.5,-5.33007,10.4723,8.84609,-2.40083,5.12364,-1.38155e-14,-4.85035e-14,-34.4768,-11.9415,-74.6832,30.1893,-13.6214,-13.4764,17.0574,7.12502,12.6339,-12.5405,-1.38155e-14,-4.85035e-14,-31.841,19.7997,83.5112,23.7547,-12.0818,-5.16894,31.1062,7.12502,20.6311,60.0298,-7.91571,3.10255,28.2114,33.5352,-30.1391,-11.0108,14.9993,-40.8424,-7.80266,-6.43584,53.6315,-17.6021,-2.0162,-1.50751
11.1367,17.5238,-36.1944,11.4714,-19.868,-4.64671,8.28164,0.117856,0.454393,-2.15443,0.503298,4.67476,-6.96957,0.331926,4.61038,-14.8189,-4.50174,-13.0834,18.3881,-5.37122,10.5472,8.83224,-2.40752,5.13799,1.25234e-14,-3.97569e-15,-34.1666,-11.7925,-74.873,30.1363,-13.6692,-13.7169,16.9707,7.12502,12.4021,-12.6414,1.25234e-14,-3.97569e-15,-31.7709,20.0175,83.3546,23.8936,-11.8279,-5.34948,30.7909,7.12502,20.4576,59.7332,-8.07749,3.64562,27.8991,33.1203,-30.2031,-10.0821,17.9885,-41.326,-7.7983,-6.04806,52.5323,-17.6576,-1.60152,-2.41903
11.1346,17.5331,-36.1054,11.5364,-19.8022,-4.55632,8.28707,0.0799804,0.614016,-2.03054,0.456607,4.54333,-6.83336,0.296591,4.38248,-14.7027,-4.52975,-13.0083,18.2108,-5.4528,10.6487,8.762,-2.43241,5.14722,-1.71949e-14,1.98785e-14,-33.8788,-12.0015,-74.9559,30.0228,-13.6012,-13.7658,17.0524,7.12502,12.355,-12.5625,-1.71949e-14,1.98785e-14,-31.3914,19.9022,83.2708,23.6069,-11.7544,-5.41167,30.6581,7.12502,20.3978,59.6067,-7.63535,3.50377,27.6926,32.652,-30.2953,-9.63272,19.9045,-41.5553,-8.61514,-5.71336,51.5212,-17.5724,-1.58194,-1.8032
11.1273,17.5336,-36.0417,11.7995,-19.3895,-4.4337,8.06285,-0.0153136,0.755557,-1.82885,0.317701,4.36967,-6.47697,0.213818,4.12822,-14.5934,-4.62921,-12.8924,17.8027,-5.65087,10.8734,8.63329,-2.49584,5.17271,9.34288e-15,-5.88403e-14,-33.4915,-12.3368,-75.1548,30.1326,-13.5793,-13.6403,17.0546,7.12502,12.4759,-12.553,9.34288e-15,-5.88403e-14,-30.7961,19.6646,83.2397,23.7232,-11.8319,-5.08423,30.9192,7.12502,20.7125,59.8339,-7.50976,3.2785,27.6606,32.1503,-30.0007,-10.1323,18.5652,-42.2437,-9.31457,-5.28537,50.5419,-17.1559,-1.87575,-2.69678
11.128,17.5391,-35.9329,11.815,-19.9563,-4.41179,8.55506,0.242054,0.526176,-1.9348,0.665409,4.48484,-6.90046,0.401613,4.34132,-14.6173,-4.77215,-13.058,18.0058,-5.79465,10.7418,8.72729,-2.5879,5.13976,-6.65929e-15,3.26007e-14,-33.8698,-11.8957,-74.7633,30.4236,-13.667,-13.4985,17.0458,7.12502,12.6126,-12.5534,-6.65929e-15,3.26007e-14,-31.1586,19.727,83.4464,24.0613,-11.4696,-4.98989,31.2449,7.12502,20.8031,60.1497,-6.91951,3.41835,27.3519,31.6635,-29.8213,-9.88508,17.75,-42.1199,-9.71256,-5.07546,49.638,-16.7246,-1.63797,-1.53252
11.1284,17.5436,-35.8302,11.9557,-20.3069,-4.39555,8.49285,0.339705,0.669862,-1.76034,0.79458,4.36154,-6.68364,0.45298,4.10535,-14.8031,-4.90022,-13.0606,17.9855,-5.9799,10.8929,8.78407,-2.65488,5.1676,-1.21259e-14,1.43125e-14,-33.6015,-11.9256,-74.8589,30.464,-13.5379,-13.4796,17.1335,7.12502,12.6308,-12.4646,-1.21259e-14,1.43125e-14,-30.7641,19.4683,83.5567,24.2134,-10.1133,-5.67724,31.404,7.12502,20.1426,60.3798,-6.53848,3.54341,27.1149,31.2519,-29.8237,-9.65662,18.1877,-42.1968,-10.2522,-4.78343,48.7697,-16.5025,-1.51207,-0.0861036
11.1288,17.5418,-35.737,12.2098,-20.5665,-4.43469,8.69254,0.720195,0.990534,-1.37337,1.3087,4.03285,-6.40443,0.682099,3.49549,-16.7658,-5.50853,-12.5071,18.6642,-6.77643,10.8886,9.46538,-2.93197,4.95997,-4.85035e-14,-8.74653e-15,-32.8747,-13.2124,-74.9291,30.5445,-13.5538,-13.43,17.183,7.12502,12.6787,-12.4121,-4.85035e-14,-8.74653e-15,-29.3059,18.4653,83.9487,24.1889,-9.94816,-5.43427,31.8731,7.12502,20.3761,60.8241,-6.2805,3.70706,26.948,30.8377,-29.8054,-9.46743,18.7864,-42.4812,-10.6648,-4.43034,47.9626,-17.6507,-1.06324,-3.79379
11.1273,17.5405,-35.6538,12.4966,-20.7744,-4.48469,8.94226,0.403803,0.594211,-2.02669,0.905678,4.48119,-7.23769,0.52038,4.26849,-14.5509,-4.84294,-13.3992,18.5452,-5.91778,10.9937,8.93354,-2.65173,5.28505,2.08724e-14,-2.46493e-14,-33.6904,-11.3515,-74.6326,30.5852,-13.6655,-13.3886,17.2804,7.12502,12.7186,-12.3123,2.08724e-14,-2.46493e-14,-31.0554,19.7311,83.4145,24.4233,-10.0887,-5.46686,31.6745,7.12502,20.3448,60.6288,-6.07852,3.84878,26.8217,30.4773,-29.4813,-9.29262,18.7429,-42.8716,-10.8065,-4.10246,47.2305,-17.2495,-1.50449,-2.56099
11.125,17.5485,-35.5714,12.7529,-20.8033,-4.49488,8.99848,0.524877,0.724839,-1.80854,1.06429,4.31192,-7.04115,0.585187,3.98543,-15.3104,-5.02608,-13.0848,18.7074,-6.1932,11.1245,9.1607,-2.72336,5.23984,-5.10877e-14,1.43125e-14,-33.1052,-12.2991,-74.6329,30.3873,-13.2575,-13.6237,17.1883,7.12502,12.492,-12.4183,-5.10877e-14,1.43125e-14,-30.2693,19.5005,83.4565,24.1609,-10.3009,-5.32769,31.6678,7.12502,20.4785,60.6078,-6.04535,3.88136,26.7524,30.4261,-29.0023,-9.62663,16.7193,-43.4816,-11.3135,-3.61485,46.7447,-16.6846,-2.35684,2.07054
11.1255,17.56,-35.4728,12.8293,-21.0654,-4.38511,8.88229,0.736871,0.89484,-1.3733,1.32441,3.99337,-6.51465,0.692986,3.50521,-15.9537,-5.36835,-12.7706,18.5119,-6.68801,11.2747,9.27475,-2.89555,5.16103,-2.22639e-14,-1.59028e-15,-32.583,-12.9446,-74.9037,30.7095,-13.5687,-13.7814,16.8792,7.12502,12.3399,-12.7366,-2.22639e-14,-1.59028e-15,-29.3193,19.1478,83.5115,24.1331,-10.2429,-5.90716,30.7888,7.12502,19.9216,59.7877,-5.71327,3.97501,26.4685,30.1394,-28.6665,-9.89577,14.7859,-43.7496,-11.9515,-3.32285,46.1508,-15.9736,-2.93628,6.24762
11.1343,17.5097,-35.3732,12.8717,-21.5068,-4.19751,8.93102,0.925619,0.753845,-1.14023,1.5432,3.83203,-6.30605,0.800143,3.38022,-16.2158,-5.61485,-12.5499,18.3619,-7.00974,11.1217,9.30121,-3.03605,5.01606,1.31198e-14,4.69132e-14,-32.4197,-12.9027,-74.962,31.1275,-13.9135,-13.7556,16.9231,7.12502,12.3648,-12.6912,1.31198e-14,4.69132e-14,-28.907,18.9839,83.5713,24.3116,-9.95557,-6.59887,29.9797,7.12502,19.2566,59.0463,-5.44602,4.19376,26.0145,30.0671,-28.7185,-9.71354,14.9876,-43.9897,-10.127,-4.10813,45.7529,-14.8794,-5.39386,4.67729
11.1313,17.5592,-35.2699,13.1009,-21.7943,-4.10522,9.05177,0.990359,0.550959,-1.20102,1.61531,3.86494,-6.45029,0.844813,3.51925,-16.2614,-5.67298,-12.4221,18.4808,-7.06013,10.8223,9.34068,-3.07925,4.88152,3.97569e-16,1.43125e-14,-32.4295,-12.7167,-74.7198,31.2035,-13.8544,-13.8026,17.0355,7.12502,12.3195,-12.5815,3.97569e-16,1.43125e-14,-28.9803,19.1938,83.5384,24.3635,-9.98708,-5.94999,30.583,7.12502,19.8804,59.5862,-5.12178,4.48182,25.708,29.5346,-28.555,-9.37852,16.686,-44.04,-12.1199,-3.37519,45.0065,-14.1156,-4.56816,4.68259
11.1359,17.5459,-35.1646,13.3179,-22.119,-4.17461,9.07159,1.07301,0.593331,-1.13028,1.72824,3.87226,-6.3923,0.897905,3.48586,-16.3597,-5.70114,-12.3528,18.5173,-7.08649,10.7271,9.36842,-3.09313,4.83141,1.88845e-14,-1.59028e-15,-32.2616,-12.6174,-74.6235,31.3112,-14.0456,-13.6684,17.1447,7.12502,12.4488,-12.4646,1.88845e-14,-1.59028e-15,-28.8303,19.4947,83.4781,24.3497,-10.1921,-5.278,31.1048,7.12502,20.5263,60.0396,-4.75999,4.6909,25.5432,29.0801,-28.3132,-9.32007,16.2163,-43.8685,-12.7704,-3.13878,44.491,-13.0912,-4.32955,14.9858
11.13,17.6108,-35.0512,13.631,-22.3825,-4.14784,8.84441,1.17318,0.643932,-0.916377,1.84391,3.73229,-6.03634,0.94735,3.29378,-16.6298,-5.82,-12.2334,18.4868,-7.28015,10.8619,9.43383,-3.15241,4.82771,2.50469e-14,3.57812e-14,-31.7652,-13.0509,-74.7058,31.3733,-14.1482,-13.4091,17.4378,7.12502,12.6988,-12.1561,2.50469e-14,3.57812e-14,-28.2765,19.5746,83.4471,24.3631,-10.172,-5.14872,31.0869,7.12502,20.6505,60.0083,-4.35542,4.75258,25.3165,28.1436,-27.5258,-9.62472,13.4697,-45.0311,-14.4587,-1.77262,43.948,-10.5186,-5.35698,26.2075
11.132,17.6327,-34.9288,13.6927,-22.8563,-4.05213,8.75635,1.18611,0.525561,-0.847455,1.83998,3.6744,-5.91492,0.947402,3.30109,-16.2914,-5.77007,-12.3852,18.8943,-7.26232,10.9303,9.51906,-3.15961,4.89373,4.37326e-15,-3.10104e-14,-31.604,-13.0996,-74.6777,31.3529,-13.9673,-13.4628,17.537,7.12502,12.647,-12.0601,4.37326e-15,-3.10104e-14,-28.3556,19.9341,83.2024,24.2829,-10.1203,-5.22971,30.9588,7.12502,20.5727,59.8887,-3.85355,5.06564,24.9397,27.6093,-26.9832,-9.61153,12.2189,-45.3416,-14.909,-1.55315,43.8827,-9.56276,-5.31222,29.0954
11.1354,17.6426,-34.8027,13.7921,-23.4373,-4.10687,8.84976,1.31881,0.446865,-0.701569,2.00554,3.68414,-5.82651,1.02991,3.33147,-16.8048,-5.6636,-12.1168,18.5206,-7.07987,10.8862,9.44776,-3.04335,4.84521,3.73715e-14,-4.29375e-14,-31.328,-13.2057,-74.5348,31.4669,-13.8459,-13.6655,17.3702,7.12502,12.4516,-12.2389,3.73715e-14,-4.29375e-14,-28.1568,20.2535,83.1718,24.1405,-10.371,-5.42326,30.9597,7.12502,20.3867,59.9096,-3.36294,5.56977,24.6802,27.237,-26.6857,-9.39493,12.7783,-45.3878,-14.5693,-1.83287,44.1919,-9.58912,-5.18871,33.9234
11.1425,17.6271,-34.6766,13.9217,-24.2263,-4.25504,8.90451,1.34921,0.186965,-0.844701,2.03966,3.94661,-6.03106,1.06197,3.75105,-15.4556,-5.36714,-12.9288,18.1431,-6.67486,11.2666,9.0603,-2.91533,5.18245,-1.35174e-14,-9.54166e-15,-31.6758,-12.0392,-74.259,31.8646,-14.2773,-13.7452,17.0799,7.12502,12.3748,-12.5338,-1.35174e-14,-9.54166e-15,-29.058,21.2203,82.9211,24.4133,-10.6607,-5.17095,31.2139,7.12502,20.6292,60.1376,-3.30851,5.95864,24.4042,27.6691,-26.6458,-9.20474,11.7968,-44.7763,-13.547,-2.62855,44.8377,-10.5487,-5.21441,40.9083
11.1559,17.594,-34.5421,13.9967,-25.0255,-4.35976,8.89469,1.69802,0.303121,-0.550134,2.49619,3.79064,-5.73205,1.27587,3.45601,-15.9589,-5.64364,-12.8355,18.3984,-7.08235,11.4356,9.29983,-3.06689,5.17078,2.20651e-14,-3.89618e-14,-31.3136,-12.6799,-74.1095,31.9953,-14.3906,-13.6374,17.1066,7.12502,12.4787,-12.5009,2.20651e-14,-3.89618e-14,-28.4799,20.8434,83.1046,24.2741,-10.6747,-5.14473,30.9866,7.12502,20.6544,59.9076,-3.45648,6.28603,24.017,28.5707,-26.6568,-9.00788,9.15465,-43.6092,-12.4728,-3.78869,45.6693,-12.3955,-4.66156,31.2829
11.1688,17.5498,-34.4447,14.2591,-24.9064,-4.29417,8.97951,1.6435,0.29963,-0.523969,2.42229,3.75797,-5.74654,1.23873,3.43227,-16.4398,-5.66266,-12.6173,18.782,-7.14279,11.4453,9.52163,-3.06378,5.13307,6.16232e-15,-3.26007e-14,-30.9584,-13.1209,-73.9641,31.9755,-14.2264,-13.4839,17.3174,7.12502,12.6267,-12.2809,6.16232e-15,-3.26007e-14,-28.214,20.7167,83.1167,24.0145,-10.7208,-5.61033,30.0864,7.12502,20.2069,59.0553,-3.99595,6.39658,23.8246,29.7446,-26.8733,-8.9552,8.71839,-43.0734,-11.6059,-4.83963,46.4801,-14.1407,-3.64843,11.4898
11.1772,17.5147,-34.3425,14.4771,-24.8645,-4.26051,8.97051,1.38066,0.10954,-0.757164,2.07085,3.94656,-5.98098,1.07845,3.7895,-15.4979,-5.19899,-12.9306,18.8077,-6.5815,11.6614,9.29675,-2.83489,5.35521,-2.00773e-14,-2.06736e-14,-31.1829,-12.4111,-73.7772,32.1774,-14.2835,-13.5546,17.3655,7.12502,12.5586,-12.237,-2.00773e-14,-2.06736e-14,-28.8986,21.357,82.8025,24.0481,-10.5843,-5.78875,29.6551,7.12502,20.0354,58.6422,-4.7065,6.48515,23.642,31.4435,-27.364,-8.83493,9.17763,-42.7567,-10.6982,-5.6802,47.1002,-15.2888,-2.59063,-1.47467
11.1815,17.508,-34.2427,14.819,-24.7037,-4.25661,8.95466,1.25343,0.0908213,-0.807943,1.90157,3.96259,-6.01533,0.996731,3.8417,-15.4974,-5.06997,-12.825,18.9869,-6.46122,11.7378,9.34,-2.76458,5.38685,-5.70512e-14,2.46493e-14,-31.0837,-12.4978,-73.6939,32.4785,-14.5809,-13.7149,17.2299,7.12502,12.404,-12.3821,-5.70512e-14,2.46493e-14,-28.7803,21.3147,82.8577,24.4803,-9.82102,-5.48608,30.7167,7.12502,20.3263,59.673,-5.19978,6.47289,23.5529,32.3009,-27.2553,-9.00824,8.81658,-43.0431,-10.1152,-6.08761,47.5361,-15.6785,-2.52225,-5.46414
11.17,17.4922,-34.2831,16.9021,-21.7922,-3.08566,8.31257,0.301137,-0.892057,-1.97277,0.55947,4.05043,-6.80271,0.399006,4.69925,-15.8269,-5.11325,-12.5339,19.4898,-6.55622,11.5432,9.57151,-2.79808,5.26444,2.8625e-14,2.94201e-14,-31.1247,-12.6939,-73.5343,32.8583,-14.9765,-13.7601,16.9887,7.12502,12.3604,-12.6259,2.8625e-14,2.94201e-14,-28.6647,21.017,82.9955,25.0063,-8.73695,-4.95862,32.8558,7.12502,20.8332,61.7573,-8.24398,5.27235,23.426,33.0479,-27.0811,-10.3105,10.5486,-47.0167,-10.0941,-6.45221,47.7586,-15.1703,-4.37034,-9.77704
11.1929,17.5227,-33.9391,14.5939,-25.8126,-4.1251,9.25434,1.48726,-0.0990457,-0.666171,2.18596,3.82685,-6.05652,1.13926,3.76012,-15.1191,-5.11089,-12.7915,19.046,-6.61501,11.8847,9.3153,-2.8322,5.41766,-4.8901e-14,-2.38542e-15,-30.9442,-13.1215,-73.2887,32.8096,-14.6465,-13.742,17.1166,7.12502,12.3778,-12.497,-4.8901e-14,-2.38542e-15,-28.4439,21.6922,82.6178,23.4262,-10.536,-6.02748,30.5877,7.12502,19.8059,59.5986,-4.91377,6.43785,22.6286,33.2173,-25.6486,-9.76711,0.120051,-41.7356,-9.91432,-7.36459,47.9621,-16.9149,-0.704042,-13.4677
11.1964,17.5319,-33.7617,14.2464,-26.8525,-3.90489,8.92619,1.77709,-0.205041,-0.159442,2.52152,3.56736,-5.35161,1.29381,3.50617,-15.6036,-5.12669,-12.7554,19.2388,-6.68049,12.2095,9.49253,-2.81226,5.52274,8.52786e-14,4.77083e-14,-30.6258,-13.7925,-73.1685,33.0799,-14.6395,-13.7809,17.2542,7.12502,12.3403,-12.3616,8.52786e-14,4.77083e-14,-28.151,21.7191,82.6211,23.6427,-11.0396,-5.86518,30.4346,7.12502,19.962,59.4293,-4.41536,7.1188,21.7369,33.7131,-25.2446,-8.55546,1.46325,-40.6393,-9.93728,-8.24033,48.0853,-17.5014,0.346795,-15.063
11.1973,17.5398,-33.6334,14.1413,-26.8992,-3.53759,9.231,1.66911,-0.740489,-0.388107,2.33689,3.62518,-5.77729,1.22551,3.88959,-14.8372,-4.85899,-13.007,19.2825,-6.4111,12.5111,9.34365,-2.70237,5.72076,2.60408e-14,0,-30.6535,-14.1446,-72.8225,32.9679,-14.1986,-14.3013,16.9115,7.12502,11.8386,-12.7338,2.60408e-14,0,-28.7597,22.1614,82.3814,23.6057,-11.1489,-5.81151,30.4081,7.12502,20.0135,59.3975,-4.15931,7.29267,21.1105,33.9062,-24.6955,-7.66673,0.691299,-40.3705,-10.1833,-8.88309,48.2908,-17.8664,0.566159,-15.2825
11.1963,17.5485,-33.5085,14.2342,-26.8526,-3.28397,9.14814,1.56803,-1.00792,-0.533721,2.17534,3.58551,-5.88035,1.15705,4.0241,-14.1116,-4.71372,-13.0051,19.2521,-6.32609,12.6423,9.18809,-2.67515,5.78342,3.4191e-14,-7.95139e-15,-31.2928,-13.8628,-72.5221,33.7029,-14.4815,-15.0174,16.2552,7.12502,11.148,-13.4287,3.4191e-14,-7.95139e-15,-29.0107,22.1692,82.1879,23.4688,-11.0811,-5.84652,30.4218,7.12502,19.9799,59.4146,-4.47534,7.3044,20.6222,34.7944,-24.4712,-6.97796,0.660838,-40.3076,-10.4825,-9.31667,48.5345,-18.1839,0.68945,-14.4374
11.1956,17.5386,-33.3856,14.4417,-26.8742,-3.15391,9.00037,-0.0769205,-2.82892,-1.35147,-0.103768,5.35677,-6.48533,0.15611,7.32311,-11.0084,-2.61852,-16.3098,19.0212,-3.13337,12.8017,8.12159,-1.49892,6.78755,-3.71727e-14,7.87187e-14,-30.9747,-7.53025,-72.2064,33.6522,-14.9725,-14.9896,16.1788,7.12502,11.1748,-13.5037,-3.71727e-14,7.87187e-14,-33.0392,27.7213,80.8247,24.2504,-11.2853,-5.89188,30.4264,7.12502,19.9363,59.4238,-4.92352,7.36856,20.2434,35.8217,-23.0395,-6.6225,-0.3955,-40.4008,-10.4515,-9.64715,48.8648,-18.453,0.307245,-11.9012
11.198,17.5208,-33.2467,14.4466,-27.1953,-3.07326,9.31342,-0.801743,-4.09154,-1.715,-1.16257,6.32338,-6.86453,-0.273957,9.31667,-10.164,-1.61757,-17.5327,19.2417,-1.57334,12.339,7.79809,-0.917874,6.98396,1.92821e-14,-4.6118e-14,-31.2034,-3.8303,-71.8478,34.4467,-16.092,-14.6865,16.3021,7.12502,11.4671,-13.3643,1.92821e-14,-4.6118e-14,-34.9609,30.5211,80.132,24.3814,-11.2663,-6.03901,30.3668,7.12502,19.7949,59.3788,-5.16923,7.4208,19.8199,36.8483,-22.2847,-6.54654,-2.56854,-40.1493,-10.1539,-10.1003,49.2184,-18.8304,-0.202288,-9.20237
11.1996,17.5146,-33.1071,14.3868,-27.4716,-2.99471,9.43331,-0.0973308,-3.38646,-1.43284,-0.188705,5.47468,-6.80887,0.151573,7.80657,-11.0899,-2.58606,-15.6925,19.608,-3.00979,11.6944,8.29291,-1.50558,6.31541,-5.06901e-14,-1.03368e-14,-31.5864,-7.03527,-71.7364,34.997,-16.0531,-14.8306,16.3771,7.12502,11.3281,-13.297,-5.06901e-14,-1.03368e-14,-33.3055,27.9309,80.7236,24.069,-10.7653,-5.63846,31.1365,7.12502,20.1799,60.1084,-5.35402,7.47399,19.4164,37.7866,-21.4001,-6.24505,-3.15398,-39.6818,-9.94104,-10.5631,49.4181,-19.1939,-0.429941,-7.01801
11.1968,17.5162,-32.9693,14.4798,-27.7109,-2.94543,9.41202,1.19282,-2.15421,-0.599118,1.57222,3.97477,-6.0969,0.908216,5.18026,-14.3813,-4.39273,-12.6808,20.432,-5.71921,11.3214,9.50642,-2.49591,5.36198,-3.4191e-14,-3.73715e-14,-31.1691,-13.2811,-71.8452,35.3222,-15.5697,-14.9669,16.4918,7.12502,11.1967,-13.1895,-3.4191e-14,-3.73715e-14,-29.6252,23.4895,81.8874,23.6106,-10.5832,-5.09452,32.0095,7.12502,20.7026,60.9252,-5.75988,7.53415,19.0117,38.8291,-20.0911,-5.59609,-1.52127,-39.4514,-9.7657,-10.8503,49.5159,-19.2875,-1.35318,-7.94188
11.1912,17.5496,-32.8286,14.6212,-27.9259,-2.84129,9.25625,-0.450161,-4.15754,-1.52576,-0.732806,5.75991,-6.71216,-0.0816594,8.65329,-10.8445,-2.18914,-15.7565,20.2725,-2.44964,11.3103,8.38195,-1.30517,6.26883,6.48038e-14,3.97569e-15,-31.0856,-6.70339,-71.6017,35.3246,-15.8752,-14.5833,16.7348,7.12502,11.5666,-12.926,6.48038e-14,3.97569e-15,-34.1533,29.2593,80.0941,24.4724,-10.8827,-5.19159,31.8791,7.12502,20.6093,60.805,-6.2498,7.45932,18.5595,39.7434,-18.5367,-5.25821,-1.89777,-39.1395,-10.4377,-11.0043,49.3927,-19.3354,-1.43149,2.53234
11.1909,17.5486,-32.7092,14.6388,-27.9062,-2.60718,9.34809,1.24692,-2.46603,-0.440528,1.58956,3.67119,-5.89368,0.915033,5.0313,-14.8636,-4.4834,-12.1582,20.8904,-6.03059,11.6055,9.79242,-2.55842,5.34538,1.61016e-14,-1.19271e-14,-30.8939,-15.2868,-71.5963,35.7442,-14.8104,-14.2226,17.3392,7.12502,11.9145,-12.3017,1.61016e-14,-1.19271e-14,-28.608,23.2556,81.6896,22.7072,-11.737,-5.49881,31.3351,7.12502,20.3141,60.2927,-6.94691,7.1062,18.1029,41.1167,-17.1914,-5.07808,-3.9589,-38.674,-10.1731,-11.7328,49.4854,-19.3707,-0.156468,-12.8404
11.1864,17.5615,-32.5265,14.3557,-29.0285,-2.68813,9.28989,1.49891,-2.61229,-0.290144,1.90463,3.63423,-5.73958,1.06833,5.0294,-14.2456,-4.399,-12.1289,20.7779,-5.96379,11.5284,9.62221,-2.5527,5.32088,6.32135e-14,2.38542e-14,-31.1651,-15.1441,-71.4697,36.2457,-15.4925,-14.4361,17.4194,7.12502,11.7086,-12.2334,6.32135e-14,2.38542e-14,-28.7126,23.483,81.4692,22.2574,-12.4195,-5.48647,30.948,7.12502,20.3259,59.9044,-7.01157,7.52061,17.4577,42.2416,-15.809,-4.08869,-3.53948,-37.5758,-9.83367,-12.2229,49.4466,-19.4619,-1.27929,2.96184
11.1865,17.5096,-32.4415,14.6075,-28.5951,-2.39031,9.46543,1.33024,-2.9972,-0.419301,1.63828,3.63879,-5.95839,0.956494,5.29319,-14.3632,-4.43596,-11.9625,20.7954,-6.02927,11.4627,9.6521,-2.573,5.25902,6.95746e-15,-1.35174e-14,-31.1229,-15.4897,-71.3459,36.6042,-15.7044,-14.367,17.6238,7.12502,11.7752,-12.0252,6.95746e-15,-1.35174e-14,-28.3976,23.4317,81.472,22.0553,-12.8268,-5.31122,30.7899,7.12502,20.4944,59.7282,-8.12607,6.91816,17.0531,43.8049,-14.3259,-3.76723,-1.18114,-37.7905,-8.77491,-12.963,49.6719,-19.7368,-1.62422,-7.33953
11.1784,17.5502,-32.2786,14.5901,-29.2196,-2.40647,9.38304,1.5814,-3.00414,-0.0152536,1.95581,3.46097,-5.51484,1.0921,5.06053,-15.798,-4.66916,-11.5109,21.2819,-6.32803,11.348,10.1198,-2.6421,5.10343,-2.60408e-14,-7.95139e-15,-30.6458,-16.4359,-71.3768,36.9385,-15.7235,-13.9314,17.9744,7.12502,12.1952,-11.6501,-2.60408e-14,-7.95139e-15,-27.3141,22.7873,81.847,22.0084,-12.6152,-5.19456,31.2523,7.12502,20.6065,60.1785,-8.65214,6.96483,16.5483,44.9865,-12.5319,-3.21819,0.261549,-37.0515,-8.74432,-13.283,49.4972,-20.4691,-2.17896,4.72962
11.1744,17.5607,-32.1414,14.5652,-29.556,-2.14284,9.14596,0.295971,-4.67869,-1.07197,0.148036,4.77551,-6.31554,0.326692,7.72694,-11.2742,-2.76307,-14.0311,20.7287,-3.58224,11.3536,8.75091,-1.70061,5.88387,-4.4329e-14,2.06736e-14,-31.5122,-10.7513,-71.0532,37.2717,-16.3155,-13.522,18.2689,7.12502,12.5899,-11.3317,-4.4329e-14,2.06736e-14,-31.6067,26.2995,80.5533,23.1586,-11.4371,-4.87772,32.0297,7.12502,20.9109,60.9227,-9.46525,6.78028,15.9175,46.3014,-10.6143,-2.78865,1.42337,-36.5531,-8.59124,-13.9121,49.3503,-20.3666,-2.19557,-0.961984
11.168,17.5842,-32.0252,14.646,-29.3822,-1.77959,9.56234,1.22263,-3.98168,-0.444818,1.37885,3.57145,-6.03466,0.862044,5.8259,-14.7406,-4.19117,-11.7549,21.5395,-5.73046,11.3305,9.93355,-2.42433,5.2373,-4.75095e-14,1.43125e-14,-31.2331,-15.287,-71.3216,38.0396,-16.4214,-13.5392,18.2261,7.12502,12.5734,-11.3755,-4.75095e-14,1.43125e-14,-28.0637,22.3573,81.6879,22.6225,-10.7476,-4.43005,32.4034,7.12502,21.3409,61.2483,-10.3105,6.25147,15.4286,47.3334,-8.50411,-2.71288,3.37061,-36.1985,-9.22766,-14.3464,48.9158,-20.3736,-1.72817,4.76154
11.1627,17.6019,-31.8482,14.4165,-30.317,-1.80242,9.46565,1.24218,-4.15939,-0.389054,1.38935,3.6195,-5.92846,0.869348,5.97842,-14.0022,-3.9137,-12.0793,21.4722,-5.35021,11.3756,9.72682,-2.29383,5.36203,3.67752e-14,-4.77083e-15,-31.7414,-14.1688,-71.3344,38.9034,-16.9601,-13.6171,18.1051,7.12502,12.4983,-11.5012,3.67752e-14,-4.77083e-15,-28.4713,22.6653,81.445,22.5868,-11.0942,-5.11509,31.5997,7.12502,20.6828,60.5176,-10.6746,6.51622,14.7976,48.3914,-6.78862,-2.28912,4.44448,-34.8956,-9.51315,-14.9177,48.5171,-20.9429,-0.30369,-5.81931
11.1554,17.6168,-31.6987,14.3416,-30.8638,-1.65931,9.43493,1.24688,-4.43578,-0.38228,1.3646,3.60067,-5.90747,0.864899,6.12136,-13.6518,-3.82463,-12.2978,21.4389,-5.22917,11.4471,9.6394,-2.25942,5.44199,-2.3059e-14,5.08889e-14,-32.1092,-13.7777,-71.1976,39.4889,-16.916,-13.401,18.3497,7.12502,12.7067,-11.2437,-2.3059e-14,5.08889e-14,-28.513,22.3153,81.5156,22.2704,-11.6529,-6.67736,30.2604,7.12502,19.1811,59.3345,-11.338,6.52446,14.2037,49.5273,-4.87188,-2.00371,6.26327,-34.0927,-9.4711,-15.4614,48.0763,-21.1594,-0.182743,1.07858
11.1482,17.6358,-31.5606,14.3031,-30.8279,-1.46158,9.47151,1.16294,-4.5415,-0.35507,1.23663,3.55325,-5.88251,0.802785,6.15018,-13.6078,-3.83541,-12.3012,21.4605,-5.2584,11.4754,9.64338,-2.27217,5.44994,-3.57812e-14,3.49861e-14,-32.0219,-13.7731,-71.2974,39.8882,-17.5128,-13.5032,18.2677,7.12502,12.6081,-11.3318,-3.57812e-14,3.49861e-14,-28.1984,21.7387,81.6959,22.0973,-11.7126,-7.05414,30.2079,7.12502,18.8187,59.3176,-12.0035,6.14015,13.8083,50.7489,-2.25219,-1.9786,13.9541,-33.5078,-9.94422,-15.8282,47.6451,-21.1441,-0.413446,6.389
11.1398,17.6553,-31.431,14.3206,-31.2042,-1.40827,9.5327,1.34482,-4.59466,-0.314822,1.45797,3.31685,-5.90019,0.909145,5.89278,-13.509,-3.89915,-11.7811,21.4336,-5.47833,11.4547,9.62886,-2.33728,5.32253,-9.72057e-14,0,-32.0511,-14.4319,-71.5204,40.22,-17.6814,-13.4828,18.2322,7.12502,12.6278,-11.3661,-9.72057e-14,0,-27.7612,20.87,81.6519,22.1986,-11.6903,-6.46306,30.7934,7.12502,19.3872,59.847,-12.8877,6.02533,13.4508,52.1989,-1.56085,-1.39052,15.9456,-32.8342,-10.2334,-16.1609,47.2781,-21.2928,-0.279455,8.56058
11.1311,17.6659,-31.3162,14.3654,-31.211,-1.16261,9.70983,1.187,-4.91749,-0.548163,1.20278,3.26609,-6.21981,0.80933,6.06382,-12.7709,-3.67864,-11.728,21.2822,-5.25531,11.468,9.40265,-2.25146,5.3444,-6.91771e-14,1.43125e-14,-32.4065,-14.1011,-71.6906,40.6946,-17.5869,-13.4091,18.2041,7.12502,12.6988,-11.3898,-6.91771e-14,1.43125e-14,-28.1327,20.7052,81.354,22.6263,-11.625,-6.184,30.9414,7.12502,19.6555,59.9677,-13.9249,5.56908,13.0785,53.6917,-0.977657,-1.231,14.5688,-32.4323,-10.1853,-16.6068,46.9034,-21.4865,-0.768556,10.3979
11.1207,17.6613,-31.2229,14.4707,-30.9563,-0.782166,9.89763,0.729357,-5.49358,-0.696195,0.528448,3.46654,-6.39766,0.511362,6.72062,-12.7759,-3.30621,-12.3409,21.4858,-4.63719,11.5877,9.4081,-2.00367,5.57906,2.76311e-14,-3.49861e-14,-32.1363,-12.9132,-71.9879,41.0259,-17.4402,-13.5304,18.3071,7.12502,12.5819,-11.294,2.76311e-14,-3.49861e-14,-28.4931,21.7014,81.0592,23.0704,-11.8296,-6.16645,30.8099,7.12502,19.6723,59.8345,-15.1634,4.95513,12.7402,55.3189,0.599316,-1.81917,17.4288,-32.358,-9.32297,-17.1752,46.6612,-21.7599,-1.82606,10.0922
11.1085,17.6764,-31.0687,14.2062,-31.625,-0.629754,9.83088,0.751453,-5.67994,-0.38664,0.53584,3.42346,-6.03256,0.497256,6.77585,-13.3513,-3.20676,-12.6614,21.8331,-4.43124,11.7928,9.62229,-1.89969,5.74939,-4.13472e-14,3.26007e-14,-31.7514,-12.4825,-72.2195,41.3421,-17.2926,-13.5536,18.3901,7.12502,12.5595,-11.2124,-4.13472e-14,3.26007e-14,-28.0623,21.9711,81.0503,23.2538,-11.8638,-6.2453,30.7319,7.12502,19.5965,59.7642,-15.7973,5.02261,12.2282,56.7884,0.581898,-2.27122,17.4477,-31.2482,-9.59506,-17.8714,46.3841,-22.3478,-0.38691,5.42308
11.0993,17.6715,-30.944,14.3359,-31.819,-0.535497,9.62956,0.666978,-5.95029,-0.270155,0.40679,3.51519,-5.77777,0.430085,7.04767,-13.6114,-3.15117,-12.6826,21.8583,-4.29011,11.6826,9.65932,-1.83957,5.7317,-3.1408e-14,2.70347e-14,-31.5569,-11.9557,-72.2729,41.719,-17.3897,-13.3802,18.7244,7.12502,12.7267,-10.8678,-3.1408e-14,2.70347e-14,-27.4153,21.9719,81.222,23.3369,-11.4305,-6.4557,30.8565,7.12502,19.3942,59.9093,-16.8744,4.76005,11.9683,58.3503,-0.816444,-3.14735,15.7483,-30.8364,-9.02275,-18.4081,46.2033,-22.2313,0.0251289,-4.00457
11.0888,17.6695,-30.8266,14.4413,-31.8549,-0.451197,9.61795,0.641634,-5.96714,-0.158265,0.366234,3.41539,-5.64445,0.400084,6.95337,-14.2083,-3.29238,-12.4155,22.0248,-4.45979,11.5397,9.84797,-1.89444,5.61782,6.14245e-14,3.97569e-15,-31.5501,-11.7178,-72.5556,42.4145,-17.8928,-13.3455,18.5258,7.12502,12.7602,-11.0643,6.14245e-14,3.97569e-15,-26.5997,21.6492,81.2769,23.3239,-11.3936,-6.44231,30.9769,7.12502,19.4071,60.0284,-17.8984,4.45384,11.8507,59.8033,-2.414,-3.37306,13.3584,-30.5111,-8.55718,-18.8044,46.0047,-22.0577,2.10085,-19.1618
11.0739,17.6705,-30.7059,14.3682,-32.0804,-0.171468,9.66207,0.709297,-6.13186,0.00901943,0.421945,3.15121,-5.49966,0.417332,6.75313,-12.9053,-3.54475,-13.4924,21.0599,-4.93177,12.7442,9.38496,-2.11243,6.15354,-4.92986e-14,-1.63003e-14,-31.4189,-11.9718,-72.918,42.8363,-17.9307,-13.3152,18.4055,7.12502,12.7893,-11.1828,-4.92986e-14,-1.63003e-14,-26.0267,21.173,81.1998,23.5495,-11.6074,-5.90055,31.5272,7.12502,19.928,60.5255,-18.8407,4.27452,11.5315,61.2342,-1.73621,-4.99247,13.9789,-30.0907,-8.21097,-19.4375,45.8607,-21.9524,2.63724,-25.3894
11.0587,17.6785,-30.5897,14.4549,-32.1971,0.0675709,9.69248,0.59454,-6.54438,0.0457148,0.221345,3.15606,-5.44799,0.326472,7.02616,-15.6874,-3.12661,-11.4892,23.0386,-4.25455,11.0527,10.4355,-1.74003,5.34482,6.38099e-14,-1.35174e-14,-31.1366,-11.6415,-73.1342,42.9513,-17.6238,-13.2398,18.4908,7.12502,12.8621,-11.0929,6.38099e-14,-1.35174e-14,-26.0384,21.1925,81.1374,24.0982,-11.3545,-5.39464,32.2227,7.12502,20.4142,61.1696,-19.8697,3.94913,11.3085,62.519,-2.8473,-5.68569,13.0091,-29.8901,-8.24882,-19.7794,45.7431,-21.8781,0.865145,-16.0678
11.0428,17.69,-30.4838,14.7304,-31.9859,0.26175,9.77603,0.367459,-6.96469,-0.0651252,-0.126892,3.30662,-5.55414,0.176849,7.48675,-17.3478,-2.77237,-10.6063,24.2131,-3.63703,10.0316,11.0726,-1.46219,4.94682,-4.85035e-14,2.18663e-14,-30.9493,-11.1393,-73.2271,43.1061,-17.5203,-12.955,18.6681,7.12502,13.1366,-10.8981,-4.85035e-14,2.18663e-14,-25.6007,21.2548,81.2349,24.1484,-10.8188,-5.57144,32.2587,7.12502,20.2443,61.2238,-21.0636,3.26866,11.28,63.6688,-2.9233,-7.12417,17.8052,-29.876,-8.29743,-20.0214,45.5989,-21.6315,-1.26712,0.689227
11.024,17.7026,-30.3731,14.9767,-31.9162,0.478871,9.71654,0.306318,-7.09378,-0.22296,-0.22533,3.21932,-5.67098,0.141743,7.48237,-16.8014,-2.84893,-10.8925,24.0465,-3.76579,10.2362,10.9289,-1.53583,5.04599,6.55989e-15,3.02153e-14,-31.1634,-11.3866,-73.2536,43.3361,-17.3228,-12.6392,18.8724,7.12502,13.4409,-10.6739,6.55989e-15,3.02153e-14,-24.9559,20.9377,81.2447,23.9076,-10.5449,-6.07313,31.9685,7.12502,19.7621,60.9839,-22.252,2.63677,11.1757,64.6435,-4.86552,-7.41012,16.6522,-29.7125,-8.25275,-20.4543,45.4498,-21.9487,0.831965,-18.5469
11.0049,17.7152,-30.2306,14.9385,-32.464,0.353375,9.62272,0.386095,-6.91208,-0.000696729,-0.100094,3.03609,-5.40334,0.175776,7.15445,-16.3456,-2.84677,-11.0527,23.7584,-3.82533,10.5293,10.749,-1.55332,5.16254,-7.17613e-14,3.97569e-16,-31.0636,-11.6654,-73.5594,43.4215,-16.7256,-12.5026,19.3088,7.12502,13.5726,-10.2288,-7.17613e-14,3.97569e-16,-24.6552,21.0743,80.9947,24.2331,-10.5635,-6.27376,31.9034,7.12502,19.5692,60.9385,-22.9769,2.64502,11.1407,65.4941,-5.31592,-8.51352,17.763,-28.844,-8.24423,-20.8456,45.2279,-21.957,2.28254,-25.0193
10.9795,17.7714,-30.1197,15.3648,-32.2423,0.439397,9.77743,0.296736,-7.19067,-0.190903,-0.260588,3.07858,-5.66495,0.123612,7.39113,-13.8266,-3.154,-12.4884,21.5884,-4.36534,11.9732,9.61745,-1.82121,5.78541,-4.39314e-14,1.23246e-14,-31.1272,-11.6992,-73.6194,43.4654,-16.1725,-12.5389,19.4526,7.12502,13.5376,-10.0873,-4.39314e-14,1.23246e-14,-24.5534,21.1345,80.9314,24.6599,-10.8221,-5.92944,32.1225,7.12502,19.9002,61.1237,-24.218,2.14081,11.3452,66.1629,-5.19587,-10.0193,18.6445,-29.5717,-9.18049,-20.4129,45.0415,-21.092,-2.29514,9.37549
10.9625,17.7298,-30.0001,15.1541,-32.6881,0.387657,10.2039,0.553349,-7.27374,-0.160066,0.0403986,3.02789,-5.92833,0.284762,7.34735,-14.4476,-3.16622,-11.7874,22.1799,-4.39148,11.3946,9.92006,-1.82125,5.46935,-5.26779e-14,2.0276e-14,-31.7597,-10.9697,-73.7561,44.4426,-17.0011,-13.1308,18.5082,7.12502,12.9671,-11.0689,-5.26779e-14,2.0276e-14,-24.2276,20.7498,81.0454,24.7891,-11.1222,-5.87655,32.0141,7.12502,19.951,61.01,-24.9955,2.18213,11.3642,66.9946,-4.76419,-11.1124,20.8512,-28.2228,-7.81492,-21.2381,44.8142,-21.6075,0.630546,-19.4447
10.9436,17.7526,-29.8964,15.6773,-32.2938,0.409158,9.54883,0.318237,-6.76831,0.101339,-0.188113,2.6602,-5.23796,0.112735,6.67423,-14.1596,-3.28029,-11.5499,21.3711,-4.67418,11.8043,9.62199,-1.89329,5.51177,-2.33572e-14,2.26615e-14,-30.8868,-12.4647,-74.3678,43.7536,-16.0742,-12.915,19.0127,7.12502,13.1751,-10.551,-2.33572e-14,2.26615e-14,-22.8931,20.1865,80.8373,24.7631,-10.8753,-7.28399,30.8431,7.12502,18.5977,59.9741,-26.3554,1.44102,11.6626,67.5639,-5.30143,-11.8238,20.1744,-28.5731,-8.14494,-21.126,44.6828,-21.0021,-1.33556,2.1412
10.9223,17.7679,-29.7567,15.74,-32.6926,0.25687,10.0685,0.374699,-7.14157,-0.125263,-0.174319,2.9968,-5.77512,0.166059,7.26582,-13.8111,-3.18196,-12.0437,21.4174,-4.46196,11.8148,9.55439,-1.84522,5.63035,-3.57812e-15,3.57812e-15,-31.6791,-10.7471,-74.1992,44.75,-17.054,-12.9702,18.7659,7.12502,13.1219,-10.8013,-3.57812e-15,3.57812e-15,-23.0688,20.6093,81.0516,24.9197,-10.7486,-6.80989,31.72,7.12502,19.0537,60.8068,-27.1741,1.46699,11.8016,68.0789,-5.77621,-12.1642,19.737,-28.0193,-8.298,-21.2957,44.5548,-20.6485,-2.05242,11.6045
