JuanDHNZ/ProyectoFinalCD/preprocessing/sports_trials_csv/11_01.csv
root1,root2,root3,root4,root5,root6,lowerback1,lowerback2,lowerback3,upperback1,upperback2,upperback3,thorax1,thorax2,thorax3,lowerneck1,lowerneck2,lowerneck3,upperneck1,upperneck2,upperneck3,head1,head2,head3,rclavicle1,rclavicle2,rhumerus1,rhumerus2,rhumerus3,rradius1,rwrist1,rhand1,rhand2,rfingers1,rthumb1,rthumb2,lclavicle1,lclavicle2,lhumerus1,lhumerus2,lhumerus3,lradius1,lwrist1,lhand1,lhand2,lfingers1,lthumb1,lthumb2,rfemur1,rfemur2,rfemur3,rtibia1,rfoot1,rfoot2,rtoes1,lfemur1,lfemur2,lfemur3,ltibia1,lfoot1,lfoot2,ltoes1
12.2047,17.4653,-40.3148,-9.79949,-39.9965,3.92364,12.3489,1.31416,-8.89568,2.15122,0.452526,-1.32038,-4.71848,0.32705,3.54966,-10.2594,-8.49065,-15.8505,25.6859,-15.1436,20.3427,13.2408,-6.51127,8.34021,-8.04084e-14,9.54166e-15,-29.1423,-23.6121,-80.3826,18.3839,29.2505,-18.0321,20.4567,7.12502,8.23937,-9.36265,-8.04084e-14,9.54166e-15,-31.1732,9.44851,80.1786,16.6023,-11.2054,-6.09381,32.6118,7.12502,19.7422,61.6293,-21.6564,13.7547,10.8355,45.891,-20.55,-2.07397,7.598,-6.89445,-0.0174515,-28.4595,38.6996,-29.5662,12.8473,15.2799
12.1849,17.5225,-40.2781,-9.74973,-40.3363,4.09094,12.0673,1.33053,-8.95587,2.05945,0.493603,-1.3243,-4.66572,0.349501,3.57365,-10.269,-8.06535,-15.4224,25.8257,-14.3538,19.5899,12.9792,-6.17433,8.08654,6.13002e-14,-3.18055e-15,-29.3663,-23.3128,-80.3208,18.4547,28.5752,-17.5278,20.9444,7.12502,8.72603,-8.85521,6.13002e-14,-3.18055e-15,-31.3462,9.64152,80.0015,17.0329,-10.2898,-10.3807,30.1971,7.12502,15.617,59.5867,-22.3622,13.5086,10.988,46.4496,-20.5583,-3.12329,-1.92846,-6.3385,-0.471211,-28.752,37.6085,-29.4548,13.6824,15.2964
12.1654,17.5365,-40.284,-9.67534,-40.2106,4.03455,12.4354,1.29516,-9.07802,1.9542,0.385056,-1.28812,-4.96884,0.313964,3.69544,-10.4509,-7.89406,-15.203,25.8454,-13.9498,19.1,12.8591,-5.99997,7.90252,-5.06901e-15,2.8625e-14,-29.6476,-23.7525,-79.9834,18.4675,28.6982,-17.2989,21.8673,7.12502,8.94696,-7.92304,-5.06901e-15,2.8625e-14,-31.3817,8.95596,80.1699,16.8301,-10.8026,-10.8119,30.0811,7.12502,15.2017,59.5026,-22.5352,13.1737,11.5092,46.6031,-20.5484,-4.02526,-7.5841,-6.37635,-0.407567,-28.5919,37.6637,-29.4106,13.5563,15.3092
12.1404,17.5109,-40.2911,-9.68343,-40.0915,4.07252,12.4803,1.27032,-9.16006,2.03509,0.337433,-1.32676,-4.90143,0.28569,3.70872,-10.638,-7.71358,-15.0417,25.165,-13.504,19.0142,12.4979,-5.77902,7.86288,1.3249e-13,-1.51076e-14,-29.6653,-23.8959,-79.9899,18.5565,28.6103,-17.5892,22.1099,7.12502,8.66676,-7.69223,1.3249e-13,-1.51076e-14,-31.0726,8.25938,80.3057,16.6557,-10.8425,-11.0197,29.956,7.12502,15.0015,59.3926,-22.4256,12.9204,11.967,46.7041,-20.8027,-3.51968,-4.8013,-6.37818,-0.322208,-28.5138,37.637,-29.2083,13.5415,15.207
12.1145,17.4701,-40.291,-9.91882,-39.8946,4.39617,12.5352,1.26213,-9.46349,2.05717,0.277234,-1.36925,-4.90121,0.259474,3.84359,-11.7831,-7.73754,-14.8857,25.8798,-13.3717,18.4345,12.9374,-5.68382,7.63366,9.11428e-14,-3.97569e-15,-29.8161,-23.6526,-79.9863,18.7073,28.2557,-17.5868,21.8532,7.12502,8.66914,-7.94881,9.11428e-14,-3.97569e-15,-31.021,8.53613,80.1513,16.4237,-11.6631,-11.1066,29.798,7.12502,14.9178,59.2409,-22.0784,12.3045,12.1896,46.6743,-20.8358,-2.61284,-2.43257,-6.36576,-0.101205,-28.6884,37.8078,-29.1518,13.2252,15.0647
12.0913,17.4705,-40.2749,-9.84912,-39.7498,4.40676,12.4459,1.19772,-9.37414,2.01862,0.214468,-1.35255,-4.88408,0.228443,3.82188,-11.1795,-7.40848,-15.0724,25.2097,-12.7756,18.4593,12.4169,-5.46605,7.7524,-1.42876e-14,8.34896e-15,-30.0641,-23.4428,-79.855,18.8419,28.0098,-18.2313,20.5694,7.12502,8.04706,-9.25739,-1.42876e-14,8.34896e-15,-31.1106,9.47456,79.7393,16.3568,-12.7983,-10.5864,30.3971,7.12502,15.4189,59.8021,-21.9986,11.8931,12.5432,46.5466,-20.9791,-2.34406,-4.37496,-6.4413,-0.102584,-28.6794,38.0483,-29.3323,13.0157,14.9814
12.0638,17.4851,-40.2497,-9.81854,-39.7958,4.44396,12.2264,1.09858,-9.37093,2.05038,0.112969,-1.33645,-4.71475,0.170649,3.85447,-11.7588,-7.19273,-14.7448,25.4091,-12.265,17.7845,12.4234,-5.23055,7.49707,-3.24764e-14,-1.19271e-15,-30.1201,-23.1007,-79.9016,18.8783,27.9198,-20.1486,18.1973,7.12502,6.19638,-11.6921,-3.24764e-14,-1.19271e-15,-31.0204,9.99404,79.455,16.53,-12.2239,-10.0816,31.1748,7.12502,15.9051,60.5417,-21.9676,11.897,12.821,46.3574,-20.8856,-1.74169,-0.982741,-6.47004,-0.20122,-28.7333,38.2758,-29.7104,13.1305,15.1086
12.035,17.4646,-40.2538,-9.64585,-39.6074,4.39149,12.1186,1.05914,-9.35581,2.10939,0.0742114,-1.41585,-4.58697,0.143153,3.76839,-12.1592,-7.09008,-14.1899,25.2996,-11.9863,17.2225,12.3181,-5.07986,7.19303,-7.83709e-14,3.18055e-15,-30.1904,-23.7949,-79.7824,18.8306,28.328,-21.1187,17.1493,7.12502,5.25974,-12.7655,-7.83709e-14,3.18055e-15,-30.6152,9.96427,79.225,16.5667,-11.6251,-10.128,31.0077,7.12502,15.8604,60.3781,-21.7773,11.5255,13.319,46.0976,-20.8599,-1.6171,-0.92947,-6.69543,0.14461,-28.5066,38.4953,-29.6758,12.7521,14.8956
12.0072,17.4477,-40.2518,-9.17606,-39.5556,3.92101,12.1884,0.979973,-9.20104,1.89992,-0.0180188,-1.24302,-4.83622,0.115759,3.8792,-11.5252,-6.79725,-13.9636,25.0735,-11.4724,16.6801,11.93,-4.91047,7.01246,-2.85753e-15,-1.27222e-14,-30.6957,-23.7289,-79.4828,18.8802,28.3329,-19.3394,20.4376,7.12502,6.97758,-9.42735,-2.85753e-15,-1.27222e-14,-30.8003,10.9108,78.6952,16.2398,-13.0086,-9.85851,30.3185,7.12502,16.1199,59.6681,-21.6222,11.5509,14.1473,45.8041,-20.8466,-1.79641,-1.50544,-6.92236,0.183769,-28.0024,38.7074,-29.6207,12.7097,13.9913
11.9783,17.4454,-40.2378,-9.12159,-39.4728,3.82986,12.0129,1.0007,-8.91935,2.02277,0.0659402,-1.35923,-4.61951,0.138388,3.58505,-11.4183,-6.77096,-13.7445,24.7845,-11.352,16.3871,11.7351,-4.86714,6.85878,8.55023e-14,-7.95139e-15,-30.8277,-23.8284,-79.5657,19.0204,27.9458,-21.1562,17.4996,7.12502,5.22355,-12.416,8.55023e-14,-7.95139e-15,-30.384,11.101,78.3544,15.8365,-14.0894,-9.46891,30.204,7.12502,16.495,59.5228,-21.3667,12.1009,14.5397,45.5432,-20.8178,-1.84721,0.482885,-6.88213,0.107676,-27.886,38.8794,-29.7401,12.7904,12.3967
11.9467,17.4416,-40.2191,-9.35128,-39.2762,4.02715,12.185,0.96301,-9.11444,1.97975,-0.0330853,-1.38491,-4.74777,0.0989255,3.68286,-11.7796,-6.67243,-13.5877,25.1303,-11.1133,15.9297,11.8543,-4.76796,6.69614,-6.94752e-14,-2.3059e-14,-31.149,-23.2855,-79.6635,19.1883,26.9525,-21.3839,16.6403,7.12502,5.00368,-13.2806,-6.94752e-14,-2.3059e-14,-30.3473,11.3644,78.1438,15.6907,-14.3185,-8.77053,30.8592,7.12502,17.1673,60.1208,-20.9719,12.8383,14.6043,45.346,-20.9754,-2.26003,2.22917,-6.60472,-0.339761,-28.1224,38.8875,-30.0995,12.856,12.7421
11.9122,17.4432,-40.2198,-9.44528,-38.8398,4.19345,12.2248,0.902068,-9.23084,2.02567,-0.139394,-1.52073,-4.70724,0.0437192,3.62142,-12.1281,-6.6256,-13.4318,25.3214,-11.0113,15.7531,11.9594,-4.7056,6.61743,-5.29264e-14,1.03368e-14,-31.2934,-23.0646,-79.9278,19.3366,26.0735,-21.5187,16.221,7.12502,4.87353,-13.7029,-5.29264e-14,1.03368e-14,-29.8086,11.3244,77.952,15.4146,-14.0552,-8.266,31.4241,7.12502,17.6529,60.6428,-20.6915,13.6489,14.6211,45.233,-21.0734,-3.15737,5.88695,-6.42473,-0.4665,-28.1784,38.7334,-30.03,12.4794,13.3925
11.8758,17.4486,-40.2038,-9.48081,-38.765,4.30102,12.1133,0.861011,-9.29074,1.91088,-0.194571,-1.52528,-4.76022,0.024023,3.65848,-11.9517,-6.47535,-13.532,25.3618,-10.7348,15.5701,11.879,-4.61645,6.61208,-4.07509e-15,2.06736e-14,-31.8109,-23.3216,-79.4447,19.2365,26.8114,-21.3877,16.3833,7.12502,5.00005,-13.5377,-4.07509e-15,2.06736e-14,-29.7182,11.4659,77.8039,15.3234,-13.2531,-8.95188,31.799,7.12502,16.9928,61.0757,-20.483,14.644,14.6356,45.1449,-20.4724,-3.80569,12.4714,-6.22,-0.391429,-28.195,38.5661,-29.9613,12.4374,12.891
11.8404,17.4575,-40.1802,-9.37415,-38.7977,4.17251,11.8155,0.865679,-8.93094,1.95836,-0.109355,-1.61552,-4.55711,0.0499284,3.3479,-11.8711,-6.44603,-13.5075,25.1697,-10.6522,15.5023,11.766,-4.58637,6.58502,2.21148e-15,-6.36111e-15,-32.2551,-25.0586,-78.5132,18.8546,28.6888,-21.2575,16.8623,7.12502,5.12571,-13.0557,2.21148e-15,-6.36111e-15,-29.5224,11.99,77.3481,15.1061,-14.1175,-9.8754,30.9133,7.12502,16.1036,60.2643,-20.2645,15.836,14.8177,45.0411,-20.0869,-4.31278,17.5287,-6.03746,-0.291009,-28.018,38.441,-29.9601,12.3873,12.3766
11.8047,17.4699,-40.1939,-8.85535,-38.2678,3.93813,11.732,0.765794,-8.85874,1.87537,-0.228094,-1.64866,-4.5847,-0.00547857,3.29062,-11.9815,-6.50059,-13.3618,25.0915,-10.6812,15.3184,11.7428,-4.5971,6.47411,1.02275e-13,2.70347e-14,-32.5474,-26.252,-77.9759,18.6005,29.5756,-21.2501,17.3156,7.12502,5.13288,-12.6022,1.02275e-13,2.70347e-14,-29.372,12.9002,76.7296,14.8753,-16.3165,-10.6955,29.071,7.12502,15.3138,58.484,-20.3951,16.706,15.0371,44.9187,-20.3601,-5.12083,18.5928,-6.39271,0.180999,-27.4996,38.3599,-29.4901,11.6105,11.0576
11.766,17.4689,-40.1577,-8.62948,-38.5542,3.72404,11.1851,0.819528,-8.45334,1.93888,-0.0413479,-1.64387,-4.23714,0.0659438,3.04052,-12.2585,-6.50878,-13.3778,25.3051,-10.6013,15.0451,11.8511,-4.57498,6.38608,6.66177e-14,-2.94201e-14,-32.7148,-26.3802,-77.7767,18.4568,29.5914,-21.3479,17.3812,7.12502,5.0384,-12.5389,6.66177e-14,-2.94201e-14,-29.3242,14.2548,76.1649,15.4284,-16.0231,-16.6878,25.7548,7.12502,9.53659,55.519,-20.3152,17.5567,15.3178,44.7837,-20.3833,-5.28925,18.9489,-6.23193,-0.693723,-27.5257,38.3112,-29.9126,12.701,11.66
11.7314,17.4672,-40.1269,-8.61144,-38.5204,3.63613,10.7496,0.83021,-8.00116,2.0937,0.0751981,-1.75353,-3.84552,0.0987964,2.65719,-12.6544,-6.60171,-13.3728,25.424,-10.659,14.8993,11.9809,-4.59508,6.316,4.95471e-14,-2.62396e-14,-32.9088,-26.8713,-77.4982,18.3247,29.7924,-21.3311,17.3749,7.12502,5.05463,-12.5448,4.95471e-14,-2.62396e-14,-28.9001,14.2075,76.2004,14.9552,-16.2101,-10.2608,30.3447,7.12502,15.7325,59.7252,-20.0411,17.884,15.4969,44.6552,-20.3016,-5.38792,19.0967,-5.97106,-1.50375,-27.639,38.2805,-30.5231,12.6692,12.7283
11.699,17.4762,-40.1415,-8.40978,-37.6676,3.55021,11.0669,0.612638,-8.19755,1.89672,-0.274137,-1.67658,-4.19101,-0.0520679,2.89687,-11.5918,-6.43573,-13.6338,24.9443,-10.4092,14.8925,11.5445,-4.55666,6.39569,7.70291e-16,0,-33.4194,-27.1733,-76.9007,18.1641,30.1518,-20.7535,17.7646,7.12502,5.61232,-12.141,7.70291e-16,0,-28.9246,14.6893,76.0835,15.4795,-14.7828,-9.44667,31.3069,7.12502,16.5164,60.6239,-19.8925,17.5966,15.6388,44.5402,-20.2864,-5.91476,17.5449,-6.1038,-1.03151,-27.2483,38.2469,-29.7491,12.2477,10.6244
11.6648,17.483,-40.1246,-8.29113,-37.4271,3.26365,11.1085,0.585474,-7.82663,1.90125,-0.270164,-1.69078,-4.21196,-0.0542423,2.67414,-11.7071,-6.43472,-13.5488,24.9603,-10.3727,14.7599,11.5542,-4.53884,6.33234,5.39203e-15,1.27222e-14,-33.8882,-28.2334,-76.1444,17.8597,31.0428,-19.5242,20.3328,7.12502,6.79915,-9.53803,5.39203e-15,1.27222e-14,-29.0144,15.3665,75.6228,14.8499,-17.5319,-11.8131,27.8209,7.12502,14.2371,57.3129,-19.5927,17.4654,16.0066,44.4444,-20.1684,-6.26077,15.4203,-5.84824,-1.32266,-27.0107,38.1786,-29.8916,11.9782,9.97075
11.6314,17.4923,-40.1195,-7.96372,-36.8383,2.95598,11.0916,0.454545,-7.56032,1.87563,-0.409774,-1.68375,-4.2172,-0.125148,2.55273,-11.5241,-6.35259,-13.483,24.9091,-10.2689,14.7212,11.4716,-4.49707,6.32276,7.52897e-15,1.82882e-14,-34.2786,-29.4292,-75.3645,17.5073,32.3212,-21.1428,17.481,7.12502,5.23647,-12.4343,7.52897e-15,1.82882e-14,-28.761,15.138,75.7199,15.0016,-16.9518,-12.0366,28.2169,7.12502,14.0217,57.7239,-19.4545,17.1263,16.2999,44.3554,-20.3506,-6.56147,15.5144,-5.86585,-1.67536,-26.685,38.087,-29.5915,12.2771,8.71473
11.5934,17.4976,-40.081,-7.86484,-36.6162,2.88026,10.6509,0.381578,-7.24427,1.92621,-0.427168,-1.75585,-3.92078,-0.148793,2.30103,-12.1231,-6.38937,-13.2882,25.3559,-10.2809,14.4618,11.7408,-4.48227,6.19358,-8.63471e-14,3.4191e-14,-34.6788,-29.9904,-74.7914,17.2567,33.0802,-19.9871,19.2548,7.12502,6.35229,-10.6299,-8.63471e-14,3.4191e-14,-28.7632,15.367,75.6271,15.2091,-17.0109,-17.4725,24.9684,7.12502,8.7794,54.7658,-19.2022,16.8905,16.3757,44.2594,-20.5149,-6.52487,15.6645,-5.61795,-2.68031,-26.8578,37.984,-29.9488,13.1155,8.17321
11.556,17.5045,-40.0496,-7.90737,-36.4253,2.88383,10.3793,0.340016,-6.96728,1.98845,-0.428201,-1.87608,-3.70803,-0.161147,2.01957,-12.2529,-6.35627,-13.2648,25.3808,-10.205,14.4047,11.7589,-4.44492,6.17803,2.11209e-15,2.62396e-14,-34.9947,-29.9491,-74.6404,17.1981,32.8143,-19.0968,20.6832,7.12502,7.21169,-9.17393,2.11209e-15,2.62396e-14,-28.9822,15.4274,75.5684,16.0588,-16.4379,-11.5954,28.7344,7.12502,14.4469,58.2115,-18.8605,16.6315,16.418,44.1311,-20.5543,-6.425,15.1377,-5.29812,-3.35335,-27.0194,37.9192,-30.2796,13.5153,7.64486
11.5213,17.5108,-40.0223,-7.78709,-36.4014,2.55117,10.9631,0.333856,-6.70566,1.53585,-0.47241,-1.73608,-4.50554,-0.150142,2.02807,-11.9538,-6.25996,-13.3701,25.5915,-10.028,14.1368,11.7362,-4.41665,6.13306,-2.64881e-14,-2.14687e-14,-36.1197,-29.9907,-73.6621,17.0477,33.3121,-20.1604,19.3602,7.12502,6.18499,-10.5295,-2.64881e-14,-2.14687e-14,-29.0472,14.4455,75.888,15.3584,-14.4673,-15.6038,26.4492,7.12502,10.5824,56.1627,-18.5061,16.519,16.7947,43.9712,-20.5911,-6.26408,15.2941,-4.99024,-3.72313,-26.794,37.8878,-30.6625,13.4319,7.7348
11.488,17.5176,-40.0027,-7.45944,-36.3616,1.95188,11.5268,0.647452,-7.84892,1.1505,-0.18484,-0.351013,-5.24217,0.0642835,4.08886,-11.7722,-6.51457,-14.2542,25.7432,-9.8925,13.0262,11.723,-4.55662,5.8785,-1.44429e-14,3.97569e-14,-36.8599,-29.7425,-70.9352,16.7741,34.2273,-20.8987,17.892,7.12502,5.4722,-12.0174,-1.44429e-14,3.97569e-14,-30.0015,16.0595,77.1308,16.1079,-15.0876,-16.2354,26.0088,7.12502,9.97308,55.7526,-18.2343,16.3017,17.4178,43.7974,-20.504,-6.3301,14.4824,-4.80545,-4.05616,-26.3025,37.8797,-30.5935,13.9689,7.80117
11.4559,17.5292,-40.0126,-7.13094,-35.7233,1.69655,11.154,0.524172,-7.24439,1.40769,-0.249569,-0.730361,-4.75747,-0.00888184,3.35486,-12.1779,-6.49779,-13.7431,25.5752,-10.0665,13.5507,11.7713,-4.51359,5.9549,-1.31571e-14,1.35174e-14,-37.1546,-31.9017,-70.3877,16.5007,35.9296,-20.4841,18.0982,7.12502,5.87244,-11.8004,-1.31571e-14,1.35174e-14,-29.1652,15.706,76.7842,16.3346,-15.4493,-15.1955,26.0107,7.12502,10.9762,55.7037,-18.1713,15.6314,17.6679,43.612,-20.3998,-6.60753,12.5604,-5.00345,-4.01606,-25.8599,37.8963,-30.2362,13.5149,6.70467
11.4192,17.5279,-39.9777,-7.2118,-35.8361,1.66833,11.762,0.779016,-7.88591,0.87116,-0.0319124,-0.0981684,-5.69068,0.170237,4.35537,-11.6871,-6.61794,-14.493,25.9833,-10.0048,12.9485,11.8289,-4.64271,5.88291,6.43752e-14,0,-38.232,-31.1064,-68.7421,16.4163,35.8985,-20.3484,18.0496,7.12502,6.00342,-11.8453,6.43752e-14,0,-30.2675,16.4272,77.2931,16.6783,-15.7671,-14.2998,26.0215,7.12502,11.84,55.6668,-17.8431,15.369,17.755,43.4569,-20.3529,-6.31498,11.8086,-4.64624,-4.71725,-26.0311,37.8994,-30.7007,13.8655,7.65516
11.384,17.5378,-39.977,-6.80992,-35.3334,1.33886,11.5549,0.598328,-7.65373,0.848034,-0.217801,-0.0302121,-5.57438,0.0708889,4.32545,-11.5719,-6.58402,-14.6578,25.84,-9.93388,13.0231,11.7517,-4.62179,5.94917,-6.19587e-14,1.35174e-14,-38.3412,-31.2583,-68.481,16.2335,35.93,-20.5215,17.4709,7.12502,5.8363,-12.4287,-6.19587e-14,1.35174e-14,-30.2582,15.6497,77.905,17.2229,-13.0341,-14.4889,26.6015,7.12502,11.6577,56.2572,-17.7755,14.9986,18.0518,43.2771,-20.6696,-6.24561,13.6709,-4.84773,-4.55996,-25.5009,37.9113,-30.5826,13.3082,6.71636
11.3493,17.539,-39.9478,-6.70733,-35.3592,0.98392,11.2283,0.547541,-7.23459,1.00363,-0.192283,0.0466969,-5.22983,0.0572759,4.16307,-11.7267,-6.53732,-14.693,25.9338,-9.82817,12.9698,11.8007,-4.57692,5.95241,-2.49723e-15,-3.97569e-16,-38.391,-31.2192,-68.275,16.116,35.9012,-18.9069,20.9434,7.12502,7.395,-8.90731,-2.49723e-15,-3.97569e-16,-30.202,15.3864,78.2352,17.6905,-11.7081,-11.8147,29.0357,7.12502,14.2356,58.5279,-17.3499,14.8781,18.4549,43.0889,-20.91,-5.97099,15.192,-4.51362,-5.03179,-25.3106,37.9213,-30.9177,13.5339,8.04627
11.3167,17.5406,-39.9239,-6.60337,-35.253,0.548075,11.7063,0.62792,-7.07508,0.730802,-0.0916626,0.400315,-5.79952,0.136761,4.43693,-11.4354,-6.49578,-15.0644,26.0752,-9.70833,12.8617,11.7913,-4.5832,6.00488,-5.62172e-14,-1.19271e-14,-39.1635,-31.0343,-67.1711,16.0449,36.1248,-20.2832,17.7398,7.12502,6.06642,-12.1533,-5.62172e-14,-1.19271e-14,-30.91,16.7071,77.8006,18.44,-14.9584,-9.78456,29.0913,7.12502,16.1911,58.4351,-16.9009,14.5703,18.9352,42.8736,-20.8602,-5.97733,14.6996,-4.16762,-5.86288,-25.1228,37.9461,-31.2355,14.4868,7.65511
11.2829,17.5549,-39.9206,-6.011,-34.764,0.046165,10.601,0.422333,-6.03353,1.21157,-0.156782,0.0403706,-4.66628,0.0265466,3.4676,-11.3461,-6.50513,-14.7546,25.1894,-9.85156,13.4181,11.4692,-4.5544,6.11327,-5.77594e-14,1.63003e-14,-38.9682,-32.8055,-67.1091,15.8169,37.1748,-20.4226,17.5985,7.12502,5.93184,-12.2984,-5.77594e-14,1.63003e-14,-29.9025,14.125,78.8507,19.0009,-9.10221,-13.1677,28.1158,7.12502,12.9315,57.6951,-16.9773,14.085,19.3697,42.6606,-20.8179,-6.24878,13.6643,-4.45586,-6.22244,-24.557,37.9461,-30.9839,14.3779,7.53212
11.2466,17.5637,-39.9107,-5.80401,-34.4262,-0.208789,11.2609,0.476114,-6.52307,0.706902,-0.173486,0.611773,-5.56438,0.0783989,4.35824,-11.1324,-6.56216,-15.1244,25.4148,-9.76997,12.9356,11.4936,-4.61106,6.01319,1.6642e-14,1.03368e-14,-39.7233,-31.9387,-65.9367,15.8403,36.7697,-20.1572,17.8967,7.12502,6.18804,-11.9929,1.6642e-14,1.03368e-14,-30.7424,13.7718,79.8403,19.4047,-7.28725,-13.3978,28.411,7.12502,12.7097,58.0042,-16.7488,13.8291,19.6687,42.4548,-20.9423,-6.46609,12.6633,-4.42001,-6.24634,-24.2009,37.9392,-30.9504,14.2827,6.60008
11.2096,17.5708,-39.8946,-5.71248,-34.2019,-0.464797,10.7175,0.445728,-5.80193,1.10737,-0.0957873,0.280408,-4.84717,0.0629433,3.58157,-11.1385,-6.71023,-14.783,24.8927,-10.074,13.2143,11.3441,-4.68264,5.99431,-8.49804e-15,3.97569e-16,-39.7871,-33.5301,-65.6888,15.6747,37.9148,-19.7006,19.0987,7.12502,6.62887,-10.7775,-8.49804e-15,3.97569e-16,-29.8889,13.0673,79.8364,19.4833,-6.64208,-13.3084,28.2709,7.12502,12.7959,57.8587,-16.3797,13.5933,20.0052,42.2357,-21.007,-6.61226,11.7286,-4.21609,-6.47097,-23.9408,37.9315,-30.783,14.4318,6.19295
11.1725,17.5702,-39.8802,-5.49833,-34.0771,-0.83634,10.4665,0.457585,-5.37221,1.21096,-0.0105894,0.288153,-4.60681,0.0877318,3.33289,-10.768,-6.74984,-14.8222,24.3958,-10.1613,13.3905,11.1097,-4.7195,6.04449,-3.86015e-14,-3.57812e-15,-40.0081,-34.1503,-65.2412,15.6176,38.5867,-19.3626,19.9285,7.12502,6.95513,-9.93726,-3.86015e-14,-3.57812e-15,-29.6929,12.6305,80.0533,19.862,-6.00659,-12.9844,28.3982,7.12502,13.1083,57.9663,-16.1311,13.3622,20.4466,42.0278,-21.035,-6.53917,12.2881,-4.06049,-7.07545,-23.6673,37.9186,-31.2177,14.682,7.12517
11.1353,17.5679,-39.8674,-5.36213,-33.9026,-1.09947,10.4627,0.454537,-5.27846,1.1322,0.00394624,0.459619,-4.68884,0.0990535,3.45822,-10.5007,-6.69835,-15.0116,24.2839,-10.0627,13.3695,11.0073,-4.70362,6.08586,-3.72721e-15,5.1684e-15,-40.3373,-33.9826,-64.7731,15.5939,38.8261,-20.1094,18.7771,7.12502,6.23422,-11.1111,-3.72721e-15,5.1684e-15,-30.0867,12.2447,80.4171,20.7987,-5.16931,-12.4354,29.0026,7.12502,13.6374,58.5359,-15.8901,13.0634,20.8237,41.8167,-20.9156,-6.91052,10.3825,-3.88446,-7.74224,-23.5246,37.932,-31.5575,14.7784,7.87277
11.0991,17.5733,-39.8536,-5.29266,-33.6323,-1.28311,10.4701,0.438617,-5.23018,1.11329,-0.00611671,0.577843,-4.71182,0.0954622,3.55681,-10.7278,-6.70587,-14.9877,24.4515,-10.0233,13.2246,11.0994,-4.68859,6.03317,4.37513e-14,8.34896e-15,-40.543,-33.8595,-64.4841,15.5327,39.1277,-21.256,17.3063,7.12502,5.12717,-12.6117,4.37513e-14,8.34896e-15,-30.4739,11.9283,80.7627,21.864,-4.57389,-12.4968,28.9107,7.12502,13.5782,58.4479,-15.5868,12.7433,21.1402,41.62,-20.7429,-7.6452,6.64346,-3.72511,-8.16569,-23.3898,37.9555,-31.7072,14.8806,8.08165
11.0622,17.576,-39.8389,-5.12972,-33.5199,-1.60968,10.3661,0.497339,-5.02467,1.17265,0.109466,0.712868,-4.60273,0.145712,3.56532,-10.9694,-6.8486,-15.017,24.4512,-10.1731,13.1801,11.1741,-4.75249,5.99229,-1.74931e-14,1.11319e-14,-40.7454,-34.3684,-63.8623,15.4101,39.7212,-21.6673,17.0123,7.12502,4.72999,-12.9149,-1.74931e-14,1.11319e-14,-30.4891,11.6846,81.1272,22.3847,-4.25477,-12.8305,28.476,7.12502,13.2566,58.0345,-15.2635,12.8506,21.5973,41.4251,-20.8332,-7.96423,6.61965,-3.60276,-8.40575,-23.0783,37.9815,-31.7351,15.2565,7.37538
11.0244,17.5749,-39.823,-4.89464,-33.4414,-1.91095,10.2195,0.587674,-4.80762,1.12083,0.267151,0.824147,-4.59043,0.221743,3.53674,-10.337,-6.92297,-15.2126,23.968,-10.314,13.3312,10.9123,-4.8418,6.05843,-1.80211e-14,-4.37326e-15,-41.3759,-35.3447,-62.6787,15.2904,40.6399,-21.6995,17.4192,7.12502,4.69889,-12.5087,-1.80211e-14,-4.37326e-15,-30.4867,11.3759,81.4204,22.6461,-3.8234,-12.5265,28.761,7.12502,13.5496,58.3002,-15.0394,12.9734,22.0111,41.2006,-20.9143,-8.19826,6.62028,-3.56005,-8.57505,-22.7759,38.0338,-31.6783,15.7154,5.70536
10.9876,17.5784,-39.8119,-4.63046,-33.1939,-2.17439,9.9593,0.586826,-4.49866,1.15211,0.313904,0.817997,-4.41513,0.234467,3.34841,-11.3609,-7.10067,-14.9207,24.6496,-10.4933,13.0661,11.372,-4.88406,5.87879,4.27014e-14,-1.23246e-14,-41.6032,-35.8207,-62.3024,15.3076,40.8823,-21.7349,17.5248,7.12502,4.66473,-12.4038,4.27014e-14,-1.23246e-14,-30.3416,10.9986,81.5704,23.0171,-3.366,-11.6275,29.5457,7.12502,14.4159,59.0251,-14.8717,12.8472,22.3614,40.9528,-20.9885,-8.43578,5.74982,-3.61742,-8.56896,-22.4127,38.1031,-31.525,15.7906,4.18242
10.9508,17.5811,-39.8083,-4.42168,-33.0472,-2.57356,10.2606,0.532668,-4.31294,0.949345,0.253981,0.973078,-4.79041,0.215942,3.41537,-10.732,-6.93472,-15.1033,24.3164,-10.3174,13.256,11.111,-4.82653,6.01419,-4.85407e-14,1.19271e-15,-41.731,-35.2782,-62.3019,15.3736,40.5629,-21.6698,16.832,7.12502,4.72765,-13.0952,-4.85407e-14,1.19271e-15,-30.8125,11.0512,81.5992,23.5681,-2.99243,-11.1427,30.0557,7.12502,14.883,59.5011,-14.5748,13.0286,22.8884,40.6938,-21.333,-8.37947,7.96255,-3.56184,-8.46909,-21.892,38.1679,-31.5022,15.6913,3.6201
10.9163,17.5781,-39.7961,-4.54645,-32.9492,-2.68604,10.1808,0.556652,-4.16127,1.14962,0.308537,0.979671,-4.53986,0.230011,3.3281,-10.5201,-6.98209,-15.1513,23.9581,-10.363,13.2704,10.9468,-4.85535,6.01227,1.77167e-14,1.94809e-14,-41.4616,-35.255,-62.4305,15.4022,40.2882,-20.9061,18.8449,7.12502,5.46501,-11.0646,1.77167e-14,1.94809e-14,-30.6523,11.1052,81.6945,23.9124,-2.6668,-11.4097,29.5016,7.12502,14.6258,58.9658,-14.1199,13.0722,23.1639,40.4903,-21.5555,-8.34033,9.23725,-3.24025,-8.62008,-21.7808,38.1902,-31.6507,15.8153,3.12315
10.8918,17.5809,-39.7782,-4.62186,-32.3874,-2.73911,10.1967,0.384371,-3.92339,1.20504,0.104928,0.957859,-4.47197,0.122267,3.19885,-10.9199,-7.14923,-15.1117,24.244,-10.5292,13.0532,11.1481,-4.93353,5.89591,1.61388e-14,6.36111e-15,-41.3501,-34.9965,-62.4805,15.4543,39.8798,-20.926,18.3353,7.12502,5.44577,-11.5747,1.61388e-14,6.36111e-15,-30.6653,11.4006,81.6709,24.1033,-2.51113,-11.9257,27.9566,7.12502,14.1286,57.4562,-13.776,12.6212,23.3092,40.3532,-21.4318,-8.92505,7.18801,-3.04712,-9.17999,-21.7767,38.151,-31.547,16.0073,2.0654
10.8497,17.5838,-39.7874,-4.45697,-32.6135,-2.91136,10.2854,0.503926,-4.09286,1.10789,0.247888,1.11211,-4.63693,0.202991,3.43734,-11.0748,-7.15549,-15.1711,24.5597,-10.5082,12.9362,11.2915,-4.937,5.87178,-3.48494e-15,7.15625e-15,-41.4075,-35.0364,-62.1938,15.4317,40.0184,-21.0999,17.6383,7.12502,5.27785,-12.276,-3.48494e-15,7.15625e-15,-30.7751,11.6133,81.7116,24.3122,-2.39206,-12.1303,27.4888,7.12502,13.9315,57.0021,-13.7358,12.9884,23.6901,40.2564,-21.1813,-9.35256,6.43096,-3.00549,-9.00045,-21.4467,38.0851,-31.5586,15.9789,1.8779
10.8126,17.5851,-39.7535,-4.4018,-33.2751,-2.85882,9.90337,0.748714,-4.04854,1.07487,0.594352,1.11106,-4.489,0.371151,3.36251,-10.8605,-7.08685,-15.2338,24.3215,-10.4285,13.0498,11.1553,-4.90192,5.93593,-1.72787e-14,1.59028e-14,-41.6758,-35.5499,-61.6078,15.3581,40.6778,-21.2437,17.999,7.12502,5.13909,-11.9186,-1.72787e-14,1.59028e-14,-30.8825,11.3476,81.8733,24.5552,-2.01323,-11.9016,28.4234,7.12502,14.1518,57.9214,-13.6868,13.1006,23.6754,40.1548,-21.1156,-8.56594,7.03357,-2.70185,-9.65588,-21.8231,38.0121,-32.4515,16.6834,3.96055
10.777,17.5932,-39.771,-4.44739,-32.6549,-2.89193,10.4914,0.624768,-4.29819,0.883775,0.378467,1.18993,-5.00129,0.28567,3.61784,-10.6478,-7.07679,-15.2483,24.1255,-10.4217,13.0605,11.0395,-4.90635,5.94139,-3.58496e-14,-1.11319e-14,-41.7922,-35.51,-61.4351,15.381,40.5757,-21.4196,18.1463,7.12502,4.96923,-11.7754,-3.58496e-14,-1.11319e-14,-31.1551,11.1101,82.0043,24.8664,-1.54956,-11.8655,28.8966,7.12502,14.1866,58.3922,-13.4313,12.8306,23.8949,40.0317,-21.4948,-8.68505,7.29085,-2.76039,-9.06241,-21.3142,37.9638,-32.0285,15.6045,3.26698
10.7454,17.5997,-39.7495,-4.32103,-32.2143,-3.2436,10.3683,0.457177,-3.87154,0.930635,0.215337,1.28,-4.86611,0.193018,3.49394,-10.118,-7.01906,-15.4327,23.9083,-10.3568,13.0769,10.854,-4.91176,5.99419,1.56465e-14,1.59028e-15,-41.5362,-35.0042,-61.698,15.5027,39.8947,-21.8433,16.3754,7.12502,4.56011,-13.5555,1.56465e-14,1.59028e-15,-31.2855,11.1458,82.1354,25.1656,-1.22157,-12.0191,29.2139,7.12502,14.0385,58.7198,-13.0874,12.769,24.3585,39.8866,-21.7577,-9.13286,6.92832,-2.59357,-9.47017,-20.9811,37.932,-31.9961,15.7372,1.89311
10.7042,17.6032,-39.747,-4.14196,-32.8066,-3.27166,10.1012,0.666312,-3.99726,0.895077,0.492351,1.33265,-4.78058,0.33199,3.58044,-10.2739,-6.97592,-15.518,24.1479,-10.2835,13.0855,10.9672,-4.88082,6.02871,4.39966e-15,-1.15295e-14,-41.5948,-35.3637,-61.3319,15.521,40.3712,-20.988,19.3914,7.12502,5.38592,-10.5202,4.39966e-15,-1.15295e-14,-31.3915,11.229,82.1592,25.4557,-0.963808,-12.0535,29.7908,7.12502,14.0054,59.299,-13.1356,13.2333,24.5124,39.7236,-21.6549,-9.06807,7.63611,-2.5811,-9.24353,-20.8839,37.938,-32.274,15.9518,1.9375
10.6725,17.6011,-39.7374,-4.12045,-32.7963,-3.29119,10.0009,0.67985,-3.84743,0.961973,0.527047,1.2459,-4.65521,0.341238,3.39934,-11.5533,-7.09746,-15.2459,24.791,-10.3672,12.9663,11.4584,-4.85792,5.91746,-5.64548e-14,3.97569e-15,-41.669,-36.2565,-60.8877,15.4732,41.1535,-20.85,19.6758,7.12502,5.51913,-10.2323,-5.64548e-14,3.97569e-15,-31.1807,11.1868,82.0636,25.6079,-0.730065,-11.9265,29.9587,7.12502,14.1278,59.4584,-12.9395,13.387,24.6219,39.5494,-21.9887,-8.82206,10.0677,-2.49972,-9.33415,-20.8168,37.9647,-32.5248,15.6813,3.5069
10.6447,17.602,-39.7198,-3.96521,-32.3651,-3.5543,9.85441,0.512327,-3.43202,1.10835,0.35334,1.19878,-4.40176,0.239202,3.13829,-11.6372,-7.124,-15.0191,24.6842,-10.4149,12.9105,11.4251,-4.85929,5.84284,-6.42634e-15,7.95139e-15,-41.386,-36.8395,-60.9155,15.433,41.5137,-21.9507,16.2422,7.12502,4.45633,-13.6909,-6.42634e-15,7.95139e-15,-30.7628,11.2455,81.9691,25.6343,-0.545039,-11.7715,29.9198,7.12502,14.2772,59.409,-12.6895,13.3421,24.9444,39.3879,-22.4347,-8.84729,11.7558,-2.47312,-9.53187,-20.4768,37.9829,-32.5959,15.2009,4.70673
10.6134,17.6048,-39.7003,-3.82881,-31.8769,-3.81873,9.6413,0.455905,-2.97806,1.13778,0.335544,1.23716,-4.24819,0.219703,2.92356,-11.2284,-7.24207,-15.2328,24.5523,-10.59,12.9375,11.3387,-4.97096,5.86603,2.3497e-14,-3.57812e-15,-41.2674,-36.697,-61.0154,15.6084,40.9088,-20.7424,18.8557,7.12502,5.62305,-11.0497,2.3497e-14,-3.57812e-15,-31.11,11.4562,82.1444,26.0283,-0.853755,-11.7288,30.3747,7.12502,14.3183,59.8609,-12.4356,13.0987,25.2824,39.2284,-22.7027,-8.96498,12.4299,-2.44735,-9.45835,-20.0443,38.0093,-32.4748,14.6529,4.60775
10.5812,17.6069,-39.6853,-3.77306,-31.4945,-3.97211,9.39389,0.416485,-2.68271,1.28002,0.319618,1.21996,-3.95897,0.200041,2.74005,-10.8438,-7.28756,-15.3577,24.1591,-10.6782,13.0896,11.146,-5.01938,5.92742,-6.49405e-14,1.59028e-15,-40.6976,-36.1708,-61.773,15.8732,39.6738,-21.5964,16.3051,7.12502,4.79847,-13.6206,-6.49405e-14,1.59028e-15,-30.6753,11.1734,82.2437,25.9176,-0.602878,-11.7655,31.1714,7.12502,14.2829,60.6602,-12.1942,12.8436,25.5121,39.0881,-22.7829,-8.97509,12.6129,-2.36627,-9.69581,-19.8318,38.032,-32.505,14.4265,4.68615
10.5491,17.6062,-39.6745,-3.73977,-31.5339,-4.08886,9.19741,0.410126,-2.51764,1.45555,0.330922,1.19447,-3.66652,0.196041,2.61837,-11.1745,-7.28311,-15.1486,23.9485,-10.619,13.0232,11.1057,-4.96363,5.85989,-9.23355e-14,-2.38542e-15,-39.9352,-35.668,-62.6663,16.0929,38.5227,-21.4154,16.6929,7.12502,4.97323,-13.2288,-9.23355e-14,-2.38542e-15,-30.1771,11.3283,82.1169,25.7178,-0.468294,-11.8368,30.8464,7.12502,14.2143,60.34,-12.0065,12.802,25.7093,38.9733,-22.7152,-8.90295,12.582,-2.23112,-9.86427,-19.7333,38.0525,-32.6831,14.6198,4.4716
10.5149,17.6017,-39.6581,-3.70807,-31.9581,-4.20656,9.01916,0.519712,-2.34579,1.39824,0.500568,1.26834,-3.63703,0.278969,2.57769,-10.535,-7.21561,-15.5418,23.8189,-10.5416,13.1079,10.9464,-4.9814,5.98304,7.47306e-15,-4.77083e-15,-39.7308,-35.0482,-62.934,16.3429,37.5149,-20.8967,16.8193,7.12502,5.47411,-13.09,7.47306e-15,-4.77083e-15,-30.3574,11.7962,81.9971,25.5879,-0.553005,-11.6959,30.2245,7.12502,14.35,59.7086,-11.8205,12.8495,25.8972,38.8514,-22.773,-8.46269,13.166,-2.04664,-9.61674,-19.6142,38.1052,-32.8818,14.9187,3.61879
10.481,17.5982,-39.6368,-3.49644,-32.4613,-4.5774,8.73744,0.636113,-1.97918,1.52869,0.69763,1.35503,-3.35387,0.367393,2.4386,-10.7122,-7.22098,-15.5789,23.773,-10.5061,13.1073,10.9611,-4.96014,5.98894,1.55052e-14,-1.19271e-15,-39.2495,-35.0386,-63.2469,16.4888,37.1127,-18.3411,22.0276,7.12502,7.94108,-7.80321,1.55052e-14,-1.19271e-15,-30.1068,12.3554,81.8097,25.3683,-0.8023,-11.396,30.4983,7.12502,14.639,59.9616,-11.6752,13.0009,26.3242,38.7405,-22.8196,-8.16056,12.9718,-1.85983,-9.59343,-19.3281,38.1427,-33.1907,15.2448,3.73197
10.4475,17.5999,-39.6706,-3.32836,-31.8049,-4.89839,9.26355,0.54219,-1.92718,1.39906,0.574249,1.46008,-3.77486,0.312559,2.5313,-10.9703,-7.29092,-15.5475,23.9459,-10.5823,13.0652,11.0863,-4.98626,5.95513,-3.38555e-14,1.43125e-14,-39.1614,-34.9267,-63.375,16.7582,36.529,-18.1275,22.1644,7.12502,8.14727,-7.65858,-3.38555e-14,1.43125e-14,-29.9919,12.3093,81.7914,25.0956,-1.04043,-11.3213,30.5064,7.12502,14.711,59.9644,-11.558,13.1403,26.8876,38.6452,-23.1612,-8.8944,13.4686,-2.15595,-8.61909,-18.3091,38.1649,-32.4277,13.8781,3.00107
10.4149,17.6014,-39.6656,-3.29512,-31.4117,-4.75956,9.18599,0.4167,-2.01386,1.3698,0.398146,1.40111,-3.75187,0.226291,2.54077,-11.3062,-7.30472,-15.4287,24.1272,-10.5522,12.9029,11.199,-4.96511,5.87506,1.17407e-15,-5.1684e-15,-38.7417,-34.3282,-63.9878,17.0334,35.7515,-20.2291,17.4285,7.12502,6.11864,-12.4631,1.17407e-15,-5.1684e-15,-29.9095,12.4467,81.7067,24.7688,-1.04983,-11.8294,30.2981,7.12502,14.2214,59.7912,-11.5025,13.0653,26.8405,38.5792,-23.2578,-9.21325,12.9263,-2.21844,-9.03851,-18.3763,38.1624,-32.6085,13.7146,3.85324
10.3832,17.5976,-39.622,-3.28745,-31.7614,-4.6795,8.75143,0.514955,-1.82657,1.33755,0.552725,1.36322,-3.55038,0.298688,2.37753,-10.9505,-7.27863,-15.5564,24.0877,-10.5017,12.7779,11.1049,-4.98041,5.8634,2.56929e-14,-1.59028e-15,-38.3749,-32.8681,-64.8464,17.4581,34.1124,-18.8676,20.7415,7.12502,7.43296,-9.10794,2.56929e-14,-1.59028e-15,-30.0789,12.7422,81.6269,24.4819,-1.26601,-12.2055,30.299,7.12502,13.859,59.8173,-11.3691,12.9028,26.7313,38.5373,-23.0442,-8.91066,11.2028,-1.93916,-9.37512,-18.682,38.1526,-33.1953,14.2158,3.90117
10.3507,17.591,-39.6144,-3.2877,-31.81,-4.86329,8.904,0.626395,-1.67237,1.24527,0.718472,1.47045,-3.73995,0.382698,2.38156,-10.6236,-7.37975,-15.8599,23.9081,-10.6335,12.8549,11.0204,-5.07141,5.92552,-2.39039e-14,8.74653e-15,-38.2072,-31.6363,-65.3962,17.943,32.7341,-19.4248,19.3536,7.12502,6.89505,-10.5141,-2.39039e-14,8.74653e-15,-30.2626,12.9654,81.6267,24.3359,-1.75515,-11.8406,30.4909,7.12502,14.2106,59.9848,-11.1645,12.6809,27.0063,38.5129,-23.0928,-8.58107,11.493,-1.78931,-8.82796,-18.2583,38.1452,-33.1094,13.8501,3.09133
10.3191,17.5892,-39.614,-3.18292,-31.6903,-5.00403,8.93944,0.576292,-1.6514,1.23815,0.656404,1.54662,-3.76442,0.352335,2.45637,-10.6712,-7.29469,-15.7724,24.3196,-10.4707,12.5001,11.1287,-5.02646,5.81204,4.74816e-14,8.34896e-15,-37.8304,-31.3237,-65.7684,18.1701,32.505,-19.4154,19.1118,7.12502,6.90415,-10.7556,4.74816e-14,8.34896e-15,-30.1613,13.5814,81.3642,24.1896,-1.68375,-11.064,31.0826,7.12502,14.9589,60.5224,-11.1051,12.5435,27.2334,38.4858,-23.3801,-8.41131,12.1858,-1.86355,-8.50772,-17.8635,38.1768,-33.0455,13.4952,2.7705
10.2868,17.5851,-39.61,-3.16263,-31.6045,-5.05866,8.99274,0.512677,-1.65369,1.17817,0.574532,1.62156,-3.85278,0.313886,2.54555,-10.8169,-7.26992,-15.9415,24.4078,-10.3728,12.4605,11.1831,-4.99609,5.84054,7.89858e-15,6.16232e-15,-37.5304,-30.7816,-66.1373,18.4336,31.9294,-17.9819,21.5055,7.12502,8.2878,-8.31195,7.89858e-15,6.16232e-15,-30.2423,14.8094,80.814,23.8683,-1.51916,-10.1224,30.795,7.12502,15.8658,60.165,-10.9641,12.6513,27.4123,38.4526,-23.7568,-8.45683,13.0361,-1.87775,-8.19087,-17.587,38.2511,-33.025,13.1662,1.77917
10.2556,17.5772,-39.5943,-3.18185,-31.723,-5.15812,8.92287,0.559252,-1.38697,1.17446,0.661612,1.58369,-3.81914,0.352674,2.34499,-10.8951,-7.30115,-15.9477,24.604,-10.4014,12.3692,11.273,-5.01818,5.80628,-5.1743e-14,7.95139e-16,-37.3692,-30.3361,-66.5179,18.7437,31.3746,-17.0314,22.7418,7.12502,9.20501,-7.03732,-5.1743e-14,7.95139e-16,-30.3087,15.3048,80.5127,23.7618,-1.59275,-9.74316,31.6909,7.12502,16.231,61.0315,-10.7609,12.6242,27.5899,38.4363,-23.8852,-8.16502,14.9154,-1.71874,-7.62658,-17.3058,38.3323,-32.928,12.931,0.284606
10.226,17.5741,-39.5877,-3.09796,-31.7082,-5.23608,8.83948,0.650126,-1.15691,1.14048,0.804319,1.54517,-3.81156,0.420298,2.15808,-10.3526,-7.39341,-16.0968,24.1662,-10.5584,12.4363,11.0412,-5.11239,5.83096,2.09345e-14,-5.1684e-15,-37.2646,-30.1764,-66.7138,18.9827,31.1077,-17.308,22.5343,7.12502,8.93813,-7.25641,2.09345e-14,-5.1684e-15,-30.1805,15.3269,80.4418,23.3825,-1.92007,-9.8542,31.5224,7.12502,16.124,60.8717,-10.7466,12.4252,27.7224,38.4354,-23.883,-8.02599,13.7818,-1.75944,-7.06796,-16.9788,38.4404,-32.7017,12.6528,-0.758505
10.1967,17.5718,-39.592,-2.97999,-31.6176,-5.36275,8.87313,0.660288,-1.06884,1.21225,0.825367,1.55469,-3.75564,0.428243,2.1157,-10.4205,-7.44541,-16.0531,23.9054,-10.5874,12.3977,10.9577,-5.1185,5.79369,4.98297e-14,1.59028e-15,-36.6033,-29.5793,-67.5197,19.2312,30.6377,-18.211,21.6582,7.12502,8.06671,-8.16783,4.98297e-14,1.59028e-15,-29.8297,15.5699,80.3236,23.1155,-2.06379,-9.61721,31.9571,7.12502,16.3522,61.2877,-10.7773,12.115,27.9055,38.4265,-23.7716,-7.99527,14.6187,-1.91485,-6.66684,-16.5791,38.6059,-32.5354,12.3321,-1.54961
10.1711,17.5635,-39.5877,-2.94128,-31.5957,-5.61958,8.95907,0.715292,-0.649472,1.30973,0.935326,1.5152,-3.69986,0.475316,1.82452,-10.8591,-7.55856,-15.9753,23.9059,-10.7157,12.4755,11.0672,-5.14378,5.77872,-3.38058e-14,-2.5842e-14,-36.2008,-29.027,-68.217,19.5576,30.4058,-18.8568,21.1688,7.12502,7.44334,-8.68023,-3.38058e-14,-2.5842e-14,-29.742,16.1059,80.0025,22.7184,-3.06061,-9.74731,31.6439,7.12502,16.227,60.9848,-10.6037,11.7857,28.2015,38.3997,-23.699,-7.66355,14.0353,-1.90773,-6.27482,-16.1109,38.8383,-32.6547,11.315,0.53782
10.1483,17.5545,-39.5812,-2.95181,-31.4492,-5.84647,9.12031,0.703531,-0.230206,1.29443,0.961128,1.52146,-3.79976,0.482754,1.59015,-10.6363,-7.53906,-16.1171,23.9086,-10.6891,12.4641,11.0281,-5.15424,5.80846,2.43138e-14,8.34896e-15,-36.2226,-29.0409,-68.1499,19.7918,30.3092,-18.1554,22.0683,7.12502,8.12038,-7.7557,2.43138e-14,8.34896e-15,-29.9746,16.6539,79.7133,22.324,-4.22602,-10.4784,30.4484,7.12502,15.5229,59.8454,-10.3698,11.5946,28.4957,38.3579,-23.8482,-7.41507,15.1604,-1.93213,-5.89293,-15.6581,39.1281,-32.4689,10.5023,0.923297
10.1231,17.5469,-39.5835,-2.91138,-31.2999,-6.04015,9.33444,0.634563,-0.0785119,1.21711,0.89165,1.63397,-3.99692,0.447681,1.62832,-10.1628,-7.50377,-16.3471,23.6483,-10.6128,12.3763,10.8344,-5.16396,5.82943,-6.07536e-15,4.37326e-15,-35.882,-27.8871,-68.7979,20.1454,29.3681,-18.4392,21.3231,7.12502,7.84641,-8.51128,-6.07536e-15,4.37326e-15,-30.1943,17.1795,79.5,21.9102,-4.76672,-11.149,29.8037,7.12502,14.8769,59.2495,-10.25,11.3081,28.76,38.2909,-23.8863,-7.2459,15.9605,-2.10902,-5.37849,-15.1666,39.4778,-32.3385,9.98327,0.153773
10.0965,17.5396,-39.5897,-2.88588,-31.2512,-6.13816,9.53359,0.601054,-0.101997,1.20258,0.850486,1.73657,-4.1238,0.42858,1.75225,-10.2209,-7.54935,-16.4037,23.4883,-10.5903,12.2037,10.7772,-5.17,5.76956,5.73338e-14,-9.14409e-15,-35.2862,-26.2999,-69.8751,20.5394,28.3742,-19.879,19.6346,7.12502,6.45665,-10.247,5.73338e-14,-9.14409e-15,-30.2885,17.731,79.3221,21.7097,-4.77329,-10.9399,30.4888,7.12502,15.0784,59.9196,-10.1919,10.8593,28.8964,38.2007,-23.6819,-6.92967,16.2775,-2.34658,-4.7976,-14.7649,39.8842,-32.2487,9.6463,-1.10983
10.0742,17.5374,-39.597,-2.80413,-31.1215,-6.30179,9.75312,0.599449,0.0254125,1.21381,0.865816,1.80181,-4.23412,0.434546,1.74503,-10.53,-7.65866,-16.4783,23.4866,-10.6621,12.1472,10.8524,-5.20137,5.74057,7.29912e-15,-2.38542e-15,-34.9913,-26.272,-69.9195,20.8059,27.6654,-18.8228,20.5951,7.12502,7.47622,-9.25279,7.29912e-15,-2.38542e-15,-30.3163,18.2901,79.1137,21.4562,-5.32289,-10.7795,29.9932,7.12502,15.2329,59.4124,-10.1388,10.6056,29.1153,38.0943,-23.5466,-6.89482,16.16,-2.66318,-4.38951,-14.3524,40.3406,-31.7706,9.55694,-3.47532
10.0549,17.5373,-39.6048,-2.62354,-30.9202,-6.61218,9.95607,0.595273,0.410261,1.21341,0.904486,1.82272,-4.34323,0.44732,1.54332,-10.5603,-7.7015,-16.4391,23.3442,-10.7135,12.1644,10.8132,-5.21594,5.72731,-2.15122e-14,1.19271e-15,-34.7615,-25.9475,-70.2628,21.1524,27.4689,-18.4746,20.7679,7.12502,7.81224,-9.06778,-2.15122e-14,1.19271e-15,-30.2923,18.5357,78.9433,21.663,-5.02555,-10.4045,30.7368,7.12502,15.5941,60.1282,-10.1103,10.3978,29.4733,37.9909,-23.4532,-7.10556,14.8207,-3.04069,-3.82693,-13.7727,40.8359,-31.6303,9.06278,-3.88854
10.0329,17.534,-39.6132,-2.49214,-30.7695,-6.84941,10.1148,0.575568,0.746242,1.22044,0.916805,1.81731,-4.41926,0.447339,1.34557,-10.3725,-7.67843,-16.38,23.0681,-10.6948,12.1772,10.6681,-5.20459,5.72233,2.91033e-14,0,-34.4535,-25.284,-70.8818,21.5179,27.0149,-19.0842,19.8458,7.12502,7.22387,-10.0109,2.91033e-14,0,-30.2694,18.8429,78.69,21.7814,-4.74948,-10.0183,31.5639,7.12502,15.966,60.9258,-10.0865,9.88073,29.7143,37.9121,-23.224,-7.03919,13.0772,-3.39077,-3.06411,-13.2215,41.3603,-31.3343,8.46854,-4.66817
10.013,17.5236,-39.6077,-2.514,-30.9931,-7.15318,10.2468,0.634467,1.15945,1.36523,1.04066,1.86634,-4.33755,0.501085,1.14615,-10.4791,-7.7005,-16.4769,23.0439,-10.6841,12.1794,10.6852,-5.2025,5.73744,1.68346e-14,0,-33.9557,-24.3243,-71.6391,21.8806,25.8962,-19.9046,18.8198,7.12502,6.43191,-11.0625,1.68346e-14,0,-30.1922,19.4103,78.4653,21.729,-4.75264,-9.7629,32.0107,7.12502,16.212,61.3528,-9.85315,9.44938,29.9977,37.8713,-22.9347,-6.74229,11.7169,-3.36767,-2.49038,-12.7828,41.8917,-31.4938,7.90375,-4.07717
9.99311,17.516,-39.6145,-2.52236,-30.9457,-7.29965,10.5573,0.645023,1.16357,1.37315,1.06888,2.02688,-4.50561,0.515106,1.30467,-10.7899,-7.77261,-16.6523,23.211,-10.6786,12.0474,10.8116,-5.21659,5.71349,-2.70223e-14,9.93923e-16,-33.6036,-23.4882,-72.0011,22.1777,25.0364,-20.0338,18.5244,7.12502,6.30718,-11.3617,-2.70223e-14,9.93923e-16,-30.3589,19.9102,78.4277,21.6838,-4.89977,-9.87117,31.8324,7.12502,16.1077,61.183,-9.77814,9.10059,30.1775,37.8577,-22.8074,-6.70196,10.5587,-3.58163,-1.85236,-12.3444,42.4452,-31.4419,7.05454,-3.66317
9.97265,17.5164,-39.6183,-2.67256,-30.7899,-7.18441,10.932,0.634876,0.937754,1.29324,1.04616,2.15634,-4.80407,0.508434,1.56757,-10.7077,-7.77852,-16.8711,23.0082,-10.6048,11.9519,10.7177,-5.21028,5.72142,-4.77145e-14,-9.54166e-15,-33.5063,-22.7696,-72.0436,22.4436,24.7419,-20.0352,18.3988,7.12502,6.30581,-11.4873,-4.77145e-14,-9.54166e-15,-30.7386,20.3597,78.3538,21.7262,-5.03773,-9.68196,32.0476,7.12502,16.2899,61.3833,-9.69562,8.48784,30.0628,37.8567,-22.7042,-6.41605,9.88968,-3.85423,-1.22055,-12.1441,43.0176,-31.0366,6.37262,-3.75405
9.95149,17.5173,-39.6244,-2.77956,-30.6521,-7.2669,11.2603,0.603221,0.996351,1.35302,1.01989,2.2336,-4.9241,0.494074,1.61729,-10.204,-7.74193,-17.0734,22.0371,-10.5501,12.1751,10.2829,-5.18543,5.83484,-3.59862e-14,3.97569e-16,-33.2268,-22.3173,-72.2021,22.7058,25.1149,-20.278,17.9386,7.12502,6.07147,-11.9544,-3.59862e-14,3.97569e-16,-30.9448,21.2565,77.9699,21.1951,-6.85245,-10.2681,30.3179,7.12502,15.7255,59.699,-9.45929,8.11649,30.1928,37.693,-22.6219,-6.28981,10.224,-4.14891,-0.689673,-11.7656,43.7158,-30.65,5.74951,-4.26277
9.92954,17.5134,-39.6326,-2.85208,-30.5024,-7.42147,11.5098,0.57581,1.14574,1.55677,1.00146,2.25854,-4.84652,0.480993,1.56059,-10.6849,-7.88738,-16.9072,22.2216,-10.6558,11.9067,10.4354,-5.22825,5.68089,4.05396e-14,-1.19271e-15,-32.7159,-22.4377,-72.3832,22.8923,26.0794,-20.5128,17.3849,7.12502,5.84471,-12.5145,4.05396e-14,-1.19271e-15,-30.8168,21.9484,77.7322,20.3562,-8.86813,-12.0973,27.289,7.12502,13.9633,56.8001,-9.22443,7.99611,30.4495,37.5435,-22.5873,-6.45614,9.33703,-4.44728,-0.216445,-11.3159,44.4593,-30.2656,5.16832,-5.43702
9.90393,17.5468,-39.6364,-2.90801,-30.3647,-7.48466,11.7173,0.699592,1.38757,1.55473,1.20025,2.2326,-4.96226,0.573871,1.36432,-10.6545,-8.0812,-17.1519,22.2471,-10.914,12.0022,10.5056,-5.3585,5.7176,-4.21486e-14,-3.37934e-15,-32.7551,-22.4662,-72.3584,23.1914,25.7053,-20.424,17.5178,7.12502,5.93046,-12.3792,-4.21486e-14,-3.37934e-15,-30.8682,21.9642,77.7113,19.9878,-9.70513,-12.6257,26.4037,7.12502,13.454,55.9491,-8.98258,7.9939,30.6304,37.411,-22.6263,-6.73681,8.22784,-4.94493,-0.0705169,-10.8959,45.2901,-29.7434,3.60421,-1.69656
9.88025,17.5405,-39.6466,-3.08934,-30.2544,-7.44373,11.9942,0.74529,1.36695,1.72471,1.25572,2.16384,-4.93695,0.600218,1.29292,-10.2193,-8.11241,-17.2094,21.6065,-11.031,12.304,10.2318,-5.39674,5.81838,7.237e-15,-9.14409e-15,-32.2428,-21.846,-73.0918,23.4639,23.9254,-20.6545,17.4389,7.12502,5.70797,-12.4642,7.237e-15,-9.14409e-15,-30.7015,22.0113,77.6268,20.0236,-9.82376,-12.3161,26.5166,7.12502,13.7524,56.0421,-8.74902,7.85824,30.7007,37.3284,-22.5985,-6.77227,8.60201,-5.29713,0.701203,-10.5274,46.1706,-28.7995,2.73812,-2.17387
9.86036,17.5058,-39.6593,-3.40895,-30.1013,-7.36358,12.4925,0.750386,1.1748,1.77662,1.25246,2.25595,-5.16474,0.601345,1.49408,-10.7869,-8.22567,-17.3132,21.8675,-11.0571,12.1485,10.4386,-5.41137,5.7625,6.79471e-14,-1.09332e-14,-32.149,-21.8206,-72.8641,23.605,24.9295,-20.2222,17.7889,7.12502,6.1253,-12.1025,6.79471e-14,-1.09332e-14,-31.0242,22.2147,77.6042,20.2433,-9.96833,-12.0298,26.6004,7.12502,14.0283,56.107,-8.45746,7.66303,30.7316,37.2837,-22.5528,-6.61948,10.1301,-5.4593,1.73333,-10.2422,47.0683,-27.7526,3.09907,-9.13679
9.83549,17.5174,-39.6852,-3.24389,-29.563,-7.50559,12.7707,0.615793,1.16168,1.68327,1.08953,2.38473,-5.41715,0.522151,1.66258,-10.8017,-8.28022,-17.5749,21.9958,-11.076,12.095,10.5066,-5.44692,5.785,-9.80381e-14,2.78299e-15,-31.954,-21.2591,-73.0565,23.8378,25.0006,-20.5527,17.4441,7.12502,5.80625,-12.4564,-9.80381e-14,2.78299e-15,-31.2388,22.5068,77.5419,20.2926,-10.0847,-12.1637,26.6356,7.12502,13.8992,56.1511,-8.56696,7.68116,31.042,37.27,-22.6964,-7.05253,10.7505,-6.39499,2.16118,-9.64367,48.0589,-26.5744,2.33654,-11.2155
9.81436,17.5237,-39.6812,-3.32038,-29.5769,-7.55997,12.8077,0.675046,1.37648,1.83748,1.18925,2.32426,-5.27138,0.565838,1.46024,-10.6662,-8.36192,-17.4665,21.5024,-11.1904,12.1139,10.3157,-5.48636,5.7471,-4.2366e-15,2.80286e-14,-31.6711,-20.7511,-73.4975,24.1586,24.3906,-20.7976,17.0702,7.12502,5.56972,-12.8366,-4.2366e-15,2.80286e-14,-31.0237,22.4949,77.5176,20.1252,-10.1378,-12.3359,26.6764,7.12502,13.7333,56.2032,-8.39695,7.34786,31.1079,37.2362,-22.6627,-6.82912,10.2904,-6.83651,2.68264,-9.28075,49.0741,-25.7193,1.27849,-9.99732
9.79139,17.5223,-39.6962,-3.29904,-29.2062,-7.53774,12.8772,0.615722,1.4272,1.9313,1.11134,2.23769,-5.20676,0.525711,1.35349,-10.6286,-8.43468,-17.2443,21.0824,-11.2866,12.0611,10.1558,-5.51319,5.66656,2.5022e-14,5.76476e-15,-31.3578,-19.9599,-74.0894,24.5269,23.3987,-20.6933,16.9223,7.12502,5.67048,-12.9818,2.5022e-14,5.76476e-15,-30.8112,22.3594,77.4741,20.0876,-10.0873,-12.3683,26.6284,7.12502,13.7021,56.1573,-8.35739,7.05445,31.1621,37.0505,-22.7184,-6.88118,10.7955,-7.65372,3.16975,-8.89775,50.1679,-24.6996,0.162477,-10.1991
9.76889,17.5233,-39.7155,-3.12055,-28.7946,-7.74148,12.759,0.484991,1.849,2.10794,0.977919,2.09711,-4.94369,0.45232,0.991319,-10.8905,-8.55442,-17.2788,21.1467,-11.4689,12.2962,10.2776,-5.56814,5.72412,-1.36167e-14,-2.76311e-14,-30.8533,-19.8066,-74.6569,24.6357,23.0875,-20.5756,17.215,7.12502,5.7841,-12.686,-1.36167e-14,-2.76311e-14,-30.5377,22.3932,77.2391,20.0811,-10.1439,-12.3943,26.321,7.12502,13.677,55.8516,-8.39714,7.00182,31.488,36.8957,-22.6971,-7.37283,10.4905,-8.60355,3.7409,-8.25725,51.2926,-23.5452,-0.732559,-12.6176
9.74911,17.5282,-39.7158,-3.1965,-28.8042,-7.92195,13.0974,0.55368,1.92396,2.11172,1.09804,2.25877,-5.12896,0.509521,1.09623,-10.5797,-8.53517,-17.6408,20.884,-11.4397,12.4829,10.156,-5.57447,5.8613,-2.46369e-14,-1.59028e-14,-30.7776,-19.8129,-74.4538,24.6581,23.2651,-20.4337,17.8343,7.12502,5.92115,-12.063,-2.46369e-14,-1.59028e-14,-30.684,22.7446,77.1898,20.0869,-9.96462,-12.0669,26.5846,7.12502,13.9925,56.0937,-8.12999,6.83153,31.7156,36.7495,-22.545,-7.44782,9.36018,-9.10682,4.38343,-7.68886,52.4052,-22.5694,-1.64843,-13.5796
9.72696,17.5306,-39.7519,-3.00685,-27.908,-8.00051,13.7684,0.391057,1.69539,1.77948,0.896211,2.44419,-5.8565,0.413591,1.45424,-10.0449,-8.52399,-17.813,20.3425,-11.45,12.5736,9.88107,-5.59864,5.92531,5.29513e-14,-2.5842e-15,-30.9481,-19.2656,-74.4135,24.9385,22.8868,-20.2987,18.0219,7.12502,6.05145,-11.8717,5.29513e-14,-2.5842e-15,-30.8763,22.7611,77.211,20.5137,-8.45974,-10.825,28.7549,7.12502,15.1891,58.1774,-8.3253,6.67433,31.9573,36.5915,-22.7655,-8.01304,10.0242,-10.427,4.40141,-7.19318,53.5441,-21.219,-2.85444,-13.1458
9.70905,17.528,-39.7667,-2.96671,-27.3942,-8.09018,13.9412,0.313221,1.78162,1.86321,0.808903,2.45508,-5.86098,0.368529,1.43275,-10.7521,-8.72415,-17.5653,20.6493,-11.6411,12.3835,10.1293,-5.6592,5.76777,2.36926e-14,-3.97569e-15,-30.6593,-17.9809,-75.1166,25.535,21.4145,-20.5884,16.6763,7.12502,5.77176,-13.2251,2.36926e-14,-3.97569e-15,-30.7642,22.5842,77.3149,20.3268,-9.51377,-11.4874,27.8615,7.12502,14.5509,57.3312,-8.27417,6.5959,32.1673,36.4234,-22.8866,-8.33538,10.5661,-11.3607,4.5183,-6.76783,54.6262,-19.8534,-3.92403,-11.9391
9.69187,17.5284,-39.7691,-3.05749,-27.1329,-8.13226,14.2126,0.425473,1.92757,1.77696,0.997006,2.52148,-6.10388,0.456973,1.38457,-10.4629,-8.84381,-17.8504,20.7922,-11.8159,12.3632,10.1751,-5.77613,5.79046,8.49804e-14,-2.22639e-14,-30.8465,-18.0675,-74.8796,25.7535,21.3145,-21.155,14.8049,7.12502,5.22466,-15.1107,8.49804e-14,-2.22639e-14,-31.021,22.2442,77.5189,20.9591,-8.40892,-10.2533,30.1123,7.12502,15.7397,59.4923,-8.06816,6.3489,32.2654,36.2863,-22.9129,-8.40662,9.75041,-12.0585,4.70027,-6.39316,55.6745,-18.43,-5.13685,-8.66765
9.67265,17.5357,-39.769,-3.03676,-26.9131,-8.19221,14.2302,0.413904,2.10239,1.8603,1.00218,2.46575,-6.02096,0.455089,1.22544,-10.378,-8.87928,-17.7945,20.6537,-11.8901,12.4159,10.1218,-5.80265,5.78869,-1.90336e-14,2.66371e-14,-30.7084,-17.342,-75.3853,26.2095,20.7902,-21.8464,13.177,7.12502,4.55704,-16.754,-1.90336e-14,2.66371e-14,-30.9891,22.233,77.4239,20.9701,-8.327,-10.3737,29.8489,7.12502,15.6237,59.238,-8.00803,5.76452,32.2949,36.1845,-22.9117,-8.084,10.6161,-12.852,4.84728,-6.01733,56.6802,-17.0183,-6.22227,-5.2119
9.65618,17.5354,-39.7729,-2.90901,-26.6311,-8.35376,13.9343,0.3192,2.57853,2.08969,0.918886,2.32964,-5.60346,0.405777,0.82898,-10.419,-8.97352,-17.7864,20.3489,-12.0326,12.6146,10.0588,-5.8442,5.82988,2.60781e-14,-2.18663e-15,-30.2552,-17.363,-75.7717,26.2195,20.8631,-22.2495,13.4263,7.12502,4.16784,-16.5126,2.60781e-14,-2.18663e-15,-30.6487,22.2191,77.3286,21.0381,-8.48557,-10.23,30.2074,7.12502,15.7621,59.5856,-8.06009,5.36768,32.459,36.1173,-22.8987,-7.88136,11.6763,-13.6983,4.98002,-5.59411,57.6651,-15.7871,-6.97775,-3.75562
9.64453,17.5217,-39.7772,-2.79389,-26.3785,-8.58965,13.8287,0.240881,3.01838,2.22667,0.868264,2.31472,-5.39335,0.374387,0.574642,-10.8743,-9.112,-17.7819,20.6301,-12.1539,12.5199,10.2612,-5.89165,5.76438,1.27968e-14,-1.33186e-14,-29.9189,-18.1176,-75.5773,25.8736,21.8301,-21.9136,14.9899,7.12502,4.49219,-14.9424,1.27968e-14,-1.33186e-14,-30.4106,22.2905,77.3065,20.9066,-8.38954,-10.5983,29.6564,7.12502,15.4074,59.0623,-8.0713,5.26904,32.7346,36.0824,-22.9103,-7.84834,12.6756,-14.4523,5.16977,-5.12105,58.6191,-14.657,-7.60928,-2.97631
9.63171,17.5114,-39.7789,-2.63122,-26.3371,-8.88773,13.9701,0.2888,3.35159,2.17157,0.994176,2.38332,-5.52363,0.42842,0.435625,-10.7191,-9.12814,-17.8676,20.6578,-12.2042,12.5753,10.2604,-5.9228,5.79654,5.20567e-14,-1.55052e-14,-29.9798,-17.2007,-75.9511,26.3455,20.6466,-22.2187,13.7181,7.12502,4.19757,-16.2203,5.20567e-14,-1.55052e-14,-30.5855,22.5544,77.1585,20.8681,-8.54323,-10.6972,29.284,7.12502,15.3121,58.6972,-8.09208,5.29745,33.0728,36.0696,-22.9186,-7.80599,11.896,-15.1301,5.51571,-4.54732,59.4882,-13.4412,-8.32949,-1.62114
9.61604,17.5091,-39.7805,-2.56833,-26.412,-9.07634,13.9315,0.390193,3.73335,2.28964,1.17122,2.28813,-5.36438,0.509971,0.0882653,-9.76049,-9.09662,-17.9403,19.7816,-12.3305,13.0205,9.82447,-5.97861,5.96723,-1.01877e-14,-7.15625e-15,-29.8536,-16.7854,-76.3564,26.6898,19.9575,-22.375,12.91,7.12502,4.04662,-17.0313,-1.01877e-14,-7.15625e-15,-30.5037,22.5822,77.011,20.9994,-8.6325,-10.6599,29.3697,7.12502,15.3481,58.7801,-8.02873,5.27691,33.3097,36.0308,-22.8506,-7.74125,12.9795,-15.6319,5.853,-4.07082,60.2047,-12.3062,-8.99937,-0.0245463
9.60205,17.506,-39.7799,-2.70909,-26.533,-9.12984,14.271,0.488539,3.63615,2.33831,1.3092,2.41371,-5.50159,0.577834,0.247025,-9.4875,-9.09815,-18.0372,19.4627,-12.3401,13.0744,9.67361,-5.99342,6.00396,-2.87741e-14,2.16675e-14,-29.721,-16.5498,-76.2309,26.7451,20.0284,-22.2382,12.7432,7.12502,4.17871,-17.1956,-2.87741e-14,2.16675e-14,-30.6652,22.6969,77.1253,21.1625,-8.46607,-10.9821,28.8597,7.12502,15.0378,58.2936,-7.77566,5.14848,33.3968,35.942,-22.7898,-7.51991,12.6606,-15.8473,6.14651,-3.75388,60.778,-11.527,-9.50003,0.415581
9.58893,17.5081,-39.7683,-2.88446,-26.568,-9.1188,14.3583,0.549686,3.71709,2.45018,1.40103,2.4175,-5.42703,0.622689,0.187782,-9.62907,-9.14424,-18.1055,19.4794,-12.3886,13.1599,9.72586,-6.00724,6.03408,-2.36554e-14,-3.598e-14,-29.6266,-16.4494,-76.2115,26.8284,20.0645,-22.1602,12.6591,7.12502,4.25404,-17.2782,-2.36554e-14,-3.598e-14,-30.7369,22.7334,77.1519,21.2561,-8.45794,-11.003,28.3838,7.12502,15.0176,57.8192,-7.4692,5.05728,33.4086,35.8515,-22.9304,-7.36569,13.8847,-15.9412,6.3161,-3.55924,61.2133,-11.1259,-9.9382,-0.00748642
9.5738,17.5129,-39.7602,-2.88852,-26.4086,-9.12882,14.3676,0.569052,3.78287,2.44614,1.43927,2.44814,-5.43478,0.640362,0.175845,-9.62642,-9.24351,-18.2602,19.5582,-12.521,13.2048,9.7917,-6.07629,6.05584,4.45775e-14,1.94809e-14,-29.6168,-16.0843,-76.2265,26.909,19.7759,-22.2727,12.6119,7.12502,4.14548,-17.3275,4.45775e-14,1.94809e-14,-30.8855,22.7998,77.1195,21.2725,-8.46789,-10.6984,28.4173,7.12502,15.311,57.8306,-7.35943,5.13913,33.4905,35.7826,-23.1409,-7.56519,13.7219,-16.2556,6.37533,-3.36585,61.5496,-10.9268,-10.2679,-0.69225
9.559,17.5132,-39.7591,-2.83589,-26.2735,-9.02335,14.7351,0.59702,3.47478,2.11495,1.47547,2.59125,-6.00032,0.655876,0.488674,-9.05945,-9.1589,-18.5126,19.4175,-12.4455,13.208,9.64059,-6.08219,6.12731,-2.18415e-14,-4.57205e-15,-29.9867,-15.3494,-76.0073,26.9641,19.5074,-22.3298,12.7222,7.12502,4.09029,-17.2183,-2.18415e-14,-4.57205e-15,-31.3986,23.0359,76.9906,21.0706,-8.32708,-10.5738,28.7758,7.12502,15.431,58.1798,-7.42255,5.18991,33.444,35.7214,-23.1839,-7.66126,13.4861,-16.6478,6.49387,-3.30902,61.7822,-10.9886,-10.0691,-1.74114
9.54651,17.5161,-39.7534,-2.88886,-26.307,-8.86198,14.665,0.684612,3.38638,2.12611,1.57002,2.53641,-5.94914,0.704558,0.462852,-8.94831,-9.13703,-18.4552,19.6283,-12.4532,13.143,9.6859,-6.09416,6.10159,-3.2228e-14,-1.82882e-14,-29.9162,-15.1631,-76.0389,26.9179,19.4988,-21.9669,13.5195,7.12502,4.44068,-16.4139,-3.2228e-14,-1.82882e-14,-31.1269,23.3597,76.8522,20.6007,-8.4116,-10.5641,29.3662,7.12502,15.4403,58.7695,-7.39156,4.99322,33.2689,35.656,-23.043,-7.46698,13.5511,-16.7894,6.64007,-3.34477,61.8976,-11.3942,-9.44337,-2.89995
9.5335,17.5215,-39.7479,-2.95474,-26.3954,-8.85482,14.7164,0.843876,3.3838,2.17713,1.78202,2.56689,-5.9211,0.809005,0.45498,-9.56691,-9.32818,-18.4413,20.083,-12.6525,13.0972,9.99583,-6.16693,6.03725,6.74625e-15,2.0276e-14,-29.7993,-15.0651,-75.9752,26.8526,19.3356,-20.7282,15.9419,7.12502,5.6368,-13.9632,6.74625e-15,2.0276e-14,-30.9697,23.6154,76.8807,20.3677,-8.49546,-10.6621,29.505,7.12502,15.346,58.9155,-7.2339,4.89194,33.2877,35.5781,-22.8822,-7.43723,13.0661,-16.7839,6.82586,-3.19713,61.9246,-12.1298,-9.01308,-4.66163
9.52055,17.5248,-39.7411,-2.93142,-26.4553,-8.9206,14.4914,0.957835,3.60366,2.25338,1.94695,2.49814,-5.70376,0.888374,0.231207,-9.21974,-9.36946,-18.5664,19.8887,-12.8212,13.4652,9.92756,-6.23596,6.1754,-5.45415e-15,-9.93923e-16,-29.6833,-15.2491,-75.9991,26.6865,19.3813,-21.2911,15.1449,7.12502,5.09327,-14.7739,-5.45415e-15,-9.93923e-16,-31.0689,23.7588,76.7483,20.4853,-8.41029,-10.7125,29.3442,7.12502,15.2975,58.7584,-7.10435,4.91433,33.3925,35.4741,-22.8768,-7.38999,12.7259,-16.8098,7.0294,-2.97195,61.8349,-13.2159,-8.9039,-5.1815
9.50821,17.5299,-39.7268,-2.92853,-26.7337,-8.91651,14.3537,1.10245,3.6958,2.28572,2.1389,2.4277,-5.58351,0.982326,0.0720336,-8.63708,-9.35574,-18.6365,19.6189,-12.9292,13.7222,9.7656,-6.29332,6.28048,-6.53505e-15,-4.17448e-14,-29.5468,-15.5145,-75.9892,26.3887,19.8092,-21.4997,15.3276,7.12502,4.89183,-14.596,-6.53505e-15,-4.17448e-14,-31.3174,24.0414,76.5225,20.7311,-8.3261,-10.5826,29.7343,7.12502,15.4226,59.1389,-6.9623,4.94994,33.3842,35.3663,-22.8916,-7.17297,13.083,-16.7048,7.30551,-2.8427,61.6056,-14.6483,-7.50004,-6.13609
9.49392,17.5377,-39.7055,-3.17153,-27.4459,-8.68587,14.4865,1.40249,3.47582,2.30783,2.50266,2.34756,-5.63034,1.16335,0.0400838,-8.48013,-9.37542,-18.5576,19.7633,-13.0032,13.6603,9.78962,-6.33563,6.24202,8.59744e-15,-1.23246e-14,-29.5019,-15.5864,-75.9607,26.1923,20.2311,-21.5556,15.2885,7.12502,4.83792,-14.6363,8.59744e-15,-1.23246e-14,-31.6284,24.2799,76.2941,20.7776,-8.32065,-10.4997,30.1083,7.12502,15.5024,59.5068,-6.63118,5.04697,33.136,35.2835,-22.7217,-6.84283,12.2778,-16.1649,7.73353,-2.93577,61.1932,-15.4128,-6.83268,-1.78948
9.48302,17.5416,-39.6836,-3.28872,-27.2981,-8.45203,14.4473,1.38902,3.32752,2.26968,2.45978,2.29987,-5.65437,1.14474,0.0816869,-8.9995,-9.40878,-18.4196,20.5783,-12.9919,13.3189,10.1398,-6.33356,6.0936,2.24254e-14,-1.03368e-14,-29.4272,-15.8902,-75.7367,25.8625,20.7731,-21.2257,15.6425,7.12502,5.15643,-14.2748,2.24254e-14,-1.03368e-14,-31.9532,24.5796,76.0876,20.6972,-8.36217,-10.6033,29.9644,7.12502,15.4026,59.3706,-6.49323,5.01994,32.9419,35.1963,-22.7977,-7.03375,11.705,-16.1051,7.42959,-3.14676,60.69,-16.258,-4.93304,-1.54877
9.47257,17.5433,-39.6796,-3.22474,-27.0895,-8.43772,14.4192,1.3336,3.30434,2.2312,2.38288,2.28378,-5.68152,1.10705,0.0924078,-9.36869,-9.4165,-18.3235,20.9237,-12.9879,13.2951,10.3243,-6.31368,6.06454,5.25288e-14,7.35503e-15,-29.1887,-16.2739,-75.671,25.4575,21.2631,-21.1207,15.7095,7.12502,5.25777,-14.2053,5.25288e-14,7.35503e-15,-32.1714,24.7662,75.9109,20.7831,-8.07971,-10.4385,30.1471,7.12502,15.5614,59.541,-6.50367,5.19595,33.0182,35.1407,-22.999,-7.28638,12.4132,-16.209,7.13772,-3.09717,60.0941,-16.5515,-4.31523,2.95407
9.46354,17.5476,-39.6716,-3.01775,-26.7357,-8.60905,14.3034,1.20336,3.51624,2.10532,2.24569,2.30815,-5.74695,1.03453,0.0260933,-8.80044,-9.31353,-18.4216,20.564,-12.9592,13.5872,10.1096,-6.30536,6.20778,-2.77056e-14,7.7526e-15,-29.1778,-16.5908,-75.5054,25.1321,21.7272,-21.1031,15.6331,7.12502,5.27479,-14.2812,-2.77056e-14,7.7526e-15,-32.6173,24.9439,75.6323,20.9284,-7.85339,-9.86217,30.514,7.12502,16.1164,59.8639,-6.61364,5.59607,33.3263,35.1793,-23.382,-7.81505,13.4354,-16.4139,6.62524,-2.90522,59.4472,-17.0434,-2.77051,5.64103
9.45767,17.5478,-39.6683,-3.04386,-27.7727,-8.61715,14.392,1.58936,3.49853,2.14711,2.75248,2.26701,-5.73843,1.28259,-0.104065,-7.85738,-9.19302,-18.5493,20.0191,-12.9557,13.924,9.76968,-6.32326,6.37758,-4.27636e-14,2.127e-14,-29.0807,-17.079,-75.3471,24.8837,22.2734,-21.3633,15.1167,7.12502,5.02357,-14.8038,-4.27636e-14,2.127e-14,-32.8034,25.0684,75.4301,20.8958,-7.78408,-9.48435,30.7954,7.12502,16.4802,60.1155,-6.54141,5.94557,33.2854,35.2582,-23.0368,-7.37306,12.3352,-15.694,7.30772,-2.81784,58.6774,-18.0356,-0.890926,6.43971
9.44919,17.5344,-39.6584,-3.22038,-27.9803,-8.26877,14.2193,1.71731,3.25096,2.26492,2.86098,2.11884,-5.52,1.34426,-0.133769,-8.2183,-9.23357,-18.3934,20.3796,-13.0035,13.8677,9.95847,-6.32527,6.31902,-3.57315e-14,-3.18055e-15,-28.8757,-17.3133,-75.408,24.7432,22.3684,-21.6737,14.6422,7.12502,4.72386,-15.2851,-3.57315e-14,-3.18055e-15,-32.8875,25.0552,75.3625,20.8652,-7.23728,-9.89027,30.7146,7.12502,16.0893,60.0666,-6.52955,6.14369,32.9875,35.3883,-23,-7.48096,11.1596,-15.0866,7.63997,-3.2303,57.8462,-19.06,1.47234,2.91788
9.43981,17.5346,-39.6488,-3.22937,-27.6302,-8.10185,14.2602,1.62506,3.05535,2.09047,2.72111,2.12811,-5.74051,1.27592,0.00734462,-8.41483,-9.16083,-18.3252,20.9703,-12.8907,13.6375,10.1631,-6.28416,6.24804,6.52635e-14,-2.92213e-14,-29.1152,-16.7811,-75.394,24.8469,21.9085,-21.4088,14.6091,7.12502,4.97964,-15.3124,6.52635e-14,-2.92213e-14,-33.6404,25.0766,75.2296,20.9047,-6.24805,-11.1521,29.2103,7.12502,14.874,58.6563,-6.61818,6.28325,32.9256,35.5133,-23.1729,-7.88866,11.4029,-14.9553,7.02898,-3.44362,56.8419,-19.6457,2.95249,5.0524
9.43076,17.5338,-39.6438,-3.12889,-27.2427,-8.17903,14.4417,1.47668,3.03744,1.84937,2.54868,2.22821,-6.10588,1.18654,0.146709,-8.50812,-9.08159,-18.255,21.6332,-12.7538,13.2468,10.3603,-6.25224,6.12562,-4.72114e-14,-6.95746e-15,-29.3928,-16.43,-75.2298,24.8656,21.6673,-20.9687,14.9999,7.12502,5.40456,-14.9112,-4.72114e-14,-6.95746e-15,-34.5204,25.4405,74.8361,21.092,-6.70434,-10.6037,29.0422,7.12502,15.4022,58.4484,-6.70888,6.34793,33.0994,35.6027,-23.3532,-8.28937,11.6132,-14.8584,6.37115,-3.41357,55.7203,-19.8663,4.56838,5.20281
9.42187,17.5374,-39.6205,-3.27946,-27.2759,-7.95728,14.3294,1.43733,2.83291,1.85281,2.45874,2.2089,-6.04936,1.14832,0.26162,-8.27933,-9.01628,-18.3618,21.6437,-12.6869,13.2522,10.3159,-6.24012,6.16477,5.97348e-14,3.20043e-14,-29.2577,-16.6818,-75.1156,24.5846,21.8755,-21.134,15.5275,7.12502,5.24501,-14.3876,5.97348e-14,3.20043e-14,-34.9338,25.867,74.4772,21.0323,-7.13422,-10.0509,29.6112,7.12502,15.9347,58.9757,-6.5608,6.35344,32.89,35.6252,-23.465,-8.42564,10.2535,-14.3446,5.85188,-3.7134,54.4421,-20.1122,6.23033,6.18366
9.41599,17.548,-39.5606,-3.55564,-27.9684,-7.62795,13.8003,1.63824,2.76284,2.0454,2.67592,2.09569,-5.54757,1.26339,0.159249,-7.79628,-8.949,-18.7185,21.2091,-12.6923,13.744,10.1295,-6.24579,6.41455,3.41661e-14,-2.18663e-14,-29.0492,-17.4111,-74.8911,24.203,22.4118,-22.3452,13.4451,7.12502,4.07543,-16.4957,3.41661e-14,-2.18663e-14,-35.0962,26.1503,74.2561,20.8478,-7.46467,-9.63709,30.4892,7.12502,16.3331,59.8215,-6.2181,6.25481,32.401,35.6479,-23.3462,-7.86776,9.53011,-13.3443,5.53699,-4.20933,53.0724,-20.6628,7.87541,7.48471
9.40828,17.5458,-39.5401,-3.56854,-27.8082,-7.5342,13.6012,1.62061,2.73318,2.0669,2.63738,2.05859,-5.41506,1.24716,0.150237,-8.37313,-9.05887,-18.5979,21.778,-12.7853,13.5595,10.4415,-6.27535,6.30444,1.19892e-14,-1.61016e-14,-28.994,-18.2135,-74.5657,23.9265,22.9183,-21.4485,15.0922,7.12502,4.94133,-14.8302,1.19892e-14,-1.61016e-14,-35.306,26.133,74.1903,20.8482,-7.49737,-9.68219,30.8251,7.12502,16.2897,60.1609,-6.22569,6.19572,32.3075,35.7094,-23.3649,-7.91685,8.44319,-13.0181,4.83574,-4.42166,51.7709,-20.9393,9.03939,6.8915
9.40094,17.5439,-39.5149,-3.63858,-27.8228,-7.38537,13.413,1.64117,2.60921,2.0756,2.63756,2.02874,-5.30624,1.25135,0.194343,-8.35509,-9.0448,-18.0049,22.162,-12.7098,12.7493,10.4593,-6.26872,5.92319,-2.17918e-14,-1.59028e-15,-29.0171,-18.7976,-74.2762,23.7051,23.3293,-21.8422,14.4673,7.12502,4.56111,-15.4636,-2.17918e-14,-1.59028e-15,-35.7289,26.2717,74.0025,20.8687,-7.45313,-10.242,30.3323,7.12502,15.7506,59.7114,-6.17442,6.14645,32.1321,35.784,-23.3931,-7.8049,9.58586,-12.5397,4.16408,-4.71389,50.5765,-21.5397,9.96725,5.87101
9.39383,17.541,-39.5123,-3.55317,-27.5072,-7.35427,13.5017,1.53404,2.38457,1.93984,2.47745,2.1035,-5.51379,1.17507,0.422749,-9.00982,-9.11465,-17.8261,22.6119,-12.708,12.4824,10.7182,-6.25426,5.78004,2.18539e-14,9.93923e-16,-29.0206,-19.2003,-74.0411,23.5235,23.6068,-21.5779,15.3029,7.12502,4.81636,-14.6224,2.18539e-14,9.93923e-16,-36.1732,26.7235,73.6837,20.6568,-7.48411,-10.709,29.8813,7.12502,15.3008,59.2953,-6.30493,6.19463,32.1623,35.8783,-23.6262,-8.01836,9.90786,-12.4436,3.37818,-4.84049,49.6398,-21.9569,10.4454,4.55308
9.39021,17.5331,-39.5076,-3.46579,-27.2614,-7.48717,13.6025,1.3929,2.37619,1.94818,2.2962,2.1657,-5.5649,1.08599,0.522879,-9.97245,-9.2183,-17.5511,23.1719,-12.7304,12.2102,11.0776,-6.23195,5.60629,1.75055e-14,-9.74045e-15,-28.8231,-19.1415,-74.1648,23.5692,23.4852,-21.5247,15.2731,7.12502,4.86771,-14.6509,1.75055e-14,-9.74045e-15,-36.3624,27.3902,73.2572,20.3734,-7.96233,-10.4076,30.032,7.12502,15.5911,59.4236,-6.3648,6.25009,32.3436,35.9625,-23.8176,-8.23882,9.78569,-12.2702,2.84251,-4.78565,48.9152,-22.1806,10.8886,2.06774
9.38573,17.5217,-39.5082,-3.4238,-26.6141,-7.7507,13.8218,1.21431,2.64392,1.71756,2.12462,2.26571,-5.92581,0.992508,0.501379,-9.51668,-9.21487,-17.8673,23.2322,-12.7973,12.3695,11.0592,-6.29496,5.72543,-2.44132e-14,-1.37161e-14,-29.4383,-18.6918,-73.9696,23.8999,22.94,-21.8611,14.4848,7.12502,4.54294,-15.4465,-2.44132e-14,-1.37161e-14,-37.0797,27.6468,72.7778,20.2244,-9.06844,-9.73987,30.3446,7.12502,16.2341,59.6849,-6.33005,6.41982,32.7716,36.0507,-24.2276,-8.96764,10.1312,-12.19,2.33518,-4.55634,48.4117,-22.1574,11.3034,-1.92705
9.37926,17.5178,-39.4796,-3.20121,-26.0176,-7.85099,13.5315,1.07258,2.80333,1.49846,1.96317,2.3306,-5.99584,0.90991,0.513842,-9.06868,-9.21977,-18.0935,23.1471,-12.8763,12.5221,10.983,-6.35459,5.82156,1.56108e-14,-5.76476e-15,-29.9852,-18.2909,-73.7692,24.184,22.3556,-21.7189,14.6218,7.12502,4.68023,-15.3065,1.56108e-14,-5.76476e-15,-37.6864,27.9468,72.3667,19.9663,-9.9968,-9.60839,30.2105,7.12502,16.3607,59.5404,-6.45346,6.66744,32.9703,36.1106,-24.7171,-9.50168,11.0086,-12.1301,1.82021,-4.5988,47.965,-22.5173,11.7171,-4.17147
9.37407,17.5137,-39.4575,-3.21223,-25.4801,-7.66334,13.0497,0.925823,2.7972,1.6797,1.73043,2.18316,-5.53389,0.801156,0.413491,-8.90894,-9.24027,-18.125,22.5856,-12.9979,13.0271,10.8052,-6.36713,5.99071,3.41537e-14,9.34288e-15,-29.7607,-18.6968,-73.8901,24.1828,22.4429,-20.8879,16.3452,7.12502,5.4826,-13.5639,3.41537e-14,9.34288e-15,-37.4601,28.387,72.057,19.4645,-10.2792,-9.95066,29.7705,7.12502,16.0312,59.1273,-6.47782,6.79217,32.8549,36.1721,-25.0689,-9.8507,11.5021,-11.8442,1.32062,-4.94093,47.5443,-23.2933,11.7254,-3.38779
9.36868,17.5323,-39.4045,-3.06534,-25.7003,-7.24852,12.1402,1.00914,2.57125,1.7244,1.76463,2.05757,-4.98499,0.829128,0.419378,-8.336,-9.16597,-18.5512,21.821,-13.0265,13.7885,10.5087,-6.36605,6.34689,-2.29348e-14,1.11319e-14,-29.7546,-19.0092,-73.762,24.0904,22.8122,-22.1774,14.2292,7.12502,4.23746,-15.7083,-2.29348e-14,1.11319e-14,-37.7411,29.0615,71.5649,19.1253,-10.6795,-10.0912,29.6213,7.12502,15.8958,58.9889,-6.64948,6.70308,32.2582,36.1964,-25.0411,-9.37389,11.3035,-11.3866,1.1216,-5.63196,47.0133,-24.1829,12.1904,-3.51641
9.36564,17.5326,-39.3846,-3.18813,-25.3335,-7.04716,12.062,0.91927,2.38105,1.69097,1.61876,2.04196,-4.98304,0.760977,0.534515,-7.27341,-9.02441,-18.9438,21.0555,-13.0084,14.3719,10.0967,-6.38145,6.65423,2.20154e-14,-3.18055e-15,-29.9073,-19.2921,-73.5488,24.0601,23.0389,-22.5974,13.3224,7.12502,3.83194,-16.6229,2.20154e-14,-3.18055e-15,-38.1148,29.6952,71.0604,18.8434,-11.3425,-10.1274,29.6098,7.12502,15.8609,58.9802,-6.54888,6.58629,32.0618,36.2087,-25.2863,-9.49068,11.8845,-10.9308,0.675517,-5.97906,46.4269,-24.439,12.6766,-6.69542
9.36277,17.5324,-39.3575,-3.33086,-25.1672,-6.89163,11.8758,0.929593,2.34947,1.77191,1.61437,1.95914,-4.79316,0.761059,0.469963,-8.15473,-9.26502,-18.7763,21.7144,-13.254,14.1802,10.5262,-6.46255,6.49942,2.41399e-14,1.07344e-14,-30.0124,-19.483,-73.5164,24.1601,22.9392,-22.1512,13.849,7.12502,4.26277,-16.0881,2.41399e-14,1.07344e-14,-38.1856,30.1749,70.6677,18.4486,-12.0172,-10.3012,29.8488,7.12502,15.6935,59.2324,-6.35685,6.54261,31.8967,36.186,-25.4614,-9.51954,12.5845,-10.3397,0.254301,-6.29426,45.7566,-25.1562,13.1337,-7.73251
9.36029,17.5361,-39.3249,-3.55248,-25.2576,-6.68957,11.8425,1.03532,2.21749,1.7647,1.73454,1.90625,-4.78364,0.822499,0.470563,-7.75372,-9.24808,-18.7281,21.6911,-13.3033,14.1511,10.443,-6.5026,6.48673,-8.1626e-15,-2.34566e-14,-30.3653,-19.2753,-73.4837,24.3883,22.505,-21.1274,15.9644,7.12502,5.25136,-13.9505,-8.1626e-15,-2.34566e-14,-38.5638,30.7669,70.085,18.0638,-12.8847,-10.5078,30.0284,7.12502,15.4946,59.4275,-6.07858,6.63475,31.6759,36.1946,-25.5949,-9.4548,12.8923,-9.62123,-0.0983747,-6.68778,45.0626,-26.1752,13.603,-6.77678
9.35325,17.5365,-39.314,-3.4304,-25.1033,-6.70023,12.1559,1.06613,1.86977,1.38841,1.76687,2.12034,-5.37087,0.841915,0.876522,-7.7374,-9.28261,-18.8147,22.1386,-13.3204,13.8421,10.5901,-6.54918,6.39324,-1.08027e-14,-1.09332e-14,-31.0523,-18.8775,-73.0621,24.5559,22.1996,-22.3001,13.9594,7.12502,4.11894,-15.9805,-1.08027e-14,-1.09332e-14,-39.4281,31.5261,69.3655,17.6669,-13.8055,-10.6446,29.9863,7.12502,15.3628,59.3956,-6.17903,6.8981,31.7562,36.2539,-25.7738,-9.77777,12.759,-9.37808,-0.351773,-6.75435,44.3438,-26.3909,14.0929,-7.41054
9.34735,17.5331,-39.3031,-3.35664,-24.9177,-6.6177,11.5348,1.03633,2.02555,1.67619,1.7049,1.89327,-4.71137,0.81234,0.57438,-8.24636,-9.40776,-18.531,22.2964,-13.5001,13.9368,10.7663,-6.57795,6.33808,-6.67171e-15,-1.49089e-14,-30.7754,-19.6141,-73.2696,24.462,22.5415,-21.5991,15.707,7.12502,4.79584,-14.2187,-6.67171e-15,-1.49089e-14,-38.9211,32.4309,68.6865,17.034,-14.8777,-9.90058,30.8803,7.12502,16.0794,60.2332,-6.27852,7.13394,31.7422,36.2952,-25.7909,-10.1576,11.801,-9.23455,-0.538,-6.91109,43.7006,-26.1336,14.7899,-9.08057
9.34116,17.5361,-39.2917,-3.31813,-24.3804,-6.14329,11.7055,0.9738,1.25866,1.26879,1.54928,1.97095,-5.25715,0.748559,1.10595,-8.28961,-9.42434,-18.6212,22.8823,-13.5009,13.6493,10.9771,-6.61514,6.25759,6.83322e-17,-2.5842e-14,-31.4618,-19.9143,-72.5479,24.308,23.0814,-22.3462,14.3027,7.12502,4.07446,-15.6381,6.83322e-17,-2.5842e-14,-39.8677,33.4154,67.7009,16.5683,-16.0805,-8.89253,31.8519,7.12502,17.0499,61.1237,-6.57029,7.3007,31.3281,36.4765,-25.9712,-10.6602,11.0985,-9.37186,-0.75817,-7.44006,43.0196,-25.9316,15.1182,-9.77595
9.33563,17.5356,-39.2927,-3.14718,-23.7513,-6.43728,11.2839,0.778399,1.61226,1.49695,1.31331,1.92669,-4.77123,0.627112,0.904144,-8.40009,-9.50983,-18.5524,22.6919,-13.6663,13.9266,10.9765,-6.65302,6.31515,3.91979e-14,-1.41137e-14,-31.2363,-20.2346,-72.8839,24.3723,22.9376,-22.7754,13.1501,7.12502,3.66002,-16.7982,3.91979e-14,-1.41137e-14,-39.7052,34.6679,66.8177,16.0652,-17.4371,-9.13122,31.4454,7.12502,16.8201,60.7369,-6.61426,7.67725,31.8108,36.4913,-26.2393,-11.4313,11.9169,-9.49745,-0.905944,-7.07117,42.6066,-26.1675,14.6735,-8.22782
9.33723,17.5528,-39.2748,-3.29997,-23.3876,-5.00177,10.8087,0.806016,0.342518,1.33949,1.17555,1.54487,-4.68827,0.58118,1.2461,-8.235,-9.54291,-18.6925,22.587,-13.7874,14.2204,10.9642,-6.70153,6.43435,-7.45443e-16,-1.21259e-14,-31.5564,-19.6894,-73.1007,24.6843,22.3082,-23.0921,12.535,7.12502,3.3542,-17.4184,-7.45443e-16,-1.21259e-14,-40.1262,35.4876,65.9918,15.7589,-18.4345,-9.50165,31.2471,7.12502,16.4635,60.5686,-7.04886,7.47379,30.2213,36.5749,-26.3158,-11.2204,12.83,-9.6301,-1.28258,-8.73913,42.151,-26.482,15.007,-7.11219
9.32669,17.5458,-39.2734,-3.09121,-23.394,-6.11377,11.6482,0.824632,0.868503,0.979005,1.31561,2.07866,-5.53899,0.644211,1.47617,-7.82144,-9.48745,-19.0379,22.6101,-13.7713,14.3729,10.9297,-6.73041,6.57024,-4.11049e-14,2.34566e-14,-32.3172,-19.5847,-72.516,24.6418,22.4421,-22.7619,13.4253,7.12502,3.673,-16.5228,-4.11049e-14,2.34566e-14,-41.1334,35.8509,65.3137,15.5511,-18.7662,-9.8008,30.9805,7.12502,16.1755,60.3256,-6.71326,8.35016,31.6569,36.4989,-26.774,-12.0252,13.7652,-9.22333,-1.2146,-7.46841,41.927,-26.4417,14.6745,-7.05639
9.32375,17.5567,-39.2655,-3.08942,-23.0115,-5.75725,11.2737,0.788263,0.654719,1.09119,1.21941,1.87826,-5.20972,0.600067,1.40609,-7.53464,-9.5233,-19.0903,21.8728,-13.9099,14.9046,10.6769,-6.76016,6.74863,6.68662e-14,-9.14409e-15,-32.2843,-20.6348,-72.3383,24.3161,23.0845,-21.3148,16.4057,7.12502,5.07043,-13.5137,6.68662e-14,-9.14409e-15,-40.9964,36.3662,64.8498,15.2654,-19.1878,-10.6174,29.6101,7.12502,15.389,59.0173,-6.84565,8.59041,31.3518,36.5685,-27.1091,-12.2962,14.2971,-9.15929,-1.69037,-7.86369,41.5655,-26.8408,14.35,-5.48578
9.32142,17.5668,-39.2448,-3.24645,-22.7602,-5.09408,10.9728,0.82564,0.153401,1.14023,1.18934,1.61738,-4.99415,0.593629,1.42376,-8.02547,-9.76827,-19.0731,22.2534,-14.2367,14.928,10.9819,-6.88485,6.69076,-2.45561e-14,6.95746e-15,-32.454,-20.9713,-72.3594,24.2341,23.0067,-22.5861,14.3017,7.12502,3.84278,-15.6434,-2.45561e-14,6.95746e-15,-41.0638,36.849,64.3346,15.1735,-19.9055,-10.9101,30.2556,7.12502,15.1071,59.6843,-6.83893,8.66909,30.6627,36.5512,-27.2491,-12.2535,15.0639,-9.04555,-2.35555,-8.66283,41.3241,-27.2994,14.4582,-4.545
9.31881,17.5705,-39.2351,-3.38331,-22.4413,-4.63417,10.9148,0.835915,-0.283682,1.12346,1.14268,1.46202,-4.98349,0.578491,1.51548,-8.0351,-9.86199,-19.0701,22.5143,-14.4104,14.9314,11.117,-6.9651,6.66926,8.04581e-14,1.37161e-14,-32.6722,-21.3869,-72.307,24.1093,23.1418,-23.0112,13.6469,7.12502,3.43232,-16.3052,8.04581e-14,1.37161e-14,-41.2076,37.3561,63.7538,15.0387,-20.6289,-10.6847,30.7629,7.12502,15.3242,60.1752,-6.86336,8.9377,30.2801,36.6419,-27.6597,-12.5236,15.562,-8.97037,-2.76939,-9.14514,40.9878,-27.0248,14.5814,-5.78199
9.32178,17.5726,-39.2439,-3.38054,-21.9176,-4.47133,11.0783,0.747851,-0.453215,1.04984,1.00287,1.38378,-5.14915,0.513487,1.54881,-7.94294,-9.87291,-19.1006,22.3951,-14.4794,15.1432,11.0896,-6.98494,6.74485,-1.21134e-14,3.97569e-16,-32.9024,-22.1503,-72.0988,23.8597,23.7405,-22.8913,13.8334,7.12502,3.54805,-16.1168,-1.21134e-14,3.97569e-16,-41.3814,37.8591,63.1555,14.8605,-21.4367,-10.2007,31.0325,7.12502,15.7903,60.4084,-6.98075,9.30651,30.2402,36.7093,-28.1846,-13.1078,15.8333,-9.11021,-3.04338,-9.24238,40.7039,-26.5076,14.4683,-7.3628
9.33221,17.5829,-39.227,-3.21777,-21.7072,-4.38182,10.9237,0.701298,-0.363079,0.899629,0.950319,1.30968,-5.21603,0.486339,1.42923,-8.36328,-9.89141,-19.1347,23.0465,-14.5048,15.1008,11.4232,-6.98703,6.73619,-2.0978e-14,-1.07344e-14,-33.3052,-22.4521,-71.8723,23.6101,24.0529,-22.8954,14.0713,7.12502,3.54416,-15.879,-2.0978e-14,-1.07344e-14,-41.714,37.9641,62.7805,14.9779,-21.8525,-10.0728,31.445,7.12502,15.9135,60.8112,-7.18552,9.46826,30.0888,36.7513,-28.3179,-13.298,15.9639,-9.19977,-3.66071,-9.45729,40.4768,-26.6048,14.7741,-7.84798
9.33954,17.5907,-39.2037,-3.18317,-21.4811,-4.30898,11.0736,0.7073,-0.375404,0.686999,0.960367,1.30772,-5.52377,0.494005,1.43074,-8.06968,-9.89843,-19.2684,23.1574,-14.5905,15.1917,11.4447,-7.04566,6.79505,-2.96997e-14,1.80894e-14,-33.8357,-22.426,-71.6039,23.4004,24.036,-23.138,14.1107,7.12502,3.30978,-15.8433,-2.96997e-14,1.80894e-14,-42.145,37.9968,62.4147,15.0523,-21.9558,-10.3715,31.4363,7.12502,15.6259,60.8252,-7.20256,9.61808,30.0029,36.779,-28.3939,-13.6392,15.5711,-9.14273,-4.40256,-9.68335,40.291,-26.8577,15.047,-8.00434
9.34316,17.5927,-39.1891,-3.2527,-21.4115,-4.10616,10.7291,0.841244,-0.229482,1.11309,1.13217,0.989886,-4.87938,0.568143,0.99527,-8.5309,-10.1929,-18.9674,22.6541,-15.0268,15.5975,11.4491,-7.15471,6.78776,-1.36292e-14,-3.97569e-15,-33.3677,-23.7727,-71.8234,23.0298,24.7097,-23.3306,13.8913,7.12502,3.1238,-16.0656,-1.36292e-14,-3.97569e-15,-41.1219,38.5022,62.3388,14.7514,-22.5248,-10.4955,31.0352,7.12502,15.5065,60.4334,-7.18273,9.85668,29.833,36.8165,-28.5139,-13.9863,14.8002,-9.02485,-4.71708,-9.96535,40.1071,-26.8681,15.0739,-7.85682
9.34486,17.5973,-39.1816,-3.24645,-21.341,-3.81165,10.6569,0.80213,-0.752484,0.750958,1.02911,1.10691,-5.22819,0.533357,1.42666,-7.38046,-9.90181,-19.4841,22.392,-14.7444,15.7977,11.1253,-7.11273,7.0427,1.11195e-15,1.98785e-16,-34.1416,-23.383,-71.3844,22.839,25.0371,-23.1203,14.1789,7.12502,3.32697,-15.7749,1.11195e-15,1.98785e-16,-42.363,38.5646,61.5856,14.8487,-22.5821,-10.5626,30.3955,7.12502,15.4418,59.7987,-7.3163,10.047,29.5447,36.881,-28.6638,-14.1015,14.9765,-9.04728,-4.86215,-10.2927,39.9269,-26.995,15.1903,-8.12535
9.34598,17.6032,-39.1758,-3.23788,-20.9862,-3.50009,10.4365,0.84523,-0.943659,1.12272,1.05068,0.896078,-4.71566,0.540808,1.31538,-8.58767,-10.2709,-19.0543,22.5068,-15.1433,15.7838,11.4556,-7.19443,6.84623,1.7903e-14,6.75868e-15,-33.6562,-24.2162,-71.607,22.6262,25.3487,-22.7697,14.768,7.12502,3.66551,-15.1803,1.7903e-14,6.75868e-15,-41.445,39.352,61.447,14.4796,-23.4063,-10.5884,29.504,7.12502,15.417,58.9091,-7.45288,10.128,29.2422,36.9972,-29.0032,-14.2257,15.7855,-9.11144,-5.18354,-10.6449,39.7074,-26.8902,15.1667,-8.13261
9.34765,17.6057,-39.1763,-3.2858,-20.3776,-3.19292,10.4306,0.738123,-1.14486,1.20038,0.876629,0.725848,-4.62601,0.456143,1.27678,-8.75383,-10.3507,-19.0005,22.3523,-15.2599,15.946,11.4662,-7.21909,6.86695,-4.10242e-14,-1.59028e-15,-33.6582,-24.5217,-71.7699,22.419,25.4839,-22.407,14.9844,7.12502,4.01578,-14.9575,-4.10242e-14,-1.59028e-15,-40.9702,39.438,61.4164,14.3051,-23.486,-10.4237,29.4492,7.12502,15.5756,58.842,-7.50793,10.2153,28.9954,37.0781,-29.4304,-14.6393,16.3464,-9.2204,-5.62508,-10.9807,39.5361,-26.7529,15.0203,-7.79921
9.35422,17.6134,-39.1733,-3.25472,-21.4525,-2.81615,10.4187,1.18177,-1.50468,1.07202,1.42003,0.621367,-4.77673,0.732311,1.29144,-8.18654,-10.3184,-19.2439,21.933,-15.2912,16.2431,11.2531,-7.25761,7.02702,-1.86361e-15,2.38542e-15,-33.9244,-24.3767,-71.8757,22.2646,25.2809,-21.3941,15.9302,7.12502,4.99379,-13.991,-1.86361e-15,2.38542e-15,-40.725,38.6529,61.9767,14.6711,-22.519,-10.6073,29.7653,7.12502,15.3988,59.1718,-7.79219,10.2892,28.3606,37.1182,-28.8703,-13.7332,16.012,-8.9405,-5.70867,-11.6078,39.4083,-27.5264,15.8448,-5.93141
9.36434,17.6128,-39.1595,-3.28713,-19.8796,-2.78423,10.5059,0.695581,-1.27452,1.04374,0.79728,0.567912,-4.82883,0.420623,1.19516,-8.31814,-10.3996,-19.3298,22.0453,-15.3844,16.2329,11.3492,-7.30054,7.01814,-9.44103e-14,1.70955e-14,-34.1921,-24.1792,-71.909,22.2167,25.1582,-22.5354,14.5125,7.12502,3.89177,-15.4317,-9.44103e-14,1.70955e-14,-40.661,38.2149,62.2989,15.0792,-21.8171,-11.0736,29.4202,7.12502,14.9496,58.8606,-7.62851,10.3921,28.5007,37.1158,-30.1093,-14.3388,18.8598,-9.30425,-6.52655,-11.6552,39.3502,-27.0976,15.5809,-7.02197
9.37573,17.6112,-39.143,-3.14688,-18.3031,-2.91147,10.3875,0.238586,-0.814318,1.0734,0.241318,0.498629,-4.71188,0.13597,0.944215,-8.60425,-10.5699,-19.2804,22.1831,-15.5932,16.1725,11.4939,-7.38025,6.93888,4.9311e-14,1.98785e-15,-34.3889,-24.6088,-71.7372,22.055,25.7114,-22.5625,14.1477,7.12502,3.86558,-15.797,4.9311e-14,1.98785e-15,-40.4139,38.2271,62.3205,15.1144,-22.0433,-11.3329,28.9515,7.12502,14.6998,58.4103,-7.58314,10.2653,28.7508,37.0843,-30.9877,-15.1286,20.1247,-9.8399,-7.15484,-11.4979,39.3356,-26.4509,15.2227,-9.12226
9.38352,17.6143,-39.1412,-2.99945,-19.2613,-2.83464,10.3871,0.733111,-0.878348,1.10139,0.886344,0.414592,-4.6964,0.454585,0.800632,-8.76039,-10.7978,-19.0738,22.066,-15.9083,16.1418,11.5264,-7.49858,6.8201,-2.47238e-14,7.95139e-15,-34.4426,-25.5131,-71.507,21.7124,26.4047,-22.4479,14.2044,7.12502,3.97628,-15.7383,-2.47238e-14,7.95139e-15,-39.6814,37.826,62.7907,15.0781,-22.2083,-11.3477,28.8988,7.12502,14.6855,58.3587,-7.83127,9.99697,28.3917,37.036,-30.1081,-14.4791,18.7809,-9.72765,-6.96661,-11.749,39.3495,-26.895,15.8495,-8.44448
9.39653,17.6132,-39.1239,-3.06679,-19.1368,-2.77651,10.4039,0.782193,-0.768681,1.19937,0.960319,0.350047,-4.60195,0.487629,0.661545,-8.90711,-10.9446,-19.0075,22.0088,-16.1052,16.1631,11.5726,-7.57141,6.77026,2.39287e-14,4.37326e-15,-34.4341,-25.7275,-71.5554,21.5019,26.5695,-22.5354,14.0516,7.12502,3.89173,-15.8926,2.39287e-14,4.37326e-15,-38.9007,36.8611,63.7235,15.3076,-21.4973,-11.4813,29.2922,7.12502,14.5568,58.7615,-7.71291,9.82858,28.2599,37.0015,-30.3436,-14.3137,19.6065,-9.63645,-7.4909,-12.0074,39.3501,-27.107,16.1849,-7.37292
9.40563,17.6143,-39.1212,-3.13366,-19.0207,-2.8062,10.5877,0.795422,-0.763497,1.0905,0.981044,0.419224,-4.81977,0.499539,0.724692,-8.42223,-10.9268,-19.2708,21.8426,-16.1211,16.2607,11.4522,-7.61814,6.86451,4.79568e-14,3.18055e-15,-34.8533,-25.17,-71.543,21.5035,26.7386,-22.1285,14.6063,7.12502,4.28469,-15.3303,4.79568e-14,3.18055e-15,-38.7575,35.9196,64.3695,15.6691,-20.4172,-11.9374,29.6218,7.12502,14.1173,59.1223,-7.6321,9.82661,28.2991,37.022,-30.5378,-14.3902,19.8471,-9.54001,-7.83866,-12.0963,39.2859,-27.193,16.4273,-6.52083
9.41147,17.6188,-39.1334,-3.115,-18.7701,-2.74522,10.9087,0.871615,-0.861939,1.17949,1.06722,0.415116,-4.90891,0.543474,0.759708,-9.03908,-11.2242,-19.2653,21.9205,-16.4444,16.2278,11.6724,-7.7303,6.76009,6.95746e-15,-6.75868e-15,-34.8328,-25.8003,-71.2822,21.2858,27.7866,-20.8704,16.5745,7.12502,5.49953,-13.3342,6.95746e-15,-6.75868e-15,-37.9463,35.4965,65.1419,15.9477,-19.7383,-12.2021,29.7727,7.12502,13.8622,59.2907,-7.72103,9.87606,28.2606,37.0283,-30.4882,-14.8279,18.8721,-9.66946,-7.99372,-12.171,39.2377,-27.1367,16.454,-5.93082
9.42202,17.6248,-39.1371,-3.13061,-18.5808,-2.54364,11.0046,0.932092,-0.933266,1.26684,1.13223,0.31166,-4.87144,0.575269,0.681558,-9.29308,-11.3676,-19.241,21.9185,-16.6266,16.2865,11.7666,-7.79016,6.73055,-5.73991e-15,-8.74653e-15,-34.7881,-26.0411,-71.3365,21.1619,28.1829,-20.255,17.3566,7.12502,6.09359,-12.5358,-5.73991e-15,-8.74653e-15,-37.2388,35.1513,65.651,16.0743,-19.3715,-12.1522,29.9333,7.12502,13.9103,59.4481,-7.78529,9.99337,27.9933,37.0221,-30.6492,-14.7182,19.8014,-9.76229,-8.12085,-12.432,39.2004,-27.0583,16.4982,-5.91569
9.43414,17.6271,-39.134,-3.21133,-18.5129,-2.51173,11.1822,0.942355,-0.907126,1.19888,1.14922,0.344479,-5.04208,0.584269,0.69529,-8.79535,-11.2876,-19.4532,21.6209,-16.5545,16.4335,11.5752,-7.7901,6.85027,-1.78906e-15,2.78299e-15,-34.9176,-25.3014,-71.6489,21.1818,27.8283,-20.4937,16.4068,7.12502,5.86316,-13.4921,-1.78906e-15,2.78299e-15,-37.1124,34.8001,65.8804,16.128,-19.043,-12.1836,30.1534,7.12502,13.8801,59.6702,-7.67781,10.2677,27.9382,37.0105,-31.2181,-14.1794,22.7383,-9.68212,-8.29506,-12.5547,39.1694,-27.0868,16.5824,-6.22586
9.44184,17.626,-39.1396,-3.25233,-18.4618,-2.69842,11.5819,0.967051,-0.763296,1.05567,1.20238,0.438272,-5.4154,0.609883,0.696681,-8.26412,-11.2163,-19.6806,21.209,-16.5132,16.687,11.3549,-7.79847,7.00566,-8.59744e-15,3.18055e-15,-35.1827,-25.2557,-71.5607,20.9959,28.0976,-20.475,15.7098,7.12502,5.88122,-14.1885,-8.59744e-15,3.18055e-15,-37.0492,33.9823,66.328,16.3847,-18.0949,-12.4466,30.142,7.12502,13.6266,59.676,-7.56965,10.5137,28.1874,37,-31.5398,-14.0388,23.8137,-9.62162,-8.37424,-12.381,39.1421,-26.9405,16.6352,-6.57263
9.45282,17.6269,-39.1227,-3.17871,-18.8699,-2.81272,11.2113,1.15255,-0.492098,1.27878,1.48108,0.393707,-4.97179,0.739303,0.462191,-8.25268,-11.2728,-19.6883,20.6731,-16.604,17.0391,11.2112,-7.81227,7.10862,4.52981e-14,-5.1684e-15,-34.9405,-25.9415,-71.5473,20.6785,28.7255,-20.3519,15.6427,7.12502,6.00009,-14.2524,4.52981e-14,-5.1684e-15,-36.2168,33.0895,67.2412,16.7862,-16.7301,-12.6865,30.4785,7.12502,13.3954,60.0278,-7.61019,10.5775,28.1965,37.0032,-31.2745,-13.7715,23.0335,-9.45716,-8.62897,-12.4229,39.1035,-27.1589,17.2081,-6.42718
9.46094,17.6313,-39.1175,-3.00248,-19.1237,-2.76273,10.7826,1.27667,-0.525029,1.46041,1.64174,0.371285,-4.54565,0.818235,0.444563,-7.74533,-11.1646,-19.6723,20.4299,-16.5364,17.1758,11.0186,-7.79848,7.18898,6.18717e-15,2.78299e-15,-34.6237,-26.1476,-71.7111,20.4884,29.0053,-20.3384,16.0626,7.12502,6.01313,-13.832,6.18717e-15,2.78299e-15,-35.6049,32.9687,67.676,16.9899,-16.3884,-12.7061,30.9137,7.12502,13.3765,60.4643,-7.85618,10.5908,28.0195,37.0147,-31.022,-13.658,22.4173,-9.53057,-8.79601,-12.5601,39.0595,-27.312,17.5837,-6.82169
9.46892,17.6353,-39.1118,-2.93269,-19.4758,-2.6843,10.7109,1.43298,-0.65465,1.46153,1.83659,0.414136,-4.51271,0.916961,0.535452,-8.39493,-11.2309,-19.6596,20.9096,-16.5288,16.9483,11.2985,-7.7736,7.08548,7.60351e-15,8.34896e-15,-34.6258,-25.8766,-71.7788,20.4517,28.9948,-20.193,16.2831,7.12502,6.15353,-13.6075,7.60351e-15,8.34896e-15,-35.4473,32.2207,68.2972,17.6385,-15.5025,-12.4213,31.4968,7.12502,13.651,61.0291,-7.98048,10.7047,27.8307,37.0198,-30.8927,-13.3535,22.6437,-9.47386,-8.88666,-12.74,39.0324,-27.6018,17.8192,-6.78037
9.47767,17.635,-39.1021,-2.94751,-19.325,-2.72259,11.0159,1.43481,-0.694821,1.30147,1.83998,0.544961,-4.8555,0.921446,0.684016,-8.28575,-11.2265,-19.8402,20.9942,-16.5037,16.872,11.3129,-7.78779,7.09768,-2.33572e-14,2.18663e-15,-34.9815,-25.9326,-71.3585,20.3152,29.376,-20.0642,15.9357,7.12502,6.27788,-13.9512,-2.33572e-14,2.18663e-15,-35.6623,30.5885,69.3128,18.8409,-13.5734,-12.3128,31.8104,7.12502,13.7555,61.3357,-7.90577,10.9108,27.8903,37.0425,-31.3013,-13.3765,23.4007,-9.44861,-9.06118,-12.7384,39.0101,-27.6678,17.7115,-6.68478
9.48812,17.6275,-39.0947,-2.97364,-18.3887,-2.87545,11.3213,1.14406,-0.593981,1.12899,1.47545,0.712592,-5.20141,0.742779,0.849816,-7.80738,-11.1392,-20.0951,20.8799,-16.4084,16.8856,11.1811,-7.7898,7.18141,8.33653e-15,6.55989e-15,-35.4009,-26.0836,-70.8118,20.0999,29.8783,-20.1329,15.7049,7.12502,6.21148,-14.1841,8.33653e-15,6.55989e-15,-35.9954,29.5655,69.9208,19.6284,-12.1089,-12.4448,31.6924,7.12502,13.6284,61.2262,-7.71424,11.1032,28.2151,37.0216,-32.1694,-13.9531,24.5002,-9.66007,-9.48892,-12.5207,39.039,-27.4249,17.2361,-6.96262
9.49333,17.6257,-39.1065,-2.95145,-19.6308,-2.83198,11.4562,1.56586,-0.89278,1.02179,2.00261,0.801834,-5.41382,1.01067,1.02348,-7.11919,-10.9717,-20.3497,20.3591,-16.2366,17.1277,10.8644,-7.75024,7.36479,1.28589e-14,1.98785e-15,-35.5409,-25.4447,-70.9778,20.1449,29.4614,-20.1605,15.5901,7.12502,6.18489,-14.2996,1.28589e-14,1.98785e-15,-36.1519,29.1012,70.1694,20.0013,-11.1669,-12.6237,31.0258,7.12502,13.4559,60.5711,-7.90424,11.1383,27.9574,37.0192,-31.319,-13.1454,23.9755,-9.37783,-9.04051,-12.6775,39.0504,-28.0005,17.7087,-6.20661
9.5036,17.6273,-39.0908,-2.92989,-18.6572,-2.73547,11.1206,1.16286,-0.77298,1.06705,1.48278,0.766326,-5.16078,0.751244,1.00868,-7.4225,-10.9032,-20.2849,21.137,-16.0791,16.6458,11.1206,-7.69583,7.20927,-3.13086e-14,4.96962e-15,-35.5096,-24.9777,-71.2361,20.1716,29.1424,-19.8572,15.8565,7.12502,6.47768,-14.0244,-3.13086e-14,4.96962e-15,-36.1886,28.7121,70.4163,20.434,-10.2705,-12.7584,30.5497,7.12502,13.3261,60.1036,-7.83926,10.9419,27.896,36.9707,-31.8889,-13.5471,24.6296,-9.67015,-9.38496,-12.7465,39.0974,-27.7362,17.3599,-6.80597
9.50891,17.6279,-39.0883,-2.85701,-18.9186,-2.65659,10.8917,1.17127,-0.874297,1.03321,1.4851,0.797575,-5.0721,0.755002,1.1018,-7.26336,-10.701,-20.2569,21.4401,-15.7771,16.3252,11.0994,-7.59175,7.15446,4.74101e-14,1.78906e-15,-35.5258,-25.3635,-70.9733,19.8469,29.8949,-19.6525,16.4497,7.12502,6.67527,-13.4251,4.74101e-14,1.78906e-15,-36.3241,28.442,70.5655,20.8177,-9.38953,-12.8461,30.3525,7.12502,13.2415,59.9119,-7.97237,10.843,27.7212,36.9548,-31.4858,-13.5783,24.0287,-9.69132,-9.49543,-12.8883,39.1125,-27.904,17.6126,-6.5842
9.51642,17.6256,-39.0827,-2.81401,-18.5376,-2.76931,10.9295,1.19646,-0.528788,1.36765,1.5485,0.63915,-4.73074,0.775015,0.735256,-8.15649,-11.027,-19.5962,21.5105,-16.1545,16.1547,11.304,-7.6746,6.86859,4.68511e-14,-1.35174e-14,-34.9792,-26.8438,-71.001,19.5697,30.6109,-19.8039,16.5361,7.12502,6.52913,-13.3433,4.68511e-14,-1.35174e-14,-35.0129,27.7418,71.255,21.1594,-9.42062,-11.8222,32.0886,7.12502,14.2284,61.5813,-7.9125,10.7966,27.8593,36.8963,-31.6793,-13.7021,24.5607,-9.84072,-9.70605,-12.7634,39.1776,-27.8106,17.4217,-6.5215
9.52262,17.6248,-39.0823,-2.83782,-18.35,-2.83812,11.0885,1.10694,-0.496172,1.27098,1.43732,0.704225,-4.91935,0.720808,0.797483,-7.73112,-10.8856,-19.6681,21.4627,-15.997,16.1141,11.1703,-7.63556,6.91307,7.77745e-15,-2.18663e-15,-35.1112,-26.5508,-71.0479,19.5591,30.4887,-19.727,16.5809,7.12502,6.60332,-13.2961,7.77745e-15,-2.18663e-15,-35.1705,27.1495,71.4944,21.617,-8.56692,-11.7594,32.7556,7.12502,14.2888,62.244,-7.82887,10.828,27.9424,36.8721,-31.8605,-13.6661,24.939,-9.8538,-9.77613,-12.6949,39.2209,-27.8942,17.1552,-5.83655
9.53196,17.6198,-39.0735,-2.97978,-17.6683,-2.83796,11.6075,1.04518,-0.410393,1.43366,1.36025,0.655015,-5.03266,0.679587,0.702393,-8.98043,-11.2169,-19.1712,22.0095,-16.3294,15.7908,11.6144,-7.70434,6.60102,-7.278e-14,7.55382e-15,-34.8976,-27.6479,-70.815,19.4078,31.0077,-19.6689,16.6878,7.12502,6.65948,-13.1875,-7.278e-14,7.55382e-15,-34.4314,26.3319,72.1777,21.8891,-7.89922,-11.8219,32.7327,7.12502,14.2286,62.2254,-7.62456,10.5988,27.9934,36.8668,-32.1332,-14.061,24.7049,-9.8745,-10.161,-12.7131,39.2666,-27.8612,16.7525,-5.20029
9.53533,17.6186,-39.074,-2.90055,-17.7699,-2.71725,10.8292,1.033,-0.331664,1.83825,1.34297,0.473564,-4.17096,0.666485,0.488887,-9.05026,-11.124,-19.0343,21.8019,-16.2363,16.0275,11.5407,-7.62745,6.68095,1.36167e-14,2.78299e-15,-34.2561,-28.5383,-71.1191,19.1671,31.6063,-19.8354,16.2994,7.12502,6.4987,-13.5809,1.36167e-14,2.78299e-15,-33.7144,26.0428,72.4083,22.0845,-7.49005,-11.8675,31.9624,7.12502,14.1847,61.4581,-7.81917,10.3649,27.7554,36.9145,-31.9501,-13.8368,24.7713,-9.9483,-10.2883,-12.8648,39.2503,-28.0751,16.7425,-4.01018
9.5441,17.6127,-39.0699,-3.04811,-17.7196,-2.53997,11.3469,1.02748,-0.631419,1.5668,1.30379,0.552471,-4.74985,0.654056,0.734227,-8.93342,-10.9858,-19.0908,22.2203,-16.0427,15.7846,11.615,-7.57217,6.65289,5.97845e-14,-6.55989e-15,-34.6035,-27.6631,-71.168,19.3482,30.8693,-19.8585,15.8708,7.12502,6.47646,-14.0101,5.97845e-14,-6.55989e-15,-34.2925,25.5536,72.5065,22.4232,-6.97908,-11.9885,31.027,7.12502,14.0681,60.5308,-7.7823,10.0412,27.4866,36.9782,-31.8828,-13.6877,24.6037,-9.78008,-10.8023,-13.198,39.2346,-28.1695,17.0531,-3.83943
9.54707,17.616,-39.0777,-2.85692,-18.4075,-2.49111,11.1092,1.25681,-0.709468,1.64172,1.59546,0.476273,-4.54489,0.797985,0.65991,-9.40547,-10.9376,-18.8016,22.4472,-15.9513,15.7022,11.7397,-7.48909,6.5787,-2.8948e-14,5.76476e-15,-34.3297,-27.7927,-71.4711,19.3347,30.892,-19.853,16.0708,7.12502,6.48168,-13.81,-2.8948e-14,5.76476e-15,-33.9641,24.9459,72.7751,22.709,-6.31723,-12.2502,30.6349,7.12502,13.8159,60.1561,-8.16569,9.84802,27.2564,37.0308,-31.1642,-13.4642,23.1671,-9.76924,-10.8588,-13.3327,39.1997,-28.4345,17.5648,-3.37627
9.55028,17.6145,-39.0877,-2.80873,-18.6577,-2.62691,11.3944,1.35761,-0.673816,1.62997,1.73328,0.515652,-4.71809,0.86566,0.653694,-9.95385,-10.9643,-18.5364,22.8272,-15.9274,15.4418,11.9384,-7.44958,6.4263,1.49089e-16,-2.5842e-15,-34.235,-28.331,-71.3476,19.1663,31.4241,-19.8686,16.3846,7.12502,6.46667,-13.4967,1.49089e-16,-2.5842e-15,-33.7796,24.3816,73.0382,22.9225,-5.70662,-12.5333,30.2869,7.12502,13.5431,59.8264,-8.24277,9.77202,27.3473,37.0407,-30.9426,-13.3198,23.2046,-9.72145,-10.9873,-13.2308,39.2073,-28.5174,17.836,-3.21264
9.55133,17.6202,-39.0852,-2.43781,-18.5627,-2.86314,11.229,1.36173,-0.431854,1.73676,1.76818,0.516608,-4.50797,0.878308,0.518508,-10.8888,-11.1538,-18.0913,23.1464,-16.095,15.1478,12.2122,-7.46246,6.17288,3.61043e-14,-4.77083e-15,-33.7441,-28.9602,-71.5516,19.0991,31.6988,-19.9037,16.2149,7.12502,6.4328,-13.6674,3.61043e-14,-4.77083e-15,-33.1994,24.0243,73.3136,23.1693,-5.61042,-12.071,30.5437,7.12502,13.9886,60.053,-8.57562,9.6716,27.5231,37.0421,-30.9359,-13.3817,22.9298,-10.0917,-11.1215,-12.9081,39.2147,-27.9553,18.1687,-5.53777
9.53619,17.6279,-39.1512,-2.13034,-17.1862,-3.06189,11.9178,0.804235,-0.713248,1.19634,1.00789,0.751886,-5.4558,0.515592,1.02538,-9.96568,-10.8039,-18.2817,23.1113,-15.6667,15.0372,11.9294,-7.34748,6.28566,-1.78906e-15,-1.98785e-16,-34.0976,-28.0857,-71.6811,19.287,31.2773,-19.884,15.8556,7.12502,6.45181,-14.0261,-1.78906e-15,-1.98785e-16,-34.1282,23.9057,73.0108,23.8076,-5.76487,-10.9561,32.0337,7.12502,15.0628,61.4657,-8.96217,9.49873,27.9524,37.0327,-31.4908,-14.4941,22.5448,-11.1389,-10.2017,-12.0644,39.2615,-26.8087,16.5016,-7.33505
9.54017,17.6221,-39.1379,-2.15654,-17.644,-3.04563,11.9434,0.880732,-0.785085,1.11289,1.10314,0.800337,-5.56266,0.565428,1.10019,-9.92293,-10.6542,-18.2433,23.3794,-15.4227,14.7637,11.9432,-7.26264,6.23004,4.49502e-14,1.98785e-16,-34.1155,-27.1208,-72.0916,19.6065,30.4746,-19.8164,15.7479,7.12502,6.51709,-14.1318,4.49502e-14,1.98785e-16,-34.4995,23.672,72.998,24.1865,-5.60714,-10.5931,32.8923,7.12502,15.4124,62.2978,-8.94181,9.46244,27.8608,37.055,-31.2047,-14.3045,21.7675,-10.9189,-10.6357,-12.2375,39.3146,-27.422,17.0069,-6.70409
9.54268,17.6155,-39.1285,-2.10479,-18.1496,-3.11531,11.9446,1.00199,-0.776557,1.08269,1.26785,0.844334,-5.60035,0.646904,1.11392,-10.1448,-10.5384,-18.0974,23.6635,-15.2102,14.51,12.0163,-7.1675,6.14755,1.16289e-14,2.18663e-15,-34.01,-26.4946,-72.4564,19.8324,29.92,-19.6961,15.91,7.12502,6.63324,-13.9661,1.16289e-14,2.18663e-15,-34.5199,23.2637,73.1444,24.228,-5.04212,-11.2064,32.3684,7.12502,14.8217,61.8183,-9.0163,9.57663,27.8765,37.1168,-31.0694,-13.9433,22.0803,-10.7824,-10.8981,-12.2714,39.3834,-28.1614,17.4137,-5.81345
9.54562,17.6107,-39.1207,-2.08248,-18.6324,-3.2607,11.9492,1.11878,-0.652208,1.09665,1.44069,0.87432,-5.59051,0.728998,1.04647,-10.1157,-10.3797,-18.0001,23.6856,-14.9946,14.4757,11.9625,-7.06741,6.16229,-1.39895e-14,3.97569e-15,-33.912,-26.1841,-72.7549,20.0023,29.6111,-19.6238,15.8341,7.12502,6.70303,-14.0399,-1.39895e-14,3.97569e-15,-34.5301,22.9199,73.2008,24.3205,-4.75333,-11.5771,32.0812,7.12502,14.4645,61.5571,-9.06764,9.60941,27.9739,37.2344,-30.8714,-13.6963,21.7908,-10.5943,-11.1423,-12.2401,39.459,-28.5744,17.6516,-4.62482
9.54578,17.6067,-39.1175,-2.12062,-19.2149,-3.30107,12.0362,1.30302,-0.685801,1.15569,1.68006,0.885435,-5.58395,0.846887,1.03612,-10.2987,-10.2818,-17.8701,23.8587,-14.8461,14.3951,12.0171,-6.98831,6.13649,5.24543e-14,-2.5842e-15,-33.7505,-25.8891,-73.0891,20.2119,29.3037,-19.7282,15.7422,7.12502,6.60224,-14.1349,5.24543e-14,-2.5842e-15,-34.4868,22.7163,73.25,24.5171,-4.63682,-11.6307,32.1345,7.12502,14.4128,61.6141,-9.08005,9.81276,27.9963,37.3153,-30.5506,-13.5982,20.9439,-10.3889,-11.2289,-12.3129,39.5794,-29.3745,17.8993,-3.08204
9.54005,17.5999,-39.1226,-2.05233,-20.1607,-3.31075,12.1,1.62661,-0.91219,1.1787,2.08116,0.935727,-5.61538,1.04943,1.14784,-10.6838,-10.2149,-17.68,24.1935,-14.6967,14.1544,12.1562,-6.90889,6.03471,-2.32827e-14,1.19271e-15,-33.5351,-25.6472,-73.3582,20.3802,29.0915,-19.7596,15.9058,7.12502,6.57192,-13.9722,-2.32827e-14,1.19271e-15,-34.1879,22.8169,73.2326,24.1837,-4.67898,-11.8552,31.7436,7.12502,14.1965,61.2385,-9.29847,10.341,27.995,37.4866,-30.1828,-13.3734,20.2984,-10.2253,-10.8105,-12.3538,39.6667,-29.5343,18.4664,-4.03302
9.54241,17.5905,-39.1084,-2.16355,-18.751,-3.45433,12.271,1.07364,-0.58115,1.24934,1.39431,0.996084,-5.60908,0.704518,1.13817,-11.0779,-10.0959,-17.5674,24.4996,-14.4586,13.9498,12.2806,-6.79368,5.97602,-2.68359e-14,1.25234e-14,-33.3245,-25.2186,-73.6647,20.615,28.7347,-19.7076,15.7511,7.12502,6.62209,-14.1254,-2.68359e-14,1.25234e-14,-33.6497,23.7097,72.8335,22.9762,-5.64005,-11.8206,31.1081,7.12502,14.2299,60.6006,-9.08634,10.1374,28.3501,37.6103,-31.069,-14.0038,22.1661,-10.4999,-10.9613,-12.0216,39.7619,-28.7582,17.6699,-5.21045
9.54472,17.5931,-39.1364,-1.73736,-21.5909,-3.3865,12.4779,2.02196,-1.08021,0.983042,2.58746,1.03532,-6.05973,1.30515,1.24527,-11.4539,-9.90797,-17.4704,24.9292,-14.1414,13.7626,12.4395,-6.64586,5.94796,-1.83627e-14,2.00773e-14,-33.2645,-24.771,-73.911,20.8539,28.3713,-19.664,15.5617,7.12502,6.66419,-14.3135,-1.83627e-14,2.00773e-14,-34.1775,23.0733,73.0204,24.1148,-5.09775,-11.3245,31.7777,7.12502,14.7079,61.236,-10.0073,10.8762,27.9218,37.8314,-29.3142,-12.9381,20.1325,-10.2834,-9.94831,-12.2897,39.788,-30.0086,18.5854,-2.25721
9.53224,17.5885,-39.1178,-1.96803,-20.0494,-3.30671,12.4139,1.43539,-0.961539,1.14284,1.81969,0.953398,-5.82251,0.922944,1.23126,-11.5975,-9.68688,-17.2596,25.052,-13.8337,13.6932,12.432,-6.49043,5.94442,1.799e-14,-5.76476e-15,-33.0649,-24.4806,-74.3781,21.1358,27.9308,-19.6313,15.6045,7.12502,6.69572,-14.2696,1.799e-14,-5.76476e-15,-34.1454,22.9253,72.8949,24.2591,-4.89512,-11.405,31.5961,7.12502,14.6303,61.06,-9.70025,10.6862,28.1265,37.9838,-30.1123,-13.9697,20.6465,-10.476,-10.1025,-12.1298,39.8311,-29.4096,17.5781,-3.0422
9.53114,17.5888,-39.1173,-1.94604,-20.3213,-3.14893,11.9648,1.43928,-0.814063,1.46269,1.82897,0.68691,-5.22211,0.917668,0.881165,-12.0647,-9.4959,-16.858,24.9992,-13.5622,13.7109,12.4206,-6.30835,5.91909,2.11954e-14,3.57812e-15,-32.4319,-24.26,-75.2995,21.5205,27.3459,-19.6639,15.4286,7.12502,6.6643,-14.4465,2.11954e-14,3.57812e-15,-33.5454,22.8767,72.7061,24.1372,-4.59866,-11.6824,31.0412,7.12502,14.3631,60.5243,-9.94187,10.7775,27.9305,38.1979,-29.9641,-13.8788,20.583,-10.475,-9.91357,-12.2959,39.8213,-29.4903,17.6398,-2.97155
9.52462,17.5811,-39.1186,-1.97944,-20.9092,-3.03665,12.2118,1.61456,-1.11528,1.33017,2.02362,0.746393,-5.51618,1.02179,1.07292,-12.4659,-9.26677,-16.7502,25.4847,-13.1592,13.4188,12.5856,-6.13255,5.86564,1.17531e-14,6.36111e-15,-32.4851,-23.4355,-75.5878,21.8979,26.6088,-19.7692,15.0734,7.12502,6.56266,-14.8049,1.17531e-14,6.36111e-15,-33.9332,22.8383,72.5771,24.3429,-4.54223,-11.6061,31.1103,7.12502,14.4365,60.5882,-10.0468,11.1702,27.8405,38.342,-29.8182,-13.721,20.48,-10.3261,-9.40027,-12.3953,39.8266,-29.6823,17.6009,-2.81217
9.52193,17.5745,-39.1123,-2.0875,-20.7463,-2.91183,12.3696,1.48389,-1.19779,1.10602,1.84028,0.762026,-5.83834,0.936845,1.16036,-11.8252,-8.86726,-16.8831,25.5984,-12.6457,13.3682,12.4052,-5.95267,5.98926,-3.97569e-14,0,-32.8601,-22.7202,-75.6779,22.1464,26.1637,-19.9082,15.1695,7.12502,6.42841,-14.713,-3.97569e-14,0,-34.4429,23.153,72.0865,24.1107,-5.22357,-10.9541,31.6831,7.12502,15.0648,61.1149,-10.0194,11.1767,27.7641,38.4923,-29.8561,-13.9095,19.8258,-10.291,-9.10159,-12.4609,39.8146,-29.5366,17.262,-3.34026
9.51729,17.573,-39.1056,-2.16831,-20.6661,-2.70362,12.4809,1.47646,-1.26865,1.21333,1.81003,0.625999,-5.78367,0.920789,1.06162,-12.3211,-8.76311,-16.6107,25.8985,-12.4704,13.2348,12.562,-5.8419,5.91928,7.94642e-14,-1.2921e-14,-32.6578,-22.8546,-75.9181,22.392,26.1268,-19.9207,15.9514,7.12502,6.4164,-13.9314,7.94642e-14,-1.2921e-14,-33.6707,23.8682,71.6619,22.9905,-6.37968,-10.4733,31.7659,7.12502,15.5278,61.1625,-10.0403,11.0885,27.5755,38.6102,-29.7946,-14.12,18.2513,-10.2934,-8.58429,-12.5753,39.798,-29.2813,16.8481,-3.70439
9.51305,17.5704,-39.098,-2.25999,-20.7408,-2.50272,12.5312,1.48625,-1.35143,1.29703,1.80344,0.514981,-5.72195,0.917144,0.992861,-13.0026,-8.60641,-16.2234,26.3542,-12.1811,12.9151,12.7777,-5.6825,5.77679,-1.59773e-14,-1.98785e-15,-32.5591,-22.4147,-76.3313,22.853,25.5863,-19.7686,16.4636,7.12502,6.56325,-13.4147,-1.59773e-14,-1.98785e-15,-33.4763,23.8705,71.5511,22.9223,-6.55094,-10.3324,32.1395,7.12502,15.6635,61.5255,-10.0352,10.9665,27.3658,38.6807,-29.749,-14.106,17.1099,-10.2443,-7.86532,-12.6735,39.7806,-29.0324,16.3902,-3.9773
9.50694,17.5681,-39.0915,-2.34924,-20.8601,-2.43469,12.5411,1.51111,-1.32598,1.47374,1.83548,0.461867,-5.53925,0.929368,0.919511,-13.9036,-8.44999,-15.7748,26.7374,-11.8461,12.5324,12.997,-5.49469,5.59854,-2.89729e-14,-5.1684e-15,-32.1742,-21.6916,-76.9901,23.3456,24.5562,-19.7045,15.9703,7.12502,6.62509,-13.9061,-2.89729e-14,-5.1684e-15,-33.1508,24.026,71.4933,22.7979,-6.74814,-10.2943,31.9235,7.12502,15.7002,61.3065,-9.95564,10.8674,27.3055,38.7118,-29.6876,-14.0274,16.8038,-10.1476,-7.29302,-12.6612,39.7921,-28.894,16.0343,-3.87319
9.50041,17.5685,-39.0849,-2.50065,-20.7601,-2.3988,12.7295,1.42785,-1.32663,1.55537,1.72458,0.509699,-5.55608,0.874543,0.986207,-14.757,-8.21345,-15.4421,27.4408,-11.3554,11.9733,13.3132,-5.27732,5.41235,-1.47846e-14,4.37326e-15,-31.914,-20.9376,-77.4304,23.7475,23.765,-19.872,15.3098,7.12502,6.46342,-14.5716,-1.47846e-14,4.37326e-15,-33.152,24.257,71.4327,22.7043,-6.80867,-10.7056,31.2053,7.12502,15.3041,60.6191,-9.72813,10.6782,27.2984,38.6845,-29.839,-13.9358,17.4395,-10.0758,-6.75942,-12.5875,39.8748,-28.6957,15.5158,-3.97267
9.49592,17.5677,-39.0806,-2.5844,-20.6533,-2.36873,13.0958,1.32283,-1.43596,1.37174,1.57392,0.646118,-5.95611,0.807853,1.20855,-15.314,-7.85938,-15.1744,28.361,-10.6948,11.2724,13.6338,-5.02875,5.22691,-1.74931e-14,-4.77083e-15,-32.1355,-19.6473,-77.7483,24.2768,22.5311,-19.9096,15.2139,7.12502,6.42708,-14.6685,-1.74931e-14,-4.77083e-15,-33.9999,24.2443,71.3502,23.3261,-6.37621,-11.0778,30.4158,7.12502,14.9456,59.8565,-9.53226,10.4334,27.2483,38.5991,-30.0796,-13.5025,19.0902,-10.1347,-6.04383,-12.4703,40.046,-28.4333,14.8083,-4.541
9.49075,17.566,-39.0747,-2.5108,-20.6253,-2.45999,13.3373,1.29741,-1.45141,1.20769,1.54426,0.782099,-6.26768,0.798488,1.36002,-15.5829,-7.53939,-14.92,28.8096,-10.1518,10.8281,13.7411,-4.81233,5.11459,-1.25731e-14,-3.37934e-15,-32.4301,-18.3764,-78.0821,24.9354,21.0479,-19.4494,16.2426,7.12502,6.87137,-13.6259,-1.25731e-14,-3.37934e-15,-34.0435,25.2686,70.8098,22.3848,-7.15213,-11.4628,29.2619,7.12502,14.5746,58.7298,-9.4542,10.174,27.2938,38.4714,-30.2475,-12.8984,20.5771,-10.3399,-5.22937,-12.2157,40.2983,-28.1562,14.0422,-4.33084
9.48548,17.5626,-39.0639,-2.41784,-20.5821,-2.60565,12.8455,1.27555,-0.974454,1.64244,1.57559,0.60812,-5.51747,0.793851,0.915596,-16.011,-7.39739,-14.4043,28.585,-9.97449,10.7485,13.6661,-4.66897,5.00997,2.31087e-15,5.1684e-15,-31.8378,-18.6857,-78.527,25.2381,21.0281,-19.7448,15.4109,7.12502,6.5862,-14.4667,2.31087e-15,5.1684e-15,-33.2023,24.8421,71.1055,22.7544,-6.68632,-11.613,29.4152,7.12502,14.43,58.8935,-9.37781,9.9021,27.3949,38.3165,-30.3681,-12.544,21.1888,-10.6008,-4.44784,-11.9073,40.6231,-27.5558,13.9002,-7.07723
9.48303,17.5593,-39.0521,-2.35462,-20.568,-2.76144,13.2409,1.31996,-0.75408,1.56545,1.66489,0.641922,-5.8149,0.833929,0.802072,-16.2187,-7.26867,-14.0568,28.7713,-9.75938,10.3987,13.7092,-4.57353,4.84935,-5.71506e-16,-2.5842e-15,-31.9047,-19.2913,-78.2029,25.2462,21.7704,-19.4911,15.7846,7.12502,6.83112,-14.0852,-5.71506e-16,-2.5842e-15,-32.7632,25.7477,70.6021,21.6088,-7.92038,-11.563,28.2515,7.12502,14.478,57.7264,-9.25592,9.61526,27.4861,38.1338,-30.337,-12.4536,21.0246,-10.8767,-3.85416,-11.6236,41.0316,-27.3136,13.495,-7.56488
9.48164,17.5559,-39.0381,-2.35991,-20.3911,-2.92313,13.5302,1.28145,-0.496712,1.5585,1.65503,0.722699,-5.97755,0.823869,0.737672,-16.3687,-7.08389,-13.941,28.86,-9.44902,10.2323,13.7114,-4.44103,4.82006,4.92986e-14,1.98785e-15,-31.8937,-19.6228,-77.95,25.2679,22.2011,-19.644,15.489,7.12502,6.68353,-14.3855,4.92986e-14,1.98785e-15,-32.8856,25.5621,70.7424,21.9974,-7.81168,-11.1167,28.8418,7.12502,14.9081,58.2854,-9.02554,9.24378,27.6004,37.9461,-30.3207,-12.5179,20.3371,-11.1432,-3.31267,-11.3506,41.5124,-27.3022,12.8213,-7.38376
9.47961,17.5484,-39.0224,-2.353,-20.0763,-3.19064,13.7036,1.18689,-0.112669,1.57178,1.59486,0.850475,-6.05173,0.786406,0.663416,-16.4894,-6.85818,-13.8668,28.8109,-9.06914,10.1073,13.6434,-4.27704,4.82328,-9.59136e-15,-6.75868e-15,-31.9456,-19.2691,-77.9255,25.529,21.7672,-19.9378,15.1496,7.12502,6.39982,-14.7337,-9.59136e-15,-6.75868e-15,-33.0907,25.2892,70.9909,22.5388,-7.44014,-10.9558,29.5177,7.12502,15.0631,58.9497,-8.77456,8.88737,27.8692,37.7866,-30.4001,-12.6235,19.7326,-11.4418,-2.69247,-10.9562,42.0412,-27.1303,12.2206,-8.85169
9.47864,17.5412,-39.0075,-2.3347,-19.7758,-3.49691,13.7282,1.05364,0.35409,1.65874,1.4925,0.937639,-5.96209,0.725937,0.511185,-16.6189,-6.61462,-13.6066,28.7548,-8.67761,9.85239,13.5553,-4.10317,4.74207,-8.4732e-15,-1.98785e-16,-31.8973,-18.5214,-78.2308,25.9283,20.7401,-20.0043,15.3705,7.12502,6.33562,-14.5147,-8.4732e-15,-1.98785e-16,-33.0988,25.3673,71.0543,22.8186,-7.30058,-11.0696,29.7238,7.12502,14.9534,59.164,-8.5604,8.52559,28.1751,37.6576,-30.491,-12.6565,19.2411,-11.7401,-2.15025,-10.5464,42.617,-26.7617,11.7175,-9.90794
9.47597,17.5439,-38.9964,-2.18849,-19.9778,-3.58045,13.5459,1.07522,0.490233,1.74414,1.54112,0.988997,-5.76898,0.747572,0.483452,-16.7575,-6.37398,-13.3922,28.8094,-8.28855,9.60096,13.5225,-3.93664,4.67345,-3.06625e-14,-5.96354e-15,-31.7784,-17.7744,-78.5548,26.3514,19.9941,-20.0682,15.177,7.12502,6.27394,-14.7101,-3.06625e-14,-5.96354e-15,-32.9808,25.8626,70.9803,22.8671,-7.48703,-11.1392,29.8242,7.12502,14.8864,59.2693,-8.62761,8.32803,28.1606,37.5671,-30.3634,-12.3704,19.0718,-12.0942,-1.33474,-10.3994,43.2179,-26.486,11.2809,-8.82599
