JuanDHNZ/ProyectoFinalCD/preprocessing/sports_trials_csv/12_02.csv
root1,root2,root3,root4,root5,root6,lowerback1,lowerback2,lowerback3,upperback1,upperback2,upperback3,thorax1,thorax2,thorax3,lowerneck1,lowerneck2,lowerneck3,upperneck1,upperneck2,upperneck3,head1,head2,head3,rclavicle1,rclavicle2,rhumerus1,rhumerus2,rhumerus3,rradius1,rwrist1,rhand1,rhand2,rfingers1,rthumb1,rthumb2,lclavicle1,lclavicle2,lhumerus1,lhumerus2,lhumerus3,lradius1,lwrist1,lhand1,lhand2,lfingers1,lthumb1,lthumb2,rfemur1,rfemur2,rfemur3,rtibia1,rfoot1,rfoot2,rtoes1,lfemur1,lfemur2,lfemur3,ltibia1,lfoot1,lfoot2,ltoes1
-0.0668185,16.4442,-32.0156,2.37197,-2.75714,4.22986,15.9302,0.131439,-9.85714,-5.17223,-1.69082,2.21246,-14.6191,0.285128,8.63929,-8.43887,-5.32106,-3.59798,17.1506,-7.18884,2.35174,6.83776,-3.50931,0.734672,-1.31571e-14,-3.97569e-15,-47.0211,-1.34423,-80.7207,24.0489,11.4116,-10.8464,19.8065,7.12502,15.1684,-9.61752,-1.31571e-14,-3.97569e-15,-37.899,6.25995,86.7092,17.4969,-5.88809,-5.0895,19.4636,7.12502,20.7074,48.3788,-34.7828,21.225,3.94758,29.024,-13.6069,-12.4132,17.9698,5.46368,-15.3275,-33.3342,12.6446,-17.3021,13.7205,15.3322
-0.103939,16.4546,-31.9878,2.67459,-1.89489,4.27385,15.513,-0.172655,-9.77105,-5.00025,-2.04829,2.07665,-14.0759,0.0558735,8.4948,-8.21772,-5.34636,-3.50962,16.6393,-7.28114,2.66639,6.64625,-3.5278,0.824958,-4.47266e-15,2.38542e-15,-46.4609,-1.9396,-80.9009,24.0357,10.8776,-9.70397,18.7664,7.12502,16.2687,-10.571,-4.47266e-15,2.38542e-15,-37.2532,5.86001,86.6006,17.3623,-5.67,-5.56954,19.2565,7.12502,20.2461,48.2214,-34.954,21.8909,3.27763,28.1911,-14.7484,-13.6738,20.5442,5.72003,-15.2926,-32.9741,11.7464,-16.5588,12.9738,14.127
-0.0966313,16.4531,-31.8679,2.52451,-2.00455,4.29471,14.2763,-0.241943,-9.08498,-4.52353,-1.88847,1.77391,-12.8052,-0.0537121,7.62671,-8.12011,-5.35537,-3.39074,16.3568,-7.3486,2.93117,6.54655,-3.53479,0.890088,-1.62382e-14,-1.03368e-14,-46.1106,-2.7366,-80.8757,24.1093,10.1996,-8.51241,19.4016,7.12502,17.4157,-9.83818,-1.62382e-14,-1.03368e-14,-36.7055,5.21536,86.6085,17.499,-5.18214,-5.69073,19.2438,7.12502,20.1296,48.2209,-34.8823,22.713,2.95331,27.8987,-15.6882,-14.2837,20.8591,7.21169,-15.7838,-33.3706,10.3543,-16.5464,13.6619,13.9428
-0.119722,16.4302,-31.8001,2.39257,-2.79341,4.37031,14.0522,0.0259961,-9.13708,-4.28693,-1.52094,1.6349,-12.4708,0.0859879,7.39359,-8.35132,-5.36161,-3.29083,16.2942,-7.38173,3.04378,6.56843,-3.53291,0.900906,-2.56603e-14,-7.15625e-15,-45.9062,-3.02073,-81.0818,23.6051,11.0877,-10.0527,20.7706,7.12502,15.9329,-8.59399,-2.56603e-14,-7.15625e-15,-36.3314,4.82251,86.5859,17.696,-4.67085,-5.54113,19.5449,7.12502,20.2734,48.5068,-35.2428,23.1477,2.85863,27.5866,-15.3618,-14.3328,19.7653,8.3793,-14.8261,-33.5082,9.00803,-16.3845,13.5141,13.7879
-0.123032,16.4175,-31.6921,2.31692,-3.57684,4.43459,13.3337,0.228861,-8.92521,-4.01253,-1.13771,1.52185,-11.7984,0.194146,7.0208,-8.74832,-5.35378,-3.28692,16.3143,-7.37164,3.10723,6.64606,-3.51671,0.909673,4.77549e-15,2.38542e-15,-45.7057,-3.16612,-81.2172,23.1858,11.8366,-11.0043,20.627,7.12502,15.0163,-8.80853,4.77549e-15,2.38542e-15,-36.0386,4.70008,86.5941,17.728,-4.40409,-5.31883,19.6544,7.12502,20.4871,48.5935,-35.4649,23.5099,2.81966,27.3914,-15.0794,-14.2227,19.2652,9.86032,-13.8639,-33.7546,7.31303,-16.2419,13.3922,14.0791
-0.152742,16.4118,-31.6364,2.42123,-3.03352,4.55266,13.2159,-0.605404,-10.2258,-4.80253,-2.40863,2.55278,-12.3333,-0.186944,9.25222,-4.98391,-4.41157,-5.06405,15.2622,-5.95912,3.07028,5.66888,-2.99283,1.40564,-2.48481e-15,-1.51076e-14,-47.2604,-0.184354,-80.5252,22.3737,13.2913,-11.989,23.4958,7.12502,14.0676,-6.00803,-2.48481e-15,-1.51076e-14,-38.3893,8.29967,86.039,18.0269,-5.32941,-4.96449,19.4508,7.12502,20.8275,48.3529,-35.5354,23.7279,2.48947,27.2349,-15.4934,-14.8586,20.0452,10.6049,-14.2764,-33.7536,6.23135,-15.7962,13.3451,13.2412
-0.180945,16.4144,-31.5798,2.56034,-2.56583,4.57092,13.4315,-0.43003,-9.67515,-4.53903,-2.13359,2.08204,-12.2434,-0.143098,8.33301,-6.51822,-4.79065,-4.28428,15.6229,-6.52352,3.17088,6.04654,-3.19555,1.22869,-8.07563e-16,-5.56597e-15,-46.615,-2.22059,-80.2628,21.9854,13.99,-11.4882,23.2926,7.12502,14.5501,-6.17715,-8.07563e-16,-5.56597e-15,-37.2223,6.78953,86.1944,17.9543,-4.98627,-5.21398,19.4551,7.12502,20.5878,48.3833,-35.5804,23.6464,2.41377,27.0764,-15.3556,-15.3028,19.091,11.4198,-14.6239,-33.6138,4.92092,-15.2908,13.198,13.1924
-0.208381,16.4047,-31.5182,2.72777,-2.33663,4.58434,13.6861,-0.091966,-9.10786,-4.2806,-1.64804,1.54145,-12.2193,0.00261321,7.28459,-8.29718,-5.29303,-3.22229,16.0481,-7.29896,3.10403,6.47732,-3.48658,0.920679,-2.29493e-14,-9.54166e-15,-46.0307,-4.04874,-80.5185,22.0425,13.8142,-11.542,22.4652,7.12502,14.4983,-7.00824,-2.29493e-14,-9.54166e-15,-35.9702,4.75747,86.5303,17.7987,-4.20461,-5.86375,19.0065,7.12502,19.9633,48.001,-35.7612,23.4674,2.42498,27.0497,-15.2388,-15.287,19.062,11.5124,-14.7392,-33.508,4.89113,-15.3371,13.0551,12.8714
-0.240109,16.3909,-31.4489,2.76807,-2.24684,4.69194,14.0587,-0.916962,-10.6565,-5.17322,-2.99227,2.82634,-13.1181,-0.330596,10.0265,-5.14574,-4.2382,-5.32389,15.3607,-5.65762,2.86075,5.71707,-2.87348,1.3991,4.84538e-15,7.15625e-15,-47.6767,1.44707,-81.3146,22.6819,11.9285,-11.739,22.1927,7.12502,14.3085,-7.29427,4.84538e-15,7.15625e-15,-38.5637,9.28047,85.9606,18.0925,-5.20587,-6.00278,18.5494,7.12502,19.8297,47.5579,-35.8092,23.5952,2.368,27.0886,-15.5412,-15.0336,21.5113,11.7785,-14.6907,-33.5514,4.86823,-15.413,12.9878,11.7793
-0.27615,16.3662,-31.3819,2.83059,-1.93513,4.80837,14.8932,-0.840292,-11.3845,-5.73612,-3.13283,3.09835,-14.2415,-0.186017,10.9069,-4.37422,-4.218,-5.30705,15.4789,-5.61035,2.41844,5.6078,-2.88845,1.27761,-6.75868e-15,-2.62396e-14,-49.0232,2.25301,-81.3082,23.4022,10.837,-11.1211,21.3802,7.12502,14.9038,-8.06362,-6.75868e-15,-2.62396e-14,-39.5665,9.48575,86.1571,18.2922,-5.5785,-5.99581,18.6083,7.12502,19.8364,47.616,-35.8977,23.5148,2.38262,27.4477,-15.6672,-14.8617,23.4746,12.4282,-14.8721,-33.5493,4.10564,-15.1893,12.8969,10.8919
-0.313139,16.3671,-31.3281,3.10142,-1.30404,5.00083,13.6452,-1.21735,-10.9408,-5.14351,-3.42137,2.68809,-12.7184,-0.552786,10.0906,-4.45212,-4.23723,-5.21406,14.6947,-5.70267,2.97493,5.39208,-2.8872,1.43426,-2.48232e-14,-1.51076e-14,-48.0007,1.57099,-81.8132,23.4685,10.8076,-10.6358,21.1362,7.12502,15.3713,-8.27239,-2.48232e-14,-1.51076e-14,-38.2707,8.67985,86.0819,18.4405,-4.97803,-6.36451,18.8173,7.12502,19.4819,47.8613,-35.9677,22.5911,2.50392,27.8592,-15.3401,-14.3813,24.0209,12.7936,-15.4185,-33.5649,3.35507,-14.7491,12.8846,9.7409
-0.30453,16.3267,-31.1738,2.64987,-2.52673,5.06822,13.1082,-0.881491,-10.5822,-4.86292,-2.83577,2.5771,-12.2261,-0.365186,9.57421,-4.89491,-4.28247,-5.24509,14.9121,-5.73678,2.92579,5.5366,-2.90436,1.41002,-9.86469e-15,1.98785e-14,-47.874,1.62034,-81.8385,23.1693,11.0584,-11.0654,21.9632,7.12502,14.9575,-7.47662,-9.86469e-15,1.98785e-14,-38.3411,8.68465,86.1703,18.6884,-4.81401,-6.25275,18.723,7.12502,19.5894,47.7561,-35.6678,22.3914,3.13857,28.356,-14.1906,-12.8481,23.1201,13.9884,-13.9223,-34.004,3.13917,-15.4448,12.6559,9.52844
-0.347909,16.3078,-31.1066,2.56372,-2.1376,5.13922,13.4405,-0.352376,-9.93578,-4.37983,-2.10396,1.78855,-12.0761,-0.141497,8.13633,-6.96396,-5.01341,-3.85147,15.3577,-6.83237,3.02559,6.03157,-3.32596,1.08008,1.94436e-15,-1.35174e-14,-46.8415,-1.79543,-81.4937,22.5697,12.238,-11.6278,22.3701,7.12502,14.4156,-7.10922,1.94436e-15,-1.35174e-14,-36.7788,6.02238,86.3802,18.6553,-4.54557,-5.62699,18.6732,7.12502,20.1909,47.6439,-35.3754,22.149,3.40264,28.7093,-13.8471,-12.4641,24.7417,14.7344,-14.1455,-33.9733,2.52542,-15.3299,12.5881,8.55116
-0.381487,16.2955,-31.0237,2.62586,-1.78147,5.14828,13.4679,-0.0752779,-9.47564,-3.97717,-1.67893,1.34179,-11.7331,-0.0350845,7.25899,-8.95431,-5.4474,-2.93933,16.0161,-7.50307,2.9281,6.57039,-3.57283,0.783453,-2.95009e-14,3.97569e-15,-46.3139,-3.46959,-81.4902,22.5655,12.3345,-11.6416,21.7806,7.12502,14.4023,-7.69969,-2.95009e-14,3.97569e-15,-35.4683,4.39393,86.5939,18.6275,-3.95916,-5.44083,18.9198,7.12502,20.3698,47.8714,-35.2107,21.7776,3.67997,29.0815,-13.4457,-11.922,26.4406,16.0763,-14.3559,-33.9219,0.716068,-14.4294,12.8499,5.57247
-0.413933,16.2803,-30.9372,2.62597,-1.54006,5.09967,13.4208,-0.801199,-10.2675,-4.56669,-2.72556,2.24788,-12.117,-0.375697,8.99496,-6.24868,-4.67385,-4.70789,15.5636,-6.28929,2.9758,5.98043,-3.12359,1.26123,2.14439e-14,1.19271e-14,-47.2609,0.0446173,-81.8052,22.6114,11.5184,-11.3766,21.1946,7.12502,14.6577,-8.2673,2.14439e-14,1.19271e-14,-37.3183,7.42014,86.3585,19.0555,-3.98715,-5.50102,19.038,7.12502,20.312,47.9959,-34.9751,21.3971,4.08061,29.312,-12.703,-11.3669,28.0734,15.5805,-14.4308,-33.8568,2.34244,-15.2555,12.884,3.84741
-0.445019,16.2619,-30.833,2.423,-1.92214,5.13398,13.4927,-0.194469,-9.87717,-4.23587,-1.8885,1.70272,-11.9906,-0.0596739,7.95462,-7.90485,-5.19494,-3.42702,16.0674,-7.07736,2.69647,6.40046,-3.42862,0.854735,-2.39784e-14,-4.13472e-14,-46.8775,-2.41399,-81.4339,22.3679,12.2033,-11.2101,20.5144,7.12502,14.8181,-8.93578,-2.39784e-14,-4.13472e-14,-36.4479,5.37041,86.6477,19.0202,-3.75192,-5.66823,18.8508,7.12502,20.1513,47.8257,-34.714,21.4641,4.43821,29.493,-11.6668,-10.8295,29.5434,15.8299,-13.8514,-33.9413,3.09634,-15.9647,12.7593,3.26947
-0.483902,16.2654,-30.762,2.77863,-0.909263,5.21409,13.6661,-0.271977,-9.65345,-4.19853,-1.9927,1.4841,-12.0383,-0.135321,7.60766,-9.25538,-5.47224,-2.88125,16.5552,-7.49493,2.55713,6.77841,-3.58672,0.641545,-1.15357e-14,-7.95139e-16,-46.7868,-3.326,-81.3618,22.5982,12.1469,-11.1864,20.1293,7.12502,14.8409,-9.31917,-1.15357e-14,-7.95139e-16,-35.8338,4.24188,86.9104,19.0492,-3.55359,-5.98326,18.4161,7.12502,19.8484,47.4225,-34.6628,21.101,4.33179,29.6161,-11.4052,-11.3415,31.1128,15.0255,-14.788,-33.8147,4.41422,-16.3843,12.6544,2.15463
-0.525653,16.2577,-30.6796,2.72849,-0.676507,5.06021,13.5459,-0.470261,-9.65126,-4.27713,-2.22884,1.67232,-12.0012,-0.23743,7.86922,-8.42799,-5.2591,-3.17863,16.3073,-7.1779,2.60351,6.55837,-3.4611,0.759314,-2.78764e-15,-2.62396e-14,-46.9725,-2.56352,-81.5774,22.6644,11.6101,-11.1371,20.933,7.12502,14.8884,-8.51204,-2.78764e-15,-2.62396e-14,-36.1017,4.94147,86.758,19.1561,-3.79996,-5.95566,18.4273,7.12502,19.875,47.4311,-34.5364,21.2294,4.66331,29.893,-10.8486,-11.7662,31.6671,16.0163,-14.8609,-33.5456,3.31823,-15.8889,12.6974,0.796411
-0.596436,16.2654,-30.6456,3.23197,0.322754,5.12999,13.4022,-0.721489,-9.6495,-4.24368,-2.57811,1.41571,-11.8128,-0.429948,7.64446,-8.61475,-5.33323,-2.71336,16.1432,-7.36685,2.76989,6.5327,-3.5098,0.717641,3.16502e-15,-1.63003e-14,-46.4364,-3.52801,-81.7738,22.554,11.5862,-10.8002,21.7822,7.12502,15.213,-7.63853,3.16502e-15,-1.63003e-14,-35.291,4.43294,86.4295,19.0644,-3.7635,-5.81767,18.5942,7.12502,20.0076,47.5842,-34.8911,20.7938,4.58934,30.1796,-10.7332,-12.4272,33.1217,14.8149,-15.8517,-33.1603,4.69229,-16.0305,12.6603,-0.259767
-0.573041,16.2308,-30.4392,2.37767,-1.27627,4.95508,13.0209,-0.116823,-9.21562,-4.00437,-1.62796,1.47618,-11.5054,-0.0371393,7.23245,-8.98667,-5.44531,-2.79485,16.8181,-7.47184,2.46524,6.80815,-3.57903,0.60511,-1.59416e-14,-1.19271e-14,-47.1043,-3.3965,-81.3608,22.847,11.3578,-10.8664,22.0393,7.12502,15.1492,-7.38619,-1.59416e-14,-1.19271e-14,-35.6777,4.53965,86.7574,19.1343,-3.77049,-6.06231,18.2667,7.12502,19.7725,47.281,-34.0568,20.8848,5.56901,30.6472,-9.43453,-11.2888,31.9312,16.0698,-13.8528,-33.603,5.51331,-17.1385,12.5525,-0.682823
-0.641521,16.2363,-30.4079,2.77058,0.298823,4.90022,14.8635,-0.469419,-9.78564,-4.88209,-2.39841,1.9048,-13.4633,-0.166468,8.34947,-8.98465,-5.38546,-2.95831,17.427,-7.30698,2.02676,6.98887,-3.54275,0.498485,2.04375e-14,1.74931e-14,-47.9957,-2.96103,-80.8389,22.9092,11.6851,-11.0657,21.9481,7.12502,14.9572,-7.49184,2.04375e-14,1.74931e-14,-36.7763,4.7915,87.1048,19.6083,-3.59797,-6.05798,18.1233,7.12502,19.7766,47.1372,-34.0402,19.7036,5.8686,31.1238,-9.57666,-11.7973,32.9641,15.0754,-15.38,-33.1111,6.76974,-16.9246,12.5829,-2.35434
-0.672654,16.224,-30.2903,2.65631,0.117028,4.77587,13.8377,-0.589277,-9.56489,-4.47305,-2.38285,1.93726,-12.3639,-0.270776,8.17908,-8.76436,-5.27042,-3.17008,16.9311,-7.15321,2.29764,6.80454,-3.46519,0.645716,2.8625e-14,1.59028e-15,-47.2142,-3.37521,-80.536,22.4148,12.4674,-10.6481,21.7494,7.12502,15.3595,-7.66011,2.8625e-14,1.59028e-15,-36.3792,5.08294,86.9782,19.8103,-3.47919,-5.79121,18.3978,7.12502,20.0331,47.385,-33.8244,19.2505,6.51407,31.6715,-9.26353,-11.3445,32.981,15.2377,-15.017,-32.9856,7.53197,-17.2128,12.5611,-3.90136
-0.719865,16.2189,-30.2042,2.74146,0.416272,4.57912,12.8305,-0.891133,-9.24661,-4.15728,-2.61561,1.91053,-11.3509,-0.489197,7.94357,-8.03779,-5.0955,-3.44736,16.2319,-6.96874,2.8719,6.47942,-3.36036,0.917154,-1.75955e-14,2.3059e-14,-46.572,-3.5895,-80.6933,22.0425,12.7508,-10.8805,21.8741,7.12502,15.1356,-7.5524,-1.75955e-14,2.3059e-14,-35.9014,5.70943,86.4316,19.5743,-3.81047,-5.6084,18.3106,7.12502,20.2088,47.2794,-33.6807,18.5643,7.15195,32.0367,-9.18094,-10.9887,33.6303,14.5927,-15.189,-32.5923,9.16798,-17.6534,12.5122,-5.48923
-0.762646,16.2221,-30.111,2.73545,0.447408,4.42236,13.3613,-0.820424,-9.49038,-4.51907,-2.60729,2.16513,-12.0733,-0.390437,8.41926,-7.84718,-5.04365,-3.53833,16.5439,-6.86329,2.64474,6.53744,-3.33374,0.870651,1.65861e-14,-2.14687e-14,-47.1956,-3.19024,-80.5713,22.2341,12.4449,-11.6564,22.621,7.12502,14.3881,-6.86029,1.65861e-14,-2.14687e-14,-36.4159,6.79202,86.1564,19.1692,-4.68439,-5.92985,17.4631,7.12502,19.8998,46.4642,-33.5228,18.216,7.70542,32.4238,-9.05331,-10.8152,34.1872,14.5289,-15.0786,-32.2854,9.89618,-17.6051,12.4734,-6.86808
-0.794282,16.2294,-30.0081,2.69711,0.325885,4.30327,13.3998,-0.637805,-9.21138,-4.39357,-2.31943,2.0601,-12.0227,-0.289232,8.0729,-8.60211,-5.26713,-3.14059,16.7398,-7.17489,2.43178,6.71922,-3.46583,0.688744,-9.70318e-15,-2.38542e-15,-46.7474,-4.21182,-80.213,22.0136,12.8738,-11.7049,22.8627,7.12502,14.3414,-6.62192,-9.70318e-15,-2.38542e-15,-36.0284,6.33602,86.3037,19.3999,-4.21989,-6.05481,18.0125,7.12502,19.7797,47.0261,-33.3367,18.0993,8.16837,32.8382,-8.85771,-10.8215,34.0754,14.4207,-14.8017,-32.0877,10.7469,-17.5339,12.4528,-7.95244
-0.826687,16.2271,-29.9059,2.6616,0.263384,4.24008,13.2828,-0.589042,-8.95147,-4.25562,-2.1996,1.95976,-11.8257,-0.275567,7.77099,-9.07744,-5.34863,-2.98286,16.8689,-7.3043,2.44076,6.84201,-3.5105,0.639327,-4.74288e-15,-3.97569e-15,-46.6106,-4.34147,-80.3137,22.1034,12.5581,-10.5193,19.9492,7.12502,15.4835,-9.45081,-4.74288e-15,-3.97569e-15,-35.8002,5.84188,86.4353,19.9466,-3.65345,-5.65916,19.0335,7.12502,20.16,48.0074,-33.1728,17.7577,8.62364,33.3191,-8.52035,-10.5262,33.9124,14.1588,-14.6086,-31.9465,11.9153,-17.6538,12.4229,-8.75767
-0.859181,16.2106,-29.7921,2.45507,-0.140878,4.22392,13.0112,-0.474223,-8.8808,-4.14499,-2.00566,1.92162,-11.5769,-0.210726,7.62725,-9.06462,-5.27817,-3.17152,17.0371,-7.22127,2.64694,6.90658,-3.46397,0.741066,3.12465e-15,-1.82882e-14,-46.9591,-4.06046,-80.4602,22.4693,12.1889,-11.0718,21.3905,7.12502,14.9514,-8.04979,3.12465e-15,-1.82882e-14,-35.9295,5.97749,86.3183,20.2373,-3.65311,-5.38613,19.0246,7.12502,20.4224,47.9706,-32.9825,17.319,9.18214,33.8825,-7.84827,-9.77126,33.4389,14.1421,-14.1884,-31.9533,13.1076,-17.9626,12.3279,-9.12125
-0.930434,16.2143,-29.7465,2.60625,0.827113,4.31737,13.8562,-0.674669,-9.32624,-4.46668,-2.44447,2.01753,-12.3559,-0.315446,8.14757,-8.98555,-5.21674,-3.25317,17.2042,-7.1341,2.65558,6.94727,-3.42637,0.7652,5.70885e-15,-3.02153e-14,-47.1651,-4.50149,-79.9538,22.1344,13.1584,-11.6492,22.7683,7.12502,14.3951,-6.71257,5.70885e-15,-3.02153e-14,-36.2099,6.24106,86.2185,20.3233,-3.73211,-5.56199,18.4666,7.12502,20.2534,47.4307,-33.0145,16.5019,9.44474,34.4715,-7.78118,-9.68798,34.076,13.2696,-14.2149,-31.3603,14.4495,-17.5961,11.2007,-10.2823
-0.969646,16.212,-29.6378,2.52988,0.664418,4.25821,13.8953,-0.589633,-9.3953,-4.58182,-2.34632,2.07081,-12.5319,-0.244255,8.23352,-8.79693,-5.16865,-3.26187,17.2885,-7.06697,2.60826,6.93771,-3.40064,0.761945,-8.64713e-15,-2.38542e-15,-47.2436,-5.63371,-78.8003,21.0285,15.3934,-12.7646,25.176,7.12502,13.3201,-4.37833,-8.64713e-15,-2.38542e-15,-36.6384,6.21055,86.2284,20.4736,-3.44057,-5.81784,17.7569,7.12502,20.0075,46.7469,-32.8584,16.4913,9.88275,34.985,-7.58403,-9.36569,34.367,12.9789,-13.8223,-31.1344,15.6626,-17.491,10.8666,-11.166
-1.01385,16.2162,-29.5401,2.53673,0.864552,4.36709,13.7789,-0.650963,-9.58867,-4.58919,-2.45525,2.06421,-12.4429,-0.286477,8.35576,-8.59396,-5.13085,-3.37492,17.2308,-7.02768,2.7531,6.89172,-3.37989,0.83622,1.14798e-14,1.11319e-14,-47.0635,-6.26509,-78.2443,20.3122,16.4125,-13.1748,25.8658,7.12502,12.9247,-3.71395,1.14798e-14,1.11319e-14,-36.8381,6.18665,86.2217,20.8511,-3.10271,-5.71528,17.8774,7.12502,20.106,46.857,-32.6215,16.3322,10.0921,35.3846,-7.68174,-9.2767,34.6414,12.6071,-13.461,-30.9089,16.7293,-17.0942,10.2983,-12.7161
-1.05916,16.2304,-29.44,2.45764,1.05626,4.37149,13.7003,-0.699372,-9.64,-4.52645,-2.51866,2.06687,-12.307,-0.324265,8.39508,-8.55852,-5.14965,-3.42072,17.1488,-7.05014,2.78551,6.86274,-3.39189,0.853785,4.00054e-15,1.03368e-14,-46.8594,-6.32785,-78.2813,20.1889,16.3806,-13.1284,25.2911,7.12502,12.9695,-4.28576,4.00054e-15,1.03368e-14,-36.7672,6.44493,86.1035,21.0377,-3.16695,-5.41671,18.2675,7.12502,20.393,47.2167,-32.203,16.3727,10.4261,35.6764,-7.86034,-9.43141,34.2721,12.4229,-13.1502,-30.6113,17.671,-16.5924,9.80759,-13.9975
-1.09862,16.2335,-29.32,2.08525,0.557655,4.25251,13.6933,-0.522373,-9.64329,-4.45059,-2.2714,2.10989,-12.2674,-0.210457,8.38765,-8.29171,-5.1758,-3.46842,16.9874,-7.07039,2.72481,6.76431,-3.41434,0.849518,1.85615e-14,7.95139e-16,-46.8507,-6.69862,-77.8644,19.823,17.337,-13.7234,26.5807,7.12502,12.3958,-3.0318,1.85615e-14,7.95139e-16,-36.9066,6.64933,86.0409,21.086,-3.2364,-5.36625,18.2676,7.12502,20.4415,47.2116,-31.5492,16.8386,11.0121,35.8999,-7.85078,-9.40952,33.0847,12.6625,-12.3972,-30.4014,18.6134,-16.4115,9.40762,-14.2669
-1.15669,16.2402,-29.2365,2.10409,0.793916,4.05634,13.9829,-0.540525,-9.66591,-4.60363,-2.32916,2.18249,-12.6057,-0.201756,8.52021,-8.13801,-5.19905,-3.47078,17.0376,-7.11122,2.73746,6.75542,-3.43491,0.854003,-2.77305e-14,9.54166e-15,-46.8425,-7.91542,-76.6969,18.9451,19.3479,-14.2249,29.8771,7.12502,11.9123,0.235989,-2.77305e-14,9.54166e-15,-37.1358,6.34868,86.139,21.2671,-2.89802,-5.68249,18.1358,7.12502,20.1376,47.1121,-31.2061,16.831,11.5872,36.0467,-7.98359,-9.71438,32.3949,12.1751,-11.8406,-29.6361,19.6781,-15.7407,8.4588,-15.1774
-1.19711,16.2511,-29.125,2.05057,0.860452,3.8978,13.7198,-0.588167,-9.46304,-4.5458,-2.32699,2.16268,-12.3833,-0.236609,8.36179,-8.34174,-5.19266,-3.46236,17.2895,-7.10957,2.75287,6.87232,-3.42802,0.849124,-1.51573e-15,1.03368e-14,-46.4781,-4.99613,-80.0032,21.8872,12.7891,-10.6118,20.6799,7.12502,15.3944,-8.72691,-1.51573e-15,1.03368e-14,-37.0574,6.06759,86.1574,21.4308,-2.71427,-5.59289,18.1213,7.12502,20.2237,47.0885,-30.7105,17.046,12.0885,36.1702,-8.16797,-9.97104,31.5605,11.7301,-11.255,-29.1019,21.0473,-15.138,7.78059,-16.3198
-1.24048,16.2605,-29.0171,1.95928,0.946578,3.8449,13.57,-0.642005,-9.47054,-4.54889,-2.38192,2.19714,-12.2829,-0.267293,8.40916,-8.12657,-5.14405,-3.50801,17.3195,-7.02202,2.63312,6.83863,-3.40144,0.83181,8.19987e-15,-2.22639e-14,-46.493,-4.61441,-80.3075,21.957,13.0147,-11.3499,20.7603,7.12502,14.6834,-8.69972,8.19987e-15,-2.22639e-14,-37.1165,6.27664,85.9906,21.547,-3.01106,-5.32727,18.0276,7.12502,20.4789,46.9676,-30.1625,17.356,12.4629,36.2519,-8.56631,-10.1198,32.4805,11.0769,-10.5816,-28.621,22.7274,-14.5332,6.96984,-17.488
-1.28817,16.266,-28.9172,1.91711,1.1958,3.59092,13.5215,-0.806981,-9.34987,-4.6498,-2.56361,2.35127,-12.3275,-0.347931,8.5573,-7.56842,-5.01989,-3.72003,17.1614,-6.8312,2.61912,6.6909,-3.33227,0.895312,-3.926e-15,-3.18055e-15,-46.6486,-3.90644,-80.5846,22.1744,12.5719,-11.3699,20.6092,7.12502,14.6641,-8.85229,-3.926e-15,-3.18055e-15,-37.6171,7.15665,85.5513,22.0441,-3.33909,-5.04711,18.3041,7.12502,20.7481,47.2149,-29.6446,17.3729,13.1047,36.2938,-8.81339,-10.2599,32.0055,10.2871,-10.006,-27.8248,24.4171,-13.8213,5.98222,-17.6767
-1.33465,16.2726,-28.8149,1.83242,1.38293,3.33577,13.4271,-0.916436,-9.18534,-4.62301,-2.65947,2.44169,-12.2179,-0.41069,8.579,-7.56817,-4.99387,-3.87907,17.2355,-6.79153,2.70933,6.72221,-3.31573,0.952298,6.73383e-15,-2.3059e-14,-46.4542,-3.82701,-80.6481,22.2503,12.781,-11.2548,20.4317,7.12502,14.7751,-9.02165,6.73383e-15,-2.3059e-14,-37.8055,7.75344,85.2207,22.6176,-3.15216,-4.64444,19.3402,7.12502,21.135,48.2082,-29.0608,17.4004,13.7523,36.3003,-9.19864,-10.3086,32.1564,9.44911,-9.22377,-26.9811,26.3327,-13.065,4.95776,-17.887
-1.3843,16.2798,-28.715,1.67481,1.55047,3.13198,13.3912,-0.616388,-8.70525,-4.263,-2.19361,2.03139,-11.9024,-0.282561,7.71492,-8.79956,-5.37445,-3.03404,17.5517,-7.42617,2.7723,7.03196,-3.54243,0.741395,8.36138e-15,8.74653e-15,-45.7063,-5.78489,-80.5797,22.0236,13.5428,-11.4146,20.4265,7.12502,14.621,-9.03805,8.36138e-15,8.74653e-15,-36.5719,6.49794,85.1558,22.2925,-2.7881,-4.54524,19.4799,7.12502,21.2303,48.3373,-28.3906,17.4994,14.3701,36.3056,-9.67434,-10.4039,32.1113,8.52896,-8.32723,-26.128,28.4333,-12.2556,3.75975,-17.3689
-1.43178,16.2853,-28.6174,1.62363,1.91633,2.83082,13.0442,-1.96586,-10.1488,-5.29051,-4.10935,3.67467,-12.3146,-0.921123,10.8751,-3.75144,-3.73779,-5.97798,16.2545,-5.01429,2.89398,5.74862,-2.61547,1.58471,-1.74434e-14,2.3059e-14,-46.9919,0.537777,-81.3169,22.1546,12.1796,-11.4195,20.0985,7.12502,14.6163,-9.36641,-1.74434e-14,2.3059e-14,-40.0944,11.6754,84.3402,22.7496,-3.24909,-5.1086,18.5742,7.12502,20.6891,47.4914,-27.8099,17.3387,15.0757,36.319,-10.1376,-10.471,32.0614,7.35322,-7.74703,-25.189,30.6124,-11.3514,2.71157,-16.9932
-1.47903,16.2909,-28.5219,1.60346,2.238,2.62921,13.3853,-0.839036,-8.34852,-4.18598,-2.40538,2.19866,-11.7686,-0.413149,7.74086,-9.34391,-5.35324,-3.30549,17.9811,-7.38678,2.9406,7.28364,-3.51514,0.821848,-4.91992e-15,-1.35174e-14,-44.8393,-5.26194,-81.0983,21.9933,12.8246,-11.544,20.1938,7.12502,14.4964,-9.27979,-4.91992e-15,-1.35174e-14,-36.4569,6.78774,84.9815,22.3722,-2.77928,-5.58425,17.946,7.12502,20.232,46.9123,-27.2646,17.143,15.6544,36.3069,-10.6171,-10.4612,32.0949,6.17218,-7.16041,-24.378,32.747,-10.2475,1.7485,-16.3822
-1.51439,16.292,-28.4424,1.7824,1.20206,2.49416,13.2627,-0.408651,-8.3314,-4.31503,-1.82386,2.13763,-11.9611,-0.125351,7.53394,-9.26912,-5.48702,-3.11065,18.0433,-7.58934,2.8406,7.2856,-3.60842,0.740273,1.14301e-14,-1.59028e-14,-44.8117,-5.51302,-81.1189,22.0612,12.7671,-11.3946,20.4898,7.12502,14.6404,-8.9734,1.14301e-14,-1.59028e-14,-36.433,7.11886,84.6692,22.3269,-2.97198,-5.6474,17.8175,7.12502,20.1713,46.7902,-27.3831,17.2796,16.0131,36.244,-10.1258,-9.82034,31.1893,4.74898,-5.50553,-23.8289,34.9579,-9.13858,1.20064,-16.3004
-1.55852,16.314,-28.3274,1.65077,2.40286,2.42684,12.9873,-0.966785,-8.26309,-4.51237,-2.53553,2.23939,-11.8802,-0.46219,7.75685,-7.82874,-5.28573,-3.54697,17.6417,-7.30892,3.05131,6.91686,-3.50916,0.950594,1.33683e-14,-3.97569e-16,-45.0075,-4.94898,-81.25,21.9169,12.8716,-11.3602,20.4977,7.12502,14.6735,-8.96307,1.33683e-14,-3.97569e-16,-36.9663,8.02994,84.1898,22.3276,-2.96123,-5.42456,18.3904,7.12502,20.3854,47.3404,-26.3278,16.7425,16.5004,36.1357,-11.0112,-10.166,31.3334,3.57908,-5.62316,-23.1097,37.0538,-7.47643,0.286712,-16.8325
-1.59069,16.3276,-28.235,1.74635,2.95472,2.2416,13.0044,-0.946691,-7.65347,-4.28839,-2.41865,1.9946,-11.679,-0.484584,7.09645,-9.25702,-5.57719,-3.06591,18.0682,-7.76052,3.03866,7.30345,-3.66984,0.780238,1.13307e-14,-1.78906e-14,-43.9645,-6.43707,-81.0067,21.4946,13.6811,-11.5072,20.7474,7.12502,14.5318,-8.72361,1.13307e-14,-1.78906e-14,-36.152,7.33885,84.1877,22.4738,-2.64887,-5.63266,18.4004,7.12502,20.1854,47.3717,-25.8275,16.3602,16.9453,35.9637,-11.4434,-10.2242,31.7919,2.17502,-5.34567,-22.4218,39.1436,-5.76386,-0.352796,-16.3994
-1.62568,16.3258,-28.1508,1.72374,2.30989,2.11561,13.1549,-0.651236,-7.79516,-4.36457,-2.04968,2.09988,-11.9186,-0.276747,7.22815,-9.42097,-5.64488,-3.19891,18.2878,-7.83745,3.04032,7.41247,-3.71051,0.786909,3.04389e-15,-1.98785e-15,-43.9017,-6.25312,-80.8837,21.7946,13.6925,-11.3699,21.2189,7.12502,14.6642,-8.24259,3.04389e-15,-1.98785e-15,-36.3478,7.72955,84.1468,22.7846,-2.59667,-5.89181,18.5193,7.12502,19.9364,47.5167,-25.5465,16.6705,17.3297,35.8022,-11.2997,-10.0085,31.9895,1.06643,-4.14228,-21.9293,41.2794,-4.33569,-0.828179,-15.4589
-1.66775,16.3334,-28.0406,1.22726,3.5792,1.98458,13.6999,-1.00951,-7.75309,-4.37768,-2.55533,2.22004,-12.1634,-0.497584,7.4819,-9.43208,-5.63236,-3.40532,18.6474,-7.79745,3.02247,7.53877,-3.70332,0.813511,-9.25591e-15,-2.54444e-14,-44.0884,-5.85444,-80.868,22.1548,13.6571,-11.4629,21.6751,7.12502,14.5745,-7.79282,-9.25591e-15,-2.54444e-14,-36.5744,7.9899,84.1287,23.0597,-1.92094,-5.65352,19.7073,7.12502,20.1654,48.6807,-24.0886,16.486,17.9676,35.6305,-12.4188,-10.6328,33.5494,0.249944,-4.60299,-21.2716,43.432,-2.13458,-1.39258,-14.1409
-1.69915,16.3348,-27.9764,1.64285,2.29373,1.79003,13.6406,-0.487104,-7.72954,-4.65649,-1.85104,2.2268,-12.5848,-0.132179,7.32587,-9.36591,-5.70949,-3.39815,18.7666,-7.91622,3.04096,7.57077,-3.75758,0.807061,-6.4605e-16,-2.06736e-14,-44.0549,-5.95666,-80.8902,22.305,13.6405,-11.5735,21.3524,7.12502,14.468,-8.12322,-6.4605e-16,-2.06736e-14,-36.667,8.03777,83.9602,23.2142,-1.59902,-5.36837,19.592,7.12502,20.4394,48.5363,-24.5164,16.7674,18.2525,35.4634,-11.767,-9.94673,32.758,-1.60158,-2.93192,-20.7261,45.7285,0.631011,-1.37947,-10.1316
-1.74374,16.3481,-27.8732,1.63557,2.80426,1.74743,13.4588,-0.580307,-7.77402,-4.61079,-1.97195,2.20066,-12.3988,-0.199781,7.33828,-9.36306,-5.73972,-3.35712,18.6908,-7.98341,3.15193,7.55072,-3.77746,0.830663,-7.55382e-15,4.37326e-15,-43.6824,-5.9524,-81.1148,22.4798,13.1832,-11.6128,20.7432,7.12502,14.4301,-8.7351,-7.55382e-15,4.37326e-15,-36.5796,8.17647,83.761,23.3473,-1.6049,-5.17896,19.4495,7.12502,20.6215,48.3741,-23.769,16.7444,18.6421,35.2407,-12.4232,-10.2224,32.979,-2.9775,-2.87558,-20.2252,47.9633,3.11604,-1.54074,-6.19288
-1.76803,16.3594,-27.7878,1.62638,2.81767,1.48885,13.3559,-0.562866,-7.46768,-4.58286,-1.87557,2.25812,-12.3248,-0.181097,7.19864,-9.41354,-5.70654,-3.44209,18.6658,-7.94469,3.27584,7.55899,-3.75294,0.886992,-4.82053e-15,1.90833e-14,-43.2187,-5.69825,-81.3244,22.5936,12.5571,-11.5473,20.5226,7.12502,14.4932,-8.95122,-4.82053e-15,1.90833e-14,-36.4656,8.14294,83.8179,23.4628,-1.3475,-5.24114,19.971,7.12502,20.5617,48.9021,-23.2631,16.5613,19.1649,34.9707,-12.4027,-10.1589,32.5654,-4.46595,-2.54446,-19.6977,50.3,4.66086,-1.56286,-6.96689
-1.79905,16.3654,-27.7081,1.60611,2.64835,1.26827,13.5314,-0.463192,-7.4657,-4.77496,-1.74181,2.41437,-12.6755,-0.0830991,7.36103,-8.88653,-5.68646,-3.75938,18.6745,-7.90607,3.4053,7.48529,-3.75308,0.99967,-5.81445e-15,1.15295e-14,-43.368,-5.23668,-81.333,22.9719,12.2571,-11.2115,20.2589,7.12502,14.8167,-9.19136,-5.81445e-15,1.15295e-14,-36.8566,8.32461,83.8126,23.5454,-1.32192,-5.65627,19.658,7.12502,20.1628,48.6316,-22.7668,16.7282,19.6409,34.6216,-12.4093,-10.2319,32.3426,-5.95044,-1.96841,-19.1584,52.5696,5.83319,-1.80308,-10.6442
-1.8323,16.3737,-27.633,1.56384,2.55528,1.04332,13.7132,-0.429334,-7.35209,-4.86695,-1.68127,2.49411,-12.9042,-0.0431411,7.38501,-8.40335,-5.69219,-3.95231,18.4299,-7.91524,3.54602,7.33367,-3.76849,1.09255,-7.85199e-15,5.96354e-15,-43.2969,-4.8297,-81.5037,23.2761,11.8735,-11.1287,20.2256,7.12502,14.8965,-9.21877,-7.85199e-15,5.96354e-15,-37.0366,9.0353,83.396,23.4947,-1.92576,-5.54126,18.8338,7.12502,20.2733,47.7957,-22.1737,16.8667,20.1449,34.1877,-12.4201,-10.378,32.0398,-7.47729,-1.4629,-18.608,54.7726,8.11915,-1.86903,-11.8202
-1.8588,16.3892,-27.5561,1.58578,2.41251,0.866707,13.5291,-0.384937,-7.08467,-4.73829,-1.55801,2.45559,-12.6679,-0.0271293,7.14376,-8.3457,-5.71305,-3.83623,18.0655,-7.95062,3.56729,7.20223,-3.78005,1.08309,-6.53505e-15,5.1684e-15,-42.6329,-4.87428,-81.6705,23.2906,11.6463,-11.2177,20.2091,7.12502,14.8108,-9.24165,-6.53505e-15,5.1684e-15,-36.6504,9.12809,83.2321,23.3747,-2.07643,-5.45095,18.5202,7.12502,20.3601,47.4729,-21.6689,16.8172,20.5501,33.7687,-12.3384,-10.2499,31.806,-9.07316,-1.06744,-18.2148,56.8904,10.8209,-1.48505,-9.58449
-1.9067,16.4059,-27.4502,1.42138,2.97787,0.73152,13.2612,-0.506119,-7.15351,-4.55677,-1.7079,2.47596,-12.2665,-0.119579,7.2205,-8.23129,-5.75118,-3.66406,17.8395,-8.00868,3.49609,7.10066,-3.80647,1.0333,-4.25523e-14,1.39149e-14,-42.1282,-5.18803,-81.6388,23.2774,11.9053,-11.3013,20.1009,7.12502,14.7302,-9.35579,-4.25523e-14,1.39149e-14,-36.4534,8.50438,83.4708,23.5354,-1.53495,-5.72144,18.7958,7.12502,20.1001,47.7761,-20.6423,17.0051,21.127,33.3764,-12.9233,-10.9564,31.9436,-10.3458,-1.2179,-17.6898,58.8293,13.7075,-1.07955,-5.34989
-1.92801,16.411,-27.3743,1.49753,2.68988,0.657186,13.1646,-0.290885,-7.0254,-4.55702,-1.39774,2.38363,-12.2673,0.0121549,6.96791,-8.19254,-5.89141,-3.6329,17.9424,-8.22452,3.56157,7.13713,-3.90165,1.02904,-1.61513e-15,7.15625e-15,-41.8554,-5.39095,-81.6001,23.3988,12.027,-11.4586,20.0835,7.12502,14.5787,-9.38416,-1.61513e-15,7.15625e-15,-36.2678,8.02046,83.6215,23.7599,-1.14367,-5.6811,19.9075,7.12502,20.1389,48.8836,-20.2835,17.0181,21.378,33.0555,-12.8654,-10.7543,31.9573,-11.9714,-0.661634,-17.4825,60.7847,16.4248,-0.00321085,0.43556
-1.95372,16.4149,-27.2993,1.59239,2.3393,0.573588,13.0963,-0.0440964,-6.93376,-4.50112,-1.05261,2.29018,-12.2236,0.159328,6.72675,-8.68793,-6.06205,-3.66983,18.2751,-8.49453,3.76486,7.35465,-4.00336,1.05428,-5.00689e-15,-5.56597e-15,-41.1785,-5.35988,-81.7585,23.1238,11.7924,-11.6959,20.245,7.12502,14.35,-9.23908,-5.00689e-15,-5.56597e-15,-35.9103,7.78439,83.6159,23.6806,-1.25284,-5.74061,20.1268,7.12502,20.0817,49.1089,-20.0007,17.2653,21.6458,32.8249,-12.8715,-10.7578,31.7677,-13.5761,-0.0684334,-17.2636,62.6347,18.326,1.1606,5.10144
-1.98335,16.4149,-27.2255,1.73021,1.55,0.393051,13.0686,0.299955,-6.96227,-4.47742,-0.587113,2.32607,-12.2605,0.384913,6.67582,-9.41638,-6.13146,-3.72578,18.6237,-8.60214,3.88959,7.61134,-4.03001,1.06474,-9.69075e-15,1.59028e-15,-40.0082,-5.4447,-81.8356,22.1177,11.7024,-12.1607,20.8444,7.12502,13.9021,-8.6709,-9.69075e-15,1.59028e-15,-35.7664,8.01932,83.3728,23.3777,-1.5715,-6.04307,18.2728,7.12502,19.791,47.2852,-19.8735,17.7526,21.9936,32.6575,-12.7519,-10.5505,31.6338,-14.9534,0.908496,-16.9205,64.404,19.5807,2.54587,10.5176
-2.01002,16.4115,-27.1471,1.65699,1.41007,0.265615,13.194,0.415628,-6.9892,-4.50089,-0.44009,2.37068,-12.3896,0.466165,6.71219,-9.50413,-6.12899,-3.7471,18.7316,-8.61108,3.95405,7.66687,-4.02682,1.08398,-6.21202e-16,-7.95139e-16,-39.5558,-5.72246,-81.6597,21.949,11.9605,-12.1675,21.3907,7.12502,13.8956,-8.12508,-6.21202e-16,-7.95139e-16,-35.8857,8.42278,83.0353,23.2292,-1.73029,-5.93724,17.1296,7.12502,19.8927,46.1315,-19.3733,17.9967,22.3759,32.506,-13.0244,-10.5805,32.1178,-16.0571,1.30807,-16.6256,66.0524,20.2593,4.23839,16.6791
-2.02844,16.4126,-27.0567,1.29416,2.05265,0.225456,13.3972,0.280233,-6.90014,-4.43648,-0.618814,2.3716,-12.4057,0.373615,6.7078,-9.08507,-6.13068,-3.80635,18.5388,-8.6158,4.00683,7.53394,-4.03837,1.12595,6.07536e-15,5.1684e-15,-39.7689,-5.65451,-81.5756,22.8246,11.8228,-11.857,21.1421,7.12502,14.1948,-8.35293,6.07536e-15,5.1684e-15,-36.0203,8.23738,83.1895,23.5425,-1.62745,-5.76416,18.0715,7.12502,20.0591,47.0561,-18.3682,17.9402,22.7738,32.3337,-13.6313,-11.0002,32.423,-17.0016,0.930531,-16.5155,67.6242,20.0997,5.68229,21.5026
-2.04314,16.4132,-26.9633,0.892337,3.36071,0.320705,13.631,-0.119058,-6.78874,-4.30669,-1.15218,2.34716,-12.3041,0.10266,6.74428,-8.8056,-6.1358,-4.00204,18.3517,-8.61218,4.1239,7.43702,-4.04688,1.20659,1.53685e-14,3.97569e-16,-39.6427,-5.33194,-81.6438,23.4615,11.5229,-11.8876,20.7856,7.12502,14.1653,-8.71142,1.53685e-14,3.97569e-16,-36.0902,7.9369,83.5072,23.8243,-1.34143,-6.0379,19.0606,7.12502,19.7959,48.0725,-17.156,17.6109,23.0668,32.13,-14.5731,-11.7487,32.9282,-18.0081,-0.141291,-16.6549,69.1388,18.7788,6.26964,22.8303
-2.06434,16.4151,-26.8778,0.594378,5.20882,0.39958,13.8963,-0.695798,-6.64395,-4.191,-1.91941,2.32441,-12.2007,-0.280956,6.81983,-8.19217,-6.1639,-4.27273,17.8215,-8.64716,4.36943,7.18052,-4.07798,1.35111,-1.14301e-14,6.36111e-15,-38.9292,-5.42952,-81.616,23.2676,11.6426,-11.9924,20.6483,7.12502,14.0643,-8.85578,-1.14301e-14,6.36111e-15,-36.0243,8.33798,83.2967,23.8026,-0.698091,-5.68723,19.3806,7.12502,20.133,48.3574,-15.9246,17.0272,23.3923,31.8528,-15.8716,-12.5558,34.4063,-19.4122,-1.63334,-16.7712,70.6328,16.8735,5.21308,17.6818
-2.08292,16.4226,-26.7822,0.280673,6.96379,0.396363,14.3437,-1.22895,-6.48012,-4.22712,-2.63441,2.33857,-12.3937,-0.618422,6.9333,-6.95319,-6.27111,-4.57457,17.1968,-8.79165,4.52906,6.78869,-4.18378,1.48447,2.40157e-14,-2.0276e-14,-38.5305,-5.69037,-81.4256,23.0448,11.7969,-11.8416,20.3382,7.12502,14.2097,-9.15579,2.40157e-14,-2.0276e-14,-36.3253,8.68879,83.1055,23.6304,-0.617671,-5.91542,18.4626,7.12502,19.9137,47.4624,-14.672,16.4869,23.8122,31.5335,-17.1032,-13.2796,35.5785,-20.8433,-3.05948,-16.8699,71.9815,15.2239,3.5098,10.8614
-2.09662,16.4284,-26.6819,-0.0189091,8.29124,0.25775,14.7266,-1.61292,-6.15375,-4.2167,-3.11054,2.33886,-12.5444,-0.859603,6.88175,-7.26328,-6.30906,-4.4232,17.0364,-8.83322,4.46289,6.78362,-4.19562,1.42694,2.23136e-14,7.95139e-16,-38.2703,-5.69472,-81.397,23.1538,11.6311,-11.5669,20.3023,7.12502,14.4743,-9.17291,2.23136e-14,7.95139e-16,-36.4815,8.70044,83.1327,23.9085,-0.846745,-5.88432,18.8894,7.12502,19.9436,47.8861,-13.5952,16.1987,24.337,31.2118,-18.1247,-14.0153,36.0775,-22.0556,-4.18833,-16.881,73.1618,13.3879,2.51748,8.90777
-2.11054,16.4237,-26.5905,-0.174051,9.18699,0.167317,14.7127,-1.85329,-5.98373,-4.13348,-3.3953,2.3535,-12.3998,-1.01683,6.86158,-7.67476,-6.34813,-4.45458,17.4079,-8.87715,4.40899,6.97662,-4.21092,1.39261,-1.28216e-14,-2.22639e-14,-37.9118,-5.66543,-81.3361,23.22,11.6806,-11.6338,20.3623,7.12502,14.4099,-9.1175,-1.28216e-14,-2.22639e-14,-36.4576,8.56308,83.2888,23.9575,-1.00383,-5.57387,19.5171,7.12502,20.242,48.4824,-12.7986,16.0534,24.7617,30.9675,-18.8573,-14.5828,36.3637,-23.2566,-4.94705,-16.9284,74.1408,11.1447,2.00008,7.31091
-2.1208,16.4155,-26.5085,-0.254378,9.43897,0.23138,14.6551,-1.90874,-6.05997,-4.17448,-3.48324,2.34984,-12.395,-1.05191,6.91958,-7.4649,-6.29497,-4.65007,17.7405,-8.80911,4.45389,7.05496,-4.18724,1.44789,4.8988e-14,-7.15625e-15,-37.7506,-5.46322,-81.3689,23.4373,11.7808,-11.993,20.0768,7.12502,14.0637,-9.42734,4.8988e-14,-7.15625e-15,-36.8397,8.42619,83.3409,23.9049,-0.976838,-5.36345,19.0263,7.12502,20.4442,47.97,-12.1993,15.9584,24.9681,30.8936,-19.3224,-14.7079,36.2338,-24.3154,-5.15122,-17.1775,74.8274,9.08319,2.16434,7.53388
-2.12556,16.4103,-26.441,-0.171901,8.76745,0.400716,14.6533,-1.63665,-6.2047,-4.20725,-3.15287,2.29633,-12.4825,-0.881582,6.86726,-7.41033,-6.30587,-4.77676,17.7402,-8.8208,4.52367,7.05495,-4.19622,1.49113,-4.62174e-15,2.34566e-14,-37.4392,-5.17315,-81.5047,23.9457,11.5865,-12.0444,19.9616,7.12502,14.0142,-9.54593,-4.62174e-15,2.34566e-14,-36.9082,8.19115,83.4879,23.649,-0.754031,-5.93577,17.7542,7.12502,19.8941,46.7559,-12.0948,15.9758,24.8752,31.0074,-19.2572,-14.1934,35.8066,-25.2875,-4.46749,-17.5653,75.2639,6.96234,2.32899,9.68258
-2.1286,16.4069,-26.392,0.188652,6.92756,0.543615,14.5457,-0.942405,-6.37688,-4.20813,-2.25492,2.21748,-12.5643,-0.444679,6.65905,-7.93801,-6.33626,-4.70183,17.7848,-8.85091,4.50409,7.15977,-4.19664,1.45189,-2.08724e-15,-1.59028e-14,-36.9637,-5.14639,-81.5134,24.3604,11.6673,-12.1248,20.3161,7.12502,13.9368,-9.19685,-2.08724e-15,-1.59028e-14,-36.526,7.9627,83.6264,23.3098,-0.546189,-6.34739,16.8785,7.12502,19.4984,45.9208,-12.6885,16.2793,24.5717,31.2047,-18.4033,-13.1708,34.6883,-26.3855,-2.62074,-17.9098,75.5124,5.15015,2.24325,10.0205
-2.13881,16.405,-26.3558,0.89462,3.89169,0.446602,14.1794,0.15425,-6.56818,-4.30779,-0.798038,2.18056,-12.6979,0.263309,6.36453,-8.81822,-6.32474,-4.53093,18.1642,-8.83204,4.42363,7.42675,-4.16181,1.36726,1.59028e-14,-9.14409e-15,-36.2596,-5.43556,-81.5277,24.3503,11.8437,-12.2839,20.4827,7.12502,13.7834,-9.04069,1.59028e-14,-9.14409e-15,-36.3594,7.71232,83.7091,23.5019,-0.209573,-6.24488,17.2344,7.12502,19.5969,46.2667,-13.9422,17.2411,24.3426,31.4064,-16.9561,-11.8048,33.1825,-27.7662,0.393653,-17.9194,75.6635,3.40859,2.06132,8.25718
-2.14252,16.4023,-26.2772,0.920414,4.18195,0.504913,14.2814,0.148578,-6.38165,-4.33846,-0.79268,2.04849,-12.7964,0.249152,6.11067,-9.01364,-6.34129,-4.49314,18.382,-8.87425,4.4698,7.53532,-4.16872,1.36307,1.30328e-14,-4.37326e-15,-35.8935,-5.72453,-81.5994,24.4437,11.8179,-11.8862,19.7205,7.12502,14.1667,-9.77651,1.30328e-14,-4.37326e-15,-36.6874,7.44565,83.7505,23.9262,0.146055,-5.86701,18.2494,7.12502,19.9602,47.2443,-13.642,17.1614,24.4237,31.5231,-17.4842,-11.8065,33.3354,-28.7836,0.059084,-18.1981,75.6114,2.2139,2.02564,6.83704
-2.15733,16.4001,-26.1954,0.97807,4.18805,0.536143,14.1576,0.175649,-6.50649,-4.49398,-0.775743,2.05105,-12.9056,0.276842,6.18173,-8.25831,-6.3297,-4.63438,18.1326,-8.86166,4.52861,7.32809,-4.18465,1.43364,-4.37326e-15,-5.1684e-15,-36.1068,-5.19068,-81.7982,24.9809,11.3593,-10.9835,18.4451,7.12502,15.0363,-10.9889,-4.37326e-15,-5.1684e-15,-37.3179,7.28052,83.8044,24.046,0.399178,-5.90783,18.3814,7.12502,19.921,47.3804,-13.3091,17.2935,24.5806,31.4826,-17.8566,-12.0578,32.9529,-29.6193,0.064699,-18.3507,75.3331,1.28523,1.94663,8.64126
-2.16654,16.3992,-26.1174,1.14802,3.09025,0.436495,13.7181,0.54553,-6.58533,-4.5512,-0.260158,2.08314,-12.7899,0.523343,6.1267,-7.63111,-6.34824,-4.75657,17.7207,-8.87434,4.54872,7.09057,-4.21372,1.48371,-5.42931e-15,-8.34896e-15,-36.1784,-4.77637,-81.9449,25.4633,11.0607,-10.5538,18.3224,7.12502,15.4503,-11.0801,-5.42931e-15,-8.34896e-15,-37.6299,7.42105,83.7489,24.1058,0.204902,-5.68157,18.6012,7.12502,20.1384,47.5774,-13.2117,17.8268,24.7202,31.2738,-17.6039,-11.9613,31.3817,-30.3504,1.13686,-18.3653,74.8324,0.437799,1.87804,11.6993
-2.15302,16.3978,-25.9984,0.926124,3.11715,0.460836,13.2808,0.583406,-6.18847,-4.29486,-0.121302,1.91419,-12.2437,0.516817,5.65995,-7.61766,-6.48707,-4.72617,17.6296,-9.07039,4.57711,7.0686,-4.30442,1.4707,-2.16178e-15,5.76476e-15,-35.7781,-5.17109,-81.923,25.5098,11.2952,-10.7096,19.2085,7.12502,15.3002,-10.2055,-2.16178e-15,5.76476e-15,-37.4386,7.08804,83.8691,24.3372,0.265441,-5.27475,19.9396,7.12502,20.5294,48.8742,-12.287,17.9614,24.9291,31.0396,-18.0427,-12.21,30.7853,-30.5995,0.996395,-18.6699,74.0389,-0.354954,1.79799,10.8854
-2.13459,16.4034,-25.877,0.698709,2.81655,0.594657,12.9929,0.714876,-6.027,-4.15172,0.0937047,1.80949,-11.9343,0.584394,5.39249,-7.23828,-6.63615,-4.86011,17.6704,-9.27608,4.59111,7.03267,-4.41723,1.48973,6.68413e-15,-6.16232e-15,-35.4175,-5.32045,-81.9011,25.4344,11.4291,-10.7417,19.5005,7.12502,15.2693,-9.91587,6.68413e-15,-6.16232e-15,-37.5852,6.45772,84.2653,24.7006,0.999472,-5.27204,20.2839,7.12502,20.532,49.2182,-11.413,18.0837,24.9664,30.8883,-18.3159,-12.1112,30.4626,-30.6046,1.04149,-19.1234,73.0617,-1.59415,1.71254,8.56641
-2.14181,16.3929,-25.7946,0.600482,4.10015,0.712584,13.3337,0.343508,-6.02632,-4.19107,-0.428396,1.80553,-12.1084,0.34519,5.51607,-7.667,-6.66295,-4.81785,17.7962,-9.29141,4.49659,7.14324,-4.41992,1.43466,-1.49337e-14,1.74931e-14,-35.1836,-5.14689,-81.9624,25.6441,11.3371,-10.6151,19.6434,7.12502,15.3912,-9.76371,-1.49337e-14,1.74931e-14,-38.0157,6.21722,84.54,25.3341,1.83818,-4.82026,20.9693,7.12502,20.9661,49.8561,-10.6563,17.6184,25.1628,30.7707,-19.1791,-12.7137,30.7659,-31.3435,-0.396931,-19.3852,72.2104,-2.52719,1.63498,8.08864
-2.16484,16.3762,-25.7578,0.861934,4.55363,0.63806,13.8379,0.294757,-6.10937,-4.31813,-0.53752,1.857,-12.5435,0.324788,5.66279,-8.07596,-6.68571,-4.69013,17.8008,-9.30557,4.3918,7.20635,-4.41905,1.36495,-4.88265e-15,7.95139e-16,-34.828,-4.79639,-82.2069,26.0613,10.8424,-10.7365,19.9307,7.12502,15.2743,-9.48535,-4.88265e-15,7.95139e-16,-38.0579,6.46473,84.4487,24.8502,1.46648,-5.21827,19.486,7.12502,20.5837,48.4147,-10.6926,17.3761,25.3339,30.6526,-19.4198,-12.8699,30.6116,-32.7161,-0.837089,-19.3203,71.4401,-1.79973,1.76995,13.2316
-2.17547,16.3681,-25.6835,0.861488,4.76031,0.503067,14.0554,0.286337,-6.02408,-4.36456,-0.540011,1.91533,-12.7277,0.329164,5.68695,-8.03702,-6.61881,-4.70925,17.6718,-9.20497,4.39528,7.15371,-4.37386,1.38187,1.08462e-14,1.78906e-14,-34.7036,-4.37878,-82.4027,26.5309,10.2382,-10.843,19.7082,7.12502,15.1717,-9.71565,1.08462e-14,1.78906e-14,-38.2205,6.65634,84.4182,24.5864,1.05161,-5.59476,18.9578,7.12502,20.2219,47.9252,-10.2453,17.3108,25.6495,30.4525,-19.695,-12.8982,30.8516,-33.452,-1.11248,-19.2567,70.4431,-3.85691,1.45227,6.32806
-2.17159,16.3771,-25.5919,0.896168,4.50524,0.43722,13.9325,0.410705,-5.82787,-4.354,-0.331625,1.87825,-12.6701,0.406564,5.47838,-8.12368,-6.6605,-4.71611,17.7009,-9.24934,4.34341,7.17854,-4.3978,1.35864,-1.00138e-14,-1.19271e-15,-34.5127,-4.3154,-82.4538,26.7856,10.1004,-10.458,19.1254,7.12502,15.5426,-10.27,-1.00138e-14,-1.19271e-15,-38.4042,6.63349,84.3948,24.5384,0.688479,-5.50008,18.7096,7.12502,20.3129,47.6673,-9.74303,17.317,25.8007,30.1153,-19.6787,-12.8467,30.436,-33.8427,-1.10639,-19.3253,69.1023,-5.00994,1.51927,4.37035
-2.1646,16.3847,-25.4963,1.0023,3.87465,0.255929,13.5409,0.660985,-5.59328,-4.24542,0.0729268,1.86745,-12.3622,0.562987,5.22394,-8.23715,-6.81228,-4.64513,17.5102,-9.44415,4.28863,7.14007,-4.49107,1.30918,-3.10601e-16,1.03368e-14,-33.8865,-4.75344,-82.381,26.5486,10.3908,-10.2414,18.8703,7.12502,15.7512,-10.5087,-3.10601e-16,1.03368e-14,-38.321,6.78186,84.2937,24.3834,0.245971,-5.1581,19.1202,7.12502,20.6415,48.0426,-9.26711,17.5444,26.019,29.6253,-19.5924,-12.5113,30.2996,-34.1204,-0.753099,-19.2464,67.5546,-5.8127,1.62259,4.26895
-2.15675,16.3885,-25.3907,1.08121,3.32666,0.155747,13.2121,0.883432,-5.54524,-4.28139,0.402973,1.90003,-12.2505,0.713525,5.15017,-8.04327,-6.86123,-4.68106,17.394,-9.5125,4.31529,7.07475,-4.52887,1.32528,9.54166e-15,5.1684e-15,-33.7267,-4.7853,-82.3106,26.5378,10.3317,-9.78872,19.2136,7.12502,16.1871,-10.1306,9.54166e-15,5.1684e-15,-38.5788,6.89173,84.2789,24.163,-0.189956,-5.00905,19.0075,7.12502,20.7847,47.9143,-8.66111,17.7856,26.1796,29.036,-19.5524,-12.2183,30.2041,-34.2655,-0.580057,-19.2467,65.8342,-6.56099,1.86342,4.21327
-2.149,16.3865,-25.288,1.05542,3.7712,0.252961,13.2381,0.832605,-5.50443,-4.31685,0.333131,1.84089,-12.2956,0.676788,5.0781,-8.17146,-6.93877,-4.62608,17.6005,-9.61664,4.2256,7.16206,-4.5777,1.27041,9.97651e-15,-6.95746e-15,-34.015,-4.19162,-82.5001,27.3521,9.57068,-9.52876,19.5698,7.12502,16.4374,-9.75382,9.97651e-15,-6.95746e-15,-38.8012,6.53887,84.4838,24.04,-0.194208,-5.17327,18.5403,7.12502,20.6269,47.4643,-7.81567,17.6492,26.2622,28.4855,-19.9204,-12.4294,30.4272,-34.4353,-1.35055,-19.4524,63.9995,-7.55117,1.94907,3.7034
-2.14751,16.3849,-25.1876,0.789774,4.97305,0.329347,13.5368,0.517784,-5.34902,-4.19118,-0.0854442,1.76527,-12.2714,0.459278,5.00652,-8.47514,-7.04447,-4.59563,17.7793,-9.76567,4.23004,7.27965,-4.63848,1.23844,3.03147e-15,1.45113e-14,-33.9936,-3.43782,-82.9313,28.2267,8.55426,-9.3441,18.7831,7.12502,16.6152,-10.5256,3.03147e-15,1.45113e-14,-38.8436,5.88009,84.8494,24.2157,0.56094,-5.38942,18.7791,7.12502,20.4192,47.7255,-6.57669,17.2807,26.5818,27.9512,-20.7219,-12.9543,31.3389,-34.4257,-2.79017,-19.5812,62.0308,-8.49118,1.80938,1.74885
-2.15334,16.3949,-25.1145,1.0741,4.27971,0.208252,13.471,0.779751,-5.38039,-4.33846,0.266861,1.79916,-12.449,0.639562,4.97954,-8.25791,-7.0827,-4.7678,17.6114,-9.82562,4.41124,7.20795,-4.66921,1.32784,1.54679e-14,2.5842e-15,-34.0759,-3.12414,-83.088,28.6393,8.29435,-9.03945,18.3058,7.12502,16.9085,-10.9781,1.54679e-14,2.5842e-15,-39.1187,5.69621,84.9798,24.2832,1.1605,-5.57095,19.0499,7.12502,20.2448,48.0149,-6.39398,17.3562,26.6287,27.4055,-20.2655,-12.3257,31.5196,-34.7993,-2.53953,-19.3933,59.9717,-8.4413,2.07469,0.9443
-2.15734,16.3976,-25.0325,1.2874,4.14581,0.154705,13.3433,0.822965,-5.43803,-4.43274,0.32557,1.84661,-12.4904,0.678122,5.0513,-7.97297,-7.03883,-4.81956,17.3299,-9.75711,4.43322,7.06683,-4.64685,1.36428,-1.26601e-14,1.23246e-14,-34.3537,-2.41791,-83.308,29.1539,7.82969,-9.12211,18.5447,7.12502,16.8289,-10.746,-1.26601e-14,1.23246e-14,-39.3596,6.23362,84.7439,24.0976,0.80821,-5.35631,19.1369,7.12502,20.451,48.0799,-5.96906,17.3476,26.7327,26.7807,-20.0625,-12.2482,31.4574,-35.0945,-2.89681,-19.2446,57.848,-7.66706,2.57795,3.78794
-2.15083,16.4017,-24.9418,1.37885,4.1716,0.101004,13.1793,0.809776,-5.38476,-4.4114,0.330336,1.87767,-12.3665,0.672888,5.05196,-7.87171,-6.99855,-4.78426,17.2387,-9.69184,4.36053,7.01076,-4.62221,1.34702,-7.50412e-15,7.95139e-15,-34.4094,-1.45563,-83.6447,29.7328,7.07154,-9.04059,18.2578,7.12502,16.9074,-11.0263,-7.50412e-15,7.95139e-15,-39.5345,6.64871,84.5846,23.8723,0.19805,-5.13127,18.9811,7.12502,20.6673,47.9007,-5.33086,17.2973,26.8728,26.1284,-20.0768,-12.3461,31.0064,-35.155,-3.55572,-19.0874,55.6597,-7.30024,3.01493,5.75184
-2.14453,16.4072,-24.8466,1.4299,4.12545,0.0476877,13.1698,0.881512,-5.35018,-4.44692,0.434208,1.88462,-12.4151,0.722123,5.01568,-8.0793,-7.03197,-4.8412,17.5245,-9.74315,4.39722,7.14721,-4.63983,1.35101,4.27387e-15,-9.93923e-15,-34.2814,-1.03096,-83.8155,29.9124,6.63607,-8.79163,17.9201,7.12502,17.147,-11.3433,4.27387e-15,-9.93923e-15,-39.6902,6.90505,84.4799,23.6489,-0.168379,-5.14141,19.0383,7.12502,20.6575,47.959,-4.55432,17.3773,27.0422,25.3628,-20.1314,-12.3801,30.8389,-35.0767,-4.30141,-18.8582,53.4239,-7.29234,3.33834,6.75814
-2.14552,16.4115,-24.7495,1.45651,4.34956,0.00876888,13.3393,0.924041,-5.34061,-4.47732,0.480641,1.85638,-12.5583,0.747439,4.96977,-8.49522,-7.10366,-4.81247,17.6878,-9.85454,4.48029,7.28211,-4.67395,1.34404,6.89534e-15,-3.97569e-16,-34.0644,-0.959758,-83.997,29.9422,6.46439,-8.85508,17.6682,7.12502,17.0859,-11.6005,6.89534e-15,-3.97569e-16,-39.7036,7.18054,84.302,23.3586,-0.513861,-5.1337,18.7766,7.12502,20.6649,47.6965,-3.65671,17.3443,27.276,24.4998,-20.2638,-12.5549,30.5824,-35.0077,-5.20499,-18.5772,51.1226,-7.20388,3.4699,6.72705
-2.13624,16.4161,-24.6523,1.50233,4.6989,-0.0773246,13.4055,0.828358,-5.06721,-4.57908,0.392816,1.81646,-12.6976,0.689028,4.79194,-8.22906,-7.11345,-4.71283,17.5126,-9.86833,4.39778,7.16932,-4.68863,1.31318,-8.94531e-15,-7.95139e-16,-34.0406,-0.631749,-84.2977,29.976,6.38713,-9.07109,17.3444,7.12502,16.878,-11.9422,-8.94531e-15,-7.95139e-16,-39.9791,7.47856,84.0857,23.0952,-0.828415,-4.98243,18.8014,7.12502,20.8103,47.7054,-2.73051,17.1235,27.4887,23.5173,-20.3534,-12.5848,31.0486,-34.9513,-6.37758,-18.2298,48.8007,-7.14661,3.70079,7.9734
-2.12031,16.4234,-24.5545,1.64452,4.63249,-0.0911992,13.0223,0.806188,-4.84266,-4.61134,0.412702,1.73376,-12.4986,0.670134,4.56273,-7.78902,-7.14301,-4.649,17.4134,-9.91448,4.31615,7.05435,-4.72333,1.29094,2.02139e-14,-6.36111e-15,-34.1041,-0.070943,-84.6562,30.0758,6.33585,-9.50495,17.7415,7.12502,16.4603,-11.5802,2.02139e-14,-6.36111e-15,-40.1051,7.71282,83.8955,22.8155,-1.0815,-4.67028,19.7065,7.12502,21.1102,48.5774,-1.89156,17.0618,27.5103,22.4176,-20.0528,-12.7236,30.5149,-34.859,-7.43383,-17.9228,46.4563,-7.29114,4.24119,7.96084
-2.11128,16.4419,-24.4578,2.01643,4.0869,-0.274217,12.5638,0.997877,-4.7164,-4.61182,0.717277,1.7507,-12.2556,0.797514,4.43466,-8.22892,-7.20107,-4.64916,17.6404,-10.0018,4.37834,7.21304,-4.74833,1.28198,-2.98177e-16,-3.18055e-15,-34.0769,0.425323,-84.8999,30.4583,5.83796,-9.65324,17.7386,7.12502,16.3175,-11.5949,-2.98177e-16,-3.18055e-15,-39.9899,7.88602,83.7871,22.373,-1.34607,-4.86919,19.1434,7.12502,20.9191,48.0354,-1.32681,17.2218,27.5926,21.2378,-19.5145,-12.5289,30.194,-35.019,-8.00817,-17.3198,44.1737,-7.32552,4.80201,5.77264
-2.11063,16.4408,-24.35,1.76308,5.0449,-0.238123,13.2318,0.770191,-4.84874,-4.65739,0.364821,1.83659,-12.6748,0.660293,4.69532,-8.71005,-7.27476,-4.74531,17.9115,-10.0762,4.32936,7.39267,-4.78124,1.25135,1.41758e-14,2.18663e-15,-34.0733,0.770083,-84.9022,30.6723,5.3942,-9.05065,17.2497,7.12502,16.8977,-12.0351,1.41758e-14,2.18663e-15,-40.2723,8.15904,83.7451,21.9206,-1.39411,-5.5143,17.3638,7.12502,20.2992,46.323,0.241062,16.995,27.9914,20.0187,-19.8844,-13.1671,30.6181,-34.7031,-9.68776,-16.985,41.9323,-7.1034,4.99461,3.45926
-2.10992,16.4424,-24.2593,1.84063,5.44254,-0.254907,13.4949,0.688318,-4.92563,-4.81047,0.232656,1.8933,-12.9981,0.621878,4.84078,-8.67893,-7.34201,-4.82904,17.969,-10.1489,4.26978,7.41093,-4.82649,1.23829,-3.10601e-16,-1.15295e-14,-33.9038,1.16728,-84.9974,30.5108,5.13954,-9.08353,17.6737,7.12502,16.866,-11.6139,-3.10601e-16,-1.15295e-14,-40.5274,8.43087,83.6155,21.5766,-1.52137,-5.61101,16.4756,7.12502,20.2063,45.4447,1.29481,16.7038,28.1626,18.7057,-19.6493,-13.4787,29.8295,-34.7529,-11.0425,-16.4523,39.7657,-6.95276,5.3503,1.75328
-2.10416,16.4557,-24.1779,2.16365,5.21397,-0.344256,13.2257,0.782488,-4.8644,-4.82885,0.381138,1.87056,-12.8727,0.681516,4.74086,-8.66984,-7.32851,-4.70299,17.7526,-10.1467,4.31477,7.33413,-4.81621,1.23674,-1.04735e-14,-2.08724e-14,-33.6286,1.36008,-85.1677,30.4022,5.10386,-9.82715,19.1819,7.12502,16.1501,-10.1653,-1.04735e-14,-2.08724e-14,-40.4685,8.83002,83.3156,21.3425,-2.17556,-5.22364,16.7906,7.12502,20.5785,45.7198,2.00743,16.6322,28.1553,17.253,-19.1889,-13.2647,29.5831,-34.9971,-12.1149,-15.6885,37.6571,-6.95385,5.97975,1.31409
-2.09175,16.4627,-24.0766,2.29363,5.50293,-0.391325,13.0692,0.711246,-4.8097,-4.84663,0.303197,1.87844,-12.7871,0.638399,4.73545,-8.54679,-7.33024,-4.4515,17.4923,-10.141,4.11853,7.20325,-4.81991,1.14432,-1.68718e-14,1.61016e-14,-33.6871,1.57115,-85.2754,30.2497,5.60438,-10.7994,20.359,7.12502,15.2138,-9.06158,-1.68718e-14,1.61016e-14,-40.5897,9.13758,83.1522,21.1298,-2.6432,-4.86827,17.5402,7.12502,20.92,46.4321,3.09314,16.4358,28.2917,15.8075,-18.8999,-13.5158,29.0951,-35.0698,-13.9514,-14.9014,35.6579,-7.1795,6.93514,0.127264
-2.08013,16.4552,-23.9481,2.01073,6.76778,-0.344882,13.1133,0.293766,-4.7803,-4.8045,-0.253665,1.90217,-12.6949,0.371048,4.87753,-8.2216,-7.35104,-4.46406,17.3168,-10.1627,4.07792,7.08859,-4.84315,1.14685,5.76476e-15,9.54166e-15,-34.0113,1.99156,-85.446,29.764,6.80355,-12.3038,21.0887,7.12502,13.7642,-8.43596,5.76476e-15,9.54166e-15,-40.9398,9.13388,83.1806,21.1157,-2.59526,-4.54377,18.4877,7.12502,21.2317,47.3449,4.97947,16.0932,28.7756,14.281,-19.1408,-14.6645,28.0194,-34.8542,-16.6593,-14.2602,33.8224,-7.59386,7.82768,-0.492008
-2.06952,16.4657,-23.8595,2.33244,5.99801,-0.564615,12.8834,0.568682,-4.73502,-4.94271,0.142005,1.96208,-12.7647,0.562436,4.82355,-8.22427,-7.39885,-4.51131,17.3669,-10.2307,4.11314,7.11293,-4.87508,1.15779,6.59717e-15,-5.96354e-16,-34.0243,2.0864,-85.5537,29.2112,8.23086,-13.978,22.2879,7.12502,12.1503,-7.33924,6.59717e-15,-5.96354e-16,-41.0709,9.28964,83.1072,21.0287,-2.6659,-4.41988,18.8889,7.12502,21.3507,47.7327,5.79864,16.1623,28.7991,12.5632,-18.1736,-14.265,26.8839,-35.1899,-17.9021,-13.032,32.2463,-8.11651,9.53302,-0.213343
-2.05551,16.4711,-23.7678,2.57399,5.46651,-0.659399,12.8674,0.738369,-4.80743,-5.11857,0.367656,2.04878,-12.9907,0.691192,4.91138,-8.25086,-7.34645,-4.70509,17.5463,-10.1473,4.16336,7.18506,-4.84041,1.20835,9.56651e-16,-1.05356e-14,-34.0581,2.42443,-85.6357,29.0406,8.822,-14.4536,22.9058,7.12502,11.6917,-6.74792,9.56651e-16,-1.05356e-14,-41.3537,9.61201,83.021,20.901,-2.85667,-4.46712,18.951,7.12502,21.3053,47.7999,6.84997,16.1131,28.7515,10.7129,-17.2573,-13.9511,25.5644,-35.5167,-19.2529,-11.9703,30.9119,-8.48056,11.2751,0.840393
-2.03877,16.4711,-23.6654,2.59397,5.39341,-0.814369,13.0275,0.749907,-4.70175,-5.2395,0.402528,2.11297,-13.233,0.713123,4.91885,-8.32823,-7.25652,-4.78162,17.7563,-10.0217,4.17274,7.26552,-4.78038,1.22966,-5.64051e-15,1.19271e-14,-34.2492,2.93875,-85.7966,29.1747,8.36851,-13.3084,22.3402,7.12502,12.7959,-7.2476,-5.64051e-15,1.19271e-14,-41.6814,9.93553,82.8452,20.6874,-3.08698,-4.55419,18.9974,7.12502,21.2217,47.8557,8.19714,15.9477,28.9413,8.89679,-16.5751,-13.9704,24.5923,-35.7746,-20.8503,-10.9195,29.815,-9.00341,12.8276,2.22507
-2.02551,16.4638,-23.56,2.63872,5.48602,-0.909078,12.901,0.701944,-4.66442,-5.22908,0.354583,2.14888,-13.1369,0.686084,4.94744,-8.34729,-7.21681,-4.80376,17.6955,-9.9686,4.22097,7.25021,-4.7527,1.25397,4.52235e-15,-1.19271e-15,-34.0863,3.26843,-85.9778,29.0125,8.12952,-12.655,21.8562,7.12502,13.4257,-7.69111,4.52235e-15,-1.19271e-15,-41.7736,10.1339,82.7204,20.3467,-3.28517,-4.87888,18.4548,7.12502,20.9098,47.3479,9.79265,15.6101,29.102,6.67271,-15.8041,-14.0141,24.1714,-36.167,-22.3193,-9.96552,28.9523,-9.68377,14.082,3.09859
-2.01233,16.4569,-23.4535,2.73794,5.34769,-0.935014,12.7101,0.727757,-4.73541,-5.26599,0.385028,2.15266,-13.0685,0.705293,4.98304,-8.13421,-7.19456,-4.81913,17.6612,-9.95002,4.26168,7.20347,-4.74592,1.27993,-6.02566e-15,-4.37326e-15,-34.2014,3.86185,-86.2964,29.0986,7.46717,-12.3724,21.3846,7.12502,13.6981,-8.1446,-6.02566e-15,-4.37326e-15,-42.1991,10.1279,82.6522,20.2513,-3.43661,-5.23738,17.9172,7.12502,20.5653,46.8479,12.0067,15.5072,29.1438,3.26535,-14.5426,-14.0305,23.9136,-36.6059,-23.7007,-9.04813,28.3071,-10.5327,15.5161,4.53398
-1.99765,16.4526,-23.3475,2.84474,5.09312,-1.10883,12.6234,0.822413,-4.67495,-5.31018,0.531818,2.18728,-13.0852,0.772755,4.95201,-8.34916,-7.18734,-4.65442,17.7647,-9.9491,4.19089,7.26255,-4.73546,1.22188,6.64686e-15,-1.33186e-14,-34.3328,4.21526,-86.5322,29.1918,6.95721,-12.1466,20.9609,7.12502,13.9157,-8.55342,6.64686e-15,-1.33186e-14,-42.4857,9.97826,82.7268,20.2824,-3.35272,-5.21444,18.2981,7.12502,20.5874,47.2264,14.104,15.5286,29.3175,-3.18055e-14,-13.4006,-13.9941,23.7069,-36.9598,-24.7149,-8.09691,27.7925,-11.2936,16.808,5.24139
-1.97978,16.4492,-23.2391,2.97488,4.84467,-1.07622,12.359,0.93938,-4.75408,-5.21781,0.678528,2.10921,-12.8352,0.833863,4.87096,-8.86471,-7.22168,-4.36268,17.8414,-10.0151,4.12599,7.36287,-4.74267,1.12775,-3.06874e-15,-6.36111e-15,-33.8429,3.7498,-86.4985,28.3505,7.66971,-12.8894,21.1833,7.12502,13.1998,-8.37884,-3.06874e-15,-6.36111e-15,-42.2733,9.86899,82.73,20.198,-3.18148,-4.92527,18.5187,7.12502,20.8652,47.4167,14.4176,15.5389,29.2814,2.8625e-14,-13.6358,-13.7771,23.2727,-37.2756,-25.5383,-7.49674,27.437,-12.2888,17.8426,6.38132
-1.95814,16.438,-23.1253,2.96494,4.81454,-0.874769,12.1141,0.917855,-4.95729,-5.10814,0.615927,2.02664,-12.5542,0.804977,4.90568,-8.83384,-7.21021,-4.4184,17.8896,-10.0151,4.23514,7.38191,-4.73672,1.17184,-5.20567e-15,-2.18663e-15,-33.5661,3.69699,-86.5513,27.5973,8.35783,-13.9465,20.8431,7.12502,12.1807,-8.78227,-5.20567e-15,-2.18663e-15,-42.2184,10.2123,82.448,19.8862,-3.57736,-4.87653,18.0915,7.12502,20.912,46.9843,14.9423,15.3033,29.1015,9.54166e-15,-13.9464,-13.4959,22.7254,-37.4484,-26.2145,-7.35765,27.1958,-12.7587,18.5784,7.07943
-1.93778,16.423,-23.0147,2.86478,4.79347,-0.919797,12.3575,0.919463,-4.92871,-5.18407,0.606883,1.99241,-12.788,0.805777,4.85646,-8.73375,-7.22753,-4.43752,18.0435,-10.0602,4.29393,7.42074,-4.75438,1.19065,2.03754e-15,-3.97569e-16,-33.9298,3.90396,-86.7496,27.6308,8.52154,-13.9454,20.5926,7.12502,12.1818,-9.03271,2.03754e-15,-3.97569e-16,-42.5741,10.2706,82.2246,19.6385,-3.91382,-5.22761,17.425,7.12502,20.5747,46.3546,15.4875,15.0579,29.197,-2.22639e-14,-14.2722,-13.2194,22.5609,-37.4777,-26.4798,-7.19488,27.0366,-12.9625,18.8367,7.13237
-1.91625,16.4107,-22.9067,2.89967,4.67018,-0.967051,12.5894,0.968175,-4.94468,-5.31322,0.654694,1.967,-13.0862,0.84089,4.82972,-8.91806,-7.20461,-4.3012,18.2617,-10.0478,4.24642,7.51445,-4.73697,1.14503,-4.28629e-15,-1.33186e-14,-34.2602,3.9917,-86.916,27.891,8.16333,-12.7058,20.8599,7.12502,13.3767,-8.69064,-4.28629e-15,-1.33186e-14,-43.0227,10.1143,82.1037,19.6447,-3.97967,-5.43345,16.5513,7.12502,20.3769,45.5022,15.8577,14.9365,29.2483,2.54444e-14,-14.4598,-13.0858,21.4465,-37.5296,-26.6934,-6.98352,26.8733,-13.316,18.939,8.30141
-1.89151,16.3963,-22.796,2.93985,4.51712,-1.0318,12.5617,0.992345,-4.95932,-5.40229,0.688351,1.99219,-13.1785,0.864598,4.85932,-8.60616,-7.15707,-4.30339,18.0552,-10.0005,4.34611,7.39469,-4.71524,1.19714,-2.44257e-14,-9.14409e-15,-34.6763,3.64412,-86.8983,28.0918,8.12783,-11.6397,20.2816,7.12502,14.4042,-9.19862,-2.44257e-14,-9.14409e-15,-43.4726,9.91595,82.1412,19.8758,-3.79706,-5.19337,16.5096,7.12502,20.6076,45.4357,16.2339,14.8499,29.2958,0,-14.6614,-12.8587,21.0105,-37.5,-26.744,-6.86457,26.761,-13.7746,18.7462,11.2555
-1.86188,16.3789,-22.686,3.01694,4.29922,-0.957933,12.5474,1.05867,-5.09268,-5.46609,0.754123,1.99291,-13.2571,0.911285,4.92143,-8.5368,-7.19956,-4.23523,17.8704,-10.0452,4.25793,7.31587,-4.74403,1.15911,1.27595e-14,-1.19271e-15,-35.0102,3.03552,-86.6577,27.9165,8.80235,-11.5422,20.3783,7.12502,14.4982,-9.09514,1.27595e-14,-1.19271e-15,-43.6368,10.0661,82.0323,19.8186,-3.95539,-4.71439,17.2266,7.12502,21.0678,46.1021,16.597,14.8305,29.1651,-9.54166e-15,-14.8553,-12.6254,20.6091,-37.3961,-26.5194,-7.09258,26.7236,-13.9979,18.3962,13.7665
-1.82809,16.363,-22.5721,3.11814,4.09731,-0.748503,12.5063,1.1117,-5.31512,-5.47859,0.782983,1.95632,-13.2564,0.942391,5.00053,-8.75364,-7.2327,-4.25881,17.8481,-10.0712,4.21663,7.34725,-4.75772,1.13887,7.71533e-15,6.55989e-15,-34.689,3.11059,-86.5451,27.1532,9.28176,-11.9059,21.3972,7.12502,14.1476,-8.10105,7.71533e-15,6.55989e-15,-43.6764,10.3359,81.9096,19.5593,-4.20796,-4.56463,17.8586,7.12502,21.2117,46.718,16.9881,14.7945,28.8731,2.22639e-14,-15.1105,-12.4047,19.9302,-37.2284,-26.0806,-7.65216,26.7945,-13.855,17.8765,14.9667
-1.7979,16.3424,-22.4587,3.04738,3.77606,-0.846412,12.55,1.14429,-5.29216,-5.51892,0.837229,2.02684,-13.3392,0.973892,5.05449,-8.51495,-7.12586,-4.50675,17.8063,-9.92452,4.3914,7.30687,-4.69414,1.25814,2.07109e-14,-1.07344e-14,-34.3459,3.24655,-86.539,26.1505,10.2079,-12.4646,22.1372,7.12502,13.6092,-7.39794,2.07109e-14,-1.07344e-14,-43.9983,10.6145,81.7745,19.4641,-4.35659,-4.56057,18.1787,7.12502,21.2156,47.0377,17.5064,14.8617,28.9635,-1.27222e-14,-15.2589,-12.1775,19.8553,-36.8018,-25.2519,-8.09403,26.9408,-13.4704,17.0919,15.8368
-1.77179,16.3171,-22.3428,2.93158,3.6583,-0.94239,12.5302,1.13062,-5.28111,-5.46049,0.827188,2.06691,-13.2579,0.966369,5.09477,-8.38617,-7.0776,-4.53664,17.7348,-9.86704,4.45914,7.2631,-4.66645,1.29611,-5.70264e-15,5.56597e-15,-34.4868,3.15741,-86.5966,25.9101,10.4481,-12.9733,22.3918,7.12502,13.1189,-7.17554,-5.70264e-15,5.56597e-15,-44.0961,10.5046,81.8823,19.4186,-4.17757,-4.7541,18.1188,7.12502,21.0297,46.9986,18.1066,14.7168,29.0826,9.54166e-15,-15.3468,-11.9261,19.8326,-36.344,-24.2907,-8.6657,27.2029,-12.5296,15.9438,16.3573
-1.73806,16.295,-22.2263,2.90664,3.5849,-0.925486,12.4796,1.13344,-5.2666,-5.31015,0.836097,2.05486,-13.0516,0.957761,5.06848,-8.91656,-7.12551,-4.49334,17.7491,-9.91905,4.44535,7.36116,-4.67894,1.25931,-1.44119e-14,1.37161e-14,-34.7144,3.04892,-86.5779,26.1059,9.93284,-13.0004,22.6106,7.12502,13.0928,-6.95845,-1.44119e-14,1.37161e-14,-43.811,10.5298,81.9315,19.1661,-4.2605,-4.97084,18.1947,7.12502,20.8214,47.0975,18.6002,14.5445,29.0248,1.90833e-14,-15.2459,-11.8193,18.5113,-36.0157,-23.4989,-9.28729,27.5514,-11.2113,14.7934,17.2437
-1.70065,16.2785,-22.1156,2.91795,3.15095,-1.01093,12.5494,1.24347,-5.19413,-5.29544,0.997797,2.0811,-13.0977,1.03023,5.01804,-9.23522,-7.09685,-4.66559,17.8091,-9.8839,4.65376,7.45557,-4.64797,1.34394,6.26172e-15,1.63003e-14,-34.7498,3.14244,-86.5879,25.8199,9.95542,-12.5722,22.4506,7.12502,13.5055,-7.0915,6.26172e-15,1.63003e-14,-43.7258,10.5329,81.9276,19.0366,-4.44691,-4.80834,18.235,7.12502,20.9776,47.1206,18.9956,14.7454,29.0314,-1.90833e-14,-14.7776,-11.8574,16.7264,-35.692,-22.5975,-9.7202,27.867,-9.67607,14.1394,16.8496
-1.66427,16.2672,-21.9988,2.85371,2.76206,-0.932502,12.6653,1.3773,-5.23143,-5.32057,1.15568,1.99642,-13.2183,1.10704,4.90678,-9.23534,-7.05521,-4.62738,17.8531,-9.84664,4.71089,7.46908,-4.62214,1.3596,6.11263e-15,2.0276e-14,-34.7129,2.91643,-86.5703,25.3867,10.2966,-12.0718,21.9499,7.12502,13.9878,-7.55948,6.11263e-15,2.0276e-14,-43.8303,10.0987,82.1341,19.1396,-4.24301,-4.66778,18.4999,7.12502,21.1126,47.3704,17.2603,14.8894,28.8988,4.07019,-16.1216,-11.6749,15.2942,-35.3189,-22.0534,-10.2195,28.1001,-8.64443,13.9312,18.1337
-1.62544,16.2599,-21.8693,2.68511,2.68715,-0.639088,12.8267,1.41557,-5.41015,-5.2921,1.14831,1.84859,-13.2851,1.11153,4.84456,-9.335,-7.07852,-4.37045,17.8972,-9.88424,4.52329,7.47972,-4.63722,1.25073,1.24116e-14,-9.34288e-15,-34.8491,2.3443,-86.387,25.0698,10.798,-11.9637,21.6856,7.12502,14.092,-7.8166,1.24116e-14,-9.34288e-15,-44.0779,9.79159,82.254,19.3731,-4.06975,-4.60674,19.1877,7.12502,21.1712,48.0517,16.6175,14.7012,28.5353,6.46628,-16.8016,-11.3378,15.0263,-34.954,-22.0276,-10.8725,28.3872,-8.10121,13.8865,21.0641
-1.58705,16.253,-21.7398,2.56265,2.53745,-0.296384,12.8143,1.41854,-5.7451,-5.23368,1.08234,1.76882,-13.2104,1.10082,4.96207,-9.17334,-7.03862,-4.39881,17.8393,-9.83805,4.58,7.43431,-4.61634,1.28499,1.0051e-14,-5.56597e-15,-34.9237,2.23925,-86.3192,24.6559,10.9543,-11.4823,21.0839,7.12502,14.5558,-8.3854,1.0051e-14,-5.56597e-15,-44.3434,9.63678,82.3855,19.417,-3.97531,-4.75414,19.5414,7.12502,21.0296,48.4212,16.1039,14.5941,28.0988,8.51678,-17.2804,-10.967,14.6878,-34.5576,-21.7189,-11.6396,28.7404,-7.72095,13.6815,22.8626
-1.55165,16.2421,-21.6175,2.47399,2.22841,-0.242376,12.7938,1.48009,-5.81491,-5.17628,1.15284,1.75324,-13.1428,1.13515,4.96687,-9.07709,-7.06427,-4.4099,17.7539,-9.8756,4.60696,7.39318,-4.63601,1.29621,6.93883e-15,-4.77083e-15,-34.9248,2.10462,-86.2625,24.2471,11.112,-11.24,20.8499,7.12502,14.7893,-8.60241,6.93883e-15,-4.77083e-15,-44.35,9.57265,82.4022,19.1353,-3.98037,-4.97796,18.9973,7.12502,20.8146,47.9008,15.4392,14.6581,27.9701,10.6705,-17.6523,-10.6722,13.6141,-34.1508,-20.8233,-12.2023,29.1736,-7.35581,13.1205,23.3261
-1.51483,16.2336,-21.4949,2.40886,1.91487,-0.186387,12.8165,1.54852,-5.90072,-5.13953,1.22736,1.74148,-13.1275,1.17524,4.9843,-9.04389,-7.1015,-4.17863,17.4995,-9.90795,4.38169,7.28191,-4.66072,1.18934,-6.79595e-15,-3.18055e-15,-35.106,1.89725,-86.191,24.0047,11.1881,-11.4223,20.8041,7.12502,14.6136,-8.66099,-6.79595e-15,-3.18055e-15,-44.3162,9.3459,82.5454,18.9789,-3.87041,-5.0136,18.463,7.12502,20.7803,47.3703,14.6741,14.5442,27.7773,12.9587,-17.9592,-10.2074,12.2521,-33.7736,-19.8434,-12.7926,29.6814,-7.2052,12.4883,23.6486
-1.4737,16.2265,-21.3734,2.38152,1.54849,0.118751,12.7686,1.59031,-6.31058,-5.19429,1.21322,1.75912,-13.1777,1.20812,5.24234,-8.8441,-6.99154,-4.35224,17.4449,-9.73105,4.37387,7.22915,-4.5928,1.2402,1.74061e-14,1.19271e-15,-35.5232,2.03935,-86.1203,23.9609,10.5977,-11.0404,20.2929,7.12502,14.9815,-9.14522,1.74061e-14,1.19271e-15,-44.6995,9.44268,82.5775,19.0256,-4.20676,-4.79069,18.4771,7.12502,20.9945,47.3608,13.8863,14.3594,27.2004,15.1814,-18.1328,-9.49538,11.6508,-33.4242,-18.7268,-13.7037,30.2334,-7.01576,11.819,24.0314
-1.42758,16.2247,-21.2491,2.37655,1.36421,0.514528,12.6909,1.59185,-6.63726,-5.24306,1.15127,1.68805,-13.1891,1.20481,5.3646,-8.98643,-6.92497,-4.60875,17.6816,-9.63606,4.52646,7.34778,-4.54492,1.33054,-9.6659e-15,-2.78299e-15,-35.5883,1.69972,-85.8346,23.4159,10.6364,-10.7835,20.4555,7.12502,15.229,-8.96398,-9.6659e-15,-2.78299e-15,-44.8676,9.61756,82.5106,18.746,-4.72199,-4.9296,18.4437,7.12502,20.8611,47.3421,13.03,13.9637,26.4571,17.4216,-18.1349,-8.79949,10.5993,-33.1211,-17.7907,-14.7073,30.7924,-6.70773,11.0653,24.1648
-1.3768,16.2238,-21.1175,2.293,1.39373,0.90065,12.6314,1.59785,-6.747,-5.12656,1.12101,1.4818,-13.0096,1.17759,5.20206,-9.38064,-6.98996,-4.39147,17.7372,-9.73661,4.45452,7.42584,-4.57651,1.24768,2.61278e-14,1.64991e-14,-35.4906,0.304614,-85.2078,22.6478,11.965,-10.8922,21.354,7.12502,15.1244,-8.07334,2.61278e-14,1.64991e-14,-44.5245,9.6339,82.4163,18.3928,-5.09442,-5.09523,18.3299,7.12502,20.7019,47.2457,12.2965,13.3256,25.737,19.6108,-18.005,-8.2523,8.49575,-32.723,-17.1047,-15.7044,31.2576,-6.25273,10.366,22.9908
-1.32652,16.2092,-20.9832,2.09512,1.49083,1.08911,12.7115,1.59682,-6.60349,-5.00963,1.11852,1.28341,-12.9098,1.14572,4.89767,-9.57252,-7.08828,-4.16324,17.846,-9.89562,4.37739,7.48703,-4.6389,1.16186,-6.18717e-15,4.37326e-15,-35.9748,-0.709008,-84.8073,22.6117,12.5476,-10.5803,21.536,7.12502,15.4248,-7.86845,-6.18717e-15,4.37326e-15,-44.3172,9.10802,82.5979,18.3542,-4.88988,-5.40299,18.1708,7.12502,20.4062,47.1186,11.7398,12.6415,25.2481,21.6734,-17.7422,-7.48122,7.28947,-32.3088,-16.6133,-16.4313,31.7228,-6.04286,9.74963,23.6522
-1.28011,16.2057,-20.8536,1.93489,1.61064,1.15298,12.8925,1.55009,-6.48897,-4.99971,1.05831,1.23938,-12.9943,1.10788,4.79717,-9.43304,-7.12377,-4.24803,17.9107,-9.94801,4.4233,7.49285,-4.66727,1.18876,-6.70898e-16,-7.35503e-15,-36.5511,-1.07531,-84.5648,22.7469,12.6188,-10.1036,20.8519,7.12502,15.8839,-8.51662,-6.70898e-16,-7.35503e-15,-44.2991,8.54261,82.9585,18.4866,-4.39426,-5.13504,18.4687,7.12502,20.6637,47.3887,11.1238,12.0899,24.9104,23.6629,-17.3203,-6.61582,8.75274,-31.9165,-16.2277,-16.9525,32.1617,-6.03281,8.96546,25.7135
-1.23513,16.2086,-20.7268,1.85136,1.63391,1.18207,12.8393,1.46876,-6.45361,-4.98118,0.967908,1.31255,-12.928,1.06384,4.88104,-9.01291,-7.04111,-4.50628,17.6497,-9.81527,4.5498,7.34684,-4.62196,1.30296,9.21864e-15,-5.56597e-15,-36.917,-1.38022,-84.2016,22.5913,12.9344,-10.2175,20.5972,7.12502,15.7742,-8.78004,9.21864e-15,-5.56597e-15,-44.2566,8.75482,82.993,18.3581,-4.63802,-4.93711,18.7966,7.12502,20.8538,47.6958,10.3796,11.4459,24.5042,25.6703,-16.5568,-5.77438,10.3212,-31.576,-15.8473,-17.423,32.6105,-5.86162,8.35992,26.6323
-1.18501,16.2108,-20.594,1.74489,1.75951,1.23846,12.7038,1.3237,-6.3459,-4.95662,0.806029,1.35127,-12.7907,0.975426,4.9017,-8.80873,-6.93576,-4.61613,17.5921,-9.65231,4.52748,7.28838,-4.55805,1.33802,-1.0312e-14,1.5704e-14,-37.1928,-1.84858,-83.7856,22.2375,13.4335,-10.6962,20.7362,7.12502,15.3132,-8.67683,-1.0312e-14,1.5704e-14,-44.3561,9.20002,82.7569,18.2129,-5.26145,-4.71308,18.8999,7.12502,21.0691,47.7753,9.66741,10.4431,23.9641,27.6786,-15.4256,-5.18283,7.89773,-31.2037,-15.6627,-17.9348,33.0171,-5.70415,7.94229,27.1729
-1.13167,16.2121,-20.455,1.59893,1.90071,1.31993,12.6169,1.23339,-6.15395,-4.89753,0.719457,1.29878,-12.6495,0.909347,4.75356,-8.90637,-6.93761,-4.58395,17.7965,-9.65448,4.45624,7.36711,-4.55856,1.30367,6.31141e-15,-3.97569e-16,-37.4535,-2.28373,-83.4711,22.0532,13.6061,-10.9539,20.7807,7.12502,15.0649,-8.65114,6.31141e-15,-3.97569e-16,-44.3457,9.04199,82.7787,18.2626,-5.51588,-4.44591,19.0172,7.12502,21.3257,47.8638,8.94972,9.45897,23.4241,29.7978,-14.1367,-4.66813,5.76111,-30.7473,-15.4724,-18.5096,33.4181,-5.67706,7.56446,27.0529
-1.07959,16.214,-20.3183,1.39883,1.93191,1.44853,12.6272,1.2197,-6.03413,-4.834,0.713443,1.21684,-12.5759,0.88803,4.59496,-9.00656,-6.99899,-4.45657,18.0219,-9.73153,4.26275,7.44573,-4.59896,1.20697,-7.57867e-15,1.78906e-15,-37.926,-2.58507,-83.2482,22.1528,13.4114,-10.7294,20.5043,7.12502,15.2811,-8.9112,-7.57867e-15,1.78906e-15,-44.1352,8.72936,82.8914,18.1905,-5.54028,-4.32225,18.6869,7.12502,21.4445,47.52,8.16555,8.53421,22.8123,32.0921,-12.5911,-3.99466,5.06501,-30.1943,-15.2805,-19.137,33.855,-5.79616,7.32119,26.0373
-1.02593,16.2131,-20.1859,1.1926,1.87602,1.677,12.7279,1.19969,-6.08575,-4.78885,0.669333,1.19733,-12.5802,0.869307,4.61309,-9.0307,-6.99609,-4.40006,18.0673,-9.68527,3.99041,7.44575,-4.59608,1.11395,9.74045e-15,-2.60408e-14,-38.3833,-2.75664,-82.9569,22.2187,13.2736,-10.2396,20.2029,7.12502,15.7529,-9.176,9.74045e-15,-2.60408e-14,-44.1264,8.83711,82.9532,18.1745,-5.66553,-4.47227,18.4652,7.12502,21.3004,47.3146,7.21956,7.54731,21.9767,34.5374,-10.7943,-3.20591,5.11546,-29.612,-15.1595,-19.8633,34.307,-6.03134,7.26594,24.3674
-0.974163,16.2032,-20.059,1.02828,1.82082,1.85702,12.8359,1.1639,-6.15514,-4.77756,0.607099,1.24321,-12.6272,0.849438,4.71893,-8.97722,-6.98157,-4.43393,18.0769,-9.61712,3.75841,7.4262,-4.58712,1.05374,4.39811e-15,1.03368e-14,-38.7904,-2.77331,-82.6272,22.183,13.2313,-10.1831,20.2721,7.12502,15.8073,-9.10252,4.39811e-15,1.03368e-14,-44.3002,9.06032,83.0883,18.397,-5.71519,-4.57006,18.8317,7.12502,21.2064,47.6917,6.05957,6.58412,21.1837,37.0633,-9.01761,-2.49418,5.84772,-29.1229,-15.0627,-20.4672,34.6897,-6.29773,7.12691,23.4001
-0.924902,16.1946,-19.9364,0.939578,1.82664,1.93497,12.9517,1.13055,-6.09905,-4.8307,0.56507,1.25726,-12.7522,0.831588,4.71355,-8.81777,-6.96374,-4.4126,18.0468,-9.57969,3.64948,7.37981,-4.5807,1.02573,-1.57537e-14,9.14409e-15,-39.226,-2.94866,-82.3522,22.2029,13.0089,-9.87813,19.9001,7.12502,16.101,-9.451,-1.57537e-14,9.14409e-15,-44.284,9.25736,83.0168,18.3541,-6.07865,-4.30525,18.6566,7.12502,21.4608,47.4879,4.74419,5.70925,20.5688,39.6246,-7.12296,-1.98298,7.619,-28.6995,-15.0477,-20.92,34.9498,-6.42068,7.09762,22.4225
-0.868043,16.2076,-19.8087,0.96424,1.74419,2.21928,12.7472,1.12028,-6.08024,-4.77367,0.556303,1.14674,-12.558,0.811675,4.58024,-9.10782,-6.94349,-4.38661,18.0762,-9.55163,3.67498,7.43955,-4.55782,1.02136,2.04003e-14,-1.55052e-14,-39.4444,-3.26916,-82.0455,22.3184,12.7357,-8.88379,19.3451,7.12502,17.0583,-9.926,2.04003e-14,-1.55052e-14,-43.9437,9.09178,83.1588,18.2509,-5.97101,-4.48411,17.8996,7.12502,21.289,46.7503,3.21861,4.89668,19.643,42.1846,-4.64899,-1.74177,8.37243,-28.1784,-15.2857,-21.566,35.0235,-6.87296,7.28969,22.16
-0.81001,16.2227,-19.6819,0.876482,1.61068,2.51008,12.5597,1.11709,-6.06014,-4.6181,0.55872,1.0349,-12.2625,0.791268,4.44236,-9.58976,-6.94097,-4.25725,18.1493,-9.5372,3.58064,7.53699,-4.54123,0.953185,1.96051e-14,-6.75868e-15,-39.5372,-3.58684,-81.7221,22.4292,12.6614,-8.13193,19.302,7.12502,17.7819,-9.90494,1.96051e-14,-6.75868e-15,-43.5711,8.75278,83.4436,18.3923,-5.57763,-5.07337,17.3807,7.12502,20.7229,46.2942,1.65881,4.18786,18.7168,44.74,-1.5765,-1.86553,7.52131,-27.4406,-15.6054,-22.2272,34.9245,-7.41852,7.588,22.135
-0.760267,16.228,-19.5554,0.607133,1.51458,2.84718,12.7399,1.15233,-6.22129,-4.52557,0.555515,0.927496,-12.2671,0.79458,4.41567,-9.72312,-6.98244,-4.13509,18.2771,-9.58801,3.4319,7.59088,-4.56686,0.873959,-2.78299e-15,1.07344e-14,-39.8376,-3.73316,-81.5289,22.4669,12.3994,-8.61641,20.3633,7.12502,17.3157,-8.8853,-2.78299e-15,1.07344e-14,-43.48,8.11744,83.8491,18.8127,-5.07377,-5.16981,17.6093,7.12502,20.6302,46.533,0.274707,3.65436,17.8672,47.3483,1.36803,-2.04667,5.73031,-26.4287,-15.6299,-22.9986,34.6736,-7.74247,7.65674,22.5188
-0.712785,16.2312,-19.4286,0.451264,1.35938,3.21954,12.8358,1.18954,-6.39735,-4.54632,0.552301,0.801093,-12.3513,0.803686,4.37631,-9.47808,-6.95103,-4.22464,18.4634,-9.55312,3.45905,7.6131,-4.55602,0.906717,-2.23633e-16,5.96354e-15,-40.4543,-3.54331,-81.5451,22.4527,11.9706,-9.98782,21.7693,7.12502,15.9954,-7.59032,-2.23633e-16,5.96354e-15,-43.4386,7.61049,84.102,18.9993,-4.49284,-4.99524,17.6007,7.12502,20.798,46.5061,-1.23473,3.30079,17.0166,49.9999,4.02553,-2.09609,5.97286,-25.5037,-15.4477,-23.8044,34.376,-7.81629,7.70165,22.022
-0.666661,16.236,-19.3067,0.487839,1.20885,3.64555,12.7187,1.19243,-6.64654,-4.62862,0.504669,0.687458,-12.374,0.797905,4.40265,-9.09367,-6.90801,-4.38208,18.4597,-9.50214,3.5613,7.55462,-4.5402,0.984062,1.97542e-14,-2.26615e-14,-41.0932,-3.30929,-81.5132,22.5314,11.7391,-10.1945,21.491,7.12502,15.7964,-7.88454,1.97542e-14,-2.26615e-14,-43.2382,7.17121,84.3546,19.0243,-3.87142,-4.82185,17.4639,7.12502,20.9646,46.3509,-3.05419,3.01296,16.1256,52.7033,6.87188,-2.30708,10.9268,-24.7821,-15.2391,-24.6042,34.0063,-7.85663,7.779,21.1436
-0.623381,16.2447,-19.1873,0.375106,0.943618,4.07128,12.8586,1.26702,-6.9702,-4.62759,0.527027,0.607165,-12.4685,0.833226,4.49207,-9.20529,-6.91389,-4.45852,18.4803,-9.49886,3.58126,7.58602,-4.53994,0.998364,1.20016e-14,-7.95139e-15,-41.4628,-3.52177,-81.1847,22.7618,12.2182,-9.49647,20.5897,7.12502,16.4685,-8.73129,1.20016e-14,-7.95139e-15,-43.048,6.71077,84.691,19.2226,-3.61032,-4.54566,17.9707,7.12502,21.2299,46.8281,-4.77452,2.80734,15.2573,55.3762,9.71973,-2.5293,13.5045,-23.8117,-14.9466,-25.4245,33.5245,-7.9624,7.91219,20.1508
-0.582946,16.258,-19.0675,0.250066,0.634877,4.64512,12.962,1.35148,-7.46044,-4.5743,0.529662,0.470314,-12.4821,0.86516,4.61741,-9.60102,-6.8643,-4.317,18.5723,-9.4145,3.43318,7.66848,-4.49562,0.921131,-1.76421e-15,1.39149e-14,-41.6078,-3.95429,-80.8341,22.885,12.956,-8.92681,20.1833,7.12502,17.0169,-9.09137,-1.76421e-15,1.39149e-14,-43.0619,6.39964,84.923,19.7729,-3.32211,-4.53011,18.2057,7.12502,21.2448,47.0614,-6.40434,2.67496,14.2735,57.985,12.1303,-2.66055,11.1685,-22.7688,-14.7108,-26.3759,32.9769,-8.28928,7.9803,20.3201
-0.541472,16.2684,-18.9438,0.196892,0.444636,5.27823,12.821,1.33071,-7.96649,-4.55562,0.408836,0.339728,-12.37,0.836415,4.7875,-9.28189,-6.80514,-4.33278,18.3451,-9.30751,3.31281,7.52729,-4.46469,0.911101,5.36719e-15,-3.18055e-15,-41.8155,-3.88336,-80.7125,22.8452,12.6312,-8.64296,19.7897,7.12502,17.2901,-9.46118,5.36719e-15,-3.18055e-15,-43.1935,6.26729,85.0337,20.3815,-2.94258,-4.53012,18.0458,7.12502,21.2448,46.9015,-8.06297,2.40411,13.208,60.4866,14.4041,-2.83947,9.45037,-21.8165,-14.7664,-27.3766,32.4679,-8.57987,8.18075,20.1863
-0.503492,16.2711,-18.8233,0.111761,0.147388,5.70871,12.798,1.34077,-8.30159,-4.52445,0.356864,0.260988,-12.3205,0.831087,4.90198,-9.15146,-6.7483,-4.35077,18.2695,-9.20715,3.20784,7.47094,-4.43048,0.89635,-1.44119e-15,-2.42517e-14,-42.0702,-3.62525,-80.6931,22.8404,11.9436,-8.70419,20.1,7.12502,17.2312,-9.15606,-1.44119e-15,-2.42517e-14,-43.0249,6.25563,85.0302,20.5989,-2.88805,-4.62535,17.8086,7.12502,21.1533,46.6746,-9.65116,2.28941,12.4263,62.8498,17.2128,-3.77979,13.5949,-20.8788,-14.5945,-28.1674,32.0068,-8.75962,8.39292,18.7596
-0.473225,16.269,-18.7091,0.0105757,-0.299488,5.87825,12.8181,1.45652,-8.35765,-4.43452,0.491733,0.148395,-12.2497,0.887296,4.77674,-9.47801,-6.71013,-4.2637,18.3999,-9.17643,3.27707,7.56948,-4.39711,0.894223,1.47846e-14,1.19271e-14,-42.2078,-3.84992,-80.671,22.8958,11.8267,-8.84827,20.2946,7.12502,17.0925,-8.97348,1.47846e-14,1.19271e-14,-42.4411,5.82614,85.0863,20.5793,-2.53783,-4.55278,17.8111,7.12502,21.2231,46.6693,-11.0984,2.41881,12.0398,65.0077,19.904,-5.92511,21.5005,-20.0163,-14.0892,-28.6244,31.532,-9.08796,8.4284,17.9791
-0.446523,16.2725,-18.5912,-0.118744,-0.649156,6.10004,12.7504,1.51839,-8.5637,-4.33871,0.543296,0.0932886,-12.1118,0.915836,4.82054,-9.21578,-6.6213,-4.34444,18.202,-9.06616,3.40685,7.46365,-4.34477,0.972273,-1.43622e-14,-1.27222e-14,-42.2713,-4.07963,-80.5881,22.9136,11.9824,-8.68371,19.5696,7.12502,17.2509,-9.68475,-1.43622e-14,-1.27222e-14,-42.0565,5.57404,85.1516,20.8095,-2.16599,-4.40136,18.1689,7.12502,21.3685,47.0107,-12.5392,2.42878,11.6036,67.0401,21.5847,-8.03174,26.4408,-19.142,-13.7221,-29.1254,31.0896,-9.40903,8.48792,17.0696
-0.41874,16.2991,-18.4683,-0.323646,-0.915531,6.2657,12.8326,1.54988,-8.75415,-4.27911,0.547961,0.108406,-12.0997,0.930887,4.94433,-9.13735,-6.52956,-4.36087,18.1496,-8.93141,3.37571,7.4262,-4.28621,0.98202,7.57867e-15,1.59028e-15,-42.3573,-4.16196,-80.4445,22.8645,12.2365,-8.26725,18.717,7.12502,17.6517,-10.5018,7.57867e-15,1.59028e-15,-41.9419,5.14306,85.4174,21.1427,-1.86449,-4.49253,18.6835,7.12502,21.2809,47.5352,-13.8224,2.39776,11.2956,68.8346,22.8207,-9.96466,29.9924,-18.0984,-13.4724,-29.5674,30.6221,-9.94018,8.36595,18.3779
-0.392739,16.3073,-18.3479,-0.429922,-1.14151,6.3797,12.7455,1.55357,-8.88864,-4.16557,0.546677,0.13366,-11.9207,0.930215,5.04977,-9.68498,-6.48484,-4.22827,18.3293,-8.84791,3.21444,7.56499,-4.24121,0.896032,1.36167e-14,-1.07344e-14,-42.2318,-4.4459,-80.2289,22.7488,12.6646,-8.52925,19.1687,7.12502,17.3995,-10.0726,1.36167e-14,-1.07344e-14,-41.6084,4.81254,85.6164,21.2507,-1.85207,-4.78636,18.3671,7.12502,20.9987,47.2504,-15.221,2.30664,11.0911,70.6294,23.4056,-12.3465,35.5366,-17.2662,-13.2659,-29.9431,30.2724,-10.3163,8.36755,18.7374
-0.376522,16.3111,-18.2449,-0.391968,-1.20193,6.43112,12.6962,1.48391,-8.9927,-4.10148,0.445175,0.150777,-11.804,0.883551,5.15171,-9.73316,-6.43807,-4.19404,18.2942,-8.77085,3.13933,7.5538,-4.20853,0.873178,-1.06847e-14,1.43125e-14,-42.2371,-4.46847,-80.2082,22.6952,12.7265,-9.46305,20.2165,7.12502,16.5007,-9.10182,-1.06847e-14,1.43125e-14,-41.1729,4.3881,85.7842,21.3973,-1.47481,-5.2743,18.0528,7.12502,20.5298,46.9873,-16.7997,2.02336,11.0248,72.3162,22.8914,-14.0186,39.2734,-16.7506,-13.1121,-30.1679,30.0866,-10.5684,8.38738,18.2074
-0.375887,16.3045,-18.1698,-0.393917,-0.743918,6.31713,13.2214,1.259,-9.08585,-4.19219,0.0786141,0.26511,-12.1669,0.7432,5.4195,-9.33337,-6.31029,-4.2117,18.1013,-8.58775,3.08642,7.41069,-4.13524,0.893941,2.17918e-14,-9.93923e-15,-42.3777,-4.60197,-80.0431,22.5587,12.9302,-9.92101,20.909,7.12502,16.0597,-8.44548,2.17918e-14,-9.93923e-15,-40.8179,4.62332,85.5784,21.4079,-1.53899,-5.28031,18.31,7.12502,20.5241,47.2452,-18.224,1.32606,11.2881,73.9329,21.3745,-14.3577,41.0713,-16.4315,-12.9646,-30.1444,30.1186,-10.6263,7.86357,18.1769
-0.338,16.2866,-18.0271,-0.728064,-1.37358,6.29944,12.9273,1.34045,-8.90815,-4.00158,0.263974,0.29537,-11.7971,0.795093,5.30754,-9.71751,-6.19081,-4.10997,18.329,-8.41023,2.95617,7.53606,-4.04761,0.837823,1.0461e-14,-1.19271e-15,-42.2247,-5.07597,-79.7065,22.271,13.3945,-9.87653,21.2971,7.12502,16.1025,-8.05391,1.0461e-14,-1.19271e-15,-40.4676,4.93133,85.3996,21.2907,-1.79232,-5.14173,18.3372,7.12502,20.6572,47.2579,-19.2197,1.5473,11.2463,75.3669,19.6723,-12.8698,41.2734,-15.4386,-12.8528,-30.5074,30.116,-11.5724,8.21451,18.8258
-0.322079,16.2864,-17.9275,-0.807767,-1.30141,6.3002,13.2576,1.28099,-9.01603,-3.9991,0.139344,0.376451,-11.9751,0.756536,5.49021,-9.9724,-6.15644,-4.03588,18.4122,-8.3491,2.85069,7.59836,-4.01853,0.788684,3.47873e-15,-4.77083e-15,-42.1962,-5.26625,-79.5026,22.3391,13.6027,-9.13279,19.7164,7.12502,16.8186,-9.57518,3.47873e-15,-4.77083e-15,-40.2245,4.83425,85.4331,21.3956,-1.80959,-5.23688,17.9692,7.12502,20.5658,46.8999,-20.3366,1.10962,11.3266,76.6272,17.7278,-9.87984,37.7757,-14.7314,-12.8158,-30.7159,29.8024,-11.7243,8.08704,18.7196
-0.309336,16.2898,-17.8263,-0.797549,-1.14614,6.61333,13.3271,1.2159,-9.44296,-3.99755,-0.0359521,0.349396,-11.9941,0.705369,5.74449,-9.4142,-6.13761,-3.99472,18.1025,-8.32104,2.7643,7.3909,-4.02091,0.77992,7.00716e-15,1.03368e-14,-42.3867,-5.11072,-79.5101,22.5667,13.4162,-8.624,17.7772,7.12502,17.3083,-11.4721,7.00716e-15,1.03368e-14,-39.8949,4.37271,85.6657,21.6464,-1.43305,-5.38249,18.2905,7.12502,20.4259,47.2361,-21.6763,0.581441,11.0322,77.8254,15.4192,-6.21444,31.2637,-14.0006,-12.8075,-31.2443,29.3112,-11.7989,7.94466,18.4353
-0.289389,16.3178,-17.702,-0.888521,-1.00812,6.99076,13.078,1.10061,-9.81342,-3.86884,-0.230322,0.275219,-11.6683,0.61589,5.91426,-8.93029,-6.03876,-4.01989,17.8954,-8.1968,2.80028,7.23578,-3.96859,0.826467,1.73937e-16,2.78299e-15,-42.3799,-5.1524,-79.5082,22.4822,13.2876,-9.68058,18.4679,7.12502,16.2912,-10.8677,1.73937e-16,2.78299e-15,-39.3625,3.99398,85.8803,21.8336,-0.975007,-5.47111,19.2957,7.12502,20.3407,48.2504,-22.836,0.0433295,10.5885,78.6465,13.0559,-3.86986,26.4727,-12.9969,-12.8554,-31.9181,28.7864,-12.095,7.89965,18.5567
-0.277649,16.3216,-17.6004,-1.01141,-0.737422,6.99421,13.2867,0.943483,-9.89754,-3.85185,-0.471268,0.348596,-11.7304,0.514467,6.10243,-8.97696,-5.92876,-4.02572,18.1036,-8.04181,2.75196,7.30431,-3.89698,0.822641,-9.93923e-16,-2.0276e-14,-42.3491,-5.42639,-79.3086,22.2093,13.5206,-11.2699,20.6184,7.12502,14.7605,-8.83597,-9.93923e-16,-2.0276e-14,-38.9393,3.98977,85.8885,21.9594,-0.629474,-5.39635,19.8657,7.12502,20.4126,48.8128,-23.9456,-0.47214,10.7281,79.2592,10.807,-2.95799,24.7119,-12.211,-13.0324,-32.1264,28.4477,-12.3621,7.89316,18.7631
-0.265997,16.3043,-17.5078,-1.05488,-0.703961,6.77899,13.5711,0.861158,-9.77881,-3.9041,-0.578198,0.505692,-11.9389,0.47638,6.24133,-9.49693,-5.87418,-3.97894,18.4353,-7.93328,2.57151,7.49156,-3.84859,0.746802,9.26834e-15,1.11319e-14,-42.3974,-5.83176,-78.9191,22.0309,13.8735,-11.5725,21.821,7.12502,14.4689,-7.65451,9.26834e-15,1.11319e-14,-38.5834,4.13665,85.8605,21.9251,-0.582696,-5.4692,19.7493,7.12502,20.3425,48.7039,-25.1603,-0.5896,11.1999,79.7484,8.39429,-2.40808,24.1416,-11.7658,-13.1755,-32.0586,28.4015,-12.7175,7.94904,18.401
-0.248627,16.3016,-17.4076,-1.06606,-0.846751,6.45752,13.6928,0.857763,-9.40952,-3.86021,-0.514429,0.606158,-11.9678,0.483976,6.13058,-10.0123,-5.87552,-3.92319,18.5225,-7.92691,2.56062,7.60888,-3.83495,0.717548,8.19987e-16,1.51076e-14,-42.3515,-6.17335,-78.7707,22.0115,13.8028,-11.1088,21.1771,7.12502,14.9156,-8.26584,8.19987e-16,1.51076e-14,-38.0475,3.88696,85.9986,21.7551,-0.75438,-5.91642,19.4281,7.12502,19.9127,48.4279,-26.2857,-0.448576,11.7867,79.9379,6.56424,-1.82615,24.1511,-11.4769,-13.2766,-31.8959,28.6635,-13.2587,8.07952,18.0297
-0.232209,16.2907,-17.3167,-0.942172,-0.875735,6.33591,13.6141,0.784384,-9.18813,-3.81188,-0.558275,0.631315,-11.854,0.440333,6.04089,-10.0156,-5.82024,-3.88879,18.4862,-7.86177,2.59521,7.59517,-3.79853,0.730312,-1.13804e-14,-4.77083e-15,-42.2959,-6.17619,-78.8746,22.1196,13.5872,-10.9094,20.7556,7.12502,15.1077,-8.67301,-1.13804e-14,-4.77083e-15,-37.4681,3.88956,85.9297,21.6395,-1.19811,-5.96692,19.4208,7.12502,19.8642,48.4257,-27.6353,-0.445859,12.1197,80.0394,5.21123,-1.57412,24.6902,-11.4365,-13.3703,-31.8969,29.0035,-13.6884,8.13486,18.084
-0.213872,16.2846,-17.2213,-0.861919,-0.861412,6.34282,13.6496,0.707983,-9.13071,-3.85728,-0.653188,0.659194,-11.9098,0.397145,6.06279,-9.75035,-5.74657,-3.71944,18.3989,-7.75439,2.38445,7.49964,-3.75918,0.655446,3.13086e-15,-1.03368e-14,-42.525,-5.80598,-79.0152,22.216,13.3911,-11.1295,21.4116,7.12502,14.8957,-8.03282,3.13086e-15,-1.03368e-14,-37.2441,3.63313,86.0383,21.8991,-0.956568,-6.01884,19.4045,7.12502,19.8142,48.4145,-28.7929,-0.533203,12.2591,79.883,3.78113,-1.52307,24.3696,-11.1997,-13.4051,-32.0713,29.1641,-13.9929,8.18181,17.7324
-0.203592,16.2869,-17.1199,-0.88194,-0.889771,6.18337,13.7768,0.638738,-9.05166,-3.88301,-0.733576,0.769493,-11.9997,0.364495,6.16343,-9.39517,-5.68088,-3.70234,18.2479,-7.66023,2.31447,7.3804,-3.72509,0.652529,-6.70898e-15,-1.98785e-14,-42.7025,-5.71388,-78.9909,22.0827,13.5688,-11.4209,22.2502,7.12502,14.615,-7.21486,-6.70898e-15,-1.98785e-14,-37.0323,3.61318,86.0387,22.0242,-1.03779,-6.13349,18.8135,7.12502,19.704,47.8349,-29.7081,-0.535588,12.651,79.4556,2.24683,-1.33164,22.6947,-10.7268,-13.448,-32.0706,29.1862,-14.3747,8.3384,16.8791
-0.19702,16.2943,-17.0156,-0.916906,-0.800798,5.90336,13.8491,0.518315,-8.88659,-3.84456,-0.852175,0.925967,-11.9746,0.30134,6.27397,-8.91757,-5.57572,-3.84974,18.0641,-7.51614,2.39201,7.24023,-3.66642,0.732014,-9.86469e-15,-1.74931e-14,-42.6351,-5.67718,-79.0499,22.1706,13.4709,-10.9441,21.973,7.12502,15.0743,-7.45812,-9.86469e-15,-1.74931e-14,-36.698,3.39758,86.1621,22.2014,-0.818099,-6.13662,18.732,7.12502,19.701,47.7537,-30.4741,-0.630671,13.227,78.7814,0.899993,-1.47599,22.308,-10.1529,-13.6485,-31.9339,29.0854,-14.725,8.56454,16.0608
-0.187823,16.3018,-16.9112,-0.838595,-0.588666,5.83702,13.8332,0.370613,-8.82018,-3.79715,-1.02921,0.970124,-11.8775,0.208112,6.32568,-9.06033,-5.46914,-3.81249,18.1434,-7.37325,2.39469,7.28508,-3.59301,0.735346,6.4605e-15,7.15625e-15,-42.3717,-5.76203,-79.1787,22.0835,13.5259,-10.9668,21.65,7.12502,15.0525,-7.78283,6.4605e-15,7.15625e-15,-36.2251,3.17196,86.2901,22.4989,-0.415075,-6.25479,19.0806,7.12502,19.5874,48.1138,-31.2998,-0.84063,13.5158,78.0007,-0.373406,-1.80319,23.7421,-9.67719,-13.8472,-31.9967,28.9184,-15.0718,8.5475,15.9698
-0.174829,16.3026,-16.8044,-0.804116,-0.610593,5.73205,13.815,0.318852,-8.66219,-3.76091,-1.06248,0.999759,-11.8182,0.177727,6.27509,-9.59699,-5.32894,-3.67823,18.6131,-7.20077,2.3983,7.52301,-3.4916,0.710465,-1.67476e-14,0,-42.4799,-5.41093,-79.4496,22.2476,13.159,-11.3186,21.5737,7.12502,14.7136,-7.88419,-1.67476e-14,0,-35.9094,2.91929,86.3843,22.8907,-0.108839,-6.21972,19.2781,7.12502,19.6211,48.3079,-32.079,-0.77462,13.8359,77.0963,-1.73223,-2.12024,24.7266,-9.13848,-14.0047,-32.0619,28.7181,-15.4949,8.61227,16.646
-0.165174,16.2925,-16.698,-0.843492,-0.918077,5.68731,13.8527,0.366265,-8.67363,-3.7544,-1.00023,1.03622,-11.8439,0.210948,6.30908,-9.75989,-5.15587,-3.67913,18.9453,-7.00267,2.57124,7.66111,-3.37738,0.778236,4.00054e-15,1.27222e-14,-42.7667,-4.8129,-79.8684,22.7265,12.337,-11.0735,20.9926,7.12502,14.9496,-8.4479,4.00054e-15,1.27222e-14,-35.782,2.78073,86.4261,23.2034,-0.174705,-6.02757,19.117,7.12502,19.8058,48.1279,-32.8916,-0.379639,14.1006,76.1544,-2.92415,-2.44952,24.3329,-8.51142,-14.0767,-32.2226,28.488,-15.974,8.89013,16.9595
-0.159148,16.2916,-16.595,-0.785751,-1.02563,5.63925,13.9414,0.345908,-8.78216,-3.77572,-1.04553,1.14208,-11.9121,0.207248,6.50378,-9.81072,-5.0881,-3.74864,18.8664,-6.91184,2.66845,7.64727,-3.32995,0.829704,1.01877e-15,-1.27222e-14,-42.6773,-4.57726,-80.0726,22.8149,12.0449,-10.7608,20.6029,7.12502,15.2509,-8.81494,1.01877e-15,-1.27222e-14,-35.585,2.62503,86.5698,23.5582,-0.0155938,-6.04402,18.7809,7.12502,19.79,47.7935,-33.6656,-0.222163,14.337,75.0479,-3.81833,-2.94824,23.99,-7.98035,-14.1815,-32.3487,28.28,-16.2716,9.27978,15.408
-0.152422,16.2914,-16.4916,-0.65661,-1.02927,5.744,13.944,0.308032,-9.00544,-3.80762,-1.13229,1.21013,-11.9336,0.188551,6.72941,-9.75604,-5.09424,-3.79878,18.6431,-6.89757,2.6296,7.56407,-3.33225,0.830386,-1.10077e-14,0,-42.6511,-4.32026,-80.2281,22.8977,11.9848,-10.7769,20.5899,7.12502,15.2354,-8.82913,-1.10077e-14,0,-35.4642,2.3554,86.8066,24.1003,0.381497,-5.96158,18.8912,7.12502,19.8693,47.8955,-34.4041,-0.1353,14.334,73.7753,-4.82127,-3.4307,24.8084,-7.49162,-14.3945,-32.6348,28.024,-16.4526,9.74192,13.7092
-0.147451,16.2811,-16.3868,-0.503843,-1.11686,5.959,13.9203,0.317369,-9.30483,-3.86737,-1.17825,1.19415,-11.9802,0.193246,6.89435,-9.48971,-5.0759,-3.76296,18.4234,-6.86643,2.56022,7.43962,-3.32588,0.814692,1.92324e-14,6.36111e-15,-42.7822,-3.97931,-80.5019,23.075,11.8142,-10.5542,20.3466,7.12502,15.4499,-9.05592,1.92324e-14,6.36111e-15,-35.3788,2.02676,86.9876,24.5467,0.668164,-5.84241,19.0051,7.12502,19.9838,47.9975,-35.1724,0.0333402,14.2044,72.3958,-5.67791,-3.8299,26.4903,-7.00871,-14.4587,-33.0103,27.6906,-16.6482,10.0837,12.5327
-0.14501,16.2767,-16.2819,-0.437843,-1.1532,5.96374,14.1247,0.294255,-9.39959,-3.93569,-1.24771,1.2323,-12.1678,0.183331,7.01653,-9.12153,-5.08007,-3.7447,18.2098,-6.85403,2.4207,7.29836,-3.33692,0.780155,2.23633e-15,7.95139e-16,-42.939,-3.67104,-80.7421,23.2294,11.6992,-10.3333,20.272,7.12502,15.6627,-9.11398,2.23633e-15,7.95139e-16,-35.2867,1.27759,87.3499,24.9428,1.29423,-6.00806,19.1439,7.12502,19.8246,48.1529,-35.7019,0.244716,14.3398,70.7966,-6.6146,-4.20082,27.1995,-6.41184,-14.4217,-33.1489,27.3431,-16.8917,10.2218,11.3607
-0.145185,16.2803,-16.1729,-0.418006,-1.19807,5.8615,14.1536,0.281551,-9.39326,-3.86757,-1.25726,1.28386,-12.1033,0.174674,7.07291,-9.36683,-5.12739,-3.66634,18.2214,-6.90635,2.32867,7.34118,-3.36171,0.725944,-3.23025e-16,-7.95139e-15,-42.9392,-3.26237,-81.1568,23.4869,11.2552,-10.5827,20.406,7.12502,15.4225,-8.9987,-3.23025e-16,-7.95139e-15,-35.0287,0.921934,87.4908,25.3517,1.48637,-6.01939,18.8833,7.12502,19.8137,47.8934,-36.0312,0.574786,14.5678,68.9568,-7.43975,-4.53196,26.9726,-5.73923,-14.526,-33.2004,26.9746,-17.1765,10.4513,10.8401
-0.151549,16.281,-16.0711,-0.253508,-1.17252,5.74214,14.0347,0.237176,-9.41668,-3.83197,-1.29978,1.34744,-11.9811,0.150801,7.16321,-10.042,-5.12156,-3.6426,18.4813,-6.90856,2.43438,7.54939,-3.34186,0.734664,1.36913e-14,-3.97569e-15,-42.9574,-3.00804,-81.4692,23.7693,11.0838,-10.6949,20.7407,7.12502,15.3143,-8.6723,1.36913e-14,-3.97569e-15,-34.7409,0.741328,87.5241,25.81,1.67487,-5.9453,18.7261,7.12502,19.8849,47.7289,-36.4956,0.980459,14.8055,66.9636,-7.57603,-5.11355,26.3062,-5.25203,-14.6202,-33.1272,26.5615,-17.3774,10.4881,10.6248
-0.15595,16.2761,-15.9702,-0.125367,-1.07072,5.84035,14.1774,0.220385,-9.63522,-3.9189,-1.38485,1.33505,-12.1502,0.140296,7.30206,-10.0926,-5.10564,-3.44796,18.4241,-6.90503,2.36984,7.52977,-3.3325,0.681945,-1.16041e-14,-8.74653e-15,-43.1699,-2.81832,-81.7371,23.9907,10.9793,-10.6218,20.922,7.12502,15.3848,-8.48554,-1.16041e-14,-8.74653e-15,-34.5545,0.0628894,87.7216,26.1378,1.98632,-5.64792,19.0788,7.12502,20.1708,48.0516,-36.8318,1.34574,14.7154,64.849,-7.71953,-5.56527,26.6187,-4.69183,-14.7941,-33.3064,26.0863,-17.5262,10.5807,9.74148
-0.157187,16.2754,-15.8605,-0.0318623,-0.992684,5.94907,14.2676,0.196486,-9.83905,-3.97968,-1.46948,1.33181,-12.2573,0.124999,7.44047,-9.76954,-5.11563,-3.29684,18.1421,-6.92559,2.2655,7.37108,-3.34729,0.633944,2.03506e-14,1.59028e-14,-43.3918,-2.55281,-82.0379,24.2892,10.7027,-10.4703,20.7658,7.12502,15.5307,-8.63056,2.03506e-14,1.59028e-14,-34.4845,-0.333978,87.898,26.6106,2.1478,-5.36114,19.6161,7.12502,20.4464,48.5596,-36.9464,1.73469,14.5476,62.5675,-8.0627,-5.49087,27.507,-3.96112,-15.0181,-33.5424,25.4316,-17.7068,10.677,9.97587
-0.156618,16.2768,-15.7454,0.12736,-1.00735,5.95031,14.0812,0.126236,-9.91233,-4.00434,-1.55186,1.39034,-12.1551,0.0889952,7.56176,-9.3888,-5.06717,-3.49719,17.9311,-6.8659,2.45468,7.24725,-3.32139,0.745827,2.65874e-15,2.38542e-15,-43.5156,-2.28539,-82.2389,24.4281,10.644,-10.3884,20.7268,7.12502,15.6096,-8.66333,2.65874e-15,2.38542e-15,-34.4064,-0.30503,87.9932,26.9424,2.40382,-5.98077,18.9428,7.12502,19.8508,47.949,-37.0261,2.18691,14.4758,60.1346,-8.28361,-5.17597,27.7834,-3.12018,-15.1397,-33.6667,24.5286,-17.8049,10.7969,10.1798
-0.153142,16.2891,-15.6242,0.23069,-1.14097,6.10252,13.9513,0.161127,-10.036,-4.02913,-1.52203,1.33199,-12.1131,0.107633,7.55513,-8.87272,-5.04746,-3.67605,17.629,-6.86696,2.72592,7.0743,-3.31849,0.878933,-2.69602e-14,-1.59028e-15,-43.7289,-2.12031,-82.4882,24.4872,10.6438,-10.7639,20.7229,7.12502,15.2479,-8.69514,-2.69602e-14,-1.59028e-15,-34.3676,-0.537999,88.1143,27.3799,2.67807,-6.35453,18.1993,7.12502,19.4915,47.2423,-37.0742,2.78877,14.1741,57.6168,-8.22125,-5.19306,26.4112,-2.05963,-15.1075,-33.9793,23.3739,-17.6853,11.1212,9.18072
-0.159868,16.3097,-15.5096,0.363131,-1.06571,6.1447,13.9835,0.16424,-10.1663,-4.05898,-1.55104,1.30435,-12.1612,0.10686,7.60741,-8.93423,-5.05483,-3.65697,17.5939,-6.90149,2.85851,7.079,-3.32184,0.913868,1.78409e-14,-1.03368e-14,-43.8873,-2.12494,-82.6918,24.6164,10.5799,-10.9405,21.0086,7.12502,15.0778,-8.42232,1.78409e-14,-1.03368e-14,-34.2914,-1.09179,88.285,28.0698,3.25494,-6.35747,18.2474,7.12502,19.4887,47.2907,-37.0591,3.49271,13.956,55.0179,-8.06838,-5.70018,24.5392,-0.963373,-15.1843,-34.0839,22.0848,-17.5543,11.1704,8.64696
-0.168959,16.3251,-15.3948,0.487087,-0.816321,6.1912,13.9107,0.0683028,-10.296,-4.03641,-1.6941,1.31116,-12.0597,0.0419771,7.71902,-9.62601,-5.05567,-3.49881,17.9562,-6.9019,2.76257,7.30982,-3.30835,0.835139,2.18663e-15,-5.56597e-15,-44.0014,-1.92417,-82.9951,24.9251,10.1572,-10.9555,21.2766,7.12502,15.0633,-8.15538,2.18663e-15,-5.56597e-15,-34.1775,-1.52656,88.4783,28.6744,3.86624,-6.70655,17.8642,7.12502,19.153,46.9411,-36.9123,4.16103,13.67,52.4224,-8.02988,-6.20506,22.9804,0.153658,-15.0398,-34.108,20.7473,-17.2745,10.8277,8.01731
-0.170839,16.3249,-15.2706,0.570558,-0.771674,6.23521,13.7214,0.0154215,-10.2922,-4.02263,-1.74443,1.28732,-11.9198,0.00659901,7.69279,-9.8476,-5.10626,-3.43577,18.089,-6.97424,2.72818,7.39131,-3.33796,0.799382,-4.39811e-15,-1.59028e-14,-44.1281,-1.90795,-83.1813,25.0711,9.99317,-11.1013,21.7004,7.12502,14.9229,-7.74201,-4.39811e-15,-1.59028e-14,-34.169,-1.61753,88.5413,29.1817,4.21381,-6.84872,17.9348,7.12502,19.0163,47.0252,-36.7398,5.06681,13.3106,49.842,-8.15392,-6.8115,21.6445,1.32512,-14.9337,-34.2386,19.4628,-17.1474,10.747,8.08331
-0.171222,16.322,-15.1501,0.740605,-0.991607,6.22555,13.5822,0.0750532,-10.206,-4.07411,-1.63995,1.24479,-11.9199,0.0491687,7.5672,-9.75397,-5.18878,-3.51749,18.0435,-7.10071,2.85973,7.37212,-3.39379,0.845598,7.05686e-15,2.8625e-14,-44.3656,-1.85833,-83.3913,25.2742,9.81601,-11.3396,22.1625,7.12502,14.6933,-7.29687,7.05686e-15,2.8625e-14,-34.083,-1.81606,88.5914,29.5417,4.5205,-6.47152,18.44,7.12502,19.379,47.4944,-36.7329,6.20459,12.9361,47.2486,-8.26374,-7.5597,20.6597,2.37044,-15.0893,-34.3989,18.2142,-17.1542,11.1945,7.91085
-0.175589,16.3239,-15.035,1.01327,-1.11701,6.3767,13.448,0.141384,-10.2402,-4.12645,-1.56166,1.09371,-11.92,0.0830386,7.39415,-10.129,-5.24332,-3.4349,18.2976,-7.20681,2.95102,7.52595,-3.42334,0.838132,1.28962e-14,-1.43125e-14,-44.4842,-1.97571,-83.6901,25.3131,9.6861,-11.9244,22.637,7.12502,14.1298,-6.86252,1.28962e-14,-1.43125e-14,-33.8861,-2.2738,88.6338,29.9141,4.76894,-6.37847,18.7305,7.12502,19.4685,47.7758,-36.8195,7.3646,12.2823,44.6602,-8.67809,-8.14092,21.634,3.29856,-15.335,-34.6793,16.9505,-17.1257,11.6937,7.26302
-0.178125,16.329,-14.9133,1.14293,-1.08772,6.47393,13.2892,0.141885,-10.2106,-4.09204,-1.54667,0.990775,-11.7903,0.072958,7.25067,-10.3962,-5.26305,-3.49158,18.4822,-7.25739,3.12322,7.64492,-3.42998,0.888657,-4.88265e-15,-1.19271e-14,-44.5786,-2.24745,-83.802,25.354,9.70579,-12.1471,22.9959,7.12502,13.9152,-6.51846,-4.88265e-15,-1.19271e-14,-33.7478,-2.51914,88.6611,30.4858,4.95267,-6.35697,18.9466,7.12502,19.4892,47.9898,-36.6194,8.52006,11.611,42.0443,-9.23667,-8.63021,23.6004,4.48272,-15.3665,-34.8959,15.5533,-16.8665,11.9764,5.91316
-0.188039,16.3366,-14.7961,1.26669,-0.945386,6.46529,13.284,0.100321,-10.2636,-4.1236,-1.60975,1.02289,-11.8096,0.0511022,7.33181,-10.4698,-5.31181,-3.61592,18.6357,-7.32894,3.23472,7.72054,-3.4598,0.933978,1.86361e-16,5.56597e-15,-44.821,-2.09542,-83.9998,25.5553,9.42857,-11.3746,23.1788,7.12502,14.6597,-6.28298,1.86361e-16,5.56597e-15,-33.7102,-2.339,88.6263,30.881,4.75201,-6.12657,18.5745,7.12502,19.7107,47.5952,-36.3822,9.84728,10.9805,39.4894,-9.70305,-9.5917,23.4452,5.84422,-15.4444,-34.9331,13.8037,-16.4092,12.047,4.91987
-0.200333,16.3479,-14.6844,1.53277,-0.738842,6.51941,13.3032,0.049591,-10.3828,-4.22268,-1.70336,1.06183,-11.9148,0.0284585,7.46816,-10.7075,-5.40237,-3.6382,18.7026,-7.42832,3.15091,7.78653,-3.51215,0.892482,1.8077e-14,7.15625e-15,-44.8886,-2.05345,-84.0933,25.5816,9.462,-9.8408,23.4585,7.12502,16.137,-5.88967,1.8077e-14,7.15625e-15,-33.6333,-2.44476,88.7711,31.037,4.8203,-6.09154,18.0117,7.12502,19.7444,47.029,-36.3132,11.2414,10.1389,36.9927,-10.1874,-10.771,22.8088,7.19133,-15.6019,-34.993,11.8131,-15.7711,12.1867,3.73706
-0.208992,16.3582,-14.5692,1.76806,-0.613265,6.67863,13.2044,0.00690562,-10.5054,-4.2655,-1.77928,1.01349,-11.8895,-0.000696449,7.49753,-10.9611,-5.47567,-3.5335,18.7764,-7.50722,2.96891,7.84776,-3.55492,0.799851,-1.42628e-14,-2.38542e-15,-44.831,-2.22618,-84.121,25.494,9.99574,-9.10277,22.8008,7.12502,16.8475,-6.48839,-1.42628e-14,-2.38542e-15,-33.5483,-2.88142,88.9822,31.3239,5.51195,-6.43269,18.0583,7.12502,19.4164,47.1089,-36.2248,12.7688,9.06551,34.5504,-10.8765,-11.9776,23.6443,8.70447,-15.5303,-35.1793,9.60034,-15.0979,12.0984,3.00296
-0.226033,16.3638,-14.4417,1.86762,-0.792187,6.53175,12.955,0.0415979,-10.4804,-4.23265,-1.69061,1.06466,-11.7191,0.029126,7.51088,-10.9952,-5.51964,-3.57665,18.8649,-7.55046,2.9108,7.88416,-3.58264,0.781206,1.07344e-14,7.15625e-15,-44.9406,-2.27528,-84.1901,25.558,10.2351,-9.22615,22.0875,7.12502,16.7287,-7.21172,1.07344e-14,7.15625e-15,-33.5257,-2.88053,89.0119,31.7184,5.89038,-6.42933,18.1717,7.12502,19.4196,47.222,-36.129,14.9733,8.23501,32.2945,-11.5649,-13.5116,24.2736,10.6662,-15.123,-35.0116,6.81819,-14.4139,11.8868,3.89191
-0.250738,16.3735,-14.3124,1.87159,-1.17068,6.17943,12.8431,0.15789,-10.4269,-4.24299,-1.49448,1.22429,-11.7023,0.125244,7.61423,-10.5993,-5.46872,-3.81769,18.6006,-7.49266,3.18643,7.74459,-3.55433,0.930328,-2.57178e-15,-2.38542e-15,-45.2016,-2.18194,-84.2856,25.5974,10.2452,-9.10801,22.2988,7.12502,16.8425,-6.99081,-2.57178e-15,-2.38542e-15,-33.6591,-2.73138,89.0245,32.0726,5.94932,-6.20766,18.2769,7.12502,19.6327,47.3056,-36.1886,17.7064,7.49992,30.3623,-12.1849,-15.1423,26.8699,14.9982,-14.5069,-34.5483,4.77083e-14,-11.8639,11.9089,3.54757
-0.262835,16.3705,-14.1882,2.01479,-1.04441,6.18141,12.7952,0.137332,-10.4104,-4.36299,-1.52149,1.2144,-11.8069,0.122219,7.60064,-10.1057,-5.45324,-4.01705,18.2229,-7.50559,3.53603,7.55455,-3.55303,1.09255,-4.12478e-15,1.59028e-14,-45.5096,-2.38975,-84.2255,25.6154,10.6246,-9.21912,21.6504,7.12502,16.7355,-7.64829,-4.12478e-15,1.59028e-14,-33.804,-2.93605,89.1403,32.254,6.07904,-6.38446,18.2912,7.12502,19.4627,47.3371,-36.4528,19.7706,6.27766,28.8538,-12.9532,-16.6442,28.5888,15.3479,-14.4065,-34.5574,2.70347e-14,-12.1025,11.7374,2.61102
-0.268555,16.3681,-14.0518,2.05744,-0.244682,6.48221,12.8273,-0.0721177,-10.4343,-4.39789,-1.83058,1.05754,-11.8042,-0.0291599,7.50576,-9.95771,-5.48717,-3.92961,18.0235,-7.58021,3.61911,7.46567,-3.5794,1.10391,-9.7653e-15,-4.13472e-14,-45.8103,-2.47948,-84.3666,25.8621,10.1929,-9.54578,21.0529,7.12502,16.421,-8.2721,-9.7653e-15,-4.13472e-14,-33.7872,-3.12107,89.1869,32.2786,6.27816,-6.59203,17.5728,7.12502,19.2632,46.6388,-36.4417,21.2486,4.83812,27.7624,-13.9305,-18.2778,29.3285,15.9357,-14.9301,-34.9741,-9.54166e-15,-12.2829,11.6478,1.32877
-0.27185,16.3552,-13.9277,2.30763,-0.271107,6.778,12.6941,-0.0584512,-10.6107,-4.4382,-1.8392,0.974024,-11.7701,-0.0248649,7.50968,-10.013,-5.50901,-3.86609,17.877,-7.60034,3.55677,7.42337,-3.59069,1.07139,8.31168e-15,-7.95139e-16,-45.9489,-2.13399,-84.7279,26.1561,9.00854,-9.48317,20.7718,7.12502,16.4813,-8.5482,8.31168e-15,-7.95139e-16,-33.5939,-2.98989,89.2122,32.2852,6.40221,-6.60583,17.4932,7.12502,19.2499,46.5605,-37.1087,22.1671,3.67331,27.0447,-14.1739,-18.8836,29.4791,16.1736,-14.7076,-35.3137,-9.54166e-15,-12.5995,11.4883,0.605876
-0.286387,16.3446,-13.8045,2.57803,0.136404,6.9874,12.7276,-0.152788,-10.6978,-4.63386,-2.00497,0.909869,-11.9833,-0.0779265,7.52894,-9.79583,-5.61313,-3.84967,17.8354,-7.72984,3.44011,7.37099,-3.6657,1.02479,-4.58447e-15,-3.18055e-15,-46.4141,-1.92107,-84.9337,26.3782,8.46242,-9.38848,20.2459,7.12502,16.5725,-9.06648,-4.58447e-15,-3.18055e-15,-33.8736,-2.70208,89.1832,32.6248,6.00377,-6.05764,18.107,7.12502,19.7769,47.1208,-37.6132,22.9686,2.63082,26.5332,-15.2647,-19.4596,30.8101,16.4077,-14.9228,-35.4926,-1.59028e-14,-12.9636,11.2965,-0.0385909
-0.306628,16.3351,-13.6807,2.79514,0.506415,6.98659,12.9345,-0.222054,-10.6248,-4.89044,-2.12878,0.892342,-12.3827,-0.105755,7.51044,-9.8076,-5.67614,-3.75865,18.0431,-7.81045,3.27787,7.43363,-3.71061,0.947084,-5.51627e-15,-4.77083e-15,-47.0676,-1.87988,-84.9776,26.5455,8.50633,-9.34612,21.1019,7.12502,16.6132,-8.20708,-5.51627e-15,-4.77083e-15,-34.349,-2.3651,89.0997,32.9449,5.48837,-5.75121,17.9191,7.12502,20.0715,46.9024,-37.98,23.8031,1.94035,26.0639,-16.4429,-19.962,31.8308,16.6764,-15.0869,-35.4312,-2.22639e-14,-13.177,11.1302,-1.29754
-0.322421,16.3208,-13.5513,2.90909,0.597328,7.02662,12.8675,-0.211832,-10.6013,-4.83683,-2.10021,0.882585,-12.286,-0.103426,7.47517,-10.2877,-5.71348,-3.80862,18.2564,-7.84197,3.25766,7.59151,-3.7211,0.928504,-3.65267e-15,-4.77083e-15,-46.9688,-1.88935,-85.0489,26.3976,8.52028,-8.89552,21.2905,7.12502,17.047,-7.98155,-3.65267e-15,-4.77083e-15,-34.0513,-2.36987,89.194,32.6829,5.43141,-5.79647,17.825,7.12502,20.028,46.8128,-38.1892,24.3299,1.52089,25.6907,-17.4543,-20.0105,32.2861,17.0546,-14.9507,-35.458,-2.54444e-14,-13.4624,10.9106,-1.57236
-0.337097,16.3025,-13.4158,2.98232,0.676999,6.96776,12.5525,-0.262625,-10.5562,-4.67542,-2.10387,0.953131,-11.9044,-0.137535,7.51139,-10.3575,-5.78394,-3.85958,17.99,-7.92521,3.30873,7.52406,-3.76072,0.945578,3.12216e-14,7.95139e-15,-46.5922,-1.91718,-85.0556,26.1061,8.77666,-8.60548,20.7777,7.12502,17.3262,-8.47003,3.12216e-14,7.95139e-15,-33.5528,-2.29166,89.297,32.2056,5.53417,-5.96925,18.0155,7.12502,19.8619,47.0205,-38.1642,24.5611,1.47287,25.3963,-18.4069,-19.9972,31.4868,17.4909,-14.7882,-35.394,3.81667e-14,-13.7216,10.72,-1.38672
-0.357135,16.2817,-13.2836,3.06069,0.826801,6.96798,12.4462,-0.280456,-10.5611,-4.58196,-2.10618,0.987456,-11.73,-0.152039,7.546,-10.5254,-5.82555,-3.95374,17.8027,-7.98037,3.46049,7.50514,-3.77839,1.00108,-7.56624e-15,3.57812e-14,-46.363,-1.97052,-85.0252,25.8529,8.99779,-9.17285,21.3964,7.12502,16.7801,-7.89849,-7.56624e-15,3.57812e-14,-33.4182,-2.2152,89.4187,32.2662,5.71071,-6.25172,18.2678,7.12502,19.5904,47.3007,-38.0577,24.4442,1.59892,25.2916,-19.1687,-18.9599,34.7038,17.9287,-14.7036,-35.3575,-3.18055e-15,-13.864,10.5836,-1.74246
