JuanDHNZ/ProyectoFinalCD/preprocessing/sports_trials_csv/12_01.csv
root1,root2,root3,root4,root5,root6,lowerback1,lowerback2,lowerback3,upperback1,upperback2,upperback3,thorax1,thorax2,thorax3,lowerneck1,lowerneck2,lowerneck3,upperneck1,upperneck2,upperneck3,head1,head2,head3,rclavicle1,rclavicle2,rhumerus1,rhumerus2,rhumerus3,rradius1,rwrist1,rhand1,rhand2,rfingers1,rthumb1,rthumb2,lclavicle1,lclavicle2,lhumerus1,lhumerus2,lhumerus3,lradius1,lwrist1,lhand1,lhand2,lfingers1,lthumb1,lthumb2,rfemur1,rfemur2,rfemur3,rtibia1,rfoot1,rfoot2,rtoes1,lfemur1,lfemur2,lfemur3,ltibia1,lfoot1,lfoot2,ltoes1
0.0265202,16.2134,-25.4911,0.434917,-2.05064,5.16773,13.8853,0.636769,-9.00563,-4.1066,-0.706888,1.13951,-12.3257,0.417864,6.55373,-9.03167,-4.69675,-2.89357,17.859,-6.37147,1.98293,7.10797,-3.08946,0.553542,2.43511e-15,3.97569e-15,-39.7789,-1.21559,-82.324,31.7378,0.253266,-9.50368,18.7611,7.12502,16.4615,-10.5605,2.43511e-15,3.97569e-15,-27.4574,2.71111,85.7239,25.5218,4.05263,-6.29368,19.1013,7.12502,19.55,48.1384,-33.4346,4.39129,14.5885,52.2675,-9.14374,-6.08813,-10.4433,-1.45326,-12.6384,-33.9221,22.317,-16.8723,10.0168,15.625
0.0270631,16.2177,-25.3942,0.666568,-2.22516,5.16895,14.064,0.569335,-9.25205,-4.38004,-0.853233,1.33067,-12.7251,0.411333,6.9571,-8.70938,-4.47387,-3.31707,17.9305,-6.04634,2.18378,7.0858,-2.94769,0.723811,-1.22253e-14,-7.15625e-15,-40.1455,-1.29032,-81.9668,30.9333,0.718582,-9.4333,19.1309,7.12502,16.5293,-10.1851,-1.22253e-14,-7.15625e-15,-28.0729,2.99215,85.9165,26.1448,4.09336,-6.37136,18.6,7.12502,19.4753,47.6446,-33.7715,5.14999,14.3716,49.9202,-8.37797,-6.5586,-11.7325,-0.806924,-12.5814,-33.9779,21.4069,-16.9265,10.0067,15.643
0.028095,16.2206,-25.2848,0.721885,-2.2087,5.30278,13.9274,0.514626,-9.35306,-4.29182,-0.931831,1.29711,-12.5249,0.365661,6.98999,-8.9687,-4.44098,-3.47762,18.0479,-6.01016,2.39516,7.18051,-2.91938,0.814025,-1.22253e-14,-5.56597e-15,-40.2914,-1.60066,-81.7976,30.4895,0.883138,-9.53139,18.9444,7.12502,16.4349,-10.3794,-1.22253e-14,-5.56597e-15,-27.9552,2.83538,86.0402,26.5031,4.07909,-6.62945,17.7941,7.12502,19.2272,46.8636,-33.8266,5.8553,13.9794,47.6411,-7.61834,-7.02102,-11.2355,0.339708,-12.6428,-34.2354,20.095,-16.7232,10.0978,15.1345
0.0277602,16.2278,-25.1698,0.787558,-1.87084,5.33874,13.7306,0.402863,-9.20758,-4.11549,-1.03972,1.17616,-12.1805,0.270555,6.78535,-9.37733,-4.47002,-3.30811,17.887,-6.0868,2.53867,7.20199,-2.92812,0.81734,-1.19768e-14,2.38542e-15,-40.3286,-2.50394,-81.5314,30.0334,1.46148,-9.61497,18.753,7.12502,16.3544,-10.5775,-1.19768e-14,2.38542e-15,-27.5258,2.742,85.9777,26.9191,4.02803,-6.39537,17.3011,7.12502,19.4522,46.3481,-33.6604,6.44485,13.642,45.2758,-7.11879,-7.53366,-10.8527,1.46199,-12.8085,-34.35,18.8806,-16.4966,10.0861,14.6227
0.0271673,16.2387,-25.0582,0.882042,-1.5381,5.5121,13.7406,0.239608,-9.46147,-4.24715,-1.30778,1.23425,-12.2865,0.17785,7.06239,-8.84692,-4.4416,-3.48338,17.5958,-6.03453,2.58131,7.01922,-2.91885,0.87941,-7.1811e-15,3.97569e-15,-40.8335,-2.78344,-81.1096,29.5012,1.88571,-9.60988,18.9496,7.12502,16.3593,-10.3804,-7.1811e-15,3.97569e-15,-27.8267,2.67735,86.1539,27.5621,4.23838,-6.20207,17.6008,7.12502,19.6381,46.6289,-33.5788,7.09035,13.0833,42.934,-6.46019,-8.10307,-11.9948,2.50962,-12.9802,-34.5828,17.6754,-16.317,10.006,14.7371
0.0216508,16.2391,-24.9623,1.16394,-1.9727,5.46964,13.6488,0.324824,-9.65605,-4.44508,-1.21773,1.3397,-12.4786,0.260165,7.2744,-8.33164,-4.40023,-3.66373,17.3912,-5.97792,2.67694,6.86926,-2.90245,0.958214,9.83984e-15,-1.43125e-14,-41.3607,-3.06867,-80.7037,28.9664,2.30316,-9.55486,18.939,7.12502,16.4123,-10.3866,9.83984e-15,-1.43125e-14,-28.0353,2.43546,86.366,28.1029,4.48164,-6.11223,18.1288,7.12502,19.7245,47.148,-33.94,8.42163,12.6772,40.5544,-5.77201,-8.68611,-10.5968,3.18077,-12.7911,-34.5771,16.5865,-16.2745,10.1914,14.677
0.0149178,16.2354,-24.8634,1.44136,-2.08828,5.41866,13.6091,0.404522,-9.62835,-4.4895,-1.10738,1.3041,-12.5294,0.312679,7.19193,-8.5403,-4.43862,-3.47824,17.2895,-6.04986,2.6831,6.86982,-2.92244,0.919627,1.36664e-14,-7.95139e-15,-41.6432,-3.97373,-80.3092,28.4969,2.84721,-9.4213,18.4645,7.12502,16.5409,-10.8505,1.36664e-14,-7.95139e-15,-27.8276,1.71944,86.5798,28.607,5.0644,-6.01874,18.4525,7.12502,19.8143,47.4626,-34.0466,9.61694,12.21,38.2338,-5.59986,-9.34298,-8.28546,3.95108,-12.7547,-34.549,15.4023,-16.0624,10.2702,14.2111
0.00975627,16.2396,-24.754,1.55594,-2.1401,5.32196,13.622,0.361913,-9.56568,-4.50678,-1.14904,1.35649,-12.5479,0.292659,7.22608,-8.67624,-4.45277,-3.48795,17.3094,-6.05875,2.65266,6.89985,-2.92824,0.907289,5.46658e-15,8.74653e-15,-41.9791,-4.50857,-79.9524,27.9974,3.52655,-9.64942,19.5986,7.12502,16.3212,-9.73455,5.46658e-15,8.74653e-15,-27.725,1.41595,86.69,29.0833,5.58647,-5.89841,18.6359,7.12502,19.93,47.6339,-33.9125,11.0508,11.7171,35.9865,-5.78928,-10.3105,-7.07614,4.91201,-12.8316,-34.5427,14.3051,-15.8618,10.5738,13.2407
0.00784283,16.2502,-24.6321,1.502,-1.32931,5.41532,13.6967,0.0427268,-9.44058,-4.4906,-1.56776,1.30964,-12.4901,0.0788558,7.20086,-8.41122,-4.51145,-3.62022,17.1239,-6.15045,2.81135,6.80596,-2.97183,0.979124,1.74682e-14,-1.43125e-14,-42.4138,-5.09211,-79.4927,27.412,4.27785,-10.0194,21.9713,7.12502,15.965,-7.3908,1.74682e-14,-1.43125e-14,-27.908,1.17692,86.7923,29.5714,5.63647,-5.8226,18.9014,7.12502,20.0029,47.8918,-33.4311,12.105,10.965,33.9555,-6.41905,-11.6993,-7.12632,6.42522,-13.3187,-34.7279,12.7492,-15.3823,10.4711,12.2456
-0.0111033,16.241,-24.5281,1.92619,-2.44058,5.61957,13.2008,0.509256,-9.93501,-4.48611,-0.992563,1.18169,-12.3054,0.370436,7.18945,-8.55947,-4.62268,-3.46051,16.8782,-6.33838,2.94844,6.75866,-3.04016,0.978858,3.08116e-15,-1.66979e-14,-42.6936,-6.30862,-78.925,26.9519,5.01354,-10.0556,23.0261,7.12502,15.9301,-6.3388,3.08116e-15,-1.66979e-14,-27.8222,0.810701,86.8788,30.0558,5.2762,-5.31739,19.5325,7.12502,20.4884,48.4715,-34.2875,13.9523,10.0986,32.0871,-6.28221,-12.2846,-8.77955,7.36394,-12.7052,-34.9923,10.9621,-15.1005,10.9838,11.3639
-0.0118388,16.244,-24.4046,1.91782,-1.49137,5.95123,13.2942,0.321828,-9.88211,-4.32285,-1.26646,0.921692,-12.1197,0.206008,6.92694,-9.19398,-4.73873,-3.22518,17.0882,-6.5301,2.98584,6.93742,-3.10438,0.917797,3.23025e-16,1.55052e-14,-42.8594,-7.45383,-78.4872,26.516,5.66277,-10.1549,23.4812,7.12502,15.8344,-5.89128,3.23025e-16,1.55052e-14,-27.4283,0.388747,86.9799,30.3232,5.28407,-4.60743,20.4286,7.12502,21.1706,49.2927,-33.9669,14.7644,9.00178,30.4333,-7.50072,-13.4583,-8.22243,9.20415,-13.2791,-35.4056,8.7856,-14.4381,10.7489,11.262
-0.0214849,16.2373,-24.3037,2.24729,-1.99839,5.98575,13.1853,0.549872,-10.0572,-4.43624,-0.988115,0.901237,-12.2431,0.361538,6.93931,-9.33886,-4.86788,-3.19148,17.1604,-6.71101,2.9817,6.99099,-3.18689,0.889852,-5.20567e-15,2.98177e-14,-43.252,-8.34979,-77.9077,25.9047,6.33414,-10.0607,24.14,7.12502,15.9252,-5.22524,-5.20567e-15,2.98177e-14,-27.4573,0.0326595,87.1854,30.6239,5.62164,-4.74328,20.5022,7.12502,21.0401,49.3808,-34.6525,15.9222,8.31517,28.9205,-7.81646,-13.9101,-8.5452,10.6377,-12.5242,-35.3861,6.28133,-13.6566,10.5185,11.1652
-0.0351951,16.2399,-24.1934,2.49703,-2.12986,5.97279,13.1015,0.595163,-10.2669,-4.54326,-0.949255,1.00994,-12.3259,0.411319,7.17314,-9.11272,-4.94468,-3.31841,16.8485,-6.7961,3.01377,6.85924,-3.23859,0.921664,-1.53064e-14,3.97569e-16,-43.7487,-8.77276,-77.4431,25.2383,5.72696,-9.96162,24.6932,7.12502,16.0206,-4.66441,-1.53064e-14,3.97569e-16,-27.6845,-0.149825,87.4322,30.8656,5.6944,-5.20311,19.6351,7.12502,20.5983,48.5622,-35.1303,17.3603,7.55705,27.6152,-8.37306,-14.8014,-9.70853,14.3521,-12.1209,-35.2496,6.83819e-14,-11.2023,10.2626,10.627
-0.0436009,16.2431,-24.0711,2.64383,-1.9123,5.9586,13.0906,0.494951,-10.313,-4.63405,-1.08446,1.11311,-12.396,0.364756,7.34901,-9.00177,-4.89225,-3.49946,16.7328,-6.71322,3.1201,6.8099,-3.20352,0.996407,-1.07344e-14,1.74931e-14,-44.252,-8.95353,-77.0587,24.6365,5.2679,-9.85723,23.1845,7.12502,16.1211,-6.16502,-1.07344e-14,1.74931e-14,-27.9331,-0.155805,87.6217,31.0682,5.73694,-4.96822,19.695,7.12502,20.8239,48.5974,-35.3918,18.8783,6.69968,26.5182,-9.42617,-15.9602,-9.05881,14.6899,-12.0205,-35.2022,4.13472e-14,-11.401,9.9383,9.54689
-0.053737,16.2395,-23.9424,2.6414,-1.22921,6.05825,13.2735,0.223217,-10.3735,-4.7602,-1.48231,1.18093,-12.5686,0.202161,7.56085,-8.82523,-4.73894,-3.81151,16.8506,-6.49723,3.3059,6.82606,-3.1054,1.12928,5.23052e-15,-1.51076e-14,-44.9396,-8.856,-76.7183,24.2831,5.25346,-9.49792,19.694,7.12502,16.4671,-9.62712,5.23052e-15,-1.51076e-14,-28.2915,0.277581,87.6567,31.2455,5.6224,-4.62633,19.9804,7.12502,21.1524,48.8465,-35.332,20.1471,5.79256,25.5947,-10.9345,-17.2365,-6.10367,15.2514,-12.3351,-35.3044,3.49861e-14,-11.587,9.62772,8.81583
-0.0671406,16.2376,-23.8121,2.57543,-0.355614,6.16289,13.3526,-0.036414,-10.2784,-4.69795,-1.82955,1.0978,-12.4714,0.0175936,7.49209,-8.81349,-4.75891,-3.81218,16.7282,-6.54362,3.43755,6.79089,-3.11779,1.16853,1.64743e-14,3.4191e-14,-45.4742,-9.59771,-76.1657,23.8082,5.85823,-9.10943,18.1068,7.12502,16.8411,-11.1829,1.64743e-14,3.4191e-14,-28.2648,0.266564,87.6417,31.2608,5.44973,-4.66696,19.7606,7.12502,21.1134,48.6311,-35.0898,21.3226,4.98688,24.8361,-11.4181,-18.7823,-7.0328,15.8537,-12.826,-35.3774,1.90833e-14,-11.7826,9.18348,9.41741
-0.0872527,16.2262,-23.7068,2.8596,-1.03859,6.13728,13.1132,0.299403,-10.335,-4.62941,-1.36928,0.981524,-12.3462,0.22176,7.27752,-9.19849,-4.94606,-3.5868,16.6781,-6.83236,3.49844,6.8477,-3.23224,1.1158,1.19022e-14,-2.26615e-14,-45.7386,-10.6248,-75.6893,23.3091,6.38967,-8.94279,17.9734,7.12502,17.0015,-11.3025,1.19022e-14,-2.26615e-14,-27.9362,-0.448484,87.7635,31.2832,5.83843,-5.05712,19.745,7.12502,20.7385,48.6569,-35.929,22.1912,4.56763,24.2473,-12.2216,-18.7407,-6.10772,15.8795,-11.9099,-35.193,-2.8625e-14,-12.0949,8.76351,9.99907
-0.108357,16.2217,-23.5918,3.11456,-0.986133,6.13098,12.9801,0.308769,-10.4239,-4.64274,-1.35713,0.987708,-12.2838,0.231296,7.32844,-9.41059,-5.03513,-3.58873,16.7784,-6.96363,3.56307,6.92468,-3.28593,1.11813,2.3792e-15,1.82882e-14,-46.0657,-10.5741,-75.6009,22.789,5.99047,-8.91064,17.8757,7.12502,17.0325,-11.3976,2.3792e-15,1.82882e-14,-27.9281,-0.630956,87.817,31.406,6.23091,-5.27447,19.6693,7.12502,20.5297,48.6038,-36.3876,22.73,4.19019,23.7726,-12.1607,-18.9988,-6.86632,16.0942,-11.6956,-35.0423,6.36111e-15,-12.2674,8.44196,9.23559
-0.127125,16.2168,-23.4686,3.2481,-0.539654,6.27553,12.8628,0.14679,-10.5995,-4.67807,-1.59049,1.02614,-12.2034,0.133118,7.52106,-9.03342,-4.99217,-3.88936,16.4546,-6.89993,3.81855,6.772,-3.26107,1.26675,4.01297e-15,-1.59028e-14,-46.418,-10.3235,-75.4037,21.8321,5.81025,-9.00939,18.4661,7.12502,16.9374,-10.8154,4.01297e-15,-1.59028e-14,-28.0986,-0.208046,87.8138,31.4221,6.22608,-5.2438,19.5358,7.12502,20.5592,48.4671,-36.4404,23.1826,3.71769,23.3641,-12.4892,-19.48,-6.77859,16.4805,-11.8347,-35.0847,-6.36111e-15,-12.3702,8.05489,8.90419
-0.142613,16.2103,-23.3395,3.15606,0.302321,6.29049,13.0274,-0.12493,-10.4605,-4.69488,-1.94941,1.04642,-12.2453,-0.0427472,7.55063,-8.6634,-4.96304,-4.11971,16.1497,-6.86233,4.03965,6.62413,-3.2472,1.3897,-1.36664e-15,2.14687e-14,-46.8534,-11.1415,-74.5529,20.8512,6.82848,-8.97922,19.0612,7.12502,16.9664,-10.2178,-1.36664e-15,2.14687e-14,-28.5562,0.255348,87.7981,31.574,5.98453,-4.9949,19.5525,7.12502,20.7983,48.4578,-36.0534,23.8621,3.3974,23.1606,-13.4515,-20.1227,-5.4351,17.1657,-12.2941,-35.0209,-1.27222e-14,-12.3683,7.61422,8.50235
-0.147057,16.1975,-23.2197,3.50793,0.446417,6.37437,12.7545,-0.185319,-10.2497,-4.75495,-1.97572,0.941784,-12.1494,-0.081935,7.30713,-9.06766,-5.04934,-3.9561,16.148,-6.9835,3.99053,6.69186,-3.29331,1.32632,1.84497e-15,2.8625e-14,-47.196,-12.629,-73.5099,20.2116,8.49559,-8.91644,19.0699,7.12502,17.0269,-10.2039,1.84497e-15,2.8625e-14,-28.6878,0.50754,87.7142,31.3721,5.50571,-4.9386,19.0173,7.12502,20.8524,47.9167,-36.2947,22.8809,3.58432,23.1173,-12.9201,-18.9005,-5.00261,17.241,-12.1874,-34.9931,-1.59028e-14,-12.2193,7.28746,6.77511
-0.175633,16.1799,-23.0866,3.54397,0.280982,6.31617,12.6801,-0.0353171,-10.3094,-4.61809,-1.77024,0.917424,-11.9883,0.00298166,7.26266,-9.8054,-5.15997,-3.75695,16.2924,-7.14448,3.96093,6.86573,-3.3479,1.24935,1.07219e-14,-2.38542e-15,-47.5388,-13.6191,-72.8795,19.9074,9.1897,-8.57784,19.0859,7.12502,17.3528,-10.1595,1.07219e-14,-2.38542e-15,-28.4335,0.335433,87.7361,30.992,5.45841,-5.29946,18.489,7.12502,20.5057,47.4261,-36.1883,22.4592,4.13731,23.103,-12.5974,-17.7704,-2.79743,17.7013,-11.7101,-34.8064,-6.36111e-15,-12.2945,6.98828,5.04432
-0.198719,16.1681,-22.9562,3.6346,0.605702,6.32522,12.8298,-0.0886188,-10.3673,-4.71724,-1.87002,0.970702,-12.1716,-0.0209488,7.38626,-9.40658,-5.15776,-3.90387,16.1226,-7.13324,4.02347,6.7487,-3.3541,1.30595,-8.06942e-15,-1.35174e-14,-48.3822,-14.1549,-72.0009,19.6746,9.66423,-7.99374,19.484,7.12502,17.9149,-9.71085,-8.06942e-15,-1.35174e-14,-28.6583,0.273755,87.8787,30.7726,5.77234,-5.40037,18.8808,7.12502,20.4087,47.8283,-35.9903,22.1478,4.44528,23.2513,-12.7418,-16.8995,1.75456,18.0813,-11.7294,-34.6471,-6.99722e-14,-12.2541,6.58528,4.75889
-0.224332,16.1459,-22.8405,3.7811,0.16998,6.30774,12.9138,0.0554451,-10.5336,-4.93128,-1.72328,1.02342,-12.5021,0.0948572,7.51791,-8.62578,-5.1303,-4.19707,15.9242,-7.10041,4.21186,6.5652,-3.35503,1.43821,-9.67833e-15,-5.56597e-15,-49.1435,-14.3194,-71.398,19.3812,10.0094,-7.56337,19.6618,7.12502,18.3289,-9.49463,-9.67833e-15,-5.56597e-15,-29.1359,0.551522,87.8428,30.4501,5.73414,-5.28965,19.0668,7.12502,20.5151,48.0029,-36.1404,21.5725,5.06197,23.5774,-11.4084,-15.5681,3.4701,18.28,-11.0289,-34.4532,-7.95139e-14,-12.1959,6.2001,4.14292
-0.246302,16.1327,-22.7035,3.71143,0.423011,6.44867,12.9313,-0.0990585,-10.7108,-4.94644,-1.95837,1.09651,-12.4763,0.00139109,7.75579,-8.4357,-5.01987,-4.37413,15.9,-6.91743,4.14835,6.52025,-3.28556,1.4681,-8.39865e-15,-1.59028e-14,-49.4673,-14.2097,-71.0475,19.0005,10.424,-7.41072,19.277,7.12502,18.4758,-9.86563,-8.39865e-15,-1.59028e-14,-29.4424,1.3793,87.6903,30.1285,5.54529,-5.51592,18.7313,7.12502,20.2976,47.6907,-35.7394,21.1558,5.43128,24.0532,-10.8156,-14.753,5.73334,18.8458,-10.9497,-34.4512,3.49861e-14,-12.0462,5.67125,4.42333
-0.272981,16.1395,-22.5474,3.58189,1.58206,6.47934,12.9284,-0.465533,-10.6005,-4.78715,-2.41593,1.14308,-12.1867,-0.247548,7.83989,-9.22642,-4.95143,-4.19635,15.9925,-6.79644,3.98216,6.67016,-3.21671,1.37691,1.40019e-14,7.95139e-16,-49.7374,-14.3199,-70.8226,18.8499,10.5709,-7.29162,18.5188,7.12502,18.5903,-10.6129,1.40019e-14,7.95139e-16,-29.5126,2.11616,87.5304,29.7438,4.88332,-5.7216,17.9789,7.12502,20.1,46.9592,-34.8687,20.7661,5.84541,24.5848,-10.364,-15.0122,6.22201,19.6294,-11.7337,-34.3033,-4.45278e-14,-11.8488,5.09569,5.91472
-0.299595,16.1316,-22.4174,3.61224,1.43464,6.42767,13.0208,-0.308649,-10.4872,-4.77383,-2.20188,1.07801,-12.2778,-0.152899,7.65907,-9.01694,-5.09147,-4.30539,15.8231,-6.99543,4.12237,6.59724,-3.31217,1.42747,2.31646e-14,5.56597e-15,-50.1923,-15.1348,-70.2158,18.4466,11.0614,-7.25813,18.5642,7.12502,18.6225,-10.5644,2.31646e-14,5.56597e-15,-29.6132,2.05324,87.4846,29.1181,4.37009,-5.88593,17.3131,7.12502,19.942,46.3098,-34.9127,20.2705,6.43031,25.2141,-8.45848,-14.7523,5.22992,20.0766,-11.2759,-34.1287,5.725e-14,-11.6225,4.86322,4.43794
-0.332007,16.1212,-22.2898,3.85557,0.644521,6.30387,12.8845,0.00342352,-10.5111,-4.89398,-1.78141,1.0401,-12.4276,0.0600854,7.53473,-9.25005,-5.19927,-4.1141,16.005,-7.14915,3.98468,6.69077,-3.38085,1.33108,-8.79001e-15,-9.54166e-15,-50.8481,-15.9004,-69.477,18.0921,11.7297,-6.91949,18.9743,7.12502,18.9483,-10.1228,-8.79001e-15,-9.54166e-15,-29.7873,2.12614,87.3129,28.3759,4.02051,-6.00373,17.2007,7.12502,19.8288,46.2092,-35.5723,20.2293,6.86893,25.9158,-6.97783,-14.317,6.59804,20.1878,-10.2619,-33.7759,-1.27222e-14,-11.4555,4.29833,5.22687
-0.362499,16.1166,-22.1421,3.74762,0.788456,6.30937,12.9438,0.0423478,-10.5221,-4.80152,-1.73851,0.988086,-12.3659,0.0707872,7.47245,-9.28081,-5.35797,-3.95522,15.942,-7.36588,3.85777,6.6744,-3.48607,1.24481,-1.20513e-15,0,-51.3829,-16.5832,-68.7998,17.8099,12.1947,-6.83982,19.1623,7.12502,19.0249,-9.9273,-1.20513e-15,0,-29.8348,2.05388,87.237,27.9312,4.09762,-6.01055,18.0793,7.12502,19.8222,47.0885,-35.4151,20.3472,7.11615,26.6317,-6.57355,-14.6066,9.08111,20.7674,-10.081,-33.5788,9.54166e-15,-11.1968,3.57035,8.73099
-0.393474,16.1164,-21.9843,3.58543,1.51638,6.37658,13.1592,-0.16686,-10.5522,-4.82621,-2.05001,1.01595,-12.4575,-0.0647444,7.60033,-9.02543,-5.31785,-4.07048,15.858,-7.30936,3.92408,6.60756,-3.46508,1.29737,-1.04548e-14,-1.11319e-14,-51.7947,-17.1549,-67.9353,17.1373,12.8241,-6.92426,19.6152,7.12502,18.9437,-9.48233,-1.04548e-14,-1.11319e-14,-30.2957,2.53341,87.0803,27.4457,3.66706,-5.95668,18.2639,7.12502,19.874,47.2677,-34.8856,20.1682,7.37976,27.3879,-6.28676,-15.2345,9.06103,21.6063,-10.4304,-33.564,-8.26944e-14,-10.6694,3.54951,4.86075
-0.424575,16.1157,-21.8416,3.59302,2.0036,6.15531,13.2719,-0.336247,-10.2752,-4.90321,-2.2347,1.1022,-12.5764,-0.15848,7.5886,-9.03645,-5.21332,-4.30128,15.9786,-7.17932,4.17952,6.66062,-3.39434,1.4263,2.14315e-14,-1.03368e-14,-52.1401,-17.9802,-66.8273,16.3238,14.0781,-7.11981,20.2287,7.12502,18.7556,-8.8871,2.14315e-14,-1.03368e-14,-30.8989,3.45963,86.7466,26.9006,2.58004,-6.05562,17.7554,7.12502,19.7789,46.769,-34.5996,19.233,8.21242,28.1898,-5.31357,-15.2088,7.28435,22.1777,-10.5778,-33.2089,4.45278e-14,-10.0328,3.58128,-0.62197
-0.455194,16.1148,-21.7058,3.66884,2.32441,5.97799,13.2567,-0.450271,-10.0519,-4.96325,-2.34167,1.15921,-12.6157,-0.219262,7.55061,-8.85263,-5.19344,-4.43639,15.9293,-7.15319,4.28068,6.62037,-3.38504,1.4879,1.6027e-15,-3.97569e-15,-52.6097,-18.3494,-66.1688,15.9331,14.8659,-7.46203,20.5472,7.12502,18.4264,-8.60012,1.6027e-15,-3.97569e-15,-31.3319,4.17601,86.4397,26.3941,2.03512,-6.07163,17.5987,7.12502,19.7635,46.6139,-34.4865,18.2603,8.9854,29.0022,-4.48084,-15.0394,6.78123,22.552,-10.5997,-32.8174,0,-9.34571,3.27105,-1.58474
-0.486928,16.1133,-21.5548,3.63376,2.58391,5.70549,13.1959,-0.637491,-9.85272,-5.03071,-2.53216,1.34312,-12.6135,-0.3132,7.68702,-8.55675,-5.13746,-4.52301,15.8486,-7.03705,4.08069,6.5336,-3.35554,1.45717,-5.76476e-15,1.03368e-14,-52.9331,-17.7051,-66.2969,16.0509,14.0692,-7.01342,19.4674,7.12502,18.8579,-9.63845,-5.76476e-15,1.03368e-14,-31.9302,5.09411,86.0852,25.9219,1.78582,-5.93544,17.6893,7.12502,19.8944,46.6911,-34.1546,17.6248,9.83889,29.6904,-3.81982,-14.8639,6.58428,23.1133,-10.5385,-32.3389,9.54166e-15,-8.63028,2.96769,-2.60791
-0.520796,16.1142,-21.4018,3.54577,2.59069,5.47541,13.0714,-0.669081,-9.70674,-4.96035,-2.51903,1.43651,-12.4569,-0.327416,7.69715,-8.61189,-5.14089,-4.51639,15.8233,-7.02807,4.01422,6.53212,-3.35537,1.43456,6.00081e-15,2.94201e-14,-53.0281,-18.0821,-65.8457,15.8838,14.0466,-6.46417,18.3439,7.12502,19.3861,-10.7098,6.00081e-15,2.94201e-14,-32.3703,5.63834,85.8005,25.3847,1.30885,-6.08605,17.6147,7.12502,19.7496,46.6314,-33.8273,17.1293,10.6578,30.3067,-3.03555,-14.3914,6.03184,23.6699,-10.2282,-31.9042,-2.22639e-14,-7.8341,2.66133,-3.46357
-0.557666,16.1225,-21.2581,3.57716,2.61586,5.29785,12.9309,-0.686483,-9.64075,-4.90313,-2.50391,1.50663,-12.3063,-0.334426,7.72571,-8.92627,-5.08609,-4.44137,15.8853,-6.9551,4.01783,6.60075,-3.31011,1.42163,-6.1996e-15,1.27222e-14,-53.0895,-18.6148,-65.245,15.5687,14.4668,-6.20603,18.3041,7.12502,19.6343,-10.7244,-6.1996e-15,1.27222e-14,-32.7044,6.0085,85.593,24.8729,1.05481,-6.21403,17.707,7.12502,19.6266,46.7363,-33.6525,16.8431,11.3014,30.9128,-2.75353,-14.0461,4.84394,24.0195,-9.9705,-31.4754,-2.22639e-14,-6.86591,2.37232,-4.14574
-0.591153,16.1337,-21.105,3.4146,2.71287,5.07739,13.011,-0.764723,-9.56916,-4.89371,-2.58568,1.66845,-12.3213,-0.369457,7.89006,-9.03657,-4.97847,-4.361,15.937,-6.77892,3.79137,6.6178,-3.23662,1.34948,1.26601e-14,2.38542e-15,-53.2667,-18.9065,-64.5419,15.2011,15.0691,-6.20392,18.4106,7.12502,19.6363,-10.6177,1.26601e-14,2.38542e-15,-33.2926,6.67048,85.3836,24.5135,0.947329,-5.94524,18.4961,7.12502,19.885,47.4988,-33.143,16.6386,12.054,31.4901,-2.70878,-13.7593,1.81377,24.6066,-9.74489,-31.0365,-1.90833e-14,-5.72472,2.15164,-4.56015
-0.61667,16.1411,-20.9417,3.16259,2.60463,4.98031,13.05,-0.72371,-9.4861,-4.88321,-2.51318,1.71601,-12.3478,-0.337848,7.88256,-8.76148,-4.9778,-4.41808,15.9972,-6.76727,3.70256,6.58753,-3.24528,1.33791,2.24751e-14,6.36111e-15,-53.6506,-19.3367,-63.8427,14.9901,15.4126,-6.1141,18.0929,7.12502,19.7227,-10.9265,2.24751e-14,6.36111e-15,-33.9239,7.18056,85.1276,24.1089,0.755004,-5.6593,19.3228,7.12502,20.1598,48.2968,-32.5451,16.4272,12.697,32.0901,-2.85948,-13.2338,1.02795,23.5048,-9.25956,-30.7998,3.17182,-5.87969,1.75244,-5.00135
-0.646846,16.1456,-20.7936,3.06288,2.54775,4.80723,13.1089,-0.691127,-9.34275,-4.91556,-2.44754,1.74199,-12.4368,-0.309798,7.82008,-8.56296,-5.00993,-4.42762,16.0622,-6.81976,3.69759,6.57612,-3.27416,1.33764,1.2275e-14,-2.70347e-14,-54.0713,-19.5838,-63.4562,14.9806,15.4872,-5.90759,17.8259,7.12502,19.9212,-11.1731,1.2275e-14,-2.70347e-14,-34.4401,7.59481,84.8267,23.6943,0.692886,-5.6883,19.9038,7.12502,20.132,48.8807,-32.1349,16.2185,13.3546,32.6792,-3.1487,-12.8108,0.0684236,20.9438,-8.83372,-30.4047,8.44276,-6.62477,1.17243,-4.94358
-0.684891,16.1486,-20.6581,3.03221,2.87228,4.82678,13.3824,-0.690642,-9.35598,-4.94166,-2.48788,1.6647,-12.6279,-0.317646,7.76501,-8.90686,-5.08528,-4.22031,16.2678,-6.93901,3.63524,6.69726,-3.31785,1.26295,-1.48219e-14,-1.19271e-14,-54.205,-20.1042,-63.0757,14.7627,15.9058,-5.98642,17.9319,7.12502,19.8454,-11.0749,-1.48219e-14,-1.19271e-14,-34.7877,7.82727,84.5483,23.2938,0.459236,-5.57676,20.7912,7.12502,20.2392,49.7568,-31.7583,16.0199,13.7181,33.3138,-3.88148,-12.7592,0.99616,19.2692,-8.83898,-30.0828,11.8397,-6.27557,0.780481,-5.43491
-0.718926,16.1556,-20.5116,2.88968,3.12594,4.78677,13.5635,-0.688868,-9.27124,-4.97202,-2.49777,1.5959,-12.7761,-0.321785,7.65159,-9.14258,-5.1204,-4.18822,16.5003,-7.02448,3.81024,6.82183,-3.33758,1.29754,1.36416e-14,9.54166e-15,-54.4075,-21.3501,-61.8336,14.0192,17.3614,-6.46431,18.7551,7.12502,19.386,-10.2985,1.36416e-14,9.54166e-15,-35.3801,8.32438,84.044,22.547,-0.681808,-5.47563,20.7042,7.12502,20.3364,49.6594,-31.2085,15.929,14.1681,33.8602,-4.70901,-12.6508,1.02972,17.7224,-8.08718,-29.4604,15.083,-5.65264,-0.201975,-5.98734
-0.747896,16.1568,-20.356,2.66953,3.10304,4.82744,13.4366,-0.704252,-9.33868,-4.92693,-2.51599,1.59467,-12.641,-0.335689,7.68405,-8.8785,-5.03124,-4.48994,16.4136,-6.92334,4.16165,6.76683,-3.28342,1.47541,-8.44835e-16,0,-54.3973,-21.7749,-61.2342,13.5405,18.0376,-6.67677,19.2187,7.12502,19.1817,-9.85532,-8.44835e-16,0,-36.0497,9.52883,83.2386,21.4031,-2.42264,-5.70882,19.0165,7.12502,20.1122,47.9955,-30.5929,15.8359,14.5834,34.3221,-5.23206,-12.292,-0.70031,16.4823,-7.22502,-29.0686,18.159,-4.88161,-0.909644,-7.56152
-0.783578,16.1592,-20.2098,2.50069,3.20205,4.56684,13.3393,-0.730728,-9.11963,-4.81809,-2.49099,1.62894,-12.4626,-0.355865,7.58188,-8.64508,-5.01236,-4.51759,16.3313,-6.921,4.28926,6.70494,-3.27797,1.52735,1.00635e-14,2.46493e-14,-54.1303,-21.7691,-61.5261,13.488,17.7177,-6.65932,18.9628,7.12502,19.1984,-10.1096,1.00635e-14,2.46493e-14,-36.3925,9.95314,82.7839,20.5882,-3.07096,-5.99973,18.0062,7.12502,19.8326,47.0143,-29.9159,15.8684,15.3042,34.5838,-5.75737,-12.2584,-2.07603,15.2046,-6.47521,-28.263,21.171,-3.77329,-1.72126,-7.71345
-0.823225,16.1684,-20.0693,2.39561,3.31864,4.30378,13.3175,-0.718236,-8.94041,-4.72431,-2.43193,1.64619,-12.3548,-0.351854,7.48059,-8.81414,-5.11064,-4.35335,16.4732,-7.06897,4.21971,6.77845,-3.34092,1.45961,3.26007e-14,-3.97569e-15,-54.1123,-23.1644,-60.3945,12.9813,19.3311,-6.56858,19.0517,7.12502,19.2857,-10.012,3.26007e-14,-3.97569e-15,-36.7227,10.2207,82.3936,20.0137,-3.73591,-6.07583,18.01,7.12502,19.7595,47.0257,-29.1668,15.9511,15.9952,34.7011,-6.39669,-12.2425,-1.6781,13.6904,-5.75464,-27.3906,24.2599,-2.41525,-2.60517,-7.67033
-0.857357,16.1796,-19.9319,2.40823,3.24447,3.94179,13.3032,-0.69347,-8.6977,-4.77617,-2.34208,1.75259,-12.425,-0.31714,7.44321,-8.94835,-5.18455,-4.34523,16.666,-7.16991,4.18605,6.86706,-3.38801,1.43312,-9.98893e-15,3.97569e-16,-53.9496,-23.42,-60.1767,12.7855,19.7695,-6.52787,19.0327,7.12502,19.3248,-10.0271,-9.98893e-15,3.97569e-16,-37.3607,10.9397,81.8385,19.4916,-4.80127,-5.96826,17.8559,7.12502,19.8629,46.8609,-28.508,15.8709,16.7777,34.6128,-6.71447,-12.0117,-2.49992,11.8569,-4.88784,-26.4286,27.5302,-0.61682,-3.24249,-6.22647
-0.890535,16.1865,-19.7971,2.48412,3.15868,3.62155,13.3265,-0.689412,-8.58949,-4.95902,-2.30748,1.91669,-12.6554,-0.279902,7.56833,-8.77884,-5.14806,-4.50056,16.8669,-7.12115,4.23946,6.90745,-3.37114,1.4828,3.90115e-15,4.77083e-15,-53.6467,-22.3391,-61.1274,13.0412,18.6645,-6.44403,19.2109,7.12502,19.4055,-9.84078,3.90115e-15,4.77083e-15,-38.0987,11.7828,81.2755,18.7822,-5.75679,-5.96003,17.287,7.12502,19.8708,46.2912,-27.9161,15.6338,17.4814,34.3807,-7.0398,-11.639,-2.90486,9.92812,-4.08215,-25.5613,30.8821,1.49706,-3.54337,-3.52343
-0.919274,16.2009,-19.6611,2.60866,3.1646,3.34103,13.171,-0.691489,-8.30624,-5.01566,-2.24233,1.94405,-12.6436,-0.270319,7.41578,-8.89005,-5.15891,-4.59736,17.0649,-7.1614,4.43433,7.00359,-3.3769,1.55289,1.11816e-15,-2.5842e-14,-53.2732,-22.5068,-61.3483,12.9545,18.7841,-6.6769,19.4016,7.12502,19.1815,-9.67249,1.11816e-15,-2.5842e-14,-38.3726,12.6876,80.5334,17.9061,-6.76844,-5.91941,17.1532,7.12502,19.9098,46.1533,-27.2536,15.4617,18.0764,33.9932,-7.42576,-11.345,-2.35944,7.93638,-3.42288,-24.7942,34.242,3.3079,-3.90987,-3.56012
-0.946517,16.22,-19.5305,2.74908,2.96275,3.0976,12.9895,-0.539282,-7.99671,-4.98705,-1.97023,1.87906,-12.5584,-0.177437,7.09305,-9.27262,-5.29353,-4.24105,17.0955,-7.36389,4.28735,7.07145,-3.45689,1.4183,-1.6847e-14,5.96354e-15,-53.0017,-23.6728,-60.8786,12.7248,19.8517,-6.88276,19.0192,7.12502,18.9836,-10.0744,-1.6847e-14,5.96354e-15,-38.4518,12.9294,80.1125,17.4315,-7.45202,-5.75823,17.2862,7.12502,20.0648,46.2702,-26.6558,15.3959,18.5953,33.5726,-7.64734,-10.9458,-1.5563,5.91368,-2.64609,-24.1482,37.4766,4.7152,-4.25488,-8.14521
-0.97241,16.2389,-19.3971,2.64174,2.98402,2.68868,13.0328,-0.499974,-7.60412,-4.98408,-1.84115,1.94022,-12.608,-0.142719,6.9097,-9.22571,-5.38103,-3.93014,16.943,-7.4849,4.04618,6.99781,-3.51802,1.28175,-2.2736e-14,6.36111e-15,-52.5791,-23.3137,-61.5433,12.9413,19.1528,-6.68889,18.4514,7.12502,19.17,-10.6238,-2.2736e-14,6.36111e-15,-38.9333,12.9325,79.9226,17.3383,-7.87842,-5.46076,17.483,7.12502,20.3507,46.4367,-25.6627,15.1494,19.3955,33.0785,-7.8668,-10.6708,-1.81349,4.18455,-2.12402,-23.3436,40.5659,6.07857,-4.45623,-12.0256
-0.994088,16.2614,-19.2508,2.58589,3.4021,2.60093,12.8841,-0.638238,-7.43204,-4.95836,-1.98189,1.95323,-12.4642,-0.231766,6.84872,-9.04649,-5.39028,-4.01541,16.9469,-7.48786,4.03576,6.9706,-3.52856,1.2968,-3.55328e-15,3.18055e-15,-51.8702,-22.3262,-62.8377,13.3617,17.5221,-6.41315,17.9769,7.12502,19.4352,-11.0718,-3.55328e-15,3.18055e-15,-39.4418,12.9747,79.8323,17.1794,-8.11985,-5.53847,17.6151,7.12502,20.276,46.5768,-24.5418,14.4339,19.8476,32.5436,-8.21555,-10.3075,-1.8894,2.47967,-2.09592,-22.9675,43.5375,8.05663,-4.45652,-11.0888
-1.01417,16.2834,-19.1052,2.59205,3.51984,2.53748,12.65,-0.639163,-7.33162,-4.92512,-1.94662,1.94424,-12.2914,-0.234672,6.76046,-8.99246,-5.42121,-4.04014,17.0043,-7.52692,4.01553,6.98152,-3.55077,1.29158,1.50331e-14,-2.38542e-15,-51.2068,-21.6219,-63.9397,13.7555,16.2611,-6.51044,17.9149,7.12502,19.3416,-11.1432,1.50331e-14,-2.38542e-15,-39.8024,12.7248,79.9509,16.9939,-7.97045,-5.95746,17.4658,7.12502,19.8732,46.4698,-23.5268,13.9308,20.201,31.9539,-8.59332,-9.78466,-1.13971,0.744497,-1.85811,-22.6941,46.4323,10.5937,-4.2154,-6.28807
-1.03965,16.2988,-18.9823,2.56812,3.21082,2.1189,12.5372,-0.462123,-7.03382,-4.90498,-1.63731,2.01498,-12.255,-0.111126,6.59559,-8.74501,-5.51823,-4.00295,16.8136,-7.68043,4.09858,6.88506,-3.62118,1.30646,2.1096e-14,-4.77083e-15,-50.7451,-21.7082,-64.2279,13.9165,16.0392,-6.56786,18.0535,7.12502,19.2864,-11.0102,2.1096e-14,-4.77083e-15,-40.1138,12.363,80.0851,16.9978,-7.77464,-5.77618,17.6865,7.12502,20.0475,46.6723,-22.7307,13.9272,20.9252,31.3624,-8.5795,-9.50276,-1.83604,-1.0785,-1.10677,-21.945,49.3008,13.065,-3.94371,-1.75164
-1.0676,16.3094,-18.8692,2.46071,3.23576,1.6402,12.6134,-0.410974,-6.69495,-4.79905,-1.49686,2.13277,-12.203,-0.0711819,6.50204,-8.97973,-5.62297,-4.02171,16.8066,-7.84629,4.28014,6.93956,-3.68289,1.34507,8.07563e-15,3.97569e-15,-49.8216,-21.0657,-65.4193,14.3324,14.6092,-6.73326,17.985,7.12502,19.1274,-11.0944,8.07563e-15,3.97569e-15,-40.3149,12.0441,80.3152,17.338,-7.52679,-5.17009,18.6458,7.12502,20.63,47.5695,-21.7779,13.9623,21.7414,30.7031,-8.71643,-9.58956,-2.53782,-2.82848,-0.650802,-21.0995,52.1375,14.9872,-3.51484,-2.93858
-1.09349,16.3207,-18.7496,2.30727,3.69357,1.40333,12.8259,-0.491172,-6.52619,-4.75756,-1.57997,2.20214,-12.2701,-0.117896,6.50908,-9.2792,-5.66807,-4.06517,17.01,-7.9212,4.38638,7.06755,-3.70494,1.3682,5.50385e-15,1.63003e-14,-49.0347,-20.0971,-66.6602,14.8675,12.8896,-6.8318,18.2115,7.12502,19.0326,-10.8773,5.50385e-15,1.63003e-14,-40.5631,11.743,80.5683,17.4427,-7.3547,-4.88077,19.387,7.12502,20.908,48.2803,-20.6444,13.9013,22.2933,30.0163,-9.30433,-9.86585,-2.33332,-4.45612,-0.608687,-20.5507,54.8467,16.1283,-2.88692,-5.57584
-1.11203,16.3384,-18.6268,2.21922,3.85733,1.2305,12.9362,-0.522576,-6.39123,-4.79431,-1.59882,2.26368,-12.3764,-0.12787,6.51124,-9.17531,-5.66823,-4.05593,17.1002,-7.90934,4.27028,7.07266,-3.7093,1.33286,7.33018e-15,-1.31198e-14,-48.4136,-19.3671,-67.4507,15.2688,11.8346,-6.9094,18.4753,7.12502,18.958,-10.6208,7.33018e-15,-1.31198e-14,-40.9693,11.7114,80.5971,17.1783,-7.65271,-4.97227,18.9169,7.12502,20.8201,47.8199,-19.5996,13.7656,22.7428,29.3461,-9.64926,-9.85547,-2.45462,-6.15639,-0.443477,-20.1869,57.3893,16.6681,-1.31978,1.66879
-1.12627,16.3546,-18.4986,2.13231,3.59922,1.08183,12.7401,-0.418671,-6.26637,-4.74232,-1.42072,2.27889,-12.2274,-0.0618345,6.40633,-8.98936,-5.67548,-4.05058,17.0903,-7.92103,4.24551,7.03592,-3.71997,1.3285,-6.31141e-15,-1.19271e-15,-47.7865,-19.4145,-67.6803,15.4465,11.7044,-6.98576,18.5002,7.12502,18.8845,-10.6031,-6.31141e-15,-1.19271e-15,-41.2984,11.3974,80.8004,17.0829,-7.60755,-4.99684,18.5361,7.12502,20.7965,47.4417,-18.6297,13.6452,23.1529,28.7233,-9.42492,-9.64558,-2.30517,-7.82515,0.151209,-19.9161,59.7404,16.6735,-0.524552,7.19852
-1.14433,16.3627,-18.3781,2.01212,3.12203,0.935882,12.6996,-0.191549,-6.26473,-4.70586,-1.10781,2.30354,-12.2112,0.0857733,6.36061,-8.81434,-5.71516,-4.02847,17.0187,-7.97666,4.22145,6.98255,-3.75106,1.31782,-5.98839e-15,9.93923e-15,-47.0985,-18.9956,-68.3271,15.8182,10.9341,-7.0866,18.9062,7.12502,18.7875,-10.2065,-5.98839e-15,9.93923e-15,-41.5372,11.0378,81.0686,17.1527,-7.13877,-4.85915,18.7205,7.12502,20.9287,47.6115,-17.7579,13.7331,23.5556,28.1541,-9.42727,-9.33746,-2.17379,-9.32421,0.995182,-19.6603,61.931,15.9421,-0.359269,8.61999
-1.16153,16.3691,-18.2666,1.95598,2.71779,0.832512,12.8157,0.0093428,-6.28385,-4.70721,-0.844723,2.32626,-12.3256,0.218663,6.34228,-8.78353,-5.76585,-4.06197,17.0508,-8.03983,4.2014,6.9909,-3.78525,1.31137,1.59028e-15,-8.74653e-15,-46.374,-18.3069,-69.1842,16.2883,9.84764,-7.42042,19.4098,7.12502,18.4664,-9.7337,1.59028e-15,-8.74653e-15,-41.7459,10.4937,81.5291,17.3643,-6.61389,-4.54307,18.8085,7.12502,21.2324,47.6656,-17.0236,13.9841,23.8692,27.7022,-9.85449,-9.03971,-2.22753,-10.8191,1.78672,-19.484,63.9798,14.6219,-0.458699,8.35337
-1.17505,16.3685,-18.1525,1.88855,2.51993,0.698069,12.8505,0.156353,-6.17061,-4.66122,-0.62708,2.32666,-12.3281,0.311477,6.2278,-9.02231,-5.75681,-4.16672,17.439,-8.06224,4.41751,7.1732,-3.77551,1.38438,1.83876e-15,7.15625e-15,-45.587,-18.0354,-69.7943,16.6179,9.14292,-7.92743,19.4021,7.12502,17.9787,-9.78691,1.83876e-15,7.15625e-15,-41.9615,9.88471,82.0218,17.5851,-6.42647,-4.61512,18.5678,7.12502,21.1632,47.4327,-16.242,14.1463,24.2267,27.2872,-10.0608,-8.86255,-1.22749,-12.2829,2.39397,-19.2945,65.9198,13.0816,-0.653699,7.47556
-1.19126,16.3697,-18.0411,1.87928,2.2628,0.694125,12.903,0.35772,-6.12424,-4.63242,-0.364319,2.19938,-12.3678,0.426251,5.99848,-9.39242,-5.74046,-4.10099,17.7725,-8.11357,4.71958,7.35979,-3.75844,1.45213,1.37907e-15,-1.59028e-14,-44.8221,-18.3211,-70.1404,16.8685,8.94708,-8.14109,19.2302,7.12502,17.7731,-9.97758,1.37907e-15,-1.59028e-14,-42.0565,9.2634,82.3008,17.6765,-6.34309,-4.53173,18.4287,7.12502,21.2433,47.2846,-15.5989,14.142,24.437,26.9344,-10.1169,-8.53592,-0.566891,-13.9313,2.99437,-19.2831,67.6695,11.5764,-0.777061,5.68104
-1.20608,16.3829,-17.9289,1.82865,2.02869,0.685305,13.0917,0.542891,-6.08823,-4.64844,-0.12905,2.11839,-12.5363,0.537854,5.83687,-9.36905,-5.80065,-4.10084,17.7822,-8.21234,4.79578,7.36688,-3.79914,1.46737,6.69656e-15,-7.95139e-16,-44.127,-18.0768,-70.7444,17.4631,8.29249,-8.15478,18.7831,7.12502,17.7599,-10.4259,6.69656e-15,-7.95139e-16,-42.2815,8.7067,82.6558,17.8963,-5.76558,-4.50469,18.431,7.12502,21.2692,47.284,-14.9104,14.0809,24.6504,26.6315,-10.259,-8.267,-0.546037,-15.679,3.56728,-19.3171,69.1153,9.67282,-1.20511,-1.19725
-1.22116,16.3893,-17.8104,1.71444,2.00224,0.697478,13.1899,0.613462,-6.13661,-4.65219,-0.0524697,2.08667,-12.6127,0.579517,5.81309,-8.99292,-5.89245,-4.1761,17.6464,-8.31239,4.69974,7.25982,-3.86924,1.45101,6.62201e-15,2.18663e-14,-43.4691,-17.2289,-71.649,18.2199,7.26748,-8.35496,18.0835,7.12502,17.5673,-11.1428,6.62201e-15,2.18663e-14,-42.5264,8.25488,82.9446,17.9494,-5.23379,-4.4796,17.9687,7.12502,21.2933,46.8189,-14.0439,14.007,24.8822,26.2642,-10.4843,-8.19048,-0.96408,-17.1603,3.8773,-19.3705,70.2079,9.26559,-1.04816,-0.507353
-1.22406,16.3845,-17.6766,1.49749,1.75049,0.770836,13.0265,0.744407,-6.14212,-4.51517,0.125652,2.00042,-12.3815,0.645961,5.67153,-8.98158,-5.98269,-4.15403,17.5722,-8.4377,4.70526,7.23906,-3.92846,1.43785,-1.85118e-15,-3.57812e-15,-42.6386,-16.5283,-72.5629,18.8759,6.39391,-8.78823,17.6744,7.12502,17.1503,-11.5887,-1.85118e-15,-3.57812e-15,-42.6137,8.09737,83.0549,17.9117,-5.32736,-4.267,18.0072,7.12502,21.4975,46.8343,-13.0842,14.0549,25.0495,25.987,-10.806,-8.0154,-1.25409,-17.962,4.22805,-19.5601,71.0174,7.85073,-0.734924,1.88878
-1.20918,16.3909,-17.5137,1.16269,0.667292,0.822848,12.4286,1.10558,-5.98319,-4.18932,0.670009,1.88951,-11.7221,0.851397,5.31903,-9.19311,-6.09389,-3.98885,17.4009,-8.57323,4.55561,7.21327,-3.99377,1.34497,1.35422e-14,-1.15295e-14,-41.702,-16.2283,-73.1603,19.358,5.9039,-9.00687,18.387,7.12502,16.9398,-10.8943,1.35422e-14,-1.15295e-14,-42.6629,7.95338,83.2417,18.0865,-5.34589,-3.89536,18.8273,7.12502,21.8544,47.6131,-11.9525,14.5193,25.1813,25.6694,-11.0038,-7.38293,-1.04831,-18.1054,5.17542,-19.8546,71.3825,6.01133,-0.22682,3.57817
-1.25493,16.379,-17.4582,1.44798,1.45855,0.674466,13.0154,0.941692,-6.09073,-4.38094,0.396077,1.93139,-12.2586,0.757423,5.4988,-9.19363,-6.11577,-3.87047,17.3142,-8.58775,4.39927,7.17345,-4.0076,1.27546,-8.92046e-15,-1.98785e-15,-40.8967,-16.0367,-73.6831,19.8719,5.7132,-9.58199,20.4539,7.12502,16.3861,-8.87392,-8.92046e-15,-1.98785e-15,-42.7448,7.50264,83.5468,18.318,-4.82858,-3.74658,19.123,7.12502,21.9973,47.8921,-11.7757,14.556,25.5819,25.3974,-11.3991,-8.14119,-1.02792,-20.4211,4.66805,-19.6425,72.2571,5.92256,0.37261,7.35653
-1.24571,16.3813,-17.3129,1.20436,0.601207,0.614292,12.6157,1.20008,-5.81566,-4.23839,0.808895,1.83988,-11.9045,0.909971,5.13783,-8.90474,-6.06147,-3.93124,17.2856,-8.51206,4.41064,7.11295,-3.97997,1.30576,5.96354e-16,6.36111e-15,-40.2977,-15.2731,-74.481,20.5883,5.21197,-10.437,22.8519,7.12502,15.5628,-6.54195,5.96354e-16,6.36111e-15,-42.9349,7.54801,83.5307,18.2303,-4.57754,-4.23308,18.5173,7.12502,21.5301,47.3406,-10.808,14.8686,25.8195,25.1284,-11.6474,-7.63165,-1.24067,-20.9515,5.41166,-19.8194,72.4345,4.18738,0.649944,7.3176
-1.25307,16.3793,-17.193,1.16678,0.186029,0.484065,12.5411,1.37175,-5.63157,-4.27376,1.07138,1.79914,-11.9294,1.02011,4.92682,-8.70917,-6.08824,-4.02001,17.3532,-8.55755,4.48066,7.10952,-4.00425,1.34343,5.80203e-15,8.34896e-15,-39.7152,-14.7291,-75.1209,21.222,4.84255,-10.789,22.3509,7.12502,15.2238,-7.06892,5.80203e-15,8.34896e-15,-43.2184,7.38741,83.5932,18.3888,-4.32337,-4.5594,18.1261,7.12502,21.2167,46.985,-10.2344,15.0787,26.1411,25.0456,-12.0798,-7.42011,-1.05566,-22.1286,5.79747,-19.8549,72.6885,3.31208,1.19484,10.6405
-1.26384,16.3726,-17.0876,1.26513,0.0502059,0.601249,12.5275,1.45983,-5.75015,-4.31602,1.16121,1.72418,-11.9838,1.07079,4.89075,-8.66896,-6.16351,-3.99289,17.3352,-8.65206,4.4078,7.09642,-4.05495,1.30813,7.37988e-15,3.57812e-15,-39.0277,-14.2554,-75.6708,21.9356,4.5977,-10.6584,19.944,7.12502,15.3496,-9.46624,7.37988e-15,3.57812e-15,-43.5193,6.82205,83.9956,18.9466,-3.47056,-4.49627,18.246,7.12502,21.2773,47.098,-9.82479,15.0234,26.155,24.9381,-12.435,-7.30451,-1.42631,-23.4735,5.80534,-20.2002,72.7001,1.74972,1.07792,8.11265
-1.27296,16.36,-16.9811,1.38154,-0.00823468,0.667317,12.4251,1.50459,-5.76922,-4.3459,1.21705,1.66465,-11.9628,1.09582,4.8229,-8.67818,-6.22539,-4.05513,17.2011,-8.73356,4.48025,7.06458,-4.0935,1.33447,-1.80894e-14,-1.25234e-14,-38.373,-13.8189,-76.194,22.7623,4.3964,-10.9924,19.6005,7.12502,15.0278,-9.83413,-1.80894e-14,-1.25234e-14,-43.7256,6.49371,84.287,19.3247,-2.78796,-4.71726,17.9702,7.12502,21.065,46.8461,-9.51991,14.9192,26.2113,24.9879,-12.8104,-7.15467,-2.00593,-24.7422,5.75266,-20.4761,72.5985,0.434768,1.28854,7.82688
-1.28374,16.3463,-16.8744,1.31305,-0.044172,0.617647,12.547,1.51062,-5.75641,-4.31767,1.2228,1.68352,-12.0048,1.09907,4.83483,-8.729,-6.18971,-4.12862,17.1928,-8.6671,4.46158,7.07028,-4.067,1.34509,2.9445e-15,-7.95139e-15,-37.6913,-13.3304,-76.5976,23.5297,4.68008,-11.1134,20.3119,7.12502,14.9112,-9.13146,2.9445e-15,-7.95139e-15,-43.7801,6.82829,84.2068,19.3295,-2.84167,-5.2204,17.2454,7.12502,20.5816,46.1743,-9.05617,14.9646,26.4728,25.1642,-13.3481,-7.13644,-2.13449,-25.8532,5.63697,-20.5908,72.3258,-0.549316,1.67856,10.2892
-1.29177,16.3286,-16.7728,1.26276,-0.0162895,0.621623,12.7555,1.54591,-5.68712,-4.26946,1.26392,1.62089,-12.0761,1.11089,4.71524,-8.81918,-6.16324,-4.16743,17.2602,-8.62717,4.47636,7.10856,-4.04634,1.35626,-7.90169e-15,1.19271e-15,-37.0089,-12.9571,-77.0029,24.2986,4.87489,-10.9392,20.5259,7.12502,15.079,-8.90486,-7.90169e-15,1.19271e-15,-43.6895,7.07852,84.1068,19.2762,-3.05396,-5.27618,17.3307,7.12502,20.528,46.2654,-8.59126,14.9198,26.6446,25.2552,-13.8619,-7.05101,-2.11177,-26.9642,5.3269,-20.8071,71.9375,-1.59753,2.00298,12.4969
-1.29415,16.3063,-16.667,1.28729,0.0512307,0.626979,12.877,1.59152,-5.56969,-4.25801,1.32948,1.53505,-12.1374,1.12996,4.53679,-8.76803,-6.18295,-4.02151,17.1189,-8.65635,4.39866,7.04504,-4.06024,1.30857,-1.70831e-14,-1.49089e-14,-36.379,-12.4254,-77.5457,25.2331,4.32999,-10.9411,20.2681,7.12502,15.0773,-9.16283,-1.70831e-14,-1.49089e-14,-43.6896,7.24731,83.9505,19.3394,-3.33229,-4.45076,17.8784,7.12502,21.3211,46.7255,-8.1551,14.8958,26.7731,25.2653,-14.3574,-6.97916,-1.71463,-28.0304,4.93368,-21.0361,71.4077,-2.84226,2.05762,13.8022
-1.29816,16.29,-16.5529,1.22346,0.102783,0.418612,12.9796,1.575,-5.2867,-4.26966,1.35254,1.54175,-12.2047,1.12155,4.37684,-8.65258,-6.17839,-3.94906,17.0894,-8.65461,4.35147,7.00964,-4.06132,1.28624,8.52289e-15,-3.37934e-15,-35.8515,-11.7555,-78.1011,26.21,3.56105,-10.8526,19.6283,7.12502,15.1625,-9.79623,8.52289e-15,-3.37934e-15,-43.7994,7.53092,83.7715,19.3579,-3.57851,-3.87805,18.2282,7.12502,21.8711,47.0121,-7.57237,15.1595,27.2233,25.3091,-14.9323,-7.22344,-1.3758,-28.9561,4.60557,-20.9684,70.6627,-3.90158,2.03828,13.3309
-1.30428,16.2823,-16.4419,1.22948,0.109204,0.317373,12.9548,1.55674,-5.16824,-4.27988,1.35083,1.54636,-12.1968,1.11185,4.31498,-8.4629,-6.16897,-3.97057,17.0758,-8.6409,4.33852,6.97161,-4.06083,1.29319,-2.69602e-15,1.39149e-15,-35.3783,-11.0648,-78.5883,27.1093,2.73959,-11.0684,19.3489,7.12502,14.9546,-10.0912,-2.69602e-15,1.39149e-15,-43.8729,7.65591,83.7965,19.4771,-3.31583,-3.88427,18.3877,7.12502,21.8651,47.1724,-6.95409,15.3884,27.5279,25.0931,-15.3076,-7.53087,-2.26768,-29.9411,4.28688,-21.0518,69.7656,-4.97671,2.23378,9.8168
-1.30641,16.2707,-16.3362,1.37769,0.0273369,0.412738,12.9577,1.60818,-5.20247,-4.3794,1.4066,1.49419,-12.3193,1.14394,4.26331,-8.25676,-6.16608,-4.07352,16.9366,-8.63186,4.40194,6.89764,-4.06321,1.33892,1.33807e-14,-1.09332e-14,-34.9776,-10.3653,-78.9864,27.94,2.02031,-11.0875,19.0433,7.12502,14.9362,-10.3981,1.33807e-14,-1.09332e-14,-43.9802,7.43201,84.0512,19.6864,-2.71907,-4.05856,18.7537,7.12502,21.6977,47.5577,-6.46118,15.287,27.492,24.776,-15.5579,-7.39688,-2.68494,-30.9143,3.93052,-21.3867,68.6606,-5.97664,2.52176,7.00809
-1.34112,16.2439,-16.2189,1.02521,-0.415371,-0.699259,13.3507,1.81597,-4.66095,-4.27123,1.81704,1.92425,-12.4758,1.31897,4.3303,-8.43426,-6.16245,-4.21828,17.0433,-8.60828,4.42465,6.96972,-4.05428,1.36451,4.83295e-15,-2.42517e-14,-34.4913,-9.414,-79.4968,28.9713,0.736706,-11.245,18.6791,7.12502,14.7844,-10.7736,4.83295e-15,-2.42517e-14,-43.8153,7.58853,84.0641,19.5616,-2.54425,-3.91872,18.9934,7.12502,21.832,47.7819,-5.37452,16.3333,29.2159,24.4364,-15.9346,-8.13579,-3.10561,-31.5506,4.18649,-19.9933,67.7181,-6.6511,2.24808,8.64928
-1.34779,16.2272,-16.1071,0.936869,-0.348054,-0.965815,13.5021,1.82291,-4.43879,-4.17339,1.86954,1.99584,-12.4537,1.32707,4.26868,-8.74489,-6.18942,-4.24117,17.2204,-8.6389,4.41786,7.08387,-4.06289,1.35105,-5.04416e-15,-1.23246e-14,-33.8211,-8.69656,-80.0039,30.0173,-0.479891,-11.2655,18.3591,7.12502,14.7647,-11.095,-5.04416e-15,-1.23246e-14,-43.6695,8.03644,83.8808,19.6124,-2.529,-3.91774,18.8309,7.12502,21.8329,47.6193,-4.59757,16.3097,29.7231,24.1467,-16.2867,-8.23199,-3.50225,-32.2353,3.62861,-19.7688,66.3561,-7.00089,2.49484,10.4268
-1.33911,16.2234,-15.9948,1.0988,-0.038183,-0.681607,13.4087,1.71744,-4.48737,-4.21273,1.70688,1.86571,-12.4201,1.2475,4.19243,-8.68128,-6.22375,-4.16795,17.1247,-8.67079,4.28946,7.03403,-4.08666,1.29843,1.75738e-14,1.33186e-14,-33.4359,-7.7403,-80.4677,31.1517,-1.52934,-11.3994,17.8682,7.12502,14.6358,-11.5954,1.75738e-14,1.33186e-14,-43.7239,8.16429,83.9067,19.8578,-2.20179,-3.92703,18.9014,7.12502,21.824,47.6908,-4.01527,15.859,29.4371,23.6953,-16.5022,-8.1396,-4.28478,-32.9168,2.63594,-20.2473,64.6459,-7.27659,2.90021,12.9763
-1.32901,16.2223,-15.8801,1.2441,0.270804,-0.439613,13.3887,1.62768,-4.49169,-4.29344,1.57298,1.75872,-12.4813,1.18242,4.10891,-8.59875,-6.23595,-4.19454,17.0931,-8.68369,4.28532,7.01091,-4.0967,1.30318,1.2188e-14,1.5704e-14,-33.0847,-7.04656,-80.7555,32.0313,-2.24351,-11.6778,18.0011,7.12502,14.3675,-11.4817,1.2188e-14,1.5704e-14,-43.8204,8.17922,83.995,20.0705,-2.11038,-3.8443,19.0808,7.12502,21.9035,47.8609,-3.44773,15.2982,29.1778,23.2865,-16.7328,-7.94897,-4.99033,-33.4361,1.68258,-20.6441,62.6571,-7.63926,3.03816,13.4777
-1.32278,16.2245,-15.7608,1.37962,0.546816,-0.294353,13.3234,1.55635,-4.4419,-4.32274,1.47759,1.66521,-12.4592,1.12875,4.0003,-8.65843,-6.23988,-4.1183,17.0818,-8.68799,4.23057,7.01198,-4.09751,1.27136,-1.24489e-14,1.39149e-15,-32.5643,-6.5481,-81.0231,32.7309,-2.78864,-12.0296,19.0115,7.12502,14.0285,-10.4951,-1.24489e-14,1.39149e-15,-43.8183,8.0525,84.1626,20.1764,-1.92204,-3.9483,18.5592,7.12502,21.8036,47.351,-2.75602,15.0188,29.0819,22.7487,-17.0564,-7.94509,-5.24843,-33.9114,0.747978,-20.9013,60.5031,-8.10982,3.34913,9.83708
-1.31405,16.2301,-15.6361,1.47079,0.559645,-0.252758,13.2206,1.53936,-4.29776,-4.32368,1.47846,1.60685,-12.3905,1.1132,3.85384,-8.6928,-6.27051,-3.99635,17.0315,-8.71525,4.06718,6.98994,-4.11658,1.19677,-1.11071e-14,2.24627e-14,-32.1547,-5.90177,-81.2927,33.5863,-3.2906,-12.2584,19.4,7.12502,13.808,-10.1217,-1.11071e-14,2.24627e-14,-43.6814,8.25849,84.1114,20.0892,-2.0876,-3.84904,18.168,7.12502,21.8989,46.9486,-1.87116,14.8384,29.0838,21.9632,-17.1477,-7.86569,-5.89079,-34.2574,-0.0151512,-21.0032,58.2623,-8.52045,3.72636,5.6133
-1.30602,16.232,-15.5129,1.5121,0.613183,-0.387021,13.2919,1.48953,-4.01114,-4.40979,1.46214,1.62196,-12.5204,1.08834,3.71096,-8.62656,-6.2383,-4.0924,17.1362,-8.66816,4.093,7.01559,-4.09779,1.2257,3.46258e-14,4.96962e-15,-32.029,-5.0888,-81.535,34.5545,-3.97109,-12.1113,19.2377,7.12502,13.9497,-10.2744,3.46258e-14,4.96962e-15,-43.7237,8.27416,84.1995,20.0592,-1.90726,-4.03219,18.138,7.12502,21.7231,46.9391,-0.817074,14.6793,29.314,20.9593,-17.0961,-7.8927,-6.20722,-34.4078,-0.904179,-20.7901,56.0008,-8.43132,3.84134,7.72156
-1.30332,16.2318,-15.3945,1.54919,0.80151,-0.521582,13.5685,1.43843,-3.78066,-4.54113,1.42593,1.6265,-12.8273,1.06202,3.59213,-8.4353,-6.12306,-4.29236,17.0432,-8.53829,4.40786,6.9692,-4.02631,1.37765,-3.8763e-15,-5.56597e-15,-31.8101,-4.52009,-81.7309,35.2966,-4.44746,-12.0247,19.1568,7.12502,14.0332,-10.3494,-3.8763e-15,-5.56597e-15,-43.8502,8.16126,84.2873,20.0393,-1.87819,-4.21236,17.7273,7.12502,21.55,46.5484,0.351776,14.6352,29.6097,19.7462,-17.0152,-8.22588,-6.69317,-34.5019,-1.90648,-20.4995,53.6992,-7.92896,3.93279,10.4411
-1.30072,16.2428,-15.2711,1.64373,0.745066,-0.567196,13.6033,1.46666,-3.76839,-4.60853,1.46819,1.65307,-12.9312,1.08578,3.60417,-7.94499,-6.01044,-4.36075,16.559,-8.40609,4.63649,6.73416,-3.96302,1.49437,-7.52897e-15,1.19271e-14,-31.4984,-3.83634,-81.9172,36.0516,-5.02194,-12.1138,18.9865,7.12502,13.9473,-10.5257,-7.52897e-15,1.19271e-14,-43.8902,8.27876,84.2668,20.181,-1.89921,-3.8123,17.803,7.12502,21.9342,46.5795,1.53792,14.7389,29.7683,18.3858,-16.788,-8.3925,-7.07292,-34.6134,-2.73981,-20.2537,51.3206,-7.60289,4.13368,11.0794
-1.29507,16.2519,-15.1465,1.68381,0.562342,-0.834834,13.4839,1.48064,-3.55908,-4.57936,1.54571,1.77992,-12.8292,1.10944,3.60768,-7.70578,-5.95656,-4.37671,16.2914,-8.32176,4.62341,6.60275,-3.93185,1.51066,-1.14177e-14,2.38542e-15,-31.0811,-3.25057,-82.0412,36.6744,-5.32767,-11.7963,19.335,7.12502,14.2533,-10.1559,-1.14177e-14,2.38542e-15,-43.8034,8.44398,84.3497,20.4349,-1.7558,-3.55079,18.3745,7.12502,22.1853,47.1214,2.87243,14.8002,30.1495,16.8086,-16.3363,-8.52974,-8.32781,-34.6897,-3.49373,-19.7326,48.9648,-7.49625,4.49809,11.6033
-1.28879,16.2592,-15.0188,1.7144,0.550431,-0.96508,13.256,1.45915,-3.45835,-4.45937,1.55255,1.86599,-12.5526,1.10155,3.64547,-8.10284,-5.97291,-4.34428,16.5176,-8.31768,4.46153,6.73602,-3.93091,1.43981,1.32316e-15,-1.68967e-14,-30.4829,-2.85027,-82.0942,37.1262,-5.40598,-11.2121,19.4046,7.12502,14.8161,-10.0458,1.32316e-15,-1.68967e-14,-43.4711,8.62079,84.4904,20.533,-1.71498,-3.49056,18.8076,7.12502,22.2431,47.5477,4.36281,14.7541,30.388,15.0006,-15.9011,-8.67595,-8.73445,-34.6666,-4.50322,-19.3289,46.64,-7.47272,4.98693,12.1238
-1.27972,16.2644,-14.8899,1.76658,0.55777,-1.09641,12.9962,1.45591,-3.28997,-4.33941,1.59225,1.92047,-12.2572,1.10205,3.60181,-8.40142,-6.06607,-4.16089,16.5655,-8.41093,4.15917,6.78684,-3.9831,1.29597,-5.9449e-15,-1.78906e-15,-29.9333,-2.29161,-82.1689,37.6236,-5.5703,-11.1436,18.8871,7.12502,14.8822,-10.5583,-5.9449e-15,-1.78906e-15,-43.1224,8.94618,84.4654,20.4902,-1.94664,-3.31624,19.121,7.12502,22.4104,47.8409,5.99022,14.5741,30.5697,12.9029,-15.3911,-8.61631,-8.9737,-34.6665,-5.59122,-18.8778,44.4362,-7.53982,5.35203,13.0221
-1.27231,16.269,-14.7625,1.89207,0.428162,-1.25012,12.8603,1.46229,-3.13744,-4.39554,1.63846,1.977,-12.2401,1.11572,3.56779,-8.38203,-6.1201,-4.01736,16.614,-8.46145,3.88767,6.78293,-4.02058,1.18234,8.20608e-15,1.47101e-14,-29.642,-1.78158,-82.2817,38.0797,-5.64972,-11.3797,19.2874,7.12502,14.6547,-10.1748,8.20608e-15,1.47101e-14,-43.1508,8.89586,84.6497,20.7159,-1.79496,-3.47767,19.919,7.12502,22.2555,48.6576,7.77362,14.3466,30.7258,10.3737,-14.5522,-8.52546,-10.2193,-34.7724,-6.68472,-18.3198,42.3181,-7.78977,5.91029,12.751
-1.2639,16.2743,-14.638,1.9975,0.3213,-1.39449,12.7721,1.50313,-2.97368,-4.32996,1.73169,2.04129,-12.1166,1.14709,3.52419,-8.90021,-6.11902,-4.13395,16.8617,-8.44035,3.91304,6.95894,-4.00393,1.1912,3.54085e-15,-1.25234e-14,-29.0544,-1.36719,-82.2888,38.3941,-5.84162,-11.3826,19.8017,7.12502,14.6519,-9.66066,3.54085e-15,-1.25234e-14,-42.8252,8.53692,85.1202,20.9136,-1.44262,-3.85173,20.1967,7.12502,21.8963,48.9777,9.93555,14.1322,30.8714,7.14876,-13.3767,-8.57233,-11.1961,-34.8991,-7.91377,-17.7043,40.2751,-8.11607,6.81235,10.4111
-1.25493,16.286,-14.5094,2.10068,0.197336,-1.49385,12.6756,1.54808,-2.85974,-4.21674,1.82112,2.10774,-11.9356,1.17908,3.51239,-9.59437,-6.09336,-4.3077,17.128,-8.3787,3.99146,7.17582,-3.96369,1.22472,-5.82066e-15,-2.82274e-14,-28.4252,-1.05007,-82.2643,38.7047,-5.81692,-11.3499,19.8639,7.12502,14.6834,-9.59616,-5.82066e-15,-2.82274e-14,-42.3481,8.54197,85.298,20.6727,-1.37953,-4.25649,18.8649,7.12502,21.5076,47.6908,14.2882,13.9318,30.9493,9.54166e-15,-10.4559,-8.65564,-11.6267,-34.9862,-9.19365,-17.0935,38.3227,-8.58973,7.8559,8.90674
-1.24682,16.2927,-14.3847,2.21909,0.108756,-1.42196,12.6895,1.45738,-3.05312,-4.47718,1.66741,2.11524,-12.2354,1.13149,3.66754,-8.86244,-5.88527,-4.13757,16.9718,-8.1174,3.87118,6.97213,-3.85223,1.20924,-5.95112e-15,2.46493e-14,-28.5943,-0.324032,-82.5184,39.0432,-5.85898,-11.3584,19.9506,7.12502,14.6752,-9.51006,-5.95112e-15,2.46493e-14,-42.8912,8.50797,85.2449,20.9716,-0.863936,-4.36103,18.4975,7.12502,21.4072,47.3349,14.6451,13.6967,30.8458,2.06736e-14,-10.6075,-8.34322,-12.7259,-35.1089,-10.6176,-16.6021,36.4983,-8.96997,9.05686,9.76472
-1.23989,16.299,-14.2594,2.31006,0.00594999,-1.56121,12.646,1.52993,-2.8696,-4.37933,1.80134,2.14661,-12.1036,1.17814,3.56633,-9.27869,-5.92333,-4.20871,16.9921,-8.14555,3.88011,7.05662,-3.86211,1.20768,-7.23079e-15,1.19271e-15,-28.0611,-0.0665434,-82.4743,39.2731,-5.92072,-11.3814,19.8768,7.12502,14.653,-9.58548,-7.23079e-15,1.19271e-15,-42.4249,8.27803,85.4809,21.0467,-0.654562,-4.38302,18.0297,7.12502,21.3861,46.8695,15.0357,13.4726,30.9898,7.95139e-15,-10.6962,-8.08134,-14.3111,-35.2647,-12.0483,-15.8175,34.8889,-9.42553,10.2378,11.9295
-1.22724,16.3055,-14.1258,2.37805,-0.228227,-1.71804,12.4105,1.60805,-2.65976,-4.34964,1.94565,2.13087,-11.9311,1.22648,3.39859,-9.28279,-5.92424,-4.12971,17.0457,-8.16687,3.90667,7.07331,-3.86445,1.20078,-8.64713e-15,5.96354e-15,-27.8185,0.0580993,-82.543,39.4737,-5.83477,-11.281,19.9201,7.12502,14.7498,-9.53507,-8.64713e-15,5.96354e-15,-42.243,8.09179,85.4892,21.0283,-0.685646,-4.66557,17.157,7.12502,21.1147,46.0273,15.4742,13.3764,31.1422,1.90833e-14,-10.8047,-7.89154,-16.1494,-35.4035,-13.3967,-15.0267,33.5064,-10.0112,11.6247,13.6971
-1.21328,16.3084,-13.9881,2.39049,-0.489723,-1.8016,12.2036,1.62808,-2.62484,-4.34436,1.98796,2.18129,-11.805,1.24459,3.42711,-9.23697,-5.88012,-3.97712,17.0484,-8.10362,3.7473,7.05003,-3.8389,1.13299,-8.36759e-15,1.03368e-14,-27.6035,0.454347,-82.6281,39.5635,-5.7059,-10.8587,19.7639,7.12502,15.1566,-9.66103,-8.36759e-15,1.03368e-14,-42.3436,8.00568,85.5796,21.209,-0.536717,-4.68418,17.0582,7.12502,21.0968,45.9305,15.9856,13.2968,31.2148,1.59028e-14,-10.9342,-7.62619,-16.4091,-35.5329,-14.842,-14.305,32.3486,-10.5575,13.1449,15.1495
-1.20009,16.3103,-13.8498,2.41815,-0.718755,-1.83566,12.0338,1.64844,-2.68724,-4.32368,2.01305,2.22927,-11.6866,1.26156,3.51181,-9.35525,-5.83909,-3.79268,17.0489,-8.04926,3.61375,7.05521,-3.81076,1.06248,-5.82066e-15,-1.27222e-14,-27.2199,0.697148,-82.6955,39.464,-5.36365,-10.7616,19.6667,7.12502,15.2501,-9.75121,-5.82066e-15,-1.27222e-14,-42.2811,7.9792,85.6405,21.2631,-0.538505,-4.69999,17.2551,7.12502,21.0816,46.1291,16.4691,13.1889,31.2199,-2.54444e-14,-11.0458,-7.34031,-16.4493,-35.7472,-16.38,-13.5986,31.3856,-11.1645,14.7064,17.3381
-1.18764,16.309,-13.7163,2.49403,-0.908694,-1.80886,11.9328,1.66938,-2.75682,-4.38186,2.03067,2.21578,-11.6961,1.27574,3.53399,-9.12217,-5.75961,-3.87063,17.0748,-7.96136,3.75098,7.02802,-3.76543,1.13407,-2.47114e-14,-1.98785e-14,-27.0426,1.02806,-82.8242,39.4134,-5.20264,-11.1083,19.5498,7.12502,14.9161,-9.89313,-2.47114e-14,-1.98785e-14,-42.236,7.77241,85.7316,21.2352,-0.401542,-4.70842,17.3868,7.12502,21.0735,46.2617,16.8943,13.0499,31.1508,2.8625e-14,-11.0701,-7.08173,-17.1375,-36.05,-17.9572,-12.8925,30.5636,-11.9749,16.2714,18.8934
-1.17082,16.3042,-13.5759,2.45721,-1.24393,-1.88984,11.9125,1.75093,-2.64069,-4.40262,2.15978,2.20969,-11.7133,1.32869,3.43275,-8.98804,-5.72417,-3.77363,17.022,-7.9164,3.67577,6.97833,-3.74689,1.10345,-8.09426e-15,1.70955e-14,-27.0363,1.32259,-82.9111,39.4982,-5.14113,-10.9793,19.1506,7.12502,15.0404,-10.2831,-8.09426e-15,1.70955e-14,-42.2416,7.45114,85.8853,21.4527,-0.0700343,-4.6389,17.652,7.12502,21.1403,46.5194,17.4538,13.0398,31.1955,1.27222e-14,-11.1521,-6.75164,-17.4691,-36.1866,-19.4371,-12.1374,29.8678,-12.998,17.8489,20.1021
-1.15197,16.2943,-13.4282,2.35119,-1.56601,-1.96177,11.9008,1.81281,-2.55526,-4.32551,2.26027,2.24299,-11.6252,1.36911,3.39856,-9.51943,-5.71915,-3.6067,17.1635,-7.89104,3.47977,7.10151,-3.73108,0.99891,-4.23411e-14,-1.47101e-14,-26.8161,1.55387,-82.927,39.3653,-4.86475,-11.054,18.9946,7.12502,14.9685,-10.4445,-4.23411e-14,-1.47101e-14,-42.1848,7.09042,86.1779,21.9729,0.40452,-4.43949,18.4702,7.12502,21.3319,47.3161,18.1387,13.0003,31.2571,9.85972e-14,-11.1532,-6.46766,-18.4932,-36.1408,-20.7096,-11.5637,29.2691,-14.3819,18.9908,22.4595
-1.13628,16.2841,-13.287,2.33881,-1.7453,-1.96369,11.8714,1.855,-2.53768,-4.32079,2.31813,2.22207,-11.6052,1.39396,3.35323,-9.66744,-5.70607,-3.59676,17.3264,-7.88705,3.52915,7.18192,-3.72024,1.0072,2.99047e-14,1.03368e-14,-26.5823,1.56304,-82.9701,39.0682,-4.59431,-11.2451,18.9145,7.12502,14.7844,-10.5381,2.99047e-14,1.03368e-14,-42.0211,6.7882,86.2996,22.0101,0.588854,-4.32334,18.6956,7.12502,21.4434,47.5289,18.7004,12.8367,31.2256,-4.13472e-14,-11.1338,-6.15338,-19.6955,-36.2542,-21.6873,-11.1876,28.8517,-15.4194,19.7988,24.2835
-1.12113,16.274,-13.1457,2.35565,-1.88862,-1.93494,11.8236,1.86964,-2.58908,-4.38728,2.32843,2.19903,-11.6541,1.40341,3.35558,-9.30874,-5.69172,-3.55957,17.2484,-7.87641,3.50534,7.09037,-3.72146,1.00632,-1.99406e-15,-3.97569e-15,-26.5355,1.48088,-83.0436,38.7602,-4.31015,-10.88,19.0889,7.12502,15.1361,-10.3376,-1.99406e-15,-3.97569e-15,-41.961,7.02411,86.0356,21.6766,0.01717,-4.28055,18.0915,7.12502,21.4845,46.92,19.2176,12.6458,31.1418,-6.36111e-14,-11.0333,-5.83477,-20.9547,-36.4383,-22.5742,-10.8817,28.5537,-15.9415,20.6254,25.3912
-1.10328,16.2627,-13.0041,2.35614,-2.0721,-2.04769,11.7388,1.89103,-2.46394,-4.38909,2.37961,2.20258,-11.6034,1.41799,3.27863,-9.26231,-5.71434,-3.3757,17.176,-7.90449,3.33507,7.04502,-3.73945,0.922051,7.13761e-15,-1.03368e-14,-26.4454,1.4898,-83.1037,38.3818,-4.09038,-10.7857,19.7127,7.12502,15.2269,-9.70697,7.13761e-15,-1.03368e-14,-41.8561,7.06983,85.8831,21.6421,-0.181818,-4.18577,17.9533,7.12502,21.5756,46.7715,19.7389,12.5011,31.1829,-2.8625e-14,-10.8827,-5.52806,-21.8325,-36.5173,-22.7084,-10.736,28.4046,-16.2543,20.4845,27.6184
-1.08454,16.2518,-12.8605,2.35217,-2.41505,-2.09985,11.6264,1.98283,-2.3861,-4.35078,2.51372,2.17074,-11.4979,1.47267,3.17237,-9.27072,-5.6778,-3.32888,17.2005,-7.86051,3.32336,7.0504,-3.716,0.914472,2.03879e-14,7.7526e-15,-26.4141,1.30742,-83.1649,38.0746,-3.75567,-10.8261,20.2689,7.12502,15.188,-9.15371,2.03879e-14,7.7526e-15,-41.6535,6.88006,85.8929,21.7815,-0.000640941,-4.03094,18.3852,7.12502,21.7243,47.1862,20.2857,12.5139,31.1481,-4.77083e-14,-10.7212,-5.20565,-22.8191,-36.4146,-22.4162,-10.8834,28.3608,-16.5282,20.0746,29.3625
-1.06446,16.2331,-12.713,2.32219,-2.62073,-2.15357,11.6447,2.00699,-2.3411,-4.38927,2.55612,2.19195,-11.5548,1.49179,3.16024,-9.09119,-5.63218,-3.32663,17.132,-7.79345,3.2865,6.99263,-3.69039,0.91493,-5.01931e-15,-2.66371e-14,-26.5254,1.22013,-83.173,37.8589,-3.54463,-10.8728,20.4574,7.12502,15.143,-8.96861,-5.01931e-15,-2.66371e-14,-41.5735,6.62906,86.0128,21.8822,0.299372,-4.11906,18.3519,7.12502,21.6396,47.1627,20.9014,12.3887,31.115,-7.31528e-14,-10.6726,-4.86122,-23.4925,-36.2265,-22.0404,-11.2031,28.4109,-16.4949,19.7081,29.53
-1.04682,16.2064,-12.568,2.24237,-2.38083,-2.12726,11.7241,1.87755,-2.32953,-4.43608,2.38393,2.2,-11.6412,1.41104,3.19877,-8.92651,-5.60328,-3.32127,17.0258,-7.74546,3.235,6.92535,-3.67511,0.90835,-2.79417e-14,-1.98785e-14,-26.6362,1.08912,-83.1925,37.5968,-3.44053,-11.0364,20.2905,7.12502,14.9855,-9.14725,-2.79417e-14,-1.98785e-14,-41.5072,6.54537,86.0419,21.863,0.460582,-4.25299,18.3452,7.12502,21.511,47.1707,21.5412,11.8214,30.9854,6.36111e-14,-10.6316,-4.37664,-23.4634,-36.0007,-21.5928,-11.7859,28.5025,-15.811,18.7782,29.9955
-1.02916,16.1838,-12.4185,2.1358,-2.26431,-2.13852,11.6971,1.81511,-2.32709,-4.3797,2.30045,2.20633,-11.5545,1.36949,3.22331,-9.12541,-5.54842,-3.33903,17.1909,-7.68346,3.31386,7.01533,-3.63513,0.934291,3.60297e-16,5.1684e-15,-26.6981,0.894853,-83.1632,37.239,-3.28705,-10.9328,20.5825,7.12502,15.0852,-8.84781,3.60297e-16,5.1684e-15,-41.2547,6.60417,85.9514,21.6379,0.173893,-4.24756,18.4443,7.12502,21.5162,47.2692,22.1782,11.371,30.9033,-7.95139e-14,-10.427,-3.95189,-23.5312,-35.6576,-21.1087,-12.3293,28.6552,-14.6546,17.6313,30.518
-1.00076,16.1723,-12.2486,1.98853,-2.67302,-2.14269,11.5372,1.92944,-2.2746,-4.33298,2.46338,2.19599,-11.4157,1.44045,3.1497,-9.1289,-5.5512,-3.2715,17.2339,-7.68817,3.24806,7.02459,-3.63831,0.901395,1.90709e-14,-1.98785e-14,-26.9402,0.625231,-83.0737,36.8903,-3.00012,-10.7075,20.7305,7.12502,15.3023,-8.68339,1.90709e-14,-1.98785e-14,-41.2488,6.4008,86.0379,21.5561,0.13914,-4.48597,18.7312,7.12502,21.2872,47.5821,22.9302,11.4406,30.7806,-5.725e-14,-10.1078,-3.51897,-24.0867,-35.0726,-20.9216,-12.7311,28.873,-13.6979,16.963,31.677
-0.970497,16.168,-12.0782,1.92029,-3.07549,-2.09166,11.2784,2.01352,-2.22118,-4.33726,2.58317,2.14588,-11.2692,1.49001,3.04435,-8.88948,-5.51341,-3.18048,17.1425,-7.63428,3.14319,6.94314,-3.6202,0.866564,-5.37216e-14,2.5842e-15,-27.2158,0.581772,-83.1075,36.4813,-2.94575,-10.9538,20.4573,7.12502,15.065,-8.97452,-5.37216e-14,2.5842e-15,-41.2794,6.17076,86.0239,21.5618,0.188869,-4.51561,18.8588,7.12502,21.2588,47.713,23.5354,11.5303,30.5476,6.67916e-14,-9.57084,-3.06104,-24.9109,-34.62,-20.6954,-13.1535,29.2002,-12.5789,16.5732,33.365
-0.945376,16.1641,-11.9197,1.82879,-3.20344,-1.9914,11.1891,2.02433,-2.29776,-4.33347,2.58239,2.10462,-11.2131,1.4927,3.04491,-8.95898,-5.48569,-3.04267,17.332,-7.59376,2.97581,7.00289,-3.6033,0.790507,-1.3977e-14,1.39149e-15,-27.3503,0.212226,-83.0758,35.831,-2.6507,-11.0897,20.5198,7.12502,14.9341,-8.92183,-1.3977e-14,1.39149e-15,-41.0728,6.21521,85.8843,21.3904,0.0427328,-4.41577,18.9088,7.12502,21.3547,47.7521,24.0735,11.3507,30.2555,3.18055e-15,-8.97555,-2.57843,-25.168,-34.2592,-20.0124,-13.7908,29.6285,-10.9469,16.0971,34.2321
-0.920872,16.1558,-11.7593,1.67267,-3.18011,-1.87652,11.2111,2.00333,-2.45413,-4.2901,2.52944,2.11198,-11.182,1.47799,3.15251,-9.27302,-5.52724,-2.88525,17.573,-7.63702,2.74952,7.12213,-3.62652,0.676524,-2.22515e-14,-7.15625e-15,-27.5162,-0.0728985,-82.9684,35.3005,-2.44531,-11.0944,20.4043,7.12502,14.9295,-9.03764,-2.22515e-14,-7.15625e-15,-40.8834,6.26694,85.8601,21.3025,-0.00720163,-4.48207,18.8996,7.12502,21.291,47.7501,24.7883,11.0121,29.9655,2.54444e-14,-8.36692,-2.10717,-25.4017,-33.822,-19.1476,-14.5302,30.0955,-9.33951,15.6445,33.9916
-0.899636,16.1443,-11.6048,1.64718,-3.07409,-1.6509,11.2244,1.94898,-2.68649,-4.32837,2.41575,2.07299,-11.2335,1.43998,3.26539,-9.49818,-5.52137,-2.94584,17.7658,-7.6234,2.75873,7.22696,-3.61814,0.681228,-3.31722e-15,6.95746e-15,-27.8558,-0.273166,-82.9,34.8943,-2.29593,-11.1443,20.2354,7.12502,14.8815,-9.21009,-3.31722e-15,6.95746e-15,-40.7498,6.29417,85.8093,21.2023,-0.0511767,-4.58313,19.0125,7.12502,21.1939,47.8739,25.3891,10.6038,29.5763,2.8625e-14,-7.6067,-1.73299,-24.2926,-33.6048,-18.528,-15.2207,30.5918,-8.27725,15.2418,34.318
-0.8867,16.1276,-11.4653,1.62587,-2.84513,-1.25457,11.4833,1.88592,-3.21154,-4.48528,2.23435,1.99701,-11.5728,1.39616,3.51385,-9.45505,-5.46381,-3.05879,17.8729,-7.55749,2.89718,7.26224,-3.58154,0.75005,-1.85118e-14,3.57812e-15,-28.4121,-0.483561,-82.8428,34.4628,-2.19647,-11.1572,20.2681,7.12502,14.869,-9.17831,-1.85118e-14,3.57812e-15,-40.6542,6.70758,85.4464,20.8564,-0.577045,-4.29144,19.1328,7.12502,21.4741,47.9626,25.9205,10.0654,29.0377,-1.27222e-14,-6.60712,-1.40388,-21.8801,-33.3951,-17.6934,-16.1611,31.0768,-7.03432,14.5625,33.7414
-0.869456,16.1069,-11.3179,1.46007,-2.62705,-0.875271,11.7071,1.82566,-3.68531,-4.57839,2.06348,1.94108,-11.8173,1.35394,3.75548,-9.29533,-5.43072,-3.25183,17.9821,-7.52076,3.06395,7.28268,-3.56344,0.841571,-1.80273e-14,5.1684e-15,-28.914,-0.769263,-82.7523,33.8325,-1.96237,-11.4109,20.1699,7.12502,14.6246,-9.29439,-1.80273e-14,5.1684e-15,-40.6117,6.81729,85.3187,20.6374,-0.588041,-4.41054,19.1266,7.12502,21.3597,47.9694,26.633,9.5259,28.5145,-2.22639e-14,-5.61557,-1.14713,-21.5288,-32.8925,-16.8776,-17.1406,31.4644,-6.26733,13.77,33.6435
-0.845441,16.0938,-11.1589,1.33462,-2.42906,-0.443386,11.737,1.80926,-4.0424,-4.62705,1.96402,1.7862,-11.8902,1.32872,3.80955,-9.20441,-5.46144,-3.32198,18.1306,-7.58551,3.1931,7.32519,-3.58766,0.889084,-1.92573e-15,-1.76918e-14,-29.4425,-1.38372,-82.5768,33.2069,-1.50344,-11.541,20.2719,7.12502,14.4993,-9.20147,-1.92573e-15,-1.76918e-14,-40.5023,6.97903,85.073,20.3984,-1.11833,-4.58796,18.5892,7.12502,21.1893,47.4511,27.2474,9.03016,27.88,1.27222e-14,-4.44441,-1.0343,-24.1325,-32.3478,-16.0576,-18.1685,31.8096,-5.84852,12.8679,34.7269
-0.828782,16.088,-11.0154,1.3147,-2.04948,0.0857536,11.9373,1.75599,-4.57693,-4.73419,1.77484,1.61538,-12.1305,1.27929,3.96481,-9.21185,-5.53835,-3.33839,18.1568,-7.7092,3.29025,7.34412,-3.63911,0.91042,1.48095e-14,2.82274e-14,-30.0635,-2.22171,-82.3426,32.6724,-0.902489,-11.4161,20.363,7.12502,14.6196,-9.10173,1.48095e-14,2.82274e-14,-40.3305,7.20849,84.7953,20.1417,-1.65108,-4.58625,18.491,7.12502,21.1909,47.3528,24.9831,8.33572,27.1479,4.70739,-4.76413,-0.682501,-26.0436,-32.0677,-14.9073,-19.3234,32.2402,-4.92368,11.7038,34.5321
-0.822538,16.0804,-10.89,1.41027,-1.42386,0.322609,12.1865,1.61419,-4.93673,-4.87742,1.50457,1.57577,-12.4291,1.1886,4.18534,-9.23438,-5.58426,-3.38537,18.0155,-7.77219,3.36318,7.30929,-3.66723,0.936196,-2.30466e-14,5.56597e-15,-30.6531,-2.92202,-82.1049,32.0774,-0.445474,-11.4212,20.3774,7.12502,14.6147,-9.08768,-2.30466e-14,5.56597e-15,-40.0451,7.40649,84.5911,19.7254,-2.01852,-4.75093,18.5095,7.12502,21.0327,47.389,21.2583,7.38537,26.7285,11.679,-5.81862,-0.160382,-25.5772,-32.1439,-13.6943,-20.0824,32.7918,-3.79318,10.3118,33.8379
-0.770744,16.0747,-10.6848,1.28979,-2.09499,0.521998,11.2431,1.80902,-4.74478,-4.6439,1.82872,1.41113,-11.6132,1.29383,3.8326,-9.4473,-5.59682,-3.38311,18.0336,-7.80527,3.46828,7.3585,-3.67007,0.95986,6.65929e-15,3.57812e-15,-31.0954,-3.79265,-81.8968,31.4101,0.134735,-11.5355,19.0684,7.12502,14.5046,-10.4046,6.65929e-15,3.57812e-15,-39.5876,7.87437,84.1614,19.2335,-2.72526,-4.6938,18.2751,7.12502,21.0876,47.1484,19.3497,6.65122,25.6422,16.1462,-5.65568,1.47529,-24.7354,-31.553,-12.8076,-20.7885,33.4896,-4.20858,9.98335,34.9345
-0.750927,16.0491,-10.5555,1.1833,-1.38405,0.715998,11.7365,1.60867,-4.77025,-4.70297,1.51736,1.29561,-11.9402,1.15071,3.78212,-9.78222,-5.61482,-3.42371,18.3267,-7.84264,3.54369,7.52021,-3.67518,0.973792,4.8578e-15,5.96354e-16,-31.6631,-4.67665,-81.6981,30.848,0.803577,-11.4985,17.1829,7.12502,14.5402,-12.2875,4.8578e-15,5.96354e-16,-39.1886,8.30609,83.7364,18.8205,-3.2565,-4.69105,17.967,7.12502,21.0902,46.84,17.7769,5.0174,24.9017,19.8113,-5.13243,2.43876,-24.4052,-31.4745,-12.1696,-21.541,34.2701,-3.63315,8.76579,34.5683
-0.724084,16.0406,-10.4028,1.03438,-1.23631,0.718423,11.9529,1.57,-4.62564,-4.7352,1.47389,1.25262,-12.0958,1.12089,3.66009,-9.87785,-5.58876,-3.36539,18.4216,-7.81253,3.51146,7.5635,-3.65715,0.953173,1.65737e-14,9.14409e-15,-32.3149,-5.49846,-81.3987,30.1627,1.29482,-11.3146,17.4682,7.12502,14.7174,-11.9893,1.65737e-14,9.14409e-15,-38.8635,8.60589,83.4589,18.5029,-3.38931,-4.82454,18.1807,7.12502,20.962,47.068,16.3046,3.95514,24.2916,23.0824,-3.72817,3.2872,-22.1223,-31.1643,-11.6566,-21.985,35.0596,-3.80609,7.95047,34.3936
-0.694586,16.044,-10.2335,0.902803,-1.34827,0.730994,11.7446,1.60494,-4.52077,-4.71632,1.54578,1.22817,-11.9506,1.14194,3.55973,-9.29434,-5.6112,-3.31592,17.9871,-7.83984,3.47316,7.31486,-3.68486,0.952315,-2.22142e-14,1.05356e-14,-33.0623,-6.13047,-81.0507,29.5123,1.61787,-11.0065,18.0163,7.12502,15.0142,-11.4193,-2.22142e-14,1.05356e-14,-38.6687,8.63227,83.4142,18.586,-3.18616,-4.7718,19.3797,7.12502,21.0127,48.2613,14.7122,3.22621,23.6828,26.3862,-1.91557,3.86046,-19.2598,-30.6866,-11.2463,-22.38,35.6828,-4.26943,7.46923,34.0404
-0.666015,16.0456,-10.0757,0.77411,-1.22401,0.703978,11.7217,1.54657,-4.34582,-4.71079,1.49723,1.22761,-11.9183,1.10454,3.471,-8.96758,-5.6477,-3.36171,17.7922,-7.8831,3.47593,7.19718,-3.71589,0.968397,9.13167e-15,1.11319e-14,-33.8219,-6.57963,-80.7329,28.9555,1.86769,-10.9976,18.1721,7.12502,15.0228,-11.2629,9.13167e-15,1.11319e-14,-38.5143,9.05103,83.1468,18.495,-3.70643,-4.67349,19.7784,7.12502,21.1071,48.6496,13.1119,2.42576,23.2006,29.5796,0.107164,4.12083,-18.7296,-30.234,-10.7794,-22.7491,36.1537,-4.48179,6.9237,33.6224
-0.634369,16.0509,-9.9225,0.657557,-1.12054,0.807359,11.7664,1.49242,-4.23576,-4.64608,1.43571,1.17805,-11.8593,1.06179,3.3675,-9.59121,-5.63684,-3.28424,18.1048,-7.84797,3.3157,7.39841,-3.69465,0.885464,-2.72087e-14,6.16232e-15,-34.4128,-6.91506,-80.4916,28.4462,2.03839,-11.2903,19.31,7.12502,14.7408,-10.1459,-2.72087e-14,6.16232e-15,-37.9441,9.79314,82.6643,17.7665,-4.62903,-4.77161,18.9788,7.12502,21.0128,47.8604,11.4269,1.54541,22.5246,32.7921,2.45979,4.39606,-20.4209,-29.6823,-10.3631,-23.259,36.4408,-4.80757,6.38616,32.2376
-0.602391,16.0624,-9.76657,0.529588,-1.25777,0.963332,11.7509,1.49731,-4.20008,-4.62696,1.44221,1.11647,-11.8253,1.05797,3.27838,-10.012,-5.61484,-3.11311,18.2575,-7.79574,3.07102,7.50405,-3.67214,0.769808,7.64079e-15,-2.38542e-15,-35.0459,-7.53345,-80.136,27.8214,2.82224,-11.2892,19.9864,7.12502,14.7419,-9.46941,7.64079e-15,-2.38542e-15,-37.5442,10.5386,82.1765,17.1931,-5.41481,-4.7358,18.7075,7.12502,21.0472,47.5853,9.74023,0.966319,21.8435,36.0374,4.83367,4.59251,-20.8818,-28.924,-9.93511,-23.8054,36.5453,-5.15395,6.03066,29.9392
-0.57289,16.0725,-9.61924,0.383401,-1.38337,1.17479,11.9514,1.52096,-4.31776,-4.71756,1.43968,1.07277,-12.0526,1.07002,3.29503,-9.97345,-5.58767,-3.06046,18.3372,-7.74554,2.93409,7.51373,-3.65692,0.722361,3.40419e-15,3.57812e-15,-35.8084,-8.11812,-79.6808,27.1558,3.63792,-11.0377,19.8187,7.12502,14.9842,-9.61922,3.40419e-15,3.57812e-15,-37.7036,10.5835,82.1012,17.386,-5.42514,-4.72717,19.1829,7.12502,21.0555,48.0598,7.95831,0.607244,21.2369,39.3584,7.09914,4.66187,-21.0608,-28.0571,-9.67285,-24.3421,36.4417,-5.5146,5.80401,29.2976
-0.54167,16.0852,-9.47141,0.339601,-1.50443,1.64449,11.9315,1.55347,-4.67381,-4.74216,1.4095,0.945446,-12.0753,1.07796,3.36353,-9.91949,-5.52742,-3.08797,18.3826,-7.66142,2.93652,7.51746,-3.61877,0.737067,-3.78188e-14,1.19271e-15,-36.3522,-8.56036,-79.3461,26.4435,4.05121,-10.7545,19.6841,7.12502,15.257,-9.73326,-3.78188e-14,1.19271e-15,-37.6557,10.0824,82.4278,17.8911,-4.73754,-4.87189,19.5671,7.12502,20.9165,48.4595,5.99987,0.300958,20.2978,42.6971,9.45187,4.68733,-21.2455,-27.1747,-9.56386,-25.1289,36.1396,-6.24889,5.79939,30.0825
-0.512857,16.1023,-9.32707,0.308721,-1.64926,2.23279,11.8708,1.54465,-5.18129,-4.66921,1.3042,0.836203,-11.9601,1.05763,3.55557,-9.8851,-5.46094,-3.16394,18.2765,-7.53579,2.85141,7.47208,-3.57325,0.73665,-1.39895e-14,3.97569e-15,-36.6119,-8.73269,-79.1442,25.8099,4.45788,-10.8046,19.5189,7.12502,15.2087,-9.90213,-1.39895e-14,3.97569e-15,-37.0651,10.6085,82.2893,17.6742,-4.85677,-5.01705,20.1103,7.12502,20.777,49.0179,3.96106,0.0498326,19.2449,46.0082,11.8117,4.59413,-21.4708,-26.2627,-9.49702,-26.0248,35.7194,-6.87194,5.91193,30.4512
-0.487319,16.1168,-9.18832,0.181334,-1.82904,2.73659,12.0906,1.56312,-5.60155,-4.67984,1.23189,0.72336,-12.1097,1.05419,3.6834,-9.57829,-5.42015,-3.26473,18.2125,-7.45522,2.78604,7.39538,-3.55249,0.749476,2.28851e-14,9.93923e-15,-37.0571,-8.68143,-79.0841,25.4827,4.73354,-10.8369,18.8619,7.12502,15.1777,-10.5615,2.28851e-14,9.93923e-15,-36.6025,12.3718,81.2811,16.6663,-6.79424,-5.28199,19.7111,7.12502,20.5225,48.6464,2.04308,-0.135045,18.3423,49.1889,14.6075,4.21557,-19.7874,-25.2459,-9.32587,-26.8099,35.1764,-6.56483,5.89889,26.778
-0.462198,16.1238,-9.04228,-0.00420715,-2.21099,3.15294,12.1747,1.64804,-5.90587,-4.68118,1.27383,0.592896,-12.1749,1.09277,3.70116,-9.38077,-5.3612,-3.35047,18.2458,-7.3737,2.8222,7.37326,-3.51872,0.788225,5.61567e-15,-1.98785e-15,-37.6399,-9.5709,-78.4026,24.0026,6.81899,-11.77,21.9064,7.12502,14.2786,-7.5827,5.61567e-15,-1.98785e-15,-36.4187,12.3868,81.1978,16.7051,-6.72911,-5.30112,19.9827,7.12502,20.5041,48.92,0.307542,-0.169588,17.5377,52.2122,17.5208,3.20742,-16.4237,-24.0936,-8.95039,-27.497,34.5946,-7.10106,5.90829,27.1238
-0.441524,16.1378,-8.89305,-0.134492,-2.5348,3.65645,12.0477,1.74909,-6.37164,-4.58469,1.32652,0.457686,-12.0085,1.13979,3.80569,-9.52461,-5.31599,-3.38807,18.3258,-7.30998,2.85349,7.42551,-3.48533,0.805586,2.55935e-15,1.27222e-14,-38.0153,-9.98154,-78.0776,23.2811,7.29717,-11.7257,22.6739,7.12502,14.3213,-6.81219,2.55935e-15,1.27222e-14,-36.2469,10.4912,82.2806,18.167,-4.02943,-4.69422,22.6763,7.12502,21.0872,51.5497,-1.46341,-0.161123,16.7119,55.1091,20.3199,1.45965,-11.2282,-22.9342,-8.65107,-28.259,33.9494,-7.71654,5.95752,27.631
-0.424418,16.1532,-8.75635,-0.211191,-2.63616,3.97086,12.1333,1.73059,-6.66981,-4.56476,1.23824,0.397625,-12.0367,1.11818,3.9274,-9.43383,-5.20126,-3.45346,18.2274,-7.15425,2.92988,7.37729,-3.41066,0.859691,3.27995e-14,-1.03368e-14,-38.3766,-10.3782,-77.7989,22.8447,7.99795,-11.3405,22.5713,7.12502,14.6924,-6.88808,3.27995e-14,-1.03368e-14,-36.4178,9.37827,82.6902,18.8797,-2.93374,-4.82557,21.4604,7.12502,20.961,50.3478,-3.35809,-0.303166,16.19,57.9066,23.2783,-0.552566,-5.68649,-21.9215,-8.57079,-28.7898,33.3019,-8.13642,6.00964,27.6356
-0.410256,16.1661,-8.62287,-0.260777,-2.74354,4.32885,12.2904,1.69136,-7.02998,-4.63192,1.09854,0.308001,-12.2026,1.08244,4.06194,-9.20961,-5.10319,-3.39599,18.0617,-7.02029,2.88268,7.27483,-3.3516,0.856052,-4.19933e-15,1.15295e-14,-38.8615,-10.729,-77.4973,22.1974,8.94127,-11.1519,22.7807,7.12502,14.8742,-6.66538,-4.19933e-15,1.15295e-14,-36.4165,9.13797,82.6691,19.189,-2.72796,-4.90199,20.5304,7.12502,20.8876,49.4259,-5.32795,-0.516719,15.6228,60.6218,26.1047,-2.83873,-2.51073,-20.9435,-8.48477,-29.3415,32.6358,-8.26245,6.02246,27.0547
-0.397482,16.1773,-8.48308,-0.380339,-2.86951,4.60849,12.3372,1.67393,-7.26175,-4.6329,1.01897,0.203794,-12.2276,1.05836,4.09557,-9.05145,-5.07218,-3.37588,18.011,-6.97996,2.86086,7.22734,-3.33567,0.854433,1.33186e-14,-1.19271e-14,-39.3891,-11.1402,-77.211,21.3857,9.1921,-11.3039,23.5782,7.12502,14.7277,-5.87864,1.33186e-14,-1.19271e-14,-36.1853,9.30725,82.4509,19.0822,-3.29653,-5.04088,20.0383,7.12502,20.7541,48.9485,-7.17616,-0.728198,15.1595,63.1518,28.7353,-6.18657,1.53362,-19.8378,-8.40467,-29.8183,31.994,-7.89752,6.07791,24.105
-0.387013,16.1894,-8.35293,-0.475849,-2.9733,4.79257,12.3603,1.67908,-7.43255,-4.56745,0.98975,0.142659,-12.1672,1.05076,4.13157,-9.08969,-5.03025,-3.33788,18.057,-6.91915,2.80924,7.24372,-3.30768,0.835952,2.21148e-15,2.0276e-14,-39.7934,-11.7419,-76.8221,20.5367,9.43978,-11.0089,23.6044,7.12502,15.0119,-5.83141,2.21148e-15,2.0276e-14,-35.7947,9.16594,82.5038,19.2211,-3.3218,-5.21481,19.4165,7.12502,20.587,48.3448,-9.04921,-0.92379,14.8749,65.4639,30.4218,-8.86088,7.16843,-18.8408,-8.33185,-30.1762,31.4214,-8.51919,6.09714,25.3418
-0.379908,16.1968,-8.22475,-0.543355,-3.10525,5.20766,12.3414,1.69338,-7.90044,-4.46052,0.923889,0.0529493,-12.0389,1.0434,4.3131,-9.24996,-5.00696,-3.23817,17.9491,-6.87498,2.70505,7.22812,-3.28774,0.787339,-1.50828e-14,9.14409e-15,-40.0317,-12.3704,-76.3908,19.8251,10.0351,-9.75325,21.619,7.12502,16.2213,-7.72239,-1.50828e-14,9.14409e-15,-35.2767,8.82165,82.7063,19.4788,-2.91857,-5.34202,18.8266,7.12502,20.4648,47.7681,-10.8697,-1.1614,14.3511,67.5816,27.5658,-11.8451,9.76571,-17.9378,-8.31794,-30.7725,30.9404,-8.9518,6.19626,26.0415
-0.37034,16.1975,-8.09089,-0.645166,-3.371,5.45043,12.3202,1.70213,-8.14037,-4.41883,0.891453,-0.00562282,-11.981,1.03994,4.39182,-9.26287,-4.93394,-3.09437,17.9481,-6.7683,2.54789,7.21578,-3.24086,0.723335,1.98785e-16,2.38542e-15,-40.506,-12.7984,-75.9958,19.3711,10.7302,-9.00705,20.1634,7.12502,16.9396,-9.11789,1.98785e-16,2.38542e-15,-35.0251,8.34885,82.8909,19.7633,-2.50465,-5.52145,18.8952,7.12502,20.2923,47.8552,-12.5073,-1.25454,14.084,69.4624,25.4996,-11.8758,9.30101,-17.0077,-8.32608,-31.1987,30.5678,-9.49004,6.39195,26.3944
-0.364985,16.1991,-7.96325,-0.750304,-3.57347,5.4602,12.3703,1.70781,-8.17033,-4.37913,0.889997,-0.0127956,-11.9663,1.03936,4.40113,-9.33027,-4.86115,-3.0195,18.1269,-6.66683,2.45173,7.27672,-3.19364,0.6862,4.29872e-14,1.07344e-14,-40.9281,-13.6455,-75.459,18.795,11.7074,-9.21973,20.489,7.12502,16.7349,-8.80968,4.29872e-14,1.07344e-14,-34.8285,7.85429,83.0215,20.1506,-1.92605,-5.61698,19.0929,7.12502,20.2005,48.0626,-14.1518,-1.29457,14.1869,71.1622,23.637,-10.6548,6.46335,-16.1847,-8.32187,-31.3517,30.2995,-9.92909,6.54242,26.3541
-0.35943,16.2011,-7.84134,-0.870644,-3.53214,5.4132,12.5642,1.61589,-8.19544,-4.31479,0.755296,0.0688942,-11.9918,0.980738,4.53646,-9.54683,-4.73753,-3.0945,18.2262,-6.47983,2.44473,7.34436,-3.10648,0.707374,-9.29318e-15,-1.86858e-14,-41.2369,-14.3281,-74.8649,18.2856,12.6193,-9.2658,20.6571,7.12502,16.6906,-8.64534,-9.29318e-15,-1.86858e-14,-34.5268,7.80198,83.0612,20.3263,-1.70297,-5.79901,19.3186,7.12502,20.0256,48.3067,-15.6577,-1.50176,14.3936,72.64,21.412,-8.91708,3.12397,-15.454,-8.63946,-31.4574,30.1598,-10.3868,6.76919,26.3469
-0.353052,16.1999,-7.71304,-1.01727,-3.45234,5.42155,12.6989,1.54093,-8.21245,-4.26681,0.644969,0.107368,-12.0025,0.930803,4.61425,-9.77113,-4.66766,-3.01568,18.295,-6.37056,2.32718,7.39676,-3.05629,0.660815,8.3738e-15,3.18055e-15,-41.7675,-14.6751,-74.4011,17.9621,12.9995,-8.99712,20.1962,7.12502,16.9492,-9.08426,8.3738e-15,3.18055e-15,-34.342,7.5493,83.1892,20.4958,-1.49831,-6.26403,19.3895,7.12502,19.5785,48.4237,-16.9546,-1.82539,14.5408,73.898,18.964,-5.98225,-3.94851,-14.6319,-8.96327,-31.6653,29.9793,-10.773,7.08745,25.6461
-0.345892,16.1979,-7.58615,-1.17541,-3.43378,5.38427,12.7499,1.46492,-8.18957,-4.1582,0.552142,0.154424,-11.8943,0.879927,4.67571,-9.62255,-4.59564,-2.89513,18.0573,-6.2601,2.18162,7.28068,-3.01159,0.611053,-2.98177e-15,2.78299e-15,-42.195,-15.2596,-73.8717,17.6184,13.5466,-8.84474,19.8497,7.12502,17.0959,-9.4181,-2.98177e-15,2.78299e-15,-33.9905,7.60821,83.1808,20.5743,-1.51863,-6.48974,18.4236,7.12502,19.3615,47.4797,-18.2578,-2.06877,14.7653,74.9935,16.3323,-3.42422,-9.49308,-13.6863,-9.04376,-31.8195,29.6084,-11.0843,7.2247,25.1134
-0.335938,16.2107,-7.45749,-1.28203,-3.52255,5.48093,12.6965,1.41653,-8.28755,-4.04393,0.482514,0.173318,-11.7237,0.844724,4.76891,-9.60721,-4.49361,-2.91976,18.1353,-6.1034,2.10573,7.29744,-2.94464,0.605099,-3.8763e-15,-2.78299e-15,-42.4853,-15.9733,-73.2497,17.1373,14.2726,-9.00247,19.879,7.12502,16.9441,-9.40186,-3.8763e-15,-2.78299e-15,-33.6823,7.45007,83.2987,21.2458,-0.998908,-5.92821,18.9187,7.12502,19.9014,47.9197,-19.8134,-2.26137,14.8252,75.9415,14.1262,-1.37188,-13.8891,-12.712,-9.09437,-32.1098,29.0927,-11.4724,7.41917,24.7852
-0.322635,16.2287,-7.31753,-1.47124,-3.64134,5.72836,12.7095,1.38329,-8.47259,-3.97594,0.40667,0.165567,-11.6469,0.816652,4.88285,-9.65281,-4.3742,-2.95996,18.2535,-5.91042,1.98225,7.33627,-2.86494,0.587909,1.99779e-14,-1.31198e-14,-43.0155,-16.0982,-72.8905,17.0484,14.3176,-8.95703,19.5024,7.12502,16.9878,-9.77471,1.99779e-14,-1.31198e-14,-33.5286,7.24304,83.493,22.161,-0.111851,-5.02839,21.1124,7.12502,20.7661,50.0213,-21.2549,-2.39022,14.6877,76.5715,11.7098,0.149845,-17.1081,-11.5819,-9.24658,-32.6046,28.5362,-11.9163,7.66836,24.7624
-0.31315,16.2354,-7.18221,-1.57157,-3.46857,5.77972,12.6883,1.23479,-8.47502,-3.88221,0.218233,0.208705,-11.498,0.720292,4.97522,-9.54567,-4.30795,-2.96136,18.1731,-5.78587,1.80723,7.28246,-2.82248,0.546755,4.69629e-15,-1.23246e-14,-43.4693,-15.9794,-72.7587,17.095,14.0142,-8.89472,19.2173,7.12502,17.0478,-10.0547,4.69629e-15,-1.23246e-14,-33.1802,7.18378,83.6065,22.3532,0.0417361,-4.84996,21.2441,7.12502,20.9376,50.1341,-22.4574,-2.63112,14.8128,76.8297,8.87969,0.688195,-18.1268,-10.5997,-9.51773,-32.873,28.0457,-12.1849,7.79606,24.4256
-0.312014,16.2426,-7.06342,-1.58628,-3.04259,5.57199,12.8495,1.03327,-8.30711,-3.85302,-0.0274449,0.300748,-11.5195,0.596202,5.03865,-9.38002,-4.26054,-2.86138,18.111,-5.71214,1.65868,7.22339,-2.79544,0.493969,-1.91082e-14,-1.19271e-15,-43.9158,-16.5479,-72.1687,16.8509,14.2278,-8.8388,19.5875,7.12502,17.1016,-9.67978,-1.91082e-14,-1.19271e-15,-32.9452,6.87232,83.7508,22.2442,-0.370352,-5.61094,19.3919,7.12502,20.2063,48.361,-23.408,-2.90122,15.3352,76.7413,6.2053,0.428799,-17.9238,-9.91232,-9.95145,-32.7953,27.7654,-12.4162,7.84536,23.8181
-0.310041,16.2435,-6.94924,-1.51313,-2.68364,5.46385,12.9886,0.837137,-8.22587,-3.88253,-0.284809,0.359188,-11.595,0.475476,5.1173,-9.43097,-4.20698,-2.65106,18.2013,-5.63074,1.42626,7.24641,-2.76211,0.390264,-1.09083e-14,-2.06736e-14,-44.4282,-17.0634,-71.5966,16.656,14.6137,-8.79998,19.966,7.12502,17.139,-9.2981,-1.09083e-14,-2.06736e-14,-32.7984,6.65189,83.8277,22.5001,-0.426054,-5.86804,18.9359,7.12502,19.9592,47.9309,-24.5324,-3.15424,15.7083,76.5282,4.07565,0.0702559,-17.9924,-9.50196,-10.2002,-32.7929,27.7435,-12.6413,7.7726,23.514
-0.30451,16.2354,-6.83367,-1.41557,-2.45607,5.45935,13.0735,0.683078,-8.22622,-3.93507,-0.495102,0.42421,-11.6727,0.384203,5.23908,-9.4723,-4.1612,-2.64823,18.3517,-5.55023,1.31803,7.29775,-2.73221,0.359828,-6.01324e-15,1.19271e-15,-44.973,-16.8343,-71.4697,16.7742,14.2141,-8.7291,19.8883,7.12502,17.2072,-9.36987,-6.01324e-15,1.19271e-15,-32.6876,6.54786,83.9291,23.0497,-0.0534956,-5.55227,19.5874,7.12502,20.2627,48.5505,-25.8866,-3.35398,15.9382,76.2322,2.59018,-0.359459,-17.7831,-9.17617,-10.0815,-32.8874,27.8274,-12.8965,7.49832,23.3007
-0.300127,16.2267,-6.71835,-1.34937,-2.34904,5.45428,13.2082,0.57698,-8.29533,-4.02004,-0.654749,0.532803,-11.8254,0.328849,5.43886,-9.33179,-4.09631,-2.83077,18.3434,-5.44025,1.3515,7.27421,-2.69036,0.413937,2.90723e-15,1.47101e-14,-45.5029,-16.5213,-71.2776,16.8187,13.7209,-8.65537,19.7749,7.12502,17.2782,-9.47699,2.90723e-15,1.47101e-14,-32.7695,6.14844,84.237,23.4712,0.116719,-5.83297,19.095,7.12502,19.9929,48.0864,-27.1978,-3.37346,16.1937,75.8019,1.30258,-0.863256,-17.8036,-8.82995,-10.0406,-32.9924,27.9236,-13.2643,7.36478,22.8854
-0.29381,16.2166,-6.59693,-1.36019,-2.29598,5.49865,13.2679,0.498027,-8.35374,-4.00389,-0.768474,0.602564,-11.824,0.282276,5.57698,-9.48324,-4.0306,-2.89434,18.4508,-5.32294,1.27898,7.3334,-2.64353,0.407411,5.46658e-16,1.74931e-14,-45.9814,-16.1231,-71.2623,17.0889,13.0393,-8.46944,19.8144,7.12502,17.4571,-9.42176,5.46658e-16,1.74931e-14,-32.6942,5.93046,84.44,23.6617,-0.2827,-5.89937,18.1602,7.12502,19.9291,47.1583,-28.2597,-3.28877,16.3661,75.2359,-0.160403,-1.48086,-16.6765,-8.37915,-10.292,-33.2217,28.0587,-13.8233,7.49263,22.9482
-0.287655,16.1998,-6.47598,-1.30133,-2.38224,5.53218,13.2706,0.472746,-8.31191,-3.99129,-0.796386,0.586213,-11.8065,0.263926,5.5412,-9.83019,-3.9888,-2.76541,18.6678,-5.2675,1.20201,7.45898,-2.61186,0.356891,-1.85118e-14,7.95139e-15,-46.4239,-16.1717,-71.1147,17.1237,12.884,-8.50072,20.2062,7.12502,17.427,-9.03264,-1.85118e-14,7.95139e-15,-32.4674,5.29981,84.6565,23.9505,0.107464,-5.9984,17.7282,7.12502,19.8339,46.7361,-29.3768,-2.88277,16.5802,74.5495,-1.5436,-2.19292,-13.764,-7.99562,-10.6904,-33.468,28.202,-14.4488,7.94632,22.5735
-0.291843,16.1865,-6.37312,-1.09695,-2.44043,5.5154,13.3945,0.453728,-8.37603,-4.11194,-0.84825,0.612966,-12.0113,0.25941,5.6238,-9.49599,-3.97797,-2.79621,18.4861,-5.266,1.26801,7.34268,-2.61053,0.39256,3.80176e-15,1.03368e-14,-46.9274,-16.4989,-70.6547,16.8474,13.2213,-8.55592,21.3853,7.12502,17.3739,-7.85816,3.80176e-15,1.03368e-14,-32.3578,5.02249,84.7041,24.3758,0.485225,-5.97737,17.2317,7.12502,19.8541,46.2376,-30.6889,-2.40907,16.8539,73.6938,-2.96621,-2.92114,-7.31583,-7.79476,-11.1118,-33.5817,28.2763,-14.925,8.36456,22.4011
-0.291535,16.1772,-6.26201,-0.990607,-2.51574,5.43025,13.5265,0.431047,-8.39683,-4.16615,-0.885915,0.717517,-12.1459,0.256983,5.76526,-9.48783,-3.93323,-2.85211,18.4977,-5.18953,1.23807,7.34417,-2.58055,0.399261,1.78906e-15,-1.59028e-14,-47.408,-16.6949,-70.137,16.7497,13.4761,-8.49486,22.2908,7.12502,17.4326,-6.94753,1.78906e-15,-1.59028e-14,-32.2588,4.89108,84.795,25.1984,1.44985,-5.1945,17.9588,7.12502,20.6065,46.885,-31.7586,-2.02619,17.1064,72.5169,-3.96143,-3.18599,-8.94691,-7.38463,-11.4546,-33.6727,28.2401,-15.4124,8.7792,21.8632
-0.283575,16.1677,-6.1267,-1.07152,-2.59248,5.49444,13.5123,0.425616,-8.40343,-4.06435,-0.887411,0.724914,-12.0195,0.247575,5.77581,-10.1934,-3.88486,-2.80267,18.8396,-5.11991,1.24637,7.57932,-2.53674,0.382232,-7.20594e-15,-1.03368e-14,-47.6922,-16.3373,-70.3472,17.1031,12.5412,-8.16014,21.918,7.12502,17.7548,-7.29149,-7.20594e-15,-1.03368e-14,-32.0156,4.52692,85.0071,25.9763,2.11318,-4.72644,18.8883,7.12502,21.0562,47.7651,-32.355,-1.69688,17.0984,71.0677,-5.15239,-3.66738,-4.46249,-6.57813,-11.6091,-33.9874,28.0376,-15.9699,9.04198,21.9315
-0.28293,16.1654,-5.99767,-0.979664,-2.49035,5.55261,13.4295,0.358609,-8.46031,-4.04967,-0.98018,0.715926,-11.9375,0.202928,5.81733,-10.5342,-3.83194,-2.70605,18.9944,-5.0692,1.29972,7.68883,-2.49764,0.380255,-6.5102e-15,-3.97569e-15,-47.9087,-15.559,-71.0449,17.6371,10.8589,-7.57488,20.7962,7.12502,18.3179,-8.36129,-6.5102e-15,-3.97569e-15,-31.9952,3.45436,85.5222,26.6929,2.51681,-5.23631,19.4424,7.12502,20.5664,48.373,-33.0056,-1.39998,17.139,69.4019,-6.2211,-4.12901,-6.31956,-5.92033,-11.7046,-34.1944,27.707,-16.2889,9.05293,21.4719
-0.287146,16.1646,-5.87818,-0.808711,-2.38997,5.64441,13.4609,0.29081,-8.62962,-4.14069,-1.10834,0.728954,-12.0396,0.164047,5.96025,-10.2197,-3.81609,-2.66269,18.8315,-5.04698,1.23178,7.57535,-2.49338,0.361251,-1.88845e-15,1.94809e-14,-48.2978,-14.9885,-71.4796,18.1325,9.67597,-7.2441,19.7758,7.12502,18.636,-9.35154,-1.88845e-15,1.94809e-14,-32.089,2.75092,85.853,27.2736,2.7071,-5.43331,19.9561,7.12502,20.377,48.907,-33.699,-1.00291,17.1286,67.5633,-6.88843,-4.5274,-7.38442,-5.36473,-11.8944,-34.3953,27.293,-16.5395,9.1385,21.0317
-0.296279,16.1636,-5.75987,-0.727324,-2.29266,5.538,13.6432,0.219215,-8.67127,-4.17689,-1.22029,0.831951,-12.1699,0.127865,6.13136,-10.0687,-3.78223,-2.66653,18.6431,-4.98186,1.14176,7.48294,-2.47242,0.343858,-8.69683e-15,-5.1684e-15,-48.6033,-14.5685,-71.7126,18.3603,9.04664,-7.19377,19.5622,7.12502,18.6845,-9.56042,-8.69683e-15,-5.1684e-15,-32.0092,2.46678,85.9959,27.6284,2.89733,-5.35459,19.5618,7.12502,20.4527,48.5046,-34.1528,-0.491921,17.3318,65.5066,-7.79064,-4.92945,-9.59671,-4.67094,-12.0043,-34.3701,26.843,-16.7655,9.2201,20.4583
-0.306942,16.1664,-5.63829,-0.648613,-2.07532,5.35174,13.6967,0.0889972,-8.66553,-4.15249,-1.37933,0.996611,-12.1424,0.0585263,6.35119,-10.379,-3.71303,-2.73066,18.7412,-4.87021,1.15317,7.57035,-2.41996,0.361715,2.77553e-14,-1.59028e-14,-48.8393,-14.3138,-71.6778,18.3198,8.99815,-7.38471,20.0149,7.12502,18.5008,-9.12531,2.77553e-14,-1.59028e-14,-31.8379,2.21578,86.2103,27.9551,3.07398,-5.97342,18.5402,7.12502,19.8579,47.5457,-34.4116,0.00669361,17.5684,63.2682,-9.27578,-5.38139,-13.8226,-3.90715,-12.1749,-34.2629,26.3371,-16.8901,9.32245,19.6264
-0.310887,16.1729,-5.51418,-0.487593,-1.93,5.40108,13.5635,0.0212933,-8.76087,-4.13669,-1.47238,1.01202,-12.0265,0.0155502,6.43942,-10.2803,-3.7109,-2.70232,18.5997,-4.87696,1.17676,7.5062,-2.41995,0.367397,-1.27968e-14,1.66979e-14,-49.1463,-13.6331,-72.2601,18.7271,8.28517,-7.58979,19.8126,7.12502,18.3035,-9.34622,-1.27968e-14,1.66979e-14,-31.6945,1.80577,86.3736,28.5458,3.42185,-6.32416,18.1147,7.12502,19.5207,47.1547,-34.7097,0.516474,17.4251,60.9202,-8.04157,-6.61587,-8.67528,-3.19992,-12.3539,-34.4196,25.7214,-16.9917,9.47452,18.713
-0.313569,16.1755,-5.3904,-0.370043,-1.98411,5.48844,13.5857,0.0525471,-8.90695,-4.16785,-1.46233,1.00229,-12.0773,0.034888,6.51121,-10.0327,-3.72921,-2.74236,18.3864,-4.92529,1.31838,7.39795,-2.4352,0.422205,1.9307e-14,-3.18055e-15,-49.5181,-13.204,-72.6472,19.1272,7.58945,-7.58642,19.4894,7.12502,18.3067,-9.66916,1.9307e-14,-3.18055e-15,-31.631,1.28846,86.5693,29.1168,3.82598,-6.27029,18.2844,7.12502,19.5725,47.3192,-34.9679,1.25176,17.1907,58.4572,-6.64952,-7.87234,-2.45581,-2.39576,-12.3927,-34.6286,24.9783,-17.1295,9.58454,18.6272
-0.317634,16.1791,-5.26246,-0.290313,-2.15251,5.48616,13.6181,0.124281,-8.91595,-4.18978,-1.37406,0.984114,-12.1388,0.080574,6.47726,-10.3449,-3.74161,-2.62033,18.4652,-4.95778,1.31982,7.47673,-2.4395,0.392563,-1.37907e-14,2.8625e-14,-49.8508,-13.4412,-72.5157,19.1567,7.71406,-7.51498,19.3979,7.12502,18.3755,-9.75414,-1.37907e-14,2.8625e-14,-31.7213,0.828232,86.724,29.8305,4.01385,-6.06742,18.5594,7.12502,19.7675,47.5742,-35.1359,2.10929,17.0314,55.8635,-5.80078,-8.30319,0.841269,-1.44476,-12.4718,-34.7781,24.1296,-17.2815,9.91025,18.3162
-0.324259,16.1792,-5.1287,-0.135546,-2.17947,5.4762,13.5314,0.113031,-8.94718,-4.25681,-1.38921,0.987216,-12.1613,0.0794156,6.50065,-10.5164,-3.76983,-2.54603,18.5542,-5.00579,1.30801,7.53513,-2.45684,0.367548,-1.27968e-14,5.56597e-15,-50.3058,-13.1237,-72.7734,19.4514,7.34395,-7.30004,19.3201,7.12502,18.5822,-9.81236,-1.27968e-14,5.56597e-15,-31.8121,0.590854,86.7804,30.3565,4.22877,-5.92615,18.8603,7.12502,19.9034,47.8611,-35.2579,2.97807,16.8275,53.2027,-6.51433,-7.62781,-1.87061,-0.48184,-12.8102,-34.9261,23.2139,-17.498,10.2511,18.3356
-0.335531,16.1766,-5.00462,0.0773444,-2.0645,5.68764,13.5496,0.102131,-9.26356,-4.37304,-1.47592,0.941285,-12.291,0.0722448,6.65292,-10.4464,-3.83113,-2.46756,18.6096,-5.10715,1.30242,7.54056,-2.50082,0.34383,5.29264e-15,-4.77083e-15,-50.7286,-12.6323,-73.2233,19.7817,6.71326,-7.35737,19.1699,7.12502,18.5271,-9.96779,5.29264e-15,-4.77083e-15,-31.779,0.261943,86.8795,30.7384,4.67478,-5.77508,19.2333,7.12502,20.0486,48.219,-35.3999,3.90103,16.2831,50.5074,-7.39443,-7.55104,-6.48725,0.37248,-12.866,-35.163,22.1839,-17.4421,10.1272,18.0813
-0.344751,16.1816,-4.87992,0.308015,-2.11086,5.81934,13.4589,0.1292,-9.51498,-4.44366,-1.48015,0.943696,-12.3169,0.0940491,6.79875,-10.4277,-3.89571,-2.41927,18.5443,-5.19146,1.23832,7.51434,-2.54401,0.307862,1.61513e-15,1.59028e-15,-50.9622,-12.7184,-73.1447,19.7992,6.79705,-7.36132,18.9349,7.12502,18.5233,-10.2032,1.61513e-15,1.59028e-15,-31.6756,-0.0609836,87.0215,30.936,4.97849,-5.89243,19.0713,7.12502,19.9358,48.0687,-35.5207,4.96441,15.7647,47.7739,-6.68281,-8.07704,-6.8424,1.30822,-12.8221,-35.3315,20.9968,-17.277,10.143,17.3693
-0.35231,16.1914,-4.74486,0.387103,-2.05177,5.81043,13.2985,0.0892561,-9.55186,-4.35949,-1.51331,0.989943,-12.1146,0.068358,6.87191,-10.7236,-3.89625,-2.55778,18.6828,-5.19246,1.39078,7.62095,-2.53691,0.372392,-1.48592e-14,-4.92986e-14,-51.0388,-12.8336,-73.0494,19.8708,6.76741,-7.06269,18.6784,7.12502,18.8105,-10.4321,-1.48592e-14,-4.92986e-14,-31.5364,-0.350049,87.1721,31.2115,5.26219,-6.04667,18.5971,7.12502,19.7875,47.6099,-35.3662,6.11995,15.322,45.028,-6.44188,-8.63638,-7.46628,2.63239,-13.018,-35.4561,19.6451,-17.1386,10.3245,16.9619
-0.362991,16.2016,-4.61661,0.496521,-1.7015,5.98897,13.3349,0.00648646,-9.65871,-4.35452,-1.65665,0.913645,-12.104,0.00425499,6.88041,-10.7141,-3.87252,-2.66711,18.5569,-5.18512,1.63737,7.58757,-2.51848,0.47276,1.74185e-14,2.8625e-14,-51.2775,-12.9915,-73.0107,19.802,6.89979,-7.12068,19.2429,7.12502,18.7547,-9.87295,1.74185e-14,2.8625e-14,-31.4343,-0.623522,87.2689,31.5634,5.49925,-6.09537,18.3428,7.12502,19.7407,47.3604,-35.1965,7.15841,14.6001,42.297,-6.25803,-9.42018,-10.0779,3.9805,-13.3272,-35.7226,18.1422,-16.8777,10.3048,17.3505
-0.374147,16.209,-4.49272,0.747924,-1.47534,6.21359,13.3304,-0.0307226,-9.89802,-4.44605,-1.76117,0.863926,-12.1869,-0.0206087,6.98657,-10.4546,-3.90045,-2.7788,18.279,-5.22689,1.76126,7.45772,-2.53807,0.535014,-8.92046e-15,1.19271e-14,-51.5893,-13.0482,-72.9207,19.5499,7.47019,-7.83617,20.2472,7.12502,18.0665,-8.93376,-8.92046e-15,1.19271e-14,-31.3383,-0.75865,87.3727,31.8415,5.60038,-5.96272,18.5286,7.12502,19.8682,47.533,-35.181,8.30888,13.7484,39.5944,-6.12407,-10.2688,-11.7579,5.13595,-13.4818,-35.976,16.5764,-16.4448,10.3639,17.0204
-0.380688,16.2099,-4.35914,0.917082,-1.52508,6.29277,13.1327,0.0170149,-9.95279,-4.48134,-1.69045,0.829377,-12.1233,0.012334,6.95625,-10.5945,-4.06479,-2.7406,18.4697,-5.44295,1.66449,7.54658,-2.64546,0.471252,-1.2424e-14,1.82882e-14,-52.0137,-13.2329,-72.7389,19.6473,7.99211,-7.78999,20.3761,7.12502,18.1109,-8.80068,-1.2424e-14,1.82882e-14,-31.3375,-0.730205,87.4021,32.0921,5.50875,-5.95933,18.4879,7.12502,19.8715,47.492,-35.0748,9.82527,12.9436,36.949,-6.42754,-10.9056,-10.873,6.43508,-13.6373,-36.1846,14.9565,-16.1187,10.7285,16.0592
-0.390163,16.2123,-4.23145,1.07233,-1.44037,6.37664,13.0272,0.00395691,-10.0863,-4.52409,-1.7211,0.842746,-12.1021,0.0090782,7.0514,-10.9577,-4.15773,-2.67871,18.9031,-5.55252,1.50318,7.75029,-2.70326,0.385181,-4.27387e-15,1.51076e-14,-52.2715,-13.3176,-72.5898,19.726,8.10819,-7.54163,20.2099,7.12502,18.3498,-8.94458,-4.27387e-15,1.51076e-14,-31.378,-0.676065,87.4789,32.2267,5.45417,-5.89404,18.0988,7.12502,19.9342,47.0963,-34.9716,11.3745,12.0231,34.4276,-6.67735,-11.5901,-10.1853,7.78533,-13.5239,-36.2847,13.1869,-15.5538,10.7071,14.4945
-0.405371,16.2186,-4.10587,1.23134,-1.10657,6.47028,12.9651,-0.0701714,-10.2076,-4.50548,-1.83683,0.820295,-12.0193,-0.0433763,7.11787,-10.5424,-4.16749,-2.75786,18.3774,-5.59214,1.72555,7.51292,-2.71297,0.481164,5.14355e-15,8.74653e-15,-52.2744,-13.4724,-72.6078,19.6772,8.02267,-7.45304,19.9059,7.12502,18.4351,-9.24056,5.14355e-15,8.74653e-15,-31.1634,-0.877587,87.551,32.2475,5.69819,-5.63411,18.2082,7.12502,20.1841,47.1796,-34.8555,12.9562,11.0074,32.0285,-6.8772,-12.615,-11.2776,9.20819,-13.4199,-36.2859,11.2137,-14.8357,10.3672,13.052
-0.414211,16.2232,-3.96637,1.36987,-0.922733,6.64428,12.7036,-0.105728,-10.2628,-4.41201,-1.87031,0.708011,-11.7492,-0.081715,7.01738,-10.2269,-4.20481,-2.83478,17.874,-5.6812,2.02357,7.30567,-2.73907,0.593449,-1.15047e-14,-6.75868e-15,-52.2903,-13.5075,-72.8768,19.7963,7.63896,-7.37904,19.7252,7.12502,18.5062,-9.41447,-1.15047e-14,-6.75868e-15,-30.9177,-1.135,87.5863,32.3399,6.00299,-5.50183,18.6017,7.12502,20.3112,47.5596,-34.7779,14.6308,9.8266,29.8373,-8.16955,-13.5383,-9.23595,10.8928,-13.2053,-36.448,8.88649,-13.936,9.99838,12.8726
-0.423332,16.2232,-3.82544,1.46997,-0.944372,6.63882,12.5839,-0.0495699,-10.1549,-4.40427,-1.76992,0.629259,-11.6915,-0.0502305,6.84117,-10.3129,-4.26963,-2.79983,17.7908,-5.81046,2.22537,7.30228,-2.78,0.639311,-8.97016e-15,-3.97569e-15,-52.4688,-13.7507,-72.9037,19.8111,7.50245,-7.22568,19.6433,7.12502,18.6538,-9.48229,-8.97016e-15,-3.97569e-15,-30.8016,-1.27551,87.5884,32.2352,6.16865,-5.53956,18.6602,7.12502,20.2749,47.622,-34.8039,16.6032,8.76921,27.8796,-8.86272,-14.458,-7.53937,13.1873,-12.7804,-36.4022,5.59029,-12.69,9.71689,12.4397
-0.439704,16.2249,-3.69699,1.68251,-0.91636,6.77493,12.526,-0.0163978,-10.3916,-4.47394,-1.76458,0.62549,-11.737,-0.0245936,6.97001,-10.6498,-4.41533,-2.65818,18.119,-5.98632,1.95469,7.46095,-2.8734,0.500379,2.60656e-14,-9.14409e-15,-52.5767,-13.9542,-72.7641,19.7354,7.57954,-7.17056,19.4163,7.12502,18.7068,-9.70417,2.60656e-14,-9.14409e-15,-30.6887,-1.2923,87.635,31.9928,6.2353,-5.67729,17.9665,7.12502,20.1425,46.9422,-35.1641,18.6241,7.44681,26.2458,-9.53183,-15.6521,-7.55413,16.633,-12.4563,-36.3806,3.18055e-14,-10.4679,9.51658,11.4177
-0.456074,16.2315,-3.57312,1.9617,-0.601679,6.91966,12.4498,-0.0750402,-10.5486,-4.55808,-1.86586,0.634156,-11.7665,-0.0552326,7.08962,-10.8762,-4.58309,-2.79677,18.5099,-6.17271,1.8275,7.63481,-2.9787,0.453143,-2.26118e-15,1.11319e-14,-52.6494,-14.4034,-72.3117,19.5366,8.05832,-7.01575,19.3151,7.12502,18.8557,-9.791,-2.26118e-15,1.11319e-14,-30.5994,-1.21177,87.72,31.9191,6.09013,-5.50504,17.8472,7.12502,20.3081,46.8055,-35.5744,20.2881,6.10916,24.911,-10.4978,-16.921,-8.27031,16.8791,-12.4155,-36.4313,6.36111e-15,-10.6408,9.19115,10.4278
-0.470016,16.2352,-3.43825,2.07434,-0.121126,7.0618,12.457,-0.195226,-10.5899,-4.62956,-2.04457,0.593488,-11.8177,-0.132745,7.10704,-9.80075,-4.46099,-3.29065,17.7241,-6.05524,2.51841,7.22188,-2.90964,0.802459,-1.00138e-14,2.10712e-14,-52.8306,-14.6971,-71.977,19.3249,8.40304,-6.90697,19.4901,7.12502,18.9603,-9.60577,-1.00138e-14,2.10712e-14,-30.714,-1.08994,87.7767,31.8983,5.92637,-5.46184,18.4434,7.12502,20.3496,47.3972,-35.7944,22.0826,4.75912,23.936,-11.9964,-18.2373,-6.85497,17.355,-12.4825,-36.5372,-3.18055e-15,-10.6914,8.88716,8.96116
-0.481441,16.2262,-3.29341,2.02115,0.1837,7.19715,12.4659,-0.26621,-10.6098,-4.58457,-2.14585,0.554671,-11.7511,-0.18722,7.09526,-10.416,-4.61394,-3.23869,18.3769,-6.2264,2.25217,7.53945,-3.00114,0.670187,-3.16316e-14,1.78906e-14,-52.8589,-14.4593,-72.206,19.3337,8.02506,-7.08772,19.446,7.12502,18.7865,-9.66682,-3.16316e-14,1.78906e-14,-30.724,-1.07048,87.8362,31.7231,5.79924,-5.46962,18.628,7.12502,20.3421,47.5826,-35.9011,23.6441,3.69817,23.2453,-13.3126,-19.1918,-4.4486,17.9603,-12.3342,-36.661,-5.725e-14,-10.8293,8.51827,8.02992
-0.494179,16.2129,-3.15409,2.05061,0.461618,7.33086,12.4861,-0.328428,-10.6743,-4.574,-2.24489,0.532994,-11.7305,-0.232051,7.12888,-9.84386,-4.55303,-3.33969,17.8681,-6.15393,2.39992,7.27735,-2.96915,0.76035,-2.05245e-14,-1.03368e-14,-52.8398,-14.3306,-72.3048,19.3315,7.87065,-7.1036,19.2909,7.12502,18.7712,-9.82337,-2.05245e-14,-1.03368e-14,-30.667,-0.897501,87.8383,31.4135,5.49148,-5.62717,18.0897,7.12502,20.1907,47.0604,-36.0188,24.4525,2.99201,22.7439,-14.087,-19.7915,-3.74323,18.4371,-12.1853,-36.7552,-3.49861e-14,-10.8989,8.17825,7.28256
-0.510339,16.2001,-3.0178,2.15749,0.834644,7.38037,12.4789,-0.38841,-10.6482,-4.6207,-2.32396,0.525231,-11.7645,-0.267876,7.12269,-9.50975,-4.54087,-3.52738,17.684,-6.14733,2.60028,7.17079,-2.96547,0.86575,-1.34677e-14,7.15625e-15,-52.9169,-14.6458,-71.9953,19.1723,8.16494,-6.95594,19.1798,7.12502,18.9132,-9.92072,-1.34677e-14,7.15625e-15,-30.6486,-0.456191,87.7746,31.1139,4.90296,-5.46992,17.7398,7.12502,20.3419,46.6945,-36.1055,24.911,2.57015,22.4174,-14.7758,-20.1927,-4.28363,18.85,-12.1504,-36.7362,-2.54444e-14,-10.8011,7.99241,5.83944
-0.526215,16.1855,-2.87982,2.22593,1.09181,7.32251,12.5093,-0.445881,-10.5377,-4.67858,-2.3842,0.572341,-11.8373,-0.295504,7.12838,-9.72218,-4.53324,-3.58742,17.8742,-6.12142,2.57825,7.27073,-2.9554,0.864175,2.67862e-14,-1.59028e-15,-52.936,-14.8729,-71.6665,18.8914,8.60602,-7.01026,19.4219,7.12502,18.861,-9.6837,2.67862e-14,-1.59028e-15,-30.7576,-0.235157,87.8141,30.922,4.73268,-5.25826,18.4047,7.12502,20.5453,47.3375,-36.0873,25.2418,2.47298,22.2328,-15.1906,-20.4159,-4.04642,19.3117,-11.9922,-36.6041,5.08889e-14,-10.7644,7.85945,3.99033
-0.543738,16.1669,-2.73872,2.25346,1.29055,7.32243,12.5372,-0.462132,-10.5024,-4.69988,-2.40295,0.587382,-11.8749,-0.303014,7.13099,-9.80421,-4.54763,-3.5751,17.8529,-6.13794,2.56921,7.27819,-2.9623,0.855915,-1.44119e-14,-2.38542e-15,-52.8883,-15.444,-71.0396,18.3546,9.49371,-7.12842,20.1375,7.12502,18.7473,-8.97906,-1.44119e-14,-2.38542e-15,-30.822,-0.0928685,87.8229,30.6505,4.55182,-5.29203,18.2366,7.12502,20.5128,47.173,-35.8449,25.1533,2.62094,22.1597,-15.2232,-20.1421,-3.33662,19.8078,-11.775,-36.5099,-1.90833e-14,-10.9309,7.36268,3.35661
-0.56089,16.1429,-2.60069,2.26387,1.41515,7.23648,12.5455,-0.459794,-10.3957,-4.69092,-2.37785,0.619407,-11.8751,-0.298068,7.10123,-10.7917,-4.80049,-3.34772,18.6275,-6.43734,2.14355,7.69552,-3.11301,0.61918,-3.40419e-15,-1.11319e-14,-52.8288,-15.8626,-70.5652,18.0109,10.1414,-7.09114,20.78,7.12502,18.7832,-8.33312,-3.40419e-15,-1.11319e-14,-30.7942,0.265986,87.7629,30.1832,4.0069,-5.60047,17.4401,7.12502,20.2164,46.4081,-35.4113,24.445,3.26231,22.2555,-14.6064,-19.2081,-3.54577,20.3022,-11.4837,-36.3144,-5.08889e-14,-10.802,6.80607,4.2438
-0.577083,16.1183,-2.46231,2.33124,1.38596,7.13767,12.4738,-0.447582,-10.2717,-4.74764,-2.3285,0.674255,-11.9073,-0.277448,7.0803,-10.445,-4.73926,-3.4505,18.2068,-6.36108,2.29301,7.50166,-3.07605,0.705309,6.88292e-15,3.33958e-14,-52.7411,-15.5421,-70.7843,18.2182,9.56819,-6.51172,20.0593,7.12502,19.3404,-8.99891,6.88292e-15,3.33958e-14,-30.957,0.496627,87.7688,29.8426,4.02027,-5.5419,17.9627,7.12502,20.2727,46.9247,-35.0717,23.5109,4.0544,22.5622,-13.6859,-17.808,-2.64577,20.7298,-11.0628,-36.0848,4.45278e-14,-10.3582,6.31079,6.16949
-0.595729,16.0954,-2.31746,2.33517,1.53773,7.04456,12.4787,-0.477188,-10.186,-4.76634,-2.34726,0.743303,-11.9267,-0.287551,7.11387,-9.99429,-4.63597,-3.61635,17.8103,-6.23349,2.51234,7.30079,-3.01356,0.83078,-7.95139e-16,2.46493e-14,-52.6072,-15.1205,-71.1191,18.4871,8.98152,-6.15273,19.1362,7.12502,19.6855,-9.88701,-7.95139e-16,2.46493e-14,-31.124,0.935208,87.6861,29.3672,3.9075,-5.65086,17.8879,7.12502,20.168,46.861,-34.6787,22.7876,4.76947,22.9735,-12.8514,-16.799,-1.31404,21.2821,-10.8026,-35.86,2.54444e-14,-10.0317,5.88039,6.59836
-0.618167,16.0676,-2.17007,2.28593,1.83708,7.05022,12.4853,-0.502773,-10.2209,-4.71916,-2.38253,0.770484,-11.8672,-0.305782,7.17066,-9.8496,-4.65042,-3.6996,17.6813,-6.25849,2.61338,7.24012,-3.02425,0.879165,9.0944e-15,-1.19271e-14,-52.4298,-14.9725,-71.2849,18.4806,9.03168,-6.39079,19.044,7.12502,19.4567,-10.0026,9.0944e-15,-1.19271e-14,-31.1881,1.63152,87.4653,28.7352,3.247,-5.55478,16.7786,7.12502,20.2603,45.7419,-34.2442,22.2373,5.35566,23.5333,-12.2294,-16.1835,-0.785382,21.9167,-10.6789,-35.7271,-3.81667e-14,-9.96893,5.47643,5.85191
-0.641039,16.0399,-2.02294,2.20838,2.03681,7.05944,12.5327,-0.509807,-10.2015,-4.70504,-2.39387,0.764978,-11.8777,-0.312671,7.15764,-10.3551,-4.76849,-3.60147,18.2118,-6.39591,2.39237,7.49703,-3.09454,0.760741,-3.67752e-15,2.38542e-15,-52.208,-14.5087,-71.8328,18.759,8.32822,-6.09724,18.1116,7.12502,19.7389,-10.9062,-3.67752e-15,2.38542e-15,-31.399,1.80144,87.3964,28.3367,3.08701,-5.83646,16.5863,7.12502,19.9896,45.5781,-33.898,21.7523,5.94417,24.2263,-11.7075,-15.5609,-0.269742,22.5589,-10.4512,-35.6081,3.18055e-14,-9.78126,5.13643,4.10403
-0.663927,16.0222,-1.86878,2.12859,2.1955,7.15251,12.5558,-0.471049,-10.1741,-4.7167,-2.35022,0.6763,-11.918,-0.295457,7.03452,-10.7041,-4.92552,-3.62787,18.6728,-6.60516,2.362,7.71768,-3.19234,0.720232,9.79014e-15,9.54166e-15,-52.1358,-14.2192,-72.2754,19.0266,7.68446,-5.82013,17.4287,7.12502,20.0053,-11.5615,9.79014e-15,9.54166e-15,-31.6361,1.71711,87.3741,27.9682,2.93779,-6.07226,16.9699,7.12502,19.7629,45.9852,-33.6675,21.4623,6.32189,24.9321,-11.5383,-15.2922,1.25225,23.2014,-10.1856,-35.5768,-9.54166e-15,-9.59432,4.8114,2.5531
-0.689031,16.0119,-1.71193,2.05534,2.41433,7.20759,12.5721,-0.487153,-10.2057,-4.73285,-2.38008,0.678889,-11.9399,-0.304932,7.06292,-10.2619,-4.89282,-3.86983,18.2864,-6.5681,2.61352,7.5278,-3.17548,0.860261,1.18774e-14,2.94201e-14,-52.0344,-14.1611,-72.2184,18.7571,8.07174,-6.37708,18.3025,7.12502,19.4698,-10.7427,1.18774e-14,2.94201e-14,-31.861,2.07839,87.3022,27.471,2.44118,-5.85831,17.7688,7.12502,19.9686,46.7628,-33.5342,21.472,6.55358,25.5807,-11.8406,-15.3917,6.91523,23.8579,-9.98757,-35.4785,6.99722e-14,-9.30118,4.48537,1.00403
-0.71373,16.0122,-1.54751,1.95039,2.58601,7.07323,12.48,-0.524031,-10.0799,-4.7037,-2.38705,0.747945,-11.8483,-0.321707,7.06521,-9.89634,-4.83317,-4.02561,17.912,-6.49263,2.78758,7.34905,-3.14057,0.962148,4.45526e-14,3.97569e-15,-51.891,-14.2456,-71.9834,18.3676,8.83844,-7.10186,19.6829,7.12502,18.7729,-9.43128,4.45526e-14,3.97569e-15,-32.1151,2.46689,87.168,27.0302,2.38548,-5.51264,18.1873,7.12502,20.3008,47.1463,-33.388,21.6944,6.91413,26.1537,-11.5491,-15.8326,11.1835,24.5202,-9.74272,-35.1616,8.26944e-14,-8.88674,4.06525,-0.0369317
