JuanDHNZ/ProyectoFinalCD/preprocessing/sports_trials_csv/12_03.csv
root1,root2,root3,root4,root5,root6,lowerback1,lowerback2,lowerback3,upperback1,upperback2,upperback3,thorax1,thorax2,thorax3,lowerneck1,lowerneck2,lowerneck3,upperneck1,upperneck2,upperneck3,head1,head2,head3,rclavicle1,rclavicle2,rhumerus1,rhumerus2,rhumerus3,rradius1,rwrist1,rhand1,rhand2,rfingers1,rthumb1,rthumb2,lclavicle1,lclavicle2,lhumerus1,lhumerus2,lhumerus3,lradius1,lwrist1,lhand1,lhand2,lfingers1,lthumb1,lthumb2,rfemur1,rfemur2,rfemur3,rtibia1,rfoot1,rfoot2,rtoes1,lfemur1,lfemur2,lfemur3,ltibia1,lfoot1,lfoot2,ltoes1
-1.43851,16.4063,-26.0539,2.36072,5.99872,1.58029,13.6691,-0.344527,-8.03525,-5.07308,-1.76337,1.9802,-13.1095,-0.0343452,7.21872,-6.63303,-6.29578,-4.59201,17.3738,-8.89566,4.83188,6.80906,-4.21342,1.58317,1.21631e-14,1.07344e-14,-40.4054,-1.50855,-82.3577,25.562,8.2031,-7.54822,17.7117,7.12502,18.3435,-11.4434,1.21631e-14,1.07344e-14,-38.2109,9.49887,82.3079,27.5527,0.546419,-5.19655,17.8127,7.12502,20.6046,46.7391,-14.5584,14.0111,22.9027,29.2128,-14.6584,-12.2804,16.9198,-21.4406,1.80918,-17.9587,71.8276,9.33734,1.74083,10.0798
-1.41948,16.4209,-25.9393,2.14945,5.05491,1.58478,13.3351,0.0539191,-7.79201,-4.67107,-1.14862,1.88314,-12.5533,0.184065,6.79747,-7.88801,-6.4169,-4.48796,17.8624,-9.03826,4.72112,7.18548,-4.2529,1.47024,2.62768e-14,-1.35174e-14,-39.505,-1.52684,-82.3522,25.556,8.20429,-8.00104,17.9916,7.12502,17.9078,-11.2039,2.62768e-14,-1.35174e-14,-37.5626,9.54683,82.444,27.6368,0.474622,-5.21253,17.2509,7.12502,20.5892,46.179,-13.5572,14.1733,22.984,28.4941,-14.4432,-11.5916,16.5545,-21.7763,2.73927,-18.2128,71.8887,7.96334,1.67194,10.6559
-1.41858,16.4256,-25.8443,2.10548,4.91294,1.52236,13.0972,0.126815,-7.68275,-4.54061,-1.003,1.91178,-12.2837,0.226709,6.72128,-8.11848,-6.44391,-4.67887,18.0014,-9.06431,4.81902,7.28664,-4.26297,1.52024,-9.23106e-15,1.03368e-14,-39.0545,-1.21931,-82.3483,25.6806,7.97033,-8.01088,18.0317,7.12502,17.8984,-11.1647,-9.23106e-15,1.03368e-14,-37.2687,9.83776,82.434,27.5806,0.357305,-5.23546,16.9177,7.12502,20.5672,45.8482,-12.6928,14.1986,23.1869,27.6984,-14.4595,-11.4708,16.6319,-22.6135,2.99053,-18.2506,71.8708,6.90827,1.59397,10.9251
-1.38656,16.4398,-25.6889,1.57124,3.92644,1.52979,12.3578,0.494738,-7.2705,-4.08073,-0.38222,1.73279,-11.4156,0.422794,6.11345,-8.52568,-6.61722,-4.47056,18.0844,-9.29792,4.67566,7.38096,-4.36369,1.40279,-4.13721e-15,6.75868e-15,-38.5442,-1.48267,-82.2396,25.5502,8.11286,-8.16174,18.3957,7.12502,17.7532,-10.8139,-4.13721e-15,6.75868e-15,-36.7151,9.72578,82.5263,27.4978,0.696941,-5.11567,17.6039,7.12502,20.6823,46.5219,-11.1491,14.5924,23.3668,27.0011,-14.4363,-11.0518,15.8673,-22.1093,3.69255,-18.5614,71.482,5.16104,1.79573,10.8213
-1.38213,16.4443,-25.5816,1.39637,3.71697,1.5198,12.2637,0.70165,-7.07115,-3.94427,-0.0742954,1.59059,-11.2508,0.536788,5.76979,-9.48608,-6.78556,-4.1489,18.5759,-9.55672,4.55634,7.70402,-4.44927,1.24674,4.24902e-15,1.51076e-14,-38.0422,-2.17338,-82.0604,25.2343,8.64704,-8.16808,18.7857,7.12502,17.7471,-10.4244,4.24902e-15,1.51076e-14,-36.4568,9.40679,82.6079,27.5348,1.03682,-5.12839,18.0357,7.12502,20.67,46.9551,-10.2209,14.7348,23.5456,26.5271,-14.778,-10.9188,16.5973,-22.6159,3.77555,-18.7146,71.2901,3.75405,2.02784,11.1074
-1.38668,16.4461,-25.5122,1.51153,3.22371,1.5439,12.2558,0.993101,-7.04102,-4.04694,0.307478,1.46833,-11.4213,0.720947,5.53435,-8.47104,-6.8984,-4.39441,18.1653,-9.76012,4.96028,7.43172,-4.55417,1.43645,-8.39244e-15,-8.15017e-15,-37.6343,-2.68548,-81.9967,25.0232,8.90909,-8.03346,18.3838,7.12502,17.8766,-10.8146,-8.39244e-15,-8.15017e-15,-36.765,9.02736,82.6171,27.9267,1.24363,-5.13346,17.8744,7.12502,20.6652,46.7942,-9.92686,14.7333,23.5337,26.1432,-14.7263,-10.5486,16.3335,-23.6588,4.19116,-18.8713,71.0927,2.32519,2.07665,11.2524
-1.39448,16.4414,-25.4477,1.77151,2.64115,1.51098,12.0229,1.23946,-6.96668,-4.08946,0.654956,1.34932,-11.3796,0.874842,5.28196,-8.07566,-6.97598,-4.31835,17.8556,-9.89166,5.06202,7.26869,-4.61655,1.46214,7.20594e-16,-6.55989e-15,-37.1663,-2.93666,-82.0812,25.1682,8.72211,-7.64818,17.6303,7.12502,18.2473,-11.5339,7.20594e-16,-6.55989e-15,-36.6447,8.75905,82.5239,28.2342,1.46619,-4.78372,18.242,7.12502,21.0012,47.125,-9.99342,14.7737,23.5357,26.0122,-14.625,-10.1118,15.7402,-24.9042,4.66364,-18.9489,70.9367,0.850155,1.94251,12.6016
-1.39688,16.4227,-25.3462,1.12374,4.71525,1.73802,12.4081,0.618815,-6.73639,-3.67015,-0.173628,1.19674,-11.0045,0.429906,5.16217,-8.50205,-7.02799,-4.24798,17.9155,-9.95787,5.0311,7.36197,-4.63583,1.41785,8.10669e-15,9.14409e-15,-36.5655,-3.06021,-82.1567,25.2757,8.52624,-7.45097,17.3492,7.12502,18.437,-11.797,8.10669e-15,9.14409e-15,-36.1247,8.79044,82.4762,28.2113,1.355,-4.55807,18.316,7.12502,21.218,47.1747,-8.41907,14.3437,23.8836,25.9989,-16.0237,-11.5081,16.3387,-25.3082,2.43852,-19.2458,70.6524,-0.500732,1.8778,13.2507
-1.39875,16.4315,-25.286,1.91871,2.67825,1.55179,11.6346,1.27104,-6.78063,-3.86513,0.750691,1.23573,-10.8998,0.877382,5.02762,-8.58658,-7.01154,-4.36896,17.9674,-9.92756,5.09017,7.4018,-4.62131,1.45517,-9.97961e-15,-9.93923e-16,-36.3367,-2.75216,-82.2342,25.4229,8.31226,-7.63381,17.8294,7.12502,18.2612,-11.3334,-9.97961e-15,-9.93923e-16,-36.2537,8.72449,82.5205,28.5027,1.58687,-4.68063,17.8895,7.12502,21.1002,46.7615,-9.52628,15.0626,23.7157,26.1292,-15.3787,-10.411,15.2777,-26.9129,4.13629,-19.237,70.3681,-2.592,1.70751,11.4245
-1.40444,16.4079,-25.2143,1.34834,4.44556,1.68231,12.7151,0.790159,-6.77202,-3.88305,0.0300419,1.27411,-11.4599,0.557219,5.2301,-8.32412,-6.95145,-4.56631,17.8914,-9.82741,5.14188,7.33808,-4.58874,1.52372,9.27455e-15,-5.96354e-15,-36.4239,-2.31411,-82.2081,25.5443,8.08958,-7.97198,18.1412,7.12502,17.9358,-11.0517,9.27455e-15,-5.96354e-15,-36.6511,8.86335,82.5349,28.6139,1.74979,-4.71319,17.5672,7.12502,21.069,46.4426,-8.17861,14.6254,24.085,26.0261,-16.5016,-11.5008,15.07,-27.5985,2.27804,-19.407,69.9454,-3.97835,1.46743,8.59503
-1.44904,16.3898,-25.1973,1.84487,4.87253,1.40829,13.4786,0.81029,-7.06198,-4.27359,-0.0396738,1.48096,-12.3625,0.605612,5.6591,-8.48046,-6.96449,-4.55201,17.9647,-9.8225,5.01972,7.38243,-4.5912,1.47619,1.42442e-14,-2.18663e-15,-36.3204,-2.26814,-82.131,25.6558,8.11372,-7.7275,18.0628,7.12502,18.171,-11.1085,1.42442e-14,-2.18663e-15,-36.5984,9.0066,82.5379,28.5773,1.58239,-4.38345,17.9424,7.12502,21.3857,46.7822,-8.5202,14.6789,24.513,25.8945,-16.6386,-11.9608,15.0734,-29.7051,2.02755,-18.9904,69.5531,-4.64811,1.16762,5.12711
-1.41461,16.4166,-25.0735,2.12335,3.3592,1.41721,12.5635,1.26629,-6.82726,-4.30657,0.673303,1.3875,-11.9518,0.903581,5.24407,-8.41197,-6.98654,-4.66578,18.1617,-9.84904,5.01766,7.44183,-4.60989,1.49103,-3.15571e-15,6.75868e-15,-36.4783,-1.93828,-82.2109,26.1555,7.68089,-7.51083,17.9264,7.12502,18.3795,-11.2253,-3.15571e-15,6.75868e-15,-36.7333,8.73739,82.6886,28.7678,1.82522,-4.43312,18.6721,7.12502,21.338,47.5173,-8.42826,14.9384,24.2454,25.7101,-16.3144,-10.9114,14.8046,-30.1014,2.84592,-19.3211,68.4455,-5.96111,1.62744,5.11252
-1.40534,16.4093,-24.9584,1.78765,4.80087,1.69152,12.6448,0.776648,-6.73104,-4.25797,0.015424,1.29094,-11.8431,0.574043,5.23197,-7.77771,-7.03027,-4.85121,17.9543,-9.91107,5.11577,7.27969,-4.66014,1.57155,1.97977e-14,1.09332e-14,-36.6229,-1.50584,-82.3685,26.5512,7.16198,-7.46451,17.8047,7.12502,18.424,-11.3428,1.97977e-14,1.09332e-14,-37.0371,8.64198,82.6818,28.7586,2.08231,-4.71798,18.6821,7.12502,21.0644,47.558,-7.22833,14.5951,24.3818,25.6719,-17.4512,-11.7832,15.4532,-30.4264,1.04983,-19.665,67.3799,-6.89439,1.73115,6.74213
-1.42072,16.392,-24.9056,1.97059,4.62617,1.54991,12.9127,0.919159,-6.7274,-4.34039,0.187305,1.30143,-12.1246,0.669295,5.20634,-7.68152,-7.13191,-4.81296,17.5877,-10.054,5.20006,7.15387,-4.72645,1.58626,-1.93007e-14,4.96962e-15,-36.2279,-1.6289,-82.4409,26.4929,7.18641,-7.67342,17.9631,7.12502,18.2231,-11.2033,-1.93007e-14,4.96962e-15,-36.8984,8.57935,82.5871,28.5528,2.22582,-4.8792,18.1082,7.12502,20.9095,47.0013,-7.06891,14.6975,24.619,25.3689,-17.339,-11.9278,14.3463,-31.4588,0.969959,-19.4693,66.2574,-7.47753,1.71304,7.0075
-1.44804,16.3745,-24.8683,2.35115,4.69523,1.46402,13.2388,1.02906,-6.8987,-4.43974,0.282371,1.34296,-12.4549,0.745942,5.33279,-8.06819,-7.23691,-4.84284,17.5652,-10.1873,5.24886,7.22646,-4.77971,1.57875,1.21197e-14,-8.54774e-15,-35.955,-1.50104,-82.566,26.7696,6.88442,-8.13912,18.0973,7.12502,17.775,-11.1103,1.21197e-14,-8.54774e-15,-36.6585,8.46035,82.6126,28.5179,2.28099,-5.01646,17.9579,7.12502,20.7776,46.8655,-7.21338,14.9572,24.8082,25.1542,-17.4075,-12.2264,14.6017,-32.8322,0.711964,-19.2618,65.0706,-7.65806,1.69033,5.91901
-1.4298,16.3894,-24.7539,2.36125,3.75346,1.36797,12.4367,1.34519,-6.68066,-4.12571,0.804173,1.25647,-11.6805,0.932663,4.98355,-8.44494,-7.30513,-4.72626,17.556,-10.2856,5.25704,7.28968,-4.81014,1.53872,9.07887e-15,-3.18055e-15,-35.4046,-1.34761,-82.7766,26.9423,6.29693,-7.94811,17.6971,7.12502,17.9588,-11.4938,9.07887e-15,-3.18055e-15,-36.3292,8.15317,82.6608,28.6989,2.56852,-5.01812,18.5253,7.12502,20.776,47.4331,-6.7246,15.367,24.8855,24.8855,-17.4189,-11.7935,14.3722,-32.9511,0.950233,-19.2152,63.5233,-8.33175,2.021,5.28249
-1.4234,16.389,-24.6597,2.28906,4.06791,1.323,12.3574,1.31015,-6.44332,-3.88997,0.797721,1.15279,-11.354,0.889126,4.73417,-9.04879,-7.381,-4.49968,17.6639,-10.4094,5.24528,7.42558,-4.84013,1.46184,-1.23635e-14,-5.96354e-16,-34.6643,-1.67412,-82.8534,26.8845,6.21857,-7.54121,17.3921,7.12502,18.3502,-11.7624,-1.23635e-14,-5.96354e-16,-35.8928,7.85887,82.6647,28.7407,2.68884,-5.0238,18.8241,7.12502,20.7705,47.7324,-5.95069,15.2798,25.1294,24.5081,-17.6837,-12.1876,13.4126,-33.3244,0.0739144,-19.1042,61.9129,-8.99641,1.94802,3.9416
-1.42153,16.3759,-24.5744,2.149,5.21291,1.50959,12.9286,1.01225,-6.48083,-3.99649,0.344662,1.12465,-11.755,0.692634,4.82972,-8.87136,-7.42367,-4.55591,17.6646,-10.4473,5.15329,7.39434,-4.8737,1.44419,3.69305e-15,9.54166e-15,-34.8145,-1.38751,-82.9055,27.1153,6.06553,-7.85601,18.1104,7.12502,18.0474,-11.0723,3.69305e-15,9.54166e-15,-36.144,7.86269,82.6373,28.7277,2.54158,-4.95773,18.6037,7.12502,20.834,47.5051,-4.85288,15.0398,25.2826,23.87,-18.2837,-12.8337,14.5133,-33.7294,-1.49806,-19.1964,60.1382,-9.53963,1.42964,3.09013
-1.41412,16.384,-24.5027,2.35702,4.67327,1.50391,13.0508,1.17572,-6.58538,-4.36455,0.533742,1.1795,-12.2809,0.822273,4.90925,-8.10096,-7.25488,-4.7577,17.529,-10.2092,5.19348,7.21417,-4.78873,1.54476,-7.79298e-15,-5.76476e-15,-35.5013,-0.68928,-83.0833,27.5399,5.73347,-8.31719,18.8552,7.12502,17.6036,-10.3679,-7.79298e-15,-5.76476e-15,-36.7227,7.8622,82.6201,28.6365,2.44673,-5.33739,18.1264,7.12502,20.4692,47.0674,-4.59674,14.9744,25.1714,23.3257,-17.9011,-12.3243,14.5008,-34.1694,-1.67917,-19.0921,58.2432,-9.84942,1.2939,5.29769
-1.40966,16.3875,-24.4137,2.35239,5.22832,1.5215,13.1294,0.975812,-6.54542,-4.48196,0.26675,1.212,-12.4252,0.703608,4.98744,-7.92983,-7.12362,-4.86919,17.7075,-10.0281,5.19164,7.23779,-4.71033,1.58422,1.22936e-14,-6.55989e-15,-35.7521,-0.110224,-83.3047,27.8684,5.28945,-8.16196,18.7811,7.12502,17.753,-10.4286,1.22936e-14,-6.55989e-15,-37.0789,7.84862,82.5921,28.5666,2.28074,-5.62766,17.9978,7.12502,20.1903,46.9686,-3.81514,15.0865,25.4006,22.8022,-18.291,-12.931,14.681,-34.4708,-2.83844,-18.9308,56.2659,-9.44355,1.62227,7.43342
-1.40547,16.394,-24.3415,2.52277,4.22203,1.24383,13.2094,1.41083,-6.44719,-4.49756,0.871268,1.26613,-12.5762,0.989384,4.84731,-8.15545,-7.30291,-4.82558,17.7343,-10.2563,5.09427,7.29145,-4.81931,1.5143,6.16854e-15,7.35503e-15,-35.1653,-0.153437,-83.3311,27.7323,5.21538,-7.81203,18.2744,7.12502,18.0897,-10.9044,6.16854e-15,7.35503e-15,-36.913,7.86973,82.5711,28.2933,1.86835,-5.41997,18.2007,7.12502,20.3899,47.1502,-3.53099,15.3814,25.5881,22.1463,-17.6171,-12.7147,12.4984,-34.7556,-2.75217,-18.4284,54.2727,-9.31631,2.26402,8.51862
-1.3919,16.3848,-24.2419,2.393,5.0425,1.34797,13.4255,1.25651,-6.2771,-4.35311,0.670009,1.15465,-12.5041,0.86861,4.67441,-8.25731,-7.4811,-4.66113,17.4431,-10.4966,5.05036,7.21626,-4.92956,1.45013,1.16227e-14,-2.38542e-15,-34.461,-0.589051,-83.2651,27.4711,5.48121,-7.58311,18.1521,7.12502,18.3099,-11.0062,1.16227e-14,-2.38542e-15,-36.4917,7.85477,82.5071,27.7332,1.46551,-5.15503,18.096,7.12502,20.6445,47.0181,-2.37197,15.4394,25.7986,21.3635,-18.1847,-13.4525,12.6893,-34.7361,-4.3474,-18.3102,52.1723,-9.54268,2.60582,7.07908
-1.3767,16.3892,-24.1517,2.49205,4.95812,1.23724,13.3079,1.24819,-6.1286,-4.39872,0.700214,1.21575,-12.4866,0.874952,4.65046,-8.14908,-7.3508,-4.72838,17.4435,-10.3112,5.0569,7.19146,-4.8468,1.48568,1.06412e-14,7.95139e-16,-34.5142,-0.125762,-83.4025,27.664,5.28512,-8.04891,18.5633,7.12502,17.8618,-10.6364,1.06412e-14,7.95139e-16,-36.5806,8.36798,82.2899,27.4071,1.00474,-5.12896,17.7436,7.12502,20.6695,46.663,-1.6674,15.4635,25.9455,20.5619,-18.1663,-13.4084,12.4104,-34.8836,-5.20101,-17.909,50.0144,-9.79581,3.00272,5.55505
-1.35972,16.4007,-24.0566,2.74224,4.84669,1.25671,12.9473,1.18917,-6.10925,-4.51609,0.65228,1.2748,-12.398,0.854095,4.71619,-7.75068,-7.2068,-4.91203,17.3602,-10.0899,5.03031,7.09072,-4.76439,1.54453,2.49413e-14,-7.7526e-15,-34.7726,0.686727,-83.5961,27.6761,5.1316,-8.71612,19.5255,7.12502,17.2197,-9.73155,2.49413e-14,-7.7526e-15,-36.9979,8.55269,82.1975,27.4335,1.02429,-5.05357,17.8373,7.12502,20.7419,46.7488,-1.06485,15.29,25.8596,19.658,-18.0116,-13.1943,12.0128,-35.07,-6.14621,-17.6058,47.7668,-9.80767,3.51173,5.81404
-1.34121,16.4037,-23.9541,2.773,5.16384,1.47889,12.9414,1.0479,-6.19494,-4.55596,0.441765,1.23925,-12.4134,0.761322,4.77547,-7.75452,-7.21345,-4.92467,17.4831,-10.0649,4.81987,7.11946,-4.76891,1.48023,-1.19209e-14,3.97569e-16,-34.7061,1.02012,-83.707,27.5961,5.35252,-8.65829,19.42,7.12502,17.2753,-9.83214,-1.19209e-14,3.97569e-16,-37.2629,8.68053,82.1011,27.3281,0.909746,-4.84779,18.0957,7.12502,20.9396,46.9854,0.0396409,15.1145,25.7485,18.5952,-17.9909,-13.4079,11.4211,-34.9454,-7.44634,-17.5044,45.5035,-9.9065,3.88621,6.88042
-1.32979,16.4068,-23.8592,2.65761,5.21846,1.55574,13.1993,1.09174,-6.20628,-4.48497,0.474361,1.16406,-12.4911,0.774459,4.69143,-8.25265,-7.28326,-4.81144,17.6869,-10.1621,4.77355,7.2702,-4.79886,1.41605,-6.15611e-15,1.35174e-14,-34.2906,1.01283,-83.8399,27.5211,5.4272,-8.24013,18.8244,7.12502,17.6778,-10.392,-6.15611e-15,1.35174e-14,-37.1145,8.61652,82.0286,26.9985,0.731949,-4.8374,18.4707,7.12502,20.9496,47.3593,1.32904,15.2005,25.8498,17.3571,-17.8144,-13.754,10.6254,-34.6944,-8.49604,-17.2009,43.286,-10.0235,4.42007,6.70972
-1.32232,16.4176,-23.7707,2.73947,4.92822,1.47,13.3268,1.28409,-6.1436,-4.47788,0.729203,1.10087,-12.5915,0.88929,4.52411,-8.68824,-7.41892,-4.60622,17.8118,-10.3582,4.69929,7.3829,-4.87463,1.32142,7.10345e-15,7.15625e-15,-33.9661,1.03294,-84.0277,27.4597,5.18096,-8.22991,18.7239,7.12502,17.6876,-10.4916,7.10345e-15,7.15625e-15,-36.9016,8.44095,82.0259,26.7181,0.549823,-5.13659,18.9648,7.12502,20.6622,47.885,2.42069,15.4814,26.0065,15.842,-17.4107,-13.8875,10.2646,-34.7259,-9.27099,-16.6312,41.1454,-9.94441,5.09966,5.47738
-1.30962,16.4304,-23.6792,2.82166,4.86334,1.27966,13.2144,1.3051,-5.97064,-4.47944,0.803407,1.15778,-12.531,0.911514,4.47096,-8.55172,-7.43313,-4.61883,17.7615,-10.3803,4.7145,7.34498,-4.88818,1.33213,1.46914e-14,5.96354e-15,-33.8747,1.20268,-84.0952,27.7387,4.93272,-7.44601,18.3658,7.12502,18.4418,-10.78,1.46914e-14,5.96354e-15,-36.8013,8.67271,81.8984,26.2718,0.259055,-5.29932,18.6411,7.12502,20.5058,47.5781,3.72087,15.5407,26.2646,13.9813,-16.9012,-14.0494,10.0245,-34.8257,-10.232,-15.9121,39.1311,-9.90632,5.68779,5.06942
-1.29328,16.4429,-23.58,2.83016,5.03402,1.11187,12.8061,1.1484,-5.80592,-4.401,0.662958,1.27405,-12.1729,0.824765,4.53873,-8.21987,-7.31419,-4.74073,17.5968,-10.2082,4.76118,7.23301,-4.81911,1.39892,2.14315e-16,-6.55989e-15,-33.8775,1.73097,-84.2394,28.0723,4.65337,-7.69493,18.9575,7.12502,18.2024,-10.2108,2.14315e-16,-6.55989e-15,-36.8621,9.29638,81.5606,25.7508,-0.220172,-5.2025,17.3867,7.12502,20.5988,46.3137,5.35376,15.4001,26.5435,11.8202,-16.2888,-14.2976,9.33701,-34.8321,-11.5751,-15.1593,37.2364,-9.99728,6.33538,6.45973
-1.27862,16.4556,-23.4813,2.94649,4.86579,0.964597,12.5022,1.12772,-5.74331,-4.44206,0.674335,1.36554,-12.0383,0.826664,4.60121,-8.08011,-7.24481,-4.85234,17.5268,-10.1071,4.81402,7.18913,-4.77745,1.44973,-8.67819e-15,1.37161e-14,-33.845,2.14046,-84.3926,27.644,5.23927,-9.88829,21.4331,7.12502,16.0912,-7.9188,-8.67819e-15,1.37161e-14,-37.2147,9.67636,81.3175,25.4921,-0.520922,-5.07281,16.9877,7.12502,20.7235,45.9012,6.99567,15.3196,26.6968,9.30315,-15.3389,-14.2563,8.45768,-34.9427,-12.7118,-14.3444,35.4619,-10.2115,7.22153,7.33194
-1.25782,16.4629,-23.3804,3.12438,4.43244,0.915353,12.3588,1.25281,-5.7909,-4.54445,0.848364,1.42642,-12.0948,0.92039,4.65624,-8.20712,-7.23575,-4.79873,17.5478,-10.059,4.60139,7.20177,-4.7661,1.37315,-2.05618e-15,6.95746e-15,-33.7517,2.52903,-84.5082,27.1349,5.61351,-10.8307,22.1335,7.12502,15.1835,-7.28937,-2.05618e-15,6.95746e-15,-37.5291,9.79616,81.2947,25.3309,-0.534583,-5.0093,17.6005,7.12502,20.7845,46.5073,8.97812,15.5085,26.6701,6.03091,-14.0073,-14.2363,8.21892,-35.0152,-13.7834,-13.6243,33.751,-10.4185,8.57463,7.30877
-1.23292,16.4672,-23.2755,3.14682,4.35712,1.03488,12.2433,1.26662,-5.91936,-4.53011,0.85488,1.45025,-12.0141,0.931667,4.75426,-8.42312,-7.17636,-4.79753,17.7304,-9.95522,4.47672,7.28738,-4.72008,1.33282,-2.3674e-14,-1.55052e-14,-33.8189,3.02159,-84.601,27.523,4.81195,-9.60502,20.3986,7.12502,16.364,-8.93106,-2.3674e-14,-1.55052e-14,-37.7048,9.86714,81.3236,25.1469,-0.514206,-4.83015,17.8375,7.12502,20.9566,46.7254,12.785,15.314,26.5169,1.27222e-14,-11.6348,-14.3604,8.07154,-34.9741,-15.2594,-13.1045,32.2017,-10.7342,10.0173,8.05515
-1.21177,16.4745,-23.1726,3.13743,4.56014,1.15623,12.087,1.15431,-5.95786,-4.46051,0.703975,1.4141,-11.8201,0.852878,4.76943,-8.5984,-7.03224,-4.78376,17.9021,-9.77466,4.54824,7.36819,-4.62093,1.36298,1.94871e-14,2.22639e-14,-33.9422,3.48142,-84.8484,28.0359,4.57454,-9.59479,19.1448,7.12502,16.3738,-10.184,1.94871e-14,2.22639e-14,-37.817,9.97143,81.2249,25.0466,-0.481887,-4.90881,17.984,7.12502,20.881,46.8802,13.2453,14.8374,26.4054,-1.11319e-14,-11.9946,-14.1023,7.7922,-35.0633,-16.9563,-12.4979,30.8426,-11.2522,11.2122,9.76988
-1.19043,16.4723,-23.0665,3.17993,4.5101,1.08198,11.8409,1.13382,-5.84528,-4.42261,0.711107,1.41258,-11.6263,0.840225,4.70097,-8.51583,-7.02159,-4.75416,17.7535,-9.76689,4.58624,7.30512,-4.61572,1.37626,-6.24308e-15,3.18055e-15,-33.924,3.73404,-85.078,27.7725,5.65222,-11.0909,19.1982,7.12502,14.9329,-10.2435,-6.24308e-15,3.18055e-15,-37.9439,10.0591,81.1194,24.8878,-0.524856,-4.94179,17.938,7.12502,20.8493,46.8377,13.6231,14.6256,26.4925,3.49861e-14,-12.3914,-13.8581,7.62669,-35.2624,-18.4385,-11.6441,29.6941,-11.9192,12.68,10.5198
-1.16792,16.4662,-22.9596,3.17463,4.22912,0.846108,11.9449,1.17063,-5.68783,-4.59417,0.788089,1.50682,-11.8924,0.882729,4.69978,-8.1208,-7.02008,-4.72748,17.5938,-9.75219,4.46091,7.1748,-4.62781,1.35031,4.01297e-15,-1.39149e-15,-34.1666,4.12718,-85.2588,27.22,6.39465,-11.9276,19.562,7.12502,14.1267,-9.93772,4.01297e-15,-1.39149e-15,-38.4871,10.3012,80.9181,24.6624,-0.710569,-4.75619,17.7816,7.12502,21.0277,46.6616,14.0093,14.6473,26.7457,-1.11319e-14,-12.6706,-13.6133,7.4196,-35.3779,-19.5981,-10.7081,28.7358,-12.6302,14.1926,10.2433
-1.14548,16.4557,-22.8636,3.11574,4.05881,0.760057,12.286,1.17776,-5.69234,-4.77539,0.781354,1.57346,-12.3077,0.90164,4.78016,-7.96997,-6.94256,-4.73025,17.8138,-9.64464,4.36276,7.20938,-4.58514,1.33275,3.97569e-15,1.39149e-14,-34.3405,4.41162,-85.3557,26.7516,6.43089,-11.9028,19.9425,7.12502,14.1507,-9.55557,3.97569e-15,1.39149e-14,-39.0309,10.5787,80.672,24.4415,-1.0113,-4.58275,17.9367,7.12502,21.1943,46.7981,14.4583,14.5463,26.8481,9.54166e-15,-12.957,-13.3612,7.08479,-35.5916,-20.8417,-9.93119,28.0213,-13.4221,15.5037,10.8369
-1.12125,16.4461,-22.7687,3.12274,4.07627,0.748104,12.1755,1.19574,-5.58209,-4.63616,0.823143,1.48375,-12.0807,0.897052,4.60676,-8.43093,-7.00432,-4.33279,17.7944,-9.73532,4.16755,7.25844,-4.61071,1.18196,4.41053e-16,5.36719e-15,-33.8786,4.38171,-85.5681,26.534,6.01293,-11.5066,20.1136,7.12502,14.5324,-9.35738,4.41053e-16,5.36719e-15,-38.7478,10.9429,80.3345,23.9608,-1.71563,-4.38177,18.0531,7.12502,21.3873,46.8927,14.8406,14.2629,26.8599,1.90833e-14,-13.127,-13.2289,5.79029,-35.9458,-22.1211,-9.22692,27.4321,-14.2555,16.5251,12.26
-1.09597,16.437,-22.67,3.14498,3.96605,0.613394,11.9638,1.24713,-5.42823,-4.48042,0.93028,1.45875,-11.783,0.921612,4.46626,-9.05116,-7.06771,-4.03724,17.7518,-9.83815,4.12012,7.3411,-4.63359,1.08724,1.72508e-14,7.95139e-16,-33.4794,4.30548,-85.7138,26.6695,5.88721,-10.1723,20.004,7.12502,15.8178,-9.36978,1.72508e-14,7.95139e-16,-38.4325,11.1068,80.1536,23.4927,-2.25378,-4.32417,18.0803,7.12502,21.4426,46.9137,15.1871,14.1172,26.9757,2.54444e-14,-13.306,-13.0746,5.02984,-36.1754,-22.9362,-8.61281,26.9163,-14.7422,17.3357,12.0912
-1.069,16.426,-22.5694,3.1634,3.67118,0.483493,11.8613,1.26457,-5.45883,-4.52873,0.969936,1.606,-11.7863,0.951508,4.63804,-8.7302,-6.95407,-4.2056,17.5886,-9.66126,4.14722,7.23338,-4.56607,1.15451,1.2188e-14,1.41137e-14,-33.8921,4.58287,-85.5993,25.6015,9.0635,-13.1945,23.8228,7.12502,12.9057,-5.75818,1.2188e-14,1.41137e-14,-38.8596,11.1431,80.2521,23.3542,-2.35687,-4.65909,18.1373,7.12502,21.1209,47.0069,15.5279,14.1555,27.0735,-5.08889e-14,-13.3658,-12.9711,4.35046,-36.2527,-23.2628,-8.24187,26.4907,-14.9886,17.8893,11.3159
-1.04109,16.4157,-22.4668,3.1814,3.38524,0.409617,11.8052,1.27166,-5.50053,-4.60352,0.984501,1.6955,-11.8437,0.969871,4.75815,-8.10184,-6.87697,-4.37023,17.4742,-9.55217,4.18508,7.0907,-4.53457,1.22809,2.80162e-15,-1.78906e-15,-34.1949,4.89332,-85.6651,25.4369,9.98152,-14.4811,24.7935,7.12502,11.6652,-4.86176,2.80162e-15,-1.78906e-15,-39.2547,11.0397,80.3,23.2199,-2.26041,-4.93492,17.9833,7.12502,20.8559,46.8823,15.8811,14.1843,27.0995,3.18055e-14,-13.5378,-12.7645,4.312,-36.3345,-23.8683,-7.84042,26.1809,-15.5526,18.459,12.3588
-1.0095,16.3995,-22.3582,3.15324,3.20701,0.46008,11.7714,1.28982,-5.52671,-4.63001,1.0003,1.64323,-11.855,0.977755,4.71179,-7.92329,-6.85401,-4.36857,17.5116,-9.54202,4.25277,7.07416,-4.52696,1.25642,1.10822e-14,1.64991e-14,-34.1492,4.94106,-85.8352,25.5789,9.06742,-13.74,24.1861,7.12502,12.3798,-5.42732,1.10822e-14,1.64991e-14,-39.1854,11.3687,79.9929,22.5538,-2.74996,-4.93571,17.8998,7.12502,20.8552,46.7989,16.3447,14.0967,26.9966,1.90833e-14,-13.7582,-12.4941,4.0476,-36.2724,-24.3402,-7.75182,25.9297,-15.8164,18.6551,13.0951
-0.975842,16.3831,-22.2479,3.08982,2.96587,0.446216,11.882,1.33963,-5.51817,-4.65896,1.06095,1.63147,-11.9623,1.00935,4.68047,-8.18779,-6.86222,-4.23157,17.6514,-9.55253,4.14321,7.15413,-4.52585,1.18725,-1.6027e-14,5.1684e-15,-34.056,5.11514,-86.0403,26.2114,6.86074,-11.3044,22.0161,7.12502,14.7273,-7.44078,-1.6027e-14,5.1684e-15,-39.2653,11.7678,79.6407,22.0342,-3.231,-4.79518,17.9892,7.12502,20.9902,46.8733,16.8628,14.0741,26.9506,1.90833e-14,-13.9072,-12.2072,3.83089,-36.0402,-24.3735,-7.8687,25.7628,-15.4623,18.6285,12.7531
-0.94515,16.3674,-22.1383,3.055,2.69142,0.33525,11.9361,1.37314,-5.53386,-4.71362,1.10959,1.71936,-12.0673,1.0429,4.77626,-8.1107,-6.86664,-4.19399,17.5291,-9.54676,4.06593,7.09485,-4.5305,1.16182,-2.72708e-15,1.78906e-15,-34.1178,5.22636,-86.0658,25.3685,8.02102,-12.4342,23.6892,7.12502,13.6386,-5.84399,-2.72708e-15,1.78906e-15,-39.7816,12.0513,79.4413,21.9403,-3.51659,-4.72385,17.8053,7.12502,21.0587,46.6818,17.3311,14.0876,27.0258,5.40694e-14,-13.8567,-12.0396,2.52676,-35.7695,-24.0541,-8.03855,25.6765,-14.9704,18.3722,11.647
-0.91625,16.3489,-22.0275,3.07676,2.32614,0.218688,11.7009,1.43231,-5.5171,-4.67652,1.21104,1.76671,-11.897,1.08597,4.79667,-8.12017,-6.8278,-4.26368,17.5127,-9.50663,4.19758,7.09947,-4.50486,1.21841,-1.12003e-14,-1.5704e-14,-34.0786,5.39799,-86.2544,25.2458,7.78523,-12.1695,23.3813,7.12502,13.8937,-6.13454,-1.12003e-14,-1.5704e-14,-40.1428,11.9874,79.4211,22.0088,-3.58963,-4.87714,17.8744,7.12502,20.9115,46.7673,17.7597,14.1981,27.0918,-3.18055e-15,-13.6826,-11.8895,1.37722,-35.5045,-23.4769,-8.27495,25.7178,-14.7085,17.6587,12.8223
-0.88229,16.3319,-21.917,3.13871,1.81783,0.122646,11.4654,1.59967,-5.47783,-4.61967,1.45678,1.76613,-11.7211,1.19297,4.72005,-8.3845,-6.85635,-4.25563,17.6328,-9.55887,4.2718,7.19081,-4.51649,1.22435,3.19298e-15,7.35503e-15,-34.1557,5.25498,-86.2488,25.2578,7.81868,-11.9946,23.1928,7.12502,14.0622,-6.31143,3.19298e-15,7.35503e-15,-40.1431,11.7119,79.5689,21.8758,-3.55364,-4.93072,18.3257,7.12502,20.86,47.2242,18.1252,14.4651,27.0699,6.36111e-15,-13.6244,-11.5841,1.68048,-35.182,-22.6469,-8.64004,25.8183,-14.2907,16.6149,15.5523
-0.845253,16.314,-21.8035,3.10439,1.4558,0.0314617,11.3574,1.72927,-5.3941,-4.57705,1.64631,1.71922,-11.6268,1.27062,4.57971,-8.55002,-6.89649,-4.00646,17.7444,-9.63742,4.1849,7.24283,-4.54072,1.142,-2.63887e-14,1.98785e-16,-34.2546,4.92487,-86.2519,25.3999,7.71867,-11.1072,22.579,7.12502,14.9172,-6.86387,-2.63887e-14,1.98785e-16,-40.1747,11.8285,79.3187,21.5386,-3.85233,-4.76719,17.8743,7.12502,21.0171,46.7555,18.5783,14.5809,27.0442,9.54166e-15,-13.737,-11.2584,1.43026,-34.757,-22.1591,-9.01699,25.9976,-13.46,15.8692,16.4844
-0.807163,16.2937,-21.6837,2.96844,1.35101,0.0747847,11.2696,1.74321,-5.462,-4.49121,1.65889,1.7103,-11.4807,1.27489,4.6067,-8.73802,-6.85128,-3.9099,17.83,-9.58083,4.13978,7.2942,-4.50649,1.10984,3.05072e-14,-1.23246e-14,-34.2508,4.79924,-86.2736,25.5364,7.51463,-10.239,21.6667,7.12502,15.7535,-7.71223,3.05072e-14,-1.23246e-14,-40.2682,12.2902,78.9551,21.1861,-4.41293,-4.51687,17.4913,7.12502,21.2575,46.3456,19.1841,14.4226,26.9174,-6.99722e-14,-13.7285,-11.0979,0.714994,-34.2281,-21.7128,-9.6288,26.2282,-12.1836,14.9538,15.1809
-0.767641,16.2776,-21.5585,2.81091,1.42521,0.0619667,11.2267,1.65216,-5.47205,-4.41657,1.5459,1.78678,-11.3588,1.22002,4.72154,-9.03575,-6.76966,-3.92178,18.1152,-9.45496,4.04639,7.4304,-4.44559,1.0796,1.04983e-15,9.54166e-15,-34.3887,5.09798,-86.3424,25.7088,7.5518,-9.88985,20.9226,7.12502,16.0897,-8.42941,1.04983e-15,9.54166e-15,-40.4168,12.7059,78.7827,20.9433,-4.83338,-4.41079,18.2797,7.12502,21.3594,47.1225,19.8583,14.0863,26.8654,5.40694e-14,-13.5354,-11.121,-0.69548,-33.8586,-21.516,-10.0675,26.5161,-10.9134,14.0379,15.7592
-0.723155,16.2662,-21.4362,2.64169,1.43492,-0.0831929,11.4126,1.6146,-5.21075,-4.3715,1.53042,1.81294,-11.4071,1.19475,4.60328,-9.3751,-6.78642,-3.77683,18.2775,-9.47821,3.92829,7.53162,-4.44893,1.00181,-1.42193e-14,-8.94531e-15,-34.3319,4.72334,-86.1925,25.6483,7.73554,-9.21445,20.4786,7.12502,16.74,-8.81963,-1.42193e-14,-8.94531e-15,-40.4003,12.565,78.8432,20.5713,-4.92745,-4.61551,18.4814,7.12502,21.1628,47.3463,20.5437,13.8203,26.9445,-1.59028e-14,-13.2134,-11.0882,-2.8615,-33.6641,-21.84,-10.0993,26.7896,-9.92075,13.7802,18.8706
-0.679741,16.2576,-21.3148,2.38157,1.31864,-0.181927,11.6716,1.59855,-5.10346,-4.37288,1.52002,1.87681,-11.5609,1.18918,4.61308,-9.48091,-6.71888,-3.64771,18.3077,-9.3742,3.76755,7.54142,-4.40294,0.936163,1.63997e-15,-1.98785e-16,-34.4802,4.77606,-86.1513,25.458,7.7161,-9.01929,20.2254,7.12502,16.9279,-9.05689,1.63997e-15,-1.98785e-16,-40.665,12.7941,78.6553,20.1566,-5.28812,-4.71535,17.7175,7.12502,21.0669,46.5931,21.3341,13.6672,26.9926,-6.36111e-15,-12.8552,-10.8896,-4.96683,-33.3251,-22.0153,-10.236,27.074,-9.04073,13.8664,20.1308
-0.634849,16.2475,-21.1947,2.27263,1.21354,0.0263916,11.7045,1.59876,-5.38083,-4.46506,1.47347,1.88841,-11.6916,1.19459,4.79458,-9.4319,-6.64399,-3.72816,18.5672,-9.27249,3.76547,7.61765,-4.35745,0.956777,4.77083e-15,-7.55382e-15,-34.96,5.25089,-86.2337,25.3655,7.45835,-9.1249,19.8914,7.12502,16.8262,-9.3996,4.77083e-15,-7.55382e-15,-41.1847,12.8217,78.5918,20.0306,-5.39661,-4.7361,17.4983,7.12502,21.047,46.3761,21.9347,13.523,26.6417,-1.59028e-14,-12.5265,-10.5906,-6.52724,-32.9821,-21.7976,-10.8296,27.3535,-8.09107,13.8313,19.8193
-0.589242,16.2374,-21.0741,2.26351,1.15749,0.24718,11.7922,1.63166,-5.56524,-4.59581,1.47305,1.81552,-11.8988,1.21443,4.81907,-9.58443,-6.68564,-3.71405,19.0267,-9.34181,3.70849,7.7958,-4.38548,0.917029,-1.58779e-14,5.96354e-15,-35.3633,4.84956,-86.0518,25.205,7.78523,-9.00186,20.0429,7.12502,16.9446,-9.23794,-1.58779e-14,5.96354e-15,-41.5959,12.7816,78.4848,19.9813,-5.56993,-4.76445,17.3456,7.12502,21.0197,46.2265,22.3893,13.3471,26.238,2.8625e-14,-12.2044,-10.3008,-7.31277,-32.6572,-21.3177,-11.5123,27.6395,-7.23126,13.4605,19.7058
-0.543902,16.2313,-20.9543,2.30486,1.02686,0.488989,11.6318,1.61428,-5.82297,-4.62952,1.41355,1.79744,-11.8427,1.20434,4.96042,-9.70238,-6.64036,-3.75627,19.1349,-9.27091,3.69023,7.85103,-4.35296,0.919508,-1.33186e-14,-6.36111e-15,-35.4043,4.33559,-85.7922,24.8706,8.27503,-8.77417,20.2221,7.12502,17.1638,-9.03983,-1.33186e-14,-6.36111e-15,-41.8113,13.0547,78.3161,19.7837,-5.74178,-4.90627,17.1087,7.12502,20.8835,46.0046,22.7762,13.2527,25.7931,5.725e-14,-11.7161,-10.0861,-8.31662,-32.3528,-20.6044,-12.2439,27.9177,-6.86255,12.8397,21.6449
-0.498565,16.2283,-20.8339,2.29178,0.92217,0.800672,11.4539,1.56915,-6.07412,-4.58156,1.31465,1.72248,-11.6744,1.16592,5.0432,-9.72153,-6.59154,-3.82883,18.964,-9.20165,3.78826,7.80352,-4.31835,0.971698,2.13072e-14,-2.90226e-14,-35.213,3.77968,-85.5867,24.2823,8.80674,-8.79195,20.31,7.12502,17.1467,-8.95343,2.13072e-14,-2.90226e-14,-41.8286,13.4278,78.0351,19.4283,-6.06101,-4.86264,17.3021,7.12502,20.9254,46.1935,23.2159,13.1295,25.2756,-1.59028e-14,-11.1412,-9.82051,-8.59046,-32.0439,-19.7581,-13.1251,28.3187,-6.71703,12.1615,23.341
-0.452682,16.2277,-20.7078,2.151,0.952227,1.09426,11.5346,1.5369,-6.31167,-4.57274,1.22126,1.66626,-11.7072,1.13752,5.13671,-9.43641,-6.60714,-3.91329,18.7643,-9.21132,3.80814,7.69209,-4.33511,1.00326,8.88319e-15,-6.75868e-15,-35.5248,3.68109,-85.4581,24.0592,8.62792,-9.04514,20.6126,7.12502,16.903,-8.67179,8.88319e-15,-6.75868e-15,-42.0747,13.5175,77.9654,19.3805,-6.16618,-4.59532,17.6173,7.12502,21.1822,46.48,23.8253,12.8602,24.8241,0,-10.4261,-9.62035,-10.209,-31.5988,-18.8673,-14.0761,28.7391,-6.49527,11.242,24.5359
-0.408065,16.2087,-20.5881,1.99745,0.983396,1.2928,11.7767,1.51877,-6.53552,-4.72599,1.14236,1.68116,-12.0266,1.13384,5.29884,-8.66363,-6.59856,-4.08364,18.5342,-9.19005,3.83497,7.48739,-4.35147,1.07162,-4.5969e-15,8.74653e-15,-36.3852,3.57785,-85.2674,24.1483,8.68692,-9.06262,20.4737,7.12502,16.8862,-8.81218,-4.5969e-15,8.74653e-15,-42.6271,13.6247,77.828,19.3187,-6.36383,-4.52425,17.7838,7.12502,21.2505,46.6389,24.4374,12.5943,24.4755,5.725e-14,-9.78506,-9.41594,-12.0124,-31.244,-17.8722,-14.8887,29.1948,-6.14598,10.2923,26.3271
-0.360095,16.2067,-20.4671,1.99254,0.974776,1.32197,11.8669,1.58284,-6.4134,-4.82018,1.23227,1.59973,-12.1955,1.17121,5.11813,-8.54591,-6.71694,-4.01091,18.6092,-9.37421,3.83805,7.49552,-4.43534,1.04585,8.38623e-15,-4.77083e-15,-36.8813,2.75539,-84.909,24.0885,9.24888,-8.48054,19.8463,7.12502,17.4464,-9.39074,8.38623e-15,-4.77083e-15,-42.597,13.4639,77.736,18.8351,-6.68089,-4.64257,17.7049,7.12502,21.1368,46.5727,22.5028,12.3602,24.2472,4.1464,-10.8257,-8.93242,-13.6763,-31.0003,-16.9146,-15.4454,29.5946,-5.85494,9.36324,29.2539
-0.309213,16.2048,-20.3437,1.98782,1.01018,1.43329,11.7053,1.61461,-6.3007,-4.75623,1.29371,1.49028,-12.0246,1.17797,4.91864,-8.75701,-6.8445,-3.92875,18.6306,-9.55874,3.83924,7.544,-4.51344,1.00656,1.27222e-14,1.19271e-14,-37.063,1.84705,-84.5682,23.8171,9.56329,-8.18892,19.7427,7.12502,17.7271,-9.46922,1.27222e-14,1.19271e-14,-42.3321,13.6202,77.5085,18.2544,-7.28448,-4.6604,17.5988,7.12502,21.1197,46.4686,20.3699,12.0837,23.8824,8.62625,-11.7503,-8.40708,-13.048,-30.7727,-16.0929,-16.0797,29.9951,-5.41863,8.49613,31.1127
-0.260714,16.205,-20.2216,1.95178,1.22673,1.4856,11.5724,1.48797,-6.23061,-4.72237,1.14724,1.52038,-11.8826,1.09886,4.94523,-8.98018,-6.84528,-3.99507,18.6886,-9.52865,3.75529,7.60068,-4.50634,0.983947,1.22998e-14,-5.96354e-15,-37.3939,1.43662,-84.2754,23.6413,9.68414,-8.83868,20.6781,7.12502,17.1017,-8.58925,1.22998e-14,-5.96354e-15,-42.3481,13.7953,77.4413,18.0155,-7.55086,-4.63946,17.7299,7.12502,21.1398,46.5974,19.1627,11.6383,23.566,11.4177,-11.8344,-7.98804,-9.66203,-30.5014,-15.4918,-16.6272,30.3175,-4.63636,7.83567,30.7013
-0.213408,16.2059,-20.0992,1.8895,1.39819,1.50156,11.5789,1.41308,-6.12641,-4.67305,1.06527,1.53247,-11.815,1.04883,4.91715,-9.23981,-6.84911,-3.94759,18.7801,-9.50687,3.59898,7.66582,-4.50086,0.917387,7.8023e-15,-3.57812e-15,-37.7932,0.479295,-83.7607,23.6925,10.4782,-9.09407,20.7865,7.12502,16.8559,-8.50192,7.8023e-15,-3.57812e-15,-42.2821,13.8662,77.4396,17.9555,-7.75195,-4.54934,17.9061,7.12502,21.2264,46.7639,18.1131,11.0457,23.1876,13.8443,-11.6718,-7.13922,-6.94424,-30.174,-15.0239,-17.1048,30.6386,-4.03727,7.30839,29.8287
-0.161165,16.2085,-19.9695,1.81366,1.44964,1.52931,11.3817,1.35613,-5.93073,-4.59751,1.03183,1.51107,-11.5975,1.00768,4.78919,-9.08633,-6.82211,-3.9292,18.7373,-9.45167,3.48323,7.61524,-4.48699,0.889256,-1.5207e-14,1.19271e-14,-38.5573,-0.366009,-83.3691,24.1436,11.0497,-8.58363,19.8671,7.12502,17.3472,-9.37872,-1.5207e-14,1.19271e-14,-42.209,13.6272,77.6872,17.9567,-7.42269,-4.66844,18.1075,7.12502,21.1119,46.9781,17.17,10.3233,22.6862,16.1573,-11.2387,-6.21927,-8.38315,-29.7367,-14.5921,-17.6161,30.9024,-3.74914,6.82158,29.6231
-0.111542,16.2157,-19.8395,1.69471,1.45301,1.55786,11.2787,1.34065,-5.83092,-4.54612,1.03714,1.5382,-11.4749,0.998721,4.76107,-9.06639,-6.80445,-4.05551,18.8018,-9.40686,3.46779,7.63675,-4.47518,0.908592,-2.04251e-14,-8.74653e-15,-39.0559,-0.547215,-83.1546,24.3261,10.8562,-8.0331,19.453,7.12502,17.877,-9.74537,-2.04251e-14,-8.74653e-15,-42.2091,13.683,77.707,17.7404,-7.76215,-4.8054,17.4625,7.12502,20.9804,46.3478,16.3117,9.50564,22.1723,18.3815,-10.4119,-5.44985,-10.7505,-29.2055,-14.2465,-18.1023,31.1214,-3.65825,6.45193,29.0303
-0.0640026,16.2291,-19.715,1.49745,1.43758,1.75316,11.4787,1.35138,-6.01728,-4.51839,1.01227,1.56158,-11.5675,1.00423,4.89825,-9.35383,-6.80388,-4.04735,19.0019,-9.37767,3.31809,7.745,-4.46696,0.848416,2.04997e-14,3.57812e-15,-39.0796,-0.370067,-82.9647,24.0484,10.0853,-7.6614,19.7723,7.12502,18.2346,-9.39304,2.04997e-14,3.57812e-15,-42.2035,13.5997,77.88,17.6054,-8.15475,-4.78839,16.9968,7.12502,20.9967,45.8802,15.4491,8.83968,21.5281,20.6482,-9.44506,-4.74962,-11.926,-28.5287,-14.0208,-18.7448,31.2571,-3.65819,6.20923,28.9597
-0.00835316,16.2401,-19.5872,1.32086,1.46988,1.92663,11.54,1.30451,-6.08765,-4.54986,0.938422,1.60982,-11.6337,0.979877,5.00805,-9.26064,-6.79897,-4.16538,19.1296,-9.33824,3.20711,7.76942,-4.46688,0.836806,-1.88845e-15,-1.59028e-15,-39.5415,-0.363298,-82.6556,24.0545,9.54174,-7.84235,20.5126,7.12502,18.0605,-8.66888,-1.88845e-15,-1.59028e-15,-42.3737,13.2221,78.3392,17.6781,-8.00971,-4.96744,17.0432,7.12502,20.8247,45.9456,14.5421,8.08846,20.81,23.0048,-8.50858,-3.87866,-11.0261,-27.824,-14.0674,-19.3555,31.3507,-3.79696,6.15014,28.5179
0.0462745,16.2494,-19.4647,1.24315,1.46469,2.09154,11.3708,1.26595,-6.06035,-4.50811,0.898115,1.57128,-11.4767,0.950214,4.95814,-8.8817,-6.78964,-4.13372,18.9215,-9.31131,3.09327,7.6247,-4.47082,0.815103,-1.03617e-14,9.14409e-15,-40.1184,-0.754454,-82.4018,24.1474,9.69315,-8.61495,21.3596,7.12502,17.3171,-7.88889,-1.03617e-14,9.14409e-15,-42.2079,12.5342,78.8982,17.6233,-7.54605,-5.0395,17.142,7.12502,20.7555,46.052,13.4768,7.34551,20.057,25.3938,-7.23005,-3.0222,-9.52599,-27.2575,-14.0078,-19.9304,31.4329,-4.00033,6.10596,26.9639
0.100526,16.25,-19.3484,1.19127,1.51048,2.33982,11.2044,1.24877,-6.04973,-4.4129,0.876963,1.45832,-11.2625,0.924053,4.83126,-8.78843,-6.8027,-4.08948,18.8158,-9.33032,3.07123,7.57071,-4.48134,0.804244,8.92046e-15,1.55052e-14,-40.4085,-1.36043,-82.042,23.9511,10.5246,-8.70647,21.304,7.12502,17.229,-7.95226,8.92046e-15,1.55052e-14,-41.8413,11.9698,79.2789,17.6133,-7.47066,-4.55328,17.7885,7.12502,21.2226,46.6468,12.2547,6.43224,19.1541,27.8441,-5.48218,-2.28096,-8.05517,-26.7584,-14.0354,-20.5621,31.5474,-4.38882,5.99948,25.9489
0.154085,16.2503,-19.2306,1.04404,1.53807,2.54885,11.2543,1.22594,-6.09575,-4.41575,0.833946,1.44199,-11.2908,0.90713,4.84864,-8.70683,-6.77148,-4.14401,18.8831,-9.26307,2.96456,7.57316,-4.46325,0.787308,4.37326e-15,1.47101e-14,-40.7826,-1.67267,-81.6508,23.762,11.0003,-8.3732,20.7464,7.12502,17.5497,-8.48148,4.37326e-15,1.47101e-14,-41.8555,11.1019,80.0093,18.0266,-6.75287,-4.38077,18.5054,7.12502,21.3883,47.3449,11.0578,5.59855,18.347,30.3837,-3.70387,-1.84761,-6.86719,-26.0971,-14.0438,-21.1726,31.5846,-4.73446,5.87021,25.6681
0.2061,16.2551,-19.1143,0.890081,1.39544,2.74207,11.4157,1.24964,-6.15651,-4.44355,0.847111,1.46034,-11.4235,0.924019,4.90103,-8.68355,-6.74223,-4.36691,19.073,-9.19567,2.96289,7.6401,-4.44533,0.826665,-2.70844e-15,1.19271e-14,-41.196,-1.59117,-81.4458,23.9096,10.3209,-8.16983,21.2009,7.12502,17.7454,-8.00938,-2.70844e-15,1.19271e-14,-41.9383,10.4618,80.665,18.2834,-6.26946,-4.50425,18.397,7.12502,21.2697,47.2499,9.68162,4.87574,17.5012,32.9985,-1.45037,-1.50299,-4.72137,-25.3464,-13.8346,-21.7808,31.4902,-4.88951,5.78872,24.7426
0.256253,16.268,-19.0018,0.854531,1.19385,3.11591,11.565,1.34382,-6.32017,-4.47404,0.920143,1.30468,-11.5597,0.968829,4.80659,-9.04404,-6.80379,-4.25638,19.3373,-9.27616,2.85677,7.7842,-4.4774,0.74921,-3.70236e-15,8.34896e-15,-41.2634,-2.09598,-81.2107,23.8776,9.9182,-7.38478,21.3936,7.12502,18.5007,-7.74658,-3.70236e-15,8.34896e-15,-41.7371,9.47053,81.265,18.3505,-5.8302,-4.48291,18.1201,7.12502,21.2902,46.9707,8.04125,4.43186,16.5306,35.6501,1.03176,-1.42803,-3.37113,-24.6293,-13.6524,-22.524,31.2341,-5.12163,5.76243,24.3754
0.306398,16.2783,-18.8895,0.857006,1.17335,3.57791,11.5928,1.39045,-6.51608,-4.4519,0.925779,1.0848,-11.5531,0.974486,4.67377,-9.43721,-6.86838,-4.08084,19.4639,-9.38583,2.84948,7.89147,-4.51015,0.690928,-1.94064e-14,-6.75868e-15,-41.2561,-2.60992,-81.0203,23.7362,10.1493,-6.83805,19.9131,7.12502,19.0266,-9.17633,-1.94064e-14,-6.75868e-15,-41.459,8.41522,81.8394,18.5751,-5.51729,-4.22653,18.0756,7.12502,21.5364,46.8982,6.41512,3.96056,15.5231,38.3341,3.33491,-1.31895,-3.06198,-23.8489,-13.7369,-23.3539,30.7961,-5.30804,5.86867,23.564
0.352827,16.2907,-18.7745,0.830599,1.07964,3.93847,11.5897,1.4524,-6.67357,-4.40036,0.96795,0.925999,-11.4998,0.995235,4.57878,-9.47355,-6.86462,-3.99489,19.3907,-9.40867,2.93594,7.87448,-4.50693,0.702808,5.31749e-15,7.95139e-15,-41.6319,-2.88203,-80.8883,23.6857,10.2258,-7.39688,19.7182,7.12502,18.4891,-9.42308,5.31749e-15,7.95139e-15,-41.2712,7.48815,82.3934,18.9141,-5.2674,-4.22839,18.285,7.12502,21.5346,47.1078,4.82261,3.67061,14.7125,41.0171,5.30979,-1.25012,-4.86744,-22.9427,-13.6355,-24.0775,30.2149,-5.46827,5.91716,22.6472
0.394623,16.3131,-18.6594,0.721783,0.833308,4.21181,11.7172,1.49555,-6.91143,-4.37114,0.978622,0.929394,-11.5532,1.01908,4.71491,-9.31062,-6.78888,-4.09109,19.2309,-9.27579,2.88944,7.78984,-4.45928,0.725485,-1.42876e-14,-1.59028e-15,-42.0037,-2.7424,-80.7354,23.634,10.1794,-8.22936,21.1432,7.12502,17.6881,-8.07226,-1.42876e-14,-1.59028e-15,-41.1761,7.06379,82.8,19.0773,-5.25481,-4.18767,17.8213,7.12502,21.5737,46.6396,3.24247,3.556,14.0463,43.6598,7.26508,-1.264,-7.34538,-21.9298,-13.4873,-24.6805,29.5994,-5.68444,6.03423,21.7827
0.43343,16.3354,-18.5488,0.675082,0.499978,4.47566,11.7241,1.53848,-7.1302,-4.36155,0.998676,0.916033,-11.5569,1.04403,4.82008,-9.26395,-6.72695,-4.18356,19.1668,-9.15996,2.8244,7.75734,-4.4182,0.733793,5.96354e-15,5.56597e-15,-42.1304,-2.88795,-80.4636,23.542,10.5139,-8.06937,21.5423,7.12502,17.8421,-7.65918,5.96354e-15,5.56597e-15,-41.0552,6.64493,83.1404,19.2342,-5.11016,-4.1388,17.5954,7.12502,21.6207,46.4083,1.50737,3.47054,13.3726,46.2897,9.49979,-1.33212,-8.60005,-21.0019,-13.4627,-25.2094,28.9544,-5.99717,6.28625,22.6144
0.473004,16.3504,-18.4395,0.660699,0.206242,4.69796,11.553,1.61736,-7.23665,-4.26361,1.09332,0.814325,-11.3576,1.08186,4.74864,-9.42793,-6.70996,-4.00395,19.217,-9.14839,2.7513,7.79022,-4.40369,0.676192,7.37988e-15,-1.66979e-14,-42.0615,-3.43556,-80.1777,23.3508,10.8576,-7.20078,20.6843,7.12502,18.6777,-8.43902,7.37988e-15,-1.66979e-14,-40.8329,5.60543,83.737,19.7787,-4.36446,-4.1051,17.7913,7.12502,21.653,46.6006,-0.289173,3.44902,12.7675,48.9094,11.701,-1.58787,-8.79584,-20.0952,-13.4187,-25.713,28.2682,-6.17653,6.47429,23.2263
0.513395,16.3645,-18.3248,0.654215,0.00020968,5.012,11.3535,1.64516,-7.4616,-4.21646,1.1045,0.737163,-11.1926,1.0924,4.79036,-9.34131,-6.7137,-4.00044,19.1047,-9.15778,2.77643,7.739,-4.40817,0.687754,2.14687e-14,-2.38542e-15,-42.2867,-3.30565,-80.2518,23.471,10.4328,-6.79273,19.4596,7.12502,19.0702,-9.62548,2.14687e-14,-2.38542e-15,-40.7427,4.93815,84.2027,20.2359,-3.77826,-4.25242,17.7319,7.12502,21.5115,46.5573,-2.07686,3.29489,12.0624,51.5284,14.0182,-1.76842,-7.15971,-19.1909,-13.3827,-26.3448,27.6497,-6.46607,6.62306,22.7983
0.546517,16.3788,-18.2153,0.680274,-0.182074,5.36111,11.2797,1.62276,-7.7918,-4.26265,1.02292,0.702044,-11.2003,1.07729,4.95676,-9.03665,-6.68818,-4.0317,18.8677,-9.09168,2.64391,7.59917,-4.3982,0.671706,-7.28049e-15,-1.35174e-14,-42.6241,-2.981,-80.3301,23.7752,10.1348,-6.3024,18.511,7.12502,19.5416,-10.5269,-7.28049e-15,-1.35174e-14,-40.7986,4.66174,84.4553,20.5853,-3.55756,-4.27662,17.683,7.12502,21.4883,46.5111,-3.95227,3.13169,11.4011,54.1425,16.4293,-2.21853,-6.12572,-18.4179,-13.4101,-26.9703,27.1462,-6.86676,6.841,21.9415
0.564713,16.383,-18.1337,0.761736,0.0110896,5.55855,11.6037,1.51583,-8.06977,-4.3346,0.801929,0.697129,-11.4522,1.00429,5.15529,-8.91397,-6.65767,-3.96605,18.6121,-9.03499,2.54645,7.48339,-4.37972,0.64437,7.8023e-15,8.74653e-15,-42.7179,-2.94828,-80.3029,23.8325,10.3434,-6.21709,18.054,7.12502,19.6237,-10.9756,7.8023e-15,8.74653e-15,-40.6988,4.44507,84.5572,20.9201,-3.45097,-4.37553,17.4539,7.12502,21.3933,46.2928,-5.77567,2.71103,11.05,56.7,18.5699,-3.68977,-3.40554,-17.904,-13.38,-27.3479,26.7018,-6.86372,6.69724,21.3786
0.570717,16.3786,-18.0698,0.917038,0.591988,5.88139,12.128,1.35975,-8.58341,-4.40789,0.450389,0.66827,-11.8104,0.89207,5.4932,-9.32169,-6.60833,-4.05787,18.857,-8.97374,2.68247,7.64529,-4.33616,0.690003,2.28602e-15,2.38542e-15,-42.6053,-3.19665,-80.1828,23.7387,10.445,-6.18446,18.2691,7.12502,19.655,-10.7573,2.28602e-15,2.38542e-15,-40.3693,4.05938,84.7391,21.1445,-3.17384,-4.58742,17.0905,7.12502,21.1898,45.9524,-7.51367,1.91174,10.6145,59.1758,20.486,-5.75059,4.17918,-17.6121,-13.2753,-27.7998,26.3524,-6.52848,6.10881,20.8391
0.584445,16.3861,-17.986,0.851651,0.68649,6.01018,12.4729,1.33284,-8.86899,-4.40753,0.333704,0.696998,-12.0069,0.86913,5.71579,-9.48441,-6.54819,-4.15286,19.0586,-8.89324,2.76398,7.7464,-4.29266,0.730681,-1.58034e-14,4.77083e-15,-42.5851,-3.41784,-80.031,23.8492,10.7522,-6.20454,18.4479,7.12502,19.6357,-10.5805,-1.58034e-14,4.77083e-15,-40.1516,3.80471,84.8945,21.3327,-2.81828,-4.62966,17.0758,7.12502,21.1492,45.9423,-9.13534,1.59493,10.4202,61.4693,22.4456,-8.04726,10.6376,-17.0227,-13.1764,-28.0988,26.1049,-6.62136,5.91114,20.8249
0.601994,16.3919,-17.8901,0.764154,0.505501,6.00482,12.5373,1.34329,-8.95766,-4.3593,0.33023,0.718039,-11.9923,0.87299,5.7909,-9.48906,-6.54544,-4.08438,19.0351,-8.90319,2.7767,7.73708,-4.29175,0.723103,3.75206e-15,7.95139e-15,-42.6477,-3.54448,-80.0138,23.9656,11.2319,-6.58164,18.7763,7.12502,19.2731,-10.2886,3.75206e-15,7.95139e-15,-40.0012,3.48434,85.0273,21.6086,-2.50573,-4.69486,17.3105,7.12502,21.0866,46.1839,-10.7742,1.54644,10.4077,63.6115,23.8959,-10.2369,15.3742,-16.4014,-12.9866,-28.2631,25.8747,-6.91635,5.86598,20.9772
0.615111,16.3937,-17.7991,0.760537,0.590078,6.08585,12.5984,1.25844,-9.08947,-4.31258,0.186739,0.69906,-11.9532,0.810692,5.87795,-9.57174,-6.532,-3.86585,18.9463,-8.88493,2.62384,7.70394,-4.2816,0.639422,4.91992e-15,1.59028e-14,-42.6554,-3.60977,-80.1218,23.9139,11.1851,-7.56279,20.3035,7.12502,18.3295,-8.85292,4.91992e-15,1.59028e-14,-39.6675,3.05654,85.1984,21.7757,-2.23665,-4.98591,17.488,7.12502,20.807,46.3923,-12.3631,1.26255,10.3265,65.6082,23.9555,-13.0694,24.264,-15.8599,-12.8717,-28.4864,25.6087,-7.12671,5.66918,20.9382
0.632788,16.3987,-17.6991,0.626597,0.448357,6.18072,12.7795,1.23754,-9.23139,-4.29672,0.117189,0.716094,-12.0353,0.793056,5.99542,-9.60359,-6.48612,-3.86367,19.0146,-8.80721,2.54041,7.72541,-4.25125,0.617898,-3.2551e-15,-3.97569e-15,-42.666,-3.72905,-80.0589,23.7683,11.0341,-8.21081,21.5895,7.12502,17.706,-7.62433,-3.2551e-15,-3.97569e-15,-39.4641,2.73019,85.3828,21.9507,-1.68573,-5.12712,17.6275,7.12502,20.6713,46.5467,-13.7867,1.14005,10.2348,67.4105,23.7536,-14.6506,29.8492,-15.1571,-12.7099,-28.7804,25.4102,-7.47586,5.64991,20.0138
0.655569,16.4044,-17.5946,0.427918,0.0179309,6.23305,12.8805,1.31161,-9.35149,-4.26863,0.193895,0.785931,-12.0817,0.84344,6.1253,-9.69003,-6.45866,-3.87054,19.099,-8.73431,2.36961,7.75858,-4.23106,0.566846,-2.98177e-15,1.74931e-14,-42.7842,-3.53199,-80.0079,23.9225,11.039,-7.53039,20.3559,7.12502,18.3607,-8.79756,-2.98177e-15,1.74931e-14,-39.4234,2.71769,85.504,22.3946,-1.11624,-5.18588,18.0747,7.12502,20.6148,47,-15.1547,1.33355,10.1907,69.0351,22.8117,-15.7041,33.9266,-14.4403,-12.4427,-29.0628,25.3069,-7.89104,5.84827,19.1179
0.67663,16.4002,-17.503,0.386243,-0.0592018,6.28159,12.8125,1.25992,-9.37102,-4.15891,0.135384,0.802998,-11.9038,0.805072,6.16806,-9.93075,-6.40528,-3.85202,19.1682,-8.64838,2.32382,7.81864,-4.18913,0.54841,-3.75206e-15,-1.43125e-14,-42.5795,-3.40156,-80.1086,24.0536,11.1737,-6.79363,18.7133,7.12502,19.0693,-10.3719,-3.75206e-15,-1.43125e-14,-39.103,2.5776,85.6241,22.903,-0.442247,-5.19509,18.8051,7.12502,20.606,47.7313,-16.596,1.14258,10.1443,70.5723,21.6041,-14.6781,33.0681,-14.0072,-12.454,-29.2877,25.2288,-8.19062,5.90724,19.6819
0.692733,16.3954,-17.4174,0.377962,-0.0256309,6.19586,12.8782,1.16305,-9.2972,-4.0855,0.0190298,0.841671,-11.8355,0.740288,6.19639,-10.0034,-6.28038,-3.87631,19.1323,-8.49132,2.44313,7.82101,-4.1043,0.605422,6.48535e-15,-6.36111e-15,-42.1672,-3.59217,-80.146,23.8503,11.3895,-6.7644,18.4851,7.12502,19.0974,-10.5973,6.48535e-15,-6.36111e-15,-38.6803,2.82569,85.4097,22.8194,-0.810473,-5.02663,18.4548,7.12502,20.7678,47.3635,-18.0146,0.872441,10.3315,71.9642,20.2457,-11.7949,27.5583,-13.6211,-12.4278,-29.3323,25.1467,-8.41301,5.87019,20.1035
0.704581,16.4005,-17.3299,0.306382,-0.207723,6.15268,13.1601,1.17683,-9.3232,-4.13716,0.00344433,0.868459,-12.0626,0.74992,6.24866,-9.94305,-6.19671,-3.96614,19.1362,-8.39622,2.60891,7.81979,-4.05101,0.685442,1.2921e-15,7.95139e-16,-42.153,-3.75375,-80.1352,23.7943,11.5793,-7.10404,18.9858,7.12502,18.7708,-10.1285,1.2921e-15,7.95139e-16,-38.6337,3.03626,85.1627,22.8697,-1.20604,-5.11094,17.5834,7.12502,20.6868,46.5009,-19.5651,0.845432,10.5477,73.2931,18.4381,-8.42615,19.1436,-13.095,-12.2345,-29.4263,25.0204,-8.62886,5.98815,20.0553
0.718345,16.4086,-17.2331,0.246915,-0.359277,6.10978,13.3252,1.134,-9.34832,-4.27021,-0.0752092,0.933646,-12.3026,0.735617,6.35822,-9.31032,-6.16011,-4.08508,18.9994,-8.34381,2.60845,7.66492,-4.04516,0.732789,-6.4605e-16,5.56597e-15,-42.6452,-3.38306,-80.3107,24.0773,11.0463,-7.58567,19.4526,7.12502,18.3075,-9.70586,-6.4605e-16,5.56597e-15,-38.7223,3.42092,84.9698,22.9336,-1.24032,-5.30546,17.2299,7.12502,20.4999,46.1676,-21.0623,0.750314,10.7393,74.4093,16.3586,-5.6525,11.86,-12.5348,-12.2796,-29.5368,24.9071,-9.11618,6.21239,20.7273
0.734203,16.4094,-17.1336,0.153183,-0.311451,6.29499,13.3441,1.03419,-9.51738,-4.2548,-0.244039,0.914386,-12.2674,0.665766,6.47328,-8.88685,-6.10887,-4.05478,18.8944,-8.27536,2.53327,7.5476,-4.02425,0.726202,1.03617e-14,7.15625e-15,-42.8121,-3.11176,-80.5298,24.1796,10.6721,-7.7758,19.3748,7.12502,18.1246,-9.80076,1.03617e-14,7.15625e-15,-38.4345,3.35371,85.0099,22.9029,-0.771989,-5.50015,17.1415,7.12502,20.3128,46.0993,-22.2505,0.481292,10.5917,75.2499,14.0741,-3.81111,9.71092,-11.8869,-12.315,-29.9237,24.7461,-9.52418,6.2951,21.3646
0.750575,16.3969,-17.0398,0.0618931,-0.247825,6.43978,13.3475,0.981231,-9.49451,-4.08318,-0.317007,0.790568,-12.0559,0.605434,6.33619,-9.47644,-6.13182,-3.70749,19.0892,-8.32631,2.40326,7.69713,-4.02633,0.601157,3.47873e-16,-1.59028e-15,-42.5069,-3.48013,-80.5824,24.0605,10.972,-7.69283,19.3872,7.12502,18.2044,-9.78088,3.47873e-16,-1.59028e-15,-37.847,3.19349,84.9444,23.0418,-0.548829,-5.49023,17.2605,7.12502,20.3223,46.2173,-23.3845,0.330417,10.486,75.8478,11.7144,-2.54151,9.38557,-11.3296,-12.4315,-30.2813,24.6784,-9.84762,6.34276,22.0808
0.762583,16.391,-16.9529,0.0609416,-0.233224,6.44557,13.4679,0.952064,-9.38013,-4.01897,-0.353212,0.719199,-12.0453,0.573205,6.20049,-9.95793,-6.13432,-3.4393,19.1641,-8.35368,2.35048,7.79429,-4.01796,0.52119,6.23687e-15,5.56597e-15,-42.43,-3.50661,-80.7869,24.3461,10.5259,-7.48199,19.1895,7.12502,18.4072,-9.9596,6.23687e-15,5.56597e-15,-37.4093,3.35741,84.7394,23.1373,-0.779633,-5.46384,17.3902,7.12502,20.3477,46.3443,-24.557,0.236875,10.6138,76.1988,9.70477,-1.72993,9.07777,-10.9711,-12.5164,-30.4265,24.7112,-10.308,6.25297,22.9854
0.773794,16.3819,-16.8665,0.11114,-0.350229,6.48057,13.5402,0.863832,-9.48481,-4.01308,-0.488977,0.803261,-12.058,0.521855,6.38801,-10.1064,-5.97294,-3.49621,19.2047,-8.11977,2.36316,7.83004,-3.90727,0.553095,7.95139e-16,-2.38542e-15,-42.3688,-3.11811,-80.923,24.5827,10.1819,-7.21884,19.2333,7.12502,18.6603,-9.89163,7.95139e-16,-2.38542e-15,-37.0548,3.89646,84.5995,23.0335,-0.96515,-5.27092,17.6708,7.12502,20.5331,46.6049,-25.836,0.301364,10.7195,76.4251,7.98118,-1.21085,8.76786,-10.743,-12.4826,-30.5915,24.851,-10.6941,6.41295,22.6144
0.784419,16.3763,-16.7722,0.139169,-0.573123,6.42648,13.5003,0.82008,-9.54686,-3.97549,-0.540282,0.914406,-11.9812,0.502341,6.55945,-10.2032,-5.85946,-3.52403,19.3088,-7.94703,2.30643,7.87521,-3.83038,0.55248,1.30701e-14,3.97569e-15,-42.2277,-3.02591,-80.9242,24.5495,10.2862,-6.95162,19.1334,7.12502,18.9174,-9.96665,1.30701e-14,3.97569e-15,-36.7651,4.08011,84.6654,23.1735,-0.743859,-5.33113,17.8782,7.12502,20.4752,46.8186,-27.0471,0.558545,10.9433,76.3882,6.1129,-0.974402,7.91979,-10.4814,-12.3631,-30.672,25.0048,-11.0375,6.65837,21.8733
0.791913,16.3747,-16.6794,0.160456,-0.630896,6.29546,13.5722,0.783742,-9.47085,-4.04815,-0.579267,0.978424,-12.0998,0.490741,6.59979,-9.96004,-5.81674,-3.53449,19.3153,-7.88766,2.27251,7.83083,-3.80953,0.55695,6.65929e-15,-7.95139e-16,-42.4054,-3.08808,-80.9475,24.6943,10.2731,-6.32311,18.5179,7.12502,19.5217,-10.5221,6.65929e-15,-7.95139e-16,-36.7093,4.00287,84.7147,23.3831,-0.53316,-5.48024,17.793,7.12502,20.3319,46.7487,-28.0252,0.618933,11.2754,76.0967,4.54538,-0.935436,7.77336,-10.182,-12.4043,-30.6536,25.1395,-11.4943,6.73749,22.3719
0.801237,16.3689,-16.5873,0.150952,-0.60254,6.12405,13.7071,0.681614,-9.27774,-4.08827,-0.688644,1.05086,-12.2038,0.43543,6.60045,-9.99117,-5.74861,-3.62256,19.5032,-7.79107,2.30621,7.90087,-3.76512,0.588455,-7.50412e-15,9.54166e-15,-42.5617,-2.71568,-81.2223,25.1877,9.91031,-6.07269,17.7275,7.12502,19.7625,-11.2878,-7.50412e-15,9.54166e-15,-36.7341,4.16872,84.6877,23.7456,-0.612744,-5.41447,17.9723,7.12502,20.3951,46.9213,-28.8657,0.514292,11.6339,75.6133,3.17994,-0.938543,7.2596,-9.78382,-12.5883,-30.6289,25.2075,-11.8972,6.88421,22.4698
0.810412,16.3608,-16.4932,0.112098,-0.67505,6.08571,13.6899,0.630067,-9.18689,-3.9357,-0.73315,1.0392,-12.0076,0.390579,6.54286,-10.2688,-5.73883,-3.43508,19.3933,-7.78712,2.25224,7.90384,-3.75201,0.534012,5.86415e-15,-1.11319e-14,-42.3279,-2.55341,-81.5278,25.5195,9.63579,-6.44163,18.6298,7.12502,19.4078,-10.4216,5.86415e-15,-1.11319e-14,-36.3093,3.93351,84.8374,24.0763,-0.345683,-5.49541,18.9839,7.12502,20.3174,47.9411,-29.7371,0.548207,11.8414,75.0048,1.73194,-0.939143,5.28636,-9.32409,-12.7364,-30.762,25.184,-12.2704,7.16815,21.9651
0.815018,16.3572,-16.3972,0.143015,-0.661462,6.12735,13.6543,0.553945,-9.20285,-3.892,-0.835643,1.01181,-11.9167,0.335393,6.54339,-10.223,-5.69954,-3.29371,19.1824,-7.74831,2.23375,7.8176,-3.72769,0.513733,1.06847e-15,9.54166e-15,-42.2898,-2.45856,-81.736,25.6952,9.39098,-7.08646,20.404,7.12502,18.7877,-8.70865,1.06847e-15,9.54166e-15,-35.965,3.89376,84.8735,24.2851,-0.108113,-5.60461,19.7383,7.12502,20.2124,48.7067,-30.5774,0.517266,11.9643,74.2291,0.30426,-1.11154,4.68511,-8.90889,-12.8492,-30.9349,25.0973,-12.6337,7.40268,21.1317
0.8168,16.3507,-16.3002,0.136998,-0.690265,6.17229,13.8713,0.511052,-9.30542,-3.98615,-0.940594,1.00523,-12.1368,0.309124,6.62671,-10.1489,-5.58572,-3.30386,19.2962,-7.62008,2.34973,7.84327,-3.65686,0.567095,-1.03865e-14,1.03368e-14,-42.4999,-2.38076,-81.8779,25.9105,9.24625,-7.695,21.0089,7.12502,18.2023,-8.15942,-1.03865e-14,1.03368e-14,-35.932,3.66447,84.9318,24.5912,0.473091,-5.57054,19.8819,7.12502,20.2451,48.8468,-31.3531,0.648975,12.0896,73.3492,-1.14205,-1.56555,6.01534,-8.4246,-12.9349,-31.1208,24.9985,-13.0025,7.67662,20.0727
0.818791,16.343,-16.2001,0.142669,-0.97462,6.25585,13.8622,0.548158,-9.50364,-3.97277,-0.924584,1.02068,-12.1198,0.331105,6.75342,-10.1468,-5.482,-3.3162,19.2677,-7.49934,2.47545,7.83525,-3.58892,0.622949,3.8266e-15,1.43125e-14,-42.6322,-2.22619,-81.9957,26.2283,9.1381,-8.21846,21.0519,7.12502,17.6986,-8.16264,3.8266e-15,1.43125e-14,-35.74,3.44331,85.0634,24.6712,0.783882,-5.56938,19.5426,7.12502,20.2463,48.5074,-32.1849,1.02748,12.1674,72.3336,-2.46779,-2.01543,7.40191,-7.96605,-13.0027,-31.3483,24.9205,-13.4749,8.11112,19.807
0.821474,16.3307,-16.1093,0.17136,-1.25992,6.29057,13.8483,0.564137,-9.64935,-3.90516,-0.919216,1.07537,-12.0345,0.340007,6.89584,-10.2756,-5.41395,-3.22881,19.1312,-7.39463,2.39118,7.80298,-3.54028,0.590161,8.29926e-15,7.15625e-15,-42.7595,-1.61936,-82.2639,26.7124,8.61061,-8.64559,21.2115,7.12502,17.2876,-8.03962,8.29926e-15,7.15625e-15,-35.3814,3.64442,85.0708,24.5443,0.51289,-5.68466,18.8428,7.12502,20.1355,47.8194,-33.0597,1.34323,12.2721,71.1646,-3.20316,-2.45269,8.65088,-7.51393,-13.0562,-31.5203,24.7946,-13.8883,8.5282,19.8797
0.825364,16.3215,-16.0199,0.168272,-1.41668,6.29144,14.0052,0.580037,-9.65214,-3.891,-0.914732,1.07605,-12.1131,0.346584,6.90131,-10.4767,-5.39516,-3.05175,19.074,-7.36585,2.25658,7.80676,-3.52461,0.515631,5.24295e-15,-5.56597e-15,-42.8629,-1.16392,-82.5713,27.0526,7.99523,-8.53755,20.7401,7.12502,17.3915,-8.50189,5.24295e-15,-5.56597e-15,-35.1209,3.50023,85.1871,24.7124,0.728559,-5.72497,18.9079,7.12502,20.0967,47.8885,-33.7492,1.58215,12.3684,69.8274,-3.92767,-2.93162,8.06985,-7.02421,-13.018,-31.6538,24.6633,-14.1997,8.72173,19.4926
0.827026,16.3223,-15.9186,0.200129,-1.59354,6.34192,13.9647,0.579949,-9.7462,-3.91829,-0.92944,1.07751,-12.1182,0.34814,6.95972,-10.2312,-5.31928,-3.08564,18.9409,-7.2745,2.34377,7.72085,-3.47985,0.567683,-4.14963e-15,-8.74653e-15,-42.9909,-0.9504,-82.7923,27.2524,7.67595,-8.50066,20.3391,7.12502,17.4271,-8.89972,-4.14963e-15,-8.74653e-15,-35.0391,3.42201,85.2556,24.9644,1.01641,-5.7047,18.9438,7.12502,20.1162,47.9223,-34.2796,1.94239,12.3978,68.2974,-5.09237,-3.28517,8.37756,-6.51035,-12.9963,-31.8429,24.5235,-14.5483,8.93398,18.9878
0.825316,16.3075,-15.8139,0.145524,-1.94477,6.43082,14.0078,0.642053,-9.9397,-3.89447,-0.887585,1.06533,-12.1264,0.381575,7.04777,-10.1775,-5.23468,-3.1206,18.953,-7.18626,2.50502,7.72018,-3.42607,0.636121,-7.20594e-16,-2.38542e-15,-43.0612,-0.719269,-83.0675,27.4712,7.55637,-8.7328,20.3271,7.12502,17.2036,-8.93138,-7.20594e-16,-2.38542e-15,-34.9815,3.18501,85.3487,25.2737,1.20857,-5.78526,19.0187,7.12502,20.0388,48.0054,-34.7843,2.49094,12.3937,66.6982,-6.0213,-3.62545,10.0547,-5.82054,-12.9672,-32.0924,24.2192,-14.9686,9.26095,18.8882
0.824312,16.2839,-15.7136,0.133878,-1.99479,6.60661,14.1303,0.602806,-10.1556,-3.8786,-0.995858,1.05307,-12.1608,0.347938,7.18661,-10.2972,-5.17,-3.13845,19.0216,-7.09431,2.51091,7.76237,-3.38095,0.646162,-1.71452e-15,5.56597e-15,-43.0041,-0.665044,-83.2068,27.6552,7.50806,-8.68985,20.2849,7.12502,17.245,-8.96992,-1.71452e-15,5.56597e-15,-34.698,3.16102,85.4381,25.2315,1.21804,-5.89204,18.9312,7.12502,19.9361,47.9286,-35.2522,2.71173,12.248,65.0075,-6.49825,-3.97093,11.3229,-5.08919,-12.999,-32.4249,23.6944,-15.0919,9.46634,18.4963
0.824607,16.2779,-15.6126,0.287602,-1.75883,7.0197,14.1374,0.491274,-10.4983,-3.9412,-1.2279,0.945692,-12.1925,0.263697,7.31754,-10.6197,-5.13834,-3.11787,19.2834,-7.04696,2.46821,7.90315,-3.35463,0.621853,3.95085e-15,1.59028e-15,-43.0075,-0.692788,-83.2887,27.8171,7.41327,-8.53341,20.2871,7.12502,17.3955,-8.95451,3.95085e-15,1.59028e-15,-34.4809,3.27859,85.4432,25.2907,1.03945,-5.776,18.8784,7.12502,20.0477,47.8641,-35.6563,2.56286,11.7493,63.1271,-7.00085,-3.92725,7.31626,-4.51507,-13.032,-32.9806,23.2061,-15.0129,9.5709,16.9979
0.82435,16.2848,-15.5118,0.45528,-1.87499,7.25342,14.1233,0.51978,-10.6886,-3.99992,-1.23845,0.854655,-12.2525,0.274772,7.32628,-10.9386,-5.15554,-3.05494,19.4191,-7.07936,2.46795,8.00427,-3.36015,0.597775,-5.00689e-15,1.11319e-14,-43.1158,-0.638225,-83.4601,28.0146,7.06046,-8.53606,20.446,7.12502,17.393,-8.79578,-5.00689e-15,1.11319e-14,-34.2979,3.19439,85.5185,25.5045,0.884152,-5.76374,18.9521,7.12502,20.0595,47.9366,-36.0424,2.80614,11.4756,61.0169,-7.58927,-3.56489,10.7747,-3.99374,-13.053,-33.3226,22.7952,-15.3124,9.68931,16.7913
0.815871,16.2814,-15.4106,0.515178,-2.10316,7.03011,14.0903,0.523567,-10.6138,-4.01954,-1.20531,0.948219,-12.2607,0.290762,7.3813,-10.8114,-5.09176,-3.01526,19.2295,-7.00032,2.49421,7.91537,-3.32077,0.613971,3.35449e-16,4.77083e-15,-43.2835,-0.472786,-83.6324,28.1783,6.73571,-8.66964,20.6701,7.12502,17.2644,-8.58308,3.35449e-16,4.77083e-15,-34.1571,2.89287,85.6954,25.5151,1.15457,-5.93714,18.8287,7.12502,19.8928,47.8306,-36.2538,3.42944,11.7726,58.7355,-7.80081,-3.29263,13.331,-3.37943,-13.0062,-33.1504,22.3773,-15.6157,9.83715,16.4401
0.80916,16.2702,-15.3076,0.589553,-2.32006,6.83721,13.95,0.463139,-10.5406,-4.04183,-1.24557,1.04564,-12.1917,0.267512,7.45542,-10.7603,-5.01188,-2.96954,19.4028,-6.88264,2.37636,7.95408,-3.27235,0.579785,-2.10091e-14,1.43125e-14,-43.3518,-0.188986,-83.8466,28.2555,6.55765,-8.80894,20.8501,7.12502,17.1303,-8.41477,-2.10091e-14,1.43125e-14,-33.9663,3.11628,85.6283,25.266,0.962085,-5.95615,18.1508,7.12502,19.8745,47.1546,-36.4341,4.07998,11.9607,56.3404,-7.01033,-3.70953,11.8262,-2.79909,-12.8722,-33.0113,21.9763,-15.8278,10.0348,15.8298
0.803451,16.2632,-15.2045,0.660905,-2.66681,6.82567,13.9104,0.487206,-10.6292,-4.09477,-1.22315,1.09094,-12.2339,0.292103,7.55244,-10.6256,-4.93533,-2.97467,19.5076,-6.78039,2.3597,7.96119,-3.22692,0.588315,-6.48535e-15,1.59028e-15,-43.4221,0.120246,-84.0867,28.3081,6.31512,-8.94664,20.6147,7.12502,16.9978,-8.66162,-6.48535e-15,1.59028e-15,-33.868,3.27645,85.6358,25.2902,0.804824,-5.85819,18.039,7.12502,19.9687,47.033,-36.6018,4.89105,11.8713,53.8562,-5.94065,-4.60217,13.9011,-2.22617,-12.8495,-33.1035,21.6106,-16.1657,10.3157,15.8719
0.796925,16.2665,-15.0998,0.811719,-2.90291,6.81657,13.8377,0.522881,-10.618,-4.13842,-1.16798,1.08147,-12.2532,0.319653,7.52081,-10.3147,-4.88477,-2.90788,19.0359,-6.7282,2.43305,7.74758,-3.19824,0.620227,3.926e-15,-2.38542e-15,-43.4332,0.026875,-84.1621,28.3546,6.2124,-8.83673,20.1152,7.12502,17.1036,-9.15196,3.926e-15,-2.38542e-15,-33.6467,2.9841,85.7772,25.3698,1.12089,-5.95406,18.0019,7.12502,19.8765,47.0055,-36.7311,5.73569,11.6852,51.2934,-4.813,-5.48951,16.9232,-1.63992,-13.0064,-33.2046,21.1098,-16.4465,10.6811,15.4871
0.792373,16.2673,-14.9961,0.921905,-2.98457,6.81382,13.8874,0.564677,-10.5146,-4.15233,-1.108,1.0047,-12.3129,0.340236,7.36195,-10.5017,-4.97043,-2.78974,18.9847,-6.86238,2.43629,7.76389,-3.25143,0.584005,-3.75206e-15,-1.74931e-14,-43.5019,-0.321251,-84.1092,28.4236,6.43796,-8.5204,20.0719,7.12502,17.4081,-9.16854,-3.75206e-15,-1.74931e-14,-33.3864,2.65741,85.8753,25.5595,1.25942,-5.78168,18.1659,7.12502,20.0422,47.1523,-36.7463,6.38523,11.4399,48.7382,-6.90899,-4.7758,9.7043,-0.873867,-12.9952,-33.2913,20.3605,-16.555,10.7455,15.1793
0.788383,16.2654,-14.8878,1.06501,-3.13774,6.72125,13.8358,0.581451,-10.4331,-4.2,-1.06154,1.04813,-12.3462,0.362002,7.35301,-10.7323,-5.04832,-2.76539,19.2452,-6.94653,2.27633,7.88703,-3.29961,0.509881,2.08724e-15,1.59028e-15,-43.6088,-0.286879,-84.0876,28.4435,6.46729,-8.37518,20.4133,7.12502,17.5478,-8.81472,2.08724e-15,1.59028e-15,-33.2438,2.81825,85.8845,25.5428,0.912827,-5.37974,18.2148,7.12502,20.4285,47.1602,-36.7514,7.12279,11.235,46.1657,-7.37486,-4.76225,8.1526,-0.0576126,-13.0015,-33.2958,19.4731,-16.5637,10.9521,15.0391
0.778661,16.2621,-14.7783,1.18475,-3.3262,6.80364,13.7389,0.590265,-10.5895,-4.25357,-1.06862,1.0663,-12.3496,0.374157,7.46316,-10.5802,-4.99183,-2.75214,19.1619,-6.85248,2.18367,7.82557,-3.26549,0.492376,4.05024e-15,2.38542e-14,-43.7032,-0.19887,-84.1367,28.485,6.54796,-8.54069,20.4801,7.12502,17.3885,-8.76212,4.05024e-15,2.38542e-14,-33.1245,2.9707,85.9374,25.4138,0.709802,-5.4551,18.0995,7.12502,20.3561,47.0527,-36.7412,8.00115,10.8028,43.6105,-7.48165,-5.23985,7.97506,0.80526,-12.9559,-33.4747,18.543,-16.6109,11.1943,14.3786
0.766683,16.257,-14.6666,1.2645,-3.32552,6.84283,13.7771,0.538328,-10.5996,-4.34735,-1.1564,1.01628,-12.4643,0.342114,7.43567,-10.5175,-4.9756,-2.59503,19.2741,-6.83562,2.03783,7.83971,-3.26017,0.421424,-2.13694e-15,-1.11319e-14,-43.8844,-0.288091,-84.252,28.4892,6.59457,-8.52506,20.3221,7.12502,17.4036,-8.91877,-2.13694e-15,-1.11319e-14,-33.1172,2.81364,85.9576,25.5397,0.903532,-5.69727,18.09,7.12502,20.1233,47.0678,-36.5459,9.01197,10.2933,41.0548,-7.98414,-5.83117,8.31528,1.82956,-12.9856,-33.5862,17.466,-16.5949,11.2478,14.1779
0.751971,16.2626,-14.5504,1.33705,-3.23772,6.70499,13.736,0.457192,-10.4593,-4.34916,-1.23085,1.04398,-12.4244,0.294893,7.4029,-10.599,-4.89507,-2.6779,19.3748,-6.74541,2.20681,7.89472,-3.20538,0.495933,6.95746e-15,7.95139e-16,-43.9271,-0.212594,-84.4025,28.3569,6.41544,-8.4668,20.7353,7.12502,17.4596,-8.5006,6.95746e-15,7.95139e-16,-32.9973,2.70742,86.0199,25.7305,1.1229,-5.71253,18.346,7.12502,20.1087,47.3254,-36.2828,10.2203,9.86641,38.5491,-8.52773,-6.64445,8.88965,2.98523,-13.1365,-33.5079,16.1933,-16.4479,11.4044,13.4147
0.734424,16.2694,-14.4332,1.44916,-3.05555,6.78958,13.5553,0.342752,-10.6445,-4.29641,-1.38811,1.10005,-12.2191,0.222687,7.60192,-10.7481,-4.72091,-2.83806,19.2775,-6.51104,2.42323,7.89628,-3.08373,0.61431,8.92046e-15,3.73715e-14,-43.8215,-0.0651006,-84.4564,28.1704,6.25731,-8.75003,20.9159,7.12502,17.187,-8.34404,8.92046e-15,3.73715e-14,-32.8233,2.86263,86.106,25.8212,1.0235,-5.63953,18.3881,7.12502,20.1788,47.36,-36.0954,11.6106,9.06637,36.2026,-9.206,-7.72159,9.32848,4.15889,-13.1748,-33.604,14.7412,-16.0571,11.4732,11.7627
0.718661,16.2691,-14.3182,1.56119,-2.79693,6.87588,13.5513,0.223164,-10.6884,-4.32633,-1.56263,1.06341,-12.2143,0.14273,7.62585,-10.8838,-4.71937,-2.68443,19.1442,-6.52068,2.37846,7.86973,-3.08104,0.571625,1.5617e-14,-4.77083e-15,-43.8367,-0.113126,-84.5232,28.1022,6.18158,-8.993,20.8172,7.12502,16.9532,-8.46295,1.5617e-14,-4.77083e-15,-32.6571,2.97259,86.0859,25.6822,0.694574,-5.71831,18.0326,7.12502,20.1031,47.0125,-35.9303,13.1027,8.14778,34.0303,-10.0308,-8.93415,9.08705,5.4865,-13.2711,-33.7136,13.0593,-15.6357,11.4422,10.7755
0.704086,16.2646,-14.1987,1.64293,-2.67184,6.96314,13.4078,0.158994,-10.6787,-4.30078,-1.63769,0.978876,-12.0837,0.0922143,7.53506,-10.6601,-4.726,-2.58274,18.8176,-6.55465,2.44205,7.72111,-3.08974,0.581492,3.13583e-14,2.3059e-14,-43.9182,-0.266635,-84.5553,28.1741,6.2762,-8.88378,20.8888,7.12502,17.0583,-8.3823,3.13583e-14,2.3059e-14,-32.2531,2.97772,86.0285,25.4022,0.568599,-5.6136,17.8524,7.12502,20.2038,46.8217,-35.8722,14.5935,7.21474,32.1305,-10.5824,-10.1245,8.30361,7.11617,-13.4157,-33.8807,10.9827,-15.202,11.5304,10.4097
0.690718,16.2657,-14.072,1.63663,-2.7142,7.00674,13.2722,0.147628,-10.6271,-4.29401,-1.6338,0.914604,-11.9967,0.080556,7.42641,-10.3907,-4.66967,-2.72585,18.7878,-6.49923,2.65918,7.6741,-3.05694,0.688168,5.5287e-15,1.03368e-14,-44.0761,-0.426247,-84.5511,28.0566,6.37959,-8.57404,21.17,7.12502,17.3564,-8.07505,5.5287e-15,1.03368e-14,-32.1248,2.81892,86.0516,25.3967,0.81477,-5.6506,18.1879,7.12502,20.1682,47.161,-35.8142,16.2356,6.30208,30.3951,-10.9588,-11.2392,8.99448,8.92322,-13.1663,-34.01,8.75387,-14.6971,11.3835,9.68043
0.673863,16.2636,-13.9495,1.66148,-2.80976,7.1362,13.2647,0.19797,-10.7631,-4.34003,-1.59612,0.887067,-12.0542,0.113027,7.4654,-10.5884,-4.76883,-2.80787,19.1477,-6.61037,2.55835,7.8311,-3.11934,0.648645,-1.69215e-14,2.22639e-14,-44.271,-0.571767,-84.4489,27.9118,6.5795,-8.6341,21.2384,7.12502,17.2986,-8.01168,-1.69215e-14,2.22639e-14,-32.1877,2.61057,86.2331,25.4186,1.02321,-6.21396,17.8001,7.12502,19.6267,46.8293,-35.9363,17.9214,5.244,28.8752,-11.5463,-12.2759,11.4221,10.9338,-12.8773,-34.1838,6.07354,-14.0041,11.2361,9.15914
0.655595,16.2568,-13.8315,1.75283,-2.86886,7.0466,13.1802,0.211704,-10.6412,-4.32365,-1.54221,0.902555,-11.9956,0.125285,7.39765,-11.0128,-4.83745,-2.68471,19.3513,-6.68413,2.35463,7.96544,-3.15757,0.541179,6.5102e-15,2.46493e-14,-44.3743,-0.696955,-84.3806,27.8407,6.91911,-8.87709,21.3647,7.12502,17.0647,-7.90578,6.5102e-15,2.46493e-14,-31.9875,2.342,86.401,25.4069,1.14139,-6.45132,17.6859,7.12502,19.3984,46.7383,-36.1962,19.5503,4.40553,27.5784,-12.3781,-13.2586,14.1117,14.1519,-12.6392,-34.052,1.17774,-12.2833,11.1339,8.57814
0.637596,16.2447,-13.7115,1.86383,-2.88382,7.0414,13.0844,0.18716,-10.6179,-4.37389,-1.56188,0.906755,-11.9919,0.116022,7.39109,-11.0853,-4.7334,-2.64038,19.2107,-6.55876,2.43794,7.92969,-3.0872,0.574137,4.16205e-15,2.38542e-15,-44.5082,-0.834693,-84.2622,27.713,7.34307,-9.08492,21.4117,7.12502,16.8647,-7.87596,4.16205e-15,2.38542e-15,-31.949,2.40385,86.4092,25.4862,1.14439,-6.24703,17.7362,7.12502,19.5949,46.7688,-36.4985,20.8551,3.59656,26.5795,-12.9244,-14.2072,14.506,15.1826,-12.4506,-34.027,1.90833e-14,-12.1178,10.9478,8.04875
0.615337,16.2279,-13.5909,1.96409,-2.658,7.17955,13.0717,0.076954,-10.795,-4.47909,-1.74508,0.92543,-12.0663,0.0531787,7.55608,-11.0103,-4.64762,-2.74249,19.2027,-6.43971,2.52289,7.91672,-3.031,0.633036,2.36057e-15,1.59028e-15,-44.6609,-0.662504,-84.2692,27.6173,7.18996,-8.80152,21.0662,7.12502,17.1375,-8.19802,2.36057e-15,1.59028e-15,-32.0989,2.75499,86.343,25.5313,0.900672,-6.03889,17.6438,7.12502,19.795,46.6558,-36.677,21.7179,2.82958,25.8727,-13.3832,-15.1058,14.0296,15.5859,-12.4972,-34.1666,1.27222e-14,-12.3656,10.782,7.05673
0.592973,16.2152,-13.4624,1.98956,-2.43653,7.13992,13.0827,-0.0109769,-10.7082,-4.5228,-1.84994,0.940134,-12.1011,0.00168967,7.5477,-10.8675,-4.70637,-2.81987,19.1615,-6.51938,2.57563,7.88424,-3.07167,0.658488,-8.01351e-15,-1.27222e-14,-44.8729,-0.668713,-84.246,27.4967,7.04464,-8.51659,21.3301,7.12502,17.4117,-7.91009,-8.01351e-15,-1.27222e-14,-32.0715,2.99592,86.2574,25.4244,0.629678,-5.73493,17.7598,7.12502,20.0871,46.7414,-36.7725,22.5982,2.36782,25.4877,-14.3006,-15.7928,14.5184,16.1091,-12.514,-34.1411,-4.45278e-14,-12.6656,10.646,5.97486
0.576993,16.2013,-13.3369,2.04888,-2.45464,7.22168,13.0139,-0.0132096,-10.7039,-4.51197,-1.84501,0.92262,-12.0486,-0.00128949,7.52117,-10.6413,-4.7229,-2.82824,18.7047,-6.53552,2.61187,7.69463,-3.08333,0.680229,-7.56624e-15,1.59028e-15,-44.9256,-0.851491,-84.0695,27.2378,7.31337,-8.52682,21.4373,7.12502,17.4019,-7.80375,-7.56624e-15,1.59028e-15,-31.8631,3.03264,86.2994,25.2633,0.614559,-5.53893,17.7834,7.12502,20.2755,46.7452,-36.8285,23.01,1.99273,25.0559,-15.2022,-15.6061,17.4649,16.5153,-12.3077,-34.246,-4.77083e-14,-13.0513,10.4466,4.97653
0.556534,16.1849,-13.2214,2.27377,-2.26505,7.38565,12.9265,-0.0605135,-10.7809,-4.58215,-1.92111,0.87917,-12.0618,-0.0299955,7.53074,-10.7493,-4.68913,-2.81664,18.6317,-6.49028,2.63748,7.68907,-3.05765,0.689364,1.54804e-14,7.95139e-16,-44.8618,-1.23128,-83.7859,26.9007,7.85737,-8.43665,20.9652,7.12502,17.4887,-8.26818,1.54804e-14,7.95139e-16,-31.7408,3.41983,86.2119,25.1282,0.0649691,-5.34579,17.4311,7.12502,20.4611,46.373,-36.9268,22.8701,1.65737,24.7499,-16.0176,-14.9223,22.6197,16.714,-12.3516,-34.3813,-1.59028e-14,-13.3287,10.2866,4.05972
0.497582,16.1648,-13.0863,2.11976,-2.31953,6.58899,12.8701,-0.0140432,-10.5289,-4.4976,-1.76352,1.21186,-11.9556,0.0316616,7.72479,-10.7122,-4.62788,-2.94551,18.7318,-6.40617,2.73675,7.72077,-3.01688,0.751281,1.00759e-14,1.74931e-14,-44.9595,-1.39796,-83.6408,26.6656,8.04323,-8.6497,20.6539,7.12502,17.2836,-8.59751,1.00759e-14,1.74931e-14,-31.76,3.55435,86.211,25.1935,-0.193638,-5.2199,17.5923,7.12502,20.5821,46.5212,-36.7834,24.4395,2.28242,24.5727,-17.0937,-15.4878,27.3462,17.4265,-12.0761,-33.3723,1.90833e-14,-13.8452,10.0143,4.33418
0.470788,16.1367,-12.9516,2.00532,-2.19772,6.62905,12.7278,-0.0519086,-10.5489,-4.38603,-1.79449,1.21074,-11.7334,-0.0010775,7.73253,-10.5706,-4.60788,-3.01308,18.6887,-6.36888,2.74289,7.68253,-3.00537,0.771943,1.08089e-15,1.35174e-14,-45.0192,-1.5262,-83.4863,26.287,8.30823,-8.93271,21.2125,7.12502,17.0112,-8.06268,1.08089e-15,1.35174e-14,-31.5564,3.1759,86.4214,25.138,0.262247,-5.47825,18.0891,7.12502,20.3338,47.0446,-36.4562,24.4243,2.5034,24.6649,-17.0979,-14.9443,30.9269,18.1199,-11.9708,-33.4356,5.725e-14,-14.217,9.90648,3.44934
0.452906,16.1124,-12.833,2.16073,-1.79558,6.96864,12.6751,-0.219954,-10.6625,-4.42807,-2.04905,1.09881,-11.6973,-0.119728,7.72381,-10.692,-4.58149,-2.90537,18.7236,-6.32373,2.60989,7.7062,-2.98689,0.71242,1.26725e-15,-4.13472e-14,-45.0026,-1.64267,-83.3438,25.8262,8.51189,-9.16743,21.8846,7.12502,16.7853,-7.40986,1.26725e-15,-4.13472e-14,-31.3617,3.31077,86.4033,24.8512,0.353838,-5.51242,18.2932,7.12502,20.301,47.2522,-36.2642,23.279,2.61533,24.9641,-16.519,-13.9441,33.9445,18.4544,-12.202,-33.7978,2.22639e-14,-14.4225,9.83774,2.62843
0.431996,16.0947,-12.7089,2.31891,-1.44889,7.17749,12.6736,-0.329265,-10.6594,-4.53224,-2.21038,1.02087,-11.7847,-0.190352,7.67082,-11.0202,-4.58731,-2.81355,18.9991,-6.31566,2.43573,7.84686,-2.98664,0.630837,1.5704e-14,-7.95139e-15,-45.1471,-1.71319,-83.2574,25.6557,8.3763,-8.88799,21.5993,7.12502,17.0543,-7.67208,1.5704e-14,-7.95139e-15,-31.443,3.75359,86.2737,24.6553,-0.0590324,-5.68586,17.8391,7.12502,20.1343,46.8158,-36.2537,22.3708,2.84222,25.6994,-15.8167,-13.486,35.9431,18.8037,-12.3823,-33.9927,9.54166e-15,-14.5375,9.74093,1.76648
0.40845,16.0818,-12.5705,2.30791,-1.3498,7.17386,12.8669,-0.334196,-10.4803,-4.69773,-2.22316,0.982404,-12.0948,-0.184434,7.54173,-11.0736,-4.58472,-2.82107,19.2182,-6.31251,2.40984,7.92843,-2.98589,0.620457,7.47927e-15,2.06736e-14,-45.546,-1.92066,-83.091,25.5527,8.5712,-8.48555,21.1091,7.12502,17.4416,-8.1284,7.47927e-15,2.06736e-14,-31.8757,3.95286,86.1793,24.7998,-0.433509,-5.49894,18.04,7.12502,20.314,46.9977,-36.1748,21.8952,3.34001,26.5563,-14.4461,-13.9826,35.2418,19.3923,-12.2767,-33.9861,3.18055e-14,-14.6539,9.65335,1.06894
0.380188,16.073,-12.428,2.19133,-1.37905,7.07777,13.0428,-0.280573,-10.2232,-4.77885,-2.13798,0.914891,-12.3194,-0.149793,7.31038,-10.6881,-4.66929,-2.77643,18.9659,-6.45165,2.47293,7.78013,-3.04991,0.631336,8.22472e-15,-1.51076e-14,-45.8508,-2.40935,-82.8654,25.2033,9.14515,-8.78311,21.3025,7.12502,17.1552,-7.96012,8.22472e-15,-1.51076e-14,-32.1768,3.77454,86.1489,25.0405,-0.338986,-5.43385,18.3195,7.12502,20.3765,47.2705,-36.0307,21.3894,4.03011,27.3771,-12.8205,-14.3344,34.5857,20.0971,-12.0238,-33.8775,2.22639e-14,-14.7138,9.61168,-0.0733089
0.349048,16.0646,-12.2961,2.1589,-1.44506,6.97588,12.9384,-0.22755,-10.0889,-4.63842,-2.01882,0.937803,-12.1177,-0.121523,7.22491,-10.7022,-4.77294,-2.77445,18.6062,-6.576,2.45004,7.66666,-3.11367,0.614184,1.15792e-14,2.38542e-14,-45.6594,-2.7753,-82.5641,24.7188,9.57316,-9.1442,21.8594,7.12502,16.8076,-7.4332,1.15792e-14,2.38542e-14,-31.7937,3.70256,86.2513,24.7475,-0.326116,-5.94854,17.5724,7.12502,19.8818,46.5755,-36.0265,20.7034,4.69044,28.1177,-11.1401,-14.4999,33.5074,20.6521,-11.758,-33.7357,4.13472e-14,-14.5145,9.68478,-2.37849
0.315247,16.058,-12.1735,2.25821,-1.49249,6.79071,12.8722,-0.21111,-10.0161,-4.55508,-1.95385,1.08963,-11.9901,-0.100097,7.33547,-11.2389,-4.72865,-2.97082,18.7648,-6.47212,2.46772,7.81974,-3.06781,0.647419,-1.24489e-14,7.95139e-15,-45.3191,-3.11466,-82.0224,24.1682,10.0215,-8.98509,22.2651,7.12502,16.9608,-7.01436,-1.24489e-14,7.95139e-15,-31.5209,4.02414,86.3427,24.4147,-0.57181,-6.41648,17.0548,7.12502,19.432,46.1038,-36.1433,20.1927,5.31695,28.7951,-9.59399,-14.6427,31.7013,21.0056,-11.5465,-33.4499,-3.18055e-15,-14.2038,9.64058,-3.63463
0.277834,16.0589,-12.0525,2.38144,-1.44053,6.39327,12.953,-0.270537,-9.76173,-4.64497,-1.98088,1.27638,-12.1345,-0.110398,7.41314,-11.3966,-4.60368,-3.02125,18.9659,-6.28726,2.44244,7.9101,-2.98244,0.661029,-4.06266e-15,-1.03368e-14,-45.3501,-3.43003,-81.5809,23.6943,10.6219,-9.09235,22.3126,7.12502,16.8575,-6.97573,-4.06266e-15,-1.03368e-14,-31.8143,4.4796,86.238,24.5385,-0.713801,-6.3556,17.3155,7.12502,19.4905,46.3586,-36.1633,19.7639,6.17475,29.4503,-8.54729,-14.6372,31.3747,21.358,-11.4365,-32.9096,-1.90833e-14,-13.8669,9.4738,-4.63163
0.239425,16.0569,-11.9257,2.48588,-1.26696,6.1814,12.9436,-0.376563,-9.60911,-4.73354,-2.0935,1.33111,-12.2085,-0.164923,7.41452,-10.9281,-4.51604,-2.9713,18.7491,-6.20172,2.54359,7.75329,-2.93626,0.708205,-2.93953e-14,-4.53229e-14,-45.463,-3.71173,-81.3453,23.3077,11.0447,-9.1921,22.0288,7.12502,16.7615,-7.26767,-2.93953e-14,-4.53229e-14,-32.1514,4.89814,85.9945,24.6952,-0.820653,-5.89877,17.8627,7.12502,19.9297,46.8608,-36.085,19.2962,6.82897,30.0908,-8.15166,-14.3507,32.3692,21.7704,-11.443,-32.5812,-4.13472e-14,-13.2602,9.44959,-5.881
0.202453,16.0526,-11.793,2.52335,-1.09259,6.1394,12.8974,-0.46869,-9.56168,-4.76172,-2.20716,1.31661,-12.1912,-0.223424,7.39431,-10.413,-4.45956,-2.97409,18.3855,-6.14546,2.65227,7.54336,-2.90881,0.765184,-9.29318e-15,-4.77083e-15,-45.4175,-4.1008,-81.0636,22.7707,11.4602,-9.242,22.1686,7.12502,16.7135,-7.13187,-9.29318e-15,-4.77083e-15,-32.3574,5.33906,85.7329,24.6424,-0.898426,-5.76474,17.8123,7.12502,20.0585,46.7969,-35.9535,18.9725,7.25833,30.7484,-7.87452,-14.1761,32.5494,22.2322,-11.4383,-32.458,-4.45278e-14,-12.5426,9.43958,-7.0723
0.163033,16.0509,-11.6629,2.49708,-1.14397,5.9654,12.9968,-0.449592,-9.49369,-4.85011,-2.17955,1.35936,-12.3595,-0.199335,7.4056,-10.4645,-4.44251,-2.66477,18.467,-6.12249,2.35938,7.55882,-2.90241,0.619991,4.77083e-15,-2.38542e-15,-45.5231,-4.74701,-80.5408,22.1893,12.0362,-9.3026,22.5284,7.12502,16.6551,-6.77702,4.77083e-15,-2.38542e-15,-32.7963,5.65697,85.5636,24.6883,-1.10942,-5.8346,17.5944,7.12502,19.9913,46.586,-35.8196,18.626,7.94152,31.4408,-7.29745,-13.8282,32.1393,20.8849,-11.1985,-32.1935,3.20401,-13.0914,9.34497,-7.90413
0.124689,16.0471,-11.5321,2.40534,-1.36393,5.83109,13.165,-0.398152,-9.55772,-4.90547,-2.12833,1.48472,-12.5319,-0.14963,7.58349,-10.8877,-4.39888,-2.59632,18.8955,-6.03869,2.15184,7.76447,-2.86906,0.535514,1.94809e-14,-1.19271e-14,-45.5344,-5.1197,-80.0053,21.6974,12.5723,-9.15787,22.3101,7.12502,16.7945,-6.98357,1.94809e-14,-1.19271e-14,-33.3486,5.87057,85.5932,24.8566,-1.17332,-6.09082,17.687,7.12502,19.745,46.7042,-35.6674,18.1837,8.65824,32.1557,-6.78512,-13.1452,32.2698,19.4578,-10.7775,-31.9945,6.63858,-13.6978,9.27105,-9.06153
0.0867886,16.0513,-11.3952,2.20986,-1.43664,5.87696,13.3671,-0.381948,-9.75205,-4.88462,-2.15667,1.54207,-12.6201,-0.138373,7.77608,-10.968,-4.32919,-2.70811,19.0114,-5.93105,2.19022,7.81927,-2.82046,0.574374,-5.44173e-15,4.77083e-15,-45.3924,-5.33723,-79.6265,21.2026,13.0394,-9.12297,21.9449,7.12502,16.8281,-7.34596,-5.44173e-15,4.77083e-15,-33.7162,6.27388,85.4835,24.9023,-1.26267,-6.09509,17.7612,7.12502,19.7409,46.7788,-35.3212,17.8341,9.15587,32.8774,-6.45363,-12.6406,32.303,18.665,-10.4931,-31.9636,9.13122,-13.8293,9.08579,-10.109
0.0457386,16.0564,-11.2592,2.04322,-1.34555,6.01669,13.4424,-0.40784,-10.0216,-4.84552,-2.24804,1.54555,-12.5969,-0.161929,7.95794,-10.7483,-4.29527,-2.6835,18.8096,-5.88571,2.18083,7.71085,-2.80198,0.578879,-7.40473e-15,-1.51076e-14,-45.2916,-5.7754,-79.1807,20.7726,13.5711,-8.96496,21.7743,7.12502,16.9802,-7.50353,-7.40473e-15,-1.51076e-14,-34.0175,6.60844,85.3231,24.934,-1.21182,-5.92462,17.9325,7.12502,19.9048,46.9331,-34.9887,17.586,9.47466,33.6402,-6.38832,-12.3009,32.2303,18.1469,-10.3882,-31.9729,11.0147,-13.4255,8.9209,-11.6069
0.00280497,16.0595,-11.128,1.92406,-1.2978,6.15807,13.4177,-0.392711,-10.285,-4.78783,-2.27743,1.49198,-12.5062,-0.165692,8.05136,-10.6992,-4.27741,-2.58603,18.7769,-5.88404,2.20363,7.68879,-2.79303,0.572025,4.24902e-15,3.26007e-14,-45.2176,-6.2297,-78.8794,20.4264,13.8358,-9.03761,21.3306,7.12502,16.9102,-7.95316,4.24902e-15,3.26007e-14,-34.1279,7.10514,85.0093,24.7427,-1.68173,-5.68058,18.1563,7.12502,20.1394,47.1325,-34.7489,17.379,9.77185,34.4235,-6.29661,-11.9203,31.7883,17.635,-9.94552,-31.8534,12.7119,-12.7252,8.47113,-12.9513
-0.0388214,16.066,-10.9864,1.78389,-1.09266,6.29773,13.2828,-0.434936,-10.4531,-4.71522,-2.35854,1.38131,-12.3231,-0.212292,8.02995,-10.786,-4.26511,-2.49084,18.9481,-5.90551,2.28452,7.76097,-2.78676,0.57714,1.13804e-14,-7.95139e-16,-45.1794,-7.02109,-78.4191,20.0465,14.4693,-8.81576,21.0701,7.12502,17.1238,-8.19526,1.13804e-14,-7.95139e-16,-34.2444,7.25079,84.7564,24.5054,-1.7672,-5.55507,17.9293,7.12502,20.26,46.8927,-34.2878,17.075,10.1032,35.1227,-6.36978,-11.5513,31.4316,17.0631,-9.52774,-31.6903,14.6314,-12.0336,7.88442,-14.2039
-0.0793333,16.0705,-10.8442,1.58955,-1.0188,6.48107,13.1996,-0.396457,-10.601,-4.62458,-2.33446,1.24384,-12.1752,-0.210504,7.94556,-10.9924,-4.31851,-2.39381,19.1272,-6,2.28536,7.85665,-2.82084,0.545445,3.82412e-14,-3.18055e-14,-45.2136,-7.74665,-77.9843,19.8061,15.0236,-8.58248,21.3005,7.12502,17.3483,-7.94527,3.82412e-14,-3.18055e-14,-34.4684,6.78847,84.7885,24.5426,-1.12393,-5.15098,18.0979,7.12502,20.6483,47.0195,-33.7436,16.9111,10.3729,35.6887,-6.57501,-11.2175,31.0718,16.4295,-8.93998,-31.5419,16.6717,-11.409,7.11266,-13.445
-0.120053,16.0814,-10.7064,1.4845,-1.18594,6.39613,13.1356,-0.294531,-10.555,-4.57214,-2.1839,1.19188,-12.111,-0.152297,7.8225,-10.9921,-4.37581,-2.41777,19.2735,-6.10034,2.3832,7.91174,-2.85964,0.569609,8.12532e-15,2.14687e-14,-45.2022,-8.48652,-77.5725,19.4936,15.568,-8.6516,21.8379,7.12502,17.2818,-7.41373,8.12532e-15,2.14687e-14,-34.5834,6.70967,84.6385,24.4053,-1.24447,-4.85377,18.4112,7.12502,20.9339,47.3015,-33.2912,16.9823,10.8873,36.0911,-6.74561,-10.9601,30.3309,15.5547,-8.10484,-31.0565,18.8064,-10.6582,6.37329,-11.4598
-0.160034,16.1006,-10.5647,1.38659,-1.20972,6.31665,13.133,-0.249568,-10.5376,-4.62937,-2.12458,1.18138,-12.1898,-0.118484,7.78937,-10.083,-4.44176,-2.57525,18.8351,-6.19786,2.54249,7.61672,-2.91755,0.662944,-5.26779e-15,2.62396e-14,-45.3729,-8.87466,-77.281,19.3378,15.8771,-8.64366,21.5649,7.12502,17.2894,-7.68607,-5.26779e-15,2.62396e-14,-34.9321,6.7445,84.4876,24.3175,-1.52356,-4.77881,18.2794,7.12502,21.0059,47.1618,-32.6515,17.0529,11.3733,36.3282,-7.00804,-10.7495,29.5827,14.5185,-7.37379,-30.5696,21.1434,-9.62471,5.71501,-10.9052
-0.197505,16.1169,-10.4198,1.31731,-1.19225,6.19071,13.0193,-0.243785,-10.3829,-4.69459,-2.08009,1.17083,-12.2087,-0.106646,7.67564,-9.75075,-4.4734,-2.6961,18.851,-6.25002,2.64975,7.57155,-2.94529,0.720139,6.36111e-15,1.27222e-14,-45.6228,-8.86695,-77.274,19.3948,15.5962,-8.49868,20.8725,7.12502,17.429,-8.36612,6.36111e-15,1.27222e-14,-35.2763,6.9373,84.2543,24.1772,-1.74558,-4.5565,18.0992,7.12502,21.2195,46.9578,-31.9627,17.0443,11.9028,36.4572,-7.28121,-10.5632,29.0221,13.3503,-6.64542,-30.0383,23.6568,-8.33647,5.11955,-11.9274
-0.238646,16.1327,-10.2815,1.29679,-1.10405,5.88131,12.933,-0.304586,-10.114,-4.78063,-2.09988,1.24139,-12.253,-0.127588,7.60461,-9.84483,-4.396,-2.81988,19.1903,-6.14494,2.71243,7.70312,-2.89431,0.765959,8.79622e-15,2.38542e-15,-45.8251,-8.69855,-77.3466,19.3512,15.3048,-8.70054,20.8299,7.12502,17.2347,-8.42581,8.79622e-15,2.38542e-15,-35.6234,7.15696,84.0584,24.227,-1.90706,-4.41213,18.652,7.12502,21.3582,47.4949,-31.2556,17.197,12.5956,36.4677,-7.73046,-10.6381,28.8421,11.9951,-5.72292,-29.1495,26.2817,-6.81791,4.373,-12.7472
-0.283991,16.1491,-10.1568,1.35031,-0.862642,5.70754,12.9665,-0.376387,-10.0915,-4.87505,-2.19325,1.31493,-12.3614,-0.158661,7.70023,-9.84652,-4.3312,-3.01667,19.393,-6.05821,2.86052,7.77886,-2.85178,0.853572,1.82136e-14,1.51076e-14,-45.993,-8.34685,-77.5027,19.5062,14.8711,-8.63278,21.2535,7.12502,17.2999,-7.99654,1.82136e-14,1.51076e-14,-35.8466,7.40277,83.8956,24.1518,-2.43024,-4.23274,18.7361,7.12502,21.5304,47.5594,-30.6291,17.1649,13.1135,36.4026,-8.24705,-10.6938,28.9793,10.3825,-4.85129,-28.3018,28.9942,-5.25178,3.58132,-11.8714
-0.320215,16.1624,-10.0302,1.3438,-0.902704,5.3131,12.9507,-0.339093,-9.69278,-4.91473,-2.06297,1.37985,-12.4279,-0.120149,7.51732,-10.2239,-4.333,-3.07408,19.762,-6.07452,2.95462,7.97484,-2.84684,0.880894,-3.18304e-14,-2.46493e-14,-46.1796,-7.94992,-77.8107,19.8352,14.2357,-8.53828,20.8302,7.12502,17.3908,-8.41183,-3.18304e-14,-2.46493e-14,-36.0291,7.9113,83.4853,23.8329,-3.2344,-4.0835,18.2298,7.12502,21.6738,47.0366,-29.9479,17.0244,13.9047,36.2211,-8.4438,-10.5038,28.9283,8.78317,-3.91905,-27.3698,31.8596,-3.41957,3.24593,-9.93421
-0.350473,16.1787,-9.8972,1.2338,-1.09475,4.91806,12.9702,-0.279882,-9.23757,-4.93668,-1.89686,1.43254,-12.5021,-0.0705006,7.2809,-10.5901,-4.32861,-3.02844,20.0459,-6.0678,2.90198,8.1325,-2.83813,0.84643,1.20762e-14,1.03368e-14,-46.2544,-7.64097,-78.0548,19.9245,13.7498,-8.64453,20.6774,7.12502,17.2886,-8.57362,1.20762e-14,1.03368e-14,-36.2194,8.4894,83.0454,23.6341,-3.40748,-3.93715,18.2582,7.12502,21.8143,47.0487,-29.1469,17.0827,14.6923,35.9884,-8.6256,-10.327,29.0257,7.26676,-2.90545,-26.4948,34.7668,-1.19146,3.07114,-8.59083
-0.387427,16.1904,-9.77201,1.22014,-0.925358,4.48607,12.896,-0.355339,-8.82957,-4.92162,-1.90671,1.5104,-12.4389,-0.108812,7.13335,-10.6268,-4.33106,-2.95274,19.9715,-6.08188,2.90296,8.11228,-2.83921,0.832552,3.90115e-15,-1.74931e-14,-46.161,-7.46617,-78.2599,19.9979,13.4515,-8.41478,21.1193,7.12502,17.5097,-8.11214,3.90115e-15,-1.74931e-14,-36.2126,9.08617,82.5326,23.2687,-3.32576,-3.9077,17.4263,7.12502,21.8426,46.2135,-28.3503,17.0279,15.5041,35.6946,-8.8868,-10.4124,28.3053,5.53873,-2.25179,-25.5265,37.7201,0.933364,2.58016,-7.21062
-0.423839,16.2034,-9.6458,1.27712,-0.496532,4.14577,12.7571,-0.454724,-8.44529,-4.9089,-1.95474,1.53087,-12.334,-0.168537,6.93986,-10.5186,-4.44168,-2.83725,19.7749,-6.24802,2.88539,8.02799,-2.91424,0.794359,6.95746e-15,2.78299e-15,-46.0828,-7.27557,-78.54,20.162,13.0199,-8.24353,21.5298,7.12502,17.6745,-7.68691,6.95746e-15,2.78299e-15,-36.1801,9.37877,82.1341,22.9841,-3.25216,-3.8155,16.2974,7.12502,21.9311,45.0743,-27.5158,16.6856,16.197,35.3174,-9.24909,-10.3613,28.3872,3.7417,-1.86478,-24.6819,40.6218,3.10049,2.16285,-4.57087
-0.460549,16.2276,-9.52334,1.3723,-2.45201e-06,3.88914,12.8008,-0.568957,-8.22198,-5.0004,-2.06875,1.59626,-12.4464,-0.227446,6.91585,-9.85865,-4.55254,-2.94203,19.2904,-6.39257,2.95389,7.75867,-2.99747,0.838724,-1.96797e-14,-1.59028e-15,-46.104,-6.84634,-78.8365,20.33,12.4145,-8.40389,21.2656,7.12502,17.5202,-7.96496,-1.96797e-14,-1.59028e-15,-36.4422,9.34813,82.1209,23.066,-3.85156,-4.11682,16.105,7.12502,21.6418,44.9156,-26.6789,16.2268,16.7808,34.857,-9.53408,-10.3019,28.5166,1.82778,-1.51849,-23.9029,43.4676,5.30753,1.92293,-2.48012
-0.493074,16.2563,-9.40019,1.37633,0.426731,3.54815,12.8868,-0.652903,-7.8697,-5.03059,-2.11949,1.65694,-12.5279,-0.27121,6.79887,-9.22601,-4.64944,-3.1452,18.866,-6.53526,3.18118,7.5251,-3.07162,0.950671,-1.64246e-14,1.47101e-14,-46.0914,-6.32147,-79.2555,20.5866,11.4981,-8.41639,21.0668,7.12502,17.5082,-8.1648,-1.64246e-14,1.47101e-14,-36.6346,9.19155,82.2284,23.2948,-4.2162,-4.44973,16.6476,7.12502,21.322,45.4947,-25.7148,15.9209,17.4597,34.3245,-9.80364,-10.3619,28.0069,0.00251849,-1.25271,-23.1305,46.213,7.60447,1.95377,-1.90606
-0.526041,16.2782,-9.27227,1.28421,0.850602,3.13059,12.8713,-0.737667,-7.48517,-4.95945,-2.15015,1.73729,-12.434,-0.320363,6.67239,-9.41659,-4.70486,-3.13967,18.9271,-6.6228,3.24491,7.5844,-3.10375,0.956689,-1.36664e-15,3.97569e-16,-46.0017,-5.94121,-79.582,20.9186,10.8803,-8.27273,20.9848,7.12502,17.6464,-8.2344,-1.36664e-15,3.97569e-16,-36.6908,9.14893,82.1983,23.6922,-3.97614,-4.08819,17.9275,7.12502,21.6693,46.7349,-24.5952,15.7027,18.2555,33.7494,-10.1677,-10.4408,27.8979,-1.58666,-0.977702,-22.2739,48.8592,10.1639,2.28469,0.286717
-0.556016,16.293,-9.15135,1.28296,1.13836,2.91824,12.8195,-0.780716,-7.30914,-4.93189,-2.16755,1.76756,-12.3696,-0.345755,6.60572,-10.0666,-4.70994,-3.11752,19.281,-6.64759,3.32031,7.82067,-3.09386,0.956243,-2.32578e-14,5.96354e-15,-45.9694,-5.63883,-79.7773,21.2707,10.7072,-8.12595,21.0394,7.12502,17.7876,-8.16708,-2.32578e-14,5.96354e-15,-36.6974,9.45051,81.8974,23.4208,-4.39888,-4.22561,17.6644,7.12502,21.5373,46.4869,-23.7147,15.5414,18.7408,33.1818,-10.1912,-10.4531,27.7697,-3.20751,-0.613477,-21.6866,51.4368,12.6617,2.97255,3.67209
-0.577716,16.3082,-9.03293,1.33216,1.08731,2.77827,12.7216,-0.680273,-7.1904,-4.97598,-2.00236,1.78684,-12.3909,-0.273945,6.51997,-9.92985,-4.77494,-3.15052,19.2562,-6.73512,3.32728,7.7924,-3.13933,0.958559,-5.01931e-15,-4.37326e-15,-46.0882,-5.35751,-79.8621,21.6902,10.4314,-7.25303,20.4693,7.12502,18.6275,-8.65886,-5.01931e-15,-4.37326e-15,-36.8061,10.0412,81.4965,23.0574,-4.8357,-4.36951,16.9505,7.12502,21.3991,45.7888,-23.0328,15.3904,19.0913,32.6582,-11.4515,-10.188,30.1397,-4.89243,0.0398725,-21.2865,53.9528,14.7918,3.68147,4.63749
-0.604303,16.3243,-8.92303,1.27907,1.18728,2.64002,12.8375,-0.562212,-7.12192,-4.99537,-1.8403,1.78489,-12.5124,-0.195768,6.44883,-9.46193,-4.94366,-3.13431,18.9373,-6.9684,3.3258,7.61093,-3.25949,0.946673,2.83268e-15,-7.95139e-16,-46.049,-5.09779,-80.0719,21.9572,9.83685,-6.66863,19.6932,7.12502,19.1895,-9.38005,2.83268e-15,-7.95139e-16,-36.8624,9.92601,81.5537,23.6294,-3.92319,-3.91882,18.3551,7.12502,21.8319,47.1436,-22.2601,15.2088,19.4846,32.212,-10.5502,-10.1672,28.9137,-6.59794,0.53285,-20.8677,56.3609,16.9916,4.84358,8.62743
-0.636622,16.34,-8.81354,1.21214,1.38047,2.49761,13.0052,-0.516325,-7.14064,-4.93739,-1.78745,1.8278,-12.5546,-0.166107,6.50162,-9.89906,-5.04115,-3.10879,19.0252,-7.11439,3.39464,7.72517,-3.31308,0.937881,1.9456e-14,-1.59028e-14,-45.7926,-4.69028,-80.3228,22.1028,9.51624,-7.01189,19.5832,7.12502,18.8594,-9.52256,1.9456e-14,-1.59028e-14,-36.7517,9.57096,81.8524,24.3482,-2.80624,-3.72045,20.0083,7.12502,22.0224,48.7745,-21.4216,14.9464,19.9219,31.7712,-10.8171,-10.0748,28.9331,-8.3071,0.961806,-20.4129,58.6663,19.6018,6.31495,14.9708
-0.663956,16.3529,-8.69911,1.15192,1.39649,2.48559,13.0012,-0.419699,-7.22552,-4.81045,-1.66916,1.81828,-12.4244,-0.114432,6.50841,-10.4628,-5.13611,-3.0605,19.1516,-7.24821,3.40484,7.87174,-3.3618,0.903245,-2.55935e-15,9.54166e-15,-45.5042,-4.47525,-80.4307,22.2869,9.61857,-7.1806,19.3547,7.12502,18.6971,-9.7667,-2.55935e-15,9.54166e-15,-36.5745,9.41906,81.9997,24.676,-2.47076,-3.94598,20.183,7.12502,21.8058,48.9745,-20.6392,14.7835,20.2027,31.3929,-10.8807,-10.069,26.971,-9.82083,1.49295,-20.1675,60.7668,21.1772,8.66488,22.8974
-0.694537,16.3691,-8.58748,1.14414,1.75376,2.38378,13.0155,-0.415052,-7.16329,-4.74848,-1.65402,1.78779,-12.3651,-0.118802,6.43352,-10.6007,-5.25244,-3.01455,19.1627,-7.42551,3.45768,7.90695,-3.43516,0.890558,1.19271e-15,1.19271e-15,-45.3717,-4.38404,-80.5853,22.6282,9.25849,-7.00323,19.1351,7.12502,18.8677,-9.96985,1.19271e-15,1.19271e-15,-36.4394,9.21257,82.0456,24.7107,-2.35379,-4.14949,19.7878,7.12502,21.6104,48.6019,-19.8664,14.6193,20.5715,31.0451,-11.1725,-10.2729,25.3335,-11.4372,1.76391,-19.8021,62.73,21.4081,9.67871,26.8993
-0.725421,16.3802,-8.47627,1.10232,2.11335,2.42498,13.0807,-0.394729,-7.29953,-4.76055,-1.66332,1.73251,-12.4171,-0.111938,6.45474,-10.3308,-5.31516,-3.1125,18.9928,-7.53285,3.65673,7.81799,-3.48074,0.969315,-3.77691e-15,-9.54166e-15,-45.364,-4.34177,-80.6417,22.869,9.0445,-7.03095,19.086,7.12502,18.8411,-10.0215,-3.77691e-15,-9.54166e-15,-36.4869,8.96579,82.0702,24.7868,-2.10463,-4.29762,20.0327,7.12502,21.4681,48.8632,-19.0914,14.357,20.8027,30.754,-11.6026,-10.2397,24.8156,-12.9698,2.02971,-19.5934,64.5143,21.4802,9.26265,27.8195
-0.750216,16.3888,-8.36112,1.02742,1.99949,2.37869,12.9782,-0.234313,-7.34784,-4.66194,-1.44805,1.70118,-12.2778,-0.0183137,6.39147,-10.3921,-5.41652,-3.25674,19.0079,-7.69558,3.90012,7.85616,-3.54397,1.05314,-5.76476e-15,-1.19271e-15,-45.1123,-4.5038,-80.5182,23.0059,9.52272,-7.24767,19.1377,7.12502,18.6326,-9.9899,-5.76476e-15,-1.19271e-15,-36.3638,8.94418,82.0771,24.917,-1.89488,-4.3493,20.6411,7.12502,21.4185,49.4772,-18.3731,14.3031,21.1122,30.4655,-11.7928,-10.0588,25.0995,-14.2658,2.68847,-19.3745,66.0669,21.3001,8.13573,26.1065
-0.770388,16.3945,-8.25343,0.954128,1.78786,2.28629,12.9674,-0.050285,-7.305,-4.53086,-1.18912,1.68278,-12.1641,0.0900986,6.28383,-10.6443,-5.51351,-3.31026,19.109,-7.83881,3.9992,7.94726,-3.60029,1.07083,3.42904e-15,-1.98785e-15,-44.6396,-4.66689,-80.4046,23.1255,9.7413,-7.05015,18.8184,7.12502,18.8226,-10.2909,3.42904e-15,-1.98785e-15,-36.1112,8.98238,82.0869,24.913,-1.79392,-4.3078,20.55,7.12502,21.4584,49.3815,-17.7375,14.2653,21.4457,30.2353,-11.9297,-9.9111,24.7051,-15.5172,3.36688,-19.1506,67.4983,20.2262,6.70882,24.2697
-0.794624,16.4002,-8.15497,0.922228,1.80304,2.23463,13.1403,0.0662682,-7.32188,-4.52714,-1.05159,1.65591,-12.2879,0.161354,6.23791,-10.5426,-5.62116,-3.34876,19.0642,-7.98225,4.00797,7.92191,-3.67251,1.06792,1.66731e-14,-1.27222e-14,-44.4873,-4.51381,-80.4842,23.4555,9.33586,-6.79871,18.3184,7.12502,19.0644,-10.7673,1.66731e-14,-1.27222e-14,-36.0261,9.03809,81.9656,24.8109,-1.56878,-4.27396,20.0195,7.12502,21.4909,48.8473,-17.1417,14.2371,21.7229,29.9989,-12.305,-9.91514,24.5231,-16.8686,3.7602,-18.9772,68.8561,18.6124,5.26714,23.651
-0.823285,16.402,-8.06272,0.904373,2.03509,2.22419,13.4204,0.128678,-7.46338,-4.573,-1.01757,1.65324,-12.5166,0.201762,6.31865,-10.4422,-5.70541,-3.43348,18.9483,-8.10318,4.12385,7.87908,-3.72828,1.11059,-4.00054e-15,-3.18055e-15,-44.3252,-4.52882,-80.3733,23.5648,9.4169,-6.90477,18.7675,7.12502,18.9624,-10.3281,-4.00054e-15,-3.18055e-15,-35.9809,9.3977,81.6572,24.5396,-1.54947,-4.2834,19.1368,7.12502,21.4818,47.9656,-16.5461,14.1941,21.968,29.7323,-12.7451,-10.0051,24.9305,-18.2986,4.00304,-18.8337,70.1303,16.5561,4.37141,23.7926
-0.845062,16.3997,-7.96027,0.801323,2.22019,2.04348,13.5868,0.162305,-7.32354,-4.5605,-0.95767,1.66276,-12.6127,0.223837,6.2401,-10.3355,-5.73412,-3.48244,18.8567,-8.1571,4.24953,7.83947,-3.74868,1.1578,-9.36773e-15,-2.38542e-15,-44.1222,-4.5946,-80.2715,23.6798,9.56744,-6.86702,18.9288,7.12502,18.9987,-10.1633,-9.36773e-15,-2.38542e-15,-35.9158,10.0021,81.1903,24.2827,-1.58664,-4.09522,18.0088,7.12502,21.6625,46.817,-15.7656,14.033,22.414,29.4016,-13.0732,-9.93621,25.0637,-19.5941,4.27958,-18.5808,71.2463,14.1813,1.27491,15.2525
-0.858768,16.404,-7.84472,0.639574,2.08996,1.88291,13.5832,0.29092,-7.19352,-4.46585,-0.753528,1.68863,-12.5341,0.304197,6.14387,-10.3236,-5.78841,-3.57849,18.8799,-8.22799,4.30915,7.85491,-3.78315,1.18532,7.45443e-17,5.1684e-15,-43.754,-4.70422,-80.1131,23.6566,9.67966,-6.77256,18.8049,7.12502,19.0896,-10.2783,7.45443e-17,5.1684e-15,-35.772,11.2059,80.4456,24.0619,-1.55693,-2.84205,16.6931,7.12502,22.8656,45.3575,-14.8917,14.043,22.8398,29.0659,-13.3345,-9.81624,24.7946,-20.6123,4.80708,-18.3708,72.0359,12.0681,-0.580532,11.0277
-0.870279,16.4135,-7.72989,0.575732,1.92476,1.81714,13.5064,0.419614,-7.14275,-4.40619,-0.564211,1.67787,-12.4495,0.382902,6.05434,-10.1528,-5.90263,-3.62199,18.7424,-8.37586,4.31393,7.78733,-3.86109,1.18468,-4.08751e-15,9.54166e-15,-43.3511,-4.87357,-79.9732,23.4932,9.90873,-7.23561,19.254,7.12502,18.6442,-9.87254,-4.08751e-15,9.54166e-15,-35.7507,9.76323,81.4362,24.9058,-0.892136,-3.74799,20.1688,7.12502,21.9959,48.938,-14.147,14.0856,23.12,28.7446,-13.5963,-9.68881,25.044,-21.621,5.26731,-18.329,72.5642,10.089,-1.4642,9.48422
-0.882929,16.4126,-7.62095,0.570128,1.86758,1.82998,13.4254,0.547971,-7.07936,-4.43167,-0.388063,1.55874,-12.4581,0.455658,5.84086,-9.75241,-5.99976,-3.70234,18.5524,-8.53661,4.51409,7.67276,-3.93513,1.26005,4.8081e-15,-9.54166e-15,-43.2398,-5.09475,-79.926,23.6095,9.98573,-7.46048,19.3995,7.12502,18.4279,-9.74763,4.8081e-15,-9.54166e-15,-35.8472,8.65913,81.9804,25.9445,0.216675,-3.72307,23.7185,7.12502,22.0199,52.485,-13.5077,14.1965,23.3054,28.4848,-13.9017,-9.75918,25.0979,-22.7106,5.42248,-18.4521,72.9364,8.27228,-1.46841,11.2546
-0.895344,16.4078,-7.515,0.623299,1.81368,1.86938,13.32,0.67974,-7.0578,-4.46445,-0.214258,1.43291,-12.4595,0.530126,5.64441,-9.62939,-6.08292,-3.6666,18.6111,-8.67721,4.57812,7.67782,-3.99516,1.26377,1.36664e-16,7.95139e-16,-43.0466,-5.42614,-79.8282,23.7195,10.0461,-7.1994,19.2439,7.12502,18.679,-9.87925,1.36664e-16,7.95139e-16,-35.8769,9.15161,81.4332,25.0477,-1.18262,-4.20392,20.2812,7.12502,21.5581,49.1013,-13.0184,14.2483,23.4366,28.3591,-14.2962,-9.72373,24.8509,-23.8391,5.57377,-18.6171,73.1541,6.31439,-1.58075,10.6387
-0.908037,16.4012,-7.41476,0.59696,1.8595,1.74386,13.3522,0.748576,-6.93769,-4.41105,-0.0994354,1.4395,-12.4333,0.572371,5.55553,-9.78671,-6.1696,-3.67708,18.7496,-8.78703,4.52075,7.75449,-4.04784,1.22887,-6.27414e-15,1.09332e-14,-42.6382,-5.56466,-79.7471,23.7989,9.95987,-7.15749,19.0427,7.12502,18.7194,-10.0766,-6.27414e-15,1.09332e-14,-35.8255,9.41917,81.2584,24.9402,-1.47594,-4.5655,19.1671,7.12502,21.2108,48.0266,-12.5238,14.2991,23.7704,28.3182,-14.8017,-9.68576,24.9006,-24.8545,5.69918,-18.5578,73.2311,4.50491,-2.01695,7.7134
-0.917529,16.3892,-7.31708,0.573493,2.08438,1.67652,13.4256,0.741792,-6.86107,-4.33889,-0.0956898,1.45738,-12.3936,0.565279,5.53099,-9.89853,-6.25361,-3.68516,18.6829,-8.88266,4.46339,7.75449,-4.09775,1.19851,3.08116e-15,4.17448e-15,-42.3183,-5.18574,-79.9275,24.1114,9.25848,-7.45832,18.7284,7.12502,18.43,-10.4186,3.08116e-15,4.17448e-15,-35.6859,9.42191,81.3566,25.1552,-1.1479,-4.6563,18.9278,7.12502,21.1236,47.7971,-12.0242,14.2774,24.0404,28.2697,-15.2449,-9.80309,24.2002,-25.8948,5.49416,-18.633,73.1811,3.11127,-2.02717,7.09054
-0.926569,16.3867,-7.21124,0.603164,2.33393,1.72716,13.4263,0.740529,-6.91148,-4.3629,-0.108165,1.45104,-12.4206,0.564903,5.55609,-9.87133,-6.29428,-3.91588,18.7901,-8.92872,4.58072,7.80365,-4.12347,1.26838,-3.59055e-15,-1.19271e-15,-42.158,-4.90213,-79.9351,24.215,8.89205,-7.82806,18.9764,7.12502,18.0743,-10.2038,-3.59055e-15,-1.19271e-15,-35.6763,9.37539,81.4241,25.1824,-0.916039,-4.79284,18.3279,7.12502,20.9924,47.2118,-11.5111,14.0815,24.1615,28.2028,-15.6613,-9.8116,23.7152,-26.9498,5.15336,-18.8602,72.8774,2.07463,-1.63784,9.11884
-0.930656,16.3881,-7.10158,0.633872,2.34661,1.72508,13.4272,0.804086,-6.80336,-4.40793,-0.0121356,1.38067,-12.4857,0.601882,5.39301,-9.68796,-6.31631,-4.1765,18.9683,-8.98054,4.83059,7.8566,-4.14404,1.39014,-5.67779e-15,1.88845e-14,-41.8842,-5.17814,-79.7914,24.1687,9.0444,-8.20122,19.4918,7.12502,17.7152,-9.7212,-5.67779e-15,1.88845e-14,-35.7305,9.35195,81.3361,25.1234,-0.868883,-5.11134,17.8112,7.12502,20.6864,46.7288,-11.0064,13.8317,24.2874,28.114,-15.8698,-9.60354,23.495,-27.9549,4.99003,-19.0407,72.3565,1.01095,-1.2532,10.2238
-0.937019,16.3802,-7.00293,0.717794,2.19666,1.6625,13.4339,0.898997,-6.70142,-4.41039,0.12864,1.33464,-12.5114,0.658729,5.24945,-9.32465,-6.39287,-4.22197,18.7723,-9.09402,4.90933,7.73826,-4.20435,1.42492,-6.38596e-15,1.80894e-14,-41.3488,-5.40815,-79.6991,24.1515,9.22493,-8.14846,19.7648,7.12502,17.766,-9.4436,-6.38596e-15,1.80894e-14,-35.6822,9.20999,81.347,25.3445,-0.806972,-4.96147,18.5714,7.12502,20.8304,47.4732,-10.6193,13.8312,24.4649,27.9457,-15.9982,-9.46091,23.5631,-28.952,4.97331,-19.1453,71.7134,-0.239706,-1.18768,9.00867
-0.946314,16.3748,-6.90643,0.725819,2.30535,1.54028,13.528,0.906284,-6.5689,-4.37929,0.158006,1.34155,-12.534,0.662432,5.17515,-9.04112,-6.47088,-4.21039,18.5006,-9.18677,4.86441,7.59998,-4.26166,1.41112,7.45443e-17,2.32578e-14,-40.8759,-5.55855,-79.5826,24.1908,9.44237,-7.92073,19.7314,7.12502,17.9851,-9.45704,7.45443e-17,2.32578e-14,-35.6409,9.42778,81.1964,25.2504,-0.981297,-5.06635,18.3125,7.12502,20.7297,47.2253,-10.1252,13.7989,24.7688,27.7899,-16.2962,-9.55436,23.4017,-29.7904,4.80077,-19.145,70.9294,-1.37961,-1.30575,8.59517
-0.955398,16.3751,-6.80425,0.792888,2.52572,1.41986,13.5165,0.887069,-6.44281,-4.37296,0.157096,1.34589,-12.517,0.651378,5.10792,-8.95419,-6.52313,-4.29813,18.4206,-9.26737,4.99137,7.57279,-4.2976,1.46161,-5.66536e-15,-6.95746e-15,-40.6178,-5.32177,-79.7091,24.5354,9.12527,-7.81783,19.3763,7.12502,18.0841,-9.80298,-5.66536e-15,-6.95746e-15,-35.6462,9.37223,81.1493,25.1904,-1.00633,-5.08974,17.8162,7.12502,20.7072,46.7315,-9.65766,13.8422,25.0783,27.6636,-16.6784,-9.90406,22.6175,-30.6618,4.41807,-19.1433,69.998,-2.18114,-1.21724,10.7697
-0.956172,16.3658,-6.70183,0.918333,2.49387,1.41249,13.4338,0.956228,-6.38533,-4.38614,0.262648,1.31484,-12.4958,0.694387,5.01409,-9.13635,-6.58394,-4.29305,18.3778,-9.35523,5.04936,7.59845,-4.33065,1.46459,-1.5704e-14,1.98785e-16,-40.4006,-4.97155,-79.8881,24.9375,8.57233,-7.74971,18.863,7.12502,18.1497,-10.3102,-1.5704e-14,1.98785e-16,-35.6691,9.03698,81.3622,25.5194,-0.685884,-5.03092,18.6133,7.12502,20.7637,47.5224,-9.27061,13.9217,25.1945,27.5082,-16.9599,-10.0538,21.83,-31.5117,4.12485,-19.3041,68.9288,-3.05476,-1.1286,10.1544
-0.956786,16.3591,-6.59733,1.00468,2.45223,1.43328,13.3956,1.01752,-6.41984,-4.39286,0.342865,1.32813,-12.4929,0.735678,5.02904,-10.0823,-6.58562,-4.06038,18.7081,-9.32834,4.75263,7.84907,-4.30358,1.29813,-3.8266e-15,1.23246e-14,-40.1024,-4.71262,-79.9095,25.0298,8.26211,-7.82239,18.8311,7.12502,18.0797,-10.3486,-3.8266e-15,1.23246e-14,-35.6586,9.01922,81.4437,25.5577,-0.385491,-5.08588,18.7457,7.12502,20.7109,47.6606,-8.80092,13.9161,25.2744,27.2876,-17.1588,-10.0688,21.5484,-32.2182,3.77634,-19.4474,67.6576,-4.06598,-1.1277,9.26465
-0.959694,16.3572,-6.49415,1.00286,2.76376,1.38686,13.5107,0.952233,-6.33349,-4.38494,0.264766,1.34092,-12.5405,0.694332,5.01391,-9.4128,-6.67649,-4.31245,18.5081,-9.44059,4.86131,7.68664,-4.38126,1.38688,-2.17421e-15,4.37326e-15,-39.7632,-4.20407,-80.095,25.021,7.69499,-8.15075,18.9649,7.12502,17.7638,-10.2437,-2.17421e-15,4.37326e-15,-35.69,9.30625,81.2658,25.3924,-0.530883,-4.99609,18.0374,7.12502,20.7972,46.9429,-8.16455,13.7035,25.4904,27.0654,-17.5377,-10.2396,20.7044,-32.8208,3.10828,-19.5049,66.2262,-4.91193,-1.03805,9.21224
-0.963041,16.3555,-6.39042,1.04348,3.18422,1.29378,13.5825,0.8727,-6.11743,-4.4349,0.187436,1.30278,-12.6259,0.643183,4.86783,-9.52751,-6.71065,-4.40223,18.7008,-9.50134,4.9648,7.78365,-4.40134,1.42213,-3.10601e-15,-1.5704e-14,-39.6548,-4.06659,-80.1643,25.3184,7.50407,-8.30199,19.1767,7.12502,17.6182,-10.0451,-3.10601e-15,-1.5704e-14,-35.8149,9.20736,81.1857,25.3456,-0.519753,-4.90437,17.7784,7.12502,20.8853,46.6741,-7.5366,13.5413,25.7635,26.7641,-17.917,-10.4462,20.487,-33.4017,2.3095,-19.4793,64.6702,-5.55019,-0.952501,10.3287
-0.965106,16.3526,-6.28723,1.08659,3.35204,1.25185,13.6247,0.867624,-6.02826,-4.46294,0.19188,1.28568,-12.6825,0.639996,4.79744,-9.48137,-6.74259,-4.3498,18.4777,-9.54786,4.99334,7.703,-4.42176,1.42209,3.39176e-15,-6.16232e-15,-39.5243,-4.06216,-80.1313,25.7068,7.18904,-8.01173,19.9609,7.12502,17.8976,-9.23555,3.39176e-15,-6.16232e-15,-35.8584,9.19751,81.1665,25.2757,-0.550839,-4.77621,18.0843,7.12502,21.0084,46.9664,-6.90567,13.5527,25.9692,26.3534,-18.0396,-10.7405,20.1367,-33.8417,1.68975,-19.4817,62.9298,-6.07332,-0.762302,9.06363
-0.964822,16.3511,-6.1847,1.18149,3.31812,1.25066,13.71,0.908193,-6.01877,-4.48453,0.240763,1.27276,-12.7656,0.665065,4.76672,-9.45298,-6.74182,-4.25301,18.286,-9.53591,4.91411,7.62528,-4.42023,1.38551,-1.15544e-15,9.34288e-15,-39.3019,-3.77907,-80.2707,26.0622,6.46336,-7.96115,21.4997,7.12502,17.9462,-7.69229,-1.15544e-15,9.34288e-15,-35.8118,9.36142,81.0868,25.2458,-0.595295,-4.60486,18.7513,7.12502,21.173,47.6151,-6.28159,13.4174,26.0637,25.8088,-17.966,-10.8167,19.4258,-34.2371,1.17584,-19.4965,61.0423,-6.44435,-0.513496,8.30485
