JuanDHNZ/ProyectoFinalCD/preprocessing/sports_trials_csv/13_05.csv
root1,root2,root3,root4,root5,root6,lowerback1,lowerback2,lowerback3,upperback1,upperback2,upperback3,thorax1,thorax2,thorax3,lowerneck1,lowerneck2,lowerneck3,upperneck1,upperneck2,upperneck3,head1,head2,head3,rclavicle1,rclavicle2,rhumerus1,rhumerus2,rhumerus3,rradius1,rwrist1,rhand1,rhand2,rfingers1,rthumb1,rthumb2,lclavicle1,lclavicle2,lhumerus1,lhumerus2,lhumerus3,lradius1,lwrist1,lhand1,lhand2,lfingers1,lthumb1,lthumb2,rfemur1,rfemur2,rfemur3,rtibia1,rfoot1,rfoot2,rtoes1,lfemur1,lfemur2,lfemur3,ltibia1,lfoot1,lfoot2,ltoes1
-9.16939,18.3962,0.376675,-4.2207,18.6586,-3.58117,7.62951,4.12832,2.24632,2.05056,5.61002,-3.07155,-1.6113,2.81795,-4.91524,-7.42673,10.3393,-3.481,30.486,13.6511,8.07726,10.0416,6.94834,4.81504,8.49804e-14,-2.54444e-14,-32.4982,5.45212,-83.0068,36.2961,8.48573,-37.3953,5.07636,7.12502,-10.456,-24.6436,8.49804e-14,-2.54444e-14,-43.966,31.4494,54.3125,15.8631,-17.9797,-27.9354,25.8368,7.12502,-1.3235,55.8125,2.52364,4.84428,27.5511,24.3156,-26.6252,-33.1496,1.07409,-17.8203,5.3177,-5.31059,30.7676,-12.2546,21.6886,11.1534
-9.10098,18.3868,0.404872,-4.18287,19.2162,-3.63739,7.63285,4.07973,2.15552,1.96186,5.53475,-3.20913,-1.70729,2.77742,-5.00747,-7.21362,10.3534,-3.37744,30.4415,13.6377,8.13397,9.98898,6.9632,4.79776,-9.12422e-14,5.40694e-14,-32.8935,5.19514,-83.085,36.5721,8.39101,-37.6511,5.12757,7.12502,-10.7028,-24.5798,-9.12422e-14,5.40694e-14,-44.22,31.8167,53.6576,15.5899,-18.7428,-27.2205,25.3449,7.12502,-0.633072,55.3237,2.59917,4.90565,27.5304,24.4176,-27.0026,-33.6832,0.971138,-17.8901,5.40236,-5.52762,30.9079,-12.5298,21.5782,11.9124
-9.02747,18.3762,0.434775,-4.14607,19.7934,-3.64383,7.5894,4.05331,2.03898,1.98803,5.48983,-3.29574,-1.66304,2.75724,-5.02404,-7.32721,10.3199,-3.57107,30.4517,13.6004,8.25624,9.98901,6.94101,4.87385,-5.10877e-14,3.02153e-14,-33.0831,5.07108,-83.0497,36.718,8.02379,-37.6757,4.88424,7.12502,-10.7265,-24.8219,-5.10877e-14,3.02153e-14,-44.3468,32.6281,53.0075,15.235,-19.6086,-26.9888,24.4034,7.12502,-0.409239,54.3828,2.74236,4.8624,27.4146,24.4575,-27.3747,-34.0637,0.797961,-17.8674,5.41187,-5.82045,30.929,-12.6798,21.3987,11.7781
-8.95287,18.3634,0.46573,-4.09799,20.2457,-3.69806,7.46508,4.0854,1.91655,2.04497,5.52399,-3.32685,-1.54046,2.77846,-4.97642,-7.44831,10.2492,-3.74178,30.4146,13.5478,8.21887,9.99125,6.89539,4.88953,-5.42682e-14,3.65764e-14,-33.0019,5.06541,-82.888,36.6439,7.86453,-37.4299,4.14908,7.12502,-10.4894,-25.5692,-5.42682e-14,3.65764e-14,-44.638,34.0958,51.9335,14.757,-21.3465,-26.9491,24.0751,7.12502,-0.37096,54.0545,2.9408,4.89039,27.3566,24.3783,-27.8226,-34.3113,0.971911,-18.0261,5.49923,-6.07784,31.0135,-12.126,21.5257,9.17782
-8.87791,18.3598,0.49848,-4.08106,20.6614,-3.85483,7.34008,4.1313,1.92035,2.07953,5.58593,-3.36189,-1.42543,2.81311,-5.00621,-7.45359,10.166,-3.77393,30.3222,13.4704,8.09754,9.97229,6.84434,4.84197,-4.63168e-14,-1.74931e-14,-33.015,4.82653,-82.7161,36.6185,8.27328,-37.2272,3.30215,7.12502,-10.2938,-26.4259,-4.63168e-14,-1.74931e-14,-44.8287,35.1103,51.1233,14.3959,-22.734,-26.8444,24.1702,7.12502,-0.26979,54.1497,3.20823,4.96515,27.4263,24.1716,-28.183,-34.7003,0.803473,-18.1432,5.52074,-6.1934,31.115,-11.9229,21.4751,7.58132
-8.80008,18.362,0.531694,-4.05571,21.1183,-3.97275,7.27382,4.14378,1.91543,2.0808,5.60171,-3.42664,-1.37967,2.82275,-5.06588,-7.52988,10.1207,-3.81459,30.3535,13.4333,8.06183,10.0009,6.81876,4.84207,5.28767e-14,-1.11319e-14,-33.1857,4.56508,-82.638,36.6252,8.55031,-37.2582,3.15884,7.12502,-10.3237,-26.5678,5.28767e-14,-1.11319e-14,-44.8046,35.2899,50.9266,14.2954,-23.0674,-26.2979,23.6685,7.12502,0.25807,53.6481,3.51678,5.06321,27.443,23.8708,-28.5057,-35.1641,0.616783,-18.2888,5.34433,-6.32378,31.2301,-11.6299,21.2721,7.17029
-8.71908,18.3643,0.564604,-3.95023,21.5996,-3.979,7.22318,4.17118,1.79705,2.02809,5.62745,-3.52503,-1.40502,2.83484,-5.10232,-7.53273,10.0717,-3.83938,30.3973,13.3892,8.02247,10.0224,6.7918,4.83342,-4.45278e-14,-1.11319e-14,-33.3839,4.31262,-82.5488,36.5669,8.7536,-37.1009,3.27174,7.12502,-10.172,-26.4624,-4.45278e-14,-1.11319e-14,-44.7068,35.2152,50.9308,14.3146,-23.0451,-25.8636,23.3309,7.12502,0.677492,53.3096,3.77621,5.15537,27.3228,23.551,-28.6545,-35.6033,0.954123,-18.5648,5.01694,-6.54935,31.4174,-11.128,20.9298,7.43424
-8.63702,18.3687,0.596241,-3.82145,22.1633,-3.9594,7.21023,4.1712,1.65225,1.92654,5.61322,-3.64214,-1.50643,2.82454,-5.14703,-7.3687,10.012,-3.75016,30.3821,13.3259,7.89757,10.0089,6.7599,4.76076,-5.42682e-14,3.18055e-14,-33.6792,4.04793,-82.503,36.4835,8.96599,-36.8617,3.27545,7.12502,-9.94126,-26.4698,-5.42682e-14,3.18055e-14,-44.4333,34.6717,51.3218,14.458,-22.3308,-25.7969,24.4032,7.12502,0.741876,54.3817,3.98298,5.16982,27.1886,23.3203,-28.7601,-36.0837,1.23845,-18.9031,4.61126,-6.80407,31.6127,-10.5794,20.6141,7.32124
-8.56047,18.3718,0.62136,-3.70666,22.7823,-3.90097,7.29712,4.1464,1.43209,1.87256,5.56096,-3.74244,-1.62664,2.79564,-5.136,-7.34819,9.97774,-3.75674,30.4004,13.3024,7.83889,10.0184,6.74253,4.74065,2.18663e-14,2.22639e-14,-33.8936,3.90652,-82.4876,36.3253,8.92491,-36.8755,3.57109,7.12502,-9.95449,-26.1735,2.18663e-14,2.22639e-14,-44.2089,34.5316,51.5346,14.5888,-22.0927,-25.7847,25.9351,7.12502,0.753713,55.9136,4.14497,5.25368,27.0723,23.2516,-29.2392,-36.5591,1.50068,-19.1269,4.30456,-7.11645,31.8157,-10.6982,20.1371,8.31489
-8.48899,18.3733,0.64327,-3.59852,23.378,-3.82111,7.36403,4.15297,1.10838,1.91964,5.54591,-3.78625,-1.64305,2.78896,-5.00346,-7.40783,9.96093,-3.97178,30.2528,13.3101,7.86352,9.95514,6.73019,4.77463,-1.19271e-14,7.95139e-15,-33.8795,3.92832,-82.4286,36.0286,8.7016,-36.8859,3.96459,7.12502,-9.96456,-25.7795,-1.19271e-14,7.95139e-15,-44.132,35.2711,51.2633,14.5643,-22.7399,-25.8111,26.6,7.12502,0.728164,56.5785,4.24013,5.242,26.9111,23.3334,-29.8733,-36.8156,1.78457,-19.3861,4.1213,-7.4364,32.02,-10.8185,19.7466,8.81208
-8.41055,18.3725,0.66812,-3.43366,23.9673,-3.6124,7.31163,4.18701,0.686224,1.99689,5.56244,-3.8514,-1.5665,2.80033,-4.82831,-7.39958,9.92222,-4.21713,30.0165,13.2853,7.88826,9.84649,6.70223,4.79895,1.90833e-14,-3.33958e-14,-33.8876,3.90494,-82.3533,35.7338,8.61011,-36.7497,4.02682,7.12502,-9.83315,-25.7236,1.90833e-14,-3.33958e-14,-43.7473,35.4509,51.5411,14.5956,-22.5067,-25.3156,24.83,7.12502,1.20675,54.8063,4.252,5.09568,26.5505,23.5586,-30.25,-37.0537,1.57434,-19.6062,3.93955,-7.91874,32.2269,-10.8948,19.4136,8.57718
-8.3299,18.3744,0.696018,-3.26096,24.4889,-3.308,7.27731,4.27435,0.2319,2.05289,5.64703,-3.97127,-1.51398,2.84508,-4.7002,-7.41057,9.83561,-4.39019,29.9367,13.1911,7.90802,9.81035,6.64653,4.81973,-1.86858e-14,1.59028e-14,-34.0293,3.6797,-82.2592,35.4848,8.79872,-36.5271,4.0309,7.12502,-9.6184,-25.7295,-1.86858e-14,1.59028e-14,-43.1452,35.1292,52.162,14.7213,-21.9898,-25.54,26.1164,7.12502,0.990065,56.0938,4.24021,5.2098,26.153,23.8975,-30.4966,-37.5849,1.24412,-19.7044,3.74031,-8.5027,32.3856,-10.839,19.1589,7.9194
-8.25482,18.3773,0.723836,-3.16401,24.9382,-3.12841,7.3677,4.36714,-0.0952638,2.05064,5.74319,-4.10523,-1.57661,2.8932,-4.67338,-7.38991,9.76573,-4.48218,29.9151,13.1078,7.93363,9.79488,6.60404,4.83331,1.53661e-13,-4.13472e-14,-34.2127,3.41957,-82.2381,35.1949,9.16096,-36.2038,4.24847,7.12502,-9.30644,-25.5261,1.53661e-13,-4.13472e-14,-42.457,34.2911,53.0355,15.0635,-21.0965,-24.5306,25.215,7.12502,1.96494,55.1857,4.19914,5.46839,25.9263,24.3404,-30.7841,-38.132,1.03909,-19.7472,3.69891,-8.93714,32.4957,-10.6581,18.7913,7.08781
-8.17953,18.3798,0.748795,-2.97335,25.3697,-2.92983,7.48098,4.4315,-0.427882,1.96042,5.79511,-4.27788,-1.7433,2.9171,-4.6883,-7.2419,9.74464,-4.45499,29.8409,13.0779,7.91541,9.74582,6.59488,4.80482,1.57835e-13,-3.81667e-14,-34.4438,3.3068,-82.3571,34.9302,9.4776,-36.02,4.14384,7.12502,-9.12911,-25.6386,1.57835e-13,-3.81667e-14,-41.7092,32.8905,54.1904,15.5459,-19.3965,-24.7619,26.1386,7.12502,1.74157,56.1112,4.02823,5.72207,25.6425,24.8716,-31.1374,-38.4339,0.708813,-19.8787,3.72857,-9.3977,32.5523,-10.54,18.4363,6.16794
-8.09841,18.387,0.7736,-2.61679,25.6889,-2.55275,7.38879,4.52151,-0.947556,1.89594,5.87379,-4.45519,-1.78625,2.95679,-4.58616,-7.06611,9.72998,-4.34699,29.7773,13.0772,7.76393,9.71194,6.59121,4.72101,-2.66371e-14,2.8625e-14,-34.6158,3.40418,-82.4944,34.7065,9.62218,-36.1401,3.86389,7.12502,-9.245,-25.9134,-2.66371e-14,2.8625e-14,-41.012,31.6935,55.3249,16.011,-17.4349,-25.4523,27.0923,7.12502,1.0747,57.0694,3.77768,5.99323,25.1204,25.4132,-31.3528,-38.5162,0.379934,-20.0341,3.7014,-10.0472,32.5999,-10.642,18.2567,5.40531
-8.01004,18.3929,0.797734,-2.25102,25.9231,-2.131,7.21073,4.6233,-1.44858,1.8656,5.97604,-4.63973,-1.7428,3.00989,-4.49382,-6.93816,9.72948,-4.25874,29.7841,13.1014,7.62688,9.70825,6.59708,4.65549,-6.50026e-14,4.45278e-14,-34.7847,3.46325,-82.6017,34.5126,9.83933,-36.3596,4.19145,7.12502,-9.45676,-25.5764,-6.50026e-14,4.45278e-14,-40.6593,31.4091,55.7173,16.4285,-16.7229,-25.1305,27.0489,7.12502,1.38552,57.0241,3.58699,6.06983,24.4539,25.88,-31.239,-38.4217,0.0878717,-20.1232,3.65514,-10.7539,32.6757,-10.8514,18.1154,4.69101
-7.91396,18.3946,0.822331,-2.01436,26.3153,-2.0716,7.04673,4.65734,-1.51347,1.78125,6.01909,-4.76245,-1.72966,3.0321,-4.57804,-6.56265,9.70693,-4.03171,29.5539,13.1016,7.30118,9.6014,6.59026,4.47028,-2.82274e-14,-3.65764e-14,-35.0669,3.42554,-82.7057,34.3049,10.1724,-36.382,4.57847,7.12502,-9.47838,-25.1884,-2.82274e-14,-3.65764e-14,-40.6029,31.632,55.4998,16.7784,-17.2614,-23.4579,25.7018,7.12502,3.00089,55.6604,3.40263,5.83256,24.0674,26.2521,-30.6921,-38.4488,-0.801988,-20.3007,3.6453,-11.1268,32.8022,-10.9701,17.779,4.24762
-7.80943,18.4013,0.850062,-1.87707,26.8359,-2.29024,6.76227,4.64903,-1.23314,1.73629,6.03901,-4.79965,-1.58428,3.04382,-4.74779,-6.45266,9.71173,-3.9902,29.598,13.1446,7.16915,9.60953,6.60093,4.41908,-5.96354e-16,-2.54444e-14,-35.2542,3.46814,-82.7515,34.0226,10.4331,-36.2718,4.4384,7.12502,-9.37202,-25.3333,-5.96354e-16,-2.54444e-14,-40.2409,31.0976,56.0063,17.1757,-16.5133,-22.332,24.0412,7.12502,4.08818,53.9818,3.27906,5.32569,23.8877,26.5238,-29.9153,-38.3811,-1.89462,-20.5122,3.58564,-11.2372,32.9897,-11.2249,17.3033,4.68207
-7.71008,18.4114,0.868828,-1.83449,27.2117,-2.43997,6.64534,4.71842,-1.00384,1.79337,6.1561,-4.79174,-1.42871,3.10527,-4.85933,-6.69972,9.69338,-4.30409,29.8252,13.1782,7.24875,9.7051,6.58971,4.52913,-1.17084e-13,5.88403e-14,-35.2743,3.6461,-82.6846,33.7919,10.4934,-36.1491,4.25925,7.12502,-9.25365,-25.5177,-1.17084e-13,5.88403e-14,-39.6477,30.4978,56.8645,17.5468,-15.3611,-22.0956,23.112,7.12502,4.31642,53.048,3.32604,5.0472,23.6786,26.7,-29.4568,-38.0629,-1.96639,-20.6075,3.44632,-11.3856,33.2094,-11.6,17.02,5.12384
-7.61703,18.4207,0.885305,-1.95592,27.5353,-2.62881,6.6791,4.82129,-0.822841,1.92773,6.3122,-4.7189,-1.28536,3.18665,-4.88908,-6.83867,9.63862,-4.52699,29.8786,13.1822,7.13815,9.74366,6.55516,4.54058,-5.10877e-14,-4.29375e-14,-35.3229,3.83219,-82.6071,33.7014,10.4695,-35.8301,4.32252,7.12502,-8.94583,-25.4678,-5.10877e-14,-4.29375e-14,-39.028,30.2461,57.6446,17.9527,-14.9514,-21.6361,22.9094,7.12502,4.76015,52.8359,3.50732,5.0652,23.6031,26.8419,-29.1584,-37.921,-1.62284,-20.5932,3.40327,-11.4931,33.4231,-11.7633,16.777,4.77261
-7.51492,18.4295,0.915043,-2.12003,27.9919,-2.84021,6.58797,4.86833,-0.580059,2.05226,6.402,-4.68533,-1.07634,3.23672,-4.97693,-6.80811,9.58558,-4.55508,29.8963,13.1578,6.99434,9.75725,6.52564,4.495,7.25564e-14,1.59028e-14,-35.5086,3.85514,-82.6429,33.6108,10.6327,-35.2315,4.623,7.12502,-8.36817,-25.1912,7.25564e-14,1.59028e-14,-38.4503,29.8206,58.4062,18.4272,-14.5782,-21.2572,22.9957,7.12502,5.12604,52.9137,3.78016,4.8309,23.5011,26.9891,-28.6913,-37.7893,-1.70415,-20.4823,3.39835,-11.6183,33.6095,-11.8344,16.3962,4.24291
-7.41051,18.4388,0.94834,-2.22594,28.5234,-3.02743,6.4742,4.87127,-0.358987,2.10677,6.428,-4.66931,-0.932359,3.25362,-5.06892,-6.87229,9.56029,-4.66026,30.1065,13.1599,7.01022,9.83699,6.51497,4.53643,-4.25399e-14,-1.90833e-14,-35.697,3.90026,-82.6884,33.4108,11.0214,-34.768,4.86549,7.12502,-7.92086,-24.9661,-4.25399e-14,-1.90833e-14,-37.9581,29.103,59.2266,18.9192,-13.7917,-21.3366,23.3762,7.12502,5.04931,53.296,4.05688,4.35024,23.3355,27.1148,-28.266,-37.489,-2.27677,-20.3808,3.27081,-11.7702,33.776,-12.0503,16.0534,4.04379
-7.31087,18.4511,0.976114,-2.39453,29.0238,-3.32604,6.55563,4.89176,-0.0541498,2.05951,6.47125,-4.63732,-0.992559,3.27515,-5.21802,-6.85214,9.53166,-4.69953,30.3741,13.1464,7.03617,9.92747,6.50528,4.56856,-1.59028e-15,-2.54444e-14,-35.941,3.8675,-82.7157,33.1751,11.5507,-34.6711,4.76008,7.12502,-7.82732,-25.075,-1.59028e-15,-2.54444e-14,-37.5328,27.9558,60.1625,19.4897,-12.7034,-21.4682,24.0111,7.12502,4.92231,53.9339,4.27856,3.91957,23.3111,27.2374,-27.712,-37.4042,-3.61732,-20.2846,3.17102,-11.8016,33.9168,-12.2883,15.7329,3.79766
-7.21168,18.4642,1.00147,-2.54054,29.4661,-3.65116,6.85679,4.989,0.404228,1.78499,6.61237,-4.71578,-1.36908,3.33792,-5.6113,-6.44877,9.46428,-4.54262,30.5755,13.0038,7.16454,9.9353,6.47608,4.56383,-7.45443e-14,-3.33958e-14,-36.5355,3.51753,-82.8105,33.0048,12.2135,-34.437,4.84153,7.12502,-7.60143,-25.0019,-7.45443e-14,-3.33958e-14,-37.2892,26.2598,60.9743,20.1091,-11.5477,-21.8621,24.5982,7.12502,4.54194,54.5295,4.3301,3.68,23.3205,27.4326,-26.6353,-37.6549,-4.52408,-20.2117,3.1747,-11.8127,34.0152,-12.4423,15.3569,3.44152
-7.11331,18.4779,1.03201,-2.57443,30.0086,-3.84725,6.65047,4.97986,0.492503,1.77652,6.61163,-4.65516,-1.26108,3.33906,-5.57542,-6.26799,9.48396,-4.5175,30.7039,13.0441,7.14744,9.94977,6.49706,4.55379,-1.74931e-13,1.11319e-14,-36.6643,3.7378,-82.8451,32.7868,12.7037,-34.1567,5.06662,7.12502,-7.33082,-24.7864,-1.74931e-13,1.11319e-14,-37.0996,26.1316,61.2207,20.4807,-11.5346,-22.1421,24.6892,7.12502,4.27152,54.6262,4.32897,3.46721,23.2521,27.7388,-25.8056,-37.8104,-3.88396,-20.1528,3.08595,-11.9462,34.0345,-12.5652,14.9691,3.2299
-7.01876,18.4919,1.06241,-2.61192,30.6022,-3.92886,6.56751,4.95153,0.417625,1.77445,6.57132,-4.59459,-1.23713,3.31854,-5.45978,-6.20636,9.50227,-4.4923,30.9405,13.0977,7.11838,10.0274,6.51952,4.55749,-3.22031e-14,2.8625e-14,-36.7711,3.98303,-82.8881,32.5605,13.0024,-33.7195,4.85504,7.12502,-6.90883,-25.0122,-3.22031e-14,2.8625e-14,-36.9527,26.4974,61.2246,20.7585,-12.0375,-22.3282,25.2143,7.12502,4.09182,55.1547,4.37233,3.20208,23.1346,28.1858,-25.3443,-37.929,-2.56412,-19.9803,2.82759,-12.1687,33.9392,-12.7033,14.6819,3.28487
-6.92739,18.5077,1.08677,-2.52702,31.0676,-3.75641,6.59315,4.98641,0.13431,1.73426,6.59664,-4.62127,-1.31945,3.32907,-5.3377,-6.15723,9.477,-4.41465,31.1637,13.0754,7.10811,10.1099,6.51525,4.55443,-1.2762e-13,3.33958e-14,-36.915,3.88921,-82.8627,32.3698,13.5505,-33.1739,4.91528,7.12502,-6.38211,-24.9686,-1.2762e-13,3.33958e-14,-36.4816,25.3039,62.3533,21.4021,-10.4386,-22.3653,26.0195,7.12502,4.05599,55.9606,4.258,3.0599,22.7705,28.7693,-24.4078,-38.326,-1.68154,-19.7382,2.54926,-12.6245,33.7474,-12.8182,14.556,3.17016
-6.83557,18.5246,1.11081,-2.23986,31.5878,-3.30621,6.494,5.01646,-0.347101,1.73346,6.60753,-4.73364,-1.30535,3.33546,-5.179,-6.16003,9.43161,-4.3901,31.3503,12.9993,7.21195,10.1776,6.49435,4.59491,2.3059e-14,1.11319e-14,-37.0452,3.75589,-82.8696,32.1316,14.7194,-33.6982,4.97642,7.12502,-6.88821,-24.8915,2.3059e-14,1.11319e-14,-36.2857,25.3146,62.453,21.7117,-11.9357,-21.5474,26.2857,7.12502,4.84578,56.2103,4.0767,2.76202,22.0991,29.4124,-23.5017,-38.4792,-2.14718,-19.5386,2.28111,-13.3621,33.5218,-12.8383,14.4558,2.67315
-6.74065,18.5401,1.13383,-2.00571,32.2646,-3.02674,6.27373,4.96498,-0.63634,1.80356,6.53193,-4.79167,-1.14271,3.30114,-5.0475,-6.21262,9.42674,-4.3819,31.4848,12.9924,7.27146,10.2338,6.49808,4.62762,-4.77083e-14,-7.95139e-15,-37.0562,3.73544,-82.8934,31.8405,16.0411,-34.6201,4.74866,7.12502,-7.77806,-25.0883,-4.77083e-14,-7.95139e-15,-35.9214,24.8489,62.9915,22.2067,-11.8764,-21.5156,26.6028,7.12502,4.87651,56.5267,3.91431,2.17357,21.5499,30.0439,-23.1509,-38.2956,-3.12835,-19.4128,1.9856,-13.9602,33.3113,-12.7819,14.2641,2.30384
-6.6451,18.5541,1.15696,-2.03684,32.8986,-3.18385,6.14731,4.91888,-0.553652,1.81629,6.48154,-4.72751,-1.06212,3.27679,-5.00953,-6.19525,9.38508,-4.30892,31.6526,12.9575,7.21158,10.3075,6.4822,4.60606,5.1684e-15,9.54166e-15,-37.107,3.64867,-82.8171,31.6059,16.8586,-34.7266,5.17159,7.12502,-7.88086,-24.6615,5.1684e-15,9.54166e-15,-35.6272,24.2434,63.6267,22.7287,-11.4512,-21.6445,26.7549,7.12502,4.75206,56.6817,3.74611,1.69447,21.4393,30.6474,-22.8827,-38.2803,-3.18974,-19.277,1.73243,-14.1317,33.1441,-12.761,14.0174,2.02464
-6.55281,18.5656,1.18679,-2.20259,33.4244,-3.402,6.15327,4.92099,-0.482367,1.79187,6.48792,-4.64803,-1.09175,3.27871,-4.96882,-6.20163,9.28247,-4.2269,31.9494,12.8334,7.19488,10.4374,6.42976,4.60293,-5.66536e-14,-6.36111e-15,-37.2476,3.48963,-82.719,31.6112,16.9279,-33.918,5.43177,7.12502,-7.10039,-24.4291,-5.66536e-14,-6.36111e-15,-35.3538,23.7191,64.2023,23.1482,-10.9526,-21.5723,26.621,7.12502,4.82175,56.5461,3.7052,1.48069,21.4763,31.237,-22.4028,-38.4493,-3.82119,-19.0219,1.46506,-14.1959,33.0377,-12.8637,13.8325,1.68373
-6.46366,18.5761,1.21834,-2.36094,33.9373,-3.51027,6.22752,4.93301,-0.546003,1.78044,6.49747,-4.59106,-1.15783,3.28184,-4.88355,-6.16405,9.22216,-4.20215,32.1436,12.7448,7.26828,10.5052,6.40089,4.6304,-6.10269e-14,-4.13472e-14,-37.3704,3.28288,-82.6221,31.8743,16.2395,-32.516,5.33417,7.12502,-5.74692,-24.5679,-6.10269e-14,-4.13472e-14,-35.0025,22.7607,64.9942,23.6591,-9.64024,-21.0482,25.802,7.12502,5.32779,55.715,3.72627,1.34321,21.4553,31.8157,-21.8408,-38.7271,-5.018,-18.7161,1.19571,-14.3476,32.9637,-12.979,13.6698,1.42031
-6.37442,18.587,1.24023,-2.51974,34.4372,-3.71997,6.36213,4.95762,-0.428196,1.72048,6.53109,-4.52141,-1.28692,3.29582,-4.89605,-6.01642,9.19424,-4.26496,32.1782,12.6814,7.41595,10.4759,6.38777,4.67795,7.7526e-14,-5.08889e-14,-37.5288,3.04256,-82.4844,32.0654,15.6959,-31.729,5.47722,7.12502,-4.98702,-24.4441,7.7526e-14,-5.08889e-14,-34.6446,21.3661,65.9801,24.2784,-7.94331,-21.111,25.976,7.12502,5.26714,55.8906,3.63546,1.10467,21.48,32.4165,-21.3416,-38.9266,-4.82312,-18.5074,0.969878,-14.4304,32.8904,-13.0069,13.5176,1.12618
-6.2831,18.5978,1.2574,-2.69297,34.9256,-3.95789,6.48611,4.98198,-0.193366,1.65649,6.57304,-4.46382,-1.39891,3.31427,-4.98544,-5.84839,9.14965,-4.2859,32.2251,12.5892,7.55816,10.4531,6.36543,4.71486,-1.33782e-13,7.95139e-15,-37.6976,2.80391,-82.3606,32.1206,15.5802,-31.5865,5.38373,7.12502,-4.84951,-24.5408,-1.33782e-13,7.95139e-15,-34.2705,19.9312,67.0078,24.8821,-6.05944,-22.3471,27.6497,7.12502,4.07357,57.5905,3.4182,0.930273,21.4874,33.0763,-20.5014,-39.1921,-3.52171,-18.2987,0.690857,-14.4981,32.8082,-13.0789,13.4099,0.942698
-6.19299,18.6069,1.27762,-2.92119,35.4739,-4.15389,6.59261,4.94473,-0.077124,1.6434,6.52854,-4.38205,-1.47195,3.29011,-4.97388,-5.65198,9.11669,-4.20612,32.2318,12.5291,7.5679,10.4273,6.35285,4.6885,3.97569e-15,4.77083e-15,-37.7882,2.75644,-82.3323,32.1557,15.4041,-31.3562,5.01518,7.12502,-4.62706,-24.9143,3.97569e-15,4.77083e-15,-34.0708,19.6936,67.2625,25.1162,-6.30357,-21.9801,26.9479,7.12502,4.42801,56.8816,3.17158,0.812063,21.4532,33.7995,-19.2403,-39.6835,-1.69705,-17.9929,0.37839,-14.5953,32.7165,-13.2189,13.2129,0.990517
-6.10333,18.6146,1.29802,-3.09065,35.9984,-4.27184,6.64513,4.86721,-0.0653003,1.66559,6.4264,-4.30025,-1.49502,3.23825,-4.89294,-5.5936,9.1036,-4.19269,32.2577,12.5168,7.55653,10.429,6.3495,4.67986,1.01778e-13,-1.59028e-14,-37.7571,2.86501,-82.3663,32.1178,15.2861,-31.1219,4.79846,7.12502,-4.40086,-25.1358,1.01778e-13,-1.59028e-14,-33.851,19.1268,67.7437,25.5826,-5.84471,-21.8323,27.037,7.12502,4.57075,56.9677,2.92165,0.530018,21.3137,34.6011,-18.2057,-39.9842,-0.353409,-17.6795,0.0348441,-14.7691,32.6111,-13.3403,13.0842,0.878024
-6.01384,18.6242,1.31794,-3.10915,36.3848,-4.29672,6.61489,4.86966,-0.0310739,1.67404,6.43367,-4.3107,-1.4639,3.24284,-4.9195,-5.61707,9.05402,-4.16784,32.3019,12.4367,7.60824,10.453,6.32301,4.69362,2.25024e-13,-1.74931e-14,-37.652,2.76875,-82.402,32.0244,15.1715,-31.1757,4.76334,7.12502,-4.45279,-25.1698,2.25024e-13,-1.74931e-14,-33.6118,19.3391,67.5955,25.7253,-7.55114,-19.9349,25.9174,7.12502,6.40269,55.8006,2.52543,0.294806,21.0883,35.5075,-17.3601,-40.1693,0.228635,-17.4311,-0.248516,-15.0173,32.4905,-13.454,13.0445,0.816755
-5.92781,18.6329,1.33696,-3.0647,36.6982,-4.30508,6.55688,4.92429,-0.043295,1.65838,6.50691,-4.31115,-1.44317,3.27975,-4.91289,-5.55866,8.98311,-4.15683,32.2657,12.3176,7.67038,10.4312,6.28084,4.69815,1.01181e-13,-2.54444e-14,-37.5825,2.57254,-82.3735,32.0501,14.985,-31.1794,4.79166,7.12502,-4.45638,-25.1415,1.01181e-13,-2.54444e-14,-33.1971,18.827,68.0477,26.0302,-7.10373,-20.3182,26.2906,7.12502,6.03262,56.1847,1.9634,0.180905,20.8777,36.5414,-16.6019,-40.4469,1.12031,-17.2351,-0.430005,-15.2531,32.3404,-13.5409,12.9719,0.848341
-5.84506,18.6383,1.35607,-3.0427,37.0537,-4.27477,6.53077,4.91845,-0.205099,1.66255,6.48958,-4.23903,-1.45243,3.27017,-4.74482,-5.52916,8.94127,-4.20678,32.2672,12.2637,7.68916,10.4245,6.25507,4.70676,6.79844e-14,1.59028e-14,-37.5498,2.54587,-82.3267,32.2246,14.867,-32.0129,4.59583,7.12502,-5.26118,-25.3189,6.79844e-14,1.59028e-14,-32.897,18.3294,68.5186,26.3726,-6.51151,-20.6219,26.1818,7.12502,5.73945,56.0841,1.40313,0.0955824,20.6693,37.6838,-16.0213,-40.7489,2.27284,-16.9865,-0.700928,-15.5174,32.1389,-13.6071,12.9725,0.710804
-5.76527,18.6426,1.37598,-2.89432,37.5172,-4.00011,6.57517,4.8786,-0.528442,1.65056,6.41313,-4.25494,-1.52915,3.23094,-4.58354,-5.49254,8.8933,-4.14311,32.3075,12.2082,7.63057,10.4467,6.2313,4.67405,1.12313e-13,-8.74653e-14,-37.5471,2.43817,-82.3201,32.3676,14.9223,-34.1105,4.23463,7.12502,-7.28627,-25.6199,1.12313e-13,-8.74653e-14,-32.6309,17.731,68.9295,26.6841,-5.90439,-21.2181,26.3216,7.12502,5.16381,56.2387,0.837016,-0.024642,20.2661,38.8809,-15.376,-41.0177,3.11539,-16.7017,-1.05267,-16.0014,31.9128,-13.6943,12.9658,0.665399
-5.68876,18.6468,1.3968,-2.54649,38.0071,-3.41187,6.67068,4.85906,-1.06784,1.61239,6.34507,-4.3768,-1.67094,3.19646,-4.4204,-5.46509,8.84817,-4.11813,32.3761,12.1261,7.71416,10.4676,6.20829,4.69677,-1.03964e-13,2.38542e-14,-37.5422,2.23018,-82.3247,32.4506,15.0292,-35.1026,3.7425,7.12502,-8.2438,-26.0767,-1.03964e-13,2.38542e-14,-32.3396,17.2006,69.2584,26.9801,-5.0433,-22.4271,27.0135,7.12502,3.99635,56.9558,0.20653,-0.16895,19.5766,40.1251,-14.5935,-41.2778,4.28014,-16.3762,-1.29223,-16.746,31.6269,-13.761,12.8483,0.715892
-5.61285,18.6514,1.41768,-2.35274,38.3989,-3.04268,6.76198,4.87544,-1.4068,1.58902,6.33856,-4.47027,-1.77197,3.1935,-4.34121,-5.48828,8.80529,-4.114,32.4801,12.0249,7.90153,10.5025,6.18601,4.76337,-5.68524e-14,6.99722e-14,-37.4904,2.05104,-82.3839,32.5546,15.0353,-34.7075,3.06069,7.12502,-7.86249,-26.7731,-5.68524e-14,6.99722e-14,-32.1635,17.9967,68.6566,26.9883,-7.36636,-20.7307,25.8244,7.12502,5.63437,55.7295,-0.453927,-0.142086,19.0972,41.3991,-13.976,-41.6582,5.25678,-15.9942,-1.37012,-17.2754,31.2737,-13.7437,12.6166,0.756716
-5.53242,18.6564,1.43733,-2.0861,38.7555,-2.4704,6.84201,4.91475,-1.83182,1.61611,6.35905,-4.6148,-1.81614,3.20607,-4.26557,-5.42445,8.74914,-3.98712,32.4779,11.9238,7.9178,10.5043,6.15876,4.73802,-1.17482e-13,2.06736e-14,-37.4201,1.94945,-82.5072,32.6638,15.134,-33.625,3.16865,7.12502,-6.81759,-26.7016,-1.17482e-13,2.06736e-14,-31.8562,17.6879,68.7672,27.2611,-7.26317,-20.3827,25.3331,7.12502,5.97033,55.229,-1.05002,-0.108561,18.4136,42.6804,-13.469,-41.9868,5.74782,-15.528,-1.49583,-17.9833,30.9615,-13.86,12.3216,1.21434
-5.45357,18.6595,1.45439,-1.63457,39.1194,-1.67788,6.90752,4.92741,-2.43038,1.64825,6.33207,-4.77096,-1.86696,3.19543,-4.10176,-5.36352,8.69074,-3.94265,32.4321,11.8427,7.88244,10.487,6.12514,4.70575,-1.19072e-13,0,-37.3058,1.971,-82.5894,32.824,15.5954,-31.1542,4.50083,7.12502,-4.43205,-25.4328,-1.19072e-13,0,-31.4671,16.5422,69.559,27.7332,-4.82954,-21.3272,25.6725,7.12502,5.05844,55.5922,-1.7089,-0.187891,17.529,43.97,-12.7827,-42.2459,6.26421,-15.1415,-1.67466,-18.8652,30.7442,-14.1208,12.033,1.90047
-5.3817,18.6601,1.46655,-1.49987,39.4519,-1.69301,6.84785,4.87501,-2.43158,1.61573,6.26384,-4.7393,-1.87488,3.16079,-4.05884,-5.34112,8.64714,-3.95354,32.3991,11.8034,7.80472,10.4788,6.09814,4.67409,-3.00165e-14,6.36111e-15,-37.0878,2.00431,-82.5827,33.0135,16.1903,-31.2907,3.79869,7.12502,-4.56383,-26.1321,-3.00165e-14,6.36111e-15,-31.1993,16.3938,69.7883,28.0492,-4.52885,-20.6405,25.6415,7.12502,5.72144,55.5443,-2.62658,-0.285993,17.3857,45.2481,-12.0233,-42.5296,7.20908,-15.079,-1.71087,-19.0232,30.619,-14.2289,11.752,2.01092
-5.31188,18.6612,1.47803,-1.53455,39.7868,-1.86002,6.85122,4.78379,-2.33436,1.6002,6.14853,-4.64809,-1.89882,3.10186,-4.0098,-5.26372,8.65453,-3.95247,32.3587,11.8407,7.69913,10.4553,6.10441,4.63195,2.84262e-14,9.54166e-15,-36.8411,2.25021,-82.6451,33.169,16.2926,-31.2776,3.54422,7.12502,-4.55116,-26.3869,2.84262e-14,9.54166e-15,-31.0348,16.2176,69.924,28.4026,-4.31054,-20.3028,25.7008,7.12502,6.04751,55.5945,-3.45514,-0.416164,17.3861,46.5041,-10.954,-42.7486,10.3081,-14.9878,-1.74062,-19.0568,30.5948,-14.346,11.4673,2.05388
-5.24549,18.6628,1.49072,-1.65095,40.1271,-1.93268,7.06419,4.71171,-2.23892,1.58763,6.04766,-4.64008,-2.02607,3.05052,-4.06769,-5.19716,8.63271,-3.94993,32.3477,11.7931,7.75538,10.4368,6.09136,4.6421,-9.00495e-14,3.97569e-14,-36.635,2.49347,-82.8506,33.2961,16.1215,-31.6549,3.6247,7.12502,-4.91555,-26.2983,-9.00495e-14,3.97569e-14,-30.8486,15.9485,69.97,28.6761,-4.05316,-20.5742,25.7719,7.12502,5.78541,55.6729,-4.12229,-0.4741,17.3517,47.7239,-9.85139,-43.0094,13.5472,-14.7724,-1.82358,-19.164,30.6384,-14.5254,11.1921,2.35018
-5.18066,18.6642,1.50303,-1.80305,40.4945,-2.14393,7.23619,4.65066,-2.01459,1.56203,5.97313,-4.62206,-2.13101,3.01171,-4.18469,-5.15,8.5849,-3.95751,32.3116,11.7079,7.81651,10.4139,6.0609,4.65237,1.19271e-15,1.27222e-14,-36.4266,2.51392,-82.981,33.4123,16.1074,-31.5629,4.28645,7.12502,-4.82669,-25.6386,1.19271e-15,1.27222e-14,-30.5931,15.7584,70.0026,28.8728,-4.06317,-20.6391,25.5862,7.12502,5.72276,55.4889,-4.85008,-0.506384,17.458,48.9219,-8.94574,-43.2408,15.4648,-14.6066,-1.84912,-19.149,30.6182,-14.5943,10.9037,2.20175
-5.11572,18.6665,1.51353,-1.74775,40.9324,-2.00761,7.42843,4.56078,-2.07081,1.57916,5.84093,-4.61712,-2.23327,2.94549,-4.1549,-5.12232,8.60458,-4.02086,32.2656,11.7498,7.79857,10.3853,6.0726,4.65366,1.33186e-14,6.36111e-15,-36.1727,2.65097,-83.0686,33.558,15.9354,-31.328,4.85458,7.12502,-4.59987,-25.0755,1.33186e-14,6.36111e-15,-30.3799,15.3289,70.2055,29.2178,-3.76389,-20.3053,25.222,7.12502,6.04507,55.1158,-5.54466,-0.603151,17.2598,50.1066,-7.94272,-43.0259,16.3131,-14.3904,-1.83796,-19.4449,30.5242,-14.5639,10.595,1.473
-5.05447,18.6667,1.52289,-1.62037,41.4173,-1.67279,7.74256,4.45205,-2.2051,1.59925,5.67033,-4.72236,-2.39786,2.86125,-4.20379,-5.12699,8.61155,-3.94693,32.2772,11.7531,7.79394,10.3961,6.08222,4.64222,-2.82274e-14,-1.59028e-15,-35.9091,2.8934,-83.387,33.7313,15.4012,-31.7393,4.75689,7.12502,-4.99702,-25.1642,-2.82274e-14,-1.59028e-15,-30.1788,14.9941,70.2472,29.5805,-3.48705,-20.2445,25.2076,7.12502,6.10376,55.0997,-6.18456,-0.74907,16.8919,51.2593,-6.62269,-42.004,15.839,-14.1159,-1.83608,-19.9054,30.4231,-14.5093,10.3024,0.675987
-4.99656,18.6643,1.53426,-1.67721,41.9666,-1.63999,8.00552,4.31891,-2.12825,1.62362,5.48733,-4.77735,-2.51551,2.76975,-4.30952,-5.131,8.54614,-3.83688,32.2985,11.6435,7.80053,10.4197,6.04541,4.62181,5.56597e-14,-2.8625e-14,-35.6922,3.18582,-83.7961,34.0062,14.8112,-32.4079,4.5689,7.12502,-5.64255,-25.336,5.56597e-14,-2.8625e-14,-29.9268,14.983,70.1425,29.777,-3.68728,-20.0631,24.9558,7.12502,6.27891,54.8427,-6.81929,-0.881614,16.8035,52.358,-5.07669,-40.2983,15.4582,-13.8701,-1.9377,-20.0943,30.3287,-14.5254,10.0074,0.178694
-4.93989,18.6635,1.5472,-1.84958,42.492,-1.83657,8.18204,4.16025,-1.9373,1.67936,5.28755,-4.73565,-2.55357,2.66916,-4.36527,-5.1733,8.48442,-3.85205,32.2676,11.5546,7.80227,10.4207,6.00306,4.61905,-7.95139e-16,-3.49861e-14,-35.3931,3.43566,-84.045,34.3041,14.6294,-32.6586,4.63485,7.12502,-5.88462,-25.2634,-7.95139e-16,-3.49861e-14,-29.6551,14.6648,70.2257,30.0045,-3.33351,-20.2426,25.063,7.12502,6.10556,54.955,-7.46734,-0.866642,16.9667,53.3884,-3.82523,-38.1577,14.6101,-13.7019,-2.05815,-20.0791,30.2835,-14.5877,9.67875,0.0877718
-4.88282,18.6593,1.55594,-1.93154,42.8494,-1.93711,8.33577,4.03943,-1.85584,1.74007,5.13058,-4.68578,-2.58249,2.59048,-4.35311,-5.22875,8.47555,-3.87696,32.2028,11.555,7.75069,10.4092,5.99381,4.60404,-2.14687e-14,2.22639e-14,-34.9809,3.57653,-84.1209,34.5774,14.5005,-32.7251,4.83744,7.12502,-5.94883,-25.059,-2.14687e-14,2.22639e-14,-29.3995,14.3492,70.3356,30.2642,-2.92457,-20.2851,25.2384,7.12502,6.06461,55.1316,-8.1826,-0.739683,17.0317,54.3628,-2.85785,-35.5803,12.0181,-13.6009,-2.09319,-20.1538,30.3034,-14.6773,9.40617,0.286878
-4.82654,18.6521,1.56225,-1.9,43.1309,-1.92194,8.47624,3.95142,-1.90927,1.76614,5.00435,-4.6163,-2.65161,2.52697,-4.24889,-5.18131,8.49042,-3.9665,32.085,11.5942,7.69952,10.3507,5.99712,4.59091,-7.79236e-14,1.43125e-14,-34.6627,3.77774,-84.128,34.9738,14.103,-32.6606,5.26764,7.12502,-5.88649,-24.6306,-7.79236e-14,1.43125e-14,-29.1688,14.4296,70.3717,30.3785,-3.07051,-20.2206,25.193,7.12502,6.12689,55.0844,-8.97321,-0.555318,16.9767,55.2728,-2.23324,-32.7235,9.1432,-13.55,-2.08835,-20.3273,30.3475,-14.796,9.16832,0.232482
-4.77311,18.6479,1.5758,-1.72812,43.5139,-1.74981,8.60105,3.82987,-2.07129,1.75635,4.82178,-4.60692,-2.75548,2.43607,-4.14134,-5.11743,8.48,-4.05759,31.9969,11.5901,7.68146,10.3003,5.98447,4.58751,4.35338e-14,1.74931e-14,-34.4886,4.04154,-84.2516,35.439,13.757,-32.5204,5.67705,7.12502,-5.75116,-24.2249,4.35338e-14,1.74931e-14,-28.9502,14.507,70.3053,30.3979,-3.28471,-20.3006,25.3721,7.12502,6.0496,55.2657,-9.76184,-0.321624,16.8556,56.0877,-2.23771,-29.8309,7.3091,-13.5047,-2.14356,-20.598,30.3907,-14.9503,8.87978,0.146066
-4.72261,18.6422,1.59182,-1.56172,43.9851,-1.53272,8.75385,3.70493,-2.22625,1.78453,4.63548,-4.648,-2.82962,2.34458,-4.08942,-5.15643,8.41807,-4.02097,32.0106,11.5143,7.62089,10.3258,5.94594,4.55955,1.39149e-15,-4.77083e-15,-34.3159,4.22697,-84.4486,35.9018,13.5562,-32.796,5.54601,7.12502,-6.01731,-24.3485,1.39149e-15,-4.77083e-15,-28.6355,14.2952,70.2761,30.4141,-3.22547,-20.2106,25.0373,7.12502,6.13653,54.9284,-10.4527,-0.0679282,16.7517,56.7805,-2.75416,-27.0668,5.52978,-13.4029,-2.37137,-20.8877,30.4425,-15.1074,8.64344,0.393627
-4.67423,18.6341,1.60434,-1.52297,44.434,-1.44322,8.79296,3.64381,-2.42584,1.95552,4.54684,-4.52499,-2.70367,2.30308,-3.83453,-5.24933,8.30266,-4.07943,31.9463,11.397,7.46652,10.3359,5.86688,4.50907,7.31528e-14,-6.36111e-15,-33.9722,4.25439,-84.3161,36.3941,13.4963,-32.8894,5.46634,7.12502,-6.10741,-24.4256,7.31528e-14,-6.36111e-15,-28.1007,14.0809,70.6154,30.4495,-3.17956,-20.2492,25.0828,7.12502,6.09928,54.975,-11.0901,0.250255,16.7784,57.3405,-3.37194,-24.5005,3.52372,-13.2903,-2.61281,-21.072,30.4977,-15.2064,8.40595,0.65244
-4.62749,18.6296,1.61937,-1.47104,44.8595,-1.39827,8.68785,3.58605,-2.75529,2.18618,4.4644,-4.27132,-2.45519,2.264,-3.35854,-5.37266,8.20132,-4.34007,31.7835,11.3195,7.32401,10.297,5.78563,4.49169,2.42517e-14,-7.95139e-15,-33.5189,4.41263,-84.0225,36.8613,13.5084,-32.997,5.59825,7.12502,-6.21129,-24.2907,2.42517e-14,-7.95139e-15,-27.5108,13.9632,71.1442,30.4062,-2.90821,-21.0706,25.3673,7.12502,5.30615,55.2809,-11.7837,0.668075,16.8705,57.7782,-4.22704,-22.1336,2.24934,-13.2542,-2.66897,-21.195,30.5796,-15.2963,8.00277,0.732994
-4.58052,18.6286,1.63728,-1.33258,45.2784,-1.32832,8.63261,3.47491,-2.99442,2.30717,4.30839,-4.14844,-2.33163,2.18687,-3.07163,-5.38693,8.16558,-4.44813,31.6096,11.2886,7.25475,10.2344,5.75236,4.47085,-7.91163e-14,-7.95139e-15,-33.1999,4.83333,-84.0808,37.2988,13.496,-33.6512,5.44503,7.12502,-6.84283,-24.4244,-7.91163e-14,-7.95139e-15,-27.0649,13.7427,71.4086,30.3703,-2.59119,-21.8511,25.7093,7.12502,4.55259,55.6404,-12.5218,1.09433,16.9465,58.1113,-5.45724,-19.9302,1.34493,-13.2847,-2.68631,-21.3285,30.7009,-15.4103,7.56037,0.949255
-4.53258,18.6227,1.647,-1.26271,45.716,-1.33719,8.72476,3.36567,-2.94848,2.36372,4.16615,-4.1388,-2.32555,2.11641,-3.0761,-5.28824,8.11952,-4.3851,31.446,11.2011,7.24044,10.1651,5.71986,4.43156,-9.62118e-14,1.74931e-14,-33.0273,5.14688,-84.2658,37.8211,13.2538,-34.0602,5.2739,7.12502,-7.23765,-24.5823,-9.62118e-14,1.74931e-14,-26.6356,13.6026,71.4389,30.2575,-2.81943,-21.9695,25.6274,7.12502,4.43822,55.5609,-13.2091,1.40262,17.0693,58.3326,-6.58366,-17.9556,-0.610464,-13.3019,-2.96608,-21.4321,30.8297,-15.5556,7.28609,1.59706
-4.48669,18.6135,1.65538,-1.27254,46.1525,-1.38387,8.88082,3.2959,-2.83261,2.44798,4.08114,-4.11022,-2.32097,2.07444,-3.10887,-5.32083,8.03325,-4.45146,31.393,11.0653,7.31262,10.1501,5.65928,4.45541,-3.97569e-16,-3.18055e-15,-32.8891,5.32257,-84.3121,38.4919,12.7602,-34.2307,5.10155,7.12502,-7.40222,-24.749,-3.97569e-16,-3.18055e-15,-26.1955,13.248,71.5206,30.1785,-2.93022,-22.0351,25.3936,7.12502,4.37487,55.3284,-13.8236,1.69663,17.2494,58.4289,-7.54029,-16.4345,-3.09393,-13.2773,-3.3299,-21.5064,30.9547,-15.7001,7.12091,1.77614
-4.44196,18.6078,1.67457,-1.24846,46.5122,-1.36413,8.96909,3.23962,-2.9053,2.54316,4.0024,-4.03432,-2.28374,2.0355,-2.98292,-5.40562,7.97744,-4.60759,31.4042,10.983,7.41898,10.1571,5.61617,4.51681,3.91606e-14,-3.33958e-14,-32.7603,5.58042,-84.3262,39.1925,12.2544,-34.4209,5.07476,7.12502,-7.5858,-24.7692,3.91606e-14,-3.33958e-14,-25.885,12.5253,71.7169,30.3033,-2.36014,-22.4942,25.6358,7.12502,3.9315,55.5792,-14.3814,2.2195,17.4531,58.3998,-8.47004,-15.3087,-4.72706,-13.2326,-3.40628,-21.6033,31.082,-15.8213,6.90709,1.14309
-4.39595,18.6037,1.69394,-1.25462,46.8997,-1.4205,9.04721,3.14473,-2.94076,2.61034,3.87444,-3.94926,-2.26912,1.97161,-2.86321,-5.44726,7.93288,-4.63668,31.4393,10.9105,7.47513,10.1767,5.58534,4.54068,2.98177e-15,-6.20208e-14,-32.6374,5.92031,-84.3963,39.7928,11.8151,-34.4076,5.357,7.12502,-7.57302,-24.4874,2.98177e-15,-6.20208e-14,-25.6314,11.9471,71.8519,30.4367,-1.99002,-22.6147,25.9647,7.12502,3.81517,55.9103,-14.9083,2.91123,17.7555,58.2451,-9.41035,-14.3879,-5.56817,-13.1905,-3.39867,-21.6299,31.1847,-16.0238,6.52672,1.06171
-4.35211,18.5978,1.71078,-1.19587,47.3467,-1.44735,9.13993,3.03675,-2.92733,2.65427,3.73052,-3.94185,-2.27811,1.9004,-2.85143,-5.45888,7.88336,-4.52051,31.4529,10.8086,7.52262,10.1948,5.55634,4.53312,-2.26615e-14,9.54166e-15,-32.5379,6.05926,-84.5057,40.4139,11.5598,-34.1874,5.4626,7.12502,-7.3605,-24.3894,-2.26615e-14,9.54166e-15,-25.206,11.9969,71.6856,30.2062,-2.80513,-21.9178,25.5964,7.12502,4.48814,55.5289,-15.481,3.54287,18.0169,58.0058,-10.3054,-13.6836,-5.76662,-13.1763,-3.5667,-21.6647,31.2456,-16.247,6.15701,1.84833
-4.31076,18.5897,1.73115,-1.00327,47.7103,-1.244,9.27307,2.96438,-3.0576,2.70398,3.61842,-4.001,-2.3067,1.84604,-2.83447,-5.38252,7.86582,-4.42963,31.3675,10.7424,7.59077,10.153,5.54507,4.52631,6.63941e-14,3.18055e-15,-32.474,6.07443,-84.6349,41.0779,11.509,-34.086,5.47854,7.12502,-7.26257,-24.3768,6.63941e-14,3.18055e-15,-24.6968,12.6944,71.2542,29.7196,-4.68341,-20.6652,24.7301,7.12502,5.69761,54.6335,-16.0166,4.14496,18.0926,57.713,-10.986,-13.3468,-5.61431,-13.1103,-3.7759,-21.8681,31.2994,-16.4294,5.99888,2.84941
-4.26865,18.5804,1.75387,-0.787664,48.0188,-0.969425,9.39021,2.9114,-3.3075,2.78552,3.52458,-3.98958,-2.30416,1.80028,-2.67691,-5.35545,7.82546,-4.42043,31.3288,10.6826,7.57755,10.1391,5.51723,4.51154,4.6118e-14,-3.97569e-14,-32.3969,6.37086,-84.7126,41.6825,11.4263,-34.2789,5.53351,7.12502,-7.44879,-24.3154,4.6118e-14,-3.97569e-14,-24.3275,12.7218,71.2187,29.5557,-4.95544,-20.9374,24.8591,7.12502,5.43478,54.7694,-16.4974,4.70058,18.0986,57.3676,-11.6721,-13.2843,-5.59312,-13.0064,-3.93017,-22.1286,31.365,-16.6386,5.84893,3.8962
-4.2252,18.5722,1.77418,-0.572517,48.4447,-0.796523,9.40288,2.82431,-3.52277,2.88415,3.39692,-3.88783,-2.22962,1.73632,-2.43372,-5.41726,7.75897,-4.4862,31.3592,10.6062,7.55351,10.1652,5.47105,4.51438,1.94809e-14,-4.6118e-14,-32.2793,6.76481,-84.6548,42.2684,11.2458,-34.4501,5.33296,7.12502,-7.61406,-24.51,1.94809e-14,-4.6118e-14,-24.0218,12.9217,71.1641,29.4165,-6.08887,-19.7562,24.08,7.12502,6.57515,53.958,-17.052,5.09728,18.1285,56.9508,-12.5036,-13.3099,-6.16602,-13.0034,-4.02068,-22.3117,31.4195,-16.7481,5.5192,4.34772
-4.183,18.5664,1.79223,-0.28618,48.9515,-0.655059,9.43672,2.71022,-3.58074,2.91334,3.24107,-3.8615,-2.22493,1.65888,-2.35721,-5.39979,7.70806,-4.55476,31.3308,10.5199,7.63248,10.1466,5.43369,4.5431,-2.76311e-14,1.43125e-14,-32.2122,6.94885,-84.6344,42.8734,11.0946,-34.7027,4.93684,7.12502,-7.85787,-24.8971,-2.76311e-14,1.43125e-14,-23.7097,12.777,71.106,29.3293,-6.53622,-19.0856,23.5815,7.12502,7.22253,53.4382,-17.6819,5.49119,18.1733,56.4419,-13.2491,-13.5243,-7.05797,-13.0996,-4.13416,-22.4555,31.4514,-16.793,5.12474,4.29907
-4.14101,18.5613,1.81416,0.0235586,49.393,-0.396119,9.57597,2.63058,-3.618,2.92024,3.12364,-3.95286,-2.29261,1.60224,-2.42558,-5.2419,7.68312,-4.46879,31.2193,10.4322,7.73839,10.078,5.41766,4.54173,-1.13307e-13,8.11041e-14,-32.2166,7.03653,-84.7527,43.4574,10.9295,-35.063,4.88722,7.12502,-8.2056,-24.9334,-1.13307e-13,8.11041e-14,-23.4362,12.2541,70.9749,29.3368,-6.40047,-18.8345,23.1887,7.12502,7.46489,53.037,-18.1819,6.12123,18.1688,55.8459,-14.0502,-14.0707,-7.2407,-13.07,-4.33298,-22.6727,31.4604,-16.931,4.81255,4.41944
-4.09702,18.5547,1.83872,0.337672,49.7669,-0.00201839,9.72124,2.5608,-3.79697,2.98979,3.01023,-4.02754,-2.30637,1.54763,-2.3959,-5.08646,7.70258,-4.38254,31.0724,10.4035,7.84972,9.99228,5.42884,4.54386,4.85035e-14,-2.8625e-14,-32.1656,7.21487,-84.8515,43.9733,10.8469,-35.0198,5.21042,7.12502,-8.16391,-24.6119,4.85035e-14,-2.8625e-14,-23.2228,11.6648,70.8952,29.4722,-6.10985,-18.9753,23.4483,7.12502,7.32896,53.3013,-18.5408,6.88564,18.0607,55.1787,-14.979,-14.8171,-7.05548,-12.9047,-4.36259,-22.9816,31.4439,-17.0553,4.44594,4.61926
-4.05353,18.5475,1.86127,0.705596,50.0933,0.343364,9.7575,2.48555,-3.99613,3.07114,2.89606,-4.02241,-2.25261,1.49115,-2.26532,-5.11817,7.70026,-4.55788,31.022,10.3695,8.04599,9.95571,5.41664,4.63474,-6.71892e-14,-4.6118e-14,-32.0647,7.3581,-84.8384,44.5035,10.916,-34.6223,5.39905,7.12502,-7.78027,-24.4378,-6.71892e-14,-4.6118e-14,-22.9955,11.4672,70.8305,29.5672,-6.30063,-19.9403,25.4641,7.12502,6.3974,55.3475,-19.0136,7.62506,17.9543,54.4665,-15.7453,-15.6467,-7.58806,-12.8505,-4.34186,-23.2428,31.4069,-17.1075,4.12769,4.55713
-4.01007,18.5426,1.88187,1.01503,50.4152,0.512856,9.74094,2.40688,-4.02744,3.13108,2.79504,-4.01601,-2.18373,1.44077,-2.22653,-5.16233,7.6509,-4.65292,31.0302,10.2902,8.13372,9.96019,5.37923,4.6778,9.14409e-15,-1.59028e-15,-31.9721,7.44113,-84.8534,45.0239,10.9478,-34.5085,5.43194,7.12502,-7.67037,-24.409,9.14409e-15,-1.59028e-15,-22.6925,11.5358,70.6753,29.4852,-7.02899,-21.6142,28.811,7.12502,4.78133,58.737,-19.558,8.47021,17.9491,53.7061,-16.4932,-16.6994,-8.04693,-12.8726,-4.46648,-23.3671,31.3611,-17.2166,3.86865,4.69326
-3.96604,18.5383,1.90329,1.33871,50.7818,0.730546,9.73996,2.30143,-4.06957,3.20298,2.65741,-4.02305,-2.11086,1.37236,-2.19201,-5.14023,7.6152,-4.6097,31.0016,10.2472,8.06634,9.95632,5.35585,4.6414,-1.19271e-14,5.24792e-14,-31.8425,7.73002,-84.9067,45.4423,10.8946,-34.4205,6.00661,7.12502,-7.58544,-23.8374,-1.19271e-14,5.24792e-14,-22.3532,11.955,70.4813,29.2685,-7.93051,-22.0086,28.9605,7.12502,4.40048,58.8948,-20.0209,9.2823,17.8931,52.8911,-17.2826,-17.8115,-6.70925,-12.8613,-4.54249,-23.5042,31.3434,-17.3703,3.39552,4.89007
-3.92238,18.5323,1.92333,1.80625,51.2231,1.1786,9.81182,2.17898,-4.19234,3.30032,2.48709,-4.03954,-2.05428,1.28806,-2.12135,-5.241,7.57094,-4.76536,31.0374,10.2019,8.10008,9.97988,5.32064,4.68346,1.66979e-14,-1.43125e-14,-31.7362,8.00097,-84.8716,45.8833,10.9153,-34.0199,6.9246,7.12502,-7.19874,-22.933,1.66979e-14,-1.43125e-14,-22.1225,12.0173,70.4473,29.305,-7.90466,-20.4696,24.4288,7.12502,5.88644,54.3271,-20.4178,9.89622,17.6609,52.0216,-17.96,-18.9017,-4.84378,-12.8351,-4.60552,-23.809,31.3576,-17.3934,2.91455,4.37843
-3.87851,18.5248,1.93981,2.2073,51.7004,1.51578,9.97496,2.04693,-4.10963,3.33085,2.31141,-4.09495,-2.10769,1.20262,-2.21099,-5.26683,7.51192,-4.80475,31.0915,10.1251,8.11101,10.0074,5.28173,4.69381,4.33351e-14,1.90833e-14,-31.7491,7.98638,-84.8425,46.3429,10.9668,-33.7036,7.33806,7.12502,-6.89345,-22.5297,4.33351e-14,1.90833e-14,-22.0774,11.1931,70.491,29.6606,-6.81804,-19.4489,23.903,7.12502,6.87186,53.7715,-20.8434,10.5427,17.4653,51.0808,-18.6022,-20.0449,-4.44013,-12.854,-4.65931,-24.047,31.3718,-17.323,2.48847,4.09513
-3.83624,18.5179,1.95892,2.45993,52.15,1.65816,10.148,1.91663,-3.96655,3.3407,2.14187,-4.12209,-2.18793,1.11995,-2.30603,-5.21502,7.47753,-4.61087,31.1303,10.0953,7.93552,10.0394,5.26854,4.60013,-7.15625e-14,3.81667e-14,-31.761,7.99059,-84.8555,46.7282,10.916,-33.6305,7.37068,7.12502,-6.82293,-22.4994,-7.15625e-14,3.81667e-14,-21.9741,10.4157,70.5475,29.9917,-5.79703,-19.6549,24.5632,7.12502,6.67299,54.4381,-21.2628,11.324,17.389,50.0883,-19.1543,-21.0203,-4.23194,-12.867,-4.556,-24.1254,31.3711,-17.2967,1.88634,4.43001
-3.79487,18.5132,1.98047,2.79825,52.6114,1.92317,10.2813,1.78023,-3.97395,3.40381,1.95734,-4.11523,-2.19776,1.029,-2.27608,-5.29225,7.45056,-4.57964,31.2401,10.0805,7.85932,10.104,5.25444,4.58043,-1.07344e-14,1.59028e-14,-31.7731,8.22531,-84.847,47.1573,10.9211,-33.8966,7.04494,7.12502,-7.07978,-22.8167,-1.07344e-14,1.59028e-14,-21.7362,9.97507,70.661,30.2287,-4.9032,-20.6096,26.4204,7.12502,5.7513,56.3223,-21.6403,12.1747,17.212,49.0624,-19.6472,-21.8093,-3.57616,-12.8662,-4.3149,-24.2704,31.3653,-17.3284,1.16646,4.59331
-3.75174,18.5097,1.99839,3.22863,53.0931,2.23578,10.3725,1.63183,-3.96324,3.45644,1.76092,-4.0864,-2.19554,0.931691,-2.23009,-5.35861,7.39958,-4.73973,31.3111,10.0196,7.92427,10.1331,5.21517,4.63323,-3.89618e-14,-9.54166e-15,-31.8283,8.55181,-84.7547,47.6467,10.8999,-34.297,6.77251,7.12502,-7.46626,-23.0757,-3.89618e-14,-9.54166e-15,-21.5671,9.73013,70.7351,30.3901,-4.32557,-21.3012,27.4376,7.12502,5.08356,57.3567,-22.0768,12.9683,16.9242,48.0138,-19.9249,-22.1833,-3.21858,-12.9396,-4.08945,-24.4546,31.3524,-17.3089,0.494391,4.52949
-3.70963,18.5045,2.01541,3.53995,53.5478,2.40025,10.4806,1.52152,-3.83869,3.52074,1.62638,-4.01809,-2.18816,0.864879,-2.21425,-5.3681,7.32135,-4.81131,31.2719,9.93803,7.8439,10.1279,5.16063,4.60908,-7.55382e-15,1.74931e-14,-31.7888,8.69615,-84.5466,48.0511,10.8081,-34.5606,6.9628,7.12502,-7.72064,-22.8762,-7.55382e-15,1.74931e-14,-21.3954,9.87537,70.6677,30.3373,-4.89459,-21.0683,26.3449,7.12502,5.30842,56.2584,-22.5426,13.6662,16.6893,46.9742,-19.9316,-21.933,-3.0737,-13.0039,-3.98625,-24.5453,31.3179,-17.1895,-0.0627656,4.64741
-3.66981,18.4986,2.03408,3.75351,54.0303,2.45588,10.6406,1.41458,-3.60694,3.58155,1.5038,-3.96043,-2.21016,0.804665,-2.27264,-5.35008,7.25189,-4.77061,31.1913,9.86453,7.70653,10.1123,5.11607,4.54329,2.50469e-14,-1.59028e-15,-31.7497,8.66922,-84.3882,48.3816,10.8242,-34.9836,6.63659,7.12502,-8.1289,-23.1871,2.50469e-14,-1.59028e-15,-21.073,11.1675,70.2163,29.7148,-7.39155,-19.1402,22.5193,7.12502,7.16977,52.3778,-23.0003,14.3172,16.5054,45.9518,-19.9188,-21.4281,-3.24717,-13.0475,-3.86621,-24.5578,31.2698,-17.0601,-0.608318,4.61484
-3.62987,18.4957,2.04937,4.09607,54.578,2.62074,10.7899,1.24985,-3.37526,3.63032,1.30499,-3.92743,-2.24,0.706856,-2.3468,-5.37877,7.19762,-4.78944,31.1566,9.80584,7.63927,10.1129,5.07896,4.51824,2.70347e-14,-1.27222e-14,-31.7415,8.6821,-84.32,48.6589,10.8662,-35.0562,6.37428,7.12502,-8.19905,-23.4466,2.70347e-14,-1.27222e-14,-20.8067,11.6026,70.1512,29.6207,-7.73949,-18.7512,22.4232,7.12502,7.54528,52.2686,-23.4442,14.9318,16.2165,44.9595,-20.0256,-20.7142,-3.78533,-13.1339,-3.67477,-24.6259,31.1924,-16.9052,-1.31807,4.95689
-3.58944,18.4967,2.06501,4.52069,55.1409,2.93802,10.9307,1.06509,-3.28875,3.72554,1.06998,-3.86848,-2.22142,0.59071,-2.30617,-5.44672,7.15208,-4.82475,31.1335,9.77452,7.52751,10.1256,5.04657,4.48548,1.47101e-14,2.8625e-14,-31.6853,8.82313,-84.2245,48.8904,10.8939,-35.2681,6.38043,7.12502,-8.40355,-23.4324,1.47101e-14,2.8625e-14,-20.686,11.5197,70.1973,29.7955,-7.40519,-18.9266,22.5225,7.12502,7.37601,52.374,-23.8296,15.5266,15.8382,44.0044,-20.2107,-19.8287,-4.14396,-13.1365,-3.5597,-24.7739,31.0714,-16.7846,-2.11849,6.26905
-3.54793,18.5004,2.08571,4.94199,55.6933,3.32152,11.0698,0.911166,-3.31772,3.84922,0.86703,-3.78016,-2.1736,0.490098,-2.17311,-5.44791,7.12545,-4.86084,31.0726,9.7602,7.43905,10.1085,5.02567,4.45555,-2.56432e-14,-4.13472e-14,-31.6327,8.97069,-84.0579,49.1271,10.8442,-36.7858,5.41748,7.12502,-9.86795,-24.3313,-2.56432e-14,-4.13472e-14,-20.5884,11.3011,70.2701,29.9769,-7.03284,-19.3741,22.7982,7.12502,6.94406,52.6643,-24.2125,16.0138,15.4377,43.081,-20.2056,-19.0234,-4.38745,-13.0176,-3.45147,-24.966,30.9162,-16.7522,-2.85244,7.05979
-3.5054,18.5043,2.10234,5.3599,56.1959,3.62148,11.1475,0.805926,-3.26414,3.9527,0.739537,-3.63226,-2.11153,0.425998,-2.03261,-5.50189,7.06214,-4.9842,31.1239,9.71064,7.37639,10.1391,4.98156,4.45702,2.50469e-14,1.90833e-14,-31.5726,9.08821,-83.7428,49.3039,10.5979,-36.6364,5.47579,7.12502,-9.72383,-24.2797,2.50469e-14,1.90833e-14,-20.4558,11.4892,70.4338,30.0249,-7.15191,-19.4855,22.8913,7.12502,6.83648,52.7609,-24.6578,16.3779,15.0729,42.1957,-20.0362,-18.242,-4.87002,-12.9744,-3.31114,-25.1332,30.7426,-16.6523,-3.41003,6.88874
-3.46403,18.5083,2.11764,5.69877,56.6441,3.82527,11.2871,0.716796,-3.13845,4.01915,0.635007,-3.47139,-2.12082,0.37364,-1.92368,-5.54637,6.97164,-5.01536,31.2115,9.63855,7.2119,10.196,4.92518,4.40871,-9.8796e-14,3.73715e-14,-31.5446,9.22254,-83.4305,49.4033,10.3639,-33.8088,6.92027,7.12502,-6.99499,-22.9442,-9.8796e-14,3.73715e-14,-20.3639,11.9061,70.5961,30.0163,-7.51941,-19.4272,22.8989,7.12502,6.89278,52.7667,-25.051,16.8064,14.7847,41.3541,-19.8872,-17.6118,-5.04454,-12.9517,-3.25903,-25.2318,30.5799,-16.558,-3.82001,7.20905
-3.42436,18.5117,2.13758,5.94882,57.0885,4.04296,11.5707,0.632282,-2.96014,4.08114,0.534755,-3.37664,-2.21191,0.325349,-1.91613,-5.4775,6.87972,-4.98513,31.1857,9.53698,7.07545,10.1919,4.86733,4.34357,-3.00165e-14,-2.62396e-14,-31.576,9.09702,-83.2218,49.4877,10.3655,-32.9628,7.04789,7.12502,-6.17831,-22.842,-3.00165e-14,-2.62396e-14,-20.2194,12.6059,70.6173,29.8516,-8.13378,-19.4733,22.8662,7.12502,6.84827,52.7355,-25.3181,17.3061,14.5302,40.5944,-19.8448,-17.1992,-5.0936,-12.821,-3.31494,-25.3136,30.4392,-16.5243,-4.20472,8.23302
-3.38544,18.5134,2.15562,6.09364,57.5904,4.16359,11.8673,0.555007,-2.62416,4.16745,0.464396,-3.27292,-2.28351,0.292552,-1.99136,-5.41968,6.77294,-5.0681,31.1551,9.39991,7.06115,10.1754,4.7956,4.33686,1.2921e-14,-3.33958e-14,-31.5879,8.7944,-82.9679,49.5,10.4161,-34.7823,6.05803,7.12502,-7.93463,-23.773,1.2921e-14,-3.33958e-14,-20.258,11.5167,70.9272,30.2236,-6.97712,-19.7014,23.1993,7.12502,6.62812,53.0755,-25.5446,17.5712,14.388,39.9487,-19.8009,-16.8476,-5.93342,-12.6767,-3.39063,-25.3455,30.3056,-16.4385,-4.58737,8.97405
-3.347,18.5149,2.17399,6.30577,58.1467,4.37623,12.1246,0.447643,-2.46208,4.28751,0.342167,-3.10616,-2.30078,0.232894,-1.89429,-5.40245,6.69796,-5.20428,31.1237,9.31146,7.06239,10.159,4.74131,4.35,-2.48481e-14,3.57812e-14,-31.5145,8.7748,-82.6622,49.4289,10.3336,-35.6787,5.46349,7.12502,-8.79979,-24.3331,-2.48481e-14,3.57812e-14,-20.2317,11.2695,71.2325,30.4185,-6.48061,-19.863,23.1925,7.12502,6.47206,53.0736,-25.7465,17.6151,14.2733,39.4176,-19.699,-16.6206,-6.80626,-12.5276,-3.36621,-25.4213,30.1815,-16.3014,-5.08273,9.77767
-3.30995,18.5164,2.19652,6.61727,58.6747,4.68421,12.3023,0.31487,-2.5984,4.44031,0.160585,-2.83908,-2.24151,0.141264,-1.51429,-5.45045,6.67148,-5.42143,31.0849,9.30948,7.03886,10.1437,4.71346,4.37707,-5.50634e-14,1.82882e-14,-31.2951,9.07455,-82.2729,49.3092,10.2363,-35.125,5.37179,7.12502,-8.26539,-24.4465,-5.50634e-14,1.82882e-14,-20.2489,11.6806,71.4602,30.5107,-6.59163,-19.6656,22.8325,7.12502,6.66261,52.7077,-25.9736,17.7212,14.1279,39.0001,-19.7773,-16.4794,-6.71444,-12.4314,-3.19294,-25.5316,30.0839,-16.1165,-5.65901,10.5874
-3.27256,18.5168,2.22021,6.76974,59.1492,4.70145,12.3973,0.20368,-2.54214,4.54732,0.0299044,-2.55039,-2.1829,0.0745159,-1.22676,-5.4783,6.63241,-5.53309,31.0822,9.29063,6.96141,10.149,4.68329,4.36844,-4.7112e-14,2.38542e-14,-31.1053,9.27046,-81.8676,49.1338,10.1023,-34.6983,5.46552,7.12502,-7.85357,-24.3686,-4.7112e-14,2.38542e-14,-20.2804,11.9256,71.7143,30.6264,-6.62535,-19.6017,23.1436,7.12502,6.72432,53.0168,-26.2959,17.734,14.1712,38.6838,-19.7533,-16.5005,-6.80334,-12.458,-2.90515,-25.4631,30.0056,-15.9824,-6.20221,10.5984
-3.23113,18.5171,2.24069,6.99439,59.5896,4.7529,12.4832,0.121961,-2.26135,4.58666,-0.0424155,-2.39985,-2.18971,0.0393212,-1.21814,-5.37816,6.53403,-5.41343,31.0508,9.16118,6.83398,10.1427,4.62403,4.28786,3.77691e-14,-2.62396e-14,-31.1016,9.19814,-81.5943,48.9663,9.96418,-35.0639,5.35658,7.12502,-8.20647,-24.464,3.77691e-14,-2.62396e-14,-20.4013,11.4545,71.9837,30.9359,-5.99536,-20.0423,24.1289,7.12502,6.29895,54.0152,-26.6478,17.4571,14.2504,38.4577,-19.4763,-16.682,-7.12055,-12.5127,-2.63317,-25.4329,29.9366,-15.957,-6.65611,10.1211
-3.18648,18.5173,2.26173,7.44895,59.9842,5.09112,12.5085,0.0602209,-2.08806,4.65476,-0.0980271,-2.33278,-2.13324,0.0128529,-1.23791,-5.26155,6.41449,-5.25105,30.9852,8.97367,6.77378,10.1215,4.55079,4.21617,5.48646e-14,-7.55382e-15,-31.0668,9.03605,-81.3736,48.7595,10.0092,-35.2917,4.99118,7.12502,-8.42627,-24.8207,5.48646e-14,-7.55382e-15,-20.5478,10.7686,72.1899,31.2696,-5.37778,-20.0776,24.34,7.12502,6.2649,54.2274,-26.9599,17.1154,14.1974,38.3211,-19.258,-16.7667,-6.51891,-12.5115,-2.56489,-25.5863,29.8705,-15.9632,-6.97565,10.0284
-3.14166,18.5179,2.29192,7.82404,60.3114,5.37507,12.4701,0.0360023,-2.06369,4.75098,-0.11626,-2.18686,-2.01205,0.00299613,-1.09661,-5.18584,6.3011,-5.18824,30.9581,8.79523,6.78224,10.1118,4.478,4.18991,-3.55825e-14,1.98785e-14,-30.9525,8.91405,-81.0716,48.4536,10.1052,-35.1695,4.85551,7.12502,-8.30836,-24.9611,-3.55825e-14,1.98785e-14,-20.6758,10.3345,72.3894,31.463,-5.18429,-19.9295,23.937,7.12502,6.40785,53.82,-27.2232,16.9339,14.2084,38.2793,-18.9606,-16.9696,-5.37915,-12.4258,-2.55576,-25.6845,29.7861,-15.9667,-7.32404,10.3513
-3.09656,18.5191,2.32627,8.19731,60.6154,5.68817,12.4604,0.0259633,-2.16407,4.81844,-0.13142,-1.96163,-1.93552,-0.00733878,-0.803345,-5.1139,6.18834,-5.24955,30.9737,8.65093,6.75244,10.1128,4.40307,4.1763,3.94588e-14,3.18055e-15,-30.8728,8.91423,-80.6964,48.0985,10.1935,-35.1675,5.35766,7.12502,-8.30645,-24.459,3.94588e-14,3.18055e-15,-20.8786,10.2572,72.6349,31.5701,-5.31333,-19.866,23.5219,7.12502,6.46918,53.4031,-27.4416,16.8215,14.2475,38.3358,-18.5843,-17.4148,-3.61575,-12.3022,-2.24132,-25.7723,29.6828,-15.8884,-7.87512,10.4668
-3.0505,18.5186,2.35666,8.65858,60.9587,6.0833,12.4709,0.00684215,-2.22177,4.84807,-0.157245,-1.77444,-1.90949,-0.022316,-0.572541,-5.04042,6.04077,-5.28534,31.0402,8.45006,6.7502,10.1361,4.30816,4.16712,-1.20265e-14,5.76476e-15,-30.8805,8.86052,-80.3731,47.7326,10.4306,-35.1974,5.64341,7.12502,-8.33526,-24.1721,-1.20265e-14,5.76476e-15,-21.1704,9.99666,72.8619,31.7715,-5.33956,-19.6851,23.2682,7.12502,6.64383,53.144,-27.6558,16.5645,14.2688,38.4616,-18.2159,-17.9045,-1.7043,-12.2331,-1.8963,-25.9066,29.6038,-15.8014,-8.36397,10.4348
-3.00371,18.5155,2.38574,9.06734,61.2897,6.42173,12.4757,-0.0105676,-2.16015,4.87551,-0.168216,-1.64269,-1.8834,-0.0283638,-0.468669,-5.00763,5.88914,-5.31246,31.1738,8.208,6.89428,10.1864,4.21136,4.21075,7.47927e-14,-7.95139e-16,-30.9038,8.76783,-80.147,47.3205,10.7378,-35.188,5.12136,7.12502,-8.32622,-24.6945,7.47927e-14,-7.95139e-16,-22.222,6.57959,73.3703,33.518,-2.36396,-19.9623,24.1796,7.12502,6.3762,54.0637,-27.8299,16.1928,14.3593,38.6212,-17.7073,-18.381,0.205479,-12.1655,-1.84933,-26.027,29.5812,-15.8142,-8.58135,10.6938
-2.95559,18.5105,2.42293,9.05691,61.5524,6.39437,12.5051,-0.013498,-1.9731,4.94754,-0.143226,-1.47694,-1.82499,-0.0155852,-0.405048,-5.024,5.76904,-5.26042,31.3081,8.02796,6.93526,10.2529,4.13953,4.21246,-4.30866e-14,1.80894e-14,-30.8496,8.67797,-79.943,46.845,11.0135,-35.1148,5.07159,7.12502,-8.25554,-24.7471,-4.30866e-14,1.80894e-14,-22.3936,6.21335,73.562,33.6209,-2.28543,-20.0824,23.9342,7.12502,6.26024,53.8217,-27.834,15.8017,14.7558,38.8211,-17.1283,-19.0095,2.89292,-11.9922,-1.78449,-25.9485,29.5951,-15.8779,-8.83871,11.1026
-2.90779,18.5063,2.46664,8.51248,61.8402,5.85108,12.5885,-0.00260672,-1.56314,5.02767,-0.0738638,-1.25458,-1.7884,0.0212201,-0.414389,-5.04072,5.60737,-5.1559,31.4208,7.79797,6.91194,10.3215,4.0441,4.17763,4.01794e-14,1.14301e-15,-30.8414,8.38741,-79.7206,46.3838,11.2651,-35.2073,5.43606,7.12502,-8.34481,-24.3791,4.01794e-14,1.14301e-15,-21.767,8.48787,73.41,32.173,-4.91357,-19.9474,22.8226,7.12502,6.39062,52.7062,-27.6891,15.5466,15.482,39.0669,-16.6191,-20.1059,5.15068,-11.7625,-1.61857,-25.587,29.6165,-16.0095,-9.17797,10.9776
-2.85927,18.5013,2.50243,8.51357,62.1658,5.85799,12.6554,-0.00781459,-1.31931,5.06202,-0.0477859,-1.10629,-1.78954,0.0357863,-0.401317,-5.09634,5.44697,-5.29499,31.6159,7.54283,7.14724,10.4042,3.93976,4.27966,-2.76016e-14,-8.42039e-15,-30.8891,8.06388,-79.4945,45.9314,11.5085,-35.3912,5.11541,7.12502,-8.52236,-24.6926,-2.76016e-14,-8.42039e-15,-22.0357,8.21593,73.4751,32.3433,-5.46957,-20.7491,25.0143,7.12502,5.61664,54.9199,-27.5719,15.2763,15.8535,39.3459,-16.3124,-21.3241,6.10633,-11.5966,-1.38739,-25.5324,29.6284,-16.0837,-9.53702,10.6651
-2.807,18.4932,2.53111,9.32617,62.4389,6.68962,12.6066,-0.0155913,-1.42825,5.08771,-0.0659979,-1.02921,-1.73586,0.0251352,-0.257212,-5.24077,5.35086,-5.51575,31.9308,7.38857,7.4279,10.5375,3.8766,4.4321,-2.84511e-14,6.16232e-15,-30.8712,7.93724,-79.2233,45.4176,11.6367,-35.3284,4.77779,7.12502,-8.46174,-25.0327,-2.84511e-14,6.16232e-15,-22.3247,8.29524,73.5202,32.4178,-6.53795,-21.3915,26.7859,7.12502,4.99635,56.707,-27.5172,14.7781,15.7376,39.626,-16.3429,-21.9739,6.70628,-11.4889,-1.13023,-25.9156,29.6119,-16.0095,-9.93639,11.2037
-2.7521,18.4863,2.56274,10.0091,62.7179,7.38706,12.5163,-0.0314404,-1.51667,5.13244,-0.0893479,-0.882959,-1.63966,0.0110752,-0.0521248,-4.97223,5.06692,-5.3186,31.7123,7.05341,6.99359,10.4611,3.69976,4.19201,8.19987e-15,-1.47101e-14,-30.8137,7.9408,-78.8886,44.8508,11.7529,-35.2616,5.04707,7.12502,-8.39724,-24.766,8.19987e-15,-1.47101e-14,-22.6548,8.20924,73.7285,32.5637,-6.93381,-20.6775,23.1699,7.12502,5.68577,53.0736,-27.4078,14.376,15.6467,39.8771,-16.7308,-22.1229,7.50982,-11.3301,-1.09423,-26.2105,29.5523,-15.877,-10.2636,12.5944
-2.69597,18.4816,2.59686,10.4684,63.0228,7.84747,12.4855,-0.0672623,-1.43494,5.15043,-0.12181,-0.729683,-1.60397,-0.00567544,0.0654698,-4.93302,4.93031,-5.40668,31.7558,6.89256,6.93485,10.4819,3.61169,4.17465,1.2921e-14,5.96354e-16,-30.813,7.82064,-78.5742,44.3236,11.9736,-35.3453,5.26556,7.12502,-8.478,-24.5443,1.2921e-14,5.96354e-16,-23.0289,7.73981,74.0082,32.8299,-6.51582,-20.3246,22.8712,7.12502,6.02645,52.7654,-27.2464,14.1444,15.6499,40.0779,-17.1938,-22.3431,7.448,-11.1248,-1.12319,-26.3638,29.4738,-15.7214,-10.5912,13.7629
-2.63963,18.4779,2.63232,11.1054,63.296,8.51683,12.4582,-0.100336,-1.39902,5.15734,-0.158204,-0.654957,-1.58159,-0.023991,0.127749,-4.94777,4.88395,-5.56836,31.8829,6.8252,7.0696,10.5244,3.57965,4.25364,1.66979e-14,-7.95139e-15,-30.8377,7.55552,-78.3417,43.8374,12.0836,-35.3131,5.24271,7.12502,-8.44696,-24.5684,1.66979e-14,-7.95139e-15,-23.4368,7.2923,74.1175,33.0712,-6.30868,-20.4239,22.9131,7.12502,5.93055,52.8101,-27.056,13.8761,15.5427,40.2275,-17.4303,-22.7993,6.48069,-10.9133,-0.949356,-26.6046,29.4229,-15.5557,-10.9831,13.9593
-2.58395,18.4746,2.66415,12.148,63.5741,9.5624,12.3421,-0.136928,-1.48193,5.15797,-0.212984,-0.634497,-1.51693,-0.0527387,0.202889,-4.90984,4.79442,-5.55718,31.954,6.70604,7.05411,10.5547,3.52673,4.23993,-1.51076e-14,2.78299e-15,-30.8639,7.2771,-78.1353,43.3403,12.201,-35.1282,5.20545,7.12502,-8.26847,-24.6127,-1.51076e-14,2.78299e-15,-23.8339,7.02674,74.1857,33.2504,-6.42523,-20.3989,22.5863,7.12502,5.95466,52.4826,-26.9322,13.5135,15.1677,40.3606,-17.8291,-23.0152,6.39448,-10.8069,-0.777304,-27.0213,29.42,-15.388,-11.3728,13.5394
-2.52929,18.4677,2.68177,13.4105,63.8326,10.6215,12.1302,-0.100029,-1.22244,5.04546,-0.141385,-0.794389,-1.52247,-0.0141316,-0.118701,-4.796,4.56887,-5.30097,32.0196,6.33055,7.134,10.5915,3.39813,4.19484,1.78906e-14,3.18055e-15,-31.0653,6.62798,-78.0092,42.8596,12.2026,-34.9663,5.29143,7.12502,-8.11226,-24.5329,1.78906e-14,3.18055e-15,-24.0812,6.64562,74.1682,33.2465,-6.7076,-20.2355,22.3056,7.12502,6.11245,52.1974,-27.0878,13.0209,14.643,40.4981,-18.3664,-22.7605,6.59834,-11.0022,-0.81778,-27.4865,29.4755,-15.1881,-11.6507,13.2158
-2.47631,18.4576,2.6946,14.4475,64.0342,11.413,11.9706,0.0197828,-0.636784,4.88014,0.0681715,-1.10532,-1.60964,0.0972392,-0.798477,-4.49527,4.26204,-4.6946,31.9744,5.77449,7.23648,10.5733,3.23228,4.06877,-4.8901e-14,1.66979e-14,-31.404,5.59823,-78.0221,42.3836,12.1131,-34.9562,5.56126,7.12502,-8.10246,-24.2634,-4.8901e-14,1.66979e-14,-24.1579,6.25725,73.9368,32.9614,-7.21409,-20.2975,22.0971,7.12502,6.05257,51.9907,-27.2891,12.5238,14.2125,40.6511,-18.7036,-22.3712,6.09488,-11.273,-0.875082,-27.8438,29.5904,-14.9802,-11.8592,13.0901
-2.42353,18.4473,2.7193,15.2927,64.1189,12.2205,11.947,0.0937906,-0.425041,4.825,0.184375,-1.22548,-1.65227,0.157636,-1.05778,-4.23184,4.05752,-4.36386,31.8172,5.44405,7.17598,10.4996,3.11597,3.94426,-6.16232e-15,1.86858e-14,-31.5528,4.88465,-77.8981,41.9007,12.357,-34.9544,5.44885,7.12502,-8.10073,-24.3759,-6.16232e-15,1.86858e-14,-25.2487,3.68299,74.1741,34.574,-5.05885,-20.6187,23.1444,7.12502,5.74253,53.0466,-27.2096,12.3292,13.8052,40.8303,-19.1811,-22.0247,5.91578,-11.2733,-0.819086,-28.1909,29.7267,-14.8403,-12.0545,12.7325
-2.37112,18.4347,2.73951,16.5537,63.9218,13.5006,11.9819,0.158049,-0.59274,4.78248,0.24701,-1.30356,-1.7146,0.18755,-1.05301,-4.17899,3.96717,-4.47013,31.7734,5.31435,7.22913,10.4757,3.05206,3.96678,-6.48038e-14,2.14687e-14,-31.5161,4.55263,-77.6785,41.368,12.6688,-34.9656,5.14203,7.12502,-8.1116,-24.6823,-6.48038e-14,2.14687e-14,-25.4107,4.87007,73.9888,34.0483,-6.12554,-20.7335,22.8903,7.12502,5.63163,52.7955,-27.1577,12.23,13.0643,40.9809,-19.6414,-21.4963,6.34822,-11.2804,-0.680175,-28.8478,29.9108,-14.5403,-12.2163,12.9952
-2.31857,18.4247,2.75609,18.1983,63.7965,15.1454,11.9745,0.183239,-0.810502,4.73714,0.251717,-1.44277,-1.75762,0.189011,-1.07569,-4.23812,3.89631,-4.59558,31.8432,5.21802,7.30186,10.5135,3.0038,4.01339,-3.57812e-15,-1.23246e-14,-31.4688,4.38257,-77.5114,40.8328,12.6629,-35.1486,5.44011,7.12502,-8.28821,-24.3773,-3.57812e-15,-1.23246e-14,-25.6862,5.54551,73.9042,33.7969,-6.64466,-20.8775,22.8651,7.12502,5.49265,52.7739,-27.1181,11.8047,12.1806,41.0173,-19.9381,-20.9533,6.74349,-11.4889,-0.4257,-29.6307,30.3235,-13.9421,-12.7094,14.2578
-2.26301,18.4283,2.81082,18.4963,64.4327,15.485,11.836,0.0333837,-0.78312,4.84628,0.0711272,-1.13092,-1.57183,0.0975955,-0.742529,-4.27274,3.82851,-4.74312,31.8248,5.1922,7.12567,10.5182,2.9563,3.97387,-1.63003e-14,2.06736e-14,-31.3406,4.44255,-77.2124,40.3253,12.4563,-35.2264,5.62507,7.12502,-8.3633,-24.1894,-1.63003e-14,2.06736e-14,-25.8997,6.70747,73.8979,33.3922,-7.41139,-21.2481,22.9928,7.12502,5.13477,52.9105,-26.535,11.5666,12.3699,40.8868,-20.534,-21.1246,6.99722,-11.5703,-0.187842,-29.3813,30.9919,-13.3318,-13.6868,15.0064
-2.21762,18.4303,2.86201,16.0801,64.7238,13.0231,11.9663,0.0223843,0.107859,4.98823,0.172107,-0.514001,-1.49458,0.153092,-0.61767,-4.26857,3.77161,-4.90446,31.7498,5.19168,6.90147,10.4938,2.91257,3.91674,-3.12092e-14,-1.82882e-14,-31.0641,4.37163,-76.8281,39.7641,12.4435,-35.2036,5.1835,7.12502,-8.34126,-24.6318,-3.12092e-14,-1.82882e-14,-26.2488,7.50042,73.8723,33.1534,-7.70287,-21.746,23.8319,7.12502,4.65407,53.7608,-25.9433,11.8421,13.7664,40.6238,-20.6544,-21.3029,6.58384,-11.7229,0.361352,-28.0337,31.9162,-13.096,-14.1877,14.3151
-2.17257,18.4349,2.91419,13.8714,64.8979,10.7808,12.0772,0.00972971,0.915305,5.12516,0.26225,-0.00437558,-1.41005,0.205385,-0.555675,-4.25088,3.7452,-5.06117,31.6986,5.19617,6.81595,10.4694,2.88724,3.90991,2.3059e-14,-5.56597e-15,-30.7852,4.08755,-76.5294,39.2239,12.5367,-35.3627,4.62633,7.12502,-8.49479,-25.1828,2.3059e-14,-5.56597e-15,-26.7745,7.22802,74.0056,33.288,-6.45719,-22.6873,24.9864,7.12502,3.74504,54.9333,-25.3461,12.1276,15.0564,40.3025,-20.6038,-21.6138,6.05366,-11.9692,1.01117,-26.786,33.0445,-12.798,-14.7915,13.6458
-2.12647,18.4388,2.95055,13.1772,64.9355,10.0457,12.1187,-0.0091553,1.28488,5.22154,0.288664,0.258979,-1.33109,0.223222,-0.493913,-4.24887,3.72943,-5.03045,31.6391,5.22232,6.60324,10.455,2.87837,3.82705,3.26007e-14,3.97569e-15,-30.5142,4.05055,-76.3848,38.6535,12.811,-35.4521,4.32965,7.12502,-8.58109,-25.476,3.26007e-14,3.97569e-15,-27.1271,7.25893,74.2114,33.1899,-5.07256,-21.9425,23.479,7.12502,4.46427,53.4119,-24.9607,12.0759,15.5332,40.0364,-20.5993,-21.6254,6.12255,-12.4705,1.68392,-26.3254,34.3183,-12.2743,-15.4624,13.4103
-2.08321,18.441,2.97944,13.014,65.0421,9.78153,12.1072,-0.0599446,1.56288,5.29667,0.259205,0.442855,-1.24651,0.212801,-0.455566,-4.29676,3.70477,-4.88599,31.6061,5.22547,6.37411,10.4662,2.86966,3.72023,1.82882e-14,-2.62396e-14,-30.2426,4.17631,-76.3273,38.0872,13.3523,-35.3952,4.37615,7.12502,-8.52618,-25.4317,1.82882e-14,-2.62396e-14,-27.2897,8.05619,74.2092,32.7338,-4.82555,-21.8766,23.2915,7.12502,4.5279,53.2231,-24.7323,11.8778,15.7475,39.8845,-20.7884,-21.4984,6.06048,-13.1375,2.40043,-26.1152,35.6395,-11.5749,-16.0778,12.3796
-2.04714,18.4419,3.0092,12.9259,65.1894,9.54935,12.2028,-0.098117,1.83456,5.27131,0.246321,0.611174,-1.32416,0.20799,-0.432671,-4.25129,3.65722,-4.89731,31.5663,5.16509,6.33968,10.4474,2.83753,3.70118,4.8901e-14,-1.19271e-14,-30.1,4.2375,-76.2242,37.6436,13.5138,-35.4464,4.31084,7.12502,-8.57554,-25.495,4.8901e-14,-1.19271e-14,-27.5492,8.71067,74.1092,32.2855,-4.78475,-22.359,24.2934,7.12502,4.06211,54.2345,-24.6175,11.8858,15.9339,39.8227,-21.0057,-21.5537,5.44563,-13.9446,3.19638,-25.8867,37.0576,-10.7382,-16.5944,10.8635
-2.01698,18.4402,3.03635,12.9308,65.3114,9.30948,12.2965,-0.12594,2.08537,5.19268,0.24466,0.778775,-1.45623,0.206708,-0.400248,-4.12595,3.55572,-4.9393,31.4142,5.04269,6.23953,10.3765,2.76634,3.65009,7.95139e-15,3.97569e-15,-29.9037,4.23797,-76.0547,37.1912,13.4036,-35.2747,4.14702,7.12502,-8.40984,-25.6655,7.95139e-15,3.97569e-15,-27.9462,9.76221,73.9907,32.0581,-5.0212,-23.0489,25.8812,7.12502,3.39586,55.8339,-24.6841,12.0238,16.0747,39.7785,-21.125,-21.6989,5.66527,-15.0132,4.00943,-25.6575,38.643,-9.72215,-17.0787,10.0618
-1.98662,18.4376,3.06238,13.062,65.435,9.22437,12.3206,-0.164128,2.28064,5.19247,0.222005,0.914288,-1.46943,0.197017,-0.366518,-4.11017,3.46098,-4.91097,31.2945,4.91961,6.14845,10.3408,2.70247,3.59573,8.74653e-15,-1.43125e-14,-29.5753,4.19746,-75.8922,36.8017,13.2496,-34.7223,4.34153,7.12502,-7.87676,-25.4917,8.74653e-15,-1.43125e-14,-28.5472,11.9659,73.6891,32.2166,-6.35063,-22.7827,26.3778,7.12502,3.65296,56.3262,-24.7321,12.0255,16.1469,39.722,-21.227,-21.7396,6.38262,-16.1236,4.75137,-25.4732,40.3908,-8.41378,-17.6183,10.5237
-1.95721,18.4338,3.09322,13.1381,65.5675,9.2164,12.4212,-0.203975,2.34235,5.24749,0.186745,1.05968,-1.4674,0.181061,-0.245674,-4.19117,3.40259,-4.93771,31.2853,4.83011,6.18039,10.3568,2.66102,3.60654,2.50469e-14,1.35174e-14,-29.2605,4.34353,-75.7839,36.5647,12.8709,-34.2918,4.42676,7.12502,-7.46124,-25.4217,2.50469e-14,1.35174e-14,-28.8451,12.5472,73.6313,31.8556,-6.25395,-22.1477,24.83,7.12502,4.26613,54.767,-24.6048,11.9769,16.2418,39.636,-21.3945,-21.8595,5.97694,-17.1701,5.48135,-25.2847,42.277,-6.90709,-17.9984,11.0568
-1.92804,18.4317,3.12774,13.0484,65.7235,9.04929,12.5093,-0.236085,2.36515,5.3142,0.159085,1.26185,-1.44647,0.168439,-0.0447982,-4.30932,3.32933,-5.08046,31.2797,4.72453,6.26021,10.3774,2.60444,3.65459,2.38542e-15,1.59028e-15,-28.9613,4.5345,-75.618,36.4607,12.1347,-33.2902,3.99331,7.12502,-6.49437,-25.8871,2.38542e-15,1.59028e-15,-29.1907,12.6689,73.6248,31.6365,-5.82785,-22.4529,24.5847,7.12502,3.97145,54.5275,-24.4455,11.9085,16.446,39.5606,-21.625,-22.1021,4.95394,-18.2461,6.25937,-25.0038,44.2046,-5.43155,-18.0538,10.3831
-1.89809,18.4345,3.16413,12.8446,65.8862,8.81557,12.641,-0.261475,2.46791,5.394,0.150588,1.42196,-1.43431,0.167145,0.0649585,-4.39867,3.26293,-5.10487,31.2439,4.61719,6.31328,10.3856,2.55757,3.66992,-6.48038e-14,4.53229e-14,-28.7472,4.45734,-75.4703,36.4755,11.5683,-34.077,3.48772,7.12502,-7.25394,-26.3679,-6.48038e-14,4.53229e-14,-29.5065,12.7055,73.5718,31.4345,-5.51451,-23.3835,26.0588,7.12502,3.07275,56.0164,-24.2406,11.8223,16.7104,39.5322,-21.8873,-22.2627,4.76447,-19.2656,6.97809,-24.6277,46.1763,-3.81748,-17.92,9.99799
-1.87173,18.4273,3.19518,12.8486,66.0626,8.80167,12.8255,-0.322576,2.55769,5.45608,0.0941787,1.51751,-1.46967,0.141787,0.121596,-4.39375,3.21254,-4.99872,31.1575,4.53622,6.26369,10.362,2.5259,3.62228,-3.45885e-14,1.82882e-14,-28.5875,4.5364,-75.5028,36.4336,11.6745,-33.91,3.31181,7.12502,-7.09268,-26.5494,-3.45885e-14,1.82882e-14,-29.857,12.7285,73.4294,31.2757,-5.30661,-22.6768,25.0503,7.12502,3.75523,54.9969,-24.1196,11.6476,16.8649,39.5736,-22.1257,-22.2425,5.15738,-20.5013,7.97951,-24.5299,48.0608,-2.30971,-17.5879,7.1338
-1.84816,18.4131,3.2224,12.843,66.2036,8.73882,12.9845,-0.384101,2.56051,5.5179,0.0282337,1.67376,-1.49176,0.110115,0.291946,-4.3488,3.16919,-4.95274,31.0104,4.477,6.18415,10.3058,2.49353,3.5718,1.98785e-15,4.29375e-14,-28.3493,4.93607,-75.472,36.456,11.3109,-33.0172,3.67703,7.12502,-6.23085,-26.2113,1.98785e-15,4.29375e-14,-30.2345,12.6844,73.3685,31.122,-5.2395,-23.0706,26.0486,7.12502,3.37495,56.0017,-24.1003,11.5148,16.9895,39.6722,-22.4631,-22.0736,5.63884,-21.786,8.86412,-24.3986,49.8996,-0.507045,-17.1982,5.10222
-1.82204,18.4062,3.25049,12.7117,66.2451,8.57326,13.1719,-0.391395,2.61437,5.57503,0.0393008,1.78159,-1.53256,0.117447,0.372723,-4.28455,3.11009,-4.89291,30.8693,4.36573,6.2112,10.2478,2.45109,3.55259,-3.45885e-14,-3.18055e-14,-28.1584,5.22813,-75.3546,36.7214,10.1902,-31.5034,4.20762,7.12502,-4.76924,-25.7187,-3.45885e-14,-3.18055e-14,-30.5832,12.4575,73.3196,30.9636,-5.35843,-22.8624,26.3806,7.12502,3.57597,56.3304,-24.0313,11.3591,17.1479,39.765,-22.7285,-21.8547,5.69059,-22.9362,9.75141,-24.2015,51.6084,1.50714,-17.1083,4.12941
-1.79462,18.4001,3.27234,12.5909,66.2454,8.42775,13.3775,-0.406381,2.75269,5.62638,0.0505696,1.85411,-1.58879,0.126071,0.369289,-4.21351,3.03948,-4.9043,30.7754,4.24171,6.2762,10.2041,2.39937,3.56045,-2.54444e-14,-2.06736e-14,-27.9866,5.49017,-75.2632,37.0259,9.42091,-30.7566,4.11887,7.12502,-4.04809,-25.8224,-2.54444e-14,-2.06736e-14,-30.875,12.3081,73.254,30.8002,-5.3225,-22.2657,26.1542,7.12502,4.15221,56.0935,-23.9249,11.0712,17.2971,39.7597,-22.6663,-21.7214,5.17482,-24.0507,10.5524,-24.016,53.2563,3.5893,-17.119,4.09998
-1.7674,18.3975,3.29308,12.1715,66.2656,8.00277,13.5663,-0.462222,2.83806,5.74677,0.0083051,2.0791,-1.5643,0.108851,0.56245,-4.20412,3.00074,-5.03311,30.6698,4.20901,6.22557,10.1635,2.36256,3.55626,1.15295e-14,-4.77083e-15,-27.6774,5.85414,-75.1131,37.324,9.03359,-31.4816,3.34665,7.12502,-4.74814,-26.5801,1.15295e-14,-4.77083e-15,-31.087,12.3013,73.3191,30.5386,-5.31112,-21.0533,24.2377,7.12502,5.32284,54.1509,-23.7184,10.9315,17.5661,39.6392,-22.5846,-21.6985,4.83698,-25.1274,11.1996,-23.6746,54.8795,5.69059,-16.9139,4.20737
-1.73758,18.4084,3.31659,11.6393,66.2855,7.45654,13.7285,-0.499996,3.01325,5.88919,-0.00154768,2.25354,-1.5015,0.110247,0.647903,-4.26167,2.96566,-5.09017,30.6076,4.15908,6.23578,10.1528,2.33253,3.56411,7.15625e-15,-2.06736e-14,-27.397,5.974,-75.0471,37.6773,8.61965,-32.8595,2.38041,7.12502,-6.07861,-27.5124,7.15625e-15,-2.06736e-14,-31.2118,12.1318,73.408,30.2403,-5.88974,-21.202,24.8607,7.12502,5.17936,54.7774,-23.4427,10.8261,17.8778,39.4454,-22.5537,-21.6074,4.61589,-26.1955,11.7052,-23.2646,56.4537,7.71187,-16.515,3.69206
-1.70963,18.4139,3.33457,11.2827,66.2319,7.03404,13.9141,-0.523453,3.29288,5.98065,0.0167701,2.29623,-1.50377,0.12641,0.533212,-4.33165,2.94488,-5.12559,30.6202,4.09488,6.38225,10.1691,2.3138,3.61963,-3.22031e-14,-7.95139e-15,-27.2183,6.20512,-75.1517,37.9664,8.66029,-33.434,2.25969,7.12502,-6.63317,-27.6164,-3.22031e-14,-7.95139e-15,-31.2914,12.0301,73.3518,29.8863,-6.78225,-21.0867,25.2438,7.12502,5.29067,55.1578,-23.283,10.6211,18.0961,39.2667,-22.4236,-21.3958,4.29214,-27.4157,12.1566,-22.9436,58.0321,9.59386,-15.973,2.94966
-1.68563,18.4118,3.34641,10.8527,66.0754,6.48902,14.1222,-0.534217,3.5758,6.05437,0.0553946,2.3677,-1.53594,0.151805,0.443746,-4.31576,2.90944,-5.1494,30.5596,4.02735,6.43495,10.1453,2.28423,3.63321,0,-6.36111e-15,-27.0461,6.86156,-75.2857,38.2209,9.14656,-33.3898,2.36203,7.12502,-6.59049,-27.5154,0,-6.36111e-15,-31.4055,11.9069,73.3016,29.537,-7.45073,-20.6691,24.7794,7.12502,5.69386,54.6829,-23.2436,10.5211,18.3294,39.1423,-22.2577,-21.1992,4.05899,-28.724,12.7782,-22.7053,59.5021,11.2094,-15.6075,1.96909
-1.66,18.4066,3.35798,10.5289,65.9161,6.08462,14.3095,-0.524597,3.81114,6.15693,0.114128,2.43365,-1.52585,0.187757,0.372106,-4.26835,2.82516,-5.09304,30.4433,3.90937,6.36618,10.1045,2.22716,3.5819,-7.15625e-15,7.95139e-15,-26.7768,7.24947,-75.2523,38.5706,9.02873,-32.6928,2.56384,7.12502,-5.91764,-27.3335,-7.15625e-15,7.95139e-15,-31.4973,11.5736,73.3707,29.2985,-7.9256,-20.3519,24.7352,7.12502,6.00009,54.6302,-23.2151,10.6073,18.4951,39.1229,-22.216,-21.1619,3.77077,-29.9674,13.3828,-22.5639,60.8736,12.2592,-15.5769,0.373275
-1.6333,18.4061,3.3701,10.7313,65.7982,6.27896,14.5262,-0.547813,3.77378,6.25097,0.0942319,2.45099,-1.54308,0.180232,0.414964,-4.27084,2.79404,-5.11528,30.4146,3.86164,6.37437,10.0967,2.20201,3.58315,-1.59028e-14,-5.725e-14,-26.4815,7.29927,-75.1257,39.0918,8.19594,-31.1584,3.42286,7.12502,-4.4361,-26.5107,-1.59028e-14,-5.725e-14,-31.6137,11.4982,73.3735,29.0543,-8.53957,-20.1066,25.0596,7.12502,6.23689,54.9478,-23.1841,10.8026,18.3967,39.1797,-22.2203,-21.3092,3.23671,-31.0849,13.8204,-22.6371,62.1079,12.9082,-15.4704,-1.32141
-1.60822,18.4092,3.38079,11.2485,65.6688,6.77581,14.7477,-0.592908,3.61026,6.31139,0.0261709,2.41367,-1.59941,0.145675,0.479266,-4.2449,2.80023,-5.23827,30.3995,3.84914,6.49994,10.0797,2.19449,3.64631,3.97569e-15,-5.08889e-14,-26.2662,7.45756,-75.1338,39.7016,7.50446,-31.3399,3.35875,7.12502,-4.61136,-26.5711,3.97569e-15,-5.08889e-14,-31.7845,11.5819,73.2485,28.7676,-9.27156,-19.8215,25.0583,7.12502,6.51214,54.9382,-23.245,10.8259,18.1532,39.2895,-22.0702,-21.3637,2.46751,-32.2278,14.2881,-22.873,63.2193,13.3714,-15.2419,-2.88963
-1.5803,18.4128,3.39028,11.8684,65.5103,7.35523,14.8744,-0.611145,3.48715,6.40627,-0.00952296,2.3363,-1.56787,0.129657,0.473722,-4.2082,2.77997,-5.31416,30.3151,3.80215,6.58006,10.0398,2.17123,3.67865,4.77083e-15,5.40694e-14,-26.0578,7.80736,-75.2196,40.1606,7.79524,-33.3052,2.35327,7.12502,-6.50883,-27.5267,4.77083e-15,5.40694e-14,-31.8311,11.4799,73.2118,28.4413,-9.93927,-19.6653,25.0645,7.12502,6.66294,54.9396,-23.3613,10.5816,17.8596,39.4374,-21.9338,-21.1751,1.83687,-33.3848,14.8685,-23.2456,64.2092,13.3598,-14.994,-4.34166
-1.55148,18.4152,3.39906,12.454,65.2767,7.91844,15.0059,-0.585857,3.33932,6.517,0.00789389,2.24818,-1.52126,0.140056,0.462445,-4.17409,2.76597,-5.24983,30.2575,3.76604,6.58405,10.0155,2.16033,3.66188,-3.18055e-14,-4.29375e-14,-25.8959,8.16847,-75.2871,40.566,8.45655,-34.3149,1.74774,7.12502,-7.48355,-28.0999,-3.18055e-14,-4.29375e-14,-31.8054,11.3283,73.2187,28.0723,-10.6068,-19.6296,24.9072,7.12502,6.69735,54.7813,-23.4731,10.4595,17.5557,39.606,-21.9539,-20.9922,1.68146,-34.4899,15.5207,-23.6569,65.1156,12.9236,-14.5232,-5.4184
-1.5263,18.4184,3.40724,12.9486,65.0484,8.42208,15.2244,-0.573663,3.20166,6.61656,0.0136735,2.1369,-1.53258,0.144496,0.423329,-4.12808,2.76548,-5.16996,30.2107,3.73553,6.631,9.99138,2.15818,3.65829,2.62396e-14,-2.06736e-14,-25.699,8.46878,-75.3534,41.1112,8.22023,-34.069,1.36186,7.12502,-7.24617,-28.4941,2.62396e-14,-2.06736e-14,-31.7859,11.3828,73.1068,27.7115,-11.3065,-19.4292,24.6284,7.12502,6.89084,54.4962,-23.5371,10.5698,17.2802,39.7577,-22.0939,-20.9397,1.98325,-35.5712,16.1785,-24.0118,65.9543,12.2559,-13.8199,-6.07024
-1.5001,18.4244,3.41052,13.4694,64.8979,8.88813,15.3913,-0.621375,3.14886,6.70002,-0.0491397,2.05003,-1.53406,0.115924,0.372972,-4.01914,2.79051,-5.17408,30.0641,3.77049,6.58853,9.9149,2.16654,3.63619,1.11319e-14,7.95139e-15,-25.4229,8.7311,-75.3472,41.7405,7.52608,-33.8852,1.1559,7.12502,-7.06877,-28.7061,1.11319e-14,7.95139e-15,-31.7841,11.5859,73.069,27.4217,-11.9049,-19.1315,24.7692,7.12502,7.17825,54.6274,-23.6386,10.6962,16.998,39.8757,-22.2544,-20.9294,2.27804,-36.7181,16.7298,-24.3693,66.694,11.4181,-12.9321,-5.1344
-1.47111,18.4321,3.4082,13.9722,64.7351,9.29133,15.5226,-0.676413,3.12094,6.77214,-0.118689,2.00241,-1.52853,0.0837511,0.350831,-3.90782,2.82501,-5.20424,29.9239,3.83888,6.48208,9.83996,2.18076,3.59899,4.37326e-14,-3.65764e-14,-25.2088,9.08672,-75.2967,42.3053,7.26883,-34.4353,1.38876,7.12502,-7.59976,-28.4547,4.37326e-14,-3.65764e-14,-31.8079,11.8156,73.089,27.1509,-12.4224,-18.8399,25.1771,7.12502,7.45966,55.0256,-23.7649,10.8545,16.6954,39.9657,-22.4006,-20.924,2.1532,-37.8686,17.3427,-24.7664,67.3104,10.5742,-12.0976,-3.37964
-1.44405,18.4401,3.40177,14.4807,64.5504,9.77053,15.7358,-0.726592,3.08484,6.87954,-0.179857,1.90355,-1.52898,0.0573765,0.278772,-3.94482,2.83573,-5.26237,29.8998,3.83771,6.55799,9.83418,2.17966,3.63532,3.4191e-14,-2.38542e-14,-24.9895,9.47967,-75.3127,42.8167,7.14278,-32.9729,2.34448,7.12502,-6.18807,-27.5451,3.4191e-14,-2.38542e-14,-31.7496,12.0474,73.0099,26.8491,-12.8904,-18.4759,25.5355,7.12502,7.81099,55.3712,-23.8273,10.923,16.3746,40.026,-22.3413,-20.994,1.35922,-38.9332,17.9742,-25.2508,67.773,9.55919,-11.2988,-2.36982
-1.41838,18.4465,3.39159,14.9688,64.3854,10.1983,15.9436,-0.809349,3.11263,6.98369,-0.274745,1.79877,-1.53054,0.0156095,0.170366,-3.99243,2.86513,-5.34608,29.8799,3.86879,6.62456,9.82942,2.18937,3.67579,2.06736e-14,1.27222e-14,-24.666,9.58511,-75.2594,43.4151,6.46104,-37.0054,0.871811,7.12502,-10.0799,-28.8668,2.06736e-14,1.27222e-14,-31.6853,12.0222,73.0453,26.6424,-12.9126,-18.1975,25.9983,7.12502,8.07976,55.8239,-23.9212,10.8246,16.1032,40.0541,-22.0347,-21.1111,0.375652,-40.0021,18.3448,-25.7527,68.0823,8.25149,-10.3368,-1.46815
-1.38941,18.4536,3.38245,15.2533,64.2332,10.3291,16.0628,-0.916108,3.15818,7.06047,-0.399059,1.80912,-1.51434,-0.0425162,0.177394,-3.99076,2.94585,-5.48404,29.8655,4.01732,6.5395,9.81325,2.23105,3.68015,-3.97569e-14,6.67916e-14,-24.344,9.89323,-75.113,43.9966,5.80707,-36.2853,1.09077,7.12502,-9.38514,-28.6803,-3.97569e-14,6.67916e-14,-31.7301,12.0269,73.1961,26.5005,-12.6638,-18.0785,26.1655,7.12502,8.19457,55.9866,-24.05,10.845,15.9307,40.045,-21.9072,-21.1626,0.0920568,-41.0864,18.6326,-26.092,68.2589,7.05605,-9.37864,-0.0921436
-1.35893,18.4605,3.37695,15.4015,64.124,10.3298,16.1491,-0.988221,3.2488,7.15759,-0.472041,1.8383,-1.4584,-0.0735387,0.169916,-3.95106,2.98154,-5.59093,29.8008,4.08732,6.48949,9.77626,2.24428,3.68185,-3.26007e-14,9.54166e-15,-24.1244,10.4647,-75.0059,44.4929,5.51529,-34.5971,1.71236,7.12502,-7.75594,-28.1254,-3.26007e-14,9.54166e-15,-31.6516,12.4063,73.2283,26.1822,-12.842,-18.0585,25.8757,7.12502,8.21392,55.696,-24.1304,10.9638,15.814,40.01,-21.9255,-21.1975,0.0733345,-42.1249,19.1004,-26.3539,68.3122,5.98627,-8.66378,0.476168
-1.33073,18.4663,3.37379,15.4775,64.0278,10.3499,16.3539,-1.00254,3.36609,7.27147,-0.460767,1.79828,-1.44579,-0.0607614,0.0614615,-3.90624,2.94645,-5.5611,29.7024,4.01561,6.5317,9.73564,2.21742,3.67973,-7.95139e-16,4.77083e-15,-23.9621,10.6643,-74.955,44.9585,5.31671,-32.2461,3.14177,7.12502,-5.48635,-26.7672,-7.95139e-16,4.77083e-15,-31.4207,12.6568,73.1935,25.7836,-13.2247,-18.0606,25.557,7.12502,8.21189,55.3774,-24.1044,10.9801,15.7406,39.9515,-21.8536,-21.2252,-0.071023,-43.0574,19.6379,-26.6138,68.229,4.8941,-8.09558,0.192138
-1.30175,18.4747,3.36624,15.7099,63.8372,10.5085,16.5752,-0.983752,3.36685,7.36217,-0.42386,1.74299,-1.46519,-0.038607,-0.0017622,-3.89308,2.92122,-5.44913,29.6465,3.96553,6.50948,9.71935,2.20237,3.64535,-6.36111e-15,-1.11319e-14,-23.7734,10.6281,-74.8409,45.4235,5.20979,-34.8613,2.12247,7.12502,-8.01091,-27.7057,-6.36111e-15,-1.11319e-14,-31.265,12.6984,73.2195,25.5213,-13.4625,-18.0186,25.2251,7.12502,8.25238,55.0439,-24.1299,10.9175,15.5669,39.8791,-21.8458,-21.1448,-0.183521,-43.9683,20.0201,-26.9214,67.9985,4.08887,-7.35503,1.45677
-1.27122,18.4844,3.35143,16.2418,63.6234,10.8295,16.5965,-0.979055,3.29753,7.4385,-0.427497,1.71038,-1.39548,-0.0386981,0.00370402,-3.85447,2.9063,-5.39814,29.562,3.94677,6.44303,9.6858,2.19012,3.60633,-1.59028e-15,-1.43125e-14,-23.5241,10.6993,-74.6121,45.9275,4.9578,-32.8123,3.35472,7.12502,-6.03304,-26.5394,-1.59028e-15,-1.43125e-14,-31.1283,12.75,73.3585,25.3524,-13.5059,-17.8332,25.0898,7.12502,8.43127,54.9015,-24.3485,10.913,15.2259,39.82,-21.9912,-21.0124,0.0317791,-45.0042,20.3286,-27.3729,67.6039,3.57595,-6.71375,2.57747
-1.24243,18.497,3.33728,16.9266,63.4515,11.3046,16.6189,-1.01175,3.21206,7.50158,-0.484237,1.62339,-1.34199,-0.0652607,-0.0295411,-3.85639,2.9092,-5.40971,29.5445,3.93573,6.49069,9.67846,2.18676,3.62311,4.13472e-14,0,-23.2935,10.9027,-74.5086,46.4052,4.64107,-34.8526,2.05945,7.12502,-8.00252,-27.7691,4.13472e-14,0,-30.923,12.7499,73.4538,25.1577,-13.3932,-17.5041,25.0292,7.12502,8.74895,54.8279,-24.5687,11.0613,14.8005,39.7739,-22.0377,-21.0808,0.226988,-45.976,20.6595,-27.8892,67.0082,3.17537,-6.33173,2.60646
-1.2134,18.5181,3.32608,18.3953,63.1754,12.6366,16.696,-0.919476,2.90039,7.4825,-0.422093,1.25362,-1.40293,-0.0376468,-0.252348,-3.69617,2.82655,-4.98672,29.4767,3.73781,6.5687,9.6433,2.14819,3.55414,2.06736e-14,2.06736e-14,-23.3905,10.6383,-74.6898,46.8384,4.51614,-32.9182,2.83774,7.12502,-6.13529,-27.0534,2.06736e-14,2.06736e-14,-30.6021,12.1885,73.4061,24.8741,-13.1949,-17.5217,24.8958,7.12502,8.73195,54.6952,-24.769,11.135,13.9346,39.6968,-21.9983,-21.1553,0.125149,-46.7788,20.8098,-28.7703,66.1998,2.83312,-5.79881,3.16657
-1.18283,18.5396,3.30996,20.2715,62.8408,14.3566,16.7184,-0.62692,2.67094,7.37182,-0.103025,0.59676,-1.52522,0.119665,-0.868486,-3.28167,2.51176,-3.76393,29.3168,3.13661,6.57337,9.57081,2.00319,3.27928,-2.06736e-14,-1.74931e-14,-23.9346,9.29433,-75.0556,47.2881,4.66534,-35.2084,1.49408,7.12502,-8.34593,-28.321,-2.06736e-14,-1.74931e-14,-30.1162,10.4345,73.3397,24.5946,-12.7327,-17.7458,25.0066,7.12502,8.51562,54.8149,-25.0072,10.9317,12.8296,39.5366,-21.9856,-20.9571,0.147868,-47.5864,20.805,-29.874,65.2506,2.53758,-5.20072,3.24363
-1.15271,18.5538,3.28794,20.5785,62.6908,14.5296,16.895,-0.629571,2.69183,7.44277,-0.0952161,0.542328,-1.54192,0.127385,-0.938719,-3.33471,2.48438,-3.56653,29.3251,3.0876,6.50708,9.5927,1.99332,3.21935,2.70347e-14,-7.95139e-15,-23.7831,9.07724,-74.898,47.7099,4.5886,-32.5335,2.4031,7.12502,-5.76382,-27.4985,2.70347e-14,-7.95139e-15,-29.8663,10.3502,73.4552,24.4011,-12.868,-17.5871,24.8365,7.12502,8.66879,54.6385,-25.0053,10.8382,12.5653,39.2772,-21.9324,-20.8027,0.221715,-48.2827,20.934,-30.0858,64.332,2.39501,-4.92333,2.81221
-1.12181,18.5678,3.26,19.6956,62.6055,13.556,17.2751,-0.828297,2.96597,7.53273,-0.277735,0.887773,-1.64977,0.0408736,-0.696782,-3.35275,2.68044,-4.16753,29.3195,3.43318,6.48928,9.56081,2.08295,3.34391,6.75868e-14,-1.59028e-14,-23.3699,9.82674,-74.4841,48.0788,4.30506,-34.9631,1.62845,7.12502,-8.10912,-28.196,6.75868e-14,-1.59028e-14,-29.9762,11.4065,73.6752,24.2659,-13.3986,-17.4652,24.5136,7.12502,8.78641,54.3107,-24.7831,11.0182,12.9009,38.9187,-21.8201,-20.816,0.225893,-48.8412,21.2266,-29.6151,63.4906,2.36304,-4.81668,1.41913
-1.09064,18.5826,3.22814,19.3092,62.432,12.9403,17.5152,-0.834769,3.40615,7.53939,-0.20531,0.879022,-1.76468,0.085021,-0.967269,-3.19136,2.66743,-4.08853,29.1772,3.36565,6.6128,9.48061,2.07025,3.35756,2.46493e-14,7.95139e-15,-23.2849,9.7475,-74.3347,48.3485,4.38705,-33.7894,1.87195,7.12502,-6.97632,-27.9931,2.46493e-14,7.95139e-15,-29.7802,11.0868,73.8479,24.1613,-13.314,-17.5247,24.7405,7.12502,8.72901,54.54,-24.7621,11.2378,12.9803,38.5546,-21.6797,-20.8739,0.264006,-49.4749,21.4192,-29.3508,62.4986,2.55852,-4.53945,0.18491
-1.0606,18.5934,3.20236,19.0707,62.2592,12.377,17.6141,-0.924298,3.61784,7.60999,-0.277957,0.965097,-1.74336,0.0547845,-0.982264,-3.34754,2.75284,-4.2711,29.1455,3.48642,6.66932,9.48513,2.10873,3.4203,-2.38542e-14,0,-22.8948,10.0585,-73.9885,48.5786,4.54344,-33.5266,2.12897,7.12502,-6.72258,-27.7443,-2.38542e-14,0,-29.5708,11.269,73.9829,24.0838,-13.2961,-17.5264,24.7344,7.12502,8.72739,54.5339,-24.8082,11.4586,13.0352,38.0955,-21.5088,-20.9786,0.454037,-50.0959,21.4179,-28.9789,61.5441,2.76796,-4.17345,1.73045
-1.02758,18.5858,3.18401,18.6788,62.09,11.7755,17.7923,-0.987342,3.80242,7.71022,-0.31494,1.03793,-1.73022,0.0432412,-1.0021,-3.53486,2.80078,-4.40602,29.1411,3.52116,6.84521,9.50807,2.12552,3.51216,-4.77083e-15,2.8625e-14,-22.5739,10.1738,-73.7155,48.8792,4.65554,-34.2751,1.80524,7.12502,-7.44511,-28.0437,-4.77083e-15,2.8625e-14,-29.3543,11.4197,74.0704,23.9736,-13.4407,-17.6775,24.2612,7.12502,8.58158,54.0668,-24.7746,11.6169,13.1606,37.722,-21.4199,-21.011,0.731898,-51.3792,22.2736,-29.7317,60.1729,2.51352,-4.91139,-18.144
-0.999285,18.6164,3.16364,18.5506,61.8896,11.5245,18.0226,-0.811233,4.13412,7.68714,-0.0317453,0.760764,-1.85917,0.191202,-1.53553,-3.26414,2.63001,-3.9977,28.9704,3.0616,7.51819,9.41453,2.0248,3.62717,-6.12257e-14,-1.59028e-14,-22.9131,9.26567,-73.9264,49.1343,5.03495,-31.2116,2.22298,7.12502,-4.48747,-27.7095,-6.12257e-14,-1.59028e-14,-29.0318,10.123,74.0215,23.9027,-13.2585,-17.7354,24.1669,7.12502,8.52574,53.9748,-24.6324,11.8202,13.0959,37.2737,-21.3531,-21.1009,0.829397,-51.0099,21.4526,-28.2413,59.1151,2.98275,-3.29909,0.995865
-0.964063,18.6235,3.1422,18.6943,61.6311,11.5074,18.1376,-0.885255,3.79634,7.74151,-0.168596,0.928179,-1.86933,0.116264,-1.14148,-3.33229,2.80286,-4.64926,28.9559,3.32608,7.72045,9.38332,2.09569,3.83139,-2.54444e-14,3.97569e-14,-22.6132,10.0003,-73.6447,49.2308,5.07698,-33.7844,0.782967,7.12502,-6.97141,-29.0822,-2.54444e-14,3.97569e-14,-29.0551,10.4661,74.2745,23.9497,-13.2406,-17.6291,24.4622,7.12502,8.62824,54.2659,-24.6468,12.1032,12.8615,36.9937,-21.3177,-21.2849,0.559803,-51.2386,21.3641,-27.9868,57.7584,3.12231,-2.89954,1.44017
-0.930133,18.6326,3.11648,18.6742,61.4207,11.2743,18.2132,-0.883815,3.5898,7.8303,-0.185947,1.13716,-1.81461,0.10425,-0.800611,-3.45855,2.85451,-4.79208,28.9546,3.48168,7.43601,9.40119,2.12105,3.77116,8.26944e-14,3.81667e-14,-22.3242,10.384,-73.221,49.3625,4.87637,-32.3901,1.33826,7.12502,-5.62538,-28.5671,8.26944e-14,3.81667e-14,-28.8758,10.6184,74.6615,23.9146,-13.1749,-17.6487,24.4644,7.12502,8.60933,54.2688,-24.7742,12.2908,12.7471,36.9019,-21.2724,-21.421,0.184592,-51.5057,21.1585,-27.519,56.5554,3.2373,-2.57561,1.82333
-0.900842,18.6139,3.09377,18.3308,61.2858,10.739,18.4669,-0.949408,3.75442,7.88434,-0.226661,1.16059,-1.88903,0.0886846,-0.860156,-3.41911,2.9651,-4.89571,28.7955,3.56144,7.74661,9.31794,2.17414,3.89422,3.49861e-14,-3.81667e-14,-22.0874,10.4365,-73.1177,49.4351,4.76492,-32.1056,1.57263,7.12502,-5.35065,-28.3398,3.49861e-14,-3.81667e-14,-28.6823,10.5177,74.6877,23.8787,-13.0739,-17.774,24.383,7.12502,8.48846,54.1924,-25.0135,12.4076,12.8556,37.1156,-21.3769,-21.4485,-0.049998,-51.8974,21.4476,-27.3458,55.2798,3.44673,-3.00594,-6.72759
-0.860911,18.5569,3.06693,17.9293,61.1355,10.1075,18.6702,-1.01447,4.02292,7.9031,-0.252204,1.18777,-1.97415,0.0809097,-0.977355,-3.275,3.03795,-5.00554,28.6033,3.60018,8.01118,9.20745,2.2027,3.99431,8.50798e-14,-1.59028e-15,-21.9426,10.5931,-72.9569,49.5171,4.60775,-34.5372,0.549464,7.12502,-7.69807,-29.2904,8.50798e-14,-1.59028e-15,-28.5669,10.3452,74.7209,23.9206,-12.9522,-17.8646,24.6353,7.12502,8.40099,54.4483,-25.3745,12.4293,12.9759,37.4713,-21.6054,-21.2575,-0.105215,-52.6417,22.4202,-28.116,54.0376,2.46331,-5.15839,-33.8308
-0.815264,18.5244,3.03352,17.5346,60.9668,9.41583,18.668,-1.04585,4.452,7.96965,-0.221567,1.16303,-1.89896,0.108152,-1.25186,-3.28945,3.02878,-4.84594,28.5402,3.55817,8.03108,9.19372,2.19915,3.96761,-2.8625e-14,1.90833e-14,-21.8591,10.4793,-72.8369,49.6354,4.46967,-36.2944,0.180032,7.12502,-9.39387,-29.5906,-2.8625e-14,1.90833e-14,-28.2784,10.1311,74.7213,23.8885,-12.8705,-17.8403,24.5136,7.12502,8.42447,54.3256,-25.7371,12.5764,13.0573,37.7533,-21.8468,-21.1629,-0.0985534,-53.1788,22.8185,-28.3181,52.7861,0.709058,-6.55753,-47.5962
-0.775761,18.5183,3.0082,17.4147,60.6868,9.09024,18.686,-0.956905,4.41065,8.0726,-0.111514,1.17397,-1.79234,0.166314,-1.23852,-3.35971,2.99947,-4.72756,28.4866,3.47616,8.12601,9.1935,2.18097,3.97345,2.38542e-14,-5.725e-14,-21.7077,10.2536,-72.6898,49.6322,4.40921,-37.2463,0.684251,7.12502,-10.3123,-29.0429,2.38542e-14,-5.725e-14,-27.926,9.8069,74.8307,23.8374,-12.716,-17.8012,24.1672,7.12502,8.46221,53.9776,-25.9352,12.9704,12.942,37.7938,-21.9298,-21.3126,-0.170356,-53.3406,22.764,-28.0097,51.4874,-0.16981,-6.99852,-51.4422
-0.738132,18.5322,2.98429,17.3535,60.3549,8.85798,18.7654,-0.936649,4.08981,8.14009,-0.129107,1.30066,-1.76335,0.151012,-0.919606,-3.23801,3.10028,-4.89664,28.3586,3.63192,8.10132,9.10991,2.2281,3.99481,1.66979e-14,9.14409e-14,-21.4421,10.5988,-72.4723,49.5642,4.28166,-37.4774,0.389975,7.12502,-10.5351,-29.326,1.66979e-14,9.14409e-14,-27.8051,9.88392,74.9839,23.8116,-12.5265,-17.7983,24.2425,7.12502,8.46497,54.0528,-25.9048,13.2552,12.7951,37.4197,-21.7093,-21.3414,-0.362207,-53.215,22.4012,-27.1944,50.1472,0.272658,-7.1197,-51.5103
-0.698219,18.5628,2.95215,17.0748,59.9951,8.38126,18.8596,-0.930509,4.22258,8.20621,-0.0964679,1.23439,-1.73865,0.173072,-1.07085,-3.09685,3.16206,-4.77753,28.1736,3.69229,8.10384,9.01578,2.26312,3.96567,3.89618e-14,-2.8625e-14,-21.342,10.3617,-72.5773,49.4882,4.4961,-35.7749,0.120018,7.12502,-8.89258,-29.6726,3.89618e-14,-2.8625e-14,-27.5323,9.78959,74.8896,23.6894,-12.4328,-17.7438,24.3874,7.12502,8.51759,54.1956,-25.7274,13.4295,12.7604,36.7398,-21.3,-21.2636,-0.749125,-52.8394,21.711,-25.7743,48.762,1.66534,-7.00663,-49.7833
-0.662551,18.6031,2.91634,16.6984,59.5921,7.81511,19.0744,-0.913104,4.47266,8.24555,-0.024564,1.09964,-1.8011,0.216175,-1.36895,-3.03311,3.19447,-4.64301,28.029,3.67499,8.26799,8.95162,2.28069,3.98875,-3.26007e-14,3.89618e-14,-21.2815,9.70901,-72.8235,49.3137,5.05821,-33.0087,0.795327,7.12502,-6.22259,-29.0933,-3.26007e-14,3.89618e-14,-27.2871,9.39209,74.748,23.6643,-12.202,-18.3192,24.4235,7.12502,7.96229,54.2535,-25.4734,13.624,12.7742,35.8961,-20.7826,-21.3253,-1.51619,-52.1845,20.5939,-23.8121,47.3133,3.67763,-6.15175,-45.9831
-0.629259,18.6464,2.8752,16.8904,59.1496,7.76189,19.0685,-0.773175,4.12257,8.34871,0.0984468,1.1728,-1.68411,0.272234,-1.11794,-3.13346,3.18548,-4.6039,27.9758,3.66265,8.22569,8.9547,2.27226,3.96652,2.06736e-14,-1.19271e-14,-21.0112,9.23215,-72.4915,49.1792,5.73497,-32.7265,0.696485,7.12502,-5.95013,-29.2,2.06736e-14,-1.19271e-14,-26.9304,9.3661,74.9349,23.6061,-12.1485,-18.9862,24.7689,7.12502,7.31851,54.6223,-25.3417,13.6724,12.459,34.9806,-20.1459,-21.292,-2.34195,-51.4573,19.0593,-21.846,45.7943,5.829,-4.36607,-39.3332
-0.592582,18.6898,2.82986,18.0073,58.5606,8.66485,19.0544,-0.747257,3.62442,8.36169,0.0282228,0.824097,-1.66917,0.230839,-1.19134,-3.17699,3.29674,-4.37596,27.9422,3.77642,8.25245,8.94723,2.34647,3.94323,-3.33958e-14,5.24792e-14,-20.822,9.20914,-72.5057,49.0867,5.99148,-33.4694,0.394644,7.12502,-6.66735,-29.4804,-3.33958e-14,5.24792e-14,-26.6781,9.43319,74.6279,23.5573,-12.0872,-18.8256,25.154,7.12502,7.4735,55.002,-25.3672,13.6518,11.5005,34.1067,-19.5359,-21.0712,-2.20923,-50.6961,17.3427,-20.3502,44.2319,7.45971,-1.82732,-29.6562
-0.553021,18.7304,2.78309,18.7575,57.8908,9.27555,19.0981,-0.687427,3.03073,8.41468,-0.00247673,0.645953,-1.6392,0.205632,-1.03769,-3.10244,3.42301,-4.38059,27.7783,3.96402,8.15475,8.86484,2.41709,3.91235,7.15625e-15,-3.57812e-14,-20.5572,9.889,-72.3672,48.9336,4.99387,-31.795,1.58748,7.12502,-5.05075,-28.3323,7.15625e-15,-3.57812e-14,-26.4956,9.54727,74.5182,23.5187,-11.7935,-19.0829,24.9268,7.12502,7.22511,54.7834,-25.3413,13.7114,10.6854,33.3272,-19.022,-20.806,-1.11373,-49.7459,15.6061,-18.6076,42.6799,8.25814,1.26022,-16.6962
-0.50915,18.7578,2.73765,18.8748,57.2718,9.26582,19.1804,-0.5613,2.75991,8.48964,0.112594,0.531861,-1.59773,0.259703,-1.02795,-2.97981,3.46689,-4.26955,27.6114,4.01741,8.09508,8.78443,2.44205,3.86426,-2.8625e-14,-7.95139e-15,-20.4981,10.0702,-72.3248,48.8332,4.15583,-30.7989,2.41717,7.12502,-4.08895,-27.5233,-2.8625e-14,-7.95139e-15,-26.2078,9.27926,74.4789,23.3749,-11.3137,-19.4953,24.8824,7.12502,6.82706,54.7523,-25.272,13.7571,10.273,32.6904,-18.6674,-20.4172,-0.225145,-48.7201,13.9204,-16.5193,41.2026,8.27898,4.22067,-3.26543
-0.463101,18.7746,2.69458,18.885,56.7437,9.15584,19.3033,-0.458303,2.59654,8.53844,0.217053,0.412504,-1.60486,0.310107,-1.0829,-2.82081,3.51171,-4.1626,27.4762,4.04112,8.17779,8.70588,2.46712,3.86422,3.4191e-14,-3.18055e-14,-20.6238,9.76325,-72.4613,48.8016,4.24862,-32.0007,1.9108,7.12502,-5.2494,-28.0042,3.4191e-14,-3.18055e-14,-25.9788,8.94405,74.3839,23.2935,-10.8563,-19.1728,25.1932,7.12502,7.1383,55.0528,-25.2134,13.8093,9.96447,32.1851,-18.4139,-20.0897,-0.581049,-47.7684,12.4087,-14.5926,39.8074,8.09289,5.87374,4.14173
-0.415906,18.7807,2.64756,18.7563,56.1901,8.82947,19.4555,-0.452266,2.53857,8.57355,0.215354,0.320359,-1.64478,0.309208,-1.14784,-2.77891,3.63486,-4.2316,27.4013,4.19971,8.2271,8.65694,2.53408,3.89784,-5.32743e-14,6.2816e-14,-20.6113,9.5942,-72.6859,48.7199,4.39696,-32.9389,1.41981,7.12502,-6.15518,-28.4708,-5.32743e-14,6.2816e-14,-25.8396,9.08259,74.1489,23.2192,-10.6186,-18.7392,24.9863,7.12502,7.55684,54.8313,-25.3136,13.9743,9.75699,31.8525,-18.0557,-19.92,-2.18203,-46.9693,11.1595,-12.8624,38.4802,8.32812,6.13783,4.11724
-0.366763,18.7831,2.59767,18.6161,55.566,8.49046,19.6309,-0.446005,2.47675,8.62337,0.214114,0.229505,-1.68057,0.308856,-1.20944,-2.7969,3.7589,-4.37218,27.2738,4.38208,8.20882,8.59927,2.5982,3.9213,-6.36111e-15,-3.97569e-15,-20.5177,9.53628,-72.7941,48.7113,3.94513,-33.056,1.19483,7.12502,-6.2683,-28.6924,-6.36111e-15,-3.97569e-15,-25.6382,9.4388,73.8907,23.0584,-10.5968,-18.4348,24.7878,7.12502,7.85068,54.622,-25.5159,14.1831,9.52476,31.6725,-17.7811,-19.6879,-3.8305,-46.1701,10.0051,-11.2998,37.1562,8.81034,6.18696,2.22718
-0.317671,18.7833,2.54336,18.7541,54.8391,8.59407,19.8994,-0.366631,2.14557,8.68255,0.260264,0.0581159,-1.75322,0.327442,-1.21413,-2.73304,3.86217,-4.30077,27.1504,4.53597,8.08484,8.54016,2.65976,3.86822,-9.14409e-14,2.8625e-14,-20.4231,9.73722,-72.7126,48.79,2.85267,-32.7753,0.738587,7.12502,-5.99726,-29.1565,-9.14409e-14,2.8625e-14,-25.4661,9.51522,73.6744,22.9915,-10.3681,-17.9356,24.7731,7.12502,8.33251,54.5887,-25.7143,14.3687,8.97659,31.6051,-17.6751,-19.285,-4.97823,-45.2547,8.86533,-10.1316,35.8139,9.42615,6.12649,0.432667
-0.268423,18.7841,2.48658,19.0676,53.9209,8.96759,20.164,-0.207532,1.53565,8.78134,0.355829,-0.177851,-1.78094,0.366552,-1.13969,-2.7844,3.97582,-4.21986,27.195,4.69624,8.00629,8.55922,2.73163,3.84106,-3.57812e-14,1.11319e-14,-20.2605,10.0588,-72.6357,48.881,1.54749,-32.3296,0.306252,7.12502,-5.56699,-29.6006,-3.57812e-14,1.11319e-14,-25.2175,9.68499,73.4373,22.8275,-10.1263,-17.4837,24.4711,7.12502,8.76862,54.269,-25.9538,14.7276,8.1575,31.5832,-17.5721,-18.9051,-4.98052,-44.1986,7.73453,-9.1826,34.4639,9.89227,5.97428,-0.163523
-0.214454,18.7852,2.43406,19.3861,53.0131,9.28855,20.333,0.0957654,1.10264,8.8114,0.655669,-0.553828,-1.8248,0.511228,-1.35789,-2.59695,3.91221,-3.74039,27.0815,4.545,8.03672,8.50903,2.70747,3.74846,-8.0309e-14,5.88403e-14,-20.5547,9.58129,-72.8395,49.1111,0.124269,-32.0071,-0.192744,7.12502,-5.25555,-30.1076,-8.0309e-14,5.88403e-14,-24.826,9.20793,73.1033,22.5413,-9.95401,-17.3143,24.3194,7.12502,8.93209,54.1104,-26.2576,15.0996,7.35308,31.6027,-17.5403,-18.5674,-3.55185,-43.1229,6.47044,-8.17629,33.0893,10.1863,5.93603,0.210352
-0.150896,18.7833,2.38176,19.6039,52.3924,9.40644,20.2921,0.229347,0.943746,8.88559,0.788687,-0.839186,-1.71732,0.580476,-1.59741,-2.31985,3.89517,-3.29207,26.7726,4.49125,7.92742,8.37237,2.70796,3.60851,-6.59965e-14,3.81667e-14,-20.7564,9.26572,-72.9822,49.3937,-1.56587,-32.1755,-0.874081,7.12502,-5.41816,-30.7848,-6.59965e-14,3.81667e-14,-24.4694,8.76393,72.8041,22.3251,-9.66782,-17.1749,24.4585,7.12502,9.06661,54.2436,-26.5208,15.1265,6.78427,31.6477,-17.5035,-18.1403,-2.90156,-42.1802,5.14252,-7.10598,31.7166,10.7068,5.47957,-0.880261
-0.0829513,18.7709,2.32536,19.6872,51.8775,9.2763,20.1905,0.242937,1.00733,8.96396,0.808738,-1.07307,-1.57554,0.598669,-1.88352,-2.2099,3.94891,-2.85414,26.6392,4.57913,7.63124,8.32477,2.75739,3.4299,-9.81996e-14,5.80451e-14,-20.8573,9.12921,-73.1252,49.6272,-3.14143,-32.546,-1.2814,7.12502,-5.77588,-31.1827,-9.81996e-14,5.80451e-14,-24.1889,8.29514,72.5612,22.2368,-9.10757,-17.2092,24.5808,7.12502,9.03346,54.3673,-26.8659,15.0856,6.39311,31.7256,-17.2993,-17.8017,-3.68023,-41.5679,4.23192,-6.34581,30.4031,12.1199,3.41936,-9.32896
-0.0231148,18.7562,2.2699,19.9786,51.1254,9.3138,20.2425,0.281262,0.470681,8.9581,0.756243,-1.13856,-1.61642,0.558361,-1.63818,-2.27216,4.1241,-2.85565,26.6774,4.91192,7.17555,8.34637,2.86555,3.3008,-1.39149e-14,-3.4191e-14,-20.836,9.52873,-73.1306,49.8914,-4.60059,-32.5733,-1.47426,7.12502,-5.80224,-31.3748,-1.39149e-14,-3.4191e-14,-24.1313,8.81932,72.3654,22.0954,-9.03602,-17.3889,24.4895,7.12502,8.86012,54.2835,-27.4096,15.3373,5.77255,31.7661,-16.9182,-17.7099,-4.92145,-40.91,2.94953,-5.41311,29.2423,12.9402,2.32094,-13.4934
0.044234,18.7348,2.21088,20.0465,50.4671,9.23662,20.408,0.0530645,-0.309948,9.07299,0.335608,-0.856542,-1.59526,0.325991,-0.808073,-2.72257,4.57947,-3.98511,26.7909,5.71262,6.87865,8.39494,3.0973,3.46128,-7.95139e-14,3.1408e-14,-20.2454,11.1058,-72.7391,50.2278,-6.24125,-32.5131,-1.91451,7.12502,-5.74414,-31.8167,-7.95139e-14,3.1408e-14,-24.2908,11.0059,72.249,21.8251,-9.52366,-17.5242,24.3122,7.12502,8.72947,54.1117,-27.7783,15.5695,5.29693,31.9276,-16.7336,-17.6227,-6.15879,-40.0258,1.41957,-4.30183,28.0676,13.5592,1.68664,-14.7789
0.1222,18.7188,2.12627,19.389,50.1764,8.40032,20.7919,-0.153178,0.373462,9.06319,0.191137,-0.882552,-1.79958,0.271693,-1.19624,-2.74548,4.72365,-4.12278,26.8782,5.92378,6.86978,8.41196,3.17864,3.49882,4.81059e-14,-1.07741e-13,-20.4551,11.3725,-72.7545,50.6603,-7.6709,-32.4078,-2.29782,7.12502,-5.64251,-32.2027,4.81059e-14,-1.07741e-13,-24.3207,11.2007,71.9995,21.6708,-9.47902,-17.6067,24.2594,7.12502,8.64991,54.0622,-27.8803,15.4363,5.47439,32.0612,-16.7208,-17.2124,-6.86602,-39.1309,-0.122498,-2.78933,26.9427,14.2866,0.796995,-15.8554
0.18024,18.6994,2.07412,20.1495,49.1835,9.0157,20.8545,0.0734595,-0.69659,9.00854,0.270455,-1.10606,-1.88946,0.286751,-0.844062,-2.79853,4.85573,-4.12787,26.9579,6.10308,6.86386,8.4383,3.25762,3.51382,-8.94531e-14,8.98507e-14,-20.6238,11.5222,-72.8154,51.0791,-8.99307,-32.0363,-2.51905,7.12502,-5.2838,-32.4332,-8.94531e-14,8.98507e-14,-24.3004,11.2479,71.7622,21.6451,-9.45381,-17.5728,24.5833,7.12502,8.68257,54.3847,-28.6337,16.0736,4.20777,32.2055,-16.7907,-17.1642,-7.02467,-38.4685,-1.23476,-2.49676,25.8544,15.1286,-0.0954457,-17.1612
0.242793,18.6881,2.00765,20.4463,48.3859,9.18983,20.9276,0.140675,-1.17022,9.07361,0.260956,-1.34137,-1.8547,0.275922,-0.823635,-2.8655,4.97624,-4.1594,26.8845,6.26425,6.86399,8.414,3.32548,3.52768,1.63003e-14,4.37326e-15,-20.6526,11.6259,-72.8804,51.5127,-10.2063,-31.8905,-2.69738,7.12502,-5.14297,-32.615,1.63003e-14,4.37326e-15,-24.1176,11.4795,71.4308,21.5291,-9.61416,-17.5204,25.2301,7.12502,8.73313,55.0294,-29.1243,16.6042,3.33729,32.252,-16.8353,-17.0739,-7.27854,-37.7535,-2.11574,-2.10346,24.8181,16.2959,-1.37268,-18.0409
0.318627,18.6779,1.93925,20.4645,47.8143,9.13155,20.7796,0.114752,-1.36439,9.30584,0.201553,-1.48954,-1.52852,0.246997,-0.855543,-2.93413,5.07562,-4.23702,26.6857,6.4127,6.8006,8.34877,3.37693,3.52154,-3.73715e-14,-3.57812e-15,-20.5352,11.7353,-72.8293,51.9281,-11.1604,-32.005,-2.76496,7.12502,-5.2536,-32.6798,-3.73715e-14,-3.57812e-15,-23.7428,11.8006,71.1753,21.2614,-9.98266,-17.6018,25.3431,7.12502,8.65462,55.1457,-29.3452,16.7148,2.823,32.2931,-16.815,-16.7054,-7.56181,-36.9348,-3.56767,-1.40014,23.7912,17.302,-2.20817,-18.3922
0.404861,18.667,1.87595,20.4077,47.3151,8.97206,20.5743,0.0981612,-1.51672,9.50827,0.163468,-1.60285,-1.20569,0.227482,-0.878766,-2.84839,5.15519,-4.07188,26.4621,6.52906,6.62225,8.26398,3.42548,3.4277,2.8625e-14,-6.32135e-14,-20.5819,11.7442,-72.8431,52.3667,-11.781,-32.1505,-2.63258,7.12502,-5.39408,-32.5439,2.8625e-14,-6.32135e-14,-23.4342,11.9987,70.9495,20.9674,-10.4328,-17.8449,24.8674,7.12502,8.41999,54.6795,-29.4177,16.6997,2.42944,32.1743,-16.7594,-16.254,-7.90322,-36.2288,-5.60635,-0.441438,23.0811,17.7475,-2.02001,-17.9157
0.483057,18.6513,1.80256,20.2144,46.6978,8.51907,20.6324,0.121806,-1.53965,9.55563,0.184344,-1.70663,-1.1829,0.238736,-0.980712,-2.76788,5.24943,-3.95198,26.3252,6.64553,6.5671,8.20287,3.48173,3.38667,2.127e-14,2.26615e-14,-20.7623,11.7177,-72.9281,52.8185,-12.2114,-32.2038,-2.47362,7.12502,-5.44548,-32.3837,2.127e-14,2.26615e-14,-23.2789,11.9748,70.728,20.7751,-10.5722,-18.1422,24.7628,7.12502,8.13307,54.5863,-29.6945,16.9883,2.09222,31.9658,-16.6767,-16.026,-8.2998,-35.784,-7.35652,0.606631,22.732,17.9807,-1.60527,-17.1567
0.552554,18.6275,1.7103,19.6185,46.1344,7.44948,20.8975,0.100196,-1.07397,9.55162,0.230054,-1.68732,-1.32042,0.27251,-1.23662,-2.87577,5.34399,-4.02586,26.3266,6.78546,6.53526,8.21336,3.53371,3.40062,3.81667e-14,9.34288e-15,-20.8296,11.7528,-72.8454,53.2477,-12.5694,-31.9245,-2.74683,7.12502,-5.17579,-32.6636,3.81667e-14,9.34288e-15,-23.1281,11.6836,70.6581,20.6936,-10.2808,-18.328,25.0517,7.12502,7.95377,54.882,-30.1766,17.5647,2.09648,31.7929,-16.5944,-15.9567,-8.36361,-35.5934,-8.68186,1.97912,22.7123,18.1448,-1.47967,-16.2136
0.633438,18.5982,1.61466,18.784,45.6789,6.15983,21.1305,0.0110917,-0.366113,9.60133,0.241938,-1.60814,-1.38278,0.295434,-1.55908,-3.04875,5.45504,-4.02359,26.4634,6.96695,6.40029,8.28801,3.60194,3.37907,-4.83047e-14,2.32578e-14,-20.8545,11.8213,-72.6824,53.6704,-12.8361,-31.9676,-2.83492,7.12502,-5.21745,-32.7507,-4.83047e-14,2.32578e-14,-22.9945,11.6144,70.5735,20.5791,-10.1742,-18.3925,25.0476,7.12502,7.89154,54.8803,-30.52,17.9684,2.38262,31.7224,-16.5041,-15.5797,-8.21058,-35.3248,-9.87522,3.3588,23.0122,17.874,-1.27661,-12.8406
0.722072,18.5584,1.52509,18.3567,45.0207,5.36146,21.2234,-0.0219404,-0.186109,9.64147,0.227746,-1.62573,-1.38551,0.292295,-1.67778,-3.07526,5.58505,-3.93591,26.501,7.15697,6.26948,8.30518,3.68143,3.33497,1.82882e-14,-1.64991e-14,-20.8995,12.0354,-72.6275,54.0896,-13.1198,-32.3553,-2.36778,7.12502,-5.59176,-32.274,1.82882e-14,-1.64991e-14,-22.9038,12.1452,70.2914,20.314,-10.5686,-18.4187,24.8352,7.12502,7.86625,54.6689,-30.9769,17.5887,2.44183,31.793,-16.2652,-14.481,-8.64571,-34.9622,-10.7691,4.05765,23.5041,15.6142,-1.33151,-11.7149
0.810852,18.5137,1.4367,18.2031,44.191,4.82674,21.2655,0.0163442,-0.289151,9.65997,0.249714,-1.69258,-1.38557,0.299305,-1.69554,-3.01358,5.68229,-3.93221,26.3393,7.29677,6.17287,8.23574,3.73363,3.3005,5.30755e-14,-1.07841e-13,-20.9314,12.2717,-72.5671,54.4907,-13.3582,-32.2889,-2.31795,7.12502,-5.52768,-32.2259,5.30755e-14,-1.07841e-13,-22.7983,12.606,70.051,20.0708,-10.9016,-18.4759,24.6586,7.12502,7.81107,54.4943,-31.6663,16.8896,2.3098,32.0264,-16.1114,-13.1063,-9.37266,-34.6183,-11.2345,4.23801,23.9984,12.9878,-1.90947,-10.3341
0.901754,18.4756,1.35024,18.5677,43.182,4.81542,21.0926,0.197637,-0.750972,9.67995,0.388223,-1.85227,-1.27391,0.355512,-1.63094,-3.08674,5.72937,-4.07502,26.2306,7.35596,6.23274,8.19919,3.75084,3.34509,7.69297e-14,-5.54609e-14,-21.0152,12.2256,-72.4222,54.8911,-13.3424,-31.9577,-2.83033,7.12502,-5.20785,-32.7463,7.69297e-14,-5.54609e-14,-22.6822,12.0996,70.1193,20.1307,-10.5449,-18.8111,24.4726,7.12502,7.48748,54.3201,-32.6035,16.7686,1.49017,32.3247,-16.1314,-12.2076,-9.71333,-34.4148,-11.4958,3.82116,24.4401,9.40344,-0.945218,-16.004
