JuanDHNZ/ProyectoFinalCD/preprocessing/sports_trials_csv/13_07.csv
root1,root2,root3,root4,root5,root6,lowerback1,lowerback2,lowerback3,upperback1,upperback2,upperback3,thorax1,thorax2,thorax3,lowerneck1,lowerneck2,lowerneck3,upperneck1,upperneck2,upperneck3,head1,head2,head3,rclavicle1,rclavicle2,rhumerus1,rhumerus2,rhumerus3,rradius1,rwrist1,rhand1,rhand2,rfingers1,rthumb1,rthumb2,lclavicle1,lclavicle2,lhumerus1,lhumerus2,lhumerus3,lradius1,lwrist1,lhand1,lhand2,lfingers1,lthumb1,lthumb2,rfemur1,rfemur2,rfemur3,rtibia1,rfoot1,rfoot2,rtoes1,lfemur1,lfemur2,lfemur3,ltibia1,lfoot1,lfoot2,ltoes1
1.94721,18.89,-4.09208,-2.8732,-12.2205,1.85222,6.0771,0.60262,-3.50747,0.988263,0.527983,-1.56859,-2.40561,0.284245,0.310129,-8.77689,-4.7536,-9.37701,13.0304,-5.88313,5.44691,5.82289,-2.95155,2.78458,1.56294e-14,1.35174e-14,-33.2498,-7.83301,-76.174,44.5534,-4.99083,-46.3986,18.2188,7.12502,-19.129,-10.8605,1.56294e-14,1.35174e-14,-34.4601,23.1236,70.2445,33.955,-4.01934,-23.8638,23.474,7.12502,2.60889,53.4378,4.05429,20.9079,16.7778,12.7751,-12.8442,-20.9442,-8.27539,0,0,0,0,0,0,0
1.94686,18.8898,-4.09166,-2.90924,-12.1587,1.95868,6.0674,0.594171,-3.62847,0.989988,0.508949,-1.5839,-2.39871,0.275551,0.363708,-8.81931,-4.7486,-9.36043,13.1103,-5.86759,5.38085,5.85174,-2.94777,2.76122,4.2366e-14,-1.98785e-15,-33.2089,-7.55125,-76.2556,44.9261,-5.02555,-46.2253,18.2009,7.12502,-18.9624,-10.8948,4.2366e-14,-1.98785e-15,-34.2681,22.6826,70.6377,34.3641,-3.47655,-23.8238,24.2159,7.12502,2.64755,54.1792,4.02906,20.8802,16.6643,12.9147,-13.0707,-20.8826,-7.95911,0,0,0,0,0,0,0
1.94686,18.8909,-4.09056,-2.91344,-12.13,1.99673,6.03921,0.589612,-3.67575,0.982032,0.500968,-1.58566,-2.39128,0.271933,0.389205,-8.82822,-4.73152,-9.34807,13.1654,-5.84216,5.34709,5.8673,-2.93753,2.75045,-1.6437e-14,-1.59028e-15,-33.1789,-7.20587,-76.3755,45.3069,-5.10178,-46.3043,18.1456,7.12502,-19.0384,-10.9426,-1.6437e-14,-1.59028e-15,-34.1021,22.1331,71.0007,34.7585,-3.08243,-23.92,24.3897,7.12502,2.55458,54.3541,4.00974,20.8508,16.6171,12.9621,-13.074,-20.8432,-8.06916,0,0,0,0,0,0,0
1.94741,18.8917,-4.09161,-2.89505,-12.0862,1.97304,6.03507,0.58258,-3.64443,0.952032,0.492956,-1.58415,-2.41942,0.268413,0.373709,-8.73812,-4.72484,-9.32712,13.1507,-5.8427,5.33644,5.84631,-2.93888,2.74547,-3.3048e-15,3.57812e-15,-33.1463,-6.90655,-76.5126,45.6742,-5.2598,-46.54,17.8941,7.12502,-19.265,-11.1717,-3.3048e-15,3.57812e-15,-33.932,21.4233,71.3806,35.0931,-2.60439,-24.0232,24.083,7.12502,2.45492,54.0487,3.96311,20.8316,16.6431,13.016,-13.0325,-20.8948,-8.14626,0,0,0,0,0,0,0
1.94737,18.8916,-4.09359,-2.88819,-12.0495,1.96055,6.02657,0.580828,-3.62224,0.936481,0.491748,-1.59397,-2.43041,0.267911,0.351247,-8.67948,-4.73821,-9.27861,13.1492,-5.86899,5.30603,5.83541,-2.95236,2.72684,-2.21272e-14,2.14687e-14,-33.1002,-6.6289,-76.6476,46.0543,-5.37192,-46.5538,17.5931,7.12502,-19.2783,-11.4713,-2.21272e-14,2.14687e-14,-33.7539,20.8888,71.6961,35.4425,-2.39591,-23.9537,23.6783,7.12502,2.52211,53.6431,3.95687,20.8415,16.6683,13.0227,-13.0799,-20.9351,-7.99166,0,0,0,0,0,0,0
1.94696,18.8913,-4.09358,-2.91102,-12.0513,1.96169,6.01553,0.592641,-3.61765,0.941884,0.50817,-1.60612,-2.41906,0.275792,0.334972,-8.7535,-4.74134,-9.17662,13.2628,-5.87214,5.21982,5.87833,-2.95471,2.68094,-1.38031e-14,8.34896e-15,-33.0669,-6.34983,-76.7615,46.4423,-5.33949,-46.4457,17.7297,7.12502,-19.1743,-11.3451,-1.38031e-14,8.34896e-15,-33.567,20.5367,71.9686,35.8257,-2.36757,-23.7802,23.9149,7.12502,2.68962,53.8777,4.00457,20.7978,16.6722,12.9809,-13.0859,-20.8781,-8.03624,0,0,0,0,0,0,0
1.94598,18.8909,-4.09495,-2.9163,-12.0402,1.91037,5.98567,0.60532,-3.59476,0.955098,0.52947,-1.572,-2.38952,0.285836,0.355987,-8.85862,-4.72427,-9.12102,13.4128,-5.84092,5.14503,5.93735,-2.94169,2.64848,3.64646e-14,-7.95139e-16,-32.9982,-6.1063,-76.8052,46.7633,-5.26191,-46.34,18.1205,7.12502,-19.0727,-10.9644,3.64646e-14,-7.95139e-16,-33.32,20.2268,72.3122,36.1242,-2.32886,-23.6393,24.168,7.12502,2.8257,54.129,4.04014,20.7673,16.7353,12.9341,-12.9663,-20.89,-8.37298,0,0,0,0,0,0,0
1.94501,18.8902,-4.09642,-2.88759,-11.9982,1.84662,5.90818,0.609134,-3.56667,0.961028,0.541974,-1.5198,-2.34072,0.291374,0.393854,-8.89526,-4.70209,-9.19625,13.5211,-5.81124,5.22101,5.97998,-2.92607,2.68657,3.6713e-14,-1.47101e-14,-32.9275,-5.83997,-76.8201,47.0906,-5.1949,-46.1874,18.2876,7.12502,-18.926,-10.8116,3.6713e-14,-1.47101e-14,-33.0434,19.8766,72.6977,36.3852,-2.36677,-23.4891,24.4385,7.12502,2.97076,54.3976,4.04413,20.7644,16.8075,12.8944,-12.8736,-20.9598,-8.47868,0,0,0,0,0,0,0
1.94536,18.8897,-4.09437,-2.90782,-11.9733,1.87121,5.85301,0.612792,-3.58794,0.969105,0.548833,-1.51029,-2.30205,0.294403,0.415622,-8.92824,-4.6703,-9.28505,13.6021,-5.7766,5.36598,6.01522,-2.90366,2.7496,8.3738e-15,-1.98785e-15,-32.8879,-5.519,-76.879,47.486,-5.13893,-46.1742,18.2647,7.12502,-18.9133,-10.8357,8.3738e-15,-1.98785e-15,-32.8349,19.484,73.0276,36.7344,-2.42325,-23.3554,24.9294,7.12502,3.09986,54.8866,4.10437,20.732,16.7783,12.8388,-12.9287,-20.9318,-8.17484,0,0,0,0,0,0,0
1.94549,18.8895,-4.09344,-2.977,-11.962,1.89775,5.8591,0.618168,-3.60653,1.0029,0.555497,-1.51323,-2.27097,0.297072,0.422658,-9.04703,-4.63681,-9.26847,13.6966,-5.7313,5.40354,6.06236,-2.87704,2.76065,-4.38072e-14,1.47101e-14,-32.7666,-5.25906,-76.9582,47.7986,-5.09114,-46.0912,18.3407,7.12502,-18.8334,-10.7676,-4.38072e-14,1.47101e-14,-32.6263,19.0182,73.3596,37.1081,-2.31651,-23.3734,25.3395,7.12502,3.08254,55.297,4.21487,20.7391,16.7737,12.7807,-12.9714,-20.9226,-8.01002,0,0,0,0,0,0,0
1.9445,18.8896,-4.0949,-2.99791,-11.9271,1.85748,5.89656,0.611626,-3.58745,1.00373,0.546708,-1.49147,-2.29077,0.292894,0.434707,-9.16388,-4.61406,-9.22118,13.8185,-5.69945,5.39494,6.11673,-2.85895,2.75082,1.881e-14,-1.47101e-14,-32.6224,-5.0414,-77.0084,47.9891,-5.04641,-45.7443,18.8696,7.12502,-18.4997,-10.2707,1.881e-14,-1.47101e-14,-32.4584,18.3448,73.7542,37.4978,-2.05949,-23.5143,25.4364,7.12502,2.94645,55.3958,4.27037,20.7613,16.8432,12.7308,-12.9567,-20.9924,-7.99451,0,0,0,0,0,0,0
1.94393,18.8898,-4.09558,-2.98641,-11.8777,1.81475,5.92683,0.603272,-3.56579,0.961508,0.534818,-1.4664,-2.35089,0.288161,0.448746,-9.12902,-4.61512,-9.21605,13.8816,-5.711,5.41843,6.13199,-2.86376,2.7571,-1.10325e-14,-1.39149e-14,-32.587,-4.73603,-77.0651,48.3133,-5.09853,-45.7328,19.0545,7.12502,-18.4887,-10.0869,-1.10325e-14,-1.39149e-14,-32.344,17.5859,74.15,37.8647,-1.81454,-23.6688,25.5093,7.12502,2.7972,55.4707,4.29475,20.7509,16.8966,12.6824,-12.9526,-21.0469,-7.89292,0,0,0,0,0,0,0
1.94332,18.8884,-4.09547,-3.02813,-11.8587,1.77266,5.96562,0.619442,-3.52159,0.927979,0.556311,-1.46245,-2.40753,0.299628,0.425735,-8.95408,-4.63818,-9.20184,13.8687,-5.76611,5.45267,6.10245,-2.89016,2.76416,9.93923e-17,1.15295e-14,-32.6725,-4.38182,-77.1792,48.9051,-5.26899,-46.1292,18.185,7.12502,-18.8699,-10.9197,9.93923e-17,1.15295e-14,-32.2166,16.855,74.5051,38.1966,-1.59166,-23.6789,25.5635,7.12502,2.78749,55.525,4.38912,20.7603,16.9695,12.6395,-12.9613,-21.0581,-7.74992,0,0,0,0,0,0,0
1.94226,18.887,-4.09613,-3.05918,-11.8689,1.75271,5.99084,0.642291,-3.50103,0.887205,0.585324,-1.46992,-2.4644,0.315027,0.403611,-8.77971,-4.65337,-9.16178,13.855,-5.81226,5.47472,6.07094,-2.9118,2.764,1.62755e-15,7.95139e-15,-32.7861,-4.02066,-77.3045,49.4831,-5.44735,-46.4355,17.2989,7.12502,-19.1646,-11.7768,1.62755e-15,7.95139e-15,-32.0953,16.1328,74.8436,38.5294,-1.4074,-23.6348,25.5368,7.12502,2.83007,55.4977,4.44379,20.7512,17.0072,12.617,-12.9543,-21.0329,-7.76003,0,0,0,0,0,0,0
1.94144,18.8872,-4.09652,-3.03942,-11.8641,1.7562,5.96761,0.650741,-3.52308,0.844817,0.595259,-1.46048,-2.49581,0.321058,0.424778,-8.68467,-4.66799,-9.13066,13.8596,-5.8437,5.46029,6.05703,-2.92818,2.7534,7.86442e-15,-5.1684e-15,-32.8187,-3.64357,-77.3837,49.8972,-5.51902,-46.5041,16.8267,7.12502,-19.2305,-12.2426,7.86442e-15,-5.1684e-15,-31.9294,15.4378,75.2095,38.8181,-1.32417,-23.6735,25.8823,7.12502,2.79264,55.8438,4.41783,20.6963,16.993,12.6156,-12.8942,-20.9923,-7.98682,0,0,0,0,0,0,0
1.94096,18.8877,-4.09516,-3.02222,-11.849,1.7667,5.90559,0.656552,-3.55303,0.839641,0.604493,-1.44355,-2.46726,0.325688,0.458855,-8.68672,-4.70482,-9.12574,13.8787,-5.89653,5.46857,6.06752,-2.95308,2.75043,1.51573e-15,2.10712e-14,-32.7506,-3.29326,-77.446,50.2433,-5.52535,-46.5474,16.6427,7.12502,-19.2722,-12.4223,1.51573e-15,2.10712e-14,-31.7197,14.7047,75.6193,39.1017,-1.3838,-23.6818,26.1655,7.12502,2.78464,56.1271,4.39414,20.6656,16.9747,12.6326,-12.8763,-21.005,-8.32137,0,0,0,0,0,0,0
1.94069,18.8877,-4.09413,-3.00741,-11.8382,1.77999,5.82228,0.658528,-3.56817,0.858158,0.61095,-1.44277,-2.40194,0.327991,0.468659,-8.73979,-4.74034,-9.13002,13.902,-5.95012,5.53096,6.08995,-2.97409,2.76517,1.19271e-15,1.86858e-14,-32.6498,-2.99884,-77.529,50.597,-5.61746,-46.5014,16.6815,7.12502,-19.2279,-12.388,1.19271e-15,1.86858e-14,-31.5178,13.8023,76.055,39.3943,-1.46358,-23.6855,26.2876,7.12502,2.78114,56.2492,4.37677,20.6796,16.9544,12.6388,-12.9271,-21.0741,-8.39312,0,0,0,0,0,0,0
1.94052,18.8874,-4.09364,-3.00756,-11.8093,1.79767,5.75825,0.644807,-3.58339,0.872274,0.595249,-1.44883,-2.35111,0.319459,0.472961,-8.72981,-4.7441,-9.07718,13.8744,-5.96514,5.54407,6.07928,-2.97769,2.75972,4.5472e-15,-1.31198e-14,-32.5706,-2.71772,-77.6098,50.9966,-5.76938,-46.2899,16.3939,7.12502,-19.0245,-12.6957,4.5472e-15,-1.31198e-14,-31.38,12.8329,76.4863,39.7797,-1.19075,-23.7004,26.7243,7.12502,2.76667,56.6861,4.38981,20.6858,16.9377,12.627,-12.9428,-21.108,-8.07009,0,0,0,0,0,0,0
1.94009,18.8875,-4.09234,-3.01426,-11.7755,1.76972,5.71091,0.632029,-3.55236,0.871408,0.582844,-1.43807,-2.32489,0.312755,0.468145,-8.6581,-4.73231,-9.02477,13.8434,-5.96813,5.58113,6.05662,-2.97486,2.76436,-1.45858e-14,-3.4191e-14,-32.528,-2.44566,-77.6561,51.3938,-5.89181,-46.1618,16.472,7.12502,-18.9013,-12.6296,-1.45858e-14,-3.4191e-14,-31.3166,11.8848,76.913,40.2617,-0.641289,-23.6982,27.0967,7.12502,2.76886,57.0584,4.42066,20.7006,16.9848,12.6211,-12.9489,-21.1601,-7.83306,0,0,0,0,0,0,0
1.93929,18.8867,-4.09215,-3.05821,-11.756,1.75403,5.72983,0.637233,-3.55275,0.862299,0.589124,-1.41599,-2.34532,0.316345,0.490338,-8.61994,-4.72647,-9.06426,13.8747,-5.97931,5.71011,6.06562,-2.97407,2.81178,1.09704e-14,-1.59028e-15,-32.4932,-2.14535,-77.6988,51.7611,-6.07629,-45.6243,18.3327,7.12502,-18.3843,-10.8186,1.09704e-14,-1.59028e-15,-31.2581,10.898,77.3633,40.6428,-0.26907,-23.949,26.1989,7.12502,2.52663,56.1636,4.48729,20.7002,17.0273,12.6115,-12.9779,-21.1962,-7.76286,0,0,0,0,0,0,0
1.93887,18.8856,-4.09213,-3.10217,-11.7436,1.80061,5.75688,0.642685,-3.63598,0.853523,0.58997,-1.40049,-2.37052,0.317934,0.552448,-8.62907,-4.72694,-9.04442,13.891,-5.98367,5.7159,6.07213,-2.97472,2.80983,1.69091e-14,7.95139e-15,-32.4078,-1.78121,-77.7784,52.1051,-6.29321,-45.2724,19.5731,7.12502,-18.0458,-9.60972,1.69091e-14,7.95139e-15,-31.2038,9.89783,77.8294,41.0072,0.000362867,-24.4679,24.592,7.12502,2.02549,54.5622,4.53547,20.646,16.9828,12.6121,-13,-21.103,-7.72114,0,0,0,0,0,0,0
1.93785,18.8859,-4.09127,-3.10235,-11.7438,1.78939,5.72586,0.64492,-3.64868,0.852256,0.594048,-1.38757,-2.35489,0.319927,0.572849,-8.63801,-4.73754,-8.94643,13.888,-6.00326,5.66141,6.06947,-2.98289,2.77461,1.08835e-14,3.97569e-15,-32.339,-1.48997,-77.8558,52.4588,-6.34851,-45.938,17.9914,7.12502,-18.686,-11.1311,1.08835e-14,3.97569e-15,-31.1393,8.85704,78.2776,41.4536,0.305269,-24.6377,25.2634,7.12502,1.86144,55.235,4.53397,20.6717,17.0035,12.6388,-13.0998,-21.0767,-7.82691,0,0,0,0,0,0,0
1.93591,18.8862,-4.09191,-3.12277,-11.7414,1.805,5.69409,0.650506,-3.69321,0.863425,0.600749,-1.38561,-2.32632,0.32311,0.59968,-8.58153,-4.74567,-8.89317,13.8279,-6.0308,5.6988,6.04217,-2.99149,2.77672,1.30949e-14,7.95139e-15,-32.3235,-1.26222,-77.9113,52.8676,-6.3074,-45.8013,17.444,7.12502,-18.5546,-11.6911,1.30949e-14,7.95139e-15,-31.0683,7.79232,78.7092,41.9496,0.568919,-24.2777,27.5348,7.12502,2.2092,57.5031,4.55198,20.7187,17.0075,12.6457,-13.2007,-21.1603,-8.25473,0,0,0,0,0,0,0
1.93482,18.886,-4.09248,-3.14255,-11.7393,1.84093,5.65645,0.658725,-3.74905,0.869281,0.610269,-1.38984,-2.30012,0.327838,0.626263,-8.51042,-4.758,-8.8648,13.7534,-6.06342,5.75164,6.00947,-3.00296,2.78766,-7.1811e-15,1.19271e-15,-32.3327,-1.01231,-77.9817,53.3152,-6.3214,-44.6838,19.2509,7.12502,-17.4794,-9.98322,-7.1811e-15,1.19271e-15,-31.0308,6.67433,79.1439,42.5067,0.896393,-24.5009,27.4381,7.12502,1.99364,57.4086,4.55483,20.6861,16.9696,12.6587,-13.2168,-21.1634,-8.55918,0,0,0,0,0,0,0
1.93406,18.8851,-4.09049,-3.16803,-11.7603,1.75266,5.65011,0.676898,-3.65896,0.881447,0.641123,-1.37337,-2.28442,0.34222,0.590627,-8.59004,-4.79099,-8.80797,13.852,-6.12075,5.79578,6.05796,-3.0239,2.78569,-4.09869e-14,8.34896e-15,-32.3154,-0.741076,-78.0639,53.7063,-6.39202,-44.208,20.3446,7.12502,-17.0215,-8.92968,-4.09869e-14,8.34896e-15,-30.9868,5.46768,79.6081,43.05,1.25564,-25.4059,25.073,7.12502,1.11952,55.0498,4.60258,20.686,17.0849,12.6679,-13.1788,-21.126,-8.28926,0,0,0,0,0,0,0
1.93703,18.8852,-4.08963,-3.12115,-11.6788,1.8524,5.56867,0.656243,-3.72213,0.870043,0.61279,-1.4063,-2.24988,0.328125,0.595006,-8.72548,-4.80939,-8.77958,13.9984,-6.15445,5.85951,6.13091,-3.03255,2.7955,-7.7526e-15,3.18055e-15,-32.2401,-0.403533,-78.1309,54.0554,-6.47941,-44.3348,20.1938,7.12502,-17.1435,-9.06984,-7.7526e-15,3.18055e-15,-30.9369,4.33007,80.1,43.5544,1.60692,-25.961,23.3588,7.12502,0.583409,53.3377,4.53362,20.5428,16.9208,12.6762,-13.0705,-21.0159,-7.99339,0,0,0,0,0,0,0
1.93702,18.8852,-4.09116,-3.12236,-11.6095,1.85084,5.56427,0.632743,-3.71826,0.874711,0.582215,-1.40373,-2.24143,0.312715,0.597869,-8.74065,-4.80609,-8.79512,14.0239,-6.16129,5.94693,6.14512,-3.03024,2.82508,9.26834e-15,2.78299e-15,-32.1912,-0.0711292,-78.2061,54.4737,-6.58814,-44.4515,19.3837,7.12502,-17.2558,-9.8702,9.26834e-15,2.78299e-15,-30.8728,3.22783,80.5322,44.0186,1.81823,-26.2475,23.1801,7.12502,0.306728,53.1597,4.54205,20.5137,16.9306,12.6803,-12.9943,-21.0053,-7.8855,0,0,0,0,0,0,0
1.93615,18.8853,-4.09233,-3.15646,-11.5848,1.86357,5.58778,0.635577,-3.7394,0.873472,0.583194,-1.41359,-2.256,0.313542,0.599227,-8.69897,-4.80682,-8.74473,14.0088,-6.17728,5.97474,6.13349,-3.03411,2.82526,-1.32813e-14,-2.18663e-14,-32.1826,0.175034,-78.3019,54.9135,-6.72647,-44.4917,18.7432,7.12502,-17.2945,-10.5073,-1.32813e-14,-2.18663e-14,-30.8246,2.0774,80.9228,44.502,1.89682,-26.3414,23.3151,7.12502,0.215995,53.2947,4.56391,20.5437,16.9448,12.7195,-13.031,-21.0358,-7.83673,0,0,0,0,0,0,0
1.9356,18.8852,-4.09252,-3.1537,-11.5711,1.89777,5.57547,0.637955,-3.79236,0.856184,0.583156,-1.41713,-2.26744,0.314275,0.625193,-8.73881,-4.81216,-8.66668,14.063,-6.19171,5.95242,6.15526,-3.03817,2.80329,-2.27111e-14,1.39149e-14,-32.1369,0.394381,-78.3889,55.2886,-6.85672,-44.693,18.3317,7.12502,-17.4882,-10.9016,-2.27111e-14,1.39149e-14,-30.8411,1.06769,81.3223,45.0825,1.97165,-25.8659,22.7232,7.12502,0.675245,52.7018,4.5429,20.5105,16.9009,12.7442,-13.0701,-21.0213,-7.96661,0,0,0,0,0,0,0
1.93537,18.8853,-4.09219,-3.10828,-11.5434,1.92232,5.52044,0.621252,-3.83863,0.832891,0.560777,-1.39973,-2.26041,0.303733,0.671052,-8.83076,-4.82045,-8.63599,14.1571,-6.20118,5.93487,6.20002,-3.04114,2.78983,2.6339e-14,-1.15295e-14,-32.0586,0.698197,-78.4502,55.6271,-7.04782,-44.6408,17.9575,7.12502,-17.438,-11.2803,2.6339e-14,-1.15295e-14,-30.9022,0.255105,81.6998,45.7423,1.88489,-24.6607,22.7358,7.12502,1.83929,52.7077,4.47471,20.4208,16.8353,12.7754,-13.1248,-20.9354,-8.0689,0,0,0,0,0,0,0
1.93531,18.886,-4.09346,-3.07845,-11.5101,1.91809,5.50414,0.604939,-3.8556,0.81391,0.539142,-1.36837,-2.27044,0.293598,0.714467,-8.92272,-4.83269,-8.6056,14.2504,-6.20894,5.8736,6.24322,-3.04646,2.76253,-8.83349e-15,-1.03368e-14,-31.9965,1.05876,-78.4953,55.979,-7.32855,-44.3519,17.9109,7.12502,-17.16,-11.3514,-8.83349e-15,-1.03368e-14,-30.9647,-0.605974,82.1064,46.4446,1.97896,-23.6862,23.6189,7.12502,2.78037,53.5806,4.42575,20.3869,16.8264,12.8139,-13.162,-20.9311,-8.07467,0,0,0,0,0,0,0
1.93479,18.8862,-4.09572,-3.10322,-11.5079,1.89202,5.55082,0.601009,-3.85488,0.801394,0.532066,-1.33098,-2.30952,0.290952,0.752567,-9.02462,-4.83257,-8.59995,14.4043,-6.20084,5.83151,6.30754,-3.04415,2.74659,-8.44835e-16,2.10712e-14,-31.9528,1.42268,-78.5632,56.3679,-7.6389,-44.5852,17.766,7.12502,-17.3845,-11.4766,-8.44835e-16,2.10712e-14,-31.0245,-1.53012,82.5321,47.1601,2.37979,-23.3954,23.8121,7.12502,3.06127,53.7699,4.4442,20.4033,16.8778,12.8321,-13.1318,-20.9849,-8.11396,0,0,0,0,0,0,0
1.9346,18.8857,-4.09677,-3.13632,-11.5068,1.92594,5.54499,0.593616,-3.90629,0.807143,0.519942,-1.31862,-2.30039,0.285171,0.795065,-9.12003,-4.82184,-8.64156,14.5749,-6.18732,5.88224,6.38001,-3.0351,2.76884,4.01297e-15,-1.66979e-14,-31.8773,1.80207,-78.6623,56.7756,-7.9816,-44.8465,17.2681,7.12502,-17.6359,-11.9521,4.01297e-15,-1.66979e-14,-31.0019,-2.32519,82.9136,47.7789,2.73446,-23.1214,23.5084,7.12502,3.32591,53.4622,4.4791,20.3936,16.8479,12.8136,-13.0964,-20.9665,-8.04106,0,0,0,0,0,0,0
1.93487,18.8857,-4.09859,-3.10786,-11.4754,1.91128,5.47678,0.575393,-3.89322,0.810532,0.500634,-1.30368,-2.25792,0.274836,0.805211,-9.16281,-4.81865,-8.68287,14.6843,-6.18927,5.95243,6.42575,-3.03272,2.79705,-1.53437e-14,5.1684e-15,-31.7641,2.15541,-78.7635,57.1468,-8.34629,-44.7191,16.7113,7.12502,-17.5133,-12.5199,-1.53437e-14,5.1684e-15,-30.88,-3.08837,83.2953,48.278,2.96139,-23.2945,23.4699,7.12502,3.15871,53.4262,4.46807,20.3836,16.851,12.7759,-13.1071,-20.9577,-7.87746,0,0,0,0,0,0,0
1.93506,18.8867,-4.10083,-3.06518,-11.4567,1.83253,5.43669,0.556844,-3.8151,0.786302,0.482932,-1.26618,-2.25938,0.265884,0.801626,-9.11297,-4.81829,-8.76786,14.7642,-6.19795,6.03975,6.4486,-3.03634,2.83919,1.56543e-15,-5.96354e-15,-31.7167,2.53019,-78.8603,57.5552,-8.73795,-44.536,16.0097,7.12502,-17.3371,-13.237,1.56543e-15,-5.96354e-15,-30.8858,-4.00926,83.7535,48.9523,3.48975,-24.0264,23.6278,7.12502,2.45185,53.5934,4.44573,20.3935,16.9301,12.7494,-13.1068,-21.0187,-7.88107,0,0,0,0,0,0,0
1.93479,18.8872,-4.10299,-3.07878,-11.4538,1.79834,5.4428,0.554058,-3.78048,0.769374,0.480781,-1.25313,-2.27999,0.265102,0.795682,-9.09446,-4.82246,-8.83593,14.9021,-6.21748,6.13842,6.49595,-3.04309,2.88066,-1.01256e-15,-1.63003e-14,-31.709,2.87171,-78.9648,57.9816,-9.05971,-44.3764,15.152,7.12502,-17.1835,-14.1082,-1.01256e-15,-1.63003e-14,-30.9882,-5.05861,84.2451,49.8232,4.47538,-24.4726,23.3334,7.12502,2.02095,53.3036,4.47258,20.4223,16.9825,12.7407,-13.1003,-21.086,-7.89179,0,0,0,0,0,0,0
1.93511,18.8859,-4.10369,-3.12754,-11.442,1.84171,5.43393,0.55377,-3.81243,0.771859,0.478583,-1.27066,-2.27249,0.26405,0.795772,-9.19945,-4.83869,-8.84785,15.1644,-6.25081,6.19688,6.60254,-3.05452,2.89633,-1.02374e-14,-1.78906e-14,-31.6291,3.17301,-79.0805,58.3111,-9.31107,-44.3555,14.5687,7.12502,-17.1634,-14.6933,-1.02374e-14,-1.78906e-14,-31.0142,-5.93969,84.6315,50.6435,4.88862,-24.0185,23.0221,7.12502,2.4595,52.9877,4.5143,20.4143,16.9465,12.7629,-13.1516,-21.0595,-7.67382,0,0,0,0,0,0,0
1.93662,18.8847,-4.10333,-3.17395,-11.4061,1.94281,5.41682,0.536682,-3.89565,0.774043,0.451283,-1.29395,-2.25997,0.250808,0.820517,-9.3389,-4.86264,-8.87499,15.4626,-6.2893,6.24342,6.72756,-3.06956,2.90953,-2.47549e-14,-1.35174e-14,-31.5562,3.56537,-79.208,58.6927,-9.62585,-44.4092,14.0651,7.12502,-17.2151,-15.1923,-2.47549e-14,-1.35174e-14,-31.0134,-6.64321,84.9244,51.4861,4.72346,-23.3438,23.4754,7.12502,3.11107,53.4324,4.52021,20.3507,16.8292,12.8235,-13.1865,-21.0221,-7.58535,0,0,0,0,0,0,0
1.93768,18.8852,-4.10466,-3.18927,-11.3608,2.02782,5.35951,0.516064,-3.95558,0.806743,0.423656,-1.3253,-2.19319,0.235955,0.824424,-9.47161,-4.88973,-8.90606,15.6826,-6.33467,6.32486,6.82847,-3.08504,2.93418,3.13707e-14,5.56597e-15,-31.4319,3.95706,-79.3532,59.1102,-9.90119,-44.3123,13.1333,7.12502,-17.1218,-16.1323,3.13707e-14,5.56597e-15,-30.9919,-7.46212,85.2402,52.4389,4.85907,-23.1625,23.9576,7.12502,3.28617,53.912,4.49138,20.3025,16.7277,12.8771,-13.1716,-21.0523,-7.77323,0,0,0,0,0,0,0
1.93795,18.8858,-4.10663,-3.1752,-11.3357,2.06113,5.2587,0.497747,-3.96551,0.85682,0.405055,-1.35592,-2.08419,0.224334,0.800831,-9.5773,-4.91819,-8.92023,15.8826,-6.38705,6.4097,6.91855,-3.10293,2.95709,1.81515e-14,4.77083e-15,-31.1963,4.26903,-79.5148,59.4217,-10.0922,-44.11,12.4553,7.12502,-16.9271,-16.827,1.81515e-14,4.77083e-15,-30.9025,-8.31624,85.5649,53.38,5.25394,-22.9745,24.1585,7.12502,3.46774,54.11,4.4372,20.3127,16.6907,12.9221,-13.1853,-21.0967,-7.84924,0,0,0,0,0,0,0
1.93778,18.8856,-4.10876,-3.16746,-11.3431,1.97367,5.23921,0.490561,-3.87229,0.860455,0.402235,-1.34383,-2.06888,0.222066,0.761502,-9.65964,-4.94348,-8.94203,16.2056,-6.44194,6.49066,7.04478,-3.12357,2.9805,-1.27968e-15,-2.78299e-15,-31.0684,4.60673,-79.6761,59.7588,-10.3198,-44.1179,12.3574,7.12502,-16.9347,-16.9243,-1.27968e-15,-2.78299e-15,-30.8648,-9.11297,85.9106,54.356,5.74503,-22.6705,24.5201,7.12502,3.76132,54.4667,4.42799,20.3707,16.8085,12.9344,-13.168,-21.139,-7.77385,0,0,0,0,0,0,0
1.93952,18.8867,-4.10835,-3.08939,-11.3023,2.02051,5.07748,0.474098,-3.88042,0.848642,0.387403,-1.37465,-1.98979,0.21358,0.736456,-9.78641,-4.97489,-9.00435,16.5877,-6.50911,6.63063,7.20276,-3.14673,3.02809,2.13818e-14,-9.54166e-15,-30.9737,5.03115,-79.857,60.1669,-10.6082,-44.5042,11.8023,7.12502,-17.3065,-17.4472,2.13818e-14,-9.54166e-15,-30.8277,-9.92266,86.2723,55.3875,6.1934,-22.61,25.0277,7.12502,3.81973,54.9732,4.33086,20.2447,16.6962,12.9325,-13.1082,-21.0682,-7.85761,0,0,0,0,0,0,0
1.93972,18.8865,-4.10572,-3.09297,-11.3213,2.03206,4.94092,0.467641,-3.86844,0.8919,0.387787,-1.39105,-1.86865,0.211304,0.714059,-9.90092,-5.0153,-9.05702,16.9107,-6.58221,6.73324,7.33921,-3.17501,3.0615,-2.23633e-16,-7.55382e-15,-30.7809,5.49324,-80.0439,60.5588,-10.9002,-44.4058,12.1971,7.12502,-17.2118,-17.0606,-2.23633e-16,-7.55382e-15,-30.6705,-10.7265,86.5876,56.3383,6.58461,-22.9692,24.4551,7.12502,3.47285,54.4066,4.34024,20.2017,16.6691,12.9247,-13.0967,-21.0246,-7.96564,0,0,0,0,0,0,0
1.93945,18.8857,-4.10532,-3.12627,-11.348,2.02845,4.90254,0.458232,-3.87712,0.907511,0.377488,-1.38534,-1.83077,0.205472,0.725798,-9.98904,-5.0588,-9.08588,17.2573,-6.65516,6.768,7.47624,-3.20791,3.06932,-2.09966e-15,1.27222e-14,-30.6197,5.93955,-80.1912,60.9385,-11.105,-43.5129,14.3671,7.12502,-16.3523,-14.9635,-2.09966e-15,1.27222e-14,-30.527,-11.4852,86.904,57.3214,7.03396,-23.4178,22.9288,7.12502,3.03965,52.8869,4.3893,20.2462,16.6886,12.9128,-13.1512,-21.0274,-7.89632,0,0,0,0,0,0,0
1.94028,18.885,-4.10454,-3.17406,-11.3754,2.03868,4.89119,0.464005,-3.87215,0.907198,0.385635,-1.40287,-1.82493,0.20937,0.704545,-10.0427,-5.11122,-9.06502,17.638,-6.74929,6.77504,7.61788,-3.2508,3.05833,-1.26912e-14,3.18055e-15,-30.5577,6.3512,-80.3582,61.3721,-11.2984,-42.9386,15.5487,7.12502,-15.7992,-13.8266,-1.26912e-14,3.18055e-15,-30.4306,-12.2453,87.2131,58.4162,7.58208,-23.4222,22.5515,7.12502,3.03534,52.5096,4.43245,20.2629,16.6906,12.9288,-13.1866,-21.0128,-7.77294,0,0,0,0,0,0,0
1.94093,18.8837,-4.10266,-3.25192,-11.4171,1.97753,4.91622,0.47899,-3.78042,0.903837,0.408578,-1.41913,-1.84261,0.220567,0.634848,-9.99953,-5.15225,-9.04319,18.0064,-6.84705,6.8354,7.74064,-3.29267,3.0665,5.54361e-14,-1.15295e-14,-30.5314,6.75214,-80.5727,61.8277,-11.5458,-42.8848,15.383,7.12502,-15.7474,-13.9964,5.54361e-14,-1.15295e-14,-30.3196,-13.0158,87.4711,59.5321,8.27374,-23.077,23.2888,7.12502,3.36872,53.242,4.52042,20.255,16.7881,12.9414,-13.1579,-20.9808,-7.86959,0,0,0,0,0,0,0
1.94132,18.8838,-4.10366,-3.25239,-11.3903,2.09413,4.89845,0.468901,-3.90994,0.817299,0.385438,-1.46313,-1.92144,0.211828,0.66319,-9.82899,-5.15087,-9.11945,18.3513,-6.90975,7.04541,7.83878,-3.31406,3.14749,-7.4917e-15,-1.27222e-14,-30.5273,7.17612,-80.7876,62.2384,-11.7335,-42.4078,15.3576,7.12502,-15.288,-14.0574,-7.4917e-15,-1.27222e-14,-30.315,-13.7152,87.7583,60.6805,8.88462,-22.7016,24.3841,7.12502,3.73128,54.3311,4.4882,20.1664,16.6326,12.9413,-13.0895,-20.9227,-8.16737,0,0,0,0,0,0,0
1.94068,18.884,-4.10655,-3.29263,-11.3797,2.05989,5.00337,0.46162,-3.91825,0.729383,0.366948,-1.45048,-2.07014,0.206007,0.680867,-9.66188,-5.16588,-9.15217,18.714,-6.98203,7.14292,7.93931,-3.34682,3.18298,1.95057e-15,-1.07344e-14,-30.538,7.64311,-80.9827,62.6572,-11.9499,-41.5429,15.6035,7.12502,-14.4548,-13.873,1.95057e-15,-1.07344e-14,-30.3659,-14.401,88.1103,61.8403,9.41225,-22.4213,25.6664,7.12502,4.00197,55.6085,4.54656,20.1686,16.6912,12.9298,-13.0434,-20.9253,-8.28747,0,0,0,0,0,0,0
1.94047,18.884,-4.10892,-3.32166,-11.3573,2.03533,5.05404,0.454973,-3.92401,0.691726,0.354154,-1.435,-2.13693,0.201202,0.700349,-9.66506,-5.25286,-9.12483,19.15,-7.11354,7.04177,8.09199,-3.4171,3.13196,-4.2074e-14,8.34896e-15,-30.4492,8.10697,-81.1366,63.0661,-12.0473,-41.286,15.6686,7.12502,-14.2073,-13.8255,-4.2074e-14,8.34896e-15,-30.2794,-15.0745,88.4604,63.007,10.0098,-21.8788,26.1248,7.12502,4.5258,56.0564,4.58733,20.1844,16.7379,12.9362,-13.0973,-20.9123,-8.14799,0,0,0,0,0,0,0
1.94079,18.884,-4.11294,-3.33182,-11.3463,2.01108,5.0635,0.458009,-3.91285,0.658316,0.357572,-1.41979,-2.17683,0.203891,0.709275,-9.68748,-5.32076,-9.1753,19.6325,-7.23181,7.0636,8.27061,-3.47511,3.13635,-2.18725e-14,1.19271e-15,-30.3279,8.49803,-81.2893,63.4422,-11.9725,-41.2686,15.7178,7.12502,-14.1904,-13.7775,-2.18725e-14,1.19271e-15,-30.1568,-15.7339,88.8124,64.1978,10.6802,-21.004,25.4169,7.12502,5.37052,55.3289,4.60999,20.2085,16.7738,12.8989,-13.1323,-20.8883,-7.96452,0,0,0,0,0,0,0
1.94142,18.8829,-4.11741,-3.41772,-11.3744,1.9613,5.13511,0.474814,-3.85414,0.647993,0.379147,-1.41556,-2.2281,0.215071,0.678737,-9.66753,-5.34767,-9.19888,20.0926,-7.31447,7.14733,8.43281,-3.50953,3.16237,6.0971e-15,-6.75868e-15,-30.2208,8.88581,-81.4937,63.8508,-12.1158,-40.9108,15.7619,7.12502,-13.8456,-13.7573,6.0971e-15,-6.75868e-15,-29.9987,-16.5131,89.1527,65.3904,11.3066,-20.4576,25.4511,7.12502,5.89801,55.349,4.71865,20.2051,16.857,12.8569,-13.1253,-20.8302,-7.85139,0,0,0,0,0,0,0
1.94037,18.8816,-4.12588,-3.51812,-11.3097,1.92592,5.26468,0.457985,-3.84426,0.662265,0.3509,-1.41476,-2.28474,0.201598,0.675221,-9.61304,-5.38919,-9.16806,20.4337,-7.40398,7.14146,8.54457,-3.55187,3.14825,1.82664e-14,-1.35174e-14,-30.1017,9.3296,-81.7049,64.3074,-12.3924,-40.402,15.8032,7.12502,-13.3553,-13.7487,1.82664e-14,-1.35174e-14,-29.7205,-17.3553,89.4403,66.584,11.8105,-20.2868,26.4386,7.12502,6.0629,56.3318,4.83399,20.1502,16.9433,12.8536,-13.0974,-20.8422,-7.85621,0,0,0,0,0,0,0
1.9374,18.8826,-4.13996,-3.46536,-11.1272,1.88423,5.30448,0.414825,-3.88435,0.645574,0.288837,-1.40144,-2.32202,0.171868,0.715523,-9.46291,-5.45707,-9.21459,20.6716,-7.5394,7.22977,8.61511,-3.61497,3.1752,-8.79933e-15,-1.59028e-15,-29.9702,9.73717,-81.8928,64.7629,-12.5739,-40.1393,16.1903,7.12502,-13.102,-13.3781,-8.79933e-15,-1.59028e-15,-29.3902,-18.1471,89.7034,67.7226,12.3599,-20.2039,26.3742,7.12502,6.14294,56.2651,4.80966,20.1313,17.0086,12.802,-13.0393,-21.0368,-7.84703,0,0,0,0,0,0,0
1.93737,18.884,-4.14722,-3.40258,-11.0205,1.96053,5.22129,0.403067,-3.99181,0.623032,0.269964,-1.43079,-2.2983,0.16319,0.747136,-9.35124,-5.52833,-9.25385,21.0369,-7.68964,7.33025,8.73805,-3.68242,3.20349,-5.03484e-15,-4.77083e-15,-29.824,10.1563,-82.0944,65.2201,-12.7271,-40.3945,16.3299,7.12502,-13.3481,-13.2226,-5.03484e-15,-4.77083e-15,-29.092,-18.88,89.9679,68.8058,12.8812,-20.1278,25.5802,7.12502,6.21642,55.469,4.71185,20.0938,16.9002,12.8163,-13.0575,-21.1256,-7.78794,0,0,0,0,0,0,0
1.93685,18.882,-4.14746,-3.60201,-11.1533,1.75084,5.39401,0.441166,-3.78671,0.65445,0.325761,-1.38034,-2.36406,0.190012,0.679406,-9.33211,-5.57521,-9.20036,21.5506,-7.79322,7.28874,8.91587,-3.73178,3.17214,-9.80257e-15,1.03368e-14,-29.6953,10.6684,-82.3369,65.7051,-12.822,-40.5345,15.6199,7.12502,-13.483,-13.9236,-9.80257e-15,1.03368e-14,-28.8611,-19.5037,90.2036,69.9421,13.2982,-19.7782,25.0981,7.12502,6.55394,54.9766,4.94399,20.1923,17.2355,12.8389,-13.0444,-21.0955,-7.87723,0,0,0,0,0,0,0
1.93967,18.8825,-4.14634,-3.64966,-11.2272,1.94614,5.32151,0.464939,-3.95149,0.639199,0.349268,-1.44528,-2.34078,0.202697,0.703369,-9.30191,-5.64758,-9.19776,21.9931,-7.92665,7.27571,9.07457,-3.79653,3.15503,-1.37938e-14,-8.34896e-15,-29.5242,11.2211,-82.5834,66.1808,-12.9138,-40.3944,14.7815,7.12502,-13.3479,-14.7709,-1.37938e-14,-8.34896e-15,-28.5582,-20.0567,90.3872,71.1087,13.4997,-18.7433,25.212,7.12502,7.55294,55.0572,4.90822,20.1046,16.977,12.8816,-13.0118,-20.905,-8.09221,0,0,0,0,0,0,0
1.94092,18.8822,-4.14538,-3.66915,-11.2792,1.94991,5.23781,0.483994,-3.93317,0.664558,0.380611,-1.46437,-2.2688,0.216659,0.671943,-9.26628,-5.7319,-9.22454,22.395,-8.08063,7.30915,9.22434,-3.86862,3.1561,-4.67455e-15,3.97569e-16,-29.3057,11.7524,-82.8035,66.6451,-13.148,-40.2916,14.327,7.12502,-13.2488,-15.2319,-4.67455e-15,3.97569e-16,-28.1369,-20.7314,90.5645,72.2151,13.7374,-17.8488,25.2751,7.12502,8.41623,55.0874,4.92261,20.1256,16.9655,12.8754,-12.9851,-20.8927,-8.14008,0,0,0,0,0,0,0
1.94101,18.8819,-4.14764,-3.68794,-11.2912,1.93234,5.17149,0.479248,-3.93443,0.655349,0.377401,-1.4694,-2.24101,0.214738,0.668125,-9.1184,-5.74274,-9.15336,22.795,-8.13657,7.24766,9.33521,-3.89893,3.12283,-1.1076e-14,-7.95139e-16,-29.1977,12.2185,-83.0431,67.1343,-13.3239,-40.0483,14.0515,7.12502,-13.0144,-15.5225,-1.1076e-14,-7.95139e-16,-27.8013,-21.4908,90.787,73.3165,14.367,-17.8241,24.7076,7.12502,8.4401,54.519,4.93033,20.1484,16.9926,12.8819,-13.003,-20.9275,-8.07115,0,0,0,0,0,0,0
1.94074,18.8821,-4.15021,-3.68359,-11.3098,1.85585,5.09534,0.470627,-3.89055,0.598906,0.371377,-1.44138,-2.25621,0.212395,0.673069,-8.91624,-5.73084,-9.13124,23.2362,-8.16087,7.19378,9.45046,-3.91931,3.10599,7.5973e-15,-3.10104e-14,-29.2066,12.652,-83.2756,67.6693,-13.4924,-39.522,14.2383,7.12502,-12.5069,-15.3674,7.5973e-15,-3.10104e-14,-27.5817,-22.1766,91.0486,74.4515,14.9429,-17.5137,24.4836,7.12502,8.73967,54.2827,4.95008,20.1285,17.0728,12.8256,-12.9624,-20.9019,-8.00781,0,0,0,0,0,0,0
1.94155,18.8821,-4.15119,-3.63637,-11.3388,1.7492,4.9976,0.472593,-3.79261,0.567815,0.384703,-1.40055,-2.23366,0.218413,0.659916,-8.94652,-5.75641,-9.21431,23.78,-8.23423,7.25407,9.66166,-3.95406,3.13565,6.99318e-15,1.15295e-14,-29.0929,13.1178,-83.4651,68.1764,-13.6971,-39.3221,14.5592,7.12502,-12.3142,-15.0582,6.99318e-15,1.15295e-14,-27.2825,-22.8273,91.2906,75.5834,15.2776,-16.8293,24.5193,7.12502,9.40003,54.2897,4.9222,20.1152,17.165,12.7836,-12.886,-20.8924,-8.02056,0,0,0,0,0,0,0
1.94331,18.8818,-4.15191,-3.6143,-11.3489,1.74955,4.89575,0.470587,-3.77784,0.569539,0.388316,-1.39776,-2.17489,0.219227,0.655026,-8.96954,-5.77393,-9.23264,24.2161,-8.28912,7.26525,9.82797,-3.97962,3.1391,-1.03438e-14,-1.47101e-14,-28.9326,13.6107,-83.6762,68.6611,-13.7486,-39.4992,14.5117,7.12502,-12.4849,-15.0954,-1.03438e-14,-1.47101e-14,-26.8915,-23.4468,91.489,76.6586,15.5122,-16.2317,24.3886,7.12502,9.97662,54.1322,4.90874,20.0827,17.1394,12.7428,-12.8404,-20.877,-8.06469,0,0,0,0,0,0,0
1.94447,18.8812,-4.15564,-3.67119,-11.347,1.79569,4.88265,0.469216,-3.8163,0.571795,0.385056,-1.40242,-2.16532,0.217733,0.672063,-8.79636,-5.79679,-9.16642,24.4787,-8.33507,7.13206,9.88428,-4.01337,3.08186,1.72663e-14,1.15295e-14,-28.894,14.0243,-83.8739,69.2425,-13.9063,-39.1335,14.4722,7.12502,-12.1324,-15.156,1.72663e-14,1.15295e-14,-26.4997,-24.0601,91.6935,77.671,15.7921,-15.7302,24.4137,7.12502,10.4604,54.1335,4.95489,20.0412,17.0948,12.7197,-12.7565,-20.8364,-8.20778,0,0,0,0,0,0,0
1.9452,18.8813,-4.16207,-3.73622,-11.3323,1.79669,4.97141,0.476681,-3.83067,0.544758,0.388976,-1.38881,-2.24326,0.221337,0.69304,-8.57586,-5.83518,-9.13751,24.714,-8.40877,7.04047,9.92813,-4.0603,3.04302,2.72696e-14,-1.35174e-14,-28.8997,14.3641,-84.0454,69.878,-14.1874,-38.5972,14.3793,7.12502,-11.6152,-15.2788,2.72696e-14,-1.35174e-14,-26.1429,-24.792,91.9213,78.6917,16.2881,-15.5071,24.4344,7.12502,10.6756,54.1431,4.98776,19.9959,17.1079,12.7373,-12.638,-20.8319,-8.45757,0,0,0,0,0,0,0
1.94775,18.8825,-4.17014,-3.7167,-11.3076,1.77479,5.01944,0.485019,-3.78012,0.491751,0.398504,-1.39431,-2.32481,0.227416,0.657779,-8.44818,-5.87428,-9.17444,25.0257,-8.49541,7.05168,10.0266,-4.10623,3.04824,-4.5187e-14,-1.15295e-14,-28.8246,14.6986,-84.2488,70.4475,-14.4094,-38.3064,14.1325,7.12502,-11.3348,-15.5412,-4.5187e-14,-1.15295e-14,-25.788,-25.6035,92.1109,79.7192,16.8529,-15.384,24.1864,7.12502,10.7944,53.889,4.93773,19.9457,17.1012,12.7356,-12.6659,-20.7923,-8.36011,0,0,0,0,0,0,0
1.94952,18.8832,-4.17727,-3.65312,-11.2716,1.72789,4.96313,0.463377,-3.71368,0.46562,0.375799,-1.38281,-2.31893,0.215763,0.634305,-8.46513,-5.89321,-9.24696,25.4131,-8.54302,7.07478,10.1797,-4.13242,3.06552,-8.82728e-15,-1.23246e-14,-28.6744,15.1484,-84.4557,70.9946,-14.5953,-37.8384,14.0945,7.12502,-10.8834,-15.6035,-8.82728e-15,-1.23246e-14,-25.3148,-26.2778,92.2517,80.6156,17.2199,-15.2626,23.9334,7.12502,10.9115,53.6299,4.87292,19.9498,17.1246,12.7037,-12.7436,-20.7735,-8.06073,0,0,0,0,0,0,0
1.94692,18.882,-4.17972,-3.71581,-11.1085,1.65302,5.0076,0.382545,-3.69253,0.475978,0.268645,-1.33699,-2.32913,0.162463,0.676877,-8.46998,-5.87314,-9.2868,25.7671,-8.52872,7.05573,10.3097,-4.13195,3.07048,-1.18215e-14,2.14687e-14,-28.5838,15.715,-84.6781,71.5899,-14.7793,-37.289,14.1071,7.12502,-10.3534,-15.6181,-1.18215e-14,2.14687e-14,-24.5486,-27.071,92.321,81.1782,17.5968,-15.3754,23.8746,7.12502,10.8026,53.5768,5.01708,19.9747,17.2946,12.6919,-12.7564,-20.9824,-8.04809,0,0,0,0,0,0,0
1.94752,18.8817,-4.18157,-3.72375,-11.0989,1.6286,5.02366,0.365948,-3.66101,0.442254,0.246776,-1.32458,-2.37195,0.152324,0.673306,-8.3822,-5.85128,-9.27311,26.0067,-8.51971,7.03,10.3777,-4.13201,3.06488,1.314e-14,-9.14409e-15,-28.5107,16.1768,-84.9166,72.1823,-14.9706,-36.8932,13.9055,7.12502,-9.97159,-15.8383,1.314e-14,-9.14409e-15,-23.8469,-27.9571,92.3746,81.7616,17.9736,-15.5017,23.6073,7.12502,10.6809,53.3158,5.0152,19.9586,17.3223,12.7042,-12.7224,-21.0138,-8.17433,0,0,0,0,0,0,0
1.94786,18.8824,-4.18122,-3.66927,-11.0842,1.71291,4.90174,0.362397,-3.75229,0.426516,0.242518,-1.33147,-2.32007,0.150476,0.718131,-8.41731,-5.83668,-9.20925,26.2527,-8.51067,6.97152,10.4684,-4.12719,3.03582,-1.70039e-14,-1.94809e-14,-28.3744,16.5696,-85.1117,72.754,-15.0874,-36.5036,13.8146,7.12502,-9.5957,-15.9469,-1.70039e-14,-1.94809e-14,-23.7817,-28.1672,92.6028,82.8919,17.7877,-14.9003,23.1779,7.12502,11.2609,52.8556,4.92691,19.9676,17.1987,12.7292,-12.7748,-20.9846,-8.12731,0,0,0,0,0,0,0
1.94876,18.8836,-4.18184,-3.64462,-11.0545,1.79112,4.79926,0.347654,-3.85644,0.455738,0.223802,-1.32062,-2.23224,0.140516,0.789447,-8.65255,-5.81546,-9.1198,26.5847,-8.47017,6.85776,10.6241,-4.10596,2.98203,-6.98231e-15,-1.35174e-14,-28.198,17.0456,-85.2632,73.3408,-15.2438,-36.1054,14.0725,7.12502,-9.21152,-15.7063,-6.98231e-15,-1.35174e-14,-23.0022,-28.9088,92.6089,83.4441,17.9328,-14.4661,23.191,7.12502,11.6797,52.8455,4.85404,19.9556,17.0925,12.7936,-12.8256,-20.9491,-8.01515,0,0,0,0,0,0,0
1.95099,18.8828,-4.18493,-3.72866,-11.1105,1.83556,4.85494,0.358167,-3.89104,0.487958,0.234251,-1.31128,-2.23085,0.145663,0.817574,-8.80395,-5.76025,-9.08665,26.8355,-8.39772,6.83939,10.7379,-4.06772,2.97812,3.80176e-15,1.03368e-14,-28.0379,17.5464,-85.4244,73.9185,-15.4467,-35.9867,14.2848,7.12502,-9.09693,-15.4991,3.80176e-15,1.03368e-14,-22.4906,-29.4432,92.7036,84.1675,17.9299,-14.178,23.2431,7.12502,11.9575,52.8816,4.86956,19.9015,17.0337,12.8698,-12.8405,-20.8227,-7.96005,0,0,0,0,0,0,0
1.95237,18.8813,-4.18675,-3.83219,-11.1625,1.8843,4.9063,0.377191,-3.9103,0.525004,0.256877,-1.31562,-2.22248,0.1565,0.822248,-8.86857,-5.67751,-9.01737,26.9903,-8.29449,6.82678,10.7943,-4.01336,2.97584,-1.42038e-14,1.86858e-14,-27.8888,18.0014,-85.5898,74.4585,-15.5637,-35.6947,14.3755,7.12502,-8.81523,-15.4204,-1.42038e-14,1.86858e-14,-22.0437,-30.0237,92.7853,84.9094,17.932,-13.9435,23.3664,7.12502,12.1835,52.9915,4.92254,19.8293,16.9836,12.9325,-12.832,-20.7018,-8.08328,0,0,0,0,0,0,0
1.95434,18.8811,-4.18715,-3.85419,-11.0818,1.91111,4.84645,0.357372,-3.8993,0.574295,0.235776,-1.32084,-2.13716,0.143958,0.812657,-8.97787,-5.61314,-8.85217,27.1352,-8.20043,6.70277,10.8474,-3.96441,2.91424,-7.60973e-16,-3.49861e-14,-27.7348,18.4501,-85.7435,75.0421,-15.6676,-35.0057,14.573,7.12502,-8.1503,-15.2498,-7.60973e-16,-3.49861e-14,-21.5114,-30.6847,92.8011,85.5498,17.933,-13.5475,23.5393,7.12502,12.5654,53.1414,4.91067,19.7459,16.9562,13.0156,-12.8368,-20.7186,-8.24595,0,0,0,0,0,0,0
1.95875,18.8833,-4.18524,-3.72088,-10.775,1.99116,4.63685,0.242932,-3.90539,0.578623,0.0935115,-1.36274,-2.00913,0.0709216,0.783006,-9.04715,-5.564,-8.65242,27.2332,-8.12924,6.55523,10.8748,-3.92622,2.83556,-7.53984e-15,9.93923e-15,-27.5977,18.9631,-85.9451,75.7015,-15.7451,-34.7918,14.5428,7.12502,-7.94379,-15.2879,-7.53984e-15,9.93923e-15,-20.8278,-31.3991,92.7255,86.0955,17.9807,-13.3074,23.4619,7.12502,12.7968,53.0496,4.7644,19.5827,16.8246,13.1052,-12.9033,-20.8456,-8.37366,0,0,0,0,0,0,0
1.96014,18.8844,-4.18672,-3.68394,-10.8405,2.0821,4.57281,0.247989,-3.96278,0.563764,0.099599,-1.39193,-1.98889,0.0741204,0.784829,-9.02524,-5.49108,-8.52338,27.2809,-8.04073,6.50226,10.8712,-3.8793,2.80746,-2.70922e-15,-5.1684e-15,-27.3364,19.5758,-86.1632,76.1111,-15.8517,-34.9167,14.5283,7.12502,-8.06435,-15.2979,-2.70922e-15,-5.1684e-15,-20.1511,-32.0225,92.6486,86.608,18.3512,-13.2291,23.3494,7.12502,12.8724,52.9325,4.64059,19.5767,16.6818,13.1814,-12.9558,-20.7883,-8.62462,0,0,0,0,0,0,0
1.9607,18.8855,-4.18981,-3.64362,-10.8667,2.11685,4.54755,0.243936,-3.98994,0.525965,0.0930969,-1.38479,-2.01346,0.0719604,0.807727,-8.98281,-5.40481,-8.50775,27.3412,-7.94324,6.5571,10.8778,-3.82832,2.83975,1.04937e-14,2.06736e-14,-26.7915,20.2673,-86.3384,75.9908,-16.0494,-34.7048,14.8833,7.12502,-7.85989,-14.9506,1.04937e-14,2.06736e-14,-19.727,-32.5233,92.6554,87.0987,18.8099,-12.9762,23.4955,7.12502,13.1162,53.063,4.53836,19.6446,16.6254,13.2471,-13.043,-20.8677,-8.61586,0,0,0,0,0,0,0
1.96132,18.8849,-4.19404,-3.69521,-10.8475,2.13273,4.62687,0.230245,-4.01282,0.497683,0.0690661,-1.35706,-2.08606,0.0617984,0.850283,-8.93819,-5.32439,-8.51698,27.4321,-7.84733,6.59694,10.8962,-3.78233,2.8709,-2.55283e-14,2.78299e-15,-26.7825,20.7891,-86.5317,76.5736,-16.1541,-34.149,14.8704,7.12502,-7.32343,-14.9828,-2.55283e-14,2.78299e-15,-19.3824,-33.0506,92.6765,87.5214,18.7428,-12.4235,23.6516,7.12502,13.6489,53.1841,4.57462,19.7462,16.647,13.288,-13.1274,-20.9803,-8.42912,0,0,0,0,0,0,0
1.96267,18.8849,-4.19712,-3.71691,-10.849,2.13407,4.64896,0.218998,-3.99988,0.460135,0.0528687,-1.3332,-2.13642,0.0550026,0.868479,-8.89309,-5.23532,-8.47565,27.5426,-7.72896,6.56131,10.9143,-3.7293,2.86907,3.57968e-15,-7.55382e-15,-26.7216,21.3208,-86.7176,77.1001,-16.379,-33.5176,14.8877,7.12502,-6.71385,-14.9858,3.57968e-15,-7.55382e-15,-18.982,-33.5895,92.6945,87.8776,18.5276,-11.8137,23.4972,7.12502,14.2365,52.9893,4.59068,19.7888,16.6557,13.2857,-13.2213,-21.016,-8.40016,0,0,0,0,0,0,0
1.96461,18.8847,-4.20132,-3.74698,-10.882,2.09987,4.66944,0.218118,-3.92827,0.46689,0.0548575,-1.31975,-2.14094,0.0554298,0.842112,-8.96359,-5.14185,-8.36494,27.6718,-7.60496,6.50902,10.9582,-3.66553,2.84761,-8.64403e-15,1.70955e-14,-26.5676,21.8362,-86.903,77.5753,-16.4977,-33.2351,15.1507,7.12502,-6.44121,-14.7314,-8.64403e-15,1.70955e-14,-18.4011,-34.2224,92.5868,88.164,18.6603,-11.4532,23.2495,7.12502,14.5839,52.7168,4.62587,19.7998,16.6899,13.2355,-13.2237,-21.0039,-8.35443,0,0,0,0,0,0,0
1.96887,18.8833,-4.20825,-3.8553,-10.9485,2.08995,4.80098,0.229567,-3.86821,0.522187,0.0684242,-1.30476,-2.15817,0.0613473,0.822904,-9.07094,-5.05582,-8.23984,27.7042,-7.4851,6.45838,10.9729,-3.60084,2.8218,-1.66078e-14,1.98785e-15,-26.3593,22.4045,-87.0765,78.0127,-16.4113,-33.5468,15.3405,7.12502,-6.74205,-14.5322,-1.66078e-14,1.98785e-15,-17.7249,-34.8851,92.4042,88.4012,18.8697,-11.2889,23.0615,7.12502,14.7422,52.5172,4.70686,19.7878,16.7054,13.2275,-13.1462,-20.8811,-8.17638,0,0,0,0,0,0,0
1.97685,18.8877,-4.20497,-3.62941,-10.0522,2.15148,4.52786,-0.110255,-3.83351,0.531725,-0.367735,-1.31939,-1.9769,-0.159251,0.815918,-9.15554,-4.9652,-8.13282,27.6481,-7.3467,6.39358,10.9484,-3.53162,2.79577,-5.62514e-14,-9.14409e-15,-26.1357,23.0481,-87.2189,78.4701,-16.4456,-33.5394,15.4264,7.12502,-6.73497,-14.4465,-5.62514e-14,-9.14409e-15,-17.2252,-35.3392,92.3109,88.6732,18.9062,-10.9909,22.9036,7.12502,15.0293,52.3381,4.64753,19.4574,16.6324,13.2457,-13.3179,-21.384,-8.03182,0,0,0,0,0,0,0
1.97164,18.8854,-4.21741,-3.71668,-11.019,2.05627,4.64562,0.186908,-3.82391,0.553831,0.0249348,-1.22712,-2.03664,0.037368,0.881171,-9.25795,-4.86132,-8.04624,27.6644,-7.19623,6.35386,10.956,-3.45597,2.78453,-1.75202e-14,1.19271e-15,-25.93,23.6986,-87.3774,78.9362,-16.5095,-33.1113,15.4635,7.12502,-6.32162,-14.4221,-1.75202e-14,1.19271e-15,-16.8889,-35.6753,92.275,89.0032,18.9232,-10.4996,22.969,7.12502,15.5025,52.3675,4.4251,19.7343,16.6562,13.3296,-13.0101,-20.7792,-8.59621,0,0,0,0,0,0,0
1.96545,18.8814,-4.22354,-3.93535,-11.7021,1.99878,4.85523,0.417987,-3.83784,0.603993,0.323981,-1.16223,-2.11577,0.187343,0.935648,-9.35374,-4.76128,-8.01518,27.7455,-7.06956,6.40045,10.9947,-3.38748,2.81232,-2.39939e-15,2.34566e-14,-25.7869,24.269,-87.5307,79.4299,-16.5944,-32.5226,15.58,7.12502,-5.75333,-14.3219,-2.39939e-15,2.34566e-14,-16.6218,-36.0305,92.2677,89.3061,19.0694,-9.99073,23.0843,7.12502,15.9926,52.4442,4.46527,20.0457,16.7622,13.432,-12.9079,-20.4441,-8.75054,0,0,0,0,0,0,0
1.95465,18.877,-4.23103,-4.21768,-12.3458,2.05992,5.12471,0.660299,-4.03492,0.656397,0.624311,-1.1087,-2.22876,0.339851,1.07846,-9.45331,-4.6784,-8.06295,27.8569,-6.97997,6.54063,11.0559,-3.33346,2.88367,3.04583e-14,3.18055e-15,-25.6806,24.7994,-87.6422,79.9481,-16.8159,-31.9363,15.6241,7.12502,-5.18718,-14.2924,3.04583e-14,3.18055e-15,-16.3881,-36.3718,92.2853,89.5218,19.2369,-9.52023,23.0458,7.12502,16.4456,52.3687,4.55888,20.4078,16.7933,13.5703,-12.8594,-20.1717,-8.81834,0,0,0,0,0,0,0
1.95916,18.8774,-4.23177,-4.25119,-12.1908,2.18388,5.1634,0.620454,-4.07728,0.627136,0.565062,-1.14084,-2.27782,0.31175,1.07271,-9.42779,-4.60624,-8.07192,27.9248,-6.90103,6.612,11.0722,-3.29101,2.92367,5.5318e-15,1.15295e-14,-25.6293,25.3229,-87.7892,80.414,-17.0136,-31.7044,15.4479,7.12502,-4.96331,-14.474,5.5318e-15,1.15295e-14,-16.2071,-36.8217,92.2877,89.7096,19.4306,-9.33456,22.9935,7.12502,16.6244,52.3015,4.52087,20.2969,16.6439,13.706,-12.9326,-20.148,-8.58556,0,0,0,0,0,0,0
1.96447,18.8773,-4.22954,-4.27402,-12.0912,2.24515,5.1764,0.582197,-4.04489,0.602871,0.51389,-1.16563,-2.30711,0.286674,1.03248,-9.3476,-4.51327,-7.98059,27.9132,-6.78592,6.59376,11.0365,-3.23297,2.91804,-2.65642e-14,-2.78299e-15,-25.5842,25.9725,-87.9641,80.8902,-17.1649,-31.4167,15.3577,7.12502,-4.6855,-14.5705,-2.65642e-14,-2.78299e-15,-15.9804,-37.351,92.1956,89.912,19.7509,-9.11573,22.9976,7.12502,16.835,52.2878,4.63297,20.2356,16.5722,13.568,-12.8621,-20.1433,-8.38433,0,0,0,0,0,0,0
1.9678,18.8788,-4.22899,-4.19828,-11.9156,2.45211,5.06128,0.507972,-4.21545,0.565211,0.409756,-1.19744,-2.27749,0.236184,1.10322,-9.41673,-4.40619,-7.91623,27.9582,-6.64048,6.58675,11.0512,-3.15913,2.92318,2.70316e-14,-2.18663e-14,-25.4574,26.7499,-88.0822,81.3534,-17.3055,-30.9579,15.2766,7.12502,-4.24246,-14.6609,2.70316e-14,-2.18663e-14,-15.432,-37.8729,92.0107,89.949,20.21,-8.72696,23.1505,7.12502,17.2093,52.4085,4.69513,20.1036,16.283,13.2794,-12.7659,-20.1649,-8.29709,0,0,0,0,0,0,0
1.96265,18.8758,-4.23334,-4.38231,-11.8842,1.5087,5.50894,0.450848,-3.3164,0.635029,0.374244,-0.884262,-2.45042,0.213569,0.922398,-9.50657,-4.3117,-7.95235,28.0595,-6.50599,6.62047,11.0981,-3.09576,2.95977,5.62654e-15,1.86858e-14,-25.3358,27.336,-88.1882,81.7378,-17.4289,-30.5798,15.2424,7.12502,-3.8774,-14.702,5.62654e-15,1.86858e-14,-14.6709,-38.4301,91.8191,89.7821,20.6977,-8.60016,23.4118,7.12502,17.3313,52.6591,5.3612,20.4737,17.6138,12.9116,-12.6283,-20.6456,-8.01612,0,0,0,0,0,0,0
1.96082,18.8749,-4.2351,-4.3904,-11.7406,1.14997,5.63335,0.368478,-2.9752,0.626571,0.283801,-0.755211,-2.524,0.166897,0.87031,-9.47567,-4.20928,-8.01684,28.0712,-6.38461,6.74827,11.0918,-3.03354,3.03507,-1.77928e-14,5.96354e-15,-24.9495,28.1033,-88.2662,81.7877,-17.6948,-30.4071,15.3337,7.12502,-3.71056,-14.6137,-1.77928e-14,5.96354e-15,-14.2264,-38.816,91.7017,89.7018,20.9628,-8.3382,23.6189,7.12502,17.5834,52.8437,5.69878,20.5605,18.1097,12.52,-12.4896,-20.9621,-8.09122,0,0,0,0,0,0,0
1.96036,18.8744,-4.23439,-4.3907,-11.7618,1.06221,5.6589,0.348823,-2.8691,0.615879,0.263917,-0.723836,-2.54823,0.156489,0.844534,-9.39441,-4.0912,-8.04795,27.9761,-6.26736,6.95582,11.0357,-2.96176,3.13246,-1.10543e-14,3.97569e-15,-24.5828,28.8781,-88.3874,81.8289,-17.8828,-30.1842,15.4507,7.12502,-3.49531,-14.5004,-1.10543e-14,3.97569e-15,-14.1138,-38.9994,91.6572,89.7322,21.0139,-7.82198,23.6616,7.12502,18.0801,52.8413,5.958,20.6339,18.2315,12.0668,-12.2994,-21.0655,-8.28899,0,0,0,0,0,0,0
1.95903,18.8739,-4.23598,-4.42675,-11.8534,1.00595,5.71121,0.370043,-2.8027,0.617045,0.295162,-0.696899,-2.57722,0.171829,0.832353,-9.37467,-3.988,-7.99997,27.9219,-6.16058,7.07577,11.0027,-2.89488,3.18195,-4.19094e-14,8.54774e-15,-25.2356,28.4782,-88.7718,82.8533,-17.2552,-29.3783,15.4279,7.12502,-2.7171,-14.5346,-4.19094e-14,8.54774e-15,-14.0505,-39.2209,91.6648,89.7612,21.1174,-7.80036,23.7001,7.12502,18.1009,52.8778,6.09153,20.7728,18.3335,11.8935,-12.2045,-21.0715,-8.00405,0,0,0,0,0,0,0
1.95878,18.8741,-4.2355,-4.41625,-11.8512,0.978988,5.68037,0.366858,-2.75132,0.607998,0.295347,-0.688708,-2.56906,0.171436,0.81208,-9.42425,-3.9018,-7.84048,27.9771,-6.06154,7.04773,11.0174,-2.83503,3.15734,-1.77773e-14,1.51076e-14,-25.2943,28.8122,-88.9743,83.3698,-17.0182,-29.1342,15.0034,7.12502,-2.48131,-14.9619,-1.77773e-14,1.51076e-14,-13.976,-39.4952,91.6702,89.8032,21.1978,-7.85327,24.0306,7.12502,18.05,53.2131,6.11276,20.8071,18.3747,11.8509,-12.1395,-21.1056,-7.81959,0,0,0,0,0,0,0
1.95891,18.8751,-4.23862,-4.38553,-11.8134,0.948347,5.67855,0.339675,-2.69584,0.601902,0.262538,-0.690553,-2.57292,0.154624,0.781643,-9.52482,-3.83377,-7.70111,28.069,-5.9856,7.02595,11.0596,-2.78607,3.13548,2.36678e-14,1.51076e-14,-24.8378,29.7962,-89.0988,83.4263,-17.6251,-29.235,14.7605,7.12502,-2.57865,-15.2037,2.36678e-14,1.51076e-14,-13.8562,-39.667,91.5865,89.8097,21.1786,-7.3278,24.4432,7.12502,18.5555,53.5782,6.07207,20.8372,18.4114,11.8582,-12.1065,-21.1985,-7.84259,0,0,0,0,0,0,0
1.95966,18.8761,-4.24459,-4.38249,-11.7898,0.950566,5.70692,0.306577,-2.6794,0.623946,0.219038,-0.686679,-2.56456,0.132517,0.779784,-9.67152,-3.78217,-7.67801,28.141,-5.92883,7.08892,11.1123,-2.74736,3.16173,-8.54153e-15,7.95139e-15,-24.8718,30.2019,-89.3922,83.7967,-18.2423,-28.9079,15.1609,7.12502,-2.26273,-14.8069,-8.54153e-15,7.95139e-15,-13.7324,-39.7146,91.4966,89.7897,21.2052,-6.82973,24.6653,7.12502,19.0346,53.7539,6.02792,20.8756,18.4122,11.8912,-12.1258,-21.2455,-7.74542,0,0,0,0,0,0,0
1.96146,18.8757,-4.24508,-4.4295,-11.8066,1.00441,5.72355,0.296438,-2.71273,0.647976,0.203437,-0.682142,-2.54871,0.124703,0.804379,-9.77548,-3.7299,-7.66865,28.1703,-5.86867,7.15322,11.1403,-2.70927,3.19119,-1.13136e-14,-1.0138e-14,-24.983,30.4649,-89.6024,84.2114,-18.2762,-28.3876,15.5831,7.12502,-1.76022,-14.3894,-1.13136e-14,-1.0138e-14,-13.7023,-39.7163,91.5077,89.7906,21.2316,-6.54201,24.7583,7.12502,19.3113,53.8194,6.04125,20.8787,18.3567,11.9364,-12.1773,-21.2175,-7.67698,0,0,0,0,0,0,0
1.96155,18.8746,-4.24467,-4.47619,-11.8869,1.02364,5.75804,0.330372,-2.72954,0.646531,0.24666,-0.668528,-2.57111,0.14672,0.824275,-9.74033,-3.69076,-7.64083,28.1268,-5.83253,7.20496,11.1136,-2.68468,3.20995,-2.49941e-14,1.09332e-14,-24.9601,30.7407,-89.7085,84.4899,-17.9133,-28.1747,15.8759,7.12502,-1.55467,-14.0982,-2.49941e-14,1.09332e-14,-13.7363,-39.7852,91.5632,89.7904,21.3068,-6.58367,24.7873,7.12502,19.2712,53.8525,6.04958,20.8961,18.3423,11.996,-12.2163,-21.1219,-7.65305,0,0,0,0,0,0,0
1.96101,18.8749,-4.24725,-4.45925,-11.9241,1.0273,5.77164,0.358037,-2.72599,0.624194,0.283042,-0.659656,-2.60304,0.165414,0.828391,-9.68568,-3.6575,-7.5866,28.0942,-5.80744,7.23923,11.0868,-2.66476,3.21663,1.16569e-14,-1.98785e-16,-24.9082,30.9813,-89.8334,84.6926,-17.7863,-28.1663,15.6891,7.12502,-1.5465,-14.2851,1.16569e-14,-1.98785e-16,-13.8084,-39.8308,91.629,89.8099,21.5779,-6.68989,24.745,7.12502,19.1691,53.8203,5.9759,20.8683,18.3184,12.0392,-12.2171,-21.083,-8.02052,0,0,0,0,0,0,0
1.96168,18.8754,-4.24801,-4.42906,-11.9332,1.09016,5.73333,0.367387,-2.76028,0.614764,0.294053,-0.67549,-2.5918,0.171134,0.830581,-9.75886,-3.61845,-7.42344,28.1434,-5.76953,7.1878,11.1095,-2.63435,3.17432,-6.98386e-15,-1.39149e-15,-24.8584,31.2441,-89.9723,84.9186,-18.2202,-27.876,15.11,7.12502,-1.26613,-14.866,-6.98386e-15,-1.39149e-15,-13.9693,-39.703,91.7328,89.9074,22.1332,-6.12143,24.7189,7.12502,19.7156,53.7391,5.90806,20.8104,18.2152,12.0422,-12.1995,-21.0689,-8.39843,0,0,0,0,0,0,0
1.96281,18.876,-4.24742,-4.40978,-11.9591,1.10276,5.68796,0.379256,-2.71816,0.624988,0.313782,-0.695997,-2.5562,0.179933,0.784571,-9.81393,-3.57889,-7.26921,28.1282,-5.74069,7.18744,11.1068,-2.60361,3.15023,-1.24939e-14,-1.37161e-14,-24.8106,31.4126,-90.134,85.1397,-19.006,-27.5578,14.7529,7.12502,-0.958844,-15.2247,-1.24939e-14,-1.37161e-14,-14.1968,-39.5252,91.8285,90.0872,23.0502,-5.35185,24.8918,7.12502,20.4553,53.8344,5.87848,20.8078,18.1859,12.0455,-12.1554,-21.0086,-8.24625,0,0,0,0,0,0,0
1.9648,18.8774,-4.24788,-4.35947,-11.9589,1.03868,5.65802,0.371909,-2.58677,0.624636,0.31315,-0.701023,-2.53902,0.178099,0.705947,-9.79488,-3.54439,-7.2445,28.0329,-5.7263,7.31049,11.0679,-2.58093,3.19176,-4.4916e-14,-7.95139e-15,-24.7325,31.5741,-90.3132,85.2729,-19.8607,-27.4858,14.544,7.12502,-0.889313,-15.4339,-4.4916e-14,-7.95139e-15,-14.4186,-39.3077,91.8981,90.2854,24.0627,-4.86607,25.2627,7.12502,20.9221,54.1544,5.82127,20.8091,18.2386,12.061,-12.0766,-20.992,-8.09414,0,0,0,0,0,0,0
1.96544,18.8782,-4.2514,-4.31741,-12.0042,1.01885,5.66325,0.372437,-2.56134,0.618141,0.315443,-0.690011,-2.54863,0.179194,0.70279,-9.79215,-3.51248,-7.24907,27.9814,-5.71563,7.44721,11.0507,-2.56123,3.24362,4.20057e-14,1.59028e-15,-24.6507,31.8216,-90.4643,85.3988,-20.7337,-27.5145,14.3259,7.12502,-0.916998,-15.6519,4.20057e-14,1.59028e-15,-14.5819,-39.0435,91.9643,90.4407,24.8361,-4.57686,25.6181,7.12502,21.1999,54.4789,5.74477,20.7755,18.2286,12.0691,-12.017,-20.9224,-8.13073,0,0,0,0,0,0,0
1.96423,18.8777,-4.25558,-4.32613,-12.1259,1.01896,5.70994,0.409826,-2.60165,0.62706,0.362021,-0.66236,-2.56746,0.203039,0.749974,-9.82413,-3.47432,-7.21593,27.984,-5.69207,7.53743,11.0573,-2.536,3.27415,1.18883e-14,-3.57812e-15,-24.5887,32.0731,-90.5696,85.5376,-21.5094,-27.3942,14.2553,7.12502,-0.800771,-15.723,1.18883e-14,-3.57812e-15,-14.7637,-38.7707,92.0589,90.5761,25.4033,-4.58951,25.6921,7.12502,21.1878,54.5542,5.69713,20.8001,18.2171,12.1033,-12.037,-20.8219,-8.17399,0,0,0,0,0,0,0
1.96431,18.877,-4.25549,-4.33373,-12.2069,1.0536,5.71423,0.441879,-2.63449,0.644086,0.402874,-0.65935,-2.55389,0.223424,0.768314,-9.89156,-3.45873,-7.16265,27.9842,-5.68639,7.57094,11.0696,-2.52229,3.27734,-1.22486e-14,0,-24.5537,32.2512,-90.691,85.6613,-22.0062,-27.247,14.3582,7.12502,-0.65868,-15.6205,-1.22486e-14,0,-14.9788,-38.4797,92.1582,90.712,25.8697,-4.91504,25.397,7.12502,20.875,54.2939,5.64933,20.8123,18.1686,12.1717,-12.1033,-20.7506,-8.17311,0,0,0,0,0,0,0
1.96617,18.8773,-4.25428,-4.31202,-12.2098,1.15124,5.69365,0.454079,-2.69162,0.629246,0.414807,-0.699947,-2.55819,0.229922,0.757676,-9.94075,-3.46038,-7.08474,27.99,-5.70885,7.59061,11.0818,-2.5209,3.26775,-1.29365e-14,8.15017e-15,-24.5962,32.3363,-90.8852,85.8233,-22.3282,-27.1406,14.3461,7.12502,-0.555846,-15.6329,-1.29365e-14,8.15017e-15,-15.1841,-38.282,92.2272,90.8735,26.1336,-5.06235,25.2407,7.12502,20.7335,54.1531,5.56417,20.7255,18.0197,12.2338,-12.1384,-20.6495,-8.17235,0,0,0,0,0,0,0
1.96832,18.8779,-4.25518,-4.2698,-12.189,1.19342,5.70038,0.445116,-2.71877,0.606155,0.40018,-0.709832,-2.5854,0.223375,0.763712,-9.97851,-3.43156,-7.0534,28.0002,-5.69252,7.65928,11.0927,-2.50144,3.28979,2.17615e-14,2.38542e-15,-24.6029,32.4905,-91.0466,85.9989,-22.6541,-26.9468,14.2106,7.12502,-0.368753,-15.7688,2.17615e-14,2.38542e-15,-15.3724,-38.0873,92.2536,91.0704,26.1459,-4.86499,25.4633,7.12502,20.9231,54.3549,5.46058,20.646,17.9287,12.2958,-12.1457,-20.5869,-8.23428,0,0,0,0,0,0,0
1.97067,18.8782,-4.25643,-4.20915,-12.1458,1.20878,5.68355,0.421908,-2.72947,0.607499,0.369549,-0.699199,-2.57371,0.208147,0.783187,-10.0515,-3.41047,-7.03693,27.9768,-5.66913,7.6935,11.0968,-2.48334,3.3014,9.15341e-15,1.5704e-14,-24.5467,32.6507,-91.1437,86.1296,-22.8218,-26.893,14.3294,7.12502,-0.316785,-15.6501,9.15341e-15,1.5704e-14,-15.6185,-37.7677,92.2876,91.2794,26.0611,-4.66869,25.4905,7.12502,21.1117,54.3612,5.34506,20.5794,17.8667,12.3783,-12.1868,-20.5431,-8.21725,0,0,0,0,0,0,0
1.97332,18.8787,-4.25551,-4.15803,-12.0943,1.28727,5.61943,0.427568,-2.76363,0.614303,0.376475,-0.733265,-2.53103,0.211241,0.767146,-10.1463,-3.4267,-6.98104,27.9818,-5.70832,7.72535,11.1206,-2.48916,3.29751,-1.59004e-14,5.56597e-15,-24.5483,32.5703,-91.2539,86.251,-22.8242,-26.8225,14.5921,7.12502,-0.248627,-15.3875,-1.59004e-14,5.56597e-15,-15.9474,-37.4862,92.3678,91.5203,25.9931,-4.42876,25.2118,7.12502,21.3422,54.0565,5.2301,20.4859,17.7296,12.4791,-12.2758,-20.496,-8.1709,0,0,0,0,0,0,0
1.97559,18.8796,-4.25478,-4.12503,-12.042,1.4058,5.57678,0.451032,-2.83465,0.603326,0.403454,-0.777414,-2.51959,0.225148,0.759637,-10.1837,-3.42866,-6.95675,28.0001,-5.74312,7.82158,11.1405,-2.49025,3.32462,-4.1084e-14,-9.14409e-15,-24.5787,32.4291,-91.3475,86.3705,-22.857,-26.6123,14.6981,7.12502,-0.0456329,-15.2817,-4.1084e-14,-9.14409e-15,-16.2397,-37.2996,92.4777,91.7582,25.9616,-4.13041,25.0283,7.12502,21.6287,53.8403,5.11228,20.391,17.5557,12.5954,-12.3455,-20.5043,-8.23719,0,0,0,0,0,0,0
1.97756,18.8811,-4.25673,-4.08835,-11.992,1.51056,5.56894,0.472339,-2.91541,0.580952,0.426172,-0.794911,-2.53952,0.237635,0.785066,-10.125,-3.42612,-6.91058,27.9255,-5.74372,7.8114,11.0983,-2.48815,3.31164,1.32557e-14,8.54774e-15,-24.5762,32.3818,-91.3935,86.4505,-22.9046,-26.5748,14.6634,7.12502,-0.00943523,-15.3163,1.32557e-14,8.54774e-15,-16.4341,-37.1389,92.6024,91.9597,26.012,-3.85787,25.1352,7.12502,21.8904,53.9169,4.99091,20.3414,17.4001,12.7136,-12.449,-20.4916,-8.06763,0,0,0,0,0,0,0
1.97918,18.8829,-4.2595,-4.05015,-11.9441,1.59383,5.53901,0.497253,-2.98666,0.588683,0.455852,-0.81144,-2.51629,0.252701,0.805946,-10.0991,-3.4443,-6.85786,27.8246,-5.77016,7.79663,11.055,-2.49692,3.29148,8.255e-15,-1.19271e-15,-24.5437,32.3063,-91.4417,86.5114,-22.7971,-26.6438,14.6233,7.12502,-0.0760873,-15.3565,8.255e-15,-1.19271e-15,-17.03,-36.7962,92.7872,92.3447,26.1447,-3.51746,25.1043,7.12502,22.2173,53.8474,4.86648,20.3034,17.2676,12.8509,-12.6267,-20.4092,-7.71246,0,0,0,0,0,0,0
1.98103,18.8835,-4.25901,-4.03014,-11.9233,1.70462,5.49294,0.532767,-3.07137,0.602123,0.49926,-0.843033,-2.47867,0.274409,0.817995,-10.1705,-3.46144,-6.8817,27.8515,-5.8146,7.89252,11.0875,-2.50657,3.32536,1.26474e-14,-1.78906e-15,-24.543,32.2254,-91.5136,86.5696,-22.5845,-26.5823,14.6618,7.12502,-0.0166898,-15.3179,1.26474e-14,-1.78906e-15,-17.129,-36.7893,92.735,92.5336,26.7704,-3.40197,25.2165,7.12502,22.3281,53.9464,4.72573,20.2058,17.1004,13.0257,-12.7083,-20.273,-7.76464,0,0,0,0,0,0,0
1.97907,18.8845,-4.25649,-4.01514,-11.9441,1.89231,5.39137,0.582319,-3.2596,0.616468,0.557303,-0.888242,-2.41057,0.303882,0.873466,-10.2709,-3.47565,-6.93242,27.9335,-5.85553,8.00181,11.148,-2.51498,3.37045,-1.13134e-14,8.34896e-15,-24.5073,32.2076,-91.5553,86.6279,-22.44,-26.4106,14.7303,7.12502,0.149184,-15.2494,-1.13134e-14,8.34896e-15,-16.7256,-37.0903,92.4887,92.4997,27.622,-3.30921,25.4483,7.12502,22.4172,54.1674,4.56439,20.1534,16.8646,13.1898,-12.6623,-20.2309,-8.12888,0,0,0,0,0,0,0
1.97257,18.8852,-4.25499,-4.01066,-11.9615,2.08116,5.25929,0.625627,-3.51878,0.661795,0.605916,-0.923839,-2.29417,0.328158,0.979903,-10.3508,-3.47524,-6.93482,27.939,-5.8735,8.08459,11.1706,-2.51164,3.39871,-1.12236e-14,-2.98177e-15,-24.4167,32.2499,-91.5716,86.7011,-22.3105,-26.3207,14.8616,7.12502,0.236039,-15.118,-1.12236e-14,-2.98177e-15,-17.1695,-36.7378,92.5893,92.7374,27.9016,-2.74559,25.3263,7.12502,22.9581,53.9792,4.44087,20.2178,16.665,13.3143,-12.6467,-20.3107,-8.32812,0,0,0,0,0,0,0
1.96813,18.8845,-4.25621,-4.01736,-11.9682,2.11111,5.27478,0.661739,-3.62003,0.65249,0.647449,-0.912009,-2.3155,0.350191,1.04552,-10.2958,-3.44225,-6.9092,27.9133,-5.84449,8.12744,11.1473,-2.49211,3.41409,-1.00402e-15,2.18663e-15,-24.4964,32.2858,-91.6492,86.8149,-22.1576,-26.3268,14.9908,7.12502,0.230092,-14.9888,-1.00402e-15,2.18663e-15,-17.3888,-36.6112,92.6079,92.8928,28.284,-2.95912,25.4358,7.12502,22.7532,54.114,4.38157,20.3108,16.6569,13.4312,-12.7269,-20.3426,-8.22729,0,0,0,0,0,0,0
1.96544,18.8849,-4.26128,-3.98854,-11.9462,2.00029,5.29287,0.699176,-3.54774,0.67085,0.702048,-0.876965,-2.30871,0.376606,1.03706,-10.2712,-3.42266,-6.91387,27.8712,-5.83726,8.21465,11.1284,-2.47973,3.4477,6.91243e-15,1.76918e-14,-24.4894,32.237,-91.6668,86.8969,-21.9369,-26.3563,15.0194,7.12502,0.201581,-14.9602,6.91243e-15,1.76918e-14,-17.2686,-36.7425,92.4703,92.9659,28.6193,-3.64374,25.4712,7.12502,22.096,54.2287,4.31825,20.3894,16.8055,13.5324,-12.8172,-20.4112,-8.10993,0,0,0,0,0,0,0
1.96363,18.8873,-4.26394,-3.96442,-11.8975,1.88745,5.31263,0.741955,-3.42784,0.702199,0.766054,-0.870758,-2.2888,0.406861,0.971637,-10.3332,-3.45277,-6.93832,27.8719,-5.90977,8.34939,11.1532,-2.49792,3.49217,-1.50548e-14,-1.78906e-15,-24.4308,32.1312,-91.6815,86.9212,-21.5829,-26.5483,15.0426,7.12502,0.0161933,-14.9372,-1.50548e-14,-1.78906e-15,-17.1028,-36.9714,92.2835,93.0416,28.7364,-3.92602,25.4884,7.12502,21.825,54.2777,4.27788,20.4328,16.9466,13.602,-13.1616,-20.4911,-6.95941,0,0,0,0,0,0,0
1.96361,18.8912,-4.26264,-3.99172,-11.7651,1.84611,5.38123,0.755227,-3.34411,0.711898,0.785141,-0.896704,-2.31651,0.415823,0.895896,-10.3189,-3.48776,-6.97989,27.8555,-5.99772,8.51362,11.1593,-2.52381,3.54895,-1.04828e-16,-9.34288e-15,-24.4578,32.046,-91.7471,86.9863,-21.3332,-26.6329,15.0358,7.12502,-0.0655364,-14.9439,-1.04828e-16,-9.34288e-15,-17.1314,-37.1431,92.1803,93.1598,28.7848,-4.17092,25.5274,7.12502,21.5898,54.3439,4.31761,20.4179,17.0115,13.6648,-13.796,-20.5404,-4.17591,0,0,0,0,0,0,0
1.96465,18.8945,-4.25944,-3.99718,-11.5052,1.91882,5.36778,0.712207,-3.37634,0.700271,0.725167,-0.941144,-2.31837,0.386205,0.872732,-10.1977,-3.49864,-7.02846,27.799,-6.04478,8.65174,11.1238,-2.53803,3.60267,-1.2841e-14,-6.75868e-15,-24.5009,32.0291,-91.8139,87.0434,-21.2968,-26.4795,14.9908,7.12502,0.0825859,-14.989,-1.2841e-14,-6.75868e-15,-17.289,-37.2263,92.1734,93.265,28.7408,-4.61225,25.5255,7.12502,21.1659,54.3901,4.35066,20.348,16.9481,13.7332,-14.2136,-20.6485,-1.95195,0,0,0,0,0,0,0
1.96386,18.8931,-4.25973,-4.02571,-11.5258,1.99078,5.38407,0.761846,-3.4727,0.68403,0.784439,-0.939423,-2.34796,0.417152,0.923704,-10.1273,-3.51062,-7.05263,27.8097,-6.0655,8.66635,11.117,-2.5499,3.6107,-1.90577e-14,8.54774e-15,-24.533,32.068,-91.8372,87.0511,-21.2712,-26.4461,14.9667,7.12502,0.11488,-15.013,-1.90577e-14,8.54774e-15,-17.3902,-37.2869,92.2055,93.3221,28.7462,-5.03813,25.8683,7.12502,20.7568,54.7781,4.3414,20.3313,16.8695,13.7944,-14.0001,-20.5961,-2.92208,0,0,0,0,0,0,0
1.96254,18.8922,-4.26355,-3.99367,-11.459,1.99055,5.4302,0.785319,-3.5201,0.653182,0.810571,-0.915056,-2.40771,0.431892,0.97251,-10.1565,-3.53852,-7.07875,27.8603,-6.10252,8.66838,11.1469,-2.56784,3.61226,-1.57428e-14,6.75868e-15,-24.5506,32.1104,-91.8493,87.0943,-21.1745,-26.5584,14.8606,7.12502,0.00640629,-15.1191,-1.57428e-14,6.75868e-15,-17.364,-37.42,92.1755,93.3265,28.9022,-5.77391,26.0239,7.12502,20.0497,55.0094,4.29959,20.2848,16.8627,13.8178,-13.462,-20.6259,-5.10786,0,0,0,0,0,0,0
1.96063,18.8926,-4.26738,-3.93719,-11.3248,2.00055,5.42935,0.78142,-3.56487,0.652623,0.802616,-0.919971,-2.40801,0.428337,0.993118,-10.2186,-3.57141,-7.09307,27.8573,-6.15281,8.70473,11.1652,-2.58613,3.62102,-2.08211e-14,8.54774e-15,-24.46,32.1805,-91.8675,87.1355,-21.0165,-26.7661,14.722,7.12502,-0.194201,-15.2577,-2.08211e-14,8.54774e-15,-17.2441,-37.6751,92.0197,93.2956,29.0513,-7.03453,25.2837,7.12502,18.8376,54.3915,4.24347,20.2119,16.8407,13.8074,-13.1834,-20.7453,-6.07674,0,0,0,0,0,0,0
1.95893,18.8919,-4.26882,-3.91904,-11.2375,2.00477,5.37938,0.790139,-3.58894,0.714319,0.816544,-0.930832,-2.31721,0.433418,0.995535,-10.3212,-3.58853,-7.10049,27.8415,-6.18513,8.76552,11.1856,-2.59164,3.63934,-2.19486e-14,1.27222e-14,-24.2434,32.2573,-91.8217,87.1408,-20.8404,-26.9411,14.7154,7.12502,-0.36322,-15.264,-2.19486e-14,1.27222e-14,-17.0547,-37.9684,91.7901,93.291,29.3579,-8.3831,24.6212,7.12502,17.5402,53.85,4.23988,20.1423,16.8365,13.7901,-13.1849,-20.8251,-6.34449,0,0,0,0,0,0,0
1.95806,18.8924,-4.27103,-3.91638,-11.1451,1.98366,5.34438,0.798534,-3.58116,0.76952,0.831442,-0.926948,-2.24131,0.439059,0.995009,-10.4033,-3.58766,-7.13428,27.8691,-6.19207,8.83234,11.2169,-2.58793,3.66938,5.55355e-15,-1.19271e-15,-24.046,32.3107,-91.7451,87.1759,-20.7628,-27.0243,14.852,7.12502,-0.443563,-15.1272,5.55355e-15,-1.19271e-15,-17.1267,-38.1083,91.6717,93.4078,29.9938,-9.36388,24.564,7.12502,16.5961,53.8744,4.26967,20.0994,16.8663,13.7839,-13.2058,-20.8499,-6.26823,0,0,0,0,0,0,0
1.95804,18.8934,-4.27312,-3.91229,-11.0581,2.00796,5.36512,0.80855,-3.62078,0.760101,0.84141,-0.920247,-2.26373,0.44481,1.02299,-10.4213,-3.57224,-7.12881,27.9258,-6.15942,8.78395,11.2372,-2.57676,3.6561,1.30313e-14,5.76476e-15,-23.9768,32.4167,-91.7264,87.2596,-20.808,-27.2529,14.8967,7.12502,-0.664367,-15.082,1.30313e-14,5.76476e-15,-17.5799,-38.1112,91.7622,93.5908,30.7271,-10.2815,24.3928,7.12502,15.7126,53.7749,4.28334,20.049,16.8339,13.7724,-13.1906,-20.8642,-6.33399,0,0,0,0,0,0,0
1.95671,18.8934,-4.27442,-3.92693,-11.0436,2.01327,5.44252,0.852887,-3.65729,0.739523,0.894373,-0.905734,-2.33143,0.472784,1.05318,-10.4556,-3.55713,-7.08709,27.9801,-6.12653,8.7101,11.2578,-2.5641,3.6267,-1.1983e-14,1.19271e-14,-23.9628,32.4916,-91.7226,87.3422,-20.7838,-27.6505,15.0373,7.12502,-1.04838,-14.9399,-1.1983e-14,1.19271e-14,-17.8839,-38.2017,91.8652,93.6507,31.4295,-11.2355,24.1024,7.12502,14.7936,53.5544,4.27451,20.0524,16.8358,13.8146,-13.1936,-20.8768,-6.39503,0,0,0,0,0,0,0
1.95448,18.893,-4.27606,-3.94341,-10.9959,1.96621,5.47226,0.894035,-3.62401,0.766435,0.950606,-0.899312,-2.32245,0.500088,1.03674,-10.452,-3.56188,-7.07393,27.939,-6.13776,8.73124,11.2427,-2.56521,3.62983,2.14222e-14,-5.36719e-15,-23.9027,32.4558,-91.6715,87.4169,-20.5432,-27.8736,15.1247,7.12502,-1.26381,-14.8513,2.14222e-14,-5.36719e-15,-17.8579,-38.3303,91.8311,93.5951,32.044,-11.5534,24.1267,7.12502,14.4873,53.6009,4.26127,20.065,16.9114,13.9137,-13.3023,-20.9258,-6.20945,0,0,0,0,0,0,0
1.95432,18.896,-4.27791,-3.94438,-10.8615,2.02828,5.42653,0.901848,-3.6655,0.806989,0.960841,-0.939278,-2.25551,0.503909,1.01913,-10.3634,-3.58,-7.1004,27.8078,-6.17611,8.81775,11.1822,-2.57838,3.65917,-6.31452e-15,7.35503e-15,-23.798,32.4548,-91.6167,87.513,-20.2393,-27.8788,14.7398,7.12502,-1.2689,-15.2362,-6.31452e-15,7.35503e-15,-17.7348,-38.4508,91.6974,93.563,32.5472,-11.3877,24.446,7.12502,14.647,53.9087,4.2661,19.9988,16.8355,13.9459,-13.4392,-20.9027,-4.76185,0,0,0,0,0,0,0
1.95566,18.8993,-4.27814,-3.84072,-10.6642,2.20228,5.26639,0.879398,-3.80533,0.798774,0.928725,-1.01386,-2.17392,0.487609,1.02523,-10.3219,-3.60612,-7.1163,27.7494,-6.22238,8.8708,11.1585,-2.59631,3.67454,-1.00728e-14,5.56597e-15,-23.6454,32.5109,-91.599,87.5854,-20.0445,-28.0214,14.4586,7.12502,-1.40653,-15.5165,-1.00728e-14,5.56597e-15,-17.6944,-38.6207,91.5837,93.622,33.2057,-11.6295,24.6746,7.12502,14.414,54.1541,4.18541,19.8338,16.5774,13.9405,-13.542,-20.828,-4.29204,0,0,0,0,0,0,0
1.95205,18.897,-4.27654,-3.78416,-10.5637,2.09339,5.17856,0.89536,-3.71419,0.810081,0.960328,-0.996216,-2.11339,0.501744,0.991532,-10.3558,-3.64463,-7.06976,27.7655,-6.27635,8.83481,11.1742,-2.61863,3.64584,-3.03892e-14,1.33186e-14,-23.5036,32.4857,-91.5663,87.6374,-19.8667,-28.2873,14.485,7.12502,-1.66339,-15.4883,-3.03892e-14,1.33186e-14,-17.7231,-38.7698,91.5601,93.7014,33.8997,-12.0893,24.7521,7.12502,13.9709,54.2627,4.20487,19.915,16.7492,13.9595,-13.5945,-21.0436,-6.23993,0,0,0,0,0,0,0
1.95026,18.8975,-4.27675,-3.73526,-10.4999,1.93997,5.10041,0.935719,-3.55134,0.84639,1.02845,-0.974255,-2.03288,0.533096,0.919791,-10.4214,-3.66882,-6.95831,27.7568,-6.30456,8.74763,11.1803,-2.62732,3.58904,-5.59703e-15,-1.59028e-15,-23.3718,32.4231,-91.4783,87.6921,-19.5517,-28.5718,14.495,7.12502,-1.93816,-15.476,-5.59703e-15,-1.59028e-15,-17.673,-38.8672,91.5147,93.7588,34.4133,-12.507,24.7885,7.12502,13.5684,54.3264,4.2103,19.9767,16.9434,13.9348,-13.5746,-21.2136,-6.50479,0,0,0,0,0,0,0
1.94992,18.8999,-4.27829,-3.72854,-10.4805,1.92849,5.0534,0.981244,-3.5093,0.886738,1.09403,-1.0026,-1.96649,0.564058,0.863797,-10.4868,-3.65432,-6.82837,27.7636,-6.28589,8.67201,11.1872,-2.61148,3.54005,7.24322e-15,-1.19271e-14,-23.1898,32.4735,-91.4164,87.6995,-19.1869,-29.0564,14.5341,7.12502,-2.40622,-15.4321,7.24322e-15,-1.19271e-14,-17.655,-38.8677,91.4349,93.8398,34.7555,-12.8488,24.6554,7.12502,13.239,54.215,4.2376,19.9513,16.9443,13.8386,-13.4847,-21.1665,-5.45144,0,0,0,0,0,0,0
1.9502,18.8986,-4.27881,-3.68383,-10.3418,2.03261,5.01528,0.973162,-3.59008,0.854216,1.07866,-1.0553,-1.9785,0.557287,0.856125,-10.4412,-3.62353,-6.77116,27.7695,-6.24939,8.64889,11.1737,-2.59242,3.52703,1.49617e-14,-3.24019e-14,-23.1163,32.5619,-91.4244,87.72,-18.8529,-29.424,14.7152,7.12502,-2.76123,-15.2467,1.49617e-14,-3.24019e-14,-17.7235,-38.8344,91.4168,93.9376,34.9567,-13.1692,24.5572,7.12502,12.9301,54.1366,4.23163,19.8398,16.8074,13.7835,-13.4321,-21.1549,-6.20126,0,0,0,0,0,0,0
1.95221,18.8967,-4.28001,-3.67436,-10.1297,2.10035,5.08134,0.942229,-3.63691,0.810972,1.0301,-1.07413,-2.05845,0.534962,0.864757,-10.339,-3.60217,-6.78866,27.7243,-6.21368,8.64345,11.1327,-2.58134,3.53284,-1.2424e-16,2.5842e-15,-23.1032,32.5728,-91.3804,87.8274,-18.4712,-29.2383,14.5377,7.12502,-2.58189,-15.4264,-1.2424e-16,2.5842e-15,-17.7321,-38.8572,91.4455,94.0096,35.1341,-13.9298,24.4524,7.12502,12.1968,54.0768,4.2871,19.712,16.7307,13.7374,-13.457,-21.2245,-7.0622,0,0,0,0,0,0,0
1.95422,18.8962,-4.28272,-3.76676,-9.9734,2.08858,5.27389,0.928056,-3.59859,0.797965,1.00381,-1.06739,-2.17794,0.523432,0.848942,-10.2667,-3.58132,-6.8456,27.6977,-6.18587,8.69242,11.1087,-2.57088,3.56495,2.61433e-14,-5.96354e-16,-23.0683,32.5752,-91.32,87.9601,-18.0669,-28.9566,13.7655,7.12502,-2.30976,-16.2017,2.61433e-14,-5.96354e-16,-17.7817,-38.8442,91.5053,94.0628,35.2656,-14.5834,24.32,7.12502,11.5665,53.9809,4.45219,19.6381,16.7809,13.6833,-13.5112,-21.2872,-6.90381,0,0,0,0,0,0,0
1.95395,18.896,-4.28499,-3.85099,-9.86125,2.01557,5.46839,0.914401,-3.50203,0.770571,0.981368,-1.06079,-2.31256,0.513668,0.80005,-10.1876,-3.55922,-6.89265,27.6799,-6.16658,8.76379,11.0879,-2.56106,3.60282,-1.56512e-14,-2.42517e-14,-23.0759,32.6504,-91.352,88.0369,-17.7449,-29.1076,13.1385,7.12502,-2.45563,-16.8271,-1.56512e-14,-2.42517e-14,-17.9171,-38.8075,91.5554,94.1589,35.3071,-14.762,24.5221,7.12502,11.3943,54.1925,4.59093,19.6475,16.9198,13.674,-13.572,-21.4476,-7.05616,0,0,0,0,0,0,0
1.95301,18.8975,-4.28623,-3.86957,-9.74989,1.9713,5.54145,0.901343,-3.45821,0.760102,0.963093,-1.05403,-2.36289,0.505018,0.782663,-10.1214,-3.5454,-6.92423,27.6156,-6.14861,8.80341,11.0506,-2.55371,3.62453,-6.24929e-15,-1.41137e-14,-23.0061,32.7696,-91.355,88.0494,-17.4707,-29.5265,12.877,7.12502,-2.86021,-17.0835,-6.24929e-15,-1.41137e-14,-17.9744,-38.8163,91.583,94.2732,35.3261,-15.0413,24.695,7.12502,11.1249,54.3801,4.63477,19.6779,17.0006,13.6753,-13.6151,-21.6166,-6.39186,0,0,0,0,0,0,0
1.9533,18.8994,-4.28687,-3.84119,-9.65955,2.03744,5.48706,0.906716,-3.54904,0.757509,0.967467,-1.04768,-2.33692,0.507685,0.840479,-10.0705,-3.52268,-7.00955,27.5596,-6.11185,8.8652,11.0203,-2.54021,3.66645,-1.73502e-14,-2.18663e-15,-22.894,32.8843,-91.2829,88.0742,-17.2995,-29.8419,12.7422,7.12502,-3.16477,-17.2141,-1.73502e-14,-2.18663e-15,-18.0291,-38.8028,91.6727,94.3874,35.3553,-15.5332,24.6703,7.12502,10.6504,54.3803,4.60726,19.6533,16.9121,13.6572,-13.592,-21.621,-5.27333,0,0,0,0,0,0,0
1.9546,18.8982,-4.28675,-3.78628,-9.59303,2.09067,5.39718,0.916632,-3.60306,0.742086,0.981465,-1.0443,-2.30407,0.514864,0.874337,-10.0773,-3.49919,-7.08522,27.5919,-6.07402,8.90493,11.0339,-2.52553,3.70041,1.53748e-14,-1.80894e-14,-22.819,32.9588,-91.2247,88.1479,-17.2828,-29.9394,12.6836,7.12502,-3.2589,-17.2712,1.53748e-14,-1.80894e-14,-18.121,-38.7516,91.7901,94.5074,35.3663,-15.9901,24.817,7.12502,10.2097,54.5493,4.54361,19.5926,16.8255,13.6736,-13.5689,-21.5988,-5.95103,0,0,0,0,0,0,0
1.95447,18.8972,-4.28672,-3.75374,-9.5516,2.02909,5.36636,0.930903,-3.52157,0.733061,1.00666,-1.03856,-2.29588,0.526766,0.833152,-10.0964,-3.48501,-7.05891,27.6315,-6.04753,8.86001,11.0478,-2.51466,3.68347,3.55265e-14,-8.94531e-15,-22.7689,32.9333,-91.2269,88.2189,-17.2544,-29.8497,12.5748,7.12502,-3.17235,-17.3814,3.55265e-14,-8.94531e-15,-18.1651,-38.7176,91.8578,94.5804,35.3068,-16.3655,24.749,7.12502,9.84749,54.4987,4.52401,19.5663,16.8923,13.6894,-13.5526,-21.6353,-6.89099,0,0,0,0,0,0,0
1.95385,18.8999,-4.28784,-3.73628,-9.50966,2.00472,5.3634,0.957651,-3.47019,0.744609,1.04502,-1.0669,-2.28245,0.545036,0.77257,-10.1465,-3.46584,-6.97077,27.6164,-6.02114,8.81681,11.0452,-2.49666,3.65452,-9.39879e-15,1.07344e-14,-22.672,32.8618,-91.2448,88.2235,-17.1103,-29.8454,12.641,7.12502,-3.1682,-17.3152,-9.39879e-15,1.07344e-14,-18.1323,-38.7243,91.836,94.6452,35.2497,-16.7132,24.602,7.12502,9.51204,54.3673,4.55151,19.5662,16.9174,13.6136,-13.5291,-21.6561,-6.02788,0,0,0,0,0,0,0
1.95441,18.9027,-4.28899,-3.70666,-9.43241,2.01881,5.3455,0.979828,-3.43838,0.769197,1.07657,-1.12078,-2.24672,0.559558,0.697587,-10.2767,-3.46394,-6.89167,27.6177,-6.03067,8.82873,11.0708,-2.4875,3.64267,-1.4356e-14,-7.95139e-16,-22.5303,32.8265,-91.2483,88.2082,-16.8968,-30.0622,12.9358,7.12502,-3.37749,-17.0172,-1.4356e-14,-7.95139e-16,-18.0581,-38.7533,91.7748,94.7478,35.2579,-17.0997,24.8062,7.12502,9.1391,54.5882,4.57072,19.5796,16.8978,13.5299,-13.5392,-21.7148,-5.09843,0,0,0,0,0,0,0
1.9581,18.9051,-4.283,-3.41554,-8.82153,2.02654,5.01015,0.796652,-3.35414,0.71226,0.850257,-1.17876,-2.10702,0.444833,0.611543,-10.2923,-3.47456,-6.90601,27.6227,-6.05391,8.87133,11.0801,-2.49408,3.65806,-7.06928e-15,1.23246e-14,-22.4895,32.8652,-91.2882,88.2516,-16.703,-30.3584,13.015,7.12502,-3.66355,-16.9333,-7.06928e-15,1.23246e-14,-18.0671,-38.7614,91.7806,94.8541,35.2321,-17.6409,25.055,7.12502,8.61688,54.8591,4.43044,19.3985,16.8582,13.4924,-13.6912,-22.1539,-5.82078,0,0,0,0,0,0,0
1.95803,18.9042,-4.28059,-3.32182,-8.62682,2.07382,4.87139,0.7525,-3.38396,0.691286,0.795027,-1.21062,-2.04895,0.416914,0.600886,-10.2801,-3.46841,-6.95048,27.631,-6.04999,8.92006,11.0834,-2.49151,3.68498,-3.58744e-15,-2.14687e-14,-22.4629,32.95,-91.3305,88.3242,-16.5705,-30.7381,12.9395,7.12502,-4.03025,-17.0021,-3.58744e-15,-2.14687e-14,-18.0645,-38.7349,91.7766,94.9173,35.0891,-18.1684,25.3646,7.12502,8.10786,55.1891,4.40286,19.306,16.7925,13.4548,-13.7472,-22.2782,-6.61765,0,0,0,0,0,0,0
1.95906,18.9043,-4.28023,-3.3598,-8.45632,2.14536,4.8814,0.721481,-3.43369,0.712971,0.750546,-1.24211,-2.03085,0.394542,0.599371,-10.2571,-3.44251,-6.94718,27.5974,-6.01755,8.94327,11.0633,-2.47438,3.69669,-2.52798e-14,7.95139e-15,-22.392,33.009,-91.3237,88.3771,-16.5543,-30.8878,12.9795,7.12502,-4.17479,-16.9594,-2.52798e-14,7.95139e-15,-18.0005,-38.6999,91.7654,94.9568,34.8722,-18.4975,25.729,7.12502,7.79019,55.5655,4.48281,19.2045,16.7271,13.4326,-13.735,-22.3392,-6.65858,0,0,0,0,0,0,0
1.95966,18.9047,-4.28269,-3.40817,-8.31537,2.18083,4.94754,0.705527,-3.4521,0.727091,0.725168,-1.26131,-2.0524,0.382099,0.590944,-10.1814,-3.41394,-6.95898,27.5144,-5.97477,8.96061,11.0131,-2.45646,3.70929,-4.25927e-14,4.77083e-15,-22.3284,33.0571,-91.3089,88.3975,-16.5867,-30.7721,12.8229,7.12502,-4.06304,-17.1181,-4.25927e-14,4.77083e-15,-17.9574,-38.6692,91.7874,95.011,34.7097,-18.9334,25.8142,7.12502,7.36946,55.6659,4.52848,19.1457,16.7118,13.4668,-13.7096,-22.4627,-6.95916,0,0,0,0,0,0,0
1.95625,18.9038,-4.28555,-3.43894,-8.51911,2.21102,4.9939,0.82888,-3.5203,0.735865,0.883345,-1.2757,-2.0758,0.461563,0.602981,-10.1854,-3.41014,-6.96881,27.4796,-5.9751,9.00418,11.0025,-2.45245,3.72629,5.57839e-15,8.74653e-15,-22.2925,33.0542,-91.3237,88.4288,-16.5547,-30.8328,12.5794,7.12502,-4.12163,-17.3605,5.57839e-15,8.74653e-15,-17.9613,-38.6746,91.8386,95.0933,34.6021,-19.4299,25.7995,7.12502,6.89021,55.6674,4.4889,19.2339,16.6733,13.4928,-13.7151,-22.3633,-7.10387,0,0,0,0,0,0,0
1.9542,18.9025,-4.28559,-3.44539,-8.68082,2.18459,4.9925,0.93936,-3.52455,0.729255,1.03022,-1.26815,-2.08743,0.535031,0.602972,-10.1553,-3.41798,-6.96844,27.4698,-5.99045,9.01928,10.9947,-2.45816,3.72994,1.48436e-14,2.78299e-15,-22.3085,33.0568,-91.3497,88.5108,-16.5115,-31.0793,12.1843,7.12502,-4.35973,-17.7508,1.48436e-14,2.78299e-15,-18.0255,-38.7,91.9567,95.1974,34.5432,-19.5706,26.0435,7.12502,6.75437,55.9158,4.47315,19.3004,16.6962,13.4807,-13.6994,-22.2148,-6.84448,0,0,0,0,0,0,0
1.95389,18.9017,-4.28571,-3.4562,-8.65839,2.09398,5.00733,0.962361,-3.44152,0.73204,1.06537,-1.24176,-2.09314,0.552092,0.581037,-10.1414,-3.40632,-6.96515,27.4527,-5.96755,9.00154,10.9824,-2.44953,3.72545,-7.5973e-15,1.19271e-15,-22.3001,33.1235,-91.3822,88.5956,-16.4936,-31.3456,11.5186,7.12502,-4.61687,-18.4111,-7.5973e-15,1.19271e-15,-18.0458,-38.695,92.0275,95.2715,34.5001,-19.6086,26.4242,7.12502,6.71764,56.2977,4.52755,19.2906,16.8107,13.4353,-13.6265,-22.2066,-6.73603,0,0,0,0,0,0,0
1.95211,18.9011,-4.28875,-3.51091,-8.68248,2.00011,5.09978,0.996217,-3.35696,0.749582,1.1116,-1.22635,-2.12716,0.574808,0.544969,-10.1682,-3.37484,-6.96069,27.4068,-5.9292,9.04518,10.9678,-2.42598,3.74445,-2.03444e-14,1.66979e-14,-22.2821,33.1427,-91.4327,88.6201,-16.4001,-31.567,11.4596,7.12502,-4.83062,-18.4653,-2.03444e-14,1.66979e-14,-18.0469,-38.6722,92.0475,95.294,34.4834,-19.9948,26.6315,7.12502,6.34481,56.5164,4.64054,19.3368,16.9516,13.3411,-13.5227,-22.2427,-6.8548,0,0,0,0,0,0,0
1.94946,18.9016,-4.29259,-3.57172,-8.71472,1.90741,5.21624,1.03155,-3.2933,0.758362,1.15757,-1.2058,-2.18402,0.597901,0.525244,-10.1556,-3.36154,-6.97266,27.3639,-5.91346,9.07927,10.9489,-2.41665,3.76023,-2.71683e-14,2.66371e-14,-22.2895,33.1387,-91.4771,88.6224,-16.2664,-31.7814,12.0375,7.12502,-5.03765,-17.8827,-2.71683e-14,2.66371e-14,-18.0914,-38.61,92.1099,95.273,34.5129,-20.5666,26.5483,7.12502,5.79276,56.4491,4.7645,19.4064,17.1012,13.2315,-13.4506,-22.2931,-6.85968,0,0,0,0,0,0,0
1.9506,18.9031,-4.29392,-3.62531,-8.45419,1.89201,5.31049,0.955701,-3.26712,0.789825,1.05461,-1.20989,-2.2003,0.546279,0.512579,-10.2432,-3.37202,-6.97981,27.3942,-5.91156,9.03494,10.9767,-2.41875,3.7453,-2.74758e-14,-2.38542e-15,-22.2457,33.1968,-91.4961,88.6258,-16.1633,-32.0938,12.4677,7.12502,-5.33933,-17.445,-2.74758e-14,-2.38542e-15,-18.0866,-38.5354,92.1493,95.2692,34.4198,-21.0542,26.5357,7.12502,5.32201,56.4489,4.89753,19.3264,17.1644,13.1856,-13.4834,-22.4564,-6.76192,0,0,0,0,0,0,0
1.95225,18.903,-4.29399,-3.69155,-8.29006,1.91713,5.39445,0.905417,-3.27315,0.832065,0.98427,-1.22728,-2.20118,0.510809,0.502318,-10.4096,-3.3623,-6.96893,27.4637,-5.88376,8.99235,11.0323,-2.40461,3.73166,-6.07846e-15,2.38542e-15,-22.1985,33.264,-91.5413,88.6186,-15.9291,-32.4854,12.396,7.12502,-5.71737,-17.5069,-6.07846e-15,2.38542e-15,-18.0465,-38.5068,92.1501,95.3034,34.2528,-21.5668,26.723,7.12502,4.82702,56.6481,5.00389,19.2462,17.1624,13.1771,-13.5413,-22.5372,-6.59986,0,0,0,0,0,0,0
1.94301,18.9,-4.2974,-3.75086,-9.02412,1.87179,5.47998,1.16313,-3.37277,0.820796,1.31826,-1.17694,-2.27511,0.679066,0.583144,-10.4912,-3.3276,-6.93049,27.5198,-5.82578,8.93671,11.0612,-2.37776,3.71269,2.02326e-14,-8.34896e-15,-22.2552,33.2978,-91.6474,88.617,-15.6283,-32.9488,12.2749,7.12502,-6.16483,-17.6154,2.02326e-14,-8.34896e-15,-18.0734,-38.4966,92.1839,95.3414,34.1209,-22.1999,26.9769,7.12502,4.21574,56.9149,4.89223,19.49,17.177,13.2073,-13.3665,-22.118,-6.74943,0,0,0,0,0,0,0
1.94194,18.9001,-4.29455,-3.64895,-8.96479,1.85393,5.35419,1.15787,-3.37032,0.780491,1.3163,-1.17214,-2.24629,0.678184,0.588908,-10.4447,-3.30703,-6.87716,27.5364,-5.78282,8.83814,11.049,-2.3647,3.67309,2.19719e-14,1.74931e-14,-22.3593,33.2931,-91.7389,88.6283,-15.483,-33.3312,12.2674,7.12502,-6.53394,-17.6118,2.19719e-14,1.74931e-14,-18.121,-38.5293,92.2381,95.378,34.039,-22.8111,27.3987,7.12502,3.62548,57.3476,4.78252,19.4254,17.1636,13.2463,-13.3673,-22.1293,-6.85247,0,0,0,0,0,0,0
1.94003,18.9033,-4.29367,-3.38495,-8.83806,1.83617,5.03841,1.13428,-3.37388,0.708447,1.29752,-1.16888,-2.14332,0.668416,0.601078,-10.3451,-3.31046,-6.86905,27.5228,-5.78313,8.80283,11.0224,-2.3705,3.65898,7.10966e-15,8.74653e-15,-22.4189,33.2665,-91.7934,88.6035,-15.2784,-33.5634,11.9846,7.12502,-6.75806,-17.8876,7.10966e-15,8.74653e-15,-18.1585,-38.6083,92.3212,95.3874,33.9546,-23.297,27.849,7.12502,3.15628,57.8053,4.48678,19.3747,17.1045,13.2902,-13.3818,-22.2069,-6.8564,0,0,0,0,0,0,0
1.9422,18.9024,-4.29548,-3.50943,-8.69758,1.88565,5.17723,1.11123,-3.4095,0.723628,1.25836,-1.18707,-2.20431,0.649694,0.602501,-10.2926,-3.3151,-6.91322,27.5248,-5.79579,8.84771,11.0166,-2.37708,3.68235,8.38623e-15,-9.14409e-15,-22.4441,33.2827,-91.8615,88.5051,-14.9359,-33.7959,11.6366,7.12502,-6.98252,-18.2283,8.38623e-15,-9.14409e-15,-18.2825,-38.65,92.4415,95.4062,33.7699,-23.7862,28.2096,7.12502,2.68379,58.1725,4.63751,19.2739,17.0848,13.2965,-13.4139,-22.1934,-6.89436,0,0,0,0,0,0,0
1.94317,18.9027,-4.29568,-3.51128,-8.62975,1.93465,5.22336,1.09782,-3.47386,0.682833,1.23333,-1.19362,-2.27249,0.639007,0.632129,-10.2467,-3.30112,-6.97639,27.5524,-5.77699,8.88479,11.019,-2.37188,3.71094,-2.01735e-14,-1.43125e-14,-22.5284,33.3514,-91.9549,88.4535,-14.663,-34.0931,11.1585,7.12502,-7.26943,-18.6967,-2.01735e-14,-1.43125e-14,-18.5236,-38.6379,92.5996,95.4793,33.5921,-24.4568,28.5442,7.12502,2.03622,58.5142,4.6355,19.1925,17.0127,13.2907,-13.3982,-22.1505,-6.98823,0,0,0,0,0,0,0
1.94361,18.9033,-4.29457,-3.44459,-8.5655,1.95936,5.17467,1.08272,-3.50616,0.640182,1.2122,-1.20579,-2.28883,0.629381,0.639598,-10.2089,-3.26305,-6.97579,27.5501,-5.72225,8.88022,11.0048,-2.34826,3.71656,1.51666e-14,4.77083e-15,-22.6339,33.4772,-92.0892,88.4637,-14.571,-34.8896,10.6238,7.12502,-8.03818,-19.2034,1.51666e-14,4.77083e-15,-18.7289,-38.62,92.7437,95.5494,33.4358,-25.2225,29.0288,7.12502,1.29667,59.0046,4.57768,19.1279,16.9529,13.2713,-13.3882,-22.1476,-6.99428,0,0,0,0,0,0,0
1.94394,18.9034,-4.29236,-3.37402,-8.48701,1.95732,5.04772,1.06791,-3.47767,0.654145,1.19963,-1.24616,-2.20146,0.621467,0.585655,-10.2401,-3.23688,-6.87097,27.5045,-5.68853,8.83567,10.9858,-2.32634,3.68441,-3.08489e-14,-4.77083e-15,-22.6216,33.6075,-92.2295,88.4145,-14.6533,-36.08,10.4256,7.12502,-9.18697,-19.3542,-3.08489e-14,-4.77083e-15,-18.7718,-38.6528,92.7733,95.5699,33.2122,-25.879,29.7341,7.12502,0.662588,59.7128,4.54203,19.0821,16.936,13.2546,-13.4102,-22.1747,-6.97741,0,0,0,0,0,0,0
1.94299,18.9036,-4.29188,-3.31403,-8.44321,1.92511,4.94832,1.0807,-3.43661,0.657763,1.22314,-1.27383,-2.14148,0.631975,0.534559,-10.2493,-3.23573,-6.76004,27.4929,-5.69604,8.79008,10.9792,-2.32305,3.64662,-3.00941e-14,7.15625e-15,-22.5981,33.6204,-92.3339,88.3388,-14.6587,-36.7874,10.426,7.12502,-9.86949,-19.3227,-3.00941e-14,7.15625e-15,-18.7968,-38.7728,92.7928,95.5987,33.008,-26.4458,30.4774,7.12502,0.115202,60.4571,4.51498,19.0742,16.9616,13.2378,-13.504,-22.2081,-6.74586,0,0,0,0,0,0,0
1.94171,18.9037,-4.29285,-3.29519,-8.43529,1.90078,4.94079,1.12646,-3.44077,0.622697,1.28322,-1.27214,-2.17563,0.662745,0.534135,-10.1636,-3.24602,-6.70967,27.4865,-5.72153,8.77702,10.9601,-2.33295,3.63024,-1.53313e-14,1.74931e-14,-22.6883,33.5439,-92.3962,88.2864,-14.5779,-36.97,10.3559,7.12502,-10.0457,-19.3844,-1.53313e-14,1.74931e-14,-18.9384,-38.9498,92.9344,95.6526,32.7864,-27.0154,31.1485,7.12502,-0.434917,61.1278,4.52187,19.0977,16.9915,13.2085,-13.5984,-22.2339,-6.471,0,0,0,0,0,0,0
1.94125,18.9039,-4.2945,-3.30526,-8.43493,1.886,4.97997,1.16229,-3.46758,0.588609,1.32716,-1.24886,-2.23539,0.686055,0.568697,-10.0613,-3.24836,-6.74913,27.4735,-5.726,8.79783,10.9368,-2.33926,3.6449,-2.15681e-14,5.1684e-15,-22.8041,33.5613,-92.4433,88.1972,-14.3588,-37.3377,10.2085,7.12502,-10.4004,-19.5143,-2.15681e-14,5.1684e-15,-19.1253,-39.0425,93.1411,95.6556,32.3442,-27.5682,31.6404,7.12502,-0.968854,61.6179,4.53763,19.0541,17.0042,13.1838,-13.5615,-22.215,-6.52894,0,0,0,0,0,0,0
1.93975,18.9041,-4.3006,-3.34334,-8.40205,1.80616,5.10091,1.16452,-3.44065,0.579951,1.32666,-1.20664,-2.31239,0.686798,0.594449,-9.98832,-3.23824,-6.8203,27.4495,-5.70795,8.83451,10.9145,-2.33622,3.67335,1.20203e-14,-1.19271e-15,-22.8626,33.6661,-92.5199,88.115,-13.9762,-38.1043,10.0283,7.12502,-11.1399,-19.656,1.20203e-14,-1.19271e-15,-19.2287,-39.081,93.2671,95.6053,31.7628,-28.2454,31.9992,7.12502,-1.62293,61.9728,4.57726,19.0142,17.1103,13.1787,-13.496,-22.2487,-6.60389,0,0,0,0,0,0,0
1.93867,18.9032,-4.30332,-3.38456,-8.3395,1.76727,5.16359,1.16834,-3.4246,0.601608,1.33026,-1.2088,-2.32487,0.688364,0.581988,-9.95182,-3.23986,-6.78537,27.3733,-5.71016,8.82459,10.8773,-2.33606,3.66147,-4.29157e-14,2.3059e-14,-22.899,33.6762,-92.6158,88.0889,-13.7026,-38.7326,9.67123,7.12502,-11.7458,-19.9794,-4.29157e-14,2.3059e-14,-19.3328,-39.1911,93.3299,95.5936,31.2288,-29.14,32.5419,7.12502,-2.48688,62.5072,4.6342,19.0196,17.1855,13.1925,-13.5277,-22.3021,-6.53527,0,0,0,0,0,0,0
1.93961,18.9021,-4.30004,-3.41352,-8.33658,1.82161,5.11516,1.19693,-3.45782,0.644808,1.36879,-1.25635,-2.25425,0.706313,0.550494,-10.0255,-3.25383,-6.67233,27.3412,-5.72719,8.75308,10.8761,-2.33831,3.61142,-2.16178e-15,-9.54166e-15,-22.9003,33.6098,-92.6915,88.0036,-13.5758,-39.1869,9.65629,7.12502,-12.1838,-19.9689,-2.16178e-15,-9.54166e-15,-19.456,-39.2844,93.4087,95.6181,30.6937,-29.9155,33.2814,7.12502,-3.23582,63.2366,4.65987,19.0255,17.1331,13.2138,-13.5593,-22.276,-6.55661,0,0,0,0,0,0,0
1.94069,18.9019,-4.30102,-3.46654,-8.38552,1.84628,5.13818,1.22714,-3.47539,0.68188,1.40769,-1.26777,-2.23045,0.7251,0.545797,-10.0589,-3.25445,-6.59144,27.3062,-5.71635,8.66783,10.8635,-2.33383,3.56581,-4.57826e-14,-7.55382e-15,-22.8745,33.5825,-92.7428,87.8756,-13.5403,-39.634,9.96024,7.12502,-12.615,-19.6388,-4.57826e-14,-7.55382e-15,-19.4763,-39.3171,93.5076,95.5818,30.2106,-30.4215,33.9778,7.12502,-3.72452,63.925,4.6747,19.0309,17.1127,13.2453,-13.4905,-22.2643,-6.73785,0,0,0,0,0,0,0
1.94255,18.9024,-4.30297,-3.50338,-8.38373,1.86302,5.16662,1.22455,-3.4947,0.699644,1.40254,-1.25763,-2.2286,0.722514,0.567019,-10.0259,-3.22575,-6.5371,27.2398,-5.65807,8.5808,10.8221,-2.31259,3.53012,-1.77291e-14,5.56597e-15,-22.8374,33.6121,-92.7839,87.8046,-13.4457,-39.9819,9.66887,7.12502,-12.9504,-19.9092,-1.77291e-14,5.56597e-15,-19.4933,-39.3035,93.6189,95.515,29.819,-30.8084,34.4478,7.12502,-4.09816,64.3881,4.67788,18.9978,17.0912,13.2771,-13.4585,-22.257,-6.85825,0,0,0,0,0,0,0
1.94402,18.9026,-4.3051,-3.53483,-8.35975,1.88652,5.23075,1.21448,-3.52527,0.693184,1.38412,-1.25608,-2.27124,0.714191,0.58555,-10.0402,-3.19607,-6.48753,27.2454,-5.60399,8.5048,10.8182,-2.29081,3.50031,1.70365e-14,-7.95139e-15,-22.8507,33.6445,-92.8535,87.741,-13.1829,-40.3445,9.14787,7.12502,-13.2999,-20.4077,1.70365e-14,-7.95139e-15,-19.6434,-39.2425,93.7756,95.469,29.369,-31.2375,34.7005,7.12502,-4.51246,64.6325,4.71946,19.004,17.0718,13.254,-13.5061,-22.2549,-6.76542,0,0,0,0,0,0,0
1.94344,18.902,-4.30773,-3.56983,-8.38146,1.85252,5.32096,1.23308,-3.49896,0.683179,1.40584,-1.25102,-2.33233,0.725672,0.572319,-9.94434,-3.19162,-6.36956,27.1392,-5.5686,8.32626,10.7471,-2.28563,3.4165,-7.94517e-15,-6.75868e-15,-22.9074,33.6064,-92.9528,87.6322,-12.8847,-40.6878,8.85162,7.12502,-13.6308,-20.6821,-7.94517e-15,-6.75868e-15,-19.8047,-39.2296,93.9437,95.4275,28.8371,-31.871,35.1142,7.12502,-5.12415,65.0323,4.78382,19.098,17.1404,13.2095,-13.5295,-22.3265,-6.58584,0,0,0,0,0,0,0
1.94213,18.9016,-4.30718,-3.5989,-8.44595,1.70428,5.32558,1.26437,-3.3365,0.714615,1.45836,-1.2246,-2.30103,0.749873,0.505135,-9.84158,-3.18965,-6.28494,27.0057,-5.54359,8.204,10.6683,-2.2826,3.35765,3.89618e-14,-1.15295e-14,-22.9094,33.5383,-93.0258,87.5378,-12.6809,-41.0237,8.56054,7.12502,-13.9545,-20.9512,3.89618e-14,-1.15295e-14,-19.8639,-39.2724,94.0491,95.3866,28.2519,-32.555,35.836,7.12502,-5.78455,65.737,4.84606,19.2085,17.3438,13.168,-13.4353,-22.4231,-6.69571,0,0,0,0,0,0,0
1.94542,18.9029,-4.30551,-3.51207,-8.43161,1.7541,5.20173,1.25896,-3.34641,0.686861,1.45504,-1.24642,-2.2599,0.748026,0.490883,-9.90035,-3.15497,-6.4162,27.1176,-5.52733,8.40356,10.7299,-2.26392,3.45827,1.00014e-14,3.18055e-15,-22.966,33.5161,-93.0919,87.49,-12.6148,-41.2905,8.29174,7.12502,-14.2115,-21.2021,1.00014e-14,3.18055e-15,-19.9799,-39.2324,94.2024,95.3697,27.6444,-33.1018,36.6337,7.12502,-6.31246,66.5197,4.74175,19.1034,17.2232,13.1577,-13.3272,-22.361,-6.96339,0,0,0,0,0,0,0
1.94831,18.9027,-4.30266,-3.47924,-8.43791,1.81739,5.14742,1.25397,-3.4069,0.667223,1.44687,-1.24962,-2.25089,0.74454,0.522932,-9.8685,-3.14667,-6.42953,27.059,-5.49895,8.36567,10.6984,-2.25772,3.44903,1.37317e-14,9.93923e-15,-23.0246,33.5203,-93.1348,87.4473,-12.5755,-41.4014,8.03997,7.12502,-14.3184,-21.4463,1.37317e-14,9.93923e-15,-20.1466,-39.083,94.4025,95.3534,26.9038,-33.6116,37.0337,7.12502,-6.80464,66.9043,4.71744,19.0813,17.1232,13.1483,-13.345,-22.3209,-6.942,0,0,0,0,0,0,0
1.94961,18.9017,-4.29999,-3.48047,-8.43812,1.88534,5.08631,1.25551,-3.48167,0.69259,1.4482,-1.25672,-2.19227,0.744797,0.559068,-9.63603,-3.17765,-6.23779,26.6789,-5.46074,7.98679,10.4911,-2.27119,3.27473,2.0686e-15,2.38542e-15,-23.0048,33.5083,-93.1344,87.3735,-12.4062,-41.5842,8.02312,7.12502,-14.4946,-21.4506,2.0686e-15,2.38542e-15,-20.2787,-38.9064,94.5763,95.3121,25.9019,-34.1295,37.1884,7.12502,-7.30457,67.0423,4.7131,19.1109,17.045,13.1692,-13.4198,-22.3091,-6.85207,0,0,0,0,0,0,0
1.95035,18.9015,-4.2996,-3.47776,-8.43325,1.89685,5.04898,1.25909,-3.49147,0.705241,1.45465,-1.25491,-2.15887,0.747549,0.566984,-9.43703,-3.17223,-6.16901,26.4342,-5.41933,7.84441,10.352,-2.26737,3.21273,-1.25638e-14,-7.95139e-16,-23.003,33.4724,-93.1395,87.2755,-12.2113,-41.8643,8.27994,7.12502,-14.7645,-21.1742,-1.25638e-14,-7.95139e-16,-20.3668,-38.7653,94.722,95.2704,24.7987,-34.5795,37.8726,7.12502,-7.73893,67.711,4.69235,19.1051,17.0264,13.1935,-13.4381,-22.2977,-6.87906,0,0,0,0,0,0,0
1.95275,18.9016,-4.30066,-3.5001,-8.44402,1.8962,5.0636,1.26048,-3.47318,0.716885,1.45729,-1.24889,-2.15485,0.748572,0.56261,-9.40832,-3.1483,-6.20055,26.418,-5.38547,7.86947,10.339,-2.25291,3.23139,-1.03585e-14,1.74931e-14,-23.022,33.4602,-93.1512,87.2197,-12.1314,-42.0647,8.46476,7.12502,-14.9575,-20.9751,-1.03585e-14,1.74931e-14,-20.4002,-38.6502,94.8069,95.216,23.6593,-35.0841,38.6681,7.12502,-8.22593,68.488,4.70842,19.0813,17.0153,13.1941,-13.4426,-22.2829,-6.89135,0,0,0,0,0,0,0
1.95467,18.9008,-4.3015,-3.60979,-8.51696,1.87153,5.15596,1.28106,-3.44484,0.775786,1.4839,-1.23266,-2.1465,0.76094,0.560331,-9.44716,-3.12373,-6.18598,26.3991,-5.34648,7.8575,10.3356,-2.23394,3.2285,1.67631e-14,-9.93923e-15,-23.0026,33.4937,-93.1387,87.2076,-12.1686,-42.193,8.47791,7.12502,-15.0811,-20.9527,1.67631e-14,-9.93923e-15,-20.4952,-38.4819,94.8896,95.2181,22.4609,-35.5811,38.9212,7.12502,-8.70557,68.7216,4.84275,19.14,17.075,13.1499,-13.4253,-22.2756,-6.81711,0,0,0,0,0,0,0
1.95586,18.8999,-4.30215,-3.69379,-8.59623,1.80687,5.23751,1.30937,-3.38758,0.834396,1.52313,-1.2106,-2.13224,0.779353,0.547186,-9.50053,-3.10179,-6.14049,26.347,-5.31841,7.86021,10.3233,-2.2152,3.22337,-3.50669e-15,-1.27222e-14,-22.9479,33.4786,-93.0948,87.1711,-12.2449,-42.2798,8.53566,7.12502,-15.1647,-20.8887,-3.50669e-15,-1.27222e-14,-20.6286,-38.3145,94.9882,95.2681,21.2,-35.8856,38.9777,7.12502,-8.99943,68.7657,4.9512,19.2213,17.1826,13.1059,-13.381,-22.2813,-6.78583,0,0,0,0,0,0,0
1.95839,18.9005,-4.30238,-3.70145,-8.62938,1.78328,5.22968,1.32375,-3.34229,0.874842,1.54649,-1.20404,-2.086,0.789733,0.527747,-9.59656,-3.09655,-6.12638,26.349,-5.31222,7.87217,10.3424,-2.20721,3.22515,-1.95679e-14,5.1684e-15,-22.8994,33.3988,-93.0252,87.1178,-12.2409,-42.2949,8.66355,7.12502,-15.1793,-20.7597,-1.95679e-14,5.1684e-15,-20.6696,-38.173,95.0381,95.2546,19.8103,-36.2593,39.2547,7.12502,-9.35997,69.0268,4.96315,19.2617,17.2103,13.0991,-13.3899,-22.2938,-6.77247,0,0,0,0,0,0,0
1.96151,18.9011,-4.30333,-3.71887,-8.66751,1.82283,5.24748,1.33573,-3.34261,0.893247,1.56186,-1.21372,-2.07726,0.797067,0.51673,-9.61386,-3.08757,-6.13637,26.3295,-5.29346,7.8671,10.3372,-2.19976,3.22676,-3.76448e-14,8.34896e-15,-22.9122,33.3598,-92.981,87.141,-12.2378,-42.2544,8.50675,7.12502,-15.1402,-20.9194,-3.76448e-14,8.34896e-15,-20.7002,-37.9829,95.0658,95.2048,18.2995,-36.7546,39.7765,7.12502,-9.83787,69.5267,4.95832,19.2883,17.1574,13.1174,-13.4234,-22.2715,-6.78625,0,0,0,0,0,0,0
1.96481,18.8997,-4.30286,-3.73153,-8.69979,1.90696,5.25474,1.34755,-3.39582,0.899745,1.5739,-1.23564,-2.07585,0.803253,0.522985,-9.55804,-3.06726,-6.14448,26.2349,-5.26252,7.88235,10.2895,-2.18659,3.23595,-1.6642e-14,3.97569e-15,-22.9218,33.3353,-92.9508,87.1943,-12.2936,-42.1515,8.38895,7.12502,-15.0411,-21.0447,-1.6642e-14,3.97569e-15,-20.737,-37.7961,95.0766,95.1621,16.7295,-36.9661,40.2284,7.12502,-10.042,69.9688,4.9387,19.2815,17.0395,13.1443,-13.4387,-22.2107,-6.84093,0,0,0,0,0,0,0
1.96821,18.8989,-4.30082,-3.70237,-8.65962,1.99463,5.19122,1.34189,-3.47093,0.907367,1.56505,-1.25087,-2.03374,0.798695,0.551583,-9.51599,-3.0467,-6.15431,26.1449,-5.23306,7.90751,10.2466,-2.17274,3.24879,2.15868e-14,3.97569e-16,-22.8992,33.286,-92.8911,87.2014,-12.3877,-41.9483,8.72561,7.12502,-14.8454,-20.7226,2.15868e-14,3.97569e-16,-20.7666,-37.6539,95.0866,95.1527,15.2563,-36.8978,40.4854,7.12502,-9.97604,70.229,4.89031,19.2559,16.9137,13.178,-13.4559,-22.2109,-6.8526,0,0,0,0,0,0,0
1.97076,18.9004,-4.30137,-3.66589,-8.60054,2.02023,5.16313,1.33065,-3.48348,0.898355,1.55051,-1.25117,-2.02712,0.79155,0.559859,-9.46036,-3.04178,-6.17407,26.0855,-5.22455,7.92384,10.2142,-2.17062,3.2584,2.77429e-14,-7.95139e-15,-22.9103,33.2421,-92.8343,87.2171,-12.5508,-41.7146,9.2319,7.12502,-14.6202,-20.2328,2.77429e-14,-7.95139e-15,-20.824,-37.5473,95.1252,95.1536,13.8316,-36.8439,40.6731,7.12502,-9.92408,70.4192,4.83114,19.2442,16.8686,13.213,-13.4244,-22.2677,-6.94168,0,0,0,0,0,0,0
1.97325,18.9017,-4.30326,-3.65706,-8.59663,2.0209,5.18129,1.33644,-3.46252,0.888066,1.55822,-1.25028,-2.04762,0.795627,0.54792,-9.41818,-3.04992,-6.17064,26.0485,-5.23398,7.91571,10.1929,-2.17674,3.25332,3.54955e-14,-1.43125e-14,-22.91,33.1982,-92.7828,87.2171,-12.6622,-41.6031,9.71888,7.12502,-14.5128,-19.7535,3.54955e-14,-1.43125e-14,-20.8831,-37.4515,95.1614,95.1502,12.3629,-36.6955,40.9628,7.12502,-9.78083,70.7157,4.80941,19.2591,16.8594,13.2148,-13.3733,-22.2958,-7.05164,0,0,0,0,0,0,0
1.9763,18.9019,-4.30279,-3.64759,-8.60754,2.05452,5.16839,1.34966,-3.48124,0.879761,1.57509,-1.25321,-2.04999,0.804263,0.554343,-9.40876,-3.04152,-6.15428,26.0485,-5.22397,7.90984,10.1896,-2.17128,3.24968,-4.98018e-14,-1.19271e-15,-22.9202,33.1553,-92.7348,87.2038,-12.6037,-41.6135,9.98371,7.12502,-14.5228,-19.488,-4.98018e-14,-1.19271e-15,-20.9493,-37.3482,95.1796,95.1673,11.0015,-36.6075,41.3752,7.12502,-9.69593,71.1321,4.81456,19.2758,16.8098,13.1838,-13.3494,-22.309,-7.15332,0,0,0,0,0,0,0
1.97896,18.902,-4.29987,-3.6046,-8.61652,2.04555,5.08395,1.35132,-3.45667,0.888773,1.58317,-1.24624,-1.99331,0.807377,0.549423,-9.42232,-3.0254,-6.14203,26.0449,-5.2019,7.90839,10.1887,-2.15967,3.2495,1.93194e-15,0,-22.929,33.1352,-92.6902,87.2479,-12.5758,-41.4902,9.91199,7.12502,-14.404,-19.5682,1.93194e-15,0,-20.9845,-37.2471,95.1509,95.1852,9.71696,-36.7167,41.627,7.12502,-9.8013,71.3789,4.79148,19.2805,16.7968,13.1654,-13.3472,-22.3171,-7.20217,0,0,0,0,0,0,0
1.98044,18.9016,-4.30034,-3.57763,-8.63277,1.99318,5.06664,1.35288,-3.39931,0.893931,1.58977,-1.22746,-1.97754,0.81013,0.536727,-9.41117,-3.025,-6.12169,26.0127,-5.19488,7.87602,10.1728,-2.1584,3.23455,-2.60594e-14,2.06736e-14,-22.9177,33.1355,-92.6351,87.3454,-12.7828,-41.1561,9.63859,7.12502,-14.0821,-19.8643,-2.60594e-14,2.06736e-14,-21.0228,-37.1534,95.1063,95.2247,8.42828,-36.5366,41.6974,7.12502,-9.62751,71.4574,4.7615,19.2985,16.8419,13.1826,-13.3748,-22.3129,-7.1508,0,0,0,0,0,0,0
1.98162,18.901,-4.30386,-3.58301,-8.6216,2.0026,5.14876,1.35601,-3.41391,0.864897,1.58857,-1.22059,-2.05391,0.810863,0.549541,-9.38352,-3.02782,-6.1129,26.0224,-5.19582,7.85031,10.1701,-2.16132,3.22411,-1.94312e-14,-7.55382e-15,-22.9827,33.1542,-92.5913,87.4603,-13.0274,-40.8963,9.37937,7.12502,-13.8317,-20.1407,-1.94312e-14,-7.55382e-15,-21.108,-37.0451,95.0808,95.2839,7.21298,-36.0207,41.5786,7.12502,-9.12979,71.361,4.74973,19.3185,16.8291,13.2038,-13.4184,-22.3202,-7.03393,0,0,0,0,0,0,0
1.98429,18.9013,-4.30571,-3.56787,-8.58759,2.08368,5.1605,1.34624,-3.48243,0.846581,1.57044,-1.23043,-2.08026,0.80276,0.578414,-9.39869,-3.03812,-6.13504,26.0614,-5.20248,7.82908,10.1879,-2.16819,3.22019,2.86374e-15,7.95139e-16,-23.0596,33.2006,-92.5486,87.559,-13.1064,-40.8392,9.44525,7.12502,-13.7767,-20.0786,2.86374e-15,7.95139e-16,-21.1642,-36.9779,95.0418,95.3884,6.15819,-35.6014,41.2338,7.12502,-8.72515,71.0335,4.71931,19.3047,16.7179,13.1962,-13.4591,-22.3262,-6.8603,0,0,0,0,0,0,0
1.98692,18.9017,-4.30639,-3.54324,-8.56393,2.12306,5.10923,1.32997,-3.4915,0.868634,1.55119,-1.23999,-2.02814,0.792321,0.57661,-9.41822,-3.05213,-6.14821,26.0417,-5.20719,7.79081,10.1844,-2.17547,3.2075,-1.70644e-14,-3.18055e-15,-23.0429,33.2412,-92.4941,87.6296,-13.0717,-40.7652,9.49383,7.12502,-13.7053,-20.0349,-1.70644e-14,-3.18055e-15,-21.175,-36.9664,94.9576,95.5672,5.1572,-35.2068,40.8357,7.12502,-8.34432,70.6509,4.69649,19.2681,16.6528,13.1733,-13.459,-22.3242,-6.82596,0,0,0,0,0,0,0
1.98843,18.9023,-4.30674,-3.54005,-8.55135,2.04341,5.12362,1.31111,-3.37283,0.883629,1.5325,-1.23417,-2.01713,0.781983,0.517513,-9.54643,-3.02865,-6.20063,26.2041,-5.20688,7.93314,10.2739,-2.16091,3.27038,-3.27373e-15,9.54166e-15,-23.0279,33.2761,-92.4664,87.6993,-13.0068,-40.5731,9.20381,7.12502,-13.5202,-20.3373,-3.27373e-15,9.54166e-15,-21.194,-36.9229,94.8184,95.7662,4.12346,-34.538,40.431,7.12502,-7.69884,70.2708,4.71409,19.2523,16.7419,13.1699,-13.4659,-22.322,-6.83092,0,0,0,0,0,0,0
1.99044,18.904,-4.30718,-3.52345,-8.52908,1.96137,5.14735,1.28925,-3.25181,0.876154,1.50903,-1.22359,-2.03448,0.769838,0.461749,-9.68773,-2.99038,-6.27488,26.4274,-5.20077,8.13304,10.3904,-2.13871,3.36046,2.68359e-14,-2.38542e-14,-23.0395,33.325,-92.4387,87.784,-12.9629,-40.4536,9.17686,7.12502,-13.405,-20.3719,2.68359e-14,-2.38542e-14,-21.1851,-36.8624,94.6497,95.9449,3.12633,-33.7355,39.8437,7.12502,-6.92421,69.7105,4.69181,19.254,16.8276,13.2038,-13.4963,-22.3355,-6.82123,0,0,0,0,0,0,0
1.99187,18.9046,-4.30939,-3.47664,-8.50488,2.01858,5.11145,1.27992,-3.29934,0.870898,1.49518,-1.23747,-2.0202,0.763084,0.475772,-9.57762,-3.00269,-6.21316,26.2765,-5.19215,8.01091,10.3076,-2.14568,3.30387,6.1499e-15,-1.59028e-14,-23.0096,33.3885,-92.3839,87.8779,-12.9093,-40.5424,9.42494,7.12502,-13.4906,-20.1181,6.1499e-15,-1.59028e-14,-21.1557,-36.7818,94.493,96.1215,2.32533,-32.8796,38.7174,7.12502,-6.09797,68.6096,4.62354,19.2186,16.7307,13.1874,-13.4496,-22.3298,-6.93576,0,0,0,0,0,0,0
1.99255,18.9045,-4.31455,-3.41806,-8.47778,2.18988,5.06213,1.28337,-3.47297,0.859901,1.49117,-1.28547,-2.00694,0.761987,0.524704,-9.5782,-3.0008,-6.22184,26.2571,-5.19231,8.03424,10.3015,-2.14411,3.31339,1.67725e-16,-9.93923e-15,-22.9939,33.4667,-92.3348,88.0248,-12.8308,-40.5558,9.38786,7.12502,-13.5035,-20.1543,1.67725e-16,-9.93923e-15,-21.1155,-36.6444,94.3038,96.329,1.78072,-31.6028,37.3155,7.12502,-4.86519,67.2397,4.50923,19.1474,16.4864,13.1843,-13.3985,-22.2801,-7.02987,0,0,0,0,0,0,0
1.99284,18.9041,-4.31919,-3.53121,-8.53213,2.05739,5.2356,1.30608,-3.31725,0.90469,1.5237,-1.25802,-2.05567,0.777398,0.460236,-9.71566,-2.97307,-6.29495,26.4172,-5.19201,8.21672,10.3941,-2.12673,3.39504,1.45982e-15,3.18055e-15,-23.007,33.5176,-92.2777,88.1793,-12.7832,-40.2959,9.17849,7.12502,-13.253,-20.3802,1.45982e-15,3.18055e-15,-21.0032,-36.5222,94.0212,96.5318,1.45253,-30.0802,36.0343,7.12502,-3.39494,65.987,4.62556,19.2515,16.6981,13.1989,-13.3671,-22.3429,-7.04933,0,0,0,0,0,0,0
1.99401,18.905,-4.32085,-3.58369,-8.53328,2.0562,5.32553,1.30374,-3.30075,0.9197,1.51777,-1.25773,-2.08987,0.774572,0.449847,-9.57262,-2.98306,-6.2149,26.2233,-5.17375,8.06327,10.2869,-2.13202,3.32425,-6.34247e-15,-1.51076e-14,-23.0338,33.546,-92.2247,88.2555,-12.7326,-40.0796,9.17584,7.12502,-13.0445,-20.3963,-6.34247e-15,-1.51076e-14,-20.9421,-36.4975,93.7543,96.7429,1.63671,-28.7178,34.3691,7.12502,-2.07913,64.3387,4.68801,19.2694,16.7204,13.1818,-13.3349,-22.3683,-7.11308,0,0,0,0,0,0,0
1.99583,18.9044,-4.32005,-3.6395,-8.5571,2.07574,5.37433,1.29949,-3.30758,0.927159,1.50985,-1.24983,-2.1096,0.770837,0.461334,-9.41241,-2.99705,-6.14863,26.0519,-5.15356,7.88063,10.1846,-2.14115,3.24671,-1.56978e-14,-3.97569e-15,-23.0896,33.5422,-92.2005,88.3246,-12.4649,-39.5868,9.28024,7.12502,-12.5694,-20.3216,-1.56978e-14,-3.97569e-15,-20.9646,-36.4659,93.5441,96.9764,2.21703,-27.0612,32.1302,7.12502,-0.479232,62.1094,4.79209,19.2692,16.7073,13.0983,-13.2792,-22.3332,-7.15866,0,0,0,0,0,0,0
1.99523,18.903,-4.32031,-3.67832,-8.57331,2.03247,5.41961,1.294,-3.27898,0.910006,1.50236,-1.21963,-2.15241,0.76767,0.475627,-9.32751,-3.00049,-6.16451,26.0661,-5.15343,7.85307,10.1728,-2.14765,3.2406,-3.90363e-14,-3.97569e-15,-23.2046,33.4846,-92.2075,88.4122,-11.9756,-38.7003,9.1381,7.12502,-11.7146,-20.5144,-3.90363e-14,-3.97569e-15,-20.9753,-36.3953,93.3505,97.1895,2.73925,-24.935,30.0888,7.12502,1.57432,60.0628,4.87158,19.3797,16.7964,13.0623,-13.2889,-22.4139,-7.05467,0,0,0,0,0,0,0
1.99373,18.9048,-4.32184,-3.55391,-8.51271,1.99539,5.33218,1.27806,-3.25005,0.850251,1.48539,-1.212,-2.164,0.759784,0.469685,-9.26362,-3.00953,-6.16358,26.0901,-5.17183,7.85459,10.1706,-2.15724,3.23989,-1.17656e-14,-1.55052e-14,-23.3263,33.4406,-92.208,88.5069,-11.7228,-38.2788,8.94585,7.12502,-11.3082,-20.7293,-1.17656e-14,-1.55052e-14,-20.9224,-36.41,93.1338,97.3844,3.2298,-23.1326,28.3834,7.12502,3.31506,58.3373,4.7543,19.4576,16.8253,13.0491,-13.3297,-22.5671,-6.87072,0,0,0,0,0,0,0
1.99493,18.9073,-4.32264,-3.41675,-8.49139,2.00969,5.20531,1.27569,-3.22263,0.822236,1.48811,-1.24044,-2.12055,0.760654,0.42744,-9.31665,-3.02033,-6.14018,26.1553,-5.19331,7.8524,10.2059,-2.16334,3.23339,-2.71776e-14,-1.59028e-15,-23.3652,33.4727,-92.1846,88.6267,-11.7898,-38.3355,9.0722,7.12502,-11.3628,-20.6,-2.71776e-14,-1.59028e-15,-20.7917,-36.4735,92.8137,97.6175,3.76188,-21.8154,26.6111,7.12502,4.58705,56.5415,4.59879,19.4386,16.7486,13.0193,-13.2992,-22.5929,-6.85793,0,0,0,0,0,0,0
1.99998,18.9085,-4.32123,-3.40741,-8.22681,2.0838,5.18205,1.17284,-3.21954,0.840224,1.3519,-1.28633,-2.08351,0.692034,0.389054,-9.3623,-3.00465,-6.10109,26.2062,-5.17297,7.825,10.2299,-2.15173,3.21982,2.66496e-15,4.37326e-15,-23.3341,33.5688,-92.1824,88.7001,-11.8833,-38.3843,9.39531,7.12502,-11.4099,-20.2742,2.66496e-15,4.37326e-15,-20.6398,-36.4713,92.4058,97.9316,4.29189,-20.0211,24.9445,7.12502,6.31949,54.8303,4.65914,19.3366,16.6702,12.9859,-13.369,-22.7261,-6.80207,0,0,0,0,0,0,0
2.00695,18.9093,-4.3165,-3.468,-7.55831,2.19048,5.20636,0.939811,-3.24673,0.895137,1.03963,-1.33498,-2.03042,0.535358,0.376567,-9.42693,-2.97863,-6.01959,26.2513,-5.13016,7.74263,10.2511,-2.13109,3.18146,9.93923e-16,-1.39149e-14,-23.269,33.6432,-92.1579,88.7526,-11.9507,-38.2845,9.23384,7.12502,-11.3137,-20.441,9.93923e-16,-1.39149e-14,-20.4391,-36.4196,91.9987,98.2471,4.85441,-17.5727,23.6506,7.12502,8.68266,53.4521,4.90127,19.0917,16.6292,12.9814,-13.6137,-23.0789,-6.57612,0,0,0,0,0,0,0
2.00643,18.9088,-4.31585,-3.49358,-7.43569,2.21901,5.23498,0.904428,-3.3041,0.905627,0.988513,-1.32638,-2.03514,0.510234,0.420738,-9.60687,-2.94507,-6.05245,26.4763,-5.11083,7.8456,10.3709,-2.1083,3.23016,-1.91703e-14,1.39149e-14,-23.2782,33.6769,-92.1337,88.8391,-11.9804,-38.1401,8.89895,7.12502,-11.1744,-20.7835,-1.91703e-14,1.39149e-14,-20.2041,-36.444,91.6458,98.4729,5.29011,-15.2322,22.6251,7.12502,10.9408,52.3201,4.98106,19.0202,16.6214,12.9479,-13.6181,-23.1333,-6.63186,0,0,0,0,0,0,0
