JuanDHNZ/ProyectoFinalCD/preprocessing/sports_trials_csv/13_03.csv
root1,root2,root3,root4,root5,root6,lowerback1,lowerback2,lowerback3,upperback1,upperback2,upperback3,thorax1,thorax2,thorax3,lowerneck1,lowerneck2,lowerneck3,upperneck1,upperneck2,upperneck3,head1,head2,head3,rclavicle1,rclavicle2,rhumerus1,rhumerus2,rhumerus3,rradius1,rwrist1,rhand1,rhand2,rfingers1,rthumb1,rthumb2,lclavicle1,lclavicle2,lhumerus1,lhumerus2,lhumerus3,lradius1,lwrist1,lhand1,lhand2,lfingers1,lthumb1,lthumb2,rfemur1,rfemur2,rfemur3,rtibia1,rfoot1,rfoot2,rtoes1,lfemur1,lfemur2,lfemur3,ltibia1,lfoot1,lfoot2,ltoes1
-8.14365,18.6133,5.90488,1.73629,-12.3149,-0.427221,3.55737,-0.490277,-0.716794,0.449051,-0.691555,-0.57887,-1.53185,-0.342867,-0.158141,-8.46188,-6.14779,-11.2326,10.6227,-7.8879,8.63292,5.37511,-3.79621,3.92819,4.39563e-14,7.55382e-15,-34.3957,-7.13163,-78.6256,25.7524,18.7259,-27.7454,2.04589,7.12502,-1.14001,-27.9308,4.39563e-14,7.55382e-15,-35.8107,16.6742,74.272,25.8234,-13.0178,-20.5967,24.96,7.12502,5.76374,54.8616,-5.08001,22.0561,19.5486,25.8378,-19.7633,-12.3056,-3.65279,-3.25424,-6.50574,-20.5324,23.7278,-19.9994,14.9871,-6.87313
-8.14003,18.6131,5.89419,1.69063,-12.1796,-0.402472,3.60283,-0.474439,-0.709396,0.489273,-0.670694,-0.599119,-1.51643,-0.332651,-0.183838,-8.59266,-6.08294,-11.149,10.8188,-7.7963,8.54325,5.44162,-3.75084,3.89097,-1.14301e-15,-4.77083e-15,-34.3951,-7.54437,-78.3846,25.3822,19.0118,-27.5811,1.88929,7.12502,-0.981372,-28.0882,-1.14301e-15,-4.77083e-15,-35.7007,16.6798,74.2588,25.7438,-12.932,-20.8072,24.6342,7.12502,5.56045,54.5413,-5.06835,21.9691,19.5372,25.8647,-19.7642,-12.3593,-3.69868,-3.23539,-6.39412,-20.5112,23.6959,-19.7454,14.6319,-6.69091
-8.13343,18.6119,5.8882,1.5222,-11.9348,-0.377506,3.71192,-0.481392,-0.62861,0.557843,-0.677836,-0.623989,-1.50842,-0.336833,-0.253619,-8.70335,-5.95792,-11.0888,11.0723,-7.62601,8.46141,5.51606,-3.66841,3.86795,-1.28465e-14,5.1684e-15,-34.4644,-7.85746,-78.1293,25.0307,19.3489,-28.0546,3.10768,7.12502,-1.43864,-26.8672,-1.28465e-14,5.1684e-15,-35.662,16.4596,74.3658,25.8476,-12.6596,-21.0439,24.8709,7.12502,5.33201,54.7838,-4.83982,21.7971,19.5789,25.841,-19.7974,-12.411,-3.59706,-3.09905,-6.65979,-20.5363,23.6672,-20.0358,14.4981,-5.78761
-8.12968,18.6136,5.87927,1.42609,-11.7193,-0.33542,3.81409,-0.472742,-0.614446,0.564027,-0.666966,-0.634373,-1.55955,-0.331409,-0.271849,-8.63351,-5.81425,-11.1079,11.2037,-7.43713,8.42257,5.52502,-3.5818,3.87786,-1.49089e-16,1.23246e-14,-34.576,-7.96245,-77.9572,24.8146,19.4322,-28.1152,2.79941,7.12502,-1.49717,-27.1751,-1.49089e-16,1.23246e-14,-35.6999,16.3178,74.4095,26.0092,-12.5308,-21.0101,25.0442,7.12502,5.36455,54.9563,-4.73228,21.666,19.5777,25.8428,-19.7871,-12.4984,-3.55533,-3.05612,-6.79559,-20.5612,23.6423,-19.9732,14.3233,-5.47302
-8.13002,18.6163,5.8659,1.39938,-11.5147,-0.317236,3.89689,-0.452494,-0.630649,0.526902,-0.641963,-0.639746,-1.64386,-0.318629,-0.268647,-8.41181,-5.66939,-11.0628,11.2011,-7.25788,8.33848,5.46344,-3.50326,3.86557,-1.82633e-14,1.98785e-15,-34.7329,-8.12066,-77.8007,24.6489,19.5244,-28.4252,4.23859,7.12502,-1.79662,-25.7336,-1.82633e-14,1.98785e-15,-35.7369,16.3066,74.3324,26.0978,-12.59,-20.6413,24.9642,7.12502,5.72071,54.867,-4.72596,21.5991,19.5924,25.84,-19.7836,-12.6265,-3.42147,-3.10126,-6.71501,-20.5086,23.6289,-19.5898,13.9938,-5.80281
-8.13183,18.6152,5.85127,1.3727,-11.306,-0.340836,3.91662,-0.426473,-0.5981,0.547024,-0.606312,-0.659803,-1.63481,-0.301119,-0.30926,-8.30296,-5.51801,-10.9254,11.2501,-7.06928,8.22691,5.43198,-3.41529,3.82744,1.80397e-14,-7.55382e-15,-34.7777,-8.47177,-77.6346,24.3292,19.8138,-28.0563,3.59028,7.12502,-1.44025,-26.3846,1.80397e-14,-7.55382e-15,-35.5629,16.3447,74.2144,25.999,-12.762,-20.1126,25.1105,7.12502,6.23111,54.9988,-4.71145,21.6015,19.6736,25.8429,-19.8163,-12.784,-3.16391,-3.16807,-6.74479,-20.3963,23.6449,-19.7167,13.6875,-5.43591
-8.13306,18.6151,5.83606,1.40828,-11.0796,-0.423773,3.87741,-0.423248,-0.500655,0.593876,-0.597027,-0.655317,-1.56574,-0.297167,-0.3603,-8.44997,-5.34783,-10.866,11.5066,-6.83705,8.17662,5.50948,-3.30024,3.81946,2.73329e-15,7.55382e-15,-34.7252,-8.67304,-77.5434,24.0539,19.9389,-28.5269,4.90015,7.12502,-1.89479,-25.0712,2.73329e-15,7.55382e-15,-35.3302,16.4454,74.132,25.9487,-12.9257,-19.8554,25.3936,7.12502,6.4794,55.2745,-4.77184,21.6079,19.8006,25.8776,-19.8437,-12.9508,-2.95634,-3.28737,-6.75891,-20.2171,23.6498,-19.7054,13.379,-5.25263
-8.13331,18.6189,5.82327,1.43792,-10.8423,-0.446919,3.90363,-0.400594,-0.43575,0.573168,-0.5648,-0.671982,-1.60235,-0.28142,-0.415157,-8.55557,-5.15608,-10.8212,11.8125,-6.58303,8.14543,5.5946,-3.1754,3.8232,-4.4975e-15,-1.39149e-14,-34.851,-8.74825,-77.4644,23.9152,19.9227,-28.5583,6.15764,7.12502,-1.92509,-23.8134,-4.4975e-15,-1.39149e-14,-35.2915,16.3582,74.1405,26.0787,-12.48,-20.2941,25.1376,7.12502,6.05589,55.031,-4.82822,21.5827,19.855,25.9507,-19.8848,-13.1301,-2.92033,-3.38067,-6.68889,-20.1102,23.6204,-19.4963,13.0993,-5.56736
-8.13446,18.6226,5.81249,1.44152,-10.6691,-0.304389,3.91167,-0.303008,-0.511731,0.543323,-0.440015,-0.765727,-1.63711,-0.218886,-0.475065,-8.54295,-4.97496,-10.6403,11.986,-6.35414,8.01983,5.61357,-3.06505,3.7747,2.81529e-14,1.51076e-14,-35.0471,-9.01637,-77.316,23.7949,20.2988,-28.2497,6.16642,7.12502,-1.62708,-23.8071,2.81529e-14,1.51076e-14,-35.1679,16.123,74.1995,26.0765,-11.6583,-20.7792,24.9054,7.12502,5.58758,54.8117,-4.87607,21.551,19.7143,26.0397,-19.9208,-13.286,-2.88823,-3.43842,-6.61606,-20.2068,23.5799,-19.2997,12.8931,-5.93261
-8.13811,18.6244,5.79768,1.50524,-10.5266,-0.16347,3.80575,-0.190631,-0.641825,0.561337,-0.295555,-0.833465,-1.55837,-0.146303,-0.479553,-8.54201,-4.78537,-10.4872,12.0736,-6.10429,7.89852,5.60763,-2.94468,3.73337,-4.02539e-15,0,-35.1158,-9.32645,-77.1312,23.7811,21.2408,-28.6601,9.22275,7.12502,-2.02343,-20.7474,-4.02539e-15,0,-34.8735,16.0635,74.2419,25.9851,-11.2435,-20.5419,25.4545,7.12502,5.81666,55.3547,-5.0418,21.4483,19.5339,26.1415,-19.9526,-13.3219,-2.80044,-3.55132,-6.54928,-20.2917,23.5167,-19.1501,12.6679,-6.02178
-8.14327,18.6241,5.77886,1.46422,-10.2084,-0.142843,3.87593,-0.154131,-0.691997,0.586683,-0.24958,-0.831969,-1.57126,-0.123067,-0.452069,-8.50777,-4.57231,-10.3493,12.1802,-5.81804,7.7317,5.59834,-2.81107,3.68347,2.73577e-14,-2.38542e-15,-35.2119,-9.48051,-76.9569,23.8358,22.1403,-27.248,6.00524,7.12502,-0.659583,-23.9735,2.73577e-14,-2.38542e-15,-34.6684,16.0747,74.2754,26.0077,-11.0023,-20.1582,26.1797,7.12502,6.18708,56.0693,-5.06606,21.3368,19.586,26.2571,-20.0293,-13.4977,-2.73026,-3.56095,-6.59665,-20.2152,23.4186,-18.9863,12.3161,-5.75858
-8.14798,18.6228,5.76152,1.35317,-9.83696,-0.137758,4.04844,-0.118171,-0.690646,0.599937,-0.203911,-0.844459,-1.65414,-0.100187,-0.467674,-8.43495,-4.37541,-10.1161,12.3176,-5.55994,7.47805,5.59052,-2.69345,3.58814,-3.72224e-14,-9.93923e-15,-35.3753,-9.62603,-76.8264,23.8259,22.3733,-26.5998,4.95531,7.12502,-0.0335168,-25.0244,-3.72224e-14,-9.93923e-15,-34.5082,15.9955,74.3078,26.1007,-10.9106,-20.1767,26.658,7.12502,6.16926,56.5482,-4.97554,21.2379,19.6999,26.3475,-20.1221,-13.7802,-2.63791,-3.51172,-6.77478,-20.1369,23.3317,-18.8549,12.034,-5.55768
-8.15423,18.6227,5.75004,1.36081,-9.72084,-0.049376,3.94121,0.0339644,-0.763509,0.648945,-0.00351172,-0.908393,-1.54321,-0.000127898,-0.503053,-8.37299,-4.16531,-9.87112,12.4277,-5.29649,7.32212,5.57889,-2.56578,3.52207,-1.17034e-14,-1.11319e-14,-35.4532,-9.68109,-76.8431,23.7697,21.8924,-26.565,4.66718,7.12502,5.80052e-05,-25.3126,-1.17034e-14,-1.11319e-14,-34.2457,15.7558,74.4119,26.2403,-10.7237,-20.2305,27.1742,7.12502,6.11727,57.0658,-5.06161,21.1701,19.6104,26.4001,-20.1455,-13.854,-2.66074,-3.56324,-6.86297,-20.1898,23.2683,-18.7701,11.9741,-5.64722
-8.16365,18.623,5.74137,1.38734,-9.63346,0.0478782,3.77729,0.178852,-0.881059,0.695061,0.186634,-0.972588,-1.40374,0.0949329,-0.512112,-8.36539,-3.88675,-9.52741,12.595,-4.94092,7.09736,5.58316,-2.39225,3.42453,-6.58474e-15,1.03368e-14,-35.522,-9.45743,-77.011,23.6442,21.1575,-26.3979,4.05784,7.12502,0.161485,-25.9218,-6.58474e-15,1.03368e-14,-34.0634,15.611,74.4636,26.4757,-10.3793,-20.1972,27.6248,7.12502,6.14943,57.5155,-5.15592,21.1681,19.5174,26.4294,-20.1336,-13.9306,-2.56633,-3.62327,-6.87617,-20.2506,23.2197,-18.6739,11.925,-5.88093
-8.17123,18.623,5.72783,1.37894,-9.32966,0.109991,3.80321,0.245291,-0.924841,0.673837,0.271737,-1.03217,-1.43972,0.137612,-0.553066,-8.38073,-3.58256,-9.16016,12.8651,-4.55248,6.84878,5.62159,-2.2032,3.31789,2.80535e-14,-1.78906e-14,-35.7124,-9.11696,-77.2405,23.549,20.3936,-26.2045,3.3294,7.12502,0.348255,-26.6501,2.80535e-14,-1.78906e-14,-34.0497,15.6622,74.3749,26.8332,-10.3604,-20.2715,27.4466,7.12502,6.0777,57.3395,-5.15906,21.053,19.5024,26.4426,-20.1847,-14.0871,-2.42053,-3.69041,-7.00638,-20.2498,23.201,-18.5705,11.7389,-5.84299
-8.17704,18.6247,5.70718,1.36606,-8.96471,0.111865,3.91241,0.331678,-0.881011,0.664612,0.385944,-1.0778,-1.50937,0.194477,-0.63093,-8.37404,-3.30662,-8.90695,13.0723,-4.21152,6.78203,5.64899,-2.03045,3.28396,-1.25483e-14,-1.35174e-14,-35.8834,-9.28887,-77.1464,23.6106,21.0311,-25.829,2.86315,7.12502,0.710873,-27.1154,-1.25483e-14,-1.35174e-14,-33.9726,15.5015,74.4187,27.24,-10.2413,-20.3781,27.0539,7.12502,5.97482,56.9497,-5.16286,20.8636,19.5501,26.4451,-20.2482,-14.245,-2.51697,-3.80543,-7.17456,-20.1624,23.2195,-18.4585,11.4525,-5.34837
-8.18495,18.627,5.68523,1.33738,-8.67063,0.105851,4.01403,0.446551,-0.889489,0.698215,0.537012,-1.09997,-1.53095,0.269887,-0.65743,-8.41174,-3.03059,-8.62674,13.2545,-3.8769,6.76686,5.67814,-1.85476,3.26077,2.87244e-14,8.74653e-15,-36.006,-9.32545,-77.1122,23.621,21.2438,-26.0307,3.21578,7.12502,0.516054,-26.7633,2.87244e-14,8.74653e-15,-33.8336,15.1966,74.5886,27.7215,-9.76021,-20.2911,27.0105,7.12502,6.05882,56.9039,-5.16091,20.7137,19.6182,26.445,-20.2288,-14.4041,-2.57254,-3.91897,-7.26576,-20.0587,23.255,-18.3315,11.1831,-4.9984
-8.19502,18.628,5.66702,1.32485,-8.40551,0.15908,4.01811,0.566516,-0.98583,0.740491,0.692596,-1.13774,-1.48979,0.347825,-0.650097,-8.44407,-2.74413,-8.34198,13.4781,-3.54163,6.82198,5.72118,-1.6737,3.25959,1.7667e-14,-5.1684e-15,-36.1966,-9.17647,-77.1656,23.5675,21.1716,-26.5231,4.07583,7.12502,0.0404961,-25.9039,1.7667e-14,-5.1684e-15,-33.657,14.9672,74.7036,28.1447,-9.23925,-20.0196,27.2541,7.12502,6.32086,57.1398,-5.15281,20.5682,19.6218,26.4421,-20.192,-14.54,-2.4281,-4.04241,-7.29105,-20.0216,23.3108,-18.1784,10.9671,-5.2806
-8.20525,18.6304,5.64987,1.33654,-8.09487,0.203874,3.99499,0.70797,-1.03036,0.756825,0.878816,-1.19932,-1.45908,0.440825,-0.697584,-8.34555,-2.48124,-8.11062,13.6536,-3.25129,6.9596,5.73302,-1.51328,3.29065,-4.29375e-14,1.63003e-14,-36.4473,-9.11756,-77.2017,23.4888,21.2789,-27.0874,5.03705,7.12502,-0.504457,-24.9421,-4.29375e-14,1.63003e-14,-33.4221,14.6407,74.8242,28.4471,-8.80662,-19.7483,27.5792,7.12502,6.58277,57.4569,-5.16774,20.4602,19.6303,26.4446,-20.236,-14.6925,-2.1447,-4.19131,-7.31844,-19.9698,23.368,-18.0579,10.6916,-5.44954
-8.21539,18.6335,5.62783,1.35695,-7.7195,0.209438,4.08945,0.83812,-1.00364,0.720105,1.04994,-1.26214,-1.54719,0.526202,-0.787883,-8.23363,-2.22465,-7.82017,13.8447,-2.96806,7.02373,5.74645,-1.35832,3.28762,-1.1281e-14,-2.78299e-15,-36.7401,-9.04398,-77.2834,23.5083,21.2859,-27.1767,5.4629,7.12502,-0.590705,-24.516,-1.1281e-14,-2.78299e-15,-33.3305,14.2107,74.9772,28.917,-8.40205,-19.6465,27.689,7.12502,6.68104,57.5636,-5.21458,20.3518,19.6809,26.4538,-20.3121,-14.8826,-1.94391,-4.36301,-7.37741,-19.8616,23.3897,-17.881,10.3972,-5.68487
-8.22642,18.6353,5.60579,1.38644,-7.33704,0.252894,4.14845,0.941134,-1.02719,0.70311,1.18395,-1.30784,-1.59634,0.593211,-0.830095,-8.23049,-1.97386,-7.55172,14.0657,-2.67903,7.06228,5.78834,-1.20109,3.27993,1.44367e-14,-1.55052e-14,-36.9192,-8.82975,-77.4182,23.4784,21.1076,-27.2305,5.85886,7.12502,-0.64268,-24.1199,1.44367e-14,-1.55052e-14,-33.3746,13.9133,75.1364,29.5527,-7.97889,-19.8247,27.6334,7.12502,6.50908,57.5134,-5.27054,20.1726,19.6864,26.4575,-20.3157,-15.1056,-2.10093,-4.5223,-7.58902,-19.8086,23.3808,-17.7024,10.2512,-6.2639
-8.23392,18.6352,5.59431,1.37769,-7.09071,0.28006,4.11043,1.08003,-0.981886,0.735671,1.37153,-1.35204,-1.53827,0.686499,-0.90978,-8.30889,-1.75019,-7.42453,14.3636,-2.43136,7.27207,5.87559,-1.0574,3.34825,-2.33572e-15,1.39149e-14,-37.001,-8.65058,-77.5258,23.3584,21.11,-27.3838,6.01626,7.12502,-0.790743,-23.962,-2.33572e-15,1.39149e-14,-33.2765,13.702,75.2929,30.0652,-7.4325,-19.899,27.6574,7.12502,6.43729,57.5396,-5.27756,19.9934,19.6867,26.47,-20.24,-15.2047,-2.19306,-4.5386,-8.01411,-19.8174,23.3507,-17.7211,10.3656,-6.47262
-8.23957,18.6349,5.58635,1.34189,-6.85288,0.275802,4.06718,1.24125,-0.862595,0.785554,1.59208,-1.41702,-1.45598,0.795991,-1.05318,-8.41144,-1.55478,-7.24117,14.7005,-2.23083,7.47542,5.98218,-0.932895,3.40254,-1.3418e-15,1.15295e-14,-37.1198,-8.19995,-77.827,23.3795,20.7467,-27.3748,5.58071,7.12502,-0.78204,-24.3976,-1.3418e-15,1.15295e-14,-32.9368,13.3477,75.4829,30.3642,-6.72586,-20.0171,27.7304,7.12502,6.32326,57.616,-5.26706,19.8352,19.7139,26.5,-20.2132,-15.2158,-1.9357,-4.51383,-8.38271,-19.8047,23.3103,-17.7093,10.4794,-6.46275
-8.25136,18.6361,5.56823,1.36292,-6.43151,0.329209,4.03401,1.36876,-0.865602,0.809098,1.76185,-1.48197,-1.40935,0.880751,-1.12567,-8.42845,-1.3277,-6.91225,14.8754,-1.98299,7.52762,6.01724,-0.78953,3.38589,8.94531e-15,9.14409e-15,-37.2876,-7.52144,-78.2523,23.4977,20.0461,-27.3698,4.96439,7.12502,-0.777254,-25.0139,8.94531e-15,9.14409e-15,-32.7116,12.8613,75.7194,30.7668,-6.06448,-20.2906,27.8224,7.12502,6.05922,57.7157,-5.33475,19.6298,19.7041,26.5298,-20.2654,-15.3552,-1.81541,-4.66107,-8.498,-19.7373,23.2766,-17.5333,10.1555,-6.21129
-8.26746,18.637,5.5414,1.38331,-5.92971,0.35115,4.14274,1.4581,-0.927283,0.795818,1.87589,-1.48463,-1.48421,0.937916,-1.10321,-8.5289,-1.06205,-6.5897,15.1172,-1.67415,7.54119,6.0839,-0.617617,3.36361,-2.48481e-16,7.15625e-15,-37.505,-7.16914,-78.4395,23.6531,19.9028,-27.3441,4.84098,7.12502,-0.75239,-25.1374,-2.48481e-16,7.15625e-15,-32.674,12.5611,75.9019,31.2628,-5.70166,-20.09,27.9343,7.12502,6.25289,57.822,-5.39096,19.3902,19.772,26.5698,-20.3227,-15.586,-1.77962,-4.86644,-8.53315,-19.5695,23.2489,-17.3338,9.54658,-5.51175
-8.28324,18.6407,5.51576,1.3933,-5.36447,0.406334,4.25894,1.52565,-1.03811,0.808371,1.95885,-1.48407,-1.53904,0.979799,-1.04839,-8.69683,-0.833874,-6.26414,15.4366,-1.41365,7.5267,6.19152,-0.469151,3.32967,-2.06736e-14,5.56597e-15,-37.6778,-6.99808,-78.5476,23.8662,19.9101,-27.2696,5.20442,7.12502,-0.680453,-24.7742,-2.06736e-14,5.56597e-15,-32.5531,12.4069,76.032,31.7419,-5.68869,-20.0133,28.2341,7.12502,6.32693,58.1196,-5.41736,19.1192,19.8178,26.6441,-20.3794,-15.8587,-1.60183,-5.06829,-8.64403,-19.4568,23.2122,-17.0839,9.02448,-4.28979
-8.30077,18.6443,5.48942,1.44383,-4.75134,0.531255,4.30304,1.59229,-1.18961,0.819378,2.03921,-1.53142,-1.55514,1.02052,-1.01787,-8.66088,-0.587386,-5.98573,15.591,-1.14417,7.6362,6.21245,-0.313541,3.34171,-2.15184e-14,-3.18055e-15,-37.8311,-6.80002,-78.7368,24.1391,19.715,-27.1188,5.13394,7.12502,-0.534819,-24.8451,-2.15184e-14,-3.18055e-15,-32.4516,12.1748,76.1676,32.301,-5.63622,-20.1986,28.7045,7.12502,6.14805,58.5953,-5.50478,18.8734,19.7774,26.7353,-20.4746,-16.1801,-1.32907,-5.29212,-8.74981,-19.4136,23.1625,-16.8417,8.48851,-3.27521
-8.32031,18.642,5.45725,1.47157,-4.16884,0.560282,4.46391,1.66441,-1.19984,0.810907,2.13029,-1.5694,-1.65193,1.06606,-1.06174,-8.55783,-0.343585,-5.85249,15.7108,-0.877193,7.86597,6.2119,-0.159535,3.4159,1.49089e-16,-1.15295e-14,-37.8499,-6.68114,-78.8926,24.1445,19.7817,-27.0177,5.12051,7.12502,-0.437164,-24.8588,1.49089e-16,-1.15295e-14,-32.4163,11.886,76.324,32.8373,-5.31652,-19.8287,28.8668,7.12502,6.50516,58.7469,-5.59173,18.6757,19.8556,26.8256,-20.5851,-16.4866,-0.976325,-5.4317,-8.81937,-19.258,23.0794,-16.6505,7.87664,-3.87993
-8.33575,18.6405,5.42988,1.47465,-3.6778,0.597158,4.58193,1.7757,-1.10251,0.830491,2.27963,-1.64294,-1.68965,1.14004,-1.20405,-8.50064,-0.170334,-5.72213,15.8724,-0.695009,8.02722,6.2387,-0.0506828,3.46271,-8.64713e-15,2.0276e-14,-37.6303,-6.61768,-79.0507,23.6545,20.0076,-27.2795,5.64606,7.12502,-0.690025,-24.3326,-8.64713e-15,2.0276e-14,-32.396,11.3876,76.5625,33.4789,-4.58789,-19.9141,29.0104,7.12502,6.42277,58.893,-5.65831,18.4641,19.894,26.9126,-20.6959,-16.6755,-0.786318,-5.50934,-9.01497,-19.1747,22.9771,-16.4868,7.54215,-4.76348
-8.34812,18.6426,5.41142,1.48518,-3.20448,0.752308,4.5724,1.90875,-1.08822,0.884967,2.4572,-1.74002,-1.62134,1.22857,-1.32052,-8.53168,-0.0176588,-5.57453,16.0883,-0.533225,8.13122,6.29977,0.047274,3.48822,-1.83876e-15,-7.95139e-16,-37.4403,-6.42801,-79.2552,23.2757,20.0223,-27.5834,5.89365,7.12502,-0.983563,-24.0838,-1.83876e-15,-7.95139e-16,-32.4005,10.7991,76.8825,34.2314,-3.52462,-20.9755,28.9802,7.12502,5.39798,58.8915,-5.71046,18.2241,19.7694,26.9862,-20.8415,-16.7978,-0.581061,-5.61344,-9.30188,-19.2533,22.8929,-16.4025,7.3234,-4.67853
-8.36468,18.6446,5.38946,1.52182,-2.63071,0.836105,4.6288,2.00828,-1.10401,0.91157,2.58791,-1.76504,-1.6232,1.29391,-1.34665,-8.64345,0.125676,-5.44178,16.3921,-0.377128,8.19602,6.40359,0.141021,3.50578,-6.85807e-15,7.95139e-16,-37.4092,-5.83889,-79.591,23.3063,19.5405,-27.6896,5.79893,7.12502,-1.08615,-24.178,-6.85807e-15,7.95139e-16,-32.4279,10.3857,77.1619,34.9177,-2.80257,-22.1169,27.9149,7.12502,4.29585,57.8514,-5.76658,17.9974,19.755,27.0382,-20.946,-17.028,-0.132585,-5.79222,-9.42912,-19.1963,22.8189,-16.2228,6.86419,-4.61709
-8.38447,18.6467,5.36135,1.63352,-2.00792,0.864967,4.68315,2.0724,-1.14584,0.885168,2.66998,-1.74214,-1.68249,1.33509,-1.30762,-8.9061,0.2654,-5.45022,16.9721,-0.234267,8.38347,6.62262,0.234725,3.59412,1.16289e-14,1.19271e-15,-37.3796,-5.0758,-79.9652,23.2548,19.1216,-27.6049,5.26165,7.12502,-1.00432,-24.7157,1.16289e-14,1.19271e-15,-32.4726,10.1221,77.3434,35.4507,-2.49596,-22.8711,27.1892,7.12502,3.56754,57.1391,-5.91168,17.7743,19.7989,27.0771,-21.0212,-17.3246,0.32202,-6.08207,-9.49477,-19.0409,22.7415,-15.8991,6.3603,-4.8593
-8.40337,18.6497,5.33424,1.77991,-1.3223,0.983488,4.63013,2.11402,-1.2252,0.895691,2.7231,-1.74637,-1.64484,1.36206,-1.26835,-9.41217,0.376056,-5.60251,17.8119,-0.113944,8.57824,6.97075,0.315826,3.71834,1.21756e-14,-1.19271e-15,-37.2501,-4.65327,-80.1633,23.0065,19.3401,-27.4936,4.91017,7.12502,-0.896812,-25.0677,1.21756e-14,-1.19271e-15,-32.4129,9.98588,77.4822,35.8488,-2.55251,-22.622,28.2746,7.12502,3.80814,58.2203,-6.07266,17.4258,19.7258,27.1002,-21.1099,-17.5996,0.625037,-6.43319,-9.64869,-18.9896,22.6865,-15.5731,5.89399,-5.06281
-8.42062,18.6524,5.30929,1.82374,-0.57748,1.14107,4.67724,2.15493,-1.25703,0.964158,2.77595,-1.77671,-1.60017,1.3886,-1.28505,-9.62834,0.471756,-5.3857,18.2088,0.0221732,8.30492,7.12854,0.379968,3.61481,8.94531e-16,-2.38542e-15,-37.1095,-4.37949,-80.3104,22.9005,19.5388,-27.9089,5.43902,7.12502,-1.29789,-24.5368,8.94531e-16,-2.38542e-15,-32.2773,9.79756,77.6961,36.2788,-2.52635,-21.9487,29.3048,7.12502,4.45831,59.2379,-6.0883,16.9994,19.6385,27.0866,-21.1859,-17.8744,0.862655,-6.69475,-9.84907,-19.014,22.6599,-15.2673,5.43423,-5.29664
-8.43926,18.6535,5.28149,1.8063,0.171198,1.17502,4.87028,2.19868,-1.17587,1.01705,2.83484,-1.77302,-1.64914,1.4177,-1.33709,-9.3453,0.60122,-4.91896,18.0397,0.194805,7.91187,7.01429,0.45507,3.41333,-7.35503e-15,3.97569e-16,-37.0289,-4.00023,-80.5233,22.9434,19.3302,-28.5583,5.98724,7.12502,-1.92508,-23.9838,-7.35503e-15,3.97569e-16,-32.1919,9.55991,77.8963,36.6471,-2.16709,-21.9272,29.1478,7.12502,4.47909,59.0805,-6.02397,16.7079,19.7233,27.0075,-21.2684,-18.2501,1.1811,-6.91889,-10.1404,-18.8987,22.67,-15.0363,4.96555,-5.05104
-8.46052,18.6549,5.25522,1.80302,0.92119,1.0473,4.97451,2.25997,-0.924717,1.09092,2.92926,-1.74499,-1.619,1.46407,-1.45688,-9.07358,0.705708,-4.78975,17.9124,0.30636,7.97018,6.91708,0.51765,3.41376,-6.45553e-14,2.78299e-14,-36.9686,-3.75181,-80.6994,23.0953,19.1329,-28.7024,6.11726,7.12502,-2.06432,-23.8525,-6.45553e-14,2.78299e-14,-32.0893,9.42321,78.0002,36.9459,-2.11672,-22.4359,28.0225,7.12502,3.98789,57.965,-5.92256,16.5522,20.0166,26.8557,-21.3678,-18.7438,1.44606,-7.15317,-10.4179,-18.5877,22.7375,-14.8933,4.443,-4.5987
-8.48345,18.6573,5.23264,1.80281,1.67793,0.84112,4.97766,2.33654,-0.576782,1.19131,3.05193,-1.70745,-1.49933,1.52486,-1.6172,-8.96329,0.826073,-4.83243,17.9924,0.422132,8.25837,6.91256,0.594821,3.52566,6.55989e-15,1.43125e-14,-36.9104,-3.74763,-80.753,23.3329,19.3168,-28.3479,6.13945,7.12502,-1.72192,-23.8333,6.55989e-15,1.43125e-14,-31.9701,9.14676,78.1743,37.3236,-1.94629,-22.9069,26.9816,7.12502,3.533,56.9321,-5.78571,16.4384,20.413,26.669,-21.4745,-19.2398,1.65157,-7.39482,-10.5891,-18.1879,22.8302,-14.7362,3.90306,-4.79253
-8.50831,18.6587,5.20327,1.84143,2.43702,0.653807,5.05527,2.40128,-0.268591,1.24765,3.15482,-1.66046,-1.46837,1.57586,-1.74915,-8.99191,1.0278,-4.78817,18.213,0.640554,8.50561,6.97084,0.727597,3.62311,3.3197e-14,9.93923e-15,-36.8375,-3.70398,-80.8151,23.5036,19.4158,-28.0849,6.204,7.12502,-1.4679,-23.7707,3.3197e-14,9.93923e-15,-31.8467,8.88344,78.3371,37.564,-1.55293,-22.9458,26.9614,7.12502,3.49541,56.9125,-5.74788,16.3413,20.7695,26.4853,-21.5306,-19.7276,1.88952,-7.75719,-10.7848,-17.7809,22.9226,-14.5117,3.36917,-4.90633
-8.53379,18.6595,5.16802,1.90155,3.24967,0.663452,5.26529,2.45621,-0.138924,1.24551,3.23227,-1.66524,-1.57807,1.61369,-1.84161,-9.0592,1.18921,-4.71571,18.5273,0.808787,8.67641,7.0706,0.833589,3.69017,7.05686e-15,-1.35174e-14,-36.8166,-3.45073,-80.9813,23.6695,19.1101,-28.2415,6.13395,7.12502,-1.61916,-23.8397,7.05686e-15,-1.35174e-14,-31.7388,8.75419,78.4265,37.6491,-1.40638,-22.9733,27.2143,7.12502,3.46892,57.1658,-5.7737,16.1564,20.8894,26.3347,-21.5308,-20.2591,2.11175,-8.17182,-11.0646,-17.5834,22.9986,-14.2368,2.82529,-4.63181
-8.56168,18.6614,5.13203,2.00832,4.11228,0.724582,5.46812,2.50639,-0.0677033,1.20891,3.29991,-1.69068,-1.72119,1.64628,-1.92327,-9.08791,1.27089,-4.62162,18.8836,0.870535,8.78894,7.18587,0.885079,3.72689,-3.72224e-14,-1.39149e-14,-36.8522,-3.34021,-81.0769,23.8928,19.1749,-29.1885,6.44275,7.12502,-2.53375,-23.522,-3.72224e-14,-1.39149e-14,-31.6736,8.40861,78.5669,37.7824,-1.20477,-23.292,27.2534,7.12502,3.16113,57.2097,-5.8499,15.9807,20.9599,26.2437,-21.6287,-20.8425,2.28717,-8.6223,-11.2572,-17.4245,23.0183,-13.8839,2.21782,-4.54962
-8.58934,18.6624,5.09973,2.11194,4.92431,0.73514,5.55188,2.57258,0.0371303,1.24561,3.3941,-1.67927,-1.72172,1.69317,-1.97943,-9.17333,1.35681,-4.60613,19.1645,0.944791,8.96228,7.28505,0.943047,3.79748,-3.00165e-14,1.66979e-14,-36.7513,-3.39201,-81.0317,24.0916,19.5494,-30.8907,7.27199,7.12502,-4.17758,-22.6668,-3.00165e-14,1.66979e-14,-31.5919,8.2405,78.7001,37.9737,-1.23573,-23.3632,27.1871,7.12502,3.09237,57.1444,-5.93471,15.7123,21.0733,26.2071,-21.8283,-21.228,2.26671,-9.0103,-11.2651,-17.2226,22.9705,-13.493,1.56629,-4.91729
-8.61345,18.6636,5.073,2.1683,5.69402,0.873578,5.59702,2.6672,0.0701725,1.3232,3.52231,-1.70955,-1.65884,1.75803,-2.03727,-9.24756,1.4445,-4.67404,19.4142,1.01242,9.26236,7.37055,1.00311,3.92346,-1.11816e-14,7.55382e-15,-36.6316,-3.19404,-81.0864,24.3004,19.3155,-32.0075,7.73616,7.12502,-5.256,-22.1787,-1.11816e-14,7.55382e-15,-31.6052,8.22712,78.8231,38.3293,-1.4023,-23.3274,27.549,7.12502,3.12688,57.5058,-5.95782,15.299,21.0318,26.1945,-21.9964,-21.456,2.21817,-9.25377,-11.4128,-17.21,22.8897,-13.151,1.06898,-5.11203
-8.63933,18.6658,5.04523,2.26753,6.4523,1.05521,5.63904,2.76299,0.0530378,1.38722,3.64864,-1.765,-1.60942,1.822,-2.09311,-9.42168,1.48963,-4.67474,19.7709,1.01942,9.48999,7.51547,1.03615,4.01484,2.39039e-14,-1.03368e-14,-36.6448,-2.78091,-81.2727,24.6707,18.8001,-32.2912,7.86098,7.12502,-5.52991,-22.0469,2.39039e-14,-1.03368e-14,-31.6392,7.92191,78.9878,38.6867,-1.19145,-23.4755,27.1887,7.12502,2.98392,57.1476,-6.03839,15.1985,20.9687,26.1967,-22.2427,-21.9602,2.64986,-9.51333,-11.7731,-17.2327,22.7737,-12.7931,0.746738,-4.64502
-8.66786,18.6693,5.01117,2.43991,7.28995,1.18882,5.65097,2.81635,0.0240134,1.47863,3.71971,-1.75093,-1.5223,1.85873,-2.06462,-9.74577,1.48122,-4.76466,20.1417,0.989099,9.61985,7.69632,1.03911,4.08972,-4.5472e-14,7.7526e-15,-36.6281,-2.42709,-81.3484,25.179,18.6546,-31.5831,7.35871,7.12502,-4.84616,-22.5659,-4.5472e-14,7.7526e-15,-31.5228,7.88488,79.1194,38.8143,-1.081,-23.7066,30.4271,7.12502,2.76073,60.389,-6.22379,15.1744,20.9543,26.2013,-22.5373,-22.6006,3.21618,-9.90985,-12.0207,-17.1585,22.6394,-12.3141,0.21834,-4.0583
-8.69791,18.6753,4.97079,2.66485,8.28528,1.36583,5.68961,2.83022,-0.0365116,1.56155,3.73621,-1.72618,-1.46348,1.86794,-2.00587,-10.1439,1.46816,-5.04128,20.5648,0.947928,9.93778,7.90604,1.04283,4.26356,3.18552e-14,-2.72335e-14,-36.3462,-2.09439,-81.3752,25.3333,18.4631,-29.8918,6.43337,7.12502,-3.21295,-23.5222,3.18552e-14,-2.72335e-14,-31.2666,8.15129,79.2225,38.8339,-1.11964,-23.4209,30.9001,7.12502,3.0366,60.8582,-6.43965,14.9824,20.892,26.1836,-22.7778,-23.2648,3.62073,-10.451,-12.1529,-17.1027,22.549,-11.756,-0.581012,-3.78468
-8.73207,18.681,4.9276,2.8301,9.26098,1.43147,5.89897,2.85836,0.0461312,1.61426,3.77732,-1.72382,-1.51915,1.88835,-2.06244,-10.6087,1.45593,-5.23146,21.0534,0.86973,10.3532,8.15487,1.04799,4.45858,-1.13556e-14,4.57205e-15,-35.8911,-1.75249,-81.4909,25.0612,18.0596,-29.0769,6.3139,7.12502,-2.42595,-23.6521,-1.13556e-14,4.57205e-15,-31.0102,8.13059,79.3176,38.8724,-0.954163,-23.2832,30.7895,7.12502,3.16956,60.7457,-6.61019,14.8911,20.9925,26.1506,-22.9627,-24.0291,4.1231,-10.9708,-12.3046,-16.9249,22.4833,-11.2386,-1.29738,-3.86925
-8.76701,18.6852,4.8848,2.92732,10.0919,1.33589,6.20822,2.93616,0.312194,1.64953,3.8956,-1.69602,-1.63479,1.94633,-2.20725,-10.9832,1.39927,-5.34081,21.4416,0.737354,10.6659,8.36257,1.0219,4.59607,1.34677e-14,-4.17448e-15,-35.5734,-1.60858,-81.5285,25.013,17.8551,-29.3556,6.48868,7.12502,-2.69511,-23.474,1.34677e-14,-4.17448e-15,-30.9404,7.80605,79.4406,39.0481,-0.653014,-23.371,30.8585,7.12502,3.08484,60.8159,-6.78032,14.7365,21.245,26.1088,-23.042,-24.6132,4.40783,-11.4165,-12.5065,-16.5931,22.4099,-10.7892,-1.7777,-4.06238
-8.79702,18.6883,4.84796,3.05075,10.8813,1.38677,6.32399,3.03956,0.443556,1.75951,4.04302,-1.66219,-1.57342,2.02109,-2.25899,-11.3042,1.32782,-5.51445,21.751,0.614467,10.9104,8.53471,0.986875,4.71897,7.74266e-14,-1.48095e-14,-35.2959,-1.47011,-81.4699,25.2297,17.706,-29.7638,6.32618,7.12502,-3.08933,-23.6312,7.74266e-14,-1.48095e-14,-30.8944,7.55172,79.6354,39.2772,-0.4356,-23.373,30.6006,7.12502,3.08292,60.558,-6.92083,14.4166,21.2929,26.0295,-23.1571,-24.9972,4.70966,-11.85,-12.6054,-16.4581,22.3674,-10.3305,-2.31264,-4.17367
-8.82543,18.6902,4.81516,3.17783,11.7345,1.55476,6.35731,3.14013,0.49337,1.85207,4.18126,-1.66953,-1.48676,2.09177,-2.30246,-11.3841,1.27948,-5.54944,21.9731,0.520893,11.0319,8.63266,0.958835,4.76973,2.75565e-14,5.26779e-15,-35.1456,-1.20448,-81.4659,25.4388,17.3493,-30.136,6.26493,7.12502,-3.44883,-23.6869,2.75565e-14,5.26779e-15,-30.6811,7.50063,79.7937,39.2224,-0.399193,-23.0988,29.4683,7.12502,3.34766,59.4218,-6.99075,14.039,21.214,25.9185,-23.2878,-25.4233,5.10896,-12.2669,-12.545,-16.4649,22.3471,-9.81877,-3.07438,-3.91935
-8.85681,18.6951,4.77823,3.34375,12.6771,1.62614,6.51062,3.24011,0.694713,1.79426,4.32571,-1.7087,-1.60722,2.16242,-2.47726,-11.2052,1.19921,-5.45806,22.1062,0.360261,11.1297,8.65981,0.9012,4.77468,2.55811e-14,-6.4605e-15,-35.2311,-1.13539,-81.4406,25.6931,17.1734,-30.3039,6.1488,7.12502,-3.61089,-23.8004,2.55811e-14,-6.4605e-15,-30.4074,7.46116,79.874,38.9355,-0.497364,-22.6205,28.4322,7.12502,3.80959,58.3779,-7.1339,13.669,21.2456,25.8214,-23.3796,-25.9351,5.31703,-12.756,-12.5532,-16.3301,22.2853,-9.26188,-3.81348,-3.14323
-8.8903,18.7036,4.73587,3.53537,13.6114,1.66158,6.71545,3.32947,0.918332,1.77349,4.45909,-1.71944,-1.71803,2.22743,-2.63706,-11.2783,1.06611,-5.51797,22.2568,0.138312,11.334,8.74504,0.818882,4.84342,9.45345e-14,-1.22253e-14,-35.162,-1.12799,-81.3273,25.9929,17.2694,-30.069,5.86886,7.12502,-3.38405,-24.084,9.45345e-14,-1.22253e-14,-30.1948,7.41551,79.9571,38.744,-0.571705,-22.4734,28.3111,7.12502,3.95161,58.2542,-7.34534,13.4802,21.3258,25.7489,-23.5364,-26.4819,5.79897,-13.2887,-12.5624,-16.1461,22.1959,-8.64014,-4.52668,-2.20776
-8.9234,18.7105,4.69428,3.69703,14.4848,1.81841,6.92772,3.40692,1.01441,1.84434,4.56959,-1.72916,-1.74872,2.28287,-2.72048,-11.4861,0.956745,-5.58286,22.3399,-0.0204951,11.4403,8.82788,0.757675,4.88464,-6.77763e-14,1.60519e-14,-34.9261,-0.929942,-81.228,26.2695,17.1977,-29.7002,5.82066,7.12502,-3.02795,-24.1376,-6.77763e-14,1.60519e-14,-30.0819,7.46871,80.0081,38.6511,-0.684077,-22.2541,27.4675,7.12502,4.16338,57.4066,-7.51672,13.3578,21.2757,25.6917,-23.6368,-27.0655,6.244,-13.7382,-12.5371,-16.1292,22.1078,-8.01849,-5.21537,-1.37147
-8.95657,18.7153,4.65524,3.87499,15.4094,2.0643,7.13016,3.48108,1.07758,1.90179,4.67278,-1.78507,-1.78638,2.33471,-2.83291,-11.57,0.850771,-5.59897,22.3205,-0.177566,11.5302,8.85282,0.695637,4.90466,1.36618e-14,8.14396e-15,-34.7588,-0.655455,-81.2,26.5046,17.0353,-29.3192,5.62615,7.12502,-2.66001,-24.337,1.36618e-14,8.14396e-15,-29.9884,7.55842,79.9918,38.5482,-1.05128,-21.6464,26.2996,7.12502,4.7502,56.2263,-7.68604,13.0304,21.1219,25.6632,-23.6898,-27.5481,6.29855,-14.1599,-12.4729,-16.2218,21.9805,-7.40045,-5.94145,-0.887974
-8.99173,18.7206,4.61277,4.07194,16.3647,2.25172,7.33527,3.54465,1.21597,1.93445,4.7673,-1.84839,-1.84422,2.38163,-2.99589,-11.5383,0.730059,-5.63586,22.2074,-0.360663,11.6786,8.82644,0.621575,4.93992,-7.61283e-14,1.4884e-14,-34.7315,-0.421602,-81.2182,26.8302,16.9439,-28.7873,5.09062,7.12502,-2.14625,-24.8783,-7.61283e-14,1.4884e-14,-29.9326,7.40424,80.0268,38.6536,-1.16141,-21.1908,27.021,7.12502,5.19009,56.9374,-7.91231,12.6721,21.0228,25.666,-23.9433,-27.8999,6.78366,-14.6151,-12.3426,-16.2271,21.7965,-6.68281,-6.75831,-0.296541
-9.02917,18.7262,4.56918,4.27081,17.3943,2.39394,7.5597,3.56112,1.39483,1.97849,4.80339,-1.89206,-1.90225,2.39934,-3.1578,-11.5182,0.612395,-5.651,22.0033,-0.510939,11.7065,8.76862,0.550564,4.92845,-5.0628e-14,1.77415e-14,-34.7744,-0.135612,-81.2615,27.326,16.6564,-28.3818,4.68328,7.12502,-1.75467,-25.2893,-5.0628e-14,1.77415e-14,-30.0019,7.12095,80.0758,38.9599,-0.894101,-21.5274,28.9279,7.12502,4.86515,58.852,-8.14047,12.4588,20.9982,25.6694,-24.4185,-28.445,7.72357,-15.0927,-12.287,-16.1595,21.5962,-5.84792,-7.5448,0.570167
-9.06855,18.7318,4.52568,4.50836,18.5412,2.5455,7.76744,3.55149,1.57354,2.06494,4.80678,-1.8928,-1.91276,2.4019,-3.26972,-11.6939,0.452593,-5.7849,21.8203,-0.688727,11.7202,8.75777,0.459963,4.93442,-2.07978e-14,5.56597e-15,-34.6551,0.270295,-81.2255,27.8019,16.2028,-28.1254,4.48381,7.12502,-1.50704,-25.4906,-2.07978e-14,5.56597e-15,-30.0204,7.06942,80.1067,39.0522,-0.764886,-22.7067,29.4869,7.12502,3.72636,59.434,-8.38504,12.3291,20.9939,25.6674,-24.9799,-29.1912,8.54949,-15.6457,-12.2212,-16.0937,21.3849,-4.89247,-8.39844,1.25473
-9.10476,18.7405,4.48027,4.8577,19.5894,2.73835,7.85634,3.58204,1.73963,2.14179,4.86216,-1.8992,-1.86425,2.4315,-3.37633,-11.8737,0.261594,-5.97787,21.6282,-0.912796,11.8076,8.74978,0.350339,4.97149,3.37188e-14,4.96962e-15,-34.4414,0.718156,-81.1396,28.185,15.8445,-27.8973,4.35914,7.12502,-1.28672,-25.6167,3.37188e-14,4.96962e-15,-29.9638,7.07422,80.1917,39.0022,-0.600228,-23.6538,28.8262,7.12502,2.81175,58.7874,-8.77721,12.1574,20.8899,25.7003,-25.4428,-29.7589,9.24253,-16.2822,-12.1039,-16.0644,21.109,-3.89247,-9.19634,1.92573
-9.13603,18.7527,4.43716,5.34196,20.5852,3.05832,7.77683,3.60738,1.8343,2.18009,4.90201,-1.98108,-1.76254,2.45444,-3.50877,-11.9475,0.103699,-6.06673,21.3936,-1.10126,11.8452,8.70421,0.257583,4.9727,-8.80616e-14,9.74045e-15,-34.2673,1.25233,-81.1434,28.4681,15.5866,-27.8491,4.39254,7.12502,-1.2402,-25.5836,-8.80616e-14,9.74045e-15,-29.9458,7.14963,80.1833,38.9357,-0.499585,-23.8091,28.387,7.12502,2.66173,58.3501,-9.28363,11.7965,20.6075,25.7756,-25.7295,-30.1619,9.625,-16.934,-12.0994,-16.1542,20.7614,-2.92656,-9.73499,2.6174
-9.17012,18.7636,4.39647,5.79707,21.6173,3.54546,7.79484,3.60912,1.74154,2.23062,4.89646,-2.08862,-1.71892,2.4541,-3.56672,-11.9604,-0.00811667,-6.10314,21.1111,-1.21125,11.7746,8.62263,0.192366,4.93184,-9.81002e-14,8.54774e-15,-34.1076,1.79883,-81.1361,28.6874,15.4266,-27.869,4.49864,7.12502,-1.25938,-25.4774,-9.81002e-14,8.54774e-15,-29.9755,7.35483,80.1118,38.8621,-0.554974,-23.8239,28.3002,7.12502,2.64743,58.2635,-9.66644,11.4874,20.2181,25.8639,-26.0748,-30.7403,9.92361,-17.4407,-12.1555,-16.4382,20.3666,-1.85854,-10.0806,3.37212
-9.20615,18.7734,4.35927,6.13952,22.5896,4.05321,7.98217,3.65023,1.58776,2.29118,4.94009,-2.16368,-1.76305,2.47666,-3.57389,-11.9123,-0.150467,-6.15069,20.7775,-1.34335,11.6246,8.5146,0.105372,4.86041,7.69297e-14,-4.17448e-15,-33.9963,2.31958,-81.0577,28.9729,15.1972,-27.7944,4.43087,7.12502,-1.18735,-25.5456,7.69297e-14,-4.17448e-15,-30.1198,7.45917,80.09,38.8736,-0.47974,-24.062,28.0577,7.12502,2.41748,58.0237,-9.89724,11.336,19.8568,25.9613,-26.4794,-31.4474,10.2563,-17.7347,-12.1024,-16.7862,19.8986,-0.75519,-10.3702,4.32888
-9.23831,18.7834,4.32907,6.45822,23.5385,4.42863,8.05571,3.72166,1.57023,2.35254,5.03484,-2.20112,-1.73147,2.52597,-3.61347,-11.9044,-0.324676,-6.16001,20.4643,-1.5222,11.4439,8.42579,-0.00223119,4.76886,6.8531e-14,-5.1684e-15,-33.8928,2.824,-80.9258,29.2734,14.9009,-27.7571,4.38024,7.12502,-1.15136,-25.5964,6.8531e-14,-5.1684e-15,-30.3214,7.48492,80.0766,38.8991,-0.337576,-24.0683,27.8521,7.12502,2.41141,57.8182,-10.1073,11.1514,19.6189,26.0303,-26.8253,-32.0759,10.4423,-17.9937,-12.0987,-16.9649,19.406,-0.173162,-10.7857,3.71421
-9.27041,18.7889,4.30124,6.74547,24.475,4.75414,8.06062,3.78219,1.5454,2.43436,5.11514,-2.20881,-1.6452,2.56917,-3.6106,-11.8965,-0.467586,-6.25842,20.1381,-1.67312,11.4284,8.331,-0.0874174,4.75346,3.67752e-14,-3.97569e-15,-33.7689,3.36364,-80.7722,29.5235,14.7727,-27.6581,4.51963,7.12502,-1.05566,-25.4575,3.67752e-14,-3.97569e-15,-30.4555,7.65402,80.0675,38.8323,-0.418328,-23.7907,28.0028,7.12502,2.67951,57.9657,-10.2631,11.0048,19.4429,26.0454,-27.3005,-32.6121,10.8778,-18.2578,-12.2605,-17.0368,18.9667,0.175782,-11.0712,3.13213
-9.30191,18.7926,4.27293,6.88898,25.4007,4.85245,8.11464,3.82458,1.67448,2.49847,5.18486,-2.13214,-1.59931,2.60573,-3.61003,-11.8813,-0.595822,-6.4968,19.9003,-1.80939,11.5503,8.26487,-0.161476,4.81501,1.73937e-14,-1.66979e-14,-33.6735,4.12931,-80.6633,29.7354,14.6063,-27.6761,4.62825,7.12502,-1.07312,-25.3488,1.73937e-14,-1.66979e-14,-30.611,8.02441,80.0266,38.6524,-0.857218,-23.5996,27.7711,7.12502,2.86405,57.7316,-10.3506,10.9436,19.5095,26.0263,-27.8227,-33.1684,11.4785,-18.4591,-12.3281,-16.9002,18.5642,1.11928,-10.7807,6.71832
-9.33497,18.7958,4.24881,7.00246,26.2697,4.83022,8.12038,3.88161,1.81725,2.54779,5.27553,-1.99213,-1.54526,2.65223,-3.55019,-11.9433,-0.72421,-6.74764,19.8095,-1.93262,11.5845,8.26078,-0.234431,4.8556,2.01866e-13,-4.8901e-14,-33.5219,5.02953,-80.5426,29.8761,14.2404,-27.8932,4.69608,7.12502,-1.28277,-25.2798,2.01866e-13,-4.8901e-14,-30.9131,8.27745,80.0049,38.6033,-1.15155,-23.5151,27.5235,7.12502,2.94565,57.4829,-10.4217,11.1141,19.7115,25.9288,-28.3727,-33.9256,12.1381,-18.6935,-12.1458,-16.6767,18.2797,1.07284,-11.148,4.25868
-9.37914,18.7959,4.23537,7.10876,26.9313,4.89686,8.12073,4.01302,1.67621,2.63907,5.44239,-1.86736,-1.46457,2.73721,-3.3524,-12.0126,-0.792064,-6.83344,19.7238,-1.96371,11.415,8.24775,-0.271151,4.80622,7.15625e-14,5.1684e-15,-33.2291,5.83563,-80.4002,29.8463,13.9786,-27.7205,4.93653,7.12502,-1.11599,-25.0403,7.15625e-14,5.1684e-15,-31.2443,8.25287,79.9949,38.715,-1.04837,-23.4159,27.786,7.12502,3.04143,57.744,-10.4413,11.8603,19.8828,25.7844,-29.2522,-34.9283,13.086,-18.9192,-11.8613,-16.5113,18.1058,0.774351,-11.3956,0.775615
-9.43058,18.7939,4.23727,6.76184,27.3266,4.47802,8.29644,4.24706,1.7892,2.75568,5.76854,-1.65131,-1.4297,2.90118,-3.22807,-12.0243,-0.789804,-6.73279,19.6679,-1.9266,11.1828,8.2252,-0.268346,4.71027,-8.24956e-15,-3.18055e-15,-32.9849,6.50755,-80.2887,29.7657,13.9389,-27.416,5.16744,7.12502,-0.821885,-24.8107,-8.24956e-15,-3.18055e-15,-31.5529,8.22457,79.8457,38.7135,-0.769191,-23.2272,27.7644,7.12502,3.22369,57.7198,-10.2249,13.1702,20.603,25.6235,-30.3472,-36.0704,14.1805,-18.8847,-11.3327,-15.8894,17.979,0.424148,-11.5085,-2.25144
-9.46213,18.7944,4.23104,6.65948,27.864,4.44551,8.37298,4.40978,1.82994,2.83608,5.99106,-1.5801,-1.37716,3.01424,-3.19795,-12.0057,-0.82258,-6.71501,19.6254,-1.96173,11.1392,8.21085,-0.287749,4.68701,1.68967e-15,1.74931e-14,-32.8193,7.14664,-80.1607,29.7567,13.9551,-27.3133,5.37869,7.12502,-0.722728,-24.5998,1.68967e-15,1.74931e-14,-31.8295,8.57302,79.5708,38.4822,-0.626273,-22.9401,27.2233,7.12502,3.50095,57.1743,-10.0439,13.614,20.8268,25.4602,-30.9625,-36.6928,14.7998,-18.8957,-10.6137,-15.7839,17.9005,0.23611,-11.8795,-4.97751
-9.48065,18.7983,4.20784,6.9407,28.644,4.79821,8.31063,4.4406,1.81014,2.86308,6.02984,-1.64966,-1.30671,3.03615,-3.25433,-12.1069,-0.894199,-6.71042,19.644,-2.05147,11.1121,8.24491,-0.328602,4.66927,-4.23411e-14,-2.78299e-15,-32.5963,7.7826,-80.0213,29.7175,14.1051,-27.2117,5.46379,7.12502,-0.624581,-24.515,-4.23411e-14,-2.78299e-15,-32.0969,9.15323,79.2114,38.1718,-0.714869,-22.4522,26.7884,7.12502,3.97207,56.7311,-10.07,13.3978,20.5571,25.2972,-31.2915,-37.0161,15.1094,-19.149,-10.1906,-16.0535,17.884,-0.107984,-12.0443,-8.31837
-9.49421,18.8053,4.171,7.33194,29.6321,4.94118,8.21619,4.36135,2.17675,2.76752,5.95146,-1.72998,-1.31231,2.99805,-3.52924,-12.2724,-0.942788,-6.61413,19.7271,-2.12261,11.0485,8.30956,-0.354693,4.62747,7.59357e-14,-1.98785e-14,-32.4229,8.39871,-79.9249,29.6419,14.3274,-27.5045,5.25742,7.12502,-0.907397,-24.7204,7.59357e-14,-1.98785e-14,-32.5109,9.49735,78.8076,37.948,-0.652388,-22.0193,26.6351,7.12502,4.3901,56.5696,-10.3812,12.9653,20.4277,25.2478,-31.6588,-37.2701,15.3708,-19.5559,-10.1635,-16.0397,17.7314,-0.649307,-11.5598,-11.1185
-9.50309,18.811,4.13331,7.7534,30.6865,5.13853,8.08556,4.28793,2.53492,2.65824,5.87914,-1.8026,-1.31442,2.96239,-3.79021,-12.2322,-0.967416,-6.47018,19.6663,-2.16559,10.9707,8.28451,-0.372448,4.56889,1.18277e-13,-1.59028e-14,-32.3054,9.04792,-79.7687,29.5558,14.4199,-27.7833,5.30377,7.12502,-1.17663,-24.6727,1.18277e-13,-1.59028e-14,-33.0567,9.61694,78.4924,37.8351,-0.431434,-21.7781,26.349,7.12502,4.62308,56.2786,-10.6999,12.3139,20.2556,25.2684,-31.96,-37.4225,15.4845,-19.8776,-10.1533,-16.1048,17.5267,-1.18278,-10.8904,-11.4352
-9.51348,18.8156,4.10371,8.08145,31.5968,5.84574,8.22178,4.26019,2.35319,2.67184,5.8292,-1.94151,-1.38313,2.9373,-3.84072,-12.0758,-0.952422,-6.1615,19.5295,-2.14326,10.6806,8.20291,-0.372134,4.41199,7.7526e-14,-1.27222e-14,-32.1208,9.71987,-79.5456,29.4272,14.438,-27.7951,5.47496,7.12502,-1.18799,-24.5015,7.7526e-14,-1.27222e-14,-33.6018,9.79598,78.1858,37.6879,-0.321113,-21.3934,25.9625,7.12502,4.99453,55.8836,-10.5883,11.7874,19.7017,25.2725,-32.4135,-37.5955,15.6811,-19.8021,-10.0425,-16.7247,17.5003,-1.86651,-10.3276,-10.1854
-9.53149,18.8203,4.07999,8.21267,32.2495,6.36231,8.53075,4.28265,2.17886,2.66424,5.84787,-2.05383,-1.56532,2.94354,-3.89016,-11.9474,-0.9062,-5.85395,19.4302,-2.0912,10.4539,8.13705,-0.350364,4.28231,-5.50634e-14,2.78299e-14,-31.9049,10.1745,-79.3332,29.2131,14.693,-27.7756,5.61071,7.12502,-1.16917,-24.3658,-5.50634e-14,2.78299e-14,-34.0693,10.24,77.7328,37.248,-0.479694,-21.1128,25.8508,7.12502,5.2654,55.7653,-10.4217,11.6513,19.3577,25.2976,-32.991,-37.8555,16.0631,-19.6424,-9.80153,-17.144,17.6194,-3.03072,-9.44152,-9.87213
-9.54812,18.8225,4.06106,8.22996,32.6763,6.08849,8.48128,4.37117,2.54003,2.55002,5.9948,-2.00398,-1.61227,3.01426,-4.05215,-11.8603,-0.845847,-5.76718,19.357,-2.02733,10.4883,8.09046,-0.312555,4.28304,1.2424e-13,-1.74931e-14,-31.6439,10.4037,-79.0508,28.8871,15.4335,-27.3568,5.95775,7.12502,-0.764685,-24.0206,1.2424e-13,-1.74931e-14,-34.5216,10.925,77.2077,36.6788,-0.760449,-20.9543,25.7595,7.12502,5.41848,55.6702,-10.6545,11.5036,19.6322,25.29,-33.0869,-38.0283,16.354,-19.8188,-9.56414,-16.764,17.9025,-4.82387,-7.82973,-11.4558
-9.56052,18.8204,4.04577,8.24881,33.1057,5.81256,8.29781,4.45188,2.83843,2.4839,6.12442,-1.9249,-1.54555,3.07927,-4.13203,-11.8731,-0.810425,-5.80923,19.3309,-1.98023,10.5617,8.08064,-0.285588,4.31974,1.47101e-14,-1.82882e-14,-31.2906,10.4986,-78.6735,28.565,16.2016,-26.8485,6.05705,7.12502,-0.273779,-23.9225,1.47101e-14,-1.82882e-14,-35.0181,11.4608,76.7387,36.2654,-0.782059,-20.7006,25.5703,7.12502,5.66345,55.4746,-10.8087,11.3183,19.9019,25.1469,-33.0423,-38.2249,16.5995,-20.0378,-9.34345,-16.3958,18.4655,-6.66167,-5.95104,-13.2636
-9.58114,18.8169,4.03167,8.11666,33.6325,5.46875,8.2601,4.49849,3.11644,2.46473,6.21005,-1.82505,-1.5182,3.12216,-4.18642,-12.012,-0.792052,-5.87293,19.3857,-1.96093,10.6706,8.12397,-0.265502,4.37313,-1.08735e-13,-2.38542e-15,-30.8424,10.3042,-78.2471,28.3641,16.4391,-26.1586,5.92572,7.12502,0.392539,-24.0537,-1.08735e-13,-2.38542e-15,-35.4831,11.7187,76.2873,35.9093,-0.535975,-20.6088,25.7729,7.12502,5.7521,55.6748,-10.7966,11.5318,20.3303,24.9596,-33.4869,-38.6911,17.1464,-20.1945,-9.10455,-15.9324,19.0924,-8.2014,-4.19265,-14.4749
-9.5992,18.8189,4.0197,7.88618,34.1928,4.88116,8.16769,4.5021,3.61675,2.43254,6.25549,-1.67502,-1.45899,3.14559,-4.30385,-12.1878,-0.717577,-5.91722,19.4759,-1.87561,10.8137,8.17969,-0.207859,4.4434,8.0309e-14,-3.4191e-14,-30.3135,10.1257,-77.8176,28.1159,16.5313,-25.488,5.79341,7.12502,1.0403,-24.1838,8.0309e-14,-3.4191e-14,-35.8968,12.2357,75.7659,35.3811,-0.473345,-20.6514,26.1949,7.12502,5.71097,56.0979,-10.8503,11.6191,20.9656,24.836,-33.8746,-39.0602,17.7207,-20.3146,-8.87376,-15.2303,19.5708,-9.52005,-2.63892,-14.3232
-9.60592,18.8234,4.0147,7.93925,34.6424,5.00656,7.94887,4.50885,3.47071,2.49409,6.24751,-1.63621,-1.29573,3.1467,-4.15809,-12.2979,-0.630554,-5.93274,19.4925,-1.75785,10.863,8.19467,-0.145206,4.47692,1.03766e-13,-1.90833e-14,-29.7802,10.2188,-77.4037,27.8034,16.8343,-25.3952,5.86732,7.12502,1.12991,-24.1094,1.03766e-13,-1.90833e-14,-36.3273,13.2935,75.1212,34.7302,-0.882606,-20.389,26.0308,7.12502,5.96425,55.9268,-10.7414,11.4338,20.9237,24.734,-34.044,-39.2189,17.8727,-20.1777,-8.5561,-15.2679,19.998,-10.726,-1.40951,-12.4223
-9.61489,18.8284,4.00867,8.1585,34.9709,5.62255,7.78045,4.5575,2.83114,2.63023,6.2593,-1.70215,-1.12311,3.15791,-3.85052,-12.4266,-0.594466,-5.87782,19.4891,-1.71129,10.8489,8.21261,-0.117199,4.46864,6.40087e-14,3.97569e-15,-29.2288,10.1197,-76.9502,27.5354,17.2436,-25.7564,5.89484,7.12502,0.781025,-24.0835,6.40087e-14,3.97569e-15,-36.6944,14.596,74.3385,34.0078,-1.463,-20.049,25.5081,7.12502,6.29255,55.3947,-10.529,11.3886,20.4522,24.6557,-34.2998,-39.4189,17.966,-19.8657,-8.04537,-15.8282,20.4137,-11.7236,0.00962134,-12.8354
-9.62783,18.8354,3.99695,8.22694,35.2851,5.91149,7.76282,4.64362,2.52997,2.68432,6.35113,-1.75803,-1.07633,3.20517,-3.74375,-12.5837,-0.613623,-5.78053,19.5415,-1.76538,10.8976,8.26438,-0.125072,4.46649,-3.81667e-14,1.03368e-14,-28.7156,9.39358,-76.4037,27.192,17.9754,-26.2317,5.73816,7.12502,0.321989,-24.2413,-3.81667e-14,1.03368e-14,-36.9466,15.9558,73.4269,32.9558,-2.17501,-19.9939,25.3602,7.12502,6.34572,55.2451,-10.4308,11.3662,20.2646,24.6439,-34.5403,-39.5923,18.3265,-19.5778,-7.36333,-16.105,20.7859,-12.4209,1.64978,-14.4844
-9.63861,18.8379,3.98504,8.16288,35.6299,5.96772,7.93828,4.71857,2.5247,2.59861,6.45229,-1.81839,-1.24685,3.25123,-3.8323,-12.6675,-0.639569,-5.74082,19.6223,-1.83933,11.0398,8.31511,-0.137937,4.5048,-5.9039e-14,2.54444e-14,-28.4243,8.45295,-75.9312,26.9032,18.6948,-26.3099,5.84719,7.12502,0.246387,-24.1324,-5.9039e-14,2.54444e-14,-37.2958,17.6548,72.2101,31.6386,-3.3637,-19.9197,25.5868,7.12502,6.41731,55.4696,-10.3251,11.1989,20.2864,24.6227,-34.7083,-39.6699,18.6189,-19.3411,-6.64523,-16.1425,21.2326,-13.0997,3.09731,-13.8026
-9.64836,18.8377,3.97842,8.03566,36.0394,5.96144,8.33056,4.77193,2.68529,2.34251,6.53894,-1.97569,-1.68398,3.28161,-4.14386,-12.5196,-0.652685,-5.54427,19.6429,-1.9337,11.2027,8.30422,-0.152283,4.51681,4.50247e-14,-9.54166e-15,-28.5089,7.58985,-75.7398,26.7117,19.3399,-27.3031,5.48269,7.12502,-0.712825,-24.4959,4.50247e-14,-9.54166e-15,-37.9157,19.5392,70.5288,30.2826,-5.11617,-20.5991,26.2045,7.12502,5.76138,56.1062,-10.1299,11.108,20.4053,24.5595,-34.9898,-39.8306,18.8654,-19.1295,-5.98669,-16.0829,21.778,-13.6013,4.43359,-12.6274
-9.65597,18.8381,3.97478,7.89103,36.4418,5.89561,8.3854,4.79436,2.79672,2.26706,6.57714,-2.09507,-1.76193,3.2986,-4.34142,-12.4755,-0.618697,-5.2068,19.4875,-1.96036,11.2767,8.24604,-0.135183,4.47584,5.9039e-14,-1.74931e-14,-28.2352,6.48041,-75.4647,26.418,20.0825,-28.1963,5.31515,7.12502,-1.57555,-24.6588,5.9039e-14,-1.74931e-14,-38.5119,19.7346,69.6579,29.7297,-5.03918,-22.3095,27.5347,7.12502,4.10988,57.4748,-9.96363,11.1618,20.5783,24.5447,-35.3874,-40.0669,19.1934,-18.8885,-5.36524,-15.9481,22.274,-13.8283,5.47107,-11.6765
-9.66254,18.8379,3.96692,7.84011,36.7773,5.91348,8.38062,4.86982,2.79173,2.22017,6.67586,-2.16789,-1.79041,3.34707,-4.42393,-12.5642,-0.628709,-5.17999,19.3876,-2.01023,11.4796,8.23603,-0.135612,4.53398,-6.03311e-14,0,-27.8928,5.24292,-74.9648,26.2921,20.0705,-26.9333,5.87655,7.12502,-0.355676,-24.1029,-6.03311e-14,0,-39.3523,16.1125,70.7811,30.8936,-0.849279,-23.6102,29.6203,7.12502,2.85384,59.581,-9.90702,11.1592,20.6313,24.5811,-35.6609,-40.2514,19.4096,-18.6322,-4.64575,-15.891,22.7117,-14.0752,5.9732,-10.7668
-9.66699,18.8353,3.95528,7.90709,37.0619,6.00296,8.07258,4.97075,2.50164,2.32881,6.78428,-2.03784,-1.54806,3.40796,-4.09988,-12.7658,-0.628859,-5.39834,19.1933,-1.94979,11.4911,8.20404,-0.122389,4.57759,1.90038e-13,-3.4191e-14,-27.3938,4.80992,-74.2739,26.428,19.2255,-26.6884,5.41557,7.12502,-0.11915,-24.5641,1.90038e-13,-3.4191e-14,-39.6459,17.1823,70.2021,30.0278,-1.43295,-23.6139,29.6207,7.12502,2.85023,59.5814,-9.96263,11.0614,20.5731,24.6213,-35.7551,-40.3667,19.4905,-18.4716,-3.90546,-15.8951,23.1688,-14.2189,6.35103,-10.041
-9.66994,18.8304,3.94193,7.82368,37.2982,5.87702,7.88082,5.04436,2.43677,2.37548,6.87616,-1.93519,-1.40671,3.45692,-3.9424,-12.8682,-0.564814,-5.3807,18.9346,-1.82404,11.386,8.12387,-0.0759828,4.54382,-8.16011e-14,-5.56597e-15,-27.0479,4.5012,-73.8537,26.556,18.8661,-28.6817,4.37898,7.12502,-2.04434,-25.591,-8.16011e-14,-5.56597e-15,-40.098,18.0397,69.5444,29.3244,-2.10188,-23.0796,29.9555,7.12502,3.36622,59.9087,-10.0027,11.004,20.7026,24.664,-35.7738,-40.4968,19.4228,-18.3331,-3.32858,-15.6844,23.6353,-14.1663,6.98627,-8.74723
-9.67396,18.828,3.92853,7.53983,37.5472,5.56522,8.00088,5.08555,2.6743,2.30531,6.95109,-1.9454,-1.50935,3.49136,-4.10552,-12.9326,-0.49097,-5.30355,18.7669,-1.74686,11.5037,8.07361,-0.0239474,4.57441,4.63168e-14,-3.57812e-14,-26.9065,3.85823,-73.713,26.5606,19.2165,-30.192,3.68211,7.12502,-3.50288,-26.2689,4.63168e-14,-3.57812e-14,-40.6777,18.7536,68.6122,28.6665,-2.72143,-22.0829,29.8822,7.12502,4.3287,59.818,-9.9479,10.9284,21.0184,24.7064,-35.8182,-40.6086,19.3373,-18.1079,-2.72397,-15.308,24.0813,-13.9355,7.60234,-7.30349
-9.67436,18.8281,3.92168,7.35031,37.813,5.43395,8.03708,5.14213,2.73905,2.25374,7.03156,-1.98698,-1.56239,3.5299,-4.19674,-12.9442,-0.457028,-5.30019,18.543,-1.72209,11.7046,8.0012,0.00346527,4.63847,-1.77912e-14,-1.27222e-14,-26.8165,3.07552,-73.5122,26.6451,19.2506,-30.5958,3.21875,7.12502,-3.89278,-26.7254,-1.77912e-14,-1.27222e-14,-41.1859,19.6724,67.4888,27.7915,-3.27973,-20.8297,27.1474,7.12502,5.53877,57.055,-9.84598,10.8276,21.173,24.7428,-35.994,-40.6658,19.2465,-17.8191,-1.94115,-15.1117,24.5135,-13.6444,8.15167,-7.24131
-9.67004,18.8282,3.92012,7.33559,38.0512,5.60701,7.94892,5.2096,2.48735,2.26868,7.09985,-2.0209,-1.51868,3.56549,-4.08834,-13.0089,-0.421266,-5.42374,18.3086,-1.66077,11.8773,7.93171,0.0367387,4.71855,6.5102e-14,-2.5842e-14,-26.6488,2.41938,-73.1953,26.9611,18.281,-30.2464,3.06477,7.12502,-3.55537,-26.8853,6.5102e-14,-2.5842e-14,-41.598,20.5609,66.4309,26.81,-3.61142,-20.2992,25.0606,7.12502,6.05098,54.9541,-9.7084,10.7731,21.0554,24.7977,-36.2784,-40.7215,19.2626,-17.4528,-1.13122,-15.1907,24.9419,-13.4787,8.76938,-7.18377
-9.66363,18.827,3.91922,7.37092,38.3396,5.89068,7.84842,5.19911,2.13823,2.30901,7.0576,-2.06309,-1.46236,3.54634,-3.92433,-13.194,-0.329284,-5.62031,18.1901,-1.51879,12.0877,7.91469,0.112432,4.83789,-4.92986e-14,2.46493e-14,-26.3761,1.82267,-72.9395,27.3415,17.0388,-29.4516,3.26787,7.12502,-2.78785,-26.6937,-4.92986e-14,2.46493e-14,-42.0892,21.344,65.4615,25.9861,-3.85734,-22.2696,28.2796,7.12502,4.14843,58.219,-9.56429,10.6135,20.8493,24.9135,-36.6192,-40.7074,19.6519,-17.023,-0.389909,-15.3525,25.3062,-13.2556,9.30666,-5.84414
-9.65752,18.8247,3.91822,7.39472,38.6454,6.11151,7.75444,5.1717,1.86259,2.29755,6.99823,-2.15573,-1.44873,3.51726,-3.85517,-13.2904,-0.241427,-5.64467,18.0678,-1.41328,12.2653,7.88288,0.178025,4.91125,2.01766e-14,1.07344e-14,-26.27,1.30882,-72.8867,27.616,16.6889,-29.9148,3.23958,7.12502,-3.23521,-26.7156,2.01766e-14,1.07344e-14,-42.6784,22.1956,64.3442,25.2155,-4.49571,-21.9588,27.545,7.12502,4.44855,57.4782,-9.45605,10.506,20.7038,25.0333,-36.9988,-40.7237,19.9734,-16.6229,0.392792,-15.4391,25.6334,-13.0823,9.71657,-4.95563
-9.65159,18.8233,3.91574,7.47154,38.8884,6.3659,7.66571,5.22431,1.54709,2.2579,7.04225,-2.26519,-1.46163,3.53895,-3.79136,-13.3338,-0.21211,-5.61674,17.9112,-1.39438,12.4247,7.83876,0.202559,4.95851,8.57756e-14,-2.8625e-14,-26.3081,1.05779,-72.89,27.9293,16.3684,-30.9385,2.85078,7.12502,-4.22372,-27.0871,8.57756e-14,-2.8625e-14,-43.2178,23.1182,63.1794,24.3715,-5.63373,-21.8569,27.8623,7.12502,4.54699,57.7935,-9.35236,10.5017,20.519,25.0755,-37.2919,-40.8123,20.0779,-16.2687,1.0449,-15.5476,26.026,-13.2912,10.208,-3.94444
-9.63982,18.8228,3.90686,7.40507,39.185,6.34356,7.55764,5.24356,1.50828,2.22199,7.06404,-2.29974,-1.43785,3.5501,-3.79783,-13.4493,-0.153507,-5.56434,17.7633,-1.32926,12.5307,7.8056,0.247378,4.98914,8.36883e-14,-7.55382e-15,-26.2759,0.993659,-72.8799,28.4594,15.0502,-30.516,2.7661,7.12502,-3.8158,-27.1795,8.36883e-14,-7.55382e-15,-43.7246,23.8999,62.1926,23.585,-6.55031,-21.9157,28.2027,7.12502,4.49015,58.1351,-9.22535,10.2501,20.536,25.0223,-37.3143,-40.8376,20.0608,-15.9671,1.43141,-15.413,26.5073,-13.7628,10.6972,-1.73801
-9.62361,18.819,3.89355,6.99055,39.5279,5.79911,7.51857,5.22337,1.99826,2.162,7.07341,-2.26674,-1.42222,3.55477,-4.0319,-13.5533,-0.10218,-5.41392,17.5972,-1.27204,12.5164,7.76432,0.282582,4.95972,1.5207e-14,2.0276e-14,-26.2709,0.771067,-72.883,28.9911,13.9307,-30.1942,2.71477,7.12502,-3.50501,-27.2362,1.5207e-14,2.0276e-14,-44.2664,24.7136,61.1194,22.8139,-7.45676,-21.852,27.9438,7.12502,4.55173,57.8749,-9.04038,9.93602,20.9897,24.8902,-37.2049,-40.8981,19.9916,-15.6975,1.92316,-14.8229,27.0577,-14.2192,10.9702,0.693507
-9.60859,18.8157,3.88603,6.58392,39.8185,5.34557,7.49002,5.21859,2.33759,2.11035,7.09214,-2.23434,-1.42105,3.56356,-4.18565,-13.6113,-0.0710831,-5.35942,17.4091,-1.22423,12.515,7.70863,0.305878,4.94898,7.67309e-14,-3.97569e-15,-26.2817,0.451629,-72.8532,29.4396,13.2929,-30.4837,2.52199,7.12502,-3.78457,-27.4242,7.67309e-14,-3.97569e-15,-44.9242,25.8168,59.7864,22.0223,-8.76007,-21.6299,27.5921,7.12502,4.76612,57.5185,-8.77849,9.75408,21.386,24.7153,-37.1473,-40.9962,19.9804,-15.4199,2.62616,-14.3132,27.6612,-14.4357,11.279,1.61223
-9.59615,18.8168,3.87765,6.33381,40.0466,5.12002,7.45167,5.24202,2.39941,2.05997,7.12727,-2.21954,-1.44329,3.57968,-4.20575,-13.6653,-0.0338151,-5.40495,17.2131,-1.15849,12.5834,7.64834,0.33722,4.98097,4.53726e-14,1.23246e-14,-26.2872,0.347269,-72.8498,29.9289,12.5451,-30.4903,2.23139,7.12502,-3.79098,-27.7146,4.53726e-14,1.23246e-14,-45.5608,26.7437,58.602,21.2954,-9.84692,-21.8204,27.5833,7.12502,4.58218,57.5138,-8.55448,9.55612,21.5755,24.5332,-36.9582,-41.1069,19.7378,-15.1841,3.34945,-14.0213,28.2862,-14.5039,11.8102,1.46791
-9.58656,18.8159,3.8631,6.11504,40.2575,4.89027,7.46818,5.28606,2.47722,1.98906,7.19123,-2.22717,-1.5095,3.60897,-4.26693,-13.7367,-0.0233253,-5.40509,17.0105,-1.13518,12.6341,7.5934,0.350195,4.99483,-3.88127e-14,1.11319e-14,-26.2942,0.299292,-72.928,30.3625,11.8483,-30.5822,1.99961,7.12502,-3.87966,-27.9448,-3.88127e-14,1.11319e-14,-46.032,27.249,57.7361,20.6796,-10.4296,-21.9659,27.7174,7.12502,4.44171,57.6508,-8.42535,9.3631,21.7595,24.3817,-36.6114,-41.3458,19.2854,-14.9785,4.00762,-13.7232,28.8556,-14.7477,12.2872,2.43198
-9.5719,18.8144,3.85233,5.92915,40.5683,4.72461,7.38784,5.27363,2.47311,1.96214,7.17366,-2.18683,-1.50039,3.59957,-4.21508,-13.8293,-0.00994427,-5.4959,16.8527,-1.09342,12.6939,7.55502,0.368205,5.03113,2.58917e-14,2.78299e-15,-26.2725,0.347601,-72.9717,30.8239,11.1952,-31.3465,1.85774,7.12502,-4.6177,-28.0719,2.58917e-14,2.78299e-15,-46.6623,28.1632,56.659,20.1052,-11.3279,-21.8995,27.7342,7.12502,4.50585,57.6663,-8.26559,9.16742,21.8942,24.2647,-36.459,-41.5682,19.0615,-14.7234,4.58294,-13.45,29.341,-14.9439,12.5569,3.69317
-9.55152,18.8135,3.84323,5.71935,40.9027,4.63661,7.33447,5.24333,2.43365,1.95497,7.1304,-2.14561,-1.49241,3.57771,-4.14305,-13.9067,-0.0122574,-5.65525,16.7528,-1.07376,12.8133,7.53528,0.378042,5.0993,4.32357e-15,-1.47101e-14,-26.3394,0.46871,-73.0055,31.2631,11.1096,-32.5653,1.68418,7.12502,-5.79452,-28.2166,4.32357e-15,-1.47101e-14,-47.4639,29.3571,55.3261,19.5325,-12.7451,-21.929,27.7599,7.12502,4.47735,57.6926,-7.99728,9.01796,21.9596,24.1786,-36.6159,-41.647,19.2199,-14.3316,5.03312,-13.2452,29.7543,-14.9244,12.882,4.23407
-9.53328,18.8127,3.82996,5.5212,41.1647,4.64471,7.41986,5.25766,2.36859,1.92941,7.14536,-2.19475,-1.56634,3.5836,-4.17005,-13.8992,-0.0316056,-5.60925,16.564,-1.10081,12.848,7.47592,0.366955,5.09397,-4.32357e-14,7.95139e-15,-26.4657,0.560084,-73.1428,31.6085,11.2623,-32.7198,1.86335,7.12502,-5.94374,-28.0333,-4.32357e-14,7.95139e-15,-48.0098,29.8527,54.4712,19.068,-13.9643,-21.9276,28.0391,7.12502,4.47867,57.9717,-7.69579,8.9669,21.9452,24.1091,-36.8602,-41.6886,19.4153,-13.8301,5.38116,-13.1301,30.0938,-14.973,13.2964,5.10517
-9.51584,18.8117,3.82217,5.46469,41.4718,4.65517,7.30201,5.26472,2.18254,1.86643,7.13846,-2.23813,-1.58428,3.57904,-4.10383,-13.7054,0.0220675,-5.36226,16.1993,-1.01706,12.6405,7.3132,0.388761,4.97345,4.01545e-14,-1.19271e-15,-26.5584,0.679892,-73.3097,32.0904,10.5739,-32.3171,2.18468,7.12502,-5.5549,-27.7225,4.01545e-14,-1.19271e-15,-48.5695,30.2304,53.7409,18.7061,-15.318,-22.115,28.4833,7.12502,4.29771,58.4196,-7.54539,9.05793,21.9419,24.058,-37.2903,-41.8485,19.6274,-13.4797,5.6748,-13.0143,30.3658,-15.09,13.6907,6.49588
-9.49434,18.8092,3.82136,5.45534,41.8762,4.63288,7.03643,5.23807,1.93965,1.78227,7.08197,-2.22433,-1.56076,3.54976,-3.93002,-13.4583,0.131082,-5.13215,15.8418,-0.835128,12.3132,7.13382,0.443731,4.82509,-1.11866e-13,1.11319e-14,-26.6774,0.826405,-73.428,32.6125,9.89615,-32.7906,2.13664,7.12502,-6.01208,-27.7581,-1.11866e-13,1.11319e-14,-49.3602,31.0284,52.5968,18.3756,-16.3864,-21.8768,28.2871,7.12502,4.52774,58.2187,-7.4451,9.2306,21.9894,24.0421,-37.9366,-42.1278,19.8843,-13.2298,5.97501,-12.8912,30.5742,-15.0429,14.115,6.94312
-9.46946,18.8072,3.81186,5.3052,42.282,4.61673,6.98363,5.18982,1.83038,1.73908,7.00935,-2.21566,-1.59631,3.51209,-3.85393,-13.3891,0.197588,-5.00045,15.6636,-0.720033,12.0857,7.0522,0.479594,4.7301,6.16232e-14,-1.61016e-14,-26.8129,1.17437,-73.5929,32.9687,10.056,-33.4738,2.15698,7.12502,-6.67162,-27.7179,6.16232e-14,-1.61016e-14,-50.1148,31.834,51.3537,18.0846,-16.5567,-20.7866,27.2071,7.12502,5.58043,57.1136,-7.20881,9.21172,22.0104,24.0472,-38.4257,-42.2733,20.0993,-12.8165,6.33268,-12.7948,30.7181,-14.8356,14.4835,6.7477
-9.44288,18.8069,3.79782,5.26299,42.6694,4.71455,6.89275,5.12735,1.69677,1.71429,6.91583,-2.24475,-1.59118,3.46549,-3.79655,-13.3853,0.225662,-4.97419,15.5235,-0.658792,11.9801,7.00035,0.497138,4.6915,3.37437e-14,1.92821e-14,-26.9047,1.53177,-73.7959,33.2362,10.6251,-33.5431,2.49414,7.12502,-6.7385,-27.3786,3.37437e-14,1.92821e-14,-50.8128,32.5701,50.2269,17.8129,-17.0364,-20.1618,26.524,7.12502,6.18364,56.4137,-7.01918,9.06873,21.9,24.0509,-38.7568,-42.3017,20.3445,-12.4113,6.58727,-12.8075,30.8196,-14.6425,14.801,7.43911
-9.41274,18.8077,3.78751,5.37754,43.1083,4.93125,6.65084,5.08122,1.44109,1.69004,6.83528,-2.29759,-1.51198,3.42703,-3.68178,-13.3576,0.214501,-5.00906,15.3504,-0.649273,11.9492,6.93894,0.491745,4.68237,-2.07606e-14,1.5207e-14,-27.0172,1.59862,-73.9028,33.6126,10.7067,-33.307,2.80943,7.12502,-6.51057,-27.0705,-2.07606e-14,1.5207e-14,-51.4282,33.2531,49.2978,17.554,-18.239,-20.471,26.6854,7.12502,5.88509,56.5836,-6.87605,8.81299,21.6839,24.0277,-38.9286,-42.3663,20.2128,-12.0965,6.6801,-12.9473,30.9052,-14.4123,15.2273,8.11693
-9.38436,18.8063,3.77103,5.18776,43.5263,4.8379,6.62998,5.07294,1.44834,1.62812,6.82372,-2.32247,-1.56129,3.41973,-3.71233,-13.3958,0.148101,-5.12773,15.3114,-0.730837,12.0634,6.94137,0.456198,4.73279,-5.14604e-14,-2.37548e-14,-27.2423,1.61972,-74.0217,34.1068,10.1559,-33.1765,2.88961,7.12502,-6.38463,-26.9942,-5.14604e-14,-2.37548e-14,-51.858,33.5784,48.6688,17.3825,-19.0628,-20.7417,26.8446,7.12502,5.62373,56.75,-6.65064,8.4882,21.718,23.9809,-38.8462,-42.4773,19.7733,-11.7146,6.84355,-12.8545,30.9666,-13.9474,15.6767,7.60454
-9.35558,18.8044,3.75023,4.8136,43.904,4.49339,6.6584,5.0623,1.65327,1.54642,6.82278,-2.29276,-1.64116,3.41607,-3.80216,-13.4095,0.1449,-5.19765,15.2856,-0.729251,12.1325,6.93565,0.459051,4.76758,-6.33129e-14,7.7526e-15,-27.4743,1.87301,-74.2158,34.5195,9.74919,-32.9488,2.88345,7.12502,-6.16477,-27.0069,-6.33129e-14,7.7526e-15,-52.2145,33.7224,48.224,17.2775,-19.35,-20.8008,26.6131,7.12502,5.56671,56.52,-6.40863,8.35108,21.9445,23.8923,-38.9026,-42.6493,19.7091,-11.3162,7.03862,-12.5701,31.0025,-13.4676,16.0333,7.43252
-9.32152,18.8047,3.7315,4.66935,44.3126,4.38037,6.54499,5.04136,1.68688,1.47718,6.79569,-2.29883,-1.64726,3.40137,-3.81765,-13.2354,0.27053,-4.88646,15.075,-0.565598,11.8866,6.82155,0.524698,4.63839,-2.36305e-14,-7.30534e-15,-27.6708,2.05065,-74.3863,34.8026,9.69919,-32.6362,2.96704,7.12502,-5.863,-26.9318,-2.36305e-14,-7.30534e-15,-52.5659,33.981,47.7684,17.1873,-19.6486,-20.9893,26.3499,7.12502,5.38471,56.2614,-6.17521,8.42412,21.9783,23.7357,-39.3389,-42.8655,19.9995,-10.9948,7.0897,-12.5051,31.0307,-13.3104,16.4181,8.77334
-9.28324,18.8055,3.7084,4.55484,44.8218,4.34568,6.50432,4.98192,1.77578,1.40728,6.72108,-2.34219,-1.68708,3.36241,-3.90639,-13.1106,0.373189,-4.68341,14.9337,-0.429345,11.7237,6.74186,0.581268,4.55598,4.91216e-14,2.13694e-15,-27.9092,2.01202,-74.5192,35.0687,9.81541,-32.4919,3.10312,7.12502,-5.72369,-26.7996,4.91216e-14,2.13694e-15,-52.7978,34.1093,47.4856,17.1395,-19.9435,-20.9306,26.1283,7.12502,5.44139,56.0384,-5.87413,8.41843,21.9454,23.557,-39.8582,-43.0444,20.2022,-10.6739,7.07137,-12.547,31.0306,-13.1471,16.7822,9.52345
-9.24213,18.8063,3.67905,4.34598,45.4052,4.14324,6.44325,4.88764,2.0594,1.33088,6.61324,-2.34376,-1.7082,3.30616,-4.05542,-13.1057,0.371915,-4.84894,14.9162,-0.412066,11.8227,6.73353,0.588183,4.61815,1.63943e-14,-1.65861e-15,-28.1754,2.05092,-74.629,35.347,9.99128,-32.5835,3.11652,7.12502,-5.81206,-26.7838,1.63943e-14,-1.65861e-15,-53.0131,34.2153,47.2938,17.1324,-20.3117,-20.5593,25.8197,7.12502,5.7998,55.7204,-5.62093,8.11803,22.0012,23.4108,-40.1539,-43.1053,20.2602,-10.3806,7.00177,-12.4855,30.9755,-12.8134,17.0503,9.29314
-9.20534,18.8051,3.65078,4.22087,45.9157,3.94847,6.28852,4.85442,2.18186,1.23574,6.57468,-2.32097,-1.71274,3.28464,-4.08714,-13.0887,0.322931,-4.95901,14.8841,-0.464689,11.8849,6.72505,0.560978,4.65173,1.43942e-13,-9.69696e-15,-28.4472,2.08761,-74.7273,35.619,9.87946,-32.4358,2.99111,7.12502,-5.66952,-26.913,1.43942e-13,-9.69696e-15,-53.3361,34.5821,46.8535,17.129,-20.9886,-20.5576,25.5864,7.12502,5.80145,55.487,-5.51503,7.76816,22.0344,23.3036,-40.2637,-43.1421,20.2377,-10.1868,6.9456,-12.4409,30.8762,-12.5111,17.4132,9.35622
-9.17134,18.8028,3.62284,4.12151,46.3786,3.83788,6.20566,4.84756,2.16247,1.15806,6.56295,-2.28136,-1.75487,3.27635,-4.03158,-13.1619,0.277488,-5.06809,14.944,-0.509995,11.8951,6.76102,0.537185,4.67246,-3.9965e-14,9.55409e-15,-28.6776,2.22995,-74.8257,35.8635,9.33323,-32.0389,2.94634,7.12502,-5.28628,-26.9677,-3.9965e-14,9.55409e-15,-53.6399,35.079,46.4012,17.1388,-21.6205,-20.5685,25.3195,7.12502,5.791,55.2203,-5.40794,7.49014,22.0134,23.2249,-40.3929,-43.2055,20.2165,-9.99091,6.94192,-12.4979,30.7423,-12.1323,17.9194,8.87861
-9.13432,18.802,3.59408,4.04997,46.8592,3.81974,6.18444,4.81647,2.10509,1.07918,6.51719,-2.24397,-1.83921,3.25037,-3.96179,-13.1674,0.268398,-5.16887,14.985,-0.498651,11.854,6.7735,0.534137,4.67821,1.40966e-14,-3.3048e-15,-28.9025,2.57338,-74.934,36.0061,8.99302,-32.0267,3.21747,7.12502,-5.27447,-26.6969,1.40966e-14,-3.3048e-15,-53.8269,35.3923,46.245,17.2074,-21.807,-20.2781,24.9087,7.12502,6.07129,54.8017,-5.25063,7.45112,21.9419,23.1854,-40.9241,-43.3354,20.4168,-9.73415,6.7963,-12.6636,30.5519,-12.2515,18.4264,8.04359
-9.09398,18.7993,3.56556,3.875,47.3355,3.63765,6.10997,4.79432,2.15183,0.98624,6.48952,-2.19961,-1.89609,3.23332,-3.93858,-13.0944,0.272176,-5.18144,14.9309,-0.475267,11.7737,6.74078,0.534454,4.65301,-4.97272e-15,-3.05631e-15,-29.1713,2.71131,-75.0375,36.0493,9.16582,-32.2633,3.66343,7.12502,-5.50291,-26.2451,-4.97272e-15,-3.05631e-15,-53.7152,35.232,46.6284,17.3881,-21.4357,-20.4139,24.7507,7.12502,5.94024,54.6474,-5.09953,7.63498,22.0145,23.1807,-41.6908,-43.5418,20.6412,-9.41875,6.43935,-12.7059,30.29,-13.4672,18.8525,7.71013
-9.04626,18.7953,3.53536,3.58317,47.874,3.33293,5.948,4.78464,2.37792,0.945866,6.48931,-2.16561,-1.82665,3.23284,-4.01405,-13.145,0.233485,-5.22611,14.9479,-0.515538,11.7503,6.75878,0.512342,4.65041,1.02057e-13,-4.77083e-15,-29.4576,2.54562,-75.1115,36.0364,9.457,-32.3455,3.99857,7.12502,-5.58232,-25.9079,1.02057e-13,-4.77083e-15,-53.3191,34.807,47.3812,17.6523,-20.8059,-20.9284,24.9892,7.12502,5.44352,54.8993,-4.92275,7.3036,22.122,23.2076,-41.8041,-43.6393,20.4223,-9.01489,5.93,-12.6844,29.9552,-14.9306,19.1074,7.48055
-8.99207,18.7917,3.50292,3.48047,48.4857,3.34141,5.75423,4.76611,2.42946,0.952881,6.46536,-2.16528,-1.70806,3.22355,-4.0209,-13.1962,0.184589,-5.33832,14.9931,-0.568454,11.7915,6.78716,0.486632,4.68058,4.16889e-14,9.14409e-15,-29.7612,2.5052,-75.1755,36.0508,9.54271,-32.2657,4.12075,7.12502,-5.5053,-25.7877,4.16889e-14,9.14409e-15,-52.9563,34.5507,48.0221,17.8806,-20.3497,-21.0167,24.9412,7.12502,5.35823,54.8534,-4.69832,6.56915,21.9486,23.2801,-41.6478,-43.5667,20.0684,-8.5907,5.41535,-12.9591,29.5504,-15.6717,19.3245,6.81404
-8.94201,18.7853,3.4663,3.51048,49.0446,3.52374,5.65296,4.75017,2.29994,0.946945,6.43502,-2.16689,-1.67458,3.20969,-3.9401,-13.1754,0.191588,-5.38983,14.9783,-0.545617,11.7819,6.77638,0.493075,4.68752,8.19987e-15,-4.07509e-15,-30.0674,2.70497,-75.2789,36.1183,9.41088,-32.4126,3.79894,7.12502,-5.64715,-26.1058,8.19987e-15,-4.07509e-15,-52.5811,34.3966,48.6486,18.0532,-20.0063,-21.0487,24.7199,7.12502,5.32729,54.6329,-4.50673,6.18556,21.6753,23.3907,-42.0329,-43.4515,20.2211,-8.23042,5.04746,-13.3736,29.0881,-15.9912,19.4445,5.42215
-8.89609,18.7811,3.42543,3.5289,49.5538,3.59746,5.56213,4.7752,2.23152,0.916557,6.46323,-2.14589,-1.66313,3.22376,-3.87534,-13.1953,0.194425,-5.44205,14.9652,-0.521273,11.7314,6.77309,0.497539,4.6817,-3.47252e-14,-1.09332e-15,-30.3531,2.81208,-75.3269,36.1212,9.2364,-32.6246,3.35378,7.12502,-5.85177,-26.5454,-3.47252e-14,-1.09332e-15,-52.1154,34.2542,49.3792,18.2499,-19.8358,-21.4363,24.7103,7.12502,4.95307,54.6324,-4.43543,5.92665,21.4776,23.5125,-42.3108,-43.4459,20.3889,-7.96899,4.64163,-13.7152,28.5756,-16.4491,19.5343,3.58094
-8.84924,18.7794,3.38329,3.39918,50.1776,3.46618,5.4741,4.78475,2.3036,0.865853,6.47934,-2.0828,-1.66456,3.23033,-3.84541,-13.1992,0.152627,-5.63721,14.9487,-0.552004,11.8216,6.77135,0.479249,4.74196,2.28136e-14,-1.04362e-15,-30.6838,2.69815,-75.2795,36.0665,9.15407,-32.6352,3.30727,7.12502,-5.86199,-26.5916,2.28136e-14,-1.04362e-15,-51.7052,34.1571,50.0508,18.491,-19.7473,-21.8238,24.5737,7.12502,4.57894,54.5042,-4.35995,5.56159,21.4251,23.627,-42.4847,-43.5604,20.2999,-7.76388,4.07299,-13.9398,28.0288,-16.7567,19.9764,1.65863
-8.80095,18.7749,3.34205,3.10751,50.8372,3.30561,5.55004,4.7633,2.43374,0.821715,6.45968,-2.06293,-1.74186,3.21745,-3.90571,-13.1532,0.10684,-5.72494,14.952,-0.625016,11.9976,6.77185,0.454414,4.8087,1.3859e-14,-1.23743e-14,-31.0632,2.54908,-75.3338,35.9769,9.23279,-32.622,3.22566,7.12502,-5.84925,-26.6736,1.3859e-14,-1.23743e-14,-51.4177,34.1657,50.4043,18.7627,-19.8223,-22.1912,24.3883,7.12502,4.22415,54.3262,-4.1079,5.3695,21.4274,23.7419,-43.1372,-43.6329,20.5219,-7.41321,3.40774,-14.1367,27.4692,-17.1471,20.5975,1.37447
-8.74799,18.7694,3.3001,2.98676,51.343,3.36585,5.64491,4.75788,2.49045,0.749319,6.456,-2.15833,-1.85232,3.21216,-4.04847,-13.0841,0.182209,-5.64096,14.9527,-0.543769,12.0355,6.75213,0.500925,4.81354,4.89569e-14,-5.86415e-15,-31.4525,2.58778,-75.5866,35.8231,9.29594,-32.4434,3.16913,7.12502,-5.67682,-26.7348,4.89569e-14,-5.86415e-15,-51.0426,33.9182,50.8503,19.1108,-19.6133,-22.3025,24.2355,7.12502,4.11667,54.1755,-3.83272,5.24094,21.2363,23.7938,-43.7007,-43.6221,20.8463,-7.03652,2.85891,-14.5141,26.9592,-17.8249,21.2168,2.27167
-8.69347,18.7606,3.25693,3.03826,51.8085,3.53335,5.6184,4.74106,2.40186,0.674316,6.42639,-2.23563,-1.91836,3.19555,-4.07959,-13.0111,0.332615,-5.37259,14.9262,-0.359597,11.8539,6.71315,0.587304,4.7218,-7.67433e-14,8.54774e-15,-31.7895,2.75411,-75.8529,35.6116,9.29518,-32.2146,3.38267,7.12502,-5.4559,-26.5271,-7.67433e-14,8.54774e-15,-50.336,33.0919,52.0161,19.5405,-18.5064,-22.1921,24.2402,7.12502,4.2233,54.1781,-3.67802,4.87745,20.9122,23.8509,-43.7779,-43.5843,20.8983,-6.80031,2.72577,-14.9979,26.4859,-17.838,22.0014,0.681457
-8.64312,18.757,3.21333,2.87302,52.3112,3.45937,5.57646,4.75998,2.32209,0.664916,6.4469,-2.18311,-1.91786,3.20599,-3.97936,-13.0302,0.441221,-5.04916,14.9299,-0.221362,11.524,6.70534,0.644463,4.56963,3.09669e-14,4.27387e-15,-32.0523,2.82,-75.9526,35.3565,9.40982,-32.1372,3.30576,7.12502,-5.38117,-26.6059,3.09669e-14,4.27387e-15,-49.5587,32.3589,53.3062,19.9942,-17.4966,-22.2356,24.4431,7.12502,4.18125,54.3818,-3.52568,4.57831,20.7796,23.9468,-43.9646,-43.6333,20.8722,-6.44946,2.12238,-15.1953,26.0511,-19.3549,21.9206,3.61241
-8.59495,18.7492,3.16546,2.52966,52.7799,3.21123,5.64159,4.84079,2.41203,0.634531,6.56147,-2.15096,-1.96963,3.26091,-4.0104,-13.0139,0.452718,-4.74816,14.9762,-0.234315,11.3178,6.71931,0.639312,4.44993,2.42642e-14,-1.2921e-14,-32.3749,2.80589,-76.0623,35.0806,9.48003,-32.1914,3.16913,7.12502,-5.43354,-26.7412,2.42642e-14,-1.2921e-14,-48.9527,31.9879,54.1044,20.4355,-17.1955,-22.238,24.277,7.12502,4.17899,54.2158,-3.34583,4.45773,20.8036,24.0495,-44.209,-43.9102,20.5804,-6.16756,1.78155,-15.3285,25.6987,-19.84,22.2616,4.02907
-8.54509,18.7411,3.11865,2.27346,53.2452,3.06452,5.68741,4.90508,2.49025,0.598911,6.65242,-2.17675,-2.01228,3.30443,-4.09167,-12.9613,0.470668,-4.59032,15.0003,-0.241299,11.3209,6.71902,0.646064,4.42354,1.08959e-13,-1.15295e-14,-32.6802,2.83776,-76.2513,34.7538,9.51681,-31.9746,3.36407,7.12502,-5.22419,-26.5515,1.08959e-13,-1.15295e-14,-48.3494,31.5551,54.85,20.9113,-16.8438,-22.2332,23.9439,7.12502,4.18359,53.8826,-3.1543,4.15769,20.7377,24.1245,-44.0449,-44.2566,20.0154,-5.91267,1.2898,-15.5704,25.4451,-20.5014,22.6569,4.78215
-8.49216,18.7345,3.07258,2.00631,53.7637,2.78572,5.54145,4.93139,2.55128,0.584087,6.68995,-2.09125,-1.94644,3.32371,-4.02533,-13.0394,0.496175,-4.59933,15.1265,-0.209354,11.311,6.77015,0.665485,4.42954,-9.20373e-14,4.77083e-15,-32.9156,3.11464,-76.3919,34.3806,9.5205,-31.5097,3.50172,7.12502,-4.77528,-26.4245,-9.20373e-14,4.77083e-15,-47.6778,31.0079,55.8963,21.3961,-16.1163,-22.5968,24.0007,7.12502,3.83248,53.946,-3.10134,3.69226,20.6841,24.2842,-44.0165,-44.2647,19.8447,-5.72701,0.811946,-15.704,25.1968,-21.1727,22.8191,5.51304
-8.43706,18.7252,3.01987,1.73187,54.284,2.44215,5.39745,4.98819,2.6916,0.553162,6.77314,-1.94876,-1.89224,3.36448,-3.94748,-13.2748,0.429605,-4.87475,15.4447,-0.276427,11.3912,6.91845,0.637413,4.50988,3.87941e-14,1.09332e-14,-33.1989,3.68221,-76.5131,33.9854,9.37019,-31.5696,3.56444,7.12502,-4.8331,-26.3604,3.87941e-14,1.09332e-14,-46.8778,30.2445,57.2413,21.8379,-15.3116,-23.0047,24.2228,7.12502,3.43858,54.1748,-3.1361,3.27226,20.6224,24.5048,-44.0683,-44.153,19.7713,-5.6096,0.670043,-15.7743,24.9582,-21.4374,22.7606,5.35267
-8.38219,18.7121,2.96216,1.52549,54.8179,2.23242,5.34979,5.10026,2.85319,0.538375,6.93232,-1.86302,-1.85898,3.44319,-3.95185,-13.4584,0.280321,-5.22363,15.6658,-0.451669,11.5744,7.0373,0.558864,4.62388,-1.97232e-14,2.5842e-15,-33.4939,4.06374,-76.582,33.5389,9.40263,-31.7932,3.78961,7.12502,-5.04902,-26.1302,-1.97232e-14,2.5842e-15,-45.901,29.2847,58.7682,22.2717,-14.402,-23.0565,24.1651,7.12502,3.38855,54.118,-3.13327,2.85529,20.4771,24.7696,-43.7077,-44.2496,19.2927,-5.47364,0.500576,-15.9519,24.7364,-21.7265,22.7265,4.93969
-8.32804,18.6986,2.90685,1.33657,55.4343,2.05581,5.27099,5.15955,2.91347,0.520481,7.01423,-1.78567,-1.82906,3.48388,-3.90233,-13.4906,0.187695,-5.24593,15.7724,-0.570465,11.5155,7.08822,0.498989,4.60042,-7.44697e-14,7.25564e-15,-33.7801,4.29463,-76.6824,33.0737,9.79087,-31.6403,3.83186,7.12502,-4.90146,-26.0915,-7.44697e-14,7.25564e-15,-45.1373,28.5966,59.9379,22.7381,-13.8188,-22.7746,23.7613,7.12502,3.66078,53.7096,-3.10311,2.31322,20.3118,25.133,-43.0936,-44.2733,18.7137,-5.30705,0.0349494,-16.1417,24.4739,-22.0173,22.7887,4.38959
-8.27509,18.6832,2.85388,1.21425,56.0393,2.00418,5.22298,5.1555,2.81304,0.485831,7.00304,-1.70629,-1.86107,3.47732,-3.76303,-13.4823,0.178506,-5.12596,15.9492,-0.58246,11.2967,7.14417,0.484752,4.51044,3.44084e-14,1.05356e-14,-34.1127,4.87446,-76.9579,32.6822,10.1685,-31.0654,3.80588,7.12502,-4.34624,-26.1295,3.44084e-14,1.05356e-14,-44.6202,28.0464,60.8496,23.2752,-13.3692,-22.9107,23.7083,7.12502,3.52935,53.6588,-3.0638,1.69418,20.0278,25.5964,-42.0773,-44.1861,17.7883,-5.05768,-0.623535,-16.395,24.1585,-22.2728,22.8645,4.30545
-8.22257,18.6664,2.79787,1.03024,56.6107,1.9431,5.26801,5.1485,2.74559,0.471059,6.99202,-1.62865,-1.92008,3.47043,-3.65218,-13.5057,0.297601,-4.99318,16.1617,-0.413464,11.0322,7.20094,0.554916,4.42182,-8.35517e-15,-1.23246e-14,-34.4529,5.64509,-77.3214,32.3592,10.3884,-30.3996,3.92109,7.12502,-3.70335,-26.0265,-8.35517e-15,-1.23246e-14,-44.0366,27.3663,61.8696,23.8065,-12.8321,-23.4223,24.063,7.12502,3.0353,54.0211,-3.0129,1.08575,19.7006,26.1,-40.6981,-44.1678,16.58,-4.75438,-1.2904,-16.6352,23.8532,-22.5398,22.8392,4.67843
-8.17052,18.6528,2.74118,0.7359,57.2166,1.73411,5.30764,5.16303,2.76658,0.47202,7.01498,-1.54013,-1.94794,3.48089,-3.57853,-13.5772,0.443432,-4.76027,16.3816,-0.216932,10.7096,7.26757,0.64027,4.30046,-6.20519e-14,1.32192e-14,-34.7932,6.36588,-77.6591,32.0566,10.6591,-30.0197,3.95106,7.12502,-3.33645,-26.0026,-6.20519e-14,1.32192e-14,-43.4193,26.7705,62.7712,24.2897,-12.9537,-23.1441,24.0516,7.12502,3.30395,54.0057,-2.95208,0.655543,19.4767,26.6274,-39.6567,-44.0924,15.6696,-4.49207,-1.88276,-16.7121,23.5872,-22.9324,22.368,5.77249
-8.12071,18.6425,2.68506,0.450978,57.8714,1.51478,5.33768,5.20691,2.76158,0.478162,7.07569,-1.43285,-1.96774,3.51064,-3.47219,-13.645,0.376956,-4.71184,16.4941,-0.302022,10.5867,7.32352,0.595561,4.24711,-3.28958e-14,-5.36719e-15,-35.1976,7.23143,-77.9849,31.8422,11.0441,-29.4534,4.40971,7.12502,-2.78956,-25.5518,-3.28958e-14,-5.36719e-15,-42.7576,26.0658,63.7547,24.7934,-13.1029,-23.0681,24.0115,7.12502,3.37729,53.9645,-2.87621,0.370311,19.2776,27.1678,-38.5918,-44.0654,14.5068,-4.30311,-2.5174,-16.7564,23.3747,-23.2139,21.9074,6.50057
-8.07004,18.6341,2.62896,0.2342,58.6371,1.48735,5.42829,5.17499,2.64751,0.530924,7.03022,-1.33832,-1.99281,3.48892,-3.31758,-13.6929,0.287605,-4.80671,16.5227,-0.405479,10.587,7.35003,0.542006,4.25483,-2.09252e-14,2.08724e-15,-35.6153,8.26632,-78.4395,31.7385,11.6273,-28.8775,5.02431,7.12502,-2.23345,-24.9437,-2.09252e-14,2.08724e-15,-42.1281,25.4095,64.7301,25.3229,-12.95,-24.1439,24.5372,7.12502,2.33841,54.5042,-2.65933,0.0601186,18.9313,27.6923,-37.1679,-44.0918,12.9967,-4.08008,-3.05497,-16.9395,23.2508,-23.1087,21.6289,6.1521
-8.01856,18.6299,2.5738,0.0993994,59.4627,1.7124,5.67475,5.10775,2.46347,0.602401,6.93573,-1.30573,-2.08894,3.44218,-3.20036,-13.7415,0.237498,-4.94192,16.6504,-0.457495,10.6214,7.40435,0.515941,4.28882,-4.96589e-14,-8.24956e-15,-36.1289,9.28323,-79.006,31.745,12.169,-28.3647,5.49194,7.12502,-1.73813,-24.4807,-4.96589e-14,-8.24956e-15,-41.5563,24.9344,65.4794,25.8107,-12.8669,-24.7247,24.7101,7.12502,1.77743,54.6825,-2.25975,0.032856,18.4668,28.2337,-36.1424,-44.0517,12.0551,-3.7572,-3.14742,-17.2228,23.189,-22.6705,20.968,5.61563
-7.96904,18.6283,2.51526,-0.147305,60.238,1.81171,6.01486,5.10558,2.49404,0.642363,6.94211,-1.32193,-2.23076,3.44281,-3.26708,-13.7588,0.0975446,-5.21934,16.7937,-0.633001,10.8213,7.46958,0.437607,4.39084,1.57164e-15,4.37326e-15,-36.8145,10.2806,-79.6431,31.924,12.4705,-27.6984,5.95592,7.12502,-1.09464,-24.021,1.57164e-15,4.37326e-15,-40.857,24.1399,66.3037,26.2484,-12.5106,-23.8622,23.8522,7.12502,2.61045,53.816,-1.90477,0.278184,18.1221,28.86,-35.3089,-44.073,11.9779,-3.45177,-2.98996,-17.4071,23.1024,-21.9562,20.2115,4.46517
-7.91885,18.6251,2.45566,-0.288386,61.0466,1.97369,6.25058,5.07026,2.55402,0.71994,6.90346,-1.38974,-2.26897,3.42376,-3.38633,-13.7638,0.00360768,-5.35617,16.8347,-0.759315,10.9646,7.49572,0.384084,4.45158,-5.57871e-14,1.02374e-14,-37.3953,11.1296,-80.3223,32.1435,13.0045,-27.1549,6.17282,7.12502,-0.569679,-23.8062,-5.57871e-14,1.02374e-14,-40.0802,23.372,67.0783,26.6416,-12.136,-24.4044,24.1088,7.12502,2.08684,54.0784,-1.66967,0.291747,17.7027,29.6081,-34.1703,-43.9832,11.6522,-3.17577,-2.81938,-17.6223,22.953,-21.2293,19.4255,3.3909
-7.86926,18.6237,2.39908,-0.0873973,61.9567,2.56513,6.4622,4.96078,2.31327,0.865275,6.74511,-1.46149,-2.26711,3.34954,-3.33059,-13.7972,0.00404469,-5.27148,16.8354,-0.760046,10.8803,7.50182,0.382405,4.40903,-3.75703e-14,9.44227e-15,-37.7827,11.854,-80.949,32.2635,13.7395,-26.7715,6.46226,7.12502,-0.199421,-23.5174,-3.75703e-14,9.44227e-15,-39.29,22.7634,67.8166,26.9506,-11.8543,-24.6722,24.2786,7.12502,1.82814,54.2505,-1.46094,0.216965,17.0407,30.5025,-33.2403,-43.706,10.4015,-2.81753,-2.74568,-18.0615,22.7531,-20.6803,18.6084,2.85499
-7.82118,18.6254,2.34502,0.0640036,62.8613,3.10035,6.70018,4.87071,2.05605,0.996758,6.61203,-1.49015,-2.29856,3.2869,-3.22615,-13.754,-0.00585781,-5.17069,16.7941,-0.757275,10.6783,7.47968,0.369189,4.32196,2.99047e-14,1.36167e-14,-38.2502,12.6716,-81.5976,32.439,14.2105,-26.4647,6.41813,7.12502,0.0969643,-23.5616,2.99047e-14,1.36167e-14,-38.4806,21.9438,68.6157,27.2054,-11.3398,-24.8015,24.2901,7.12502,1.70326,54.2631,-1.34729,0.203378,16.4424,31.5587,-32.5134,-43.397,9.84289,-2.40884,-2.93036,-18.4923,22.4985,-20.3425,18.0146,2.44438
-7.77458,18.626,2.29418,0.16165,63.7289,3.45873,6.83322,4.78917,1.84062,1.0908,6.49118,-1.49236,-2.30707,3.22973,-3.10935,-13.7015,-0.0268059,-5.14689,16.7664,-0.755066,10.4784,7.46025,0.350749,4.24903,1.83192e-14,1.96797e-14,-38.7089,13.2288,-82.0964,32.6559,15.2256,-25.6606,7.11141,7.12502,0.873553,-22.8665,1.83192e-14,1.96797e-14,-37.7486,21.436,69.1936,27.4318,-11.0779,-24.7898,24.1401,7.12502,1.71454,54.113,-1.4255,0.104792,15.9697,32.7499,-31.3975,-43.1841,10.1018,-2.09105,-3.11985,-18.8125,22.2061,-19.9807,17.4246,2.30459
-7.72828,18.6256,2.24305,0.429102,64.6088,3.8945,6.82743,4.66392,1.56118,1.1742,6.30582,-1.47465,-2.2617,3.14138,-2.9189,-13.7324,0.0143893,-5.18905,16.8616,-0.670829,10.3506,7.48881,0.378397,4.22464,2.43325e-14,-2.5842e-15,-39.0129,13.5021,-82.3765,32.7794,16.88,-24.2174,8.79633,7.12502,2.26741,-21.1714,2.43325e-14,-2.5842e-15,-37.0496,21.2291,69.6566,27.5535,-11.0566,-25.1495,24.2415,7.12502,1.36713,54.2169,-1.66347,0.0484198,15.4961,34.0142,-29.6934,-43.1871,9.77821,-1.9086,-3.24451,-19.1655,21.9512,-19.4823,16.8986,2.39174
-7.67962,18.6283,2.19118,0.855333,65.4913,4.46091,6.83311,4.56189,1.3008,1.19245,6.15169,-1.48481,-2.28134,3.06632,-2.77444,-13.6867,0.0391662,-5.2566,17.0503,-0.61873,10.2768,7.53711,0.395035,4.22134,2.00276e-14,4.77083e-15,-39.4628,13.8642,-82.767,32.9253,17.8152,-23.0613,9.17152,7.12502,3.38392,-20.7814,2.00276e-14,4.77083e-15,-36.3504,20.7746,70.1432,27.5885,-10.7916,-25.4537,24.4208,7.12502,1.07342,54.3979,-1.96737,0.160053,14.9905,35.335,-27.991,-43.1412,9.62002,-1.78926,-3.42185,-19.592,21.7731,-19.0445,16.4841,2.34216
-7.62807,18.6341,2.14423,1.42604,66.3733,5.01054,6.68275,4.51231,1.03378,1.1401,6.0649,-1.50674,-2.28193,3.0242,-2.63288,-13.5768,-0.00405667,-5.33923,17.2701,-0.66075,10.2106,7.59239,0.36616,4.21393,-2.63359e-14,0,-40.0583,14.2912,-83.3477,33.0746,18.1437,-23.3779,8.45906,7.12502,3.07811,-21.4985,-2.63359e-14,0,-35.7212,20.382,70.539,27.6556,-10.6984,-25.1551,24.2605,7.12502,1.36173,54.2359,-2.44043,0.307186,14.5216,36.7173,-26.7655,-42.7128,10.8793,-1.82427,-3.56542,-19.9609,21.6342,-18.7154,15.9438,2.01288
-7.57422,18.6395,2.09928,2.09834,67.2327,5.48599,6.25957,4.45503,0.740968,1.08941,5.96714,-1.493,-2.13535,2.9786,-2.4151,-13.6082,-0.0306125,-5.43836,17.6312,-0.672336,10.1036,7.71675,0.351905,4.20462,-2.02822e-14,1.04362e-14,-40.6665,14.9836,-84.0351,33.3042,18.2866,-24.5785,7.65512,7.12502,1.91867,-22.316,-2.02822e-14,1.04362e-14,-35.1624,20.3305,70.8732,27.7498,-11.0105,-25.2252,24.2017,7.12502,1.29403,54.1776,-3.14443,0.24595,14.0676,38.1599,-25.2622,-42.1512,12.2102,-2.02282,-3.74296,-20.2727,21.5086,-18.498,15.3897,2.27248
-7.5255,18.645,2.05068,2.63975,68.0203,5.97188,6.06279,4.37056,0.493547,1.06318,5.83892,-1.45475,-2.0874,2.91629,-2.21495,-13.6984,-0.0283026,-5.5597,18.0537,-0.63143,9.95335,7.86779,0.358268,4.19245,1.39149e-15,1.76918e-14,-41.2963,15.7532,-84.582,33.7119,18.2261,-24.8971,7.19649,7.12502,1.61099,-22.7772,1.39149e-15,1.76918e-14,-34.6644,20.3367,71.2061,27.8722,-11.3068,-25.7258,24.3993,7.12502,0.810595,54.3775,-3.81236,0.238495,13.605,39.6699,-23.6155,-41.8305,12.1019,-2.08101,-4.07407,-20.6158,21.4073,-18.395,15.0072,3.05878
-7.48474,18.6526,2.00027,2.83909,68.7338,6.25766,6.15011,4.28128,0.335982,1.06406,5.71139,-1.34635,-2.16655,2.85256,-2.01618,-13.7148,-0.0130727,-5.83672,18.3755,-0.550022,9.88657,7.9692,0.376858,4.23554,-1.09953e-15,-2.5842e-15,-41.8427,16.3701,-84.9031,34.0854,18.0151,-24.6401,7.02427,7.12502,1.85912,-22.9474,-1.09953e-15,-2.5842e-15,-34.1677,20.2482,71.6537,27.9778,-11.35,-25.9878,24.4417,7.12502,0.557502,54.4208,-4.431,0.470402,13.2685,41.2333,-22.0043,-41.7394,11.5395,-1.97908,-4.51193,-20.8952,21.3177,-18.3145,14.7292,3.42146
-7.44377,18.6582,1.9483,2.99612,69.4326,6.50907,6.29031,4.28201,0.319643,1.02958,5.71032,-1.35515,-2.28079,2.85079,-2.03013,-13.6077,-0.0420608,-5.91868,18.6397,-0.582823,9.88412,8.03992,0.359361,4.25243,-5.81849e-14,6.85807e-15,-42.3919,16.4064,-85.2431,34.3473,17.5745,-24.6379,6.91093,7.12502,1.86124,-23.0607,-5.81849e-14,6.85807e-15,-33.5799,19.817,72.0572,28.0005,-11.3134,-26.0172,24.2584,7.12502,0.52909,54.2375,-5.10344,0.607846,12.9335,42.8181,-19.5992,-41.7403,11.1345,-1.87297,-4.77991,-21.145,21.2367,-18.1391,14.3848,3.40034
-7.3983,18.6595,1.89794,3.23365,70.1552,6.9258,6.49808,4.3812,0.390369,0.98048,5.84267,-1.57624,-2.4121,2.9152,-2.32614,-13.4198,-0.127544,-5.39922,18.8431,-0.790925,9.72459,8.09146,0.286188,4.09186,-5.80544e-14,1.13307e-14,-42.9866,15.6765,-85.6404,34.6112,17.049,-24.4399,7.23701,7.12502,2.05249,-22.7329,-5.80544e-14,1.13307e-14,-32.8582,18.83,72.3205,28.0471,-11.0899,-26.1178,24.2763,7.12502,0.431981,54.2556,-5.65011,0.71059,12.5293,44.3706,-17.2456,-41.6557,10.1109,-1.70591,-4.68099,-21.3978,21.223,-17.8793,13.7847,3.58794
-7.35325,18.657,1.84387,3.37155,70.9808,7.34207,6.78744,4.34757,0.460081,1.02327,5.80162,-1.68451,-2.51225,2.89412,-2.4954,-13.4061,-0.149755,-5.0987,19.0948,-0.861427,9.55982,8.17821,0.265048,3.98462,-8.47941e-14,1.78906e-14,-43.4358,15.3554,-85.8843,34.9101,16.4341,-24.1079,7.44768,7.12502,2.37316,-22.5189,-8.47941e-14,1.78906e-14,-32.2229,18.072,72.6701,28.2198,-10.7267,-26.5757,24.7072,7.12502,-0.0102667,54.6869,-6.03792,0.788941,12.1241,45.8564,-15.5326,-41.3185,8.69152,-1.48563,-4.61867,-21.6476,21.3031,-17.585,13.1347,3.59399
-7.31026,18.6531,1.78993,3.20511,71.8018,7.3264,6.95801,4.24572,0.564009,1.07382,5.67594,-1.60001,-2.55889,2.83053,-2.4679,-13.4319,-0.075743,-5.2118,19.3478,-0.730747,9.50794,8.25606,0.319435,4.00823,1.8459e-14,6.36111e-15,-43.7982,15.2733,-85.9231,35.2122,15.8508,-24.1561,7.06385,7.12502,2.32655,-22.9032,1.8459e-14,6.36111e-15,-31.7585,17.8966,73.0599,28.4337,-10.6391,-27.0913,25.0051,7.12502,-0.508222,54.9842,-6.55041,0.807721,11.8561,47.256,-13.3818,-40.5457,8.38515,-1.39966,-4.8311,-21.7808,21.4353,-17.3854,12.7733,2.99909
-7.26994,18.6525,1.75013,2.86623,72.4455,6.93341,6.89397,4.24738,0.593437,1.09523,5.68278,-1.49763,-2.50848,2.83435,-2.37303,-13.4028,0.0189253,-5.14826,19.4721,-0.589069,9.37518,8.28012,0.380386,3.97045,9.08197e-15,-6.95746e-15,-44.0558,14.9437,-85.9764,35.4086,15.2634,-24.3806,6.76518,7.12502,2.10982,-23.2041,9.08197e-15,-6.95746e-15,-31.2062,17.5513,73.4687,28.6351,-10.3852,-27.3233,25.0105,7.12502,-0.732302,54.989,-7.26579,1.0308,11.7782,48.545,-10.6522,-38.9914,11.3038,-1.48936,-5.01599,-21.7377,21.6025,-17.4021,12.4367,2.90848
-7.23307,18.6542,1.70749,2.61192,73.2253,6.79038,7.00542,4.17203,0.666878,1.20691,5.5913,-1.45469,-2.45626,2.79034,-2.36548,-13.5095,0.0568787,-5.08304,19.5859,-0.52244,9.23239,8.33224,0.406317,3.92241,8.18744e-15,-3.57812e-15,-44.0373,14.2647,-85.8254,35.3993,15.0161,-24.2329,7.10403,7.12502,2.25239,-22.8638,8.18744e-15,-3.57812e-15,-30.5556,16.9205,73.9412,28.879,-9.79543,-27.4455,25.1012,7.12502,-0.850335,55.0793,-7.73454,1.19681,11.6469,49.7155,-8.48758,-36.8337,16.4274,-1.4525,-5.02006,-21.7326,21.7764,-17.2873,11.7947,2.94966
-7.19591,18.6531,1.65778,2.2812,74.1945,6.72841,7.34667,3.97743,0.857828,1.32341,5.3509,-1.41308,-2.52232,2.67006,-2.4302,-13.5994,0.0894156,-5.10599,19.7347,-0.443126,9.07792,8.39204,0.43024,3.88761,-4.44781e-14,-3.18055e-15,-43.9775,13.5905,-85.5176,35.3697,14.7159,-23.7242,7.2256,7.12502,2.7437,-22.7365,-4.44781e-14,-3.18055e-15,-30.0698,16.5402,74.3105,29.1543,-9.43445,-27.788,25.3523,7.12502,-1.18114,55.3288,-7.95529,1.14518,11.4441,50.7624,-6.83279,-34.816,18.1317,-1.25248,-4.91521,-21.7616,21.8694,-16.8537,10.9996,2.15681
-7.15802,18.6511,1.61674,2.30677,75.0371,6.84819,7.53536,3.82112,0.837315,1.33913,5.14343,-1.36225,-2.62681,2.56573,-2.36285,-13.5521,0.148008,-5.09318,19.8175,-0.329051,8.89304,8.40189,0.466793,3.83609,6.16792e-14,-1.86858e-14,-44.101,13.3841,-85.4718,35.4616,14.0976,-23.7913,6.38294,7.12502,2.67895,-23.58,6.16792e-14,-1.86858e-14,-29.7156,16.2337,74.5976,29.4517,-9.07294,-28.2567,25.652,7.12502,-1.63385,55.6254,-8.37939,1.16271,11.1756,51.6765,-4.50655,-32.6616,14.9205,-1.17423,-4.97036,-21.8555,21.8876,-16.5747,10.4021,1.77099
-7.12117,18.6509,1.58597,3.3186,75.7719,7.94405,7.65568,3.74752,0.39566,1.37341,5.01156,-1.36273,-2.70178,2.50337,-2.11497,-13.5176,0.176905,-5.06868,19.8389,-0.273899,8.79412,8.39843,0.484694,3.80409,-5.53118e-14,8.54774e-15,-44.2017,13.1583,-85.4605,35.5689,13.4394,-23.8829,6.10328,7.12502,2.59042,-23.8607,-5.53118e-14,8.54774e-15,-29.2693,15.7624,74.9274,29.7175,-8.67443,-28.5009,25.8087,7.12502,-1.86965,55.7802,-8.84562,1.39084,10.7134,52.4731,-3.35237,-30.2789,13.2595,-1.10093,-5.15506,-22.1941,21.8702,-16.5243,9.97204,2.02196
-7.08301,18.6502,1.5641,4.15872,76.5144,8.9676,7.85389,3.70112,-0.0266638,1.45167,4.91741,-1.36132,-2.76988,2.4606,-1.88254,-13.5028,0.171193,-5.1044,19.8517,-0.274157,8.80136,8.39993,0.483294,3.81294,1.01181e-13,-1.45113e-14,-44.1767,12.4704,-85.2035,35.5602,12.9498,-23.2721,7.00549,7.12502,3.18036,-22.9505,1.01181e-13,-1.45113e-14,-28.7869,15.2773,75.2484,29.9457,-8.46044,-28.5008,25.6098,7.12502,-1.86961,55.5813,-9.12718,1.84081,10.4032,53.1116,-3.01685,-27.6052,12.5258,-0.920034,-5.33098,-22.4559,21.8885,-16.5109,9.49655,2.36073
-7.04107,18.6509,1.54757,4.3965,77.2451,9.28681,7.93969,3.63226,-0.237077,1.50044,4.81025,-1.33229,-2.78999,2.40955,-1.73,-13.4337,0.204856,-5.06083,19.8179,-0.223867,8.74398,8.37202,0.503416,3.78926,-3.56322e-14,1.59028e-15,-44.1172,11.5948,-84.9171,35.4191,12.959,-23.0682,7.36575,7.12502,3.3772,-22.5872,-3.56322e-14,1.59028e-15,-28.3816,14.6093,75.5326,30.2406,-8.01569,-28.6376,25.4822,7.12502,-2.00174,55.4525,-9.45576,2.2815,10.3334,53.5578,-2.96672,-25.1027,10.5793,-0.8976,-5.37722,-22.4943,22.0791,-16.4223,8.93002,2.19972
-7.00171,18.655,1.52758,3.28644,77.8718,7.93839,7.78701,3.59672,-0.0594351,1.46107,4.77893,-1.26665,-2.73795,2.39223,-1.74834,-13.3701,0.313554,-4.71984,19.7804,-0.101467,8.52681,8.33958,0.56398,3.66791,-4.48135e-14,-1.78906e-15,-44.0868,10.838,-84.8014,35.2984,12.9838,-23.4009,6.9111,7.12502,3.0559,-23.0468,-4.48135e-14,-1.78906e-15,-27.9459,13.7498,75.7858,30.5155,-7.53838,-28.8972,25.6539,7.12502,-2.25244,55.6218,-10.1057,2.7353,10.6729,53.7982,-2.92731,-22.9292,6.90008,-1.29565,-5.26721,-22.1145,22.4797,-16.342,8.31903,1.65844
-6.96512,18.6599,1.50477,-0.774925,78.3871,3.44423,7.55372,3.61912,0.824123,1.36758,4.88094,-1.0964,-2.64366,2.43516,-2.05894,-13.3423,0.37714,-4.40484,19.7598,-0.0571475,8.41935,8.32558,0.598372,3.58151,1.21445e-14,-2.18663e-15,-44.0652,10.0638,-84.6945,35.166,13.0592,-23.8534,6.58867,7.12502,2.61898,-23.375,1.21445e-14,-2.18663e-15,-27.4106,13.1058,76.0101,30.6259,-7.50483,-28.9852,25.7546,7.12502,-2.33745,55.7216,-10.8507,3.35963,11.7351,53.8227,-3.49447,-21.2505,4.6241,-1.88659,-5.35604,-21.0978,23.0136,-16.4985,7.99237,1.19348
-6.9293,18.6602,1.48231,-4.398,78.9793,-0.402669,7.52109,3.55947,1.4598,1.32595,4.85528,-0.906212,-2.63342,2.41659,-2.2126,-13.3334,0.385665,-4.3785,19.7841,-0.0570584,8.45668,8.33217,0.60565,3.59055,2.22887e-14,-6.36111e-15,-43.9933,9.31333,-84.4027,34.9631,13.5267,-24.0265,6.58918,7.12502,2.45181,-23.3765,2.22887e-14,-6.36111e-15,-26.9573,12.8914,76.2076,30.7216,-7.60474,-29.0459,25.7627,7.12502,-2.396,55.729,-11.3049,3.74353,12.5415,53.6994,-4.47949,-19.9382,3.99336,-2.32307,-5.51834,-20.3306,23.6104,-16.6638,7.71431,0.433058
-6.89705,18.6569,1.45732,-5.95423,79.6745,-1.98514,7.67235,3.39899,1.52507,1.3276,4.65249,-0.777196,-2.73077,2.31375,-2.10876,-13.3312,0.421101,-4.48866,19.8938,0.0061542,8.49996,8.3633,0.634183,3.63415,-3.08862e-14,-7.95139e-16,-43.9053,8.96166,-84.189,34.8017,13.7473,-24.057,6.74058,7.12502,2.42233,-23.2254,-3.08862e-14,-7.95139e-16,-26.6468,12.8104,76.357,30.8951,-7.67284,-29.0685,25.85,7.12502,-2.41782,55.816,-11.5763,3.93026,12.7741,53.4924,-5.39701,-18.8217,3.30667,-2.59013,-5.60955,-20.1081,24.1296,-16.733,7.22084,0.0780886
-6.86274,18.6544,1.43149,-8.1295,80.1623,-4.04498,7.93769,3.28826,1.7522,1.36439,4.53191,-0.67386,-2.8364,2.25107,-2.13418,-13.1708,0.527915,-4.53147,19.8859,0.150238,8.57057,8.31986,0.70496,3.67824,-5.31749e-15,2.78299e-15,-43.8593,8.83786,-84.1846,34.6735,13.709,-24.5332,6.8475,7.12502,1.96236,-23.1232,-5.31749e-15,2.78299e-15,-26.3291,12.452,76.4944,30.9521,-7.74264,-29.0996,26.0292,7.12502,-2.44791,55.9949,-11.6995,4.37252,13.144,53.1784,-6.19509,-18.0914,2.43715,-2.5878,-5.77392,-19.8645,24.5358,-16.9233,6.91279,-0.0386429
-6.82428,18.6537,1.41456,-8.48886,80.5404,-4.33976,8.06397,3.30967,1.58491,1.38346,4.54945,-0.655509,-2.90053,2.26083,-2.03213,-12.8761,0.63916,-4.50754,19.7341,0.278198,8.69622,8.20486,0.774953,3.72122,-7.10034e-14,1.35174e-14,-43.8087,8.41997,-84.0553,34.4378,13.9614,-24.8165,6.77417,7.12502,1.68877,-23.1989,-7.10034e-14,1.35174e-14,-25.9662,11.7627,76.7186,30.9118,-7.5528,-29.0943,26.1396,7.12502,-2.44274,56.1053,-11.96,4.90763,13.1835,52.8242,-6.91945,-17.6689,1.66393,-2.57443,-6.01222,-19.9763,24.8061,-17.0843,6.87757,-0.375311
-6.78581,18.6512,1.39467,-11.1299,81.0245,-6.99519,8.16846,3.27432,1.84067,1.38058,4.53009,-0.537105,-2.95227,2.24829,-2.05765,-12.7382,0.677184,-4.53865,19.7655,0.319682,8.79086,8.18626,0.802211,3.76204,-2.1829e-14,7.95139e-16,-43.7449,7.86173,-83.7497,34.1666,14.3977,-24.5057,6.5016,7.12502,1.98894,-23.4689,-2.1829e-14,7.95139e-16,-25.6108,11.3247,76.9353,30.8853,-7.43562,-28.9657,25.9232,7.12502,-2.31856,55.8904,-12.1597,5.26405,13.6119,52.3517,-7.66762,-17.5821,1.08201,-2.61714,-6.31483,-19.7073,25.0204,-17.1128,6.85999,-1.23216
-6.74895,18.6466,1.38294,-11.8809,81.4455,-7.70722,8.29046,3.27179,1.73387,1.3996,4.5203,-0.536893,-3.00906,2.24405,-2.00479,-12.7772,0.736171,-4.32234,20.0107,0.381724,8.6491,8.27266,0.84034,3.69196,1.69961e-14,-1.98785e-16,-43.6678,7.37344,-83.5352,33.9653,14.6638,-24.046,6.61372,7.12502,2.43294,-23.3522,1.69961e-14,-1.98785e-16,-25.2457,11.2508,76.9742,30.7995,-7.6728,-28.8966,25.5453,7.12502,-2.25182,55.5131,-12.3368,5.90059,13.7765,51.8386,-8.55416,-17.8368,0.876914,-2.59652,-6.56455,-19.7565,25.174,-17.1555,6.81104,-1.72172
-6.71192,18.6409,1.37191,-11.2282,81.7647,-7.01539,8.4027,3.30376,1.44591,1.40309,4.53689,-0.622706,-3.08236,2.25412,-1.94263,-12.6426,0.793387,-4.20818,20.0724,0.417335,8.75463,8.26615,0.878411,3.7123,-8.92543e-14,9.93923e-15,-43.595,7.01361,-83.4749,33.7598,14.7227,-23.7765,7.28016,7.12502,2.69324,-22.6826,-8.92543e-14,9.93923e-15,-24.9454,11.1561,76.968,30.7016,-7.9782,-29.0014,25.5654,7.12502,-2.3531,55.5322,-12.5719,6.62808,13.7185,51.26,-9.37746,-18.2283,0.396677,-2.54277,-6.87055,-20.0277,25.3148,-17.3015,6.68241,-1.02991
-6.67149,18.6399,1.35327,-11.6832,82.0658,-7.56028,8.39885,3.29433,1.39146,1.36026,4.51908,-0.616319,-3.13006,2.24447,-1.90559,-12.435,0.820262,-4.41517,20.1339,0.434321,9.07783,8.24404,0.904461,3.85848,8.62228e-15,-6.75868e-15,-43.5943,6.90404,-83.4476,33.6349,14.8038,-23.7405,7.22907,7.12502,2.72794,-22.7332,8.62228e-15,-6.75868e-15,-24.7683,11.2499,77.014,30.6533,-8.39426,-29.0549,25.7201,7.12502,-2.40471,55.6863,-12.9408,7.0053,13.7619,50.6142,-10.0294,-18.7365,-0.405917,-2.57151,-7.32491,-20.1485,25.3903,-17.3851,6.78556,-0.7669
-6.63111,18.6449,1.33972,-12.6276,82.3737,-8.65933,8.32842,3.26963,1.32553,1.30915,4.48028,-0.562414,-3.15485,2.22476,-1.80689,-12.5691,0.912347,-4.15742,20.6054,0.550714,8.83306,8.42134,0.967527,3.76122,3.90363e-14,-1.19271e-15,-43.5912,6.86796,-83.406,33.5607,14.9003,-23.6889,6.82731,7.12502,2.77779,-23.1343,3.90363e-14,-1.19271e-15,-24.5813,11.3037,77.0757,30.6174,-8.59478,-28.8522,25.7133,7.12502,-2.20894,55.6816,-13.3441,7.2545,13.8939,49.8943,-10.7191,-19.5426,-1.08927,-2.66066,-7.58509,-20.1408,25.4058,-17.2682,6.9079,-1.55011
-6.59146,18.6481,1.33667,-14.2884,82.5524,-10.4155,8.32025,3.29278,1.2243,1.26941,4.5046,-0.463166,-3.20642,2.23687,-1.65228,-12.7733,1.0448,-3.70542,21.1301,0.705251,8.48019,8.63123,1.0547,3.601,-2.01021e-14,-6.75868e-15,-43.5686,6.89921,-83.3663,33.4285,14.8967,-23.6829,7.0393,7.12502,2.78357,-22.9223,-2.01021e-14,-6.75868e-15,-24.4102,10.9366,77.2117,30.6395,-8.32298,-28.5674,25.6436,7.12502,-1.93386,55.6146,-13.6558,7.83725,14.2231,49.1107,-11.5596,-20.5769,-1.12114,-2.65642,-7.7174,-19.9896,25.3892,-17.169,6.96426,-2.33109
-6.54832,18.6496,1.33714,-14.6867,82.6512,-10.9475,8.22951,3.37455,0.901802,1.22506,4.58556,-0.385222,-3.23084,2.2799,-1.39754,-12.7478,1.14404,-3.60524,21.418,0.808188,8.54364,8.71753,1.12649,3.62656,-2.03382e-14,7.15625e-15,-43.5288,6.90871,-83.2982,33.2721,14.9388,-23.8254,6.97985,7.12502,2.64596,-22.9835,-2.03382e-14,7.15625e-15,-24.2866,10.4757,77.3688,30.6702,-8.09735,-28.4496,25.5903,7.12502,-1.82016,55.5623,-14.015,8.63354,14.3906,48.2953,-12.2921,-21.6011,-1.05515,-2.68032,-7.68282,-19.9712,25.3835,-17.3,6.87464,-2.21732
-6.51266,18.6475,1.33003,-13.028,82.8834,-9.45771,8.20814,3.43147,0.487746,1.15199,4.62082,-0.46411,-3.31978,2.30015,-1.25466,-12.6202,1.23918,-3.5745,21.5799,0.891026,8.76165,8.74158,1.19641,3.70905,8.34896e-15,2.78299e-15,-43.448,6.62244,-83.1941,33.1069,15.1903,-23.7523,6.70472,7.12502,2.71656,-23.2577,8.34896e-15,2.78299e-15,-24.1144,10.1383,77.4256,30.576,-8.10619,-28.6622,25.667,7.12502,-2.02545,55.6372,-14.4553,9.38054,14.2459,47.4997,-12.7214,-22.8346,-2.09625,-2.80939,-7.23826,-20.1776,25.382,-17.3842,6.37881,-1.75267
-6.48217,18.6433,1.33127,-14.2068,83.1269,-10.6433,8.45081,3.41636,0.394216,1.10571,4.59268,-0.465248,-3.5106,2.28513,-1.21974,-12.5979,1.37984,-3.41881,21.8211,1.02347,8.91042,8.81071,1.29575,3.75676,-6.79471e-14,1.39149e-14,-43.4034,6.55601,-83.2504,33.0313,15.3165,-23.8091,6.44089,7.12502,2.66177,-23.5223,-6.79471e-14,1.39149e-14,-23.9374,9.87457,77.4112,30.4625,-8.06241,-28.9123,25.9266,7.12502,-2.26699,55.8943,-14.6696,10.2448,14.5986,46.6852,-13.3289,-24.5996,-2.94102,-2.76203,-7.00449,-20.0359,25.4019,-17.5291,5.89436,-0.38578
-6.44445,18.6457,1.3374,-16.0154,83.149,-12.5276,8.54709,3.45085,0.304506,1.05159,4.63212,-0.39581,-3.63241,2.30448,-1.11201,-12.6761,1.50775,-3.2008,22.1917,1.13812,8.97985,8.94623,1.38804,3.77206,-1.88721e-14,2.38542e-15,-43.4372,7.00088,-83.4891,33.0842,14.9401,-24.2452,6.21233,7.12502,2.24053,-23.7556,-1.88721e-14,2.38542e-15,-23.8367,9.69282,77.4119,30.4432,-7.93843,-28.9336,26.0785,7.12502,-2.28761,56.046,-14.9757,11.0167,15.0609,45.828,-14.3485,-26.2591,-2.47306,-2.71913,-7.28038,-19.8525,25.4843,-18.0395,5.93762,1.63348
-6.4036,18.6466,1.33616,-17.7579,83.1917,-14.405,8.54802,3.50229,0.341746,0.992044,4.70444,-0.356906,-3.69377,2.33881,-1.10343,-12.6574,1.56559,-3.05761,22.453,1.16392,9.09509,9.03168,1.4343,3.80086,-2.66247e-14,-9.54166e-15,-43.497,7.22834,-83.5864,33.149,14.6315,-24.2166,6.56415,7.12502,2.26821,-23.4035,-2.66247e-14,-9.54166e-15,-23.7336,9.59124,77.4475,30.3998,-8.06476,-28.8532,25.8195,7.12502,-2.20993,55.7878,-15.3002,11.4793,15.4217,44.8795,-15.6542,-27.4185,-0.680865,-2.74754,-7.53605,-19.6822,25.6122,-18.3597,6.08484,1.40027
-6.36234,18.6391,1.33977,-19.8399,83.2033,-16.4947,8.67547,3.58794,0.404169,0.978577,4.82717,-0.28999,-3.77719,2.39822,-1.0928,-12.5369,1.61156,-3.04176,22.5343,1.18786,9.29011,9.03373,1.4718,3.8697,1.72446e-14,-1.19271e-15,-43.5126,7.03359,-83.4508,33.1582,14.8458,-23.6735,6.95184,7.12502,2.79265,-23.0096,1.72446e-14,-1.19271e-15,-23.5807,9.41067,77.5401,30.2962,-8.30102,-28.7262,25.6174,7.12502,-2.08731,55.5869,-15.4611,12.1404,15.8534,43.8513,-16.7764,-28.3716,1.15008,-2.65274,-7.68834,-19.4567,25.7308,-18.357,6.20179,0.106304
-6.32196,18.633,1.33409,-20.3973,83.3016,-17.1639,8.74176,3.63054,0.347093,0.92219,4.87827,-0.278924,-3.8775,2.42292,-1.0631,-12.3668,1.7158,-2.95288,22.5907,1.30435,9.36618,9.01298,1.54401,3.89209,-1.55549e-14,9.14409e-15,-43.4657,6.96203,-83.3389,33.1265,15.0956,-23.6467,6.64707,7.12502,2.81856,-23.314,-1.55549e-14,9.14409e-15,-23.4944,9.22868,77.6162,30.2154,-8.4326,-28.6765,25.5287,7.12502,-2.03929,55.4987,-15.7516,12.6744,15.9803,42.8045,-17.3807,-28.983,2.07027,-2.65465,-7.93776,-19.4807,25.8003,-18.4466,6.33028,-0.293674
-6.28096,18.6318,1.33614,-21.4794,83.3193,-18.3461,8.82492,3.67745,0.235977,0.874181,4.93206,-0.214256,-3.98796,2.45017,-0.949698,-12.2477,1.8329,-2.80587,22.7329,1.4365,9.38715,9.03183,1.62544,3.89163,2.25621e-14,1.59028e-15,-43.4147,7.16888,-83.3494,33.1875,14.8957,-24.4436,5.46332,7.12502,2.04896,-24.5066,2.25621e-14,1.59028e-15,-23.4219,9.12893,77.6681,30.1417,-8.6956,-28.9194,25.4916,7.12502,-2.27384,55.4592,-16.0617,13.2159,16.2289,41.7817,-17.469,-29.245,2.98364,-2.62895,-7.96557,-19.3487,25.8171,-18.5915,6.24983,-0.2831
-6.239,18.6332,1.34449,-21.2915,83.3681,-18.242,8.91986,3.74241,-0.101803,0.835881,4.98571,-0.193712,-4.11058,2.48108,-0.757097,-12.2229,1.93354,-2.66046,22.9425,1.5223,9.50773,9.09443,1.69969,3.9266,-5.69518e-14,5.1684e-15,-43.4329,7.44347,-83.4387,33.3501,14.4745,-25.4524,4.09222,7.12502,1.07465,-25.8848,-5.69518e-14,5.1684e-15,-23.3461,9.05611,77.7129,30.0473,-9.04842,-29.2094,25.5012,7.12502,-2.55398,55.4657,-16.3939,13.8616,16.3107,40.811,-17.1411,-29.1599,3.97715,-2.56304,-7.91495,-19.3537,25.779,-18.6944,6.0812,-0.0460213
-6.20253,18.6334,1.32988,-19.9527,83.5343,-17.0255,9.09274,3.71594,-0.206077,0.749323,4.93295,-0.325427,-4.29455,2.45375,-0.845251,-12.1574,2.08329,-2.41123,23.1369,1.66409,9.59185,9.14245,1.80463,3.93557,-2.22142e-14,-2.38542e-15,-43.4101,7.54984,-83.4944,33.4096,14.4688,-25.9182,3.61328,7.12502,0.624732,-26.3655,-2.22142e-14,-2.38542e-15,-23.3575,8.94333,77.6612,29.9729,-9.22502,-29.4497,25.6139,7.12502,-2.786,55.5754,-16.8429,14.472,16.0455,39.8726,-16.9127,-28.6156,4.59462,-2.56644,-8.20082,-19.6597,25.6893,-18.7705,6.29808,-0.152268
-6.17392,18.6301,1.28109,-19.7166,83.9874,-16.9654,9.37596,3.53911,0.337707,0.634877,4.74147,-0.572144,-4.50824,2.34391,-1.40213,-12.1028,2.20102,-2.2396,23.3028,1.77545,9.68631,9.18369,1.88896,3.95736,4.47266e-16,8.34896e-15,-43.2751,7.27069,-83.3073,33.3663,14.8897,-25.6867,4.00984,7.12502,0.848374,-25.9682,4.47266e-16,8.34896e-15,-23.3529,8.77981,77.6017,29.9033,-9.46476,-29.7419,25.9461,7.12502,-3.06819,55.9038,-17.3832,14.5018,15.6043,38.9273,-16.4268,-27.5484,4.09809,-2.7327,-8.9212,-20.0665,25.5933,-18.7379,6.76244,-0.435367
-6.13171,18.6277,1.28464,-18.6832,83.9648,-16.0793,9.41274,3.62759,0.205239,0.602814,4.84079,-0.66552,-4.56284,2.39409,-1.44215,-12.1616,2.24576,-2.15113,23.4286,1.76882,9.92142,9.23823,1.92718,4.03171,8.44835e-16,3.18055e-15,-43.1414,6.91303,-83.1339,33.406,15.0695,-25.5073,4.11855,7.12502,1.02162,-25.8588,8.44835e-16,3.18055e-15,-23.2497,8.77854,77.5444,29.7728,-10.019,-29.8523,25.9361,7.12502,-3.17486,55.8922,-17.8305,15.2774,15.4667,37.9628,-15.7242,-26.5511,3.17406,-2.71107,-8.9097,-20.1649,25.5116,-18.8647,6.83606,-0.285048
-6.09007,18.6265,1.28474,-17.6126,84.0648,-15.1401,9.48436,3.69339,0.0776477,0.592866,4.91007,-0.77335,-4.61285,2.42958,-1.49773,-12.1982,2.30167,-2.04032,23.453,1.77297,10.1682,9.25287,1.97047,4.10243,1.88845e-15,1.15295e-14,-43.0953,6.85536,-83.0894,33.6308,14.7728,-25.6214,3.70222,7.12502,0.911396,-26.2756,1.88845e-15,1.15295e-14,-23.0985,8.63258,77.5824,29.5934,-10.5571,-29.9957,25.7855,7.12502,-3.31326,55.7395,-18.2147,15.9291,15.2463,36.944,-14.9182,-25.2481,2.31226,-2.70704,-8.83414,-20.2743,25.4528,-18.9709,6.60233,0.600628
-6.04942,18.6266,1.2819,-16.3254,84.1623,-14.022,9.53315,3.75932,-0.0578567,0.562966,4.97998,-0.836189,-4.67572,2.46553,-1.502,-12.1702,2.37297,-1.92273,23.478,1.83402,10.2525,9.25319,2.02111,4.11909,1.98039e-14,-1.15295e-14,-43.0594,6.85719,-82.9574,33.8714,14.4234,-25.6582,3.59131,7.12502,0.875907,-26.3866,1.98039e-14,-1.15295e-14,-22.9883,8.36697,77.7085,29.3834,-11.0778,-30.5624,25.9309,7.12502,-3.86056,55.8756,-18.6122,16.6356,14.9764,35.8753,-14.0821,-23.9989,1.1211,-2.72862,-8.69795,-20.3772,25.3621,-19.0813,6.21767,1.94995
-6.00845,18.6252,1.28289,-15.4914,84.1845,-13.3522,9.60053,3.78366,-0.17197,0.515002,4.99749,-0.865841,-4.77022,2.4749,-1.47935,-12.1772,2.48145,-1.79054,23.606,1.95484,10.269,9.29289,2.09654,4.12153,-1.01629e-14,-9.14409e-15,-42.8912,6.62085,-82.7116,33.9177,14.5117,-25.5521,3.91577,7.12502,0.978299,-26.0617,-1.01629e-14,-9.14409e-15,-22.9631,8.39568,77.6997,29.1552,-11.6058,-31.1906,26.1215,7.12502,-4.46715,56.0544,-18.9964,17.5512,14.7515,34.7734,-13.3591,-22.8239,-0.104874,-2.70935,-8.73575,-20.4497,25.2546,-19.286,6.14769,2.76896
-5.96573,18.6229,1.2869,-14.6925,84.2269,-12.6658,9.70865,3.74329,-0.313034,0.483309,4.92661,-0.87607,-4.87614,2.44146,-1.41213,-12.1527,2.64116,-1.71218,23.7168,2.15544,10.3048,9.31344,2.20487,4.14651,-3.97072e-14,1.94809e-14,-42.7062,6.56923,-82.4919,33.9735,14.6788,-25.3188,4.41573,7.12502,1.20371,-25.5606,-3.97072e-14,1.94809e-14,-22.9809,8.65586,77.6168,28.8775,-12.1668,-31.4931,26.1797,7.12502,-4.75928,56.1062,-19.3078,18.4724,14.5118,33.6654,-12.7381,-21.5487,-1.08526,-2.60098,-8.84513,-20.5512,25.0953,-19.5202,6.17227,2.99632
-5.9278,18.6215,1.2891,-12.4386,84.4405,-10.5046,9.90093,3.67233,-0.57426,0.463161,4.79858,-0.936372,-5.02316,2.38214,-1.32771,-12.0352,2.76218,-1.6909,23.6769,2.32568,10.31,9.26494,2.28371,4.15682,-1.87852e-14,1.59028e-15,-42.6094,6.79088,-82.4033,34.167,14.4081,-25.389,4.63995,7.12502,1.13582,-25.3368,-1.87852e-14,1.59028e-15,-22.9473,9.06153,77.5592,28.5064,-13.0082,-31.9294,26.194,7.12502,-5.18053,56.1107,-19.5699,19.1766,14.0738,32.5346,-12.247,-20.2961,-2.01121,-2.52214,-8.73332,-20.7901,24.9144,-19.6282,5.87361,3.12123
