JuanDHNZ/ProyectoFinalCD/preprocessing/sports_trials_csv/13_08.csv
root1,root2,root3,root4,root5,root6,lowerback1,lowerback2,lowerback3,upperback1,upperback2,upperback3,thorax1,thorax2,thorax3,lowerneck1,lowerneck2,lowerneck3,upperneck1,upperneck2,upperneck3,head1,head2,head3,rclavicle1,rclavicle2,rhumerus1,rhumerus2,rhumerus3,rradius1,rwrist1,rhand1,rhand2,rfingers1,rthumb1,rthumb2,lclavicle1,lclavicle2,lhumerus1,lhumerus2,lhumerus3,lradius1,lwrist1,lhand1,lhand2,lfingers1,lthumb1,lthumb2,rfemur1,rfemur2,rfemur3,rtibia1,rfoot1,rfoot2,rtoes1,lfemur1,lfemur2,lfemur3,ltibia1,lfoot1,lfoot2,ltoes1
0.134269,18.8222,2.64377,-4.1628,-4.29511,1.99988,6.84832,2.09237,-2.50216,1.15206,2.57514,-0.858563,-2.71771,1.30052,0.283126,-10.2924,-0.763316,-5.32249,6.65151,-1.12288,9.45218,3.7495,-0.20908,3.70335,3.36692e-15,-1.63003e-14,-37.3199,23.5101,-91.5228,83.2668,-6.56864,-29.2259,17.8174,7.12502,-2.56986,-12.1469,3.36692e-15,-1.63003e-14,-29.158,-34.0239,98.9628,90.8388,14.1407,-5.32026,21.1345,7.12502,20.4857,50.0738,7.77506,19.4412,18.2581,10.4718,-13.2701,-23.7939,-4.92612,9.21681,-9.82904,-19.3157,5.56343,-9.48525,18.628,-6.88657
0.133727,18.826,2.65089,-3.94219,-3.77891,2.03831,6.47062,1.91458,-2.49477,1.12592,2.35082,-0.901374,-2.52631,1.18769,0.268822,-10.3137,-0.74145,-5.30457,6.74007,-1.09737,9.41079,3.77736,-0.196329,3.68992,-3.83592e-15,-1.74931e-14,-37.0427,24.0184,-91.7402,83.8001,-6.50397,-28.9522,17.356,7.12502,-2.3055,-12.6113,-3.83592e-15,-1.74931e-14,-28.9636,-34.5693,98.9931,91.047,14.5863,-4.82156,20.9523,7.12502,20.9649,49.8393,7.73263,19.381,18.2477,10.3674,-13.4347,-24.2282,-4.60092,8.87769,-10.3423,-19.318,5.62711,-9.39229,18.6544,-7.00321
0.133476,18.829,2.65238,-3.85743,-3.33065,2.05615,6.31957,1.76171,-2.46537,1.10195,2.15332,-0.938654,-2.45942,1.08878,0.235889,-10.2666,-0.741328,-5.27204,6.77654,-1.10177,9.36585,3.7804,-0.200539,3.67035,1.13245e-14,-1.94809e-14,-36.8308,24.618,-92.0631,84.2677,-6.91394,-29.1761,17.4431,7.12502,-2.52175,-12.5217,1.13245e-14,-1.94809e-14,-28.8165,-35.0411,99.0254,91.3329,14.7971,-3.84271,21.1883,7.12502,21.905,49.9683,7.82348,19.3479,18.286,10.2378,-13.5678,-24.5992,-4.30809,8.58616,-10.7883,-19.3355,5.85756,-9.35449,18.6689,-7.13718
0.131673,18.8282,2.64007,-3.99175,-3.40363,2.02585,6.5635,1.7931,-2.42741,1.06401,2.18871,-0.928989,-2.63449,1.10757,0.212648,-10.2284,-0.769132,-5.29952,6.9254,-1.14554,9.35382,3.82233,-0.222277,3.66957,3.1116e-14,-2.22639e-14,-36.6939,25.2211,-92.3702,84.6771,-7.33843,-29.6333,17.7433,7.12502,-2.96328,-12.2158,3.1116e-14,-2.22639e-14,-28.8094,-35.4528,99.1561,91.6414,15.0397,-3.25797,21.4024,7.12502,22.4664,50.1156,7.97948,19.3461,18.3436,10.0849,-13.3842,-24.5584,-4.56331,8.58537,-10.7196,-19.319,6.07146,-9.44612,18.6504,-6.98248
0.125918,18.8304,2.63499,-3.90899,-2.92178,1.95348,6.52294,1.60975,-2.42358,0.998624,1.94631,-0.889119,-2.67504,0.98785,0.273208,-10.2592,-0.781174,-5.35945,7.13732,-1.16483,9.33777,3.893,-0.230568,3.67527,-2.18694e-14,9.74045e-15,-36.5336,25.8225,-92.5952,85.1499,-7.73112,-29.7512,17.7683,7.12502,-3.07723,-12.1892,-2.18694e-14,9.74045e-15,-28.7263,-35.7627,99.2281,91.8286,15.2565,-2.90859,21.4004,7.12502,22.8017,50.0727,8.05578,18.9023,18.449,9.91652,-13.3414,-24.6286,-4.66232,8.26019,-11.2113,-19.1989,6.32297,-9.41447,18.6839,-7.23654
0.122836,18.8305,2.63597,-3.90267,-2.66904,1.90539,6.47196,1.48262,-2.40857,0.962963,1.78021,-0.855954,-2.68001,0.905502,0.314558,-10.2037,-0.751003,-5.43992,7.24562,-1.12263,9.34657,3.9136,-0.211433,3.69483,1.02778e-14,7.15625e-15,-36.3419,26.4703,-92.8271,85.6062,-8.38369,-29.5286,17.6625,7.12502,-2.8622,-12.298,1.02778e-14,7.15625e-15,-28.6356,-36.0077,99.2804,91.9887,15.4315,-2.43753,21.465,7.12502,23.2537,50.0809,8.17866,18.6956,18.5328,9.80504,-13.3569,-24.6603,-4.61689,8.1211,-11.4695,-19.1376,6.50915,-9.41401,18.6909,-7.51643
0.12227,18.8301,2.63704,-3.92768,-2.55532,1.87169,6.42994,1.41025,-2.34061,0.950264,1.68995,-0.851486,-2.66563,0.859963,0.290013,-10.1054,-0.717014,-5.53763,7.24435,-1.07183,9.404,3.8937,-0.18855,3.73182,-5.04416e-15,1.63003e-14,-36.108,27.0232,-93.0419,85.9949,-8.99538,-29.3516,17.8396,7.12502,-2.6913,-12.1232,-5.04416e-15,1.63003e-14,-28.6684,-36.2341,99.3754,92.2502,15.6585,-2.23849,21.6787,7.12502,23.4446,50.2704,8.28919,18.6322,18.5988,9.72435,-13.3919,-24.6978,-4.54166,8.08744,-11.587,-19.1033,6.60891,-9.44167,18.6834,-7.67972
0.122287,18.8303,2.63726,-3.94892,-2.40283,1.92583,6.37316,1.33705,-2.32109,0.984789,1.59481,-0.909179,-2.59391,0.811473,0.230027,-10.1287,-0.704951,-5.52642,7.24188,-1.05594,9.40196,3.89553,-0.179989,3.73039,1.13245e-14,1.0138e-14,-35.7891,27.4922,-93.2405,86.4069,-9.50645,-29.3124,17.9981,7.12502,-2.65345,-11.9652,1.13245e-14,1.0138e-14,-28.6638,-36.4674,99.3627,92.5446,15.7761,-2.1815,21.8111,7.12502,23.4993,50.3958,8.37345,18.5374,18.5605,9.6804,-13.4684,-24.7352,-4.42394,8.0588,-11.7357,-19.1696,6.66254,-9.44108,18.7134,-7.83561
0.12278,18.83,2.63839,-3.98325,-2.26461,2.0195,6.29356,1.27888,-2.33142,1.05774,1.51868,-0.98818,-2.47068,0.772029,0.164113,-10.148,-0.710492,-5.457,7.19448,-1.0647,9.35196,3.88451,-0.185146,3.70232,-1.1017e-14,1.88845e-14,-35.3983,27.9529,-93.4096,86.8602,-10.146,-29.1613,17.7803,7.12502,-2.50746,-12.1847,-1.1017e-14,1.88845e-14,-28.5151,-36.7463,99.2439,92.7588,15.9086,-1.66752,21.5866,7.12502,23.9922,50.1073,8.45001,18.4622,18.4714,9.66237,-13.5512,-24.7748,-4.29654,8.06607,-11.8658,-19.292,6.70165,-9.44498,18.7374,-7.83298
0.122443,18.8293,2.63838,-4.02685,-2.21041,1.97691,6.27495,1.25617,-2.24122,1.10532,1.49574,-1.00254,-2.40808,0.759135,0.101949,-10.1536,-0.734299,-5.4549,7.16539,-1.09471,9.34865,3.87895,-0.200323,3.6988,2.51587e-16,-1.07344e-14,-35.0715,28.3622,-93.5392,87.2915,-10.7764,-29.1223,17.421,7.12502,-2.46979,-12.5444,2.51587e-16,-1.07344e-14,-28.4107,-37.0363,99.2045,92.9555,16.2156,-0.984442,21.5472,7.12502,24.6471,49.9801,8.49789,18.4595,18.544,9.65919,-13.5313,-24.8543,-4.26988,8.09841,-11.9244,-19.2546,6.70553,-9.39109,18.7451,-7.9251
0.121457,18.8291,2.63742,-4.0705,-2.28324,1.92733,6.32825,1.28496,-2.17992,1.09168,1.53624,-1.00075,-2.45112,0.779198,0.0645918,-10.2035,-0.765198,-5.47041,7.27245,-1.14327,9.38784,3.92371,-0.219981,3.71173,4.00675e-16,5.96354e-16,-34.8954,28.7482,-93.6857,87.6994,-11.4641,-29.2994,17.1747,7.12502,-2.64082,-12.7887,4.00675e-16,5.96354e-16,-28.5267,-37.2443,99.2932,93.2248,16.736,-0.820056,21.8045,7.12502,24.8047,50.2158,8.53897,18.5839,18.6248,9.6253,-13.4276,-24.9192,-4.35452,8.11349,-11.8569,-19.1998,6.75011,-9.37481,18.7491,-8.11955
0.119844,18.8289,2.63793,-4.09612,-2.42526,1.92172,6.30489,1.3433,-2.17622,1.09805,1.61494,-1.00208,-2.43278,0.818203,0.055164,-10.2804,-0.812913,-5.4887,7.38708,-1.21143,9.40316,3.97666,-0.249851,3.71654,-1.78471e-14,-6.55989e-15,-34.6942,29.1416,-93.777,88.1267,-12.4282,-29.2575,16.8547,7.12502,-2.60038,-13.1092,-1.78471e-14,-6.55989e-15,-28.6357,-37.3492,99.3638,93.5548,17.5743,-0.900271,22.1273,7.12502,24.7278,50.5491,8.57883,18.7812,18.6494,9.56731,-13.3422,-24.9648,-4.33099,8.09992,-11.7156,-19.1915,6.86138,-9.45487,18.7368,-8.13845
0.116753,18.8274,2.63842,-4.13045,-2.55836,1.84547,6.25988,1.39368,-2.11455,1.14615,1.6893,-0.969857,-2.3586,0.854137,0.0495055,-10.3539,-0.879557,-5.54176,7.41256,-1.29224,9.3977,4.00309,-0.289392,3.71891,-8.47009e-15,-1.0138e-14,-34.4206,29.4873,-93.801,88.553,-13.4577,-28.9224,16.5103,7.12502,-2.27677,-13.4573,-8.47009e-15,-1.0138e-14,-28.6383,-37.4229,99.381,93.9122,18.636,-0.910831,22.4842,7.12502,24.7177,50.9074,8.61149,18.962,18.7694,9.56518,-13.3176,-25.027,-4.29169,8.14489,-11.5899,-19.1063,6.91351,-9.50125,18.7244,-8.16713
0.113414,18.827,2.63504,-4.109,-2.50157,1.79841,6.27849,1.37662,-2.09726,1.11614,1.66713,-0.950328,-2.39962,0.843447,0.0607864,-10.2849,-0.923985,-5.59888,7.37914,-1.34815,9.43668,3.9865,-0.318647,3.73645,1.14115e-14,-1.88845e-14,-34.2751,29.8203,-93.8884,88.9982,-14.3294,-28.7201,16.3467,7.12502,-2.08141,-13.6229,1.14115e-14,-1.88845e-14,-28.7548,-37.4641,99.4435,94.2747,19.7521,-0.923638,22.7652,7.12502,24.7054,51.1902,8.58485,18.9532,18.8354,9.59138,-13.3593,-25.0733,-4.18477,8.11094,-11.6524,-19.0356,6.93074,-9.51939,18.7273,-8.13746
0.11116,18.8289,2.6305,-4.00982,-2.28515,1.85912,6.26056,1.30481,-2.19591,1.02979,1.56339,-0.967264,-2.47897,0.793521,0.106357,-10.1229,-0.950617,-5.61522,7.33073,-1.38832,9.47428,3.94849,-0.341526,3.74742,1.758e-15,1.98785e-15,-33.9096,30.6299,-93.9729,89.1845,-15.2349,-28.9489,16.093,7.12502,-2.30238,-13.8743,1.758e-15,1.98785e-15,-28.9689,-37.373,99.5072,94.668,20.8138,-0.717654,22.8278,7.12502,24.9028,51.2255,8.48495,18.7926,18.7452,9.60836,-13.3911,-25.1343,-4.05097,7.93326,-11.8653,-19.0608,6.96567,-9.51971,18.7368,-8.14391
0.109447,18.8306,2.62701,-3.95201,-2.19931,1.86551,6.24319,1.26581,-2.2343,0.986794,1.5089,-0.956511,-2.51386,0.767246,0.143266,-10.1332,-0.984678,-5.64344,7.41637,-1.43734,9.4908,3.98026,-0.364209,3.75491,6.58474e-15,-1.78906e-15,-33.7328,31.1584,-94.0585,89.5375,-15.8037,-28.9538,15.8665,7.12502,-2.30708,-14.1008,6.58474e-15,-1.78906e-15,-29.1084,-37.1757,99.5224,95.0994,21.7291,-0.559954,22.7771,7.12502,25.0539,51.1538,8.33843,18.7597,18.7294,9.76178,-13.4419,-25.2067,-4.22122,7.92499,-11.9524,-19.0388,6.78686,-9.37377,18.7543,-8.15659
0.108591,18.8318,2.6254,-3.91456,-2.21273,1.85626,6.21472,1.27525,-2.22187,0.973853,1.52304,-0.953224,-2.51134,0.77426,0.138969,-10.2651,-1.02618,-5.69038,7.57849,-1.49739,9.53924,4.05675,-0.387113,3.77578,5.3734e-15,1.33186e-14,-33.587,31.5269,-94.1229,89.9117,-16.2102,-28.9643,15.9147,7.12502,-2.31722,-14.0525,5.3734e-15,1.33186e-14,-29.1225,-37.0376,99.4928,95.4943,22.5417,-0.65116,22.5547,7.12502,24.9665,50.9436,8.1292,18.8269,18.73,10.0706,-13.6103,-25.2518,-4.3465,8.11423,-11.9404,-19.0195,6.31763,-9.08159,18.7864,-7.9966
0.106007,18.8319,2.62521,-3.93228,-2.12066,2.16538,6.21302,1.28347,-2.56563,0.984827,1.50891,-1.03962,-2.50532,0.769708,0.243846,-10.3291,-1.08598,-5.68137,7.64512,-1.58151,9.5383,4.09424,-0.425821,3.76919,-3.59924e-14,4.96962e-15,-33.4223,31.8403,-94.1654,90.2721,-16.4754,-28.9711,16.1969,7.12502,-2.32376,-13.7702,-3.59924e-14,4.96962e-15,-29.0797,-36.8635,99.4076,95.8387,23.2164,-0.444489,22.1979,7.12502,25.1646,50.5591,8.0326,18.7323,18.3842,10.2857,-13.7373,-25.2178,-4.23694,8.27492,-12.0084,-19.3646,5.97729,-8.86941,18.816,-8.05044
0.102827,18.8303,2.62619,-4.05155,-2.06592,2.52949,6.29815,1.29581,-2.99054,1.01225,1.49165,-1.12735,-2.53264,0.764391,0.39116,-10.3757,-1.1622,-5.63826,7.7391,-1.68865,9.47065,4.13802,-0.478533,3.73456,6.54436e-15,1.82882e-14,-33.4649,31.9466,-94.2659,90.7297,-16.521,-28.6413,16.6393,7.12502,-2.00526,-13.3311,6.54436e-15,1.82882e-14,-29.1279,-36.5328,99.337,96.224,23.6023,0.00490858,22.1043,7.12502,25.5951,50.4044,8.1314,18.7177,18.026,10.3261,-13.7617,-25.2276,-4.16718,8.38617,-12.0347,-19.7847,5.94313,-8.79266,18.8428,-8.43987
0.103785,18.8299,2.62653,-4.09356,-2.24216,2.33852,6.3453,1.34622,-2.75909,0.996034,1.57317,-1.09102,-2.57294,0.803628,0.290673,-10.3901,-1.21941,-5.65744,7.83455,-1.77322,9.51027,4.17661,-0.516874,3.74534,-1.71669e-14,-1.0138e-14,-33.7987,31.6561,-94.4599,91.3503,-16.3765,-27.9624,16.9638,7.12502,-1.34956,-13.0117,-1.71669e-14,-1.0138e-14,-29.2597,-36.2195,99.2892,96.6776,23.8164,0.237231,22.2966,7.12502,25.8176,50.5646,8.13605,18.8311,18.2537,10.333,-13.7394,-25.1945,-4.24267,8.46793,-11.8758,-19.5692,5.90333,-8.73546,18.8659,-8.67846
0.106829,18.83,2.62938,-4.07658,-2.46974,1.91605,6.29703,1.40107,-2.24837,0.996114,1.68503,-1.00598,-2.53669,0.854966,0.0840695,-10.413,-1.2545,-5.71215,7.88303,-1.82635,9.61986,4.201,-0.537376,3.78571,4.69939e-15,-1.98785e-16,-33.7178,31.9318,-94.5334,91.677,-16.5239,-27.6472,16.8291,7.12502,-1.04514,-13.1481,4.69939e-15,-1.98785e-16,-29.3029,-35.9427,99.1838,97.1029,24.0475,0.327561,22.4479,7.12502,25.9041,50.7032,8.12976,18.9532,18.7172,10.2793,-13.6642,-25.1464,-4.42659,8.50704,-11.6835,-19.0969,5.93428,-8.85029,18.8539,-8.48513
0.111532,18.828,2.64076,-4.10966,-2.59291,1.89535,6.1419,1.44328,-2.1454,1.06613,1.75398,-1.02518,-2.37552,0.887013,0.00628018,-10.4667,-1.26971,-5.76122,7.92767,-1.85041,9.71383,4.22691,-0.543512,3.82225,-6.62512e-15,-9.54166e-15,-33.6327,32.1474,-94.5784,92.0328,-16.6609,-27.4175,16.4736,7.12502,-0.823307,-13.5046,-6.62512e-15,-9.54166e-15,-29.2225,-35.6553,99.0285,97.4593,24.378,0.702281,22.4707,7.12502,26.2629,50.673,8.29235,18.9004,18.7108,10.0954,-13.5681,-24.9774,-4.5231,8.49833,-11.557,-19.1183,6.19806,-9.12724,18.8123,-8.15344
0.115592,18.8263,2.64878,-4.11049,-2.59978,2.08379,5.9897,1.4695,-2.27623,1.11077,1.78438,-1.10116,-2.24662,0.901827,0.00382338,-10.4381,-1.28639,-5.82017,7.90951,-1.87502,9.81936,4.22029,-0.552544,3.86337,-4.27698e-15,1.90833e-14,-33.6014,32.2634,-94.6067,92.4119,-17.0226,-26.9469,16.7288,7.12502,-0.368824,-13.2506,-4.27698e-15,1.90833e-14,-29.1025,-35.4484,98.873,97.8149,24.9184,1.36256,22.5531,7.12502,26.8948,50.6597,8.37757,18.8964,18.4719,9.98601,-13.5471,-24.9472,-4.43995,8.48602,-11.5291,-19.3635,6.28141,-9.16074,18.7974,-8.05256
0.115555,18.8265,2.64778,-4.0577,-2.5147,2.12399,5.93077,1.46728,-2.30877,1.09032,1.78015,-1.13324,-2.23469,0.89992,-0.00934824,-10.2599,-1.35011,-5.87564,7.77679,-1.96028,9.91227,4.15886,-0.597572,3.8946,2.92276e-15,-5.96354e-16,-33.6499,32.3519,-94.6646,92.7111,-17.393,-26.4706,17.8773,7.12502,0.0912383,-12.1024,2.92276e-15,-5.96354e-16,-29.0364,-35.2944,98.7487,98.2042,25.6486,1.93649,22.8275,7.12502,27.4439,50.8483,8.31701,18.7829,18.4021,10.0227,-13.6384,-24.909,-4.14496,8.50935,-11.6114,-19.3942,6.06491,-9.04966,18.7932,-7.88247
0.114708,18.8265,2.64804,-4.02142,-2.37029,2.19298,5.88025,1.44714,-2.37284,1.0878,1.74991,-1.17966,-2.209,0.885016,-0.0175091,-10.0684,-1.45786,-5.94384,7.58382,-2.10116,10.022,4.08215,-0.670875,3.92917,1.44119e-15,2.40529e-14,-33.7298,32.6175,-94.8187,92.9139,-17.0954,-26.8921,18.14,7.12502,-0.315907,-11.8395,1.44119e-15,2.40529e-14,-29.0086,-35.1548,98.6183,98.5862,26.3794,2.32081,23.0532,7.12502,27.8114,51.0152,8.32556,18.739,18.3301,10.0112,-13.7238,-25.0016,-3.97857,8.48512,-11.7508,-19.4604,5.98017,-9.00697,18.7986,-8.00258
0.115309,18.8304,2.65486,-3.75534,-1.88276,2.2557,5.50671,1.31245,-2.42428,1.07872,1.57948,-1.23041,-2.00664,0.798976,-0.0184076,-10.0461,-1.57757,-6.00164,7.52277,-2.2609,10.117,4.07522,-0.747665,3.95743,-1.91734e-14,-6.36111e-15,-33.6191,32.8245,-94.8079,93.2073,-17.4087,-26.5011,18.0121,7.12502,0.0617679,-11.9676,-1.91734e-14,-6.36111e-15,-28.9838,-35.0648,98.4987,98.9483,26.9957,2.67457,23.1883,7.12502,28.1495,51.0952,8.21212,18.2699,18.1911,9.88214,-13.7897,-25.0041,-3.90849,8.03909,-12.2312,-19.4862,6.16186,-8.91994,18.8282,-8.43743
0.113829,18.8334,2.65411,-3.64429,-1.69519,2.05485,5.41378,1.28607,-2.26322,1.06645,1.55807,-1.16546,-1.96453,0.787349,-0.0381221,-10.0663,-1.68533,-6.05603,7.56281,-2.40395,10.1456,4.10373,-0.817007,3.96613,2.07916e-14,-3.77691e-14,-33.576,33.01,-94.7697,93.4992,-17.6344,-26.0374,17.6477,7.12502,0.509659,-12.3314,2.07916e-14,-3.77691e-14,-29.0093,-35.0231,98.4906,99.2951,27.5557,3.15879,23.2491,7.12502,28.6123,51.0788,8.20396,18.0854,18.4061,9.72182,-13.7493,-25.019,-3.83994,7.75853,-12.435,-19.2255,6.3987,-9.00723,18.8237,-8.32054
0.111873,18.8338,2.651,-3.67709,-1.71599,1.86911,5.49766,1.33851,-2.13853,1.07587,1.63438,-1.08159,-2.00193,0.825062,-0.0291683,-10.0838,-1.78951,-6.12129,7.61224,-2.53907,10.1509,4.13385,-0.883932,3.96982,-3.55731e-14,5.76476e-15,-33.5799,33.1966,-94.7166,93.7943,-17.8861,-25.6622,17.5705,7.12502,0.871961,-12.4075,-3.55731e-14,5.76476e-15,-29.0312,-35.021,98.512,99.6441,28.2218,3.68405,23.1882,7.12502,29.114,50.9323,8.30137,18.1168,18.6429,9.55511,-13.5916,-25.0717,-3.93452,7.65314,-12.4305,-19.0071,6.65924,-9.19708,18.8038,-8.29589
0.112248,18.833,2.65025,-3.71928,-1.71946,1.85926,5.49428,1.38788,-2.13316,1.11802,1.70125,-1.08972,-1.95733,0.857854,-0.0445874,-10.0667,-1.87676,-6.13973,7.63908,-2.66144,10.1923,4.15041,-0.942494,3.97774,-8.18744e-15,1.47101e-14,-33.499,33.5222,-94.7105,93.9921,-18.0466,-25.5624,17.6022,7.12502,0.968436,-12.3753,-8.18744e-15,1.47101e-14,-29.0294,-35.0785,98.4394,99.9949,28.9741,4.34527,23.2492,7.12502,29.7453,50.8823,8.38486,18.1467,18.67,9.46449,-13.4851,-25.1198,-4.09998,7.61055,-12.4282,-19.0041,6.83307,-9.29255,18.7839,-8.43794
0.112621,18.8327,2.64717,-3.72103,-1.6419,1.88767,5.51748,1.41008,-2.12645,1.1121,1.72913,-1.14584,-1.97489,0.871768,-0.108715,-9.95902,-1.96022,-6.10936,7.63633,-2.78559,10.2172,4.1422,-1.00425,3.97215,-7.91411e-15,1.15295e-14,-33.5296,33.9325,-94.8853,94.15,-17.9026,-26.1946,17.1203,7.12502,0.357747,-12.8592,-7.91411e-15,1.15295e-14,-29.0653,-35.198,98.3582,100.302,29.726,5.04251,23.1338,7.12502,30.4105,50.646,8.3875,18.098,18.6358,9.4843,-13.5751,-25.0886,-4.05122,7.58504,-12.5038,-19.0355,6.83159,-9.21503,18.7988,-8.59765
0.113736,18.8329,2.64511,-3.71219,-1.5688,2.01198,5.57364,1.42864,-2.21889,1.07227,1.74424,-1.21356,-2.04808,0.880343,-0.129908,-9.90249,-2.06291,-6.12368,7.71938,-2.93302,10.2346,4.17091,-1.07649,3.97052,-5.90142e-17,1.78906e-15,-33.6342,34.1372,-95.0245,94.377,-18.4444,-26.2114,17.4017,7.12502,0.341556,-12.5777,-5.90142e-17,1.78906e-15,-29.1027,-35.3319,98.3235,100.584,30.5564,5.61023,22.9974,7.12502,30.9519,50.4081,8.35867,18.0629,18.4777,9.53116,-13.6572,-25.058,-4.06647,7.61052,-12.5663,-19.183,6.73965,-9.12019,18.8084,-8.65078
0.117326,18.8344,2.65081,-3.65879,-1.48653,2.11613,5.42746,1.43366,-2.29081,1.0862,1.75105,-1.25895,-1.95293,0.8834,-0.132599,-9.94728,-2.15026,-6.21359,7.85501,-3.05662,10.3282,4.23293,-1.13159,4.00709,-1.9543e-14,1.64991e-14,-33.6748,34.333,-95.0647,94.6272,-19.0258,-25.8902,17.4986,7.12502,0.651805,-12.4802,-1.9543e-14,1.64991e-14,-29.0037,-35.511,98.2446,100.874,31.5305,6.37912,23.2253,7.12502,31.6845,50.494,8.30182,18.0157,18.3272,9.57266,-13.6805,-25.1071,-4.03534,7.63095,-12.6365,-19.3221,6.63164,-9.08895,18.7966,-8.649
0.122948,18.8357,2.6606,-3.5738,-1.3813,2.12222,5.17915,1.42922,-2.24719,1.11511,1.75648,-1.27481,-1.78282,0.884667,-0.16635,-9.97921,-2.2097,-6.28372,7.96036,-3.14043,10.3915,4.27958,-1.16892,4.03342,-2.29969e-14,2.10712e-14,-33.7959,34.534,-95.1303,94.9644,-19.3893,-25.6145,17.2499,7.12502,0.918055,-12.7278,-2.29969e-14,2.10712e-14,-28.8563,-35.7775,98.1749,101.17,32.6029,6.95959,23.2437,7.12502,32.2372,50.4018,8.23746,17.9368,18.2755,9.59466,-13.7265,-25.1654,-3.90623,7.59005,-12.7355,-19.3594,6.56281,-9.05705,18.8278,-8.9184
0.127082,18.8353,2.66454,-3.54052,-1.34731,2.11549,5.10139,1.46117,-2.21679,1.08843,1.80272,-1.27403,-1.76659,0.907662,-0.183976,-9.90822,-2.25455,-6.32223,8.05286,-3.2057,10.3903,4.30188,-1.20273,4.03571,1.68656e-15,1.98785e-16,-34.0298,34.7368,-95.251,95.2147,-19.6111,-25.4631,17.1846,7.12502,1.06433,-12.7925,1.68656e-15,1.98785e-16,-28.845,-36.0801,98.2394,101.421,33.5078,7.00911,22.9993,7.12502,32.2844,50.1478,8.22633,17.9308,18.2487,9.56183,-13.6789,-25.2055,-3.94083,7.55123,-12.7662,-19.3761,6.57994,-9.09665,18.843,-8.95094
0.127159,18.8346,2.66216,-3.56884,-1.40072,2.04167,5.16925,1.53126,-2.16672,1.06289,1.89653,-1.24325,-1.83146,0.954794,-0.189111,-9.76599,-2.27833,-6.40187,8.07911,-3.24139,10.4521,4.29133,-1.22288,4.0667,-7.60662e-15,-7.35503e-15,-34.1968,34.9775,-95.3287,95.3681,-19.7926,-25.2596,16.8877,7.12502,1.26084,-13.0884,-7.60662e-15,-7.35503e-15,-28.8463,-36.3863,98.3372,101.599,34.0949,7.06058,22.9916,7.12502,32.3334,50.1302,8.26209,18.0064,18.3394,9.52552,-13.6375,-25.2259,-3.87893,7.56511,-12.7186,-19.2984,6.61943,-9.15721,18.83,-8.7869
0.128003,18.8339,2.66169,-3.59972,-1.459,2.01458,5.16852,1.59062,-2.13347,1.10693,1.9784,-1.24194,-1.78579,0.994994,-0.211056,-9.68292,-2.29596,-6.45058,8.06299,-3.26593,10.5003,4.27627,-1.2364,4.08851,-4.11484e-14,4.17448e-15,-34.3025,35.2185,-95.3907,95.6752,-20.1363,-25.1033,16.2221,7.12502,1.41181,-13.7529,-4.11484e-14,4.17448e-15,-28.7027,-36.681,98.2956,101.749,34.4589,7.37969,23.0685,7.12502,32.637,50.1446,8.27337,18.0906,18.3778,9.53772,-13.6407,-25.2443,-4.04958,7.58439,-12.6624,-19.2758,6.64257,-9.18011,18.8327,-8.71035
0.130518,18.8337,2.66161,-3.57273,-1.4289,2.1023,5.06153,1.61047,-2.19039,1.16298,2.00587,-1.28054,-1.66932,1.00794,-0.216323,-9.68236,-2.31187,-6.43276,8.13081,-3.29066,10.4575,4.29781,-1.24924,4.07076,7.39852e-15,7.15625e-15,-34.3377,35.5096,-95.4069,95.9896,-20.6636,-25.0501,16.0412,7.12502,1.46319,-13.9335,7.39852e-15,7.15625e-15,-28.5531,-36.9576,98.2299,101.902,34.5775,7.82706,22.9541,7.12502,33.0626,49.9411,8.23434,18.0958,18.2485,9.55008,-13.6236,-25.2771,-4.31223,7.4964,-12.6842,-19.3779,6.72191,-9.18156,18.8348,-8.68932
0.131103,18.8346,2.65613,-3.4901,-1.48144,2.1369,4.98926,1.65748,-2.22162,1.14555,2.06856,-1.29692,-1.6482,1.03928,-0.217871,-9.5542,-2.31107,-6.4537,8.1697,-3.2957,10.4612,4.28881,-1.25511,4.07587,9.08819e-15,7.95139e-16,-34.3641,35.8762,-95.4286,96.1579,-21.2118,-25.0014,16.0235,7.12502,1.51022,-13.9509,9.08819e-15,7.95139e-16,-28.5567,-37.2558,98.2805,102.075,34.4796,7.83511,22.8934,7.12502,33.0702,49.8788,8.13184,18.1783,18.1582,9.53323,-13.608,-25.2969,-4.07317,7.32562,-12.6272,-19.402,6.86393,-9.19001,18.8319,-8.70672
0.126733,18.8365,2.64178,-3.39982,-1.49995,2.05164,5.09491,1.69236,-2.21078,1.06366,2.11076,-1.26271,-1.79284,1.0616,-0.196683,-9.35987,-2.31741,-6.5011,8.15811,-3.31072,10.5097,4.25551,-1.26695,4.0988,6.38596e-15,5.56597e-15,-34.4091,36.2245,-95.4962,96.253,-21.8111,-24.8263,16.0091,7.12502,1.67932,-13.964,6.38596e-15,5.56597e-15,-28.6252,-37.5152,98.369,102.243,34.2852,7.49745,23.0219,7.12502,32.7491,50.0748,8.00654,18.2147,18.221,9.49393,-13.5597,-25.3102,-3.79512,7.08314,-12.6164,-19.2565,7.05079,-9.20639,18.8348,-8.81248
0.119043,18.8389,2.62403,-3.33606,-1.22658,1.92586,5.31612,1.63234,-2.20632,0.972572,2.02286,-1.20474,-2.01083,1.01961,-0.142475,-9.27841,-2.32257,-6.55746,8.275,-3.32746,10.5546,4.28028,-1.27496,4.12239,-1.71452e-15,-5.96354e-15,-34.4782,36.5077,-95.5749,96.3106,-22.3589,-24.6585,16.2873,7.12502,1.84135,-13.6845,-1.71452e-15,-5.96354e-15,-28.6618,-37.7057,98.4347,102.361,33.985,7.35088,23.0707,7.12502,32.6096,50.1525,7.95464,17.9523,18.3676,9.42344,-13.4678,-25.3567,-3.79429,6.77489,-12.9035,-19.0468,7.2949,-9.23532,18.844,-9.04972
0.115445,18.8404,2.61389,-3.32638,-1.01563,1.844,5.44758,1.60353,-2.15635,0.936145,1.98241,-1.19882,-2.11968,0.999967,-0.166179,-9.23916,-2.34331,-6.62279,8.50026,-3.37456,10.6352,4.3485,-1.29335,4.15724,5.00689e-15,-6.36111e-15,-34.5245,36.6505,-95.6326,96.3263,-22.6362,-24.4524,16.3262,7.12502,2.04047,-13.6437,5.00689e-15,-6.36111e-15,-28.6167,-37.9381,98.4183,102.407,33.5906,7.28424,23.143,7.12502,32.5462,50.2379,7.97815,17.7587,18.4728,9.3395,-13.3931,-25.3995,-3.90504,6.57809,-13.1144,-18.9262,7.53661,-9.35013,18.8304,-9.04355
0.114863,18.8408,2.6076,-3.35675,-0.949098,1.78376,5.51943,1.63637,-2.0721,0.951772,2.02849,-1.22631,-2.14046,1.02234,-0.246815,-9.17972,-2.3894,-6.62333,8.67129,-3.4591,10.6903,4.39892,-1.33077,4.17031,8.38623e-15,7.7526e-15,-34.5372,36.6835,-95.6661,96.3788,-22.912,-24.2709,16.2241,7.12502,2.21573,-13.7441,8.38623e-15,7.7526e-15,-28.5215,-38.2172,98.346,102.412,33.188,7.05786,23.1061,7.12502,32.3308,50.2451,8.02824,17.7145,18.5529,9.27356,-13.3613,-25.4138,-3.88212,6.50202,-13.1867,-18.8563,7.69771,-9.40826,18.8201,-8.92559
0.114221,18.8408,2.60309,-3.37068,-0.832175,1.77493,5.57418,1.64788,-2.04783,0.950572,2.04292,-1.2529,-2.17064,1.02947,-0.290527,-9.10939,-2.40867,-6.58396,8.7982,-3.5028,10.6821,4.42862,-1.35124,4.15932,-7.61594e-15,1.61016e-14,-34.5676,36.6895,-95.6457,96.6547,-24.2155,-23.4996,16.0973,7.12502,2.96063,-13.8619,-7.61594e-15,1.61016e-14,-28.5151,-38.445,98.3432,102.435,32.8709,6.66833,22.9091,7.12502,31.9599,50.123,8.06005,17.6229,18.5702,9.24705,-13.356,-25.4381,-3.78045,6.45102,-13.3054,-18.8428,7.7604,-9.37115,18.8089,-8.9775
0.113907,18.8405,2.60123,-3.37049,-0.712147,1.80878,5.6119,1.63611,-2.07431,0.930007,2.0234,-1.27961,-2.21262,1.02016,-0.303302,-9.17455,-2.41355,-6.63257,9.07838,-3.52779,10.7351,4.52861,-1.35576,4.18427,-2.6339e-15,0,-34.7531,36.887,-95.7672,96.8441,-24.7626,-23.4326,15.9527,7.12502,3.02533,-14.0056,-2.6339e-15,0,-28.5372,-38.587,98.3468,102.449,32.7097,6.16029,22.9101,7.12502,31.476,50.2197,8.06601,17.5309,18.5353,9.27124,-13.3883,-25.4643,-3.80627,6.43292,-13.4235,-18.8801,7.7429,-9.39219,18.8016,-8.87763
0.114179,18.8409,2.5976,-3.37443,-0.623078,1.83372,5.66061,1.62192,-2.10736,0.921541,2.0004,-1.29409,-2.24891,1.00912,-0.299662,-9.26943,-2.4072,-6.74115,9.4146,-3.53774,10.8342,4.65128,-1.35062,4.23554,-9.83984e-15,-1.23246e-14,-34.8967,37.1249,-95.897,96.9802,-25.0161,-23.6482,15.4174,7.12502,2.81714,-14.5437,-9.83984e-15,-1.23246e-14,-28.4541,-38.7072,98.2786,102.414,32.7136,5.33583,22.9819,7.12502,30.6902,50.442,8.02142,17.4701,18.5079,9.35395,-13.3898,-25.5,-3.92766,6.46057,-13.5112,-18.9078,7.6312,-9.37536,18.8009,-8.66433
0.116757,18.8427,2.59343,-3.33577,-0.518912,1.93042,5.62491,1.59945,-2.20138,0.937594,1.96573,-1.3199,-2.2143,0.992193,-0.269575,-9.25118,-2.36791,-6.79643,9.61536,-3.49638,10.8605,4.70667,-1.32809,4.25806,2.60284e-14,-2.3059e-14,-34.8869,37.3581,-95.9106,97.0893,-25.515,-23.9837,15.0701,7.12502,2.49309,-14.8951,2.60284e-14,-2.3059e-14,-28.2853,-38.8003,98.1744,102.333,32.8509,4.38906,22.9584,7.12502,29.7871,50.584,7.94185,17.4009,18.3656,9.42137,-13.4466,-25.4755,-3.85017,6.46604,-13.6072,-19.0192,7.48482,-9.26928,18.8038,-8.63341
0.117805,18.8433,2.59115,-3.30087,-0.405688,2.05494,5.58622,1.57764,-2.33055,0.95691,1.92985,-1.35794,-2.17529,0.974791,-0.232217,-9.20333,-2.3349,-6.77427,9.72583,-3.45971,10.8119,4.72741,-1.31172,4.24277,-1.36727e-14,1.43125e-14,-34.8509,37.5104,-95.8998,97.1755,-25.8952,-24.2097,14.9633,7.12502,2.27487,-15.0043,-1.36727e-14,1.43125e-14,-28.1253,-38.876,98.0698,102.208,33.0507,3.42446,22.6715,7.12502,28.8661,50.4582,7.93898,17.3232,18.2038,9.4167,-13.5803,-25.4186,-3.6055,6.46683,-13.711,-19.158,7.38761,-9.17976,18.8247,-8.73886
0.115424,18.8424,2.59311,-3.36228,-0.249459,2.05624,5.63624,1.5551,-2.35404,0.975588,1.89679,-1.37274,-2.18379,0.958396,-0.232929,-9.16737,-2.34614,-6.71309,9.90295,-3.48852,10.7226,4.77519,-1.32697,4.20376,-8.92046e-15,1.51076e-14,-34.8827,37.6483,-95.9817,97.216,-26.1102,-24.6602,14.6753,7.12502,1.83975,-15.2965,-8.92046e-15,1.51076e-14,-28.0591,-39.03,98.0198,102.094,33.3691,2.30504,22.3623,7.12502,27.7963,50.3267,8.08257,17.1901,18.2584,9.39065,-13.6938,-25.4103,-3.57041,6.57298,-13.8691,-19.1666,7.30468,-9.12796,18.838,-8.76696
0.114226,18.842,2.59548,-3.43289,0.0323714,1.99642,5.64697,1.48593,-2.30339,1.02731,1.80886,-1.36615,-2.13394,0.913696,-0.247145,-9.28457,-2.36701,-6.6926,10.2839,-3.53621,10.6569,4.91413,-1.34405,4.17889,4.78326e-15,-1.98785e-15,-34.783,37.8425,-96.0212,97.1817,-26.3133,-25.3782,14.3997,7.12502,1.14628,-15.577,4.78326e-15,-1.98785e-15,-28.041,-39.1976,98.0027,102.042,33.8915,0.95637,22.4312,7.12502,26.5061,50.5971,8.27043,16.9254,18.3916,9.33388,-13.7932,-25.4048,-3.51199,6.64487,-14.1574,-19.1132,7.25829,-9.06363,18.8581,-8.79829
0.1152,18.8422,2.59288,-3.39725,0.29002,2.01822,5.60731,1.4103,-2.31016,1.04249,1.709,-1.39298,-2.09419,0.863606,-0.262052,-9.4129,-2.37803,-6.6518,10.6872,-3.57487,10.595,5.06103,-1.35511,4.1527,7.34882e-15,-3.97569e-16,-34.6124,37.9552,-96.0458,97.1084,-26.5199,-25.7709,14.2326,7.12502,0.76702,-15.7457,7.34882e-15,-3.97569e-16,-28.069,-39.3527,97.9801,101.994,34.5627,-0.641619,22.5246,7.12502,24.9757,50.9122,8.33542,16.6925,18.3656,9.23275,-13.8063,-25.4087,-3.3037,6.53909,-14.4135,-19.1314,7.27723,-8.94509,18.9103,-9.17408
0.115152,18.843,2.58854,-3.32503,0.402955,2.02393,5.59959,1.38274,-2.31183,1.00012,1.67081,-1.42104,-2.13221,0.844988,-0.287631,-9.40088,-2.39092,-6.62311,10.998,-3.61604,10.5531,5.15664,-1.37209,4.1345,-2.71465e-15,-1.59028e-15,-34.6131,37.9765,-96.1357,97.0866,-26.7241,-25.9724,14.2797,7.12502,0.572412,-15.6993,-2.71465e-15,-1.59028e-15,-28.212,-39.5471,98.0147,101.943,35.29,-2.29166,22.5011,7.12502,23.3936,51.0992,8.30228,16.6041,18.3365,9.16872,-13.7508,-25.435,-3.2196,6.41112,-14.5256,-19.1142,7.28055,-8.84852,18.9417,-9.50073
0.115004,18.8438,2.58505,-3.27996,0.425624,2.01657,5.59629,1.38943,-2.30609,0.967782,1.67914,-1.43113,-2.1633,0.849439,-0.302313,-9.35405,-2.37827,-6.66903,11.3032,-3.62054,10.5727,5.24371,-1.37148,4.15156,-4.53478e-16,1.59028e-15,-34.6586,37.9873,-96.2036,97.12,-26.8653,-26.3605,14.3455,7.12502,0.197549,-15.6342,-4.53478e-16,1.59028e-15,-28.3661,-39.7345,98.0826,101.909,36.0697,-3.76105,22.6641,7.12502,21.9834,51.4349,8.25741,16.6061,18.3309,9.14747,-13.729,-25.4681,-3.1728,6.34487,-14.5491,-19.0835,7.26527,-8.83512,18.9239,-9.42995
0.117442,18.8445,2.583,-3.21277,0.44425,2.06478,5.5041,1.39289,-2.3271,0.974603,1.6853,-1.46038,-2.10458,0.852196,-0.318493,-9.35245,-2.38545,-6.69292,11.6269,-3.65209,10.5724,5.34613,-1.38289,4.1566,-2.35001e-14,2.14687e-14,-34.497,38.0255,-96.1636,97.0992,-26.8844,-26.7243,14.0918,7.12502,-0.153849,-15.8878,-2.35001e-14,2.14687e-14,-28.3679,-39.9043,98.0612,101.844,37.0872,-4.86157,22.9792,7.12502,20.9264,51.8704,8.20652,16.6172,18.2432,9.09216,-13.7212,-25.4902,-3.14185,6.22988,-14.5632,-19.1231,7.31377,-8.85411,18.9057,-9.36311
0.119876,18.8454,2.58253,-3.14833,0.466595,2.01948,5.36349,1.38733,-2.26307,1.01717,1.68769,-1.46093,-1.9804,0.85205,-0.350519,-9.45627,-2.45734,-6.68653,12.032,-3.76875,10.5046,5.49821,-1.43474,4.12847,-2.47798e-14,2.3059e-14,-34.2056,38.1045,-96.0325,97.0194,-26.8267,-26.8296,13.8533,7.12502,-0.255534,-16.1263,-2.47798e-14,2.3059e-14,-28.2801,-40.084,97.9909,101.785,38.2549,-5.71154,23.3012,7.12502,20.1096,52.2804,8.17835,16.6176,18.2631,9.00212,-13.677,-25.5106,-3.31089,6.09171,-14.587,-19.0619,7.43006,-8.94221,18.8804,-9.16383
0.120933,18.8466,2.5796,-3.12514,0.420778,1.89756,5.34275,1.39729,-2.15083,1.02176,1.7088,-1.42998,-1.96201,0.861875,-0.382331,-9.55323,-2.51383,-6.65403,12.5064,-3.8672,10.3912,5.66795,-1.47883,4.08336,-3.23646e-15,1.47101e-14,-34.0163,38.1525,-95.9622,96.9036,-26.7073,-26.851,13.8827,7.12502,-0.276221,-16.0968,-3.23646e-15,1.47101e-14,-28.2967,-40.2284,97.977,101.762,39.2933,-6.5217,23.4576,7.12502,19.3308,52.5168,8.17459,16.6818,18.3851,8.89988,-13.5932,-25.5189,-3.44903,5.99612,-14.5485,-18.9199,7.56932,-9.06919,18.8375,-8.82544
0.121759,18.8477,2.57179,-3.10437,0.345061,1.79718,5.44643,1.40862,-2.05457,0.962429,1.72496,-1.41047,-2.07891,0.870248,-0.421141,-9.5912,-2.51757,-6.61745,13.0133,-3.89961,10.2841,5.83199,-1.49151,4.04574,-9.39258e-15,1.86858e-14,-33.8998,38.1831,-95.9882,96.6961,-26.4494,-27.232,13.801,7.12502,-0.644193,-16.1777,-9.39258e-15,1.86858e-14,-28.4454,-40.2901,98.0139,101.727,40.0885,-7.44617,23.5031,7.12502,18.4417,52.6489,8.15273,16.7779,18.4823,8.80834,-13.5125,-25.5181,-3.39361,5.90801,-14.4787,-18.8012,7.67401,-9.10063,18.8404,-8.82646
0.123745,18.8486,2.5652,-3.06913,0.323531,1.7898,5.48508,1.41326,-2.0184,0.924719,1.73071,-1.42855,-2.13774,0.87327,-0.4621,-9.62037,-2.51991,-6.63853,13.4891,-3.92721,10.2352,5.98714,-1.50152,4.03689,2.52953e-14,-1.94809e-14,-33.7182,38.2063,-95.9775,96.4597,-26.1682,-27.8111,13.4817,7.12502,-1.20342,-16.4946,2.52953e-14,-1.94809e-14,-28.5904,-40.3496,98.052,101.696,40.524,-8.41152,23.687,7.12502,17.5128,52.9182,8.11814,16.8258,18.4703,8.76018,-13.4612,-25.5629,-3.50495,5.81718,-14.4567,-18.7852,7.72711,-9.08448,18.8609,-8.96833
0.127426,18.8488,2.56325,-3.01992,0.351463,1.88144,5.37054,1.40922,-2.1024,0.945948,1.7243,-1.44681,-2.05375,0.870094,-0.429894,-9.6593,-2.54901,-6.68094,13.9324,-3.98023,10.1574,6.13654,-1.52753,4.01972,9.03849e-15,-1.98785e-15,-33.4723,38.2144,-95.8378,96.2754,-25.9415,-28.1155,13.2399,7.12502,-1.49747,-16.7346,9.03849e-15,-1.98785e-15,-28.6181,-40.4046,98.0812,101.687,40.7677,-9.52765,23.7865,7.12502,16.4385,53.11,8.06904,16.8316,18.3335,8.7498,-13.4019,-25.6279,-3.80978,5.74146,-14.4773,-18.883,7.75018,-9.1388,18.8224,-8.73816
0.128069,18.8479,2.55853,-3.02889,0.37895,1.87658,5.33295,1.39042,-2.16422,0.979252,1.69881,-1.40062,-2.00145,0.857429,-0.344458,-9.66759,-2.62015,-6.71011,14.4109,-4.08221,9.98961,6.29457,-1.58398,3.96724,4.6528e-15,-2.78299e-15,-33.2447,38.2348,-95.6588,96.0879,-25.6082,-28.1438,13.2575,7.12502,-1.52479,-16.7168,4.6528e-15,-2.78299e-15,-28.5958,-40.389,98.1186,101.66,40.9885,-10.8519,23.7782,7.12502,15.1631,53.2027,8.06858,16.8312,18.3362,8.74211,-13.3602,-25.6531,-3.79597,5.72943,-14.5059,-18.8735,7.75613,-9.18418,18.7887,-8.44467
0.125247,18.8475,2.54911,-3.13094,0.372251,1.81355,5.48515,1.37898,-2.17097,1.00564,1.67959,-1.35851,-2.06056,0.848164,-0.29965,-9.61798,-2.67998,-6.85368,14.8947,-4.18376,10.0121,6.45063,-1.63406,3.99671,4.16205e-15,9.93923e-15,-33.0216,38.244,-95.5486,95.8552,-25.2847,-28.2614,13.503,7.12502,-1.63841,-16.4705,4.16205e-15,9.93923e-15,-28.6147,-40.3726,98.1383,101.593,41.1942,-12.077,23.8516,7.12502,13.9828,53.3614,8.17609,16.8612,18.4511,8.70208,-13.3459,-25.6856,-3.62565,5.78081,-14.507,-18.8068,7.80556,-9.21207,18.794,-8.28209
0.125098,18.8481,2.53746,-3.23642,0.367615,1.76024,5.67784,1.36858,-2.12687,1.02866,1.66271,-1.34875,-2.14334,0.839819,-0.317741,-9.66391,-2.71849,-6.97832,15.4644,-4.27126,10.0957,6.65117,-1.66804,4.04536,-1.66234e-14,-3.57812e-15,-32.7294,38.2741,-95.4477,95.5843,-25.0525,-28.6826,13.6276,7.12502,-2.0452,-16.3423,-1.66234e-14,-3.57812e-15,-28.6178,-40.4462,98.1087,101.504,41.4852,-13.3345,23.8396,7.12502,12.7707,53.429,8.28641,16.8918,18.5394,8.64118,-13.3172,-25.7366,-3.5615,5.79591,-14.5093,-18.7596,7.92112,-9.25593,18.795,-8.24551
0.128431,18.8492,2.52608,-3.30035,0.401956,1.66611,5.80342,1.34926,-2.007,1.04474,1.64097,-1.334,-2.19376,0.828416,-0.370986,-9.68986,-2.80055,-6.87791,16.041,-4.40573,9.88,6.8451,-1.73563,3.95307,-2.25931e-14,1.19271e-14,-32.4169,38.2746,-95.3156,95.2777,-24.7484,-29.074,13.5286,7.12502,-2.42314,-16.4374,-2.25931e-14,1.19271e-14,-28.6273,-40.5933,98.0794,101.445,41.7131,-14.4719,23.8067,7.12502,11.6741,53.4614,8.326,16.8814,18.6422,8.60455,-13.2796,-25.741,-3.46643,5.76397,-14.5514,-18.6708,8.01741,-9.24833,18.816,-8.5279
0.13288,18.8497,2.52016,-3.29521,0.423275,1.675,5.76349,1.35197,-1.99327,1.0631,1.64681,-1.3463,-2.15187,0.830939,-0.390413,-9.66342,-2.91173,-6.77613,16.6235,-4.57234,9.60926,7.03389,-1.82459,3.83916,6.0443e-15,1.27222e-14,-32.1053,38.1899,-95.1582,94.9224,-24.2739,-29.4879,13.4737,7.12502,-2.82287,-16.4873,6.0443e-15,1.27222e-14,-28.612,-40.728,98.0586,101.33,41.7221,-15.101,23.8658,7.12502,11.0673,53.554,8.29648,16.8907,18.6026,8.59479,-13.2527,-25.7415,-3.39009,5.71111,-14.5709,-18.6939,8.05715,-9.24049,18.8378,-8.64506
0.137836,18.8503,2.51826,-3.24005,0.413657,1.78097,5.63659,1.36763,-2.08541,1.0614,1.66527,-1.38342,-2.08442,0.840317,-0.375096,-9.75131,-3.01276,-6.79453,17.3883,-4.73922,9.49314,7.30894,-1.90341,3.79823,-1.32192e-14,1.70955e-14,-31.8009,38.1334,-95.025,94.5633,-23.7274,-29.9454,13.3649,7.12502,-3.26478,-16.5899,-1.32192e-14,1.70955e-14,-28.5637,-40.8147,98.0441,101.104,41.5902,-15.4019,23.9997,7.12502,10.7771,53.7033,8.20645,16.9367,18.4401,8.63132,-13.2679,-25.7676,-3.19902,5.67021,-14.5514,-18.817,8.01438,-9.20032,18.8518,-8.55543
0.14226,18.8519,2.51771,-3.17083,0.432501,1.84882,5.50103,1.35326,-2.15252,1.04439,1.64577,-1.40699,-2.02723,0.830727,-0.357066,-9.83271,-3.05965,-6.82303,18.1363,-4.84107,9.44626,7.57542,-1.94656,3.78832,1.03244e-14,-1.59028e-15,-31.5645,38.1117,-94.9526,94.2657,-23.2561,-30.0792,13.4134,7.12502,-3.3939,-16.5393,1.03244e-14,-1.59028e-15,-28.5383,-40.8479,98.0369,100.859,41.3591,-15.7616,24.1154,7.12502,10.4301,53.8367,8.06392,16.9497,18.3241,8.75663,-13.351,-25.7935,-3.03356,5.68715,-14.5632,-18.89,7.8309,-9.08894,18.8712,-8.5169
0.145711,18.8531,2.51652,-3.1118,0.444134,1.90138,5.35785,1.33426,-2.21116,1.06485,1.62226,-1.41708,-1.92729,0.818653,-0.328892,-9.8907,-3.07098,-6.86795,18.7561,-4.88546,9.41697,7.79324,-1.96432,3.7914,1.5996e-14,7.15625e-15,-31.256,38.0696,-94.8193,93.9669,-22.8154,-30.1938,13.6713,7.12502,-3.50463,-16.2796,1.5996e-14,7.15625e-15,-28.4331,-40.8641,97.9702,100.644,41.1693,-16.4574,24.0219,7.12502,9.75892,53.7757,7.92782,16.968,18.2351,8.89588,-13.4354,-25.8178,-3.15458,5.74141,-14.569,-18.9509,7.59917,-8.9908,18.8709,-8.47353
0.148764,18.8532,2.51259,-3.1144,0.389602,1.99418,5.30391,1.35053,-2.29902,1.11053,1.64152,-1.44,-1.85216,0.827975,-0.302513,-10.0031,-3.11541,-6.92926,19.3968,-4.9686,9.37444,8.0333,-2.00152,3.78903,-1.28713e-14,-9.14409e-15,-30.8297,38.0558,-94.6071,93.6517,-22.5134,-30.5278,13.674,7.12502,-3.82717,-16.2714,-1.28713e-14,-9.14409e-15,-28.2647,-40.8896,97.8596,100.433,41.0933,-17.2438,23.9119,7.12502,9.00008,53.7,7.88455,17.0569,18.1238,8.95566,-13.4216,-25.8469,-3.35313,5.81832,-14.5076,-19.066,7.44834,-8.95389,18.8416,-8.25623
0.151591,18.8528,2.50889,-3.14569,0.319981,2.05214,5.31797,1.38099,-2.34812,1.13262,1.679,-1.45881,-1.83858,0.846662,-0.296988,-10.1768,-3.2163,-6.93844,20.1799,-5.13266,9.26327,8.33895,-2.07667,3.7478,-2.80783e-14,3.06128e-14,-30.5144,38.0556,-94.465,93.383,-22.279,-30.922,13.5522,7.12502,-4.20782,-16.386,-2.80783e-14,3.06128e-14,-28.1601,-40.8793,97.7984,100.188,40.9968,-17.8741,24.1432,7.12502,8.39186,53.9565,7.89247,17.1594,18.0607,8.96792,-13.3834,-25.8801,-3.32971,5.89964,-14.4341,-19.1439,7.36258,-8.97458,18.8239,-7.90036
0.154294,18.8533,2.50396,-3.14026,0.652191,2.02887,5.32162,1.28005,-2.32193,1.13666,1.54618,-1.45633,-1.83416,0.780291,-0.299875,-10.2736,-3.31116,-6.93562,20.9413,-5.29865,9.17972,8.62657,-2.15155,3.71372,2.36057e-16,3.18055e-15,-30.2702,38.0576,-94.3686,93.0719,-21.8009,-31.3957,13.603,7.12502,-4.66527,-16.3257,2.36057e-16,3.18055e-15,-28.0728,-40.8761,97.798,99.9333,40.8841,-18.4422,24.6289,7.12502,7.84355,54.4634,7.93415,16.8498,18.0924,8.98547,-13.5015,-25.88,-3.0269,5.85426,-14.7684,-19.1185,7.31955,-8.87016,18.8578,-8.07454
0.155899,18.8538,2.4932,-3.16115,1.07087,2.00345,5.4239,1.14334,-2.33228,1.13566,1.36035,-1.43898,-1.89064,0.688094,-0.265619,-10.3195,-3.33804,-6.9101,21.584,-5.37023,9.10939,8.85788,-2.18155,3.68901,-2.83268e-15,7.95139e-15,-29.973,38.1287,-94.2316,92.7563,-21.2918,-31.8292,13.542,7.12502,-5.08379,-16.377,-2.83268e-15,7.95139e-15,-27.9329,-40.8478,97.7669,99.6887,40.7817,-18.904,24.8705,7.12502,7.39778,54.7212,8.02242,16.4541,18.1343,8.96718,-13.5976,-25.8807,-2.79649,5.74912,-15.191,-19.0848,7.3598,-8.71664,18.8749,-8.3854
0.157927,18.8528,2.48187,-3.22427,0.806797,1.96111,5.60369,1.22198,-2.31955,1.11339,1.4592,-1.41605,-2.01552,0.738253,-0.260716,-10.3913,-3.33322,-6.8382,22.1931,-5.39415,9.00433,9.07796,-2.18864,3.64889,1.00759e-14,1.98785e-15,-29.7857,38.217,-94.1753,92.5877,-20.9929,-32.1627,12.9533,7.12502,-5.40583,-16.9578,1.00759e-14,1.98785e-15,-27.8444,-40.7563,97.7205,99.4708,40.6349,-19.387,24.7925,7.12502,6.93156,54.659,8.02976,16.7485,18.1708,8.90554,-13.4398,-25.9373,-2.95507,5.78187,-14.93,-19.0548,7.43038,-8.786,18.8461,-8.19617
0.163016,18.8524,2.47843,-3.25124,0.377551,1.89641,5.63108,1.3547,-2.21282,1.11142,1.64132,-1.4058,-2.03253,0.828543,-0.324063,-10.3997,-3.33449,-6.8825,22.6986,-5.44216,9.08065,9.26225,-2.2013,3.68828,7.17488e-15,-1.47101e-14,-29.6627,38.2774,-94.1726,92.4346,-20.8208,-32.5033,12.5681,7.12502,-5.73468,-17.3343,7.17488e-15,-1.47101e-14,-27.7523,-40.6854,97.6943,99.2523,40.464,-19.8465,24.5313,7.12502,6.48802,54.412,7.94298,17.2061,18.2197,8.91219,-13.2623,-26.0089,-3.27505,5.88695,-14.5025,-19.0118,7.40336,-8.91673,18.8145,-7.90708
0.170601,18.8539,2.48408,-3.19004,0.534022,1.95011,5.39858,1.28724,-2.21628,1.16344,1.56023,-1.42558,-1.84782,0.786792,-0.329826,-10.3598,-3.3181,-6.97433,23.0855,-5.46575,9.22229,9.39808,-2.20251,3.76034,-4.94477e-15,-1.39149e-14,-29.4004,38.3677,-94.0743,92.1878,-20.849,-32.716,12.8747,7.12502,-5.94001,-17.022,-4.94477e-15,-1.39149e-14,-27.5472,-40.5643,97.6109,99.0087,40.3415,-20.042,24.311,7.12502,6.29927,54.1973,7.85872,17.0771,18.1442,9.03724,-13.386,-25.9932,-3.28973,5.88552,-14.6524,-19.0859,7.2722,-8.89211,18.807,-7.77138
0.176187,18.8551,2.48793,-3.12034,0.848903,2.12334,5.17162,1.16973,-2.39818,1.21168,1.40234,-1.46855,-1.67295,0.707376,-0.255346,-10.3242,-3.28148,-6.92079,23.4207,-5.44927,9.21192,9.50526,-2.18843,3.75745,-5.32991e-15,-3.18055e-15,-29.1526,38.4377,-94.0004,91.9753,-20.9926,-32.8069,12.8903,7.12502,-6.02777,-17.0039,-5.32991e-15,-3.18055e-15,-27.3572,-40.4172,97.5149,98.8106,40.318,-20.1486,24.2632,7.12502,6.19636,54.1526,7.77912,16.7963,17.9389,9.20297,-13.5753,-25.959,-3.32507,5.85603,-14.9542,-19.2823,7.11237,-8.73558,18.8282,-7.90492
0.176783,18.8551,2.47653,-3.16092,0.657339,2.23744,5.3194,1.2388,-2.56529,1.19274,1.47856,-1.49356,-1.77947,0.74686,-0.196444,-10.3722,-3.25352,-6.79867,23.8439,-5.45128,9.16064,9.65901,-2.17786,3.72745,4.27387e-15,-2.06736e-14,-29.0641,38.5044,-94.0689,91.7941,-21.0036,-33.0965,12.6046,7.12502,-6.3074,-17.2815,4.27387e-15,-2.06736e-14,-27.2365,-40.3503,97.4914,98.649,40.3836,-20.525,24.2787,7.12502,5.83299,54.1784,7.65059,17.0278,17.7989,9.36582,-13.5042,-26.0348,-3.58497,5.95712,-14.7558,-19.4136,6.96125,-8.61801,18.8358,-7.93551
0.177174,18.8553,2.45955,-3.23097,0.397486,2.26862,5.61012,1.33192,-2.63847,1.14841,1.58532,-1.50535,-1.99072,0.802257,-0.183086,-10.4813,-3.24143,-6.65599,24.355,-5.48165,9.09985,9.85896,-2.1768,3.68877,-6.58474e-15,1.03368e-14,-28.9667,38.6369,-94.1528,91.5393,-20.9396,-33.4662,12.7265,7.12502,-6.6643,-17.1486,-6.58474e-15,1.03368e-14,-27.0807,-40.3144,97.4784,98.4808,40.4833,-21.1119,24.5884,7.12502,5.26633,54.503,7.53913,17.3244,17.7505,9.50341,-13.4277,-26.1286,-3.67746,6.0359,-14.4952,-19.4518,6.89931,-8.62582,18.8345,-7.77538
0.181321,18.8544,2.45039,-3.27774,0.361794,2.25645,5.73477,1.34292,-2.61625,1.15629,1.59646,-1.50847,-2.0517,0.808091,-0.202586,-10.552,-3.24103,-6.58234,24.7674,-5.5267,9.1076,10.0229,-2.18342,3.68293,1.55301e-14,-2.22639e-14,-28.7627,38.7596,-94.1227,91.334,-21.0149,-33.6591,12.7233,7.12502,-6.85053,-17.1459,1.55301e-14,-2.22639e-14,-26.9285,-40.2662,97.4719,98.3538,40.4922,-21.6283,24.8461,7.12502,4.76773,54.7725,7.52856,17.3909,17.7534,9.56512,-13.4635,-26.146,-3.60877,6.01811,-14.4601,-19.456,6.98895,-8.71451,18.8238,-7.64852
0.185202,18.8539,2.44363,-3.3202,0.34452,2.14356,5.79716,1.34858,-2.51296,1.18468,1.6098,-1.45488,-2.05624,0.814125,-0.207376,-10.5326,-3.24926,-6.63169,25.0264,-5.57334,9.20134,10.1211,-2.19692,3.72646,1.76173e-14,3.97569e-15,-28.5938,38.8373,-94.0406,91.2812,-21.2623,-33.8417,12.384,7.12502,-7.02677,-17.4794,1.76173e-14,3.97569e-15,-26.8393,-40.2073,97.5328,98.2732,40.3269,-22.0925,24.7579,7.12502,4.31945,54.6938,7.56271,17.43,17.8786,9.54931,-13.4769,-26.1185,-3.50701,5.96443,-14.4505,-19.3456,7.14801,-8.80988,18.8063,-7.53011
0.186917,18.8552,2.43816,-3.30711,0.327398,2.01879,5.81087,1.35545,-2.4423,1.19047,1.62463,-1.37779,-2.05845,0.821241,-0.16903,-10.4935,-3.24814,-6.64595,25.2442,-5.5935,9.22474,10.1954,-2.2034,3.74101,2.72087e-15,1.86858e-14,-28.5109,38.9465,-93.9787,91.2671,-21.5712,-34.1493,12.2217,7.12502,-7.3237,-17.6316,2.72087e-15,1.86858e-14,-26.7269,-40.1582,97.6185,98.1766,40.045,-22.5459,24.7163,7.12502,3.88158,54.6607,7.54375,17.4638,18.0159,9.50862,-13.4238,-26.1515,-3.5529,5.85162,-14.4421,-19.1965,7.28647,-8.84989,18.8091,-7.56113
0.190257,18.8571,2.43638,-3.22093,0.30628,2.0364,5.72348,1.36014,-2.46419,1.18703,1.63295,-1.36537,-2.01431,0.825239,-0.142463,-10.5666,-3.21596,-6.57538,25.5627,-5.57519,9.19302,10.3209,-2.18591,3.72744,-1.33061e-14,9.93923e-15,-28.3934,39.1034,-93.9408,91.2095,-21.9413,-34.5863,12.1225,7.12502,-7.74552,-17.7156,-1.33061e-14,9.93923e-15,-26.5997,-40.1386,97.6557,98.0839,39.7376,-23.0161,24.8498,7.12502,3.42756,54.802,7.44395,17.5108,17.9618,9.46766,-13.3094,-26.2518,-3.55977,5.67364,-14.4185,-19.1944,7.41647,-8.85448,18.8207,-7.62753
0.197058,18.8587,2.43471,-3.13055,0.293353,2.11029,5.62014,1.35145,-2.47443,1.18402,1.6239,-1.39544,-1.95899,0.820358,-0.164352,-10.661,-3.1899,-6.58218,25.8984,-5.5708,9.24016,10.4638,-2.173,3.75496,1.56543e-15,1.11319e-14,-28.2832,39.2114,-93.971,91.1111,-22.1709,-35.0614,12.0099,7.12502,-8.20403,-17.8108,1.56543e-15,1.11319e-14,-26.4667,-40.1427,97.6254,98.0119,39.4258,-23.5291,25.1954,7.12502,2.93216,55.155,7.34101,17.5562,17.8185,9.42261,-13.2022,-26.2974,-3.53212,5.50305,-14.3978,-19.2748,7.54724,-8.87704,18.8245,-7.59432
0.202969,18.8596,2.43204,-3.10874,0.234135,2.08064,5.57534,1.34658,-2.41113,1.19958,1.62334,-1.38663,-1.91648,0.819398,-0.189239,-10.6914,-3.18045,-6.72371,26.1201,-5.59258,9.42354,10.5631,-2.17342,3.85046,1.73937e-15,1.11319e-14,-28.1718,39.2922,-94.0236,91.0147,-22.2029,-35.3322,11.8184,7.12502,-8.46535,-17.992,1.73937e-15,1.11319e-14,-26.3394,-40.0957,97.5851,97.9444,39.046,-23.9584,25.4978,7.12502,2.51756,55.4627,7.29214,17.6425,17.8182,9.42925,-13.2236,-26.2549,-3.47658,5.457,-14.3389,-19.2505,7.58986,-8.94142,18.8012,-7.38651
0.205794,18.86,2.42855,-3.13971,0.152805,1.96271,5.62204,1.35411,-2.30691,1.19837,1.63852,-1.34976,-1.9422,0.826688,-0.211971,-10.6568,-3.15445,-6.80267,26.3011,-5.60171,9.59593,10.6315,-2.16528,3.93245,9.51682e-15,5.96354e-15,-28.0878,39.3321,-94.1009,90.9573,-22.2761,-35.3847,11.75,7.12502,-8.51602,-18.0582,9.51682e-15,5.96354e-15,-26.3748,-39.9988,97.6507,97.9142,38.6093,-24.4919,25.6276,7.12502,2.00232,55.598,7.27393,17.7442,17.9552,9.48454,-13.2922,-26.2579,-3.35116,5.50538,-14.2657,-19.1219,7.55276,-9.00392,18.7588,-7.11018
0.209484,18.86,2.42688,-3.13621,0.120449,1.99418,5.63828,1.36071,-2.33593,1.16469,1.64372,-1.37103,-1.98619,0.829854,-0.218963,-10.5569,-3.11654,-6.75052,26.4814,-5.58869,9.63401,10.6766,-2.15053,3.94532,-6.49777e-15,1.51076e-14,-28.0907,39.2923,-94.2228,90.9031,-22.3486,-35.534,11.9874,7.12502,-8.66014,-17.815,-6.49777e-15,1.51076e-14,-26.4931,-39.9474,97.7583,97.9165,38.2462,-25.2236,25.8444,7.12502,1.2956,55.8202,7.2372,17.8067,17.9074,9.49569,-13.2193,-26.3618,-3.47279,5.49916,-14.2302,-19.1681,7.55043,-8.99988,18.756,-7.07577
0.215224,18.8608,2.42696,-3.06672,0.0894222,2.12914,5.55508,1.37034,-2.4448,1.14194,1.65162,-1.41578,-1.96501,0.834268,-0.202873,-10.5074,-3.08385,-6.61906,26.6391,-5.55305,9.51715,10.7145,-2.13348,3.88875,-1.96797e-14,1.78906e-14,-28.0354,39.2651,-94.2591,90.8484,-22.4016,-35.8049,11.8489,7.12502,-8.92152,-17.9425,-1.96797e-14,1.78906e-14,-26.5252,-39.966,97.8388,97.9322,38.0383,-25.9785,26.0219,7.12502,0.566544,56.0009,7.13581,17.8745,17.7049,9.4996,-13.153,-26.4367,-3.76941,5.43778,-14.1872,-19.3303,7.52547,-8.94377,18.7906,-7.16748
0.220141,18.8613,2.42636,-3.0329,0.00460699,2.11576,5.52963,1.39446,-2.40936,1.12982,1.68673,-1.40082,-1.96323,0.851664,-0.209407,-10.5292,-3.07973,-6.52059,26.841,-5.54597,9.38112,10.7867,-2.13252,3.82802,8.57259e-16,1.11319e-14,-27.982,39.2216,-94.2595,90.7979,-22.3186,-36.076,11.5214,7.12502,-9.18317,-18.2587,8.57259e-16,1.11319e-14,-26.5502,-40.0272,97.9717,97.9367,37.8274,-26.8239,26.0706,7.12502,-0.249972,56.0502,7.03941,17.9861,17.69,9.58221,-13.197,-26.4282,-4.04385,5.48683,-14.1005,-19.3333,7.38565,-8.85208,18.8107,-7.37944
0.224387,18.8617,2.42725,-3.04883,-0.00340994,2.07946,5.56356,1.39689,-2.35091,1.11169,1.69191,-1.39114,-1.99953,0.854292,-0.233738,-10.5569,-3.11475,-6.50032,27.0796,-5.60899,9.34533,10.8864,-2.15987,3.81016,5.11871e-15,-5.1684e-15,-27.9813,39.0268,-94.3267,90.7612,-22.2215,-36.3165,11.7039,7.12502,-9.41519,-18.0658,5.11871e-15,-5.1684e-15,-26.6514,-40.0901,98.1145,97.9348,37.4529,-27.7529,26.2582,7.12502,-1.14722,56.2349,7.01603,18.019,17.7348,9.68457,-13.2134,-26.4484,-4.09539,5.6106,-14.0928,-19.3224,7.21461,-8.76429,18.8181,-7.53687
0.229997,18.8634,2.42747,-3.01459,0.0380738,2.13699,5.55712,1.3815,-2.36661,1.08068,1.66926,-1.42289,-2.02705,0.843385,-0.256276,-10.5873,-3.16099,-6.47641,27.2602,-5.68532,9.31252,10.9666,-2.19321,3.78913,-8.59744e-15,1.27222e-14,-27.982,38.9881,-94.4764,90.647,-21.6132,-36.9962,11.4441,7.12502,-10.071,-18.2949,-8.59744e-15,1.27222e-14,-26.7565,-40.1544,98.2207,97.9541,36.9943,-28.7242,26.5559,7.12502,-2.08532,56.5254,6.94438,18.0089,17.6394,9.77735,-13.2909,-26.5088,-3.75699,5.6702,-14.1282,-19.4058,7.03838,-8.68097,18.8216,-7.43468
0.23616,18.8633,2.42526,-2.97264,0.0042197,2.24943,5.525,1.38916,-2.4486,1.06888,1.67478,-1.45658,-2.02265,0.84657,-0.244821,-10.5643,-3.19415,-6.44371,27.342,-5.73488,9.26454,10.9954,-2.21765,3.76166,1.5294e-14,-4.77083e-15,-28.0995,39.4092,-94.7889,90.296,-19.295,-38.6283,9.46118,7.12502,-11.6452,-20.1952,1.5294e-14,-4.77083e-15,-26.7856,-40.2524,98.3107,97.9467,36.5563,-29.7149,26.7433,7.12502,-3.04214,56.7014,6.80462,18.0797,17.4613,9.90942,-13.4302,-26.5383,-3.49788,5.72885,-14.0853,-19.5415,6.82333,-8.60618,18.8122,-7.1688
0.241619,18.8622,2.42365,-2.98441,-0.030244,2.39244,5.50597,1.40982,-2.57554,1.09541,1.69546,-1.49538,-1.98748,0.857106,-0.214285,-10.5236,-3.22456,-6.4222,27.3878,-5.78816,9.26066,11.0091,-2.24072,3.75117,1.67725e-16,-1.90833e-14,-27.8943,39.1375,-94.7014,90.2442,-19.7199,-38.7613,10.4584,7.12502,-11.7735,-19.1907,1.67725e-16,-1.90833e-14,-26.7925,-40.3808,98.3867,97.929,36.1498,-30.7354,27.1951,7.12502,-4.02766,57.1368,6.71828,18.1537,17.2799,10.0342,-13.461,-26.5378,-3.62688,5.81028,-14.0407,-19.7207,6.67423,-8.55182,18.8147,-7.04535
0.246261,18.863,2.42116,-2.99803,-0.0437878,2.45145,5.50643,1.41824,-2.61895,1.13456,1.70497,-1.50579,-1.94853,0.86153,-0.200747,-10.6009,-3.25655,-6.48401,27.5072,-5.84272,9.3163,11.0792,-2.26222,3.77875,1.95057e-15,-1.63003e-14,-27.768,39.0063,-94.7084,90.2016,-19.5117,-39.2597,10.4354,7.12502,-12.254,-19.1856,1.95057e-15,-1.63003e-14,-26.764,-40.4572,98.4351,97.9601,35.7827,-31.558,28.4724,7.12502,-4.82195,58.3976,6.6971,18.1328,17.1997,10.0944,-13.5198,-26.4357,-3.58151,5.83833,-14.0222,-19.8072,6.64135,-8.48059,18.836,-7.26744
0.249388,18.8643,2.41919,-2.99406,-0.0917345,2.33416,5.49962,1.42562,-2.50872,1.15063,1.72283,-1.45962,-1.92668,0.869693,-0.215732,-10.6463,-3.27779,-6.52541,27.6293,-5.87847,9.33837,11.1405,-2.27768,3.79302,3.79306e-14,-3.3197e-14,-27.5751,38.8588,-94.6481,90.157,-19.4512,-39.4663,10.7632,7.12502,-12.4533,-18.8457,3.79306e-14,-3.3197e-14,-26.762,-40.4974,98.5121,97.9947,35.4485,-32.1453,29.8649,7.12502,-5.38898,59.7764,6.69501,18.133,17.3209,10.1046,-13.5852,-26.3851,-3.45256,5.80632,-13.9813,-19.6758,6.6938,-8.49198,18.834,-7.33159
0.252874,18.8641,2.41969,-2.97704,-0.164429,2.15437,5.47516,1.45233,-2.32351,1.13311,1.77047,-1.41439,-1.92766,0.892707,-0.275854,-10.5926,-3.29293,-6.45766,27.7025,-5.91631,9.31149,11.1584,-2.29139,3.76874,-1.90461e-14,-1.27222e-14,-27.3982,38.4999,-94.565,90.1066,-19.3401,-39.3957,11.3652,7.12502,-12.3852,-18.2479,-1.90461e-14,-1.27222e-14,-26.859,-40.6315,98.6631,98.01,34.964,-32.962,30.5964,7.12502,-6.17755,60.4864,6.6602,18.1958,17.5097,10.1033,-13.5201,-26.4595,-3.63172,5.7347,-13.9196,-19.468,6.79878,-8.56264,18.8099,-7.25621
0.258528,18.8649,2.41898,-2.93829,-0.225216,2.09768,5.46052,1.47625,-2.24098,1.10361,1.8072,-1.398,-1.94832,0.910907,-0.307917,-10.5921,-3.28858,-6.40876,27.8091,-5.92335,9.28965,11.1974,-2.29059,3.75435,1.9015e-14,-3.97569e-16,-27.3645,38.3027,-94.6153,89.9892,-18.5689,-39.762,10.5476,7.12502,-12.7383,-19.0439,1.9015e-14,-3.97569e-16,-26.9472,-40.7413,98.8292,98.0338,34.2467,-33.9045,31.3405,7.12502,-7.08739,61.2018,6.56983,18.2388,17.5378,10.1453,-13.463,-26.4851,-3.8253,5.67321,-13.8605,-19.4097,6.83209,-8.59981,18.7994,-7.18895
0.264261,18.8666,2.41745,-2.89968,-0.249895,2.20755,5.41649,1.48058,-2.35103,1.10334,1.80806,-1.40423,-1.92719,0.911761,-0.251626,-10.6353,-3.27553,-6.403,27.9198,-5.90477,9.26154,11.2457,-2.28224,3.74838,5.18704e-14,-4.31363e-14,-27.4277,38.3515,-94.772,89.9405,-17.8334,-40.5662,8.99269,7.12502,-13.5136,-20.5488,5.18704e-14,-4.31363e-14,-26.99,-40.7119,98.9543,98.0389,33.3635,-34.6995,32.5091,7.12502,-7.85474,62.3431,6.44239,18.1882,17.3616,10.2606,-13.4574,-26.4069,-3.9898,5.68773,-13.8273,-19.5419,6.70328,-8.54472,18.8166,-7.11544
0.269518,18.8654,2.41758,-2.88387,-0.256202,2.36055,5.33152,1.48343,-2.53113,1.13826,1.8056,-1.41056,-1.84909,0.910653,-0.154279,-10.6654,-3.28616,-6.39202,27.9748,-5.91089,9.20994,11.2715,-2.2883,3.72768,-2.13631e-14,2.62396e-14,-27.3454,38.2087,-94.7713,89.9464,-17.9792,-40.7741,9.29766,7.12502,-13.7139,-20.2304,-2.13631e-14,2.62396e-14,-27.0519,-40.6356,99.089,98.0357,32.3401,-35.4814,34.041,7.12502,-8.60933,63.8454,6.32321,18.1004,17.1386,10.4265,-13.5093,-26.2968,-4.08569,5.78461,-13.8102,-19.7279,6.47034,-8.39217,18.8278,-7.09788
0.274946,18.8632,2.41962,-2.87502,-0.258669,2.49071,5.27892,1.48956,-2.68518,1.139,1.80734,-1.40733,-1.82379,0.912022,-0.0635226,-10.6243,-3.28341,-6.39827,28.0064,-5.90016,9.17656,11.2733,-2.28855,3.71898,2.05928e-14,-1.96797e-14,-27.3821,38.1017,-94.8403,89.8241,-17.1484,-41.1251,8.98524,7.12502,-14.0522,-20.5197,2.05928e-14,-1.96797e-14,-27.2542,-40.5531,99.3267,98.1085,31.3612,-36.3685,35.271,7.12502,-9.46534,65.0384,6.24498,18.0231,16.9518,10.5903,-13.6276,-26.1921,-3.98956,5.89496,-13.798,-19.896,6.25108,-8.28274,18.8304,-7.01466
0.277979,18.8629,2.42075,-2.87789,-0.277458,2.56377,5.2759,1.49466,-2.7857,1.10808,1.80801,-1.3991,-1.85726,0.913311,0.000549766,-10.5503,-3.25089,-6.41882,28.074,-5.8632,9.19707,11.2816,-2.2727,3.738,-2.60656e-14,2.68359e-14,-27.4143,37.7596,-94.8499,89.9105,-17.6789,-41.0628,10.0742,7.12502,-13.9922,-19.4349,-2.60656e-14,2.68359e-14,-27.4926,-40.4686,99.5652,98.201,30.4834,-37.1531,35.9802,7.12502,-10.2223,65.7118,6.21194,18.0042,16.8535,10.6801,-13.6812,-26.1504,-3.91467,5.95423,-13.7737,-19.9913,6.16122,-8.32461,18.839,-6.82941
0.278755,18.8631,2.41885,-2.89585,-0.32962,2.48517,5.26648,1.49048,-2.74025,1.11401,1.80633,-1.35717,-1.84583,0.912179,0.0187117,-10.5506,-3.21824,-6.43151,28.1507,-5.82894,9.22937,11.3091,-2.25398,3.75941,1.24365e-14,-4.57205e-15,-27.3929,37.6233,-94.9308,89.9172,-17.6365,-41.3562,10.0323,7.12502,-14.2749,-19.4571,1.24365e-14,-4.57205e-15,-27.496,-40.3562,99.6789,98.1954,29.6411,-37.7565,36.8705,7.12502,-10.8044,66.5727,6.21185,18.0262,16.9406,10.683,-13.6487,-26.1328,-3.92343,5.94248,-13.7264,-19.9043,6.21985,-8.38118,18.8426,-6.86927
0.279636,18.8629,2.41607,-2.93924,-0.401879,2.29912,5.29897,1.50014,-2.55614,1.13375,1.82966,-1.30589,-1.84013,0.922857,-0.0336669,-10.5775,-3.21717,-6.41785,28.1931,-5.84326,9.26443,11.3332,-2.25386,3.76948,-4.57205e-15,1.98785e-16,-27.2054,37.3859,-94.9066,89.8426,-17.6781,-41.2612,10.1659,7.12502,-14.1834,-19.3299,-4.57205e-15,1.98785e-16,-27.4092,-40.2788,99.7578,98.1464,28.9113,-38.4452,37.9295,7.12502,-11.4687,67.5958,6.26892,18.0497,17.1559,10.6189,-13.5981,-26.0787,-3.95437,5.89458,-13.666,-19.6989,6.39505,-8.43897,18.8205,-6.98453
0.281275,18.8626,2.41436,-2.99637,-0.455995,2.20697,5.38635,1.52599,-2.4541,1.1253,1.86656,-1.29429,-1.89548,0.941252,-0.0840347,-10.5473,-3.23802,-6.3698,28.2127,-5.90169,9.31246,11.3405,-2.27031,3.77222,2.81529e-14,-8.94531e-15,-27.0764,37.1196,-94.8763,89.7055,-17.2726,-41.0556,10.2391,7.12502,-13.9852,-19.2705,2.81529e-14,-8.94531e-15,-27.4249,-40.2917,99.8585,98.086,28.2814,-39.0885,38.7325,7.12502,-12.089,68.3633,6.37939,18.0839,17.2738,10.4967,-13.5278,-26.0477,-3.95029,5.8211,-13.6183,-19.6036,6.65338,-8.58664,18.785,-6.83167
0.28368,18.8613,2.4147,-3.06872,-0.528096,2.1824,5.45565,1.54857,-2.43344,1.13107,1.89553,-1.28725,-1.92831,0.955792,-0.0923394,-10.4951,-3.24122,-6.34321,28.2183,-5.93331,9.37316,11.3363,-2.27624,3.78683,-1.51573e-15,-9.14409e-15,-26.9645,36.9714,-94.8698,89.5512,-16.7819,-40.7115,9.87294,7.12502,-13.6535,-19.6592,-1.51573e-15,-9.14409e-15,-27.4484,-40.2871,99.9425,98.005,27.6213,-39.4615,39.0675,7.12502,-12.4486,68.6767,6.49857,18.1298,17.3159,10.3927,-13.4511,-26.0289,-3.90784,5.79842,-13.5475,-19.5999,6.87103,-8.69186,18.7664,-6.75853
0.286158,18.8596,2.41617,-3.15708,-0.637401,2.11521,5.4986,1.57251,-2.38037,1.16128,1.9303,-1.25501,-1.92117,0.972675,-0.0920983,-10.488,-3.23911,-6.31732,28.249,-5.94257,9.38393,11.3472,-2.27635,3.78614,-4.15584e-15,1.63003e-14,-26.8439,36.9531,-94.9075,89.4083,-16.3515,-40.7147,9.25582,7.12502,-13.6566,-20.2761,-4.15584e-15,1.63003e-14,-27.4601,-40.2227,100.033,97.9753,26.929,-39.8184,39.4976,7.12502,-12.7927,69.0856,6.59167,18.1667,17.3999,10.3386,-13.3643,-25.9509,-4.06803,5.84826,-13.4419,-19.558,7.01201,-8.72938,18.7495,-6.94354
0.287832,18.8599,2.41435,-3.18607,-0.697352,2.09832,5.52968,1.57712,-2.41888,1.15886,1.93401,-1.2087,-1.94393,0.974941,-0.0242755,-10.4765,-3.24021,-6.31051,28.2932,-5.93981,9.34774,11.3602,-2.27841,3.77313,1.96673e-14,-1.59028e-14,-26.7651,36.9892,-94.9027,89.3189,-15.5475,-40.8112,8.36157,7.12502,-13.7497,-21.1641,1.96673e-14,-1.59028e-14,-27.5331,-40.0652,100.19,98.0017,26.2287,-40.2382,40.2754,7.12502,-13.1974,69.8377,6.61797,18.1767,17.4119,10.2845,-13.2759,-25.8827,-4.29071,5.81618,-13.3835,-19.5415,7.13407,-8.79484,18.7331,-6.98974
0.28958,18.8603,2.41031,-3.17018,-0.708515,2.09013,5.55577,1.56267,-2.4734,1.13506,1.91126,-1.15443,-1.98619,0.964417,0.0623673,-10.4317,-3.23687,-6.34545,28.3072,-5.92426,9.32581,11.3552,-2.27873,3.77387,7.88927e-15,-1.09332e-14,-26.7539,37.049,-94.8833,89.2891,-14.8723,-40.8128,7.54852,7.12502,-13.7512,-21.9771,7.88927e-15,-1.09332e-14,-27.6843,-39.83,100.381,98.0229,25.3959,-40.6186,40.8883,7.12502,-13.564,70.4265,6.60646,18.1752,17.4053,10.2545,-13.2652,-25.8791,-4.16794,5.74643,-13.3737,-19.5164,7.19323,-8.85272,18.709,-6.80003
0.294291,18.8595,2.4137,-3.22472,-0.856812,2.05724,5.52543,1.59966,-2.43972,1.17292,1.96515,-1.11931,-1.93147,0.990516,0.0772798,-10.4059,-3.23886,-6.37945,28.2842,-5.92514,9.34673,11.3429,-2.28137,3.78711,1.76297e-14,9.93923e-16,-26.2718,37.5761,-94.6032,89.0611,-15.5852,-41.009,8.25127,7.12502,-13.9403,-21.2614,1.76297e-14,9.93923e-16,-27.7994,-39.6398,100.489,98.0169,24.4169,-41.0156,41.2542,7.12502,-13.9466,70.7665,6.63219,18.2114,17.4299,10.2922,-13.2559,-25.8214,-3.9955,5.87358,-13.2262,-19.5098,7.13933,-8.90037,18.6688,-6.60059
0.30166,18.8582,2.42476,-3.30572,-1.12278,2.09582,5.40039,1.68389,-2.44162,1.2435,2.0833,-1.11382,-1.7917,1.04796,0.0807321,-10.4071,-3.24791,-6.42333,28.2668,-5.94589,9.4106,11.342,-2.28833,3.81567,-1.2188e-14,7.95139e-15,-26.313,37.535,-94.6485,89.1137,-15.336,-40.8749,7.71863,7.12502,-13.8111,-21.8029,-1.2188e-14,7.95139e-15,-27.8786,-39.4569,100.569,98.0016,23.322,-41.2631,41.6997,7.12502,-14.1851,71.1954,6.65443,18.2879,17.3641,10.3527,-13.1836,-25.6877,-4.14981,6.11152,-12.9538,-19.6136,7.02139,-8.96757,18.6446,-6.30442
0.30831,18.8571,2.43279,-3.28909,-1.25223,2.18792,5.23641,1.71878,-2.52085,1.25965,2.13154,-1.11957,-1.68718,1.07142,0.121303,-10.4378,-3.26023,-6.4417,28.3037,-5.96898,9.4347,11.3663,-2.2968,3.82592,-1.78782e-14,-3.57812e-15,-26.6912,36.8328,-94.8828,89.3202,-15.241,-40.3812,8.12201,7.12502,-13.3352,-21.4313,-1.78782e-14,-3.57812e-15,-28.0575,-39.2804,100.684,98.0392,22.1885,-41.3731,42.393,7.12502,-14.2912,71.8812,6.58781,18.2776,17.2039,10.4089,-13.1987,-25.523,-4.28265,6.21497,-12.8143,-19.7497,6.87733,-8.91742,18.6546,-6.27496
0.3125,18.8566,2.43654,-3.26238,-1.27166,2.25189,5.16825,1.70806,-2.588,1.23172,2.11526,-1.13295,-1.6794,1.06364,0.147799,-10.4734,-3.27824,-6.4069,28.3463,-6.00513,9.43169,11.3926,-2.3086,3.81487,-6.82701e-15,1.98785e-15,-26.8284,36.9593,-95.0088,89.2362,-14.8213,-40.6265,8.015,7.12502,-13.5716,-21.5227,-6.82701e-15,1.98785e-15,-28.3855,-39.1425,100.779,98.1535,20.9187,-41.5354,42.8879,7.12502,-14.4476,72.365,6.52634,18.1976,17.0844,10.4705,-13.2218,-25.3824,-4.34721,6.25943,-12.7883,-19.8385,6.76204,-8.82799,18.6823,-6.54923
0.313777,18.8565,2.43593,-3.25224,-1.22222,2.26276,5.18794,1.67149,-2.6153,1.19638,2.06333,-1.14386,-1.72614,1.03845,0.154049,-10.4241,-3.28442,-6.34884,28.2803,-6.03386,9.46221,11.3591,-2.31436,3.8105,-1.88411e-14,4.57205e-15,-26.8371,36.9354,-95.0459,89.2143,-14.7594,-40.477,8.40538,7.12502,-13.4276,-21.1419,-1.88411e-14,4.57205e-15,-28.6613,-38.9377,100.825,98.2498,19.4325,-41.8079,42.8325,7.12502,-14.7101,72.2906,6.49816,18.1487,17.0613,10.5102,-13.2014,-25.3819,-4.45162,6.24474,-12.8371,-19.8485,6.7489,-8.82109,18.7019,-6.53463
0.311971,18.8569,2.42965,-3.23049,-1.14124,2.22272,5.25154,1.62893,-2.62648,1.15779,2.00311,-1.12457,-1.80104,1.00937,0.181508,-10.3249,-3.27498,-6.31394,28.1851,-6.03506,9.49714,11.3022,-2.31127,3.81504,-9.74045e-15,-3.18055e-15,-26.8852,36.9218,-95.0604,89.2985,-14.6694,-40.2336,8.05584,7.12502,-13.193,-21.5067,-9.74045e-15,-3.18055e-15,-28.8061,-38.7108,100.861,98.3075,17.9123,-41.9396,43.0504,7.12502,-14.837,72.4992,6.48893,18.1496,17.1209,10.486,-13.2134,-25.4681,-4.38468,6.1349,-12.9233,-19.7722,6.84262,-8.80409,18.7028,-6.51905
0.310778,18.8566,2.42492,-3.26573,-1.1351,2.16193,5.35784,1.6164,-2.60206,1.14285,1.98403,-1.09547,-1.87553,1.0005,0.19556,-10.3472,-3.28219,-6.31268,28.2056,-6.05688,9.53024,11.318,-2.31652,3.8249,1.64681e-14,-1.2921e-14,-27.0001,36.9156,-95.0728,89.4196,-14.4567,-40.1051,7.71256,7.12502,-13.0691,-21.858,1.64681e-14,-1.2921e-14,-28.9822,-38.551,100.913,98.4189,16.4006,-41.8125,43.5842,7.12502,-14.7145,73.042,6.57407,18.2027,17.2238,10.3936,-13.1706,-25.5471,-4.30858,6.06798,-12.9356,-19.6902,6.9992,-8.78623,18.7172,-6.7928
0.313062,18.8546,2.42591,-3.36493,-1.21187,2.09992,5.46515,1.6206,-2.52838,1.15869,1.99052,-1.07977,-1.91736,1.00362,0.167108,-10.4373,-3.2999,-6.29359,28.2635,-6.09521,9.55134,11.3629,-2.32649,3.82551,-4.78947e-15,-1.98785e-16,-26.9711,36.757,-94.983,89.7155,-15.2394,-39.6444,8.07058,7.12502,-12.625,-21.5279,-4.78947e-15,-1.98785e-16,-29.2353,-38.3207,100.947,98.6277,14.838,-41.7044,43.6481,7.12502,-14.6104,73.1134,6.74409,18.3137,17.333,10.2848,-13.151,-25.5729,-4.27459,6.12677,-12.8628,-19.6512,7.133,-8.88178,18.7151,-6.77814
0.317616,18.8529,2.43094,-3.47979,-1.3394,2.08655,5.52693,1.63246,-2.4783,1.17964,2.00736,-1.08267,-1.92886,1.0117,0.133455,-10.4193,-3.29683,-6.25771,28.25,-6.10191,9.55952,11.3538,-2.32577,3.82102,-6.95746e-15,1.33186e-14,-26.9983,36.711,-94.9744,89.823,-15.4864,-39.1128,8.79779,7.12502,-12.1124,-20.8316,-6.95746e-15,1.33186e-14,-29.4586,-37.977,100.894,98.8368,13.0584,-41.4792,43.7656,7.12502,-14.3934,73.2465,6.93252,18.4185,17.3722,10.172,-13.1495,-25.5407,-4.23985,6.26186,-12.7339,-19.6905,7.21799,-9.05475,18.6493,-6.49994
0.321552,18.8524,2.43686,-3.53783,-1.38689,2.12713,5.47298,1.62556,-2.48225,1.21894,2.00039,-1.10192,-1.8576,1.00741,0.118818,-10.3378,-3.29716,-6.27436,28.1503,-6.11395,9.62699,11.3028,-2.32911,3.84521,8.33032e-15,1.21259e-14,-27.1106,36.9137,-95.0659,89.7383,-14.4721,-39.4561,8.3847,7.12502,-12.4434,-21.2249,8.33032e-15,1.21259e-14,-29.495,-37.7374,100.73,98.9828,11.3064,-41.1492,43.988,7.12502,-14.0754,73.4913,7.07206,18.4605,17.3395,10.0467,-13.0735,-25.5449,-4.33092,6.32926,-12.6812,-19.775,7.28341,-9.17171,18.5999,-6.3485
0.323065,18.8523,2.44147,-3.53584,-1.35215,2.1075,5.37657,1.59876,-2.43592,1.24288,1.97109,-1.11362,-1.7766,0.991848,0.0863977,-10.277,-3.33236,-6.30689,28.0583,-6.1778,9.71181,11.2655,-2.35508,3.87193,-3.60421e-14,5.76476e-15,-27.0232,36.7813,-94.9563,89.9021,-15.2081,-38.8594,8.89329,7.12502,-11.8681,-20.7504,-3.60421e-14,5.76476e-15,-29.5168,-37.6171,100.569,99.166,9.87686,-40.8587,43.738,7.12502,-13.7955,73.2606,7.14556,18.4532,17.3732,9.95395,-13.0233,-25.5701,-4.43997,6.32648,-12.7163,-19.7649,7.30908,-9.20084,18.6087,-6.28897
0.323343,18.8518,2.44207,-3.56158,-1.34495,2.0789,5.39121,1.58521,-2.39329,1.23738,1.95457,-1.12474,-1.7883,0.983554,0.0517941,-10.2346,-3.37975,-6.30208,28.0271,-6.25611,9.74127,11.2539,-2.38872,3.87109,2.59538e-14,-2.48481e-14,-27.0244,36.7174,-94.9305,90.0141,-15.5791,-38.3864,9.1614,7.12502,-11.412,-20.508,2.59538e-14,-2.48481e-14,-29.6094,-37.3828,100.4,99.404,8.36288,-40.1038,43.4992,7.12502,-13.0679,73.0698,7.21025,18.4746,17.4211,9.90189,-12.999,-25.6261,-4.42681,6.36797,-12.7259,-19.7376,7.29643,-9.18731,18.6152,-6.35963
0.323746,18.8515,2.44147,-3.62282,-1.37409,2.09712,5.4791,1.58581,-2.3928,1.22896,1.95162,-1.14927,-1.84509,0.982498,0.0237557,-10.2091,-3.39696,-6.30324,28.0263,-6.29839,9.7957,11.2548,-2.40283,3.88639,-3.48308e-14,2.98177e-15,-27.0825,36.698,-94.9411,90.1433,-15.7629,-38.1483,9.27325,7.12502,-11.1823,-20.4088,-3.48308e-14,2.98177e-15,-29.7421,-37.0235,100.196,99.6951,6.59219,-38.945,43.3244,7.12502,-11.9506,72.9632,7.28321,18.5378,17.4268,9.8807,-12.9784,-25.668,-4.37365,6.46298,-12.6958,-19.7694,7.26229,-9.20472,18.5971,-6.31374
0.323615,18.8517,2.4421,-3.64236,-1.40223,2.09338,5.51393,1.58589,-2.37404,1.21766,1.95102,-1.1629,-1.87506,0.982375,-0.00193794,-10.2345,-3.39203,-6.34246,28.0272,-6.31625,9.91299,11.2676,-2.40118,3.93505,3.83095e-14,-2.26615e-14,-27.1651,36.7334,-94.983,90.2442,-15.758,-38.0979,8.9432,7.12502,-11.1337,-20.7414,3.83095e-14,-2.26615e-14,-29.9318,-36.7436,100.034,100.03,5.09125,-38.2569,42.6576,7.12502,-11.287,72.3339,7.2921,18.5955,17.4515,9.92561,-13.0455,-25.66,-4.22187,6.54146,-12.6678,-19.7701,7.15646,-9.18056,18.5914,-6.09611
0.322666,18.8515,2.44222,-3.62285,-1.41227,2.14554,5.5094,1.58578,-2.44224,1.19582,1.94627,-1.17867,-1.8966,0.980574,0.0200329,-10.27,-3.40341,-6.3824,28.0042,-6.34854,10.0077,11.2742,-2.40876,3.97254,3.4104e-15,1.70955e-14,-27.2394,36.7802,-95.0128,90.2721,-15.7578,-37.9773,8.88828,7.12502,-11.0174,-20.8026,3.4104e-15,1.70955e-14,-30.0758,-36.5729,99.8704,100.322,4.15228,-38.0723,41.7716,7.12502,-11.109,71.4575,7.23705,18.6383,17.3939,10.004,-13.1687,-25.6562,-4.03202,6.59737,-12.654,-19.8217,6.99116,-9.05153,18.6079,-6.13183
0.322706,18.8506,2.44356,-3.63797,-1.42632,2.26848,5.51469,1.58605,-2.57095,1.19181,1.93793,-1.22429,-1.90615,0.977037,0.0454575,-10.2657,-3.41601,-6.33977,27.9698,-6.37455,10.0096,11.2616,-2.41667,3.9611,2.49102e-14,-1.94809e-14,-27.305,36.8188,-95.0219,90.2559,-15.9246,-37.9732,9.84049,7.12502,-11.0134,-19.8506,2.49102e-14,-1.94809e-14,-30.1756,-36.406,99.6516,100.614,3.51995,-37.7844,40.7457,7.12502,-10.8313,70.4464,7.22466,18.6193,17.2505,10.0419,-13.1847,-25.6213,-4.13978,6.68182,-12.6303,-19.9662,6.88019,-8.95763,18.6273,-6.33925
0.322978,18.8504,2.44635,-3.64347,-1.48923,2.30265,5.45516,1.59602,-2.59734,1.21893,1.95208,-1.24912,-1.84532,0.983515,0.0359811,-10.2819,-3.4367,-6.27622,27.9536,-6.40816,9.97898,11.259,-2.42868,3.93307,4.41053e-15,-5.36719e-15,-27.2309,36.8063,-94.893,90.4016,-16.7498,-37.8514,10.2841,7.12502,-10.896,-19.4132,4.41053e-15,-5.36719e-15,-30.2271,-36.2409,99.3954,100.946,2.93779,-37.1309,39.3435,7.12502,-10.201,69.0762,7.2152,18.6611,17.2158,10.0571,-13.1228,-25.653,-4.29228,6.73175,-12.5646,-20.0053,6.84249,-8.95858,18.6505,-6.4624
0.32144,18.8517,2.44683,-3.56713,-1.55866,2.20085,5.35777,1.61116,-2.51454,1.1985,1.98072,-1.21678,-1.81094,0.997367,0.0234652,-10.2495,-3.47754,-6.30837,27.9433,-6.46838,10.004,11.2568,-2.45782,3.9401,-2.18166e-14,6.16232e-15,-27.0044,36.4704,-94.5543,90.5929,-18.9177,-36.8728,12.6035,7.12502,-9.95193,-17.1413,-2.18166e-14,6.16232e-15,-30.2629,-36.0637,99.1738,101.273,2.41078,-36.0772,38.0007,7.12502,-9.18432,67.7807,7.12333,18.7419,17.3197,10.0628,-13.1275,-25.6856,-4.20642,6.63995,-12.5045,-19.8523,6.84722,-8.99917,18.6527,-6.441
0.319065,18.8524,2.44394,-3.52745,-1.54061,2.11949,5.38817,1.60423,-2.46208,1.13604,1.97247,-1.18607,-1.89135,0.994067,0.0241451,-10.1479,-3.50724,-6.38544,27.9343,-6.51884,10.0748,11.2431,-2.48407,3.9744,-3.80797e-15,-1.2921e-14,-27.4378,36.9481,-94.8895,90.4692,-16.5039,-37.7155,8.94637,7.12502,-10.7648,-20.7578,-3.80797e-15,-1.2921e-14,-30.3832,-35.8488,98.9836,101.574,1.91285,-34.858,36.4437,7.12502,-8.00772,66.272,7.10583,18.734,17.4087,10.0134,-13.1287,-25.6799,-4.18392,6.52937,-12.5309,-19.7264,6.92247,-9.05115,18.6318,-6.33699
0.317827,18.8522,2.44204,-3.54185,-1.50246,2.14334,5.46576,1.59051,-2.49485,1.09567,1.94835,-1.19596,-1.97649,0.983069,0.0309105,-10.0845,-3.52766,-6.4262,27.9522,-6.55863,10.124,11.2445,-2.50264,3.99611,-4.79568e-15,-1.98785e-16,-27.5912,36.838,-94.9151,90.6027,-16.7238,-37.4862,9.25421,7.12502,-10.5437,-20.4613,-4.79568e-15,-1.98785e-16,-30.5301,-35.6201,98.7321,101.871,1.35664,-33.6777,34.1972,7.12502,-6.86841,64.0658,7.15539,18.7023,17.3894,9.95305,-13.0832,-25.6853,-4.29322,6.50563,-12.5683,-19.7475,6.99079,-9.07501,18.617,-6.29066
0.317784,18.8526,2.44247,-3.54225,-1.52223,2.15254,5.46613,1.59545,-2.49632,1.09157,1.95455,-1.2039,-1.98081,0.986212,0.023042,-10.0437,-3.54686,-6.44907,27.9359,-6.59461,10.1675,11.2362,-2.51805,4.01164,3.44581e-14,-2.34566e-14,-27.6405,36.7803,-94.8977,90.6716,-16.7269,-37.2197,9.2847,7.12502,-10.2865,-20.4438,3.44581e-14,-2.34566e-14,-30.552,-35.4074,98.4083,102.175,0.796836,-32.2624,32.0284,7.12502,-5.50204,61.9369,7.13677,18.7271,17.3804,9.98445,-13.109,-25.6553,-4.27758,6.56287,-12.5477,-19.7581,6.90967,-9.04353,18.6105,-6.20904
0.318138,18.8523,2.44385,-3.53717,-1.48781,2.19707,5.41235,1.59028,-2.53546,1.10816,1.94749,-1.21895,-1.93434,0.982421,0.0318949,-9.99712,-3.56722,-6.4562,27.871,-6.63138,10.2115,11.2076,-2.53295,4.02289,-4.75841e-15,-9.93923e-16,-27.5356,36.8299,-94.7795,90.6042,-16.5266,-36.9438,9.28019,7.12502,-10.0204,-20.4613,-4.75841e-15,-9.93923e-16,-30.47,-35.2862,98.063,102.455,0.291314,-30.748,30.1193,7.12502,-4.03976,60.0607,7.09968,18.6999,17.3305,10.0808,-13.2042,-25.627,-4.15305,6.66046,-12.5786,-19.8117,6.7181,-8.94077,18.6162,-6.07171
0.318183,18.8522,2.44462,-3.49861,-1.40358,2.34576,5.34963,1.57184,-2.70127,1.08782,1.9147,-1.2546,-1.92375,0.966917,0.091731,-9.93156,-3.58933,-6.44109,27.851,-6.66364,10.1969,11.189,-2.54997,4.01042,-2.92213e-14,5.36719e-15,-27.4182,36.903,-94.6424,90.4399,-16.287,-36.5715,9.47882,7.12502,-9.6612,-20.2796,-2.92213e-14,5.36719e-15,-30.3853,-35.2138,97.6867,102.712,-0.242626,-29.2742,28.2343,7.12502,-2.61656,58.198,7.0326,18.6168,17.1451,10.1742,-13.2861,-25.6204,-4.09507,6.70866,-12.6515,-19.9768,6.52918,-8.80685,18.6281,-5.99217
0.317789,18.8524,2.44445,-3.46558,-1.37043,2.43579,5.31586,1.57075,-2.81175,1.05628,1.9073,-1.26709,-1.94033,0.964161,0.141531,-9.84895,-3.5967,-6.44166,27.8395,-6.67633,10.196,11.1691,-2.55853,4.00895,-3.07433e-14,1.33186e-14,-27.4755,36.8849,-94.6099,90.4639,-16.3229,-36.1109,9.30886,7.12502,-9.21686,-20.4697,-3.07433e-14,1.33186e-14,-30.2554,-35.1301,97.2608,102.942,-0.867878,-27.5331,26.6061,7.12502,-0.934928,56.5838,6.96952,18.5883,17.0311,10.2533,-13.3651,-25.5997,-4.04921,6.74753,-12.6781,-20.0721,6.37491,-8.69583,18.6449,-6.06383
0.31617,18.8518,2.44233,-3.46837,-1.34286,2.43902,5.31083,1.5744,-2.82897,1.05269,1.91145,-1.26062,-1.94208,0.96638,0.157577,-9.78504,-3.58965,-6.44428,27.7933,-6.67433,10.2332,11.1397,-2.55621,4.02284,3.07495e-15,-1.07344e-14,-27.5941,36.8723,-94.6305,90.604,-16.4622,-35.7361,8.89944,7.12502,-8.85519,-20.8948,3.07495e-15,-1.07344e-14,-30.0606,-35.0717,96.8325,103.112,-1.3975,-25.9061,25.0212,7.12502,0.636436,55,6.95721,18.5965,17.0396,10.3001,-13.4113,-25.6339,-4.09053,6.77595,-12.7063,-20.0677,6.29418,-8.6136,18.6753,-6.28378
0.313279,18.8515,2.43931,-3.5065,-1.34327,2.38213,5.36116,1.58256,-2.77703,1.05405,1.92343,-1.25154,-1.96771,0.972306,0.135575,-9.80787,-3.59375,-6.41248,27.8206,-6.69176,10.2437,11.1559,-2.55847,4.01959,2.98177e-15,0,-27.6762,36.9059,-94.6428,90.6274,-16.2363,-35.4433,8.796,7.12502,-8.57257,-21.01,2.98177e-15,0,-29.8719,-35.0824,96.3937,103.281,-1.70652,-24.7106,23.4891,7.12502,1.79108,53.4613,7.00818,18.6536,17.1393,10.2682,-13.3697,-25.715,-4.16591,6.77425,-12.7118,-19.9932,6.33851,-8.64287,18.6873,-6.27553
0.312435,18.8514,2.4398,-3.56153,-1.37435,2.32085,5.3867,1.59773,-2.7009,1.07816,1.94782,-1.23993,-1.95562,0.983798,0.102923,-9.87963,-3.63189,-6.40115,27.8836,-6.75176,10.24,11.2007,-2.58188,4.00965,1.3008e-14,-9.54166e-15,-27.6946,37.0274,-94.6213,90.573,-15.8897,-35.2872,8.83202,7.12502,-8.42199,-20.9801,1.3008e-14,-9.54166e-15,-29.5966,-35.148,95.8792,103.479,-1.94832,-23.4529,22.3931,7.12502,3.00571,52.3517,7.13775,18.6891,17.2389,10.1397,-13.2529,-25.7452,-4.1829,6.76053,-12.6858,-19.9297,6.49428,-8.78795,18.6557,-5.95446
0.315738,18.8505,2.4452,-3.56874,-1.46173,2.33204,5.28062,1.62377,-2.66695,1.10494,1.98933,-1.23397,-1.86882,1.00343,0.0908589,-9.8941,-3.66997,-6.45469,27.8904,-6.79778,10.247,11.2134,-2.60716,4.01569,-3.24889e-15,-1.03368e-14,-27.7792,37.0339,-94.5955,90.6455,-15.8238,-35.0285,9.02181,7.12502,-8.17225,-20.8002,-3.24889e-15,-1.03368e-14,-29.2971,-35.1786,95.3656,103.706,-2.19675,-22.022,21.6281,7.12502,4.38756,51.5626,7.23346,18.7729,17.2129,9.95811,-13.13,-25.7482,-4.25683,6.70055,-12.5955,-19.963,6.7094,-9.00337,18.6088,-5.64783
0.319657,18.8485,2.45278,-3.5748,-1.65085,2.30535,5.17695,1.66398,-2.58275,1.11043,2.05203,-1.21131,-1.80457,1.0338,0.066063,-9.92036,-3.67464,-6.50392,27.9332,-6.79243,10.23,11.2357,-2.61047,4.01985,2.67738e-15,1.39149e-15,-28.0162,36.9151,-94.6388,90.7961,-15.5222,-34.4687,9.25338,7.12502,-7.63197,-20.5889,2.67738e-15,1.39149e-15,-29.103,-35.1957,94.9381,103.95,-2.32244,-20.6059,20.9706,7.12502,5.75485,50.8724,7.29917,18.9568,17.2201,9.77123,-13.0313,-25.7293,-4.28839,6.64477,-12.4052,-19.9606,6.95507,-9.259,18.5676,-5.43854
0.316573,18.8475,2.44963,-3.58338,-1.64844,2.19793,5.2576,1.64825,-2.50405,1.07809,2.03273,-1.15755,-1.8817,1.0247,0.0754694,-9.9635,-3.66803,-6.50872,28.0308,-6.77806,10.1906,11.2791,-2.60615,4.01055,-1.35733e-15,4.17448e-15,-28.1309,36.9368,-94.6424,90.8587,-15.3056,-33.8832,9.15922,7.12502,-7.06677,-20.7028,-1.35733e-15,4.17448e-15,-28.9065,-35.3012,94.5434,104.131,-2.20263,-19.1347,20.4428,7.12502,7.17514,50.3012,7.37088,18.9388,17.3534,9.61688,-12.9314,-25.706,-4.15193,6.53607,-12.4169,-19.8283,7.15776,-9.30209,18.5636,-5.66436
0.309051,18.8483,2.43647,-3.52251,-1.43328,2.07661,5.40436,1.58312,-2.46728,0.998798,1.94228,-1.09753,-2.04428,0.981264,0.117021,-9.9822,-3.65611,-6.51185,28.1342,-6.76893,10.1908,11.3219,-2.60006,4.01574,-3.55887e-14,1.07344e-14,-28.1721,37.0464,-94.6349,90.8219,-15.2395,-33.6029,8.9195,7.12502,-6.79621,-20.9514,-3.55887e-14,1.07344e-14,-28.6874,-35.5063,94.1487,104.262,-1.90955,-17.6258,20.0586,7.12502,8.6315,49.8622,7.35659,18.7008,17.5002,9.5318,-12.8835,-25.6512,-3.99137,6.32841,-12.6459,-19.6309,7.25189,-9.16119,18.6035,-6.21351
0.306983,18.8486,2.43352,-3.48218,-1.36541,2.08812,5.3955,1.56482,-2.50237,0.971005,1.91593,-1.08171,-2.06907,0.968768,0.154523,-10.004,-3.63843,-6.51643,28.2132,-6.75154,10.2007,11.3555,-2.58955,4.02518,-1.52723e-14,1.11319e-14,-28.2092,37.1493,-94.6285,90.758,-15.1721,-33.5642,8.94589,7.12502,-6.75892,-20.9262,-1.52723e-14,1.11319e-14,-28.4696,-35.6734,93.7344,104.394,-1.66586,-16.0868,19.8645,7.12502,10.1164,49.6013,7.3161,18.6238,17.483,9.54146,-12.9193,-25.6091,-4.00326,6.25945,-12.7142,-19.6214,7.25779,-9.13873,18.6112,-6.3421
0.308537,18.8487,2.43825,-3.47644,-1.39228,2.22388,5.27821,1.5613,-2.61341,1.01149,1.90953,-1.1119,-1.96431,0.965057,0.190222,-10.0961,-3.626,-6.50679,28.2821,-6.73215,10.1793,11.3978,-2.57843,4.01939,3.14018e-15,-1.39149e-15,-28.1107,37.2941,-94.5542,90.7238,-15.4018,-33.3581,8.94525,7.12502,-6.55995,-20.9331,3.14018e-15,-1.39149e-15,-28.2174,-35.8025,93.2672,104.578,-1.45076,-14.5366,20.2389,7.12502,11.6117,49.8972,7.28602,18.6546,17.3195,9.6017,-12.9836,-25.5929,-4.06847,6.30046,-12.6758,-19.7896,7.22214,-9.15479,18.5883,-6.27913
0.308706,18.8501,2.43844,-3.42358,-1.3763,2.25988,5.18961,1.53391,-2.62326,1.01677,1.87575,-1.12225,-1.90856,0.94775,0.190145,-10.1989,-3.60732,-6.48751,28.3507,-6.70628,10.1608,11.4414,-2.56277,4.01375,-3.04109e-14,1.03368e-14,-28.0414,37.4008,-94.5164,90.7218,-15.8769,-32.9803,9.0321,7.12502,-6.19521,-20.8573,-3.04109e-14,1.03368e-14,-27.9031,-35.9776,92.7626,104.698,-1.12152,-13.0737,20.5999,7.12502,13.0222,50.1735,7.21268,18.6324,17.2564,9.6415,-13.0237,-25.5999,-4.05923,6.26242,-12.6887,-19.8213,7.16961,-9.11845,18.5918,-6.25267
0.307871,18.8518,2.43815,-3.37033,-1.36501,2.22192,5.12374,1.5206,-2.57567,0.996986,1.86297,-1.10536,-1.89087,0.941164,0.183309,-10.2421,-3.59858,-6.46782,28.3917,-6.69639,10.1479,11.4639,-2.55576,4.00772,-1.95492e-14,1.61016e-14,-28.0942,37.4831,-94.556,90.6478,-15.9882,-32.8555,9.22891,7.12502,-6.07475,-20.664,-1.95492e-14,1.61016e-14,-27.5628,-36.1516,92.2748,104.628,-0.793746,-11.5967,20.3931,7.12502,14.4456,49.8703,7.17403,18.6088,17.283,9.64003,-13.1207,-25.5922,-3.91817,6.20161,-12.7032,-19.7597,7.15515,-9.10361,18.5945,-6.23577
0.307194,18.852,2.43847,-3.35517,-1.34715,2.17713,5.08611,1.51541,-2.52998,0.993202,1.86046,-1.07513,-1.87325,0.939619,0.189992,-10.2715,-3.60595,-6.47271,28.4181,-6.70008,10.1237,11.4798,-2.55937,3.99951,1.0958e-14,-4.37326e-15,-28.1826,37.5437,-94.5898,90.5155,-15.7599,-32.7581,9.22251,7.12502,-5.9807,-20.6731,1.0958e-14,-4.37326e-15,-27.2511,-36.3343,91.8429,104.504,-0.631206,-10.1852,20.354,7.12502,15.8053,49.7287,7.19166,18.5803,17.3265,9.58834,-13.1651,-25.5692,-3.80303,6.1458,-12.7242,-19.7057,7.23581,-9.11176,18.5926,-6.40737
0.307381,18.8521,2.43676,-3.35949,-1.337,2.11664,5.08863,1.50055,-2.44858,0.980863,1.8454,-1.04038,-1.8856,0.931937,0.180911,-10.2195,-3.58116,-6.49245,28.4163,-6.65503,10.1018,11.4633,-2.54511,4.00119,1.59525e-14,-1.31198e-14,-28.2869,37.5978,-94.6255,90.3861,-15.5785,-32.5971,9.20665,7.12502,-5.82522,-20.6933,1.59525e-14,-1.31198e-14,-27.0247,-36.5483,91.4651,104.455,-0.653451,-9.29901,20.7805,7.12502,16.6586,50.0856,7.21713,18.5602,17.3877,9.49994,-13.0297,-25.5798,-3.82143,6.08501,-12.7384,-19.6419,7.35174,-9.13856,18.5979,-6.52794
0.307278,18.8525,2.43483,-3.35612,-1.31186,2.07771,5.0748,1.46442,-2.38994,0.969273,1.80133,-1.00936,-1.88803,0.909802,0.183171,-10.1613,-3.54906,-6.51373,28.4024,-6.59957,10.0831,11.4399,-2.52641,4.00537,-3.07184e-15,-1.78906e-14,-28.3534,37.7112,-94.6652,90.2674,-15.5432,-32.5458,9.59659,7.12502,-5.7757,-20.3047,-3.07184e-15,-1.78906e-14,-26.8835,-36.7528,91.1476,104.477,-0.79609,-8.92622,21.533,7.12502,17.0175,50.8076,7.2465,18.5254,17.4287,9.41422,-12.9012,-25.5878,-3.85763,6.0204,-12.7668,-19.5916,7.43456,-9.16998,18.5938,-6.51955
0.306629,18.8524,2.43446,-3.35716,-1.27664,2.08891,5.06814,1.42268,-2.40609,0.972749,1.74584,-0.97733,-1.88101,0.882205,0.229088,-10.2404,-3.56601,-6.58126,28.4661,-6.60504,10.0578,11.483,-2.53605,4.00837,-5.80203e-15,-2.18663e-15,-28.3736,37.8451,-94.6651,90.1543,-15.4422,-32.4488,9.95901,7.12502,-5.68202,-19.9448,-5.80203e-15,-2.18663e-15,-26.7579,-36.8777,90.8535,104.444,-1.02449,-8.63576,22.0058,7.12502,17.297,51.2561,7.26806,18.4833,17.4227,9.38026,-12.8416,-25.607,-3.91719,5.99484,-12.8022,-19.5952,7.46343,-9.2134,18.5885,-6.43204
0.305774,18.853,2.43509,-3.33755,-1.30799,2.11098,5.06588,1.40997,-2.42802,0.955269,1.72797,-0.951522,-1.89877,0.873722,0.268824,-10.3535,-3.58489,-6.69177,28.5937,-6.61861,10.0693,11.5619,-2.54792,4.03388,-1.12872e-14,2.78299e-15,-28.3884,37.9871,-94.6454,90.0148,-15.1695,-32.293,9.75321,7.12502,-5.53165,-20.1546,-1.12872e-14,2.78299e-15,-26.6676,-36.9601,90.5362,104.331,-1.33854,-8.36751,21.8543,7.12502,17.5552,51.0817,7.22073,18.5083,17.3935,9.39264,-12.7919,-25.6349,-4.01571,5.98851,-12.7694,-19.6118,7.45344,-9.27193,18.5868,-6.32429
0.305819,18.8533,2.43444,-3.33917,-1.38656,2.10722,5.0867,1.42329,-2.38647,0.931845,1.74681,-0.9477,-1.93382,0.883318,0.247285,-10.3816,-3.57419,-6.74655,28.6269,-6.60979,10.1262,11.5838,-2.54213,4.06753,-2.38511e-14,-3.37934e-15,-28.4198,38.1402,-94.6586,89.8865,-15.0142,-32.2479,9.66915,7.12502,-5.48808,-20.2398,-2.38511e-14,-3.37934e-15,-26.5685,-37.0877,90.1849,104.144,-1.78042,-8.20004,21.2079,7.12502,17.7163,50.4209,7.19182,18.5812,17.3878,9.41036,-12.7881,-25.6176,-4.04112,6.01299,-12.6904,-19.6129,7.44263,-9.28875,18.5857,-6.29929
0.307819,18.8514,2.43265,-3.41555,-1.44295,2.12275,5.18257,1.441,-2.32736,0.935523,1.76998,-0.971576,-1.98161,0.894795,0.185616,-10.3818,-3.59299,-6.67961,28.5846,-6.63404,10.0769,11.5657,-2.55216,4.03191,4.29872e-14,-3.57812e-15,-28.4317,38.2331,-94.688,89.796,-14.9718,-32.2393,9.88082,7.12502,-5.47982,-20.0283,4.29872e-14,-3.57812e-15,-26.4279,-37.2926,89.8058,103.869,-2.25529,-8.27178,20.2589,7.12502,17.6473,49.4781,7.26867,18.6375,17.3777,9.42565,-12.8094,-25.5814,-4.01068,6.1074,-12.632,-19.661,7.44391,-9.26994,18.5838,-6.31126
0.308567,18.8496,2.43062,-3.46279,-1.44966,2.11366,5.25274,1.4453,-2.27466,0.952108,1.7765,-0.979158,-2.00206,0.897745,0.146295,-10.4385,-3.62796,-6.54556,28.5743,-6.66871,9.93114,11.5669,-2.5686,3.9468,2.74043e-14,2.38542e-15,-28.4144,38.2447,-94.7007,89.717,-14.9457,-32.1577,10.0785,7.12502,-5.40095,-19.8327,2.74043e-14,2.38542e-15,-26.2691,-37.5847,89.4375,103.698,-2.75048,-8.53297,20.339,7.12502,17.396,49.5806,7.31872,18.6394,17.3995,9.42936,-12.8052,-25.5827,-4.06418,6.1527,-12.626,-19.6639,7.45524,-9.27183,18.5821,-6.4995
0.307582,18.8491,2.42882,-3.47252,-1.44967,2.06852,5.27376,1.43279,-2.23441,0.973595,1.76248,-0.950859,-1.9911,0.890363,0.153645,-10.569,-3.62844,-6.46516,28.6234,-6.66491,9.85747,11.607,-2.56222,3.90533,-3.06315e-14,2.18663e-15,-28.3988,38.2938,-94.7013,89.6273,-14.9647,-32.121,10.4126,7.12502,-5.36553,-19.4995,-3.06315e-14,2.18663e-15,-26.0832,-37.7817,89.0973,103.676,-3.50465,-8.50755,21.4665,7.12502,17.4204,50.7058,7.3283,18.6289,17.4607,9.41603,-12.8151,-25.5912,-4.04729,6.14806,-12.63,-19.6076,7.46827,-9.25177,18.5897,-6.76318
0.30687,18.8487,2.42654,-3.53233,-1.42706,2.05891,5.36545,1.40098,-2.23407,0.991419,1.71819,-0.922153,-2.02398,0.868454,0.183955,-10.6615,-3.62262,-6.42876,28.6773,-6.65418,9.81622,11.6431,-2.55492,3.8855,1.50269e-14,-3.57812e-15,-28.4516,38.4051,-94.7589,89.5306,-14.7863,-32.1751,10.3239,7.12502,-5.4178,-19.5868,1.50269e-14,-3.57812e-15,-25.9598,-37.7623,88.785,103.58,-4.22155,-8.51012,21.6286,7.12502,17.418,50.8682,7.40916,18.6007,17.4962,9.38876,-12.8229,-25.5744,-3.99064,6.19116,-12.6539,-19.6096,7.48712,-9.1954,18.6053,-6.75623
0.305843,18.8488,2.42233,-3.62196,-1.35394,2.07559,5.52887,1.36399,-2.27016,0.999086,1.66241,-0.893885,-2.10809,0.841472,0.233158,-10.6444,-3.62621,-6.41408,28.645,-6.65498,9.79558,11.6257,-2.55713,3.87394,3.16658e-15,7.55382e-15,-28.5882,38.4931,-94.8429,89.4664,-14.4655,-32.2881,9.79953,7.12502,-5.52686,-20.1084,3.16658e-15,7.55382e-15,-25.8819,-37.6746,88.531,103.409,-4.86664,-8.62159,21.0726,7.12502,17.3107,50.3217,7.52326,18.5254,17.5096,9.3671,-12.8226,-25.548,-4.02726,6.26739,-12.7269,-19.6453,7.492,-9.20261,18.5899,-6.53299
0.305022,18.8499,2.4195,-3.64508,-1.32895,2.0552,5.61243,1.33771,-2.26075,0.997862,1.62623,-0.853007,-2.15618,0.823829,0.270484,-10.6319,-3.60183,-6.42243,28.5901,-6.61839,9.81229,11.5987,-2.54071,3.8851,1.50812e-14,-3.47873e-15,-28.6792,38.5698,-94.8615,89.4063,-14.3349,-32.2852,9.74941,7.12502,-5.52407,-20.1586,1.50812e-14,-3.47873e-15,-25.7621,-37.6072,88.2996,103.238,-5.62521,-8.67511,20.8087,7.12502,17.2592,50.0623,7.52604,18.4931,17.5391,9.37648,-12.7812,-25.5813,-4.07503,6.29937,-12.7545,-19.619,7.45379,-9.22792,18.5538,-6.29761
0.305011,18.8503,2.41973,-3.62952,-1.35508,2.05185,5.59895,1.31086,-2.26202,1.00606,1.59182,-0.817996,-2.14047,0.8066,0.310223,-10.6596,-3.55491,-6.40173,28.579,-6.54866,9.79742,11.5913,-2.50814,3.88468,1.89467e-15,1.23246e-14,-28.7121,38.6298,-94.8563,89.3875,-14.3793,-32.0878,9.84566,7.12502,-5.33352,-20.0672,1.89467e-15,1.23246e-14,-25.6775,-37.543,88.0758,103.126,-6.19137,-8.88943,20.8607,7.12502,17.0529,50.1322,7.47208,18.5118,17.5353,9.41526,-12.7388,-25.6281,-4.06494,6.32057,-12.7287,-19.6082,7.37652,-9.19495,18.5479,-6.23795
0.305159,18.8496,2.41991,-3.62351,-1.41213,2.10477,5.58457,1.30653,-2.33498,1.00395,1.58258,-0.79784,-2.13694,0.802509,0.372757,-10.626,-3.51901,-6.37809,28.5365,-6.50182,9.80383,11.5622,-2.48531,3.88822,9.40189e-15,-2.78299e-15,-28.7794,38.6423,-94.878,89.4079,-14.4146,-31.8217,9.55865,7.12502,-5.07662,-20.3605,9.40189e-15,-2.78299e-15,-25.7084,-37.4614,87.9121,103.124,-6.63804,-8.81387,21.1984,7.12502,17.1256,50.4637,7.43804,18.5663,17.4701,9.4549,-12.7579,-25.5976,-4.07951,6.3643,-12.6673,-19.6677,7.29308,-9.16032,18.5754,-6.50063
0.305452,18.8495,2.42009,-3.58752,-1.47285,2.15414,5.55205,1.31437,-2.3926,0.986528,1.59057,-0.786635,-2.13877,0.807036,0.416422,-10.6216,-3.50821,-6.39012,28.4826,-6.50021,9.87438,11.5431,-2.47868,3.91567,8.12688e-15,3.77691e-15,-28.842,38.683,-94.9204,89.3656,-14.3193,-31.7104,9.13462,7.12502,-4.96912,-20.7871,8.12688e-15,3.77691e-15,-25.7375,-37.3906,87.7543,103.048,-6.93228,-8.78148,20.8544,7.12502,17.1568,50.117,7.36745,18.6229,17.3989,9.49627,-12.7749,-25.5649,-4.1826,6.38236,-12.6022,-19.7176,7.20198,-9.09465,18.6147,-6.81433
0.3058,18.8505,2.42078,-3.5496,-1.50185,2.16862,5.51084,1.30177,-2.40682,0.987411,1.57482,-0.764917,-2.11543,0.799139,0.448868,-10.704,-3.52745,-6.44649,28.4953,-6.53614,9.94904,11.5738,-2.49001,3.94888,-1.39693e-14,6.95746e-16,-28.8645,38.7903,-94.9586,89.2871,-14.1526,-31.7872,8.91372,7.12502,-5.04328,-21.0063,-1.39693e-14,6.95746e-16,-25.6891,-37.4231,87.5935,102.888,-6.91666,-9.33045,20.2265,7.12502,16.6283,49.5342,7.29382,18.6441,17.3724,9.55169,-12.7711,-25.5933,-4.22626,6.40094,-12.5719,-19.7246,7.09644,-9.02832,18.6194,-6.82037
0.305164,18.8506,2.42129,-3.56954,-1.58829,2.16731,5.51519,1.30651,-2.41866,1.00919,1.58141,-0.734363,-2.09678,0.802252,0.486623,-10.6806,-3.53614,-6.51282,28.4689,-6.5563,10.0275,11.5661,-2.49847,3.98711,1.42457e-14,-5.26779e-15,-28.8825,38.892,-94.9899,89.218,-13.9962,-31.8315,8.92065,7.12502,-5.08602,-20.9983,1.42457e-14,-5.26779e-15,-25.6609,-37.511,87.4753,102.876,-7.04639,-9.62309,20.5873,7.12502,16.3466,49.9184,7.2773,18.7239,17.3878,9.60252,-12.7754,-25.6129,-4.22503,6.47723,-12.4857,-19.7237,7.02444,-9.03226,18.6065,-6.637
0.302271,18.8504,2.41953,-3.5881,-1.66717,2.17687,5.54812,1.31401,-2.46697,1.02018,1.58816,-0.71235,-2.10597,0.80596,0.535148,-10.6138,-3.53066,-6.5401,28.4261,-6.56246,10.0975,11.5399,-2.49887,4.01688,2.01456e-14,-5.66536e-15,-28.8906,38.9521,-95.034,89.1349,-13.8037,-31.8538,9.06159,7.12502,-5.10752,-20.8569,2.01456e-14,-5.66536e-15,-25.7044,-37.5273,87.3691,103.008,-7.65783,-9.22428,21.4873,7.12502,16.7305,50.7864,7.27419,18.7964,17.3941,9.63054,-12.8393,-25.5723,-4.10737,6.5115,-12.4074,-19.7222,7.01282,-9.03268,18.6112,-6.53422
0.29933,18.8523,2.41605,-3.53904,-1.67474,2.15286,5.55481,1.29278,-2.47756,0.991196,1.55885,-0.69654,-2.13944,0.791971,0.558924,-10.6266,-3.55132,-6.52948,28.4631,-6.61329,10.1452,11.564,-2.51464,4.02743,-7.36901e-15,1.93815e-15,-28.9199,38.9952,-95.1262,89.0524,-13.6918,-31.9412,9.37706,7.12502,-5.19195,-20.5393,-7.36901e-15,1.93815e-15,-25.7862,-37.5922,87.2184,103.037,-8.17337,-9.18042,21.8205,7.12502,16.7728,51.116,7.22622,18.7915,17.4183,9.62841,-12.8722,-25.5437,-3.93649,6.4204,-12.4039,-19.6565,7.05015,-9.01339,18.6056,-6.57611
0.299671,18.8542,2.4168,-3.47933,-1.66719,2.11044,5.51522,1.26652,-2.43766,0.961482,1.52736,-0.680206,-2.14642,0.776348,0.556213,-10.6416,-3.56923,-6.52191,28.478,-6.66972,10.2344,11.5823,-2.52868,4.05284,9.3025e-16,6.85807e-15,-28.9994,39.0236,-95.2206,89.0443,-13.7211,-31.9483,9.66404,7.12502,-5.19878,-20.2522,9.3025e-16,6.85807e-15,-25.8479,-37.7847,87.0723,102.874,-8.22822,-9.92037,21.3364,7.12502,16.0603,50.6908,7.16911,18.7704,17.4528,9.61585,-12.8012,-25.569,-4.03346,6.32159,-12.415,-19.587,7.10604,-9.04459,18.5892,-6.49349
0.301522,18.8537,2.41874,-3.42465,-1.66031,2.08259,5.4662,1.24074,-2.4105,0.939725,1.49639,-0.655592,-2.14052,0.760911,0.569411,-10.6426,-3.55947,-6.50116,28.4597,-6.68177,10.3094,11.5789,-2.52365,4.07553,1.81531e-14,-4.32357e-15,-29.1124,39.0723,-95.2929,89.0658,-13.5884,-31.7725,9.80194,7.12502,-5.02902,-20.1184,1.81531e-14,-4.32357e-15,-25.9122,-37.941,87.0175,102.738,-8.37882,-10.5331,21.0207,7.12502,15.4703,50.4217,7.09677,18.7527,17.4612,9.62113,-12.7688,-25.563,-4.13023,6.25396,-12.4227,-19.5523,7.12693,-9.09211,18.5846,-6.24874
0.303638,18.8534,2.41777,-3.36474,-1.70337,2.08413,5.43032,1.23081,-2.40616,0.914093,1.48446,-0.639828,-2.14682,0.755228,0.5845,-10.684,-3.57152,-6.47095,28.4797,-6.7153,10.3353,11.599,-2.53124,4.07581,-1.49166e-15,-1.24737e-14,-29.2092,39.1689,-95.37,89.0277,-13.2128,-31.5165,9.8054,7.12502,-4.78188,-20.1206,-1.49166e-15,-1.24737e-14,-26.0339,-38.0511,87.0201,102.8,-8.90459,-10.6258,21.5305,7.12502,15.3809,50.9384,6.99346,18.7884,17.4219,9.66085,-12.8361,-25.4792,-3.99514,6.21657,-12.3783,-19.5477,7.06656,-9.04185,18.6064,-6.23416
0.306776,18.8538,2.4185,-3.31576,-1.74139,2.17695,5.39891,1.2198,-2.48799,0.899475,1.46579,-0.640046,-2.14581,0.746598,0.631937,-10.7977,-3.61926,-6.51913,28.5582,-6.79205,10.382,11.6654,-2.56143,4.09346,-2.65145e-14,-1.39149e-15,-29.2666,39.3159,-95.4182,88.9609,-12.7949,-31.3028,9.82983,7.12502,-4.57556,-20.1008,-2.65145e-14,-1.39149e-15,-26.1123,-38.1595,87.0312,102.888,-9.53445,-10.7317,21.9768,7.12502,15.2789,51.3925,6.90658,18.8266,17.2771,9.71645,-12.8807,-25.4456,-3.95869,6.21764,-12.3322,-19.6543,6.97456,-8.97293,18.6182,-6.33208
0.309663,18.8545,2.41946,-3.25567,-1.72961,2.32661,5.36515,1.19497,-2.62572,0.870976,1.42492,-0.658967,-2.15792,0.727493,0.692915,-10.8405,-3.64895,-6.57772,28.6282,-6.84586,10.4412,11.7123,-2.58316,4.12131,2.31848e-14,-8.19987e-15,-29.3639,39.4772,-95.5066,88.9314,-12.4587,-31.2001,9.90285,7.12502,-4.47638,-20.0298,2.31848e-14,-8.19987e-15,-26.1157,-38.2398,87.0218,102.876,-10.2644,-11.0241,22.0133,7.12502,14.9973,51.4502,6.80679,18.818,17.064,9.77589,-12.9264,-25.4891,-3.95447,6.19965,-12.3321,-19.8243,6.89068,-8.93617,18.6011,-6.34129
0.311027,18.8555,2.41799,-3.21192,-1.77456,2.35511,5.37419,1.19819,-2.63453,0.833315,1.42751,-0.663496,-2.20193,0.729582,0.69229,-10.7769,-3.665,-6.55034,28.628,-6.88248,10.4523,11.7026,-2.59753,4.11619,7.92033e-15,-1.49337e-14,-29.4859,39.6136,-95.6348,88.8985,-12.2145,-31.2832,9.91258,7.12502,-4.55658,-20.0184,7.92033e-15,-1.49337e-14,-26.1638,-38.3333,87.0128,102.864,-11.1538,-11.383,22.1056,7.12502,14.6515,51.568,6.68384,18.8576,17.0012,9.86925,-12.9969,-25.5057,-3.89069,6.22004,-12.2848,-19.849,6.76549,-8.87362,18.5851,-6.33838
0.310853,18.8556,2.41713,-3.22767,-1.85955,2.25861,5.43699,1.21011,-2.54249,0.823511,1.44729,-0.626008,-2.24647,0.739353,0.676349,-10.7022,-3.70459,-6.52769,28.5858,-6.94869,10.463,11.6776,-2.6269,4.10618,-2.25663e-14,-1.5207e-14,-29.5636,39.7711,-95.7227,88.7996,-12.047,-31.4876,10.0791,7.12502,-4.75395,-19.8476,-2.25663e-14,-1.5207e-14,-26.2587,-38.4062,87.0259,102.868,-12.1657,-11.7377,22.3459,7.12502,14.3097,51.8328,6.61024,18.9295,17.1213,9.98233,-12.9602,-25.4988,-4.06208,6.32069,-12.2068,-19.7362,6.62586,-8.83422,18.5768,-6.19706
0.31076,18.8561,2.41841,-3.253,-1.9237,2.25565,5.46366,1.20737,-2.5574,0.835606,1.44255,-0.607145,-2.24963,0.737092,0.70403,-10.7156,-3.73808,-6.55243,28.6179,-7.01671,10.5324,11.7044,-2.6517,4.12879,-3.67996e-14,-7.55382e-15,-29.598,39.9469,-95.7845,88.7037,-12.0813,-31.4887,10.3013,7.12502,-4.75501,-19.6253,-3.67996e-14,-7.55382e-15,-26.3428,-38.3707,87.0193,102.868,-13.2024,-11.8299,22.4745,7.12502,14.221,51.9676,6.58923,18.9871,17.1412,10.0556,-12.8993,-25.4999,-4.26606,6.39474,-12.1432,-19.7328,6.55679,-8.82649,18.581,-6.11646
0.311472,18.8579,2.42133,-3.25666,-1.99242,2.3127,5.41359,1.20641,-2.62462,0.874038,1.43991,-0.601161,-2.18378,0.735336,0.749608,-10.8309,-3.75515,-6.55424,28.6971,-7.05537,10.5655,11.7655,-2.66092,4.13828,-2.26517e-14,8.99501e-15,-29.5747,40.0936,-95.7875,88.6866,-12.2647,-31.235,10.1905,7.12502,-4.5101,-19.7415,-2.26517e-14,8.99501e-15,-26.3359,-38.3009,86.9658,102.873,-14.1507,-11.73,22.4535,7.12502,14.3172,51.9399,6.58153,18.977,17.0712,10.0925,-12.91,-25.4525,-4.31363,6.42887,-12.0702,-19.7997,6.5322,-8.8337,18.59,-6.27721
0.3127,18.858,2.42384,-3.25752,-2.04854,2.3149,5.34518,1.2081,-2.62173,0.923854,1.44599,-0.585564,-2.09478,0.73709,0.765727,-10.8062,-3.78346,-6.51176,28.5987,-7.08889,10.5344,11.7225,-2.67748,4.1106,-1.99043e-14,3.23025e-16,-29.5349,40.1786,-95.7693,88.6942,-12.4305,-31.0601,9.8625,7.12502,-4.34121,-20.073,-1.99043e-14,3.23025e-16,-26.2963,-38.3012,86.9241,102.905,-15.0936,-11.5507,22.597,7.12502,14.4899,52.0711,6.58498,19.0238,17.0729,10.1219,-12.9506,-25.4619,-4.29512,6.46046,-12.0133,-19.8076,6.50922,-8.84826,18.5996,-6.31011
0.313916,18.8562,2.42574,-3.24051,-2.08977,2.31014,5.28757,1.21442,-2.61105,0.936366,1.45742,-0.576681,-2.05005,0.742196,0.769471,-10.6989,-3.8077,-6.48726,28.4624,-7.12806,10.5576,11.6512,-2.69548,4.10577,-3.08996e-14,2.01269e-15,-29.5813,40.18,-95.8062,88.6757,-12.5423,-31.0006,9.64679,7.12502,-4.2837,-20.2899,-3.08996e-14,2.01269e-15,-26.3522,-38.3603,86.9311,102.979,-15.9469,-11.3847,22.9308,7.12502,14.6499,52.3933,6.5773,19.0589,17.0655,10.1074,-12.9887,-25.4083,-4.16815,6.43796,-11.9717,-19.8047,6.53932,-8.84269,18.6066,-6.35283
0.313066,18.8551,2.4269,-3.24517,-2.15268,2.24906,5.28679,1.2251,-2.57817,0.932426,1.47421,-0.542415,-2.05431,0.750516,0.785031,-10.7324,-3.79716,-6.47144,28.4951,-7.14112,10.6318,11.6751,-2.68962,4.1305,-2.21781e-14,-2.95692e-15,-29.7051,40.2006,-95.8764,88.6801,-12.6998,-30.9523,9.44019,7.12502,-4.2371,-20.4974,-2.21781e-14,-2.95692e-15,-26.406,-38.4594,86.9255,103.037,-16.7005,-11.4223,23.2715,7.12502,14.6137,52.7366,6.60619,19.1152,17.1385,10.0437,-12.9826,-25.3719,-4.06644,6.4136,-11.9131,-19.7334,6.62056,-8.89032,18.5849,-6.45245
0.311086,18.8549,2.42716,-3.28285,-2.26157,2.18717,5.35891,1.24098,-2.55129,0.920949,1.49521,-0.500265,-2.10756,0.761529,0.81003,-10.8289,-3.77898,-6.42419,28.6165,-7.13447,10.6304,11.7403,-2.67674,4.12605,9.73395e-15,1.69029e-14,-29.84,40.3519,-95.9807,88.6778,-13.0462,-30.9588,9.14238,7.12502,-4.24338,-20.7951,9.73395e-15,1.69029e-14,-26.432,-38.5361,86.9153,103.078,-17.3893,-11.4288,23.2982,7.12502,14.6074,52.7637,6.64116,19.2037,17.2337,10.0173,-12.8872,-25.4062,-4.17335,6.46195,-11.8093,-19.66,6.65016,-8.97494,18.5606,-6.31896
0.310918,18.8543,2.42979,-3.30374,-2.37744,2.19641,5.3844,1.25288,-2.56969,0.915343,1.50959,-0.476152,-2.12919,0.769139,0.843411,-10.9537,-3.79459,-6.38556,28.771,-7.16172,10.5754,11.8265,-2.68496,4.0986,2.71084e-14,6.24929e-15,-29.9659,40.5733,-96.0929,88.6435,-13.6385,-31.0468,9.09407,7.12502,-4.32838,-20.8417,2.71084e-14,6.24929e-15,-26.4339,-38.5288,86.9073,103.114,-17.8945,-11.1654,22.9817,7.12502,14.8611,52.4288,6.60623,19.2158,17.2151,10.07,-12.8254,-25.3663,-4.39904,6.55348,-11.6922,-19.6784,6.58198,-8.96756,18.5752,-6.31375
0.31178,18.8539,2.43341,-3.29688,-2.42566,2.22676,5.33675,1.2547,-2.59595,0.934862,1.51266,-0.466711,-2.08349,0.770254,0.868922,-11.0584,-3.82446,-6.32061,28.8381,-7.21074,10.5305,11.8761,-2.70086,4.06419,8.76477e-15,-1.79155e-14,-30.0641,40.7495,-96.1687,88.5974,-14.3047,-31.182,9.45622,7.12502,-4.4589,-20.4768,8.76477e-15,-1.79155e-14,-26.3638,-38.5575,86.8524,103.129,-18.21,-10.8352,22.8003,7.12502,15.1792,52.2236,6.55787,19.1664,17.1609,10.1433,-12.8814,-25.2832,-4.53209,6.61626,-11.6406,-19.724,6.48293,-8.88735,18.6029,-6.56552
0.311937,18.8543,2.43554,-3.25852,-2.47981,2.28395,5.27518,1.26626,-2.65786,0.937948,1.52658,-0.470669,-2.04789,0.777198,0.899924,-10.9378,-3.82999,-6.31287,28.7025,-7.22664,10.5795,11.8009,-2.70765,4.0757,-8.24646e-15,-2.67117e-15,-30.1357,40.8442,-96.2287,88.5209,-14.6818,-31.1588,9.73573,7.12502,-4.43652,-20.1978,-8.24646e-15,-2.67117e-15,-26.3545,-38.6485,86.7911,103.184,-18.4436,-10.7497,22.7534,7.12502,15.2616,52.1704,6.50396,19.1471,17.0713,10.1765,-12.9312,-25.1922,-4.50304,6.61044,-11.582,-19.7814,6.42735,-8.83918,18.6064,-6.71799
0.31267,18.8552,2.43762,-3.23311,-2.43063,2.27762,5.26193,1.22725,-2.64725,0.918728,1.47553,-0.46251,-2.05838,0.751982,0.906055,-10.687,-3.80684,-6.43234,28.5541,-7.21418,10.7587,11.7011,-2.70503,4.16478,6.22988e-15,2.11209e-16,-30.2137,40.9068,-96.3263,88.4576,-14.8473,-31.0142,9.62091,7.12502,-4.29685,-20.3155,6.22988e-15,2.11209e-16,-26.4849,-38.6747,86.7769,103.295,-18.7148,-10.8584,22.5281,7.12502,15.1569,51.953,6.44168,19.1453,17.0795,10.2909,-13.033,-25.2144,-4.38129,6.63682,-11.6319,-19.7668,6.31974,-8.77586,18.602,-6.66801
0.316601,18.8576,2.44118,-3.18816,-1.98685,2.21813,5.23276,1.05571,-2.5288,0.896995,1.25437,-0.463523,-2.05395,0.641111,0.854781,-10.5944,-3.80325,-6.51716,28.5776,-7.23663,10.8926,11.7027,-2.71177,4.23017,-2.80814e-14,-4.47266e-16,-30.301,40.9435,-96.4416,88.4327,-15.1038,-30.9542,9.43221,7.12502,-4.23896,-20.5054,-2.80814e-14,-4.47266e-16,-26.6037,-38.6775,86.76,103.392,-18.995,-10.7449,22.2013,7.12502,15.2663,51.618,6.47311,19.0355,17.191,10.3492,-13.1943,-25.5241,-4.23053,6.56145,-12.0798,-19.7032,6.27082,-8.67849,18.6176,-6.66402
0.304036,18.8473,2.42447,-3.86698,-3.59709,2.14512,6.07639,1.6153,-2.62318,1.03448,1.97002,-0.377212,-2.41396,1.0008,0.92318,-10.6372,-3.82545,-6.51046,28.6237,-7.28061,10.9135,11.7355,-2.72646,4.23222,-9.73113e-15,1.48467e-14,-30.3099,40.9921,-96.4806,88.4207,-15.5453,-30.9801,9.51431,7.12502,-4.26391,-20.4228,-9.73113e-15,1.48467e-14,-26.6209,-38.6934,86.6939,103.472,-19.1828,-10.3304,21.8053,7.12502,15.6655,51.1911,6.82757,19.4967,17.3229,10.3142,-12.5686,-24.4675,-4.8814,7.4771,-10.4795,-19.6988,6.36921,-9.13831,18.5192,-6.05612
0.305969,18.8481,2.42766,-3.78811,-3.40961,2.15504,5.96639,1.53097,-2.6213,1.04651,1.86182,-0.376298,-2.33616,0.946055,0.935296,-10.6514,-3.8205,-6.50279,28.5818,-7.27145,10.9166,11.7208,-2.72152,4.23154,-1.04284e-14,-1.22004e-14,-30.2831,41.0628,-96.4628,88.4575,-16.0426,-30.8387,9.73893,7.12502,-4.12742,-20.2008,-1.04284e-14,-1.22004e-14,-26.6056,-38.6903,86.6192,103.577,-19.2766,-9.81952,21.5359,7.12502,16.1574,50.8825,6.83456,19.4171,17.3013,10.2467,-12.6061,-24.5676,-4.80774,7.29681,-10.6635,-19.7103,6.52743,-9.20573,18.5056,-6.06719
0.305501,18.8481,2.42763,-3.74997,-3.37593,2.06674,5.94348,1.49031,-2.55431,1.04897,1.81384,-0.333648,-2.3184,0.9216,0.946234,-10.7438,-3.81317,-6.46569,28.6175,-7.25518,10.8676,11.7486,-2.71236,4.2087,2.79308e-15,7.0817e-15,-30.3444,41.0808,-96.4938,88.515,-16.2389,-30.4859,9.56654,7.12502,-3.78671,-20.3796,2.79308e-15,7.0817e-15,-26.6219,-38.6633,86.5492,103.715,-19.3424,-9.21668,21.41,7.12502,16.7379,50.7084,6.82412,19.4314,17.4004,10.2186,-12.6642,-24.6147,-4.6892,7.18296,-10.7042,-19.6033,6.66651,-9.26617,18.4933,-6.07478
0.303273,18.8473,2.42676,-3.74871,-3.38713,1.99067,5.98889,1.46822,-2.49625,1.04623,1.78712,-0.31439,-2.34446,0.908179,0.934482,-10.9439,-3.82937,-6.32368,28.7343,-7.27494,10.7275,11.8271,-2.71381,4.12887,-1.10885e-15,9.56651e-15,-30.4647,41.0529,-96.6066,88.5242,-16.2054,-30.3281,9.36567,7.12502,-3.63427,-20.5831,-1.10885e-15,9.56651e-15,-26.6736,-38.6288,86.4555,103.866,-19.3737,-8.55141,21.1923,7.12502,17.3782,50.4354,6.88478,19.5072,17.506,10.0994,-12.6762,-24.6797,-4.53264,7.06786,-10.7001,-19.5058,6.88187,-9.36443,18.4773,-6.01793
0.301615,18.8482,2.4243,-3.76649,-3.393,1.89471,6.09064,1.44912,-2.37586,1.03584,1.76621,-0.311678,-2.40772,0.897499,0.868807,-11.089,-3.83917,-6.22433,28.8203,-7.29311,10.6492,11.8863,-2.71432,4.08007,-1.78937e-14,-1.44616e-14,-30.5906,41.0114,-96.7372,88.5033,-16.2526,-30.4197,9.55824,7.12502,-3.72276,-20.389,-1.78937e-14,-1.44616e-14,-26.7145,-38.6663,86.3592,103.99,-19.3211,-8.04029,21.0789,7.12502,17.8701,50.2779,6.95234,19.5656,17.6442,10.0139,-12.6452,-24.7301,-4.41195,6.98355,-10.7033,-19.387,7.06004,-9.42024,18.47,-6.03198
0.300611,18.8496,2.42196,-3.78319,-3.45616,1.83988,6.16358,1.45909,-2.29155,1.03975,1.78276,-0.316319,-2.44227,0.905306,0.813628,-11.2472,-3.84229,-6.21395,28.9263,-7.31444,10.6775,11.965,-2.71269,4.08849,-1.09526e-14,7.67806e-15,-30.6229,40.984,-96.7975,88.48,-16.4276,-30.5087,9.43992,7.12502,-3.8087,-20.5058,-1.09526e-14,7.67806e-15,-26.7154,-38.7729,86.2448,104.127,-19.2099,-7.62802,21.0296,7.12502,18.2667,50.1919,6.97057,19.6037,17.7186,9.98738,-12.6121,-24.7034,-4.34544,6.94796,-10.6453,-19.3202,7.16331,-9.50006,18.4552,-6.0149
0.299784,18.8495,2.42169,-3.81349,-3.53513,1.87983,6.2,1.47979,-2.32994,1.06579,1.80667,-0.331195,-2.43723,0.917194,0.817277,-11.3889,-3.85934,-6.20466,29.0097,-7.35605,10.7108,12.0339,-2.72058,4.09556,-1.15792e-14,2.69353e-14,-30.6015,40.9389,-96.8203,88.4631,-16.6688,-30.508,9.04635,7.12502,-3.80808,-20.8994,-1.15792e-14,2.69353e-14,-26.7018,-38.8671,86.1203,104.289,-19.0284,-7.2144,20.8945,7.12502,18.6646,50.019,6.95034,19.6662,17.6841,10.0258,-12.5616,-24.7093,-4.49908,6.98208,-10.5637,-19.3652,7.17453,-9.56915,18.4358,-5.84725
