JuanDHNZ/ProyectoFinalCD/preprocessing/sports_trials_csv/13_06.csv
root1,root2,root3,root4,root5,root6,lowerback1,lowerback2,lowerback3,upperback1,upperback2,upperback3,thorax1,thorax2,thorax3,lowerneck1,lowerneck2,lowerneck3,upperneck1,upperneck2,upperneck3,head1,head2,head3,rclavicle1,rclavicle2,rhumerus1,rhumerus2,rhumerus3,rradius1,rwrist1,rhand1,rhand2,rfingers1,rthumb1,rthumb2,lclavicle1,lclavicle2,lhumerus1,lhumerus2,lhumerus3,lradius1,lwrist1,lhand1,lhand2,lfingers1,lthumb1,lthumb2,rfemur1,rfemur2,rfemur3,rtibia1,rfoot1,rfoot2,rtoes1,lfemur1,lfemur2,lfemur3,ltibia1,lfoot1,lfoot2,ltoes1
-15.4835,18.5016,-3.55019,-0.851842,10.4347,0.294192,6.48146,0.0871603,2.41972,3.21866,0.268892,0.762371,-0.309897,0.157942,-0.591947,-10.4685,1.7719,-6.6282,20.3107,2.35483,6.64097,7.80183,1.27148,3.54477,1.19271e-15,-1.82882e-14,-34.2195,0.690084,-75.1209,26.259,13.181,-25.5649,2.56521,7.12502,0.965955,-27.4124,1.19271e-15,-1.82882e-14,-33.329,-28.2869,97.941,40.2392,3.47546,0.72094,21.9809,7.12502,26.2807,50.1806,-9.90937,11.6769,24.5959,29.9326,-19.6001,-18.0772,1.4454,-10.8986,-6.39861,-5.8136,20.6745,-10.5193,17.4277,-9.3347
-15.4857,18.5012,-3.55442,-0.877927,11.0317,0.488055,6.61147,0.151984,2.20245,3.28913,0.346369,0.793926,-0.309148,0.194977,-0.443223,-10.7409,1.93848,-6.57975,20.5942,2.60157,6.58091,7.92894,1.38841,3.55284,3.57812e-15,1.59028e-15,-34.2917,0.737362,-74.9781,26.3859,13.3381,-25.3743,2.24677,7.12502,1.15002,-27.7299,3.57812e-15,1.59028e-15,-33.2893,-28.0467,97.8636,40.618,3.62916,1.14564,22.2803,7.12502,26.6872,50.4187,-9.85369,11.6966,24.4332,30.0445,-19.8392,-18.6066,1.70129,-10.8975,-6.23326,-5.97091,20.4834,-10.3256,16.4798,-11.7837
-15.4878,18.4967,-3.5686,-0.815636,11.7617,0.521968,6.77979,0.222126,2.2856,3.26218,0.450502,0.767259,-0.426657,0.247061,-0.525385,-10.9324,2.03785,-6.55212,20.823,2.72296,6.67904,8.0291,1.45921,3.60356,6.75868e-15,7.95139e-15,-34.6746,0.749582,-74.9851,26.6772,13.112,-25.687,2.28442,7.12502,0.84801,-27.6936,6.75868e-15,7.95139e-15,-33.3827,-28.1604,97.8323,40.9178,3.56382,1.40149,22.5893,7.12502,26.9321,50.6902,-9.96286,11.5902,24.3971,30.1239,-20.017,-19.0798,2.19728,-11.1547,-6.16103,-5.92964,20.4338,-10.4444,15.3945,-12.7317
-15.4884,18.4932,-3.57778,-0.763623,12.4035,0.519782,6.80826,0.333839,2.4291,3.25689,0.608542,0.713234,-0.441393,0.327875,-0.672573,-11.1453,2.0735,-6.65779,21.1333,2.73465,6.99788,8.16175,1.48936,3.74498,-1.14301e-14,-4.77083e-15,-34.8953,0.712687,-75.0661,26.7892,12.9255,-25.9223,2.56029,7.12502,0.620836,-27.4185,-1.14301e-14,-4.77083e-15,-33.399,-28.357,97.776,41.0377,3.60707,1.5152,22.7868,7.12502,27.0409,50.8708,-10.0485,11.4751,24.3908,30.1904,-20.1574,-19.4753,2.60013,-11.3756,-5.98701,-5.86998,20.3937,-10.5805,14.3833,-12.435
-15.4878,18.4923,-3.57698,-0.80752,12.9307,0.516182,6.76301,0.42401,2.4212,3.31631,0.726334,0.749602,-0.352244,0.388071,-0.638066,-11.287,2.19308,-6.76983,21.3743,2.88966,7.18239,8.25011,1.57335,3.85224,-3.50855e-14,-5.1684e-15,-34.7186,0.940541,-75.1036,26.5541,12.6281,-26.2415,2.78799,7.12502,0.312485,-27.1915,-3.50855e-14,-5.1684e-15,-33.348,-28.2203,97.7038,41.1515,3.76076,1.70511,22.919,7.12502,27.2225,50.9747,-9.97306,11.4223,24.4265,30.2388,-20.3111,-19.8773,2.86646,-11.466,-5.65423,-5.85093,20.4253,-10.5806,13.5256,-12.0448
-15.4845,18.4891,-3.58089,-0.826422,13.5321,0.475965,6.77726,0.461991,2.53089,3.27926,0.784983,0.74992,-0.394922,0.417944,-0.703642,-11.0952,2.38828,-6.61359,21.4544,3.12687,7.1482,8.22636,1.69338,3.83417,-9.93923e-17,1.98785e-14,-34.6567,1.13386,-75.142,26.3193,12.5677,-26.8037,2.83113,7.12502,-0.23052,-27.1485,-9.93923e-17,1.98785e-14,-33.4441,-28.045,97.5996,41.38,4.11861,2.00093,23.0862,7.12502,27.5055,51.0973,-9.94152,11.3339,24.4864,30.277,-20.5299,-20.3226,2.923,-11.6097,-5.24226,-5.81881,20.5008,-10.4967,12.6974,-11.9471
-15.4756,18.4872,-3.58574,-0.78569,14.1373,0.491158,6.75189,0.544913,2.71267,3.1969,0.906276,0.678678,-0.457584,0.479478,-0.887394,-10.8421,2.51356,-6.37738,21.5506,3.2426,7.14133,8.2074,1.76469,3.79962,3.3197e-14,2.78299e-15,-34.7557,1.1004,-75.1466,26.1854,12.7847,-26.6102,2.66452,7.12502,-0.0435937,-27.3152,3.3197e-14,2.78299e-15,-33.528,-28.1199,97.5563,41.4576,4.24564,1.98996,22.9142,7.12502,27.495,50.9269,-9.96326,11.0663,24.4298,30.314,-20.7565,-20.593,2.73633,-11.7684,-4.82925,-5.88402,20.6303,-10.5965,12.0362,-11.5657
-15.4662,18.4873,-3.58939,-0.787662,14.6699,0.56907,6.76952,0.65856,2.74302,3.19896,1.0598,0.647574,-0.458603,0.556883,-0.947132,-10.8879,2.61116,-6.31841,21.7169,3.35358,7.2127,8.26228,1.82999,3.83113,-4.95968e-14,2.78299e-15,-34.6729,0.933691,-75.0333,26.0331,12.9163,-26.1821,2.49254,7.12502,0.36987,-27.4869,-4.95968e-14,2.78299e-15,-33.4263,-28.1671,97.5443,41.3533,4.03779,1.6425,22.5796,7.12502,27.1626,50.6447,-9.93151,10.6968,24.3005,30.3543,-20.8694,-20.7157,2.63624,-11.8516,-4.36058,-6.05382,20.8401,-10.9203,11.6715,-11.7791
-15.4618,18.485,-3.59589,-0.868213,15.2244,0.57948,6.9365,0.735218,2.79385,3.18608,1.17112,0.61721,-0.558514,0.612015,-1.01745,-10.7123,2.7295,-6.51131,21.6001,3.45086,7.67969,8.16639,1.90792,4.0211,-3.58806e-14,2.78299e-15,-34.5714,0.66557,-74.9442,25.8524,12.999,-26.4578,2.51142,7.12502,0.103553,-27.4683,-3.58806e-14,2.78299e-15,-33.4768,-28.1638,97.5112,41.3767,3.83194,1.13296,22.4474,7.12502,26.6751,50.5877,-9.849,10.4354,24.2872,30.3944,-20.948,-20.9657,2.6423,-11.9385,-3.8092,-6.15723,21.1446,-11.2203,11.4782,-12.5271
-15.459,18.4808,-3.60129,-0.976429,15.766,0.481039,7.11378,0.82216,2.96482,3.1424,1.3048,0.583185,-0.691558,0.678449,-1.16159,-10.3752,2.87815,-6.57979,21.4411,3.58056,8.04881,8.02875,1.99936,4.15287,5.02428e-14,1.98785e-15,-34.5343,0.462668,-74.8649,25.6698,13.3878,-26.736,3.11394,7.12502,-0.165145,-26.8657,5.02428e-14,1.98785e-15,-33.7183,-28.2286,97.5152,41.5957,3.97467,0.372036,22.5182,7.12502,25.9467,50.7673,-9.75398,10.3411,24.4202,30.4387,-21.1113,-21.3438,2.73226,-12.0613,-3.14988,-6.13793,21.5288,-11.4981,11.3985,-12.25
-15.4554,18.4789,-3.60728,-0.977034,16.3586,0.442713,7.17501,0.876101,3.00131,3.12532,1.38238,0.611027,-0.739605,0.71667,-1.16054,-10.3437,3.13058,-6.06597,21.6693,3.98019,7.34663,8.09954,2.15993,3.87235,-7.95139e-15,7.15625e-15,-34.3523,0.260653,-74.5762,25.5307,14.2601,-26.8148,3.95883,7.12502,-0.241241,-26.0208,-7.95139e-15,7.15625e-15,-33.7406,-28.1639,97.5453,41.6427,4.25564,-0.162118,23.0737,7.12502,25.4351,51.3967,-9.75255,10.2863,24.4698,30.4775,-21.3036,-21.7753,2.93192,-12.2901,-2.34163,-6.19533,21.9936,-11.8134,11.2974,-11.5208
-15.45,18.4789,-3.6125,-0.884645,17.1217,0.526515,7.14565,0.854122,2.8979,3.09166,1.34672,0.626352,-0.762599,0.697493,-1.08406,-10.3919,3.35906,-5.677,21.9656,4.34539,6.78702,8.20783,2.30803,3.66369,-6.5102e-14,6.75868e-15,-34.1311,0.0786173,-74.3153,25.425,14.7376,-26.8663,4.18466,7.12502,-0.290985,-25.7949,-6.5102e-14,6.75868e-15,-33.6356,-28.062,97.5582,41.5299,4.21763,-1.4338,22.7229,7.12502,24.2163,51.2139,-9.78822,10.1759,24.3766,30.5107,-21.5599,-22.2446,3.22597,-12.6168,-1.5925,-6.41313,22.5077,-12.0809,11.2322,-11.2718
-15.4418,18.4755,-3.61602,-0.861773,17.8496,0.478211,7.12781,0.841712,2.97625,3.04726,1.33584,0.614478,-0.796673,0.691957,-1.13955,-10.49,3.45241,-5.71607,22.2308,4.45473,6.93607,8.30132,2.37214,3.7431,-4.34344e-14,6.36111e-15,-33.8056,-0.162475,-74.1676,25.0541,15.0595,-26.5948,3.89441,7.12502,-0.0287006,-26.0853,-4.34344e-14,6.36111e-15,-33.5819,-27.9773,97.4674,41.6243,4.20548,-3.40255,20.6867,7.12502,22.3276,49.4166,-9.77589,10.0796,24.4283,30.5478,-21.8621,-22.6994,3.52502,-12.8896,-0.947663,-6.49348,23.0167,-12.4464,11.353,-11.0254
-15.4312,18.4718,-3.6173,-0.862925,18.4392,0.439545,7.07184,0.881059,3.05003,3.05987,1.39078,0.599277,-0.748088,0.721068,-1.19928,-10.6188,3.50161,-5.78853,22.4,4.51173,7.08435,8.37112,2.40947,3.82099,-4.73604e-14,3.97569e-16,-33.381,-0.658133,-73.8889,24.6753,15.9899,-26.1389,3.31336,7.12502,0.41162,-26.666,-4.73604e-14,3.97569e-16,-33.4321,-27.7523,97.265,41.8029,4.00139,-3.43946,19.9765,7.12502,22.2922,48.7106,-9.72889,9.97026,24.4573,30.5615,-22.1314,-23.0699,3.71119,-13.0797,-0.19734,-6.58156,23.541,-12.8894,11.5683,-10.564
-15.4194,18.4705,-3.61527,-0.88674,18.979,0.56454,6.99114,0.937321,2.87628,3.11297,1.45067,0.580618,-0.650335,0.751873,-1.12311,-10.5476,3.61095,-5.75337,22.3927,4.6447,7.13865,8.34481,2.48153,3.84264,-6.11263e-15,3.97569e-16,-33.3486,-1.07015,-73.6239,24.852,16.7981,-25.9709,2.84468,7.12502,0.573823,-27.1343,-6.11263e-15,3.97569e-16,-33.3008,-27.525,97.1102,41.898,3.59768,-2.36329,20.672,7.12502,23.3249,49.279,-9.57094,9.77775,24.3156,30.53,-22.3549,-23.297,3.7391,-13.1734,0.573743,-6.84902,24.1135,-13.3725,11.9117,-9.32676
-15.413,18.4686,-3.61316,-1.05766,19.4305,0.426315,6.99665,1.00079,2.85466,3.14631,1.53436,0.625108,-0.61752,0.794259,-1.07091,-10.4474,3.73953,-5.70877,22.4379,4.7823,7.27614,8.32774,2.56461,3.89211,3.83157e-14,-1.31198e-14,-33.5628,-1.38089,-73.4766,25.08,17.305,-26.1499,3.25152,7.12502,0.400924,-26.7278,3.83157e-14,-1.31198e-14,-33.2475,-27.4286,97.0205,41.884,3.35065,-1.91045,20.722,7.12502,23.7593,49.2731,-9.35045,9.81404,24.4997,30.4757,-22.4712,-23.7505,3.57532,-13.1933,1.36285,-6.82043,24.7071,-13.8008,12.45,-7.53973
-15.4063,18.4686,-3.61073,-1.25733,19.8423,0.183698,7.05049,1.07278,2.99819,3.13777,1.6419,0.638445,-0.64792,0.848791,-1.1466,-10.3674,3.80167,-5.69278,22.559,4.802,7.55422,8.34282,2.6039,3.98728,-5.20816e-14,-7.95139e-16,-33.6834,-1.60717,-73.4541,25.1439,17.5048,-26.4084,3.86902,7.12502,0.151341,-26.1107,-5.20816e-14,-7.95139e-16,-33.2556,-27.3994,96.8902,41.8331,2.91644,-1.62876,20.4614,7.12502,24.0294,48.9772,-9.14348,9.96342,24.7973,30.4189,-22.5792,-24.2939,3.59627,-13.1932,2.204,-6.69135,25.3078,-13.9269,13.1297,-6.34821
-15.3913,18.4716,-3.60978,-1.33087,20.3693,0.253895,7.07661,1.1279,2.97322,3.12363,1.71368,0.530073,-0.671364,0.884767,-1.25008,-10.2798,3.85221,-5.52031,22.7499,4.7828,7.79115,8.389,2.63355,4.04202,1.07841e-14,9.54166e-15,-33.7437,-1.49909,-73.6267,25.4213,16.8735,-26.3636,3.20046,7.12502,0.194589,-26.7792,1.07841e-14,9.54166e-15,-33.3061,-27.4591,96.743,41.9711,2.65963,-1.12957,20.9388,7.12502,24.508,49.3906,-8.93274,9.84286,24.7171,30.3591,-22.7862,-24.5069,3.82372,-13.2178,2.8803,-6.90736,25.9344,-14.1298,13.7427,-5.18986
-15.3758,18.4724,-3.60952,-1.35338,20.9402,0.393779,7.07464,1.18889,2.87074,3.14128,1.78684,0.42667,-0.648918,0.921829,-1.30396,-10.2963,3.94748,-5.26584,22.9964,4.82638,7.96808,8.47334,2.69489,4.07445,-5.1038e-14,6.75868e-15,-33.6491,-1.55097,-73.6633,25.5873,16.5482,-26.1161,2.10786,7.12502,0.433612,-27.8714,-5.1038e-14,6.75868e-15,-33.2093,-27.6601,96.6865,42.1039,2.92966,-0.707056,22.0465,7.12502,24.913,50.4428,-8.75543,9.71374,24.5609,30.3195,-23.0104,-24.7178,4.04841,-13.2857,3.47293,-7.18002,26.5675,-14.4658,14.2695,-4.13014
-15.3615,18.4728,-3.60822,-1.35605,21.4369,0.443843,7.02954,1.26065,2.7915,3.15244,1.87521,0.381754,-0.609801,0.966419,-1.31067,-10.4616,3.94421,-5.38229,23.1992,4.77766,8.29209,8.56174,2.69839,4.2147,-2.09221e-14,-5.96354e-15,-33.4777,-2.04773,-73.4314,25.4996,17.275,-26.1838,2.09855,7.12502,0.368193,-27.8809,-2.09221e-14,-5.96354e-15,-33.0597,-27.8347,96.6777,42.1046,3.11438,-0.551837,22.6914,7.12502,25.0617,51.067,-8.67137,9.63317,24.4854,30.3239,-23.2354,-24.9898,4.15551,-13.3694,4.15746,-7.34809,27.1748,-14.6245,14.7988,-3.62081
-15.3429,18.4746,-3.60987,-1.30516,21.8449,0.487834,6.95481,1.35367,2.77314,3.11473,1.99482,0.302749,-0.599948,1.02626,-1.38854,-10.4452,3.96538,-5.40745,23.317,4.74855,8.57642,8.59026,2.71359,4.31815,-3.02153e-14,1.59028e-15,-33.4426,-2.28547,-73.3706,25.6049,17.46,-26.356,2.18598,7.12502,0.201937,-27.7937,-3.02153e-14,1.59028e-15,-33.0452,-27.9546,96.6406,42.2151,3.09391,-0.30762,23.2708,7.12502,25.2957,51.6135,-8.6947,9.33386,24.3462,30.3508,-23.3609,-25.0153,4.09412,-13.4588,4.85964,-7.51732,27.7648,-14.7583,15.3233,-2.769
-15.3212,18.4754,-3.61491,-1.22045,22.2181,0.544753,6.85424,1.45758,2.77893,3.06584,2.12933,0.195612,-0.584305,1.09385,-1.50902,-10.2066,4.03509,-5.3041,23.3166,4.77451,8.78203,8.5393,2.75543,4.36455,2.56432e-14,-7.55382e-15,-33.4182,-2.14896,-73.4721,25.815,17.0461,-26.3474,1.98679,7.12502,0.210262,-27.9928,2.56432e-14,-7.55382e-15,-32.9729,-28.0213,96.5625,42.3282,3.09789,0.246237,23.886,7.12502,25.8262,52.1526,-8.76943,8.90919,24.1598,30.3725,-23.324,-24.913,3.9665,-13.5829,5.48793,-7.70837,28.3599,-14.8401,15.8754,-1.48104
-15.3015,18.4731,-3.6193,-1.2267,22.6552,0.495791,6.79457,1.49628,2.77173,3.03748,2.17865,0.169308,-0.577445,1.11843,-1.53402,-9.94081,4.16793,-5.22715,23.3656,4.88472,9.02216,8.49099,2.83777,4.43524,1.98785e-15,-9.93923e-15,-33.2832,-2.03767,-73.4962,25.9082,17.0101,-26.3997,2.1104,7.12502,0.159682,-27.8693,1.98785e-15,-9.93923e-15,-32.8469,-28.0018,96.4779,42.3336,3.01012,0.82312,23.8425,7.12502,26.3785,52.0276,-8.75069,8.6285,24.1372,30.3775,-23.3187,-25.0172,3.83701,-13.6992,6.10545,-7.75244,28.9737,-14.8219,16.2351,-0.382698
-15.285,18.4684,-3.62004,-1.36742,23.091,0.280322,6.76653,1.51316,2.80959,3.04149,2.20349,0.223118,-0.557284,1.13131,-1.50057,-9.91601,4.24411,-5.21104,23.566,4.93464,9.24906,8.5425,2.88777,4.52283,2.23633e-15,1.98785e-15,-33.1264,-1.86667,-73.5372,26.0032,17.1818,-26.226,2.59499,7.12502,0.327513,-27.3845,2.23633e-15,1.98785e-15,-32.7839,-28.0045,96.42,42.3609,2.82999,1.14075,23.9254,7.12502,26.6826,52.0645,-8.63245,8.53369,24.3348,30.3645,-23.4222,-25.2858,3.92798,-13.7233,6.75756,-7.56537,29.5809,-14.8267,16.3651,0.411928
-15.271,18.4635,-3.61851,-1.53537,23.501,0.00150452,6.72074,1.55742,2.86779,3.0609,2.26544,0.303312,-0.509978,1.16334,-1.45291,-10.0179,4.24838,-5.23467,23.7489,4.91448,9.39317,8.6195,2.89415,4.58744,2.65378e-14,-1.19271e-15,-32.9837,-1.76094,-73.5439,26.177,17.3446,-25.4788,3.22932,7.12502,1.04916,-26.7478,2.65378e-14,-1.19271e-15,-32.721,-27.9975,96.3643,42.4575,2.5046,1.73425,24.2946,7.12502,27.2504,52.346,-8.50872,8.6428,24.6296,30.3352,-23.6282,-25.7125,4.11245,-13.7019,7.3174,-7.27762,30.149,-14.8619,16.433,1.69146
-15.2549,18.4585,-3.61624,-1.69557,24.0131,-0.159328,6.73555,1.58692,2.87053,3.05361,2.30621,0.329208,-0.524807,1.18345,-1.4312,-10.0456,4.25593,-5.26274,23.8896,4.88835,9.58355,8.66709,2.90169,4.6635,3.47873e-14,-1.11319e-14,-32.8992,-1.70387,-73.5546,26.4874,17.1822,-24.3965,3.0602,7.12502,2.09438,-26.9093,3.47873e-14,-1.11319e-14,-32.723,-28.0586,96.346,42.5693,2.10271,2.63329,24.6869,7.12502,28.1101,52.6002,-8.31056,8.766,24.8163,30.2904,-23.8816,-26.2387,4.37525,-13.6341,7.71269,-7.10127,30.6923,-14.8947,16.3767,2.99301
-15.2342,18.4538,-3.61145,-1.85647,24.5702,-0.203677,6.73915,1.601,2.79618,3.04998,2.32054,0.286471,-0.531216,1.19031,-1.4347,-9.98532,4.24153,-5.17527,24.0156,4.81128,9.75213,8.70227,2.89229,4.70451,-2.62396e-14,4.17448e-15,-32.8576,-1.45169,-73.717,26.8151,16.8674,-23.5258,2.60311,7.12502,2.9353,-27.3564,-2.62396e-14,4.17448e-15,-32.7829,-28.2449,96.3645,42.5851,2.1425,2.66305,25.0461,7.12502,28.1385,52.9548,-8.03822,8.76381,24.8695,30.2471,-24.1132,-26.6833,4.69925,-13.4842,8.03782,-7.03913,31.1893,-14.9015,16.2658,3.1032
-15.2125,18.4485,-3.6102,-2.03099,25.0343,-0.410887,6.66717,1.61256,2.80292,3.09044,2.33462,0.351013,-0.451491,1.19881,-1.36974,-9.95209,4.21811,-5.13678,24.0383,4.77473,9.74145,8.70864,2.87813,4.69138,3.28989e-14,-5.96354e-16,-32.7083,-0.921268,-73.8837,27.2189,16.4457,-23.1302,2.51618,7.12502,3.31732,-27.4378,3.28989e-14,-5.96354e-16,-32.7235,-28.3002,96.4306,42.5284,2.50249,1.93586,25.0203,7.12502,27.4432,53.0412,-7.87008,8.68673,25.0507,30.224,-24.2583,-27.0052,4.65009,-13.3731,8.39103,-6.81223,31.5969,-14.8051,16.2498,2.88972
-15.1856,18.4448,-3.61384,-2.17144,25.4854,-0.608071,6.5712,1.63837,2.84868,3.1516,2.3691,0.448583,-0.336029,1.21841,-1.29265,-10.0267,4.18206,-5.24834,24.0434,4.76076,9.69897,8.72362,2.85907,4.69775,2.74074e-14,6.55989e-15,-32.5629,-0.456645,-73.9313,27.752,15.9836,-23.0588,2.34387,7.12502,3.3863,-27.609,2.74074e-14,6.55989e-15,-32.5847,-28.3061,96.5459,42.4968,2.52487,1.72956,25.1666,7.12502,27.2459,53.2187,-7.78069,8.31963,25.1505,30.2583,-24.312,-27.0674,4.51502,-13.2309,8.67793,-6.61217,31.875,-14.6128,16.2259,2.53852
-15.1558,18.4447,-3.61445,-2.22825,25.9811,-0.546365,6.51131,1.68426,2.75417,3.16581,2.4221,0.3827,-0.287157,1.24541,-1.30837,-10.0799,4.1231,-5.22287,24.1451,4.66855,9.73075,8.7763,2.8238,4.70415,-7.89921e-14,1.59028e-15,-32.5733,-0.403183,-73.972,28.1719,15.9964,-23.2376,2.66723,7.12502,3.21369,-27.2883,-7.89921e-14,1.59028e-15,-32.5777,-28.4933,96.5909,42.4653,2.37365,1.98905,25.3112,7.12502,27.4941,53.3241,-7.6799,7.88627,24.9789,30.3813,-24.4956,-27.047,4.73474,-12.9446,8.84467,-6.66332,32.0062,-14.4036,16.1217,2.09485
-15.1232,18.4499,-3.61401,-1.85635,26.5872,-0.0152688,6.21909,1.69013,2.25523,3.11424,2.39172,0.167394,-0.19175,1.22707,-1.2395,-10.0936,4.09036,-5.20132,24.2291,4.60107,9.81384,8.81146,2.80475,4.72851,2.01518e-14,-7.55382e-15,-32.5331,-0.265204,-74.081,28.4968,15.9681,-23.3365,3.44921,7.12502,3.11818,-26.5077,2.01518e-14,-7.55382e-15,-32.6039,-28.6379,96.5498,42.4084,2.36806,2.18456,24.9658,7.12502,27.6811,52.9487,-7.81731,7.44803,24.2955,30.5347,-24.6679,-27.0152,5.23224,-12.8663,8.88896,-7.23535,32.0673,-14.2221,16.0097,2.29915
-15.0878,18.4571,-3.61644,-1.14388,27.2651,0.852614,5.74665,1.64983,1.45282,3.0364,2.28467,-0.100368,-0.0353851,1.16737,-1.0449,-10.0928,4.07528,-5.31595,24.2294,4.57701,9.93793,8.80562,2.79753,4.78878,1.36664e-14,3.77691e-15,-32.4024,0.0716671,-74.228,28.8555,15.668,-23.0018,3.68384,7.12502,3.44137,-26.2681,1.36664e-14,3.77691e-15,-32.6107,-28.7303,96.5571,42.2735,2.85755,1.46978,24.2155,7.12502,26.9974,52.3063,-8.11852,6.85009,23.2244,30.638,-24.7131,-26.8779,5.8026,-12.9961,8.77996,-8.17962,32.1609,-14.2163,15.8682,2.64924
-15.0636,18.4515,-3.61531,-1.25774,27.7694,0.813631,5.76607,1.61286,1.29737,3.02888,2.22841,-0.107938,-0.0613485,1.13747,-0.963512,-10.0786,4.07148,-5.33474,24.2417,4.57308,9.95682,8.80629,2.79686,4.79839,7.50909e-14,1.98785e-15,-32.3074,0.462898,-74.4066,29.2702,15.3978,-22.7056,3.34795,7.12502,3.72736,-26.5992,7.50909e-14,1.98785e-15,-32.722,-28.8073,96.6098,42.1149,3.816,0.0578417,23.1422,7.12502,25.6458,51.435,-7.93297,6.73715,23.2301,30.668,-24.9813,-27.1445,6.12082,-12.7133,8.65829,-8.04816,32.3331,-14.3076,15.644,3.18607
-15.0464,18.4355,-3.61183,-2.14874,28.1086,-0.181551,6.12874,1.60426,1.88233,3.09655,2.25628,0.15025,-0.179405,1.15589,-1.03803,-10.0625,4.06916,-5.40244,24.2376,4.58229,9.97243,8.79837,2.79761,4.81534,-1.17531e-14,6.55989e-15,-32.2345,0.866889,-74.5502,29.716,15.1313,-22.7126,2.95846,7.12502,3.72069,-26.9888,-1.17531e-14,6.55989e-15,-32.8094,-28.8275,96.6272,42.0445,4.33962,-0.39825,22.4824,7.12502,25.2089,50.8374,-7.35857,7.08342,24.3181,30.6068,-25.3546,-27.7719,6.21507,-12.1516,8.68011,-6.84529,32.5999,-14.269,15.3783,3.55853
-15.0215,18.4242,-3.61307,-2.69659,28.4664,-0.862756,6.2927,1.61107,2.29936,3.1218,2.29397,0.306488,-0.232521,1.17804,-1.11804,-10.1068,4.04264,-5.56374,24.3055,4.55405,10.0845,8.82364,2.78389,4.88444,-4.76835e-14,2.78299e-15,-32.1829,1.02484,-74.6161,30.1497,15.0616,-22.5619,2.65434,7.12502,3.86615,-27.2903,-4.76835e-14,2.78299e-15,-32.8221,-28.7608,96.5977,42.0243,4.32152,-0.213132,22.5223,7.12502,25.3862,50.8522,-6.9792,7.30105,25.0126,30.4707,-25.5779,-28.2805,6.42572,-11.864,8.80662,-6.04549,32.9156,-13.9599,15.2723,2.56206
-14.9908,18.4197,-3.61467,-2.93466,28.8434,-1.15817,6.36179,1.63452,2.44599,3.06682,2.33639,0.329257,-0.320721,1.19904,-1.18273,-10.102,4.00527,-5.60305,24.4339,4.49047,10.1668,8.86868,2.76122,4.92115,-1.54307e-14,3.18055e-15,-32.266,1.0167,-74.6843,30.5815,15.1178,-22.4889,2.96142,7.12502,3.93666,-26.982,-1.54307e-14,3.18055e-15,-32.9581,-28.5468,96.5595,42.0623,4.15221,-0.0763192,22.8215,7.12502,25.5173,51.1327,-6.74573,7.38839,25.2735,30.3667,-25.7127,-28.7075,6.65814,-11.6322,8.83505,-5.6719,33.1184,-13.708,15.2212,2.26835
-14.9572,18.4196,-3.61039,-2.94655,29.2448,-1.18626,6.26698,1.67842,2.3308,2.97408,2.38563,0.250831,-0.363288,1.22144,-1.20057,-10.0002,3.98392,-5.44912,24.4896,4.43415,10.1464,8.87932,2.74701,4.88258,9.96781e-14,-9.44227e-15,-32.4126,1.02038,-74.8223,31.0154,15.1258,-22.5566,3.7337,7.12502,3.87124,-26.2109,9.96781e-14,-9.44227e-15,-33.1017,-28.4405,96.482,42.063,4.09458,0.471106,23.0433,7.12502,26.0415,51.2785,-6.63506,7.33876,25.2291,30.3397,-25.8571,-28.9615,6.7929,-11.3435,8.71377,-5.55695,33.1391,-13.8114,15.1445,3.28764
-14.9169,18.4266,-3.60442,-2.47065,29.7772,-0.651834,5.85916,1.67558,1.72215,2.89012,2.33762,0.0355291,-0.241433,1.19327,-1.06601,-10.021,3.98179,-5.26018,24.5419,4.43117,9.99601,8.91265,2.74809,4.80199,-8.06196e-14,7.7526e-15,-32.4208,1.1043,-75.0168,31.443,14.9394,-22.5001,3.97296,7.12502,3.92582,-25.9706,-8.06196e-14,7.7526e-15,-33.1344,-28.4428,96.3591,42.0283,4.3498,0.839341,23.0211,7.12502,26.3941,51.2039,-6.72595,7.08675,24.5522,30.3055,-26.0323,-29.0028,7.02605,-11.239,8.45058,-6.08104,33.083,-14.0451,15.3376,3.75697
-14.8747,18.4314,-3.61037,-2.28282,30.2378,-0.433527,5.71113,1.66682,1.49591,2.82275,2.31087,-0.0925131,-0.233228,1.178,-1.06566,-10.0578,3.94453,-5.20556,24.5696,4.40358,9.85733,8.93816,2.72667,4.74538,7.11339e-14,-2.70844e-15,-32.4274,1.29117,-75.2027,31.8984,14.5248,-22.6443,3.75609,7.12502,3.78659,-26.19,7.11339e-14,-2.70844e-15,-33.2204,-28.4478,96.3287,42.0025,4.59584,0.687914,22.6391,7.12502,26.2491,50.8435,-6.67617,6.86382,24.189,30.2223,-26.0782,-29.1132,7.09907,-11.0365,8.20302,-6.29706,33.0375,-14.2544,15.6872,4.3952
-14.8381,18.4277,-3.62176,-2.77767,30.5185,-0.982185,5.97201,1.73874,1.97924,2.81348,2.4372,-0.0858496,-0.363323,1.24443,-1.34556,-10.1137,3.84492,-5.19475,24.6159,4.24706,9.93705,8.97645,2.66522,4.76246,-1.10419e-14,6.07536e-15,-32.4858,1.3008,-75.3713,32.3347,14.1994,-22.865,3.62889,7.12502,3.57344,-26.3209,-1.10419e-14,6.07536e-15,-33.2358,-28.6072,96.2653,41.8915,4.62577,0.830514,22.0839,7.12502,26.3856,50.268,-6.33185,6.91858,24.6566,30.1047,-26.1072,-29.4467,6.93812,-10.5559,8.12021,-5.66683,33.0201,-14.3286,15.9968,5.03604
-14.7992,18.4235,-3.6278,-3.18954,30.8552,-1.40953,6.1042,1.79519,2.26416,2.87473,2.53119,-0.0787004,-0.357578,1.29497,-1.50643,-10.3293,3.76738,-5.19631,24.684,4.1202,10.0454,9.04899,2.6216,4.80111,-1.01548e-13,1.74931e-14,-32.3824,1.10673,-75.4503,32.6659,14.1032,-22.6968,3.56225,7.12502,3.73592,-26.3847,-1.01548e-13,1.74931e-14,-33.0866,-28.7587,96.1499,41.7905,4.60738,1.11778,22.2846,7.12502,26.6606,50.4271,-5.97059,7.00356,25.0077,29.9517,-26.2773,-29.7737,7.17417,-10.1058,7.98129,-5.14533,33.0448,-14.5777,16.2294,6.09556
-14.7561,18.4224,-3.63263,-3.27843,31.2482,-1.48603,6.0472,1.79744,2.15564,2.87275,2.52719,-0.0742022,-0.333263,1.29231,-1.43884,-10.4368,3.7567,-5.13717,24.7105,4.12799,9.91693,9.08391,2.61889,4.75255,8.15017e-15,-8.00108e-15,-32.2935,1.16088,-75.504,32.9745,14.0934,-22.7163,3.5019,7.12502,3.71708,-26.4454,8.15017e-15,-8.00108e-15,-33.0566,-28.7311,96.1644,41.7217,4.70293,1.17144,23.0095,7.12502,26.7119,51.1442,-5.75225,6.93686,24.9645,29.8022,-26.44,-29.9741,7.4332,-9.79399,7.83963,-4.9977,33.0806,-15.0266,16.4114,7.84188
-14.7134,18.4254,-3.63695,-3.31001,31.6344,-1.51653,6.0176,1.75666,2.00913,2.78079,2.46458,-0.0883117,-0.419816,1.25776,-1.3688,-10.45,3.80058,-5.11241,24.8366,4.20796,9.81856,9.12706,2.64964,4.72852,-3.74336e-14,-5.46658e-15,-32.3226,1.59584,-75.6877,33.3099,13.9653,-23.308,3.56368,7.12502,3.14564,-26.3929,-3.74336e-14,-5.46658e-15,-33.1923,-28.5008,96.1784,41.5895,4.77228,1.08178,23.0188,7.12502,26.6261,51.1666,-5.60016,6.81523,24.8747,29.705,-26.5109,-30.2127,7.22927,-9.53156,7.8113,-4.91184,33.0579,-15.2132,16.829,8.18083
-14.6677,18.4268,-3.64288,-3.44172,32.0411,-1.67037,5.98507,1.71039,2.05106,2.73162,2.40447,-0.127607,-0.451128,1.22743,-1.42892,-10.4855,3.83468,-5.15527,24.9206,4.26056,9.84458,9.15629,2.67499,4.75553,-3.82288e-14,7.85199e-15,-32.3089,1.86778,-75.8969,33.6274,13.745,-23.4489,3.5661,7.12502,3.00958,-26.3924,-3.82288e-14,7.85199e-15,-33.3387,-28.2829,96.0908,41.5501,4.68609,1.36751,23.2268,7.12502,26.8995,51.3327,-5.40799,6.66931,24.9012,29.639,-26.5878,-30.4718,7.32854,-9.2475,7.84489,-4.72145,32.9721,-15.3519,17.3587,7.69325
-14.6172,18.4247,-3.65056,-3.58512,32.4321,-1.80716,5.88935,1.74345,2.12587,2.71065,2.44958,-0.222869,-0.410249,1.25145,-1.56809,-10.3793,3.78588,-5.0047,24.8657,4.17368,9.80144,9.13063,2.64328,4.70052,4.30617e-14,-9.54166e-15,-32.3832,1.63189,-76.044,33.9537,13.6364,-23.155,3.23186,7.12502,3.29346,-26.7225,4.30617e-14,-9.54166e-15,-33.4909,-28.4323,96.0302,41.6005,4.73832,2.17184,24.2416,7.12502,27.6689,52.2265,-5.18356,6.56593,24.8976,29.5773,-26.8241,-30.6488,7.69447,-8.90646,7.88077,-4.54448,32.8674,-15.7477,17.7264,8.59782
-14.5673,18.4255,-3.65825,-3.62826,32.8092,-1.80961,5.79568,1.79948,2.02028,2.65115,2.51583,-0.318623,-0.416941,1.28353,-1.60894,-10.1932,3.7292,-4.88398,24.8158,4.07587,9.77835,9.09069,2.60515,4.65407,6.61208e-14,-1.17283e-14,-32.5665,1.36093,-76.1367,34.3339,13.5883,-23.3668,2.85955,7.12502,3.0889,-27.0978,6.61208e-14,-1.17283e-14,-33.5723,-28.5737,96.0606,41.4928,4.86659,2.4547,24.615,7.12502,27.9394,52.5562,-4.9995,6.57313,24.783,29.5198,-27.0424,-30.9198,7.38007,-8.58952,7.86979,-4.50656,32.7736,-16.118,18.1501,9.88851
-14.5201,18.428,-3.67237,-3.63722,33.1297,-1.88528,5.69959,1.84222,1.93535,2.58829,2.56614,-0.34573,-0.428664,1.30728,-1.5899,-10.0486,3.78003,-4.89009,24.7152,4.17489,9.67939,9.02265,2.63901,4.61917,4.84041e-14,-6.95746e-15,-32.5298,1.16884,-76.1421,34.4495,13.5297,-24.0547,2.91921,7.12502,2.42453,-27.0468,4.84041e-14,-6.95746e-15,-33.5854,-28.477,96.0847,41.3596,4.83868,2.27178,24.2215,7.12502,27.7645,52.1911,-4.94455,6.53597,24.7261,29.4787,-26.9163,-31.2793,6.69912,-8.37675,7.89892,-4.40849,32.6668,-16.3594,18.659,10.254
-14.4703,18.4289,-3.6909,-3.61586,33.4365,-2.09726,5.52727,1.88002,1.98409,2.50441,2.61551,-0.327175,-0.415739,1.33125,-1.59609,-9.78178,3.94834,-4.68236,24.5215,4.47624,9.23714,8.90065,2.7483,4.43794,8.70677e-14,-2.18663e-15,-32.3415,1.03683,-76.1233,34.3706,13.4268,-24.6516,3.01438,7.12502,1.84806,-26.9574,8.70677e-14,-2.18663e-15,-33.6709,-28.4339,96.1297,41.3549,4.80531,2.34739,24.2745,7.12502,27.8368,52.2324,-5.04173,6.38263,24.7407,29.4624,-26.6871,-31.5485,6.23947,-8.2289,7.8976,-4.178,32.515,-17.0256,18.8551,11.9054
-14.4163,18.4322,-3.70173,-3.42008,33.8542,-2.02814,5.27612,1.89602,1.72974,2.40056,2.61908,-0.367491,-0.392532,1.33034,-1.48814,-9.85732,3.84818,-4.61204,24.6559,4.37994,8.99668,8.97949,2.68608,4.34436,4.66895e-14,-1.98785e-16,-32.4118,1.07386,-76.1792,34.696,13.3028,-24.7784,2.7608,7.12502,1.72555,-27.212,4.66895e-14,-1.98785e-16,-33.788,-28.4145,96.2053,41.3327,4.76807,2.62545,24.7363,7.12502,28.1026,52.6509,-5.11728,6.35667,24.5044,29.4433,-26.7417,-31.879,5.66907,-8.12126,7.84266,-4.23546,32.3654,-18.0208,18.9096,14.9858
-14.3612,18.4396,-3.70542,-3.09741,34.3105,-1.62806,4.99214,1.91464,1.13251,2.34336,2.61129,-0.484366,-0.315384,1.32286,-1.26416,-9.64244,3.93142,-4.57187,24.5121,4.48749,9.01111,8.88127,2.7401,4.3373,5.66536e-15,-8.54774e-15,-32.6054,1.15175,-76.2797,35.1932,13.1356,-24.7487,2.6427,7.12502,1.75426,-27.3298,5.66536e-15,-8.54774e-15,-33.84,-28.4009,96.2376,41.2232,4.70568,2.87751,24.7702,7.12502,28.3435,52.645,-5.05161,6.45589,24.0086,29.3652,-26.913,-32.2861,5.31974,-8.08865,7.89354,-4.6336,32.296,-18.4579,19.2913,16.5378
-14.3058,18.4408,-3.72028,-3.2501,34.6212,-1.7877,4.91948,1.88442,1.0089,2.41355,2.56608,-0.38577,-0.214358,1.3001,-1.08751,-9.84038,3.98703,-4.80695,24.5536,4.61193,9.03077,8.91505,2.78171,4.40387,1.47101e-14,-6.16232e-15,-32.4233,1.49041,-76.3157,35.4076,12.8929,-24.0359,2.72595,7.12502,2.4427,-27.2398,1.47101e-14,-6.16232e-15,-33.7082,-28.0952,96.2105,41.1306,4.53159,2.9331,24.6701,7.12502,28.3966,52.536,-4.80503,6.50563,24.0212,29.2108,-26.8735,-32.6218,5.15827,-7.92211,8.08415,-4.46667,32.316,-18.3379,19.7029,16.1435
-14.2501,18.4333,-3.75495,-3.92945,34.8455,-2.81885,5.17215,1.81935,1.77009,2.36567,2.51932,-0.135875,-0.383202,1.27931,-1.26507,-9.8994,4.04395,-4.92656,24.6085,4.73361,8.96289,8.93392,2.82187,4.41627,-6.49032e-14,3.57812e-15,-32.2798,1.85805,-76.3679,35.4903,12.6734,-22.5343,2.60979,7.12502,3.89283,-27.3344,-6.49032e-14,3.57812e-15,-33.7639,-27.6305,96.204,41.1007,4.20495,2.8819,24.8767,7.12502,28.3477,52.7508,-4.60322,6.55307,24.7817,29.0572,-26.7176,-32.9532,4.86104,-7.67833,8.20224,-3.45596,32.3344,-18.3766,19.757,16.0486
-14.1869,18.428,-3.78889,-4.37084,35.2544,-3.64341,5.49587,1.80135,2.59413,2.05129,2.54559,-0.116174,-0.849436,1.28735,-1.72622,-9.5559,4.01755,-4.81108,24.6442,4.67171,8.95845,8.89017,2.80213,4.37932,-5.49143e-15,3.57812e-15,-32.6898,1.92698,-76.5264,35.6596,12.3038,-22.3169,2.51654,7.12502,4.10276,-27.4237,-5.49143e-15,3.57812e-15,-34.2766,-27.6868,96.3624,41.0934,4.0872,3.01529,25.2708,7.12502,28.4752,53.1236,-4.52554,6.41674,25.2712,28.9219,-26.6499,-33.1831,4.91857,-7.65233,8.08804,-2.73469,32.3978,-18.545,19.8229,16.3904
-14.1157,18.433,-3.79571,-4.16289,35.8144,-3.15679,5.25831,1.7396,1.98659,2.15851,2.4252,-0.205586,-0.634935,1.22904,-1.46047,-9.71224,4.01137,-4.95574,24.6272,4.71409,8.88352,8.90859,2.8024,4.38659,-2.68856e-14,5.1684e-15,-32.5222,2.29036,-76.6204,35.8397,11.7846,-22.9679,2.3823,7.12502,3.47411,-27.5691,-2.68856e-14,5.1684e-15,-34.1277,-27.5836,96.3631,40.9983,4.08979,3.09943,25.2744,7.12502,28.5556,53.1137,-4.23878,6.15668,24.5954,28.8424,-26.6807,-33.3105,4.88025,-7.51574,7.92718,-3.2874,32.4031,-18.5607,20.3294,16.0985
-14.0679,18.4355,-3.82104,-4.22584,36.0962,-3.22089,5.36757,1.74668,1.67996,2.16797,2.42257,-0.144405,-0.701858,1.2255,-1.23,-9.8694,4.02039,-5.08537,24.6234,4.76778,8.84099,8.9301,2.81285,4.40415,6.69407e-14,-3.57812e-15,-32.3492,2.54066,-76.6926,36.0046,11.4501,-22.9818,2.04594,7.12502,3.46068,-27.9057,6.69407e-14,-3.57812e-15,-33.9235,-27.4058,96.3348,40.8419,3.92138,2.9572,24.6083,7.12502,28.4197,52.4704,-4.1699,6.66586,24.5842,28.8204,-26.6867,-33.9744,4.40832,-7.4999,7.99338,-3.25984,32.3696,-18.4732,20.8298,16.2379
-14.0006,18.4362,-3.86029,-4.29153,36.5876,-3.29949,5.46114,1.71663,1.69392,2.11684,2.38491,-0.174441,-0.805825,1.20542,-1.27095,-9.79482,4.0223,-5.04667,24.5912,4.77702,8.78669,8.90734,2.81515,4.37555,-6.89783e-14,5.1684e-15,-32.3953,2.52759,-76.7008,36.1149,11.1991,-22.7133,2.07784,7.12502,3.71994,-27.8694,-6.89783e-14,5.1684e-15,-33.8935,-27.3606,96.3827,40.7175,3.72342,2.7855,24.0781,7.12502,28.2556,51.9675,-4.04174,6.66981,24.4113,28.82,-26.6328,-34.2856,3.25116,-7.46664,8.02513,-3.29457,32.3391,-18.1699,21.0632,16.1147
-13.9139,18.4358,-3.89191,-4.26281,37.2452,-3.36068,5.16942,1.63447,1.78989,2.14162,2.27431,-0.213819,-0.616337,1.15286,-1.34816,-9.79222,4.0115,-5.04339,24.5699,4.76944,8.76375,8.90109,2.81023,4.36545,-3.74461e-14,3.57812e-15,-32.3914,2.47059,-76.6328,36.1945,11.1799,-22.594,2.54105,7.12502,3.83516,-27.4042,-3.74461e-14,3.57812e-15,-33.8966,-27.3662,96.4454,40.7348,3.6757,2.75494,24.302,7.12502,28.2264,52.1961,-3.87077,5.90956,24.0501,28.805,-26.2261,-34.057,1.52162,-7.54793,7.96903,-3.43518,32.4154,-17.5717,21.2561,15.3719
-13.8505,18.4338,-3.9368,-4.41676,37.5442,-3.73662,5.22834,1.64834,1.97051,2.09626,2.30368,-0.145759,-0.690188,1.16689,-1.38391,-9.83423,4.00924,-5.12521,24.5624,4.77363,8.81631,8.90167,2.81158,4.39898,-5.72003e-14,1.03368e-14,-32.3488,2.59563,-76.6254,36.2582,11.0814,-23.0874,2.88114,7.12502,3.35872,-27.0721,-5.72003e-14,1.03368e-14,-33.8792,-27.3342,96.4889,40.7682,3.60578,3.06938,24.7383,7.12502,28.5269,52.5825,-3.94346,6.15009,24.0258,28.7932,-26.317,-33.9633,1.70459,-7.67317,7.80077,-3.23081,32.5134,-17.2055,21.48,15.704
-13.7808,18.433,-3.97713,-4.40511,38.0292,-3.86109,5.18407,1.61859,1.92361,2.04996,2.26114,-0.13525,-0.71703,1.14459,-1.34408,-9.82792,3.99777,-5.13756,24.5482,4.76881,8.78915,8.8966,2.80602,4.39051,4.78574e-14,4.37326e-15,-32.3464,2.68836,-76.6381,36.3083,10.9939,-23.7375,2.70857,7.12502,2.73085,-27.2537,4.78574e-14,4.37326e-15,-33.8288,-27.2905,96.5453,40.6643,3.40498,3.21341,24.9879,7.12502,28.6645,52.8089,-3.98938,5.74271,23.7097,28.8224,-26.002,-33.6735,1.404,-7.82437,7.54601,-3.26359,32.5793,-17.1923,21.4427,16.3525
-13.7072,18.4338,-4.01828,-4.43288,38.5637,-3.95028,5.1869,1.61918,1.85814,2.01218,2.25898,-0.138864,-0.759947,1.14245,-1.31195,-9.74275,3.93311,-4.99585,24.5021,4.69539,8.60163,8.88171,2.76437,4.29067,7.52897e-14,-4.77083e-15,-32.4022,2.35677,-76.4585,36.4393,11.6018,-23.4851,2.49627,7.12502,2.97462,-27.4627,7.52897e-14,-4.77083e-15,-33.8598,-27.3653,96.6724,40.6022,3.22645,3.06935,25.4922,7.12502,28.5268,53.3364,-3.94942,5.68981,23.4377,28.8983,-25.6522,-33.8205,0.824136,-7.89773,7.28185,-3.36083,32.5982,-17.4195,21.2497,15.9572
-13.6301,18.4336,-4.06519,-4.56476,39.1051,-4.09716,5.29076,1.59716,1.88975,1.99167,2.23381,-0.132681,-0.838763,1.12905,-1.32581,-9.66161,3.88127,-4.849,24.4543,4.64603,8.38432,8.86602,2.73125,4.18204,-3.55825e-14,-5.56597e-15,-32.5035,2.03082,-76.2904,36.6241,11.9541,-22.9231,2.74756,7.12502,3.51731,-27.2032,-3.55825e-14,-5.56597e-15,-33.9085,-27.4358,96.7928,40.5879,3.07949,2.88665,25.5173,7.12502,28.3522,53.3906,-3.84463,5.98549,23.2812,29.0372,-25.4075,-34.2962,0.0519929,-7.88842,6.97506,-3.46667,32.5227,-17.3977,21.0157,13.956
-13.548,18.4349,-4.11852,-4.53781,39.7456,-4.11739,5.35973,1.5164,1.92512,1.94563,2.12921,-0.181492,-0.925072,1.07569,-1.39291,-9.60462,3.86316,-4.83374,24.3821,4.62661,8.35315,8.83346,2.72033,4.16179,1.51573e-14,4.77083e-15,-32.5586,2.12689,-76.3171,36.6024,11.7813,-23.2492,2.78382,7.12502,3.20247,-27.1719,1.51573e-14,4.77083e-15,-33.8467,-27.4007,96.8431,40.4458,2.84038,2.76313,24.7393,7.12502,28.2342,52.6322,-3.85744,6.03826,22.9339,29.1763,-25.1864,-34.6705,-0.722934,-8.02248,6.60666,-3.76433,32.4007,-16.9689,20.5052,11.3708
-13.4628,18.4384,-4.17556,-4.33897,40.4676,-3.92421,5.40659,1.4596,1.87504,1.90342,2.05042,-0.313067,-0.994427,1.03543,-1.49761,-9.64033,3.78964,-4.93922,24.3272,4.51943,8.47659,8.82226,2.67484,4.2114,1.08835e-14,-1.19271e-15,-32.5442,2.27139,-76.332,36.399,11.8399,-24.0018,2.41975,7.12502,2.47558,-27.5456,1.08835e-14,-1.19271e-15,-33.793,-27.5147,96.8957,40.3991,2.60661,3.05776,24.5039,7.12502,28.5157,52.3499,-3.84204,5.91043,22.3542,29.2636,-24.975,-34.8736,-1.10435,-8.21401,6.10483,-4.27247,32.3062,-16.7778,19.4561,9.75471
-13.3791,18.4371,-4.23437,-4.27528,41.1474,-3.87904,5.42859,1.42575,1.851,1.90404,2.00401,-0.369096,-1.00667,1.01234,-1.5396,-9.60328,3.68089,-5.04799,24.2257,4.37794,8.53074,8.78654,2.60466,4.23014,-9.88954e-15,-3.18055e-15,-32.5853,2.14654,-76.2167,36.3367,11.9527,-23.8986,2.378,7.12502,2.5753,-27.5862,-9.88954e-15,-3.18055e-15,-33.7858,-27.7804,97.0341,40.4487,2.45185,3.18793,24.8723,7.12502,28.6401,52.6974,-3.68494,6.02836,21.9675,29.3081,-25.0074,-35.0454,-1.0741,-8.35623,5.52191,-4.64737,32.2606,-17.269,18.5392,8.77941
-13.3002,18.4315,-4.29259,-4.54726,41.8079,-4.28615,5.47977,1.3752,1.99372,1.89309,1.9475,-0.232949,-1.04861,0.983562,-1.47814,-9.28713,3.60207,-5.16493,23.9903,4.28856,8.51971,8.65066,2.54846,4.21687,-1.39149e-15,7.15625e-15,-32.7373,2.0141,-76.0037,36.4574,11.8249,-23.2194,2.63703,7.12502,3.23123,-27.3182,-1.39149e-15,7.15625e-15,-33.7398,-27.9267,97.297,40.3236,2.30681,2.99118,25.0855,7.12502,28.4521,52.9421,-3.48366,6.53273,22.065,29.3259,-25.3256,-35.5049,-0.784251,-8.54358,5.00175,-4.64853,32.2672,-17.804,18.4756,6.4753
-13.2174,18.4287,-4.35303,-4.80446,42.5413,-4.64337,5.58527,1.29598,2.10981,1.88952,1.85319,-0.0948985,-1.11564,0.935714,-1.3988,-9.14029,3.54455,-5.28025,23.885,4.24011,8.47027,8.58951,2.50959,4.20581,-4.98453e-14,4.37326e-15,-32.8275,2.083,-75.7969,36.5678,11.609,-23.0465,2.61336,7.12502,3.3982,-27.3393,-4.98453e-14,4.37326e-15,-33.624,-27.999,97.5521,40.1449,2.1922,2.98358,24.899,7.12502,28.4449,52.7569,-3.32404,6.98477,22.092,29.3534,-25.478,-36.1914,-0.89582,-8.79046,4.6679,-4.74069,32.3454,-17.95,18.6721,4.00017
-13.1315,18.4286,-4.42311,-4.85143,43.2804,-4.77702,5.72851,1.21709,2.19877,1.89657,1.75712,-0.0886823,-1.18937,0.887272,-1.44002,-9.3131,3.47007,-5.27452,23.9421,4.15554,8.4081,8.65035,2.46615,4.18494,5.00937e-14,-2.78299e-15,-32.8253,2.19893,-75.6632,36.569,11.4318,-23.3181,2.61827,7.12502,3.13587,-27.3384,5.00937e-14,-2.78299e-15,-33.4234,-28.0014,97.6089,39.9957,1.86611,3.12741,24.417,7.12502,28.5823,52.2518,-3.29952,7.30153,21.8635,29.4332,-25.5054,-36.8436,-1.1189,-9.11993,4.40182,-5.05714,32.4982,-18.1838,18.2656,3.8441
-13.0454,18.4249,-4.49732,-4.87015,44.0084,-4.88994,5.87937,1.16389,2.30023,1.92466,1.69594,-0.110473,-1.24323,0.856809,-1.5188,-9.53814,3.34094,-5.28001,23.9639,3.98327,8.41071,8.71359,2.38743,4.18042,-8.05575e-14,1.19271e-15,-32.8038,2.17561,-75.4702,36.4596,11.4233,-23.5798,2.96691,7.12502,2.88319,-26.9933,-8.05575e-14,1.19271e-15,-33.1884,-27.8871,97.581,39.9242,1.35425,3.34429,24.179,7.12502,28.7895,51.9787,-3.35153,6.92309,21.4969,29.5807,-25.3139,-36.9506,-1.06912,-9.46919,4.1283,-5.40698,32.6705,-18.3538,17.7638,3.3282
-12.9588,18.4188,-4.55748,-5.01163,44.6878,-5.07793,5.9034,1.14998,2.21414,2.02009,1.67506,-0.00391145,-1.16517,0.848412,-1.35885,-9.69574,3.19996,-5.44311,23.9433,3.81962,8.42777,8.74467,2.29967,4.20389,-4.37823e-14,1.59028e-14,-32.736,2.20382,-75.2232,36.3482,11.3441,-23.6626,2.84906,7.12502,2.80325,-27.1123,-4.37823e-14,1.59028e-14,-32.9604,-27.8979,97.7138,39.9345,1.23639,3.26779,24.153,7.12502,28.7164,51.9652,-3.32652,6.02913,21.1448,29.7056,-24.8079,-36.763,-1.3559,-9.71939,4.02491,-5.66113,32.862,-18.4758,17.562,1.50876
-12.8767,18.4195,-4.60166,-5.15265,45.2034,-5.20258,5.85306,1.21904,1.84765,2.09406,1.74685,0.104752,-1.07305,0.885179,-1.04424,-9.55639,3.09003,-5.40059,23.8528,3.67088,8.36776,8.70234,2.22671,4.1549,-1.03318e-13,1.07344e-14,-32.8301,2.40584,-75.1811,36.3175,10.8663,-23.9264,2.44147,7.12502,2.54843,-27.5231,-1.03318e-13,1.07344e-14,-32.9065,-28.1251,97.8809,39.9672,1.43465,2.99608,24.2655,7.12502,28.4568,52.1213,-3.21583,6.39224,21.0543,29.8488,-25.0082,-37.4647,-1.35703,-9.87446,4.08103,-5.89093,33.0805,-18.7922,17.2196,1.11973
-12.7804,18.4247,-4.6731,-5.28965,45.9359,-5.50363,5.84468,1.18897,2.12447,2.06952,1.72198,0.0694319,-1.08488,0.873254,-1.23408,-9.35497,2.96708,-5.19151,23.7709,3.48043,8.26954,8.65936,2.14454,4.05971,-8.10048e-14,1.11319e-14,-33.001,2.53355,-75.2141,36.1857,10.3483,-24.3823,2.36817,7.12502,2.10813,-27.6012,-8.10048e-14,1.11319e-14,-32.9561,-28.422,97.9509,40.0109,1.5212,3.08966,24.31,7.12502,28.5462,52.1509,-3.10469,7.30138,21.1355,29.9338,-25.8475,-38.6669,-0.450656,-10.2119,4.07489,-6.13533,33.2539,-18.8943,16.7108,1.25602
-12.6888,18.4199,-4.74004,-5.48752,46.4999,-5.78257,5.91544,1.2055,2.25713,2.09933,1.75437,0.112424,-1.08966,0.890185,-1.26768,-9.37794,2.84722,-5.19351,23.8051,3.32775,8.21921,8.68869,2.06879,4.03178,7.28546e-14,-9.14409e-15,-32.9981,2.50116,-75.0718,35.9068,10.0651,-24.3022,2.47559,7.12502,2.18549,-27.493,7.28546e-14,-9.14409e-15,-32.8174,-28.5302,98.0015,39.9054,1.42352,3.43508,24.2026,7.12502,28.8762,51.9876,-3.13456,6.1721,20.75,30.0299,-24.8772,-38.333,-0.776288,-10.3948,4.21313,-6.34524,33.3357,-18.9699,16.3214,1.0704
-12.5969,18.421,-4.8048,-5.4968,47.0321,-5.62006,6.0908,1.23279,1.98249,2.16472,1.77967,0.112652,-1.12763,0.90277,-1.11892,-9.39515,2.76258,-5.28529,23.8645,3.22645,8.23209,8.71792,2.01602,4.04613,9.64106e-15,-2.78299e-15,-33.0227,2.37952,-74.903,35.6114,10.2459,-25.2806,2.93177,7.12502,1.24055,-27.0444,9.64106e-15,-2.78299e-15,-32.754,-28.5454,98.0739,39.9145,1.38138,3.46794,24.6415,7.12502,28.9076,52.4211,-2.94291,6.33538,20.3052,30.1357,-25.0352,-38.7933,-0.707975,-10.3494,4.32901,-6.87884,33.3333,-19.1252,15.9769,0.992939
-12.5052,18.4264,-4.87063,-5.25833,47.5849,-5.25018,6.15372,1.29715,1.55188,2.22078,1.84116,0.0820795,-1.11582,0.933295,-0.91414,-9.32046,2.63607,-5.3714,23.8527,3.06022,8.26045,8.71049,1.93376,4.05348,3.57812e-15,-1.43125e-14,-33.0851,2.14419,-74.6834,35.2771,10.6746,-26.4992,3.51179,7.12502,0.0636407,-26.4679,3.57812e-15,-1.43125e-14,-32.7717,-28.6692,98.1996,40.048,1.45406,3.27646,25.1694,7.12502,28.7247,52.9802,-2.85004,7.06746,19.8466,30.3438,-25.6997,-39.6747,-0.148652,-10.3936,4.53338,-7.59903,33.2804,-18.958,15.7018,0.0654403
-12.4182,18.4327,-4.93992,-5.02761,48.1639,-5.11471,6.11616,1.33126,1.27664,2.23552,1.87011,0.0903187,-1.08828,0.947349,-0.75229,-9.20652,2.50563,-5.39307,23.8128,2.88811,8.23214,8.68943,1.84781,4.02769,-2.06736e-14,-3.97569e-16,-33.0209,2.12119,-74.5403,34.8581,10.4205,-25.6679,4.18486,7.12502,0.86654,-25.7931,-2.06736e-14,-3.97569e-16,-32.6242,-28.6682,98.2329,39.9776,1.4281,3.34546,24.9873,7.12502,28.7906,52.7869,-2.98976,7.52473,19.5161,30.5929,-26.2333,-40.4277,0.593779,-10.6291,4.61755,-8.15821,33.1732,-18.6692,15.5723,-1.2391
-12.3322,18.4387,-5.01104,-4.8545,48.7929,-5.03763,6.15327,1.29098,1.10976,2.22126,1.80657,0.0334946,-1.12836,0.915002,-0.714095,-9.1133,2.45149,-5.39468,23.8289,2.79763,8.29972,8.68296,1.81257,4.04159,-4.3186e-14,-7.95139e-16,-32.9365,2.20728,-74.5744,34.4612,10.6812,-25.374,4.18945,7.12502,1.15035,-25.7872,-4.3186e-14,-7.95139e-16,-32.5207,-28.5768,98.0824,39.9077,1.39879,3.47085,24.9224,7.12502,28.9104,52.7015,-3.17653,7.59454,19.1358,30.9193,-26.6139,-40.8768,1.7092,-10.8306,4.56001,-8.62446,33.0637,-18.6006,15.106,-1.15067
-12.2428,18.4449,-5.08347,-4.55452,49.4308,-4.82151,6.1517,1.29047,0.887662,2.20717,1.79184,-0.0346704,-1.14696,0.907085,-0.658858,-9.06702,2.36688,-5.44702,23.8843,2.68127,8.34076,8.70063,1.7588,4.05573,3.1408e-14,2.38542e-15,-32.8741,1.715,-74.2847,34.211,12.2592,-24.7928,3.617,7.12502,1.71171,-26.3559,3.1408e-14,2.38542e-15,-32.5378,-28.5917,98.0443,40.0121,1.3614,3.42417,25.3173,7.12502,28.8658,53.104,-3.43142,7.4391,18.5985,31.3266,-26.6268,-41.2327,2.89706,-11.0326,4.64997,-9.16622,32.9739,-18.5896,14.3185,-0.729936
-12.1516,18.4502,-5.15825,-4.17103,50.0536,-4.54603,6.05251,1.34444,0.630216,2.23757,1.84787,-0.0511169,-1.06728,0.935043,-0.532238,-9.11561,2.19212,-5.52867,23.9967,2.48584,8.20687,8.76579,1.64821,4.01243,3.61788e-14,-6.75868e-15,-32.752,1.02029,-73.7707,33.9888,13.3441,-22.9771,3.62195,7.12502,3.46518,-26.3296,3.61788e-14,-6.75868e-15,-32.5105,-28.7269,98.1771,40.178,1.3076,3.2883,25.3828,7.12502,28.736,53.1916,-3.79756,6.82827,17.8949,31.7896,-26.1388,-41.2714,3.4747,-11.2702,4.67336,-9.78495,32.8935,-18.5978,13.7107,-0.97979
-12.0605,18.4562,-5.23058,-3.97939,50.6918,-4.34329,6.01191,1.38813,0.446626,2.33726,1.89581,-0.105587,-0.94575,0.959903,-0.485722,-9.11282,2.00972,-5.5616,24.0733,2.2535,8.14514,8.8111,1.53155,3.97922,-5.80451e-14,3.97569e-15,-32.6699,0.571867,-73.5318,33.6441,14.0406,-23.1946,3.6254,7.12502,3.25517,-26.3295,-5.80451e-14,3.97569e-15,-32.4687,-29.033,98.1811,40.3453,1.43459,3.28429,25.2447,7.12502,28.7322,53.0542,-4.07064,5.8953,17.155,32.299,-25.5795,-40.9827,4.40837,-11.3497,4.58845,-10.3296,32.8095,-18.5265,13.1263,-0.891493
-11.9722,18.4627,-5.30097,-3.95387,51.4028,-4.27366,6.08769,1.40075,0.302124,2.40819,1.90574,-0.132451,-0.918633,0.96524,-0.433968,-8.98577,1.85159,-5.53765,24.1345,2.04436,8.07241,8.82685,1.42889,3.93088,-3.4837e-14,4.77083e-15,-32.647,0.344891,-73.4177,33.2195,14.8273,-24.0103,3.54092,7.12502,2.4674,-26.4246,-3.4837e-14,4.77083e-15,-32.4922,-29.3206,98.1651,40.4508,1.85556,3.58024,25.4216,7.12502,29.0149,53.1828,-4.23532,5.46988,16.6661,32.8634,-25.6755,-41.0435,5.29198,-11.3739,4.5179,-10.7351,32.7134,-18.3655,12.3376,-0.320667
-11.8855,18.4663,-5.37576,-3.6897,52.1683,-3.98103,6.20241,1.37086,0.00412888,2.43762,1.85024,-0.113347,-0.962654,0.936532,-0.246501,-8.88716,1.72239,-5.65518,24.2329,1.92353,7.90571,8.85356,1.34544,3.88447,6.8531e-14,-4.37326e-15,-32.5395,0.284567,-73.1859,32.8153,15.3699,-23.8267,3.62512,7.12502,2.64471,-26.3382,6.8531e-14,-4.37326e-15,-32.4034,-29.2258,98.2194,40.4006,2.22677,3.84765,26.1028,7.12502,29.2702,53.8198,-4.42636,5.19531,16.1144,33.4604,-25.7347,-41.2985,5.03313,-11.4447,4.2557,-11.2823,32.6173,-18.4881,11.3224,1.65538
-11.8018,18.4711,-5.45266,-3.29839,52.9272,-3.51307,6.40275,1.33743,-0.287344,2.44856,1.78775,-0.206309,-1.06871,0.904891,-0.179503,-8.70769,1.61925,-5.7337,24.2536,1.80554,7.84668,8.83643,1.27698,3.86409,3.19049e-14,-3.57812e-15,-32.5096,0.0787186,-73.0485,32.5064,15.7537,-23.3009,3.73045,7.12502,3.15256,-26.226,3.19049e-14,-3.57812e-15,-32.3134,-29.1632,98.1355,40.4024,2.34658,3.96333,26.6913,7.12502,29.3807,54.389,-4.67475,4.8242,15.4302,34.1096,-25.2615,-41.5919,5.52593,-11.5529,4.35129,-12.0167,32.5064,-18.0054,10.8376,0.503302
-11.7207,18.4795,-5.52754,-3.13093,53.6403,-3.33548,6.6393,1.35082,-0.291921,2.42162,1.8021,-0.373754,-1.22238,0.912937,-0.356629,-8.53298,1.46499,-5.68957,24.3237,1.56621,7.91194,8.84603,1.17667,3.85684,4.90998e-14,-1.19271e-15,-32.7355,-0.57533,-73.0266,32.3829,16.1909,-22.5349,3.81775,7.12502,3.89221,-26.1265,4.90998e-14,-1.19271e-15,-32.4037,-29.5841,98.0171,40.56,2.68784,4.16296,27.1541,7.12502,29.5713,54.8181,-4.99525,4.76128,14.992,34.8277,-25.0097,-42.061,7.06496,-11.6443,4.54819,-12.5182,32.3883,-17.6295,10.2094,-0.110242
-11.6338,18.4871,-5.60297,-2.87082,54.3409,-3.1679,6.68983,1.3248,-0.308853,2.39682,1.76454,-0.479741,-1.2732,0.894587,-0.454881,-8.44475,1.32473,-5.68864,24.4634,1.38073,7.86843,8.8932,1.08742,3.82869,9.89451e-14,-3.97569e-15,-33.0027,-1.25514,-72.9441,32.3819,16.8871,-21.9185,4.08931,7.12502,4.48749,-25.8432,9.89451e-14,-3.97569e-15,-32.5297,-29.8798,97.952,40.6726,3.41859,4.00883,26.9744,7.12502,29.4241,54.6644,-5.43928,4.67154,14.5326,35.6319,-24.7477,-42.4933,8.47361,-11.815,4.64801,-13.0475,32.28,-17.3954,9.65218,-0.89513
-11.545,18.4928,-5.67747,-2.47777,55.1012,-2.83469,6.68969,1.25914,-0.480081,2.39181,1.66588,-0.530714,-1.28206,0.845248,-0.403846,-8.31083,1.20946,-5.7668,24.5765,1.26174,7.74337,8.91788,1.01284,3.79002,-2.39536e-14,3.97569e-16,-33.2216,-1.49803,-72.8702,32.3168,17.7066,-21.6694,4.44878,7.12502,4.72802,-25.4785,-2.39536e-14,3.97569e-16,-32.5893,-29.9036,97.8843,40.644,4.21516,4.06699,26.6346,7.12502,29.4797,54.3148,-5.88272,4.53252,13.9722,36.49,-23.9847,-42.9952,9.54525,-11.9441,4.45623,-13.6814,32.1719,-17.4194,9.04096,0.166646
-11.4602,18.4932,-5.75069,-2.10668,55.9397,-2.4543,6.77423,1.22652,-0.617435,2.4111,1.61284,-0.615077,-1.31054,0.819245,-0.411269,-8.22706,1.03939,-5.88006,24.7465,1.05961,7.6829,8.97714,0.904227,3.7753,-1.0307e-13,1.03368e-14,-33.4662,-1.65535,-72.8512,32.2162,18.544,-21.6284,4.73203,7.12502,4.76757,-25.1943,-1.0307e-13,1.03368e-14,-32.6437,-30.2268,97.857,40.7317,4.94907,4.16124,27.2449,7.12502,29.5696,54.9093,-6.28088,4.46119,13.4266,37.3852,-22.906,-43.5233,10.1042,-11.9908,4.04963,-14.3349,32.0215,-17.4307,8.55219,1.32454
-11.3791,18.4967,-5.82203,-1.6854,56.7558,-2.01384,6.88245,1.21175,-0.755291,2.44308,1.58281,-0.741547,-1.33776,0.805098,-0.463781,-8.21953,0.862469,-5.91072,24.9585,0.837344,7.61597,9.06809,0.794252,3.74484,1.72446e-14,0,-33.6425,-1.78286,-72.8931,32.1908,18.8165,-21.661,4.83419,7.12502,4.73611,-25.0929,1.72446e-14,0,-32.7371,-30.7423,97.791,41.0091,5.73303,3.31448,26.5943,7.12502,28.761,54.3989,-6.70724,4.58492,12.9187,38.331,-22.3007,-44.0433,11.4414,-12.0049,3.56324,-15.0227,31.8306,-17.3322,8.34897,0.875734
-11.3017,18.5076,-5.89311,-1.28095,57.4555,-1.56956,7.06864,1.23156,-0.87972,2.46862,1.59828,-0.863766,-1.41447,0.813831,-0.52512,-8.24723,0.685453,-6.04567,25.1574,0.619071,7.61467,9.15976,0.6835,3.75543,2.15184e-14,2.38542e-15,-33.7261,-1.87389,-72.9314,32.167,18.6584,-21.5843,4.77706,7.12502,4.81015,-25.1483,2.15184e-14,2.38542e-15,-32.7885,-31.1392,97.6885,41.2216,6.45319,3.0534,25.3402,7.12502,28.5116,53.1869,-7.15047,5.04277,12.486,39.3261,-22.4375,-44.6588,13.8515,-11.9465,3.0656,-15.6694,31.6237,-17.3226,8.09059,1.00128
-11.2238,18.5166,-5.96899,-0.75191,58.1698,-1.0506,7.2054,1.23013,-1.04404,2.47131,1.58311,-0.921916,-1.49019,0.806764,-0.494934,-8.21473,0.538878,-6.26059,25.3188,0.479805,7.51436,9.22204,0.590712,3.75021,2.11706e-14,-7.15625e-15,-33.7935,-1.95487,-72.8314,32.1049,18.7072,-21.4068,5.03437,7.12502,4.98159,-24.8871,2.11706e-14,-7.15625e-15,-32.8742,-31.3661,97.7239,41.4389,6.90133,3.94136,25.0209,7.12502,29.3597,52.7222,-7.72747,5.15891,11.9181,40.3742,-21.8877,-45.0764,15.5945,-11.9569,2.44727,-16.3537,31.4139,-17.4102,7.74057,2.51561
-11.1458,18.5182,-6.04357,-0.136667,58.9772,-0.451638,7.22272,1.17877,-1.37508,2.50101,1.49387,-0.880926,-1.47848,0.761868,-0.259785,-8.043,0.414274,-6.43174,25.4013,0.397505,7.25188,9.22785,0.509535,3.68098,1.60519e-14,1.74931e-14,-33.8485,-1.7928,-72.6463,32.1471,18.7524,-21.1628,5.09723,7.12502,5.21719,-24.8185,1.60519e-14,1.74931e-14,-32.9705,-31.5563,97.8744,41.7044,7.22597,4.7986,24.7086,7.12502,30.1779,52.2635,-8.34378,4.79289,11.2207,41.4692,-20.2285,-45.0466,16.4459,-12.0293,1.74541,-17.0993,31.2488,-17.4107,7.59667,3.06789
-11.0705,18.5167,-6.11019,0.0311938,59.7506,-0.248044,7.29767,1.13685,-1.53875,2.58636,1.43002,-0.799886,-1.43758,0.729844,-0.0798555,-7.96065,0.263525,-6.693,25.515,0.263066,7.13248,9.26431,0.411377,3.67491,5.41688e-15,1.07344e-14,-33.8809,-1.52745,-72.5875,32.2917,18.5434,-21.0537,4.76526,7.12502,5.32254,-25.1479,5.41688e-15,1.07344e-14,-33.0056,-31.8961,97.9475,41.9434,7.52065,5.14564,24.7083,7.12502,30.5089,52.2022,-8.81332,4.58667,10.8159,42.5982,-18.5591,-44.4101,17.3343,-12.0067,1.30843,-17.5925,31.1571,-17.2432,7.52821,1.90472
-10.9971,18.5175,-6.17246,-0.134436,60.5156,-0.439303,7.42885,1.10978,-1.39124,2.63634,1.40443,-0.781242,-1.45556,0.718085,-0.14336,-7.9435,0.112198,-6.75043,25.6623,0.0896768,7.03634,9.32841,0.317749,3.63977,-1.16289e-14,1.98785e-15,-33.9353,-1.50439,-72.6532,32.3355,18.2892,-21.2897,4.58934,7.12502,5.09468,-25.3294,-1.16289e-14,1.98785e-15,-33.0839,-32.3687,97.9071,42.1517,7.7165,5.06917,24.5109,7.12502,30.4359,52.0184,-9.24613,4.52588,10.7069,43.7305,-16.6939,-43.1817,18.5144,-12.005,1.04573,-17.8264,31.1118,-17.0698,7.3197,0.742578
-10.923,18.5161,-6.23463,0.0267089,61.3005,-0.251045,7.5617,1.11758,-1.35123,2.67296,1.41655,-0.828993,-1.48932,0.725291,-0.21838,-7.84094,-0.0532722,-6.69678,25.7611,-0.114562,6.89393,9.3618,0.215107,3.56326,-9.74045e-15,1.19271e-15,-34.0632,-1.77167,-72.5975,32.3581,18.2312,-21.4265,4.49644,7.12502,4.9625,-25.4255,-9.74045e-15,1.19271e-15,-33.2008,-32.8857,97.9576,42.3306,7.87921,4.92828,23.2655,7.12502,30.3016,50.7978,-9.63908,4.36262,10.3772,44.8333,-14.2632,-41.5479,18.8499,-11.9866,0.746903,-18.25,31.0957,-17.0391,6.95146,0.653102
-10.8498,18.5144,-6.29397,0.0991793,62.0169,-0.0572691,7.71536,1.14063,-1.41299,2.76279,1.4446,-0.774323,-1.48477,0.739842,-0.132177,-7.73695,-0.23082,-6.9018,25.8556,-0.302011,6.79876,9.39219,0.100343,3.54967,1.37161e-14,1.19271e-14,-34.216,-1.98995,-72.3957,32.6091,17.9362,-21.1887,4.51639,7.12502,5.19213,-25.4,1.37161e-14,1.19271e-14,-33.3066,-33.1997,98.1345,42.5179,7.93406,4.48426,22.971,7.12502,29.8779,50.5803,-9.93322,4.39462,10.0896,45.9062,-11.9704,-39.665,17.9285,-11.8514,0.484601,-18.6472,31.133,-17.0723,6.50563,0.444634
-10.7795,18.5175,-6.34455,-0.401902,62.7272,-0.522538,7.78927,1.09138,-1.34902,2.85639,1.38857,-0.633049,-1.43072,0.711992,-0.0180277,-7.54617,-0.330438,-6.91728,25.877,-0.392233,6.59639,9.37251,0.0362646,3.4716,-2.7482e-14,2.06736e-14,-34.2755,-1.80864,-72.4686,32.8799,16.8052,-20.933,4.81261,7.12502,5.439,-25.0976,-2.7482e-14,2.06736e-14,-33.3515,-33.2403,98.1525,42.6722,7.87168,3.62366,24.5646,7.12502,29.0563,52.3187,-10.2292,4.71163,10.2701,46.944,-10.2063,-37.636,16.6555,-11.744,0.282589,-18.6574,31.2028,-17.0337,6.06625,-0.604793
-10.7121,18.517,-6.38906,-0.947062,63.5061,-1.03002,7.84856,0.965184,-1.33046,2.93347,1.22605,-0.54425,-1.38396,0.631128,0.0772354,-7.27643,-0.350866,-6.64391,25.8507,-0.399893,6.29206,9.31365,0.0268768,3.31366,-3.85145e-14,-2.78299e-15,-34.2676,-1.34336,-72.8772,32.9567,15.5933,-21.2794,5.05199,7.12502,5.10459,-24.8665,-3.85145e-14,-2.78299e-15,-33.3511,-33.1538,98.0175,42.7755,7.85514,3.14951,25.8279,7.12502,28.6034,53.6591,-10.4941,5.05163,10.5244,47.9248,-8.99869,-35.543,15.2036,-11.6425,0.0854783,-18.6231,31.2347,-17.0121,5.49856,-0.346925
-10.6451,18.5158,-6.43662,-1.10515,64.2944,-1.03299,8.02126,0.866311,-1.41758,3.00279,1.08893,-0.535685,-1.40795,0.563505,0.145016,-7.06945,-0.41164,-6.54368,25.9101,-0.466967,6.14064,9.30114,-0.00928772,3.23728,9.39258e-15,-7.55382e-15,-34.2889,-1.37993,-73.02,32.9844,15.8146,-21.5611,4.92676,7.12502,4.83256,-24.9981,9.39258e-15,-7.55382e-15,-33.4578,-33.2308,97.9749,42.9223,7.94622,3.13851,26.1522,7.12502,28.5929,53.9852,-10.663,5.51046,10.5702,48.8509,-8.44546,-33.6389,13.4971,-11.45,-0.177061,-18.8609,31.2331,-17.0436,4.91294,0.934082
-10.575,18.5244,-6.48469,-1.04834,65.0413,-0.801226,8.19477,0.826431,-1.51811,3.05904,1.02812,-0.552094,-1.44622,0.534066,0.187881,-6.89362,-0.537052,-6.57735,26.0263,-0.624414,6.09211,9.32125,-0.0885639,3.21364,1.72446e-14,-1.59028e-15,-34.315,-1.75259,-72.8637,33.0085,16.7526,-21.0124,4.90939,7.12502,5.3624,-25.0028,1.72446e-14,-1.59028e-15,-33.6333,-33.4516,98.0195,43.1252,8.05716,3.3466,25.9312,7.12502,28.7917,53.7306,-10.7996,6.23618,10.5912,49.7505,-8.45034,-32.1112,11.6303,-11.2358,-0.403097,-19.2379,31.258,-17.0437,4.48525,1.16143
-10.5056,18.5289,-6.52387,-1.28983,65.7612,-0.953429,8.25401,0.801452,-1.52667,3.14234,0.998621,-0.458273,-1.39428,0.519392,0.29194,-6.9028,-0.695425,-6.74377,26.266,-0.801421,6.06103,9.42296,-0.186161,3.22208,6.59965e-14,-9.93923e-15,-34.1918,-1.70577,-72.7831,32.9155,16.8021,-20.6102,4.96115,7.12502,5.75068,-24.9408,6.59965e-14,-9.93923e-15,-33.6256,-33.5627,98.1052,43.2128,8.19237,3.63667,25.547,7.12502,29.0688,53.299,-11.0206,6.57304,10.7381,50.6086,-8.36676,-30.4855,9.64231,-11.0556,-0.533943,-19.4142,31.2478,-16.9783,4.10048,0.586475
-10.4406,18.5149,-6.55908,-1.60304,66.4853,-1.26157,8.21676,0.837197,-1.43068,3.24786,1.06032,-0.348722,-1.2663,0.550181,0.346744,-7.0758,-0.916511,-7.05544,26.5558,-1.06579,6.15931,9.58238,-0.323637,3.29499,-1.89342e-14,-9.93923e-16,-34.0484,-2.09176,-72.5392,32.7907,17.2111,-20.4371,4.67995,7.12502,5.91781,-25.2174,-1.89342e-14,-9.93923e-16,-33.4801,-33.9037,98.2644,43.1601,8.48882,3.73651,25.5871,7.12502,29.1641,53.3225,-11.4739,5.82137,10.6836,51.4857,-7.92033,-28.111,7.52037,-10.971,-0.764521,-19.4982,31.2355,-16.916,3.67401,0.468701
-10.3732,18.5134,-6.59795,-1.35396,67.2561,-1.01426,8.13341,0.996403,-1.34733,3.32373,1.28039,-0.53044,-1.1398,0.661945,0.0951457,-7.03431,-1.2484,-6.77761,26.6101,-1.58422,6.2038,9.63154,-0.528406,3.21256,-7.19104e-14,1.19271e-14,-34.2562,-3.56623,-72.264,32.8182,18.3744,-19.9489,4.95775,7.12502,6.38919,-24.9259,-7.19104e-14,1.19271e-14,-33.5857,-34.9858,98.3256,43.3001,8.89603,3.74776,25.9123,7.12502,29.1749,53.6458,-11.8158,6.52782,10.7853,52.2751,-8.49689,-27.036,6.73585,-10.9038,-1.20555,-19.8337,31.2155,-16.9322,3.26018,1.57516
-10.3039,18.5146,-6.63339,-0.953813,68.0496,-0.569571,8.02532,1.11482,-1.40686,3.37893,1.43436,-0.867864,-1.01759,0.741321,-0.229492,-6.82704,-1.53585,-5.89178,26.5849,-2.11267,6.10515,9.61081,-0.69442,2.96975,-7.26558e-14,9.14409e-15,-34.593,-4.75449,-72.5113,32.8622,18.474,-20.1951,5.5556,7.12502,6.15146,-24.3351,-7.26558e-14,9.14409e-15,-33.9376,-36.1183,98.1586,43.5982,9.35375,3.79036,25.5251,7.12502,29.2155,53.2516,-12.0849,6.97183,10.7734,53.0026,-9.13393,-25.8069,6.43595,-10.7853,-1.57202,-20.233,31.1981,-16.9687,2.8874,2.30933
-10.2356,18.5194,-6.66244,-0.865472,68.8435,-0.413783,7.97118,1.07101,-1.64511,3.42251,1.36233,-0.915765,-0.946186,0.704351,-0.137204,-6.68036,-1.65175,-5.57636,26.6613,-2.31184,6.05244,9.61963,-0.758409,2.87858,4.27884e-14,-1.19271e-14,-34.6835,-5.01015,-72.73,32.8703,18.2606,-21.2149,5.50655,7.12502,5.16684,-24.4105,4.27884e-14,-1.19271e-14,-34.1894,-36.4867,98.1088,43.8153,9.80243,4.03451,24.8027,7.12502,29.4486,52.4884,-12.2678,7.40462,10.9404,53.6025,-9.68414,-24.7791,5.488,-10.5785,-1.86269,-20.4866,31.0931,-16.934,2.548,2.08183
-10.1689,18.526,-6.6911,-0.943414,69.6228,-0.497652,7.95006,1.0212,-1.75855,3.42679,1.29098,-0.750559,-0.935531,0.66662,0.103056,-6.54827,-1.77327,-5.99722,26.7145,-2.42671,6.11768,9.62848,-0.844338,2.96516,2.17172e-14,5.56597e-15,-34.7388,-5.41106,-72.3886,32.9999,18.6689,-21.7436,5.18151,7.12502,4.65633,-24.7473,2.17172e-14,5.56597e-15,-34.2831,-36.5209,98.3241,43.9181,9.85808,4.39051,25.2514,7.12502,29.7885,52.8768,-12.5493,7.91716,11.2199,54.1135,-10.1158,-24.0032,3.66911,-10.4307,-2.30365,-20.6256,30.995,-16.9183,2.12397,2.89527
-10.1003,18.5294,-6.72205,-1.05158,70.4011,-0.650349,7.84846,0.949249,-1.79069,3.4278,1.19759,-0.577973,-0.881323,0.617973,0.308621,-6.42843,-1.89951,-6.52175,26.8037,-2.54017,6.21646,9.65543,-0.936022,3.08285,-8.01102e-14,1.47101e-14,-34.8024,-6.04408,-71.9125,33.1495,18.9844,-21.1954,5.28999,7.12502,5.18569,-24.6266,-8.01102e-14,1.47101e-14,-34.2285,-36.2555,98.5228,43.8344,9.53621,4.71291,25.7187,7.12502,30.0961,53.2886,-12.8499,8.3298,11.5003,54.5529,-10.528,-23.2482,1.83552,-10.3187,-2.62865,-20.7325,30.9188,-16.9168,1.55273,4.10952
-10.0311,18.5286,-6.75139,-1.3169,71.1759,-0.930198,7.73623,0.801004,-1.85258,3.44454,1.00156,-0.411528,-0.8023,0.517732,0.533154,-6.50591,-1.98391,-6.96053,27.1183,-2.60064,6.31429,9.79722,-0.991236,3.19657,2.09221e-14,4.57205e-15,-34.7638,-6.52085,-71.6096,33.1956,19.2399,-20.7699,5.81487,7.12502,5.59652,-24.0912,2.09221e-14,4.57205e-15,-34.2071,-35.7978,98.6169,43.8048,9.3857,4.9527,25.6134,7.12502,30.3249,53.1413,-13.0639,8.71056,11.8488,54.9261,-10.9541,-22.5515,0.181346,-10.1799,-2.74615,-20.7981,30.8721,-16.9154,1.00967,4.1845
-9.96463,18.5308,-6.77497,-1.84836,71.9624,-1.43809,7.74039,0.633267,-1.83745,3.43824,0.781354,-0.303636,-0.807323,0.407318,0.653967,-6.60245,-2.06974,-7.16615,27.4687,-2.67683,6.32277,9.95363,-1.03976,3.23747,-1.30701e-14,5.96354e-15,-34.7433,-6.68601,-71.5912,33.2517,19.4835,-21.1465,5.91984,7.12502,5.2329,-23.9955,-1.30701e-14,5.96354e-15,-34.3641,-35.4671,98.6588,43.9005,9.34996,4.96443,25.7585,7.12502,30.336,53.2844,-13.2085,9.17454,12.3582,55.2168,-11.373,-22.0646,-0.909545,-9.97936,-2.82412,-20.7598,30.8022,-16.9215,0.440927,4.08887
-9.90473,18.5331,-6.80316,-2.56715,72.8939,-2.07912,7.90516,0.409267,-1.74552,3.42737,0.489213,-0.202657,-0.902439,0.262864,0.729405,-6.54196,-2.11406,-7.23056,27.6162,-2.70001,6.22845,9.99861,-1.06423,3.21698,-1.16289e-14,7.95139e-16,-34.6634,-5.91766,-71.8826,33.3146,18.9909,-21.0202,5.50276,7.12502,5.35483,-24.4096,-1.16289e-14,7.95139e-16,-34.4723,-35.1124,98.6768,43.9342,9.12068,4.99793,25.8103,7.12502,30.368,53.3303,-13.2683,9.39188,12.8868,55.4625,-11.9237,-21.6114,-1.70125,-9.75011,-2.9994,-20.6866,30.7538,-16.9285,-0.205778,4.24252
-9.82058,18.5323,-6.84002,-3.12308,73.4323,-2.23125,8.02829,0.335058,-1.67215,3.60201,0.40273,-0.125138,-0.788036,0.220568,0.775346,-6.54523,-2.1632,-7.46584,27.7088,-2.72737,6.24097,10.0404,-1.09713,3.26252,-3.91606e-14,1.98785e-15,-34.4822,-4.72173,-72.1932,33.271,17.9258,-20.798,5.47612,7.12502,5.56941,-24.4307,-3.91606e-14,1.98785e-15,-34.4322,-34.7759,98.7491,43.8897,8.79046,5.34771,25.541,7.12502,30.7016,52.9989,-13.0054,9.84122,13.1722,55.6415,-12.6536,-21.0926,-2.64009,-9.05277,-3.43457,-20.9296,30.7408,-17.2142,-0.264626,4.43661
-9.75677,18.5338,-6.85681,-3.38007,74.1954,-2.53279,7.93634,0.263977,-1.84737,3.62703,0.300423,-0.00791392,-0.709853,0.166449,1.00365,-6.64196,-2.25756,-7.71379,27.803,-2.84165,6.36647,10.1095,-1.15867,3.3417,7.7526e-15,-9.14409e-15,-34.3602,-4.27849,-72.2989,33.2807,17.0451,-20.6318,5.73571,7.12502,5.72988,-24.1668,7.7526e-15,-9.14409e-15,-34.3469,-34.6709,98.8405,43.7979,8.5223,5.67885,25.6012,7.12502,31.0173,52.9994,-13.2918,10.2714,13.594,55.8223,-13.3154,-21.0279,-3.32339,-8.94311,-3.80827,-20.9488,30.7354,-17.1662,-0.846392,5.59262
-9.70068,18.5356,-6.8671,-3.52562,75.1387,-2.98831,7.73558,0.171391,-1.948,3.50903,0.170144,0.0246861,-0.71693,0.0994095,1.10491,-6.67204,-2.4023,-7.82647,27.9074,-3.05341,6.49725,10.1757,-1.25032,3.38943,-2.29099e-14,7.15625e-15,-34.4536,-4.33594,-72.3826,33.4604,16.367,-20.3394,5.41287,7.12502,6.01214,-24.4818,-2.29099e-14,7.15625e-15,-34.4286,-34.935,98.9237,43.7164,8.36128,5.7703,25.7923,7.12502,31.1044,53.1738,-13.8824,10.5495,14.0498,55.9803,-13.8788,-21.0813,-3.73127,-9.15876,-4.05866,-20.835,30.6916,-16.8952,-1.76577,6.96184
-9.63228,18.5333,-6.88305,-2.86272,76.1036,-2.43239,7.62991,0.0813392,-2.09494,3.37962,0.0363984,-0.110194,-0.787342,0.0325461,1.05949,-6.59792,-2.56347,-7.89239,28.1019,-3.30937,6.66932,10.2589,-1.35164,3.44243,-3.27995e-15,9.93923e-15,-34.7667,-4.50993,-72.5055,33.6355,16.2044,-20.6416,5.02509,7.12502,5.72038,-24.8777,-3.27995e-15,9.93923e-15,-34.7849,-35.4029,99.0872,43.7195,8.33012,5.75768,25.8032,7.12502,31.0924,53.1871,-14.237,10.7559,14.175,56.1118,-14.7329,-20.8993,-3.47828,-9.14676,-4.11719,-21.0867,30.6326,-16.7679,-2.57868,6.90979
-9.56317,18.529,-6.90037,-1.84503,76.9398,-1.42275,7.59915,-0.0126029,-2.27813,3.28432,-0.105641,-0.303449,-0.86352,-0.0376836,0.974965,-6.51874,-2.67558,-7.77549,28.2503,-3.49821,6.72348,10.3132,-1.41653,3.42651,-2.10712e-14,-8.34896e-15,-34.9757,-4.72455,-72.6651,33.6618,16.4389,-20.94,5.18382,7.12502,5.43229,-24.7266,-2.10712e-14,-8.34896e-15,-35.1121,-35.7085,99.1743,43.7573,8.26536,5.88517,26.0556,7.12502,31.2139,53.4161,-14.5405,11.0705,14.2145,56.217,-15.6126,-20.596,-3.00195,-9.01256,-4.01344,-21.4593,30.5255,-16.7423,-3.27438,6.21202
-9.4992,18.5234,-6.91744,-1.04656,77.6577,-0.719821,7.48533,-0.110205,-2.48175,3.22852,-0.249186,-0.39426,-0.852371,-0.110495,1.00716,-6.47612,-2.74817,-7.57256,28.2495,-3.60268,6.60529,10.3075,-1.45504,3.33709,1.67973e-14,-7.95139e-16,-34.9504,-4.68973,-72.844,33.6377,16.4301,-21.0699,5.32913,7.12502,5.30685,-24.5844,1.67973e-14,-7.95139e-16,-35.1891,-35.7355,99.1679,43.7013,8.06697,6.36693,26.1404,7.12502,31.6729,53.4114,-14.9881,11.5026,14.3438,56.2894,-16.229,-20.2688,-2.96236,-8.92733,-4.01472,-21.7194,30.3454,-16.6735,-3.81931,5.82782
-9.43461,18.5153,-6.93304,-0.035198,78.381,0.217307,7.36262,-0.17286,-2.80469,3.20009,-0.351302,-0.398439,-0.807307,-0.164496,1.19168,-6.44914,-2.84855,-7.56927,28.2324,-3.7267,6.54323,10.306,-1.51739,3.30036,-9.64106e-15,-3.18055e-15,-34.9685,-4.70704,-72.8413,33.7337,16.2883,-20.9478,5.49725,7.12502,5.42479,-24.4133,-9.64106e-15,-3.18055e-15,-35.2065,-35.7882,99.3202,43.5766,7.94683,6.55162,25.7179,7.12502,31.8488,52.954,-15.3966,12.0349,14.4338,56.3066,-16.8336,-19.8824,-3.20444,-8.81118,-4.06896,-22.0107,30.1846,-16.5979,-4.33973,5.64499
-9.37138,18.5053,-6.95011,1.5281,79.1375,1.73839,7.30863,-0.255476,-3.21745,3.16275,-0.487478,-0.392044,-0.80545,-0.235482,1.44024,-6.48274,-2.94786,-7.7706,28.2883,-3.82569,6.53644,10.3476,-1.58235,3.32379,-4.09496e-14,1.19271e-15,-35.0461,-4.71192,-72.7703,33.9166,16.1463,-20.4535,5.63739,7.12502,5.90203,-24.2604,-4.09496e-14,1.19271e-15,-35.2438,-35.8026,99.5391,43.4603,7.8734,6.40099,25.3019,7.12502,31.7053,52.5665,-15.7848,12.43,14.4025,56.2746,-17.4453,-19.2195,-3.57564,-8.70557,-4.17573,-22.4134,30.1151,-16.5441,-4.79192,5.63593
-9.30713,18.4966,-6.96719,2.64112,79.8603,2.76431,7.20721,-0.36744,-3.44062,3.12478,-0.648614,-0.414797,-0.777686,-0.317784,1.55367,-6.51207,-2.99842,-7.86945,28.3029,-3.87267,6.52397,10.3656,-1.61419,3.3317,-7.25564e-15,0,-35.0945,-4.4734,-72.911,34.0904,15.8424,-20.3454,5.59541,7.12502,6.00634,-24.2995,-7.25564e-15,0,-35.3127,-35.857,99.6346,43.4171,7.87254,6.34642,25.3796,7.12502,31.6534,52.6545,-16.2053,12.7012,14.5008,56.1694,-17.928,-18.3108,-4.37355,-8.64792,-4.42376,-22.6856,30.1189,-16.5156,-5.15387,6.10835
-9.24146,18.4908,-6.98196,3.45208,80.5417,3.47488,7.08239,-0.446181,-3.49811,3.09472,-0.75385,-0.500034,-0.734394,-0.370735,1.50488,-6.41003,-3.0327,-7.82655,28.1599,-3.9438,6.57072,10.2981,-1.63879,3.33036,-8.64713e-15,-1.78906e-14,-35.1392,-4.37562,-73.1131,34.2143,15.6402,-21.0863,5.45764,7.12502,5.29099,-24.4563,-8.64713e-15,-1.78906e-14,-35.4371,-36.1183,99.6965,43.4311,7.84918,6.26733,26.0028,7.12502,31.578,53.2924,-16.6058,13.1928,14.7036,55.9715,-18.4284,-17.442,-4.98187,-8.60234,-4.84029,-22.8447,30.1949,-16.5041,-5.54802,7.51272
-9.17781,18.4826,-6.99983,5.24762,81.1744,5.19391,7.00733,-0.510233,-3.70469,3.0623,-0.850454,-0.571427,-0.718647,-0.419947,1.55358,-6.33018,-3.09436,-7.85636,28.0238,-4.0268,6.56428,10.2401,-1.6823,3.32114,-2.06736e-14,-1.27222e-14,-35.1398,-4.39193,-73.1145,34.3322,15.6972,-21.6351,5.26538,7.12502,4.76108,-24.6611,-2.06736e-14,-1.27222e-14,-35.4429,-36.1637,99.7963,43.3517,7.5051,6.52012,26.3995,7.12502,31.8188,53.6417,-17.0153,13.7645,14.6988,55.6985,-19.0119,-16.485,-5.17375,-8.57196,-5.25219,-23.1681,30.3246,-16.4202,-5.96528,9.48065
-9.11742,18.4717,-7.01952,6.12739,81.8112,6.01641,6.9998,-0.609294,-3.79091,3.04445,-0.987389,-0.550744,-0.723317,-0.488798,1.6332,-6.37645,-3.15856,-7.9087,28.0109,-4.08211,6.47733,10.2497,-1.72171,3.29201,1.97294e-14,-5.1684e-15,-35.0969,-4.28192,-73.0664,34.4781,15.7906,-20.9233,5.68067,7.12502,5.44843,-24.2293,1.97294e-14,-5.1684e-15,-35.3597,-36.0386,99.8773,43.1959,7.11603,6.80174,26.0386,7.12502,32.087,53.2271,-17.4367,14.1786,14.8526,55.3578,-19.5192,-15.4176,-6.15419,-8.5623,-5.39273,-23.3226,30.4694,-16.4602,-6.37697,10.2287
-9.05897,18.4596,-7.03515,6.24804,82.4448,6.13597,7.07906,-0.684734,-3.77352,3.04405,-1.08908,-0.536065,-0.762015,-0.538434,1.6472,-6.34099,-3.19664,-7.92507,27.9304,-4.12708,6.45545,10.2172,-1.74684,3.28031,-1.31198e-14,9.14409e-15,-35.0766,-4.1093,-73.1377,34.6004,15.7082,-20.7253,5.96812,7.12502,5.63962,-23.9368,-1.31198e-14,9.14409e-15,-35.3508,-36.0768,99.9727,43.0673,6.80997,6.95416,25.686,7.12502,32.2321,52.8452,-17.7814,14.702,15.17,54.988,-20.218,-14.3422,-7.22795,-8.51639,-5.19305,-23.3366,30.6202,-16.6877,-6.86264,9.70246
-9.00021,18.4451,-7.04812,7.02613,83.0229,7.01373,7.24002,-0.622388,-3.70587,3.0563,-1.00804,-0.720008,-0.847873,-0.493505,1.41613,-6.17145,-3.36521,-7.57538,27.7728,-4.42262,6.43574,10.141,-1.85045,3.17802,-2.82274e-14,1.39149e-14,-35.2429,-4.32336,-73.3267,34.7322,15.4648,-21.5227,5.33026,7.12502,4.86965,-24.5938,-2.82274e-14,1.39149e-14,-35.4923,-36.6611,100.042,42.9801,6.57585,7.17411,25.8129,7.12502,32.4414,52.9293,-17.98,15.3412,15.4158,54.6047,-21.1312,-13.1676,-7.94332,-8.34745,-5.03788,-23.4892,30.808,-16.8544,-7.27803,9.51355
-8.94191,18.4327,-7.05839,6.81794,83.5881,6.89655,7.36368,-0.507935,-3.38531,3.08427,-0.839238,-1.0256,-0.906586,-0.402571,0.910282,-5.9808,-3.60757,-6.8987,27.6153,-4.87466,6.424,10.0628,-1.99209,3.00612,-8.64713e-15,-3.57812e-15,-35.5251,-5.03899,-73.5842,34.8887,15.3362,-21.3898,5.21732,7.12502,4.99801,-24.7037,-8.64713e-15,-3.57812e-15,-35.7167,-37.7007,99.9771,42.9476,6.51222,7.06218,25.9714,7.12502,32.3349,53.1096,-18.1996,15.8968,15.7946,54.191,-22.0074,-11.909,-7.787,-8.17334,-5.04311,-23.5062,31.0308,-16.9224,-7.59793,9.5488
-8.88366,18.4253,-7.07341,6.38356,84.2066,6.34396,7.28405,-0.532526,-3.10407,3.08081,-0.850743,-1.12293,-0.872154,-0.406071,0.652637,-5.91207,-3.70484,-6.70638,27.4958,-5.04127,6.4223,10.013,-2.05095,2.95259,8.24956e-15,9.14409e-15,-35.6238,-5.6871,-73.6617,34.9682,15.6202,-21.1126,5.96321,7.12502,5.26562,-23.9514,8.24956e-15,9.14409e-15,-35.7404,-38.1944,99.9514,42.9006,6.31058,7.15129,26.0196,7.12502,32.4197,53.1405,-18.7054,16.3648,16.1003,53.7583,-22.7732,-10.5553,-7.77995,-8.27675,-4.96707,-23.416,31.2851,-16.8222,-8.0814,10.2916
-8.82395,18.42,-7.09797,7.98846,84.832,7.74682,7.13577,-0.62577,-3.09702,3.05444,-0.969543,-1.02212,-0.811642,-0.467458,0.759867,-5.9732,-3.76045,-7.06341,27.4784,-5.05296,6.40018,10.0307,-2.09437,3.004,3.27995e-15,5.56597e-15,-35.52,-5.74943,-73.4901,34.9981,15.8055,-21.8069,5.97069,7.12502,4.59519,-23.9595,3.27995e-15,5.56597e-15,-35.6599,-38.2311,100.208,42.8697,6.10192,7.40656,26.2134,7.12502,32.6626,53.2842,-19.3456,16.8084,16.082,53.3128,-23.3347,-9.07571,-9.60336,-8.49255,-5.0288,-23.5434,31.5647,-16.6309,-8.59564,12.5321
-8.77404,18.4097,-7.11464,11.5168,85.4323,11.1583,7.21578,-0.67893,-3.27779,3.01117,-1.05608,-0.979523,-0.892826,-0.51065,0.912964,-5.92607,-3.84746,-7.34394,27.3832,-5.14921,6.47275,10.0058,-2.16103,3.0667,2.22639e-14,1.55052e-14,-35.4066,-5.16188,-73.3782,35.0968,15.3336,-22.2695,5.42683,7.12502,4.14849,-24.5125,2.22639e-14,1.55052e-14,-35.6757,-38.417,100.502,42.8859,5.94466,7.53819,26.3637,7.12502,32.7878,53.4084,-19.9869,17.2939,15.9645,52.8769,-23.7099,-7.82645,-11.1322,-8.64982,-4.91143,-23.7761,31.7981,-16.2854,-9.35472,15.4385
-8.73442,18.3949,-7.1212,15.2911,86.1521,14.827,7.49568,-0.783762,-3.34885,2.92366,-1.21495,-1.03526,-1.13134,-0.585307,0.913125,-5.84064,-3.91133,-7.35372,27.2499,-5.25893,6.54967,9.95182,-2.20701,3.08242,2.5842e-14,-5.1684e-15,-35.4091,-4.98053,-73.415,35.1823,15.2426,-21.751,5.73296,7.12502,4.64925,-24.196,2.5842e-14,-5.1684e-15,-35.6721,-38.5547,100.536,42.8256,5.43928,7.90449,26.3866,7.12502,33.1362,53.358,-20.6603,17.7455,15.9962,52.448,-24.0865,-6.81358,-11.5453,-8.81791,-4.4796,-23.8535,31.9035,-16.1856,-10.1449,16.2014
-8.67777,18.3853,-7.1347,18.7464,86.7235,18.1858,7.57191,-0.906139,-3.33725,2.88891,-1.38097,-1.02652,-1.20285,-0.666722,0.930934,-5.92041,-3.95687,-7.43579,27.2808,-5.27988,6.44856,9.98098,-2.23401,3.0576,0,-1.59028e-15,-35.346,-5.18868,-73.34,35.1608,16.1661,-21.2329,5.82706,7.12502,5.14949,-24.0904,0,-1.59028e-15,-35.5369,-38.4206,100.573,42.6299,4.89007,7.81305,26.5411,7.12502,33.0493,53.5309,-21.2162,18.1904,16.0415,52.004,-24.4671,-5.75373,-12.119,-8.8108,-4.27232,-23.9463,31.9493,-17.2371,-9.93332,11.9759
-8.59909,18.3775,-7.16137,24.8782,86.8134,24.2708,7.33774,-0.981556,-3.65586,2.95059,-1.48909,-0.948131,-0.993864,-0.726575,1.19301,-6.02155,-3.91134,-7.69316,27.304,-5.11933,6.25111,10.0002,-2.20596,3.04761,7.10655e-15,1.27222e-14,-35.0208,-4.42609,-73.3002,35.1423,16.5752,-21.5807,4.95365,7.12502,4.81368,-24.9717,7.10655e-15,1.27222e-14,-35.329,-37.9686,100.726,42.4893,4.56589,7.29246,26.7823,7.12502,32.554,53.8756,-21.6645,18.6966,15.7342,51.519,-24.6819,-4.58735,-12.2111,-8.52528,-4.20406,-24.4614,31.931,-17.4241,-9.8629,11.1849
-8.54646,18.3628,-7.16898,35.8387,87.2425,35.1628,7.4302,-1.16797,-4.10876,2.94968,-1.76964,-0.903322,-1.01586,-0.868216,1.51627,-6.01972,-3.84793,-7.75008,27.23,-4.99304,6.14377,9.96189,-2.16607,3.03109,1.1281e-14,2.78299e-15,-34.7146,-3.53171,-73.471,35.1941,15.8383,-21.9627,4.72021,7.12502,4.44478,-25.2132,1.1281e-14,2.78299e-15,-35.2071,-37.7315,100.728,42.4738,4.21936,7.242,26.9681,7.12502,32.506,54.0713,-22.2511,18.9914,15.5027,50.9981,-24.8096,-3.62937,-12.2112,-8.46508,-3.99657,-24.7891,31.8592,-17.4262,-10.099,9.42071
-8.4919,18.3506,-7.17829,49.6518,87.4522,48.9581,7.53601,-1.23352,-4.38229,2.98593,-1.87732,-1.00864,-1.02455,-0.921286,1.57114,-6.05462,-3.90703,-7.79706,27.1972,-5.07705,6.18814,9.96632,-2.20454,3.04483,-1.14798e-14,-1.27222e-14,-34.5724,-3.40319,-73.5402,35.2866,15.2777,-21.5128,4.98259,7.12502,4.87918,-24.9412,-1.14798e-14,-1.27222e-14,-35.0681,-37.8656,100.737,42.377,3.78865,7.32598,27.304,7.12502,32.5859,54.3907,-22.6867,19.496,15.1733,50.3702,-25.0981,-2.72684,-13.3921,-8.38073,-4.0513,-25.1808,31.9272,-17.4742,-10.4308,9.84667
-8.42793,18.3406,-7.19651,63.2668,87.1069,62.6481,7.62085,-1.21699,-4.91602,3.07115,-1.88962,-1.18233,-0.968767,-0.928733,1.6919,-6.18431,-3.96722,-7.99634,27.2399,-5.1506,6.30056,10.0227,-2.24435,3.11063,-5.31749e-15,-1.59028e-15,-34.3778,-3.26512,-73.5092,35.3241,15.0687,-21.0377,5.06561,7.12502,5.33792,-24.8472,-5.31749e-15,-1.59028e-15,-34.8366,-37.8558,100.794,42.2373,3.23516,7.38964,27.2881,7.12502,32.6465,54.3623,-22.9775,19.9718,14.5411,49.7043,-25.2479,-2.38282,-15.4588,-8.10465,-4.30484,-25.9849,32.0299,-17.1714,-10.8326,13.3519
-8.37917,18.3357,-7.20071,70.0494,87.8369,69.1505,7.6083,-1.37698,-4.45388,3.02372,-2.07245,-0.977667,-1.00986,-1.01895,1.65961,-6.40898,-3.97166,-7.97061,27.4046,-5.12989,6.23122,10.1226,-2.2345,3.08412,2.78299e-15,-1.59028e-15,-34.0775,-3.0342,-73.4975,35.2245,14.8055,-21.0865,5.71955,7.12502,5.29083,-24.1944,2.78299e-15,-1.59028e-15,-34.6331,-37.7617,100.703,42.1566,2.76114,7.50064,26.9632,7.12502,32.7521,54.0154,-23.7297,20.1262,15.2987,48.9406,-24.9261,-3.23102,-18.9321,-8.37817,-4.23382,-25.2898,32.1649,-16.4192,-11.6784,16.8451
-8.31989,18.3346,-7.2128,81.868,87.9313,80.9275,7.67014,-1.47423,-4.46877,3.06426,-2.2021,-0.913732,-0.990958,-1.08443,1.74502,-6.71535,-4.03461,-7.93505,27.7051,-5.13164,5.94984,10.2864,-2.25403,2.97849,1.63997e-14,-5.56597e-15,-33.8334,-2.68749,-73.4678,35.1548,14.641,-22.1367,5.42346,7.12502,4.27681,-24.5133,1.63997e-14,-5.56597e-15,-34.4835,-37.7613,100.716,42.1128,2.48161,7.37714,27.0486,7.12502,32.6346,54.1252,-24.1987,20.3326,15.374,48.2146,-24.8049,-3.29551,-21.2594,-8.2676,-4.05498,-25.3256,32.2293,-16.1207,-12.1515,18.1216
-8.2618,18.332,-7.23137,94.2054,87.7407,93.2866,7.80711,-1.55176,-4.56193,3.11658,-2.31387,-0.887984,-1.00026,-1.14008,1.83571,-6.90439,-4.12182,-8.15223,27.9213,-5.15999,5.78956,10.4109,-2.30151,2.95644,-5.46658e-16,7.95139e-16,-33.6467,-2.40865,-73.3952,35.1243,14.5491,-23.0397,4.72068,7.12502,3.4048,-25.2319,-5.46658e-16,7.95139e-16,-34.3394,-37.7465,100.862,42.0924,2.21512,8.13531,27.8885,7.12502,33.3557,54.813,-24.5472,20.6609,15.1099,47.4684,-24.9278,-2.44357,-20.8942,-8.09193,-3.98074,-25.6263,32.3157,-16.0373,-12.4615,18.1994
-8.20407,18.3305,-7.24596,105.55,87.7998,104.562,7.85466,-1.65886,-4.3792,3.15955,-2.44166,-0.780206,-0.977383,-1.20421,1.8556,-6.96164,-4.11723,-8.36644,27.9428,-5.11106,5.79183,10.4339,-2.29995,2.99945,-2.65378e-14,8.74653e-15,-33.3508,-2.40892,-73.3211,35.0399,14.2729,-22.5034,5.55908,7.12502,3.92264,-24.3846,-2.65378e-14,8.74653e-15,-34.2376,-37.7778,100.949,42.1481,2.03644,9.49301,29.3768,7.12502,34.6453,56.0149,-25.037,20.972,15.214,46.757,-25.0314,-1.7388,-20.0913,-7.96738,-3.86002,-25.5403,32.2605,-15.8799,-12.7208,18.6769
-8.14458,18.3305,-7.25881,114.474,87.8359,113.456,7.94591,-1.71719,-4.24996,3.20405,-2.51,-0.655852,-0.977729,-1.23846,1.91932,-6.94731,-4.08039,-8.41645,27.8634,-5.0289,5.71343,10.3947,-2.27665,2.98767,-3.27995e-14,-2.18663e-15,-33.0379,-2.14233,-73.28,35.0268,13.9624,-22.4285,5.74869,7.12502,3.99502,-24.1936,-3.27995e-14,-2.18663e-15,-34.0876,-37.7573,100.962,42.1592,1.60786,9.43891,29.7848,7.12502,34.594,56.4347,-25.5234,21.3473,15.3828,46.0057,-25.0062,-1.32133,-20.4216,-7.7786,-3.6595,-25.4389,32.1851,-15.8319,-12.8652,18.9187
-8.08318,18.3283,-7.27214,120.302,87.6754,119.319,8.07007,-1.73528,-4.32729,3.26009,-2.54006,-0.542974,-0.977276,-1.25454,2.08455,-6.94368,-4.09969,-8.52714,27.8525,-5.00912,5.61945,10.3906,-2.28858,2.97479,1.44616e-14,-8.15017e-15,-32.7704,-1.62855,-73.1548,35.0125,13.938,-22.9358,5.37981,7.12502,3.50505,-24.5711,1.44616e-14,-8.15017e-15,-33.7676,-37.5182,100.966,41.9922,0.868911,8.55761,29.0003,7.12502,33.757,55.8376,-25.7684,21.8453,15.2642,45.224,-25.0242,-0.201096,-19.445,-7.50897,-3.46555,-25.5428,32.1363,-15.8559,-13.0034,17.6906
-8.01793,18.3317,-7.28324,126.467,87.4406,125.509,8.1158,-1.79692,-4.4,3.33791,-2.62287,-0.453898,-0.908319,-1.29848,2.22354,-6.9975,-4.1221,-8.73043,27.8994,-5.00487,5.64206,10.4263,-2.30369,3.0187,8.94531e-15,-1.31198e-14,-32.5308,-1.30059,-73.058,34.9664,13.9774,-22.6351,5.809,7.12502,3.7955,-24.1369,8.94531e-15,-1.31198e-14,-33.4814,-37.318,100.955,41.8566,0.416067,7.84932,28.0782,7.12502,33.0838,55.0607,-26.0209,21.9783,15.202,44.3883,-24.6438,0.695578,-19.3836,-7.20186,-3.49057,-25.6432,32.043,-15.7551,-13.1749,17.4003
-7.95574,18.3355,-7.29714,130.752,87.1406,129.838,8.24996,-1.87864,-4.41058,3.40157,-2.73342,-0.477855,-0.909158,-1.35273,2.21736,-6.97875,-4.09943,-8.73224,27.8563,-4.9755,5.65304,10.4042,-2.28941,3.02584,-3.95085e-14,-4.77083e-15,-32.3543,-1.25946,-73.091,34.9412,14.1846,-22.7236,5.48751,7.12502,3.71001,-24.4599,-3.95085e-14,-4.77083e-15,-33.3291,-37.2848,100.868,41.8203,0.233112,7.00596,27.4491,7.12502,32.2814,54.5982,-26.2535,21.9574,15.1522,43.5139,-23.9367,1.09835,-20.5431,-6.88589,-3.48821,-25.7748,31.9219,-15.387,-13.5011,18.6311
-7.89199,18.3412,-7.31489,133.022,86.9143,132.091,8.30897,-1.83465,-4.25585,3.42814,-2.66513,-0.62967,-0.934207,-1.31487,1.97057,-6.83483,-4.15906,-8.48288,27.8355,-5.13112,5.74346,10.3745,-2.32458,2.9998,2.63887e-14,-9.14409e-15,-32.38,-1.69517,-73.1492,34.9843,14.3811,-23.1706,4.85631,7.12502,3.27831,-25.0982,2.63887e-14,-9.14409e-15,-33.3807,-37.7255,100.84,41.8324,0.117827,6.21329,26.9726,7.12502,31.5265,54.2724,-26.5348,22.2912,14.9404,42.5891,-23.1461,1.99653,-19.4081,-6.62928,-3.18853,-25.8998,31.7733,-14.9282,-13.8574,19.1296
-7.82374,18.3453,-7.33069,136.34,86.8063,135.299,8.17845,-1.65811,-3.87202,3.43538,-2.39796,-0.846572,-0.899085,-1.17737,1.50587,-6.57949,-4.35661,-8.03301,27.8521,-5.53564,5.90852,10.3523,-2.44387,2.94068,-6.70898e-15,1.13307e-14,-32.6397,-2.52315,-73.1831,35.1133,14.521,-22.7914,5.19671,7.12502,3.64457,-24.7519,-6.70898e-15,1.13307e-14,-33.583,-38.5999,100.85,41.8735,-0.169297,5.9517,25.9301,7.12502,31.2773,53.2783,-26.908,22.62,14.8789,41.6082,-22.3913,2.55151,-18.6405,-6.45014,-2.92615,-25.9144,31.6033,-14.5897,-14.0285,19.438
-7.75658,18.3519,-7.34492,140.761,86.6538,139.654,8.12587,-1.60449,-3.58401,3.46189,-2.30217,-0.891129,-0.862272,-1.12755,1.28897,-6.45033,-4.48621,-7.7427,27.9043,-5.73769,5.79966,10.3498,-2.51597,2.83181,2.75814e-14,2.20651e-14,-32.698,-2.8308,-73.1446,35.1844,14.8266,-22.5574,5.61874,7.12502,3.87055,-24.3258,2.75814e-14,2.20651e-14,-33.6782,-39.064,100.916,41.941,-0.334946,6.06954,26.033,7.12502,31.3896,53.3594,-27.2064,22.9498,14.8623,40.6142,-21.5372,2.97199,-16.8853,-6.18287,-2.98014,-25.9064,31.3553,-14.348,-13.9435,19.8614
-7.68812,18.3659,-7.35992,145.998,86.4485,144.851,8.13419,-1.70024,-3.39432,3.48294,-2.41344,-0.757638,-0.842445,-1.18323,1.32944,-6.44967,-4.49052,-7.74064,28.0217,-5.68081,5.58448,10.3834,-2.50957,2.76259,-1.8487e-14,7.55382e-15,-32.4897,-2.54722,-73.0698,35.1513,14.8954,-22.9251,5.73501,7.12502,3.5154,-24.2158,-1.8487e-14,7.55382e-15,-33.7624,-39.206,101.097,42.0902,-0.131222,6.5509,27.5056,7.12502,31.8481,54.7419,-27.4256,23.068,14.9048,39.6236,-20.5054,3.3589,-15.0115,-5.83276,-3.16637,-25.8448,31.0193,-14.1655,-13.7524,19.7478
-7.62105,18.3795,-7.38051,148.512,86.0274,147.298,8.17148,-1.80787,-3.30283,3.46549,-2.55128,-0.730261,-0.877602,-1.25075,1.3196,-6.36521,-4.50219,-7.75189,28.0898,-5.6705,5.50046,10.3899,-2.5129,2.73834,3.65764e-14,8.94531e-15,-32.2931,-2.42676,-72.9542,35.021,14.9071,-22.9246,6.25548,7.12502,3.51587,-23.6953,3.65764e-14,8.94531e-15,-33.812,-39.2868,101.194,42.1587,-0.283397,7.42811,27.7156,7.12502,32.6831,54.7822,-27.7005,22.9429,14.6874,38.6535,-19.5161,3.65138,-14.906,-5.48705,-3.22944,-26.0266,30.6129,-14.0351,-13.6674,18.8946
-7.55674,18.3884,-7.40409,147.764,85.4224,146.515,8.25951,-1.8586,-3.30711,3.47042,-2.62119,-0.809533,-0.921322,-1.28332,1.24937,-6.33493,-4.60128,-7.93029,28.192,-5.78696,5.54655,10.4402,-2.5764,2.77491,-1.93815e-15,5.96354e-16,-32.1866,-2.58101,-72.6892,34.9337,15.0546,-22.4501,7.17499,7.12502,3.97417,-22.7677,-1.93815e-15,5.96354e-16,-33.767,-39.4117,101.345,42.0591,-0.473215,7.69043,27.0474,7.12502,32.9326,54.0618,-27.9285,22.8157,14.1769,37.6985,-18.5843,3.6698,-14.9956,-5.08783,-3.26182,-26.5276,30.149,-13.8112,-13.6076,17.9036
-7.48702,18.3982,-7.41935,147.726,85.0229,146.439,8.26737,-1.7596,-3.20227,3.49044,-2.48054,-0.826784,-0.916906,-1.21181,1.16111,-6.28195,-4.78577,-8.28783,28.2986,-6.04582,5.78891,10.5132,-2.70176,2.89753,-3.39425e-14,7.45443e-15,-32.2616,-2.88894,-72.3126,35.0009,15.0533,-22.2525,7.78364,7.12502,4.16497,-22.1554,-3.39425e-14,7.45443e-15,-33.823,-39.8922,101.737,41.9461,-0.44906,7.53332,26.9726,7.12502,32.7832,54.0183,-28.0837,22.8519,13.8954,36.7589,-17.7026,3.44052,-14.3299,-4.6378,-3.14158,-26.7997,29.6272,-13.4519,-13.6484,17.5301
-7.41252,18.4105,-7.43012,148.371,84.7435,146.976,8.2033,-1.71619,-3.23946,3.44947,-2.42553,-0.788981,-0.922994,-1.18525,1.21482,-6.08774,-4.85782,-8.32146,28.3179,-6.16365,5.86254,10.4962,-2.74978,2.9209,-1.45361e-14,3.97569e-16,-32.3439,-3.0244,-72.1267,35.0839,15.0187,-22.4635,7.81491,7.12502,3.96122,-22.128,-1.45361e-14,3.97569e-16,-33.976,-40.101,102.024,41.8946,-0.520849,7.46821,27.1304,7.12502,32.7213,54.1891,-28.3128,22.817,13.7651,35.8546,-16.8012,3.06552,-13.5566,-4.2189,-2.85484,-26.8799,29.0538,-13.014,-13.8587,17.9856
-7.33608,18.4255,-7.44157,148.763,84.3875,147.242,8.11339,-1.81735,-3.4486,3.41148,-2.57359,-0.735695,-0.893635,-1.26205,1.39628,-5.98906,-4.81591,-8.1652,28.3556,-6.07624,5.66165,10.4715,-2.71383,2.83415,-8.26199e-15,-1.98785e-15,-32.2517,-2.90393,-72.0662,35.1429,15.0143,-22.4616,7.93096,7.12502,3.96304,-22.0119,-8.26199e-15,-1.98785e-15,-34.0909,-39.9448,102.11,41.9018,-0.581499,7.36191,27.005,7.12502,32.6201,54.0846,-28.5623,22.7797,13.5363,34.9855,-15.7866,2.23771,-12.3865,-3.78306,-2.66958,-27.0268,28.4449,-12.5668,-14.049,18.6555
-7.25583,18.4441,-7.45449,148.863,84.0328,147.237,7.96046,-1.83866,-3.4546,3.43037,-2.5954,-0.733985,-0.788286,-1.27508,1.397,-6.02089,-4.89585,-8.14989,28.4368,-6.14617,5.51613,10.5097,-2.75691,2.7716,-8.19987e-16,1.93318e-14,-32.205,-3.15787,-71.8515,35.2171,15.0718,-22.153,8.33991,7.12502,4.26102,-21.5972,-8.19987e-16,1.93318e-14,-34.1332,-40.0772,102.241,41.8605,-0.607816,7.5768,26.6874,7.12502,32.8246,53.7245,-28.749,22.8591,13.2673,34.1467,-14.8868,1.06146,-11.4688,-3.28774,-2.61255,-27.2205,27.8107,-12.142,-14.1466,19.0851
-7.1755,18.4628,-7.466,148.865,83.7137,147.14,7.83353,-1.82321,-3.41974,3.4488,-2.56667,-0.757012,-0.70334,-1.26182,1.34646,-6.03336,-4.9566,-8.25495,28.4382,-6.25172,5.66781,10.5305,-2.79827,2.83243,-3.06501e-14,1.73937e-15,-32.1888,-3.56036,-71.6639,35.2695,15.1439,-21.7964,8.479,7.12502,4.60535,-21.4509,-3.06501e-14,1.73937e-15,-34.1879,-40.3036,102.416,41.7689,-0.565875,7.60315,26.8171,7.12502,32.8496,53.8489,-28.9198,22.8938,13.0529,33.3484,-14.1214,-0.14942,-11.3595,-2.77757,-2.53859,-27.4005,27.1555,-11.6997,-14.1938,19.0049
-7.09727,18.4764,-7.47296,149.891,83.3994,148.055,7.77251,-1.87494,-3.46629,3.41615,-2.63764,-0.663193,-0.693226,-1.29908,1.47286,-5.83416,-4.84937,-8.52283,28.0845,-6.18067,6.08065,10.3755,-2.75673,3.03373,6.5366e-15,-1.61513e-16,-32.1498,-3.35898,-71.6078,35.386,14.9775,-22.0518,7.52899,7.12502,4.35873,-22.4062,6.5366e-15,-1.61513e-16,-34.3276,-40.3238,102.663,41.7295,-0.576064,7.50043,27.0766,7.12502,32.7519,54.1288,-29.0956,22.9316,12.9277,32.5597,-13.4056,-1.42811,-10.4878,-2.32831,-2.39389,-27.4353,26.5358,-11.3568,-14.2755,18.0979
-7.01654,18.4873,-7.47965,151.172,83.1089,149.2,7.6764,-1.91446,-3.44117,3.3565,-2.68807,-0.569598,-0.695988,-1.3255,1.55666,-6.03336,-5.04288,-8.60768,28.7074,-6.36385,5.89756,10.6644,-2.85342,2.96932,5.25537e-15,2.43511e-15,-32.2004,-3.00029,-71.6407,35.5504,14.8339,-22.7238,5.98912,7.12502,3.7098,-23.9583,5.25537e-15,2.43511e-15,-34.5622,-40.3877,102.894,41.7351,-0.538567,7.64628,26.9742,7.12502,32.8906,53.9974,-29.2311,23.0269,12.8015,31.7137,-12.8298,-2.75845,-8.80614,-1.95158,-2.35858,-27.4342,26.0341,-11.1688,-14.2977,17.6229
-6.93088,18.4987,-7.4844,152.556,82.9708,150.483,7.53521,-1.9231,-3.38153,3.33672,-2.69137,-0.459477,-0.635873,-1.32943,1.63182,-6.03861,-5.12713,-8.59336,28.8698,-6.46385,5.84381,10.7341,-2.89867,2.93873,-2.12327e-14,1.2921e-15,-32.2129,-2.8624,-71.6471,35.6522,14.8607,-22.9336,5.20923,7.12502,3.50721,-24.7417,-2.12327e-14,1.2921e-15,-34.7956,-40.5189,103.059,41.7832,-0.339956,7.55676,27.2773,7.12502,32.8055,54.3183,-29.291,23.1193,12.8441,30.8342,-12.236,-4.0788,-6.93868,-1.57642,-2.31756,-27.3285,25.6311,-11.0141,-14.3018,18.0659
-6.84358,18.5071,-7.48693,155.224,82.8761,153.063,7.40179,-1.96614,-3.19569,3.31601,-2.7322,-0.271978,-0.581464,-1.35164,1.71906,-5.87561,-5.12586,-8.62054,28.5992,-6.48444,5.89385,10.6039,-2.91174,2.95726,3.13086e-15,-6.95746e-16,-32.2037,-2.64231,-71.6024,35.7193,14.5878,-23.1689,5.02402,7.12502,3.27997,-24.9305,3.13086e-15,-6.95746e-16,-34.8891,-40.3648,103.215,41.6963,-0.267423,7.3896,27.6301,7.12502,32.6465,54.7043,-29.3183,22.941,13.2036,29.9642,-11.4416,-5.41401,-5.18764,-1.23156,-2.19452,-26.9888,25.2683,-10.7415,-14.4707,18.5525
-6.75827,18.5149,-7.49206,157.272,82.6494,154.967,7.30869,-2.02713,-3.01453,3.24278,-2.80195,-0.158294,-0.605537,-1.38617,1.73783,-5.5102,-5.01161,-8.57458,27.8874,-6.40536,6.05429,10.261,-2.8705,3.01039,4.27387e-15,8.24956e-15,-32.2522,-2.64754,-71.5411,35.746,14.3779,-23.5387,4.90187,7.12502,2.92285,-25.0578,4.27387e-15,8.24956e-15,-34.9495,-40.0562,103.307,41.494,-0.363529,7.59323,27.1876,7.12502,32.8402,54.2214,-29.3716,22.4703,13.5478,29.1556,-10.6428,-6.97703,-5.53696,-0.931009,-2.15208,-26.7778,24.8764,-10.3861,-14.6467,18.6582
-6.67165,18.5176,-7.49803,157.493,82.3564,155.021,7.20698,-2.0507,-3.02693,3.17501,-2.83479,-0.154072,-0.616739,-1.40304,1.74892,-5.51048,-5.09844,-8.55794,27.9308,-6.54258,6.10873,10.2904,-2.92419,3.01259,-5.1858e-14,-6.26172e-15,-32.3438,-2.95182,-71.4783,35.821,14.53,-23.4974,4.71273,7.12502,2.96276,-25.2464,-5.1858e-14,-6.26172e-15,-35.1462,-40.0641,103.382,41.4304,-0.311298,7.88123,26.7429,7.12502,33.1141,53.719,-29.4404,22.1336,13.5658,28.4309,-10.3594,-8.60635,-5.5365,-0.604015,-2.19652,-26.8405,24.4479,-10.1232,-14.7029,18.5642
-6.58273,18.519,-7.50456,156.671,81.9901,154.084,7.13298,-2.05252,-3.13563,3.1324,-2.84461,-0.224628,-0.617309,-1.40838,1.73575,-5.46288,-5.16145,-8.58739,27.8909,-6.68217,6.31644,10.2865,-2.9693,3.07732,3.54334e-14,-7.15625e-15,-32.4805,-3.29416,-71.4405,35.9442,14.6005,-23.5282,4.66047,7.12502,2.93301,-25.2991,3.54334e-14,-7.15625e-15,-35.4053,-40.2626,103.53,41.3836,-0.156935,7.83356,26.684,7.12502,33.0688,53.6697,-29.5532,22.0805,13.2067,27.8672,-10.9759,-10.0742,-2.90527,-0.161102,-2.23119,-27.0588,23.9359,-9.87227,-14.7831,18.8657
-6.49282,18.5178,-7.51185,155.857,81.6279,153.183,7.10312,-2.0668,-3.26172,3.08863,-2.87303,-0.267668,-0.640112,-1.42283,1.76371,-5.46735,-5.2112,-8.5798,27.9005,-6.77173,6.39473,10.3012,-2.99987,3.09443,-2.83268e-15,-1.80894e-14,-32.5919,-3.56476,-71.3824,36.0248,14.4851,-23.831,4.47827,7.12502,2.64053,-25.4851,-2.83268e-15,-1.80894e-14,-35.6424,-40.3275,103.68,41.3456,-0.00850498,7.73526,26.7576,7.12502,32.9753,53.763,-29.6024,21.6437,13.0496,27.408,-11.504,-11.4052,-2.66545,0.310917,-2.01199,-27.2493,23.4097,-9.47016,-15.0756,19.0496
-6.40069,18.52,-7.51615,155.579,81.3559,152.759,6.9417,-2.08131,-3.42034,3.06804,-2.89783,-0.22952,-0.560234,-1.4387,1.88674,-5.49473,-5.27052,-8.42157,27.8877,-6.83546,6.23186,10.2953,-3.02932,3.00037,-2.02263e-14,6.16232e-15,-32.622,-3.61606,-71.3268,36.0869,14.2622,-23.8339,4.23834,7.12502,2.63781,-25.7251,-2.02263e-14,6.16232e-15,-35.8013,-40.3058,103.756,41.378,0.264555,7.77207,27.061,7.12502,33.0103,54.0591,-29.6805,21.182,13.0613,27.0165,-11.9373,-12.7327,-2.76239,0.701042,-1.60119,-27.2731,22.894,-8.80604,-15.5991,19.1884
-6.30843,18.5231,-7.51877,155.454,81.1337,152.475,6.72747,-2.07655,-3.56152,3.06697,-2.89255,-0.166668,-0.432176,-1.44083,2.0206,-5.47058,-5.36548,-8.37664,27.794,-6.95461,6.13936,10.2615,-3.09116,2.94437,-3.18055e-15,5.96354e-15,-32.6107,-3.69489,-71.2347,36.098,14.2112,-23.6352,4.59441,7.12502,2.82963,-25.3666,-3.18055e-15,5.96354e-15,-35.855,-40.2103,103.826,41.303,0.547717,7.91476,27.0633,7.12502,33.146,54.0326,-29.7941,21.0686,13.0227,26.6685,-12.501,-14.2226,-2.09153,1.0558,-1.37832,-27.2513,22.447,-8.17856,-16.0758,20.0475
-6.21381,18.5222,-7.52264,155.145,80.9364,152.073,6.6173,-2.04839,-3.65113,3.04797,-2.85732,-0.11711,-0.38558,-1.4257,2.11516,-5.40821,-5.45489,-8.54984,27.7105,-7.09278,6.27687,10.2436,-3.15966,3.00754,-3.15571e-14,-5.56597e-15,-32.6856,-3.87434,-71.1282,36.0951,14.22,-23.6083,5.01256,7.12502,2.85567,-24.9481,-3.15571e-14,-5.56597e-15,-35.9566,-40.1083,103.961,41.1741,0.815729,8.07536,26.9826,7.12502,33.2987,53.9193,-29.8359,21.1773,12.9322,26.3449,-13.1126,-15.6679,-1.70962,1.46658,-1.4335,-27.3361,22.0986,-7.92669,-16.2257,20.3466
-6.11697,18.5161,-7.52596,155.594,80.7408,152.397,6.47663,-2.04494,-3.60932,3.00818,-2.84742,-0.0522194,-0.348171,-1.42218,2.15301,-5.27068,-5.50534,-8.58352,27.5425,-7.1817,6.33924,10.1666,-3.20157,3.02584,1.34677e-14,1.66979e-14,-32.7268,-4.08025,-71.0927,36.0363,14.0709,-23.7375,4.8707,7.12502,2.73086,-25.0916,1.34677e-14,1.66979e-14,-36.0318,-39.9171,104.035,40.9956,0.950041,8.09813,26.7827,7.12502,33.3203,53.7148,-29.8803,21.0344,13.0051,26.0354,-13.4734,-16.7118,-1.98465,1.80119,-1.37299,-27.2924,21.8311,-7.66363,-16.435,19.7325
-6.02192,18.5091,-7.53017,156.483,80.5175,153.146,6.35332,-2.11258,-3.48466,2.95965,-2.92839,0.0387138,-0.32662,-1.46317,2.17764,-5.19569,-5.50747,-8.57068,27.3979,-7.1705,6.25843,10.0945,-3.20715,2.99508,1.44616e-14,1.31198e-14,-32.6682,-4.20989,-71.0546,35.9081,13.9351,-23.9544,4.87067,7.12502,2.52137,-25.0942,1.44616e-14,1.31198e-14,-35.9846,-39.4505,104.006,40.705,0.904162,8.1093,26.0466,7.12502,33.3309,52.9764,-29.9215,20.9736,13.0936,25.7686,-13.7216,-17.8015,-2.27994,2.06961,-1.18974,-27.1257,21.617,-7.16046,-16.84,19.5975
-5.92557,18.503,-7.53673,156.515,80.3078,153.081,6.30952,-2.16743,-3.47028,2.90441,-3.00141,0.116781,-0.351246,-1.49989,2.25362,-5.23762,-5.50947,-8.6142,27.399,-7.13191,6.1323,10.0975,-3.20615,2.96056,-8.15017e-15,-1.31198e-14,-32.7193,-4.12871,-70.9737,35.8835,13.8804,-24.0958,5.14841,7.12502,2.38486,-24.818,-8.15017e-15,-1.31198e-14,-36.1158,-39.1099,104.108,40.5977,1.10515,8.15173,26.1231,7.12502,33.3713,53.0442,-29.9316,21.4516,12.9101,25.5715,-14.1518,-19.249,-1.94619,2.3623,-1.23197,-27.1466,21.4632,-6.75648,-17.0371,19.9277
-5.82498,18.4991,-7.54318,156.489,80.1842,152.96,6.23107,-2.17208,-3.42907,2.85327,-3.00513,0.177443,-0.359207,-1.50202,2.29107,-5.24632,-5.56217,-8.63064,27.4033,-7.18078,6.04796,10.1033,-3.23836,2.92739,-2.127e-14,7.15625e-15,-32.8072,-4.11853,-70.941,35.8589,14.0492,-23.9111,4.94,7.12502,2.56317,-25.0243,-2.127e-14,7.15625e-15,-36.3465,-38.9114,104.24,40.5953,1.47885,8.09132,27.0919,7.12502,33.3139,54.0254,-29.9418,21.7629,12.8219,25.4977,-14.5828,-20.2773,-1.29069,2.65791,-1.34493,-27.1756,21.3196,-6.50183,-17.0923,19.9028
-5.72418,18.495,-7.54903,156.463,80.0844,152.867,6.20557,-2.16585,-3.3763,2.80531,-2.99529,0.214963,-0.396029,-1.49637,2.2998,-5.20555,-5.62864,-8.6663,27.371,-7.28393,6.09817,10.0962,-3.28474,2.94021,4.96962e-16,8.34896e-15,-32.8886,-4.34836,-70.9087,35.7882,14.3954,-23.7071,4.50958,7.12502,2.76024,-25.4523,4.96962e-16,8.34896e-15,-36.3526,-38.4264,104.131,40.363,1.86794,8.40683,27.1119,7.12502,33.6137,53.9805,-29.8958,21.5428,12.9389,25.563,-14.853,-20.5597,-0.958823,3.00201,-1.38429,-27.1689,21.1561,-6.22144,-17.1788,19.5985
-5.62198,18.4885,-7.55232,155.768,79.9388,152.123,6.21505,-2.11007,-3.47479,2.76136,-2.92887,0.225821,-0.445046,-1.46306,2.36377,-5.14029,-5.69782,-8.63723,27.3196,-7.4011,6.15122,10.0757,-3.33073,2.94196,1.17283e-14,3.57812e-15,-33.057,-4.71109,-70.8053,35.7764,14.6565,-23.8575,4.31223,7.12502,2.61494,-25.6515,1.17283e-14,3.57812e-15,-36.326,-38.0142,104.002,40.1137,2.41205,9.37978,25.9349,7.12502,34.5378,52.5976,-29.7938,21.1795,12.9875,25.7184,-14.8806,-20.4946,-1.14453,3.38101,-1.47243,-27.2935,21.0184,-5.9356,-17.256,19.3616
-5.51378,18.484,-7.55338,155.42,79.8337,151.742,6.13596,-2.07309,-3.47663,2.75285,-2.87766,0.244296,-0.412274,-1.43849,2.37766,-5.13592,-5.74002,-8.55081,27.3143,-7.46635,6.12995,10.0737,-3.35322,2.91252,4.47266e-15,7.95139e-15,-33.1597,-4.96335,-70.8037,35.7546,14.664,-23.7885,4.40613,7.12502,2.68166,-25.5568,4.47266e-15,7.95139e-15,-36.4742,-37.9216,104.013,40.1299,3.04512,9.98681,25.5763,7.12502,35.1138,52.1057,-29.6581,21.0412,13.0641,25.9685,-14.8465,-20.3729,-0.7101,3.76959,-1.47811,-27.3071,20.8815,-5.57085,-17.4488,19.4348
-5.40449,18.4788,-7.5547,155.895,79.8407,152.156,6.01081,-2.12245,-3.31202,2.73058,-2.93115,0.342989,-0.365749,-1.46596,2.3853,-5.18754,-5.72914,-8.58971,27.385,-7.42105,6.04897,10.1049,-3.34246,2.89504,-5.1684e-15,-9.14409e-15,-33.1212,-4.6975,-70.9285,35.6771,14.3433,-23.5002,4.34128,7.12502,2.96009,-25.6179,-5.1684e-15,-9.14409e-15,-36.6183,-37.5807,104.014,40.1829,3.53021,9.89751,26.2215,7.12502,35.0291,52.7708,-29.6139,21.1161,13.2697,26.2721,-14.6071,-20.341,-0.180664,4.1064,-1.35426,-27.107,20.7512,-5.08472,-17.6967,19.5426
-5.29607,18.4697,-7.55878,155.908,79.7842,152.066,5.88691,-2.15965,-3.20671,2.67268,-2.97377,0.420809,-0.355357,-1.48755,2.40484,-5.1257,-5.73045,-8.66202,27.3457,-7.38995,5.9518,10.076,-3.34672,2.8769,-2.54444e-14,-7.95139e-16,-33.1106,-4.27922,-71.0227,35.5435,14.0221,-23.5783,4.05677,7.12502,2.88464,-25.9035,-2.54444e-14,-7.95139e-16,-36.6057,-36.9714,103.975,39.9419,3.66921,9.86809,26.2658,7.12502,35.0012,52.8216,-29.592,20.8472,13.4636,26.601,-13.9991,-20.1113,-0.239097,4.4084,-1.38666,-27.0608,20.6458,-4.59548,-17.7822,19.4417
-5.18369,18.4593,-7.56436,155.498,79.6444,151.636,5.78993,-2.13711,-3.07353,2.66118,-2.93535,0.358755,-0.326344,-1.46758,2.26066,-5.02472,-5.74914,-8.51712,27.2579,-7.43429,5.92489,10.0202,-3.35688,2.83928,-4.8901e-14,2.34566e-14,-33.2018,-4.41401,-71.1147,35.3711,13.9341,-23.6558,4.2783,7.12502,2.80977,-25.6829,-4.8901e-14,2.34566e-14,-36.6514,-36.7048,103.915,39.7034,3.72374,9.96497,26.1846,7.12502,35.0931,52.7188,-29.4641,20.3689,13.6776,26.9889,-13.1098,-19.8702,-0.0634082,4.82799,-1.4822,-27.1133,20.5066,-4.10655,-17.8564,19.4563
-5.06716,18.4531,-7.57134,154.801,79.5041,151.001,5.73661,-2.12637,-2.99237,2.70065,-2.91414,0.298401,-0.264886,-1.45695,2.14885,-5.04224,-5.74735,-8.38555,27.3232,-7.43529,5.88125,10.0395,-3.3455,2.8022,1.00386e-14,1.66979e-14,-33.2824,-4.68767,-71.1673,35.2434,13.9308,-23.5689,4.75368,7.12502,2.89374,-25.2064,1.00386e-14,1.66979e-14,-36.7736,-36.5311,103.886,39.6811,3.84723,9.97859,26.4908,7.12502,35.106,53.022,-29.2374,19.7931,13.9236,27.4432,-11.9909,-19.6584,0.801212,5.36617,-1.53398,-27.2011,20.3159,-3.58203,-17.9417,19.4431
-4.94766,18.4564,-7.5821,154.062,79.3604,150.333,5.70508,-2.17513,-2.964,2.72264,-2.97525,0.356642,-0.219452,-1.48846,2.19399,-5.0698,-5.73744,-8.42971,27.4243,-7.36592,5.70964,10.0724,-3.33247,2.75701,-2.65378e-14,-1.90833e-14,-33.3136,-4.66201,-71.1173,35.1442,14.1051,-23.7039,4.73589,7.12502,2.76329,-25.226,-2.65378e-14,-1.90833e-14,-36.7731,-35.9487,103.906,39.6187,3.83573,10.0742,26.6352,7.12502,35.1968,53.1451,-28.968,19.0606,14.1891,27.9043,-11.0848,-19.316,2.13442,5.90258,-1.63164,-27.323,20.1375,-3.0248,-17.9884,18.9641
-4.82731,18.4622,-7.59048,154.321,79.32,150.636,5.67741,-2.21558,-2.76495,2.68904,-3.01895,0.482268,-0.240024,-1.50924,2.21378,-4.98594,-5.74157,-8.47495,27.5029,-7.321,5.54208,10.0781,-3.33141,2.71326,1.67973e-14,-1.11319e-14,-33.393,-4.64581,-71.0575,35.0102,14.4241,-23.8558,4.60823,7.12502,2.61662,-25.3555,1.67973e-14,-1.11319e-14,-36.7626,-35.3115,103.959,39.4345,3.85073,9.99714,26.5794,7.12502,35.1236,53.1065,-28.7966,18.8296,14.5493,28.3607,-10.6483,-19.215,3.04258,6.37172,-1.75591,-27.228,19.9896,-2.44845,-18.0138,18.3612
-4.71102,18.4674,-7.60037,155.351,79.2237,151.836,5.82442,-2.25998,-2.34738,2.66876,-3.05897,0.580294,-0.357712,-1.52404,2.09065,-4.88167,-5.76863,-8.49865,27.6,-7.33711,5.47706,10.0944,-3.34472,2.69657,7.95139e-15,2.22639e-14,-33.5129,-4.73621,-71.0235,34.9051,14.5686,-23.6674,4.77052,7.12502,2.79857,-25.1909,7.95139e-15,2.22639e-14,-36.8067,-34.9425,104.032,39.2239,4.05444,9.52598,26.6129,7.12502,34.6766,53.2439,-28.5085,18.9456,14.9636,28.7859,-10.2817,-19.323,3.1956,6.90212,-2.13177,-27.0445,19.946,-1.82963,-17.8601,18.3437
-4.59665,18.4787,-7.61752,156.406,78.9675,153.18,6.09278,-2.38122,-1.80586,2.69994,-3.19155,0.649966,-0.49419,-1.58329,1.87911,-4.865,-5.7746,-8.52143,27.726,-7.30971,5.37396,10.1332,-3.34086,2.66905,8.54774e-15,-7.15625e-15,-33.5695,-4.66824,-71.0216,34.8295,14.5248,-23.4495,4.83903,7.12502,3.00905,-25.1195,8.54774e-15,-7.15625e-15,-36.7773,-34.6138,104.059,39.0037,4.28151,8.94085,26.9086,7.12502,34.1211,53.6654,-27.9725,18.912,15.3558,29.1433,-9.87987,-19.4403,3.64965,7.44231,-2.7028,-26.9213,20.0995,-1.08649,-17.6477,18.9901
-4.47608,18.4887,-7.63079,157.165,78.8597,154.051,6.09641,-2.47356,-1.38521,2.72111,-3.28836,0.751507,-0.488391,-1.62853,1.75393,-4.84305,-5.73388,-8.52469,27.8566,-7.21031,5.23791,10.1647,-3.30535,2.63476,-5.10877e-14,2.46493e-14,-33.5274,-4.59855,-71.0377,34.6242,14.534,-23.5256,4.71904,7.12502,2.93547,-25.2405,-5.10877e-14,2.46493e-14,-36.6661,-34.1758,103.989,38.774,4.22091,9.14863,26.8001,7.12502,34.3184,53.5126,-27.5692,18.9984,15.6991,29.471,-9.59692,-19.5799,4.62969,7.69958,-2.81624,-26.6927,20.4242,-0.218708,-17.7012,18.9838
-4.34927,18.4941,-7.64012,157.827,78.9407,154.715,5.93065,-2.47872,-1.07101,2.70556,-3.2759,0.904462,-0.421965,-1.62155,1.72716,-4.71731,-5.71245,-8.43874,27.9413,-7.13537,5.02462,10.1545,-3.28112,2.55709,1.74931e-14,-2.06736e-14,-33.4906,-4.69511,-70.9648,34.2858,14.6727,-23.5987,4.81417,7.12502,2.86488,-25.1463,1.74931e-14,-2.06736e-14,-36.5889,-33.7174,103.967,38.5887,3.95928,10.1637,26.357,7.12502,35.2816,52.8469,-27.267,19.1747,16.0732,29.7735,-9.64175,-19.5023,5.824,7.74534,-2.49108,-26.3305,20.9465,0.759817,-17.925,18.0462
-4.22221,18.5024,-7.64887,158.898,79.0093,155.825,5.81564,-2.50687,-0.680024,2.66678,-3.29024,1.10675,-0.407948,-1.62668,1.71285,-4.62741,-5.71186,-8.39282,28.1035,-7.05593,4.72136,10.1791,-3.26628,2.45444,1.59028e-15,-3.73715e-14,-33.5288,-4.65868,-70.8357,34.004,14.7627,-23.7144,5.06094,7.12502,2.75317,-24.901,1.59028e-15,-3.73715e-14,-36.5367,-33.2381,104.129,38.3889,4.28023,10.0459,26.6742,7.12502,35.1699,53.1904,-26.8715,19.2554,16.5421,29.9967,-9.87065,-19.2671,6.95533,7.68809,-2.34139,-25.9155,21.7397,1.78831,-18.0687,17.4479
-4.09524,18.5101,-7.65287,160.607,79.0265,157.539,5.62614,-2.56401,-0.162745,2.64266,-3.33765,1.29289,-0.344744,-1.64719,1.60928,-4.58465,-5.70577,-8.41054,28.2955,-6.99203,4.55582,10.233,-3.25017,2.40904,-4.9895e-14,1.43125e-14,-33.5582,-4.73429,-70.7492,33.7401,14.8073,-23.7753,5.0089,7.12502,2.69432,-24.9538,-4.9895e-14,1.43125e-14,-36.404,-32.7914,104.24,38.0726,4.91758,9.13443,26.899,7.12502,34.3049,53.6146,-26.4892,19.2848,17.1087,30.168,-9.94814,-19.1817,7.51459,7.46349,-2.25785,-25.3572,22.7143,2.94732,-18.2646,17.2948
-3.96946,18.5101,-7.65792,162.067,78.9848,158.924,5.3652,-2.57781,0.286282,2.59065,-3.33537,1.43848,-0.27051,-1.64349,1.49667,-4.44104,-5.74421,-8.34657,28.4105,-7.02662,4.45916,10.2448,-3.26504,2.36535,-3.75703e-14,1.90833e-14,-33.6202,-5.10419,-70.6031,33.3974,15.0818,-23.9441,4.58254,7.12502,2.53133,-25.3822,-3.75703e-14,1.90833e-14,-36.1939,-32.2653,104.206,37.6441,4.74735,9.13268,26.3306,7.12502,34.3033,53.0465,-26.1813,19.1605,17.5927,30.3181,-9.82129,-19.215,7.12521,7.05637,-1.92675,-24.7797,23.802,4.41361,-18.6033,17.8369
-3.84681,18.5145,-7.66417,162.629,78.8665,159.378,5.18477,-2.5717,0.526587,2.47183,-3.31834,1.55725,-0.299372,-1.63436,1.47812,-4.2776,-5.8195,-8.27628,28.5742,-7.09934,4.31467,10.2721,-3.30017,2.30037,1.2921e-14,2.38542e-15,-33.7615,-5.43287,-70.4074,33.0229,15.4486,-24.3298,4.13732,7.12502,2.15884,-25.8315,1.2921e-14,2.38542e-15,-36.1268,-31.7174,104.245,37.3956,4.185,9.15805,26.1937,7.12502,34.3273,52.9042,-25.9166,18.8691,17.8379,30.4879,-9.83822,-19.0784,7.0318,6.5278,-1.40299,-24.3457,24.9794,6.10711,-18.915,18.6892
-3.7237,18.5229,-7.66513,162.444,78.6976,159.121,5.03665,-2.60793,0.633584,2.39046,-3.36505,1.58618,-0.304063,-1.65788,1.44557,-4.24866,-5.8317,-8.21763,28.8026,-7.09022,4.22857,10.3457,-3.29167,2.26434,-1.13307e-14,2.06736e-14,-33.8336,-5.80272,-70.3295,32.6781,15.6797,-23.9003,4.1262,7.12502,2.57368,-25.838,-1.13307e-14,2.06736e-14,-36.4578,-31.7866,104.627,37.6686,5.49058,6.17876,28.0162,7.12502,31.4936,55.3224,-25.6288,18.4713,17.9746,30.7164,-9.90636,-18.67,7.05421,5.97958,-0.810682,-24.0415,26.2059,7.86648,-19.0476,18.5121
-3.59952,18.5315,-7.66129,161.788,78.5027,158.405,4.85409,-2.68919,0.599377,2.36185,-3.47984,1.56272,-0.229017,-1.71642,1.43779,-4.29097,-5.76883,-8.10433,29.0084,-6.98739,4.16035,10.4155,-3.2337,2.23369,3.06128e-14,-9.54166e-15,-33.7801,-6.18483,-70.323,32.3547,15.8338,-23.5167,4.21047,7.12502,2.94408,-25.749,3.06128e-14,-9.54166e-15,-36.0848,-30.7983,103.976,37.4698,3.55355,7.97307,26.8748,7.12502,33.2014,53.8323,-25.4006,18.2252,18.0066,31.0568,-10.0997,-18.356,7.05074,5.40603,-0.294591,-23.8493,27.4513,9.80337,-18.9339,18.3261
