JuanDHNZ/ProyectoFinalCD/preprocessing/sports_trials_csv/13_02.csv
root1,root2,root3,root4,root5,root6,lowerback1,lowerback2,lowerback3,upperback1,upperback2,upperback3,thorax1,thorax2,thorax3,lowerneck1,lowerneck2,lowerneck3,upperneck1,upperneck2,upperneck3,head1,head2,head3,rclavicle1,rclavicle2,rhumerus1,rhumerus2,rhumerus3,rradius1,rwrist1,rhand1,rhand2,rfingers1,rthumb1,rthumb2,lclavicle1,lclavicle2,lhumerus1,lhumerus2,lhumerus3,lradius1,lwrist1,lhand1,lhand2,lfingers1,lthumb1,lthumb2,rfemur1,rfemur2,rfemur3,rtibia1,rfoot1,rfoot2,rtoes1,lfemur1,lfemur2,lfemur3,ltibia1,lfoot1,lfoot2,ltoes1
11.7536,18.7123,5.27705,-0.874234,-24.9293,0.489118,4.68144,-0.840934,-4.43532,1.46324,-1.35577,-1.55315,-1.05337,-0.680618,0.963605,-8.34165,-4.37287,-7.67445,16.4537,-6.46207,8.94064,6.92185,-2.90925,3.59838,-9.69075e-15,-2.38542e-15,-39.8394,-4.8252,-77.1606,29.1479,14.123,-27.3256,5.84773,7.12502,-0.734594,-24.1308,-9.69075e-15,-2.38542e-15,-32.3816,21.0401,70.9575,21.2045,-17.2222,-22.9183,21.2067,7.12502,3.52197,51.1574,-8.79457,17.8996,14.5869,25.7633,-17.2779,-18.3575,-1.14129,-5.29233,-3.9714,-22.5019,23.6821,-18.7802,18.1673,1.07402
11.7503,18.7112,5.28868,-0.902049,-24.7829,0.47388,4.56664,-0.830506,-4.43315,1.43811,-1.33509,-1.5225,-1.01542,-0.670577,0.990928,-8.34274,-4.3583,-7.66556,16.656,-6.43609,8.81593,6.98029,-2.90446,3.55989,2.92213e-14,1.11319e-14,-39.8881,-4.70964,-77.1824,29.1864,14.0362,-26.871,5.49405,7.12502,-0.295504,-24.4855,2.92213e-14,1.11319e-14,-32.406,20.8961,71.1223,21.2146,-17.0826,-22.8973,21.1219,7.12502,3.54228,51.0722,-8.66423,17.8352,14.6335,25.7409,-17.311,-18.4323,-1.50243,-5.25367,-3.90741,-22.4855,23.7316,-18.7433,18.0474,0.746582
11.7491,18.7076,5.2962,-0.894446,-24.6317,0.31984,4.50562,-0.815846,-4.27458,1.43937,-1.30415,-1.49166,-0.98456,-0.655583,0.931418,-8.47002,-4.3282,-7.57247,16.9552,-6.39956,8.68599,7.08868,-2.88591,3.50516,-5.32743e-14,7.15625e-15,-39.8998,-4.81754,-77.1263,29.1514,14.2145,-25.7009,5.33839,7.12502,0.834614,-24.6397,-5.32743e-14,7.15625e-15,-32.2921,20.874,71.229,21.1198,-17.0854,-22.8348,21.0933,7.12502,3.60267,51.0426,-8.53968,17.8122,14.8303,25.7323,-17.3466,-18.5547,-1.74512,-5.22515,-3.78343,-22.3347,23.8099,-18.5645,17.9732,-0.116399
11.7484,18.7031,5.30431,-0.927541,-24.4755,0.187183,4.46177,-0.803734,-4.11776,1.46023,-1.27749,-1.47281,-0.943041,-0.643133,0.860897,-8.67328,-4.2976,-7.59593,17.3456,-6.36943,8.68021,7.24884,-2.8654,3.5098,-1.58531e-14,-2.3059e-14,-39.8701,-4.87432,-77.1067,29.1116,14.3135,-25.163,5.33759,7.12502,1.35412,-24.6379,-1.58531e-14,-2.3059e-14,-32.164,20.9713,71.294,21.0238,-17.241,-22.893,21.39,7.12502,3.54646,51.3402,-8.29061,17.7547,15.0063,25.5669,-17.3647,-18.639,-1.27662,-5.25031,-3.69362,-22.2126,24.0747,-18.4857,17.8732,-0.945688
11.7483,18.7048,5.30907,-0.976169,-24.3383,0.285556,4.41394,-0.789549,-4.21542,1.4255,-1.26136,-1.47938,-0.950689,-0.634527,0.907396,-8.68924,-4.27311,-7.76113,17.5543,-6.3473,8.79957,7.32626,-2.8541,3.58083,-1.97791e-14,-3.18055e-15,-39.874,-4.74617,-77.1448,29.1917,14.0851,-25.3741,4.86294,7.12502,1.15027,-25.1137,-1.97791e-14,-3.18055e-15,-32.0867,21.108,71.3501,20.892,-17.4181,-22.9708,21.4991,7.12502,3.47134,51.4505,-8.24596,17.6175,14.9059,25.5607,-17.3711,-18.6665,-1.03055,-5.26979,-3.88651,-22.3088,24.1117,-18.6244,17.8035,-0.424609
11.7237,18.706,5.31147,-0.951078,-24.9529,-1.02291,4.77946,-0.533601,-3.33559,1.49092,-0.891115,-1.0821,-1.11264,-0.44764,0.80931,-8.7256,-4.26999,-7.58324,17.892,-6.31811,8.40317,7.42189,-2.85822,3.42461,2.00276e-14,-3.18055e-15,-39.9761,-4.64318,-77.1516,29.2695,13.823,-25.6026,4.62091,7.12502,0.929602,-25.3568,2.00276e-14,-3.18055e-15,-32.0579,21.1146,71.3967,20.6956,-17.3959,-22.8961,21.4652,7.12502,3.54345,51.4155,-7.7911,18.7664,16.5775,25.5442,-17.2818,-19.2517,-1.56651,-4.72685,-4.03861,-20.9427,24.167,-19.1671,18.154,0.895876
11.7528,18.7008,5.32919,-1.16761,-23.9988,0.35018,4.45784,-0.779527,-4.13427,1.27255,-1.25246,-1.50848,-1.1355,-0.624722,0.834175,-8.99251,-4.28638,-7.08523,18.5352,-6.27805,7.52566,7.63358,-2.86963,3.05397,-4.08999e-14,-1.51076e-14,-40.1751,-4.50337,-77.1844,29.3881,13.552,-25.5208,4.84093,7.12502,1.00859,-25.1364,-4.08999e-14,-1.51076e-14,-32.1013,21.0216,71.4268,20.5384,-17.3494,-22.7237,21.4092,7.12502,3.70992,51.3567,-7.94254,17.087,14.8379,25.6102,-17.4725,-18.3809,-2.27145,-5.02847,-4.0978,-22.4593,24.1033,-18.6504,17.7712,-0.373325
11.7456,18.6954,5.33854,-1.29561,-23.991,0.419196,4.35787,-0.689948,-4.22943,1.26536,-1.13202,-1.50968,-1.09045,-0.565258,0.878392,-9.135,-4.3051,-6.98059,18.8688,-6.26995,7.20378,7.75504,-2.8814,2.9298,5.45167e-14,-7.95139e-16,-40.2886,-4.43645,-77.188,29.5667,13.4158,-25.1947,5.11803,7.12502,1.32357,-24.8576,5.45167e-14,-7.95139e-16,-32.0789,21.0345,71.4921,20.4174,-17.536,-22.7271,21.1393,7.12502,3.70666,51.0868,-7.76336,17.2554,14.8373,25.584,-17.5825,-18.4715,-2.16758,-4.89555,-3.89174,-22.5202,24.1213,-18.5023,17.7471,-1.09082
11.7417,18.6963,5.34621,-1.35266,-23.9195,0.44508,4.19573,-0.625446,-4.24362,1.29923,-1.03629,-1.51708,-0.969235,-0.520075,0.871311,-9.18611,-4.30634,-7.12383,19.0146,-6.27477,7.30774,7.8207,-2.88267,2.98788,6.18717e-14,-4.77083e-15,-40.2963,-4.51196,-77.1499,29.7285,13.3862,-24.9794,5.40859,7.12502,1.53142,-24.5657,6.18717e-14,-4.77083e-15,-31.9522,21.0429,71.6023,20.2841,-17.7757,-22.9113,21.0086,7.12502,3.52878,50.9591,-7.70622,17.3452,14.8518,25.6915,-17.7637,-18.5885,-1.81494,-4.74625,-4.03857,-22.5318,23.9337,-18.6183,17.64,-0.0797644
11.7397,18.7005,5.3573,-1.45251,-23.8587,0.410669,4.13555,-0.579674,-4.17716,1.33161,-0.968463,-1.54493,-0.907071,-0.487724,0.801326,-9.35244,-4.26163,-7.06459,19.3044,-6.22377,7.26771,7.93931,-2.85272,2.96905,2.34069e-14,1.59028e-14,-40.2963,-4.56108,-77.2096,29.8687,13.3123,-24.9093,5.12276,7.12502,1.59919,-24.851,2.34069e-14,1.59028e-14,-31.8398,21.0311,71.631,20.1222,-17.9848,-23.1557,21.0344,7.12502,3.29272,50.9888,-7.50329,17.3254,14.931,25.6854,-17.8847,-18.6087,-1.80809,-4.61495,-4.38943,-22.4983,23.933,-19.0196,17.5505,2.21998
11.7396,18.702,5.36869,-1.58128,-23.7384,0.478043,4.09662,-0.570009,-4.19249,1.34136,-0.954543,-1.60389,-0.87666,-0.481449,0.748119,-9.46755,-4.20746,-6.9291,19.5122,-6.15529,7.15415,8.01576,-2.81717,2.91512,2.00773e-14,1.59028e-14,-40.2466,-4.66439,-77.2693,29.8765,13.4139,-25.0713,4.6967,7.12502,1.44268,-25.2782,2.00773e-14,1.59028e-14,-31.7529,21.0911,71.5993,19.9067,-18.1721,-23.5307,20.9998,7.12502,2.9306,50.9594,-7.32785,17.0902,14.8755,25.7092,-17.8625,-18.5062,-2.34744,-4.47395,-4.54201,-22.5797,23.9085,-19.1423,17.4601,3.46313
11.7433,18.6962,5.37706,-1.66918,-23.4923,0.612579,4.01806,-0.601482,-4.22275,1.35181,-0.994004,-1.69521,-0.821385,-0.502244,0.671915,-9.5526,-4.16139,-6.76216,19.5905,-6.10007,7.05727,8.04457,-2.78522,2.85975,7.90169e-15,-1.03368e-14,-40.1495,-4.77541,-77.35,29.8782,13.4864,-25.3836,4.40584,7.12502,1.14111,-25.5709,7.90169e-15,-1.03368e-14,-31.5993,21.1885,71.5594,19.7037,-18.4588,-23.6599,21.1106,7.12502,2.80579,51.0719,-7.23786,16.7024,14.7074,25.7842,-17.8697,-18.3571,-2.45632,-4.38354,-4.23388,-22.7346,23.8641,-18.8309,17.1974,1.77332
11.7495,18.6903,5.38327,-1.71951,-23.2293,0.751844,3.96672,-0.631545,-4.25831,1.33565,-1.03421,-1.78382,-0.808588,-0.522338,0.601992,-9.55181,-4.11055,-6.68754,19.5796,-6.04601,7.07834,8.03476,-2.7522,2.86011,3.84648e-14,1.59028e-15,-40.1418,-4.80957,-77.4376,30.0498,13.3918,-25.461,4.26013,7.12502,1.06629,-25.717,3.84648e-14,1.59028e-15,-31.4922,21.5222,71.4235,19.539,-19.0529,-23.5694,21.1661,7.12502,2.89317,51.1262,-7.23697,16.3302,14.5098,25.9349,-17.9435,-18.1827,-2.42704,-4.32696,-4.02176,-22.9044,23.7827,-18.5333,17.0071,0.0542311
11.7547,18.69,5.3869,-1.72126,-23.0562,0.828254,3.93935,-0.637765,-4.31703,1.27956,-1.04544,-1.80415,-0.849772,-0.526526,0.614474,-9.51775,-4.06357,-6.71479,19.5948,-5.98464,7.10726,8.03052,-2.72308,2.88163,3.43401e-14,-1.11319e-14,-40.1429,-4.87694,-77.4048,30.1444,13.4343,-25.4511,4.30151,7.12502,1.07589,-25.6755,3.43401e-14,-1.11319e-14,-31.4609,21.882,71.3439,19.3281,-19.4482,-23.8171,20.8997,7.12502,2.65396,50.863,-7.32088,16.1329,14.376,26.1209,-18.0158,-18.0563,-2.35062,-4.3287,-4.12363,-23.0046,23.706,-18.4451,16.9872,0.0183608
11.7582,18.691,5.39047,-1.68118,-22.9387,0.867566,3.85759,-0.652331,-4.38462,1.22137,-1.06421,-1.78169,-0.86136,-0.534897,0.675377,-9.61547,-3.99831,-6.71745,19.7158,-5.88533,7.06083,8.07958,-2.6775,2.87645,3.62782e-15,7.95139e-15,-40.0449,-4.78086,-77.405,30.1078,13.4303,-25.5225,3.82742,7.12502,1.0069,-26.1499,3.62782e-15,7.95139e-15,-31.3962,22.0631,71.4123,19.0636,-19.4481,-24.3043,20.6653,7.12502,2.18351,50.6339,-7.44109,15.9863,14.2801,26.2843,-18.1015,-17.9105,-2.08981,-4.3832,-4.28591,-23.0673,23.6841,-18.4761,17.0042,0.318508
11.7606,18.6926,5.39098,-1.63494,-22.8742,0.846429,3.85195,-0.637697,-4.40776,1.15465,-1.04743,-1.76147,-0.92675,-0.524425,0.708808,-9.34652,-3.85255,-6.93363,19.4468,-5.72719,7.46382,7.94643,-2.58908,3.06684,1.37907e-14,-7.95139e-15,-39.9842,-4.58945,-77.5092,30.1809,13.2108,-25.5399,3.30515,7.12502,0.990099,-26.6723,1.37907e-14,-7.95139e-15,-31.3495,22.2841,71.4164,18.8345,-19.5521,-24.7286,20.5504,7.12502,1.7737,50.5228,-7.5646,15.884,14.2698,26.4271,-18.1733,-17.799,-1.82214,-4.44033,-4.31434,-23.0557,23.7026,-18.4799,16.9932,0.542948
11.7636,18.6959,5.38775,-1.58528,-22.8662,0.692124,3.93029,-0.571189,-4.2782,1.11515,-0.959986,-1.75748,-1.01726,-0.47872,0.638125,-8.72553,-3.64965,-7.23402,18.7628,-5.53596,8.20254,7.62048,-2.4728,3.38664,-5.20319e-14,3.97569e-15,-39.924,-4.69573,-77.5805,30.2973,13.1771,-25.472,3.30356,7.12502,1.05569,-26.6736,-5.20319e-14,3.97569e-15,-31.3004,22.4522,71.354,18.7169,-19.8396,-24.9253,20.4199,7.12502,1.5837,50.3938,-7.6863,15.8864,14.4244,26.5912,-18.1081,-17.8616,-1.95302,-4.45917,-4.27677,-22.8984,23.7148,-18.4008,16.9866,0.664961
11.7679,18.6989,5.389,-1.5403,-22.8701,0.553348,3.89425,-0.518467,-4.11827,1.13477,-0.880685,-1.7617,-0.982879,-0.440057,0.540363,-8.50735,-3.49882,-7.24655,18.3895,-5.36421,8.47438,7.45125,-2.37575,3.49531,-3.36692e-14,-3.18055e-15,-39.8077,-4.77114,-77.631,30.4175,13.1751,-25.4177,3.70231,7.12502,1.10815,-26.2746,-3.36692e-14,-3.18055e-15,-31.1847,22.6581,71.3273,18.5943,-20.2917,-24.9861,20.3504,7.12502,1.525,50.3247,-7.81264,15.8706,14.5431,26.7889,-17.9596,-17.8953,-2.50036,-4.4501,-4.24454,-22.7665,23.6975,-18.3798,16.965,0.527587
11.7719,18.6981,5.39306,-1.56038,-22.9561,0.455471,3.88399,-0.469288,-4.01817,1.16495,-0.809413,-1.74675,-0.950171,-0.40541,0.496304,-8.643,-3.38477,-7.12943,18.3825,-5.20682,8.43226,7.45553,-2.29233,3.47523,8.16508e-14,-1.82882e-14,-39.6863,-4.58409,-77.7353,30.5611,12.9331,-25.4623,3.98469,7.12502,1.06507,-25.9924,8.16508e-14,-1.82882e-14,-31.048,23.0084,71.3063,18.3425,-20.7703,-24.973,20.594,7.12502,1.53768,50.5682,-7.88813,15.8967,14.6314,27.0252,-17.8519,-17.8075,-2.67163,-4.31881,-4.18405,-22.7176,23.6366,-18.3824,17.1316,0.0329589
11.7755,18.6974,5.39571,-1.66134,-23.155,0.422666,4.02795,-0.380741,-4.034,1.12647,-0.701429,-1.7208,-1.07382,-0.349096,0.528448,-8.75856,-3.29052,-7.04718,18.5064,-5.08585,8.40402,7.50345,-2.22764,3.46395,9.86469e-15,7.15625e-15,-39.6737,-4.36102,-77.8127,30.7253,12.7734,-25.3914,3.80628,7.12502,1.13353,-26.1705,9.86469e-15,7.15625e-15,-31.0543,23.2337,71.3017,18.1034,-20.9558,-24.957,20.8359,7.12502,1.55314,50.81,-7.94791,15.9478,14.6676,27.2988,-17.6834,-17.6358,-3.00803,-4.08163,-4.36345,-22.7798,23.5288,-18.5226,17.5874,0.386397
11.7816,18.6995,5.39542,-1.75357,-23.3765,0.47857,4.17246,-0.273517,-4.14001,1.05055,-0.574086,-1.7071,-1.2364,-0.281864,0.596997,-8.71858,-3.21528,-7.00777,18.5326,-4.99558,8.42054,7.49625,-2.18131,3.47243,-4.76089e-14,8.74653e-15,-39.7683,-4.14812,-77.8474,30.9698,12.7213,-25.2036,3.5895,7.12502,1.31496,-26.3862,-4.76089e-14,8.74653e-15,-31.151,23.4131,71.3014,17.932,-21.1084,-24.703,20.9448,7.12502,1.79839,50.9169,-8.11728,15.8871,14.5726,27.6123,-17.5418,-17.3084,-3.31731,-3.90452,-4.56743,-22.9115,23.3834,-18.694,17.9587,1.00951
11.7891,18.7041,5.38978,-1.74944,-23.5789,0.44506,4.28169,-0.194853,-4.16579,0.992823,-0.478636,-1.68544,-1.36036,-0.231402,0.629601,-8.64702,-3.10056,-6.93437,18.428,-4.85361,8.46497,7.43608,-2.10699,3.48812,-1.08089e-14,7.95139e-16,-39.7165,-4.06742,-77.89,31.1109,12.7367,-25.1905,3.43718,7.12502,1.32757,-26.5384,-1.08089e-14,7.95139e-16,-31.1777,23.6893,71.2612,17.7601,-21.3265,-23.8656,21.4683,7.12502,2.60717,51.4321,-8.39748,15.8179,14.5554,27.9561,-17.3667,-17.0129,-3.333,-3.8186,-4.78929,-22.933,23.2178,-18.7697,18.3715,0.645302
11.7952,18.7114,5.38423,-1.72212,-23.7451,0.444461,4.34023,-0.144725,-4.25456,0.961411,-0.420546,-1.68245,-1.42714,-0.200671,0.679529,-8.78592,-2.97722,-6.70683,18.4386,-4.69768,8.39084,7.44427,-2.01947,3.43876,-3.20043e-14,6.36111e-15,-39.4633,-4.18308,-77.9106,31.039,12.8876,-25.2512,3.57418,7.12502,1.26899,-26.4018,-3.20043e-14,6.36111e-15,-31.1442,23.9063,71.2455,17.5751,-21.3921,-23.5505,21.6888,7.12502,2.91143,51.6487,-8.7211,15.7552,14.5074,28.3061,-17.0387,-16.8328,-3.78842,-3.78562,-5.02536,-22.9893,23.0863,-18.8452,18.8299,-0.0226712
11.7973,18.715,5.38165,-1.76058,-24.0363,0.511875,4.36196,-0.0338878,-4.45585,0.961075,-0.283905,-1.68913,-1.44447,-0.131679,0.777702,-8.88979,-2.89696,-6.48068,18.3872,-4.60997,8.36944,7.43325,-1.96151,3.40021,5.86663e-14,2.38542e-15,-39.2131,-4.33407,-77.8833,30.9148,13.07,-25.1534,3.6743,7.12502,1.36341,-26.3011,5.86663e-14,2.38542e-15,-31.0894,24.0144,71.308,17.3499,-21.4685,-24.1815,21.4779,7.12502,2.30208,51.4452,-9.03801,15.8449,14.4155,28.6525,-16.7061,-16.7653,-4.51557,-3.72243,-5.19311,-23.11,23.0173,-19.0884,19.2482,0.0955696
11.7981,18.7164,5.37474,-1.75387,-24.5156,0.379601,4.45291,0.128279,-4.53374,0.945941,-0.07674,-1.6215,-1.52024,-0.0264392,0.87929,-8.81333,-2.82145,-6.41777,18.202,-4.54155,8.54823,7.35581,-1.91267,3.45392,5.77718e-14,7.95139e-16,-39.0543,-4.22952,-77.9299,30.985,13.0615,-25.0314,3.13863,7.12502,1.48125,-26.836,5.77718e-14,7.95139e-16,-31.0798,24.1381,71.3708,17.1356,-21.5256,-24.7375,21.5417,7.12502,1.76511,51.5141,-9.36199,16.1595,14.5498,28.9695,-16.4376,-16.719,-4.94505,-3.69059,-5.14536,-22.9772,23.0219,-19.3985,19.5795,0.792166
11.8052,18.7213,5.36513,-1.66075,-24.9484,0.110851,4.59675,0.22077,-4.42525,0.914973,0.0431719,-1.54128,-1.63846,0.0356695,0.894021,-8.87886,-2.71557,-6.31455,18.1731,-4.43291,8.68133,7.34958,-1.84127,3.49012,1.15544e-14,-1.59028e-14,-38.9028,-3.87855,-78.1412,31.2489,12.8459,-25.0631,2.62601,7.12502,1.45063,-27.3488,1.15544e-14,-1.59028e-14,-31.1412,24.3059,71.3624,16.9719,-21.509,-24.7714,21.759,7.12502,1.73237,51.7317,-9.68645,16.3354,14.7779,29.2419,-16.1414,-16.4836,-4.78938,-3.75549,-4.69483,-22.6702,23.101,-19.4601,19.6944,0.516152
11.8176,18.7291,5.35352,-1.49426,-25.3379,-0.243891,4.76347,0.261372,-4.15302,0.879069,0.101366,-1.46751,-1.77126,0.0663949,0.813736,-9.09656,-2.58769,-6.11555,18.2806,-4.28795,8.68778,7.40766,-1.75168,3.47219,3.99557e-14,-1.43125e-14,-38.7032,-3.63005,-78.3119,31.4352,12.7919,-24.999,2.53597,7.12502,1.51252,-27.4384,3.99557e-14,-1.43125e-14,-31.2145,24.4465,71.3361,16.7961,-21.6801,-24.6569,21.8569,7.12502,1.84295,51.8287,-10.0329,16.4029,15.0538,29.4903,-15.816,-16.1442,-4.69025,-3.83777,-4.47047,-22.3462,23.2026,-19.53,19.9608,0.192639
11.8307,18.7381,5.33836,-1.28282,-25.7151,-0.572271,4.90533,0.284384,-3.95633,0.828343,0.134922,-1.37144,-1.90418,0.0851889,0.799861,-9.15955,-2.45066,-6.01643,18.1796,-4.12054,8.7701,7.37195,-1.6573,3.49691,-2.78547e-14,-1.82882e-14,-38.4451,-3.56864,-78.3235,31.4728,12.9903,-24.8096,2.87524,7.12502,1.69546,-27.0978,-2.78547e-14,-1.82882e-14,-31.2868,24.5726,71.3302,16.6058,-21.8584,-25.1143,20.997,7.12502,1.40116,50.9722,-10.4295,16.4937,15.2693,29.73,-15.5731,-15.7426,-4.90272,-3.94687,-4.57044,-22.1007,23.2702,-19.6722,20.3874,0.662142
11.8432,18.7468,5.32555,-1.15361,-26.0375,-0.693467,5.02572,0.295429,-4.00641,0.772954,0.140294,-1.30127,-2.02912,0.0911503,0.899145,-9.12021,-2.34598,-5.98779,17.9507,-4.00031,8.95019,7.28341,-1.58591,3.56017,-4.92737e-14,1.11319e-14,-38.1827,-3.59822,-78.2765,31.5127,13.2833,-24.9499,3.37141,7.12502,1.55998,-26.6026,-4.92737e-14,1.11319e-14,-31.4516,24.678,71.3467,16.4893,-21.9164,-25.5718,20.0594,7.12502,0.959302,50.037,-10.8368,16.5039,15.2573,29.9538,-15.2168,-15.3612,-5.69836,-4.05296,-4.6499,-22.0534,23.3078,-19.8094,20.7684,0.806349
11.8566,18.7569,5.31519,-1.06915,-26.4369,-0.834788,5.19321,0.329563,-4.03452,0.744347,0.176077,-1.22208,-2.15429,0.111893,0.993228,-9.23544,-2.26064,-5.93574,17.8777,-3.91097,9.10668,7.27498,-1.52446,3.61004,-2.21148e-14,1.51076e-14,-37.9011,-3.5132,-78.2839,31.6501,13.3737,-25.1169,3.50776,7.12502,1.39866,-26.4674,-2.21148e-14,1.51076e-14,-31.6459,24.7216,71.4519,16.4825,-21.8464,-25.4058,20.6712,7.12502,1.1196,50.648,-11.2742,16.4401,15.2915,30.1783,-14.5176,-15.0659,-7.87093,-4.05552,-4.67064,-21.992,23.279,-19.925,21.2273,0.623999
11.8695,18.764,5.30562,-0.967127,-26.916,-1.13083,5.37612,0.357708,-3.90866,0.789769,0.214614,-1.13336,-2.21148,0.13079,1.01083,-9.46148,-2.16553,-5.78712,17.7868,-3.80535,9.19677,7.27654,-1.45159,3.6222,7.35503e-15,1.19271e-14,-37.5447,-3.24977,-78.4209,31.8639,13.1614,-24.9356,3.5848,7.12502,1.57372,-26.3891,7.35503e-15,1.19271e-14,-31.7206,24.7009,71.5887,16.5502,-21.5542,-25.0815,21.6303,7.12502,1.4329,51.6052,-11.5118,16.5661,15.4662,30.3405,-14.2372,-14.5103,-8.17125,-3.98682,-4.7462,-21.791,23.2379,-20.0687,21.7739,0.737931
11.8809,18.7728,5.29437,-0.873149,-27.3282,-1.36653,5.52543,0.342985,-3.85437,0.863426,0.193487,-1.09278,-2.21802,0.119069,1.02344,-9.561,-2.07276,-5.53668,17.4627,-3.70079,9.25026,7.17797,-1.38167,3.60162,2.59911e-14,-1.59028e-15,-37.1916,-3.05773,-78.597,32.0944,13.0639,-24.8784,3.88539,7.12502,1.62905,-26.0881,2.59911e-14,-1.59028e-15,-31.7758,24.6585,71.6502,16.6098,-21.3318,-25.106,21.4454,7.12502,1.40922,51.4205,-11.6893,16.6797,15.575,30.4108,-13.9313,-14.005,-7.56356,-3.98403,-4.80037,-21.6276,23.2604,-20.2815,22.172,1.08261
11.8913,18.7761,5.27853,-0.769681,-27.6717,-1.51945,5.69576,0.284483,-3.98399,0.883445,0.101165,-1.02423,-2.2887,0.0751631,1.17307,-9.52386,-1.96782,-5.29293,17.0799,-3.56654,9.23817,7.03315,-1.30835,3.56276,-4.18939e-14,6.36111e-15,-36.9279,-2.8833,-78.7019,32.4219,13.1054,-24.9753,4.12372,7.12502,1.53538,-25.8505,-4.18939e-14,6.36111e-15,-31.9947,24.5861,71.7338,16.707,-21.0893,-25.6711,20.9082,7.12502,0.863379,50.8862,-11.9537,16.6656,15.6139,30.3588,-13.302,-13.6635,-7.6678,-4.10874,-4.79923,-21.5158,23.388,-20.519,22.4186,1.5826
11.9015,18.7781,5.26256,-0.639469,-28.071,-1.74444,5.89947,0.227052,-4.10684,0.895085,0.0100281,-0.896795,-2.38607,0.0327701,1.37997,-9.62049,-1.88053,-5.08124,16.8819,-3.44855,9.15844,6.97307,-1.24501,3.50798,9.88954e-15,7.95139e-15,-36.6616,-2.55905,-78.8017,32.8301,13.0295,-24.9288,4.01187,7.12502,1.58032,-25.962,9.88954e-15,7.95139e-15,-32.2563,24.5617,71.8364,16.8125,-20.7832,-25.8787,20.8033,7.12502,0.662904,50.782,-12.115,16.7734,15.7169,30.2451,-12.8131,-13.1797,-7.04431,-4.23574,-4.95896,-21.3405,23.538,-20.8148,22.8163,3.02506
11.9133,18.7798,5.24695,-0.470593,-28.5436,-2.04718,6.05111,0.190306,-4.08609,0.940608,-0.041231,-0.785684,-2.42097,0.00745477,1.48701,-9.89629,-1.81361,-4.83696,16.7814,-3.36992,9.09539,6.97965,-1.19143,3.45072,1.58034e-14,1.90833e-14,-36.3149,-2.25667,-78.952,33.1591,12.9063,-24.8101,3.66542,7.12502,1.69497,-26.3076,1.58034e-14,1.90833e-14,-32.4075,24.4813,71.9558,16.853,-20.4191,-25.4365,20.9759,7.12502,1.09,50.9529,-12.2188,16.9757,15.8691,30.0573,-12.2867,-12.6024,-5.93195,-4.36572,-5.1174,-21.0981,23.7088,-21.145,23.2876,4.21947
11.9262,18.7826,5.23009,-0.356446,-29.0016,-2.23256,6.16353,0.174344,-4.11836,1.01338,-0.0673164,-0.734306,-2.40708,-0.00652054,1.5603,-10.077,-1.77267,-4.6952,16.5423,-3.33913,9.23024,6.93328,-1.15565,3.4699,4.52235e-15,-9.54166e-15,-36.0014,-2.14703,-79.0627,33.5724,12.7302,-24.6146,3.48486,7.12502,1.88382,-26.4866,4.52235e-15,-9.54166e-15,-32.4563,24.0896,72.2507,16.9563,-19.7576,-25.245,21.5739,7.12502,1.27497,51.5498,-12.3307,17.0999,15.8772,29.8605,-11.903,-11.9236,-5.29031,-4.47528,-5.09072,-20.9635,23.8475,-21.3979,23.6259,4.38081
11.9382,18.7876,5.21485,-0.283104,-29.4775,-2.36436,6.30233,0.179302,-4.19657,1.09359,-0.070772,-0.7082,-2.40142,-0.00904458,1.63151,-10.1295,-1.78005,-4.6336,16.2472,-3.37447,9.44232,6.85376,-1.15505,3.52138,2.47984e-14,3.26007e-14,-35.7711,-1.99434,-79.1865,34.1728,12.3233,-24.3929,3.28125,7.12502,2.09793,-26.6882,2.47984e-14,3.26007e-14,-32.4462,23.5917,72.5794,17.0087,-19.0665,-25.2689,22.0484,7.12502,1.25191,52.0244,-12.4202,17.2414,15.8266,29.6449,-11.6221,-11.237,-5.19402,-4.5252,-5.04048,-20.8881,23.9294,-21.6693,23.9391,4.73243
11.9505,18.7919,5.19877,-0.136324,-30.0255,-2.65421,6.51758,0.172062,-4.15865,1.1271,-0.0865037,-0.636519,-2.48605,-0.0159604,1.68582,-10.1154,-1.76618,-4.55476,16.0243,-3.37826,9.58481,6.78173,-1.14516,3.55109,8.15514e-14,-1.66979e-14,-35.5959,-1.73542,-79.3428,34.7317,11.9359,-24.3454,3.08518,7.12502,2.14376,-26.8838,8.15514e-14,-1.66979e-14,-32.561,23.3094,72.739,16.9904,-18.7182,-25.1594,21.963,7.12502,1.35757,51.9385,-12.5115,17.5429,15.9357,29.3971,-11.2566,-10.6978,-5.30843,-4.52718,-4.96447,-20.6649,23.9333,-21.9325,24.3016,4.06487
11.9651,18.797,5.17657,0.063205,-30.4803,-2.94572,6.75836,0.125514,-4.12208,1.15114,-0.155366,-0.550116,-2.59138,-0.0486909,1.761,-10.0243,-1.74661,-4.59777,15.6676,-3.35791,9.81212,6.65485,-1.12877,3.62951,-9.58639e-14,1.19271e-14,-35.3775,-1.58744,-79.4201,35.1875,11.7816,-24.3504,3.29761,7.12502,2.139,-26.6714,-9.58639e-14,1.19271e-14,-32.7747,23.1513,72.8755,17.0787,-18.6153,-25.3689,21.697,7.12502,1.15525,51.6736,-12.6719,17.8559,16.0175,29.1147,-10.9071,-10.2386,-5.30873,-4.58884,-5.07486,-20.4402,23.8814,-22.1623,24.7791,3.30745
11.9796,18.8038,5.15596,0.253593,-30.8775,-3.10138,6.93014,0.0690475,-4.19339,1.14422,-0.243001,-0.488314,-2.68852,-0.0895301,1.87331,-9.84019,-1.77276,-4.68154,15.2658,-3.38836,10.024,6.50197,-1.14439,3.70456,4.81059e-14,6.36111e-15,-35.2476,-1.36493,-79.4809,35.7095,11.5325,-24.4336,3.32639,7.12502,2.05863,-26.6434,4.81059e-14,6.36111e-15,-33.0331,22.947,73.0361,17.1557,-18.5535,-25.926,21.5656,7.12502,0.617203,51.5444,-12.8849,18.0472,15.9329,28.7962,-10.5295,-9.69999,-5.15037,-4.69636,-5.51436,-20.376,23.8087,-22.5331,25.452,3.77136
11.9929,18.8104,5.14257,0.421775,-31.4041,-3.20128,6.99426,0.0399152,-4.28585,1.08255,-0.292658,-0.458034,-2.78438,-0.110365,1.96145,-9.51529,-1.8086,-4.73199,14.9843,-3.44711,10.2069,6.36415,-1.17688,3.76412,2.35063e-14,7.95139e-16,-35.3127,-1.07264,-79.592,36.3083,11.2642,-24.7638,2.85356,7.12502,1.73974,-27.1191,2.35063e-14,7.95139e-16,-33.2632,22.8884,73.0299,16.9792,-18.6517,-26.1969,21.4473,7.12502,0.355532,51.4268,-13.0661,18.2451,15.7796,28.4397,-10.2249,-9.05977,-5.48996,-4.76172,-5.80772,-20.374,23.7283,-23.0265,26.0557,4.30477
12.007,18.8197,5.13238,0.625685,-32.0018,-3.34823,6.96079,0.0317011,-4.26712,1.11831,-0.29965,-0.455143,-2.72829,-0.11582,1.95433,-9.51795,-1.89365,-4.71176,14.8358,-3.57201,10.3023,6.32956,-1.23231,3.77879,-1.31347e-13,5.56597e-15,-35.1997,-1.05541,-79.6597,36.8064,11.2537,-24.9304,2.76309,7.12502,1.57876,-27.2108,-1.31347e-13,5.56597e-15,-33.1913,23.1499,72.9265,16.5922,-19.058,-26.1703,21.2547,7.12502,0.381243,51.2341,-13.2132,18.4725,15.6495,28.0409,-10.1044,-8.33887,-6.30793,-4.81997,-5.98841,-20.3195,23.6347,-23.6003,26.5539,6.04976
12.0213,18.8269,5.12146,0.80313,-32.6161,-3.54315,6.99173,0.0543594,-4.2004,1.24804,-0.262948,-0.437816,-2.61393,-0.102704,1.93133,-9.90976,-2.06183,-4.66708,14.8567,-3.80277,10.2997,6.42382,-1.33001,3.74922,-1.33186e-14,-7.15625e-15,-34.9258,-1.13,-79.6599,37.2564,11.1206,-24.7228,3.06948,7.12502,1.77924,-26.9028,-1.33186e-14,-7.15625e-15,-32.9523,23.4883,72.9214,16.2222,-19.5508,-26.3066,21.2078,7.12502,0.249654,51.1874,-13.2644,18.7095,15.5835,27.5981,-9.89686,-7.57937,-6.82689,-4.82261,-6.26974,-20.2364,23.5497,-24.2382,27.1218,8.0707
12.0343,18.8296,5.11183,0.875225,-33.193,-3.64313,7.13301,0.0735373,-4.27025,1.30535,-0.248216,-0.407323,-2.63393,-0.0954793,2.00124,-9.98389,-2.22585,-4.75507,14.7926,-4.03244,10.4444,6.44013,-1.43459,3.78965,2.31584e-14,3.10104e-14,-34.8249,-1.06075,-79.6419,37.7287,10.8076,-24.5933,3.10433,7.12502,1.90435,-26.8669,2.31584e-14,3.10104e-14,-32.8672,23.6398,72.9675,15.909,-19.9714,-26.414,21.1976,7.12502,0.145879,51.1773,-13.225,18.9319,15.4513,27.11,-9.5786,-6.8447,-7.20819,-4.77485,-6.40503,-20.2407,23.5027,-24.7271,27.6051,8.74288
12.0469,18.8335,5.10298,0.995505,-33.7885,-3.76954,7.26922,0.0765917,-4.33879,1.28898,-0.255383,-0.34915,-2.72578,-0.0962297,2.10123,-9.83412,-2.34835,-4.98333,14.7025,-4.20765,10.7169,6.40979,-1.5186,3.90099,-9.8796e-14,7.15625e-15,-34.8019,-1.06182,-79.5858,38.1209,10.7549,-24.7615,3.0746,7.12502,1.7419,-26.898,-9.8796e-14,7.15625e-15,-32.9084,23.7614,72.9592,15.5697,-20.4978,-26.2579,21.2151,7.12502,0.296642,51.1946,-13.2392,19.1407,15.3324,26.6084,-9.29425,-6.07156,-7.74201,-4.7588,-6.36715,-20.2064,23.4615,-25.1141,27.9838,9.20547
12.0617,18.8408,5.08821,1.26991,-34.3864,-4.0183,7.34472,0.0293501,-4.25766,1.2636,-0.315062,-0.304215,-2.79031,-0.124719,2.1083,-9.79324,-2.46177,-5.11234,14.7418,-4.37542,10.8657,6.43517,-1.59717,3.95713,8.43841e-14,-3.02153e-14,-34.7419,-1.0193,-79.623,38.5101,10.6927,-25.0932,2.89681,7.12502,1.42152,-27.0782,8.43841e-14,-3.02153e-14,-32.9903,23.855,72.8703,15.3124,-20.8515,-26.3475,21.4201,7.12502,0.210136,51.3997,-13.3165,19.4462,15.2892,26.0888,-9.14273,-5.30717,-8.03212,-4.87813,-6.34723,-20.0328,23.4341,-25.5251,28.3576,9.77442
12.077,18.8479,5.07381,1.53498,-34.8816,-4.15137,7.37131,-0.0813926,-4.24944,1.22674,-0.464104,-0.310287,-2.83336,-0.19743,2.11195,-9.69937,-2.59315,-5.03489,14.7648,-4.56782,10.8117,6.43984,-1.69346,3.90971,4.90004e-14,-1.03368e-14,-34.7561,-0.809056,-79.7299,38.9692,10.3173,-25.542,2.56327,7.12502,0.988075,-27.4142,4.90004e-14,-1.03368e-14,-33.1888,24.1744,72.5506,15.249,-21.7184,-26.1464,22.1088,7.12502,0.404342,52.0882,-13.3805,19.6943,15.1148,25.5466,-9.14963,-4.65492,-8.37673,-5.08911,-6.37677,-19.9609,23.4389,-25.9153,28.7113,10.372
12.0906,18.8523,5.06559,1.8272,-35.4487,-4.39919,7.35786,-0.13557,-4.13962,1.21852,-0.525785,-0.273049,-2.83085,-0.228885,2.09463,-9.54341,-2.76099,-5.01808,14.7358,-4.80037,10.7782,6.42206,-1.81384,3.8755,4.59193e-14,-5.56597e-15,-34.7959,-0.71269,-79.7705,39.3739,9.96997,-25.3353,2.35427,7.12502,1.18775,-27.6222,4.59193e-14,-5.56597e-15,-33.365,24.9758,72.005,15.0715,-23.78,-25.3317,22.771,7.12502,1.19118,52.7474,-13.4293,19.899,15.0604,25.0335,-9.27192,-3.98589,-8.5029,-5.21408,-6.3037,-19.8095,23.4428,-26.3118,29.0414,10.9513
12.1026,18.8553,5.05729,2.15656,-36.1256,-4.72341,7.31986,-0.126038,-3.97225,1.21565,-0.496424,-0.218179,-2.81553,-0.215882,2.05429,-9.45062,-2.94384,-5.07864,14.7752,-5.05539,10.8005,6.44204,-1.94179,3.87105,-2.23633e-14,-1.43125e-14,-34.8036,-0.740993,-79.7648,39.6756,10.0407,-24.8364,2.22038,7.12502,1.66959,-27.7528,-2.23633e-14,-1.43125e-14,-33.5111,25.9015,71.4148,14.6235,-25.8604,-25.1555,22.3855,7.12502,1.36136,52.3609,-13.5225,20.0923,15.0755,24.565,-9.54145,-3.1617,-8.85946,-5.29718,-6.22071,-19.5943,23.4193,-26.7941,29.4041,11.5807
12.1139,18.8578,5.0425,2.32978,-36.7375,-4.70686,7.37354,-0.153414,-4.20806,1.12811,-0.554382,-0.172193,-2.92966,-0.238449,2.24083,-9.38321,-3.10179,-5.24799,14.9942,-5.27564,10.82,6.52285,-2.05486,3.88907,-1.81888e-14,6.36111e-15,-34.8724,-0.739182,-79.6105,39.896,10.5102,-24.3538,2.62785,7.12502,2.13567,-27.3412,-1.81888e-14,6.36111e-15,-33.8219,26.907,70.8098,14.1799,-27.2121,-25.3718,21.7703,7.12502,1.15248,51.7469,-13.667,20.1476,14.7997,24.1102,-9.92576,-2.40385,-10.5791,-5.47804,-5.80215,-19.6116,23.3891,-26.9239,29.5018,11.907
12.1231,18.8605,5.02781,2.39238,-37.2229,-4.53445,7.43696,-0.261292,-4.57689,1.03788,-0.73166,-0.141875,-3.04122,-0.318448,2.49793,-9.34352,-3.24638,-5.51146,15.3341,-5.47527,10.8456,6.64809,-2.15994,3.9279,1.0635e-14,1.03368e-14,-34.9925,-0.369399,-79.6562,40.2279,10.0072,-24.1871,2.26845,7.12502,2.29669,-27.6989,1.0635e-14,1.03368e-14,-34.1006,27.7556,70.2979,13.8925,-28.0647,-25.1255,22.1957,7.12502,1.39037,52.1709,-13.732,20.2188,14.4238,23.6526,-10.4189,-1.89646,-12.1534,-5.69802,-4.88954,-19.6963,23.3927,-26.5491,29.2334,11.5465
12.1298,18.8638,5.01945,2.51093,-37.7326,-4.54254,7.35964,-0.344079,-4.6235,1.05591,-0.842699,-0.19197,-2.97091,-0.375415,2.48173,-9.35926,-3.44222,-5.58621,15.6126,-5.76618,10.8537,6.76773,-2.29932,3.91878,-4.01545e-14,3.97569e-15,-35.0319,-0.222561,-79.7922,40.5939,9.51127,-23.8225,2.16263,7.12502,2.64878,-27.8007,-4.01545e-14,3.97569e-15,-34.1257,28.2295,69.8891,13.6642,-28.9229,-24.9067,22.9671,7.12502,1.60171,52.9408,-13.7363,20.4474,14.2296,23.2851,-10.9742,-1.46181,-13.0099,-5.76935,-4.50941,-19.7016,23.3315,-26.6648,29.3488,11.3558
12.135,18.8644,5.0108,2.76373,-38.4304,-4.94085,7.2979,-0.302584,-4.30828,1.15312,-0.758076,-0.211773,-2.84656,-0.341331,2.27458,-9.28621,-3.69835,-5.58433,15.7509,-6.14476,10.8741,6.8337,-2.48092,3.89119,-1.08735e-13,1.27222e-14,-35.0378,-0.365882,-79.8809,40.8808,9.23734,-23.7748,2.22306,7.12502,2.69483,-27.7397,-1.08735e-13,1.27222e-14,-34.0276,28.756,69.4373,13.313,-29.9227,-25.2477,23.0218,7.12502,1.27234,52.9978,-13.7791,20.884,14.4292,23.1377,-11.4988,-1.07086,-14.3941,-5.5496,-4.79009,-19.4669,23.0423,-27.3984,30.0012,12.0277
12.1385,18.8622,5.00798,2.52791,-39.1848,-4.77157,7.32572,-0.251809,-4.48545,1.24972,-0.70705,-0.289588,-2.76444,-0.318522,2.28842,-9.0826,-3.93708,-5.76294,15.9256,-6.48249,10.9123,6.89027,-2.65569,3.90573,-8.54774e-14,2.14687e-14,-35.1293,-0.430833,-79.8593,41.0635,9.17842,-23.9353,2.25203,7.12502,2.53983,-27.7126,-8.54774e-14,2.14687e-14,-34.1097,29.649,68.8167,12.8164,-30.9734,-25.9471,22.6202,7.12502,0.596838,52.5991,-13.6437,21.186,14.2049,23.049,-12.0447,-0.614328,-15.3082,-5.12535,-4.94766,-19.7586,22.7371,-28.059,30.5714,13.0883
12.1408,18.8603,5.01623,1.53449,-39.7941,-3.38325,7.26175,-0.302225,-5.58601,1.30583,-0.865089,-0.581965,-2.64699,-0.393607,2.61661,-8.81717,-4.12486,-6.01106,16.1675,-6.73998,10.8966,6.95089,-2.80133,3.92372,4.94974e-14,0,-35.2703,-0.203936,-79.8462,41.2064,9.17895,-23.8598,2.75314,7.12502,2.6128,-27.2106,4.94974e-14,0,-34.4426,30.8074,68.0011,12.398,-32.1303,-26.3335,22.6279,7.12502,0.223625,52.6075,-13.2893,20.9212,12.9547,22.754,-12.4707,0.00858241,-15.2892,-4.88082,-4.9063,-21.0865,22.813,-28.7175,30.8168,13.9696
12.1442,18.8615,5.00657,1.61977,-40.3496,-3.44846,7.2096,-0.407706,-5.61703,1.3233,-1.00332,-0.572115,-2.58711,-0.464123,2.65584,-8.68114,-4.30845,-6.18902,16.4598,-6.99178,10.8171,7.04656,-2.9399,3.90774,2.43511e-14,-3.81667e-14,-35.3036,0.0151778,-79.8873,41.2834,9.20619,-23.8591,3.03961,7.12502,2.61342,-26.9241,2.43511e-14,-3.81667e-14,-34.736,32.0697,67.103,12.0641,-33.6051,-26.0698,22.9554,7.12502,0.478292,52.9346,-13.2381,20.8899,12.9511,22.5866,-12.7967,0.00970666,-15.2428,-4.87014,-4.81953,-21.0589,22.7731,-29.2838,30.9749,14.485
12.1576,18.8657,4.95328,3.54339,-40.8578,-6.0152,7.46888,-0.518872,-3.91291,1.22482,-1.01567,-0.0211295,-2.85288,-0.473811,2.27612,-8.60454,-4.53438,-6.35412,16.7276,-7.30609,10.7721,7.15252,-3.10355,3.89308,-4.39314e-14,1.19271e-14,-35.2315,-0.0515626,-79.8708,41.3475,9.46168,-24.2568,2.88911,7.12502,2.22935,-27.079,-4.39314e-14,1.19271e-14,-34.8491,33.2416,66.2849,11.6236,-35.1595,-24.9342,22.9281,7.12502,1.57515,52.9021,-13.5848,21.621,15.0006,22.3931,-13.0446,-1.21601,-15.205,-5.41462,-4.5907,-18.7428,22.8735,-29.5659,31.0282,14.9084
12.1482,18.8634,4.98594,3.1005,-41.5089,-5.59058,7.0303,-0.551334,-4.00743,1.4464,-1.04731,-0.193616,-2.37846,-0.503024,2.14428,-8.53583,-4.81261,-6.40586,17.0636,-7.67925,10.5271,7.27612,-3.30257,3.78689,3.23025e-14,-5.56597e-15,-35.2035,-0.0675601,-79.8473,41.4751,9.73981,-25.0123,3.28068,7.12502,1.49965,-26.6938,3.23025e-14,-5.56597e-15,-34.9306,34.0971,65.6869,11.1994,-36.0661,-23.6184,22.706,7.12502,2.84586,52.6668,-12.8903,21.0861,14.6794,22.0673,-13.3437,-1.416,-14.7749,-5.11767,-4.5436,-19.3123,23.2625,-30.5357,31.1752,15.3841
12.1503,18.8618,4.97486,3.1897,-42.1252,-5.54943,6.89113,-0.592382,-4.06292,1.45506,-1.10011,-0.227453,-2.28803,-0.531088,2.14256,-8.60261,-5.0904,-6.31345,17.5929,-8.03701,10.0274,7.4689,-3.49784,3.57113,3.28989e-14,2.14687e-14,-35.2051,0.0695549,-79.8935,41.4716,9.64986,-25.2846,3.06726,7.12502,1.2367,-26.9089,3.28989e-14,2.14687e-14,-35.2079,35.2017,64.8688,10.9268,-37.3009,-23.2479,22.4934,7.12502,3.20372,52.4491,-12.7609,20.6533,14.6295,21.8196,-13.2799,-2.12913,-14.2626,-5.36814,-4.37781,-19.3884,23.6357,-31.0968,31.2767,16.0182
12.1671,18.8643,4.9136,3.89428,-42.6646,-6.28969,7.33245,-0.626679,-3.82812,1.31162,-1.14609,-0.0473188,-2.68034,-0.544748,2.21035,-8.5452,-5.34861,-6.31505,17.9892,-8.36912,9.66002,7.60201,-3.68332,3.41803,2.60408e-14,-6.36111e-15,-35.1914,0.0351593,-79.8818,41.2485,9.49706,-24.4346,1.64243,7.12502,2.05762,-28.3274,2.60408e-14,-6.36111e-15,-35.6692,36.7946,63.6356,10.6628,-39.7194,-23.1822,22.3372,7.12502,3.26713,52.2919,-13.167,20.7118,15.2166,22.042,-13.6085,-3.60664,-14.3754,-5.76245,-4.02773,-18.6398,23.513,-30.9861,31.424,16.3168
12.1672,18.8699,4.9071,3.93763,-43.1962,-6.3428,7.28157,-0.658033,-3.77129,1.34558,-1.18182,-0.0815009,-2.61641,-0.565019,2.14505,-8.25101,-5.6212,-6.53114,18.2337,-8.73798,9.55796,7.66654,-3.88957,3.389,-3.77691e-14,-7.15625e-15,-35.2844,-0.103036,-79.7627,41.012,9.63603,-23.0762,1.74129,7.12502,3.36948,-28.2118,-3.77691e-14,-7.15625e-15,-35.8374,37.6471,62.8911,10.3687,-41.4506,-23.2174,22.4471,7.12502,3.23319,52.4023,-13.137,20.2015,15.3143,22.4133,-14.8162,-4.88087,-15.8917,-5.58536,-3.87164,-18.6589,23.3234,-31.2824,31.6427,16.3137
12.163,18.873,4.91405,3.58915,-43.6684,-5.82026,7.02881,-0.723946,-3.98054,1.42036,-1.27819,-0.270267,-2.39168,-0.617896,2.07027,-7.9621,-5.88611,-6.73156,18.525,-9.10714,9.46297,7.74775,-4.09405,3.3596,-7.21588e-14,1.59028e-14,-35.3829,0.111106,-79.9412,41.0272,9.19201,-23.7356,0.798379,7.12502,2.73271,-29.1639,-7.21588e-14,1.59028e-14,-35.6605,37.6881,62.7347,10.1557,-41.8423,-23.5996,22.6922,7.12502,2.86409,52.6527,-13.0597,19.3739,14.9615,22.8409,-15.0136,-5.70687,-13.1483,-5.36754,-4.00319,-19.2018,23.1952,-31.8298,31.9575,16.6121
12.1602,18.869,4.91691,2.88953,-44.1718,-4.76141,6.77811,-0.788741,-4.60428,1.49298,-1.4032,-0.54614,-2.16041,-0.683806,2.13953,-7.74941,-6.11717,-6.80272,18.8222,-9.41751,9.23085,7.82721,-4.27053,3.26734,8.21975e-14,-1.19271e-14,-35.3209,0.00224186,-79.9346,40.7603,9.48327,-24.429,0.671622,7.12502,2.06302,-29.2981,8.21975e-14,-1.19271e-14,-35.6445,38.0657,62.3591,10.0741,-42.6985,-23.3178,23.013,7.12502,3.13623,52.9697,-13.0024,18.5745,14.1322,23.3867,-16.0056,-6.74708,-14.1637,-5.1415,-4.06828,-20.1462,22.932,-32.3062,32.2205,17.0229
12.1732,18.8673,4.87289,3.15458,-44.7264,-4.93175,7.08183,-0.828431,-4.71312,1.36836,-1.48235,-0.47244,-2.44828,-0.713412,2.29155,-7.45098,-6.3017,-6.85275,19.0582,-9.66046,8.97691,7.86243,-4.41926,3.17407,-5.96354e-14,1.66979e-14,-35.2976,-0.0921236,-79.8398,40.4305,9.96874,-24.7703,1.01276,7.12502,1.73344,-28.9599,-5.96354e-14,1.66979e-14,-35.7374,38.5881,61.8703,10.0244,-43.8709,-22.5742,23.2535,7.12502,3.85432,53.1984,-13.3016,18.5747,14.279,23.8695,-16.114,-8.14692,-13.124,-5.40325,-3.81036,-19.925,22.8559,-32.4423,32.3354,17.3512
12.1739,18.8653,4.85371,3.22552,-45.4702,-4.9785,7.07604,-0.856029,-4.80339,1.35261,-1.52533,-0.448432,-2.45511,-0.733729,2.37076,-7.1546,-6.44936,-6.90847,19.3424,-9.84585,8.6724,7.90628,-4.54493,3.07143,-1.47498e-13,-7.95139e-16,-35.2766,0.0996267,-79.8596,40.1783,10.138,-24.765,1.41531,7.12502,1.73854,-28.5574,-1.47498e-13,-7.95139e-16,-35.2822,38.1721,62.239,9.83459,-43.2158,-22.9686,23.0809,7.12502,3.47346,53.0323,-13.4414,18.3661,14.3827,24.3349,-16.0595,-9.5081,-13.1618,-5.39766,-3.66967,-19.9133,22.8316,-32.9872,32.6409,17.6455
12.1696,18.8586,4.83055,3.5379,-46.4165,-5.24175,6.9437,-0.810231,-4.80371,1.30061,-1.45487,-0.346945,-2.43771,-0.697693,2.46755,-6.81234,-6.6112,-7.07584,19.6878,-10.042,8.35739,7.96824,-4.68565,2.98396,7.48424e-14,-4.77083e-15,-35.3225,0.431771,-79.8572,40.0117,10.1114,-24.8149,2.28557,7.12502,1.69036,-27.6875,7.48424e-14,-4.77083e-15,-34.8809,37.7474,62.6662,9.66502,-42.3519,-23.7139,22.9004,7.12502,2.75368,52.8624,-13.5447,18.237,14.609,24.6739,-15.9252,-10.5171,-10.7345,-5.56211,-3.67191,-19.7577,23.0233,-34.0346,32.9812,18.1297
12.157,18.8652,4.82844,3.6508,-47.2944,-5.28185,6.56118,-0.755554,-4.77515,1.30711,-1.35742,-0.3362,-2.22548,-0.654511,2.44623,-6.38,-6.78201,-7.10529,20.0151,-10.257,7.95739,7.99766,-4.83634,2.84711,-1.69961e-14,-2.46493e-14,-35.4351,0.499068,-79.7568,39.7723,10.2098,-24.7896,3.0047,7.12502,1.71477,-26.9682,-1.69961e-14,-2.46493e-14,-34.5443,37.1522,63.1199,9.74366,-41.9601,-23.6028,23.2255,7.12502,2.861,53.1861,-13.6073,17.7971,14.6797,25.0098,-15.3689,-11.4952,-8.65954,-5.54759,-3.52085,-19.8206,23.1857,-34.9034,33.1696,18.3178
12.1505,18.8614,4.81866,3.90973,-47.9212,-5.62643,6.38754,-0.790457,-4.49422,1.33714,-1.37283,-0.286095,-2.1019,-0.66703,2.33764,-6.12422,-6.92426,-6.99254,20.4428,-10.4287,7.45928,8.07541,-4.95838,2.65316,2.32578e-14,-1.66979e-14,-35.4006,0.227842,-79.5867,39.2736,10.6514,-24.5731,2.48139,7.12502,1.92383,-27.4897,2.32578e-14,-1.66979e-14,-34.1572,36.5443,63.4837,9.8158,-41.5248,-23.1511,23.4573,7.12502,3.29717,53.4115,-13.4282,17.4506,15.0069,25.3981,-15.2069,-12.3594,-6.0408,-5.51318,-3.26848,-19.5908,23.279,-35.2925,33.257,18.4368
12.1511,18.8609,4.79185,4.35534,-48.3857,-6.17833,6.48143,-0.880517,-4.22571,1.31323,-1.47556,-0.13136,-2.17427,-0.717213,2.3572,-6.01001,-7.06487,-7.0223,20.9322,-10.5904,7.03819,8.21066,-5.07536,2.50278,1.10226e-13,-2.14687e-14,-33.9307,-3.03415,-78.408,35.9527,14.1119,-24.6522,4.28738,7.12502,1.84752,-25.6844,1.10226e-13,-2.14687e-14,-33.6702,36.025,63.8679,9.70887,-40.8801,-22.8704,23.6391,7.12502,3.56821,53.5889,-13.4812,17.1567,15.5014,25.9109,-14.7949,-13.5818,-4.28178,-5.51162,-2.95422,-19.1274,23.1329,-35.3067,33.3363,18.6277
12.1487,18.8639,4.76872,4.07679,-48.8117,-5.616,6.43013,-0.987464,-4.69009,1.26887,-1.64897,-0.180149,-2.16715,-0.800387,2.58008,-5.8667,-7.19887,-7.01136,21.331,-10.7529,6.67132,8.31087,-5.18749,2.36461,4.48259e-14,-8.74653e-15,-35.5259,0.595581,-79.5874,39.0115,10.3137,-24.7487,1.70054,7.12502,1.75431,-28.272,4.48259e-14,-8.74653e-15,-33.2533,35.5179,64.2215,9.68256,-40.383,-23.0732,23.8201,7.12502,3.37245,53.7732,-13.6314,16.6512,15.1316,26.4581,-14.5452,-14.6855,-3.00702,-5.54771,-2.72681,-19.5046,22.9235,-35.3274,33.4443,18.7422
12.1465,18.8665,4.75054,3.30256,-49.2066,-4.42419,6.38763,-1.08104,-5.48766,1.20482,-1.83162,-0.348583,-2.17544,-0.885663,2.86667,-5.67402,-7.30443,-7.07276,21.7178,-10.8954,6.42491,8.40748,-5.28763,2.28173,1.02076e-13,7.95139e-15,-35.3755,0.0916088,-79.3395,38.3712,10.8262,-24.5876,2.2826,7.12502,1.90982,-27.6886,1.02076e-13,7.95139e-15,-32.9535,34.9362,64.5657,9.82953,-39.735,-23.3322,23.8133,7.12502,3.12224,53.7702,-13.7527,16.0989,14.2925,27.0625,-14.5387,-15.4566,-2.13127,-5.47529,-2.73556,-20.3745,22.5896,-35.4489,33.7137,18.8348
12.1412,18.8643,4.73951,2.8795,-49.6134,-3.85995,6.37564,-1.12451,-5.73361,1.18545,-1.90887,-0.44141,-2.17698,-0.922566,2.91412,-5.56905,-7.43648,-7.34377,22.2248,-11.0911,6.34788,8.58815,-5.4118,2.27778,-1.99779e-14,1.98785e-14,-35.3758,-0.367871,-79.0203,37.7938,11.3007,-25.3811,1.38828,7.12502,1.14346,-28.5884,-1.99779e-14,1.98785e-14,-32.554,34.2121,65.0387,9.98802,-38.6958,-23.4187,23.4434,7.12502,3.03873,53.4015,-13.7248,15.5008,13.9307,27.6543,-14.4686,-15.8932,-1.07784,-5.22167,-2.73831,-20.8148,22.1948,-35.6298,34.0001,18.3569
12.1311,18.8589,4.73684,2.6067,-50.156,-3.63694,6.26021,-1.11095,-5.59789,1.28321,-1.87433,-0.547327,-2.02257,-0.913245,2.72108,-5.64206,-7.63676,-7.59184,22.8581,-11.3847,6.26556,8.85327,-5.57547,2.24797,1.59028e-15,1.03368e-14,-35.3974,-0.790684,-78.7874,37.3838,11.7259,-24.8908,2.11954,7.12502,1.61701,-27.8541,1.59028e-15,1.03368e-14,-32.0078,33.4214,65.5583,10.0884,-37.7104,-23.8851,23.0191,7.12502,2.58829,52.9832,-13.4909,14.928,13.8281,28.0945,-14.3027,-16.236,-0.582894,-4.88341,-2.65108,-21.0412,21.9652,-36.0614,34.1975,17.988
12.1189,18.854,4.73164,2.49918,-50.7626,-3.74009,6.21048,-1.0824,-5.2848,1.41152,-1.8104,-0.587462,-1.87901,-0.889788,2.49635,-5.79003,-7.82571,-7.55296,23.5378,-11.6414,5.93032,9.11434,-5.71963,2.08627,3.926e-14,-6.36111e-15,-35.3619,-1.48345,-78.4727,36.9304,12.437,-25.1918,-0.927364,7.12502,1.32637,-30.903,3.926e-14,-6.36111e-15,-31.2946,32.0279,66.4791,10.2545,-36.159,-24.5373,22.989,7.12502,1.95843,52.9597,-13.0945,14.5913,13.9995,28.3745,-14.2099,-16.718,-0.573807,-4.56813,-2.44297,-20.9991,21.9554,-36.5697,34.2594,18.2178
12.1038,18.851,4.71929,2.84212,-51.3494,-4.41262,6.29212,-1.08681,-4.80206,1.45263,-1.78521,-0.447551,-1.89479,-0.879276,2.37037,-5.89376,-7.91707,-7.35702,24.1387,-11.7546,5.4972,9.31306,-5.7954,1.88426,1.01181e-13,-1.82882e-14,-35.4416,-1.92178,-78.1226,36.4885,12.8671,-25.4328,-2.46074,7.12502,1.09359,-32.4377,1.01181e-13,-1.82882e-14,-30.933,31.0284,67.1066,10.4804,-34.8561,-24.9736,22.9167,7.12502,1.53711,52.8909,-12.6894,14.4349,14.5787,28.5743,-14.2886,-17.1419,-0.0037421,-4.34283,-2.19396,-20.5107,22.0588,-37.0382,34.2286,18.392
12.0891,18.8478,4.7064,3.05748,-51.8687,-4.72746,6.29417,-1.13137,-4.60902,1.43089,-1.82883,-0.311984,-1.91678,-0.900511,2.40578,-5.81028,-7.95575,-7.33643,24.4064,-11.7996,5.27714,9.38002,-5.84039,1.80146,-1.63997e-14,2.70347e-14,-35.6241,-1.80831,-77.863,36.2061,12.7966,-25.4842,-2.07167,7.12502,1.04391,-32.0489,-1.63997e-14,2.70347e-14,-30.7739,30.7811,67.3112,10.6796,-34.6107,-24.6995,23.1781,7.12502,1.80183,53.1502,-12.453,14.1166,14.8468,28.7487,-14.3097,-17.454,0.268428,-4.30167,-2.11156,-20.2839,22.1918,-37.4709,34.3707,18.3664
12.0757,18.8445,4.69415,2.96534,-52.3541,-4.59241,6.25704,-1.17194,-4.65062,1.40829,-1.88219,-0.244383,-1.9117,-0.926489,2.50205,-5.36584,-8.01882,-7.36718,24.2134,-11.8459,5.04232,9.22008,-5.90164,1.74431,-6.63941e-14,-1.74931e-14,-35.8245,-1.5767,-77.6288,36.0172,12.6135,-25.4827,-2.07081,7.12502,1.04534,-32.048,-6.63941e-14,-1.74931e-14,-30.5849,30.5977,67.4949,10.9652,-34.8083,-23.6251,23.6339,7.12502,2.83944,53.5947,-12.2758,13.6927,14.7706,28.9529,-14.4564,-17.7345,0.558676,-4.28678,-1.89097,-20.361,22.2558,-37.5694,34.6034,18.0941
12.0609,18.8432,4.67985,2.80116,-52.8738,-4.42705,6.2904,-1.18897,-4.69839,1.3672,-1.90947,-0.193073,-1.96727,-0.937667,2.58545,-4.8788,-8.11879,-7.37991,24.0793,-11.9339,4.70822,9.06929,-5.9908,1.64854,6.6891e-14,3.26007e-14,-36.0282,-1.57755,-77.3482,35.751,12.588,-25.091,-0.334562,7.12502,1.42364,-30.3096,6.6891e-14,3.26007e-14,-30.3611,29.7758,68.0033,11.3375,-33.9576,-22.7989,23.8565,7.12502,3.63732,53.8052,-12.061,13.3852,14.6696,29.2055,-14.7998,-17.8666,1.76161,-4.16646,-1.53527,-20.4365,22.2121,-37.5965,34.7549,18.0698
12.0422,18.842,4.66609,2.46953,-53.4088,-4.01083,6.25999,-1.21345,-4.92423,1.30216,-1.95604,-0.17105,-2.00532,-0.95749,2.73837,-4.66947,-8.18225,-7.5041,24.3336,-12.012,4.51927,9.12194,-6.06478,1.60148,8.10048e-15,-2.38542e-15,-36.2759,-1.87381,-76.9585,35.5409,12.884,-24.5931,1.59501,7.12502,1.90454,-28.3762,8.10048e-15,-2.38542e-15,-30.1488,28.6385,68.6367,11.6396,-32.6264,-22.7703,23.9368,7.12502,3.66495,53.885,-11.8818,13.1201,14.4102,29.4681,-14.9952,-18.049,2.38822,-4.04124,-1.36672,-20.6814,22.1208,-37.9016,34.9138,18.3456
12.0208,18.839,4.65216,2.18628,-53.9432,-3.68919,6.24875,-1.23718,-5.12863,1.23728,-2.00035,-0.112878,-2.05317,-0.975751,2.91709,-4.43627,-8.16028,-7.68075,24.5493,-12.0028,4.49357,9.16453,-6.08878,1.62892,4.86525e-14,1.19271e-14,-36.5905,-2.34295,-76.4716,35.433,13.3636,-24.909,-0.000718392,7.12502,1.5995,-29.9745,4.86525e-14,1.19271e-14,-29.9641,27.4807,69.2637,11.9481,-31.3984,-22.9781,23.9465,7.12502,3.46425,53.8981,-11.6722,12.7922,14.2597,29.7063,-15.1084,-18.4057,2.24892,-3.87758,-1.17349,-20.8469,22.0262,-38.1829,35.0385,18.494
12.0003,18.8354,4.63683,2.07525,-54.4331,-3.56357,6.24505,-1.26094,-5.15202,1.18582,-2.03285,-0.0531298,-2.09844,-0.989301,2.9952,-4.20067,-8.11082,-7.69943,24.6564,-11.9391,4.3695,9.14753,-6.08218,1.60678,2.89729e-14,7.95139e-16,-36.7736,-2.80495,-76.0156,35.0257,13.7455,-25.2053,-0.0766334,7.12502,1.31331,-30.0523,2.89729e-14,7.95139e-16,-29.7118,26.4255,69.8576,12.3373,-29.9129,-22.892,24.158,7.12502,3.54744,54.1082,-11.4646,12.47,14.2456,29.9037,-15.2946,-18.8435,2.45698,-3.74885,-0.889437,-20.8664,21.953,-38.3945,35.1255,18.9495
11.9808,18.8321,4.61974,1.9723,-54.9021,-3.34606,6.14258,-1.30125,-5.15548,1.13391,-2.08083,-0.0249827,-2.08945,-1.01214,3.02742,-4.11732,-8.0871,-7.68459,24.8786,-11.8964,4.17454,9.19408,-6.08517,1.5439,-1.42131e-14,1.66979e-14,-36.7638,-3.31193,-75.5442,34.2671,14.2518,-24.4692,4.87224,7.12502,2.02419,-25.0979,-1.42131e-14,1.66979e-14,-29.5038,25.8198,70.2186,12.6503,-28.8778,-22.9666,24.1459,7.12502,3.47531,54.0974,-11.3291,12.2734,14.1441,30.0497,-15.446,-19.3091,3.02716,-3.74223,-0.708245,-20.9572,21.9368,-38.6824,35.2681,19.4496
11.9585,18.8284,4.60387,2.02103,-55.3499,-3.36651,5.98448,-1.37509,-4.98644,1.14165,-2.15704,0.0321532,-1.99041,-1.05371,2.99172,-4.11407,-8.0736,-7.74124,25.0971,-11.8853,4.11201,9.26982,-6.09469,1.52916,-8.54774e-14,0,-36.6183,-4.08923,-74.9901,33.385,15.1293,-24.4071,4.56133,7.12502,2.08417,-25.4082,-8.54774e-14,0,-29.2955,25.3482,70.4963,12.9087,-28.1181,-23.0026,23.7748,7.12502,3.44059,53.7268,-11.1143,12.0444,14.2039,30.1615,-15.4667,-19.7306,3.69288,-3.70192,-0.637422,-20.9077,21.9587,-38.9256,35.4385,19.6985
11.9331,18.8279,4.59049,2.21329,-55.7505,-3.58677,5.78867,-1.47438,-4.70816,1.17717,-2.25782,0.119827,-1.84283,-1.10968,2.92568,-4.0749,-8.07008,-7.71201,25.206,-11.8788,3.99985,9.29152,-6.10372,1.48731,-5.26779e-15,3.18055e-15,-36.4802,-4.98134,-74.412,32.5185,16.1729,-24.7116,3.71029,7.12502,1.7901,-26.262,-5.26779e-15,3.18055e-15,-29.0273,24.5842,70.8913,13.2225,-26.9305,-22.7497,23.675,7.12502,3.68485,53.6229,-10.8145,11.7735,14.3818,30.2381,-15.8543,-20.0414,5.13989,-3.6532,-0.605317,-20.7219,22.0093,-39.2041,35.5528,20.2569
11.9077,18.8292,4.57224,2.41196,-56.1849,-3.76435,5.62709,-1.5404,-4.45163,1.16158,-2.32045,0.183327,-1.7711,-1.14332,2.84614,-3.93395,-8.09848,-7.70868,25.302,-11.9213,3.88421,9.29488,-6.14133,1.44791,8.40859e-14,-1.19271e-14,-36.4971,-5.68189,-73.9538,31.7888,17.0139,-24.9187,2.54895,7.12502,1.59013,-27.4249,8.40859e-14,-1.19271e-14,-28.8361,23.791,71.227,13.5483,-25.9569,-22.6513,24.0116,7.12502,3.77982,53.9578,-10.5735,11.6276,14.5432,30.297,-16.6124,-20.4185,7.0766,-3.64692,-0.561119,-20.5486,22.0543,-39.6156,35.5912,20.8429
11.882,18.8269,4.54684,2.71194,-56.6524,-4.05412,5.49811,-1.55039,-4.12162,1.16053,-2.30702,0.234929,-1.71236,-1.13922,2.70906,-3.8594,-8.17049,-7.78309,25.4581,-12.0459,3.88964,9.35072,-6.21081,1.44787,1.82385e-14,7.95139e-15,-36.7174,-5.29543,-73.991,31.6132,16.5842,-25.025,1.93065,7.12502,1.4874,-28.0439,1.82385e-14,7.95139e-15,-28.5735,23.1232,71.5002,13.7905,-25.4037,-22.7525,24.3462,7.12502,3.6821,54.2941,-10.4147,11.4828,14.8335,30.3747,-16.6608,-21.1531,6.89634,-3.62358,-0.474135,-20.2868,22.0395,-40.0222,35.5267,21.4388
11.8534,18.8218,4.52339,2.73588,-57.1448,-4.02689,5.34159,-1.52764,-3.96294,1.17769,-2.26009,0.24626,-1.61664,-1.1188,2.62309,-3.8257,-8.24542,-7.86771,25.6009,-12.1716,3.91041,9.41145,-6.27854,1.45262,-2.34069e-14,-1.39149e-14,-37.3452,-2.88121,-74.8218,32.4674,13.9113,-25.1167,1.20144,7.12502,1.39883,-28.7737,-2.34069e-14,-1.39149e-14,-28.2736,22.465,71.8026,13.9964,-24.7577,-23.0035,24.2893,7.12502,3.43969,54.2413,-10.2542,11.224,14.9198,30.4342,-16.1409,-21.835,5.38565,-3.56768,-0.374316,-20.2349,22.0338,-40.587,35.4003,21.0875
11.8231,18.8158,4.50724,2.37743,-57.5812,-3.60908,5.21541,-1.53852,-3.98836,1.19016,-2.27044,0.232202,-1.53213,-1.12595,2.6188,-3.75089,-8.28272,-7.92612,25.6762,-12.2247,3.85401,9.42879,-6.31819,1.43871,1.13556e-13,-1.98785e-15,-37.5011,-3.05962,-74.5143,32.1378,14.0021,-25.1087,1.53078,7.12502,1.40663,-28.4443,1.13556e-13,-1.98785e-15,-28.0425,21.6967,72.1704,14.2352,-23.8068,-23.0809,24.2503,7.12502,3.36497,54.2035,-9.95907,10.9459,14.7546,30.4417,-16.147,-22.2263,5.67089,-3.47116,-0.429582,-20.458,22.1158,-41.3418,35.3655,20.5255
11.7936,18.8143,4.48504,2.58545,-57.7686,-3.83601,5.2047,-1.6614,-3.76425,1.14797,-2.419,0.379226,-1.5616,-1.19929,2.65388,-3.67382,-8.29306,-7.86245,25.7717,-12.2095,3.60707,9.42701,-6.33383,1.34898,-2.64632e-14,-3.97569e-15,-37.6506,-3.34484,-74.0661,31.7107,14.7224,-24.8809,2.18647,7.12502,1.62663,-27.7871,-2.64632e-14,-3.97569e-15,-27.9258,20.9978,72.5282,14.4931,-22.9152,-23.0499,24.5079,7.12502,3.39488,54.4606,-9.63151,10.692,15.0371,30.433,-16.4729,-22.769,6.96619,-3.49568,-0.374134,-20.211,22.2516,-41.4647,35.385,20.4717
11.7658,18.8156,4.45021,3.42989,-57.9229,-4.61376,5.16616,-1.80518,-3.33154,1.01747,-2.5819,0.618117,-1.67082,-1.27753,2.66863,-3.60192,-8.29996,-7.75634,25.9081,-12.1911,3.32841,9.43547,-6.34796,1.24121,-3.38182e-14,1.94809e-14,-37.8451,-3.34884,-73.848,31.4024,14.8704,-24.9448,1.95484,7.12502,1.56492,-28.0192,-3.38182e-14,1.94809e-14,-27.9346,20.4638,72.7576,14.8019,-22.3264,-23.0813,24.5255,7.12502,3.36461,54.4787,-9.52468,10.4657,15.6523,30.3981,-16.5975,-23.2696,7.65757,-3.78981,0.115928,-19.5302,22.4264,-40.9444,35.3427,20.0639
11.7401,18.816,4.40982,4.07262,-58.2562,-4.97764,4.99915,-1.89933,-3.13853,0.850267,-2.6886,0.801708,-1.74228,-1.32729,2.75314,-3.5558,-8.29929,-7.82752,26.0666,-12.1794,3.20292,9.47995,-6.36628,1.20986,-1.11071e-14,4.77083e-15,-38.0444,-3.04542,-73.7098,31.2007,14.6877,-24.641,2.11384,7.12502,1.85827,-27.8578,-1.11071e-14,4.77083e-15,-27.9514,20.0487,72.9464,15.1231,-21.7508,-22.9952,24.2871,7.12502,3.44774,54.239,-9.65223,10.3633,15.9826,30.3632,-16.6142,-23.5547,7.66122,-4.23558,0.520654,-19.136,22.5969,-40.7471,35.3777,19.8594
11.7124,18.8178,4.37532,3.95028,-58.6459,-4.82266,5.08518,-1.96392,-3.1782,0.796611,-2.77826,0.888786,-1.83309,-1.36915,2.87535,-3.48679,-8.28664,-7.96606,26.1865,-12.163,3.16443,9.51669,-6.38062,1.22075,-1.91082e-14,-8.34896e-15,-38.207,-2.91495,-73.4877,30.9522,14.814,-24.2417,2.8784,7.12502,2.24397,-27.0895,-1.91082e-14,-8.34896e-15,-27.9169,19.6536,73.1296,15.4167,-21.1858,-22.8143,24.2988,7.12502,3.62248,54.2478,-9.45993,10.3998,16.0574,30.3899,-16.7336,-23.8866,7.15305,-4.1997,0.0853405,-19.1587,22.6033,-41.69,35.5127,21.0421
11.6757,18.8172,4.34537,3.2929,-59.0899,-3.9843,4.93219,-1.93422,-3.49394,0.799485,-2.75278,0.755771,-1.7381,-1.35663,2.90703,-3.33115,-8.34497,-7.81706,26.1329,-12.288,3.19161,9.46755,-6.42834,1.20183,-1.81391e-15,-3.97569e-15,-38.3887,-3.44119,-73.2538,30.653,15.2502,-24.1518,3.37678,7.12502,2.33071,-26.5902,-1.81391e-15,-3.97569e-15,-27.7024,18.9596,73.266,15.6801,-20.7589,-22.8423,24.555,7.12502,3.5954,54.5045,-9.3164,10.2986,15.722,30.4737,-16.9345,-23.9011,6.37369,-4.07685,0.143734,-19.5122,22.4572,-42.0349,35.5763,21.7352
11.6314,18.8104,4.329,2.1415,-59.5546,-2.6709,4.65913,-1.8585,-3.88824,0.872212,-2.66527,0.498275,-1.51139,-1.31737,2.84459,-3.22432,-8.46173,-7.44652,26.1361,-12.4845,3.07078,9.42611,-6.50221,1.08762,1.65737e-14,1.23246e-14,-38.6962,-3.53611,-73.2471,30.5877,15.0979,-24.1357,3.3052,7.12502,2.34626,-26.6616,1.65737e-14,1.23246e-14,-27.4227,18.2164,73.4248,15.8842,-20.2879,-23.1699,24.6464,7.12502,3.27903,54.6009,-9.03816,9.93702,15.0762,30.5498,-17.1154,-23.5479,5.01156,-3.75367,0.494164,-20.1668,22.2494,-41.9883,35.7715,21.4022
11.592,18.8076,4.30002,1.86486,-59.9033,-2.31274,4.51429,-1.88417,-3.86966,0.884349,-2.69294,0.458935,-1.41856,-1.33351,2.7888,-3.2427,-8.53117,-7.30879,26.2929,-12.5966,2.96781,9.47541,-6.55446,1.0146,2.26118e-15,-5.56597e-15,-39.0019,-2.91053,-73.4252,30.6636,14.5298,-23.9464,3.28516,7.12502,2.52908,-26.6796,2.26118e-15,-5.56597e-15,-27.2304,17.4382,73.6604,16.0868,-19.4784,-23.2908,24.4052,7.12502,3.16225,54.3615,-8.84256,9.75909,15.0535,30.5923,-17.2514,-23.6754,3.57059,-3.57917,0.845337,-20.209,22.051,-41.6693,36.0555,20.9432
11.5532,18.8008,4.26804,1.97761,-60.4488,-2.51556,4.46785,-1.89244,-3.56182,0.920985,-2.68663,0.49527,-1.36792,-1.33316,2.6508,-3.20123,-8.5639,-7.61186,26.4328,-12.7253,3.30748,9.57198,-6.61477,1.15972,-4.77829e-14,5.1684e-15,-39.1662,-2.79821,-73.3531,30.5297,14.6851,-23.607,3.87868,7.12502,2.85686,-26.0819,-4.77829e-14,5.1684e-15,-27.0939,16.7917,73.8115,16.3023,-18.7742,-23.226,24.3501,7.12502,3.22488,54.3054,-8.59474,9.99344,15.372,30.5506,-17.4234,-23.9227,2.85392,-3.3519,1.265,-19.9958,21.9469,-41.3917,36.4831,19.6617
11.5151,18.7939,4.22838,1.85358,-60.9022,-2.38657,4.47141,-1.8846,-3.55295,0.8982,-2.67534,0.546538,-1.3921,-1.32668,2.69875,-3.09246,-8.6392,-8.01596,26.6712,-12.9343,3.68765,9.70916,-6.72098,1.32674,6.34123e-14,3.37934e-15,-39.3329,-3.07172,-73.0321,30.2656,15.1602,-23.5529,4.37299,7.12502,2.90916,-25.5869,6.34123e-14,3.37934e-15,-27.0429,16.9859,73.7391,16.4457,-19.0586,-23.1403,24.5233,7.12502,3.30758,54.4774,-8.367,10.2055,15.5308,30.3874,-17.7322,-24.131,1.88837,-3.27095,1.97604,-19.8827,21.9838,-40.626,36.8113,18.0572
11.4758,18.7895,4.1843,1.9685,-61.2343,-2.45787,4.44383,-1.89848,-3.45735,0.84421,-2.68762,0.615951,-1.43242,-1.33136,2.71748,-2.87874,-8.72093,-8.0815,26.7803,-13.1021,3.74095,9.72973,-6.81009,1.34442,-4.23784e-14,-3.97569e-16,-39.5228,-3.21609,-72.8369,29.9889,15.3957,-23.6627,4.38892,7.12502,2.80313,-25.5724,-4.23784e-14,-3.97569e-16,-27.0254,16.9878,73.6969,16.6474,-19.1663,-22.9866,24.5239,7.12502,3.45607,54.4756,-8.18375,10.3542,15.8299,30.1507,-18.0397,-24.4207,0.0546191,-3.26704,2.29411,-19.6322,22.037,-40.5437,36.8368,17.8594
11.4278,18.7827,4.15801,2.05186,-61.7797,-2.5923,4.24355,-1.94806,-3.14463,0.894488,-2.73133,0.665991,-1.27791,-1.35808,2.58641,-2.64774,-8.6792,-7.98861,26.6601,-13.0516,3.66232,9.62678,-6.79469,1.32422,-1.6524e-14,2.18663e-15,-39.5397,-3.20002,-72.6987,29.6698,15.7631,-23.4987,4.74764,7.12502,2.96152,-25.2115,-1.6524e-14,2.18663e-15,-27.0272,16.4047,73.8387,17.0027,-18.3352,-22.9251,24.686,7.12502,3.51545,54.6367,-7.91559,10.6687,16.0803,29.8558,-18.4736,-24.41,-0.836991,-3.04313,1.96044,-19.5315,22.034,-41.8058,36.8176,18.664
11.387,18.781,4.11166,1.74311,-62.0672,-2.19497,4.23426,-2.08752,-3.30612,0.88149,-2.92305,0.738619,-1.26118,-1.45358,2.76009,-2.4978,-8.57649,-8.03538,26.5788,-12.9321,3.7234,9.56874,-6.74481,1.37512,2.52953e-14,-3.37934e-15,-39.5416,-3.03636,-72.538,29.4453,16.0596,-23.3352,4.93203,7.12502,3.11938,-25.0249,2.52953e-14,-3.37934e-15,-27.037,15.9783,73.9707,17.3203,-17.7416,-22.7415,24.6907,7.12502,3.69274,54.6384,-7.73562,10.8896,16.1194,29.4987,-18.7862,-24.5025,-0.79818,-3.015,2.26261,-19.4902,22.0331,-41.7021,36.7315,19.1386
11.3444,18.7777,4.07146,1.31135,-62.4581,-1.62565,4.12907,-2.10663,-3.38103,0.846545,-2.9495,0.651985,-1.23723,-1.46634,2.71031,-2.25253,-8.56799,-7.95068,26.5648,-12.9795,3.78872,9.51948,-6.76378,1.39214,4.02166e-14,1.39149e-15,-39.7695,-3.12672,-72.4803,29.3364,16.0804,-23.1703,4.5895,7.12502,3.27862,-25.365,4.02166e-14,1.39149e-15,-27.0501,15.3203,74.03,17.6207,-17.379,-22.5311,24.3338,7.12502,3.89594,54.278,-7.65796,10.9914,16.0358,29.1228,-18.6986,-24.7097,-1.40621,-2.98362,2.44394,-19.586,22.0396,-41.9671,36.6481,19.9146
11.3018,18.7715,4.03332,1.44246,-62.8716,-1.62556,3.93111,-2.17225,-3.14163,0.82313,-3.02002,0.659728,-1.15768,-1.50328,2.57909,-2.16285,-8.57294,-7.70255,26.6298,-12.9678,3.51322,9.48736,-6.76744,1.26559,5.92937e-14,-5.56597e-15,-39.8406,-3.11973,-72.4571,29.1765,16.0565,-23.1441,4.33144,7.12502,3.30397,-25.6227,5.92937e-14,-5.56597e-15,-27.1401,14.8011,74.0973,18.0296,-16.9763,-22.4225,24.3949,7.12502,4.00081,54.3371,-7.64495,11.2203,16.2294,28.7723,-19.2584,-25.0157,-1.3701,-3.00968,2.76318,-19.4029,22.0601,-42.153,36.5187,20.1765
11.257,18.7682,3.98932,1.67073,-63.2512,-1.77181,3.79319,-2.30794,-2.99647,0.842895,-3.18852,0.831384,-1.04709,-1.59037,2.67393,-2.29918,-8.52032,-7.61989,26.7325,-12.8185,3.16428,9.50918,-6.7218,1.1417,-3.28243e-14,-9.93923e-16,-39.7324,-2.83263,-72.3025,29.0412,16.208,-23.1974,4.43729,7.12502,3.25248,-25.5176,-3.28243e-14,-9.93923e-16,-27.2064,14.6062,74.2438,18.4252,-16.5552,-22.2435,24.7217,7.12502,4.17362,54.6606,-7.55999,11.5646,16.5309,28.4341,-20.3005,-25.2896,-0.168642,-3.05483,3.33506,-19.0934,22.1458,-41.8501,36.4937,19.8235
11.2091,18.765,3.94293,1.49417,-63.6455,-1.57022,3.72191,-2.37263,-2.93692,0.883331,-3.27,0.854921,-0.962165,-1.63345,2.66321,-2.33259,-8.47905,-7.59334,26.838,-12.7725,3.13038,9.54585,-6.70375,1.12669,2.18353e-15,-3.18055e-15,-39.7719,-2.98028,-72.0948,28.9371,16.5938,-22.3193,5.82658,7.12502,4.10048,-24.1137,2.18353e-15,-3.18055e-15,-27.1885,13.9317,74.379,18.7899,-15.8703,-22.1539,24.853,7.12502,4.26011,54.7902,-7.39819,11.6074,16.6684,28.1358,-21.0786,-25.2546,1.32577,-3.02549,3.88592,-18.9521,22.302,-41.5151,36.5349,19.2385
11.162,18.7585,3.89565,1.55834,-64.0117,-1.59085,3.59099,-2.42961,-2.66973,0.920578,-3.33273,0.805971,-0.864864,-1.66721,2.45843,-2.29231,-8.4357,-7.61425,26.9688,-12.7907,3.32796,9.6016,-6.7014,1.1935,4.80655e-14,1.2424e-15,-39.8141,-3.4658,-71.988,28.7725,17.0966,-20.959,8.2024,7.12502,5.41395,-21.7084,4.80655e-14,1.2424e-15,-27.1885,13.128,74.4151,19.1634,-15.3225,-22.0649,24.6948,7.12502,4.34611,54.6302,-7.33171,11.5215,16.9128,27.9222,-21.5891,-25.1643,2.22334,-3.03138,4.2992,-18.7153,22.4414,-41.3153,36.5931,18.7045
11.1165,18.7494,3.84262,1.70826,-64.4454,-1.69434,3.53325,-2.48561,-2.48449,0.944912,-3.39911,0.825579,-0.813195,-1.70175,2.37384,-2.28317,-8.36358,-7.70452,27.0729,-12.7436,3.4862,9.6518,-6.67746,1.26406,-1.12438e-15,4.02539e-15,-39.802,-3.86369,-71.8896,28.637,17.5916,-20.8018,8.49403,7.12502,5.56573,-21.4129,-1.12438e-15,4.02539e-15,-27.2502,12.5714,74.4459,19.5719,-14.8605,-21.8563,24.4755,7.12502,4.54751,54.4067,-7.3362,11.5608,17.2399,27.7638,-21.7029,-25.272,2.02642,-3.06223,4.60127,-18.4464,22.5907,-41.2373,36.8054,18.7785
11.0654,18.7396,3.79714,1.36694,-65.0731,-1.29811,3.43107,-2.44944,-2.48357,0.963827,-3.34846,0.818838,-0.740138,-1.67781,2.35893,-2.21862,-8.31104,-7.69669,27.1293,-12.6832,3.4536,9.65316,-6.65702,1.26041,-3.97383e-14,1.09332e-15,-39.9112,-3.94795,-71.7267,28.6361,17.7189,-22.0585,5.04536,7.12502,4.35231,-24.8899,-3.97383e-14,1.09332e-15,-27.3784,11.822,74.6369,20.04,-14.1229,-22.0183,24.45,7.12502,4.39115,54.3845,-7.30521,11.5694,17.2712,27.6126,-21.6309,-25.1235,1.73242,-3.02215,4.90076,-18.4735,22.7995,-41.5153,37.0168,19.2511
11.0168,18.7323,3.74866,1.41796,-65.5573,-1.20578,3.32534,-2.43782,-2.37229,0.887076,-3.32594,0.916911,-0.761671,-1.66535,2.39368,-2.14,-8.29549,-7.72331,27.2635,-12.6455,3.27962,9.675,-6.6648,1.21054,5.24326e-14,-3.80176e-15,-40.1197,-3.77028,-71.5315,28.7215,17.5642,-22.1958,5.38791,7.12502,4.21974,-24.55,5.24326e-14,-3.80176e-15,-27.5933,10.9379,74.996,20.4734,-13.3086,-22.6948,24.2931,7.12502,3.73783,54.2401,-7.3722,11.5665,17.4229,27.4788,-21.8102,-24.9284,2.20229,-3.18669,5.58413,-18.2578,23.0849,-41.1899,36.9524,19.0038
10.9716,18.7228,3.69722,1.72185,-66.0167,-1.45633,3.37295,-2.45672,-2.12799,0.817069,-3.34284,1.05377,-0.864988,-1.67193,2.40281,-2.11046,-8.25441,-7.82451,27.4342,-12.5801,3.16809,9.72736,-6.66036,1.19282,7.93586e-15,-2.78299e-15,-40.2403,-3.73049,-71.3321,28.743,17.6244,-22.3834,5.26278,7.12502,4.03852,-24.6787,7.93586e-15,-2.78299e-15,-27.8624,10.0842,75.3541,20.9694,-12.3766,-23.3203,24.1983,7.12502,3.13382,54.155,-7.35855,11.6455,17.7411,27.3204,-22.0179,-24.7361,2.68974,-3.34747,6.27573,-17.8254,23.4442,-40.9068,36.7175,18.7591
10.945,18.7125,3.62131,2.12587,-66.1397,-1.69538,3.65432,-2.5979,-2.05313,0.681368,-3.53181,1.20728,-1.1456,-1.76114,2.54436,-2.08285,-8.18027,-7.92196,27.5203,-12.4947,3.19619,9.75687,-6.63218,1.2261,-5.48459e-14,-4.07509e-15,-40.2523,-3.882,-71.1332,28.7159,17.8159,-22.2865,5.58414,7.12502,4.13207,-24.3555,-5.48459e-14,-4.07509e-15,-28.1662,9.76922,75.4508,21.5925,-12.0564,-23.3219,24.3238,7.12502,3.13219,54.2806,-7.45117,11.7283,18.105,27.1485,-22.2845,-24.6096,3.2756,-3.79115,7.36352,-17.2341,23.8539,-39.5751,36.443,17.6565
10.908,18.6984,3.56499,2.53174,-66.5892,-2.14523,3.83177,-2.65468,-1.6967,0.681105,-3.59566,1.29497,-1.25764,-1.79301,2.44777,-2.12027,-8.11876,-7.97789,27.6581,-12.4275,3.20696,9.81429,-6.60909,1.24052,-2.39722e-14,-3.37934e-15,-40.2516,-3.90867,-71.0351,28.7494,17.6848,-22.1449,6.17128,7.12502,4.26887,-23.7657,-2.39722e-14,-3.37934e-15,-28.492,9.8791,75.3479,22.2277,-12.296,-22.8856,24.3056,7.12502,3.55362,54.2557,-7.37034,11.9945,18.485,27.0323,-22.3345,-24.2896,3.33663,-3.86703,8.04652,-16.7351,24.2094,-39.0757,36.4622,17.011
10.8593,18.6834,3.5131,2.043,-67.265,-1.6743,3.83214,-2.63503,-1.69313,0.76373,-3.5706,1.23799,-1.17824,-1.7825,2.38355,-2.19621,-8.0626,-7.95999,27.7785,-12.3616,3.19107,9.86539,-6.58049,1.23271,-5.83433e-14,1.25234e-14,-40.2339,-3.95831,-71.0051,28.8308,17.6234,-22.3722,6.07056,7.12502,4.0494,-23.8707,-5.83433e-14,1.25234e-14,-28.7057,9.46285,75.3653,22.7909,-11.9961,-22.8186,24.0609,7.12502,3.61825,54.0099,-7.2985,12.3196,18.4489,27.0027,-22.1931,-23.9822,2.94973,-3.7919,8.53538,-16.7099,24.5209,-39.0906,36.6332,16.2748
10.8094,18.6728,3.45838,0.993243,-67.9098,-0.619889,3.8457,-2.61523,-1.97464,0.857778,-3.55675,1.18454,-1.07619,-1.77742,2.48274,-2.14626,-8.00704,-8.02679,27.6891,-12.2668,3.15656,9.81948,-6.54822,1.24616,4.98453e-14,-8.34896e-15,-40.1718,-4.16097,-70.8331,28.8997,17.9454,-22.4111,5.87205,7.12502,4.0118,-24.0699,4.98453e-14,-8.34896e-15,-28.8593,8.9325,75.4963,23.2563,-11.5632,-22.9432,23.8578,7.12502,3.49793,53.8088,-7.21929,12.625,18.1698,27.0105,-22.3212,-23.4569,3.54469,-3.70844,9.21392,-16.856,24.8275,-38.8456,36.7682,16.3275
10.7622,18.6683,3.4032,0.630656,-68.4972,-0.360868,4.01539,-2.62817,-1.9783,0.923521,-3.5771,1.25669,-1.09743,-1.78861,2.56666,-2.02733,-7.93911,-8.13521,27.5709,-12.1462,3.08976,9.74962,-6.51301,1.26193,-1.39646e-14,-2.18663e-15,-40.1083,-4.11576,-70.7075,28.9862,18.069,-22.3143,5.90808,7.12502,4.10523,-24.0321,-1.39646e-14,-2.18663e-15,-29.1119,8.62152,75.6032,23.7534,-11.1546,-22.8942,24.0812,7.12502,3.54522,54.0315,-7.09095,12.95,18.2165,27.0485,-22.6073,-22.6973,4.58645,-3.60809,9.93682,-16.619,25.1732,-38.3162,36.9217,16.8712
10.7171,18.6637,3.34749,0.436643,-69.0579,-0.310096,4.2251,-2.63058,-1.84584,1.00179,-3.57866,1.30037,-1.1394,-1.79054,2.54651,-1.97068,-7.87305,-8.15178,27.5499,-12.0495,3.04239,9.72288,-6.47793,1.26203,-6.68413e-15,2.18663e-15,-40.0602,-4.00033,-70.6823,29.1176,18.0094,-22.4282,5.689,7.12502,3.99533,-24.2533,-6.68413e-15,2.18663e-15,-29.3526,8.19815,75.7235,24.253,-10.5887,-23.1132,24.3248,7.12502,3.33374,54.2785,-7.02361,12.8964,18.3671,27.0858,-22.1203,-22.1861,3.42535,-3.53535,10.5267,-16.3028,25.6393,-37.9385,37.0313,15.8095
10.6738,18.6529,3.29329,0.416823,-69.654,-0.474413,4.44899,-2.58038,-1.59589,1.11046,-3.50485,1.35992,-1.16828,-1.75573,2.47331,-1.97175,-7.84988,-8.24999,27.5604,-12.0176,3.05795,9.73285,-6.47234,1.28568,4.27636e-14,1.98785e-16,-40.0036,-3.84841,-70.6628,29.2831,17.7252,-22.4076,5.48408,7.12502,4.01519,-24.4578,4.27636e-14,1.98785e-16,-29.4966,7.88347,75.8925,24.6483,-10.3397,-23.2658,24.1729,7.12502,3.18642,54.1288,-6.96533,12.4535,18.6255,27.0678,-21.1603,-21.806,1.15954,-3.50435,11.1633,-15.8902,26.2665,-37.664,36.9973,14.6099
10.6293,18.6438,3.23983,1.05823,-70.3053,-1.29763,4.62559,-2.55275,-1.12524,1.22641,-3.44967,1.45371,-1.17282,-1.73104,2.30991,-1.99554,-7.79269,-8.22496,27.548,-11.9302,3.0154,9.72209,-6.43427,1.2757,2.73826e-14,8.74653e-15,-39.8843,-3.45834,-70.8451,29.4258,17.3771,-22.4743,5.54301,7.12502,3.95073,-24.4001,2.73826e-14,8.74653e-15,-29.6283,7.85328,75.8731,24.9788,-10.359,-23.0199,23.7818,7.12502,3.42384,53.734,-6.79751,12.3735,19.088,26.9873,-21.4372,-20.8534,2.90228,-3.55656,12.0981,-15.1941,27.0189,-37.0632,36.8259,13.6264
10.5845,18.6426,3.18885,1.89572,-70.8675,-2.22928,4.67781,-2.59935,-0.576323,1.33652,-3.48883,1.51956,-1.11577,-1.75357,2.07254,-2.02779,-7.69171,-7.90883,27.4817,-11.7379,2.72117,9.64978,-6.34302,1.14648,-4.47266e-16,-7.15625e-15,-39.6881,-3.15305,-71.0572,29.5216,17.3633,-22.5231,5.65051,7.12502,3.90366,-24.2935,-4.47266e-16,-7.15625e-15,-29.7682,8.07853,75.6873,25.2351,-10.4839,-22.9456,23.3699,7.12502,3.49564,53.321,-6.63674,12.4317,19.5162,26.8622,-22.0952,-19.674,5.87636,-3.74705,12.926,-14.4798,27.867,-36.2516,36.724,12.4874
10.5395,18.6445,3.14021,2.82387,-71.3886,-3.24587,4.72372,-2.64461,-0.0283528,1.42091,-3.52586,1.624,-1.07971,-1.7743,1.87592,-1.99119,-7.58502,-7.68634,27.4161,-11.5373,2.43229,9.57295,-6.25841,1.03787,6.23687e-15,1.19271e-15,-39.5279,-3.00015,-71.0887,29.6262,17.3912,-22.2288,5.62005,7.12502,4.18783,-24.3185,6.23687e-15,1.19271e-15,-29.9373,8.30065,75.5569,25.4667,-10.8713,-22.537,23.3816,7.12502,3.89024,53.3258,-6.50017,12.3739,19.9777,26.714,-22.1417,-18.8737,6.87402,-3.97407,13.4719,-13.7758,28.7753,-35.5521,36.7323,11.5608
10.4905,18.645,3.08882,3.73889,-72.0024,-4.26833,4.75441,-2.62729,0.407926,1.50146,-3.48503,1.73391,-1.03448,-1.75581,1.74246,-1.87445,-7.47203,-7.59681,27.3978,-11.3778,2.32881,9.52231,-6.19149,1.01135,2.25124e-14,-1.35174e-14,-39.4488,-2.94933,-71.0642,29.7354,17.521,-21.9696,5.46735,7.12502,4.43809,-24.4661,2.25124e-14,-1.35174e-14,-30.0736,8.26256,75.4913,25.6764,-11.2544,-21.5476,23.5851,7.12502,4.84557,53.5096,-6.32835,12.441,20.4867,26.5341,-21.9359,-18.4293,6.96385,-4.15843,14.0808,-13.0613,29.7473,-34.9992,36.5299,10.8648
10.4384,18.6445,3.03138,4.39473,-72.6904,-5.06357,4.80367,-2.56095,0.66827,1.60467,-3.38784,1.81992,-0.968272,-1.70911,1.67968,-1.79942,-7.3854,-7.51852,27.462,-11.2715,2.26835,9.51601,-6.14654,0.991481,3.31722e-14,-1.66979e-14,-39.3628,-2.81544,-71.0631,29.8355,17.7544,-22.0242,5.22207,7.12502,4.38541,-24.7125,3.31722e-14,-1.66979e-14,-30.1868,8.07866,75.5644,25.8562,-10.9349,-21.4823,23.6287,7.12502,4.9087,53.5519,-6.10964,12.5806,20.9551,26.3622,-21.6294,-18.1418,6.42477,-4.24928,14.7031,-12.3184,30.7609,-34.8777,35.7838,12.2112
10.3883,18.6495,2.97082,4.92239,-73.3245,-5.70374,4.90339,-2.4905,0.870603,1.67232,-3.2858,1.88279,-0.964318,-1.65927,1.62886,-1.7203,-7.32301,-7.44667,27.5514,-11.2032,2.21182,9.52122,-6.12,0.96951,2.84262e-14,1.15295e-14,-39.2872,-2.79355,-70.9858,29.9323,17.969,-21.924,5.18607,7.12502,4.4822,-24.7465,2.84262e-14,1.15295e-14,-30.4167,7.82543,75.6986,26.069,-10.1397,-22.4332,23.5542,7.12502,3.99048,53.4966,-5.94325,12.7535,21.3611,26.2779,-21.5375,-17.7749,6.50759,-4.39849,15.418,-11.542,31.7668,-34.1605,35.228,13.3672
10.3377,18.6565,2.90987,4.56688,-73.906,-5.33955,4.90869,-2.44342,0.772467,1.71808,-3.22936,1.83323,-0.918981,-1.63138,1.62848,-1.65565,-7.23833,-7.20848,27.6723,-11.106,2.08901,9.52365,-6.07109,0.90024,-2.29099e-14,4.37326e-15,-39.2018,-2.98119,-70.9769,29.9998,18.1565,-21.8654,5.28352,7.12502,4.53876,-24.6479,-2.29099e-14,4.37326e-15,-30.6965,7.58962,75.7008,26.27,-9.4405,-23.2596,23.3071,7.12502,3.19236,53.2629,-5.90675,12.9188,21.4368,26.2958,-21.5459,-17.4341,6.73696,-4.68757,16.2833,-11.1835,32.7535,-32.0137,35.619,11.101
10.2843,18.6615,2.8452,3.32266,-74.5685,-4.02217,4.8535,-2.40057,0.264703,1.76213,-3.19777,1.75725,-0.820446,-1.61666,1.82788,-1.65712,-7.10421,-6.94103,27.8793,-10.9403,1.94153,9.56271,-5.99066,0.819316,2.79541e-14,-1.35174e-14,-39.064,-2.83509,-71.1574,30.0597,18.2066,-22.2582,5.13112,7.12502,4.15946,-24.808,2.79541e-14,-1.35174e-14,-30.923,7.42232,75.7204,26.3826,-8.7658,-23.7039,23.0983,7.12502,2.76335,53.0601,-5.96203,13.1418,21.2326,26.4127,-21.5489,-17.0567,6.97662,-4.97267,16.9843,-11.1775,33.7355,-30.1065,35.9208,9.32124
10.2339,18.6679,2.77865,2.14794,-75.2889,-2.79938,4.90052,-2.31263,-0.227638,1.76673,-3.10287,1.73922,-0.819565,-1.57036,2.08134,-1.65878,-6.96543,-6.77202,28.1405,-10.7634,1.7918,9.6283,-5.9158,0.75259,4.88016e-14,-1.11319e-14,-38.9486,-2.71425,-71.1759,30.1286,18.3844,-22.1424,5.18886,7.12502,4.27131,-24.7481,4.88016e-14,-1.11319e-14,-31.1019,7.24685,75.8632,26.383,-8.22714,-24.0237,22.9807,7.12502,2.45445,52.9463,-6.0452,13.4893,21.0678,26.6062,-21.6607,-16.4874,7.90977,-5.23888,17.601,-11.058,34.7298,-28.5349,35.9661,8.57799
10.1868,18.6695,2.71548,1.02441,-75.969,-1.66041,5.00421,-2.23389,-0.526379,1.77046,-3.01179,1.68898,-0.864166,-1.525,2.19668,-1.75894,-6.81895,-6.68645,28.4719,-10.5787,1.6982,9.74698,-5.83876,0.712516,-2.11706e-14,1.27222e-14,-38.8079,-2.94932,-71.0297,30.1691,18.7412,-21.7436,5.58092,7.12502,4.65638,-24.3479,-2.11706e-14,1.27222e-14,-31.2638,7.22311,75.943,26.3445,-7.84445,-24.3585,22.85,7.12502,2.1311,52.8191,-6.10091,13.7927,20.9451,26.8013,-21.8034,-15.8939,8.84848,-5.51279,18.3349,-10.8606,35.7515,-26.5099,36.1257,7.06546
10.1378,18.6685,2.65563,-0.284684,-76.6213,-0.332758,5.04533,-2.19589,-0.751498,1.80332,-2.97312,1.57833,-0.849363,-1.50605,2.2078,-1.9862,-6.65271,-6.66686,28.8614,-10.3847,1.72243,9.92219,-5.75073,0.717268,-9.0944e-14,2.18663e-14,-38.653,-3.14711,-71.0324,30.2573,18.9865,-22.0196,5.5203,7.12502,4.38984,-24.4142,-9.0944e-14,2.18663e-14,-31.4233,7.42218,75.8127,26.3818,-7.95556,-24.0415,22.9543,7.12502,2.43725,52.9201,-6.13379,13.9977,20.8095,26.9427,-21.897,-15.491,9.10355,-5.79733,18.9139,-10.689,36.8165,-24.9622,36.0102,6.77467
10.0875,18.6719,2.59706,-1.2357,-77.2347,0.652653,5.03663,-2.15813,-0.844784,1.82556,-2.9283,1.45325,-0.82555,-1.48356,2.12813,-2.14029,-6.51142,-6.45931,29.2019,-10.2197,1.63671,10.0504,-5.66923,0.655811,4.79071e-14,-8.74653e-15,-38.5671,-3.09973,-71.2349,30.4601,18.9401,-22.1864,5.25934,7.12502,4.22878,-24.6784,4.79071e-14,-8.74653e-15,-31.5811,7.79827,75.4714,26.449,-8.85927,-23.0478,23.2687,7.12502,3.39695,53.2214,-6.161,14.135,20.7938,27.02,-21.8852,-15.2244,8.9949,-6.15114,19.1983,-10.4179,37.9165,-23.8208,35.7454,7.91419
10.0355,18.6757,2.53962,-1.89974,-77.8206,1.36873,4.97081,-2.1133,-0.815799,1.8263,-2.8676,1.31631,-0.799297,-1.4524,1.96523,-2.10845,-6.37142,-6.25379,29.3777,-10.0794,1.64144,10.0896,-5.59201,0.635602,-1.39149e-14,3.18055e-15,-38.5492,-2.97071,-71.4861,30.7198,18.8496,-21.916,5.61972,7.12502,4.48985,-24.3127,-1.39149e-14,3.18055e-15,-31.7647,8.15459,75.1432,26.4524,-9.56631,-22.5954,23.3885,7.12502,3.83384,53.3338,-6.14791,14.2526,20.8478,27.0188,-21.7869,-14.8791,9.01577,-6.56147,19.4543,-10.0591,39.0494,-22.4184,35.5603,9.08113
9.98379,18.6779,2.48559,-2.22111,-78.4405,1.6856,4.94762,-2.08474,-0.689723,1.82888,-2.82422,1.24796,-0.795113,-1.43007,1.8213,-2.03592,-6.19164,-6.28618,29.4714,-9.89593,1.81603,10.1126,-5.50192,0.720928,-4.0403e-14,7.15625e-15,-38.541,-2.63971,-71.7312,31.0403,18.7633,-22.0697,5.89397,7.12502,4.34143,-24.0415,-4.0403e-14,7.15625e-15,-32.0058,8.38953,75.0121,26.4231,-9.58647,-22.6875,23.3856,7.12502,3.7449,53.3324,-6.02587,14.4517,21.0106,26.9413,-21.7126,-14.501,9.19972,-6.92929,19.8519,-9.56393,40.2154,-20.3791,35.4933,9.0913
9.9382,18.6784,2.43513,-1.66587,-79.0473,1.10774,5.00716,-2.05365,-0.441444,1.82845,-2.77153,1.28893,-0.840406,-1.40325,1.72437,-2.00755,-6.04014,-6.34892,29.5515,-9.72092,1.91376,10.1367,-5.42429,0.782218,-4.42296e-15,7.95139e-16,-38.5096,-2.05962,-71.9895,31.4392,18.415,-22.54,5.72279,7.12502,3.88731,-24.2215,-4.42296e-15,7.95139e-16,-32.1947,8.46572,75.0565,26.3428,-9.40785,-22.6476,23.3957,7.12502,3.78338,53.3418,-5.89655,14.606,21.354,26.8165,-21.6129,-14.1552,9.44857,-7.35571,20.1977,-8.92709,41.4049,-18.2832,35.3566,9.29008
9.8929,18.6791,2.38804,-0.795184,-79.6317,0.2258,5.00826,-1.98724,-0.157141,1.88167,-2.67142,1.35535,-0.799483,-1.35398,1.62691,-2.08116,-5.94646,-6.3791,29.629,-9.61256,1.98865,10.1794,-5.37158,0.819551,6.11263e-15,-5.1684e-15,-38.4013,-1.86287,-72.0684,31.8398,18.2675,-22.7292,5.95495,7.12502,3.70462,-23.9926,6.11263e-15,-5.1684e-15,-32.2263,8.32219,75.1792,26.2277,-9.30274,-22.5974,23.3277,7.12502,3.83184,53.273,-5.76472,14.7007,21.7116,26.6822,-21.5518,-13.6806,9.5485,-7.81164,20.3443,-8.32155,42.5751,-16.7119,35.0856,10.7326
9.84628,18.6814,2.34186,0.411771,-80.2171,-1.01353,5.0052,-1.97113,0.117968,1.96037,-2.63999,1.48099,-0.724288,-1.33985,1.59827,-2.31508,-5.80645,-6.41506,29.8014,-9.38955,1.90816,10.2745,-5.28045,0.807027,3.67752e-15,7.55382e-15,-38.1969,-1.67063,-72.0675,32.2518,18.263,-22.8338,6.40098,7.12502,3.6036,-23.5483,3.67752e-15,7.55382e-15,-32.2942,8.3801,75.2785,26.158,-9.26172,-22.6939,23.2707,7.12502,3.73874,53.2177,-5.61489,14.7979,22.1188,26.5664,-21.5076,-13.1917,9.63778,-8.22344,20.4029,-7.68719,43.6879,-15.2718,34.6849,12.5133
9.80123,18.682,2.2959,0.536661,-80.7777,-1.14108,5.08244,-2.02157,0.190971,1.97106,-2.70397,1.53577,-0.755283,-1.37234,1.62005,-2.4506,-5.5933,-6.44285,29.9136,-9.06017,1.80383,10.3215,-5.14569,0.801311,-9.98893e-15,2.78299e-15,-38.0657,-1.07466,-72.2502,32.7353,18.1768,-23.4044,6.39434,7.12502,3.05255,-23.5636,-9.98893e-15,2.78299e-15,-32.5578,8.93618,75.2023,26.1333,-9.5383,-22.606,23.3123,7.12502,3.82357,53.2578,-5.50466,14.9023,22.3144,26.4757,-21.4281,-12.864,9.86223,-8.62203,20.4469,-7.29875,44.708,-13.7636,33.991,14.0797
9.75524,18.6811,2.25629,-0.611167,-81.3082,0.013785,5.17918,-2.02105,0.293222,1.9569,-2.69756,1.41735,-0.834343,-1.36768,1.44549,-2.40178,-5.43992,-6.40391,29.8533,-8.87679,1.90002,10.2819,-5.05086,0.850728,-8.84592e-15,-4.37326e-15,-38.0768,-0.838961,-72.4319,33.2575,18.4045,-24.0577,6.43653,7.12502,2.42165,-23.5295,-8.84592e-15,-4.37326e-15,-32.8262,9.38688,75.0388,26.1255,-10.034,-22.2955,23.3564,7.12502,4.12337,53.2963,-5.38494,15.0676,22.2921,26.4312,-21.4044,-12.6384,9.78297,-8.96524,20.473,-7.15579,45.6166,-11.9614,32.9434,14.8679
9.70827,18.6813,2.2199,-0.923182,-81.8158,0.361564,5.21561,-1.96913,0.56956,1.94524,-2.61481,1.3398,-0.884423,-1.32491,1.20866,-2.39408,-5.36755,-6.34933,29.8327,-8.79633,1.94768,10.2674,-5.00496,0.867377,-1.57537e-14,2.78299e-15,-38.0985,-0.759012,-72.5186,33.7955,18.6664,-24.1808,7.03122,7.12502,2.30278,-22.9361,-1.57537e-14,2.78299e-15,-32.9654,9.27358,75.113,26.0924,-10.0135,-22.1925,23.3478,7.12502,4.22292,53.2857,-5.3368,15.2256,22.398,26.467,-21.4443,-12.4078,9.55478,-9.33373,20.4592,-6.90487,46.4236,-9.96117,31.5646,14.7226
9.66249,18.683,2.18199,-2.05002,-82.3625,1.52964,5.25317,-1.92997,0.53363,1.95562,-2.56462,1.3303,-0.894362,-1.3001,1.21731,-2.50255,-5.27459,-6.30579,29.8853,-8.63412,1.82213,10.2912,-4.939,0.82757,4.8901e-14,-2.06736e-14,-38.0363,0.00411946,-72.8176,34.3552,17.9127,-24.0275,7.77421,7.12502,2.45079,-22.1915,4.8901e-14,-2.06736e-14,-33.0786,9.23233,75.2855,26.0459,-9.88992,-22.0905,23.4263,7.12502,4.3214,53.3622,-5.32744,15.3103,22.3699,26.5365,-21.3228,-12.0712,9.1633,-9.66751,20.3811,-6.82467,47.1337,-8.03825,29.8754,13.1224
9.61779,18.6839,2.14358,-5.12724,-82.9353,4.58695,5.40483,-1.87758,0.252037,1.97742,-2.50865,1.25179,-0.948875,-1.27268,1.29622,-2.59882,-5.1613,-6.25884,29.8901,-8.45968,1.77239,10.2974,-4.85872,0.816606,1.58034e-14,-3.57812e-15,-37.9807,1.08981,-73.2807,34.9517,16.1259,-22.8061,8.65528,7.12502,3.63031,-21.2936,1.58034e-14,-3.57812e-15,-33.2316,9.635,75.2468,25.9714,-10.3462,-21.9496,23.5269,7.12502,4.4574,53.46,-5.2228,15.4498,22.1258,26.5764,-20.985,-11.6889,8.43589,-9.90783,20.304,-6.99132,47.7586,-6.21248,27.9191,10.3518
9.57412,18.6833,2.10504,-7.70789,-83.451,7.13521,5.59089,-1.81541,0.157709,1.97364,-2.43011,1.16642,-1.05772,-1.23307,1.26373,-2.58781,-5.07296,-6.29981,29.8528,-8.35699,1.86961,10.2823,-4.80741,0.869204,2.90226e-14,-6.75868e-15,-37.945,1.82962,-73.5521,35.5527,14.9346,-22.5186,9.18613,7.12502,3.908,-20.7578,2.90226e-14,-6.75868e-15,-33.3721,10.0554,75.1695,25.8304,-10.8641,-22.0457,23.5521,7.12502,4.3646,53.4871,-5.09623,15.6476,22.027,26.6046,-20.7693,-11.2991,8.07384,-10.2052,20.1827,-7.05731,48.3012,-4.7077,25.8668,8.02669
9.52637,18.6854,2.07233,-9.55353,-83.9288,8.97845,5.64713,-1.74465,0.283729,1.99091,-2.33028,1.06984,-1.08236,-1.18267,1.08954,-2.53001,-5.05386,-6.20319,29.7768,-8.3512,1.89863,10.2384,-4.79265,0.867316,2.28602e-15,6.36111e-15,-37.9264,2.30934,-73.7489,36.161,14.7087,-26.7422,8.58933,7.12502,-0.171141,-21.3903,2.28602e-15,6.36111e-15,-33.4054,10.1362,75.2412,25.6452,-11.0961,-22.0504,23.6707,7.12502,4.36012,53.6058,-4.97552,15.892,22.0476,26.6387,-20.8533,-11.0367,8.10844,-10.5173,19.8875,-7.09251,48.7683,-3.91769,23.9408,6.77035
9.4695,18.6897,2.04644,-12.6859,-84.3807,12.1316,5.58419,-1.67971,0.323362,2.00626,-2.24346,0.9678,-1.03865,-1.13886,0.954678,-2.45862,-5.00593,-6.10467,29.7152,-8.29595,1.88506,10.193,-4.76047,0.855359,-3.43897e-14,1.15295e-14,-37.9303,2.90107,-73.9552,36.7608,14.4991,-24.7465,9.33395,7.12502,1.75641,-20.6386,-3.43897e-14,1.15295e-14,-33.4693,10.0374,75.4182,25.4431,-11.121,-21.8127,23.5741,7.12502,4.58965,53.5044,-4.83467,16.149,21.9296,26.6977,-21.073,-10.9195,7.96263,-10.7655,19.5147,-7.33662,49.1697,-3.75213,22.3348,5.85264
9.41825,18.6875,2.02138,-15.5508,-84.742,15.0575,5.59893,-1.7061,0.288048,1.95713,-2.2791,0.965536,-1.09555,-1.15619,0.975914,-2.39906,-4.84468,-6.18232,29.6962,-8.06715,1.88692,10.1669,-4.66764,0.894333,-1.65488e-14,3.97569e-15,-37.8204,3.75637,-74.1049,37.2531,14.2627,-26.7626,9.40271,7.12502,-0.190756,-20.5769,-1.65488e-14,3.97569e-15,-33.6851,10.3326,75.5072,25.2629,-11.2744,-21.6059,23.1402,7.12502,4.78927,53.066,-4.81653,16.2192,21.8209,26.8224,-21.2989,-10.6554,8.58214,-11.1503,19.0825,-7.58804,49.5218,-3.55411,20.8785,3.93519
9.37985,18.678,1.99542,-18.8072,-85.1183,18.3299,5.79436,-1.71587,0.215681,1.9197,-2.29423,0.95432,-1.24017,-1.16343,1.01352,-2.36257,-4.72442,-6.08666,29.6629,-7.8882,1.79522,10.1297,-4.58751,0.865841,-5.1684e-15,2.78299e-15,-37.6257,4.57349,-74.2685,37.69,14.2356,-27.8935,9.70165,7.12502,-1.28306,-20.2742,-5.1684e-15,2.78299e-15,-33.8778,10.8538,75.5237,25.1117,-11.8285,-21.6914,23.2812,7.12502,4.70674,53.209,-4.85168,16.3037,21.7572,27.0029,-21.4541,-10.4175,9.15545,-11.5846,18.6729,-7.81187,49.8538,-3.16647,19.369,1.41073
9.34331,18.6683,1.97003,-24.5899,-85.5443,24.0045,6.0873,-1.61469,0.0111929,1.95359,-2.17174,0.936614,-1.36328,-1.10289,1.11072,-2.35304,-4.67028,-6.04986,29.679,-7.79184,1.68191,10.1227,-4.55287,0.829467,-1.31198e-14,1.70955e-14,-37.426,5.16687,-74.2911,38.1523,14.107,-27.5465,10.534,7.12502,-0.94794,-19.4437,-1.31198e-14,1.70955e-14,-33.9199,10.8901,75.8722,24.9483,-12.1009,-22.2058,24.0212,7.12502,4.21006,53.9593,-4.75655,16.4637,21.6259,27.1754,-21.4364,-10.2808,8.24824,-11.8638,18.3688,-8.14489,50.1995,-3.11193,18.0714,0.121286
9.30046,18.6644,1.94652,-28.8207,-85.8752,28.1858,6.23041,-1.53331,-0.00379299,1.9964,-2.06535,0.959945,-1.39942,-1.05063,1.13933,-2.38378,-4.61838,-6.13341,29.7535,-7.72424,1.70675,10.1581,-4.53022,0.856468,3.2054e-14,7.95139e-15,-37.2099,5.59839,-74.2134,38.6026,13.9275,-28.4768,10.8739,7.12502,-1.84638,-19.0979,3.2054e-14,7.95139e-15,-33.8494,10.5544,76.3483,24.741,-11.7851,-22.4656,24.2662,7.12502,3.95919,54.2091,-4.6665,16.5098,21.6126,27.308,-21.4513,-10.0625,7.64784,-12.2387,17.9755,-8.39016,50.5467,-3.50617,17.0702,0.17108
9.25397,18.6636,1.92539,-29.8284,-86.1339,29.2586,6.22564,-1.51802,0.279886,1.99435,-2.02818,0.952092,-1.40966,-1.03198,0.96965,-2.39432,-4.59201,-6.04847,29.8366,-7.73263,1.78271,10.1903,-4.52081,0.866178,5.81445e-15,-1.51076e-14,-37.0265,5.92853,-74.2393,39.0202,13.9632,-29.4301,10.7157,7.12502,-2.76704,-19.2461,5.81445e-15,-1.51076e-14,-33.8229,10.3667,76.5836,24.5393,-11.6702,-22.0372,24.0657,7.12502,4.37281,54.0006,-4.63457,16.5135,21.7756,27.3719,-21.5354,-9.8753,8.19459,-12.8322,17.4934,-8.46698,50.8796,-4.03824,16.2274,1.0541
9.21016,18.658,1.90579,-31.8845,-86.3569,31.3512,6.28775,-1.53231,0.493053,1.98301,-2.03412,0.921306,-1.46423,-1.03476,0.821331,-2.39546,-4.53357,-5.96817,29.9251,-7.68007,1.79715,10.2176,-4.49117,0.861298,-3.10104e-14,2.38542e-14,-36.8279,6.37279,-74.3288,39.4278,13.9045,-29.7088,10.8864,7.12502,-3.03627,-19.0718,-3.10104e-14,2.38542e-14,-33.9223,10.6414,76.633,24.4029,-12.1924,-21.5695,23.9497,7.12502,4.82446,53.8748,-4.5279,16.6684,21.9006,27.3563,-21.5753,-9.89992,8.38905,-13.3986,16.9029,-8.65136,51.1837,-4.57455,15.5321,1.87027
9.16675,18.6524,1.88625,-33.3945,-86.6078,32.9159,6.31992,-1.54848,0.709725,1.98579,-2.0424,0.928086,-1.48638,-1.03912,0.708617,-2.36103,-4.47639,-5.937,29.934,-7.6204,1.8267,10.2109,-4.46032,0.873286,-2.05742e-14,2.06736e-14,-36.568,6.82427,-74.3898,39.8565,13.8045,-29.9006,10.7435,7.12502,-3.22144,-19.2119,-2.05742e-14,2.06736e-14,-34.0252,11.0803,76.6089,24.2891,-12.8524,-21.3455,23.7676,7.12502,5.04079,53.6877,-4.43278,16.9225,22.0827,27.3345,-21.6764,-9.9446,8.08471,-13.9822,16.2264,-8.84909,51.4481,-4.95205,14.9593,2.33005
9.12768,18.6495,1.8649,-30.713,-86.8996,30.3998,6.32186,-1.54604,1.07844,1.92596,-2.01336,1.04839,-1.5573,-1.02501,0.624892,-2.26615,-4.50511,-5.98321,29.9228,-7.68465,1.88077,10.1962,-4.49241,0.896686,3.27995e-15,3.18055e-15,-36.3502,7.20812,-74.3187,40.3193,13.7389,-30.0162,10.1085,7.12502,-3.33309,-19.8452,3.27995e-15,3.18055e-15,-34.095,11.2997,76.7228,24.1757,-13.2771,-21.0602,23.5939,7.12502,5.31621,53.5073,-4.5195,17.0765,22.459,27.3578,-21.7798,-9.91049,7.91865,-14.8296,15.575,-8.86784,51.6843,-5.23951,14.6151,3.90955
9.09107,18.645,1.8426,-30.0444,-87.0847,29.8965,6.38161,-1.51075,1.27457,1.8623,-1.94976,1.17694,-1.65807,-0.993996,0.645416,-2.24836,-4.57296,-6.16695,29.9742,-7.77723,1.90161,10.2267,-4.55409,0.925006,4.96962e-16,-7.95139e-16,-36.1337,7.47586,-74.0944,40.7698,13.593,-30.1658,9.63476,7.12502,-3.47755,-20.3166,4.96962e-16,-7.95139e-16,-34.0745,11.2013,77.1176,24.0803,-13.2512,-20.6164,23.5167,7.12502,5.74472,53.4188,-4.62492,17.2031,22.6675,27.3958,-21.8569,-10.0028,7.64631,-15.685,14.9166,-9.05243,51.852,-5.66174,14.4009,5.0912
9.04761,18.6426,1.8239,-34.4957,-87.2091,34.423,6.43135,-1.45442,1.27096,1.87854,-1.8746,1.2059,-1.66802,-0.956927,0.672542,-2.35686,-4.59256,-6.28046,30.0921,-7.78427,1.85793,10.2961,-4.57379,0.922196,-7.7526e-15,3.97569e-15,-35.8253,7.50669,-73.8633,41.1646,13.635,-30.3551,9.29189,7.12502,-3.66042,-20.6564,-7.7526e-15,3.97569e-15,-34.0091,11.1583,77.4478,23.995,-13.2294,-20.2933,23.2227,7.12502,6.05663,53.1161,-4.61632,17.3172,22.6084,27.4747,-21.9926,-10.0076,7.39831,-16.29,14.2588,-9.48846,51.9209,-6.08981,14.233,4.30994
9.00195,18.6404,1.80606,-39.4337,-87.3341,39.3777,6.5196,-1.44512,1.18974,1.89966,-1.86668,1.21696,-1.69245,-0.953321,0.73097,-2.43289,-4.55533,-6.2646,30.2451,-7.7343,1.80371,10.3628,-4.55844,0.900061,3.37934e-15,-4.77083e-15,-35.4753,7.72538,-73.7561,41.4936,13.6884,-30.3309,9.46543,7.12502,-3.637,-20.4833,3.37934e-15,-4.77083e-15,-34.1043,11.7789,77.4101,23.8825,-14.3371,-20.3866,23.194,7.12502,5.96661,53.09,-4.56844,17.3529,22.567,27.6223,-22.1991,-9.80334,7.92722,-16.7467,13.4285,-9.91176,51.8723,-7.18579,14.4001,6.66752
8.95811,18.6316,1.78599,-44.3972,-87.3515,44.4154,6.56714,-1.45444,1.01911,1.88805,-1.88899,1.19581,-1.72607,-0.964055,0.808141,-2.38309,-4.54624,-6.22587,30.3079,-7.76867,1.88077,10.3798,-4.56713,0.917611,1.42131e-14,3.97569e-15,-35.1651,8.1619,-73.7204,41.8197,13.4802,-30.3817,9.85999,7.12502,-3.68605,-20.0879,1.42131e-14,3.97569e-15,-34.1742,10.9367,77.9712,23.8813,-14.4104,-20.785,24.0194,7.12502,5.58195,53.9259,-4.58748,17.3649,22.4753,27.7652,-22.4627,-9.62207,8.85136,-17.2857,12.6143,-10.4476,51.7212,-8.0808,14.736,7.93589
8.91242,18.6228,1.77013,-51.6656,-87.2553,51.7204,6.61593,-1.39108,0.845721,1.91742,-1.81754,1.08379,-1.72177,-0.927893,0.785274,-2.28822,-4.57938,-6.18944,30.2582,-7.87295,2.04205,10.3528,-4.59575,0.961971,3.97569e-16,-9.54166e-15,-34.9014,8.3178,-73.6413,42.2027,13.2362,-30.5972,9.90606,7.12502,-3.89417,-20.0381,3.97569e-16,-9.54166e-15,-34.1751,10.1447,78.4436,23.9494,-14.4583,-20.8437,24.5184,7.12502,5.52526,54.4264,-4.56257,17.3794,22.2257,27.9419,-22.7219,-9.4709,8.85735,-17.7697,12.0678,-11.2116,51.4554,-7.57743,14.9889,2.1253
8.86448,18.6199,1.75973,-58.2028,-87.2565,58.1693,6.77694,-1.29985,0.890547,1.99123,-1.69539,0.986325,-1.74034,-0.867654,0.653299,-2.20666,-4.60561,-6.0348,30.1849,-7.9128,1.9873,10.3017,-4.60253,0.916793,1.66979e-14,2.38542e-15,-34.6185,8.1886,-73.5084,42.5406,13.2147,-30.8062,9.82494,7.12502,-4.09597,-20.1154,1.66979e-14,2.38542e-15,-34.1292,9.89136,78.6545,23.9221,-14.7053,-20.6713,24.507,7.12502,5.69168,54.4105,-4.42382,17.331,22.1202,28.208,-22.9331,-9.22485,8.37179,-18.046,11.4572,-11.7753,51.0866,-7.57425,15.1397,-1.24401
8.81965,18.6177,1.74863,-68.8029,-86.8263,68.6066,7.10855,-1.26063,0.312588,2.04572,-1.6843,0.822959,-1.85706,-0.861664,0.81616,-2.17635,-4.53491,-5.82174,30.2193,-7.77092,1.71251,10.2801,-4.54576,0.79869,1.40143e-14,3.97569e-15,-34.2751,8.22199,-73.4362,42.8011,13.4123,-31.1215,9.69567,7.12502,-4.4005,-20.2386,1.40143e-14,3.97569e-15,-34.2239,10.1329,78.6813,23.9151,-15.1429,-20.5592,24.4569,7.12502,5.79991,54.3575,-4.21037,17.29,21.5226,28.4652,-23.1237,-8.90901,8.13122,-18.171,10.7405,-12.8063,50.6428,-8.30602,15.4844,-0.824441
8.7763,18.6138,1.73058,-77.1175,-86.1472,76.9691,7.2282,-1.20218,-0.624557,2.05871,-1.6758,0.69318,-1.88741,-0.855625,1.21035,-2.21739,-4.4851,-5.9141,30.2968,-7.68541,1.66697,10.3157,-4.52322,0.803731,1.27222e-14,-3.97569e-15,-33.9244,8.40089,-73.3479,43.1431,13.4257,-31.3809,9.64035,7.12502,-4.65098,-20.2886,1.27222e-14,-3.97569e-15,-34.3242,10.3197,78.8376,23.9742,-15.5674,-20.6604,24.5261,7.12502,5.70225,54.4294,-4.23454,17.3909,20.6877,28.6763,-23.3242,-8.64182,8.28439,-18.5577,10.1115,-14.0885,50.1599,-8.70428,15.9741,-1.40546
8.72963,18.6096,1.70895,-78.1611,-86.4173,78.517,6.76768,-1.13999,-0.42479,1.99523,-1.57187,0.853524,-1.70038,-0.803799,1.2438,-2.22195,-4.55923,-6.12377,30.29,-7.79792,1.78313,10.3346,-4.58368,0.86859,-2.98177e-15,-1.51076e-14,-33.6045,8.4864,-73.1517,43.5245,13.1544,-31.5314,9.30396,7.12502,-4.79624,-20.6217,-2.98177e-15,-1.51076e-14,-34.2948,10.1537,79.1913,24.0552,-15.6743,-20.7132,24.6636,7.12502,5.65123,54.5682,-4.78602,17.4067,20.8953,28.8791,-23.4163,-8.54662,8.2772,-19.6105,9.54569,-14.2668,49.7263,-8.76946,16.3917,-2.60019
8.68167,18.6046,1.69211,-78.9965,-86.7727,79.6931,6.47563,-1.07096,-0.0408503,1.96757,-1.4521,0.977794,-1.57565,-0.744533,1.14023,-2.15793,-4.61793,-6.12804,30.249,-7.88897,1.80607,10.3127,-4.62272,0.87123,1.0635e-14,1.59028e-15,-33.3105,8.56514,-72.9919,43.8162,12.8873,-31.8456,8.7369,7.12502,-5.09965,-21.1817,1.0635e-14,1.59028e-15,-34.2897,9.85713,79.4763,24.1935,-15.501,-20.7503,24.8199,7.12502,5.61539,54.7255,-5.1036,17.4499,21.2651,29.0298,-23.5116,-8.5383,8.51143,-20.4854,9.03798,-14.3168,49.2919,-8.81673,16.6541,-3.88063
8.63561,18.5988,1.67845,-82.8182,-86.7848,83.5722,6.52424,-0.973316,0.00993173,2.02188,-1.32153,0.911803,-1.55209,-0.680008,1.03424,-2.14455,-4.65494,-5.91457,30.2286,-7.96021,1.78702,10.2944,-4.63314,0.822672,2.13694e-14,-1.51076e-14,-33.0219,8.58711,-72.9741,44.0891,12.7224,-32.1776,8.72758,7.12502,-5.42019,-21.1831,2.13694e-14,-1.51076e-14,-34.2404,9.64818,79.5279,24.2777,-15.446,-21.0052,24.9334,7.12502,5.36934,54.8454,-5.04504,17.607,21.323,29.0889,-23.6364,-8.50509,8.95303,-20.9829,8.60689,-14.7027,48.8098,-9.28154,16.7262,-3.27708
8.59203,18.5921,1.66583,-86.9141,-86.9179,87.8137,6.52046,-0.924476,0.199582,2.04063,-1.24569,0.880827,-1.53673,-0.642402,0.889867,-2.14941,-4.65575,-5.69309,30.2427,-7.96706,1.70328,10.2864,-4.62131,0.755062,1.78906e-15,-7.15625e-15,-32.6561,8.56732,-72.9598,44.3422,12.8036,-32.1525,9.15606,7.12502,-5.39596,-20.7552,1.78906e-15,-7.15625e-15,-34.2326,9.67403,79.4638,24.3551,-15.4009,-21.2778,25.0398,7.12502,5.10612,54.9583,-5.12228,17.5794,21.4684,29.1378,-23.7397,-8.40822,8.35242,-21.5677,8.1478,-14.9402,48.2311,-9.93846,16.7179,-1.78551
8.54589,18.5899,1.65429,-91.1092,-86.8078,92.169,6.50589,-0.907922,0.0892948,2.02476,-1.23005,0.893403,-1.54259,-0.63441,0.963371,-2.11263,-4.61475,-5.78851,30.2899,-7.90159,1.67151,10.2975,-4.608,0.766576,-9.93923e-15,4.77083e-15,-32.2681,8.68913,-72.8414,44.5702,13.0273,-32.2961,9.23643,7.12502,-5.53466,-20.6713,-9.93923e-15,4.77083e-15,-34.3667,9.86687,79.5034,24.462,-15.2892,-21.4248,25.1499,7.12502,4.96418,55.0717,-5.21438,17.4651,21.3257,29.2021,-23.968,-8.16817,7.85231,-22.0958,7.51092,-15.4398,47.5284,-10.2414,16.7229,-2.76788
8.49802,18.5925,1.64044,-94.5325,-86.5,95.6776,6.5883,-0.850514,-0.260472,2.0215,-1.1764,0.852505,-1.58647,-0.607279,1.11509,-2.06099,-4.59341,-5.87558,30.3368,-7.87976,1.68935,10.3094,-4.60871,0.790401,3.57812e-15,-1.19271e-14,-31.9767,8.84081,-72.8011,44.8292,13.1243,-32.7756,8.97225,7.12502,-5.99757,-20.9229,3.57812e-15,-1.19271e-14,-34.4777,10.0137,79.522,24.5337,-15.2437,-21.3978,25.0356,7.12502,4.99025,54.9569,-5.19315,17.3948,21.0138,29.2469,-24.1349,-7.86042,7.18673,-22.5119,6.87793,-16.1048,46.7625,-10.3126,16.609,-4.86276
8.45004,18.5893,1.62806,-98.0358,-86.3808,99.2341,6.66956,-0.762495,-0.365608,2.07552,-1.0684,0.826921,-1.57689,-0.554234,1.14026,-2.07467,-4.60567,-5.8071,30.3563,-7.88992,1.63204,10.3141,-4.61109,0.757008,7.05686e-15,1.59028e-15,-31.6303,8.84595,-72.7623,45.0411,13.2274,-33.0653,9.15682,7.12502,-6.27721,-20.7302,7.05686e-15,1.59028e-15,-34.4502,10.3768,79.4262,24.5352,-15.4196,-21.3733,24.847,7.12502,5.01392,54.7676,-5.11439,17.4164,20.9723,29.2739,-24.1885,-7.72086,6.85343,-22.8806,6.4401,-16.5267,45.9393,-10.5913,16.2367,-5.83274
8.40028,18.5803,1.62033,-100.923,-86.4637,102.237,6.61891,-0.700515,-0.20184,2.14982,-0.977167,0.860008,-1.47647,-0.510229,1.07365,-2.11881,-4.63185,-5.79927,30.3339,-7.90881,1.59724,10.3132,-4.61891,0.740714,2.78299e-15,-8.74653e-15,-31.1808,8.78417,-72.6385,45.2004,13.3846,-33.3046,9.35398,7.12502,-6.50824,-20.526,2.78299e-15,-8.74653e-15,-34.3983,10.8199,79.3281,24.5401,-15.6748,-21.3963,25.0211,7.12502,4.9917,54.9423,-5.06232,17.5102,21.1413,29.2587,-24.2912,-7.6744,8.11819,-23.3103,6.0689,-16.7412,45.0668,-10.9086,15.6757,-6.83537
8.3507,18.5745,1.6119,-103.624,-86.5914,105.008,6.66047,-0.631853,0.0419182,2.18735,-0.871671,0.856183,-1.4667,-0.458105,0.925006,-2.07385,-4.64696,-5.69999,30.3377,-7.93217,1.54935,10.3002,-4.62408,0.706532,1.19271e-15,-8.74653e-15,-30.8764,8.72401,-72.5847,45.4141,13.5628,-33.6691,9.10337,7.12502,-6.86019,-20.7655,1.19271e-15,-8.74653e-15,-34.4304,10.7733,79.2612,24.6243,-15.5945,-21.1407,25.1335,7.12502,5.23847,55.0487,-4.93724,17.5316,21.3529,29.1843,-24.4103,-7.49566,8.92011,-23.692,5.66183,-16.8792,44.1445,-11.122,15.0768,-7.74936
8.29959,18.5741,1.60255,-106.875,-86.622,108.25,6.8055,-0.526618,0.250863,2.21654,-0.720078,0.779971,-1.52308,-0.382638,0.719123,-2.01365,-4.65188,-5.48233,30.4233,-7.94894,1.43683,10.3062,-4.62305,0.629303,4.17448e-15,-7.95139e-15,-30.7093,8.53046,-72.6257,45.6272,13.9095,-33.931,9.16233,7.12502,-7.11293,-20.6981,4.17448e-15,-7.95139e-15,-34.4822,10.1515,79.3364,24.7418,-15.0008,-21.1336,25.0371,7.12502,5.24532,54.9521,-4.69582,17.5281,21.5003,29.0836,-24.6632,-7.38095,8.25383,-23.9417,5.25965,-17.0892,43.1379,-11.269,14.483,-8.28234
8.24678,18.5774,1.59278,-110.396,-86.5482,111.824,6.88166,-0.444906,0.344828,2.24006,-0.607099,0.697189,-1.54419,-0.326349,0.572878,-1.95781,-4.63451,-5.43279,30.4571,-7.94274,1.44968,10.3062,-4.61567,0.627494,-5.36719e-15,-9.54166e-15,-30.444,8.37916,-72.7177,45.7372,14.3384,-34.1335,9.45872,7.12502,-7.30839,-20.3951,-5.36719e-15,-9.54166e-15,-34.5507,9.62618,79.4222,24.8449,-14.2694,-21.6313,25.2802,7.12502,4.76478,55.2066,-4.50641,17.5789,21.5437,28.9629,-24.849,-7.30484,7.55069,-24.203,4.85189,-17.3925,42.0383,-11.485,13.8708,-8.76608
8.19557,18.5764,1.58264,-113.303,-86.5142,114.825,6.92334,-0.397963,0.348817,2.25916,-0.544868,0.709829,-1.54803,-0.29572,0.578904,-1.89458,-4.61914,-5.55748,30.439,-7.92819,1.5141,10.2955,-4.61683,0.67509,2.28602e-15,1.82882e-14,-30.0753,8.45799,-72.7643,45.8246,14.6921,-34.3575,9.7357,7.12502,-7.52465,-20.1105,2.28602e-15,1.82882e-14,-34.5983,9.8386,79.3283,24.8336,-14.1092,-21.9589,25.5123,7.12502,4.44845,55.4456,-4.377,17.498,21.5962,28.8079,-24.5215,-6.89829,8.62126,-24.4817,4.36958,-17.6463,40.8462,-11.5899,13.1176,-9.8512
8.14194,18.5721,1.57721,-114.436,-86.5542,116.059,6.9098,-0.333927,0.422597,2.27241,-0.454493,0.770264,-1.52757,-0.251007,0.592135,-1.77537,-4.61282,-5.70801,30.433,-7.92443,1.56264,10.28,-4.62824,0.722129,6.26172e-15,-3.97569e-15,-29.8181,8.43093,-72.6581,45.9842,15.1117,-34.3681,10.3022,7.12502,-7.53483,-19.5436,6.26172e-15,-3.97569e-15,-34.6258,10.0394,79.3215,24.7805,-14.2661,-22.1257,25.5489,7.12502,4.28736,55.4855,-4.23756,17.2191,21.6569,28.6459,-24.0074,-6.27258,10.5613,-24.7538,3.94322,-17.8882,39.5782,-11.4907,12.1583,-10.3273
8.08394,18.5731,1.57168,-115.155,-86.4975,116.88,6.84724,-0.261735,0.451468,2.28795,-0.35768,0.747179,-1.47785,-0.202598,0.543865,-1.61174,-4.56751,-5.76307,30.4232,-7.876,1.59812,10.2471,-4.6117,0.754587,-4.27387e-15,2.62396e-14,-29.6707,8.55566,-72.5915,46.1996,15.4716,-34.4833,10.6803,7.12502,-7.64605,-19.1615,-4.27387e-15,2.62396e-14,-34.7562,9.96224,79.3122,24.9193,-14.2553,-22.2402,25.8189,7.12502,4.17684,55.7577,-4.07828,16.9894,21.6336,28.5031,-23.8418,-5.93366,11.1144,-24.9798,3.61435,-18.2376,38.2478,-11.7858,11.2576,-5.83929
8.02802,18.5784,1.56172,-118.389,-86.3464,120.326,6.73609,-0.192343,0.354052,2.28211,-0.272499,0.703712,-1.42247,-0.159675,0.54647,-1.61509,-4.5036,-5.63125,30.4955,-7.76205,1.43402,10.2566,-4.56394,0.684375,1.68967e-15,1.51076e-14,-29.4352,8.99839,-72.6963,46.3797,15.7892,-34.9099,10.7264,7.12502,-8.05782,-19.0999,1.68967e-15,1.51076e-14,-34.7111,10.0532,79.1404,24.662,-14.1789,-22.4552,26.1248,7.12502,3.96921,56.0675,-4.07893,16.9344,21.5736,28.3485,-23.895,-5.9432,9.96197,-25.2782,3.33489,-18.5912,36.8578,-11.6202,10.9285,-7.79402
7.97371,18.5838,1.55144,-122.515,-86.1832,124.762,6.59865,-0.0865793,0.282032,2.23413,-0.135397,0.682772,-1.39635,-0.0903834,0.554279,-1.76787,-4.45242,-5.47727,30.7077,-7.64667,1.18299,10.3432,-4.52171,0.571896,2.98177e-16,-7.95139e-16,-29.1645,9.31937,-72.79,46.4655,16.2454,-35.2551,11.0601,7.12502,-8.39094,-18.7532,2.98177e-16,-7.95139e-16,-34.7365,10.1137,79.0286,24.5705,-14.1208,-22.7609,26.3505,7.12502,3.67395,56.2986,-4.20432,16.8518,21.4988,28.1537,-23.7917,-5.80058,9.07669,-25.6526,3.10954,-18.9059,35.4193,-11.3691,10.6696,-9.71739
7.9145,18.5886,1.5429,-124.934,-86.0097,127.292,6.59913,0.059933,0.2168,2.23693,0.054469,0.625189,-1.3952,0.00449329,0.517148,-1.77995,-4.41496,-5.43469,30.8516,-7.60667,1.16475,10.3957,-4.5033,0.559062,3.8763e-15,-1.19271e-14,-28.9962,9.55553,-72.8347,46.5794,16.5827,-35.7284,11.378,7.12502,-8.84776,-18.4165,3.8763e-15,-1.19271e-14,-34.7441,10.1541,78.9388,24.4994,-14.1008,-22.99,26.1971,7.12502,3.45273,56.1489,-4.04016,16.7418,21.429,27.9392,-23.7791,-5.42095,9.66497,-25.7385,2.85694,-19.2659,33.9343,-11.251,10.2547,-10.9827
7.85225,18.593,1.53796,-127.654,-85.9735,130.026,6.64851,0.165075,0.284068,2.27874,0.197012,0.618464,-1.3804,0.0750798,0.461505,-1.63607,-4.38292,-5.51032,30.826,-7.59568,1.28875,10.3667,-4.49598,0.622261,3.8763e-15,-7.95139e-16,-28.8214,9.92135,-72.8953,46.7376,16.9716,-36.4894,11.1252,7.12502,-9.58201,-18.6369,3.8763e-15,-7.95139e-16,-34.7441,10.329,78.7912,24.382,-14.0626,-23.0265,26.0145,7.12502,3.41754,55.9668,-3.71892,16.6606,21.5232,27.6937,-23.9303,-5.06867,10.2429,-25.6899,2.62764,-19.4951,32.426,-11.0222,9.79999,-11.6815
7.78993,18.597,1.53149,-129.958,-85.9805,132.424,6.64075,0.19372,0.349563,2.29042,0.23872,0.616091,-1.36401,0.0958454,0.419119,-1.56677,-4.3319,-5.54829,30.8255,-7.53412,1.32209,10.3537,-4.47046,0.648821,1.39149e-15,8.74653e-15,-28.6273,10.4293,-73.0495,46.8884,17.525,-37.1407,10.8556,7.12502,-10.2104,-18.8766,1.39149e-15,8.74653e-15,-34.7957,10.7063,78.4691,24.1934,-14.4883,-22.7058,25.8032,7.12502,3.72719,55.7503,-3.47518,16.502,21.6414,27.4037,-23.8595,-4.91641,9.95821,-25.7468,2.53066,-19.7198,30.8973,-10.7886,9.33979,-10.461
7.7274,18.6033,1.52228,-131.992,-85.8721,134.576,6.62986,0.248292,0.272755,2.29013,0.305918,0.581935,-1.35885,0.129418,0.422,-1.59234,-4.27979,-5.50515,30.8831,-7.46778,1.31942,10.3753,-4.4367,0.645213,-2.5842e-15,2.38542e-15,-28.4986,10.953,-73.2177,47.0806,18.0788,-37.5349,11.2717,7.12502,-10.5906,-18.4415,-2.5842e-15,2.38542e-15,-34.8793,11.1505,78.1048,23.9883,-15.0897,-22.4525,25.33,7.12502,3.97183,55.2727,-3.24858,16.4748,21.6908,27.096,-23.6771,-4.80654,9.84537,-25.8089,2.51428,-20.0326,29.3498,-10.6446,9.08616,-8.00526
7.66387,18.6111,1.51571,-134.987,-85.7366,137.688,6.6042,0.365688,0.234196,2.30905,0.458875,0.581843,-1.32628,0.205484,0.432025,-1.61168,-4.2801,-5.48748,30.9096,-7.44906,1.2503,10.3847,-4.43234,0.618619,-7.95139e-16,4.77083e-15,-28.3507,11.2878,-73.2681,47.2173,18.7764,-38.0365,11.6569,7.12502,-11.0745,-18.031,-7.95139e-16,4.77083e-15,-34.8925,11.191,78.0896,23.8793,-14.7483,-22.9644,25.4059,7.12502,3.4775,55.3572,-2.99731,16.6108,21.7653,26.7606,-23.5942,-4.53474,10.6261,-25.8237,2.30114,-20.2548,27.8163,-10.3952,9.30879,-6.90443
7.59717,18.6171,1.51397,-136.006,-85.5818,138.803,6.55828,0.468015,0.163921,2.33774,0.588827,0.522834,-1.27215,0.270222,0.4014,-1.57524,-4.29494,-5.45946,30.8959,-7.44587,1.16001,10.3677,-4.43614,0.583919,7.95139e-15,-4.77083e-15,-28.1723,11.4535,-73.3087,47.2519,19.5763,-38.6985,11.9581,7.12502,-11.7129,-17.6944,7.95139e-15,-4.77083e-15,-34.845,10.9466,78.1965,23.8031,-14.0863,-23.4931,26.0826,7.12502,2.96694,56.0417,-2.68725,16.3671,21.653,26.3456,-23.5078,-4.14356,11.2538,-25.8119,1.93361,-20.6029,26.3795,-10.153,9.68295,-7.56298
7.52856,18.6279,1.51615,-136.132,-85.4353,139.012,6.54881,0.513429,0.0866544,2.34131,0.643098,0.435481,-1.26343,0.29748,0.351019,-1.51771,-4.21705,-5.50847,30.9248,-7.35956,1.24152,10.3694,-4.39602,0.630852,-5.96354e-16,-1.11319e-14,-28.0256,11.7383,-73.3939,47.3114,20.2638,-38.9786,12.9781,7.12502,-11.9831,-16.6588,-5.96354e-16,-1.11319e-14,-34.9116,10.7654,78.175,23.7665,-13.7492,-23.6027,26.3839,7.12502,2.86106,56.3445,-2.3578,15.4835,21.3804,25.8348,-23.246,-3.3733,11.0389,-25.8099,1.60301,-20.9393,25.0932,-10.2442,9.71932,-6.58314
7.45797,18.636,1.51957,-141.197,-85.4508,144.026,6.67181,0.553521,0.438368,2.38325,0.716673,0.435972,-1.28453,0.334052,0.147727,-1.52001,-4.09025,-5.60514,31.0231,-7.22107,1.39015,10.4111,-4.33181,0.711457,-6.36111e-15,3.18055e-15,-27.9058,12.2594,-73.5502,47.4512,20.7448,-39.199,13.6976,7.12502,-12.1955,-15.9268,-6.36111e-15,3.18055e-15,-35.0817,10.7944,77.9947,23.7858,-13.5731,-23.3309,26.1039,7.12502,3.12357,56.0608,-1.71199,15.8467,21.8188,25.2417,-23.0988,-3.55357,10.9473,-25.7066,1.39112,-20.7919,23.9872,-10.4176,9.91217,-4.77872
7.38673,18.6337,1.52355,-151.173,-85.4592,153.826,6.90359,0.63068,1.05296,2.49095,0.856614,0.548435,-1.29446,0.402761,-0.0940548,-1.66197,-3.9922,-5.50656,31.1741,-7.07077,1.30031,10.4813,-4.26276,0.670408,3.27995e-15,2.38542e-15,-27.6761,12.9059,-73.7052,47.5088,21.2072,-39.7618,13.8128,7.12502,-12.7382,-15.7787,3.27995e-15,2.38542e-15,-35.2026,11.2791,77.6584,23.702,-13.9235,-22.9512,25.8073,7.12502,3.49025,55.7584,-0.937977,15.8329,22.5629,24.5561,-22.7739,-3.17555,11.1213,-25.5744,1.52608,-20.4338,23.1124,-10.1181,10.6648,-6.61565
7.31691,18.6288,1.52399,-159.237,-85.3407,161.851,7.02875,0.739795,1.40898,2.55851,1.0246,0.692396,-1.28873,0.485466,-0.160027,-1.87233,-3.94467,-5.22871,31.3714,-6.94449,0.974051,10.5675,-4.20813,0.509379,4.67144e-15,-4.77083e-15,-27.4008,13.4231,-73.7304,47.4443,21.7692,-40.3228,13.9926,7.12502,-13.2789,-15.5644,4.67144e-15,-4.77083e-15,-35.2368,11.4629,77.5515,23.5662,-14.2136,-22.7319,25.6792,7.12502,3.702,55.6268,-0.337174,15.518,23.0941,23.8309,-22.3428,-2.65073,10.8434,-25.6858,1.63566,-20.2055,22.4547,-9.7799,11.6002,-8.91028
7.24399,18.6276,1.5196,-165.884,-85.2132,168.55,7.04321,0.871829,1.77214,2.58053,1.2233,0.749611,-1.26464,0.58496,-0.320497,-1.98086,-3.96208,-4.95855,31.5388,-6.946,0.751846,10.6326,-4.20313,0.377454,-2.15681e-14,-1.07344e-14,-27.3352,13.7853,-73.8645,47.5077,22.2482,-40.7826,13.5722,7.12502,-13.7221,-15.9554,-2.15681e-14,-1.07344e-14,-35.2729,11.168,77.4971,23.5127,-14.3246,-22.1563,25.5461,7.12502,4.25782,55.4833,0.160372,15.5095,23.6385,23.2208,-22.0204,-2.4946,10.5716,-25.8323,1.58742,-19.9279,21.8006,-9.56099,12.6327,-9.66556
