JuanDHNZ/ProyectoFinalCD/preprocessing/sports_trials_csv/13_01.csv
root1,root2,root3,root4,root5,root6,lowerback1,lowerback2,lowerback3,upperback1,upperback2,upperback3,thorax1,thorax2,thorax3,lowerneck1,lowerneck2,lowerneck3,upperneck1,upperneck2,upperneck3,head1,head2,head3,rclavicle1,rclavicle2,rhumerus1,rhumerus2,rhumerus3,rradius1,rwrist1,rhand1,rhand2,rfingers1,rthumb1,rthumb2,lclavicle1,lclavicle2,lhumerus1,lhumerus2,lhumerus3,lradius1,lwrist1,lhand1,lhand2,lfingers1,lthumb1,lthumb2,rfemur1,rfemur2,rfemur3,rtibia1,rfoot1,rfoot2,rtoes1,lfemur1,lfemur2,lfemur3,ltibia1,lfoot1,lfoot2,ltoes1
7.8461,18.7915,5.09872,5.16949,-81.1376,-2.90963,5.3747,1.23301,0.441526,1.0849,1.65301,0.125619,-1.88717,0.815425,-0.232319,-9.68659,1.23388,-3.79836,15.3167,1.42287,4.68617,6.16762,0.796546,2.22722,2.38976e-14,-5.46658e-16,-37.1078,0.593989,-81.3803,33.621,13.0929,-20.0142,3.21564,7.12502,6.32614,-26.6699,2.38976e-14,-5.46658e-16,-32.8966,23.351,73.7129,15.7897,-22.7682,-20.5536,25.4843,7.12502,5.80538,55.3848,-11.5477,16.8975,21.602,26.0866,-17.6473,-20.5479,3.1158,-7.32885,-4.56971,-19.3068,23.125,-22.2367,24.7979,6.30671
7.84041,18.7908,5.09417,4.90629,-81.1111,-2.64436,5.42635,1.18408,0.414343,1.08466,1.58704,0.154285,-1.91825,0.782535,-0.184345,-9.76863,1.23594,-3.78211,15.3874,1.43004,4.64575,6.20447,0.798307,2.21421,1.68905e-14,4.96962e-16,-37.2526,0.987449,-81.4842,33.857,12.6269,-20.0464,3.2437,7.12502,6.29498,-26.6428,1.68905e-14,4.96962e-16,-32.8825,23.4585,73.7453,15.7805,-22.7256,-20.5766,25.334,7.12502,5.78311,55.2351,-11.5283,16.8687,21.5769,26.1098,-17.748,-20.4962,3.07234,-7.28914,-4.42081,-19.3148,23.0399,-22.0701,24.6784,6.07157
7.83442,18.7919,5.08725,4.92147,-81.0924,-2.59729,5.4406,1.12447,0.396662,1.03911,1.50861,0.205055,-1.97529,0.743626,-0.117806,-9.80057,1.25191,-3.85367,15.4882,1.46356,4.62759,6.23993,0.808434,2.22472,3.39735e-14,-8.44835e-16,-37.3322,1.24364,-81.499,33.9067,12.4269,-20.0571,3.53006,7.12502,6.28471,-26.3567,3.39735e-14,-8.44835e-16,-32.8755,23.2366,73.9372,15.858,-22.3344,-20.505,25.3006,7.12502,5.85228,55.1998,-11.5736,17.0402,21.5766,26.1173,-17.9062,-20.6117,3.31985,-7.32607,-4.38427,-19.2842,22.9752,-22.0831,24.6088,6.36314
7.82945,18.7925,5.07856,4.83517,-81.1143,-2.42553,5.45275,1.11141,0.416283,0.979221,1.49321,0.192014,-2.04285,0.735884,-0.142157,-9.64579,1.25505,-3.83831,15.4011,1.4676,4.59444,6.18577,0.807219,2.20874,2.57861e-14,4.57205e-15,-37.3467,0.996722,-81.3909,33.6977,12.6917,-19.9494,3.86283,7.12502,6.38867,-26.0208,2.57861e-14,4.57205e-15,-32.848,22.9377,74.0809,15.9718,-22.0483,-20.4344,25.2525,7.12502,5.92047,55.1498,-11.6644,17.1851,21.5704,26.1285,-17.8523,-20.8061,3.10309,-7.37556,-4.44423,-19.2696,22.9028,-22.1858,24.581,6.93809
7.825,18.7926,5.07287,4.11972,-81.1487,-1.66032,5.52073,1.12213,0.387195,0.933966,1.50535,0.127807,-2.12631,0.741875,-0.194722,-9.58714,1.25723,-3.84329,15.3641,1.46051,4.65304,6.16353,0.807502,2.22645,-2.93518e-14,1.78906e-15,-37.3383,0.463167,-81.1972,33.3661,13.1309,-19.7175,4.16527,7.12502,6.61257,-25.7115,-2.93518e-14,1.78906e-15,-32.8748,22.9382,74.0523,16.0889,-22.2818,-20.4989,25.2088,7.12502,5.85813,55.1078,-11.6882,17.2429,21.4633,26.1134,-17.7842,-20.8788,2.97426,-7.38614,-4.46524,-19.3689,22.8629,-22.231,24.5809,7.0399
7.81945,18.7931,5.06837,4.02797,-81.1799,-1.51259,5.53156,1.13183,0.402031,0.915022,1.51952,0.129402,-2.15142,0.748828,-0.202914,-9.66812,1.24582,-3.87972,15.4277,1.44533,4.69123,6.19766,0.801621,2.2454,3.32964e-15,-2.5842e-15,-37.3291,0.294653,-81.0876,33.1812,13.1716,-19.4596,4.41269,7.12502,6.86152,-25.4561,3.32964e-15,-2.5842e-15,-32.8493,23.1055,74.0177,16.177,-22.5995,-20.4048,25.178,7.12502,5.94902,55.0744,-11.7093,17.3581,21.4469,26.085,-17.8213,-20.9373,3.12411,-7.41544,-4.37037,-19.3645,22.8353,-22.2409,24.4913,7.06379
7.81141,18.7936,5.06489,5.0072,-81.2352,-2.46363,5.46709,1.14325,0.563357,0.93772,1.5447,0.185126,-2.08918,0.76054,-0.236146,-9.69463,1.22457,-3.80006,15.3992,1.42234,4.59177,6.19609,0.788011,2.1986,1.42007e-14,-2.28602e-15,-37.3133,0.474085,-81.1185,33.1613,12.8959,-19.2878,4.32044,7.12502,7.02737,-25.5429,1.42007e-14,-2.28602e-15,-32.7049,23.163,74.1082,16.293,-22.4353,-20.1579,25.2519,7.12502,6.18738,55.1415,-11.7064,17.4797,21.6173,26.0559,-17.8398,-20.975,3.1859,-7.40286,-4.30103,-19.1946,22.7972,-22.1652,24.5002,6.89577
7.80328,18.7945,5.06402,5.44936,-81.2757,-2.88845,5.40444,1.10992,0.66735,0.969242,1.50602,0.217399,-2.02024,0.740839,-0.256733,-9.67817,1.23509,-3.73304,15.318,1.44054,4.51914,6.16813,0.795539,2.16443,-9.16894e-15,-4.47266e-15,-37.2409,0.629321,-81.1762,33.1244,12.7783,-19.2081,3.89879,7.12502,7.10423,-25.962,-9.16894e-15,-4.47266e-15,-32.5798,23.0882,74.2766,16.484,-22.0465,-19.9718,25.3036,7.12502,6.36709,55.1879,-11.6771,17.5042,21.6822,26.0098,-17.8551,-20.9296,3.11629,-7.36858,-4.45004,-19.1488,22.7752,-22.1711,24.7402,6.55872
7.79391,18.7954,5.06198,5.26427,-81.2446,-2.63123,5.31172,1.07001,0.713248,0.973815,1.4545,0.200446,-1.9626,0.715199,-0.294238,-9.65978,1.22614,-3.75227,15.2918,1.41927,4.59324,6.15665,0.78977,2.18897,-4.44284e-14,8.74653e-15,-37.2637,0.732877,-81.2521,33.2086,12.6359,-19.0522,3.54053,7.12502,7.25473,-26.3151,-4.44284e-14,8.74653e-15,-32.4315,22.771,74.5079,16.6169,-21.859,-19.9497,25.1442,7.12502,6.38842,55.0278,-11.6839,17.435,21.6303,25.9476,-17.8905,-20.9149,3.01038,-7.40231,-4.74518,-19.2054,22.7826,-22.344,24.9743,6.46997
7.78396,18.7958,5.0573,5.45274,-81.2131,-2.74747,5.24695,1.0687,0.840616,0.95572,1.45931,0.180003,-1.94123,0.717034,-0.385764,-9.61908,1.191,-3.74666,15.2766,1.35978,4.6493,6.14694,0.765068,2.20059,2.75689e-14,1.2921e-15,-37.3691,0.503924,-81.1965,33.2505,12.7465,-18.8995,3.55928,7.12502,7.40219,-26.2912,2.75689e-14,1.2921e-15,-32.2079,22.1586,74.8728,16.6921,-21.3876,-20.1572,25.0647,7.12502,6.18807,54.9543,-11.7085,17.3154,21.6616,25.8982,-17.859,-20.9179,2.83125,-7.4397,-5.06511,-19.1789,22.7913,-22.5884,25.1183,6.77886
7.78056,18.796,5.04847,6.03082,-81.2464,-3.30769,5.34615,1.05382,0.938235,0.920241,1.44742,0.228401,-2.03209,0.710013,-0.392507,-9.68398,1.19793,-3.78814,15.3774,1.37184,4.6635,6.18899,0.769628,2.2151,7.71533e-15,1.00386e-14,-37.3255,-0.0258352,-80.9216,32.879,13.3732,-19.0237,4.0037,7.12502,7.28227,-25.851,7.71533e-15,1.00386e-14,-32.0402,21.6898,75.2296,16.7874,-20.7169,-20.2806,25.044,7.12502,6.06897,54.9371,-11.7146,17.2368,21.7862,25.8279,-17.6967,-20.879,2.53929,-7.47267,-5.18013,-19.0583,22.8368,-22.7186,25.2104,7.06684
7.77905,18.7965,5.03938,6.38378,-81.3023,-3.6381,5.46272,1.04365,0.989101,0.874559,1.43958,0.264801,-2.14398,0.705123,-0.386091,-9.74365,1.20188,-3.78798,15.4985,1.37925,4.6331,6.2376,0.770509,2.20837,8.17502e-15,3.67752e-15,-37.3122,-0.103485,-80.7973,32.6584,13.6221,-19.1694,4.27675,7.12502,7.14168,-25.5827,8.17502e-15,3.67752e-15,-31.9396,21.4439,75.451,16.908,-20.4307,-20.3135,25.0385,7.12502,6.03711,54.9325,-11.699,17.1278,21.8629,25.6878,-17.4755,-20.7464,2.16747,-7.56991,-5.00618,-18.9594,22.973,-22.7256,25.1324,6.97534
7.76988,18.7961,5.03321,7.4839,-81.293,-4.75603,5.49006,1.02957,1.2026,0.859254,1.43468,0.3059,-2.17085,0.700929,-0.463903,-9.65458,1.17299,-3.72126,15.4755,1.32623,4.6286,6.21784,0.747068,2.19031,3.1818e-14,-7.85199e-15,-37.4775,0.439067,-81.0035,32.9508,13.1785,-19.1415,3.9445,7.12502,7.16854,-25.9141,3.1818e-14,-7.85199e-15,-31.8204,21.0633,75.7011,17.058,-20.0918,-20.3558,25.1104,7.12502,5.99628,55.0055,-11.6166,17.0866,22.0878,25.6074,-17.4428,-20.6987,2.04547,-7.57933,-4.82211,-18.7333,23.0489,-22.7149,24.9551,6.82044
7.75655,18.7944,5.02803,10.1921,-81.1966,-7.56068,5.48288,1.01782,1.67032,0.898884,1.44748,0.437874,-2.11761,0.704193,-0.59061,-9.57848,1.09006,-3.79259,15.4473,1.1994,4.76518,6.19959,0.691147,2.23452,-9.36773e-15,-6.16232e-15,-37.6094,0.697512,-81.1032,33.215,12.8356,-19.1112,3.5338,7.12502,7.19783,-26.3238,-9.36773e-15,-6.16232e-15,-31.6303,20.7624,75.9747,17.1511,-19.8577,-20.205,24.9789,7.12502,6.1419,54.8699,-11.4931,17.1928,22.6307,25.6734,-17.615,-20.791,2.3254,-7.41852,-4.77797,-18.2291,22.9572,-22.6936,24.8508,6.91807
7.75137,18.7958,5.02954,8.37152,-81.2619,-5.56739,5.31146,1.03969,1.42374,0.898193,1.45874,0.38191,-2.02703,0.712544,-0.507194,-9.52626,0.999979,-3.88929,15.4127,1.08556,4.80077,6.18388,0.632729,2.25198,-8.05078e-15,-5.06901e-15,-37.5613,0.577358,-80.9516,33.1742,12.7817,-19.0272,3.66006,7.12502,7.27888,-26.1947,-8.05078e-15,-5.06901e-15,-31.4271,20.6489,76.2392,17.2758,-19.7578,-20.2268,24.9083,7.12502,6.12083,54.7999,-11.698,17.1582,22.235,25.782,-17.6999,-20.6965,2.5199,-7.47332,-4.881,-18.5752,22.8222,-22.798,24.9489,7.34936
7.75033,18.7985,5.03046,3.33176,-81.4326,-0.2325,5.11528,1.05018,0.65252,0.860528,1.4254,0.181937,-1.97057,0.701677,-0.274601,-9.47715,0.980322,-3.86842,15.3966,1.06979,4.70442,6.17199,0.618175,2.21579,3.85145e-15,1.98785e-16,-37.4552,0.650527,-80.8978,33.049,12.6818,-19.023,3.66183,7.12502,7.28292,-26.1928,3.85145e-15,1.98785e-16,-31.2397,19.9995,76.7385,17.5713,-18.8727,-20.5292,25.3204,7.12502,5.82893,55.2202,-12.0576,17.0368,21.2453,25.8971,-17.6656,-20.4487,2.59143,-7.6393,-4.91466,-19.4777,22.6937,-22.7797,25.2003,7.17849
7.74178,18.7974,5.01864,3.68355,-81.5363,-0.591256,5.1185,1.03786,0.619822,0.873222,1.40832,0.248443,-1.96195,0.693446,-0.186802,-9.4438,0.940941,-3.96804,15.4236,1.02362,4.7373,6.17594,0.591756,2.23921,-3.516e-14,-1.78906e-15,-37.4119,0.784874,-80.9169,32.9762,12.6132,-19.2769,3.09705,7.12502,7.03786,-26.7659,-3.516e-14,-1.78906e-15,-31.0862,19.2507,77.2557,17.8673,-17.9232,-20.6184,25.4796,7.12502,5.74275,55.3817,-12.1214,17.1758,21.3513,26.0498,-17.7388,-20.4471,2.75474,-7.51263,-5.02182,-19.4037,22.5265,-22.7626,25.4648,6.94156
7.73509,18.7958,5.00663,5.66851,-81.5613,-2.6406,5.21576,1.0193,0.890466,0.873528,1.4016,0.383867,-2.01292,0.688057,-0.200927,-9.41088,0.821932,-4.28574,15.4616,0.870568,4.96691,6.1858,0.516135,2.35353,3.65267e-15,-1.98785e-15,-37.3004,0.352787,-80.6725,32.6727,13.0414,-19.3829,3.15822,7.12502,6.9355,-26.7082,3.65267e-15,-1.98785e-15,-30.9437,18.7953,77.6299,18.0545,-17.4062,-20.4859,25.3019,7.12502,5.87067,55.2005,-12.1059,17.3608,21.7521,26.1521,-17.8281,-20.575,3.03314,-7.38401,-5.36399,-19.0523,22.432,-23.0132,25.6928,7.39136
7.73412,18.7953,4.99897,5.68799,-81.5872,-2.68405,5.37689,1.01377,1.0034,0.848106,1.4022,0.35876,-2.12574,0.686778,-0.293546,-9.38599,0.674943,-4.50007,15.5436,0.655231,5.22456,6.21537,0.417941,2.45564,-4.50247e-14,5.76476e-15,-37.1296,-0.418238,-80.3643,32.185,13.7314,-19.3231,3.77531,7.12502,6.99322,-26.0892,-4.50247e-14,5.76476e-15,-30.8106,18.4183,77.8694,18.2075,-17.1604,-20.2892,25.2013,7.12502,6.06065,55.0946,-12.0928,17.3732,21.7916,26.1497,-17.7577,-20.5529,3.30675,-7.37736,-5.51299,-19.0247,22.4777,-23.1809,25.7668,7.65056
7.72861,18.7941,4.99122,5.66068,-81.6264,-2.69351,5.47429,0.996095,1.07594,0.848375,1.38295,0.314429,-2.17729,0.67613,-0.380286,-9.33292,0.580033,-4.44663,15.6357,0.498469,5.28295,6.24327,0.34748,2.4539,2.63141e-14,-9.93923e-16,-37.0267,-0.643175,-80.363,31.9285,13.9339,-19.4249,3.95155,7.12502,6.89502,-25.9162,2.63141e-14,-9.93923e-16,-30.7345,18.2803,77.9772,18.4456,-17.1156,-20.2872,25.0925,7.12502,6.06253,54.9858,-12.0592,17.3237,21.8298,26.1537,-17.694,-20.4576,3.26751,-7.34918,-5.4632,-19.0052,22.5198,-23.1877,25.787,7.59266
7.72198,18.7937,4.98407,5.42966,-81.6651,-2.39584,5.42836,0.9561,1.03136,0.836499,1.32652,0.296792,-2.16521,0.648487,-0.368634,-9.25675,0.521136,-4.33324,15.7327,0.404128,5.19789,6.26642,0.299261,2.40094,9.11925e-15,4.57205e-15,-36.9767,-0.416795,-80.5301,31.886,13.775,-19.5814,3.83724,7.12502,6.74397,-26.0354,9.11925e-15,4.57205e-15,-30.6727,18.0326,78.1982,18.7747,-16.7001,-20.5213,25.2087,7.12502,5.83653,55.1084,-12.1469,17.3869,21.7919,26.2092,-17.734,-20.4718,3.22704,-7.38692,-5.48292,-19.0321,22.4996,-23.1856,25.8918,7.42623
7.71721,18.793,4.97794,5.34698,-81.7099,-2.25499,5.39898,0.900329,0.970064,0.817293,1.24946,0.325573,-2.17154,0.610653,-0.298915,-9.11222,0.41888,-4.30644,15.7906,0.270166,5.07251,6.26707,0.222937,2.34533,-1.95057e-14,-2.78299e-15,-36.9226,-0.0651913,-80.6569,31.8537,13.5979,-19.7636,3.6265,7.12502,6.56804,-26.2516,-1.95057e-14,-2.78299e-15,-30.6372,17.6551,78.508,19.0761,-16.1543,-20.5517,25.2554,7.12502,5.80717,55.1558,-12.2275,17.3938,21.7893,26.261,-17.684,-20.4915,2.94897,-7.4066,-5.61602,-19.0334,22.4759,-23.3602,25.9725,7.63438
7.70896,18.792,4.97433,5.09501,-81.7725,-2.0025,5.35361,0.84905,0.890863,0.832568,1.1772,0.389932,-2.13428,0.575548,-0.182373,-8.93255,0.26193,-4.51051,15.8314,0.078714,5.05541,6.25811,0.11326,2.35803,1.61761e-14,4.57205e-15,-36.7966,0.161792,-80.6036,31.7257,13.6351,-19.6791,3.61281,7.12502,6.64964,-26.2628,1.61761e-14,4.57205e-15,-30.5957,17.2498,78.8956,19.3603,-15.6351,-20.5862,25.1423,7.12502,5.77389,55.0436,-12.2317,17.2099,21.7753,26.3016,-17.5719,-20.3305,2.55064,-7.33857,-5.72788,-19.0745,22.4504,-23.6474,25.9885,8.23705
7.69851,18.7916,4.96844,5.22856,-81.8942,-2.11299,5.24533,0.839813,0.849622,0.85442,1.16281,0.480285,-2.05414,0.569199,-0.0634744,-8.84878,0.0542309,-4.95993,15.9767,-0.179881,5.24381,6.30237,-0.0269894,2.4743,1.15047e-14,7.15625e-15,-36.6335,0.16884,-80.442,31.556,13.8514,-19.4028,3.76689,7.12502,6.91631,-26.1001,1.15047e-14,7.15625e-15,-30.503,16.751,79.3537,19.658,-14.9487,-20.811,25.1127,7.12502,5.55684,55.0199,-12.2534,17.2816,21.7986,26.3446,-17.6337,-20.2184,2.92826,-7.28879,-5.5941,-19.0505,22.408,-23.6799,26.0209,8.23143
7.68625,18.791,4.9573,5.70434,-82.0102,-2.53623,5.12924,0.827585,0.856807,0.841039,1.14714,0.539201,-2.00418,0.561767,-0.0042052,-8.79332,-0.174517,-5.2424,16.2169,-0.480327,5.32519,6.38574,-0.186858,2.52635,1.46604e-15,-5.76476e-15,-36.6038,0.434167,-80.5099,31.5898,13.6672,-19.3543,3.65599,7.12502,6.96311,-26.2095,1.46604e-15,-5.76476e-15,-30.4719,16.5446,79.5446,19.9333,-14.6522,-20.6508,25.0513,7.12502,5.71147,54.9543,-12.306,17.5296,21.8821,26.3938,-17.8021,-20.2382,3.46609,-7.27757,-5.41522,-18.9464,22.3515,-23.5891,26.0598,7.78611
7.6742,18.7894,4.94617,5.06873,-82.0651,-1.87166,5.09399,0.782524,0.789939,0.794394,1.08319,0.481626,-2.03292,0.530417,-0.0214251,-8.6017,-0.408363,-5.17565,16.4256,-0.802287,5.12893,6.43648,-0.360312,2.42781,-1.63997e-14,1.78906e-15,-36.6903,0.842993,-80.766,31.7533,13.2547,-19.1124,3.58785,7.12502,7.19664,-26.2698,-1.63997e-14,1.78906e-15,-30.5839,16.5313,79.523,20.2987,-14.6251,-20.354,25.1633,7.12502,5.99806,55.0584,-12.3378,17.4916,21.8311,26.4413,-17.7471,-20.2124,3.23265,-7.23553,-5.43148,-19.0141,22.2933,-23.6137,26.1299,7.39573
7.66517,18.7884,4.93909,4.25534,-82.1058,-1.09588,5.04656,0.716085,0.766305,0.840299,0.990721,0.407296,-1.95882,0.484578,-0.0772301,-8.63162,-0.703048,-5.12439,16.7554,-1.19615,4.92049,6.5679,-0.567644,2.32332,-2.89729e-14,-8.74653e-15,-36.4979,0.880757,-80.9103,31.666,13.2381,-18.7452,3.58004,7.12502,7.55106,-26.2652,-2.89729e-14,-8.74653e-15,-30.6193,16.4008,79.6356,20.756,-14.2888,-20.4837,25.2698,7.12502,5.87285,55.1684,-12.2913,17.4228,21.7748,26.4811,-17.6983,-20.1755,3.08193,-7.11531,-5.511,-19.1267,22.2403,-23.7515,26.212,7.1771
7.65607,18.7879,4.93266,4.01105,-82.1777,-0.891978,4.93851,0.635456,0.755648,0.920734,0.880811,0.442344,-1.81722,0.430196,-0.0260939,-9.03949,-1.11424,-5.45958,17.4028,-1.7276,4.96133,6.87938,-0.842313,2.35336,-1.05356e-14,-3.77691e-15,-36.1321,0.553344,-80.7626,31.4114,13.7711,-18.4712,3.59007,7.12502,7.81553,-26.2455,-1.05356e-14,-3.77691e-15,-30.6512,16.3803,79.8078,21.178,-13.949,-20.602,25.1319,7.12502,5.75864,55.0336,-12.2329,17.4462,21.7948,26.5164,-17.8599,-20.1053,3.34602,-6.98143,-5.64577,-19.1621,22.1913,-23.9916,26.3483,7.28715
7.64656,18.7865,4.92308,4.15848,-82.3013,-1.02462,4.93489,0.55446,0.656853,0.84296,0.771734,0.577545,-1.89889,0.37652,0.17459,-9.20897,-1.54751,-6.08352,18.044,-2.27858,5.11323,7.15668,-1.14114,2.46339,2.28602e-15,4.57205e-15,-36.021,0.348022,-80.4752,31.2674,14.3755,-18.2658,3.63141,7.12502,8.01384,-26.1967,2.28602e-15,4.57205e-15,-30.97,16.3536,79.9813,21.6663,-13.4068,-20.6756,25.2953,7.12502,5.68752,55.199,-12.259,17.3695,21.8516,26.5471,-17.8407,-19.9684,3.16025,-6.91472,-5.83363,-19.1361,22.1467,-24.2643,26.5649,7.59672
7.63428,18.785,4.91446,4.58145,-82.4836,-1.46047,4.93948,0.499839,0.630888,0.764487,0.701013,0.677788,-1.98377,0.341602,0.296176,-9.04847,-1.87531,-6.50888,18.465,-2.6886,5.04907,7.29568,-1.38218,2.4798,-1.27471e-14,4.96962e-15,-35.9387,0.460874,-80.4024,31.1433,14.6029,-18.4774,3.36237,7.12502,7.80962,-26.4734,-1.27471e-14,4.96962e-15,-31.391,16.1369,80.1635,22.3367,-12.5304,-20.9308,25.6236,7.12502,5.44115,55.5338,-12.2564,17.2832,21.9459,26.5904,-17.7384,-19.756,2.91519,-6.79012,-5.99439,-19.0822,22.0863,-24.5605,26.7953,7.88353
7.61995,18.7836,4.90893,4.21178,-82.7049,-1.16013,4.91226,0.491648,0.62997,0.765268,0.689611,0.667859,-1.96762,0.335965,0.287491,-8.81672,-2.1621,-6.66266,18.7979,-3.05463,4.80746,7.38595,-1.59966,2.39548,-2.00027e-14,9.93923e-15,-35.7459,0.438394,-80.4125,30.9496,14.8401,-18.7716,3.27443,7.12502,7.52558,-26.5717,-2.00027e-14,9.93923e-15,-31.7871,15.9594,80.2469,23.0592,-11.9017,-20.9012,25.7284,7.12502,5.46973,55.6378,-12.1854,17.2371,21.9402,26.6659,-17.8011,-19.4706,3.01561,-6.55801,-6.10441,-19.1617,21.9938,-24.8261,27.0424,8.07674
7.60814,18.7833,4.90307,2.80245,-82.9359,0.21741,4.91736,0.458195,0.514921,0.729645,0.638862,0.609479,-2.00763,0.311533,0.295163,-8.56642,-2.41736,-6.80005,19.1597,-3.39826,4.63192,7.4814,-1.80129,2.33209,-1.04362e-14,-2.78299e-15,-35.5649,0.269878,-80.3729,30.7726,15.2773,-18.835,3.55628,7.12502,7.46443,-26.292,-1.04362e-14,-2.78299e-15,-32.1064,15.8469,80.2716,23.5965,-11.2802,-20.8087,25.8644,7.12502,5.55905,55.7715,-12.1755,17.2549,21.7827,26.7552,-17.8453,-19.262,3.19973,-6.37371,-6.15505,-19.3778,21.8952,-25.0098,27.2753,8.11242
7.59778,18.7819,4.89407,1.35949,-83.1641,1.66081,4.92851,0.355336,0.311977,0.67298,0.492104,0.593203,-2.07342,0.240092,0.401643,-8.48957,-2.62072,-6.74951,19.7743,-3.64462,4.16283,7.67725,-1.97121,2.14802,-1.30452e-14,3.97569e-16,-35.4168,0.418673,-80.4228,30.7702,15.6205,-18.7075,3.69408,7.12502,7.58747,-26.1498,-1.30452e-14,3.97569e-16,-32.3419,15.7039,80.3076,23.9974,-10.4711,-20.9324,25.8579,7.12502,5.43959,55.7681,-12.208,17.3216,21.6349,26.8378,-17.7668,-19.1661,3.05863,-6.25287,-6.15857,-19.5626,21.8248,-25.2101,27.3978,8.17272
7.58699,18.7786,4.88075,1.1959,-83.3587,1.81472,4.94798,0.247685,0.187489,0.616275,0.344483,0.66101,-2.14302,0.167887,0.550733,-8.63959,-2.85142,-6.51036,20.6684,-3.87027,3.28417,7.99539,-2.15775,1.7937,-1.24737e-14,-5.76476e-15,-35.2906,0.66222,-80.4225,30.8642,15.7045,-18.1155,4.26082,7.12502,8.1589,-25.5617,-1.24737e-14,-5.76476e-15,-32.6123,15.719,80.3001,24.4426,-9.92805,-20.7569,25.9134,7.12502,5.60906,55.8191,-12.227,17.3282,21.6862,26.9014,-17.6837,-19.0801,2.59583,-6.16157,-6.14519,-19.5453,21.7995,-25.4213,27.458,8.37874
7.57766,18.7757,4.86444,1.88857,-83.5793,1.07624,5.02293,0.198654,0.204841,0.561264,0.282136,0.702937,-2.24112,0.136968,0.587976,-8.73303,-3.13443,-6.445,21.4343,-4.2066,2.75969,8.2767,-2.37821,1.57132,-1.799e-14,-3.18055e-15,-35.1192,0.577057,-80.3677,30.8334,15.6159,-17.1824,5.03715,7.12502,9.0593,-24.7483,-1.799e-14,-3.18055e-15,-32.8601,15.8685,80.2123,24.8707,-9.54509,-20.4914,26.0485,7.12502,5.86538,55.9473,-12.2241,17.376,21.8719,26.9553,-17.5565,-19.0467,2.06054,-6.05456,-6.22978,-19.4256,21.7912,-25.6419,27.7142,8.41613
7.56939,18.7742,4.84861,1.96486,-83.8832,0.929557,5.11401,0.16038,0.14426,0.543098,0.228738,0.717024,-2.31061,0.110987,0.639934,-8.80199,-3.4035,-6.53566,22.0275,-4.56378,2.58462,8.5077,-2.58499,1.4874,1.73937e-15,0,-34.8485,0.522983,-80.4047,30.7403,15.6719,-17.0797,5.46179,7.12502,9.15841,-24.3193,1.73937e-15,0,-33.0264,15.9275,80.1706,25.221,-8.98875,-20.6568,25.8677,7.12502,5.70576,55.7709,-12.1938,17.6391,21.9837,27.0085,-17.4539,-19.0865,1.75167,-5.9217,-6.24243,-19.392,21.7874,-25.8536,27.9842,8.34057
7.5568,18.7737,4.83635,1.20426,-84.1862,1.66933,5.10574,0.0275292,-0.0884086,0.535578,0.040561,0.797174,-2.31203,0.019661,0.866143,-8.98511,-3.58062,-6.69165,22.6844,-4.75479,2.3175,8.77506,-2.72882,1.39622,-4.57205e-15,1.68967e-14,-34.568,0.736459,-80.4366,30.7644,15.9332,-17.2884,5.6258,7.12502,8.95701,-24.1641,-4.57205e-15,1.68967e-14,-33.2352,16.0305,80.174,25.6206,-8.22167,-20.8323,25.9679,7.12502,5.5363,55.8756,-12.1807,17.9672,21.9495,27.0553,-17.549,-19.0467,2.01609,-5.82533,-6.12321,-19.4592,21.7955,-26.0453,28.0925,8.31733
7.54091,18.7723,4.82726,0.445558,-84.4844,2.46957,5.02766,-0.113846,-0.19448,0.47428,-0.152119,0.826035,-2.32795,-0.0747456,0.968735,-9.03488,-3.74586,-6.94053,23.313,-4.94559,2.14596,9.01528,-2.87465,1.35335,4.05024e-15,7.95139e-16,-34.4529,0.69588,-80.4448,30.9555,16.2612,-17.3754,5.64678,7.12502,8.8731,-24.1467,4.05024e-15,7.95139e-16,-33.5032,16.0752,80.1168,26.0124,-7.44979,-20.6769,26.0846,7.12502,5.68634,55.9883,-12.2366,18.0351,21.8806,27.1164,-17.5413,-18.8001,1.96642,-5.76955,-5.95587,-19.5259,21.7816,-26.1756,28.1761,8.30237
7.52426,18.769,4.8098,0.948048,-84.7905,2.00259,4.93901,-0.171124,-0.164755,0.405161,-0.225751,0.828218,-2.34815,-0.111148,0.959197,-8.85844,-3.95166,-7.22957,23.7391,-5.25022,2.20322,9.15744,-3.05335,1.38723,-5.01931e-15,2.98177e-15,-34.4352,0.530237,-80.5157,31.236,16.3428,-17.07,5.62831,7.12502,9.16784,-24.1524,-5.01931e-15,2.98177e-15,-33.7752,16.1264,79.9933,26.3561,-7.22229,-20.7093,25.8521,7.12502,5.65498,55.7566,-12.2953,17.9586,22.0126,27.2119,-17.3916,-18.5386,1.3957,-5.68349,-5.50357,-19.3953,21.7184,-26.0124,28.1262,7.914
7.50873,18.7646,4.78062,1.23854,-85.0747,1.73038,4.88187,-0.19685,-0.403309,0.35173,-0.270215,0.923394,-2.36878,-0.13007,1.19396,-8.59895,-4.14175,-7.44239,24.0058,-5.51651,2.13471,9.22239,-3.21781,1.37217,-1.9133e-15,1.05356e-14,-34.3915,0.654813,-80.5252,31.5266,16.0896,-16.5743,5.62495,7.12502,9.64606,-24.1342,-1.9133e-15,1.05356e-14,-34.0579,16.3022,79.9353,26.7063,-7.45609,-20.999,25.9112,7.12502,5.37531,55.823,-12.3267,18.0997,22.1887,27.3331,-17.4275,-18.4983,1.39534,-5.56341,-4.88394,-19.227,21.6172,-25.6698,27.9722,7.24472
7.49353,18.7605,4.76105,-0.196875,-85.4056,3.17953,4.83439,-0.228288,-0.669722,0.301432,-0.325206,0.94169,-2.39107,-0.153983,1.36608,-8.45813,-4.31489,-7.48121,24.3695,-5.75153,1.9225,9.33243,-3.36808,1.2788,1.78906e-15,2.38542e-15,-34.3335,0.448692,-80.4511,31.7951,16.2123,-16.5009,5.36682,7.12502,9.71691,-24.389,1.78906e-15,2.38542e-15,-34.2444,16.2434,79.924,26.9038,-7.49325,-21.0673,25.8989,7.12502,5.30932,55.8124,-12.3741,18.2528,22.145,27.459,-17.5886,-18.3189,1.86095,-5.42027,-4.59892,-19.2824,21.5061,-25.6555,27.9763,7.09495
7.47591,18.7573,4.75546,-2.2236,-85.7818,5.13172,4.81641,-0.297562,-0.705162,0.296048,-0.420607,0.876297,-2.38402,-0.201323,1.32505,-8.39225,-4.45044,-7.48336,24.7338,-5.94703,1.76765,9.45495,-3.48983,1.20112,3.65267e-15,2.98177e-15,-34.2553,0.0241573,-80.4149,32.068,16.551,-16.7754,5.02941,7.12502,9.45205,-24.7386,3.65267e-15,2.98177e-15,-34.3394,16.0731,79.8605,26.9847,-7.26205,-20.9272,25.6922,7.12502,5.44459,55.6023,-12.3343,18.1519,22.0328,27.574,-17.6852,-17.793,2.05362,-5.14759,-4.772,-19.4679,21.4049,-26.1767,28.21,7.72413
7.45764,18.756,4.74919,-3.99848,-86.1638,6.84786,4.78302,-0.377703,-0.778178,0.295653,-0.530459,0.910863,-2.36166,-0.255333,1.40871,-8.23901,-4.52181,-7.54093,24.9015,-6.02731,1.57122,9.4866,-3.56357,1.13509,4.64659e-15,-3.18055e-15,-34.1653,0.267583,-80.4399,32.4076,16.2048,-16.8603,4.99488,7.12502,9.37016,-24.7768,4.64659e-15,-3.18055e-15,-34.442,16.0777,79.848,27.0913,-7.07615,-20.8746,25.7234,7.12502,5.49542,55.6321,-12.3104,17.9394,21.9584,27.6594,-17.6703,-17.234,1.91869,-4.91065,-4.877,-19.6133,21.3334,-26.6092,28.5146,8.1272
7.43889,18.7539,4.74092,-3.20464,-86.5887,6.07572,4.67427,-0.449153,-0.680945,0.275453,-0.618573,0.978255,-2.31914,-0.300201,1.42825,-8.09965,-4.5608,-7.57731,25.0547,-6.07383,1.41849,9.51428,-3.61463,1.08427,-1.88845e-15,9.93923e-15,-34.1004,0.854777,-80.6131,32.8488,15.4294,-16.9863,4.81474,7.12502,9.24855,-24.9624,-1.88845e-15,9.93923e-15,-34.5667,16.1906,79.782,27.1966,-7.16045,-20.8622,25.7828,7.12502,5.50738,55.6912,-12.3551,17.8098,22.0677,27.6825,-17.5663,-16.7904,1.7576,-4.81949,-4.6509,-19.52,21.3312,-26.7407,28.6797,8.02679
7.41918,18.7484,4.73398,0.441606,-86.9972,2.41464,4.57627,-0.50304,-0.277614,0.272679,-0.669969,0.959774,-2.27034,-0.330374,1.18501,-7.98392,-4.64665,-7.50067,25.248,-6.22465,1.33943,9.56323,-3.69655,1.02733,-2.36057e-15,-1.19271e-15,-34.0592,0.818883,-80.7499,33.2876,15.0728,-17.1745,4.55928,7.12502,9.06694,-25.2258,-2.36057e-15,-1.19271e-15,-34.6208,16.0277,79.6687,27.1902,-7.29935,-20.8212,25.6672,7.12502,5.54702,55.5746,-12.2985,17.7754,22.3512,27.6323,-17.3994,-16.4085,1.50471,-4.73721,-4.31399,-19.2541,21.4238,-26.9259,28.6453,7.87996
7.39752,18.7438,4.72593,4.29442,-87.3972,-1.47025,4.46846,-0.523913,0.0250908,0.277022,-0.68277,0.979814,-2.20845,-0.340091,1.03523,-7.76185,-4.74365,-7.35388,25.3303,-6.38725,1.1799,9.54756,-3.78438,0.934064,2.98177e-16,0,-34.0318,0.377253,-80.6311,33.6731,15.2921,-16.8665,4.7398,7.12502,9.36419,-25.0322,2.98177e-16,0,-34.6296,15.6449,79.6887,27.1339,-7.21424,-20.8453,25.4709,7.12502,5.5237,55.3789,-12.184,17.7675,22.6001,27.5422,-17.2565,-16.0371,1.15479,-4.64231,-4.0694,-19.0464,21.5651,-27.2376,28.676,7.91246
7.37408,18.7411,4.71852,10.5833,-87.7898,-7.81958,4.37788,-0.590641,0.315638,0.285046,-0.756968,1.07337,-2.15066,-0.380102,0.971768,-7.59303,-4.7907,-7.26902,25.4265,-6.44504,0.942717,9.54182,-3.83737,0.834537,8.19987e-16,-2.78299e-15,-34.0125,0.357732,-80.575,34.0913,15.4076,-16.4875,4.77473,7.12502,9.72988,-24.9805,8.19987e-16,-2.78299e-15,-34.7092,15.4529,79.7177,27.1315,-7.14222,-21.0315,25.5498,7.12502,5.3439,55.4624,-12.0302,17.7285,22.8989,27.4629,-17.2814,-15.6209,1.2117,-4.47557,-4.2203,-18.8501,21.6958,-27.8828,28.9736,8.50743
7.35129,18.7391,4.71348,19.1168,-88.1297,-16.4577,4.40359,-0.708678,0.720299,0.268319,-0.894019,1.09756,-2.1861,-0.452535,0.778674,-7.57785,-4.81855,-7.2927,25.6702,-6.48081,0.823426,9.62491,-3.88008,0.789228,1.31198e-14,-7.95139e-16,-34.0123,0.565061,-80.6985,34.504,15.2648,-16.373,4.62699,7.12502,9.84032,-25.1231,1.31198e-14,-7.95139e-16,-34.9453,15.4041,79.583,27.1646,-7.1606,-21.1417,25.7682,7.12502,5.23752,55.6834,-11.8269,17.8134,23.1748,27.412,-17.489,-15.1647,2.07673,-4.25834,-4.3622,-18.6679,21.8192,-28.5234,29.1993,9.18005
7.3314,18.7349,4.70178,25.626,-88.5266,-23.0336,4.45425,-0.79384,0.827931,0.222295,-1.00065,1.09925,-2.26278,-0.506791,0.728047,-7.496,-4.81054,-7.33255,25.8518,-6.48624,0.785026,9.67506,-3.90136,0.780696,7.45443e-16,9.54166e-15,-34.0291,0.68936,-80.7458,34.9086,15.2553,-16.1326,4.79899,7.12502,10.0723,-24.94,7.45443e-16,9.54166e-15,-35.2738,15.4164,79.37,27.2003,-7.26263,-20.8388,25.6379,7.12502,5.53001,55.5457,-11.7076,18.0406,23.2627,27.3884,-17.5439,-14.89,2.44898,-4.13759,-3.8423,-18.5971,21.9336,-28.4706,29.1872,8.93561
7.31246,18.7269,4.68393,33.7942,-88.9548,-31.2738,4.46631,-0.848988,0.727084,0.209488,-1.07814,1.13801,-2.27962,-0.544291,0.829662,-7.3428,-4.76293,-7.41226,25.9558,-6.43984,0.781959,9.68432,-3.89764,0.800088,-1.35422e-14,1.35174e-14,-34.0619,0.756077,-80.6939,35.3463,15.3844,-15.5304,5.22962,7.12502,10.6531,-24.4803,-1.35422e-14,1.35174e-14,-35.4732,15.5009,79.2045,27.0944,-7.6263,-20.5653,25.402,7.12502,5.79406,55.3028,-11.6315,17.9725,23.3167,27.3862,-17.3059,-14.6153,1.50025,-4.02526,-3.19675,-18.585,22.0375,-28.222,29.2084,8.23074
7.28815,18.7212,4.6694,59.5918,-89.2874,-57.1079,4.36024,-0.892735,0.791119,0.207028,-1.13406,1.19651,-2.2223,-0.572812,0.855487,-7.21994,-4.73047,-7.6588,26.0921,-6.40903,0.86925,9.72181,-3.90799,0.875004,9.6659e-15,3.57812e-15,-34.1239,1.10199,-80.8107,35.7599,14.7359,-15.7387,5.12113,7.12502,10.4522,-24.599,9.6659e-15,3.57812e-15,-35.6164,15.6137,79.0831,26.9302,-8.0068,-20.5766,25.3177,7.12502,5.78312,55.2188,-11.613,17.7476,23.4225,27.4539,-17.2541,-13.9758,1.08556,-3.84059,-2.95712,-18.5347,22.0472,-28.3828,29.415,8.02798
7.25934,18.7165,4.65595,104.549,-89.2945,-102.038,4.1383,-0.910022,0.900804,0.197539,-1.1545,1.26183,-2.10833,-0.584022,0.858289,-7.12769,-4.73793,-7.8053,26.2554,-6.43145,0.878905,9.77085,-3.9421,0.899314,5.39203e-15,-8.74653e-15,-34.1909,1.79645,-81.146,36.1312,13.1506,-17.1723,4.33174,7.12502,9.06908,-25.4533,5.39203e-15,-8.74653e-15,-35.7621,15.7227,78.9665,26.8004,-8.27273,-20.6727,25.3542,7.12502,5.69034,55.2578,-11.6622,17.7534,23.5401,27.6007,-17.3745,-13.4185,1.16373,-3.62293,-2.82574,-18.463,21.9264,-28.651,29.6727,7.94186
7.22789,18.7102,4.64452,160.532,-89.2491,-158.236,4.14818,-0.929307,0.484928,0.253485,-1.20073,1.20937,-2.04859,-0.603166,1.03965,-7.13692,-4.73916,-7.95471,26.4963,-6.44492,0.910556,9.86787,-3.9711,0.928688,9.7156e-15,3.97569e-16,-34.241,2.35373,-81.3064,36.5288,12.1397,-18.1551,3.9289,7.12502,8.12068,-25.8951,9.7156e-15,3.97569e-16,-35.8846,16.0104,78.7948,26.5828,-8.70491,-20.4956,25.4025,7.12502,5.86139,55.3015,-11.3916,17.8826,23.1847,27.7271,-17.4703,-13.0486,1.17847,-3.1477,-2.53413,-18.964,21.8426,-28.7984,29.901,7.43595
7.19855,18.7062,4.63335,192.93,-88.754,-190.879,4.23614,-0.97005,-0.0341716,0.304352,-1.2798,1.14735,-2.03455,-0.638045,1.2727,-7.15855,-4.71579,-8.17864,26.6972,-6.41888,0.991691,9.95591,-3.98253,0.992471,-1.89839e-14,1.43125e-14,-34.2325,2.74964,-81.2442,36.8957,11.8122,-18.3514,3.93833,7.12502,7.93121,-25.8929,-1.89839e-14,1.43125e-14,-36.0063,16.2516,78.6455,26.3236,-9.10954,-20.2414,25.2865,7.12502,6.10677,55.1785,-11.0961,17.9031,22.6919,27.8081,-17.5869,-12.5032,1.46859,-2.72686,-2.0688,-19.5475,21.8589,-28.9214,29.982,6.95786
7.17835,18.7031,4.61248,177.254,-88.3489,-175.124,4.08818,-1.02258,0.32075,0.267129,-1.33278,1.26697,-1.99399,-0.667701,1.19701,-7.0669,-4.68055,-8.19786,26.7903,-6.42614,1.11394,9.97665,-3.98333,1.03831,9.29318e-15,-1.98785e-15,-34.2329,3.0877,-81.3908,37.1997,11.012,-18.8627,3.7818,7.12502,7.4377,-26.0675,9.29318e-15,-1.98785e-15,-36.0759,16.3513,78.3998,26.063,-9.40195,-20.1938,25.1489,7.12502,6.15272,55.0396,-11.1949,17.9941,23.1333,27.8601,-17.6178,-12.1968,1.37769,-2.76436,-1.62824,-19.0515,21.943,-29.0578,29.8786,7.015
7.16067,18.6979,4.58996,166.224,-87.891,-164.006,3.9635,-1.17474,0.655431,0.225142,-1.51941,1.51529,-1.96592,-0.764103,1.27275,-7.02351,-4.54049,-8.43725,26.8752,-6.24134,1.23256,10.0028,-3.91745,1.13999,7.87684e-15,9.14409e-15,-34.2282,3.73202,-81.6275,37.5171,10.0028,-19.905,3.1931,7.12502,6.43151,-26.6893,7.87684e-15,9.14409e-15,-36.2731,17.1368,78.0226,25.8268,-9.90778,-20.2621,25.1,7.12502,6.08683,54.9926,-11.2576,18.303,23.6658,27.8532,-17.6193,-12.1134,1.27682,-2.89459,-1.23267,-18.4656,22.1876,-29.339,29.6025,7.64552
7.1435,18.6923,4.57001,166.749,-87.526,-164.474,3.92697,-1.42533,0.561443,0.167814,-1.85458,1.82888,-1.98542,-0.930781,1.66618,-7.04074,-4.33027,-8.87177,26.9075,-5.85163,1.11186,10.0116,-3.80005,1.21228,-1.88845e-15,1.98785e-15,-34.165,4.59392,-81.6122,37.8425,9.84033,-20.2979,2.32814,7.12502,6.05224,-27.5654,-1.88845e-15,1.98785e-15,-36.6327,18.2342,77.7968,25.6597,-10.2582,-20.4424,25.1331,7.12502,5.91274,55.0306,-11.2426,18.3965,23.7826,27.768,-17.61,-11.7609,1.22525,-3.08208,-0.53777,-18.2357,22.6254,-29.5502,29.0241,8.14901
7.12901,18.687,4.54547,165.772,-87.1538,-163.391,3.8296,-1.59072,0.629598,0.104863,-2.07159,1.97788,-1.98723,-1.03987,1.79119,-6.89242,-4.19666,-8.87662,26.8114,-5.65225,0.98573,9.93366,-3.7256,1.19585,-1.92324e-14,9.54166e-15,-34.127,4.75889,-81.5696,38.065,10.3864,-19.5729,2.28879,7.12502,6.75217,-27.5835,-1.92324e-14,9.54166e-15,-36.8538,18.5,77.5979,25.4979,-10.1352,-20.4253,25.2213,7.12502,5.92919,55.1184,-11.3057,18.2697,23.9925,27.7144,-17.5506,-11.2905,1.12423,-3.33709,0.562988,-17.8499,23.0464,-29.1423,28.48,7.4905
7.11166,18.6823,4.52154,164.861,-86.7497,-162.464,3.69012,-1.68568,0.77423,0.126492,-2.1957,1.96276,-1.88968,-1.10362,1.69597,-6.70153,-4.07482,-8.59326,26.7348,-5.56176,1.01372,9.85242,-3.65729,1.17441,2.93207e-14,-1.74931e-14,-34.0454,4.3856,-81.6132,38.1172,10.8853,-19.0947,3.0423,7.12502,7.21373,-26.8148,2.93207e-14,-1.74931e-14,-36.919,18.5492,77.2013,25.2721,-10.173,-20.291,25.2756,7.12502,6.05888,55.1689,-11.308,18.1671,24.2461,27.7557,-17.5447,-10.8296,1.27045,-3.4227,1.52589,-17.4973,23.355,-28.6715,28.2253,6.58523
7.08835,18.6749,4.50148,164.982,-86.3862,-162.693,3.60922,-1.76862,0.891684,0.2071,-2.30586,1.90472,-1.76604,-1.16017,1.57149,-6.65414,-3.96327,-8.2465,26.8118,-5.48488,1.029,9.85269,-3.59367,1.13083,1.64991e-14,-1.23246e-14,-33.9515,4.17036,-81.6902,38.1736,11.1519,-19.115,3.34844,7.12502,7.19412,-26.5093,1.64991e-14,-1.23246e-14,-36.9758,18.8867,76.6403,25.0051,-10.5357,-19.9403,25.0456,7.12502,6.39746,54.929,-11.19,17.9741,24.4497,27.867,-17.604,-10.3521,1.09431,-3.31043,2.22427,-17.2745,23.5943,-28.4711,28.0488,6.02945
7.06179,18.6655,4.48263,168.768,-86.0571,-166.655,3.61852,-1.77408,0.834704,0.266202,-2.31726,1.74518,-1.71467,-1.16521,1.43909,-6.57038,-3.94582,-7.91856,26.8767,-5.53898,1.03627,9.84959,-3.59256,1.07385,9.26834e-15,-8.34896e-15,-33.9873,4.02195,-81.768,38.3182,11.4074,-18.8109,3.14113,7.12502,7.48765,-26.7064,9.26834e-15,-8.34896e-15,-37.0733,19.0323,76.1416,24.8257,-10.6689,-19.7761,24.9087,7.12502,6.55593,54.7872,-10.9994,17.886,24.392,28.022,-17.6957,-9.98614,0.703764,-3.10092,2.90367,-17.3439,23.8031,-28.3471,27.8579,5.54489
7.03704,18.6586,4.46442,173.752,-85.6868,-171.772,3.63123,-1.78331,0.619571,0.286569,-2.3385,1.6503,-1.69585,-1.17392,1.46302,-6.4348,-3.89213,-7.93068,26.8567,-5.51098,1.14272,9.81762,-3.57435,1.11929,8.34896e-15,8.34896e-15,-34.0581,3.9215,-81.7615,38.4468,11.6745,-18.8717,2.88233,7.12502,7.42904,-26.9672,8.34896e-15,8.34896e-15,-37.2387,19.1041,75.9133,24.764,-10.4557,-20.1726,25.2093,7.12502,6.17323,55.0993,-10.8611,18.0817,24.1623,28.185,-17.8809,-9.7134,0.929352,-2.9697,3.58802,-17.5647,24.0432,-28.2359,27.696,5.14581
7.01369,18.6529,4.44302,174.907,-85.322,-173.013,3.57689,-1.86637,0.549505,0.338841,-2.45394,1.72786,-1.60312,-1.23186,1.5841,-6.40254,-3.77791,-8.10373,26.832,-5.3478,1.21086,9.80194,-3.51142,1.19048,-5.4964e-14,6.75868e-15,-34.021,4.01895,-81.6804,38.4869,11.9771,-19.3526,2.64464,7.12502,6.96483,-27.2208,-5.4964e-14,6.75868e-15,-37.4224,19.5052,75.7147,24.7277,-10.4048,-20.0918,25.3574,7.12502,6.25123,55.2451,-10.7589,18.199,24.1968,28.3184,-18.048,-9.38329,1.46675,-2.953,4.42873,-17.4685,24.3805,-27.9054,27.4733,4.43221
6.99176,18.6473,4.41755,174.075,-84.9874,-172.275,3.5333,-1.919,0.559537,0.410474,-2.52633,1.8334,-1.49924,-1.26933,1.68674,-6.40963,-3.70234,-8.0397,26.8721,-5.24406,1.14815,9.80818,-3.46783,1.1683,3.19049e-14,3.97569e-15,-33.9366,3.96707,-81.4853,38.4668,12.4115,-19.3185,2.32213,7.12502,6.99771,-27.5422,3.19049e-14,3.97569e-15,-37.5516,20.1939,75.3376,24.5978,-10.7446,-19.7673,25.4098,7.12502,6.56447,55.2881,-10.6281,18.0076,24.4179,28.3887,-18.1095,-8.89086,1.52189,-3.01482,5.29569,-17.1749,24.8697,-27.3939,27.3596,3.04321
6.97191,18.6421,4.39431,173.05,-84.6228,-171.319,3.50909,-1.93507,0.650559,0.456742,-2.54637,1.90341,-1.43849,-1.2808,1.70652,-6.43799,-3.61268,-7.84411,26.9763,-5.15396,1.12528,9.83832,-3.41547,1.13548,-1.61016e-14,-7.95139e-15,-33.8446,3.74791,-81.2501,38.4031,12.7187,-18.9793,2.23207,7.12502,7.32515,-27.6211,-1.61016e-14,-7.95139e-15,-37.6261,20.7304,74.9879,24.408,-11.0032,-20.1045,25.6937,7.12502,6.23896,55.5818,-10.5007,17.8162,24.6411,28.3968,-18.1993,-8.28475,1.74965,-3.18202,6.15492,-16.8549,25.5045,-26.7645,27.3831,1.05757
6.95326,18.6364,4.37203,172.019,-84.2709,-170.385,3.53593,-1.96485,0.826094,0.514813,-2.58132,1.93416,-1.39939,-1.30004,1.64122,-6.45454,-3.52652,-7.69204,27.0292,-5.08266,1.1969,9.85236,-3.36392,1.14183,7.70291e-15,-1.19271e-14,-33.7345,3.56309,-81.1286,38.2664,12.693,-19.033,2.3162,7.12502,7.27334,-27.5388,7.70291e-15,-1.19271e-14,-37.6703,20.9524,74.7203,24.2919,-11.0525,-20.4064,25.8646,7.12502,5.94749,55.7611,-10.3235,17.8054,24.8787,28.3947,-18.2707,-7.77695,2.58653,-3.34468,7.00154,-16.4939,26.2107,-26.5222,27.0622,0.347823
6.93349,18.629,4.3414,171.803,-83.968,-170.245,3.54016,-1.98098,0.833913,0.537267,-2.60332,1.94784,-1.37795,-1.3114,1.65149,-6.43022,-3.46951,-7.63296,27.1615,-5.06847,1.33457,9.89533,-3.34529,1.18051,-9.54166e-15,-5.1684e-15,-33.7439,3.17324,-81.0197,38.1005,12.7255,-19.3473,2.54944,7.12502,6.96995,-27.3158,-9.54166e-15,-5.1684e-15,-37.7908,21.051,74.4603,24.2837,-11.0654,-20.4475,25.7586,7.12502,5.90783,55.6562,-10.1626,18.0055,25.082,28.4128,-18.2873,-7.61419,3.18053,-3.53199,7.68826,-16.1885,26.9414,-26.5666,26.5504,0.459143
6.91093,18.6178,4.31149,171.493,-83.6828,-169.897,3.41982,-1.9935,0.941673,0.490984,-2.61728,1.94077,-1.36294,-1.31867,1.58098,-6.40843,-3.39848,-7.66052,27.4336,-5.0566,1.55523,9.99473,-3.33381,1.26118,2.80783e-15,-1.15295e-14,-33.9234,2.67287,-80.864,37.9938,12.9247,-19.3318,3.17337,7.12502,6.98487,-26.6914,2.80783e-15,-1.15295e-14,-37.975,20.9951,74.2721,24.3217,-11.0448,-20.8041,26.0846,7.12502,5.56347,55.9915,-10.1362,18.0784,25.2786,28.4592,-18.3244,-7.46486,3.12922,-3.82422,8.36936,-15.876,27.6798,-26.3801,26.0943,-0.264598
6.88871,18.6091,4.29333,170.408,-83.3918,-168.819,3.38443,-2.01,1.30472,0.444087,-2.62621,1.90696,-1.40893,-1.3249,1.34385,-6.32081,-3.3241,-7.63219,27.6296,-5.04627,1.75699,10.0516,-3.31781,1.32816,-6.75868e-15,8.74653e-15,-34.1439,2.35125,-80.7342,37.9314,13.0042,-19.338,3.32379,7.12502,6.97892,-26.5412,-6.75868e-15,8.74653e-15,-38.1012,20.7677,74.1845,24.3252,-10.9399,-21.2228,26.7755,7.12502,5.15927,56.6927,-10.1268,17.7464,25.4885,28.5826,-18.4504,-6.80991,3.38185,-4.04246,8.98523,-15.5213,28.3583,-26.1165,25.7483,-0.785694
6.86952,18.6076,4.27716,171.269,-83.091,-169.837,3.53704,-2.02694,1.3241,0.446731,-2.64451,1.86507,-1.49422,-1.33413,1.29713,-6.20791,-3.24059,-7.51658,27.7116,-4.98415,1.78771,10.0526,-3.28323,1.32748,-3.98812e-14,7.55382e-15,-34.2499,1.93058,-80.517,37.7964,13.238,-19.385,3.14794,7.12502,6.93352,-26.7185,-3.98812e-14,7.55382e-15,-38.1827,20.55,74.1685,24.3311,-10.6744,-21.3375,27.02,7.12502,5.04844,56.9399,-9.91576,17.4098,25.4533,28.5882,-18.5871,-6.03905,3.95183,-4.23906,9.58334,-15.4378,29.2368,-25.7805,25.6329,-1.1861
6.85114,18.6043,4.25742,175.724,-82.7781,-174.623,3.84128,-2.02374,0.777724,0.496557,-2.65609,1.70055,-1.59621,-1.33582,1.44516,-6.04078,-3.15741,-7.26284,27.672,-4.89997,1.67242,9.98978,-3.23619,1.25652,9.7653e-15,2.42517e-14,-34.3448,1.26942,-80.2474,37.6783,13.5824,-19.0014,3.04633,7.12502,7.30381,-26.8076,9.7653e-15,2.42517e-14,-38.2842,20.5684,73.9601,24.342,-10.6821,-21.1786,26.9135,7.12502,5.20186,56.8296,-9.53916,17.2998,24.9848,28.6187,-18.7319,-5.5455,3.97724,-4.24783,10.1522,-15.8509,30.1074,-25.6288,25.468,-1.56135
6.83635,18.5959,4.24259,169.071,-82.1317,-167.764,3.74123,-1.96349,1.95066,0.443134,-2.53146,1.90606,-1.63872,-1.28291,0.992462,-5.9208,-3.13848,-6.99584,27.6604,-4.91104,1.5813,9.95174,-3.22847,1.18039,-3.83903e-14,1.90833e-14,-34.6116,0.631972,-80.0381,37.7708,13.6987,-18.7832,2.30373,7.12502,7.51441,-27.5428,-3.83903e-14,1.90833e-14,-38.3395,20.7801,73.6448,24.3199,-10.9831,-21.1954,26.632,7.12502,5.18573,56.5485,-9.63402,17.5048,26.0538,28.5538,-18.6976,-5.11438,4.37276,-4.82099,10.7146,-14.6196,31.167,-25.7249,25.0617,-1.54059
6.81012,18.5937,4.22169,171.092,-81.9864,-169.995,3.80765,-1.98503,1.69796,0.533872,-2.57112,1.85874,-1.57372,-1.30075,1.08724,-6.02358,-3.15623,-7.0256,27.8638,-4.95001,1.59673,10.0492,-3.25528,1.18213,-3.70485e-14,-1.70955e-14,-34.8227,0.218526,-79.7996,37.8714,13.6446,-18.8796,1.41412,7.12502,7.42141,-28.4357,-3.70485e-14,-1.70955e-14,-38.2658,20.8415,73.6222,24.2831,-11.0176,-21.2819,26.3836,7.12502,5.10214,56.3022,-9.29047,17.3783,25.861,28.5182,-18.8918,-4.62065,5.31169,-5.03872,11.1827,-14.6824,32.2681,-25.517,24.6414,-2.59316
6.79543,18.594,4.19617,172.664,-81.8415,-171.732,3.99464,-2.05371,1.3602,0.575982,-2.67261,1.90399,-1.61696,-1.3498,1.33394,-6.10131,-3.10895,-7.17146,28.0539,-4.87269,1.58342,10.1348,-3.24441,1.20653,-2.59166e-14,-1.59028e-15,-34.7526,0.361798,-79.6089,37.5899,13.4599,-18.9623,1.08013,7.12502,7.34153,-28.7725,-2.59166e-14,-1.59028e-15,-38.2442,20.945,73.6386,24.2717,-11.0369,-20.9883,26.2893,7.12502,5.38566,56.2009,-8.99905,17.2492,25.7738,28.3979,-18.9107,-4.41029,5.42476,-5.48301,11.6009,-14.6781,33.5613,-25.1866,24.2197,-4.00644
6.7818,18.5927,4.16688,173.852,-81.7199,-173.018,4.14927,-2.16242,1.04929,0.581305,-2.8271,1.96237,-1.67812,-1.4253,1.58215,-6.12814,-3.004,-7.31439,28.1728,-4.71319,1.57365,10.18,-3.19413,1.24255,6.91522e-14,-2.18663e-14,-34.5936,0.868811,-79.5172,37.1252,13.1836,-19.2054,0.680628,7.12502,7.10688,-29.18,6.91522e-14,-2.18663e-14,-38.3027,21.1775,73.5501,24.3073,-11.075,-20.9755,26.1859,7.12502,5.39799,56.0972,-8.78124,17.2271,25.7354,28.2638,-18.696,-4.39871,4.26965,-6.08439,11.8983,-14.6438,34.9678,-24.6824,23.9005,-4.99507
6.75865,18.5898,4.14035,173.678,-81.7471,-172.82,4.0374,-2.23819,1.08022,0.572085,-2.929,1.98597,-1.62342,-1.47648,1.58982,-6.06672,-2.99958,-7.41431,28.2754,-4.73629,1.65398,10.2121,-3.21412,1.28519,-4.87271e-14,6.75868e-15,-34.9142,0.201595,-79.2823,36.9455,13.8098,-19.6746,0.352232,7.12502,6.65399,-29.5232,-4.87271e-14,6.75868e-15,-38.276,21.1963,73.4845,24.3454,-11.1016,-21.1455,26.2149,7.12502,5.23387,56.1303,-8.68636,17.0959,25.81,28.198,-18.4709,-4.09552,3.9164,-6.78676,12.0546,-14.431,36.3658,-23.9621,23.6373,-5.57767
6.73654,18.5795,4.11142,166.004,-81.9766,-164.672,3.48226,-2.38172,2.21519,0.482023,-3.09208,2.27844,-1.44588,-1.56659,1.24256,-5.94956,-3.09203,-7.35484,28.3223,-4.90729,1.67365,10.2143,-3.28994,1.26485,-2.35311e-14,1.47101e-14,-35.0566,-0.382482,-78.8282,36.6118,14.1549,-19.9277,0.472773,7.12502,6.40962,-29.4102,-2.35311e-14,1.47101e-14,-38.1627,21.232,73.414,24.4167,-11.19,-20.8322,26.2547,7.12502,5.53638,56.1624,-9.04067,16.5499,26.9615,28.171,-18.2623,-3.86453,4.12166,-8.05206,11.9631,-13.0521,37.8115,-23.0894,23.1261,-5.52626
6.72857,18.5727,4.08938,170.277,-81.8629,-169.315,3.94734,-2.32439,1.52211,0.551704,-3.02802,2.11715,-1.60781,-1.52966,1.47976,-5.97638,-3.13898,-7.30318,28.4652,-5.00617,1.69927,10.2764,-3.33365,1.25208,-3.7943e-14,2.34566e-14,-35.0902,-0.689393,-78.4573,36.262,14.213,-19.7838,0.601611,7.12502,6.54852,-29.2771,-3.7943e-14,2.34566e-14,-38.0547,21.1718,73.4576,24.6109,-10.9347,-20.5227,26.0812,7.12502,5.83513,55.9809,-8.66932,16.5423,26.4739,28.2452,-18.0061,-3.92382,1.86085,-8.32814,11.9329,-13.5184,39.1041,-22.7694,22.9286,-4.38314
6.71434,18.5633,4.06716,172.222,-81.7553,-171.454,4.16419,-2.31866,1.22299,0.588083,-3.0282,2.05001,-1.67991,-1.52758,1.58673,-5.9538,-3.15049,-7.30202,28.5973,-5.05161,1.72177,10.3239,-3.35962,1.25361,-1.76421e-15,9.93923e-15,-35.2882,-1.09616,-78.1896,36.0036,14.3627,-19.5736,0.651975,7.12502,6.75144,-29.2204,-1.76421e-15,9.93923e-15,-38.0081,21.0416,73.531,24.8389,-10.7293,-20.5907,25.9935,7.12502,5.7695,55.895,-8.42123,16.7189,26.3041,28.3087,-18.1856,-3.95813,1.58254,-8.7985,12.0109,-13.6129,40.4231,-22.1905,22.5631,-2.68773
6.69526,18.5538,4.05077,172.435,-81.6487,-171.693,4.16288,-2.39134,1.27863,0.638294,-3.12484,2.09414,-1.62637,-1.5769,1.6047,-6.00233,-3.14199,-7.45548,28.6274,-5.00415,1.67822,10.3466,-3.36,1.26775,2.06736e-14,-8.74653e-15,-35.3985,-1.45597,-77.8864,35.7391,14.5951,-19.4804,0.858821,7.12502,6.84144,-29.0106,2.06736e-14,-8.74653e-15,-37.9471,21.3546,73.5366,25.0202,-10.8563,-20.5649,26.1197,7.12502,5.79443,56.0205,-8.39134,16.7976,26.3558,28.5061,-19.099,-3.6668,5.49533,-9.39388,12.056,-13.4796,41.6367,-21.1952,22.4698,-1.66997
6.67771,18.5501,4.03473,172.884,-81.5515,-172.157,4.18365,-2.45142,1.28303,0.691449,-3.20644,2.1309,-1.58006,-1.61835,1.64378,-6.16874,-3.14883,-7.71433,28.7452,-4.98085,1.73289,10.4322,-3.37239,1.32889,-9.49197e-15,1.86858e-14,-35.5599,-1.94382,-77.5874,35.5359,14.8825,-19.487,1.00457,7.12502,6.83507,-28.8651,-9.49197e-15,1.86858e-14,-37.8575,21.4474,73.6695,25.286,-10.7377,-20.3674,26.1356,7.12502,5.98513,56.0311,-8.36132,16.669,26.3529,28.6166,-19.6565,-3.35551,7.69346,-10.0973,12.0991,-13.4156,42.9574,-20.0941,22.6147,-2.15806
6.66313,18.5482,4.01697,173.693,-81.4534,-173.036,4.3053,-2.45055,1.17513,0.701746,-3.20734,2.13392,-1.63139,-1.61828,1.7128,-6.1962,-3.16789,-7.75558,28.8654,-4.99438,1.65909,10.4834,-3.39662,1.30586,-1.4064e-14,4.37326e-15,-35.8475,-2.31156,-77.3283,35.3356,15.0091,-19.5725,0.999618,7.12502,6.75247,-28.8727,-1.4064e-14,4.37326e-15,-37.7985,21.2381,73.8681,25.568,-10.4126,-20.4908,26.005,7.12502,5.86596,55.9038,-8.24323,16.5192,26.2919,28.632,-19.7545,-3.0656,8.04819,-10.8133,12.0807,-13.4262,44.3585,-19.2774,22.6076,-1.63424
6.64942,18.5433,3.99797,173.572,-81.2872,-173.026,4.49364,-2.39831,1.16484,0.706628,-3.13402,2.15822,-1.73118,-1.58186,1.74853,-6.03295,-3.20421,-7.64819,28.8357,-5.05215,1.53478,10.4372,-3.42883,1.24011,-7.5886e-14,9.14409e-15,-35.9257,-2.10504,-77.0351,34.9598,14.4698,-19.4074,1.06035,7.12502,6.91187,-28.8068,-7.5886e-14,9.14409e-15,-37.7202,20.9771,74.055,25.8266,-10.047,-20.7946,26.0639,7.12502,5.57265,55.9706,-8.03087,16.5207,26.4102,28.5761,-19.78,-2.80317,8.64193,-11.5031,12.0511,-13.2704,45.8073,-18.5469,22.2069,1.19127
6.63146,18.5378,3.9786,171.932,-81.0257,-171.511,4.69234,-2.30322,1.45768,0.73066,-2.98992,2.2038,-1.83296,-1.51264,1.63238,-5.88865,-3.27673,-7.63952,28.8425,-5.18748,1.56169,10.4193,-3.49115,1.23584,-4.79071e-14,-1.90833e-14,-36.4581,-3.14086,-76.6468,34.8746,15.0887,-19.1489,1.26441,7.12502,7.16138,-28.5944,-4.79071e-14,-1.90833e-14,-37.6601,20.639,74.2134,26.1591,-9.74906,-20.7197,26.1155,7.12502,5.64498,56.0203,-7.74076,16.733,26.822,28.4745,-19.7153,-2.70001,8.89318,-12.1569,12.0288,-12.8258,47.2731,-17.7533,21.6071,4.5983
6.6097,18.5355,3.96396,170.061,-80.749,-169.712,4.81478,-2.2323,1.95102,0.751554,-2.86926,2.2038,-1.90594,-1.45652,1.35493,-5.85114,-3.32895,-7.54855,28.9606,-5.29349,1.54499,10.4582,-3.53862,1.20185,4.83544e-14,-5.96354e-15,-36.6551,-3.19014,-76.4687,34.5747,14.9209,-19.1377,0.9155,7.12502,7.17224,-28.943,4.83544e-14,-5.96354e-15,-37.6384,20.4755,74.1846,26.4989,-9.77983,-20.36,26.0483,7.12502,5.99227,55.9435,-7.47467,16.9559,27.255,28.3391,-19.7061,-2.61216,9.19451,-12.8505,12.0394,-12.3402,48.7103,-16.8626,21.2736,6.61358
6.58943,18.5326,3.95222,168.817,-80.54,-168.496,4.86566,-2.19216,2.3444,0.789615,-2.79679,2.18658,-1.91532,-1.42356,1.11459,-5.84389,-3.35796,-7.42897,29.0179,-5.364,1.54623,10.4775,-3.56104,1.17359,-3.05631e-14,2.22639e-14,-36.7627,-2.86738,-76.4696,34.2087,14.5916,-19.4499,0.323806,7.12502,6.87089,-29.5447,-3.05631e-14,2.22639e-14,-37.5312,20.2031,74.2763,26.8595,-9.61804,-20.263,26.2947,7.12502,6.08588,56.1873,-7.28392,16.8838,27.5424,28.2048,-19.7008,-2.31953,9.52993,-13.6036,12.0651,-11.9828,50.0807,-15.803,20.9803,7.23529
6.57053,18.5292,3.94082,168.586,-80.3813,-168.335,4.9539,-2.17717,2.43602,0.859445,-2.7726,2.23016,-1.89489,-1.41282,1.10867,-5.88893,-3.3781,-7.42603,29.0203,-5.36677,1.46529,10.4854,-3.56978,1.14277,2.53947e-14,-9.54166e-15,-36.8663,-2.65466,-76.3974,33.8243,14.3429,-19.8286,0.347943,7.12502,6.50533,-29.5321,2.53947e-14,-9.54166e-15,-37.436,19.8553,74.6143,27.3249,-9.06372,-20.4293,26.5272,7.12502,5.92531,56.4244,-7.09549,16.7133,27.65,28.1235,-19.6062,-1.93558,9.98381,-14.3157,11.9561,-11.8524,51.3475,-14.7271,20.4699,7.47323
6.55246,18.5281,3.93001,169.116,-80.1922,-168.956,5.10916,-2.15462,2.40589,0.907964,-2.7407,2.25423,-1.9291,-1.39744,1.15349,-5.88114,-3.38949,-7.40439,28.9936,-5.33512,1.27732,10.4672,-3.57296,1.07587,2.63887e-14,-1.07344e-14,-36.9997,-2.503,-76.2579,33.4788,14.1354,-20.1219,0.651957,7.12502,6.22212,-29.2367,2.63887e-14,-1.07344e-14,-37.4497,19.5329,74.9129,27.8774,-8.42102,-20.6395,26.3401,7.12502,5.72238,56.2428,-6.92195,16.7659,27.6385,28.1086,-19.5824,-1.71121,10.3186,-14.9778,11.8836,-11.8753,52.5068,-13.5508,19.8493,7.12209
6.53575,18.526,3.91585,169.827,-79.9574,-169.748,5.30567,-2.18808,2.3034,0.98691,-2.78757,2.33773,-1.94846,-1.42153,1.30615,-6.07936,-3.32482,-7.74281,29.0031,-5.16168,1.27252,10.5133,-3.5261,1.14617,3.13086e-14,4.77083e-15,-36.957,-1.96149,-76.1539,33.1998,14.1396,-20.2605,0.385017,7.12502,6.08833,-29.5075,3.13086e-14,4.77083e-15,-37.4282,19.8096,75.0776,28.3073,-8.20174,-20.6193,26.1826,7.12502,5.74194,56.0848,-6.77816,16.9747,27.6307,28.1397,-19.7036,-1.77378,9.81348,-15.6019,11.8468,-11.9018,53.5633,-12.4946,19.0554,5.81501
6.51625,18.5243,3.90089,170.876,-79.762,-170.869,5.42871,-1.97164,2.34788,0.941981,-2.48961,2.05189,-2.0795,-1.27144,0.972605,-5.70074,-3.45957,-7.36315,28.9285,-5.48827,1.38152,10.4165,-3.62882,1.09391,-1.50082e-14,9.54166e-15,-37.4911,-2.35895,-76.2187,32.9456,14.2737,-20.1399,0.101084,7.12502,6.20478,-29.788,-1.50082e-14,9.54166e-15,-37.3463,19.0486,75.0663,28.6212,-8.17449,-20.372,26.1213,7.12502,5.98071,56.0169,-6.65888,17.0454,27.5327,28.1993,-19.8383,-1.74847,9.56108,-16.2032,11.6673,-12.0223,54.5162,-11.7897,17.963,4.00576
6.4939,18.5235,3.89197,171.867,-79.5436,-171.89,5.4671,-1.9286,2.32982,1.01094,-2.43534,1.96801,-2.03277,-1.2438,0.892261,-5.74773,-3.45859,-7.36609,28.9008,-5.47091,1.35867,10.414,-3.62107,1.08755,2.88238e-14,-2.38542e-15,-37.5495,-2.24341,-76.1973,32.6195,14.5182,-19.9525,0.268634,7.12502,6.38572,-29.6151,2.88238e-14,-2.38542e-15,-37.3031,18.7949,75.2254,29.1197,-7.86053,-20.3389,26.0163,7.12502,6.01258,55.911,-6.60414,17.0246,27.3962,28.2802,-19.9894,-1.47979,9.95699,-16.8322,11.4285,-12.1855,55.3776,-11.5388,16.5696,2.84388
6.47326,18.5208,3.88568,172.48,-79.2284,-172.543,5.54893,-1.85577,2.38803,1.06867,-2.33524,1.90037,-2.02386,-1.19421,0.784639,-5.80487,-3.43861,-7.37394,28.9621,-5.43467,1.33484,10.4459,-3.60928,1.08227,-4.01545e-14,1.63003e-14,-37.6512,-2.25481,-76.1345,32.3042,14.9925,-19.9724,0.418066,7.12502,6.3665,-29.4663,-4.01545e-14,1.63003e-14,-37.2628,18.5397,75.384,29.5989,-7.47113,-20.4708,26.0757,7.12502,5.88526,55.974,-6.53754,17.3045,27.3642,28.3747,-20.1235,-1.35879,10.5016,-17.437,11.2189,-12.265,56.1603,-11.3514,15.0516,2.80641
6.45533,18.5168,3.87736,173.12,-78.9128,-173.271,5.74298,-1.73241,2.37215,1.07767,-2.16576,1.82043,-2.12463,-1.10994,0.705412,-5.69068,-3.43925,-7.34063,28.9924,-5.46831,1.36268,10.436,-3.62266,1.08495,5.31749e-14,-7.95139e-15,-37.8536,-2.25273,-76.1023,31.9508,15.177,-19.9417,0.487212,7.12502,6.39608,-29.3962,5.31749e-14,-7.95139e-15,-37.2565,18.1412,75.5767,30.019,-7.14243,-20.7025,26.1809,7.12502,5.66155,56.0852,-6.42864,17.6775,27.3527,28.4872,-20.1507,-1.36395,10.8884,-17.9899,10.9773,-12.3604,56.8633,-10.777,13.5516,3.25612
6.43681,18.5113,3.86834,173.392,-78.6379,-173.614,5.94113,-1.66844,2.34574,1.10206,-2.07655,1.83151,-2.2082,-1.06623,0.730898,-5.60629,-3.42367,-7.43836,28.9305,-5.44404,1.39222,10.3996,-3.61846,1.11733,2.65378e-14,-1.70955e-14,-37.9381,-2.05858,-76.059,31.5923,15.2338,-19.6836,0.601188,7.12502,6.64525,-29.2745,2.65378e-14,-1.70955e-14,-37.3098,17.8042,75.8519,30.495,-6.63887,-21.0672,26.3548,7.12502,5.30944,56.2683,-6.35955,17.8058,27.3874,28.6214,-20.1765,-1.26652,10.784,-18.5732,10.7706,-12.4625,57.4827,-10.1732,12.3741,2.81026
6.41522,18.505,3.864,173.72,-78.3692,-173.994,6.05166,-1.58817,2.361,1.12448,-1.96626,1.81316,-2.24732,-1.01179,0.697876,-5.52369,-3.40699,-7.54266,28.9447,-5.4381,1.46644,10.3943,-3.62185,1.16362,-3.7123e-14,0,-38.0653,-2.06663,-75.9403,31.2699,15.6306,-19.4701,0.596871,7.12502,6.85133,-29.2723,-3.7123e-14,0,-37.3849,17.7121,75.9539,30.8759,-6.4649,-21.0403,26.1978,7.12502,5.33543,56.1106,-6.33227,17.7043,27.3489,28.7633,-20.2383,-0.954223,10.4963,-19.1717,10.6508,-12.657,58.0119,-9.88444,11.799,1.33487
6.39336,18.5021,3.86787,174.877,-78.1204,-175.181,6.14136,-1.46172,2.43105,1.13233,-1.792,1.62514,-2.29638,-0.924927,0.453702,-5.45264,-3.42582,-7.38945,29.0114,-5.49474,1.42536,10.4014,-3.64048,1.11764,1.08835e-14,-5.56597e-15,-38.2489,-2.18957,-75.9171,30.972,16.0475,-19.6878,0.435643,7.12502,6.64119,-29.4402,1.08835e-14,-5.56597e-15,-37.406,17.4467,75.9793,31.2394,-6.51846,-20.6402,25.8208,7.12502,5.72172,55.7235,-6.34241,17.6206,27.0846,28.9084,-20.2989,-0.658688,10.1331,-19.7592,10.4225,-13.0601,58.4441,-9.86618,11.3716,0.329446
6.37149,18.4997,3.87066,175.841,-77.9113,-176.15,6.24853,-1.38106,2.54117,1.14728,-1.67635,1.43076,-2.34846,-0.867862,0.185288,-5.37614,-3.44563,-7.08973,28.9541,-5.52521,1.25224,10.3508,-3.64056,1.00478,4.17448e-15,-1.55052e-14,-38.3763,-2.22281,-75.9848,30.6936,16.4138,-19.8838,0.391914,7.12502,6.45203,-29.4898,4.17448e-15,-1.55052e-14,-37.3959,16.9926,76.0686,31.6371,-6.32858,-20.5591,25.754,7.12502,5.80007,55.6546,-6.35447,17.5837,26.8887,29.0437,-20.3707,-0.60405,9.39406,-20.3722,10.0604,-13.4033,58.8245,-9.79637,10.789,-0.889726
6.34712,18.4931,3.86534,176.114,-77.727,-176.402,6.2823,-1.34755,2.5657,1.17705,-1.63086,1.3925,-2.33765,-0.845327,0.128776,-5.30492,-3.43618,-6.98876,28.8662,-5.48605,1.10204,10.2947,-3.6263,0.941614,9.34288e-15,1.03368e-14,-38.4208,-2.23063,-75.8909,30.4136,16.8881,-19.5642,0.804679,7.12502,6.76053,-29.0674,9.34288e-15,1.03368e-14,-37.3779,16.9063,76.148,31.8524,-6.22597,-20.804,25.6211,7.12502,5.56361,55.528,-6.36068,17.6356,26.8834,29.1635,-20.4321,-0.553714,9.0473,-21.0155,9.73936,-13.5801,59.1586,-9.58512,10.3172,-2.78318
6.32165,18.4865,3.85943,175.904,-77.5351,-176.158,6.29107,-1.32035,2.69988,1.22196,-1.58801,1.40422,-2.29869,-0.825002,0.0617085,-5.34616,-3.40081,-7.04498,28.9156,-5.40349,1.01412,10.3172,-3.60505,0.927123,-7.45443e-15,1.90833e-14,-38.4117,-2.13325,-75.811,30.1383,17.2484,-19.3265,1.08025,7.12502,6.98997,-28.7843,-7.45443e-15,1.90833e-14,-37.3629,16.9767,76.2158,32.0239,-6.27563,-20.8557,25.3847,7.12502,5.51372,55.293,-6.37293,17.7273,26.9805,29.2849,-20.4603,-0.376946,9.35311,-21.6376,9.46902,-13.6482,59.4229,-9.51187,9.95865,-3.14655
6.29504,18.4852,3.8552,175.873,-77.323,-176.154,6.37792,-1.27447,2.87981,1.27178,-1.51547,1.34209,-2.30052,-0.790311,-0.107579,-5.4104,-3.3686,-7.04363,29.0254,-5.35458,0.987863,10.3676,-3.58858,0.919777,1.98785e-16,3.57812e-15,-38.449,-2.10849,-75.8473,29.9296,17.5188,-20.0078,0.164098,7.12502,6.33225,-29.7213,1.98785e-16,3.57812e-15,-37.3834,16.8727,76.2713,32.2904,-6.27582,-20.8132,25.2822,7.12502,5.55469,55.1894,-6.34333,17.6407,27.0065,29.4311,-20.5199,-0.0801301,9.65339,-22.1582,9.17831,-13.757,59.6012,-9.63338,9.60008,-2.11101
6.26848,18.4874,3.84584,176.468,-77.0474,-176.821,6.51181,-1.1578,2.80823,1.32279,-1.36346,1.24515,-2.31969,-0.714176,-0.177943,-5.43742,-3.37709,-7.00337,29.0741,-5.38009,1.01074,10.3913,-3.59434,0.917096,-4.5969e-14,-1.59028e-15,-38.524,-2.20122,-75.8332,29.7967,17.7015,-21.1592,-1.38285,7.12502,5.22063,-31.2985,-4.5969e-14,-1.59028e-15,-37.3905,16.7043,76.3264,32.5061,-6.31691,-21.0678,25.349,7.12502,5.30886,55.2625,-6.27408,17.8915,26.9199,29.5935,-20.6386,0.030557,9.82419,-22.5887,8.91787,-14.0231,59.6625,-9.7647,9.38405,-1.98297
6.24429,18.4851,3.83657,177.077,-76.7678,-177.454,6.61504,-1.08396,2.60466,1.37051,-1.27761,1.23382,-2.32189,-0.670242,-0.081531,-5.46132,-3.33169,-7.09272,29.0583,-5.30506,1.04382,10.3905,-3.56452,0.951935,3.3694e-14,-1.59028e-14,-38.5319,-2.00457,-75.823,29.6569,18.0497,-21.1176,-1.68632,7.12502,5.26076,-31.601,3.3694e-14,-1.59028e-14,-37.4544,16.5809,76.4587,32.7522,-6.16383,-21.1528,25.4735,7.12502,5.22677,55.389,-6.2492,18.4695,26.888,29.7588,-20.7538,-0.29781,9.47856,-23.0703,8.66783,-14.331,59.6189,-9.77704,9.31753,-2.4477
6.21769,18.4789,3.83217,177.186,-76.5611,-177.514,6.63593,-1.08908,2.60606,1.40786,-1.28546,1.24678,-2.29489,-0.674219,-0.0683625,-5.48036,-3.25261,-7.27223,29.0506,-5.18703,1.13616,10.3942,-3.51939,1.02773,-1.98785e-15,1.23246e-14,-38.5397,-1.77701,-75.8553,29.5341,18.6734,-20.2298,-0.900263,7.12502,6.11799,-30.7919,-1.98785e-15,1.23246e-14,-37.5545,16.4122,76.5972,33.0291,-5.74863,-20.9951,25.4395,7.12502,5.37906,55.3512,-6.27393,18.9351,26.9677,29.9184,-20.9173,-0.707096,9.18257,-23.624,8.38905,-14.5179,59.5008,-9.75107,9.19529,-3.19636
6.18919,18.4739,3.8267,177.283,-76.4053,-177.614,6.70263,-1.07752,2.66905,1.44395,-1.2661,1.19402,-2.29692,-0.665097,-0.158726,-5.54425,-3.208,-7.38444,29.1449,-5.13264,1.22513,10.4453,-3.49975,1.08174,-3.18055e-15,-1.35174e-14,-38.5915,-1.81302,-75.8083,29.4816,19.0335,-19.8162,-0.352606,7.12502,6.51725,-30.2323,-3.18055e-15,-1.35174e-14,-37.6039,16.1613,76.6708,33.1885,-5.43761,-21.1975,25.4462,7.12502,5.18362,55.3628,-6.2085,19.2649,27.0433,30.0444,-21.1446,-0.991719,9.49261,-24.0818,8.0344,-14.6684,59.315,-9.72395,9.12916,-4.47786
6.16278,18.4684,3.82006,177.648,-76.2459,-178.009,6.82321,-1.05257,2.59388,1.47463,-1.23609,1.15243,-2.33115,-0.650129,-0.160079,-5.61273,-3.16904,-7.35835,29.2473,-5.05175,1.10706,10.4895,-3.47619,1.04116,-3.2551e-14,-1.70955e-14,-38.6229,-1.75297,-75.7745,29.4138,19.0005,-20.0192,-0.207692,7.12502,6.32126,-30.0934,-3.2551e-14,-1.70955e-14,-37.6815,15.9042,76.7872,33.3387,-5.30407,-21.3481,25.648,7.12502,5.03825,55.5681,-6.0986,19.4587,27.055,30.1187,-21.2822,-1.27182,9.53924,-24.5071,7.63177,-14.8955,59.0767,-9.60649,9.23573,-5.63797
6.13388,18.4634,3.81337,177.773,-76.0287,-178.112,6.87581,-1.01453,2.53528,1.50774,-1.18944,1.16452,-2.32382,-0.626771,-0.118333,-5.60089,-3.15284,-7.2304,29.2191,-4.97488,0.838297,10.4625,-3.45613,0.932521,1.59028e-15,4.77083e-15,-38.6124,-1.55433,-75.81,29.3109,18.8863,-20.7909,-0.550554,7.12502,5.57624,-30.4572,1.59028e-15,4.77083e-15,-37.7885,15.8641,76.867,33.4517,-5.44731,-20.9708,25.5375,7.12502,5.40257,55.4486,-6.03892,19.5728,27.0855,30.152,-21.3517,-1.37194,9.47007,-24.97,7.34521,-15.0695,58.7734,-9.43368,9.30412,-5.48422
6.1035,18.4601,3.80789,177.703,-75.8388,-178.052,6.97109,-0.992129,2.56267,1.54268,-1.15682,1.14649,-2.34101,-0.611187,-0.153777,-5.58482,-3.12807,-7.20879,29.2012,-4.92473,0.767473,10.4479,-3.43858,0.909659,-2.10215e-14,9.93923e-15,-38.6289,-1.42501,-75.8461,29.3023,18.7995,-21.4563,-1.13277,7.12502,4.93378,-31.0553,-2.10215e-14,9.93923e-15,-37.8661,15.9883,76.8021,33.4343,-5.59568,-21.2212,25.4981,7.12502,5.16074,55.4153,-5.96052,19.4237,27.1101,30.1679,-21.4222,-1.11131,9.51804,-25.3622,7.06009,-15.185,58.37,-9.29234,9.16813,-3.67815
6.07565,18.4567,3.80404,177.545,-75.6868,-177.925,7.11347,-0.981655,2.70026,1.58327,-1.13178,1.06948,-2.3819,-0.600216,-0.310296,-5.59775,-3.07513,-7.26914,29.2473,-4.88142,0.908452,10.4706,-3.41187,0.974112,4.42296e-14,-6.36111e-15,-38.6551,-1.57328,-75.8178,29.3683,18.8431,-21.4168,-1.42981,7.12502,4.97193,-31.3515,4.42296e-14,-6.36111e-15,-37.8716,15.9361,76.7241,33.3764,-5.45677,-22.3276,26.0201,7.12502,4.09247,55.9605,-5.84127,19.3424,27.1687,30.1732,-21.4374,-0.83646,9.72398,-25.6957,6.68664,-15.2727,57.866,-9.21194,8.9963,-2.737
6.04541,18.4522,3.79845,177.44,-75.4936,-177.815,7.16679,-0.939221,2.79271,1.64573,-1.07118,1.00173,-2.34839,-0.570442,-0.437251,-5.61048,-3.0513,-7.1909,29.2589,-4.86267,0.921674,10.4738,-3.39353,0.967355,-5.49143e-14,1.98785e-15,-38.6013,-1.93211,-75.7236,29.3354,18.9977,-20.8637,-1.265,7.12502,5.50599,-31.1735,-5.49143e-14,1.98785e-15,-37.8346,15.7063,76.7597,33.3622,-5.28375,-22.9548,26.5959,7.12502,3.48673,56.5471,-5.7363,19.391,27.2251,30.171,-21.2536,-0.571733,10.1154,-25.9962,6.39715,-15.3711,57.2541,-9.13709,8.83751,-3.86681
6.01318,18.4485,3.79192,177.31,-75.3154,-177.651,7.19346,-0.88844,2.83693,1.69324,-1.00251,0.973942,-2.31338,-0.536318,-0.497046,-5.60963,-3.06959,-7.14751,29.2495,-4.88123,0.872226,10.4685,-3.40201,0.940488,-2.85256e-14,-9.14409e-15,-38.5507,-2.17605,-75.6485,29.2588,19.1101,-20.8599,-1.10766,7.12502,5.50961,-31.016,-2.85256e-14,-9.14409e-15,-37.8376,15.5233,76.8291,33.3292,-5.37091,-23.1506,26.9898,7.12502,3.29769,56.9441,-5.69495,19.0551,27.2338,30.17,-20.9652,0.0496305,10.6578,-26.297,6.07003,-15.4418,56.5394,-9.19334,8.65037,-4.22383
5.98261,18.4454,3.78519,177.051,-75.1242,-177.353,7.27466,-0.840328,2.8951,1.71088,-0.932738,0.968583,-2.33918,-0.502491,-0.540524,-5.53788,-3.06512,-7.14503,29.2149,-4.86748,0.821186,10.4398,-3.40124,0.925313,-4.00551e-14,2.78299e-15,-38.5555,-2.26821,-75.5886,29.2702,19.1442,-21.4583,-1.41804,7.12502,4.93183,-31.3406,-4.00551e-14,2.78299e-15,-37.8731,15.5702,76.7841,33.1627,-5.71027,-23.2131,26.9768,7.12502,3.23732,56.932,-5.62361,19.0036,27.3314,30.1609,-20.948,0.273985,10.8597,-26.5729,5.56778,-15.4417,55.7397,-9.4307,8.58647,-3.26701
5.95067,18.4437,3.78031,177.031,-74.8719,-177.314,7.35989,-0.829107,2.84098,1.73429,-0.920279,0.970705,-2.36119,-0.496569,-0.508119,-5.50256,-2.99599,-7.0587,29.2413,-4.75161,0.668934,10.4311,-3.35916,0.869179,-8.22472e-14,-2.38542e-15,-38.4701,-2.17198,-75.5945,29.2906,19.0379,-21.4147,-1.85451,7.12502,4.97396,-31.7761,-8.22472e-14,-2.38542e-15,-37.9419,15.8737,76.6379,32.9462,-5.96811,-22.9003,26.6821,7.12502,3.53937,56.6325,-5.48266,19.4681,27.422,30.1384,-21.1911,-0.105401,10.3351,-26.7829,5.14131,-15.533,54.8491,-9.58982,8.57523,-3.38912
5.91635,18.4463,3.77727,177.01,-74.6406,-177.211,7.33936,-0.82647,2.80506,1.77072,-0.921867,0.992227,-2.3113,-0.496891,-0.466309,-5.54118,-2.92996,-7.0022,29.3174,-4.6392,0.546508,10.4577,-3.31904,0.826056,6.23687e-14,-1.94809e-14,-38.3334,-2.17195,-75.5687,29.3284,18.9945,-21.1874,-2.13598,7.12502,5.19342,-32.0523,6.23687e-14,-1.94809e-14,-37.9761,16.0151,76.6144,32.7573,-5.99323,-22.6098,26.47,7.12502,3.81994,56.4155,-5.43606,19.616,27.4318,30.0927,-21.3255,-0.103591,9.8652,-27.0652,4.87666,-15.6321,53.8953,-9.70239,8.40497,-4.20659
5.88233,18.4479,3.76968,176.859,-74.4384,-176.957,7.31968,-0.775239,2.79565,1.77561,-0.855332,0.998423,-2.29315,-0.463561,-0.46117,-5.46736,-2.90792,-6.95987,29.3088,-4.62579,0.551039,10.4379,-3.30955,0.823569,8.64713e-15,4.37326e-15,-38.3179,-2.36381,-75.4683,29.4065,19.0601,-21.1344,-1.99289,7.12502,5.24453,-31.908,8.64713e-15,4.37326e-15,-38.0119,15.8903,76.638,32.5296,-6.04823,-22.6352,26.4243,7.12502,3.79541,56.3703,-5.41743,19.3495,27.4388,29.9672,-21.2518,0.277503,9.2117,-27.3719,4.74801,-15.6649,52.9012,-9.84186,8.02497,-5.06709
5.84888,18.4388,3.76218,176.885,-74.2277,-176.925,7.3471,-0.724123,2.75691,1.78522,-0.790803,0.92659,-2.29714,-0.431056,-0.519219,-5.4273,-2.90799,-6.96831,29.3473,-4.69444,0.765729,10.4519,-3.32146,0.894435,2.78795e-14,-1.19271e-15,-38.3203,-2.58999,-75.4601,29.5037,19.0424,-21.0347,-1.76347,7.12502,5.3408,-31.6762,2.78795e-14,-1.19271e-15,-38.0588,15.9395,76.457,32.2425,-6.36336,-22.6533,26.4779,7.12502,3.77791,56.4241,-5.33254,18.5139,27.3926,29.7322,-21.0673,0.654301,6.66422,-27.6232,4.69318,-15.7562,51.8849,-9.99669,7.68004,-5.83158
5.8151,18.4242,3.75898,176.479,-74.0238,-176.376,7.28405,-0.702685,2.89378,1.81737,-0.756565,0.904756,-2.22973,-0.413947,-0.622671,-5.51647,-2.89829,-6.95395,29.4516,-4.7148,0.876538,10.511,-3.32004,0.926117,5.2181e-15,1.31198e-14,-38.2652,-2.82096,-75.4489,29.719,19.0224,-21.2828,-1.9824,7.12502,5.10126,-31.901,5.2181e-15,1.31198e-14,-38.0243,16.1718,76.2641,31.906,-6.69124,-22.6073,26.4555,7.12502,3.82233,56.401,-5.21744,18.5123,27.6788,29.4579,-20.9111,-0.0971293,3.87161,-27.9497,4.4937,-15.6851,50.8345,-10.209,7.45955,-6.11699
5.78002,18.4287,3.75366,175.817,-73.8084,-175.574,7.26081,-0.688397,3.07124,1.83253,-0.726193,0.944346,-2.20158,-0.39968,-0.684494,-5.49829,-2.87456,-6.80648,29.4838,-4.64878,0.644534,10.5069,-3.30218,0.825039,-4.42296e-14,2.38542e-15,-38.1811,-2.93967,-75.3855,29.85,19.22,-21.7718,-2.26714,7.12502,4.62914,-32.1966,-4.42296e-14,2.38542e-15,-38.0113,16.3641,76.1893,31.5536,-6.75607,-22.7126,26.5614,7.12502,3.72066,56.5086,-5.18611,18.6778,27.8871,29.2541,-20.767,0.249534,5.7932,-28.1634,4.16369,-15.4987,49.6505,-10.4526,7.2117,-6.30571
5.74344,18.449,3.74456,175.621,-73.5157,-175.352,7.34367,-0.651963,3.08312,1.85253,-0.675559,0.921348,-2.22561,-0.375068,-0.71871,-5.45251,-2.83624,-6.73099,29.5571,-4.59188,0.529094,10.5182,-3.28659,0.776677,2.4202e-14,1.47101e-14,-38.061,-2.90509,-75.4741,29.794,19.2405,-22.2739,-2.35957,7.12502,4.14431,-32.299,2.4202e-14,1.47101e-14,-38.065,16.466,76.1046,31.2485,-6.75119,-22.9219,26.8826,7.12502,3.51852,56.8333,-5.03558,19.1562,27.8887,29.1468,-20.6244,1.2008,9.75417,-28.1374,3.95638,-15.4857,48.2775,-10.6266,7.05467,-7.6778
5.7064,18.4619,3.73692,175.666,-73.2665,-175.324,7.37838,-0.631587,3.0182,1.85902,-0.652416,0.925886,-2.2367,-0.363552,-0.679445,-5.50866,-2.77436,-6.87113,29.681,-4.51929,0.633137,10.5794,-3.26287,0.842488,2.03754e-15,7.95139e-15,-37.9444,-2.73435,-75.556,29.8736,18.8177,-22.3761,-2.32548,7.12502,4.04558,-32.2668,2.03754e-15,7.95139e-15,-38.1624,16.714,75.9561,30.9364,-7.01728,-23.0628,26.8324,7.12502,3.38241,56.7853,-4.92692,19.3535,27.868,29.1704,-20.5755,1.67456,11.2661,-28.1168,3.62897,-15.5856,46.7144,-10.6172,7.13044,-10.29
5.66843,18.4632,3.73159,175.699,-73.105,-175.248,7.34619,-0.599314,2.97132,1.86633,-0.614469,0.925526,-2.20953,-0.344073,-0.657439,-5.52481,-2.7785,-6.98932,29.7294,-4.54508,0.755192,10.6083,-3.27614,0.902456,6.80837e-15,-1.35174e-14,-37.8981,-2.74326,-75.5231,30.1207,18.4279,-22.0493,-2.28917,7.12502,4.36116,-32.2243,6.80837e-15,-1.35174e-14,-38.208,16.8368,75.8373,30.5835,-7.26932,-22.9999,26.5887,7.12502,3.44322,56.5407,-4.90798,19.4102,27.8943,29.2698,-20.6437,1.78319,11.5072,-28.0758,3.06483,-15.6634,45.0572,-10.583,7.25888,-11.5496
5.63075,18.4597,3.72545,175.711,-72.86,-175.208,7.37451,-0.531793,2.93267,1.88495,-0.528666,0.846212,-2.20362,-0.300881,-0.725292,-5.46696,-2.79146,-6.89072,29.7429,-4.60415,0.805833,10.6023,-3.2891,0.898299,-2.04748e-14,-1.2921e-14,-37.8692,-3.10425,-75.4888,30.2965,18.5666,-21.602,-2.21752,7.12502,4.79306,-32.1433,-2.04748e-14,-1.2921e-14,-38.1932,16.8452,75.6582,30.1832,-7.46614,-22.5378,26.7159,7.12502,3.88945,56.6602,-4.81644,19.6911,27.9672,29.2926,-20.6843,1.79957,11.626,-27.9333,2.92657,-15.7339,43.4178,-10.644,7.17389,-11.6063
5.59305,18.4636,3.71787,175.833,-72.5788,-175.245,7.38696,-0.497116,2.82331,1.87736,-0.490703,0.780331,-2.2169,-0.281342,-0.735248,-5.43212,-2.71136,-6.73273,29.8207,-4.51296,0.73981,10.6139,-3.24371,0.857091,3.40916e-14,4.17448e-15,-37.8169,-3.27437,-75.5428,30.4217,18.9426,-21.7298,-2.2572,7.12502,4.66964,-32.1857,3.40916e-14,4.17448e-15,-38.2833,17.0994,75.3346,29.7763,-7.77349,-22.1535,26.6766,7.12502,4.26051,56.6137,-4.71463,19.7798,27.9742,29.1595,-20.679,1.88322,11.3262,-27.9014,3.13215,-15.8432,41.8445,-10.6012,7.07433,-11.7317
5.55437,18.4787,3.71108,175.998,-72.3008,-175.289,7.35693,-0.540125,2.65561,1.91026,-0.562099,0.839286,-2.16668,-0.316011,-0.574311,-5.68535,-2.57521,-6.95783,30.0344,-4.26911,0.711881,10.7407,-3.16668,0.904109,4.68635e-14,-1.19271e-14,-37.5646,-2.67427,-75.7451,30.5478,18.6185,-22.5381,-2.53119,7.12502,3.88913,-32.4754,4.68635e-14,-1.19271e-14,-38.4236,17.8793,75.0158,29.3726,-8.26245,-22.1146,26.3494,7.12502,4.29807,56.2858,-4.61825,19.5739,27.8985,28.9039,-20.5939,2.1854,10.8743,-27.938,3.13947,-15.8832,40.3288,-10.5749,7.00779,-9.89119
5.5166,18.4916,3.70748,176.066,-71.9761,-175.237,7.33507,-0.605081,2.50726,2.00752,-0.663571,0.980377,-2.05398,-0.366261,-0.33736,-6.10571,-2.45338,-7.47538,30.2073,-3.99735,0.795788,10.8951,-3.09117,1.04329,-6.16978e-14,-4.17448e-15,-37.2398,-2.48697,-75.727,30.7633,18.5156,-22.5125,-2.51202,7.12502,3.91386,-32.4558,-6.16978e-14,-4.17448e-15,-38.4418,18.7793,74.8668,28.9625,-8.69906,-21.8877,26.3885,7.12502,4.5172,56.3204,-4.50349,19.3431,27.8206,28.5683,-20.3576,2.72343,11.0288,-27.9256,3.04039,-15.8831,38.836,-10.5689,7.10042,-7.97516
5.47728,18.4994,3.70157,175.974,-71.6549,-175.009,7.29834,-0.601487,2.45127,2.04381,-0.665551,1.02457,-1.99508,-0.367039,-0.260935,-6.19915,-2.38614,-7.70544,30.2057,-3.88068,0.900709,10.9159,-3.05079,1.13229,4.13969e-14,-7.95139e-16,-37.1758,-2.79293,-75.6617,31.0974,18.7862,-21.6664,-2.17239,7.12502,4.73091,-32.0996,4.13969e-14,-7.95139e-16,-38.4687,19.1336,74.6997,28.5699,-8.86799,-21.1876,26.2535,7.12502,5.19319,56.1698,-4.36435,19.1967,27.8267,28.179,-20.1245,3.11418,11.0868,-27.9172,3.05436,-15.9224,37.3605,-10.2673,7.62221,-9.63815
5.43581,18.5088,3.69232,175.849,-71.3503,-174.775,7.32525,-0.599161,2.43992,2.0244,-0.662013,0.990856,-2.03027,-0.365372,-0.289174,-6.15863,-2.30313,-7.69866,30.1793,-3.76588,0.889817,10.8912,-3.0006,1.14096,1.65737e-14,-1.05356e-14,-36.8787,-1.87385,-75.9554,31.2077,17.9384,-21.5792,-2.13971,7.12502,4.81508,-32.065,1.65737e-14,-1.05356e-14,-38.6218,19.4854,74.372,28.187,-8.94276,-21.1852,25.9456,7.12502,5.19549,55.8619,-4.13788,19.2835,27.9122,27.7873,-19.9618,3.14449,11.0314,-27.8506,3.07928,-15.9311,35.8985,-9.97907,8.1167,-11.1483
5.394,18.5185,3.68648,175.746,-71.0655,-174.584,7.27904,-0.587516,2.45295,2.09187,-0.651064,0.964387,-1.93515,-0.359381,-0.32572,-6.23432,-2.24194,-7.77527,30.1614,-3.66102,0.917442,10.8965,-2.95634,1.17504,-3.29486e-14,-3.37934e-15,-36.6934,-1.63731,-76.1888,31.4055,17.7001,-22.1804,-2.3299,7.12502,4.23455,-32.2676,-3.29486e-14,-3.37934e-15,-38.6038,19.737,74.2281,27.8188,-8.97672,-21.8491,26.0652,7.12502,4.5545,55.9962,-3.88289,19.364,27.9881,27.4049,-19.7957,3.22547,11.3946,-27.7133,2.68474,-15.8501,34.4594,-9.97696,8.85711,-9.89677
5.35284,18.5257,3.6842,175.571,-70.7816,-174.315,7.13848,-0.527835,2.50982,2.20499,-0.578489,0.925329,-1.73953,-0.321734,-0.406361,-6.25779,-2.22701,-7.79777,30.1048,-3.64015,0.96943,10.8796,-2.93946,1.20059,7.23079e-15,3.77691e-15,-36.4895,-1.52005,-76.3925,31.6151,17.3238,-22.43,-2.2899,7.12502,3.99351,-32.2322,7.23079e-15,3.77691e-15,-38.4766,19.9452,74.0506,27.4018,-9.52445,-21.5955,26.0789,7.12502,4.79934,56.0045,-3.6548,19.2194,28.0721,27.0291,-19.6517,3.35722,11.123,-27.592,2.01407,-15.7282,33.0814,-9.86054,10.2136,-8.94815
5.31305,18.533,3.68056,175.467,-70.4777,-174.104,7.10589,-0.506247,2.53298,2.23999,-0.551791,0.866799,-1.6854,-0.307765,-0.4824,-6.10707,-2.20548,-7.26566,29.8934,-3.5545,0.446398,10.7427,-2.89429,0.934544,3.8763e-14,-1.33186e-14,-36.3581,-1.354,-76.5707,31.9316,16.858,-21.7958,-1.85845,7.12502,4.606,-31.7884,3.8763e-14,-1.33186e-14,-38.5374,20.225,73.756,26.9905,-10.2415,-22.0442,26.6315,7.12502,4.36613,56.5665,-3.47203,19.1381,28.1473,26.713,-19.5395,3.40351,10.5644,-27.5304,1.69085,-15.6945,31.7961,-9.43363,11.3796,-9.45391
5.2703,18.5384,3.67459,175.6,-70.1794,-174.118,7.06117,-0.470797,2.4684,2.25138,-0.51162,0.795022,-1.64795,-0.286844,-0.523935,-5.82707,-2.22591,-6.39578,29.5107,-3.47931,-0.461373,10.5034,-2.85423,0.478337,3.63776e-14,3.57812e-15,-36.2676,-1.18032,-76.7306,32.2892,16.5579,-21.1326,-1.74409,7.12502,5.24628,-31.6592,3.63776e-14,3.57812e-15,-38.6124,20.2318,73.5999,26.6693,-10.5116,-22.6192,27.161,7.12502,3.81084,57.1066,-3.30949,19.4218,28.1887,26.4693,-19.4776,3.27192,10.9799,-27.5382,2.12961,-15.8753,30.5794,-8.7714,11.7733,-10.0114
5.22629,18.536,3.6662,175.899,-69.8846,-174.354,6.99065,-0.3888,2.28568,2.3023,-0.420276,0.695771,-1.55357,-0.23991,-0.532012,-5.67715,-2.23842,-5.90433,29.3097,-3.45355,-0.9161,10.3778,-2.83302,0.241402,-6.71271e-14,1.16786e-14,-36.2027,-0.806682,-77.0694,32.5676,16.3542,-21.6281,-1.98445,7.12502,4.76792,-31.9108,-6.71271e-14,1.16786e-14,-38.6002,20.4242,73.3218,26.3458,-10.5223,-21.8332,26.6089,7.12502,4.56983,56.5396,-3.01292,20.3421,28.3158,26.2491,-19.5404,2.47399,11.2796,-27.5513,3.20823,-16.2626,29.4647,-7.96192,11.6065,-10.1025
5.18394,18.5357,3.65935,176.203,-69.6454,-174.615,7.00803,-0.387862,2.10849,2.32395,-0.432582,0.599082,-1.54096,-0.245642,-0.531076,-5.75132,-2.1577,-5.99918,29.3909,-3.35144,-0.815117,10.4235,-2.78936,0.301443,-7.43268e-14,2.03009e-14,-36.1597,-0.292603,-77.4463,32.8931,16.1394,-21.8567,-1.96209,7.12502,4.54718,-31.8933,-7.43268e-14,2.03009e-14,-38.691,20.9004,72.8937,25.9663,-10.7337,-21.3496,26.1563,7.12502,5.03675,56.0765,-2.84253,19.9001,28.1812,26.0118,-19.5069,2.82042,10.6709,-27.5057,3.47805,-16.5317,28.4091,-7.25029,12.1611,-9.9192
5.14093,18.5389,3.65476,176.169,-69.4269,-174.426,6.9581,-0.410567,2.12229,2.31779,-0.463005,0.57286,-1.52065,-0.260332,-0.563633,-5.8533,-2.08241,-6.29279,29.4713,-3.25058,-0.605722,10.481,-2.75516,0.433753,-2.07047e-14,3.79554e-15,-36.0964,0.0726731,-77.6397,33.2483,16.0653,-21.6951,-1.89203,7.12502,4.70323,-31.8198,-2.07047e-14,3.79554e-15,-38.8373,21.2374,72.5623,25.6236,-11.4485,-21.1342,26.0431,7.12502,5.24476,55.9582,-2.729,19.9532,28.2945,25.7961,-19.4803,2.52478,9.6899,-27.4649,2.32256,-16.311,27.3788,-6.75275,14.0808,-9.32512
5.09766,18.5478,3.64831,176.167,-69.1522,-174.306,6.89867,-0.349808,2.09508,2.33912,-0.387086,0.514339,-1.46401,-0.221695,-0.615235,-5.80031,-2.07897,-6.35789,29.3896,-3.25216,-0.539863,10.4425,-2.75245,0.470475,-2.15153e-14,7.20594e-16,-36.0349,0.313711,-77.8296,33.5526,15.9928,-21.9229,-2.13372,7.12502,4.48326,-32.0663,-2.15153e-14,7.20594e-16,-38.88,21.4159,72.2989,25.3323,-11.972,-21.3238,26.0579,7.12502,5.06172,55.9774,-2.53114,20.5488,28.4736,25.5672,-19.4021,1.98512,9.63703,-27.3354,2.08255,-16.2907,26.3284,-5.88482,15.1986,-9.22143
5.05267,18.5491,3.64279,176.468,-68.9108,-174.607,6.94572,-0.302529,1.91132,2.3675,-0.338253,0.395079,-1.45956,-0.197229,-0.638596,-5.7329,-2.03495,-6.29012,29.3218,-3.19434,-0.572239,10.3996,-2.7207,0.455741,3.24516e-14,-6.65929e-15,-35.9968,0.515556,-78.0714,33.8733,15.9758,-21.9197,-2.54429,7.12502,4.48627,-32.4768,3.24516e-14,-6.65929e-15,-38.8766,21.5473,72.0576,25.0348,-11.8448,-21.8466,26.1935,7.12502,4.55694,56.1245,-2.26004,20.7633,28.436,25.3321,-19.373,1.88996,10.0092,-27.0753,1.89459,-16.4672,25.3415,-4.96981,16.1343,-9.2666
5.00632,18.5494,3.63643,176.618,-68.7009,-174.717,6.94991,-0.264205,1.76436,2.39671,-0.299748,0.289255,-1.43086,-0.177739,-0.668162,-5.79083,-1.97389,-6.14591,29.3766,-3.12546,-0.582835,10.4251,-2.67695,0.432972,-2.5842e-15,1.19271e-15,-35.9899,0.637502,-78.3044,34.2452,15.9398,-21.8113,-2.51908,7.12502,4.59097,-32.4493,-2.5842e-15,1.19271e-15,-38.8633,21.6912,71.7654,24.738,-11.8362,-21.5654,26.2602,7.12502,4.82842,56.1852,-2.04954,20.3311,28.3715,25.0787,-19.3674,2.1903,9.87493,-26.9346,1.65387,-16.5351,24.5024,-4.05689,17.0216,-9.3028
4.96065,18.5509,3.62891,176.631,-68.4858,-174.646,6.90239,-0.21826,1.6714,2.43963,-0.24864,0.208967,-1.35911,-0.151757,-0.702975,-5.84964,-1.95817,-6.24216,29.3682,-3.13988,-0.353619,10.4387,-2.66645,0.529148,-1.80397e-14,6.36111e-15,-35.9451,0.791796,-78.5276,34.5919,15.8136,-21.954,-2.09064,7.12502,4.45322,-32.0238,-1.80397e-14,6.36111e-15,-38.8503,22.0386,71.364,24.4171,-12.5163,-21.1076,26.2488,7.12502,5.27049,56.1632,-1.83211,20.1763,28.4127,24.8011,-19.3475,2.28254,9.97986,-26.8961,1.45398,-16.4947,23.8546,-3.44446,17.8436,-8.03938
4.91547,18.5516,3.6194,176.236,-68.3044,-174.136,6.88164,-0.247202,1.70704,2.45257,-0.285697,0.220069,-1.33524,-0.17017,-0.708731,-5.83725,-1.88121,-6.54314,29.3146,-3.0445,-0.11319,10.4229,-2.62727,0.677514,2.73577e-14,1.98785e-15,-35.8658,1.2276,-78.7672,34.9105,15.6522,-21.8286,-1.91609,7.12502,4.57425,-31.8467,2.73577e-14,1.98785e-15,-38.9185,22.5223,70.9565,24.0558,-13.2175,-20.9796,26.1508,7.12502,5.39407,56.0622,-1.53665,20.5853,28.7335,24.4779,-19.3504,1.8384,10.1944,-26.9197,1.31964,-16.2936,23.3955,-3.34344,18.722,-4.43784
4.86992,18.5551,3.61083,175.627,-68.1244,-173.398,6.89354,-0.274849,1.82923,2.42688,-0.313035,0.238061,-1.36933,-0.18379,-0.756511,-5.75133,-1.77582,-6.56374,29.2827,-2.91408,-0.0677646,10.3899,-2.5667,0.712615,5.18331e-14,-1.37161e-14,-35.8885,1.80073,-79.0772,35.2746,15.2102,-21.5888,-2.08095,7.12502,4.8058,-32.0065,5.18331e-14,-1.37161e-14,-39.0307,22.861,70.5691,23.7099,-13.5639,-20.8747,25.8502,7.12502,5.49531,55.7589,-1.44489,19.2944,28.7945,24.1666,-19.2137,3.10787,10.3968,-27.0059,1.3837,-16.08,23.0665,-3.28142,19.5068,-0.716286
4.82358,18.5498,3.6074,175.331,-67.98,-173.018,6.92411,-0.251303,1.89208,2.43243,-0.278142,0.191774,-1.38004,-0.166313,-0.842064,-5.67955,-1.74433,-6.55151,29.2168,-2.90288,0.0408025,10.3513,-2.54634,0.752388,3.75703e-14,-9.34288e-15,-35.9322,2.14409,-79.3073,35.6276,14.913,-22.2184,-2.22405,7.12502,4.19785,-32.1624,3.75703e-14,-9.34288e-15,-39.0834,23.006,70.2955,23.5155,-13.8536,-20.7378,25.7506,7.12502,5.6275,55.6559,-1.08405,20,29.1691,23.8725,-19.2033,2.17042,9.54421,-27.1049,1.34401,-16.0179,22.8537,-2.74323,20.1488,0.855801
4.77617,18.5407,3.60446,175.054,-67.8899,-172.593,6.9068,-0.257276,2.03759,2.42997,-0.277839,0.112144,-1.37376,-0.165378,-1.00576,-5.68114,-1.7174,-6.55548,29.1993,-2.89361,0.161659,10.3457,-2.5282,0.797476,-1.29707e-14,1.43125e-14,-35.9546,2.24857,-79.514,35.9568,14.9515,-22.991,-2.14734,7.12502,3.45183,-32.0991,-1.29707e-14,1.43125e-14,-39.0961,23.0753,70.0173,23.3986,-14.1226,-20.6329,25.9423,7.12502,5.72881,55.8449,-0.843779,20.444,29.4816,23.6235,-19.1674,1.40296,8.89231,-27.2254,0.929314,-15.8418,22.6692,-2.12511,20.8651,2.80436
4.72719,18.5349,3.59651,174.876,-67.7423,-172.201,6.78359,-0.305203,2.02398,2.41436,-0.343885,0.105297,-1.32361,-0.197347,-1.00044,-5.7011,-1.60313,-6.6274,29.1922,-2.7345,0.221571,10.3426,-2.45737,0.847683,3.62285e-14,-7.95139e-16,-35.8754,2.46294,-79.71,36.242,14.9692,-22.8179,-2.04335,7.12502,3.61894,-31.9924,3.62285e-14,-7.95139e-16,-39.1615,23.5127,69.6423,23.1922,-14.4529,-20.5196,26.0192,7.12502,5.83817,55.9188,-0.738843,20.7469,29.6738,23.4341,-19.168,1.20585,10.2264,-27.354,0.714171,-15.692,22.5017,-1.74444,21.2951,6.36672
4.67802,18.5346,3.58236,175.013,-67.5662,-172.24,6.68177,-0.322707,1.625,2.45202,-0.394593,0.199969,-1.22733,-0.223343,-0.675897,-5.72297,-1.4944,-6.97565,29.1216,-2.5539,0.359723,10.3219,-2.39418,0.975978,1.73937e-14,-1.19271e-15,-35.683,2.8316,-79.719,36.4714,14.8448,-22.4221,-2.02725,7.12502,4.00115,-31.9694,1.73937e-14,-1.19271e-15,-39.2739,24.2703,69.3708,23.0016,-14.8627,-20.4324,25.9201,7.12502,5.92233,55.8173,-0.648333,20.3716,29.5713,23.2908,-19.1282,1.8489,11.4573,-27.3738,0.860987,-15.7924,22.4446,-1.506,21.4745,8.99668
4.62956,18.5348,3.57376,174.961,-67.45,-172.107,6.70375,-0.296018,1.46017,2.45671,-0.369498,0.198012,-1.23333,-0.211445,-0.58722,-5.74921,-1.45704,-7.15027,29.1176,-2.51572,0.536896,10.3287,-2.37517,1.07296,-2.09221e-14,-5.56597e-15,-35.6513,2.93885,-79.7772,36.7356,14.7062,-22.5255,-2.15949,7.12502,3.90136,-32.1035,-2.09221e-14,-5.56597e-15,-39.2981,24.5627,69.1658,22.8561,-14.9752,-20.504,25.6533,7.12502,5.8532,55.5524,-0.640144,19.2737,29.3822,23.1802,-19.0423,3.10856,11.9335,-27.3552,0.729547,-15.7734,22.4411,-1.64191,22.1816,10.2998
4.58016,18.5229,3.57025,174.919,-67.3536,-171.935,6.72317,-0.290194,1.43927,2.42633,-0.363004,0.0840506,-1.27587,-0.207737,-0.692941,-5.7669,-1.40145,-7.08062,29.1378,-2.4903,0.700624,10.3375,-2.33894,1.12201,-3.94091e-14,9.93923e-15,-35.7228,3.07013,-80.0171,37.0191,14.5634,-22.589,-2.10193,7.12502,3.84004,-32.0471,-3.94091e-14,9.93923e-15,-39.2479,24.7234,68.831,22.6184,-15.0213,-20.7965,25.5783,7.12502,5.57083,55.4851,-0.297096,21.4883,29.9034,23.1144,-19.3086,1.00818,12.1801,-27.3803,0.417902,-15.7071,22.4761,-2.0229,23.1188,11.2076
4.52959,18.5201,3.56252,175.179,-67.298,-172.108,6.66798,-0.249691,1.25096,2.4515,-0.325159,-0.0927664,-1.21868,-0.188336,-0.772253,-5.75326,-1.40644,-6.95726,29.0813,-2.56951,0.920305,10.3156,-2.33417,1.17192,-3.28989e-14,6.75868e-15,-35.7776,3.1582,-80.2643,37.3179,14.345,-22.5105,-1.88552,7.12502,3.91582,-31.8293,-3.28989e-14,6.75868e-15,-39.0439,24.8697,68.5359,22.3567,-15.2954,-21.0288,25.7397,7.12502,5.34649,55.6523,-0.337655,20.5475,29.6081,23.0919,-19.2888,1.97657,11.9789,-27.3543,0.429364,-15.8883,22.5815,-2.35994,23.4651,12.2634
4.47809,18.5145,3.55229,175.108,-67.2313,-171.955,6.63106,-0.135943,1.25886,2.50063,-0.178947,-0.29395,-1.14486,-0.114543,-0.99479,-5.72651,-1.46498,-6.75773,29.0446,-2.74593,1.16981,10.3018,-2.3626,1.20925,4.57205e-15,-1.70955e-14,-35.8551,2.76255,-80.4487,37.5815,14.3788,-22.6678,-1.88514,7.12502,3.76387,-31.8317,4.57205e-15,-1.70955e-14,-38.6966,24.5318,68.438,22.2474,-15.4001,-20.7923,25.7477,7.12502,5.57486,55.6543,-0.320339,19.7984,29.5218,23.0987,-19.3081,2.74391,11.6801,-27.3038,0.649119,-15.997,22.7318,-1.67757,23.2908,9.71372
4.42727,18.4991,3.53987,174.751,-67.1464,-171.527,6.68474,-0.0543723,1.27622,2.51859,-0.0714639,-0.381699,-1.15336,-0.0610084,-1.10281,-5.73206,-1.45089,-6.73694,29.1111,-2.80287,1.43011,10.3316,-2.36024,1.29237,-6.06293e-15,-3.97569e-16,-35.9196,2.50006,-80.5374,37.7418,14.4444,-22.8029,-1.76976,7.12502,3.6334,-31.7185,-6.06293e-15,-3.97569e-16,-38.4882,24.086,68.4735,22.2424,-15.1462,-20.806,25.8957,7.12502,5.5617,55.8027,-0.0307757,20.912,29.9857,23.1017,-19.4549,1.69016,11.5945,-27.2175,0.897635,-15.9768,22.8436,-0.0114393,22.7783,3.37894
4.37615,18.4905,3.53087,174.5,-67.1011,-171.184,6.71733,-0.0300602,1.16871,2.52603,-0.0461438,-0.379163,-1.16313,-0.0490616,-1.04173,-5.80586,-1.41105,-6.86965,29.2296,-2.7913,1.66477,10.3942,-2.34767,1.39904,3.57812e-15,3.97569e-15,-35.9066,2.52085,-80.5285,37.8361,14.3525,-22.6044,-1.44967,7.12502,3.82517,-31.3951,3.57812e-15,3.97569e-15,-38.3788,24.0616,68.504,22.2043,-14.9323,-21.5911,26.3613,7.12502,4.80361,56.2869,0.0770182,20.7725,30.1247,23.0765,-19.4063,1.67109,10.0345,-27.1503,0.96826,-15.9095,23.0075,0.393576,22.4278,0.954022
4.32359,18.4859,3.52403,174.282,-67.0343,-170.838,6.69707,-0.0325403,1.10377,2.54467,-0.0546103,-0.389788,-1.13297,-0.0534636,-1.01554,-5.85147,-1.37278,-6.93701,29.2401,-2.75559,1.79263,10.4074,-2.32412,1.45986,-6.55989e-15,3.18055e-15,-35.8571,2.63692,-80.5863,37.9262,14.3571,-22.5703,-1.28282,7.12502,3.85802,-31.2276,-6.55989e-15,3.18055e-15,-38.2995,24.5989,68.2289,22.0891,-15.2902,-21.9319,26.168,7.12502,4.47455,56.1007,0.0518806,19.8188,30.0748,23.0229,-19.2553,2.3569,7.4558,-27.0874,0.954273,-15.7845,23.1184,-0.17219,22.2706,1.75196
4.27187,18.481,3.51445,174.213,-67.0247,-170.643,6.69908,-0.0325042,1.00826,2.53905,-0.061876,-0.471223,-1.14015,-0.0572313,-1.04509,-5.81182,-1.36225,-6.83686,29.2006,-2.74924,1.76434,10.3821,-2.31249,1.43375,-3.50855e-14,2.38542e-15,-35.8779,2.77243,-80.7699,37.9885,14.2731,-22.9013,-1.29977,7.12502,3.53842,-31.2501,-3.50855e-14,2.38542e-15,-38.1995,24.7741,67.9843,22.0564,-15.5872,-21.2903,25.7982,7.12502,5.09408,55.7169,0.267312,20.7593,30.3612,22.9429,-19.1908,1.4395,7.58243,-27.0979,0.973656,-15.7576,23.2101,-0.206094,22.1409,1.45487
4.21904,18.4941,3.50447,174.295,-67.0506,-170.59,6.66512,0.000606219,0.869568,2.52569,-0.0284262,-0.588433,-1.13432,-0.0405309,-1.09022,-5.78712,-1.36419,-6.66397,29.235,-2.77271,1.7178,10.3872,-2.31153,1.38498,-2.3556e-14,1.19271e-14,-35.9056,2.63416,-80.8804,37.9723,14.1996,-22.8322,-1.15567,7.12502,3.60512,-31.1049,-2.3556e-14,1.19271e-14,-38.0421,24.6273,67.9135,22.1074,-15.5227,-20.7696,26.012,7.12502,5.59682,55.918,0.188191,19.5369,30.0065,22.815,-18.9924,3.09833,10.3794,-27.1443,0.770465,-15.7308,23.3266,-0.139285,22.516,1.19157
4.16604,18.5027,3.4911,174.128,-67.0397,-170.261,6.58287,0.0411689,0.757463,2.53617,0.0174693,-0.623997,-1.07688,-0.0175785,-1.06716,-5.80463,-1.35015,-6.67081,29.3164,-2.79708,1.86349,10.4235,-2.31059,1.43533,-1.78906e-15,-7.95139e-15,-35.914,2.4195,-80.8755,37.9885,14.2944,-22.4938,-0.895847,7.12502,3.93191,-30.8393,-1.78906e-15,-7.95139e-15,-37.8844,24.855,67.7691,22.0741,-15.6177,-20.6735,25.9579,7.12502,5.68958,55.8615,0.40258,20.6569,30.3339,22.694,-18.8922,2.28527,11.9887,-27.2254,0.589807,-15.5516,23.4679,-0.917035,23.1757,3.64583
4.11372,18.5146,3.47327,173.935,-67.1078,-169.88,6.4939,0.0747333,0.620305,2.51474,0.0536368,-0.675221,-1.04889,0.000642752,-1.04531,-5.75073,-1.3513,-6.74763,29.4165,-2.88428,2.15509,10.4587,-2.33287,1.54406,-5.04913e-14,-1.11319e-14,-35.9923,2.28803,-80.9785,38.0273,14.1269,-22.5204,-0.889992,7.12502,3.9062,-30.8339,-5.04913e-14,-1.11319e-14,-37.683,24.6562,67.7741,22.1138,-15.4131,-20.5998,25.7564,7.12502,5.76079,55.6581,0.476644,20.8769,30.5196,22.613,-18.7086,2.07438,12.1018,-27.3,0.712339,-15.4464,23.5243,-2.43171,23.4257,8.71666
4.05911,18.5244,3.45908,174.371,-67.2816,-170.176,6.43643,0.0741278,0.3322,2.46389,0.0323122,-0.896332,-1.07001,-0.0103528,-1.1092,-5.66868,-1.31517,-6.73611,29.5003,-2.9365,2.45213,10.4787,-2.32959,1.64375,-6.52014e-14,1.19271e-14,-36.0761,2.23256,-81.2807,37.9305,13.7418,-22.7187,-0.84993,7.12502,3.71478,-30.7973,-6.52014e-14,1.19271e-14,-37.4876,24.2491,67.7032,22.1912,-15.1536,-20.698,25.7142,7.12502,5.66593,55.6185,0.497012,20.7737,30.3627,22.5998,-18.5824,1.94794,11.6173,-27.3706,0.90926,-15.7101,23.5849,-2.32881,22.9412,8.09519
4.00548,18.5333,3.44887,174.972,-67.4558,-170.676,6.40889,0.0537162,0.00416186,2.45971,-0.0200059,-1.11494,-1.0603,-0.0378316,-1.1459,-5.66285,-1.2677,-6.74504,29.5591,-2.93594,2.6755,10.5014,-2.30902,1.72579,-3.85642e-14,3.18055e-14,-36.0707,2.23936,-81.5244,37.7778,13.595,-22.7432,-0.654389,7.12502,3.69113,-30.6022,-3.85642e-14,3.18055e-14,-37.2722,24.2999,67.5163,22.2095,-15.1894,-20.0971,25.1786,7.12502,6.24608,55.0665,0.508643,20.7697,30.1349,22.6376,-18.4631,1.77015,11.3107,-27.3726,0.830056,-15.9832,23.6275,-1.07492,22.3411,2.51163
3.95392,18.5459,3.43463,174.997,-67.5773,-170.61,6.40286,0.0796506,-0.182194,2.50444,-0.000302658,-1.19887,-1.01066,-0.0294367,-1.12891,-5.72649,-1.3304,-7.00638,29.6957,-3.09402,3.04695,10.5836,-2.37292,1.88763,1.74931e-14,3.89618e-14,-36.0642,2.0596,-81.5435,37.7232,13.6775,-22.5796,-0.58453,7.12502,3.84909,-30.5295,1.74931e-14,3.89618e-14,-36.9816,24.214,67.5858,22.3643,-14.8752,-19.2591,24.7077,7.12502,7.05505,54.5701,0.321141,19.2857,29.8192,22.7744,-18.1346,3.18241,11.1522,-27.2268,0.574511,-15.911,23.5962,-1.62879,22.4788,3.36708
3.90144,18.5537,3.41674,174.918,-67.7069,-170.45,6.43607,0.105491,-0.35256,2.52433,0.0202635,-1.27799,-1.00838,-0.0205372,-1.11609,-5.77667,-1.48035,-7.4326,29.8071,-3.3703,3.4926,10.6675,-2.49953,2.09272,1.19271e-14,-8.74653e-15,-36.1454,1.78148,-81.5465,37.7521,13.8675,-22.3559,-0.595142,7.12502,4.06506,-30.5361,1.19271e-14,-8.74653e-15,-36.7284,23.983,67.6543,22.5652,-14.5012,-19.7988,25.1015,7.12502,6.53409,54.9807,0.433775,20.0275,30.096,22.9644,-18.0889,2.26175,10.6494,-27.0473,0.463784,-15.8484,23.525,-4.21341,22.9233,11.6816
3.84731,18.564,3.40164,175.37,-67.871,-170.799,6.43898,0.12038,-0.724651,2.51015,0.0141911,-1.3748,-1.0249,-0.0255864,-1.00628,-5.69033,-1.41898,-7.18736,29.842,-3.23348,3.13139,10.6456,-2.45298,1.93494,-4.6118e-14,2.8625e-14,-36.1787,1.76025,-81.5724,37.6791,13.9519,-22.1973,-0.604609,7.12502,4.21821,-30.5426,-4.6118e-14,2.8625e-14,-36.5236,23.7864,67.7521,22.736,-14.3415,-20.3631,25.4092,7.12502,5.98929,55.3046,0.42069,20.4093,30.0144,23.1618,-17.978,1.82727,9.99491,-26.9739,0.401846,-16.0248,23.5298,-2.59477,22.0691,5.09706
3.79147,18.5776,3.38876,175.771,-67.9756,-171.058,6.37729,0.180765,-0.996831,2.50838,0.0761695,-1.46757,-0.991987,0.00377022,-0.953163,-5.72932,-1.46282,-7.42258,29.9257,-3.30832,3.3076,10.6972,-2.49469,2.03149,-5.20816e-14,2.3059e-14,-36.1277,1.8554,-81.6153,37.4809,13.7971,-22.2814,-0.498412,7.12502,4.13705,-30.438,-5.20816e-14,2.3059e-14,-36.2858,23.386,68.0098,23.0202,-14.0442,-20.7459,25.8128,7.12502,5.61973,55.7183,0.286835,20.264,29.8035,23.3457,-17.6767,2.05967,8.88925,-26.9578,0.478172,-16.1995,23.5424,-2.24471,21.6195,2.80562
3.73387,18.5829,3.37343,175.632,-68.0325,-170.703,6.23328,0.243655,-1.01554,2.51147,0.160433,-1.53961,-0.907848,0.0458312,-1.02216,-5.84109,-1.53177,-7.70996,30.0848,-3.45269,3.63087,10.8,-2.55937,2.18276,3.06128e-14,-1.19271e-14,-36.1432,1.89843,-81.732,37.3435,13.6125,-22.5761,-0.43454,7.12502,3.8525,-30.3795,3.06128e-14,-1.19271e-14,-36.0323,23.1352,68.1255,23.3032,-13.7897,-20.7914,26.0616,7.12502,5.57571,55.9682,0.29376,21.2806,30.1558,23.528,-17.5039,0.927361,7.00182,-26.984,0.58487,-16.1333,23.5326,-2.03712,21.4102,1.80265
3.67587,18.5948,3.35909,175.522,-68.1369,-170.399,6.13337,0.316387,-1.04334,2.48381,0.254593,-1.67646,-0.879234,0.0929567,-1.1533,-5.79808,-1.59113,-7.63666,30.2274,-3.60698,3.75244,10.8563,-2.61505,2.19816,4.94974e-14,5.1684e-14,-36.2977,1.84088,-81.938,37.2114,13.5321,-22.6238,-0.332933,7.12502,3.80637,-30.2787,4.94974e-14,5.1684e-14,-35.7138,22.8945,68.1272,23.4488,-13.7064,-19.9121,25.4848,7.12502,6.42465,55.3673,0.0689257,20.0438,29.9488,23.649,-17.1566,2.04515,5.57217,-26.9645,0.590129,-16.0682,23.5343,-1.98128,21.1915,1.34867
3.61783,18.607,3.35234,175.512,-68.2704,-170.253,6.14387,0.39954,-1.01443,2.43451,0.360233,-1.89529,-0.932719,0.145766,-1.4021,-5.73045,-1.64898,-7.34758,30.4507,-3.77652,3.75496,10.933,-2.67134,2.13104,-5.32743e-14,1.74931e-14,-36.5089,1.77811,-82.2194,37.088,13.4385,-22.2506,-0.162827,7.12502,4.16681,-30.1018,-5.32743e-14,1.74931e-14,-35.4077,22.2386,68.2444,23.7054,-13.3196,-19.6691,25.2545,7.12502,6.65922,55.1298,0.0204946,19.5011,29.8286,23.7103,-16.8479,2.54826,5.23186,-26.9276,0.549116,-16.0882,23.5888,-2.08778,21.0104,0.911098
3.55795,18.6196,3.34677,175.255,-68.3267,-169.867,6.13307,0.447953,-0.962028,2.41823,0.425391,-1.98284,-0.941226,0.17849,-1.52608,-5.84907,-1.62558,-7.06675,30.7526,-3.72215,3.44461,11.0586,-2.65876,1.97365,-5.36719e-14,-6.36111e-15,-36.6567,2.11316,-82.4289,37.0929,13.2805,-22.0522,-0.290745,7.12502,4.35841,-30.2259,-5.36719e-14,-6.36111e-15,-35.225,21.6528,68.5276,24.1283,-12.5739,-19.3247,24.9522,7.12502,6.99168,54.8168,0.0343166,19.3487,29.8747,23.7425,-16.5343,2.79544,5.84661,-26.846,0.383817,-15.9688,23.6182,-2.24855,21.0826,0.266389
3.49679,18.6306,3.3357,174.964,-68.3226,-169.47,6.13155,0.513914,-0.967151,2.40399,0.510982,-2.03804,-0.952847,0.221076,-1.58594,-6.00614,-1.58379,-6.74325,31.0258,-3.60119,3.00853,11.175,-2.62264,1.76905,-4.65156e-14,1.59028e-15,-36.8631,2.57754,-82.6516,37.1807,13.0841,-22.0739,-0.431435,7.12502,4.33737,-30.367,-4.65156e-14,1.59028e-15,-35.0078,21.1557,68.806,24.4631,-11.917,-18.8651,24.521,7.12502,7.43535,54.3703,0.0764497,19.2449,29.9273,23.7599,-16.1481,3.15739,6.85215,-26.7482,0.358969,-15.8497,23.6705,-2.43974,21.0951,-0.238425
3.43459,18.6392,3.32515,174.937,-68.3489,-169.337,6.13695,0.57783,-1.05342,2.37052,0.587865,-2.11852,-0.988694,0.258899,-1.62589,-6.0186,-1.58304,-6.64498,31.1266,-3.5699,2.82454,11.2103,-2.62084,1.68758,-4.49253e-14,3.18055e-14,-37.0938,3.01259,-82.8746,37.2776,12.8182,-21.9697,-0.354666,7.12502,4.43806,-30.2882,-4.49253e-14,3.18055e-14,-34.8301,20.4929,69.0931,24.8621,-11.4429,-19.7091,25.0343,7.12502,6.62067,54.9108,0.188576,19.2935,29.9337,23.7287,-15.848,3.18601,6.71002,-26.6829,0.539912,-15.9022,23.7379,-2.74118,20.881,-0.154093
3.36955,18.6478,3.31954,174.94,-68.3526,-169.262,6.11553,0.620004,-1.15432,2.37106,0.637254,-2.14698,-0.976026,0.282815,-1.60166,-5.97907,-1.58671,-6.85475,31.1072,-3.5581,2.89441,11.2004,-2.63057,1.75182,-9.93923e-14,1.43125e-14,-37.3014,3.28073,-82.9816,37.3643,12.938,-21.993,-0.283017,7.12502,4.41556,-30.217,-9.93923e-14,1.43125e-14,-34.7747,20.0057,69.3758,25.4159,-11.2601,-20.0219,25.6277,7.12502,6.31864,55.5134,0.434073,19.7496,30.0246,23.6281,-15.6403,2.73462,5.21924,-26.581,0.638069,-15.9753,23.8267,-3.08081,20.8074,-0.0615054
3.30104,18.6617,3.31176,174.747,-68.2624,-169.007,6.0597,0.698295,-1.15484,2.38857,0.741,-2.19738,-0.924268,0.334168,-1.65949,-5.9979,-1.56018,-7.24301,31.1145,-3.54457,3.22871,11.2199,-2.62985,1.94439,6.91771e-14,9.54166e-15,-37.5886,3.20555,-83.1063,37.4465,13.4591,-21.9351,-0.245384,7.12502,4.4714,-30.1782,6.91771e-14,9.54166e-15,-34.6721,19.7071,69.5579,25.8946,-11.2304,-19.5321,25.7771,7.12502,6.79149,55.6482,0.447599,18.1382,29.6693,23.485,-15.1126,4.60381,4.40656,-26.4207,0.585232,-15.8838,23.9601,-3.67959,20.9094,0.837496
3.23092,18.672,3.29889,174.4,-68.1637,-168.574,5.94401,0.783412,-1.14434,2.40267,0.856909,-2.23858,-0.842254,0.391969,-1.71375,-6.04418,-1.49468,-7.65151,31.1335,-3.46768,3.56352,11.2454,-2.60255,2.14818,4.53229e-14,-3.49861e-14,-37.8312,3.43692,-83.3288,37.5021,13.6614,-21.6403,-0.131048,7.12502,4.75608,-30.0577,4.53229e-14,-3.49861e-14,-34.511,19.3835,69.7108,26.2813,-11.0562,-19.533,25.8103,7.12502,6.79066,55.6814,0.699203,18.1359,29.7606,23.2742,-14.6513,4.94234,5.15227,-26.2719,0.404535,-15.6732,24.0892,-4.35742,21.1309,2.02271
3.16075,18.6774,3.28764,173.906,-68.1474,-168.003,5.84443,0.826047,-1.10135,2.42327,0.919467,-2.23325,-0.763766,0.423579,-1.73472,-5.99762,-1.45467,-7.76411,31.0865,-3.38859,3.57374,11.215,-2.57641,2.18117,-1.39149e-14,1.74931e-14,-37.9715,4.12003,-83.5604,37.5136,13.5712,-21.5988,-0.14245,7.12502,4.79617,-30.0682,-1.39149e-14,1.74931e-14,-34.4208,19.063,69.8965,26.7368,-10.5952,-19.779,25.4499,7.12502,6.55321,55.3285,1.1094,19.1384,30.1354,23.0478,-14.3496,4.31683,7.23118,-26.1325,0.0159033,-15.4182,24.1814,-4.74279,21.5535,2.17731
3.09121,18.6907,3.279,173.491,-68.1065,-167.528,5.80426,0.862923,-1.06635,2.42434,0.972615,-2.20932,-0.73898,0.450589,-1.73243,-5.88525,-1.4403,-7.82206,31.044,-3.34169,3.49332,11.1733,-2.57126,2.16772,-2.38542e-14,-6.36111e-15,-38.0697,4.78402,-83.6915,37.5045,13.5229,-21.7869,-0.343581,7.12502,4.61453,-30.2733,-2.38542e-14,-6.36111e-15,-34.4284,18.8761,70.0979,27.2482,-10.1412,-19.7456,24.7563,7.12502,6.58544,54.6339,1.27672,18.4228,30.0692,22.8563,-13.7356,5.35853,8.26243,-25.9713,-0.376965,-15.2279,24.2265,-4.8296,22.0385,1.16482
3.01874,18.705,3.27068,173.677,-67.996,-167.675,5.71382,0.942291,-1.23441,2.40048,1.06958,-2.26243,-0.713135,0.497947,-1.69752,-5.80899,-1.42156,-8.00761,31.0991,-3.31016,3.53144,11.1822,-2.57857,2.21842,3.45885e-14,-1.11319e-14,-38.1736,5.1313,-83.7546,37.481,13.6462,-21.571,-0.0770445,7.12502,4.82305,-30.0021,3.45885e-14,-1.11319e-14,-34.3938,18.666,70.2919,27.6766,-9.8298,-19.9349,24.6526,7.12502,6.40269,54.5358,1.44556,17.8927,29.8322,22.7107,-13.1621,6.04659,6.82733,-25.7995,-0.697596,-15.3037,24.2661,-4.78486,22.5811,-0.346896
2.94193,18.7234,3.26836,174.064,-67.8841,-168.054,5.6006,1.01635,-1.40039,2.38529,1.15866,-2.37229,-0.66493,0.540942,-1.72102,-5.76215,-1.37937,-8.0675,31.1862,-3.24958,3.51002,11.2038,-2.56627,2.22832,-2.62396e-14,2.70347e-14,-38.2569,5.46969,-83.8568,37.4126,13.8344,-20.8867,0.575935,7.12502,5.48373,-29.3331,-2.62396e-14,2.70347e-14,-34.3273,18.0399,70.6661,28.1762,-8.73848,-20.9583,25.1809,7.12502,5.41461,55.0917,1.63011,17.4919,29.458,22.5806,-12.6062,6.7258,6.06619,-25.533,-1.07089,-15.455,24.2517,-5.7465,23.192,2.13263
2.86447,18.7372,3.27045,173.837,-67.7969,-167.844,5.56318,1.03538,-1.30293,2.38918,1.18889,-2.42491,-0.636338,0.556531,-1.83093,-5.67498,-1.31734,-8.02616,31.223,-3.15427,3.40646,11.1919,-2.5351,2.19412,-2.10712e-14,-3.02153e-14,-38.2744,5.9836,-84.0102,37.2864,14.023,-20.4859,0.815357,7.12502,5.87071,-29.0833,-2.10712e-14,-3.02153e-14,-34.3443,17.5875,70.9142,28.694,-8.03667,-20.4218,24.8078,7.12502,5.9326,54.7048,1.88095,17.3967,29.3642,22.5053,-12.0239,7.16294,6.77882,-25.177,-1.38232,-15.388,24.2,-7.72915,23.5719,7.81505
2.78623,18.745,3.26525,173.636,-67.7377,-167.678,5.49858,1.05738,-1.28452,2.38639,1.2193,-2.48601,-0.600807,0.571709,-1.90474,-5.60072,-1.26021,-8.04383,31.2658,-3.07806,3.38333,11.1885,-2.5103,2.19769,4.77083e-14,1.11319e-14,-38.2802,6.28064,-84.1317,37.1146,14.2986,-20.641,0.71171,7.12502,5.72097,-29.1911,4.77083e-14,1.11319e-14,-34.3688,17.6855,70.8435,29.0147,-8.31427,-19.1602,24.2137,7.12502,7.15047,54.0729,2.12544,16.985,29.2481,22.4643,-11.4621,7.74979,7.12281,-24.8375,-1.68369,-15.3342,24.2007,-8.42222,23.7161,8.55108
2.70928,18.7504,3.25417,173.594,-67.6568,-167.666,5.43452,1.10255,-1.41947,2.36048,1.27301,-2.51961,-0.592717,0.597637,-1.86575,-5.59988,-1.19556,-8.05377,31.3755,-2.9854,3.34402,11.2245,-2.48041,2.19541,1.35174e-14,-6.36111e-15,-38.3088,6.54958,-84.1833,36.9656,14.4782,-20.7991,0.533507,7.12502,5.56836,-29.3733,1.35174e-14,-6.36111e-15,-34.4308,17.6019,70.9287,29.408,-8.01618,-20.228,24.8838,7.12502,6.11973,54.7754,2.27202,15.92,28.9397,22.4378,-10.7914,8.99556,7.03977,-24.5444,-2.00241,-15.3078,24.2483,-7.64165,23.8733,4.60553
2.63252,18.751,3.24496,173.185,-67.5663,-167.266,5.40445,1.14087,-1.3991,2.33922,1.32777,-2.47502,-0.597257,0.625743,-1.83406,-5.62847,-1.14963,-8.10174,31.5367,-2.9094,3.28197,11.2889,-2.46683,2.18935,-1.23246e-14,7.63333e-14,-38.2933,6.83411,-84.118,36.8332,14.7514,-20.5696,0.408916,7.12502,5.78987,-29.492,-1.23246e-14,7.63333e-14,-34.5042,17.3586,71.1016,29.82,-7.81112,-19.8914,24.8041,7.12502,6.4447,54.6861,2.57875,16.5356,29.2109,22.4778,-10.5316,8.55433,7.16663,-24.2422,-2.23262,-15.1455,24.2891,-8.22087,24.0572,5.41498
2.55198,18.7588,3.23849,172.973,-67.4897,-167.064,5.32563,1.20581,-1.37452,2.31864,1.41774,-2.49395,-0.571477,0.671201,-1.87099,-5.6297,-1.15581,-8.20189,31.7211,-2.93222,3.30851,11.3661,-2.49566,2.21444,-5.40694e-14,-2.8625e-14,-38.2495,6.87168,-84.0119,36.6489,15.0694,-20.331,0.423576,7.12502,6.02028,-29.4709,-5.40694e-14,-2.8625e-14,-34.4771,17.2645,71.1482,30.0163,-8.09206,-18.4813,24.0438,7.12502,7.80579,53.8797,2.75968,16.613,29.2394,22.6162,-10.2734,8.58295,7.0992,-23.9064,-2.53503,-15.0695,24.3064,-11.2594,24.1769,13.8363
2.46973,18.7669,3.23316,173.199,-67.3881,-167.321,5.18915,1.28582,-1.50559,2.28193,1.51839,-2.60226,-0.531373,0.720428,-1.91193,-5.55329,-1.14798,-8.23263,31.8521,-2.96787,3.38753,11.4062,-2.51634,2.24587,2.78299e-14,7.95139e-15,-38.2573,6.83668,-83.9988,36.473,15.1482,-20.3341,0.582791,7.12502,6.01722,-29.3118,2.78299e-14,7.95139e-15,-34.4728,17.0919,71.207,30.2711,-7.87877,-19.6361,24.5251,7.12502,6.69109,54.3994,2.84289,16.3957,28.9979,22.8576,-9.97345,8.87516,6.16197,-23.567,-3.00434,-15.1537,24.3208,-10.417,24.7107,9.65741
2.38706,18.7725,3.22795,173.603,-67.2965,-167.797,5.04425,1.32902,-1.73851,2.26428,1.56509,-2.72022,-0.470678,0.741379,-1.90205,-5.46206,-1.09252,-8.15114,31.8824,-2.91547,3.37184,11.3938,-2.49057,2.23213,-4.45278e-14,0,-38.226,6.71739,-83.9412,36.2962,15.3266,-20.3293,0.968014,7.12502,6.02185,-28.9264,-4.45278e-14,0,-34.4924,16.7816,71.3165,30.6003,-7.1612,-19.8526,24.5739,7.12502,6.48211,54.4547,2.90518,16.265,28.6751,23.196,-9.63463,9.10834,5.86334,-23.176,-3.34216,-15.3851,24.2798,-12.6221,24.8672,14.9654
2.30469,18.7789,3.22373,174.138,-67.2257,-168.424,4.93014,1.3364,-2.0634,2.23699,1.55904,-2.82636,-0.440953,0.735139,-1.82657,-5.4186,-1.01209,-8.02564,31.9354,-2.80218,3.25724,11.3942,-2.44382,2.18025,8.74653e-15,6.67916e-14,-38.1191,6.65465,-83.8225,36.0896,15.5235,-20.0984,1.37476,7.12502,6.24479,-28.5132,8.74653e-15,6.67916e-14,-34.5701,16.7166,71.2723,30.8499,-6.99749,-18.5061,24.1568,7.12502,7.78188,53.9936,2.90041,15.9202,28.2057,23.6026,-9.17394,9.63422,5.87471,-22.7883,-3.36202,-15.7451,24.2253,-10.3523,25.1491,7.0855
2.22407,18.7857,3.2195,174.446,-67.14,-168.709,4.74268,1.32844,-2.25212,2.16517,1.54457,-2.90287,-0.413345,0.72695,-1.79529,-5.43083,-0.911927,-8.01614,32.1033,-2.68376,3.25952,11.4545,-2.40058,2.19264,-9.54166e-15,1.59028e-14,-37.9812,6.56822,-83.6852,35.8744,15.6413,-19.8418,1.41836,7.12502,6.49257,-28.4621,-9.54166e-15,1.59028e-14,-34.7412,17.186,70.9414,31.0099,-7.96682,-18.8099,24.6252,7.12502,7.4886,54.4726,2.68708,15.1404,27.7183,24.0791,-8.52145,10.7067,5.82928,-22.5179,-3.32656,-15.9374,24.2187,-10.1117,25.0456,5.23105
2.14432,18.7892,3.21367,174.36,-67.0718,-168.556,4.49068,1.34752,-2.20954,2.12462,1.58187,-2.96452,-0.311011,0.746348,-1.87871,-5.46042,-0.867105,-8.03432,32.2584,-2.66391,3.36218,11.5215,-2.39121,2.23658,-5.1684e-15,-6.36111e-15,-37.82,6.07342,-83.4324,35.667,15.8793,-19.849,1.29152,7.12502,6.48554,-28.5892,-5.1684e-15,-6.36111e-15,-34.7391,17.4154,70.7435,31.0592,-8.4618,-19.6702,25.0302,7.12502,6.65821,54.9056,2.40731,14.29,27.4071,24.6373,-7.80625,11.7241,6.18224,-22.2712,-3.62979,-15.8927,24.2548,-10.7849,25.2069,5.89312
2.06776,18.786,3.20696,174.476,-66.9912,-168.749,4.39003,1.44803,-2.28973,2.11714,1.71383,-3.03725,-0.260427,0.810957,-1.91233,-5.40992,-0.919855,-8.01587,32.2949,-2.75287,3.36279,11.532,-2.43155,2.22395,-3.18055e-14,3.02153e-14,-37.7164,5.57242,-83.1257,35.5326,15.7897,-19.7889,1.4891,7.12502,6.54358,-28.3898,-3.18055e-14,3.02153e-14,-34.5909,16.9147,71.0171,31.1225,-7.40776,-20.3398,25.1647,7.12502,6.01174,55.0594,2.3406,14.3367,27.2522,25.241,-7.45701,11.6652,5.54966,-21.9676,-3.7843,-16.0379,24.3588,-11.1742,25.333,5.93298
