JuanDHNZ/ProyectoFinalCD/preprocessing/sports_trials_csv/13_04.csv
root1,root2,root3,root4,root5,root6,lowerback1,lowerback2,lowerback3,upperback1,upperback2,upperback3,thorax1,thorax2,thorax3,lowerneck1,lowerneck2,lowerneck3,upperneck1,upperneck2,upperneck3,head1,head2,head3,rclavicle1,rclavicle2,rhumerus1,rhumerus2,rhumerus3,rradius1,rwrist1,rhand1,rhand2,rfingers1,rthumb1,rthumb2,lclavicle1,lclavicle2,lhumerus1,lhumerus2,lhumerus3,lradius1,lwrist1,lhand1,lhand2,lfingers1,lthumb1,lthumb2,rfemur1,rfemur2,rfemur3,rtibia1,rfoot1,rfoot2,rtoes1,lfemur1,lfemur2,lfemur3,ltibia1,lfoot1,lfoot2,ltoes1
-8.13685,18.7054,0.844703,0.0552617,36.7299,-1.3334,3.90375,0.805923,-2.68077,0.628769,0.941439,-1.80501,-1.55537,0.484724,-0.398435,-7.35546,0.515219,-6.20821,22.0317,0.312627,7.37516,7.95101,0.411655,3.55072,5.30755e-14,-1.19271e-14,-37.3795,-8.57718,-77.8068,22.2377,21.2312,-25.5045,2.52214,7.12502,1.02429,-27.4551,5.30755e-14,-1.19271e-14,-25.5549,1.46193,82.9782,27.2198,-4.94969,-21.5616,22.8658,7.12502,4.83211,52.7907,-0.736654,4.65331,15.1081,30.8195,-18.695,-24.7114,-14.1719,-10.623,-3.05824,-19.7976,27.5956,-24.2229,23.0251,12.2168
-8.09051,18.7041,0.832888,-0.00428353,37.5335,-1.41918,3.88677,0.847315,-2.55683,0.773944,1.00783,-1.76978,-1.39613,0.515507,-0.433189,-7.66091,0.739714,-6.44131,22.4387,0.570646,7.86332,8.11653,0.569832,3.7945,3.06128e-14,-3.18055e-15,-37.4653,-8.54674,-77.7656,22.5625,20.9792,-25.5259,2.55635,7.12502,1.00364,-27.421,3.06128e-14,-3.18055e-15,-25.3864,1.30978,83.1439,27.5904,-4.81275,-21.5051,22.7763,7.12502,4.88667,52.6999,-0.755806,4.20164,15.0372,31.2304,-18.3944,-24.7869,-14.6002,-10.7699,-2.98583,-19.8449,27.8168,-23.9377,22.3444,11.7595
-8.04896,18.7033,0.824775,-0.264359,38.4483,-1.77278,3.91023,0.857652,-2.27893,0.920027,1.0376,-1.67963,-1.25644,0.527892,-0.496425,-7.56905,0.900697,-6.41298,22.4963,0.762145,8.00294,8.10151,0.678129,3.85409,6.55989e-14,-3.18055e-15,-37.5455,-8.39156,-77.8325,22.8596,20.4879,-25.3541,2.57037,7.12502,1.16954,-27.4062,6.55989e-14,-3.18055e-15,-25.2354,1.09099,83.2673,27.9477,-4.72869,-21.3741,22.6254,7.12502,5.01317,52.5461,-0.711299,3.91882,15.3065,31.6549,-18.3979,-25.073,-14.7433,-10.9472,-2.83614,-19.6247,28.1018,-23.4929,21.5293,11.3048
-8.00899,18.6973,0.810427,-0.422158,39.3602,-2.01855,4.09541,0.916083,-2.04375,0.934127,1.1198,-1.62674,-1.34283,0.568738,-0.581059,-7.37437,1.00332,-6.30522,22.647,0.875715,8.0447,8.10682,0.746574,3.86161,-1.57139e-13,2.54444e-14,-37.797,-8.31955,-77.7942,23.1276,20.072,-25.1184,2.70516,7.12502,1.39723,-27.27,-1.57139e-13,2.54444e-14,-25.2896,0.6018,83.5063,28.4072,-4.23375,-21.6359,22.7219,7.12502,4.76037,52.6484,-0.764382,3.50545,15.446,32.1569,-18.229,-25.3108,-15.1099,-11.165,-2.7809,-19.528,28.3164,-23.0311,20.8641,10.7834
-7.97039,18.6886,0.798829,-0.486973,40.1899,-2.06378,4.45127,1.05543,-1.94363,0.825231,1.29498,-1.66225,-1.65154,0.657716,-0.691678,-7.20103,1.05435,-6.04724,23.0044,0.90701,8.02038,8.1943,0.785007,3.8213,4.36332e-14,7.95139e-15,-38.317,-8.54345,-77.6456,23.4322,19.8516,-24.7548,2.63222,7.12502,1.74843,-27.3404,4.36332e-14,7.95139e-15,-25.5648,-0.155401,83.7759,28.9379,-3.52458,-22.1488,23.3697,7.12502,4.26506,53.3067,-0.840056,3.13449,15.4036,32.7285,-17.8429,-25.5629,-15.1333,-11.3174,-2.72213,-19.6073,28.5042,-22.61,20.2581,10.2334
-7.92982,18.6854,0.785253,-0.522988,40.8184,-2.08963,4.73046,1.20868,-1.82807,0.764941,1.49386,-1.70267,-1.86613,0.757392,-0.817237,-7.12524,1.14117,-5.91015,23.356,0.993301,8.08073,8.29202,0.848808,3.83675,3.90612e-14,-4.77083e-15,-38.6884,-8.63632,-77.6227,23.7178,19.3481,-25.1654,2.67954,7.12502,1.35183,-27.2959,3.90612e-14,-4.77083e-15,-25.7603,-0.697268,83.9481,29.3616,-2.96816,-23.0297,24.4558,7.12502,3.41441,54.4082,-1.07216,3.22827,15.3117,33.3841,-18.0645,-25.6339,-13.4823,-11.4133,-2.62373,-19.7103,28.614,-22.2466,19.7646,9.73846
-7.88266,18.6807,0.766847,-0.467803,41.357,-2.05329,4.82735,1.34128,-1.70726,0.786002,1.67407,-1.73106,-1.8943,0.846698,-0.927638,-7.09106,1.26676,-5.9549,23.6281,1.14021,8.25406,8.36288,0.936307,3.92547,1.37658e-13,4.77083e-15,-38.8574,-8.43091,-77.6974,24.0087,18.7545,-26.2831,3.29519,7.12502,0.272283,-26.6844,1.37658e-13,4.77083e-15,-25.7781,-0.678961,83.942,29.5361,-3.1508,-23.3781,24.7957,7.12502,3.07791,54.7532,-1.40375,3.34924,15.1008,34.142,-18.5679,-25.4278,-11.4864,-11.5381,-2.5828,-19.8964,28.7287,-21.9851,19.3736,9.23304
-7.82561,18.6673,0.760705,-0.235035,42.1828,-1.64052,4.78163,1.40101,-1.89169,0.869768,1.74747,-1.82004,-1.78511,0.884312,-0.917823,-7.04971,1.38266,-5.91719,23.9486,1.2772,8.35069,8.45158,1.01948,3.97503,-5.43676e-14,-6.36111e-15,-39.1937,-8.68803,-77.4625,24.5235,19.0376,-26.815,3.74925,7.12502,-0.241452,-26.2304,-5.43676e-14,-6.36111e-15,-25.7928,-0.601901,83.9652,29.6704,-3.40712,-22.6821,23.6381,7.12502,3.75008,53.5848,-1.48487,2.89469,14.5785,34.925,-18.3526,-25.3491,-11.6864,-11.4974,-2.54093,-20.4015,28.7642,-21.6724,18.7209,8.67752
-7.79427,18.6629,0.734958,-0.49298,42.627,-2.02407,5.14816,1.58563,-1.54064,0.839341,2.00082,-1.75675,-2.01116,1.00914,-1.07743,-6.99312,1.49582,-5.81171,24.2044,1.40059,8.44768,8.51745,1.10192,4.00954,-2.71341e-14,7.95139e-16,-39.5078,-9.25506,-77.1099,24.9832,19.4748,-26.9149,3.8323,7.12502,-0.337879,-26.1472,-2.71341e-14,7.95139e-16,-25.7868,-0.781493,84.091,29.8563,-3.22005,-21.9778,22.623,7.12502,4.43016,52.5567,-1.96828,3.037,14.898,35.8505,-17.5271,-25.9666,-13.1988,-11.5924,-2.70185,-20.1966,28.7804,-21.6451,18.3633,9.0756
-7.71073,18.6574,0.751533,-0.367767,43.6354,-1.65037,4.66672,1.57764,-1.64291,1.09491,2.00561,-1.8533,-1.47947,1.01152,-1.09906,-6.88663,1.62158,-5.69409,24.3564,1.53137,8.58223,8.53758,1.19131,4.05062,-8.70677e-14,-7.95139e-16,-39.5104,-9.03028,-77.2202,25.0639,18.8975,-27.0326,3.89915,7.12502,-0.45161,-26.0801,-8.70677e-14,-7.95139e-16,-25.776,-1.11803,84.2395,30.0223,-2.60805,-22.5744,22.9222,7.12502,3.85414,52.8671,-1.92264,2.13232,14.3372,36.8324,-16.5679,-26.0467,-15.2774,-11.2685,-2.55638,-20.6996,28.7604,-21.4257,17.3741,8.90178
-7.66454,18.6546,0.740733,-0.281399,44.271,-1.23859,4.88506,1.69758,-1.92128,1.22744,2.14941,-1.92124,-1.47175,1.08475,-1.02639,-6.81732,1.73456,-5.55625,24.5894,1.65012,8.67816,8.59445,1.27449,4.07801,-1.02374e-13,-1.59028e-14,-39.4865,-8.42475,-77.5232,25.2404,18.0413,-27.1803,4.12077,7.12502,-0.59425,-25.8581,-1.02374e-13,-1.59028e-14,-25.7835,-1.37112,84.3722,30.1921,-2.03924,-23.3966,23.24,7.12502,3.06007,53.1978,-2.18444,1.94394,13.8841,37.9181,-15.9048,-26.3055,-16.3582,-11.0597,-2.48561,-21.1721,28.7622,-21.1738,16.8448,8.75447
-7.62891,18.6516,0.721668,-0.381094,44.7669,-1.27544,5.1743,1.86184,-1.87529,1.28485,2.3635,-1.90558,-1.57225,1.19204,-1.05861,-6.85066,1.82016,-5.50633,24.9094,1.73923,8.8056,8.70152,1.34131,4.13518,-1.11319e-13,-1.11319e-14,-39.6121,-8.46864,-77.4737,25.6339,17.948,-27.1355,4.72095,7.12502,-0.550955,-25.2581,-1.11319e-13,-1.11319e-14,-25.7734,-1.4188,84.4583,30.4113,-1.98718,-23.4233,24.4548,7.12502,3.03434,54.4129,-2.68585,2.15441,13.8679,39.0152,-15.544,-26.667,-16.2058,-11.0097,-2.58339,-21.2668,28.7199,-20.9468,16.5806,8.61794
-7.58579,18.6479,0.71491,-0.525813,45.3057,-1.43096,5.31935,1.98863,-1.74598,1.31352,2.53612,-1.88079,-1.61856,1.27803,-1.12164,-6.8377,1.93437,-5.50312,25.2257,1.86952,8.95861,8.79431,1.42559,4.2122,3.28989e-14,-1.11319e-14,-39.8072,-8.45469,-77.4401,26.0176,17.8618,-26.8393,4.85622,7.12502,-0.264896,-25.1234,3.28989e-14,-1.11319e-14,-25.8776,-1.33517,84.4161,30.5279,-2.18266,-23.0953,25.3542,7.12502,3.35108,55.3076,-3.16243,2.37238,13.9717,40.1578,-15.0514,-27.0303,-15.4344,-10.9459,-2.76633,-21.2685,28.7062,-20.7903,16.3457,8.29938
-7.5412,18.6427,0.708401,-0.632727,45.8753,-1.43815,5.5124,2.10038,-1.72569,1.35254,2.6817,-1.89116,-1.68376,1.35108,-1.16046,-6.76188,2.06056,-5.35888,25.529,2.01247,9.02889,8.87375,1.52004,4.23561,-1.41833e-13,9.54166e-15,-39.9449,-7.94045,-77.6461,26.4362,17.1778,-26.8541,4.3828,7.12502,-0.279187,-25.5968,-1.41833e-13,9.54166e-15,-26.0124,-0.890359,84.1021,30.2717,-2.99536,-22.2747,23.199,7.12502,4.1435,53.1385,-3.57991,2.45387,13.9141,41.2974,-14.0194,-27.2927,-14.5545,-10.8096,-2.87895,-21.3981,28.7231,-20.6044,16.0374,7.85447
-7.49507,18.6356,0.698736,-0.713667,46.4765,-1.2731,5.75727,2.23559,-1.75027,1.45156,2.85601,-1.95403,-1.7151,1.43893,-1.23161,-6.63406,2.13138,-5.11399,25.7814,2.06793,9.07408,8.93568,1.57991,4.22237,2.23633e-14,1.03368e-14,-40.0595,-7.54779,-77.838,26.8867,16.5102,-27.4789,4.12703,7.12502,-0.882638,-25.8509,2.23633e-14,1.03368e-14,-26.1262,-1.19426,84.1304,30.3583,-2.63139,-22.5422,23.8237,7.12502,3.88516,53.7681,-3.93818,2.52967,13.6935,42.4747,-13.0856,-27.4799,-13.2903,-10.5568,-2.97819,-21.6872,28.7238,-20.3954,15.7607,7.27713
-7.44879,18.6285,0.691522,-0.823875,47.0098,-1.17516,5.9703,2.38653,-1.67501,1.52811,3.05707,-2.04034,-1.74472,1.5399,-1.3846,-6.36806,2.19285,-4.85006,25.955,2.10391,9.13487,8.94603,1.63228,4.20281,-4.07509e-14,1.66979e-14,-40.2125,-7.37041,-78.0116,27.2873,16.0901,-27.8226,4.20476,7.12502,-1.21454,-25.7715,-4.07509e-14,1.66979e-14,-26.1504,-1.27468,84.0808,30.2225,-2.53571,-22.9433,24.4077,7.12502,3.49789,54.3588,-4.36718,2.69691,13.5388,43.7116,-12.3794,-27.683,-11.9831,-10.3053,-2.96547,-21.9012,28.7032,-20.1905,15.4142,6.9226
-7.4038,18.6243,0.683128,-0.861053,47.495,-1.12733,6.09886,2.46229,-1.67135,1.54841,3.15499,-2.06742,-1.79257,1.58917,-1.42748,-6.09196,2.35684,-4.64391,26.1845,2.29862,9.17355,8.96075,1.75175,4.20063,1.25632e-13,-1.90833e-14,-40.2557,-7.15445,-78.1128,27.5833,15.7982,-27.305,4.66719,7.12502,-0.71469,-25.3114,1.25632e-13,-1.90833e-14,-26.4948,-1.4223,83.9886,30.4333,-2.22338,-22.8024,24.3819,7.12502,3.63396,54.3307,-4.99838,2.85923,13.4196,44.9885,-11.4101,-27.9978,-11.4237,-10.1982,-2.84822,-22.0432,28.7108,-20.0539,14.8723,7.10239
-7.35886,18.6199,0.672933,-0.789638,48.0602,-0.944066,6.23596,2.48325,-1.7626,1.58519,3.17427,-2.1082,-1.83332,1.59964,-1.42575,-5.97782,2.55767,-4.63376,26.5077,2.5322,9.40382,9.02789,1.89355,4.31088,3.08116e-15,2.54444e-14,-40.2015,-6.90689,-78.2279,27.8424,15.6517,-27.0574,4.79619,7.12502,-0.475483,-25.183,3.08116e-15,2.54444e-14,-26.8365,-1.53017,83.8609,30.6441,-1.92263,-22.5601,24.2777,7.12502,3.86792,54.2224,-5.6684,2.97287,13.2077,46.3073,-10.3771,-28.4259,-10.568,-10.1281,-2.74779,-22.2959,28.7461,-19.9456,14.3204,7.19391
-7.31698,18.6098,0.660637,-0.877024,48.6713,-0.88055,6.52128,2.56026,-1.60383,1.63956,3.27923,-2.22799,-1.91895,1.65263,-1.65853,-5.88632,2.65164,-4.55244,26.7805,2.59123,9.7003,9.09596,1.96808,4.4169,3.49861e-14,0,-40.1941,-6.91166,-78.3954,28.1215,15.6735,-27.2075,4.61253,7.12502,-0.62052,-25.3663,3.49861e-14,0,-26.2019,0.211469,83.261,29.2678,-3.73196,-22.4384,23.6657,7.12502,3.9854,53.6082,-6.26273,2.92539,13.1001,47.6665,-9.08637,-28.8501,-9.37937,-9.97999,-2.72578,-22.4721,28.773,-19.8451,13.8541,7.13773
-7.28081,18.5992,0.653257,-0.817597,49.266,-0.64239,6.7912,2.64593,-1.67895,1.68012,3.38049,-2.34461,-2.02274,1.70448,-1.75805,-5.67938,2.73702,-4.33489,27.0272,2.65934,9.82031,9.13966,2.04065,4.43405,-6.59965e-14,2.8625e-14,-40.1385,-6.89354,-78.5333,28.308,15.7336,-27.4586,4.76883,7.12502,-0.863038,-25.2092,-6.59965e-14,2.8625e-14,-26.415,-0.0947898,83.0519,29.2251,-3.45494,-22.2597,23.4066,7.12502,4.15802,53.3457,-6.92507,2.80583,12.892,49.0665,-7.56442,-29.1816,-8.41849,-9.82138,-2.93934,-22.7644,28.7728,-19.7801,13.5908,7.09417
-7.24433,18.593,0.655748,-0.442827,49.8117,-0.132023,6.73461,2.71351,-2.24558,1.80788,3.44015,-2.32288,-1.89275,1.73647,-1.41798,-5.62027,2.86985,-4.34047,27.341,2.84117,9.88016,9.22252,2.13961,4.48559,-2.66371e-14,1.43125e-14,-39.8188,-6.44749,-78.6358,28.4104,15.5605,-28.1961,4.66582,7.12502,-1.57534,-25.3081,-2.66371e-14,1.43125e-14,-26.4866,0.19863,82.9016,29.0593,-3.34931,-22.0675,23.1796,7.12502,4.34358,53.1151,-7.74863,2.80248,12.5253,50.4848,-6.20085,-29.491,-7.30784,-9.76298,-3.07548,-23.212,28.7675,-19.6236,13.3511,6.74256
-7.20662,18.5877,0.657862,-0.140219,50.3341,0.266396,6.57272,2.82189,-2.80237,2.02274,3.56598,-2.20039,-1.62146,1.79881,-0.976922,-5.80443,2.98046,-4.64442,27.7255,2.98829,10.1491,9.3674,2.21794,4.67196,-3.49861e-14,1.59028e-14,-39.4189,-6.12232,-78.5397,28.6121,15.3036,-28.727,4.62004,7.12502,-2.08804,-25.3495,-3.49861e-14,1.59028e-14,-26.3531,0.665977,82.919,28.7719,-3.40722,-22.1135,23.3175,7.12502,4.29917,53.2539,-8.59902,2.88425,12.2627,51.8924,-5.08064,-29.9129,-5.31911,-9.69878,-3.03562,-23.5548,28.7272,-19.4143,12.9851,6.07406
-7.17061,18.58,0.659792,-0.0546545,50.8224,0.424173,6.56933,2.97538,-3.04203,2.16899,3.76296,-2.14835,-1.4881,1.89617,-0.801255,-6.0055,3.06705,-5.01417,28.1882,3.05034,10.686,9.5421,2.28133,4.96614,-2.49475e-14,9.54166e-15,-39.2904,-6.33728,-78.3608,28.9772,15.4353,-28.6045,4.80331,7.12502,-1.96977,-25.1673,-2.49475e-14,9.54166e-15,-26.2352,0.956728,82.8324,28.397,-3.68962,-22.183,23.3401,7.12502,4.23209,53.2778,-9.40819,3.03937,12.2154,53.2674,-3.96493,-30.4159,-2.6195,-9.56625,-3.06313,-23.7311,28.6413,-19.2574,12.6671,5.55906
-7.13118,18.5732,0.662323,0.0394575,51.2964,0.577319,6.62795,3.08692,-3.12792,2.23927,3.90673,-2.21021,-1.45059,1.96833,-0.829749,-6.03381,3.13033,-5.04083,28.5898,3.09208,10.9445,9.68062,2.33774,5.09294,1.28216e-14,-3.18055e-15,-39.2959,-6.59561,-78.3964,29.355,15.6688,-28.0366,5.12592,7.12502,-1.42129,-24.8491,1.28216e-14,-3.18055e-15,-26.2541,1.36619,82.4441,28.0534,-4.03961,-22.0681,23.3521,7.12502,4.34298,53.2875,-10.1882,3.30662,12.2278,54.5932,-2.78061,-30.9519,-0.158839,-9.43033,-3.10048,-23.9137,28.5719,-19.1552,12.3508,5.37274
-7.08896,18.5718,0.661999,0.28304,51.8405,0.858871,6.67505,3.13281,-3.24869,2.29714,3.96089,-2.30266,-1.41876,1.99602,-0.862909,-5.94381,3.18991,-4.86875,28.8552,3.15891,10.9458,9.75775,2.39435,5.08283,-1.5873e-13,1.98785e-14,-39.1621,-6.63608,-78.5254,29.6383,15.5666,-27.4686,5.69947,7.12502,-0.872699,-24.2785,-1.5873e-13,1.98785e-14,-26.3352,1.83298,81.9905,27.7635,-4.22735,-21.7533,23.1407,7.12502,4.64701,53.0697,-10.9962,3.60833,12.1823,55.8737,-1.86563,-31.5953,2.64991,-9.35695,-3.19235,-24.1847,28.5438,-19.1275,11.9721,5.46106
-7.04849,18.5702,0.661313,0.439321,52.4413,0.970938,6.71723,3.1724,-3.26732,2.33756,4.01277,-2.34583,-1.39899,2.02241,-0.902222,-5.84437,3.27287,-4.85455,29.0873,3.22853,11.1767,9.80983,2.46106,5.18112,7.27552e-14,-2.06736e-14,-39.0221,-6.6334,-78.594,29.9172,15.7157,-28.0545,5.5657,7.12502,-1.43855,-24.4092,7.27552e-14,-2.06736e-14,-26.4137,2.19318,81.6525,27.3999,-4.58594,-21.5088,22.5786,7.12502,4.88304,52.5023,-11.8498,3.6157,12.2155,57.0852,-0.769237,-32.0397,5.34994,-9.36349,-3.28592,-24.3218,28.5554,-19.1189,11.5038,5.77356
-7.00861,18.5651,0.662589,0.331704,53.0123,0.836744,6.76235,3.18111,-3.19662,2.39996,4.03058,-2.32686,-1.35638,2.03131,-0.923713,-5.56965,3.36587,-4.71297,29.1632,3.32585,11.2686,9.77569,2.53362,5.19269,4.46272e-14,-3.97569e-15,-38.8824,-6.51475,-78.6779,30.1932,15.9097,-28.8437,5.29304,7.12502,-2.2008,-24.6754,4.46272e-14,-3.97569e-15,-26.4118,2.7153,81.3627,26.8891,-5.15496,-21.4448,22.3252,7.12502,4.94487,52.2475,-12.6269,3.43203,12.3925,58.2226,0.579034,-31.9055,6.72123,-9.31285,-3.47492,-24.3057,28.6022,-19.1486,11.1491,6.11727
-6.96994,18.5583,0.667891,0.208146,53.5513,0.770637,6.86347,3.18961,-3.20902,2.47434,4.04067,-2.32084,-1.33692,2.03657,-0.914948,-5.16189,3.40935,-4.40805,29.0864,3.39917,11.0742,9.67635,2.57598,5.05603,2.89232e-14,-8.74653e-15,-38.7154,-6.50481,-78.7002,30.5052,15.5374,-28.3048,5.61404,7.12502,-1.6803,-24.3591,2.89232e-14,-8.74653e-15,-26.3254,3.43245,81.0331,26.2534,-5.95227,-21.4104,22.3651,7.12502,4.97804,52.2866,-13.3138,3.42549,12.5628,59.288,1.98742,-31.1074,6.62134,-9.19488,-3.77219,-24.3427,28.6808,-19.2044,10.9555,6.20972
-6.93329,18.552,0.673,0.363404,54.166,0.921583,6.95207,3.19688,-3.31464,2.49622,4.04074,-2.36104,-1.36746,2.03732,-0.902512,-4.88591,3.46287,-4.2339,29.1374,3.47089,11.0364,9.64118,2.62552,5.01151,-7.83212e-14,-7.95139e-16,-38.588,-6.51821,-78.7045,30.9085,14.9929,-27.7258,5.52419,7.12502,-1.12105,-24.4526,-7.83212e-14,-7.95139e-16,-26.3284,4.15366,80.62,25.6592,-6.86586,-21.4805,22.5871,7.12502,4.91042,52.5102,-14.0725,3.32686,12.5887,60.2927,2.89849,-29.8858,6.63894,-9.21034,-3.88606,-24.4814,28.7733,-19.152,10.5718,5.98752
-6.89816,18.5484,0.677856,0.617144,54.7869,1.10049,6.97275,3.17909,-3.42828,2.50316,4.00938,-2.42303,-1.37442,2.02233,-0.901697,-4.70161,3.58913,-4.11108,29.2999,3.60824,11.1876,9.65091,2.72421,5.05883,-3.8763e-14,-2.38542e-15,-38.4602,-6.43898,-78.804,31.3654,14.3729,-27.3267,5.31497,7.12502,-0.735585,-24.6635,-3.8763e-14,-2.38542e-15,-26.4246,4.73103,80.1843,25.209,-7.25491,-21.3456,22.5524,7.12502,5.04068,52.4725,-14.8899,3.13015,12.5578,61.2542,2.38299,-28.5644,8.05583,-9.30697,-3.88258,-24.6105,28.8657,-19.0551,10.083,5.716
-6.8653,18.5438,0.687354,0.664818,55.3349,1.12586,7.06863,3.2183,-3.47258,2.53171,4.05561,-2.47807,-1.39734,2.04641,-0.942576,-4.48353,3.686,-4.01004,29.3944,3.68667,11.4311,9.63123,2.80218,5.13296,-6.66923e-14,3.4191e-14,-38.3976,-6.59718,-78.881,31.7549,13.9085,-26.8367,5.53859,7.12502,-0.2624,-24.441,-6.66923e-14,3.4191e-14,-26.5093,5.14629,79.7956,24.8023,-7.27923,-20.8005,21.8603,7.12502,5.56699,51.7671,-15.5974,3.25153,12.6418,62.0981,1.17579,-27.0356,8.64612,-9.30984,-3.87698,-24.6315,28.9666,-19.0156,9.64898,5.46438
-6.83182,18.5364,0.696424,0.659924,55.864,1.10177,7.18547,3.26762,-3.49159,2.58122,4.11709,-2.50669,-1.41055,2.07788,-0.972263,-4.27161,3.76165,-3.92913,29.4084,3.74412,11.6501,9.58545,2.86354,5.19502,1.49089e-14,-1.51076e-14,-38.2973,-6.68395,-78.9473,31.9588,14.1569,-27.5546,5.48336,7.12502,-0.955732,-24.4942,1.49089e-14,-1.51076e-14,-26.5685,5.4223,79.4582,24.4165,-7.48836,-20.4148,21.404,7.12502,5.93939,51.3007,-16.2719,3.4919,12.7982,62.781,0.173858,-25.3765,7.84973,-9.30278,-3.99321,-24.6334,29.0823,-19.0932,9.27662,5.57527
-6.80012,18.528,0.704614,0.795847,56.4005,1.19747,7.28238,3.24913,-3.623,2.6248,4.08141,-2.52956,-1.42583,2.06051,-0.924472,-4.0645,3.86072,-3.72105,29.4141,3.86402,11.668,9.5427,2.94403,5.1665,-4.55217e-14,3.4191e-14,-38.1073,-6.58235,-79.0299,32.2151,14.3575,-28.1139,5.32575,7.12502,-1.49597,-24.6488,-4.55217e-14,3.4191e-14,-26.6519,5.53715,79.1267,24.063,-7.60792,-20.4939,21.6223,7.12502,5.86295,51.5212,-16.9905,3.56329,12.8763,63.3258,-0.748383,-23.7198,7.20109,-9.35537,-4.20933,-24.7129,29.23,-19.2252,8.97549,5.93057
-6.76924,18.5179,0.713884,0.923646,56.9263,1.39964,7.5438,3.21997,-3.75611,2.6583,4.0212,-2.60344,-1.53837,2.03252,-0.936641,-3.89478,3.92763,-3.4423,29.4537,3.94268,11.6276,9.52815,3.00772,5.1057,-3.6477e-14,2.14687e-14,-37.9769,-6.5834,-79.1162,32.6062,13.8162,-28.2628,5.5307,7.12502,-1.6397,-24.4427,-3.6477e-14,2.14687e-14,-26.7656,5.79423,78.6862,23.6688,-7.6486,-20.5638,21.6376,7.12502,5.79554,51.5383,-17.5827,3.62671,12.8758,63.719,-1.79817,-22.179,6.96774,-9.31984,-4.39423,-24.862,29.423,-19.3017,8.76305,5.89302
-6.73255,18.5055,0.723354,0.908332,57.3666,1.54271,7.90765,3.22454,-3.70522,2.70109,4.01313,-2.7477,-1.68111,2.03213,-1.13375,-3.87437,3.98153,-3.20126,29.6074,3.98188,11.6928,9.58294,3.06562,5.10011,-3.93594e-14,-3.97569e-15,-37.9205,-6.46233,-79.3694,32.8515,13.6319,-29.2516,5.4746,7.12502,-2.59468,-24.4894,-3.93594e-14,-3.97569e-15,-26.9074,6.15177,78.1653,23.3422,-7.69026,-20.5969,21.5761,7.12502,5.76358,51.4777,-18.0376,3.87026,12.9354,63.9652,-2.8719,-20.8671,6.83765,-9.17986,-4.52548,-24.9964,29.6487,-19.3865,8.626,5.51112
-6.69562,18.4936,0.734403,0.910802,57.7773,1.51722,8.0497,3.25387,-3.61355,2.73483,4.0534,-2.83722,-1.7122,2.05407,-1.28827,-3.91767,4.01487,-3.0726,29.7908,4.00368,11.7679,9.6585,3.10618,5.12108,-3.598e-14,1.74931e-14,-37.8378,-6.30674,-79.6065,33.065,13.7485,-29.9427,5.07112,7.12502,-3.26214,-24.8837,-3.598e-14,1.74931e-14,-27.0324,6.46202,77.7658,23.1,-7.50307,-21.0014,22.3475,7.12502,5.37299,52.2594,-18.631,4.27912,13.1304,64.0939,-3.98613,-19.7963,6.29508,-9.23202,-4.52187,-24.9941,29.8909,-19.4843,8.34048,5.12596
-6.6621,18.482,0.741501,1.15381,58.2676,1.59584,8.04232,3.28624,-3.63014,2.7687,4.09823,-2.87409,-1.67158,2.07686,-1.31964,-3.93842,4.01573,-3.14092,29.8575,3.9754,11.9688,9.68033,3.1128,5.20902,-1.5704e-14,1.27222e-14,-37.6724,-6.37638,-79.6208,33.4212,13.2327,-30.3012,4.75186,7.12502,-3.60832,-25.1973,-1.5704e-14,1.27222e-14,-27.0314,7.54567,77.1887,22.567,-8.58031,-20.5952,22.0897,7.12502,5.76515,51.9913,-19.3644,4.67236,13.233,64.1068,-5.14788,-18.9518,4.7067,-9.48575,-4.51117,-25.0434,30.1565,-19.5415,7.96001,4.85413
-6.62894,18.4701,0.748628,1.50015,58.7412,1.86624,8.08781,3.30477,-3.79728,2.84218,4.1129,-2.89402,-1.63032,2.08428,-1.24921,-3.9529,4.0566,-3.30264,29.8572,3.99399,12.2574,9.66562,3.13807,5.34298,2.42517e-14,-2.62396e-14,-37.4161,-6.15034,-79.6465,33.7339,12.4863,-30.4668,4.68303,7.12502,-3.76822,-25.2634,2.42517e-14,-2.62396e-14,-27.0299,8.00239,76.9953,22.2068,-8.29474,-21.3137,22.8377,7.12502,5.0715,52.757,-20.0263,5.04698,13.2193,64.0203,-6.17621,-18.2103,2.78703,-9.64408,-4.61066,-25.2205,30.4003,-19.6105,7.64254,4.81995
-6.59658,18.4554,0.761191,1.9109,59.1236,2.25275,8.12978,3.33278,-4.10406,2.93352,4.13094,-2.91724,-1.57772,2.09281,-1.10451,-3.92184,4.09094,-3.31358,29.7851,4.04344,12.2925,9.62697,3.16278,5.35465,2.10712e-14,7.95139e-16,-37.1956,-5.78166,-79.7292,34.0157,12.0243,-30.3107,4.7589,7.12502,-3.61753,-25.1901,2.10712e-14,7.95139e-16,-27.062,8.57883,76.6145,21.8256,-8.65887,-20.9812,22.6704,7.12502,5.39251,52.5818,-20.6224,5.59791,13.1571,63.8348,-7.10527,-17.4088,1.71618,-9.70232,-4.65667,-25.4353,30.5575,-19.6977,7.31478,4.85273
-6.56501,18.4382,0.769486,2.85965,59.5361,3.17574,8.16937,3.3347,-4.57698,2.99472,4.09997,-3.06814,-1.5556,2.07804,-0.996093,-3.93431,4.08831,-3.28868,29.6947,4.05049,12.2572,9.59784,3.16359,5.33237,3.04141e-14,-9.54166e-15,-37.0573,-5.7118,-79.8058,34.3628,11.8042,-30.2571,4.85398,7.12502,-3.56572,-25.0959,3.04141e-14,-9.54166e-15,-27.1454,8.5408,76.4046,21.6283,-8.0247,-21.8959,23.5767,7.12502,4.5093,53.5087,-21.2721,6.18881,12.726,63.5495,-8.03284,-16.602,1.34322,-9.84194,-4.70282,-25.9384,30.6945,-19.6878,7.03954,4.02018
-6.5324,18.4239,0.773814,4.13468,59.9528,4.40988,8.20291,3.31484,-5.11379,3.03171,4.03436,-3.2944,-1.55236,2.04702,-0.927614,-3.95549,4.1031,-3.29597,29.6319,4.06542,12.3101,9.57554,3.17512,5.35017,-1.64991e-14,-3.97569e-15,-36.9192,-5.57907,-79.9857,34.6909,11.5928,-30.2924,4.71814,7.12502,-3.59979,-25.2312,-1.64991e-14,-3.97569e-15,-27.2533,9.32502,75.7373,21.3372,-9.19652,-23.1699,26.1853,7.12502,3.27899,56.1399,-22.0191,6.6933,12.0976,63.1859,-8.77379,-16.0728,0.679207,-10.0673,-4.88304,-26.6242,30.905,-19.7329,6.90744,3.02918
-6.49873,18.414,0.79025,4.04942,60.3174,4.24527,8.31907,3.34746,-5.01817,3.11042,4.08316,-3.33136,-1.52662,2.07231,-1.02773,-3.91274,4.11674,-3.14766,29.5286,4.08153,12.2791,9.53474,3.19358,5.30573,2.24627e-14,-7.95139e-15,-36.7716,-5.33953,-80.2188,34.9722,11.3816,-30.2903,4.30587,7.12502,-3.59776,-25.6435,2.24627e-14,-7.95139e-15,-27.314,8.99337,75.6929,21.1889,-7.65664,-22.9863,24.861,7.12502,3.45628,54.8127,-22.5757,7.38319,12.3966,62.696,-9.3449,-16.0968,-0.62971,-10.1455,-5.01146,-26.5259,31.1764,-20.1823,6.63984,4.38394
-6.46509,18.4086,0.816932,2.61262,60.6785,2.70191,8.54096,3.37856,-4.36817,3.25588,4.17053,-3.11651,-1.4725,2.11561,-1.18201,-3.87582,4.1598,-3.03499,29.3484,4.16002,12.1766,9.46264,3.22643,5.24088,1.27222e-14,4.85035e-14,-36.5642,-5.09182,-80.3548,35.2001,11.5562,-30.059,4.06989,7.12502,-3.37441,-25.8832,1.27222e-14,4.85035e-14,-27.2778,10.4739,74.8893,20.6866,-9.86156,-23.3535,25.5523,7.12502,3.10176,55.5095,-22.8965,8.22222,13.5495,62.1078,-9.94077,-16.4892,-1.60881,-10.0895,-5.01712,-25.6476,31.4904,-20.6147,6.18538,5.9217
-6.43271,18.4057,0.834074,1.84237,60.9971,1.82347,8.72355,3.35548,-4.11363,3.39501,4.15877,-2.90394,-1.42756,2.10841,-1.10847,-3.81807,4.27031,-3.18081,29.1131,4.35574,12.1087,9.34535,3.28644,5.2359,4.4329e-14,-1.43125e-14,-36.3069,-4.57349,-80.4642,35.4082,11.9196,-29.7629,4.44186,7.12502,-3.0885,-25.5155,4.4329e-14,-1.43125e-14,-27.3673,10.3527,75.0184,20.6262,-8.26066,-22.7912,24.9292,7.12502,3.64473,54.8778,-23.3746,9.04591,14.2104,61.4855,-10.5047,-16.8307,-1.01765,-10.1579,-5.11524,-25.1559,31.8386,-20.5945,5.98233,4.94124
-6.40176,18.4002,0.843275,2.02811,61.2837,1.8856,8.85243,3.39679,-4.16287,3.4533,4.20627,-2.95384,-1.4378,2.13326,-1.14382,-3.73797,4.27532,-3.17342,28.9094,4.36157,12.1436,9.25529,3.28811,5.23021,-1.61016e-14,3.18055e-14,-36.2229,-4.19374,-80.6729,35.7374,11.8924,-29.7216,4.9876,7.12502,-3.04858,-24.9703,-1.61016e-14,3.18055e-14,-27.4163,10.5176,74.772,20.4482,-8.02964,-24.6557,25.6622,7.12502,1.8441,55.634,-24.0701,9.88877,14.226,60.8192,-11.014,-17.1052,-0.380506,-10.3384,-5.40503,-25.2028,32.1224,-20.6052,6.00662,4.15311
-6.36949,18.3895,0.855825,2.41869,61.5958,2.18878,9.02897,3.55638,-4.04864,3.46341,4.41834,-3.2793,-1.49189,2.24572,-1.57671,-3.65347,4.09812,-2.74381,28.7346,4.05035,12.2409,9.2176,3.19746,5.15606,3.99557e-14,-2.38542e-15,-36.3422,-4.50926,-80.9315,36.1495,11.511,-29.6384,5.13083,7.12502,-2.96829,-24.8283,3.99557e-14,-2.38542e-15,-27.2803,10.1546,74.3391,20.1244,-8.19254,-24.5152,25.4516,7.12502,1.97982,55.4222,-24.7198,10.6778,14.0843,60.1138,-11.5585,-17.3256,-1.65331,-10.4411,-5.6833,-25.3691,32.2796,-20.6782,5.96999,4.34772
-6.33506,18.3809,0.872599,2.75272,61.9274,2.53785,9.26925,3.65554,-4.02723,3.53067,4.54315,-3.51944,-1.53228,2.31347,-1.86431,-3.58515,3.99097,-2.46827,28.5552,3.86631,12.2924,9.16533,3.14282,5.10067,8.98507e-14,1.51076e-14,-36.3422,-4.79533,-81.0758,36.5521,10.9378,-29.2205,5.18741,7.12502,-2.56466,-24.7769,8.98507e-14,1.51076e-14,-27.2241,10.0719,73.8928,19.8558,-8.52078,-23.8998,24.6776,7.12502,2.57411,54.6418,-25.1906,11.5038,13.9355,59.3394,-12.1182,-17.5169,-2.68669,-10.4048,-5.65024,-25.5273,32.3831,-20.607,5.67945,4.09606
-6.30124,18.3762,0.89171,2.98124,62.2559,2.73345,9.4322,3.63387,-4.19025,3.6291,4.49815,-3.52372,-1.53065,2.29136,-1.78135,-3.51515,4.03088,-2.55349,28.3806,3.94289,12.278,9.0803,3.16133,5.10088,1.2921e-14,2.94201e-14,-36.2351,-4.56655,-81.1193,36.9891,10.6352,-28.7624,5.37731,7.12502,-2.12228,-24.5919,1.2921e-14,2.94201e-14,-27.3707,10.5992,73.5608,19.7081,-8.7716,-22.1222,24.0386,7.12502,4.2908,53.9751,-25.6589,12.4461,13.8528,58.4874,-12.7731,-17.8547,-1.78174,-10.3987,-5.47756,-25.5749,32.4779,-20.5726,5.23497,3.87058
-6.26851,18.3716,0.909574,3.03164,62.5751,2.5961,9.50594,3.60564,-4.14807,3.69826,4.46546,-3.50678,-1.49739,2.27551,-1.7857,-3.48863,4.04924,-2.68697,28.2213,3.99144,12.2706,9.00974,3.16364,5.11273,-4.47266e-14,1.98785e-14,-36.1605,-4.23741,-81.2058,37.4076,10.7383,-28.4384,5.51885,7.12502,-1.80933,-24.4532,-4.47266e-14,1.98785e-14,-27.4838,10.8129,73.3682,19.6064,-8.63708,-23.0228,24.7762,7.12502,3.42105,54.7285,-26.2499,13.3833,13.9124,57.5761,-13.4042,-18.3583,-0.718216,-10.5061,-5.59537,-25.4657,32.5634,-20.6291,5.02003,4.03656
-6.23619,18.368,0.923688,3.10819,62.9221,2.49851,9.63078,3.57252,-4.06031,3.78323,4.42851,-3.51017,-1.47072,2.25855,-1.83869,-3.51997,4.03844,-2.83596,28.0784,4.00198,12.2477,8.95949,3.14637,5.12277,2.98177e-14,-2.94201e-14,-36.0179,-3.93775,-81.2576,37.7719,10.83,-28.29,5.56409,7.12502,-1.66595,-24.4092,2.98177e-14,-2.94201e-14,-27.4773,11.2394,73.0972,19.3879,-8.87548,-23.8065,25.0693,7.12502,2.66419,55.0324,-26.8473,14.2638,13.9105,56.6203,-13.9078,-18.7903,-0.415526,-10.6171,-5.75878,-25.3926,32.6463,-20.6624,4.81036,4.34371
-6.20428,18.3639,0.938284,3.3495,63.306,2.66767,9.80903,3.51719,-4.21177,3.9075,4.34082,-3.48147,-1.45168,2.21466,-1.72272,-3.5349,4.04581,-2.95597,27.9557,4.04647,12.1658,8.91338,3.14169,5.10988,-2.62396e-14,1.19271e-14,-35.8125,-3.40415,-81.355,38.0867,10.9041,-28.644,5.57009,7.12502,-2.00787,-24.4002,-2.62396e-14,1.19271e-14,-27.489,12.0385,72.7375,19.129,-9.54559,-23.5828,24.472,7.12502,2.88025,54.4323,-27.3537,15.1279,13.7428,55.643,-14.4251,-19.0482,-0.438071,-10.6447,-5.71426,-25.4334,32.6878,-20.8146,4.31834,5.31672
-6.1756,18.3605,0.961239,3.53741,63.6352,2.86679,10.1067,3.5399,-4.39573,4.03422,4.34576,-3.49635,-1.49361,2.21829,-1.6526,-3.51058,3.99563,-2.98525,27.7944,3.99956,12.096,8.85742,3.10438,5.07625,-3.18055e-15,1.35174e-14,-35.7077,-2.81794,-81.6061,38.4254,10.9486,-29.3518,5.34513,7.12502,-2.69151,-24.6176,-3.18055e-15,1.35174e-14,-27.5515,11.693,72.7139,19.1849,-9.22695,-23.3873,24.2794,7.12502,3.06908,54.2371,-27.7526,16.0758,13.6136,54.6368,-14.8572,-19.3978,-1.07899,-10.533,-5.6005,-25.4498,32.657,-20.998,3.85314,5.83443
-6.14679,18.3605,0.986267,3.93164,63.9643,3.3444,10.5097,3.56838,-4.55489,4.16359,4.35314,-3.59038,-1.5816,2.22558,-1.6859,-3.50417,3.92626,-3.11319,27.6122,3.93073,12.0573,8.7952,3.04984,5.06861,-1.19271e-14,1.19271e-14,-35.717,-2.44342,-81.7905,38.9532,10.7137,-29.5515,5.28408,7.12502,-2.88435,-24.6762,-1.19271e-14,1.19271e-14,-27.6448,11.2999,72.7272,19.3759,-8.8388,-29.598,29.6838,7.12502,-2.92922,59.6435,-28.0998,16.9786,13.3475,53.596,-15.1785,-19.6436,-1.69569,-10.3518,-5.51289,-25.6098,32.5797,-20.8038,3.75609,3.80344
-6.10924,18.3589,1.00075,4.5001,64.3546,3.88732,10.7214,3.48723,-4.57885,4.31156,4.24299,-3.68909,-1.53546,2.17401,-1.76994,-3.714,3.86896,-3.25318,27.6531,3.91257,11.8301,8.85345,3.00619,5.02237,-3.33958e-14,2.8625e-14,-35.6944,-2.18353,-81.8804,39.5427,10.5759,-29.4428,5.76154,7.12502,-2.77935,-24.2001,-3.33958e-14,2.8625e-14,-27.702,11.9323,72.4596,19.3746,-9.27255,-29.9893,29.1735,7.12502,-3.30717,59.1276,-28.5367,17.7601,12.8965,52.4695,-15.4217,-19.4855,-1.47614,-10.2728,-5.6532,-25.863,32.4858,-20.7532,3.79807,2.68513
-6.0684,18.3533,1.01562,4.90812,64.7632,4.15468,10.7602,3.39438,-4.57588,4.44348,4.13072,-3.72936,-1.4149,2.11932,-1.79661,-3.92373,3.76718,-3.05011,27.7957,3.86597,11.2608,8.97259,2.95069,4.80159,-4.77083e-15,1.74931e-14,-35.6629,-1.97255,-81.9902,40.0271,10.7519,-29.5983,6.34175,7.12502,-2.92955,-23.6179,-4.77083e-15,1.74931e-14,-27.7514,12.3259,72.2528,19.3397,-9.53938,-23.6209,24.7493,7.12502,2.84349,54.7101,-29.0307,18.5368,12.498,51.2347,-15.5591,-19.0986,0.0621146,-10.2758,-5.88168,-25.9796,32.3968,-20.9825,3.54339,4.68351
-6.03207,18.3501,1.03777,5.15655,65.1829,4.31828,10.9221,3.2849,-4.7315,4.54727,3.96936,-3.69616,-1.40592,2.03831,-1.66266,-3.84558,3.72713,-2.84537,27.747,3.90349,10.7337,8.96105,2.93013,4.57899,-2.66371e-14,1.43125e-14,-35.671,-1.38345,-82.1681,40.5226,10.759,-30.04,6.65985,7.12502,-3.35607,-23.2935,-2.66371e-14,1.43125e-14,-27.9342,12.7393,72.0211,19.3542,-9.76091,-23.3966,24.4002,7.12502,3.06013,54.358,-29.4257,19.331,12.2163,49.9224,-15.4929,-18.6591,1.12957,-10.2247,-5.9387,-25.9958,32.3265,-21.0492,3.16914,6.10023
-5.99699,18.3495,1.05735,5.1882,65.5768,4.2136,11.1199,3.13922,-4.67636,4.64694,3.77775,-3.68117,-1.40583,1.94464,-1.66229,-3.77168,3.70723,-2.86546,27.6627,3.94941,10.4166,8.92317,2.9116,4.46745,-2.26615e-14,-1.11319e-14,-35.6435,-0.690517,-82.391,41.0514,10.6479,-30.6211,6.738,7.12502,-3.91727,-23.2057,-2.26615e-14,-1.11319e-14,-28.098,13.4582,71.6654,19.3699,-10.1556,-23.4897,24.4312,7.12502,2.97018,54.3903,-29.8388,20.1717,12.0484,48.5408,-15.1706,-18.2355,-0.276749,-10.2116,-5.94544,-25.878,32.2729,-21.0202,2.97539,5.60539
-5.95885,18.3498,1.07737,5.33079,65.935,4.18267,11.2046,3.06069,-4.55759,4.7776,3.69318,-3.73923,-1.30375,1.90566,-1.77809,-3.8555,3.57426,-2.8145,27.7234,3.82065,10.1296,8.98099,2.82831,4.35623,5.88403e-14,-4.37326e-14,-35.5949,-0.486755,-82.5579,41.5707,10.631,-30.9694,6.90613,7.12502,-4.25357,-23.0311,5.88403e-14,-4.37326e-14,-28.105,13.5597,71.5145,19.4878,-10.124,-23.8176,24.7235,7.12502,2.65354,54.6867,-30.2964,20.9644,11.7818,47.1357,-14.7997,-17.6165,-1.71139,-10.2235,-5.92528,-25.7897,32.189,-20.9693,2.76481,4.85317
-5.91933,18.3526,1.09436,5.57975,66.3207,4.27106,11.335,3.01099,-4.50269,4.88834,3.63544,-3.746,-1.25475,1.87904,-1.81214,-3.92562,3.42621,-2.92985,27.8204,3.66521,9.96912,9.0418,2.7304,4.31701,1.78906e-14,-3.02153e-14,-35.6192,-0.232082,-82.626,42.1352,10.3884,-31.2672,7.35828,7.12502,-4.54117,-22.573,1.78906e-14,-3.02153e-14,-28.133,13.4903,71.534,19.6455,-9.97873,-23.7776,24.7408,7.12502,2.69217,54.7036,-30.74,21.5966,11.4061,45.7272,-14.4789,-16.5927,-1.82086,-10.2126,-5.92235,-25.7588,32.0438,-20.9111,2.44994,5.19216
-5.8787,18.3575,1.10913,5.87453,66.7469,4.38051,11.5064,2.93171,-4.39522,4.95975,3.53738,-3.72056,-1.26864,1.83262,-1.84052,-3.85501,3.30983,-3.1444,27.7951,3.574,9.78449,9.02576,2.64549,4.27948,1.90833e-14,1.90833e-14,-35.6854,0.324517,-82.682,42.6915,9.98141,-31.4708,8.13689,7.12502,-4.73777,-21.7901,1.90833e-14,1.90833e-14,-28.1546,13.8716,71.4619,19.6283,-10.2166,-23.3691,24.3928,7.12502,3.08663,54.3502,-31.1873,22.1758,10.9888,44.3107,-14.1276,-15.4815,-1.90223,-10.202,-6.01689,-25.7398,31.8493,-20.8309,2.19959,5.73035
-5.83489,18.3637,1.13039,6.55583,67.1854,4.95269,11.6442,2.82448,-4.43322,5.05883,3.39358,-3.78809,-1.2369,1.76375,-1.87584,-3.76159,3.21891,-3.10912,27.77,3.52361,9.44111,9.01428,2.58815,4.14598,6.0033e-14,-3.18055e-14,-35.7463,0.846621,-82.8295,43.2533,9.71764,-31.3814,8.8207,7.12502,-4.65146,-21.1082,6.0033e-14,-3.18055e-14,-28.155,14.033,71.3649,19.6426,-10.2042,-23.2532,24.1916,7.12502,3.19859,54.1474,-31.5502,22.7025,10.4227,42.8777,-13.6401,-14.5045,-2.6716,-10.0933,-6.16232,-25.9075,31.6252,-20.8476,1.95679,5.28407
-5.78806,18.3698,1.14809,7.059,67.6842,5.31654,11.7738,2.67191,-4.26332,5.14687,3.21122,-3.88136,-1.20085,1.67871,-2.04834,-3.72433,3.16378,-3.02575,27.8359,3.50147,9.17461,9.04242,2.55975,4.03968,-3.97569e-16,1.51076e-14,-35.8316,1.14731,-82.9702,43.7994,9.55262,-31.6346,9.07579,7.12502,-4.89587,-20.8476,-3.97569e-16,1.51076e-14,-28.2379,13.7198,71.3744,19.8639,-9.78012,-23.3173,24.1128,7.12502,3.13667,54.0695,-31.8766,23.1043,9.94204,41.3875,-13.1165,-13.5959,-3.69812,-9.99403,-6.31128,-25.9852,31.3945,-20.9278,1.71736,4.11218
-5.73798,18.3771,1.16473,6.99096,68.1901,5.03528,11.876,2.52278,-3.89445,5.20535,3.05225,-3.8207,-1.18225,1.60398,-2.1736,-3.6897,3.10737,-3.20478,27.9475,3.48924,9.00533,9.07652,2.52069,4.01555,1.59028e-14,1.98785e-14,-35.9271,1.38401,-82.9369,44.2671,9.34899,-32.1028,9.29416,7.12502,-5.34798,-20.6184,1.59028e-14,1.98785e-14,-28.3905,13.7615,71.431,20.0692,-9.67785,-23.2156,23.8842,7.12502,3.23489,53.8394,-32.177,23.6377,9.67414,39.8589,-12.8124,-12.9082,-4.27349,-9.92019,-6.29379,-25.7741,31.1423,-20.8974,1.37468,3.26251
-5.68705,18.3885,1.18463,6.48216,68.6504,4.41766,12.0641,2.37441,-3.58961,5.30131,2.8859,-3.58817,-1.18475,1.52195,-2.08622,-3.75159,3.08113,-3.60857,28.1665,3.54199,8.86053,9.1559,2.49333,4.05178,3.97569e-16,-5.725e-14,-35.9989,1.89727,-82.8028,44.776,8.93964,-32.2155,9.64581,7.12502,-5.45683,-20.2639,3.97569e-16,-5.725e-14,-28.6066,14.5149,71.4434,20.2105,-10.1461,-23.1911,23.8973,7.12502,3.25852,53.8521,-32.3125,24.1736,9.60643,38.3574,-12.5938,-12.3208,-4.722,-9.66083,-6.18563,-25.4236,30.825,-20.6812,0.833039,3.70822
-5.63526,18.4055,1.20122,5.77963,69.1289,3.6174,12.2747,2.21457,-3.10259,5.40375,2.72551,-3.42179,-1.18154,1.44731,-2.17112,-3.83332,3.0758,-3.81097,28.4028,3.58571,8.78426,9.24964,2.48978,4.07815,-7.55382e-15,-1.59028e-15,-36.0515,2.26739,-82.74,45.231,8.62507,-32.3606,10.0077,7.12502,-5.59688,-19.8984,-7.55382e-15,-1.59028e-15,-28.7817,14.9421,71.4674,20.3991,-10.4617,-23.3552,24.1709,7.12502,3.10003,54.1281,-32.3417,24.5844,9.60904,36.7382,-12.2863,-11.7715,-5.033,-9.43558,-6.15237,-25.0257,30.6291,-20.4165,0.215049,4.67556
-5.57956,18.4312,1.21851,5.40899,69.6785,3.03466,12.3244,2.04756,-2.56268,5.46028,2.56701,-3.37782,-1.1326,1.37605,-2.40759,-3.8495,3.0391,-3.76533,28.6038,3.56146,8.68427,9.33098,2.47739,4.04468,5.56597e-15,1.59028e-15,-36.1003,2.24735,-82.7139,45.5009,8.6014,-32.5489,10.2252,7.12502,-5.77872,-19.676,5.56597e-15,1.59028e-15,-28.9076,14.6696,71.576,20.6491,-10.1601,-23.4624,24.1254,7.12502,2.99658,54.0841,-32.5187,25.1006,9.38692,35.2479,-12.279,-11.5408,-4.46521,-9.2843,-6.29783,-24.7173,30.3237,-20.342,-0.218325,4.58186
-5.52119,18.4088,1.24028,5.72816,70.2947,3.14944,12.2872,1.8739,-2.30612,5.51679,2.37304,-3.3457,-1.05001,1.28359,-2.48966,-3.83032,3.00273,-3.67689,28.7756,3.56032,8.46655,9.3984,2.46699,3.96154,-3.29983e-14,-9.54166e-15,-36.1447,2.20637,-82.6194,45.7439,8.62504,-32.1191,10.5276,7.12502,-5.36373,-19.3845,-3.29983e-14,-9.54166e-15,-29.0478,14.3991,71.7331,20.9121,-9.77984,-23.3729,23.8619,7.12502,3.08298,53.8194,-32.5541,24.6163,9.4711,33.7405,-11.3156,-11.9312,-9.14752,-9.18834,-6.63697,-24.6812,30.046,-20.4494,-0.391285,3.70877
-5.46056,18.4224,1.26417,6.27379,70.8976,3.5051,12.216,1.70011,-2.17806,5.57897,2.16647,-3.29316,-0.95004,1.18268,-2.47576,-3.81142,3.05007,-3.60622,28.951,3.66566,8.30907,9.45751,2.51031,3.91067,-3.61788e-14,-7.95139e-16,-36.1804,2.1922,-82.4915,45.9819,8.70735,-32.3935,10.7129,7.12502,-5.62863,-19.1924,-3.61788e-14,-7.95139e-16,-29.2187,14.235,71.9335,21.2144,-9.51207,-23.205,23.914,7.12502,3.24509,53.8691,-32.685,24.7626,9.02292,32.4364,-11.957,-12.3204,-6.89553,-9.02405,-6.79375,-24.6917,29.6513,-20.297,-0.776876,3.54479
-5.40007,18.4361,1.28996,6.4742,71.5513,3.50377,12.1954,1.51824,-1.90789,5.59849,1.95851,-3.21558,-0.919108,1.08216,-2.51896,-3.83011,3.11377,-3.54599,29.2329,3.76124,8.31293,9.5582,2.56788,3.92445,1.07344e-14,1.66979e-14,-36.3065,2.1591,-82.3942,46.1802,8.76486,-33.6284,10.6194,7.12502,-6.82082,-19.2508,1.07344e-14,1.66979e-14,-29.4212,14.0804,72.1268,21.498,-9.37077,-23.1552,24.1215,7.12502,3.29322,54.0758,-32.7791,24.954,8.76058,31.1844,-12.2939,-13.1379,-5.27583,-8.8733,-6.78296,-24.5247,29.2797,-20.0766,-1.47729,3.94014
-5.34054,18.4492,1.31252,6.97829,72.2915,3.87743,12.263,1.34596,-1.69402,5.60944,1.75423,-3.15658,-0.946636,0.983445,-2.55385,-3.84537,3.10713,-3.48206,29.5395,3.74731,8.36647,9.67414,2.58195,3.94844,3.67752e-14,-3.4191e-14,-36.4621,2.17403,-82.2666,46.3653,8.667,-33.8946,10.7813,7.12502,-7.0778,-19.0804,3.67752e-14,-3.4191e-14,-29.5798,13.9662,72.3057,21.6934,-9.40898,-23.2427,24.3782,7.12502,3.20867,54.3338,-32.8811,24.8584,8.48008,30.2469,-12.3898,-13.9091,-4.46085,-8.59439,-6.87053,-24.4909,28.749,-19.8218,-2.13489,4.12974
-5.278,18.4607,1.33556,7.84558,72.9983,4.66157,12.2996,1.17801,-1.64563,5.65982,1.54253,-3.04866,-0.922763,0.878282,-2.44158,-3.91503,3.12777,-3.647,29.8257,3.77847,8.50597,9.7814,2.60079,4.04695,-2.5842e-14,3.97569e-14,-36.4855,2.23121,-82.0077,46.4204,8.66262,-34.1515,10.7546,7.12502,-7.32577,-19.0985,-2.5842e-14,3.97569e-14,-29.7315,13.8665,72.6068,21.8997,-9.36729,-23.3012,24.5736,7.12502,3.15222,54.53,-32.9042,24.6682,8.15574,29.4061,-12.3263,-14.8309,-4.34523,-8.29716,-7.06472,-24.6093,28.2877,-19.5732,-2.63786,4.34504
-5.21219,18.4715,1.35803,8.1152,73.727,4.73045,12.2113,0.976502,-1.34935,5.68583,1.31381,-2.88502,-0.853617,0.766212,-2.40572,-4.00985,3.17883,-3.77998,30.1068,3.8549,8.61676,9.89047,2.64028,4.13443,-3.61788e-14,3.4191e-14,-36.4996,2.18821,-81.7436,46.3889,8.7246,-34.4909,10.8541,7.12502,-7.65342,-18.9874,-3.61788e-14,3.4191e-14,-29.91,13.6541,72.9813,22.1139,-9.13282,-23.3077,24.2177,7.12502,3.14596,54.1743,-32.9831,24.4307,8.1091,28.6951,-12.2473,-16.0727,-4.93488,-8.11677,-7.34185,-24.4869,27.8704,-19.3534,-3.0204,4.49322
-5.1433,18.4821,1.37884,7.72892,74.4904,4.04894,12.0295,0.773868,-0.754096,5.66307,1.11174,-2.74451,-0.778967,0.671412,-2.56542,-3.98364,3.1727,-3.54572,30.2911,3.84562,8.54265,9.96364,2.65887,4.07668,2.98177e-14,-1.11319e-14,-36.5946,2.02228,-81.5451,46.393,8.56849,-33.9856,11.2867,7.12502,-7.16566,-18.5719,2.98177e-14,-1.11319e-14,-30.0686,13.341,73.2729,22.2706,-8.85908,-23.3242,23.6982,7.12502,3.13,53.655,-33.1087,23.9686,8.33951,28.1175,-12.3431,-16.8918,-4.67008,-8.03984,-7.66021,-24.1434,27.4978,-19.2226,-3.30924,4.12441
-5.07123,18.4935,1.40214,7.51987,75.137,3.61638,11.8533,0.634669,-0.316821,5.6226,0.973609,-2.58043,-0.728135,0.605243,-2.6208,-3.86458,3.15769,-3.41698,30.4257,3.82023,8.53959,9.99646,2.66595,4.05548,2.22639e-14,-1.19271e-14,-36.7425,1.88681,-81.2629,46.3309,8.51776,-33.9401,11.3111,7.12502,-7.12174,-18.549,2.22639e-14,-1.19271e-14,-30.2763,13.178,73.5184,22.3626,-8.77321,-23.2319,23.4379,7.12502,3.21915,53.3933,-33.1521,23.5197,8.52361,27.6312,-12.3509,-17.2033,-3.73381,-7.8988,-8.05922,-23.9181,27.207,-19.1583,-3.46426,3.99843
-4.99682,18.5043,1.4311,7.6657,75.7107,3.59791,11.6739,0.50521,-0.121975,5.57558,0.822143,-2.33759,-0.688598,0.526801,-2.45646,-3.80692,3.20436,-3.70241,30.6526,3.89053,8.73302,10.0504,2.69441,4.19134,-3.97569e-15,6.75868e-15,-36.8708,1.95644,-80.8912,46.1348,8.77173,-34.8631,10.8317,7.12502,-8.01266,-18.9965,-3.97569e-15,6.75868e-15,-30.5653,13.1107,73.8681,22.4559,-8.64218,-23.0324,23.2606,7.12502,3.41178,53.213,-33.127,23.1784,8.59421,27.2348,-12.1141,-17.4143,-3.29623,-7.7164,-8.40936,-23.8202,26.9872,-19.1185,-3.5915,4.1683
-4.92218,18.5081,1.46466,7.49206,76.2918,3.27758,11.5368,0.378339,0.0467288,5.54556,0.672335,-2.02199,-0.654994,0.44825,-2.20339,-3.91433,3.23308,-4.04022,30.9451,3.94722,8.90733,10.1609,2.70935,4.33859,1.80894e-14,4.37326e-15,-36.9361,2.13762,-80.485,45.9486,8.86873,-36.0902,9.94118,7.12502,-9.19688,-19.8383,1.80894e-14,4.37326e-15,-30.818,13.3836,74.2448,22.4976,-8.67113,-22.9596,23.0338,7.12502,3.48212,52.9851,-33.0542,22.9664,8.74051,26.936,-11.9656,-17.7519,-3.21733,-7.54506,-8.52805,-23.6327,26.8145,-19.1149,-3.80333,3.75793
-4.84839,18.5058,1.49823,7.06159,76.8345,2.74502,11.4942,0.352114,0.386443,5.52125,0.672288,-1.83691,-0.656078,0.450334,-2.20219,-4.04185,3.14323,-3.97109,31.148,3.78345,9.06398,10.2719,2.66708,4.38779,1.47101e-14,-1.19271e-15,-37.0839,1.84579,-80.1715,45.8037,8.79933,-36.7004,9.68739,7.12502,-9.78559,-20.0652,1.47101e-14,-1.19271e-15,-30.953,13.452,74.5101,22.4815,-8.81472,-23.1887,23.1234,7.12502,3.26083,53.0782,-32.9203,22.8273,8.9882,26.7427,-11.7604,-18.4202,-3.98045,-7.33844,-8.64999,-23.4043,26.6816,-19.1239,-4.03702,3.55608
-4.77103,18.501,1.53246,6.74619,77.3687,2.47227,11.5211,0.391871,0.834489,5.52276,0.771491,-1.81006,-0.659185,0.507688,-2.43926,-4.05356,2.95665,-3.62682,31.2435,3.43319,9.26092,10.3418,2.57549,4.37859,-2.38542e-15,-7.95139e-15,-37.3056,1.09474,-79.9633,45.5682,8.80091,-36.4887,10.3451,7.12502,-9.58134,-19.417,-2.38542e-15,-7.95139e-15,-31.0098,12.9189,74.6941,22.4594,-8.75947,-23.2797,23.1825,7.12502,3.17304,53.1387,-32.5941,22.6604,9.25282,26.68,-11.4398,-18.7642,-4.42495,-6.95239,-8.91628,-23.2657,26.5702,-19.1372,-4.29224,4.11555
-4.68929,18.4952,1.56946,6.79806,77.9243,2.62539,11.5071,0.331767,0.969568,5.52289,0.708426,-1.61081,-0.655837,0.475704,-2.30066,-3.95349,2.88973,-3.78547,31.3001,3.30491,9.51056,10.3423,2.53133,4.48775,1.10325e-14,9.93923e-16,-37.4702,0.960817,-79.6542,45.2804,8.72833,-36.1847,10.6976,7.12502,-9.28804,-19.0778,1.10325e-14,9.93923e-16,-31.1726,12.9425,74.9262,22.3293,-8.75593,-22.997,22.7497,7.12502,3.44599,52.7016,-32.1722,22.4005,9.44793,26.7676,-10.9596,-18.3809,-4.53072,-6.5059,-9.02734,-23.2222,26.4604,-19.1324,-4.57565,3.90628
-4.6069,18.4914,1.60801,7.50373,78.4342,3.33774,11.3934,0.184086,0.789392,5.451,0.494381,-1.26448,-0.684963,0.358101,-1.81325,-3.69299,2.99833,-4.41472,31.2411,3.47268,9.79688,10.2288,2.5677,4.70269,-3.2054e-14,1.25234e-14,-37.604,1.43523,-79.246,44.9553,8.60254,-35.8782,10.8209,7.12502,-8.99227,-18.9675,-3.2054e-14,1.25234e-14,-31.509,13.1398,75.316,22.2266,-8.26263,-22.733,22.5941,7.12502,3.70095,52.5417,-31.8882,22.0811,9.51308,26.9891,-11.3422,-18.2072,-3.09204,-6.18875,-9.14014,-23.2765,26.3616,-19.1194,-4.78682,3.13067
-4.52425,18.4861,1.64614,8.54552,78.8705,4.34218,11.2524,0.188425,0.727027,5.38901,0.491784,-1.11183,-0.675438,0.351818,-1.61828,-3.59299,2.92434,-4.53873,31.1652,3.33812,9.98888,10.1831,2.51502,4.77634,-1.30204e-14,8.94531e-15,-37.7191,1.06648,-78.87,44.52,8.84027,-35.0877,11.5297,7.12502,-8.22945,-18.29,-1.30204e-14,8.94531e-15,-31.6521,12.7653,75.5868,22.1421,-7.58017,-22.9776,22.6983,7.12502,3.4647,52.6499,-31.6956,21.9143,9.48345,27.3191,-11.0094,-18.5121,-3.69492,-5.92051,-9.47467,-23.386,26.306,-19.1324,-5.00629,3.65852
-4.44042,18.4748,1.68694,9.09787,79.2531,4.88021,11.1296,0.34429,0.893959,5.38689,0.713564,-1.11868,-0.601311,0.465842,-1.74326,-3.80376,2.64093,-4.16521,31.2113,2.85888,10.1297,10.2898,2.36167,4.73654,-1.36913e-14,-2.18663e-15,-37.8323,-0.0296756,-78.5902,44.0565,9.27465,-34.6203,11.7979,7.12502,-7.77829,-18.039,-1.36913e-14,-2.18663e-15,-31.494,12.4831,75.5802,21.8591,-7.53568,-23.8399,22.6406,7.12502,2.63198,52.6041,-31.4408,21.8074,9.5938,27.7049,-11.2376,-18.7027,-3.07743,-5.64887,-9.57609,-23.3909,26.3314,-19.2029,-5.35135,4.64681
-4.35393,18.4572,1.73038,9.57834,79.6287,5.38985,11.0095,0.431314,1.02508,5.36834,0.840076,-1.07755,-0.549434,0.530462,-1.78705,-3.91363,2.42932,-3.89767,31.2346,2.50963,10.2026,10.3558,2.24677,4.69457,-3.11098e-14,5.1684e-15,-37.9652,-0.673196,-78.3433,43.6135,9.17357,-34.8764,11.5321,7.12502,-8.02545,-18.2956,-3.11098e-14,5.1684e-15,-31.4892,12.2613,75.6275,21.6365,-7.57965,-24.6859,22.9951,7.12502,1.81489,52.9671,-31.0319,21.44,9.85942,28.0563,-11.2265,-18.6286,-2.55208,-5.38551,-9.49227,-23.3942,26.4516,-19.3552,-5.68758,5.17133
-4.26446,18.4351,1.77449,10.9333,79.9794,6.75474,10.8239,0.448312,0.933412,5.29676,0.849311,-0.989051,-0.525718,0.530117,-1.6425,-3.91321,2.31042,-3.82437,31.2486,2.33394,10.2089,10.3782,2.1796,4.67153,-2.49351e-14,9.53545e-15,-38.0815,-1.02624,-77.9897,43.0906,8.92008,-34.6958,12.2406,7.12502,-7.85118,-17.5936,-2.49351e-14,9.53545e-15,-31.7583,12.0705,75.7022,21.582,-7.53298,-24.9093,23.3686,7.12502,1.59917,53.3424,-30.604,21.0492,9.99817,28.3578,-11.1468,-18.7856,-2.14906,-5.16109,-9.45589,-23.5498,26.6054,-19.5215,-5.94223,5.7768
-4.17313,18.416,1.82165,11.8018,80.2985,7.62264,10.6311,0.48254,0.926296,5.19322,0.887831,-0.882848,-0.529201,0.54452,-1.53066,-3.89401,2.21517,-3.80078,31.2788,2.18913,10.2606,10.3982,2.12678,4.67689,2.55935e-14,-4.62174e-15,-38.2541,-1.47535,-77.6232,42.5228,9.14945,-34.7372,12.7977,7.12502,-7.89113,-17.035,2.55935e-14,-4.62174e-15,-32.1173,12.2622,75.5556,21.4369,-7.9482,-24.2075,22.7796,7.12502,2.27692,52.7472,-30.2412,20.8318,10.234,28.6874,-10.6764,-19.1346,-3.04766,-4.83098,-9.38497,-23.5969,26.5825,-19.6199,-6.05301,5.51949
-4.08143,18.4052,1.86682,11.8298,80.6484,7.69086,10.5361,0.513938,1.13799,5.07661,0.943996,-0.760785,-0.595479,0.570729,-1.52913,-3.84271,2.10891,-3.80503,31.2901,2.02559,10.3444,10.4051,2.0657,4.69545,2.0773e-14,9.0447e-15,-38.4737,-1.79647,-77.3482,41.9861,9.42717,-35.3445,12.2939,7.12502,-8.47723,-17.5159,2.0773e-14,9.0447e-15,-32.4857,12.1626,75.4981,21.3003,-8.15146,-23.1199,22.0714,7.12502,3.32732,52.0252,-29.8662,20.5426,10.6719,28.9736,-9.97348,-19.5215,-4.11451,-4.39099,-9.30855,-23.5134,26.4548,-19.6025,-6.14529,4.64984
-3.98881,18.4216,1.90635,12.869,80.9322,8.82483,10.5162,0.529359,1.21348,4.97628,0.968129,-0.686559,-0.688153,0.579863,-1.49811,-3.83101,2.03025,-3.8318,31.309,1.91208,10.3893,10.4188,2.02019,4.70926,-6.01324e-15,1.17283e-14,-38.5999,-2.0342,-77.0968,41.3867,9.5518,-35.493,11.7754,7.12502,-8.62052,-18.0286,-6.01324e-15,1.17283e-14,-32.829,12.048,75.4876,21.2183,-8.00717,-22.7607,22.0267,7.12502,3.67417,51.9747,-29.7907,20.76,10.6089,29.2794,-9.68045,-20.2244,-2.42908,-3.83478,-9.28824,-23.6472,26.2084,-19.4076,-6.31451,4.94396
-3.89655,18.4265,1.9457,13.9685,81.1385,10.0308,10.473,0.575121,1.27869,4.89514,1.03157,-0.636012,-0.746419,0.609355,-1.48947,-3.73658,1.9321,-3.75083,31.2662,1.77388,10.3668,10.3984,1.96606,4.67079,-1.16786e-14,-7.55382e-15,-38.6856,-2.3614,-76.8794,40.7235,9.71008,-35.5316,11.4695,7.12502,-8.65781,-18.333,-1.16786e-14,-7.55382e-15,-33.171,12.5927,75.1604,21.0318,-8.48536,-22.7494,21.7943,7.12502,3.6851,51.7422,-29.6624,20.7473,10.6349,29.5764,-9.25392,-20.425,-1.02861,-3.26307,-9.45182,-23.8359,25.9842,-19.2343,-6.24292,5.37593
-3.80443,18.4337,1.9889,14.1788,81.356,10.2855,10.3484,0.642927,1.38722,4.82096,1.12812,-0.494991,-0.753037,0.655164,-1.41356,-3.64217,1.7995,-3.64207,31.2109,1.60677,10.2496,10.3781,1.89081,4.58945,-9.44227e-15,-1.05356e-14,-38.713,-2.59418,-76.6582,40.0298,9.82903,-35.7629,11.3225,7.12502,-8.88104,-18.4706,-9.44227e-15,-1.05356e-14,-33.5376,13.2368,74.8099,20.873,-9.03199,-22.6533,21.384,7.12502,3.77791,51.3303,-29.4928,20.7688,10.7833,29.9195,-9.55643,-20.0705,0.733328,-2.79859,-9.71303,-23.8654,25.8425,-19.0807,-5.91226,4.89818
-3.71427,18.4336,2.03339,14.6535,81.5571,10.7952,10.2525,0.66734,1.42568,4.76057,1.16225,-0.337229,-0.764916,0.669145,-1.27461,-3.60426,1.76433,-3.63715,31.1052,1.59261,10.1077,10.3346,1.86793,4.52807,-1.90833e-14,1.31198e-14,-38.5635,-2.91568,-76.3497,39.1885,10.062,-35.8461,11.5708,7.12502,-8.96131,-18.2189,-1.90833e-14,1.31198e-14,-33.9071,13.6689,74.6328,20.8368,-8.87719,-23.0214,21.5023,7.12502,3.42245,51.4545,-29.3185,20.8158,10.9097,30.2511,-9.50416,-19.8342,0.634398,-2.49609,-9.99335,-23.9098,25.9836,-18.9186,-5.73178,5.50203
-3.62713,18.4284,2.07583,14.5477,81.7241,10.7663,10.2839,0.676979,1.60615,4.68521,1.19251,-0.181008,-0.858925,0.682597,-1.21932,-3.50964,1.7496,-3.76344,30.9257,1.59297,10.0846,10.2462,1.84712,4.52881,-3.37934e-15,1.47101e-14,-38.375,-3.47597,-75.9281,38.2431,10.4522,-35.3602,11.9457,7.12502,-8.49242,-17.8635,-3.37934e-15,1.47101e-14,-34.2881,14.1652,74.4194,20.7339,-8.68738,-23.4757,21.7801,7.12502,2.98369,51.7389,-29.0697,20.6832,11.2325,30.6327,-9.06962,-19.8134,0.0795468,-2.25773,-10.0593,-23.8519,26.331,-18.7941,-5.77995,6.52319
-3.54128,18.4215,2.10665,14.562,81.838,10.7277,10.2126,0.71654,1.88924,4.56634,1.26769,-0.0451773,-0.937516,0.718465,-1.24613,-3.48169,1.67175,-3.87475,30.8244,1.49797,10.081,10.2089,1.7899,4.53319,-2.87244e-14,5.56597e-15,-38.2367,-4.01063,-75.4826,37.3589,10.7907,-34.8767,11.7404,7.12502,-8.0258,-18.0872,-2.87244e-14,5.56597e-15,-34.7253,14.7755,74.1023,20.6358,-8.76503,-23.5215,21.9108,7.12502,2.93952,51.8703,-28.9058,20.0499,11.5799,30.916,-8.66166,-19.6522,-0.193565,-2.35243,-9.70681,-23.7922,26.9431,-18.7786,-5.79823,5.04307
-3.45279,18.4178,2.13128,13.9089,81.9736,9.88183,9.95606,0.729839,2.43607,4.45245,1.32527,0.0405472,-0.902085,0.74978,-1.46699,-3.57199,1.62176,-3.87529,30.7865,1.43173,10.0579,10.2185,1.7584,4.51982,3.37934e-15,-5.1684e-15,-37.9773,-4.56517,-75.1908,36.4088,11.2968,-35.2023,11.0429,7.12502,-8.34002,-18.7725,3.37934e-15,-5.1684e-15,-35.1721,15.2525,73.7218,20.6818,-8.59709,-23.4843,22.0383,7.12502,2.97541,51.9973,-28.8013,19.4088,11.9583,31.0503,-8.62456,-19.2834,-0.274448,-2.73158,-9.25991,-23.5735,27.803,-18.7779,-5.90306,2.66389
-3.35908,18.4186,2.17685,7.30719,82.1927,3.36842,9.9164,0.709947,3.49306,4.45548,1.40121,0.39392,-0.854935,0.799151,-1.70196,-3.58564,1.59343,-3.8733,30.6671,1.40442,9.99318,10.1797,1.7368,4.48696,-6.95746e-15,4.37326e-15,-37.646,-5.08457,-74.9285,35.436,11.9272,-35.6002,10.6555,7.12502,-8.72396,-19.1442,-6.95746e-15,4.37326e-15,-35.6182,15.7766,73.3307,20.6756,-8.40972,-23.5044,22.1574,7.12502,2.95596,52.1167,-28.2017,19.5179,13.2753,31.0843,-8.96496,-19.114,-0.203002,-2.74962,-8.95815,-22.4286,28.7951,-18.74,-6.45929,2.64537
-3.26566,18.4192,2.22959,-1.83487,82.3029,-5.44651,10.1015,0.715284,4.69268,4.51658,1.54323,0.857535,-0.861857,0.885667,-1.91248,-3.45297,1.49178,-3.76065,30.4315,1.28545,9.82894,10.0803,1.67118,4.3808,-8.34896e-15,-7.55382e-15,-37.4949,-5.51686,-74.6114,34.7029,12.2215,-35.4254,10.7511,7.12502,-8.55532,-19.0555,-8.34896e-15,-7.55382e-15,-36.0385,16.1668,73.0053,20.6029,-8.27741,-23.3984,22.3069,7.12502,3.05836,52.2647,-27.2877,19.8444,14.9797,31.087,-9.41506,-19.09,0.114137,-2.50888,-8.79308,-20.954,29.8454,-18.596,-7.31454,4.32705
-3.1793,18.4174,2.27045,-5.22843,82.3864,-8.64533,10.207,0.750692,5.33941,4.51823,1.66341,1.00615,-0.892761,0.9534,-2.13539,-3.30437,1.36032,-3.5356,30.128,1.10309,9.69214,9.95887,1.58976,4.25637,2.98177e-15,3.18055e-15,-37.4504,-5.97593,-74.417,34.126,12.3446,-35.0948,10.9317,7.12502,-8.2363,-18.8877,2.98177e-15,3.18055e-15,-36.4344,16.4755,72.5926,20.5848,-8.18313,-23.346,22.6069,7.12502,3.10898,52.5639,-26.7084,19.8609,15.7354,31.1786,-9.66485,-19.0729,0.283038,-2.52767,-8.60092,-20.3494,30.8841,-18.3088,-7.97561,4.8967
-3.09814,18.4151,2.31069,-5.08388,82.5094,-8.39694,10.2578,0.769134,5.44342,4.50566,1.70434,1.08574,-0.929555,0.97374,-2.11681,-3.21474,1.29094,-3.46542,29.7797,1.00746,9.61686,9.82223,1.53437,4.18809,-4.57205e-14,-7.95139e-16,-37.3352,-6.27475,-74.2785,33.6219,12.5162,-35.0533,10.8424,7.12502,-8.19623,-18.9786,-4.57205e-14,-7.95139e-16,-36.8948,17.0521,72.1389,20.5819,-8.1285,-23.533,22.8227,7.12502,2.92832,52.7823,-26.3761,19.7853,15.9254,31.3908,-9.91549,-19.0592,0.112413,-2.75568,-8.25248,-20.2345,31.9337,-17.8934,-8.41721,3.89849
-3.01867,18.4177,2.35133,-4.08733,82.6763,-7.30318,10.308,0.819654,5.36397,4.48524,1.77142,1.20299,-0.98006,1.00395,-1.95949,-3.20365,1.18662,-3.47534,29.5076,0.889788,9.47449,9.73111,1.45602,4.11465,-2.72335e-14,-1.03368e-14,-37.2409,-6.56901,-74.0424,33.1972,12.8328,-35.3393,10.1876,7.12502,-8.47226,-19.6224,-2.72335e-14,-1.03368e-14,-37.2825,17.1441,72.0382,20.5685,-7.61758,-23.6569,22.934,7.12502,2.80869,52.8952,-26.1213,19.6898,15.94,31.7317,-10.6426,-18.8459,0.923397,-3.0521,-7.91559,-20.193,33.0052,-17.2337,-9.00052,3.49305
-2.94006,18.4108,2.39109,-3.15385,82.8886,-6.31346,10.295,0.865647,5.34563,4.44756,1.83285,1.29337,-1.01162,1.03198,-1.86233,-3.29534,1.01932,-3.41703,29.3884,0.698108,9.24444,9.72375,1.34768,4.0023,-3.97569e-16,3.97569e-15,-37.1834,-7.0104,-73.7402,32.8098,13.3329,-35.4684,9.59797,7.12502,-8.59683,-20.207,-3.97569e-16,3.97569e-15,-37.6323,17.0885,72.0012,20.5374,-7.17985,-23.6687,22.9766,7.12502,2.79731,52.938,-25.9152,19.1936,16.1367,32.0541,-10.4459,-18.7754,-1.10224,-3.47434,-7.65389,-20.0816,34.2148,-16.3605,-9.84103,3.89598
-2.85713,18.4081,2.43447,-5.50188,83.0747,-8.58185,10.2448,0.834945,5.63493,4.44738,1.82471,1.51694,-0.98217,1.03181,-1.79008,-3.42797,0.900734,-3.38043,29.2657,0.558374,9.07677,9.71737,1.26638,3.92065,-3.67752e-14,-2.22639e-14,-37.0908,-7.12843,-73.516,32.5652,13.5959,-35.2002,9.5833,7.12502,-8.338,-20.2321,-3.67752e-14,-2.22639e-14,-38.0763,17.3661,71.8131,20.5118,-7.14706,-23.7353,22.9042,7.12502,2.73304,52.8665,-25.5768,19.0165,16.744,32.347,-10.6649,-18.9091,-1.33333,-3.90595,-7.41653,-19.5155,35.5701,-15.4879,-10.6528,3.89578
-2.77282,18.4064,2.47831,-8.51595,83.2538,-11.4247,10.3024,0.831563,5.95775,4.44645,1.8657,1.74791,-1.00792,1.0557,-1.73665,-3.4312,0.791317,-3.24872,29.0322,0.412182,8.95226,9.64611,1.19341,3.82973,-3.57812e-15,5.56597e-15,-37.1505,-7.03106,-73.378,32.5122,13.5289,-35.0625,9.31233,7.12502,-8.20508,-20.5084,-3.57812e-15,5.56597e-15,-38.4599,16.9054,71.9062,20.5562,-6.71935,-23.6714,22.9806,7.12502,2.79474,52.9421,-25.0816,18.9424,17.4077,32.592,-11.1751,-19.0268,-0.718121,-4.31117,-7.17821,-18.9181,37.0675,-14.643,-11.2985,3.62327
-2.69253,18.4013,2.51769,-8.75664,83.5282,-11.534,10.3786,0.858065,6.03754,4.39318,1.92019,1.8487,-1.10188,1.0798,-1.68545,-3.34954,0.639031,-3.08846,28.7801,0.205672,8.83188,9.55635,1.09562,3.72884,1.21259e-14,3.10104e-14,-37.2549,-6.97757,-73.2459,32.3837,13.3171,-34.9861,8.76327,7.12502,-8.13134,-21.0603,1.21259e-14,3.10104e-14,-38.8237,16.2475,72.0455,20.6118,-6.24119,-23.5393,23.068,7.12502,2.92224,53.0277,-24.677,18.6263,17.674,32.8257,-11.558,-18.9927,-1.05098,-4.89938,-6.76444,-18.6797,38.6654,-13.6437,-11.9057,2.64149
-2.61196,18.3958,2.55496,-8.94222,83.7931,-11.6527,10.3698,0.86322,6.1411,4.34103,1.94334,1.98961,-1.15102,1.08951,-1.60027,-3.34523,0.470326,-3.11079,28.5907,-0.000914454,8.70002,9.50263,0.97878,3.66054,2.64384e-14,6.36111e-15,-37.1882,-6.79928,-73.1086,32.1683,13.1272,-34.5775,8.69763,7.12502,-7.73698,-21.1408,2.64384e-14,6.36111e-15,-39.2921,16.4068,71.8737,20.6098,-6.52945,-23.3712,22.8538,7.12502,3.08461,52.8112,-24.3638,18.2405,17.9084,33.0433,-11.8589,-18.8595,-1.6789,-5.65051,-6.25753,-18.3927,40.3721,-12.4054,-12.6702,2.16388
-2.52836,18.3939,2.59405,-12.2681,83.9282,-14.8303,10.4243,0.851392,6.55256,4.32984,1.9856,2.24329,-1.1829,1.11468,-1.57241,-3.44139,0.306603,-3.17048,28.4863,-0.188738,8.53079,9.49741,0.865877,3.59231,-1.82882e-14,-1.03368e-14,-37.1262,-6.5882,-72.9836,32.1742,13.0789,-34.0098,9.03952,7.12502,-7.189,-20.8184,-1.82882e-14,-1.03368e-14,-39.7813,16.7978,71.6127,20.5808,-7.13805,-23.2512,22.5087,7.12502,3.20047,52.4644,-23.914,17.9965,18.5409,33.2474,-12.2248,-18.7532,-1.38314,-6.34552,-5.83127,-17.6982,42.1977,-10.8434,-13.501,3.46924
-2.44933,18.3906,2.63475,-16.0876,84.0275,-18.503,10.5079,0.820268,6.99472,4.32118,2.00799,2.45293,-1.22641,1.13032,-1.60549,-3.55528,0.188887,-3.12061,28.3973,-0.340051,8.42206,9.49846,0.788174,3.53002,1.09332e-14,1.98785e-14,-37.1045,-6.41524,-72.9969,32.3328,13.1661,-33.8852,8.89441,7.12502,-7.06878,-20.9676,1.09332e-14,1.98785e-14,-40.219,16.9353,71.4004,20.5921,-7.54861,-23.3136,22.4671,7.12502,3.14025,52.4237,-23.4605,17.7054,19.2406,33.4265,-12.5016,-18.7619,-1.80311,-7.14327,-5.32228,-16.9348,44.1391,-9.09295,-14.1111,4.13556
-2.37603,18.3844,2.67167,-18.021,84.1891,-20.3737,10.5699,0.797085,7.23066,4.25995,2.01692,2.59757,-1.3198,1.13306,-1.59014,-3.60978,0.0886058,-3.06007,28.2962,-0.467524,8.31805,9.48186,0.722421,3.46828,-2.46493e-14,-4.92986e-14,-37.0906,-6.16391,-73.0115,32.5088,12.9942,-33.8696,8.53879,7.12502,-7.05366,-21.3237,-2.46493e-14,-4.92986e-14,-40.6771,16.956,71.192,20.6252,-8.02062,-23.2031,22.5683,7.12502,3.24701,52.5233,-23.152,17.3653,19.6522,33.5959,-12.7281,-18.7829,-4.26144,-8.15965,-4.73514,-16.4519,46.1544,-7.37412,-14.4605,3.01325
-2.30362,18.379,2.70627,-19.39,84.3366,-21.6765,10.6058,0.803533,7.27449,4.22074,2.0478,2.84561,-1.38609,1.1465,-1.36196,-3.67166,-0.0251029,-3.16725,28.1721,-0.586345,8.18019,9.45724,0.638391,3.4239,-7.95139e-16,-1.11319e-14,-37.0193,-5.7428,-72.8152,32.7455,12.6125,-33.6209,8.49044,7.12502,-6.81361,-21.3799,-7.95139e-16,-1.11319e-14,-41.1383,17.1769,71.0778,20.6005,-8.8218,-22.952,22.4849,7.12502,3.48944,52.4361,-22.8583,17.0803,19.9672,33.7879,-13.0332,-18.7132,-5.87434,-9.23587,-4.20047,-16.0883,48.1964,-5.63097,-14.5795,1.58985
-2.2333,18.3742,2.74013,-21.1504,84.4761,-23.3389,10.587,0.824689,7.38831,4.25613,2.09602,3.05187,-1.33876,1.17554,-1.21482,-3.79692,-0.149282,-3.19551,28.0354,-0.758153,8.15713,9.44368,0.550234,3.402,3.18055e-14,1.27222e-14,-36.9189,-5.61433,-72.6568,33.0257,12.8599,-33.1626,8.10944,7.12502,-6.37115,-21.7747,3.18055e-14,1.27222e-14,-41.38,17.2434,71.081,20.5174,-9.4586,-22.7062,22.2733,7.12502,3.72682,52.2204,-22.5424,16.8187,20.2829,33.997,-13.5332,-18.5547,-4.49453,-10.3406,-3.56849,-15.6831,50.2374,-3.67812,-14.5633,0.16335
-2.16602,18.3706,2.76628,-22.5338,84.6011,-24.621,10.6479,0.815839,7.74248,4.26659,2.12938,3.07032,-1.34447,1.19681,-1.39681,-3.94055,-0.250231,-2.9922,27.9627,-0.943667,8.21328,9.45773,0.490969,3.36888,-7.15625e-15,7.95139e-15,-36.8842,-5.8027,-72.7007,33.3205,13.4073,-32.7528,7.76387,7.12502,-5.97558,-22.1319,-7.15625e-15,7.95139e-15,-41.4697,16.6858,71.1933,20.4466,-9.36049,-22.4855,22.1628,7.12502,3.93992,52.1061,-22.2695,16.5165,20.5083,34.2326,-14.0948,-18.2811,-2.73777,-11.475,-2.85847,-15.3511,52.2367,-1.52467,-14.5287,-1.24989
-2.09904,18.3663,2.79256,-23.1595,84.6107,-25.0898,10.8292,0.818383,8.02008,4.26172,2.18553,3.10799,-1.43398,1.22541,-1.52267,-4.03426,-0.328335,-2.82364,27.8882,-1.07348,8.18877,9.45759,0.44454,3.31734,2.90226e-14,2.54444e-14,-36.8141,-5.72324,-72.7645,33.6382,13.4198,-33.0889,7.85284,7.12502,-6.30008,-22.0335,2.90226e-14,2.54444e-14,-41.6743,16.2655,71.2223,20.3893,-9.37161,-22.5087,22.326,7.12502,3.9175,52.2697,-21.9406,16.1369,20.7595,34.4343,-14.3557,-17.9725,-2.65532,-12.5065,-2.28242,-15.0888,54.224,0.885076,-14.3727,-0.815981
-2.03269,18.3725,2.82181,-24.3364,84.5715,-26.0932,11.0133,0.835454,8.20653,4.2693,2.25811,3.2505,-1.51871,1.26221,-1.49082,-4.09101,-0.411283,-2.71506,27.8192,-1.1806,8.07607,9.45057,0.392882,3.24693,1.98785e-15,2.38542e-14,-36.69,-5.49372,-72.6733,33.98,12.961,-33.088,8.18386,7.12502,-6.29914,-21.7025,1.98785e-15,2.38542e-14,-41.9903,16.5263,70.9912,20.2962,-10.0837,-22.574,22.4546,7.12502,3.85445,52.3995,-21.5488,16.2059,20.9464,34.6122,-15.475,-17.3926,0.702181,-13.4969,-1.83698,-14.7646,56.1672,3.38513,-14.021,0.552936
-1.97087,18.3698,2.84443,-26.331,84.5683,-27.9849,11.1333,0.786095,8.48142,4.25411,2.24926,3.42344,-1.59645,1.25895,-1.46535,-4.11,-0.428629,-2.60044,27.8095,-1.18717,7.93138,9.45083,0.386617,3.17485,-1.63003e-14,-3.97569e-14,-36.4933,-5.31597,-72.4914,34.2765,12.5464,-32.3495,8.66437,7.12502,-5.58621,-21.242,-1.63003e-14,-3.97569e-14,-42.3596,16.9036,70.7768,20.2389,-10.6653,-22.6307,22.4246,7.12502,3.79975,52.3705,-21.2256,15.8799,21.3011,34.7159,-15.7638,-17.107,0.633923,-14.6737,-1.45408,-14.4389,58.1399,5.48259,-13.6428,0.818639
-1.90917,18.3652,2.86269,-28.6392,84.5048,-30.191,11.2257,0.730007,8.86855,4.256,2.24175,3.60186,-1.63627,1.25948,-1.49459,-4.11044,-0.424438,-2.53019,27.7998,-1.16688,7.82853,9.44587,0.392414,3.1276,-4.77083e-15,4.77083e-15,-36.2581,-4.99684,-72.4238,34.5574,12.3699,-32.1024,8.72447,7.12502,-5.34756,-21.1881,-4.77083e-15,4.77083e-15,-42.7029,17.1967,70.6551,20.2002,-10.9658,-23.0685,22.4891,7.12502,3.37697,52.4421,-20.8997,15.5791,21.7226,34.8012,-15.9085,-16.9732,-0.159681,-15.8666,-1.03115,-14.1167,60.0956,6.88088,-13.2212,0.786682
-1.84942,18.363,2.88165,-30.3155,84.3675,-31.7331,11.3691,0.765025,9.23604,4.28535,2.3569,3.75126,-1.66337,1.32202,-1.55802,-4.17449,-0.505957,-2.44396,27.7863,-1.29059,7.81588,9.46096,0.343971,3.09731,-2.90226e-14,-5.725e-14,-36.0627,-4.72878,-72.4056,34.8614,12.3051,-32.2892,8.50627,7.12502,-5.52792,-21.4016,-2.90226e-14,-5.725e-14,-42.9077,17.3665,70.5946,20.1534,-11.1901,-23.2603,22.4961,7.12502,3.19173,52.452,-20.5409,15.5433,22.1076,34.867,-16.1505,-16.9485,-0.155599,-16.98,-0.501967,-13.7873,62.0125,7.60572,-12.6059,0.440956
-1.79377,18.3603,2.90473,-29.3558,84.254,-30.6496,11.5661,0.89824,9.31891,4.29352,2.57202,3.82069,-1.74194,1.42747,-1.56247,-4.2654,-0.62676,-2.33433,27.8581,-1.48449,7.86452,9.51646,0.276629,3.08172,-1.63003e-14,-9.54166e-15,-35.8923,-4.69742,-72.3102,35.1366,12.3426,-32.2333,8.66402,7.12502,-5.47395,-21.2453,-1.63003e-14,-9.54166e-15,-43.02,17.225,70.642,20.0965,-11.3293,-22.8616,22.3322,7.12502,3.57674,52.2819,-20.272,15.6018,22.2418,34.9824,-16.3411,-16.9091,-0.243363,-18.0805,0.120335,-13.7057,63.8577,7.78182,-12.1308,-1.69714
-1.73686,18.3585,2.92662,-26.6266,84.1597,-27.8371,11.6926,1.03713,9.29213,4.30401,2.76723,3.82058,-1.78323,1.52252,-1.57517,-4.3534,-0.703837,-2.28875,27.9978,-1.61198,7.93029,9.59214,0.237803,3.0916,-2.46493e-14,-3.97569e-14,-35.6767,-4.69413,-72.2151,35.3853,12.4342,-31.8817,9.17319,7.12502,-5.1345,-20.7446,-2.46493e-14,-3.97569e-14,-43.1073,17.031,70.6949,19.9982,-11.5187,-22.72,22.3852,7.12502,3.7135,52.3326,-20.1035,15.6556,22.1462,35.1748,-16.6621,-16.7221,0.290612,-19.2137,0.841783,-13.8962,65.5946,7.35985,-11.9764,-4.63741
-1.68232,18.3563,2.93984,-24.8619,84.0914,-26.0236,11.7763,1.07068,9.49757,4.32282,2.84273,3.77853,-1.78836,1.56203,-1.74342,-4.35233,-0.724459,-2.23212,28.0258,-1.65724,7.97514,9.60505,0.229731,3.09472,1.15295e-14,2.22639e-14,-35.3626,-4.7347,-72.1719,35.6363,12.5079,-31.2943,9.79127,7.12502,-4.56735,-20.1395,1.15295e-14,2.22639e-14,-43.188,16.9456,70.6974,19.9352,-11.5676,-22.8148,22.4847,7.12502,3.6219,52.4337,-19.9923,15.8312,22.0747,35.4312,-17.0518,-16.7036,1.02512,-20.4012,1.5317,-14.0796,67.2255,6.69685,-11.7419,-6.04001
-1.63057,18.3507,2.94811,-23.0864,83.9918,-24.1239,11.9474,1.07784,9.63723,4.35909,2.88962,3.76953,-1.83062,1.58659,-1.84057,-4.27048,-0.742582,-2.08042,27.9968,-1.67578,7.87401,9.57903,0.224956,3.02911,3.57812e-15,-7.31528e-14,-35.0136,-4.67999,-72.1152,35.95,12.4392,-31.3338,9.2275,7.12502,-4.60551,-20.7024,3.57812e-15,-7.31528e-14,-43.3127,17.0155,70.6718,19.8791,-11.5064,-22.4991,22.6757,7.12502,3.92677,52.6193,-19.8262,16.0859,22.0352,35.7112,-17.29,-16.8394,0.67253,-21.4911,2.27595,-14.2859,68.7593,6.03201,-11.7727,-6.03279
-1.57385,18.3474,2.95691,-19.9906,83.8243,-20.8388,12.084,1.15729,9.48717,4.45376,2.99244,3.81471,-1.80624,1.64152,-1.72629,-4.32179,-0.778678,-1.91864,28.1191,-1.70833,7.70718,9.63376,0.214989,2.94324,-2.0276e-14,-2.06736e-14,-34.6613,-4.44767,-72.0133,36.3005,12.234,-31.8668,8.24268,7.12502,-5.12015,-21.6755,-2.0276e-14,-2.06736e-14,-43.4283,17.3137,70.6196,19.7462,-11.6257,-21.7526,23.12,7.12502,4.64762,53.0491,-19.5938,16.0578,21.9125,35.9811,-17.3967,-16.7222,-0.11721,-22.4545,3.20334,-14.6455,70.2035,5.25591,-12.276,-6.2233
-1.52133,18.3466,2.96398,-16.8507,83.6996,-17.5588,12.2185,1.2086,9.34565,4.52023,3.05919,3.84587,-1.81322,1.67602,-1.62781,-4.40968,-0.759781,-1.86412,28.3318,-1.6782,7.66231,9.72587,0.239708,2.92853,-2.78299e-15,-9.54166e-15,-34.2835,-4.25987,-71.8938,36.5762,12.2306,-31.9447,8.4717,7.12502,-5.19533,-21.4446,-2.78299e-15,-9.54166e-15,-43.5434,17.6,70.5988,19.637,-11.8124,-21.3028,23.2784,7.12502,5.08197,53.1975,-19.4466,15.9146,21.725,36.3001,-17.5456,-16.5491,-0.514658,-23.5009,4.01254,-15.0402,71.5808,4.68947,-12.6845,-5.60444
-1.48398,18.3362,2.9641,-13.6792,83.5261,-14.4598,12.376,1.23093,9.33794,4.47405,3.1087,3.83273,-1.94282,1.69296,-1.6511,-4.43303,-0.701761,-1.86992,28.5447,-1.58883,7.64375,9.80279,0.287332,2.93898,3.49861e-14,4.29375e-14,-33.8648,-4.23924,-71.7204,36.82,12.4519,-31.7534,8.69745,7.12502,-5.0106,-21.2233,3.49861e-14,4.29375e-14,-43.7212,17.7787,70.659,19.6411,-11.8712,-21.3359,23.2246,7.12502,5.05006,53.1444,-19.582,15.9029,21.5006,36.61,-17.6059,-16.6932,-1.13458,-24.9087,4.88068,-15.4524,72.9529,4.19369,-12.6231,-5.17712
-1.45101,18.3248,2.95917,-7.005,83.3431,-8.20555,12.2255,1.33796,8.99875,4.34701,3.17989,3.67787,-1.99907,1.71477,-1.63283,-4.45431,-0.689529,-1.80342,28.6835,-1.55453,7.53939,9.85506,0.304587,2.89831,-4.37326e-15,-2.38542e-14,-33.441,-4.32946,-71.5665,37.1351,12.59,-31.6822,8.52603,7.12502,-4.94189,-21.3963,-4.37326e-15,-2.38542e-14,-43.8501,17.9059,70.7486,19.6703,-11.8766,-21.378,23.0766,7.12502,5.00936,52.9974,-20.2081,15.9478,20.7172,36.9827,-17.7869,-16.8007,-1.40656,-26.7327,5.9092,-16.4295,74.174,3.55365,-12.4718,-7.59566
-1.40875,18.3202,2.95887,-8.34994,83.1652,-9.65348,12.2497,1.29998,9.47301,4.34348,3.19799,3.77882,-1.9916,1.72834,-1.79101,-4.43897,-0.685413,-1.71686,28.738,-1.52277,7.38708,9.86926,0.313742,2.83342,4.09496e-14,3.49861e-14,-33.0607,-4.2445,-71.5066,37.5413,12.4322,-32.2125,8.12344,7.12502,-5.45395,-21.7864,4.09496e-14,3.49861e-14,-43.8864,17.9175,70.9035,19.6786,-11.9355,-21.4635,23.0422,7.12502,4.92678,52.9649,-20.3471,16.1562,20.9234,37.3166,-18.2454,-16.7283,-0.584319,-28.1217,6.86189,-16.3557,75.2996,3.24061,-13.188,-8.35359
-1.36079,18.3234,2.95976,-5.07528,83.1739,-6.30912,12.3236,1.28192,9.36428,4.38897,3.16657,3.75177,-1.99185,1.71374,-1.75752,-4.39852,-0.68421,-1.67361,28.7963,-1.49724,7.27822,9.88076,0.320735,2.7912,-6.36111e-15,2.22639e-14,-32.752,-4.0604,-71.4146,38.022,12.0686,-32.7247,7.58639,7.12502,-5.94844,-22.3101,-6.36111e-15,2.22639e-14,-43.9189,17.9473,71.0647,19.685,-12.2422,-21.5572,23.0792,7.12502,4.83633,53.0041,-20.3115,16.1376,20.5013,37.6631,-18.4993,-16.5388,-0.595604,-29.2265,7.55684,-17.0056,76.152,2.9931,-13.7989,-7.78733
-1.3145,18.3212,2.95989,-1.7012,83.1323,-2.74661,12.5459,1.30466,9.2508,4.45523,3.20708,3.72572,-2.04447,1.73386,-1.73504,-4.35301,-0.738853,-1.64655,28.861,-1.55899,7.2241,9.89891,0.293196,2.7637,-3.1408e-14,2.06736e-14,-32.5114,-4.12742,-71.175,38.5307,11.7766,-32.8026,7.2784,7.12502,-6.02368,-22.616,-3.1408e-14,2.06736e-14,-43.9094,17.957,71.2682,19.6782,-12.5908,-21.4939,22.9602,7.12502,4.89749,52.8836,-20.1103,16.1498,20.1201,37.9615,-18.572,-16.5854,-1.56358,-30.2484,8.25836,-17.7117,76.8886,2.55506,-14.0719,-8.84643
-1.26687,18.3283,2.95778,0.408671,83.0286,-0.455802,12.7712,1.31823,9.28914,4.51976,3.25608,3.71601,-2.09128,1.75974,-1.78026,-4.36645,-0.791276,-1.65762,28.9879,-1.62724,7.22391,9.95216,0.267178,2.764,3.02153e-14,3.02153e-14,-32.2811,-4.24939,-70.9869,39.0485,11.4673,-32.6339,7.25634,7.12502,-5.86077,-22.6426,3.02153e-14,3.02153e-14,-43.842,17.8147,71.5349,19.6876,-12.6721,-21.4493,23.023,7.12502,4.9405,52.9454,-19.8944,16.4142,19.8717,38.2507,-18.8374,-16.7012,-2.01135,-31.1955,8.97228,-18.2462,77.4586,2.36636,-14.3846,-10.5004
-1.21631,18.336,2.95669,3.65879,82.9627,3.02184,12.9837,1.3042,9.17899,4.60648,3.24334,3.64808,-2.11894,1.75535,-1.79571,-4.35661,-0.805039,-1.89861,29.0084,-1.697,7.56637,9.96481,0.247873,2.92354,-4.05521e-14,-4.45278e-14,-32.0257,-4.23249,-70.9237,39.5201,11.0545,-32.6102,7.20795,7.12502,-5.83792,-22.6916,-4.05521e-14,-4.45278e-14,-43.7505,17.5441,71.8473,19.7166,-12.799,-21.5047,23.1087,7.12502,4.88705,53.0323,-19.5901,16.5872,19.4519,38.4922,-19.2852,-16.6069,-1.70102,-31.9952,9.69539,-18.9483,77.8873,2.41609,-14.9184,-12.5902
-1.16647,18.3348,2.95699,8.20875,82.9589,7.85337,13.2016,1.27588,8.88105,4.71966,3.18739,3.58654,-2.13741,1.72983,-1.6948,-4.23905,-0.811704,-2.421,28.8268,-1.79781,8.23363,9.88731,0.210005,3.23857,2.3059e-14,-7.95139e-15,-31.7576,-4.1237,-70.7998,40.0096,10.5489,-32.9593,6.7292,7.12502,-6.17491,-23.1608,2.3059e-14,-7.95139e-15,-43.6103,17.1311,72.3583,19.7628,-13.0304,-21.4261,23.0713,7.12502,4.96289,52.9932,-19.1851,16.5759,18.8864,38.6739,-19.5174,-16.5733,-2.04931,-32.7582,10.3698,-19.8267,78.2235,2.65408,-15.6199,-12.7812
-1.11827,18.3364,2.95388,10.8356,82.8841,10.6299,13.3124,1.25155,8.81486,4.81907,3.15721,3.58535,-2.09912,1.72052,-1.65733,-4.18202,-0.822041,-2.71401,28.7301,-1.85161,8.55708,9.84745,0.184458,3.39756,-7.95139e-16,-5.24792e-14,-31.481,-3.99862,-70.6677,40.6112,10.2638,-33.2134,5.86601,7.12502,-6.42026,-24.0167,-7.95139e-16,-5.24792e-14,-43.4214,16.6653,72.9346,19.8046,-13.1186,-21.3492,23.0878,7.12502,5.03713,53.0079,-18.9113,16.6731,18.5649,38.8108,-19.5548,-16.7338,-3.11839,-33.6783,10.9533,-20.4648,78.4933,3.10308,-16.1708,-10.5611
-1.07031,18.3416,2.94945,11.7103,82.7555,11.5445,13.3367,1.25437,8.89972,4.88032,3.17662,3.64645,-2.04428,1.73595,-1.642,-4.18196,-0.862584,-2.71956,28.8067,-1.88568,8.47033,9.87751,0.16235,3.36742,-2.46493e-14,-4.77083e-15,-31.2272,-4.06179,-70.4488,41.1753,10.3667,-33.4019,5.20345,7.12502,-6.60225,-24.6736,-2.46493e-14,-4.77083e-15,-43.2622,16.3371,73.403,19.8042,-13.3415,-21.2168,23.0174,7.12502,5.16503,52.9345,-18.7184,16.9222,18.4543,38.8782,-19.8851,-16.8222,-3.12442,-34.7144,11.5899,-20.9151,78.697,3.13765,-16.1658,-10.2714
-1.0256,18.3436,2.94338,12.7954,82.7001,12.6374,13.3855,1.23719,8.96339,4.88781,3.17325,3.71913,-2.06362,1.73496,-1.60231,-4.16773,-0.918073,-2.73831,28.927,-1.93594,8.37832,9.92216,0.132891,3.33794,2.94201e-14,1.43125e-14,-31.0216,-4.10536,-70.201,41.6512,10.1355,-33.1538,5.23744,7.12502,-6.36274,-24.647,2.94201e-14,1.43125e-14,-43.1757,16.2515,73.6884,19.8028,-13.9092,-20.9014,22.9376,7.12502,5.46953,52.847,-18.5561,17.0102,18.3253,38.9188,-20.1866,-16.9151,-2.97071,-35.8411,12.2667,-21.4149,78.8312,2.73299,-15.8082,-11.9976
-0.980764,18.3466,2.93607,14.0464,82.6923,13.8988,13.4409,1.17759,9.04071,4.90063,3.11578,3.76987,-2.08369,1.70766,-1.58573,-4.18255,-0.941431,-2.74097,29.0083,-1.95735,8.3322,9.95628,0.121281,3.32319,-4.77083e-14,-5.40694e-14,-30.8331,-4.0086,-70.0332,42.1852,9.50567,-32.1709,5.40506,7.12502,-5.41376,-24.5058,-4.77083e-14,-5.40694e-14,-43.0903,16.3086,73.8696,19.8157,-14.5767,-20.6634,22.9846,7.12502,5.69936,52.8879,-18.3825,16.9432,18.1685,38.9505,-20.3259,-17.0188,-2.87549,-36.9435,12.8592,-21.9228,78.8626,2.41489,-15.6896,-13.4666
-0.93952,18.3504,2.93378,16.737,82.5856,16.7167,13.6415,1.13215,8.81299,4.94341,3.04973,3.76111,-2.16607,1.67223,-1.46726,-4.23522,-0.957248,-2.68875,29.121,-1.97206,8.26557,10.0085,0.117616,3.29328,6.36111e-15,1.43125e-14,-30.6461,-3.97844,-69.9215,42.7217,8.97233,-31.5984,5.33485,7.12502,-4.86092,-24.5894,6.36111e-15,1.43125e-14,-42.9348,15.9516,74.3273,19.9183,-14.6159,-21.0961,22.7651,7.12502,5.28154,52.6793,-18.0844,16.9191,17.8089,38.9332,-20.4279,-17.0844,-2.77856,-37.8552,13.48,-22.618,78.77,2.14224,-15.7052,-14.3055
-0.901575,18.354,2.92925,18.7202,82.3963,18.807,13.902,1.12374,8.68035,4.95455,3.0501,3.71499,-2.30027,1.66701,-1.45243,-4.2944,-1.01275,-2.53576,29.3078,-2.05117,8.18868,10.0936,0.0983315,3.23896,-7.95139e-16,4.13472e-14,-30.502,-3.98401,-69.8692,43.1836,8.47485,-31.7518,5.24834,7.12502,-5.00907,-24.6725,-7.95139e-16,4.13472e-14,-42.7914,15.558,74.6232,20.073,-14.9364,-21.4338,22.0045,7.12502,4.95553,51.9266,-17.8094,16.9481,17.5032,38.848,-20.4381,-17.1006,-3.34943,-38.7501,14.1494,-23.2367,78.5679,1.92766,-15.5687,-14.0866
-0.856167,18.358,2.91664,17.0528,82.2884,17.0903,13.956,1.08195,9.12251,4.94326,3.0703,3.81116,-2.31901,1.68015,-1.60029,-4.30818,-1.06468,-2.51242,29.474,-2.11759,8.15492,10.1624,0.0741384,3.22317,7.95139e-15,6.36111e-14,-30.3739,-3.85222,-69.7318,43.6653,8.01021,-32.0004,5.05232,7.12502,-5.24908,-24.8627,7.95139e-15,6.36111e-14,-42.7779,15.9608,74.3649,20.1007,-16.5328,-20.2044,20.8174,7.12502,6.14251,50.7083,-17.6124,17.0384,17.6866,38.6978,-20.4738,-17.0706,-3.79964,-39.7706,14.7968,-23.3232,78.2928,1.88248,-15.3487,-12.9274
-0.809289,18.3641,2.90591,16.4172,82.16,16.4544,14.0058,1.01276,9.33326,4.94622,3.02408,3.93352,-2.34181,1.65925,-1.58291,-4.23893,-1.07534,-2.67457,29.549,-2.10653,8.1431,10.177,0.0619294,3.25123,-2.14687e-14,-3.33958e-14,-30.226,-3.68476,-69.5692,44.1149,7.65486,-32.093,5.02745,7.12502,-5.33853,-24.8853,-2.14687e-14,-3.33958e-14,-42.7653,16.1557,74.4157,20.1098,-17.3419,-18.5839,19.5569,7.12502,7.70681,49.3965,-17.3264,17.1406,17.7379,38.51,-20.556,-17.1128,-3.91543,-40.7055,15.3764,-23.5443,77.9191,1.79415,-15.0064,-12.2534
-0.766063,18.3709,2.89695,17.7566,82.0235,17.8077,14.0809,0.97722,9.2548,4.94721,2.97845,3.96212,-2.39184,1.63442,-1.50589,-4.15361,-1.11393,-2.73127,29.5543,-2.1424,8.10448,10.1648,0.0343242,3.2437,-4.13472e-14,-9.54166e-15,-30.0845,-3.53531,-69.4414,44.5438,7.33071,-31.7946,4.84165,7.12502,-5.05044,-25.0782,-4.13472e-14,-9.54166e-15,-42.6024,15.7196,74.8773,20.1705,-16.9522,-19.6956,20.1437,7.12502,6.63368,50.0198,-17.0515,17.2188,17.4946,38.2945,-20.6201,-17.1098,-3.76426,-41.6205,15.9474,-24.0608,77.4602,1.54238,-14.6692,-13.2025
-0.724787,18.3754,2.88564,17.9361,81.9696,17.9337,14.1239,0.899846,9.36881,4.94275,2.90447,4.03259,-2.42404,1.59809,-1.48532,-4.15225,-1.13643,-2.75499,29.6049,-2.15089,8.01536,10.1835,0.0190695,3.21658,-4.77083e-15,-5.08889e-14,-29.8961,-3.08017,-69.3241,45.0194,6.89407,-31.3165,3.98268,7.12502,-4.58877,-25.9476,-4.77083e-15,-5.08889e-14,-42.4607,15.5597,75.1589,20.2044,-16.8323,-20.12,20.1495,7.12502,6.22394,50.038,-16.8549,17.3059,17.4282,38.0699,-20.6345,-17.0184,-3.24093,-42.5764,16.4692,-24.3719,76.9212,1.15667,-14.4547,-14.7649
-0.682059,18.3816,2.87388,17.5599,81.8771,17.5696,14.2397,0.833451,9.51539,4.94809,2.86059,4.11893,-2.48159,1.57659,-1.47259,-4.14303,-1.15925,-2.73951,29.6672,-2.15557,7.89148,10.2042,0.00666809,3.17071,1.59028e-15,0,-29.7835,-2.72083,-69.2379,45.4213,6.44577,-31.1453,3.4812,7.12502,-4.42348,-26.4526,1.59028e-15,0,-42.3627,15.5651,75.3037,20.1979,-16.8955,-20.3553,19.8219,7.12502,5.99676,49.7171,-16.5648,17.4658,17.4388,37.8262,-20.7434,-17.0414,-3.07445,-43.3685,16.8792,-24.5521,76.2771,0.72756,-13.9703,-15.825
-0.63678,18.3914,2.85843,17.3638,81.7822,17.4379,14.3648,0.794726,9.70744,4.97946,2.85542,4.14301,-2.5068,1.57655,-1.55557,-4.07151,-1.24726,-2.64916,29.604,-2.27799,7.83565,10.1737,-0.0484871,3.12027,-1.66979e-14,-3.49861e-14,-29.7233,-2.85688,-69.1379,45.6938,6.3788,-31.3406,3.70119,7.12502,-4.612,-26.2286,-1.66979e-14,-3.49861e-14,-42.1415,15.3364,75.5127,20.2046,-16.6067,-20.6053,19.6361,7.12502,5.75539,49.538,-16.1753,17.5738,17.4187,37.5474,-20.9064,-17.1719,-3.69767,-44.0378,17.227,-24.7369,75.5394,0.302093,-13.2859,-16.4818
-0.592288,18.4024,2.83809,17.4093,81.7118,17.5457,14.4847,0.699622,9.88216,5.02065,2.77522,4.18607,-2.52799,1.54039,-1.59713,-4.01281,-1.29847,-2.63894,29.523,-2.34102,7.78041,10.1356,-0.0871039,3.08908,1.66979e-14,-1.59028e-14,-29.5638,-2.97448,-68.9444,45.9383,6.54856,-31.2336,4.05548,7.12502,-4.50873,-25.8765,1.66979e-14,-1.59028e-14,-41.9183,14.9386,75.9433,20.3321,-16.0093,-20.7284,19.8136,7.12502,5.63656,49.7186,-15.7753,17.493,17.355,37.2392,-20.918,-17.1863,-4.44395,-44.6575,17.5324,-24.9294,74.7012,-0.182868,-12.802,-17.2083
-0.548372,18.4108,2.81882,17.2218,81.6177,17.3843,14.5786,0.607086,10.0093,5.04717,2.69202,4.27237,-2.55626,1.50161,-1.56575,-3.98669,-1.3162,-2.63963,29.5098,-2.33342,7.63473,10.1237,-0.101887,3.03635,-3.97569e-15,4.77083e-14,-29.4158,-2.85745,-68.7619,46.1926,6.51385,-30.8102,4.1826,7.12502,-4.09991,-25.7577,-3.97569e-15,4.77083e-14,-41.7764,14.6168,76.3159,20.506,-15.6221,-20.4463,19.8202,7.12502,5.90892,49.7178,-15.4273,17.4229,17.3035,36.9137,-20.8484,-17.0891,-4.85863,-45.2607,17.7914,-25.0201,73.7958,-0.641506,-12.2278,-18.0566
-0.503759,18.4217,2.80116,17.3633,81.515,17.4966,14.5984,0.544875,10.1255,5.05581,2.63173,4.29437,-2.55851,1.47338,-1.59742,-3.9682,-1.35832,-2.66741,29.5136,-2.38317,7.60105,10.1246,-0.132351,3.02434,0,-3.18055e-15,-29.3262,-2.84129,-68.7319,46.3916,6.52953,-30.7964,3.95047,7.12502,-4.08656,-25.9901,0,-3.18055e-15,-41.6115,14.4091,76.4387,20.5975,-15.4977,-20.0476,19.7349,7.12502,6.29382,49.6214,-15.1309,17.4119,17.1894,36.5799,-20.83,-16.9708,-5.02723,-45.8564,17.9536,-25.0808,72.827,-0.974141,-11.404,-18.6083
-0.459362,18.4389,2.78176,18.4345,81.3788,18.5345,14.6638,0.457908,10.1461,5.02646,2.52698,4.23103,-2.6311,1.4171,-1.66182,-3.97203,-1.39236,-2.78877,29.5905,-2.44679,7.7175,10.1605,-0.160251,3.08463,-2.06736e-14,-2.54444e-14,-29.2721,-2.9098,-68.8113,46.5579,6.78232,-31.1371,3.57906,7.12502,-4.41548,-26.3549,-2.06736e-14,-2.54444e-14,-41.4661,14.008,76.6115,20.7001,-15.1483,-20.2146,20.1098,7.12502,6.13265,50.001,-14.8413,17.4338,16.9077,36.239,-20.9059,-16.8815,-5.01806,-46.3828,18.0933,-25.2206,71.7818,-1.27469,-10.8204,-18.8479
-0.416046,18.451,2.76297,18.8428,81.265,18.9041,14.8191,0.326176,10.2124,4.9536,2.3881,4.19088,-2.80128,1.33866,-1.72448,-3.97255,-1.40211,-2.83488,29.7048,-2.45906,7.72168,10.2047,-0.167865,3.09711,6.36111e-15,-2.54444e-14,-29.2505,-2.79821,-68.9369,46.6934,6.77444,-31.5537,3.61527,7.12502,-4.81781,-26.31,6.36111e-15,-2.54444e-14,-41.4129,13.6605,76.7047,20.8153,-14.8674,-20.4521,20.3666,7.12502,5.90335,50.2644,-14.5679,17.5281,16.7345,35.8777,-21.0592,-16.8133,-4.45877,-46.8675,18.1665,-25.2166,70.6233,-1.57003,-10.2808,-19.5943
-0.369226,18.459,2.74463,18.966,81.1278,18.9765,14.8914,0.240475,10.2667,4.90868,2.29808,4.20505,-2.89547,1.28879,-1.72761,-3.91528,-1.43113,-2.80078,29.7488,-2.46786,7.56879,10.2088,-0.184937,3.03606,-4.37326e-14,-3.18055e-14,-29.2196,-2.5404,-68.9343,46.7506,6.43598,-32.1403,4.12549,7.12502,-5.38423,-25.7861,-4.37326e-14,-3.18055e-14,-41.3174,13.5972,76.6805,20.8453,-14.8506,-20.1826,20.0805,7.12502,6.16353,49.9708,-14.3023,17.6459,16.5933,35.5034,-21.1916,-16.697,-3.69748,-47.2988,18.1479,-25.1624,69.2914,-1.64003,-9.44233,-19.9218
-0.32202,18.474,2.72468,19.5655,80.9144,19.5397,14.8534,0.215532,10.2209,4.95302,2.24965,4.20118,-2.83442,1.26897,-1.69691,-3.86893,-1.4808,-2.82438,29.6927,-2.52487,7.51572,10.1821,-0.223363,3.01325,-1.19271e-14,9.54166e-15,-29.114,-2.44939,-68.8721,46.7779,6.43743,-32.6938,4.23587,7.12502,-5.91858,-25.6615,-1.19271e-14,9.54166e-15,-41.044,13.1547,76.9789,21.0232,-14.1919,-19.8628,20.265,7.12502,6.47226,50.1461,-14.0314,17.8688,16.3469,35.1533,-21.2584,-16.6611,-3.40002,-47.6326,18.1008,-25.1046,67.885,-1.43766,-8.65172,-19.0022
-0.280945,18.4903,2.70547,19.4634,80.7544,19.3845,14.8388,0.165914,10.1866,5.01978,2.17676,4.23723,-2.76577,1.23914,-1.62672,-3.94033,-1.52338,-2.86318,29.6652,-2.59084,7.5243,10.1905,-0.260009,3.01559,-3.18055e-15,2.22639e-14,-28.9435,-2.64842,-68.9164,46.7955,6.97652,-32.9529,3.90489,7.12502,-6.16871,-25.9853,-3.18055e-15,2.22639e-14,-40.7523,12.6416,77.3078,21.2877,-13.5246,-19.881,20.9569,7.12502,6.45468,50.8386,-13.7818,18.1894,16.2454,34.8057,-21.3585,-16.7156,-2.93006,-47.9015,17.9092,-24.7214,66.454,-1.03731,-8.01302,-17.6078
-0.240489,18.4965,2.68568,19.2827,80.6379,19.1448,14.9105,0.068989,10.1621,5.02766,2.05922,4.26826,-2.81009,1.18019,-1.56302,-4.07909,-1.54412,-2.82719,29.7672,-2.61947,7.46361,10.2566,-0.273691,2.98773,3.26007e-14,5.08889e-14,-28.8453,-2.70321,-68.9982,46.8033,7.37924,-33.0203,3.94893,7.12502,-6.23386,-25.9393,3.26007e-14,5.08889e-14,-40.5976,12.6999,77.2009,21.3087,-13.9619,-20.251,21.1314,7.12502,6.09745,51.0236,-13.5523,18.4861,16.1686,34.4606,-21.4611,-16.7804,-2.42213,-48.045,17.49,-24.1663,64.9065,-0.417359,-7.11126,-13.9327
-0.193933,18.5082,2.66225,19.8564,80.4605,19.6917,14.96,-0.0243419,10.111,5.02274,1.93286,4.21824,-2.8545,1.11523,-1.56821,-4.09784,-1.5395,-2.77001,29.827,-2.61404,7.41495,10.2812,-0.270069,2.96222,-3.33958e-14,-1.90833e-14,-28.8178,-2.53219,-69.0241,46.7989,7.39117,-32.9535,4.26525,7.12502,-6.16928,-25.6249,-3.33958e-14,-1.90833e-14,-40.4567,12.4707,77.1977,21.2489,-14.3325,-21.1499,21.2777,7.12502,5.22964,51.1932,-13.2597,18.6056,15.9335,34.0905,-21.4219,-16.7985,-2.57706,-48.0198,16.8958,-23.6548,63.3119,0.0555534,-5.87221,-8.85583
-0.141216,18.5227,2.63403,20.1364,80.3217,19.9159,14.8484,-0.104512,10.1253,5.04792,1.81444,4.24666,-2.77955,1.06124,-1.52409,-4.04518,-1.56923,-2.85176,29.8226,-2.62308,7.31589,10.2696,-0.296538,2.9393,-2.38542e-14,-1.59028e-14,-28.7599,-2.47438,-68.8984,46.7577,7.32551,-32.8055,4.73251,7.12502,-6.02648,-25.1618,-2.38542e-14,-1.59028e-14,-40.2792,11.945,77.4963,21.2365,-14.2694,-22.0469,21.3589,7.12502,4.36346,51.2939,-12.9483,18.5272,15.7469,33.6988,-21.3302,-16.7404,-3.00739,-47.9294,16.207,-23.0014,61.6783,0.450393,-4.78787,-5.30608
-0.0897982,18.5353,2.60456,19.528,80.2353,19.1896,14.7179,-0.192398,10.2444,5.0605,1.70512,4.34932,-2.70555,1.0125,-1.46075,-4.06947,-1.61746,-2.93463,29.8911,-2.64471,7.15918,10.3007,-0.332098,2.897,-7.95139e-16,-3.18055e-15,-28.7027,-2.55316,-68.7663,46.6915,7.24066,-32.6922,5.37667,7.12502,-5.91707,-24.5207,-7.95139e-16,-3.18055e-15,-40.1146,11.8798,77.537,21.2415,-14.2766,-22.0531,20.8988,7.12502,4.35753,50.834,-12.6918,18.5849,15.7208,33.2676,-21.2905,-16.7236,-3.09765,-47.8942,15.4709,-22.0956,60.0482,1.06476,-3.77922,-2.0532
-0.0421726,18.5477,2.57685,18.931,80.0881,18.5122,14.7228,-0.26897,10.3169,5.06608,1.62086,4.41134,-2.70992,0.972153,-1.42139,-4.102,-1.64196,-3.02732,29.9603,-2.66579,7.1354,10.3352,-0.354058,2.90471,7.95139e-15,4.77083e-14,-28.6579,-2.66554,-68.6971,46.5833,7.21449,-32.5675,5.43055,7.12502,-5.79665,-24.4702,7.95139e-15,4.77083e-14,-39.9032,11.7742,77.5595,21.31,-14.0607,-21.9627,21.2098,7.12502,4.44478,51.1432,-12.4313,18.77,15.6769,32.8465,-21.2954,-16.6943,-2.86682,-47.7603,14.6511,-21.0932,58.4035,0.72685,-6.12099,-20.4334
0.00588926,18.5612,2.54753,19.2591,79.8438,18.8311,14.7865,-0.323866,10.2736,5.08029,1.55004,4.40017,-2.73709,0.936344,-1.39869,-4.05696,-1.66348,-3.23378,29.9394,-2.68804,7.1972,10.3231,-0.383487,2.96046,2.38542e-15,3.49861e-14,-28.6527,-2.74591,-68.6262,46.4814,7.28908,-32.6997,4.85264,7.12502,-5.92428,-25.0445,2.38542e-15,3.49861e-14,-39.6926,11.596,77.6336,21.3566,-13.9246,-22.1061,21.964,7.12502,4.30631,51.9002,-12.1165,18.9193,15.425,32.4466,-21.3131,-16.593,-2.72587,-47.4573,13.7365,-20.1974,56.7431,1.11616,-5.82544,-22.6929
0.0552386,18.5756,2.51828,20.1296,79.4371,19.7394,14.8411,-0.346537,10.0115,5.1477,1.48113,4.35472,-2.70856,0.903849,-1.29129,-3.99146,-1.64637,-3.36618,29.8528,-2.64761,7.17756,10.2763,-0.388285,2.97707,-3.57812e-14,-1.59028e-14,-28.6053,-2.66483,-68.6045,46.4188,7.22053,-32.9853,4.78231,7.12502,-6.20002,-25.107,-3.57812e-14,-1.59028e-14,-39.5276,11.9874,77.3427,21.3581,-14.0281,-21.7332,21.6947,7.12502,4.66639,51.6233,-11.7844,19.1436,15.0058,32.065,-21.3159,-16.4853,-2.66376,-47.0139,12.8638,-19.3892,55.0769,2.23634,-4.17981,-18.4711
0.106504,18.5881,2.48831,20.5642,78.993,20.1941,14.8334,-0.372718,9.67974,5.26951,1.38995,4.36537,-2.5939,0.865617,-1.08098,-4.03826,-1.61936,-3.4958,29.8124,-2.58682,7.11486,10.2669,-0.386927,2.98089,3.18055e-15,2.22639e-14,-28.4257,-2.55519,-68.5837,46.3003,7.18387,-32.7328,5.17723,7.12502,-5.95624,-24.719,3.18055e-15,2.22639e-14,-39.3412,12.2207,77.2086,21.4463,-13.8255,-21.4003,21.2635,7.12502,4.98787,51.1848,-11.5108,19.3825,14.6347,31.7226,-21.284,-16.3526,-2.81964,-46.5369,12.0062,-18.4651,53.432,3.08757,-3.32084,-18.1751
0.159094,18.5986,2.45528,20.6467,78.5646,20.2059,14.7706,-0.37995,9.46489,5.34319,1.33554,4.37983,-2.49338,0.842941,-0.936862,-4.05793,-1.63451,-3.64406,29.7753,-2.57852,7.04303,10.2573,-0.411918,2.97991,-3.73715e-14,-5.725e-14,-28.3347,-2.60086,-68.5303,46.1737,7.40096,-32.3278,5.25442,7.12502,-5.56525,-24.6525,-3.73715e-14,-5.725e-14,-39.1206,11.7769,77.4229,21.5746,-13.2232,-21.3078,21.1663,7.12502,5.07714,51.0855,-11.3615,19.6634,14.3094,31.4103,-21.2399,-16.2601,-3.05461,-46.1241,11.1061,-17.4272,51.8321,3.83305,-2.55279,-18.1992
0.211305,18.6129,2.42394,20.7267,77.9919,20.225,14.7802,-0.305498,9.22281,5.38464,1.38915,4.31995,-2.45588,0.868356,-0.87486,-4.00096,-1.65753,-3.65637,29.722,-2.59734,6.97435,10.2269,-0.433758,2.95316,-3.26007e-14,-2.22639e-14,-28.3969,-2.557,-68.5099,46.0836,7.47285,-32.4143,5.07982,7.12502,-5.64879,-24.8249,-3.26007e-14,-2.22639e-14,-38.9268,10.6932,77.8253,21.7555,-12.1638,-21.2203,21.1885,7.12502,5.16161,51.1056,-11.2237,20.1152,13.9439,31.0991,-21.1961,-16.2543,-3.15096,-45.6366,10.4564,-16.4476,50.2833,4.59762,-1.50461,-16.1014
0.264385,18.6276,2.39106,20.5514,77.3363,20.0503,14.8876,-0.210831,9.04974,5.44385,1.48632,4.18486,-2.44425,0.915459,-0.938325,-4.01335,-1.6847,-3.45787,29.738,-2.64623,6.88911,10.2352,-0.445029,2.88268,2.54444e-14,3.18055e-15,-28.4695,-2.59176,-68.5942,45.9247,7.38022,-32.7096,5.20636,7.12502,-5.93386,-24.6905,2.54444e-14,3.18055e-15,-38.7963,9.51833,78.1485,22.0438,-10.9962,-20.9396,21.0226,7.12502,5.4327,50.9329,-11.0465,20.591,13.6105,30.8132,-21.1277,-16.2456,-3.66497,-45.023,9.98592,-15.4641,48.782,5.39306,-0.950703,-15.5892
0.317209,18.6392,2.35252,20.2334,76.6801,19.6655,14.9717,-0.144625,8.92903,5.4661,1.55537,4.09326,-2.46136,0.946832,-0.98041,-3.95804,-1.6875,-3.34056,29.7211,-2.64572,6.78703,10.2155,-0.446417,2.8241,4.13472e-14,6.36111e-15,-28.547,-2.79888,-68.642,45.7347,7.5078,-32.8602,5.53935,7.12502,-6.0792,-24.3534,4.13472e-14,6.36111e-15,-38.7096,9.85699,77.7395,22.1045,-11.0423,-20.4548,19.2687,7.12502,5.90078,49.1665,-10.9545,20.9549,13.2668,30.502,-20.9394,-16.1513,-4.44905,-44.4139,9.20609,-14.3193,47.3366,6.12935,-0.261453,-15.2479
0.371186,18.6481,2.3094,20.3001,75.9356,19.5922,14.9715,-0.0473498,8.69491,5.45894,1.63966,4.03343,-2.46844,0.983279,-0.927794,-3.86442,-1.66582,-3.38965,29.7263,-2.58822,6.69165,10.1952,-0.438633,2.80358,5.64548e-14,2.54444e-14,-28.6718,-2.83021,-68.604,45.6297,7.63884,-32.8248,5.50762,7.12502,-6.04507,-24.3861,5.64548e-14,2.54444e-14,-38.5578,11.0919,76.9653,21.7983,-12.1883,-20.3161,17.914,7.12502,6.03464,47.8081,-11.0179,21.2067,12.7369,30.2139,-20.7152,-15.8976,-5.01937,-43.8404,8.24749,-13.2685,45.9205,6.75473,0.865123,-15.1057
0.428386,18.6682,2.26412,20.1718,75.1513,19.2678,14.8408,0.0401449,8.54812,5.49728,1.70466,3.96237,-2.3553,1.01666,-0.929078,-3.89934,-1.59461,-3.40776,29.8043,-2.45063,6.53071,10.2212,-0.395743,2.76356,0,2.54444e-14,-28.6989,-2.67019,-68.6258,45.5375,7.59002,-32.7529,5.38906,7.12502,-5.97566,-24.5067,0,2.54444e-14,-38.3401,11.79,76.5194,21.5964,-12.846,-20.0632,20.4223,7.12502,6.27876,50.3093,-11.1414,21.4504,12.2371,29.8742,-20.4087,-15.7204,-5.9521,-43.218,7.0384,-11.8575,44.559,7.06524,2.75076,-10.2328
0.490763,18.6734,2.21776,19.5841,74.4238,18.4672,14.663,0.0397431,8.51631,5.57664,1.66839,3.93837,-2.17844,1.00553,-0.926569,-3.98473,-1.43095,-3.45545,29.84,-2.18715,6.38063,10.2339,-0.300674,2.743,-1.27222e-14,-5.725e-14,-28.4762,-2.48666,-68.7065,45.2721,7.67594,-32.8822,5.24515,7.12502,-6.10053,-24.647,-1.27222e-14,-5.725e-14,-38.2463,11.9793,76.4032,21.7661,-12.3581,-18.4649,19.6897,7.12502,7.82167,49.525,-11.2677,21.7132,11.9182,29.5873,-20.119,-15.62,-6.9622,-42.6242,6.29435,-10.7268,43.2199,7.85944,3.18698,-13.7498
0.552117,18.6899,2.17104,19.2882,73.6275,18.1195,14.6758,0.105834,8.45526,5.65384,1.73062,3.78126,-2.09525,1.03947,-1.06683,-3.97555,-1.34501,-3.22141,29.8286,-2.07997,6.27701,10.2181,-0.24113,2.67347,5.24792e-14,4.45278e-14,-28.3378,-2.71506,-68.8509,44.9285,7.88425,-33.025,4.91466,7.12502,-6.23838,-24.9735,5.24792e-14,4.45278e-14,-38.1602,11.5391,76.38,21.9493,-11.7082,-20.2462,20.2592,7.12502,6.10211,50.1513,-11.212,21.9584,11.4971,29.2823,-20.017,-15.2505,-6.96612,-41.7883,5.20896,-9.45256,41.962,8.35694,4.34094,-12.3393
0.61404,18.7027,2.12692,19.352,72.6821,18.2498,14.8239,0.26466,8.18493,5.71795,1.89709,3.56027,-2.09619,1.119,-1.17751,-3.82992,-1.3096,-2.91251,29.7707,-2.0529,6.18713,10.1631,-0.209086,2.58688,0,1.59028e-14,-28.4624,-3.1064,-68.9295,44.7262,8.18518,-32.848,4.81554,7.12502,-6.06746,-25.0776,0,1.59028e-14,-38.0698,11.0696,76.277,21.9489,-11.6439,-20.9277,21.1382,7.12502,5.44417,51.0483,-11.0957,22.4149,10.9105,29.0511,-20.0503,-14.8943,-6.4712,-40.7699,4.26611,-8.42911,40.7521,8.69187,5.76,-9.35494
0.676098,18.709,2.07979,19.1785,71.7845,18.0558,14.9106,0.31639,7.91271,5.77357,1.92391,3.45853,-2.08872,1.1298,-1.13865,-3.73573,-1.14196,-2.94464,29.7339,-1.81968,6.17791,10.1178,-0.113059,2.60899,1.11319e-14,-7.31528e-14,-28.5599,-3.11936,-68.9517,44.6171,8.56056,-32.6796,5.09929,7.12502,-5.90492,-24.7984,1.11319e-14,-7.31528e-14,-38.0753,11.1061,76.106,21.9056,-11.5591,-21.4155,21.3671,7.12502,4.97315,51.2888,-11.0922,22.8822,10.413,28.8579,-19.9455,-14.7606,-6.85083,-39.859,3.50078,-7.47008,39.6066,9.18082,6.70456,-8.60315
0.737988,18.7138,2.02486,19.0852,70.888,17.9141,15.0109,0.356207,7.69618,5.8237,1.94461,3.35352,-2.09247,1.13776,-1.13343,-3.77878,-0.963302,-3.07799,29.8214,-1.57964,6.25451,10.1461,-0.0115507,2.68444,7.15625e-15,1.90833e-14,-28.6614,-3.07541,-68.9639,44.5973,8.58719,-32.4785,5.34802,7.12502,-5.71069,-24.555,7.15625e-15,1.90833e-14,-38.0895,11.027,76.0416,21.9337,-11.2565,-20.884,20.746,7.12502,5.48637,50.655,-11.2215,23.1107,9.84125,28.7617,-19.8086,-14.4215,-7.56028,-38.9394,2.47363,-6.44554,38.4942,9.41265,7.84816,-6.29362
0.797335,18.7202,1.96889,19.23,69.876,18.034,15.2272,0.454704,7.32433,5.83328,2.032,3.241,-2.20278,1.17195,-1.06396,-3.78833,-0.810639,-3.2642,29.9424,-1.36901,6.34274,10.182,0.0733884,2.77197,-1.74931e-14,-2.54444e-14,-28.735,-2.92907,-68.871,44.5708,8.33925,-32.1065,5.48388,7.12502,-5.35155,-24.4286,-1.74931e-14,-2.54444e-14,-38.1927,10.9272,75.9991,22.034,-11.1924,-20.6995,20.646,7.12502,5.66453,50.5502,-11.4355,23.3744,9.10899,28.7166,-19.7265,-13.9398,-7.76475,-37.9985,1.63326,-5.69039,37.4341,9.86094,8.59484,-5.12536
0.856528,18.7241,1.90941,19.1999,68.9253,17.8809,15.3964,0.523475,7.13102,5.79345,2.09871,3.08297,-2.33248,1.19578,-1.1382,-3.68563,-0.668874,-3.2128,29.9413,-1.17609,6.30958,10.1498,0.159159,2.76752,-5.725e-14,3.18055e-14,-28.7393,-2.95914,-68.8525,44.4353,8.25159,-32.5524,5.50321,7.12502,-5.78209,-24.3979,-5.725e-14,3.18055e-14,-38.3037,10.7911,75.8306,22.1065,-11.1772,-21.614,21.11,7.12502,4.78149,51.0361,-11.7767,23.6165,8.45338,28.7017,-19.5886,-13.5493,-8.323,-37.1535,0.865952,-4.8582,36.4169,10.1873,9.38062,-2.96618
0.923947,18.7289,1.84822,19.3126,67.9884,17.8736,15.3704,0.597816,6.89601,5.82101,2.14334,2.91067,-2.28927,1.21574,-1.19437,-3.55493,-0.545161,-3.07598,29.8391,-1.01307,6.2397,10.0761,0.233578,2.72822,-1.90833e-14,2.8625e-14,-28.7618,-3.22583,-68.856,44.3881,8.23022,-33.209,5.44727,7.12502,-6.41599,-24.4356,-1.90833e-14,2.8625e-14,-38.2735,10.6541,75.6931,22.0628,-11.112,-21.2997,20.8267,7.12502,5.08496,50.7457,-12.1007,23.8177,7.73115,28.6943,-19.4738,-13.1646,-9.20944,-36.2741,-0.0972885,-4.03192,35.4715,10.2373,10.1298,-0.332231
0.99537,18.7313,1.7929,19.1463,66.9368,17.6049,15.2746,0.653713,6.48975,5.94245,2.13813,2.86966,-2.12591,1.21533,-1.00523,-3.56013,-0.334782,-3.27275,29.783,-0.706552,6.23581,10.0385,0.343893,2.7862,-3.97569e-14,3.18055e-15,-28.6065,-2.75699,-68.8584,44.3188,7.98563,-34.0794,4.86676,7.12502,-7.25622,-24.9888,-3.97569e-14,3.18055e-15,-38.2693,10.7839,75.6603,22.0031,-11.2079,-20.7208,20.526,7.12502,5.64394,50.4308,-12.4282,24.2552,7.10196,28.7141,-19.4292,-12.8884,-9.86277,-35.2943,-0.872403,-3.24576,34.5842,10.625,9.9119,-1.73723
1.06414,18.7326,1.72897,19.2807,66.1821,17.3902,15.032,0.594321,6.35159,5.95041,2.00814,2.76937,-1.99789,1.15112,-1.00604,-3.67933,-0.122135,-3.30843,29.8615,-0.406421,6.19454,10.0731,0.468799,2.80719,5.56597e-15,-1.43125e-14,-28.4492,-2.31414,-68.9405,44.1798,7.81691,-34.6757,4.24211,7.12502,-7.83176,-25.5928,5.56597e-15,-1.43125e-14,-38.3652,10.4566,75.7138,22.102,-11.1881,-20.9237,20.681,7.12502,5.44803,50.591,-12.947,24.3269,6.45312,28.7421,-19.42,-12.6034,-10.17,-34.7022,-1.61247,-2.58908,33.7437,11.2839,9.57778,-4.76895
1.13163,18.7319,1.66259,19.9555,65.3343,17.8002,14.8959,0.635293,5.99317,5.92214,1.98377,2.55151,-1.96292,1.13297,-1.02745,-3.81655,-0.00219407,-3.16372,30.029,-0.259146,6.16934,10.1537,0.549159,2.79223,1.51076e-14,-1.43125e-14,-28.513,-2.78935,-68.9045,44.2416,8.08586,-32.9848,4.62447,7.12502,-6.1995,-25.2648,1.51076e-14,-1.43125e-14,-38.4236,9.64203,75.8642,22.2803,-10.9191,-20.918,20.8944,7.12502,5.4535,50.8043,-13.4893,24.4392,5.46396,28.7739,-19.3916,-12.2853,-10.2805,-34.1141,-2.33697,-2.32248,32.9809,11.9885,9.9692,-5.0898
1.19936,18.7271,1.59313,20.3599,64.3493,18.22,15.0528,0.672339,5.5024,5.96679,1.96372,2.37723,-2.01365,1.11656,-0.935613,-3.84068,0.134681,-3.21084,30.0843,-0.0601741,6.12829,10.1676,0.626774,2.80515,-5.1684e-14,-2.54444e-14,-28.6164,-3.13327,-68.8018,44.4325,8.30543,-31.4988,5.04901,7.12502,-4.76476,-24.8774,-5.1684e-14,-2.54444e-14,-38.4704,9.00759,76.0472,22.3663,-10.684,-20.755,20.9888,7.12502,5.61089,50.8945,-13.7847,24.7603,4.49711,28.8228,-19.4181,-11.9036,-10.4815,-33.2135,-3.0058,-2.18955,32.3007,12.5041,10.3311,-3.66073
1.26674,18.7173,1.52116,19.477,63.536,17.2967,15.3047,0.623246,5.60992,6.03195,1.93024,2.33762,-2.07494,1.10173,-1.03686,-3.7643,0.30918,-3.20931,29.9938,0.194594,6.03323,10.1049,0.724987,2.78864,6.04305e-14,-3.02153e-14,-28.695,-3.19455,-68.8246,44.6345,8.1758,-31.6387,5.19532,7.12502,-4.89987,-24.728,6.04305e-14,-3.02153e-14,-38.5014,8.72736,76.0211,22.3428,-10.7668,-20.5587,20.9812,7.12502,5.80043,50.8818,-14.0215,25.4601,4.28252,28.9023,-19.4146,-11.9369,-10.9654,-32.2524,-3.547,-1.4392,31.6782,12.8812,10.2245,-3.05461
1.33694,18.7068,1.44649,18.9365,62.8748,16.5574,15.3327,0.549251,5.76698,6.08478,1.85173,2.2678,-2.02976,1.06715,-1.18482,-3.78213,0.423738,-3.47924,29.8739,0.270618,6.43371,10.0544,0.764236,2.98125,2.38542e-15,3.97569e-14,-28.7675,-3.48501,-68.8475,44.8323,8.10696,-31.7273,5.34383,7.12502,-4.98545,-24.5775,2.38542e-15,3.97569e-14,-38.4216,8.86692,75.7407,22.2194,-11.439,-20.298,20.9289,7.12502,6.05217,50.8224,-14.3912,25.8987,3.9872,28.9855,-19.4201,-12.0159,-11.2747,-31.571,-3.99972,-0.857988,31.1175,13.562,9.61946,-3.99345
1.40688,18.695,1.37345,19.0386,62.1509,16.5226,15.2924,0.504142,5.4146,6.18198,1.73467,2.25717,-1.92506,1.00899,-0.977167,-3.86769,0.525304,-4.21596,29.7924,0.309553,7.15619,10.0274,0.770894,3.37072,3.18055e-15,-5.40694e-14,-28.7494,-3.59746,-68.6994,45.0056,8.13515,-31.7839,5.34475,7.12502,-5.04007,-24.5753,3.18055e-15,-5.40694e-14,-38.3521,8.6516,75.8952,22.2314,-11.6245,-20.0039,20.6239,7.12502,6.33604,50.5091,-14.8041,25.7429,3.2993,29.0827,-19.472,-11.4753,-11.1641,-30.9297,-4.34462,-0.73461,30.6127,14.3581,8.85537,-4.7367
1.47451,18.6828,1.30025,18.839,61.4056,16.1897,15.3168,0.49368,5.14353,6.29129,1.68149,2.27893,-1.8355,0.982949,-0.792693,-3.90449,0.618107,-4.45985,29.7399,0.428335,7.27557,10.0038,0.804885,3.46439,1.59028e-15,3.18055e-15,-28.7395,-3.61447,-68.5247,45.2196,7.95698,-31.975,5.12537,7.12502,-5.22462,-24.7902,1.59028e-15,3.18055e-15,-38.2997,7.6275,76.4476,22.4403,-10.9184,-19.8372,20.5105,7.12502,6.497,50.3909,-15.2482,25.7293,2.76678,29.2248,-19.4796,-11.02,-11.4183,-30.2125,-4.64876,-0.473925,30.1431,14.9688,8.36949,-4.50997
1.54346,18.67,1.22375,18.6437,60.7257,15.7917,15.3294,0.478039,5.02615,6.34711,1.64069,2.25023,-1.78829,0.962707,-0.749727,-3.83224,0.699806,-4.27425,29.6058,0.574564,6.99802,9.93408,0.854679,3.3373,-7.15625e-14,7.4743e-14,-28.8097,-3.69395,-68.3669,45.4496,7.74355,-32.1406,4.95243,7.12502,-5.38445,-24.9592,-7.15625e-14,7.4743e-14,-38.2346,6.95804,76.6796,22.51,-10.7839,-19.6667,20.7826,7.12502,6.66157,50.6579,-15.7221,26.0027,2.27415,29.3932,-19.5435,-10.9066,-11.8627,-29.5897,-4.94054,-0.212197,29.7221,15.5177,7.87152,-4.52494
1.61077,18.6483,1.14334,18.3151,60.1585,15.1612,15.3287,0.407348,5.06102,6.36998,1.55075,2.25636,-1.76696,0.91872,-0.747904,-3.78317,0.781961,-4.17937,29.4642,0.709243,6.81117,9.86592,0.89873,3.25807,-7.15625e-14,1.27222e-14,-28.9219,-3.79428,-68.2816,45.6645,7.71609,-32.3791,5.00401,7.12502,-5.61473,-24.9016,-7.15625e-14,1.27222e-14,-38.163,6.8434,76.6009,22.4498,-11.2607,-19.4088,21.0644,7.12502,6.91058,50.9316,-16.2678,26.1684,1.91472,29.5805,-19.5753,-10.7856,-12.0571,-29.1207,-5.18209,0.154033,29.3448,16.1148,7.22416,-5.16543
1.67401,18.6226,1.06041,17.8963,59.6237,14.4303,15.4191,0.269086,5.13752,6.39882,1.38665,2.27791,-1.7905,0.838236,-0.742749,-3.861,0.865186,-4.20888,29.4096,0.851826,6.66543,9.85286,0.938533,3.22143,1.27222e-14,7.31528e-14,-29.0023,-3.89783,-68.2924,45.9242,7.76425,-32.7118,5.01173,7.12502,-5.93596,-24.8851,1.27222e-14,7.31528e-14,-38.1191,6.81412,76.4781,22.4298,-11.6362,-19.1598,20.9801,7.12502,7.15091,50.8393,-16.8557,26.2892,1.63151,29.7882,-19.5444,-10.7288,-12.3012,-28.6929,-5.37317,0.528475,28.9803,16.7919,6.48872,-6.68017
1.73976,18.6038,0.977077,18.0702,59.0514,14.4159,15.5256,0.0939424,4.73791,6.43985,1.10822,2.31132,-1.82772,0.693979,-0.438982,-3.98148,0.991751,-4.43159,29.4271,1.09048,6.48725,9.8676,0.999021,3.21896,-1.03368e-14,3.33958e-14,-28.9837,-3.76001,-68.1587,46.2501,7.70466,-32.7438,4.73909,7.12502,-5.96691,-25.1569,-1.03368e-14,3.33958e-14,-38.1239,6.91758,76.4994,22.3792,-11.8786,-19.0625,20.5093,7.12502,7.24483,50.3653,-17.3457,26.3422,0.983332,29.9632,-19.6151,-10.7096,-12.7592,-28.2362,-5.65809,0.430792,28.6376,17.3671,5.71592,-8.60913
1.8079,18.5866,0.892109,18.3918,58.5442,14.5351,15.5318,-0.0270256,4.33003,6.48853,0.889789,2.3034,-1.79669,0.580674,-0.181704,-4.11048,1.0594,-4.53139,29.4489,1.22096,6.35753,9.89299,1.02929,3.20346,3.97569e-14,1.11319e-14,-29.0257,-3.79622,-67.9694,46.5731,7.45403,-32.8111,4.462,7.12502,-6.03189,-25.4321,3.97569e-14,1.11319e-14,-38.0346,6.64019,76.6325,22.3832,-11.8397,-19.0424,20.3029,7.12502,7.26421,50.1582,-17.8159,26.3385,0.279426,30.1456,-19.7858,-10.7292,-13.1165,-27.7979,-5.9809,0.237047,28.2614,17.713,5.21136,-9.43297
1.8843,18.5731,0.769207,19.3168,58.1915,15.2049,15.5263,-0.214069,4.29564,6.48661,0.629114,2.07398,-1.80214,0.452357,-0.359566,-4.21581,1.02586,-4.54356,29.3419,1.16886,6.33689,9.87732,0.996058,3.19047,-5.56597e-14,5.725e-14,-29.1552,-4.17882,-67.7873,46.8885,7.2665,-33.2633,4.30101,7.12502,-6.46838,-25.5802,-5.56597e-14,5.725e-14,-37.8592,5.71908,76.9838,22.5905,-11.4888,-18.8531,21.058,7.12502,7.44694,50.9069,-18.2943,25.6742,-0.808526,30.323,-20.0427,-10.3202,-13.2194,-27.597,-6.50802,-0.353818,27.8815,17.7775,4.88405,-10.3092
1.95614,18.5556,0.661989,20.3528,57.6049,16.0888,15.5321,-0.249658,3.59034,6.52776,0.476207,1.97671,-1.77543,0.366887,-0.0391984,-4.19219,0.99888,-4.65318,29.1508,1.15243,6.25424,9.80398,0.96129,3.17048,2.14687e-14,-1.59028e-14,-29.2672,-4.47867,-67.4555,47.2263,7.2578,-33.3521,3.96325,7.12502,-6.55411,-25.9153,2.14687e-14,-1.59028e-14,-37.6936,4.80313,77.5855,22.7616,-11.2423,-18.8344,22.0895,7.12502,7.46502,51.9378,-18.813,25.2172,-2.07108,30.4953,-20.1255,-10.0271,-13.8639,-27.2898,-6.95642,-1.15062,27.5646,17.7661,4.6015,-11.6633
