JuanDHNZ/ProyectoFinalCD/preprocessing/sports_trials_csv/13_09.csv
root1,root2,root3,root4,root5,root6,lowerback1,lowerback2,lowerback3,upperback1,upperback2,upperback3,thorax1,thorax2,thorax3,lowerneck1,lowerneck2,lowerneck3,upperneck1,upperneck2,upperneck3,head1,head2,head3,rclavicle1,rclavicle2,rhumerus1,rhumerus2,rhumerus3,rradius1,rwrist1,rhand1,rhand2,rfingers1,rthumb1,rthumb2,lclavicle1,lclavicle2,lhumerus1,lhumerus2,lhumerus3,lradius1,lwrist1,lhand1,lhand2,lfingers1,lthumb1,lthumb2,rfemur1,rfemur2,rfemur3,rtibia1,rfoot1,rfoot2,rtoes1,lfemur1,lfemur2,lfemur3,ltibia1,lfoot1,lfoot2,ltoes1
-0.0179965,18.8309,4.2104,-3.45684,-6.41221,1.00542,5.00964,0.209331,-2.98012,-0.0757791,0.0790734,-0.816454,-2.89108,0.0763925,0.825493,-7.30353,-8.49772,-9.57798,15.3519,-11.5216,7.1162,6.85422,-5.6085,2.82433,1.55301e-16,-1.19271e-15,-18.8679,5.18581,-75.2116,87.6198,-13.7451,-40.6216,5.31749,7.12502,-13.5669,-24.2205,1.55301e-16,-1.19271e-15,-35.7648,13.6429,73.3359,22.1478,-9.83607,-22.0444,22.5453,7.12502,4.36592,52.4803,0,0,0,0,0,0,0,8.76118,-7.35292,-19.9167,7.33039,-12.2432,20.4426,-3.26503
-0.0178611,18.8286,4.20949,-3.46644,-6.34684,1.02374,5.03727,0.191685,-3.00125,-0.0820224,0.0530894,-0.816069,-2.91214,0.0640926,0.839602,-7.34738,-8.44692,-9.57175,15.4039,-11.4545,7.13074,6.87306,-5.57348,2.83295,-1.38528e-15,3.97569e-15,-18.9518,5.19207,-75.187,87.8088,-13.7913,-40.7134,5.07163,7.12502,-13.6554,-24.4604,-1.38528e-15,3.97569e-15,-35.7763,13.573,73.3634,22.1634,-9.72301,-22.0903,22.4216,7.12502,4.32162,52.3575,0,0,0,0,0,0,0,8.76719,-7.41749,-19.9367,7.32042,-12.1666,20.4532,-3.41493
-0.0187647,18.8295,4.20354,-3.477,-6.29134,1.02481,5.11543,0.180776,-3.01505,-0.0832823,0.0349603,-0.804068,-2.95671,0.0559386,0.860937,-7.39775,-8.40094,-9.60029,15.4573,-11.397,7.19135,6.89912,-5.54131,2.86039,-2.03071e-14,8.74653e-15,-19,5.15501,-75.155,87.9738,-13.8717,-40.7459,4.9001,7.12502,-13.6867,-24.6298,-2.03071e-14,8.74653e-15,-35.7587,13.5723,73.3791,22.1444,-9.73662,-22.2178,22.2544,7.12502,4.19845,52.1927,0,0,0,0,0,0,0,8.68615,-7.47604,-19.9226,7.46201,-12.23,20.4073,-3.24322
-0.0199288,18.8315,4.19598,-3.49391,-6.27541,1.04128,5.23615,0.185374,-3.05714,-0.0931986,0.0339814,-0.786993,-3.03481,0.0573068,0.902003,-7.4771,-8.3472,-9.65179,15.5569,-11.329,7.26847,6.94647,-5.50323,2.89626,-5.78339e-15,5.56597e-15,-19.0413,5.08897,-75.1156,88.109,-13.9857,-40.8997,5.20817,7.12502,-13.835,-24.3117,-5.78339e-15,5.56597e-15,-35.7671,13.5607,73.4162,22.1782,-9.70152,-22.2735,22.1983,7.12502,4.14465,52.1377,0,0,0,0,0,0,0,8.62915,-7.49464,-19.9173,7.57644,-12.3845,20.3101,-2.74813
-0.0201443,18.8306,4.19428,-3.49871,-6.2695,1.06919,5.25217,0.199255,-3.09082,-0.0724421,0.0503766,-0.782899,-3.02306,0.0656459,0.92384,-7.58429,-8.30029,-9.68769,15.6637,-11.2662,7.3222,6.99917,-5.46768,2.92061,1.82323e-14,-3.57812e-15,-19.0382,4.99522,-75.0768,88.2176,-14.0271,-41.2768,5.83155,7.12502,-14.1984,-23.6632,1.82323e-14,-3.57812e-15,-35.7263,13.5036,73.4875,22.2339,-9.60554,-22.2835,22.1916,7.12502,4.13499,52.1312,0,0,0,0,0,0,0,8.53384,-7.49971,-19.9439,7.76708,-12.5341,20.2507,-2.51556
-0.0213072,18.8297,4.19242,-3.49814,-6.27522,1.02105,5.2893,0.211991,-3.0565,-0.0710306,0.0686191,-0.763437,-3.04312,0.074601,0.923172,-7.68601,-8.27908,-9.63859,15.7921,-11.2305,7.25128,7.04807,-5.4498,2.88886,8.82728e-15,-3.97569e-16,-19.0527,4.96206,-75.0486,88.3037,-14.041,-41.4156,5.831,7.12502,-14.3321,-23.6543,8.82728e-15,-3.97569e-16,-35.7,13.4754,73.514,22.255,-9.60597,-22.2769,22.2624,7.12502,4.14139,52.2019,0,0,0,0,0,0,0,8.37337,-7.49921,-19.8872,8.04303,-12.5985,20.2551,-2.72362
-0.0230053,18.83,4.18678,-3.48957,-6.27966,0.91363,5.39165,0.211475,-2.97733,-0.111241,0.0692562,-0.721923,-3.14206,0.0756799,0.92126,-7.70922,-8.2671,-9.56084,15.8951,-11.2048,7.11247,7.07042,-5.44257,2.83317,4.55962e-15,-6.75868e-15,-19.1207,5.00377,-75.0228,88.4058,-14.1801,-41.4053,5.29355,7.12502,-14.3222,-24.1925,4.55962e-15,-6.75868e-15,-35.7387,13.4475,73.5065,22.261,-9.62632,-22.2131,22.3819,7.12502,4.20303,52.3202,0,0,0,0,0,0,0,8.20469,-7.50568,-19.7547,8.31493,-12.7171,20.2288,-2.85274
-0.0251812,18.8302,4.18017,-3.47505,-6.25541,0.79011,5.45404,0.200583,-2.88163,-0.113604,0.0598141,-0.679508,-3.17904,0.0702937,0.911988,-7.72471,-8.25235,-9.53358,15.9368,-11.1808,7.06429,7.08006,-5.43258,2.81511,-1.38528e-15,1.43125e-14,-19.1181,5.00855,-74.9994,88.5257,-14.3945,-41.6085,4.94124,7.12502,-14.518,-24.5308,-1.38528e-15,1.43125e-14,-35.7292,13.394,73.5259,22.2931,-9.57163,-22.1498,22.4888,7.12502,4.2641,52.4258,0,0,0,0,0,0,0,8.08883,-7.54248,-19.5979,8.48832,-12.7873,20.1994,-2.92927
-0.0259599,18.8301,4.17917,-3.4616,-6.21798,0.777113,5.41831,0.186233,-2.87011,-0.0800086,0.043536,-0.678915,-3.12362,0.0610268,0.907578,-7.8339,-8.23067,-9.49501,16.0349,-11.1486,7.03954,7.12429,-5.41345,2.79943,-1.21445e-14,3.97569e-15,-19.0357,4.97772,-74.9859,88.6185,-14.6107,-41.642,4.74242,7.12502,-14.5503,-24.7273,-1.21445e-14,3.97569e-15,-35.6986,13.3028,73.5604,22.3574,-9.44115,-22.0485,22.68,7.12502,4.36195,52.6151,0,0,0,0,0,0,0,8.02681,-7.58144,-19.5808,8.58238,-12.775,20.1891,-3.04176
-0.0243637,18.829,4.184,-3.45655,-6.17891,0.895343,5.32781,0.16877,-2.96521,-0.0598097,0.017028,-0.714669,-3.05105,0.0479246,0.926293,-7.88312,-8.18563,-9.44615,16.136,-11.0871,6.9924,7.15455,-5.38311,2.78066,1.36167e-14,3.97569e-15,-18.9421,5.0125,-74.9705,88.6455,-14.758,-41.6829,4.49908,7.12502,-14.5897,-24.9678,1.36167e-14,3.97569e-15,-35.7269,13.2758,73.5464,22.4237,-9.40419,-21.893,22.8501,7.12502,4.51209,52.782,0,0,0,0,0,0,0,8.01821,-7.60943,-19.7285,8.60308,-12.7872,20.1673,-3.05061
-0.0240076,18.8288,4.18389,-3.4832,-6.17976,1.00618,5.32984,0.174111,-3.08014,-0.032735,0.0168004,-0.737205,-3.02436,0.0487523,0.96755,-7.88222,-8.1633,-9.4078,16.179,-11.0539,6.93454,7.15982,-5.36926,2.75944,5.64051e-15,1.59028e-14,-18.8015,5.13408,-74.9142,88.6158,-14.8503,-42.0977,4.04254,7.12502,-14.9893,-25.395,5.64051e-15,1.59028e-14,-35.7223,13.299,73.534,22.4789,-9.43872,-21.8257,22.8271,7.12502,4.57711,52.7576,0,0,0,0,0,0,0,8.09772,-7.60001,-19.8529,8.50067,-12.8118,20.1247,-2.64845
-0.0244483,18.8298,4.18005,-3.49341,-6.24204,1.04209,5.3861,0.199102,-3.13414,-0.0140029,0.0451044,-0.729586,-3.03783,0.0636807,1.0034,-7.96536,-8.18548,-9.38154,16.2844,-11.0703,6.8399,7.20313,-5.38026,2.71869,7.48549e-15,1.07344e-14,-18.6611,5.29385,-74.8227,88.5531,-14.9998,-42.4909,3.3951,7.12502,-15.368,-26.0138,7.48549e-15,1.07344e-14,-35.6963,13.291,73.5628,22.4971,-9.43256,-21.9427,22.7979,7.12502,4.46415,52.7308,0,0,0,0,0,0,0,8.17953,-7.5349,-19.888,8.36486,-12.7716,20.1126,-2.44427
-0.0243236,18.8304,4.17817,-3.47246,-6.30079,1.03109,5.39474,0.219372,-3.1175,-0.0153866,0.0732356,-0.714729,-3.04523,0.07765,1.00714,-7.96852,-8.19832,-9.40312,16.3265,-11.0811,6.80692,7.21773,-5.38898,2.70966,2.26739e-15,-5.96354e-15,-18.4737,5.37924,-74.7475,88.4149,-15.1986,-42.6708,2.78294,7.12502,-15.5413,-26.6126,2.26739e-15,-5.96354e-15,-35.6903,13.3473,73.5413,22.4403,-9.53961,-22.1001,22.81,7.12502,4.31207,52.7461,0,0,0,0,0,0,0,8.17873,-7.47589,-19.8779,8.33593,-12.7386,20.113,-2.70253
-0.0247568,18.8304,4.1738,-3.48094,-6.36761,1.03578,5.4327,0.254154,-3.1196,0.00725114,0.118624,-0.70842,-3.04502,0.100071,1.01117,-7.91541,-8.19169,-9.43318,16.2747,-11.073,6.83135,7.19409,-5.38644,2.72574,1.19333e-14,1.78906e-15,-18.1248,5.36458,-74.6907,88.2012,-15.4086,-43.0088,2.53758,7.12502,-15.8669,-26.8323,1.19333e-14,1.78906e-15,-35.6281,13.4192,73.5058,22.3758,-9.64719,-22.0848,22.5119,7.12502,4.32693,52.4477,0,0,0,0,0,0,0,8.14624,-7.40941,-19.8778,8.39202,-12.7748,20.0828,-2.73607
-0.0244944,18.831,4.16636,-3.48095,-6.46262,1.019,5.50247,0.298313,-3.09677,0.0295477,0.176821,-0.70122,-3.06346,0.128749,1.00098,-7.92055,-8.19683,-9.44244,16.2755,-11.0796,6.84017,7.19692,-5.38922,2.72907,-1.1778e-14,3.97569e-16,-17.7733,5.35036,-74.6202,88.0237,-15.7385,-43.2127,2.79897,7.12502,-16.0632,-26.5552,-1.1778e-14,3.97569e-16,-35.5303,13.4228,73.5041,22.3297,-9.60581,-22.0312,22.1271,7.12502,4.3786,52.0619,0,0,0,0,0,0,0,8.08264,-7.31712,-19.8468,8.46105,-12.7791,20.0683,-2.79397
-0.0228824,18.832,4.16183,-3.45193,-6.52329,0.976121,5.51989,0.319772,-3.02319,0.0356802,0.209672,-0.69797,-3.06792,0.144018,0.960379,-7.958,-8.21224,-9.46169,16.3471,-11.1057,6.87391,7.23207,-5.39893,2.73783,-3.44922e-14,2.34566e-14,-17.5112,5.45916,-74.5089,87.9262,-16.2493,-43.1979,2.88915,7.12502,-16.0489,-26.4662,-3.44922e-14,2.34566e-14,-35.4547,13.4281,73.4833,22.2776,-9.60901,-22.0366,22.1099,7.12502,4.37343,52.0447,0,0,0,0,0,0,0,8.01374,-7.26012,-19.7912,8.51243,-12.766,20.0663,-2.935
-0.0213635,18.8323,4.15949,-3.43359,-6.57237,0.94151,5.51536,0.332901,-2.95968,0.0609045,0.23194,-0.699079,-3.03987,0.153552,0.921936,-8.06157,-8.21347,-9.48029,16.4809,-11.1152,6.93196,7.29896,-5.39673,2.75301,-1.9661e-15,1.27222e-14,-17.1842,5.692,-74.3747,87.8204,-16.7981,-43.4303,2.3622,7.12502,-16.2727,-26.975,-1.9661e-15,1.27222e-14,-35.3723,13.4626,73.4508,22.2443,-9.68827,-22.0704,22.2155,7.12502,4.34077,52.151,0,0,0,0,0,0,0,7.96615,-7.21382,-19.7483,8.56401,-12.7827,20.0474,-2.76869
-0.0191406,18.8334,4.15586,-3.41234,-6.63537,0.925656,5.51948,0.355003,-2.90795,0.086265,0.264674,-0.712164,-3.01689,0.168466,0.876886,-8.13085,-8.20499,-9.50633,16.5748,-11.1164,7.02118,7.34844,-5.38957,2.78219,-3.83282e-15,5.96354e-15,-16.7817,5.87108,-74.2577,87.6457,-17.2823,-43.6228,1.69873,7.12502,-16.4581,-27.6232,-3.83282e-15,5.96354e-15,-35.2805,13.5108,73.4043,22.1895,-9.77834,-22.1068,22.235,7.12502,4.30568,52.1712,0,0,0,0,0,0,0,7.9211,-7.15132,-19.7315,8.60018,-12.7964,20.0201,-2.4426
-0.0161609,18.8345,4.15174,-3.36905,-6.67981,0.902663,5.51541,0.382503,-2.82861,0.0868969,0.305927,-0.731575,-3.01489,0.18768,0.809102,-8.15877,-8.22398,-9.57952,16.6597,-11.1594,7.14954,7.39664,-5.40317,2.82842,-1.74962e-14,6.75868e-15,-16.3674,5.90165,-74.1641,87.3628,-17.6281,-43.8379,1.34194,7.12502,-16.6651,-27.9627,-1.74962e-14,6.75868e-15,-35.1877,13.5301,73.3567,22.0929,-9.90315,-22.1099,22.3782,7.12502,4.30265,52.3145,0,0,0,0,0,0,0,7.90182,-7.10639,-19.7141,8.55877,-12.7807,20.0266,-2.32087
-0.014703,18.8345,4.14749,-3.34016,-6.74773,0.876322,5.50869,0.416396,-2.77189,0.0988217,0.354959,-0.739071,-3.00009,0.210931,0.765719,-8.23885,-8.25897,-9.61818,16.798,-11.2146,7.2029,7.46633,-5.42477,2.84103,-7.442e-15,-2.10712e-14,-15.8994,5.89131,-74.0905,87.0066,-17.8478,-44.1575,1.06359,7.12502,-16.9729,-28.2148,-7.442e-15,-2.10712e-14,-35.0892,13.5611,73.3209,22.0217,-9.95517,-22.1603,22.5927,7.12502,4.25397,52.53,0,0,0,0,0,0,0,7.91563,-7.03908,-19.6862,8.48581,-12.7841,20.0395,-2.5039
-0.0136136,18.8347,4.14499,-3.32779,-6.81221,0.941277,5.48658,0.450867,-2.81835,0.11225,0.398035,-0.770634,-2.97541,0.232395,0.755979,-8.25834,-8.27419,-9.58134,16.8972,-11.2413,7.1758,7.50077,-5.4364,2.82184,1.11816e-15,5.56597e-15,-15.4593,5.89317,-74.0201,86.6934,-18.1399,-44.3293,1.03692,7.12502,-17.1381,-28.2272,1.11816e-15,5.56597e-15,-35.0338,13.5943,73.2678,21.9902,-9.94023,-22.1763,22.5511,7.12502,4.23848,52.4886,0,0,0,0,0,0,0,7.90498,-6.96944,-19.7556,8.46174,-12.7872,20.022,-2.60397
-0.0120223,18.8354,4.14122,-3.31655,-6.88772,0.993587,5.52307,0.499088,-2.8423,0.101913,0.458253,-0.798393,-3.00861,0.26296,0.735618,-8.24843,-8.28525,-9.56413,16.9696,-11.261,7.15457,7.52217,-5.44636,2.80982,-7.4917e-15,8.74653e-15,-15.0272,5.87852,-73.9277,86.3555,-18.4729,-44.5568,1.57225,7.12502,-17.3571,-27.6727,-7.4917e-15,8.74653e-15,-34.9929,13.6207,73.2115,21.9071,-10.0743,-22.0959,22.0549,7.12502,4.31619,51.9909,0,0,0,0,0,0,0,7.89861,-6.89006,-19.8079,8.41868,-12.723,20.0262,-2.43208
-0.0107452,18.8365,4.13376,-3.30546,-6.9715,0.972177,5.59783,0.552582,-2.79439,0.105873,0.529732,-0.802134,-3.04841,0.298205,0.698493,-8.28526,-8.30137,-9.58296,17.0098,-11.2833,7.17318,7.54612,-5.45533,2.81437,-9.16273e-16,1.70955e-14,-14.5755,5.86691,-73.8157,86.0007,-18.6924,-44.7031,1.71217,7.12502,-17.4979,-27.5203,-9.16273e-16,1.70955e-14,-34.8915,13.6867,73.1692,21.7939,-10.3425,-22.0834,21.6245,7.12502,4.32821,51.5603,0,0,0,0,0,0,0,7.91866,-6.80794,-19.7767,8.34456,-12.6992,20.0241,-2.18416
-0.00844534,18.8378,4.12947,-3.24961,-6.99569,1.01122,5.55044,0.593914,-2.77113,0.125807,0.587033,-0.848226,-3.0024,0.325377,0.633854,-8.31573,-8.31888,-9.58933,17.0111,-11.3205,7.25979,7.56074,-5.46547,2.83797,2.55469e-15,9.93923e-15,-14.2001,5.8531,-73.7184,85.7096,-18.8787,-44.8672,1.48285,7.12502,-17.6559,-27.7355,2.55469e-15,9.93923e-15,-34.7579,13.7101,73.1335,21.7613,-10.5808,-22.1271,21.8555,7.12502,4.286,51.7921,0,0,0,0,0,0,0,7.85951,-6.7795,-19.8222,8.33184,-12.7429,20.0036,-2.19922
-0.00718425,18.8393,4.12651,-3.22897,-7.11881,0.991069,5.54139,0.665875,-2.70792,0.149261,0.687124,-0.868887,-2.97525,0.373655,0.569291,-8.33016,-8.32124,-9.58665,17.0149,-11.3397,7.3462,7.57116,-5.46695,2.86285,7.0553e-15,1.19271e-15,-13.7677,5.85738,-73.6314,85.3994,-19.2094,-45.1312,1.6693,7.12502,-17.9099,-27.526,7.0553e-15,1.19271e-15,-34.6588,13.6836,73.1268,21.7843,-10.637,-22.1193,22.1399,7.12502,4.29354,52.0764,0,0,0,0,0,0,0,7.82525,-6.6569,-19.8003,8.36372,-12.7868,19.9846,-2.29914
-0.0100513,18.8389,4.11645,-3.27765,-7.24157,0.879516,5.70578,0.731047,-2.63324,0.171627,0.774543,-0.828538,-3.04655,0.416886,0.560051,-8.35916,-8.30337,-9.60474,17.058,-11.3175,7.3733,7.59109,-5.45412,2.87564,-9.81965e-15,7.55382e-15,-13.2643,5.92362,-73.523,85.0645,-19.5971,-45.158,1.71757,7.12502,-17.9357,-27.4754,-9.81965e-15,7.55382e-15,-34.5697,13.6478,73.157,21.7908,-10.53,-22.0763,22.2324,7.12502,4.33512,52.168,0,0,0,0,0,0,0,7.82311,-6.54593,-19.652,8.4257,-12.7973,19.9548,-2.13841
-0.0139805,18.8391,4.10016,-3.24882,-7.1526,0.842997,5.88797,0.732704,-2.64764,0.147885,0.769326,-0.811432,-3.17359,0.416055,0.583715,-8.41845,-8.30532,-9.62243,17.1484,-11.3153,7.35822,7.63129,-5.45312,2.87067,1.92821e-14,2.78299e-15,-12.7954,5.93619,-73.4179,84.7209,-19.8591,-45.0077,1.19962,7.12502,-17.7911,-28.0065,1.92821e-14,2.78299e-15,-34.4959,13.5948,73.1834,21.8207,-10.4534,-22.0697,22.4547,7.12502,4.3415,52.3902,0,0,0,0,0,0,0,7.64456,-6.6439,-19.5654,8.54666,-12.7097,19.9639,-2.18649
-0.017155,18.8419,4.08371,-3.18769,-7.0472,0.769588,6.06308,0.739545,-2.60189,0.115629,0.774899,-0.80567,-3.30482,0.419704,0.561059,-8.46637,-8.34524,-9.60027,17.1874,-11.3709,7.35095,7.65594,-5.47715,2.85601,8.54308e-15,-2.78299e-14,-12.3006,5.79347,-73.3242,84.3413,-20.0656,-44.8423,0.814519,7.12502,-17.6319,-28.406,8.54308e-15,-2.78299e-14,-34.3927,13.5173,73.1989,21.8614,-10.362,-22.1094,22.6281,7.12502,4.30309,52.5644,0,0,0,0,0,0,0,7.42858,-6.76782,-19.44,8.68138,-12.6036,19.9847,-2.25156
-0.0186279,18.8438,4.07485,-3.16355,-7.01958,0.678707,6.15505,0.774498,-2.51422,0.13136,0.825064,-0.797262,-3.34048,0.443525,0.515042,-8.51705,-8.38363,-9.56264,17.1673,-11.4239,7.35238,7.66094,-5.49845,2.84241,-2.89131e-15,-3.97569e-15,-11.7769,5.66461,-73.2053,83.9166,-20.1769,-44.898,1.19242,7.12502,-17.6855,-28.0233,-2.89131e-15,-3.97569e-15,-34.2527,13.4731,73.2166,21.8858,-10.3047,-22.1751,22.6928,7.12502,4.23967,52.6303,0,0,0,0,0,0,0,7.30653,-6.80322,-19.3213,8.80405,-12.5838,19.9667,-2.09052
-0.0170242,18.8451,4.07121,-3.12374,-7.01498,0.661243,6.14986,0.813632,-2.47375,0.150222,0.880552,-0.799051,-3.31894,0.470115,0.485752,-8.58126,-8.38519,-9.55874,17.171,-11.4255,7.37681,7.67493,-5.49497,2.84694,1.85967e-14,-1.19271e-14,-11.2785,5.63053,-73.07,83.4655,-20.1099,-45.1468,1.63901,7.12502,-17.9249,-27.5549,1.85967e-14,-1.19271e-14,-34.1508,13.5422,73.2004,21.8847,-10.4292,-22.191,22.4141,7.12502,4.22438,52.352,0,0,0,0,0,0,0,7.19603,-6.80771,-19.3055,8.91307,-12.6304,19.957,-2.20697
-0.0145777,18.847,4.06581,-3.05888,-7.0296,0.639672,6.16564,0.854095,-2.42685,0.117157,0.936335,-0.806699,-3.36261,0.497673,0.445961,-8.51519,-8.36708,-9.55102,17.1442,-11.4147,7.42438,7.65571,-5.48737,2.86551,6.26036e-15,8.74653e-15,-10.8545,5.59901,-72.9601,83.0138,-20.0359,-45.2983,1.46375,7.12502,-18.0706,-27.7168,6.26036e-15,8.74653e-15,-34.1265,13.5644,73.1667,21.9208,-10.4135,-22.1194,22.0873,7.12502,4.29347,52.0237,0,0,0,0,0,0,0,7.0947,-6.79304,-19.2804,8.94171,-12.6346,19.982,-2.45994
-0.0120538,18.8482,4.06202,-2.99924,-7.02746,0.669928,6.16589,0.891711,-2.43965,0.0790571,0.984201,-0.822719,-3.40338,0.52217,0.431832,-8.42612,-8.37311,-9.52486,17.1181,-11.43,7.40959,7.63018,-5.49686,2.85867,8.55298e-15,9.54166e-15,-10.3968,5.51789,-72.853,82.487,-20.012,-45.3997,1.46782,7.12502,-18.1682,-27.7037,8.55298e-15,9.54166e-15,-34.1508,13.4922,73.1841,22.0769,-10.1974,-22.015,22.176,7.12502,4.39425,52.1105,0,0,0,0,0,0,0,7.05898,-6.79166,-19.3143,8.85471,-12.5493,20.0113,-2.34827
-0.00928029,18.8489,4.0612,-2.97098,-7.00214,0.749778,6.14268,0.932797,-2.50317,0.0791351,1.03468,-0.836599,-3.39251,0.548082,0.44888,-8.42925,-8.39406,-9.58116,17.149,-11.4585,7.44309,7.64905,-5.51073,2.8746,-1.31353e-14,-3.97569e-16,-9.86651,5.39055,-72.7119,81.9282,-20.0321,-45.4924,2.11291,7.12502,-18.2574,-27.0503,-1.31353e-14,-3.97569e-16,-34.1429,13.4726,73.2311,22.2133,-10.07,-21.9462,22.1537,7.12502,4.46076,52.0867,0,0,0,0,0,0,0,7.10677,-6.81028,-19.4113,8.67866,-12.474,20.006,-2.12726
-0.00650941,18.851,4.05709,-2.88789,-6.92482,0.899906,6.10358,0.956526,-2.63579,0.0357141,1.05606,-0.87239,-3.41792,0.561151,0.484462,-8.32146,-8.38503,-9.71515,17.1338,-11.4585,7.57089,7.64088,-5.51162,2.94171,1.69313e-14,-2.38542e-15,-9.30118,5.31442,-72.5731,81.3236,-20.1536,-45.5391,2.45998,7.12502,-18.3023,-26.699,1.69313e-14,-2.38542e-15,-34.1405,13.443,73.2687,22.265,-9.99154,-21.9694,22.0314,7.12502,4.43833,51.9649,0,0,0,0,0,0,0,7.09388,-6.87691,-19.5727,8.44124,-12.3528,20.0424,-2.26947
-0.00523958,18.8527,4.05054,-2.81176,-6.8502,1.06162,6.11283,0.974856,-2.78916,-0.0168518,1.06656,-0.913503,-3.48,0.569612,0.526204,-8.20772,-8.36018,-9.80852,17.0999,-11.4307,7.6407,7.61689,-5.50185,2.98725,1.98577e-14,7.55382e-15,-8.59182,5.27455,-72.4672,80.5651,-20.3049,-45.5124,2.32237,7.12502,-18.2767,-26.839,1.98577e-14,7.55382e-15,-34.1129,13.426,73.2875,22.2698,-9.97174,-22.0261,22.1877,7.12502,4.38355,52.1223,0,0,0,0,0,0,0,7.08573,-6.94173,-19.7368,8.19109,-12.2012,20.0909,-2.34989
-0.00540251,18.8529,4.04966,-2.81253,-6.84652,1.12028,6.1145,1.02642,-2.82944,0.0124297,1.13192,-0.942372,-3.45287,0.601984,0.513313,-8.2509,-8.36402,-9.81872,17.1163,-11.4359,7.66503,7.63254,-5.50148,2.99431,1.3741e-14,1.59028e-15,-7.89157,5.13584,-72.3675,79.8744,-20.4805,-45.3541,2.21726,7.12502,-18.1243,-26.9583,1.3741e-14,1.59028e-15,-33.9531,13.3423,73.3475,22.2356,-9.9102,-22.112,22.4081,7.12502,4.30066,52.3444,0,0,0,0,0,0,0,7.1609,-6.93229,-19.8018,8.04479,-12.1515,20.076,-2.22742
-0.00468132,18.8537,4.04967,-2.78422,-6.82808,1.13835,6.05056,1.08474,-2.79002,0.0660414,1.21434,-0.991948,-3.36207,0.640554,0.434505,-8.37721,-8.41308,-9.75119,17.1738,-11.5035,7.64873,7.67509,-5.52661,2.96486,4.23815e-15,5.96354e-15,-7.30586,4.92672,-72.2795,79.2992,-20.8272,-45.2412,2.21957,7.12502,-18.0158,-26.966,4.23815e-15,5.96354e-15,-33.752,13.1557,73.427,22.2703,-9.79459,-22.144,22.4267,7.12502,4.26971,52.3636,0,0,0,0,0,0,0,7.14324,-6.94795,-19.8323,8.02776,-12.1415,20.0932,-2.37538
-0.00507758,18.8553,4.04352,-2.75305,-6.77183,1.0453,6.09482,1.12244,-2.66398,0.0890406,1.27218,-0.995635,-3.36186,0.667058,0.354345,-8.49483,-8.46386,-9.67399,17.2393,-11.5613,7.55557,7.71255,-5.55297,2.91015,-1.0576e-14,9.93923e-15,-6.7564,4.75857,-72.1941,78.7127,-21.276,-45.3482,2.13123,7.12502,-18.1187,-27.0449,-1.0576e-14,9.93923e-15,-33.6684,13.0109,73.4948,22.4464,-9.73479,-22.0625,22.4956,7.12502,4.34845,52.4309,0,0,0,0,0,0,0,7.07735,-7.01934,-19.7298,8.05483,-12.1227,20.1415,-2.69787
-0.00690354,18.8566,4.03614,-2.73975,-6.70656,0.960431,6.17966,1.14374,-2.59538,0.122645,1.30368,-0.977878,-3.37437,0.681589,0.330112,-8.62307,-8.46231,-9.65775,17.2741,-11.5513,7.55116,7.74462,-5.54341,2.90187,1.17811e-14,-6.36111e-15,-6.18463,4.58719,-72.1137,78.1508,-21.6725,-45.4005,2.08696,7.12502,-18.169,-27.0845,1.17811e-14,-6.36111e-15,-33.5452,12.8512,73.6005,22.562,-9.59995,-22.0303,22.6596,7.12502,4.37948,52.5943,0,0,0,0,0,0,0,7.01537,-7.09048,-19.6281,8.10373,-12.107,20.1467,-2.72249
-0.008325,18.8568,4.03066,-2.70518,-6.6222,0.996746,6.20126,1.16262,-2.64018,0.175506,1.32463,-1.01642,-3.33249,0.691622,0.313834,-8.83361,-8.46701,-9.58045,17.3286,-11.5574,7.5639,7.79655,-5.53383,2.88425,-7.09723e-15,-7.15625e-15,-5.59438,4.37371,-72.0814,77.6023,-22.0436,-45.282,2.21433,7.12502,-18.055,-26.9677,-7.09723e-15,-7.15625e-15,-33.3004,12.7136,73.6661,22.5136,-9.52249,-22.0459,22.5288,7.12502,4.36447,52.4638,0,0,0,0,0,0,0,6.89528,-7.1733,-19.658,8.19639,-12.1177,20.1204,-2.53877
-0.0113503,18.8578,4.02526,-2.61544,-6.69866,1.02169,6.15504,1.25259,-2.69723,0.195986,1.44182,-1.03748,-3.28933,0.750038,0.314688,-9.02704,-8.52916,-9.48876,17.3971,-11.6264,7.46603,7.84833,-5.56277,2.82102,3.15136e-14,7.55382e-15,-5.05275,4.15963,-72.0287,77.0545,-22.4496,-45.1443,2.17232,7.12502,-17.9225,-27.0218,3.15136e-14,7.55382e-15,-33.1092,12.6376,73.7281,22.4701,-9.58328,-21.9887,22.4026,7.12502,4.41971,52.3365,0,0,0,0,0,0,0,6.73189,-7.09597,-19.6596,8.29133,-12.1768,20.0974,-2.70149
-0.0160814,18.8602,4.01983,-2.49601,-6.86352,0.973125,6.07205,1.36814,-2.71709,0.200763,1.59892,-0.996762,-3.24368,0.828302,0.355639,-9.1249,-8.57553,-9.52021,17.3919,-11.6642,7.40858,7.86614,-5.58447,2.79836,-1.66172e-14,-1.59028e-14,-4.51429,3.95453,-71.9259,76.5087,-22.9478,-44.9707,2.05643,7.12502,-17.7555,-27.153,-1.66172e-14,-1.59028e-14,-33.0076,12.6382,73.8124,22.4879,-9.70245,-21.9468,22.1964,7.12502,4.4601,52.1295,0,0,0,0,0,0,0,6.5603,-6.93369,-19.5793,8.39949,-12.2458,20.0966,-2.81722
-0.0184363,18.8621,4.01529,-2.44299,-6.70007,0.886843,6.06761,1.36843,-2.63109,0.224061,1.60664,-0.97851,-3.21541,0.830589,0.326154,-9.15127,-8.59206,-9.54683,17.3429,-11.6806,7.43152,7.8593,-5.59139,2.80724,-1.38155e-14,-5.56597e-15,-3.95653,3.64604,-71.8989,75.8824,-23.3433,-44.8967,2.1619,7.12502,-17.6843,-27.0539,-1.38155e-14,-5.56597e-15,-32.9313,12.628,73.8451,22.5393,-9.81471,-21.9901,21.9367,7.12502,4.41829,51.8706,0,0,0,0,0,0,0,6.40123,-7.10266,-19.4695,8.55728,-12.2576,20.1065,-2.63966
-0.0192686,18.8632,4.01187,-2.43006,-6.3038,0.848553,6.07419,1.30294,-2.52708,0.266857,1.5258,-1.02722,-3.16862,0.787863,0.225529,-9.15603,-8.60612,-9.54055,17.3074,-11.7198,7.5415,7.85839,-5.60029,2.83758,2.20465e-14,-1.55052e-14,-3.34505,3.22114,-71.9672,75.137,-23.5986,-44.9013,2.10458,7.12502,-17.6887,-27.1108,2.20465e-14,-1.55052e-14,-32.7892,12.4642,73.8693,22.5561,-9.79307,-22.02,22.1105,7.12502,4.38946,52.045,0,0,0,0,0,0,0,6.23117,-7.50327,-19.4116,8.72882,-12.2103,20.1352,-2.80909
-0.020363,18.864,4.00762,-2.4529,-5.91714,0.868904,6.11076,1.24763,-2.48455,0.32401,1.453,-1.09078,-3.12561,0.7499,0.142761,-9.16705,-8.59972,-9.58565,17.2848,-11.7344,7.71194,7.86766,-5.59542,2.89837,-1.78844e-14,-2.78299e-15,-2.74603,2.89816,-71.9792,74.426,-23.9094,-44.6809,2.33387,7.12502,-17.4766,-26.9005,-1.78844e-14,-2.78299e-15,-32.5825,12.2704,73.9059,22.4491,-9.74547,-22.0619,22.1039,7.12502,4.34897,52.0393,0,0,0,0,0,0,0,6.09668,-7.89057,-19.4322,8.8766,-12.1535,20.1797,-3.15534
-0.0211489,18.8654,4.0007,-2.48925,-5.49373,0.894286,6.24143,1.17936,-2.45847,0.333791,1.35822,-1.13122,-3.18509,0.702515,0.0921749,-9.09831,-8.58632,-9.62311,17.2483,-11.7247,7.7739,7.84862,-5.5901,2.92884,1.60084e-14,-2.78299e-15,-2.27646,2.67281,-71.9383,73.7865,-24.2022,-44.4243,3.65748,7.12502,-17.2296,-25.5987,1.60084e-14,-2.78299e-15,-32.4744,12.0884,73.958,22.3607,-9.67454,-22.11,21.7666,7.12502,4.30257,51.7029,0,0,0,0,0,0,0,6.00228,-8.31459,-19.4602,8.94355,-12.063,20.2295,-3.28839
-0.0221701,18.867,3.99387,-2.48521,-5.06737,0.891509,6.33407,1.09818,-2.43545,0.325862,1.24821,-1.13652,-3.24232,0.647955,0.0817576,-9.05498,-8.58329,-9.60136,17.2353,-11.7087,7.68632,7.82833,-5.58963,2.90064,1.85926e-14,4.37326e-15,-1.7782,2.43537,-71.9203,73.1291,-24.446,-44.5164,4.85444,7.12502,-17.3183,-24.394,1.85926e-14,4.37326e-15,-32.4731,11.9801,74.0187,22.4546,-9.60673,-22.0171,21.5782,7.12502,4.39225,51.5127,0,0,0,0,0,0,0,5.91945,-8.74391,-19.4384,8.90935,-11.9335,20.2783,-3.42161
-0.0235423,18.8677,3.99086,-2.47478,-5.04232,0.93523,6.3033,1.1468,-2.48893,0.366042,1.31098,-1.14017,-3.18594,0.679205,0.103432,-9.14351,-8.58438,-9.5994,17.2708,-11.6909,7.61858,7.84994,-5.58367,2.8764,1.34801e-15,1.07344e-14,-1.16944,2.15061,-71.9185,72.4212,-24.6318,-44.3574,4.32271,7.12502,-17.1652,-24.9391,1.34801e-15,1.07344e-14,-32.4067,11.9707,74.0728,22.5791,-9.66248,-21.7204,21.868,7.12502,4.6788,51.7963,0,0,0,0,0,0,0,5.94767,-8.76673,-19.4828,8.80996,-11.8731,20.2938,-3.5722
-0.0268859,18.8665,3.98803,-2.49764,-5.45427,0.993549,6.30845,1.3539,-2.56655,0.403371,1.58099,-1.16257,-3.15741,0.813831,0.0996572,-9.24652,-8.58556,-9.59739,17.3262,-11.6854,7.60995,7.88546,-5.57805,2.86927,1.47598e-14,-3.18055e-15,-0.616581,1.80976,-71.9651,71.6822,-24.7105,-44.0623,3.1163,7.12502,-16.8812,-26.17,1.47598e-14,-3.18055e-15,-32.2265,11.9867,74.0832,22.5426,-9.69492,-21.3736,22.26,7.12502,5.01358,52.1807,0,0,0,0,0,0,0,6.1158,-8.35056,-19.551,8.65029,-11.8812,20.2772,-3.44701
-0.0312436,18.8656,3.98588,-2.49558,-5.61377,1.04594,6.33837,1.48557,-2.6158,0.418324,1.75045,-1.20702,-3.1625,0.898353,0.0653635,-9.31628,-8.58725,-9.5363,17.3729,-11.6922,7.59722,7.90929,-5.57594,2.8516,9.69075e-16,-1.35174e-14,-0.149388,1.47003,-72.0484,70.9868,-24.7043,-44.147,2.93514,7.12502,-16.9627,-26.3442,9.69075e-16,-1.35174e-14,-32.0385,11.9656,74.0621,22.4769,-9.64025,-21.1276,22.3411,7.12502,5.25119,52.2561,0,0,0,0,0,0,0,6.21675,-8.18898,-19.5944,8.46561,-11.8151,20.3154,-3.37609
-0.0342561,18.8672,3.98711,-2.42176,-5.48094,1.14119,6.24438,1.52267,-2.67179,0.424009,1.79762,-1.26843,-3.10478,0.921715,0.0318479,-9.25658,-8.57441,-9.53682,17.3035,-11.6882,7.66976,7.87982,-5.57006,2.87898,4.31114e-15,-8.34896e-15,0.323829,1.06286,-72.1386,70.2264,-24.7026,-43.8662,3.25879,7.12502,-16.6924,-26.0435,4.31114e-15,-8.34896e-15,-31.9196,11.8222,74.102,22.5153,-9.60449,-21.1055,22.4968,7.12502,5.27253,52.4112,0,0,0,0,0,0,0,6.16571,-8.31746,-19.6784,8.34778,-11.7602,20.3793,-3.55546
-0.0379449,18.8686,3.986,-2.43258,-5.43326,1.12663,6.26601,1.58477,-2.64526,0.429133,1.8811,-1.27971,-3.11214,0.962811,-0.00269172,-9.12438,-8.55283,-9.55695,17.1959,-11.668,7.72116,7.82324,-5.56193,2.90771,-1.57661e-14,-1.63003e-14,0.724128,0.701215,-72.1964,69.3347,-24.7497,-43.398,3.61895,7.12502,-16.2416,-25.7208,-1.57661e-14,-1.63003e-14,-31.8417,11.7049,74.1628,22.5133,-9.57208,-21.4234,22.3186,7.12502,4.96549,52.2404,0,0,0,0,0,0,0,6.20284,-8.36738,-19.6498,8.29246,-11.8154,20.3706,-3.47571
-0.0426565,18.8683,3.98288,-2.539,-5.42069,0.987218,6.43028,1.64551,-2.53217,0.443578,1.96552,-1.23973,-3.1885,1.0039,-0.0371668,-9.0879,-8.53366,-9.51231,17.206,-11.6376,7.64872,7.80995,-5.5516,2.88226,-1.88473e-14,8.74653e-15,1.02976,0.513439,-72.1993,68.5018,-24.7823,-43.1523,3.84839,7.12502,-16.005,-25.5105,-1.88473e-14,8.74653e-15,-31.7539,11.6797,74.1963,22.3649,-9.41141,-21.8306,21.7409,7.12502,4.5723,51.6716,0,0,0,0,0,0,0,6.33603,-8.38977,-19.497,8.27305,-11.827,20.3577,-3.33355
-0.0458853,18.8686,3.98076,-2.57183,-5.35125,0.934506,6.46933,1.69263,-2.48963,0.472636,2.03116,-1.22253,-3.18071,1.03581,-0.0499543,-9.16343,-8.54243,-9.5141,17.2748,-11.638,7.60213,7.84345,-5.55288,2.86362,9.28076e-15,-2.5842e-14,1.45288,0.219652,-72.2188,67.7669,-24.7624,-42.6115,4.14096,7.12502,-15.4842,-25.259,9.28076e-15,-2.5842e-14,-31.6334,11.6424,74.2665,22.2658,-9.24866,-22.0105,21.6153,7.12502,4.3986,51.5496,0,0,0,0,0,0,0,6.33487,-8.4633,-19.4371,8.32174,-11.8251,20.3935,-3.36902
-0.0476327,18.8696,3.97897,-2.51814,-5.23383,0.992628,6.41111,1.73724,-2.54454,0.492268,2.08871,-1.23696,-3.13035,1.06462,-0.0371711,-9.30425,-8.59124,-9.5351,17.3689,-11.6891,7.56631,7.90363,-5.5764,2.84228,-2.31336e-14,1.86858e-14,1.9629,0.0301809,-72.1443,66.9922,-24.809,-41.9258,5.05542,7.12502,-14.8236,-24.3944,-2.31336e-14,1.86858e-14,-31.5534,11.5795,74.3721,22.3637,-9.23297,-21.9806,22.0055,7.12502,4.4275,51.9393,0,0,0,0,0,0,0,6.22011,-8.5774,-19.492,8.37153,-11.8199,20.4196,-3.33599
-0.0493867,18.8704,3.97638,-2.44993,-5.10575,1.01775,6.38019,1.75994,-2.57005,0.477939,2.11763,-1.24694,-3.12897,1.07938,-0.0351619,-9.43958,-8.60703,-9.51796,17.5209,-11.7011,7.50819,7.97456,-5.58068,2.81234,-1.1281e-14,0,2.40324,0.195567,-71.9482,66.1576,-24.9489,-41.6128,6.11187,7.12502,-14.5221,-23.3599,-1.1281e-14,0,-31.514,11.562,74.4178,22.4321,-9.26165,-21.8719,22.3069,7.12502,4.53244,52.2384,0,0,0,0,0,0,0,6.12095,-8.70431,-19.5044,8.35707,-11.7475,20.4348,-3.35803
-0.053021,18.8707,3.97217,-2.46499,-4.97001,1.00257,6.44964,1.77586,-2.54291,0.484492,2.13771,-1.26616,-3.15974,1.08903,-0.0741663,-9.59105,-8.58658,-9.45951,17.7048,-11.6726,7.45896,8.05329,-5.5617,2.78311,8.19987e-16,-4.77083e-15,2.83772,0.18609,-71.8992,65.3665,-24.7582,-41.419,6.67231,7.12502,-14.3353,-22.8128,8.19987e-16,-4.77083e-15,-31.4229,11.5413,74.4072,22.385,-9.27841,-21.6928,22.5266,7.12502,4.70538,52.4543,0,0,0,0,0,0,0,6.12945,-8.8428,-19.4741,8.31949,-11.7287,20.4563,-3.46453
-0.0581064,18.8704,3.96831,-2.49361,-4.81902,0.979428,6.51137,1.80962,-2.49341,0.504346,2.18311,-1.30612,-3.17121,1.11061,-0.148884,-9.6328,-8.59178,-9.3502,17.7636,-11.6897,7.41442,8.0721,-5.56481,2.74723,1.09704e-14,-8.34896e-15,3.29529,-0.0481546,-71.9865,64.5871,-24.106,-41.666,6.6169,7.12502,-14.5734,-22.8511,1.09704e-14,-8.34896e-15,-31.2982,11.4376,74.4049,22.301,-9.31073,-21.6785,22.9027,7.12502,4.71923,52.8302,0,0,0,0,0,0,0,6.15114,-8.99734,-19.4355,8.28102,-11.6883,20.4917,-3.52631
-0.0620119,18.8712,3.96658,-2.40645,-4.6854,0.987565,6.44109,1.85764,-2.4755,0.455978,2.24849,-1.34802,-3.18063,1.14301,-0.206829,-9.38271,-8.60362,-9.28258,17.5953,-11.7254,7.41111,7.97011,-5.58614,2.74291,3.47873e-15,8.34896e-15,3.65853,-0.181828,-72.0204,63.8078,-23.4696,-42.3289,6.23256,7.12502,-15.212,-23.1882,3.47873e-15,8.34896e-15,-31.2474,11.3011,74.4281,22.2096,-9.23783,-21.9696,23.2224,7.12502,4.43813,53.1559,0,0,0,0,0,0,0,6.04277,-9.13133,-19.4157,8.24062,-11.5591,20.5421,-3.57248
-0.0657647,18.8724,3.96413,-2.35004,-4.58729,1.05458,6.42647,1.90294,-2.53997,0.394552,2.30214,-1.37958,-3.23812,1.17111,-0.209305,-9.0907,-8.57603,-9.2773,17.3922,-11.7039,7.44431,7.85048,-5.58274,2.76946,8.01351e-15,-1.31198e-14,3.97592,-0.309875,-72.0455,63.087,-23.071,-42.1114,5.69523,7.12502,-15.0024,-23.7413,8.01351e-15,-1.31198e-14,-31.2671,11.2988,74.423,22.1547,-9.21263,-22.1744,23.4299,7.12502,4.2404,53.3675,0,0,0,0,0,0,0,5.96089,-9.22738,-19.4604,8.19286,-11.4601,20.5713,-3.61492
-0.070157,18.8724,3.96286,-2.39666,-4.53965,1.09741,6.46237,1.94663,-2.5896,0.427871,2.35554,-1.39622,-3.22598,1.19791,-0.20426,-9.0826,-8.53503,-9.2759,17.3435,-11.6534,7.49284,7.83123,-5.55507,2.79206,-1.78658e-14,1.47101e-14,4.43981,-0.488712,-72.1163,62.3387,-22.7457,-41.5227,5.50809,7.12502,-14.4353,-23.9699,-1.78658e-14,1.47101e-14,-31.1993,11.4841,74.3569,22.0485,-9.54058,-22.2257,23.4328,7.12502,4.19078,53.3713,0,0,0,0,0,0,0,6.0203,-9.27496,-19.4965,8.12057,-11.4429,20.5991,-3.55465
-0.0745295,18.872,3.96602,-2.44614,-4.52111,1.1173,6.41201,2.00453,-2.5999,0.509184,2.43534,-1.41174,-3.11482,1.23643,-0.217993,-9.19249,-8.51821,-9.2872,17.369,-11.6294,7.53922,7.86063,-5.53687,2.80723,-1.98785e-14,7.95139e-16,4.97797,-0.666357,-72.1844,61.5458,-22.346,-41.3843,5.6599,7.12502,-14.3019,-23.8275,-1.98785e-14,7.95139e-16,-31.0603,11.5662,74.352,21.9211,-9.75924,-22.4078,23.0808,7.12502,4.01495,53.0227,0,0,0,0,0,0,0,6.14236,-9.29364,-19.5183,8.00333,-11.447,20.6343,-3.39512
-0.0790842,18.8716,3.97025,-2.4742,-4.46508,1.14337,6.36345,2.06277,-2.62824,0.526741,2.5128,-1.42449,-3.07146,1.27488,-0.220111,-9.1174,-8.49948,-9.31197,17.3679,-11.6101,7.56522,7.84828,-5.5291,2.82509,-2.65378e-14,1.55052e-14,5.38186,-0.843809,-72.2404,60.7707,-21.9736,-40.9897,5.7431,7.12502,-13.9217,-23.7709,-2.65378e-14,1.55052e-14,-31.0318,11.542,74.3811,21.8623,-9.69239,-22.552,22.8547,7.12502,3.87573,52.7992,0,0,0,0,0,0,0,6.23667,-9.34902,-19.5474,7.89087,-11.3555,20.664,-3.65785
-0.0785463,18.8703,3.98206,-2.43196,-4.54612,1.18634,6.17262,2.16502,-2.61888,0.491756,2.65527,-1.45699,-3.00128,1.34531,-0.264894,-8.87939,-8.47162,-9.33753,17.301,-11.5908,7.60868,7.78618,-5.52515,2.85601,-1.02498e-14,2.38542e-15,5.62325,-0.896047,-72.1966,59.9144,-22.026,-40.3312,5.66045,7.12502,-13.2871,-23.896,-1.02498e-14,2.38542e-15,-31.0792,11.6156,74.328,21.7631,-9.72761,-22.4851,22.9428,7.12502,3.94035,52.8861,0,0,0,0,0,0,0,6.24895,-9.26209,-19.6222,7.8485,-11.2202,20.7168,-4.48299
-0.0771746,18.8689,3.99228,-2.36906,-4.68165,1.17344,5.9768,2.26682,-2.53186,0.47584,2.80326,-1.48386,-2.90499,1.41737,-0.346124,-8.72338,-8.44764,-9.36039,17.1979,-11.5731,7.67955,7.72852,-5.51754,2.89207,3.71603e-14,-1.35174e-14,5.86692,-0.692932,-72.051,58.843,-22.1546,-40.3406,5.7623,7.12502,-13.2961,-23.7936,3.71603e-14,-1.35174e-14,-31.0793,11.6999,74.28,21.65,-9.72678,-22.5233,22.7068,7.12502,3.90343,52.6508,0,0,0,0,0,0,0,6.20874,-9.12369,-19.6292,7.88616,-11.2074,20.7554,-4.71518
-0.0834895,18.8707,3.98465,-2.40461,-4.51281,1.09828,6.11039,2.25676,-2.49428,0.488535,2.7883,-1.46177,-2.96572,1.40979,-0.348497,-8.77293,-8.44113,-9.35264,17.2061,-11.5605,7.67597,7.7382,-5.50975,2.88913,-1.66606e-14,-4.77083e-15,6.2261,-0.405945,-71.9447,57.7385,-21.8763,-40.959,6.68119,7.12502,-13.8921,-22.8348,-1.66606e-14,-4.77083e-15,-31.0474,11.8205,74.2563,21.6139,-9.7424,-22.4884,22.6636,7.12502,3.93715,52.6069,0,0,0,0,0,0,0,6.14895,-9.30053,-19.5142,7.99767,-11.2526,20.7522,-4.3233
-0.0910404,18.873,3.9737,-2.46606,-4.28982,1.03335,6.29157,2.24295,-2.46523,0.5289,2.76629,-1.45371,-3.0241,1.39851,-0.361146,-8.97403,-8.44646,-9.34377,17.3543,-11.5612,7.66797,7.8219,-5.50293,2.8758,-6.33626e-16,-1.43125e-14,6.63877,-0.277983,-71.8993,56.8288,-21.6955,-41.2646,7.19814,7.12502,-14.1866,-22.2974,-6.33626e-16,-1.43125e-14,-30.8989,11.8801,74.2335,21.5027,-9.85853,-22.3011,23.1328,7.12502,4.11801,53.0728,0,0,0,0,0,0,0,6.05,-9.53223,-19.4071,8.19161,-11.2721,20.749,-4.30561
-0.0954577,18.8723,3.96941,-2.48745,-4.21174,0.950153,6.34354,2.28651,-2.34228,0.570727,2.83127,-1.47986,-3.00352,1.42882,-0.463538,-9.24811,-8.43272,-9.33436,17.5777,-11.5487,7.72669,7.94655,-5.48129,2.88257,5.0951e-14,-3.4191e-14,7.01766,-0.224216,-71.8656,56.0067,-21.6698,-41.1807,6.86109,7.12502,-14.1057,-22.6401,5.0951e-14,-3.4191e-14,-30.6598,11.7159,74.2677,21.3228,-9.75132,-22.3821,23.1801,7.12502,4.0398,53.1216,0,0,0,0,0,0,0,5.94709,-9.61706,-19.2992,8.385,-11.2668,20.7725,-4.71172
-0.0983966,18.8716,3.96934,-2.51468,-4.13315,0.91305,6.38153,2.31446,-2.27218,0.579289,2.87159,-1.50375,-3.01167,1.44788,-0.532283,-9.4784,-8.42628,-9.28117,17.7993,-11.5387,7.6916,8.05489,-5.46732,2.8533,2.12824e-14,-8.74653e-15,7.32093,0.0111931,-71.7836,55.1954,-21.6616,-41.0202,6.77316,7.12502,-13.9511,-22.7388,2.12824e-14,-8.74653e-15,-30.4919,11.7065,74.2658,21.1605,-9.67496,-22.4034,22.9477,7.12502,4.01927,52.8896,0,0,0,0,0,0,0,5.92576,-9.69833,-19.262,8.46789,-11.2377,20.8165,-5.24912
-0.101875,18.8723,3.97226,-2.54402,-4.02113,1.00248,6.37428,2.32431,-2.35021,0.592338,2.87849,-1.54297,-2.99605,1.45191,-0.529086,-9.56344,-8.44041,-9.2447,17.8704,-11.5492,7.62622,8.08846,-5.47235,2.82086,-4.49875e-14,3.02153e-14,7.5862,0.373286,-71.6621,54.4628,-21.802,-41.1421,6.81254,7.12502,-14.0686,-22.6913,-4.49875e-14,3.02153e-14,-30.3765,12.0331,74.1533,20.9783,-9.95543,-22.2649,22.7504,7.12502,4.15296,52.6897,0,0,0,0,0,0,0,5.93641,-9.80619,-19.3641,8.48736,-11.1964,20.8557,-5.4719
-0.106647,18.8723,3.97463,-2.52802,-3.88492,1.10065,6.30801,2.33614,-2.43167,0.603467,2.88979,-1.59049,-2.94921,1.45803,-0.530298,-9.52806,-8.45603,-9.2768,17.8419,-11.5756,7.6733,8.08001,-5.48403,2.8397,2.62768e-14,-1.59028e-14,7.83344,0.625861,-71.5703,53.7508,-21.8494,-41.4323,6.964,7.12502,-14.3482,-22.5202,2.62768e-14,-1.59028e-14,-30.342,12.1845,74.0988,20.8747,-10.0815,-22.4016,22.491,7.12502,4.02092,52.4328,0,0,0,0,0,0,0,5.90139,-9.93876,-19.4519,8.47342,-11.1228,20.8758,-5.35356
-0.110482,18.8724,3.97495,-2.47783,-3.79188,1.08275,6.26883,2.35713,-2.38584,0.578606,2.92134,-1.60792,-2.95009,1.47327,-0.575544,-9.50396,-8.46652,-9.39916,17.8813,-11.6038,7.81721,8.10803,-5.49307,2.9035,4.13721e-15,5.1684e-15,8.0511,0.785795,-71.5155,53.0263,-21.7824,-41.3459,7.28626,7.12502,-14.265,-22.2038,4.13721e-15,5.1684e-15,-30.3401,12.1267,74.1295,20.8054,-9.98307,-22.553,22.3976,7.12502,3.8748,52.3421,0,0,0,0,0,0,0,5.83681,-10.0334,-19.4134,8.45543,-11.0491,20.8995,-5.48032
-0.112881,18.8733,3.976,-2.44838,-3.73597,1.08544,6.25525,2.38215,-2.36657,0.553488,2.95531,-1.62761,-2.96675,1.49005,-0.609702,-9.4508,-8.45971,-9.51794,17.8955,-11.6045,7.93846,8.11829,-5.49196,2.96413,-4.75717e-14,2.78299e-15,8.25611,0.995005,-71.4719,52.3219,-21.5965,-41.2024,7.4563,7.12502,-14.1266,-22.0435,-4.75717e-14,2.78299e-15,-30.3138,12.2935,74.0657,20.6462,-10.2034,-22.4146,22.5355,7.12502,4.00837,52.4776,0,0,0,0,0,0,0,5.76642,-10.0885,-19.4174,8.51167,-11.0549,20.9388,-5.71823
-0.117034,18.8738,3.9793,-2.47426,-3.66037,1.09978,6.28741,2.40898,-2.38468,0.533452,2.98771,-1.63817,-3.0061,1.50658,-0.615514,-9.27137,-8.45534,-9.5561,17.7953,-11.6036,7.95989,8.05641,-5.49839,2.98508,3.12216e-14,9.14409e-15,8.39976,1.17298,-71.436,51.7456,-21.4,-41.0873,7.16276,7.12502,-14.0157,-22.3447,3.12216e-14,9.14409e-15,-30.3902,12.4741,73.9869,20.5499,-10.4757,-22.4216,22.6185,7.12502,4.0017,52.5607,0,0,0,0,0,0,0,5.72785,-10.164,-19.435,8.6543,-11.1667,20.9531,-5.72282
-0.12249,18.8735,3.98106,-2.50481,-3.58728,1.04039,6.34995,2.44457,-2.31869,0.511531,3.03712,-1.63195,-3.06105,1.53067,-0.653977,-9.14015,-8.46791,-9.54687,17.7201,-11.6228,7.93575,8.00764,-5.51345,2.979,2.04997e-14,7.95139e-16,8.48704,1.25308,-71.3878,51.3589,-21.486,-40.7252,6.86005,7.12502,-13.6668,-22.6712,2.04997e-14,7.95139e-16,-30.5266,12.4735,73.9831,20.6103,-10.5283,-22.5196,22.5163,7.12502,3.90697,52.4603,0,0,0,0,0,0,0,5.66511,-10.242,-19.3626,8.84715,-11.2282,20.9707,-5.86502
-0.126475,18.8731,3.97982,-2.51558,-3.54774,0.956166,6.36156,2.47925,-2.21055,0.524691,3.09117,-1.62609,-3.04892,1.55614,-0.713208,-9.14223,-8.4855,-9.49523,17.7016,-11.6407,7.8716,7.99638,-5.52408,2.94759,-7.06928e-15,2.98177e-14,8.61918,1.4026,-71.3206,50.9842,-21.5177,-40.5386,7.06214,7.12502,-13.4869,-22.4812,-7.06928e-15,2.98177e-14,-30.582,12.5027,73.9766,20.6514,-10.5725,-22.3044,22.2832,7.12502,4.11483,52.2232,0,0,0,0,0,0,0,5.55173,-10.2874,-19.2602,9.07306,-11.2709,20.9808,-5.9669
-0.129321,18.8728,3.98114,-2.50325,-3.52248,0.844116,6.31012,2.50351,-2.07956,0.530836,3.13527,-1.6121,-3.00776,1.57645,-0.773005,-9.06916,-8.47684,-9.46107,17.6515,-11.632,7.85034,7.96235,-5.5221,2.93965,1.69588e-14,-1.31198e-14,8.73072,1.56415,-71.329,50.5908,-21.2586,-40.5683,7.35551,7.12502,-13.5156,-22.1859,1.69588e-14,-1.31198e-14,-30.6478,12.4957,73.9722,20.6084,-10.5214,-22.2042,22.0284,7.12502,4.21154,51.9665,0,0,0,0,0,0,0,5.45862,-10.319,-19.1311,9.24193,-11.354,20.9424,-5.96831
-0.131707,18.8734,3.98618,-2.42808,-3.48859,0.774428,6.16975,2.52387,-1.98789,0.511686,3.17307,-1.6162,-2.94394,1.59416,-0.825251,-8.95814,-8.43313,-9.4629,17.6132,-11.5881,7.90398,7.92897,-5.50035,2.96784,-2.69105e-14,3.45885e-14,8.79721,1.72565,-71.3552,50.3429,-21.0783,-40.6499,7.53725,7.12502,-13.5943,-21.9989,-2.69105e-14,3.45885e-14,-30.767,12.3575,74.006,20.6026,-10.3803,-22.3568,22.0529,7.12502,4.0642,51.9939,0,0,0,0,0,0,0,5.37687,-10.3543,-19.0545,9.29282,-11.36,20.9347,-6.09224
-0.135376,18.8742,3.99096,-2.37866,-3.40668,0.844427,6.04867,2.53843,-2.06387,0.518843,3.1907,-1.64339,-2.87149,1.60357,-0.806192,-8.9416,-8.40394,-9.45684,17.6151,-11.5497,7.90465,7.92263,-5.48204,2.97254,-1.04486e-14,1.35174e-14,8.86133,2.02392,-71.2621,50.2358,-21.0612,-40.7069,7.4898,7.12502,-13.6491,-22.0427,-1.04486e-14,1.35174e-14,-30.8515,12.267,74.0669,20.6599,-10.2856,-22.449,22.3538,7.12502,3.97515,52.2965,0,0,0,0,0,0,0,5.33372,-10.4318,-19.1236,9.28122,-11.3132,20.9752,-6.03782
-0.14185,18.8733,3.99311,-2.42153,-3.237,0.9798,6.09266,2.53662,-2.23825,0.517328,3.17362,-1.68194,-2.90495,1.59698,-0.749587,-8.95406,-8.4017,-9.45922,17.6668,-11.5497,7.90895,7.94238,-5.48091,2.97356,-6.40956e-14,7.15625e-15,8.81986,2.28764,-71.1818,50.164,-20.913,-40.7474,7.36325,7.12502,-13.6882,-22.1666,-6.40956e-14,7.15625e-15,-30.9909,12.1815,74.1231,20.8265,-10.0591,-22.5572,22.5123,7.12502,3.87066,52.4569,0,0,0,0,0,0,0,5.39123,-10.5979,-19.2528,9.2029,-11.2229,21.0161,-5.97219
-0.148869,18.8722,3.99202,-2.47542,-3.03428,1.0522,6.21775,2.51979,-2.34834,0.487724,3.13743,-1.70564,-3.00994,1.5806,-0.716699,-8.89855,-8.3919,-9.49912,17.6642,-11.5505,7.99012,7.9391,-5.47862,3.00871,-4.24405e-14,-1.19271e-15,8.71504,2.46053,-71.178,50.1127,-20.7322,-40.9976,7.31717,7.12502,-13.9293,-22.1963,-4.24405e-14,-1.19271e-15,-31.2223,12.0269,74.1755,21.0789,-9.70186,-22.66,22.3371,7.12502,3.77141,52.2834,0,0,0,0,0,0,0,5.49514,-10.8008,-19.31,9.0547,-11.0594,21.0548,-6.22339
-0.150869,18.8714,3.99785,-2.50071,-2.96528,1.08123,6.17946,2.5313,-2.35729,0.497224,3.15345,-1.71917,-2.97854,1.58849,-0.72485,-8.77154,-8.36291,-9.5629,17.533,-11.5211,8.09279,7.88037,-5.46502,3.06193,1.17283e-14,5.1684e-15,8.6474,2.6053,-71.1902,50.1437,-20.7552,-41.2986,7.1569,7.12502,-14.2193,-22.3364,1.17283e-14,5.1684e-15,-31.4018,12.0241,74.1873,21.2801,-9.49176,-22.4156,22.4548,7.12502,4.0074,52.3968,0,0,0,0,0,0,0,5.61711,-10.8675,-19.3597,8.90961,-10.9602,21.0773,-6.46603
-0.149974,18.8698,4.01149,-2.54173,-3.05149,1.09482,6.03459,2.59019,-2.30523,0.55864,3.24181,-1.74472,-2.83028,1.63101,-0.77851,-8.7807,-8.34447,-9.59637,17.4787,-11.501,8.17343,7.86911,-5.45102,3.09609,-1.65985e-14,1.07344e-14,8.60036,2.67904,-71.2311,50.2679,-20.7609,-41.4422,7.29191,7.12502,-14.3577,-22.1916,-1.65985e-14,1.07344e-14,-31.2936,12.1872,74.1469,21.2644,-9.51509,-21.9092,23.149,7.12502,4.49649,53.0813,0,0,0,0,0,0,0,5.75791,-10.7772,-19.4225,8.8542,-11.0343,21.0661,-6.38737
-0.151468,18.8684,4.02157,-2.57412,-3.09603,1.09498,5.97942,2.63412,-2.28398,0.574681,3.30389,-1.7572,-2.78126,1.66142,-0.805085,-8.83272,-8.34303,-9.53084,17.4959,-11.4919,8.10143,7.87474,-5.44679,3.06108,2.36057e-16,1.03368e-14,8.5177,2.755,-71.2766,50.3812,-20.7177,-41.4047,7.97066,7.12502,-14.3216,-21.5154,2.36057e-16,1.03368e-14,-30.9959,12.3436,74.1208,20.9444,-9.58645,-21.8312,23.2452,7.12502,4.57176,53.1759,0,0,0,0,0,0,0,5.82285,-10.7315,-19.4442,8.89971,-11.1949,21.0355,-6.07241
-0.155008,18.8686,4.02499,-2.57169,-3.0621,1.01648,5.986,2.65556,-2.22264,0.556642,3.33683,-1.72417,-2.80217,1.67745,-0.808991,-8.852,-8.35902,-9.49639,17.5151,-11.4976,7.99392,7.87648,-5.45551,3.01872,-4.23039e-14,1.66979e-14,8.41669,2.80626,-71.3031,50.5229,-20.8582,-41.3902,8.39309,7.12502,-14.3076,-21.094,-4.23039e-14,1.66979e-14,-30.8502,12.4105,74.1544,20.6975,-9.56867,-21.9341,22.6802,7.12502,4.47241,52.613,0,0,0,0,0,0,0,5.77927,-10.7706,-19.3497,9.00722,-11.3137,21.0089,-6.03096
-0.15988,18.8693,4.02282,-2.56831,-3.02563,0.873448,6.04236,2.69271,-2.08857,0.55779,3.3947,-1.67955,-2.82761,1.70502,-0.845527,-8.97914,-8.39867,-9.53773,17.6117,-11.543,7.99817,7.93843,-5.47457,3.01534,2.04997e-15,1.23246e-14,8.27375,2.75092,-71.3323,50.8385,-21.0089,-41.4272,8.08944,7.12502,-14.3433,-21.3951,2.04997e-15,1.23246e-14,-30.8307,12.5978,74.1486,20.6573,-9.7602,-21.7874,22.7743,7.12502,4.61404,52.7041,0,0,0,0,0,0,0,5.69059,-10.8173,-19.1666,9.12631,-11.3511,21.0088,-6.2076
-0.164148,18.8686,4.02293,-2.58567,-2.97705,0.813531,6.07683,2.72463,-2.02498,0.564139,3.44069,-1.6733,-2.83708,1.72721,-0.880015,-9.03363,-8.4068,-9.53549,17.6534,-11.5609,8.03698,7.96594,-5.4775,3.02317,3.04513e-14,-3.97569e-15,8.0585,2.69283,-71.3924,51.2457,-21.0777,-41.2779,7.77264,7.12502,-14.1994,-21.722,3.04513e-14,-3.97569e-15,-30.8956,12.8314,74.0942,20.6965,-9.97965,-21.8045,23.2291,7.12502,4.59755,53.1592,0,0,0,0,0,0,0,5.62587,-10.8715,-19.0833,9.25836,-11.3716,21.0266,-6.16695
-0.167097,18.8671,4.02895,-2.6264,-2.86146,0.866062,6.03517,2.71879,-2.08175,0.594163,3.4308,-1.68879,-2.78517,1.72267,-0.860263,-9.01286,-8.3825,-9.55471,17.6146,-11.5363,8.10471,7.95233,-5.46223,3.05262,5.3237e-14,-2.06736e-14,7.87323,2.72807,-71.4544,51.6548,-21.2611,-41.0909,7.87667,7.12502,-14.0192,-21.6306,5.3237e-14,-2.06736e-14,-30.9529,12.8097,74.1295,20.7297,-9.92599,-21.9379,23.2614,7.12502,4.46872,53.1942,0,0,0,0,0,0,0,5.59003,-10.9856,-19.143,9.42803,-11.4291,21.0299,-6.10288
-0.170553,18.8663,4.03197,-2.64589,-2.67688,0.907253,6.00215,2.68312,-2.14352,0.620323,3.3808,-1.69582,-2.74276,1.69824,-0.826257,-9.04507,-8.38299,-9.57978,17.626,-11.5365,8.13263,7.96518,-5.46043,3.06438,1.62134e-14,-1.59028e-15,7.69872,2.7622,-71.5162,52.1156,-21.5107,-41.0781,8.01806,7.12502,-14.0069,-21.49,1.62134e-14,-1.59028e-15,-30.856,12.7514,74.1968,20.5866,-9.87924,-21.9402,23.2001,7.12502,4.4665,53.1331,0,0,0,0,0,0,0,5.52719,-11.1695,-19.1826,9.56784,-11.4845,21.0262,-6.16863
-0.174082,18.8662,4.03073,-2.62137,-2.50056,0.808746,5.99598,2.65092,-2.04565,0.618962,3.34531,-1.67546,-2.73619,1.67966,-0.856455,-9.11024,-8.40242,-9.58762,17.7017,-11.5611,8.12623,8.00446,-5.47036,3.05747,6.95746e-15,-9.93923e-15,7.50741,2.77132,-71.5619,52.5886,-21.7027,-41.2311,7.85546,7.12502,-14.1543,-21.6424,6.95746e-15,-9.93923e-15,-30.8306,13.0699,74.1085,20.4775,-10.1739,-21.9649,23.0922,7.12502,4.44267,53.0256,0,0,0,0,0,0,0,5.43065,-11.3531,-19.0514,9.63851,-11.4814,21.0353,-6.40301
-0.177581,18.8652,4.03294,-2.62458,-2.4088,0.723415,5.98804,2.65132,-1.95345,0.625109,3.35302,-1.65602,-2.72127,1.68259,-0.887774,-9.22364,-8.43433,-9.5884,17.8129,-11.5954,8.08354,8.06252,-5.48576,3.03409,-5.23052e-14,4.37326e-15,7.29685,2.89373,-71.5475,53.0724,-21.9154,-41.3609,7.63864,7.12502,-14.2794,-21.8504,-5.23052e-14,4.37326e-15,-30.9956,13.737,73.8663,20.5658,-10.7598,-22.0326,22.7008,7.12502,4.3773,52.6356,0,0,0,0,0,0,0,5.37642,-11.4517,-18.9394,9.71766,-11.4966,21.0308,-6.51372
-0.182038,18.8632,4.03933,-2.67204,-2.37531,0.7889,5.96065,2.67872,-2.0392,0.643861,3.38484,-1.66778,-2.69092,1.69916,-0.852777,-9.31829,-8.46788,-9.57557,17.9122,-11.6282,8.00863,8.11035,-5.5031,2.99884,-3.3048e-14,1.03368e-14,7.01794,3.03102,-71.5212,53.644,-22.2011,-41.3357,7.56886,7.12502,-14.2551,-21.9219,-3.3048e-14,1.03368e-14,-31.1112,14.1782,73.6995,20.5803,-11.1271,-21.9077,22.3065,7.12502,4.49789,52.2387,0,0,0,0,0,0,0,5.3678,-11.4831,-19.0129,9.86026,-11.5746,21.0207,-6.49417
-0.186468,18.8617,4.04514,-2.71883,-2.31231,0.818873,5.9473,2.69089,-2.09063,0.656578,3.39827,-1.67309,-2.67304,1.70627,-0.82963,-9.34132,-8.46563,-9.59014,17.9479,-11.6234,8.00927,8.12689,-5.50063,3.00084,3.33089e-14,-1.39149e-14,6.73625,3.08552,-71.5381,54.2208,-22.3805,-41.297,7.50925,7.12502,-14.2178,-21.9841,3.33089e-14,-1.39149e-14,-31.1447,14.2708,73.656,20.4722,-11.1932,-21.8117,22.1929,7.12502,4.59063,52.1232,0,0,0,0,0,0,0,5.3689,-11.546,-19.0489,9.98297,-11.6363,21.0334,-6.58957
-0.190589,18.861,4.04878,-2.75571,-2.2477,0.67312,5.96534,2.6828,-1.95986,0.661837,3.39678,-1.6347,-2.67239,1.70436,-0.863537,-9.31495,-8.43236,-9.57129,17.8999,-11.5833,8.03157,8.10245,-5.47972,3.01166,1.06474e-14,-3.97569e-16,6.45847,3.17761,-71.5721,54.7862,-22.3865,-41.2851,7.54733,7.12502,-14.2063,-21.9469,1.06474e-14,-3.97569e-16,-31.2361,14.2647,73.6707,20.5144,-11.0498,-21.9298,22.3209,7.12502,4.47651,52.2536,0,0,0,0,0,0,0,5.38748,-11.6217,-18.8773,10.037,-11.6945,21.0342,-6.51617
-0.193801,18.8611,4.05103,-2.76098,-2.20104,0.540487,5.97361,2.67818,-1.84143,0.649823,3.39907,-1.59608,-2.68485,1.70454,-0.890736,-9.24218,-8.40208,-9.51556,17.8203,-11.5471,8.01488,8.05482,-5.46328,3.00532,-2.08227e-14,1.23246e-14,6.14989,3.33863,-71.584,55.3991,-22.4455,-41.4059,7.5517,7.12502,-14.3228,-21.9343,-2.08227e-14,1.23246e-14,-31.3875,14.1783,73.7304,20.7309,-10.7997,-21.8517,22.609,7.12502,4.55192,52.54,0,0,0,0,0,0,0,5.36992,-11.6501,-18.7176,10.0806,-11.7206,20.9986,-6.4302
-0.195408,18.8613,4.05246,-2.73727,-2.12064,0.593234,5.96696,2.67267,-1.8974,0.625454,3.38728,-1.611,-2.70863,1.6993,-0.874444,-9.17224,-8.38921,-9.48941,17.7701,-11.5339,8.00704,8.02217,-5.45856,3.00336,-2.127e-14,-2.62396e-14,5.90164,3.49103,-71.6006,55.9897,-22.5816,-41.6448,7.43342,7.12502,-14.553,-22.0361,-2.127e-14,-2.62396e-14,-31.5377,14.2546,73.6758,20.8254,-10.9798,-21.6093,22.6352,7.12502,4.78602,52.5611,0,0,0,0,0,0,0,5.33192,-11.6958,-18.7687,10.0771,-11.6578,20.9839,-6.62244
-0.19646,18.8612,4.05689,-2.73508,-2.01053,0.682176,5.9404,2.65961,-1.96182,0.62226,3.36532,-1.65104,-2.69838,1.68888,-0.876638,-9.16858,-8.38548,-9.46326,17.7572,-11.528,7.98622,8.01377,-5.45609,2.99334,2.33696e-14,5.56597e-15,5.67911,3.60919,-71.6273,56.5822,-22.631,-41.6554,7.49957,7.12502,-14.5632,-21.9692,2.33696e-14,5.56597e-15,-31.6092,14.5308,73.5021,20.6646,-11.4897,-21.6293,22.0949,7.12502,4.76676,52.0213,0,0,0,0,0,0,0,5.38697,-11.8109,-18.8645,9.9613,-11.5895,21.0048,-6.75466
-0.196969,18.8601,4.06372,-2.77886,-1.89716,0.797189,5.95482,2.65309,-2.02827,0.622287,3.35017,-1.70842,-2.70679,1.6818,-0.898127,-9.1764,-8.36643,-9.39162,17.7499,-11.5002,7.92788,8.00202,-5.44311,2.96609,-4.92365e-14,-1.43125e-14,5.38672,3.7705,-71.6256,57.172,-22.6737,-41.6292,7.89052,7.12502,-14.5379,-21.5801,-4.92365e-14,-1.43125e-14,-31.6381,14.502,73.475,20.5209,-11.5439,-21.8454,21.7805,7.12502,4.5581,51.7114,0,0,0,0,0,0,0,5.52036,-11.9283,-19.0016,9.80964,-11.5285,21.0169,-6.64089
-0.196309,18.8581,4.06934,-2.8381,-1.79131,0.918908,5.99859,2.64552,-2.11115,0.629372,3.33197,-1.75305,-2.72601,1.67342,-0.898426,-9.20691,-8.32642,-9.33685,17.7429,-11.4483,7.91693,7.99615,-5.41504,2.9592,-2.21148e-15,-1.27222e-14,5.1101,4.02805,-71.5646,57.7467,-22.7774,-41.9055,8.30169,7.12502,-14.8041,-21.1495,-2.21148e-15,-1.27222e-14,-31.6873,14.3229,73.5718,20.5447,-11.2598,-21.9331,21.9601,7.12502,4.47341,51.8929,0,0,0,0,0,0,0,5.64904,-12.0367,-19.1612,9.69531,-11.4914,21.0392,-6.47849
-0.196414,18.8566,4.07364,-2.8979,-1.73279,0.887778,6.03587,2.63691,-2.0681,0.644324,3.32282,-1.7413,-2.72963,1.66841,-0.910964,-9.2051,-8.28465,-9.32884,17.7152,-11.3979,7.95794,7.98382,-5.38739,2.97796,-1.73937e-14,-2.38542e-15,4.84194,4.3145,-71.485,58.3766,-22.773,-42.1843,8.13707,7.12502,-15.0727,-21.2942,-1.73937e-14,-2.38542e-15,-31.7711,14.4311,73.5604,20.573,-11.1652,-21.9658,21.9067,7.12502,4.44177,51.8401,0,0,0,0,0,0,0,5.76619,-12.1075,-19.1444,9.61161,-11.4985,21.0564,-6.55951
-0.197487,18.8555,4.07525,-2.94223,-1.70659,0.869833,6.11412,2.64441,-2.04823,0.615394,3.33077,-1.73908,-2.80223,1.67238,-0.925462,-9.11626,-8.23953,-9.33058,17.6928,-11.3573,8.04018,7.96157,-5.36407,3.01406,-3.37313e-14,1.27222e-14,4.49919,4.53351,-71.4509,59.0291,-22.6702,-42.1708,7.78854,7.12502,-15.0597,-21.6437,-3.37313e-14,1.27222e-14,-31.9167,14.5514,73.4904,20.5553,-11.1445,-22.0753,21.874,7.12502,4.33602,51.8096,0,0,0,0,0,0,0,5.84051,-12.1455,-19.1328,9.55868,-11.4467,21.0903,-6.85351
-0.198082,18.8545,4.07706,-2.94596,-1.63768,0.920804,6.12933,2.63881,-2.09777,0.599278,3.31855,-1.75473,-2.82926,1.66688,-0.914297,-9.13298,-8.19266,-9.34478,17.7578,-11.3183,8.16215,7.99048,-5.33489,3.06052,-3.81542e-14,-7.15625e-15,4.18821,4.73431,-71.4194,59.6815,-22.6285,-42.0365,7.98007,7.12502,-14.9304,-21.4618,-3.81542e-14,-7.15625e-15,-32.0295,14.5693,73.4744,20.5726,-11.0979,-22.0009,22.2365,7.12502,4.40789,52.1706,0,0,0,0,0,0,0,5.85447,-12.2212,-19.1909,9.52605,-11.3661,21.1239,-7.03315
-0.197968,18.855,4.08198,-2.90193,-1.55113,0.965779,6.02726,2.61492,-2.13927,0.611912,3.28762,-1.76482,-2.76086,1.65175,-0.893219,-9.20702,-8.15942,-9.35363,17.8213,-11.2827,8.22723,8.02583,-5.31007,3.08478,-6.28657e-15,-1.51076e-14,3.91919,5.04769,-71.3373,60.3664,-22.6801,-42.0102,8.15981,7.12502,-14.905,-21.284,-6.28657e-15,-1.51076e-14,-32.0878,14.7118,73.4272,20.591,-11.2477,-21.6355,22.6397,7.12502,4.76069,52.5662,0,0,0,0,0,0,0,5.8317,-12.3141,-19.2346,9.49303,-11.3592,21.1235,-6.9235
-0.197175,18.856,4.08889,-2.85049,-1.50063,1.0073,5.89109,2.59786,-2.16662,0.608463,3.26748,-1.78183,-2.68881,1.64185,-0.886906,-9.17181,-8.13582,-9.36852,17.7872,-11.2577,8.27642,8.00958,-5.29639,3.108,1.13556e-14,-3.97569e-15,3.62711,5.39966,-71.2575,61.0414,-22.7304,-41.9257,8.21366,7.12502,-14.8236,-21.2361,1.13556e-14,-3.97569e-15,-32.1882,14.8113,73.3664,20.6376,-11.4409,-21.1597,23.2731,7.12502,5.22015,53.1888,0,0,0,0,0,0,0,5.81443,-12.3699,-19.2844,9.46458,-11.3764,21.1238,-6.83138
-0.197284,18.8555,4.09372,-2.82448,-1.42564,0.990397,5.81819,2.57405,-2.14076,0.593614,3.23974,-1.78325,-2.66179,1.6278,-0.89723,-9.12769,-8.1138,-9.39682,17.7615,-11.2343,8.3268,7.99555,-5.28444,3.13383,-1.92573e-14,-7.15625e-15,3.31332,5.69983,-71.1989,61.73,-22.7118,-41.86,8.36609,7.12502,-14.7603,-21.0883,-1.92573e-14,-7.15625e-15,-32.2712,14.7768,73.3589,20.6528,-11.4678,-21.0438,23.7427,7.12502,5.33201,53.6556,0,0,0,0,0,0,0,5.79348,-12.4551,-19.2652,9.46905,-11.3721,21.134,-7.00046
-0.198116,18.8553,4.09582,-2.77964,-1.32846,0.976391,5.78179,2.54361,-2.13354,0.570478,3.20052,-1.77971,-2.66503,1.60834,-0.893317,-9.13217,-8.0902,-9.41562,17.765,-11.2042,8.35583,7.99744,-5.26872,3.14997,2.93953e-14,-3.97569e-15,2.9796,6.03688,-71.13,62.4971,-22.7008,-41.9749,8.22769,7.12502,-14.8709,-21.2186,2.93953e-14,-3.97569e-15,-32.2756,14.8124,73.3373,20.5108,-11.4318,-21.4613,23.3307,7.12502,4.92897,53.2533,0,0,0,0,0,0,0,5.69018,-12.5634,-19.2309,9.55347,-11.3847,21.1445,-7.06105
-0.198234,18.8556,4.09899,-2.7328,-1.26527,0.944995,5.71345,2.51872,-2.10969,0.56628,3.17158,-1.76792,-2.63046,1.59371,-0.888836,-9.1151,-8.05999,-9.46919,17.7022,-11.1711,8.46085,7.97977,-5.24872,3.19814,-2.18042e-14,3.49861e-14,2.6846,6.37733,-71.0675,63.245,-22.5943,-41.9422,7.95007,7.12502,-14.8395,-21.4985,-2.18042e-14,3.49861e-14,-32.2617,14.8901,73.3057,20.3452,-11.3604,-21.7896,22.6966,7.12502,4.61192,52.6263,0,0,0,0,0,0,0,5.55082,-12.6384,-19.1786,9.71163,-11.4576,21.1523,-6.91886
-0.199717,18.8553,4.10039,-2.73289,-1.22942,0.816171,5.7182,2.49733,-1.99985,0.570721,3.15135,-1.72129,-2.62517,1.58269,-0.900495,-9.10473,-8.0338,-9.52775,17.6349,-11.1394,8.55363,7.96151,-5.23056,3.24262,-3.02525e-14,8.74653e-15,2.41943,6.69315,-70.9995,63.9693,-22.4217,-41.8678,7.93524,7.12502,-14.7678,-21.5186,-3.02525e-14,8.74653e-15,-32.2676,14.9969,73.2663,20.2506,-11.3709,-21.8494,22.6231,7.12502,4.55419,52.5542,0,0,0,0,0,0,0,5.47065,-12.693,-19.0212,9.85625,-11.5557,21.1523,-6.80776
-0.203163,18.855,4.09811,-2.77456,-1.21341,0.703733,5.81331,2.48771,-1.92634,0.576849,3.14144,-1.67723,-2.67052,1.57721,-0.899829,-9.11844,-8.02989,-9.53569,17.589,-11.1288,8.5588,7.94853,-5.22569,3.24647,-2.73577e-14,1.90833e-14,2.19148,6.969,-70.9361,64.6986,-22.3851,-41.7507,8.22533,7.12502,-14.6549,-21.2368,-2.73577e-14,1.90833e-14,-32.2751,15.061,73.2402,20.2069,-11.414,-21.8238,22.992,7.12502,4.57888,52.9225,0,0,0,0,0,0,0,5.46045,-12.7282,-18.8833,9.93819,-11.5881,21.1542,-6.88158
-0.205187,18.8549,4.09733,-2.80632,-1.17378,0.711439,5.86579,2.47831,-1.95369,0.594778,3.12574,-1.68008,-2.68268,1.5696,-0.888262,-9.12985,-8.02988,-9.51545,17.5016,-11.1264,8.56966,7.92089,-5.22293,3.24691,3.2551e-15,1.03368e-14,1.97395,7.15256,-70.9102,65.4318,-22.3288,-41.364,8.56148,7.12502,-14.2824,-20.9273,3.2551e-15,1.03368e-14,-32.3084,15.1111,73.2044,20.2228,-11.4093,-21.7413,23.2556,7.12502,4.65861,53.1844,0,0,0,0,0,0,0,5.48047,-12.7791,-18.8854,9.93831,-11.5154,21.1719,-7.1189
-0.205421,18.8544,4.09982,-2.84091,-1.11884,0.816823,5.87584,2.4667,-2.06745,0.627128,3.10261,-1.70379,-2.65966,1.55898,-0.846872,-9.13528,-8.02377,-9.53103,17.3944,-11.1165,8.61976,7.88934,-5.21592,3.26722,3.99681e-14,7.95139e-15,1.71923,7.42319,-70.8311,66.2126,-22.1225,-41.1575,8.61948,7.12502,-14.0834,-20.8833,3.99681e-14,7.95139e-15,-32.4052,15.1894,73.1663,20.3453,-11.3808,-21.7082,23.1902,7.12502,4.69054,53.1183,0,0,0,0,0,0,0,5.55777,-12.8384,-19.0095,9.85164,-11.426,21.1852,-7.25757
-0.204747,18.853,4.1035,-2.90436,-1.09634,0.964751,5.89342,2.46389,-2.22798,0.656313,3.08786,-1.72571,-2.64664,1.553,-0.778773,-9.10902,-8.02515,-9.58552,17.3193,-11.1131,8.65716,7.86503,-5.21624,3.28975,2.11333e-14,2.38542e-15,1.44666,7.81853,-70.7056,67.0083,-21.8819,-41.3622,8.64181,7.12502,-14.2807,-20.8471,2.11333e-14,2.38542e-15,-32.5266,15.2927,73.111,20.4164,-11.4235,-21.8046,22.5409,7.12502,4.59748,52.471,0,0,0,0,0,0,0,5.69682,-12.8617,-19.1988,9.732,-11.3954,21.1879,-7.25958
-0.2044,18.8523,4.10731,-2.94827,-1.12952,1.02311,5.92254,2.46981,-2.29737,0.642421,3.0896,-1.73002,-2.68071,1.5547,-0.746592,-9.03374,-8.01484,-9.59235,17.252,-11.0968,8.64746,7.8276,-5.21281,3.29259,1.1691e-14,-1.66979e-14,1.15162,8.20344,-70.6395,67.7856,-21.6597,-41.8277,8.9267,7.12502,-14.7292,-20.53,1.1691e-14,-1.66979e-14,-32.6383,15.4506,72.9894,20.3932,-11.6299,-21.6978,22.1325,7.12502,4.70061,52.0604,0,0,0,0,0,0,0,5.81811,-12.8343,-19.2818,9.62386,-11.3762,21.202,-7.2833
-0.204961,18.8527,4.10989,-2.98299,-1.19004,0.96526,5.98981,2.47455,-2.26795,0.614725,3.09549,-1.69877,-2.74709,1.55778,-0.735479,-8.94662,-7.98517,-9.57829,17.1561,-11.0576,8.64648,7.77557,-5.19705,3.29833,2.25993e-14,1.63003e-14,0.935176,8.87123,-70.4377,68.5674,-21.5992,-42.349,9.11546,7.12502,-15.2314,-20.3038,2.25993e-14,1.63003e-14,-32.7561,15.4814,72.9339,20.4897,-11.7718,-21.2276,22.6821,7.12502,5.15461,52.5994,0,0,0,0,0,0,0,5.90046,-12.7879,-19.2211,9.56384,-11.3353,21.2218,-7.27835
-0.204679,18.8529,4.11074,-2.99263,-1.18367,0.919843,6.06561,2.45574,-2.23913,0.575256,3.0694,-1.67063,-2.83009,1.54503,-0.725266,-8.9083,-7.96492,-9.58337,17.1307,-11.0246,8.61961,7.75582,-5.1854,3.29575,-5.31625e-14,2.94201e-14,0.702678,9.72275,-70.1201,69.3695,-21.6335,-42.4264,9.14992,7.12502,-15.3059,-20.2637,-5.31625e-14,2.94201e-14,-32.9158,15.5253,72.8822,20.5997,-11.8544,-20.9523,22.8383,7.12502,5.42041,52.749,0,0,0,0,0,0,0,5.90525,-12.8077,-19.1662,9.5636,-11.3085,21.2242,-7.1813
-0.203663,18.8532,4.11164,-2.98921,-1.13336,0.899259,6.114,2.42631,-2.20505,0.547802,3.03053,-1.65607,-2.88429,1.52564,-0.729075,-8.8816,-7.94812,-9.60221,17.1175,-10.9934,8.5889,7.74297,-5.17522,3.2934,7.54139e-15,-1.98785e-14,0.353479,9.98848,-70.1008,70.1766,-21.2505,-42.16,9.27855,7.12502,-15.0493,-20.1545,7.54139e-15,-1.98785e-14,-33.053,15.6954,72.7907,20.6369,-11.9835,-20.8937,22.8382,7.12502,5.47702,52.7474,0,0,0,0,0,0,0,5.88588,-12.8696,-19.1389,9.57988,-11.3261,21.2138,-7.14151
-0.202863,18.8528,4.11527,-3.01252,-1.12963,0.882787,6.10534,2.40943,-2.17809,0.577416,3.01133,-1.6435,-2.84804,1.51561,-0.728158,-8.84994,-7.91598,-9.6172,17.008,-10.9453,8.61441,7.69894,-5.15321,3.31141,-3.52097e-14,1.07344e-14,0.0828105,9.8663,-70.2944,71.0291,-20.6887,-42.0738,9.34509,7.12502,-14.9662,-20.0941,-3.52097e-14,1.07344e-14,-33.0922,15.8247,72.7351,20.6343,-12.0305,-20.9038,23.1871,7.12502,5.46719,53.0966,0,0,0,0,0,0,0,5.92814,-12.8844,-19.1269,9.57722,-11.3693,21.2113,-7.10536
-0.202066,18.8521,4.11861,-3.01517,-1.16969,0.894111,6.07627,2.40292,-2.18791,0.583243,3.00312,-1.64542,-2.82613,1.51154,-0.722406,-8.85038,-7.88621,-9.57423,16.9466,-10.9,8.58342,7.67006,-5.13215,3.29997,-2.50841e-14,-3.97569e-15,-0.14693,10.0422,-70.3664,71.9265,-20.4962,-42.1521,9.16995,7.12502,-15.0416,-20.2636,-2.50841e-14,-3.97569e-15,-33.1277,15.91,72.6463,20.5586,-12.0367,-21.0297,23.1337,7.12502,5.34563,53.0463,0,0,0,0,0,0,0,5.95048,-12.8532,-19.1419,9.57092,-11.4029,21.2262,-7.04812
-0.200507,18.852,4.11732,-2.98312,-1.22242,0.929171,6.09921,2.40179,-2.21603,0.534453,2.99731,-1.65602,-2.89019,1.50931,-0.719731,-8.86447,-7.85983,-9.53474,16.9579,-10.8603,8.53583,7.66731,-5.11425,3.28225,2.49723e-15,-1.43125e-14,-0.421769,10.4542,-70.3153,72.8474,-20.4163,-42.1992,8.89504,7.12502,-15.087,-20.5351,2.49723e-15,-1.43125e-14,-33.22,15.9641,72.549,20.4615,-11.9926,-21.3301,22.8426,7.12502,5.0556,52.7623,0,0,0,0,0,0,0,5.90563,-12.8073,-19.1737,9.58101,-11.4145,21.2453,-7.07756
-0.198222,18.8522,4.11917,-2.93591,-1.29188,0.936181,6.04246,2.40274,-2.21485,0.511166,3.00027,-1.65102,-2.88272,1.5109,-0.713541,-8.87082,-7.8231,-9.52074,16.927,-10.8053,8.51892,7.6511,-5.08877,3.28086,3.85145e-16,-6.36111e-15,-0.627762,10.8383,-70.236,73.8129,-20.4258,-42.0127,8.47489,7.12502,-14.9074,-20.9687,3.85145e-16,-6.36111e-15,-33.3297,15.9019,72.5294,20.4801,-11.8833,-21.5554,22.9546,7.12502,4.83805,52.8793,0,0,0,0,0,0,0,5.8598,-12.7454,-19.1808,9.60146,-11.4168,21.2538,-7.28224
-0.196158,18.8517,4.12835,-2.90526,-1.36306,0.895646,5.88368,2.39353,-2.18037,0.53981,2.99757,-1.62141,-2.76412,1.50887,-0.693715,-8.91095,-7.78494,-9.48233,16.8931,-10.7408,8.459,7.63522,-5.05973,3.26135,-3.64024e-15,9.14409e-15,-0.730501,11.1807,-70.1551,74.7537,-20.5405,-41.4598,8.34513,7.12502,-14.3747,-21.1371,-3.64024e-15,9.14409e-15,-33.4393,15.8193,72.5263,20.5783,-11.7905,-21.5766,23.0645,7.12502,4.81764,52.9897,0,0,0,0,0,0,0,5.88509,-12.6839,-19.1491,9.59902,-11.4057,21.2563,-7.50452
-0.194535,18.8512,4.13522,-2.92108,-1.43661,0.8594,5.8167,2.38945,-2.14523,0.580962,2.99867,-1.59041,-2.68405,1.50878,-0.677106,-9.00546,-7.76841,-9.46455,16.9157,-10.7013,8.39167,7.65089,-5.04237,3.23755,-7.55382e-15,1.55052e-14,-0.808202,11.5744,-70.0433,75.7079,-20.4674,-41.0256,8.53821,7.12502,-13.9563,-20.9734,-7.55382e-15,1.55052e-14,-33.5131,15.8355,72.4892,20.5638,-11.6721,-21.8304,22.5429,7.12502,4.57256,52.4736,0,0,0,0,0,0,0,5.98474,-12.621,-19.1279,9.53667,-11.4058,21.2457,-7.45975
-0.192331,18.8494,4.13835,-2.9536,-1.50686,0.920703,5.81353,2.39286,-2.20545,0.606707,3.00023,-1.58322,-2.65921,1.51,-0.635393,-9.07628,-7.75145,-9.47086,16.9462,-10.6627,8.33923,7.66722,-5.02639,3.22321,-4.95719e-15,5.1684e-15,-0.929804,12.0382,-69.9034,76.7647,-20.3532,-41.0945,8.33045,7.12502,-14.0227,-21.1765,-4.95719e-15,5.1684e-15,-33.5423,15.9309,72.4445,20.5175,-11.7695,-21.7366,22.3416,7.12502,4.66315,52.2702,0,0,0,0,0,0,0,6.08958,-12.5556,-19.2175,9.44414,-11.4157,21.2557,-7.33494
-0.190181,18.8463,4.14018,-2.98894,-1.53533,1.04098,5.84214,2.37287,-2.33192,0.607574,2.96398,-1.59629,-2.67982,1.49325,-0.576734,-9.12176,-7.70717,-9.46002,16.9781,-10.5937,8.29819,7.67619,-4.99468,3.21449,2.25248e-14,0,-1.08178,12.4966,-69.8329,77.7987,-20.274,-41.3031,8.15498,7.12502,-14.2237,-21.338,2.25248e-14,0,-33.5756,16.0584,72.3636,20.4622,-11.9403,-21.5486,22.2262,7.12502,4.84469,52.1508,0,0,0,0,0,0,0,6.16685,-12.5285,-19.3703,9.37082,-11.3935,21.2855,-7.27734
-0.188131,18.8459,4.14212,-3.01454,-1.61616,1.0533,5.8815,2.35893,-2.31486,0.60502,2.94479,-1.6032,-2.70307,1.48358,-0.593632,-9.21838,-7.66231,-9.44376,17.0341,-10.5302,8.2974,7.70468,-4.96033,3.21565,2.53202e-14,-1.98785e-15,-1.19615,12.8933,-69.8193,78.9025,-20.12,-40.9828,6.95904,7.12502,-13.9151,-22.5554,2.53202e-14,-1.98785e-15,-33.5958,16.182,72.2463,20.3312,-11.803,-21.9542,21.8423,7.12502,4.45299,51.7755,0,0,0,0,0,0,0,6.23272,-12.4555,-19.4022,9.33767,-11.4006,21.2914,-7.29672
-0.185402,18.8477,4.14615,-2.99379,-1.75212,0.986477,5.83784,2.36397,-2.20248,0.597737,2.96045,-1.59608,-2.68096,1.49019,-0.648385,-9.23061,-7.61207,-9.44106,17.0202,-10.4697,8.3516,7.69923,-4.92669,3.23995,-2.42766e-14,1.78906e-14,-1.32213,13.2548,-69.7914,80.0387,-19.9866,-40.5165,5.71332,7.12502,-13.4657,-23.8314,-2.42766e-14,1.78906e-14,-33.636,16.1952,72.173,20.2878,-11.6207,-22.1949,21.9566,7.12502,4.22058,51.8946,0,0,0,0,0,0,0,6.25202,-12.3314,-19.3393,9.34872,-11.4979,21.2824,-7.1232
-0.183188,18.8477,4.14793,-2.9759,-1.85418,0.898709,5.79281,2.36489,-2.09684,0.587003,2.97069,-1.56582,-2.66313,1.49433,-0.675187,-9.06991,-7.53948,-9.43547,16.8706,-10.3863,8.42426,7.61698,-4.88665,3.27887,1.4238e-14,-2.14687e-14,-1.4778,13.6387,-69.7412,80.9915,-20.0347,-40.9282,6.75208,7.12502,-13.8624,-22.7659,1.4238e-14,-2.14687e-14,-33.7707,15.989,72.2086,20.472,-11.5075,-21.9685,22.3818,7.12502,4.43918,52.3153,0,0,0,0,0,0,0,6.23483,-12.2437,-19.2421,9.39147,-11.5934,21.2733,-6.86183
-0.181618,18.8462,4.14809,-2.96411,-1.92889,0.84472,5.75622,2.35589,-2.05821,0.588185,2.96377,-1.51772,-2.64199,1.49065,-0.644986,-8.95123,-7.47791,-9.43689,16.7304,-10.3041,8.44523,7.54314,-4.8505,3.30005,1.52319e-14,-7.95139e-15,-1.57014,14.0613,-69.6406,81.9689,-20.1081,-41.4208,7.93884,7.12502,-14.3371,-21.5461,1.52319e-14,-7.95139e-15,-33.9038,15.9131,72.2207,20.6302,-11.4919,-21.7729,22.7209,7.12502,4.62808,52.6503,0,0,0,0,0,0,0,6.23202,-12.1818,-19.1805,9.37788,-11.5816,21.2659,-6.88673
-0.180072,18.8457,4.15009,-2.92321,-1.98714,0.892223,5.67095,2.34297,-2.13712,0.592133,2.94508,-1.49627,-2.59525,1.48209,-0.573458,-8.92762,-7.4275,-9.43271,16.6739,-10.2295,8.42916,7.51212,-4.81714,3.30372,4.93234e-15,-5.56597e-15,-1.61818,14.4568,-69.5245,83.104,-20.1837,-41.5669,8.03609,7.12502,-14.4779,-21.4388,4.93234e-15,-5.56597e-15,-33.9194,16.0949,72.1166,20.5464,-11.7583,-21.7018,22.8024,7.12502,4.69673,52.7304,0,0,0,0,0,0,0,6.26122,-12.1285,-19.2347,9.25646,-11.5181,21.2775,-6.9885
-0.177011,18.8458,4.15544,-2.8753,-2.04333,1.03477,5.48551,2.33037,-2.29519,0.648064,2.92589,-1.51436,-2.44076,1.47313,-0.492426,-8.95224,-7.3573,-9.38218,16.6007,-10.1307,8.41912,7.47971,-4.76761,3.30312,-6.95746e-15,-8.34896e-15,-1.59458,14.8282,-69.3975,84.2767,-20.3476,-41.7632,8.0985,7.12502,-14.667,-21.3628,-6.95746e-15,-8.34896e-15,-33.8317,16.2096,72.0607,20.4554,-11.9699,-21.7142,22.6077,7.12502,4.68471,52.5359,0,0,0,0,0,0,0,6.32157,-12.0698,-19.4121,9.10263,-11.4855,21.3067,-6.94791
-0.173575,18.8456,4.1622,-2.86432,-2.11958,1.17243,5.32041,2.32284,-2.42492,0.722694,2.91552,-1.538,-2.27672,1.46784,-0.434048,-8.9957,-7.29588,-9.33918,16.5122,-10.0461,8.43951,7.44915,-4.72245,3.31142,4.01669e-14,-1.90833e-14,-1.55635,15.2377,-69.2812,85.3945,-20.2448,-41.4311,7.77407,7.12502,-14.3471,-21.7102,4.01669e-14,-1.90833e-14,-33.7028,16.2822,72.0273,20.3126,-11.9052,-22.0973,22.0768,7.12502,4.31485,52.0129,0,0,0,0,0,0,0,6.42372,-11.9912,-19.5976,8.97396,-11.4331,21.3257,-6.93763
-0.17251,18.8455,4.1626,-2.88067,-2.23182,1.13675,5.35235,2.33146,-2.35958,0.719209,2.92961,-1.53433,-2.29524,1.47444,-0.469251,-8.9808,-7.26403,-9.32264,16.4656,-10.0108,8.48293,7.42926,-4.70199,3.32768,-1.82509e-14,7.95139e-16,-1.59369,15.5772,-69.2548,86.5342,-20.067,-41.0845,7.17115,7.12502,-14.0131,-22.3365,-1.82509e-14,7.95139e-16,-33.786,16.1548,71.9712,20.307,-11.634,-22.3202,21.5667,7.12502,4.09953,51.507,0,0,0,0,0,0,0,6.50647,-11.8897,-19.571,8.90245,-11.4209,21.326,-6.95664
-0.171768,18.8453,4.15824,-2.88679,-2.35233,1.01674,5.43606,2.33254,-2.21161,0.69559,2.9369,-1.50584,-2.36049,1.47732,-0.527407,-8.94688,-7.20878,-9.31644,16.4203,-9.94528,8.53791,7.4046,-4.66731,3.35348,-2.54444e-14,1.86858e-14,-1.6075,15.8566,-69.2458,87.7167,-20.162,-41.5756,7.54486,7.12502,-14.4863,-21.9295,-2.54444e-14,1.86858e-14,-33.9862,15.9682,71.9363,20.5389,-11.4038,-22.0104,21.9132,7.12502,4.39874,51.8475,0,0,0,0,0,0,0,6.50615,-11.7866,-19.4341,8.9256,-11.5107,21.3086,-6.73618
-0.170664,18.8453,4.15559,-2.88949,-2.45761,0.938286,5.4602,2.31396,-2.12627,0.698068,2.91723,-1.47561,-2.36857,1.46691,-0.543424,-8.92184,-7.12478,-9.3235,16.3476,-9.83754,8.60677,7.36989,-4.61213,3.39046,2.48729e-14,-1.74931e-14,-1.52033,16.2288,-69.1887,88.7983,-20.1518,-41.4483,7.7584,7.12502,-14.3636,-21.7247,2.48729e-14,-1.74931e-14,-33.8993,16.1407,71.8386,20.51,-11.6462,-21.6614,22.7906,7.12502,4.73571,52.7177,0,0,0,0,0,0,0,6.47444,-11.696,-19.344,9.00516,-11.5646,21.3013,-6.52708
-0.170598,18.846,4.1543,-2.86068,-2.51719,0.916089,5.45683,2.28734,-2.10523,0.678382,2.88288,-1.4679,-2.38606,1.44979,-0.545026,-8.85669,-7.05648,-9.3042,16.2528,-9.75281,8.65122,7.32045,-4.5697,3.41376,-1.65612e-14,7.15625e-15,-1.41302,16.6056,-69.1166,89.8083,-20.0273,-40.6954,7.61975,7.12502,-13.6381,-21.9135,-1.65612e-14,7.15625e-15,-33.7712,16.3297,71.7056,20.3403,-11.9477,-21.6355,22.6395,7.12502,4.76074,52.5661,0,0,0,0,0,0,0,6.4117,-11.6478,-19.3052,9.05591,-11.5633,21.3048,-6.4986
-0.170116,18.8462,4.15437,-2.85369,-2.55687,0.938102,5.45902,2.27528,-2.10387,0.657779,2.86587,-1.4868,-2.40735,1.4414,-0.564566,-8.83716,-7.0111,-9.24294,16.2421,-9.70136,8.65497,7.30547,-4.54185,3.41162,-3.6154e-14,1.59028e-14,-1.38654,16.8838,-69.0294,90.8256,-19.8863,-40.9377,9.39008,7.12502,-13.8716,-20.1273,-3.6154e-14,1.59028e-14,-33.7811,16.2858,71.6215,20.2602,-11.8595,-21.9926,21.7712,7.12502,4.41591,51.7052,0,0,0,0,0,0,0,6.38289,-11.6163,-19.3285,9.10541,-11.6067,21.2927,-6.40409
-0.168787,18.8448,4.15414,-2.94299,-2.60568,0.916426,5.54294,2.27403,-2.04541,0.674815,2.86515,-1.49401,-2.43347,1.44048,-0.607719,-8.93009,-6.99249,-9.14848,16.3473,-9.67982,8.59473,7.34603,-4.52715,3.37611,1.61388e-14,-3.18055e-15,-1.359,17.1764,-68.9157,91.9227,-19.6539,-41.4069,10.6871,7.12502,-14.3237,-18.7988,1.61388e-14,-3.18055e-15,-33.7557,16.2459,71.5535,20.2061,-11.7868,-22.2563,21.941,7.12502,4.16124,51.8801,0,0,0,0,0,0,0,6.46734,-11.5787,-19.3314,9.17641,-11.7057,21.2737,-6.15303
-0.167938,18.8441,4.15309,-3.02539,-2.63888,0.833139,5.65646,2.2592,-1.95589,0.677046,2.84805,-1.46459,-2.49165,1.43139,-0.631029,-8.9216,-6.9676,-9.09235,16.3677,-9.65043,8.56164,7.34373,-4.51248,3.35982,-3.23025e-16,1.98785e-15,-1.29874,17.5753,-68.7958,93.1618,-19.5514,-41.4119,9.41258,7.12502,-14.3285,-20.073,-3.23025e-16,1.98785e-15,-33.7526,16.327,71.4397,20.1774,-11.9724,-22.1241,22.6677,7.12502,4.28894,52.6043,0,0,0,0,0,0,0,6.56056,-11.5615,-19.2567,9.19483,-11.7548,21.26,-5.99903
-0.167545,18.8444,4.15207,-3.02257,-2.68499,0.796449,5.67644,2.24276,-1.9428,0.664283,2.82685,-1.43402,-2.51677,1.42094,-0.60649,-8.80926,-6.90491,-9.08366,16.2542,-9.57258,8.59913,7.28087,-4.47599,3.38307,1.22998e-15,-3.97569e-16,-1.17017,17.9953,-68.6605,94.4116,-19.6446,-41.1279,7.94947,7.12502,-14.0549,-21.5553,1.22998e-15,-3.97569e-16,-33.7379,16.3944,71.3579,20.1641,-12.1455,-21.796,22.8333,7.12502,4.60575,52.7632,0,0,0,0,0,0,0,6.58098,-11.5275,-19.2138,9.15155,-11.7181,21.2757,-6.13602
-0.166876,18.8438,4.15109,-3.00927,-2.72767,0.890374,5.65113,2.23459,-2.05793,0.658871,2.80897,-1.45095,-2.51281,1.41306,-0.55736,-8.69851,-6.83132,-9.04163,16.1124,-9.4832,8.64021,7.20659,-4.43192,3.40323,2.69602e-15,1.15295e-14,-1.01937,18.3608,-68.5167,95.5689,-19.7373,-40.8906,7.39031,7.12502,-13.8262,-22.1302,2.69602e-15,1.15295e-14,-33.7007,16.3505,71.3177,20.1489,-12.0383,-21.7566,22.6327,7.12502,4.64384,52.5618,0,0,0,0,0,0,0,6.60307,-11.4875,-19.3218,9.07452,-11.6509,21.3174,-6.26285
-0.165448,18.8437,4.15194,-3.01908,-2.76492,1.02792,5.64004,2.22613,-2.20131,0.629119,2.78719,-1.49626,-2.54173,1.40363,-0.522639,-8.54166,-6.75252,-8.93378,16.0062,-9.39327,8.62847,7.12982,-4.38888,3.3968,-2.50344e-14,-7.55382e-15,-0.949794,18.7527,-68.3952,96.656,-19.6286,-40.9825,7.19426,7.12502,-13.9148,-22.3202,-2.50344e-14,-7.55382e-15,-33.7893,16.2026,71.2566,20.1976,-11.7201,-22.0505,22.3611,7.12502,4.35999,52.2963,0,0,0,0,0,0,0,6.68744,-11.4497,-19.4913,8.95836,-11.6435,21.3198,-6.00654
-0.163964,18.8439,4.15367,-3.02246,-2.81692,1.11076,5.57109,2.20916,-2.30723,0.645824,2.76065,-1.50404,-2.49037,1.39109,-0.466082,-8.52077,-6.68653,-8.84429,15.9815,-9.30424,8.5667,7.10229,-4.34662,3.37252,-2.46369e-14,1.98785e-15,-0.742751,19.1641,-68.2086,97.7084,-19.4477,-40.9229,7.00736,7.12502,-13.8573,-22.511,-2.46369e-14,1.98785e-15,-33.8323,16.2009,71.2035,20.3469,-11.7246,-21.7618,22.4514,7.12502,4.6388,52.3806,0,0,0,0,0,0,0,6.7825,-11.4008,-19.5954,8.81069,-11.6581,21.3018,-5.80709
-0.163212,18.8437,4.15401,-3.02821,-2.85519,1.12119,5.5222,2.19768,-2.33477,0.682271,2.74666,-1.49142,-2.42724,1.38394,-0.433586,-8.55382,-6.62848,-8.86427,15.9598,-9.23349,8.65818,7.09971,-4.30599,3.41234,-2.32081e-14,2.14687e-14,-0.447543,19.4925,-68.0007,98.7616,-19.3804,-40.72,6.91025,7.12502,-13.6618,-22.6214,-2.32081e-14,2.14687e-14,-33.7505,16.2124,71.1849,20.4187,-11.8566,-21.4046,22.5418,7.12502,4.98373,52.4632,0,0,0,0,0,0,0,6.85578,-11.371,-19.614,8.68436,-11.5832,21.3265,-6.07295
-0.162375,18.8443,4.15355,-3.01828,-2.91007,1.10108,5.52974,2.20405,-2.30512,0.664538,2.75617,-1.4938,-2.44832,1.38859,-0.454093,-8.41785,-6.54704,-8.89036,15.8062,-9.14767,8.8327,7.02738,-4.25814,3.4869,-6.79595e-15,4.37326e-15,-0.260798,19.7861,-67.8542,99.7948,-19.3064,-40.6938,6.59292,7.12502,-13.6366,-22.9404,-6.79595e-15,4.37326e-15,-33.6774,15.9958,71.2112,20.3523,-11.6809,-21.8357,22.2466,7.12502,4.56741,52.1774,0,0,0,0,0,0,0,6.89301,-11.3265,-19.5934,8.59348,-11.5406,21.3466,-6.24086
-0.161497,18.8441,4.15337,-3.02056,-2.98124,1.10313,5.52881,2.21431,-2.30729,0.66722,2.76978,-1.49383,-2.44528,1.39535,-0.453862,-8.33923,-6.47182,-8.85007,15.6747,-9.05515,8.88439,6.96276,-4.21091,3.50939,-2.2239e-15,-9.54166e-15,-0.0178759,20.0616,-67.6849,100.771,-19.1736,-40.6494,6.08884,7.12502,-13.5938,-23.4473,-2.2239e-15,-9.54166e-15,-33.5833,15.9079,71.2126,20.2836,-11.6408,-22.1532,22.3489,7.12502,4.26081,52.286,0,0,0,0,0,0,0,6.88748,-11.2645,-19.5983,8.6007,-11.553,21.3493,-6.11086
-0.160584,18.8436,4.15179,-3.04089,-3.01747,1.14307,5.52827,2.20972,-2.33858,0.677545,2.76143,-1.51639,-2.43462,1.39127,-0.458641,-8.32363,-6.39537,-8.75577,15.6494,-8.96372,8.88879,6.93879,-4.16192,3.50568,4.3099e-14,-1.31198e-14,0.326855,20.3081,-67.4979,101.696,-19.1488,-40.6514,6.2983,7.12502,-13.5956,-23.2378,4.3099e-14,-1.31198e-14,-33.5362,15.955,71.1315,20.2987,-11.6776,-22.2158,22.6922,7.12502,4.20039,52.6305,0,0,0,0,0,0,0,6.82413,-11.235,-19.6515,8.7692,-11.6221,21.3431,-5.94632
-0.163201,18.8448,4.14218,-3.04507,-2.94918,1.05429,5.64543,2.15504,-2.28625,0.634562,2.68705,-1.49672,-2.54217,1.35451,-0.467897,-8.21188,-6.30936,-8.63971,15.5688,-8.86116,8.86984,6.87707,-4.11144,3.49457,-2.55314e-15,1.03368e-14,0.602179,20.5909,-67.3415,102.656,-19.2079,-40.5491,6.71377,7.12502,-13.4971,-22.8289,-2.55314e-15,1.03368e-14,-33.5135,15.7149,71.1504,20.3461,-11.367,-22.3991,22.5743,7.12502,4.02338,52.516,0,0,0,0,0,0,0,6.69721,-11.3224,-19.5215,8.97654,-11.7388,21.3165,-5.83196
-0.169984,18.8459,4.12684,-3.07825,-2.77915,0.790104,5.88914,2.06192,-2.11665,0.602448,2.56732,-1.40286,-2.70718,1.29439,-0.467107,-8.12554,-6.24442,-8.54288,15.4284,-8.7756,8.83564,6.80284,-4.07123,3.47891,3.047e-14,-4.37326e-15,0.87727,20.912,-67.1661,103.632,-19.1468,-40.1049,7.00604,7.12502,-13.0689,-22.5645,3.047e-14,-4.37326e-15,-33.4188,15.4684,71.2202,20.3853,-11.1512,-22.3295,22.3969,7.12502,4.09058,52.3373,0,0,0,0,0,0,0,6.57733,-11.5275,-19.1647,9.13839,-11.723,21.3224,-6.05939
-0.172394,18.8451,4.11839,-3.09417,-2.70452,0.671445,5.96854,2.02095,-2.04291,0.629584,2.51692,-1.35747,-2.72199,1.26863,-0.459811,-8.0887,-6.20301,-8.4858,15.2647,-8.72069,8.85585,6.73722,-4.04274,3.48276,-5.03174e-15,3.57812e-15,1.29845,21.1936,-66.9123,104.564,-18.9953,-39.8416,7.50098,7.12502,-12.8151,-22.0857,-5.03174e-15,3.57812e-15,-33.2606,15.265,71.3211,20.4482,-10.8967,-22.1437,22.593,7.12502,4.26996,52.5299,0,0,0,0,0,0,0,6.44929,-11.6236,-19.0024,9.31301,-11.6741,21.3388,-6.40536
-0.170025,18.8448,4.11684,-3.05395,-2.74638,0.762996,5.88557,2.02825,-2.13476,0.650562,2.5231,-1.38093,-2.65694,1.27222,-0.429399,-8.06071,-6.14185,-8.47786,15.1395,-8.64444,8.93877,6.68853,-4.00145,3.51686,2.17421e-15,3.18055e-15,1.72403,21.3831,-66.6475,105.51,-19.0529,-39.781,7.73466,7.12502,-12.7567,-21.8556,2.17421e-15,3.18055e-15,-33.0909,14.6681,71.5859,20.5176,-10.2434,-22.1122,22.7145,7.12502,4.30039,52.6508,0,0,0,0,0,0,0,6.31721,-11.5837,-19.1056,9.46199,-11.7191,21.3444,-6.43724
-0.169394,18.8454,4.1165,-3.05184,-2.76051,0.812103,5.85412,2.0228,-2.19007,0.663452,2.51306,-1.40014,-2.62749,1.26751,-0.415895,-8.05695,-6.05669,-8.40377,15.0564,-8.53578,8.96242,6.64888,-3.94419,3.52351,3.91357e-15,-5.56597e-15,2.08166,21.5398,-66.4056,106.447,-19.2075,-39.6258,7.56288,7.12502,-12.607,-22.0367,3.91357e-15,-5.56597e-15,-33.0139,14.3609,71.6585,20.6118,-10.1437,-21.9763,22.5301,7.12502,4.43168,52.4637,0,0,0,0,0,0,0,6.32467,-11.5752,-19.1688,9.45235,-11.7082,21.3742,-6.51581
-0.169828,18.8459,4.11503,-3.07805,-2.75349,0.756051,5.85744,2.00348,-2.15487,0.687983,2.49071,-1.37703,-2.60334,1.25591,-0.409449,-8.07628,-6.0055,-8.24256,14.976,-8.45804,8.82791,6.60658,-3.908,3.46085,1.01877e-15,7.15625e-15,2.44549,21.7864,-66.1399,107.37,-19.073,-39.6439,6.93262,7.12502,-12.6245,-22.6659,1.01877e-15,7.15625e-15,-32.9792,14.5027,71.5681,20.7052,-10.3555,-21.9731,22.3616,7.12502,4.43472,52.2952,0,0,0,0,0,0,0,6.4098,-11.5959,-19.1139,9.3513,-11.6178,21.402,-6.68621
-0.168384,18.8458,4.11377,-3.06099,-2.75867,0.774266,5.81945,1.98231,-2.17598,0.681692,2.46231,-1.37695,-2.58919,1.24195,-0.393959,-8.14563,-5.97964,-8.11411,14.9989,-8.41474,8.69176,6.61064,-3.88794,3.39831,2.85008e-14,-1.31198e-14,2.80053,22.069,-65.9014,108.281,-18.8745,-39.7646,6.47527,7.12502,-12.7409,-23.116,2.85008e-14,-1.31198e-14,-32.9677,14.4455,71.5894,20.8358,-10.1529,-22.1721,22.2362,7.12502,4.24254,52.1737,0,0,0,0,0,0,0,6.41457,-11.5984,-19.1372,9.30275,-11.6359,21.3909,-6.52272
-0.16718,18.845,4.11396,-3.06654,-2.77742,0.85311,5.80104,1.97748,-2.23347,0.658348,2.45119,-1.41614,-2.60356,1.237,-0.401144,-8.11487,-5.93433,-8.02073,14.9873,-8.35945,8.64644,6.59053,-3.86048,3.37479,-7.00716e-15,6.75868e-15,3.12691,22.2753,-65.7203,109.15,-18.7283,-39.6545,6.02702,7.12502,-12.6347,-23.5708,-7.00716e-15,6.75868e-15,-33.0014,14.0278,71.7101,21.0735,-9.7423,-22.2602,22.2386,7.12502,4.15748,52.1777,0,0,0,0,0,0,0,6.41975,-11.5839,-19.2289,9.29403,-11.7236,21.3733,-6.23995
-0.167813,18.8447,4.1123,-3.10114,-2.79991,0.866863,5.81424,1.97664,-2.2516,0.654405,2.44808,-1.42598,-2.61531,1.23566,-0.401488,-8.00638,-5.86856,-7.95011,14.8856,-8.27988,8.65245,6.52924,-3.82183,3.37595,3.29237e-15,-3.97569e-16,3.52235,22.458,-65.5216,109.961,-18.5146,-39.5456,5.45471,7.12502,-12.5297,-24.1496,3.29237e-15,-3.97569e-16,-32.9404,13.4785,71.9181,21.2288,-9.1899,-22.3229,22.5216,7.12502,4.09694,52.4619,0,0,0,0,0,0,0,6.45691,-11.5711,-19.2468,9.27538,-11.6574,21.4018,-6.32217
-0.168241,18.8453,4.10901,-3.08463,-2.82827,0.837153,5.75162,1.9668,-2.25037,0.68353,2.43849,-1.40561,-2.55099,1.23051,-0.377341,-8.04725,-5.81169,-7.91219,14.8457,-8.20592,8.67925,6.5166,-3.78139,3.3846,1.47846e-14,-2.22639e-14,4.05675,22.6419,-65.2427,110.746,-18.3682,-39.6256,5.06132,7.12502,-12.6068,-24.5383,1.47846e-14,-2.22639e-14,-32.7585,13.2658,72.0565,21.2268,-8.86067,-22.3279,22.6808,7.12502,4.09213,52.6213,0,0,0,0,0,0,0,6.44286,-11.5549,-19.2033,9.24296,-11.5458,21.4371,-6.61555
-0.167479,18.8463,4.10638,-3.05135,-2.83898,0.808517,5.64522,1.95973,-2.21896,0.725428,2.43572,-1.40629,-2.44694,1.22815,-0.390258,-8.05553,-5.76361,-7.84409,14.7436,-8.1459,8.70585,6.47856,-3.74762,3.38768,1.27719e-14,-9.14409e-15,4.6074,22.7572,-64.9592,111.635,-18.4018,-39.3537,3.55428,7.12502,-12.3447,-26.0613,1.27719e-14,-9.14409e-15,-32.583,13.2633,72.074,21.2337,-8.85351,-22.3417,22.6894,7.12502,4.07883,52.6301,0,0,0,0,0,0,0,6.41024,-11.5559,-19.159,9.23164,-11.6223,21.4051,-6.37504
-0.166537,18.8458,4.10502,-3.04665,-2.81703,0.824409,5.55784,1.96779,-2.18919,0.760334,2.45054,-1.46917,-2.35829,1.23449,-0.468425,-7.9143,-5.72057,-7.69,14.5361,-8.10997,8.752,6.38042,-3.72477,3.38447,-1.26601e-14,4.37326e-15,5.0392,22.716,-64.7925,112.533,-18.5601,-38.7538,2.3358,7.12502,-11.7662,-27.3137,-1.26601e-14,4.37326e-15,-32.434,13.1496,72.03,21.2995,-8.91683,-22.3037,22.7478,7.12502,4.11547,52.6878,0,0,0,0,0,0,0,6.38323,-11.5866,-19.1759,9.27774,-11.8104,21.3355,-5.79428
-0.166316,18.8439,4.10414,-3.05906,-2.82317,0.784586,5.49128,1.96903,-2.13113,0.80296,2.45833,-1.49623,-2.27363,1.23726,-0.525602,-7.84722,-5.67806,-7.55709,14.3919,-8.06774,8.77714,6.31491,-3.69899,3.37659,2.36057e-14,-2.38542e-15,5.44847,22.6726,-64.6431,113.271,-18.6751,-38.3532,3.04219,7.12502,-11.3799,-26.629,2.36057e-14,-2.38542e-15,-32.3071,13.0722,71.9998,21.3807,-8.91106,-22.1773,22.6375,7.12502,4.23757,52.5751,0,0,0,0,0,0,0,6.35371,-11.5931,-19.1337,9.34228,-11.8586,21.3378,-5.8055
-0.166364,18.8439,4.10148,-3.08663,-2.86465,0.675229,5.50962,1.93973,-2.06035,0.817221,2.4248,-1.43338,-2.26871,1.2201,-0.498358,-7.88288,-5.62718,-7.56358,14.3829,-7.99244,8.76679,6.31155,-3.66283,3.38055,4.26145e-15,1.31198e-14,5.97123,22.8575,-64.3871,113.983,-18.6585,-38.132,3.23549,7.12502,-11.1666,-26.4474,4.26145e-15,1.31198e-14,-32.2935,13.1688,72.0034,21.4397,-8.90607,-22.359,22.3666,7.12502,4.06212,52.3076,0,0,0,0,0,0,0,6.36762,-11.5695,-19.0125,9.36081,-11.8733,21.3581,-5.80806
-0.166073,18.8451,4.0986,-3.11754,-2.91337,0.660706,5.52796,1.92125,-2.06475,0.8208,2.39984,-1.41517,-2.27604,1.20776,-0.475916,-7.91967,-5.58637,-7.57408,14.4156,-7.93515,8.76692,6.32367,-3.63434,3.38683,1.81267e-14,-2.0276e-14,6.52215,23.0904,-64.1453,114.658,-18.4248,-38.2722,2.91654,7.12502,-11.3018,-26.759,1.81267e-14,-2.0276e-14,-32.2754,13.2784,71.9655,21.459,-9.03902,-22.5961,22.3654,7.12502,3.83317,52.3107,0,0,0,0,0,0,0,6.3987,-11.5322,-18.9996,9.38231,-12.0253,21.3218,-5.3433
-0.165743,18.8446,4.09649,-3.17725,-2.98122,0.692599,5.56846,1.93431,-2.08384,0.822761,2.41404,-1.44447,-2.29629,1.21495,-0.497918,-7.93863,-5.56316,-7.53373,14.4616,-7.91146,8.76834,6.3378,-3.61961,3.38251,3.78064e-14,-1.47101e-14,6.93625,23.2331,-64.0266,115.221,-18.0713,-38.4961,3.39617,7.12502,-11.5177,-26.2674,3.78064e-14,-1.47101e-14,-32.2646,13.2541,71.9267,21.5738,-9.11201,-22.5676,22.5256,7.12502,3.8607,52.4703,0,0,0,0,0,0,0,6.44505,-11.4731,-19.0439,9.42129,-12.081,21.303,-5.14155
-0.164569,18.8436,4.09398,-3.23502,-3.03078,0.693363,5.64115,1.94139,-2.06902,0.81567,2.42158,-1.45241,-2.34332,1.21877,-0.517839,-7.91979,-5.54326,-7.53704,14.4586,-7.88722,8.78392,6.33217,-3.60754,3.39084,-1.80149e-14,7.55382e-15,7.33075,23.3398,-63.9195,115.842,-17.9453,-38.3094,3.75933,7.12502,-11.3376,-25.9142,-1.80149e-14,7.55382e-15,-32.2757,13.1856,71.9406,21.7365,-9.08332,-22.5379,22.3062,7.12502,3.8893,52.2505,0,0,0,0,0,0,0,6.52351,-11.4338,-19.0589,9.38593,-11.98,21.3259,-5.09613
-0.162315,18.8442,4.09188,-3.21696,-3.02349,0.735333,5.57921,1.92882,-2.07981,0.824727,2.40566,-1.48437,-2.29834,1.21061,-0.540864,-7.89878,-5.51944,-7.53748,14.4029,-7.85787,8.82193,6.30989,-3.59192,3.40639,4.95968e-14,-2.26615e-14,7.81407,23.4248,-63.7655,116.53,-17.8839,-38.2254,3.66196,7.12502,-11.2566,-26.016,4.95968e-14,-2.26615e-14,-32.1895,13.0056,72.005,21.8441,-8.97718,-22.481,22.3416,7.12502,3.94429,52.2849,0,0,0,0,0,0,0,6.54786,-11.4464,-19.1147,9.2946,-11.8516,21.3655,-5.22291
-0.160924,18.8441,4.09022,-3.18756,-3.00515,0.778191,5.53373,1.90653,-2.12542,0.781207,2.37311,-1.51016,-2.31828,1.19496,-0.538773,-7.85032,-5.47472,-7.52663,14.434,-7.80865,8.85469,6.30769,-3.56621,3.42104,2.5432e-14,-3.53837e-14,8.21968,23.5749,-63.6468,117.337,-17.917,-38.0732,2.25595,7.12502,-11.1098,-27.43,2.5432e-14,-3.53837e-14,-32.2318,12.7113,72.0788,21.9911,-8.81428,-22.3795,22.7588,7.12502,4.04228,52.7002,0,0,0,0,0,0,0,6.52847,-11.4704,-19.1636,9.22998,-11.78,21.3892,-5.57441
-0.158561,18.8447,4.09309,-3.15653,-3.07325,0.788958,5.4665,1.9045,-2.15089,0.726601,2.36974,-1.51495,-2.33775,1.19381,-0.528037,-7.76123,-5.42176,-7.49651,14.4548,-7.74972,8.87055,6.29285,-3.53722,3.42896,-1.73937e-15,-5.96354e-15,8.60985,23.7365,-63.5473,118.229,-18.2213,-37.5937,0.649298,7.12502,-10.6474,-29.0609,-1.73937e-15,-5.96354e-15,-32.2665,12.5274,72.1254,22.0013,-8.723,-22.3837,23.002,7.12502,4.03826,52.9434,0,0,0,0,0,0,0,6.50968,-11.4085,-19.1914,9.23515,-11.836,21.3879,-5.65827
-0.153125,18.8462,4.10037,-3.1038,-3.21465,0.825273,5.26439,1.94161,-2.13059,0.73897,2.42645,-1.56275,-2.20956,1.22119,-0.584769,-7.70593,-5.41124,-7.37695,14.3535,-7.74553,8.85754,6.24567,-3.53254,3.40679,4.31114e-15,-9.54166e-15,9.09091,23.8065,-63.4364,118.823,-18.0231,-37.2297,1.34966,7.12502,-10.2962,-28.3783,4.31114e-15,-9.54166e-15,-32.0853,12.4486,72.1309,21.8368,-8.77965,-22.294,23.3836,7.12502,4.12489,53.3235,0,0,0,0,0,0,0,6.48338,-11.2683,-19.2706,9.29338,-11.8922,21.4153,-5.74869
-0.149992,18.8469,4.10335,-3.10673,-3.31559,0.793075,5.18276,1.96248,-2.05993,0.741005,2.46045,-1.59181,-2.1578,1.23732,-0.653289,-7.55174,-5.35938,-7.28312,14.1523,-7.69267,8.92889,6.14993,-3.50381,3.42273,-3.50979e-14,2.70347e-14,9.54909,23.8893,-63.3671,119.228,-17.555,-36.8547,2.86699,7.12502,-9.93449,-26.8786,-3.50979e-14,2.70347e-14,-32.0159,12.3406,72.1228,21.7992,-8.78824,-22.2302,23.5861,7.12502,4.18647,53.5247,0,0,0,0,0,0,0,6.48739,-11.1764,-19.2614,9.37217,-11.9395,21.4294,-5.80117
-0.149986,18.8468,4.10217,-3.13442,-3.37501,0.703462,5.19576,1.96114,-1.9951,0.717455,2.46158,-1.58117,-2.18704,1.23762,-0.679692,-7.36262,-5.276,-7.2714,13.9855,-7.60293,9.08459,6.06224,-3.4564,3.48322,3.65577e-14,-3.02153e-14,9.95986,24.0193,-63.3142,119.761,-17.5998,-36.6972,3.81377,7.12502,-9.78248,-25.939,3.65577e-14,-3.02153e-14,-32.0866,12.1206,72.1826,21.9382,-8.51013,-22.4078,23.3505,7.12502,4.01496,53.2924,0,0,0,0,0,0,0,6.47136,-11.1333,-19.1648,9.49466,-12.0822,21.3901,-5.39973
-0.151038,18.8455,4.09833,-3.1775,-3.40089,0.652701,5.22529,1.96763,-1.9748,0.732216,2.47058,-1.58815,-2.18723,1.24186,-0.699598,-7.32281,-5.26104,-7.23746,13.9197,-7.59972,9.18271,6.03684,-3.44839,3.51026,-5.46347e-14,1.70955e-14,10.4159,24.0665,-63.2255,120.388,-17.7112,-36.6757,3.78338,7.12502,-9.76177,-25.9704,-5.46347e-14,1.70955e-14,-32.0491,12.0085,72.2234,22.0877,-8.40165,-22.409,23.414,7.12502,4.01378,53.3559,0,0,0,0,0,0,0,6.42881,-11.1228,-19.1013,9.64594,-12.2048,21.3704,-5.1291
-0.154268,18.8452,4.09144,-3.24354,-3.3988,0.589831,5.35372,1.96703,-1.97214,0.724041,2.46553,-1.58715,-2.26735,1.23959,-0.704871,-7.31835,-5.26195,-7.17604,13.9324,-7.61686,9.2236,6.04074,-3.45072,3.51188,1.01318e-14,5.56597e-15,10.8655,24.1085,-63.1461,121.014,-17.7667,-36.6204,2.99718,7.12502,-9.70841,-26.7591,1.01318e-14,5.56597e-15,-32.0187,12.1022,72.17,22.1991,-8.60157,-22.246,23.5508,7.12502,4.17124,53.4897,0,0,0,0,0,0,0,6.45231,-11.1433,-19.0132,9.71591,-12.2663,21.3412,-5.13027
-0.155122,18.8462,4.0898,-3.2561,-3.44732,0.540485,5.34766,1.9718,-1.96641,0.714767,2.47225,-1.58432,-2.27342,1.24295,-0.705647,-7.34246,-5.24527,-7.15163,13.9786,-7.61214,9.30293,6.06104,-3.44044,3.53326,-3.45202e-14,7.95139e-16,11.3576,24.2239,-63.0118,121.612,-18.0011,-36.6611,2.75263,7.12502,-9.7477,-27.0018,-3.45202e-14,7.95139e-16,-31.9576,12.2161,72.129,22.1569,-8.731,-22.3131,23.1514,7.12502,4.10639,53.0916,0,0,0,0,0,0,0,6.49951,-11.1086,-18.9552,9.68295,-12.3119,21.2994,-5.00796
-0.150889,18.8471,4.09465,-3.215,-3.51936,0.609967,5.12725,1.98111,-2.02753,0.775674,2.48942,-1.60493,-2.08927,1.25108,-0.68385,-7.45604,-5.21765,-7.17939,13.9689,-7.58012,9.4073,6.08002,-3.41609,3.57156,3.59676e-14,-2.38542e-14,11.9948,24.3124,-62.7665,122.187,-18.2572,-36.6042,2.73537,7.12502,-9.69283,-27.0216,3.59676e-14,-2.38542e-14,-31.7187,12.3538,72.1601,21.8972,-8.7454,-22.5079,22.6363,7.12502,3.9183,52.58,0,0,0,0,0,0,0,6.49182,-11.0371,-19.0576,9.64932,-12.3187,21.3117,-5.04697
-0.146089,18.8469,4.09834,-3.17434,-3.5469,0.736676,4.976,1.98404,-2.15395,0.80436,2.49185,-1.6245,-1.97975,1.25254,-0.627002,-7.57015,-5.19312,-7.18511,13.9744,-7.54126,9.41636,6.09877,-3.39357,3.57631,-3.22528e-14,1.19271e-14,12.5154,24.358,-62.584,122.728,-18.4719,-36.364,2.93349,7.12502,-9.46103,-26.8341,-3.22528e-14,1.19271e-14,-31.5365,12.4467,72.2347,21.7006,-8.70773,-22.6337,22.5985,7.12502,3.79688,52.5445,0,0,0,0,0,0,0,6.48702,-11.0067,-19.2224,9.59707,-12.3261,21.324,-5.05251
-0.144641,18.8453,4.09693,-3.1646,-3.5662,0.716722,4.97614,1.98869,-2.16324,0.766071,2.49673,-1.61717,-2.01996,1.25539,-0.615591,-7.55807,-5.15576,-7.12332,13.9984,-7.49705,9.39274,6.09699,-3.37057,3.56291,-1.19892e-14,7.95139e-15,12.8283,24.4225,-62.5229,123.269,-18.6327,-36.0579,3.45707,7.12502,-9.16571,-26.3237,-1.19892e-14,7.95139e-15,-31.4718,12.4475,72.2711,21.6428,-8.66524,-22.691,22.9503,7.12502,3.74147,52.8972,0,0,0,0,0,0,0,6.53638,-10.9975,-19.206,9.48319,-12.2825,21.3452,-4.91504
-0.144987,18.8442,4.09357,-3.18323,-3.61605,0.620694,5.0141,1.99621,-2.12085,0.734989,2.50751,-1.59124,-2.07258,1.26089,-0.615608,-7.4902,-5.0922,-7.10021,13.9845,-7.426,9.45942,6.07606,-3.33249,3.58845,1.002e-14,-3.18055e-15,13.1774,24.534,-62.4289,123.748,-18.667,-36.0452,3.75762,7.12502,-9.15338,-26.0237,1.002e-14,-3.18055e-15,-31.4288,12.4281,72.2858,21.6282,-8.63654,-22.6619,22.9871,7.12502,3.76962,52.9335,0,0,0,0,0,0,0,6.58047,-10.9639,-19.1057,9.41275,-12.1374,21.421,-5.07166
-0.143922,18.8438,4.09349,-3.19979,-3.65757,0.637343,4.99429,2.00805,-2.17591,0.733569,2.52075,-1.59898,-2.06506,1.26783,-0.593019,-7.51208,-5.05678,-7.09911,13.9876,-7.3883,9.53303,6.08015,-3.30842,3.61486,-2.00213e-14,4.77083e-15,13.5966,24.5939,-62.2882,124.177,-18.6318,-36.0177,3.33917,7.12502,-9.12687,-26.4433,-2.00213e-14,4.77083e-15,-31.3969,12.3866,72.3285,21.6678,-8.60815,-22.5249,22.726,7.12502,3.90195,52.67,0,0,0,0,0,0,0,6.58107,-10.93,-19.1384,9.42762,-12.079,21.4573,-5.27544
-0.14213,18.8442,4.09465,-3.20014,-3.66436,0.649426,4.97074,2.01867,-2.2088,0.702812,2.53274,-1.61767,-2.08421,1.27421,-0.594543,-7.45479,-5.04777,-7.03973,13.9438,-7.38528,9.54422,6.05436,-3.30545,3.61008,1.44119e-15,-3.18055e-15,13.9365,24.6238,-62.1687,124.611,-18.6046,-35.7975,2.87477,7.12502,-8.91439,-26.9169,1.44119e-15,-3.18055e-15,-31.4337,12.2859,72.3836,21.7601,-8.56669,-22.4663,22.5795,7.12502,3.95851,52.5225,0,0,0,0,0,0,0,6.58825,-10.9313,-19.1598,9.43979,-12.2106,21.4055,-5.10334
-0.140381,18.8449,4.09468,-3.20882,-3.68186,0.595341,5.0058,2.0377,-2.20093,0.647569,2.55632,-1.59819,-2.16138,1.28656,-0.583366,-7.3572,-5.03095,-6.95039,13.8888,-7.36798,9.50127,6.01368,-3.29904,3.58511,-4.21175e-15,7.95139e-16,14.2225,24.6821,-62.0079,124.965,-18.5453,-35.79,3.22036,7.12502,-8.90719,-26.5716,-4.21175e-15,7.95139e-16,-31.5131,12.1344,72.4914,21.8516,-8.4758,-22.616,22.303,7.12502,3.81395,52.2486,0,0,0,0,0,0,0,6.6323,-10.9267,-19.1088,9.42277,-12.3222,21.3466,-4.89488
-0.138052,18.8441,4.09434,-3.23924,-3.68908,0.571592,5.02331,2.06554,-2.21397,0.61903,2.59154,-1.5893,-2.20179,1.30456,-0.570883,-7.34394,-5.00008,-6.88266,13.9102,-7.33532,9.49181,6.01232,-3.28035,3.57417,-1.26477e-14,-4.77083e-15,14.5314,24.6597,-61.8055,125.253,-18.4718,-35.7999,3.30189,7.12502,-8.91672,-26.4897,-1.26477e-14,-4.77083e-15,-31.5405,11.9487,72.6275,21.9255,-8.29558,-22.7138,22.1013,7.12502,3.71947,52.0486,0,0,0,0,0,0,0,6.66651,-10.9299,-19.1028,9.42372,-12.2869,21.3662,-5.06098
-0.135199,18.842,4.09369,-3.25924,-3.6668,0.579343,4.97617,2.07712,-2.22683,0.614521,2.60743,-1.60732,-2.17992,1.31246,-0.581525,-7.28272,-4.9678,-6.87088,13.8686,-7.30428,9.56836,5.98826,-3.26186,3.60078,-2.48543e-14,7.15625e-15,14.8728,24.668,-61.6754,125.574,-18.3359,-35.7405,2.44631,7.12502,-8.85938,-27.3477,-2.48543e-14,7.15625e-15,-31.5353,11.8068,72.7196,21.9874,-8.15327,-22.7003,22.396,7.12502,3.73254,52.3431,0,0,0,0,0,0,0,6.65767,-10.9603,-19.1298,9.45902,-12.2622,21.4112,-5.24267
-0.132822,18.8402,4.09304,-3.24935,-3.64725,0.579947,4.88192,2.06677,-2.23384,0.641248,2.59691,-1.62591,-2.09907,1.30674,-0.591447,-7.36389,-4.95676,-6.80851,13.85,-7.29327,9.57767,5.99374,-3.25064,3.59261,1.10077e-14,1.90833e-14,15.2822,24.7431,-61.589,125.878,-17.9991,-35.7221,0.413628,7.12502,-8.84167,-29.3811,1.10077e-14,1.90833e-14,-31.47,11.8145,72.7614,21.9853,-8.19703,-22.76,22.8574,7.12502,3.67484,52.8054,0,0,0,0,0,0,0,6.61177,-10.9886,-19.1378,9.51777,-12.2666,21.4153,-5.21563
-0.132001,18.8398,4.0929,-3.2867,-3.64064,0.525565,4.87762,2.05227,-2.20283,0.661264,2.58007,-1.61943,-2.07488,1.29794,-0.600253,-7.52488,-4.92303,-6.76985,13.91,-7.24985,9.58328,6.03558,-3.22162,3.58857,-4.16205e-15,-3.97569e-15,15.7113,24.7746,-61.404,126.136,-17.6432,-35.6388,-1.07804,7.12502,-8.76126,-30.8762,-4.16205e-15,-3.97569e-15,-31.4496,11.8561,72.8071,22.0061,-8.2687,-22.8563,23.0812,7.12502,3.58184,53.0309,0,0,0,0,0,0,0,6.62837,-11.009,-19.0889,9.57214,-12.2519,21.4192,-5.21365
-0.131081,18.8401,4.09258,-3.36039,-3.65798,0.462808,4.95143,2.05498,-2.15693,0.629987,2.58298,-1.61036,-2.14674,1.29951,-0.620503,-7.45819,-4.87931,-6.8512,13.9025,-7.20144,9.70811,6.02469,-3.19587,3.64783,-2.65067e-14,1.51076e-14,16.0458,24.8019,-61.2085,126.422,-17.4679,-35.8244,-0.661856,7.12502,-8.94038,-30.4524,-2.65067e-14,1.51076e-14,-31.5317,11.7901,72.8682,22.0465,-8.21236,-22.9227,22.9217,7.12502,3.51778,52.8725,0,0,0,0,0,0,0,6.69865,-11.0069,-19.0362,9.60129,-12.2444,21.4327,-5.38829
-0.12914,18.8395,4.09121,-3.3893,-3.68993,0.468209,4.97818,2.07635,-2.15101,0.563297,2.60835,-1.64543,-2.22861,1.31261,-0.664389,-7.26488,-4.89129,-6.87442,13.8341,-7.23117,9.78447,5.97582,-3.21311,3.67746,1.04238e-14,-9.54166e-15,16.2751,24.8043,-61.1006,126.698,-17.2626,-36.1311,-0.541139,7.12502,-9.23628,-30.3188,1.04238e-14,-9.54166e-15,-31.595,11.7736,72.8386,21.9984,-8.31854,-22.7962,22.614,7.12502,3.63993,52.5627,0,0,0,0,0,0,0,6.71729,-10.9842,-19.0526,9.6153,-12.2846,21.4257,-5.46603
-0.12742,18.8383,4.08883,-3.40669,-3.73587,0.499375,5.00569,2.10496,-2.18207,0.520508,2.64181,-1.68092,-2.28798,1.32983,-0.688136,-7.14566,-4.92133,-6.84454,13.7017,-7.2708,9.77914,5.91599,-3.23691,3.66946,-2.3615e-14,-7.95139e-16,16.58,24.778,-60.9356,126.884,-16.8656,-36.0648,-0.549059,7.12502,-9.17236,-30.3296,-2.3615e-14,-7.95139e-16,-31.5946,11.8244,72.8071,21.9704,-8.48216,-22.5281,22.5151,7.12502,3.89885,52.4592,0,0,0,0,0,0,0,6.73486,-10.9456,-19.0932,9.60121,-12.3539,21.4235,-5.21201
-0.125447,18.8384,4.08512,-3.4176,-3.77989,0.518574,5.03139,2.11696,-2.25791,0.524268,2.65302,-1.66698,-2.30266,1.33616,-0.633322,-7.19199,-4.90562,-6.93218,13.5688,-7.237,9.85775,5.88567,-3.22054,3.71067,-2.62303e-14,0,17.0479,24.7812,-60.653,126.978,-16.3414,-35.9993,-0.376372,7.12502,-9.10918,-30.1597,-2.62303e-14,0,-31.5645,11.8483,72.891,22.0015,-8.37621,-22.4697,22.5382,7.12502,3.95516,52.4812,0,0,0,0,0,0,0,6.75242,-10.9096,-19.1199,9.56803,-12.2989,21.4549,-5.04509
-0.123504,18.8392,4.07957,-3.41325,-3.80033,0.510901,5.06479,2.09417,-2.34136,0.510769,2.61746,-1.62088,-2.34091,1.31959,-0.538683,-7.26901,-4.83349,-7.05503,13.4899,-7.12494,9.94349,5.8718,-3.16564,3.76635,-1.54384e-14,1.11319e-14,17.5156,24.8593,-60.3699,126.981,-15.6945,-36.143,-0.201146,7.12502,-9.24782,-29.9783,-1.54384e-14,1.11319e-14,-31.5758,11.9669,72.9483,21.9518,-8.2948,-22.5934,22.5633,7.12502,3.83576,52.5086,0,0,0,0,0,0,0,6.72833,-10.8997,-19.1069,9.55879,-12.2297,21.4627,-5.12791
-0.122224,18.8393,4.07415,-3.43055,-3.82652,0.469507,5.11383,2.07377,-2.35762,0.485261,2.58763,-1.59005,-2.39649,1.30539,-0.498467,-7.20336,-4.74618,-7.12585,13.3435,-6.99508,9.9937,5.80717,-3.10709,3.80623,-1.5412e-14,1.03368e-14,17.9308,24.9147,-60.1055,127.1,-15.2493,-35.9976,-0.297914,7.12502,-9.10749,-30.0813,-1.5412e-14,1.03368e-14,-31.6345,12.0468,72.963,21.9385,-8.32278,-22.5413,22.8027,7.12502,3.88609,52.747,0,0,0,0,0,0,0,6.70132,-10.8875,-19.0554,9.61469,-12.313,21.435,-5.04487
-0.120318,18.8394,4.07123,-3.46314,-3.86511,0.469053,5.10672,2.08374,-2.37142,0.491942,2.60034,-1.59815,-2.386,1.31173,-0.499555,-7.09894,-4.70529,-7.18565,13.1703,-6.93725,10.0902,5.73527,-3.08145,3.85346,-5.67158e-15,5.56597e-15,18.3271,24.8688,-59.8076,127.31,-14.9988,-35.7254,-0.634811,7.12502,-8.84483,-30.4295,-5.67158e-15,5.56597e-15,-31.7132,12.003,73.021,22.1045,-8.28031,-22.4666,23.0754,7.12502,3.95818,53.0184,0,0,0,0,0,0,0,6.68206,-10.8586,-19.0655,9.71417,-12.3933,21.4242,-4.97445
-0.118404,18.8407,4.0683,-3.48645,-3.84173,0.477661,5.09589,2.07758,-2.39034,0.505804,2.59147,-1.61232,-2.36576,1.30726,-0.502118,-7.15646,-4.72142,-7.19649,13.095,-6.9548,10.1294,5.72532,-3.08748,3.86487,5.12927e-14,-1.82882e-14,18.7452,24.8074,-59.5196,127.175,-14.419,-36.0178,0.793562,7.12502,-9.12693,-28.9889,5.12927e-14,-1.82882e-14,-31.7811,11.9212,73.1162,22.292,-8.09094,-22.6139,23.021,7.12502,3.81597,52.9666,0,0,0,0,0,0,0,6.67433,-10.891,-19.0851,9.7701,-12.4508,21.4133,-4.89743
-0.115208,18.841,4.06647,-3.51003,-3.78376,0.44193,5.11648,2.05435,-2.34782,0.498655,2.56173,-1.62391,-2.38195,1.29211,-0.536565,-7.29897,-4.73948,-7.13988,13.0593,-6.96826,10.0739,5.73642,-3.09129,3.83352,1.6444e-14,-2.38542e-15,19.1849,24.694,-59.2972,127.294,-14.4212,-36.1121,-0.574748,7.12502,-9.21796,-30.3533,1.6444e-14,-2.38542e-15,-31.8556,11.78,73.1994,22.3824,-7.91842,-22.7225,22.9434,7.12502,3.71111,52.8908,0,0,0,0,0,0,0,6.68368,-10.961,-19.0603,9.79733,-12.4555,21.4215,-4.88597
-0.10881,18.8397,4.06783,-3.51207,-3.75051,0.482431,5.09754,2.0499,-2.33352,0.466967,2.555,-1.68457,-2.40054,1.28862,-0.606418,-7.38699,-4.7297,-7.08224,13.0479,-6.95217,10.0425,5.74363,-3.08034,3.81347,-1.09082e-14,6.36111e-15,19.5175,24.4869,-59.0126,127.374,-14.294,-36.1456,-1.70558,7.12502,-9.25033,-31.4827,-1.09082e-14,6.36111e-15,-31.9472,11.6066,73.2403,22.4231,-7.92374,-22.7416,22.9293,7.12502,3.69263,52.877,0,0,0,0,0,0,0,6.64091,-10.9981,-19.1349,9.85427,-12.357,21.4793,-5.32825
-0.105033,18.8398,4.06639,-3.50842,-3.7364,0.532199,5.07537,2.05387,-2.34521,0.447706,2.55807,-1.75882,-2.40514,1.29007,-0.676001,-7.50209,-4.71251,-7.10664,13.0989,-6.93945,10.1472,5.7828,-3.06426,3.85008,-1.09165e-14,-6.36111e-15,19.8503,24.1078,-58.6362,127.469,-14.2266,-36.0089,-1.81497,7.12502,-9.11834,-31.5979,-1.09165e-14,-6.36111e-15,-31.9356,11.4628,73.2515,22.3995,-7.8907,-22.7643,23.0605,7.12502,3.6707,53.0086,0,0,0,0,0,0,0,6.6,-11.0169,-19.2012,9.90139,-12.4188,21.4746,-5.24986
-0.103698,18.8416,4.06163,-3.49391,-3.78635,0.506582,5.04915,2.07096,-2.31239,0.436845,2.5824,-1.79876,-2.39852,1.30172,-0.736301,-7.60502,-4.71042,-7.15591,13.1271,-6.94561,10.2689,5.81602,-3.05812,3.89491,-3.72721e-17,1.19271e-14,20.2652,23.8013,-58.3026,127.542,-14.1385,-35.8447,-1.60254,7.12502,-8.95997,-31.3923,-3.72721e-17,1.19271e-14,-31.8702,11.3576,73.2551,22.3355,-7.75278,-22.7773,23.3435,7.12502,3.65812,53.2918,0,0,0,0,0,0,0,6.58509,-10.979,-19.1633,9.93069,-12.5689,21.4316,-4.70132
-0.0991406,18.8438,4.05907,-3.42062,-3.86813,0.49721,5.03957,2.10164,-2.26598,0.326428,2.62266,-1.82339,-2.5039,1.32212,-0.792983,-7.5993,-4.7152,-7.14518,13.1192,-6.94513,10.2139,5.81024,-3.06137,3.87558,-1.05666e-14,1.43125e-14,20.5497,23.6896,-58.0419,127.577,-13.9028,-35.7641,-1.43936,7.12502,-8.88214,-31.2324,-1.05666e-14,1.43125e-14,-32.0043,11.3573,73.2116,22.2919,-7.85655,-22.7163,23.3615,7.12502,3.71706,53.3088,0,0,0,0,0,0,0,6.48626,-10.9054,-19.1468,10.005,-12.6467,21.4251,-4.48662
-0.0950567,18.845,4.05611,-3.40506,-3.91217,0.497698,5.2425,2.11835,-2.25607,0.122004,2.63237,-1.82443,-2.82793,1.32886,-0.814437,-7.56868,-4.68862,-7.10606,13.1545,-6.89531,10.0599,5.80455,-3.04589,3.8247,1.36354e-14,5.56597e-15,20.6899,23.6855,-57.8019,127.558,-13.546,-35.8428,-0.946482,7.12502,-8.95814,-30.7363,1.36354e-14,5.56597e-15,-32.3412,11.5092,73.0921,22.2695,-8.21379,-22.4865,23.4914,7.12502,3.939,53.4347,0,0,0,0,0,0,0,6.42756,-10.7875,-19.1357,10.0821,-12.7183,21.3014,-4.26425
-0.0921687,18.8445,4.05211,-3.4538,-3.95275,0.469646,5.46144,2.12241,-2.24307,-0.00912796,2.62716,-1.81714,-3.08582,1.32749,-0.826675,-7.51879,-4.64172,-7.1219,13.0747,-6.81843,10.015,5.76296,-3.0151,3.8202,-4.82674e-15,4.77083e-15,20.9436,23.6323,-57.5323,127.468,-13.1786,-36.0648,0.155873,7.12502,-9.17236,-29.6246,-4.82674e-15,4.77083e-15,-32.583,11.656,73.004,22.2801,-8.44531,-22.185,23.697,7.12502,4.23014,53.6347,0,0,0,0,0,0,0,6.45878,-10.7326,-19.1106,10.109,-12.7652,21.2392,-4.16973
-0.0875796,18.8434,4.05076,-3.47954,-4.0146,0.446998,5.4415,2.13855,-2.18768,-0.0083001,2.65223,-1.841,-3.0702,1.33894,-0.883291,-7.40448,-4.61447,-7.2333,12.7905,-6.77198,10.1656,5.6596,-2.99592,3.89198,6.08778e-15,-1.90833e-14,21.3856,23.4392,-57.174,127.424,-12.9791,-36.31,0.650053,7.12502,-9.40896,-29.1199,6.08778e-15,-1.90833e-14,-32.6332,11.6254,73.0136,22.3012,-8.32527,-22.1762,23.5663,7.12502,4.23863,53.5039,0,0,0,0,0,0,0,6.4855,-10.7171,-19.1133,10.1181,-12.7536,21.3129,-4.3812
-0.0844183,18.8419,4.05007,-3.57054,-4.0617,0.443543,5.40885,2.16242,-2.13668,0.0570378,2.68898,-1.88108,-2.98022,1.35574,-0.95266,-7.33204,-4.625,-7.32564,12.527,-6.77732,10.3053,5.57387,-3.00028,3.95187,2.27671e-14,9.54166e-15,21.9002,23.182,-56.782,127.387,-12.7975,-36.6375,0.399019,7.12502,-9.7249,-29.3565,2.27671e-14,9.54166e-15,-32.643,11.5163,73.0452,22.3369,-8.09883,-22.3612,23.3443,7.12502,4.05998,53.2853,0,0,0,0,0,0,0,6.61735,-10.6792,-19.1358,10.0928,-12.7568,21.326,-4.34523
