JuanDHNZ/ProyectoFinalCD/preprocessing/sports_trials_csv/13_18.csv
root1,root2,root3,root4,root5,root6,lowerback1,lowerback2,lowerback3,upperback1,upperback2,upperback3,thorax1,thorax2,thorax3,lowerneck1,lowerneck2,lowerneck3,upperneck1,upperneck2,upperneck3,head1,head2,head3,rclavicle1,rclavicle2,rhumerus1,rhumerus2,rhumerus3,rradius1,rwrist1,rhand1,rhand2,rfingers1,rthumb1,rthumb2,lclavicle1,lclavicle2,lhumerus1,lhumerus2,lhumerus3,lradius1,lwrist1,lhand1,lhand2,lfingers1,lthumb1,lthumb2,rfemur1,rfemur2,rfemur3,rtibia1,rfoot1,rfoot2,rtoes1,lfemur1,lfemur2,lfemur3,ltibia1,lfoot1,lfoot2,ltoes1
0.590927,18.265,-3.64088,-8.80005,-67.1541,6.60397,3.84921,2.679,-0.941177,1.47804,3.49796,-1.65452,-0.590657,1.74053,-1.31765,-4.53503,7.2628,-4.99821,21.9714,7.99454,11.6264,6.65945,4.30309,5.11318,-3.6595e-14,1.66979e-14,5.56899,23.9853,-77.3668,120.709,-15.0682,-25.6822,9.98628,7.12502,0.852701,-19.9918,-3.6595e-14,1.66979e-14,3.38171,-4.79358,63.2268,138.016,19.771,-25.7613,17.1083,7.12502,0.776307,47.0866,-9.88226,11.6123,17.3331,43.4911,-23.585,-12.735,-9.37628,-15.5605,0.491452,-9.51777,43.5824,-9.17342,7.78037,-10.0833
0.608229,18.2067,-3.62226,-9.43808,-67.4884,7.19231,4.09978,2.74379,-1.21397,1.49238,3.56617,-1.67861,-0.729664,1.77308,-1.20657,-4.81692,7.21486,-5.16888,21.9158,7.94491,11.7477,6.68089,4.28416,5.18932,-8.25329e-14,6.36111e-15,5.81551,23.3566,-77.0903,121.525,-15.2568,-25.8399,10.015,7.12502,0.700397,-19.9636,-8.25329e-14,6.36111e-15,3.79315,-4.89502,63.111,138.114,19.3409,-26.7437,17.4004,7.12502,-0.172579,47.3801,-10.428,11.7782,17.0299,44.5365,-24.1402,-12.5124,-9.16195,-15.5425,0.52521,-9.82611,44.0818,-10.0216,7.95115,-11.3017
0.625453,18.1479,-3.60146,-10.1815,-67.8399,7.87857,4.38018,2.8051,-1.43716,1.49595,3.62803,-1.75809,-0.890223,1.80277,-1.18201,-5.01357,7.16635,-5.219,21.7364,7.90536,11.7676,6.65858,4.26944,5.20297,-7.74391e-14,1.80894e-14,5.99288,22.7504,-77.0569,122.318,-15.0976,-25.6767,9.54864,7.12502,0.857977,-20.4294,-7.74391e-14,1.80894e-14,4.03101,-5.10795,63.0132,138.304,18.7484,-27.5517,17.5649,7.12502,-0.952948,47.5425,-10.9495,11.925,16.682,45.5686,-24.6819,-12.2091,-8.56177,-15.4805,0.590638,-10.1724,44.566,-10.9892,8.00201,-11.5402
0.64429,18.0867,-3.57754,-10.4801,-68.2335,8.13664,4.6092,2.87636,-1.4499,1.49573,3.71395,-1.80337,-1.01505,1.84525,-1.23852,-5.17131,7.08801,-5.27233,21.4579,7.83549,11.7672,6.60158,4.23782,5.20232,6.08778e-16,-1.19271e-15,6.11529,22.0218,-77.0415,123.165,-14.9003,-25.3142,9.12313,7.12502,1.20813,-20.8532,6.08778e-16,-1.19271e-15,4.15677,-5.39211,63.0134,138.543,18.019,-28.104,17.4503,7.12502,-1.48639,47.4249,-11.554,11.9802,16.5197,46.5802,-25.1078,-12.141,-9.10167,-15.4477,0.733279,-10.3503,45.0369,-12.102,8.15151,-12.0337
0.664601,18.0229,-3.55315,-10.2261,-68.5995,7.87384,4.80219,2.91026,-1.41659,1.47113,3.75689,-1.69428,-1.15263,1.86694,-1.15957,-5.20724,7.00338,-5.34958,21.0155,7.80266,11.5895,6.47606,4.20591,5.1359,5.10007e-15,3.18055e-15,6.20101,21.5474,-76.9489,124.013,-14.9186,-25.4012,9.09613,7.12502,1.12411,-20.8807,5.10007e-15,3.18055e-15,3.8724,-5.83395,63.4657,138.78,16.5767,-28.4879,17.1115,7.12502,-1.85713,47.0832,-12.2364,11.9579,16.5837,47.5833,-25.5297,-12.2885,-10.0468,-15.5109,0.872923,-10.32,45.4641,-13.1304,8.42089,-13.2232
0.685368,17.956,-3.52718,-10.4971,-68.955,8.08684,5.08781,2.94076,-1.51962,1.47603,3.7845,-1.63783,-1.31693,1.88035,-1.06244,-5.14655,6.94862,-5.50771,20.403,7.81453,11.4915,6.2679,4.19514,5.0975,6.58474e-15,8.94531e-15,6.23905,21.3001,-76.839,124.829,-15.0372,-26.0106,9.27804,7.12502,0.535527,-20.701,6.58474e-15,8.94531e-15,3.27824,-6.55653,64.116,139.069,14.6206,-28.9182,16.9225,7.12502,-2.27275,46.8901,-12.8104,12.0901,16.463,48.5816,-26.1568,-12.2207,-9.48619,-15.4666,0.988961,-10.4761,45.8492,-14.1205,8.67451,-15.284
0.704566,17.8883,-3.49519,-11.1496,-69.3732,8.56188,5.41482,3.0001,-1.53568,1.55279,3.85134,-1.68364,-1.41755,1.91245,-1.12089,-5.22109,6.87637,-5.50644,19.9555,7.77583,11.3787,6.14975,4.17255,5.04195,1.56232e-14,5.76476e-15,6.22795,21.05,-76.8387,125.624,-15.1049,-26.7801,9.62423,7.12502,-0.207742,-20.3554,1.56232e-14,5.76476e-15,2.76551,-7.13853,64.4738,139.368,13.2007,-29.2082,16.6112,7.12502,-2.55282,46.5757,-13.1921,12.3609,16.2467,49.5428,-26.743,-12.0039,-9.04022,-15.2095,1.10687,-10.7249,46.2099,-15.164,8.99725,-18.5648
0.727009,17.8217,-3.46181,-11.5723,-69.784,8.74158,5.82867,3.07235,-1.44275,1.63662,3.93971,-1.69845,-1.55365,1.95512,-1.21511,-5.40712,6.76552,-5.38754,19.6537,7.68201,11.1551,6.11363,4.12477,4.94262,-4.06639e-14,1.98785e-14,6.18943,20.6848,-76.9431,126.451,-15.3023,-27.0666,9.56285,7.12502,-0.484386,-20.4163,-4.06639e-14,1.98785e-14,2.24009,-7.55174,64.8617,139.686,12.2248,-29.2387,16.2738,7.12502,-2.5822,46.2379,-13.4893,12.4873,16.1499,50.4423,-27.1044,-11.9237,-9.35208,-14.9592,1.22263,-10.8643,46.5854,-16.259,9.19864,-19.0255
0.748591,17.7587,-3.42623,-11.8331,-70.0922,8.80574,6.22038,3.1255,-1.38864,1.67626,4.00342,-1.63842,-1.73065,1.98593,-1.21055,-5.60316,6.68605,-5.415,19.4404,7.6277,11.0222,6.09165,4.09308,4.90213,-9.44227e-16,1.76918e-14,6.01642,20.2855,-76.9688,127.297,-15.6373,-26.8394,9.24291,7.12502,-0.264957,-20.7367,-9.44227e-16,1.76918e-14,1.4925,-8.09016,65.4837,140.136,11.9054,-29.4721,16.0832,7.12502,-2.80765,46.0445,-13.7714,12.5125,16.0694,51.2575,-27.5626,-11.8681,-9.40583,-14.8383,1.32059,-10.9943,47.0137,-17.2969,9.32972,-18.002
0.769038,17.7012,-3.38965,-12.0637,-70.2949,8.8655,6.57535,3.10117,-1.40538,1.73443,3.96336,-1.50075,-1.8793,1.96515,-1.07635,-5.79982,6.67608,-5.53625,19.1757,7.69557,10.8364,6.04132,4.1109,4.86289,2.1301e-14,3.08116e-15,5.83642,20.057,-76.9102,128.144,-16.108,-26.6716,9.18926,7.12502,-0.102891,-20.7905,2.1301e-14,3.08116e-15,0.518459,-8.43697,66.3041,140.569,11.9039,-29.455,15.6165,7.12502,-2.79118,45.578,-14.0094,12.4766,15.9448,51.9945,-28.0126,-11.7383,-9.29824,-14.7776,1.35654,-11.148,47.4974,-18.016,10.0301,-21.8434
0.791659,17.6454,-3.35523,-12.2154,-70.5168,8.88144,6.891,3.05929,-1.38564,1.80594,3.90291,-1.39328,-1.98755,1.93398,-0.988285,-5.91632,6.68645,-5.52995,18.792,7.7953,10.5517,5.94822,4.14403,4.76423,2.08103e-15,-9.93923e-17,5.64372,19.8827,-76.9803,128.984,-16.5334,-26.7794,9.21276,7.12502,-0.207033,-20.7669,2.08103e-15,-9.93923e-17,-0.60388,-8.58972,67.2439,140.848,11.4569,-28.816,14.6631,7.12502,-2.17403,44.6317,-14.2958,12.5316,15.8145,52.6688,-28.413,-11.5547,-9.46017,-14.7923,1.4385,-11.2605,48.006,-19.1283,9.57468,-18.0718
0.81534,17.5896,-3.31807,-11.9752,-70.7499,8.48732,7.17339,3.05267,-1.17646,1.89943,3.90515,-1.27332,-2.04235,1.93362,-0.994822,-6.08961,6.66468,-5.45371,18.4493,7.83402,10.2992,5.88493,4.15589,4.667,1.89405e-14,-3.18055e-15,5.32727,19.6174,-76.9916,129.769,-16.8713,-26.7295,9.19128,7.12502,-0.158796,-20.7884,1.89405e-14,-3.18055e-15,-1.76595,-8.921,68.2772,141.018,10.3588,-28.4357,14.0777,7.12502,-1.80674,44.0498,-14.5376,12.6725,15.8239,53.2418,-28.7708,-11.3326,-9.4765,-14.8331,1.4537,-11.2152,48.4857,-19.8812,9.85865,-19.3021
0.838275,17.5389,-3.27771,-11.9614,-70.8544,8.27338,7.51882,3.0506,-1.03269,2.00805,3.90722,-1.17209,-2.11936,1.93281,-0.987382,-6.33769,6.62058,-5.17103,18.235,7.83619,9.88064,5.89592,4.15134,4.49231,2.91996e-14,-7.65321e-15,4.8569,19.2246,-76.986,130.473,-17.3813,-26.3881,9.01625,7.12502,0.170937,-20.9634,2.91996e-14,-7.65321e-15,-3.07351,-9.59431,69.3683,141.261,8.88085,-28.7842,14.1872,7.12502,-2.14329,44.1562,-14.6343,12.6888,15.7498,53.7193,-29.0261,-11.2254,-9.87107,-14.8237,1.34473,-11.2813,48.9341,-20.5624,10.1453,-20.0078
0.857708,17.5075,-3.23902,-12.2096,-70.8155,8.35942,7.85715,2.98448,-1.13758,2.10383,3.80605,-1.04347,-2.22437,1.88105,-0.803712,-6.64018,6.6545,-4.93212,18.1435,7.93298,9.52591,5.94188,4.19458,4.35722,-9.24465e-14,4.03781e-15,4.2815,19.0392,-77.0059,131.11,-17.9011,-26.3995,9.02378,7.12502,0.159877,-20.9559,-9.24465e-14,4.03781e-15,-4.6338,-10.1817,70.738,141.55,7.77616,-29.1848,14.1034,7.12502,-2.53014,44.0682,-14.6166,12.5527,15.5314,54.05,-29.315,-11.1019,-10.3954,-14.8354,1.1731,-11.5031,49.3091,-21.1217,10.244,-19.8096
0.877666,17.4728,-3.20341,-12.3428,-70.7361,8.4416,8.10488,2.88481,-1.28162,2.17095,3.65855,-0.929481,-2.30928,1.8068,-0.603511,-6.93338,6.74348,-4.78329,18.0588,8.09305,9.30146,5.97299,4.27201,4.28082,4.91386e-14,-8.79622e-15,3.6688,18.9132,-77.1164,131.678,-18.3954,-26.552,9.3907,7.12502,0.0125952,-20.589,4.91386e-14,-8.79622e-15,-6.17519,-10.5051,72.0242,141.716,6.88118,-29.1774,13.4315,7.12502,-2.52307,43.3964,-14.6866,12.4561,15.3039,54.2941,-29.6391,-10.9359,-10.3754,-14.9993,1.00578,-11.72,49.641,-21.5561,10.3962,-19.9646
0.898928,17.4422,-3.16924,-12.2043,-70.6908,8.29162,8.30924,2.799,-1.25217,2.23962,3.5427,-0.879259,-2.35277,1.74787,-0.565178,-7.13788,6.79695,-4.62425,17.8011,8.19696,9.14133,5.93617,4.32685,4.20924,7.78366e-15,-1.30204e-14,2.93483,18.7216,-77.4452,132.184,-18.8434,-26.5515,9.53803,7.12502,0.0131356,-20.4417,7.78366e-15,-1.30204e-14,-7.4828,-10.6204,72.999,141.742,6.13884,-28.8588,12.739,7.12502,-2.21538,42.7073,-14.7666,12.4279,15.1848,54.413,-29.8457,-10.866,-10.2851,-15.1887,1.05766,-11.7993,49.8627,-21.9443,10.4092,-19.6627
0.91918,17.4221,-3.13378,-11.9184,-70.6524,7.92732,8.58159,2.71222,-1.1621,2.30464,3.43036,-0.798577,-2.43579,1.69044,-0.532667,-7.20303,6.84735,-4.48128,17.4076,8.29815,8.99104,5.83178,4.37811,4.13129,5.26904e-14,-1.10822e-14,2.02993,18.621,-77.7871,132.637,-19.1254,-26.4153,9.37385,7.12502,0.144665,-20.6058,5.26904e-14,-1.10822e-14,-8.93531,-10.7235,74.1127,141.791,5.11553,-28.5136,12.0655,7.12502,-1.88196,42.0369,-14.7042,12.4882,15.1625,54.4064,-29.9874,-10.8263,-10.1754,-15.2612,1.3251,-11.7787,49.9604,-22.1802,10.3118,-19.1977
0.933478,17.4194,-3.09346,-11.6589,-70.6244,7.68324,8.71073,2.64659,-1.10107,2.33406,3.3482,-0.710366,-2.47851,1.6489,-0.472709,-7.28239,6.88978,-4.43302,17.1396,8.37792,8.9379,5.76134,4.41973,4.10372,-9.75908e-15,-4.67144e-15,0.988083,18.5253,-78.0442,133.032,-19.366,-26.3628,9.61258,7.12502,0.19532,-20.3671,-9.75908e-15,-4.67144e-15,-10.5286,-10.9957,75.402,141.838,3.57183,-28.3277,11.9892,7.12502,-1.70243,41.9622,-14.6275,12.5646,15.0658,54.2364,-30.0648,-10.7009,-9.76944,-15.2819,1.53966,-11.8545,49.8805,-22.411,10.2873,-18.7079
0.943745,17.4328,-3.05162,-11.3888,-70.6087,7.55983,8.63613,2.56801,-0.989253,2.33257,3.25624,-0.689117,-2.4337,1.60312,-0.499696,-7.30053,6.93183,-4.40434,16.9317,8.44208,8.95075,5.69589,4.45555,4.09862,-6.08778e-14,1.98785e-14,-0.106812,18.4623,-78.3941,133.405,-19.5422,-26.2778,9.78866,7.12502,0.277431,-20.1909,-6.08778e-14,1.98785e-14,-11.7599,-11.0204,76.1994,141.795,2.85561,-28.3853,12.2371,7.12502,-1.75807,42.2096,-14.6068,12.6828,14.9281,53.9151,-29.9321,-10.7858,-10.0063,-15.2906,1.64567,-12.0409,49.6021,-22.5222,10.6031,-18.937
0.953088,17.4581,-3.00936,-10.7113,-70.6043,7.05812,8.43373,2.47697,-0.693211,2.35489,3.16565,-0.668151,-2.28387,1.55793,-0.623404,-7.29144,6.97281,-4.43912,16.7212,8.49371,9.07849,5.61677,4.48926,4.13717,5.45726e-14,2.28602e-15,-1.16089,18.3594,-78.7792,133.76,-19.4778,-26.0088,9.61521,7.12502,0.537212,-20.3639,5.45726e-14,2.28602e-15,-12.4951,-10.6578,76.4664,141.643,3.04301,-28.173,11.8793,7.12502,-1.55295,41.8534,-14.5662,12.8288,14.9615,53.4659,-29.5349,-11.1807,-11.0311,-15.2619,1.84983,-12.0645,49.1346,-22.5334,10.8608,-19.5216
0.960582,17.4976,-2.96777,-10.6188,-70.7212,7.13654,8.21897,2.47396,-0.670168,2.41132,3.16863,-0.607849,-2.10902,1.55972,-0.562747,-7.22134,6.97633,-4.50771,16.5135,8.53347,8.98115,5.53907,4.49741,4.10778,1.37286e-14,-1.26228e-14,-2.17624,18.3284,-79.0549,134.024,-19.2439,-26.1107,9.96261,7.12502,0.438819,-20.0167,1.37286e-14,-1.26228e-14,-13.0668,-10.1873,76.7286,141.443,3.07197,-27.8086,11.6004,7.12502,-1.20104,41.5768,-14.4515,13.1097,14.7985,52.931,-29.1465,-11.3395,-11.5941,-15.0361,2.17897,-12.2575,48.4672,-22.4551,11.0251,-20.2294
0.967831,17.5539,-2.92583,-11.0747,-70.8763,7.80166,8.00671,2.51196,-0.820429,2.44073,3.21113,-0.584241,-1.97073,1.58132,-0.447929,-7.05128,7.0103,-4.63431,16.4158,8.60798,8.90584,5.47187,4.51818,4.09568,3.49737e-14,4.57205e-15,-3.194,18.3833,-79.3518,134.175,-18.8728,-26.4124,10.458,7.12502,0.147472,-19.5217,3.49737e-14,4.57205e-15,-13.5882,-9.67631,76.8778,141.287,3.20327,-27.5797,12.0016,7.12502,-0.980004,41.9791,-14.3511,13.4135,14.3973,52.3489,-28.6884,-11.3168,-11.7606,-14.7049,2.31253,-12.6692,47.6461,-22.2704,11.1187,-20.0239
0.976849,17.6219,-2.88201,-11.2511,-70.9827,8.20682,7.79487,2.53703,-0.687402,2.4241,3.25717,-0.656228,-1.85906,1.60512,-0.590694,-6.87486,7.04201,-4.76366,16.4743,8.64234,8.99865,5.44584,4.52994,4.14017,-5.91384e-15,-3.97569e-16,-4.24792,18.2361,-79.7267,134.3,-18.3865,-26.2266,10.6193,7.12502,0.326844,-19.3602,-5.91384e-15,-3.97569e-16,-13.8649,-9.04594,76.6605,141.083,3.80602,-27.3263,12.3692,7.12502,-0.735201,42.3477,-14.3149,13.5673,14.0712,51.7462,-27.9358,-11.4482,-12.7624,-14.3702,2.22545,-13.0016,46.7138,-21.939,11.1078,-18.778
0.990909,17.6957,-2.84414,-11.2436,-71.1277,8.50599,7.58197,2.5692,-0.501589,2.35432,3.31624,-0.749083,-1.79686,1.63596,-0.786651,-6.7453,7.04709,-4.83749,16.6757,8.63581,9.02825,5.48111,4.51997,4.16265,1.37658e-14,7.35503e-15,-5.28088,18.0792,-80.1321,134.394,-17.8002,-25.969,10.664,7.12502,0.575694,-19.3149,1.37658e-14,7.35503e-15,-13.855,-8.14222,76.0094,140.821,4.87027,-27.0389,12.2594,7.12502,-0.457686,42.2386,-14.4316,13.8575,13.794,51.1624,-27.044,-11.5957,-13.6668,-14.1557,2.13392,-13.2841,45.7328,-21.2285,11.2901,-18.4216
1.00745,17.7773,-2.81427,-11.7068,-71.2687,9.31329,7.45795,2.62859,-0.560348,2.24841,3.39031,-0.88343,-1.83193,1.67389,-0.895496,-6.62018,7.05392,-4.80303,16.9719,8.63053,8.93903,5.55822,4.50738,4.13547,5.70885e-14,-3.97569e-15,-6.28749,17.9494,-80.5077,134.474,-17.3073,-26.0148,11.0318,7.12502,0.531435,-18.9473,5.70885e-14,-3.97569e-15,-13.5253,-7.18278,74.7958,140.558,6.38721,-27.0559,12.5015,7.12502,-0.474125,42.4808,-14.5912,14.2633,13.3467,50.5911,-26.0759,-11.6294,-14.0967,-14.0027,2.21022,-13.726,44.755,-20.0342,11.7654,-19.9568
1.0246,17.8684,-2.7839,-12.5183,-71.3696,10.4661,7.3431,2.68892,-0.753509,2.15306,3.45619,-0.985516,-1.87097,1.7076,-0.895675,-6.44666,7.08954,-4.85928,17.3194,8.68425,8.77608,5.63836,4.51101,4.10211,-6.07411e-14,7.55382e-15,-7.25512,17.8246,-80.6997,134.601,-17.0685,-25.6811,11.2109,7.12502,0.8537,-18.7671,-6.07411e-14,7.55382e-15,-13.1496,-6.16739,73.5831,140.401,7.91252,-26.9849,12.8292,7.12502,-0.405507,42.8086,-14.7389,14.6183,12.7655,50.0219,-24.8751,-11.6654,-14.7804,-13.8497,2.26159,-14.2919,43.8065,-18.6269,12.2284,-21.7688
1.04649,17.9722,-2.75564,-13.1305,-71.3618,11.4332,7.23608,2.7146,-0.920547,2.07515,3.48,-1.01505,-1.89983,1.72039,-0.832044,-6.40612,7.13226,-5.00264,17.8319,8.77531,8.50955,5.79214,4.51962,4.0653,-3.1731e-14,-1.98785e-15,-8.08171,17.7588,-80.7795,134.664,-16.6446,-25.6601,11.1927,7.12502,0.874024,-18.7853,-3.1731e-14,-1.98785e-15,-12.7448,-5.21531,72.6773,140.277,9.02755,-26.987,13.3955,7.12502,-0.407504,43.3748,-14.8914,14.957,12.2272,49.4221,-23.6118,-11.6506,-15.2788,-13.7756,2.0645,-14.8007,42.8823,-17.4184,12.249,-21.2189
1.07045,18.0856,-2.73113,-13.0562,-71.3129,11.7696,7.07525,2.70954,-0.871926,1.98853,3.48043,-1.03629,-1.89568,1.72168,-0.875334,-6.42765,7.1723,-5.0892,18.3571,8.85409,8.277,5.96341,4.52741,4.03321,6.41081e-15,-7.35503e-15,-8.81332,17.7664,-81.0139,134.574,-15.703,-26.4785,11.4422,7.12502,0.0836291,-18.5375,6.41081e-15,-7.35503e-15,-12.1952,-4.25176,71.7464,140.194,10.328,-26.917,13.9861,7.12502,-0.339926,43.9655,-15.1464,15.0907,11.8593,48.7899,-22.3448,-11.4553,-14.6638,-13.8423,1.85851,-15.0382,41.9666,-16.3805,11.8435,-18.3692
1.09505,18.1991,-2.7113,-13.0698,-71.2565,12.2275,6.94,2.7606,-0.881195,1.8855,3.54966,-1.09208,-1.92327,1.75722,-0.929554,-6.33175,7.18512,-5.12808,18.7275,8.88999,8.0597,6.07093,4.51749,3.98417,-2.79789e-14,1.59028e-15,-9.54396,17.5828,-81.1801,134.582,-14.9858,-27.0504,11.6565,7.12502,-0.468728,-18.3227,-2.79789e-14,1.59028e-15,-11.5625,-3.30507,70.8616,140.165,11.6852,-26.9307,14.4382,7.12502,-0.353159,44.4177,-15.4611,15.1201,11.4487,48.1361,-20.9028,-11.3694,-14.278,-13.9758,1.73242,-15.242,41.0486,-15.0411,11.5586,-16.0634
1.1221,18.3125,-2.69449,-13.3743,-71.1225,13.0055,6.82949,2.82252,-1.07329,1.79626,3.62047,-1.12103,-1.96327,1.79372,-0.855437,-6.3538,7.17883,-5.26966,19.138,8.92605,7.81135,6.20886,4.49891,3.94907,3.71976e-14,7.95139e-15,-10.2113,17.2931,-81.1246,134.718,-14.74,-26.987,11.5701,7.12502,-0.407552,-18.4093,3.71976e-14,7.95139e-15,-10.8878,-2.50264,70.1649,140.129,12.2801,-27.5308,15.2596,7.12502,-0.932711,45.2373,-15.8039,15.2375,10.8851,47.4702,-19.4963,-11.1163,-12.7638,-14.1507,1.59524,-15.5296,40.1208,-13.3956,11.3786,-15.4039
1.15292,18.4267,-2.6836,-13.3716,-71.0038,13.4401,6.75418,2.86366,-1.20443,1.7283,3.66853,-1.10463,-2.00048,1.81875,-0.767985,-6.41244,7.16803,-5.31827,19.5317,8.98049,7.38797,6.36208,4.48048,3.84644,7.50412e-14,-1.94809e-14,-10.7763,17.0748,-81.0866,134.809,-14.5356,-27.0503,11.2507,7.12502,-0.468664,-18.7286,7.50412e-14,-1.94809e-14,-10.028,-1.79652,69.3212,140.204,12.9791,-28.2633,16.1982,7.12502,-1.64021,46.1717,-16.1334,15.4816,10.4409,46.8038,-18.2188,-10.5938,-9.35738,-14.3272,1.62028,-15.6296,39.1932,-11.6483,10.9002,-14.5034
1.18428,18.5377,-2.67424,-13.2944,-70.8612,13.7649,6.66697,2.90555,-1.26639,1.71348,3.72201,-1.1134,-1.97049,1.84587,-0.742695,-6.34552,7.16038,-5.3052,19.6621,9.03937,6.94892,6.41412,4.46948,3.71209,-1.96797e-14,4.37326e-15,-11.2918,16.9364,-81.032,134.796,-14.0815,-27.8016,11.0493,7.12502,-1.1943,-18.9271,-1.96797e-14,4.37326e-15,-8.85682,-1.03894,68.1915,140.327,14.1462,-28.5635,16.9459,7.12502,-1.93015,46.9169,-16.4207,15.5776,10.059,46.128,-16.8112,-10.3473,-7.45752,-14.4914,1.61518,-15.6699,38.2897,-9.80085,10.2982,-13.6399
1.21437,18.6451,-2.66837,-13.3561,-70.6393,14.1695,6.66388,2.94569,-1.39446,1.72253,3.76571,-1.14314,-1.96557,1.86778,-0.705204,-6.2483,7.13747,-5.3697,19.708,9.06546,6.64103,6.42486,4.44938,3.62439,-5.15598e-14,2.14687e-14,-11.7294,16.4283,-80.8211,135.129,-15.2646,-26.5619,10.2238,7.12502,0.00303275,-19.756,-5.15598e-14,2.14687e-14,-7.6716,-0.266056,67.0933,140.431,15.3171,-28.8692,17.6359,7.12502,-2.2254,47.6041,-16.5918,15.6022,9.65494,45.4469,-15.5287,-10.2181,-6.41503,-14.6291,1.72036,-15.6979,37.4466,-7.7999,9.48472,-13.875
1.24426,18.7506,-2.66822,-13.1094,-70.3865,14.2512,6.70025,2.9963,-1.4752,1.73276,3.82638,-1.14345,-1.98044,1.89806,-0.66751,-6.26752,7.05342,-5.52887,19.839,9.01333,6.39838,6.4796,4.38963,3.577,2.06239e-14,5.1684e-15,-12.3042,16.4385,-80.7027,134.832,-13.7178,-28.8644,11.2556,7.12502,-2.22071,-18.7126,2.06239e-14,5.1684e-15,-6.56635,0.408739,66.2255,140.506,15.9863,-29.3525,18.4096,7.12502,-2.69218,48.3723,-16.7247,15.6093,9.36526,44.7922,-14.4351,-9.96086,-5.78189,-14.8263,1.9341,-15.5656,36.6654,-5.5807,8.41844,-14.918
1.2753,18.851,-2.6723,-12.4903,-70.0408,13.9543,6.80826,3.03538,-1.44886,1.71126,3.87661,-1.16155,-2.05963,1.92305,-0.711999,-6.40059,6.93379,-5.46907,20.035,8.90733,6.05967,6.59459,4.31062,3.46985,-6.22196e-14,2.54444e-14,-12.929,15.8822,-80.5015,135.155,-14.4793,-28.604,10.927,7.12502,-1.96929,-19.0437,-6.22196e-14,2.54444e-14,-5.41078,1.02503,65.1703,140.602,16.4369,-30.0539,19.4765,7.12502,-3.3695,49.4296,-16.848,15.435,9.23901,44.2059,-13.6299,-9.54453,-6.33159,-15.1299,1.9433,-15.2717,35.9446,-3.29931,7.2143,-16.4131
1.3061,18.9439,-2.67646,-12.1186,-69.6234,13.8841,6.9353,3.03932,-1.47691,1.7111,3.87457,-1.21193,-2.1287,1.92176,-0.755356,-6.43816,6.82426,-5.34416,20.0385,8.83013,5.59617,6.6394,4.2429,3.30217,-7.68303e-14,1.74931e-14,-13.4559,15.3197,-80.2513,135.451,-15.5973,-28.0188,10.5396,7.12502,-1.40411,-19.4355,-7.68303e-14,1.74931e-14,-4.29574,1.78256,63.9535,140.768,17.0791,-30.5838,20.0583,7.12502,-3.88121,50.0027,-16.9274,15.207,9.03003,43.7813,-13.1169,-8.72444,-7.81046,-15.4624,2.02043,-15.0541,35.3034,-1.10398,6.03028,-18.8307
1.33904,19.0257,-2.67997,-11.8089,-69.1691,13.8768,6.96762,2.97741,-1.50416,1.75483,3.78895,-1.22765,-2.10231,1.87868,-0.749102,-6.34897,6.74744,-5.50371,19.8502,8.80929,5.25688,6.57658,4.1965,3.20844,6.16232e-14,-4.77083e-15,-13.6733,15.0099,-79.9957,135.402,-16.5727,-27.6483,10.194,7.12502,-1.04627,-19.7832,6.16232e-14,-4.77083e-15,-3.36247,2.40848,63.0049,140.94,17.2527,-30.8711,20.1646,7.12502,-4.15868,50.1038,-17.0267,15.0466,8.79255,43.535,-12.6284,-7.58872,-10.3149,-15.8533,2.20148,-14.8354,34.716,0.966824,4.84766,-18.8001
1.37146,19.0919,-2.68749,-11.2469,-68.6216,13.5707,6.97966,2.9126,-1.41331,1.84191,3.70797,-1.2682,-2.01082,1.83721,-0.831669,-6.29846,6.62877,-5.7361,19.5953,8.70995,5.10055,6.49014,4.12558,3.1789,6.0033e-14,-4.77083e-15,-13.9746,14.7444,-79.854,135.15,-16.4846,-28.6559,10.3243,7.12502,-2.01935,-19.6459,6.0033e-14,-4.77083e-15,-2.50734,2.48892,62.3288,141.08,16.484,-31.1126,20.3815,7.12502,-4.39187,50.316,-17.1059,14.8228,8.70952,43.5169,-12.3701,-6.41808,-11.5562,-16.2795,2.19263,-14.4679,34.1904,3.06771,3.6223,-17.0932
1.40111,19.1575,-2.69703,-10.3147,-67.9442,12.831,7.02364,2.78174,-1.1558,1.92172,3.55159,-1.2719,-1.93752,1.75822,-0.964764,-6.34735,6.5235,-6.00742,19.4342,8.63055,4.98934,6.44596,4.06406,3.1789,-2.16178e-14,-9.54166e-15,-14.5755,14.519,-79.6623,135.089,-16.2622,-29.7754,10.5455,7.12502,-3.10057,-19.4117,-2.16178e-14,-9.54166e-15,-2.00493,2.30623,61.9211,141.254,15.31,-31.3209,20.1576,7.12502,-4.593,50.0878,-17.0648,14.4346,8.84657,43.694,-12.3467,-5.08678,-11.0162,-16.7065,1.78868,-13.9106,33.6809,5.19222,2.48339,-16.6963
1.43295,19.2136,-2.70824,-9.1235,-67.2416,11.8201,7.05186,2.57743,-0.826731,2.00804,3.30513,-1.20517,-1.85129,1.6347,-1.05705,-6.41019,6.42224,-6.27976,19.1818,8.58786,4.71946,6.38219,4.0099,3.12883,1.54555e-14,-4.77083e-15,-15.0665,14.4112,-79.3948,135.029,-16.4371,-29.9791,10.4533,7.12502,-3.29731,-19.501,1.54555e-14,-4.77083e-15,-1.84903,2.21283,61.8908,141.469,14.7535,-30.8803,18.3836,7.12502,-4.16754,48.3226,-17.0226,13.9599,9.13023,44.0651,-12.4758,-3.45611,-10.6343,-17.2596,1.18029,-13.1984,33.2391,7.30019,1.48651,-15.9703
1.4626,19.2618,-2.72077,-8.38247,-66.5392,11.2405,7.27888,2.45398,-0.674674,1.99235,3.14668,-1.23874,-1.98506,1.55494,-1.17427,-6.41532,6.24341,-6.30425,18.9922,8.40622,4.41156,6.34895,3.90052,3.02,-3.33461e-14,-1.59028e-15,-15.7407,14.1009,-79.281,134.962,-16.8207,-29.8409,10.3216,7.12502,-3.16378,-19.6347,-3.33461e-14,-1.59028e-15,-1.94233,1.74667,61.8628,141.692,14.2469,-30.1778,16.4022,7.12502,-3.48914,46.3534,-16.9388,13.5256,9.29467,44.5959,-12.2945,-4.21221,-12.064,-17.8034,0.549714,-12.64,32.8678,9.17263,0.613364,-13.2831
1.48928,19.2986,-2.72972,-7.96234,-65.841,10.9177,7.72944,2.41796,-0.551519,1.83665,3.09756,-1.32628,-2.38494,1.52877,-1.35495,-6.19388,6.0085,-6.33547,18.8633,8.10395,4.24262,6.29396,3.74061,2.94187,5.55106e-14,6.36111e-15,-16.8172,13.5465,-79.1685,134.955,-17.2238,-29.6466,10.3235,7.12502,-2.97619,-19.6354,5.55106e-14,6.36111e-15,-2.65161,0.330399,62.0216,142.047,12.4177,-30.5512,16.0943,7.12502,-3.84979,46.0393,-16.7633,12.9599,9.389,45.262,-12.0087,-5.35075,-12.2645,-18.2727,0.0890795,-12.2063,32.6507,10.5605,-0.127729,-11.5076
1.51382,19.3211,-2.74079,-7.5445,-65.1673,10.5152,8.11237,2.36239,-0.429588,1.77197,3.02683,-1.3388,-2.65849,1.49143,-1.44923,-5.97473,5.80136,-6.45525,18.642,7.87964,3.91492,6.21023,3.60255,2.8302,-1.22948e-13,1.47101e-14,-17.7657,13.103,-78.9623,134.875,-17.4302,-29.4501,10.2436,7.12502,-2.78641,-19.7179,-1.22948e-13,1.47101e-14,-3.74759,-1.49971,62.6743,142.485,10.5656,-31.5211,15.9893,7.12502,-4.78636,45.9152,-16.4867,12.429,9.55451,45.9907,-11.7861,-6.30279,-9.88944,-18.6572,-0.270216,-11.7165,32.5802,11.3271,-0.369503,-10.7912
1.53236,19.3316,-2.75526,-6.81823,-64.5184,9.85612,8.17664,2.3271,-0.216651,1.84327,2.99666,-1.34935,-2.6095,1.47516,-1.57694,-6.03927,5.57903,-6.46043,18.3939,7.64176,3.59972,6.1712,3.47033,2.71428,-2.78299e-14,1.78906e-14,-18.5738,12.603,-78.7707,134.728,-17.2322,-29.4385,10.3945,7.12502,-2.77517,-19.5672,-2.78299e-14,1.78906e-14,-4.65032,-3.19873,63.3213,142.879,9.59538,-31.9858,15.2691,7.12502,-5.23506,45.1845,-16.2338,12.1138,9.87921,46.6525,-11.5741,-7.34921,-7.71217,-19.1373,-0.427217,-11.0811,32.65,11.0443,1.22071,-12.5223
1.54932,19.3372,-2.76697,-6.29714,-63.8411,9.3897,8.2276,2.27671,-0.0869378,1.89636,2.9393,-1.3715,-2.57652,1.44592,-1.6673,-6.0533,5.40348,-6.46248,18.1642,7.44552,3.37954,6.1218,3.36544,2.62862,1.963e-14,-4.77083e-15,-19.5041,12.1554,-78.5474,134.591,-16.9287,-29.6703,10.7658,7.12502,-2.99904,-19.1929,1.963e-14,-4.77083e-15,-5.79954,-4.63873,63.9298,143.298,8.73116,-31.3661,14.4799,7.12502,-4.63665,44.4091,-15.8522,11.8894,10.1233,47.1264,-11.2109,-8.6214,-7.17288,-19.5706,-0.354975,-10.579,32.7542,10.39,3.08337,-10.5801
1.56384,19.3404,-2.77282,-6.09824,-63.1046,9.13308,8.34724,2.18015,-0.0724078,1.96194,2.81124,-1.35032,-2.57884,1.38181,-1.6441,-5.84962,5.29031,-6.6397,17.7847,7.32829,3.21184,5.97452,3.29537,2.57985,6.16232e-15,1.19271e-15,-20.4499,11.812,-78.2201,134.494,-16.7979,-29.6406,10.543,7.12502,-2.97037,-19.4161,6.16232e-15,1.19271e-15,-7.32677,-5.97959,64.9272,143.766,7.95285,-30.1497,13.9792,7.12502,-3.46204,43.9308,-15.1517,11.6853,10.2647,47.3022,-10.3898,-9.68545,-6.72975,-19.8175,-0.401501,-10.184,32.814,9.56712,4.41566,-8.58002
1.56948,19.3329,-2.77467,-6.04464,-62.2978,9.06296,8.16832,2.04724,-0.20615,2.17501,2.62521,-1.33854,-2.27107,1.29101,-1.52498,-5.83698,5.18491,-6.77801,17.3514,7.24057,2.99326,5.84598,3.24172,2.51657,4.19933e-14,-5.96354e-15,-21.0952,11.5294,-77.8565,134.294,-16.5869,-29.6596,10.1936,7.12502,-2.98874,-19.7652,4.19933e-14,-5.96354e-15,-8.81611,-7.367,66.1271,144.155,7.28979,-29.516,13.8788,7.12502,-2.85005,43.8395,-14.2642,11.5823,10.3072,47.1278,-9.29547,-10.4129,-5.90297,-20.0281,-0.607131,-9.80764,32.7775,8.73306,5.19514,-7.28342
1.57015,19.313,-2.77892,-5.6817,-61.5244,8.73394,7.81624,1.90393,-0.358608,2.41889,2.42957,-1.25558,-1.83907,1.1952,-1.31558,-5.99443,5.11098,-6.865,16.973,7.20771,2.74444,5.76458,3.21518,2.44647,6.06293e-14,-4.37326e-15,-21.6716,11.3545,-77.4407,134.058,-16.406,-29.7954,10.1924,7.12502,-3.11982,-19.7645,6.06293e-14,-4.37326e-15,-10.3632,-8.74262,67.4246,144.433,6.70567,-29.3399,13.3459,7.12502,-2.68,43.3088,-13.3323,11.8177,10.5251,46.5949,-8.17973,-10.9854,-5.75118,-20.2854,-0.644115,-9.21095,32.6299,7.92093,5.73416,-4.77443
1.56694,19.282,-2.78256,-5.2505,-60.8794,8.23906,7.79538,1.84518,-0.428159,2.44895,2.34909,-1.17076,-1.80451,1.15518,-1.18051,-6.08526,5.03288,-6.8788,16.9037,7.13043,2.63554,5.76688,3.17166,2.41197,6.37105e-14,-2.66371e-14,-22.7596,11.1714,-76.9901,133.952,-16.4306,-29.9243,10.2233,7.12502,-3.24432,-19.7317,6.37105e-14,-2.66371e-14,-12.327,-10.2611,68.9213,144.657,6.1534,-29.2871,12.6655,7.12502,-2.62893,42.6291,-12.2215,12.4117,10.8999,45.7431,-6.91342,-11.2979,-6.92374,-20.3851,-0.490564,-8.4923,32.3791,7.06837,6.38219,-2.75088
1.56079,19.2391,-2.78235,-4.89294,-60.3196,7.75626,7.9559,1.83871,-0.333174,2.37246,2.34529,-1.20312,-1.96713,1.15309,-1.27429,-6.11475,4.94201,-6.77581,16.9424,6.99488,2.6595,5.79296,3.11339,2.39774,8.05575e-14,4.17448e-15,-24.061,10.9296,-76.7991,133.827,-16.6135,-30.4621,10.2367,7.12502,-3.76375,-19.7098,8.05575e-14,4.17448e-15,-14.5425,-11.8911,70.5178,144.846,5.53655,-29.2512,12.3955,7.12502,-2.59435,42.3595,-10.9753,13.1505,11.303,44.6455,-5.8609,-11.4245,-8.53505,-20.3694,-0.400396,-7.76155,32.0558,6.39467,7.19028,-3.46542
1.55144,19.1817,-2.78438,-4.64335,-59.7707,7.41059,7.99707,1.84066,-0.331957,2.36124,2.34519,-1.2874,-1.99786,1.153,-1.36355,-6.15809,4.84028,-6.7071,16.8169,6.83482,2.78163,5.76549,3.05427,2.41426,2.23633e-15,6.55989e-15,-25.1893,10.6585,-76.8121,133.531,-16.7577,-31.2025,10.6229,7.12502,-4.47869,-19.3097,2.23633e-15,6.55989e-15,-16.6164,-13.2958,72.1269,144.994,5.06106,-29.3036,12.1701,7.12502,-2.64494,42.1334,-9.67756,14.0009,11.6701,43.4202,-5.80632,-11.6241,-11.2153,-20.3648,-0.315419,-7.06224,31.6809,5.92389,7.99889,-5.52311
1.53898,19.1079,-2.78638,-4.54449,-59.2099,7.29284,7.88572,1.80784,-0.513246,2.38892,2.28598,-1.39597,-1.9115,1.12391,-1.36363,-6.31092,4.7713,-6.58753,16.7128,6.73131,2.84687,5.76501,3.02093,2.41209,1.26725e-15,-6.16232e-15,-26.2508,10.413,-76.748,133.264,-16.7223,-31.2504,10.9188,7.12502,-4.52494,-19.0129,1.26725e-15,-6.16232e-15,-18.5936,-14.2844,73.6012,145.109,4.73699,-29.2161,12.005,7.12502,-2.5604,41.9694,-8.37593,14.7713,11.9191,42.2081,-6.83497,-11.8909,-15.3155,-20.3671,-0.223431,-6.45778,31.1955,5.60759,8.97434,-7.57243
1.52849,19.0165,-2.78883,-4.21663,-58.7478,7.01992,7.74716,1.72312,-0.62876,2.35381,2.16514,-1.47382,-1.87453,1.06425,-1.36388,-6.67357,4.78125,-6.44939,16.8211,6.75669,2.86002,5.86403,3.04138,2.41016,5.53615e-14,-2.16675e-14,-27.3015,10.2417,-76.6114,133.071,-16.2405,-30.2984,10.3819,7.12502,-3.60565,-19.5673,5.53615e-14,-2.16675e-14,-20.7422,-14.8706,75.0133,145.153,4.07122,-29.2921,12.0637,7.12502,-2.63378,42.0272,-7.25547,15.366,12.2484,41.1264,-9.52941,-12.2369,-24.0198,-20.4095,-0.219555,-5.69035,30.5876,5.15085,10.3411,-8.47319
1.5185,18.9189,-2.79236,-3.76988,-58.4054,6.72715,7.57945,1.68183,-0.744952,2.26919,2.10239,-1.56707,-1.87066,1.03372,-1.38527,-7.05585,4.81252,-6.31794,16.8466,6.80034,2.95033,5.93614,3.07922,2.43312,-1.10673e-13,8.44835e-15,-28.276,9.98881,-76.3964,132.805,-15.5619,-29.0033,9.51191,7.12502,-2.35493,-20.4548,-1.10673e-13,8.44835e-15,-22.8557,-15.2004,76.2729,145.131,3.4585,-29.5551,11.7621,7.12502,-2.88785,41.7223,-6.39703,15.7693,12.5172,40.2015,-11.6193,-12.5519,-22.1883,-20.4426,-0.475208,-4.80005,29.8481,4.16041,12.2531,-6.73444
1.50886,18.8229,-2.7951,-3.3491,-58.151,6.49491,7.42127,1.68823,-0.743514,2.15961,2.10814,-1.77909,-1.88768,1.03716,-1.60205,-7.22256,4.82491,-6.11189,16.636,6.78843,3.05693,5.90113,3.10211,2.43272,-5.00588e-14,1.43342e-14,-29.3083,9.89865,-76.3817,132.556,-15.608,-28.8456,9.07167,7.12502,-2.20255,-20.8967,-5.00588e-14,1.43342e-14,-24.7243,-15.3588,77.1656,145.135,3.356,-29.6734,11.2058,7.12502,-3.0021,41.1644,-5.71144,15.9442,12.6647,39.3949,-12.9815,-12.5621,-21.3577,-20.4477,-0.690784,-3.89877,29.0514,3.19288,14.1679,-4.13229
1.49984,18.7269,-2.79389,-3.20059,-57.9598,6.48687,7.7403,1.8493,-1.39016,1.83068,2.26849,-1.57256,-2.43424,1.11995,-1.06062,-7.29699,4.74483,-6.3606,16.6036,6.73132,2.99433,5.90136,3.05634,2.45122,-2.62831e-14,2.08475e-14,-30.658,10.1634,-75.7591,132.383,-16.2659,-29.7453,8.97014,7.12502,-3.07144,-20.9875,-2.62831e-14,2.08475e-14,-26.9456,-15.3166,78.8763,145.092,3.03996,-29.3644,10.9084,7.12502,-2.70359,40.871,-5.00752,15.9514,12.6404,38.6334,-14.6628,-12.2962,-25.739,-20.3364,-0.907097,-3.12734,28.2239,2.56701,15.8947,-4.33828
1.49621,18.625,-2.7874,-2.9653,-57.7523,6.31331,7.69744,1.90549,-1.34333,1.84034,2.34125,-1.77102,-2.3897,1.1552,-1.29664,-7.58825,4.69495,-6.27981,16.2877,6.66718,3.06938,5.85467,3.04741,2.45914,4.81494e-14,4.96962e-17,-31.4527,10.0048,-75.8195,132.057,-16.7168,-30.4736,9.41792,7.12502,-3.77478,-20.5284,4.81494e-14,4.96962e-17,-28.3485,-15.0901,79.5045,144.847,2.93315,-29.0505,10.6415,7.12502,-2.40049,40.6077,-4.31443,15.8248,12.66,37.8939,-16.7023,-11.8933,-25.7081,-20.2347,-1.25948,-2.29429,27.4544,2.22922,17.5614,-5.77113
1.49739,18.5268,-2.78025,-2.50893,-57.537,5.8047,7.78884,1.88973,-1.08951,1.83598,2.33295,-1.92037,-2.42863,1.14934,-1.59557,-7.68395,4.69818,-6.19056,15.8257,6.68099,3.00225,5.73113,3.06838,2.41586,5.27525e-14,-5.46658e-15,-32.2711,9.99193,-75.8423,131.811,-17.0993,-30.7374,9.93139,7.12502,-4.02952,-20.0103,5.27525e-14,-5.46658e-15,-29.6599,-14.6726,79.8749,144.635,3.11665,-28.8466,10.4106,7.12502,-2.20358,40.3789,-3.66801,15.5396,12.8468,37.1618,-18.3324,-11.5176,-23.6974,-20.1399,-1.52268,-1.34037,26.8048,2.29598,19.0082,-5.68342
1.50172,18.4278,-2.77042,-2.03668,-57.3878,5.17332,8.28265,1.9158,-1.00943,1.62849,2.36305,-1.83305,-2.91729,1.16345,-1.57762,-7.44589,4.74405,-6.43925,15.3937,6.76828,2.95317,5.54515,3.10448,2.42648,7.71781e-14,-1.00386e-14,-33.3999,10.2226,-75.4341,131.711,-17.5337,-30.5641,10.0281,7.12502,-3.86225,-19.9166,7.71781e-14,-1.00386e-14,-31.1576,-14.1418,80.3616,144.486,3.58966,-28.4663,10.5186,7.12502,-1.8363,40.4904,-3.04266,15.1129,13.0847,36.4975,-19.6185,-11.1329,-25.3571,-20.0148,-1.69099,-0.308873,26.2919,2.48604,20.2964,-5.30975
1.5077,18.3272,-2.75731,-1.40504,-57.3834,4.32174,8.81952,1.96586,-0.759545,1.42367,2.43998,-1.79217,-3.41775,1.19798,-1.71068,-7.19363,4.84605,-6.64516,14.9533,6.89786,3.0704,5.34671,3.17678,2.483,1.2424e-14,-1.90833e-14,-34.4136,10.4497,-75.1351,131.498,-17.7237,-30.1486,9.72571,7.12502,-3.46095,-20.2259,1.2424e-14,-1.90833e-14,-32.2806,-13.5779,80.2533,144.247,4.56917,-27.8225,10.4073,7.12502,-1.2145,40.3836,-2.47814,14.7336,13.4433,35.9358,-20.9735,-10.6508,-24.1623,-19.8605,-1.87557,0.937868,25.8354,2.34781,21.5986,-4.47121
1.51885,18.2296,-2.74184,-0.518173,-57.3834,3.20275,9.16409,1.94988,-0.341468,1.3693,2.45294,-1.7805,-3.6483,1.1981,-1.95019,-7.31441,4.91934,-6.72636,14.5727,7.00653,3.15973,5.23692,3.24374,2.52321,1.90833e-14,-6.16232e-15,-35.0629,10.7485,-75.0001,131.139,-17.7535,-29.8229,9.58711,7.12502,-3.14646,-20.3694,1.90833e-14,-6.16232e-15,-32.8207,-12.8897,79.4759,143.847,5.89708,-27.0595,9.88773,7.12502,-0.477562,39.8669,-2.06681,14.3282,13.9811,35.5114,-22.2683,-10.3994,-23.6233,-19.7515,-2.14609,2.37333,25.3773,2.04356,22.7839,-2.6255
1.53171,18.1379,-2.72213,0.172253,-57.3438,2.31261,9.21583,1.91699,0.167045,1.51017,2.45047,-1.96912,-3.50089,1.19058,-2.42941,-7.61116,4.88876,-6.7496,14.1113,6.96627,3.36173,5.13664,3.25211,2.58464,-1.16786e-14,7.55382e-15,-35.4517,10.766,-75.1651,130.776,-18.1765,-29.6817,9.34204,7.12502,-3.01006,-20.6165,-1.16786e-14,7.55382e-15,-32.7565,-12.4391,78.0905,143.333,7.10098,-26.5931,9.74253,7.12502,-0.027108,39.7223,-1.73982,13.9573,14.4383,35.2128,-23.5205,-10.444,-22.8464,-19.5803,-2.69966,3.65268,24.8852,1.40036,23.937,-0.491173
1.54012,18.0567,-2.70026,0.435172,-57.2671,1.98475,8.88597,1.86172,0.757891,1.82929,2.41189,-2.56538,-2.93728,1.17007,-3.35459,-7.93485,4.80783,-6.46338,13.5261,6.81416,3.61112,5.01697,3.22732,2.60325,-2.3556e-14,1.66979e-14,-35.6407,10.398,-75.7965,130.376,-18.4845,-29.4714,9.34653,7.12502,-2.80693,-20.6147,-2.3556e-14,1.66979e-14,-31.9201,-12.2242,75.7543,142.745,8.5898,-26.2951,10.2165,7.12502,0.260772,40.1961,-1.48828,13.6619,14.618,35.0431,-24.7595,-10.738,-21.2077,-19.3749,-3.38723,4.53231,24.3188,0.765829,25.0426,1.45009
1.54473,17.9826,-2.67617,0.633031,-57.1443,1.76892,9.68926,2.08787,-0.186051,1.2981,2.62769,-2.07084,-3.98847,1.27662,-2.38551,-7.66016,4.62327,-7.23798,13.6167,6.65924,3.49936,4.98693,3.10091,2.67708,-3.33958e-14,2.10712e-14,-37.218,10.7171,-74.7719,130.149,-18.607,-29.3639,9.30169,7.12502,-2.70311,-20.6609,-3.33958e-14,2.10712e-14,-32.2974,-12.0603,75.3297,142.166,10.4194,-25.7046,10.0179,7.12502,0.831074,39.9961,-1.27637,13.5043,14.8212,34.9896,-26.0035,-11.2673,-20.3162,-19.1808,-3.91513,5.27966,23.6571,0.641831,25.8768,2.46344
1.54877,17.9163,-2.64753,1.02257,-56.9387,1.40136,9.08429,2.00727,0.466761,1.6255,2.56746,-2.71091,-3.25537,1.24365,-3.3742,-7.75361,4.59603,-7.09754,12.9243,6.5623,3.91323,4.78179,3.10779,2.76227,-3.93594e-14,-2.3059e-14,-37.8018,10.1779,-75.4305,129.625,-18.2083,-28.6287,9.36738,7.12502,-1.9931,-20.6031,-3.93594e-14,-2.3059e-14,-30.6285,-11.9827,72.3316,141.314,12.7594,-25.1367,9.71882,7.12502,1.37955,39.6941,-1.17336,13.5388,15.2169,35.0302,-27.0347,-12.335,-20.1025,-19.0697,-4.57835,6.1026,22.9078,0.570389,26.6612,3.21634
1.55381,17.8618,-2.61534,1.26615,-56.5326,1.27806,8.99136,2.03052,0.219297,1.52347,2.57108,-2.7973,-3.31659,1.24631,-3.32412,-7.6195,4.55318,-7.34735,12.7163,6.51736,3.99082,4.68697,3.08343,2.81392,-1.12115e-13,-7.15625e-15,-39.0664,9.82487,-75.0558,129.025,-17.5169,-27.006,10.1277,7.12502,-0.425919,-19.8516,-1.12115e-13,-7.15625e-15,-29.5917,-12.132,70.5129,140.528,14.6602,-24.9008,10.2749,7.12502,1.60742,40.2486,-1.15415,13.5305,15.4856,35.144,-27.8079,-13.7533,-19.5126,-19.1153,-5.34925,6.72137,22.1141,0.531956,27.3225,3.88065
1.55597,17.8226,-2.57841,1.11461,-55.9593,1.50615,8.91161,1.97884,-0.171532,1.47252,2.4563,-2.98587,-3.34019,1.1913,-3.28552,-7.5061,4.58127,-7.44249,12.6625,6.5544,4.02069,4.64504,3.09957,2.83496,4.07509e-14,-7.95139e-15,-39.9992,9.50345,-75.1078,128.426,-16.9776,-26.8375,10.3861,7.12502,-0.263162,-19.5935,4.07509e-14,-7.95139e-15,-28.0745,-12.1945,68.2393,139.693,17.1734,-24.5252,10.947,7.12502,1.97016,40.9176,-0.994161,13.5017,15.5354,35.3136,-28.5329,-14.8461,-19.0244,-19.1359,-6.01524,7.00329,21.3148,0.883369,27.6242,3.79176
1.55768,17.7969,-2.52954,0.839283,-55.2706,1.83763,8.8509,1.87155,-0.667158,1.40882,2.259,-3.13149,-3.39689,1.09644,-3.13508,-7.47827,4.67684,-7.7364,12.8351,6.68865,4.2353,4.66724,3.16085,2.95738,4.72114e-14,-2.06736e-14,-40.707,9.13929,-75.1635,127.816,-16.6537,-26.5146,10.0887,7.12502,0.0487244,-19.891,4.72114e-14,-2.06736e-14,-26.1926,-12.0566,65.7959,138.697,19.8435,-23.9592,10.8962,7.12502,2.51673,40.8611,-0.781155,13.4754,15.4704,35.5279,-29.0441,-15.598,-19.1989,-19.1565,-6.79485,7.09473,20.5198,1.42659,27.8513,2.99606
1.56332,17.7804,-2.46305,0.502028,-54.4575,2.26247,8.76483,1.74119,-1.18308,1.33226,2.0311,-3.25297,-3.45333,0.987309,-2.94392,-7.72758,4.79271,-7.86564,13.424,6.88505,4.18434,4.87642,3.233,2.99572,-8.54774e-14,3.97569e-15,-41.4779,8.86632,-75.056,127.333,-16.5918,-26.2912,9.61385,7.12502,0.264459,-20.3657,-8.54774e-14,3.97569e-15,-24.0575,-11.9302,63.4451,137.57,22.2312,-23.5278,11.023,7.12502,2.93338,40.9826,-0.578141,13.419,15.2805,35.8011,-29.2612,-16.2856,-19.6138,-19.2448,-7.77372,7.05783,19.7469,1.45569,28.221,3.66988
1.57152,17.7763,-2.37924,-0.0644695,-53.5339,2.92046,8.60936,1.59193,-1.68957,1.32761,1.78021,-3.45116,-3.39139,0.866605,-2.83128,-8.11419,4.9064,-7.56968,14.1425,7.10944,3.60561,5.18596,3.29809,2.81482,1.5207e-14,7.95139e-16,-42.3745,8.61483,-74.8605,126.869,-16.6114,-26.2905,9.75199,7.12502,0.265156,-20.2276,1.5207e-14,7.95139e-16,-21.512,-11.6878,61.0539,136.257,24.539,-23.0465,11.4797,7.12502,3.39816,41.4323,-0.313116,13.2153,14.8396,36.1253,-29.202,-16.7033,-20.1439,-19.3869,-8.81698,6.76558,19.1062,0.959065,28.5358,5.07563
1.5815,17.7864,-2.2903,-0.469249,-52.5617,3.50271,8.31905,1.40684,-2.18281,1.3287,1.49224,-3.63994,-3.24668,0.727299,-2.70877,-8.35575,5.05418,-7.46581,14.6224,7.37307,3.20821,5.38304,3.38878,2.71165,-2.01766e-14,2.54444e-14,-43.4259,8.55057,-74.5621,126.466,-16.6798,-26.0605,10.1281,7.12502,0.487276,-19.8511,-2.01766e-14,2.54444e-14,-18.6624,-11.1447,58.6351,134.697,26.7073,-22.4059,11.7016,7.12502,4.01685,41.6435,-0.208231,12.755,14.3019,36.5057,-28.5574,-16.9857,-22.1058,-19.7282,-9.38432,6.3289,18.7102,0.791031,28.2914,5.39136
1.59447,17.8026,-2.20178,-0.236892,-51.5027,3.3405,8.17057,1.18406,-2.25998,1.23649,1.19018,-3.72504,-3.26853,0.57803,-2.71877,-8.4957,5.19926,-7.60106,15.0202,7.61563,3.11722,5.51728,3.47986,2.73463,-6.79844e-14,3.97569e-14,-44.465,8.56829,-74.346,126.032,-16.5337,-26.2619,10.6383,7.12502,0.292755,-19.3413,-6.79844e-14,3.97569e-14,-15.6407,-10.4922,56.3228,132.923,28.8246,-21.6771,11.8068,7.12502,4.72061,41.7342,-0.191018,12.3274,14.2471,37.004,-27.6099,-17.1656,-24.4744,-20.2519,-9.41688,6.18453,18.5367,1.79304,27.4208,3.03272
1.61032,17.8174,-2.10816,0.370742,-50.3064,2.65417,8.06071,0.924146,-2.0329,1.13265,0.870553,-3.68492,-3.32159,0.418337,-2.76944,-8.52348,5.37073,-7.81511,15.3457,7.88776,3.08294,5.60272,3.58632,2.7835,3.37934e-14,-3.4191e-14,-45.3253,8.59371,-74.1195,125.521,-16.1724,-27.2479,11.3107,7.12502,-0.659548,-18.6681,3.37934e-14,-3.4191e-14,-12.4658,-9.59691,54.2707,130.829,31.3135,-20.3024,11.9254,7.12502,6.04786,41.819,-0.131217,12.1054,14.5632,37.6772,-27.3351,-16.5936,-24.0701,-20.8564,-9.2247,6.25854,18.5149,3.69306,25.9357,-1.94393
1.63234,17.8348,-2.01264,0.738035,-49.1017,2.2314,7.84959,0.641909,-2.00921,1.12668,0.50936,-3.662,-3.22162,0.239555,-2.71635,-8.59171,5.58423,-7.928,15.6116,8.23071,2.89249,5.68413,3.72181,2.77211,-7.13637e-14,2.62396e-14,-45.8754,8.58276,-73.8107,125.065,-16.0187,-27.1423,11.4724,7.12502,-0.557502,-18.5066,-7.13637e-14,2.62396e-14,-9.05433,-8.3646,52.4189,128.253,34.0854,-18.4739,11.9913,7.12502,7.81294,41.8269,-0.2048,11.7593,14.6387,38.5745,-26.9954,-15.7874,-23.2356,-21.4333,-8.83287,6.08546,18.593,5.26338,24.0027,-6.33259
1.65887,17.8575,-1.909,0.78369,-48.0593,2.07753,7.73712,0.416689,-2.15624,1.16034,0.202593,-3.69878,-3.13426,0.0884501,-2.6378,-8.64397,5.80192,-8.04729,15.787,8.5781,2.70951,5.73404,3.8621,2.76113,-1.17283e-13,3.97569e-14,-46.2763,8.51626,-73.4228,124.626,-15.8991,-25.5373,11.2969,7.12502,0.992658,-18.6805,-1.17283e-13,3.97569e-14,-5.54447,-7.15922,50.8318,125.228,36.3396,-16.9795,12.4189,7.12502,9.25509,42.1958,-0.41061,11.359,14.4505,39.7491,-25.2447,-15.5713,-26.3764,-21.7723,-8.64865,5.74899,18.6662,5.54158,22.4217,-7.48622
1.68446,17.8793,-1.80143,0.848932,-47.0448,1.82909,7.73092,0.248276,-2.35767,1.17378,-0.0373622,-3.70455,-3.12403,-0.0286283,-2.50537,-8.83021,5.98841,-8.21123,16.1292,8.87484,2.73126,5.84938,3.98495,2.82861,-2.78299e-14,-5.56597e-15,-46.6741,8.50098,-72.9703,124.074,-15.5489,-25.106,11.481,7.12502,1.4092,-18.4941,-2.78299e-14,-5.56597e-15,-1.89635,-6.00777,49.5892,121.702,38.2803,-15.3626,12.8553,7.12502,10.815,42.5568,-0.740618,10.9855,14.2874,41.1944,-23.7187,-14.9066,-28.09,-22.0564,-8.81798,5.57322,18.7681,5.08544,21.0743,-7.0445
1.71391,17.8975,-1.70749,1.01353,-45.7985,1.5598,7.80183,0.0540136,-2.75722,1.13283,-0.331371,-3.64258,-3.2113,-0.169106,-2.18625,-8.95278,6.15546,-8.31493,16.4357,9.1331,2.73919,5.94784,4.09237,2.87715,1.6201e-13,9.54166e-15,-47.0892,8.59914,-72.4009,123.562,-15.2378,-25.7263,11.742,7.12502,0.81006,-18.2362,1.6201e-13,9.54166e-15,1.92337,-4.77091,48.7557,117.617,40.1282,-13.4185,13.4961,7.12502,12.6898,43.0905,-1.26656,10.5027,14.1452,42.7948,-22.1944,-14.1096,-29.1591,-22.635,-8.8668,5.4194,18.9831,5.08253,19.2956,-7.30072
1.74385,17.9095,-1.61185,0.974195,-44.5767,1.42764,7.97367,-0.121477,-3.34923,1.12534,-0.622573,-3.57664,-3.31346,-0.305531,-1.75472,-9.11523,6.39229,-8.29112,16.7695,9.49129,2.63198,6.06854,4.24446,2.87938,-3.67752e-14,3.02153e-14,-47.4646,8.78425,-71.7614,123.328,-15.1189,-25.9879,11.8976,7.12502,0.557391,-18.0814,-3.67752e-14,3.02153e-14,5.78345,-3.42139,48.3997,112.802,41.7898,-11.7272,14.2981,7.12502,14.3198,43.7842,-1.75822,10.2821,13.9162,44.4251,-20.5755,-13.178,-29.7565,-23.2023,-8.71775,5.00725,19.4608,5.96163,17.0423,-9.19324
1.77039,17.9257,-1.49658,0.814934,-43.635,1.26053,8.08716,-0.199543,-3.85636,1.22506,-0.771306,-3.53165,-3.26706,-0.374364,-1.4073,-9.67631,6.64579,-8.33558,17.3513,9.89862,2.71694,6.32004,4.42125,2.98269,-6.95746e-15,2.8625e-14,-47.6438,8.87427,-71.1333,123.028,-15.1499,-25.7755,12.046,7.12502,0.762533,-17.9324,-6.95746e-15,2.8625e-14,9.76865,-2.08582,48.3348,107.285,43.0576,-10.1841,14.6962,7.12502,15.8064,44.0709,-2.09534,10.4761,13.6699,45.9305,-18.4464,-12.0114,-29.7093,-23.5257,-8.70844,4.50704,20.1902,7.19044,14.5132,-12.5126
1.79435,17.9442,-1.37077,0.579028,-42.7097,1.09192,8.13833,-0.264101,-4.26454,1.39854,-0.887996,-3.52848,-3.10886,-0.431595,-1.16275,-10.2544,6.82477,-8.54197,17.8474,10.2005,2.99113,6.53391,4.55669,3.1638,2.04748e-14,1.11319e-14,-47.6678,8.92088,-70.5431,122.601,-15.1782,-25.392,12.1483,7.12502,1.13298,-17.8284,2.04748e-14,1.11319e-14,14.2602,-1.10906,48.1923,101.289,43.2464,-8.60806,14.7802,7.12502,17.3237,44.0281,-2.24366,10.7491,13.3825,47.2533,-16.0493,-10.6517,-29.154,-23.7966,-8.76378,3.91669,21.1368,8.14755,12.3212,-12.8621
1.81109,17.966,-1.23266,0.0363315,-41.7869,1.29822,8.10645,-0.290972,-4.92857,1.53811,-0.975286,-3.59222,-2.9353,-0.473824,-0.849115,-10.3772,6.99346,-8.91276,18.0974,10.445,3.37357,6.577,4.67479,3.37037,-2.06736e-14,-1.43125e-14,-48.0239,9.12971,-69.8507,122.674,-15.3037,-25.0352,12.1129,7.12502,1.47753,-17.8617,-2.06736e-14,-1.43125e-14,18.945,-0.460131,48.2844,94.7911,42.4042,-8.71084,15.3548,7.12502,17.2248,44.6114,-2.16722,11.2451,12.8061,48.3566,-13.897,-9.50991,-28.6168,-23.9335,-8.91188,2.9282,22.151,8.65443,10.5959,-9.40405
1.82761,17.9721,-1.09901,-0.40715,-40.7119,1.50163,8.04323,-0.319551,-5.64475,1.60385,-1.06889,-3.66045,-2.81788,-0.518176,-0.511806,-10.2866,7.13436,-9.30456,18.2295,10.6168,3.82814,6.54197,4.76876,3.58267,-3.26007e-14,4.6118e-14,-48.3218,9.17194,-69.1813,122.327,-15.5924,-24.8502,12.5598,7.12502,1.65629,-17.4135,-3.26007e-14,4.6118e-14,23.7172,0.0636555,48.8,87.5529,41.1181,-10.5845,15.9966,7.12502,15.4207,45.4014,-2.06718,12.0892,12.3906,49.2619,-11.7869,-8.52002,-27.0857,-24.2648,-8.95347,1.92851,23.198,8.75071,8.44164,-8.52162
1.84889,17.9613,-0.988433,-0.533353,-39.2421,1.43878,8.17741,-0.466984,-6.18911,1.58585,-1.32797,-3.75704,-2.89306,-0.640943,-0.281418,-10.2352,7.27644,-9.52175,18.3609,10.7511,4.3591,6.5178,4.86368,3.79163,-8.60738e-14,2.22639e-14,-48.6879,9.36901,-68.6886,122.43,-15.9593,-24.8527,12.3004,7.12502,1.65378,-17.673,-8.60738e-14,2.22639e-14,28.607,0.255622,49.1537,80.0747,38.9948,-12.5043,15.607,7.12502,13.571,45.1447,-1.99097,12.9615,12.3971,49.962,-9.39904,-7.21233,-23.8007,-25.0192,-8.84722,1.17841,24.2667,8.19355,7.15801,-8.34754
1.86404,17.9432,-0.868578,-0.568148,-37.7317,1.21323,8.31879,-0.616846,-6.54232,1.55212,-1.57557,-3.83648,-2.98998,-0.757862,-0.14008,-10.4518,7.38955,-9.6727,18.7936,10.8646,4.91166,6.63903,4.94282,4.0239,3.69739e-14,-1.90833e-14,-48.9869,9.58877,-68.1635,122.572,-16.354,-24.7684,11.7128,7.12502,1.73526,-18.2599,3.69739e-14,-1.90833e-14,33.0827,0.116891,49.5704,73.2045,35.4063,-15.1989,15.6575,7.12502,10.9729,45.3508,-1.69471,13.8758,12.6114,50.4234,-7.28141,-5.68863,-20.7328,-25.7561,-8.78861,0.549072,25.3858,7.24653,7.23563,-6.22927
1.87425,17.9196,-0.733912,-0.608742,-36.3099,0.849869,8.48043,-0.743542,-6.7357,1.54547,-1.77674,-3.86142,-3.07299,-0.85304,-0.0348701,-10.8863,7.43047,-9.94236,19.3504,10.9257,5.46234,6.83579,4.98473,4.29025,4.17448e-15,1.43125e-14,-49.1363,9.81715,-67.568,122.646,-16.7495,-24.6002,11.3528,7.12502,1.89771,-18.6185,4.17448e-15,1.43125e-14,36.9831,-0.00969379,50.4953,67.0681,30.2669,-17.4721,16.0226,7.12502,8.77979,45.82,-1.10359,14.6991,12.978,50.6412,-5.76757,-4.157,-19.0685,-26.3761,-8.66226,-0.0555175,26.5801,6.52016,6.77814,-6.92648
1.88568,17.8863,-0.605138,-0.508573,-34.8258,0.20713,8.69365,-0.89256,-6.66391,1.60766,-1.98394,-3.88785,-3.12045,-0.955533,-0.0763174,-11.298,7.42288,-10.199,19.6998,10.9115,6.02028,6.96795,5.00241,4.54403,8.15017e-15,2.06736e-14,-49.0814,9.96365,-67.0494,122.74,-17.0194,-24.6193,11.2622,7.12502,1.87927,-18.7093,8.15017e-15,2.06736e-14,40.7099,-0.223983,51.5975,61.6394,24.5939,-18.2312,15.3916,7.12502,8.0472,45.2183,-0.389996,15.4077,13.7295,50.6821,-4.49383,-2.74014,-18.7941,-27.1006,-8.42567,-0.462642,27.8353,5.86032,5.43532,-8.79756
1.89498,17.8454,-0.476968,-0.281555,-33.3313,-0.561913,8.89587,-1.03514,-6.42841,1.65668,-2.16898,-3.96733,-3.18538,-1.04826,-0.265315,-11.8384,7.4286,-10.0848,20.0277,10.8907,6.41042,7.14876,5.0298,4.69618,2.00773e-14,-6.36111e-15,-48.8982,9.98955,-66.6538,122.857,-17.0266,-25.1445,11.0148,7.12502,1.37202,-18.9606,2.00773e-14,-6.36111e-15,43.3144,-0.836845,52.5468,58.7946,20.2013,-18.1139,14.8202,7.12502,8.16041,44.6426,0.341897,16.0718,14.708,50.602,-3.43074,-1.69275,-19.5843,-27.9482,-8.18262,-0.696868,29.1469,4.94679,4.2959,-8.77856
1.90127,17.7981,-0.341215,-0.10438,-31.8792,-1.16671,9.01678,-1.1673,-6.24419,1.68608,-2.34021,-4.09473,-3.228,-1.13437,-0.478351,-12.442,7.48321,-9.80544,20.3034,10.945,6.60566,7.34132,5.08905,4.76814,3.67752e-14,7.95139e-15,-48.6097,10.069,-66.2821,123.105,-16.7733,-25.9802,10.9208,7.12502,0.564909,-19.0582,3.67752e-14,7.95139e-15,45.0346,-1.84458,53.2737,58.02,18.2586,-17.5384,14.5607,7.12502,8.71576,44.3607,1.08618,16.5655,15.5574,50.4625,-2.65989,-0.914615,-21.1867,-28.7725,-7.7826,-1.07614,30.4961,3.91214,3.5276,-7.74273
1.90682,17.7478,-0.204072,0.0258141,-30.5482,-1.67224,9.29905,-1.20123,-6.14065,1.58336,-2.41119,-4.18213,-3.49834,-1.16251,-0.610345,-12.713,7.53458,-9.72802,20.4064,10.9956,6.79969,7.40848,5.13794,4.84285,4.55217e-14,5.40694e-14,-48.5247,10.2191,-65.7807,123.628,-16.4222,-26.3145,11.0381,7.12502,0.241974,-18.9415,4.55217e-14,5.40694e-14,45.7946,-3.32248,53.9198,59.1064,18.4877,-16.7154,14.3748,7.12502,9.50992,44.1402,1.82358,16.9241,16.3305,50.2841,-1.82497,-0.277525,-22.0029,-29.4893,-7.17538,-1.57206,31.8692,2.79444,2.52694,-7.11508
1.91156,17.704,-0.0723975,0.270863,-29.2462,-2.27012,9.43855,-1.1821,-5.93565,1.56484,-2.38041,-4.23873,-3.60725,-1.14656,-0.783157,-12.7876,7.54621,-9.86326,20.1487,10.9883,7.11936,7.30689,5.17066,4.95582,5.28767e-14,2.22639e-14,-48.1951,10.1151,-65.1923,124.208,-15.9788,-26.0711,11.0786,7.12502,0.477079,-18.9007,5.28767e-14,2.22639e-14,46.2868,-5.09358,54.3751,61.28,19.9895,-16.1755,13.4348,7.12502,10.0308,43.1757,2.48022,17.0519,17.1849,50.0783,-0.849573,0.257186,-20.5936,-30.2448,-6.91475,-1.85368,33.2517,1.56303,1.23651,-7.63327
1.91464,17.661,0.054306,0.50791,-27.9939,-2.79945,9.57282,-1.0829,-5.82489,1.51831,-2.25329,-4.27897,-3.74023,-1.08108,-0.898655,-12.4116,7.50614,-10.1259,19.446,10.8858,7.45519,6.98265,5.16416,5.03732,4.17448e-15,1.90833e-14,-47.6911,9.8901,-64.5499,124.695,-15.3763,-26.0296,10.9362,7.12502,0.517196,-19.0429,4.17448e-15,1.90833e-14,46.6223,-7.17416,54.8847,64.0908,21.7013,-15.6669,12.7732,7.12502,10.5215,42.4898,3.09028,17.0012,17.9984,49.8892,-0.26509,0.563499,-19.3448,-31.0032,-7.08604,-1.99102,34.6032,0.316654,0.178474,-8.81394
1.91702,17.6107,0.174767,0.632741,-26.7876,-3.2064,9.81397,-0.898808,-5.78996,1.48412,-2.03494,-4.39739,-3.92172,-0.969883,-1.06421,-11.6096,7.35926,-10.1683,18.1678,10.6011,7.52969,6.45136,5.0739,4.94036,1.03368e-14,-5.08889e-14,-47.1604,9.45425,-63.9392,125.281,-14.7895,-26.0483,10.848,7.12502,0.499068,-19.1312,1.03368e-14,-5.08889e-14,47.0439,-9.58659,55.0665,67.1402,22.922,-15.0288,12.6244,7.12502,11.137,42.3089,3.73022,16.8696,18.7658,49.7429,0.0210674,0.51948,-18.8024,-31.717,-7.23528,-2.12365,35.8622,-0.745613,-0.627715,-9.42949
1.92091,17.5602,0.289118,0.743183,-25.5143,-3.49582,9.9376,-0.657235,-5.77467,1.52201,-1.7312,-4.59511,-3.9646,-0.821059,-1.31716,-10.4487,7.1206,-10.0229,16.3783,10.1565,7.45391,5.73965,4.91095,4.72419,1.2921e-14,1.27222e-14,-46.7058,8.6439,-63.302,126.12,-14.335,-25.5908,10.82,7.12502,0.94093,-19.1576,1.2921e-14,1.27222e-14,47.5755,-12.2122,54.925,69.9691,22.9168,-14.3103,12.2886,7.12502,11.8298,41.9345,4.26992,16.4612,19.3972,49.6745,0.274006,0.268166,-18.5951,-32.502,-7.60395,-2.21768,37.0056,-1.54784,-1.52358,-8.82487
1.92083,17.5183,0.396177,0.953426,-24.0993,-3.6757,9.94018,-0.353869,-5.87481,1.5034,-1.35022,-4.79051,-3.99512,-0.631918,-1.51611,-9.37288,6.83314,-10.3113,15.027,9.62709,8.08391,5.13126,4.7167,4.82707,-8.74653e-15,-6.36111e-14,-46.2964,7.68719,-62.574,127.024,-14.1819,-25.1314,10.6836,7.12502,1.38463,-19.2917,-8.74653e-15,-6.36111e-14,48.1013,-15.081,55.2155,72.9375,21.2183,-13.6313,12.3934,7.12502,12.4846,42.0005,4.57797,15.7814,19.9328,49.7056,0.168174,-0.138635,-20.5072,-33.4797,-8.50251,-2.1936,38.0518,-2.10234,-2.44967,-7.78872
1.91461,17.4812,0.49277,1.19905,-22.5835,-3.67627,9.95183,-0.00229897,-6.26968,1.43622,-0.941181,-4.97499,-4.07567,-0.423057,-1.54427,-8.75137,6.48651,-10.9745,14.4234,9.02195,9.41669,4.79013,4.49376,5.26739,3.02153e-14,-8.5875e-14,-45.6985,6.70118,-61.7777,127.797,-14.1107,-24.7284,10.4628,7.12502,1.7739,-19.5095,3.02153e-14,-8.5875e-14,48.4486,-18.1024,55.6494,75.9463,19.2066,-13.0188,12.713,7.12502,13.0751,42.2832,4.68767,14.9649,20.3415,49.854,-0.247993,-0.642289,-21.7817,-34.6249,-9.52155,-2.23313,39.0102,-2.45844,-3.19733,-7.02503
1.9056,17.4443,0.576465,1.44334,-20.9669,-3.49148,9.91468,0.31709,-6.89488,1.43767,-0.590792,-5.18211,-4.05628,-0.242835,-1.46093,-8.34478,6.1682,-11.5221,14.0572,8.45994,10.7781,4.56942,4.28954,5.72885,-4.96962e-14,0,-44.5551,5.58465,-60.9174,128.321,-13.6487,-23.7966,10.5748,7.12502,2.67379,-19.3882,-4.96962e-14,0,48.5745,-20.9374,56.1866,78.7676,17.918,-11.3961,11.4102,7.12502,14.6389,40.8734,4.63105,14.0181,20.6047,50.0979,-0.599744,-1.1836,-21.566,-35.9102,-10.3269,-2.47422,39.8917,-2.5529,-4.06654,-7.19016
1.89435,17.4129,0.647751,1.8591,-19.2309,-3.288,9.75151,0.586376,-7.52929,1.39509,-0.294346,-5.36856,-4.01561,-0.088574,-1.34387,-7.90144,5.89978,-11.9882,13.9736,7.94446,12.1299,4.43671,4.09945,6.1937,-2.74323e-14,-3.18055e-15,-43.0977,4.48228,-59.9534,128.768,-13.0171,-22.5808,10.4192,7.12502,3.84791,-19.5258,-2.74323e-14,-3.18055e-15,48.4499,-23.8314,56.6288,81.5529,17.0777,-9.79846,9.81773,7.12502,16.1777,39.1626,4.30837,12.9294,20.8753,50.3733,-0.958233,-1.66279,-24.1776,-37.4016,-11.0914,-2.7141,40.6988,-2.53135,-5.10549,-7.96907
1.87933,17.3882,0.716595,2.35153,-17.4902,-3.10864,9.47937,0.908785,-8.05231,1.32064,0.09668,-5.56931,-3.95529,0.110709,-1.31489,-7.21444,5.55245,-12.2784,13.9076,7.30886,13.1753,4.31484,3.82686,6.52755,-1.39149e-14,1.20861e-13,-41.6054,3.41008,-58.9434,129.251,-12.6554,-22.5776,10.0339,7.12502,3.85099,-19.9111,-1.39149e-14,1.20861e-13,48.0307,-26.9732,57.0256,84.4431,16.4388,-10.1391,10.2031,7.12502,15.8497,39.5743,3.90884,11.7948,21.2065,50.6063,-1.46376,-1.9559,-20.3733,-38.852,-11.8056,-2.94788,41.4086,-2.48589,-5.98397,-8.24519
1.86512,17.3674,0.787292,2.78842,-15.8067,-3.04071,9.18893,1.25986,-8.35095,1.31622,0.560854,-5.76906,-3.8154,0.33978,-1.41477,-6.41699,5.20941,-12.3427,13.7648,6.68656,13.8804,4.18173,3.54266,6.71364,2.3059e-14,-3.18055e-14,-39.8677,2.41942,-57.8905,129.693,-12.666,-22.8928,9.69516,7.12502,3.5466,-20.2551,2.3059e-14,-3.18055e-14,47.2846,-30.0793,57.4788,87.3707,16.2294,-10.6242,11.1929,7.12502,15.3825,40.6006,3.63517,10.6945,21.699,50.7171,-2.34139,-1.9807,-20.178,-40.0882,-12.4416,-3.1192,42.0039,-2.37918,-6.6307,-7.28466
1.8533,17.3523,0.852331,3.28066,-14.3072,-3.18753,8.84563,1.56303,-8.41899,1.38882,1.0039,-5.91491,-3.56173,0.551937,-1.57574,-5.77658,4.94621,-12.4182,13.6284,6.18951,14.6355,4.06182,3.32318,6.93095,5.56597e-15,-5.08889e-14,-37.4553,1.65816,-56.938,129.884,-12.6497,-22.7642,9.48135,7.12502,3.67085,-20.4668,5.56597e-15,-5.08889e-14,46.2619,-32.8197,57.7986,90.3312,16.2548,-10.4301,12.3676,7.12502,15.5694,41.7609,3.27896,9.75696,22.4264,50.6978,-3.44871,-1.81624,-23.0723,-41.2189,-12.9559,-3.0292,42.4974,-2.2529,-7.22566,-5.61527
1.84241,17.3436,0.914762,3.7692,-12.9468,-3.33061,8.44147,1.85397,-8.42022,1.50573,1.45004,-6.07815,-3.22396,0.762531,-1.78434,-5.31536,4.70883,-12.4653,13.6402,5.73961,15.3536,4.01647,3.12837,7.14892,-1.35174e-14,5.08889e-14,-34.406,1.0464,-56.0746,129.615,-12.3055,-22.6111,9.38253,7.12502,3.81864,-20.563,-1.35174e-14,5.08889e-14,45.1272,-35.3003,58.0135,93.1478,16.2774,-10.1974,13.1174,7.12502,15.7936,42.4931,2.88857,8.92717,23.1449,50.5451,-4.39161,-1.60607,-24.4907,-42.2521,-13.4733,-2.89159,42.9229,-2.22424,-7.83951,-4.54408
1.83521,17.335,0.973749,4.09879,-11.593,-3.36465,8.14938,2.18337,-8.33412,1.67264,1.9417,-6.35485,-2.88824,0.994624,-2.16307,-4.93015,4.48592,-12.2011,13.7898,5.29419,15.9114,4.04376,2.94315,7.27247,-1.51076e-14,1.27222e-14,-31.2447,0.472288,-55.2289,129.181,-11.9176,-22.5461,8.69505,7.12502,3.88143,-21.2493,-1.51076e-14,1.27222e-14,44.2306,-37.7898,57.8138,95.8228,16.1762,-10.113,13.414,7.12502,15.8748,42.7832,2.67343,8.11485,23.7763,50.3125,-5.37248,-1.34997,-24.3962,-43.0915,-13.9983,-2.92325,43.2695,-2.24648,-8.47944,-4.6775
1.8302,17.3257,1.02506,4.38963,-10.2533,-3.56435,7.94226,1.99874,-8.57243,1.89695,1.74673,-5.9086,-2.55235,0.891064,-1.52693,-5.29041,4.70775,-13.5863,14.4365,5.65622,16.5278,4.17171,3.10161,7.75908,1.27222e-14,4.13472e-14,-26.3261,1.55869,-53.7955,128.369,-12.0103,-22.4428,7.72506,7.12502,3.98114,-22.2175,1.27222e-14,4.13472e-14,42.3406,-38.4774,58.3672,98.3998,15.664,-10.166,14.0079,7.12502,15.8237,43.3812,2.46717,7.30348,24.5978,50.0599,-6.39647,-1.19752,-24.6254,-43.8379,-14.378,-2.82215,43.5406,-2.2046,-9.23155,-4.93956
1.82457,17.3199,1.06318,4.61381,-8.98684,-3.77378,7.92511,2.05256,-8.42531,2.05631,1.8542,-5.81391,-2.37812,0.93827,-1.51488,-5.16719,4.7618,-14.0169,14.8608,5.67205,16.997,4.23737,3.11143,8.00412,-2.78299e-14,1.27222e-14,-21.8549,2.03021,-52.5144,127.276,-12.2719,-22.3957,7.27099,7.12502,4.02664,-22.6707,-2.78299e-14,1.27222e-14,39.47,-39.7934,59.917,99.9061,14.3771,-9.93791,13.2469,7.12502,16.0434,42.6027,2.18967,6.48927,25.4087,49.8457,-7.09937,-1.29762,-24.6089,-44.4784,-14.7453,-2.69073,43.7037,-2.02235,-10.0012,-4.97215
1.81843,17.3196,1.08843,4.76785,-7.76437,-4.04026,8.04405,2.30836,-7.95073,2.2102,2.22882,-5.98308,-2.2727,1.119,-1.99313,-4.63681,4.6739,-13.6307,14.9562,5.39774,17.389,4.21161,3.00292,8.04988,-3.97569e-15,2.54444e-14,-17.9567,1.92975,-51.3448,126.074,-12.5443,-22.1295,6.90631,7.12502,4.28376,-23.0304,-3.97569e-15,2.54444e-14,37.4625,-41.6262,60.4214,101.609,13.3083,-9.9417,13.4397,7.12502,16.0398,42.7957,1.92243,5.7895,26.311,49.6939,-7.59745,-1.74571,-23.8315,-45.0151,-15.1814,-2.4591,43.7549,-1.72446,-10.6376,-4.85809
1.81413,17.3292,1.11592,4.92508,-6.56573,-4.19614,8.07218,2.66612,-7.31606,2.38003,2.76011,-6.35413,-2.07615,1.3777,-2.78382,-4.01203,4.44728,-12.8285,14.9351,4.90137,17.7759,4.18424,2.80303,8.0116,1.11319e-14,-3.49861e-14,-14.37,1.4273,-50.2061,124.627,-12.6285,-21.3837,6.53943,7.12502,5.00385,-23.3815,1.11319e-14,-3.49861e-14,36.0299,-43.6049,60.3205,103.155,12.7188,-9.72632,14.0001,7.12502,16.2472,43.3394,1.65304,5.14506,27.0654,49.5986,-8.09841,-2.46829,-23.1526,-45.4687,-15.5832,-2.38086,43.688,-1.45518,-11.1521,-4.58747
1.80756,17.341,1.1431,5.03675,-5.46105,-4.26945,8.01086,3.07945,-6.65543,2.61066,3.38317,-6.79831,-1.73975,1.68408,-3.66762,-3.5747,4.11804,-11.8484,15.0439,4.27247,18.0982,4.25589,2.55192,7.93153,-7.95139e-16,4.45278e-14,-10.6136,0.727007,-49.0384,122.694,-12.7577,-20.191,6.00142,7.12502,6.15541,-23.8892,-7.95139e-16,4.45278e-14,34.6828,-45.4163,60.1981,104.258,12.6365,-9.44104,13.757,7.12502,16.5219,43.0736,1.43451,4.56218,27.6786,49.5371,-8.6329,-3.17922,-22.918,-45.7841,-15.906,-2.42325,43.5186,-1.19485,-11.6354,-3.89323
1.79503,17.3516,1.16083,5.12229,-4.59807,-4.34421,8.0266,3.48923,-6.16135,2.78186,3.97675,-7.11468,-1.50441,1.98115,-4.32743,-2.86149,3.88274,-11.2171,14.8619,3.815,18.4848,4.15163,2.35383,7.91366,4.85035e-14,-7.95139e-14,-6.60358,0.287024,-47.6815,120.414,-13.469,-18.9891,5.16597,7.12502,7.31566,-24.6876,4.85035e-14,-7.95139e-14,33.0413,-46.8138,60.3951,104.981,12.7791,-9.14902,13.3673,7.12502,16.803,42.6602,1.19382,4.21661,28.2707,49.5129,-9.1441,-3.72848,-22.6912,-45.9869,-15.9708,-2.49399,43.2642,-0.839186,-12.1607,-3.77546
1.78336,17.3678,1.17386,5.26424,-3.85586,-4.29771,8.08994,3.84516,-5.83774,2.80956,4.46882,-7.34398,-1.45216,2.23076,-4.80053,-1.64472,3.80756,-10.8017,14.4371,3.6154,18.7349,3.8452,2.23344,7.86692,-2.8625e-14,-1.90833e-14,-2.52696,0.14362,-46.157,117.712,-14.1295,-17.794,4.46578,7.12502,8.46916,-25.3444,-2.8625e-14,-1.90833e-14,31.0057,-47.9147,60.9487,105.467,12.9842,-8.84696,13.1539,7.12502,17.0937,42.422,0.867244,3.92388,28.6508,49.5095,-9.5074,-4.2139,-22.5502,-46.1704,-15.9603,-2.69788,42.9353,-0.455629,-12.5518,-3.85335
1.77496,17.3871,1.17853,5.39953,-3.16307,-4.14224,8.30651,4.17495,-5.6429,2.88671,4.90482,-7.51201,-1.44153,2.45194,-5.14324,-1.06451,3.66826,-10.4724,14.4064,3.36615,18.7869,3.77945,2.10689,7.80674,2.46493e-14,2.54444e-14,1.78615,-0.0233952,-44.499,114.277,-14.0601,-16.7187,4.41693,7.12502,9.50681,-25.3486,2.46493e-14,2.54444e-14,29.011,-48.6229,61.6205,105.761,13.2523,-8.5082,12.8495,7.12502,17.4198,42.089,0.532837,3.66358,28.8509,49.5181,-9.73764,-4.70206,-22.4444,-46.3111,-15.9879,-3.0012,42.5299,0.113836,-12.8404,-2.83764
1.76704,17.4024,1.18072,5.56167,-2.60191,-4.0721,8.36735,4.51825,-5.3848,3.03187,5.38996,-7.60064,-1.26713,2.69756,-5.42447,-0.768855,3.46043,-10.3085,14.4796,3.0363,18.8889,3.80076,1.94934,7.80529,2.8625e-14,9.54166e-15,6.16702,-0.312645,-42.7424,110.256,-13.7747,-15.4847,4.9726,7.12502,10.6973,-24.7351,2.8625e-14,9.54166e-15,27.2395,-49.0255,62.3338,105.915,13.7557,-8.20538,12.5807,7.12502,17.7112,41.7941,0.176047,3.54469,29.0977,49.5033,-9.84736,-5.19668,-22.3827,-46.4052,-15.9431,-3.17486,42.0618,0.698425,-13.0979,-1.73651
1.75898,17.4243,1.18545,5.72503,-2.11456,-3.91461,8.21684,4.83284,-5.21326,3.26174,5.86136,-7.67794,-0.891527,2.93645,-5.61719,-0.343714,3.28531,-10.2835,14.3086,2.7695,19.0941,3.71168,1.80872,7.85121,-5.725e-14,1.08139e-13,10.6042,-0.681614,-41.0295,105.797,-13.5926,-14.3015,5.61147,7.12502,11.8383,-24.0339,-5.725e-14,1.08139e-13,25.7545,-49.1572,62.9655,105.873,14.1722,-8.19905,12.5147,7.12502,17.7173,41.7275,-0.16151,3.46018,29.1902,49.4439,-9.86802,-5.64242,-22.4614,-46.4266,-15.9144,-3.44759,41.5646,1.06667,-13.2617,-1.37845
1.75381,17.4533,1.18786,5.89744,-1.68803,-3.54646,8.17027,5.14939,-5.18391,3.41871,6.30484,-7.82887,-0.652727,3.16204,-5.81909,0.133529,3.08755,-10.1183,14.1421,2.48262,19.1071,3.62701,1.65321,7.80724,-3.57812e-14,4.77083e-14,14.6618,-0.934526,-39.3616,101.037,-13.1026,-13.6549,6.2878,7.12502,12.4619,-23.3207,-3.57812e-14,4.77083e-14,24.2623,-49.301,63.5775,105.756,14.3855,-8.49739,12.8076,7.12502,17.4302,42.0461,-0.436885,3.39797,28.9806,49.3504,-9.8197,-5.93679,-22.3159,-46.4166,-15.9774,-3.94693,41.057,1.22291,-13.3134,-1.61691
1.75295,17.4758,1.18837,6.12808,-1.39798,-3.38828,8.19386,5.50957,-4.87026,3.45927,6.81116,-7.9709,-0.5357,3.42388,-6.18586,0.592666,2.84444,-9.72543,14.1042,2.1368,18.8865,3.60256,1.47357,7.6499,3.97569e-14,5.40694e-14,18.1791,-1.12219,-37.7274,96.0564,-12.1328,-13.4554,7.30007,7.12502,12.6542,-22.2966,3.97569e-14,5.40694e-14,22.888,-49.4782,64.0914,105.671,14.8018,-8.56958,13.1335,7.12502,17.3607,42.3781,-0.675722,3.38627,28.8921,49.2133,-9.69301,-6.03263,-22.6646,-46.465,-15.9716,-4.18815,40.5852,1.49287,-13.2978,-1.7842
1.7535,17.4919,1.185,6.43462,-1.0896,-3.35185,8.11995,5.87176,-4.40507,3.49671,7.34381,-8.09097,-0.341799,3.70266,-6.60102,1.06181,2.54199,-9.23937,14.0426,1.71267,18.677,3.58022,1.26002,7.47913,5.64548e-14,-7.95139e-14,21.3536,-1.36312,-36.0608,90.8352,-11.1072,-13.4532,8.9351,7.12502,12.6563,-20.6614,5.64548e-14,-7.95139e-14,21.8837,-49.6432,64.5018,105.595,15.4226,-8.49488,13.2566,7.12502,17.4326,42.4949,-0.93332,3.39024,28.9063,49.0245,-9.61348,-5.98423,-23.2527,-46.6836,-16.0232,-4.21734,40.157,1.93905,-13.0641,-1.40967
1.75183,17.5062,1.17861,6.69616,-0.76811,-3.5019,8.10455,6.14336,-3.78986,3.54573,7.76373,-8.10249,-0.163677,3.92717,-6.97682,1.39061,2.2569,-9.12719,14.0525,1.30088,18.7051,3.58797,1.05232,7.46073,6.04305e-14,2.22639e-14,24.8023,-1.47891,-34.3768,85.1194,-10.44,-14.3208,10.2158,7.12502,11.8198,-19.4306,6.04305e-14,2.22639e-14,20.8347,-49.6406,65.0657,105.589,15.9876,-8.58175,13.2931,7.12502,17.349,42.5388,-1.10249,3.43904,29.1457,48.7271,-9.454,-5.93504,-23.7511,-46.9021,-15.9885,-4.07138,39.7994,2.26142,-12.7995,-1.06162
1.74681,17.5206,1.18068,6.8241,-0.403703,-3.52632,8.34492,6.39886,-3.17184,3.5146,8.13244,-8.25207,-0.183107,4.12828,-7.53667,1.78977,1.95901,-8.91958,14.0595,0.861001,18.8145,3.58594,0.836223,7.45142,-3.65764e-14,4.13472e-14,28.0485,-1.44717,-32.9069,79.1592,-10.1288,-16.3792,10.1128,7.12502,9.83432,-19.6376,-3.65764e-14,4.13472e-14,19.687,-49.8331,65.508,105.784,16.5261,-8.70081,13.4591,7.12502,17.2344,42.7149,-1.00294,3.422,29.2671,48.2911,-9.36272,-5.83881,-24.0335,-46.9435,-15.9455,-4.17489,39.4839,2.36868,-12.6831,-1.59571
1.73916,17.534,1.19114,6.91039,0.235541,-3.25784,8.69377,6.56994,-2.8175,3.37053,8.35101,-8.48913,-0.411781,4.24766,-8.06178,2.48031,1.67763,-8.49593,14.041,0.442812,18.8554,3.5255,0.624733,7.37678,6.36111e-15,7.63333e-14,30.8582,-1.18342,-31.5693,73.1671,-9.86131,-17.979,9.28315,7.12502,8.29061,-20.5342,6.36111e-15,7.63333e-14,18.282,-50.1999,66.1457,106.053,16.9235,-8.74961,13.5064,7.12502,17.1874,42.7663,-0.710618,3.07072,29.1054,47.7258,-9.49028,-5.82726,-24.2202,-46.9925,-16.1781,-4.57258,39.2217,2.42873,-12.8075,-1.705
1.73096,17.55,1.20054,7.06543,0.933573,-2.97026,8.74117,6.70552,-2.74139,3.38246,8.53951,-8.52877,-0.384323,4.34747,-8.16593,2.90121,1.36024,-8.27299,14.0241,-0.00170708,18.8251,3.51466,0.399004,7.31864,-1.43125e-14,3.49861e-14,33.6517,-1.21314,-30.1962,67.1583,-9.37948,-18.0229,8.9963,7.12502,8.24819,-20.8227,-1.43125e-14,3.49861e-14,17.302,-50.3029,66.8345,106.302,17.1908,-8.68704,13.648,7.12502,17.2477,42.9026,-0.432596,2.61536,28.9223,47.0696,-9.60255,-5.95105,-24.2125,-47.1505,-16.4479,-4.9545,38.9968,2.52945,-12.8369,-1.67558
1.72088,17.5609,1.20847,7.24547,1.53057,-2.85267,8.67525,7.21914,-2.46539,3.24924,9.24812,-8.67176,-0.330816,4.71468,-8.52258,4.15436,0.736298,-7.31872,13.4842,-0.823135,18.9273,3.26059,-0.0268361,7.15219,2.70347e-14,3.02153e-14,34.8791,-1.66095,-28.8824,61.3053,-8.41013,-17.3354,9.57279,7.12502,8.91165,-20.219,2.70347e-14,3.02153e-14,16.8852,-51.4713,67.2882,106.59,17.3959,-8.61257,13.7848,7.12502,17.3194,43.0331,-0.171798,2.28342,28.9248,46.3757,-9.71278,-5.95341,-24.0641,-47.3427,-16.5257,-5.18554,38.7981,2.69759,-12.5474,-1.66456
1.70681,17.5662,1.21833,7.41103,2.25042,-2.88021,8.38215,7.09768,-2.853,3.59271,9.10801,-8.15028,0.0185957,4.63364,-7.66729,3.59909,0.612465,-8.109,13.5458,-1.0078,19.069,3.39737,-0.122368,7.34438,3.97569e-14,3.18055e-15,38.2764,-1.82849,-27.5944,55.6987,-6.83126,-16.9489,10.2177,7.12502,9.28465,-19.5578,3.97569e-14,3.18055e-15,16.284,-50.3968,68.2958,106.828,17.0914,-8.50465,13.5652,7.12502,17.4232,42.8044,0.10717,1.95789,29.1566,45.6649,-10.0502,-5.81003,-23.5356,-47.5721,-16.4904,-5.32131,38.6232,2.7466,-12.5312,-2.39609
1.69315,17.5691,1.22781,7.5474,3.13685,-2.87566,8.39607,7.2661,-2.71929,3.5545,9.34341,-8.12442,0.0145854,4.75571,-7.73276,4.24612,0.188786,-7.6389,13.1393,-1.56482,19.2991,3.24559,-0.408562,7.31981,6.91771e-14,-1.43125e-14,39.5898,-2.24994,-26.9607,50.7893,-4.55853,-16.9567,10.5443,7.12502,9.27714,-19.2315,6.91771e-14,-1.43125e-14,15.6823,-50.8673,68.8829,107.249,16.9661,-8.60556,13.2273,7.12502,17.3261,42.475,0.416627,1.53455,29.3775,44.9335,-10.54,-5.70121,-22.8731,-47.8265,-16.5221,-5.50581,38.4869,2.87986,-12.9507,-3.70127
1.68144,17.5685,1.23822,7.64936,4.07807,-2.68381,8.3603,7.26328,-2.98836,3.7572,9.33997,-7.95111,0.17257,4.7497,-7.37939,4.18532,-0.121876,-7.60016,12.8719,-1.96253,19.424,3.23491,-0.604296,7.34391,6.44062e-14,4.77083e-15,41.2246,-3.01482,-26.6333,46.4729,-1.65588,-17.0269,11.0237,7.12502,9.20939,-18.7551,6.44062e-14,4.77083e-15,15.2584,-50.6982,69.5302,107.791,16.7813,-8.74678,13.081,7.12502,17.1902,42.3407,0.798075,1.07445,29.4061,44.1952,-10.9425,-5.70395,-22.4129,-48.0752,-16.6983,-5.86346,38.4113,3.12272,-13.4434,-4.39965
1.6704,17.5652,1.25274,7.73908,5.04537,-2.49576,8.31986,7.23679,-3.3105,3.94093,9.29965,-7.74755,0.295705,4.72156,-6.96529,4.25632,-0.399703,-7.63036,12.5029,-2.3119,19.6273,3.16531,-0.78815,7.40512,-3.97569e-15,-1.59028e-15,42.5018,-3.98351,-26.7423,42.8791,1.65867,-17.0632,11.3611,7.12502,9.17438,-18.4193,-3.97569e-15,-1.59028e-15,15.2022,-50.4416,70.0172,108.251,16.647,-8.89156,13.0582,7.12502,17.0508,42.3299,1.2532,0.648821,29.4803,43.4447,-11.3116,-5.83163,-22.3072,-48.3745,-16.8895,-6.21226,38.4428,3.25163,-13.8293,-3.55932
1.66024,17.5524,1.26633,7.82276,5.8993,-2.59529,9.07198,8.59997,-1.52099,2.76971,11.1351,-9.11393,-0.52362,5.69723,-9.74576,8.31947,-2.03843,-3.6381,10.5773,-4.09049,20.4404,2.12178,-1.76901,6.96407,-7.95139e-16,9.22361e-14,37.3234,-5.87283,-27.7688,40.4137,5.0677,-16.9847,11.4286,7.12502,9.25006,-18.3485,-7.95139e-16,9.22361e-14,15.9855,-55.5732,68.7822,108.777,17.471,-8.99881,13.0627,7.12502,16.9476,42.3433,1.66098,0.499226,29.8876,42.7337,-11.6666,-5.96853,-21.7864,-48.7305,-16.8979,-6.26449,38.6007,3.35259,-13.9895,-3.69781
1.65216,17.533,1.28305,7.81581,6.64559,-2.82534,8.03479,7.55984,-2.87729,4.09952,9.81045,-7.69656,0.732385,4.99613,-7.11889,4.96594,-1.31278,-6.70716,11.4526,-3.46881,20.5445,2.90041,-1.36811,7.51512,5.40694e-14,1.43125e-14,42.7261,-7.12002,-28.9268,38.334,7.75582,-16.6711,11.2582,7.12502,9.55268,-18.5052,5.40694e-14,1.43125e-14,16.3993,-50.9142,69.7836,108.961,17.4409,-8.89382,13.0207,7.12502,17.0486,42.2926,2.09585,0.516812,30.4343,42.1171,-11.96,-6.19518,-21.3485,-49.027,-16.8782,-6.18247,38.8715,3.46927,-14.188,-4.07402
1.64325,17.5113,1.29672,7.78129,7.45779,-2.93933,7.91231,7.44943,-2.9418,4.32587,9.68861,-7.49701,0.976066,4.93263,-6.82893,4.54159,-1.53628,-6.82894,11.3928,-3.79369,20.8774,3.00864,-1.50363,7.63909,1.68569e-13,-8.74653e-14,43.342,-8.63047,-30.5696,37.267,9.4095,-16.4536,11.1602,7.12502,9.7625,-18.5936,1.68569e-13,-8.74653e-14,16.2997,-50.3279,70.2031,109.609,17.756,-8.57045,13.0337,7.12502,17.3599,42.2784,2.49321,0.467725,30.861,41.6505,-12.2317,-6.47098,-20.8554,-49.3698,-16.9016,-6.24482,39.2241,3.55126,-14.5887,-3.69505
1.63537,17.4809,1.30097,7.77647,8.2302,-3.04993,7.97254,7.38143,-2.95462,4.38608,9.59791,-7.37746,0.972713,4.8847,-6.69499,4.42445,-1.74778,-6.88096,11.2587,-4.09689,21.3059,3.04035,-1.64195,7.78504,-5.32743e-14,2.22639e-14,43.323,-9.91551,-32.1327,37.0182,9.58578,-16.6469,11.2045,7.12502,9.57608,-18.5579,-5.32743e-14,2.22639e-14,16.0333,-50.0714,70.718,110.259,17.6838,-8.54086,12.8105,7.12502,17.3884,42.0527,2.72204,0.479045,31.2627,41.3775,-12.5183,-6.68859,-20.3241,-49.7957,-16.8739,-6.2986,39.6208,3.74424,-14.8486,-3.59792
1.6304,17.4464,1.303,7.74065,8.94315,-3.25123,8.0185,7.38116,-2.84065,4.39883,9.60463,-7.29323,0.964451,4.88974,-6.67346,4.69803,-1.96524,-6.80906,10.8905,-4.37124,21.783,2.93154,-1.79365,7.92671,1.55052e-13,-2.54444e-14,42.7318,-10.9722,-33.2869,37.5038,8.26556,-16.9185,11.0191,7.12502,9.31402,-18.7551,1.55052e-13,-2.54444e-14,15.73,-50.114,71.1836,110.98,17.3564,-8.79803,12.8608,7.12502,17.1408,42.1247,2.86161,0.630474,31.7553,41.2829,-12.9289,-6.87955,-19.419,-50.2456,-16.8571,-6.23786,40.089,3.95131,-14.9761,-3.04963
1.62781,17.4134,1.30549,7.67064,9.51116,-3.39861,7.97581,7.23711,-2.92493,4.52407,9.42007,-7.14324,1.05991,4.79251,-6.44352,4.56927,-2.03699,-7.11495,10.7099,-4.48129,22.1886,2.92853,-1.85203,8.11473,1.31198e-13,0,42.5376,-11.617,-34.4209,38.523,6.04702,-17.2853,10.4395,7.12502,8.96009,-19.3502,1.31198e-13,0,15.279,-49.5091,71.7374,111.715,17.2279,-8.8587,13.0527,7.12502,17.0824,42.3216,2.98004,0.877188,32.142,41.3634,-13.3115,-7.05917,-18.6891,-50.6534,-16.8234,-6.2577,40.6572,3.94237,-15.3837,-2.54673
1.62534,17.3791,1.30619,7.53309,9.85759,-3.63434,7.98245,7.1867,-2.88257,4.5564,9.35829,-7.07973,1.07945,4.76141,-6.39437,4.35465,-2.19913,-7.16736,10.7054,-4.72921,22.4935,3.00977,-1.95586,8.22141,-1.27222e-14,7.79236e-14,41.8107,-12.117,-35.5516,40.0665,3.58329,-17.2327,10.0212,7.12502,9.01079,-19.7664,-1.27222e-14,7.79236e-14,14.7382,-49.0072,72.2936,112.431,17.4484,-8.77834,13.1179,7.12502,17.1598,42.3802,3.06792,1.18806,32.5367,41.5803,-13.5881,-7.21736,-18.7394,-51.0169,-16.6755,-6.20005,41.3528,3.77648,-16.0898,-2.89009
1.62541,17.3407,1.30547,7.36465,9.97717,-3.89248,7.90136,7.20738,-2.8648,4.59258,9.3957,-7.00006,1.15347,4.779,-6.30763,4.20283,-2.29655,-7.18818,10.6663,-4.87689,22.7411,3.05333,-2.01583,8.30474,1.48691e-13,-7.31528e-14,40.8076,-12.439,-36.4766,42.0175,1.10508,-16.6795,9.83235,7.12502,9.54454,-19.9315,1.48691e-13,-7.31528e-14,14.0157,-48.5428,73.077,113.125,17.5409,-8.85412,12.8929,7.12502,17.0869,42.1615,3.1176,1.59034,32.8545,41.9447,-13.8923,-7.20845,-18.3845,-51.3758,-16.5143,-6.06115,42.1265,3.66485,-16.5647,-3.03907
1.62852,17.2966,1.30103,7.06423,9.90955,-4.1544,7.89469,7.19472,-2.87135,4.72949,9.3881,-6.89653,1.28051,4.77371,-6.18337,3.90529,-2.30854,-7.34398,10.6746,-4.91368,22.922,3.12026,-2.01816,8.39102,-1.15295e-13,2.38542e-14,40.0595,-12.6464,-37.5313,43.9925,-0.59682,-16.7625,9.96078,7.12502,9.46455,-19.8067,-1.15295e-13,2.38542e-14,13.2723,-47.8308,73.8171,113.833,17.5106,-9.17394,12.6323,7.12502,16.779,41.9273,3.24267,2.0404,33.0999,42.4507,-14.1602,-7.09888,-18.0678,-51.5954,-16.3734,-5.89838,42.9487,3.42346,-16.735,-3.10854
1.63542,17.2523,1.29557,6.73522,9.69643,-4.32836,8.28784,6.80347,-2.93292,4.84075,8.83791,-6.84072,1.11359,4.49341,-6.10677,2.73603,-2.05816,-8.1752,11.3347,-4.6983,23.0726,3.5011,-1.84154,8.6031,5.40694e-14,-6.99722e-14,40.3144,-12.2014,-39.1545,45.8583,-1.60478,-17.1476,10.1646,7.12502,9.09288,-19.6194,5.40694e-14,-6.99722e-14,12.6911,-45.9128,74.0171,114.474,17.9068,-9.50213,12.65,7.12502,16.463,41.9714,3.30214,2.45186,33.1491,43.1084,-14.4039,-6.91433,-18.2557,-51.7165,-16.2533,-5.80402,43.7757,3.11408,-16.6803,-2.80826
1.64488,17.2063,1.29096,6.44979,9.36382,-4.46141,8.21853,6.82558,-3.08451,4.83469,8.85914,-6.78769,1.11488,4.49735,-5.96158,2.9269,-2.0749,-8.14463,11.3349,-4.70734,22.818,3.46407,-1.8658,8.50975,1.05753e-13,-2.06736e-14,39.1044,-11.7284,-39.5977,47.9617,-2.82459,-17.1666,10.6332,7.12502,9.0746,-19.1516,1.05753e-13,-2.06736e-14,12.2175,-45.0683,74.471,114.99,18.577,-9.63827,12.7201,7.12502,16.332,42.0524,3.28451,2.81259,33.0674,43.8647,-14.6563,-6.57526,-18.6521,-51.8388,-16.0779,-5.74606,44.6136,2.8367,-16.72,-2.50218
1.65819,17.1592,1.28108,6.13594,8.81547,-4.55818,8.0366,7.11269,-3.11791,4.73426,9.24532,-6.8839,1.15395,4.69173,-6.04995,3.75978,-2.22453,-7.48003,10.9719,-4.8265,22.4422,3.21295,-1.9757,8.25505,9.54166e-15,1.74931e-14,37.0189,-11.2601,-39.5768,50.139,-4.13465,-17.1816,11.0743,7.12502,9.06011,-18.7111,9.54166e-15,1.74931e-14,11.4148,-45.1075,75.2238,115.501,19.0594,-9.81578,12.7342,7.12502,16.161,42.0804,3.26577,3.22722,32.8507,44.7127,-14.7596,-6.00512,-18.3072,-51.875,-15.8004,-5.74388,45.4604,2.49301,-16.7318,-2.08829
1.67626,17.1182,1.26807,5.75143,8.0717,-4.80321,7.96799,7.29485,-2.84774,4.66824,9.50862,-7.06027,1.2215,4.83598,-6.39016,4.14392,-2.26215,-6.90678,10.8358,-4.82771,22.1774,3.09154,-1.99098,8.06084,-8.74653e-15,4.77083e-15,35.2762,-10.7743,-40.1185,52.3074,-4.85544,-17.5338,11.1529,7.12502,8.72022,-18.647,-8.74653e-15,4.77083e-15,10.6594,-44.8392,75.6842,116.024,19.5245,-9.60067,13.3702,7.12502,16.3682,42.6996,3.24023,3.72324,32.7065,45.6131,-14.7346,-5.2961,-17.3077,-51.8229,-15.4742,-5.53852,46.3178,2.1298,-16.4652,-1.27746
1.69426,17.0824,1.25495,5.29757,7.14659,-4.99995,7.78626,7.35134,-3.24222,4.85693,9.57751,-6.76444,1.40642,4.85053,-5.83169,3.72967,-2.20768,-7.2693,11.0871,-4.77854,21.8138,3.23115,-1.95856,8.00171,1.59028e-14,1.74931e-14,34.475,-9.90772,-40.445,54.5403,-5.31608,-18.2244,10.9538,7.12502,8.0538,-18.8727,1.59028e-14,1.74931e-14,9.92244,-43.6355,76.6128,116.531,20.0437,-9.46897,13.8493,7.12502,16.495,43.1681,3.25329,4.20071,32.4522,46.5626,-14.7793,-4.57632,-17.0508,-51.6226,-15.1423,-5.34736,47.167,1.69215,-16.0155,-0.465737
1.71459,17.0415,1.2408,4.83213,6.05872,-5.07365,7.93123,7.20551,-3.34713,4.97391,9.37112,-6.87781,1.43775,4.7463,-5.89486,2.71943,-2.02694,-7.48472,11.7074,-4.61274,21.618,3.56544,-1.8085,7.9778,6.12257e-14,-1.43125e-14,34.0498,-8.92498,-41.6726,56.6816,-5.66068,-18.9004,10.9433,7.12502,7.40131,-18.9072,6.12257e-14,-1.43125e-14,9.35864,-42.1619,76.6541,117.09,20.7284,-10.3399,13.5141,7.12502,15.6563,42.9006,3.27137,4.57765,31.9645,47.5281,-14.8312,-3.72503,-17.6443,-51.3247,-14.6962,-5.33553,47.9947,1.26014,-15.7212,0.0832321
1.73617,16.9979,1.22332,4.33024,4.8159,-5.21846,7.57746,7.62298,-3.64659,4.99385,9.93117,-6.70225,1.61483,5.01103,-5.52968,3.35542,-2.14584,-7.0197,11.4583,-4.69323,21.0235,3.37657,-1.89642,7.68912,-1.04163e-13,4.13472e-14,32.1565,-8.27566,-41.8359,59.0286,-6.18811,-19.5992,10.8714,7.12502,6.7267,-19.0018,-1.04163e-13,4.13472e-14,8.67867,-41.9557,77.6584,117.484,21.4738,-11.2381,13.7548,7.12502,14.7911,43.2069,3.31319,4.95178,31.5044,48.4869,-14.7943,-2.68004,-17.7033,-50.938,-14.1391,-5.26147,48.7957,0.816373,-15.445,0.129982
1.76068,16.9621,1.20746,3.8723,3.52345,-5.42531,7.66098,7.07291,-3.85553,5.3144,9.19683,-6.52743,1.78782,4.62921,-5.18444,1.32983,-1.57132,-8.0523,12.4334,-3.99141,20.6422,3.9233,-1.46367,7.76882,2.94201e-14,9.54166e-15,33.0019,-6.62335,-43.4362,61.2966,-6.53085,-20.2467,10.5903,7.12502,6.10167,-19.3019,2.94201e-14,9.54166e-15,8.5256,-39.0659,77.547,117.855,22.0326,-11.7662,14.2121,7.12502,14.2823,43.701,3.32215,5.23048,31.0488,49.4152,-14.6835,-1.4693,-17.1139,-50.559,-13.6183,-5.05331,49.5526,0.249705,-15.057,-0.294846
1.78794,16.9293,1.19304,3.34473,2.16212,-5.52226,7.72649,7.41881,-3.62495,4.98314,9.63896,-6.80218,1.52208,4.86335,-5.65262,2.30665,-1.59863,-7.18445,12.3044,-4.00831,20.3089,3.69907,-1.50282,7.50061,6.2816e-14,-1.90833e-14,30.3476,-5.85279,-44.4442,63.9716,-7.05359,-20.8067,10.5811,7.12502,5.56102,-19.326,6.2816e-14,-1.90833e-14,7.49722,-39.1884,78.0105,118.325,22.7004,-12.2627,14.1279,7.12502,13.8039,43.6499,3.42402,5.45105,30.4562,50.3095,-14.4819,-0.310379,-16.7299,-50.0124,-13.1241,-4.97165,50.2103,-0.339747,-14.6029,-0.287292
1.81668,16.8965,1.17649,2.74438,0.701438,-5.61334,7.91459,7.62815,-3.48543,4.90639,9.90183,-7.00638,1.42217,5.00329,-5.98894,2.04346,-1.59766,-6.70529,12.5916,-4.04174,20.1592,3.82709,-1.47767,7.36585,-2.94201e-14,-2.22639e-14,28.4956,-5.15663,-45.5268,66.6447,-7.76885,-21.0427,10.4989,7.12502,5.33313,-19.414,-2.94201e-14,-2.22639e-14,6.95717,-38.7829,78.132,118.834,23.2493,-12.5329,14.1393,7.12502,13.5434,43.6789,3.60076,5.58732,29.8255,51.1917,-14.1556,0.793769,-16.8364,-49.3106,-12.5995,-4.8999,50.7526,-0.708341,-14.0636,0.502685
1.84794,16.8754,1.16072,2.2113,-0.786504,-5.55132,7.58406,7.78245,-3.75678,5.09344,10.1284,-6.94581,1.76107,5.10555,-5.72896,1.50096,-1.54573,-6.75092,12.8689,-4.00909,20.1129,4.00033,-1.42714,7.36148,7.23576e-14,-5.40694e-14,27.2289,-4.3496,-46.1775,69.3161,-8.60492,-21.1142,10.454,7.12502,5.26405,-19.4607,7.23576e-14,-5.40694e-14,6.66312,-37.9739,78.5269,119.336,23.7383,-12.5111,14.0947,7.12502,13.5644,43.6328,3.67113,5.58699,28.9409,52.0675,-13.7506,1.85266,-16.8778,-48.5983,-12.1337,-4.95574,51.1683,-1.0035,-13.4405,2.02083
1.882,16.8596,1.1458,1.64929,-2.23945,-5.45166,7.33444,7.85217,-4.00424,5.2358,10.2349,-6.88558,2.00177,5.14661,-5.49161,1.48445,-1.45241,-6.64862,12.6719,-3.82822,19.7815,3.91389,-1.35907,7.23104,-3.57812e-14,1.59028e-14,25.8512,-3.38347,-46.908,72.0776,-9.17843,-21.6329,10.7814,7.12502,4.76328,-19.1451,-3.57812e-14,1.59028e-14,6.11571,-37.0427,78.9604,119.915,24.159,-12.6237,13.9712,7.12502,13.4559,43.5165,3.69843,5.49316,27.9933,52.9464,-13.2253,2.71252,-16.7742,-47.7737,-11.7794,-5.04589,51.4642,-1.53286,-12.7513,2.10684
1.91437,16.8414,1.12738,1.04829,-3.67644,-5.41922,7.82636,7.83197,-4.02654,4.92125,10.1269,-6.93119,1.39789,5.09016,-5.62314,2.22582,-1.27544,-6.5577,12.2217,-3.50474,19.4492,3.60017,-1.27099,7.10713,-9.54166e-14,1.59028e-14,24.0336,-1.99223,-48.0371,74.9717,-9.46395,-22.2107,10.5991,7.12502,4.20527,-19.3391,-9.54166e-14,1.59028e-14,4.6856,-36.1418,79.5861,120.508,24.4606,-13.0186,13.7791,7.12502,13.0753,43.3492,3.74467,5.41971,27.1932,53.814,-12.7452,3.34033,-16.665,-46.8509,-11.4422,-5.026,51.6358,-2.00648,-12.1337,0.417646
1.94612,16.8293,1.10472,0.457784,-5.10588,-5.35404,7.7261,7.85045,-4.38523,5.04061,10.1375,-6.65986,1.46483,5.07445,-5.12827,2.47322,-1.11308,-6.80598,11.8093,-3.20586,19.1503,3.39426,-1.17991,7.05215,3.89618e-14,-4.13472e-14,22.8724,-1.0439,-48.9416,77.8789,-9.82024,-22.3861,10.0646,7.12502,4.03596,-19.8769,3.89618e-14,-4.13472e-14,4.08792,-35.0624,80.2856,121.033,24.8212,-13.465,13.8056,7.12502,12.6449,43.4028,3.75528,5.30523,26.3755,54.6506,-12.2946,3.90693,-16.7421,-45.8652,-11.1489,-4.99702,51.6365,-2.36383,-11.598,-0.732169
1.9765,16.8265,1.07984,-0.0901422,-6.52023,-5.30927,7.95742,7.87606,-4.28767,4.9692,10.1456,-6.73487,1.29519,5.08196,-5.2994,2.22731,-1.00197,-6.6503,11.9562,-3.0711,19.0697,3.45955,-1.09402,7.00178,1.66979e-14,3.81667e-14,21.1474,-0.422458,-50.3687,81.0135,-10.4108,-22.2627,9.91843,7.12502,4.15514,-20.0208,1.66979e-14,3.81667e-14,3.47941,-34.393,80.4174,121.7,25.3051,-13.897,14.1246,7.12502,12.2285,43.7471,3.6483,5.08158,25.5547,55.4323,-11.6087,4.33203,-16.3816,-44.8154,-10.8441,-4.96717,51.4836,-2.82964,-11.0658,-1.51569
2.00354,16.8397,1.05321,-0.528101,-7.87498,-5.26753,7.96152,7.80514,-4.56357,5.02846,10.0283,-6.48264,1.25226,5.00593,-4.88154,1.71279,-0.821813,-6.94715,12.1762,-2.82787,18.83,3.58162,-0.964908,6.9833,-5.64548e-14,-1.90833e-14,19.6863,0.502975,-51.2996,84.2427,-11.0513,-22.1906,9.64022,7.12502,4.22477,-20.2976,-5.64548e-14,-1.90833e-14,2.89832,-33.3183,80.946,122.295,25.4766,-14.3566,13.702,7.12502,11.7852,43.3504,3.43021,4.79877,24.7726,56.1087,-10.7779,4.46525,-16.2006,-43.8016,-10.5159,-4.95763,51.1728,-3.23063,-10.4363,-2.85867
2.02738,16.8657,1.02497,-0.816538,-9.14329,-5.30129,7.87195,7.64069,-4.80155,5.10231,9.80102,-6.1963,1.27267,4.87521,-4.42626,1.13244,-0.571526,-7.303,12.3673,-2.47337,18.5795,3.69165,-0.783833,6.97553,1.29608e-13,-3.49861e-14,18.3312,1.49869,-52.2372,87.4414,-11.5686,-22.1641,9.21464,7.12502,4.25028,-20.7227,1.29608e-13,-3.49861e-14,2.49054,-32.1303,81.3408,122.826,25.541,-14.7937,12.8951,7.12502,11.3637,42.5673,3.18679,4.598,24.2092,56.6272,-9.97881,4.32698,-16.4183,-42.9333,-10.1852,-4.85949,50.7462,-3.40598,-9.64189,-3.92172
2.04716,16.9075,0.994041,-1.03455,-10.3649,-5.30645,7.80974,7.64569,-4.85121,4.98463,9.79648,-6.13552,1.16256,4.86886,-4.33773,1.25967,-0.463964,-7.12216,12.3165,-2.31912,18.4525,3.63164,-0.715271,6.90367,-9.38264e-14,8.5875e-14,16.1456,2.04737,-53.4203,90.6853,-12.0397,-22.2935,9.15282,7.12502,4.12532,-20.787,-9.38264e-14,8.5875e-14,1.9429,-31.7061,81.5698,123.371,25.623,-15.0787,13.0915,7.12502,11.0889,42.7786,2.91764,4.56233,23.7694,56.9838,-9.09331,3.93788,-16.8017,-42.0505,-9.93202,-4.75423,50.1252,-3.48327,-8.61641,-4.99791
2.0644,16.9606,0.955724,-1.20101,-11.5948,-5.63499,7.84889,7.74987,-4.36823,4.79426,9.94785,-6.15366,1.03041,4.95864,-4.64139,1.794,-0.433074,-6.70525,12.0271,-2.27056,18.5495,3.44451,-0.70831,6.85658,-1.07344e-13,0,13.4405,2.20496,-54.7672,94.0366,-12.5835,-22.517,9.08903,7.12502,3.90949,-20.8549,-1.07344e-13,0,1.36133,-31.7691,81.6992,123.855,25.4921,-15.3303,13.2936,7.12502,10.8462,42.9935,2.66831,4.68463,23.8106,57.1425,-8.10699,3.45742,-16.7673,-41.0655,-9.64949,-4.26743,49.3056,-3.35063,-7.66784,-8.69634
2.07467,17.0348,0.912592,-1.18019,-12.6063,-5.514,7.75737,7.80023,-4.47501,4.59487,9.99693,-6.24486,0.872749,4.98108,-4.68593,2.02657,-0.390083,-6.32548,11.8603,-2.20522,18.584,3.34453,-0.678512,6.79816,-1.74931e-14,4.13472e-14,10.6773,2.30327,-56.1514,97.4808,-12.9917,-23.0913,9.16723,7.12502,3.35493,-20.7861,-1.74931e-14,4.13472e-14,0.842624,-31.7853,81.8543,124.174,25.1273,-15.2039,12.2849,7.12502,10.9681,41.9784,2.17858,4.74843,23.4051,57.1381,-7.09585,2.93091,-16.1858,-40.224,-9.51783,-4.21968,48.1679,-2.88435,-6.84489,-13.6243
2.08287,17.1177,0.869234,-1.0159,-13.5303,-5.57541,7.50155,7.80384,-4.39873,4.45157,10.0184,-6.26383,0.878802,4.99295,-4.72015,2.3725,-0.356073,-5.99665,11.5426,-2.11792,18.4911,3.17837,-0.657017,6.70463,6.04305e-14,5.08889e-14,8.00634,2.27083,-57.5399,100.875,-13.3177,-23.625,9.64818,7.12502,2.83951,-20.3127,6.04305e-14,5.08889e-14,0.421892,-31.7527,81.9645,124.565,24.9033,-14.7924,11.4268,7.12502,11.3649,41.0988,1.69995,4.84659,23.2733,56.9037,-6.19019,2.24128,-16.2106,-39.3655,-9.46521,-3.93983,46.7701,-2.52397,-5.98619,-14.6872
2.08855,17.2074,0.827894,-0.842873,-14.3868,-5.66405,7.58312,7.68513,-4.3498,4.18323,9.83293,-6.2412,0.54588,4.90039,-4.74525,2.39253,-0.19195,-5.95771,11.6776,-1.91476,18.4663,3.18754,-0.55355,6.69595,-6.36111e-15,4.13472e-14,5.47432,2.39982,-58.9338,104.125,-13.715,-23.5075,9.86987,7.12502,2.95295,-20.0894,-6.36111e-15,4.13472e-14,-0.308824,-31.4147,82.1354,125.174,24.9733,-14.4702,11.8988,7.12502,11.6757,41.5535,1.43297,5.01193,23.2364,56.4331,-5.44309,1.61197,-16.6089,-38.3661,-9.60781,-3.58378,45.098,-2.45372,-4.86242,-12.6055
2.09277,17.3081,0.783751,-0.617804,-15.1757,-5.78716,7.14392,7.32625,-4.43248,4.38569,9.40555,-5.99741,0.918072,4.67688,-4.34127,1.63517,0.135043,-6.34598,11.8623,-1.46005,18.2249,3.31484,-0.313635,6.69782,5.00937e-14,0,4.06409,2.72427,-60.1284,107.043,-13.9708,-22.8352,9.77923,7.12502,3.60226,-20.1701,5.00937e-14,0,-0.299513,-30.2592,82.0985,125.701,25.0752,-14.2598,12.4739,7.12502,11.8785,42.1169,1.25744,5.27802,23.2909,55.7313,-4.70658,1.10483,-15.8782,-37.332,-9.90157,-3.14012,43.2327,-2.34101,-3.56735,-11.386
2.09569,17.4203,0.735064,-0.201142,-15.8993,-6.06309,6.77857,7.02567,-4.26732,4.41927,9.05165,-5.80131,1.12732,4.49832,-4.15166,1.12562,0.355168,-6.51906,12.0103,-1.14137,17.9239,3.40638,-0.148112,6.64034,-5.88403e-14,6.36111e-14,2.31911,2.83508,-61.3636,109.8,-14.0121,-22.2689,9.83595,7.12502,4.14914,-20.1034,-5.88403e-14,6.36111e-14,-0.432277,-29.5602,82.0215,126.22,25.0157,-14.7135,12.4629,7.12502,11.441,42.1308,0.972422,5.51918,23.5089,54.8211,-3.88121,0.647205,-15.1358,-36.4015,-10.2704,-2.46194,41.2095,-2.21642,-2.24454,-10.8412
2.09687,17.5321,0.682827,0.332641,-16.6062,-6.40955,6.45983,6.79943,-3.93527,4.31964,8.79098,-5.68434,1.21486,4.37352,-4.1577,0.945211,0.539363,-6.45875,12.0855,-0.871026,17.6205,3.42659,-0.014898,6.53789,-8.34896e-14,7.31528e-14,0.382641,2.71834,-62.5856,112.341,-13.9133,-21.8093,10.127,7.12502,4.59288,-19.8033,-8.34896e-14,7.31528e-14,-0.525185,-29.2219,81.7641,126.804,25.1436,-15.9898,12.0852,7.12502,10.21,41.8174,0.661132,5.78971,23.781,53.7705,-3.18277,0.336734,-16.3926,-35.4835,-10.6728,-1.66166,39.0987,-2.46801,-1.00099,-11.1965
2.09682,17.6411,0.629614,0.811446,-17.3352,-6.7748,6.25602,6.5836,-3.6053,4.20865,8.53111,-5.51336,1.21744,4.24847,-4.12568,0.940076,0.778932,-6.5318,12.0573,-0.511817,17.3269,3.3751,0.144948,6.46118,6.75868e-14,-9.54166e-15,-1.47394,2.67684,-63.7105,114.672,-13.5568,-21.5138,10.3978,7.12502,4.87829,-19.5261,6.75868e-14,-9.54166e-15,-0.614159,-28.793,81.5576,127.403,25.3214,-16.9438,12.1293,7.12502,9.28953,41.9046,0.524312,6.14434,24.0865,52.5994,-2.62221,0.0870845,-18.046,-34.4191,-11.1075,-0.870412,36.9963,-3.3028,0.0701706,-12.6838
2.09455,17.7574,0.574176,1.28326,-18.0515,-7.07548,6.23052,6.37085,-3.25367,4.00099,8.25564,-5.42572,1.03585,4.11777,-4.2213,0.916026,1.05726,-6.55837,12.1506,-0.123559,17.1179,3.35929,0.329526,6.40714,-3.33958e-14,9.54166e-15,-3.28941,2.62254,-64.854,116.978,-12.9724,-21.447,10.2193,7.12502,4.94271,-19.7031,-3.33958e-14,9.54166e-15,-0.824195,-28.4214,81.2421,127.978,25.1309,-17.5285,12.2837,7.12502,8.72533,42.0834,0.417177,6.49672,24.3128,51.3231,-2.04116,-0.234102,-18.2304,-33.358,-11.5182,-0.196573,34.9752,-4.73006,0.909116,-13.5128
2.09177,17.8762,0.514883,1.81965,-18.7651,-7.22518,5.83601,6.14716,-3.16211,4.01296,7.99236,-5.26231,1.23908,3.98449,-4.04093,0.532847,1.34468,-6.59829,12.2664,0.30429,16.7086,3.4108,0.541327,6.29471,-1.47896e-13,3.18055e-14,-4.41595,2.39298,-65.6673,119.156,-12.7916,-20.8826,9.5991,7.12502,5.48769,-20.3098,-1.47896e-13,3.18055e-14,-0.358842,-27.8942,80.6624,128.499,24.9127,-17.1543,11.8691,7.12502,9.08646,41.6534,0.249881,6.80073,24.3196,49.9624,-1.43824,-0.485807,-18.5894,-32.4427,-11.8662,0.265355,33.0993,-6.50851,1.63236,-13.1705
2.09089,17.9895,0.457209,2.49583,-19.4632,-7.4372,5.97289,5.94676,-3.00519,3.58025,7.69797,-5.10262,0.695095,3.83844,-3.99163,0.234676,1.59787,-6.63572,12.6923,0.649043,16.2898,3.55082,0.716625,6.18571,-2.78299e-14,0,-5.94298,2.25397,-66.3105,121.193,-12.6558,-20.3782,9.35349,7.12502,5.97468,-20.5423,-2.78299e-14,0,-0.244155,-27.5035,80.1271,129.071,24.9295,-15.7044,11.268,7.12502,10.4854,40.9865,0.00112534,7.02336,24.2984,48.558,-0.861225,-0.543651,-18.046,-31.7101,-12.2879,0.794226,31.4333,-8.457,2.54735,-12.1694
2.09446,18.0968,0.405088,3.18086,-20.1934,-7.75524,5.97463,5.73812,-2.51539,3.2276,7.42911,-4.98419,0.359364,3.71118,-4.14417,-0.0521535,1.83646,-6.64232,13.0496,0.985328,15.8594,3.67196,0.883917,6.06698,-2.06736e-14,4.77083e-14,-7.22932,2.14621,-66.8975,122.958,-12.0377,-20.7486,9.49447,7.12502,5.61704,-20.4111,-2.06736e-14,4.77083e-14,0.150261,-27.0404,79.3509,129.664,24.8257,-14.9943,11.3122,7.12502,11.1702,40.9948,-0.199465,7.1744,24.2879,47.165,-0.436071,-0.375528,-15.6009,-30.9979,-12.7901,1.38236,30.0032,-10.4182,4.14641,-11.5233
2.10229,18.1907,0.352446,3.74862,-20.9978,-7.91714,5.85801,5.52096,-2.10102,3.03889,7.16163,-4.90851,0.253501,3.58267,-4.27698,-0.447157,2.07905,-6.68465,13.344,1.34118,15.441,3.79203,1.06008,5.96002,0,-5.08889e-14,-8.04456,1.97235,-67.3484,124.482,-11.3134,-21.3738,9.96661,7.12502,5.01346,-19.9541,0,-5.08889e-14,0.946806,-26.5116,78.2906,130.398,24.5658,-15.281,12.1233,7.12502,10.8937,41.8207,-0.348481,7.31913,24.0509,45.8717,-0.104724,-0.0229925,-14.559,-30.2682,-13.1133,1.65624,28.864,-12.1958,6.40233,-11.5656
2.11556,18.2734,0.299239,4.21286,-21.8023,-7.8439,5.67296,5.24889,-1.90887,2.95809,6.8171,-4.84078,0.264973,3.4122,-4.28057,-0.972665,2.40702,-6.81367,13.5541,1.83494,15.0337,3.89385,1.30117,5.87624,-2.22639e-14,0,-8.28421,1.77816,-67.6512,125.868,-11.0125,-21.5778,10.3278,7.12502,4.81642,-19.5974,-2.22639e-14,0,1.97059,-25.6847,77.0506,131.272,24.5549,-15.335,12.9362,7.12502,10.8416,42.6364,-0.551052,7.368,23.5114,44.7057,0.154957,0.335038,-16.2631,-29.6506,-13.33,1.57715,28.1567,-13.4963,8.73406,-11.909
2.13424,18.3395,0.244338,4.69804,-22.5889,-7.72903,5.59731,4.94552,-1.69791,2.68453,6.41714,-4.76719,0.0133137,3.21218,-4.30942,-1.08931,2.81882,-6.89156,13.6676,2.44918,14.5317,3.88738,1.58034,5.747,8.22969e-14,-6.99722e-14,-8.61867,1.59136,-67.7914,127.329,-11.2676,-21.112,10.1046,7.12502,5.26616,-19.81,8.22969e-14,-6.99722e-14,2.68545,-24.736,75.9012,132.106,24.8452,-15.1938,12.8089,7.12502,10.9778,42.5019,-0.853253,7.37611,22.8855,43.7116,0.156124,0.542075,-17.9606,-29.259,-13.1196,1.26492,27.9883,-14.3695,10.2944,-11.1137
2.15733,18.3946,0.191203,5.12957,-23.436,-7.63732,5.63432,4.64346,-1.46204,2.4175,6.01662,-4.61776,-0.301034,3.01043,-4.28324,-1.33178,3.20555,-7.07652,13.8395,3.04246,13.9737,3.92461,1.84578,5.62279,-5.88403e-14,-3.65764e-14,-8.78494,1.32697,-67.6174,128.769,-11.9798,-20.4452,9.56068,7.12502,5.90999,-20.3369,-5.88403e-14,-3.65764e-14,3.59255,-23.6125,74.6965,132.829,25.2719,-15.268,12.5168,7.12502,10.9063,42.2136,-1.13078,7.41296,22.2503,42.9114,-0.151037,0.48076,-18.3942,-28.8671,-12.1893,0.586304,28.358,-14.8608,11.052,-10.1372
2.18172,18.4409,0.137146,5.53809,-24.3085,-7.4593,5.49266,4.31796,-1.44088,2.63199,5.6011,-4.45823,-0.0420397,2.80357,-4.08518,-3.07593,3.48118,-7.18787,14.2031,3.55027,13.3257,4.2943,2.11777,5.50094,-2.22639e-14,1.59028e-14,-7.68153,0.864332,-67.34,129.76,-12.5208,-21.1692,9.76422,7.12502,5.21095,-20.1517,-2.22639e-14,1.59028e-14,5.60376,-22.1583,73.0382,133.444,25.4882,-15.4545,12.8604,7.12502,10.7264,42.5665,-1.52582,7.48742,21.5362,42.3325,-0.711202,0.147496,-18.8011,-28.6119,-10.759,-0.408809,29.2722,-14.9011,11.2044,-10.4627
2.20745,18.4655,0.0743271,5.94237,-25.178,-7.26526,5.47904,4.26179,-0.964143,2.2336,5.53471,-4.64906,-0.384989,2.77258,-4.56287,-2.3286,3.71059,-6.52886,13.7607,3.88714,12.7189,4.03178,2.25319,5.17181,3.69739e-14,1.11319e-14,-8.05755,0.00148759,-67.2273,130.744,-12.8507,-22.6752,10.1353,7.12502,3.7568,-19.8114,3.69739e-14,1.11319e-14,6.73752,-21.95,71.4997,134.186,25.6689,-15.5198,13.086,7.12502,10.6634,42.7955,-2.03939,7.62491,20.8485,41.9611,-1.5079,-0.323053,-19.2555,-28.5877,-9.00542,-1.46153,30.7006,-14.6102,10.4112,-11.6795
2.2338,18.4667,0.00509242,6.31026,-25.9984,-7.09981,5.53688,4.06708,-0.747663,1.9773,5.27637,-4.59312,-0.686221,2.6402,-4.62987,-2.1485,3.97829,-6.27439,13.4771,4.32265,12.0618,3.90058,2.43575,4.91896,2.70347e-14,1.43125e-14,-7.827,-0.747873,-66.7359,131.72,-13.4805,-23.1642,9.91208,7.12502,3.28449,-20.0424,2.70347e-14,1.43125e-14,8.17179,-21.113,70.0111,134.867,26.0503,-15.7716,12.9415,7.12502,10.4205,42.6632,-2.55954,7.80642,20.2384,41.7615,-2.66316,-0.88842,-19.2131,-28.705,-7.16088,-2.48092,32.512,-13.9892,8.55605,-12.7496
2.25988,18.4595,-0.0602678,6.60845,-26.8004,-6.95818,5.5955,3.68468,-0.795731,2.00837,4.76888,-4.25617,-0.758262,2.3838,-4.22919,-3.14441,4.30575,-6.58381,13.6087,4.89764,11.4232,4.06834,2.69828,4.81676,2.22639e-14,9.54166e-15,-6.51219,-1.31918,-66.0212,132.44,-14.3939,-22.7503,9.49224,7.12502,3.68423,-20.4557,2.22639e-14,9.54166e-15,9.86805,-19.3717,68.5806,135.465,26.7834,-16.0541,13.2013,7.12502,10.148,42.9366,-3.01106,8.05073,19.7013,41.6904,-3.99888,-1.44324,-19.2637,-28.8119,-5.58193,-3.45126,34.6185,-13.0452,6.15963,-12.5682
2.28462,18.4464,-0.131594,6.76314,-27.504,-6.81363,5.85174,3.40882,-0.770108,1.87923,4.39421,-4.01196,-1.07691,2.1921,-3.99287,-3.33214,4.5684,-6.45968,13.4822,5.33841,10.7561,4.04961,2.888,4.60118,-5.40694e-14,0,-5.5858,-2.19682,-65.3526,132.974,-15.5181,-21.9422,9.0232,7.12502,4.46455,-20.9097,-5.40694e-14,0,11.4492,-17.9735,67.1775,135.941,28.2265,-15.9466,13.3463,7.12502,10.2517,43.0765,-3.322,8.31704,19.2845,41.71,-5.5334,-2.10301,-19.1409,-28.8562,-4.27135,-4.3783,36.9493,-11.926,3.52624,-11.985
2.30933,18.4223,-0.200176,6.75041,-28.287,-6.61456,6.05856,3.16387,-0.888445,1.90166,4.06034,-3.71686,-1.22006,2.02287,-3.61297,-3.64779,4.7919,-6.37725,13.2943,5.74009,10.074,4.03993,3.05842,4.39072,7.4743e-14,-1.59028e-14,-4.50539,-3.1734,-64.5221,133.479,-16.911,-21.0573,8.63205,7.12502,5.31902,-21.2812,7.4743e-14,-1.59028e-14,13.263,-16.3274,65.87,136.284,30.2333,-15.6145,13.3921,7.12502,10.5721,43.1062,-3.48929,8.80095,18.8932,41.8065,-7.23146,-2.99646,-17.2372,-28.7311,-3.24084,-5.34664,39.3894,-10.9579,1.17057,-11.4817
2.33238,18.3876,-0.271052,6.61588,-29.0593,-6.40838,6.34494,2.98957,-1.01219,2.06075,3.81848,-3.5305,-1.24971,1.90101,-3.34667,-4.19908,4.94112,-5.95455,13.0806,6.02593,9.36772,4.08661,3.19125,4.12326,2.18663e-14,-4.29375e-14,-3.26555,-4.6365,-63.7827,133.975,-18.6102,-19.8703,8.2835,7.12502,6.46503,-21.5978,2.18663e-14,-4.29375e-14,15.3628,-14.8791,64.4996,136.446,32.1455,-15.2661,13.6519,7.12502,10.9081,43.3486,-3.50315,9.44015,18.6116,41.9961,-8.89517,-4.32631,-14.354,-28.5147,-2.35527,-6.29108,41.7898,-10.5447,-0.993058,-9.667
2.3536,18.3472,-0.34549,6.58297,-29.7218,-6.38927,6.67368,2.76191,-1.04073,2.10812,3.51008,-3.2429,-1.41901,1.7452,-3.02874,-4.36882,5.15873,-5.72566,12.7616,6.38663,8.82241,4.02074,3.35174,3.92517,-9.54166e-15,9.54166e-15,-2.07572,-5.92868,-63.085,134.265,-20.0583,-18.9594,8.19074,7.12502,7.34434,-21.6618,-9.54166e-15,9.54166e-15,17.1109,-13.522,63.2811,136.469,33.7972,-15.1494,13.7501,7.12502,11.0207,43.4408,-3.49154,10.0699,18.6224,42.2624,-10.392,-6.1409,-13.5091,-28.3458,-1.64547,-6.95196,43.9895,-10.5888,-3.22579,-5.04357
2.37301,18.3017,-0.418831,6.65711,-30.39,-6.61246,7.06467,2.57341,-0.919974,2.05445,3.26304,-2.88742,-1.71668,1.61983,-2.73282,-4.28364,5.29962,-5.51722,12.3831,6.62261,8.37395,3.90065,3.45084,3.74693,-8.38871e-14,-1.90833e-14,-1.13142,-7.18682,-62.3822,134.364,-20.9948,-18.0728,8.3343,7.12502,8.20003,-21.4866,-8.38871e-14,-1.90833e-14,18.7499,-12.3064,62.1536,136.412,35.4009,-15.3661,14.1413,7.12502,10.8117,43.843,-3.45767,10.6624,18.8961,42.5915,-11.8586,-7.8541,-13.7583,-28.1492,-1.27685,-7.26599,45.8364,-11.3965,-1.8112,-9.3029
2.3878,18.2527,-0.483555,6.63497,-31.1505,-6.81885,7.36683,2.43534,-0.805662,2.06903,3.08709,-2.60157,-1.88628,1.53082,-2.50181,-4.20024,5.41684,-5.17875,12.0306,6.80262,8.01301,3.7951,3.53334,3.57449,-8.94531e-14,3.02153e-14,-0.175459,-8.4356,-61.8322,134.351,-21.6372,-16.9743,8.52447,7.12502,9.26017,-21.2522,-8.94531e-14,3.02153e-14,20.3328,-11.2211,61.1055,136.246,36.8212,-15.6372,14.5737,7.12502,10.5501,44.289,-3.26145,11.2531,19.1623,42.9452,-13.0968,-9.0662,-12.2917,-27.7111,-1.18273,-7.49505,47.0576,-12.9393,1.50154,-15.6129
2.39732,18.2042,-0.546695,6.42824,-32.0011,-6.78774,7.61195,2.3589,-0.943428,2.13204,2.97417,-2.4065,-1.97887,1.4737,-2.22349,-4.0421,5.51248,-4.80803,11.7369,6.934,7.74798,3.69621,3.59686,3.42436,2.38542e-15,1.74931e-14,0.779177,-9.59517,-61.4107,134.249,-21.987,-16.1277,9.08345,7.12502,10.0769,-20.6553,2.38542e-15,1.74931e-14,21.8552,-10.3043,60.1722,135.904,37.8331,-15.6902,14.6312,7.12502,10.499,44.349,-2.97881,11.8288,19.2315,43.3395,-13.2742,-9.90998,-11.1362,-27.0423,-1.21263,-7.83564,47.6217,-14.5569,3.51258,-12.9622
2.40202,18.1589,-0.61259,6.31124,-32.8264,-6.81554,7.92078,2.30756,-1.09652,2.07507,2.88976,-2.20129,-2.22983,1.43068,-1.93465,-3.58639,5.54979,-4.7756,11.4078,6.96625,7.85433,3.51594,3.61053,3.42668,-3.97569e-15,3.18055e-14,1.54902,-10.584,-61.0579,134.081,-22.0695,-15.6588,9.6956,7.12502,10.5293,-20.0207,-3.97569e-15,3.18055e-14,23.1265,-9.72094,59.4118,135.477,38.2716,-15.7631,14.6391,7.12502,10.4287,44.3605,-2.80373,12.3864,19.3916,43.7869,-12.6306,-10.0151,-12.1137,-26.6996,-1.72429,-7.86308,47.5054,-15.118,4.93994,-14.8078
2.4014,18.1128,-0.677419,6.10737,-33.6665,-6.539,8.12225,2.30082,-1.53731,1.98947,2.83899,-2.10524,-2.45756,1.40615,-1.59607,-3.10768,5.52578,-4.87122,11.0333,6.90949,8.14973,3.31178,3.58262,3.50249,-3.81667e-14,1.11319e-14,2.15729,-11.5174,-60.7372,133.899,-22.088,-15.1344,10.0698,7.12502,11.0351,-19.6202,-3.81667e-14,1.11319e-14,24.2356,-9.2329,58.7511,134.945,38.3777,-15.8438,15.0594,7.12502,10.3509,44.7846,-2.73454,12.9223,19.2627,44.3638,-11.9683,-8.96881,-14.4775,-26.4303,-2.46941,-8.05529,47.0742,-15.9193,6.42309,-14.8117
2.39818,18.0596,-0.743656,5.66414,-34.4596,-5.80743,8.08417,2.29076,-2.34091,2.10979,2.75764,-2.19412,-2.34655,1.36672,-1.22567,-3.12744,5.4486,-4.75873,10.6762,6.79358,8.37822,3.21068,3.53893,3.54177,-1.49884e-13,-3.18055e-15,2.96436,-12.4972,-60.6728,133.633,-21.9338,-14.4148,10.4875,7.12502,11.7292,-19.1641,-1.49884e-13,-3.18055e-15,25.4346,-8.58905,58.0611,134.28,38.3706,-15.9749,15.3022,7.12502,10.2244,45.0337,-2.6794,13.3914,18.7748,45.1076,-11.9206,-7.4192,-18.1734,-26.2031,-3.06594,-8.59473,46.6346,-16.6763,8.08128,-15.3319
2.39165,17.9952,-0.819403,5.08805,-35.2188,-4.80651,8.22778,2.28931,-3.45356,2.1665,2.64829,-2.36992,-2.409,1.31368,-0.780213,-3.49391,5.395,-4.43409,10.6823,6.68335,8.64323,3.28199,3.51542,3.58015,-7.03698e-14,1.59028e-15,3.71722,-13.3335,-60.7825,133.3,-21.8126,-13.7775,10.8438,7.12502,12.3436,-18.7718,-7.03698e-14,1.59028e-15,26.2633,-8.07555,57.4108,133.651,38.1123,-16.1535,15.2299,7.12502,10.0521,44.9699,-2.72177,13.89,18.1565,46.0217,-12.4777,-6.43423,-20.5488,-26.1307,-3.31986,-9.31336,46.5349,-17.2087,8.95028,-14.903
2.38028,17.9266,-0.905068,4.73824,-35.8874,-4.02807,8.28401,2.24562,-4.39968,2.04881,2.49747,-2.45143,-2.59593,1.2443,-0.327232,-3.41905,5.41224,-4.23554,10.808,6.64881,8.96563,3.30374,3.51867,3.64588,-2.0276e-14,9.54166e-15,4.07991,-13.8432,-60.7936,133.072,-22.0157,-13.5094,11.0582,7.12502,12.6021,-18.5417,-2.0276e-14,9.54166e-15,26.2549,-7.94232,57.0101,133.31,37.6545,-16.2243,15.4258,7.12502,9.9838,45.169,-2.95247,14.3587,17.792,47.016,-13.0918,-6.72217,-19.3738,-26.4007,-3.31625,-9.73336,46.8617,-17.4875,8.88726,-14.2245
2.36527,17.8592,-0.991648,4.53118,-36.4071,-3.3984,8.23019,2.14502,-5.17681,1.99714,2.29595,-2.49948,-2.64161,1.14831,0.0778977,-3.41901,5.43186,-4.15643,10.7496,6.64219,9.26536,3.2777,3.53059,3.72203,8.15017e-15,-4.77083e-15,4.41467,-14.1481,-60.8627,132.864,-22.0981,-13.4396,11.3171,7.12502,12.6694,-18.2786,8.15017e-15,-4.77083e-15,25.8278,-7.8322,56.7948,133.226,37.4933,-16.1006,15.6494,7.12502,10.1031,45.3869,-3.24395,14.6711,17.552,47.9359,-14.12,-7.99405,-19.6863,-27,-3.04943,-9.98789,47.5456,-17.5012,8.8185,-14.8507
2.34884,17.7968,-1.08143,4.45324,-36.7421,-2.89881,8.18842,1.99112,-5.86544,1.98275,2.0343,-2.50641,-2.64538,1.02148,0.483079,-3.56855,5.45461,-4.17029,10.6003,6.65469,9.59422,3.24364,3.55233,3.82499,-4.92986e-14,4.13472e-14,4.64481,-14.2921,-60.9382,132.644,-21.9523,-13.333,11.4507,7.12502,12.7722,-18.1387,-4.92986e-14,4.13472e-14,25.2756,-7.60641,56.625,133.108,37.5863,-16.0711,15.647,7.12502,10.1316,45.383,-3.53268,14.8151,17.4394,48.6046,-15.7479,-9.45184,-23.7936,-27.9187,-2.57672,-10.1056,48.4431,-17.4005,8.71688,-15.8005
2.33285,17.7415,-1.17841,4.49499,-36.9023,-2.63091,8.08287,1.81876,-6.21066,2.13472,1.78873,-2.59803,-2.42283,0.892558,0.613004,-4.03854,5.42258,-3.97598,10.4985,6.58333,9.90337,3.29202,3.54754,3.89934,3.18055e-14,1.27222e-14,4.75349,-14.5908,-61.1797,132.552,-21.9094,-13.2892,11.5014,7.12502,12.8144,-18.0852,3.18055e-14,1.27222e-14,24.9974,-7.38553,56.2842,132.89,37.7461,-16.3191,15.6365,7.12502,9.89232,45.3841,-3.73517,14.839,17.5567,48.9176,-17.4019,-10.4809,-26.7129,-28.9856,-2.02034,-9.97369,49.4214,-17.2114,7.95545,-15.7523
