JuanDHNZ/ProyectoFinalCD/preprocessing/sports_trials_csv/13_16.csv
root1,root2,root3,root4,root5,root6,lowerback1,lowerback2,lowerback3,upperback1,upperback2,upperback3,thorax1,thorax2,thorax3,lowerneck1,lowerneck2,lowerneck3,upperneck1,upperneck2,upperneck3,head1,head2,head3,rclavicle1,rclavicle2,rhumerus1,rhumerus2,rhumerus3,rradius1,rwrist1,rhand1,rhand2,rfingers1,rthumb1,rthumb2,lclavicle1,lclavicle2,lhumerus1,lhumerus2,lhumerus3,lradius1,lwrist1,lhand1,lhand2,lfingers1,lthumb1,lthumb2,rfemur1,rfemur2,rfemur3,rtibia1,rfoot1,rfoot2,rtoes1,lfemur1,lfemur2,lfemur3,ltibia1,lfoot1,lfoot2,ltoes1
-1.24293,18.2662,0.736499,-19.421,-22.4476,7.13618,-5.05278,2.18906,-0.554472,-1.02145,2.9325,0.175004,1.74223,1.4567,0.678514,-4.43105,-1.45137,-4.87293,10.238,-3.35021,16.1968,4.11022,-1.07813,5.66993,1.53064e-14,-7.15625e-15,44.8921,0.402437,-39.3794,52.8787,5.471,-30.0077,2.12956,7.12502,-3.32487,-27.8243,1.53064e-14,-7.15625e-15,29.7454,21.1284,30.8615,52.6615,4.86552,-25.3857,26.163,7.12502,1.13904,56.1397,6.73728,9.46872,19.0892,46.4519,-20.1812,-5.18017,-12.2265,5.14778,8.10786,-7.13913,56.2929,18.6223,11.2687,3.18451
-1.24008,18.2755,0.75103,-19.1223,-22.6958,7.08839,-5.03757,2.15563,-0.551611,-1.16186,2.88503,0.258495,1.58603,1.43386,0.755076,-4.06644,-1.45643,-5.16457,10.4431,-3.40303,16.5103,4.12114,-1.10958,5.82398,-1.76918e-14,1.66979e-14,46.1146,-1.42536,-39.6013,55.4448,4.0923,-31.1498,1.91806,7.12502,-4.42779,-28.0157,-1.76918e-14,1.66979e-14,29.7217,22.207,29.7266,55.8173,6.89557,-25.8442,25.8661,7.12502,0.696183,55.8447,6.64455,9.909,19.4367,46.1542,-20.3306,-5.94756,-12.1612,4.75769,8.21496,-7.15591,56.4887,18.6744,11.2546,3.2657
-1.23545,18.2834,0.76396,-18.8756,-22.8505,7.19034,-4.94061,2.09446,-0.724387,-1.36105,2.80946,0.318684,1.31725,1.39755,0.899296,-3.34074,-1.47811,-5.43018,10.4194,-3.43726,16.6559,3.99549,-1.16435,5.91806,2.14687e-14,5.56597e-15,47.268,-3.12962,-39.9349,58.002,2.77028,-31.7864,2.01972,7.12502,-5.04246,-27.9003,2.14687e-14,5.56597e-15,29.4956,23.2303,28.4915,58.972,9.07304,-26.2335,25.9491,7.12502,0.32026,55.9286,6.5742,10.3351,19.6043,45.8345,-20.5525,-6.66843,-11.6944,4.31873,8.31726,-7.3476,56.7327,18.6437,11.3678,3.2502
-1.23044,18.2884,0.772647,-18.6567,-22.8951,7.50126,-4.83587,2.09623,-1.11521,-1.40598,2.83162,0.206805,1.19889,1.40917,0.99851,-3.19407,-1.63231,-5.40751,10.4346,-3.66748,16.7344,4.00247,-1.27994,5.9292,7.13637e-14,-1.19271e-14,48.4628,-5.29835,-40.4759,60.5204,1.43127,-32.0596,2.15968,7.12502,-5.30626,-27.7539,7.13637e-14,-1.19271e-14,29.7152,24.502,27.4543,62.144,11.2328,-26.6287,25.8953,7.12502,-0.0614639,55.875,6.47328,10.7608,19.5214,45.516,-20.792,-7.47468,-11.935,3.75489,8.42005,-7.7739,57.004,18.7346,11.4748,3.08373
-1.22565,18.2926,0.777758,-18.5003,-22.8957,7.82932,-4.65661,2.15407,-1.48402,-1.29572,2.9286,-0.00481361,1.2022,1.4569,0.988068,-3.56454,-1.82466,-5.54417,10.627,-4.00305,17.2072,4.17536,-1.40495,6.09141,1.18476e-13,5.56597e-15,49.7194,-7.87516,-41.2688,63.054,0.357662,-32.186,2.43639,7.12502,-5.42835,-27.4741,1.18476e-13,5.56597e-15,30.3325,26.0089,26.671,65.3135,13.3095,-27.2522,25.6405,7.12502,-0.663697,55.6192,6.43387,11.152,19.4142,45.1708,-21.0757,-8.33578,-12.2701,3.20349,8.54463,-8.17054,57.3297,18.86,11.5157,3.66885
-1.22167,18.2921,0.780116,-18.3249,-22.8948,8.064,-4.42773,2.19364,-1.78758,-1.18128,2.99581,-0.188552,1.18434,1.48987,0.965778,-4.00499,-1.97516,-5.82492,10.948,-4.3064,17.8172,4.40294,-1.50335,6.32815,-5.725e-14,-9.54166e-15,51.0635,-10.3964,-42.1419,65.5555,-0.531778,-32.3349,2.51851,7.12502,-5.57209,-27.3882,-5.725e-14,-9.54166e-15,30.7439,27.583,25.7886,68.5536,15.2024,-27.6843,25.3333,7.12502,-1.08101,55.3103,6.44187,11.4721,19.3968,44.7997,-21.4988,-9.06931,-11.6361,2.64903,8.74838,-8.39589,57.7175,18.9775,11.2524,3.85467
-1.21552,18.2881,0.780115,-18.0753,-22.9065,8.15083,-4.08726,2.23183,-1.98263,-1.15985,3.04976,-0.305462,1.01085,1.51845,0.942886,-4.2059,-2.1591,-6.14484,11.1299,-4.62986,18.3588,4.55208,-1.6323,6.54815,-1.66979e-14,-7.95139e-15,52.3851,-12.7728,-43.0115,67.9766,-1.27872,-32.6111,2.63133,7.12502,-5.83874,-27.2682,-1.66979e-14,-7.95139e-15,30.9605,29.1116,25.0267,71.826,16.7958,-27.7668,25.0723,7.12502,-1.16068,55.0489,6.47919,11.732,19.4983,44.3587,-22.0051,-9.73097,-10.5184,2.01565,8.99645,-8.41907,58.1854,18.979,11.0129,4.24068
-1.20913,18.2866,0.776776,-17.6497,-22.9288,8.07718,-3.8293,2.27257,-2.1013,-1.14706,3.10362,-0.36568,0.875328,1.54682,0.938426,-4.30539,-2.36967,-6.44577,11.0931,-4.95852,18.8815,4.62146,-1.77754,6.7552,-5.94366e-14,-1.11319e-14,53.8069,-15.2322,-44.0286,70.4577,-1.78575,-32.6202,2.67235,7.12502,-5.84753,-27.227,-5.94366e-14,-1.11319e-14,31.3453,30.7768,24.5718,74.97,17.9681,-27.7034,25.4132,7.12502,-1.09945,55.3901,6.39375,11.9303,19.7044,43.844,-22.438,-10.3721,-9.80163,1.18141,9.35503,-8.21805,58.7272,19.2604,10.7732,5.07409
-1.20283,18.2875,0.771653,-17.1014,-22.9019,7.78635,-3.63239,2.28727,-2.04385,-1.06843,3.11841,-0.389975,0.850028,1.5543,0.87543,-4.45922,-2.60149,-6.64038,10.9146,-5.27871,19.2273,4.65372,-1.92576,6.88116,2.3059e-14,-1.86858e-14,55.362,-17.7718,-45.1919,72.9602,-2.24921,-32.5417,2.65029,7.12502,-5.77176,-27.2511,2.3059e-14,-1.86858e-14,31.85,32.581,24.2798,78.0687,18.8608,-28.8309,26.2891,7.12502,-2.18841,56.2576,6.28006,11.9499,20.0433,43.2424,-22.8814,-10.9177,-9.27336,0.231216,9.70094,-7.78008,59.3391,19.7829,10.4497,6.62796
-1.19296,18.2869,0.769227,-16.5388,-22.7479,7.52113,-3.42339,2.27089,-1.97392,-1.00232,3.09101,-0.411899,0.806839,1.54099,0.805414,-4.51732,-2.85874,-6.76167,10.6424,-5.58497,19.2566,4.63027,-2.08804,6.88677,-2.48481e-14,-9.93923e-15,57.0127,-20.197,-46.3158,75.3233,-2.67963,-32.6381,2.834,7.12502,-5.86482,-27.0648,-2.48481e-14,-9.93923e-15,32.2769,34.4171,24.1359,81.1915,19.5944,-30.6204,25.9188,7.12502,-3.91656,55.8626,6.18452,11.7781,20.2294,42.5743,-23.2071,-11.348,-9.18204,-0.765883,9.94524,-7.44514,59.9808,20.2117,10.1694,8.31102
-1.18105,18.2841,0.761228,-15.99,-22.565,7.20044,-3.07551,2.24367,-1.89366,-0.975109,3.0447,-0.38002,0.644116,1.51969,0.776836,-4.4841,-3.07511,-7.05964,10.3905,-5.84244,19.4345,4.59882,-2.23022,6.97836,7.83212e-14,4.37326e-15,58.7359,-22.4695,-47.4758,77.6494,-3.07848,-32.9044,3.04726,7.12502,-6.12195,-26.8443,7.83212e-14,4.37326e-15,32.6204,36.2328,24.0327,84.2816,20.5025,-30.9446,25.0986,7.12502,-4.22961,55.0363,6.13178,11.6572,20.5061,41.8531,-23.4386,-11.8594,-9.32563,-1.80117,10.1963,-7.03025,60.6348,20.642,9.96656,9.00545
-1.16677,18.2819,0.74794,-15.3911,-22.3688,6.78173,-2.68282,2.1798,-1.75916,-0.966577,2.94739,-0.314521,0.439364,1.47323,0.748974,-4.37365,-3.22627,-7.41415,10.0656,-6.00274,19.6827,4.52281,-2.33104,7.10988,-2.24627e-14,-1.74931e-14,60.5878,-24.5982,-48.8479,80.0179,-3.3749,-33.2482,3.06429,7.12502,-6.45378,-26.8174,-2.24627e-14,-1.74931e-14,32.8902,38.1363,23.9533,87.3473,21.2099,-30.2023,25.21,7.12502,-3.51282,55.1608,6.06131,11.5675,20.8688,41.1012,-23.721,-12.2414,-8.83314,-2.94236,10.4514,-6.51316,61.293,21.1845,9.65942,9.14263
-1.15122,18.2828,0.737045,-14.8665,-22.1695,6.42385,-2.31238,2.12358,-1.65977,-0.909111,2.86358,-0.248862,0.294805,1.43258,0.744329,-4.24566,-3.3621,-7.72972,9.72248,-6.12951,19.8285,4.43034,-2.41999,7.20241,9.03476e-14,2.66371e-14,62.5862,-26.6833,-50.4116,82.4081,-3.60215,-33.4217,3.04401,7.12502,-6.62128,-26.8325,9.03476e-14,2.66371e-14,33.1324,40.122,24.0716,90.4252,21.5288,-29.8904,25.3892,7.12502,-3.21162,55.3448,6.07873,11.5354,21.1565,40.3168,-24.0278,-12.5098,-8.29902,-3.99373,10.706,-6.06645,61.9124,21.6639,9.38342,9.67909
-1.13523,18.2854,0.726754,-14.3922,-21.9921,6.06225,-1.92815,2.11243,-1.47122,-0.809445,2.83956,-0.207452,0.1897,1.42096,0.667571,-4.23428,-3.52035,-7.96913,9.52026,-6.29795,19.847,4.40128,-2.51931,7.23677,4.76089e-14,2.78299e-15,64.6484,-28.7987,-52.1125,84.8327,-3.80849,-33.5005,2.84749,7.12502,-6.69739,-27.0266,4.76089e-14,2.78299e-15,33.4582,41.9417,24.4037,93.4919,22.4084,-30.2295,25.185,7.12502,-3.53912,55.1353,6.1642,11.5954,21.4742,39.5106,-24.2869,-12.7732,-7.63894,-4.97242,10.9488,-5.60437,62.5089,22.037,9.2059,9.80066
-1.12048,18.2892,0.718909,-13.8869,-21.8286,5.65725,-1.57118,2.12986,-1.25076,-0.729145,2.8547,-0.137829,0.0791512,1.42885,0.603221,-4.26079,-3.67994,-8.15068,9.39024,-6.46802,19.7403,4.3951,-2.61716,7.21902,-4.27387e-14,3.57812e-15,66.7117,-30.8746,-53.8167,87.2484,-4.15643,-33.7721,2.82055,7.12502,-6.95961,-27.045,-4.27387e-14,3.57812e-15,33.8778,43.6483,24.9692,96.4861,23.4277,-30.2938,25.1023,7.12502,-3.60118,55.0516,6.26203,11.764,21.8634,38.7046,-24.6118,-12.9378,-6.65897,-5.94334,11.1567,-5.09751,63.086,22.4072,9.12258,10.4735
-1.1053,18.2935,0.711025,-13.4399,-21.664,5.3929,-1.23899,2.13072,-1.16647,-0.621258,2.85147,-0.0888153,0.00540231,1.42739,0.595106,-4.34187,-3.81016,-8.32592,9.28057,-6.59667,19.6161,4.39775,-2.69134,7.19648,3.97569e-14,1.82882e-14,68.9468,-32.8188,-55.6869,89.6613,-4.61009,-33.9256,2.53488,7.12502,-7.10771,-27.3258,3.97569e-14,1.82882e-14,34.3348,45.4895,25.7066,99.3348,24.0297,-29.9917,25.2958,7.12502,-3.30946,55.2499,6.34685,11.9315,22.0873,37.9048,-24.8285,-13.1677,-6.30799,-6.85343,11.3948,-4.751,63.6632,22.6734,8.91569,11.0378
-1.08531,18.2947,0.700222,-13.025,-21.3591,5.20394,-0.950975,2.12342,-1.1267,-0.462202,2.83929,-0.0888181,0.00917039,1.42083,0.564865,-4.28444,-3.8914,-8.55613,8.93434,-6.63709,19.6407,4.29972,-2.73441,7.2384,-9.54166e-15,1.19271e-14,71.2692,-34.8132,-57.6827,92.0082,-4.9622,-34.2005,2.43393,7.12502,-7.37314,-27.4176,-9.54166e-15,1.19271e-14,34.9406,47.2662,26.652,102.087,24.6937,-30.0253,25.4791,7.12502,-3.34192,55.4327,6.4035,12.0404,22.2192,37.1125,-24.8816,-13.5744,-6.65517,-7.82429,11.5475,-4.54469,64.288,22.7149,8.63218,11.9099
-1.06371,18.2955,0.688093,-12.5419,-20.9996,4.91005,-0.665083,2.09787,-1.0027,-0.3606,2.80187,-0.0392054,-0.0427327,1.40206,0.536931,-4.16381,-3.93353,-8.84486,8.57303,-6.62168,19.6857,4.18032,-2.75461,7.30262,-3.42904e-14,1.98785e-15,73.5909,-36.6887,-59.6988,94.2819,-5.31895,-34.8911,2.24859,7.12502,-8.03965,-27.5785,-3.42904e-14,1.98785e-15,35.4544,48.8977,27.6704,104.791,25.263,-30.0721,25.7516,7.12502,-3.38707,55.7045,6.41337,12.1591,22.4623,36.3228,-24.9635,-13.971,-6.48851,-8.89402,11.6742,-4.26297,64.9134,22.3547,8.03467,11.6999
-1.04394,18.291,0.672576,-11.9915,-20.7273,4.29246,-0.291033,2.0662,-0.586426,-0.432691,2.75482,0.0684078,-0.310761,1.37902,0.397702,-3.60871,-3.9159,-8.89426,8.30877,-6.55062,19.4695,3.98698,-2.76873,7.24896,6.53008e-14,-5.96354e-15,75.6712,-38.3374,-61.7486,96.4993,-5.78856,-35.4988,2.0822,7.12502,-8.62619,-27.7216,6.53008e-14,-5.96354e-15,35.6639,50.2099,28.4523,107.417,25.9106,-30.1966,25.8321,7.12502,-3.50727,55.783,6.48546,12.4649,23.1728,35.5307,-25.1935,-14.5216,-5.55498,-9.9249,11.8461,-3.56034,65.5008,21.0447,7.29527,9.69082
-1.0258,18.2893,0.660413,-11.459,-20.4121,3.80194,-0.00100025,2.08692,-0.262696,-0.708505,2.78096,0.0779671,-0.740779,1.39172,0.208392,-2.34207,-3.8407,-8.84168,8.07151,-6.45172,19.295,3.67019,-2.79962,7.2068,1.40143e-14,3.97569e-15,77.1484,-39.9574,-63.5137,98.7088,-6.23626,-36.1118,2.00864,7.12502,-9.21766,-27.7699,1.40143e-14,3.97569e-15,35.7147,50.989,29.1108,109.93,26.6387,-30.854,26.1607,7.12502,-4.14215,56.1002,6.56273,12.8323,23.7896,34.732,-25.3624,-15.258,-4.84906,-10.9021,11.9406,-3.03455,65.9484,18.9739,6.37579,7.40919
-1.00721,18.2932,0.655125,-10.9841,-20.0421,3.55635,0.11265,2.16758,-0.120664,-0.544374,2.8888,-0.0216572,-0.624909,1.44448,0.0262956,-2.61707,-3.96638,-8.59456,8.11318,-6.60873,19.0774,3.74,-2.86009,7.07657,-1.92821e-14,-4.37326e-15,79.5534,-42.0192,-65.9416,100.94,-6.72935,-36.7799,1.9479,7.12502,-9.86227,-27.8011,-1.92821e-14,-4.37326e-15,36.8032,52.172,30.7006,112.292,27.344,-31.6979,26.5274,7.12502,-4.95703,56.4494,6.63912,13.0073,24.0442,33.9254,-25.546,-15.814,-4.17265,-11.808,12.0121,-2.83509,66.2197,16.887,5.02784,5.69073
-0.987226,18.2951,0.646074,-10.5587,-19.65,3.34563,0.256784,2.01471,-0.146299,-0.770606,2.68553,0.141363,-0.945871,1.34366,0.197279,-1.32211,-3.69425,-9.00931,7.90689,-6.21333,18.8403,3.3972,-2.75923,7.11605,3.84648e-14,-2.38542e-14,81.5966,-42.937,-68.1755,103.088,-7.48555,-37.2854,1.87048,7.12502,-10.35,-27.8548,3.84648e-14,-2.38542e-14,35.9737,53.1223,30.8486,114.61,28.1969,-32.1818,26.4464,7.12502,-5.42431,56.357,6.72612,13.1494,24.2687,33.1096,-25.9473,-16.3341,-2.96223,-12.6919,12.0651,-2.68588,66.3311,14.5496,3.65684,2.6051
-0.966034,18.2937,0.63312,-10.1896,-19.2657,3.0684,0.555736,2.18559,0.21222,-0.52082,2.91459,-0.162149,-0.825088,1.45499,-0.320939,-1.90622,-3.92318,-8.17478,8.03726,-6.52444,18.4856,3.54783,-2.86386,6.82471,2.92213e-14,9.74045e-15,84.3283,-45.1551,-71.202,105.184,-8.13124,-37.7632,1.82251,7.12502,-10.8109,-27.8793,2.92213e-14,9.74045e-15,37.9756,54.0072,33.166,116.671,28.5594,-32.5286,26.102,7.12502,-5.75906,56.0037,6.86989,13.3147,24.6298,32.3078,-26.1856,-17.0731,-2.30239,-13.5077,12.0937,-2.43799,66.3149,11.9111,2.56397,-1.6672
-0.946784,18.2956,0.62753,-9.93334,-18.9323,2.97478,0.824679,2.22529,0.228601,-0.462331,2.96749,-0.262464,-0.909353,1.48095,-0.443238,-1.81536,-3.86036,-8.0768,8.29375,-6.4715,18.3848,3.59292,-2.83268,6.78152,-1.13307e-14,9.14409e-15,86.7849,-46.6441,-73.911,107.076,-8.64137,-38.6328,1.86751,7.12502,-11.6496,-27.7886,-1.13307e-14,9.14409e-15,38.4929,54.7931,34.3715,118.575,28.9965,-32.882,26.137,7.12502,-6.10031,56.0292,7.07238,13.4215,24.7947,31.5574,-26.1929,-17.9552,-2.52119,-14.1012,12.1544,-2.3757,66.1324,9.83344,1.88501,-4.44161
-0.926846,18.2956,0.621052,-9.65047,-18.6869,2.98071,1.01783,2.23586,0.122025,-0.454267,2.9798,-0.319294,-1.01158,1.48735,-0.450344,-1.56016,-3.75429,-8.12739,8.51714,-6.34581,18.2148,3.59161,-2.7822,6.74851,2.55935e-15,-7.15625e-15,89.3966,-47.591,-76.9864,108.947,-9.11647,-38.9913,1.94497,7.12502,-11.9953,-27.6913,2.55935e-15,-7.15625e-15,38.3978,55.5767,35.0663,120.358,29.5138,-33.0697,26.0708,7.12502,-6.28151,55.9577,7.19092,13.6786,24.8512,30.8782,-26.449,-18.6893,-1.94716,-14.6701,12.2463,-2.43151,65.813,8.43432,1.63454,-4.49802
-0.903714,18.2903,0.609079,-9.28557,-18.4533,2.88617,1.14832,2.23089,0.161297,-0.419332,2.97329,-0.379159,-1.04379,1.48363,-0.537984,-1.40725,-3.67245,-8.05917,8.68053,-6.23587,17.9452,3.58704,-2.73624,6.65842,2.85504e-14,9.93923e-15,92.1923,-48.124,-80.5791,110.935,-9.66524,-39.0754,2.30476,7.12502,-12.0764,-27.3268,2.85504e-14,9.93923e-15,38.127,56.2837,35.6395,122.039,29.88,-33.3754,25.7729,7.12502,-6.57658,55.6508,7.19183,14.0108,25.0073,30.282,-26.8214,-19.3485,-1.14687,-15.2958,12.3701,-2.39087,65.3814,7.3454,1.59258,-3.37729
-0.879411,18.2907,0.597262,-8.93595,-18.2209,2.72936,1.38047,2.20283,0.277992,-0.402432,2.93772,-0.411261,-1.14935,1.46465,-0.644687,-1.2623,-3.56605,-7.88866,8.84931,-6.07979,17.5126,3.57233,-2.66917,6.49943,-7.65569e-14,3.77691e-15,94.845,-48.5757,-84.0048,112.787,-10.3163,-39.5616,2.54782,7.12502,-12.5451,-27.0556,-7.65569e-14,3.77691e-15,37.5393,56.8343,36.0036,123.552,30.1616,-34.0163,25.5455,7.12502,-7.19526,55.4032,7.16171,14.3342,25.2154,29.7794,-26.9566,-19.9712,-0.7935,-15.8687,12.4741,-2.30378,64.8285,6.43389,1.74459,-3.02957
-0.855105,18.3012,0.582994,-8.60249,-17.9909,2.5685,1.73075,2.15499,0.331566,-0.415762,2.87582,-0.387136,-1.35865,1.43256,-0.663766,-1.09589,-3.36046,-7.76613,9.01492,-5.7828,17.0681,3.53654,-2.53566,6.35263,-5.19325e-15,3.77691e-15,97.5068,-48.8943,-87.2574,114.255,-10.9661,-40.2335,2.4131,7.12502,-13.1928,-27.1495,-5.19325e-15,3.77691e-15,36.5572,57.2302,36.0645,124.894,30.3388,-34.6461,25.4565,7.12502,-7.80321,55.2925,7.10175,14.6275,25.3999,29.3443,-26.9756,-20.4899,-0.36983,-16.404,12.5324,-2.23353,64.1441,5.65083,2.14256,-3.21596
-0.833324,18.3157,0.573053,-8.40233,-17.7542,2.51556,2.03874,2.11762,0.286324,-0.397453,2.82504,-0.409421,-1.51423,1.40687,-0.67235,-0.789362,-3.07874,-7.4596,9.0806,-5.37035,16.5273,3.42775,-2.35178,6.14903,1.963e-14,-1.59028e-15,100.026,-49.0346,-90.4255,115.456,-11.5686,-40.9911,2.01013,7.12502,-13.9231,-27.5037,1.963e-14,-1.59028e-15,35.4949,57.4294,35.9828,126.009,30.3844,-35.0022,25.5024,7.12502,-8.14688,55.3253,7.16206,14.9194,25.4747,28.9373,-27.1188,-20.7744,0.451174,-16.7242,12.5274,-2.2572,63.329,4.89413,2.6599,-2.71909
-0.806988,18.3279,0.568873,-8.31767,-17.5059,2.5161,2.30367,2.10685,0.27732,-0.329075,2.80964,-0.480949,-1.58967,1.39875,-0.749248,-0.385477,-2.81045,-7.11046,9.00266,-4.9666,16.025,3.26539,-2.17735,5.94957,-1.44492e-14,-8.94531e-16,102.165,-49.0756,-93.3495,116.657,-12.2503,-41.7593,1.18405,7.12502,-14.6632,-28.2775,-1.44492e-14,-8.94531e-16,34.2682,57.3624,35.8419,127.028,30.3931,-35.4807,25.3145,7.12502,-8.60871,55.119,7.28088,14.8966,25.3546,28.5438,-27.1237,-20.7825,0.457988,-16.871,12.432,-2.36607,62.4267,3.98738,3.17909,-2.12293
-0.775336,18.3372,0.561529,-8.24257,-17.2452,2.43539,2.58228,2.05882,0.338818,-0.231053,2.74795,-0.473557,-1.64366,1.36736,-0.782739,-0.166503,-2.54274,-6.9735,9.13991,-4.5792,15.5359,3.20863,-2.00181,5.78878,-4.87644e-14,8.44835e-15,103.9,-48.9332,-95.9777,117.911,-13.1066,-42.3317,0.327988,7.12502,-15.2147,-29.0926,-4.87644e-14,8.44835e-15,32.7169,57.1549,35.5906,127.955,30.4471,-36.247,24.7126,7.12502,-9.34812,54.4853,7.34745,14.49,25.1442,28.1834,-26.9331,-20.4415,0.179361,-16.9979,12.265,-2.39407,61.458,3.01212,3.88972,-0.969205
-0.740405,18.3477,0.554331,-8.07366,-17.0468,2.20377,2.81475,2.01483,0.584434,-0.161242,2.69834,-0.449656,-1.69292,1.34042,-0.901022,-0.0886977,-2.27159,-6.72031,9.49569,-4.20562,14.975,3.24167,-1.81914,5.58401,-5.70015e-14,-5.86415e-15,105.299,-48.8325,-98.2999,119.02,-13.8578,-43.4013,1.11976,7.12502,-16.2448,-28.2197,-5.70015e-14,-5.86415e-15,31.1064,56.7385,35.3234,128.699,30.323,-36.8855,23.8899,7.12502,-9.96417,53.6341,7.31892,14.0416,25.0525,27.858,-26.5958,-19.9982,0.475467,-17.1601,12.1275,-2.25877,60.4312,2.05861,4.74317,-0.370229
-0.704824,18.3585,0.550818,-7.88906,-16.8283,2.12207,2.9926,1.97863,0.624754,-0.150416,2.65249,-0.434891,-1.78124,1.31669,-0.91333,0.118603,-2.03058,-6.32993,9.71226,-3.85337,14.3032,3.21404,-1.65543,5.32,1.81391e-14,5.66536e-15,106.254,-48.7532,-100.191,119.932,-14.245,-45.1003,4.2993,7.12502,-17.8801,-24.8987,1.81391e-14,5.66536e-15,29.2321,56.1184,34.9331,129.322,30.0249,-37.1748,23.5137,7.12502,-10.2433,53.2442,7.24262,13.8332,24.8891,27.5666,-26.3271,-19.8662,0.607748,-17.3357,11.9437,-2.31786,59.3458,0.985243,5.79842,-0.252426
-0.670802,18.3689,0.549632,-7.72768,-16.6585,2.1728,2.61696,2.04878,0.762998,0.256279,2.74643,-0.560995,-1.13937,1.36782,-1.09781,-0.112713,-1.93162,-6.05659,9.67016,-3.6716,13.8794,3.21199,-1.56183,5.14241,-4.07384e-14,-8.05078e-15,107.851,-48.8882,-102.56,120.759,-14.6287,-46.4949,6.35207,7.12502,-19.2216,-22.718,-4.07384e-14,-8.05078e-15,28.3606,55.4703,35.4785,129.757,29.5296,-37.4115,23.3714,7.12502,-10.4716,53.0906,7.15304,13.7741,24.6341,27.3179,-26.1668,-19.8886,0.160498,-17.4538,11.7768,-2.50333,58.212,-0.330331,6.86586,-0.852298
-0.638139,18.3766,0.546001,-7.53672,-16.5917,2.0465,2.61969,2.0552,0.872918,0.363509,2.75834,-0.536258,-1.02677,1.37455,-1.13164,-0.240489,-1.747,-5.99553,9.95541,-3.41553,13.5504,3.28635,-1.43156,5.03822,-2.82647e-15,1.21259e-14,108.497,-48.8284,-104.267,121.504,-15.2696,-47.2684,6.5453,7.12502,-19.9653,-22.4491,-2.82647e-15,1.21259e-14,26.5565,54.5369,35.1897,129.931,29.0425,-37.7355,22.9479,7.12502,-10.7842,52.6511,7.04006,13.8292,24.6311,27.1304,-26.0365,-20.0273,-0.230594,-17.5295,11.7138,-2.44692,57.0761,-1.53117,7.8104,-1.31283
-0.607663,18.3861,0.540558,-7.29525,-16.5652,1.87946,2.77534,2.04089,0.912865,0.324714,2.74217,-0.485705,-1.15465,1.36528,-1.10904,-0.409049,-1.52477,-5.935,10.3385,-3.1209,13.2683,3.39433,-1.27755,4.95135,5.67779e-14,1.47101e-14,108.41,-48.7282,-105.431,122.103,-15.5697,-47.4754,5.77519,7.12502,-20.1643,-23.1983,5.67779e-14,1.47101e-14,24.6129,53.4168,34.7503,129.875,28.5485,-37.8191,22.5735,7.12502,-10.8648,52.2724,6.82744,14.005,24.7234,27.0152,-25.9441,-20.2804,-0.304665,-17.626,11.7208,-2.33884,55.8809,-2.41121,8.72698,-1.00913
-0.575154,18.3956,0.534404,-7.0876,-16.4555,1.81984,2.91664,2.00802,0.882596,0.330641,2.69801,-0.511548,-1.22893,1.34278,-1.12258,-0.681321,-1.34129,-5.90614,10.656,-2.88252,13.1424,3.5092,-1.14549,4.91664,1.74931e-14,2.5842e-15,108.092,-48.7326,-106.415,122.521,-15.5255,-47.4021,4.57756,7.12502,-20.0939,-24.4033,1.74931e-14,2.5842e-15,22.8833,52.1628,34.4117,129.684,28.269,-37.8001,22.3801,7.12502,-10.8465,52.08,6.61711,14.1295,24.688,26.942,-25.9251,-20.4961,0.0376633,-17.7011,11.6341,-2.36387,54.5901,-3.27049,9.69812,-0.499399
-0.542338,18.4018,0.530071,-6.98061,-16.2874,1.96505,3.01677,1.99779,0.690857,0.359553,2.67685,-0.637859,-1.25861,1.33277,-1.1473,-0.696646,-1.2472,-5.8664,10.6755,-2.75132,13.0939,3.50359,-1.07983,4.89936,-6.28967e-15,1.58034e-14,107.537,-48.9272,-107.219,122.763,-15.2613,-47.1583,4.03805,7.12502,-19.8595,-24.9673,-6.28967e-15,1.58034e-14,21.5986,50.7729,34.4094,129.274,27.9888,-37.3495,22.2222,7.12502,-10.4118,51.9444,6.46662,14.2549,24.4602,26.9019,-25.981,-20.7852,0.101217,-17.6589,11.3997,-2.62279,53.1854,-4.15,10.6937,-1.05684
-0.510295,18.408,0.528093,-6.98216,-16.2268,2.07367,3.2541,2.00216,0.498748,0.360895,2.67522,-0.72972,-1.39449,1.33185,-1.14351,-0.708931,-1.19947,-5.69856,10.7344,-2.67023,12.8189,3.51141,-1.04201,4.78731,-4.14249e-14,1.42131e-14,106.439,-49.0817,-107.598,122.888,-14.6877,-46.8112,3.39159,7.12502,-19.5258,-25.648,-4.14249e-14,1.42131e-14,20.4372,49.3236,34.5469,128.638,27.686,-36.5159,22.0792,7.12502,-9.60761,51.8401,6.43722,14.4631,24.3089,26.8739,-26.0204,-21.0449,0.0401436,-17.3936,11.1909,-2.77428,51.6929,-4.84676,11.5832,-1.27186
-0.477124,18.4134,0.529613,-6.94994,-16.2252,2.04203,3.44826,1.99614,0.443657,0.390611,2.66467,-0.768764,-1.47355,1.32637,-1.15933,-0.897584,-1.11768,-5.52387,10.8757,-2.54591,12.5415,3.5699,-0.974796,4.67512,-2.34605e-14,1.83689e-14,105.029,-49.1658,-107.646,122.92,-14.0377,-46.5418,2.61676,7.12502,-19.2668,-26.4488,-2.34605e-14,1.83689e-14,19.3233,47.7823,34.7277,127.887,27.7475,-35.8642,22.0285,7.12502,-8.97881,51.8174,6.42771,14.6301,24.2696,26.8387,-26.0203,-21.1599,0.0269608,-17.0932,10.9965,-2.73643,50.1774,-5.32558,12.2621,-0.120133
-0.441847,18.4157,0.52921,-6.85586,-16.124,1.92063,3.54954,1.97468,0.507383,0.463382,2.63796,-0.814198,-1.45117,1.31293,-1.24246,-1.00145,-0.971996,-5.5669,10.838,-2.34864,12.6481,3.55854,-0.872028,4.72233,-1.08043e-14,-4.47266e-16,103.481,-49.375,-107.463,122.797,-13.2771,-46.413,2.01372,7.12502,-19.1429,-27.0642,-1.08043e-14,-4.47266e-16,18.5487,46.0679,35.2121,126.991,27.8813,-35.1994,22.4638,7.12502,-8.33722,52.2793,6.39185,14.6829,24.2922,26.7582,-25.9889,-21.3111,-0.116974,-16.8851,10.6486,-2.63405,48.6534,-5.76397,12.8459,1.36429
-0.404884,18.4178,0.529917,-6.73333,-15.9979,1.66483,3.69201,1.95177,0.688347,0.484467,2.61491,-0.810193,-1.5019,1.30018,-1.3435,-1.1148,-0.839074,-5.70664,10.8767,-2.17795,12.8186,3.57474,-0.78136,4.80625,2.1096e-14,-8.34896e-15,101.473,-49.6587,-106.801,122.506,-12.3848,-46.0988,1.2869,7.12502,-18.8407,-27.8207,2.1096e-14,-8.34896e-15,17.867,44.2184,35.8023,125.877,27.9037,-34.5932,22.8903,7.12502,-7.75216,52.7282,6.35736,14.6711,24.4456,26.6525,-25.9343,-21.4619,-0.276947,-16.6674,10.2065,-2.39897,47.1168,-6.20527,13.4594,1.77985
-0.36733,18.4212,0.53654,-6.68324,-15.9018,1.58365,3.84131,1.93833,0.660832,0.465371,2.59617,-0.810883,-1.60673,1.29011,-1.3343,-1.32635,-0.825934,-5.64968,11.1236,-2.15367,12.5619,3.68027,-0.764476,4.71893,-7.18234e-14,-3.13086e-15,98.8998,-49.9341,-105.628,122.164,-11.7872,-45.662,0.47412,7.12502,-18.4206,-28.6737,-7.18234e-14,-3.13086e-15,17.1123,42.2909,36.3786,124.591,28.0886,-34.0851,22.9919,7.12502,-7.26175,52.8473,6.37074,14.5567,24.3542,26.5262,-25.9147,-21.4074,-0.342551,-16.3643,9.76817,-2.34392,45.5614,-6.52349,13.9924,0.736305
-0.328489,18.4264,0.546139,-6.72947,-15.7889,1.70794,3.95291,1.92537,0.44999,0.47948,2.56875,-0.877037,-1.66166,1.27717,-1.28695,-1.44903,-0.860536,-5.4586,11.2341,-2.1748,12.1606,3.73282,-0.777439,4.56003,-4.21486e-14,5.46658e-16,95.8881,-50.1923,-104.056,121.799,-11.4984,-45.1157,0.477418,7.12502,-17.895,-28.7193,-4.21486e-14,5.46658e-16,16.523,40.3472,37.1316,123.198,28.5259,-33.6555,23.3466,7.12502,-6.84705,53.2159,6.47361,14.5119,24.0608,26.3631,-25.8431,-21.3742,-0.446753,-15.9687,9.17921,-2.50889,43.9927,-6.9743,14.4282,0.0871028
-0.288855,18.4319,0.553802,-6.71556,-15.5854,1.67356,4.01735,1.89688,0.369306,0.510243,2.5266,-0.911789,-1.6691,1.25655,-1.27707,-1.5203,-0.870516,-5.41512,11.2128,-2.17558,12.0612,3.73791,-0.778347,4.52085,1.13991e-14,4.17448e-15,92.7499,-50.4785,-102.376,121.256,-10.6308,-44.9387,0.157681,7.12502,-17.7246,-29.0545,1.13991e-14,4.17448e-15,16.1141,38.3477,38.0475,121.722,29.1252,-33.3956,23.5484,7.12502,-6.5961,53.4256,6.55745,14.4477,23.9555,26.2036,-25.6932,-21.4448,-0.48891,-15.6904,8.43644,-2.51796,42.4487,-7.19977,14.869,-0.818741
-0.248466,18.4354,0.563118,-6.62106,-15.3325,1.52638,4.0166,1.8515,0.348107,0.536201,2.46572,-0.887649,-1.64546,1.22654,-1.23667,-1.73056,-0.857403,-5.5349,11.3063,-2.16251,12.1453,3.8018,-0.764045,4.56894,1.3331e-14,6.95746e-15,89.6053,-50.6792,-100.717,120.694,-9.93,-44.3288,0.598929,7.12502,-17.1377,-28.6653,1.3331e-14,6.95746e-15,15.7426,36.4238,39.0927,120.113,29.6666,-33.0204,23.7261,7.12502,-6.23393,53.6143,6.60444,14.3003,23.9536,26.0397,-25.633,-21.506,-0.384847,-15.52,7.69952,-2.41393,40.9906,-7.25325,15.1293,-2.17992
-0.205369,18.4342,0.578756,-6.5763,-15.1089,1.50707,4.0287,1.81892,0.213688,0.503049,2.41628,-0.882195,-1.6932,1.20232,-1.1546,-1.89756,-0.864672,-5.64861,11.498,-2.17861,12.1452,3.8899,-0.766864,4.58975,2.11271e-14,-5.56597e-15,86.0483,-50.901,-98.6779,120.24,-10.6022,-43.5814,1.86702,7.12502,-16.4182,-27.4582,2.11271e-14,-5.56597e-15,15.3308,34.4967,40.193,118.343,30.0477,-32.8454,23.7059,7.12502,-6.065,53.5991,6.69007,14.1569,23.7932,25.9018,-25.7118,-21.5235,-0.536258,-15.1374,6.92167,-2.46373,39.5179,-7.74061,15.2191,-1.47968
-0.161912,18.4343,0.592031,-6.48624,-14.9121,1.34916,4.08991,1.78914,0.217569,0.413419,2.37675,-0.852566,-1.82138,1.18178,-1.12856,-1.88709,-0.830482,-5.74148,11.5671,-2.13565,12.1708,3.90546,-0.747114,4.61637,3.86574e-14,0,81.734,-51.1441,-95.8213,119.313,-9.68713,-43.4907,1.27017,7.12502,-16.3309,-28.0622,3.86574e-14,0,14.942,32.4796,41.305,116.426,30.2282,-33.0974,23.3582,7.12502,-6.30828,53.2443,6.73344,14.0293,23.784,25.7949,-25.727,-21.5557,-0.789191,-14.7047,6.13684,-2.3646,38.076,-8.47861,15.2564,-0.273168
-0.117311,18.4313,0.609684,-6.4365,-14.6697,1.27113,4.08702,1.77725,0.174087,0.374073,2.35833,-0.874055,-1.86138,1.17255,-1.12606,-2.01095,-0.816199,-5.84428,11.6814,-2.1257,12.2559,3.96098,-0.73596,4.66259,8.64713e-15,1.63003e-14,77.5871,-51.3125,-93.1839,118.391,-9.1033,-42.9703,1.13609,7.12502,-15.8297,-28.2368,8.64713e-15,1.63003e-14,14.7488,30.5118,42.5774,114.432,30.663,-32.8592,23.5351,7.12502,-6.07824,53.428,6.77618,13.878,23.6922,25.7356,-25.6482,-21.6336,-1.10697,-14.4584,5.25929,-2.37845,36.5591,-8.44027,15.694,-2.98224
-0.0722022,18.4304,0.632281,-6.44593,-14.4614,1.35652,4.03545,1.78182,-0.0317487,0.394883,2.35405,-0.943052,-1.81664,1.17194,-1.07918,-2.45745,-0.896496,-5.95931,11.9745,-2.24463,12.29,4.13789,-0.776811,4.69134,1.2424e-15,1.11319e-14,73.4521,-51.1266,-90.7659,117.559,-8.59146,-42.5522,1.7573,7.12502,-15.4271,-27.647,1.2424e-15,1.11319e-14,14.8917,28.7489,44.1067,112.266,31.0909,-32.015,24.428,7.12502,-5.26323,54.3427,6.86107,13.8826,23.4791,25.6899,-25.6587,-21.8558,-1.37975,-14.0896,4.3761,-2.57645,35.085,-8.58146,16.0832,-4.92902
-0.0262544,18.4315,0.653384,-6.43429,-14.2495,1.39657,4.0848,1.74982,-0.269515,0.331386,2.29901,-0.975607,-1.91846,1.1457,-0.979809,-2.72356,-0.931082,-6.1138,12.2351,-2.30704,12.3773,4.26962,-0.795789,4.74609,1.7903e-14,1.27222e-14,68.9818,-50.6483,-88.1489,116.667,-7.89163,-41.9773,2.02804,7.12502,-14.8733,-27.4181,1.7903e-14,1.27222e-14,14.9569,26.9884,45.6123,109.821,31.137,-31.7336,24.8841,7.12502,-4.99148,54.8053,6.8954,13.8394,23.2838,25.6933,-25.7176,-21.991,-1.60601,-13.6977,3.38163,-2.73123,33.6255,-8.87553,16.5226,-5.17926
0.0223953,18.4298,0.675505,-6.43626,-14.011,1.4169,4.18108,1.71141,-0.440649,0.226207,2.23674,-1.02597,-2.08584,1.11534,-0.937897,-2.82684,-0.911192,-6.25274,12.4293,-2.29456,12.4623,4.34607,-0.784114,4.80043,-2.34814e-15,-1.41137e-14,64.4064,-50.0612,-85.3767,115.514,-7.02479,-41.4109,1.9067,7.12502,-14.3276,-27.5789,-2.34814e-15,-1.41137e-14,14.7854,25.0653,46.7707,107.168,31.325,-32.1829,24.7328,7.12502,-5.42533,54.6433,6.90562,13.6099,23.0225,25.7163,-25.677,-21.9069,-1.6608,-13.3625,2.4772,-2.8947,32.3503,-9.18824,16.9477,-5.3749
0.0731297,18.4232,0.69836,-6.38987,-13.8547,1.26613,4.17214,1.72025,-0.360346,0.181549,2.25089,-1.07772,-2.12137,1.12132,-1.03737,-2.99528,-0.888106,-6.32542,12.588,-2.27757,12.5575,4.42229,-0.765168,4.84649,-5.99957e-14,4.57205e-15,60.0718,-49.3982,-82.8498,114.224,-6.31692,-40.8715,2.08101,7.12502,-13.8078,-27.4407,-5.99957e-14,4.57205e-15,14.6913,23.097,47.8437,104.441,31.7114,-32.3571,25.108,7.12502,-5.5935,55.0141,6.91165,13.5243,22.9933,25.7264,-25.5919,-21.9959,-2.00799,-13.071,1.75499,-2.86414,31.2404,-9.51841,17.2471,-5.74612
0.124658,18.4146,0.72151,-6.31543,-13.7225,0.93893,4.1092,1.72506,-0.190481,0.174022,2.26751,-1.00894,-2.08978,1.12845,-1.06071,-3.19161,-0.891747,-6.44541,12.7337,-2.27329,12.5119,4.50038,-0.761224,4.85499,1.06101e-14,-1.21259e-14,55.7952,-48.4803,-80.3884,112.908,-5.77202,-40.6002,2.15353,7.12502,-13.5463,-27.3858,1.06101e-14,-1.21259e-14,14.558,21.2895,49.0011,101.685,32.0829,-30.6666,26.5958,7.12502,-3.9612,56.5387,6.96905,13.529,23.2029,25.7408,-25.659,-22.1196,-2.36282,-12.8382,1.11084,-2.64304,30.2691,-9.86574,17.5259,-6.19898
0.177936,18.4064,0.749198,-6.30125,-13.5596,0.676756,4.12651,1.71138,-0.141698,0.140964,2.25324,-0.918841,-2.1354,1.12107,-0.99609,-3.29318,-0.923406,-6.4637,12.8355,-2.28373,12.2237,4.54823,-0.776802,4.76695,-6.4605e-15,-1.61016e-14,51.4838,-47.345,-77.9484,111.438,-5.00522,-40.4692,2.25618,7.12502,-13.4201,-27.2915,-6.4605e-15,-1.61016e-14,14.2065,19.5601,50.0793,98.9078,32.4003,-31.1157,26.1494,7.12502,-4.39484,56.0838,7.07688,13.372,23.2796,25.7657,-25.7309,-22.1048,-2.8204,-12.6029,0.47534,-2.54638,29.4197,-10.1204,17.9199,-6.98399
0.234228,18.3981,0.781142,-6.29111,-13.3672,0.618654,4.11512,1.71502,-0.226027,0.100172,2.25377,-0.923743,-2.17399,1.12197,-0.954507,-3.52415,-0.965978,-6.45864,12.9647,-2.31676,12.0075,4.62924,-0.794234,4.69711,-1.38901e-14,1.70955e-14,47.5042,-46.1567,-75.7533,109.678,-4.12272,-40.0617,2.63363,7.12502,-13.0273,-26.9396,-1.38901e-14,1.70955e-14,13.8673,17.7865,51.1313,96.0045,32.5473,-30.8972,26.2105,7.12502,-4.18391,56.1491,7.12841,13.0962,23.0589,25.7821,-25.6848,-22.008,-3.23728,-12.4034,-0.151727,-2.71585,28.6889,-10.403,18.2698,-7.22462
0.290545,18.3937,0.813842,-6.17367,-13.1966,0.616558,3.98085,1.75426,-0.359859,0.03617,2.29951,-0.966138,-2.16741,1.14594,-0.922553,-3.785,-1.00416,-6.41804,13.0634,-2.3427,11.797,4.70523,-0.806138,4.62281,1.06847e-15,-1.94809e-14,43.7395,-44.9532,-73.5961,107.67,-3.54511,-39.7375,3.32474,7.12502,-12.7147,-26.2682,1.06847e-15,-1.94809e-14,13.6644,16.0739,52.3192,93.0185,32.5804,-30.4514,26.7606,7.12502,-3.7534,56.7073,7.01334,12.7345,22.6994,25.8096,-25.6417,-21.7321,-3.4918,-12.3307,-0.699615,-2.97439,28.0612,-10.8461,18.7079,-6.37809
0.347851,18.3862,0.847393,-6.1234,-13.0277,0.425783,3.90316,1.76314,-0.30089,0.0340337,2.31493,-0.961352,-2.12373,1.1532,-0.948768,-4.01289,-0.996479,-6.40355,13.1061,-2.29892,11.5829,4.752,-0.787713,4.55468,-2.5196e-14,2.5842e-14,40.2994,-43.5842,-71.7977,105.59,-3.17234,-38.7456,4.06852,7.12502,-11.7583,-25.5814,-2.5196e-14,2.5842e-14,13.612,14.5544,53.5695,89.9914,32.4464,-29.8523,27.4049,7.12502,-3.17487,57.361,7.00433,12.303,22.5475,25.8744,-25.6531,-21.409,-3.72289,-12.2101,-1.1607,-3.03704,27.5389,-11.524,19.0978,-4.31426
0.406706,18.371,0.883944,-6.19387,-12.8607,0.199287,3.94433,1.74834,-0.22886,-0.0779287,2.29794,-0.932501,-2.26043,1.14359,-0.962444,-3.6904,-0.859289,-6.59517,13.0407,-2.11423,11.6827,4.66042,-0.711597,4.6283,6.23687e-15,-1.59028e-15,36.8707,-41.9502,-70.1953,103.328,-2.70547,-36.7067,4.73219,7.12502,-9.7917,-25.0202,6.23687e-15,-1.59028e-15,13.2541,12.8634,54.5834,86.8304,32.0675,-29.8031,27.8823,7.12502,-3.12735,57.8391,7.16324,12.0582,22.5384,25.9645,-25.7505,-21.3221,-4.14659,-11.9913,-1.42811,-3.07365,27.1298,-12.0791,19.2977,-3.22329
0.468712,18.3555,0.920419,-6.26464,-12.7026,-0.034632,4.07838,1.75538,-0.188431,-0.15148,2.30808,-0.913254,-2.41027,1.14767,-0.972297,-3.7251,-0.761172,-6.63672,13.1271,-1.98651,11.7227,4.68052,-0.645928,4.65629,4.12975e-14,6.36111e-15,33.8593,-40.3667,-68.9739,100.766,-1.93995,-36.3014,4.93735,7.12502,-9.40065,-24.833,4.12975e-14,6.36111e-15,13.0611,11.2385,55.5583,83.5258,31.3771,-29.6942,28.6421,7.12502,-3.02218,58.6005,7.31625,11.9172,22.572,26.0829,-25.8237,-21.3689,-4.92477,-11.7996,-1.80641,-3.12795,26.8581,-12.6435,19.5465,-2.82834
0.530903,18.3403,0.956416,-6.35638,-12.5301,-0.283745,4.10371,1.79648,-0.0921886,-0.072965,2.36796,-0.912049,-2.33903,1.17677,-1.02755,-3.89357,-0.786327,-6.60759,13.0728,-1.99611,11.6119,4.6936,-0.650756,4.61456,-1.15047e-14,1.07344e-14,31.2403,-39.0129,-68.0062,98.0504,-1.05175,-37.7223,4.73699,7.12502,-10.7714,-24.9668,-1.15047e-14,1.07344e-14,13.1984,9.83483,56.7099,80.1241,30.1883,-28.8955,29.0353,7.12502,-2.25083,59.0032,7.47032,11.7857,22.6333,26.2462,-25.7727,-21.3943,-5.76256,-11.6281,-2.27403,-3.19494,26.702,-13.213,19.8591,-2.6375
0.594819,18.3228,0.983923,-6.27199,-12.361,-0.782107,3.72885,1.86933,0.400959,0.245829,2.49029,-0.933602,-1.7776,1.23676,-1.31052,-4.3605,-0.905827,-6.6925,12.8793,-2.12406,11.6905,4.72959,-0.701727,4.64447,1.98288e-14,-2.74323e-14,29.2124,-37.9032,-67.4011,95.2322,-0.556441,-38.2191,4.36189,7.12502,-11.2506,-25.3164,1.98288e-14,-2.74323e-14,13.8017,8.51457,57.8716,76.6129,28.6222,-28.2062,28.942,7.12502,-1.58508,58.9159,7.41202,11.6311,22.932,26.4874,-25.7354,-21.409,-6.13409,-11.6579,-2.43622,-2.98392,26.5767,-13.4413,20.0336,-2.84138
0.664304,18.3051,1.01596,-6.13243,-12.1024,-1.19822,3.70776,1.79277,0.532655,0.128251,2.39608,-0.800225,-1.88912,1.18804,-1.24461,-4.31624,-0.853813,-6.78337,12.906,-2.02842,11.539,4.72052,-0.668361,4.61715,2.18166e-14,-1.98785e-15,26.7867,-35.9863,-66.468,92.2849,-0.468152,-37.8605,3.65103,7.12502,-10.9047,-26.0458,2.18166e-14,-1.98785e-15,13.4435,7.27291,58.87,73.2685,26.6495,-27.52,29.3243,7.12502,-0.922352,59.3021,7.28023,11.3695,23.0823,26.7897,-25.8633,-21.3765,-6.48716,-11.7687,-2.59796,-2.9154,26.4738,-13.4666,20.1744,-2.61383
0.738954,18.2897,1.06625,-6.34003,-11.6917,-0.881058,3.58146,1.7399,0.0516165,0.161511,2.30356,-0.914884,-1.80075,1.14598,-1.08333,-4.16568,-0.849091,-6.71239,12.7916,-1.98958,11.263,4.6543,-0.667349,4.517,7.20097e-14,7.95139e-16,24.5193,-34.0951,-65.6737,89.3292,-0.60443,-37.2162,2.67802,7.12502,-10.2832,-27.0506,7.20097e-14,7.95139e-16,13.2387,6.03106,59.8873,70.0089,24.3162,-26.4678,30.3702,7.12502,0.0939564,60.3499,7.45824,10.9578,22.3983,27.1159,-26.0525,-21.2131,-7.1694,-11.5901,-3.00988,-3.77961,26.4211,-13.4252,20.4353,-2.05943
0.813472,18.2754,1.11741,-6.60708,-11.3404,-0.618694,3.49188,1.71553,-0.388122,0.253172,2.25289,-1.01372,-1.67046,1.12417,-0.931245,-4.18304,-0.83949,-6.71226,12.7401,-1.9511,11.1092,4.63737,-0.656964,4.46918,-1.2275e-14,-1.51076e-14,22.4038,-32.1954,-64.9796,86.4727,-1.13764,-35.933,1.64743,7.12502,-9.04517,-28.1386,-1.2275e-14,-1.51076e-14,12.9761,4.62286,60.7264,67.0622,21.9833,-25.6361,31.5951,7.12502,0.89721,61.5729,7.69671,10.6816,21.811,27.4223,-26.098,-21.1342,-7.97649,-11.3307,-3.25993,-4.59106,26.4095,-13.1588,20.6572,-1.53232
0.891693,18.2649,1.16632,-6.7722,-11.118,-0.83379,3.48335,1.71008,-0.336255,0.363441,2.24965,-0.966369,-1.55251,1.1227,-0.90891,-4.36692,-0.795337,-6.84525,12.6821,-1.86253,11.0951,4.64403,-0.615667,4.49133,2.2413e-14,-5.96354e-15,20.4892,-30.2998,-64.292,83.6776,-1.99079,-34.1475,0.175826,7.12502,-7.32194,-29.6775,2.2413e-14,-5.96354e-15,12.7413,3.23343,61.5853,64.1904,19.6293,-24.8416,32.6443,7.12502,1.66459,62.6175,7.90846,10.5477,21.7798,27.7111,-25.9991,-21.1775,-9.11184,-11.1013,-3.36111,-4.84617,26.4243,-12.6614,20.8997,-0.951855
0.973059,18.2564,1.21674,-6.87364,-10.9135,-1.11686,3.49048,1.70684,-0.241456,0.433457,2.25087,-0.88777,-1.48418,1.1232,-0.880201,-4.45374,-0.768347,-7.03177,12.5611,-1.79922,11.1389,4.61778,-0.589705,4.5387,9.54166e-15,-1.82882e-14,18.6544,-28.3381,-63.5887,80.9776,-2.87162,-32.3157,-1.44406,7.12502,-5.55358,-31.3513,9.54166e-15,-1.82882e-14,12.5774,2.30027,62.8909,61.0431,16.9308,-23.7783,33.3924,7.12502,2.69146,63.3552,8.10561,10.4204,21.7957,27.9603,-25.7861,-21.1776,-10.0776,-10.9362,-3.59846,-5.02189,26.5145,-11.3141,21.0847,-1.5798
1.05673,18.2462,1.26191,-6.91578,-10.6252,-1.35619,3.55053,1.65332,-0.241244,0.425002,2.18016,-0.818659,-1.53004,1.08792,-0.808417,-4.52085,-0.744623,-7.14818,12.4714,-1.74325,11.1259,4.59758,-0.567367,4.55606,3.926e-15,7.15625e-15,16.8462,-26.2032,-62.972,78.4146,-3.7266,-30.3627,-3.05209,7.12502,-3.66775,-33.0003,3.926e-15,7.15625e-15,12.2194,1.49969,64.2072,58.0798,14.121,-22.6238,34.2508,7.12502,3.80644,64.1965,8.23656,10.1984,21.7146,28.1721,-25.5479,-21.1335,-10.8496,-10.9378,-4.10619,-5.19347,26.6838,-9.52075,21.1307,-3.33322
1.14144,18.2411,1.30941,-7.03481,-10.3391,-1.50546,3.6224,1.62518,-0.264966,0.446343,2.1409,-0.841338,-1.54883,1.06836,-0.81842,-4.54625,-0.735833,-7.02709,12.2795,-1.70867,10.99,4.53945,-0.553864,4.49101,3.42904e-14,-1.51076e-14,15.0834,-24.1499,-62.5487,75.997,-4.35505,-28.1273,-4.86326,7.12502,-1.50889,-34.8377,3.42904e-14,-1.51076e-14,11.7044,0.365892,65.1847,55.623,11.666,-21.1457,35.2015,7.12502,5.23363,65.1169,8.38534,10.0121,21.5288,28.4157,-25.2475,-21.0308,-11.6521,-10.9609,-4.76723,-5.38281,26.8961,-8.63459,21.4725,-4.59311
1.22516,18.2461,1.35784,-7.22724,-10.1297,-1.618,3.75601,1.65671,-0.316043,0.507065,2.17886,-0.915499,-1.5599,1.08742,-0.870839,-4.59359,-0.777046,-6.82374,12.1431,-1.75732,10.883,4.50937,-0.574714,4.41781,-2.23633e-14,-2.06736e-14,13.3106,-22.1991,-62.2848,73.7998,-4.94782,-26.1126,-6.27552,7.12502,0.436977,-36.2548,-2.23633e-14,-2.06736e-14,11.222,-0.975169,66.062,53.5085,9.6788,-19.2703,36.2851,7.12502,7.04424,66.1479,8.56684,9.93633,21.351,28.7438,-24.6773,-21.0462,-13.2911,-10.9865,-5.268,-5.54911,27.1747,-8.22101,22.33,-5.93376
1.30828,18.2489,1.40399,-7.52313,-9.94076,-1.66297,4.04508,1.69414,-0.493872,0.598444,2.21774,-0.980555,-1.63157,1.10751,-0.84788,-4.62062,-0.826987,-6.81444,11.9936,-1.81746,10.9186,4.4747,-0.603068,4.42221,3.78685e-14,-1.66979e-14,11.6079,-20.2028,-62.1328,71.8135,-5.61098,-23.6141,-7.37846,7.12502,2.85005,-37.3392,3.78685e-14,-1.66979e-14,10.7436,-2.53954,66.8844,51.6225,7.86191,-17.6676,37.7521,7.12502,8.59112,67.5573,8.78649,9.80221,21.1044,29.1958,-23.9671,-21.1176,-15.443,-10.9365,-5.44743,-5.78332,27.5559,-7.62504,23.0659,-6.14855
1.39368,18.2486,1.45077,-7.87336,-9.7248,-1.6259,4.34232,1.74523,-0.733813,0.723566,2.27062,-1.06585,-1.67468,1.13486,-0.811642,-4.67893,-0.924974,-6.81975,11.8731,-1.931,10.8589,4.45885,-0.662188,4.39646,-1.54058e-14,2.22639e-14,9.96915,-18.3251,-62.1188,69.9109,-6.0628,-20.9338,-7.7208,7.12502,5.43823,-37.631,-1.54058e-14,2.22639e-14,10.185,-4.25686,67.6799,49.8569,6.05751,-15.9708,38.894,7.12502,10.2283,68.6253,8.94999,9.50789,20.7032,29.8018,-23.4433,-20.9487,-16.8595,-10.8595,-5.26835,-6.11645,28.0497,-7.34429,22.7054,-5.01711
1.47963,18.2492,1.49426,-8.06693,-9.46318,-1.51096,4.53912,1.82602,-1.015,0.793843,2.35898,-1.23697,-1.71597,1.17993,-0.840541,-4.82184,-1.03541,-6.80996,11.8231,-2.08463,10.9661,4.48335,-0.727985,4.41988,-1.74931e-14,-2.8625e-14,8.19224,-16.6938,-62.2554,68.2192,-6.34296,-19.4156,-7.79033,7.12502,6.904,-37.6578,-1.74931e-14,-2.8625e-14,9.60641,-6.00211,68.5273,48.2428,4.33373,-14.2333,39.3584,7.12502,11.9041,69,8.82348,9.14628,20.1336,30.58,-23.1732,-20.5224,-17.3819,-11.0528,-4.63002,-6.53415,28.6571,-6.99518,21.2877,-4.87228
1.56688,18.2517,1.54137,-8.23207,-9.22288,-1.24221,4.66751,1.91959,-1.42556,0.902056,2.45747,-1.48249,-1.6824,1.23029,-0.871215,-5.05132,-1.12702,-6.89432,11.7012,-2.21951,11.2856,4.50184,-0.775681,4.52664,8.24956e-15,1.27222e-14,6.46185,-15.1496,-62.6083,66.734,-6.709,-18.0403,-8.4378,7.12502,8.23143,-38.2575,8.24956e-15,1.27222e-14,9.08772,-7.74943,69.2842,46.7934,2.6774,-12.5422,39.427,7.12502,13.5345,68.9671,8.55739,8.6927,19.2889,31.5196,-22.9231,-19.9016,-17.97,-11.3218,-3.72613,-7.14817,29.3943,-6.7283,19.9009,-5.35666
1.65587,18.2512,1.59131,-8.35073,-9.04571,-1.14323,4.74487,1.99484,-1.61626,1.03619,2.54467,-1.69946,-1.58587,1.27374,-0.992363,-5.27222,-1.20896,-6.89923,11.4936,-2.32401,11.4577,4.48886,-0.81449,4.57339,-2.0773e-14,1.43125e-14,4.90472,-13.5899,-63.1854,65.2554,-7.18948,-16.2286,-8.4341,7.12502,9.97964,-38.1775,-2.0773e-14,1.43125e-14,8.52377,-9.6564,69.9027,45.5204,1.54231,-11.0105,39.424,7.12502,15.0104,68.8599,8.15121,8.20345,18.5854,32.609,-22.5626,-19.2703,-18.7847,-11.5866,-2.86951,-7.56801,30.1631,-6.58805,19.0543,-5.98867
1.74263,18.2471,1.62727,-8.18047,-9.03455,-1.69949,4.81837,2.07526,-1.21697,1.07623,2.67049,-1.71515,-1.56624,1.33516,-1.24088,-5.47422,-1.29213,-6.8347,11.2397,-2.41798,11.4976,4.4561,-0.853696,4.56616,6.98231e-14,-2.70347e-14,3.49125,-12.0652,-63.894,63.7192,-7.58985,-14.8823,-7.61922,7.12502,11.2783,-37.296,6.98231e-14,-2.70347e-14,7.77628,-11.5735,70.5781,44.5012,0.505913,-9.31602,39.6189,7.12502,16.6422,68.9254,7.36316,7.91263,18.6863,33.8086,-21.9136,-18.8329,-19.602,-12.1401,-2.13531,-7.15116,30.933,-6.46989,18.2262,-5.85072
1.83261,18.2413,1.66745,-8.0982,-9.02564,-2.05528,4.9125,2.16693,-1.05087,1.12232,2.79925,-1.73992,-1.56071,1.39888,-1.36962,-5.62179,-1.35248,-6.90236,10.9585,-2.47583,11.6082,4.40424,-0.879077,4.60569,-1.78409e-14,1.59028e-15,2.13168,-10.4995,-64.5968,62.2125,-7.56653,-13.7302,-6.99121,7.12502,12.3892,-36.6041,-1.78409e-14,1.59028e-15,6.83878,-13.2759,71.3351,43.826,-1.09347,-5.87096,40.0241,7.12502,19.9564,69.0194,6.58209,7.5798,18.5046,35.0964,-21.1424,-18.2178,-20.5147,-12.5682,-1.63353,-6.94778,31.6453,-6.54588,17.3123,-5.62458
1.92588,18.236,1.71488,-8.12287,-9.02186,-2.29606,5.00953,2.24585,-0.971053,1.22678,2.90779,-1.76683,-1.50048,1.45292,-1.44983,-5.72556,-1.41137,-7.02904,10.5824,-2.50941,11.6342,4.31387,-0.902276,4.62862,1.5704e-14,-1.98785e-14,0.860326,-8.75417,-65.3168,60.7946,-7.43083,-12.8097,-6.46633,7.12502,13.2766,-36.0235,1.5704e-14,-1.98785e-14,5.76007,-14.8352,72.1586,43.5145,-2.54446,-2.11012,39.8697,7.12502,23.5678,68.4456,5.89633,7.15101,18.1181,36.4516,-20.4715,-17.3341,-21.1559,-12.7594,-1.29023,-6.90484,32.2664,-6.72009,16.7314,-6.71615
2.02185,18.2273,1.76451,-8.13525,-9.00916,-2.69643,5.14024,2.3092,-0.737473,1.33882,3.00454,-1.72259,-1.44697,1.50098,-1.5435,-5.93184,-1.49139,-7.08247,10.2811,-2.56161,11.4928,4.26305,-0.935881,4.58577,-5.1684e-15,2.22639e-14,-0.37371,-6.74343,-65.9742,59.4209,-7.63998,-12.9822,-5.90486,7.12502,13.1104,-35.4727,-5.1684e-15,2.22639e-14,4.60847,-16.562,73.0122,43.4525,-3.19671,0.589164,39.1273,7.12502,26.1546,67.3458,5.2025,6.69131,17.8698,37.884,-19.786,-16.2859,-21.2611,-12.8462,-1.15232,-6.69675,32.7638,-7.09619,16.5492,-8.17041
2.11934,18.2214,1.82011,-8.23901,-9.02646,-3.00284,5.40268,2.38773,-0.611594,1.41292,3.11297,-1.68159,-1.51042,1.55475,-1.58877,-6.08112,-1.54839,-7.16143,10.0298,-2.58935,11.3726,4.21547,-0.958053,4.55624,7.25564e-15,-1.74931e-14,-1.55071,-4.6161,-66.6697,57.9548,-7.64241,-13.7359,-5.2794,7.12502,12.3837,-34.8926,7.25564e-15,-1.74931e-14,3.3139,-18.3694,73.9446,43.4978,-3.22547,3.39296,38.7995,7.12502,28.836,66.5914,4.51917,6.19739,17.4659,39.3943,-18.8377,-15.1525,-21.9965,-12.7607,-1.04042,-6.60208,33.1908,-7.64387,16.2867,-9.15433
2.21637,18.2165,1.87179,-8.37039,-9.18771,-3.26862,5.7026,2.50672,-0.521786,1.51469,3.27322,-1.65884,-1.56555,1.63446,-1.63784,-6.11881,-1.53157,-7.23991,9.56119,-2.51574,11.3525,4.07483,-0.931519,4.56213,3.42904e-15,-1.11319e-14,-2.53985,-2.40141,-67.4359,56.4041,-7.27896,-14.453,-4.9522,7.12502,11.6922,-34.6059,3.42904e-15,-1.11319e-14,2.01788,-20.1196,74.8921,43.6546,-2.59994,6.28249,39.3027,7.12502,31.5925,66.5895,3.67327,5.82774,17.0205,41.0296,-17.6158,-14.0691,-23.0089,-12.5767,-0.725224,-6.54106,33.5697,-8.07737,15.7987,-10.2249
2.31353,18.2115,1.92472,-8.56322,-9.38377,-3.34132,5.98782,2.62694,-0.647766,1.63291,3.42213,-1.66816,-1.60592,1.70882,-1.59854,-6.03132,-1.44105,-7.12154,9.02746,-2.33215,11.0265,3.87779,-0.862895,4.44411,3.70236e-14,-7.95139e-15,-3.46371,-0.0126741,-68.2459,54.886,-6.55884,-14.7663,-4.86751,7.12502,11.3901,-34.5382,3.70236e-14,-7.95139e-15,0.603193,-21.529,75.9883,43.8878,-1.98141,7.82895,38.328,7.12502,33.0644,65.3146,2.74149,5.38626,16.2983,42.7993,-16.2605,-12.831,-23.6975,-12.275,-0.361999,-6.73024,33.9034,-8.50546,15.4487,-11.0249
2.40941,18.2082,1.97622,-8.8006,-9.46093,-3.23719,6.36384,2.72328,-1.00903,1.72163,3.52044,-1.69092,-1.7418,1.75778,-1.44529,-5.89444,-1.34337,-6.93634,8.61395,-2.13773,10.4711,3.70572,-0.796056,4.2452,-2.2413e-14,1.27222e-14,-4.37488,2.30945,-69.1067,53.4063,-5.0274,-15.3553,-4.93464,7.12502,10.822,-34.6358,-2.2413e-14,1.27222e-14,-0.905952,-22.8884,77.1897,44.2243,-1.22935,8.16284,36.7673,7.12502,33.3818,63.6861,1.75796,4.87959,15.3478,44.6908,-14.8623,-11.4762,-23.4376,-11.9931,-0.0439105,-7.13152,34.2156,-9.00548,15.1087,-11.2541
2.50128,18.2065,2.02411,-9.03337,-9.45779,-3.13531,6.78858,2.8244,-1.38422,1.80297,3.61931,-1.72655,-1.91312,1.80712,-1.30174,-5.84296,-1.33604,-6.86482,8.23691,-2.07135,10.0647,3.57412,-0.785313,4.10651,2.68359e-14,1.11319e-14,-5.31172,4.55316,-70.0113,51.9875,-2.97191,-15.917,-5.01111,7.12502,10.2802,-34.7399,2.68359e-14,1.11319e-14,-2.4059,-24.3392,78.3899,44.4667,-0.446084,8.69688,35.8645,7.12502,33.8894,62.6727,0.67959,4.42493,14.4195,46.6766,-13.2523,-10.2176,-22.3058,-11.7762,0.342663,-7.51832,34.5153,-9.47075,14.6053,-11.1621
2.59145,18.2026,2.07238,-9.29321,-9.35494,-2.92005,7.19387,2.88985,-1.90009,1.9169,3.65763,-1.77847,-2.04878,1.8267,-1.09049,-6.0232,-1.36276,-6.95647,8.02966,-2.05467,9.84349,3.53993,-0.78733,4.05175,-9.9939e-14,2.70347e-14,-6.16462,6.90629,-70.9484,50.5599,-0.689846,-16.138,-4.35376,7.12502,10.067,-34.093,-9.9939e-14,2.70347e-14,-3.96707,-25.5206,79.6525,44.7072,0.323355,9.76283,35.394,7.12502,34.9014,61.973,-0.476464,3.9218,13.3505,48.7395,-11.2227,-9.09739,-21.2409,-11.5743,0.791179,-8.03514,34.8443,-9.9075,14.0478,-10.9194
2.68165,18.197,2.11501,-9.47828,-9.22636,-2.63785,7.57412,2.95678,-2.49744,2.025,3.68741,-1.84702,-2.18061,1.84235,-0.849763,-6.39246,-1.37051,-7.05738,7.99816,-2.01272,9.62074,3.58781,-0.770561,4.00038,4.20927e-14,-3.33958e-14,-6.90853,9.13478,-71.9436,49.0784,1.89533,-16.2679,-3.46089,7.12502,9.94174,-33.2061,4.20927e-14,-3.33958e-14,-5.39915,-26.6288,80.9179,45.0442,1.25977,10.9456,35.5461,7.12502,36.0226,61.8571,-1.8133,3.40503,12.1952,50.8135,-8.97429,-8.07228,-20.1754,-11.4827,1.08974,-8.6364,35.1717,-10.2995,13.6854,-10.8921
2.76607,18.1817,2.14569,-9.59926,-9.13024,-2.52977,8.0703,3.04329,-2.95596,2.08782,3.7432,-1.89677,-2.4164,1.87155,-0.678432,-6.63112,-1.38971,-7.01795,7.80973,-1.9903,9.32506,3.5665,-0.767482,3.90105,3.90612e-14,-3.33958e-14,-7.64389,11.305,-72.9914,47.5812,4.60975,-16.3643,-2.78759,7.12502,9.8487,-32.5373,3.90612e-14,-3.33958e-14,-6.79215,-27.9504,82.1029,45.4164,2.04525,11.4461,36.0798,7.12502,36.4966,62.2727,-3.30314,2.99768,11.3189,52.8791,-6.57269,-7.29504,-18.5788,-11.5346,1.30756,-9.01802,35.4866,-10.4186,13.3637,-11.5363
2.84636,18.1789,2.17855,-9.7432,-9.00604,-2.46749,8.55133,3.13309,-3.30752,2.15385,3.80738,-1.97919,-2.63186,1.90493,-0.601091,-6.67988,-1.3857,-6.97369,7.49324,-1.94669,9.09919,3.47381,-0.756174,3.82349,2.33324e-14,-4.13472e-14,-8.43901,13.5944,-74.0878,46.1723,7.16551,-16.4382,-2.37323,7.12502,9.77735,-32.1263,2.33324e-14,-4.13472e-14,-8.3112,-29.2191,83.3398,45.7446,2.35442,11.3206,36.1447,7.12502,36.3778,62.3675,-4.73368,2.61529,10.5246,54.8316,-3.72508,-6.55824,-15.9616,-11.5162,1.54874,-9.33472,35.7567,-10.5928,12.9081,-11.4675
2.92754,18.1808,2.21668,-9.87525,-8.75184,-2.10237,8.88546,3.21049,-3.91488,2.25965,3.8342,-2.15156,-2.73434,1.91983,-0.461322,-6.94306,-1.3916,-6.97335,7.36636,-1.91448,8.89616,3.47525,-0.744061,3.76075,-8.56016e-15,2.8625e-14,-9.18942,15.7718,-75.244,44.7726,9.76886,-16.7312,-1.75741,7.12502,9.49469,-31.5235,-8.56016e-15,2.8625e-14,-9.63913,-30.3915,84.5343,45.9665,2.59881,11.165,36.1603,7.12502,36.2304,62.4199,-6.15605,2.10881,9.32321,56.6843,-0.667767,-5.65563,-13.1736,-11.5253,1.70744,-10.0419,36.0046,-10.8037,12.5872,-11.626
3.00734,18.1809,2.25244,-9.9269,-8.52,-1.92003,9.17709,3.28891,-4.33639,2.37567,3.88072,-2.26873,-2.79498,1.94339,-0.367675,-7.27701,-1.44782,-6.97236,7.28024,-1.94469,8.64635,3.50526,-0.763202,3.68022,-1.76484e-14,1.43125e-14,-9.96457,17.7726,-76.4442,43.3156,12.5181,-17.7506,-0.672682,7.12502,8.51101,-30.4812,-1.76484e-14,1.43125e-14,-10.8047,-31.6258,85.6639,46.1256,2.88073,10.5579,36.4958,7.12502,35.6553,62.8962,-7.6153,1.60749,8.36248,58.4176,2.17568,-4.90919,-11.3494,-11.5947,1.8173,-10.5508,36.2225,-10.9869,12.3149,-11.6397
3.0839,18.1791,2.28326,-9.93083,-8.32205,-1.94975,9.46167,3.37421,-4.57788,2.49328,3.95482,-2.30146,-2.84519,1.97988,-0.289928,-7.40826,-1.48123,-7.24193,6.98596,-1.94104,8.70275,3.44157,-0.765075,3.74066,-4.73853e-14,1.43125e-14,-10.8231,20.0616,-77.636,41.9586,14.5822,-19.0862,-0.0260199,7.12502,7.22199,-29.8828,-4.73853e-14,1.43125e-14,-11.899,-32.7345,86.8077,46.2399,2.9441,10.0159,36.4532,7.12502,35.1414,62.9762,-9.11489,1.1767,7.71884,60.0439,4.86968,-4.13824,-10.8756,-11.7073,1.83871,-10.8106,36.4513,-11.1456,12.0253,-10.9863
3.15753,18.1817,2.31241,-9.90747,-8.05525,-1.93883,9.79128,3.46676,-4.81012,2.57011,4.03102,-2.39053,-2.9582,2.01841,-0.280996,-7.48991,-1.52303,-7.53198,6.73241,-1.9593,8.85426,3.38485,-0.774595,3.83322,8.88319e-15,-3.18055e-15,-11.7851,22.3279,-78.956,40.8241,15.271,-19.5559,0.223192,7.12502,6.76852,-29.6486,8.88319e-15,-3.18055e-15,-12.9575,-33.6283,87.9597,46.2407,2.71784,9.67736,36.2233,7.12502,34.8203,62.8212,-10.6058,0.665954,7.04726,61.5429,7.47075,-3.19009,-10.9644,-11.8813,1.74886,-11.1312,36.7146,-11.3817,11.8319,-9.86433
3.22603,18.1884,2.34241,-9.89121,-7.80763,-2.02122,10.1652,3.58368,-4.91063,2.60396,4.14531,-2.50209,-3.1311,2.07652,-0.378872,-7.45949,-1.62769,-7.64972,6.50144,-2.07691,8.85893,3.32184,-0.8375,3.84668,3.52097e-14,-3.97569e-14,-12.9141,24.5396,-80.4656,39.7923,14.896,-19.9714,0.399296,7.12502,6.36739,-29.485,3.52097e-14,-3.97569e-14,-14.0378,-34.3665,89.0861,46.2493,2.40533,9.71861,36.1798,7.12502,34.8594,62.7686,-12.0097,0.200924,6.53441,62.8917,9.58975,-2.38932,-11.0532,-12.0057,1.82138,-11.3292,36.9837,-11.6438,11.5377,-8.58192
3.29151,18.1941,2.36963,-9.81867,-7.63738,-2.27013,10.4641,3.70178,-4.83742,2.70576,4.28898,-2.57463,-3.18298,2.14629,-0.529613,-7.58152,-1.73454,-7.79407,6.2052,-2.18393,8.89761,3.26452,-0.891054,3.87505,-5.01931e-15,1.43125e-14,-13.9951,27.0592,-82.0372,38.7604,14.0229,-21.4065,0.184127,7.12502,4.98189,-29.7373,-5.01931e-15,1.43125e-14,-14.8879,-35.0393,90.0391,46.3285,2.14164,9.83087,36.0602,7.12502,34.9659,62.6242,-13.4179,-0.136327,6.25966,64.0952,11.0129,-1.89508,-10.6399,-12.1771,1.95328,-11.3086,37.2539,-11.8069,11.2572,-8.06283
3.35539,18.197,2.39525,-9.79241,-7.41324,-2.5835,10.7872,3.78539,-4.73564,2.9078,4.3948,-2.60375,-3.1426,2.1952,-0.643873,-7.97125,-1.80135,-7.98331,5.97708,-2.22261,9.00107,3.26739,-0.902378,3.93419,4.42793e-14,-5.08889e-14,-14.9972,29.7622,-83.638,37.8942,12.4082,-22.0804,-0.602294,7.12502,4.33113,-30.538,4.42793e-14,-5.08889e-14,-15.5957,-35.3889,90.849,46.6289,1.9945,9.92494,36.2326,7.12502,35.0551,62.7758,-14.6705,-0.508416,6.06448,65.1445,11.6617,-1.66507,-9.35194,-12.323,1.98415,-11.2187,37.5148,-11.8931,11.0422,-8.82569
3.41663,18.1976,2.42055,-9.80158,-7.113,-3.01631,11.2015,3.85985,-4.52698,3.08937,4.49624,-2.568,-3.16986,2.24276,-0.757277,-8.32168,-1.91623,-8.14939,5.86817,-2.32771,8.99338,3.30367,-0.950958,3.95177,-1.59028e-15,-3.18055e-15,-16.1401,32.5394,-85.3029,37.195,10.0782,-21.1392,-1.0647,7.12502,5.23991,-30.9799,-1.59028e-15,-3.18055e-15,-16.3765,-35.5901,91.731,47.0925,2.04403,9.80216,36.9721,7.12502,34.9387,63.5425,-15.7305,-0.959249,6.02259,66.0237,11.5348,-1.67295,-8.34206,-12.4471,1.95619,-10.9966,37.7609,-11.9135,10.819,-10.3435
3.47609,18.2006,2.44107,-9.73371,-6.77879,-3.35732,11.6309,3.94987,-4.36461,3.18039,4.60782,-2.57137,-3.29933,2.29727,-0.893512,-8.46306,-2.05988,-8.40431,5.72479,-2.47618,9.02843,3.30068,-1.02602,3.9952,2.5842e-14,-3.18055e-14,-17.5276,35.3968,-87.1352,36.6328,7.56487,-19.7263,-1.15264,7.12502,6.604,-31.0297,2.5842e-14,-3.18055e-14,-17.1643,-35.8024,92.6083,47.5362,2.23712,10.3524,37.6423,7.12502,35.4605,64.0896,-16.8672,-1.47359,5.88378,66.7485,11.0255,-1.87469,-8.15091,-12.6581,1.96527,-10.8844,37.9547,-11.9104,10.5989,-11.4532
3.53097,18.2038,2.45981,-9.72327,-6.51103,-3.48115,12.0845,4.10049,-4.44822,3.28288,4.76606,-2.64313,-3.44281,2.37522,-0.97498,-8.32581,-2.11395,-8.52395,5.21577,-2.5127,8.97553,3.12968,-1.05356,3.99519,-2.13694e-14,2.06736e-14,-19.0811,38.2729,-89.1553,36.2918,5.19643,-18.3705,-1.65257,7.12502,7.91278,-31.4845,-2.13694e-14,2.06736e-14,-17.9398,-35.9602,93.3451,48.1147,2.67552,11.7371,38.5566,7.12502,36.772,64.6796,-17.9975,-1.91908,5.52597,67.315,10.3039,-2.22566,-8.37359,-12.7561,2.06327,-10.9726,38.092,-11.9939,10.3371,-11.6676
3.58335,18.2084,2.48223,-9.89024,-6.25732,-3.4575,12.5834,4.28754,-4.67935,3.47248,4.95192,-2.73181,-3.52953,2.46576,-0.998502,-7.99023,-2.06793,-8.57962,4.44816,-2.42234,8.90347,2.83685,-1.02211,3.98636,2.68359e-14,-2.38542e-14,-20.7379,41.0737,-91.2954,35.9793,3.50875,-16.6003,-2.04954,7.12502,9.62097,-31.8098,2.68359e-14,-2.38542e-14,-18.7336,-36.0987,93.9935,48.9093,3.20241,12.458,39.5031,7.12502,37.4537,65.4489,-18.8503,-2.32128,5.00528,67.6639,9.43115,-2.79761,-8.34007,-12.5802,2.09794,-11.2124,38.1633,-12.1576,10.0486,-11.5199
3.63448,18.2175,2.50408,-9.95972,-5.94914,-3.66208,12.9899,4.40855,-4.63769,3.69092,5.09496,-2.76843,-3.51639,2.53356,-1.10404,-7.89185,-2.04126,-8.62491,3.92035,-2.35388,8.79735,2.65633,-0.995865,3.96391,3.33958e-14,-1.59028e-14,-22.4059,43.7308,-93.4656,35.7169,2.87876,-14.1746,-1.82953,7.12502,11.9607,-31.4678,3.33958e-14,-1.59028e-14,-19.3973,-36.3036,94.485,49.829,3.92689,12.4655,40.1722,7.12502,37.4608,66.1161,-19.6587,-2.70478,4.7868,67.7713,8.56907,-3.7957,-7.65374,-12.5114,2.07546,-11.2111,38.1773,-12.2168,9.77965,-11.3632
3.68301,18.2318,2.52114,-9.92515,-5.56428,-4.05818,13.341,4.48302,-4.44693,3.93721,5.20533,-2.73425,-3.43615,2.58464,-1.2073,-8.15611,-2.10686,-8.63733,3.70232,-2.39733,8.60287,2.63569,-1.01884,3.90202,-4.19436e-14,3.33958e-14,-24.0534,46.2708,-95.6465,35.1342,4.42116,-13.1855,-0.275113,7.12502,12.9144,-29.8555,-4.19436e-14,3.33958e-14,-19.6809,-36.4915,94.7936,50.6428,4.99369,12.8636,40.9833,7.12502,37.837,66.8267,-20.4682,-3.04701,4.81988,67.6306,7.68833,-5.17033,-6.60863,-12.5724,2.00189,-10.9978,38.1509,-12.1873,9.46628,-10.5419
3.72915,18.248,2.53785,-9.8605,-5.12381,-4.27246,13.6023,4.57358,-4.48065,4.16952,5.31215,-2.72015,-3.33827,2.63449,-1.2013,-8.37583,-2.21207,-8.67964,3.5771,-2.49737,8.3817,2.64003,-1.07224,3.83415,-7.17613e-14,5.24792e-14,-25.4526,48.2444,-97.6058,34.8839,5.12495,-9.3754,-0.0355396,7.12502,16.585,-29.3469,-7.17613e-14,5.24792e-14,-19.8246,-36.6294,95.0651,51.3909,6.18199,13.2479,42.1719,7.12502,38.2,67.9164,-21.2332,-3.34578,4.6552,67.2646,6.80121,-6.65802,-5.83472,-12.6549,1.91336,-10.9881,38.1213,-12.2426,9.07678,-8.04871
3.77526,18.2619,2.5558,-9.76508,-4.60812,-4.43586,13.8569,4.6338,-4.55924,4.32338,5.37049,-2.6895,-3.32382,2.6615,-1.14922,-8.44687,-2.28051,-8.83316,3.57011,-2.55636,8.21796,2.6539,-1.10809,3.8052,5.32743e-14,-5.88403e-14,-26.9796,49.7204,-99.5446,34.6386,6.4136,-5.62315,0.775231,7.12502,20.1946,-28.1951,5.32743e-14,-5.88403e-14,-20.0395,-36.6786,95.4175,52.1076,7.25969,13.5637,43.2802,7.12502,38.498,68.9422,-21.9227,-3.6295,4.40627,66.6922,6.11242,-8.26296,-4.17321,-12.7802,1.86722,-11.049,38.086,-12.2703,8.65749,-6.62589
3.81844,18.2767,2.57154,-9.63326,-4.01374,-4.87063,14.1775,4.65503,-4.36457,4.43815,5.41311,-2.57047,-3.37049,2.68164,-1.16042,-8.44225,-2.37338,-8.89678,3.53914,-2.65436,7.91407,2.64824,-1.16853,3.71654,-1.19271e-15,-1.27222e-14,-28.4214,50.6808,-101.29,34.2391,8.49412,-3.4511,2.03992,7.12502,22.281,-26.6956,-1.19271e-15,-1.27222e-14,-20.1975,-36.7256,95.7073,52.8926,8.16659,14.4443,44.1136,7.12502,39.3283,69.5388,-22.5302,-3.92102,4.48637,65.9021,5.49224,-9.88773,-2.52425,-13.0022,1.79377,-10.802,38.0259,-12.1241,8.21825,-6.57145
3.8581,18.2961,2.58788,-9.46802,-3.36119,-5.28985,14.456,4.67253,-4.25895,4.52987,5.443,-2.41378,-3.42982,2.69555,-1.07906,-8.43197,-2.46944,-8.90153,3.5263,-2.75921,7.52375,2.64523,-1.23465,3.59134,-6.77856e-14,2.70347e-14,-29.4959,51.034,-102.519,33.9119,11.4435,-0.224342,3.56933,7.12502,25.3755,-24.7621,-6.77856e-14,2.70347e-14,-20.3362,-36.754,95.9425,53.7695,9.01954,15.4369,44.5081,7.12502,40.2628,69.6544,-23.0708,-4.14438,4.5622,64.9205,4.64428,-11.4803,-2.57489,-13.2742,1.58942,-10.5818,37.9274,-11.9441,7.91804,-6.67533
3.89966,18.32,2.60576,-9.31027,-2.63316,-5.5894,14.6871,4.70368,-4.21724,4.53068,5.47963,-2.31699,-3.55934,2.71418,-1.02732,-8.15407,-2.50715,-8.88615,3.62998,-2.82568,7.30946,2.6329,-1.28067,3.52122,-7.35503e-14,2.70347e-14,-30.1266,50.2669,-103.096,33.7618,15.9778,-5.49337,4.68038,7.12502,20.3193,-24.2767,-7.35503e-14,2.70347e-14,-20.6508,-36.8768,96.1955,54.739,9.76435,16.4424,45.2395,7.12502,41.2076,70.0896,-23.5091,-4.40635,4.45983,63.757,3.71729,-13.0182,-4.05478,-13.4945,1.18629,-10.5409,37.7607,-11.7652,7.77673,-6.68073
3.93827,18.3442,2.62144,-9.12337,-1.93555,-5.92642,14.8353,4.7837,-4.05033,4.52406,5.60165,-2.29307,-3.63488,2.77522,-1.12966,-7.80844,-2.55685,-8.69097,3.79113,-2.93921,7.16879,2.62911,-1.34615,3.44278,-2.22639e-14,0,-29.7485,48.2087,-102.636,33.6679,20.9187,-7.61405,5.09079,7.12502,18.2802,-24.0703,-2.22639e-14,0,-20.835,-37.208,96.2981,55.7456,10.3437,17.653,46.1748,7.12502,42.3428,70.649,-23.9377,-4.57564,4.41363,62.4289,2.95908,-14.6135,-4.26011,-13.6976,0.788131,-10.444,37.5214,-11.5828,7.63227,-6.36502
3.97115,18.3682,2.63537,-8.94442,-1.44551,-6.08007,14.9005,4.8907,-4.21612,4.63897,5.72188,-2.21833,-3.57298,2.83312,-0.982083,-7.84451,-2.62273,-8.57502,4.07113,-3.03301,6.93775,2.72063,-1.39958,3.34732,-1.31198e-14,4.77083e-15,-28.7151,46.2298,-101.537,33.7005,23.702,-7.57876,3.97739,7.12502,18.3141,-25.1805,-1.31198e-14,4.77083e-15,-20.6002,-37.3239,96.1545,56.8109,10.8997,18.6376,46.8567,7.12502,43.2638,71.0087,-24.3937,-4.43188,4.18471,60.9732,2.1677,-16.2336,-2.9441,-13.8179,0.533018,-10.4997,37.2295,-11.4341,7.55029,-6.01393
4.00125,18.3957,2.64808,-8.78915,-1.0586,-6.25921,14.9849,4.92296,-4.4467,4.76898,5.73596,-2.07509,-3.51712,2.8376,-0.708856,-8.1332,-2.62833,-8.65607,4.59753,-3.01939,6.81369,2.9235,-1.39616,3.31996,-4.05521e-14,3.33958e-14,-27.7206,45.116,-100.589,33.8179,23.4859,-6.04426,1.88826,7.12502,19.7898,-27.1243,-4.05521e-14,3.33958e-14,-20.1729,-37.149,95.7839,57.922,11.399,19.7613,47.6429,7.12502,44.3127,71.4082,-24.7557,-4.02053,3.97833,59.3862,0.844276,-17.7878,-1.22824,-13.8896,0.388075,-10.4891,36.9332,-11.2945,7.43646,-5.60562
4.02887,18.4225,2.65905,-8.55788,-0.619161,-6.64478,15.0216,4.8876,-4.45925,4.80669,5.69459,-1.90363,-3.51489,2.81623,-0.516603,-8.2227,-2.5314,-8.64373,5.11271,-2.89441,6.71117,3.08128,-1.33903,3.29233,5.96354e-15,1.27222e-14,-26.9314,44.8452,-99.9311,33.9832,21.696,-3.89939,0.357345,7.12502,21.8506,-28.429,5.96354e-15,1.27222e-14,-19.7887,-37.003,95.338,59.0949,11.853,19.798,48.7782,7.12502,44.3469,72.5305,-25.1531,-3.59221,4.00983,57.7042,-0.287754,-19.2887,-0.221741,-14.1016,0.243832,-10.2292,36.6387,-11.0984,7.26473,-5.49563
4.05373,18.4453,2.66549,-8.30071,-0.258017,-7.01764,14.9725,4.85487,-4.51896,4.87692,5.65765,-1.70938,-3.4389,2.79602,-0.266435,-8.29412,-2.38191,-8.58111,5.55622,-2.69924,6.56405,3.20822,-1.24821,3.24738,-1.04561e-13,5.40694e-14,-25.8558,44.8979,-99.0082,34.0668,20.3304,-1.04971,0.469149,7.12502,24.5846,-27.9722,-1.04561e-13,5.40694e-14,-19.1909,-36.8092,94.8008,60.2733,12.5354,18.2948,50.0225,7.12502,42.9434,74.2884,-25.583,-3.03907,4.02227,55.9289,-1.20512,-20.812,0.526489,-14.3373,0.163094,-9.96137,36.3416,-10.9536,7.19553,-5.4199
4.08073,18.467,2.67282,-8.11911,0.0509485,-7.29282,14.9699,4.83186,-4.58971,4.94222,5.62648,-1.55789,-3.38937,2.7788,-0.0601696,-8.35113,-2.30341,-8.56145,6.07256,-2.6017,6.47603,3.36423,-1.20523,3.22271,-6.36111e-15,1.74931e-14,-24.6609,44.8022,-97.8768,34.1822,19.6528,2.27577,1.52937,7.12502,27.7683,-26.4396,-6.36111e-15,1.74931e-14,-18.6364,-36.6003,94.2267,61.5178,13.1693,17.8194,50.7875,7.12502,42.4985,75.2083,-25.8496,-2.3847,3.86685,54.0736,-2.34905,-22.3234,1.99405,-14.446,-0.0193649,-9.81269,36.0463,-10.88,7.22002,-5.22925
4.11303,18.4935,2.68119,-8.04021,0.402161,-7.59639,15.1036,4.75981,-4.46738,4.94111,5.54447,-1.48459,-3.45558,2.73894,-0.0467647,-8.24863,-2.19254,-8.43057,6.6658,-2.49644,6.48077,3.5168,-1.15467,3.2107,-1.15693e-13,5.725e-14,-23.5123,44.1625,-96.7741,34.4066,19.4182,5.58125,2.15241,7.12502,30.9242,-25.2635,-1.15693e-13,5.725e-14,-18.182,-36.346,93.5441,62.8492,13.4486,18.2219,50.2903,7.12502,42.8752,74.5802,-25.9089,-1.77752,3.68273,52.1334,-3.35208,-23.7216,3.49672,-14.4248,-0.365455,-9.66087,35.7264,-10.8072,7.29035,-4.79582
4.14393,18.5206,2.6847,-7.87309,0.531603,-8.04078,15.15,4.70884,-4.18531,4.90142,5.51874,-1.40123,-3.50497,2.72734,-0.116193,-8.18186,-2.05464,-8.33231,7.36197,-2.36423,6.62378,3.70655,-1.08445,3.24913,2.34566e-14,1.43125e-14,-22.2477,43.3664,-95.561,34.7351,19.1417,9.16275,1.99228,7.12502,34.3318,-24.7172,2.34566e-14,1.43125e-14,-17.5873,-36.0093,92.7049,64.2123,13.532,17.866,49.0324,7.12502,42.5422,73.4382,-26.1921,-0.954339,3.66943,50.1661,-4.3629,-25.0236,4.37535,-14.4529,-0.511031,-9.29823,35.3621,-10.62,7.37492,-4.73295
4.17168,18.5489,2.68584,-7.70334,0.4654,-8.57607,15.1542,4.69735,-3.81992,4.91247,5.56325,-1.27714,-3.47688,2.74925,-0.196243,-8.35707,-1.9788,-8.36948,8.1731,-2.292,6.82782,3.97832,-1.0402,3.32547,8.46823e-14,-4.77083e-14,-20.7899,42.8566,-94.1248,35.2457,18.4917,13.2492,1.32368,7.12502,38.2012,-24.4205,8.46823e-14,-4.77083e-14,-16.6475,-35.6356,91.6945,65.4133,13.6577,17.5575,48.1579,7.12502,42.2533,72.6625,-26.5773,0.0586732,3.75567,48.2112,-5.33565,-26.1432,4.83085,-14.3937,-0.487607,-8.78868,34.9405,-10.4207,7.45705,-4.83733
4.20254,18.5792,2.68847,-7.53665,0.507054,-8.93841,15.1114,4.65862,-3.55813,4.91447,5.55566,-1.23019,-3.43307,2.74576,-0.286522,-8.48315,-1.92769,-8.32469,8.98636,-2.26659,7.00075,4.24558,-1.01776,3.37745,-7.87187e-14,9.54166e-15,-19.3281,42.3297,-92.6568,36.0692,17.3543,18.386,0.309425,7.12502,43.0287,-23.9264,-7.87187e-14,9.54166e-15,-15.5936,-35.2361,90.6043,66.4619,13.7739,16.7789,46.4154,7.12502,41.5234,71.1632,-26.9126,0.839863,3.60876,46.3259,-6.17195,-26.7978,5.70966,-14.3226,-0.629422,-8.50708,34.477,-10.2281,7.62215,-4.6887
4.23375,18.6094,2.69242,-7.40321,0.501217,-9.07131,15.031,4.66855,-3.51932,4.91106,5.57903,-1.21966,-3.39193,2.75726,-0.294866,-8.45066,-1.88589,-8.29786,9.77794,-2.26275,7.15333,4.48213,-1.00918,3.42627,-5.84427e-14,1.43125e-14,-17.9606,41.5754,-91.1415,37.131,16.8644,22.8453,-0.0860591,7.12502,47.1759,-22.6744,-5.84427e-14,1.43125e-14,-14.5343,-34.8111,89.5351,67.481,13.8625,15.3763,43.5786,7.12502,40.2058,68.7423,-27.2551,1.52765,3.20919,44.5423,-6.93445,-26.9523,6.73511,-14.1701,-0.79267,-8.48691,33.9605,-10.0911,7.88231,-4.43092
4.26209,18.6369,2.69679,-7.28991,0.416912,-9.15421,14.989,4.73017,-3.5452,4.90871,5.65821,-1.21589,-3.37664,2.79612,-0.287957,-8.56746,-1.87519,-8.21152,10.7306,-2.2984,7.24214,4.79577,-1.01802,3.44419,6.36111e-15,-3.18055e-15,-16.7206,40.6262,-89.6302,38.2871,18.0796,24.2958,0.409617,7.12502,48.5138,-21.5599,6.36111e-15,-3.18055e-15,-13.4584,-34.3722,88.4733,68.5189,13.708,14.7768,42.1402,7.12502,39.6415,67.4734,-27.6491,2.22263,2.75712,42.8577,-7.01018,-27.0933,6.69731,-13.9662,-0.924396,-8.50356,33.4225,-9.93846,8.18639,-4.17308
4.29187,18.6642,2.70244,-7.23468,0.334707,-9.15597,14.9575,4.7825,-3.61503,4.9706,5.71885,-1.2383,-3.30005,2.82497,-0.277996,-8.83517,-1.8436,-8.13028,11.6954,-2.29892,7.34817,5.13766,-1.00479,3.47177,4.45278e-14,0,-15.4631,39.8013,-88.054,39.8557,19.3722,24.9075,0.153489,7.12502,49.0763,-21.5411,4.45278e-14,0,-12.1716,-33.8398,87.348,69.4408,13.4392,14.4752,41.8638,7.12502,39.3574,67.2805,-28.0244,2.84144,2.19292,41.2901,-6.35135,-27.0797,5.4457,-13.6793,-1.06261,-8.62784,32.8946,-9.80642,8.53449,-4.06981
4.31796,18.6898,2.7043,-7.19965,0.129012,-9.29564,14.9675,4.85292,-3.58771,4.99339,5.81655,-1.19883,-3.28535,2.87262,-0.269522,-8.88971,-1.78589,-8.18807,12.5265,-2.27284,7.57458,5.4041,-0.979521,3.56366,-4.57205e-14,2.54444e-14,-14.232,38.9423,-86.4183,41.9066,19.7077,26.8571,-0.594615,7.12502,50.8605,-21.3535,-4.57205e-14,2.54444e-14,-10.9337,-33.128,86.2765,70.2558,13.2254,13.4819,41.2084,7.12502,38.4208,66.8919,-28.4713,3.58694,1.79849,39.8266,-6.08553,-26.8042,4.33968,-13.3657,-1.12131,-8.56552,32.3917,-9.68593,8.86719,-3.92195
4.33884,18.7106,2.69797,-7.09493,-0.103881,-9.43784,15.0271,4.94524,-3.58715,4.93029,5.93396,-1.15596,-3.39126,2.93094,-0.255633,-8.73589,-1.74704,-8.31097,13.2937,-2.28956,7.88278,5.62081,-0.97579,3.69085,4.65156e-14,-2.06736e-14,-13.1991,38.0583,-84.8666,44.3684,19.8474,27.786,-1.50308,7.12502,51.7059,-21.7818,4.65156e-14,-2.06736e-14,-9.95622,-32.2603,85.3741,71.0438,12.8714,11.9748,40.5455,7.12502,36.9969,66.6107,-29.0709,4.34827,1.40322,38.4691,-6.10538,-26.447,3.62143,-13.1713,-1.10056,-8.4746,31.8929,-9.53352,9.19086,-3.9796
4.36177,18.7328,2.69086,-6.95064,-0.183894,-9.52209,15.0121,4.96498,-3.5789,4.90005,5.96032,-1.16308,-3.41429,2.94416,-0.272852,-8.84652,-1.71391,-8.2511,14.2744,-2.30456,7.99199,5.94697,-0.969982,3.72747,5.04913e-14,-4.77083e-15,-12.2159,37.2041,-83.3582,47.2083,20.0136,26.4275,-2.41208,7.12502,50.4684,-23.3853,5.04913e-14,-4.77083e-15,-8.7444,-31.3879,84.3235,71.737,12.3735,10.7577,40.1265,7.12502,35.8446,66.481,-29.6879,4.84543,0.930239,37.2137,-5.8581,-25.9335,2.55484,-13.06,-1.22938,-8.47298,31.3875,-9.32338,9.51259,-4.05661
4.38784,18.7579,2.69046,-6.91863,-0.256832,-9.54331,15.0123,4.96924,-3.56566,4.91363,5.96646,-1.19592,-3.39537,2.94703,-0.314609,-8.94426,-1.66554,-8.03576,15.2517,-2.29208,7.89585,6.26638,-0.956814,3.67489,-4.73108e-14,2.54444e-14,-11.2812,36.3494,-81.8506,50.3572,20.1293,25.1404,-2.9871,7.12502,49.2901,-24.5748,-4.73108e-14,2.54444e-14,-7.31304,-30.4911,83.1945,72.2676,11.9058,9.75613,40.0251,7.12502,34.895,66.6056,-30.1959,5.1902,0.412592,36.0427,-5.24548,-25.1594,1.09271,-12.7736,-1.4183,-8.56075,30.8698,-9.14842,9.89807,-4.18515
4.41314,18.7817,2.69097,-6.93487,-0.380196,-9.43963,15.0707,4.98703,-3.67042,4.93183,5.96845,-1.25545,-3.41094,2.94752,-0.32341,-9.05173,-1.56361,-7.82979,16.252,-2.20055,7.77607,6.59062,-0.907101,3.62401,-2.34566e-14,2.54444e-14,-10.3308,35.5017,-80.3512,53.6804,20.5218,23.5618,-3.50626,7.12502,47.8375,-25.7945,-2.34566e-14,2.54444e-14,-6.06577,-29.4896,82.1854,72.7832,11.5565,7.96606,39.6544,7.12502,33.1948,66.6133,-30.6846,5.59911,-0.268971,34.9318,-4.55327,-24.2199,-0.375944,-12.4079,-1.6107,-8.78706,30.3566,-9.07464,10.342,-4.1592
4.43706,18.7973,2.68922,-6.92353,-0.577539,-9.32574,15.1724,4.99134,-3.73198,4.89123,5.95263,-1.35655,-3.50261,2.94013,-0.403021,-9.06864,-1.41146,-7.64053,17.2453,-2.05329,7.72086,6.89553,-0.827908,3.6031,-1.47101e-14,7.95139e-15,-9.47431,34.5877,-79.0024,57.1428,21.1779,19.4205,-4.15776,7.12502,43.9948,-28.0426,-1.47101e-14,7.95139e-15,-5.15776,-28.5662,81.2387,73.3307,11.6033,4.67816,38.008,7.12502,30.0629,65.5839,-31.2806,6.10067,-0.982851,33.8932,-3.91336,-23.2057,-1.38615,-12.0934,-1.76508,-9.00567,29.8611,-8.95152,10.8115,-3.98995
4.45655,18.8068,2.68451,-6.98433,-0.917889,-9.33766,15.3307,5.00841,-3.68294,4.85543,5.96948,-1.39376,-3.61642,2.94867,-0.487817,-8.87532,-1.2345,-7.53624,18.1293,-1.866,7.66792,7.12797,-0.738735,3.60003,-3.61788e-14,3.65764e-14,-8.63201,33.7069,-77.6769,60.6714,22.0321,14.2932,-4.51676,7.12502,39.186,-29.9833,-3.61788e-14,3.65764e-14,-4.36742,-27.633,80.3044,73.8905,11.7376,1.13184,35.5013,7.12502,26.674,63.6417,-31.9208,6.74371,-1.51817,32.9459,-3.21429,-22.1579,-2.10532,-11.716,-1.8013,-9.04358,29.3869,-8.8062,11.2394,-3.78406
4.47808,18.8188,2.67964,-7.12248,-1.2202,-9.21729,15.5455,5.0162,-3.72672,4.82484,5.9558,-1.45481,-3.76046,2.942,-0.545478,-8.54444,-1.02794,-7.37102,18.9373,-1.62614,7.48482,7.30779,-0.634125,3.54697,-7.91163e-14,5.88403e-14,-7.72346,32.8662,-76.3338,64.1721,22.8661,9.38954,-4.37329,7.12502,34.5471,-31.0339,-7.91163e-14,5.88403e-14,-3.59639,-26.4991,79.4358,74.397,11.4305,-0.899349,34.719,7.12502,24.7287,63.1407,-32.4927,7.19406,-2.11926,32.09,-2.11084,-21.0106,-3.45585,-11.2767,-1.87193,-9.24699,28.96,-8.69751,11.6668,-3.8313
4.50207,18.8343,2.67951,-7.26939,-1.47663,-9.06155,15.7141,5.00795,-3.76035,4.79821,5.92353,-1.55243,-3.87036,2.92628,-0.638919,-8.24516,-0.822256,-7.04245,19.7758,-1.38306,7.17059,7.50403,-0.527471,3.42343,1.03368e-14,-1.11319e-14,-6.78318,31.8949,-75.084,67.6299,23.4921,4.58664,-4.21796,7.12502,29.9756,-31.8096,1.03368e-14,-1.11319e-14,-2.94104,-25.3181,78.6108,74.9466,11.0802,-2.31256,35.7476,7.12502,23.3736,64.3483,-33.0353,7.46462,-2.70107,31.3442,-1.06035,-19.7318,-4.70781,-10.8072,-2.05518,-9.50962,28.5628,-8.6951,12.1277,-3.40751
4.52234,18.8492,2.67619,-7.32981,-1.77595,-9.17985,15.8323,4.95508,-3.54388,4.75355,5.87833,-1.56802,-3.95737,2.90409,-0.778245,-7.88126,-0.579991,-6.72446,20.5551,-1.06839,6.78273,7.66716,-0.395155,3.28155,-1.35174e-14,-2.22639e-14,-5.74089,30.9336,-73.8629,71.0261,23.7706,-0.370369,-3.67827,7.12502,25.2356,-32.0295,-1.35174e-14,-2.22639e-14,-2.29161,-24.1401,77.7947,75.4236,10.8832,-4.41788,36.3362,7.12502,21.3526,65.1797,-33.7257,7.88327,-2.99683,30.7374,-0.241993,-18.6776,-5.76874,-10.4387,-2.19215,-9.43185,28.1581,-8.687,12.5345,-2.87233
4.5408,18.8613,2.67031,-7.35663,-1.9521,-9.11879,15.9012,4.7901,-3.57241,4.78349,5.65373,-1.56272,-3.96177,2.79283,-0.716918,-7.71053,-0.236416,-6.5974,21.3437,-0.55932,6.36196,7.85939,-0.186584,3.17883,1.04163e-13,-2.70347e-14,-4.36224,30.1693,-72.5233,74.3153,23.9801,-5.28687,-2.77064,7.12502,20.5178,-31.7064,1.04163e-13,-2.70347e-14,-1.60908,-22.5999,76.9922,75.7684,10.7032,-6.69961,35.9574,7.12502,19.1597,65.0336,-34.4329,8.11082,-3.48146,30.2243,0.392038,-17.7443,-6.3397,-10.1676,-2.37914,-9.56264,27.7682,-8.67187,12.9335,-2.58108
4.56124,18.8707,2.66969,-7.43184,-2.0927,-8.84286,15.9097,4.55571,-3.81459,4.94606,5.31138,-1.56528,-3.8083,2.62191,-0.510392,-8.04147,0.167872,-6.65824,22.3805,0.0975773,5.93162,8.22212,0.0770445,3.12794,-3.37934e-14,-6.36111e-15,-2.69324,29.4138,-71.1722,77.5164,24.3266,-10.0264,-1.52677,7.12502,15.9583,-30.8894,-3.37934e-14,-6.36111e-15,-0.947088,-20.629,76.268,76.0784,10.5089,-9.19206,35.2818,7.12502,16.7616,64.5782,-35.0613,8.05638,-4.08956,29.7945,0.924655,-16.6741,-6.81128,-9.85887,-2.58267,-9.95955,27.432,-8.69984,13.3639,-2.03535
4.58178,18.8813,2.67239,-7.56523,-2.39642,-8.76379,15.9022,4.3892,-3.8056,5.12175,5.10011,-1.5469,-3.61427,2.51486,-0.445129,-8.36664,0.529023,-6.69242,23.5125,0.679545,5.59965,8.62859,0.308977,3.10469,-2.0276e-14,-7.95139e-15,-1.0843,28.4101,-69.9488,80.659,24.7316,-14.749,-0.357893,7.12502,11.4068,-30.0276,-2.0276e-14,-7.95139e-15,-0.319452,-18.7769,75.574,76.4134,10.3186,-11.3868,34.9453,7.12502,14.6479,64.408,-35.696,8.0879,-4.37788,29.4577,1.55847,-15.6506,-7.48143,-9.45679,-2.73387,-10.1227,27.1335,-8.72044,13.8228,-1.57364
4.59802,18.8895,2.67182,-7.61773,-2.69533,-8.77801,15.9358,4.24839,-3.70109,5.16751,4.93015,-1.54662,-3.57146,2.43026,-0.469865,-8.12494,0.827566,-6.63766,24.2678,1.13892,5.26379,8.8159,0.484023,3.03903,-9.14409e-14,3.81667e-14,0.357258,27.2574,-68.919,83.7217,25.0858,-19.5345,0.300697,7.12502,6.78923,-29.5705,-9.14409e-14,3.81667e-14,0.214075,-17.1331,74.8722,76.7037,10.3524,-12.8345,34.868,7.12502,13.2527,64.4267,-36.4634,8.17316,-4.57733,29.231,1.98749,-15.0025,-7.35177,-9.17161,-2.77408,-10.161,26.8378,-8.64586,14.1879,-1.72202
4.61259,18.8951,2.66875,-7.67675,-2.89654,-8.81694,16.023,4.08365,-3.53479,5.18784,4.73392,-1.56807,-3.57745,2.33346,-0.55172,-7.57861,1.10379,-6.53783,24.7824,1.54311,4.94294,8.87025,0.637602,2.95446,-5.28767e-14,2.38542e-14,1.71547,25.9591,-68.0947,86.6752,25.3984,-23.902,0.281258,7.12502,2.57203,-29.683,-5.28767e-14,2.38542e-14,0.704723,-15.5629,74.1846,76.9821,10.5717,-13.7831,34.8866,7.12502,12.3382,64.5026,-37.1644,8.14761,-4.7172,29.0616,2.24557,-14.6897,-6.75449,-8.93722,-2.82487,-10.1781,26.574,-8.47965,14.5187,-2.19678
4.62959,18.9002,2.67169,-7.79982,-3.01108,-8.56235,15.9621,3.92457,-3.64246,5.28973,4.51033,-1.65877,-3.43314,2.22157,-0.534765,-6.95841,1.35268,-6.48641,25.2472,1.90968,4.64505,8.89774,0.771166,2.87876,6.40087e-14,-3.33958e-14,3.10645,24.6093,-67.3653,89.5546,25.4756,-27.4436,-0.414696,7.12502,-0.848549,-30.3928,6.40087e-14,-3.33958e-14,1.02031,-13.9075,73.6606,77.3457,10.7747,-14.4764,35.1227,7.12502,11.6698,64.7777,-37.768,7.86555,-5.07827,28.948,2.67046,-14.3483,-6.90253,-8.64107,-2.95237,-10.5574,26.333,-8.3468,14.8772,-2.27713
4.64356,18.905,2.67756,-7.93787,-3.11805,-8.31888,15.883,3.76489,-3.79759,5.40273,4.28187,-1.72143,-3.2725,2.10639,-0.460272,-6.26789,1.59208,-6.492,25.6565,2.27122,4.3372,8.89508,0.89623,2.80482,-3.02153e-14,2.22639e-14,4.51633,23.1792,-66.711,92.425,25.1355,-30.0392,-2.04853,7.12502,-3.35527,-32.0019,-3.02153e-14,2.22639e-14,1.10615,-12.0411,73.3412,77.7381,10.7431,-15.4477,35.0695,7.12502,10.7329,64.7753,-38.3462,7.66334,-5.42381,28.8681,3.02523,-14.1193,-7.8004,-8.34738,-3.12829,-10.9083,26.1062,-8.21294,15.2273,-2.28382
4.65273,18.9108,2.68319,-8.10914,-3.25897,-8.25433,15.9479,3.65214,-3.75443,5.47439,4.13601,-1.7803,-3.22054,2.03365,-0.51937,-5.52297,1.78916,-6.44538,26.0747,2.53454,4.14785,8.89081,0.991998,2.75191,-9.14409e-15,2.54444e-14,5.7486,21.5245,-66.227,95.1676,24.8124,-32.0119,-3.88291,7.12502,-5.26022,-33.7976,-9.14409e-15,2.54444e-14,1.32036,-10.1647,73.1353,77.9911,10.6278,-16.9903,34.6195,7.12502,9.24471,64.3969,-38.8713,7.68099,-5.60938,28.8034,3.16801,-14.2397,-7.86606,-8.02331,-3.30984,-11.0423,25.919,-8.10711,15.5776,-2.50369
4.65979,18.9133,2.68652,-8.29823,-3.38967,-8.21226,16.096,3.56652,-3.72215,5.53869,4.02059,-1.80172,-3.22495,1.97601,-0.544428,-4.7862,1.94058,-6.49945,26.5021,2.72736,4.05114,8.89343,1.05441,2.74135,4.77083e-14,-3.18055e-14,6.91405,19.7528,-65.7912,97.8227,24.5288,-33.3213,-4.44796,7.12502,-6.52435,-34.3275,4.77083e-14,-3.18055e-14,1.94038,-8.36587,72.9842,77.9633,10.6979,-17.9398,34.5386,7.12502,8.32847,64.3544,-39.373,7.75252,-5.79046,28.7477,3.30698,-14.5114,-7.26601,-7.69067,-3.52183,-11.142,25.7809,-8.1778,15.8926,-2.17665
4.66331,18.9144,2.68537,-8.416,-3.48259,-8.28761,16.2427,3.44967,-3.61818,5.59077,3.87655,-1.79436,-3.23878,1.90465,-0.573883,-4.27437,2.04798,-6.42818,27.1436,2.8957,3.80146,9.02173,1.09829,2.66396,-3.65764e-14,3.49861e-14,7.96245,17.9069,-65.6062,100.542,24.2059,-34.3571,-5.17765,7.12502,-7.52426,-35.0238,-3.65764e-14,3.49861e-14,2.54789,-6.6372,72.7878,78.0221,10.9487,-18.3638,34.6693,7.12502,7.91923,64.501,-39.9208,7.86256,-5.88705,28.725,3.5439,-14.8355,-6.57927,-7.47528,-3.60983,-11.0734,25.6471,-8.10131,16.0224,-1.99203
4.66732,18.9182,2.68523,-8.51763,-3.44213,-8.26038,16.321,3.30465,-3.62071,5.69553,3.68336,-1.82528,-3.16365,1.80784,-0.568391,-3.93295,2.08538,-6.13021,27.8714,3.02188,3.27053,9.2285,1.11461,2.45189,3.77691e-14,-8.11041e-14,9.01442,15.9666,-65.5385,103.236,23.7057,-35.0172,-5.94019,7.12502,-8.16138,-35.7626,3.77691e-14,-8.11041e-14,2.96064,-4.9511,72.6018,78.2518,11.3042,-18.6915,34.717,7.12502,7.60294,64.5603,-40.4166,7.83875,-6.08739,28.7546,3.84984,-15.1665,-6.36024,-7.29685,-3.70209,-11.1401,25.4796,-8.012,16.1064,-1.93406
4.67231,18.9231,2.68855,-8.63771,-3.27984,-8.06018,16.3121,3.15329,-3.82799,5.89573,3.45717,-1.89032,-2.94941,1.69169,-0.470013,-3.66688,2.08059,-6.00153,28.4513,3.07078,2.93086,9.39601,1.10012,2.3249,2.38542e-15,-2.06736e-14,10.1379,13.8648,-65.5228,105.802,23.0984,-35.1322,-5.58801,7.12502,-8.27239,-35.4061,2.38542e-15,-2.06736e-14,3.45343,-3.30879,72.4274,78.4735,11.5397,-18.8648,34.7791,7.12502,7.4357,64.6284,-40.8435,7.73937,-6.50788,28.8053,4.02037,-15.596,-5.78095,-7.0922,-3.82998,-11.432,25.2766,-7.97051,16.1353,-1.6905
4.67542,18.9254,2.69055,-8.74964,-3.07589,-7.81975,16.3054,3.01399,-4.08416,6.09751,3.23998,-1.96044,-2.73566,1.57876,-0.352289,-3.32767,2.09274,-6.11126,28.9337,3.07889,2.94445,9.505,1.08008,2.35392,-3.33958e-14,-2.22639e-14,11.1243,11.833,-65.5857,108.084,23.5477,-35.648,-6.15628,7.12502,-8.77017,-35.9541,-3.33958e-14,-2.22639e-14,4.07662,-1.61793,72.437,78.6586,11.6831,-18.7753,34.9705,7.12502,7.52201,64.8167,-41.273,7.70384,-7.03489,28.8515,4.27693,-16.0048,-5.84421,-6.9,-3.94132,-11.7634,25.0337,-7.82785,16.1566,-1.56174
4.67828,18.9293,2.69125,-8.83348,-2.84967,-7.70472,16.2157,2.86543,-4.24525,6.31772,3.03511,-1.96568,-2.45664,1.47068,-0.218266,-2.9025,2.11732,-6.28912,29.3425,3.08708,3.02663,9.56926,1.06113,2.41536,2.14687e-14,0,12.0711,9.92796,-65.6636,110.261,23.7691,-36.7944,-6.9671,7.12502,-9.87629,-36.7154,2.14687e-14,0,4.71014,0.11742,72.6482,78.9068,11.7846,-18.5419,34.9478,7.12502,7.74731,64.7859,-41.6505,7.66275,-7.42819,28.8639,4.71741,-16.3196,-6.31516,-6.75125,-3.97443,-11.9485,24.7914,-7.55089,16.0792,-1.89181
4.68142,18.936,2.6927,-8.90646,-2.6388,-7.64398,16.1317,2.74593,-4.33283,6.52304,2.87912,-1.97411,-2.19348,1.38736,-0.139739,-2.232,2.11441,-6.3083,29.4595,3.05247,2.95943,9.49015,1.03035,2.38212,2.78299e-15,-2.06736e-14,12.8639,7.986,-65.8273,112.526,22.8261,-34.2669,-6.23559,7.12502,-7.43723,-36.0849,2.78299e-15,-2.06736e-14,5.29129,1.6281,72.8368,79.1878,11.8351,-18.3773,34.9979,7.12502,7.90622,64.8301,-41.974,7.67709,-7.7708,28.8,5.09202,-16.613,-6.31967,-6.63367,-3.93885,-12.0602,24.6157,-7.40225,15.9064,-1.95916
4.68199,18.9417,2.69377,-8.98254,-2.44368,-7.56772,16.1517,2.69206,-4.41681,6.64594,2.79839,-2.02502,-2.0719,1.34407,-0.129064,-1.36869,2.00491,-6.12385,29.4797,2.85991,2.78037,9.35413,0.938982,2.25757,-2.18663e-14,-1.27222e-14,13.2603,6.18211,-66.0425,114.207,23.6512,-35.3731,-6.69661,7.12502,-8.50483,-36.5053,-2.18663e-14,-1.27222e-14,5.83971,2.91584,73.0896,79.5348,12.088,-18.1086,34.9376,7.12502,8.16549,64.7598,-42.2859,7.72403,-8.1221,28.6673,5.59888,-16.9077,-6.04249,-6.53025,-3.97603,-12.1862,24.4988,-7.37183,15.8514,-1.68785
4.68017,18.9425,2.69419,-9.07496,-2.21302,-7.58483,16.2352,2.63406,-4.36076,6.74167,2.72794,-2.08297,-2.00697,1.30915,-0.209552,-0.578125,1.84777,-6.06773,29.5857,2.5551,2.86794,9.26019,0.806328,2.24465,-2.10712e-14,-3.02153e-14,13.417,4.47111,-66.2705,115.705,24.3509,-36.7394,-7.31633,7.12502,-9.82322,-37.0672,-2.10712e-14,-3.02153e-14,6.38573,4.07677,73.3495,79.8927,12.4808,-17.5267,34.7036,7.12502,8.7271,64.5032,-42.5318,7.87434,-8.42868,28.493,5.99988,-17.3987,-5.29078,-6.43554,-4.06101,-12.2054,24.393,-7.35524,15.7812,-1.12128
4.67679,18.9421,2.69464,-9.0991,-1.91893,-7.58481,16.2766,2.50618,-4.40117,6.95886,2.56171,-2.07478,-1.79522,1.22115,-0.14466,-0.35208,1.78959,-6.39163,29.748,2.41544,3.14985,9.27497,0.728607,2.38855,-3.57812e-15,5.24792e-14,13.8452,3.03935,-66.4163,117.039,24.4394,-37.5847,-7.3693,7.12502,-10.6387,-37.08,-3.57812e-15,5.24792e-14,7.01327,5.36883,73.6912,80.2099,12.497,-17.5684,34.3444,7.12502,8.68687,64.1457,-42.7997,7.97517,-8.77438,28.3207,6.2764,-17.8647,-4.95701,-6.43895,-4.13361,-12.2393,24.2658,-7.20004,15.6487,-1.20618
4.67522,18.9473,2.69704,-9.1536,-1.56139,-7.51351,16.3371,2.40969,-4.44396,7.1212,2.43076,-2.14591,-1.64875,1.15316,-0.170546,0.0939777,1.68714,-6.41076,29.8424,2.21392,3.25436,9.2357,0.63809,2.4091,-3.57812e-15,-2.22639e-14,13.9278,1.72806,-66.6069,118.254,24.4031,-38.6424,-7.38741,7.12502,-11.6588,-37.043,-3.57812e-15,-2.22639e-14,7.47673,6.27215,73.9911,80.5042,12.3731,-18.397,34.0573,7.12502,7.88716,63.8902,-42.9411,8.01439,-9.18248,28.1231,6.43524,-18.2844,-4.80124,-6.4026,-4.23691,-12.3659,24.1441,-7.11802,15.4822,-0.85048
4.67156,18.9491,2.70031,-9.24109,-1.15585,-7.33735,16.4694,2.32763,-4.59284,7.27844,2.29801,-2.2248,-1.54803,1.08293,-0.147863,0.598855,1.5217,-6.4542,29.8994,1.93829,3.29595,9.17838,0.504797,2.40602,-3.89618e-14,3.18055e-15,13.8129,0.676977,-66.7283,119.212,24.6821,-39.9053,-7.61325,7.12502,-12.8765,-37.196,-3.89618e-14,3.18055e-15,7.89701,7.07172,74.3159,80.9203,12.1373,-18.9082,34.2645,7.12502,7.39371,64.1153,-43.0052,8.07463,-9.71381,27.9225,6.42491,-18.8303,-4.12787,-6.33095,-4.3449,-12.6085,24.006,-7.0594,15.2884,-0.445888
4.6665,18.9486,2.70095,-9.27539,-0.82801,-7.37255,16.5903,2.2669,-4.45222,7.42907,2.23765,-2.27996,-1.44266,1.05423,-0.275029,1.0677,1.28509,-6.58931,29.9335,1.52559,3.52743,9.12319,0.316429,2.47703,1.03368e-14,-4.77083e-15,13.4853,-0.239474,-66.8442,119.966,25.0118,-41.0435,-8.12159,7.12502,-13.9735,-37.632,1.03368e-14,-4.77083e-15,8.37015,7.70185,74.6337,81.3483,11.7421,-18.9129,34.6391,7.12502,7.38921,64.4901,-43.1166,8.23613,-10.0273,27.6967,6.23807,-19.4985,-3.29051,-6.323,-4.44619,-12.594,23.8703,-6.98338,15.1157,-0.0933789
4.66141,18.9484,2.70407,-9.29021,-0.532641,-7.44093,16.5817,2.19283,-4.30263,7.6649,2.17466,-2.30552,-1.18004,1.02152,-0.369479,1.22804,1.09445,-6.76632,29.9916,1.20376,3.75329,9.12917,0.166197,2.56469,9.14409e-15,1.27222e-14,13.2131,-0.875523,-66.9484,120.593,25.3002,-41.8719,-8.59769,7.12502,-14.7717,-38.0513,9.14409e-15,1.27222e-14,8.82926,8.32322,74.909,81.7346,11.5582,-19.1719,34.5528,7.12502,7.13918,64.4124,-43.2079,8.42276,-10.2941,27.3955,5.91765,-20.271,-2.85157,-6.36598,-4.5345,-12.5549,23.8254,-6.84015,14.9732,-0.471638
4.65481,18.9457,2.70783,-9.32174,-0.192031,-7.39157,16.6523,2.09157,-4.33559,7.89676,2.04373,-2.32832,-0.966517,0.951519,-0.350093,1.31841,1.0085,-6.96311,29.9867,1.04513,3.93383,9.11714,0.0870107,2.65041,-7.95139e-15,3.49861e-14,12.8735,-1.16298,-67.0452,121.081,25.5098,-42.1849,-8.87134,7.12502,-15.0733,-38.3026,-7.95139e-15,3.49861e-14,9.11631,8.97799,75.1272,82.1562,11.5733,-19.5832,34.075,7.12502,6.74216,63.9477,-43.2132,8.5754,-10.6717,27.0118,5.5873,-21.0676,-2.70015,-6.45047,-4.65375,-12.6476,23.901,-6.88543,14.8529,-0.565872
4.64646,18.9404,2.70921,-9.31705,0.0460574,-7.47183,16.8436,1.99434,-4.26692,8.04042,1.92252,-2.28127,-0.909981,0.890183,-0.321593,1.36149,0.92222,-7.18911,30.0524,0.905455,4.05939,9.13999,0.00722332,2.72553,-3.10104e-14,-1.74931e-14,12.313,-1.16625,-67.1443,121.353,25.6281,-42.3281,-8.63263,7.12502,-15.2112,-38.0534,-3.10104e-14,-1.74931e-14,9.21599,9.635,75.3815,82.6582,11.5429,-19.8218,33.7955,7.12502,6.51188,63.6754,-43.2928,8.81484,-10.891,26.6136,5.13843,-21.9105,-2.75743,-6.58744,-4.68803,-12.5531,24.0041,-6.95827,14.6792,-0.312961
4.63823,18.9334,2.70861,-9.27372,0.236658,-7.50084,17.0619,2.00222,-4.18193,8.08228,1.93401,-2.28338,-0.976913,0.898975,-0.379667,1.5475,0.750234,-7.16815,30.0894,0.62847,4.14698,9.13615,-0.11306,2.73352,1.35174e-14,3.18055e-15,11.3018,-1.14782,-67.2629,121.482,25.8549,-42.1272,-8.439,7.12502,-15.0177,-37.8744,1.35174e-14,3.18055e-15,9.17274,9.90462,75.6164,83.1644,11.5356,-20.2176,33.5792,7.12502,6.12975,63.4705,-43.4136,8.99559,-11.1095,26.2075,4.44795,-22.7496,-2.28326,-6.76869,-4.65251,-12.5028,24.12,-6.89147,14.4682,-0.754742
4.63104,18.9292,2.70945,-9.19258,0.527908,-7.30953,17.1684,1.98093,-4.35576,8.19044,1.87897,-2.28526,-0.919191,0.865839,-0.27584,1.56189,0.651859,-7.21523,30.0845,0.49516,4.14463,9.14075,-0.179715,2.73208,-6.36111e-15,3.02153e-14,10.4035,-0.859041,-67.3711,121.435,26.0449,-41.5621,-8.40521,7.12502,-14.4733,-37.8805,-6.36111e-15,3.02153e-14,9.01454,10.2397,75.7885,83.6904,11.7306,-20.7862,33.1814,7.12502,5.58075,63.0879,-43.4943,9.05642,-11.5755,25.8004,3.59791,-23.5439,-1.46129,-6.98742,-4.66191,-12.724,24.2326,-6.78541,14.2585,-1.13899
4.62182,18.9254,2.7113,-9.12613,0.817181,-7.18649,17.247,1.93035,-4.54575,8.38012,1.79065,-2.20891,-0.761166,0.811497,-0.0725419,1.38585,0.590353,-7.31196,30.0354,0.441636,4.09856,9.1595,-0.216254,2.72978,-1.19271e-14,-1.74931e-14,9.62729,-0.343658,-67.4399,121.174,26.0777,-41.1043,-8.4344,7.12502,-14.0321,-37.9407,-1.19271e-14,-1.74931e-14,8.83268,10.6776,75.9943,84.2454,11.9606,-21.2535,32.7557,7.12502,5.12955,62.6736,-43.5759,9.2277,-11.9956,25.4057,2.66926,-24.404,-0.718652,-7.19309,-4.61183,-12.8543,24.3396,-6.70964,13.9916,-1.22848
4.61253,18.9221,2.71433,-9.06901,1.01015,-7.13826,17.2972,1.92773,-4.62994,8.54588,1.78173,-2.12298,-0.613824,0.799266,0.067729,1.21907,0.494987,-7.38977,29.9979,0.310596,4.16636,9.18399,-0.27621,2.75899,1.82882e-14,4.77083e-15,8.61286,0.310773,-67.4889,120.749,25.948,-40.1132,-8.62433,7.12502,-13.077,-38.1944,1.82882e-14,4.77083e-15,8.53923,10.905,76.1584,84.7383,12.17,-21.5948,32.345,7.12502,4.80006,62.2706,-43.6723,9.47961,-12.2812,25.0366,1.70327,-25.1785,-0.195542,-7.35784,-4.47298,-12.8764,24.4213,-6.67393,13.7592,-1.23361
4.60156,18.9163,2.7181,-8.95479,1.11868,-7.15321,17.3125,1.97197,-4.61273,8.64368,1.84808,-2.04143,-0.521628,0.828937,0.133156,1.19483,0.401206,-7.39814,29.8912,0.155203,4.27983,9.15814,-0.335232,2.78777,6.36111e-15,4.45278e-14,7.35997,1.05586,-67.6399,120.152,25.8591,-39.0524,-8.5005,7.12502,-12.0542,-38.1333,6.36111e-15,4.45278e-14,8.08901,10.8856,76.2057,85.1478,12.4834,-21.9918,31.838,7.12502,4.41671,61.772,-43.8429,9.68812,-12.4153,24.719,0.874487,-25.7801,0.0953575,-7.55665,-4.31896,-12.8033,24.4819,-6.63287,13.553,-1.43088
4.59145,18.9112,2.72486,-8.80223,1.3019,-7.05067,17.3493,2.0119,-4.63792,8.70187,1.89823,-2.01477,-0.481392,0.851863,0.16628,1.16329,0.303092,-7.34206,29.7766,-0.0031061,4.36716,9.13123,-0.390805,2.79581,1.98785e-14,-2.70347e-14,6.02288,1.79595,-67.9438,119.388,25.5711,-38.4863,-8.16773,7.12502,-11.5083,-37.8318,1.98785e-14,-2.70347e-14,7.54158,10.7329,76.1907,85.5089,12.9359,-22.2079,31.4278,7.12502,4.20805,61.366,-43.9945,9.73456,-12.6114,24.4518,0.128581,-26.2158,0.205209,-7.79679,-4.19539,-12.8806,24.5419,-6.55156,13.3273,-1.58157
4.58322,18.9096,2.73257,-8.65609,1.61019,-6.74754,17.4333,2.01359,-4.77514,8.7136,1.87469,-2.07824,-0.511798,0.838508,0.178272,1.18472,0.21028,-7.27896,29.6528,-0.161431,4.46617,9.09131,-0.445302,2.8061,-9.54166e-15,-9.54166e-15,4.55225,2.6023,-68.466,118.445,25.0395,-38.3703,-7.7769,7.12502,-11.3964,-37.4472,-9.54166e-15,-9.54166e-15,6.78578,10.5613,76.1241,85.8867,13.2176,-22.2252,31.1287,7.12502,4.19127,61.0672,-44.0553,9.57412,-12.9344,24.2321,-0.534109,-26.4711,0.112875,-8.01716,-4.16045,-13.2073,24.6047,-6.53156,13.0409,-1.50075
4.57502,18.9054,2.73935,-8.53425,1.85786,-6.54228,17.5312,2.02918,-4.86704,8.73629,1.87731,-2.04879,-0.540912,0.837258,0.257821,1.18409,0.151001,-7.27502,29.4553,-0.262878,4.55383,9.02571,-0.479014,2.8252,2.38542e-15,-7.95139e-15,3.11511,3.53844,-68.9514,117.281,24.6222,-38.0948,-7.25174,7.12502,-11.1307,-36.9365,2.38542e-15,-7.95139e-15,6.00737,10.4086,76.1416,86.1666,13.514,-21.9462,30.697,7.12502,4.4607,60.63,-44.1283,9.53926,-13.1816,24.0517,-1.38272,-26.7667,0.314028,-8.20127,-4.08776,-13.4246,24.6656,-6.52031,12.7742,-1.57791
4.56367,18.8998,2.74379,-8.42307,1.99374,-6.42641,17.6879,2.09277,-4.90522,8.74823,1.94665,-1.96469,-0.61539,0.870343,0.350866,1.18781,0.106298,-7.3359,29.2215,-0.352586,4.70005,8.9456,-0.50805,2.87607,-5.56597e-15,1.59028e-14,1.66992,4.50328,-69.4483,115.966,24.2278,-37.0005,-6.93825,7.12502,-10.0752,-36.6771,-5.56597e-15,1.59028e-14,5.06016,10.1082,76.103,86.5209,14.3445,-21.9518,30.4587,7.12502,4.45529,60.3918,-44.246,9.64309,-13.3199,23.8756,-2.14898,-27.0667,0.596571,-8.39154,-3.95997,-13.513,24.7602,-6.49924,12.5576,-1.76867
4.54801,18.8956,2.74594,-8.22015,2.02301,-6.45909,17.8006,2.19713,-4.80809,8.70326,2.09104,-1.84452,-0.729937,0.945196,0.392411,1.22111,0.0162243,-7.29348,28.9935,-0.490623,4.75101,8.86647,-0.557911,2.87248,7.15625e-15,2.54444e-14,0.140768,5.39024,-70.0704,114.566,23.4714,-34.2255,-6.16469,7.12502,-7.39723,-36.0154,7.15625e-15,2.54444e-14,3.97188,9.6089,76.0374,86.828,15.3376,-22.2943,30.3,7.12502,4.12454,60.2398,-44.4687,9.88947,-13.3098,23.6762,-2.68974,-27.4121,0.707887,-8.71953,-3.77361,-13.3913,24.894,-6.48605,12.3901,-1.95246
4.5317,18.8903,2.7493,-8.02632,2.03487,-6.57385,17.8707,2.29408,-4.6026,8.7054,2.24849,-1.70901,-0.770332,1.02754,0.388637,1.10491,-0.0988083,-7.29641,28.8409,-0.670707,4.8871,8.84401,-0.624245,2.90585,7.95139e-16,-1.27222e-14,-1.26613,6.3573,-70.8247,112.269,24.7611,-34.114,-5.5897,7.12502,-7.2896,-35.4441,7.95139e-16,-1.27222e-14,3.00219,9.08707,76.023,86.8822,16.0356,-22.4412,29.7296,7.12502,3.98272,59.6721,-44.6335,10.0812,-13.1064,23.4516,-3.13956,-27.7027,0.667067,-9.04588,-3.64821,-13.1768,25.0584,-6.52058,12.312,-2.0576
4.51878,18.8858,2.75886,-7.84959,2.22807,-6.385,17.8735,2.33866,-4.68614,8.72991,2.2976,-1.62901,-0.752996,1.04788,0.51102,1.01869,-0.158214,-7.38737,28.6777,-0.77277,5.03867,8.8079,-0.662321,2.96468,-1.90833e-14,-4.77083e-15,-2.51305,7.3459,-71.6369,109.987,24.6826,-33.4904,-5.54742,7.12502,-6.68765,-35.4218,-1.90833e-14,-4.77083e-15,1.9387,8.60762,75.9966,86.8867,16.5136,-22.2926,29.3761,7.12502,4.12625,59.3159,-44.6258,9.90741,-13.0679,23.2586,-3.13892,-27.7038,-0.205241,-9.31392,-3.72242,-13.3532,25.2084,-6.65812,12.3165,-2.16449
4.5059,18.8826,2.76646,-7.64415,2.38993,-6.26418,17.9686,2.39431,-4.6402,8.65413,2.37079,-1.55038,-0.888441,1.08752,0.549684,1.02499,-0.225022,-7.37818,28.5376,-0.871187,5.07918,8.76356,-0.699549,2.96786,1.51076e-14,-3.18055e-14,-3.8806,8.20431,-72.4663,107.504,24.3914,-32.4651,-5.74957,7.12502,-5.69775,-35.653,1.51076e-14,-3.18055e-14,0.501448,7.89931,75.8818,86.9633,17.036,-22.0518,29.3073,7.12502,4.35875,59.2424,-44.6837,9.83394,-13.0254,23.1451,-3.40261,-27.7127,-0.57589,-9.57581,-3.75931,-13.4434,25.3003,-6.75353,12.272,-2.20951
4.49138,18.8809,2.77386,-7.45086,2.45071,-6.24192,18.0268,2.46992,-4.51784,8.62875,2.4877,-1.42302,-0.952647,1.14811,0.590633,0.917909,-0.298628,-7.40568,28.363,-0.959056,5.08391,8.72749,-0.737051,2.96533,2.62396e-14,-3.97569e-14,-5.08772,9.02836,-73.298,104.673,24.4064,-31.7744,-5.45047,7.12502,-5.03094,-35.3707,2.62396e-14,-3.97569e-14,-0.872846,7.16199,75.849,86.9667,17.3548,-22.1385,29.9564,7.12502,4.27504,59.8932,-44.8041,9.83594,-12.8406,23.1329,-3.84803,-27.6936,-0.491051,-9.77462,-3.74922,-13.4031,25.3033,-6.80713,12.2259,-2.10426
4.47832,18.8824,2.78618,-7.30283,2.53939,-6.03918,18.0071,2.56432,-4.59727,8.69073,2.60558,-1.31364,-0.888645,1.20099,0.730217,0.707011,-0.383629,-7.44029,28.1615,-1.04244,5.03798,8.701,-0.776195,2.94641,-2.18663e-14,-1.90833e-14,-6.0822,9.84206,-74.1198,101.446,24.5175,-31.8402,-4.98134,7.12502,-5.09447,-34.9001,-2.18663e-14,-1.90833e-14,-1.7436,6.46837,75.9767,86.6647,17.4326,-22.5692,30.8265,7.12502,3.85912,60.7713,-44.8036,9.67978,-12.7022,23.164,-4.08574,-27.4636,-0.612985,-9.87445,-3.72826,-13.5886,25.2743,-6.83932,12.1739,-2.09567
4.46143,18.8867,2.79945,-7.16962,2.491,-5.94925,18.0131,2.7069,-4.53883,8.66788,2.80129,-1.24399,-0.926501,1.29968,0.733033,0.628671,-0.459963,-7.28691,28.0651,-1.14527,5.01727,8.68685,-0.806336,2.90397,2.78299e-14,1.11319e-14,-7.13246,10.472,-75.1013,97.895,24.8645,-31.6628,-4.28828,7.12502,-4.92318,-34.2111,2.78299e-14,1.11319e-14,-2.7362,5.61069,75.9467,86.247,17.4471,-22.02,30.5946,7.12502,4.38944,60.5291,-44.8696,9.67944,-12.4172,23.2496,-4.15229,-27.186,-0.745875,-9.9123,-3.59118,-13.6129,25.2101,-6.89766,12.133,-1.98392
4.44143,18.8875,2.81433,-7.13127,2.29578,-5.77902,18.1989,2.92355,-4.54085,8.56613,3.06724,-1.22457,-1.14417,1.43589,0.69326,0.75444,-0.544899,-7.02588,27.9167,-1.27056,4.95113,8.618,-0.84227,2.82432,9.14409e-15,-1.59028e-15,-8.16838,11.0363,-76.0787,94.052,25.5114,-30.742,-4.14116,7.12502,-4.03404,-34.0827,9.14409e-15,-1.59028e-15,-4.11771,4.57324,75.7736,85.8659,17.4194,-20.5813,30.287,7.12502,5.7786,60.1882,-44.9249,9.79017,-12.1581,23.3722,-4.27677,-26.7985,-0.470296,-9.81096,-3.35658,-13.7024,25.1795,-7.0127,12.1113,-1.83243
4.42314,18.8847,2.8345,-7.08911,2.15471,-5.47286,18.3523,3.11477,-4.70243,8.47401,3.27718,-1.18642,-1.34038,1.53926,0.773279,0.783091,-0.613675,-6.97667,27.8425,-1.37378,4.97727,8.59318,-0.880847,2.81663,3.26007e-14,-3.02153e-14,-9.01199,11.8288,-76.9076,89.9723,25.9959,-29.7171,-4.06899,7.12502,-3.04422,-34.027,3.26007e-14,-3.02153e-14,-5.52234,3.63522,75.7191,85.4273,17.2557,-19.1924,30.5272,7.12502,7.11943,60.3875,-44.8803,9.83607,-12.0415,23.4734,-4.44502,-26.3676,-0.27658,-9.72929,-3.20166,-13.9565,25.2343,-7.22762,12.1235,-1.62826
4.4168,18.8805,2.85169,-6.71581,2.59459,-5.42926,18.0995,2.97884,-4.4475,8.39506,3.16056,-1.07182,-1.28575,1.48693,0.783416,0.717021,-0.675633,-7.06618,27.7206,-1.43944,4.95672,8.56805,-0.918352,2.81865,-6.36111e-15,1.59028e-14,-9.67812,12.831,-77.6909,85.7384,26.347,-29.3864,-3.97077,7.12502,-2.72487,-33.9331,-6.36111e-15,1.59028e-14,-6.85331,2.88836,75.8312,84.9825,17.0118,-17.9734,30.6333,7.12502,8.29604,60.4504,-44.7856,9.48987,-11.9104,23.6005,-4.59187,-26.2143,-0.609327,-10.2576,-3.56022,-14.0042,25.354,-7.24229,12.1371,-1.81588
4.39676,18.879,2.86938,-6.41367,2.77965,-5.6074,17.8835,2.93598,-4.15083,8.32507,3.16899,-0.891875,-1.24774,1.49606,0.812633,0.651794,-0.723159,-7.03881,27.5813,-1.47292,4.84635,8.53344,-0.937171,2.77124,-4.21423e-14,3.65764e-14,-10.237,13.8741,-78.4649,81.3523,26.9768,-28.8558,-3.75842,7.12502,-2.21247,-33.7267,-4.21423e-14,3.65764e-14,-8.17136,2.16965,75.9228,84.5506,16.7052,-16.8157,30.671,7.12502,9.41318,60.4408,-44.8258,9.56736,-11.5423,23.8571,-4.91607,-26.1844,-0.523581,-10.6577,-3.68317,-13.7218,25.4548,-7.29911,12.0924,-1.83099
4.37864,18.8781,2.89273,-6.20231,2.90004,-5.57024,17.7286,2.91267,-4.03178,8.26513,3.16737,-0.809383,-1.23159,1.49755,0.838166,0.281816,-0.772415,-6.93596,27.7421,-1.49046,4.69467,8.65723,-0.944929,2.7028,-3.26007e-14,1.27222e-14,-10.5438,15.0352,-79.1677,76.6031,27.8009,-27.5974,-3.30478,7.12502,-0.997121,-33.2822,-3.26007e-14,1.27222e-14,-9.49715,1.54144,75.9715,84.2466,16.1729,-15.3982,31.4607,7.12502,10.7807,61.164,-44.7916,9.40302,-11.1478,24.2388,-4.93927,-25.7485,-0.579297,-10.8475,-3.76562,-13.6918,25.5199,-7.45867,12.0621,-1.37674
4.3648,18.879,2.91648,-6.03472,3.08117,-5.34516,17.5856,2.86119,-4.05439,8.24416,3.10563,-0.787078,-1.17971,1.4659,0.891604,-0.280627,-0.809492,-6.81135,27.9909,-1.47909,4.52613,8.84557,-0.938034,2.62795,1.55052e-14,4.77083e-15,-10.5273,16.5595,-79.7553,71.3665,28.8263,-26.1594,-3.06434,7.12502,0.391791,-33.0437,1.55052e-14,4.77083e-15,-10.8244,1.03527,76.0199,84.0059,15.4596,-13.771,32.3312,7.12502,12.3499,61.9464,-44.6185,8.94079,-10.7725,24.7275,-4.57244,-24.9851,-0.939978,-10.9462,-3.9221,-13.9054,25.5097,-7.52995,12.0737,-1.11766
4.34844,18.8831,2.94091,-5.88854,3.15528,-5.22793,17.3204,2.87569,-3.99791,8.27227,3.15148,-0.71946,-1.01606,1.48684,0.934746,-0.59159,-0.794577,-6.74785,27.9718,-1.46781,4.62477,8.89355,-0.912668,2.65164,3.57812e-15,2.38542e-14,-10.2677,18.2418,-80.1947,65.7537,30.0359,-24.2064,-2.686,7.12502,2.27807,-32.6536,3.57812e-15,2.38542e-14,-12.1954,0.399501,76.1156,83.7868,14.9868,-12.4562,32.1747,7.12502,13.6174,61.7093,-44.4676,8.61657,-10.2638,25.3045,-4.15466,-24.1978,-1.27531,-10.9898,-3.98795,-13.972,25.4678,-7.62077,12.0556,-0.883198
4.32959,18.8795,2.96857,-5.76557,3.25798,-4.93101,17.1235,2.94185,-4.08292,8.25476,3.23652,-0.712418,-0.940817,1.52655,0.9824,-0.683813,-0.812465,-6.70499,27.8299,-1.52947,4.7969,8.86295,-0.917429,2.69682,8.74653e-15,3.18055e-14,-9.95528,20.0448,-80.5873,59.9477,31.2305,-21.6901,-2.07582,7.12502,4.708,-32.0035,8.74653e-15,3.18055e-14,-13.5469,-0.287457,76.2727,83.5522,14.6223,-10.9209,31.5945,7.12502,15.0967,61.024,-44.3294,8.26934,-9.97003,25.9347,-3.70076,-23.3971,-1.50617,-11.002,-4.01395,-14.2433,25.4744,-7.7501,11.9671,-0.992461
4.30659,18.8712,2.99497,-5.65141,3.27635,-4.68362,17.0069,3.03284,-4.13049,8.22005,3.35411,-0.71429,-0.924988,1.58439,0.990033,-0.903453,-0.897684,-6.59951,27.7047,-1.66169,4.87751,8.86608,-0.956399,2.69414,-1.51076e-14,-3.97569e-15,-9.46334,22.1964,-80.9721,53.9715,32.0028,-18.5723,-1.18771,7.12502,7.71801,-31.0269,-1.51076e-14,-3.97569e-15,-14.8475,-0.829863,76.439,83.4253,14.1434,-9.13483,31.5407,7.12502,16.8167,60.8325,-44.2446,8.01259,-9.63851,26.5696,-3.22292,-22.6487,-1.72287,-11.0714,-3.95507,-14.4334,25.5753,-7.84979,11.9042,-1.17577
4.27903,18.8589,3.02146,-5.55105,3.19233,-4.58815,16.909,3.13129,-4.06126,8.19233,3.49898,-0.659796,-0.910699,1.65755,0.986098,-1.33446,-0.990825,-6.61787,27.6587,-1.80051,5.03195,8.93837,-1.00227,2.73908,3.97569e-16,-1.82882e-14,-8.90327,25.0542,-81.3124,47.6016,34.1116,-17.6666,-0.771933,7.12502,8.5921,-30.5771,3.97569e-16,-1.82882e-14,-16.1879,-1.22302,76.654,83.4078,13.5124,-7.3186,31.6298,7.12502,18.5644,60.764,-44.2173,7.87282,-9.13422,27.2469,-2.73289,-21.9009,-1.98369,-11.1784,-3.87103,-14.4106,25.7691,-8.07054,11.8484,-0.969535
4.25514,18.8483,3.05088,-5.47743,3.23846,-4.43542,16.8283,3.20022,-3.98273,8.1469,3.60595,-0.597067,-0.922379,1.71277,0.99123,-1.65249,-1.09982,-6.73627,27.5475,-1.95654,5.19005,8.97002,-1.06603,2.8,-9.93923e-15,-6.36111e-15,-8.38356,28.5209,-81.6083,41.5631,34.5551,-15.1337,-0.0382913,7.12502,11.0358,-29.7282,-9.93923e-15,-6.36111e-15,-17.5539,-1.62512,76.9601,83.4406,12.9444,-5.38437,31.5657,7.12502,20.4241,60.5116,-44.0777,7.55821,-8.65308,28.0184,-2.08702,-21.0395,-2.59459,-11.2981,-3.80564,-14.4842,26.0078,-8.23445,11.7342,-1.17673
4.23208,18.8377,3.07922,-5.3675,3.34845,-4.2936,16.7313,3.28707,-3.83394,8.0596,3.74608,-0.556031,-0.966343,1.78774,0.928039,-1.90864,-1.22754,-6.70717,27.4359,-2.13928,5.27753,8.99032,-1.13433,2.80834,-1.59028e-15,5.48646e-14,-8.07819,32.5395,-82.0041,35.8818,34.5118,-8.9804,1.56457,7.12502,16.9653,-27.7145,-1.59028e-15,5.48646e-14,-18.84,-2.09229,77.2848,83.3975,12.3966,-3.93138,30.8107,7.12502,21.8199,59.6006,-43.9256,7.09563,-8.12461,28.8768,-1.36642,-20.1831,-3.10461,-11.4726,-3.79103,-14.5606,26.2559,-8.36106,11.5982,-1.46463
4.20725,18.8251,3.10994,-5.29071,3.43695,-3.98425,16.6688,3.44473,-3.80675,8.00134,3.95812,-0.584097,-1.00159,1.89622,0.846871,-2.1547,-1.39692,-6.57565,27.1551,-2.38867,5.36594,8.95222,-1.22272,2.7902,1.66979e-14,3.97569e-15,-8.11064,37.0987,-82.5733,30.9073,34.5061,-14.747,1.53438,7.12502,11.4088,-28.1352,1.66979e-14,3.97569e-15,-20.0398,-2.57206,77.5802,83.3813,11.7835,-2.79084,29.8329,7.12502,22.9147,58.4912,-43.7289,6.50181,-7.68301,29.7672,-0.553774,-19.2403,-3.71305,-11.5498,-3.81103,-14.8258,26.49,-8.59006,11.5347,-1.66678
4.18032,18.8126,3.13997,-5.2728,3.46073,-3.67657,16.6638,3.65297,-3.76054,7.99482,4.2376,-0.601708,-1.01335,2.03768,0.752651,-2.56335,-1.62042,-6.50791,26.8358,-2.7092,5.50575,8.93749,-1.34386,2.79324,3.45885e-14,-3.18055e-14,-7.86723,38.6905,-82.8224,28.643,36.1323,-18.2683,1.34526,7.12502,8.01141,-28.4829,3.45885e-14,-3.18055e-14,-21.2228,-2.92426,77.9261,83.5164,11.1464,-1.37374,29.1875,7.12502,24.2739,57.6707,-43.4503,5.97116,-7.21681,30.6216,0.303694,-18.3104,-4.05496,-11.5754,-3.7831,-15.0781,26.7253,-8.78741,11.5023,-1.89822
4.15008,18.7988,3.16737,-5.22724,3.3592,-3.50537,16.5932,3.93142,-3.67103,7.99764,4.62139,-0.507493,-0.990712,2.22951,0.736916,-2.95407,-1.86789,-6.56903,26.4527,-3.05194,5.66756,8.90213,-1.48588,2.82241,-5.1684e-15,2.38542e-15,-7.97966,38.2328,-83.0946,28.0844,37.4519,-14.5798,2.02278,7.12502,11.57,-27.6378,-5.1684e-15,2.38542e-15,-22.2247,-3.15797,78.4187,83.5913,10.5371,0.670518,29.2385,7.12502,26.2325,57.4454,-43.1929,5.92202,-6.8304,31.3969,0.721988,-17.8447,-3.79792,-11.6264,-3.65083,-15.1354,26.9288,-8.93896,11.4353,-1.78816
