JuanDHNZ/ProyectoFinalCD/preprocessing/sports_trials_csv/13_10.csv
root1,root2,root3,root4,root5,root6,lowerback1,lowerback2,lowerback3,upperback1,upperback2,upperback3,thorax1,thorax2,thorax3,lowerneck1,lowerneck2,lowerneck3,upperneck1,upperneck2,upperneck3,head1,head2,head3,rclavicle1,rclavicle2,rhumerus1,rhumerus2,rhumerus3,rradius1,rwrist1,rhand1,rhand2,rfingers1,rthumb1,rthumb2,lclavicle1,lclavicle2,lhumerus1,lhumerus2,lhumerus3,lradius1,lwrist1,lhand1,lhand2,lfingers1,lthumb1,lthumb2,rfemur1,rfemur2,rfemur3,rtibia1,rfoot1,rfoot2,rtoes1,lfemur1,lfemur2,lfemur3,ltibia1,lfoot1,lfoot2,ltoes1
3.87327,18.6761,0.690803,-12.1118,-76.3206,14.1825,9.56846,3.11662,-3.51235,0.431161,3.62842,-1.82042,-5.01418,1.83282,-0.426997,-7.27633,0.0638241,-4.82565,-3.22994,0.40457,5.292,0.211645,0.263539,2.52476,6.53505e-15,1.23246e-14,-35.3321,3.21923,-74.7891,34.7511,13.5743,-31.9133,12.248,7.12502,-5.16499,-17.669,6.53505e-15,1.23246e-14,-30.0039,11.5089,69.0635,24.9932,-8.19463,-18.8095,21.6612,7.12502,7.48903,51.5086,-9.47269,21.8575,15.0892,26.8868,-19.1675,-13.1554,-2.20908,-5.71823,-7.56396,-25.2285,21.5053,-16.7728,15.5073,2.7429
3.87359,18.6753,0.696207,-12.2002,-76.4347,14.5399,9.52007,3.15666,-3.68953,0.347679,3.66354,-1.81105,-5.08749,1.85586,-0.324528,-7.065,-0.033487,-4.96222,-4.08947,0.289657,5.21877,-0.0911717,0.198879,2.51904,3.56818e-14,-2.34566e-14,-34.9712,3.59091,-74.1267,35.0276,13.7174,-31.53,12.3442,7.12502,-4.79494,-17.5816,3.56818e-14,-2.34566e-14,-29.6004,10.8687,68.5613,25.131,-7.88614,-18.703,21.8132,7.12502,7.59181,51.6569,-9.82921,21.9926,14.8812,26.9001,-19.1073,-13.1973,-2.27748,-6.14755,-7.23765,-25.2512,21.7441,-16.8328,15.3045,2.77109
3.86965,18.6747,0.699695,-10.6529,-76.6137,12.8462,9.79025,3.1397,-3.44398,0.357694,3.66497,-1.64491,-5.2235,1.85397,-0.303712,-6.83132,-0.0676577,-4.95763,-4.97596,0.243557,5.05617,-0.409788,0.166619,2.46147,-1.72694e-14,1.2921e-14,-34.536,4.07725,-73.4603,35.2811,13.8951,-31.6355,12.5913,7.12502,-4.89676,-17.3321,-1.72694e-14,1.2921e-14,-29.1932,10.4599,67.9053,25.2555,-7.44078,-18.5936,21.8779,7.12502,7.69744,51.7178,-9.77342,22.1858,15.4093,27.0011,-19.1229,-13.2927,-2.24661,-6.03348,-6.9209,-24.7722,21.7022,-16.7821,15.1282,2.85758
3.85433,18.6699,0.716995,-11.5585,-76.5834,13.5966,9.90316,3.09207,-3.62476,0.461312,3.57166,-1.70544,-5.1832,1.80869,-0.254823,-6.64329,-0.0868614,-5.01626,-5.82651,0.223211,5.08564,-0.711109,0.148958,2.48327,-2.46493e-14,7.55382e-15,-34.0587,4.71723,-72.8941,35.6336,13.7785,-31.8505,12.3639,7.12502,-5.10438,-17.5546,-2.46493e-14,7.55382e-15,-28.7235,10.1092,67.0819,25.3832,-6.94153,-18.5242,21.7988,7.12502,7.76442,51.6362,-9.52747,22.0746,15.2659,27.1021,-19.2834,-13.1305,-2.31654,-5.74723,-6.74811,-25.0387,21.6956,-16.8147,15.0414,2.62671
3.84236,18.6661,0.744082,-13.8118,-76.4316,16.1675,9.6169,3.06709,-4.07322,0.454131,3.48593,-1.97317,-5.03907,1.77106,-0.255785,-6.52067,-0.164025,-5.04861,-6.6297,0.124129,5.11255,-0.983144,0.0919233,2.50049,-2.14439e-14,-2.5842e-15,-33.567,5.17453,-72.2854,35.9919,13.4639,-31.8874,11.8709,7.12502,-5.14,-18.0468,-2.14439e-14,-2.5842e-15,-28.1391,9.78821,66.1473,25.4683,-6.82587,-18.1812,21.7195,7.12502,8.09545,51.5444,-9.75953,21.6283,14.3594,27.1188,-19.2917,-12.7379,-2.67063,-5.96025,-6.82874,-25.8113,21.7886,-16.9121,15.1332,2.41436
3.83121,18.6655,0.757453,-12.7828,-76.446,15.2989,9.50134,3.02342,-3.85648,0.403359,3.45911,-1.96799,-5.01385,1.75445,-0.362409,-6.40944,-0.255639,-5.07149,-7.41399,0.00149924,5.0712,-1.24725,0.0234505,2.49492,2.34814e-14,-8.34896e-15,-33.1007,5.70656,-71.5754,36.3479,12.8792,-32.065,11.85,7.12502,-5.31145,-18.0634,2.34814e-14,-8.34896e-15,-27.4731,9.37169,65.2462,25.4181,-6.75989,-17.9938,21.5621,7.12502,8.27629,51.3799,-9.94469,21.6096,14.4845,27.1625,-19.238,-12.8294,-3.04645,-6.13996,-7.00594,-25.6269,21.8374,-17.0091,15.2478,2.51144
3.81763,18.6642,0.757889,-10.2186,-76.5205,12.5194,9.71689,2.96693,-3.33483,0.426233,3.44445,-1.77113,-5.09063,1.73925,-0.456629,-6.33869,-0.357267,-5.19022,-8.13917,-0.128797,5.07595,-1.48722,-0.0458378,2.52396,8.59744e-14,9.93923e-16,-32.5655,6.20899,-70.7163,36.7032,12.324,-32.1434,12.2292,7.12502,-5.38718,-17.6824,8.59744e-14,9.93923e-16,-26.7126,8.67018,64.4208,25.3043,-6.30511,-17.889,21.5367,7.12502,8.37744,51.3506,-9.73363,22.0567,15.3543,27.2455,-19.3464,-13.3165,-3.04457,-5.97999,-6.99268,-24.9103,21.8623,-17.0762,15.1827,2.57506
3.81306,18.6604,0.761096,-10.2267,-76.4715,12.4631,9.93949,2.95581,-3.44845,0.428056,3.4052,-1.75716,-5.22035,1.72263,-0.385378,-6.32348,-0.479443,-5.24864,-8.81467,-0.291469,5.05123,-1.70106,-0.131747,2.53253,-7.1314e-14,-5.96354e-16,-31.9246,6.51247,-69.7284,37.0229,11.9684,-31.8827,12.8275,7.12502,-5.13547,-17.0903,-7.1314e-14,-5.96354e-16,-25.869,8.03357,63.5409,25.2105,-5.90783,-17.6564,21.7322,7.12502,8.60189,51.537,-9.63201,22.3041,15.4287,27.303,-19.4978,-13.5676,-2.86789,-5.95379,-6.72589,-24.8831,21.9497,-17.0494,14.904,2.36357
3.80936,18.6542,0.773126,-12.3167,-76.4049,14.6493,10.0352,2.97269,-4.04981,0.415739,3.34017,-1.90819,-5.31207,1.70163,-0.204296,-6.24184,-0.585534,-5.37393,-9.60595,-0.427666,5.13522,-1.96847,-0.205378,2.59412,-5.70512e-14,1.45113e-14,-31.2088,6.96575,-68.7623,37.3797,11.5107,-31.3868,13.5138,7.12502,-4.65666,-16.415,-5.70512e-14,1.45113e-14,-25.0327,7.70562,62.4788,25.1572,-5.83371,-17.6463,21.7593,7.12502,8.61166,51.5637,-9.71911,22.2207,14.796,27.4249,-19.6472,-13.4142,-2.79434,-5.97382,-6.43962,-25.4612,21.9684,-16.9766,14.777,1.7172
3.7972,18.6497,0.787667,-13.1385,-76.3994,15.5776,9.97599,2.94033,-4.36627,0.387416,3.2603,-1.94399,-5.32256,1.66943,-0.051606,-6.14795,-0.688523,-5.7346,-10.3552,-0.543456,5.34843,-2.22955,-0.262348,2.74552,-1.01952e-13,2.18663e-15,-30.4879,7.68312,-67.7561,37.8282,11.015,-31.3253,13.3099,7.12502,-4.59722,-16.6202,-1.01952e-13,2.18663e-15,-24.2359,7.75124,61.2879,25.0821,-6.02495,-17.4083,21.5516,7.12502,8.84133,51.3464,-9.88212,22.0955,14.4753,27.6256,-19.7977,-13.2356,-2.70279,-5.956,-6.38817,-25.7428,21.8748,-16.9485,14.9145,1.3873
3.7839,18.6477,0.802565,-13.1296,-76.3595,15.7995,9.7757,2.90128,-4.49554,0.287209,3.20491,-1.93908,-5.32134,1.64757,0.04037,-6.04494,-0.85266,-6.1879,-11.0198,-0.735568,5.60717,-2.46203,-0.353168,2.93144,5.397e-14,6.36111e-15,-29.8238,8.43618,-66.625,38.3272,10.5604,-31.4051,12.7549,7.12502,-4.6743,-17.1735,5.397e-14,6.36111e-15,-23.318,7.9296,60.0844,24.9017,-6.27298,-16.9516,21.2654,7.12502,9.28209,51.0411,-10.1725,21.9609,14.2776,27.7576,-19.8814,-13.1434,-2.60859,-6.14141,-6.43441,-25.8313,21.844,-16.9755,14.9402,1.63638
3.76666,18.6448,0.820907,-12.7498,-76.341,15.5722,9.5523,2.8597,-4.47801,0.238846,3.16553,-1.94343,-5.24401,1.62838,0.0416864,-5.91263,-1.03995,-6.51758,-11.7712,-0.971321,5.80306,-2.72747,-0.469415,3.07765,-8.69683e-15,-3.57812e-15,-29.0189,9.15559,-65.4505,38.7723,10.122,-31.2867,12.4264,7.12502,-4.55995,-17.5045,-8.69683e-15,-3.57812e-15,-22.2505,8.09023,58.8134,24.7005,-6.39505,-16.6203,20.932,7.12502,9.60166,50.6932,-10.3265,21.8179,14.2266,27.8287,-19.9626,-13.0401,-2.68262,-6.27557,-6.41714,-25.8062,21.8944,-17.0742,14.8401,1.80312
3.74498,18.6406,0.83383,-11.0848,-76.3811,13.7743,9.51059,2.7761,-4.19556,0.273915,3.09884,-1.81758,-5.17247,1.5904,0.0288106,-5.88806,-1.15452,-6.56404,-12.4194,-1.1352,5.76081,-2.94407,-0.554281,3.08618,3.66012e-14,-6.95746e-15,-28.0181,9.90646,-64.2596,39.1452,9.90762,-31.8502,9.63729,7.12502,-5.10409,-20.2812,3.66012e-14,-6.95746e-15,-21.1778,8.27032,57.4938,24.5129,-6.40831,-16.4614,20.6908,7.12502,9.75503,50.4449,-10.1486,21.8952,14.7616,27.9232,-20.1114,-13.167,-2.87282,-6.12959,-6.11969,-25.3573,21.9378,-17.1142,14.5603,1.30954
3.73215,18.635,0.843182,-11.5571,-76.3469,14.1885,9.61935,2.73788,-4.41856,0.244973,3.01222,-1.8542,-5.27102,1.55328,0.120886,-5.92627,-1.23723,-6.55915,-12.9154,-1.25285,5.74985,-3.10146,-0.617564,3.09256,-6.54995e-14,-1.11319e-14,-26.9888,10.5667,-63.007,39.4861,9.93162,-32.2112,9.41413,7.12502,-5.45264,-20.4957,-6.54995e-14,-1.11319e-14,-20.0814,8.42932,56.1404,24.3151,-6.3622,-16.5623,20.5609,7.12502,9.65764,50.3195,-10.0257,22.0385,14.7076,28.0104,-20.2278,-13.3166,-3.06879,-6.05582,-5.64741,-25.4605,22.0212,-17.0879,14.1852,0.597097
3.72473,18.6285,0.853659,-13.0105,-76.2825,15.7468,9.68903,2.69634,-4.86358,0.140094,2.88808,-1.99154,-5.43205,1.50343,0.236459,-5.94651,-1.29563,-6.67756,-13.3909,-1.32096,5.90085,-3.26024,-0.655042,3.17965,-3.3197e-14,-2.38542e-15,-25.8707,11.1316,-61.6063,39.7141,9.80202,-30.897,12.0299,7.12502,-4.18372,-17.9088,-3.3197e-14,-2.38542e-15,-18.9657,8.88733,54.6734,24.0963,-6.44268,-16.8555,20.3667,7.12502,9.37473,50.1383,-10.1126,22.0121,14.2493,28.0844,-20.2969,-13.2754,-3.11051,-6.1535,-5.43848,-25.8735,22.1323,-17.1181,13.9992,0.440823
3.7086,18.6241,0.861226,-11.6521,-76.3624,14.3309,9.70245,2.61377,-4.68395,0.0743858,2.80418,-1.88694,-5.50121,1.46207,0.25532,-5.91233,-1.33192,-6.88093,-13.9044,-1.36234,6.02435,-3.44616,-0.674677,3.27612,7.33515e-14,-1.74931e-14,-24.7357,12.1959,-60.2348,40.1564,9.73407,-30.8569,12.4999,7.12502,-4.14497,-17.4395,7.33515e-14,-1.74931e-14,-17.7679,9.505,53.202,23.7891,-6.69253,-17.0817,20.2419,7.12502,9.15652,50.0231,-10.0937,21.9441,14.653,28.1913,-20.392,-13.2043,-3.12723,-6.11272,-5.3923,-25.5029,22.1956,-17.1934,13.9177,0.30064
3.68507,18.6198,0.873212,-10.4969,-76.489,13.0336,9.65127,2.59366,-4.53215,0.0687645,2.80676,-1.77121,-5.47644,1.46191,0.293363,-5.832,-1.40883,-7.12344,-14.7716,-1.41304,6.3843,-3.34593,-0.726591,3.16193,6.11263e-15,1.51076e-14,-23.4318,12.8021,-58.5652,40.3173,9.99042,-30.9688,12.2416,7.12502,-4.25301,-17.6957,6.11263e-15,1.51076e-14,-16.3732,9.95895,51.8116,23.3661,-7.00361,-17.1159,20.3309,7.12502,9.1235,50.1136,-9.92342,21.8736,15.0652,28.2533,-20.4839,-13.1017,-3.17911,-5.96306,-5.40214,-25.1985,22.3302,-17.4153,13.947,0.186734
3.66237,18.6145,0.889411,-10.6529,-76.5624,13.075,9.63411,2.59311,-4.69951,0.0552514,2.78786,-1.76319,-5.4891,1.45727,0.398042,-5.93919,-1.4813,-7.15986,-15.1842,-1.50293,6.46676,-3.4456,-0.777325,3.2004,-8.34399e-14,6.75868e-15,-22.0405,13.3219,-56.8707,40.4511,10.3886,-30.9132,11.6603,7.12502,-4.19928,-18.2781,-8.34399e-14,6.75868e-15,-14.85,10.4762,50.3694,22.8449,-7.3384,-17.1024,20.5091,7.12502,9.13651,50.2912,-9.70773,21.8687,15.1143,28.2362,-20.4859,-13.1016,-3.26745,-5.87122,-5.48555,-25.2794,22.605,-17.6948,14.0563,0.344517
3.64191,18.61,0.900762,-9.78846,-76.5997,12.0244,9.75117,2.54813,-4.59311,0.0116896,2.73385,-1.72883,-5.59487,1.43061,0.376041,-6.02833,-1.53393,-7.039,-15.5448,-1.58142,6.45091,-3.53613,-0.826722,3.18155,2.72832e-14,7.15625e-15,-20.6683,13.9209,-55.2156,40.6972,10.8196,-30.6685,12.5587,7.12502,-3.96299,-17.3842,2.72832e-14,7.15625e-15,-13.2205,10.8041,48.8329,22.2674,-7.62678,-17.1175,20.578,7.12502,9.12199,50.3607,-9.43831,22.0037,15.4963,28.2388,-20.4958,-13.3146,-3.50119,-5.78851,-5.47159,-25.0474,22.911,-17.8896,13.965,0.498809
3.62843,18.6067,0.910078,-8.49182,-76.6261,10.7037,9.76486,2.50945,-4.27689,-0.0901007,2.71571,-1.73956,-5.69296,1.41625,0.187419,-5.96972,-1.65362,-7.01973,-16.0028,-1.74761,6.5016,-3.67215,-0.918592,3.20429,-2.93207e-14,7.55382e-15,-19.274,14.3037,-53.4222,40.8919,11.4651,-30.5338,13.7111,7.12502,-3.83291,-16.2342,-2.93207e-14,7.55382e-15,-11.3624,10.8566,47.2987,21.5823,-8.00378,-17.0554,20.5629,7.12502,9.18186,50.343,-9.44018,22.0084,15.8526,28.3187,-20.5469,-13.4329,-3.78139,-5.90032,-5.43354,-24.7145,23.176,-18.0075,13.8242,0.616807
3.61641,18.6043,0.920675,-7.61682,-76.6963,9.94528,9.61234,2.48018,-4.05903,-0.199384,2.7055,-1.7943,-5.70844,1.40662,0.0135804,-6.02324,-1.78954,-7.17301,-16.3663,-1.91377,6.66215,-3.7581,-1.00371,3.28775,-4.94974e-14,-1.11319e-14,-17.6988,14.6033,-51.4983,40.9868,12.1106,-30.4999,12.8804,7.12502,-3.80016,-17.0655,-4.94974e-14,-1.11319e-14,-9.37331,11.2808,45.7517,20.7688,-8.83837,-16.8528,20.7584,7.12502,9.37738,50.5298,-9.66634,21.8749,15.9875,28.4665,-20.5304,-13.3659,-4.14926,-6.12095,-5.38842,-24.5233,23.3969,-18.0619,13.816,0.417273
3.59028,18.5996,0.935547,-8.29191,-76.7721,10.6299,9.38512,2.41698,-4.32041,-0.227804,2.60032,-1.8533,-5.61637,1.36056,0.12232,-6.24728,-1.81768,-7.37946,-16.5605,-1.92239,6.83997,-3.77539,-1.00601,3.37955,-9.54166e-15,1.11319e-14,-15.8502,15.1,-49.515,41.0529,12.5769,-30.5149,11.608,7.12502,-3.81466,-18.3376,-9.54166e-15,1.11319e-14,-7.59705,12.0717,44.1225,20.0333,-9.95078,-16.4916,20.8554,7.12502,9.72591,50.6109,-9.71064,21.7256,15.8168,28.7015,-20.5711,-13.1797,-4.61906,-6.08071,-5.18771,-24.7265,23.5414,-18.1638,13.8002,-0.159033
3.56027,18.5927,0.952448,-9.54178,-76.9054,11.8004,9.21806,2.36038,-4.77173,-0.245254,2.48048,-1.90285,-5.5545,1.31215,0.346041,-6.48413,-1.79407,-7.40384,-16.7295,-1.87681,6.91877,-3.79048,-0.987756,3.40915,5.54609e-14,-3.10104e-14,-13.89,15.5638,-47.4918,41.1254,13.0233,-30.5364,11.5129,7.12502,-3.8355,-18.4324,5.54609e-14,-3.10104e-14,-5.93592,12.8884,42.4322,19.4014,-11.037,-16.0862,20.5328,7.12502,10.117,50.2696,-9.66313,21.6025,15.5603,29.0005,-20.6243,-12.9315,-5.03353,-5.86462,-4.93729,-25.0657,23.5919,-18.2464,13.8464,-0.985435
3.53476,18.5874,0.966415,-9.65563,-77.0368,11.8091,9.16542,2.31582,-4.86802,-0.309934,2.4084,-1.9514,-5.59202,1.27986,0.359581,-6.69299,-1.81789,-7.34365,-16.879,-1.89564,7.01843,-3.79956,-1.00684,3.43137,4.32357e-15,-7.95139e-16,-12.0197,15.7478,-45.4826,41.2003,13.3673,-30.1743,11.8219,7.12502,-3.48583,-18.1293,4.32357e-15,-7.95139e-16,-4.07996,13.6194,40.7611,18.775,-12.1579,-16.0018,20.5835,7.12502,10.1984,50.3163,-9.66292,21.569,15.6176,29.3703,-20.7298,-12.7996,-4.9339,-5.61799,-4.74905,-25.0945,23.5188,-18.181,13.8835,-1.80862
3.50106,18.5836,0.981757,-9.81558,-77.084,11.7701,9.14972,2.28762,-4.90674,-0.353611,2.36292,-1.99542,-5.62704,1.2588,0.341055,-6.98759,-1.8875,-7.50261,-16.8507,-1.94869,7.23521,-3.7341,-1.03126,3.52247,-8.59744e-15,-1.98785e-15,-10.1957,15.7934,-43.3721,41.2031,13.695,-29.9498,12.1624,7.12502,-3.26894,-17.7923,-8.59744e-15,-1.98785e-15,-2.15244,14.0512,39.209,18.2404,-13.0373,-16.5544,20.9582,7.12502,9.66532,50.7165,-9.5349,21.5295,15.7389,29.813,-20.9326,-12.7416,-4.93735,-5.19342,-4.63104,-25.1258,23.3846,-18.2098,13.7924,-1.97696
3.47036,18.5769,0.995615,-11.6791,-77.3327,13.4436,9.20804,2.36791,-5.39283,-0.41934,2.40363,-2.04532,-5.75116,1.29358,0.549168,-7.28056,-1.95871,-7.7842,-16.8012,-2.00545,7.39476,-3.66263,-1.04742,3.61576,5.02428e-14,-2.98177e-14,-8.27892,15.7889,-41.1311,41.16,14.1486,-30.3097,11.8368,7.12502,-3.6165,-18.1123,5.02428e-14,-2.98177e-14,-0.380941,14.4663,37.7432,17.838,-13.6581,-17.3513,20.7916,7.12502,8.89634,50.5841,-9.48566,21.5077,15.4448,30.2564,-20.9258,-12.4822,-5.6365,-4.76593,-4.51787,-25.561,23.3404,-18.3441,13.9646,-2.08747
3.45325,18.5707,1.00434,-13.3751,-77.5634,15.1132,9.26783,2.4229,-5.85001,-0.547187,2.40758,-2.12816,-5.93803,1.31174,0.709625,-7.38587,-2.02604,-7.94742,-17.0359,-2.07889,7.50554,-3.70789,-1.08211,3.68213,-5.01434e-14,1.66979e-14,-6.32974,15.6304,-38.9825,41.2275,14.4044,-30.2522,9.90608,7.12502,-3.56098,-20.0439,-5.01434e-14,1.66979e-14,1.49517,15.679,36.3723,17.4203,-14.8145,-17.7897,20.3254,7.12502,8.47329,50.1354,-9.70694,21.4355,15.0944,30.7099,-20.8049,-12.2091,-6.21843,-4.61562,-4.58475,-25.9661,23.3414,-18.3955,14.3442,-2.32228
3.43359,18.5708,1.01408,-11.4812,-77.5364,13.0771,9.39544,2.3049,-5.43233,-0.664729,2.28735,-2.09848,-6.11056,1.24633,0.517607,-7.44517,-2.09082,-8.01972,-17.3086,-2.14555,7.68923,-3.7711,-1.12248,3.75755,1.64494e-14,-3.18055e-15,-4.46253,15.2043,-36.9771,41.2847,14.5333,-31.3388,12.5311,7.12502,-4.6103,-17.3987,1.64494e-14,-3.18055e-15,3.59879,17.3599,35.1686,16.9942,-16.3748,-18.1532,20.0887,7.12502,8.12247,49.9126,-9.74862,21.3017,15.6635,31.1771,-20.945,-12.2397,-5.94772,-4.4558,-4.77137,-25.5205,23.3341,-18.3776,14.392,-2.44577
3.40435,18.5671,1.02712,-10.1929,-77.5155,11.4532,9.61334,2.196,-5.08971,-0.724844,2.16731,-2.06647,-6.27845,1.1811,0.368371,-7.73754,-2.12008,-8.09711,-17.2861,-2.15514,7.82261,-3.71335,-1.12642,3.8087,3.8266e-15,-1.35174e-14,-2.48169,14.0529,-34.9422,40.6023,15.5333,-30.8472,14.1551,7.12502,-4.13556,-15.7845,3.8266e-15,-1.35174e-14,5.5156,18.2143,33.8718,16.82,-16.9962,-18.7309,19.995,7.12502,7.56485,49.8398,-9.50929,21.0983,16.2125,31.6333,-21.2326,-12.1204,-5.14149,-4.04285,-4.6847,-25.17,23.3577,-18.3709,14.2362,-2.76807
3.37119,18.5594,1.038,-11.2639,-77.5879,12.1975,9.81359,2.16379,-5.31478,-0.760042,2.07385,-2.14447,-6.43146,1.14283,0.417981,-8.4012,-2.19496,-7.83145,-16.8882,-2.27343,7.51107,-3.48995,-1.1796,3.6501,-5.61567e-15,3.89618e-14,-0.505511,13.2367,-32.9701,40.4209,15.6885,-31.3492,14.9279,7.12502,-4.62035,-15.0017,-5.61567e-15,3.89618e-14,7.40713,19.5064,32.7099,16.7423,-17.8335,-19.0411,19.8992,7.12502,7.26552,49.7545,-9.25249,20.8058,16.2045,32.0582,-21.3417,-11.7953,-4.66388,-3.55342,-4.55106,-25.37,23.4066,-18.4845,14.1551,-2.68589
3.33666,18.5571,1.05036,-11.9842,-77.6838,12.6398,9.97333,2.15091,-5.44417,-0.815022,2.01942,-2.21992,-6.5806,1.1213,0.411936,-8.84266,-2.29247,-7.57709,-16.712,-2.43047,7.24352,-3.3658,-1.25823,3.5146,-1.14798e-14,-4.77083e-15,1.3736,12.4042,-31.0991,40.5307,15.286,-31.1238,13.806,7.12502,-4.40266,-16.1282,-1.14798e-14,-4.77083e-15,9.60856,22.0715,32.1421,16.5906,-19.8116,-18.8493,19.9879,7.12502,7.45062,49.8367,-9.07513,20.6022,16.2516,32.4848,-21.2981,-11.5836,-4.60525,-3.09889,-4.44481,-25.4959,23.4136,-18.6335,14.0775,-2.29363
3.30151,18.5582,1.06809,-12.2444,-77.833,12.6107,10.1017,2.18766,-5.41811,-0.846597,2.05949,-2.22711,-6.68799,1.14178,0.377607,-8.66783,-2.30766,-7.94873,-17.2773,-2.40406,7.63955,-3.5525,-1.2474,3.7154,2.03506e-14,0,3.17091,11.5371,-29.1501,40.7879,14.5108,-30.6581,11.5581,7.12502,-3.95296,-18.385,2.03506e-14,0,11.6982,23.1476,31.4462,16.6902,-20.3452,-18.9974,20.3741,7.12502,7.30767,50.2279,-8.92424,20.4034,16.3994,32.9243,-21.1694,-11.3643,-4.73758,-2.6213,-4.40007,-25.5367,23.4079,-18.7388,14.1398,-2.07738
3.26805,18.5623,1.08486,-11.5162,-77.9713,11.5923,10.2919,2.18049,-5.29855,-0.923865,2.05743,-2.11371,-6.87779,1.14382,0.4211,-8.63829,-2.24437,-8.21866,-17.7021,-2.28399,7.89803,-3.68653,-1.18838,3.85275,6.21202e-15,-3.18055e-15,4.98366,10.592,-27.2289,41.046,13.8707,-30.0229,8.53414,7.12502,-3.33962,-21.4194,6.21202e-15,-3.18055e-15,13.3404,22.7288,30.1932,17.024,-19.553,-19.394,20.5886,7.12502,6.92481,50.4554,-8.81884,20.0524,16.7708,33.3692,-20.9487,-11.1709,-5.15395,-2.17377,-4.63223,-25.3939,23.4237,-18.7486,14.4855,-2.47625
3.23417,18.5674,1.09655,-10.664,-78.0845,10.5271,10.4851,2.11772,-5.32316,-1.0847,1.96456,-1.94761,-7.16194,1.11112,0.613654,-8.86363,-2.16434,-8.3127,-17.7434,-2.16285,7.90953,-3.67296,-1.12295,3.8713,-5.54858e-14,2.3059e-14,6.93054,9.28027,-25.5637,40.9486,13.7387,-30.0469,9.58674,7.12502,-3.36275,-20.3665,-5.54858e-14,2.3059e-14,14.8517,22.8805,29.0835,17.3669,-19.1028,-19.3341,20.7774,7.12502,6.98267,50.6423,-8.80964,19.7313,17.1401,33.8285,-20.6785,-11.1377,-5.73144,-1.8206,-4.83355,-25.2349,23.444,-18.6135,14.8846,-3.45613
3.20014,18.5691,1.10422,-10.8837,-78.2241,10.5553,10.605,2.13114,-5.40147,-1.18803,1.95886,-1.94674,-7.34407,1.11581,0.651934,-8.89776,-2.2052,-8.64038,-18.0156,-2.17082,8.19969,-3.73964,-1.12216,4.0242,1.00784e-13,-2.3059e-14,8.69664,7.20228,-24.1705,39.7428,15.7133,-30.9303,9.40377,7.12502,-4.21582,-20.5343,1.00784e-13,-2.3059e-14,16.4723,22.5183,27.8926,17.9058,-17.5669,-19.6324,21.5245,7.12502,6.69474,51.3987,-8.8016,19.5556,17.2726,34.2818,-20.4313,-11.0976,-5.86797,-1.48837,-4.78819,-25.2652,23.49,-18.5648,15.0049,-3.47829
3.16642,18.5737,1.11094,-11.0421,-78.3484,10.464,10.7423,2.17494,-5.25434,-1.21545,2.01395,-2.07431,-7.44456,1.13476,0.419582,-8.94421,-2.30287,-8.74394,-18.3772,-2.27922,8.39038,-3.82761,-1.18205,4.11009,-2.25869e-14,3.65764e-14,10.1173,5.76238,-22.7659,39.8722,15.1067,-29.8914,6.17756,7.12502,-3.21261,-23.778,-2.25869e-14,3.65764e-14,18.1009,21.3232,26.253,18.6337,-15.161,-20.1299,22.0711,7.12502,6.2144,51.9599,-8.73035,19.4035,17.4543,34.7266,-20.2118,-11.0495,-5.69409,-1.11037,-4.64124,-25.2256,23.5248,-18.5645,14.8588,-3.16286
3.12875,18.5859,1.11854,-10.9208,-78.4305,10.047,10.9177,2.20456,-5.16604,-1.23568,2.04783,-2.11379,-7.5633,1.14821,0.315334,-9.18875,-2.34767,-8.64463,-18.5565,-2.34241,8.35305,-3.84137,-1.21919,4.08308,-1.61513e-15,-2.06736e-14,11.5209,4.2201,-21.3738,40.0249,14.838,-30.0987,6.62194,7.12502,-3.41277,-23.3305,-1.61513e-15,-2.06736e-14,19.6859,20.5275,24.7798,19.3097,-13.6343,-20.4423,22.1512,7.12502,5.91282,52.0487,-8.57837,19.1615,17.707,35.148,-19.9366,-11.0419,-6.09584,-0.675264,-4.65379,-25.1551,23.5348,-18.3237,14.9509,-4.20021
3.08998,18.5998,1.12842,-11.2425,-78.4562,10.1033,11.075,2.23241,-5.24784,-1.27905,2.06182,-2.09251,-7.70495,1.16132,0.373608,-9.35581,-2.40368,-8.75845,-18.7612,-2.40049,8.419,-3.87066,-1.2452,4.12636,-2.84883e-14,1.66979e-14,13.0845,2.53799,-20.0358,39.9234,15.3046,-31.5904,9.56783,7.12502,-4.85327,-20.3566,-2.84883e-14,1.66979e-14,21.2449,20.1363,23.6612,19.9676,-12.5999,-20.617,22.5425,7.12502,5.74415,52.4446,-8.41174,18.8928,17.808,35.5308,-19.6964,-10.9922,-6.44768,-0.245333,-4.85293,-25.2363,23.5461,-18.081,15.1524,-4.75005
3.05186,18.6115,1.13579,-11.3832,-78.4867,10.0363,11.2025,2.21808,-5.31573,-1.3565,2.02309,-2.06378,-7.86342,1.14956,0.441692,-9.39752,-2.41158,-8.97088,-19.0623,-2.38221,8.59759,-3.95116,-1.23423,4.22674,-7.442e-15,-4.77083e-15,14.7783,0.812104,-18.9086,39.6717,15.7901,-32.8704,12.1076,7.12502,-6.08909,-17.7849,-7.442e-15,-4.77083e-15,22.8866,20.504,22.8732,20.4979,-12.2734,-20.7763,22.8963,7.12502,5.59034,52.8025,-8.30715,18.8183,17.9314,35.8681,-19.579,-11.0846,-6.39564,0.106986,-4.84934,-25.2226,23.5784,-17.9849,15.0135,-4.11528
3.01119,18.6226,1.1371,-11.4887,-78.5612,9.96432,11.2884,2.25168,-5.36543,-1.4255,2.05328,-2.04394,-7.99161,1.16982,0.479406,-9.44927,-2.46412,-9.30003,-19.3409,-2.40574,8.85171,-4.01623,-1.23831,4.37038,1.41199e-14,-1.51076e-14,16.4106,-0.970459,-17.8706,39.3212,15.844,-32.9377,11.1836,7.12502,-6.15408,-18.7071,1.41199e-14,-1.51076e-14,24.7892,21.3003,22.5092,20.8008,-12.8113,-21.9221,22.5634,7.12502,4.48402,52.4959,-8.21927,18.8431,18.0934,36.1505,-19.5462,-11.2937,-6.5778,0.432248,-4.82358,-25.1925,23.61,-17.7115,15.056,-4.74351
2.96975,18.6358,1.13809,-11.768,-78.5677,10.0794,11.3659,2.31655,-5.38223,-1.49609,2.12676,-2.06163,-8.1165,1.20843,0.450874,-9.507,-2.57779,-9.60738,-19.5285,-2.51815,9.03545,-4.04638,-1.28231,4.48506,-3.83406e-14,3.26007e-14,17.9507,-2.9152,-16.9894,38.8149,15.9912,-32.7571,9.76318,7.12502,-5.97973,-20.1324,-3.83406e-14,3.26007e-14,26.6351,21.379,21.9495,21.1718,-12.506,-23.0071,22.3202,7.12502,3.43622,52.2723,-8.11046,18.7143,18.1921,36.3628,-19.4921,-11.4104,-6.69592,0.758663,-5.1126,-25.2689,23.6252,-17.3008,15.3903,-6.16531
2.92635,18.6555,1.1428,-11.788,-78.5188,9.95482,11.4123,2.30419,-5.3651,-1.6056,2.0984,-2.12735,-8.25719,1.19546,0.371288,-9.70754,-2.58618,-9.42639,-19.5233,-2.5365,8.97879,-4.01567,-1.29906,4.43338,9.83169e-15,-7.15625e-15,19.5372,-4.95993,-16.5405,38.2042,16.48,-32.78,9.36347,7.12502,-6.00178,-20.5315,9.83169e-15,-7.15625e-15,28.2377,21.1452,20.9314,21.6734,-11.5846,-23.0634,22.3941,7.12502,3.38192,52.347,-7.99178,18.5161,18.305,36.4765,-19.3791,-11.5274,-7.52193,1.05855,-5.34747,-25.2636,23.6031,-16.9804,15.4407,-6.61901
2.87838,18.6757,1.1471,-11.8137,-78.4624,9.89791,11.3476,2.24265,-5.43792,-1.692,1.99909,-2.20699,-8.30887,1.1501,0.345661,-10.1074,-2.52182,-8.99454,-19.439,-2.4772,8.81253,-3.94297,-1.28793,4.30027,3.53464e-14,-6.36111e-15,21.2179,-7.03667,-16.3515,37.6687,16.5925,-32.8825,9.3216,7.12502,-6.10079,-20.5706,3.53464e-14,-6.36111e-15,29.9001,21.5204,20.17,22.059,-11.5517,-22.9309,21.9819,7.12502,3.50984,51.9327,-7.8877,18.4232,18.3969,36.4906,-19.3148,-11.6889,-9.31483,1.30488,-5.21137,-25.1742,23.5407,-16.5306,15.1504,-7.40486
2.83118,18.6962,1.14844,-12.3234,-78.3515,10.3057,11.3512,2.15696,-5.62628,-1.74552,1.8471,-2.27834,-8.36655,1.08417,0.401801,-10.4915,-2.40173,-8.66652,-19.34,-2.34891,8.5769,-3.87546,-1.23311,4.16379,5.70885e-15,-9.54166e-15,23.0191,-9.03913,-16.2838,37.2039,16.0418,-33.2714,11.183,7.12502,-6.47618,-18.698,5.70885e-15,-9.54166e-15,31.5224,22.3285,19.8343,22.5274,-11.9929,-22.7411,21.8922,7.12502,3.69309,51.84,-7.70381,18.508,18.4081,36.3989,-19.2881,-11.7069,-10.1255,1.59418,-4.93837,-25.1549,23.4277,-15.9156,14.7602,-8.63277
2.78484,18.722,1.14982,-13.2947,-78.2102,11.0965,11.4764,2.13861,-5.7809,-1.86784,1.77524,-2.35991,-8.57161,1.05858,0.406345,-10.3788,-2.43868,-8.90969,-19.5589,-2.34922,8.91567,-3.94725,-1.23463,4.31999,-4.09993e-16,-3.97569e-15,24.7143,-10.8874,-16.2707,36.6378,15.8802,-33.5223,12.4862,7.12502,-6.71843,-17.3872,-4.09993e-16,-3.97569e-15,33.0238,22.5459,19.5416,23.0437,-11.8938,-23.3199,22.0469,7.12502,3.13421,52.0036,-7.38545,18.7403,18.362,36.221,-19.2433,-11.5352,-9.877,2.01696,-4.97184,-25.2845,23.2559,-15.4944,14.467,-8.53334
2.73317,18.7491,1.1517,-13.7724,-78.0832,11.4502,11.4568,2.18197,-5.77129,-2.0567,1.8215,-2.41478,-8.76673,1.08466,0.327721,-10.0702,-2.59122,-9.41703,-19.6792,-2.48522,9.3205,-4.00134,-1.28654,4.54104,5.05162e-14,-3.73715e-14,26.3158,-12.7906,-16.3915,35.9572,16.5524,-33.3159,10.7476,7.12502,-6.51915,-19.1321,5.05162e-14,-3.73715e-14,34.829,22.4909,19.5542,23.1164,-11.7941,-24.4126,21.4072,7.12502,2.07889,51.3768,-7.0879,19.0136,18.3972,35.9636,-19.1114,-11.4794,-9.94435,2.41804,-5.13679,-25.3368,23.0678,-15.1054,14.243,-8.44969
2.68024,18.7728,1.15157,-13.5605,-77.9692,11.1425,11.3566,2.1711,-5.67764,-2.20023,1.82373,-2.40516,-8.86208,1.08552,0.284024,-10.0445,-2.71407,-9.66834,-19.631,-2.62178,9.42247,-3.97181,-1.33926,4.61384,-1.59773e-14,-1.90833e-14,28.1113,-14.7775,-16.7175,35.2213,17.3522,-33.2121,9.5132,7.12502,-6.41895,-20.3695,-1.59773e-14,-1.90833e-14,37.07,23.3244,20.4369,22.9264,-12.5781,-24.8274,20.8148,7.12502,1.67829,50.7879,-6.8198,19.2844,18.587,35.6315,-18.7707,-11.678,-10.296,2.74161,-5.11503,-25.1967,22.9344,-14.5,13.9838,-9.79333
2.6276,18.798,1.15174,-13.103,-77.9004,10.5898,11.2525,2.10019,-5.53663,-2.30736,1.75539,-2.39013,-8.91004,1.04871,0.234769,-10.2904,-2.72582,-9.7161,-19.3769,-2.60962,9.48184,-3.85452,-1.32599,4.63021,-1.54804e-14,-1.51076e-14,30.0594,-16.6331,-17.2248,34.4869,17.9044,-33.5049,9.89486,7.12502,-6.70166,-19.9791,-1.54804e-14,-1.51076e-14,39.27,24.4973,21.5943,22.889,-13.5484,-25.0085,20.4727,7.12502,1.50338,50.4471,-6.56525,19.6176,18.8372,35.2691,-18.2898,-11.8298,-10.0468,3.02301,-5.10894,-25.0055,22.838,-13.9349,13.7835,-10.9603
2.57591,18.8284,1.15378,-12.1769,-77.8496,9.61064,11.1288,2.03351,-5.23186,-2.44897,1.71419,-2.39965,-8.97886,1.0163,0.0620272,-10.4897,-2.73485,-9.80615,-19.1406,-2.56811,9.74419,-3.74523,-1.30369,4.72007,-2.78795e-14,-6.36111e-15,31.9986,-18.4323,-17.9954,33.7431,18.6124,-34.125,10.2088,7.12502,-7.30022,-19.6453,-2.78795e-14,-6.36111e-15,41.4111,25.3241,22.6157,22.8691,-14.2701,-25.2929,19.8326,7.12502,1.22868,49.8088,-6.36894,19.9236,19.1556,34.919,-17.7427,-11.9148,-9.25733,3.24914,-5.19443,-24.7367,22.7351,-13.5353,13.6164,-11.1085
2.52536,18.8574,1.15385,-11.9341,-77.7388,9.25035,11.1089,2.03645,-5.06854,-2.59441,1.73439,-2.42705,-9.12018,1.02021,-0.0666477,-10.3565,-2.80335,-9.93406,-19.2075,-2.64248,9.87281,-3.77297,-1.33798,4.78545,1.14798e-14,3.18055e-15,33.9049,-20.24,-18.9577,32.9636,19.5689,-34.9901,10.8379,7.12502,-8.13525,-18.9855,1.14798e-14,3.18055e-15,43.8441,26.0748,24.0667,22.6578,-15.2156,-25.3741,19.354,7.12502,1.15023,49.3306,-6.08341,20.108,19.3595,34.6119,-17.0931,-12.0074,-8.22549,3.56293,-5.26897,-24.6205,22.6329,-13.1438,13.4357,-11.2511
2.47046,18.8829,1.15345,-12.5017,-77.6073,9.68233,11.0504,2.03846,-5.08879,-2.71015,1.72605,-2.48868,-9.21169,1.01726,-0.121508,-10.2204,-2.86122,-10.0037,-19.2209,-2.71986,9.89471,-3.78873,-1.37282,4.80534,1.19271e-15,-1.11319e-14,36.0723,-22.064,-20.4406,32.1662,20.8552,-35.4193,11.9084,7.12502,-8.54941,-17.8985,1.19271e-15,-1.11319e-14,46.1858,26.6929,25.4639,22.4478,-16.0248,-25.2665,19.2545,7.12502,1.25417,49.2305,-5.78046,20.1809,19.3866,34.3886,-16.2592,-12.0091,-7.75959,3.9198,-5.30315,-24.7014,22.5115,-12.6181,13.3352,-11.8068
2.4148,18.9083,1.15303,-12.5945,-77.5275,9.67688,10.9297,2.00463,-4.97706,-2.81963,1.6965,-2.53164,-9.25455,0.997175,-0.22355,-10.2895,-2.90852,-10.0376,-19.0489,-2.76817,9.94811,-3.71821,-1.39245,4.82125,-6.26172e-15,4.77083e-15,38.2737,-23.635,-21.8853,31.4628,21.9308,-35.3904,12.7611,7.12502,-8.52154,-17.047,-6.26172e-15,4.77083e-15,48.2588,27.1015,26.5484,22.326,-16.4239,-25.1793,19.2846,7.12502,1.33843,49.2602,-5.59349,20.1201,19.4939,34.2722,-15.3087,-11.9023,-7.95488,4.23794,-5.36455,-24.6761,22.3532,-12.1521,13.2883,-11.6688
2.3617,18.9317,1.14909,-12.5851,-77.4559,9.58849,10.8317,1.98783,-4.87417,-2.92878,1.69016,-2.54106,-9.31263,0.990095,-0.290121,-10.3286,-2.97344,-10.1856,-18.9396,-2.83187,10.0254,-3.668,-1.41427,4.86627,4.2043e-14,1.27222e-14,39.9189,-24.6596,-22.2363,30.9652,21.8848,-35.5301,13.207,7.12502,-8.65634,-16.5955,4.2043e-14,1.27222e-14,50.2415,27.4086,27.5986,22.1868,-16.6756,-25.014,19.2669,7.12502,1.49803,49.2414,-5.4571,19.964,19.6124,34.2445,-14.4467,-11.816,-7.31062,4.52238,-5.32786,-24.5927,22.2329,-11.716,13.1458,-11.6444
2.30997,18.9539,1.14295,-12.7056,-77.3444,9.64315,10.74,1.94198,-4.8531,-3.03532,1.63204,-2.55199,-9.37276,0.962272,-0.30287,-10.3927,-3.01472,-10.2213,-18.8083,-2.87714,10.0462,-3.6123,-1.43198,4.87333,-3.29983e-14,2.8625e-14,41.6323,-25.5654,-22.6992,30.5232,21.5332,-35.4733,13.314,7.12502,-8.60155,-16.4908,-3.29983e-14,2.8625e-14,52.2631,27.7978,28.7512,21.9242,-17.2056,-24.5854,19.0209,7.12502,1.91198,48.9921,-5.30939,19.6952,19.6847,34.2598,-13.5979,-11.8,-7.05508,4.7188,-5.10655,-24.5103,22.2137,-11.0684,12.9264,-12.8218
2.25952,18.9805,1.13453,-12.9866,-77.2754,9.78028,10.7582,1.86149,-4.89405,-3.1358,1.50872,-2.57882,-9.4904,0.906142,-0.28924,-10.6094,-2.94079,-9.99048,-18.4913,-2.79043,9.94488,-3.49702,-1.39314,4.79091,2.19657e-14,-2.46493e-14,43.8132,-26.4959,-24.0398,30.0298,21.5546,-34.9976,12.9521,7.12502,-8.14243,-16.871,2.19657e-14,-2.46493e-14,54.2284,28.2307,29.8799,21.6161,-17.9304,-24.1546,18.7005,7.12502,2.32806,48.6676,-5.0295,19.473,19.782,34.2855,-12.8304,-11.646,-7.9699,4.94964,-5.11636,-24.5065,22.2597,-10.4625,12.9518,-14.196
2.20948,19.01,1.12514,-13.1118,-77.2244,9.72464,10.8102,1.78634,-4.851,-3.21148,1.40198,-2.62232,-9.59804,0.852208,-0.343723,-10.8843,-2.849,-9.81732,-18.1647,-2.66586,9.90629,-3.37083,-1.3329,4.73852,2.67365e-14,3.97569e-15,46.0005,-27.3574,-25.5225,29.4613,21.8284,-34.7077,12.7596,7.12502,-7.86269,-17.0742,2.67365e-14,3.97569e-15,55.9304,28.4198,30.6001,21.4236,-18.361,-24.0468,18.8574,7.12502,2.43215,48.8233,-4.67509,19.3217,19.9453,34.3029,-12.1639,-11.376,-8.80969,5.21739,-5.32232,-24.4867,22.3105,-9.92339,13.0778,-15.802
2.15878,19.0366,1.11801,-12.554,-77.1596,8.98102,10.7957,1.70997,-4.59106,-3.24975,1.33763,-2.62656,-9.62088,0.806859,-0.482012,-11.063,-2.89973,-9.87272,-18.07,-2.70054,10.081,-3.30468,-1.34915,4.79792,5.96354e-15,-2.22639e-14,48.0445,-28.1567,-26.8087,28.8203,22.2989,-34.7533,12.9119,7.12502,-7.90663,-16.9203,5.96354e-15,-2.22639e-14,57.6176,28.541,31.4147,21.2085,-18.9937,-24.1167,19.2093,7.12502,2.36466,49.1759,-4.33331,19.0761,20.2548,34.2902,-11.4865,-11.1786,-9.66016,5.48326,-5.39402,-24.2539,22.3245,-9.43197,13.0062,-16.4565
2.10763,19.0632,1.11055,-12.5617,-77.1159,8.77468,10.8323,1.65184,-4.46958,-3.28988,1.27274,-2.63444,-9.68074,0.769152,-0.548434,-11.1409,-2.98292,-9.96137,-18.0393,-2.77562,10.3253,-3.26615,-1.38803,4.88729,2.25621e-14,-1.66979e-14,49.8894,-28.6885,-27.7829,28.2128,22.8065,-35.0266,12.6126,7.12502,-8.17049,-17.2094,2.25621e-14,-1.66979e-14,59.2678,28.6704,32.3585,20.9827,-19.8174,-24.0861,19.3066,7.12502,2.39421,49.2729,-3.95441,18.8002,20.4064,34.2361,-11.0155,-10.7357,-9.59484,5.82437,-5.47691,-24.1574,22.3072,-9.20653,12.9417,-14.9122
2.05719,19.0929,1.10045,-13.1795,-77.0489,9.19436,10.9022,1.68073,-4.47921,-3.33882,1.29672,-2.68649,-9.77583,0.78002,-0.607473,-11.3179,-3.06451,-9.80611,-17.7822,-2.90174,10.1682,-3.15618,-1.44731,4.79887,-6.75868e-15,3.26007e-14,51.3724,-29.1356,-28.3761,27.6976,23.2732,-35.2695,12.2197,7.12502,-8.40491,-17.5931,-6.75868e-15,3.26007e-14,60.0112,28.2818,31.6802,21.1424,-18.9496,-23.8198,19.74,7.12502,2.65135,49.7033,-3.59063,18.58,20.3995,34.1858,-10.5654,-10.0714,-9.12208,6.22801,-5.71916,-24.2631,22.1996,-9.02316,13.0261,-13.4244
2.00734,19.1197,1.08891,-13.1883,-76.9757,9.02567,10.9328,1.75766,-4.38164,-3.3979,1.41204,-2.66524,-9.85947,0.831811,-0.664922,-11.5529,-3.18364,-9.76665,-17.4545,-3.0767,9.86802,-3.01609,-1.51657,4.68114,-3.15074e-14,1.66979e-14,52.7397,-29.5991,-28.8171,27.159,23.7601,-35.3122,12.2323,7.12502,-8.44608,-17.5788,-3.15074e-14,1.66979e-14,60.1206,27.6592,30.033,21.5274,-17.1138,-23.3235,20.2472,7.12502,3.13066,50.204,-3.28449,18.3225,20.5822,34.1052,-9.79729,-9.77069,-10.3881,6.5701,-5.90493,-24.2191,22.0814,-8.41954,13.1411,-14.2555
1.95584,19.1548,1.07747,-13.4944,-76.8962,9.17612,10.9582,1.76479,-4.36514,-3.46153,1.42182,-2.64227,-9.94507,0.837661,-0.654535,-11.5254,-3.21758,-10.0285,-17.4926,-3.0963,9.90602,-3.02553,-1.51169,4.73835,-3.11098e-14,8.74653e-15,54.4027,-29.9161,-29.5657,26.5116,24.421,-35.2372,12.4583,7.12502,-8.37373,-17.3557,-3.11098e-14,8.74653e-15,60.8662,27.4826,29.7034,21.5485,-16.7381,-23.0683,20.2712,7.12502,3.37712,50.2242,-2.88087,18.5216,20.6345,33.9873,-9.68899,-9.51192,-7.81868,6.83763,-5.91851,-24.2029,22.0206,-7.61015,13.1086,-15.3119
1.90474,19.185,1.06735,-13.9646,-76.8467,9.51157,10.9191,1.72432,-4.30622,-3.48277,1.37165,-2.6984,-9.9411,0.807588,-0.737344,-11.5086,-3.21622,-10.0659,-17.6266,-3.09287,9.92266,-3.06812,-1.51053,4.754,3.17062e-14,2.14687e-14,56.0972,-30.1358,-30.4076,25.8742,25.0571,-34.9867,12.614,7.12502,-8.13189,-17.2096,3.17062e-14,2.14687e-14,62.1392,27.52,30.0768,21.2935,-17.2098,-23.1108,20.3474,7.12502,3.33607,50.3011,-2.53286,18.3891,20.6298,33.7898,-9.08819,-9.28326,-8.41433,7.04137,-6.08018,-24.2466,22.0945,-7.31858,13.1167,-13.7401
1.85287,19.2175,1.0576,-13.5263,-76.8667,8.98093,10.7853,1.68294,-4.04433,-3.5169,1.36051,-2.72158,-9.89067,0.785549,-0.903266,-11.7399,-3.2482,-9.90862,-17.4874,-3.14168,9.85872,-2.99071,-1.53742,4.69914,-2.16675e-14,1.11319e-14,57.6137,-30.3094,-31.0965,25.2566,25.5412,-34.6597,12.732,7.12502,-7.81636,-17.1035,-2.16675e-14,1.11319e-14,63.4167,27.4774,30.3521,21.026,-17.6456,-23.0004,20.5662,7.12502,3.44273,50.5181,-2.25617,18.278,20.8303,33.568,-8.42309,-9.06481,-9.64492,7.20006,-6.47335,-24.1164,22.2043,-7.27711,13.3123,-11.2827
1.80205,19.2519,1.04755,-12.9543,-76.9074,8.31248,10.721,1.6556,-3.81993,-3.58858,1.36314,-2.68006,-9.92574,0.775901,-0.985183,-12.0501,-3.2442,-9.85047,-17.1843,-3.12539,9.80875,-2.85663,-1.52277,4.6617,5.53615e-14,8.74653e-15,58.9349,-30.3972,-31.5396,24.7156,25.9288,-34.4091,13.1905,7.12502,-7.57442,-16.6538,5.53615e-14,8.74653e-15,64.6324,27.4225,30.7354,20.7883,-18.0545,-22.6231,20.7414,7.12502,3.80703,50.6871,-1.96199,18.2913,21.0819,33.326,-7.77859,-8.84406,-10.0342,7.3381,-6.67217,-23.9056,22.329,-6.86503,13.3991,-10.5439
1.75185,19.2859,1.03664,-12.9918,-77.0056,8.24239,10.7334,1.68023,-3.7792,-3.6693,1.4048,-2.6168,-10.0231,0.79716,-0.951382,-12.4082,-3.23717,-9.92925,-16.8517,-3.08767,9.76689,-2.70703,-1.48861,4.64955,-1.50082e-14,1.59028e-15,60.0668,-30.3685,-31.6814,24.2715,26.2951,-34.2411,13.4372,7.12502,-7.41229,-16.413,-1.50082e-14,1.59028e-15,65.642,27.3522,30.9913,20.6545,-18.2547,-22.2435,20.9286,7.12502,4.17362,50.8675,-1.65488,18.3984,21.2104,33.1026,-7.24904,-8.66113,-9.42634,7.47768,-6.55859,-23.764,22.4218,-6.19857,13.3418,-10.5662
1.701,19.3177,1.02399,-13.5748,-77.1,8.78394,10.6569,1.69627,-3.85953,-3.75325,1.41696,-2.59329,-10.0743,0.809591,-0.883744,-12.6411,-3.22306,-10.0721,-16.7181,-3.03512,9.81564,-2.63391,-1.45083,4.68427,5.29761e-14,-2.22639e-14,61.4132,-30.3264,-32.1599,23.7448,26.9375,-34.0804,13.1405,7.12502,-7.25718,-16.7151,5.29761e-14,-2.22639e-14,66.5608,27.3146,31.1657,20.5081,-18.5779,-21.9389,21.3518,7.12502,4.46775,51.2847,-1.44639,18.4283,21.1514,32.9278,-6.72085,-8.42241,-8.82369,7.55235,-6.52609,-23.8046,22.4901,-5.60563,13.4779,-9.73711
1.65237,19.3463,1.01286,-14.0412,-77.1619,9.18506,10.5924,1.68209,-3.8359,-3.82926,1.40095,-2.59744,-10.1192,0.800775,-0.898727,-12.7662,-3.18119,-10.1085,-16.6744,-2.97106,9.7855,-2.60927,-1.41419,4.68023,-6.06293e-15,1.19271e-14,62.9006,-30.2871,-32.9568,23.1982,27.5452,-33.8964,12.4938,7.12502,-7.07959,-17.3678,-6.06293e-15,1.19271e-14,67.6964,27.3414,31.6184,20.1884,-19.2206,-21.2011,21.8883,7.12502,5.18016,51.805,-1.26154,18.3191,21.1088,32.7834,-5.97344,-8.04283,-9.30396,7.65356,-6.6995,-23.8788,22.5532,-5.07317,13.7736,-8.84518
1.60618,19.3753,1.00195,-14.0035,-77.3473,9.00345,10.6539,1.70625,-3.66491,-3.91103,1.45558,-2.56376,-10.2424,0.818704,-0.973996,-12.9867,-3.15848,-10.1564,-16.4787,-2.91962,9.79497,-2.52179,-1.38052,4.6854,7.61345e-14,-7.95139e-15,64.3922,-30.2585,-33.9065,22.7014,28.1907,-33.6574,11.6613,7.12502,-6.84886,-18.2079,7.61345e-14,-7.95139e-15,68.4973,27.2136,31.3795,20.0042,-19.0295,-20.5564,22.3684,7.12502,5.80267,52.2689,-1.047,18.2626,21.2602,32.653,-5.31376,-7.6834,-9.63384,7.8414,-6.78656,-23.776,22.5902,-4.39911,13.9588,-8.8835
1.55917,19.4077,0.987577,-14.1629,-77.5707,9.06066,10.7139,1.75126,-3.5832,-4.00929,1.52058,-2.55999,-10.3855,0.84558,-1.03421,-13.3033,-3.13511,-10.143,-16.1763,-2.86371,9.84183,-2.38769,-1.3461,4.6888,3.77691e-14,-4.77083e-15,66.0964,-30.3416,-35.4104,22.1251,29.4162,-33.4434,11.7037,7.12502,-6.64228,-18.1721,3.77691e-14,-4.77083e-15,69.2604,27.0382,31.0006,19.8858,-18.6335,-20.598,22.6613,7.12502,5.76249,52.5629,-0.874154,18.2213,21.3936,32.5259,-4.69662,-7.42365,-10.4226,7.96514,-6.63066,-23.6462,22.6213,-3.59942,14.0251,-8.64506
1.50973,19.4449,0.974947,-14.8458,-77.6975,9.77109,10.6424,1.77209,-3.61492,-4.1375,1.53371,-2.62158,-10.4857,0.851478,-1.08744,-13.5231,-3.08438,-10.0325,-15.9368,-2.80351,9.72473,-2.29443,-1.31337,4.62729,2.18663e-15,-1.35174e-14,67.583,-30.2948,-36.6776,21.6244,30.2659,-33.3856,12.1484,7.12502,-6.58645,-17.7291,2.18663e-15,-1.35174e-14,70.3367,26.9766,31.2375,19.6294,-18.8802,-20.6642,22.6195,7.12502,5.69854,52.5228,-0.757724,18.2995,21.3392,32.3482,-4.16987,-7.33028,-10.8191,7.90939,-6.57517,-23.6899,22.7753,-2.88422,14.1079,-8.50558
1.46021,19.4858,0.963285,-15.1384,-77.8197,10.1417,10.5088,1.76933,-3.55559,-4.2714,1.53483,-2.66104,-10.5526,0.846609,-1.16341,-13.6681,-3.03728,-9.99861,-15.8049,-2.74181,9.64991,-2.24243,-1.27937,4.59561,9.64106e-15,2.46493e-14,68.7326,-30.065,-37.3776,21.3154,30.5087,-33.27,11.617,7.12502,-6.47484,-18.264,9.64106e-15,2.46493e-14,71.3639,26.9164,31.4543,19.4246,-18.9708,-20.4437,23.0507,7.12502,5.91146,52.9483,-0.66113,18.6611,21.3534,32.1743,-3.86078,-7.70318,-8.70248,7.79465,-6.6691,-23.678,22.9305,-1.95021,14.1273,-10.0846
1.41761,19.5105,0.951269,-15.3211,-77.9317,10.2772,10.5211,1.78437,-3.44398,-4.34643,1.56048,-2.72002,-10.6386,0.848753,-1.29794,-13.9917,-3.0137,-9.81839,-15.5592,-2.71371,9.61383,-2.12675,-1.26665,4.5463,4.96962e-16,-8.74653e-15,69.954,-29.9702,-38.3045,20.9664,31.048,-33.2274,11.3563,7.12502,-6.43371,-18.526,4.96962e-16,-8.74653e-15,72.4515,26.809,31.5476,19.2467,-18.6381,-20.1981,23.7516,7.12502,6.14859,53.6424,-0.540793,18.3697,21.4049,31.9857,-2.85803,-7.90312,-9.65168,7.74659,-6.6747,-23.5889,23.073,-0.834694,14.0552,-10.8305
1.37497,19.5421,0.940742,-16.2219,-77.9836,11.095,10.5933,1.81228,-3.44055,-4.41676,1.57812,-2.82378,-10.758,0.851733,-1.42104,-14.2487,-3.01505,-9.71131,-15.3018,-2.71098,9.6227,-2.01274,-1.26359,4.52315,-5.20816e-14,-1.66979e-14,71.0717,-29.8887,-39.165,20.625,31.4602,-33.4108,12.1202,7.12502,-6.61078,-17.7566,-5.20816e-14,-1.66979e-14,73.5542,26.6742,31.6941,18.9975,-18.3761,-20.0271,23.826,7.12502,6.31362,53.7119,-0.334598,18.1055,21.2693,31.7971,-1.88738,-7.93291,-9.55847,7.74695,-6.69572,-23.6533,23.2118,-0.140795,14.1315,-8.30784
1.32905,19.5757,0.929644,-17.1611,-78.0912,12.049,10.5454,1.83618,-3.48748,-4.5268,1.59094,-2.89258,-10.8528,0.857458,-1.47418,-14.4393,-3.01589,-9.77009,-15.0819,-2.6871,9.69773,-1.91796,-1.24393,4.55103,1.98785e-14,-9.54166e-15,72.004,-29.6703,-39.7574,20.4387,31.6453,-33.3127,12.1757,7.12502,-6.51608,-17.7041,1.98785e-14,-9.54166e-15,74.3966,26.5448,31.628,18.8142,-18.0911,-19.7432,23.6758,7.12502,6.58769,53.5533,-0.158812,18.1294,21.1611,31.5534,-0.922372,-8.09914,-8.76234,7.63279,-6.5974,-23.7076,23.4193,0.49917,14.2399,-6.31594
1.28264,19.6093,0.918216,-17.8459,-78.2475,12.7058,10.5408,1.86557,-3.49944,-4.60839,1.61979,-2.92724,-10.9414,0.870178,-1.51394,-14.7328,-3.03108,-9.69551,-14.8417,-2.70169,9.66951,-1.80365,-1.2472,4.52152,-2.90226e-14,3.49861e-14,72.8737,-29.4144,-40.2259,20.2833,31.7986,-33.0748,11.6548,7.12502,-6.28642,-18.2319,-2.90226e-14,3.49861e-14,75.277,26.4665,31.7105,18.651,-18.1103,-19.4572,23.7678,7.12502,6.86381,53.6366,0.0441048,18.2249,21.1551,31.3059,-0.083192,-8.18691,-8.32219,7.58274,-6.49876,-23.7176,23.5863,1.47872,14.3101,-6.28303
1.23891,19.644,0.905278,-17.9671,-78.3516,12.8164,10.5327,1.86602,-3.40373,-4.68733,1.63084,-2.93152,-11.0217,0.868538,-1.57735,-14.9182,-3.02343,-9.51612,-14.695,-2.71378,9.54266,-1.73786,-1.25601,4.44659,-7.03698e-14,2.3059e-14,73.5767,-29.142,-40.3478,20.1259,31.5043,-33.1589,11.7296,7.12502,-6.36764,-18.1547,-7.03698e-14,2.3059e-14,76.2733,26.4081,31.995,18.3893,-18.5125,-19.3321,24.0282,7.12502,6.98457,53.893,0.207687,18.2788,21.2479,31.0421,0.539226,-8.26689,-7.92697,7.49344,-6.60653,-23.6272,23.7494,2.17594,14.4534,-4.60544
1.19639,19.6756,0.892534,-17.8379,-78.4439,12.7212,10.4469,1.8472,-3.27037,-4.76221,1.62733,-2.92736,-11.0495,0.857696,-1.64639,-15.1055,-2.95231,-9.29405,-14.5433,-2.65155,9.36136,-1.67936,-1.22937,4.35053,-1.25234e-14,3.97569e-15,74.197,-28.887,-40.3778,20.0485,31.1248,-33.0925,11.9282,7.12502,-6.30352,-17.958,-1.25234e-14,3.97569e-15,77.2686,26.3822,32.2548,18.0764,-18.9673,-19.2649,24.1917,7.12502,7.04941,54.0543,0.363974,18.4336,21.4289,30.7584,1.1485,-8.51476,-7.83861,7.33279,-6.61085,-23.4218,23.9091,2.71224,14.5331,-1.41924
1.15327,19.7034,0.879875,-18.7079,-78.501,13.5762,10.4124,1.88653,-3.31619,-4.7843,1.66169,-3.02195,-11.0531,0.872096,-1.72953,-15.4022,-2.97169,-9.09064,-14.3845,-2.70105,9.18199,-1.59286,-1.25579,4.25291,-2.96189e-14,-1.59028e-14,74.9515,-28.7524,-40.769,19.9456,31.2446,-32.8031,11.958,7.12502,-6.02413,-17.9364,-2.96189e-14,-1.59028e-14,78.4916,26.3412,32.7799,17.7137,-19.7568,-19.4097,23.9584,7.12502,6.90968,53.8256,0.598164,18.5416,21.4064,30.4701,1.7963,-8.58559,-8.10136,7.25577,-6.53112,-23.4125,24.0716,3.42468,14.4277,0.877956
1.11025,19.733,0.865662,-19.94,-78.513,14.8135,10.407,1.96125,-3.48375,-4.82345,1.71794,-3.1479,-11.0972,0.903612,-1.78493,-15.6758,-3.05549,-8.91837,-14.2165,-2.82764,9.07588,-1.4977,-1.31956,4.18018,-2.44505e-14,1.66979e-14,75.9048,-28.6782,-41.5623,19.6808,31.8379,-32.9267,12.4528,7.12502,-6.14341,-17.4381,-2.44505e-14,1.66979e-14,79.7428,26.2137,33.3451,17.3412,-20.6702,-19.6304,23.4343,7.12502,6.69658,53.3084,0.791223,18.5375,21.2379,30.1762,2.37816,-8.51478,-8.13448,7.17699,-6.61365,-23.5306,24.2499,4.17431,14.2684,2.3231
1.07287,19.7634,0.850586,-20.5393,-78.5331,15.4119,10.491,1.97374,-3.60374,-4.90852,1.70495,-3.15438,-11.2483,0.905155,-1.72977,-15.9298,-3.10856,-9.02263,-13.9625,-2.86059,9.20085,-1.37694,-1.32468,4.22823,-2.48481e-14,-8.74653e-15,76.5354,-28.4284,-41.7459,19.5451,32.1044,-33.232,12.9631,7.12502,-6.43815,-16.9191,-2.48481e-14,-8.74653e-15,80.5989,26.1184,33.4689,17.0471,-21.042,-19.7717,23.0439,7.12502,6.56021,52.9223,1.005,18.6685,21.2394,29.8743,2.82886,-8.70132,-7.9804,7.06047,-6.63739,-23.4763,24.425,5.02534,14.0468,3.84961
1.03858,19.7917,0.837631,-20.8102,-78.5324,15.6192,10.6614,1.94013,-3.60667,-4.98505,1.64858,-3.12404,-11.4383,0.879867,-1.69466,-16.1326,-3.1873,-9.35789,-13.7492,-2.88947,9.44438,-1.26958,-1.31919,4.3533,2.64384e-14,6.36111e-15,76.6535,-28.0773,-41.0383,19.6515,31.5989,-33.3051,12.7577,7.12502,-6.50876,-17.1223,2.64384e-14,6.36111e-15,81.2982,26.0432,33.5176,16.9184,-21.0132,-20.1388,22.6668,7.12502,6.20581,52.5559,1.31061,18.8237,21.356,29.5612,3.28814,-9.02742,-7.6594,6.98145,-6.6243,-23.3455,24.6056,5.91844,13.844,5.40529
1.0001,19.8187,0.830522,-21.2848,-78.508,16.041,10.7253,1.92274,-3.53331,-5.02985,1.62412,-3.17368,-11.5236,0.859837,-1.78954,-16.1837,-3.24265,-9.52354,-13.7161,-2.92776,9.5728,-1.24266,-1.33014,4.41829,-1.0138e-14,-2.46493e-14,76.7222,-27.8725,-40.3161,19.7492,30.807,-33.2324,12.2556,7.12502,-6.43859,-17.6265,-1.0138e-14,-2.46493e-14,82.1248,25.9191,33.7447,16.8739,-21.0173,-20.4051,22.352,7.12502,5.94871,52.2485,1.59093,18.7881,21.3615,29.246,3.93054,-9.05607,-7.99055,6.9137,-6.75527,-23.3366,24.8091,6.60543,13.7777,6.79572
0.960077,19.8469,0.821308,-22.256,-78.4547,17.0669,10.6643,1.95664,-3.62025,-5.07716,1.64192,-3.28265,-11.5412,0.868209,-1.86261,-16.2214,-3.30726,-9.59594,-13.7296,-2.99017,9.74016,-1.2287,-1.35819,4.47977,1.39149e-15,5.80451e-14,76.6471,-27.8495,-39.459,19.8816,30.0227,-32.933,11.5955,7.12502,-6.14948,-18.2953,1.39149e-15,5.80451e-14,82.9227,25.7501,33.7502,16.8356,-20.8416,-20.5236,22.0868,7.12502,5.83433,51.9865,1.75073,18.7995,21.2029,28.9678,4.48431,-9.06284,-8.44203,6.73462,-6.66926,-23.372,24.9964,7.21094,13.4542,5.98892
0.92116,19.8746,0.810187,-23.178,-78.3656,18.0361,10.6342,2.00258,-3.76694,-5.10425,1.66456,-3.39999,-11.5568,0.882767,-1.91286,-16.472,-3.43586,-9.56771,-13.5681,-3.13977,9.91154,-1.1247,-1.42812,4.51622,2.64384e-14,-2.46493e-14,76.539,-27.8733,-38.7123,20.0638,29.4855,-32.6071,10.5833,7.12502,-5.83489,-19.3163,2.64384e-14,-2.46493e-14,83.6475,25.5756,33.631,16.9355,-20.5037,-20.6665,21.9295,7.12502,5.69634,51.8329,1.92642,19.014,21.1154,28.769,4.73989,-9.44807,-8.05781,6.5815,-6.47328,-23.366,25.1128,7.80616,12.8661,1.03594
0.882467,19.8964,0.805248,-23.8546,-78.3082,18.6699,10.6592,1.99789,-3.75724,-5.10505,1.64547,-3.49569,-11.5702,0.867268,-2.01982,-16.668,-3.53743,-9.56303,-13.4115,-3.25598,10.0648,-1.03326,-1.48122,4.55285,-3.65764e-14,5.56597e-15,76.8714,-27.7488,-38.7151,20.0925,29.3593,-32.6284,9.03854,7.12502,-5.85543,-20.8606,-3.65764e-14,5.56597e-15,83.9173,25.4872,33.001,17.3386,-19.8049,-20.7017,22.2291,7.12502,5.66232,52.1334,2.16346,19.2274,21.1207,28.6308,4.94627,-9.89441,-7.33308,6.54941,-6.36471,-23.3828,25.1925,8.38746,12.1423,0.32381
0.845044,19.9117,0.800594,-24.7157,-78.2357,19.5588,10.6367,1.99075,-3.83051,-5.14898,1.61046,-3.58445,-11.6075,0.850504,-2.06942,-16.6645,-3.60078,-9.65579,-13.3801,-3.31977,10.1794,-1.01268,-1.50866,4.60033,-7.95139e-15,3.97569e-15,77.4896,-27.5335,-39.1633,19.9627,29.4332,-32.8629,8.42176,7.12502,-6.08182,-21.4709,-7.95139e-15,3.97569e-15,83.7552,25.4175,31.7796,17.9771,-18.5633,-20.7206,22.5194,7.12502,5.64416,52.4242,2.29037,19.3563,20.999,28.4942,5.19636,-10.2096,-6.36263,6.42842,-6.38756,-23.5295,25.3112,8.90651,11.3491,-1.23835
0.80799,19.9267,0.794432,-25.2756,-78.1539,20.2128,10.5454,2.02793,-3.92653,-5.20684,1.6373,-3.65559,-11.6201,0.865951,-2.09741,-16.7221,-3.66456,-9.64024,-13.2378,-3.40499,10.118,-0.956479,-1.54734,4.57063,-1.90833e-14,-1.03368e-14,77.9521,-27.4353,-39.4715,19.8834,29.3865,-33.0286,9.15773,7.12502,-6.24186,-20.7303,-1.90833e-14,-1.03368e-14,84.0163,25.2673,31.1934,18.4508,-17.7665,-20.605,22.4278,7.12502,5.75568,52.3296,2.35053,19.4652,20.918,28.331,5.52552,-10.4578,-5.99417,6.19474,-6.60327,-23.6593,25.4738,9.0157,10.7946,-3.28224
0.771786,19.9428,0.791943,-25.4681,-78.0955,20.4407,10.4927,2.05058,-3.8563,-5.24132,1.67527,-3.69302,-11.6237,0.876552,-2.18461,-16.736,-3.70471,-9.69494,-13.0723,-3.44569,10.144,-0.899197,-1.56128,4.58231,3.67752e-14,-2.62396e-14,78.2637,-27.3655,-39.505,19.874,29.3081,-33.167,9.7384,7.12502,-6.37544,-20.1456,3.67752e-14,-2.62396e-14,84.5352,25.1193,31.1152,18.7165,-17.5036,-20.5144,22.0545,7.12502,5.84322,51.9539,2.4932,19.5469,20.9798,28.1358,6.01897,-10.6157,-6.50041,5.96769,-6.81498,-23.6814,25.653,8.52152,10.6916,-4.66349
0.740343,19.9587,0.789973,-25.5456,-78.0034,20.529,10.5259,2.05526,-3.76137,-5.26284,1.68736,-3.73877,-11.6633,0.872401,-2.29289,-16.708,-3.79862,-9.76216,-13.0246,-3.55437,10.255,-0.873079,-1.61166,4.6217,-2.78299e-15,-7.15625e-15,78.5314,-27.3265,-39.4511,19.8761,29.366,-33.1994,9.5754,7.12502,-6.4067,-20.3077,-2.78299e-15,-7.15625e-15,85.0497,25,30.944,18.9067,-17.234,-20.6304,21.7563,7.12502,5.7312,51.6588,2.68858,19.6623,21.0777,27.8883,6.29737,-10.7589,-6.16782,5.7172,-7.19406,-23.7322,25.8491,7.73234,10.9732,-4.13847
0.707898,19.9766,0.786006,-25.465,-77.9537,20.5278,10.4783,2.11246,-3.71129,-5.28548,1.76719,-3.79067,-11.6563,0.90359,-2.39286,-16.8369,-3.92215,-9.59391,-12.8821,-3.74146,10.1245,-0.802215,-1.7063,4.53844,4.8901e-14,-5.40694e-14,78.5625,-27.366,-39.1331,19.9584,29.1325,-33.251,8.81404,7.12502,-6.45653,-21.0675,4.8901e-14,-5.40694e-14,85.6918,24.8473,30.7384,19.0111,-16.916,-20.9937,21.752,7.12502,5.3804,51.6637,2.8116,19.8366,21.1742,27.6305,6.39397,-10.8399,-5.4959,5.36992,-7.60267,-23.7777,26.0136,7.16623,11.0574,-5.21945
0.670096,19.9961,0.78539,-25.3661,-78.013,20.5309,10.3313,2.18451,-3.59953,-5.32246,1.88458,-3.82365,-11.6026,0.94943,-2.50984,-16.8847,-3.9467,-9.41844,-12.7212,-3.8047,9.96897,-0.750267,-1.74052,4.45353,-3.18055e-15,-2.22639e-14,78.8783,-27.3094,-39.3857,19.9461,29.2684,-33.5656,8.53186,7.12502,-6.76023,-21.3402,-3.18055e-15,-2.22639e-14,86.1382,24.71,30.3131,19.1666,-16.4596,-21.5532,21.7616,7.12502,4.84019,51.6863,2.90039,20.0577,21.2866,27.432,6.63824,-11.0077,-5.34029,5.01771,-7.78112,-23.7515,26.0893,6.76116,10.9736,-7.65932
0.633346,20.0109,0.7891,-25.7001,-78.0598,20.8713,10.2781,2.23931,-3.49685,-5.33248,1.97227,-3.86262,-11.5751,0.981419,-2.62535,-16.7856,-3.98947,-9.54063,-12.6258,-3.84072,10.0815,-0.725656,-1.75236,4.50605,-1.19271e-15,-1.03368e-14,79.5927,-27.204,-40.3204,19.777,29.9188,-33.9577,8.95005,7.12502,-7.13871,-20.9095,-1.19271e-15,-1.03368e-14,86.2736,24.6427,29.562,19.4798,-15.7652,-21.9385,21.7161,7.12502,4.46816,51.649,3.10368,20.2444,21.338,27.2687,6.89156,-11.2722,-4.89592,4.78259,-7.9225,-23.8198,26.1178,6.24678,11.1307,-8.30371
0.599282,20.0185,0.791622,-26.3798,-77.9993,21.549,10.2696,2.29388,-3.53501,-5.33824,2.03404,-3.90625,-11.576,1.01104,-2.66399,-16.6769,-4.03821,-9.68811,-12.5314,-3.88215,10.1718,-0.702731,-1.76595,4.55563,-1.0138e-14,3.4191e-14,79.9473,-27.112,-40.6015,19.6682,29.9513,-34.5174,9.23111,7.12502,-7.67898,-20.6095,-1.0138e-14,3.4191e-14,86.3305,24.5879,28.7538,19.8806,-14.9997,-22.1833,21.7621,7.12502,4.23173,51.6998,3.30819,20.2979,21.258,27.1082,7.1444,-11.406,-4.4433,4.51305,-8.01923,-23.9702,26.1492,5.67804,11.4311,-7.91082
0.567755,20.0255,0.789909,-26.381,-77.9325,21.6081,10.2555,2.3484,-3.52038,-5.37657,2.10378,-3.93998,-11.6084,1.04085,-2.72454,-16.5412,-4.07367,-9.63958,-12.5187,-3.9417,10.1918,-0.712211,-1.7984,4.55159,-5.82439e-14,2.3059e-14,79.9705,-27.064,-40.4739,19.6832,29.7885,-35.0918,9.04359,7.12502,-8.23341,-20.776,-5.82439e-14,2.3059e-14,86.6801,24.4739,28.3613,20.1704,-14.6687,-22.5325,21.3418,7.12502,3.89453,51.2859,3.41206,20.3512,21.3155,26.9567,7.43764,-11.5615,-4.43506,4.11916,-8.1826,-23.9466,26.1937,5.09538,11.6992,-7.57747
0.536099,20.0332,0.790746,-26.093,-77.8932,21.3493,10.2332,2.41192,-3.40693,-5.38176,2.2057,-3.96344,-11.5929,1.07984,-2.83329,-16.5524,-4.19387,-9.62567,-12.3993,-4.09858,10.2276,-0.658693,-1.87358,4.54904,-1.98785e-14,2.70347e-14,79.7974,-27.08,-40.062,19.8282,29.4695,-35.5593,8.35529,7.12502,-8.68452,-21.4461,-1.98785e-14,2.70347e-14,87.1693,24.3736,28.1937,20.3922,-14.5703,-22.8689,20.5797,7.12502,3.56969,50.5295,3.54861,20.4287,21.4713,26.8008,7.65774,-11.7578,-4.70608,3.73025,-8.32255,-23.8623,26.2581,4.69266,11.6739,-8.34235
0.501489,20.0397,0.796996,-26.0724,-77.8261,21.341,10.1475,2.44038,-3.28518,-5.37083,2.26927,-3.96533,-11.5213,1.10184,-2.91058,-16.5302,-4.29745,-9.83934,-12.2159,-4.1984,10.303,-0.590707,-1.91071,4.59878,2.92213e-14,7.15625e-15,79.8809,-26.9707,-39.9176,19.8566,29.1303,-36.2326,8.04001,7.12502,-9.33423,-21.7333,2.92213e-14,7.15625e-15,87.1655,24.3991,27.3997,20.752,-14.0374,-23.2474,20.3399,7.12502,3.20414,50.2956,3.74228,20.5617,21.5507,26.6267,7.7135,-12.1081,-4.27527,3.30656,-8.10217,-23.7906,26.3294,4.57258,11.3061,-9.57558
0.46957,20.0485,0.801911,-26.0113,-77.7086,21.2912,10.1358,2.42593,-3.19941,-5.37382,2.2635,-3.96991,-11.5133,1.09264,-2.9619,-16.4295,-4.36947,-10.2148,-12.1239,-4.22858,10.5737,-0.556278,-1.90998,4.74304,1.39149e-15,-2.14687e-14,80.3662,-26.808,-40.4608,19.7333,29.2605,-36.8319,8.54378,7.12502,-9.91243,-21.2029,1.39149e-15,-2.14687e-14,87.0996,24.4656,26.5605,21.0841,-13.511,-23.8212,20.2584,7.12502,2.65003,50.2217,3.93528,20.7581,21.6301,26.4698,7.75634,-12.5711,-3.34053,2.86881,-8.05843,-23.7634,26.3627,4.6369,11.0458,-10.3605
0.44162,20.0587,0.805363,-26.1093,-77.5206,21.3788,10.2373,2.40461,-3.23074,-5.36379,2.22271,-3.98542,-11.5654,1.07417,-2.95853,-16.411,-4.41531,-10.4376,-12.0731,-4.24633,10.7783,-0.529067,-1.90889,4.84216,-4.75095e-14,1.43125e-14,80.8388,-26.671,-41.0549,19.6662,29.4664,-37.2856,9.11291,7.12502,-10.3502,-20.6124,-4.75095e-14,1.43125e-14,87.3498,24.5032,26.2725,21.286,-13.3086,-24.4774,20.1056,7.12502,2.01631,50.0758,4.11948,20.7911,21.6182,26.3469,7.83779,-12.8149,-2.86994,2.47516,-8.3465,-23.8823,26.3488,4.90315,10.8201,-10.8702
0.412445,20.0673,0.808607,-26.4024,-77.2831,21.6892,10.2822,2.40489,-3.38028,-5.35077,2.19563,-4.00008,-11.585,1.07138,-2.88726,-16.2538,-4.39751,-10.3252,-12.1376,-4.25476,10.6389,-0.577896,-1.92076,4.7825,1.09332e-14,7.95139e-15,81.0765,-26.5568,-41.311,19.7104,29.3234,-37.8105,9.43182,7.12502,-10.8565,-20.2676,1.09332e-14,7.95139e-15,87.7073,24.5015,26.2464,21.5127,-13.1944,-24.9434,20.2451,7.12502,1.56624,50.2191,4.26329,20.6611,21.4705,26.2387,7.91587,-12.8257,-2.87787,2.02051,-8.44456,-24.0154,26.3172,5.24977,10.3875,-11.1823
0.383168,20.0747,0.810826,-26.404,-77.0793,21.7342,10.2861,2.44398,-3.49985,-5.34156,2.22746,-4.01759,-11.5816,1.09451,-2.84567,-16.1143,-4.40141,-10.0159,-12.1642,-4.32918,10.2869,-0.619225,-1.97178,4.6192,0,-9.54166e-15,80.8675,-26.5533,-40.8977,19.9218,28.6737,-38.1308,8.83626,7.12502,-11.1655,-20.8467,0,-9.54166e-15,88.2315,24.441,26.424,21.7296,-13.1115,-25.3871,20.4189,7.12502,1.13775,50.3956,4.35875,20.5573,21.3892,26.1515,8.05463,-12.7455,-3.05176,1.53503,-8.47687,-24.0438,26.2734,5.40517,10.1847,-10.7257
0.356207,20.0785,0.813147,-25.978,-76.9007,21.3455,10.3007,2.41667,-3.50088,-5.31478,2.1927,-4.01023,-11.5609,1.07885,-2.82931,-16.2888,-4.37368,-9.7562,-11.9966,-4.33365,9.99427,-0.561216,-1.97864,4.47936,2.10712e-14,-1.11319e-14,80.9481,-26.4814,-40.9276,20.0776,28.2456,-38.4784,8.38265,7.12502,-11.5006,-21.2819,2.10712e-14,-1.11319e-14,88.5247,24.5228,26.2465,21.8857,-12.9162,-26.2002,20.2976,7.12502,0.352424,50.277,4.40538,20.4908,21.4472,26.1358,8.1466,-12.7243,-3.53951,1.07016,-8.5036,-23.9778,26.1905,5.52441,10.0897,-10.147
0.329326,20.0794,0.818305,-25.8441,-76.6767,21.227,10.3167,2.3409,-3.58122,-5.2798,2.08861,-3.94079,-11.5384,1.03968,-2.68637,-16.3112,-4.29739,-9.80147,-12.0361,-4.22745,9.91472,-0.582569,-1.92464,4.4687,3.39922e-14,2.94201e-14,81.4234,-26.2526,-41.445,20.132,28.0751,-39.1876,8.5055,7.12502,-12.1846,-21.1196,3.39922e-14,2.94201e-14,88.5652,24.6894,25.9473,22.0279,-12.6695,-26.7815,20.4862,7.12502,-0.20907,50.4658,4.4589,20.5065,21.4585,26.1901,8.15893,-12.8288,-4.51921,0.653544,-8.56839,-24.0287,26.0721,5.73497,10.0797,-9.91718
0.30492,20.0787,0.826142,-27.036,-76.3671,22.4387,10.3814,2.35055,-3.99084,-5.24835,2.03499,-3.93278,-11.5619,1.0446,-2.43959,-16.0971,-4.28231,-10.0325,-12.2261,-4.18324,9.92594,-0.669887,-1.89919,4.51919,-1.78906e-15,-7.95139e-16,81.7643,-26.0259,-41.7814,20.2483,28.0685,-39.7386,7.57373,7.12502,-12.7158,-22.0191,-1.78906e-15,-7.95139e-16,88.8194,24.7522,26.0967,22.1649,-12.6503,-26.8078,21.1944,7.12502,-0.234415,51.174,4.54084,20.5816,21.1048,26.2554,8.19151,-12.8981,-5.14584,0.270017,-8.681,-24.4703,25.9507,5.9664,10.3063,-9.19822
0.282636,20.0773,0.834236,-28.2491,-76.0381,23.7443,10.3874,2.36533,-4.43457,-5.2199,1.981,-3.96364,-11.5533,1.04953,-2.21323,-16.0779,-4.26856,-10.1494,-12.1951,-4.14983,9.86511,-0.667333,-1.87733,4.52103,-5.82439e-14,4.05521e-14,82.0814,-25.8453,-42.2032,20.4241,28.4228,-39.8451,6.56918,7.12502,-12.8185,-23.0172,-5.82439e-14,4.05521e-14,89.0786,24.8599,26.1646,22.2435,-12.5613,-27.0728,21.4934,7.12502,-0.49037,51.4726,4.53106,20.5213,20.6403,26.3212,8.22134,-12.9141,-5.07624,-0.214622,-8.5722,-24.9194,25.8213,6.3,10.3155,-9.03946
0.256332,20.0786,0.845401,-27.9856,-75.8684,23.5827,10.3295,2.33427,-4.49226,-5.22414,1.94301,-3.89737,-11.5276,1.03981,-2.09816,-15.9916,-4.21836,-10.1317,-12.2771,-4.09655,9.74226,-0.714749,-1.85368,4.48543,1.25234e-14,9.54166e-15,82.293,-25.6349,-42.5467,20.6565,28.7144,-39.8554,6.11993,7.12502,-12.8284,-23.4659,1.25234e-14,9.54166e-15,89.1545,24.988,25.8462,22.2256,-11.9885,-28.0268,21.1934,7.12502,-1.41179,51.1685,4.50484,20.4194,20.5722,26.3412,8.2709,-12.9222,-4.7453,-0.745215,-8.70873,-25.0042,25.7124,6.48253,10.4799,-9.37679
0.226831,20.0778,0.859365,-27.4562,-75.7677,23.0719,10.3174,2.31619,-4.42047,-5.21651,1.94123,-3.82743,-11.5102,1.03809,-2.06058,-15.9317,-4.19225,-9.96092,-12.337,-4.10077,9.52866,-0.752488,-1.86386,4.39237,1.63003e-14,1.59028e-15,82.4224,-25.4166,-42.9566,20.9314,29.0598,-39.9584,6.25939,7.12502,-12.9277,-23.3202,1.63003e-14,1.59028e-15,89.3875,25.0402,25.7305,22.1498,-11.6037,-29.0229,20.9494,7.12502,-2.37381,50.9159,4.62063,20.3315,20.6343,26.2696,8.31423,-12.8405,-4.55417,-1.20374,-9.05266,-25.018,25.6618,6.4021,10.9035,-8.48061
0.195265,20.0771,0.873078,-26.5218,-75.7353,22.0084,10.3555,2.2691,-4.22328,-5.13982,1.93302,-3.67185,-11.4415,1.02931,-1.99737,-16.0042,-4.17915,-9.91756,-12.2086,-4.0921,9.36424,-0.712103,-1.85841,4.33113,-9.93923e-17,2.14687e-14,82.4295,-25.2212,-42.9852,21.2916,29.1656,-40.3367,6.78622,7.12502,-13.2923,-22.7699,-9.93923e-17,2.14687e-14,89.6713,25.1497,25.8681,22.0524,-11.5925,-29.4888,21.0446,7.12502,-2.82375,51.0057,4.92059,20.3064,20.9437,26.1507,8.21176,-12.9125,-4.32517,-1.52281,-9.08507,-24.8186,25.6389,6.30386,11.0924,-6.73647
0.163258,20.0789,0.887572,-25.8711,-75.7156,21.211,10.4077,2.20323,-4.1183,-5.06528,1.89007,-3.46369,-11.3894,1.01352,-1.81955,-15.9137,-4.09434,-9.96627,-12.2429,-3.98836,9.16304,-0.752378,-1.80674,4.28393,-1.58034e-14,-1.19271e-14,82.2742,-24.9377,-42.4458,21.7309,28.7011,-40.9522,6.63058,7.12502,-13.8856,-22.8859,-1.58034e-14,-1.19271e-14,89.808,25.3269,25.9758,21.9288,-11.5404,-29.5972,21.2158,7.12502,-2.9285,51.1754,5.23425,20.3544,21.2286,26.0697,8.11222,-13.0194,-4.00035,-1.74974,-9.3575,-24.7656,25.5844,6.51143,11.1557,-7.50138
0.134798,20.0774,0.903456,-26.5572,-75.5337,21.9554,10.3771,2.16554,-4.44443,-5.06108,1.79827,-3.39868,-11.3816,0.996962,-1.54641,-15.9309,-3.95472,-9.78329,-12.2233,-3.84637,8.83336,-0.772643,-1.74326,4.15828,7.95139e-15,-2.94201e-14,82.2415,-24.6088,-42.2209,22.0799,28.4771,-41.596,6.48528,7.12502,-14.5059,-22.9876,7.95139e-15,-2.94201e-14,90.1118,25.422,26.3545,21.7611,-11.7569,-29.7341,21.1479,7.12502,-3.06066,51.1057,5.31448,20.235,20.9261,26.0424,8.07417,-12.9167,-3.40702,-2.139,-9.75478,-25.1862,25.4918,7.05447,10.976,-9.48868
0.107127,20.0724,0.922072,-27.1506,-75.3539,22.6457,10.2862,2.13118,-4.69888,-5.0479,1.72011,-3.39095,-11.3219,0.978237,-1.37528,-15.9512,-3.86844,-9.69436,-12.2187,-3.75207,8.68415,-0.783708,-1.69992,4.10191,1.42131e-14,2.62396e-14,82.2113,-24.347,-42.0789,22.3573,28.4526,-42.4348,6.56933,7.12502,-15.314,-22.8437,1.42131e-14,2.62396e-14,90.5116,25.5018,26.7633,21.5737,-12.1532,-30.072,20.9365,7.12502,-3.38699,50.8893,5.3315,20.0543,20.5983,26.0459,8.01234,-12.7969,-2.49006,-2.56509,-9.96122,-25.5489,25.3909,7.34578,11,-8.25437
0.0786321,20.0665,0.941194,-27.4182,-75.2472,22.8975,10.2672,2.0965,-4.7737,-4.99996,1.67227,-3.34594,-11.2597,0.963012,-1.27185,-15.7011,-3.82026,-9.7568,-12.475,-3.69976,8.64383,-0.9015,-1.67753,4.10993,1.23246e-14,1.43125e-14,82.0092,-24.1703,-41.6223,22.6946,28.24,-43.3544,6.76629,7.12502,-16.1996,-22.5768,1.23246e-14,1.43125e-14,90.8323,25.6056,27.05,21.3513,-12.6228,-30.5133,20.9497,7.12502,-3.81311,50.8953,5.47654,20.0165,20.5046,26.0837,7.96111,-12.6973,-2.24495,-2.82245,-10.1309,-25.8047,25.2903,7.50892,11.1687,-6.67
0.0493836,20.0593,0.957975,-27.1911,-75.1961,22.6063,10.304,2.04089,-4.76872,-4.97306,1.61228,-3.23137,-11.2527,0.940496,-1.13851,-15.4281,-3.72552,-9.68805,-12.6969,-3.61161,8.51439,-1.02041,-1.64216,4.07,-4.41302e-14,-3.18055e-15,81.8647,-23.9933,-41.2302,23.0262,28.1064,-44.0245,7.31395,7.12502,-16.8448,-21.9754,-4.41302e-14,-3.18055e-15,91.0404,25.6801,27.2693,21.1296,-13.1043,-30.9702,21.0783,7.12502,-4.25438,51.0156,5.6753,19.9827,20.6154,26.1268,7.93679,-12.6146,-2.82911,-3.0351,-10.2154,-25.9064,25.2029,8.01679,10.9786,-6.82008
0.0189503,20.0488,0.977043,-26.6666,-75.1829,22.0215,10.2795,1.98672,-4.65616,-4.93464,1.57686,-3.11156,-11.192,0.922027,-1.06146,-15.1636,-3.60959,-9.49362,-12.9024,-3.52185,8.21528,-1.14108,-1.60984,3.9562,-2.69353e-14,3.26007e-14,81.7259,-23.8157,-40.7685,23.3501,27.8408,-44.4128,7.42668,7.12502,-17.2186,-21.8305,-2.69353e-14,3.26007e-14,91.0855,25.7937,27.1495,20.9713,-13.1258,-31.313,21.1538,7.12502,-4.58542,51.0842,5.83381,19.7936,20.7746,26.1733,7.96557,-12.4294,-3.70779,-3.25868,-10.4034,-25.9425,25.1287,8.68706,10.8341,-7.05307
-0.0111301,20.038,0.997974,-26.4779,-75.1041,21.8177,10.206,1.95214,-4.64839,-4.87717,1.55326,-3.01171,-11.0843,0.915082,-0.947354,-15.0585,-3.51532,-9.37915,-13.0414,-3.43953,7.90613,-1.2174,-1.57496,3.84901,-1.54058e-14,1.11319e-14,81.7137,-23.6955,-40.5138,23.6191,27.7796,-44.6983,7.113,7.12502,-17.4933,-22.1199,-1.54058e-14,1.11319e-14,91.3638,25.8702,27.4147,20.7286,-13.3391,-31.3594,21.3215,7.12502,-4.63021,51.2509,5.95117,19.6114,20.7823,26.216,7.95528,-12.1806,-4.52969,-3.5182,-10.2246,-26.0587,25.078,9.72683,10.1836,-8.37541
-0.0405535,20.0277,1.01879,-26.5467,-75.0787,21.8624,10.1772,1.90993,-4.73509,-4.82765,1.50538,-2.87582,-11.0164,0.905118,-0.73911,-15.1486,-3.42087,-9.40611,-13.0324,-3.31534,7.75578,-1.21712,-1.51115,3.81122,-4.17448e-15,1.59028e-14,81.9997,-23.5024,-40.6943,23.7618,28.1774,-45.2251,7.13569,7.12502,-18.0002,-22.0514,-4.17448e-15,1.59028e-14,91.8646,25.8794,28.2536,20.3963,-14.0673,-31.3568,21.56,7.12502,-4.62768,51.4894,6.09717,19.6562,20.7968,26.2813,7.75119,-12.1708,-4.70225,-3.72719,-9.70263,-26.1616,25.0099,10.9588,9.41235,-8.06487
-0.0712007,20.0156,1.04427,-26.5557,-75.1979,21.7887,10.1831,1.88485,-4.69086,-4.77758,1.49987,-2.72521,-10.9652,0.906981,-0.598032,-15.0291,-3.34239,-9.47868,-13.1544,-3.21869,7.65528,-1.28157,-1.46243,3.79973,-4.2043e-14,-3.45885e-14,82.2432,-23.279,-40.7337,23.9089,28.4928,-45.7368,7.38646,7.12502,-18.4925,-21.7545,-4.2043e-14,-3.45885e-14,92.1264,25.929,28.6814,20.061,-14.7272,-31.7312,21.7211,7.12502,-4.98922,51.6424,6.27055,19.7109,20.8865,26.377,7.52968,-12.0933,-4.77079,-3.78238,-9.80754,-26.2772,24.9173,11.7868,9.94085,-3.71168
-0.10086,20.0027,1.072,-27.0629,-75.2592,22.1947,10.2108,1.89138,-4.74013,-4.7126,1.5133,-2.6428,-10.913,0.920478,-0.482641,-14.852,-3.24659,-9.52915,-13.2604,-3.10496,7.55966,-1.35082,-1.40593,3.78697,1.963e-14,-6.75868e-15,82.3308,-23.1643,-40.5703,24.1573,28.6407,-45.8709,7.03521,7.12502,-18.6215,-22.0935,1.963e-14,-6.75868e-15,92.8686,25.8041,29.7387,19.3841,-16.1962,-32.328,21.4945,7.12502,-5.56545,51.4015,6.4776,19.6685,20.7945,26.4417,7.40885,-11.8173,-5.23715,-3.76318,-10.1688,-26.6205,24.8725,12.2633,11.0192,0.721342
-0.128466,19.9894,1.09879,-27.5679,-75.2885,22.5706,10.2886,1.87424,-4.81625,-4.65721,1.48527,-2.57156,-10.901,0.91567,-0.358334,-14.7717,-3.06137,-9.34719,-13.2147,-2.90507,7.31419,-1.37436,-1.31361,3.68905,-1.76421e-14,5.56597e-15,82.3281,-23.0493,-40.2907,24.4429,28.5889,-46.0126,6.52955,7.12502,-18.7578,-22.586,-1.76421e-14,5.56597e-15,93.4917,25.6439,30.7539,18.8918,-17.6274,-32.6941,21.9491,7.12502,-5.9189,51.8465,6.73217,19.68,20.7288,26.4823,7.31227,-11.633,-5.61766,-3.70222,-10.2178,-26.9567,24.8721,12.6127,11.6981,2.05298
-0.159809,19.9758,1.12541,-26.8163,-75.4547,21.6614,10.3424,1.8443,-4.58688,-4.62901,1.50065,-2.38908,-10.8976,0.916721,-0.293253,-14.5099,-2.88186,-9.07376,-13.145,-2.78255,6.7355,-1.5798,-1.25156,3.77336,-1.54555e-14,1.78906e-14,82.2461,-22.9396,-39.845,24.6707,28.3592,-46.1323,6.41874,7.12502,-18.8729,-22.6857,-1.54555e-14,1.78906e-14,94.109,25.3908,31.8475,18.4235,-19.1693,-32.4627,23.035,7.12502,-5.69552,52.9385,7.00635,19.7463,21.0739,26.5032,7.27216,-11.477,-6.03534,-3.60077,-10.0097,-26.865,24.9035,12.8518,11.919,1.3687
-0.194639,19.961,1.1526,-26.0783,-75.6638,20.7727,10.3422,1.84997,-4.37366,-4.58957,1.56734,-2.18904,-10.8523,0.943792,-0.208321,-14.3746,-2.79527,-8.96539,-13.2027,-2.70511,6.51738,-1.63323,-1.21784,3.68011,7.45443e-16,-1.86858e-14,82.2007,-22.8933,-39.3876,24.8662,28.1648,-46.2059,5.88383,7.12502,-18.9437,-23.2137,7.45443e-16,-1.86858e-14,94.7827,25.1051,33.0624,17.9812,-20.5954,-32.1984,23.4663,7.12502,-5.44034,53.3764,7.31291,19.8885,21.4143,26.5039,7.01399,-11.4237,-5.626,-3.44491,-9.58317,-26.7029,24.9762,13.0287,11.8315,0.75254
-0.233548,19.9445,1.18177,-25.4326,-75.941,19.8852,10.3681,1.83672,-4.13202,-4.52474,1.61293,-1.98168,-10.7927,0.958842,-0.127474,-14.1885,-2.6784,-8.86967,-13.2938,-2.5887,6.33637,-1.70861,-1.16499,3.60578,9.14409e-15,7.7526e-15,82.2847,-22.7869,-39.108,25.0408,28.0522,-46.3667,4.87645,7.12502,-19.0984,-24.2059,9.14409e-15,7.7526e-15,95.267,24.9015,33.9674,17.6359,-21.3459,-32.2074,23.5213,7.12502,-5.44895,53.4312,7.70211,20.047,21.8029,26.5456,6.72988,-11.3992,-4.8912,-3.06397,-9.23058,-26.52,25.0175,13.027,11.7057,0.526323
-0.273538,19.9277,1.21108,-25.0656,-76.2152,19.2683,10.4151,1.83365,-3.91923,-4.47313,1.66036,-1.81741,-10.7608,0.974753,-0.0787659,-13.9082,-2.55355,-8.78257,-13.3949,-2.46413,6.18775,-1.8025,-1.10793,3.54632,-1.49089e-14,2.84262e-14,82.376,-22.687,-38.9329,25.1693,28.1072,-46.3946,4.03238,7.12502,-19.1252,-25.0473,-1.49089e-14,2.84262e-14,95.747,24.6419,34.8357,17.2861,-22.0675,-31.9932,23.7056,7.12502,-5.24219,53.6208,8.02351,20.1011,22.1279,26.6614,6.86319,-11.1375,-5.5645,-2.55613,-8.8099,-26.3948,24.9779,12.9062,11.4137,-0.14194
-0.309846,19.9143,1.23832,-26.0236,-76.3473,20.1504,10.394,1.86822,-4.10991,-4.46847,1.68788,-1.74002,-10.7539,1.00454,0.106801,-13.6572,-2.49206,-8.95649,-13.4671,-2.37946,6.19677,-1.87478,-1.0595,3.59102,2.6662e-14,-1.96797e-14,82.2554,-22.6594,-38.3207,25.3804,27.9877,-46.3315,3.35034,7.12502,-19.0645,-25.7353,2.6662e-14,-1.96797e-14,96.1929,24.3365,35.8358,17.0314,-22.8841,-31.577,23.9677,7.12502,-4.8403,53.8924,8.14308,20.1526,21.9603,26.8073,7.0445,-10.8564,-6.35574,-2.15136,-8.51043,-26.6863,24.8982,12.6516,11.2731,-1.02647
-0.349571,19.9001,1.26262,-26.0864,-76.5913,20.0283,10.4286,1.85325,-4.10655,-4.46012,1.68437,-1.58629,-10.7695,1.01023,0.270486,-13.5156,-2.39052,-9.05935,-13.4478,-2.2434,6.19127,-1.90252,-0.988119,3.61564,4.6938e-14,2.127e-14,82.1253,-22.6263,-37.6766,25.5989,27.7486,-46.1547,2.7682,7.12502,-18.8945,-26.3341,4.6938e-14,2.127e-14,96.5597,24.0335,36.7639,16.7921,-23.7344,-30.8822,24.451,7.12502,-4.16941,54.3899,8.36148,20.3247,22.1619,26.9895,7.01367,-10.9058,-6.08616,-1.61519,-8.61708,-26.7382,24.753,12.2023,11.5463,-1.63459
-0.393973,19.8843,1.28742,-24.6351,-76.9942,18.2196,10.5567,1.81664,-3.64993,-4.43187,1.71915,-1.41646,-10.8027,1.00412,0.187569,-13.4309,-2.25355,-8.748,-13.3694,-2.11323,6.02304,-1.90317,-0.936491,3.49966,-3.94588e-14,-5.96354e-15,82.2853,-22.6071,-37.7962,25.525,28.0491,-45.9942,2.82306,7.12502,-18.7401,-26.2942,-3.94588e-14,-5.96354e-15,96.9568,23.667,37.4007,16.4514,-24.8958,-30.2014,24.9699,7.12502,-3.512,54.9207,8.70996,20.5072,22.8924,27.2225,7.00389,-11.0351,-5.51566,-0.916806,-8.86192,-26.34,24.5217,11.8367,11.7435,-3.03375
-0.43666,19.8766,1.31508,-23.9705,-77.2937,17.3427,10.6147,1.82217,-3.42075,-4.43649,1.76986,-1.31971,-10.8382,1.01757,0.151269,-13.4172,-2.2123,-8.5452,-13.2416,-2.08925,5.88023,-1.86558,-0.932136,3.40845,-4.72362e-14,2.38542e-15,82.5687,-22.5953,-38.0318,25.2756,28.5155,-45.9522,3.32489,7.12502,-18.6997,-25.7963,-4.72362e-14,2.38542e-15,97.2636,23.3211,37.7591,16.2178,-25.5507,-29.4276,25.278,7.12502,-2.7647,55.2398,8.91003,20.6291,23.2427,27.4145,7.16736,-10.9355,-5.27007,-0.388328,-9.06096,-26.1683,24.3213,11.6925,11.5825,-5.33471
-0.47825,19.8708,1.34617,-23.8518,-77.5148,17.164,10.5432,1.81194,-3.33667,-4.47393,1.78007,-1.2366,-10.837,1.0208,0.193046,-13.3881,-2.2277,-8.71132,-13.1691,-2.08728,5.94468,-1.84432,-0.924397,3.46242,6.4605e-15,-1.18277e-14,82.659,-22.6467,-37.674,25.1553,28.4877,-45.6808,2.99433,7.12502,-18.4387,-26.1518,6.4605e-15,-1.18277e-14,97.5198,23.0388,38.0451,15.9832,-25.5759,-28.3375,25.1841,7.12502,-1.71184,55.157,8.9533,20.6017,23.2745,27.544,7.37946,-10.8117,-5.05101,-0.0427817,-9.21599,-26.155,24.1933,11.3739,11.6545,-5.50804
-0.520482,19.8654,1.37941,-22.3226,-77.7704,15.663,10.3374,1.74124,-2.92146,-4.55895,1.76928,-1.09502,-10.797,0.993875,0.119414,-13.24,-2.20857,-8.85333,-13.1863,-2.05316,5.99507,-1.87648,-0.902457,3.51098,-3.11098e-14,2.13694e-14,82.6352,-22.7479,-37.1207,25.0883,28.1494,-45.2239,2.9171,7.12502,-17.9991,-26.27,-3.11098e-14,2.13694e-14,97.8198,22.6987,38.4701,15.6459,-25.811,-27.7145,24.7961,7.12502,-1.11015,54.7729,8.85617,20.4599,23.5458,27.6709,7.65094,-10.7273,-4.85476,0.189823,-9.41921,-25.819,24.0695,10.9127,11.9972,-4.30942
-0.562836,19.8661,1.41175,-20.2861,-77.9772,13.7228,10.0699,1.64892,-2.46552,-4.63361,1.73359,-0.971598,-10.706,0.950902,0.0100959,-13.3205,-2.18393,-8.79783,-13.1202,-2.02583,5.93677,-1.8435,-0.891003,3.47847,-5.06901e-15,6.36111e-15,82.8674,-22.8563,-37.0633,24.8683,28.0818,-44.8759,4.41888,7.12502,-17.6642,-24.7987,-5.06901e-15,6.36111e-15,98.2075,22.314,39.0681,15.3491,-26.5645,-27.9534,24.5871,7.12502,-1.3409,54.5626,8.68212,20.3379,23.8719,27.7796,8.0631,-10.5159,-5.02756,0.314376,-9.52368,-25.3781,23.9706,10.9815,11.5615,-6.31284
-0.605896,19.8689,1.44225,-19.5206,-78.0553,13.0809,9.8072,1.56494,-2.2786,-4.66626,1.65273,-0.991886,-10.5762,0.897979,-0.0939058,-13.6481,-2.20504,-8.70104,-12.9773,-2.04261,5.95869,-1.73913,-0.903098,3.46112,2.82523e-14,-1.58034e-14,83.2898,-23.0421,-37.3893,24.5319,28.4457,-44.8218,5.59921,7.12502,-17.6121,-23.6231,2.82523e-14,-1.58034e-14,98.7337,21.8894,39.8771,15.1527,-27.7277,-28.159,24.4775,7.12502,-1.53949,54.4517,8.53165,20.2831,23.8824,27.8634,8.39158,-10.3813,-5.25903,0.376014,-9.42996,-25.2331,23.916,11.3557,10.4626,-10.3317
-0.647043,19.875,1.46795,-18.9669,-78.0538,12.6766,9.58533,1.45909,-2.21092,-4.74234,1.52494,-0.982387,-10.5238,0.832214,-0.0929487,-13.8197,-2.26291,-8.84631,-12.9393,-2.07965,6.17367,-1.69164,-0.916761,3.56208,-1.21756e-14,-1.0635e-14,83.6699,-23.2809,-37.466,24.2743,28.7444,-44.78,5.71125,7.12502,-17.5719,-23.5147,-1.21756e-14,-1.0635e-14,99.2544,21.4051,40.9245,15.0339,-28.9078,-27.6286,24.5467,7.12502,-1.02716,54.524,8.36529,20.3386,23.8435,27.9899,8.56293,-10.4376,-5.14589,0.402536,-9.43475,-25.1467,23.8183,11.3422,10.1853,-10.876
-0.681988,19.8816,1.48782,-18.0533,-78.0516,11.8534,9.50632,1.34987,-2.14766,-4.81895,1.39513,-0.902468,-10.5596,0.769185,-0.0178871,-13.9306,-2.32125,-9.0548,-13.0357,-2.11724,6.38535,-1.70001,-0.928844,3.67752,-8.97016e-15,-8.84592e-15,84.1878,-23.5038,-37.7082,24.0449,28.9081,-44.8629,5.90262,7.12502,-17.6517,-23.3161,-8.97016e-15,-8.84592e-15,99.7219,20.912,41.9797,14.9945,-29.9486,-27.3836,24.7149,7.12502,-0.7906,54.6932,8.1764,20.365,23.9054,28.1708,8.88084,-10.3467,-5.09954,0.474273,-9.40206,-24.9345,23.6491,11.2423,10.5204,-8.73507
-0.71204,19.8877,1.5055,-17.9714,-78.0176,11.7525,9.62108,1.29455,-2.19045,-4.85441,1.30749,-0.92853,-10.6667,0.729198,-0.00902756,-14.175,-2.38278,-9.01913,-13.0952,-2.18901,6.43478,-1.67382,-0.966695,3.68399,-6.80837e-15,-4.47266e-15,84.8536,-23.6682,-38.5637,23.765,29.4259,-45.2452,5.57553,7.12502,-18.0195,-23.6097,-6.80837e-15,-4.47266e-15,100.135,20.3667,42.7905,15.1405,-30.2841,-27.6338,24.3779,7.12502,-1.03227,54.3551,8.07916,20.3969,23.8564,28.3529,9.34426,-10.1226,-5.55373,0.622103,-9.00793,-24.8446,23.4871,11.4858,10.3007,-7.96014
-0.743091,19.9022,1.52456,-17.8657,-77.9327,11.6129,9.73543,1.25707,-2.16656,-4.87989,1.24709,-1.01547,-10.7599,0.694766,-0.107856,-14.3626,-2.5258,-9.06229,-13.2507,-2.35163,6.67966,-1.67908,-1.04775,3.7744,2.67117e-14,3.83654e-14,85.2977,-23.9344,-39.2339,23.5893,29.835,-45.1978,4.7043,7.12502,-17.974,-24.4852,2.67117e-14,3.83654e-14,100.43,19.8233,43.125,15.424,-29.4929,-27.393,23.7393,7.12502,-0.799684,53.7176,8.02411,20.4225,23.7927,28.5375,9.77716,-9.87205,-5.84819,0.763782,-8.59957,-24.7493,23.3464,11.8233,9.8108,-8.16053
-0.775839,19.9211,1.5442,-16.5719,-77.8958,10.3417,9.7203,1.19636,-1.88939,-4.91515,1.20092,-1.05247,-10.7812,0.651329,-0.294964,-14.7317,-2.74075,-9.30552,-13.466,-2.51513,7.37837,-1.48541,-1.13467,3.72245,3.42904e-15,5.1684e-15,85.5354,-24.33,-39.4498,23.4432,29.5619,-45.0376,4.16614,7.12502,-17.8198,-25.0374,3.42904e-15,5.1684e-15,100.543,19.4144,42.8712,15.744,-28.3932,-26.959,23.3839,7.12502,-0.380537,53.3633,7.9011,20.4715,23.9667,28.7383,10.1516,-9.69587,-5.78841,0.857325,-8.65617,-24.463,23.2059,12.0212,9.74275,-8.00578
-0.805508,19.9372,1.56051,-15.1369,-77.8817,8.91574,9.75476,1.13427,-1.63666,-4.95622,1.1522,-1.05125,-10.8408,0.610071,-0.428032,-15.1808,-2.84404,-9.3607,-13.4144,-2.6096,7.50673,-1.39386,-1.17693,3.76324,-4.37326e-15,-2.5842e-15,86.0078,-24.6617,-39.9918,23.1698,29.4352,-45.2286,2.99509,7.12502,-18.0036,-26.1916,-4.37326e-15,-2.5842e-15,100.496,19.1381,42.2088,16.0534,-27.4104,-26.3643,23.6537,7.12502,0.193878,53.6334,7.82106,20.7031,24.2734,28.9196,10.3743,-9.85062,-5.43099,0.930425,-8.74228,-24.1502,23.1029,12.3273,9.68635,-7.82551
-0.831635,19.9524,1.57473,-14.104,-77.8327,7.85538,9.90403,1.11469,-1.51531,-5.00726,1.14355,-1.00915,-10.9855,0.599148,-0.453645,-15.4856,-2.92525,-9.40767,-13.4752,-2.69773,7.445,-1.36356,-1.21691,3.74673,2.18663e-15,-1.41137e-14,86.6794,-24.8806,-40.8453,22.891,29.7967,-45.5522,1.47138,7.12502,-18.315,-27.6864,2.18663e-15,-1.41137e-14,100.377,18.873,41.468,16.3991,-26.1831,-25.4024,24.0394,7.12502,1.12292,54.0162,7.74145,20.693,24.4271,29.0749,10.6466,-9.79514,-5.61787,0.965007,-8.30413,-23.817,23.0446,12.8347,9.27979,-7.19544
-0.858939,19.9693,1.59184,-13.1102,-77.8106,6.87714,9.97679,1.08589,-1.38328,-5.04921,1.12267,-1.00013,-11.0732,0.57985,-0.516567,-15.8316,-2.98179,-9.29263,-13.5605,-2.77596,7.37023,-1.33752,-1.25952,3.69979,3.03147e-15,2.06736e-14,87.3949,-25.047,-41.8415,22.6407,30.18,-45.855,0.888811,7.12502,-18.6063,-28.2413,3.03147e-15,2.06736e-14,100.143,18.7133,40.395,16.8657,-24.6964,-24.7396,24.0853,7.12502,1.76303,54.0578,7.57655,20.4352,24.4178,29.2288,10.9865,-9.3531,-6.04575,0.969179,-8.03154,-23.5406,22.99,13.172,9.22804,-6.04961
-0.887642,19.9901,1.61037,-12.0028,-77.7981,5.83589,9.93182,0.996247,-1.20393,-5.07316,1.02266,-1.05513,-11.0677,0.516135,-0.656864,-16.1338,-2.89994,-8.87137,-13.5627,-2.77195,6.91837,-1.46115,-1.26369,3.79057,2.48481e-15,-3.57812e-15,88.4392,-25.124,-43.4942,22.2421,30.8993,-45.9553,1.11205,7.12502,-18.7027,-28.0088,2.48481e-15,-3.57812e-15,99.7965,18.6985,38.9041,17.408,-23.2474,-24.358,23.9919,7.12502,2.1316,53.961,7.40324,20.2992,24.4074,29.3471,11.1658,-9.08457,-5.13974,0.925844,-8.05381,-23.3094,22.9625,13.4253,9.22055,-5.79077
-0.914725,20.0115,1.628,-10.9042,-77.735,4.80871,9.90055,0.986639,-1.01692,-5.14658,1.03696,-1.04418,-11.1276,0.509257,-0.753667,-16.4226,-3.0093,-9.00692,-13.7044,-2.84137,7.13554,-1.30299,-1.30259,3.57439,6.11263e-15,2.78299e-15,89.0934,-25.2924,-44.4509,22.0069,31.3914,-45.779,1.59894,7.12502,-18.5331,-27.5382,6.11263e-15,2.78299e-15,99.5363,18.4883,37.7471,17.9056,-22.1711,-24.0823,23.4068,7.12502,2.39789,53.373,7.23087,20.0521,24.3854,29.3994,11.4116,-8.68821,-4.72875,0.819078,-7.90439,-23.0345,23.0057,13.7767,8.83205,-6.05086
-0.938299,20.0303,1.64609,-9.41144,-77.6644,3.31159,9.96505,1.07465,-0.659203,-5.21765,1.21498,-0.964431,-11.239,0.571033,-0.906174,-16.4254,-3.31522,-9.56703,-13.8426,-3.14666,7.34037,-1.30927,-1.42926,3.71876,3.61788e-14,-7.95139e-15,89.0313,-25.6949,-44.1244,22.0199,31.2867,-45.4333,1.90918,7.12502,-18.2005,-27.2593,3.61788e-14,-7.95139e-15,99.447,18.1213,36.8864,18.3456,-21.284,-24.3071,22.5238,7.12502,2.1808,52.4924,7.12931,19.7426,24.519,29.4259,11.6771,-8.07823,-5.63333,0.775394,-7.96612,-22.7002,23.0837,13.9193,8.97192,-4.60538
-0.960717,20.0482,1.66261,-7.40396,-77.6128,1.29879,10.0462,1.15956,-0.18206,-5.29028,1.40908,-0.871966,-11.358,0.63136,-1.1161,-16.3477,-3.57461,-9.95281,-14.0344,-3.42542,7.51288,-1.34595,-1.55119,3.82731,1.88348e-14,1.63003e-14,89.1798,-25.9986,-44.1707,21.8693,31.6711,-44.9818,2.98649,7.12502,-17.7662,-26.2219,1.88348e-14,1.63003e-14,99.1097,17.9294,35.4591,19.1032,-19.792,-25.0272,21.8533,7.12502,1.48527,51.8279,7.00097,19.4605,24.7869,29.479,11.6759,-7.54131,-6.41572,0.744582,-8.05236,-22.2497,23.1353,13.9812,9.46392,-2.36339
-0.985112,20.0636,1.67483,-5.98431,-77.6004,-0.0388594,10.0534,1.24777,0.0260866,-5.39861,1.56193,-0.827343,-11.4777,0.688741,-1.21739,-16.3096,-3.67493,-9.91083,-14.1841,-3.57278,7.4263,-1.38824,-1.62584,3.78992,-8.74653e-15,-9.93923e-15,89.6083,-26.2247,-44.844,21.7262,32.9201,-43.8244,4.97965,7.12502,-16.6522,-24.326,-8.74653e-15,-9.93923e-15,98.5438,17.875,33.5896,20.129,-18.054,-25.6417,21.4201,7.12502,0.891829,51.398,6.77566,19.2656,24.9093,29.5685,11.4486,-7.10666,-6.66479,0.651513,-7.8294,-21.8969,23.1428,14.3119,9.36344,-2.43362
-1.00994,20.074,1.68827,-5.51263,-77.6392,-0.459463,10.0436,1.35727,0.0550445,-5.42985,1.70917,-0.86426,-11.5025,0.754419,-1.3031,-16.4885,-3.75677,-9.78616,-14.2645,-3.69391,7.32393,-1.38325,-1.68967,3.73138,2.23633e-14,1.39149e-14,89.8891,-26.6318,-45.2473,21.7063,34.2291,-42.1748,5.97467,7.12502,-15.0636,-23.4573,2.23633e-14,1.39149e-14,97.9852,17.9597,31.6329,21.3088,-16.3199,-25.6199,21.5176,7.12502,0.912899,51.4954,6.64573,19.3545,24.9064,29.6786,11.0201,-7.13336,-5.76915,0.664483,-7.94668,-21.8806,23.1209,14.6168,9.16928,-4.15104
-1.03463,20.0823,1.70126,-5.17107,-77.6755,-0.80173,10.0728,1.47278,0.0917236,-5.42739,1.86432,-0.920512,-11.5112,0.822803,-1.41618,-16.595,-3.88494,-9.95995,-14.3145,-3.81292,7.54666,-1.36346,-1.74006,3.82315,5.96354e-16,8.74653e-15,89.6758,-27.1206,-44.7459,21.6617,34.1775,-41.1587,5.61901,7.12502,-14.0846,-23.8837,5.96354e-16,8.74653e-15,97.5942,17.9722,30.0556,22.5454,-14.9046,-25.3196,21.7206,7.12502,1.20288,51.697,6.58851,19.4632,24.9173,29.782,10.4902,-7.39004,-4.84617,0.765821,-8.31172,-21.9497,23.0963,14.7653,9.19655,-5.63688
-1.05942,20.0914,1.70842,-4.21051,-77.7427,-1.79226,10.1397,1.57197,0.183576,-5.45115,2.00436,-0.985637,-11.5699,0.878382,-1.56911,-16.5737,-3.87419,-9.78226,-14.32,-3.82043,7.59943,-1.36725,-1.75103,3.81034,-1.02374e-14,1.59028e-15,89.0499,-27.5572,-43.7987,21.6798,33.2644,-40.8565,4.85501,7.12502,-13.7933,-24.6677,-1.02374e-14,1.59028e-15,97.185,17.9568,28.4348,23.8963,-13.7245,-25.5032,21.2311,7.12502,1.02553,51.2084,6.54401,19.4768,25.0889,29.8299,9.87536,-7.60004,-4.58394,0.827428,-8.16297,-21.7263,23.1084,14.9814,8.82392,-6.94869
-1.08298,20.098,1.71628,-2.50348,-77.8543,-3.5445,10.2025,1.69732,0.483513,-5.47331,2.21882,-0.989621,-11.6159,0.956501,-1.78759,-16.4545,-3.8767,-9.56294,-14.415,-3.87144,7.47284,-1.41593,-1.78591,3.73592,-9.24349e-15,-6.36111e-15,88.6663,-27.8707,-43.3132,21.6154,32.8613,-41.2473,5.58173,7.12502,-14.1699,-23.915,-9.24349e-15,-6.36111e-15,96.7491,17.9977,26.8607,25.2955,-12.6758,-25.8906,20.3013,7.12502,0.651377,50.2801,6.49515,19.4338,25.425,29.8058,9.07578,-8.06587,-3.85529,0.865802,-7.95527,-21.3077,23.1549,15.068,8.59768,-7.3255
-1.10525,20.1017,1.72575,-0.99287,-77.8998,-5.05258,10.2459,1.82186,0.74006,-5.51573,2.43456,-0.913553,-11.6763,1.04189,-1.89512,-16.2182,-3.93404,-9.68121,-14.5434,-3.9487,7.40279,-1.48283,-1.81904,3.73561,-7.55382e-15,1.03368e-14,88.7774,-27.9421,-43.4946,21.3737,32.8988,-41.8008,7.8793,7.12502,-14.7032,-21.5793,-7.55382e-15,1.03368e-14,96.2335,18.0824,25.5252,26.7285,-11.9279,-25.9651,20.0036,7.12502,0.579486,49.9826,6.36221,19.1793,25.664,29.7326,8.34214,-8.58702,-3.19001,0.887193,-8.12096,-21.0083,23.2052,14.9269,8.9521,-6.42787
-1.13029,20.1067,1.73404,-0.691094,-77.8986,-5.32928,10.2477,1.88997,0.675562,-5.53899,2.51637,-0.911157,-11.7039,1.08532,-1.87339,-16.7423,-4.21257,-9.79629,-14.3635,-4.21526,8.04841,-1.30607,-1.9435,3.93121,-1.38155e-14,6.36111e-15,88.9669,-27.9311,-43.8889,21.2225,33.1301,-41.6298,8.47353,7.12502,-14.5385,-20.997,-1.38155e-14,6.36111e-15,95.6714,18.2317,24.2667,28.1935,-11.5439,-26.2545,19.7959,7.12502,0.299905,49.7754,6.19769,18.8115,25.5983,29.6507,7.63431,-9.20886,-2.39582,0.941871,-8.30826,-20.9918,23.2298,14.751,9.24892,-5.70261
-1.15817,20.1121,1.74113,-0.459084,-77.9531,-5.56852,10.2386,1.96522,0.577735,-5.54344,2.6009,-0.926188,-11.7044,1.13242,-1.85137,-16.7353,-4.24501,-9.98051,-14.2583,-4.2112,8.27972,-1.2631,-1.93198,4.03141,-1.74931e-14,-1.19271e-15,89.0314,-27.9374,-44.2234,21.1649,33.5506,-41.2028,7.81019,7.12502,-14.1271,-21.6896,-1.74931e-14,-1.19271e-15,95.2613,18.325,23.3129,29.5254,-11.4757,-26.8757,19.223,7.12502,-0.300032,49.2025,6.04161,18.5568,25.5391,29.5934,6.65527,-10.2827,-1.91079,1.09101,-8.55666,-21.0345,23.1996,14.6052,9.27782,-6.52999
-1.18393,20.1151,1.74491,0.56671,-78.0755,-6.59204,10.2401,2.08635,0.606567,-5.5621,2.77479,-0.870134,-11.7224,1.21538,-1.84204,-16.7307,-4.38129,-10.1907,-14.1618,-4.34162,8.48105,-1.21165,-1.98565,4.11968,-1.21259e-14,8.34896e-15,88.7657,-28.0121,-43.949,21.194,33.1341,-41.0038,8.27913,7.12502,-13.9353,-21.2339,-1.21259e-14,8.34896e-15,95.0075,18.3826,22.6281,30.6927,-11.5653,-27.4239,18.912,7.12502,-0.829462,48.8901,5.8291,18.3832,25.6834,29.5679,6.24249,-11.3529,-0.18298,1.25449,-8.85308,-20.908,23.1264,14.4251,9.36855,-7.53428
-1.20545,20.1167,1.74576,1.71312,-78.2322,-7.70346,10.2802,2.20322,0.641384,-5.59357,2.94464,-0.808617,-11.7789,1.29536,-1.83175,-16.6343,-4.47346,-10.3489,-14.2065,-4.43094,8.69657,-1.21878,-2.02415,4.21035,9.93923e-15,6.36111e-15,88.2666,-28.0743,-43.2185,21.3371,31.8258,-40.9056,8.59905,7.12502,-13.8407,-20.9205,9.93923e-15,6.36111e-15,94.805,18.4527,22.1244,31.7631,-11.8468,-27.8537,18.7184,7.12502,-1.24462,48.6946,5.52441,18.053,25.7901,29.5591,5.81775,-12.4744,0.891846,1.3454,-8.85607,-20.6713,23.0573,14.1846,9.53694,-6.97939
-1.22534,20.1169,1.74695,2.73452,-78.4,-8.71085,10.365,2.29937,0.665471,-5.62461,3.08459,-0.753964,-11.8632,1.36099,-1.81944,-16.4522,-4.46153,-10.4664,-14.2753,-4.39805,8.88578,-1.2574,-2.0053,4.29449,2.48481e-15,0,88.1602,-27.8976,-43.2118,21.3444,31.3419,-40.8594,7.20406,7.12502,-13.7962,-22.3185,2.48481e-15,0,94.5767,18.5132,21.7992,32.7677,-12.3642,-28.4894,18.512,7.12502,-1.85861,48.4836,5.18122,17.494,25.7831,29.5664,5.46777,-13.5696,2.4896,1.41646,-8.43514,-20.3806,23.005,14.0597,9.30999,-6.43773
-1.24701,20.116,1.75042,3.56462,-78.5625,-9.52198,10.3557,2.41421,0.711181,-5.61506,3.249,-0.734,-11.8403,1.4372,-1.85559,-16.3291,-4.47047,-10.5333,-14.3115,-4.40157,8.9755,-1.28002,-2.00533,4.33582,-4.77083e-14,-4.77083e-15,88.3213,-27.7134,-43.7365,21.2,31.634,-40.7295,6.21814,7.12502,-13.6709,-23.3129,-4.77083e-14,-4.77083e-15,94.4298,18.6051,21.6082,33.7349,-12.792,-29.5042,18.3251,7.12502,-2.83869,48.2859,4.82476,16.8884,25.6971,29.609,5.23486,-14.4065,3.53091,1.51571,-8.04674,-20.1732,22.9394,14.0336,8.9326,-7.6757
-1.2668,20.1156,1.7538,4.14135,-78.7838,-10.0644,10.3486,2.52006,0.729819,-5.6004,3.39073,-0.770133,-11.8116,1.5021,-1.9327,-16.2184,-4.48998,-10.563,-14.432,-4.42241,9.12443,-1.3227,-2.01742,4.39042,2.84262e-14,2.94201e-14,88.4987,-27.5551,-44.3124,20.9747,31.7991,-40.5017,6.90949,7.12502,-13.4514,-22.6362,2.84262e-14,2.94201e-14,94.3249,18.7105,21.4967,34.5991,-13.1383,-30.7548,18.3312,7.12502,-4.04639,48.2725,4.42462,16.2999,25.5322,29.6826,5.13843,-15.018,3.95813,1.63934,-8.10926,-20.1533,22.8576,13.8943,9.02664,-9.6414
-1.28115,20.1149,1.75372,4.61498,-79.0629,-10.5713,10.5267,2.55412,0.657688,-5.60827,3.42124,-0.819217,-11.929,1.51724,-1.96228,-16.2543,-4.3877,-10.3228,-14.3789,-4.3207,9.14103,-1.31367,-1.97822,4.35955,9.14409e-15,5.56597e-15,88.617,-27.2327,-44.7721,20.7468,31.6765,-40.3121,7.2403,7.12502,-13.2687,-22.3173,9.14409e-15,5.56597e-15,94.0738,18.8553,21.2647,35.3449,-13.3675,-31.8454,18.7569,7.12502,-5.09941,48.6755,4.04321,15.7868,25.3807,29.7861,5.01146,-15.5632,4.42631,1.8421,-8.2963,-20.1834,22.7644,13.6047,9.37964,-10.0887
-1.29486,20.1108,1.75263,5.09721,-79.3389,-11.1338,10.7185,2.5812,0.598067,-5.58304,3.44476,-0.865515,-12.0166,1.52911,-1.99416,-16.4933,-4.26541,-10.0168,-14.1046,-4.18913,9.12276,-1.21465,-1.92194,4.30084,8.74653e-15,2.38542e-15,88.9491,-26.9259,-45.5547,20.5417,31.4318,-39.3617,9.04242,7.12502,-12.3524,-20.5727,8.74653e-15,2.38542e-15,93.9498,19.0044,21.2674,35.9804,-13.4594,-32.2444,19.0583,7.12502,-5.48469,48.9673,3.70979,15.4843,25.2915,29.9209,4.74247,-16.0377,5.34759,2.13288,-8.52862,-20.2216,22.6665,13.1426,9.86546,-9.23104
-1.31061,20.1006,1.75184,5.29892,-79.6204,-11.3907,10.7855,2.64013,0.54858,-5.52247,3.50968,-0.932864,-11.9848,1.56159,-2.05453,-16.5414,-4.21214,-9.94769,-14.0299,-4.11431,9.33159,-1.18392,-1.88811,4.35627,4.19436e-14,-7.95139e-15,89.9188,-26.658,-47.3681,20.1874,30.8356,-36.4002,14.1791,7.12502,-9.49592,-15.5869,4.19436e-14,-7.95139e-15,94.0232,19.1187,21.6256,36.4966,-13.563,-33.1745,18.8114,7.12502,-6.38264,48.6952,3.36587,15.1951,25.1478,30.0548,4.73635,-16.3247,6.14026,2.40581,-8.83048,-20.3611,22.6033,12.6201,10.4461,-8.25599
-1.32019,20.0907,1.74734,5.30398,-79.8592,-11.515,11.0128,2.66984,0.481501,-5.4568,3.53293,-1.0022,-12.0469,1.5735,-2.10815,-16.4666,-4.16005,-9.80557,-14.0525,-4.07171,9.37096,-1.20529,-1.8758,4.3487,-3.06128e-14,6.36111e-15,88.7912,-26.5128,-45.7329,20.3413,30.2208,-38.5475,11.6454,7.12502,-11.5673,-18.0154,-3.06128e-14,6.36111e-15,93.9594,19.2821,21.7585,36.9162,-13.0045,-34.9782,18.6713,7.12502,-8.12374,48.4952,3.09252,14.8581,25.0459,30.1604,5.00563,-16.5112,6.05421,2.65123,-8.91575,-20.4691,22.5867,12.2113,10.9289,-7.02682
-1.32426,20.0863,1.73847,5.9177,-80.0147,-12.2591,11.3621,2.67437,0.466538,-5.41348,3.5378,-1.01136,-12.2099,1.57323,-2.13015,-16.5708,-4.15227,-9.60608,-13.8646,-4.09028,9.29595,-1.13857,-1.89058,4.28598,4.11484e-14,-1.59028e-15,87.7322,-26.2754,-44.1935,20.5127,29.9364,-40.609,8.60383,7.12502,-13.5548,-20.935,4.11484e-14,-1.59028e-15,93.9158,19.4115,21.9613,37.1489,-12.2008,-35.7661,19.1108,7.12502,-8.88415,48.9037,2.82426,14.6887,25.1617,30.2578,5.25878,-16.8179,5.9589,2.82558,-8.78343,-20.353,22.5693,12.0351,10.9994,-6.78733
-1.33495,20.0842,1.72808,6.80672,-80.1229,-13.1463,11.4809,2.64435,0.404835,-5.41214,3.49472,-0.950562,-12.2899,1.55924,-2.02721,-16.6354,-4.17131,-9.75795,-13.6578,-4.07419,9.55581,-1.05521,-1.87379,4.38782,-2.56432e-14,5.56597e-15,87.1372,-25.9458,-43.2946,20.5487,29.736,-41.4229,7.06437,7.12502,-14.3392,-22.4204,-2.56432e-14,5.56597e-15,93.9901,19.4474,22.6568,37.2394,-12.0907,-35.7831,19.3293,7.12502,-8.90046,49.1215,2.42,14.6449,25.3033,30.3787,5.54186,-17.0736,6.24448,2.88658,-8.48328,-20.1321,22.505,12.0121,10.6149,-7.47277
-1.3508,20.0792,1.72009,6.77001,-80.279,-13.1394,11.5549,2.61101,0.260709,-5.40888,3.42535,-0.951852,-12.3421,1.53681,-1.93719,-16.4518,-4.1108,-9.93534,-13.6267,-3.96462,9.84484,-1.06643,-1.81548,4.51486,-2.66371e-14,1.03368e-14,86.7109,-25.5716,-42.7912,20.5144,29.5394,-41.5708,6.74077,7.12502,-14.4816,-22.7339,-2.66371e-14,1.03368e-14,94.0887,19.4385,23.5185,37.3762,-12.2696,-35.8407,19.3178,7.12502,-8.95611,49.1077,2.08383,14.797,25.2711,30.5216,5.61297,-17.3834,7.36437,3.05591,-8.14393,-20.1291,22.4013,11.9318,10.324,-7.64828
-1.36551,20.0711,1.71453,5.80822,-80.5103,-12.2672,11.6888,2.61238,0.0578546,-5.3756,3.38416,-1.0251,-12.3943,1.52883,-1.90106,-16.1058,-4.01398,-9.73896,-13.7443,-3.89581,9.74819,-1.16372,-1.79723,4.46217,3.49861e-14,1.19271e-14,86.3361,-25.1483,-42.4152,20.488,29.6162,-42.0408,6.68952,7.12502,-14.9345,-22.7521,3.49861e-14,1.19271e-14,94.1843,19.4455,24.3868,37.5441,-12.6925,-35.7523,19.8976,7.12502,-8.87074,49.6911,1.8115,14.9899,25.0812,30.6833,5.67303,-17.7126,8.81231,3.34221,-7.96622,-20.387,22.2632,11.8754,10.4165,-7.7402
-1.38097,20.0657,1.70787,5.03704,-80.6983,-11.5207,11.7148,2.58714,-0.180095,-5.32659,3.31202,-1.0076,-12.3712,1.51552,-1.73237,-15.9296,-3.98031,-9.67057,-13.7454,-3.88022,9.65692,-1.19518,-1.79576,4.4252,1.74931e-14,6.36111e-15,86.4603,-24.5382,-42.6714,20.3695,30.0907,-42.908,6.36055,7.12502,-15.7697,-23.017,1.74931e-14,6.36111e-15,94.1467,19.5889,25.2015,37.6078,-13.2095,-35.7098,20.6666,7.12502,-8.82973,50.4619,1.46357,15.1076,24.9516,30.8595,6.04315,-17.7712,9.52705,3.56383,-8.00462,-20.6357,22.0983,11.8625,10.868,-7.66489
-1.39776,20.0665,1.69971,4.55339,-80.7784,-11.0378,11.6758,2.5146,-0.375305,-5.26297,3.17958,-1.02724,-12.2877,1.46921,-1.61064,-16.0448,-3.98908,-9.73261,-13.5258,-3.86547,9.88699,-1.10363,-1.78332,4.50212,2.8625e-14,7.95139e-15,86.7249,-23.9758,-43.4992,20.2562,30.8194,-43.5567,5.87067,7.12502,-16.3945,-23.4565,2.8625e-14,7.95139e-15,94.1442,19.8264,25.7781,37.6158,-13.2673,-35.7675,20.953,7.12502,-8.8854,50.7459,1.12637,15.3662,24.9465,31.0351,6.34871,-17.8505,10.358,3.70874,-8.05427,-20.7786,21.945,11.93,11.1204,-8.03845
-1.41248,20.0679,1.6913,4.25219,-80.7704,-10.7672,11.679,2.44918,-0.437393,-5.20662,3.07255,-1.10314,-12.2262,1.42069,-1.63309,-15.986,-4.28246,-10.2804,-13.4628,-4.1279,10.8272,-1.01811,-1.89495,4.8728,4.53229e-14,9.54166e-15,86.6283,-23.6069,-43.8958,20.2696,31.0815,-43.8096,5.94859,7.12502,-16.6379,-23.3583,4.53229e-14,9.54166e-15,94.304,19.9924,26.3703,37.6133,-13.0448,-35.7995,20.7857,7.12502,-8.91637,50.5773,0.813918,15.4844,24.9502,31.1896,6.52942,-17.8945,11.0466,3.82828,-7.96946,-20.8206,21.84,12.1019,10.9202,-9.36422
-1.42456,20.0661,1.68292,3.85238,-80.7447,-10.4207,11.7563,2.44386,-0.438825,-5.16926,3.06525,-1.10364,-12.2306,1.41743,-1.63391,-15.5989,-4.27434,-10.3274,-13.6208,-4.14674,10.5922,-1.12853,-1.90935,4.81422,-3.35946e-14,-1.82882e-14,86.3336,-23.2717,-43.5061,20.2884,30.6475,-44.0859,5.89839,7.12502,-16.9039,-23.386,-3.35946e-14,-1.82882e-14,94.5234,20.0408,27.2679,37.5481,-12.8966,-35.8485,20.8894,7.12502,-8.96363,50.679,0.515248,15.2813,24.8701,31.3166,6.79014,-17.651,11.1223,3.94074,-7.8246,-20.8599,21.7925,12.3817,10.4707,-11.4263
-1.43721,20.0672,1.6756,3.23828,-80.7462,-9.82865,11.7986,2.41571,-0.494617,-5.12367,3.01699,-1.11415,-12.2074,1.399,-1.60395,-15.4188,-4.1576,-10.086,-13.6715,-4.06248,10.1722,-1.20005,-1.87931,4.65041,-5.84427e-14,1.11319e-14,86.4128,-22.812,-43.8468,20.2148,30.6156,-44.484,5.54382,7.12502,-17.2871,-23.7073,-5.84427e-14,1.11319e-14,94.6377,20.1638,28.0034,37.467,-12.9069,-35.9528,21.4132,7.12502,-9.06423,51.1984,0.214463,14.9765,24.7254,31.429,7.2809,-17.1822,10.9395,3.99158,-7.68498,-20.9444,21.7853,12.6074,10.1639,-12.941
-1.4509,20.0708,1.6682,3.69718,-80.6863,-10.3104,11.7877,2.32549,-0.427509,-5.05868,2.91131,-1.0889,-12.1261,1.34664,-1.58772,-15.5392,-4.0975,-9.91434,-13.4977,-4.00933,10.0369,-1.1443,-1.85615,4.57704,-4.11484e-14,3.97569e-15,86.6473,-22.3699,-44.5488,20.1017,30.6731,-45.0132,5.37498,7.12502,-17.7963,-23.8307,-4.11484e-14,3.97569e-15,94.6506,20.3896,28.5102,37.3796,-13.0945,-36.1728,21.578,7.12502,-9.27652,51.3539,-0.0412725,14.8938,24.8513,31.5257,7.71251,-16.9397,11.2184,4.02503,-7.83188,-20.8829,21.8148,12.4661,10.5476,-12.3065
-1.46428,20.074,1.65683,4.68114,-80.5641,-11.3228,11.792,2.27822,-0.293621,-5.01239,2.88248,-0.996517,-12.0742,1.32847,-1.5543,-15.4343,-4.13965,-10.0274,-13.4554,-4.05865,9.97581,-1.14284,-1.87597,4.57462,8.54774e-15,5.56597e-15,86.4726,-22.1391,-44.2112,20.0508,30.0291,-45.4784,4.92791,7.12502,-18.244,-24.2365,8.54774e-15,5.56597e-15,94.7021,20.5371,29.1186,37.2589,-13.356,-36.6954,21.5698,7.12502,-9.78079,51.3227,-0.249638,15.0261,25.1597,31.6001,7.90155,-17.0105,12.4311,4.04559,-8.08897,-20.7115,21.8859,12.2556,10.9795,-11.3831
-1.47656,20.0786,1.64362,4.94064,-80.4465,-11.6151,11.846,2.28562,-0.288583,-4.97056,2.90083,-0.937669,-12.0618,1.34025,-1.49822,-15.1578,-4.176,-9.99527,-13.5755,-4.13678,9.82036,-1.21821,-1.92029,4.52303,2.52457e-14,-8.74653e-15,86.3065,-21.9846,-43.9227,19.999,29.659,-45.6702,4.2949,7.12502,-18.4285,-24.8522,2.52457e-14,-8.74653e-15,94.7975,20.6452,29.6828,37.1552,-13.5168,-37.128,21.8061,7.12502,-10.1981,51.5389,-0.432759,15.0306,25.3233,31.6549,8.18102,-16.8844,13.5296,4.04006,-8.09777,-20.579,21.9766,12.2269,11.0257,-10.961
-1.48832,20.0824,1.63166,4.97109,-80.2664,-11.7245,11.9098,2.25009,-0.318383,-4.88096,2.85206,-0.912213,-12.002,1.32209,-1.44302,-15.1047,-4.15642,-9.67633,-13.5928,-4.17348,9.56056,-1.24373,-1.95194,4.38857,-6.50026e-14,-7.95139e-15,86.5112,-21.774,-44.4751,19.879,29.9746,-45.8762,4.35319,7.12502,-18.6266,-24.775,-6.50026e-14,-7.95139e-15,94.8036,20.8584,29.9945,37.1708,-13.5865,-37.2961,22.2896,7.12502,-10.3603,52.0144,-0.52837,15.0428,25.4925,31.7095,8.38602,-16.8171,13.713,4.07014,-8.09568,-20.4673,22.0438,12.2717,11.0804,-10.3251
-1.50193,20.0877,1.61918,4.86372,-80.0228,-11.6808,11.9108,2.13844,-0.394945,-4.79899,2.69143,-0.899859,-11.9163,1.25404,-1.34856,-14.9773,-4.13586,-9.48155,-13.6669,-4.18341,9.54421,-1.28706,-1.96909,4.35409,4.9398e-14,9.54166e-15,86.6939,-21.4892,-45.0446,19.8373,30.2326,-46.2368,4.68417,7.12502,-18.9734,-24.4104,4.9398e-14,9.54166e-15,94.5976,21.1718,29.9808,37.2089,-13.5428,-37.5215,22.887,7.12502,-10.5777,52.6008,-0.630616,15.0024,25.6421,31.781,8.47805,-16.7924,13.5728,4.10813,-8.2563,-20.4194,22.0567,12.3535,11.2818,-9.5938
-1.52077,20.0964,1.60834,4.48218,-79.8124,-11.2736,11.7627,2.07016,-0.467463,-4.75877,2.59187,-0.874614,-11.7873,1.21544,-1.25057,-14.8584,-4.40757,-9.80184,-13.597,-4.48154,9.98085,-1.23114,-2.10702,4.52843,3.15074e-14,-1.03368e-14,86.5137,-21.2904,-44.7636,19.9015,29.9473,-46.67,4.27959,7.12502,-19.3901,-24.7737,3.15074e-14,-1.03368e-14,94.4069,21.3994,30.0518,37.0726,-13.4795,-37.8125,23.1641,7.12502,-10.8585,52.8633,-0.836765,14.7326,25.619,31.8662,8.62632,-16.4871,13.9504,4.12304,-8.37795,-20.4445,22.011,12.4111,11.5733,-8.61876
-1.54456,20.104,1.59736,3.86764,-79.6413,-10.6108,11.5072,2.05158,-0.572565,-4.70333,2.55732,-0.830813,-11.5779,1.21177,-1.12346,-14.6289,-4.227,-9.3879,-13.6088,-4.35108,9.28659,-1.31721,-2.05734,4.25423,-5.41688e-14,2.38542e-15,86.3087,-21.139,-44.256,19.9469,29.5975,-47.0558,4.23695,7.12502,-19.7609,-24.7786,-5.41688e-14,2.38542e-15,94.2097,21.6039,30.1499,36.9455,-13.3872,-38.1162,23.1852,7.12502,-11.1513,52.8689,-1.01205,14.6377,25.567,31.9491,8.57749,-16.2957,14.4532,4.15602,-8.29414,-20.4837,21.9353,12.5298,11.7641,-7.78793
-1.56624,20.1092,1.58234,3.11833,-79.4307,-9.92412,11.4075,2.02915,-0.733306,-4.61867,2.50675,-0.799153,-11.4318,1.20291,-0.981241,-14.1891,-4.33561,-9.78158,-13.8058,-4.44282,9.73055,-1.40522,-2.09755,4.46378,6.55989e-15,4.77083e-15,86.0257,-21.0706,-43.6446,20.058,29.0571,-47.1974,4.63673,7.12502,-19.897,-24.3647,6.55989e-15,4.77083e-15,93.9604,21.8353,30.0545,36.9407,-13.1126,-38.2673,23.1627,7.12502,-11.2971,52.8385,-1.02893,14.6929,25.5934,32.0083,8.36002,-16.2766,14.7936,4.27333,-8.27036,-20.5417,21.874,12.7323,11.8723,-7.56433
-1.58288,20.1155,1.56604,2.75641,-79.1352,-9.6491,11.4278,2.05529,-0.698619,-4.5548,2.55039,-0.782725,-11.3708,1.22276,-0.991017,-13.9067,-4.36589,-9.88748,-13.806,-4.49457,9.55352,-1.44738,-2.11827,4.42824,-2.88238e-14,4.77083e-15,85.4445,-21.2363,-42.5198,20.2159,28.175,-47.2383,4.81463,7.12502,-19.9364,-24.1827,-2.88238e-14,4.77083e-15,93.9451,21.9021,30.1612,36.8547,-12.817,-38.2404,23.2157,7.12502,-11.2711,52.8929,-1.0299,14.537,25.6644,32.0491,8.12474,-16.1338,15.2771,4.37349,-8.44513,-20.5421,21.8268,12.8601,12.1615,-6.98923
-1.59664,20.1228,1.54811,2.73865,-78.7656,-9.62004,11.4086,2.05811,-0.591835,-4.54092,2.57263,-0.777786,-11.3386,1.22627,-1.04903,-13.6476,-4.34692,-9.64721,-13.7418,-4.54449,9.03059,-1.48831,-2.14833,4.22684,-3.37934e-15,-7.95139e-16,85.3718,-21.2779,-42.5114,20.1256,28.3593,-47.1624,5.65022,7.12502,-19.8634,-23.3547,-3.37934e-15,-7.95139e-16,93.9235,21.9377,30.2142,36.6999,-12.5715,-38.3867,23.3323,7.12502,-11.4122,53.0017,-1.16362,14.1427,25.7112,32.0892,7.9396,-15.7769,15.6163,4.33716,-8.48584,-20.3921,21.7645,12.9537,12.4158,-5.57399
-1.61153,20.1283,1.52967,2.53114,-78.4192,-9.42597,11.4169,2.01618,-0.615131,-4.53465,2.51715,-0.736912,-11.34,1.2035,-0.980215,-13.3855,-4.26005,-9.36441,-13.7106,-4.50361,8.6184,-1.54316,-2.13729,4.05802,-1.31198e-14,-1.59028e-15,85.52,-21.1355,-42.7927,20.0235,28.6111,-47.067,5.49685,7.12502,-19.7717,-23.5176,-1.31198e-14,-1.59028e-15,93.6694,22.0563,30.0537,36.5362,-12.3991,-38.7863,23.4677,7.12502,-11.7976,53.1154,-1.26115,13.7266,25.7196,32.1246,7.64037,-15.5168,15.8962,4.31881,-8.27359,-20.2219,21.6995,13.2793,12.1545,-5.44057
-1.63068,20.1333,1.51299,1.7825,-78.1689,-8.76244,11.4438,2.00431,-0.75777,-4.5082,2.48484,-0.677411,-11.3359,1.20136,-0.829256,-13.0937,-4.20695,-9.53505,-13.6812,-4.42583,8.65969,-1.57887,-2.09307,4.10597,-3.47873e-15,3.97569e-15,85.2144,-21.1119,-41.9648,20.2107,27.6943,-47.1247,4.44506,7.12502,-19.8272,-24.5636,-3.47873e-15,3.97569e-15,93.4728,22.0194,30.0936,36.2967,-12.5727,-39.1454,23.9012,7.12502,-12.1439,53.5288,-1.2276,13.4456,25.6369,32.1556,7.16949,-15.4807,15.8454,4.42118,-8.06761,-20.2266,21.6254,13.6983,11.7658,-7.10991
-1.65186,20.1395,1.4962,1.2437,-77.9201,-8.22417,11.3398,2.01801,-0.892831,-4.48662,2.4911,-0.603348,-11.2591,1.21828,-0.669694,-12.7993,-4.2542,-9.80052,-13.6109,-4.46696,8.76485,-1.58835,-2.10399,4.18362,3.08116e-14,1.59028e-15,85.1689,-21.1453,-41.6575,20.3159,27.2196,-47.2431,4.50849,7.12502,-19.941,-24.4884,3.08116e-14,1.59028e-15,93.304,21.9267,30.2434,36.129,-12.8589,-39.3551,24.4041,7.12502,-12.3461,54.0196,-1.27209,13.0919,25.5294,32.1817,6.78173,-15.512,15.1182,4.47301,-8.06173,-20.2293,21.5152,13.9742,11.7001,-8.52342
-1.67395,20.1456,1.48073,1.11269,-77.5548,-7.9934,11.1021,2.00842,-0.893319,-4.46513,2.48645,-0.554736,-11.0948,1.21972,-0.605641,-12.592,-4.30468,-9.65878,-13.526,-4.58329,8.4133,-1.60055,-2.16333,4.04868,3.01159e-14,-7.95139e-15,85.4378,-21.1974,-41.9392,20.2624,27.2077,-47.4078,4.74866,7.12502,-20.0993,-24.2317,3.01159e-14,-7.95139e-15,93.4268,21.5795,30.7443,35.8165,-13.5586,-39.6043,24.221,7.12502,-12.5863,53.8218,-1.36554,12.5493,25.4183,32.1463,6.08686,-15.8304,14.7019,4.39648,-8.24675,-20.1588,21.4573,14.174,11.6672,-8.95365
-1.69346,20.1513,1.46618,0.605124,-77.1129,-7.45457,10.9893,1.96991,-0.870442,-4.42285,2.43906,-0.565495,-10.9782,1.19596,-0.614705,-12.395,-4.28098,-9.44645,-13.5084,-4.61095,8.02793,-1.64176,-2.18168,3.89702,-2.38542e-15,3.97569e-15,85.6428,-21.3039,-42.1024,20.3157,27.0316,-47.4874,4.4524,7.12502,-20.1758,-24.5199,-2.38542e-15,3.97569e-15,93.8643,20.9283,31.6591,35.2771,-14.7917,-39.9825,23.6868,7.12502,-12.9509,53.2649,-1.27797,12.069,25.2421,31.9965,5.0866,-16.4437,15.1266,4.30357,-8.44832,-20.1507,21.5588,14.2945,11.4898,-8.96237
-1.70777,20.159,1.44938,1.06042,-76.7516,-7.94089,11.0101,1.93331,-0.628258,-4.40147,2.43396,-0.510049,-10.9582,1.17927,-0.690028,-12.1092,-4.24121,-9.42842,-13.559,-4.58416,7.91871,-1.70611,-2.16942,3.86748,-3.3694e-14,3.97569e-15,85.7619,-21.435,-42.1091,20.4797,26.7756,-47.5612,4.00697,7.12502,-20.2467,-24.9578,-3.3694e-14,3.97569e-15,94.0678,20.6474,32.0962,34.8451,-15.3997,-40.3188,23.6243,7.12502,-13.2751,53.1815,-1.15838,11.7406,25.3388,31.7991,4.2986,-17.2233,15.5685,4.20775,-8.63813,-19.8406,21.706,14.088,11.6765,-7.50011
