JuanDHNZ/ProyectoFinalCD/preprocessing/sports_trials_csv/13_11.csv
root1,root2,root3,root4,root5,root6,lowerback1,lowerback2,lowerback3,upperback1,upperback2,upperback3,thorax1,thorax2,thorax3,lowerneck1,lowerneck2,lowerneck3,upperneck1,upperneck2,upperneck3,head1,head2,head3,rclavicle1,rclavicle2,rhumerus1,rhumerus2,rhumerus3,rradius1,rwrist1,rhand1,rhand2,rfingers1,rthumb1,rthumb2,lclavicle1,lclavicle2,lhumerus1,lhumerus2,lhumerus3,lradius1,lwrist1,lhand1,lhand2,lfingers1,lthumb1,lthumb2,rfemur1,rfemur2,rfemur3,rtibia1,rfoot1,rfoot2,rtoes1,lfemur1,lfemur2,lfemur3,ltibia1,lfoot1,lfoot2,ltoes1
0.320951,18.9189,-13.1335,2.35749,-7.40153,0.298658,1.27076,0.458045,-1.48158,-0.642701,0.571204,-0.911525,-1.37563,0.294409,-0.117166,-7.98687,-6.05865,-10.6379,14.2652,-8.22664,9.25067,6.46632,-3.907,4.01158,1.4238e-14,1.07344e-14,-32.5999,-1.01977,-83.1113,25.9326,18.5964,-24.8623,2.49721,7.12502,1.64455,-27.4762,1.4238e-14,1.07344e-14,-34.1479,24.7716,73.0371,20.0625,-8.8108,-17.8217,25.9913,7.12502,8.44237,55.8025,-4.44179,21.5725,19.0149,15.9933,-12.3545,-18.5229,-4.18655,-0.207614,-7.94157,-20.0388,12.1016,-13.8192,19.9233,-3.88378
0.320648,18.917,-13.1314,2.35468,-7.39696,0.370709,1.31884,0.47543,-1.55479,-0.715804,0.590422,-0.928786,-1.47832,0.305371,-0.0952489,-7.8219,-6.04543,-10.7513,14.2373,-8.22499,9.36036,6.43788,-3.90928,4.07022,-2.44505e-14,-7.95139e-16,-32.7588,-1.00255,-83.0776,25.9515,18.6112,-21.0904,-3.40865,7.12502,5.28707,-33.3227,-2.44505e-14,-7.95139e-16,-34.2882,24.5858,73.0611,20.1362,-8.68139,-17.75,26.1106,7.12502,8.51164,55.919,-4.43918,21.5203,18.9435,16.0732,-12.4388,-18.4842,-4.21086,-0.230679,-7.89578,-20.1107,12.1268,-13.8391,19.8718,-3.86969
0.320409,18.9158,-13.1304,2.38416,-7.35891,0.368484,1.30566,0.467799,-1.55167,-0.753097,0.580066,-0.923367,-1.50907,0.300487,-0.0912931,-7.71316,-6.02916,-10.8499,14.1609,-8.20864,9.4479,6.40081,-3.90374,4.1191,-1.44492e-14,-1.11319e-14,-32.8727,-0.954244,-83.0569,26.109,18.8555,-24.5618,1.93877,7.12502,1.93478,-28.0322,-1.44492e-14,-1.11319e-14,-34.3593,24.4926,73.0772,20.1855,-8.59618,-17.6639,26.2123,7.12502,8.59474,56.0174,-4.40675,21.4545,18.9464,16.0408,-12.4506,-18.4645,-4.04411,-0.319744,-7.85209,-20.0972,12.2254,-13.8394,19.8097,-3.94883
0.319735,18.9159,-13.1266,2.42246,-7.37494,0.33001,1.23057,0.462324,-1.52544,-0.744997,0.575383,-0.906558,-1.45847,0.297693,-0.0879042,-7.76328,-6.03391,-10.8915,14.1425,-8.2035,9.45076,6.40518,-3.90182,4.12596,1.69215e-14,6.36111e-15,-32.8606,-1.00259,-82.9987,26.2862,19.4882,-24.0837,1.41882,7.12502,2.39655,-28.5475,1.69215e-14,6.36111e-15,-34.3333,24.5511,73.0538,20.1387,-8.63291,-17.6926,26.1996,7.12502,8.56704,56.0058,-4.43345,21.4924,18.9811,16.0475,-12.4536,-18.4846,-4.04929,-0.350773,-7.88428,-20.0637,12.2687,-13.8485,19.8686,-4.14358
0.319976,18.9157,-13.1219,2.41975,-7.41996,0.289601,1.19578,0.481768,-1.45731,-0.73593,0.603307,-0.921054,-1.42904,0.310732,-0.141202,-7.72555,-6.03425,-10.8264,14.0582,-8.20866,9.43771,6.36916,-3.90307,4.11131,-1.02871e-14,1.27222e-14,-32.8503,-1.16952,-82.9696,26.3457,19.8605,-23.2241,0.0375907,7.12502,3.22666,-29.9177,-1.02871e-14,1.27222e-14,-34.3027,24.6646,72.9579,20.0451,-8.78793,-17.6894,26.1096,7.12502,8.57008,55.9156,-4.40371,21.4878,19.0267,16.0292,-12.4675,-18.4197,-4.04307,-0.329777,-7.94371,-20.0413,12.3217,-13.9969,19.9454,-3.86179
0.319467,18.9155,-13.1195,2.40315,-7.40039,0.319711,1.20527,0.471685,-1.49027,-0.739777,0.588848,-0.93024,-1.43844,0.303835,-0.131914,-7.71712,-6.02149,-10.8047,14.0419,-8.19211,9.42723,6.35938,-3.89495,4.10617,3.78933e-15,1.98785e-15,-32.8272,-1.17697,-82.9757,26.3041,19.8384,-23.2334,0.0947522,7.12502,3.21772,-29.8607,3.78933e-15,1.98785e-15,-34.3123,24.7268,72.9185,20.0147,-8.82901,-17.7059,26.1597,7.12502,8.55413,55.9664,-4.36246,21.4826,19.0053,16.0121,-12.5327,-18.4554,-4.15503,-0.31434,-7.99731,-20.0824,12.3436,-14.0633,19.9669,-3.64286
0.318597,18.9163,-13.1186,2.40129,-7.3965,0.318314,1.23261,0.469842,-1.50538,-0.749769,0.58539,-0.925415,-1.4642,0.302438,-0.118746,-7.72715,-6.01434,-10.7869,14.0332,-8.1774,9.39227,6.35462,-3.88906,4.09305,-5.23052e-15,5.56597e-15,-32.8132,-1.10957,-83.0093,26.3062,19.7446,-23.1785,-0.0329734,7.12502,3.27072,-29.9876,-5.23052e-15,5.56597e-15,-34.3683,24.571,72.9777,20.131,-8.65512,-17.7337,26.3882,7.12502,8.52734,56.1961,-4.35075,21.4809,19.0093,15.9932,-12.5797,-18.4966,-4.21914,-0.31268,-8.04409,-20.0862,12.3631,-14.0669,20.0052,-3.65241
0.318378,18.9157,-13.1174,2.4278,-7.40996,0.322696,1.21108,0.473378,-1.50353,-0.733921,0.590721,-0.937809,-1.43578,0.304825,-0.132306,-7.83296,-6.0178,-10.789,14.0693,-8.17785,9.41661,6.38559,-3.88459,4.09867,-1.2014e-14,-7.95139e-15,-32.743,-1.07397,-83.0525,26.2967,19.6886,-23.0662,0.0282969,7.12502,3.3792,-29.9247,-1.2014e-14,-7.95139e-15,-34.3323,24.4605,73.0208,20.2205,-8.56498,-17.6946,26.3987,7.12502,8.56507,56.205,-4.3912,21.534,18.9928,15.9976,-12.5367,-18.5169,-4.03237,-0.336426,-8.14218,-20.0988,12.3607,-14.0722,20.1058,-3.7983
0.318317,18.9131,-13.1149,2.42872,-7.42303,0.253648,1.21042,0.47963,-1.4253,-0.727226,0.600816,-0.92454,-1.42793,0.309129,-0.162715,-7.84281,-6.01574,-10.8488,14.0842,-8.17388,9.46045,6.39597,-3.88244,4.12291,-2.67117e-15,-9.14409e-15,-32.7109,-1.00889,-83.0991,26.2174,19.3496,-23.5633,0.507878,7.12502,2.89914,-29.4522,-2.67117e-15,-9.14409e-15,-34.3228,24.5507,72.9849,20.2323,-8.61719,-17.6549,26.293,7.12502,8.60337,56.0977,-4.37192,21.5148,19.0751,15.9695,-12.4495,-18.4689,-3.96031,-0.35537,-8.1671,-20.0243,12.4073,-14.1034,20.1396,-3.93927
0.318482,18.9133,-13.112,2.39889,-7.42566,0.251956,1.23774,0.492188,-1.41082,-0.726526,0.617139,-0.932476,-1.44242,0.317166,-0.179615,-7.80728,-6.03103,-10.9397,14.0958,-8.19529,9.51357,6.40186,-3.89483,4.15387,-8.46077e-15,1.98785e-14,-32.7336,-0.905138,-83.1678,26.1325,18.6927,-24.4998,1.4128,7.12502,1.99471,-28.5576,-8.46077e-15,1.98785e-14,-34.2889,24.4386,73.0402,20.2435,-8.45549,-17.7018,26.47,7.12502,8.55811,56.2765,-4.30088,21.5225,19.0903,15.9362,-12.453,-18.455,-3.8157,-0.339662,-8.1082,-20.0242,12.4555,-14.1293,20.1008,-3.91193
0.318188,18.9149,-13.1098,2.43332,-7.39944,0.215603,1.22085,0.489905,-1.37156,-0.738388,0.615029,-0.930683,-1.44468,0.315787,-0.199621,-7.7744,-6.03875,-10.9442,14.0764,-8.21083,9.53552,6.39279,-3.90204,4.16099,1.8313e-14,-9.93923e-15,-32.7022,-0.884998,-83.2116,26.0869,18.3607,-24.6526,1.69579,7.12502,1.84709,-28.276,1.8313e-14,-9.93923e-15,-34.274,24.2275,73.1206,20.3003,-8.26652,-17.7403,26.6541,7.12502,8.52092,56.4622,-4.30783,21.5276,19.1206,15.9149,-12.4828,-18.4681,-3.69446,-0.37208,-8.12749,-19.9778,12.4815,-14.1994,20.066,-3.60947
0.318067,18.9153,-13.1068,2.4427,-7.411,0.213527,1.20907,0.48937,-1.38817,-0.750067,0.61422,-0.920033,-1.45033,0.31566,-0.17936,-7.7388,-6.02704,-10.9126,14.0511,-8.19468,9.49758,6.37391,-3.89629,4.1459,-7.11898e-15,7.15625e-15,-32.6878,-0.885313,-83.1957,26.0767,18.2919,-24.4496,1.80726,7.12502,2.04319,-28.1627,-7.11898e-15,7.15625e-15,-34.3166,24.2366,73.1094,20.3203,-8.28199,-17.6493,26.6682,7.12502,8.60875,56.4727,-4.30986,21.5322,19.1191,15.9108,-12.4845,-18.4619,-3.6287,-0.359025,-8.15128,-19.9795,12.4759,-14.2719,20.0727,-3.36477
0.317749,18.9139,-13.102,2.40305,-7.44231,0.215235,1.20441,0.509696,-1.39133,-0.738975,0.641493,-0.92351,-1.43654,0.329204,-0.181706,-7.68769,-6.0248,-10.9201,14.0457,-8.19706,9.5084,6.36428,-3.89857,4.15173,-1.66482e-14,8.34896e-15,-32.7111,-0.95783,-83.1673,26.0802,18.343,-24.3687,1.73113,7.12502,2.12123,-28.2381,-1.66482e-14,8.34896e-15,-34.324,24.3365,73.0569,20.2828,-8.44206,-17.6677,26.8133,7.12502,8.59101,56.6185,-4.2406,21.5524,19.1362,15.8971,-12.4961,-18.4508,-3.63384,-0.280923,-8.15282,-19.9977,12.4567,-14.2933,20.0993,-3.2529
0.318837,18.9147,-13.0973,2.39329,-7.39231,0.2466,1.15412,0.497624,-1.3903,-0.720595,0.626413,-0.951171,-1.38905,0.321259,-0.209609,-7.65989,-6.01022,-10.9178,14.0217,-8.18442,9.54554,6.35185,-3.89064,4.1654,4.74598e-15,8.34896e-15,-32.6839,-1.03394,-83.162,26.0434,18.4362,-24.4404,1.87836,7.12502,2.05201,-28.0915,4.74598e-15,8.34896e-15,-34.3154,24.3914,73.003,20.2866,-8.52557,-17.5773,26.9755,7.12502,8.67825,56.7771,-4.24222,21.5161,19.1049,15.8972,-12.4555,-18.4734,-3.77394,-0.237711,-8.12924,-20.038,12.4139,-14.2384,20.0384,-3.40112
0.319856,18.9158,-13.0917,2.38459,-7.35641,0.280111,1.08942,0.502129,-1.38765,-0.686775,0.633859,-0.994212,-1.31763,0.324341,-0.254468,-7.68897,-6.01835,-10.8445,14.0158,-8.20061,9.535,6.35319,-3.89455,4.14764,9.16894e-15,-7.55382e-15,-32.5971,-1.1336,-83.1812,25.9587,18.4821,-24.6099,2.27515,7.12502,1.88828,-27.6962,9.16894e-15,-7.55382e-15,-34.2921,24.4029,72.9635,20.2896,-8.59647,-17.5153,26.9376,7.12502,8.73807,56.7367,-4.24719,21.4854,19.0646,15.8967,-12.4313,-18.4892,-3.91756,-0.199513,-8.17789,-20.0822,12.3872,-14.2723,20.0294,-3.30745
0.31994,18.9149,-13.0878,2.39275,-7.36342,0.279634,1.04961,0.504507,-1.38343,-0.68272,0.63803,-0.994408,-1.29112,0.326266,-0.256694,-7.68341,-6.01398,-10.8441,14.0192,-8.19155,9.51131,6.35134,-3.89192,4.14089,1.1368e-14,-7.95139e-15,-32.5778,-1.12532,-83.1919,25.982,18.455,-24.7168,2.46727,7.12502,1.78508,-27.505,1.1368e-14,-7.95139e-15,-34.3056,24.4063,72.9562,20.2925,-8.60498,-17.4957,26.8185,7.12502,8.75702,56.6169,-4.2187,21.4714,19.0711,15.9118,-12.4458,-18.4607,-3.91237,-0.172882,-8.20914,-20.0872,12.339,-14.2733,20.0856,-3.31834
0.319636,18.9132,-13.0859,2.37903,-7.37108,0.246958,1.07184,0.511767,-1.3512,-0.659344,0.648257,-0.98556,-1.27943,0.331029,-0.26597,-7.77231,-6.0404,-10.8244,14.0685,-8.2183,9.46877,6.38278,-3.90407,4.11897,4.87022e-15,1.98785e-15,-32.5675,-1.11129,-83.2108,26.0834,18.387,-24.7869,2.67413,7.12502,1.7174,-27.2987,4.87022e-15,1.98785e-15,-34.2322,24.4228,72.9862,20.2416,-8.58272,-17.5152,26.8319,7.12502,8.73823,56.631,-4.16555,21.4568,19.1258,15.9391,-12.5522,-18.444,-3.75543,-0.124124,-8.21714,-20.0577,12.278,-14.2283,20.1269,-3.34823
0.318937,18.9144,-13.0841,2.40878,-7.35403,0.248139,1.03934,0.517418,-1.35135,-0.637657,0.656707,-0.996372,-1.2389,0.334983,-0.276653,-7.91467,-6.0734,-10.8344,14.147,-8.25601,9.48286,6.43758,-3.91753,4.11795,-2.09097e-14,1.55052e-14,-32.5314,-1.14281,-83.2344,26.1552,18.3744,-24.7925,2.81992,7.12502,1.71196,-27.153,-2.09097e-14,1.55052e-14,-34.1394,24.4985,72.9895,20.1541,-8.71185,-17.5559,26.8572,7.12502,8.69891,56.658,-4.22832,21.4785,19.1087,15.9549,-12.5735,-18.4681,-3.65674,-0.153519,-8.29695,-20.0562,12.2623,-14.2326,20.186,-3.47171
0.319738,18.9156,-13.08,2.44695,-7.35759,0.244306,0.957802,0.517545,-1.34803,-0.624049,0.658986,-0.988244,-1.17928,0.335857,-0.269305,-8.00948,-6.07244,-10.8878,14.2058,-8.24857,9.52365,6.47594,-3.911,4.13849,2.52208e-14,-7.95139e-16,-32.5138,-1.08263,-83.2513,26.2058,18.3637,-24.7385,2.56747,7.12502,1.76416,-27.405,2.52208e-14,-7.95139e-16,-34.1224,24.529,73.0159,20.1476,-8.73052,-17.665,26.7976,7.12502,8.59363,56.6027,-4.29583,21.4718,19.0844,15.9656,-12.5749,-18.4479,-3.67964,-0.182338,-8.24515,-20.0517,12.2578,-14.1952,20.1612,-3.70597
0.319046,18.9128,-13.0772,2.43729,-7.37007,0.244213,0.973322,0.520512,-1.36228,-0.638831,0.662338,-0.9725,-1.2035,0.337855,-0.245536,-8.02207,-6.06236,-10.9097,14.2424,-8.23053,9.50908,6.48814,-3.90403,4.13894,-1.34552e-14,-3.18055e-15,-32.6134,-0.962831,-83.2615,26.3679,18.3324,-24.6415,2.04634,7.12502,1.85783,-27.9253,-1.34552e-14,-3.18055e-15,-34.1413,24.5821,73.0039,20.0817,-8.72879,-17.7924,26.4721,7.12502,8.47066,56.2822,-4.26749,21.3957,19.0961,15.9942,-12.5999,-18.3936,-3.90679,-0.133597,-8.24033,-20.0573,12.2185,-14.218,20.1463,-3.64933
0.317045,18.91,-13.075,2.42447,-7.36518,0.277339,0.98328,0.519112,-1.4267,-0.641404,0.659212,-0.973672,-1.21244,0.336858,-0.210731,-8.05374,-6.05679,-10.9086,14.2827,-8.22335,9.51255,6.50574,-3.89928,4.13995,-2.53326e-14,1.27222e-14,-32.6127,-0.98998,-83.2551,26.4127,18.4239,-24.6068,1.59556,7.12502,1.8913,-28.3758,-2.53326e-14,1.27222e-14,-34.1323,24.6662,72.9694,20.0281,-8.77441,-17.8498,26.1777,7.12502,8.41525,55.99,-4.20443,21.3506,19.0816,15.9804,-12.6215,-18.3682,-3.95595,-0.134011,-8.21745,-20.0895,12.2553,-14.282,20.1235,-3.55244
0.316008,18.9115,-13.072,2.45243,-7.32678,0.309229,0.930293,0.508728,-1.4721,-0.645868,0.645676,-0.983947,-1.1876,0.330319,-0.195047,-8.08093,-6.05898,-10.9116,14.3124,-8.22637,9.51873,6.52061,-3.89962,4.14158,-5.23052e-15,-3.57812e-15,-32.5622,-1.08303,-83.2373,26.4286,18.7008,-24.5577,1.07015,7.12502,1.93877,-28.9008,-5.23052e-15,-3.57812e-15,-34.155,24.6728,72.9527,20.0594,-8.80078,-17.7925,26.0954,7.12502,8.47054,55.9055,-4.20186,21.3591,19.044,15.9392,-12.6111,-18.4131,-3.82907,-0.201178,-8.23683,-20.1185,12.3416,-14.3138,20.1003,-3.50335
0.315103,18.9125,-13.0715,2.47602,-7.34222,0.246686,0.942261,0.52011,-1.4067,-0.65767,0.661184,-0.998998,-1.20558,0.337582,-0.24758,-8.08006,-6.0646,-10.8476,14.2802,-8.24112,9.51856,6.50902,-3.90349,4.12949,1.44864e-14,-8.34896e-15,-32.5334,-1.2383,-83.2435,26.4902,19.0402,-24.4071,0.852546,7.12502,2.08415,-29.117,1.44864e-14,-8.34896e-15,-34.1303,24.5148,72.9665,20.1102,-8.70875,-17.8499,26.2491,7.12502,8.41524,56.0615,-4.20698,21.4331,19.1085,15.8969,-12.5917,-18.4367,-3.65766,-0.255788,-8.23428,-20.0446,12.4273,-14.3443,20.0906,-3.57285
0.313275,18.9125,-13.0705,2.49007,-7.37627,0.184687,0.943972,0.540799,-1.34704,-0.672824,0.689283,-1.00711,-1.22141,0.351198,-0.289978,-8.04239,-6.07847,-10.7586,14.2569,-8.26859,9.47934,6.49251,-3.91599,4.10024,-2.82523e-14,-7.95139e-15,-32.5887,-1.2264,-83.2983,26.6217,19.0667,-24.3788,0.764041,7.12502,2.11153,-29.2053,-2.82523e-14,-7.95139e-15,-34.1227,24.5312,72.915,20.1127,-8.7865,-17.9875,26.4413,7.12502,8.28243,56.259,-4.1921,21.5183,19.1844,15.8532,-12.5614,-18.486,-3.77663,-0.30793,-8.21322,-19.9677,12.5121,-14.4036,20.096,-3.62376
0.312381,18.9116,-13.0675,2.51179,-7.35685,0.113456,0.901755,0.548968,-1.26442,-0.680629,0.702172,-1.00641,-1.20478,0.356913,-0.33538,-7.99813,-6.09481,-10.6911,14.2362,-8.29616,9.43443,6.47636,-3.93024,4.07284,-1.17159e-14,7.55382e-15,-32.6711,-1.15843,-83.3714,26.743,18.7723,-24.3671,0.919089,7.12502,2.12286,-29.0501,-1.17159e-14,7.55382e-15,-34.0952,24.5693,72.882,20.0509,-8.91545,-18.004,26.4472,7.12502,8.26645,56.2655,-4.1639,21.4969,19.2649,15.7938,-12.568,-18.4843,-3.80386,-0.371035,-8.18262,-19.883,12.6111,-14.3943,20.0817,-3.6768
0.311002,18.9102,-13.0671,2.53479,-7.32802,0.0838239,0.891719,0.530596,-1.2751,-0.691039,0.677955,-0.972402,-1.21025,0.345102,-0.294075,-8.00535,-6.09013,-10.7909,14.2652,-8.28522,9.48473,6.49211,-3.9264,4.10655,1.50331e-15,-6.75868e-15,-32.6631,-0.960757,-83.4414,26.714,18.2782,-24.5552,1.24172,7.12502,1.94113,-28.7292,1.50331e-15,-6.75868e-15,-34.1282,24.6621,72.8784,20.0704,-8.95556,-17.8126,26.3755,7.12502,8.45114,56.1864,-4.18613,21.4949,19.299,15.7864,-12.5509,-18.513,-3.82006,-0.403806,-8.17096,-19.8338,12.6232,-14.3859,20.0416,-3.76164
0.310471,18.9092,-13.0654,2.52391,-7.2915,0.0876439,0.907519,0.508346,-1.29343,-0.691925,0.647787,-0.963251,-1.22021,0.330263,-0.274019,-8.01602,-6.07239,-10.8201,14.2668,-8.25861,9.50219,6.49359,-3.91356,4.11946,3.63155e-14,-2.78299e-15,-32.5919,-0.829813,-83.4886,26.5676,18.0706,-24.7136,1.47349,7.12502,1.78819,-28.4988,3.63155e-14,-2.78299e-15,-34.1427,24.6608,72.8881,20.1024,-8.88684,-17.6756,26.406,7.12502,8.58341,56.2116,-4.1678,21.4775,19.3117,15.7929,-12.5362,-18.5669,-3.73113,-0.39218,-8.22354,-19.8321,12.6148,-14.4301,20.0285,-3.53734
0.310431,18.909,-13.0603,2.48564,-7.25879,0.151015,0.945189,0.51042,-1.35044,-0.705283,0.648346,-0.992424,-1.25535,0.331061,-0.272453,-8.00405,-6.07737,-10.7401,14.2791,-8.27095,9.45356,6.49119,-3.91906,4.08961,1.36043e-14,-1.11319e-14,-32.5805,-0.875385,-83.489,26.4698,18.1265,-24.7928,1.60306,7.12502,1.71171,-28.3698,1.36043e-14,-1.11319e-14,-34.1341,24.5139,72.9344,20.1089,-8.78188,-17.6796,26.674,7.12502,8.57954,56.4797,-4.09969,21.3994,19.2602,15.7942,-12.5734,-18.5247,-3.87871,-0.33807,-8.2301,-19.9109,12.6131,-14.4427,20.002,-3.38928
0.310164,18.9097,-13.0591,2.48412,-7.23133,0.150713,0.998679,0.511506,-1.36088,-0.735432,0.648026,-0.989859,-1.3164,0.331333,-0.264726,-7.93344,-6.08231,-10.7143,14.2378,-8.28202,9.43303,6.46499,-3.92663,4.07928,-2.44754e-14,2.10712e-14,-32.6231,-0.878013,-83.4853,26.4811,18.0843,-24.8056,1.75617,7.12502,1.6993,-28.2168,-2.44754e-14,2.10712e-14,-34.1739,24.5039,72.9408,20.1294,-8.80133,-17.7104,26.8059,7.12502,8.54979,56.6128,-4.08655,21.3654,19.2639,15.8078,-12.6333,-18.4809,-3.74151,-0.324072,-8.21343,-19.9088,12.5893,-14.3771,19.997,-3.62929
0.309323,18.9104,-13.0598,2.52057,-7.20829,0.0842344,1.0077,0.506825,-1.30113,-0.758205,0.642436,-0.971115,-1.3443,0.328258,-0.279114,-7.89885,-6.06843,-10.7456,14.2371,-8.27012,9.48291,6.46082,-3.92005,4.1028,-2.60905e-15,1.43125e-14,-32.6721,-0.831789,-83.4953,26.5615,18.0015,-24.7246,1.80389,7.12502,1.77752,-28.1685,-2.60905e-15,1.43125e-14,-34.1967,24.3486,73.0231,20.2215,-8.62609,-17.7776,27.0613,7.12502,8.485,56.8708,-4.13422,21.3999,19.3352,15.8365,-12.6425,-18.5508,-3.73607,-0.33078,-8.25078,-19.8217,12.5372,-14.383,19.9805,-3.52868
0.309318,18.9094,-13.0568,2.50898,-7.18563,0.0824869,1.01309,0.501015,-1.27874,-0.763378,0.634597,-0.991541,-1.3521,0.324069,-0.312488,-7.89084,-6.0661,-10.7289,14.2466,-8.27441,9.50442,6.46302,-3.91998,4.10691,-1.47598e-14,-7.95139e-16,-32.7182,-0.83957,-83.5293,26.6414,18.0433,-24.4377,1.83611,7.12502,2.05465,-28.1337,-1.47598e-14,-7.95139e-16,-34.2054,24.2194,73.0649,20.2829,-8.51021,-17.8895,27.3726,7.12502,8.37695,57.1865,-4.10209,21.3848,19.3473,15.8288,-12.6306,-18.5583,-3.90235,-0.310633,-8.23973,-19.8206,12.5424,-14.4103,19.9384,-3.50784
0.310424,18.9078,-13.0543,2.48308,-7.1565,0.182988,1.00896,0.499039,-1.35333,-0.756099,0.630394,-1.03422,-1.34268,0.322388,-0.31424,-7.9143,-6.06773,-10.6709,14.2723,-8.27751,9.46295,6.47133,-3.92058,4.08308,-2.12451e-15,7.15625e-15,-32.7411,-0.845737,-83.5498,26.6857,18.1156,-24.326,1.63621,7.12502,2.16252,-28.3326,-2.12451e-15,7.15625e-15,-34.1764,24.2205,73.0625,20.2584,-8.58341,-17.9125,27.538,7.12502,8.35478,57.3528,-4.07717,21.3315,19.2371,15.8188,-12.6314,-18.5237,-3.93514,-0.300141,-8.26767,-19.9404,12.561,-14.452,19.9476,-3.41311
0.310008,18.9078,-13.0533,2.47441,-7.15534,0.185,0.935412,0.505485,-1.35061,-0.698564,0.641534,-1.03837,-1.24243,0.327372,-0.319118,-7.94904,-6.06709,-10.6733,14.2207,-8.27342,9.4897,6.46185,-3.91593,4.09156,-6.80837e-15,-1.19271e-14,-32.669,-0.89262,-83.533,26.7023,18.1826,-24.4838,1.48244,7.12502,2.01012,-28.4878,-6.80837e-15,-1.19271e-14,-34.0564,24.2332,73.1016,20.2009,-8.59906,-17.8731,27.5389,7.12502,8.39281,57.3521,-4.07904,21.298,19.2417,15.8359,-12.6058,-18.5148,-4.0517,-0.286346,-8.26937,-19.9429,12.558,-14.48,19.9294,-3.30194
0.308711,18.9077,-13.0532,2.48987,-7.1488,0.151504,0.866945,0.511826,-1.32188,-0.653931,0.652688,-1.03257,-1.15808,0.332301,-0.328475,-8.00466,-6.07127,-10.6472,14.1946,-8.27451,9.4844,6.4621,-3.91387,4.08395,5.82688e-15,2.22639e-14,-32.6046,-0.916856,-83.5333,26.7405,18.1795,-24.6181,1.47098,7.12502,1.8804,-28.5005,5.82688e-15,2.22639e-14,-33.9289,24.2469,73.1387,20.1198,-8.60243,-17.9135,27.3459,7.12502,8.35382,57.1607,-4.09926,21.3088,19.2806,15.8521,-12.6278,-18.5323,-4.01439,-0.328454,-8.20769,-19.8849,12.5914,-14.4705,19.8483,-3.3557
0.308723,18.9064,-13.052,2.50415,-7.16044,0.185023,0.865538,0.520073,-1.38505,-0.671447,0.662601,-1.02628,-1.17609,0.337907,-0.286965,-7.99852,-6.07782,-10.6499,14.2107,-8.28077,9.45947,6.46589,-3.9189,4.07582,1.51822e-14,-2.34566e-14,-32.6061,-0.954722,-83.4967,26.7095,18.2715,-24.6807,1.81509,7.12502,1.81991,-28.1569,1.51822e-14,-2.34566e-14,-33.9335,24.2288,73.1573,20.107,-8.53479,-17.8117,27.0962,7.12502,8.45205,56.907,-4.11136,21.2956,19.2338,15.845,-12.6142,-18.5222,-3.96592,-0.393398,-8.09879,-19.9113,12.6798,-14.4504,19.7736,-3.56318
0.308271,18.9061,-13.0524,2.49946,-7.15745,0.153708,0.937368,0.517514,-1.37177,-0.685952,0.657753,-1.01078,-1.23125,0.335711,-0.279282,-8.05243,-6.0755,-10.6206,14.2653,-8.27337,9.41667,6.48875,-3.9151,4.05658,8.65956e-15,1.19271e-14,-32.5956,-0.917559,-83.4996,26.7086,18.3281,-24.4727,1.69043,7.12502,2.02087,-28.2797,8.65956e-15,1.19271e-14,-33.94,24.2801,73.1561,20.0949,-8.56293,-17.752,27.1405,7.12502,8.50967,56.9491,-4.08451,21.2456,19.2735,15.8249,-12.6154,-18.4581,-3.86113,-0.434463,-7.96782,-19.8617,12.7743,-14.4808,19.6374,-3.48826
0.307843,18.9062,-13.053,2.51076,-7.13303,0.0864289,0.983184,0.51292,-1.3048,-0.684524,0.651877,-0.996655,-1.25484,0.332362,-0.302654,-8.10575,-6.07359,-10.6201,14.2579,-8.27233,9.46029,6.4974,-3.90997,4.06947,-5.44173e-15,7.15625e-15,-32.5677,-0.935463,-83.5051,26.7352,18.3428,-24.9063,2.25137,7.12502,1.60204,-27.7224,-5.44173e-15,7.15625e-15,-33.9387,24.278,73.1747,20.1305,-8.54598,-17.8099,27.0572,7.12502,8.45383,56.868,-4.06171,21.2431,19.3551,15.7937,-12.6109,-18.4756,-3.76046,-0.482011,-7.98669,-19.782,12.8598,-14.5741,19.6357,-3.47355
0.306662,18.9064,-13.0512,2.50642,-7.12954,0.0549356,0.987917,0.511464,-1.28852,-0.672417,0.650519,-0.977342,-1.24512,0.33157,-0.291933,-8.12765,-6.07324,-10.5969,14.2442,-8.26337,9.40852,6.49279,-3.90745,4.04906,-6.83322e-16,-1.07344e-14,-32.5265,-0.930738,-83.4952,26.6946,18.3475,-25.9819,3.93646,7.12502,0.563188,-26.0425,-6.83322e-16,-1.07344e-14,-33.9595,24.248,73.2188,20.2052,-8.57298,-17.85,27.0188,7.12502,8.41505,56.8312,-4.03843,21.3226,19.3982,15.7627,-12.65,-18.5427,-3.72111,-0.495712,-8.01196,-19.7491,12.925,-14.6582,19.7191,-3.70964
0.305907,18.9061,-13.0503,2.50187,-7.14327,0.0242343,0.989195,0.522589,-1.26227,-0.670227,0.665797,-0.975277,-1.24338,0.33898,-0.304835,-8.13451,-6.05527,-10.548,14.2791,-8.24293,9.38108,6.49957,-3.89666,4.03417,-2.23012e-14,-5.1684e-15,-32.5036,-0.957684,-83.4912,26.6484,18.3939,-26.3898,4.67758,7.12502,0.16928,-25.3021,-2.23012e-14,-5.1684e-15,-33.9565,24.235,73.2223,20.1926,-8.65107,-17.8771,27.1623,7.12502,8.38897,56.9757,-4.03861,21.3624,19.4368,15.7588,-12.6087,-18.5729,-3.89649,-0.486927,-8.04443,-19.7184,12.9286,-14.6512,19.8181,-3.94679
0.305054,18.9061,-13.0494,2.5083,-7.141,-0.00795646,0.987344,0.524206,-1.24269,-0.662573,0.66859,-0.960575,-1.23445,0.34023,-0.300731,-8.22866,-6.04041,-10.4898,14.3571,-8.21497,9.30698,6.53221,-3.88241,4.00115,-1.30949e-14,7.95139e-15,-32.4136,-1.01602,-83.4748,26.5677,18.4537,-26.2216,4.34415,7.12502,0.331754,-25.6353,-1.30949e-14,7.95139e-15,-33.9161,24.2538,73.228,20.1194,-8.68092,-17.9704,27.1796,7.12502,8.29886,56.9966,-4.03707,21.3608,19.4776,15.7724,-12.639,-18.5543,-3.80005,-0.486674,-8.06455,-19.6824,12.9031,-14.585,19.8797,-4.20039
0.305154,18.9067,-13.0474,2.50839,-7.11534,0.0596813,0.982966,0.52772,-1.29035,-0.668083,0.672123,-0.995325,-1.23781,0.34226,-0.309684,-8.26392,-6.02297,-10.4629,14.3983,-8.1984,9.33057,6.54942,-3.87018,4.00542,-5.46658e-15,-7.95139e-15,-32.385,-1.14874,-83.4585,26.5091,18.5652,-26.2305,3.90961,7.12502,0.323126,-26.0699,-5.46658e-15,-7.95139e-15,-33.881,24.4808,73.0941,19.9482,-8.93774,-18.0482,27.0286,7.12502,8.22386,56.8486,-4.04136,21.3135,19.4032,15.8032,-12.678,-18.5467,-3.72184,-0.467396,-8.06775,-19.7568,12.8645,-14.6107,19.8583,-4.21628
0.304404,18.9069,-13.046,2.49496,-7.1221,0.0936667,0.993675,0.53543,-1.32939,-0.65844,0.68147,-1.01683,-1.23419,0.34712,-0.310086,-8.38131,-5.97724,-10.4322,14.5147,-8.14131,9.35592,6.60047,-3.83548,4.01203,1.30701e-14,-7.15625e-15,-32.3637,-1.28905,-83.4329,26.4655,18.5945,-26.271,3.95039,7.12502,0.284002,-26.0292,1.30701e-14,-7.15625e-15,-33.8696,24.6391,73.0187,19.8979,-9.09766,-18.1354,26.8071,7.12502,8.13966,56.6304,-4.06795,21.2868,19.3692,15.8744,-12.6763,-18.5145,-3.76585,-0.392623,-7.98527,-19.7931,12.7565,-14.5209,19.8257,-4.38389
0.304497,18.9067,-13.0453,2.51113,-7.12162,0.0566308,1.00473,0.540963,-1.28845,-0.668743,0.689087,-1.01718,-1.25048,0.350665,-0.333718,-8.39441,-5.93205,-10.3747,14.5407,-8.08511,9.33813,6.60182,-3.80612,4.00239,-3.68994e-15,1.11319e-14,-32.3883,-1.34459,-83.4184,26.468,18.5868,-26.2258,4.06049,7.12502,0.327682,-25.919,-3.68994e-15,1.11319e-14,-33.8893,24.5478,73.04,19.9247,-9.04362,-18.1771,26.6464,7.12502,8.09944,56.4712,-4.10022,21.2845,19.4054,15.9131,-12.6866,-18.5116,-3.83325,-0.381779,-8.0255,-19.7492,12.7028,-14.5315,19.8422,-4.09998
0.304626,18.9094,-13.0434,2.50411,-7.13378,0.0910074,1.02381,0.538034,-1.32677,-0.685531,0.683764,-1.02771,-1.2787,0.348428,-0.323263,-8.3497,-5.88454,-10.3709,14.5461,-8.02959,9.36593,6.59069,-3.77842,4.01771,-9.56651e-16,1.15295e-14,-32.3713,-1.28024,-83.446,26.3685,18.5485,-26.0615,3.96949,7.12502,0.486353,-26.0097,-9.56651e-16,1.15295e-14,-33.9472,24.5887,73.0042,19.9547,-9.10729,-18.0614,26.696,7.12502,8.21105,56.5164,-4.14651,21.3485,19.3583,15.9115,-12.6211,-18.5749,-3.98684,-0.375584,-8.02891,-19.7898,12.6923,-14.5211,19.8619,-4.19639
0.304832,18.907,-13.0423,2.49888,-7.13144,0.122838,1.02323,0.534679,-1.36383,-0.668135,0.678922,-1.03373,-1.26091,0.346185,-0.308434,-8.40286,-5.83976,-10.3635,14.5848,-7.97052,9.38887,6.60659,-3.74622,4.02895,9.39258e-15,1.31198e-14,-32.4126,-1.23733,-83.4548,26.4875,18.5075,-26.0409,3.96975,7.12502,0.506203,-26.0094,9.39258e-15,1.31198e-14,-33.92,24.667,73.0032,19.9554,-9.14681,-18.0546,26.573,7.12502,8.21763,56.3932,-4.07423,21.2697,19.3333,15.8986,-12.7153,-18.4897,-3.83848,-0.360169,-7.99698,-19.8264,12.6903,-14.5323,19.8315,-4.19894
0.304846,18.9082,-13.0417,2.48911,-7.15916,0.12497,1.04944,0.548531,-1.37079,-0.64238,0.697149,-1.03307,-1.24941,0.355241,-0.304346,-8.48051,-5.80493,-10.2914,14.5973,-7.91815,9.33878,6.61362,-3.71841,4.0043,-4.94477e-15,-6.75868e-15,-32.3835,-1.26575,-83.4477,26.4853,18.4985,-26.1771,4.15916,7.12502,0.374653,-25.8203,-4.94477e-15,-6.75868e-15,-33.8598,24.5382,73.122,20.0213,-9.00382,-18.1063,26.6943,7.12502,8.16774,56.5164,-4.07383,21.3027,19.3292,15.9153,-12.7651,-18.4773,-3.7108,-0.300184,-8.01016,-19.8419,12.6468,-14.535,19.8657,-4.1495
0.305959,18.9078,-13.0404,2.48877,-7.18059,0.123852,1.08626,0.567721,-1.34131,-0.652521,0.721917,-1.06013,-1.27986,0.367384,-0.349589,-8.50685,-5.76946,-10.2032,14.6251,-7.87987,9.32628,6.61876,-3.69525,3.98919,2.05742e-14,-1.19271e-14,-32.3853,-1.34784,-83.4542,26.4243,18.4963,-26.2601,4.15991,7.12502,0.294576,-25.8196,2.05742e-14,-1.19271e-14,-33.8713,24.3115,73.201,20.1182,-8.80327,-18.1214,26.8059,7.12502,8.1532,56.6286,-4.07158,21.3124,19.325,15.9232,-12.7605,-18.4635,-3.69091,-0.269399,-8.05688,-19.8591,12.6327,-14.5934,19.9194,-4.05815
0.307721,18.9064,-13.0366,2.47171,-7.1854,0.224474,1.09619,0.579849,-1.40228,-0.664011,0.736055,-1.10744,-1.29744,0.374844,-0.36442,-8.48469,-5.70467,-10.1671,14.6474,-7.80381,9.35125,6.61337,-3.65536,3.9999,1.55425e-14,-1.86858e-14,-32.3768,-1.44084,-83.4354,26.3426,18.5909,-26.3075,4.10666,7.12502,0.248734,-25.8729,1.55425e-14,-1.86858e-14,-33.8943,24.2553,73.1914,20.1201,-8.78758,-18.1585,26.593,7.12502,8.11734,56.4171,-4.0576,21.2564,19.2068,15.941,-12.7909,-18.4067,-3.70575,-0.234441,-8.09131,-19.9828,12.5957,-14.6345,19.937,-4.0726
0.309262,18.9055,-13.0317,2.4486,-7.19446,0.289011,1.11543,0.567673,-1.45199,-0.674053,0.718245,-1.11592,-1.31898,0.366451,-0.345169,-8.37868,-5.6182,-10.1606,14.552,-7.68979,9.35889,6.55251,-3.60281,4.01495,-1.97045e-14,1.35174e-14,-32.4194,-1.36237,-83.4423,26.3724,18.5633,-26.1268,4.12505,7.12502,0.423278,-25.8543,-1.97045e-14,1.35174e-14,-33.9058,24.2597,73.2004,20.103,-8.71774,-18.1768,26.5031,7.12502,8.09967,56.3279,-4.03265,21.1888,19.1337,15.9577,-12.7977,-18.3343,-3.76715,-0.205284,-8.07112,-20.0596,12.5808,-14.5854,19.9224,-4.01777
0.308805,18.9052,-13.0318,2.48766,-7.15336,0.221635,1.12165,0.541662,-1.39962,-0.690519,0.684623,-1.07043,-1.33909,0.349538,-0.327329,-8.28452,-5.55447,-10.2007,14.4346,-7.59977,9.37964,6.49176,-3.56305,4.03899,4.24902e-15,1.07344e-14,-32.5011,-1.3056,-83.4172,26.4708,18.5125,-26.0642,3.99679,7.12502,0.483722,-25.9824,4.24902e-15,1.07344e-14,-33.948,24.3566,73.1957,20.1122,-8.74955,-18.1582,26.4832,7.12502,8.11769,56.3073,-4.06691,21.2047,19.208,15.9705,-12.8078,-18.4041,-3.71741,-0.245307,-8.04091,-19.9641,12.5677,-14.4708,19.8698,-4.00951
0.307543,18.9054,-13.0338,2.50875,-7.15836,0.155613,1.18127,0.544201,-1.35737,-0.719025,0.687277,-1.04641,-1.40154,0.350919,-0.327302,-8.28307,-5.48749,-10.1979,14.4567,-7.51452,9.4092,6.49041,-3.5196,4.05686,-8.7838e-15,-3.97569e-16,-32.592,-1.30599,-83.4066,26.5218,18.5365,-26.2318,4.0736,7.12502,0.321894,-25.9059,-8.7838e-15,-3.97569e-16,-34.0091,24.4353,73.1309,20.1096,-8.88319,-18.0976,26.5506,7.12502,8.17613,56.3724,-4.09351,21.2456,19.2827,15.9759,-12.8432,-18.4269,-3.78048,-0.255998,-7.96541,-19.875,12.5612,-14.4941,19.791,-3.93056
0.308102,18.9051,-13.0315,2.48904,-7.19383,0.158212,1.21939,0.561537,-1.34456,-0.725535,0.709534,-1.05797,-1.4294,0.361977,-0.347334,-8.44002,-5.39681,-10.1462,14.64,-7.39683,9.41548,6.56169,-3.45456,4.05971,-6.75868e-15,-1.39149e-14,-32.6348,-1.319,-83.4097,26.5241,18.6122,-26.4226,4.28605,7.12502,0.137597,-25.6936,-6.75868e-15,-1.39149e-14,-34.0218,24.4134,73.1053,20.0586,-8.91076,-18.1596,26.3776,7.12502,8.11631,56.2017,-4.08646,21.2947,19.2863,16.0131,-12.895,-18.4412,-3.85232,-0.192135,-8.01198,-19.8953,12.5073,-14.5518,19.8617,-3.82163
0.310337,18.9055,-13.0274,2.46839,-7.14695,0.259301,1.21494,0.556186,-1.42339,-0.711888,0.700759,-1.09491,-1.41341,0.358051,-0.340659,-8.64652,-5.32242,-10.032,14.8705,-7.29663,9.34325,6.6535,-3.39869,4.02419,1.23868e-14,-3.97569e-15,-32.6669,-1.30908,-83.4102,26.5654,18.5436,-26.4035,4.49764,7.12502,0.156074,-25.482,1.23868e-14,-3.97569e-15,-34.0048,24.3261,73.1552,20.0606,-8.90469,-18.2786,26.2072,7.12502,8.00147,56.0357,-4.07034,21.2389,19.1751,16.0429,-12.9073,-18.4305,-3.79402,-0.160951,-7.99571,-20.0136,12.4817,-14.5207,19.7949,-3.86418
0.312166,18.9092,-13.0267,2.47772,-7.08644,0.360316,1.27716,0.548287,-1.51209,-0.747964,0.685936,-1.13078,-1.4859,0.351718,-0.32833,-8.69443,-5.24888,-9.99646,14.9838,-7.20656,9.35637,6.68753,-3.35061,4.03147,3.10601e-16,2.26615e-14,-32.7149,-1.35282,-83.3962,26.5631,18.5559,-26.4894,4.5264,7.12502,0.0730371,-25.4533,3.10601e-16,2.26615e-14,-34.0182,24.1329,73.235,20.1119,-8.7413,-18.3035,26.4601,7.12502,7.9774,56.2896,-4.17636,21.2295,19.0398,16.113,-12.8607,-18.4861,-3.83992,-0.139007,-7.97624,-20.1197,12.3687,-14.3699,19.749,-3.9998
0.312979,18.9053,-13.0267,2.46729,-7.10742,0.360004,1.3392,0.562623,-1.51464,-0.748188,0.703358,-1.14072,-1.52096,0.360545,-0.338239,-8.77894,-5.15066,-10.0276,15.0779,-7.08544,9.47342,6.72477,-3.28258,4.08639,-2.12451e-15,1.39149e-14,-32.7108,-1.38999,-83.4016,26.5228,18.5662,-26.5449,4.61095,7.12502,0.0194989,-25.3688,-2.12451e-15,1.39149e-14,-34.0079,24.1056,73.2444,20.1324,-8.71884,-18.173,26.7397,7.12502,8.10333,56.5643,-4.14258,21.1527,19.0454,16.1608,-12.9902,-18.3825,-3.90925,-0.0962879,-7.9869,-20.127,12.3057,-14.3275,19.7767,-4.08473
0.313336,18.9088,-13.026,2.44737,-7.14126,0.360992,1.37438,0.578424,-1.50942,-0.737414,0.723736,-1.15067,-1.52958,0.370621,-0.352213,-8.87079,-5.03695,-10.0819,15.1859,-6.94183,9.60283,6.76645,-3.2038,4.15173,9.20621e-15,-1.63003e-14,-32.7275,-1.38909,-83.4185,26.4998,18.6087,-26.7877,4.66379,7.12502,-0.214996,-25.3158,9.20621e-15,-1.63003e-14,-34.018,24.0396,73.263,20.1618,-8.67588,-18.2192,26.7336,7.12502,8.05874,56.56,-4.21077,21.2133,19.0389,16.2226,-12.9772,-18.4216,-4.08818,-0.039256,-8.04602,-20.1355,12.2306,-14.3823,19.8441,-3.88118
0.313765,18.9058,-13.028,2.45782,-7.13044,0.359411,1.39306,0.583736,-1.49721,-0.73711,0.730515,-1.15834,-1.53953,0.373883,-0.367312,-8.91445,-4.94915,-10.0319,15.2392,-6.82623,9.59186,6.77657,-3.14467,4.15116,5.62809e-15,7.15625e-15,-32.782,-1.44419,-83.3966,26.5361,18.6664,-26.8686,4.63044,7.12502,-0.293193,-25.3491,5.62809e-15,7.15625e-15,-34.0297,24.0038,73.2662,20.1757,-8.65254,-18.2656,26.6457,7.12502,8.01399,56.4737,-4.17602,21.1676,19.0413,16.2203,-13.0132,-18.357,-3.88632,-0.0950834,-8.0194,-20.1279,12.284,-14.3414,19.836,-4.13286
0.313844,18.9071,-13.0282,2.45588,-7.10555,0.324354,1.43053,0.584335,-1.47721,-0.711742,0.731706,-1.13179,-1.53464,0.374332,-0.35157,-8.93841,-4.89691,-10.055,15.2258,-6.75142,9.61681,6.77018,-3.10738,4.17027,6.83322e-16,1.07344e-14,-32.7897,-1.42629,-83.3613,26.6022,18.6459,-26.8963,4.58791,7.12502,-0.319918,-25.3916,6.83322e-16,1.07344e-14,-33.9916,24.0956,73.2703,20.1367,-8.7348,-18.2404,26.5495,7.12502,8.03836,56.3766,-4.24862,21.1722,19.0792,16.2849,-12.946,-18.4106,-3.99039,-0.0421179,-7.96991,-20.0865,12.1956,-14.281,19.791,-4.38571
0.313551,18.9035,-13.0276,2.45147,-7.09936,0.36144,1.4582,0.581202,-1.52875,-0.674677,0.726188,-1.14974,-1.51257,0.371785,-0.34098,-8.99022,-4.83634,-9.98068,15.2141,-6.67131,9.60264,6.76395,-3.06419,4.1603,-6.99474e-15,1.07344e-14,-32.7048,-1.41065,-83.3958,26.6144,18.6424,-26.8561,4.63061,7.12502,-0.28107,-25.349,-6.99474e-15,1.07344e-14,-33.9329,24.1876,73.2484,20.1357,-8.826,-18.2323,26.6622,7.12502,8.04614,56.489,-4.20294,21.0765,19.0447,16.2962,-13.0333,-18.3152,-3.79708,-0.0474854,-7.97151,-20.1288,12.2194,-14.2659,19.7911,-4.59817
0.314104,18.9064,-13.0256,2.42986,-7.0976,0.432062,1.48632,0.59046,-1.60474,-0.632401,0.736737,-1.16913,-1.48582,0.377428,-0.318589,-9.11899,-4.7671,-9.9338,15.2831,-6.57575,9.59948,6.79677,-3.01184,4.15947,-1.84373e-14,5.56597e-15,-32.6681,-1.4414,-83.3878,26.6815,18.6812,-26.8108,4.52557,7.12502,-0.237308,-25.454,-1.84373e-14,5.56597e-15,-33.8335,24.1919,73.2871,20.1148,-8.81597,-18.1716,26.7326,7.12502,8.10475,56.5572,-4.2487,21.1181,18.9629,16.3373,-12.9953,-18.3522,-3.78792,-0.0070284,-7.96471,-20.2124,12.1811,-14.2479,19.7856,-4.60259
0.31492,18.903,-13.0244,2.42917,-7.09114,0.432473,1.50478,0.604943,-1.60021,-0.615662,0.756025,-1.16736,-1.4791,0.386945,-0.319931,-9.26451,-4.70095,-9.92861,15.3911,-6.48515,9.63008,6.84807,-2.9611,4.17649,-6.65929e-15,1.47101e-14,-32.6857,-1.56726,-83.3044,26.7922,19.0368,-26.0053,3.06696,7.12502,0.540595,-26.9121,-6.65929e-15,1.47101e-14,-33.7424,24.153,73.3278,20.0463,-8.8051,-18.1576,26.7002,7.12502,8.11826,56.5243,-4.17664,21.0904,18.9731,16.315,-13.0503,-18.3048,-3.63246,-0.0346047,-7.98174,-20.2185,12.2514,-14.2734,19.8001,-4.39791
0.314855,18.9068,-13.0237,2.41431,-7.06984,0.402233,1.53274,0.618274,-1.53875,-0.583359,0.774964,-1.17226,-1.46089,0.39563,-0.359961,-9.43498,-4.64804,-9.84051,15.4949,-6.40699,9.56545,6.89811,-2.91823,4.14653,-2.52208e-15,-1.11319e-14,-32.6243,-1.79018,-83.214,26.7671,19.4096,-24.9829,1.93953,7.12502,1.52812,-28.0347,-2.52208e-15,-1.11319e-14,-33.7164,24.1687,73.3311,20.0715,-8.91771,-18.1103,26.6336,7.12502,8.16391,56.4559,-4.20309,21.1912,19.0113,16.3285,-13.0172,-18.4145,-3.67047,0.00830488,-7.94784,-20.1819,12.2212,-14.2441,19.7612,-4.28239
0.314987,18.9032,-13.0234,2.39927,-7.07243,0.370847,1.55314,0.638064,-1.45691,-0.540636,0.80311,-1.1935,-1.42723,0.408591,-0.428212,-9.51513,-4.59608,-9.76271,15.5095,-6.33928,9.55154,6.90677,-2.8799,4.13473,3.72721e-16,2.78299e-15,-32.5987,-1.91939,-83.1934,26.7494,19.4277,-24.859,1.97484,7.12502,1.64777,-27.9985,3.72721e-16,2.78299e-15,-33.6916,23.9109,73.4481,20.2226,-8.71317,-18.1414,26.6862,7.12502,8.13387,56.5097,-4.11469,21.1251,19.062,16.2927,-13.065,-18.3406,-3.73204,0.00347898,-7.93781,-20.1478,12.3,-14.3708,19.7099,-3.91248
0.315884,18.9068,-13.0219,2.39794,-7.04738,0.368696,1.57408,0.623735,-1.41207,-0.504063,0.784916,-1.20993,-1.40058,0.398841,-0.469591,-9.57334,-4.50659,-9.67818,15.5216,-6.21993,9.52179,6.90469,-2.81823,4.12214,8.4732e-15,-3.18055e-15,-32.5716,-2.03035,-83.1629,26.8262,19.8038,-24.0654,0.705328,7.12502,2.41424,-29.2608,8.4732e-15,-3.18055e-15,-33.6525,23.8353,73.4887,20.2865,-8.59948,-18.1659,26.7767,7.12502,8.11021,56.6011,-4.16667,21.1534,19.06,16.3142,-13.0623,-18.4399,-4.02932,0.0283279,-7.92342,-20.1453,12.2575,-14.3809,19.6589,-3.78514
0.316687,18.9029,-13.0226,2.3958,-7.06348,0.436321,1.62878,0.616115,-1.47838,-0.494137,0.771998,-1.22356,-1.42178,0.392946,-0.446655,-9.64619,-4.42509,-9.61811,15.6185,-6.10819,9.46808,6.93336,-2.76284,4.10556,3.19298e-15,-1.07344e-14,-32.5619,-1.91911,-83.1999,26.8374,19.6854,-24.0911,0.533855,7.12502,2.38942,-29.4325,3.19298e-15,-1.07344e-14,-33.63,23.7877,73.5123,20.2824,-8.49936,-18.1454,26.8553,7.12502,8.12997,56.6789,-4.11324,21.0972,18.9848,16.2927,-13.134,-18.3586,-3.94259,-0.0132731,-7.93297,-20.2235,12.3058,-14.3344,19.6932,-3.9739
0.317407,18.9065,-13.0231,2.39654,-7.07248,0.434473,1.69679,0.607327,-1.47911,-0.479645,0.758944,-1.21961,-1.44511,0.386501,-0.442535,-9.74193,-4.35229,-9.54477,15.6693,-6.00742,9.42502,6.95249,-2.7107,4.0884,-2.52084e-14,5.56597e-15,-32.5028,-1.76119,-83.2851,26.636,18.9546,-25.6653,2.80912,7.12502,0.869022,-27.1689,-2.52084e-14,5.56597e-15,-33.6236,23.9054,73.4603,20.2208,-8.58168,-18.2329,26.4928,7.12502,8.04555,56.3197,-4.18593,21.1628,18.9715,16.3059,-13.0368,-18.4193,-3.90178,-0.0138778,-8.02159,-20.2318,12.2896,-14.3403,19.7869,-4.03313
0.318982,18.9021,-13.0237,2.42425,-7.02529,0.430715,1.71659,0.592265,-1.44507,-0.443488,0.739659,-1.23236,-1.41848,0.376321,-0.474029,-9.82574,-4.27395,-9.46789,15.6318,-5.89522,9.38632,6.94025,-2.65311,4.07251,-2.10339e-14,2.22639e-14,-32.4176,-1.72511,-83.312,26.5789,18.8424,-25.5516,2.76318,7.12502,0.978834,-27.2143,-2.10339e-14,2.22639e-14,-33.5611,23.9812,73.4483,20.1882,-8.69972,-18.2843,26.4063,7.12502,7.99594,56.235,-4.14946,20.9935,18.9734,16.3354,-13.1076,-18.2942,-3.73599,-0.0452278,-8.09381,-20.2224,12.2676,-14.3496,19.7957,-3.89673
0.320874,18.9013,-13.0229,2.42601,-7.01247,0.459895,1.77155,0.583547,-1.46253,-0.416869,0.726728,-1.2381,-1.42215,0.369927,-0.470191,-9.88663,-4.19685,-9.38333,15.6121,-5.78378,9.31593,6.92877,-2.59853,4.04526,-5.41688e-15,-3.97569e-15,-32.3814,-1.74164,-83.2736,26.6328,19.1575,-24.3168,1.06938,7.12502,2.17144,-28.8993,-5.41688e-15,-3.97569e-15,-33.5125,23.9939,73.4737,20.1925,-8.65366,-18.2462,26.5367,7.12502,8.03272,56.364,-4.17073,20.9181,18.9295,16.3823,-13.1162,-18.2361,-3.84142,-0.0308589,-8.09666,-20.2597,12.2211,-14.3371,19.7811,-3.95552
0.32195,18.906,-13.0227,2.44307,-7.02503,0.529852,1.86181,0.579531,-1.55078,-0.448306,0.716519,-1.23247,-1.50618,0.366038,-0.415997,-9.91203,-4.13211,-9.38059,15.6347,-5.68817,9.28221,6.92976,-2.5543,4.04317,-5.06901e-15,1.59028e-14,-32.4161,-1.64971,-83.2778,26.5829,18.873,-24.2514,1.14457,7.12502,2.23459,-28.8235,-5.06901e-15,1.59028e-14,-33.5713,23.9347,73.5017,20.2355,-8.51857,-18.1838,26.5104,7.12502,8.09295,56.3354,-4.24774,20.985,18.8224,16.3683,-13.0417,-18.2669,-3.80106,-0.114615,-8.01983,-20.3342,12.3148,-14.3416,19.7472,-4.25385
0.321467,18.9067,-13.0231,2.47237,-6.99531,0.53271,1.94714,0.578694,-1.59329,-0.516508,0.711345,-1.20165,-1.6249,0.364731,-0.361979,-9.7819,-4.06621,-9.38225,15.5921,-5.60043,9.25718,6.88349,-2.51772,4.0452,1.31819e-14,3.18055e-15,-32.5414,-1.61646,-83.2456,26.5571,18.6072,-24.4584,1.33918,7.12502,2.03463,-28.6309,1.31819e-14,3.18055e-15,-33.7013,23.8834,73.5109,20.2606,-8.53615,-18.1316,26.6119,7.12502,8.14334,56.4349,-4.28192,20.985,18.812,16.3591,-13.036,-18.2779,-3.77946,-0.198944,-8.03665,-20.3204,12.3906,-14.4033,19.7093,-4.27548
0.322064,18.9023,-13.023,2.49391,-6.98695,0.465745,2.01056,0.581191,-1.57102,-0.560641,0.713974,-1.13346,-1.70634,0.366698,-0.305749,-9.55598,-3.98476,-9.44495,15.4755,-5.48988,9.26414,6.79699,-2.47383,4.07056,5.59082e-15,1.59028e-14,-32.6752,-1.58579,-83.1568,26.659,18.7168,-24.1738,0.739902,7.12502,2.30951,-29.2273,5.59082e-15,1.59028e-14,-33.8303,23.8947,73.5326,20.2978,-8.58789,-17.9355,26.841,7.12502,8.33259,56.6567,-4.25234,20.883,18.8846,16.3709,-13.1196,-18.1948,-3.90949,-0.238172,-8.07623,-20.2488,12.4348,-14.434,19.7321,-4.18848
0.323201,18.8992,-13.0213,2.48044,-7.00593,0.430712,2.07779,0.599257,-1.54786,-0.541984,0.737825,-1.10762,-1.72513,0.378534,-0.293722,-9.35555,-3.92581,-9.56462,15.3465,-5.42119,9.4017,6.72029,-2.44255,4.14391,-1.00386e-14,-4.77083e-15,-32.7267,-1.60836,-83.0879,26.8066,19.1311,-23.7755,0.0264418,7.12502,2.69414,-29.9363,-1.00386e-14,-4.77083e-15,-33.8335,23.8085,73.5896,20.3333,-8.50755,-17.7723,26.7799,7.12502,8.49012,56.5892,-4.19549,20.8374,18.924,16.3581,-13.2009,-18.113,-3.89389,-0.255565,-8.05738,-20.2197,12.5243,-14.4728,19.7413,-4.17946
0.324001,18.9011,-13.0216,2.48334,-6.98081,0.463453,2.14125,0.601726,-1.59533,-0.464258,0.739487,-1.11755,-1.68152,0.379329,-0.277499,-9.33222,-3.88907,-9.60192,15.1869,-5.37447,9.51228,6.66442,-2.41463,4.18972,-1.8313e-14,1.43125e-14,-32.6326,-1.62425,-83.0755,26.8804,19.2454,-23.7219,-0.154817,7.12502,2.74598,-30.1169,-1.8313e-14,1.43125e-14,-33.6336,23.776,73.677,20.2849,-8.42757,-17.6342,26.8104,7.12502,8.62336,56.6143,-4.21331,20.8985,18.8819,16.3445,-13.1608,-18.1627,-3.74345,-0.31111,-8.02969,-20.2545,12.613,-14.4591,19.6924,-4.23459
0.325905,18.9021,-13.0231,2.51755,-6.95051,0.526337,2.18256,0.581582,-1.67612,-0.403078,0.710424,-1.11992,-1.64273,0.365171,-0.233638,-9.47411,-3.8481,-9.59088,15.16,-5.30673,9.51928,6.6738,-2.37703,4.19472,-9.29318e-15,-4.77083e-15,-32.5105,-1.46776,-83.1383,26.7777,18.7638,-24.2019,0.394192,7.12502,2.28233,-29.5733,-9.29318e-15,-4.77083e-15,-33.4582,23.7828,73.757,20.2534,-8.39885,-17.5376,26.8904,7.12502,8.71658,56.6904,-4.31093,20.9457,18.7808,16.3879,-13.1473,-18.2079,-3.68343,-0.359383,-8.05153,-20.3217,12.6157,-14.4422,19.6688,-4.13692
0.327806,18.9017,-13.0237,2.55377,-6.95551,0.592295,2.27425,0.579204,-1.75018,-0.428848,0.702088,-1.12729,-1.72139,0.362192,-0.200679,-9.48085,-3.79545,-9.53275,15.1578,-5.23331,9.46415,6.66369,-2.34235,4.17371,-9.26834e-15,-2.38542e-15,-32.5194,-1.36636,-83.1747,26.6438,18.4882,-24.6443,0.921333,7.12502,1.85513,-29.0503,-9.26834e-15,-2.38542e-15,-33.4618,23.6987,73.8128,20.2736,-8.32622,-17.749,27.0801,7.12502,8.51259,56.8885,-4.40977,20.9619,18.6795,16.4563,-13.1753,-18.2236,-3.74992,-0.401054,-8.06586,-20.3921,12.598,-14.4761,19.649,-4.03637
0.329785,18.9017,-13.0229,2.63877,-6.97014,0.659088,2.31981,0.579191,-1.81385,-0.469132,0.697776,-1.14811,-1.7888,0.361105,-0.187055,-9.4489,-3.74433,-9.42042,15.1316,-5.16363,9.35707,6.63694,-2.31145,4.12624,-2.98177e-16,-1.19271e-14,-32.4981,-1.35104,-83.1901,26.4862,18.5375,-24.8262,1.19329,7.12502,1.67942,-28.7798,-2.98177e-16,-1.19271e-14,-33.4895,23.5459,73.8463,20.2883,-8.16754,-17.9525,27.0821,7.12502,8.31613,56.8984,-4.55709,20.9698,18.5558,16.5156,-13.1646,-18.2037,-3.75741,-0.528798,-7.97065,-20.4547,12.636,-14.3965,19.6039,-4.38765
0.331472,18.902,-13.0246,2.75815,-6.96546,0.621204,2.35679,0.57825,-1.76327,-0.496025,0.696681,-1.13869,-1.83663,0.360453,-0.206308,-9.49407,-3.7147,-9.38703,15.1418,-5.11879,9.32104,6.64185,-2.28944,4.11264,1.24737e-14,1.63003e-14,-32.4846,-1.44352,-83.1367,26.4849,18.8307,-24.51,1.12208,7.12502,1.98481,-28.8484,1.24737e-14,1.63003e-14,-33.5496,23.3803,73.9136,20.4173,-8.03609,-17.994,26.9675,7.12502,8.2761,56.7854,-4.72421,21.0504,18.5467,16.5573,-13.1555,-18.2843,-3.7583,-0.726098,-7.95525,-20.3929,12.732,-14.4007,19.619,-4.45512
0.33315,18.902,-13.029,2.88108,-6.91252,0.619899,2.37598,0.583374,-1.74799,-0.502831,0.703194,-1.14624,-1.85417,0.36362,-0.223135,-9.58003,-3.71214,-9.38219,15.1561,-5.11628,9.36002,6.66209,-2.28261,4.12418,-1.12562e-14,-2.62396e-14,-32.4553,-1.68097,-83.0177,26.5456,19.4468,-23.8472,0.892097,7.12502,2.6249,-29.0715,-1.12562e-14,-2.62396e-14,-33.5248,23.3214,73.9482,20.4819,-8.08383,-17.8153,26.6379,7.12502,8.44856,56.4489,-4.91063,21.0692,18.4971,16.6199,-13.1701,-18.3367,-3.77594,-0.948046,-7.84003,-20.3457,12.8233,-14.42,19.4352,-4.27168
0.335283,18.9026,-13.0302,3.02195,-6.85602,0.584041,2.3441,0.565995,-1.72777,-0.520687,0.681568,-1.1241,-1.85441,0.352808,-0.210677,-9.53741,-3.69866,-9.38318,15.085,-5.10291,9.39883,6.63157,-2.27451,4.13809,2.73329e-15,7.95139e-15,-32.4319,-1.69238,-82.9732,26.5634,19.7143,-23.5602,0.909311,7.12502,2.90208,-29.0507,2.73329e-15,7.95139e-15,-33.5042,23.3923,73.9346,20.4652,-8.18796,-17.6423,26.4645,7.12502,8.61555,56.2687,-5.08003,21.12,18.4819,16.6442,-13.1599,-18.439,-3.75163,-1.21331,-7.65515,-20.2618,12.9804,-14.3831,19.1788,-4.3623
0.336354,18.9048,-13.0293,3.17968,-6.81984,0.651597,2.30119,0.554963,-1.80776,-0.561917,0.664435,-1.14277,-1.87322,0.345294,-0.184213,-9.49193,-3.67723,-9.34058,15.0581,-5.07839,9.37631,6.61082,-2.26322,4.12603,-4.17448e-14,3.02153e-14,-32.4744,-1.59673,-83.0139,26.6313,19.6648,-23.5916,0.972071,7.12502,2.87181,-28.9883,-4.17448e-14,3.02153e-14,-33.5227,23.4816,73.8839,20.4745,-8.27879,-17.6751,26.4162,7.12502,8.58388,56.2217,-5.2747,21.1175,18.3367,16.6462,-13.1608,-18.4732,-3.60063,-1.51949,-7.48996,-20.2923,13.1695,-14.3344,18.9782,-4.57369
0.33613,18.9068,-13.031,3.33699,-6.7553,0.584906,2.34575,0.537784,-1.73541,-0.601809,0.641888,-1.1358,-1.9382,0.333778,-0.217456,-9.52632,-3.62742,-9.29573,15.037,-5.01182,9.3714,6.60213,-2.22807,4.12261,1.51573e-15,-5.1684e-15,-32.5089,-1.58907,-83.0527,26.7299,19.6174,-23.7285,0.821752,7.12502,2.73957,-29.1404,1.51573e-15,-5.1684e-15,-33.5735,23.3717,73.8979,20.6009,-8.12884,-17.8081,26.4737,7.12502,8.45551,56.2844,-5.42563,21.2048,18.3619,16.6075,-13.1669,-18.6201,-3.66312,-1.83445,-7.38891,-20.1754,13.3976,-14.3023,18.836,-4.66657
0.338402,18.9087,-13.0319,3.48747,-6.71317,0.472657,2.42528,0.510038,-1.61168,-0.65328,0.606486,-1.0997,-2.03441,0.315539,-0.249476,-9.60664,-3.57136,-9.24487,15.0927,-4.92647,9.29285,6.62223,-2.18778,4.09609,1.20265e-14,-2.38542e-15,-32.6448,-1.45971,-83.0928,26.9338,19.4909,-23.6638,0.616121,7.12502,2.802,-29.3452,1.20265e-14,-2.38542e-15,-33.6706,23.3731,73.8566,20.6885,-8.12696,-17.928,26.5287,7.12502,8.33981,56.3441,-5.55442,21.2573,18.4317,16.5529,-13.1375,-18.7271,-3.84067,-2.13281,-7.28192,-20.0208,13.6325,-14.3662,18.6943,-4.43052
0.342095,18.91,-13.035,3.6308,-6.64674,0.394374,2.52339,0.487823,-1.51665,-0.723464,0.576965,-1.06955,-2.16069,0.300617,-0.272,-9.58904,-3.53257,-9.27383,15.1551,-4.87393,9.29392,6.63439,-2.16426,4.10724,4.74598e-15,7.15625e-15,-32.8583,-1.30398,-83.1083,27.1761,19.3336,-23.3844,0.259639,7.12502,3.07192,-29.698,4.74598e-15,7.15625e-15,-33.6938,23.3704,73.8308,20.6316,-8.14242,-18.0644,26.5572,7.12502,8.20816,56.3778,-5.65124,21.3006,18.4558,16.4273,-13.0419,-18.8142,-3.67556,-2.51036,-7.23157,-19.9093,14.0149,-14.4895,18.5468,-4.24267
0.345055,18.9145,-13.0391,3.83957,-6.48249,0.255239,2.53303,0.432596,-1.37678,-0.759603,0.508362,-1.01714,-2.20193,0.265175,-0.293882,-9.67137,-3.50506,-9.35138,15.2204,-4.83411,9.37297,6.66931,-2.14107,4.15018,3.75206e-15,1.43125e-14,-32.8884,-1.27648,-83.0873,27.2426,19.3134,-23.1478,-6.65792e-05,7.12502,3.30041,-29.9543,3.75206e-15,1.43125e-14,-33.5856,23.4284,73.8363,20.5244,-8.17957,-18.1027,26.6651,7.12502,8.17124,56.4871,-5.86229,21.4621,18.518,16.307,-13.0187,-19.0843,-3.46515,-2.98658,-7.161,-19.7026,14.4362,-14.5688,18.3185,-4.38216
0.345199,18.9098,-13.0449,4.06016,-6.3762,0.130644,2.47065,0.419157,-1.27799,-0.733209,0.496563,-0.967953,-2.13922,0.258022,-0.297552,-9.83065,-3.53202,-9.42914,15.2162,-4.85973,9.46212,6.70273,-2.14673,4.18872,-5.04416e-15,1.07344e-14,-32.7655,-1.38958,-83.0199,27.194,19.3325,-23.103,-0.0692486,7.12502,3.34366,-30.0228,-5.04416e-15,1.07344e-14,-33.4058,23.3985,73.9339,20.5114,-8.12318,-17.9853,26.6416,7.12502,8.28455,56.4591,-5.98935,21.4743,18.6106,16.2423,-13.0506,-19.2269,-3.63044,-3.46084,-7.09431,-19.506,14.8229,-14.6652,18.1216,-4.35506
0.346726,18.9083,-13.0539,4.25689,-6.34207,-0.0221765,2.4988,0.435016,-1.1299,-0.728482,0.523455,-0.907302,-2.14945,0.269945,-0.319687,-9.8539,-3.56623,-9.43288,15.1415,-4.89089,9.41525,6.68543,-2.16505,4.16964,-4.42296e-15,3.97569e-16,-32.6602,-1.40356,-82.954,27.1051,19.2474,-23.1486,-0.142067,7.12502,3.29962,-30.0963,-4.42296e-15,3.97569e-16,-33.309,23.364,74.0082,20.4872,-8.09517,-17.9953,25.9886,7.12502,8.27485,55.8066,-6.21249,21.5774,18.7142,16.2539,-12.9919,-19.3584,-3.73607,-3.87701,-6.97558,-19.2819,15.1446,-14.7894,17.8837,-4.89295
0.348366,18.9112,-13.0648,4.50427,-6.16235,-0.0486429,2.55327,0.391098,-1.1192,-0.759223,0.464523,-0.875224,-2.21163,0.24087,-0.290835,-9.84221,-3.57954,-9.35182,15.0229,-4.8929,9.28289,6.64089,-2.17211,4.11073,9.26834e-15,5.96354e-15,-32.553,-1.39276,-82.93,26.9606,18.9298,-23.5249,0.277814,7.12502,2.9362,-29.6817,9.26834e-15,5.96354e-15,-33.22,23.4759,74.0097,20.3872,-8.28289,-17.9892,25.4174,7.12502,8.28077,55.2351,-6.57222,21.6262,18.6376,16.3139,-12.9619,-19.5539,-3.49776,-4.38729,-6.82846,-19.1749,15.4562,-14.8173,17.5519,-5.57326
0.350394,18.9153,-13.0787,4.82064,-5.85918,0.0511189,2.58894,0.307193,-1.19854,-0.79268,0.347935,-0.912444,-2.26594,0.183769,-0.279771,-9.94527,-3.57522,-9.24645,14.8854,-4.88069,9.24751,6.61072,-2.1606,4.0799,1.60022e-14,3.18055e-15,-32.4296,-1.40892,-82.9757,26.9224,18.5463,-23.8739,0.757073,7.12502,2.59919,-29.2068,1.60022e-14,3.18055e-15,-33.0329,23.3074,74.1344,20.4257,-8.20649,-18.0442,25.6291,7.12502,8.2277,55.4489,-7.04247,21.5048,18.3949,16.4356,-13.0037,-19.7147,-3.29338,-4.96289,-6.7908,-19.1912,15.678,-14.6905,17.2323,-4.1219
0.355511,18.9142,-13.0916,5.03958,-5.6452,0.144942,2.68378,0.259817,-1.24324,-0.814418,0.280112,-0.951521,-2.34137,0.150589,-0.292351,-9.90889,-3.57243,-9.19497,14.6946,-4.87861,9.26483,6.54272,-2.15675,4.07534,8.69683e-15,2.74323e-14,-32.4024,-1.55969,-82.9066,27.0504,18.813,-23.4863,0.489088,7.12502,2.97344,-29.4699,8.69683e-15,2.74323e-14,-32.913,23.0843,74.2807,20.5341,-8.01972,-18.1405,26.0254,7.12502,8.13473,55.8488,-7.38086,21.3433,18.1958,16.5878,-13.0772,-19.7623,-3.17723,-5.36939,-6.75152,-19.231,15.833,-14.6018,16.9523,-6.3931
0.360451,18.9133,-13.1022,5.17689,-5.58678,0.114918,2.91095,0.242394,-1.18688,-0.861714,0.254106,-0.93992,-2.51741,0.137577,-0.31216,-9.82507,-3.55622,-9.22329,14.5797,-4.85645,9.29843,6.49091,-2.14748,4.09278,5.46658e-15,-2.38542e-14,-32.4473,-1.55244,-82.866,27.1418,19.0809,-23.2987,0.249364,7.12502,3.15468,-29.707,5.46658e-15,-2.38542e-14,-32.9266,23.0794,74.2863,20.5696,-8.05819,-18.0996,26.1472,7.12502,8.17424,55.9691,-7.65334,21.3986,18.1503,16.7207,-13.08,-19.8675,-3.16216,-5.6693,-6.64564,-19.1645,16.0181,-14.6113,16.7724,-6.98428
0.366728,18.9159,-13.1105,5.38469,-5.7693,0.0659644,3.05459,0.295888,-1.11843,-0.899583,0.324869,-0.942069,-2.63699,0.172206,-0.35738,-9.88675,-3.53389,-9.17516,14.475,-4.82107,9.29488,6.46381,-2.12671,4.08509,8.69683e-16,2.18663e-14,-32.5007,-1.45121,-82.9081,27.2937,19.0383,-23.2725,0.216431,7.12502,3.17996,-29.7396,8.69683e-16,2.18663e-14,-32.8776,23.0903,74.2703,20.5645,-8.15754,-17.8961,26.2508,7.12502,8.37062,56.0649,-8.06194,21.5151,18.0385,16.8086,-12.9989,-19.8177,-3.30745,-6.01724,-6.44481,-19.1164,16.1928,-14.646,16.7767,-7.09535
0.375437,18.9167,-13.1205,5.71652,-6.33643,0.025022,2.96332,0.49418,-1.06433,-0.849958,0.59309,-0.973286,-2.53427,0.304482,-0.432678,-10.1214,-3.54155,-9.13253,14.2918,-4.80936,9.30747,6.44519,-2.11224,4.07884,-1.43373e-14,7.95139e-16,-32.3753,-1.32766,-82.9662,27.471,18.9427,-23.2693,0.0492593,7.12502,3.18307,-29.9067,-1.43373e-14,7.95139e-16,-32.5629,23.0076,74.4137,20.5728,-8.11219,-17.7451,26.3589,7.12502,8.51631,56.1671,-8.67781,21.5174,17.7855,16.8858,-12.7707,-19.3041,-3.67557,-6.47098,-6.06403,-19.13,16.3847,-14.7273,16.9384,-7.12933
0.381853,18.9154,-13.1213,5.50859,-5.81001,0.105016,3.2812,0.351669,-1.00467,-0.577355,0.40257,-1.01856,-2.43181,0.207575,-0.503629,-10.2803,-3.56554,-9.03973,13.981,-4.82521,9.31295,6.37437,-2.11139,4.05867,6.26172e-15,-1.03368e-14,-32.1589,-1.20792,-83.037,27.625,18.7322,-23.3264,0.00127787,7.12502,3.1279,-29.9555,6.26172e-15,-1.03368e-14,-32.1921,22.7425,74.6571,20.7085,-7.92094,-17.7407,26.2093,7.12502,8.52062,56.0173,-8.35061,21.4813,17.8508,16.9566,-13.0195,-19.6945,-3.37344,-6.46055,-6.27214,-19.1814,16.6296,-14.7366,16.6262,-7.45135
0.388947,18.9121,-13.1312,5.58857,-5.87411,0.104811,3.48454,0.407194,-0.977319,-0.472291,0.475181,-1.03947,-2.43756,0.243114,-0.545387,-10.254,-3.5993,-8.99935,13.609,-4.86194,9.35242,6.2562,-2.12611,4.05778,3.47873e-16,3.97569e-15,-32.0635,-1.10507,-83.0655,27.8114,18.6467,-23.3348,-0.0218252,7.12502,3.11974,-29.9787,3.47873e-16,3.97569e-15,-31.9977,22.4891,74.8562,20.9356,-7.78215,-17.7413,25.8652,7.12502,8.51999,55.6734,-8.52018,21.507,17.7495,17.0093,-13.1275,-19.5617,-2.78923,-6.76671,-6.13082,-19.1905,16.9645,-14.808,16.5275,-7.45886
0.397656,18.9084,-13.1469,5.93646,-6.36893,0.0737191,3.53314,0.588219,-0.961065,-0.510817,0.715077,-1.0701,-2.50339,0.362432,-0.60018,-10.2012,-3.59456,-8.91362,13.327,-4.85186,9.33275,6.15488,-2.12077,4.03574,1.49089e-16,6.36111e-15,-32.1081,-1.07194,-83.0842,28.0624,18.6885,-23.4503,0.0015439,7.12502,3.00826,-29.957,1.49089e-16,6.36111e-15,-31.9207,22.2987,74.9422,21.1625,-7.76887,-17.6149,25.9406,7.12502,8.64197,55.7437,-9.14047,21.5778,17.4655,17.0545,-13.0555,-19.0924,-2.63581,-7.3573,-5.71505,-19.209,17.3351,-14.9056,16.6162,-7.50514
0.40419,18.9057,-13.1656,6.18483,-6.63291,0.00789833,3.79406,0.676944,-0.917494,-0.565626,0.83041,-1.05925,-2.70562,0.41965,-0.624158,-10.1492,-3.55464,-8.93272,13.1268,-4.791,9.37291,6.07856,-2.09147,4.05625,-1.19271e-15,-9.54166e-15,-32.2607,-0.862146,-83.1221,28.4345,18.5578,-23.6354,-0.0180087,7.12502,2.82951,-29.979,-1.19271e-15,-9.54166e-15,-31.9463,21.9117,75.1056,21.557,-7.59002,-17.4833,26.1369,7.12502,8.76895,55.9347,-9.61475,21.7248,17.3157,17.1332,-12.9573,-18.9063,-2.57015,-7.89098,-5.47648,-19.1549,17.7623,-14.9931,16.6263,-7.42498
0.410773,18.9038,-13.1837,6.34674,-6.69247,-0.101721,4.20544,0.701468,-0.813174,-0.596082,0.862555,-1.01441,-2.96732,0.434547,-0.644801,-10.2768,-3.49898,-9.15023,13.1098,-4.70454,9.6117,6.09756,-2.03988,4.17708,6.36111e-15,-1.59028e-15,-32.3559,-0.638462,-83.131,28.7562,18.4655,-23.5874,0.110441,7.12502,2.87579,-29.8499,6.36111e-15,-1.59028e-15,-31.9123,21.5383,75.3133,21.8579,-7.30394,-17.54,26.0051,7.12502,8.71428,55.8052,-9.94476,21.8584,17.3011,17.2493,-12.9272,-18.9032,-2.489,-8.35628,-5.32075,-19.0273,18.2167,-15.0803,16.514,-7.47879
0.420595,18.9005,-13.1967,6.47096,-6.86859,-0.109527,4.57147,0.776812,-0.738229,-0.591748,0.960523,-1.04976,-3.16648,0.4817,-0.735632,-10.4159,-3.45519,-9.29752,13.061,-4.64268,9.85242,6.10915,-1.99632,4.28442,-1.98785e-16,-1.51076e-14,-32.3536,-0.692936,-83.0843,28.8766,18.6234,-23.5616,0.389297,7.12502,2.90077,-29.5707,-1.98785e-16,-1.51076e-14,-31.8254,21.0212,75.5385,22.0587,-6.6728,-18.1032,25.6868,7.12502,8.17078,55.5089,-10.2618,21.9651,17.1467,17.3951,-13.0314,-18.7357,-2.24293,-8.74515,-5.17696,-19.0422,18.6621,-15.3422,16.4483,-7.20481
0.430458,18.8959,-13.2125,6.62566,-7.06287,-0.154292,4.63977,0.860216,-0.610094,-0.346878,1.07981,-1.08316,-2.94854,0.53869,-0.848638,-10.7438,-3.47166,-9.21489,12.7725,-4.62652,9.81351,6.07139,-1.97969,4.2534,1.95803e-14,-1.07344e-14,-31.9123,-0.804721,-83.0485,28.91,18.7194,-23.5787,0.367813,7.12502,2.88422,-29.5924,1.95803e-14,-1.07344e-14,-31.3376,20.4514,75.992,22.3376,-5.78614,-18.6405,25.325,7.12502,7.65219,55.1666,-10.6311,22.0203,17.027,17.5267,-12.9573,-18.5532,-2.3767,-9.19109,-4.98676,-19.0176,19.1129,-15.477,16.3855,-7.02568
0.441753,18.8906,-13.2286,6.73947,-7.25165,-0.278379,4.90177,0.929351,-0.457437,-0.175294,1.17978,-1.06351,-2.91522,0.58629,-0.923942,-10.9174,-3.49467,-9.13713,12.4715,-4.62346,9.727,6.00323,-1.9774,4.20779,2.98674e-14,-6.75868e-15,-31.5767,-0.833366,-83.0087,28.9706,18.659,-23.526,0.414898,7.12502,2.93515,-29.5446,2.98674e-14,-6.75868e-15,-31.0255,20.0193,76.3394,22.6551,-5.15626,-18.6382,25.3619,7.12502,7.65433,55.2033,-10.9574,22.0867,17.0123,17.6702,-12.9167,-18.3951,-2.45096,-9.58968,-4.81212,-18.9166,19.5759,-15.6159,16.3481,-6.70722
0.453977,18.8872,-13.2427,6.89536,-7.43507,-0.422465,5.25743,0.999688,-0.294007,-0.145894,1.28084,-1.02855,-3.08061,0.63393,-0.994065,-10.9499,-3.48211,-9.12785,12.3041,-4.58678,9.68045,5.95156,-1.96235,4.1925,5.81445e-15,1.39149e-14,-31.4875,-0.704982,-82.9684,29.0731,18.5254,-23.5186,0.888791,7.12502,2.94228,-29.0707,5.81445e-15,1.39149e-14,-30.9938,19.6133,76.5606,23.0188,-4.8257,-18.4327,25.5715,7.12502,7.85273,55.4057,-11.3278,22.2417,16.9986,17.8693,-13.0243,-18.2901,-2.39594,-10.0357,-4.76635,-18.7924,20.0738,-15.8339,16.4162,-6.39641
0.464597,18.8843,-13.2627,7.15079,-7.53571,-0.553398,5.62013,1.02433,-0.185332,-0.189569,1.31939,-0.957775,-3.32806,0.651021,-0.993626,-10.9579,-3.41034,-9.16655,12.1424,-4.4664,9.65283,5.89065,-1.90813,4.19939,2.15184e-14,-2.94201e-14,-31.5261,-0.469044,-82.9197,29.3182,18.3989,-23.6122,1.14769,7.12502,2.85192,-28.813,2.15184e-14,-2.94201e-14,-31.1109,19.3072,76.7088,23.4811,-4.73426,-18.0167,25.8443,7.12502,8.25419,55.663,-11.8497,22.4499,16.9427,18.1242,-13.0644,-18.3431,-2.31474,-10.6418,-4.76608,-18.6454,20.5897,-16.0439,16.4375,-6.17588
0.474479,18.8792,-13.285,7.40126,-7.71149,-0.607028,5.91949,1.08449,-0.15503,-0.106616,1.40063,-0.932535,-3.40921,0.690796,-0.996983,-11.0834,-3.36448,-9.09007,11.8234,-4.37081,9.55205,5.79935,-1.8633,4.15851,9.69075e-15,-1.70955e-14,-31.3156,-0.383623,-82.8732,29.5419,18.3646,-23.6217,0.871673,7.12502,2.84267,-29.0891,9.69075e-15,-1.70955e-14,-30.948,19.1105,76.8759,23.8362,-4.82336,-17.6278,26.3702,7.12502,8.62955,56.1738,-12.4635,22.7064,16.7861,18.4553,-13.051,-18.4313,-2.41243,-11.229,-4.49788,-18.5946,21.054,-16.1263,16.3152,-6.09025
0.487537,18.8712,-13.3051,7.57998,-7.91619,-0.64638,6.16995,1.16451,-0.0728164,0.0685707,1.51225,-0.931826,-3.36496,0.745161,-1.05538,-11.166,-3.34798,-8.97673,11.4387,-4.30989,9.37004,5.68136,-1.84065,4.08198,-5.36719e-15,0,-31.0089,-0.300778,-82.8233,29.7231,18.28,-23.6999,0.692523,7.12502,2.76716,-29.2693,-5.36719e-15,0,-30.6596,18.8304,77.1213,24.128,-4.70172,-17.6967,26.3361,7.12502,8.56301,56.1425,-13.0485,22.9373,16.6335,18.8903,-13.057,-18.4702,-2.71288,-11.7051,-4.14076,-18.592,21.4769,-16.1717,16.1703,-6.31868
0.502779,18.8658,-13.318,7.74621,-8.13954,-0.560303,6.39716,1.23778,-0.0864256,0.190637,1.6064,-0.973904,-3.36385,0.791879,-1.10335,-11.1359,-3.31723,-8.92534,11.0815,-4.24388,9.28061,5.55586,-1.81449,4.04767,-2.13197e-14,-1.59028e-14,-30.8773,-0.201361,-82.7876,30.0057,18.175,-23.7748,0.49374,7.12502,2.69488,-29.469,-2.13197e-14,-1.59028e-14,-30.506,18.433,77.3681,24.4559,-4.32775,-18.1036,25.9864,7.12502,8.17039,55.8085,-13.6745,23.1177,16.3348,19.4341,-13.15,-18.4559,-2.92788,-12.143,-3.98745,-18.75,21.8972,-16.2719,16.2223,-6.39115
0.516504,18.8589,-13.3324,7.9393,-8.42005,-0.418399,6.71924,1.29869,-0.256577,0.2653,1.67086,-1.01464,-3.46979,0.82574,-1.06324,-11.3071,-3.26806,-8.91985,10.8567,-4.15069,9.2829,5.50629,-1.76531,4.05264,-2.29099e-14,-8.34896e-15,-30.7865,-0.00861842,-82.7894,30.2948,18.1087,-23.959,0.429237,7.12502,2.51697,-29.5357,-2.29099e-14,-8.34896e-15,-30.3899,18.0307,77.5816,24.796,-3.81923,-18.3608,26.1412,7.12502,7.92211,55.9728,-14.405,23.2628,15.9711,20.138,-13.3368,-18.3722,-3.05879,-12.6511,-3.74528,-18.9632,22.3803,-16.5012,16.1722,-6.15344
0.525728,18.849,-13.3567,8.31018,-8.73541,-0.370513,6.88151,1.38818,-0.413497,0.374643,1.77682,-1.01243,-3.45085,0.880779,-0.985678,-11.5958,-3.246,-8.92828,10.5942,-4.07609,9.25279,5.46636,-1.72514,4.04675,-1.58034e-14,7.7526e-15,-30.5257,0.2561,-82.7572,30.5245,17.9426,-23.997,0.482626,7.12502,2.4803,-29.4827,-1.58034e-14,7.7526e-15,-30.1847,17.743,77.8387,25.2635,-3.46168,-18.2513,26.2502,7.12502,8.02783,56.0777,-15.3805,23.5423,15.6419,20.8835,-13.5079,-18.382,-3.31699,-13.3746,-3.15139,-19.0358,22.8274,-16.5266,15.8665,-6.02428
0.526387,18.8376,-13.4505,8.89805,-7.6951,-0.0768451,7.69114,1.04389,-0.713433,0.25978,1.28302,-0.990976,-4.03718,0.639579,-0.766379,-11.7735,-3.21211,-8.89456,10.2282,-3.99511,9.22075,5.37404,-1.68337,4.03393,-2.47984e-14,1.35174e-14,-30.2201,0.364696,-82.6806,30.7155,17.8213,-23.9413,0.846228,7.12502,2.53401,-29.1185,-2.47984e-14,1.35174e-14,-29.9737,17.3915,78.0924,25.7535,-3.26638,-17.8878,26.1558,7.12502,8.37861,55.9696,-16.7017,23.1788,15.0968,21.7035,-13.7609,-19.0782,-3.03008,-14.8303,-3.40272,-19.1097,23.328,-15.9563,15.1507,-6.39357
0.540769,18.8295,-13.4819,9.16779,-7.86165,0.120019,8.1468,1.10336,-0.905032,0.288588,1.33489,-1.05291,-4.2655,0.667868,-0.738514,-11.817,-3.13693,-8.85465,9.90446,-3.87433,9.20179,5.26861,-1.62421,4.02912,4.22417e-15,4.17448e-15,-30.0932,0.462752,-82.6069,31.0022,17.6077,-23.9142,1.13591,7.12502,2.56023,-28.8285,4.22417e-15,4.17448e-15,-29.9038,16.8466,78.3005,26.046,-3.16179,-17.9388,25.7692,7.12502,8.32936,55.585,-17.6874,23.2825,14.6175,22.5657,-13.939,-19.0993,-3.0658,-15.5174,-3.26868,-19.3527,23.8352,-16.0567,15.0782,-6.64924
0.551831,18.8192,-13.5199,9.55578,-7.8331,0.219664,8.52586,1.07673,-0.979223,0.313527,1.28421,-1.08742,-4.45333,0.6436,-0.734684,-11.8282,-3.05775,-8.77543,9.4922,-3.74918,9.1571,5.12902,-1.5642,4.00944,-3.13086e-14,-4.37326e-15,-29.9204,0.590908,-82.5882,31.3501,17.4316,-23.7336,0.900196,7.12502,2.73465,-29.062,-3.13086e-14,-4.37326e-15,-29.8219,16.3354,78.4821,26.3859,-2.87888,-18.1741,25.3756,7.12502,8.10228,55.2003,-18.781,23.2844,14.2458,23.4466,-14.1514,-19.1808,-3.22364,-16.3664,-3.14837,-19.4413,24.3155,-15.9814,14.9111,-6.95824
0.564463,18.8078,-13.556,9.85113,-7.87425,0.311904,8.90562,1.07323,-1.03242,0.426716,1.26592,-1.13824,-4.54846,0.634662,-0.76192,-11.7399,-3.01118,-8.52107,8.90089,-3.6755,8.94928,4.9165,-1.5365,3.90386,-6.65929e-15,-8.94531e-15,-29.7807,1.03733,-82.665,31.8548,16.9657,-23.5388,0.288669,7.12502,2.92274,-29.671,-6.65929e-15,-8.94531e-15,-29.5919,15.9361,78.6524,26.7339,-2.5482,-18.4568,25.2614,7.12502,7.82946,55.0964,-19.6694,23.3204,13.9147,24.2299,-14.4213,-19.1879,-3.23203,-17.0693,-3.07816,-19.539,24.7279,-15.9559,14.8297,-6.85644
0.577717,18.7941,-13.5842,10.0304,-8.14947,0.485227,9.36632,1.13631,-1.27649,0.549465,1.31482,-1.16586,-4.68329,0.662977,-0.668244,-11.6874,-2.97794,-8.45012,8.40175,-3.60025,8.80185,4.74341,-1.50933,3.84894,-8.00108e-15,1.59028e-15,-29.6623,1.75663,-82.727,32.3228,16.3524,-23.3765,-0.346148,7.12502,3.07952,-30.3037,-8.00108e-15,1.59028e-15,-29.4394,15.7007,78.8191,27.07,-2.39159,-18.6283,25.2144,7.12502,7.66388,55.0555,-20.479,23.5013,13.4906,25.0104,-14.6714,-19.1541,-3.44693,-17.6068,-2.87396,-19.7892,25.1585,-15.9955,14.8468,-6.91306
0.586858,18.7793,-13.6142,10.2222,-8.32583,0.654773,9.76656,1.1408,-1.56104,0.713276,1.28265,-1.16439,-4.74265,0.652201,-0.508872,-11.7794,-2.89196,-8.52585,8.02637,-3.44535,8.81801,4.63138,-1.43399,3.87661,9.29318e-15,7.55382e-15,-29.3401,2.30882,-82.7394,32.5529,15.9329,-23.5154,-0.257577,7.12502,2.94538,-30.217,9.29318e-15,7.55382e-15,-29.1996,15.3832,79.0117,27.351,-2.09264,-18.6635,25.3238,7.12502,7.62992,55.1662,-21.3267,23.6125,13.0956,25.7864,-14.8535,-19.1978,-3.66837,-18.1947,-2.67427,-19.9988,25.5999,-15.9973,14.7418,-6.94661
0.59405,18.7646,-13.6481,10.4289,-8.35295,0.757429,10.1549,1.11806,-1.72964,0.912752,1.22637,-1.16185,-4.75459,0.626759,-0.408963,-11.88,-2.78909,-8.54622,7.55778,-3.2732,8.85294,4.4902,-1.34723,3.90186,-1.26228e-14,-9.14409e-15,-28.8946,2.56087,-82.6919,32.5966,15.7415,-23.8173,0.399177,7.12502,2.65384,-29.5641,-1.26228e-14,-9.14409e-15,-28.926,15.006,79.2174,27.676,-1.7868,-18.704,25.1124,7.12502,7.59086,54.9562,-22.1716,23.6581,12.7976,26.5602,-15.0466,-19.2511,-3.70781,-18.8186,-2.55807,-20.0986,26.0435,-16.0072,14.5964,-7.19204
0.602805,18.7474,-13.683,10.6665,-8.3834,0.930011,10.6598,1.1202,-1.94363,0.958958,1.18815,-1.20212,-4.99151,0.61211,-0.335123,-11.7363,-2.7286,-8.47714,7.10581,-3.18514,8.82052,4.31891,-1.30852,3.88559,1.49089e-14,-6.95746e-15,-28.6998,2.72494,-82.6389,32.6478,15.6287,-23.8969,0.821421,7.12502,2.57694,-29.1428,1.49089e-14,-6.95746e-15,-28.9168,14.4122,79.3672,28.043,-1.32001,-18.9248,24.816,7.12502,7.37777,54.6673,-23.0692,23.6951,12.3951,27.3261,-15.2363,-19.3296,-3.78209,-19.5101,-2.39296,-20.2884,26.5284,-16.0389,14.4067,-7.34891
0.613408,18.7307,-13.7161,10.8887,-8.38858,1.15398,11.2044,1.12081,-2.17379,1.01085,1.14047,-1.27055,-5.24378,0.59327,-0.280481,-11.711,-2.71066,-8.43175,6.74736,-3.15235,8.84003,4.20232,-1.29184,3.88529,1.10325e-14,-2.38542e-14,-28.5083,2.83625,-82.6024,32.7901,15.4448,-23.8934,1.00622,7.12502,2.58029,-28.9579,1.10325e-14,-2.38542e-14,-28.836,13.9112,79.4676,28.233,-1.14346,-19.0779,24.975,7.12502,7.22995,54.8315,-23.9005,23.6844,11.9456,28.0886,-15.4989,-19.3407,-3.51172,-20.1848,-2.24148,-20.5386,27.0365,-16.1629,14.1197,-7.02408
0.624141,18.7128,-13.75,11.1407,-8.35721,1.2917,11.6334,1.08931,-2.30006,1.16341,1.06885,-1.30525,-5.32338,0.559617,-0.240725,-11.897,-2.64014,-8.37343,6.42373,-3.03217,8.80874,4.12227,-1.22974,3.87271,-2.00773e-14,-2.34566e-14,-28.1318,2.82296,-82.5169,32.9291,15.4551,-23.9128,1.38948,7.12502,2.56161,-28.5749,-2.00773e-14,-2.34566e-14,-28.5651,13.5341,79.5829,28.3831,-1.16616,-18.9785,24.9231,7.12502,7.32593,54.7763,-24.7452,23.6293,11.5819,28.8315,-15.7835,-19.3128,-3.18591,-20.8967,-2.12436,-20.6923,27.5585,-16.2166,13.8722,-6.84488
0.634567,18.6929,-13.7832,11.4403,-8.30243,1.40145,11.9422,1.07007,-2.38771,1.29731,1.02294,-1.31618,-5.35505,0.537942,-0.19937,-11.8176,-2.58332,-8.3145,5.97273,-2.93917,8.73331,3.96177,-1.1898,3.84474,1.43125e-14,-2.98177e-14,-27.823,2.94272,-82.3977,33.101,15.2767,-23.9254,1.21602,7.12502,2.54939,-28.7485,1.43125e-14,-2.98177e-14,-28.2995,12.9551,79.796,28.5164,-0.957145,-19.0893,24.7369,7.12502,7.21893,54.5937,-25.6281,23.5416,11.2388,29.5398,-16.0231,-19.2856,-3.0251,-21.6521,-2.07143,-20.8074,28.0564,-16.2438,13.6652,-7.04006
0.644932,18.6746,-13.8112,11.725,-8.20203,1.52326,12.2989,1.04602,-2.49431,1.36458,0.965173,-1.31414,-5.4835,0.512038,-0.13329,-11.6203,-2.57165,-8.29622,5.54181,-2.91498,8.70566,3.79598,-1.18476,3.83414,-2.38542e-15,2.10712e-14,-27.6525,3.11208,-82.274,33.2285,15.0836,-24.1419,0.748017,7.12502,2.34029,-29.2189,-2.38542e-15,2.10712e-14,-28.0982,12.3719,79.9926,28.5403,-0.82332,-19.1186,25.015,7.12502,7.19071,54.8728,-26.4142,23.4085,10.9094,30.2021,-16.3568,-19.2502,-2.81475,-22.3797,-2.00978,-20.9382,28.5626,-16.3109,13.4155,-7.02947
0.657119,18.6596,-13.8372,11.9908,-8.09887,1.69906,12.7005,1.00265,-2.63778,1.4224,0.87282,-1.33129,-5.646,0.470232,-0.0609373,-11.6091,-2.52344,-8.25415,5.25993,-2.83943,8.67119,3.70103,-1.14946,3.82098,1.83876e-14,-1.17283e-14,-27.4939,3.2537,-82.1801,33.3185,14.9563,-24.3123,0.735749,7.12502,2.17576,-29.2329,1.83876e-14,-1.17283e-14,-27.9229,12.0975,80.0555,28.4866,-0.878543,-19.0521,25.1336,7.12502,7.25483,54.9892,-27.1815,23.2377,10.5088,30.8338,-16.6456,-19.1569,-2.72457,-23.0832,-1.90544,-21.1542,29.0488,-16.3187,13.1805,-7.25559
0.668037,18.6414,-13.8694,12.3513,-7.92418,1.82619,13.0379,0.917108,-2.69222,1.49351,0.73852,-1.36026,-5.75592,0.405547,-0.0415657,-11.6927,-2.45799,-8.14214,5.0079,-2.74345,8.60038,3.62734,-1.10219,3.78611,2.74323e-14,5.76476e-15,-27.2206,3.245,-82.1045,33.3931,14.8738,-24.1652,0.603878,7.12502,2.31783,-29.3633,2.74323e-14,5.76476e-15,-27.6483,11.8201,80.0689,28.4243,-0.907665,-19.1162,24.7623,7.12502,7.19298,54.62,-28.0528,23.0529,10.1224,31.4207,-16.8611,-19.1287,-2.70453,-23.9132,-1.7662,-21.313,29.5165,-16.2202,12.8669,-7.52652
0.677577,18.624,-13.9041,12.7191,-7.70169,1.94196,13.4449,0.809156,-2.72372,1.51156,0.573795,-1.38558,-5.95941,0.32681,-0.0261988,-11.7301,-2.40435,-8.06028,4.81676,-2.66867,8.56812,3.56762,-1.06501,3.76712,-5.86415e-15,-1.55052e-14,-27.0575,3.31399,-82.0578,33.5756,14.618,-24.0567,0.410487,7.12502,2.42262,-29.5555,-5.86415e-15,-1.55052e-14,-27.4867,11.3671,80.0769,28.4786,-0.717347,-19.2339,24.6407,7.12502,7.07938,54.5023,-28.8985,22.8012,9.7891,31.966,-17.0184,-19.1024,-2.98199,-24.7439,-1.61305,-21.4585,29.9648,-16.0911,12.5241,-7.8392
0.688312,18.609,-13.9259,12.8757,-7.58604,2.05297,13.9251,0.759511,-2.73922,1.58874,0.486054,-1.4189,-6.14182,0.284688,-0.0413949,-11.7878,-2.37145,-7.9912,4.69742,-2.62036,8.51233,3.53496,-1.04164,3.74117,-7.95139e-16,-6.95746e-15,-26.9927,3.39915,-81.9973,33.7669,14.4327,-24.1767,0.507329,7.12502,2.30669,-29.4599,-7.95139e-16,-6.95746e-15,-27.3653,10.9356,80.0829,28.4833,-0.633414,-19.4894,24.8688,7.12502,6.83269,54.7385,-29.4406,22.7265,9.52881,32.4813,-17.2568,-19.0977,-3.04459,-25.2811,-1.41397,-21.6302,30.44,-16.1261,12.1916,-7.89321
0.698407,18.5925,-13.9398,13.0265,-7.51053,2.06634,14.2442,0.752212,-2.66537,1.74387,0.477735,-1.43246,-6.15267,0.27751,-0.0979728,-11.83,-2.37339,-7.96088,4.48765,-2.61482,8.52395,3.47777,-1.03765,3.7395,-2.48481e-15,-1.59028e-14,-26.8159,3.2306,-81.8684,33.8792,14.3466,-24.2251,0.882229,7.12502,2.26001,-29.0855,-2.48481e-15,-1.59028e-14,-27.0785,10.5286,80.118,28.3316,-0.569333,-19.6883,24.8592,7.12502,6.64073,54.7351,-29.9197,22.677,9.39333,32.9845,-17.4971,-19.1043,-3.0153,-25.7776,-1.16177,-21.7054,30.9399,-16.2368,11.8252,-7.94048
0.704471,18.5724,-13.963,13.3018,-7.35487,2.02772,14.5455,0.710973,-2.59176,1.85151,0.42797,-1.39756,-6.20342,0.251461,-0.0953112,-11.8367,-2.34443,-7.99237,4.27125,-2.56146,8.55016,3.40983,-1.01126,3.75595,-6.95746e-16,-8.34896e-15,-26.5991,3.20674,-81.7695,33.9779,13.9411,-24.1663,0.722256,7.12502,2.31672,-29.2449,-6.95746e-16,-8.34896e-15,-26.7543,10.2897,80.1266,28.1211,-0.475125,-19.6113,24.5335,7.12502,6.71509,54.4071,-30.5525,22.5175,9.2944,33.4661,-17.6855,-19.0355,-2.59037,-26.4651,-0.978632,-21.68,31.4414,-16.3166,11.4583,-7.8962
0.709637,18.5503,-13.9889,13.5947,-7.19684,1.97158,14.8821,0.654956,-2.54466,1.95132,0.35566,-1.33107,-6.28164,0.215722,-0.0398036,-11.9584,-2.31862,-8.09623,4.11273,-2.49901,8.61307,3.37861,-0.97719,3.79612,1.07344e-14,7.7526e-15,-26.3576,3.16131,-81.6305,34.0672,13.7243,-23.8966,0.280159,7.12502,2.57717,-29.684,1.07344e-14,7.7526e-15,-26.4421,10.2351,80.1217,27.9272,-0.544325,-19.6393,24.5237,7.12502,6.68799,54.398,-31.2357,22.3479,9.2102,33.9457,-17.8344,-18.9605,-2.07883,-27.181,-0.886935,-21.613,31.918,-16.3294,11.1931,-7.97757
0.71698,18.5342,-14.0063,13.8197,-7.0314,1.98043,15.1832,0.611135,-2.50597,2.04666,0.296745,-1.30852,-6.34469,0.186189,-0.0278895,-11.8981,-2.32591,-8.01406,3.82433,-2.5042,8.52546,3.27983,-0.984769,3.75447,-3.18055e-15,-1.49089e-14,-26.2318,3.05216,-81.4906,34.061,13.6841,-23.9267,0.127063,7.12502,2.54811,-29.8375,-3.18055e-15,-1.49089e-14,-26.2489,10.0164,80.1048,27.8422,-0.688963,-19.6347,24.8754,7.12502,6.69249,54.7496,-31.7996,22.1446,9.09222,34.4293,-18.0298,-18.8912,-1.61733,-27.7581,-0.850768,-21.6312,32.3641,-16.4126,10.9525,-8.10113
0.723188,18.5212,-14.0205,13.982,-6.87133,2.15593,15.5256,0.592168,-2.66963,2.11869,0.234497,-1.29322,-6.4558,0.160386,0.0913519,-11.7582,-2.31777,-7.95582,3.55575,-2.49129,8.43138,3.17295,-0.985629,3.71643,3.97569e-15,2.16675e-14,-26.1537,2.83481,-81.2836,33.8741,13.9014,-24.2011,0.458172,7.12502,2.28315,-29.5094,3.97569e-15,2.16675e-14,-26.1499,9.87368,80.0887,27.7329,-0.923932,-19.5765,24.6263,7.12502,6.74867,54.4988,-32.2698,21.9581,8.82017,34.9085,-18.1804,-18.8883,-1.45143,-28.2401,-0.784858,-21.8502,32.7643,-16.4527,10.6972,-8.37181
0.728645,18.5049,-14.0386,14.1714,-6.6731,2.36232,15.9384,0.550198,-2.84758,2.13529,0.13373,-1.28564,-6.6632,0.117746,0.218385,-11.7179,-2.29002,-7.97556,3.47635,-2.44966,8.4286,3.13926,-0.966543,3.72154,-1.70955e-14,-4.57205e-15,-26.1582,2.72345,-81.1232,33.8365,13.9385,-24.337,-0.0648745,7.12502,2.15189,-30.0338,-1.70955e-14,-4.57205e-15,-26.1202,9.83314,80.0085,27.5635,-1.0373,-19.4792,24.1235,7.12502,6.84258,53.9929,-32.7893,21.7934,8.48838,35.3866,-18.3849,-18.8983,-1.00137,-28.7638,-0.80108,-22.0715,33.1175,-16.4712,10.4583,-7.51222
0.736216,18.4874,-14.0534,14.3564,-6.42314,2.46604,16.2692,0.475479,-2.82215,2.20363,0.0289854,-1.27811,-6.76901,0.0670267,0.233113,-11.7435,-2.2828,-7.97866,3.42063,-2.43354,8.40803,3.12491,-0.959153,3.71653,4.47266e-15,1.98785e-15,-26.166,2.70252,-81.0069,33.9505,13.562,-24.3647,-0.720848,7.12502,2.12511,-30.69,4.47266e-15,1.98785e-15,-26.0204,9.6916,79.9482,27.4359,-0.792225,-19.6008,24.0199,7.12502,6.7252,53.8931,-33.2498,21.538,8.31592,35.8552,-18.5941,-18.9086,-0.957873,-29.257,-0.798219,-22.1928,33.4622,-16.458,10.1958,-6.89452
0.743436,18.4698,-14.0611,14.5057,-6.19497,2.6064,16.4836,0.432012,-2.84522,2.31122,-0.0371994,-1.26952,-6.7694,0.034918,0.269458,-11.6621,-2.29843,-8.02367,3.27879,-2.4477,8.42724,3.07116,-0.968219,3.729,1.3418e-15,6.95746e-16,-26.1202,2.51481,-80.823,33.8946,13.3268,-24.4147,-0.506848,7.12502,2.07689,-30.4765,1.3418e-15,6.95746e-16,-25.9566,9.45553,79.9473,27.3703,-0.625146,-20.0757,23.9966,7.12502,6.26669,53.8839,-33.6267,21.2825,8.12706,36.3084,-18.8827,-18.8627,-0.985148,-29.6827,-0.752056,-22.3737,33.8192,-16.5033,9.8922,-6.98864
0.749164,18.4541,-14.0674,14.6503,-6.04723,2.6621,16.7881,0.425282,-2.87801,2.32379,-0.0591983,-1.20872,-6.92197,0.027423,0.356657,-11.4699,-2.31142,-8.15892,3.17409,-2.45854,8.50151,3.01254,-0.976813,3.77407,-3.03147e-15,1.83876e-14,-26.2795,2.40634,-80.6275,33.8597,13.1268,-24.5075,-0.57623,7.12502,1.98722,-30.5467,-3.03147e-15,1.83876e-14,-26.1576,9.27647,79.9463,27.4005,-0.578439,-20.2845,24.0719,7.12502,6.06514,53.9651,-34.0026,21.1577,8.0029,36.724,-19.0681,-18.8379,-1.00835,-30.0857,-0.718432,-22.4572,34.1696,-16.5408,9.72325,-6.56815
0.756023,18.4393,-14.0738,14.812,-5.93675,2.66492,17.1258,0.400077,-2.84339,2.29734,-0.0981921,-1.18294,-7.13432,0.0105593,0.372151,-11.2497,-2.2847,-8.10785,3.06819,-2.43685,8.44906,2.94203,-0.972572,3.75142,7.7526e-15,1.96797e-14,-26.5432,2.2015,-80.4817,33.804,13.1895,-24.7839,-0.233381,7.12502,1.72029,-30.2062,7.7526e-15,1.96797e-14,-26.4467,9.10419,79.8124,27.4302,-0.441527,-20.1443,24.2358,7.12502,6.20055,54.125,-34.3898,21.0052,7.93728,37.1004,-19.1431,-18.7656,-1.23215,-30.4878,-0.777239,-22.4596,34.4959,-16.6141,9.63017,-5.60663
0.763723,18.4261,-14.0781,14.986,-5.8217,2.69801,17.3195,0.370665,-2.77334,2.41458,-0.12896,-1.18961,-7.11322,-0.00733726,0.332402,-11.3882,-2.31673,-8.16402,3.00388,-2.46372,8.52379,2.94916,-0.980847,3.78157,-1.28216e-14,-2.52457e-14,-26.4683,1.81598,-80.3202,33.578,13.2103,-25.0884,0.224945,7.12502,1.42617,-29.75,-1.28216e-14,-2.52457e-14,-26.4444,9.01552,79.6899,27.3421,-0.287331,-20.5048,24.0523,7.12502,5.85242,53.9515,-34.7674,20.8166,7.83742,37.4462,-19.2571,-18.6959,-1.37741,-30.8808,-0.886143,-22.4879,34.7959,-16.6885,9.56868,-5.19985
0.770662,18.414,-14.0791,15.1687,-5.7217,2.78077,17.5696,0.357413,-2.75952,2.46266,-0.153479,-1.20538,-7.19747,-0.0191519,0.312951,-11.4601,-2.34588,-8.15692,2.94615,-2.49747,8.54762,2.94656,-0.995186,3.78535,-1.38155e-14,-6.36111e-15,-26.5489,1.53671,-80.1815,33.403,13.002,-25.2527,0.377728,7.12502,1.26751,-29.5983,-1.38155e-14,-6.36111e-15,-26.5049,8.91839,79.5671,27.1573,-0.229726,-20.9882,23.8449,7.12502,5.38575,53.7565,-35.1486,20.6174,7.6899,37.7834,-19.3831,-18.6611,-1.62072,-31.2486,-1.00155,-22.5759,35.0606,-16.7657,9.54122,-5.20042
0.775515,18.4012,-14.0783,15.2882,-5.67677,2.91786,17.7606,0.366917,-2.82472,2.52934,-0.162731,-1.25008,-7.22939,-0.0225956,0.304039,-11.3321,-2.33944,-8.06808,2.76821,-2.49924,8.51028,2.87106,-0.999822,3.75941,-5.26779e-15,9.14409e-15,-26.7728,1.35132,-80.0906,33.3724,12.8162,-25.4503,0.356268,7.12502,1.07667,-29.6208,-5.26779e-15,9.14409e-15,-26.6214,8.86214,79.389,27.0019,-0.127371,-21.143,23.546,7.12502,5.23629,53.4613,-35.4651,20.4876,7.49408,38.1164,-19.5011,-18.6519,-2.01885,-31.5154,-1.07027,-22.7275,35.283,-16.8615,9.50132,-5.17986
0.780124,18.389,-14.077,15.3972,-5.66031,3.04876,17.9879,0.386002,-2.89307,2.53895,-0.162973,-1.28964,-7.34287,-0.0202216,0.299866,-11.1167,-2.33574,-8.15348,2.60631,-2.49727,8.64272,2.79117,-0.999877,3.81535,0,-2.39536e-14,-27.0957,1.28145,-80.0139,33.3841,12.5888,-25.6327,0.106934,7.12502,0.900504,-29.8709,0,-2.39536e-14,-26.9466,8.78241,79.1754,26.9529,0.00289822,-21.0272,23.1629,7.12502,5.34806,53.0754,-35.7745,20.3574,7.30724,38.4581,-19.672,-18.5751,-2.06282,-31.7448,-1.0918,-22.8832,35.4606,-16.9519,9.4442,-5.19614
0.784787,18.379,-14.0731,15.5395,-5.63486,3.17994,18.2193,0.403179,-2.95652,2.53594,-0.165267,-1.32389,-7.47213,-0.0185641,0.298944,-11.0363,-2.3479,-8.27709,2.54978,-2.50678,8.76856,2.76585,-1.00314,3.87436,2.33572e-15,4.57205e-15,-27.4128,1.19163,-79.915,33.3709,12.37,-25.6662,-0.0820702,7.12502,0.868132,-30.06,2.33572e-15,4.57205e-15,-27.3322,8.76372,78.935,26.9641,-0.0847402,-20.7407,23.2603,7.12502,5.62471,53.1657,-36.0939,20.1435,7.14817,38.7984,-19.732,-18.5202,-2.12055,-31.9827,-1.14251,-23.039,35.6033,-16.9749,9.41503,-5.08358
0.789337,18.3697,-14.072,15.7123,-5.51888,3.39678,18.4497,0.4011,-3.07609,2.55093,-0.204275,-1.36682,-7.58005,-0.0333268,0.329564,-11.0192,-2.38594,-8.29506,2.4712,-2.55351,8.78443,2.74411,-1.02664,3.87942,-1.4561e-14,-2.4202e-14,-27.7595,1.12001,-79.7997,33.4272,12.0289,-25.7291,0.113663,7.12502,0.807418,-29.8646,-1.4561e-14,-2.4202e-14,-27.6625,8.69881,78.728,26.9073,-0.1701,-20.5784,23.508,7.12502,5.78139,53.4091,-36.4329,19.8242,6.90936,39.1291,-19.8032,-18.4507,-1.93096,-32.2631,-1.24651,-23.2717,35.7113,-16.9584,9.33401,-5.13148
0.794698,18.3609,-14.0695,15.8916,-5.37415,3.56849,18.624,0.377243,-3.15542,2.60435,-0.258965,-1.3893,-7.61508,-0.0575398,0.363724,-11.0608,-2.40229,-8.25618,2.35335,-2.5707,8.76623,2.71617,-1.03498,3.86613,-1.82882e-14,-1.22253e-14,-28.013,1.04007,-79.6991,33.3342,11.8498,-25.9279,0.336721,7.12502,0.61539,-29.6421,-1.82882e-14,-1.22253e-14,-27.9284,8.8513,78.4834,26.6615,-0.329282,-20.7859,23.2567,7.12502,5.58106,53.1632,-36.7212,19.5118,6.72395,39.4017,-19.8829,-18.3763,-2.11684,-32.5258,-1.34281,-23.457,35.8078,-16.9606,9.24092,-5.17043
0.800814,18.3544,-14.0587,16.0631,-5.37881,3.69533,18.7121,0.394957,-3.20985,2.68916,-0.252977,-1.44758,-7.57111,-0.0551702,0.330624,-11.2585,-2.41308,-8.15771,2.29693,-2.58199,8.76567,2.73076,-1.0354,3.84828,6.23687e-15,9.83984e-15,-28.2215,0.8506,-79.6305,33.1481,11.8137,-25.9593,-0.0811683,7.12502,0.585055,-30.0601,6.23687e-15,9.83984e-15,-28.2105,9.07902,78.1463,26.3866,-0.42911,-21.1668,22.8084,7.12502,5.21326,52.7243,-36.9847,19.2947,6.54827,39.6127,-19.96,-18.2307,-1.94186,-32.7246,-1.36564,-23.6251,35.8836,-17.0284,9.22031,-5.15349
0.804257,18.35,-14.0439,16.2935,-5.49377,3.67144,18.7635,0.484483,-3.23055,2.70863,-0.143222,-1.46127,-7.58104,-0.00223574,0.300355,-11.3439,-2.43304,-8.05021,2.23916,-2.6157,8.77796,2.72897,-1.0489,3.83202,6.93262e-15,-8.24956e-15,-28.6254,0.767135,-79.5705,33.1,11.5682,-25.8546,-0.695521,7.12502,0.686211,-30.6742,6.93262e-15,-8.24956e-15,-28.6755,9.06763,77.8625,26.1674,-0.432633,-21.7008,22.5552,7.12502,4.69772,52.4831,-37.315,19.2284,6.47643,39.7574,-19.9434,-18.1512,-1.93342,-32.9629,-1.33548,-23.6289,35.9501,-17.0884,9.30761,-5.28202
0.807662,18.3471,-14.0306,16.516,-5.53648,3.70424,18.8893,0.547079,-3.31866,2.70307,-0.0822355,-1.42617,-7.65684,0.0308977,0.372413,-11.4214,-2.45523,-8.03478,2.20423,-2.63594,8.6996,2.73089,-1.06026,3.80361,6.33626e-15,8.89561e-15,-29.0953,0.898143,-79.4732,33.1984,11.0126,-26.2359,-0.0573281,7.12502,0.317939,-30.0368,6.33626e-15,8.89561e-15,-29.1886,9.06963,77.6476,25.8471,-0.433261,-22.139,22.5387,7.12502,4.27453,52.4755,-37.6062,19.1127,6.36169,39.8546,-19.9423,-18.1019,-2.1184,-33.1899,-1.3769,-23.6747,35.9856,-17.1463,9.37589,-5.36229
0.81215,18.3459,-14.018,16.7087,-5.47816,3.75465,19.0813,0.559234,-3.35663,2.69488,-0.078615,-1.37235,-7.76985,0.0360028,0.450202,-11.4841,-2.46571,-8.11294,2.09481,-2.62644,8.65759,2.7074,-1.05701,3.80372,3.63403e-15,1.717e-14,-29.493,0.985206,-79.3335,33.077,10.7123,-27.033,1.56599,7.12502,-0.451949,-28.4133,3.63403e-15,1.717e-14,-29.7298,9.20925,77.3876,25.4382,-0.375283,-22.4377,22.2482,7.12502,3.98607,52.1906,-37.7739,18.9047,6.28353,39.9208,-19.9934,-17.9929,-2.348,-33.3836,-1.45611,-23.7238,36.0105,-17.2222,9.33872,-5.18104
0.816018,18.3459,-13.9995,16.9296,-5.48391,3.81863,19.1636,0.576112,-3.39526,2.68865,-0.0693515,-1.38193,-7.82155,0.042147,0.459032,-11.5296,-2.48837,-8.19603,1.99355,-2.64257,8.76191,2.68874,-1.06128,3.84851,4.23039e-15,-2.29845e-15,-30.0592,1.04844,-79.2635,32.9734,10.677,-26.9711,1.07324,7.12502,-0.392153,-28.9061,4.23039e-15,-2.29845e-15,-30.3234,9.41988,76.9688,24.9992,-0.501001,-22.9017,21.6621,7.12502,3.538,51.6125,-37.9562,18.7461,6.15892,39.982,-20.072,-17.8721,-2.07842,-33.5754,-1.36204,-23.8419,36.027,-17.2658,9.2137,-5.11373
0.819139,18.3447,-13.9828,17.1591,-5.53012,3.80352,19.2715,0.60127,-3.3972,2.68453,-0.0429997,-1.39032,-7.88549,0.0555089,0.443791,-11.5337,-2.49703,-8.14829,1.84646,-2.65556,8.80608,2.64675,-1.06617,3.8536,-6.6158e-15,5.9946e-15,-30.7444,1.17011,-79.2371,32.9834,10.6279,-27.1053,1.09377,7.12502,-0.521803,-28.8853,-6.6158e-15,5.9946e-15,-30.9623,9.73353,76.4477,24.5758,-0.883368,-23.0727,21.6611,7.12502,3.37294,51.6141,-38.1979,18.6209,6.11279,40.037,-20.0582,-17.8024,-2.01809,-33.7891,-1.17381,-23.8936,36.0471,-17.2774,9.08556,-5.19326
0.822205,18.341,-13.9679,17.3915,-5.619,3.7911,19.3831,0.641252,-3.42221,2.69859,5.93127e-06,-1.37809,-7.93205,0.0773726,0.459691,-11.6073,-2.48338,-8.14423,1.64516,-2.62257,8.81452,2.59549,-1.04864,3.85735,-1.52738e-14,-8.65956e-15,-31.2445,1.32266,-79.1717,32.7699,10.5115,-27.1217,1.23114,7.12502,-0.53761,-28.7479,-1.52738e-14,-8.65956e-15,-31.6417,10.1183,75.9326,24.2044,-1.23513,-22.9891,22.1441,7.12502,3.45359,52.0959,-38.484,18.5146,6.04803,40.098,-20.0627,-17.6944,-2.11578,-34.0103,-1.02343,-23.9289,36.0761,-17.3109,8.96995,-5.63404
0.824835,18.3393,-13.9509,17.5915,-5.67359,3.81766,19.5078,0.681813,-3.45558,2.71949,0.0417937,-1.36361,-7.97823,0.0988849,0.482956,-11.7052,-2.51151,-8.1821,1.44329,-2.63665,8.79808,2.55193,-1.05524,3.8573,-1.28527e-14,1.28465e-14,-31.6495,1.35927,-79.0366,32.3898,10.616,-27.0383,1.0694,7.12502,-0.457049,-28.9099,-1.28527e-14,1.28465e-14,-32.3548,10.663,75.3601,23.7825,-1.77122,-23.0011,22.1394,7.12502,3.44201,52.0913,-38.6829,18.4035,5.96562,40.1591,-20.0959,-17.5847,-2.47781,-34.1874,-0.945736,-23.986,36.1466,-17.4337,8.81347,-6.58552
0.825208,18.3372,-13.9367,17.9531,-5.54925,3.84809,19.5389,0.644814,-3.45473,2.64629,-0.00740467,-1.33749,-8.0734,0.0778207,0.522756,-11.688,-2.5182,-8.13073,1.25651,-2.64061,8.7225,2.49146,-1.06075,3.82546,-1.20886e-14,-3.97569e-16,-32.1845,1.46546,-78.954,32.0492,10.677,-27.1332,0.588501,7.12502,-0.548713,-29.3905,-1.20886e-14,-3.97569e-16,-33.1969,10.9454,74.7896,23.3321,-2.13278,-23.4193,21.7361,7.12502,3.03819,51.6942,-39.0171,18.1491,5.8877,40.2432,-20.169,-17.5558,-2.92383,-34.5938,-0.853502,-24.0421,36.2587,-17.4485,8.54787,-7.42987
0.824661,18.3311,-13.9239,18.4994,-5.40073,3.76147,19.3732,0.574585,-3.35442,2.53993,-0.0695425,-1.29764,-8.0976,0.0471897,0.525024,-11.6475,-2.45903,-8.00962,1.03125,-2.5654,8.63779,2.40815,-1.0273,3.78438,-1.4238e-14,-3.04389e-15,-32.775,1.56587,-78.9101,31.659,10.699,-27.5171,0.755407,7.12502,-0.919538,-29.2224,-1.4238e-14,-3.04389e-15,-34.0547,11.07,74.2003,22.9052,-2.35368,-23.4133,21.9474,7.12502,3.04399,51.9054,-39.5932,17.9337,5.84921,40.3283,-20.2201,-17.5953,-3.0998,-35.2443,-0.719815,-23.9702,36.4019,-17.4261,8.26608,-7.61323
0.82487,18.3242,-13.9075,18.8548,-5.3391,3.70685,19.3702,0.528876,-3.27941,2.50741,-0.113905,-1.29325,-8.13018,0.0245288,0.49842,-11.7423,-2.41559,-7.89246,0.877524,-2.50556,8.55818,2.36927,-0.99814,3.74395,4.32978e-15,7.06928e-15,-33.2795,1.67739,-78.8587,31.1778,10.7743,-27.8391,1.1703,7.12502,-1.2305,-28.8059,4.32978e-15,7.06928e-15,-34.8749,11.2873,73.5312,22.4563,-2.69895,-23.1956,22.3844,7.12502,3.25422,52.3393,-39.9661,17.8105,5.82111,40.4182,-20.332,-17.6184,-3.13327,-35.6729,-0.57851,-23.9529,36.5626,-17.4566,8.10346,-7.80936
0.826294,18.3198,-13.8856,19.0426,-5.29584,3.67593,19.4762,0.510642,-3.18597,2.56146,-0.122539,-1.30604,-8.12865,0.0168346,0.433653,-11.9708,-2.43796,-7.86886,0.7592,-2.51971,8.60411,2.37183,-0.99904,3.75265,1.0312e-15,-1.59773e-14,-33.6992,1.79598,-78.8062,30.6475,10.7015,-27.7728,1.51453,7.12502,-1.16648,-28.462,1.0312e-15,-1.59773e-14,-35.6006,11.6633,72.7866,21.8771,-3.2841,-23.0723,22.3699,7.12502,3.37325,52.323,-40.1045,17.712,5.83341,40.481,-20.4615,-17.5763,-3.34729,-35.8907,-0.545521,-23.933,36.7384,-17.5296,8.01807,-7.82391
0.827872,18.3155,-13.8626,19.2663,-5.3157,3.65503,19.4955,0.510373,-3.17467,2.62291,-0.119133,-1.30019,-8.0721,0.0169778,0.433002,-12.112,-2.44268,-7.86281,0.514578,-2.50589,8.62423,2.3201,-0.989492,3.75849,-3.01283e-15,1.46604e-15,-34.2034,2.05111,-78.8122,30.2533,10.2476,-27.8267,1.68001,7.12502,-1.21852,-28.2963,-3.01283e-15,1.46604e-15,-36.3857,12.0367,72.0615,21.3938,-3.81469,-22.9525,22.5188,7.12502,3.48892,52.47,-40.3148,17.6234,5.81095,40.5568,-20.5038,-17.5213,-3.5665,-36.1365,-0.486739,-23.9436,36.888,-17.6085,7.98769,-8.16165
0.828844,18.3127,-13.8394,19.4941,-5.34435,3.51029,19.5852,0.514099,-3.08354,2.63095,-0.0957326,-1.26327,-8.11277,0.0263015,0.414781,-12.137,-2.4391,-7.74927,0.223482,-2.49725,8.53645,2.23318,-0.988581,3.71368,2.73329e-16,6.32384e-15,-34.8118,2.16256,-78.7567,29.9332,10.075,-28.4729,2.39323,7.12502,-1.84263,-27.5786,2.73329e-16,6.32384e-15,-37.2856,12.4575,71.2578,20.9343,-4.46272,-22.7823,22.9209,7.12502,3.65329,52.8693,-40.5362,17.6342,5.89324,40.6339,-20.6206,-17.433,-3.39398,-36.3809,-0.40081,-23.8062,37.0308,-17.7422,7.90647,-8.06928
0.829585,18.3074,-13.8141,19.6498,-5.34772,3.55183,19.7217,0.533042,-3.10383,2.68183,-0.0813917,-1.28073,-8.13159,0.0332841,0.403431,-12.2557,-2.47999,-7.67368,0.0229368,-2.54235,8.46934,2.19326,-1.01154,3.67781,7.47927e-15,1.95182e-14,-35.3214,1.98546,-78.5454,29.5084,10.2853,-29.0195,3.06791,7.12502,-2.37058,-26.8987,7.47927e-15,1.95182e-14,-38.1053,12.7805,70.4819,20.452,-5.05786,-22.7605,22.8778,7.12502,3.67438,52.8259,-40.6811,17.5387,5.8231,40.7507,-20.786,-17.3045,-3.21419,-36.5467,-0.345575,-23.888,37.1778,-17.7997,7.83697,-8.22409
0.829895,18.2989,-13.7937,19.7731,-5.3132,3.57929,20.0283,0.543488,-3.09149,2.69337,-0.0787004,-1.28644,-8.28517,0.0357935,0.388261,-12.2923,-2.51143,-7.70709,-0.223801,-2.56526,8.47704,2.12758,-1.02321,3.6847,2.45996e-15,2.85753e-15,-35.8731,1.72764,-78.2552,29.0129,10.7119,-27.9965,2.39755,7.12502,-1.38252,-27.5777,2.45996e-15,2.85753e-15,-38.9592,13.3551,69.5334,19.8843,-5.99419,-22.9992,22.3059,7.12502,3.44388,52.2578,-40.8136,17.4736,5.76961,40.8945,-20.9553,-17.2797,-3.2104,-36.7291,-0.30447,-23.9458,37.3502,-17.7985,7.79732,-8.61944
0.829825,18.29,-13.7736,19.9221,-5.29757,3.55606,20.2881,0.554919,-3.07283,2.70837,-0.0701457,-1.28055,-8.40963,0.0406632,0.38068,-12.2849,-2.53608,-7.79363,-0.539374,-2.5759,8.61952,2.03703,-1.02581,3.74304,-5.23052e-15,1.46479e-14,-36.4956,1.52199,-77.9752,28.5511,11.3366,-27.5244,2.45697,7.12502,-0.926576,-27.5208,-5.23052e-15,1.46479e-14,-39.7837,13.9925,68.5069,19.2996,-6.97639,-23.9093,21.0979,7.12502,2.565,51.0622,-40.9974,17.4683,5.75196,41.0843,-21.1491,-17.3346,-3.19801,-36.9542,-0.265489,-23.9407,37.5413,-17.8647,7.75887,-8.6772
0.829697,18.2815,-13.7482,20.0881,-5.32246,3.62873,20.3715,0.587677,-3.1333,2.77658,-0.0463923,-1.32367,-8.38051,0.0522628,0.361895,-12.3479,-2.56342,-7.8301,-0.829926,-2.5933,8.76209,1.96512,-1.03023,3.79254,-7.4917e-15,1.12562e-14,-37.0585,1.11346,-77.6618,27.9925,12.3152,-28.4737,3.63579,7.12502,-1.84339,-26.336,-7.4917e-15,1.12562e-14,-40.5896,14.3755,67.5933,18.8579,-7.79962,-24.0981,20.9357,7.12502,2.38257,50.9022,-41.2003,17.4177,5.63692,41.3005,-21.2926,-17.3735,-3.48384,-37.1907,-0.239538,-24.0461,37.7764,-17.9804,7.70852,-8.6516
0.82708,18.2704,-13.7221,20.2337,-5.2052,3.65857,20.5554,0.554536,-3.10387,2.80263,-0.0914913,-1.33684,-8.45002,0.0303604,0.342367,-12.455,-2.56175,-7.81554,-1.00322,-2.57844,8.8053,1.9297,-1.02005,3.80441,-3.81418e-15,1.37783e-14,-37.6328,0.91612,-77.4364,27.4702,12.6579,-28.8869,4.07992,7.12502,-2.24252,-25.888,-3.81418e-15,1.37783e-14,-41.5293,14.6602,66.6946,18.5137,-8.4987,-22.7169,22.5858,7.12502,3.71644,52.5332,-41.3527,17.2559,5.65509,41.5572,-21.4674,-17.3743,-3.60075,-37.4264,-0.271259,-24.0679,38.0747,-18.1498,7.62138,-8.86029
0.826143,18.2568,-13.696,20.415,-4.99646,3.6416,20.7277,0.485335,-2.96855,2.79146,-0.156892,-1.31394,-8.55381,-0.00321403,0.307336,-12.3484,-2.58587,-7.7991,-1.31693,-2.60414,8.81072,1.82154,-1.03693,3.80342,-2.03754e-15,6.73383e-15,-38.2777,0.677995,-77.1457,27.0108,12.6854,-28.8578,4.11981,7.12502,-2.21435,-25.8484,-2.03754e-15,6.73383e-15,-42.527,14.9867,65.7588,18.185,-9.15039,-21.4783,23.8418,7.12502,4.9125,53.7649,-41.5331,17.0081,5.74435,41.8558,-21.6948,-17.3058,-3.55705,-37.7175,-0.371819,-24.0051,38.4179,-18.3742,7.48073,-8.56292
0.827217,18.2351,-13.6748,20.6345,-4.96802,3.63768,20.8237,0.489014,-2.93813,2.81749,-0.147454,-1.30191,-8.57726,0.000578052,0.300306,-12.3302,-2.63447,-7.86835,-1.63452,-2.64657,8.89045,1.7302,-1.05798,3.8382,-2.93207e-15,-1.98785e-16,-38.8409,0.419157,-76.8219,26.5009,13.0377,-28.9452,3.79218,7.12502,-2.29875,-26.1752,-2.93207e-15,-1.98785e-16,-43.4013,15.3504,64.844,17.8255,-9.9038,-21.0675,24.184,7.12502,5.30917,54.0975,-41.8656,16.8432,5.71361,42.1875,-21.9313,-17.1392,-3.35695,-38.1086,-0.350834,-24.015,38.8235,-18.6407,7.31571,-7.96423
0.825001,18.2121,-13.6564,20.7453,-4.92884,3.76013,21.0367,0.503524,-3.06203,2.899,-0.163719,-1.31054,-8.60145,-0.00357903,0.365766,-12.4346,-2.6721,-7.91967,-1.88861,-2.67074,8.9363,1.67442,-1.06775,3.85991,-3.35449e-15,2.50966e-15,-39.3504,0.118171,-76.4684,26.0559,13.6369,-28.8474,3.12206,7.12502,-2.2043,-26.8463,-3.35449e-15,2.50966e-15,-44.1493,16.0043,63.7508,17.3442,-10.9041,-20.9245,24.2495,7.12502,5.44723,54.1595,-42.1385,16.7141,5.57788,42.5678,-22.1744,-17.0559,-3.25935,-38.4273,-0.389695,-24.1385,39.2699,-18.8584,7.23378,-7.95884
0.822409,18.1883,-13.6359,20.9378,-5.00193,3.7779,21.0881,0.583602,-3.1447,3.00848,-0.0768026,-1.30375,-8.51075,0.0383638,0.3966,-12.5195,-2.73773,-7.98759,-2.22544,-2.72711,8.99083,1.59414,-1.0942,3.88574,7.70291e-16,-7.25564e-15,-39.7895,-0.346081,-76.0331,25.6674,14.1642,-28.7671,2.70913,7.12502,-2.12678,-27.26,7.70291e-16,-7.25564e-15,-44.8031,16.4351,62.8649,17.0122,-11.5468,-20.8366,24.2012,7.12502,5.53216,54.109,-42.5802,16.6593,5.47844,43.0332,-22.4788,-16.9039,-2.97327,-38.8459,-0.366359,-24.1702,39.7714,-19.1591,7.19734,-7.87751
0.814938,18.1588,-13.6214,21.1653,-4.6511,3.80481,21.2247,0.498515,-3.05194,3.088,-0.163125,-1.2377,-8.49394,-0.00492785,0.439791,-12.541,-2.77873,-8.02614,-2.65308,-2.75306,9.00519,1.47316,-1.10851,3.89704,6.65929e-15,1.63997e-15,-40.2018,-0.85869,-75.5761,25.3786,14.5189,-28.533,2.31843,7.12502,-1.90066,-27.6528,6.65929e-15,1.63997e-15,-45.4419,16.7885,62.0825,16.8126,-11.97,-20.7895,24.3385,7.12502,5.57762,54.2451,-42.9607,16.3138,5.55481,43.6022,-22.8914,-16.7612,-2.44546,-39.3464,-0.557077,-24.0834,40.32,-19.4068,6.99598,-7.56785
0.801335,18.1225,-13.6217,21.5244,-4.06887,3.9557,21.4329,0.33726,-2.9772,3.0808,-0.360288,-1.2087,-8.60798,-0.0981587,0.483748,-12.6283,-2.82935,-7.92844,-2.97501,-2.81133,8.97326,1.39375,-1.13906,3.86922,-1.15792e-14,-1.26725e-14,-40.6978,-1.2303,-75.2997,25.1724,14.6343,-28.2388,1.9509,7.12502,-1.61653,-28.0227,-1.15792e-14,-1.26725e-14,-45.9553,17.2347,61.0888,16.5018,-12.3858,-20.5876,24.4885,7.12502,5.7725,54.3899,-43.5182,15.7198,5.58309,44.2662,-23.2973,-16.7187,-2.26245,-40.0959,-0.851044,-24.0605,40.9095,-19.5736,6.6597,-7.40559
0.795722,18.0821,-13.6187,21.9826,-3.97167,4.06302,21.4365,0.338374,-3.01891,3.07309,-0.372114,-1.2486,-8.61808,-0.102709,0.467249,-12.8722,-2.91797,-7.90879,-3.12827,-2.90961,9.03341,1.39526,-1.18247,3.87852,7.20594e-15,-8.49804e-15,-41.058,-1.52765,-75.0579,24.7209,14.8458,-28.3891,2.33626,7.12502,-1.76173,-27.6362,7.20594e-15,-8.49804e-15,-46.4555,17.6557,60.1288,16.207,-12.7872,-20.4185,24.673,7.12502,5.93575,54.5698,-44.3765,15.2774,5.45699,44.9803,-23.5268,-16.5171,-2.56337,-40.944,-0.876734,-24.1579,41.5176,-19.7591,6.44289,-7.19382
0.79346,18.0462,-13.6015,22.1913,-3.95668,4.17759,21.5327,0.351501,-3.07628,3.15523,-0.373057,-1.28408,-8.57887,-0.102933,0.461787,-13.1961,-2.97214,-7.99249,-3.1692,-2.94741,9.1185,1.43938,-1.19145,3.91465,1.72446e-14,-3.47873e-15,-41.2855,-1.75849,-74.799,24.0965,15.1426,-28.5523,2.49936,7.12502,-1.9193,-27.4718,1.72446e-14,-3.47873e-15,-47.0038,18.1214,59.2522,15.9908,-13.2253,-20.3476,24.9841,7.12502,6.00425,54.8791,-44.9076,14.9568,5.36931,45.7127,-23.952,-16.1553,-2.50243,-41.4355,-0.841246,-24.3029,42.1236,-20.1136,6.23694,-6.83554
0.788485,18.0138,-13.5808,22.2444,-3.73518,4.3304,21.7919,0.314978,-3.09602,3.23246,-0.432574,-1.27862,-8.6303,-0.129997,0.49619,-13.2914,-3.03148,-8.04531,-3.30453,-3.00622,9.15981,1.42048,-1.21809,3.9329,1.68967e-15,8.15017e-15,-41.5705,-1.9904,-74.4911,23.4287,15.4304,-28.3841,2.32885,7.12502,-1.75688,-27.6437,1.68967e-15,8.15017e-15,-47.533,18.523,58.4502,15.7167,-13.5609,-20.5779,24.863,7.12502,5.78184,54.7642,-45.1669,14.5639,5.38293,46.4347,-24.4262,-15.9297,-2.38326,-41.7488,-0.854347,-24.4506,42.7333,-20.4513,5.98389,-6.9105
0.78188,17.9746,-13.5662,22.3748,-3.68627,4.49642,21.9855,0.361306,-3.22227,3.28481,-0.412325,-1.32006,-8.67584,-0.116757,0.517293,-13.2578,-3.11558,-8.04523,-3.55359,-3.109,9.21398,1.3514,-1.27074,3.94547,2.5842e-15,1.25234e-14,-41.8729,-2.3305,-74.1951,22.8656,15.8913,-28.217,2.06894,7.12502,-1.59554,-27.9048,2.5842e-15,1.25234e-14,-48.017,18.8905,57.6272,15.5098,-13.8431,-20.8684,24.6252,7.12502,5.50146,54.5338,-45.6313,14.2207,5.29855,47.1928,-24.7601,-15.7648,-2.7095,-42.1729,-0.786656,-24.6492,43.3507,-20.7458,5.7576,-6.9689
0.774392,17.9316,-13.5535,22.6302,-3.53543,4.6638,22.0441,0.349589,-3.28252,3.30866,-0.447119,-1.36447,-8.67955,-0.131877,0.513157,-13.2023,-3.16845,-8.04134,-3.82158,-3.17093,9.29104,1.27057,-1.30316,3.96726,-3.47873e-15,1.59028e-15,-42.2211,-2.64789,-73.9242,22.5065,16.5717,-28.0444,1.79408,7.12502,-1.42879,-28.1809,-3.47873e-15,1.59028e-15,-48.506,19.0397,57.0215,15.4974,-13.7879,-20.934,24.6558,7.12502,5.43803,54.5661,-46.2327,13.7592,5.23676,47.9992,-25.0907,-15.6134,-3.09356,-42.7648,-0.85016,-24.7902,44.0185,-21.0936,5.55394,-7.00534
0.766776,17.8848,-13.5408,22.8793,-3.24865,4.93451,22.1703,0.272321,-3.35488,3.27322,-0.572188,-1.38689,-8.78161,-0.186816,0.566028,-13.082,-3.1929,-8.05027,-4.06501,-3.19732,9.27205,1.18157,-1.32112,3.964,1.18277e-14,-3.97569e-15,-42.705,-2.89341,-73.6172,22.3118,17.3492,-27.8332,1.80633,7.12502,-1.22477,-28.1699,1.18277e-14,-3.97569e-15,-49.0075,18.9099,56.7162,15.5639,-13.3541,-20.9429,24.9432,7.12502,5.42947,54.8537,-46.7924,13.1587,5.13586,48.8527,-25.5258,-15.4366,-3.39221,-43.376,-1.08248,-24.9688,44.7333,-21.444,5.27674,-6.68795
0.759102,17.834,-13.5315,23.0999,-3.00173,5.07584,22.3932,0.22865,-3.37239,3.24812,-0.640964,-1.36463,-8.92558,-0.215571,0.620904,-13.0352,-3.21846,-8.04923,-4.28932,-3.2225,9.22876,1.10859,-1.33717,3.95116,1.88845e-15,-7.95139e-16,-42.9826,-3.18439,-73.296,21.9676,17.9079,-27.5363,2.06759,7.12502,-0.938104,-27.9101,1.88845e-15,-7.95139e-16,-49.4036,18.88,56.4263,15.6748,-12.8499,-20.9309,25.2686,7.12502,5.44106,55.1787,-47.3611,12.6119,5.1777,49.7304,-25.9525,-15.2186,-3.67825,-44.0011,-1.21505,-25.0323,45.489,-21.8148,4.99199,-6.34325
0.751123,17.7861,-13.5216,23.271,-2.82802,5.04081,22.6023,0.228855,-3.27454,3.29316,-0.620785,-1.32298,-8.98833,-0.207712,0.605453,-13.0579,-3.25442,-8.09966,-4.48275,-3.25199,9.29073,1.05961,-1.35074,3.97826,9.34288e-15,3.37934e-15,-43.0749,-3.60942,-72.9628,21.4672,18.5674,-27.2087,1.91871,7.12502,-0.621661,-28.0601,9.34288e-15,3.37934e-15,-49.6965,19.1169,55.9896,15.7781,-12.4635,-20.8865,25.3162,7.12502,5.48389,55.2252,-47.9254,12.2051,5.38912,50.5976,-26.2601,-15.0735,-4.29468,-44.5807,-1.25221,-24.9299,46.2519,-22.1452,4.81771,-6.26365
0.746316,17.7362,-13.5033,23.3386,-2.68045,5.1678,22.7857,0.213799,-3.26827,3.38086,-0.644699,-1.33464,-8.98788,-0.219722,0.596831,-13.1417,-3.30651,-8.18777,-4.57436,-3.29911,9.38002,1.05316,-1.37005,4.01772,1.39149e-15,1.0138e-14,-43.2006,-4.10754,-72.5821,21.0757,19.3687,-27.1062,2.1723,7.12502,-0.522664,-27.8068,1.39149e-15,1.0138e-14,-50.0109,19.6529,55.3726,15.7819,-12.5879,-20.9028,25.3928,7.12502,5.46816,55.3022,-48.3534,11.7236,5.45695,51.5194,-26.6645,-14.8506,-4.70522,-45.013,-1.37408,-25.0161,47.0677,-22.5984,4.76785,-6.5183
0.743304,17.6836,-13.4794,23.3449,-2.53013,5.40647,23.0138,0.196293,-3.31286,3.45801,-0.689277,-1.37594,-9.02184,-0.239602,0.59104,-13.2424,-3.36535,-8.19847,-4.66497,-3.3643,9.3424,1.0462,-1.40152,4.00422,1.68967e-15,-1.98785e-16,-43.3452,-4.6672,-72.1717,20.7083,20.1946,-26.8823,2.51105,7.12502,-0.306393,-27.4685,1.68967e-15,-1.98785e-16,-50.2845,20.2328,54.7751,15.7406,-13.0895,-20.983,25.6382,7.12502,5.39079,55.5496,-48.7241,11.2321,5.40117,52.4798,-27.1291,-14.667,-4.95164,-45.3597,-1.49873,-25.2361,47.941,-23.131,4.57151,-6.62502
0.734665,17.6141,-13.4707,23.4509,-2.47449,5.52332,23.296,0.245991,-3.37259,3.48066,-0.652529,-1.38666,-9.14688,-0.218573,0.603114,-13.2361,-3.42927,-8.21165,-4.88525,-3.43685,9.35521,0.986593,-1.43901,4.00823,-9.93923e-16,9.93923e-16,-43.3999,-5.08014,-71.9013,20.2908,20.7203,-26.4995,2.19432,7.12502,0.063315,-27.7854,-9.93923e-16,9.93923e-16,-50.3281,20.3184,54.7534,15.9077,-12.8039,-21.028,26.6611,7.12502,5.3473,56.5737,-49.4094,10.9097,5.39859,53.5594,-27.5724,-14.5686,-5.18003,-45.967,-1.45634,-25.3398,48.8935,-23.5694,4.32393,-6.80833
0.721502,17.5431,-13.4771,23.6767,-2.56377,5.51503,23.6539,0.364136,-3.46154,3.40044,-0.542301,-1.39238,-9.42908,-0.159045,0.614198,-13.1121,-3.47466,-8.28393,-5.09709,-3.4851,9.46174,0.913403,-1.46445,4.05318,3.18055e-15,-5.36719e-15,-43.4198,-5.58383,-71.6104,19.8238,21.2907,-26.2051,1.8616,7.12502,0.347619,-28.1179,3.18055e-15,-5.36719e-15,-50.2538,20.2704,54.841,15.954,-12.2769,-21.192,27.43,7.12502,5.18897,57.3465,-50.3571,10.7451,5.43843,54.6472,-27.8493,-14.5343,-5.60813,-46.7881,-1.33468,-25.3068,49.8384,-23.9379,4.17528,-6.73472
0.712351,17.477,-13.4696,23.8029,-2.58885,5.74209,23.9356,0.41954,-3.63933,3.37525,-0.537298,-1.46189,-9.60576,-0.148596,0.637476,-13.0884,-3.51945,-8.28853,-5.207,-3.54032,9.45562,0.881817,-1.49345,4.05024,6.36111e-15,4.96962e-15,-43.3661,-6.05538,-71.3883,19.2869,21.4445,-26.404,2.0684,7.12502,0.155558,-27.9113,6.36111e-15,4.96962e-15,-50.1744,20.629,54.6186,15.769,-12.4548,-21.3569,27.152,7.12502,5.02976,57.0723,-51.0651,10.4115,5.29712,55.7211,-28.2107,-14.4163,-5.78051,-47.365,-1.34106,-25.5339,50.7011,-24.361,3.99848,-6.62914
0.703246,17.4302,-13.4375,23.788,-2.38859,6.00969,24.0408,0.387749,-3.73086,3.45682,-0.607224,-1.50215,-9.56676,-0.179632,0.667608,-13.1485,-3.55901,-8.27715,-5.2889,-3.58613,9.45999,0.87057,-1.5156,4.04745,2.38542e-15,-1.98785e-15,-43.2666,-6.24692,-71.4156,18.7283,21.0076,-27.7244,3.07429,7.12502,-1.11977,-26.9025,2.38542e-15,-1.98785e-15,-50.0219,20.915,54.5598,15.6485,-12.6433,-21.3799,26.6644,7.12502,5.00756,56.5852,-51.3187,9.96606,5.24593,56.6946,-28.796,-14.3012,-5.85995,-47.5828,-1.39627,-25.7859,51.4125,-24.7957,3.66779,-6.36409
0.698784,17.3904,-13.3991,23.6579,-2.14476,6.21811,24.2002,0.353985,-3.72533,3.57257,-0.65338,-1.51369,-9.51954,-0.202844,0.666843,-13.1446,-3.57172,-8.2637,-5.3992,-3.59895,9.45873,0.838087,-1.5229,4.04527,-5.96354e-16,-2.5842e-15,-43.1209,-6.77484,-71.1484,18.2213,21.7103,-28.0988,3.46189,7.12502,-1.48136,-26.5127,-5.96354e-16,-2.5842e-15,-49.7807,20.9853,54.8266,15.7283,-12.6533,-21.2576,26.7332,7.12502,5.12564,56.6512,-51.3783,9.49548,5.30904,57.5854,-29.2825,-14.2599,-6.4904,-47.6023,-1.50402,-25.9654,52.0537,-25.224,3.44527,-6.36536
0.703423,17.3407,-13.3645,23.5513,-2.09046,6.60645,24.4788,0.360793,-3.84146,3.60916,-0.698992,-1.62736,-9.62377,-0.220287,0.622256,-13.176,-3.58779,-8.26553,-5.38333,-3.61837,9.49859,0.850583,-1.53092,4.05633,-9.34288e-15,-2.06736e-14,-42.9613,-7.6711,-70.5488,17.6866,23.5286,-27.1887,2.87682,7.12502,-0.60231,-27.1021,-9.34288e-15,-2.06736e-14,-49.4964,21.0408,55.139,15.7356,-12.7823,-21.0959,26.5413,7.12502,5.28173,56.4555,-51.5452,8.98926,5.09988,58.4523,-29.5958,-14.2021,-7.69211,-47.6563,-1.65099,-26.3879,52.6768,-25.6865,3.39643,-6.44659
0.701343,17.2816,-13.3181,23.5008,-1.93143,6.76556,24.4886,0.336223,-3.77166,3.69148,-0.7136,-1.66821,-9.53742,-0.232027,0.541956,-13.2753,-3.64042,-8.19569,-5.37419,-3.69215,9.44718,0.871923,-1.5675,4.02395,-1.15295e-14,7.15625e-15,-42.6934,-8.50976,-70.0741,17.1237,24.9094,-26.3974,2.62838,7.12502,0.161906,-27.3513,-1.15295e-14,7.15625e-15,-49.0232,21.0313,55.6019,15.6587,-12.8059,-20.8761,26.2893,7.12502,5.49394,56.1981,-51.6098,8.62506,5.13533,59.2924,-30.1297,-14.0907,-8.79199,-47.7831,-1.72497,-26.5449,53.3478,-26.1926,3.29685,-6.76311
