JuanDHNZ/ProyectoFinalCD/preprocessing/sports_trials_csv/13_15.csv
root1,root2,root3,root4,root5,root6,lowerback1,lowerback2,lowerback3,upperback1,upperback2,upperback3,thorax1,thorax2,thorax3,lowerneck1,lowerneck2,lowerneck3,upperneck1,upperneck2,upperneck3,head1,head2,head3,rclavicle1,rclavicle2,rhumerus1,rhumerus2,rhumerus3,rradius1,rwrist1,rhand1,rhand2,rfingers1,rthumb1,rthumb2,lclavicle1,lclavicle2,lhumerus1,lhumerus2,lhumerus3,lradius1,lwrist1,lhand1,lhand2,lfingers1,lthumb1,lthumb2,rfemur1,rfemur2,rfemur3,rtibia1,rfoot1,rfoot2,rtoes1,lfemur1,lfemur2,lfemur3,ltibia1,lfoot1,lfoot2,ltoes1
1.58066,18.6552,1.74474,2.13643,-35.242,0.958374,1.81677,-0.0543468,-0.388484,0.368119,-0.0763825,0.636135,-0.639953,-0.0376253,0.870596,-11.7537,-1.51936,-7.24374,9.46567,-1.07024,1.99646,4.817,-0.662726,1.71101,-3.66509e-14,9.93923e-15,-34.1711,3.45448,-83.7163,19.3217,11.6089,-17.9019,-3.11732,7.12502,8.36497,-32.9317,-3.66509e-14,9.93923e-15,-31.8002,-7.49984,85.5862,29.9236,-7.29223,-21.5063,23.6513,7.12502,4.8855,53.575,-11.514,20.5024,16.4626,29.0396,-19.7909,-12.9294,-1.853,0.352241,-1.5005,-18.3918,23.4631,-24.242,22.7959,-8.76355
1.5583,18.6508,1.74743,1.74965,-35.0776,1.22807,1.81059,-0.0415931,-0.559055,0.392637,-0.0633333,0.519178,-0.611575,-0.0309992,0.846158,-11.4792,-1.52849,-7.33936,9.25171,-1.11561,2.22551,4.7089,-0.670885,1.79502,1.06573e-13,3.18055e-15,-34.191,3.3596,-83.799,19.1132,11.6379,-17.8884,-2.54155,7.12502,8.37804,-32.3554,1.06573e-13,3.18055e-15,-31.7159,-7.86042,85.7649,30.2074,-7.11338,-21.4862,23.7923,7.12502,4.90487,53.7155,-11.3033,20.218,16.4104,29.2881,-19.9116,-12.9018,-2.25894,0.557827,-1.42789,-18.4998,23.6029,-24.1192,22.4493,-8.63182
1.53324,18.6459,1.75282,1.38424,-35.0482,1.4196,1.78606,0.0401109,-0.714147,0.424416,0.0423481,0.446029,-0.567355,0.0217338,0.855804,-11.3406,-1.55687,-7.34958,9.13504,-1.1687,2.27338,4.65272,-0.692818,1.80786,2.38045e-14,6.16232e-15,-34.3374,3.8031,-84.0941,19.1673,10.7029,-17.8752,-2.16527,7.12502,8.39082,-31.9786,2.38045e-14,6.16232e-15,-31.638,-8.16142,85.9587,30.4822,-7.2627,-21.0436,24.1608,7.12502,5.33225,54.0738,-11.0387,20.005,16.4295,29.4834,-20.0306,-12.7484,-2.2458,0.792828,-1.34806,-18.5548,23.7716,-23.9422,22.2521,-9.00007
1.50912,18.6431,1.75781,1.0808,-34.9461,1.4398,1.81084,0.0865894,-0.723069,0.432311,0.103853,0.424675,-0.574373,0.0524833,0.837538,-11.1119,-1.56265,-7.3819,9.01273,-1.19042,2.27818,4.57851,-0.703318,1.8135,-4.85283e-14,1.19271e-15,-34.4574,4.54581,-84.5198,19.087,9.46741,-18.3596,-1.70592,7.12502,7.9233,-31.5374,-4.85283e-14,1.19271e-15,-31.5784,-8.25471,86.0647,30.7427,-7.93331,-19.6941,24.8729,7.12502,6.63512,54.749,-10.7107,19.8943,16.6361,29.6695,-20.1438,-12.7842,-2.15057,1.02473,-1.28131,-18.4316,23.9726,-23.7509,21.956,-9.34108
1.49039,18.6422,1.76044,0.744296,-34.6521,1.41238,1.94818,0.0444631,-0.609274,0.447654,0.0488456,0.392199,-0.634381,0.0249866,0.741692,-10.8641,-1.55176,-7.42623,8.85148,-1.19111,2.29665,4.4883,-0.702444,1.82689,4.56584e-14,-2.78299e-15,-34.5088,5.33616,-84.9478,19.0255,8.64331,-18.193,-1.66215,7.12502,8.08403,-31.4875,4.56584e-14,-2.78299e-15,-31.605,-8.99363,86.4957,30.9661,-6.42253,-20.643,24.4825,7.12502,5.719,54.3853,-10.2966,19.7289,16.917,29.8369,-20.2731,-12.9892,-2.1628,1.26714,-1.19934,-18.2354,24.196,-23.3804,21.5851,-10.0761
1.46628,18.6418,1.76389,0.321093,-34.396,1.52065,1.97446,-0.00840389,-0.649277,0.502034,-0.0231512,0.31864,-0.592204,-0.0113456,0.690582,-10.5779,-1.536,-7.47861,8.66164,-1.19713,2.40639,4.38374,-0.698653,1.86968,4.86401e-14,1.39149e-15,-34.4584,6.09712,-85.3538,18.9384,8.19989,-17.4581,-1.64871,7.12502,8.79326,-31.4455,4.86401e-14,1.39149e-15,-31.5087,-9.45922,86.7045,31.1286,-5.86159,-20.927,24.2866,7.12502,5.44486,54.1967,-9.84725,19.5726,17.0729,29.9952,-20.4526,-13.1059,-2.0685,1.54959,-0.966119,-18.1363,24.448,-22.9615,21.1397,-10.8546
1.43589,18.639,1.76879,-0.112697,-34.2438,1.63306,1.90328,-0.0168846,-0.761454,0.566654,-0.0365673,0.255608,-0.485946,-0.0186632,0.689188,-10.2559,-1.55162,-7.4653,8.52395,-1.24562,2.39927,4.29064,-0.721821,1.86291,8.24335e-14,-4.17448e-15,-34.3217,6.65345,-85.5784,18.7213,8.07315,-16.0888,-0.555322,7.12502,10.1145,-30.2922,8.24335e-14,-4.17448e-15,-31.3946,-9.69508,86.8436,31.2655,-5.76049,-20.7233,24.2354,7.12502,5.6415,54.1403,-9.38955,19.3918,17.2246,30.1587,-20.5858,-13.0876,-2.00033,1.88141,-0.688724,-18.0531,24.6994,-22.5516,20.7536,-11.6273
1.40366,18.6335,1.77649,-0.511421,-34.0737,1.70146,1.72515,-0.00567085,-0.818188,0.651769,-0.021418,0.19118,-0.299359,-0.0122283,0.654585,-10.0264,-1.59257,-7.44313,8.51182,-1.32161,2.38951,4.25273,-0.760151,1.85207,-4.3919e-14,-3.77691e-15,-34.1649,7.22768,-85.7789,18.6402,8.05844,-14.3896,0.277233,7.12502,11.7535,-29.373,-4.3919e-14,-3.77691e-15,-31.2168,-10.1377,87.0333,31.3831,-5.37598,-20.3731,24.4478,7.12502,5.97965,54.3434,-8.92345,19.1989,17.4104,30.3292,-20.7827,-13.006,-1.90974,2.23253,-0.458076,-17.9444,24.9426,-22.1715,20.3578,-12.4085
1.36956,18.6272,1.78346,-1.00285,-33.8946,1.90541,1.61271,-0.0039023,-1.06073,0.700372,-0.0218559,0.114276,-0.186544,-0.0134628,0.711772,-9.86358,-1.59277,-7.44483,8.57879,-1.34114,2.44687,4.24776,-0.76866,1.86961,-6.60586e-14,2.98177e-15,-34.0421,8.02589,-86.0604,18.6711,8.13938,-13.0041,0.617462,7.12502,13.0892,-28.9518,-6.60586e-14,2.98177e-15,-31.0126,-10.571,87.212,31.324,-5.29003,-20.3364,24.6259,7.12502,6.01509,54.5205,-8.42493,19.0935,17.4903,30.4809,-20.975,-13.0226,-1.6549,2.5581,-0.346111,-17.9732,25.2465,-21.8601,20.0909,-13.2002
1.33446,18.6224,1.79076,-1.44354,-33.723,2.05851,1.5238,-0.00638268,-1.31273,0.682525,-0.0276906,0.0906749,-0.154727,-0.0168669,0.828928,-9.67307,-1.56505,-7.46132,8.72996,-1.31454,2.41592,4.2615,-0.761796,1.86548,-3.03457e-14,1.98785e-16,-33.9065,8.57809,-86.1084,18.594,8.69286,-11.7925,1.07383,7.12502,14.257,-28.4168,-3.03457e-14,1.98785e-16,-30.9905,-11.0358,87.5063,31.2304,-5.41431,-20.6073,24.6609,7.12502,5.75352,54.5628,-7.93198,19.0198,17.6097,30.5869,-21.1817,-13.058,-1.34868,2.7651,-0.244427,-17.93,25.6417,-21.5171,19.893,-14.2699
1.30024,18.6181,1.79654,-1.69561,-33.7095,1.90379,1.43422,0.0312953,-1.25687,0.601993,0.0244493,0.134737,-0.188234,0.00997574,0.841872,-9.25945,-1.53023,-7.54349,8.84294,-1.29038,2.40747,4.22741,-0.757782,1.87956,-6.47324e-14,1.98785e-15,-33.8237,8.91121,-85.984,18.5285,9.42036,-10.1865,1.21554,7.12502,15.804,-28.1593,-6.47324e-14,1.98785e-15,-31.0519,-11.3706,87.7914,31.1686,-5.49715,-20.4085,24.6753,7.12502,5.94541,54.5719,-7.48917,18.9941,18.0005,30.6672,-21.2714,-13.0519,-1.15269,2.93871,0.0697199,-17.5689,26.1086,-21.1957,19.5694,-15.2999
1.26433,18.6122,1.79993,-1.78038,-33.8546,1.44564,1.32164,0.110735,-0.940337,0.533472,0.135923,0.236087,-0.197513,0.0664476,0.766545,-8.72101,-1.48038,-7.67335,8.8359,-1.26033,2.49007,4.13619,-0.745961,1.93008,1.08835e-14,2.38542e-15,-33.7266,9.44952,-85.9215,18.5753,9.91235,-8.70219,1.6451,7.12502,17.2331,-27.6108,1.08835e-14,2.38542e-15,-30.9858,-11.7009,87.9999,31.077,-5.30702,-19.9208,24.6044,7.12502,6.41624,54.4872,-7.09282,19.0386,18.6701,30.7519,-21.3452,-12.9904,-1.00347,3.12766,0.428371,-16.922,26.6088,-21,19.2387,-15.929
1.23143,18.6039,1.80117,-2.03086,-33.8381,1.19734,1.28894,0.153613,-0.786251,0.484247,0.195322,0.266127,-0.230374,0.0966453,0.710044,-8.42625,-1.47461,-7.70465,9.04141,-1.27876,2.53063,4.15179,-0.759701,1.94811,1.22645e-13,1.98785e-16,-33.5219,9.81369,-85.7442,18.6264,10.5658,-7.15305,2.64298,7.12502,18.7236,-26.4759,1.22645e-13,1.98785e-16,-30.8182,-12.1787,88.1828,30.9388,-4.98855,-19.5169,24.5983,7.12502,6.80617,54.4689,-6.6555,18.9315,19.1423,30.8581,-21.4179,-12.8965,-0.893848,3.32016,0.624513,-16.4669,27.1113,-20.825,18.8444,-16.2501
1.19878,18.5939,1.80535,-2.54908,-33.6922,1.345,1.23314,0.160576,-0.931096,0.46051,0.20312,0.186152,-0.223743,0.100592,0.709395,-8.27682,-1.47871,-7.63168,9.37212,-1.30084,2.46579,4.22864,-0.778991,1.9162,-2.64787e-14,-2.38542e-15,-33.2272,10.4235,-85.6508,18.7035,10.8702,-5.49269,3.13321,7.12502,20.32,-25.8238,-2.64787e-14,-2.38542e-15,-30.6427,-12.8025,88.3907,30.7939,-4.75494,-19.2508,24.7358,7.12502,7.06304,54.5979,-6.15653,18.6521,19.251,31.02,-21.4767,-12.7672,-1.27889,3.60677,0.804714,-16.3645,27.5641,-20.6811,18.3206,-16.2799
1.16127,18.5831,1.81722,-3.05448,-33.5722,1.51203,1.03061,0.138651,-1.13261,0.423759,0.173881,0.16229,-0.147824,0.0856404,0.798779,-7.99851,-1.42677,-7.62932,9.63274,-1.24202,2.33262,4.25889,-0.764408,1.87989,-1.03523e-14,-7.95139e-16,-32.9078,11.1741,-85.4268,18.849,11.2117,-4.60223,4.91125,7.12502,21.1755,-23.9523,-1.03523e-14,-7.95139e-16,-30.5055,-13.1195,88.6126,30.562,-4.94999,-18.5121,24.6679,7.12502,7.77604,54.5049,-5.68994,18.3583,19.3269,31.267,-21.6055,-12.5996,-1.73792,3.93045,0.892076,-16.3166,27.9712,-20.5171,17.9092,-16.3333
1.12391,18.5734,1.82569,-3.39918,-33.4877,1.62592,0.723188,0.124799,-1.29079,0.364011,0.158014,0.135664,-0.0366883,0.0772317,0.860981,-7.73172,-1.38566,-7.61407,9.87706,-1.20286,2.24393,4.28708,-0.756225,1.85394,1.20793e-14,8.54774e-15,-32.4294,11.5317,-84.954,18.99,12.1173,-4.94176,8.39683,7.12502,20.8494,-20.5029,1.20793e-14,8.54774e-15,-30.2613,-13.393,88.7128,30.3462,-5.15099,-16.934,24.7002,7.12502,9.29905,54.4751,-5.41456,18.2005,19.4113,31.5848,-21.8234,-12.4154,-1.5506,4.09176,0.959567,-16.2265,28.3547,-20.2776,17.6256,-16.5796
1.08821,18.5649,1.82646,-3.8026,-33.5019,1.86551,0.45042,0.18941,-1.5533,0.28486,0.246687,0.0674462,0.0322243,0.121289,0.938421,-7.42558,-1.39098,-7.62782,10.1274,-1.23337,2.22238,4.31448,-0.78006,1.84939,-7.15376e-14,-7.7526e-15,-32.0008,12.0468,-84.5416,19.2227,12.1315,-4.36981,9.11677,7.12502,21.3988,-19.7215,-7.15376e-14,-7.7526e-15,-30.0153,-13.891,88.8473,30.148,-5.33324,-15.8111,24.436,7.12502,10.3824,54.1597,-5.19863,18.0929,19.3812,31.9182,-22.0223,-12.1966,-1.13834,4.21633,1.23022,-16.2049,28.7715,-19.9174,17.3412,-17.1472
1.05178,18.5549,1.83006,-4.38577,-33.4879,2.13196,0.29255,0.240793,-1.77052,0.243365,0.317175,-0.0454805,0.0757596,0.156213,0.944869,-7.04849,-1.37944,-7.58836,10.35,-1.2496,2.16517,4.32015,-0.796772,1.82635,-1.47287e-14,4.57205e-15,-31.5916,12.7483,-84.199,19.5856,11.6809,-1.5488,6.2741,7.12502,24.1061,-22.2315,-1.47287e-14,4.57205e-15,-29.7701,-14.4055,88.9092,29.9933,-5.56492,-14.9778,24.398,7.12502,11.1862,54.0798,-4.77777,17.9715,19.4019,32.2566,-22.167,-12.0866,-1.06426,4.54898,1.49762,-16.2077,29.2018,-19.5792,17.0216,-17.6192
1.01381,18.5452,1.83154,-4.81736,-33.4794,2.14823,0.172052,0.253353,-1.83705,0.197094,0.335908,-0.0655646,0.0951279,0.165649,0.962,-6.64423,-1.29146,-7.72883,10.4688,-1.16643,2.30224,4.28645,-0.758776,1.89823,-3.64708e-14,-8.24956e-15,-30.8732,13.0027,-83.5597,19.8053,12.0241,0.567802,4.13121,7.12502,26.1341,-24.0903,-3.64708e-14,-8.24956e-15,-29.3864,-14.6808,88.8692,29.8142,-5.66184,-13.9347,24.4543,7.12502,12.1921,54.079,-4.375,18.025,19.7041,32.5609,-22.2421,-12.2347,-1.26204,4.82855,1.63259,-15.9919,29.6567,-19.206,16.793,-18.5072
0.974756,18.5372,1.83746,-5.25303,-33.4424,2.21196,-0.0552156,0.266623,-1.85028,0.182601,0.358494,-0.171761,0.207578,0.176065,0.861837,-6.3102,-1.20668,-7.74409,10.6474,-1.10145,2.48742,4.28236,-0.723152,1.96342,-7.77745e-15,-8.94531e-16,-30.0755,13.0796,-82.9177,19.9351,11.804,-0.891707,5.20348,7.12502,24.736,-23.2172,-7.77745e-15,-8.94531e-16,-28.9438,-15.1171,88.7685,29.5383,-5.96514,-13.9145,24.3511,7.12502,12.2115,53.9746,-3.9629,17.9447,19.9348,32.8165,-22.2318,-12.367,-1.98661,5.07048,1.74917,-15.8175,30.137,-18.7727,16.5831,-19.6094
0.935792,18.5284,1.84363,-5.76319,-33.4477,2.30054,-0.243417,0.284342,-1.85171,0.164682,0.386296,-0.282163,0.294671,0.189367,0.750706,-6.1506,-1.15053,-7.70089,11.0793,-1.056,2.56358,4.3852,-0.705005,1.98451,3.55141e-14,-9.64106e-15,-29.2944,13.0246,-82.1718,20.1911,11.7175,-1.8741,6.15913,7.12502,23.7941,-22.3875,3.55141e-14,-9.64106e-15,-28.6565,-15.5929,88.7,29.2751,-6.60939,-14.3928,24.2141,7.12502,11.7504,53.8645,-3.44779,17.8037,20.1379,33.0157,-22.1906,-12.3465,-2.42327,5.3653,1.88142,-15.6646,30.6568,-18.427,16.3093,-20.3467
0.896642,18.5198,1.84524,-6.18265,-33.6578,2.28756,-0.341258,0.364818,-1.86956,0.0679746,0.494659,-0.28929,0.247547,0.244508,0.75418,-5.96642,-1.10235,-7.64728,11.5082,-1.01321,2.5378,4.483,-0.693605,1.97231,2.62831e-14,2.6339e-15,-28.4864,12.9456,-81.2684,20.5571,12.2238,-2.29828,5.56881,7.12502,23.3873,-23.0302,2.62831e-14,2.6339e-15,-28.4107,-15.8943,88.6968,29.0183,-6.98044,-14.4481,24.1928,7.12502,11.6971,53.8462,-2.99004,17.8605,20.4494,33.1947,-22.1953,-12.2753,-2.47083,5.61079,2.17375,-15.4012,31.2078,-18.0835,16.148,-20.9852
0.857322,18.5097,1.85111,-6.64371,-33.8287,2.29423,-0.520178,0.417758,-1.87618,0.0447339,0.569155,-0.301908,0.322099,0.281236,0.746716,-5.67632,-1.00445,-7.71615,11.7796,-0.918055,2.67549,4.51302,-0.649906,2.03348,8.09426e-15,5.01931e-15,-27.5291,13.1178,-80.3947,20.9563,12.5976,-3.71403,4.48824,7.12502,22.0285,-24.2772,8.09426e-15,5.01931e-15,-27.9612,-15.9343,88.59,28.7223,-7.17975,-14.4727,24.1643,7.12502,11.6733,53.8191,-2.47906,17.8414,20.7335,33.3586,-22.2794,-12.1569,-2.28224,5.87793,2.56011,-15.1151,31.8068,-17.6262,15.8969,-21.6893
0.815977,18.4986,1.85655,-7.09018,-33.8245,2.32601,-0.806161,0.410251,-1.90015,0.0638126,0.566501,-0.349203,0.502232,0.278186,0.714184,-5.43782,-0.912178,-7.7363,12.0521,-0.827734,2.78063,4.55168,-0.608069,2.07621,1.67725e-16,1.0635e-14,-26.5036,13.6092,-79.6177,21.4335,12.3899,-4.80727,3.34674,7.12502,20.9786,-25.5387,1.67725e-16,1.0635e-14,-27.4344,-15.8933,88.3862,28.4887,-7.48091,-14.3792,24.4382,7.12502,11.7634,54.0879,-1.96344,17.7763,21.0055,33.4993,-22.3911,-12.1726,-2.13325,6.04654,2.75387,-14.853,32.4667,-17.1212,15.5998,-22.3002
0.774857,18.4892,1.85642,-7.4491,-33.9932,2.18729,-0.969161,0.463553,-1.74671,0.019713,0.639162,-0.355121,0.548257,0.314815,0.624321,-5.17389,-0.866609,-7.78306,12.3628,-0.796282,2.84577,4.60111,-0.599856,2.10779,1.18215e-14,-1.59773e-14,-25.4751,14.0616,-78.8051,21.8534,12.0718,-5.65052,2.848,7.12502,20.1683,-26.1251,1.18215e-14,-1.59773e-14,-27.0215,-15.8138,88.1841,28.2983,-7.84186,-14.0153,24.793,7.12502,12.1144,54.4223,-1.47091,17.887,21.4576,33.6187,-22.5958,-12.0709,-1.49185,6.21426,2.88629,-14.4413,33.1818,-16.8918,15.2452,-22.2496
0.734747,18.4805,1.85838,-7.8136,-34.188,1.9728,-1.07053,0.516065,-1.46754,-0.0337166,0.707354,-0.354206,0.552111,0.349913,0.470568,-4.90336,-0.835714,-7.91407,12.7194,-0.787663,2.98475,4.66521,-0.603751,2.17518,-8.8015e-14,1.37161e-14,-24.4559,14.557,-77.965,22.4,11.8648,-6.80572,2.0379,7.12502,19.0577,-27.0484,-8.8015e-14,1.37161e-14,-26.5979,-15.7875,87.9805,28.056,-7.97157,-13.8728,25.0323,7.12502,12.2517,54.6534,-0.908457,17.9107,21.9527,33.7271,-22.8537,-11.807,-0.456474,6.41025,3.03209,-13.9608,33.9648,-16.5543,14.9577,-22.6657
0.695877,18.4681,1.86302,-8.13423,-34.0497,1.87686,-1.24311,0.477885,-1.36854,-0.13998,0.657145,-0.376054,0.542373,0.325533,0.39307,-4.59591,-0.800093,-7.97164,13.0403,-0.781294,3.10382,4.71169,-0.606255,2.22427,-2.10487e-14,-1.40858e-14,-23.4035,14.6852,-76.9536,22.9246,12.1767,-8.04787,1.97675,7.12502,17.8628,-27.2229,-2.10487e-14,-1.40858e-14,-26.2655,-15.9542,87.8882,27.8955,-7.76808,-14.5961,25.3054,7.12502,11.5543,54.9669,-0.426134,17.6944,22.2764,33.8367,-22.8247,-11.7991,-0.812338,6.3827,3.05381,-13.6076,34.8111,-15.9456,14.7058,-23.6458
0.65619,18.4569,1.86222,-8.43211,-33.9765,1.90297,-1.3719,0.430511,-1.43629,-0.317668,0.594941,-0.372524,0.432991,0.295632,0.433796,-4.30565,-0.752675,-7.96052,13.3433,-0.740229,3.03462,4.75347,-0.599198,2.2052,5.02591e-15,-4.42296e-15,-22.3004,14.8664,-75.8869,23.5227,12.4902,-9.14454,2.3893,7.12502,16.8073,-26.9033,5.02591e-15,-4.42296e-15,-25.939,-15.6216,87.7304,27.7191,-7.79417,-16.1001,25.5401,7.12502,10.1036,55.2776,-0.0875792,17.5847,22.4685,33.9337,-22.769,-11.7734,-1.29387,6.20156,3.21225,-13.3045,35.7152,-15.3516,14.3437,-24.913
0.620153,18.4457,1.86099,-8.72789,-34.4717,1.741,-1.5072,0.533425,-1.11225,-0.380759,0.728759,-0.340121,0.445447,0.362953,0.288736,-4.09193,-0.673602,-7.88453,13.6012,-0.645162,2.89482,4.7911,-0.565031,2.15597,-5.28565e-15,9.28697e-15,-20.9816,15.1027,-74.826,24.2034,12.7065,-9.92052,2.09235,7.12502,16.0602,-27.2621,-5.28565e-15,9.28697e-15,-25.5191,-15.0966,87.4123,27.6091,-8.01296,-16.1819,25.6518,7.12502,10.0247,55.3931,0.278559,17.7371,22.8452,34.0526,-22.8358,-11.3343,-0.84559,6.25267,3.70348,-12.7735,36.6523,-14.976,13.9961,-26.1997
0.58995,18.4334,1.86587,-8.96825,-35.1056,1.43052,-1.73827,0.684424,-0.462164,-0.349596,0.921925,-0.32035,0.61419,0.459739,-0.0482245,-3.99429,-0.620371,-7.9069,13.943,-0.587594,2.9162,4.87663,-0.545542,2.17158,-1.07573e-14,-3.15726e-15,-19.5269,15.428,-73.7573,24.9226,12.9161,-10.715,1.63235,7.12502,15.295,-27.7821,-1.07573e-14,-3.15726e-15,-25.0941,-14.908,87.1351,27.5878,-8.0351,-15.0699,25.7538,7.12502,11.0973,55.4404,0.636039,17.7674,23.2943,34.202,-22.7809,-10.7942,-0.876302,6.37045,4.25668,-12.1462,37.6276,-14.4339,13.7732,-27.0843
0.553454,18.4213,1.8627,-9.34137,-35.4162,1.48857,-1.91283,0.746611,-0.299864,-0.39971,1.00277,-0.386428,0.664449,0.500309,-0.20282,-3.87435,-0.571418,-7.90036,14.3339,-0.541769,2.94045,4.9741,-0.531633,2.18314,1.89203e-14,2.55314e-15,-18.1843,15.8076,-72.7318,25.7557,13.0133,-11.5406,1.22144,7.12502,14.4997,-28.2519,1.89203e-14,2.55314e-15,-24.7472,-14.9115,86.8902,27.598,-7.84307,-14.6646,25.9298,7.12502,11.4883,55.595,0.9116,17.6068,23.3884,34.3833,-22.6819,-10.4011,-1.48321,6.29533,4.73747,-11.8214,38.6071,-13.5573,13.5535,-27.8955
0.513337,18.4106,1.85031,-9.7795,-35.5609,1.80819,-2.09504,0.715038,-0.528326,-0.467404,0.966467,-0.467043,0.694757,0.481589,-0.156271,-3.76079,-0.465188,-7.80345,14.5825,-0.406427,2.83819,5.02379,-0.473599,2.14421,1.097e-13,8.13775e-15,-16.673,16.0707,-71.6801,26.5391,13.3245,-12.3218,1.06265,7.12502,13.7468,-28.4632,1.097e-13,8.13775e-15,-24.3739,-14.8237,86.6253,27.6907,-7.55897,-15.7542,25.6665,7.12502,10.4373,55.3874,1.08692,17.4989,23.2645,34.6163,-22.7051,-10.0676,-1.76625,6.03822,5.0852,-11.7081,39.5979,-12.8499,13.1276,-26.932
0.474157,18.4032,1.84636,-10.3192,-35.8304,2.27466,-2.39722,0.72405,-0.791455,-0.486077,0.987867,-0.555881,0.841938,0.491229,-0.0951345,-3.50476,-0.358729,-7.67893,14.6648,-0.268159,2.62341,4.99856,-0.416978,2.06431,-4.67913e-14,-3.48805e-15,-15.0662,16.1631,-70.5456,27.3697,13.8777,-13.0246,0.672663,7.12502,13.0694,-28.8979,-4.67913e-14,-3.48805e-15,-24.022,-14.74,86.4021,27.8539,-7.32023,-17.5835,24.8611,7.12502,8.67227,54.663,1.2631,17.4995,22.9933,34.9037,-23.0028,-9.5432,-0.842471,5.81777,5.37277,-11.7833,40.6116,-12.2461,12.8034,-24.9219
0.434263,18.3931,1.83985,-10.9747,-36.1307,2.85947,-2.60872,0.770723,-1.11345,-0.520233,1.06155,-0.665423,0.921302,0.526789,-0.0218159,-3.28465,-0.29619,-7.72975,14.9134,-0.192537,2.55023,5.0347,-0.395521,2.05524,7.20594e-16,-3.11843e-15,-13.5767,16.4811,-69.3876,28.4044,14.0523,-13.7569,0.205137,7.12502,12.3635,-29.4093,7.20594e-16,-3.11843e-15,-23.654,-14.6956,86.183,27.9321,-7.299,-18.5199,24.3912,7.12502,7.76859,54.2285,1.47902,17.4963,22.6365,35.2089,-23.3717,-8.98305,0.572294,5.59683,5.72634,-11.9385,41.6807,-11.2379,12.5973,-24.7078
0.396719,18.382,1.82631,-11.4856,-36.4525,3.26333,-2.74441,0.804508,-1.26845,-0.581459,1.11239,-0.712309,0.932137,0.551691,0.0202092,-3.11615,-0.222644,-7.86851,15.1418,-0.0923187,2.49488,5.07247,-0.365104,2.06733,-5.7865e-14,-5.44173e-15,-11.9428,16.9859,-68.1868,29.2885,13.7735,-14.6435,-0.083488,7.12502,11.5086,-29.7476,-5.7865e-14,-5.44173e-15,-23.3138,-14.725,85.9988,28.0892,-7.10376,-17.9681,25.065,7.12502,8.30109,54.8819,1.65759,17.5535,22.4608,35.4785,-23.6455,-8.53544,1.66692,5.25004,6.11645,-11.8854,42.8519,-10.1174,12.3661,-26.0889
0.359092,18.3728,1.81328,-11.9454,-36.7676,3.61279,-2.86588,0.855518,-1.345,-0.631163,1.18432,-0.774281,0.94829,0.587289,0.00363305,-3.04372,-0.157184,-7.88521,15.384,-0.00252556,2.42865,5.13092,-0.333458,2.05564,2.84386e-14,-2.23633e-14,-10.2055,17.3419,-66.9847,29.963,13.3398,-15.7124,0.10945,7.12502,10.4776,-29.6094,2.84386e-14,-2.23633e-14,-23.0011,-14.9212,85.8314,28.3688,-6.81508,-16.6653,26.1089,7.12502,9.55831,55.8721,1.82704,17.5725,22.3154,35.699,-23.7942,-8.08649,2.20788,4.78276,6.43959,-11.7978,44.1444,-9.02037,12.1771,-26.8721
0.32188,18.365,1.7948,-12.3245,-36.9313,3.91782,-2.9081,0.838264,-1.52557,-0.718683,1.16593,-0.809621,0.87953,0.578163,0.0676887,-2.9772,-0.0730681,-7.80375,15.6568,0.10855,2.33806,5.19857,-0.288313,2.02154,-1.30452e-14,3.08116e-15,-8.45891,17.4646,-65.7747,30.7407,13.179,-16.8482,0.356514,7.12502,9.38179,-29.4147,-1.30452e-14,3.08116e-15,-22.7359,-15.0844,85.6502,28.6304,-6.72163,-16.1938,26.4748,7.12502,10.0132,56.2166,1.95992,17.5045,22.2003,35.8585,-23.8946,-7.7435,2.51612,4.10268,6.68417,-11.6652,45.5618,-7.69524,11.943,-26.5881
0.286147,18.3598,1.77154,-12.6112,-37.0852,4.25891,-2.96218,0.803589,-1.74874,-0.849043,1.12467,-0.81992,0.772574,0.558162,0.180195,-2.91354,-0.00610723,-7.84425,15.9166,0.205741,2.25492,5.26417,-0.256424,2.00902,-4.75095e-14,-2.73329e-14,-6.76977,17.6835,-64.4986,31.826,12.9832,-18.1573,-0.188316,7.12502,8.11852,-30.0124,-4.75095e-14,-2.73329e-14,-22.4548,-15.0945,85.4754,28.8596,-6.72593,-16.3852,26.2975,7.12502,9.82854,56.0481,1.97368,17.5555,22.0475,35.9595,-24.0136,-7.47702,2.91936,3.19025,6.95776,-11.5642,47.0708,-6.13044,11.7415,-25.1723
0.253276,18.3509,1.75056,-13.0389,-37.3389,4.69703,-2.96416,0.825981,-1.92966,-0.91619,1.15851,-0.890149,0.702141,0.575474,0.21006,-2.98814,0.0299331,-7.76294,16.1647,0.273937,2.10845,5.35152,-0.234554,1.95529,5.82688e-14,1.21259e-14,-5.23088,18.5541,-63.1159,33.3632,11.9781,-18.5679,-0.576855,7.12502,7.72221,-30.4159,5.82688e-14,1.21259e-14,-22.0646,-15.1673,85.2399,29.118,-6.588,-16.5362,26.2495,7.12502,9.68284,56.007,2.06496,17.5661,21.7994,36.0341,-24.1683,-7.15355,3.11823,2.29792,7.23762,-11.5592,48.6693,-4.46918,11.6785,-23.4024
0.223274,18.339,1.73074,-13.5795,-37.4668,5.25077,-2.91648,0.829933,-2.1469,-0.931487,1.16871,-1.01701,0.657818,0.580603,0.201086,-3.02575,0.0649062,-7.63729,16.2881,0.338205,1.93953,5.39422,-0.210325,1.88593,-8.06817e-14,2.47487e-14,-3.69495,19.5235,-61.5768,35.064,10.8401,-17.9313,-0.674407,7.12502,8.33663,-30.4899,-8.06817e-14,2.47487e-14,-21.6338,-15.3353,85.0158,29.3665,-6.4966,-16.5304,26.2691,7.12502,9.68849,56.0263,2.23882,17.4331,21.4048,36.077,-24.4189,-6.75244,3.81774,1.31657,7.38965,-11.6941,50.3744,-2.57372,11.669,-22.2161
0.195513,18.3222,1.70379,-13.8621,-37.4548,5.66367,-2.95302,0.820803,-2.22744,-0.974297,1.15948,-1.19742,0.636652,0.575797,0.0612693,-3.00865,0.0761773,-7.53744,16.3326,0.338261,1.97032,5.40445,-0.203794,1.87946,2.63887e-14,-2.31584e-14,-2.01435,19.5271,-60.1888,36.3531,10.549,-17.2416,-0.550333,7.12502,9.0022,-30.3383,2.63887e-14,-2.31584e-14,-21.215,-15.7084,84.7579,29.7315,-6.36231,-16.5129,26.3599,7.12502,9.70531,56.1163,2.25851,17.3416,21.1141,36.0378,-24.5556,-6.55406,4.41729,-0.037227,7.50411,-11.7049,52.2366,-0.556559,11.5601,-21.1737
0.172903,18.3047,1.66975,-13.8548,-37.5741,5.641,-2.87745,0.824319,-1.98496,-1.01942,1.15423,-1.23538,0.553914,0.573828,-0.11507,-3.14664,0.0856522,-7.47914,16.4238,0.349438,2.02793,5.45514,-0.192623,1.88973,2.0276e-14,7.7526e-15,-0.0943232,18.3744,-59.0462,37.132,11.4227,-17.3816,-0.10795,7.12502,8.86707,-29.9016,2.0276e-14,7.7526e-15,-20.7643,-15.9854,84.5297,30.1745,-6.17092,-16.5882,26.0563,7.12502,9.63267,55.816,2.27089,17.4506,21.2675,35.8445,-24.4404,-6.59668,3.9947,-1.57089,7.60246,-11.3204,54.2864,1.41095,11.3852,-21.3661
0.15634,18.2852,1.64382,-13.5028,-37.9887,4.93035,-2.65094,0.892037,-1.0836,-1.05294,1.21522,-1.05118,0.407207,0.604885,-0.433114,-3.46297,0.0673415,-7.3642,16.6319,0.365257,1.87286,5.57462,-0.192097,1.82534,-2.97929e-14,2.71341e-14,1.80214,16.8757,-57.9646,37.9522,12.5817,-17.1012,0.696099,7.12502,9.13769,-29.0859,-2.97929e-14,2.71341e-14,-20.3189,-16.0492,84.3991,30.5957,-6.11009,-16.685,25.3652,7.12502,9.53925,55.1292,2.46278,17.7623,22.1043,35.5294,-24.3245,-6.64946,3.30361,-3.04039,7.76872,-10.2805,56.4836,3.29769,11.1901,-21.0938
0.147464,18.2562,1.61696,-12.9049,-38.5474,3.51985,-2.10914,0.985685,0.47358,-1.02726,1.303,-0.738741,0.157886,0.646598,-0.99248,-3.66045,0.0251594,-7.23921,16.6026,0.337421,1.72187,5.60163,-0.206409,1.75583,5.18828e-14,-6.85807e-15,3.42947,16.4222,-56.5286,39.5247,12.523,-16.3227,0.85992,7.12502,9.8888,-28.8878,5.18828e-14,-6.85807e-15,-19.8616,-16.2245,84.2817,31.1123,-5.95742,-16.357,25.1601,7.12502,9.85576,54.9095,2.91011,18.0229,23.6243,35.1513,-24.2318,-6.54137,3.52098,-4.33338,7.99365,-8.50152,58.7481,5.29027,10.8549,-19.1104
0.140615,18.2317,1.58448,-12.5417,-38.8077,2.76914,-1.62898,1.00936,1.38479,-1.04388,1.32425,-0.565217,-0.111206,0.652978,-1.3342,-3.81272,-0.0204654,-7.17182,16.456,0.289425,1.68204,5.58422,-0.223495,1.72875,-5.29761e-14,-1.47101e-14,5.01438,16.3295,-54.8645,41.2405,11.9477,-15.9787,0.562953,7.12502,10.2207,-29.1687,-5.29761e-14,-1.47101e-14,-19.4685,-16.3249,84.1928,31.7337,-5.85609,-15.8522,25.2768,7.12502,10.3427,55.0025,3.11394,18.1103,24.4344,34.8051,-24.1482,-6.40953,4.43608,-5.90086,8.06015,-7.47081,60.9261,7.3308,10.6702,-16.9297
0.132683,18.2175,1.55222,-12.3653,-38.9626,2.56941,-1.24516,1.02329,1.75341,-1.13351,1.34551,-0.458464,-0.411508,0.658723,-1.43963,-4.04085,-0.0491674,-7.09378,16.4332,0.277749,1.58774,5.61731,-0.228958,1.68588,-2.40529e-14,6.95746e-15,6.65064,15.6604,-53.4047,42.6427,11.9988,-15.6015,0.559652,7.12502,10.5846,-29.1538,-2.40529e-14,6.95746e-15,-19.2622,-16.528,84.2635,32.4006,-6.00159,-15.9733,25.2405,7.12502,10.2259,54.9719,3.07844,18.1362,24.6966,34.5816,-24.0852,-6.44982,4.49454,-7.60256,8.12772,-7.02854,62.9546,9.32949,10.6943,-14.2205
0.125151,18.2111,1.52117,-12.2685,-39.1828,2.46639,-0.878597,1.04751,2.08621,-1.13808,1.38379,-0.40477,-0.613821,0.673795,-1.57814,-4.21042,-0.0526079,-6.92292,16.1635,0.281259,1.53183,5.5617,-0.212463,1.63898,3.51849e-14,-6.55989e-15,8.44819,14.2915,-52.3792,43.7978,12.7842,-15.1223,1.04758,7.12502,11.0468,-28.6417,3.51849e-14,-6.55989e-15,-18.9843,-16.6816,84.2562,33.0159,-6.53568,-16.3086,24.7581,7.12502,9.9024,54.5052,2.93397,18.1077,24.8643,34.555,-24.0324,-6.49102,4.09586,-9.22868,8.21489,-6.68508,64.844,11.3045,10.9454,-11.0731
0.126708,18.2071,1.48456,-11.9008,-39.5797,2.05094,-0.461109,1.13904,2.78069,-1.12755,1.51655,-0.321874,-0.816355,0.732732,-1.89063,-4.29745,-0.102479,-6.64937,15.6873,0.216141,1.3988,5.43076,-0.224155,1.54558,5.2181e-15,-6.75868e-15,10.1728,12.7785,-51.4479,44.9943,13.5119,-14.7133,1.29883,7.12502,11.4413,-28.369,5.2181e-15,-6.75868e-15,-18.5957,-16.9594,84.2111,33.7684,-6.49661,-16.2353,24.7458,7.12502,9.97316,54.4895,2.46358,18.1486,25.2248,34.6792,-23.8322,-6.33664,4.13566,-10.9438,8.48173,-6.04895,66.6294,13.3988,11.1297,-9.42843
0.139803,18.1965,1.43848,-11.0409,-40.0362,1.16918,-0.0832859,1.23718,3.7852,-1.20027,1.66723,-0.104179,-1.07427,0.794425,-2.24004,-4.36557,-0.155704,-6.4504,15.208,0.13589,1.37315,5.29597,-0.241101,1.49764,-5.35228e-14,-1.80894e-14,11.7533,11.6465,-50.2376,46.3416,13.6935,-14.5215,1.59303,7.12502,11.6262,-28.0644,-5.35228e-14,-1.80894e-14,-18.2764,-17.0127,84.272,34.6835,-5.92467,-15.8035,25.0582,7.12502,10.3898,54.7815,1.66868,18.258,25.88,34.8611,-23.4411,-6.10712,4.55008,-12.9909,8.92265,-5.01504,68.3447,15.5789,11.0114,-8.8132
0.146049,18.1887,1.40215,-10.4827,-40.3575,0.598282,0.236678,1.27508,4.49127,-1.20152,1.73952,0.0364333,-1.23516,0.820441,-2.49936,-4.44482,-0.160346,-6.28355,14.7447,0.108292,1.47042,5.16553,-0.22722,1.49678,-9.2087e-14,-7.95139e-15,13.2255,10.7249,-49.0285,47.7316,13.489,-14.8132,1.83358,7.12502,11.3449,-27.8396,-9.2087e-14,-7.95139e-15,-18.0566,-16.942,84.313,35.6252,-5.3794,-15.4019,25.5396,7.12502,10.7771,55.2432,1.19516,18.3665,26.3377,35.0609,-23.2362,-5.97579,4.4913,-14.811,9.34455,-4.30118,69.8204,17.2436,10.9351,-7.51747
0.141944,18.1923,1.38455,-10.6458,-40.5246,0.828498,0.514962,1.2413,4.52626,-1.07395,1.70718,0.0760473,-1.26287,0.805801,-2.48306,-4.46238,-0.0947188,-6.21547,14.1591,0.177918,1.59933,4.98352,-0.167526,1.52666,-6.49032e-14,9.14409e-15,14.8194,9.89264,-47.8598,48.9614,13.0153,-15.6044,2.02338,7.12502,10.5818,-27.6902,-6.49032e-14,9.14409e-15,-17.9092,-16.831,84.424,36.5274,-4.9745,-15.2645,26.406,7.12502,10.9096,56.1026,1.12559,18.5631,26.2285,35.2353,-23.3911,-5.87746,5.06372,-16.0956,9.62237,-4.37145,70.941,17.8154,11.2863,-5.40385
0.133441,18.2039,1.37558,-11.4256,-40.5773,1.90839,0.752931,1.22014,3.85579,-0.874371,1.67739,-0.030408,-1.20832,0.801784,-2.21976,-4.4936,-0.120986,-6.07716,13.5078,0.14514,1.52394,4.78938,-0.166526,1.47541,1.82882e-14,-1.39149e-14,16.4612,8.70094,-46.8835,50.0524,12.8153,-16.1465,2.1861,7.12502,10.0588,-27.5535,1.82882e-14,-1.39149e-14,-17.8272,-16.7616,84.6178,37.4028,-4.70352,-15.378,26.6711,7.12502,10.8002,56.3735,1.14919,18.6608,25.3779,35.3919,-23.579,-5.69043,5.37394,-17.0591,9.79067,-5.28418,71.741,17.3507,11.6808,-2.98535
0.125302,18.2154,1.36671,-12.13,-40.7531,2.93743,0.991523,1.25695,3.36283,-0.680148,1.72413,-0.245991,-1.1469,0.832846,-2.16882,-4.75116,-0.214909,-5.7032,13.0449,0.0208483,1.38876,4.69483,-0.206153,1.36379,5.47652e-14,1.19271e-14,17.9391,7.17051,-46.3159,51.1629,12.8733,-16.5772,2.23183,7.12502,9.64329,-27.5274,5.47652e-14,1.19271e-14,-17.8584,-16.8618,84.6725,38.3642,-4.4804,-15.5504,26.3987,7.12502,10.6339,56.1096,1.07368,18.727,24.5259,35.5367,-23.5823,-5.47094,5.28228,-17.9913,10.0809,-6.14817,72.3562,16.5244,11.3958,-2.10027
0.120762,18.2209,1.33958,-12.3879,-40.9519,3.54593,1.33791,1.24271,3.07087,-0.611904,1.71059,-0.358413,-1.27685,0.826895,-2.12827,-5.05673,-0.210014,-5.38342,12.6604,0.0152588,1.42277,4.6274,-0.182395,1.32044,2.76311e-14,8.74653e-15,19.3915,5.70815,-45.918,52.2815,12.9686,-17.2893,2.15033,7.12502,8.95616,-27.6396,2.76311e-14,8.74653e-15,-18.0516,-17.132,84.7351,39.4491,-4.08303,-15.9278,26.7839,7.12502,10.2699,56.5131,0.72067,18.9342,24.0501,35.6843,-23.5451,-5.51326,5.31547,-19.2641,10.5086,-6.60511,72.9269,15.5582,10.7486,-3.64969
0.118371,18.2288,1.30448,-12.4203,-41.0694,3.94433,1.74679,1.15814,2.76388,-0.633285,1.60519,-0.329432,-1.54342,0.772711,-1.93457,-5.15273,-0.149682,-5.22443,12.1459,0.0830852,1.48427,4.48281,-0.128061,1.31511,-5.56597e-14,-5.56597e-15,20.8875,4.31327,-45.5667,53.3519,13.1596,-18.0506,2.20425,7.12502,8.22154,-27.6158,-5.56597e-14,-5.56597e-15,-18.4392,-17.3252,84.9585,40.5814,-3.8464,-16.435,27.4098,7.12502,9.78045,57.1627,0.288403,19.1884,23.7542,35.7902,-23.4872,-5.74801,5.30139,-20.678,10.877,-6.91671,73.3928,14.1318,10.5556,-3.97309
0.117501,18.2403,1.27667,-12.3794,-41.1313,4.1661,2.22837,1.1009,2.58207,-0.665331,1.54004,-0.247681,-1.85701,0.737547,-1.75869,-5.23362,-0.171713,-5.14936,11.6752,0.0466967,1.54614,4.35324,-0.130389,1.31819,2.66371e-14,5.96354e-15,22.2276,2.77041,-45.2622,54.4493,13.2393,-18.3446,2.30437,7.12502,7.93779,-27.5266,2.66371e-14,5.96354e-15,-18.8731,-17.6015,85.2961,41.718,-3.56065,-17.4461,27.3806,7.12502,8.8049,57.177,-0.0184141,19.3799,23.6024,35.8382,-23.4115,-5.9456,5.0824,-22.0056,11.1576,-7.11993,73.7266,12.5692,10.4623,-2.59189
0.109801,18.2602,1.27003,-12.5927,-41.5262,4.61764,2.57562,1.18622,2.44832,-0.629442,1.65883,-0.25233,-2.01283,0.79659,-1.70088,-5.34203,-0.214145,-5.04721,10.9372,-0.00963664,1.57335,4.60556,-0.152422,1.44001,2.3059e-14,-3.97569e-16,23.3816,1.26686,-45.0226,55.6651,13.0335,-18.5262,2.30075,7.12502,7.76246,-27.5368,2.3059e-14,-3.97569e-16,-19.3543,-18.0007,85.6207,42.862,-3.01724,-18.8236,26.5293,7.12502,7.47542,56.3772,-0.103869,19.7783,23.322,35.7798,-23.2914,-5.98847,4.68925,-22.8964,11.6836,-7.45293,73.818,11.101,10.2578,-1.61612
0.103614,18.2758,1.24868,-12.7865,-41.5906,5.06657,2.91848,1.105,2.2869,-0.522617,1.55045,-0.359736,-2.10185,0.743666,-1.72296,-5.49573,-0.229631,-4.78771,10.5061,-0.0508127,1.63641,4.47895,-0.150524,1.40932,7.82218e-14,-6.75868e-15,24.7409,-0.372077,-45.2098,56.8057,13.0639,-18.8029,2.35711,7.12502,7.49539,-27.4901,7.82218e-14,-6.75868e-15,-19.7293,-18.4606,85.7057,44.0045,-2.36984,-18.7008,26.4681,7.12502,7.59398,56.3118,-0.176056,19.9291,23.0116,35.6624,-23.1465,-6.15422,4.43592,-23.9117,11.8919,-7.84925,73.7687,9.77347,10.1106,-1.14984
0.0957912,18.2974,1.23616,-12.9248,-41.7149,5.48242,3.10288,0.998801,2.16891,-0.392889,1.40587,-0.435004,-2.07958,0.673938,-1.72997,-5.65782,-0.221294,-4.48485,10.0862,-0.0484214,1.55199,4.35593,-0.133969,1.32298,4.27387e-14,7.95139e-16,26.239,-2.05641,-45.739,57.8662,13.5666,-19.2406,2.45588,7.12502,7.07292,-27.4059,4.27387e-14,7.95139e-16,-20.1436,-18.8577,85.8014,45.0995,-1.73789,-17.1034,27.1961,7.12502,9.13555,56.9783,-0.230833,20.1078,22.6999,35.4808,-23.116,-6.21322,4.54137,-24.8659,12.0975,-8.23731,73.5459,8.56814,10.0869,-1.52362
0.0920199,18.3161,1.2149,-12.7941,-41.7201,5.68528,3.42563,0.880621,2.03107,-0.40478,1.25053,-0.405104,-2.2836,0.595564,-1.62119,-5.62284,-0.198811,-4.56591,9.56689,-0.0394431,1.8584,4.164,-0.110188,1.43727,-1.87852e-14,-9.54166e-15,27.5629,-3.66675,-46.1973,59.013,13.9621,-19.6112,2.95051,7.12502,6.71511,-26.923,-1.87852e-14,-9.54166e-15,-20.6089,-19.3102,86.0527,46.0782,-0.92156,-16.7966,26.9327,7.12502,9.43156,56.7017,-0.451633,20.1917,22.5,35.2545,-23.0548,-6.3628,4.25024,-26.0727,12.1656,-8.49735,73.2171,7.77294,10.1616,-1.83161
0.0892267,18.3369,1.19805,-12.5489,-41.8696,5.77102,3.7049,0.851436,2.08735,-0.415565,1.22065,-0.384777,-2.45214,0.57784,-1.63578,-5.43118,-0.207755,-4.75129,8.87424,-0.0872319,2.37707,3.88619,-0.108115,1.63549,-3.05134e-14,-1.03368e-14,28.6844,-5.28806,-46.5628,60.3532,14.0861,-19.772,3.14454,7.12502,6.55991,-26.7339,-3.05134e-14,-1.03368e-14,-21.0221,-19.9548,86.3745,46.8805,-0.636439,-17.9852,25.9615,7.12502,8.28465,55.7791,-0.714587,20.2952,22.3612,34.9739,-22.9645,-6.36629,3.91021,-27.2235,12.2483,-8.6073,72.7528,7.15742,10.158,-2.55661
0.0824201,18.3647,1.19939,-12.3062,-42.2469,5.8297,3.78273,0.866815,2.2701,-0.365454,1.25234,-0.317878,-2.44063,0.592141,-1.67216,-5.3034,-0.214958,-4.72583,8.2978,-0.108521,2.48503,3.65928,-0.106589,1.65859,9.25343e-14,-7.95139e-15,29.8942,-6.77708,-46.9368,61.7173,14.0844,-19.9449,2.59511,7.12502,6.39303,-27.2884,9.25343e-14,-7.95139e-15,-21.5433,-20.8036,86.8671,47.5242,-1.34772,-19.0163,25.967,7.12502,7.28939,55.8215,-0.919458,20.4445,22.234,34.6701,-22.8836,-6.18399,3.9276,-28.1275,12.4215,-8.60393,72.1605,6.42312,10.1213,-3.15764
0.078467,18.3831,1.19243,-12.0252,-42.4838,5.81486,3.96421,0.835964,2.44716,-0.31762,1.22412,-0.291047,-2.49162,0.575533,-1.7452,-5.3245,-0.223099,-4.52513,7.90038,-0.132008,2.49798,3.52362,-0.106549,1.62115,2.23633e-14,1.59028e-15,31.0921,-8.31318,-47.5369,63.0207,14.1889,-20.1629,2.07411,7.12502,6.18256,-27.8157,2.23633e-14,1.59028e-15,-22.0837,-21.6742,87.2774,48.1764,-2.06948,-18.969,26.5768,7.12502,7.33509,56.4297,-1.12342,20.481,22.1797,34.3547,-22.6576,-6.19945,3.58062,-29.0873,12.4862,-8.55154,71.5202,5.89891,10.0277,-2.77228
0.074978,18.3995,1.17865,-11.7954,-42.6535,5.90556,4.19719,0.828082,2.49553,-0.262156,1.22098,-0.3079,-2.56417,0.572622,-1.7933,-5.50836,-0.265705,-4.44674,7.60023,-0.202765,2.7305,3.4591,-0.12546,1.67993,1.50082e-14,-1.66979e-14,32.265,-9.91538,-48.1739,64.306,14.3412,-20.6239,2.14014,7.12502,5.73747,-27.7622,1.50082e-14,-1.66979e-14,-22.5189,-22.5375,87.6264,48.7786,-2.6796,-18.5341,26.8904,7.12502,7.7548,56.7282,-1.35176,20.5601,22.0391,34.0104,-22.4057,-6.18068,3.43445,-30.0525,12.5347,-8.59085,70.7903,5.58954,9.88666,-2.23053
0.0712471,18.4196,1.16776,-11.5741,-42.8465,6.02696,4.42333,0.788431,2.49436,-0.216877,1.17388,-0.291003,-2.6472,0.548406,-1.77603,-5.6853,-0.268104,-4.36216,7.29285,-0.207406,2.81193,3.38684,-0.11792,1.68965,5.2181e-14,1.59028e-15,33.504,-11.3447,-48.7955,65.622,14.4352,-21.235,1.8828,7.12502,5.14742,-28.0347,5.2181e-14,1.59028e-15,-22.9547,-23.3063,87.9991,49.2517,-3.46609,-18.4324,27.1767,7.12502,7.853,57.0109,-1.59468,20.6006,21.8394,33.6571,-22.1914,-6.03964,3.45983,-30.9396,12.5535,-8.62954,69.9587,5.32751,9.68323,-2.78301
0.0667315,18.4441,1.16086,-11.3357,-43.0964,6.03312,4.70289,0.769594,2.56945,-0.170648,1.16181,-0.213044,-2.7573,0.540536,-1.74169,-5.65737,-0.269315,-4.27437,6.83899,-0.209169,2.78797,3.22367,-0.113504,1.66021,-2.11706e-14,8.74653e-15,34.7029,-12.697,-49.3176,66.9025,14.5533,-21.705,1.56053,7.12502,4.69361,-28.3675,-2.11706e-14,8.74653e-15,-23.4052,-24.1342,88.4608,49.6609,-4.05202,-18.3106,27.8247,7.12502,7.97059,57.6544,-1.71864,20.6419,21.7628,33.2463,-21.9463,-5.89045,3.59148,-31.6951,12.5027,-8.49971,69.0276,4.99576,9.55509,-2.64995
0.0611008,18.4733,1.15889,-11.1476,-43.379,6.14334,4.91082,0.782602,2.55758,-0.129312,1.18549,-0.144572,-2.83195,0.552113,-1.6695,-5.42987,-0.301042,-4.27,6.20837,-0.257734,2.85956,2.96685,-0.131321,1.67231,-8.01102e-14,-2.78299e-14,35.8972,-13.9675,-49.7991,68.0837,14.5974,-22.3283,1.29513,7.12502,4.09171,-28.6453,-8.01102e-14,-2.78299e-14,-23.9034,-24.9536,88.9767,50.0441,-4.65926,-17.8092,28.9577,7.12502,8.45448,58.7685,-1.82713,20.6807,21.5862,32.7794,-21.605,-5.74396,3.72729,-32.3922,12.3741,-8.43224,68.0113,4.67176,9.43561,-2.66291
0.0532981,18.5028,1.16148,-10.8826,-43.7145,6.21349,4.95976,0.814826,2.63655,-0.036701,1.23285,-0.140456,-2.76014,0.576417,-1.71276,-5.34876,-0.314108,-4.14496,5.6535,-0.29018,3.00523,2.76489,-0.136155,1.69008,1.33186e-14,1.03368e-14,37.0948,-15.2696,-50.4906,69.2896,14.6118,-23.0376,0.862182,7.12502,3.40674,-29.0903,1.33186e-14,1.03368e-14,-24.2725,-25.6835,89.3558,50.2203,-5.41358,-17.5252,29.4296,7.12502,8.72854,59.2292,-1.97715,20.754,21.4305,32.2876,-21.2412,-5.6372,3.4774,-33.0752,12.2169,-8.30352,66.9699,4.14654,9.40216,-4.15078
0.0484437,18.5278,1.1583,-10.4954,-43.892,6.08288,5.10027,0.794055,2.84856,0.0746616,1.21902,-0.161858,-2.72005,0.568082,-1.85416,-5.58639,-0.3125,-3.73833,5.38924,-0.303066,2.93479,2.71657,-0.132823,1.59214,2.07233e-14,-3.18055e-15,38.3445,-16.6901,-51.4134,70.4521,14.8465,-23.5185,0.854157,7.12502,2.94235,-29.1053,2.07233e-14,-3.18055e-15,-24.5539,-26.5694,89.6212,50.2716,-5.93256,-17.4101,29.2686,7.12502,8.83966,59.0634,-2.09067,20.7913,21.4455,31.7973,-20.9025,-5.66988,3.13232,-33.805,11.9428,-8.02433,65.9319,3.54846,9.58478,-5.16276
0.0449359,18.5465,1.14365,-9.98809,-43.9262,5.76665,5.41533,0.729853,3.02145,0.103561,1.15531,-0.0946854,-2.86844,0.532065,-1.88279,-5.6475,-0.30429,-3.5383,5.17435,-0.305063,2.96849,2.65433,-0.127164,1.56554,7.38485e-14,9.54166e-15,39.5129,-17.9601,-52.2643,71.5653,15.0562,-24.2467,1.35892,7.12502,2.23913,-28.6091,7.38485e-14,9.54166e-15,-24.8568,-27.3223,89.9248,50.2362,-6.83838,-16.9592,29.4525,7.12502,9.27476,59.2285,-2.17686,20.7742,21.6404,31.3148,-20.587,-5.83138,2.7429,-34.6019,11.6335,-7.5689,64.8913,3.49357,9.76219,-4.28646
0.0381615,18.5687,1.13439,-9.42721,-44.0139,5.42206,5.57427,0.671543,3.23024,0.157705,1.09749,-0.00573089,-2.9028,0.500701,-1.906,-5.58083,-0.288661,-3.49914,4.82565,-0.291799,3.10315,2.52539,-0.11481,1.59927,-1.86361e-14,-7.95139e-15,40.69,-19.0926,-53.0189,72.5924,15.3155,-25.5106,1.55924,7.12502,1.01845,-28.4181,-1.86361e-14,-7.95139e-15,-25.0715,-27.8379,90.2637,50.0664,-8.06689,-16.6197,30.1677,7.12502,9.60231,59.9288,-2.30908,20.777,21.8261,30.8134,-20.2703,-5.94582,2.44048,-35.378,11.3144,-7.05476,63.8367,3.59397,9.74125,-2.10935
0.029707,18.5935,1.12961,-9.0197,-44.149,5.24062,5.69146,0.609319,3.35221,0.233037,1.02618,0.0413351,-2.89352,0.464606,-1.92151,-5.34049,-0.261309,-3.36064,4.30912,-0.265373,3.1219,2.30697,-0.0990278,1.57473,7.17613e-14,-1.43125e-14,41.9515,-20.1145,-53.908,73.567,15.766,-26.6201,1.40754,7.12502,-0.05313,-28.5722,7.17613e-14,-1.43125e-14,-25.2832,-28.3413,90.5924,49.7452,-9.15279,-15.8698,30.4834,7.12502,10.3257,60.2099,-2.36888,20.8185,21.8785,30.2852,-20.0037,-5.9518,2.6011,-36.0298,11.0474,-6.64208,62.751,3.23908,9.64334,-1.09238
0.0203645,18.6191,1.129,-8.7836,-44.2132,5.20768,5.87448,0.525253,3.35564,0.297347,0.920634,0.0733015,-2.93623,0.41196,-1.88422,-4.95343,-0.230498,-3.33347,3.73513,-0.232035,3.21432,2.04632,-0.0813614,1.5929,-4.4975e-14,-3.97569e-15,43.2088,-21.0295,-54.8409,74.5282,16.2846,-27.4577,1.24868,7.12502,-0.862165,-28.7293,-4.4975e-14,-3.97569e-15,-25.6226,-29.0011,90.9888,49.3928,-9.80913,-14.7948,30.6422,7.12502,11.3626,60.3143,-2.27755,20.842,21.8454,29.7045,-19.7724,-5.94868,2.78595,-36.5574,10.7832,-6.36633,61.6436,2.56962,9.844,-1.92942
0.0108026,18.6416,1.13055,-8.6483,-44.2293,5.24259,6.07397,0.488488,3.32316,0.375441,0.87485,0.0666316,-2.97029,0.389636,-1.87128,-4.77072,-0.2458,-3.34854,3.48688,-0.260916,3.39924,1.93482,-0.0925685,1.6513,-1.97791e-14,0,44.2946,-22.0471,-55.6348,75.5072,16.6887,-28.2059,0.952556,7.12502,-1.58474,-29.0213,-1.97791e-14,0,-26.0319,-29.9427,91.5261,49.0312,-10.0331,-13.9417,31.1288,7.12502,12.1853,60.7539,-2.09925,20.8424,21.7939,29.0986,-19.4883,-6.00402,2.59986,-36.9822,10.4948,-6.14573,60.5355,2.02721,10.2492,-2.2429
-0.00244707,18.664,1.13306,-8.37324,-44.3462,5.18558,6.09127,0.493013,3.33311,0.503699,0.878804,0.0656104,-2.847,0.394829,-1.87743,-4.82242,-0.244631,-3.52882,3.46208,-0.263848,3.79624,1.94129,-0.0865563,1.8133,-9.19379e-16,6.36111e-15,45.4093,-23.047,-56.5221,76.4933,17.14,-28.9565,0.383606,7.12502,-2.30968,-29.5836,-9.19379e-16,6.36111e-15,-26.2872,-30.9628,91.9988,48.5248,-10.3404,-13.1211,31.6069,7.12502,12.9764,61.1834,-2.01848,20.9492,21.8042,28.4878,-19.1987,-6.05404,2.30874,-37.4386,10.3486,-5.83267,59.4487,1.64697,10.6257,-0.637527
-0.0178739,18.6877,1.13456,-8.09847,-44.478,5.16556,6.14727,0.491449,3.2787,0.585817,0.87215,0.0364551,-2.7942,0.393694,-1.87653,-4.86522,-0.26665,-3.56492,3.47144,-0.30121,4.03562,1.95627,-0.0995821,1.89763,-1.77664e-15,0,46.4524,-23.8905,-57.4741,77.4458,17.6854,-29.928,0.105147,7.12502,-3.24796,-29.8499,-1.77664e-15,0,-26.6267,-32.2268,92.4944,47.9245,-10.4636,-12.4873,32.1788,7.12502,13.5873,61.7154,-1.97893,21.0942,21.7816,27.8835,-18.8827,-6.11352,2.16276,-37.9411,10.2755,-5.56678,58.3777,1.45899,10.9739,1.10878
-0.0305171,18.709,1.13677,-7.89258,-44.5843,5.1627,6.30169,0.480172,3.2377,0.661785,0.856544,-0.0145795,-2.80281,0.386645,-1.90639,-4.7903,-0.325451,-3.40333,3.35155,-0.391335,4.06406,1.90623,-0.142554,1.87332,3.07868e-14,4.77083e-15,47.4634,-24.6747,-58.4539,78.3937,18.0955,-30.7165,0.322763,7.12502,-4.00935,-29.6193,3.07868e-14,4.77083e-15,-27.0018,-33.8217,93.0952,47.1305,-10.203,-12.1139,32.7473,7.12502,13.9473,62.2595,-1.87795,21.2813,21.768,27.277,-18.5786,-6.2616,2.15791,-38.3867,10.1159,-5.30782,57.3302,1.27571,11.3232,2.30397
-0.041891,18.7305,1.13619,-7.72809,-44.5924,5.20976,6.4791,0.440748,3.1133,0.731431,0.799256,-0.0341079,-2.83473,0.359428,-1.8536,-4.62682,-0.37371,-3.53464,3.1818,-0.456318,4.26257,1.82741,-0.174063,1.95751,-6.27632e-14,2.78299e-14,48.4966,-25.3592,-59.3288,79.2852,18.2366,-31.3558,0.413106,7.12502,-4.62669,-29.5164,-6.27632e-14,2.78299e-14,-27.4455,-35.209,93.808,46.3006,-10.3077,-11.1685,33.3153,7.12502,14.8582,62.7625,-1.75821,21.3307,21.7023,26.6786,-18.3021,-6.33943,2.15131,-38.8074,9.89205,-5.11585,56.2991,1.09588,11.5524,2.60511
-0.0524009,18.7544,1.14042,-7.45476,-44.6555,5.1741,6.58538,0.399341,3.07807,0.780852,0.743785,-0.040345,-2.84648,0.332329,-1.83638,-4.53574,-0.371432,-3.66209,3.17025,-0.456282,4.46178,1.81054,-0.17227,2.04552,7.01337e-14,1.11319e-14,49.4625,-25.8614,-60.1603,80.0956,18.1807,-32.3106,-0.00962525,7.12502,-5.54864,-29.917,7.01337e-14,1.11319e-14,-27.9947,-36.6086,94.581,45.435,-10.5735,-9.8237,33.7332,7.12502,16.1534,63.0801,-1.73594,21.306,21.6491,26.1409,-18.0707,-6.29776,2.21055,-39.2432,9.73846,-4.90117,55.2904,1.15673,11.7124,1.5635
-0.0629322,18.7767,1.1484,-7.19115,-44.8308,5.09242,6.70703,0.379498,3.18702,0.836248,0.726284,-0.0978586,-2.85607,0.322392,-1.95653,-4.42335,-0.369248,-3.68045,3.14654,-0.458703,4.54888,1.78381,-0.173135,2.07657,-6.38347e-14,7.95139e-16,50.3718,-26.322,-61.0745,80.8511,18.2389,-32.9388,0.0497787,7.12502,-6.15513,-29.8408,-6.38347e-14,7.95139e-16,-28.6312,-38.4002,95.4039,44.4373,-10.5964,-8.66264,33.9614,7.12502,17.2712,63.2139,-1.68776,21.3961,21.6614,25.6473,-17.8153,-6.29092,2.21242,-39.5872,9.69535,-4.64467,54.2953,1.25404,11.8648,-0.125624
-0.0710041,18.7914,1.14451,-7.06759,-44.8762,5.11846,6.9745,0.342441,3.0937,0.936721,0.674382,-0.171285,-2.90478,0.29715,-1.97769,-4.68192,-0.466525,-3.38554,3.37392,-0.59237,4.22735,1.90396,-0.239888,1.91717,1.14289e-13,2.38542e-15,51.3055,-26.8444,-61.9558,81.6094,18.2481,-33.343,0.161478,7.12502,-6.5453,-29.7174,1.14289e-13,2.38542e-15,-29.2699,-40.4366,96.2528,43.4078,-10.4684,-7.7587,34.3627,7.12502,18.141,63.5367,-1.58256,21.5344,21.6527,25.1816,-17.5722,-6.42716,2.09796,-39.9442,9.58113,-4.45254,53.3231,1.25752,12.0327,0.073775
-0.0791949,18.8091,1.14269,-7.08787,-44.9103,5.30152,7.26743,0.331865,2.82974,1.06145,0.644155,-0.237654,-2.94324,0.284823,-1.89751,-5.4192,-0.579897,-2.8714,4.06469,-0.749711,3.62484,2.25896,-0.317491,1.63268,3.54334e-14,-7.95139e-16,52.2334,-27.3107,-62.6769,82.2607,18.3378,-33.9396,-0.206985,7.12502,-7.1213,-30.0672,3.54334e-14,-7.95139e-16,-30.1644,-42.6627,97.4625,42.4654,-9.85052,-7.07486,35.1197,7.12502,18.7988,64.2313,-1.46032,21.6725,21.5208,24.7746,-17.3818,-6.49691,2.12493,-40.2347,9.44801,-4.39706,52.3795,1.20528,12.181,0.623412
-0.0939571,18.8309,1.15014,-7.09932,-45.0799,5.5448,7.37573,0.369345,2.53023,1.18406,0.669706,-0.269459,-2.87862,0.302135,-1.76477,-5.8741,-0.634001,-2.62011,4.47717,-0.817468,3.20359,2.4746,-0.354645,1.45329,5.09386e-15,7.95139e-16,53.1729,-27.6578,-63.4199,82.862,18.4836,-34.2302,-0.407962,7.12502,-7.4018,-30.2585,5.09386e-15,7.95139e-16,-31.332,-44.8658,99.0507,41.5689,-9.17064,-7.18161,35.9056,7.12502,18.6961,65.0271,-1.43696,21.7967,21.3044,24.44,-17.2337,-6.4226,2.16457,-40.5074,9.48253,-4.43366,51.5014,1.21178,12.2609,0.278868
-0.107482,18.8443,1.15557,-7.0183,-45.1495,5.70655,7.47069,0.336499,2.20755,1.26131,0.602384,-0.226622,-2.85891,0.272438,-1.53308,-5.46279,-0.5633,-3.0616,4.05891,-0.701689,3.44594,2.26314,-0.301119,1.61001,1.63252e-14,-6.36111e-15,54.0864,-27.8178,-64.0998,83.391,18.4273,-34.3881,-0.294944,7.12502,-7.55416,-30.14,1.63252e-14,-6.36111e-15,-32.373,-46.1771,100.487,40.7388,-9.76908,-9.35787,36.5024,7.12502,16.6019,65.8123,-1.44304,21.8681,21.1338,24.0858,-17.0322,-6.44006,2.09572,-40.8801,9.49555,-4.45983,50.6935,1.31107,12.2791,-0.11297
-0.116256,18.8518,1.16316,-6.94791,-45.2319,5.8415,7.63726,0.314819,1.98116,1.34605,0.556757,-0.236978,-2.86822,0.251862,-1.41314,-4.70182,-0.421447,-3.82326,3.24226,-0.498934,4.22975,1.86481,-0.198829,1.99872,-3.67752e-14,5.56597e-15,54.8682,-27.9545,-64.6576,83.8239,18.3011,-34.6992,0.00204401,7.12502,-7.85449,-29.832,-3.67752e-14,5.56597e-15,-33.1234,-46.759,101.305,40.438,-11.4097,-12.468,36.6531,7.12502,13.606,66.1885,-1.42509,21.8506,20.9672,23.7468,-16.8072,-6.26756,2.39366,-41.2117,9.59312,-4.49495,49.9409,1.27928,12.2123,-1.01809
-0.12104,18.8597,1.17192,-6.61488,-45.3667,5.59706,7.84046,0.254077,2.08961,1.43836,0.488234,-0.195573,-2.88801,0.216801,-1.42579,-4.73192,-0.361541,-3.87154,3.16685,-0.410288,4.17485,1.84157,-0.156181,1.99145,6.12257e-14,-1.59028e-14,55.6821,-27.9744,-65.2366,84.1753,18.1969,-34.9695,0.47501,7.12502,-8.11532,-29.3492,6.12257e-14,-1.59028e-14,-33.4088,-46.664,101.45,40.5809,-13.5287,-13.1641,35.5365,7.12502,12.935,65.1155,-1.45263,21.8164,21.0843,23.4775,-16.5572,-6.01321,3.19459,-41.5429,9.76519,-4.26487,49.2165,1.21191,12.2136,-1.78174
-0.124916,18.872,1.1794,-6.43162,-45.443,5.6466,8.02297,0.162641,1.96068,1.49857,0.357766,-0.208528,-2.93329,0.152511,-1.35441,-5.85392,-0.45415,-2.98898,4.14098,-0.527538,2.98554,2.35045,-0.223235,1.45595,-9.50191e-14,1.98785e-14,56.4013,-27.837,-65.7903,84.5684,18.0668,-35.2906,0.584151,7.12502,-8.42518,-29.2278,-9.50191e-14,1.98785e-14,-33.3051,-45.835,101.085,40.9464,-15.7726,-11.5086,33.1941,7.12502,14.5305,62.6653,-1.60165,21.7426,20.9338,23.2633,-16.4661,-5.94976,3.66879,-41.9239,9.88056,-4.31872,48.4851,1.09652,12.3575,-1.76059
-0.12914,18.8833,1.18953,-6.39522,-45.4543,5.95795,8.17526,0.0855559,1.66318,1.53627,0.228421,-0.309679,-2.98478,0.0899558,-1.27884,-5.60377,-0.362912,-2.98724,3.78511,-0.404306,2.95367,2.1822,-0.164188,1.44529,1.63003e-14,-4.77083e-15,56.9307,-27.7141,-66.2223,84.929,18.0241,-35.5702,0.401962,7.12502,-8.69502,-29.399,1.63003e-14,-4.77083e-15,-33.3111,-45.1831,100.718,41.5655,-16.9936,-12.0209,33.9951,7.12502,14.0369,63.5011,-1.78243,21.6641,20.5575,23.0407,-16.51,-6.04675,3.69524,-42.3365,10.025,-4.66986,47.7643,1.07913,12.4629,-2.2245
-0.134453,18.8892,1.20156,-6.25777,-45.4804,6.10438,8.29586,0.042029,1.46992,1.59631,0.152542,-0.36453,-2.99277,0.0536657,-1.21911,-5.61576,-0.357319,-2.90261,3.68698,-0.388906,2.70921,2.14855,-0.161719,1.3508,-4.43787e-14,1.43125e-14,57.405,-27.6643,-66.5774,85.2509,18.1303,-35.6242,0.359089,7.12502,-8.74713,-29.4397,-4.43787e-14,1.43125e-14,-33.2016,-44.7753,100.371,42.1898,-17.4185,-11.5932,34.2864,7.12502,14.4489,63.7633,-1.92846,21.6486,20.3262,22.8404,-16.5597,-6.07853,2.9732,-42.71,10.2481,-4.92081,47.0634,0.946033,12.6236,-2.48432
-0.144944,18.8984,1.22332,-6.25708,-45.677,6.26823,8.37411,0.099849,1.3294,1.73522,0.212721,-0.452232,-2.89085,0.0853673,-1.23707,-5.73386,-0.40146,-2.89938,3.62318,-0.443296,2.69275,2.15061,-0.188377,1.34306,-2.87244e-14,6.36111e-15,57.7907,-27.7265,-66.8628,85.5147,18.2554,-35.5163,0.321044,7.12502,-8.64309,-29.482,-2.87244e-14,6.36111e-15,-32.9627,-44.7048,100.127,42.6171,-16.9999,-10.9736,34.0866,7.12502,15.046,63.5199,-1.89001,21.7276,20.1369,22.6089,-16.7102,-5.92196,2.90196,-42.8386,10.5518,-5.16235,46.3875,0.797058,12.9182,-2.80139
-0.154736,18.9102,1.23825,-6.22283,-45.8089,6.38445,8.53637,0.162794,1.18874,1.82386,0.280289,-0.563116,-2.88733,0.119603,-1.28039,-5.6442,-0.456172,-2.8014,3.37319,-0.524566,2.73502,2.05412,-0.226696,1.33418,9.50688e-14,-7.95139e-15,57.8872,-27.8312,-66.9746,85.7934,18.3181,-35.4092,0.419658,7.12502,-8.53967,-29.3877,9.50688e-14,-7.95139e-15,-32.8699,-45.0752,100.118,42.861,-15.7702,-11.0016,33.9172,7.12502,15.019,63.3525,-1.84794,21.7827,20.0092,22.3558,-16.7543,-5.89108,2.93047,-43.014,10.8286,-5.39574,45.7316,1.01514,13.0755,-3.05885
-0.164014,18.926,1.2526,-6.14522,-45.9097,6.5301,8.67732,0.206729,1.02374,1.84616,0.319959,-0.691826,-2.9415,0.139591,-1.32581,-5.61091,-0.473717,-2.70816,3.31387,-0.55708,2.77753,2.02921,-0.240744,1.32976,3.25013e-14,-7.95139e-15,57.7491,-27.8427,-66.9873,86.1231,18.2931,-35.3629,0.637984,7.12502,-8.49504,-29.1711,3.25013e-14,-7.95139e-15,-32.6823,-45.3755,99.939,42.9145,-15.0153,-10.6865,34.0434,7.12502,15.3225,63.4557,-1.8724,21.7342,19.804,22.066,-16.6443,-5.79631,2.84826,-43.2381,10.9991,-5.62823,45.1017,1.04463,13.3109,-2.23518
-0.173205,18.9362,1.268,-6.03325,-45.9553,6.68598,8.78359,0.247385,0.765174,1.82192,0.348626,-0.757771,-3.02598,0.154905,-1.25257,-5.61077,-0.502425,-2.80914,3.46739,-0.597672,2.93038,2.08333,-0.258373,1.39678,7.60351e-14,-1.03368e-14,57.5572,-27.7363,-66.91,86.4074,18.3693,-35.4239,0.352954,7.12502,-8.55387,-29.4538,7.60351e-14,-1.03368e-14,-32.3857,-45.4196,99.6946,42.8081,-14.8811,-10.0536,34.1082,7.12502,15.9321,63.4729,-1.93734,21.7884,19.5834,21.8115,-16.6105,-5.67998,3.2397,-43.4959,11.1633,-5.92111,44.5377,0.798245,13.5753,-1.45265
-0.180739,18.9399,1.28627,-5.73585,-45.9663,6.5267,8.9514,0.289397,0.747458,1.77071,0.403998,-0.746779,-3.17088,0.181544,-1.23912,-5.481,-0.58845,-2.91554,3.57253,-0.713406,3.01044,2.09988,-0.316362,1.43776,-6.91771e-14,4.77083e-15,57.1812,-27.6101,-66.6706,86.688,18.5864,-35.6554,0.273321,7.12502,-8.77725,-29.5242,-6.91771e-14,4.77083e-15,-32.4343,-45.8512,99.9301,42.6862,-13.9851,-10.6992,34.5272,7.12502,15.3103,63.9405,-1.99493,21.879,19.6306,21.6668,-16.6422,-5.69582,3.5322,-43.7574,11.3786,-6.03956,44.0693,0.642186,13.7126,-0.897198
-0.184653,18.9358,1.30779,-5.23479,-45.9881,6.03299,9.10519,0.301751,1.05337,1.75551,0.452636,-0.682578,-3.26873,0.202319,-1.35194,-5.42168,-0.668266,-3.0542,3.67379,-0.814621,3.04551,2.12759,-0.368333,1.47073,7.11649e-14,-3.29983e-14,56.8508,-27.404,-66.5172,86.9363,18.8829,-35.7021,0.590145,7.12502,-8.82235,-29.2054,7.11649e-14,-3.29983e-14,-32.877,-46.8083,100.579,42.7639,-11.9911,-13.0246,36.5839,7.12502,13.0695,66.1544,-2.07192,21.9275,19.9332,21.6195,-16.7082,-5.83639,3.76477,-43.9869,11.5933,-5.92924,43.7011,0.565163,13.7892,-1.3008
-0.188372,18.9233,1.33109,-4.80118,-45.9153,5.68093,9.17579,0.255488,1.23215,1.75908,0.41152,-0.612726,-3.30465,0.180125,-1.376,-5.52421,-0.686791,-3.20462,3.87983,-0.824015,2.95622,2.21515,-0.377154,1.47003,5.24295e-14,-5.56597e-15,56.5516,-27.0114,-66.4312,87.1986,19.1549,-35.689,0.855197,7.12502,-8.80974,-28.9409,5.24295e-14,-5.56597e-15,-32.8795,-47.112,100.635,42.8035,-11.6731,-13.015,36.6726,7.12502,13.0787,66.2425,-2.19456,21.8581,20.1105,21.6036,-16.7857,-5.90307,3.8153,-44.2459,11.7948,-6.01249,43.4028,0.532125,13.7212,-2.68505
-0.194284,18.9173,1.35413,-4.48837,-45.786,5.50439,9.27628,0.219747,1.27759,1.72751,0.370464,-0.595951,-3.39435,0.158492,-1.38031,-5.55443,-0.717174,-3.28421,4.03539,-0.853116,2.82568,2.27242,-0.396632,1.4419,2.45996e-14,4.77083e-15,55.9776,-26.6341,-66.1025,87.4855,19.2157,-35.8334,0.766477,7.12502,-8.94907,-29.0237,2.45996e-14,4.77083e-15,-32.9539,-47.4905,100.732,42.9288,-11.3188,-12.7723,37.1498,7.12502,13.3127,66.7045,-2.28143,21.8094,20.1579,21.5513,-16.855,-5.93742,4.0337,-44.5332,11.9258,-6.23553,43.1538,0.730687,13.6162,-3.80347
-0.202357,18.9137,1.37502,-4.33764,-45.6984,5.40552,9.47917,0.251155,1.19046,1.7428,0.404493,-0.607571,-3.49054,0.175213,-1.34897,-5.5706,-0.787067,-3.27945,4.09882,-0.942176,2.73001,2.29818,-0.443664,1.40715,1.23246e-14,-2.38542e-15,55.2315,-26.3785,-65.6589,87.8336,19.1887,-35.8945,0.729596,7.12502,-9.00798,-29.0581,1.23246e-14,-2.38542e-15,-33.092,-48.0738,100.945,43.0188,-10.6788,-13.0194,37.9828,7.12502,13.0745,67.553,-2.23253,21.8062,20.1952,21.4726,-16.9536,-6.05856,4.15603,-44.6449,11.9828,-6.43061,42.9252,0.745319,13.6797,-3.20311
-0.214378,18.9149,1.41634,-4.2448,-45.9247,5.3086,9.43716,0.359579,1.27766,1.87655,0.552859,-0.654666,-3.32226,0.249299,-1.46369,-5.67642,-0.830944,-3.41474,4.15404,-0.989424,2.76252,2.3396,-0.467932,1.4407,-1.55549e-14,-5.96354e-15,54.6152,-26.0569,-65.3791,88.1219,19.3495,-35.8961,0.703788,7.12502,-9.00955,-29.0838,-1.55549e-14,-5.96354e-15,-32.9298,-48.3256,100.894,42.8933,-10.5441,-12.8234,37.996,7.12502,13.2634,67.554,-2.08242,21.8927,20.1949,21.3173,-17.0307,-5.93011,4.37641,-44.4487,11.9987,-6.48957,42.7284,0.302523,13.9748,-1.93971
-0.225409,18.9108,1.45238,-3.92111,-46.0852,5.00982,9.4374,0.356962,1.41689,1.92445,0.563508,-0.622738,-3.2712,0.253907,-1.50994,-5.76206,-0.791507,-3.55863,4.20887,-0.921691,2.73606,2.37263,-0.437015,1.46093,-5.71506e-15,4.77083e-15,54.0322,-25.4102,-65.3001,88.332,19.751,-36.0519,0.658501,7.12502,-9.15989,-29.1226,-5.71506e-15,4.77083e-15,-32.7343,-48.2157,100.691,42.7374,-10.5944,-12.4933,37.57,7.12502,13.5816,67.107,-2.01916,21.894,20.3241,21.1455,-17.0592,-5.70696,4.39409,-44.3789,11.9933,-6.41441,42.5483,0.0788321,14.2183,-1.38446
-0.235121,18.9054,1.48514,-3.64448,-46.179,4.7407,9.56307,0.287907,1.49141,1.9321,0.481637,-0.587761,-3.33553,0.211908,-1.50695,-5.88009,-0.734612,-3.67937,4.29096,-0.828595,2.66025,2.41895,-0.394578,1.46232,-3.47873e-15,6.75868e-15,53.2952,-24.6102,-65.1093,88.5716,19.916,-36.0838,0.563122,7.12502,-9.19068,-29.2166,-3.47873e-15,6.75868e-15,-32.7834,-48.2862,100.636,42.6571,-10.6105,-12.5652,37.2905,7.12502,13.5123,66.8321,-1.94945,21.8449,20.4514,21.003,-17.0768,-5.57567,4.22166,-44.3074,12.0712,-6.43554,42.3729,0.27957,14.3019,-1.87199
-0.245255,18.9002,1.51972,-3.52318,-46.2255,4.635,9.70774,0.239785,1.45807,1.95204,0.41514,-0.597151,-3.39763,0.178399,-1.49093,-5.89803,-0.691736,-3.82026,4.20857,-0.757935,2.65945,2.39385,-0.361345,1.48934,1.46902e-13,-3.18055e-15,52.4507,-23.8657,-64.8526,88.7808,19.9648,-35.93,0.679337,7.12502,-9.04224,-29.1069,1.46902e-13,-3.18055e-15,-32.9763,-48.4706,100.692,42.7142,-10.4063,-13.0727,37.239,7.12502,13.0231,66.8125,-1.85949,21.7282,20.4626,20.9324,-17.1538,-5.44402,4.50684,-44.1609,12.1683,-6.63609,42.1952,0.435598,14.3457,-1.94015
-0.254925,18.8923,1.55314,-3.27418,-46.268,4.50914,9.76814,0.22619,1.39782,1.91235,0.392475,-0.589714,-3.47367,0.166923,-1.44717,-5.87708,-0.649027,-3.91076,4.14366,-0.689859,2.5949,2.36612,-0.330698,1.48637,-2.73329e-15,-2.46493e-14,51.5071,-23.1011,-64.5373,88.9734,20.1123,-36.0006,0.519734,7.12502,-9.11039,-29.2635,-2.73329e-15,-2.46493e-14,-32.9524,-48.1561,100.628,42.6498,-10.2416,-13.5653,37.1988,7.12502,12.5482,66.802,-1.95093,21.644,20.4423,20.9488,-17.3107,-5.2394,4.99041,-44.0969,12.1711,-6.77945,42.0421,0.33189,14.5208,-1.59914
-0.265753,18.8844,1.59154,-3.06933,-46.3992,4.40612,9.80609,0.281887,1.33861,1.91366,0.458999,-0.628181,-3.49118,0.200108,-1.46241,-6.0541,-0.663325,-3.78637,4.20368,-0.703081,2.41142,2.41592,-0.340023,1.40503,-7.4743e-14,1.63003e-14,50.4437,-22.4338,-64.2413,89.1364,20.3618,-36.4121,0.357305,7.12502,-9.50745,-29.4082,-7.4743e-14,1.63003e-14,-32.6202,-47.4564,100.368,42.364,-10.5686,-13.0252,36.6929,7.12502,13.0689,66.2635,-2.04502,21.5964,20.4147,21.0285,-17.469,-5.06009,4.74807,-43.9319,12.1482,-6.89879,41.932,0.189407,14.7948,-1.29026
-0.275665,18.8711,1.63209,-2.69941,-46.5575,4.10215,9.83346,0.364461,1.46679,1.924,0.579894,-0.675133,-3.4895,0.258562,-1.5988,-6.19853,-0.704791,-3.68666,4.15253,-0.759357,2.37995,2.42613,-0.366233,1.37501,7.9166e-14,-6.36111e-15,49.2046,-21.8539,-63.8495,89.2712,20.4514,-36.7898,0.619728,7.12502,-9.87186,-29.1288,7.9166e-14,-6.36111e-15,-32.3607,-47.1885,100.152,42.1634,-10.7303,-12.1568,36.4244,7.12502,13.9059,65.9395,-2.13598,21.5947,20.5229,21.0495,-17.5772,-4.9274,4.81673,-43.7925,12.2325,-6.93822,41.8947,0.35556,14.9033,-1.35377
-0.287378,18.856,1.66733,-2.47982,-46.6167,3.89355,9.98704,0.422146,1.4111,1.94017,0.650542,-0.704546,-3.55538,0.29316,-1.60861,-6.35237,-0.764926,-3.60435,4.09528,-0.839681,2.36071,2.43712,-0.404299,1.35103,1.21209e-13,-1.31198e-14,47.9119,-21.1929,-63.4394,89.4319,20.4311,-36.8677,0.797591,7.12502,-9.94698,-28.9474,1.21209e-13,-1.31198e-14,-32.1846,-47.1765,100.003,41.9905,-10.5595,-11.9303,36.3301,7.12502,14.1242,65.83,-2.15836,21.4692,20.6058,21.1641,-17.7557,-4.70542,4.94854,-43.6055,12.3766,-7.11933,41.8856,0.969963,14.7244,-2.20919
-0.31346,18.8574,1.73574,-2.55969,-47.3338,3.93455,9.79422,0.698999,1.35284,2.07791,1.00276,-0.825658,-3.29084,0.470883,-1.74137,-6.50582,-0.832317,-3.57431,4.06087,-0.929149,2.40463,2.45729,-0.445973,1.35661,-6.33626e-14,1.05356e-14,46.6049,-20.4972,-63.096,89.5518,20.5573,-36.8868,0.721774,7.12502,-9.9654,-29.0223,-6.33626e-14,1.05356e-14,-32.1012,-47.1215,99.9129,41.8286,-10.3948,-11.9621,36.4209,7.12502,14.0935,65.923,-2.0809,21.5903,20.4695,21.3273,-17.9519,-4.0727,4.90943,-42.8806,12.7373,-7.28531,41.9097,0.986921,14.9535,-2.15178
-0.329059,18.8379,1.7755,-2.43416,-47.4362,3.89228,9.93065,0.756614,1.11288,2.03531,1.05427,-0.863401,-3.41238,0.496889,-1.65476,-6.57404,-0.848464,-3.66218,4.02173,-0.946804,2.52366,2.46002,-0.451958,1.41033,3.50358e-14,-9.54166e-15,45.1511,-19.6266,-62.6791,89.6842,20.7727,-36.8395,0.819232,7.12502,-9.91979,-28.9271,3.50358e-14,-9.54166e-15,-32.1263,-47.0258,99.9185,41.7254,-10.0812,-11.9841,36.5488,7.12502,14.0723,66.0523,-2.17713,21.4954,20.4215,21.5412,-18.1658,-3.86805,4.91951,-42.5681,12.8415,-7.57947,41.9085,1.25624,14.9344,-3.38764
-0.343329,18.8217,1.8196,-2.28429,-47.4773,3.83431,10.0451,0.78504,0.901249,1.97273,1.06995,-0.885939,-3.54384,0.505193,-1.56386,-6.64696,-0.841763,-3.83266,4.03295,-0.930426,2.70724,2.48118,-0.440522,1.50188,-5.65791e-14,1.78906e-15,43.5452,-18.6973,-62.0465,89.8381,20.7921,-36.4828,1.08577,7.12502,-9.57562,-28.6766,-5.65791e-14,1.78906e-15,-32.1716,-46.8752,100.027,41.6349,-9.65764,-11.9693,36.6974,7.12502,14.0866,66.1999,-2.29678,21.3358,20.3635,21.7817,-18.4253,-3.64063,4.79262,-42.2577,12.8005,-7.85338,41.9159,1.70065,14.752,-5.18607
-0.356879,18.8052,1.86748,-2.06938,-47.531,3.717,10.0986,0.838748,0.792227,1.91429,1.12856,-0.926989,-3.63362,0.534348,-1.55442,-6.70188,-0.875242,-3.82275,3.98079,-0.97539,2.74183,2.47593,-0.461094,1.50936,7.62091e-14,-5.56597e-15,41.8719,-17.8195,-61.5424,89.9468,20.8023,-36.2742,1.05252,7.12502,-9.37436,-28.719,7.62091e-14,-5.56597e-15,-32.181,-46.8035,100.139,41.433,-9.38142,-11.9691,36.9333,7.12502,14.0868,66.4358,-2.51569,21.1845,20.3116,22.157,-18.7544,-3.29561,5.29104,-41.9403,12.6863,-8.06181,41.9199,2.03352,14.6827,-5.16896
-0.373429,18.7868,1.91816,-1.83682,-47.6301,3.54867,10.1461,0.92948,0.703543,1.86117,1.23828,-0.964412,-3.71274,0.588782,-1.55931,-6.67077,-0.941975,-3.66716,3.79973,-1.07032,2.61234,2.40936,-0.509307,1.43377,1.62755e-14,-9.93923e-15,40.2365,-16.9457,-61.2895,89.933,20.9746,-35.9304,1.23455,7.12502,-9.04265,-28.5516,1.62755e-14,-9.93923e-15,-32.1705,-46.8924,100.304,41.1138,-8.9004,-11.8655,37.124,7.12502,14.1866,66.6196,-2.67043,21.0883,20.3087,22.4899,-19.054,-2.95079,5.45769,-41.5657,12.696,-8.24854,41.9624,2.35069,14.7064,-4.3262
-0.392926,18.7686,1.96897,-1.60956,-47.7434,3.34054,10.2523,1.01708,0.567299,1.78248,1.34073,-0.953662,-3.85378,0.639933,-1.48843,-6.60574,-0.99735,-3.72721,3.68576,-1.14022,2.61914,2.36265,-0.544769,1.44283,3.10104e-14,-1.43125e-14,38.5827,-15.908,-60.9926,89.8499,21.1305,-35.5999,1.40621,7.12502,-8.72374,-28.3935,3.10104e-14,-1.43125e-14,-32.1302,-46.726,100.507,40.6244,-8.7598,-11.7541,36.7035,7.12502,14.294,66.1915,-2.76979,21.0051,20.3749,22.8209,-19.4359,-2.75327,4.90522,-41.1453,12.7656,-8.39422,42.036,2.43745,14.7797,-2.30329
-0.41205,18.7509,2.0224,-1.34405,-47.8164,3.07086,10.337,1.07293,0.473935,1.75041,1.40514,-0.939977,-3.93487,0.672317,-1.43272,-6.75979,-1.02848,-3.82317,3.67887,-1.17227,2.70494,2.39249,-0.558655,1.48701,-9.90196e-15,1.19271e-15,36.9445,-14.7848,-60.7193,89.733,21.0947,-35.6443,1.3376,7.12502,-8.76656,-28.4603,-9.90196e-15,1.19271e-15,-31.916,-46.2065,100.489,40.1856,-9.15957,-11.1036,36.0949,7.12502,14.9207,65.5375,-2.86561,20.9168,20.4759,23.1939,-19.8816,-2.50072,4.62114,-40.7419,12.8485,-8.56701,42.1367,2.50369,14.9196,-1.10551
-0.429378,18.7303,2.08133,-1.03485,-47.837,2.84878,10.3036,1.12504,0.430719,1.72329,1.46804,-0.978603,-3.94297,0.703785,-1.45661,-6.84423,-1.0785,-3.91791,3.56229,-1.23274,2.8303,2.37462,-0.585432,1.54186,-2.84386e-14,-5.2181e-15,35.2904,-13.6766,-60.5048,89.4982,21.0776,-35.888,1.25072,7.12502,-9.00174,-28.5372,-2.84386e-14,-5.2181e-15,-31.7512,-45.8792,100.514,39.8263,-9.20667,-10.7394,35.766,7.12502,15.2715,65.1822,-3.07259,20.6159,20.4545,23.6048,-20.1831,-1.97358,5.21215,-40.4142,12.8826,-8.86606,42.236,3.29149,14.8584,-3.75334
-0.447057,18.7037,2.13981,-0.652927,-47.7637,2.57204,10.1774,1.14159,0.439102,1.73589,1.48833,-1.04468,-3.8573,0.714131,-1.52931,-6.79553,-1.1344,-3.97795,3.24979,-1.30878,3.00351,2.26805,-0.618289,1.60392,-5.7368e-15,1.97045e-14,33.6433,-12.5857,-60.4274,89.2061,21.2129,-36.0926,1.0052,7.12502,-9.19916,-28.7741,-5.7368e-15,1.97045e-14,-31.4953,-45.9006,100.478,39.3948,-8.81173,-10.7594,35.7775,7.12502,15.2522,65.1952,-3.31094,20.2154,20.4806,24.0128,-20.4928,-1.54748,5.41749,-40.0818,12.8259,-9.13558,42.3065,4.37365,14.4765,-6.73273
-0.465041,18.6788,2.19627,-0.309944,-47.7044,2.29618,10.355,1.18539,0.217816,1.59332,1.52576,-0.968115,-4.11129,0.734274,-1.33719,-6.72689,-1.17384,-4.08081,3.09324,-1.35467,3.04248,2.20738,-0.641373,1.632,-4.39073e-14,1.33683e-14,31.7732,-11.25,-60.1627,88.9037,21.3074,-36.387,0.583956,7.12502,-9.48324,-29.1827,-4.39073e-14,1.33683e-14,-31.5079,-45.629,100.818,38.901,-8.6842,-10.4724,35.8174,7.12502,15.5287,65.2138,-3.49075,20.0018,20.5536,24.4254,-20.879,-1.29041,5.63347,-39.6743,12.7515,-9.36598,42.3436,5.16761,14.0623,-8.27301
-0.483119,18.6619,2.25202,-0.158361,-47.6102,2.23099,10.4031,1.17696,0.0766133,1.57103,1.49222,-1.09581,-4.16226,0.718402,-1.38759,-6.71278,-1.16108,-4.07025,2.82312,-1.34214,3.1817,2.11702,-0.630452,1.67436,-9.26834e-15,1.21756e-14,30.0295,-10.0309,-60.2619,88.5009,21.325,-36.2926,0.796936,7.12502,-9.39213,-28.9738,-9.26834e-15,1.21756e-14,-31.3227,-45.3534,100.753,38.4168,-8.72396,-9.96092,35.6642,7.12502,16.0213,65.0218,-3.63139,19.8172,20.4858,24.8785,-21.2892,-1.0186,6.10486,-39.2952,12.4876,-9.61427,42.3866,5.33249,14.1896,-6.95405
-0.502849,18.6418,2.31959,-0.0965519,-47.6336,2.27624,10.4756,1.22025,-0.196847,1.48283,1.51593,-1.14193,-4.29991,0.733154,-1.2884,-6.6709,-1.14302,-4.20837,2.64322,-1.30763,3.23777,2.05151,-0.61318,1.71753,5.23301e-14,-6.85807e-15,28.2234,-8.72161,-60.3583,88.0615,21.4654,-35.8708,0.975542,7.12502,-8.98509,-28.8131,5.23301e-14,-6.85807e-15,-31.3167,-44.8921,100.986,37.9118,-8.71493,-9.80508,35.512,7.12502,16.1713,64.8574,-3.81873,19.5558,20.2859,25.3968,-21.6961,-0.633201,6.12735,-38.8069,12.263,-9.93702,42.4361,5.34933,14.4937,-4.3543
-0.521529,18.6086,2.3883,0.167378,-47.6327,2.06372,10.64,1.25291,-0.362178,1.35149,1.54013,-1.1079,-4.53334,0.747203,-1.17004,-6.66886,-1.15138,-4.24443,2.5108,-1.30955,3.13854,2.00656,-0.616754,1.69046,7.28049e-15,-9.24349e-15,26.3517,-7.32858,-60.5031,87.574,21.509,-35.741,1.07804,7.12502,-8.85986,-28.716,7.28049e-15,-9.24349e-15,-31.4078,-44.5079,101.282,37.5166,-8.64702,-9.60978,35.5388,7.12502,16.3594,64.8689,-4.08042,19.2734,20.2729,26.0285,-22.1515,-0.173198,6.17823,-38.3019,12.3366,-10.3046,42.5749,5.72651,14.3098,-2.5296
-0.54011,18.576,2.45615,0.39482,-47.5191,1.95406,10.7124,1.2472,-0.560722,1.27004,1.50678,-1.13563,-4.66379,0.733657,-1.0858,-6.60693,-1.16624,-4.28875,2.19778,-1.32299,3.11085,1.8933,-0.624018,1.68659,1.35174e-14,1.78906e-14,24.5011,-5.92283,-60.7768,87.0754,21.2785,-35.6649,1.07799,7.12502,-8.78648,-28.7191,1.35174e-14,1.78906e-14,-31.4364,-44.2839,101.417,37.2242,-8.59677,-9.20608,35.6884,7.12502,16.7481,64.986,-4.43476,18.9033,20.1688,26.8156,-22.5793,0.325517,5.8461,-37.8959,12.3729,-10.7999,42.735,6.02035,14.0868,-1.84266
-0.557585,18.5366,2.52459,0.527656,-47.402,1.93464,10.7636,1.24488,-0.795418,1.24652,1.47234,-1.18293,-4.72214,0.720252,-0.999773,-6.5983,-1.1739,-4.43038,1.8746,-1.31998,3.16219,1.78871,-0.621544,1.72676,-4.9398e-14,-9.34288e-15,22.6067,-4.3835,-60.9086,86.4693,20.9485,-35.7523,0.382775,7.12502,-8.87075,-29.4108,-4.9398e-14,-9.34288e-15,-31.2482,-43.812,101.452,36.7841,-8.91932,-8.68861,35.8659,7.12502,17.2462,65.1206,-4.85509,18.4421,19.9913,27.7619,-22.9161,0.772019,4.87575,-37.4064,12.5815,-11.4735,42.9469,6.33599,13.6033,-3.27767
-0.575543,18.4963,2.59286,0.609755,-47.3487,1.97352,10.7765,1.27689,-1.06668,1.23883,1.47913,-1.23746,-4.74282,0.727904,-0.905477,-6.55873,-1.18989,-4.61116,1.56895,-1.3266,3.21601,1.6856,-0.624228,1.77457,-6.16729e-14,1.17283e-14,20.647,-2.78375,-60.9821,85.7432,20.7404,-35.978,-0.509672,7.12502,-9.08858,-30.2939,-6.16729e-14,1.17283e-14,-31.0198,-43.1946,101.493,36.2936,-9.26079,-8.19439,35.8739,7.12502,17.7218,65.0864,-5.33461,18.0755,19.781,28.8009,-23.3709,1.18242,4.24273,-36.8862,12.6261,-12.075,43.149,6.49664,13.3186,-4.46098
-0.590984,18.4543,2.66242,0.770459,-47.2876,1.95937,10.8027,1.29479,-1.28287,1.18895,1.47233,-1.30533,-4.81346,0.728021,-0.855255,-6.40558,-1.17753,-4.69731,1.1972,-1.30598,3.22263,1.53799,-0.613958,1.79037,5.73494e-14,-2.28602e-14,18.7422,-1.40988,-61.5343,85.1489,20.7491,-35.3384,-0.733003,7.12502,-8.47133,-30.5431,5.73494e-14,-2.28602e-14,-30.9296,-42.6082,101.567,35.9209,-9.30335,-8.00609,35.908,7.12502,17.903,65.104,-5.89957,17.6923,19.5866,29.925,-23.9349,1.73228,4.29922,-36.3853,12.5443,-12.5903,43.329,6.53978,13.0801,-5.43033
-0.612417,18.4036,2.76152,0.606972,-47.6672,1.93705,10.8998,1.43368,-1.37715,1.28958,1.63637,-1.41822,-4.76086,0.808408,-0.944946,-6.31283,-1.15131,-4.77995,0.795099,-1.26814,3.34836,1.39301,-0.592093,1.84512,-4.02042e-14,1.25234e-14,16.9741,-0.211356,-62.5604,84.5901,20.9469,-34.4263,0.0939363,7.12502,-7.59104,-29.7498,-4.02042e-14,1.25234e-14,-30.8573,-41.9875,101.555,35.6801,-9.41773,-7.72456,36.0659,7.12502,18.1739,65.2369,-6.1254,17.4382,19.3851,31.1261,-24.548,2.51303,4.03067,-35.296,12.6489,-13.0364,43.4929,6.24798,12.7326,-6.19792
-0.627037,18.3582,2.83968,0.669504,-47.7404,1.84584,11.0711,1.4948,-1.50463,1.33212,1.69195,-1.50635,-4.81247,0.836445,-0.977634,-6.31049,-1.2161,-4.80987,0.365286,-1.35081,3.46196,1.26005,-0.630023,1.88272,3.25013e-14,9.54166e-15,15.1733,1.13161,-63.5085,83.9314,20.6303,-34.3559,0.384925,7.12502,-7.52309,-29.4613,3.25013e-14,9.54166e-15,-30.6336,-41.4426,101.447,35.3562,-9.48343,-7.6116,36.3702,7.12502,18.2825,65.531,-6.63226,16.9852,19.2347,32.4039,-24.9505,3.20352,3.99574,-34.4945,12.7524,-13.5345,43.6107,5.46971,11.6189,-8.99726
-0.639985,18.3102,2.91397,0.844999,-47.7851,1.74036,11.125,1.56179,-1.60577,1.39267,1.76167,-1.5973,-4.77892,0.87098,-1.02653,-6.40925,-1.30486,-4.78884,-0.0373444,-1.46135,3.41263,1.15207,-0.684272,1.85748,-8.29926e-15,4.77083e-15,13.2617,2.63187,-64.2112,83.2294,20.1313,-34.6059,-0.676176,7.12502,-7.76445,-30.5136,-8.29926e-15,4.77083e-15,-30.444,-41.2408,101.378,35.1372,-9.22739,-7.55369,36.5874,7.12502,18.3382,65.743,-7.30232,16.5616,19.0751,33.7706,-25.2265,4.03735,4.25114,-33.7989,13.0007,-14.1149,43.6664,3.27967,9.29463,-2.01989
-0.651708,18.2619,2.98721,1.1435,-47.846,1.56439,11.1207,1.6151,-1.66343,1.43582,1.82029,-1.688,-4.72999,0.899486,-1.09652,-6.5343,-1.32354,-4.82085,-0.325657,-1.47658,3.45095,1.08334,-0.689723,1.8741,9.54166e-15,-1.31198e-14,11.372,3.74752,-65.2079,82.465,20.7353,-33.3236,-1.14071,7.12502,-6.52658,-31.0201,9.54166e-15,-1.31198e-14,-30.2654,-40.976,101.257,34.9517,-9.16865,-7.61189,36.6721,7.12502,18.2822,65.833,-8.10238,16.0291,18.9228,35.2306,-25.5223,4.96189,4.23388,-33.1777,13.3148,-14.7031,43.5325,0.339837,6.66548,-5.13582
-0.659688,18.2152,3.05995,1.33237,-47.8628,1.5412,11.2478,1.67303,-1.82915,1.41932,1.86609,-1.78712,-4.81973,0.923679,-1.11837,-6.56126,-1.31214,-4.94991,-0.639284,-1.4492,3.54467,0.98975,-0.673598,1.92763,-4.81059e-14,3.33958e-14,9.46706,4.57804,-66.4155,81.5661,21.7511,-31.5409,-0.185792,7.12502,-4.80545,-30.1113,-4.81059e-14,3.33958e-14,-30.0887,-40.4079,101.143,34.695,-9.48546,-7.61078,36.737,7.12502,18.2833,65.8977,-8.98319,15.3852,18.6261,36.7716,-25.6281,5.84583,4.15467,-32.5687,13.2909,-15.2758,43.1247,-1.38037,7.79545,-10.489
-0.665466,18.1672,3.13345,1.3722,-47.8357,1.63191,11.4496,1.7467,-2.03789,1.47449,1.92305,-1.90958,-4.87657,0.953102,-1.14332,-6.63911,-1.35583,-5.16148,-1.05448,-1.48663,3.70367,0.877692,-0.688169,2.01547,6.4605e-15,-1.82882e-14,7.59514,5.5545,-67.5544,80.5978,22.0679,-31.0467,-0.411321,7.12502,-4.32827,-30.3471,6.4605e-15,-1.82882e-14,-29.7678,-39.759,100.94,34.4536,-9.70113,-7.48816,36.7174,7.12502,18.4013,65.8671,-9.83841,14.6021,18.2315,38.3611,-25.578,6.84785,3.9683,-31.9052,12.8381,-15.7246,42.3997,-3.19925,9.15325,-11.3037
-0.66936,18.129,3.20429,1.38724,-47.8222,1.73028,11.6095,1.81487,-2.22082,1.63715,1.97577,-2.06847,-4.79515,0.978369,-1.21634,-6.85783,-1.40626,-5.31913,-1.50648,-1.53027,3.92033,0.778919,-0.704117,2.11267,-6.29153e-14,1.31198e-14,5.83711,6.56744,-68.7659,79.5493,22.0712,-31.1221,-1.01979,7.12502,-4.401,-30.9541,-6.29153e-14,1.31198e-14,-29.2587,-39.2248,100.592,34.2207,-9.78541,-7.05034,36.8317,7.12502,18.8224,65.9411,-10.7306,13.6704,17.7961,40.0299,-25.3898,8.04317,3.52389,-31.2346,12.0259,-16.0082,41.3646,-4.7239,9.91412,-8.29023
-0.670616,18.1087,3.27192,1.2714,-47.831,1.98526,11.8722,1.86575,-2.5052,1.78525,1.98577,-2.24578,-4.78877,0.983745,-1.24929,-6.95798,-1.43653,-5.50744,-2.03828,-1.54785,4.09077,0.632662,-0.708264,2.20151,-3.86636e-14,3.18055e-15,4.05696,7.67857,-70.0957,78.5127,22.0576,-30.9736,-1.30716,7.12502,-4.25763,-31.2444,-3.86636e-14,3.18055e-15,-28.8064,-38.7689,100.246,34.0272,-9.77286,-6.53884,36.8181,7.12502,19.3143,65.879,-11.7549,12.6921,17.2119,41.9048,-24.9386,9.41989,3.00166,-30.6364,10.992,-16.2824,40.2509,-6.06105,10.8255,-3.64406
-0.672746,18.0997,3.33515,0.755201,-47.8347,2.88696,12.2077,1.94644,-3.37331,1.83138,1.94899,-2.43236,-4.94887,0.976494,-0.96265,-6.89694,-1.42962,-5.90375,-2.61728,-1.50719,4.24805,0.44281,-0.682869,2.3269,3.57812e-15,-2.38542e-15,2.2262,8.88134,-71.4389,77.385,22.1109,-30.7951,-1.88201,7.12502,-4.08527,-31.8226,3.57812e-15,-2.38542e-15,-28.4692,-37.9916,100.058,33.8097,-9.81806,-5.80084,36.5929,7.12502,20.0238,65.5811,-13.0044,11.8605,16.132,44.051,-24.3359,10.7431,2.17695,-30.2355,9.95643,-17.0556,39.3428,-7.29445,12.4558,-1.28998
-0.674631,18.0656,3.39427,0.0948733,-47.7426,4.12463,12.4726,2.06669,-4.5072,1.9248,1.92113,-2.70286,-5.02525,0.976049,-0.613776,-7.1094,-1.46035,-6.08426,-3.16428,-1.51925,4.26369,0.3081,-0.68417,2.36431,-6.69904e-14,2.70347e-14,0.524377,9.64789,-72.8334,76.0199,22.3532,-29.9227,-1.09496,7.12502,-3.24284,-31.05,-6.69904e-14,2.70347e-14,-28.0966,-37.6634,99.825,33.7263,-9.46284,-4.31156,36.271,7.12502,21.4547,65.103,-14.5684,11.0231,14.7737,46.5267,-23.5241,11.9575,1.03854,-30.1564,9.2035,-18.237,38.826,-7.9619,13.7783,-2.60764
-0.670647,18.0164,3.45116,-0.156911,-47.6084,4.59091,12.9258,2.14378,-4.96052,2.11936,1.91702,-2.90999,-5.078,0.974493,-0.588385,-7.45816,-1.53787,-6.34672,-3.65261,-1.57934,4.49982,0.221726,-0.705792,2.48944,8.36883e-14,9.54166e-15,-1.0312,10.2759,-74.3002,74.4846,22.6953,-29.2877,-0.517979,7.12502,-2.62958,-30.4815,8.36883e-14,9.54166e-15,-27.6671,-37.566,99.4278,33.8576,-8.78657,-3.13355,35.8189,7.12502,22.5858,64.5176,-16.1648,10.168,14.0051,49.2616,-22.2154,13.1869,-0.0231104,-30.1092,8.64916,-18.8356,38.7318,-8.69941,14.2238,-3.31689
-0.661892,17.9809,3.5024,0.0196402,-47.4814,4.40872,13.4976,2.18796,-4.93323,2.33083,1.93491,-2.98655,-5.16642,0.977646,-0.702703,-7.79152,-1.64482,-6.76928,-4.12073,-1.66408,4.84164,0.143688,-0.736864,2.68047,-3.57812e-15,-8.74653e-15,-2.53138,11.0505,-75.7029,72.897,22.7665,-29.0935,-0.677409,7.12502,-2.44197,-30.6432,-3.57812e-15,-8.74653e-15,-27.2315,-37.1848,98.9995,34.1661,-8.09882,-2.93062,35.7292,7.12502,22.7806,64.4041,-17.881,9.22433,13.694,52.1437,-20.2194,14.5438,-1.2071,-30.1818,8.16334,-18.8251,39.0345,-9.62741,14.3987,-2.24922
-0.650704,17.9594,3.54397,0.339539,-47.3917,4.10949,14.1405,2.25064,-4.9446,2.50906,1.96959,-2.98405,-5.33221,0.99173,-0.719416,-8.18534,-1.7638,-7.10113,-4.55446,-1.768,4.96594,0.0840367,-0.779065,2.78117,-2.10712e-14,-2.54444e-14,-3.98322,11.9399,-77.0217,71.244,22.7236,-28.4439,-1.046,7.12502,-1.81465,-31.018,-2.10712e-14,-2.54444e-14,-26.8887,-37.0513,98.6672,34.699,-7.23978,-3.04053,35.4987,7.12502,22.6751,64.1866,-19.7972,8.31034,13.4334,55.0326,-17.29,15.9616,-1.6722,-30.503,7.90478,-18.6898,39.5648,-9.96879,14.5982,-2.71629
-0.639933,17.9382,3.57847,0.670196,-47.269,3.79628,14.8102,2.33695,-4.93542,2.7055,2.03178,-3.0426,-5.4896,1.01743,-0.818754,-8.51431,-1.8882,-7.12288,-5.05797,-1.90858,4.9518,-0.0125437,-0.845026,2.77583,1.88845e-14,-2.8625e-14,-5.34287,12.711,-78.444,69.4262,22.9433,-27.8896,-1.75709,7.12502,-1.27926,-31.733,1.88845e-14,-2.8625e-14,-26.589,-37.6362,98.3692,35.3262,-6.20399,-3.29463,35.5079,7.12502,22.4312,64.2253,-21.817,7.5083,13.2033,57.9289,-13.6302,16.9191,-1.23793,-30.9539,7.81926,-18.5007,40.1008,-9.94893,14.2523,-3.24606
-0.631766,17.9211,3.59643,0.907862,-47.1484,3.50057,15.6287,2.51804,-5.07046,2.92277,2.18164,-3.10128,-5.71112,1.08754,-0.862501,-8.63965,-2.03187,-7.03041,-5.70342,-2.09671,4.92434,-0.188323,-0.938232,2.74494,3.00165e-14,-2.22639e-14,-6.59887,13.2698,-79.8622,67.4459,23.2875,-27.7659,-2.27206,7.12502,-1.15983,-32.2487,3.00165e-14,-2.22639e-14,-26.3971,-37.4185,97.8614,36.5559,-6.81163,-3.05683,35.9914,7.12502,22.6594,64.6811,-23.8483,6.92681,13.0336,60.7729,-9.57601,17.3132,-0.935613,-31.3151,8.06527,-18.274,40.496,-9.84231,13.4544,-3.05746
-0.632291,17.9021,3.59959,0.502492,-47.0543,4.26223,16.3599,2.78621,-6.18287,3.08241,2.26936,-3.2378,-5.97671,1.14306,-0.430715,-8.55476,-2.14673,-7.15699,-6.46068,-2.2407,4.93251,-0.435789,-1.00648,2.77216,-6.40087e-14,-3.97569e-14,-7.673,14.0368,-81.1959,65.2338,23.6657,-27.8423,-2.67715,7.12502,-1.2336,-32.6533,-6.40087e-14,-3.97569e-14,-26.2633,-37.5667,97.4739,37.8111,-7.46796,-2.62442,36.3109,7.12502,23.0744,64.9494,-26.1393,6.43344,12.0603,63.4974,-5.57561,17.5913,-2.63282,-31.6194,8.5823,-18.881,40.6666,-9.68491,12.5976,-2.55833
-0.64496,17.8785,3.60867,-0.471622,-46.9323,6.0488,16.726,3.07285,-7.97353,3.24,2.26698,-3.53741,-6.05978,1.16117,0.23648,-8.47266,-2.26087,-7.51828,-7.08222,-2.36373,5.0634,-0.636448,-1.05869,2.88695,-4.96962e-14,-3.18055e-15,-8.57766,15.0254,-82.472,62.8249,24.0049,-27.0444,-1.43396,7.12502,-0.462976,-31.4132,-4.96962e-14,-3.18055e-15,-26.1598,-37.8231,97.1156,39.1129,-8.05665,-2.0098,36.3931,7.12502,23.664,64.9566,-28.6529,5.83748,10.2064,66.0353,-1.54726,17.9792,-3.93579,-31.9482,9.06514,-20.2957,40.6591,-9.61147,11.6131,-1.31128
-0.657364,17.8738,3.63674,-0.949454,-46.9203,6.95491,17.0343,3.28397,-8.94153,3.47005,2.32427,-3.71277,-6.01009,1.19052,0.566753,-8.44872,-2.31609,-7.88562,-7.53027,-2.40661,5.15649,-0.77774,-1.06966,2.99163,-1.32788e-13,5.1684e-14,-9.30658,16.1123,-83.6975,60.2398,24.4569,-25.6264,0.438113,7.12502,0.906606,-29.5397,-1.32788e-13,5.1684e-14,-26.0771,-38.124,96.8031,40.3615,-8.36866,-1.36117,36.5192,7.12502,24.286,65.0008,-30.785,5.36224,9.0292,68.1112,1.8785,18.2453,-5.11418,-32.0435,9.60808,-21.0515,40.5252,-9.64914,10.6299,0.282217
-0.661303,17.8649,3.65629,-0.62375,-46.7998,6.72764,17.5155,3.39275,-9.07161,3.63391,2.38871,-3.68414,-6.10321,1.21922,0.638458,-8.33125,-2.38425,-8.06459,-7.88869,-2.49662,5.03905,-0.908188,-1.10866,2.98785,-2.54444e-14,2.70347e-14,-9.96586,17.213,-84.9463,57.4796,25.0472,-24.048,-0.783988,7.12502,2.431,-30.7499,-2.54444e-14,2.70347e-14,-26.1558,-38.748,96.6316,41.4631,-8.35688,-1.2468,36.7545,7.12502,24.3956,65.2215,-32.6933,4.92942,8.80777,69.7914,4.08758,18.5916,-7.48503,-32.2398,10.4231,-21.0773,40.3967,-9.38017,9.67156,0.712887
-0.666673,17.8618,3.68343,-0.527193,-46.6211,6.6373,18.0342,3.49298,-9.1271,3.83994,2.44723,-3.71021,-6.16397,1.24068,0.610724,-8.16045,-2.49451,-8.22509,-8.16096,-2.65157,4.88582,-1.01607,-1.18068,2.96681,-1.55052e-14,7.15625e-15,-10.5843,18.4233,-86.2073,54.6384,25.5771,-22.5624,-2.71881,7.12502,3.86567,-32.6635,-1.55052e-14,7.15625e-15,-26.1686,-39.4981,96.4741,42.19,-8.21744,-1.44442,37.0052,7.12502,24.2062,65.4975,-34.1836,4.47677,8.48672,71.0625,5.14417,19.1596,-9.39756,-32.2497,11.1491,-21.2609,40.3015,-9.16814,9.03081,0.464001
-0.672642,17.8781,3.7158,-0.414602,-46.3472,6.50079,18.4653,3.5181,-8.98499,4.07102,2.45541,-3.78016,-6.13593,1.23191,0.443227,-8.07873,-2.55419,-8.35806,-8.17526,-2.73337,4.76178,-1.02961,-1.21758,2.94847,-3.73715e-14,-6.36111e-15,-11.1938,19.7542,-87.4732,51.8887,26.1598,-20.6384,-3.23916,7.12502,5.72343,-33.1419,-3.73715e-14,-6.36111e-15,-26.0527,-40.1685,96.238,42.5195,-8.2148,-1.61056,36.7773,7.12502,24.0469,65.2908,-35.3997,3.92205,8.24766,71.9746,5.02865,19.3516,-10.9041,-32.1902,11.4909,-21.3882,40.2352,-9.09013,8.60684,0.479011
-0.675574,17.8936,3.7491,-0.18818,-45.9123,6.19148,18.9958,3.52369,-8.7294,4.23136,2.45712,-3.71976,-6.2377,1.22628,0.347125,-8.02539,-2.60692,-8.41931,-7.93865,-2.81667,4.4185,-0.960857,-1.25786,2.83804,6.36111e-15,-8.74653e-15,-11.8793,21.1625,-88.553,49.1283,26.895,-18.7333,-3.6317,7.12502,7.56259,-33.4765,6.36111e-15,-8.74653e-15,-26.084,-40.9834,96.2456,42.7145,-8.30277,-2.78388,36.9163,7.12502,22.9214,65.5738,-36.427,3.20717,8.19139,72.7096,3.87566,18.7771,-12.2757,-32.1125,11.2336,-21.2874,40.1636,-9.1579,8.49162,0.824235
-0.682026,17.9038,3.77896,0.0497355,-45.3542,5.87647,19.4569,3.49269,-8.41329,4.42186,2.43464,-3.68708,-6.26334,1.20553,0.197991,-7.91379,-2.66569,-8.33455,-7.7605,-2.92023,4.12198,-0.920993,-1.31264,2.71782,1.28017e-13,-5.80451e-14,-12.461,22.6532,-89.6729,46.2469,27.471,-17.5483,-3.78216,7.12502,8.70628,-33.5826,1.28017e-13,-5.80451e-14,-25.9855,-41.7091,96.0645,42.8016,-8.611,-4.32832,37.1943,7.12502,21.4386,66.0281,-37.3597,2.39174,8.19174,73.3136,2.14239,17.5428,-12.9124,-32.0569,10.7635,-21.1308,40.0836,-9.22153,8.46546,1.06556
-0.695155,17.9048,3.80045,0.143979,-44.8008,5.75396,19.8765,3.5013,-8.34331,4.63157,2.42097,-3.65431,-6.25445,1.19071,0.186141,-7.96166,-2.75758,-8.20549,-7.38722,-3.05627,3.82797,-0.790125,-1.38655,2.58557,-5.96354e-15,8.42847e-14,-12.9817,24.3558,-90.8002,43.2899,28.0117,-16.8899,-3.03392,7.12502,9.34161,-32.8069,-5.96354e-15,8.42847e-14,-25.6706,-41.9772,95.7801,42.7303,-8.84044,-4.10657,36.9908,7.12502,21.6516,65.8002,-38.2962,1.64588,8.09848,73.8424,0.227696,15.8484,-12.7053,-32.0387,10.3962,-21.107,40.0607,-9.20645,8.34041,1.24336
-0.709995,17.9068,3.81886,0.27618,-44.1853,5.57274,20.35,3.50088,-8.27543,4.79957,2.39409,-3.54527,-6.32079,1.17345,0.257545,-7.97641,-2.8719,-8.15679,-6.95363,-3.21636,3.55999,-0.643725,-1.47207,2.47691,2.78299e-14,-4.77083e-15,-13.6616,26.3483,-91.8736,40.5261,28.5325,-16.1547,-2.10599,7.12502,10.0509,-31.846,2.78299e-14,-4.77083e-15,-25.3515,-41.983,95.614,42.6653,-8.44585,-3.54012,36.6697,7.12502,22.1955,65.4154,-39.1763,0.9229,8.08305,74.2036,-1.73948,13.7579,-12.3093,-32.0447,10.023,-21.0379,40.0593,-9.17839,8.148,1.73298
-0.726453,17.9127,3.84006,0.653887,-43.6101,5.20711,20.6728,3.50743,-8.03381,4.93697,2.43533,-3.39771,-6.34043,1.18801,0.261873,-7.93887,-3.00171,-8.18551,-6.61798,-3.38978,3.46215,-0.533152,-1.56235,2.44147,-1.82882e-14,-3.97569e-15,-14.4511,28.4454,-92.9121,38.0743,28.9221,-15.1091,-1.75874,7.12502,11.0595,-31.4474,-1.82882e-14,-3.97569e-15,-24.9317,-42.0277,95.4255,42.7141,-7.53325,-3.42,36.5766,7.12502,22.3108,65.3085,-40.1189,0.230754,8.23714,74.3581,-3.74582,11.25,-12.9402,-32.1729,9.63114,-20.8368,40.045,-9.19185,8.03339,1.84433
-0.747654,17.921,3.86156,1.12841,-43.1452,4.85653,20.8891,3.54755,-7.91148,4.98594,2.50987,-3.19127,-6.40961,1.22457,0.389001,-7.79565,-3.0979,-8.36822,-6.38028,-3.51005,3.57641,-0.467979,-1.62222,2.50971,-1.39547e-13,4.53229e-14,-15.4055,30.6991,-93.969,36.049,29.2768,-14.4142,-2.04364,7.12502,11.7297,-31.6952,-1.39547e-13,4.53229e-14,-24.5399,-41.7928,95.3716,42.7866,-6.56559,-3.03188,36.8208,7.12502,22.6834,65.5077,-41.1211,-0.298237,8.3725,74.3225,-5.72187,8.34504,-14.9505,-32.3823,9.29936,-20.6241,39.9865,-9.20346,7.9918,1.48411
-0.770754,17.9353,3.88482,1.4758,-42.6502,4.67351,21.0543,3.53092,-7.87578,5.02846,2.49565,-3.01898,-6.45471,1.21889,0.553607,-7.47188,-3.1349,-8.58819,-6.32283,-3.56417,3.76693,-0.492787,-1.64691,2.61739,5.725e-14,5.56597e-14,-16.4075,32.3375,-94.9993,34.752,31.2417,-12.2086,-2.03233,7.12502,13.856,-31.5508,5.725e-14,5.56597e-14,-24.2903,-41.0989,95.3227,42.991,-5.83965,-4.11631,37.2151,7.12502,21.6423,66.0256,-41.96,-0.844394,8.34438,74.0532,-7.28241,5.41021,-16.5392,-32.5294,8.98178,-20.5412,39.9002,-9.18802,7.90474,1.29075
-0.79314,17.9515,3.91133,1.87288,-42.1615,4.4866,21.151,3.52447,-7.71683,5.08401,2.52228,-2.93425,-6.4441,1.22929,0.546948,-7.21244,-3.21755,-8.56093,-6.31402,-3.69284,3.92298,-0.522468,-1.71352,2.66542,-6.08281e-14,3.10104e-14,-17.2973,33.0579,-95.8688,34.3203,34.4656,-23.4124,-1.4064,7.12502,3.04483,-31.3644,-6.08281e-14,3.10104e-14,-24.0797,-40.5983,95.2346,43.251,-5.17825,-5.38075,37.3165,7.12502,20.4275,66.262,-42.7101,-1.36533,8.27527,73.5547,-8.39871,2.9393,-16.5792,-32.7077,8.56575,-20.4505,39.8259,-9.18712,7.95001,0.798563
-0.817563,17.9668,3.93843,2.48426,-41.8179,3.95729,21.2491,3.55866,-7.32872,5.12316,2.65323,-2.81675,-6.45172,1.28831,0.418348,-7.08673,-3.30918,-8.48364,-6.24608,-3.82069,4.22308,-0.507736,-1.78121,2.75035,9.54166e-15,-1.66979e-14,-17.9209,31.9821,-96.133,35.4519,41.7541,-23.9984,-3.45785,7.12502,2.47895,-33.4232,9.54166e-15,-1.66979e-14,-23.9875,-40.5172,95.2543,43.5175,-4.32472,-5.11028,37.4482,7.12502,20.6875,66.3656,-43.3216,-1.56128,8.48051,72.7763,-9.38456,0.733364,-15.9365,-32.8457,8.22759,-20.0391,39.7379,-9.24366,8.04327,0.42158
-0.845155,17.9732,3.96441,3.06202,-41.5667,3.57471,21.2669,3.62654,-7.12983,5.10991,2.79453,-2.68972,-6.48246,1.35661,0.404589,-6.9401,-3.36236,-8.50244,-6.21608,-3.8908,4.59813,-0.508803,-1.81789,2.88148,3.93594e-14,1.27222e-14,-18.7085,30.6144,-96.2128,37.2998,47.3952,-22.6776,-5.07925,7.12502,3.75442,-35.0259,3.93594e-14,1.27222e-14,-24.0152,-40.3111,95.39,43.7564,-3.82201,-7.46039,37.6968,7.12502,18.428,66.8439,-43.9399,-1.50227,8.50607,71.807,-10.2292,-1.33404,-15.3409,-33.0654,8.05987,-19.7775,39.6546,-9.23174,8.13425,-0.315673
-0.875507,17.9956,3.99293,3.52043,-41.4029,3.37905,21.1378,3.71298,-7.06671,5.09672,2.94011,-2.62723,-6.43884,1.42692,0.402849,-6.7244,-3.42135,-8.45116,-6.19467,-3.97929,4.95397,-0.524759,-1.86599,2.99431,1.72943e-14,-1.82882e-14,-19.3664,29.4877,-96.2412,39.0975,50.5473,-20.5629,-4.87812,7.12502,5.79638,-34.7788,1.72943e-14,-1.82882e-14,-24.0005,-39.9177,95.4249,43.9212,-4.0003,-7.00722,37.2758,7.12502,18.8639,66.3811,-44.4016,-1.17337,8.28439,70.5822,-10.7588,-3.00257,-14.7375,-33.209,7.91981,-19.6623,39.5456,-9.28743,8.26167,-0.702521
-0.907912,18.0167,4.02269,3.84193,-41.2242,3.2495,20.9956,3.76239,-7.04065,5.13152,3.03115,-2.57797,-6.33353,1.46878,0.425225,-6.57586,-3.47808,-8.34598,-6.13176,-4.06453,5.25308,-0.51834,-1.91361,3.07635,2.84262e-14,2.66371e-14,-19.6686,29.1965,-96.3614,40.2966,50.5657,-17.7621,-4.05888,7.12502,8.49992,-33.8678,2.84262e-14,2.66371e-14,-23.9736,-39.509,95.4303,44.0487,-4.27525,-6.79099,36.7952,7.12502,19.0718,65.8801,-44.6675,-0.832711,7.96217,69.2036,-11.0219,-3.99993,-14.8193,-33.2299,7.65337,-19.5396,39.4208,-9.42569,8.38793,-0.390189
-0.939284,18.0334,4.04938,4.29691,-40.9526,2.90146,20.8844,3.68901,-6.8899,5.14494,2.9944,-2.43246,-6.25969,1.44984,0.514032,-6.34973,-3.45823,-8.35093,-6.15777,-4.04683,5.53164,-0.559818,-1.90749,3.17802,3.43897e-14,-4.8901e-14,-19.7462,29.544,-96.5512,40.9649,49.0485,-15.3015,-3.53035,7.12502,10.874,-33.2288,3.43897e-14,-4.8901e-14,-24.0872,-38.9695,95.5462,44.178,-4.393,-6.77259,36.481,7.12502,19.0895,65.5642,-44.8212,-0.45377,7.79297,67.6653,-11.0394,-4.54266,-15.2382,-33.2186,7.27572,-19.2007,39.1901,-9.53161,8.56619,0.0419416
-0.972848,18.054,4.07343,4.84032,-40.7053,2.40425,20.7262,3.53844,-6.63176,5.11714,2.88428,-2.27565,-6.19766,1.39611,0.574689,-5.98385,-3.36444,-8.39877,-6.21154,-3.93871,5.77724,-0.64156,-1.8565,3.28235,-5.32743e-14,2.66371e-14,-19.7371,30.073,-96.7888,41.3285,47.5337,-14.0036,-3.1835,7.12502,12.1257,-32.8121,-5.32743e-14,2.66371e-14,-24.3439,-38.5466,95.6167,44.342,-4.36401,-6.83862,36.4155,7.12502,19.026,65.505,-44.892,0.0632575,7.73494,66.0039,-10.866,-4.88834,-15.7543,-33.1766,7.19549,-18.7835,38.8646,-9.42892,8.54961,-0.317722
-1.00787,18.0893,4.09963,5.05416,-40.4572,2.16903,20.6312,3.37305,-6.45292,5.1155,2.72144,-2.2367,-6.13454,1.31582,0.563779,-5.67765,-3.27068,-8.27585,-6.09556,-3.84019,5.88523,-0.664217,-1.81397,3.3028,1.53064e-14,-2.38542e-15,-19.6307,30.5014,-97.0173,41.5127,46.1397,-12.7702,-2.70483,7.12502,13.3147,-32.2595,1.53064e-14,-2.38542e-15,-24.6252,-38.0598,95.6369,44.3942,-4.66897,-7.12315,36.305,7.12502,18.7524,65.4211,-44.7108,0.595151,7.36683,64.2753,-10.5635,-4.68805,-16.0396,-32.8842,7.05215,-18.5562,38.4772,-9.38817,8.46252,0.00388491
-1.04442,18.1264,4.12661,5.07557,-40.2638,2.10913,20.5906,3.25179,-6.37374,5.12659,2.58244,-2.2783,-6.08807,1.24705,0.513166,-5.61254,-3.17344,-8.0365,-5.75912,-3.7282,5.95716,-0.577801,-1.76527,3.28125,-6.36111e-15,3.57812e-14,-19.3689,30.8681,-97.193,41.5545,44.5917,-11.3497,-2.4767,7.12502,14.6836,-31.9367,-6.36111e-15,3.57812e-14,-25.0256,-37.6094,95.7555,44.4387,-5.14646,-7.62506,36.0254,7.12502,18.2696,65.1875,-44.3694,1.37759,6.68469,62.5343,-10.3352,-3.81381,-15.2788,-32.4649,6.584,-18.372,38.1188,-9.53318,8.62797,1.56781
-1.08404,18.1445,4.15087,5.02671,-40.0917,2.16159,20.5626,3.11327,-6.4387,5.09867,2.38665,-2.34233,-6.09209,1.15397,0.532121,-5.57157,-3.06244,-7.85379,-5.39647,-3.59273,6.10723,-0.477894,-1.70321,3.29761,2.06736e-14,-3.18055e-14,-19.0397,31.7666,-97.4128,41.2893,42.8018,-10.5665,-2.6895,7.12502,15.438,-32.093,2.06736e-14,-3.18055e-14,-25.477,-37.2201,95.8515,44.4686,-5.54535,-8.15299,35.4094,7.12502,17.7616,64.6183,-43.9745,2.32921,5.8929,60.8149,-10.0288,-2.72988,-14.8757,-32.1165,6.21534,-18.291,37.8247,-9.64498,8.77578,2.34025
-1.12488,18.1488,4.16856,5.04944,-39.9059,2.11419,20.5302,2.94322,-6.45709,5.05156,2.16308,-2.36583,-6.11308,1.04822,0.575303,-5.60048,-3.01112,-7.72984,-4.96039,-3.53361,6.20884,-0.336706,-1.67703,3.30501,1.03368e-14,-2.46493e-14,-18.6094,33.1304,-97.5773,40.7296,40.9625,-9.99994,-2.63322,7.12502,15.9837,-31.9938,1.03368e-14,-2.46493e-14,-25.7459,-36.668,95.8769,44.3467,-6.03358,-8.27599,34.9494,7.12502,17.6433,64.169,-43.6134,3.3383,5.21774,59.1559,-9.59406,-1.5259,-15.5421,-31.8918,6.19563,-18.1927,37.6251,-9.59443,8.70201,1.52893
-1.16529,18.1637,4.18417,5.197,-39.6783,1.79101,20.5108,2.7799,-6.21031,5.02897,2.00751,-2.33775,-6.11229,0.971884,0.507327,-5.75341,-2.99433,-7.55838,-4.42128,-3.51941,6.2655,-0.139584,-1.67202,3.28437,8.50798e-14,-2.14687e-14,-18.0906,34.0951,-97.5919,40.0985,39.6098,-9.40904,-2.52823,7.12502,16.5527,-31.8422,8.50798e-14,-2.14687e-14,-25.9003,-36.3416,95.9385,44.1758,-6.29997,-8.02639,35.1426,7.12502,17.8834,64.3403,-43.1807,4.35278,4.75558,57.5258,-9.10526,-0.0162687,-16.0489,-31.6283,6.00564,-17.8075,37.4692,-9.53853,8.72272,0.916987
-1.2084,18.1877,4.20612,5.30449,-39.4988,1.4957,20.429,2.659,-5.95211,4.98224,1.91101,-2.34743,-6.10747,0.924353,0.378085,-5.76011,-2.96564,-7.32815,-3.95924,-3.50191,6.34517,0.00621726,-1.66682,3.26413,3.10104e-14,-1.35174e-14,-17.7146,34.7236,-97.6422,39.568,38.7196,-8.67563,-2.97992,7.12502,17.2587,-32.2336,3.10104e-14,-1.35174e-14,-26.0233,-36.4744,95.9634,43.9092,-6.26576,-7.63346,35.4085,7.12502,18.2615,64.5713,-42.679,5.37855,4.27053,55.9537,-8.51336,1.54862,-16.5264,-31.2498,5.69808,-17.4265,37.2647,-9.61975,8.8764,0.426512
-1.25296,18.2088,4.23163,5.20239,-39.4153,1.43334,20.3363,2.61274,-5.92815,4.95136,1.86363,-2.35293,-6.08913,0.902132,0.373174,-5.7015,-2.9569,-7.25231,-3.62273,-3.5045,6.48774,0.106234,-1.66964,3.29694,-4.21423e-14,1.90833e-14,-17.3819,35.3635,-97.5657,39.0515,38.1077,-7.52506,-3.89905,7.12502,18.3658,-33.052,-4.21423e-14,1.90833e-14,-26.0463,-36.8521,96.0114,43.5388,-6.17809,-7.13582,35.3808,7.12502,18.7402,64.4981,-42.1311,6.38838,3.64422,54.482,-7.86386,2.72867,-17.4188,-30.7132,5.50338,-17.2743,36.9607,-9.70006,9.03038,-0.432722
-1.3,18.2248,4.25538,4.99449,-39.3761,1.52684,20.2151,2.63735,-6.03887,4.94439,1.88354,-2.35712,-6.03692,0.912603,0.429766,-5.75508,-3.04017,-7.28753,-3.35708,-3.61644,6.64326,0.213925,-1.72419,3.35165,-2.78299e-15,-1.19271e-14,-16.97,35.9236,-97.2722,38.4881,37.7458,-6.54695,-4.05512,7.12502,19.3065,-33.1167,-2.78299e-15,-1.19271e-14,-25.9616,-37.1604,96.1988,43.0264,-6.2137,-7.08381,34.952,7.12502,18.7902,64.0644,-41.6369,7.3493,2.96457,53.1418,-7.22791,3.53184,-17.9238,-30.1359,5.29873,-17.2421,36.5947,-9.75072,9.20859,-0.584205
-1.35154,18.2378,4.27396,4.76492,-39.3073,1.67548,20.1114,2.67527,-6.16814,4.90537,1.91107,-2.40723,-6.02805,0.928242,0.443986,-5.84908,-3.15341,-7.30342,-3.05336,-3.76901,6.87061,0.346029,-1.79814,3.42565,-9.46215e-14,6.67916e-14,-16.507,36.2114,-96.9752,37.8508,37.6019,-6.34515,-3.47239,7.12502,19.5005,-32.5145,-9.46215e-14,6.67916e-14,-25.9505,-37.6356,96.443,42.5091,-5.86283,-7.52133,34.9094,7.12502,18.3694,64.062,-41.1727,8.28177,2.28497,51.936,-6.5578,4.26914,-17.2431,-29.6008,5.17604,-17.2529,36.2094,-9.69031,9.28228,-0.803443
-1.40419,18.249,4.29182,4.55487,-39.1564,1.82188,19.9554,2.69264,-6.26982,4.87636,1.92253,-2.46832,-5.97879,0.935061,0.43707,-5.89712,-3.25898,-7.30809,-2.84013,-3.91362,7.15513,0.442389,-1.86821,3.51895,7.67309e-14,-2.3059e-14,-15.9824,36.1926,-96.6797,37.299,37.3457,-5.43265,-3.41371,7.12502,20.3777,-32.3645,7.67309e-14,-2.3059e-14,-25.8401,-38.3303,96.6503,41.9004,-5.30325,-7.61046,34.936,7.12502,18.2836,64.0967,-40.6915,9.08624,1.67295,50.8544,-6.03137,4.88726,-16.283,-29.1051,4.96759,-17.2288,35.8234,-9.7329,9.27396,-0.476013
-1.45539,18.2623,4.30997,4.30498,-38.8853,2.00898,19.8116,2.68885,-6.42031,4.83765,1.9,-2.48049,-5.94749,0.926995,0.518086,-5.87382,-3.35902,-7.39623,-2.72756,-4.04789,7.45217,0.496054,-1.93327,3.63503,-1.02175e-13,-1.11319e-14,-15.4884,36.0736,-96.3022,36.8319,36.8628,-3.79724,-3.78503,7.12502,21.9487,-32.5599,-1.02175e-13,-1.11319e-14,-25.6225,-38.7846,96.8574,41.154,-5.49314,-5.18957,34.6746,7.12502,20.6113,63.6002,-40.1479,9.68426,1.13784,49.8864,-5.60917,5.31579,-16.1642,-28.6208,4.60162,-17.232,35.4659,-9.74705,9.36935,0.0414026
-1.51016,18.2724,4.32745,3.93948,-38.6345,2.30825,19.6653,2.69042,-6.66976,4.80833,1.86439,-2.505,-5.90586,0.912946,0.6449,-5.88657,-3.44861,-7.4678,-2.60328,-4.16752,7.6144,0.554945,-1.99113,3.70086,-1.63003e-14,-1.19271e-14,-15.0005,36.0339,-95.8663,36.2772,36.6104,-3.02788,-3.726,7.12502,22.6872,-32.4124,-1.63003e-14,-1.19271e-14,-25.3241,-39.0727,96.9665,40.3816,-5.62437,-2.758,34.3133,7.12502,22.9462,62.9677,-39.5555,10.2516,0.591188,49.0253,-5.21653,5.65278,-16.2387,-28.1105,4.29975,-17.3469,35.1701,-9.68001,9.51019,-0.437851
-1.56884,18.2739,4.34255,3.55371,-38.427,2.61239,19.5053,2.73218,-6.86002,4.79986,1.89057,-2.58979,-5.83442,0.926473,0.659179,-5.8295,-3.53644,-7.43605,-2.62088,-4.29061,7.76143,0.552925,-2.0532,3.7429,5.24792e-14,2.94201e-14,-14.4191,35.8272,-95.367,35.6352,36.6469,-2.69378,-3.43751,7.12502,23.0078,-32.0843,5.24792e-14,2.94201e-14,-25.0468,-39.6155,97.0433,39.6524,-5.4862,-2.69124,34.1269,7.12502,23.0103,62.7734,-38.9846,10.8396,0.0900178,48.2678,-4.71693,5.89496,-15.8115,-27.6483,4.15987,-17.4624,34.9493,-9.61936,9.47299,-0.986583
-1.63104,18.2737,4.35902,3.34932,-38.2382,2.65816,19.2752,2.7808,-6.80958,4.77737,1.98261,-2.65221,-5.73931,0.969888,0.548568,-5.79685,-3.66494,-7.41693,-2.61245,-4.46709,7.93956,0.569631,-2.14129,3.79599,6.2816e-14,5.08889e-14,-13.8086,35.6175,-94.8408,34.998,36.3406,-2.37122,-3.49514,7.12502,23.3173,-32.103,6.2816e-14,5.08889e-14,-24.879,-40.4035,97.1688,39.025,-5.43934,-1.63474,34.2918,7.12502,24.0237,62.8083,-38.4201,11.3936,-0.0993546,47.5785,-4.22001,6.05685,-15.8519,-27.2414,4.05672,-17.3378,34.8101,-9.64278,9.31507,-1.13224
-1.69212,18.273,4.37952,3.1235,-37.9777,2.69099,19.029,2.74763,-6.71115,4.75093,1.98227,-2.67764,-5.63402,0.968549,0.474281,-5.82532,-3.74417,-7.53863,-2.52732,-4.56843,8.14459,0.62103,-2.18899,3.88757,-7.35503e-14,7.23576e-14,-13.2831,35.6765,-94.3021,34.483,35.6305,-2.17655,-3.54209,7.12502,23.504,-32.1262,-7.35503e-14,7.23576e-14,-24.7517,-41.0045,97.33,38.4386,-5.28031,-0.173794,34.6397,7.12502,25.4239,62.9643,-37.7246,11.8065,-0.215482,46.9376,-3.63115,6.31406,-15.1112,-26.82,3.88208,-17.215,34.7571,-9.79841,9.17524,-1.07461
-1.75564,18.2715,4.39609,2.83149,-37.6738,2.7467,18.8697,2.72114,-6.72901,4.71296,1.96266,-2.65105,-5.59092,0.960536,0.522123,-6.0003,-3.79373,-7.63726,-2.2979,-4.62786,8.26089,0.738727,-2.21298,3.94186,1.98785e-14,-2.14687e-14,-12.7737,35.5048,-93.7031,33.995,34.9606,-1.3778,-3.37537,7.12502,24.27,-31.8592,1.98785e-14,-2.14687e-14,-24.6577,-41.4998,97.5394,37.8648,-5.07376,0.155757,34.7459,7.12502,25.7396,63.0251,-36.9378,12.1613,-0.266576,46.3208,-2.9356,6.58392,-14.4705,-26.3795,3.82644,-17.1347,34.7734,-9.89566,9.01946,-2.08027
-1.82445,18.2658,4.40726,2.57156,-37.4604,2.72437,18.7158,2.73183,-6.77715,4.65491,1.98441,-2.61852,-5.57579,0.973806,0.582592,-6.13471,-3.84199,-7.68741,-2.06781,-4.69124,8.35532,0.848047,-2.24005,3.97954,2.42517e-14,-2.8625e-14,-12.126,35.2327,-93.0832,33.448,34.2133,0.309233,-3.0616,7.12502,25.8865,-31.3195,2.42517e-14,-2.8625e-14,-24.5121,-41.8975,97.5667,37.4,-5.29749,0.371016,34.5007,7.12502,25.9457,62.7499,-36.1816,12.4941,-0.107536,45.7277,-2.21284,6.82753,-15.0238,-25.9628,3.97947,-17.0046,34.8657,-9.95188,8.86365,-4.07481
-1.89188,18.2552,4.42088,2.34411,-37.2351,2.69257,18.4361,2.69713,-6.67272,4.63963,1.9868,-2.63324,-5.44051,0.972874,0.51732,-6.1691,-3.88979,-7.78937,-2.00752,-4.75022,8.47944,0.886634,-2.26694,4.04068,-3.37934e-14,2.14687e-14,-11.2018,35.2363,-92.285,32.8173,33.1658,1.37612,-2.51296,7.12502,26.9078,-30.6176,-3.37934e-14,2.14687e-14,-24.2478,-42.2988,97.4112,36.9714,-5.35998,0.697148,34.1607,7.12502,26.2579,62.3638,-35.4113,12.7344,0.0883206,45.1812,-1.52198,7.08715,-14.8561,-25.6248,4.01136,-16.856,35.042,-10.0011,8.77369,-5.80396
-1.95859,18.2421,4.43512,2.22895,-36.953,2.5131,18.1207,2.59247,-6.42065,4.60646,1.93222,-2.58867,-5.29991,0.944142,0.446601,-6.29681,-3.92105,-7.92524,-1.85526,-4.78091,8.47893,0.966342,-2.27834,4.06357,6.71892e-14,3.97569e-15,-10.29,35.434,-91.3746,32.2119,32.0127,1.37264,-1.66626,7.12502,26.9045,-29.7714,6.71892e-14,3.97569e-15,-24.2356,-43.0775,97.5034,36.5881,-3.91139,1.82007,34.2627,7.12502,27.3325,62.3012,-34.6004,12.9429,0.427083,44.7108,-1.03354,7.34485,-12.8508,-25.3849,3.91179,-16.5235,35.3089,-10.1741,8.53723,-6.06247
-2.0273,18.2277,4.44649,2.06904,-36.6726,2.29405,17.8683,2.49281,-6.1541,4.56688,1.87724,-2.5612,-5.19874,0.91584,0.346666,-6.37722,-3.966,-7.89361,-1.68867,-4.84389,8.40138,1.03716,-2.30842,4.02508,-1.98785e-14,2.14687e-14,-9.39044,35.506,-90.505,31.6137,30.9778,1.59481,-1.10614,7.12502,27.117,-29.1783,-1.98785e-14,2.14687e-14,-24.3291,-44.2524,97.5633,36.2696,-1.67684,2.67304,34.2856,7.12502,28.1481,62.1927,-33.6958,13.1329,0.913544,44.3447,-1.41,7.69692,-9.73704,-25.121,3.87474,-16.1464,35.6557,-10.3581,8.27952,-6.65273
-2.10196,18.212,4.45845,1.91921,-36.4618,2.03693,17.4948,2.43206,-5.89587,4.54537,1.88165,-2.5271,-5.01708,0.915047,0.249353,-6.4826,-4.00591,-7.89264,-1.42794,-4.90133,8.39156,1.14637,-2.33413,4.01642,2.54444e-14,-5.24792e-14,-8.31261,35.5499,-89.5101,30.9004,29.9652,1.75111,-0.429144,7.12502,27.2665,-28.478,2.54444e-14,-5.24792e-14,-24.2179,-45.3131,97.3216,36.0531,0.19805,3.28719,34.1911,7.12502,28.735,62.0001,-32.7757,13.31,1.51725,44.0784,-2.62914,7.99765,-7.78872,-24.8357,3.93487,-15.7322,36.0494,-10.5843,8.02134,-7.25668
-2.17747,18.195,4.46296,1.71485,-36.2168,1.82761,17.1969,2.36087,-5.70811,4.52916,1.8519,-2.48371,-4.87038,0.898612,0.206272,-6.86003,-4.04062,-7.8989,-0.917642,-4.94408,8.35982,1.38524,-2.34668,3.99795,-1.15295e-14,1.59028e-15,-7.08266,35.6566,-88.3355,30.2182,28.809,1.67857,0.471565,7.12502,27.1971,-27.5881,-1.15295e-14,1.59028e-15,-23.9058,-46.1143,96.7668,35.9705,2.06482,5.14342,35.5387,7.12502,30.5068,63.033,-31.8367,13.4522,2.10797,43.8887,-4.03983,7.82563,-8.59203,-24.5504,3.87909,-15.3302,36.4531,-10.7462,7.76637,-7.76205
-2.25254,18.1819,4.46482,1.44566,-35.9387,1.5738,16.9998,2.29299,-5.44086,4.50461,1.82982,-2.44195,-4.78444,0.886583,0.111344,-7.16711,-4.08256,-7.79622,-0.403586,-5.00656,8.20411,1.60669,-2.37242,3.9147,3.61788e-14,-3.18055e-15,-5.87945,35.7115,-87.0719,29.627,27.5717,1.97346,1.28088,7.12502,27.4792,-26.7343,3.61788e-14,-3.18055e-15,-23.4956,-46.7573,96.0153,35.9231,4.12594,9.19457,39.2824,7.12502,34.362,65.9851,-30.7856,13.6559,2.76691,43.7337,-5.23515,7.20028,-10.4366,-24.1674,3.63739,-14.8497,36.8317,-10.9754,7.63802,-8.17492
-2.33007,18.1706,4.4745,1.17309,-35.657,1.27706,16.6661,2.21204,-5.08624,4.49615,1.81688,-2.38095,-4.60693,0.877476,-0.00957827,-7.33539,-4.1337,-7.71507,0.0809159,-5.08424,7.97722,1.7928,-2.41005,3.81214,6.36111e-15,-4.45278e-14,-4.60346,35.7625,-85.6647,28.9952,26.3444,2.83518,1.87302,7.12502,28.303,-26.0085,6.36111e-15,-4.45278e-14,-22.9846,-47.1568,95.123,35.9791,6.43236,16.2842,32.1437,7.12502,41.0591,57.0413,-29.6525,13.8731,3.48806,43.5702,-6.47886,6.79076,-10.7258,-23.7072,3.33844,-14.326,37.1621,-11.3106,7.51957,-8.46987
-2.41055,18.1545,4.48496,0.781023,-35.3313,1.20962,16.2115,2.12034,-4.92556,4.50709,1.7638,-2.33552,-4.34718,0.848639,-0.0260819,-7.36409,-4.19227,-7.83066,0.513504,-5.16313,7.83697,1.94745,-2.45066,3.781,4.23411e-14,1.98785e-14,-3.2057,35.512,-84.1264,28.3189,25.4042,3.82851,2.80679,7.12502,29.252,-24.9134,4.23411e-14,1.98785e-14,-21.8233,-46.4921,93.4264,35.9527,6.02181,10.5417,33.4286,7.12502,35.64,59.8327,-28.5287,14.0259,4.02048,43.375,-7.90012,7.01731,-10.3777,-23.2361,3.11829,-14.0339,37.426,-11.5283,7.32474,-8.62115
