JuanDHNZ/ProyectoFinalCD/preprocessing/sports_trials_csv/13_19.csv
root1,root2,root3,root4,root5,root6,lowerback1,lowerback2,lowerback3,upperback1,upperback2,upperback3,thorax1,thorax2,thorax3,lowerneck1,lowerneck2,lowerneck3,upperneck1,upperneck2,upperneck3,head1,head2,head3,rclavicle1,rclavicle2,rhumerus1,rhumerus2,rhumerus3,rradius1,rwrist1,rhand1,rhand2,rfingers1,rthumb1,rthumb2,lclavicle1,lclavicle2,lhumerus1,lhumerus2,lhumerus3,lradius1,lwrist1,lhand1,lhand2,lfingers1,lthumb1,lthumb2,rfemur1,rfemur2,rfemur3,rtibia1,rfoot1,rfoot2,rtoes1,lfemur1,lfemur2,lfemur3,ltibia1,lfoot1,lfoot2,ltoes1
-0.504119,18.899,-12.9504,2.38499,-8.07366,0.99695,3.61892,0.580517,-1.96968,-1.54123,0.617661,-1.61154,-3.62081,0.333135,-0.596967,-9.94224,-6.46789,-10.0978,16.6104,-8.7104,8.43062,7.55583,-4.11236,3.55559,-2.8948e-15,-3.53837e-14,-38.0004,-0.515358,-80.4405,34.8662,13.7135,-19.138,2.65871,7.12502,7.17195,-27.1998,-2.8948e-15,-3.53837e-14,-39.6361,15.5379,71.8831,30.7284,-0.197567,-13.3754,24.663,7.12502,12.7313,54.2549,-3.52003,21.9475,17.3858,16.0436,-13.0165,-18.5282,-5.56913,-0.659385,-7.21173,-20.7484,11.9261,-12.6744,17.3794,-3.91605
-0.504317,18.8973,-12.9517,2.41119,-8.01972,0.963572,3.54681,0.560071,-1.94914,-1.50713,0.595254,-1.59234,-3.54461,0.32128,-0.585958,-10.0416,-6.46225,-10.0864,16.6086,-8.69153,8.41342,7.56978,-4.10129,3.54749,3.54706e-14,-1.63003e-14,-37.8041,-0.492929,-80.4811,34.9097,13.6069,-19.2316,2.52369,7.12502,7.08161,-27.3378,3.54706e-14,-1.63003e-14,-39.4577,15.5805,71.9132,30.7693,-0.489036,-13.2211,24.4935,7.12502,12.88,54.076,-3.49639,21.8736,17.4241,16.0135,-13.0576,-18.5043,-5.43777,-0.734753,-7.21201,-20.6981,12.0017,-12.7134,17.3054,-3.46038
-0.505764,18.8987,-12.9524,2.40917,-7.97326,1.04034,3.51685,0.547126,-2.0713,-1.47766,0.573248,-1.60187,-3.49839,0.312629,-0.525269,-10.2225,-6.46833,-10.0432,16.7004,-8.68909,8.37363,7.62804,-4.09552,3.52288,-3.35449e-15,3.18055e-15,-37.6154,-0.54198,-80.51,34.9211,13.6663,-19.4079,2.6015,7.12502,6.91144,-27.2657,-3.35449e-15,3.18055e-15,-39.278,15.4695,72.0033,30.7869,-0.506439,-13.243,24.2025,7.12502,12.859,53.7864,-3.52207,21.9265,17.3325,16.0112,-13.118,-18.5514,-5.13713,-0.732059,-7.21219,-20.7708,11.9641,-12.6568,17.2682,-3.25231
-0.506145,18.9005,-12.9517,2.40619,-7.93188,1.00416,3.542,0.534581,-2.01753,-1.51176,0.55746,-1.60329,-3.54716,0.303926,-0.55643,-10.1722,-6.4751,-10.0773,16.752,-8.70568,8.39748,7.64026,-4.10485,3.53592,9.16894e-15,3.18055e-14,-37.629,-0.528913,-80.5609,35.0122,13.6693,-19.4813,2.51491,7.12502,6.84053,-27.3546,9.16894e-15,3.18055e-14,-39.1688,15.2949,72.055,30.7582,-0.43857,-13.3194,24.2758,7.12502,12.7853,53.8643,-3.50853,22.0036,17.3831,15.9896,-13.119,-18.6494,-5.09626,-0.717359,-7.20929,-20.7253,11.95,-12.6081,17.2506,-3.43147
-0.506545,18.9006,-12.9511,2.40842,-7.90225,0.933635,3.54465,0.540761,-1.91803,-1.53966,0.570053,-1.60034,-3.57651,0.308194,-0.61026,-10.1213,-6.48249,-10.0906,16.8093,-8.72556,8.41272,7.65322,-4.11516,3.54237,-8.05078e-15,1.39149e-14,-37.6899,-0.454536,-80.628,35.1725,13.488,-19.277,2.67677,7.12502,7.0378,-27.1862,-8.05078e-15,1.39149e-14,-38.9839,15.0509,72.1635,30.6721,-0.309107,-13.3939,24.7677,7.12502,12.7134,54.3607,-3.48255,21.9826,17.4746,15.9673,-13.081,-18.658,-5.40009,-0.708716,-7.20347,-20.643,11.9504,-12.6035,17.2322,-3.39651
-0.507064,18.9046,-12.9509,2.44455,-7.89333,0.896497,3.47271,0.551793,-1.87857,-1.53214,0.589715,-1.58507,-3.52784,0.317025,-0.616997,-10.206,-6.47376,-10.0912,16.9089,-8.70894,8.39606,7.69865,-4.10603,3.5369,-3.35449e-16,-1.03368e-14,-37.6044,-0.346692,-80.6959,35.2428,13.2967,-19.0316,2.85419,7.12502,7.27468,-27.0008,-3.35449e-16,-1.03368e-14,-38.7885,14.9198,72.2761,30.6,-0.246318,-13.4164,24.7727,7.12502,12.6918,54.367,-3.56518,22.0903,17.4817,15.9188,-13.0675,-18.7183,-5.07217,-0.76408,-7.18297,-20.5946,11.9939,-12.6372,17.1861,-3.66628
-0.507422,18.8996,-12.9499,2.43223,-7.89571,0.969154,3.41881,0.553917,-1.95192,-1.54299,0.589766,-1.60213,-3.5093,0.318458,-0.592965,-10.1968,-6.44821,-10.0696,16.9667,-8.67486,8.35809,7.70979,-4.09178,3.52517,1.84497e-15,1.39149e-14,-37.5166,-0.273396,-80.7569,35.1955,13.2772,-18.876,2.92119,7.12502,7.42484,-26.9285,1.84497e-15,1.39149e-14,-38.7687,14.8262,72.3246,30.6367,-0.239812,-13.6431,24.4084,7.12502,12.4732,54.0161,-3.45168,22.0037,17.4227,15.8904,-13.1474,-18.6355,-5.06092,-0.76816,-7.13353,-20.6725,12.011,-12.6567,17.1433,-3.72079
-0.507432,18.897,-12.9486,2.39738,-7.88634,1.04032,3.40881,0.550537,-2.02016,-1.55306,0.581398,-1.61902,-3.51465,0.315696,-0.571601,-10.1159,-6.43449,-10.0062,16.9421,-8.65171,8.24971,7.67712,-4.08821,3.48356,-6.08157e-15,1.74931e-14,-37.4703,-0.203968,-80.8012,35.1605,13.2487,-18.8305,3.26079,7.12502,7.46879,-26.5874,-6.08157e-15,1.74931e-14,-38.7868,14.8625,72.3178,30.7279,-0.499617,-13.6237,24.2869,7.12502,12.4919,53.8936,-3.389,21.9414,17.363,15.8976,-13.1401,-18.6192,-5.18555,-0.717781,-7.13155,-20.7572,11.9821,-12.645,17.1349,-3.75247
-0.509352,18.8988,-12.9486,2.36277,-7.84909,1.07986,3.40748,0.545423,-2.07793,-1.53083,0.572206,-1.62362,-3.49147,0.312171,-0.543169,-10.0956,-6.45388,-10.0268,16.8862,-8.67216,8.24587,7.65804,-4.10022,3.4836,2.10525e-14,1.23246e-14,-37.4137,-0.206311,-80.8249,35.1982,13.2346,-18.7642,3.1822,7.12502,7.53276,-26.6637,2.10525e-14,1.23246e-14,-38.6598,14.872,72.3574,30.7267,-0.616227,-13.5871,24.4644,7.12502,12.5272,54.0689,-3.36234,21.9546,17.3423,15.8903,-13.1102,-18.6904,-5.44355,-0.702725,-7.18482,-20.7977,12.012,-12.6083,17.1501,-4.00682
-0.510734,18.9022,-12.9503,2.38585,-7.82491,1.08541,3.38742,0.538369,-2.08487,-1.53128,0.563055,-1.62545,-3.48061,0.307696,-0.540352,-10.1452,-6.42101,-9.99569,16.8809,-8.61702,8.19578,7.65602,-4.07485,3.46697,-1.61264e-14,3.18055e-15,-37.3581,-0.166742,-80.8845,35.271,13.1647,-18.7024,2.76798,7.12502,7.59238,-27.0757,-1.61264e-14,3.18055e-15,-38.507,14.8187,72.4214,30.6783,-0.547383,-13.5731,24.6275,7.12502,12.5407,54.2311,-3.41886,22.0274,17.3298,15.895,-13.1115,-18.7817,-5.33407,-0.743937,-7.20728,-20.7884,12.0019,-12.5897,17.1492,-3.9234
-0.510371,18.9,-12.9497,2.38141,-7.83306,1.04786,3.36827,0.546306,-2.04404,-1.5295,0.576917,-1.60756,-3.46774,0.313823,-0.545435,-10.1782,-6.38803,-9.94848,16.8957,-8.55772,8.09527,7.65434,-4.05115,3.43192,2.19719e-14,-9.93923e-15,-37.331,-0.0547364,-80.9577,35.3283,13.0861,-18.8563,2.51384,7.12502,7.44382,-27.3352,2.19719e-14,-9.93923e-15,-38.4299,14.7381,72.4873,30.6648,-0.4866,-13.7185,24.5386,7.12502,12.4006,54.1507,-3.38635,22.0211,17.3858,15.9155,-13.1549,-18.7608,-5.36488,-0.718553,-7.18213,-20.7437,11.9774,-12.6374,17.1239,-3.49744
-0.510018,18.8987,-12.9476,2.38199,-7.85756,1.04477,3.30303,0.550285,-2.03434,-1.52095,0.585014,-1.60883,-3.42197,0.31735,-0.551829,-10.1667,-6.41785,-10.0542,16.8964,-8.59896,8.18438,7.66548,-4.07023,3.4742,2.58482e-14,-1.51076e-14,-37.2869,-0.0293954,-81.0175,35.3368,13.1641,-19.0449,2.23831,7.12502,7.26179,-27.6171,2.58482e-14,-1.51076e-14,-38.3569,14.6546,72.5319,30.6379,-0.500482,-13.838,24.4586,7.12502,12.2853,54.0777,-3.37209,21.9676,17.3943,15.936,-13.1405,-18.6818,-5.40505,-0.698668,-7.21081,-20.7505,11.9604,-12.6819,17.1871,-3.37405
-0.510115,18.9001,-12.9487,2.3969,-7.89381,1.01222,3.29729,0.573115,-2.00091,-1.54805,0.616756,-1.60329,-3.44658,0.332698,-0.567044,-10.1146,-6.45759,-10.1091,16.8995,-8.65947,8.23434,7.668,-4.09972,3.49407,-1.80459e-14,7.95139e-16,-37.3112,-0.0849256,-81.043,35.3671,13.2368,-19.0156,2.19437,7.12502,7.29005,-27.66,-1.80459e-14,7.95139e-16,-38.2823,14.5148,72.6042,30.6174,-0.506655,-13.7364,24.6701,7.12502,12.3833,54.2833,-3.41778,22.027,17.4165,15.9177,-13.0865,-18.6918,-5.418,-0.74566,-7.19913,-20.7173,12.0189,-12.7135,17.2234,-3.53246
-0.511529,18.9048,-12.9502,2.4262,-7.95381,0.909149,3.31209,0.599358,-1.9183,-1.57019,0.655518,-1.5791,-3.47725,0.350652,-0.591239,-10.1304,-6.45579,-10.0211,16.8914,-8.65323,8.14616,7.65949,-4.09826,3.45072,1.32999e-14,5.56597e-15,-37.2948,-0.10478,-81.0862,35.3311,13.2995,-18.9535,2.59341,7.12502,7.35002,-27.2589,1.32999e-14,5.56597e-15,-38.2186,14.411,72.6525,30.6176,-0.527745,-13.7431,24.8671,7.12502,12.3768,54.4807,-3.54929,22.2424,17.5054,15.9319,-13.0099,-18.8389,-5.43995,-0.753109,-7.21142,-20.5987,11.9876,-12.7259,17.3094,-3.54363
-0.512268,18.9001,-12.9485,2.43253,-8.02344,0.876055,3.27732,0.623087,-1.87916,-1.5665,0.690134,-1.5817,-3.4534,0.366847,-0.617522,-10.1185,-6.4465,-10.0083,16.8491,-8.64012,8.14273,7.64146,-4.09191,3.44927,2.52767e-14,1.74931e-14,-37.2423,-0.130768,-81.1387,35.2594,13.4188,-19.1558,2.85133,7.12502,7.15478,-27.0077,2.52767e-14,1.74931e-14,-38.1536,14.3586,72.6737,30.6163,-0.507896,-13.9203,24.965,7.12502,12.2059,54.5889,-3.50287,22.248,17.5488,15.9403,-13.1043,-18.7659,-5.27795,-0.741834,-7.20292,-20.5682,11.983,-12.7447,17.3436,-3.48936
-0.51158,18.9044,-12.9457,2.43101,-8.04588,0.873738,3.25135,0.630896,-1.87731,-1.56819,0.701648,-1.57431,-3.44058,0.372578,-0.611337,-10.1007,-6.43652,-10.0692,16.8313,-8.62828,8.2056,7.63691,-4.0853,3.48187,-5.1684e-15,2.34566e-14,-37.1766,-0.139803,-81.1512,35.184,13.5532,-19.2301,2.83108,7.12502,7.08299,-27.0304,-5.1684e-15,2.34566e-14,-38.097,14.3024,72.7248,30.5733,-0.446485,-14.0376,24.751,7.12502,12.0928,54.3816,-3.57177,22.3281,17.524,15.9232,-13.0388,-18.8235,-5.21993,-0.744069,-7.19169,-20.5742,12.0203,-12.7287,17.3205,-3.61147
-0.51083,18.9006,-12.9448,2.41476,-8.06176,0.910084,3.26221,0.631305,-1.9123,-1.5831,0.69967,-1.57911,-3.46254,0.372467,-0.59688,-10.0844,-6.41005,-10.0874,16.8361,-8.59403,8.22465,7.63381,-4.06897,3.49563,-1.54679e-15,-5.56597e-15,-37.1742,-0.122066,-81.1877,35.1544,13.6342,-19.1821,3.01853,7.12502,7.12942,-26.8414,-1.54679e-15,-5.56597e-15,-38.0635,14.3221,72.7322,30.4962,-0.427701,-14.1018,24.4394,7.12502,12.0309,54.0736,-3.47182,22.2375,17.5013,15.8787,-13.0271,-18.7281,-5.42997,-0.784721,-7.22699,-20.6244,12.1312,-12.8135,17.3392,-3.56475
-0.51025,18.9009,-12.9441,2.40737,-8.07408,0.836556,3.29656,0.61945,-1.85832,-1.60856,0.686226,-1.53541,-3.50799,0.365375,-0.581978,-10.0351,-6.37489,-10.1246,16.8239,-8.54599,8.24159,7.61868,-4.04837,3.5142,5.85794e-15,-6.75868e-15,-37.205,-0.0880159,-81.2073,35.1525,13.7803,-19.0795,3.06496,7.12502,7.22839,-26.7916,5.85794e-15,-6.75868e-15,-38.1328,14.3201,72.7639,30.5532,-0.319662,-14.1233,24.7205,7.12502,12.0102,54.3559,-3.42549,22.2042,17.5919,15.843,-13.0107,-18.6981,-5.44473,-0.797333,-7.21862,-20.5495,12.2132,-12.8277,17.3411,-3.69996
-0.510194,18.8984,-12.9437,2.40871,-8.08286,0.83564,3.311,0.624596,-1.87188,-1.6356,0.691903,-1.51944,-3.54451,0.368965,-0.558783,-9.93868,-6.35842,-10.2354,16.7488,-8.52778,8.34392,7.58466,-4.04078,3.57072,2.2736e-15,-1.98785e-15,-37.2558,-0.0473175,-81.2261,35.1746,13.839,-18.9643,2.8192,7.12502,7.3396,-27.0335,2.2736e-15,-1.98785e-15,-38.1871,14.2835,72.8029,30.602,-0.266069,-14.094,25.1179,7.12502,12.0384,54.7516,-3.37412,22.1398,17.5988,15.8015,-12.9811,-18.655,-5.47125,-0.853929,-7.15587,-20.5444,12.3277,-12.8901,17.2977,-3.86189
-0.509916,18.8949,-12.9428,2.40603,-8.09018,0.801146,3.30367,0.626935,-1.85941,-1.63717,0.696841,-1.48935,-3.54219,0.371512,-0.535002,-9.92259,-6.34937,-10.2396,16.7103,-8.50939,8.32345,7.56668,-4.03445,3.56701,3.24267e-15,-1.51076e-14,-37.2861,0.0234082,-81.2441,35.2161,13.7802,-18.9881,2.66302,7.12502,7.31669,-27.1905,3.24267e-15,-1.51076e-14,-38.2343,14.3089,72.8116,30.622,-0.278376,-14.0509,25.0248,7.12502,12.08,54.6561,-3.32725,22.1033,17.6454,15.7714,-12.9413,-18.6451,-5.53734,-0.88676,-7.11378,-20.5051,12.405,-12.917,17.2962,-3.83129
-0.508568,18.8952,-12.9416,2.41128,-8.06463,0.837346,3.29497,0.624945,-1.87973,-1.65457,0.692384,-1.50908,-3.5553,0.369634,-0.543739,-9.88868,-6.34753,-10.2753,16.6778,-8.5155,8.39437,7.55535,-4.03468,3.59651,6.91398e-15,-3.97569e-15,-37.3326,-0.0204052,-81.2679,35.2315,13.8644,-18.9576,2.94918,7.12502,7.34611,-26.9033,6.91398e-15,-3.97569e-15,-38.2489,14.2634,72.8136,30.5957,-0.278631,-13.9129,25.0024,7.12502,12.2131,54.6258,-3.32993,22.0772,17.5973,15.7632,-12.9642,-18.6142,-5.57126,-0.912518,-7.11987,-20.5521,12.4343,-12.8651,17.3019,-4.04296
-0.507416,18.8959,-12.9422,2.42417,-8.03061,0.876274,3.31084,0.616633,-1.91004,-1.67932,0.677943,-1.53236,-3.58995,0.363103,-0.55031,-9.93532,-6.35419,-10.3077,16.711,-8.53286,8.4762,7.58129,-4.03689,3.62593,-2.45499e-14,1.55052e-14,-37.4044,-0.042311,-81.3159,35.2938,13.9269,-18.9519,3.05994,7.12502,7.3516,-26.7923,-2.45499e-14,1.55052e-14,-38.2977,14.2943,72.7796,30.6113,-0.333234,-13.8808,24.8354,7.12502,12.244,54.457,-3.35824,22.064,17.5412,15.7781,-13.0072,-18.5977,-5.43198,-0.923994,-7.15359,-20.5946,12.4077,-12.8438,17.3039,-3.88631
-0.505786,18.8978,-12.9402,2.42231,-8.04153,0.876569,3.29305,0.61619,-1.90549,-1.66335,0.678622,-1.52896,-3.56335,0.3632,-0.548992,-10.0503,-6.35982,-10.2619,16.7285,-8.52648,8.41338,7.60206,-4.03303,3.59529,-4.33599e-15,-3.37934e-14,-37.4244,-0.00330509,-81.3497,35.3553,13.8747,-19.0539,3.03972,7.12502,7.25313,-26.816,-4.33599e-15,-3.37934e-14,-38.2912,14.3463,72.7756,30.592,-0.382295,-13.7266,24.8401,7.12502,12.3927,54.4528,-3.40001,22.0751,17.5247,15.8265,-13.0334,-18.5993,-5.36805,-0.878476,-7.17642,-20.6038,12.3405,-12.8717,17.3011,-3.69046
-0.505012,18.8988,-12.9371,2.39931,-8.09168,0.836911,3.26921,0.628596,-1.86752,-1.61873,0.699525,-1.50752,-3.50356,0.372572,-0.548695,-10.1215,-6.35148,-10.2453,16.6574,-8.49841,8.37533,7.58631,-4.0199,3.58104,-1.61388e-14,3.97569e-16,-37.4106,0.0229563,-81.3694,35.4099,13.8545,-19.1158,3.07872,7.12502,7.19341,-26.779,-1.61388e-14,3.97569e-16,-38.2358,14.3721,72.8045,30.542,-0.406832,-13.6047,24.9135,7.12502,12.5103,54.519,-3.41724,22.1271,17.5696,15.8787,-13.051,-18.6013,-5.37307,-0.787317,-7.17964,-20.5765,12.2526,-12.8726,17.3521,-3.65157
-0.504492,18.8974,-12.935,2.37237,-8.14364,0.871719,3.25918,0.632778,-1.91346,-1.59247,0.703557,-1.51583,-3.47128,0.375282,-0.531367,-10.1492,-6.33322,-10.1978,16.5737,-8.47085,8.36425,7.55843,-4.00413,3.57184,4.96962e-16,0,-37.3997,0.0828363,-81.4361,35.4222,13.8323,-19.2511,2.88961,7.12502,7.06274,-26.9726,4.96962e-16,0,-38.2149,14.3746,72.8043,30.4826,-0.388931,-13.5317,24.9391,7.12502,12.5807,54.5403,-3.40379,22.1627,17.531,15.907,-13.0829,-18.5642,-5.35071,-0.745346,-7.13385,-20.6275,12.2307,-12.842,17.381,-3.79432
-0.504238,18.9006,-12.9344,2.35062,-8.18421,0.874276,3.3029,0.640716,-1.92887,-1.58491,0.711983,-1.52329,-3.48834,0.379782,-0.531455,-10.209,-6.34839,-10.0541,16.5622,-8.48319,8.22135,7.5538,-4.0115,3.49793,1.44429e-14,6.36111e-15,-37.4399,0.149654,-81.5152,35.4862,13.7105,-19.3114,2.58508,7.12502,7.00457,-27.279,1.44429e-14,6.36111e-15,-38.2338,14.2872,72.8298,30.4691,-0.203769,-13.462,24.8974,7.12502,12.6478,54.4945,-3.44921,22.2795,17.5139,15.8994,-13.0532,-18.5977,-5.08126,-0.741401,-7.16715,-20.6422,12.279,-12.8876,17.4523,-3.7752
-0.503842,18.8968,-12.9354,2.32864,-8.17864,0.878654,3.36953,0.638901,-1.93837,-1.59372,0.706643,-1.52822,-3.53513,0.377529,-0.531864,-10.2071,-6.35522,-9.99498,16.5416,-8.4867,8.14245,7.54097,-4.01622,3.4617,-1.90895e-14,-1.70955e-14,-37.5024,0.251366,-81.6082,35.5259,13.6202,-19.4134,2.31108,7.12502,6.90611,-27.5563,-1.90895e-14,-1.70955e-14,-38.279,14.2237,72.8484,30.4164,-0.0645877,-13.6331,24.6572,7.12502,12.4829,54.2644,-3.32909,22.1643,17.5426,15.8747,-13.0535,-18.5248,-5.2231,-0.7573,-7.1804,-20.6502,12.3491,-12.9223,17.4554,-4.08275
-0.502751,18.8946,-12.9355,2.34337,-8.18159,0.842262,3.36475,0.635401,-1.88576,-1.60899,0.704554,-1.52152,-3.54758,0.375471,-0.554385,-10.1434,-6.34215,-10.0393,16.4988,-8.47458,8.19762,7.51885,-4.01036,3.49019,-1.59214e-14,1.27222e-14,-37.5807,0.290355,-81.6419,35.5588,13.6496,-19.2848,2.11106,7.12502,7.03019,-27.7522,-1.59214e-14,1.27222e-14,-38.3864,14.2783,72.8285,30.4042,-0.0660525,-13.7737,24.5863,7.12502,12.3473,54.2017,-3.29277,22.1115,17.5859,15.8384,-13.0444,-18.5212,-5.47795,-0.79362,-7.14003,-20.6115,12.4146,-12.9954,17.4103,-4.04892
-0.503461,18.8969,-12.936,2.34914,-8.20942,0.809862,3.38821,0.630359,-1.90527,-1.61669,0.696993,-1.49151,-3.56938,0.372666,-0.512454,-10.1846,-6.32141,-10.0487,16.5309,-8.44373,8.20404,7.53432,-3.99454,3.49642,1.04673e-14,-3.97569e-15,-37.642,0.364977,-81.6729,35.584,13.5617,-19.1148,1.97837,7.12502,7.19431,-27.8793,1.04673e-14,-3.97569e-15,-38.4742,14.3947,72.7897,30.3945,-0.186229,-13.8204,24.8342,7.12502,12.3022,54.4523,-3.29962,22.1883,17.6147,15.7861,-13.0161,-18.5744,-5.46736,-0.844239,-7.14063,-20.5738,12.533,-13.1052,17.4172,-3.84214
-0.503365,18.8981,-12.9357,2.37759,-8.23004,0.771157,3.36815,0.626598,-1.89261,-1.62207,0.693632,-1.47543,-3.56361,0.370895,-0.502554,-10.1277,-6.31702,-10.0599,16.4469,-8.44411,8.24917,7.49924,-3.99336,3.51447,4.56646e-14,-1.82882e-14,-37.6652,0.353533,-81.6896,35.5203,13.5489,-19.0721,2.09752,7.12502,7.23557,-27.7588,4.56646e-14,-1.82882e-14,-38.4917,14.3907,72.7938,30.3365,-0.168664,-14.0099,25.0666,7.12502,12.1195,54.6955,-3.34893,22.2466,17.6416,15.7387,-12.8969,-18.6573,-5.5703,-0.909968,-7.13536,-20.5309,12.6175,-13.1593,17.4038,-3.71261
-0.501565,18.8952,-12.9346,2.36843,-8.2222,0.769503,3.38601,0.625716,-1.873,-1.62475,0.692682,-1.4793,-3.57616,0.369983,-0.517732,-10.1158,-6.3361,-10.0662,16.4233,-8.46902,8.2493,7.49222,-4.00598,3.51289,-1.2188e-14,-5.1684e-15,-37.733,0.312856,-81.6986,35.5194,13.5186,-18.9984,2.39068,7.12502,7.3067,-27.4632,-1.2188e-14,-5.1684e-15,-38.5134,14.4197,72.7762,30.2427,-0.265234,-14.0502,24.9393,7.12502,12.0807,54.5706,-3.32507,22.1724,17.6446,15.7421,-12.838,-18.5922,-5.73113,-0.896641,-7.12646,-20.5303,12.6089,-13.168,17.3506,-3.33044
-0.500293,18.8938,-12.9329,2.35765,-8.2019,0.771952,3.39932,0.622759,-1.84439,-1.62641,0.689085,-1.49732,-3.5848,0.367339,-0.552268,-10.0955,-6.35386,-10.0817,16.4246,-8.49907,8.28111,7.49411,-4.01922,3.52305,-1.87292e-14,-2.78299e-15,-37.7819,0.259358,-81.7249,35.4901,13.5344,-19.011,2.60218,7.12502,7.29454,-27.2521,-1.87292e-14,-2.78299e-15,-38.5946,14.4459,72.7218,30.2258,-0.397831,-13.9541,24.8488,7.12502,12.1734,54.4746,-3.26427,22.1105,17.6507,15.7448,-12.8909,-18.5239,-5.69766,-0.876994,-7.09694,-20.5363,12.5989,-13.1752,17.323,-3.19
-0.499876,18.8941,-12.9296,2.32715,-8.19781,0.845751,3.38162,0.612156,-1.92739,-1.60838,0.671335,-1.51114,-3.55698,0.360072,-0.518457,-10.0888,-6.37789,-10.0987,16.429,-8.53116,8.28507,7.49854,-4.03543,3.5236,-6.45429e-15,-2.78299e-15,-37.8047,0.27699,-81.7571,35.4407,13.5399,-19.0647,2.59945,7.12502,7.24268,-27.2566,-6.45429e-15,-2.78299e-15,-38.6876,14.516,72.6958,30.2174,-0.455396,-13.8871,25.0875,7.12502,12.2379,54.7094,-3.20788,22.0954,17.5775,15.7491,-12.9969,-18.4701,-5.36567,-0.833234,-7.09783,-20.6331,12.5914,-13.1601,17.3422,-3.48153
-0.49753,18.8947,-12.9289,2.32088,-8.20357,0.873736,3.37942,0.610056,-1.9345,-1.60744,0.667766,-1.52589,-3.55468,0.358259,-0.5294,-10.0398,-6.40133,-10.0791,16.3965,-8.56431,8.25773,7.48044,-4.05372,3.50875,-1.63438e-14,7.95139e-15,-37.8676,0.307383,-81.7982,35.415,13.5368,-19.1831,2.63215,7.12502,7.12845,-27.2278,-1.63438e-14,7.95139e-15,-38.7883,14.5079,72.6777,30.1799,-0.407742,-13.6929,25.0696,7.12502,12.4252,54.6803,-3.22751,22.0542,17.5328,15.7673,-12.9842,-18.4465,-5.41215,-0.795146,-7.1753,-20.6789,12.5514,-13.2064,17.3964,-3.14206
-0.494838,18.8951,-12.9274,2.34847,-8.18582,0.935362,3.31185,0.584439,-1.97537,-1.60141,0.633402,-1.53941,-3.51042,0.341691,-0.517329,-10.0436,-6.39019,-10.1216,16.4129,-8.54876,8.29169,7.48834,-4.04596,3.52863,4.00675e-15,-3.97569e-15,-37.8616,0.319842,-81.8142,35.3329,13.6125,-19.2332,2.56238,7.12502,7.08007,-27.2992,4.00675e-15,-3.97569e-15,-38.8935,14.5991,72.6176,30.1108,-0.523892,-13.6061,24.4583,7.12502,12.5089,54.0639,-3.2863,22.006,17.4401,15.7925,-12.974,-18.4434,-5.62199,-0.80121,-7.18429,-20.7543,12.5043,-13.1288,17.4179,-3.34244
-0.492306,18.8953,-12.9263,2.35568,-8.20275,0.967121,3.29159,0.574453,-2.00188,-1.5977,0.619493,-1.54062,-3.49537,0.335269,-0.502568,-10.0575,-6.39102,-10.1485,16.4764,-8.55066,8.30399,7.51351,-4.04701,3.53665,-1.72073e-15,3.45885e-14,-37.8577,0.295592,-81.8032,35.2435,13.7241,-19.0812,2.48196,7.12502,7.22673,-27.3746,-1.72073e-15,3.45885e-14,-38.9948,14.7341,72.5404,30.0048,-0.694856,-13.6584,23.9341,7.12502,12.4585,53.5427,-3.30262,21.9835,17.3843,15.79,-12.9768,-18.3867,-5.61843,-0.822841,-7.22532,-20.8042,12.5259,-13.1526,17.4927,-3.74144
-0.491863,18.8952,-12.9268,2.40142,-8.232,0.895615,3.32454,0.591155,-1.94097,-1.65629,0.642709,-1.52701,-3.57413,0.346193,-0.525147,-9.94254,-6.40026,-10.1319,16.4567,-8.57681,8.30711,7.48856,-4.06144,3.53502,2.77056e-14,5.96354e-15,-37.99,0.265552,-81.7991,35.1917,13.7232,-19.0321,2.52195,7.12502,7.27418,-27.333,2.77056e-14,5.96354e-15,-39.1197,14.6558,72.5265,29.9293,-0.733324,-13.6971,24.2043,7.12502,12.4212,53.8152,-3.34371,22.0371,17.4485,15.7635,-12.9222,-18.4258,-5.71896,-0.910162,-7.20587,-20.7199,12.6011,-13.2202,17.4961,-3.74166
-0.490665,18.8945,-12.9281,2.45374,-8.24535,0.825203,3.35791,0.60068,-1.85892,-1.72881,0.657151,-1.51372,-3.66722,0.352277,-0.559523,-9.76966,-6.41559,-10.1588,16.4449,-8.61152,8.31823,7.45914,-4.08351,3.54372,-2.08103e-14,-1.19271e-14,-38.1163,0.1171,-81.7319,35.0657,13.8742,-19.0297,2.72911,7.12502,7.27646,-27.1258,-2.08103e-14,-1.19271e-14,-39.2405,14.6531,72.4788,29.7998,-0.835605,-13.6655,24.3683,7.12502,12.4516,53.9773,-3.37854,22.0968,17.5055,15.7174,-12.8872,-18.4707,-5.70077,-1.0126,-7.22991,-20.6412,12.7015,-13.2945,17.4849,-3.71025
-0.490133,18.8956,-12.9293,2.48292,-8.25238,0.72007,3.35925,0.598424,-1.75627,-1.72684,0.660381,-1.48102,-3.66499,0.351822,-0.583512,-9.83494,-6.42043,-10.141,16.5409,-8.61232,8.26971,7.4992,-4.08484,3.5231,1.02498e-14,-7.95139e-16,-38.0835,-0.0163311,-81.6755,34.8917,14.0947,-19.0543,3.06606,7.12502,7.25278,-26.7896,1.02498e-14,-7.95139e-16,-39.229,14.758,72.4326,29.6144,-0.936452,-13.7193,24.225,7.12502,12.3997,53.8372,-3.38572,22.154,17.6155,15.6764,-12.8453,-18.5365,-5.63198,-1.08646,-7.17849,-20.5148,12.808,-13.2978,17.4174,-3.60909
-0.48965,18.8967,-12.9298,2.5003,-8.26508,0.687768,3.3842,0.588503,-1.74164,-1.72266,0.647652,-1.46936,-3.67468,0.345313,-0.579129,-9.99337,-6.4159,-10.0905,16.6582,-8.59695,8.2139,7.55939,-4.07453,3.49415,2.17421e-15,1.86858e-14,-38.0926,0.0174435,-81.7033,34.8624,14.1497,-18.9928,3.06393,7.12502,7.31206,-26.7897,2.17421e-15,1.86858e-14,-39.2465,14.836,72.3886,29.5154,-0.873646,-13.7383,24.0802,7.12502,12.3815,53.6936,-3.39399,22.1932,17.6442,15.6499,-12.8593,-18.5637,-5.6799,-1.14424,-7.08282,-20.4661,12.8848,-13.3525,17.3295,-3.43857
-0.488001,18.8962,-12.9309,2.48393,-8.25521,0.722957,3.45199,0.572741,-1.79209,-1.73058,0.622013,-1.4673,-3.72176,0.334025,-0.547986,-10.0106,-6.4,-10.0909,16.6668,-8.57713,8.23081,7.56403,-4.06324,3.5017,3.16937e-14,0,-38.1024,-0.00904892,-81.6902,34.7761,14.2661,-18.9468,3.08259,7.12502,7.35647,-26.7695,3.16937e-14,0,-39.3192,14.9714,72.3296,29.4157,-0.993144,-13.6569,24.1729,7.12502,12.4599,53.7815,-3.37251,22.2202,17.6081,15.6355,-12.8501,-18.5792,-5.58961,-1.15597,-7.03042,-20.5055,12.9239,-13.3658,17.2651,-3.12335
-0.484792,18.8957,-12.9306,2.46495,-8.27049,0.754277,3.45132,0.573481,-1.79945,-1.6998,0.623031,-1.47637,-3.68951,0.334356,-0.552951,-10.0633,-6.39833,-10.1208,16.6905,-8.58069,8.30587,7.58616,-4.05905,3.52977,-1.64619e-15,2.06736e-14,-38.0266,-0.136834,-81.6441,34.6143,14.3996,-19.0194,3.10528,7.12502,7.28638,-26.7493,-1.64619e-15,2.06736e-14,-39.3321,15.1285,72.2688,29.2653,-1.12261,-13.6852,24.1799,7.12502,12.4327,53.7901,-3.359,22.1908,17.5631,15.6462,-12.8679,-18.5318,-5.50197,-1.14078,-7.02479,-20.5562,12.926,-13.3561,17.2389,-2.85678
-0.482078,18.8959,-12.9301,2.47474,-8.29841,0.782452,3.40093,0.577163,-1.83663,-1.65415,0.629033,-1.46483,-3.61438,0.337908,-0.519544,-10.1815,-6.39834,-10.1691,16.751,-8.57436,8.35468,7.63083,-4.05153,3.55164,-5.66536e-15,7.55382e-15,-37.9422,-0.205932,-81.6078,34.4846,14.5426,-19.0522,3.19321,7.12502,7.2548,-26.6624,-5.66536e-15,7.55382e-15,-39.2948,15.2708,72.2539,29.0902,-1.24879,-13.7686,24.3062,7.12502,12.3522,53.9213,-3.40098,22.1414,17.5031,15.6738,-12.8534,-18.4954,-5.71412,-1.14865,-7.00151,-20.5995,12.9148,-13.3487,17.2489,-3.01051
-0.480391,18.8944,-12.9317,2.45078,-8.32784,0.7476,3.43286,0.578076,-1.83033,-1.62528,0.631436,-1.43172,-3.60283,0.339231,-0.489218,-10.2549,-6.40452,-10.1709,16.8023,-8.57107,8.31398,7.65877,-4.05135,3.53693,1.62444e-14,3.18055e-15,-37.957,-0.157149,-81.615,34.4498,14.512,-19.0476,3.39366,7.12502,7.2592,-26.4618,1.62444e-14,3.18055e-15,-39.2811,15.4282,72.214,28.9043,-1.27953,-13.8326,24.3949,7.12502,12.2905,54.0137,-3.39225,22.1536,17.5423,15.6981,-12.862,-18.5114,-5.80705,-1.11639,-6.98096,-20.5747,12.8998,-13.242,17.31,-3.34748
-0.47831,18.8955,-12.9336,2.44982,-8.33509,0.746704,3.45842,0.584225,-1.82622,-1.60911,0.639495,-1.43083,-3.60054,0.343091,-0.491273,-10.3361,-6.42911,-10.1604,16.8608,-8.59857,8.29035,7.69372,-4.06344,3.52212,2.70285e-14,-7.95139e-15,-38.0098,-0.13854,-81.6216,34.4889,14.4753,-19.0167,3.53765,7.12502,7.28907,-26.3168,2.70285e-14,-7.95139e-15,-39.2826,15.646,72.0957,28.7073,-1.44145,-13.6292,24.089,7.12502,12.4867,53.6959,-3.42464,22.1624,17.5348,15.7451,-12.8771,-18.4729,-5.70901,-1.10301,-6.94201,-20.5723,12.8674,-13.1994,17.2687,-3.21832
-0.474913,18.8964,-12.934,2.49416,-8.33688,0.804352,3.45113,0.569924,-1.85978,-1.63384,0.617336,-1.4606,-3.62199,0.332651,-0.50186,-10.2747,-6.42587,-10.135,16.8273,-8.59725,8.26467,7.6693,-4.06516,3.51112,-3.34828e-15,-1.35174e-14,-38.098,-0.104129,-81.6591,34.5221,14.4367,-18.9884,3.78479,7.12502,7.31632,-26.0687,-3.34828e-15,-1.35174e-14,-39.3379,15.8992,71.914,28.5468,-1.6724,-13.5127,24.0334,7.12502,12.5989,53.6335,-3.52303,22.0269,17.4229,15.8034,-12.8986,-18.3272,-5.65548,-1.13716,-6.94014,-20.643,12.8273,-13.1835,17.2771,-3.30803
-0.472134,18.8953,-12.9354,2.52433,-8.32876,0.902585,3.3798,0.552028,-1.93128,-1.61011,0.59095,-1.50941,-3.55734,0.32018,-0.509299,-10.1736,-6.40685,-10.1794,16.7367,-8.58801,8.37557,7.62752,-4.05715,3.55884,-9.23728e-15,5.96354e-15,-38.143,-0.0445197,-81.7099,34.5649,14.4474,-18.8611,4.23073,7.12502,7.43923,-25.6185,-9.23728e-15,5.96354e-15,-39.3217,15.9923,71.8297,28.4167,-1.74531,-13.5391,24.1076,7.12502,12.5735,53.7092,-3.60579,21.9574,17.2784,15.8518,-12.9294,-18.2875,-5.66953,-1.1774,-6.92091,-20.7565,12.7966,-13.106,17.2771,-3.40284
-0.470581,18.8942,-12.9336,2.51727,-8.34789,0.933459,3.3352,0.547737,-1.95962,-1.56463,0.586079,-1.51696,-3.48533,0.317788,-0.499927,-10.2476,-6.40107,-10.188,16.7959,-8.58278,8.41314,7.66164,-4.04987,3.57162,-8.36759e-15,-5.96354e-15,-38.1876,-0.0642577,-81.697,34.6242,14.6419,-18.7525,4.25242,7.12502,7.54405,-25.593,-8.36759e-15,-5.96354e-15,-39.2972,16.1157,71.7943,28.2723,-1.83896,-13.6362,24.1201,7.12502,12.4799,53.7275,-3.62333,22.0044,17.239,15.8923,-12.972,-18.329,-5.59845,-1.1547,-6.97306,-20.8072,12.7783,-13.1413,17.3248,-3.40209
-0.468808,18.8936,-12.9319,2.49322,-8.38916,0.897406,3.41826,0.541576,-1.92474,-1.5743,0.576791,-1.51485,-3.54182,0.312705,-0.517745,-10.2925,-6.37574,-10.2002,16.8872,-8.56267,8.4889,7.70134,-4.03332,3.60045,-4.08254e-14,3.97569e-16,-38.3,0.026235,-81.7633,34.6832,14.6364,-18.621,4.00879,7.12502,7.67099,-25.8321,-4.08254e-14,3.97569e-16,-39.3718,16.2473,71.6784,28.117,-1.88333,-13.6592,24.0114,7.12502,12.4577,53.6201,-3.61286,22.0597,17.2866,15.9294,-12.9411,-18.3476,-5.87669,-1.10821,-6.93617,-20.782,12.7677,-13.1217,17.319,-3.50526
-0.467336,18.8928,-12.9323,2.46448,-8.4071,0.827438,3.49054,0.545107,-1.8598,-1.52786,0.583921,-1.50596,-3.534,0.314679,-0.545794,-10.3875,-6.39339,-10.1449,16.8963,-8.58189,8.45528,7.71925,-4.03916,3.57549,3.31846e-14,1.03368e-14,-38.2493,0.0544226,-81.8157,34.6686,14.6034,-18.6312,3.72833,7.12502,7.66108,-26.1129,3.31846e-14,1.03368e-14,-39.3564,16.3877,71.6027,28.0045,-1.98283,-13.7083,24.1554,7.12502,12.4103,53.767,-3.56746,22.1044,17.3772,15.9334,-12.9808,-18.3719,-5.97227,-1.08066,-6.9621,-20.7189,12.7958,-13.1795,17.3536,-3.44044
-0.465905,18.8922,-12.9324,2.41651,-8.44085,0.868385,3.51888,0.556871,-1.9003,-1.47322,0.597477,-1.52215,-3.49388,0.321766,-0.540468,-10.4512,-6.40201,-10.0787,16.8989,-8.58582,8.38478,7.72572,-4.04104,3.53904,-2.35063e-14,1.03368e-14,-38.1722,0.119211,-81.8814,34.6612,14.5699,-18.7302,3.15195,7.12502,7.56562,-26.6927,-2.35063e-14,1.03368e-14,-39.3635,16.4286,71.5843,27.959,-2.01813,-13.5963,24.4642,7.12502,12.5184,54.0693,-3.51194,22.1294,17.3385,15.9249,-12.9912,-18.3353,-5.81297,-1.04662,-6.99673,-20.7812,12.8498,-13.2623,17.3857,-3.179
-0.466488,18.8935,-12.9338,2.42994,-8.4243,0.910164,3.4994,0.556177,-1.98147,-1.46425,0.593537,-1.51637,-3.47458,0.321561,-0.488485,-10.3797,-6.38867,-10.1001,16.8886,-8.57117,8.39374,7.70947,-4.0366,3.5491,-1.16289e-14,2.10712e-14,-38.1541,0.14558,-81.8864,34.6648,14.5859,-18.6637,2.71171,7.12502,7.62972,-27.1307,-1.16289e-14,2.10712e-14,-39.4524,16.4767,71.5718,27.9793,-2.04446,-13.3814,24.8509,7.12502,12.7256,54.4431,-3.54233,22.1096,17.2889,15.9151,-12.9006,-18.317,-5.88262,-1.11687,-6.99853,-20.8145,12.938,-13.3459,17.3617,-3.30339
-0.465909,18.8931,-12.9361,2.44751,-8.39795,0.876365,3.4951,0.547312,-1.97123,-1.43208,0.58348,-1.50613,-3.4388,0.316149,-0.482657,-10.3986,-6.37646,-10.104,16.9036,-8.56072,8.43486,7.71866,-4.02779,3.56428,1.97915e-14,1.07344e-14,-38.191,0.215074,-81.9429,34.7837,14.5495,-18.7034,2.40615,7.12502,7.5914,-27.4376,1.97915e-14,1.07344e-14,-39.3939,16.515,71.5661,27.8179,-2.11053,-13.5797,24.7918,7.12502,12.5343,54.3958,-3.57335,22.0736,17.3166,15.9197,-12.9204,-18.3088,-5.78116,-1.18997,-6.99954,-20.7691,13.0157,-13.375,17.3167,-3.49513
-0.466515,18.8908,-12.9416,2.45046,-8.40196,0.773398,3.60352,0.552676,-1.90484,-1.41667,0.591408,-1.49248,-3.48352,0.318958,-0.507391,-10.4948,-6.38811,-9.99772,16.9423,-8.57814,8.37612,7.74279,-4.03163,3.52294,-1.63376e-14,-8.34896e-15,-38.2877,0.226015,-82.0125,34.9551,14.5742,-18.9309,2.27255,7.12502,7.37184,-27.579,-1.63376e-14,-8.34896e-15,-39.3374,16.5367,71.5185,27.6408,-2.24459,-13.825,24.3671,7.12502,12.2978,53.9855,-3.59159,22.0738,17.4289,15.9311,-12.9243,-18.307,-5.80925,-1.24121,-6.92832,-20.6434,13.0836,-13.3572,17.2548,-3.60579
-0.466125,18.8899,-12.9455,2.4415,-8.391,0.775524,3.71381,0.560256,-1.91012,-1.45544,0.596449,-1.50662,-3.58587,0.322037,-0.521019,-10.3568,-6.39465,-9.9719,16.8582,-8.59217,8.34174,7.68916,-4.04364,3.50898,-1.85739e-14,-3.57812e-15,-38.4312,0.25083,-82.0518,35.1015,14.5537,-18.9348,2.25727,7.12502,7.36808,-27.5944,-1.85739e-14,-3.57812e-15,-39.4624,16.5111,71.4659,27.589,-2.30288,-13.877,24.0593,7.12502,12.2477,53.6806,-3.62556,22.0805,17.4237,15.9542,-12.8963,-18.3294,-5.84817,-1.28267,-6.93599,-20.6414,13.1415,-13.3522,17.2487,-3.62717
-0.463137,18.8893,-12.9457,2.43861,-8.37754,0.845117,3.72035,0.552476,-1.95236,-1.44981,0.583096,-1.52669,-3.58396,0.316076,-0.51716,-10.3652,-6.35921,-9.97652,16.8697,-8.54752,8.36927,7.69138,-4.02006,3.52401,-1.48095e-14,1.47101e-14,-38.4323,0.267208,-82.0609,35.0865,14.5626,-18.9354,2.86721,7.12502,7.36749,-26.9845,-1.48095e-14,1.47101e-14,-39.6168,16.4955,71.4662,27.7036,-2.29261,-13.8512,24.0526,7.12502,12.2726,53.6725,-3.66878,22.0377,17.3254,15.9831,-12.8852,-18.3204,-5.90831,-1.31593,-6.98898,-20.7328,13.1965,-13.3308,17.3067,-3.4873
-0.462091,18.8891,-12.9477,2.44911,-8.37944,0.846202,3.7712,0.550159,-1.95671,-1.44205,0.578449,-1.52429,-3.60471,0.313965,-0.512446,-10.5363,-6.30201,-10.0087,17.0072,-8.4718,8.4502,7.76448,-3.97406,3.56133,-1.26601e-14,-6.36111e-15,-38.4603,0.36395,-82.117,35.158,14.4327,-18.9244,3.63174,7.12502,7.37814,-26.2196,-1.26601e-14,-6.36111e-15,-39.7007,16.3538,71.5347,27.811,-2.20439,-13.677,24.261,7.12502,12.4406,53.8708,-3.72662,22.0267,17.3076,16.0483,-12.9306,-18.2873,-5.86416,-1.33606,-6.99765,-20.7389,13.1955,-13.3068,17.3365,-3.37021
-0.460108,18.8889,-12.9503,2.43796,-8.37113,0.84494,3.85474,0.552267,-1.94197,-1.41928,0.57964,-1.53359,-3.6281,0.314135,-0.531112,-10.6468,-6.27352,-9.97263,17.0701,-8.4302,8.43752,7.79857,-3.94981,3.55361,6.59717e-15,-6.75868e-15,-38.5196,0.506885,-82.2161,35.365,14.2837,-19.5009,4.53016,7.12502,6.82161,-25.3399,6.59717e-15,-6.75868e-15,-39.7038,16.2915,71.5758,27.8558,-2.2423,-13.6794,24.675,7.12502,12.4382,54.2849,-3.76886,21.9929,17.3049,16.1172,-12.9221,-18.2815,-5.85119,-1.34789,-6.9972,-20.7357,13.2061,-13.3186,17.309,-3.24564
-0.458448,18.8892,-12.9541,2.48151,-8.36981,0.878771,3.86511,0.545792,-1.98751,-1.41217,0.567995,-1.54514,-3.62693,0.309205,-0.516748,-10.6481,-6.23833,-9.97329,17.0661,-8.38641,8.4665,7.7943,-3.92648,3.56862,-2.59538e-14,-9.93923e-15,-38.578,0.650434,-82.3133,35.6239,14.2715,-20.0402,4.8674,7.12502,6.30104,-25.0189,-2.59538e-14,-9.93923e-15,-39.6804,16.2471,71.606,27.8447,-2.1825,-13.6665,24.7989,7.12502,12.4507,54.4081,-3.88306,21.9689,17.2322,16.1732,-12.8844,-18.2621,-5.88241,-1.46325,-7.00731,-20.7619,13.2797,-13.3408,17.3148,-3.36032
-0.456958,18.8879,-12.9578,2.46394,-8.38852,0.917852,3.90876,0.543458,-2.03648,-1.36256,0.561467,-1.56202,-3.60061,0.306528,-0.506275,-10.7006,-6.19609,-9.91542,17.0664,-8.33095,8.45461,7.79503,-3.89596,3.5605,9.75287e-15,1.23246e-14,-38.5521,0.795328,-82.4227,35.8511,14.2096,-19.4801,3.90202,7.12502,6.8417,-25.9674,9.75287e-15,1.23246e-14,-39.5942,16.1678,71.6575,27.7974,-2.02855,-13.6787,24.6202,7.12502,12.4389,54.23,-3.92237,22.037,17.1787,16.2373,-12.9616,-18.2753,-5.93103,-1.49577,-6.97495,-20.8054,13.3681,-13.443,17.2696,-3.30405
-0.456315,18.8865,-12.9632,2.46332,-8.41762,0.928559,3.98695,0.545508,-2.08748,-1.35089,0.55938,-1.55549,-3.63332,0.306845,-0.471613,-10.6557,-6.1258,-9.95583,16.9908,-8.24393,8.55234,7.75928,-3.85016,3.61094,-1.48095e-14,-7.15625e-15,-38.5922,0.950997,-82.517,36.1098,14.116,-18.8298,3.1105,7.12502,7.46939,-26.7376,-1.48095e-14,-7.15625e-15,-39.6434,16.1664,71.6606,27.8456,-2.04096,-13.5058,24.7298,7.12502,12.6056,54.3295,-3.98897,22.1676,17.1544,16.3038,-13.0206,-18.319,-5.81412,-1.56091,-6.90916,-20.812,13.4676,-13.4469,17.2117,-3.16375
-0.456184,18.8856,-12.9689,2.46842,-8.41338,0.970128,4.08843,0.523972,-2.18485,-1.35787,0.522262,-1.53876,-3.69876,0.291217,-0.398369,-10.6827,-6.04517,-9.99716,16.9798,-8.13301,8.61335,7.75357,-3.79404,3.65056,-3.41413e-14,-1.35174e-14,-38.6207,1.16554,-82.6021,36.3302,14.0247,-18.6314,2.98741,7.12502,7.66097,-26.8538,-3.41413e-14,-1.35174e-14,-39.7357,16.1936,71.6688,27.9226,-2.02129,-13.3823,24.7189,7.12502,12.7247,54.3112,-4.05188,22.2643,17.0957,16.3473,-13.0722,-18.3773,-5.6461,-1.6747,-6.90413,-20.8438,13.619,-13.4985,17.1677,-2.83249
-0.456042,18.8844,-12.972,2.49964,-8.42201,0.973637,4.15236,0.520627,-2.24919,-1.35982,0.513021,-1.50863,-3.73774,0.288734,-0.331305,-10.787,-5.98509,-9.9768,17.0118,-8.03875,8.57868,7.77086,-3.74785,3.64444,4.4975e-15,1.90833e-14,-38.6427,1.31084,-82.6376,36.5143,14.0362,-18.5403,3.041,7.12502,7.74885,-26.797,4.4975e-15,1.90833e-14,-39.7575,16.2056,71.7058,27.954,-2.03742,-13.4415,24.4081,7.12502,12.6676,54.004,-4.12336,22.2501,17.0661,16.3719,-13.0345,-18.3378,-5.69582,-1.84202,-6.83929,-20.8347,13.8151,-13.475,17.1499,-3.33713
-0.454236,18.8837,-12.9789,2.55299,-8.41321,0.908375,4.2759,0.513766,-2.23646,-1.3839,0.501367,-1.46394,-3.83262,0.283942,-0.29301,-10.9281,-5.92098,-9.91261,17.0722,-7.9408,8.51936,7.80086,-3.69823,3.62266,-1.74682e-14,-1.59028e-15,-38.7152,1.44012,-82.6817,36.778,14.0994,-18.5297,3.21036,7.12502,7.75909,-26.6273,-1.74682e-14,-1.59028e-15,-39.7629,16.0792,71.8051,28.0049,-1.97187,-13.6687,24.5276,7.12502,12.4486,54.1368,-4.22751,22.2671,17.1025,16.4011,-13.0138,-18.3427,-5.68602,-2.02703,-6.7339,-20.7397,13.9886,-13.4839,17.037,-3.85849
-0.449387,18.8847,-12.9874,2.61483,-8.37944,0.866048,4.33796,0.510497,-2.17549,-1.37524,0.499166,-1.45112,-3.85818,0.281687,-0.314328,-10.9701,-5.87237,-9.7917,17.0351,-7.86852,8.41528,7.77951,-3.66399,3.5753,-2.06612e-14,3.97569e-15,-38.6839,1.57648,-82.7458,37.015,14.1169,-19.3774,3.92286,7.12502,6.94084,-25.9433,-2.06612e-14,3.97569e-15,-39.7485,15.8659,71.9517,28.1575,-1.79402,-13.7082,24.709,7.12502,12.4104,54.3206,-4.34636,22.2602,17.1027,16.4303,-12.9613,-18.3831,-5.83721,-2.23522,-6.53022,-20.6726,14.1676,-13.3974,16.8233,-4.13027
-0.443732,18.8856,-12.9913,2.64095,-8.36545,0.894361,4.32899,0.514891,-2.15102,-1.32873,0.507071,-1.47375,-3.80456,0.284205,-0.351453,-10.9013,-5.79192,-9.74104,16.9478,-7.7693,8.43067,7.727,-3.61418,3.58492,-3.8763e-15,-5.56597e-15,-38.5936,1.66001,-82.8042,37.1725,14.0658,-20.5898,5.20676,7.12502,5.77042,-24.6947,-3.8763e-15,-5.56597e-15,-39.6994,15.7349,72.0511,28.3112,-1.67397,-13.6896,24.5956,7.12502,12.4284,54.2061,-4.4272,22.1871,17.0308,16.4616,-12.9194,-18.3481,-5.97852,-2.39636,-6.42688,-20.7055,14.3683,-13.4208,16.711,-4.06262
-0.44079,18.8853,-12.9946,2.67309,-8.35537,0.891756,4.307,0.531072,-2.12429,-1.25339,0.531859,-1.49972,-3.71384,0.294712,-0.394131,-11.0316,-5.72647,-9.70402,17.0028,-7.68425,8.46806,7.7598,-3.56437,3.59882,-8.92046e-15,9.14409e-15,-38.5054,1.62605,-82.8625,37.3873,14.0543,-20.3678,4.94744,7.12502,5.98474,-24.948,-8.92046e-15,9.14409e-15,-39.5166,15.7175,72.0914,28.3516,-1.70887,-13.5806,24.3426,7.12502,12.5334,53.9467,-4.50617,22.1402,17.0027,16.5227,-12.9349,-18.3134,-6.12953,-2.52983,-6.38119,-20.6992,14.5383,-13.5335,16.6376,-4.06211
-0.438568,18.8853,-13.0003,2.75148,-8.30624,0.852371,4.30168,0.532405,-2.05057,-1.19075,0.538149,-1.54007,-3.6449,0.295052,-0.476842,-11.3439,-5.65078,-9.48538,17.1637,-7.59126,8.4056,7.848,-3.50272,3.54718,6.48535e-15,1.98785e-15,-38.4181,1.58574,-82.9877,37.6297,14.0354,-19.9681,4.31107,7.12502,6.37062,-25.5731,6.48535e-15,1.98785e-15,-39.2305,15.564,72.1698,28.3388,-1.60952,-13.6641,24.2394,7.12502,12.453,53.8484,-4.62522,22.1202,17.009,16.5753,-12.9383,-18.3189,-6.17669,-2.72388,-6.35374,-20.6418,14.7144,-13.6113,16.565,-4.17014
-0.434405,18.8845,-13.004,2.82016,-8.25908,0.913155,4.29417,0.519546,-2.06803,-1.18154,0.518919,-1.58327,-3.63081,0.285248,-0.509999,-11.3524,-5.53472,-9.41116,17.0867,-7.44962,8.463,7.80933,-3.42555,3.57033,2.48481e-14,1.82882e-14,-38.4373,1.6819,-83.127,37.9204,13.9303,-20.2482,4.30547,7.12502,6.10021,-25.5867,2.48481e-14,1.82882e-14,-39.096,15.4288,72.2266,28.3572,-1.60663,-13.7813,24.0449,7.12502,12.34,53.6607,-4.77244,22.0319,16.8915,16.6554,-12.9306,-18.318,-6.3014,-2.92195,-6.25015,-20.6979,14.8867,-13.658,16.4467,-4.05242
-0.430692,18.8836,-13.0078,2.88685,-8.3025,0.832471,4.32569,0.542063,-1.94747,-1.19649,0.554145,-1.59263,-3.66293,0.300208,-0.590306,-11.2755,-5.4333,-9.45477,16.9825,-7.33232,8.62677,7.75753,-3.36061,3.64715,-4.96962e-16,1.59028e-15,-38.4178,1.72426,-83.2425,38.121,13.8053,-19.9156,3.66583,7.12502,6.42133,-26.2168,-4.96962e-16,1.59028e-15,-39.0858,15.2525,72.2663,28.4933,-1.62929,-13.8677,24.1237,7.12502,12.2567,53.7445,-4.92623,22.0608,16.9258,16.7605,-12.9763,-18.2867,-6.15835,-3.08528,-6.06473,-20.6019,15.043,-13.7342,16.338,-3.82879
-0.426618,18.8838,-13.0146,2.93581,-8.3173,0.867387,4.38175,0.545546,-1.95672,-1.18896,0.555964,-1.61135,-3.68674,0.301174,-0.605149,-11.2889,-5.3557,-9.53185,16.9673,-7.23021,8.74243,7.75201,-3.30648,3.7103,9.46712e-15,2.06736e-14,-38.3388,1.77429,-83.3191,38.3451,13.7556,-19.3776,3.27729,7.12502,6.94069,-26.5889,9.46712e-15,2.06736e-14,-39.0306,15.1127,72.3456,28.6309,-1.59938,-13.841,24.4353,7.12502,12.2825,54.0546,-5.10717,22.0047,16.8328,16.9083,-13.009,-18.2327,-6.17463,-3.24277,-5.85752,-20.6264,15.155,-13.6912,16.1809,-4.0867
-0.42112,18.8846,-13.0234,3.00731,-8.23804,0.969381,4.44735,0.520499,-2.04147,-1.21525,0.514264,-1.62525,-3.75158,0.282597,-0.569854,-11.1983,-5.2563,-9.61477,16.9105,-7.09684,8.8272,7.7099,-3.24344,3.76927,2.78299e-14,-8.34896e-15,-38.446,1.96409,-83.3874,38.7647,13.6751,-19.4161,3.27135,7.12502,6.90347,-26.5961,2.78299e-14,-8.34896e-15,-39.0088,14.9141,72.4886,28.8118,-1.32504,-13.7301,24.5063,7.12502,12.3893,54.1192,-5.28695,21.8991,16.6612,17.046,-13.0629,-18.1991,-6.21795,-3.46375,-5.71485,-20.7256,15.2979,-13.5837,16.0032,-4.30779
-0.41623,18.8848,-13.0335,3.09402,-8.20742,1.03674,4.48566,0.545434,-2.0693,-1.22091,0.542879,-1.66747,-3.77918,0.297098,-0.60052,-11.1254,-5.15704,-9.6181,16.7867,-6.97302,8.91507,7.64688,-3.1793,3.81391,-2.01518e-14,-1.35174e-14,-38.5511,2.06915,-83.4688,39.1992,13.4384,-19.4025,2.88435,7.12502,6.91658,-26.9827,-2.01518e-14,-1.35174e-14,-38.888,14.5965,72.6613,28.9824,-1.04849,-13.5796,24.5335,7.12502,12.5345,54.1375,-5.52479,21.8287,16.5193,17.2427,-13.1945,-18.1578,-6.26897,-3.69416,-5.49143,-20.7811,15.4233,-13.4705,15.7801,-4.25325
-0.411557,18.8847,-13.0426,3.16794,-8.24798,1.02612,4.53552,0.591626,-2.05722,-1.17432,0.604113,-1.68448,-3.75911,0.326769,-0.629695,-11.3012,-5.07315,-9.48493,16.7961,-6.85587,8.85998,7.66269,-3.11488,3.78369,-1.93567e-14,-5.56597e-15,-38.4828,2.1614,-83.5531,39.484,13.1652,-19.3728,2.62368,7.12502,6.94526,-27.2424,-1.93567e-14,-5.56597e-15,-38.7111,14.3617,72.831,29.2258,-0.936583,-13.655,24.9048,7.12502,12.4618,54.5133,-5.75328,21.8407,16.465,17.437,-13.2549,-18.1274,-6.35207,-3.91462,-5.18703,-20.7603,15.6153,-13.4909,15.5623,-4.25945
-0.404384,18.8848,-13.0548,3.24059,-8.25851,1.12479,4.6518,0.61608,-2.13512,-1.15331,0.627086,-1.72401,-3.80368,0.339599,-0.62992,-11.4963,-5.0125,-9.32367,16.8283,-6.76618,8.74992,7.68956,-3.06605,3.72714,1.24737e-14,2.38542e-15,-38.3258,2.24002,-83.6282,39.6656,13.0868,-19.4176,2.42336,7.12502,6.90205,-27.4441,1.24737e-14,2.38542e-15,-38.5934,14.2311,72.9601,29.5011,-0.900856,-13.7534,25.117,7.12502,12.3669,54.7312,-6.00762,21.7834,16.2682,17.6312,-13.3041,-18.0387,-6.27317,-4.20016,-4.8981,-20.8662,15.8644,-13.4134,15.3779,-4.65309
-0.398119,18.8846,-13.0731,3.38069,-8.24393,1.09394,4.77328,0.622788,-2.09179,-1.13452,0.634944,-1.72586,-3.85232,0.342657,-0.65812,-11.642,-4.95618,-9.18301,16.7513,-6.68135,8.66861,7.67424,-3.02011,3.68305,-1.73191e-14,1.15295e-14,-38.1775,2.33762,-83.6893,39.9234,13.1615,-19.3993,2.78296,7.12502,6.91974,-27.0839,-1.73191e-14,1.15295e-14,-38.3927,14.0445,73.1263,29.719,-0.620892,-13.7806,25.1392,7.12502,12.3407,54.755,-6.35033,21.8268,16.1969,17.8309,-13.3974,-18.0303,-5.85517,-4.59539,-4.72836,-20.8123,16.1589,-13.3363,15.2464,-4.90188
-0.391935,18.8826,-13.0905,3.48497,-8.24242,1.09234,4.91279,0.654213,-2.0445,-1.10744,0.674577,-1.75755,-3.90229,0.360994,-0.722158,-11.7312,-4.89637,-9.05866,16.6537,-6.60036,8.62876,7.64457,-2.97504,3.656,5.8393e-15,1.23246e-14,-38.0738,2.38637,-83.7364,40.2229,13.1523,-18.9893,2.03033,7.12502,7.31546,-27.8232,5.8393e-15,1.23246e-14,-38.1267,13.7676,73.2843,29.8419,-0.309758,-13.8648,24.5372,7.12502,12.2594,54.1578,-6.67423,21.8469,16.1113,18.0651,-13.4169,-18.0418,-5.75607,-4.95121,-4.63978,-20.7993,16.4629,-13.3776,15.1369,-4.89817
-0.386525,18.8801,-13.1045,3.57419,-8.27518,1.1261,4.99093,0.678187,-2.10234,-1.10746,0.700581,-1.74617,-3.94744,0.375589,-0.681277,-11.6612,-4.77136,-9.06666,16.5432,-6.43103,8.6675,7.58099,-2.89353,3.68977,-3.40419e-15,-1.39149e-14,-37.9964,2.53659,-83.7512,40.4705,13.1189,-18.4948,1.06465,7.12502,7.79279,-28.7717,-3.40419e-15,-1.39149e-14,-38.0279,13.5761,73.4268,30.0285,-0.19387,-13.7477,24.0089,7.12502,12.3723,53.6228,-7.01262,21.8634,15.9956,18.3372,-13.4011,-18.08,-5.89039,-5.27196,-4.53723,-20.829,16.7728,-13.5197,15.0416,-4.63915
-0.379701,18.8774,-13.1178,3.64895,-8.3231,1.12999,5.04177,0.712767,-2.13037,-1.0607,0.745972,-1.70479,-3.92878,0.399011,-0.626817,-11.6058,-4.65005,-9.18797,16.3724,-6.25605,8.79242,7.50633,-2.80863,3.77076,1.56543e-15,2.18663e-14,-37.8551,2.70336,-83.726,40.7394,13.0629,-18.8595,2.00545,7.12502,7.44077,-27.8437,1.56543e-15,2.18663e-14,-37.8561,13.3106,73.6772,30.258,0.0131277,-13.5562,24.0308,7.12502,12.557,53.6335,-7.352,21.9847,15.9095,18.6536,-13.5148,-18.1671,-5.96173,-5.56557,-4.33345,-20.833,17.0675,-13.6233,14.8768,-4.44508
-0.371024,18.8738,-13.1306,3.69759,-8.36594,1.16185,5.1624,0.748404,-2.15094,-1.00075,0.789628,-1.70167,-3.93534,0.420966,-0.616866,-11.6121,-4.56443,-9.1324,16.1373,-6.13018,8.78572,7.4166,-2.74611,3.77094,1.00635e-14,-3.89618e-14,-37.712,2.91135,-83.7691,41.0368,13.0071,-19.473,2.88823,7.12502,6.84859,-26.981,1.00635e-14,-3.89618e-14,-37.6306,13.0386,73.9152,30.4858,0.173955,-13.8833,24.011,7.12502,12.2417,53.6328,-7.63682,22.0117,15.795,18.9948,-13.7109,-18.118,-5.86236,-5.83431,-4.00145,-20.8743,17.3649,-13.6364,14.5977,-4.38764
-0.362577,18.8682,-13.1465,3.74313,-8.41499,1.19186,5.34392,0.774266,-2.18186,-0.958507,0.816855,-1.69894,-3.99471,0.435311,-0.601414,-11.6737,-4.48437,-8.98179,15.9584,-6.00718,8.65847,7.34884,-2.68788,3.7144,-2.9768e-14,9.14409e-15,-37.5914,3.15994,-83.8411,41.3367,13.0293,-19.7995,2.88276,7.12502,6.53333,-26.9965,-2.9768e-14,9.14409e-15,-37.5107,12.8288,74.0816,30.8407,0.25644,-14.0509,23.9825,7.12502,12.08,53.6138,-7.9649,21.9814,15.6821,19.3554,-13.8093,-18.0318,-5.88745,-6.13092,-3.69914,-20.9111,17.6784,-13.6056,14.4005,-4.59799
-0.356552,18.8643,-13.1656,3.78831,-8.51313,1.23778,5.53241,0.817985,-2.23893,-0.932721,0.864159,-1.72253,-4.0753,0.460072,-0.600793,-11.6673,-4.37555,-8.81704,15.8132,-5.85438,8.52512,7.2769,-2.61669,3.65808,3.37934e-15,1.39149e-14,-37.4853,3.4058,-83.9375,41.6359,12.9612,-19.7251,2.73247,7.12502,6.60521,-27.1445,3.37934e-15,1.39149e-14,-37.4529,12.5871,74.2124,31.2986,0.373496,-13.8058,24.3868,7.12502,12.3164,54.004,-8.35455,22.0189,15.5444,19.7497,-13.9083,-17.9485,-5.74626,-6.45485,-3.56769,-20.9625,18.0472,-13.6819,14.3544,-4.56089
-0.348113,18.8588,-13.1853,3.81883,-8.5687,1.30928,5.76254,0.861747,-2.26054,-0.905993,0.910889,-1.77975,-4.17736,0.483397,-0.655779,-11.6459,-4.25167,-8.76086,15.6912,-5.69317,8.55498,7.21755,-2.53447,3.67533,-2.16675e-14,2.06736e-14,-37.3399,3.50557,-84.0081,41.8851,12.9823,-19.7334,2.72556,7.12502,6.59716,-27.1517,-2.16675e-14,2.06736e-14,-37.2639,12.239,74.3503,31.5551,0.507566,-13.6185,24.6183,7.12502,12.4969,54.2247,-8.73594,21.9881,15.3829,20.1886,-14.0498,-17.8614,-5.82264,-6.79871,-3.39561,-21.0502,18.4814,-13.8047,14.2259,-4.65985
-0.343297,18.8531,-13.2204,4.03963,-8.36179,1.32037,5.97455,0.810843,-2.28153,-0.906774,0.833737,-1.7773,-4.29786,0.446253,-0.637849,-11.6929,-4.15586,-8.78624,15.5224,-5.55836,8.64918,7.16199,-2.46275,3.72316,-1.19768e-14,-9.54166e-15,-37.1641,3.69709,-84.043,42.2646,13.0198,-19.9747,3.07576,7.12502,6.36421,-26.8086,-1.19768e-14,-9.54166e-15,-36.879,11.9017,74.5674,31.6491,0.685651,-13.7744,24.8025,7.12502,12.3466,54.418,-9.3486,21.8241,15.2515,20.6755,-14.2141,-17.9013,-5.75273,-7.44513,-3.2107,-20.996,18.9416,-13.7789,13.813,-4.64404
-0.342111,18.8472,-13.2629,4.33902,-7.97578,1.35441,6.20657,0.716961,-2.37797,-0.966416,0.691385,-1.76488,-4.4916,0.379583,-0.56139,-11.6139,-4.08477,-8.74883,15.2423,-5.46456,8.70063,7.04926,-2.41413,3.74226,6.01324e-15,9.54166e-15,-37.1182,3.85668,-84.0734,42.7441,13.0129,-20.0573,3.07695,7.12502,6.2845,-26.8098,6.01324e-15,9.54166e-15,-36.6013,11.6265,74.7535,31.8489,0.830371,-13.8383,24.6023,7.12502,12.285,54.2215,-10.0581,21.5868,15.0939,21.2101,-14.442,-17.9937,-5.34548,-8.22555,-3.04819,-20.9365,19.3873,-13.6137,13.3025,-5.02604
-0.338221,18.8393,-13.2926,4.4401,-7.86276,1.48715,6.46912,0.703934,-2.55288,-0.941253,0.648609,-1.8055,-4.61538,0.362915,-0.504611,-11.671,-4.01838,-8.59249,15.0537,-5.37425,8.63602,6.98408,-2.3663,3.70189,1.04859e-14,3.18055e-15,-36.9407,4.0195,-84.1268,43.0616,12.9691,-20.0914,3.19601,7.12502,6.25154,-26.6917,1.04859e-14,3.18055e-15,-36.3892,11.2216,74.9574,32.1798,1.12236,-14.091,24.5676,7.12502,12.0413,54.2012,-10.6,21.4676,14.862,21.7887,-14.6182,-17.924,-5.15534,-8.70594,-2.90426,-21.0498,19.8007,-13.6085,13.0831,-5.33032
-0.329147,18.8318,-13.3108,4.45318,-7.96783,1.61972,6.6567,0.74702,-2.69013,-0.849872,0.688153,-1.83885,-4.62814,0.385081,-0.46803,-11.882,-3.94168,-8.46331,14.9991,-5.25545,8.53556,6.98643,-2.30509,3.65669,-2.9122e-14,7.15625e-15,-36.6776,4.19486,-84.1387,43.3157,13.0531,-20.3482,3.21141,7.12502,6.00367,-26.6835,-2.9122e-14,7.15625e-15,-36.2613,10.946,75.141,32.6174,1.25379,-14.5487,24.6301,7.12502,11.6,54.2891,-11.0704,21.4306,14.6242,22.4035,-14.8803,-17.7641,-5.11473,-8.97931,-2.84779,-21.2156,20.1374,-13.7463,13.0892,-5.1655
-0.318231,18.8224,-13.3265,4.46608,-8.10344,1.84589,6.77639,0.804494,-2.84468,-0.783483,0.744148,-1.93539,-4.62838,0.414965,-0.488548,-11.681,-3.85831,-8.3684,14.6485,-5.14302,8.48652,6.82463,-2.25587,3.63548,2.28602e-14,-4.37326e-14,-36.6423,4.36356,-84.1669,43.7929,13.1734,-19.9615,1.96872,7.12502,6.37701,-27.9153,2.28602e-14,-4.37326e-14,-36.1653,10.5882,75.2877,33.073,1.41104,-14.6729,24.868,7.12502,11.4803,54.5336,-11.5362,21.3778,14.2674,23.0108,-15.1494,-17.5584,-5.0915,-9.22704,-2.81535,-21.4987,20.4149,-13.8408,13.1325,-5.02598
-0.308723,18.8112,-13.3451,4.44922,-8.24718,2.04665,6.96072,0.893689,-2.9999,-0.696783,0.839194,-2.04069,-4.64448,0.463978,-0.523093,-11.2855,-3.77974,-8.25811,14.0436,-5.05198,8.51729,6.55236,-2.2155,3.6357,-3.06128e-14,1.43125e-14,-36.5686,4.38947,-84.1879,44.2787,13.3504,-19.4116,0.716232,7.12502,6.90785,-29.1511,-3.06128e-14,1.43125e-14,-35.9032,10.0909,75.4509,33.3582,1.7316,-14.4031,24.9588,7.12502,11.7404,54.6098,-11.9914,21.295,13.9542,23.6051,-15.3553,-17.315,-5.04276,-9.45291,-2.77356,-21.7467,20.6838,-13.921,13.1725,-4.95644
-0.301207,18.8003,-13.3622,4.40492,-8.43161,2.20373,7.1701,1.0043,-3.15323,-0.594544,0.962519,-2.1263,-4.65927,0.526982,-0.542132,-11.1018,-3.67502,-8.12939,13.6484,-4.92466,8.54653,6.38114,-2.15115,3.63519,8.74653e-15,-1.63003e-14,-36.5004,4.40945,-84.1943,44.8046,13.4317,-19.7831,1.25436,7.12502,6.54925,-28.6244,8.74653e-15,-1.63003e-14,-35.601,9.57227,75.622,33.5932,2.00676,-14.1656,24.8022,7.12502,11.9694,54.44,-12.417,21.221,13.7076,24.1809,-15.4665,-17.0692,-5.08298,-9.65306,-2.6513,-21.9435,20.9781,-13.9735,13.2035,-5.08624
-0.291916,18.7895,-13.3758,4.33718,-8.67829,2.3118,7.33916,1.11127,-3.22163,-0.491673,1.09109,-2.18761,-4.64955,0.590533,-0.583796,-10.9498,-3.54566,-8.11636,13.3816,-4.75417,8.61095,6.25647,-2.06802,3.66981,3.47873e-16,2.90226e-14,-36.4733,4.52122,-84.1833,45.3057,13.4785,-20.2618,2.26716,7.12502,6.08704,-27.6254,3.47873e-16,2.90226e-14,-35.4062,9.07457,75.7865,33.8439,2.231,-14.1272,24.669,7.12502,12.0064,54.3047,-12.7716,21.1791,13.5101,24.7116,-15.6437,-16.7417,-4.7904,-9.79312,-2.35167,-22.0994,21.2926,-14.1603,13.0961,-4.86893
-0.281332,18.7778,-13.3896,4.22403,-8.91802,2.44656,7.49591,1.20445,-3.29219,-0.322126,1.20369,-2.25244,-4.56294,0.64503,-0.624941,-10.9369,-3.46596,-8.176,13.179,-4.63877,8.71179,6.18385,-2.00885,3.72188,-1.93318e-14,2.46493e-14,-36.2902,4.73965,-84.1872,45.6956,13.4653,-20.2421,2.9492,7.12502,6.10606,-26.9428,-1.93318e-14,2.46493e-14,-35.1476,8.5462,76.0036,34.1451,2.61523,-14.5526,24.8312,7.12502,11.5963,54.4903,-13.05,21.142,13.2971,25.1787,-15.8258,-16.4488,-4.71242,-9.90657,-2.00217,-22.2927,21.6409,-14.2788,12.955,-4.87839
-0.269041,18.7671,-13.4034,4.11103,-9.11128,2.60098,7.67745,1.27697,-3.38337,-0.127314,1.28658,-2.31311,-4.46401,0.684956,-0.64712,-11.1878,-3.38516,-8.34944,13.1595,-4.51769,8.96156,6.21983,-1.93423,3.84106,5.26779e-15,1.35174e-14,-36.0158,4.96056,-84.179,46.0402,13.4976,-20.5494,3.42196,7.12502,5.80943,-26.4784,5.26779e-15,1.35174e-14,-34.8657,8.09704,76.2226,34.5132,2.97385,-15.1505,24.9463,7.12502,11.0196,54.6371,-13.3047,21.0415,13.0692,25.5995,-15.932,-16.1762,-5.02691,-10.0385,-1.7688,-22.5152,22.0111,-14.4078,12.9053,-5.25748
-0.258632,18.7548,-13.4209,4.04678,-9.31588,2.65877,7.92795,1.3391,-3.4237,0.00186519,1.35562,-2.33676,-4.4717,0.718612,-0.661038,-11.4442,-3.2486,-8.40582,13.2314,-4.32231,9.06218,6.27218,-1.82825,3.90053,1.17283e-14,2.18663e-14,-35.9026,5.15801,-84.1368,46.5297,13.5672,-20.7058,3.91952,7.12502,5.65844,-25.9849,1.17283e-14,2.18663e-14,-34.6521,7.72812,76.3556,34.8275,3.25041,-15.2966,24.5728,7.12502,10.8787,54.271,-13.6113,21.0095,12.9261,26.0014,-15.9698,-15.9355,-5.00124,-10.2289,-1.56428,-22.6171,22.3857,-14.5602,12.8727,-5.63403
-0.250375,18.7431,-13.4366,3.97034,-9.4552,2.6558,8.23918,1.41155,-3.37714,0.102267,1.44162,-2.37073,-4.54116,0.759345,-0.739062,-11.5234,-3.14975,-8.32804,13.1822,-4.19199,9.0627,6.25655,-1.75948,3.89906,-1.09332e-15,-4.01545e-14,-35.9005,5.2254,-84.0949,47.0944,13.5269,-20.8112,4.42492,7.12502,5.55661,-25.4822,-1.09332e-15,-4.01545e-14,-34.42,7.23651,76.471,34.9967,3.21514,-15.4197,24.1551,7.12502,10.76,53.8596,-13.8385,21.0696,12.8696,26.3823,-16.1338,-15.7335,-4.53762,-10.4093,-1.4065,-22.6313,22.7821,-14.7518,12.8336,-5.70309
-0.241229,18.7318,-13.4515,3.91812,-9.51942,2.77067,8.4493,1.45467,-3.47087,0.212401,1.48158,-2.38861,-4.54682,0.779934,-0.713652,-11.4338,-3.07163,-8.26967,12.9406,-4.07143,8.96609,6.15065,-1.70869,3.86726,-8.44835e-15,-5.96354e-15,-35.9149,5.50236,-84.0469,47.698,13.3097,-20.833,4.3229,7.12502,5.53554,-25.5848,-8.44835e-15,-5.96354e-15,-34.2282,6.7359,76.6816,35.1778,3.09639,-15.9137,23.6355,7.12502,10.2834,53.3641,-14.0785,21.0508,12.6741,26.7597,-16.4179,-15.5317,-4.30439,-10.6515,-1.27992,-22.7779,23.2073,-14.938,12.8172,-6.05493
-0.23073,18.7209,-13.4661,3.8716,-9.59944,2.87,8.59666,1.48313,-3.53396,0.346378,1.50867,-2.41604,-4.49101,0.792679,-0.711524,-11.3596,-2.98433,-8.06629,12.6696,-3.94243,8.74443,6.03252,-1.6556,3.77102,-3.99557e-14,-1.98785e-14,-35.929,5.81201,-84.0256,48.2952,13.0569,-20.6769,3.73545,7.12502,5.68631,-26.1683,-3.99557e-14,-1.98785e-14,-34.0812,6.29445,76.8495,35.5033,3.22701,-16.1976,23.3242,7.12502,10.0095,53.0662,-14.3422,20.9083,12.5,27.1451,-16.5784,-15.2971,-4.51262,-10.9281,-1.0676,-22.9122,23.6991,-15.1382,12.6452,-5.95104
-0.220906,18.7102,-13.4768,3.84054,-9.83675,2.89408,8.71656,1.55851,-3.55188,0.478603,1.60431,-2.43448,-4.42162,0.838326,-0.733257,-11.3976,-2.89992,-7.891,12.4552,-3.82049,8.59961,5.95486,-1.59871,3.70378,9.44227e-15,-1.11319e-14,-35.8887,5.97767,-83.9594,48.7564,12.9803,-20.8185,3.78906,7.12502,5.54959,-26.1183,9.44227e-15,-1.11319e-14,-33.9592,5.85705,76.9862,35.8806,3.42801,-16.4279,23.3233,7.12502,9.78733,53.0759,-14.6737,20.8808,12.3921,27.5718,-16.6628,-15.0488,-4.734,-11.2278,-0.775456,-22.9806,24.2518,-15.3529,12.5345,-6.11751
-0.216854,18.6967,-13.5052,3.94711,-9.84523,2.81975,8.9663,1.57222,-3.55574,0.547826,1.61329,-2.37772,-4.49112,0.843229,-0.679175,-11.5279,-2.8536,-7.8315,12.3619,-3.73981,8.51027,5.9382,-1.56063,3.67066,3.27995e-15,-7.55382e-15,-35.7937,6.08312,-83.7958,49.1775,12.9635,-21.1348,4.17599,7.12502,5.24423,-25.7391,3.27995e-15,-7.55382e-15,-33.7599,5.38158,77.1876,36.1873,3.6009,-16.5356,23.384,7.12502,9.6834,53.1414,-15.1501,20.7079,12.3894,28.0367,-16.7496,-14.8617,-4.739,-11.7902,-0.479383,-22.8846,24.8855,-15.4395,12.2772,-6.69632
-0.21579,18.6822,-13.5504,4.11898,-9.50113,2.83097,9.36161,1.46817,-3.62594,0.551258,1.44686,-2.35131,-4.70888,0.764371,-0.601922,-11.5284,-2.81193,-7.84759,12.2566,-3.67883,8.54402,5.90094,-1.52973,3.68882,9.83984e-15,3.10104e-14,-35.7503,6.20287,-83.6835,49.6548,12.8913,-21.1547,4.27785,7.12502,5.22502,-25.6377,9.83984e-15,3.10104e-14,-33.5926,4.79039,77.3094,36.5343,3.81857,-16.4091,23.7615,7.12502,9.80549,53.5132,-15.671,20.2517,12.3209,28.537,-16.9203,-14.6873,-4.32629,-12.5353,-0.3852,-22.8192,25.5861,-15.5189,11.7773,-6.37576
-0.213361,18.6655,-13.5878,4.24076,-9.24637,2.8472,9.73437,1.38517,-3.70433,0.56254,1.30961,-2.30552,-4.90643,0.700344,-0.501296,-11.4521,-2.73504,-7.8985,12.0591,-3.55901,8.5467,5.81658,-1.47624,3.70751,-1.39149e-15,-3.97569e-15,-35.7655,6.47176,-83.5799,50.142,12.6851,-21.1769,4.21737,7.12502,5.2035,-25.6987,-1.39149e-15,-3.97569e-15,-33.4653,4.37169,77.4271,36.8028,3.91655,-16.3686,24.1325,7.12502,9.84455,53.8824,-16.1482,19.8984,12.249,29.0624,-17.1526,-14.52,-4.251,-13.2174,-0.255355,-22.7929,26.3471,-15.6276,11.3484,-6.22365
-0.207846,18.6478,-13.6159,4.29419,-9.14639,2.76599,10.1143,1.3591,-3.62673,0.590499,1.26618,-2.24898,-5.08863,0.679125,-0.488781,-11.3803,-2.65201,-7.87824,11.8392,-3.42872,8.45825,5.72243,-1.42073,3.68548,-5.42682e-14,-2.90226e-14,-35.769,6.74661,-83.4474,50.5147,12.4307,-21.225,4.29399,7.12502,5.15712,-25.6233,-5.42682e-14,-2.90226e-14,-33.3284,4.12064,77.5222,36.9979,3.92411,-16.5872,24.089,7.12502,9.6336,53.8487,-16.5727,19.6935,12.2853,29.5936,-17.3454,-14.3609,-4.20186,-13.7837,-0.0809307,-22.6994,27.1221,-15.8111,11.0827,-6.27072
-0.200175,18.6289,-13.6399,4.406,-9.10271,2.67222,10.3939,1.33499,-3.51718,0.593674,1.23364,-2.21033,-5.23969,0.662228,-0.512007,-11.3285,-2.53715,-7.84361,11.679,-3.26833,8.42732,5.64867,-1.34505,3.68255,9.54166e-15,-1.63003e-14,-35.7943,7.03504,-83.3567,50.8548,12.1098,-21.1518,4.23034,7.12502,5.22782,-25.6852,9.54166e-15,-1.63003e-14,-33.3043,3.72494,77.6165,37.3618,4.05654,-16.6683,24.3219,7.12502,9.55535,54.0852,-17.0671,19.42,12.2992,30.0962,-17.4694,-14.11,-4.04659,-14.4109,-0.0539805,-22.5952,27.8888,-16.0721,10.9438,-5.77846
-0.192454,18.6116,-13.6655,4.55278,-9.1103,2.57706,10.6709,1.33104,-3.42503,0.589405,1.22568,-2.18423,-5.39777,0.65765,-0.542238,-11.3941,-2.43116,-7.82996,11.6518,-3.1254,8.46253,5.6394,-1.27104,3.70349,-3.72721e-14,-8.34896e-15,-35.8684,7.192,-83.2578,51.2185,11.8803,-21.2035,4.43746,7.12502,5.1779,-25.4793,-3.72721e-14,-8.34896e-15,-33.2546,3.08,77.7563,37.7058,4.15913,-16.6593,24.7867,7.12502,9.56408,54.5496,-17.6106,19.1817,12.2953,30.5792,-17.5415,-13.8592,-4.07699,-15.0814,0.0506366,-22.4965,28.6591,-16.2752,10.7974,-5.71669
-0.18542,18.5941,-13.6864,4.62312,-9.18211,2.49221,10.9297,1.34892,-3.36106,0.655206,1.24728,-2.15602,-5.473,0.66695,-0.557135,-11.472,-2.37338,-7.69795,11.54,-3.03849,8.32406,5.60634,-1.23127,3.64315,-1.33186e-14,5.1684e-15,-35.9165,7.28313,-83.1021,51.6173,11.6771,-21.2161,4.46302,7.12502,5.16571,-25.454,-1.33186e-14,5.1684e-15,-33.1011,2.54556,77.8985,37.9122,4.01854,-16.8446,25.0821,7.12502,9.38525,54.8531,-18.0551,18.9521,12.3133,31.0547,-17.6472,-13.5805,-4.33231,-15.6354,0.282962,-22.42,29.447,-16.5121,10.615,-5.90431
-0.179959,18.5732,-13.7064,4.70904,-9.33496,2.43239,11.102,1.38997,-3.35324,0.745737,1.29732,-2.14304,-5.475,0.690601,-0.558342,-11.5015,-2.30855,-7.52148,11.3428,-2.94289,8.14411,5.53672,-1.18959,3.56234,-1.25234e-14,-7.55382e-15,-35.8623,7.35632,-82.9616,51.925,11.475,-21.0624,4.09874,7.12502,5.31413,-25.8146,-1.25234e-14,-7.55382e-15,-32.9378,2.13435,77.9778,38.0913,4.02697,-17.0916,25.1154,7.12502,9.14699,54.897,-18.5299,18.7825,12.2905,31.5248,-17.6945,-13.3121,-4.69641,-16.2226,0.612693,-22.3711,30.2648,-16.7778,10.3899,-5.80607
-0.176315,18.5523,-13.7345,4.81716,-9.39319,2.39376,11.3113,1.40452,-3.38943,0.845433,1.30588,-2.11482,-5.48862,0.695091,-0.513207,-11.5519,-2.19563,-7.46718,11.0708,-2.78005,8.13757,5.44648,-1.10821,3.56245,1.70955e-14,2.5842e-14,-35.7194,7.57414,-82.8205,52.1564,11.2324,-21.0421,3.65928,7.12502,5.33366,-26.2536,1.70955e-14,2.5842e-14,-32.7807,1.88551,78.0068,38.3164,4.12211,-17.2785,25.1297,7.12502,8.96659,54.9191,-19.0521,18.5928,12.2335,32.0284,-17.848,-12.9923,-4.49021,-16.9116,0.864818,-22.3235,31.087,-16.9124,10.1457,-5.59845
-0.173313,18.5286,-13.7628,4.92229,-9.39693,2.3332,11.5022,1.4093,-3.38214,0.947926,1.30841,-2.08098,-5.4878,0.695529,-0.485054,-11.5685,-2.10361,-7.36563,10.7742,-2.6478,8.0791,5.34432,-1.04412,3.53529,3.4191e-14,4.37326e-15,-35.631,7.75008,-82.6841,52.3407,11.0435,-21.5135,3.89186,7.12502,4.87851,-26.032,3.4191e-14,4.37326e-15,-32.6359,1.61437,78.0114,38.5296,4.20255,-17.3555,24.7293,7.12502,8.89232,54.522,-19.6149,18.3977,12.219,32.5826,-17.9858,-12.8055,-4.56299,-17.5987,1.11699,-22.2503,31.9091,-17.0333,9.87546,-6.55454
-0.168847,18.4965,-13.785,5.01067,-9.42169,2.2918,11.7169,1.41549,-3.38497,0.999958,1.3093,-2.03524,-5.55392,0.696476,-0.44015,-11.5707,-2.04983,-7.31376,10.6004,-2.56133,7.98063,5.28192,-1.00697,3.50086,-2.39536e-14,-1.31198e-14,-35.6315,7.88232,-82.4854,52.4529,10.9083,-21.8617,4.45971,7.12502,4.54229,-25.4716,-2.39536e-14,-1.31198e-14,-32.5832,1.3933,78.0198,38.7072,4.26195,-17.2415,24.1044,7.12502,9.00235,53.8924,-20.1768,18.1785,12.1911,33.2052,-18.114,-12.5985,-4.40135,-18.1774,1.34406,-22.2093,32.7419,-17.3528,9.55507,-7.54041
-0.163018,18.4655,-13.807,5.05716,-9.57001,2.24424,12.0082,1.46704,-3.39931,1.07782,1.3645,-2.00562,-5.6363,0.723929,-0.416255,-11.5771,-2.00385,-7.29222,10.3638,-2.48915,7.97455,5.20363,-0.971901,3.49922,2.98177e-16,-5.56597e-15,-35.5352,7.99296,-82.2809,52.5177,10.8565,-22.1033,4.066,7.12502,4.30902,-25.8702,2.98177e-16,-5.56597e-15,-32.4571,1.04488,78.0707,38.9045,4.54324,-17.3001,23.965,7.12502,8.94574,53.7554,-20.7144,18.0247,12.1716,33.9036,-18.2836,-12.337,-4.65706,-18.7292,1.64006,-22.1775,33.6083,-17.6836,9.3359,-7.76183
-0.15614,18.4355,-13.8398,5.14271,-9.75419,2.13298,12.4021,1.5261,-3.36816,1.12844,1.4301,-1.96608,-5.80387,0.756274,-0.413073,-11.5641,-1.92513,-7.25508,10.0837,-2.37568,7.97883,5.10541,-0.915895,3.50127,-6.75868e-15,-2.66371e-14,-35.4888,8.16428,-82.1151,52.6742,10.6845,-22.2672,3.64905,7.12502,4.1508,-26.2903,-6.75868e-15,-2.66371e-14,-32.3777,0.649027,78.1068,39.2008,4.90057,-17.2769,24.4731,7.12502,8.96817,54.2625,-21.3586,17.9027,12.1926,34.6722,-18.5038,-11.9784,-5.02452,-19.3912,2.00777,-22.077,34.4696,-17.8541,9.14044,-7.76202
-0.150178,18.3994,-13.8771,5.34133,-9.89179,2.06388,12.7387,1.56261,-3.40409,1.11035,1.45709,-1.93294,-6.01295,0.772186,-0.372607,-11.5763,-1.82787,-7.16124,9.8465,-2.24082,7.93072,5.02195,-0.850027,3.47921,-6.85807e-15,-1.63003e-14,-35.4831,8.31673,-81.9604,52.7581,10.5505,-22.1614,4.12232,7.12502,4.25293,-25.815,-6.85807e-15,-1.63003e-14,-32.3672,0.313273,78.102,39.4544,5.15604,-17.1468,24.8672,7.12502,9.09372,54.6512,-22.2036,17.7135,12.1298,35.4646,-18.6986,-11.6558,-5.58633,-20.2043,2.33645,-22.0238,35.3161,-18.0267,8.8971,-7.47
-0.143684,18.3663,-13.9056,5.51709,-9.95547,2.09841,12.9819,1.56597,-3.51555,1.12498,1.43352,-1.92341,-6.13558,0.764181,-0.302138,-11.656,-1.71355,-6.96733,9.6489,-2.08287,7.76028,4.95812,-0.77553,3.40383,2.67365e-14,-7.95139e-15,-35.4788,8.47362,-81.8002,52.8429,10.4844,-22.0102,4.27008,7.12502,4.39892,-25.6642,2.67365e-14,-7.95139e-15,-32.2927,0.108037,78.0711,39.5583,5.31877,-17.1372,24.5452,7.12502,9.10297,54.3288,-22.9983,17.4417,11.9789,36.2541,-18.884,-11.3597,-5.94864,-20.9657,2.48001,-22.0789,36.133,-18.2733,8.74609,-7.25312
-0.136204,18.3367,-13.9266,5.58223,-10.0623,2.18776,13.2582,1.59951,-3.64328,1.18206,1.44481,-1.93752,-6.23202,0.772733,-0.253767,-11.6538,-1.62481,-6.8172,9.36866,-1.95484,7.59935,4.85853,-0.718586,3.33578,-1.98785e-16,-2.90226e-14,-35.4523,8.62386,-81.6295,52.8957,10.4687,-22.3081,3.86398,7.12502,4.11128,-26.0761,-1.98785e-16,-2.90226e-14,-32.2998,-0.130712,78.0567,39.7974,5.54115,-17.1523,24.4237,7.12502,9.08843,54.2079,-23.6487,17.1972,11.8001,37.0679,-19.1504,-11.0167,-6.048,-21.5423,2.6381,-22.2043,36.892,-18.5558,8.63186,-6.9739
-0.131625,18.3043,-13.9494,5.65045,-10.2221,2.21747,13.5578,1.64869,-3.79321,1.24502,1.47387,-1.91555,-6.33704,0.791022,-0.15878,-11.6354,-1.53475,-6.85111,9.03178,-1.82276,7.68862,4.74307,-0.650922,3.37705,3.53837e-14,3.45885e-14,-35.3567,8.79794,-81.4467,52.8546,10.4214,-22.7765,3.61529,7.12502,3.65893,-26.333,3.53837e-14,3.45885e-14,-32.4067,-0.404214,78.0633,40.1471,5.80733,-17.274,24.6373,7.12502,8.97091,54.4266,-24.3422,17.0384,11.6962,37.9004,-19.3668,-10.7598,-6.37364,-22.076,2.91182,-22.2564,37.5614,-18.7592,8.48246,-6.81584
-0.125274,18.2681,-13.9784,5.7852,-10.3135,2.37596,13.8033,1.68518,-3.9848,1.31786,1.47689,-1.9728,-6.39964,0.796208,-0.117534,-11.671,-1.48432,-6.76855,8.7031,-1.75243,7.70791,4.64232,-0.612845,3.37224,-2.21645e-14,1.27222e-14,-35.1993,8.77001,-81.2664,52.6997,10.501,-23.2266,3.45383,7.12502,3.22429,-26.5015,-2.21645e-14,1.27222e-14,-32.3011,-0.812094,78.0473,40.3562,6.22641,-17.4245,24.8529,7.12502,8.82572,54.6483,-25.135,16.8003,11.4092,38.7435,-19.6105,-10.4197,-6.42316,-22.702,3.149,-22.4626,38.1636,-18.8591,8.33472,-6.90491
-0.114582,18.2341,-14.0068,5.91709,-10.3862,2.71651,13.9376,1.71283,-4.19343,1.45017,1.4655,-2.14782,-6.33376,0.791261,-0.184062,-11.8134,-1.44327,-6.59863,8.38202,-1.69839,7.68096,4.56189,-0.580788,3.33738,-1.37161e-14,1.03368e-14,-34.9655,8.60701,-81.1234,52.5358,10.568,-23.4406,3.21605,7.12502,3.0176,-26.7423,-1.37161e-14,1.03368e-14,-31.9508,-1.30385,77.9843,40.3703,6.63929,-17.7493,24.5247,7.12502,8.51225,54.3331,-25.913,16.3567,10.9258,39.6049,-19.9039,-9.92813,-6.72917,-23.3135,3.26835,-22.8908,38.7332,-19.0341,8.2542,-7.03919
-0.105191,18.2052,-14.0286,5.9631,-10.5285,3.00874,14.2876,1.75958,-4.48413,1.44403,1.45167,-2.24453,-6.53927,0.792636,-0.13093,-11.7821,-1.35728,-6.52049,8.18074,-1.58826,7.69102,4.48639,-0.525048,3.3343,2.3556e-14,-1.51076e-14,-34.982,8.67673,-80.9942,52.3659,10.4947,-23.4111,3.23554,7.12502,3.04613,-26.7224,2.3556e-14,-1.51076e-14,-31.9721,-1.68265,77.9681,40.4248,6.92989,-18.196,23.7738,7.12502,8.08113,53.5993,-26.5766,15.9978,10.5313,40.4643,-20.207,-9.48309,-6.98982,-23.7741,3.39874,-23.2587,39.315,-19.2899,8.17634,-6.70941
-0.100504,18.1722,-14.0571,6.02816,-10.6538,3.29714,14.5748,1.80137,-4.84469,1.52618,1.42683,-2.32059,-6.61716,0.78848,-0.0105869,-11.7207,-1.28364,-6.41573,7.81176,-1.48553,7.63726,4.35462,-0.477313,3.30479,-6.85807e-15,3.10104e-14,-34.7843,8.74259,-80.8374,52.1628,10.4746,-23.4602,2.79937,7.12502,2.99871,-27.1593,-6.85807e-15,3.10104e-14,-31.9099,-1.88784,77.9167,40.56,7.12881,-18.3508,23.4762,7.12502,7.93176,53.3074,-27.2992,15.6797,10.144,41.2964,-20.4637,-9.09375,-6.81321,-24.3134,3.62355,-23.6003,39.9189,-19.4639,7.97496,-6.39574
-0.0988935,18.1332,-14.0999,6.25288,-10.7271,3.3974,14.9334,1.82654,-5.04571,1.5492,1.3986,-2.36214,-6.79427,0.781185,0.0540033,-11.7508,-1.20324,-6.26211,7.47073,-1.37729,7.57331,4.24606,-0.424189,3.26478,-2.27608e-14,3.10104e-14,-34.6499,8.66713,-80.6877,52.0051,10.5687,-23.6478,2.60543,7.12502,2.8175,-27.3557,-2.27608e-14,3.10104e-14,-31.8105,-2.16143,77.8259,40.6082,7.15596,-18.3525,23.4684,7.12502,7.93013,53.2996,-28.2033,15.3649,9.9488,42.0818,-20.5834,-8.83756,-7.01785,-25.1192,3.9144,-23.721,40.5735,-19.5229,7.71643,-6.34637
-0.0927877,18.0956,-14.1344,6.30657,-11.0562,3.44233,15.3684,1.93043,-5.17952,1.64706,1.48004,-2.4141,-6.93544,0.823431,0.0460475,-11.9128,-1.11075,-6.18942,7.15488,-1.24615,7.62429,4.16696,-0.3531,3.27614,0,-5.96354e-15,-34.5058,8.60797,-80.5513,51.8476,10.6788,-23.6741,2.80309,7.12502,2.79209,-27.1584,0,-5.96354e-15,-31.6687,-2.44726,77.745,40.4916,7.04108,-18.5393,22.9437,7.12502,7.7498,52.7817,-28.9349,15.2354,9.82473,42.8239,-20.7048,-8.48976,-7.24463,-25.6881,4.35915,-23.7979,41.2498,-19.6868,7.46241,-5.80973
-0.0831328,18.0625,-14.1592,6.22685,-11.5341,3.56581,15.8583,2.10002,-5.39658,1.75701,1.62638,-2.48407,-7.09815,0.898974,0.048647,-11.9627,-1.0217,-6.09189,6.7815,-1.12349,7.64544,4.05228,-0.289836,3.27275,2.83268e-14,-3.77691e-14,-34.3411,8.51968,-80.3919,51.5493,10.8111,-23.899,3.09126,7.12502,2.57495,-26.8729,2.83268e-14,-3.77691e-14,-31.5529,-2.80655,77.7119,40.3757,7.15679,-18.6164,22.5833,7.12502,7.67542,52.424,-29.5102,15.2632,9.61363,43.5206,-20.8685,-8.11345,-7.25778,-26.0605,4.84446,-23.9729,41.9074,-19.9812,7.25507,-5.03762
-0.0766996,18.0278,-14.1867,6.19938,-11.8943,3.70546,16.3158,2.19789,-5.64168,1.8669,1.67319,-2.55427,-7.23913,0.926815,0.0883509,-11.9646,-0.919045,-6.01482,6.36644,-0.97987,7.67203,3.91597,-0.217877,3.27531,-1.09332e-14,1.74931e-14,-34.1011,8.47387,-80.2752,51.1996,10.9241,-24.2953,3.75438,7.12502,2.19215,-26.2141,-1.09332e-14,1.74931e-14,-31.4353,-3.0809,77.6306,40.3175,7.40932,-18.7291,22.788,7.12502,7.56664,52.6327,-30.1188,15.2136,9.38724,44.2055,-21.0991,-7.79537,-7.21254,-26.4911,5.2971,-24.1585,42.5298,-20.2105,6.97599,-4.44469
-0.0697356,17.9954,-14.2172,6.21913,-12.2126,3.85879,16.6753,2.24513,-5.80212,2.04432,1.67265,-2.68984,-7.2458,0.925341,0.026141,-12.1576,-0.841881,-5.90255,6.03265,-0.870965,7.69696,3.83808,-0.158317,3.27033,-1.15295e-14,-6.75868e-15,-33.7392,8.40023,-80.2509,50.8483,10.9206,-24.4967,4.28009,7.12502,1.99765,-25.6903,-1.15295e-14,-6.75868e-15,-31.1526,-3.28189,77.4214,40.1824,7.72311,-19.0933,22.6292,7.12502,7.21504,52.4862,-30.7785,15.0589,9.14502,44.8711,-21.2734,-7.43997,-7.13624,-26.9851,5.69284,-24.3555,43.1383,-20.4357,6.71772,-3.94684
-0.0601045,17.9588,-14.2471,6.28954,-12.5143,4.11283,16.9975,2.31821,-6.03857,2.15397,1.68978,-2.83443,-7.30747,0.936281,-0.00841154,-12.1975,-0.776329,-5.80378,5.69749,-0.778373,7.67457,3.73584,-0.112828,3.25115,2.26615e-14,2.70347e-14,-33.4305,8.288,-80.1575,50.3553,10.9011,-24.9666,4.64475,7.12502,1.54379,-25.3294,2.26615e-14,2.70347e-14,-30.9396,-3.51954,77.2937,39.9911,8.10582,-19.4106,22.3296,7.12502,6.90881,52.1969,-31.5002,14.8224,8.77927,45.5593,-21.4623,-7.04906,-7.42704,-27.5753,6.00968,-24.6828,43.7857,-20.663,6.53858,-3.6106
-0.0484745,17.9233,-14.2754,6.44553,-12.7761,4.20192,17.3097,2.39642,-6.14237,2.1991,1.74191,-2.88857,-7.43363,0.963968,-0.030718,-12.0596,-0.710246,-5.8242,5.28374,-0.678748,7.75387,3.58162,-0.0653739,3.28227,6.16232e-15,-7.15625e-15,-33.242,8.13069,-79.9466,49.8512,10.9567,-25.3544,4.89839,7.12502,1.16929,-25.0781,6.16232e-15,-7.15625e-15,-30.7993,-3.75658,77.2578,39.7053,8.41589,-19.4274,22.1351,7.12502,6.89261,52.0029,-32.2345,14.6227,8.56742,46.2125,-21.7254,-6.64556,-7.51191,-28.2208,6.33144,-24.8484,44.4711,-20.9174,6.31949,-3.28244
-0.0385964,17.8862,-14.3038,6.61489,-13.0808,4.1732,17.6054,2.46008,-6.20416,2.27164,1.78832,-2.90129,-7.52049,0.987176,-0.0296389,-11.9661,-0.617104,-5.77711,4.85843,-0.542878,7.74011,3.42804,-0.0025618,3.27564,-1.78906e-14,-1.98785e-14,-33.1119,8.05467,-79.755,49.5463,11.039,-24.5777,3.62457,7.12502,1.91942,-26.3465,-1.78906e-14,-1.98785e-14,-30.6236,-3.81772,77.1912,39.3392,8.62964,-19.4179,21.8803,7.12502,6.90179,51.7478,-32.9755,14.4933,8.49234,46.8562,-22.0047,-6.30659,-7.83566,-28.9037,6.80293,-24.9014,45.198,-21.1015,6.08329,-3.40938
-0.0307243,17.8473,-14.334,6.82044,-13.378,4.1149,17.9147,2.50445,-6.26888,2.31826,1.80743,-2.89385,-7.64216,0.998607,-0.000186649,-11.8441,-0.522337,-5.75215,4.39309,-0.397988,7.69017,3.25732,0.061772,3.26136,8.34896e-15,2.66371e-14,-32.9698,8.07913,-79.5895,49.1978,10.9839,-24.1551,2.73021,7.12502,2.3276,-27.2368,8.34896e-15,2.66371e-14,-30.5077,-3.78465,77.1123,38.9812,8.8449,-19.4076,21.7636,7.12502,6.9117,51.6308,-33.7579,14.4003,8.44563,47.4839,-22.1174,-6.07154,-7.9464,-29.6394,7.27672,-24.9204,45.922,-21.2504,5.84204,-3.743
-0.0225768,17.8099,-14.367,7.07142,-13.542,4.04538,18.2933,2.50957,-6.28834,2.32397,1.77653,-2.87215,-7.84268,0.987026,0.0277415,-11.8791,-0.447324,-5.72929,4.09769,-0.27979,7.62239,3.16526,0.116328,3.24205,-2.62396e-14,1.70955e-14,-32.8122,8.06962,-79.3948,48.761,11.1773,-24.1793,2.85307,7.12502,2.30424,-27.1142,-2.62396e-14,1.70955e-14,-30.4841,-3.91198,77.0852,38.6509,9.17949,-19.5073,21.963,7.12502,6.8155,51.8333,-34.568,14.1878,8.42704,48.1356,-22.2758,-5.8444,-8.35026,-30.4057,7.5684,-24.9071,46.6183,-21.4472,5.56767,-3.60789
-0.0133333,17.7735,-14.4006,7.23965,-13.6784,4.18492,18.6635,2.52565,-6.47664,2.41263,1.72473,-2.91672,-7.94946,0.966351,0.0875008,-11.9903,-0.382075,-5.67889,3.75301,-0.172704,7.54244,3.07143,0.166515,3.21387,1.88845e-14,-2.22639e-14,-32.601,8.02346,-79.1917,48.4578,11.3791,-23.8426,2.49621,7.12502,2.62935,-27.4673,1.88845e-14,-2.22639e-14,-30.3283,-4.14232,77.0647,38.2511,9.63854,-19.6123,22.1997,7.12502,6.71412,52.0733,-35.3415,13.8983,8.20083,48.8263,-22.5548,-5.60532,-9.03688,-31.0891,7.80078,-25.116,47.2615,-21.6404,5.27149,-3.34349
-0.00245371,17.7337,-14.4274,7.32321,-13.8364,4.43709,18.9256,2.54447,-6.72047,2.61501,1.67545,-3.01631,-7.87184,0.942299,0.126248,-12.1469,-0.316016,-5.60601,3.35421,-0.0661693,7.49498,2.96888,0.218756,3.19199,-9.14409e-15,2.18663e-14,-32.2719,7.88552,-79.0049,48.1448,11.4394,-23.7395,2.58194,7.12502,2.72899,-27.3803,-9.14409e-15,2.18663e-14,-29.9791,-4.32,76.9931,37.753,10.0282,-19.5767,22.2312,7.12502,6.74845,52.1037,-36.0484,13.6028,7.86097,49.5538,-22.8557,-5.30247,-9.37608,-31.6794,8.03403,-25.4596,47.8824,-21.8178,4.9903,-3.0886
0.00946737,17.6938,-14.4537,7.4317,-13.9603,4.55921,19.2694,2.53658,-6.80948,2.75709,1.61324,-3.08869,-7.89966,0.910905,0.106119,-12.2634,-0.256863,-5.56355,3.03436,0.0253205,7.51822,2.8851,0.265869,3.1963,-1.70955e-14,6.36111e-14,-32.0719,7.76264,-78.8603,47.7756,11.5522,-23.9097,2.92735,7.12502,2.56461,-27.037,-1.70955e-14,6.36111e-14,-29.7139,-4.50331,76.9359,37.2401,10.524,-19.8147,22.1313,7.12502,6.51875,52.011,-36.7373,13.31,7.67238,50.2811,-23.0804,-5.03237,-9.58082,-32.2911,8.1805,-25.6628,48.5114,-21.9703,4.8195,-1.83658
0.0202166,17.65,-14.4898,7.67252,-14.0215,4.60452,19.7042,2.50863,-6.86315,2.77239,1.51948,-3.11497,-8.11413,0.87014,0.117531,-12.2668,-0.210782,-5.54665,2.74243,0.0984408,7.52037,2.79287,0.300602,3.19663,9.93923e-16,-3.85642e-14,-32.07,7.72058,-78.7075,47.5258,11.5368,-23.8674,3.10035,7.12502,2.6054,-26.8635,9.93923e-16,-3.85642e-14,-29.6087,-4.71458,76.9217,36.7109,11.1413,-20.0123,21.9113,7.12502,6.32795,51.7968,-37.5874,13.0141,7.54193,50.993,-23.2042,-4.77968,-9.5954,-33.1248,8.23929,-25.7874,49.165,-22.0234,4.76567,-0.459673
0.0305851,17.6084,-14.5212,7.88122,-14.092,4.5542,20.0872,2.47176,-6.82406,2.86665,1.44343,-3.14055,-8.21179,0.831571,0.0780473,-12.2288,-0.167505,-5.43832,2.27025,0.164011,7.46756,2.64038,0.328284,3.16325,-2.72335e-14,4.77083e-15,-32.0168,7.63334,-78.554,47.4229,11.7072,-23.3402,2.68237,7.12502,3.1146,-27.2746,-2.72335e-14,4.77083e-15,-29.5643,-5.06031,76.873,36.2823,11.8499,-20.038,21.7526,7.12502,6.30315,51.6388,-38.3303,12.7788,7.52745,51.6504,-23.3676,-4.55981,-9.73828,-33.8713,8.35114,-25.806,49.8428,-22.1403,4.65156,0.0345576
0.0388896,17.5713,-14.547,8.03541,-14.1862,4.54901,20.4315,2.46742,-6.81646,2.95948,1.40484,-3.18792,-8.29181,0.811186,0.0238815,-11.9891,-0.107659,-5.41158,1.47805,0.270757,7.21582,2.62672,0.349559,3.4112,1.03368e-14,-1.94809e-14,-32.0466,7.42658,-78.3865,47.2373,12.2128,-22.9739,2.32202,7.12502,3.46835,-27.6295,1.03368e-14,-1.94809e-14,-29.5759,-5.51866,76.8518,35.8566,12.4941,-20.1891,21.8685,7.12502,6.15726,51.759,-38.9641,12.6408,7.46334,52.2604,-23.6106,-4.38629,-9.78859,-34.5093,8.50718,-25.8643,50.5215,-22.34,4.47293,0.0912872
0.0469955,17.5354,-14.5718,8.22537,-14.2777,4.51165,20.7796,2.48815,-6.78431,2.99062,1.40324,-3.20614,-8.44372,0.810664,-0.0246933,-11.7309,-0.0641282,-5.37482,1.02801,0.334446,7.20435,2.42011,0.375176,3.38995,1.51076e-14,-2.8625e-14,-32.2213,7.21538,-78.1924,46.9565,12.6256,-23.0404,2.6138,7.12502,3.4041,-27.3388,1.51076e-14,-2.8625e-14,-29.6715,-6.07717,76.9251,35.3696,13.1348,-20.4486,21.6952,7.12502,5.90669,51.5928,-39.6155,12.5478,7.42547,52.8429,-23.8216,-4.28037,-10.0697,-35.1734,8.63753,-25.8903,51.2071,-22.5472,4.32067,0.168487
0.0583761,17.4996,-14.5956,8.52639,-14.2584,4.32234,21.1063,2.4382,-6.58709,3.02148,1.35716,-3.14853,-8.57993,0.785128,-0.0697725,-11.565,-0.0619538,-5.37874,0.60701,0.352227,7.15877,2.24511,0.378043,3.36468,-2.06736e-14,2.98177e-14,-32.406,7.06683,-77.9213,46.7836,12.9903,-23.1132,3.24809,7.12502,3.33376,-26.7056,-2.06736e-14,2.98177e-14,-29.7911,-6.41478,77.0108,34.8683,13.5055,-20.6276,21.3126,7.12502,5.73386,51.215,-40.3087,12.3924,7.54014,53.4124,-24.0064,-4.1728,-10.3177,-35.9413,8.67387,-25.7632,51.8994,-22.694,4.11625,0.4293
0.0707677,17.4556,-14.6245,8.90704,-14.0885,4.20792,21.4376,2.30808,-6.41984,3.0511,1.19945,-3.11068,-8.71482,0.707324,-0.0871872,-11.4691,-0.0339764,-5.32183,0.145814,0.402247,7.06589,2.06736,0.39691,3.31367,3.97569e-16,6.75868e-15,-32.5161,7.03546,-77.6816,46.5814,13.4025,-23.4385,3.82217,7.12502,3.01961,-26.1362,3.97569e-16,6.75868e-15,-29.8627,-6.74371,77.0508,34.3372,13.7408,-20.6611,21.5934,7.12502,5.70159,51.4967,-41.1197,12.0928,7.56205,54.006,-24.2284,-4.00279,-10.4174,-36.8549,8.55818,-25.7136,52.5841,-22.7863,3.93288,0.844526
0.0832354,17.4126,-14.6504,9.19386,-13.9066,4.16906,21.7773,2.18584,-6.22991,3.15757,1.05608,-3.13327,-8.76827,0.631875,-0.184771,-11.4545,-0.0135882,-5.25101,-0.313503,0.44161,7.01065,1.90717,0.412969,3.2745,-2.127e-14,1.51076e-14,-32.5696,6.88667,-77.4467,46.309,13.9372,-23.7328,3.89579,7.12502,2.73537,-26.0664,-2.127e-14,1.51076e-14,-29.8451,-7.39268,77.1272,33.7956,14.0017,-20.8499,22.3092,7.12502,5.51928,52.2174,-41.8271,11.7648,7.53532,54.6199,-24.4606,-3.91192,-10.774,-37.6597,8.3909,-25.725,53.262,-22.9081,3.75912,1.23159
0.0959041,17.3773,-14.6642,9.38903,-13.8491,4.26122,21.9848,2.09358,-6.2138,3.32331,0.926073,-3.16783,-8.68842,0.564876,-0.194918,-11.4221,0.0275737,-5.35868,-0.820996,0.529022,7.1062,1.72744,0.456385,3.32405,-7.95139e-16,3.18055e-15,-32.6702,6.8427,-77.195,46.0774,14.5178,-24.0538,3.56761,7.12502,2.42539,-26.3983,-7.95139e-16,3.18055e-15,-29.9614,-7.86978,77.1974,33.4142,14.034,-20.4956,22.7763,7.12502,5.86133,52.6752,-42.4166,11.4905,7.35956,55.2499,-24.7072,-3.70163,-10.7582,-38.2882,8.2963,-25.8997,53.8941,-23.0882,3.68062,1.02722
0.105763,17.3366,-14.6847,9.71889,-13.7731,4.25265,22.1948,1.98761,-6.18769,3.44024,0.786356,-3.11939,-8.66459,0.49621,-0.117783,-11.4921,0.0705398,-5.55066,-1.27378,0.632748,7.17076,1.58368,0.509327,3.38269,-3.77691e-15,5.28767e-14,-32.7543,6.90447,-76.8547,45.7866,15.0731,-24.5797,3.67746,7.12502,1.91754,-26.2937,-3.77691e-15,5.28767e-14,-30.0847,-7.96629,77.2443,32.8777,13.7437,-20.1758,22.5897,7.12502,6.17005,52.4799,-43.1845,11.2703,7.27061,55.9186,-24.9331,-3.64189,-10.7917,-39.105,8.18276,-25.9669,54.5529,-23.2235,3.64057,1.07451
0.113099,17.2952,-14.7099,9.98006,-13.6547,4.23344,22.5957,1.90733,-6.22101,3.52357,0.650071,-3.03708,-8.78014,0.434446,0.0242823,-11.6411,0.103595,-5.53958,-1.57241,0.698094,7.02691,1.50568,0.539731,3.33112,2.88238e-14,-3.57812e-15,-32.8267,6.90489,-76.4756,45.2947,15.5234,-25.0062,4.15564,7.12502,1.50557,-25.8188,2.88238e-14,-3.57812e-15,-30.1668,-8.08548,77.3456,32.0287,13.6844,-21.0263,22.2576,7.12502,5.349,52.1701,-43.8937,11.0708,7.2302,56.6063,-25.1717,-3.61036,-10.9103,-39.8567,8.09782,-25.9982,55.2124,-23.3734,3.45822,1.41081
0.119774,17.2496,-14.738,10.315,-13.4915,4.08338,23.0975,1.82953,-6.09813,3.49879,0.540676,-2.9535,-9.06882,0.385851,0.067775,-11.6569,0.106654,-5.37662,-1.87913,0.699051,6.80606,1.40477,0.533426,3.21841,-1.27222e-14,9.54166e-15,-33.1328,6.85419,-76.1412,44.8308,15.7937,-25.3859,4.4964,7.12502,1.13887,-25.4803,-1.27222e-14,9.54166e-15,-30.454,-8.43782,77.4363,31.3136,13.519,-21.502,22.5046,7.12502,4.88965,52.4281,-44.6836,10.8959,7.33248,57.2917,-25.3241,-3.5885,-10.717,-40.7172,8.01986,-25.882,55.8972,-23.4722,3.27297,1.39801
0.128107,17.2021,-14.7649,10.686,-13.2066,4.01782,23.4675,1.67754,-5.95286,3.5547,0.353947,-2.92027,-9.19317,0.295323,0.0731695,-11.7791,0.0948604,-5.35216,-2.22308,0.699085,6.80754,1.31282,0.533982,3.2112,-1.68967e-14,2.06736e-14,-33.3261,6.81417,-75.836,44.3183,16.1022,-26.0667,4.91816,7.12502,0.481293,-25.061,-1.68967e-14,2.06736e-14,-30.7393,-8.82146,77.4133,30.8225,12.9489,-20.7611,22.7671,7.12502,5.60506,52.673,-45.4956,10.6381,7.34118,57.9612,-25.4135,-3.62339,-10.5591,-41.6268,7.80786,-25.8545,56.5495,-23.5254,3.15381,0.937595
0.137291,17.1637,-14.7838,10.9329,-12.9777,4.0955,23.781,1.55435,-5.93235,3.71378,0.181757,-2.9149,-9.17264,0.210959,0.118756,-11.8586,0.0564182,-5.41723,-2.74659,0.680105,6.85921,1.15611,0.525167,3.2349,1.21259e-14,1.55052e-14,-33.3922,6.75021,-75.4728,43.7133,16.3011,-26.6874,4.89859,7.12502,-0.118202,-25.0811,1.21259e-14,1.55052e-14,-31.0141,-9.159,77.4375,30.2761,12.5235,-20.4842,22.1601,7.12502,5.87239,52.0588,-46.1417,10.3418,7.21456,58.6017,-25.5595,-3.63985,-10.6573,-42.3367,7.62878,-25.9906,57.1588,-23.6603,3.06813,0.744535
0.145613,17.1267,-14.7963,11.1081,-12.8649,4.28081,24.2446,1.52047,-6.06392,3.75174,0.064035,-2.93202,-9.36881,0.162725,0.204693,-11.7671,0.041359,-5.36512,-3.2438,0.6707,6.79717,0.976665,0.51522,3.19536,-5.96354e-16,-3.22031e-14,-33.7668,6.56408,-75.0502,43.0198,16.6748,-27.3132,4.81508,7.12502,-0.722623,-25.1634,-5.96354e-16,-3.22031e-14,-31.5252,-9.50715,77.5186,29.6285,12.2271,-20.5518,21.6532,7.12502,5.80705,51.5536,-46.7213,10.1136,6.95141,59.228,-25.7698,-3.55326,-10.4656,-42.9203,7.51947,-26.2635,57.7448,-23.8574,2.99264,0.681791
0.152503,17.0818,-14.8121,11.332,-12.7003,4.3043,24.7261,1.46702,-6.03852,3.77632,-0.0367247,-2.90741,-9.58939,0.119177,0.243137,-11.7392,0.025356,-5.31941,-3.62359,0.658185,6.7595,0.847791,0.50571,3.16825,3.18055e-15,-9.54166e-15,-34.2072,6.28572,-74.6036,42.1939,17.3314,-28.2581,5.19392,7.12502,-1.63524,-24.7796,3.18055e-15,-9.54166e-15,-32.0231,-9.75833,77.5736,28.9187,11.8794,-20.4175,21.6217,7.12502,5.93675,51.5186,-47.3308,9.93075,6.87356,59.8616,-25.944,-3.57811,-10.4576,-43.5877,7.36777,-26.3276,58.3467,-23.9918,2.9435,0.714699
0.158312,17.0362,-14.8324,11.6895,-12.5249,4.2129,25.0233,1.38783,-5.87848,3.86438,-0.114465,-2.88036,-9.64255,0.0777718,0.205055,-11.8438,-0.0358062,-5.23149,-4.01829,0.58551,6.68629,0.741005,0.466824,3.12019,-7.95139e-16,-8.74653e-15,-34.513,5.88209,-74.1438,41.3472,17.9488,-29.2089,5.72646,7.12502,-2.5535,-24.238,-7.95139e-16,-8.74653e-15,-32.4627,-10.0295,77.5645,28.2904,11.3805,-20.4505,21.3447,7.12502,5.90489,51.2424,-48.0874,9.80522,6.88937,60.4871,-26.0774,-3.66942,-10.4891,-44.443,7.26364,-26.2848,58.9736,-24.0666,2.88515,0.692408
0.163007,16.995,-14.851,11.938,-12.432,4.29858,25.3972,1.36457,-5.93416,3.98843,-0.186059,-2.89223,-9.69408,0.0451147,0.244485,-12.0322,-0.133041,-5.22766,-4.42522,0.478316,6.70418,0.647641,0.414252,3.11952,3.97569e-15,-5.36719e-14,-34.8152,5.37765,-73.6067,40.5523,18.4391,-29.7387,5.89721,7.12502,-3.06512,-24.0605,3.97569e-15,-5.36719e-14,-32.8881,-10.4414,77.6059,27.6213,10.993,-20.5994,20.8052,7.12502,5.76112,50.7069,-48.7946,9.67965,6.73147,61.1078,-26.1711,-3.76256,-10.2667,-45.166,7.2297,-26.4411,59.5811,-24.2079,2.75899,0.759996
0.166829,16.9472,-14.8636,12.1797,-12.284,4.39487,25.719,1.32062,-6.00285,4.11582,-0.280215,-2.87963,-9.71222,0.00229494,0.327417,-12.1435,-0.180956,-5.25796,-4.89495,0.441291,6.73479,0.515962,0.396023,3.13162,0,2.54444e-14,-35.1372,4.88388,-73.0117,39.7323,18.9169,-29.6736,5.78356,7.12502,-3.00229,-24.1751,0,2.54444e-14,-33.3568,-10.8299,77.6964,26.8696,10.801,-20.7611,20.2956,7.12502,5.60502,50.2015,-49.4656,9.47068,6.58614,61.7301,-26.2406,-3.80954,-9.91819,-45.8551,7.08951,-26.591,60.1936,-24.3736,2.71589,0.74613
0.169018,16.9001,-14.8759,12.5314,-12.0387,4.45686,25.9741,1.23597,-6.02341,4.17725,-0.40663,-2.82905,-9.76808,-0.0542707,0.436465,-12.1644,-0.188354,-5.34757,-5.35355,0.462573,6.79122,0.36882,0.407087,3.16603,2.66371e-14,-2.5842e-14,-35.5003,4.49052,-72.4084,38.8189,19.1749,-29.1319,5.12686,7.12502,-2.4791,-24.8385,2.66371e-14,-2.5842e-14,-33.9348,-10.9654,77.7238,26.1047,10.3504,-20.7879,19.7663,7.12502,5.57912,49.6729,-50.2018,9.25395,6.47096,62.3406,-26.3494,-3.965,-9.73504,-46.6698,6.83593,-26.6815,60.779,-24.4802,2.69661,0.841694
0.173449,16.8596,-14.8918,12.9571,-11.7279,4.40887,26.2785,1.11749,-5.86922,4.2046,-0.531672,-2.75826,-9.88932,-0.113456,0.467959,-12.1815,-0.221463,-5.43956,-5.83317,0.450259,6.82049,0.216232,0.400939,3.19045,-1.35174e-14,1.66979e-14,-35.8919,4.04012,-71.7931,37.8328,19.2725,-28.6266,4.28381,7.12502,-1.99106,-25.6866,-1.35174e-14,1.66979e-14,-34.5661,-10.8703,77.63,25.4384,9.5437,-20.6993,19.9154,7.12502,5.66472,49.8196,-50.9886,9.07289,6.45456,62.9273,-26.4354,-4.27588,-9.63623,-47.5505,6.57561,-26.6545,61.3506,-24.5725,2.5777,1.24712
0.177937,16.8194,-14.904,13.3243,-11.4836,4.40491,26.5417,1.03973,-5.72267,4.2954,-0.604623,-2.73832,-9.92017,-0.152102,0.430957,-12.3762,-0.326923,-5.47275,-6.20803,0.336541,6.8492,0.134696,0.346124,3.20209,-1.27222e-14,1.59028e-15,-36.2441,3.52357,-71.1686,36.7656,19.416,-29.4533,5.10508,7.12502,-2.78949,-24.8564,-1.27222e-14,1.59028e-15,-35.1646,-11.0152,77.5429,24.8386,9.00956,-20.6086,20.7348,7.12502,5.75226,50.6368,-51.7355,8.89908,6.40389,63.519,-26.4868,-4.56272,-9.50948,-48.3429,6.44774,-26.7043,61.9137,-24.6833,2.4162,1.51734
0.181776,16.7765,-14.9121,13.6708,-11.2823,4.42914,26.7544,0.971521,-5.6377,4.38798,-0.67701,-2.71355,-9.92175,-0.188934,0.434979,-12.5566,-0.392858,-5.51065,-6.53868,0.273752,6.84746,0.0614235,0.316712,3.20634,-3.18055e-14,-1.51076e-14,-36.6358,3.0283,-70.488,35.7072,19.8141,-30.3446,6.22706,7.12502,-3.65026,-23.7214,-3.18055e-14,-1.51076e-14,-35.7875,-11.1942,77.5025,24.1235,8.5954,-20.4747,20.8076,7.12502,5.88156,50.7059,-52.4441,8.77818,6.30433,64.1249,-26.5975,-4.79031,-9.38602,-49.1103,6.4095,-26.8069,62.473,-24.761,2.21832,1.70415
0.184022,16.7313,-14.9201,14.0211,-11.033,4.42356,27.0667,0.885664,-5.56013,4.44839,-0.778079,-2.64618,-10.0088,-0.235546,0.500572,-12.6746,-0.423906,-5.56411,-6.96298,0.259829,6.7931,-0.0567668,0.310388,3.19655,1.70955e-14,3.37934e-14,-36.9882,2.41713,-69.7203,34.535,20.5022,-30.4081,6.16717,7.12502,-3.71152,-23.7803,1.70955e-14,3.37934e-14,-36.4938,-11.1841,77.4194,23.4746,8.12561,-19.8432,20.6788,7.12502,6.4912,50.5593,-53.1387,8.64147,6.24625,64.7565,-26.7732,-4.92749,-9.08862,-49.8799,6.32792,-26.8573,63.0186,-24.8125,2.04603,1.99875
0.187157,16.6926,-14.9251,14.3035,-10.7389,4.48829,27.4658,0.785669,-5.48108,4.4974,-0.90685,-2.61048,-10.1521,-0.293916,0.539933,-12.8292,-0.471666,-5.61679,-7.32503,0.223075,6.77871,-0.146887,0.293999,3.20037,1.59028e-15,-4.01545e-14,-37.4234,1.78473,-68.9721,33.3776,21.1297,-30.2655,6.15124,7.12502,-3.57383,-23.7985,1.59028e-15,-4.01545e-14,-37.2082,-10.9408,77.1847,22.8192,7.49495,-19.1429,21.0314,7.12502,7.16725,50.89,-53.7449,8.43449,6.14319,65.3972,-26.9607,-5.06293,-8.67925,-50.5233,6.21089,-26.9845,63.5242,-24.9094,1.88792,2.42988
0.190396,16.6593,-14.9251,14.5033,-10.4825,4.60223,27.8637,0.698394,-5.4068,4.52708,-1.02635,-2.62135,-10.3178,-0.347805,0.527197,-12.707,-0.486241,-5.73698,-7.84171,0.237058,6.89599,-0.337194,0.301028,3.26326,-7.95139e-15,-5.96354e-15,-38.0503,1.36658,-68.2995,32.3804,21.5564,-29.879,5.9173,7.12502,-3.20064,-24.0384,-7.95139e-15,-5.96354e-15,-38.0068,-10.6239,76.8564,22.1394,6.83848,-18.8143,21.1769,7.12502,7.48442,51.0245,-54.2797,8.29534,5.98405,66.0452,-27.1317,-5.2916,-8.38845,-51.0208,6.09312,-27.1647,64.0049,-25.0979,1.76301,2.66531
0.193774,16.6205,-14.9268,14.7607,-10.2539,4.64455,27.8718,0.615219,-5.39118,4.82239,-1.10649,-2.57731,-9.97911,-0.395581,0.59874,-12.834,-0.463942,-5.80061,-8.5719,0.311434,6.93978,-0.561102,0.339809,3.29448,1.98785e-15,6.36111e-15,-38.2082,0.832239,-67.5988,31.3451,22.1634,-29.6479,5.27342,7.12502,-2.97742,-24.6855,1.98785e-15,6.36111e-15,-38.3983,-10.214,76.4637,21.5467,6.53008,-18.4204,21.1402,7.12502,7.86454,50.9739,-54.916,8.1919,5.91719,66.6927,-27.1523,-5.78013,-8.62899,-51.613,5.97058,-27.2602,64.5262,-25.243,1.63855,2.9315
0.19308,16.5675,-14.9317,15.1709,-9.99164,4.65332,28.1053,0.557574,-5.3233,4.85397,-1.16827,-2.52209,-10.0587,-0.423148,0.644565,-12.9086,-0.485255,-5.81398,-9.05384,0.30638,6.90965,-0.707292,0.337117,3.28743,-1.82882e-14,2.5842e-14,-38.7579,0.249707,-66.8571,30.3762,22.652,-29.5369,4.80737,7.12502,-2.87027,-25.1531,-1.82882e-14,2.5842e-14,-39.1169,-9.77498,75.9926,21.0594,6.08845,-17.6736,21.5948,7.12502,8.58535,51.4002,-55.7245,8.02636,5.9033,67.3558,-27.151,-6.41558,-9.74192,-52.4787,5.8139,-27.3063,65.1296,-25.3357,1.54636,2.70423
0.188842,16.5061,-14.9358,15.5633,-9.75765,4.7116,28.4704,0.538065,-5.3022,4.78022,-1.21349,-2.49571,-10.3261,-0.436162,0.678849,-12.972,-0.53441,-5.76527,-9.37633,0.248467,6.86192,-0.79924,0.306286,3.26034,-1.2921e-14,2.34566e-14,-39.5244,-0.257378,-66.1612,29.4859,22.8639,-29.3838,4.65125,7.12502,-2.72233,-25.3111,-1.2921e-14,2.34566e-14,-39.9845,-9.26717,75.4631,20.4665,5.08615,-17.4699,21.9688,7.12502,8.7819,51.7661,-56.4576,7.96073,5.78449,68.049,-27.3201,-6.96599,-11.0123,-53.3604,5.67998,-27.392,65.7991,-25.5192,1.41267,2.09664
0.183109,16.4508,-14.9395,15.9234,-9.45713,4.80385,28.8331,0.491729,-5.28797,4.78791,-1.28965,-2.46851,-10.4967,-0.466154,0.730315,-13.3179,-0.611867,-5.65421,-9.64397,0.152523,6.76514,-0.823924,0.258778,3.204,-3.39922e-14,-2.38542e-14,-40.1494,-0.853962,-65.4136,28.6135,23.2272,-28.9649,4.54597,7.12502,-2.31785,-25.4212,-3.39922e-14,-2.38542e-14,-40.7168,-8.90724,74.9922,19.7648,3.67432,-17.903,21.8853,7.12502,8.36393,51.6997,-57.1463,7.86905,5.62093,68.7705,-27.6241,-7.28214,-11.2004,-54.174,5.44716,-27.4776,66.462,-25.7361,1.32266,1.88551
0.179254,16.3971,-14.9452,16.35,-9.05998,5.00089,29.0823,0.368205,-5.2201,4.71034,-1.44652,-2.47077,-10.7068,-0.533167,0.747102,-13.0858,-0.680978,-5.80397,-10.1166,0.0918239,6.88669,-1.0147,0.227994,3.27434,-8.74653e-15,2.94201e-14,-40.9974,-1.35519,-64.6492,27.796,23.5933,-28.5403,4.18937,7.12502,-1.90772,-25.7818,-8.74653e-15,2.94201e-14,-41.529,-8.57435,74.5096,19.0397,2.41692,-17.9447,22.0177,7.12502,8.32375,51.8337,-57.962,7.60435,5.38047,69.5385,-27.8546,-7.62152,-11.1773,-55.0723,5.13118,-27.683,67.1035,-25.8627,1.24072,2.13779
0.176142,16.3416,-14.9486,16.7215,-8.70852,5.12608,29.0301,0.269863,-4.98442,4.87134,-1.49354,-2.53079,-10.5011,-0.570036,0.561109,-12.8011,-0.786217,-5.91763,-10.8728,-0.012642,7.01099,-1.30644,0.172237,3.34086,-7.15625e-15,-8.34896e-15,-41.5899,-2.34413,-63.8051,26.8249,24.206,-28.2844,4.09083,7.12502,-1.66064,-25.8824,-7.15625e-15,-8.34896e-15,-41.916,-8.17558,73.7719,18.4138,1.0711,-17.5424,22.2233,7.12502,8.71193,52.0235,-58.7061,7.44472,5.20431,70.2851,-28.0922,-7.94046,-11.1375,-55.9067,4.91458,-27.8323,67.7323,-26.0301,1.19437,1.73959
0.171781,16.2919,-14.9485,17.0604,-8.41476,5.14445,29.2106,0.233434,-4.83127,4.916,-1.49821,-2.49934,-10.5437,-0.575502,0.511621,-12.7427,-0.833256,-5.93576,-11.2963,-0.0608127,6.97569,-1.45456,0.146891,3.33403,3.97569e-16,1.90833e-14,-42.2989,-3.16188,-62.895,25.894,24.7259,-28.274,4.63962,7.12502,-1.65056,-25.3337,3.97569e-16,1.90833e-14,-42.5266,-7.5467,72.9824,17.9233,-0.525905,-17.1576,22.3414,7.12502,9.08331,52.1258,-59.3668,7.44896,5.10912,70.9749,-28.3871,-8.22102,-10.7705,-56.6565,4.77775,-27.8759,68.3484,-26.2123,1.174,0.764152
0.165574,16.2395,-14.9502,17.3976,-8.15751,5.23287,29.4393,0.2365,-4.79713,5.00407,-1.49228,-2.49215,-10.5579,-0.573403,0.499447,-12.9797,-0.898004,-5.85805,-11.6697,-0.132323,6.93881,-1.53553,0.111058,3.30744,5.56597e-15,2.96189e-14,-42.9525,-3.94497,-62.1042,25.2562,24.8188,-27.7691,4.33107,7.12502,-1.16292,-25.6455,5.56597e-15,2.96189e-14,-42.9787,-7.16843,72.3326,17.497,-0.815339,-17.2444,22.4461,7.12502,8.99954,52.2341,-60.0501,7.42211,4.95336,71.6446,-28.6508,-8.54779,-10.607,-57.3906,4.62519,-27.9736,68.9447,-26.4006,1.07228,0.535732
0.161075,16.1863,-14.9501,17.7111,-7.90282,5.35108,29.703,0.212045,-4.78304,5.07847,-1.53099,-2.49125,-10.6028,-0.590231,0.508444,-13.2694,-0.964358,-5.73135,-11.9493,-0.217406,6.84819,-1.5757,0.0674274,3.25121,-1.35174e-14,-8.94531e-15,-43.6009,-4.39485,-61.5426,24.7864,24.2089,-27.1914,3.44088,7.12502,-0.604947,-26.538,-1.35174e-14,-8.94531e-15,-43.5006,-6.733,71.6629,17.1982,-0.752689,-17.5443,22.5365,7.12502,8.71007,52.3368,-60.7071,7.36877,4.78133,72.3045,-28.8615,-9.0014,-10.6369,-58.0861,4.4551,-28.102,69.5222,-26.6072,0.938566,0.379405
0.159907,16.144,-14.942,17.9884,-7.74274,5.44201,29.9098,0.240818,-4.75063,5.03599,-1.49584,-2.46334,-10.7567,-0.570149,0.509298,-12.89,-1.0539,-5.80116,-12.3986,-0.330388,6.84332,-1.7823,0.00608843,3.26526,1.2921e-14,1.88845e-14,-44.5564,-4.79503,-60.8164,24.2866,23.5265,-27.1099,3.41391,7.12502,-0.526233,-26.5652,1.2921e-14,1.88845e-14,-44.2788,-6.06822,70.8692,16.7686,-1.98828,-17.933,22.5159,7.12502,8.33498,52.3315,-61.2709,7.41378,4.59019,72.9188,-29.0945,-9.39912,-10.736,-58.6535,4.34453,-28.2267,70.0518,-26.8523,0.873086,0.176948
0.156562,16.1006,-14.9373,18.267,-7.58498,5.53835,30.144,0.286592,-4.76041,5.02788,-1.45038,-2.42208,-10.8833,-0.544551,0.545858,-12.5863,-1.14071,-5.93866,-12.8707,-0.425209,6.88832,-1.98679,-0.0418516,3.3122,-1.61016e-14,-1.78906e-14,-45.3617,-5.38668,-59.9928,23.7468,22.9284,-26.7926,3.07871,7.12502,-0.219761,-26.9009,-1.61016e-14,-1.78906e-14,-44.8972,-5.64475,70.2604,16.2105,-3.09942,-18.4052,22.4176,7.12502,7.87923,52.2508,-61.8537,7.44678,4.39603,73.5441,-29.3597,-9.72667,-10.6636,-59.2411,4.23031,-28.348,70.5702,-27.066,0.747722,0.381332
0.147331,16.0501,-14.9401,18.5535,-7.28888,5.59947,30.4806,0.266983,-4.7872,5.0569,-1.49319,-2.34967,-11.0123,-0.557768,0.662334,-12.4662,-1.13316,-5.91806,-13.359,-0.408059,6.82953,-2.17516,-0.0361347,3.296,2.98177e-15,1.72943e-14,-45.8805,-5.91128,-59.3319,23.1448,22.3101,-26.3666,2.32004,7.12502,0.191675,-27.6596,2.98177e-15,1.72943e-14,-45.4006,-5.19311,69.6359,15.8501,-3.64905,-18.4851,22.6885,7.12502,7.80213,52.5246,-62.4678,7.42238,4.30846,74.1883,-29.5842,-10.1672,-10.6713,-59.8977,4.03098,-28.3644,71.1021,-27.2058,0.628474,0.488015
0.1409,16.0035,-14.9375,18.8319,-6.86041,5.70279,30.7396,0.169269,-4.70078,5.13251,-1.58904,-2.26702,-11.0487,-0.601238,0.745988,-12.5573,-1.16563,-5.96036,-13.6808,-0.435226,6.76524,-2.26896,-0.0457621,3.28542,-1.59028e-14,-2.127e-14,-46.3335,-6.47072,-58.6004,22.4059,22.3325,-26.9413,2.35818,7.12502,-0.363416,-27.6213,-1.59028e-14,-2.127e-14,-45.8223,-4.53013,68.8989,15.5798,-4.2412,-18.4337,22.7492,7.12502,7.85173,52.5834,-62.9779,7.28161,4.23718,74.8503,-29.8717,-10.6994,-10.7144,-60.504,3.68742,-28.3827,71.6119,-27.3499,0.575787,0.299376
0.132445,15.9535,-14.9309,19.0722,-6.41694,5.77664,31.1677,0.102233,-4.61337,4.78431,-1.66124,-2.14659,-10.8289,-0.628831,0.813449,-12.6981,-1.24083,-5.97125,-13.8709,-0.527468,6.6868,-2.30448,-0.0884644,3.25976,-9.74045e-15,-6.75868e-15,-46.8161,-6.81231,-58.0884,22.2764,20.3944,-24.7132,0.967704,7.12502,1.78861,-29.0045,-9.74045e-15,-6.75868e-15,-46.126,-3.75202,68.0258,15.2778,-4.68394,-18.0858,22.6112,7.12502,8.18756,52.4326,-63.3956,7.16807,4.21383,75.5349,-30.2938,-11.1369,-10.1652,-61.0554,3.36216,-28.3548,72.1309,-27.491,0.490823,0.322323
0.123018,15.9023,-14.9247,19.3125,-6.12898,5.94337,31.4404,0.110938,-4.67623,4.81049,-1.67912,-2.10783,-10.9085,-0.631382,0.895975,-12.8107,-1.30864,-5.82716,-14.0596,-0.633242,6.54531,-2.34302,-0.145304,3.18216,1.63003e-14,3.57812e-15,-47.3672,-7.44083,-57.414,21.8024,19.8162,-24.2612,0.419827,7.12502,2.22511,-29.5483,1.63003e-14,3.57812e-15,-46.4319,-3.07394,67.1437,14.9929,-5.27674,-18.7792,22.6013,7.12502,7.51831,52.4477,-63.9016,7.09504,4.03574,76.2036,-30.6422,-11.5307,-9.56198,-61.604,3.0658,-28.4446,72.6422,-27.6935,0.429837,0.628242
0.1176,15.8609,-14.9175,19.5585,-5.83594,6.05071,31.693,0.0720562,-4.65302,4.81594,-1.7272,-2.05716,-11.0042,-0.6499,0.956716,-12.7104,-1.34638,-5.82773,-14.3851,-0.680665,6.50535,-2.46931,-0.170219,3.17348,1.5207e-14,8.64713e-15,-47.8704,-8.14387,-56.6247,21.0585,20.5032,-25.1746,0.725508,7.12502,1.34298,-29.25,1.5207e-14,8.64713e-15,-46.9739,-2.67549,66.5826,14.8284,-6.11154,-21.8256,22.5063,7.12502,4.57721,52.4369,-64.3985,7.00641,3.91901,76.8235,-30.9076,-11.9915,-9.63809,-62.1119,2.75842,-28.4752,73.1461,-27.9256,0.342366,0.834376
0.116274,15.8198,-14.9074,19.8798,-5.63678,6.06332,31.7468,0.0361966,-4.5538,4.88493,-1.73121,-2.00499,-10.951,-0.655876,0.960303,-12.6537,-1.38117,-5.95446,-14.7555,-0.69952,6.55538,-2.60716,-0.174655,3.22222,-3.67752e-14,-3.75703e-14,-48.1843,-8.80284,-55.9737,20.4839,20.8301,-25.754,0.973717,7.12502,0.783373,-29.0046,-3.67752e-14,-3.75703e-14,-47.4257,-2.3205,66.1744,14.6355,-6.99918,-23.3093,22.5203,7.12502,3.14445,52.4768,-64.9714,6.97778,3.845,77.3938,-31.159,-12.3445,-9.91889,-62.7012,2.52721,-28.4561,73.6459,-28.1107,0.364831,0.461665
0.118665,15.7599,-14.9025,20.5726,-5.75356,6.01834,31.4041,0.117113,-4.55028,4.85686,-1.60624,-1.98674,-10.8452,-0.601739,0.929617,-12.6512,-1.43209,-6.03322,-14.9847,-0.749469,6.58321,-2.68473,-0.195909,3.25042,1.70955e-14,9.93923e-16,-48.5169,-9.6246,-55.1967,19.957,21.1303,-25.9673,1.15057,7.12502,0.577364,-28.8284,1.70955e-14,9.93923e-16,-47.711,-1.92791,65.7202,14.4337,-7.19569,-18.7893,23.2503,7.12502,7.50854,53.0971,-66.1514,7.00148,3.67248,77.9989,-31.2734,-12.47,-9.66089,-63.8251,2.47578,-28.4995,74.1948,-28.2339,0.423929,0.15952
0.11473,15.7128,-14.8898,20.9884,-5.28017,6.19535,31.4445,-0.0519457,-4.43192,4.81376,-1.77679,-1.94694,-10.9067,-0.679536,0.972308,-12.7211,-1.46444,-6.0361,-15.0104,-0.78795,6.58337,-2.67927,-0.21392,3.25004,9.44227e-15,2.26118e-14,-48.8907,-10.3246,-54.4833,19.3383,21.946,-26.5284,1.42377,7.12502,0.0354043,-28.556,9.44227e-15,2.26118e-14,-48.0303,-1.32235,65.0295,14.4828,-6.69497,-20.3838,23.0759,7.12502,5.96933,52.9718,-66.6916,6.63499,3.57327,78.5566,-31.561,-12.8009,-9.53382,-64.491,1.9312,-28.522,74.6103,-28.3557,0.385094,0.472122
0.110382,15.6723,-14.877,21.4314,-4.84981,6.16553,31.423,-0.217878,-4.20815,4.79719,-1.89919,-1.86412,-10.9177,-0.740575,0.986004,-12.8651,-1.4842,-6.00793,-15.087,-0.80825,6.57406,-2.6806,-0.223315,3.24127,-8.49804e-15,-1.12313e-14,-49.1508,-10.6216,-54.189,18.9479,22.3688,-26.9322,1.44306,7.12502,-0.354633,-28.5364,-8.49804e-15,-1.12313e-14,-48.4622,-0.997648,64.6482,14.5469,-6.63449,-17.7934,23.0918,7.12502,8.4697,52.902,-67.2356,6.44417,3.65991,79.0281,-31.7222,-13.4062,-9.67363,-65.1842,1.54992,-28.3658,75.0387,-28.5109,0.364067,0.480499
0.113577,15.656,-14.863,21.5283,-4.60653,6.15784,31.8501,-0.285746,-4.04845,4.83869,-1.94331,-1.79991,-11.0503,-0.761239,0.988934,-12.9034,-1.49637,-6.00537,-15.3546,-0.815506,6.5519,-2.76808,-0.22604,3.23797,2.5345e-15,2.21645e-14,-49.3516,-11.0111,-53.8625,18.7207,22.7266,-27.0507,1.11398,7.12502,-0.469028,-28.8652,2.5345e-15,2.21645e-14,-48.7157,-0.475365,64.2052,14.3642,-7.33708,-20.6064,21.6251,7.12502,5.75437,51.527,-67.3542,6.40858,3.69223,79.3432,-31.8518,-13.9078,-9.81947,-65.3803,1.28319,-28.2803,75.3693,-28.7759,0.431275,-0.0227884
0.109009,15.6249,-14.847,21.8847,-4.53276,6.18146,31.7971,-0.204926,-4.07483,4.89678,-1.83889,-1.76237,-10.9648,-0.714756,1.00259,-12.9331,-1.55424,-6.01718,-15.559,-0.880433,6.57867,-2.83077,-0.257634,3.25224,1.93815e-14,5.91384e-15,-49.6386,-11.6634,-53.4338,18.5495,23.6354,-27.0665,1.13777,7.12502,-0.484355,-28.8414,1.93815e-14,5.91384e-15,-48.7067,0.0768498,63.646,14.246,-7.54873,-19.7674,21.5417,7.12502,6.56433,51.42,-67.8819,6.3504,3.63354,79.7331,-31.983,-14.1284,-9.68552,-65.9314,1.1113,-28.2598,75.7985,-29.0207,0.42293,-0.195053
0.104898,15.5889,-14.8186,21.936,-4.17834,6.20702,32.12,-0.254831,-3.91438,4.95819,-1.84994,-1.68351,-11.0315,-0.721987,1.007,-12.924,-1.62855,-6.06475,-15.7145,-0.971136,6.57491,-2.881,-0.300398,3.26123,-7.01958e-15,-3.98812e-15,-49.8691,-12.328,-52.9322,18.3743,24.4946,-26.4848,1.40358,7.12502,0.0775367,-28.5761,-7.01958e-15,-3.98812e-15,-48.7657,0.586743,63.2428,14.1645,-7.62134,-19.4431,21.9938,7.12502,6.87743,51.8621,-67.9077,6.17017,3.71867,80.2178,-32.4944,-14.061,-9.0708,-66.0962,0.758499,-28.1492,76.2291,-29.3324,0.577574,-1.15573
0.0988641,15.5338,-14.7903,22.1372,-3.83386,6.10672,32.378,-0.322631,-3.7374,4.93623,-1.86964,-1.5466,-11.1627,-0.731392,1.06847,-12.9896,-1.64541,-5.97726,-15.8382,-1.00623,6.46124,-2.91133,-0.319821,3.20552,-7.13994e-16,9.72802e-15,-49.9839,-12.6027,-52.7246,17.9313,26.0932,-28.2537,2.18984,7.12502,-1.63094,-27.7837,-7.13994e-16,9.72802e-15,-48.9747,1.08126,62.9651,14.1448,-7.75588,-18.2031,23.0071,7.12502,8.07431,52.8328,-68.2033,6.06305,3.89727,80.8381,-33.0036,-14.0253,-8.28851,-66.5412,0.467778,-27.9088,76.7481,-29.5663,0.70598,-2.13133
0.0960058,15.4854,-14.7683,22.4051,-3.52998,6.16395,32.6162,-0.379079,-3.68447,4.89092,-1.92079,-1.45057,-11.307,-0.750482,1.16502,-13.1471,-1.63917,-5.95715,-15.924,-0.98829,6.45356,-2.91685,-0.309076,3.1998,1.82633e-15,1.00138e-14,-49.9799,-12.7859,-52.6717,17.5838,27.2617,-28.9696,2.46841,7.12502,-2.32231,-27.4987,1.82633e-15,1.00138e-14,-49.1894,1.2364,63.0122,14.3032,-7.35272,-17.9912,23.4341,7.12502,8.27878,53.2519,-68.5986,5.84692,3.91608,81.4156,-33.2603,-14.3118,-8.38778,-67.0364,0.103336,-27.8293,77.2095,-29.7374,0.659293,-2.01008
0.0970717,15.4508,-14.7461,22.6614,-3.28092,6.23225,32.8552,-0.446293,-3.56314,4.85576,-1.97264,-1.43881,-11.4458,-0.773346,1.13572,-13.0967,-1.64077,-5.96015,-16.2048,-0.974903,6.52674,-3.02651,-0.303722,3.2336,-2.69602e-14,-1.38155e-14,-49.9266,-12.9675,-52.771,17.2553,28.2739,-28.9503,2.47291,7.12502,-2.30369,-27.4944,-2.69602e-14,-1.38155e-14,-49.305,0.919479,63.4131,14.5246,-6.49906,-18.3154,24.035,7.12502,7.96596,53.8649,-68.9572,5.63951,3.91935,81.8729,-33.373,-14.8583,-9.09883,-67.4502,-0.270525,-27.7705,77.6484,-30.0013,0.646101,-1.69889
