JuanDHNZ/ProyectoFinalCD/preprocessing/sports_trials_csv/13_12.csv
root1,root2,root3,root4,root5,root6,lowerback1,lowerback2,lowerback3,upperback1,upperback2,upperback3,thorax1,thorax2,thorax3,lowerneck1,lowerneck2,lowerneck3,upperneck1,upperneck2,upperneck3,head1,head2,head3,rclavicle1,rclavicle2,rhumerus1,rhumerus2,rhumerus3,rradius1,rwrist1,rhand1,rhand2,rfingers1,rthumb1,rthumb2,lclavicle1,lclavicle2,lhumerus1,lhumerus2,lhumerus3,lradius1,lwrist1,lhand1,lhand2,lfingers1,lthumb1,lthumb2,rfemur1,rfemur2,rfemur3,rtibia1,rfoot1,rfoot2,rtoes1,lfemur1,lfemur2,lfemur3,ltibia1,lfoot1,lfoot2,ltoes1
-4.71702,18.507,2.76757,-14.9953,-78.7349,17.9939,0.870343,2.64271,-5.59758,-0.485078,3.37655,-2.72967,-1.14762,1.69598,0.256217,-12.8883,-0.477721,-4.91838,8.02017,-0.518945,6.66497,4.53356,0.00251505,2.83031,2.62893e-14,-2.22639e-14,-35.9153,5.92098,-83.4572,31.8649,13.0733,-30.1121,-2.9806,7.12502,-3.42567,-32.9328,2.62893e-14,-2.22639e-14,-33.2973,17.1153,71.7662,22.7893,-5.7951,-19.8098,23.9195,7.12502,6.52347,53.7991,-9.23582,18.3556,14.3462,31.544,-26.9268,-21.2663,3.01802,-9.95603,-8.5211,-22.7665,26.5262,-17.0683,13.0244,-8.69448
-4.71889,18.5073,2.77186,-15.583,-78.7443,18.642,0.797609,2.65435,-5.71599,-0.495065,3.39325,-2.78832,-1.12145,1.70361,0.264298,-12.9079,-0.503305,-4.89187,8.00585,-0.554244,6.64278,4.53438,-0.0151331,2.81632,2.71838e-14,-3.4191e-14,-35.8949,5.97496,-83.442,31.9701,12.7809,-30.0153,-1.09226,7.12502,-3.33226,-31.046,2.71838e-14,-3.4191e-14,-33.2458,16.9377,71.6804,22.7209,-5.55503,-19.8174,24.0116,7.12502,6.51609,53.8914,-9.32961,18.4829,14.1864,31.6419,-27.0509,-21.2763,3.06597,-9.94079,-8.3978,-22.9025,26.4245,-17.0486,12.9464,-8.57981
-4.72073,18.5068,2.77474,-16.2494,-78.7634,19.3463,0.753387,2.67011,-5.88183,-0.505089,3.41315,-2.82022,-1.11597,1.71377,0.324335,-12.8644,-0.551582,-4.94159,7.91922,-0.61295,6.6841,4.50443,-0.0442529,2.83205,-1.51076e-14,9.54166e-15,-35.8998,6.03351,-83.3835,32.1315,12.333,-28.8713,4.73789,7.12502,-2.22742,-25.2302,-1.51076e-14,9.54166e-15,-33.2564,16.9013,71.5343,22.6636,-5.64983,-19.6352,23.9793,7.12502,6.69199,53.8536,-9.38018,18.6303,14.0326,31.6891,-27.1446,-21.3163,3.28452,-9.95105,-8.29168,-23.0398,26.3894,-17.0384,12.874,-8.43679
-4.72058,18.5044,2.77796,-16.5033,-78.7614,19.5839,0.800007,2.66191,-5.96141,-0.520447,3.39594,-2.8169,-1.16209,1.70673,0.369076,-12.8213,-0.592878,-5.03158,7.8396,-0.65861,6.75411,4.47622,-0.0664173,2.86444,5.93869e-14,-3.97569e-14,-35.8641,5.92948,-83.1891,32.1718,12.3351,-28.4098,4.95808,7.12502,-1.78175,-25.0142,5.93869e-14,-3.97569e-14,-33.3283,16.9457,71.3507,22.6928,-5.86804,-19.3267,23.9761,7.12502,6.98979,53.8407,-9.37955,18.6703,13.9723,31.7185,-27.1847,-21.2831,3.57866,-9.93901,-8.13802,-23.0944,26.3787,-16.9893,12.7608,-8.52011
-4.71586,18.5023,2.77858,-16.2087,-78.7771,19.2185,0.970316,2.65214,-5.95026,-0.532774,3.3696,-2.76555,-1.27144,1.69674,0.407172,-12.8538,-0.607339,-5.12824,7.83752,-0.666404,6.81582,4.48194,-0.0689155,2.89916,1.44864e-14,-1.59028e-14,-35.7742,5.68418,-82.8801,32.1711,12.7042,-29.4602,-0.701601,7.12502,-2.79617,-30.663,1.44864e-14,-1.59028e-14,-33.3888,17.1532,71.177,22.7385,-5.88506,-19.4535,23.868,7.12502,6.8674,53.7366,-9.33482,18.8047,14.0859,31.7187,-27.1811,-21.4269,3.4566,-9.913,-7.94541,-23.0155,26.3876,-16.8735,12.6432,-9.05919
-4.71148,18.5019,2.78286,-15.748,-78.8261,18.6692,1.13187,2.6498,-5.84506,-0.534478,3.35657,-2.72149,-1.35957,1.69217,0.386492,-12.8493,-0.622496,-5.19477,7.77329,-0.676661,6.85476,4.46246,-0.0740616,2.92095,-4.70623e-14,3.18055e-14,-35.658,5.51757,-82.6671,32.2056,12.9831,-29.5206,-2.4623,7.12502,-2.85445,-32.4229,-4.70623e-14,3.18055e-14,-33.3963,16.9429,71.238,22.7968,-5.05188,-20.5057,23.7893,7.12502,5.85156,53.6885,-9.2589,18.8581,14.2328,31.6898,-27.1249,-21.5146,3.33828,-9.86211,-7.99842,-22.9162,26.4193,-16.8858,12.7113,-9.14063
-4.71599,18.501,2.79782,-16.0346,-78.9253,18.8623,1.13848,2.65351,-5.71452,-0.495866,3.36444,-2.76929,-1.31327,1.6932,0.266316,-12.8344,-0.624277,-5.10456,7.69716,-0.682662,6.76809,4.43634,-0.0801829,2.87786,-3.23522e-14,3.10104e-14,-35.5478,5.49023,-82.586,32.3078,13.2884,-29.21,-2.98445,7.12502,-2.55448,-32.9489,-3.23522e-14,3.10104e-14,-33.3608,16.6205,71.2204,22.8014,-4.268,-21.2536,23.8286,7.12502,5.12953,53.7466,-9.11928,18.7619,14.1897,31.6594,-27.0805,-21.3291,3.32337,-9.69547,-8.18528,-23.0244,26.4437,-16.9632,13.0062,-9.1729
-4.71988,18.4996,2.80618,-16.0494,-78.9923,18.8134,1.13494,2.63398,-5.61415,-0.466731,3.34167,-2.79635,-1.27267,1.67973,0.185149,-12.6993,-0.625374,-4.99471,7.45102,-0.684115,6.64072,4.33783,-0.088855,2.81739,2.76062e-14,-2.3059e-14,-35.5281,5.73074,-82.6207,32.5438,13.1066,-29.0959,-3.63238,7.12502,-2.44433,-33.5981,2.76062e-14,-2.3059e-14,-33.4144,17.1867,70.5735,22.7344,-5.85498,-19.5548,23.8567,7.12502,6.76956,53.7285,-9.01134,18.7454,14.2132,31.6464,-27.1348,-21.2131,3.23337,-9.55601,-8.24002,-23.0347,26.4388,-17.1271,13.0378,-8.67039
-4.71828,18.5011,2.80662,-16.2923,-78.9067,19.1216,1.15672,2.57461,-5.75849,-0.505836,3.25547,-2.7913,-1.32991,1.6392,0.270163,-12.5457,-0.630869,-5.0898,7.23166,-0.672438,6.64905,4.24503,-0.0890422,2.83411,3.91606e-14,-4.13472e-14,-35.4818,5.96733,-82.5585,32.6464,12.8925,-29.0087,-3.85154,7.12502,-2.36011,-33.8182,3.91606e-14,-4.13472e-14,-33.3927,16.5342,70.8696,22.8626,-4.05258,-21.5223,23.9958,7.12502,4.87002,53.9198,-9.05444,18.7448,14.1149,31.6364,-27.1391,-21.261,3.11031,-9.63311,-8.2783,-23.0976,26.4459,-17.1795,12.9157,-8.21734
-4.71961,18.5005,2.80958,-16.7956,-78.8661,19.6993,1.1027,2.55073,-5.93686,-0.522691,3.22257,-2.8073,-1.32466,1.62361,0.355173,-12.5409,-0.643186,-5.20783,7.16446,-0.677343,6.75504,4.22481,-0.0891849,2.88563,1.72446e-14,-3.65764e-14,-35.394,6.0528,-82.4157,32.7327,12.7901,-28.8844,-2.60124,7.12502,-2.24002,-32.5692,1.72446e-14,-3.65764e-14,-33.4442,17.126,70.3103,22.8459,-5.6636,-20.2409,24.0007,7.12502,6.10723,53.8926,-9.10417,18.7178,13.9454,31.5928,-27.0561,-21.2783,3.0539,-9.74768,-8.25683,-23.2388,26.5252,-17.1297,12.9876,-8.68814
-4.71623,18.502,2.80752,-15.5097,-78.8863,18.5246,1.06181,2.53296,-5.82282,-0.568787,3.20412,-2.75491,-1.3448,1.61572,0.347153,-12.5816,-0.679192,-5.08482,7.10133,-0.735829,6.6888,4.21507,-0.118153,2.84028,-6.79098e-14,2.3059e-14,-35.3418,6.08536,-82.2992,32.8708,12.4323,-29.5994,1.83315,7.12502,-2.93057,-28.1265,-6.79098e-14,2.3059e-14,-33.3749,17.31,69.9613,22.887,-6.15045,-19.6569,23.9579,7.12502,6.67108,53.8328,-9.26414,18.8405,14.1707,31.5677,-27.1246,-21.4132,3.2364,-9.97284,-8.25816,-22.9548,26.5718,-17.0546,12.9902,-8.78671
-4.71266,18.5048,2.80577,-13.3011,-78.9393,16.397,1.03093,2.5166,-5.48001,-0.612698,3.19311,-2.66534,-1.35781,1.61054,0.250406,-12.6254,-0.761091,-5.06134,7.03296,-0.846651,6.69948,4.2081,-0.171287,2.83141,8.69683e-15,-7.15625e-15,-35.2512,5.95756,-82.0982,32.9162,12.3732,-29.1937,-1.26061,7.12502,-2.53873,-31.2252,8.69683e-15,-7.15625e-15,-33.205,16.616,70.1517,23.0518,-4.48008,-20.7815,24.0491,7.12502,5.58528,53.9555,-9.3986,18.9628,14.6139,31.5494,-27.1264,-21.6111,3.23105,-10.1606,-8.33818,-22.4623,26.5864,-17.0339,13.0019,-8.56611
-4.72306,18.5032,2.81781,-14.9032,-78.9719,17.9588,0.941119,2.55229,-5.68229,-0.539919,3.24336,-2.78939,-1.23919,1.63155,0.240061,-12.78,-0.842554,-5.16296,7.08237,-0.947418,6.81951,4.25586,-0.214056,2.879,1.83379e-14,3.65764e-14,-35.1569,5.92431,-81.9887,33.109,12.4491,-28.6831,-0.754672,7.12502,-2.04569,-30.7246,1.83379e-14,3.65764e-14,-33.0917,16.6179,69.7797,23.0938,-5.26178,-19.3926,23.6515,7.12502,6.92615,53.5182,-9.28757,18.861,14.2544,31.5498,-27.1258,-21.3593,3.25399,-9.9774,-8.46414,-22.8634,26.5774,-17.1806,13.2284,-8.62755
-4.73203,18.4995,2.83009,-16.8835,-79.0031,19.8634,0.90975,2.61599,-5.98867,-0.464324,3.32494,-2.90372,-1.15872,1.66911,0.29332,-12.8111,-0.924459,-5.2083,7.02842,-1.04907,6.84819,4.25115,-0.263577,2.88762,-1.23743e-14,1.03368e-14,-35.1121,5.92597,-81.881,33.4105,12.2163,-28.1368,4.46993,7.12502,-1.51808,-25.5044,-1.23743e-14,1.03368e-14,-32.8952,15.2285,70.3937,23.3776,-2.40583,-22.0425,23.7583,7.12502,4.36777,53.6932,-9.1527,18.8381,13.855,31.5716,-27.1383,-21.2344,3.01507,-9.74047,-8.59004,-23.3326,26.5288,-17.2707,13.4404,-8.58264
-4.73147,18.4978,2.83575,-17.2283,-79.0251,20.1538,0.974625,2.62909,-6.05641,-0.43227,3.33688,-2.91269,-1.16612,1.67483,0.318837,-12.8163,-0.966183,-5.25812,6.9491,-1.09816,6.89811,4.23141,-0.286745,2.90723,3.50606e-14,-5.00937e-14,-34.9701,5.73433,-81.6243,33.56,12.2452,-28.1421,4.8374,7.12502,-1.52319,-25.1369,3.50606e-14,-5.00937e-14,-32.787,14.6712,70.52,23.6418,-1.14433,-22.9699,23.8411,7.12502,3.47219,53.7926,-9.11573,18.8986,13.8155,31.6239,-27.0711,-21.3747,2.52763,-9.6231,-8.60049,-23.4119,26.4385,-17.279,13.4313,-8.07871
-4.73141,18.4965,2.84096,-17.2863,-79.0314,20.1766,1.00631,2.61092,-6.03602,-0.406076,3.31074,-2.94618,-1.15242,1.66051,0.273294,-12.8545,-0.977606,-5.31736,6.89571,-1.11396,7.03393,4.22367,-0.288281,2.95794,1.91827e-14,1.35174e-14,-34.8437,5.74119,-81.5104,33.7668,12.1863,-28.3341,4.24924,7.12502,-1.70863,-25.7237,1.91827e-14,1.35174e-14,-32.7478,15.1286,69.9742,23.7611,-2.04227,-21.9523,23.6959,7.12502,4.45487,53.629,-9.07711,18.9473,13.8045,31.636,-27.1859,-21.3017,2.84792,-9.59181,-8.44128,-23.4312,26.4292,-17.2406,13.3224,-8.36782
-4.7317,18.4974,2.8467,-16.4886,-79.0505,19.4686,0.913017,2.58127,-5.88449,-0.414092,3.28175,-2.95452,-1.09764,1.64442,0.186559,-12.8514,-1.00596,-5.332,6.75377,-1.1542,7.13369,4.18323,-0.304136,2.98758,-3.4837e-14,-1.59028e-15,-34.7113,5.74448,-81.3544,33.9689,12.1679,-28.265,4.40416,7.12502,-1.64187,-25.5693,-3.4837e-14,-1.59028e-15,-32.7731,16.3922,68.9178,23.7905,-5.37972,-19.1145,23.4591,7.12502,7.19461,53.3168,-9.16945,19.0045,13.9012,31.6139,-27.3151,-21.2683,3.351,-9.75086,-8.3287,-23.2711,26.4878,-17.2159,13.1891,-8.60995
-4.73173,18.4984,2.85588,-15.6788,-79.1094,18.7932,0.787518,2.59819,-5.70323,-0.464144,3.31559,-2.95446,-1.06984,1.6609,0.0905734,-12.7486,-1.06834,-5.29453,6.61443,-1.24071,7.11669,4.12914,-0.349668,2.96866,-2.82771e-14,-2.38542e-15,-34.6264,5.60781,-81.0394,34.0968,12.2262,-28.1246,5.79099,7.12502,-1.5063,-24.1834,-2.82771e-14,-2.38542e-15,-32.694,15.4679,69.1546,24.2563,-3.64197,-20.2365,23.7543,7.12502,6.1115,53.6462,-9.32834,18.9265,13.9646,31.5674,-27.1888,-21.2942,3.01279,-9.9649,-8.149,-23.1109,26.5783,-17.2358,13.0359,-8.69668
-4.73191,18.4986,2.8644,-15.9097,-79.1867,19.0973,0.740802,2.65674,-5.73452,-0.504885,3.39397,-2.97098,-1.08997,1.70086,0.0899413,-12.5925,-1.12734,-5.30793,6.45049,-1.31464,7.09877,4.05829,-0.39143,2.95863,-5.73991e-15,4.6118e-14,-34.5147,5.2813,-80.6321,34.1586,12.4218,-27.9926,6.55395,7.12502,-1.37879,-23.4213,-5.73991e-15,4.6118e-14,-32.6192,14.7297,69.3318,24.7485,-2.04168,-20.9717,24.0704,7.12502,5.40163,53.9816,-9.39245,18.9318,13.8565,31.5043,-27.1391,-21.2671,2.96622,-10.0843,-7.98174,-23.1602,26.6861,-17.3358,12.9143,-8.45596
-4.7311,18.4982,2.87175,-15.6784,-79.2405,18.9143,0.712675,2.64674,-5.71251,-0.526325,3.38263,-2.95575,-1.09539,1.69574,0.0944427,-12.5403,-1.12143,-5.25581,6.35146,-1.30707,7.03726,4.0182,-0.391418,2.93082,1.97045e-14,1.19271e-14,-34.3468,4.93821,-80.2174,34.2042,12.7749,-28.3709,3.46507,7.12502,-1.74414,-26.5076,1.97045e-14,1.19271e-14,-32.6612,15.3007,68.7406,25.0089,-3.62026,-19.56,24.1117,7.12502,6.76457,53.9837,-9.43552,18.8351,13.8444,31.4293,-27.0835,-21.1631,2.83867,-10.1973,-7.96061,-23.1269,26.7965,-17.3364,12.9855,-8.7989
-4.73227,18.4975,2.88141,-15.1053,-79.297,18.3116,0.713137,2.5996,-5.5619,-0.506096,3.32482,-2.9217,-1.0654,1.66593,0.0484546,-12.5765,-1.1051,-5.31348,6.32372,-1.27394,7.0505,4.01394,-0.375355,2.94665,-6.11263e-15,2.3059e-14,-34.195,5.06209,-79.9891,34.4396,12.745,-27.8887,9.16888,7.12502,-1.27843,-20.807,-6.11263e-15,2.3059e-14,-32.6186,14.7184,68.8435,25.3707,-2.03987,-21.6806,23.9324,7.12502,4.71717,53.8599,-9.38269,18.7453,13.9448,31.3697,-26.9591,-21.0801,2.61163,-10.2073,-7.93025,-23.0236,26.8681,-17.3596,12.9949,-8.86011
-4.73713,18.4979,2.89523,-15.2428,-79.438,18.3547,0.728841,2.60709,-5.47628,-0.464884,3.33734,-2.92124,-1.02728,1.67056,0.00199015,-12.501,-1.09756,-5.39827,6.16518,-1.25359,7.13055,3.95316,-0.365682,2.98586,4.73604e-14,7.95139e-15,-34.0884,5.24045,-79.8017,34.877,12.6331,-28.201,8.35006,7.12502,-1.58001,-21.6238,4.73604e-14,7.95139e-15,-32.5613,14.9016,68.3623,25.6104,-2.45994,-21.7532,23.4893,7.12502,4.64711,53.4183,-9.26414,18.7583,13.9449,31.3299,-26.8236,-21.025,2.24251,-10.077,-7.85967,-23.0501,26.9117,-17.6115,12.9331,-7.92111
-4.74334,18.4968,2.9087,-15.9495,-79.5511,19.0167,0.703975,2.63558,-5.54317,-0.446342,3.37623,-2.94654,-0.998272,1.689,0.0138605,-12.375,-1.10958,-5.46284,5.99306,-1.26449,7.21163,3.88204,-0.371949,3.0197,4.73108e-14,-5.56597e-15,-34.0114,5.33844,-79.5593,35.361,12.6432,-28.1049,7.31451,7.12502,-1.48726,-22.6601,4.73108e-14,-5.56597e-15,-32.4926,14.9816,67.9505,25.8751,-2.75698,-21.4484,23.3128,7.12502,4.9414,53.2352,-9.2037,18.7929,13.7989,31.3095,-26.877,-20.8797,2.36118,-9.96804,-7.88781,-23.2178,26.9331,-17.7654,13.0287,-7.40809
-4.7476,18.4954,2.91597,-16.6587,-79.5705,19.7276,0.659473,2.63257,-5.74916,-0.413304,3.37441,-2.93648,-0.951968,1.68742,0.14099,-12.4235,-1.16739,-5.54365,5.97786,-1.32895,7.24354,3.89028,-0.403238,3.03834,1.20762e-14,1.59028e-14,-33.8949,5.59438,-79.3433,35.9879,12.536,-27.8867,6.18756,7.12502,-1.27653,-23.7884,1.20762e-14,1.59028e-14,-32.4203,14.8396,67.7867,26.303,-2.38303,-21.3262,23.3136,7.12502,5.05937,53.2332,-9.19919,18.7917,13.6428,31.3184,-26.917,-20.8573,2.4126,-9.93131,-7.80365,-23.3845,26.9313,-17.7422,13.0417,-7.74418
-4.74998,18.4939,2.92082,-16.7851,-79.6214,19.845,0.643686,2.65866,-5.79126,-0.387279,3.41049,-2.95988,-0.919028,1.70415,0.141009,-12.5149,-1.23543,-5.5467,5.99663,-1.41938,7.26863,3.9171,-0.444933,3.04049,-1.42628e-14,2.78299e-14,-33.739,5.68424,-79.1396,36.4935,12.4334,-27.6669,5.59448,7.12502,-1.06417,-24.3826,-1.42628e-14,2.78299e-14,-32.2713,14.5308,67.5946,26.7978,-1.99998,-21.232,23.5235,7.12502,5.15036,53.4409,-9.1947,18.7563,13.6244,31.3355,-26.8412,-20.8669,2.00526,-9.90172,-7.74096,-23.4161,26.927,-17.7455,13.0903,-7.93467
-4.75162,18.4922,2.92684,-16.7578,-79.7154,19.8179,0.629975,2.69391,-5.77924,-0.384033,3.45855,-2.9721,-0.908706,1.72765,0.121586,-12.5424,-1.27653,-5.48201,5.98747,-1.47739,7.20163,3.92149,-0.475177,3.0049,-1.45113e-14,9.54166e-15,-33.5636,5.63306,-78.7869,36.8089,12.413,-27.5854,6.42907,7.12502,-0.985464,-23.5484,-1.45113e-14,9.54166e-15,-32.132,14.2425,67.3552,27.2598,-1.72315,-21.0434,23.4646,7.12502,5.33245,53.3776,-9.20429,18.8716,13.6417,31.346,-26.9376,-20.9219,1.8622,-9.89193,-7.73629,-23.4135,26.943,-17.775,13.2097,-8.25865
-4.75296,18.4933,2.93099,-16.4212,-79.7847,19.5117,0.618606,2.71051,-5.74073,-0.413557,3.48127,-2.9483,-0.932895,1.74013,0.123872,-12.4375,-1.30074,-5.42561,5.85981,-1.50647,7.08372,3.86584,-0.497186,2.95621,4.89507e-15,3.49861e-14,-33.368,5.29549,-78.2904,37.0706,12.6387,-27.6748,7.15033,7.12502,-1.07186,-22.8267,4.89507e-15,3.49861e-14,-32.0073,14.0376,67.1003,27.6276,-1.51204,-20.951,23.1735,7.12502,5.42162,53.0841,-9.23539,19.0182,13.7043,31.3421,-26.9359,-21.0325,1.68904,-9.94499,-7.66321,-23.3413,26.9789,-17.7658,13.1888,-8.4178
-4.75227,18.4949,2.93704,-15.711,-79.84,18.8714,0.593169,2.68626,-5.65797,-0.464874,3.45142,-2.88749,-0.968863,1.72728,0.14091,-12.3887,-1.29738,-5.45611,5.83197,-1.49267,7.03383,3.84821,-0.494615,2.94651,-2.85256e-14,2.22639e-14,-33.1986,5.23044,-77.9125,37.5048,12.6605,-27.9061,7.034,7.12502,-1.29519,-22.9418,-2.85256e-14,2.22639e-14,-31.9977,13.7794,66.9007,28.1288,-1.20912,-20.889,23.3729,7.12502,5.48151,53.282,-9.33211,18.9756,13.7725,31.3356,-26.8899,-20.8893,1.84411,-10.0517,-7.57684,-23.2001,27.0131,-17.8169,13.0744,-8.02104
-4.75187,18.4946,2.94911,-15.794,-79.8936,18.9561,0.595137,2.66287,-5.62782,-0.462883,3.42061,-2.88963,-0.964605,1.71166,0.122784,-12.3725,-1.29339,-5.51543,5.77202,-1.48382,7.11876,3.82803,-0.488025,2.98293,-1.07095e-14,2.38542e-15,-33.0422,5.47746,-77.6319,38.0954,12.4243,-27.9697,6.87303,7.12502,-1.35662,-23.1024,-1.07095e-14,2.38542e-15,-31.9429,13.4581,66.6707,28.7204,-0.749854,-20.7152,23.5365,7.12502,5.64936,53.4412,-9.35626,18.7875,13.692,31.3118,-26.7832,-20.621,2.10925,-10.0622,-7.63894,-23.2561,27.0638,-17.8324,13.1926,-8.14837
-4.75604,18.4925,2.9645,-16.3046,-79.9842,19.3934,0.612741,2.66982,-5.61446,-0.416425,3.43,-2.92848,-0.923873,1.7143,0.0760526,-12.4114,-1.31656,-5.5376,5.69593,-1.51593,7.21644,3.81448,-0.499462,3.01433,-8.77137e-15,-1.59028e-15,-32.896,5.73157,-77.3487,38.7583,12.0832,-27.8594,6.64227,7.12502,-1.25014,-23.3338,-8.77137e-15,-1.59028e-15,-31.8049,13.2334,66.3815,29.2821,-0.289745,-20.6636,23.3972,7.12502,5.69917,53.3006,-9.25542,18.6801,13.577,31.2638,-26.7347,-20.3996,2.10782,-9.95458,-7.83057,-23.4088,27.1416,-17.9631,13.5082,-8.29447
-4.75788,18.4919,2.97824,-15.8676,-80.0342,18.9237,0.634181,2.6339,-5.47505,-0.398431,3.38315,-2.94748,-0.905952,1.68971,-0.0196621,-12.3761,-1.31694,-5.41635,5.53065,-1.53383,7.24313,3.75916,-0.506585,3.00072,-2.01518e-14,-2.70347e-14,-32.7075,6.02736,-77.1259,39.3892,11.8231,-27.6098,6.06371,7.12502,-1.00907,-23.9137,-2.01518e-14,-2.70347e-14,-31.6573,12.9041,66.0593,29.8957,0.43066,-20.7514,23.4291,7.12502,5.61438,53.3347,-9.18283,18.5365,13.6163,31.2001,-26.6991,-20.1921,1.97811,-9.93158,-7.99623,-23.3777,27.2331,-18.1516,13.6248,-7.80387
-4.75539,18.4919,2.98958,-14.8199,-80.0577,17.8822,0.698151,2.57146,-5.29262,-0.431146,3.29779,-2.89665,-0.964494,1.64879,-0.0705009,-12.2713,-1.30789,-5.44744,5.3918,-1.52411,7.34252,3.70066,-0.50072,3.03665,-5.04913e-14,2.94201e-14,-32.5063,6.25568,-76.794,39.963,11.6779,-27.7898,5.82822,7.12502,-1.18291,-24.1482,-5.04913e-14,2.94201e-14,-31.5522,12.7552,65.7075,30.4437,0.796849,-20.6223,23.6405,7.12502,5.73898,53.5428,-9.18255,18.2327,13.754,31.1339,-26.5604,-19.9809,2.07792,-9.99517,-8.03299,-23.2161,27.3302,-18.2257,13.6036,-7.66814
-4.75654,18.4905,3.00012,-14.2911,-80.1139,17.2824,0.794463,2.52401,-5.22409,-0.4416,3.23042,-2.80952,-1.02778,1.61734,-0.0225656,-12.1297,-1.30915,-5.5488,5.24577,-1.51334,7.39643,3.63392,-0.498695,3.06997,7.37988e-15,2.62396e-14,-32.3175,6.53733,-76.4007,40.5855,11.3918,-28.1341,6.34424,7.12502,-1.5154,-23.6301,7.37988e-15,2.62396e-14,-31.5244,12.6974,65.4188,31.0307,1.05455,-20.6741,23.6326,7.12502,5.68905,53.5362,-9.07793,18.0905,13.8571,31.0695,-26.4471,-19.8037,2.20253,-9.96311,-7.97431,-23.1289,27.4359,-18.3653,13.5302,-7.63983
-4.75837,18.4887,3.01084,-14.4234,-80.1692,17.3945,0.820082,2.50182,-5.2358,-0.454082,3.19905,-2.77462,-1.05642,1.60283,0.0187679,-12.008,-1.32106,-5.6581,5.1141,-1.5142,7.43467,3.57547,-0.502793,3.09903,6.4605e-15,-2.38542e-15,-32.0838,6.49225,-75.9639,41.192,11.2656,-28.0018,7.06927,7.12502,-1.38766,-22.906,6.4605e-15,-2.38542e-15,-31.485,12.6039,65.1518,31.6974,1.41375,-20.6695,23.6662,7.12502,5.69341,53.5697,-9.0321,18.1819,13.8217,31.0326,-26.5174,-19.766,2.46772,-9.97379,-7.81894,-23.1637,27.5252,-18.4344,13.4307,-7.64533
-4.75943,18.4872,3.01951,-14.5228,-80.218,17.497,0.836573,2.48206,-5.26755,-0.457415,3.17094,-2.76406,-1.07036,1.58934,0.0469011,-11.9368,-1.32679,-5.72438,4.96594,-1.51236,7.48647,3.51993,-0.50337,3.12538,-2.67614e-14,-6.36111e-15,-31.8285,6.32651,-75.5129,41.8525,11.3815,-28.2471,6.54731,7.12502,-1.62458,-23.4262,-2.67614e-14,-6.36111e-15,-31.4012,12.4743,64.8405,32.4496,1.8699,-20.5776,23.7212,7.12502,5.78214,53.6223,-9.04215,18.3265,13.8055,31.0267,-26.5569,-19.8895,2.22689,-9.99588,-7.78464,-23.1856,27.5795,-18.5012,13.3759,-7.4216
-4.76122,18.487,3.02467,-14.3088,-80.3198,17.2616,0.866252,2.4726,-5.27366,-0.447387,3.15702,-2.74412,-1.07757,1.58264,0.0699434,-11.9409,-1.36483,-5.80456,4.86575,-1.5561,7.59921,3.49505,-0.522206,3.17014,4.37823e-14,-1.59028e-15,-31.6232,6.46219,-75.1341,42.6407,11.1624,-28.5304,5.92322,7.12502,-1.8982,-24.0481,4.37823e-14,-1.59028e-15,-31.2524,12.3347,64.4922,33.1477,2.33898,-20.6944,23.6834,7.12502,5.66943,53.5875,-9.04958,18.4563,13.8855,31.0499,-26.5153,-19.9982,2.06553,-9.98245,-7.76346,-23.1252,27.6109,-18.5888,13.375,-7.19297
-4.76428,18.4867,3.03071,-14.3435,-80.4362,17.2582,0.885082,2.49402,-5.25274,-0.425231,3.18527,-2.75506,-1.06468,1.59596,0.0462559,-11.9616,-1.44496,-5.92764,4.79744,-1.65569,7.77597,3.48762,-0.565967,3.23824,1.1455e-14,-2.38542e-15,-31.4118,6.579,-74.7544,43.463,10.6992,-28.5567,5.76995,7.12502,-1.92358,-24.2011,1.1455e-14,-2.38542e-15,-31.0575,12.0904,64.1607,33.8444,2.74656,-20.6241,23.7369,7.12502,5.73731,53.6392,-9.04443,18.5221,13.9078,31.0907,-26.495,-19.9646,2.04266,-9.92525,-7.64731,-23.1178,27.625,-18.6228,13.3443,-7.19484
-4.76739,18.484,3.04038,-14.7311,-80.5804,17.5768,0.925869,2.50693,-5.30571,-0.390773,3.20111,-2.71971,-1.05768,1.60387,0.110388,-11.9513,-1.48648,-6.03032,4.68678,-1.69012,7.77351,3.4556,-0.586204,3.25158,-2.02512e-14,1.27222e-14,-31.0954,6.62266,-74.2786,44.21,10.3048,-28.4046,6.05453,7.12502,-1.77667,-23.9178,-2.02512e-14,1.27222e-14,-30.8663,11.9473,63.8616,34.5333,3.22419,-20.6009,23.8466,7.12502,5.75965,53.7484,-9.01427,18.547,13.8784,31.1441,-26.4013,-19.9088,2.01038,-9.81768,-7.42427,-23.1778,27.6322,-18.6329,13.2875,-7.34229
-4.76968,18.4818,3.05177,-15.711,-80.6473,18.5277,0.943879,2.4913,-5.51627,-0.36121,3.17709,-2.69129,-1.04965,1.59235,0.25633,-11.9308,-1.51488,-6.19332,4.52965,-1.70206,7.84228,3.40766,-0.593711,3.29823,3.12092e-14,4.77083e-15,-30.6927,6.53308,-73.7296,44.8596,10.2442,-28.4672,6.20437,7.12502,-1.83711,-23.7675,3.12092e-14,4.77083e-15,-30.714,11.7455,63.5958,35.2767,3.72324,-20.6477,23.9877,7.12502,5.7145,53.8907,-9.01582,18.5319,13.6902,31.2041,-26.3315,-19.8104,1.70871,-9.76058,-7.14851,-23.3486,27.6327,-18.6495,13.115,-7.27531
-4.77146,18.4804,3.06359,-16.0825,-80.707,18.9211,0.936676,2.47728,-5.59233,-0.364095,3.15789,-2.67207,-1.05299,1.58335,0.318741,-11.8176,-1.57372,-6.31611,4.27237,-1.76139,7.9137,3.31777,-0.626518,3.33571,-1.73937e-14,-5.56597e-15,-30.3759,6.42732,-73.1634,45.5758,10.1827,-28.7929,6.0992,7.12502,-2.15172,-23.8697,-1.73937e-14,-5.56597e-15,-30.5893,11.5406,63.3346,36.0809,4.2672,-20.7466,23.8384,7.12502,5.61905,53.7439,-9.08212,18.5134,13.5759,31.2787,-26.3781,-19.6882,1.50597,-9.7629,-6.90812,-23.4135,27.6219,-18.7292,12.8702,-6.70268
-4.77249,18.4791,3.07514,-16.1343,-80.7331,18.9738,0.931366,2.44175,-5.59509,-0.328759,3.11346,-2.65226,-1.01274,1.56012,0.343045,-11.7058,-1.61042,-6.38506,3.92413,-1.79278,7.95038,3.19795,-0.647003,3.35527,2.18663e-14,-2.38542e-14,-29.9699,5.98547,-72.5124,46.185,10.5134,-29.0838,7.38963,7.12502,-2.43261,-22.5762,2.18663e-14,-2.38542e-14,-30.4277,11.3198,63.0866,36.9815,4.94758,-20.609,23.6111,7.12502,5.75187,53.513,-9.1246,18.4951,13.5288,31.3646,-26.4722,-19.6085,1.66359,-9.74201,-6.9238,-23.4591,27.6054,-18.7283,12.937,-6.6162
-4.77524,18.4757,3.08797,-16.5667,-80.7773,19.3403,0.965931,2.43477,-5.58516,-0.268722,3.10348,-2.69277,-0.967048,1.55276,0.296492,-11.6619,-1.64527,-6.31133,3.68303,-1.84147,7.9375,3.12098,-0.673896,3.33544,1.06598e-14,-2.14687e-14,-29.7075,5.83776,-72.1625,47.2518,10.3479,-29.3615,5.84395,7.12502,-2.7008,-24.1187,1.06598e-14,-2.14687e-14,-30.2266,11.093,62.7535,37.9135,5.56331,-20.3185,23.5913,7.12502,6.03229,53.4854,-9.10133,18.3914,13.4346,31.4629,-26.4651,-19.417,1.80285,-9.64382,-6.95706,-23.5801,27.5968,-18.6973,13.109,-6.92611
-4.77715,18.4714,3.10157,-17.6502,-80.8497,20.3822,1.01039,2.45174,-5.67713,-0.235248,3.11996,-2.76938,-0.959101,1.55949,0.267211,-11.6063,-1.68098,-6.23119,3.47327,-1.89492,7.93473,3.05202,-0.70271,3.31762,-6.41081e-15,-1.82882e-14,-29.4401,5.50252,-71.6226,48.0348,10.4435,-29.0345,8.46993,7.12502,-2.385,-21.4965,-6.41081e-15,-1.82882e-14,-30.0215,10.8516,62.3668,38.8084,6.05605,-20.1991,23.5545,7.12502,6.14762,53.4453,-9.11464,18.3676,13.2448,31.5667,-26.3771,-19.3876,1.37986,-9.56976,-6.85088,-23.7927,27.6042,-18.7403,13.1233,-6.84335
-4.77637,18.4675,3.11595,-18.6036,-80.904,21.3513,1.01808,2.43009,-5.77647,-0.216274,3.08797,-2.81643,-0.945182,1.54252,0.274816,-11.4278,-1.70825,-6.24982,3.08302,-1.92214,7.9642,2.90847,-0.722825,3.32753,1.14301e-14,2.14687e-14,-29.1595,5.75453,-71.3391,49.1927,9.44093,-29.3243,7.67175,7.12502,-2.66488,-22.2914,1.14301e-14,2.14687e-14,-29.7764,10.6904,61.9761,39.6487,6.5387,-20.1884,23.4371,7.12502,6.15795,53.3276,-9.19872,18.4006,13.0317,31.665,-26.3411,-19.3031,1.32434,-9.58836,-6.64302,-23.9742,27.6379,-18.7611,13.0117,-6.83587
-4.77572,18.4649,3.12936,-19.0685,-80.9567,21.7944,1.0049,2.39995,-5.83409,-0.144281,3.05147,-2.82457,-0.864475,1.52148,0.301924,-11.2878,-1.74281,-6.25486,2.60981,-1.95348,7.95643,2.74603,-0.746619,3.32359,5.36719e-15,3.65764e-14,-28.7183,5.51482,-70.8209,50.0545,9.42699,-29.6811,8.21331,7.12502,-3.00947,-21.7452,5.36719e-15,3.65764e-14,-29.4687,10.5364,61.6397,40.5285,6.92295,-20.2601,23.4989,7.12502,6.08872,53.3914,-9.2296,18.343,12.9144,31.7347,-26.3099,-19.1394,1.53122,-9.6026,-6.37853,-24.0635,27.7137,-18.7403,12.833,-7.02135
-4.77517,18.4624,3.14104,-19.0384,-81.0318,21.7015,1.00369,2.39457,-5.81676,-0.0512882,3.05009,-2.81633,-0.767398,1.51735,0.303597,-11.2143,-1.78654,-6.18499,2.20011,-2.00544,7.90856,2.61369,-0.779634,3.29412,1.44119e-15,-6.36111e-15,-28.2882,5.20564,-70.2875,50.9145,9.6613,-29.5034,9.02903,7.12502,-2.83788,-20.9318,1.44119e-15,-6.36111e-15,-29.1168,10.3837,61.332,41.4463,7.26162,-20.5649,23.567,7.12502,5.79446,53.4677,-9.20943,18.1412,12.9104,31.784,-26.2707,-18.9231,1.4813,-9.60065,-6.03287,-24.0468,27.8075,-18.6733,12.6458,-7.3316
-4.77654,18.4615,3.15195,-18.5394,-81.1528,21.1416,1.02851,2.39742,-5.71277,0.00794975,3.05813,-2.77683,-0.717275,1.51979,0.287112,-11.109,-1.82921,-6.26464,1.78309,-2.04429,7.99325,2.47672,-0.803629,3.33104,-1.05356e-14,2.38542e-14,-27.9727,5.02765,-69.8137,52.0042,9.54098,-29.5693,9.32485,7.12502,-2.90147,-20.6352,-1.05356e-14,2.38542e-14,-28.8272,10.2069,61.0208,42.4156,7.6662,-20.5204,23.6864,7.12502,5.83739,53.586,-9.19478,18.191,13.0012,31.8662,-26.3517,-18.7878,1.47827,-9.55978,-5.81253,-23.9415,27.8486,-18.6802,12.5585,-7.43373
-4.77636,18.4583,3.16909,-19.2157,-81.3226,21.511,1.37665,2.44624,-5.64053,0.110853,3.10024,-2.80155,-0.803308,1.54038,0.207672,-10.8484,-1.86146,-6.26069,1.02443,-2.06566,7.72401,2.45714,-0.848596,3.59858,3.91109e-14,8.74653e-15,-27.7093,4.84259,-69.4226,53.182,9.31514,-30.3361,8.21617,7.12502,-3.642,-21.7325,3.91109e-14,8.74653e-15,-28.5634,9.90496,60.6282,43.4329,8.18523,-20.1172,23.7799,7.12502,6.2267,53.6684,-8.96476,18.214,12.9986,32.0436,-26.4502,-18.4727,1.48473,-9.15757,-5.77036,-24.0454,27.7889,-18.677,12.7462,-7.59802
-4.77179,18.4496,3.18869,-22.9167,-81.4108,24.7696,1.92087,2.4888,-6.02367,0.239654,3.10512,-2.86348,-0.9932,1.54348,0.333519,-10.5624,-1.8518,-6.3535,0.452825,-2.03139,7.70088,2.20918,-0.842267,3.60159,2.63887e-14,-6.2816e-14,-27.4082,4.89362,-68.9793,54.3731,9.22195,-30.703,6.83671,7.12502,-3.99637,-23.1056,2.63887e-14,-6.2816e-14,-28.4591,9.86715,60.2835,44.4887,8.52132,-20.2081,23.9677,7.12502,6.1389,53.8588,-8.62167,18.2541,12.5541,32.2925,-26.4983,-18.1628,1.12456,-8.53788,-5.84597,-24.6725,27.6795,-18.7777,13.0337,-7.27405
-4.77109,18.4416,3.19835,-27.1864,-81.2093,29.2294,1.78591,2.44368,-6.83799,0.216124,3.02984,-2.96901,-0.975022,1.50493,0.681907,-10.2698,-1.8486,-6.61362,-0.132457,-1.99162,7.79557,1.96299,-0.830601,3.68034,2.0773e-14,4.77083e-15,-27.0921,5.18179,-68.4821,55.5854,8.8349,-30.8483,6.58601,7.12502,-4.13669,-23.3536,2.0773e-14,4.77083e-15,-28.3768,9.79277,59.9897,45.5839,8.92387,-20.5747,24.2628,7.12502,5.78502,54.1638,-8.9787,18.2024,11.65,32.574,-26.4975,-18.0837,0.57052,-8.64133,-5.69581,-25.4664,27.5649,-18.7215,13.0086,-7.23566
-4.77656,18.4415,3.20247,-27.6865,-81.1475,30.2546,1.21877,2.37388,-7.14037,0.102616,2.97793,-3.00717,-0.78431,1.47625,0.83322,-9.97666,-1.85374,-6.59164,-0.783292,-1.99221,7.76685,1.69116,-0.842095,3.65801,7.79236e-14,-2.8625e-14,-26.817,5.17513,-68.0536,56.7566,8.38051,-31.2355,6.77513,7.12502,-4.51053,-23.1568,7.79236e-14,-2.8625e-14,-28.0892,9.50617,59.6347,46.5955,9.33591,-21.1431,24.1402,7.12502,5.23619,54.0555,-9.71161,18.1997,11.2503,32.8508,-26.5136,-18.068,0.425916,-9.1777,-5.33711,-25.5782,27.4643,-18.5397,12.6345,-7.209
-4.78131,18.4409,3.21413,-27.2075,-81.2368,29.9165,1.02596,2.35635,-7.04349,0.112071,2.97624,-3.01903,-0.660549,1.47189,0.776728,-9.73136,-1.86182,-6.40948,-1.44821,-2.0107,7.64896,1.42181,-0.864444,3.57347,1.44119e-14,-5.24792e-14,-26.5073,4.80361,-67.6772,57.889,8.31721,-31.4537,6.84918,7.12502,-4.72128,-23.0782,1.44119e-14,-5.24792e-14,-27.662,9.19912,59.2539,47.5311,9.52702,-22.0879,23.3354,7.12502,4.32393,53.2712,-9.99258,18.2625,11.2362,33.0817,-26.5645,-17.9201,0.743728,-9.32338,-5.10611,-25.483,27.4191,-18.4988,12.4033,-6.94309
-4.78045,18.4375,3.22973,-28.1306,-81.1917,30.7719,1.16257,2.32322,-7.13792,0.167163,2.91828,-3.06716,-0.67883,1.44153,0.776237,-9.60392,-1.84082,-6.34006,-2.02484,-1.97677,7.54613,1.20292,-0.857667,3.52127,-3.29486e-14,1.03368e-14,-26.1639,4.61461,-67.2907,59.0568,8.38632,-31.9237,6.39741,7.12502,-5.17501,-23.5194,-3.29486e-14,1.03368e-14,-27.2583,8.97346,58.8617,48.4534,9.68169,-22.4319,22.6972,7.12502,3.99168,52.6395,-9.9914,18.3042,11.0304,33.2489,-26.738,-17.674,1.59174,-9.26634,-5.13038,-25.7024,27.4579,-18.4045,12.5497,-7.36162
-4.77849,18.437,3.24615,-29.2653,-81.1153,31.8392,1.31151,2.26394,-7.30083,0.211124,2.82272,-3.08557,-0.71773,1.3935,0.844348,-9.36097,-1.79756,-6.41392,-2.70214,-1.90214,7.4821,0.931962,-0.831591,3.51292,-1.36664e-14,4.29375e-14,-25.7903,4.63273,-66.8563,60.2515,8.26915,-32.7681,5.74875,7.12502,-5.99028,-24.1466,-1.36664e-14,4.29375e-14,-26.9405,8.84221,58.4744,49.4227,9.84951,-22.3056,22.6706,7.12502,4.1137,52.6106,-9.99011,18.1331,10.7431,33.3855,-26.8721,-17.2687,2.17645,-9.22227,-5.27816,-25.9665,27.5347,-18.4395,12.6496,-7.13374
-4.77578,18.432,3.2588,-30.1554,-81.2509,32.7201,1.37444,2.27801,-7.38911,0.232969,2.83522,-3.05378,-0.737228,1.40003,0.923084,-9.12574,-1.79941,-6.49017,-3.39464,-1.88961,7.44344,0.663953,-0.835912,3.5127,-3.11595e-14,1.11319e-14,-25.4285,4.48824,-66.3456,61.4441,8.14384,-32.9795,5.9614,7.12502,-6.19442,-23.928,-3.11595e-14,1.11319e-14,-26.6123,8.67247,58.1516,50.4431,9.97998,-22.1815,23.1205,7.12502,4.23349,53.0582,-10.1232,18.0424,10.5885,33.523,-26.7058,-17.0344,1.68609,-9.25831,-5.08627,-26.0627,27.6214,-18.4552,12.6605,-7.0811
-4.77644,18.4275,3.26688,-29.9437,-81.5514,32.6057,1.28979,2.31895,-7.34675,0.222889,2.90226,-2.94773,-0.708095,1.43431,1.01018,-8.98798,-1.84074,-6.63165,-3.99063,-1.92394,7.45625,0.45069,-0.859785,3.54304,1.19271e-15,1.35174e-14,-25.1205,4.35264,-65.8301,62.6565,7.98243,-32.9406,6.26384,7.12502,-6.15683,-23.6267,1.19271e-15,1.35174e-14,-26.2717,8.34469,57.8599,51.4814,10.2501,-21.9989,23.3537,7.12502,4.40988,53.2878,-10.3799,18.1759,10.6751,33.6342,-26.5707,-16.9523,1.36839,-9.43959,-4.63458,-25.8807,27.7491,-18.4782,12.4723,-7.18266
-4.78068,18.4247,3.28393,-29.7605,-81.6609,32.404,1.24621,2.28882,-7.27527,0.286531,2.87455,-2.87358,-0.615991,1.41758,1.05148,-8.88036,-1.87617,-6.81303,-4.58008,-1.94737,7.47528,0.244805,-0.876839,3.58502,-5.01931e-14,2.38542e-14,-24.7275,4.33405,-65.3578,63.8777,7.70431,-33.0151,6.28423,7.12502,-6.22875,-23.6042,-5.01931e-14,2.38542e-14,-25.9316,8.12708,57.5302,52.5421,10.3967,-21.9233,23.5241,7.12502,4.4828,53.4566,-10.4248,18.2246,10.6989,33.7366,-26.6006,-16.8977,1.24027,-9.47524,-4.43422,-25.8356,27.9017,-18.5963,12.3071,-7.02888
-4.78348,18.4223,3.30531,-29.7961,-81.6962,32.2811,1.35586,2.26861,-7.11399,0.394042,2.84644,-2.87276,-0.556553,1.39983,0.962516,-8.71662,-1.921,-6.92369,-5.27483,-1.99214,7.50399,-0.00418407,-0.907232,3.61773,2.21148e-14,-4.13472e-14,-24.274,4.20217,-64.902,65.0077,7.462,-32.9924,6.18526,7.12502,-6.20687,-23.7038,2.21148e-14,-4.13472e-14,-25.3514,8.07204,57.1641,53.3402,10.3432,-21.6816,23.5801,7.12502,4.71617,53.5076,-10.3055,18.0808,10.7107,33.8614,-26.5759,-16.821,0.483149,-9.33633,-4.35942,-25.8733,28.0161,-18.7293,12.2203,-6.84058
-4.78213,18.4203,3.32265,-29.3816,-81.7733,31.8442,1.40656,2.24608,-6.94912,0.428872,2.81765,-2.85146,-0.540142,1.38491,0.893203,-8.59475,-1.9046,-7.00542,-5.87009,-1.95884,7.53715,-0.220134,-0.897354,3.65002,4.12478e-15,1.66979e-14,-23.8187,4.07116,-64.408,66.0354,7.51062,-33.0581,6.27759,7.12502,-6.27033,-23.6096,4.12478e-15,1.66979e-14,-24.7479,7.87542,56.7675,54.1133,10.4995,-21.4737,23.7583,7.12502,4.91694,53.6813,-10.4099,17.8994,10.7347,34.0224,-26.389,-16.6853,0.000216529,-9.34873,-4.26569,-25.8303,28.0647,-18.7205,12.1783,-7.05903
-4.78151,18.4175,3.34225,-30.2295,-81.7304,32.6956,1.45823,2.1849,-7.06139,0.434894,2.72917,-2.8461,-0.562497,1.34102,0.961056,-8.56164,-1.83906,-7.09402,-6.28949,-1.85969,7.53647,-0.369489,-0.851301,3.67313,-2.45499e-14,3.73715e-14,-23.3897,4.23293,-63.9061,67.158,7.34313,-33.3498,6.02048,7.12502,-6.5519,-23.8582,-2.45499e-14,3.73715e-14,-24.3299,7.59986,56.3647,55.046,10.7878,-22.1061,23.6776,7.12502,4.30633,53.6138,-10.5347,17.7578,10.4904,34.2065,-26.1825,-16.5458,-0.272295,-9.34419,-4.3731,-26.0585,28.0863,-18.7371,12.2662,-6.69998
-4.78303,18.4124,3.36272,-31.7384,-81.709,34.1304,1.5605,2.1558,-7.25199,0.468842,2.67753,-2.85119,-0.589738,1.31464,1.05902,-8.596,-1.79953,-7.16102,-6.66584,-1.79583,7.52076,-0.491074,-0.822055,3.68521,1.99779e-14,-7.15625e-15,-22.8994,4.32083,-63.3929,68.2269,7.19539,-33.3053,6.21877,7.12502,-6.50892,-23.6612,1.99779e-14,-7.15625e-15,-23.9122,7.31758,55.9908,55.9659,10.8682,-23.5453,22.9381,7.12502,2.91649,52.8979,-10.5699,17.6524,10.2084,34.3991,-25.9963,-16.4798,-1.03526,-9.22821,-4.49219,-26.3638,28.1093,-18.8445,12.412,-6.29176
-4.78316,18.4098,3.38341,-31.7918,-81.8385,34.085,1.7034,2.17072,-7.12292,0.484053,2.68679,-2.84866,-0.649112,1.32074,0.984857,-8.5805,-1.8119,-7.08319,-7.09809,-1.81724,7.42329,-0.635195,-0.839879,3.63857,2.5345e-15,-1.11319e-14,-22.4169,4.14704,-62.909,69.1698,7.20237,-32.9956,6.6902,7.12502,-6.20994,-23.1988,2.5345e-15,-1.11319e-14,-23.3683,6.97753,55.566,56.8503,11.017,-24.094,22.6188,7.12502,2.38658,52.5852,-10.5927,17.5654,10.2194,34.5806,-25.9125,-16.3225,-1.49908,-9.12563,-4.47113,-26.3746,28.1459,-18.8605,12.5373,-6.59628
-4.78131,18.4089,3.3999,-31.2918,-81.9538,33.5115,1.84381,2.15942,-7.041,0.481122,2.66271,-2.75313,-0.729974,1.31221,1.03296,-8.47424,-1.82336,-7.10228,-7.58605,-1.8353,7.28842,-0.813203,-0.854846,3.59978,4.0403e-14,-2.38542e-14,-21.9021,4.10433,-62.331,70.0674,7.19148,-33.0966,6.28748,7.12502,-6.30746,-23.5986,4.0403e-14,-2.38542e-14,-22.8379,6.60218,55.1791,57.7223,11.153,-24.2407,22.4034,7.12502,2.24485,52.3714,-10.6291,17.4902,10.2897,34.7218,-25.8758,-16.1162,-1.65724,-9.1043,-4.34793,-26.2862,28.2379,-18.8295,12.539,-7.04135
-4.7782,18.4063,3.41568,-30.7116,-82.0229,32.8264,2.01275,2.11818,-6.95766,0.490979,2.59702,-2.66065,-0.81049,1.28252,1.07787,-8.40273,-1.79705,-7.15415,-8.02986,-1.79914,7.21603,-0.974356,-0.840975,3.59093,-1.86858e-14,3.97569e-15,-21.3473,4.10493,-61.7531,70.9202,7.27171,-33.3765,5.75412,7.12502,-6.57765,-24.1237,-1.86858e-14,3.97569e-15,-22.2523,6.2682,54.7646,58.4794,10.9789,-24.576,22.2771,7.12502,1.92107,52.2482,-10.5872,17.4992,10.3702,34.8227,-25.8265,-15.9508,-1.52154,-9.08862,-4.17113,-26.1871,28.3878,-19.0101,12.2282,-6.44978
-4.77736,18.4041,3.43382,-29.55,-82.2552,31.5207,2.15206,2.11436,-6.66982,0.533903,2.59161,-2.58019,-0.834838,1.28066,0.997502,-8.48388,-1.76378,-7.02633,-8.38465,-1.76444,7.08997,-1.08186,-0.830239,3.52619,3.37934e-15,-2.38542e-14,-20.7329,4.01115,-61.2202,71.7022,7.44557,-33.4188,5.63465,7.12502,-6.6185,-24.2419,3.37934e-15,-2.38542e-14,-21.5352,5.99629,54.27,59.1898,10.8577,-24.3136,22.7775,7.12502,2.17445,52.7462,-10.5136,17.6555,10.6313,34.9172,-25.6709,-15.8567,-1.67368,-9.01386,-3.95651,-25.9431,28.5475,-19.1583,12.0894,-5.80331
-4.77837,18.4025,3.45422,-28.3258,-82.4228,30.1664,2.25005,2.07691,-6.42261,0.566914,2.5442,-2.50037,-0.845385,1.25768,0.941728,-8.53353,-1.72681,-6.9535,-8.72311,-1.72069,7.0285,-1.18916,-0.814165,3.4955,3.03147e-14,-1.82882e-14,-20.0475,4.04656,-60.6662,72.4728,7.47269,-33.4579,5.32744,7.12502,-6.65629,-24.5479,3.03147e-14,-1.82882e-14,-20.8818,5.73812,53.7319,59.9808,10.885,-23.998,22.9245,7.12502,2.47933,52.8898,-10.4514,17.6977,10.8548,35.0238,-25.401,-15.8914,-2.35323,-8.93861,-3.89914,-25.7707,28.6932,-19.2148,12.1588,-6.03735
-4.77913,18.4019,3.47541,-27.6329,-82.475,29.6023,2.11875,1.98591,-6.33953,0.508395,2.436,-2.45307,-0.823754,1.20515,0.951902,-8.55538,-1.68299,-7.00406,-8.99899,-1.6566,7.06049,-1.28087,-0.784507,3.52171,-4.22417e-15,1.82882e-14,-19.3393,4.15587,-60.0705,73.2218,7.42649,-33.3468,5.47974,7.12502,-6.54903,-24.399,-4.22417e-15,1.82882e-14,-20.2867,5.60194,53.1751,60.7139,10.5849,-23.9834,22.1358,7.12502,2.49335,52.101,-10.6877,17.5543,10.8193,35.1553,-25.2651,-15.8152,-2.65588,-9.13022,-4.06159,-25.7619,28.7963,-19.2644,12.3294,-6.31971
-4.78065,18.3987,3.49675,-27.7792,-82.4816,29.889,1.95319,1.91631,-6.39841,0.457376,2.35572,-2.40169,-0.782888,1.16583,1.04484,-8.54835,-1.6501,-7.23462,-9.31416,-1.59093,7.18336,-1.38965,-0.749672,3.6161,-4.57205e-14,3.02153e-14,-18.5997,4.18281,-59.3498,73.89,7.51296,-33.0914,5.95519,7.12502,-6.30248,-23.931,-4.57205e-14,3.02153e-14,-19.6033,5.48521,52.7109,61.376,10.2695,-23.9916,21.8625,7.12502,2.4855,51.8277,-10.95,17.3997,10.6531,35.3143,-25.1014,-15.8312,-3.39397,-9.29389,-4.16918,-25.8697,28.8551,-19.3067,12.3953,-6.36639
-4.7825,18.3943,3.51721,-29.1537,-82.4968,31.1544,2.05279,1.94188,-6.53119,0.467202,2.37686,-2.42201,-0.834574,1.17702,1.09333,-8.54468,-1.65107,-7.24262,-9.62545,-1.59403,7.14289,-1.49378,-0.75455,3.60807,3.22528e-14,-3.18055e-14,-17.9384,4.05968,-58.6528,74.5339,7.65512,-33.0816,5.83254,7.12502,-6.29295,-24.054,3.22528e-14,-3.18055e-14,-18.712,4.8943,52.2223,62.0364,10.3513,-24.0161,22.4374,7.12502,2.46179,52.403,-10.9436,17.419,10.4335,35.4899,-25.0256,-15.761,-3.84239,-9.14587,-4.20589,-26.1055,28.9011,-19.4231,12.4281,-5.96245
-4.78261,18.3924,3.53696,-29.852,-82.512,31.7003,2.21155,2.00587,-6.56838,0.50477,2.44721,-2.45175,-0.889897,1.21217,1.07584,-8.5769,-1.72856,-7.13363,-9.93916,-1.70637,7.10848,-1.58443,-0.817942,3.57692,-5.08889e-14,3.97569e-14,-17.3318,3.80652,-57.9713,75.2265,7.54576,-33.4017,5.36397,7.12502,-6.60198,-24.5131,-5.08889e-14,3.97569e-14,-17.6693,4.14949,51.7078,62.695,10.6283,-24.2907,22.5993,7.12502,2.19663,52.5677,-10.8792,17.5396,10.321,35.6682,-24.9194,-15.6486,-4.20085,-8.97374,-4.27518,-26.257,28.9361,-19.4407,12.5383,-5.96198
-4.78139,18.3918,3.55667,-28.4914,-82.5572,30.3589,2.21957,1.99123,-6.46526,0.485581,2.43291,-2.33591,-0.913855,1.20745,1.13764,-8.59269,-1.80889,-7.22154,-10.288,-1.80634,7.1437,-1.68974,-0.869791,3.61011,-8.89561e-15,5.96354e-15,-16.5886,3.70044,-57.1499,75.8683,7.42548,-33.6711,5.19858,7.12502,-6.86204,-24.6702,-8.89561e-15,5.96354e-15,-16.7355,3.74619,51.2747,63.3191,10.87,-24.4545,21.6397,7.12502,2.03837,51.6097,-11.0098,17.5121,10.4213,35.8562,-24.7019,-15.5948,-4.62157,-9.01244,-4.39242,-26.1296,28.95,-19.4193,12.6126,-6.618
-4.78175,18.3906,3.57847,-27.5082,-82.5913,29.3669,2.22616,1.94141,-6.38853,0.479815,2.37128,-2.23446,-0.920403,1.17818,1.20135,-8.57209,-1.82569,-7.31966,-10.6601,-1.82347,7.17046,-1.81627,-0.880347,3.64548,4.38817e-14,9.93923e-15,-15.7047,3.60388,-56.2978,76.3869,7.508,-33.219,5.23375,7.12502,-6.42564,-24.6488,4.38817e-14,9.93923e-15,-15.8603,3.36216,50.7512,63.9082,11.2409,-24.4699,20.3997,7.12502,2.02355,50.3699,-11.1195,17.3142,10.4573,36.0713,-24.6529,-15.4068,-5.01838,-8.99794,-4.40505,-26.0573,28.9433,-19.4326,12.5696,-6.43735
-4.78606,18.386,3.60041,-28.8354,-82.6712,30.582,2.28845,1.94006,-6.53492,0.505856,2.36119,-2.21887,-0.934334,1.17299,1.29712,-8.56315,-1.78913,-7.33368,-11.0191,-1.77559,7.18953,-1.94258,-0.861352,3.66317,-2.72832e-14,1.19271e-15,-14.7398,3.48842,-55.4789,76.8089,7.57085,-32.769,5.00519,7.12502,-5.99123,-24.8901,-2.72832e-14,1.19271e-15,-14.9109,2.94507,50.086,64.398,11.3962,-24.036,20.3989,7.12502,2.44261,50.3647,-11.146,17.1936,10.2491,36.3225,-24.5436,-15.1571,-5.62413,-8.81954,-4.15126,-26.2566,28.9233,-19.4518,12.5268,-5.97553
-4.78999,18.3834,3.62319,-30.6725,-82.6355,32.3619,2.30233,1.93204,-6.77432,0.536406,2.34264,-2.24568,-0.917733,1.1622,1.4029,-8.67193,-1.75277,-7.34695,-11.3355,-1.72231,7.22245,-2.035,-0.838658,3.68363,-1.18028e-14,-1.63003e-14,-13.7329,3.20494,-54.6346,77.1926,7.73988,-32.8246,4.42515,7.12502,-6.04489,-25.4686,-1.18028e-14,-1.63003e-14,-13.7744,2.66471,49.359,64.7962,11.0776,-23.681,21.4168,7.12502,2.78546,51.3783,-11.2351,17.2629,9.89629,36.6143,-24.5893,-14.8805,-5.45242,-8.68855,-4.11939,-26.5896,28.8764,-19.4821,12.5825,-5.38588
-4.7913,18.3837,3.64482,-31.1501,-82.6102,32.8751,2.27616,1.91383,-6.818,0.525304,2.31766,-2.28651,-0.912743,1.1494,1.38673,-8.79323,-1.76286,-7.25521,-11.6403,-1.74008,7.22455,-2.11623,-0.855188,3.67104,4.78823e-14,-3.81667e-14,-12.7481,2.76829,-53.9031,77.542,7.95294,-33.3286,4.82019,7.12502,-6.53148,-25.0591,4.78823e-14,-3.81667e-14,-12.6307,2.48377,48.6635,65.3368,10.8667,-23.9468,22.0029,7.12502,2.52876,51.9677,-11.4508,17.3154,9.67508,36.9166,-24.6555,-14.5725,-5.19706,-8.70377,-4.11484,-26.7306,28.8534,-19.5377,12.5544,-4.95858
-4.78918,18.3841,3.66589,-31.2462,-82.6535,33.0208,2.28007,1.8983,-6.83347,0.486105,2.29532,-2.25044,-0.955813,1.14073,1.43224,-8.95666,-1.80594,-7.40998,-11.7979,-1.77458,7.34904,-2.13771,-0.869623,3.74613,-1.75427e-14,-3.1408e-14,-11.7526,2.50419,-53.116,77.9396,7.91075,-33.5771,7.35632,7.12502,-6.77134,-22.5154,-1.75427e-14,-3.1408e-14,-11.5961,2.38305,48.1517,65.887,10.9966,-24.0215,21.8317,7.12502,2.45664,51.7973,-11.7213,17.1645,9.54311,37.2067,-24.3827,-14.4015,-6.11356,-8.79085,-3.76435,-26.7533,28.8819,-19.4789,12.2616,-5.06782
-4.78562,18.3841,3.68744,-30.6266,-82.6834,32.438,2.2912,1.80662,-6.90062,0.464998,2.17413,-2.10048,-0.982848,1.0833,1.62752,-9.14947,-1.79596,-7.54838,-11.9739,-1.74426,7.38631,-2.16663,-0.851249,3.78846,1.04362e-15,9.93923e-15,-10.5666,2.37567,-52.1917,78.2846,7.71625,-32.9767,9.45434,7.12502,-6.19167,-20.4352,1.04362e-15,9.93923e-15,-10.6838,2.31222,47.6261,66.4109,11.1563,-24.1379,21.8302,7.12502,2.34421,51.797,-11.9604,16.9597,9.52422,37.4787,-24.0353,-14.4009,-7.17614,-8.90608,-3.46002,-26.7076,28.9603,-19.4017,12.0356,-5.43546
-4.7836,18.3845,3.7076,-29.2098,-82.6965,31.039,2.23656,1.72044,-6.93483,0.514388,2.07155,-1.92882,-0.90035,1.03064,1.82974,-9.2549,-1.78068,-7.47225,-12.3895,-1.73896,7.26354,-2.2922,-0.855793,3.73776,-8.94531e-16,-2.26615e-14,-9.31429,2.12874,-51.1947,78.5924,7.46179,-32.8204,8.87355,7.12502,-6.04082,-21.0203,-8.94531e-16,-2.26615e-14,-9.53375,2.16839,47.0077,66.8105,11.2136,-24.0824,21.9612,7.12502,2.39773,51.9275,-12.1343,16.9444,9.62572,37.7482,-24.0289,-14.3081,-6.70913,-8.98653,-3.31941,-26.5776,29.0368,-19.3582,11.8787,-5.5575
-4.78516,18.3849,3.72817,-28.4996,-82.6969,30.3194,2.25069,1.7348,-6.90109,0.511399,2.09177,-1.87734,-0.913713,1.04172,1.86274,-9.36038,-1.87069,-7.42543,-12.6717,-1.86297,7.25456,-2.36077,-0.923308,3.72801,-1.06598e-14,1.03368e-14,-8.31823,1.77381,-50.174,78.8998,7.0327,-33.2322,8.63414,7.12502,-6.43836,-21.248,-1.06598e-14,1.03368e-14,-8.19766,1.74727,46.3452,67.1265,11.2097,-23.9184,21.9483,7.12502,2.55614,51.9128,-12.2564,16.9383,9.6532,38.0255,-24.0503,-14.2435,-6.22645,-9.00857,-3.11194,-26.5333,29.0951,-19.3589,11.6187,-5.57108
-4.78927,18.3823,3.75515,-28.8589,-82.6318,30.5004,2.44927,1.79949,-6.66606,0.531853,2.16324,-2.01805,-0.996034,1.07745,1.57904,-9.70323,-2.09068,-7.46065,-12.6982,-2.12629,7.47845,-2.28665,-1.0558,3.80478,-1.0461e-14,3.06128e-14,-7.48574,1.2052,-49.2878,79.1923,6.70501,-33.5155,8.51516,7.12502,-6.71191,-21.3585,-1.0461e-14,3.06128e-14,-6.72212,1.16047,45.5527,67.4296,11.3722,-23.9184,21.7418,7.12502,2.5562,51.7062,-12.2284,16.6559,9.53881,38.3311,-23.7548,-14.2047,-6.89074,-8.79236,-3.26122,-26.717,29.1274,-19.4816,11.6764,-5.52696
-4.79165,18.3814,3.78184,-28.5311,-82.5983,30.0762,2.52425,1.85697,-6.22437,0.594685,2.2436,-2.21879,-0.954694,1.11287,1.12368,-10.3059,-2.38276,-7.41421,-12.6157,-2.48116,7.72077,-2.12227,-1.23454,3.86212,1.96548e-14,-2.14687e-14,-6.58272,0.404274,-48.4968,79.4053,6.63622,-34.1926,8.335,7.12502,-7.36549,-21.5168,1.96548e-14,-2.14687e-14,-5.07767,0.534056,44.5998,67.7198,11.5485,-23.954,21.4662,7.12502,2.52176,51.4311,-12.3019,16.4219,9.49016,38.6546,-23.478,-14.0865,-7.31002,-8.6795,-3.4872,-26.8142,29.1655,-19.5362,11.8952,-5.65934
-4.79051,18.3805,3.80447,-27.9109,-82.5347,29.4401,2.61193,1.76753,-6.18442,0.578966,2.11887,-2.17886,-1.01192,1.05278,1.14442,-10.758,-2.45663,-7.47144,-12.5862,-2.5494,7.88082,-2.02681,-1.26605,3.92107,-2.78299e-14,3.18055e-15,-5.2494,0.0790339,-47.5741,79.4635,6.49282,-34.79,9.15936,7.12502,-7.94213,-20.6714,-2.78299e-14,3.18055e-15,-3.86236,0.283203,43.6907,67.9978,11.4776,-23.863,21.5987,7.12502,2.60962,51.5625,-12.482,16.1969,9.44416,39.0029,-23.2911,-13.8795,-7.31522,-8.69347,-3.50349,-26.8396,29.2111,-19.5479,11.8739,-5.52366
-4.78963,18.3786,3.82585,-26.8581,-82.5,28.2919,2.83664,1.57109,-6.47522,0.515147,1.83594,-1.84658,-1.20489,0.921664,1.65154,-10.9733,-2.31746,-7.60601,-12.6791,-2.35075,7.82556,-2.03925,-1.16154,3.93269,4.07509e-15,-1.35174e-14,-3.57097,0.261185,-46.4416,79.4944,5.97971,-34.6505,9.77769,7.12502,-7.80744,-20.0582,4.07509e-15,-1.35174e-14,-3.14303,0.348744,42.9364,68.2841,11.2696,-23.7685,21.6034,7.12502,2.7009,51.566,-12.5878,15.8859,9.51377,39.3649,-23.1696,-13.713,-7.39422,-8.63923,-3.51786,-26.7877,29.2911,-19.5298,11.8211,-5.60362
-4.78851,18.3762,3.8502,-26.3744,-82.4383,27.7361,3.0097,1.48667,-6.63909,0.48255,1.70703,-1.66298,-1.33598,0.863905,1.93229,-11.177,-2.2667,-7.62857,-12.8534,-2.28555,7.68829,-2.07184,-1.12826,3.89088,-5.29264e-15,-5.56597e-15,-2.12925,0.0743189,-45.2718,79.4958,5.43312,-34.5363,10.441,7.12502,-7.69719,-19.3989,-5.29264e-15,-5.56597e-15,-2.0347,0.17466,42.1581,68.4904,11.1689,-23.4478,20.8948,7.12502,3.01062,50.8533,-12.7416,15.3921,9.47614,39.7542,-22.9862,-13.4618,-7.56099,-8.60807,-3.59245,-26.8393,29.3872,-19.5672,11.7774,-5.48067
-4.7878,18.3736,3.87247,-25.8456,-82.3733,27.1598,3.0905,1.448,-6.62394,0.505534,1.65111,-1.6308,-1.3534,0.836222,1.95802,-11.5044,-2.31802,-7.56558,-12.9789,-2.34976,7.69953,-2.05428,-1.16417,3.87893,5.91384e-14,-2.46493e-14,-0.803045,-0.378354,-44.2451,79.4389,5.06343,-35.2364,10.5936,7.12502,-8.37295,-19.2205,5.91384e-14,-2.46493e-14,-0.536192,-0.0423338,41.2719,68.5453,11.0818,-23.0383,20.4041,7.12502,3.40607,50.3566,-12.9321,14.8752,9.44587,40.1567,-22.772,-13.2355,-7.57717,-8.61075,-3.43601,-26.8522,29.4884,-19.6212,11.4793,-5.04759
-4.78845,18.3707,3.89335,-25.2175,-82.2794,26.478,3.15227,1.37258,-6.6216,0.533522,1.54883,-1.56632,-1.35227,0.78519,2.02705,-11.7616,-2.38359,-7.65741,-13.162,-2.4146,7.82792,-2.0664,-1.19666,3.94187,1.35919e-14,1.66979e-14,0.607097,-0.771517,-43.2922,79.3913,4.68238,-36.2469,9.73335,7.12502,-9.34805,-20.0394,1.35919e-14,1.66979e-14,0.857485,-0.0638893,40.4899,68.5671,10.688,-22.8009,20.6765,7.12502,3.63533,50.6253,-13.1214,14.3776,9.43363,40.5886,-22.5213,-13.0925,-7.82002,-8.60952,-3.27723,-26.8617,29.5847,-19.6063,11.2427,-5.22249
-4.79101,18.3671,3.91581,-24.4818,-82.2139,25.6519,3.25892,1.28181,-6.57494,0.521473,1.42233,-1.49824,-1.4144,0.724677,2.0749,-11.9876,-2.41181,-7.74926,-13.2612,-2.43149,7.92507,-2.0594,-1.2034,3.9937,-2.54941e-14,7.15625e-15,2.01635,-1.15142,-42.3978,79.2874,4.38416,-36.7272,9.68422,7.12502,-9.81144,-20.0672,-2.54941e-14,7.15625e-15,2.06128,-0.00724977,39.6746,68.6699,10.0599,-22.108,20.9014,7.12502,4.30448,50.8377,-13.2836,13.8425,9.46756,41.0446,-22.2142,-13.0286,-8.55556,-8.55298,-3.26926,-26.8639,29.6864,-19.6259,11.1936,-5.41522
-4.79339,18.3644,3.93643,-23.6303,-82.1363,24.7773,3.32324,1.15852,-6.52127,0.480661,1.25498,-1.44527,-1.47843,0.644396,2.10615,-12.2559,-2.3773,-7.73034,-13.2878,-2.3786,7.945,-2.02801,-1.17798,3.99601,-5.40694e-14,-4.37326e-15,3.47527,-1.51559,-41.492,79.1563,4.40954,-36.7943,10.1165,7.12502,-9.87618,-19.6319,-5.40694e-14,-4.37326e-15,3.29711,-0.0138724,38.4137,68.7173,9.85436,-21.3978,20.9515,7.12502,4.9903,50.8728,-13.5357,13.2565,9.48816,41.5357,-21.9991,-12.8763,-8.80697,-8.58181,-3.14645,-26.8323,29.7773,-19.6784,10.9922,-5.79175
-4.7938,18.3605,3.95644,-22.941,-82.0163,24.0434,3.4531,1.1341,-6.37629,0.475411,1.21787,-1.42682,-1.55087,0.627592,2.04383,-12.4446,-2.48338,-7.85811,-13.7198,-2.45102,8.29297,-1.88444,-1.23379,3.79218,2.03506e-14,-3.22031e-14,4.72891,-2.10529,-40.4169,79.0675,4.61294,-37.2771,9.6206,7.12502,-10.342,-20.1051,2.03506e-14,-3.22031e-14,4.86246,-0.139835,37.2112,68.6519,10.0777,-21.28,20.9981,7.12502,5.10401,50.9167,-13.7866,12.6014,9.46381,42.0567,-21.8163,-12.65,-8.8147,-8.58252,-2.96717,-26.8209,29.8417,-19.6569,10.7162,-5.73451
-4.79478,18.3575,3.97722,-22.9615,-81.916,24.0346,3.58371,1.16035,-6.20807,0.46141,1.24552,-1.5138,-1.63541,0.642227,1.85644,-12.5886,-2.63871,-7.96909,-14.0017,-2.63476,8.42221,-1.92826,-1.32699,3.8494,-1.18525e-14,1.59028e-14,5.85778,-2.86196,-39.462,78.8623,4.81335,-37.3389,9.90718,7.12502,-10.4015,-19.8155,-1.18525e-14,1.59028e-14,6.54653,-0.374962,36.1525,68.5726,10.3291,-21.5586,20.961,7.12502,4.83501,50.8858,-14.0779,12.0522,9.33791,42.6073,-21.5582,-12.4895,-9.33024,-8.56286,-2.90513,-26.9224,29.88,-19.6072,10.5397,-5.78794
-4.79874,18.3557,3.99834,-23.1165,-81.7628,24.1876,3.52535,1.0751,-6.16861,0.52079,1.1373,-1.62232,-1.52997,0.582997,1.73022,-12.897,-2.66291,-7.81073,-14.193,-2.67752,8.42353,-1.93832,-1.35877,3.82304,1.16786e-14,5.1684e-15,7.25657,-3.59907,-38.8181,78.6044,4.99955,-37.2476,10.2622,7.12502,-10.3135,-19.4649,1.16786e-14,5.1684e-15,8.17984,-0.439992,35.015,68.4221,10.4035,-21.6346,20.8994,7.12502,4.76162,50.8259,-14.3675,11.5639,9.17407,43.1622,-21.4676,-12.3249,-9.37357,-8.55231,-2.94719,-27.0807,29.9003,-19.5598,10.5216,-5.71445
-4.80312,18.3529,4.01839,-23.0641,-81.6426,24.1168,3.50134,0.996384,-6.12989,0.559431,1.03568,-1.68437,-1.46711,0.529145,1.65082,-13.0624,-2.71653,-7.81487,-14.5014,-2.73511,8.60849,-1.99623,-1.39715,3.88391,8.05078e-15,-3.37934e-14,8.63786,-4.31987,-38.1892,78.5206,4.98956,-37.3283,10.7323,7.12502,-10.3914,-18.991,8.05078e-15,-3.37934e-14,9.7816,0.0206795,34.1383,67.8928,8.99789,-20.6328,19.7008,7.12502,5.72884,49.6034,-14.6361,11.0565,9.0615,43.705,-21.3626,-11.9771,-8.85703,-8.51669,-2.94985,-27.1802,29.919,-19.5659,10.5585,-5.92599
-4.80797,18.3517,4.03353,-22.7388,-81.6207,23.7567,3.9156,1.05574,-6.39695,0.310233,1.06617,-1.44918,-1.96867,0.566742,2.03074,-12.9492,-2.83389,-8.17906,-14.7356,-2.84701,8.73782,-2.06631,-1.44229,3.98733,-2.35311e-14,-4.37326e-15,9.69297,-4.71433,-36.937,78.4641,4.8405,-37.6961,10.4845,7.12502,-10.7462,-19.2206,-2.35311e-14,-4.37326e-15,11.012,0.0166568,33.7523,67.6313,8.28489,-20.6781,19.1738,7.12502,5.68513,49.0775,-14.8973,10.7244,9.0648,44.2238,-21.2264,-11.6429,-8.44231,-8.47528,-2.97616,-27.1828,29.9489,-19.5628,10.6821,-6.26571
-4.81184,18.3514,4.04823,-22.0247,-81.5803,23.0056,4.15771,1.05801,-6.54932,0.190568,1.04331,-1.26499,-2.2328,0.568704,2.30194,-13.017,-2.8536,-8.26952,-14.987,-2.86908,8.6742,-2.13146,-1.45232,3.98663,-1.5294e-14,-9.93923e-15,10.9061,-5.24958,-35.8773,78.1677,4.94173,-38.1922,8.50416,7.12502,-11.2246,-21.1756,-1.5294e-14,-9.93923e-15,12.2689,0.0891955,33.0935,67.4187,8.32456,-21.0151,18.4227,7.12502,5.35977,48.3349,-15.1531,10.4532,9.12491,44.7361,-21.1058,-11.4537,-7.91564,-8.44693,-2.93002,-27.1229,29.9751,-19.636,10.5542,-5.80528
-4.81696,18.3487,4.06563,-21.6634,-81.527,22.5763,4.25815,0.99334,-6.47032,0.185258,0.952209,-1.27607,-2.28506,0.524064,2.25077,-13.1811,-2.82317,-8.16689,-15.2136,-2.83858,8.67669,-2.17917,-1.44703,3.9744,-2.55066e-14,5.56597e-15,12.2647,-5.98252,-35.2861,77.742,5.07189,-38.4616,7.38016,7.12502,-11.4845,-22.2852,-2.55066e-14,5.56597e-15,13.629,0.316437,32.1771,67.1646,8.33689,-21.1738,17.9309,7.12502,5.20651,47.847,-15.3779,10.0148,9.13521,45.2532,-20.8417,-11.3009,-6.8865,-8.36659,-2.85643,-27.1336,29.9822,-19.7336,10.3203,-4.79354
-4.8252,18.3439,4.08351,-22.4577,-81.4528,23.3428,4.30279,0.952049,-6.6251,0.161339,0.885322,-1.25084,-2.33204,0.494343,2.36672,-13.3607,-2.84852,-8.16682,-15.3453,-2.88076,8.54077,-2.19388,-1.4677,3.93188,-1.0138e-14,3.97569e-16,13.709,-6.67211,-34.5708,77.2611,4.99874,-38.3625,8.04542,7.12502,-11.3889,-21.6253,-1.0138e-14,3.97569e-16,14.908,0.605442,31.5053,67.0169,8.13662,-20.9545,18.4914,7.12502,5.41825,48.4021,-15.6341,9.65503,8.94028,45.7859,-20.6038,-11.17,-6.43301,-8.27721,-2.79965,-27.3394,29.9654,-19.8004,10.1837,-4.31368
-4.83314,18.3396,4.10176,-23.438,-81.3329,24.2504,4.40305,0.898368,-6.79615,0.14284,0.795671,-1.23936,-2.40222,0.453894,2.47856,-13.5483,-2.85216,-8.22218,-15.4787,-2.88264,8.4655,-2.20869,-1.46662,3.91867,1.18898e-14,2.42517e-14,15.1206,-7.31219,-33.8758,76.83,4.95129,-38.2542,8.63394,7.12502,-11.2844,-21.0425,1.18898e-14,2.42517e-14,16.1629,0.976339,30.9666,66.8336,7.86618,-20.868,19.1192,7.12502,5.50184,49.0277,-15.7968,9.44177,8.69682,46.3083,-20.3945,-11.0837,-7.44645,-8.12661,-2.78102,-27.5826,29.9384,-19.8396,10.0647,-3.95361
-4.8408,18.3361,4.11787,-23.9373,-81.269,24.6521,4.46935,0.828321,-6.79281,0.173129,0.695111,-1.31079,-2.39777,0.401954,2.40913,-13.7096,-2.80681,-8.25,-15.728,-2.811,8.57201,-2.26256,-1.43697,3.9626,2.11457e-14,0,16.5263,-8.10364,-33.5492,76.4158,5.03161,-38.2016,8.33331,7.12502,-11.2337,-21.3459,2.11457e-14,0,17.4707,1.43452,30.3749,66.5536,7.56655,-21.0448,19.1067,7.12502,5.33111,49.0196,-15.9498,9.25316,8.56509,46.7984,-20.1386,-11.0901,-7.75999,-7.98665,-2.50958,-27.6955,29.9205,-19.721,9.83458,-4.68595
-4.84901,18.3362,4.13193,-23.6951,-81.2521,24.3075,4.58303,0.774228,-6.70113,0.187494,0.61768,-1.33919,-2.4382,0.36294,2.33286,-13.9525,-2.80465,-8.30296,-15.8745,-2.78634,8.7059,-2.26864,-1.42697,4.01492,1.05232e-14,-1.51076e-14,17.8116,-8.95649,-33.3113,75.9147,5.09792,-38.3274,7.769,7.12502,-11.355,-21.9036,1.05232e-14,-1.51076e-14,18.7699,1.82512,29.6414,66.3128,7.4643,-21.1361,18.9219,7.12502,5.24294,48.837,-16.1083,9.04235,8.59693,47.233,-19.8918,-11.2954,-7.44939,-7.86513,-2.32779,-27.6716,29.9241,-19.578,9.64835,-5.41873
-4.85766,18.3369,4.14471,-23.0549,-81.289,23.5803,4.72519,0.755281,-6.60851,0.164923,0.586353,-1.29589,-2.538,0.350351,2.32662,-14.1403,-2.80529,-8.30724,-16.0439,-2.78125,8.74175,-2.29198,-1.42799,4.029,-4.52235e-15,8.34896e-15,18.9982,-9.70234,-32.8408,75.4504,4.89957,-38.5649,7.07815,7.12502,-11.5841,-22.5817,-4.52235e-15,8.34896e-15,20.0207,2.27898,29.076,66.0812,7.23398,-20.8867,18.8879,7.12502,5.48371,48.7969,-16.2569,8.94489,8.71217,47.6208,-19.6036,-11.5069,-7.99307,-7.74956,-2.30303,-27.5812,29.9376,-19.5478,9.64043,-5.83535
-4.86916,18.3377,4.15696,-22.7026,-81.3192,23.1433,4.78524,0.744263,-6.52862,0.173619,0.572026,-1.28528,-2.56063,0.342939,2.29355,-14.2698,-2.81559,-8.3409,-16.2977,-2.78386,8.84096,-2.34631,-1.43489,4.0701,-2.52208e-14,6.75868e-15,20.323,-10.4593,-32.3616,74.9975,4.74376,-38.4584,6.82576,7.12502,-11.4814,-22.8398,-2.52208e-14,6.75868e-15,21.334,2.76817,28.6161,65.8253,6.98574,-20.8138,19.215,7.12502,5.55412,49.1222,-16.3702,8.94145,8.75614,47.9775,-19.3442,-11.4567,-6.32861,-7.61517,-2.14969,-27.5418,29.9343,-19.5311,9.67137,-6.34833
-4.88335,18.3376,4.17242,-22.8683,-81.3311,23.2259,4.81479,0.688079,-6.46622,0.179151,0.497069,-1.32176,-2.56395,0.304478,2.22617,-14.3967,-2.78595,-8.36291,-16.5349,-2.73513,8.94724,-2.40023,-1.41735,4.11295,-3.3048e-15,-1.15295e-14,21.6967,-11.2276,-32.1296,74.5018,4.81246,-38.3142,7.44671,7.12502,-11.3423,-22.2266,-3.3048e-15,-1.15295e-14,22.5236,3.26274,28.0841,65.5583,6.73395,-20.9492,19.8543,7.12502,5.42344,49.7649,-16.4573,8.86409,8.67658,48.3165,-19.0746,-11.1843,-5.18017,-7.45406,-2.1645,-27.6144,29.9281,-19.6458,9.6401,-5.77747
-4.89805,18.337,4.18604,-23.1705,-81.3001,23.4659,4.85566,0.640861,-6.52483,0.149574,0.426136,-1.32079,-2.61198,0.271858,2.2645,-14.4233,-2.76442,-8.43676,-16.7996,-2.69865,9.00584,-2.47722,-1.40308,4.15089,8.74653e-15,2.10712e-14,22.9355,-11.9624,-31.9069,73.8719,4.98277,-38.4075,8.15667,7.12502,-11.4323,-21.5116,8.74653e-15,2.10712e-14,23.6291,3.78746,27.7482,65.2291,6.54398,-21.0882,19.7058,7.12502,5.28919,49.6198,-16.5234,8.81641,8.57328,48.6262,-18.8264,-11.0038,-5.41298,-7.29448,-2.30944,-27.7166,29.8962,-19.7322,9.55429,-4.66562
-4.91177,18.335,4.19624,-22.3695,-81.2806,22.5848,4.98152,0.630186,-6.39274,0.0789862,0.406898,-1.31069,-2.75318,0.266549,2.20131,-14.4137,-2.79331,-8.4293,-17.0204,-2.74494,8.98958,-2.54254,-1.43129,4.14839,-4.96962e-15,-1.51076e-14,23.9766,-12.6444,-31.6584,73.2777,5.24617,-38.7463,7.68164,7.12502,-11.759,-21.9683,-4.96962e-15,-1.51076e-14,24.8536,4.19051,27.4587,64.9204,6.55847,-20.7981,19.1958,7.12502,5.56928,49.1027,-16.5638,8.89138,8.66955,48.9171,-18.6073,-10.9287,-5.68585,-7.14303,-2.34272,-27.6124,29.8687,-19.7088,9.43526,-4.29224
-4.9268,18.3378,4.20515,-21.8916,-81.2877,22.0237,5.08146,0.652897,-6.21433,0.0279279,0.434666,-1.3809,-2.86258,0.281345,2.02595,-14.5287,-2.82601,-8.24068,-17.1118,-2.81864,8.888,-2.55316,-1.47763,4.08351,6.63444e-15,-1.86858e-14,24.9524,-13.3564,-31.5122,72.6545,5.58129,-39.093,6.87025,7.12502,-12.0933,-22.7603,6.63444e-15,-1.86858e-14,26.1942,4.53244,27.1105,64.6476,6.66623,-20.5034,19.0035,7.12502,5.85384,48.9026,-16.5993,9.19892,8.74192,49.1697,-18.4899,-10.9027,-5.2558,-7.00669,-2.3247,-27.5505,29.8561,-19.6798,9.45428,-4.28709
-4.94333,18.339,4.21363,-22.2496,-81.2972,22.3292,5.06726,0.630703,-6.22395,0.0289919,0.40337,-1.43146,-2.85072,0.264847,1.98155,-14.7563,-2.7902,-8.10272,-17.1919,-2.78949,8.82778,-2.55091,-1.47102,4.04211,-1.64494e-14,9.54166e-15,26.152,-14.0914,-31.5084,71.931,6.08416,-39.2856,6.75231,7.12502,-12.279,-22.8672,-1.64494e-14,9.54166e-15,27.3512,5.04714,26.7743,64.368,6.73955,-20.5391,18.8554,7.12502,5.81936,48.7555,-16.6467,9.38316,8.68173,49.4018,-18.1643,-10.9558,-5.84664,-6.90775,-2.26063,-27.6188,29.8786,-19.6473,9.45687,-4.53891
-4.95929,18.342,4.22293,-21.9237,-81.275,21.9657,5.04753,0.543222,-6.20543,0.0248496,0.290766,-1.40657,-2.8348,0.208705,2.00559,-14.9745,-2.72723,-8.06173,-17.2855,-2.71273,8.78719,-2.55645,-1.43659,4.02523,1.25234e-14,-8.74653e-15,27.4199,-14.7617,-31.5258,71.2568,6.6643,-39.623,7.37743,7.12502,-12.6043,-22.2223,1.25234e-14,-8.74653e-15,28.3229,5.61071,26.471,64.067,6.7861,-20.7719,18.768,7.12502,5.59461,48.6741,-16.6444,9.4249,8.69529,49.544,-17.8542,-10.925,-6.55071,-6.77434,-2.21118,-27.5883,29.8146,-19.5588,9.35414,-4.52968
-4.97726,18.3481,4.23049,-21.3597,-81.2279,21.3282,5.10026,0.478913,-6.18046,-0.0131867,0.20205,-1.38292,-2.89667,0.16713,2.02241,-15.1304,-2.71198,-8.00357,-17.3422,-2.70502,8.71609,-2.55532,-1.43575,3.99335,2.64259e-14,-1.66979e-14,28.5077,-15.2826,-31.4443,70.6756,7.15646,-40.1996,6.94064,7.12502,-13.1602,-22.624,2.64259e-14,-1.66979e-14,29.4048,6.06179,26.2907,63.6808,6.80453,-20.8671,18.7557,7.12502,5.50262,48.6643,-16.5437,9.47488,8.78469,49.6099,-17.55,-11.0447,-7.59009,-6.59356,-2.28886,-27.5395,29.7659,-19.5476,9.32914,-4.37037
-4.99814,18.3758,4.24491,-20.3765,-81.2982,19.9959,5.49391,0.474093,-5.92988,-0.0323111,0.180866,-1.36091,-3.13495,0.159989,1.90526,-15.2793,-2.70464,-7.85967,-17.3077,-2.71895,8.61452,-2.52746,-1.44737,3.93468,4.37326e-15,-1.55052e-14,29.4304,-15.7256,-31.4001,70.1199,7.54678,-40.6518,6.10601,7.12502,-13.596,-23.43,4.37326e-15,-1.55052e-14,30.4652,6.42099,26.0882,63.3853,7.04988,-20.9767,18.5356,7.12502,5.39682,48.4468,-16.3225,9.92354,8.96892,49.5982,-17.2305,-10.975,-7.39761,-6.06282,-2.47255,-27.3903,29.6571,-19.5655,9.5678,-4.76897
-5.01582,18.383,4.25469,-19.2683,-81.3393,18.5628,5.81035,0.446185,-5.69813,-0.0186988,0.138025,-1.31932,-3.2945,0.139502,1.82134,-15.3848,-2.73691,-8.00137,-17.3597,-2.72309,8.82925,-2.5193,-1.44651,4.02604,1.55797e-14,1.23246e-14,30.3901,-16.2833,-31.4538,69.584,7.87129,-40.5819,5.74459,7.12502,-13.5287,-23.7959,1.55797e-14,1.23246e-14,31.4435,6.84699,25.9361,63.0804,7.35914,-21.1782,18.0379,7.12502,5.20231,47.9541,-15.9827,10.1089,9.19627,49.583,-16.9053,-10.813,-8.19566,-5.59007,-2.62437,-27.221,29.5741,-19.5465,9.74549,-5.15396
-5.03731,18.3842,4.25199,-20.6712,-81.1505,20.0652,5.63464,0.381479,-6.10917,-0.0524801,0.0316172,-1.39547,-3.22412,0.0905592,1.98155,-15.5003,-2.80219,-8.25666,-17.4957,-2.74385,9.20238,-2.52717,-1.4529,4.1879,-1.74931e-14,6.36111e-15,31.4207,-16.9508,-31.7188,69.063,8.21895,-40.3183,5.80206,7.12502,-13.2746,-23.7552,-1.74931e-14,6.36111e-15,32.4856,7.3462,25.8539,62.616,7.43276,-20.8279,18.509,7.12502,5.54047,48.4166,-16.0119,10.1735,8.85941,49.6016,-16.6493,-10.7557,-8.66115,-5.5856,-2.57406,-27.5056,29.4894,-19.3431,9.7319,-5.58443
-5.05938,18.3886,4.24751,-21.1485,-80.9933,20.7161,5.36699,0.360582,-6.35512,-0.0858963,0.00510165,-1.44789,-3.10681,0.0778348,2.06709,-15.6735,-2.90144,-8.3761,-17.6113,-2.84426,9.34723,-2.52321,-1.50032,4.25136,-3.15571e-15,0,32.2859,-17.6482,-31.8219,68.5274,8.4226,-40.4092,5.71687,7.12502,-13.3622,-23.8347,-3.15571e-15,0,33.7035,7.69917,25.8151,62.2037,7.43654,-20.5655,19.4114,7.12502,5.79386,49.3122,-16.1362,10.3511,8.68166,49.6332,-16.4258,-10.832,-7.98418,-5.74083,-2.48405,-27.6187,29.5131,-19.1477,9.58429,-6.1033
-5.07908,18.3974,4.24522,-20.317,-80.92,19.959,5.23893,0.405744,-6.26502,-0.122428,0.0783561,-1.4882,-3.0784,0.112511,1.96937,-15.8954,-3.02161,-8.33207,-17.5777,-3.00386,9.30279,-2.47041,-1.5774,4.22106,-1.10325e-14,-1.59028e-15,32.8458,-18.3482,-31.7285,68.0818,8.63881,-40.6863,5.26183,7.12502,-13.6293,-24.272,-1.10325e-14,-1.59028e-15,35.0631,7.91903,25.9048,61.7962,7.41402,-20.7367,18.922,7.12502,5.6286,48.8272,-16.1408,10.5586,8.79042,49.6537,-16.2663,-10.8736,-7.46093,-5.80163,-2.31495,-27.4526,29.5065,-18.9056,9.29349,-6.48763
-5.09874,18.4049,4.24415,-19.8705,-80.8522,19.5441,5.17691,0.417497,-6.24605,-0.18303,0.0960147,-1.52465,-3.10778,0.122637,1.91959,-16.0627,-3.09349,-8.29541,-17.5233,-3.09927,9.27476,-2.42387,-1.62291,4.19939,-2.54693e-15,3.97569e-15,33.4958,-18.9404,-31.7677,67.6413,8.89687,-40.7027,4.99341,7.12502,-13.6451,-24.5393,-2.54693e-15,3.97569e-15,36.2875,8.18359,26.0606,61.2128,7.20004,-20.8573,17.6604,7.12502,5.51209,47.5687,-16.0687,10.789,8.8301,49.6242,-16.1616,-10.7935,-7.91223,-5.79803,-2.16186,-27.3365,29.5081,-18.7434,8.8628,-5.70167
-5.11735,18.4075,4.24495,-20.644,-80.6813,20.1154,5.40553,0.358577,-6.43858,-0.211308,-0.018321,-1.57639,-3.25739,0.072424,1.98203,-16.1536,-3.08804,-8.27941,-17.5587,-3.09464,9.2669,-2.4229,-1.62202,4.19441,-6.33626e-15,-9.93923e-15,34.3704,-19.3641,-32.0768,67.1694,9.20644,-40.798,5.0838,7.12502,-13.737,-24.4428,-6.33626e-15,-9.93923e-15,37.1674,8.58975,26.1002,60.6867,7.04581,-20.5285,16.6293,7.12502,5.82955,46.5291,-15.6796,10.9836,8.69314,49.529,-16.1248,-10.6515,-8.68102,-5.53523,-2.02842,-27.4423,29.5577,-18.6499,8.4846,-5.29102
-5.13329,18.4131,4.24378,-20.4477,-80.5316,19.6946,5.66586,0.285124,-6.41839,-0.256177,-0.142879,-1.65247,-3.44081,0.0149892,1.90207,-16.0192,-3.05485,-8.14641,-17.7213,-3.07884,9.26345,-2.49427,-1.62749,4.17698,2.89667e-14,-8.34896e-15,35.1368,-19.7204,-32.4789,66.6572,9.49601,-41.044,5.1478,7.12502,-13.9741,-24.3626,2.89667e-14,-8.34896e-15,37.8916,8.9087,25.8301,60.4053,7.15912,-20.2326,16.2677,7.12502,6.11524,46.1594,-15.2412,11.2069,8.77019,49.3632,-16.0533,-10.59,-8.93549,-5.29526,-1.8116,-27.3703,29.6461,-18.44,8.30109,-6.64395
-5.1522,18.4278,4.23956,-18.2406,-80.5892,17.434,5.66844,0.196082,-6.12456,-0.299962,-0.234732,-1.50918,-3.47991,-0.0309014,1.89428,-16.1756,-3.06308,-8.33401,-17.6731,-3.05166,9.35225,-2.4546,-1.60267,4.23485,3.13645e-14,8.74653e-15,36.0544,-20.0565,-32.7976,66.2345,9.67132,-40.917,5.65636,7.12502,-13.8517,-23.8624,3.13645e-14,8.74653e-15,38.5375,9.32381,25.8278,60.1007,7.15593,-20.2465,16.1375,7.12502,6.10186,46.0296,-15.0168,11.6477,9.24943,49.1606,-16.142,-10.5429,-10.2819,-5.26553,-1.63067,-26.9051,29.7091,-18.1355,8.29783,-8.762
-5.17376,18.4418,4.23547,-16.2989,-80.6313,15.4307,5.65205,0.14875,-5.93017,-0.362674,-0.277278,-1.3607,-3.53203,-0.0500983,1.94302,-16.287,-3.10106,-8.47067,-17.5978,-3.07072,9.43648,-2.40977,-1.60281,4.28067,9.57272e-15,-1.98785e-15,36.7647,-20.3416,-32.8903,65.9109,9.74094,-40.6921,6.23411,7.12502,-13.6349,-23.2993,9.57272e-15,-1.98785e-15,39.2946,9.59149,26.0321,59.7453,6.9173,-20.2935,16.1888,7.12502,6.05645,46.0822,-14.7741,12.0117,9.68045,48.953,-16.2938,-10.3408,-9.82218,-5.20059,-1.71885,-26.5282,29.7659,-17.9939,8.3763,-9.72253
-5.19508,18.4449,4.22714,-17.6228,-80.4891,16.7401,5.61921,0.114987,-6.26522,-0.439675,-0.349738,-1.41574,-3.58759,-0.0779978,2.07919,-16.2628,-3.13872,-8.58947,-17.6387,-3.09796,9.53373,-2.41827,-1.61224,4.33153,1.87789e-14,-6.75868e-15,37.4074,-20.5849,-33.0213,65.5744,9.85008,-40.7939,6.27065,7.12502,-13.733,-23.2562,1.87789e-14,-6.75868e-15,40.0189,9.81636,26.2368,59.4469,6.58742,-20.2211,16.4687,7.12502,6.12635,46.3601,-14.5679,12.2767,9.43532,48.7549,-16.4738,-9.63402,-10.7348,-5.14462,-1.80706,-26.78,29.8393,-17.8979,8.45032,-10.2071
-5.2188,18.4527,4.21787,-18.2915,-80.3602,17.4925,5.42587,0.130877,-6.39962,-0.476808,-0.332237,-1.57573,-3.51953,-0.0707428,1.98625,-16.3763,-3.22813,-8.53499,-17.6712,-3.21613,9.58138,-2.40095,-1.67414,4.33229,5.38582e-15,1.74931e-14,37.8348,-21.0543,-33.2722,65.1822,10.1245,-41.2772,6.76277,7.12502,-14.1987,-22.7319,5.38582e-15,1.74931e-14,41.0153,10.0001,26.3971,59.1477,6.34464,-20.0026,16.7128,7.12502,6.33735,46.598,-14.4757,12.5603,9.27946,48.5255,-16.6565,-8.47126,-11.4078,-5.18412,-1.89684,-26.9075,29.8776,-17.7625,8.42567,-10.4095
-5.24171,18.4691,4.21483,-16.5619,-80.3573,15.7212,5.35083,0.135396,-6.04153,-0.468171,-0.295475,-1.5899,-3.47185,-0.0603149,1.76851,-16.6468,-3.31175,-8.50816,-17.6002,-3.32051,9.56544,-2.33375,-1.72239,4.3138,-5.78029e-15,-7.55382e-15,38.3988,-21.5713,-33.6279,64.6913,10.5067,-41.6179,7.5738,7.12502,-14.527,-21.8976,-5.78029e-15,-7.55382e-15,41.9506,10.1875,26.589,58.8211,6.1905,-20.0951,16.6058,7.12502,6.24798,46.4936,-14.2285,12.8722,9.65145,48.2367,-16.9311,-7.11891,-12.5812,-5.08675,-2.07318,-26.553,29.8643,-17.6865,8.25774,-9.39121
-5.26324,18.486,4.21106,-15.6118,-80.3157,14.6919,5.36173,0.140084,-5.82857,-0.461996,-0.277871,-1.64223,-3.47353,-0.0561722,1.59409,-16.9083,-3.37268,-8.33055,-17.5423,-3.42605,9.4629,-2.27738,-1.77944,4.24291,-1.82105e-14,-2.38542e-15,38.9357,-22.0333,-33.967,64.312,10.7424,-41.6453,7.73233,7.12502,-14.5534,-21.7371,-1.82105e-14,-2.38542e-15,42.8476,10.3896,26.7913,58.4768,5.94618,-20.346,16.7409,7.12502,6.00578,46.6358,-13.9121,13.2298,9.88389,47.9095,-17.1442,-5.56376,-12.9535,-4.96006,-1.99564,-26.3141,29.8679,-17.508,7.95636,-8.90005
-5.28714,18.4983,4.20073,-16.0078,-80.2455,15.0861,5.25116,0.14487,-5.9225,-0.458473,-0.274277,-1.74153,-3.40826,-0.0561718,1.54328,-17.1475,-3.44445,-8.2005,-17.5022,-3.53605,9.42383,-2.22638,-1.83801,4.20038,-8.51668e-15,3.57812e-14,39.4428,-22.3926,-34.2423,64.0273,11,-41.7782,6.96689,7.12502,-14.6815,-22.4933,-8.51668e-15,3.57812e-14,43.6331,10.5791,26.9023,58.1807,5.74845,-20.6174,16.8385,7.12502,5.74375,46.7407,-13.6889,13.6419,9.85255,47.5646,-17.1728,-4.04978,-12.5559,-4.93262,-1.77356,-26.3074,29.9184,-17.2457,7.7324,-9.42353
-5.31254,18.5117,4.18818,-16.5782,-80.1569,15.6917,5.07142,0.173049,-6.08554,-0.445973,-0.237052,-1.82758,-3.29691,-0.0395252,1.54202,-17.3471,-3.53131,-8.19377,-17.4822,-3.64431,9.42741,-2.18399,-1.88941,4.1928,2.6926e-14,-2.38542e-14,39.9213,-22.8236,-34.4827,63.637,11.2611,-42.025,6.68213,7.12502,-14.9192,-22.7606,2.6926e-14,-2.38542e-14,44.4458,10.7207,27.0922,57.906,5.61619,-20.7777,16.774,7.12502,5.58895,46.6803,-13.4948,14.1404,9.80953,47.2469,-17.2085,-2.75319,-11.9936,-4.92935,-1.52936,-26.3296,29.9423,-16.909,7.59123,-10.4119
-5.33191,18.531,4.1808,-15.35,-80.1976,14.3233,5.13926,0.201688,-5.77757,-0.408889,-0.184021,-1.86026,-3.30056,-0.0192937,1.33248,-17.6421,-3.56438,-7.99681,-17.3712,-3.72128,9.2492,-2.11378,-1.93067,4.09415,6.81769e-16,3.18055e-15,40.4804,-23.3078,-34.8857,63.1942,11.5554,-42.1625,6.83857,7.12502,-15.0517,-22.5943,6.81769e-16,3.18055e-15,45.2499,10.825,27.2837,57.6244,5.2989,-21.23,17.5147,7.12502,5.1523,47.4321,-13.1321,14.8249,10.2235,46.9402,-17.34,-1.38443,-10.065,-4.77129,-1.28237,-25.9814,29.9514,-16.6185,7.50088,-11.2352
-5.35124,18.5476,4.17289,-14.149,-80.3386,12.9197,5.28235,0.245288,-5.44711,-0.369844,-0.114696,-1.88945,-3.34497,0.00962166,1.1125,-17.9252,-3.54644,-7.70737,-17.2458,-3.75172,9.01304,-2.04857,-1.95365,3.96397,-7.29912e-17,-2.38542e-15,41.008,-23.6615,-35.3147,62.9035,11.9087,-42.2872,6.56319,7.12502,-15.1719,-22.8606,-7.29912e-17,-2.38542e-15,45.9506,10.9529,27.4006,57.3526,4.95615,-21.7707,18.2656,7.12502,4.63019,48.195,-12.7421,15.5921,10.6907,46.661,-17.4882,-0.0936376,-7.94164,-4.52127,-1.25496,-25.6502,29.9893,-16.5646,7.50546,-11.2008
-5.37303,18.5604,4.16046,-13.5744,-80.4241,12.3222,5.21359,0.266162,-5.27908,-0.371573,-0.075343,-1.9805,-3.31037,0.0242479,0.921617,-18.2041,-3.54733,-7.47159,-17.1246,-3.78716,8.93935,-1.97756,-1.97858,3.89375,-2.7322e-14,-1.66979e-14,41.5622,-23.9707,-35.8112,62.5473,12.1787,-42.4991,6.26712,7.12502,-15.3759,-23.1411,-2.7322e-14,-1.66979e-14,46.5222,11.1378,27.2869,57.1757,4.96175,-22.0197,18.2589,7.12502,4.38975,48.1934,-12.5447,16.2883,11.0049,46.4171,-17.6173,0.476697,-7.28572,-4.48501,-1.30336,-25.4696,30.0583,-16.4391,7.5429,-11.3626
-5.39448,18.5744,4.14616,-13.0404,-80.4185,11.8048,5.07783,0.2892,-5.16177,-0.359064,-0.0296932,-2.04388,-3.22329,0.0420828,0.787477,-18.4347,-3.62611,-7.44222,-17.0615,-3.88181,9.02005,-1.91713,-2.02431,3.90535,1.71514e-14,-5.56597e-15,42.0635,-24.2929,-36.1402,62.1723,12.2919,-42.726,5.61539,7.12502,-15.5944,-23.776,1.71514e-14,-5.56597e-15,47.1081,11.3102,27.231,56.9961,5.10618,-21.9913,18.2111,7.12502,4.41719,48.145,-12.3892,16.8085,11.3028,46.2264,-17.7129,0.614208,-6.73833,-4.51289,-1.36873,-25.3047,30.1372,-16.2465,7.52357,-11.6598
-5.41827,18.5909,4.13412,-13.1787,-80.4471,11.899,4.98009,0.33818,-5.23117,-0.331539,0.0396533,-2.03768,-3.14352,0.0756294,0.827669,-18.6096,-3.66478,-7.48757,-17.0323,-3.91794,9.03399,-1.8808,-2.03711,3.91278,-2.40126e-14,2.3059e-14,42.5797,-24.576,-36.3023,61.8164,12.3717,-42.8693,5.73399,7.12502,-15.7325,-23.6465,-2.40126e-14,2.3059e-14,47.6778,11.4819,27.5297,56.7788,5.21109,-21.6677,17.9802,7.12502,4.72962,47.9074,-12.1523,17.3227,11.4996,46.0365,-17.7556,0.797273,-5.14126,-4.48786,-1.42127,-25.2544,30.3688,-16.1915,7.49566,-11.4167
-5.43934,18.5935,4.11769,-13.7573,-80.5695,12.3668,4.97522,0.393484,-5.34057,-0.298053,0.106145,-2.07331,-3.11005,0.10837,0.847016,-18.8092,-3.61415,-7.29503,-16.9835,-3.89207,8.85245,-1.85176,-2.03059,3.8218,1.64541e-15,-2.3059e-14,43.1628,-24.8121,-36.6349,61.4285,12.4616,-42.9518,5.81465,7.12502,-15.812,-23.5596,1.64541e-15,-2.3059e-14,48.2005,11.6022,27.7772,56.5076,4.87443,-21.7912,18.133,7.12502,4.6104,48.0628,-11.9003,17.5401,11.774,45.8921,-17.6422,0.247112,-5.83855,-4.42039,-1.32582,-25.2335,30.6299,-16.133,7.47686,-11.6872
-5.4531,18.5715,4.09797,-13.2074,-80.6775,11.7629,4.97214,0.441681,-5.13474,-0.309071,0.179739,-2.14077,-3.12247,0.141255,0.656902,-19.0024,-3.67131,-7.27207,-16.8852,-3.96239,8.87124,-1.79033,-2.06225,3.81572,-1.43042e-14,3.02153e-14,43.6126,-25.037,-36.9332,61.0613,12.5549,-43.1505,5.06314,7.12502,-16.0033,-24.2959,-1.43042e-14,3.02153e-14,48.8612,11.5689,27.9792,56.0919,4.07324,-22.5441,18.6533,7.12502,3.88338,48.5977,-11.7653,16.827,12.3726,45.7417,-17.1901,-1.53477,-12.6877,-4.54185,-1.26359,-25.0165,30.9592,-16.0134,7.44831,-12.4911
-5.47283,18.5731,4.07848,-13.2755,-80.7417,11.8519,4.85416,0.483364,-5.12317,-0.319683,0.241739,-2.18681,-3.0699,0.1703,0.598913,-19.1263,-3.68802,-7.23876,-16.8807,-3.98774,8.85612,-1.77181,-2.0751,3.80263,-1.06361e-14,2.06736e-14,44.1104,-25.2412,-37.1739,60.659,12.6238,-43.2037,4.69119,7.12502,-16.0545,-24.6637,-1.06361e-14,2.06736e-14,49.524,11.6273,28.3673,55.6608,3.41497,-22.9213,19.2644,7.12502,3.51912,49.2151,-11.6714,16.8503,12.6296,45.6679,-17.0641,-2.42688,-13.0871,-4.67292,-1.13911,-24.9219,31.2568,-15.8632,7.45637,-13.8614
-5.49415,18.5766,4.05745,-13.4731,-80.8172,12.0136,4.75374,0.48064,-5.1889,-0.28883,0.240439,-2.23181,-2.98165,0.167621,0.590135,-19.2811,-3.5633,-6.87603,-16.879,-3.89784,8.69063,-1.76978,-2.04924,3.69354,-8.84669e-15,1.27222e-14,44.788,-25.4191,-37.6663,60.2356,12.8,-43.1377,5.16974,7.12502,-15.9909,-24.1903,-8.84669e-15,1.27222e-14,49.9778,11.8155,28.5091,55.4017,2.94085,-22.9045,20.1843,7.12502,3.53537,50.1347,-11.4972,16.8834,12.9129,45.6084,-16.956,-3.58057,-13.5152,-4.70361,-0.920716,-24.7994,31.5385,-15.7927,7.29389,-14.665
-5.51453,18.5842,4.03913,-13.9754,-80.9047,12.4506,4.70617,0.526395,-5.17732,-0.259587,0.302753,-2.31216,-2.92722,0.195564,0.496812,-19.4118,-3.53068,-6.67343,-16.842,-3.8952,8.58679,-1.74874,-2.05648,3.62529,3.81185e-15,-3.18055e-15,45.3271,-25.6514,-38.0692,59.8824,13.0216,-43.2837,5.4114,7.12502,-16.1316,-23.9373,3.81185e-15,-3.18055e-15,50.4009,12.0024,28.5107,55.2224,2.58403,-22.7428,20.8694,7.12502,3.69148,50.8172,-11.3041,16.9043,13.118,45.5872,-16.858,-4.59315,-13.081,-4.6354,-0.859482,-24.7457,31.6787,-15.7583,7.11389,-14.4171
-5.53487,18.5932,4.0181,-14.9759,-80.9491,13.4984,4.5845,0.572922,-5.33338,-0.282269,0.360299,-2.37211,-2.88599,0.224776,0.518601,-19.5849,-3.6128,-6.67566,-16.6887,-3.99301,8.62719,-1.67047,-2.09929,3.62769,2.20216e-15,1.59028e-14,45.8218,-25.8073,-38.2935,59.5205,13.1528,-43.4208,4.74595,7.12502,-16.2635,-24.592,2.20216e-15,1.59028e-14,50.6991,12.2479,28.2804,54.9958,2.62184,-22.9122,20.7429,7.12502,3.52786,50.6935,-11.2639,16.8585,13.1571,45.5638,-16.7141,-5.15588,-11.7915,-4.69518,-0.941234,-24.8157,31.7943,-15.6803,7.01575,-13.9564
-5.55499,18.6,3.9924,-15.7871,-81.0084,14.3479,4.47523,0.570265,-5.55943,-0.309803,0.348473,-2.41114,-2.85418,0.220961,0.605778,-19.7398,-3.6074,-6.54502,-16.5469,-4.00237,8.67109,-1.60628,-2.10693,3.61433,8.22782e-15,1.03368e-14,46.4479,-25.8736,-38.7045,59.1051,13.255,-43.5346,4.67413,7.12502,-16.3731,-24.6548,8.22782e-15,1.03368e-14,50.9158,12.4844,27.9611,54.6254,2.81802,-23.6162,20.6691,7.12502,2.84805,50.6299,-11.2522,16.7109,13.274,45.5523,-16.5669,-5.67107,-11.0178,-4.72079,-0.964452,-24.8148,31.8661,-15.5892,6.87682,-13.3354
-5.57496,18.6071,3.96863,-15.6652,-81.1787,14.1505,4.46044,0.60345,-5.49905,-0.309007,0.39607,-2.43541,-2.8468,0.243226,0.543919,-19.8159,-3.52598,-6.41779,-16.4917,-3.92158,8.59547,-1.59011,-2.07122,3.57196,1.41417e-14,4.77083e-14,47.0012,-25.9757,-39.1075,58.7167,13.3474,-43.6117,4.7729,7.12502,-16.4474,-24.5499,1.41417e-14,4.77083e-14,51.2722,12.6439,27.9495,54.1789,2.71138,-24.2437,20.5729,7.12502,2.24202,50.5409,-11.1532,16.5514,13.6159,45.5437,-16.4025,-6.21965,-11.1144,-4.59437,-0.916605,-24.623,31.908,-15.4373,6.84136,-13.5876
-5.59565,18.6166,3.94389,-17.0082,-81.2129,15.531,4.32321,0.650604,-5.68474,-0.311939,0.454714,-2.51569,-2.77695,0.271937,0.561716,-19.899,-3.514,-6.431,-16.4673,-3.90535,8.52862,-1.57542,-2.06025,3.55274,-9.6659e-15,1.43125e-14,47.4798,-26.0966,-39.3575,58.4232,13.2995,-43.8079,4.5417,7.12502,-16.6362,-24.7653,-9.6659e-15,1.43125e-14,51.6885,12.7942,28.0917,53.7907,2.58871,-24.5201,20.4308,7.12502,1.97503,50.4014,-11.1524,16.3499,13.6,45.542,-16.3246,-6.62506,-10.9525,-4.58341,-0.770469,-24.6933,31.9409,-15.2554,6.64372,-13.8252
-5.61586,18.6259,3.92026,-17.7368,-81.2428,16.1448,4.35368,0.67148,-5.74528,-0.2997,0.474369,-2.56791,-2.78275,0.281415,0.539979,-20.0537,-3.66341,-6.61436,-16.2911,-4.04757,8.73936,-1.4798,-2.11547,3.63552,1.37969e-14,3.89618e-14,47.9116,-26.1274,-39.5775,58.1915,13.2026,-43.9233,4.61536,7.12502,-16.7473,-24.6823,1.37969e-14,3.89618e-14,52.0433,13.0237,28.2689,53.3848,2.30701,-24.3132,19.965,7.12502,2.17485,49.9337,-10.9658,16.1508,13.7722,45.5583,-16.2695,-7.10019,-11.0537,-4.41377,-0.529587,-24.6308,31.9208,-15.0365,6.41727,-14.3599
-5.63684,18.6305,3.90008,-17.8122,-81.3835,15.9488,4.47964,0.703008,-5.6088,-0.226077,0.517081,-2.57745,-2.77796,0.299382,0.450615,-20.2955,-3.87566,-7.03154,-16.0299,-4.20816,9.20838,-1.32976,-2.16484,3.83349,3.95706e-15,3.18055e-15,48.4101,-26.1493,-39.8107,57.9132,13.1836,-44.0994,4.8816,7.12502,-16.9169,-24.4016,3.95706e-15,3.18055e-15,52.3728,13.3145,28.4312,52.9304,1.79766,-24.1687,19.1942,7.12502,2.31439,49.1614,-10.6293,15.9462,14.164,45.5899,-16.0948,-7.64245,-11.9217,-4.05905,-0.490126,-24.4993,31.8672,-14.8097,6.60855,-14.9791
-5.65805,18.6368,3.87635,-20.3878,-81.3642,18.5912,4.307,0.737018,-5.9347,-0.244738,0.549267,-2.72118,-2.70448,0.315478,0.483147,-20.5354,-3.89248,-7.20412,-15.7496,-4.1756,9.36821,-1.20544,-2.12877,3.90525,-1.99903e-14,1.19271e-14,48.8672,-26.1976,-40.0524,57.5888,13.2462,-44.3145,4.59755,7.12502,-17.1239,-24.6678,-1.99903e-14,1.19271e-14,52.6551,13.4585,28.4533,52.5925,1.32531,-24.4637,19.3976,7.12502,2.02949,49.3677,-10.6824,15.7068,13.8787,45.6302,-16.0475,-7.75889,-11.5861,-4.03975,-0.71215,-24.9058,31.8209,-14.5514,6.99079,-15.2998
-5.68113,18.6453,3.85137,-22.2057,-81.353,20.4966,4.11815,0.751416,-6.1248,-0.286218,0.564251,-2.86535,-2.64313,0.321902,0.440821,-20.7391,-3.78436,-7.01781,-15.4915,-4.07175,9.17174,-1.11958,-2.07674,3.81156,7.14382e-15,7.15625e-15,49.3129,-26.2046,-40.4197,57.3,13.3854,-44.5817,4.60626,7.12502,-17.3811,-24.6366,7.14382e-15,7.15625e-15,52.9199,13.5728,28.4202,52.4175,1.1843,-24.4175,20.5986,7.12502,2.07414,50.5683,-10.7124,15.5126,13.6947,45.6199,-16.1054,-7.79074,-10.8906,-4.04485,-0.665741,-25.0999,31.7979,-14.3284,6.93375,-15.4459
-5.70348,18.6554,3.82681,-22.288,-81.3997,20.4758,4.10797,0.73854,-6.04052,-0.273086,0.5517,-2.89768,-2.62184,0.313416,0.361732,-20.8536,-3.74466,-6.89043,-15.3606,-4.05136,8.98929,-1.0762,-2.06851,3.73076,1.77912e-14,-6.36111e-15,49.8236,-26.2016,-40.776,56.9728,13.5194,-44.9041,5.65673,7.12502,-17.6914,-23.5584,1.77912e-14,-6.36111e-15,53.1595,13.8385,28.4957,52.2154,1.46385,-24.2494,20.8351,7.12502,2.23645,50.8031,-10.4684,15.2634,13.9062,45.5123,-16.0987,-7.95598,-11.0301,-3.89007,-0.389211,-24.9105,31.8157,-14.0731,6.65411,-15.9584
-5.72219,18.6675,3.80083,-22.5068,-81.4176,20.5948,4.12737,0.737897,-6.07213,-0.25914,0.550303,-2.85611,-2.61895,0.3135,0.422197,-20.9094,-3.75908,-6.98193,-15.2999,-4.05515,8.89558,-1.05286,-2.06354,3.71453,1.5381e-14,-9.54166e-15,50.2935,-26.1753,-40.9081,56.7092,13.5413,-45.3384,5.6844,7.12502,-18.1092,-23.4926,1.5381e-14,-9.54166e-15,53.3171,14.1237,28.7269,51.9838,1.55854,-24.3715,20.3943,7.12502,2.11855,50.3635,-10.1901,15.0134,14.0501,45.2921,-16.0404,-7.9756,-11.0824,-3.78941,-0.232756,-24.7616,31.9027,-13.8458,6.4592,-16.1407
-5.74003,18.6777,3.7817,-21.4798,-81.5611,19.1928,4.47295,0.750195,-5.6932,-0.224596,0.563519,-2.80045,-2.77417,0.319288,0.264315,-21.0049,-3.89187,-7.3042,-15.097,-4.14246,9.18879,-0.954345,-2.0831,3.84881,-2.34814e-14,-1.90833e-14,50.644,-26.1164,-41.0453,56.5299,13.7597,-45.8219,4.90298,7.12502,-18.5744,-24.2302,-2.34814e-14,-1.90833e-14,53.4776,14.2644,28.8004,51.7138,1.32124,-24.5843,20.588,7.12502,1.91303,50.5591,-9.56943,14.8085,14.5244,45.0143,-15.9403,-8.00537,-11.5461,-3.38657,-0.333144,-24.4158,32.0039,-13.754,6.49246,-15.9349
-5.75934,18.6917,3.76399,-20.5734,-81.6857,17.976,4.7377,0.73897,-5.28156,-0.196233,0.553278,-2.80353,-2.88837,0.310796,0.0298619,-21.0759,-4.17135,-7.79994,-14.969,-4.36978,9.89822,-0.84796,-2.1655,4.13481,2.18663e-15,-2.78299e-14,50.9845,-26.0568,-41.2802,56.3954,14.0284,-46.229,4.61708,7.12502,-18.9659,-24.4783,2.18663e-15,-2.78299e-14,53.6413,14.4208,28.7985,51.4739,1.11087,-24.5713,20.8612,7.12502,1.92563,50.8322,-9.04143,14.6388,14.9182,44.7718,-15.8014,-7.96421,-11.8158,-3.03656,-0.400355,-24.1059,32.0474,-13.638,6.45913,-15.2621
-5.7819,18.7075,3.73181,-22.0231,-81.6202,19.6828,4.41692,0.734526,-5.65794,-0.308542,0.544833,-2.80345,-2.82831,0.311989,0.242674,-21.1569,-3.86773,-7.29511,-14.8539,-4.11211,9.04706,-0.869217,-2.06032,3.79834,2.19036e-14,7.95139e-16,51.343,-25.9881,-41.3709,56.2307,14.2498,-46.4875,4.58634,7.12502,-19.2145,-24.4845,2.19036e-14,7.95139e-16,53.8167,14.6176,29.0965,51.226,1.00485,-24.4383,20.7199,7.12502,2.05401,50.6898,-9.18224,14.628,14.6849,44.5879,-15.6615,-7.93866,-11.9141,-3.28595,-0.273317,-24.2166,32.0325,-13.2799,6.30765,-16.0366
-5.80439,18.7185,3.69557,-23.6447,-81.5838,21.4964,4.1336,0.729591,-6.07903,-0.410249,0.532288,-2.80802,-2.77862,0.3116,0.475146,-21.1131,-3.78499,-7.2228,-14.8028,-4.02834,8.85396,-0.874951,-2.02168,3.73074,2.37299e-14,1.19271e-14,51.6846,-25.8712,-41.4583,56.0659,14.4027,-46.7783,4.97447,7.12502,-19.4942,-24.0683,2.37299e-14,1.19271e-14,53.9469,14.7958,29.3763,51.0173,0.82759,-24.4862,20.369,7.12502,2.00782,50.3393,-9.27102,14.7664,14.492,44.4278,-15.4367,-7.99406,-12.3125,-3.42882,-0.24907,-24.345,31.9832,-12.9637,6.21272,-16.9094
-5.82469,18.7336,3.66818,-24.3799,-81.6118,22.1918,4.11184,0.721291,-6.10346,-0.45881,0.516819,-2.8481,-2.81591,0.305101,0.448112,-21.038,-3.82541,-7.401,-14.7842,-4.03797,9.03392,-0.867823,-2.01713,3.81617,-1.40143e-14,-1.51076e-14,52.0081,-25.7629,-41.6576,55.9078,14.6124,-47.1347,5.44643,7.12502,-19.8367,-23.5613,-1.40143e-14,-1.51076e-14,54.1221,14.9498,29.5323,50.7452,0.64165,-24.6796,20.1291,7.12502,1.82098,50.1011,-9.08565,14.7434,14.5116,44.2412,-15.0879,-7.97988,-13.4892,-3.302,-0.469265,-24.3621,31.9211,-12.6363,6.37943,-17.4532
-5.84634,18.7538,3.64441,-24.5958,-81.6685,22.3965,4.02916,0.733566,-6.02219,-0.496833,0.543273,-2.83926,-2.80922,0.317882,0.410888,-20.9945,-3.79731,-7.41222,-14.7928,-4.00621,8.90688,-0.883788,-2.00147,3.78087,7.15625e-15,1.59028e-15,52.2886,-25.6852,-41.7059,55.7965,14.8476,-47.4789,4.89233,7.12502,-20.1676,-24.0808,7.15625e-15,1.59028e-15,54.239,15.0919,29.6364,50.5565,0.57714,-24.8551,20.357,7.12502,1.65148,50.3303,-8.92382,14.611,14.5424,43.9981,-14.7592,-7.76606,-14.6257,-3.22194,-0.588235,-24.2706,31.8791,-12.332,6.35434,-17.1711
-5.87282,18.774,3.61676,-24.1031,-81.7957,21.8873,3.91919,0.7305,-5.90897,-0.551925,0.555558,-2.76915,-2.80414,0.324664,0.420243,-20.9765,-3.60478,-7.09132,-14.7413,-3.83996,8.47849,-0.905066,-1.93458,3.60356,-9.19379e-16,2.38542e-15,52.5939,-25.5692,-41.7985,55.67,15.0875,-47.7542,5.39487,7.12502,-20.4322,-23.5501,-9.19379e-16,2.38542e-15,54.2367,15.2229,29.6931,50.4744,0.536068,-24.8993,20.5872,7.12502,1.60881,50.5609,-8.71267,14.6969,14.7362,43.7121,-14.5578,-7.50245,-14.8136,-3.16775,-0.623213,-24.0178,31.8742,-12.0712,6.3064,-16.5532
-5.89679,18.7943,3.58761,-24.1169,-81.9115,21.9428,3.78273,0.730073,-5.85957,-0.62854,0.566226,-2.74431,-2.80678,0.33107,0.418533,-20.9728,-3.5048,-7.09605,-14.603,-3.70523,8.45749,-0.873676,-1.86329,3.60354,2.90474e-14,-1.35174e-14,52.8681,-25.4672,-41.9705,55.6316,15.3208,-48.1162,5.45377,7.12502,-20.7801,-23.4535,2.90474e-14,-1.35174e-14,54.3284,15.3445,29.7856,50.2895,0.467144,-24.9421,20.8401,7.12502,1.56748,50.8141,-8.59826,14.8283,14.8256,43.4464,-14.2542,-7.30154,-14.8588,-3.19018,-0.782942,-23.8944,31.8939,-11.7474,6.49167,-17.0546
-5.91806,18.8141,3.5585,-24.6774,-81.9808,22.4803,3.7512,0.732372,-5.8664,-0.69034,0.567582,-2.75296,-2.85317,0.333603,0.413007,-20.9585,-3.49562,-7.28379,-14.4667,-3.64417,8.61364,-0.829595,-1.81924,3.6847,8.02593e-15,1.59028e-15,53.1376,-25.343,-42.1199,55.563,15.6831,-48.6639,3.89201,7.12502,-21.3062,-24.9568,8.02593e-15,1.59028e-15,54.42,15.4702,29.8307,50.0586,0.531262,-25.0739,21.015,7.12502,1.4402,50.9899,-8.44156,14.9378,14.8555,43.2204,-13.8634,-7.15171,-15.2516,-3.1324,-0.730957,-23.8171,31.8969,-11.2974,6.56178,-17.8969
-5.93746,18.8317,3.53022,-24.7447,-82.0986,22.5096,3.77842,0.744088,-5.82255,-0.784341,0.5812,-2.6914,-2.96664,0.344789,0.449864,-20.8301,-3.44971,-7.38872,-14.4676,-3.56804,8.56748,-0.852631,-1.77713,3.69338,1.08338e-14,3.18055e-15,53.3751,-25.1972,-42.0992,55.4079,16.0623,-49.17,2.75946,7.12502,-21.7923,-26.0336,1.08338e-14,3.18055e-15,54.4235,15.591,29.8637,49.9002,0.574033,-25.1299,21.1471,7.12502,1.38608,51.1223,-8.2785,15.2087,14.9997,43.0137,-13.6172,-6.97489,-14.9562,-3.06742,-0.573906,-23.612,31.8976,-10.918,6.43869,-17.7844
-5.95746,18.8535,3.50034,-25.35,-82.2018,23.1165,3.78266,0.731552,-5.86398,-0.904919,0.555461,-2.68214,-3.09346,0.337319,0.482676,-20.7058,-3.40195,-7.4012,-14.4467,-3.50726,8.55843,-0.867078,-1.74686,3.69696,-3.8763e-15,1.19271e-14,53.6812,-25.0368,-42.3228,55.2771,16.5357,-49.5652,2.25711,7.12502,-22.1717,-26.4914,-3.8763e-15,1.19271e-14,54.448,15.7181,29.9129,49.7074,0.487533,-25.3669,21.1637,7.12502,1.15722,51.1403,-8.17617,15.537,15.0562,42.8292,-13.3051,-6.84985,-14.4803,-3.01336,-0.784746,-23.5505,31.8772,-10.6749,6.50165,-16.8193
-5.98147,18.8791,3.4684,-25.2723,-82.3615,23.0247,3.70274,0.717963,-5.77266,-0.988187,0.544376,-2.67838,-3.13304,0.332455,0.436533,-20.5537,-3.2949,-7.16823,-14.4648,-3.42943,8.35218,-0.908847,-1.72195,3.60023,2.53947e-14,1.66979e-14,54.0041,-24.8556,-42.5942,55.1547,16.8468,-49.7836,1.75086,7.12502,-22.3814,-26.9726,2.53947e-14,1.66979e-14,54.5547,15.8632,29.9863,49.4347,0.359903,-25.5199,20.9176,7.12502,1.00948,50.8949,-8.07381,15.6842,15.2474,42.6261,-12.8112,-6.74682,-15.0226,-2.94097,-0.977382,-23.3646,31.8605,-10.3356,6.60243,-16.7504
-6.00312,18.8999,3.4356,-25.7669,-82.4607,23.4438,3.70909,0.736049,-5.79732,-1.041,0.564804,-2.65429,-3.19304,0.345513,0.473061,-20.5085,-3.20229,-7.01599,-14.3598,-3.34688,8.14954,-0.898062,-1.68617,3.51514,7.45443e-15,-2.3059e-14,54.5127,-24.7479,-42.7938,54.7891,17.2255,-50.0346,2.30928,7.12502,-22.6223,-26.385,7.45443e-15,-2.3059e-14,54.7045,15.9998,30.117,49.1842,0.326106,-25.286,20.9852,7.12502,1.23535,50.9614,-7.89956,15.8233,15.3721,42.4216,-12.3447,-6.67765,-15.5434,-2.83759,-0.92222,-23.2395,31.8432,-9.72929,6.61468,-18.0826
-6.02484,18.9281,3.40252,-25.5786,-82.594,23.2245,3.69544,0.756805,-5.77873,-1.12879,0.594139,-2.5709,-3.27848,0.364577,0.545973,-20.3409,-3.19269,-7.26325,-14.3299,-3.27915,8.31856,-0.906527,-1.63977,3.61353,5.11871e-15,-5.56597e-15,55.0076,-24.6611,-42.997,54.4289,17.7325,-50.4715,3.02642,7.12502,-23.0416,-25.6162,5.11871e-15,-5.56597e-15,54.7358,16.0807,30.139,49.0112,0.195028,-25.2474,21.2875,7.12502,1.27262,51.2634,-7.76389,16.0136,15.5887,42.1991,-11.9551,-6.61691,-15.0662,-2.81981,-0.981643,-23.027,31.8497,-9.13078,6.71985,-18.9319
-6.04717,18.9606,3.37211,-24.6864,-82.7423,22.3368,3.65428,0.745437,-5.60387,-1.24217,0.58923,-2.50419,-3.3708,0.363886,0.517063,-20.1247,-3.18088,-7.5331,-14.3507,-3.2094,8.46412,-0.93789,-1.59334,3.70973,-7.20594e-15,1.19271e-14,55.3141,-24.5767,-43.1186,54.1871,18.1676,-50.9819,2.92594,7.12502,-23.5313,-25.6547,-7.20594e-15,1.19271e-14,54.6612,16.1752,30.0062,48.8609,0.163515,-25.5386,21.3756,7.12502,0.991359,51.3531,-7.67072,16.1445,15.8595,41.9989,-11.5467,-6.52493,-14.0103,-2.80695,-1.28282,-22.7642,31.8555,-8.77231,6.90145,-18.3106
-6.06762,18.9885,3.34599,-25.4202,-82.8502,23.0718,3.64614,0.764059,-5.5553,-1.36917,0.60968,-2.51183,-3.49845,0.377206,0.479301,-19.8541,-3.1955,-7.79269,-14.4004,-3.17903,8.62177,-0.982249,-1.56814,3.80667,1.95803e-14,9.54166e-15,55.7062,-24.5093,-43.1917,53.8106,18.4092,-51.1167,3.00194,7.12502,-23.6606,-25.562,1.95803e-14,9.54166e-15,54.6394,16.2365,29.8278,48.6923,0.355933,-25.5815,21.3646,7.12502,0.949921,51.3423,-7.58054,16.2577,15.917,41.7944,-10.9912,-6.50301,-14.0395,-2.78214,-1.42458,-22.7288,31.877,-8.37742,7.06745,-18.0893
-6.08491,19.0097,3.31811,-26.4641,-82.9331,24.0806,3.68694,0.799624,-5.60484,-1.48522,0.645781,-2.48651,-3.64509,0.401165,0.528455,-19.5778,-3.24558,-8.11462,-14.4401,-3.18156,8.83358,-1.01929,-1.5561,3.92894,4.17448e-15,1.74931e-14,56.2026,-24.4296,-43.3301,53.3856,18.8307,-51.1336,2.64237,7.12502,-23.6767,-25.9195,4.17448e-15,1.74931e-14,54.7308,16.2716,29.8393,48.4541,0.408135,-25.6107,21.5193,7.12502,0.921715,51.497,-7.46935,16.3774,16.01,41.5932,-10.4091,-6.73524,-15.1933,-2.74865,-1.32554,-22.6787,31.9013,-7.80356,7.04059,-18.6033
-6.10475,19.0388,3.28647,-25.8184,-83.0669,23.4402,3.6267,0.808048,-5.52283,-1.58853,0.665936,-2.39137,-3.71917,0.414388,0.579154,-19.2643,-3.20922,-8.19323,-14.539,-3.13387,8.79034,-1.09565,-1.53302,3.93528,5.1684e-15,-1.66979e-14,56.7099,-24.3495,-43.627,53.0437,19.2539,-51.3751,1.98408,7.12502,-23.9084,-26.5476,5.1684e-15,-1.66979e-14,54.9035,16.3483,29.9503,48.1181,0.273474,-25.5113,21.3603,7.12502,1.01772,51.3377,-7.40655,16.5704,16.3379,41.389,-9.88926,-7.02732,-15.5539,-2.77044,-1.35325,-22.3823,31.9017,-7.18162,7.00343,-19.0921
-6.12733,19.0735,3.25464,-25.266,-83.2205,22.8718,3.57643,0.803596,-5.39943,-1.68323,0.667363,-2.35744,-3.78765,0.415645,0.54488,-18.9079,-3.09766,-8.10075,-14.7031,-3.02432,8.71036,-1.20573,-1.48952,3.90662,1.4561e-14,-9.54166e-15,57.1247,-24.245,-43.8706,52.6911,19.3317,-51.4786,1.89724,7.12502,-24.0076,-26.6214,1.4561e-14,-9.54166e-15,55.0481,16.4672,29.9112,47.8179,0.129609,-25.3094,21.2057,7.12502,1.21275,51.182,-7.32843,16.6334,16.6141,41.1692,-9.36227,-7.08274,-15.2598,-2.76283,-1.46286,-22.1105,31.8935,-6.5945,7.08187,-19.1245
-6.15044,19.1088,3.22554,-25.9159,-83.2879,23.5383,3.53226,0.771671,-5.40987,-1.79954,0.618896,-2.38974,-3.88122,0.39422,0.5198,-18.4707,-2.97014,-7.99293,-14.9531,-2.89927,8.66309,-1.35304,-1.4421,3.8884,-2.5842e-15,6.36111e-15,57.6008,-24.1016,-44.2023,52.2887,19.4337,-52.1509,6.69952,7.12502,-24.6522,-21.7327,-2.5842e-15,6.36111e-15,55.1165,16.6079,29.8306,47.5402,-0.0206006,-25.2107,21.2841,7.12502,1.30803,51.2598,-7.24707,16.5489,16.6519,40.916,-8.78813,-6.98601,-15.0101,-2.80185,-1.382,-22.0137,31.8867,-5.9353,7.06669,-18.7751
-6.17078,19.1469,3.19377,-26.6508,-83.2998,24.2968,3.55886,0.763215,-5.48769,-1.91221,0.593979,-2.39813,-4.01369,0.387413,0.554356,-18.1797,-2.94154,-8.04228,-15.0943,-2.86462,8.68455,-1.4368,-1.42791,3.90989,-4.62174e-15,-1.59028e-15,58.0372,-24.0349,-44.4429,51.9455,19.4788,-53.1209,19.2433,7.12502,-25.5815,-9.05871,-4.62174e-15,-1.59028e-15,55.2639,16.7435,29.8314,47.2874,0.0358173,-25.2675,21.4785,7.12502,1.25323,51.4546,-7.14349,16.5274,16.6754,40.6421,-8.23118,-6.93645,-14.7733,-2.85616,-1.43828,-21.9563,31.8766,-5.16247,7.09182,-19.5202
-6.19025,19.1854,3.16051,-26.4127,-83.3737,24.1081,3.53956,0.762126,-5.47512,-2.00315,0.592732,-2.34168,-4.09785,0.390567,0.604863,-18.2334,-2.98398,-8.11514,-14.9943,-2.90454,8.68702,-1.39528,-1.4413,3.91845,2.64881e-14,-2.8625e-14,58.537,-24.0599,-44.6241,51.5239,19.4737,-52.3579,7.17684,7.12502,-24.8506,-21.2281,2.64881e-14,-2.8625e-14,55.4005,16.8998,29.7667,47.0568,0.1414,-25.6394,21.5011,7.12502,0.894049,51.479,-7.06738,16.6545,16.8695,40.3546,-7.67435,-7.07527,-14.961,-2.94579,-1.61696,-21.7562,31.8641,-4.45642,7.19545,-19.8867
-6.21084,19.223,3.1283,-25.9585,-83.5065,23.7526,3.43626,0.757864,-5.40014,-2.10143,0.595934,-2.29768,-4.14114,0.39321,0.608473,-18.354,-3.02727,-8.1845,-14.8462,-2.93653,8.79633,-1.3268,-1.44998,3.95883,1.75427e-14,-1.90833e-14,59.0166,-24.0857,-44.7162,51.1735,19.4036,-52.2311,2.07871,7.12502,-24.729,-26.343,1.75427e-14,-1.90833e-14,55.6396,17.0682,29.7554,46.6837,0.0205087,-25.7173,21.5079,7.12502,0.818828,51.486,-7.05665,16.8476,17.0901,40.0558,-7.17568,-7.30641,-14.8153,-3.11702,-1.56156,-21.4684,31.8408,-3.69838,7.20703,-19.1289
-6.23015,19.2607,3.10035,-27.0342,-83.5084,24.8968,3.39189,0.798127,-5.41048,-2.19017,0.642228,-2.37554,-4.21041,0.416749,0.529756,-18.3243,-3.1068,-8.38629,-14.7491,-2.98559,9.10501,-1.28399,-1.46267,4.08489,2.22142e-14,2.22639e-14,59.3499,-24.2386,-44.6425,50.8447,19.1858,-52.2582,0.81189,7.12502,-24.755,-27.6062,2.22142e-14,2.22639e-14,56.0867,17.148,29.8793,46.2822,-0.0850981,-25.521,21.517,7.12502,1.00837,51.4943,-6.98963,16.8987,17.0436,39.7686,-6.67335,-7.34224,-14.4281,-3.22823,-1.50927,-21.4324,31.7806,-2.81032,7.18676,-18.7369
-6.24863,19.299,3.07214,-29.0631,-83.4193,26.9175,3.44456,0.851769,-5.53793,-2.21859,0.690552,-2.53542,-4.27314,0.441498,0.430536,-18.3224,-3.15379,-8.3667,-14.6782,-3.03813,9.27643,-1.25206,-1.48796,4.13119,-6.21202e-15,-5.56597e-15,59.8362,-24.5121,-44.9316,50.3255,19.1604,-51.9632,1.06351,7.12502,-24.4722,-27.3931,-6.21202e-15,-5.56597e-15,56.5731,17.3006,29.8959,45.9837,-0.112029,-25.6301,21.4938,7.12502,0.902973,51.4716,-6.84316,16.8304,16.8493,39.4914,-6.15949,-7.30256,-14.0271,-3.22367,-1.62038,-21.5889,31.692,-1.85105,7.21807,-19.3382
-6.26677,19.3357,3.04244,-31.2979,-83.2979,29.1266,3.51237,0.863414,-5.74459,-2.22594,0.676726,-2.70926,-4.32079,0.436549,0.365353,-18.4422,-3.13812,-8.14591,-14.6178,-3.05217,9.26123,-1.21917,-1.50331,4.08684,8.44835e-16,-2.62396e-14,60.3435,-24.669,-45.4349,49.9145,19.2321,-51.9297,1.91537,7.12502,-24.4402,-26.5456,8.44835e-16,-2.62396e-14,56.9619,17.5554,29.6688,45.6849,0.0988799,-25.7605,21.4759,7.12502,0.777018,51.4543,-6.7152,16.7463,16.6074,39.2009,-5.62105,-7.22942,-13.8338,-3.20976,-1.73885,-21.7715,31.6044,-0.962245,7.3119,-18.7487
-6.28594,19.374,3.01407,-31.55,-83.2862,29.4007,3.52987,0.842564,-5.72121,-2.27111,0.644274,-2.73454,-4.37573,0.420735,0.327628,-18.5361,-3.10312,-8.07538,-14.6019,-3.02212,9.15211,-1.20895,-1.49048,4.04154,1.73937e-15,6.36111e-15,60.9027,-24.7305,-45.765,49.5502,19.343,-52.1069,2.06546,7.12502,-24.6099,-26.3725,1.73937e-15,6.36111e-15,57.335,17.84,29.7585,45.3249,0.205734,-25.8138,21.1081,7.12502,0.725569,51.0867,-6.62864,16.7593,16.6516,38.8717,-5.02948,-7.22411,-13.9578,-3.29666,-1.64143,-21.6276,31.5403,0.0170406,7.32723,-18.2471
-6.30518,19.4139,2.98528,-30.7114,-83.4001,28.6555,3.48325,0.843027,-5.53507,-2.36438,0.655934,-2.70077,-4.44433,0.424585,0.257489,-18.5385,-3.10444,-8.15468,-14.5593,-3.01039,9.12655,-1.19681,-1.47935,4.04651,-8.94531e-16,-1.11319e-14,61.6592,-24.7926,-46.0252,48.9412,19.611,-52.1801,0.722131,7.12502,-24.6801,-27.7062,-8.94531e-16,-1.11319e-14,57.7208,18.0622,29.9595,44.983,0.168282,-26.0317,20.7495,7.12502,0.515143,50.7286,-6.59132,16.889,16.8962,38.5061,-4.32778,-7.37609,-14.0832,-3.494,-1.51546,-21.2862,31.5114,0.948185,7.41627,-17.1934
-6.32357,19.4528,2.95787,-31.0047,-83.4796,29.0163,3.46312,0.900095,-5.44165,-2.42807,0.733033,-2.73188,-4.50099,0.460967,0.166787,-18.4951,-3.22421,-8.38682,-14.5943,-3.12131,9.25618,-1.19692,-1.52413,4.12082,-3.30976e-14,1.90833e-14,62.3182,-24.9476,-46.1753,48.2834,19.8112,-52.2845,-0.0934289,7.12502,-24.7802,-28.5081,-3.30976e-14,1.90833e-14,58.2669,18.248,30.2506,44.6501,0.0393169,-26.2478,20.8388,7.12502,0.306455,50.8183,-6.50433,17.0621,16.9987,38.1137,-3.55236,-7.42125,-14.4176,-3.68188,-1.45882,-21.0985,31.5326,1.84218,7.54619,-15.831
-6.33952,19.4896,2.93102,-31.8268,-83.4187,29.87,3.51113,0.963192,-5.48642,-2.4636,0.804185,-2.79586,-4.56885,0.49734,0.118518,-18.5999,-3.30854,-8.46477,-14.5396,-3.21433,9.21543,-1.1592,-1.5632,4.11406,-1.25234e-14,-7.95139e-16,62.7188,-25.1628,-46.1001,47.7729,19.6632,-52.487,-0.22914,7.12502,-24.9742,-28.617,-1.25234e-14,-7.95139e-16,58.8268,18.4263,30.5457,44.4016,0.0232582,-26.3274,20.8886,7.12502,0.229565,50.8682,-6.36946,17.1709,16.9829,37.7092,-2.80988,-7.5137,-14.4563,-3.86834,-1.58001,-21.064,31.6038,2.76356,7.64108,-15.079
-6.35487,19.5249,2.90367,-32.965,-83.3332,31.0688,3.56305,1.00138,-5.57039,-2.51618,0.83522,-2.9001,-4.65543,0.514272,0.0528136,-18.8436,-3.28558,-8.33629,-14.293,-3.1986,9.09436,-1.0589,-1.55248,4.04894,-6.4605e-15,-1.35174e-14,63.231,-25.3141,-46.1969,47.2707,19.3708,-52.7006,-0.426067,7.12502,-25.1789,-28.7853,-6.4605e-15,-1.35174e-14,59.3467,18.661,30.7806,44.1765,0.10195,-26.5317,20.4771,7.12502,0.0322155,50.4568,-6.24968,17.2983,16.9152,37.3091,-2.17786,-7.58889,-14.444,-4.10477,-1.67814,-21.0801,31.7152,3.63519,7.77325,-14.1831
-6.36856,19.5634,2.87747,-33.186,-83.3184,31.3811,3.62464,0.992991,-5.47211,-2.56065,0.815973,-2.9915,-4.73318,0.501009,-0.0970688,-18.9702,-3.26868,-8.37109,-14.2443,-3.16105,9.16254,-1.02717,-1.5299,4.07632,2.18663e-14,-1.27222e-14,63.9793,-25.404,-46.5683,46.7765,19.2411,-52.6507,-2.23053,7.12502,-25.1311,-30.5965,2.18663e-14,-1.27222e-14,59.8461,18.9866,30.9204,43.9404,0.117622,-26.8496,20.3411,7.12502,-0.274787,50.3206,-6.15911,17.4831,16.9749,36.9043,-1.66795,-7.62976,-14.229,-4.40466,-1.61434,-20.925,31.8612,4.505,7.87177,-12.4729
-6.3814,19.6027,2.85565,-32.4395,-83.2778,30.6842,3.74857,0.979086,-5.24998,-2.55616,0.799217,-3.03793,-4.79329,0.485844,-0.269649,-19.1648,-3.32303,-8.45829,-14.2636,-3.2087,9.18666,-1.00117,-1.54825,4.09463,3.93594e-14,-6.36111e-14,64.7677,-25.6171,-46.8713,46.0943,19.4679,-52.4528,-2.81592,7.12502,-24.9415,-31.2083,3.93594e-14,-6.36111e-14,60.4105,19.3705,31.1779,43.7356,0.0881131,-27.1683,20.2277,7.12502,-0.582665,50.2067,-6.02423,17.567,17.1016,36.5098,-1.20076,-7.77719,-13.308,-4.69658,-1.50486,-20.6578,32.0145,5.45598,7.84634,-10.8589
-6.39657,19.639,2.83369,-32.1318,-83.2325,30.4037,3.83815,0.940043,-5.18525,-2.5476,0.746421,-3.02002,-4.83242,0.458937,-0.284272,-19.4761,-3.32935,-8.36199,-14.1253,-3.23196,8.99834,-0.924158,-1.55915,4.01337,-5.86415e-15,1.27222e-14,65.9824,-25.7012,-47.6251,44.9843,20.5284,-52.4053,-0.822285,7.12502,-24.896,-29.221,-5.86415e-15,1.27222e-14,60.8711,19.805,31.4472,43.5133,0.0387388,-27.7299,19.8445,7.12502,-1.12509,49.8213,-5.8979,17.5886,17.168,36.1416,-0.668452,-7.9033,-12.2082,-4.9521,-1.48698,-20.4639,32.1725,6.24586,7.9422,-9.02313
-6.41065,19.6705,2.81457,-32.5963,-83.0995,30.911,3.91921,0.874618,-5.20774,-2.62117,0.641976,-3.083,-4.95217,0.408548,-0.331294,-19.5343,-3.23717,-8.09167,-13.9426,-3.1699,8.7403,-0.87862,-1.53687,3.88757,-1.2921e-15,9.54166e-15,67.2058,-25.5486,-48.421,43.7742,21.7264,-52.5709,0.524134,7.12502,-25.0546,-27.8525,-1.2921e-15,9.54166e-15,61.1944,20.1208,31.499,43.3284,0.109681,-28.2266,19.364,7.12502,-1.60479,49.3377,-5.7832,17.6585,17.0831,35.8143,-0.228941,-8.08398,-11.2876,-5.20875,-1.58031,-20.4563,32.3238,7.16477,7.9715,-8.55685
-6.42386,19.7001,2.79708,-32.5833,-82.9589,30.9435,4.02826,0.805744,-5.12432,-2.71105,0.534164,-3.1804,-5.10332,0.352662,-0.473223,-19.4385,-3.12708,-7.95683,-13.8902,-3.05539,8.68707,-0.887773,-1.4857,3.85492,7.85199e-15,6.36111e-15,68.0801,-25.465,-48.7881,42.7494,22.3894,-52.8771,0.514827,7.12502,-25.348,-27.8205,7.85199e-15,6.36111e-15,61.4742,20.385,31.4505,43.2754,0.161381,-28.5698,19.4569,7.12502,-1.93622,49.4279,-5.67738,17.783,17.0601,35.5233,0.137988,-8.30803,-10.6563,-5.48665,-1.57822,-20.3959,32.4699,8.10997,7.85411,-8.76582
-6.43592,19.7255,2.77984,-32.8948,-82.8674,31.2662,4.18159,0.801568,-5.06719,-2.74539,0.5145,-3.23606,-5.22526,0.341568,-0.564295,-19.4969,-3.1,-8.03925,-13.7964,-2.99746,8.72681,-0.853753,-1.4498,3.8823,-2.28602e-15,1.43125e-14,68.8019,-25.5982,-48.8145,41.8573,22.6142,-52.9125,0.465393,7.12502,-25.382,-27.8651,-2.28602e-15,1.43125e-14,61.8814,20.6644,31.5996,43.2109,0.0309419,-29.0299,19.6368,7.12502,-2.38055,49.6033,-5.56206,17.9016,17.0551,35.2511,0.656954,-8.40982,-10.8748,-5.74508,-1.37229,-20.3409,32.6422,8.96406,7.81739,-8.72958
-6.447,19.7529,2.76277,-33.708,-82.8129,32.1201,4.31534,0.873853,-5.07497,-2.76518,0.593335,-3.31029,-5.32449,0.38019,-0.646913,-19.4892,-3.07708,-7.86665,-13.8154,-3.00953,8.49872,-0.869599,-1.464,3.78202,3.18055e-15,-1.27222e-14,69.6086,-25.8455,-48.9705,40.8531,23.0147,-52.8315,0.78367,7.12502,-25.3044,-27.5579,3.18055e-15,-1.27222e-14,62.4812,20.9099,31.8999,43.1384,-0.0984506,-29.4849,19.8363,7.12502,-2.82005,49.7974,-5.50574,18.0727,16.996,34.9904,1.1841,-8.5013,-11.3733,-6.04886,-1.33819,-20.3683,32.8411,9.5808,8.06333,-8.35716
-6.4582,19.7823,2.74342,-33.7097,-82.745,32.1484,4.45007,0.904334,-5.05953,-2.73307,0.622273,-3.37401,-5.3678,0.392524,-0.726284,-19.6345,-2.97326,-7.38642,-13.81,-2.97881,8.08453,-0.870374,-1.47067,3.57391,-1.04362e-14,1.03368e-14,70.4886,-26.1009,-49.274,39.8794,23.7218,-52.6741,0.616658,7.12502,-25.1535,-27.7461,-1.04362e-14,1.03368e-14,63.2267,21.2482,32.252,43.0075,-0.293116,-29.7624,19.8104,7.12502,-3.08803,49.7677,-5.41319,18.38,17.0359,34.7312,1.59474,-8.76718,-10.1215,-6.36637,-1.2757,-20.3006,33.0571,10.2791,7.90974,-8.95337
