JuanDHNZ/ProyectoFinalCD/preprocessing/sports_trials_csv/13_17.csv
root1,root2,root3,root4,root5,root6,lowerback1,lowerback2,lowerback3,upperback1,upperback2,upperback3,thorax1,thorax2,thorax3,lowerneck1,lowerneck2,lowerneck3,upperneck1,upperneck2,upperneck3,head1,head2,head3,rclavicle1,rclavicle2,rhumerus1,rhumerus2,rhumerus3,rradius1,rwrist1,rhand1,rhand2,rfingers1,rthumb1,rthumb2,lclavicle1,lclavicle2,lhumerus1,lhumerus2,lhumerus3,lradius1,lwrist1,lhand1,lhand2,lfingers1,lthumb1,lthumb2,rfemur1,rfemur2,rfemur3,rtibia1,rfoot1,rfoot2,rtoes1,lfemur1,lfemur2,lfemur3,ltibia1,lfoot1,lfoot2,ltoes1
4.10189,17.5181,-3.86645,-4.24567,-41.4403,7.2842,10.1949,0.0477797,-3.90201,2.15851,-0.407902,-0.647977,-3.44456,-0.1832,1.57695,-10.283,1.55016,-5.73367,7.82582,2.51173,3.97784,3.88738,1.28545,2.30336,-9.44227e-15,7.95139e-16,-28.1507,26.8302,-84.9592,99.2521,-1.29288,-33.284,9.30346,7.12502,-6.48843,-20.5772,-9.44227e-15,7.95139e-16,-23.1958,3.9557,80.0756,124.969,6.43488,-27.7639,20.1124,7.12502,-1.15787,50.089,-16.4741,15.2123,10.8299,53.6111,-32.3946,-15.106,-14.9782,-20.827,-3.2525,-16.5331,48.2007,-22.4086,1.92267,-11.7829
4.11394,17.5119,-3.8377,-4.56699,-41.6564,7.37691,10.7419,0.200073,-4.04119,1.87206,-0.243038,-0.408261,-4.05371,-0.0825384,1.88631,-9.96736,1.74623,-5.74424,8.08765,2.77853,3.73809,3.90569,1.39828,2.24553,1.27719e-14,4.77083e-15,-28.2859,27.1858,-84.4973,98.9039,-1.21944,-33.1746,9.39306,7.12502,-6.38276,-20.4908,1.27719e-14,4.77083e-15,-23.7796,3.8698,80.7082,124.698,6.55252,-27.8988,20.1507,7.12502,-1.28814,50.1266,-16.0811,15.491,10.7005,53.4291,-32.4189,-14.9173,-14.8371,-20.5376,-2.96605,-16.7017,48.3623,-22.5224,1.92471,-12.0756
4.12743,17.5085,-3.80739,-4.88218,-41.9451,7.54271,10.8468,0.279922,-4.02899,1.82326,-0.139489,-0.355572,-4.16923,-0.0281718,1.92031,-9.81791,2.01533,-5.56979,8.23325,3.11584,3.62701,3.91355,1.56133,2.20205,2.06736e-14,-9.54166e-15,-27.9452,27.2161,-84.3055,98.6261,-1.1298,-32.6848,9.41649,7.12502,-5.90991,-20.4811,2.06736e-14,-9.54166e-15,-24.0793,3.88625,81.0387,124.438,6.48599,-27.8027,20.4825,7.12502,-1.19537,50.4589,-15.7794,15.7525,10.483,53.2399,-32.349,-14.6433,-14.6252,-20.3131,-2.48503,-16.9249,48.5329,-22.4141,1.74978,-11.9285
4.14405,17.511,-3.77673,-5.09188,-42.2136,7.69824,10.5883,0.257287,-3.86436,1.94194,-0.13833,-0.400348,-3.90259,-0.0370366,1.77984,-9.80507,2.38503,-5.37943,8.30452,3.57362,3.72661,3.91252,1.79798,2.22837,-4.36332e-14,9.93923e-15,-27.2467,28.0086,-83.9635,98.1024,-1.53957,-32.548,9.29674,7.12502,-5.77784,-20.6045,-4.36332e-14,9.93923e-15,-24.152,4.09857,81.1823,124.118,6.3876,-27.7723,20.341,7.12502,-1.16602,50.3175,-15.6044,15.8705,10.2315,53.045,-32.1764,-14.4339,-14.9555,-20.2399,-1.97235,-17.1419,48.7275,-22.1342,1.58875,-12.0591
4.16225,17.5235,-3.74517,-5.33771,-42.549,7.90258,10.2441,0.276119,-3.6602,2.13119,-0.0759341,-0.488814,-3.51886,-0.0187005,1.5636,-9.74152,2.7409,-5.13739,8.23081,4.0091,3.78392,3.86239,2.02414,2.22858,-3.67752e-14,-1.59028e-15,-26.4628,28.21,-83.772,97.8773,-1.83747,-31.8571,8.92882,7.12502,-5.11071,-20.9896,-3.67752e-14,-1.59028e-15,-24.1464,4.18324,81.3304,123.87,6.20944,-27.6025,20.2592,7.12502,-1.00204,50.2366,-15.4671,16.005,9.93658,52.8342,-31.8811,-14.3287,-15.6446,-20.172,-1.45771,-17.4147,48.9593,-21.9111,1.76676,-13.7562
4.18491,17.5459,-3.71382,-5.52934,-43.0435,7.99331,10.1025,0.394317,-3.39499,2.2517,0.116261,-0.496812,-3.32511,0.0691039,1.3813,-9.75862,3.01719,-4.87477,8.25926,4.3542,3.6773,3.86604,2.19674,2.17341,-4.73108e-14,1.78906e-14,-25.8195,27.9661,-83.627,97.9327,-2.06876,-30.7676,8.35774,7.12502,-4.05874,-21.5833,-4.73108e-14,1.78906e-14,-24.2877,4.14806,81.637,123.798,5.88105,-27.166,20.7835,7.12502,-0.580439,50.7624,-15.3784,16.2217,9.72817,52.611,-31.4189,-14.1552,-16.378,-20.1275,-0.73294,-17.5853,49.2661,-21.5402,1.98636,-15.7809
4.21274,17.5783,-3.68201,-5.62251,-43.6527,7.90295,10.1919,0.532263,-3.02851,2.30805,0.337335,-0.417515,-3.3254,0.175044,1.22896,-9.92994,3.27307,-4.47169,8.4483,4.67774,3.36604,3.95482,2.35104,2.03863,4.07509e-15,-5.96354e-15,-25.2578,27.9326,-83.4196,98.1743,-2.33613,-29.9329,7.68111,7.12502,-3.2527,-22.2738,4.07509e-15,-5.96354e-15,-24.5999,4.25737,81.9925,123.835,5.45983,-26.723,20.9254,7.12502,-0.152512,50.9051,-15.3267,16.3616,9.62277,52.3841,-30.8151,-13.6639,-16.8776,-20.1046,0.161401,-17.5691,49.6555,-20.9132,1.79593,-16.487
4.2468,17.6174,-3.65124,-5.72455,-44.1911,7.88217,10.3101,0.621981,-2.67415,2.37655,0.492734,-0.334529,-3.32429,0.248381,1.09521,-10.1443,3.52825,-4.11188,8.5829,5.01388,3.00114,4.03644,2.50748,1.89611,-4.23411e-14,-2.06736e-14,-24.6696,28.0006,-83.1422,98.5638,-2.42618,-29.0483,7.27582,7.12502,-2.39833,-22.6904,-4.23411e-14,-2.06736e-14,-24.8773,4.46678,82.3773,123.853,4.96807,-26.8457,20.4157,7.12502,-0.271066,50.3953,-15.3574,16.3221,9.37269,52.1889,-30.0874,-12.8108,-16.8654,-20.2142,1.01837,-17.5961,50.1239,-20.122,1.53172,-17.3956
4.28322,17.6616,-3.62275,-5.61251,-44.6323,7.76565,10.4717,0.71484,-2.35504,2.31347,0.65252,-0.138403,-3.48431,0.328139,1.09663,-10.1816,3.75842,-3.92809,8.64175,5.33133,2.67413,4.0632,2.65071,1.7873,1.14798e-13,-1.35174e-14,-24.3621,27.9688,-82.7749,99.2565,-2.45684,-28.1487,7.00251,7.12502,-1.52952,-22.9718,1.14798e-13,-1.35174e-14,-25.3057,4.56565,82.9133,124.002,4.45092,-26.9889,19.8793,7.12502,-0.409347,49.8587,-15.5864,16.1276,9.11718,52.0351,-29.1787,-11.883,-16.9218,-20.597,1.77986,-17.5416,50.6724,-19.1533,1.31195,-19.2439
4.32184,17.7143,-3.6004,-5.44919,-45.1319,7.68438,10.7929,0.864422,-2.18787,2.11294,0.871008,0.117324,-3.88031,0.442039,1.23405,-9.98481,3.98666,-3.83207,8.21282,5.66425,2.25054,4.34162,2.78412,1.83456,1.39149e-14,-6.36111e-15,-24.2928,27.8874,-82.4123,100.244,-2.37297,-27.3012,6.56875,7.12502,-0.711012,-23.4098,1.39149e-14,-6.36111e-15,-25.8849,4.60091,83.5366,124.401,4.006,-26.9836,20.0155,7.12502,-0.404228,49.9948,-16.01,15.922,8.78942,51.9234,-27.9741,-10.9386,-17.4276,-21.1266,2.55922,-17.4788,51.2495,-17.9033,0.86778,-19.8885
4.36431,17.7732,-3.58262,-5.36056,-45.75,7.64556,11.0088,0.984678,-1.91604,2.08334,1.06142,0.245614,-4.03543,0.535014,1.18456,-9.85398,4.23831,-3.66078,7.97621,5.99457,2.02787,4.22866,2.94429,1.73663,1.13307e-14,-3.18055e-15,-23.8827,27.7843,-82.1738,101.393,-2.30429,-26.4708,6.31708,7.12502,0.0909982,-23.6626,1.13307e-14,-3.18055e-15,-26.1,4.63013,83.9003,124.822,3.60222,-26.9007,20.0887,7.12502,-0.324225,50.0682,-16.4846,15.8374,8.40657,51.8196,-26.6669,-9.76621,-17.8337,-21.6489,3.53221,-17.4005,51.8369,-16.3556,0.245398,-20.6581
4.40784,17.8364,-3.55905,-5.31476,-46.3215,7.57534,11.0851,1.03843,-1.46074,2.22848,1.18368,0.283172,-3.92223,0.587378,0.949822,-9.88307,4.50947,-3.3174,7.67017,6.33865,1.73695,4.13232,3.11421,1.59071,2.80286e-14,-6.36111e-15,-23.1731,27.6257,-81.9332,102.659,-2.28732,-25.7595,6.45924,7.12502,0.77799,-23.5191,2.80286e-14,-6.36111e-15,-26.0985,4.67642,84.046,125.26,3.39054,-26.6616,19.6997,7.12502,-0.0932623,49.6794,-16.8467,15.6797,7.98571,51.6806,-25.4279,-8.16291,-17.5323,-22.1121,4.42382,-17.2637,52.3898,-14.6683,-0.567113,-21.5114
4.45185,17.9021,-3.53082,-5.44786,-46.8271,7.67459,11.3876,1.10263,-1.25878,2.26987,1.29251,0.427133,-4.04803,0.638976,0.965785,-9.85635,4.77766,-3.03542,7.52508,6.6974,1.31849,4.08782,3.28045,1.41747,1.45113e-14,1.51076e-14,-22.651,27.5625,-81.5732,104.086,-2.25306,-25.1975,6.88422,7.12502,1.32083,-23.0914,1.45113e-14,1.51076e-14,-26.3487,4.79137,84.3987,125.771,3.42746,-26.6238,19.2569,7.12502,-0.0567232,49.2366,-17.1283,15.2662,7.37278,51.4904,-24.0592,-6.49868,-17.9386,-22.4983,5.13737,-17.2403,52.9203,-12.7695,-1.44355,-21.2228
4.49481,17.9717,-3.50339,-5.60557,-47.3876,7.82018,11.6319,1.20548,-1.164,2.31945,1.44392,0.620408,-4.13782,0.712649,1.08759,-9.7226,5.0204,-2.84472,7.35975,7.02921,0.91256,4.01507,3.43202,1.259,3.55825e-14,7.15625e-15,-22.1387,27.5144,-81.1256,105.691,-2.31959,-24.6547,7.19223,7.12502,1.84507,-22.7795,3.55825e-14,7.15625e-15,-26.5166,4.77191,84.8255,126.445,3.50642,-26.523,19.5888,7.12502,0.0405947,49.5685,-17.4355,14.9803,6.71635,51.2097,-22.5226,-4.91507,-18.4494,-22.8751,5.9104,-17.248,53.4387,-10.667,-2.12268,-20.1782
4.53927,18.0385,-3.48031,-5.57859,-47.9793,7.75725,11.7205,1.28725,-0.846161,2.47625,1.5917,0.744379,-4.02198,0.779689,1.01557,-9.54514,5.27256,-2.5523,6.99059,7.35032,0.562315,3.86593,3.58787,1.09417,8.20981e-14,-1.43125e-14,-21.3948,27.4267,-80.8281,107.292,-2.27392,-24.3972,7.39211,7.12502,2.09373,-22.5774,8.20981e-14,-1.43125e-14,-26.3605,4.50306,85.0304,127.114,3.51443,-26.5494,20.0723,7.12502,0.0151517,50.0521,-17.7439,14.9649,6.22362,50.8132,-21.0126,-3.26155,-18.0711,-23.37,6.77765,-17.0658,53.9902,-8.51445,-2.81334,-19.5999
4.58232,18.1034,-3.45667,-5.61076,-48.5316,7.70192,11.8888,1.35335,-0.505646,2.63658,1.71824,0.819143,-3.94264,0.836231,0.881136,-9.39593,5.47635,-2.22976,6.6822,7.59878,0.268114,3.74769,3.71054,0.942269,7.15625e-14,1.11319e-14,-20.6162,27.3219,-80.6233,108.868,-2.12761,-24.4249,7.60939,7.12502,2.06699,-22.3603,7.15625e-14,1.11319e-14,-26.0938,4.1872,84.9836,127.676,3.80074,-26.8466,19.8558,7.12502,-0.271957,49.8353,-17.8751,15.0128,5.72925,50.2927,-19.6322,-1.61647,-17.4904,-23.8266,7.55765,-16.8476,54.537,-6.39632,-3.6178,-18.6158
4.62156,18.1638,-3.42922,-5.64376,-49.0711,7.5704,12.1667,1.42972,-0.198034,2.71795,1.86049,0.985505,-4.00901,0.902097,0.854527,-9.15245,5.62264,-2.04133,6.50301,7.78428,0.00761149,3.65293,3.79871,0.821125,3.04141e-14,3.18055e-15,-19.98,27.26,-80.2735,110.594,-2.33016,-24.1218,7.72091,7.12502,2.35971,-22.2458,3.04141e-14,3.18055e-15,-26.0468,3.94312,84.9842,128.385,4.17093,-27.0647,19.4615,7.12502,-0.482538,49.4407,-17.843,15.0441,5.36416,49.6816,-18.3604,-0.526048,-18.9272,-24.198,8.38497,-16.564,55.0363,-4.42277,-4.495,-18.6231
4.65976,18.2132,-3.39987,-5.52588,-49.5633,7.26654,12.318,1.44601,0.240871,2.83248,1.94061,1.16836,-3.96552,0.935876,0.783762,-8.9775,5.78706,-1.84018,6.3792,7.99299,-0.226991,3.59178,3.89906,0.712233,1.51076e-14,0,-19.2469,27.2577,-79.8841,112.433,-2.73024,-23.5287,7.8075,7.12502,2.93255,-22.1521,1.51076e-14,0,-25.7906,3.64397,84.8426,129.225,4.4542,-27.2198,19.4029,7.12502,-0.632368,49.3817,-17.7874,15.2248,5.16751,49.0561,-17.4028,0.180629,-21.3042,-24.5976,9.17166,-16.1721,55.4235,-2.61071,-5.42295,-19.0136
4.69514,18.2558,-3.37127,-5.51345,-50.0606,7.10133,12.3163,1.4811,0.650647,3.02762,2.03413,1.25592,-3.7506,0.977006,0.632874,-8.85249,5.94074,-1.57366,6.24158,8.17613,-0.410138,3.53774,3.99085,0.609568,-3.10104e-14,-2.70347e-14,-18.3363,27.1534,-79.4915,114.245,-3.1671,-23.0383,7.8452,7.12502,3.40616,-22.1073,-3.10104e-14,-2.70347e-14,-25.1482,3.19376,84.4784,130.016,4.87555,-27.3105,19.4823,7.12502,-0.720005,49.4608,-17.6976,15.8422,4.79818,48.4664,-16.8776,1.27274,-21.6054,-24.9183,9.81158,-15.8701,55.6654,-1.15148,-6.18759,-18.8558
4.72851,18.29,-3.34096,-5.71506,-50.4596,7.16691,12.3362,1.50367,0.855505,3.1817,2.08605,1.33468,-3.59643,1.00011,0.593634,-8.62944,6.08893,-1.30052,6.19304,8.35191,-0.596735,3.49772,4.07828,0.502976,2.18663e-14,-1.90833e-14,-17.4319,27.1156,-79.0328,115.978,-3.76252,-22.7261,7.88043,7.12502,3.70761,-22.0671,2.18663e-14,-1.90833e-14,-24.6667,2.82775,84.1241,130.8,5.26173,-27.2981,19.4738,7.12502,-0.708023,49.4524,-17.4729,16.4404,4.27234,47.9225,-16.6848,2.84252,-22.0095,-25.0665,10.259,-15.7196,55.8131,-0.250078,-6.45069,-17.4107
4.76005,18.3162,-3.3093,-5.926,-50.735,7.22631,12.3583,1.47081,0.988665,3.2854,2.05886,1.44979,-3.49949,0.984926,0.64379,-8.2897,6.22231,-1.00533,6.17353,8.51173,-0.862122,3.45167,4.15532,0.36281,-1.72943e-14,-1.59028e-15,-16.5148,27.1595,-78.5552,117.752,-4.43757,-22.4539,7.72944,7.12502,3.97049,-22.2133,-1.72943e-14,-1.59028e-15,-24.289,2.56806,83.6977,131.617,5.53508,-27.2661,19.4863,7.12502,-0.677094,49.465,-17.152,16.8104,3.84961,47.4354,-16.5997,4.44961,-22.7776,-25.1221,10.5778,-15.5928,55.8974,-0.147527,-5.74549,-16.692
4.78926,18.3322,-3.28022,-5.7796,-50.9586,6.89343,12.2825,1.42312,1.34023,3.36409,2.03999,1.62867,-3.36977,0.973302,0.638225,-7.87791,6.30604,-0.811785,6.08216,8.60653,-1.01351,3.35733,4.20447,0.268252,7.87187e-14,-2.38542e-14,-15.5327,27.0998,-78.0637,119.492,-5.00818,-22.5265,7.87751,7.12502,3.90039,-22.0665,7.87187e-14,-2.38542e-14,-23.7573,2.21531,83.1547,132.414,5.80927,-27.3404,19.3511,7.12502,-0.748821,49.3295,-16.8804,17.232,3.71791,47.0557,-16.2016,5.45986,-22.0209,-25.2122,10.8232,-15.1975,55.9101,-0.755775,-3.8773,-16.9048
4.81469,18.3346,-3.25176,-5.5734,-51.0467,6.4935,12.207,1.37258,1.72913,3.39045,2.0225,1.79202,-3.29302,0.96267,0.594484,-7.46031,6.3595,-0.65605,6.05463,8.65422,-0.997383,3.27437,4.23566,0.232554,5.24792e-14,-1.59028e-15,-14.5934,26.9183,-77.5788,121.173,-5.47089,-22.6486,7.72484,7.12502,3.78249,-22.2213,5.24792e-14,-1.59028e-15,-23.0209,1.69057,82.4614,133.138,6.17735,-27.4907,18.778,7.12502,-0.89402,48.7558,-16.575,17.7601,3.62596,46.8585,-15.8764,5.63953,-19.8668,-25.2634,10.8752,-14.7328,55.7572,-1.88148,-1.21763,-16.4351
4.83802,18.3285,-3.22306,-5.44814,-51.1195,6.19992,12.1232,1.3145,2.00079,3.39695,1.98061,1.95187,-3.23662,0.940617,0.616433,-7.24184,6.42611,-0.506674,6.32459,8.73007,-0.992683,3.33342,4.27488,0.211073,5.08889e-14,-1.59028e-14,-13.5852,26.7807,-77.0466,122.809,-5.84497,-22.8855,7.44977,7.12502,3.5537,-22.5004,5.08889e-14,-1.59028e-14,-22.0248,1.04315,81.6337,133.94,6.70028,-27.7218,18.9752,7.12502,-1.1172,48.952,-16.2891,18.0621,3.56233,46.8916,-16.1111,4.6151,-19.7684,-25.2503,10.8078,-14.2987,55.4034,-3.14363,1.45539,-15.6054
4.85713,18.3132,-3.1943,-5.61413,-51.2288,6.21229,12.0236,1.25687,1.98765,3.40126,1.90372,2.08182,-3.1828,0.902587,0.772503,-7.00959,6.50752,-0.39966,6.66822,8.82892,-0.955688,3.41194,4.32506,0.209354,-1.11518e-13,2.8625e-14,-12.5447,26.7358,-76.5208,124.356,-6.20111,-23.0807,7.33742,7.12502,3.36515,-22.6158,-1.11518e-13,2.8625e-14,-20.9604,0.470039,80.7375,134.728,7.28857,-27.9404,19.5768,7.12502,-1.32835,49.5524,-15.9872,17.9718,3.43257,47.1553,-16.6218,2.44436,-21.9804,-25.0643,10.6172,-14.0382,54.8154,-4.31663,3.83748,-15.1575
4.87332,18.281,-3.1641,-5.86271,-51.3645,6.28029,11.8522,1.20466,1.96739,3.44555,1.82657,2.13931,-3.04536,0.865196,0.858847,-6.72372,6.59101,-0.253078,6.91156,8.91579,-0.817041,3.44195,4.37637,0.22821,1.85665e-13,7.95139e-15,-11.3504,26.5875,-76.0697,125.735,-6.84869,-23.1273,7.32071,7.12502,3.32018,-22.6332,1.85665e-13,7.95139e-15,-19.8249,-0.0227327,79.694,135.453,7.85864,-28.0234,20.182,7.12502,-1.40855,50.1571,-15.6665,17.7562,3.30352,47.6349,-17.2479,0.0183465,-23.8319,-24.7355,10.2998,-13.7552,54.0121,-5.26716,5.97079,-13.5932
4.88386,18.2406,-3.13594,-6.22051,-51.457,6.4563,11.6974,1.19567,1.84993,3.50085,1.79459,2.16192,-2.90751,0.850453,0.956583,-6.5444,6.63605,-0.228471,7.15223,8.94811,-0.492602,3.47521,4.40481,0.328216,1.21656e-13,-4.77083e-15,-10.1019,26.2121,-75.5877,127.097,-7.90865,-23.0731,7.13186,7.12502,3.37253,-22.8212,1.21656e-13,-4.77083e-15,-18.5445,-0.580655,78.6061,136.139,8.55928,-28.1611,20.9315,7.12502,-1.54155,50.9057,-15.3337,17.7724,3.08782,48.3337,-18.1771,-1.85664,-23.6564,-24.2872,9.8565,-13.5073,52.9673,-5.64676,7.61974,-12.8298
4.88873,18.1968,-3.10608,-6.72037,-51.3542,6.82789,11.5411,1.16813,1.49014,3.49129,1.71671,2.23765,-2.845,0.813133,1.25126,-6.48755,6.63127,-0.3715,7.56582,8.93068,-0.153395,3.58354,4.40227,0.468405,-9.62118e-14,6.36111e-15,-8.93796,25.7557,-74.9516,128.542,-9.26641,-22.8799,6.46078,7.12502,3.55911,-23.4892,-9.62118e-14,6.36111e-15,-17.3008,-1.08853,77.6354,136.763,9.35674,-28.3083,21.4099,7.12502,-1.68364,51.383,-14.9935,17.9286,2.66635,49.2797,-19.2264,-2.72325,-21.1486,-23.7658,9.02142,-13.3945,51.7434,-5.86542,8.75833,-13.3952
4.89602,18.1393,-3.07374,-7.30294,-51.111,7.37295,11.3129,1.09163,1.05894,3.42784,1.56719,2.25864,-2.7969,0.741196,1.53942,-6.35766,6.60988,-0.413393,7.96323,8.89186,0.0350154,3.68598,4.38604,0.539424,9.26337e-14,-4.6118e-14,-7.83355,25.2941,-74.3682,129.792,-10.2104,-23.1531,6.55532,7.12502,3.29525,-23.399,9.26337e-14,-4.6118e-14,-16.1363,-1.48443,76.6341,137.333,10.3173,-28.5457,21.6546,7.12502,-1.91293,51.6258,-14.7331,17.8644,2.07207,50.4629,-19.9798,-3.34577,-19.4348,-23.2597,7.78531,-13.4059,50.4911,-6.52517,9.18896,-14.3175
4.9085,18.0572,-3.04544,-7.62854,-50.9033,7.63389,11.0487,0.995485,0.899989,3.36836,1.42095,2.25703,-2.71502,0.670354,1.6502,-6.14939,6.62363,-0.405981,8.21809,8.89169,0.229497,3.72533,4.39264,0.598938,9.74045e-15,3.18055e-15,-6.69697,24.8145,-73.8579,130.789,-10.7782,-23.4549,7.26672,7.12502,3.00381,-22.6919,9.74045e-15,3.18055e-15,-14.8624,-1.87389,75.5702,137.877,11.2154,-28.8222,21.8606,7.12502,-2.17998,51.8292,-14.6068,17.591,1.71156,51.8346,-20.1946,-4.46367,-19.0277,-22.8483,6.49334,-13.1858,49.4503,-7.33406,8.48999,-16.3933
4.92379,17.9537,-3.02212,-7.81234,-50.7951,7.67499,10.8844,0.956162,0.895056,3.3081,1.36857,2.26174,-2.6866,0.645449,1.66647,-6.03731,6.58086,-0.450808,8.46851,8.80642,0.575872,3.77204,4.36214,0.716171,3.97569e-15,-4.77083e-15,-5.62195,24.1767,-73.3154,131.912,-11.7237,-23.4609,7.39456,7.12502,2.99801,-22.5641,3.97569e-15,-4.77083e-15,-13.365,-2.28109,74.4267,138.337,12.0908,-29.0829,21.9357,7.12502,-2.4318,51.9015,-14.5544,17.3412,1.52051,53.2827,-19.7439,-5.77451,-18.1296,-22.4527,5.31884,-12.7266,48.8292,-8.40472,7.04281,-18.6031
4.93877,17.84,-2.99905,-8.0344,-50.7321,7.69805,10.7762,0.965326,0.950082,3.24372,1.38675,2.22272,-2.69232,0.655584,1.59348,-5.80016,6.4752,-0.465976,8.5649,8.63265,0.910023,3.74331,4.28995,0.8104,-4.63168e-14,1.59028e-15,-4.62358,23.4187,-72.9009,133.08,-12.8061,-23.7946,7.24156,7.12502,2.67576,-22.7214,-4.63168e-14,1.59028e-15,-11.7373,-2.68379,73.1881,138.689,12.9409,-29.3661,22.0719,7.12502,-2.70529,52.0345,-14.4691,17.2216,1.3427,54.6976,-19.088,-6.41242,-16.78,-22.0179,4.08469,-12.2056,48.7078,-9.58668,5.6139,-20.9799
4.95218,17.7286,-2.97169,-8.60737,-50.6319,7.99945,10.7498,0.948479,0.81163,3.20739,1.34972,2.15638,-2.71649,0.638333,1.60734,-5.50291,6.44949,-0.609572,8.60185,8.57126,1.31169,3.67218,4.27246,0.948805,4.9895e-14,3.18055e-15,-3.69868,22.74,-72.5542,134.185,-13.8575,-24.1492,7.06103,7.12502,2.33325,-22.906,4.9895e-14,3.18055e-15,-10.162,-2.85623,72.0032,138.962,13.7666,-29.5705,21.9872,7.12502,-2.90266,51.9472,-14.1393,17.2767,1.0044,55.9807,-18.6364,-5.95419,-16.1168,-21.4851,2.9913,-11.9583,48.9868,-10.6105,4.2249,-24.6138
4.96407,17.6198,-2.94842,-9.42031,-50.5682,8.56281,10.7849,0.95152,0.421962,3.19832,1.31238,2.09096,-2.75167,0.621139,1.76323,-5.23068,6.46301,-0.907993,8.56729,8.5687,1.7995,3.56958,4.28285,1.14196,1.18873e-13,-1.74931e-14,-2.60798,21.8762,-72.0325,135.334,-15.2157,-23.4254,6.19628,7.12502,3.03229,-23.7619,1.18873e-13,-1.74931e-14,-8.5499,-2.82886,70.8774,139.158,14.4911,-29.3786,21.648,7.12502,-2.71733,51.6104,-13.7234,17.4772,0.530706,57.0812,-17.9288,-5.20998,-17.164,-21.0382,2.14664,-11.9572,49.4991,-11.7418,2.58686,-27.7644
4.9738,17.5059,-2.93516,-10.2078,-50.4313,9.10372,10.8591,0.982325,-0.0348863,3.20514,1.30373,2.01572,-2.79348,0.618293,1.94284,-4.89635,6.40569,-1.1061,8.37334,8.47288,2.1755,3.41232,4.24558,1.27001,1.15295e-14,-4.29375e-14,-1.33671,20.7873,-71.4411,136.288,-16.5131,-22.1347,4.99538,7.12502,4.27871,-24.9414,1.15295e-14,-4.29375e-14,-6.73736,-2.86968,69.7673,139.314,15.2135,-28.9396,21.6356,7.12502,-2.29338,51.6031,-13.2723,17.6262,0.125252,58.0278,-17.3931,-4.29287,-19.5566,-20.7774,1.29686,-11.9525,50.0923,-12.9956,0.936376,-29.0585
4.98284,17.3847,-2.93009,-11.067,-50.1002,9.62604,11.0579,0.938797,-0.562058,3.24588,1.18671,1.93582,-2.86492,0.561282,2.17084,-4.57637,6.36903,-1.42379,8.138,8.40687,2.6536,3.23517,4.22273,1.45104,1.18476e-13,7.95139e-15,-0.0903282,19.9228,-70.9963,137.02,-17.3754,-21.8902,5.01429,7.12502,4.51475,-24.9176,1.18476e-13,7.95139e-15,-4.97998,-2.8454,68.7141,139.47,15.8755,-28.5717,21.5548,7.12502,-1.93808,51.5257,-12.6326,17.6671,-0.191272,58.87,-17.8617,-3.141,-23.6342,-20.6388,0.606004,-11.9891,50.7448,-14.1404,-0.458889,-28.9378
4.99012,17.2625,-2.93397,-11.8651,-49.7854,10.1067,11.2666,0.928402,-1.06361,3.293,1.11264,1.82236,-2.93405,0.525632,2.34428,-4.27474,6.31623,-1.7616,7.8266,8.31549,3.22173,3.03417,4.18921,1.66167,-1.11717e-13,2.8625e-14,0.979655,19.1184,-70.7153,137.743,-18.0671,-22.5507,5.71191,7.12502,3.87697,-24.2326,-1.11717e-13,2.8625e-14,-3.1667,-2.8863,67.7737,139.451,16.153,-28.3707,21.0088,7.12502,-1.74394,50.9814,-12.0507,17.7111,-0.405565,59.6594,-19.131,-2.70233,-26.7997,-20.6605,0.421544,-12.0597,51.4891,-15.068,-1.69937,-28.1541
4.99229,17.1468,-2.94622,-12.7304,-49.625,10.7683,11.3703,1.03672,-1.61265,3.38377,1.18456,1.5921,-2.9056,0.561442,2.4041,-3.94358,6.17607,-2.02279,7.33002,8.10649,3.79521,2.77525,4.09798,1.85037,2.78299e-15,-1.43125e-14,1.93564,18.2155,-70.6727,138.496,-18.6867,-23.0286,5.73194,7.12502,3.41545,-24.2204,2.78299e-15,-1.43125e-14,-1.19749,-3.01875,66.8153,139.341,16.2052,-28.4025,20.5567,7.12502,-1.77469,50.529,-11.7321,17.7672,-0.725576,60.4333,-20.6603,-3.24601,-26.5949,-20.7974,0.861859,-12.3177,52.3836,-15.695,-2.82251,-27.2065
4.99087,17.0388,-2.96792,-13.9442,-49.4619,11.8345,11.4903,1.17032,-2.46395,3.552,1.24932,1.26017,-2.80898,0.591134,2.52991,-3.77678,6.05624,-2.30124,6.9624,7.92506,4.4274,2.59133,4.02044,2.07578,1.54853e-13,-1.11319e-14,2.85752,17.4056,-70.8195,139.159,-19.2026,-23.2705,5.89784,7.12502,3.18183,-24.0582,1.54853e-13,-1.11319e-14,0.806454,-2.92212,65.8218,139.204,16.4354,-28.4674,20.1082,7.12502,-1.83731,50.08,-11.5045,17.7848,-1.33219,61.2019,-22.0294,-4.20698,-25.9212,-20.9442,1.57938,-12.9535,53.3963,-16.2653,-3.35749,-26.3817
4.99218,16.937,-3.00225,-15.0001,-49.341,12.6432,11.8346,1.31316,-3.21618,3.67273,1.3312,1.01803,-2.88601,0.630598,2.68727,-3.82781,5.99132,-2.71972,7.02099,7.80945,5.21483,2.57991,3.9777,2.40587,-4.07509e-14,1.59028e-14,3.56292,16.6997,-71.0012,139.789,-19.686,-23.2285,5.77395,7.12502,3.22239,-24.1814,-4.07509e-14,1.59028e-14,2.73759,-2.77307,64.9955,138.914,16.6868,-28.6413,19.4847,7.12502,-2.00524,49.455,-11.3125,17.9114,-1.65581,61.9775,-23.3834,-5.06433,-27.3294,-21.1508,2.40497,-13.4293,54.4966,-16.7404,-3.46265,-25.4262
4.9925,16.8494,-3.0428,-15.8603,-49.288,13.2795,12.2005,1.49663,-3.78066,3.75319,1.4829,0.791705,-3.01909,0.706202,2.74275,-3.82237,5.86419,-3.01788,7.01482,7.62158,5.75054,2.55549,3.89339,2.62952,-1.16289e-13,-1.27222e-14,4.10925,16.0329,-71.1798,140.342,-20.2291,-22.9875,5.55874,7.12502,3.4552,-24.393,-1.16289e-13,-1.27222e-14,4.54097,-2.96534,64.3475,138.688,16.2055,-28.999,19.9019,7.12502,-2.35074,49.8687,-11.2227,18.0235,-1.785,62.7547,-24.6556,-5.64477,-29.3101,-21.4451,3.30942,-13.8047,55.6201,-17.1321,-3.20966,-25.0687
4.99148,16.7818,-3.0793,-16.2564,-49.3239,13.5274,12.3579,1.64677,-3.97402,3.83714,1.64373,0.629652,-3.0294,0.784018,2.65638,-3.85887,5.71493,-3.42416,6.95218,7.41898,6.23487,2.52079,3.79786,2.85729,-8.66701e-14,2.06736e-14,4.65953,15.5075,-71.3538,140.677,-20.5608,-23.3408,6.29346,7.12502,3.11395,-23.6635,-8.66701e-14,2.06736e-14,6.20761,-3.24593,63.8532,138.589,15.242,-29.2241,21.2593,7.12502,-2.56818,51.2236,-11.3436,17.8919,-1.6667,63.5014,-25.5518,-6.52505,-29.6422,-21.8601,4.1338,-13.9253,56.7031,-17.6436,-2.76855,-24.751
4.99481,16.7292,-3.1188,-16.0753,-49.4103,13.2293,12.383,1.73053,-3.78704,3.91931,1.77344,0.578903,-2.96045,0.845069,2.47864,-3.86214,5.61146,-3.86626,6.7839,7.28716,6.6842,2.44252,3.7349,3.07809,1.4551e-13,9.54166e-15,5.25785,15.0711,-71.5582,140.88,-20.745,-21.1561,5.10802,7.12502,5.22366,-24.8076,1.4551e-13,9.54166e-15,7.84134,-3.25748,63.5133,138.332,14.8775,-29.4167,21.3803,7.12502,-2.75414,51.3423,-11.656,17.6116,-1.16964,64.2037,-26.1559,-7.88055,-28.8213,-22.4134,4.70781,-13.6409,57.6739,-18.1862,-2.47222,-24.2513
4.99958,16.6791,-3.16538,-15.6012,-49.4873,12.5957,12.3768,1.81589,-3.45322,3.99911,1.92859,0.635041,-2.87676,0.918914,2.32679,-3.74801,5.48569,-4.06474,6.60055,7.13222,6.75495,2.36075,3.65322,3.12279,1.05555e-13,4.77083e-15,5.78847,14.6134,-71.7088,141.178,-21.1067,-22.5016,6.56379,7.12502,3.92438,-23.3798,1.05555e-13,4.77083e-15,9.34563,-3.21515,63.4897,137.87,14.763,-29.5001,19.9475,7.12502,-2.83472,49.9084,-12.0099,17.2171,-0.42571,64.8819,-26.7329,-9.1188,-28.8977,-22.9406,4.86588,-13.0823,58.3968,-18.4175,-2.40764,-23.7326
5.00115,16.6331,-3.21054,-15.1106,-49.5561,11.9466,12.2588,1.89053,-3.07712,4.07298,2.07737,0.65596,-2.73393,0.989843,2.11839,-3.41886,5.39242,-4.0221,6.404,7.00868,6.66853,2.24637,3.58496,3.06169,1.54853e-13,-3.02153e-14,6.11097,14.2358,-71.9478,141.54,-21.6164,-24.4946,8.80525,7.12502,1.99964,-21.1651,1.54853e-13,-3.02153e-14,10.6923,-3.31064,63.4749,137.581,14.6497,-29.357,19.8749,7.12502,-2.6965,49.8376,-12.3923,16.7397,0.308984,65.5112,-27.2527,-10.0661,-29.505,-23.3028,4.73055,-12.4951,58.8225,-18.4611,-2.26622,-23.6799
4.99855,16.6052,-3.25531,-14.6807,-49.5719,11.3735,12.0922,1.9215,-2.6914,4.13411,2.16896,0.647286,-2.57159,1.03342,1.88412,-2.94673,5.35312,-4.07104,6.23341,6.9522,6.66479,2.10533,3.54807,3.04113,9.14409e-15,1.59028e-15,6.33122,14.1024,-72.1856,141.822,-22.2012,-25.0831,9.64465,7.12502,1.43132,-20.3303,9.14409e-15,1.59028e-15,11.9309,-3.57314,63.3728,137.541,14.683,-29.3323,21.3419,7.12502,-2.67263,51.3049,-12.7131,16.1754,0.949988,66.0456,-27.4672,-10.8898,-29.8246,-23.4831,4.2418,-11.9147,58.9452,-18.3627,-2.36386,-22.4126
4.99354,16.5959,-3.3057,-14.5344,-49.4891,11.1422,12.0266,1.91483,-2.60804,4.16163,2.17225,0.659606,-2.50498,1.03416,1.85181,-2.46048,5.38939,-4.4473,6.20485,6.99966,6.77832,1.9887,3.55867,3.12512,4.65156e-14,-1.59028e-14,6.63918,14.2202,-72.3635,141.993,-22.9456,-25.0998,9.95373,7.12502,1.41516,-20.0213,4.65156e-14,-1.59028e-14,12.8225,-3.72817,63.4723,137.478,14.8147,-29.1698,21.621,7.12502,-2.51566,51.5859,-12.9465,15.5265,1.29226,66.4758,-27.3209,-11.6957,-30.2303,-23.5225,3.34687,-11.5447,58.7982,-18.1491,-2.82592,-19.1258
4.98458,16.5976,-3.36421,-14.5263,-49.3615,11.0684,12.035,1.95419,-2.73646,4.19528,2.20881,0.656439,-2.48072,1.051,1.91589,-2.11078,5.38716,-4.75225,6.41066,6.98388,6.8751,1.98094,3.54075,3.20462,7.15625e-14,-2.14687e-14,6.99356,14.243,-72.571,142.152,-23.6603,-25.2752,9.85807,7.12502,1.24576,-20.118,7.15625e-14,-2.14687e-14,13.6234,-4.01248,63.7041,137.283,14.8589,-29.0808,21.3394,7.12502,-2.42977,51.3053,-13.1352,14.9718,1.55666,66.7999,-27.2513,-12.4441,-30.5385,-23.4748,2.4784,-11.3125,58.4868,-17.9263,-2.86305,-18.1451
4.97193,16.6155,-3.43144,-14.5576,-49.2497,11.0262,12.0702,1.99798,-2.9775,4.25888,2.23579,0.626498,-2.44219,1.06172,2.01664,-1.96656,5.41876,-4.9781,6.88319,6.99597,7.09806,2.09525,3.5441,3.33163,4.76089e-14,-1.03368e-14,7.39914,14.2818,-72.8849,142.272,-24.2767,-25.0662,9.20223,7.12502,1.44766,-20.7726,4.76089e-14,-1.03368e-14,14.4247,-4.30436,63.8456,137.144,14.8799,-28.9717,21.3793,7.12502,-2.32442,51.3464,-13.2851,14.5391,1.83521,66.9852,-27.51,-12.7887,-30.0135,-23.3213,1.80319,-11.1235,58.0363,-17.6801,-2.38207,-19.7061
4.95588,16.6467,-3.50262,-14.822,-49.0383,11.3436,12.1139,2.03221,-3.55095,4.27414,2.21085,0.570469,-2.46595,1.04718,2.28373,-1.74311,5.49866,-5.25427,7.39966,7.06786,7.31885,2.20443,3.57384,3.46641,6.77856e-14,4.77083e-15,7.71102,14.5411,-73.1557,142.252,-24.5591,-25.1083,8.8394,7.12502,1.40695,-21.1357,6.77856e-14,4.77083e-15,15.0013,-4.52054,64.0576,137.096,14.8919,-28.8889,20.7381,7.12502,-2.24437,50.706,-13.3585,14.0759,1.78065,67.0081,-27.7326,-12.6912,-29.0208,-23.1634,1.12234,-11.2451,57.5022,-17.2843,-1.86167,-20.9204
4.93552,16.6941,-3.57188,-15.0664,-48.8695,11.6196,12.1154,2.09932,-3.92579,4.31538,2.25019,0.408322,-2.43278,1.06425,2.32065,-1.28694,5.5155,-5.29823,7.66562,7.05475,7.37316,2.20686,3.55873,3.48182,-8.95525e-14,-7.95139e-16,7.92592,14.7024,-73.5645,142.164,-24.5958,-25.6755,8.78057,7.12502,0.859193,-21.1974,-8.95525e-14,-7.95139e-16,15.5683,-4.90864,64.2324,136.993,14.8132,-28.8326,20.0133,7.12502,-2.19,49.9818,-13.3264,13.6864,1.73998,66.8471,-27.5307,-12.569,-28.9373,-22.9271,0.468286,-11.3935,56.9057,-16.7174,-0.993977,-23.0351
4.91497,16.7552,-3.64573,-14.9355,-48.8093,11.5564,11.8749,2.0905,-3.77709,4.47218,2.25515,0.0607993,-2.12002,1.06052,1.88443,-1.11545,5.54909,-5.10161,7.99125,7.05666,7.52592,2.28486,3.56485,3.50222,-8.24956e-15,-1.35174e-14,8.36085,14.6415,-74.3043,142.059,-24.6062,-26.207,8.74174,7.12502,0.345787,-21.2377,-8.24956e-15,-1.35174e-14,16.3538,-5.22969,64.0036,136.887,14.8232,-28.9517,20.4482,7.12502,-2.30507,50.4155,-13.4056,13.4755,1.95035,66.5497,-27.1447,-12.285,-29.114,-22.8368,0.100991,-11.3007,56.2581,-15.9008,0.169902,-26.3617
4.89632,16.8248,-3.72417,-14.4365,-48.7315,11.2944,11.6926,2.10268,-3.84629,4.41577,2.2716,0.00747672,-2.08107,1.06976,1.86995,-0.924243,5.58622,-5.15871,8.53626,7.06488,7.62561,2.42612,3.56512,3.55874,2.46493e-14,1.66979e-14,8.61862,14.6403,-74.6666,141.978,-24.6744,-26.4275,8.55318,7.12502,0.132845,-21.4265,2.46493e-14,1.66979e-14,16.7111,-5.62483,64.2132,136.891,14.6397,-28.9682,21.0622,7.12502,-2.32104,51.0293,-13.6522,13.2712,2.2118,66.1201,-26.6297,-11.4834,-28.9005,-23.0293,-0.192998,-11.0117,55.5467,-14.996,0.89908,-27.681
4.87888,16.9042,-3.8002,-13.9248,-48.6607,11.1156,11.3796,2.08286,-3.87745,4.36423,2.25498,-0.108964,-1.95998,1.06192,1.77721,-0.579741,5.6735,-5.14386,8.94953,7.13845,7.69421,2.49411,3.5963,3.57966,5.58585e-14,-1.90833e-14,8.87488,14.7147,-75.1166,141.941,-24.6695,-26.8346,8.37583,7.12502,-0.260371,-21.6038,5.58585e-14,-1.90833e-14,16.9908,-5.98365,64.3129,136.992,14.4067,-28.9599,21.3355,7.12502,-2.31303,51.3027,-13.9589,13.0959,2.31383,65.5675,-25.8353,-10.4521,-28.8756,-23.213,-0.636395,-10.767,54.7255,-14.0592,1.40719,-27.7501
4.86384,16.9961,-3.8765,-13.2592,-48.6906,10.7343,11.1253,2.05877,-3.73525,4.32265,2.24942,-0.180783,-1.85681,1.06051,1.63059,-0.26992,5.77528,-5.23694,9.3169,7.23561,7.80257,2.54669,3.63738,3.63402,1.75626e-13,-4.6118e-14,9.1204,14.8867,-75.5472,141.953,-24.4024,-27.3369,7.99565,7.12502,-0.745492,-21.9828,1.75626e-13,-4.6118e-14,17.2457,-6.23913,64.3893,137.107,14.2299,-29.0255,21.215,7.12502,-2.37631,51.1816,-14.2618,13.0404,2.54864,64.8754,-24.7993,-9.55712,-29.3076,-23.3087,-1.10691,-10.3585,53.7942,-12.965,1.94431,-27.8848
4.85216,17.0949,-3.95433,-12.4938,-48.7567,10.2659,10.9411,2.05934,-3.49176,4.24337,2.28312,-0.242718,-1.82983,1.08119,1.42971,-0.00314365,5.85787,-5.2866,9.67446,7.31231,7.84396,2.60933,3.66837,3.65901,2.00773e-14,-2.70347e-14,9.33144,14.8662,-75.8875,142.018,-24.1804,-27.8325,7.61126,7.12502,-1.22414,-22.365,2.00773e-14,-2.70347e-14,17.4752,-6.50426,64.5135,137.187,14.0447,-29.0561,21.0068,7.12502,-2.40592,50.973,-14.5796,13.0867,2.78921,64.0908,-23.7418,-8.40073,-29.3608,-23.4238,-1.51783,-9.84467,52.7624,-11.6321,2.34179,-28.0428
4.8416,17.1968,-4.03219,-11.9039,-48.7442,10.0332,10.8615,2.05125,-3.41483,4.1137,2.28053,-0.368991,-1.91343,1.085,1.25607,0.230125,5.94535,-5.1707,10.1334,7.39209,7.80675,2.72101,3.70429,3.63242,-1.71154e-13,1.90833e-14,9.53793,14.7458,-76.2189,142.102,-23.9909,-28.4591,7.68217,7.12502,-1.82927,-22.2897,-1.71154e-13,1.90833e-14,17.5543,-6.76129,64.5706,137.295,13.9247,-29.0222,20.8144,7.12502,-2.3731,50.7809,-14.8671,13.1307,2.76784,63.2277,-22.5968,-6.9447,-29.355,-23.5254,-1.95865,-9.52002,51.6415,-10.217,2.81053,-28.8223
4.83358,17.2992,-4.10994,-11.0683,-48.744,9.52463,10.7273,1.99546,-3.17162,4.02354,2.23606,-0.435912,-1.92063,1.06685,1.05861,0.420052,6.00784,-5.08622,10.5766,7.44552,7.7292,2.83843,3.72543,3.59949,9.6013e-14,-6.36111e-15,9.90477,14.631,-76.4975,142.19,-23.7123,-28.9904,7.79155,7.12502,-2.34243,-22.1753,9.6013e-14,-6.36111e-15,17.6661,-6.86111,64.5782,137.426,13.851,-29.1128,20.3445,7.12502,-2.46064,50.31,-15.2075,13.1123,2.90634,62.2976,-21.3647,-5.43114,-29.3011,-23.6506,-2.35592,-8.9879,50.4547,-8.9154,3.20106,-28.9003
4.82599,17.4004,-4.18626,-10.3313,-48.7871,9.0339,10.528,1.93754,-2.78404,4.07018,2.20289,-0.579009,-1.74283,1.05108,0.704779,0.58131,6.07092,-5.07319,10.839,7.50545,7.74127,2.89378,3.75098,3.60443,2.99171e-14,-4.77083e-15,10.4969,14.4141,-76.7756,142.32,-23.3549,-29.3906,7.77952,7.12502,-2.72889,-22.1828,2.99171e-14,-4.77083e-15,18.0006,-6.85083,64.4532,137.548,13.8305,-29.0707,20.0146,7.12502,-2.41996,49.9806,-15.4563,13.0695,3.02799,61.3085,-20.1252,-3.85231,-29.3905,-23.6354,-2.81979,-8.44563,49.2131,-7.63638,3.57462,-27.7865
4.81725,17.504,-4.25538,-9.95806,-48.8541,8.87919,10.4606,1.93862,-2.75873,4.11815,2.208,-0.625975,-1.65362,1.05237,0.644513,0.676933,6.15089,-5.23866,11.093,7.60148,7.7063,2.95155,3.78745,3.62861,-5.06901e-15,7.95139e-15,11.1367,14.2334,-76.6779,142.505,-23.1913,-29.9391,7.46947,7.12502,-3.25865,-22.4854,-5.06901e-15,7.95139e-15,18.0892,-6.74348,64.6229,137.604,13.8985,-28.9546,19.4641,7.12502,-2.30788,49.4313,-15.575,13.0116,2.86429,60.279,-18.8294,-2.0619,-29.416,-23.4167,-3.47313,-8.16245,47.9659,-6.51486,3.99984,-26.5133
4.80796,17.6053,-4.31843,-9.5334,-48.9357,8.79962,10.2561,1.94437,-2.75601,4.15368,2.22238,-0.696475,-1.50259,1.0582,0.575677,0.683685,6.22794,-5.43077,11.3953,7.68922,7.75155,3.03933,3.8222,3.69206,1.85864e-14,8.74653e-15,11.8532,13.9364,-76.4697,142.684,-23.2245,-30.4402,7.35385,7.12502,-3.74252,-22.593,1.85864e-14,8.74653e-15,18.0505,-6.53955,64.8902,137.499,13.9708,-28.9009,17.7003,7.12502,-2.25596,47.6681,-15.8202,12.852,2.57611,59.2433,-17.5618,-0.165222,-28.6089,-23.2868,-4.18308,-7.963,46.7696,-5.48608,4.41716,-25.0528
4.80284,17.6941,-4.38672,-8.8144,-48.9904,8.50868,10.0783,1.93235,-2.70362,4.03244,2.21916,-0.693291,-1.52934,1.05974,0.553335,0.898734,6.32124,-5.70117,11.7347,7.77739,7.90417,3.09422,3.85276,3.79823,-2.16675e-14,3.57812e-15,12.4845,13.6159,-76.2451,142.854,-23.2383,-30.9806,7.34618,7.12502,-4.26436,-22.5909,-2.16675e-14,3.57812e-15,17.9334,-6.60277,65.0018,137.707,13.6732,-29.1067,18.5375,7.12502,-2.45474,48.5031,-16.2561,12.5888,2.43032,58.2481,-16.3045,1.54358,-27.3801,-23.3829,-4.77568,-7.59189,45.7044,-4.59693,4.46366,-23.0531
4.79909,17.7782,-4.45099,-8.10845,-49.0723,8.1125,9.97179,1.91049,-2.54795,3.9092,2.20954,-0.687078,-1.59331,1.05894,0.474709,1.16706,6.3903,-5.80654,12.0593,7.84041,7.88571,3.14856,3.87042,3.81159,-8.07066e-14,1.03368e-14,13.095,13.3134,-75.9898,143.059,-23.1908,-31.6325,7.24589,7.12502,-4.89388,-22.6776,-8.07066e-14,1.03368e-14,17.929,-6.64712,64.937,137.837,13.6473,-29.4474,18.9686,7.12502,-2.78375,48.9302,-16.5494,12.3218,2.39992,57.2535,-15.1107,3.02643,-26.3157,-23.3735,-5.21762,-7.17723,44.8173,-4.19956,3.94652,-20.8034
4.79731,17.8551,-4.50658,-7.49743,-49.1801,7.6729,9.92797,1.88917,-2.28392,3.85008,2.20849,-0.663962,-1.62209,1.06141,0.351128,1.33244,6.39319,-5.91322,12.3335,7.8329,7.76174,3.21459,3.85148,3.79177,6.4605e-14,-1.23246e-14,13.8011,12.9038,-75.6384,143.244,-23.2522,-32.0666,7.05675,7.12502,-5.31306,-22.8566,6.4605e-14,-1.23246e-14,17.9635,-6.58862,64.9811,137.955,13.6653,-29.5585,19.1371,7.12502,-2.89106,49.0972,-16.6318,12.0876,2.43088,56.25,-14.1822,4.27319,-25.8384,-23.251,-5.55293,-6.81318,44.1717,-4.20861,2.98477,-19.6969
4.79585,17.9179,-4.56246,-6.81699,-49.271,7.17252,9.85241,1.85328,-2.06972,3.75111,2.18718,-0.550104,-1.6796,1.05377,0.351584,1.5724,6.4297,-6.1078,12.6027,7.87229,7.59527,3.26008,3.84868,3.76893,-5.23798e-14,2.62396e-14,14.5818,12.5025,-75.183,143.417,-23.3957,-32.5251,6.7116,7.12502,-5.75573,-23.1902,-5.23798e-14,2.62396e-14,18.0615,-6.41333,65.1915,138.15,13.6196,-29.5898,19.6711,7.12502,-2.92131,49.6309,-16.6849,11.9484,2.55718,55.2481,-13.6152,5.25279,-25.63,-23.2136,-5.89597,-6.44134,43.7897,-4.41234,1.91926,-19.1634
4.79221,17.9719,-4.61886,-6.22717,-49.4318,6.7327,9.73187,1.84465,-1.87209,3.67599,2.19912,-0.519102,-1.6857,1.06209,0.273921,1.77613,6.51529,-6.13575,12.9259,7.96111,7.55142,3.3288,3.88155,3.76259,-8.39865e-14,1.47101e-14,15.3891,12.0996,-74.8579,143.557,-23.6035,-33.1955,6.72071,7.12502,-6.40298,-23.1625,-8.39865e-14,1.47101e-14,18.3235,-6.29502,65.1278,138.39,13.6437,-29.814,20.4027,7.12502,-3.13785,50.3594,-16.6699,12.0689,2.71729,54.2613,-13.3977,6.19371,-25.1164,-23.1353,-6.17261,-6.16426,43.7058,-4.65811,0.830922,-18.4605
4.78608,18.0169,-4.67115,-5.73302,-49.5851,6.35712,9.51305,1.84212,-1.65749,3.68177,2.22039,-0.56859,-1.55025,1.07385,0.107546,1.81912,6.54831,-6.0011,13.2547,7.98813,7.48741,3.44159,3.89317,3.72886,7.74266e-14,-1.43125e-14,16.2105,11.6268,-74.6344,143.723,-23.9221,-33.5905,6.58456,7.12502,-6.78423,-23.2867,7.74266e-14,-1.43125e-14,18.6012,-6.20695,64.9181,138.547,13.6052,-30.0962,21.0698,7.12502,-3.4104,51.0223,-16.5409,12.2797,2.87413,53.34,-13.5609,7.13041,-24.8467,-23.033,-6.34252,-6.02422,43.9442,-4.89073,-0.307582,-17.3735
4.78216,18.0494,-4.72245,-5.23889,-49.6632,6.00809,9.23085,1.78134,-1.46279,3.74107,2.16347,-0.60169,-1.32489,1.0459,-0.0193201,1.75358,6.56514,-6.00556,13.5094,8.01018,7.39583,3.54568,3.89746,3.71325,-9.24349e-15,1.86858e-14,17.1674,11.1922,-74.3696,143.837,-24.1211,-33.7364,6.22983,7.12502,-6.92511,-23.6369,-9.24349e-15,1.86858e-14,18.8559,-5.94417,64.8534,138.635,13.5496,-30.047,21.0125,7.12502,-3.36287,50.9658,-16.4139,12.5182,3.06161,52.5299,-14.1922,7.6274,-25.5004,-23.0741,-6.33901,-5.95385,44.5182,-5.02799,-1.28456,-15.7292
4.77605,18.069,-4.77367,-4.94404,-49.7844,5.84463,9.00794,1.74606,-1.43621,3.75781,2.12401,-0.626372,-1.18285,1.02622,-0.0482752,1.66249,6.61914,-6.08658,14.2749,8.01723,7.63667,3.39732,3.92703,3.47686,2.54941e-14,-3.18055e-15,17.985,10.876,-73.975,143.903,-24.1907,-34.071,6.07526,7.12502,-7.24812,-23.7806,2.54941e-14,-3.18055e-15,19.0172,-5.71854,64.8339,138.636,13.4979,-29.8204,19.738,7.12502,-3.144,49.6946,-16.228,13.0053,3.18296,51.8788,-15.168,7.30123,-25.4495,-23.1075,-5.98448,-6.06971,45.4396,-5.10926,-1.97841,-15.4651
4.76607,18.0721,-4.82416,-4.84418,-49.9114,5.75715,8.89911,1.70921,-1.57081,3.6954,2.06847,-0.568134,-1.19378,0.998035,0.0947393,1.61611,6.70534,-6.18323,15.0095,8.10607,7.58087,3.61883,3.9557,3.50075,3.97569e-14,-1.66979e-14,18.4885,10.733,-73.5494,144.01,-24.3887,-34.4097,6.27879,7.12502,-7.57507,-23.5656,3.97569e-14,-1.66979e-14,18.8634,-5.50457,64.9227,138.677,13.464,-30.109,19.6953,7.12502,-3.42273,49.6476,-15.8306,13.718,3.34857,51.4105,-16.4484,5.55834,-24.128,-23.0205,-5.54611,-6.29146,46.6857,-5.21248,-2.32292,-16.4103
4.75726,18.061,-4.87361,-4.43158,-49.8443,5.29293,8.77679,1.61216,-1.3948,3.58937,1.96032,-0.481354,-1.23198,0.94683,0.0978655,1.66993,6.74067,-6.31261,15.6468,8.11405,7.62687,3.79389,3.94544,3.55367,-1.0466e-13,1.23246e-14,18.8442,10.4643,-73.2847,144.129,-24.5472,-34.6209,6.23221,7.12502,-7.77889,-23.6047,-1.0466e-13,1.23246e-14,18.6608,-5.42662,65.0432,138.765,13.3553,-31.0249,21.3549,7.12502,-4.30723,51.2911,-15.3519,14.3084,3.86063,51.1356,-17.8328,1.93479,-23.1637,-23.0996,-5.22716,-6.28351,48.1929,-5.23738,-2.55061,-16.8123
4.74916,18.0429,-4.9208,-3.79842,-49.7181,4.61774,8.58514,1.54189,-0.985281,3.51238,1.90603,-0.45448,-1.19327,0.92395,-0.0945386,1.47696,6.68819,-6.21004,16.3447,8.01074,7.67777,4.04528,3.89718,3.58235,4.11484e-14,1.98785e-15,19.183,10.0535,-73.0958,144.235,-24.52,-34.8991,6.22564,7.12502,-8.04736,-23.6011,4.11484e-14,1.98785e-15,18.6911,-5.54786,65.0248,138.8,13.1533,-31.3841,21.7635,7.12502,-4.65406,51.6924,-14.9592,14.6878,4.53482,51.0474,-18.7332,-2.57991,-22.4188,-23.3198,-4.88173,-6.13637,49.8669,-5.17967,-2.79647,-17.8347
4.73388,18.0118,-4.96759,-3.41125,-49.7104,4.17958,8.34677,1.5003,-0.778271,3.45395,1.87199,-0.467936,-1.11512,0.90955,-0.215544,1.23479,6.6659,-6.10368,17.0936,7.94837,7.7211,4.31915,3.86931,3.61239,7.6383e-14,-1.64991e-14,19.3897,9.74929,-72.9502,144.331,-24.4737,-35.1667,6.36781,7.12502,-8.30569,-23.4489,7.6383e-14,-1.64991e-14,18.6706,-5.52023,64.9157,138.844,12.9785,-31.1973,21.163,7.12502,-4.47367,51.0958,-14.6286,15.0162,5.09148,51.1405,-18.9447,-7.11911,-22.8841,-23.4133,-4.47413,-6.14345,51.596,-5.13818,-2.95222,-20.0657
4.71508,17.9667,-5.01668,-3.10681,-49.7342,3.83966,8.12648,1.46229,-0.70521,3.32298,1.83236,-0.465948,-1.12655,0.891944,-0.246999,1.07381,6.66196,-6.12645,17.9088,7.88973,7.87426,4.58966,3.83911,3.69631,3.88624e-14,-1.23246e-14,19.5065,9.65705,-72.8613,144.396,-24.2044,-35.3801,6.71115,7.12502,-8.51164,-23.0973,3.88624e-14,-1.23246e-14,18.4557,-5.44628,64.8429,138.919,12.8702,-31.2182,20.9875,7.12502,-4.49387,50.9198,-14.3538,15.4924,5.56104,51.3781,-18.562,-8.74361,-20.7568,-23.4555,-3.93084,-6.23167,53.2963,-5.11614,-3.05183,-22.9081
4.69716,17.9069,-5.06727,-2.92016,-49.7398,3.59305,7.98019,1.45326,-0.707618,3.19569,1.82388,-0.468316,-1.17711,0.889163,-0.24548,0.77156,6.56937,-6.08455,18.8478,7.71817,7.96859,4.93716,3.75554,3.76084,5.99087e-14,-6.55989e-15,19.7883,9.54188,-72.8461,144.486,-23.4691,-35.1274,6.57597,7.12502,-8.26774,-23.2422,5.99087e-14,-6.55989e-15,18.2252,-5.55859,64.8384,139.075,12.7695,-30.8408,20.342,7.12502,-4.12938,50.2817,-13.9879,16.2517,5.86316,51.7049,-18.4295,-8.9243,-17.5775,-23.4153,-3.31653,-6.39884,54.9152,-5.28931,-3.19118,-26.1407
4.67653,17.8336,-5.11905,-2.93688,-49.6734,3.53952,7.84106,1.42392,-0.843851,3.11145,1.77719,-0.510876,-1.18983,0.866231,-0.206481,0.401247,6.49484,-6.0608,19.7589,7.57531,8.0702,5.28705,3.68713,3.83332,-1.06946e-13,7.55382e-15,20.0588,9.29496,-72.8729,144.592,-22.6627,-34.6575,5.50705,7.12502,-7.81418,-24.3285,-1.06946e-13,7.55382e-15,17.963,-5.68783,64.8246,139.225,12.583,-30.6591,19.526,7.12502,-3.95391,49.4691,-13.5164,16.9243,6.05018,52.0445,-18.0121,-8.51858,-16.9634,-23.2989,-2.82698,-6.65112,56.411,-5.85022,-3.44409,-28.8597
4.65065,17.7505,-5.17232,-3.07009,-49.6437,3.59562,7.71431,1.43519,-1.1127,3.04251,1.77407,-0.579292,-1.19672,0.864217,-0.123731,-0.0788012,6.42127,-6.00192,20.7006,7.43256,8.19271,5.66857,3.62468,3.913,-1.62258e-14,9.93923e-17,20.1255,8.95167,-72.7774,144.698,-22.1286,-34.4704,5.10252,7.12502,-7.63362,-24.7397,-1.62258e-14,9.93923e-17,17.7193,-5.7544,64.7989,139.315,12.2706,-31.3182,19.9709,7.12502,-4.5904,49.9011,-13.0064,17.5211,6.23964,52.3163,-19.1784,-8.17871,-25.4415,-23.0721,-2.27123,-6.93944,57.7791,-6.78609,-3.56837,-30.634
4.61972,17.6601,-5.22657,-3.27718,-49.6671,3.67171,7.67227,1.48337,-1.50408,2.9701,1.81006,-0.615875,-1.25899,0.881129,0.0546483,-0.651358,6.26562,-5.82127,21.7177,7.20957,8.08463,6.11663,3.5165,3.90519,-1.06188e-13,2.28602e-14,20.1895,8.76103,-72.7352,144.815,-21.929,-34.2955,5.35395,7.12502,-7.46477,-24.4943,-1.06188e-13,2.28602e-14,17.4204,-5.8358,64.7952,139.513,11.9413,-32.0999,21.4257,7.12502,-5.34521,51.3383,-12.4341,18.2334,6.447,52.4533,-20.6696,-7.64278,-26.2815,-22.7057,-1.60952,-7.19861,58.9985,-7.93761,-3.21865,-31.2334
4.58992,17.5672,-5.27982,-3.49236,-49.5959,3.73631,7.73183,1.47851,-1.85437,2.86261,1.77537,-0.661075,-1.41118,0.864186,0.204038,-1.04917,6.12154,-5.72429,22.576,6.99924,8.002,6.4827,3.4083,3.90532,-5.39825e-14,1.78906e-15,20.2805,8.83418,-72.9516,144.873,-21.6646,-34.2523,5.61819,7.12502,-7.42308,-24.2316,-5.39825e-14,1.78906e-15,16.9772,-6.01423,64.7703,139.794,11.5489,-32.0128,21.2465,7.12502,-5.2611,51.1612,-11.8802,18.8895,6.65158,52.4412,-22.1175,-8.68535,-26.6072,-22.4068,-1.02896,-7.42033,60.095,-9.29201,-2.21074,-31.9138
4.56691,17.4747,-5.32905,-3.78598,-49.3394,3.86321,7.92478,1.40148,-2.11903,2.73182,1.6446,-0.75409,-1.65492,0.801149,0.261555,-1.34661,6.03208,-5.72193,23.3684,6.83805,8.07235,6.79842,3.32705,3.96475,4.1018e-14,-8.10048e-15,20.1415,9.0987,-73.1565,144.89,-21.1691,-34.6035,6.19936,7.12502,-7.76209,-23.6382,4.1018e-14,-8.10048e-15,16.3747,-6.3437,64.7224,140.143,11.1973,-31.7306,20.4044,7.12502,-4.98858,50.3257,-11.3416,19.1103,6.74398,52.3358,-23.5823,-9.2309,-27.8706,-22.1651,-0.603318,-7.69209,61.044,-10.6332,-0.964846,-31.8476
4.55076,17.3731,-5.37682,-4.05104,-48.9867,4.0102,8.07496,1.27801,-2.36153,2.60682,1.45398,-0.831321,-1.86683,0.708808,0.330733,-1.62904,5.96808,-5.79979,24.1633,6.72296,8.11463,7.11057,3.25816,4.03037,1.16693e-14,-1.27284e-14,19.8002,9.36144,-73.1804,145.003,-20.7176,-34.7459,6.55555,7.12502,-7.89951,-23.2769,1.16693e-14,-1.27284e-14,15.6512,-6.65971,64.7799,140.571,10.8506,-32.1448,21.1741,7.12502,-5.38855,51.0856,-10.8821,18.9132,6.70381,52.2751,-25.2484,-8.67112,-29.3169,-22.0452,-0.175032,-7.91623,61.8419,-11.8425,-0.503934,-27.0154
4.53714,17.2705,-5.42124,-4.24885,-48.629,4.07846,8.14614,1.16371,-2.59998,2.5359,1.27968,-0.846913,-1.97991,0.623743,0.46294,-1.84134,5.87781,-5.83627,24.9031,6.60675,7.96469,7.407,3.17448,4.02183,4.38398e-14,7.01958e-16,19.3974,9.5719,-73.1214,145.192,-20.3667,-34.7367,6.75353,7.12502,-7.89069,-23.0792,4.38398e-14,7.01958e-16,14.8442,-7.04301,64.986,141.051,10.2312,-32.5624,22.0435,7.12502,-5.79172,51.9444,-10.4774,18.4546,6.67321,52.3538,-26.876,-7.66026,-28.3145,-21.986,0.163059,-8.03692,62.4796,-13.3237,-0.294249,-26.7045
4.52594,17.1879,-5.45993,-4.27277,-48.3061,3.88132,8.30481,1.06561,-2.72749,2.49307,1.13564,-0.74638,-2.11234,0.55386,0.649119,-2.22209,5.73857,-5.84042,25.8209,6.46875,7.61789,7.80931,3.06284,3.9558,2.46555e-14,1.2424e-17,18.9583,9.86855,-72.991,145.346,-19.9372,-34.8344,6.88644,7.12502,-7.98499,-22.9427,2.46555e-14,1.2424e-17,13.9392,-7.54124,65.299,141.615,9.62457,-32.5762,21.3917,7.12502,-5.80502,51.2921,-10.2309,17.7532,6.83581,52.569,-28.0533,-7.29144,-26.1657,-21.9442,0.458756,-7.96288,62.963,-14.7818,0.0579715,-27.3664
4.52267,17.1204,-5.49877,-3.79991,-47.9929,3.12149,8.55431,0.934624,-2.5332,2.37938,0.977259,-0.466263,-2.36473,0.479016,0.840577,-2.59451,5.61774,-5.9373,26.8639,6.38525,7.19017,8.25523,2.95345,3.88446,1.80273e-14,7.85199e-15,18.3513,10.3182,-72.8708,145.492,-19.5465,-34.8999,6.8488,7.12502,-8.04817,-22.978,1.80273e-14,7.85199e-15,12.8512,-7.74021,65.8987,142.04,8.96358,-32.0008,19.3027,7.12502,-5.24949,49.2177,-10.2776,16.7375,7.4108,52.8612,-28.8109,-7.68768,-25.8401,-22.1188,0.76025,-7.40721,63.3729,-15.9893,0.336629,-28.4502
4.52745,17.0583,-5.53859,-3.25444,-47.7217,2.32443,8.84604,0.800903,-2.3563,2.24831,0.815791,-0.151968,-2.65861,0.403123,1.07869,-2.86538,5.49794,-6.09949,27.8766,6.31009,6.77244,8.67628,2.83566,3.82052,-2.79541e-16,1.00883e-14,17.6178,10.8627,-72.8221,145.627,-19.2112,-35.0783,7.29298,7.12502,-8.22036,-22.5271,-2.79541e-16,1.00883e-14,11.6359,-7.67327,66.6744,142.292,8.0747,-31.7207,17.8678,7.12502,-4.97903,47.7893,-10.4298,15.5246,7.97045,53.144,-29.5415,-7.85268,-26.9144,-22.4573,1.02605,-6.75798,63.8332,-16.8185,0.395096,-29.3631
4.53802,17.0037,-5.57268,-2.73521,-47.485,1.63217,9.03365,0.701019,-2.18354,2.23044,0.70196,0.0990201,-2.77799,0.347394,1.25197,-3.33019,5.34056,-6.21095,28.8459,6.19443,6.39116,9.12856,2.70625,3.76168,3.76511e-14,4.96962e-17,16.8966,11.2653,-72.7883,145.713,-18.8515,-35.2535,7.78483,7.12502,-8.3894,-22.0286,3.76511e-14,4.96962e-17,10.4599,-7.97021,67.4133,142.68,7.25727,-32.7195,18.6001,7.12502,-5.94336,48.4967,-10.6293,14.2793,8.37452,53.3993,-30.2052,-7.66712,-26.7827,-22.9443,1.27702,-6.12529,64.4037,-17.2361,0.113794,-30.3076
4.55376,16.9583,-5.60108,-1.98699,-47.2445,0.769348,9.03516,0.592874,-1.78669,2.31646,0.601837,0.320632,-2.68446,0.293931,1.26973,-4.04156,5.14399,-6.22967,29.9015,6.03864,6.00576,9.67394,2.56239,3.69365,4.33537e-14,-3.27995e-15,16.2267,11.5882,-72.8239,145.768,-18.5066,-35.5608,8.24798,7.12502,-8.68594,-21.5533,4.33537e-14,-3.27995e-15,9.44501,-8.28035,68.0806,143.072,6.59748,-33.5396,18.892,7.12502,-6.7351,48.7649,-10.912,13.1142,8.84968,53.6164,-30.7075,-7.45911,-25.3662,-23.6695,1.54631,-5.25235,65.0957,-17.0957,-0.652986,-30.0443
4.57187,16.9234,-5.62762,-1.45259,-47.0634,0.262702,8.97168,0.546282,-1.62022,2.42502,0.559714,0.453111,-2.53529,0.269741,1.31862,-4.58025,4.91309,-6.34543,30.8592,5.81249,5.7328,10.1578,2.38449,3.66163,2.46679e-14,2.73329e-15,15.4684,11.8267,-72.8905,145.804,-18.129,-36.2359,9.24862,7.12502,-9.33738,-20.5246,2.46679e-14,2.73329e-15,8.5776,-8.51534,68.6809,143.32,6.03939,-33.4232,17.3353,7.12502,-6.6228,47.2118,-11.249,12.327,9.08057,53.81,-31.1849,-7.16716,-24.6494,-24.4976,1.80063,-4.57233,65.8674,-16.445,-1.66391,-28.9008
4.5928,16.8989,-5.65185,-1.25638,-46.9753,0.163871,8.98393,0.55419,-1.7524,2.50948,0.559171,0.517324,-2.45641,0.267989,1.45973,-4.65635,4.75919,-6.57834,31.4591,5.67692,5.5011,10.4132,2.24597,3.63597,-3.76448e-14,1.05853e-14,14.4476,12.0613,-72.9551,145.841,-17.9371,-36.7183,9.82945,7.12502,-9.80284,-19.9224,-3.76448e-14,1.05853e-14,7.66804,-8.72506,69.2686,143.531,5.73477,-33.431,16.0759,7.12502,-6.63028,45.9521,-11.5494,11.9617,9.08001,53.943,-31.5213,-7.07504,-24.8435,-25.3077,2.03734,-4.16912,66.6206,-15.4333,-2.79197,-27.6827
4.61944,16.88,-5.66941,-1.16806,-46.8895,0.158255,8.96915,0.5341,-1.81006,2.65531,0.52478,0.46668,-2.29606,0.247466,1.44415,-4.39493,4.68709,-6.70148,31.6764,5.63501,5.22272,10.4586,2.16818,3.55283,-1.76235e-14,-2.18663e-15,13.3402,12.3329,-73.2062,145.764,-17.8013,-36.9581,10.1385,7.12502,-10.0342,-19.6023,-1.76235e-14,-2.18663e-15,6.92029,-8.86415,69.694,143.639,5.41141,-33.7104,16.4149,7.12502,-6.90003,46.2824,-11.7495,11.805,9.04001,53.9665,-31.7317,-7.25927,-24.6383,-26.1251,2.23548,-3.78194,67.3058,-14.0184,-4.24148,-26.2638
4.65052,16.8769,-5.68161,-1.08256,-46.8603,0.0687299,8.99603,0.528125,-1.66429,2.87281,0.522676,0.311517,-2.08334,0.241551,1.2026,-4.00256,4.63949,-6.73556,31.7161,5.58464,5.01971,10.4105,2.11113,3.46862,5.34339e-14,-1.84093e-14,12.4085,12.383,-73.6639,145.59,-17.7726,-36.9993,10.3744,7.12502,-10.074,-19.3645,5.34339e-14,-1.84093e-14,6.44267,-8.97446,69.9429,143.644,5.11399,-33.4295,16.7209,7.12502,-6.62889,46.5971,-11.8059,11.8835,9.08556,53.8314,-31.8022,-7.64586,-24.2282,-26.8833,2.47372,-3.29673,67.8717,-12.2497,-5.75824,-26.4919
4.68391,16.8908,-5.68251,-1.41826,-46.8727,0.386921,9.14406,0.529049,-1.79117,3.07718,0.501685,0.100199,-1.95208,0.227158,1.05779,-3.40071,4.62277,-6.86514,31.7586,5.56907,4.81186,10.3185,2.05633,3.39461,-4.90128e-15,9.69075e-15,11.5449,12.3841,-74.2115,145.398,-18.2778,-36.8405,10.6359,7.12502,-9.92078,-19.1104,-4.90128e-15,9.69075e-15,5.96512,-8.99652,70.2033,143.554,5.09611,-33.698,17.3431,7.12502,-6.888,47.211,-11.6227,12.0557,8.82411,53.5335,-31.814,-7.99421,-24.7727,-27.4618,2.67618,-3.17206,68.2906,-10.3398,-7.20503,-26.4259
4.72069,16.9131,-5.66993,-1.91098,-46.953,0.890104,9.23782,0.545489,-1.95676,3.26652,0.498173,-0.151121,-1.80685,0.221457,0.891859,-2.55528,4.62296,-7.08951,31.753,5.54778,4.65115,10.1579,1.99312,3.34321,3.2054e-14,-4.96962e-16,10.6922,12.278,-74.8064,145.178,-19.1716,-36.3779,10.9973,7.12502,-9.4744,-18.7698,3.2054e-14,-4.96962e-16,5.61292,-8.70389,70.457,143.249,5.63271,-34.0698,17.8379,7.12502,-7.24695,47.6938,-11.346,12.3118,8.40778,53.1107,-31.7116,-8.38957,-25.573,-27.9358,2.95653,-3.20361,68.6203,-8.18999,-8.83,-26.3084
4.76186,16.9444,-5.64947,-2.03623,-47.1679,1.0793,9.15109,0.579249,-1.86891,3.44007,0.546935,-0.342879,-1.57859,0.242474,0.640765,-1.57274,4.67309,-7.30549,31.6811,5.59752,4.4129,9.94801,1.95744,3.26185,-1.74434e-14,-1.61016e-14,9.97364,12.1832,-75.3595,144.808,-19.7936,-35.8357,11.0793,7.12502,-8.95126,-18.7108,-1.74434e-14,-1.61016e-14,5.43136,-8.07526,70.6467,142.758,6.31441,-33.5087,16.7523,7.12502,-6.70535,46.6261,-11.2359,12.6445,8.18043,52.6167,-31.4274,-8.75776,-25.6156,-28.4917,3.4672,-2.98439,68.871,-5.88166,-10.6217,-25.9231
4.81028,16.986,-5.62347,-2.00916,-47.5052,1.13097,9.10969,0.652097,-1.689,3.55759,0.654696,-0.525905,-1.4331,0.295273,0.340761,-0.62816,4.75435,-7.47338,31.7921,5.65925,4.23941,9.81388,1.93242,3.20429,1.47672e-13,-1.98785e-14,9.34239,12.0951,-75.8924,144.352,-20.2823,-35.3043,10.18,7.12502,-8.43843,-19.6315,1.47672e-13,-1.98785e-14,5.27633,-7.53938,70.8305,142.217,6.68479,-33.2142,16.1102,7.12502,-6.42099,45.9928,-11.2467,12.9471,8.01439,52.0996,-30.9366,-9.16821,-25.6039,-29.0347,4.03142,-2.67941,69.0152,-3.60225,-12.4229,-24.8201
4.86528,17.0328,-5.59062,-2.06513,-47.8355,1.41673,9.0332,0.690482,-1.66289,3.61795,0.704447,-0.724835,-1.32677,0.319657,0.117043,0.244476,4.93055,-7.74798,32.1278,5.83262,4.1654,9.7643,1.94712,3.21684,5.81694e-14,-3.57812e-15,8.94874,12.0884,-76.2702,143.755,-20.7968,-34.7907,8.09857,7.12502,-7.94276,-21.7322,5.81694e-14,-3.57812e-15,5.10954,-6.86254,70.9871,141.67,7.04129,-33.3016,16.3912,7.12502,-6.5054,46.2713,-11.3664,13.1752,7.61168,51.5796,-30.3837,-9.48099,-25.6214,-29.5868,4.50979,-2.60076,69.0177,-1.90322,-14.2626,-24.0167
4.92614,17.0871,-5.54865,-2.1786,-48.2104,1.85206,8.89637,0.719786,-1.68307,3.66949,0.73975,-0.943523,-1.19607,0.336758,-0.0987433,1.10145,5.1326,-8.05447,32.553,6.07453,3.9479,9.75612,1.96969,3.19079,1.36466e-13,-1.64991e-14,8.78774,12.0713,-76.5249,143.036,-21.1168,-34.7136,7.23369,7.12502,-7.86838,-22.5999,1.36466e-13,-1.64991e-14,5.04456,-6.00573,71.06,141.137,7.69967,-33.2797,16.8913,7.12502,-6.48425,46.772,-11.5387,13.4765,7.04469,51.0558,-29.7723,-9.62176,-25.396,-30.0794,4.95295,-2.66427,68.8865,-0.824225,-16.1079,-23.3288
4.99108,17.1566,-5.49886,-2.28975,-48.7407,2.20315,8.8291,0.858831,-1.6317,3.75355,0.923607,-1.19958,-1.06905,0.428316,-0.407859,1.94042,5.22834,-7.98852,33.0649,6.21144,3.43923,9.82067,1.95288,2.99511,-9.0447e-14,2.78299e-15,8.78832,11.7486,-76.7289,142.306,-21.349,-35.0952,7.63774,7.12502,-8.23661,-22.1817,-9.0447e-14,2.78299e-15,5.18346,-5.27569,71.0032,140.651,8.56135,-33.3847,17.7974,7.12502,-6.58562,47.675,-11.7199,13.8066,6.51618,50.5106,-28.9523,-9.76952,-25.3666,-30.3686,5.40612,-2.67513,68.6428,0.0332359,-17.7455,-21.5999
5.06291,17.2344,-5.44522,-2.2834,-49.3034,2.36672,8.81842,1.1042,-1.31747,3.86075,1.26573,-1.56481,-0.938838,0.602083,-0.992164,2.78152,5.19642,-7.48239,33.6434,6.15934,2.86896,9.93995,1.89342,2.69286,1.28415e-13,-1.59028e-14,8.83801,10.9601,-76.9015,141.64,-21.5431,-35.4111,7.86947,7.12502,-8.54156,-21.9378,1.28415e-13,-1.59028e-14,5.69276,-4.73705,70.7627,140.131,9.91066,-33.2671,17.9263,7.12502,-6.4721,47.8074,-11.9428,14.0478,6.10935,49.931,-27.7615,-10.1358,-26.1518,-30.6015,5.79724,-2.5477,68.3237,0.702153,-18.9829,-19.6372
5.14286,17.317,-5.38709,-2.10662,-49.8577,2.37824,8.80444,1.32397,-0.807028,3.962,1.58957,-1.94347,-0.798782,0.770279,-1.69814,3.61562,5.17686,-7.01577,34.1747,6.12409,2.34908,10.0398,1.84684,2.41323,-5.73494e-14,1.31198e-14,9.20395,9.95754,-76.9922,140.92,-21.9664,-35.1763,7.64516,7.12502,-8.31489,-22.1712,-5.73494e-14,1.31198e-14,6.38327,-4.17538,70.4123,139.536,11.3593,-33.2117,17.014,7.12502,-6.41854,46.8967,-12.2358,14.3005,5.7793,49.3216,-26.3676,-10.465,-26.8159,-30.9132,6.0991,-2.31022,67.9443,0.813234,-19.3538,-18.9977
5.22304,17.4065,-5.32477,-1.91577,-50.3949,2.39166,8.74988,1.43666,-0.494834,4.09809,1.75949,-2.17331,-0.60669,0.859874,-2.1229,4.38106,5.27796,-7.02943,34.5742,6.25689,1.96895,10.0751,1.84045,2.27181,1.04958e-13,-2.10712e-14,10.0307,9.14257,-76.7788,140.134,-22.8803,-34.7192,6.91729,7.12502,-7.87371,-22.9161,1.04958e-13,-2.10712e-14,7.00352,-3.33781,70.0761,139.114,12.5841,-33.3494,17.2155,7.12502,-6.55155,47.0941,-12.5112,14.5699,5.45523,48.6996,-24.9478,-10.7763,-27.2768,-31.2174,6.30657,-2.06769,67.5095,0.624973,-18.6748,-18.8604
5.30232,17.5,-5.26287,-1.93271,-50.8865,2.61046,8.77852,1.41878,-0.6485,4.24697,1.72073,-2.21972,-0.472747,0.837789,-2.07955,5.04415,5.53194,-7.43776,34.9916,6.65139,1.48693,10.1233,1.89293,2.177,-1.80894e-14,2.38542e-15,11.0017,8.86544,-76.4098,139.471,-23.7984,-34.0029,6.23077,7.12502,-7.18241,-23.6273,-1.80894e-14,2.38542e-15,7.39399,-2.02511,69.7956,138.943,13.7899,-33.5276,18.2707,7.12502,-6.72355,48.1439,-12.7724,14.6841,5.0033,48.1104,-23.3504,-11.2395,-28.3545,-31.4094,6.36692,-1.93203,67.0221,-0.150349,-17.5759,-19.8375
5.38599,17.5919,-5.20263,-1.87635,-51.3756,2.78061,8.84466,1.29854,-0.895175,4.39769,1.53931,-2.19046,-0.366254,0.741807,-1.89416,5.33845,5.86386,-8.04106,35.6631,7.21266,0.952524,10.3335,1.97392,2.12026,4.3832e-14,-3.97569e-15,12.1038,9.1495,-76.2208,138.96,-24.3306,-33.802,5.91076,7.12502,-6.98847,-23.9539,4.3832e-14,-3.97569e-15,7.81867,-0.467859,69.5699,138.799,15.2533,-33.3722,18.7413,7.12502,-6.57349,48.6192,-13.1771,14.7213,4.57239,47.5847,-21.7164,-11.7898,-28.4451,-31.636,6.37613,-1.7217,66.5061,-1.78349,-16.4201,-22.7072
5.47516,17.6769,-5.13755,-1.71681,-51.8004,2.94365,8.86923,1.08165,-1.1665,4.51072,1.22941,-2.14763,-0.277718,0.580918,-1.6691,5.39588,6.24133,-8.87618,36.4053,7.83434,0.570803,10.6023,2.05544,2.16731,1.59028e-15,3.02153e-14,13.4531,9.53372,-76.0196,138.483,-25.0279,-34.3167,5.77832,7.12502,-7.48527,-24.0692,1.59028e-15,3.02153e-14,8.28745,1.19739,69.4027,138.757,17.0097,-32.8919,19.0168,7.12502,-6.1098,48.9087,-13.7105,14.6818,4.13657,47.1673,-20.2715,-12.5612,-27.3819,-31.9997,6.30071,-1.50821,65.9686,-3.43953,-15.0272,-25.0993
5.56288,17.7584,-5.0655,-1.73018,-52.1652,3.26849,8.90797,0.849683,-1.60332,4.64672,0.886403,-2.09669,-0.172553,0.399749,-1.3402,5.38128,6.66405,-9.76446,37.0854,8.5294,0.215918,10.8579,2.16232,2.23555,1.76918e-14,-1.19271e-14,14.8622,9.74829,-75.66,138.118,-25.9579,-34.703,5.30303,7.12502,-7.85812,-24.5309,1.76918e-14,-1.19271e-14,8.76849,2.90749,69.2096,138.764,18.4373,-32.7117,19.2307,7.12502,-5.93585,49.1275,-14.1715,14.4649,3.63647,46.8561,-18.8435,-13.616,-25.769,-32.2702,6.08815,-1.39275,65.3957,-4.43088,-13.2179,-25.3892
5.63897,17.8382,-5.00435,-1.78201,-53.0743,3.68035,8.88355,0.92058,-2.35482,4.7529,0.921201,-2.07701,-0.0599259,0.400864,-0.900358,5.48159,7.03987,-10.4017,37.5529,9.1309,-0.120566,11.019,2.27333,2.2524,4.11484e-14,-1.19271e-14,16.2115,9.53913,-75.2302,138.035,-27.0804,-35.0161,3.37479,7.12502,-8.16027,-26.4476,4.11484e-14,-1.19271e-14,9.44905,4.41304,68.9435,138.727,19.534,-32.8607,19.6127,7.12502,-6.07973,49.5055,-14.9482,14.4421,3.12248,46.6912,-17.3497,-14.903,-23.9675,-32.2424,6.35029,-1.17942,64.7608,-5.03359,-11.1332,-25.0928
5.72342,17.9069,-4.94059,-1.50481,-53.7099,3.66081,8.98719,0.960091,-2.70552,4.83824,0.939557,-2.10181,-0.0327144,0.401304,-0.732144,5.45511,7.26869,-10.7052,38.0316,9.52936,-0.397943,11.2247,2.33902,2.23061,9.83984e-15,1.74931e-14,17.4804,8.96805,-74.9147,138.048,-28.3043,-35.4503,1.70929,7.12502,-8.57937,-28.0964,9.83984e-15,1.74931e-14,10.3762,5.5903,68.6071,138.711,20.5716,-33.1479,20.6093,7.12502,-6.35695,50.4939,-15.6753,14.1736,2.93348,46.6867,-16.4398,-16.2892,-20.4398,-32.3673,6.29971,-0.657609,64.1159,-5.08785,-8.99969,-24.0142
5.81021,17.9613,-4.87328,-1.13835,-54.2584,3.57208,8.95805,1.05229,-2.7977,5.01204,1.0516,-2.32073,0.165879,0.452412,-0.914863,5.06522,7.3029,-10.5528,38.6504,9.72361,-0.674028,11.583,2.35914,2.14415,-4.11484e-14,3.29983e-14,18.7188,8.00813,-74.8768,137.972,-29.705,-35.1905,1.90375,7.12502,-8.32863,-27.9121,-4.11484e-14,3.29983e-14,11.6539,6.33886,68.1846,138.67,21.3709,-33.3604,21.531,7.12502,-6.56216,51.4094,-16.4538,13.7135,2.83086,46.9032,-15.93,-18.1229,-15.2763,-32.5555,6.15953,-0.0919983,63.4353,-4.75112,-6.91374,-21.4269
5.89194,18.0039,-4.80872,-1.0531,-54.8367,3.81511,8.85031,1.38779,-2.82681,5.19284,1.4889,-2.89475,0.427054,0.670193,-1.52583,4.91295,7.0575,-9.57999,38.8753,9.46919,-0.994354,11.7781,2.32298,1.8621,1.05356e-14,2.3059e-14,19.6081,6.32986,-75.1415,138.069,-30.8775,-34.7115,1.75193,7.12502,-7.86635,-28.0817,1.05356e-14,2.3059e-14,13.3356,6.24788,67.6205,138.495,21.9633,-33.7732,22.1411,7.12502,-6.96063,52.0066,-17.3147,12.9078,2.65097,47.3844,-15.1479,-20.6955,-11.6201,-32.6578,5.99312,0.274927,62.7151,-4.46721,-4.92235,-19.6804
5.97134,18.0313,-4.74845,-1.05228,-55.3847,4.1257,8.91132,1.59596,-3.18735,5.22943,1.72411,-3.28133,0.436641,0.781123,-1.74561,5.18991,7.01907,-9.01485,38.4059,9.47067,-1.46658,11.5801,2.38575,1.57208,-2.60408e-14,6.36111e-15,20.4983,5.147,-75.2717,138.279,-31.7748,-35.1626,1.28733,7.12502,-8.30166,-28.5296,-2.60408e-14,6.36111e-15,14.5949,6.58216,67.1283,138.392,22.4738,-34.2579,22.628,7.12502,-7.42853,52.4775,-18.2104,11.9412,2.49419,48.1637,-14.9995,-23.1956,-9.1461,-32.7304,5.78556,0.650387,61.9552,-4.06598,-3.16089,-19.7191
6.04745,18.0453,-4.68644,-1.23712,-55.9295,4.55648,9.02594,1.49623,-4.00744,5.35312,1.52021,-3.30662,0.483281,0.656201,-1.29795,4.63467,7.37583,-10.1278,38.2402,10.0324,-1.2564,11.5341,2.51046,1.88554,6.75868e-15,6.36111e-15,22.0107,5.09996,-75.1555,138.419,-33.0369,-35.9539,1.68426,7.12502,-9.06528,-28.1009,6.75868e-15,6.36111e-15,15.4839,7.97792,66.8252,138.417,22.8969,-34.3166,20.9278,7.12502,-7.48516,50.7753,-19.0409,11.0591,2.26136,49.2759,-16.0013,-24.6193,-6.30928,-32.6258,5.49032,0.997693,61.0777,-3.22873,-1.57078,-18.6036
6.11788,18.0455,-4.62014,-1.61754,-56.4996,5.12115,8.94413,1.85357,-4.20364,5.52729,1.97211,-3.94028,0.725939,0.875719,-1.88046,4.52517,7.1639,-10.0084,37.9619,9.58161,-0.667612,11.4011,2.40945,2.05789,8.66701e-14,-4.21423e-14,22.8175,3.76317,-75.4369,138.716,-34.0835,-36.7476,2.32626,7.12502,-9.83111,-27.4242,8.66701e-14,-4.21423e-14,17.1934,7.80393,66.2594,138.298,23.4058,-34.8934,22.5227,7.12502,-8.04193,52.3497,-19.8213,10.3102,1.95391,50.6933,-16.8234,-24.7074,-4.1954,-32.2797,5.1678,1.29922,60.073,-2.20186,-0.465445,-17.1855
6.18552,18.0316,-4.5549,-2.02534,-56.9749,5.69939,8.82899,2.02904,-4.72363,5.64941,2.16739,-4.30767,0.916295,0.957162,-1.98388,4.78069,7.13421,-9.83641,36.9654,9.55392,-0.961209,10.963,2.46708,1.88904,-1.55052e-14,1.82882e-14,23.773,3.22019,-75.4992,138.934,-34.8908,-37.6762,2.93605,7.12502,-10.727,-26.7701,-1.55052e-14,1.82882e-14,18.313,8.12421,65.9188,138.167,23.4463,-35.4574,22.7741,7.12502,-8.58615,52.5795,-20.6197,9.58304,1.65549,52.3694,-16.9803,-23.764,-3.56933,-31.8717,4.71618,1.62562,58.9249,-1.03207,0.01227,-16.7597
6.25458,18.0066,-4.48616,-2.28017,-57.3574,6.04435,8.91233,1.83258,-5.438,5.59333,1.84465,-4.1734,0.788257,0.777064,-1.42359,4.59809,7.58878,-11.0843,36.4026,10.2446,-0.986135,10.6956,2.65259,2.11269,-6.75868e-15,3.4191e-14,24.9194,3.89213,-75.207,139.097,-35.5308,-38.1423,2.734,7.12502,-11.1765,-26.9483,-6.75868e-15,3.4191e-14,18.3091,9.39934,66.0144,138.143,23.2358,-35.594,22.4451,7.12502,-8.71804,52.2451,-21.328,8.90391,1.52417,54.2063,-16.9925,-22.219,-4.18795,-31.4391,4.02199,2.093,57.6867,0.132585,0.0786767,-16.9476
6.31833,17.9718,-4.40896,-2.84475,-57.6529,6.68249,8.96899,2.20098,-5.3149,5.54514,2.31671,-4.79864,0.732996,1.02185,-2.18575,4.69094,7.35206,-10.7883,36.1771,9.77163,-0.507807,10.574,2.5488,2.20514,2.42517e-14,-2.46493e-14,25.0951,2.88175,-75.4031,139.412,-35.4101,-38.238,2.71693,7.12502,-11.2689,-26.9604,2.42517e-14,-2.46493e-14,19.3061,8.48797,66.0132,138.056,23.3712,-35.645,22.227,7.12502,-8.76726,52.0249,-21.8237,8.31736,1.20982,56.0955,-17.4276,-20.4558,-5.20254,-30.8518,3.07928,2.3296,56.3469,1.03747,-0.143465,-18.1678
6.38058,17.9166,-4.32593,-3.42139,-57.7931,7.30197,8.93505,2.2214,-5.99982,5.47733,2.28697,-4.87336,0.661548,0.991133,-1.88098,4.80888,7.39384,-10.4087,35.484,9.99616,-1.30452,10.3419,2.67041,1.84989,7.51406e-14,0,25.6773,3.51833,-75.3978,139.584,-34.9812,-38.3028,3.38853,7.12502,-11.3314,-26.2854,7.51406e-14,0,19.4545,8.67796,66.2122,138.135,23.2469,-36.1381,21.7347,7.12502,-9.24303,51.5121,-22.1462,7.75477,0.873407,57.9456,-17.8817,-18.6901,-7.19905,-30.2358,1.95195,2.50654,54.9312,1.88755,-0.628015,-20.1828
6.44356,17.844,-4.23482,-3.74678,-57.8251,7.48703,8.99647,2.27681,-5.99659,5.42211,2.34688,-5.01974,0.576277,1.02432,-2.04386,4.92444,7.39778,-10.1133,34.957,10.0857,-1.75127,10.1536,2.74618,1.63346,7.95139e-15,1.59028e-14,25.8833,3.74411,-75.346,139.844,-34.2504,-38.0163,3.31374,7.12502,-11.055,-26.3751,7.95139e-15,1.59028e-14,19.7177,8.62827,66.4833,137.973,22.8857,-36.4763,21.7101,7.12502,-9.56933,51.4728,-22.182,7.25835,0.784663,59.6663,-18.075,-16.8944,-9.89421,-29.519,0.624292,2.87716,53.436,2.77569,-1.32811,-21.8302
6.50086,17.763,-4.13625,-4.25352,-57.8592,7.71013,9.04194,2.39636,-5.72091,5.44449,2.51685,-5.23824,0.594596,1.11677,-2.44144,4.84638,7.39011,-10.1809,34.7764,10.0524,-1.56723,10.0785,2.758,1.70856,-3.93594e-14,2.70347e-14,25.872,3.71853,-75.2195,140.11,-33.3204,-37.7181,3.41058,7.12502,-10.7674,-26.2935,-3.93594e-14,2.70347e-14,19.8954,8.28324,66.9863,137.762,22.3646,-36.0986,22.3431,7.12502,-9.2049,52.1222,-21.8977,6.98494,0.680472,61.1904,-18.2532,-14.873,-11.8771,-28.5623,-0.761086,3.12479,51.8572,3.70522,-2.065,-22.1576
6.55224,17.6715,-4.03238,-4.84104,-57.8208,7.92702,9.05782,2.46321,-5.53198,5.48908,2.61684,-5.38487,0.647831,1.17104,-2.70848,4.8646,7.41991,-10.2767,34.3842,10.0562,-1.42133,9.90448,2.7966,1.76749,-3.37934e-14,1.59028e-15,25.7504,4.048,-75.1231,140.361,-32.3263,-37.7064,4.12861,7.12502,-10.7561,-25.576,-3.37934e-14,1.59028e-15,19.7317,8.03461,67.637,137.599,22.01,-36.1734,23.6795,7.12502,-9.2771,53.4554,-21.3303,6.85511,0.569469,62.4854,-18.5961,-12.3277,-12.3547,-27.4597,-2.20937,3.25751,50.2203,4.66202,-3.09993,-22.1587
6.60043,17.5707,-3.92313,-5.2096,-57.6906,7.93053,9.0149,2.4303,-5.33469,5.4937,2.59403,-5.40916,0.684987,1.16497,-2.8396,4.81133,7.5214,-10.4839,33.9284,10.1548,-1.21308,9.70688,2.87551,1.87117,3.37934e-14,-1.59028e-15,25.5405,4.79023,-75.0463,140.615,-31.2214,-37.7967,4.61681,7.12502,-10.8432,-25.0833,3.37934e-14,-1.59028e-15,19.2792,7.95226,68.3296,137.443,21.6253,-36.7001,23.424,7.12502,-9.78535,53.1766,-20.6261,6.75096,0.559783,63.5426,-18.6024,-9.89845,-13.2543,-26.3841,-3.7735,3.40088,48.5811,5.43863,-4.4053,-23.6196
6.64667,17.4606,-3.80636,-5.30945,-57.5288,7.73882,8.77425,2.44961,-4.94864,5.45571,2.67519,-5.37161,0.792056,1.21654,-3.01211,4.62463,7.54107,-10.5653,33.7146,10.1637,-0.95732,9.63123,2.9155,1.97815,8.5875e-14,-3.81667e-14,25.1007,5.41539,-74.8143,140.863,-30.0503,-37.8572,4.66993,7.12502,-10.9016,-25.0271,8.5875e-14,-3.81667e-14,18.7022,7.46001,69.2108,137.324,20.967,-37.1199,21.9858,7.12502,-10.1903,51.719,-19.8853,6.67766,0.671563,64.359,-18.1079,-8.02032,-16.1802,-25.4466,-5.4239,3.55489,47.1012,6.04516,-5.19684,-25.3028
6.69206,17.3312,-3.68156,-5.30234,-57.3921,7.44826,8.4354,2.27584,-4.7539,5.45937,2.50247,-5.03956,0.969645,1.13268,-2.7451,3.92703,7.74299,-11.1011,33.6003,10.6039,-0.984681,9.6729,3.05776,2.10421,-1.19271e-15,3.02153e-14,24.9961,6.56438,-74.3031,141.065,-29.2227,-37.7632,4.57696,7.12502,-10.8109,-25.1248,-1.19271e-15,3.02153e-14,17.7236,7.61031,70.2613,137.324,20.2124,-37.844,21.5548,7.12502,-10.8888,51.2525,-19.0837,6.71812,0.846863,64.9449,-17.4658,-6.24467,-18.8966,-24.5543,-6.94514,3.67231,46.094,3.2875,-5.544,-36.0012
6.73871,17.1802,-3.55276,-5.51078,-57.3526,7.31376,8.25828,2.33296,-4.37558,5.32655,2.62075,-4.91267,0.938736,1.20478,-2.8271,3.61253,7.7396,-11.0952,33.4253,10.6356,-0.839136,9.64552,3.10488,2.1671,-3.37934e-14,6.36111e-14,24.3525,7.13356,-73.9864,141.319,-28.5781,-37.4328,4.67515,7.12502,-10.4921,-25.043,-3.37934e-14,6.36111e-14,16.8163,7.13613,71.1842,137.205,19.8053,-38.471,23.1255,7.12502,-11.4935,52.7904,-18.1309,6.94051,0.92687,65.3052,-17.2765,-4.69656,-21.7102,-23.5092,-7.94319,3.58356,45.7703,-1.52764,-6.21496,-41.1493
6.78609,17.0282,-3.42689,-5.52741,-57.3822,7.04713,8.05199,2.45572,-3.82273,5.05855,2.83427,-4.81382,0.796127,1.33165,-3.04389,3.46713,7.67724,-11.032,33.2045,10.4743,-0.389997,9.55595,3.10699,2.30726,-5.32743e-14,-5.56597e-14,23.4344,7.64124,-73.8204,141.512,-27.9136,-37.3172,4.86862,7.12502,-10.3807,-24.8551,-5.32743e-14,-5.56597e-14,15.8034,6.50904,72.0717,137.105,20.7025,-38.4066,21.3424,7.12502,-11.4314,51.0108,-17.1576,7.27692,1.16668,65.4413,-18.2756,-3.85997,-26.4557,-22.6838,-8.21136,3.44185,46.1114,-4.05103,-5.78121,-33.906
6.82876,16.889,-3.30142,-5.6065,-57.3659,6.97833,7.61481,2.51032,-3.2918,4.83692,2.97197,-4.78177,0.833723,1.41803,-3.30102,3.25207,7.6458,-10.9224,32.7767,10.3677,0.0273615,9.40246,3.15163,2.42816,-1.88845e-14,-2.06736e-14,22.6402,8.25849,-73.742,141.64,-27.0595,-37.2207,5.31507,7.12502,-10.2875,-24.4133,-1.88845e-14,-2.06736e-14,14.8973,6.17887,72.8761,136.955,22.8159,-38.0056,15.9863,7.12502,-11.0447,45.6758,-16.1495,7.47706,1.33495,65.4181,-20.4509,-3.52522,-32.4004,-22.3162,-8.00375,3.0225,46.8927,-7.17551,-4.77652,-40.9296
6.86706,16.7541,-3.17466,-5.97757,-57.3392,7.14113,7.23708,2.56109,-2.9306,4.64719,3.08617,-4.74423,0.865043,1.48714,-3.45733,3.16572,7.61742,-10.6634,32.1132,10.2842,0.227729,9.16293,3.21932,2.43791,-5.58585e-14,5.00937e-14,21.819,8.95022,-73.6896,141.789,-26.1928,-37.0232,5.78596,7.12502,-10.097,-23.9518,-5.58585e-14,5.00937e-14,13.9152,4.62964,73.2811,137.191,20.6384,-38.293,21.1839,7.12502,-11.3219,50.8583,-15.0585,7.67769,1.36032,65.354,-22.9846,-7.04393,-31.8388,-22.1169,-7.53346,2.37265,47.8355,-10.5489,-5.32776,-38.0713
6.90428,16.625,-3.05738,-6.71423,-57.2816,7.66213,7.16984,2.6305,-3.03126,4.31406,3.17016,-4.58935,0.544476,1.53039,-3.24943,3.31605,7.63888,-10.4491,31.3582,10.2533,0.328784,8.85719,3.30189,2.40843,6.38099e-14,-2.94201e-14,20.7266,9.92053,-73.6288,141.961,-25.3873,-36.8494,6.1722,7.12502,-9.92934,-23.5736,6.38099e-14,-2.94201e-14,12.7905,3.52835,73.832,137.316,19.5116,-38.678,24.1495,7.12502,-11.6932,53.8031,-14.0177,8.03729,1.17191,65.3275,-24.7052,-11.16,-29.518,-22.0315,-6.76703,1.51406,48.8354,-13.1199,-5.95668,-36.2667
6.9424,16.5064,-2.95807,-7.904,-57.1133,8.75021,7.1699,2.73033,-3.50904,4.06103,3.26686,-4.4574,0.251102,1.57244,-2.85874,3.32659,7.66299,-10.5635,30.4989,10.2023,0.69621,8.51015,3.37183,2.52249,-1.68967e-14,2.78299e-14,19.6747,10.9569,-73.5607,142.115,-24.2759,-36.7536,6.65574,7.12502,-9.83696,-23.0945,-1.68967e-14,2.78299e-14,11.9293,2.76621,74.5424,137.342,19.0651,-38.8644,23.4369,7.12502,-11.8729,53.0803,-13.1576,8.5137,0.626789,65.4325,-26.5326,-12.6781,-30.7603,-22.1312,-5.92381,0.346112,49.9213,-15.0765,-5.65665,-34.5462
6.98422,16.3922,-2.88049,-9.24697,-56.7759,10.1343,7.05314,2.86333,-4.13732,3.97473,3.41002,-4.41301,0.191701,1.6339,-2.46969,3.083,7.59942,-10.805,29.6445,10.0508,1.21764,8.20267,3.39448,2.71446,8.54774e-15,-2.46493e-14,18.7807,11.7341,-73.5228,142.247,-23.1131,-36.8051,7.33541,7.12502,-9.88665,-22.4125,8.54774e-15,-2.46493e-14,11.622,2.00234,75.382,137.155,18.4912,-38.2889,22.2052,7.12502,-11.3179,51.8798,-12.6631,8.96201,-0.158235,65.8007,-28.5038,-13.4012,-34.6693,-22.5812,-5.14781,-0.914952,51.1703,-16.4826,-5.52209,-33.2385
7.03126,16.2834,-2.82166,-10.5731,-56.2756,11.4991,7.07197,2.96838,-4.79221,3.95138,3.50372,-4.45349,0.123957,1.66994,-2.15725,2.89418,7.47221,-10.7685,28.571,9.84351,1.51263,7.84591,3.41065,2.77418,1.72943e-14,4.77083e-15,17.9041,12.2899,-73.6811,142.313,-22.0061,-36.8597,8.01662,7.12502,-9.93933,-21.7287,1.72943e-14,4.77083e-15,11.4451,1.28567,76.0132,137.104,17.7188,-37.7261,21.8347,7.12502,-10.7751,51.5383,-12.4597,9.43223,-0.971652,66.4737,-29.8222,-14.2184,-34.1817,-23.2546,-4.66224,-2.08814,52.5131,-17.5817,-6.21256,-31.8386
7.0784,16.1847,-2.77252,-11.7896,-55.8027,12.6239,7.29087,3.02831,-5.32324,3.98365,3.52678,-4.54582,0.0128496,1.67257,-1.97239,2.59984,7.36678,-10.456,27.3567,9.70035,1.6746,7.48197,3.47602,2.748,1.00784e-13,-2.38542e-15,17.1249,12.7791,-74.1175,142.336,-21.1183,-36.6632,8.29487,7.12502,-9.74974,-21.4594,1.00784e-13,-2.38542e-15,11.2242,0.710788,76.2855,137.093,16.4218,-37.9742,21.1089,7.12502,-11.0144,50.7999,-12.4307,10.0613,-1.67198,67.3909,-30.061,-15.5578,-32.8549,-23.8663,-4.46807,-3.04588,53.842,-18.3574,-6.94773,-30.6559
7.12456,16.0958,-2.72435,-13.1038,-55.4253,13.6069,7.68937,3.12727,-5.63819,4.10823,3.59999,-4.65429,-0.0884025,1.70217,-1.9357,2.02906,7.26097,-10.1204,26.4178,9.57809,1.9536,7.25684,3.54121,2.77734,2.9122e-14,-3.02153e-14,16.3477,13.0832,-74.5831,142.384,-20.416,-36.3331,8.17098,7.12502,-9.43119,-21.598,2.9122e-14,-3.02153e-14,10.9704,0.0591531,76.4193,137.068,14.8238,-38.828,21.0929,7.12502,-11.8378,50.7383,-12.3189,10.8232,-2.34576,68.4175,-29.8732,-16.4893,-31.2281,-24.1618,-4.44246,-3.86021,55.0851,-18.8788,-7.39072,-29.9419
7.17203,16.0198,-2.67462,-14.1768,-55.1413,14.1589,8.14209,3.2157,-5.57031,4.28824,3.68631,-4.65982,-0.146598,1.74345,-2.00684,1.85649,7.28404,-9.8877,25.039,9.60862,2.03983,6.82433,3.67377,2.73224,2.9122e-14,4.57205e-14,15.6679,13.5138,-74.9305,142.249,-19.6162,-36.3269,8.12173,7.12502,-9.42523,-21.6475,2.9122e-14,4.57205e-14,10.7816,-0.272929,76.5579,136.996,13.5004,-39.2744,21.6873,7.12502,-12.2682,51.3074,-12.1549,11.5127,-2.80795,69.4309,-29.737,-16.5492,-30.2911,-24.2554,-4.58945,-4.34386,56.2096,-19.2193,-7.97972,-29.4734
7.22075,15.9599,-2.62791,-14.5281,-54.9851,13.9667,8.50804,3.18026,-5.01592,4.42658,3.6616,-4.44957,-0.185938,1.73877,-2.1094,2.43976,7.72339,-10.1699,22.7862,10.0952,2.15879,5.94401,4.02717,2.72364,-4.26393e-14,6.2816e-14,15.172,14.2875,-75.1987,141.986,-19.1045,-36.3856,8.23315,7.12502,-9.48186,-21.5335,-4.26393e-14,6.2816e-14,10.5411,-0.00385458,76.7395,136.812,12.5793,-39.1585,21.2757,7.12502,-12.1565,50.9024,-12.1806,11.9188,-2.83216,70.3663,-29.4127,-16.332,-30.4022,-24.4117,-4.7903,-4.28626,57.1899,-19.4735,-9.00369,-28.8558
7.26657,15.9153,-2.58717,-14.2896,-54.928,13.2159,8.79905,3.16632,-4.07261,4.46592,3.7068,-4.15383,-0.269092,1.77821,-2.34443,2.66214,7.88345,-10.7322,21.2924,10.2016,2.67931,5.36478,4.16021,2.91118,5.35228e-14,6.75868e-15,14.5388,14.8702,-75.4371,141.706,-18.7582,-36.3396,8.53722,7.12502,-9.4375,-21.2315,5.35228e-14,6.75868e-15,10.1986,-0.0900106,76.8944,136.701,12.2138,-38.5973,20.8206,7.12502,-11.6153,50.4787,-12.3978,11.9027,-2.54678,71.1812,-28.7247,-16.3237,-30.8441,-24.5945,-4.95895,-3.84372,57.9688,-19.6889,-9.89992,-28.5689
7.30594,15.8874,-2.54871,-13.9648,-54.9247,12.3622,8.97916,3.24939,-3.16703,4.52514,3.89226,-3.80745,-0.271526,1.88561,-2.51348,2.82191,7.90659,-10.6319,20.0238,10.2058,2.70389,4.94084,4.24431,2.85239,-1.03418e-13,4.13472e-14,13.8641,15.2815,-75.6045,141.295,-18.2342,-36.3139,8.75262,7.12502,-9.41266,-21.0172,-1.03418e-13,4.13472e-14,9.86626,-0.596916,77.0482,136.663,12.2625,-38.0506,20.9928,7.12502,-11.0881,50.6799,-12.5977,11.4505,-2.28402,71.8159,-28.0461,-16.3412,-31.0666,-24.5705,-5.17776,-3.38349,58.4805,-19.9532,-10.2099,-29.0544
7.33653,15.8752,-2.51495,-14.0617,-54.8979,12.0433,8.93737,3.33394,-2.69937,4.66315,4.05831,-3.4991,-0.0936549,1.97425,-2.46138,2.85483,7.92542,-10.3412,18.8931,10.2437,2.57025,4.60105,4.33751,2.728,6.0033e-14,-1.55052e-14,13.418,15.9293,-75.9131,140.725,-17.5839,-36.1531,8.54841,7.12502,-9.25758,-21.2283,6.0033e-14,-1.55052e-14,9.65924,-0.889186,77.1762,136.541,12.3508,-37.8143,20.9514,7.12502,-10.8601,50.6506,-12.7641,10.6955,-2.46241,72.2643,-27.5064,-16.0518,-30.1799,-24.3151,-5.31833,-3.34689,58.6794,-20.2709,-10.278,-29.1838
7.36059,15.8766,-2.49147,-14.6474,-54.7535,12.3347,8.93774,3.38546,-2.70273,4.73951,4.13464,-3.25378,-0.0319891,2.01007,-2.20994,3.04933,8.00774,-10.3998,17.8852,10.31,2.6997,4.24252,4.42681,2.73335,-8.80865e-14,1.05356e-14,13.0535,16.7799,-76.2706,140.027,-16.9985,-36.1057,8.57715,7.12502,-9.21182,-21.2016,-8.80865e-14,1.05356e-14,9.46267,-0.813505,77.3181,136.286,12.4897,-37.0975,19.9035,7.12502,-10.1687,49.6378,-12.849,9.6634,-3.09927,72.5306,-27.0196,-15.3429,-27.3776,-23.9071,-5.44364,-3.79263,58.5726,-20.5528,-10.2255,-28.6672
7.37983,15.8928,-2.48012,-15.1498,-54.4957,12.5072,9.26104,3.42686,-2.75394,4.61499,4.17061,-3.02198,-0.359168,2.02778,-1.97068,3.41437,8.06697,-10.3238,17.2484,10.3224,2.84485,3.98109,4.47741,2.72721,-1.56698e-14,5.7896e-15,12.288,17.3566,-76.6222,139.425,-16.447,-36.2816,8.96274,7.12502,-9.38154,-20.8085,-1.56698e-14,5.7896e-15,9.05894,-0.942159,77.3762,136.06,12.5995,-36.1636,19.052,7.12502,-9.2677,48.8283,-12.7313,8.36457,-3.6693,72.5937,-26.5844,-14.4974,-24.8939,-23.4075,-5.65585,-4.22721,58.2007,-20.7853,-9.83569,-28.3318
7.39251,15.9244,-2.47805,-15.5748,-54.2316,12.6257,9.36512,3.54609,-2.61602,4.64361,4.33775,-2.96239,-0.378668,2.11347,-2.00737,3.41101,7.97178,-9.82417,16.891,10.1794,3.02163,3.88971,4.46665,2.69266,-1.57568e-14,-8.98258e-15,11.4659,17.2466,-76.8955,138.993,-15.5738,-36.9157,9.42082,7.12502,-9.99329,-20.3219,-1.57568e-14,-8.98258e-15,9.1352,-1.70288,77.0783,135.881,12.761,-36.322,19.7788,7.12502,-9.42048,49.5483,-12.4907,7.00798,-4.20464,72.4769,-26.2826,-13.5758,-25.5125,-22.8181,-5.75321,-4.62443,57.5945,-20.8195,-9.39387,-27.528
7.39719,15.974,-2.48551,-16.3927,-54.0148,13.2132,9.50087,3.73707,-2.9178,4.6619,4.55924,-2.90111,-0.458142,2.21854,-1.80749,3.33271,7.87636,-9.48686,16.6661,10.0302,3.33308,3.8361,4.443,2.73062,-6.03001e-14,6.85807e-15,10.5689,17.0312,-76.9734,138.733,-14.8291,-37.6339,9.55219,7.12502,-10.6862,-20.156,-6.03001e-14,6.85807e-15,9.24579,-2.43765,76.7845,135.781,12.6068,-36.2839,20.0563,7.12502,-9.38373,49.8274,-12.1226,5.83728,-5.01222,72.1573,-26.0693,-12.4557,-24.9668,-22.0302,-5.77652,-5.30609,56.7738,-20.7669,-8.93591,-27.0443
7.39766,16.0386,-2.50151,-16.7484,-53.9464,13.4563,9.57028,3.87515,-3.13899,4.54653,4.72241,-2.70196,-0.648864,2.29773,-1.50635,3.32757,7.85675,-9.38431,16.5463,9.96493,3.70599,3.78457,4.44364,2.82276,1.00411e-13,-4.11484e-14,9.73259,16.9915,-77.1151,138.554,-14.8626,-37.6482,9.30196,7.12502,-10.6999,-20.4056,1.00411e-13,-4.11484e-14,9.13766,-2.91403,76.6093,135.806,12.1082,-35.2015,18.5808,7.12502,-8.33928,48.3962,-11.8665,4.82916,-5.47477,71.644,-25.6839,-11.8281,-25.5839,-21.3272,-5.91977,-5.67261,55.7768,-20.6283,-8.29439,-27.7183
7.39696,16.1186,-2.52332,-16.827,-53.9921,13.492,9.53635,3.91832,-3.18156,4.42217,4.78088,-2.53631,-0.777314,2.32813,-1.32124,3.24087,7.89049,-9.13935,16.4697,9.99392,3.95558,3.76777,4.49043,2.86111,1.39348e-13,-2.50469e-14,9.09353,17.2295,-77.5197,138.383,-15.1845,-37.623,8.97296,7.12502,-10.6757,-20.7358,1.39348e-13,-2.50469e-14,9.08206,-3.26778,76.1772,135.955,11.4239,-34.5132,17.7261,7.12502,-7.67494,47.5668,-11.617,3.98783,-5.68119,70.8885,-25.1732,-11.55,-25.6459,-20.6678,-6.25213,-5.8223,54.6361,-20.3205,-7.39425,-28.6965
7.39308,16.2155,-2.54999,-16.6968,-54.2912,13.3121,9.40395,4.00029,-2.92629,4.36339,4.92244,-2.42625,-0.755287,2.40321,-1.35609,3.15427,7.90805,-8.87972,16.2825,9.99372,4.26762,3.71579,4.53015,2.912,-8.03587e-14,9.93923e-15,8.57626,17.4205,-78.0033,138.254,-15.2812,-37.8931,8.56424,7.12502,-10.9361,-21.1309,-8.03587e-14,9.93923e-15,9.24606,-3.75022,75.5307,136.254,10.7345,-34.6916,18.2815,7.12502,-7.84709,48.1159,-11.3558,3.55103,-5.54187,69.8832,-24.6538,-11.2605,-25.3695,-19.9283,-6.59333,-5.71186,53.3983,-19.7401,-6.71236,-28.4089
7.38779,16.3217,-2.58446,-16.0761,-54.8222,12.6832,9.19416,4.11118,-2.38255,4.2717,5.1318,-2.25228,-0.705342,2.51643,-1.48591,3.14768,7.92991,-8.6565,15.6598,10.0316,4.37048,3.94733,4.56397,3.15692,4.84041e-14,-7.95139e-15,8.07878,17.5667,-78.4042,138.254,-15.522,-37.8922,8.23342,7.12502,-10.9353,-21.4618,4.84041e-14,-7.95139e-15,9.48661,-3.62141,75.0011,136.269,9.25201,-34.0259,17.3993,7.12502,-7.20456,47.2566,-11.1698,3.49566,-4.93614,68.6403,-24.1964,-10.9358,-25.9561,-19.2819,-6.89779,-5.18519,52.0996,-18.8363,-6.34419,-27.8573
7.3834,16.4392,-2.62593,-14.985,-55.3897,11.649,8.98951,4.15153,-1.61079,4.10783,5.26393,-2.06254,-0.712332,2.59456,-1.72038,2.9696,7.97418,-8.38213,15.5722,10.081,4.64201,3.94161,4.62162,3.20836,8.93786e-14,1.78906e-15,7.6153,17.7122,-78.8568,138.338,-15.8844,-37.5467,7.73511,7.12502,-10.6021,-21.9775,8.93786e-14,1.78906e-15,9.58779,-3.81108,74.2764,136.679,8.2407,-34.3849,18.3363,7.12502,-7.55106,48.1815,-10.9599,3.64059,-3.99883,67.1614,-23.7344,-10.6067,-27.2372,-18.787,-7.31886,-4.39019,50.7535,-17.8533,-5.59902,-28.815
7.37892,16.5676,-2.67403,-14.1768,-55.9025,11.0435,8.80797,4.20075,-1.13845,3.95189,5.37697,-1.97258,-0.738333,2.65843,-1.89156,2.6963,7.99731,-8.1262,15.8304,10.0688,5.12306,3.62602,4.67447,3.05621,-4.72114e-15,-1.39149e-14,7.10398,17.902,-79.3938,138.467,-16.1649,-37.5291,8.00443,7.12502,-10.585,-21.709,-4.72114e-15,-1.39149e-14,9.8025,-4.01496,73.4613,137.137,7.5992,-34.7646,20.1627,7.12502,-7.91757,49.9945,-10.678,4.05333,-3.33458,65.4644,-23.3802,-10.0547,-27.9122,-18.3294,-7.91627,-3.90063,49.3501,-16.8351,-4.44923,-29.7125
7.37336,16.7019,-2.72736,-13.5419,-56.4154,10.7491,8.58513,4.29323,-0.879097,3.83681,5.52959,-1.89433,-0.71524,2.73885,-1.9551,2.30465,7.98049,-8.00818,15.7302,10.0622,5.34102,3.65033,4.69691,3.11727,1.77863e-13,-3.77691e-14,6.55984,18.1413,-79.7452,138.682,-16.284,-37.6462,8.3951,7.12502,-10.698,-21.3125,1.77863e-13,-3.77691e-14,10.154,-4.08948,72.865,137.555,6.99549,-34.4029,20.9419,7.12502,-7.56851,50.7865,-10.4035,4.67635,-2.82662,63.574,-22.9321,-9.67948,-28.5744,-17.928,-8.61744,-3.61315,47.889,-15.7575,-3.16633,-30.5307
7.36695,16.8442,-2.78573,-12.5677,-56.9832,10.2077,8.3496,4.41342,-0.402195,3.67174,5.73567,-1.80929,-0.713502,2.84859,-2.13632,1.72349,7.89683,-7.95762,15.7826,9.98045,5.56364,3.75315,4.67744,3.20405,-5.46906e-14,1.82882e-14,6.10496,18.218,-79.909,138.945,-16.1365,-37.3129,7.72928,7.12502,-10.3765,-21.9947,-5.46906e-14,1.82882e-14,10.4747,-4.27873,72.392,138.108,6.42989,-35.0272,20.2281,7.12502,-8.17104,50.0501,-10.1971,5.44319,-2.1256,61.5251,-22.3514,-9.4615,-29.3085,-17.6547,-9.41881,-3.16354,46.3807,-14.5147,-1.80867,-30.7139
7.35924,16.9923,-2.8493,-11.3155,-57.6161,9.47274,8.15502,4.514,0.115342,3.32332,5.91728,-1.7306,-0.916876,2.94451,-2.3565,1.52294,7.84428,-7.73744,15.7497,9.91614,5.64004,3.7851,4.66561,3.20071,-6.17226e-14,1.37161e-14,5.50269,18.3595,-80.1052,139.216,-16.0146,-37.1394,7.41457,7.12502,-10.2091,-22.3177,-6.17226e-14,1.37161e-14,10.55,-4.30341,71.8678,138.683,6.11346,-36.0822,18.7936,7.12502,-9.18912,48.5734,-10.0603,6.40771,-1.3179,59.3794,-21.7799,-9.03519,-28.9631,-17.4644,-10.2876,-2.59672,44.8483,-13.2355,-0.198712,-30.2915
7.35265,17.1321,-2.91264,-10.6083,-58.2205,9.34864,7.96679,4.57411,0.245435,2.96563,6.01225,-1.74033,-1.16476,2.99174,-2.44834,1.56099,7.86099,-7.44642,15.5807,9.94058,5.56498,3.74453,4.69337,3.12596,-1.66482e-14,1.27222e-14,4.90539,18.6776,-80.2994,139.485,-16.0021,-37.2464,7.84878,7.12502,-10.3123,-21.8784,-1.66482e-14,1.27222e-14,10.461,-4.06443,71.2741,139.292,6.12372,-35.7555,17.8147,7.12502,-8.87382,47.6081,-9.87766,7.47511,-0.934073,57.2309,-21.2914,-8.6709,-28.4605,-17.1894,-11.1355,-2.44346,43.3363,-12.0676,1.51023,-29.1814
7.34701,17.2627,-2.97716,-10.2134,-58.8408,9.59075,7.70357,4.60631,0.164092,2.69085,6.05348,-1.76803,-1.30742,3.01137,-2.42679,1.3196,7.94145,-7.17697,15.5762,10.0794,5.4307,3.79515,4.77266,3.05616,1.56642e-13,-3.26007e-14,4.53631,19.074,-80.5104,139.667,-15.4582,-36.417,7.30147,7.12502,-9.5122,-22.4638,1.56642e-13,-3.26007e-14,10.3921,-3.94928,70.6203,140.158,6.2957,-34.6795,19.2912,7.12502,-7.83548,49.126,-9.73044,8.68521,-0.785089,55.1433,-21.0292,-8.02428,-27.8508,-16.9048,-11.7482,-2.52869,41.8919,-11.062,3.11065,-27.3972
7.34463,17.3859,-3.04691,-9.09855,-59.4608,9.09945,7.35069,4.50092,0.354665,2.50281,5.9356,-1.67511,-1.3025,2.95395,-2.40555,0.607999,8.08679,-6.89568,15.693,10.3508,5.22081,3.95759,4.91611,2.99021,2.99668e-14,-2.38542e-15,4.47178,19.7474,-80.7568,139.882,-14.9505,-35.576,6.94496,7.12502,-8.70065,-22.8557,2.99668e-14,-2.38542e-15,10.5076,-3.64436,69.8103,141.138,6.51045,-33.7343,23.5825,7.12502,-6.92307,53.4493,-9.74135,9.93348,-0.229493,53.1507,-20.9522,-7.1989,-26.7844,-16.8149,-12.0813,-2.18014,40.581,-10.1579,4.5037,-25.1274
7.3447,17.4985,-3.11761,-7.98098,-60.0325,8.60558,6.9688,4.28639,0.548583,2.43214,5.66992,-1.60449,-1.1642,2.82391,-2.39053,-0.503356,8.26366,-6.68156,15.8692,10.704,4.95362,4.2013,5.09406,2.94278,-6.72389e-14,-2.18663e-14,4.87864,20.4992,-80.8615,140.249,-15.725,-35.5557,7.92329,7.12502,-8.68104,-21.8782,-6.72389e-14,-2.18663e-14,10.7835,-2.73788,68.9825,141.882,6.68588,-34.4489,12.7224,7.12502,-7.61288,42.5654,-9.83004,10.9702,0.272952,51.2944,-20.6619,-7.10696,-26.7128,-16.7912,-12.4042,-1.91477,39.4842,-9.49127,5.72947,-22.0883
7.34558,17.5988,-3.1858,-6.95275,-60.6141,8.16496,6.62447,4.13405,0.800426,2.36318,5.48832,-1.54395,-1.03513,2.73605,-2.42926,-1.49904,8.37328,-6.33597,15.9568,10.9734,4.49611,4.42587,5.22536,2.81245,-1.30154e-13,9.93923e-15,5.46748,20.8312,-80.6457,140.587,-16.6162,-34.8741,7.81969,7.12502,-8.02321,-22.008,-1.30154e-13,9.93923e-15,11.0408,-1.8132,68.3013,142.467,6.79201,-34.2511,16.2236,7.12502,-7.42196,46.0734,-9.88537,11.9348,0.708854,49.6192,-20.5749,-7.2465,-26.6685,-16.819,-12.6085,-1.76543,38.7004,-9.37047,6.45861,-19.1087
7.35065,17.6852,-3.25039,-5.94148,-61.1486,7.75963,6.31967,4.06594,1.03103,2.25733,5.41645,-1.44121,-0.967407,2.70202,-2.42688,-2.3981,8.39927,-5.98307,16.0339,11.1256,3.98413,4.64378,5.29274,2.65945,-1.00585e-13,8.74653e-15,5.91372,20.9865,-80.0784,140.872,-16.8635,-34.1825,7.54371,7.12502,-7.35572,-22.3084,-1.00585e-13,8.74653e-15,11.3755,-0.826122,67.7243,143.036,7.70789,-34.0638,14.4148,7.12502,-7.24111,44.2709,-9.99082,12.7184,1.04796,48.2462,-20.8498,-7.04733,-26.2889,-17.0143,-12.4857,-1.71124,38.2889,-9.74905,6.42934,-18.0869
7.3624,17.7565,-3.31648,-4.8592,-61.607,7.20364,6.17167,3.97033,1.28332,2.1334,5.30942,-1.25536,-1.01304,2.64835,-2.36351,-3.25433,8.45461,-5.88972,16.1147,11.3051,3.66054,4.82951,5.36785,2.60165,-3.52843e-15,1.23246e-14,6.34044,21.2173,-79.3415,141.162,-16.9951,-34.3459,8.76481,7.12502,-7.51345,-21.0818,-3.52843e-15,1.23246e-14,11.6585,0.0139849,67.1558,143.59,8.54874,-34.2475,13.3969,7.12502,-7.41846,43.2468,-10.1353,13.223,1.4683,47.2885,-21.1989,-7.03314,-26.5193,-17.3414,-12.0761,-1.67264,38.3353,-10.2246,5.68777,-18.4578
7.37969,17.8091,-3.39277,-3.90418,-61.9698,6.6741,6.1389,3.82546,1.45119,2.04648,5.13096,-1.07159,-1.09536,2.55781,-2.25891,-3.93098,8.55337,-5.71891,15.9847,11.5239,3.32984,4.92442,5.4696,2.51554,2.09718e-14,7.95139e-15,6.87438,21.4699,-78.655,141.466,-17.0102,-34.598,9.13299,7.12502,-7.75676,-20.7047,2.09718e-14,7.95139e-15,11.8581,0.263632,66.4966,144.217,7.8941,-34.2612,15.0604,7.12502,-7.43167,44.9099,-10.3218,13.4782,1.9198,46.8198,-21.472,-7.56935,-26.5949,-17.7826,-11.2859,-1.74673,38.8689,-10.5922,4.54168,-19.0323
7.3987,17.8415,-3.47394,-3.06329,-62.2838,6.16046,6.07604,3.66562,1.64842,2.04391,4.9316,-0.946687,-1.06714,2.4587,-2.2233,-4.48717,8.66965,-5.36617,15.6822,11.7439,2.95213,4.96041,5.58259,2.37694,-9.97402e-14,1.59028e-14,7.48251,21.695,-78.0755,141.765,-17.0068,-34.4747,8.32107,7.12502,-7.63775,-21.521,-9.97402e-14,1.59028e-14,12.1844,0.379205,65.8743,144.748,7.20861,-33.8853,16.5322,7.12502,-7.06881,46.3942,-10.5404,13.583,2.40131,46.8372,-21.7598,-8.56715,-25.4642,-18.2622,-10.0361,-1.96033,39.8911,-10.9141,3.48573,-20.1904
7.41591,17.8647,-3.55297,-2.75199,-62.5901,5.99277,6.15891,3.54039,1.68362,2.11566,4.76793,-0.837924,-1.05381,2.37669,-2.12431,-4.96204,8.74136,-5.05756,15.3302,11.8959,2.58526,4.96805,5.66074,2.2406,9.70069e-14,-1.11319e-14,8.11796,21.8054,-77.4464,141.944,-16.9037,-34.3625,8.06345,7.12502,-7.52951,-21.7825,9.70069e-14,-1.11319e-14,12.577,0.428282,65.4224,145.057,7.02942,-34.0027,17.037,7.12502,-7.18219,46.8951,-10.601,13.6157,2.76471,47.2301,-21.9006,-9.63712,-23.3644,-18.5959,-8.77401,-2.47893,41.3395,-11.3924,2.95728,-20.1949
7.43654,17.8799,-3.63261,-2.53962,-62.8211,5.83921,6.27613,3.43384,1.74602,2.25284,4.63038,-0.686115,-0.99187,2.30832,-1.9973,-5.34037,8.76361,-4.96789,14.8658,11.9845,2.27303,4.91114,5.7026,2.14169,-9.78021e-14,8.74653e-15,8.76443,21.7891,-76.6527,141.978,-16.738,-34.2911,8.18086,7.12502,-7.46059,-21.6676,-9.78021e-14,8.74653e-15,12.9302,0.165654,65.1625,145.276,6.68967,-34.661,18.5984,7.12502,-7.81759,48.4339,-10.6137,13.53,3.18231,47.8641,-21.5369,-10.6849,-22.4824,-18.9724,-7.77444,-3.04403,43.1061,-11.7007,2.97628,-17.9583
7.46036,17.8832,-3.71367,-1.95751,-62.9353,5.2605,6.3136,3.29606,2.11876,2.44626,4.46713,-0.538635,-0.803876,2.23053,-2.03718,-5.67039,8.76521,-4.91526,14.3432,12.0333,2.02796,4.8229,5.7292,2.06208,-3.27001e-14,1.15295e-14,9.3903,21.603,-75.8937,142.023,-16.8728,-33.9334,7.88041,7.12502,-7.1153,-21.98,-3.27001e-14,1.15295e-14,13.3197,-0.21083,64.9045,145.559,6.51098,-34.8574,20.4095,7.12502,-8.00713,50.2378,-10.556,13.3587,3.85845,48.5672,-20.7526,-11.7278,-22.2737,-19.433,-6.76865,-3.41451,45.0526,-11.6839,3.17335,-16.1499
7.48063,17.8774,-3.79698,-1.58904,-62.9662,4.8034,6.56733,3.13907,2.34754,2.52296,4.27582,-0.410931,-0.867765,2.13407,-2.03475,-5.88852,8.76832,-4.67406,14.0427,12.0506,1.82825,4.79365,5.74591,1.96911,-3.34952e-14,3.97569e-15,9.6637,21.4463,-75.3654,142.066,-16.7984,-33.3139,7.20928,7.12502,-6.51721,-22.6704,-3.34952e-14,3.97569e-15,13.4768,-0.511281,64.6825,145.391,6.41413,-35.0766,19.0903,7.12502,-8.21874,48.9105,-10.2842,13.1653,4.51763,49.1969,-19.5868,-12.6627,-21.3626,-19.7843,-5.70346,-3.85624,47.0168,-11.4296,3.11848,-15.9468
7.49344,17.8615,-3.87561,-1.58126,-62.9967,4.64269,6.97835,2.99784,2.27749,2.48523,4.09487,-0.231971,-1.162,2.03702,-1.82733,-6.03907,8.78648,-4.50142,13.9918,12.0742,1.76649,4.81663,5.7637,1.93276,4.90004e-14,-2.78299e-15,9.59125,21.4665,-74.8763,142.01,-16.2949,-32.9144,6.82235,7.12502,-6.13158,-23.0689,4.90004e-14,-2.78299e-15,13.131,-1.40891,64.6113,145.572,5.9059,-35.4158,19.4025,7.12502,-8.54601,49.2096,-9.81308,13.0582,5.04403,49.6298,-17.8834,-12.8954,-19.3303,-19.9408,-4.6347,-4.49375,48.8886,-10.9692,2.67206,-18.1141
7.49985,17.8315,-3.94868,-1.9629,-63.0502,4.82505,7.36518,2.89218,1.96181,2.46407,3.94362,-0.029891,-1.44137,1.95497,-1.45733,-6.13243,8.81154,-4.38193,14.021,12.1098,1.70458,4.85143,5.78229,1.9046,5.91384e-14,4.77083e-15,9.37283,21.5642,-74.3937,141.783,-15.4952,-32.983,6.93752,7.12502,-6.19779,-22.9518,5.91384e-14,4.77083e-15,12.1688,-4.34835,64.5929,146.258,1.65377,-36.7465,27.5062,7.12502,-9.83007,57.2568,-9.10994,13.1047,5.40936,49.772,-15.9677,-12.4494,-17.6136,-19.8711,-3.55273,-5.32795,50.5773,-10.4416,2.00081,-22.6591
7.50208,17.787,-4.02056,-2.66434,-63.0452,5.3859,7.6394,2.79266,1.46328,2.44231,3.78327,0.147495,-1.66672,1.87047,-1.00161,-6.13214,8.78608,-4.34629,14.0199,12.0856,1.60285,4.86083,5.76551,1.86817,-3.08116e-14,2.38542e-15,9.02817,21.6833,-73.9792,141.425,-14.8946,-32.3823,6.98856,7.12502,-5.61785,-22.917,-3.08116e-14,2.38542e-15,11.5732,-4.22264,65.5565,145.346,3.65013,-34.788,16.8989,7.12502,-7.94015,46.7297,-8.19294,13.1607,5.58295,49.5513,-16.4743,-13.1264,-26.6297,-19.7427,-2.51188,-6.29429,52.0594,-10.386,1.29314,-25.4529
7.49454,17.7325,-4.09036,-3.44567,-63.0757,6.03289,7.7826,2.64102,0.813628,2.39282,3.54153,0.413104,-1.86028,1.74738,-0.355799,-5.95233,8.81796,-4.61424,14.028,12.1513,1.56614,4.81822,5.78179,1.89037,-7.05686e-14,4.77083e-15,8.66073,22.0345,-73.5785,141.029,-14.5962,-31.4765,7.00969,7.12502,-4.74328,-22.9172,-7.05686e-14,4.77083e-15,10.5042,-4.67915,66.1449,144.935,3.26214,-34.1377,15.742,7.12502,-7.31252,45.5956,-7.10214,13.2531,5.72398,48.9396,-19.3061,-14.1453,-28.7274,-19.4643,-1.45712,-7.23935,53.3284,-10.9467,0.567562,-25.4068
7.4779,17.677,-4.15834,-4.20212,-63.1891,6.7189,7.85651,2.47295,0.107504,2.27077,3.27338,0.66209,-2.08435,1.61391,0.310867,-5.74407,8.92768,-4.86234,14.1568,12.3185,1.52684,4.80635,5.84455,1.91593,3.58806e-14,-5.56597e-15,8.17602,22.2982,-73.4063,140.676,-14.2013,-32.6871,7.7985,7.12502,-5.91216,-22.099,3.58806e-14,-5.56597e-15,9.21619,-5.1554,66.4488,144.886,2.10007,-34.6961,18.7705,7.12502,-7.85142,48.6047,-6.1042,13.4722,5.79458,47.9897,-21.3697,-15.3267,-26.2567,-19.1348,-0.292855,-8.13974,54.3782,-11.8814,2.20908,-26.1444
7.45653,17.6293,-4.21902,-4.89824,-63.358,7.3972,7.86423,2.36958,-0.310807,2.18019,3.10664,0.697505,-2.20525,1.5326,0.593885,-5.71734,8.96235,-4.90964,14.3081,12.3632,1.57703,4.84096,5.86225,1.94363,-1.54058e-14,-4.77083e-15,7.67217,22.2508,-73.5294,140.212,-13.5438,-32.5764,7.57091,7.12502,-5.80525,-22.3296,-1.54058e-14,-4.77083e-15,8.27481,-5.37261,66.651,144.7,1.58589,-34.8712,19.4937,7.12502,-8.02051,49.3215,-5.23499,13.7487,5.76432,46.8494,-22.2263,-16.2883,-29.0009,-18.817,0.939792,-8.97129,55.1718,-12.9347,4.83139,-26.9297
7.43151,17.5929,-4.26993,-5.74228,-63.5129,8.25021,7.85553,2.2648,-0.624364,2.11643,2.94207,0.605587,-2.27476,1.45247,0.689314,-5.64761,8.99081,-4.92945,14.3035,12.3939,1.60898,4.82354,5.87843,1.95326,-2.51463e-14,-4.77083e-15,7.1838,22.3224,-73.7652,139.721,-13.2121,-33.0179,8.01629,7.12502,-6.2315,-21.8721,-2.51463e-14,-4.77083e-15,7.47351,-5.54157,66.7332,144.526,1.35937,-34.7931,18.6244,7.12502,-7.94512,48.4551,-4.38385,13.7631,5.51714,45.7201,-22.6049,-16.3848,-33.5644,-18.4651,1.98685,-9.81302,55.7249,-14.0525,7.52945,-27.6492
7.408,17.5612,-4.31782,-6.54177,-63.6066,9.1023,7.88637,2.11098,-0.98398,2.01641,2.70921,0.544533,-2.40445,1.33934,0.847035,-5.3443,9.07372,-4.92899,14.0589,12.5059,1.42241,4.7073,5.92912,1.87738,-4.23411e-14,-6.36111e-15,6.58855,22.5119,-74.1005,139.448,-13.2808,-32.8816,8.06084,7.12502,-6.09986,-21.8313,-4.23411e-14,-6.36111e-15,6.55593,-5.82873,66.7519,144.476,1.12747,-34.4782,17.337,7.12502,-7.6411,47.179,-3.68281,13.5826,5.18671,44.7531,-23.5895,-15.9357,-34.4668,-18.2356,2.79898,-10.5245,56.1135,-15.2816,9.00744,-27.1212
7.39546,17.5284,-4.36785,-6.69178,-63.8109,9.22284,8.09923,1.94815,-1.05163,1.90541,2.48758,0.593606,-2.63704,1.23107,0.948072,-5.09059,9.19036,-4.90463,13.7808,12.6722,1.16477,4.59437,6.00463,1.78083,-4.96962e-15,-5.56597e-15,6.0568,22.6236,-74.5588,139.184,-12.8766,-32.2984,7.99041,7.12502,-5.53684,-21.9173,-4.96962e-15,-5.56597e-15,5.57709,-6.03134,66.7533,144.557,1.12361,-34.022,15.4196,7.12502,-7.20078,45.2771,-3.24134,13.5719,5.21323,44.0038,-25.003,-15.5264,-31.8826,-18.14,3.61822,-10.6986,56.4242,-16.3237,9.47055,-25.7388
7.39338,17.5037,-4.41534,-6.18308,-64.1445,8.6034,8.45063,1.83184,-0.744208,1.84712,2.35968,0.724115,-2.88222,1.16611,0.911387,-5.13224,9.2751,-4.82875,13.6333,12.8265,0.800681,4.58238,6.06507,1.66643,-9.0447e-15,-2.14687e-14,5.7512,22.6381,-74.9606,138.82,-12.3125,-32.0692,8.48701,7.12502,-5.3155,-21.4263,-9.0447e-15,-2.14687e-14,4.69298,-6.25072,66.7886,144.754,0.507022,-33.9148,14.9549,7.12502,-7.09736,44.8159,-3.03383,13.6586,5.55859,43.4904,-25.8324,-15.2385,-30.796,-18.1854,4.42815,-10.3666,56.7849,-16.9639,9.74673,-23.5686
7.39863,17.4945,-4.46053,-4.98319,-64.4458,7.34027,8.77989,1.71924,-0.185128,1.82064,2.26444,0.932802,-3.07703,1.11418,0.813421,-5.34069,9.33196,-4.71443,13.5009,12.9634,0.340503,4.61302,6.11141,1.52792,9.64106e-15,-3.18055e-15,5.56956,22.6423,-75.1545,138.614,-12.1378,-32.3837,8.75177,7.12502,-5.61924,-21.1537,9.64106e-15,-3.18055e-15,3.88565,-6.69184,66.9229,145.073,-1.00088,-34.0626,16.5559,7.12502,-7.24002,46.412,-3.06532,13.6229,6.15778,43.15,-26.2209,-14.6678,-30.9207,-18.5733,4.92654,-9.59003,57.2046,-17.1227,9.9034,-21.1906
7.41303,17.4824,-4.50168,-3.39193,-64.6894,5.74426,8.9936,1.57891,0.476434,1.851,2.14651,1.22115,-3.14891,1.04887,0.748331,-5.52005,9.39554,-4.75434,13.145,13.1153,-0.118186,4.56057,6.16626,1.40353,-4.57205e-15,1.43125e-14,5.51041,22.6615,-75.095,138.58,-12.289,-32.6373,8.62761,7.12502,-5.86403,-21.2712,-4.57205e-15,1.43125e-14,3.135,-7.03544,67.1982,145.457,-2.18953,-34.1802,16.9547,7.12502,-7.35347,46.8069,-3.3472,13.4115,6.82035,42.9994,-26.4926,-13.813,-30.4077,-19.277,5.13953,-8.53941,57.773,-16.6067,9.44242,-18.9426
7.42852,17.4838,-4.53257,-1.93213,-64.9835,4.3918,9.03862,1.4432,1.05317,1.93209,2.02342,1.46398,-3.0772,0.98176,0.690234,-5.72978,9.47502,-4.87523,12.3333,13.2909,-0.576837,4.85073,6.23291,1.3992,-6.22196e-14,6.36111e-15,5.54203,22.7437,-75.0321,138.671,-12.7224,-32.6089,8.77376,7.12502,-5.83661,-21.1259,-6.22196e-14,6.36111e-15,2.48708,-6.97714,67.4054,145.857,-2.78419,-33.8468,15.2905,7.12502,-7.03169,45.1537,-3.88854,13.0661,7.25498,43.0273,-26.2497,-13.2697,-30.4091,-20.1297,5.45799,-7.57119,58.5457,-15.1361,8.79752,-19.8879
7.44195,17.5005,-4.55599,-0.653289,-65.3562,3.30017,8.92159,1.33687,1.53444,2.07436,1.92072,1.59969,-2.85294,0.926854,0.577249,-5.80502,9.54412,-4.79199,11.7763,13.4276,-1.134,4.70753,6.29262,1.19344,-3.3197e-14,1.03368e-14,5.62014,22.8078,-75.1051,138.869,-13.1683,-32.4362,8.93952,7.12502,-5.66988,-20.9646,-3.3197e-14,1.03368e-14,2.06305,-6.63547,67.393,146.261,-3.02435,-33.3852,14.2904,7.12502,-6.58612,44.168,-4.62735,12.7692,7.54154,43.2689,-25.7443,-13.034,-30.7894,-21.0208,5.77524,-6.70254,59.4247,-13.324,8.12076,-22.7469
7.45872,17.5212,-4.57887,0.0394582,-65.7356,2.79857,8.86754,1.2991,1.7125,2.22216,1.87857,1.62348,-2.66486,0.904862,0.510023,-5.66616,9.56745,-4.56723,11.1083,13.4676,-1.71755,4.49737,6.3173,0.936269,-1.05356e-14,-1.11319e-14,5.58559,22.7115,-75.3153,139.085,-13.4061,-32.3152,8.71716,7.12502,-5.55307,-21.1901,-1.05356e-14,-1.11319e-14,1.79359,-6.39763,67.2903,146.638,-3.15621,-33.2384,14.3797,7.12502,-6.44435,44.2617,-5.47935,12.5197,7.56537,43.7626,-25.1913,-12.6132,-31.0462,-21.8755,5.87809,-6.05627,60.267,-11.6117,7.1635,-24.0084
7.47874,17.5534,-4.60077,-0.0564563,-66.1639,3.01296,8.98331,1.28557,1.57445,2.41527,1.83943,1.51576,-2.52998,0.885643,0.480394,-5.42535,9.61368,-4.29554,10.3523,13.5131,-2.24879,4.23733,6.35549,0.68199,-4.33351e-14,1.11319e-14,5.53576,22.6379,-75.5977,139.288,-13.4512,-32.7083,8.67112,7.12502,-5.93262,-21.2258,-4.33351e-14,1.11319e-14,1.7737,-5.86604,67.018,146.922,-2.98267,-32.9938,14.4901,7.12502,-6.20827,44.3791,-6.41949,12.1663,7.24646,44.5466,-24.4421,-11.9023,-31.313,-22.5171,5.90417,-5.69318,60.9238,-9.90723,5.73217,-23.6302
7.50446,17.5898,-4.62378,-0.862377,-66.7101,3.82873,9.3903,1.337,1.16092,2.63193,1.86307,1.31458,-2.53722,0.896828,0.495364,-5.25303,9.71055,-4.10124,9.69488,13.6179,-2.57117,4.00656,6.42698,0.519216,2.90226e-14,-1.27222e-14,5.50143,22.5663,-75.8821,139.475,-13.6109,-32.9652,8.68241,7.12502,-6.1806,-21.2074,2.90226e-14,-1.27222e-14,2.0583,-4.92836,66.5885,147.066,-2.35856,-32.6088,14.4818,7.12502,-5.83653,44.3814,-7.47171,11.9194,6.67178,45.6778,-23.4924,-11.1547,-31.0033,-22.9478,5.95469,-5.53971,61.4461,-8.28245,3.74429,-21.2397
7.53556,17.6306,-4.64302,-1.78414,-67.3266,4.80442,9.86893,1.46021,0.700333,2.79431,1.97602,1.1171,-2.64188,0.951687,0.527194,-5.12222,9.77878,-4.12644,9.2078,13.6915,-2.69398,3.81474,6.47794,0.461153,-6.36111e-15,-1.03368e-14,5.36442,22.3837,-76.1049,139.66,-13.9088,-32.6438,8.59426,7.12502,-5.87033,-21.3044,-6.36111e-15,-1.03368e-14,2.44679,-4.20065,66.2707,147.151,-1.56112,-32.2597,14.4482,7.12502,-5.49946,44.3569,-8.85597,11.7143,5.99615,47.1603,-22.1458,-10.5674,-31.3994,-23.4322,6.07976,-5.43077,61.8785,-6.8049,1.27144,-19.1312
7.56987,17.6728,-4.64919,-2.59383,-67.9689,5.73896,10.2224,1.57758,0.392494,2.94923,2.08978,0.884947,-2.67881,1.00668,0.43923,-5.11072,9.8433,-4.21267,8.93069,13.7707,-2.699,3.70735,6.52535,0.464759,1.2921e-14,1.03368e-14,5.31671,22.2973,-76.3256,139.78,-14.0657,-32.5751,8.25705,7.12502,-5.804,-21.6435,1.2921e-14,1.03368e-14,2.9791,-3.62895,65.9234,147.173,-0.63207,-32.2205,14.8494,7.12502,-5.46167,44.759,-10.5791,11.3778,5.18868,49.0074,-20.5849,-9.40496,-31.0731,-23.9852,6.12575,-5.3222,62.2613,-5.69502,-1.56053,-18.354
7.60539,17.7152,-4.64699,-3.32622,-68.7146,6.52047,10.6274,1.70181,0.223107,3.11266,2.22216,0.620789,-2.7284,1.06984,0.23567,-5.15061,9.91239,-4.24541,8.76515,13.86,-2.70183,3.6534,6.57434,0.468696,1.78906e-15,-1.27222e-14,5.36694,22.3252,-76.5284,139.864,-14.2773,-32.7097,7.771,7.12502,-5.93392,-22.1259,1.78906e-15,-1.27222e-14,3.64019,-2.6105,65.4242,147.136,0.735994,-32.1139,15.3253,7.12502,-5.35874,45.2376,-12.5025,11.0955,4.36866,51.1843,-18.7861,-7.68692,-29.0335,-24.3719,6.16138,-5.11119,62.5958,-4.77962,-4.47642,-18.03
7.64385,17.7528,-4.64075,-3.85648,-69.5402,7.11069,11.0184,1.83599,0.158639,3.23978,2.37724,0.351186,-2.80241,1.14406,-0.037121,-5.04041,9.96931,-4.12067,8.49696,13.9269,-2.94497,3.5672,6.61181,0.360002,3.12092e-14,3.97569e-15,5.44181,22.3673,-76.7495,139.844,-14.5122,-32.6244,7.74854,7.12502,-5.85158,-22.1507,3.12092e-14,3.97569e-15,4.39559,-1.35796,64.8436,146.94,2.15407,-31.911,15.3542,7.12502,-5.16276,45.2713,-14.8105,10.8117,3.64451,53.6186,-16.1921,-6.47182,-27.405,-24.7378,6.33174,-4.79954,62.9004,-3.96401,-6.78314,-18.2044
7.68136,17.7854,-4.63088,-4.73301,-70.3907,8.05545,11.3955,2.04958,-0.0214482,3.40909,2.61922,0.0337819,-2.82567,1.26102,-0.306653,-5.16811,9.99839,-3.95629,8.37807,13.9739,-3.15826,3.58005,6.633,0.274872,6.22196e-14,-1.59028e-15,5.67597,22.2644,-76.8489,139.721,-14.3951,-32.5475,7.77055,7.12502,-5.77735,-22.1307,6.22196e-14,-1.59028e-15,5.42158,-0.0764171,64.2576,146.61,3.63886,-31.598,15.0053,7.12502,-4.86054,44.9295,-17.3407,10.5406,2.8333,56.1551,-13.0129,-5.82132,-25.4336,-25.0517,6.57447,-4.60965,63.1496,-3.55251,-8.04939,-18.2285
