JuanDHNZ/ProyectoFinalCD/preprocessing/sports_trials_csv/13_29.csv
root1,root2,root3,root4,root5,root6,lowerback1,lowerback2,lowerback3,upperback1,upperback2,upperback3,thorax1,thorax2,thorax3,lowerneck1,lowerneck2,lowerneck3,upperneck1,upperneck2,upperneck3,head1,head2,head3,rclavicle1,rclavicle2,rhumerus1,rhumerus2,rhumerus3,rradius1,rwrist1,rhand1,rhand2,rfingers1,rthumb1,rthumb2,lclavicle1,lclavicle2,lhumerus1,lhumerus2,lhumerus3,lradius1,lwrist1,lhand1,lhand2,lfingers1,lthumb1,lthumb2,rfemur1,rfemur2,rfemur3,rtibia1,rfoot1,rfoot2,rtoes1,lfemur1,lfemur2,lfemur3,ltibia1,lfoot1,lfoot2,ltoes1
-0.00352056,15.8971,2.29534,-7.93652,-8.24874,5.32708,15.8313,1.38072,-4.47607,5.39838,1.03546,-1.74064,-3.17405,0.492844,0.511081,-10.3324,-0.616806,-6.19079,5.95234,-0.578468,7.34199,3.49382,-0.0734207,3.21859,-1.758e-15,-2.51463e-14,-24.8326,-25.2688,-52.4018,27.1057,7.97616,-28.6508,7.19912,7.12502,-2.0145,-22.7711,-1.758e-15,-2.51463e-14,-25.5515,12.8606,51.8698,28.9225,-7.57011,-20.925,26.6261,7.12502,5.44679,56.5361,-25.2002,12.7227,10.4898,74.5471,-37.8028,-11.868,-16.416,-21.4631,8.45174,-18.6905,73.0972,-33.7062,4.28226,-16.1781
0.000288429,15.8574,2.30713,-8.04215,-8.11272,5.44736,15.7354,1.36187,-4.57142,5.41971,1.00161,-1.78591,-3.09925,0.474606,0.525287,-10.3157,-0.547359,-6.23519,5.95671,-0.479978,7.34201,3.48559,-0.0260327,3.23169,3.31598e-14,-2.67365e-14,-24.3275,-25.8892,-51.0842,27.0817,7.39296,-28.8925,7.33151,7.12502,-2.2479,-22.6364,3.31598e-14,-2.67365e-14,-25.018,12.6012,50.6989,29.5544,-6.92782,-20.7389,26.9299,7.12502,5.62642,56.8352,-25.132,12.5473,10.3553,74.8008,-38.3587,-11.9764,-16.2579,-21.6241,8.48713,-18.8105,73.5928,-33.9374,4.37029,-16.3801
0.00489384,15.8236,2.31658,-7.98073,-8.1618,5.28677,15.5336,1.36424,-4.38976,5.38648,1.045,-1.75927,-3.02709,0.496338,0.446518,-10.4172,-0.517756,-6.20177,6.14332,-0.43907,7.23649,3.55525,-0.00768123,3.19775,-1.53561e-14,1.11319e-14,-23.7919,-26.5198,-49.7831,27.157,7.09858,-29.4254,7.08225,7.12502,-2.76257,-22.8796,-1.53561e-14,1.11319e-14,-24.4907,12.1184,49.5684,30.3591,-5.84355,-20.7047,26.3158,7.12502,5.65945,56.2202,-25.2123,12.5819,10.5495,74.9418,-38.984,-11.9961,-15.4392,-21.8963,8.68189,-18.6029,74.0116,-34.2433,4.24283,-15.78
0.00999358,15.7896,2.32025,-7.89957,-8.3005,4.96275,15.4532,1.38538,-4.06146,5.28595,1.1273,-1.66119,-3.09114,0.540393,0.350341,-10.4447,-0.511301,-6.22443,6.31037,-0.424591,7.13888,3.60895,-0.00492815,3.17345,6.44187e-15,-2.22142e-14,-23.3056,-27.0836,-48.4418,27.3573,6.65565,-30.1886,6.71705,7.12502,-3.49955,-23.234,6.44187e-15,-2.22142e-14,-24.0902,11.6026,48.4215,31.3115,-5.00908,-20.9846,26.0738,7.12502,5.38926,55.9853,-25.3182,12.7395,10.9447,75.0784,-39.4146,-12.1364,-15.0403,-22.0522,8.94842,-18.1986,74.3071,-34.658,3.87291,-14.9601
0.0155345,15.7692,2.32814,-7.87345,-8.32101,4.86179,15.4011,1.38422,-3.98164,5.18354,1.13969,-1.61028,-3.17185,0.549003,0.356374,-10.5025,-0.481448,-6.32749,6.4285,-0.371716,7.13806,3.6506,0.019899,3.19449,-1.55052e-14,6.80837e-15,-22.818,-27.3624,-47.1471,27.6932,5.83481,-30.3008,6.20181,7.12502,-3.60794,-23.7474,-1.55052e-14,6.80837e-15,-23.7287,11.3212,47.1526,32.2807,-4.52725,-21.1263,26.5088,7.12502,5.25241,56.4237,-25.2987,12.8026,11.0532,75.1599,-39.3311,-12.548,-16.0877,-22.0535,9.18021,-18.082,74.3872,-35.0191,3.82403,-15.206
0.0209628,15.7619,2.33405,-7.77117,-8.24271,4.9077,15.2088,1.36268,-4.03944,5.12785,1.11179,-1.62662,-3.12743,0.535336,0.379757,-10.7234,-0.476898,-6.39991,6.56511,-0.354132,7.19317,3.72719,0.0337599,3.2267,-2.50344e-14,-1.30701e-14,-22.1636,-28.0578,-45.9065,27.9405,5.27351,-30.5467,5.51817,7.12502,-3.84537,-24.4269,-2.50344e-14,-1.30701e-14,-23.2267,11.1661,45.843,33.363,-3.9795,-21.1006,27.1849,7.12502,5.2772,57.0992,-25.3873,12.795,10.9541,75.2038,-38.584,-13.2116,-18.2767,-22.0662,9.38205,-18.1592,74.2665,-35.3188,3.84245,-15.3799
0.0279035,15.763,2.34069,-7.73182,-8.22071,4.9953,15.037,1.35986,-4.10413,5.08889,1.10598,-1.66473,-3.07661,0.532318,0.379989,-10.8753,-0.437329,-6.49061,6.67275,-0.291779,7.27856,3.78061,0.0695613,3.27371,-3.28305e-14,1.72943e-14,-21.4791,-29.1203,-44.6639,28.2128,5.07168,-30.9735,4.3754,7.12502,-4.25756,-25.5618,-3.28305e-14,1.72943e-14,-22.8333,10.8769,44.5349,34.6115,-3.31677,-21.1466,28.1421,7.12502,5.23279,58.0575,-25.4282,12.8401,10.8024,75.1584,-40.0583,-12.0123,-13.7553,-21.9003,9.54969,-18.2699,73.9662,-35.6159,3.54693,-14.3601
0.0337435,15.7701,2.35014,-7.76814,-8.26895,5.02099,14.9639,1.38748,-4.12307,5.03329,1.14192,-1.66817,-3.09767,0.55107,0.381432,-10.9623,-0.378571,-6.54632,6.74298,-0.20594,7.31323,3.81012,0.113992,3.30015,-1.9543e-14,5.06901e-15,-20.8982,-29.8386,-43.4503,28.6877,4.62737,-31.2854,3.67076,7.12502,-4.55878,-26.2602,-1.9543e-14,5.06901e-15,-22.5015,10.5492,43.2513,35.8885,-2.78306,-21.2523,28.9261,7.12502,5.13072,58.844,-25.3161,12.9828,10.7666,74.9971,-40.4181,-11.6812,-12.5638,-21.5194,9.73299,-18.2991,73.5065,-35.8217,3.30644,-13.4004
0.039616,15.7997,2.3626,-7.73862,-8.23906,4.97065,14.8476,1.38051,-4.08429,4.97209,1.14463,-1.63973,-3.10002,0.553343,0.390477,-10.9977,-0.363875,-6.55912,6.71616,-0.177439,7.27356,3.80567,0.126214,3.29165,-9.89575e-15,-5.86415e-15,-20.2671,-30.2149,-42.3245,29.2892,3.78632,-31.5699,3.46454,7.12502,-4.83347,-26.4603,-9.89575e-15,-5.86415e-15,-22.057,10.247,42.0013,37.1896,-2.15268,-21.4876,29.6394,7.12502,4.90356,59.5627,-25.0746,13.0613,10.8151,74.6329,-40.2921,-11.6841,-12.6947,-21.2184,9.83716,-18.2712,72.9457,-35.8081,3.26957,-13.0978
0.0488085,15.8494,2.3768,-7.64125,-8.09188,5.06657,14.6461,1.35491,-4.1819,4.86946,1.1061,-1.63902,-3.10011,0.535513,0.455365,-10.8604,-0.364838,-6.55458,6.60903,-0.17382,7.17996,3.75022,0.120622,3.26026,3.2756e-14,-4.96962e-17,-19.7201,-30.3688,-41.1419,29.9377,2.75176,-31.6672,3.67495,7.12502,-4.92741,-26.2478,3.2756e-14,-4.96962e-17,-21.5934,9.8991,40.8016,38.4187,-1.27021,-22.4115,29.8337,7.12502,4.01138,59.7757,-24.8065,12.9505,10.6393,74.0999,-40.1448,-11.5327,-12.4549,-20.9894,9.77511,-18.4681,72.2463,-35.6409,3.24522,-12.9851
0.0604822,15.904,2.39067,-7.53373,-7.87229,5.23304,14.4279,1.33668,-4.30075,4.76285,1.07461,-1.6633,-3.09513,0.521359,0.504891,-10.8809,-0.374264,-6.64627,6.67211,-0.177802,7.21759,3.77308,0.118673,3.28744,-6.99474e-15,1.16289e-14,-19.2949,-30.6688,-39.8582,30.6025,1.84646,-31.9241,3.8275,7.12502,-5.17543,-26.0893,-6.99474e-15,1.16289e-14,-20.9854,9.90549,39.6702,39.4443,-0.96065,-23.693,28.3308,7.12502,2.77387,58.2925,-24.5117,12.7093,10.3489,73.424,-39.8646,-11.4334,-12.4126,-20.6251,9.64107,-18.7764,71.3883,-35.4106,2.97246,-12.0641
0.0702673,15.9778,2.40645,-7.44098,-7.59474,5.46811,14.229,1.30844,-4.47748,4.64949,1.01935,-1.72577,-3.10633,0.495877,0.550357,-11.0763,-0.398892,-6.75635,6.88508,-0.201314,7.31467,3.87166,0.112987,3.33732,5.71506e-15,-7.95139e-15,-18.812,-31.219,-38.665,31.2629,1.35988,-32.4925,3.06684,7.12502,-5.7242,-26.8358,5.71506e-15,-7.95139e-15,-20.3224,10.3496,38.5259,40.309,-1.50587,-24.3576,26.4316,7.12502,2.13203,56.4007,-24.0878,12.4737,9.99392,72.5736,-39.5284,-11.3255,-12.1143,-20.2876,9.44344,-19.1663,70.4512,-34.9465,2.91488,-11.673
0.0782727,16.0781,2.42626,-7.29506,-7.34366,5.51038,13.9494,1.25496,-4.49506,4.55188,0.96143,-1.72596,-3.05609,0.468074,0.573428,-11.1335,-0.429733,-6.77148,6.92333,-0.241096,7.33874,3.89564,0.0953107,3.34545,1.38295e-14,-2.03506e-14,-18.2895,-31.6818,-37.5853,32.0505,0.756593,-33.1365,2.27835,7.12502,-6.346,-27.6066,1.38295e-14,-2.03506e-14,-19.7521,10.703,37.4006,41.3285,-1.79026,-24.5627,25.9562,7.12502,1.93388,55.9272,-23.5534,12.3339,9.89858,71.5229,-38.848,-11.3542,-12.2807,-20.0668,9.23394,-19.3219,69.4779,-34.2333,3.14359,-11.9786
0.0849835,16.1781,2.44446,-7.11625,-7.15213,5.28348,13.6026,1.20248,-4.29589,4.50311,0.94309,-1.63503,-2.91856,0.457973,0.564932,-11.0716,-0.442592,-6.79896,6.84958,-0.260747,7.40422,3.8647,0.0871857,3.36812,-8.28179e-15,2.3e-14,-17.8075,-31.9227,-36.5495,32.9428,-0.145233,-33.7553,1.84834,7.12502,-6.9434,-28.0178,-8.28179e-15,2.3e-14,-19.0569,10.9212,36.3436,42.4277,-1.70661,-24.7601,25.8461,7.12502,1.74322,55.8188,-23.0276,12.3221,10.1696,70.3872,-37.4198,-11.9953,-14.188,-19.7272,9.07647,-19.1436,68.4563,-33.4912,3.05653,-12.1561
0.0913372,16.2869,2.45687,-6.84461,-6.94209,5.05848,13.2443,1.15643,-4.12701,4.4026,0.926662,-1.53916,-2.82927,0.450214,0.577568,-11.0137,-0.445769,-6.82666,6.83838,-0.268544,7.45608,3.85252,0.0843025,3.38793,-1.92262e-14,2.07792e-14,-17.3733,-32.1779,-35.5093,33.8326,-1.10108,-34.2167,1.7119,7.12502,-7.38871,-28.1391,-1.92262e-14,2.07792e-14,-18.2749,11.0873,35.3755,43.501,-1.73123,-24.808,25.7315,7.12502,1.69699,55.7045,-22.605,12.349,10.4255,69.1755,-35.8755,-12.6426,-16.3028,-19.4329,8.89587,-18.9702,67.3465,-32.5946,2.68622,-11.7929
0.0994301,16.415,2.46734,-6.50467,-6.80038,4.82233,12.9328,1.12345,-3.89618,4.20281,0.927323,-1.45808,-2.86854,0.454092,0.53528,-10.994,-0.49798,-6.84428,7.01896,-0.348381,7.48913,3.91012,0.0461128,3.3976,7.18886e-15,-2.68359e-15,-17.0003,-32.5299,-34.4732,34.7208,-1.77736,-34.1055,1.61297,7.12502,-7.28139,-28.2417,7.18886e-15,-2.68359e-15,-17.4932,11.2698,34.4588,44.4752,-1.6879,-24.8804,25.942,7.12502,1.62706,55.9155,-22.2442,12.5346,10.6881,67.8862,-34.8504,-12.9987,-16.7836,-19.2322,8.77149,-18.7845,66.1837,-31.4576,2.42985,-11.7109
0.110685,16.562,2.48775,-6.26065,-6.68145,4.76721,12.5853,1.10777,-3.79578,4.02411,0.933514,-1.44209,-2.86619,0.459611,0.49826,-10.9393,-0.559965,-6.91559,7.22061,-0.445901,7.62025,3.97013,0.00244259,3.4456,-1.8018e-14,1.49213e-14,-16.6616,-32.8008,-33.4765,35.6397,-2.43907,-33.9585,1.29066,7.12502,-7.13948,-28.5689,-1.8018e-14,1.49213e-14,-16.6513,11.6339,33.5658,45.2649,-1.34891,-25.1624,25.4421,7.12502,1.35467,55.4175,-21.6967,12.8058,10.7512,66.5361,-34.3655,-12.6766,-14.8426,-18.8333,8.60728,-18.7992,64.926,-30.2055,2.29444,-11.7225
0.12284,16.7143,2.50908,-6.0587,-6.52979,4.72088,12.2223,1.09098,-3.72346,3.91058,0.937697,-1.4074,-2.78723,0.462193,0.497745,-10.8227,-0.620015,-7.09396,7.24081,-0.530927,7.85965,3.96468,-0.0337211,3.54398,-9.67212e-15,1.31446e-14,-16.1869,-33.3091,-32.5362,36.4339,-2.98318,-34.3466,0.916324,7.12502,-7.51412,-28.9302,-9.67212e-15,1.31446e-14,-15.8485,12.0497,32.7945,46.2228,-0.980708,-25.4475,24.8993,7.12502,1.07935,54.8763,-21.0825,13.1291,10.8113,65.2023,-32.0556,-13.1918,-17.3726,-18.3616,8.35189,-18.7985,63.6234,-28.7993,1.96106,-11.3492
0.130962,16.8622,2.51826,-5.78816,-6.40626,4.52104,11.953,1.06577,-3.57309,3.74631,0.934851,-1.31744,-2.81155,0.463016,0.509874,-10.7728,-0.655214,-7.13837,7.35142,-0.588172,7.9441,3.99489,-0.0593637,3.57485,-2.19843e-14,-7.52897e-15,-15.5944,-33.9757,-31.6983,37.1034,-3.36921,-34.8204,0.721211,7.12502,-7.97138,-29.1085,-2.19843e-14,-7.52897e-15,-15.2103,12.3802,32.0535,47.3409,-0.685515,-25.8012,24.7264,7.12502,0.737776,54.7049,-20.6781,13.5632,11.0522,63.9368,-30.7447,-13.2509,-16.7178,-17.9946,8.11699,-18.5831,62.3127,-27.1922,1.49812,-11.0885
0.140894,17.0229,2.52794,-5.54273,-6.2317,4.35845,11.7552,1.02672,-3.40482,3.51442,0.908347,-1.26674,-2.94336,0.454035,0.47256,-10.653,-0.695667,-7.12158,7.60487,-0.66905,7.98844,4.0585,-0.0980712,3.5826,-1.38155e-14,-5.2181e-15,-15.166,-34.3743,-30.8313,37.8458,-3.81764,-34.7356,1.14112,7.12502,-7.88956,-28.6917,-1.38155e-14,-5.2181e-15,-14.534,12.6661,31.3054,48.3456,-0.383584,-26.1688,24.6512,7.12502,0.382758,54.6306,-20.2602,13.9248,11.2437,62.6677,-29.4119,-13.3965,-15.6785,-17.5975,7.81839,-18.4104,60.9774,-25.4026,1.103,-11.0983
0.153357,17.1942,2.53868,-5.29556,-6.01407,4.27297,11.5381,0.965531,-3.28233,3.28421,0.846974,-1.23992,-3.06165,0.427306,0.441236,-10.4614,-0.727961,-7.20717,7.85214,-0.737867,8.13014,4.1081,-0.129926,3.63825,-6.05051e-15,-6.41081e-15,-14.7231,-34.6184,-30.0277,38.6764,-4.34209,-34.5269,1.36003,7.12502,-7.68815,-28.4802,-6.05051e-15,-6.41081e-15,-13.8272,13.0293,30.6218,49.3323,-0.0962387,-26.3821,24.656,7.12502,0.176718,54.6357,-19.8513,14.2913,11.3222,61.3936,-27.5215,-13.562,-15.5855,-17.2338,7.46925,-18.3326,59.6224,-23.3429,0.761414,-12.1017
0.160818,17.3726,2.5537,-5.09636,-5.99565,4.0231,11.2645,0.955395,-3.05754,3.13658,0.871083,-1.15355,-3.06484,0.440166,0.403886,-10.3436,-0.747462,-7.32562,8.07428,-0.780986,8.28577,4.16044,-0.147978,3.70562,-1.20016e-14,-8.89561e-15,-14.1495,-34.8763,-29.3589,39.48,-4.80306,-35.1503,0.968519,7.12502,-8.28987,-28.8488,-1.20016e-14,-8.89561e-15,-13.138,13.4432,29.9652,50.386,0.198028,-26.1725,24.2261,7.12502,0.37915,54.2055,-19.4356,14.987,11.6461,60.1173,-25.3408,-13.7874,-17.3441,-16.7804,7.26492,-17.9947,58.2715,-21.0811,0.323344,-13.9079
0.170475,17.562,2.56947,-4.93784,-5.90535,3.96729,11.0014,0.932905,-2.96703,3.01316,0.859728,-1.15587,-3.04747,0.435325,0.354791,-10.2394,-0.781825,-7.36701,8.22909,-0.848231,8.40673,4.19628,-0.177344,3.74726,-3.80797e-15,5.41688e-15,-13.6033,-35.1212,-28.7698,40.3298,-5.17798,-35.7202,0.438359,7.12502,-8.83985,-29.3565,-3.80797e-15,5.41688e-15,-12.3787,13.8738,29.2843,51.4347,0.559908,-26.0182,23.7951,7.12502,0.528204,53.7742,-18.9471,15.577,11.7048,58.823,-23.325,-13.8346,-19.1793,-16.3035,6.91149,-17.8813,56.8784,-18.8617,-0.105852,-14.8734
0.179248,17.7408,2.57662,-4.75904,-5.82753,3.80963,10.7751,0.917111,-2.81736,2.91855,0.864747,-1.09322,-3.02075,0.437952,0.337434,-10.2813,-0.82186,-7.44159,8.45252,-0.910324,8.50134,4.27697,-0.203405,3.78783,-5.69021e-15,9.0447e-15,-12.9304,-35.4807,-28.1611,41.1024,-5.38192,-35.9193,0.376489,7.12502,-9.0319,-29.4102,-5.69021e-15,9.0447e-15,-11.6077,14.3564,28.7065,52.5271,1.00089,-26.5002,24.2582,7.12502,0.062617,54.2379,-18.5359,16.1093,11.8757,57.5328,-21.1016,-13.9715,-19.8171,-15.9439,6.59626,-17.6231,55.521,-16.6317,-0.319113,-16.0696
0.187801,17.9164,2.58419,-4.59246,-5.67288,3.68679,10.5124,0.887522,-2.69905,2.87353,0.849462,-1.04532,-2.92185,0.429525,0.32598,-10.4067,-0.852582,-7.49832,8.71475,-0.955822,8.56175,4.38197,-0.220722,3.8166,-2.3233e-15,1.00386e-14,-12.1619,-36.0677,-27.5783,41.7762,-5.3922,-36.2726,0.325479,7.12502,-9.37287,-29.4461,-2.3233e-15,1.00386e-14,-10.7627,14.9482,28.1689,53.549,1.32079,-27.3671,24.7652,7.12502,-0.774662,54.7435,-18.1226,16.5452,12.0055,56.2338,-18.8138,-14.1463,-19.7278,-15.5711,6.29026,-17.3861,54.1307,-14.1342,-0.466143,-17.1131
0.198163,18.1006,2.59415,-4.45337,-5.42155,3.65777,10.3057,0.833265,-2.58699,2.78437,0.793931,-1.08758,-2.89736,0.402203,0.228354,-10.4222,-0.90572,-7.42148,8.9441,-1.05259,8.58055,4.46231,-0.263471,3.8058,4.36084e-15,-7.90169e-15,-11.5249,-36.5297,-26.999,42.4963,-5.43808,-36.5809,0.0274215,7.12502,-9.67026,-29.7306,4.36084e-15,-7.90169e-15,-9.86503,15.4223,27.5595,54.5543,1.67273,-27.6202,24.7853,7.12502,-1.01911,54.7626,-17.6695,16.8472,12.031,54.9212,-16.5213,-14.2994,-19.8904,-15.172,5.80802,-17.2697,52.6806,-11.4766,-0.727071,-17.2718
0.20584,18.2791,2.60311,-4.29247,-5.20892,3.67154,10.0882,0.797636,-2.57849,2.63487,0.751883,-1.10779,-2.93144,0.382864,0.209464,-10.2767,-0.946818,-7.41844,9.13624,-1.1337,8.63118,4.50353,-0.302642,3.81734,1.08307e-14,1.42131e-14,-10.8766,-36.7101,-26.3823,43.2223,-5.59355,-36.9133,-0.332912,7.12502,-9.99102,-30.0758,1.08307e-14,1.42131e-14,-9.06856,15.685,26.9199,55.6437,2.2391,-27.4111,24.5837,7.12502,-0.817174,54.5618,-17.2976,17.1698,11.9844,53.6081,-14.1949,-14.3987,-19.4504,-14.8154,5.35624,-17.1729,51.196,-8.86565,-1.10746,-17.387
0.212006,18.4473,2.61371,-4.10951,-5.04737,3.67092,9.7988,0.755317,-2.57986,2.49319,0.703418,-1.10691,-2.91776,0.359877,0.219544,-10.1215,-0.94082,-7.467,9.30642,-1.14325,8.6844,4.53066,-0.308605,3.84295,3.96638e-15,-9.93923e-17,-10.083,-37.0453,-25.8242,43.8672,-5.36112,-37.1457,-0.193203,7.12502,-10.2152,-29.9252,3.96638e-15,-9.93923e-17,-8.3033,16.039,26.277,56.7148,2.74207,-26.962,24.543,7.12502,-0.383421,54.5224,-16.9908,17.5963,11.9194,52.2941,-12.117,-14.499,-18.4666,-14.458,5.05396,-17.0235,49.6866,-6.2939,-1.37074,-17.6382
0.222244,18.6057,2.62557,-3.84974,-4.83147,3.6276,9.4078,0.663531,-2.47662,2.34853,0.603377,-1.09544,-2.84862,0.310281,0.188781,-10.0252,-0.928069,-7.55169,9.55432,-1.13454,8.69861,4.58975,-0.307749,3.86464,9.30561e-15,2.98177e-16,-9.14926,-37.4469,-25.3005,44.4439,-5.06726,-37.0927,0.109337,7.12502,-10.1641,-29.6251,9.30561e-15,2.98177e-16,-7.61014,16.5095,25.6562,57.7942,3.236,-26.6556,24.7324,7.12502,-0.0874156,54.7121,-16.7428,17.8851,11.8575,50.9937,-10.0367,-14.7276,-16.13,-14.1914,4.68701,-16.8417,48.1911,-3.78565,-1.52815,-17.1937
0.231318,18.7534,2.63579,-3.62141,-4.59818,3.57576,9.10229,0.601362,-2.32336,2.18595,0.541475,-1.13187,-2.8451,0.279852,0.0741947,-9.93273,-0.965135,-7.54617,9.86966,-1.20387,8.65873,4.67607,-0.344895,3.8497,-8.90804e-15,8.10048e-15,-8.35277,-37.7974,-24.6961,45.0595,-4.9888,-36.9247,0.52463,7.12502,-10.002,-29.2177,-8.90804e-15,8.10048e-15,-6.76984,16.7809,25.0261,58.9069,4.18517,-27.1142,24.9205,7.12502,-0.53041,54.8996,-16.4537,18.0533,11.8247,49.7305,-8.00182,-14.9969,-12.2705,-13.9202,4.24523,-16.6272,46.705,-1.34813,-1.57031,-15.6549
0.237656,18.8903,2.6469,-3.49717,-4.41851,3.60023,8.89931,0.596159,-2.26198,2.01639,0.541105,-1.2063,-2.90708,0.280777,-0.036367,-9.68787,-1.01711,-7.55739,10.09,-1.30164,8.67137,4.71047,-0.39705,3.85067,8.40176e-16,-1.92573e-14,-7.68253,-37.943,-23.9768,45.7167,-4.93937,-37.0349,0.749503,7.12502,-10.1083,-28.9877,8.40176e-16,-1.92573e-14,-5.71315,17.0455,24.4121,59.937,5.06168,-27.8042,24.5017,7.12502,-1.19681,54.4781,-16.0425,18.24,11.7639,48.5317,-6.88364,-15.012,-10.7446,-13.5231,3.83296,-16.4714,45.2241,0.930762,-1.51578,-13.8683
0.246416,19.0156,2.66141,-3.39151,-4.27996,3.70893,8.60741,0.59043,-2.29115,1.89046,0.535845,-1.27411,-2.87509,0.278818,-0.0874499,-9.58007,-1.04224,-7.59725,10.3716,-1.34638,8.62493,4.78205,-0.424777,3.84252,1.0576e-15,1.20016e-14,-6.82382,-38.1392,-23.2856,46.3178,-4.74262,-37.2588,0.371082,7.12502,-10.3243,-29.3555,1.0576e-15,1.20016e-14,-4.44425,17.7183,23.939,60.7167,5.3812,-27.7943,24.3157,7.12502,-1.18723,54.2922,-15.6027,18.3419,11.5998,47.4336,-7.02002,-14.5852,-13.1882,-13.0758,3.45091,-16.4246,43.7915,2.94161,-1.62297,-12.8605
0.255627,19.1252,2.67298,-3.27184,-4.16805,3.73931,8.30851,0.590072,-2.23625,1.78095,0.546366,-1.32523,-2.82164,0.283868,-0.169919,-9.63267,-1.06192,-7.5871,10.765,-1.38102,8.53399,4.91379,-0.444699,3.81441,5.83775e-15,9.6659e-15,-5.80806,-38.5964,-22.6862,46.8208,-4.35308,-37.3145,0.519378,7.12502,-10.378,-29.2045,5.83775e-15,9.6659e-15,-3.09897,18.362,23.4337,61.4484,5.84244,-27.2795,24.4779,7.12502,-0.690065,54.4566,-15.2504,18.4496,11.5068,46.4785,-7.71176,-13.893,-15.766,-12.6668,3.02104,-16.281,42.4612,4.5759,-1.83317,-11.6829
0.262516,19.2194,2.68061,-3.07066,-4.07317,3.53933,7.95463,0.550418,-1.98817,1.67086,0.52444,-1.30726,-2.73654,0.271338,-0.285435,-9.6863,-1.02184,-7.57506,11.125,-1.33667,8.4761,5.02918,-0.42407,3.80179,-1.78311e-14,5.79271e-16,-4.5831,-39.1303,-22.2416,47.3283,-3.92517,-37.0775,1.23752,7.12502,-10.1495,-28.4977,-1.78311e-14,5.79271e-16,-2.033,18.6701,22.614,62.3862,6.91308,-27.2769,24.6508,7.12502,-0.687569,54.6294,-15.0765,18.6249,11.6673,45.6854,-8.35154,-13.0108,-15.6655,-12.3811,2.54583,-15.8582,41.2713,5.64229,-2.00704,-10.6299
0.268201,19.2998,2.68965,-2.87354,-4.02738,3.30165,7.59541,0.524511,-1.73156,1.56354,0.520954,-1.25243,-2.64584,0.267956,-0.369639,-9.70574,-0.990155,-7.60201,11.434,-1.29207,8.38113,5.12337,-0.408458,3.78327,1.15916e-15,1.10661e-15,-3.2752,-39.5228,-21.7752,47.8905,-3.70439,-37.025,1.28008,7.12502,-10.0988,-28.4576,1.15916e-15,1.10661e-15,-0.950683,18.962,21.7884,63.3314,8.21135,-28.0316,25.2331,7.12502,-1.41641,55.2081,-14.969,18.8815,11.893,45.0788,-8.92326,-12.06,-15.4164,-12.0895,2.06189,-15.3928,40.2378,5.85633,-1.95653,-11.2286
0.275902,19.3674,2.70279,-2.79787,-3.97749,3.16327,7.335,0.506632,-1.52376,1.46667,0.518895,-1.24069,-2.59916,0.265661,-0.472024,-9.71628,-1.02031,-7.59893,11.7616,-1.3246,8.19355,5.22799,-0.435845,3.72482,6.11806e-15,1.7344e-14,-1.99567,-39.7535,-21.2422,48.4867,-3.83494,-37.3007,1.19567,7.12502,-10.3647,-28.5289,6.11806e-15,1.7344e-14,0.512865,19.7117,21.2847,64.0303,8.98755,-28.2676,25.5555,7.12502,-1.64434,55.5289,-14.7495,19.0966,12.0366,44.6332,-9.54264,-11.1498,-17.0731,-11.6531,1.40056,-15.0682,39.3692,5.04663,-1.24179,-12.5706
0.286988,19.4205,2.71391,-2.76792,-3.80961,3.16275,7.1265,0.458977,-1.41533,1.36877,0.466336,-1.2698,-2.58278,0.238893,-0.556643,-9.76353,-1.03125,-7.58024,12.1215,-1.33189,8.00878,5.34687,-0.449663,3.66697,1.89816e-15,-1.23122e-14,-0.603953,-40.0495,-20.8025,49.0597,-4.08555,-37.6715,1.26133,7.12502,-10.7224,-28.445,1.89816e-15,-1.23122e-14,1.96363,20.3377,20.7098,64.653,9.69663,-27.9631,25.4971,7.12502,-1.35028,55.4726,-14.4981,19.1369,12.0106,44.3343,-10.1497,-10.2491,-19.6148,-11.2065,0.517275,-14.9329,38.6515,3.48735,0.0270271,-13.8158
0.297879,19.46,2.72067,-2.70052,-3.62219,3.0227,6.95696,0.421476,-1.17903,1.2317,0.435611,-1.26906,-2.62791,0.222203,-0.685061,-9.66918,-1.01503,-7.64815,12.3442,-1.31555,8.00283,5.39861,-0.446953,3.68033,-9.80179e-15,-1.4884e-14,0.769171,-40.4306,-20.3355,49.6652,-4.26056,-37.8284,1.10763,7.12502,-10.8738,-28.5908,-9.80179e-15,-1.4884e-14,3.32315,20.5343,19.8742,65.2545,10.9869,-28.051,25.6915,7.12502,-1.43517,55.6664,-14.3269,19.1657,12.1519,44.1463,-10.669,-9.39898,-20.615,-10.8546,-0.43007,-14.6434,38.0811,1.71715,1.34687,-14.1352
0.306091,19.4886,2.72665,-2.7072,-3.56983,2.81701,6.86656,0.440445,-0.910155,1.12004,0.481078,-1.25674,-2.69041,0.242818,-0.827374,-9.49999,-0.985914,-7.75059,12.5061,-1.29112,8.08666,5.41856,-0.437366,3.72784,3.71945e-15,-1.86858e-14,2.01067,-40.7185,-19.7579,50.4013,-4.64118,-37.9499,0.826321,7.12502,-10.991,-28.866,3.71945e-15,-1.86858e-14,5.06166,21.2517,19.4957,65.7317,11.903,-28.1254,25.7539,7.12502,-1.50702,55.7283,-14.1329,19.4092,12.4161,44.0449,-11.2181,-8.50216,-19.1531,-10.4559,-1.32069,-14.2554,37.6589,0.0289708,2.50854,-12.2479
0.314105,19.5058,2.73411,-2.77016,-3.57871,2.67827,6.77471,0.468978,-0.724672,1.0646,0.533397,-1.2568,-2.69424,0.267221,-0.935793,-9.52733,-0.954985,-7.72566,12.788,-1.25452,8.01577,5.50708,-0.422606,3.70774,-1.31664e-14,-9.0944e-15,3.35004,-41.0634,-19.3062,51.2623,-5.1037,-38.3725,0.233737,7.12502,-11.3985,-29.4364,-1.31664e-14,-9.0944e-15,7.17581,22.6283,19.7068,66.199,12.0834,-28.1645,25.7539,7.12502,-1.54478,55.728,-13.9072,19.6355,12.6184,44.0249,-11.7551,-7.43526,-17.4805,-10.024,-2.22917,-13.9401,37.3535,-1.47221,3.79747,-10.6149
0.322284,19.5102,2.74471,-2.89766,-3.49237,2.53829,6.69739,0.446304,-0.565234,1.05598,0.516545,-1.23273,-2.65894,0.257508,-0.998279,-9.57959,-0.947725,-7.72362,12.991,-1.23735,7.92056,5.5773,-0.419807,3.68119,1.08291e-14,1.13556e-14,4.92059,-41.4513,-19.0666,52.1521,-5.6389,-38.9372,-0.988027,7.12502,-11.9431,-30.6273,1.08291e-14,1.13556e-14,9.02473,23.7302,19.6876,66.8916,12.6596,-28.7089,26.1106,7.12502,-2.07056,56.0803,-13.5809,19.7715,12.8524,44.0838,-12.2251,-6.38296,-17.5211,-9.49995,-3.18475,-13.647,37.1322,-2.75495,5.38421,-10.4457
0.328141,19.5018,2.75464,-3.09646,-3.38678,2.4456,6.69598,0.422339,-0.473087,1.06041,0.491834,-1.21737,-2.65326,0.244454,-1.03197,-9.41233,-0.940094,-7.84968,12.9664,-1.22545,7.97341,5.54078,-0.419702,3.71923,-2.67583e-15,2.06239e-14,6.57291,-41.8584,-18.9326,53.0623,-6.31889,-39.1992,-1.89907,7.12502,-12.1957,-31.5235,-2.67583e-15,2.06239e-14,10.665,24.5395,19.4246,67.6403,13.3705,-29.1217,26.8808,7.12502,-2.46926,56.8463,-13.1858,19.9334,13.0826,44.2228,-12.5953,-5.52633,-18.7843,-8.92177,-4.28938,-13.4455,36.9746,-3.48919,7.22561,-9.17191
0.330652,19.4792,2.75865,-3.29239,-3.35129,2.45097,6.77974,0.411695,-0.528646,1.04129,0.472018,-1.22707,-2.72039,0.234966,-1.00996,-9.21769,-0.876403,-8.01023,12.9044,-1.14645,8.12334,5.4826,-0.382362,3.79851,-7.42958e-15,1.21259e-14,8.30585,-42.3014,-18.9154,54.0043,-6.88634,-39.2891,-1.11007,7.12502,-12.2824,-30.7294,-7.42958e-15,1.21259e-14,12.369,25.5172,19.3197,68.3417,13.5333,-29.0359,27.1958,7.12502,-2.38642,57.1622,-12.8861,20.1593,13.1956,44.4396,-12.7814,-4.58515,-19.136,-8.41876,-5.34165,-13.3554,36.8912,-3.7381,8.53245,-8.83036
0.333487,19.4449,2.76457,-3.49112,-3.3134,2.42796,6.81866,0.401431,-0.534858,1.04708,0.4571,-1.2391,-2.73631,0.227541,-1.01786,-9.24457,-0.845262,-8.02683,13.0208,-1.10294,8.10806,5.5196,-0.362588,3.80144,-9.38015e-16,1.12313e-14,10.0066,-42.7613,-18.956,55.1095,-7.33904,-39.718,-0.555914,7.12502,-12.6959,-30.15,-9.38015e-16,1.12313e-14,14.1421,26.5593,19.3361,69.115,13.6256,-28.9012,26.9639,7.12502,-2.25625,56.9317,-12.6064,20.432,13.3519,44.7179,-12.8914,-3.56011,-18.4512,-7.91751,-6.20059,-13.2197,36.8845,-3.88159,9.07604,-9.23243
0.334079,19.3962,2.76931,-3.68609,-3.17985,2.46016,6.82257,0.369045,-0.651767,1.08855,0.405784,-1.24476,-2.69718,0.203117,-0.953149,-9.4229,-0.864836,-8.04803,13.2325,-1.11928,8.0775,5.61749,-0.370489,3.79785,-1.19271e-14,-6.41081e-15,11.7906,-43.22,-19.0927,56.2969,-7.81093,-40.1791,-0.70833,7.12502,-13.1405,-30.2743,-1.19271e-14,-6.41081e-15,15.9778,27.6251,19.4589,69.9303,13.8974,-28.7428,26.5813,7.12502,-2.10328,56.5506,-12.3305,20.6777,13.4822,45.0746,-12.8107,-2.60677,-17.786,-7.48218,-7.02345,-13.1157,36.9344,-3.61931,9.21084,-9.12461
0.333042,19.3297,2.77109,-3.90839,-3.0389,2.62249,6.95405,0.334677,-0.935031,1.10181,0.335795,-1.28851,-2.75909,0.170743,-0.833777,-9.41041,-0.829609,-8.0039,13.1787,-1.07143,8.04344,5.59422,-0.347556,3.78222,-9.44538e-15,1.06847e-14,13.6002,-43.6016,-19.3112,57.5919,-8.27541,-40.1748,-1.20559,7.12502,-13.1363,-30.7718,-9.44538e-15,1.06847e-14,17.8528,28.646,19.6919,70.7753,14.1792,-28.7039,26.3537,7.12502,-2.06574,56.3234,-12.0475,20.8638,13.4803,45.5011,-12.3998,-1.68536,-18.0105,-7.03515,-7.89171,-13.1676,37.0271,-3.29656,8.77986,-9.56748
0.332881,19.2502,2.77303,-4.07213,-2.90054,2.82722,7.03351,0.298788,-1.21449,1.09648,0.262729,-1.37359,-2.81037,0.136791,-0.758432,-9.34369,-0.748347,-7.9524,12.9838,-0.963329,8.03839,5.51275,-0.293725,3.77676,2.66806e-15,-3.37934e-15,15.3943,-43.9115,-19.5853,58.9553,-8.53798,-40.2566,-1.70425,7.12502,-13.2151,-31.2654,2.66806e-15,-3.37934e-15,19.8112,29.6367,20.0538,71.6015,14.1363,-28.659,26.3273,7.12502,-2.02239,56.2975,-11.9022,21.068,13.3988,45.9713,-11.7227,-0.924899,-18.5891,-6.67649,-8.57069,-13.2381,37.1313,-2.63452,7.69243,-11.3136
0.331579,19.1592,2.77292,-4.19757,-2.73491,3.01673,7.11041,0.265278,-1.47599,1.02731,0.192306,-1.45995,-2.92562,0.104471,-0.694933,-9.13766,-0.662,-7.96364,12.8515,-0.864596,8.12543,5.42797,-0.243939,3.8108,1.09533e-14,0,17.1523,-44.1361,-19.8809,60.3041,-8.53647,-40.6641,-1.32825,7.12502,-13.6079,-30.8635,1.09533e-14,0,21.8755,30.5432,20.581,72.4958,14.0812,-28.5865,26.2317,7.12502,-1.95236,56.2026,-11.8796,21.3649,13.3388,46.4634,-10.7779,-0.448618,-18.9041,-6.41773,-9.11892,-13.2367,37.2323,-1.51555,6.15427,-12.778
0.328515,19.0622,2.77539,-4.36406,-2.57602,3.1445,7.2119,0.218034,-1.74394,0.972367,0.103787,-1.48753,-3.03963,0.0638326,-0.565276,-8.8865,-0.602974,-7.97138,12.7237,-0.79527,8.12957,5.33938,-0.21498,3.81518,5.37495e-15,2.09718e-14,19.0305,-44.272,-20.2364,61.6687,-8.51872,-40.8013,-0.974422,7.12502,-13.7401,-30.5008,5.37495e-15,2.09718e-14,23.8304,31.3338,21.0561,73.4633,14.2512,-28.8653,26.2978,7.12502,-2.2216,56.266,-11.7693,21.7835,13.4071,46.9381,-9.75058,-0.0921447,-19.0612,-6.09893,-9.69264,-13.1924,37.3464,-0.549418,4.31561,-14.7449
0.328278,18.9557,2.78084,-4.53258,-2.42689,3.21926,7.24967,0.165863,-1.90314,0.989331,0.020194,-1.51594,-3.043,0.0238811,-0.497195,-8.88626,-0.576508,-7.99649,12.6713,-0.757596,8.16176,5.32001,-0.195561,3.83153,6.37664e-15,6.36111e-15,20.9831,-44.4414,-20.6861,63.1754,-8.38043,-40.6172,-0.703969,7.12502,-13.5627,-30.2422,6.37664e-15,6.36111e-15,25.8761,32.0993,21.6179,74.4457,14.5043,-29.1328,26.3131,7.12502,-2.47994,56.2785,-11.6421,22.29,13.5553,47.4136,-8.60584,0.442045,-18.5506,-5.73179,-10.2876,-13.1505,37.5492,-0.655752,2.36488,-19.1652
0.330698,18.8322,2.78347,-4.57445,-2.23488,3.32135,7.20654,0.0990855,-2.0244,0.948476,-0.0802039,-1.58848,-3.0606,-0.0247562,-0.494288,-8.94078,-0.530354,-7.89233,12.5944,-0.696991,8.12214,5.30012,-0.162525,3.80479,6.04119e-15,6.95746e-15,22.8172,-44.5099,-21.0909,64.7732,-8.05641,-40.5528,-0.326627,7.12502,-13.5006,-29.869,6.04119e-15,6.95746e-15,27.8852,32.691,22.0539,75.4855,15.1719,-29.63,26.5169,7.12502,-2.96014,56.4761,-11.7212,22.8464,13.6186,47.9408,-7.89257,1.33387,-18.1543,-5.51068,-10.8599,-13.1504,37.8934,-2.39614,0.54323,-26.7915
0.332698,18.6925,2.78524,-4.59368,-2.10098,3.32806,7.14924,0.0442446,-2.02494,0.880707,-0.155475,-1.66077,-3.09842,-0.0620561,-0.561421,-8.91561,-0.510124,-7.76234,12.5116,-0.680687,8.08185,5.26846,-0.151567,3.76992,-9.10682e-15,6.36111e-15,24.4202,-44.4004,-21.2985,66.4131,-7.71356,-40.6263,-0.0466573,7.12502,-13.5714,-29.5843,-9.10682e-15,6.36111e-15,29.7874,33.0245,22.2168,76.4597,16.0617,-30.6221,26.7842,7.12502,-3.91818,56.7279,-11.7652,23.3931,13.8102,48.6023,-9.00094,2.4161,-21.4443,-5.32032,-11.2632,-13.0633,38.3347,-4.88266,-0.288248,-27.4607
0.330623,18.5451,2.78601,-4.70292,-2.04453,3.32191,7.17602,0.0035253,-2.13247,0.858704,-0.219607,-1.66157,-3.13544,-0.0923332,-0.495753,-8.7866,-0.48664,-7.80641,12.3621,-0.650632,8.12938,5.19785,-0.138241,3.79158,-1.54369e-15,-1.19271e-15,26.1828,-44.2782,-21.6101,68.161,-7.40921,-40.6125,-0.068214,7.12502,-13.5582,-29.6068,-1.54369e-15,-1.19271e-15,31.9111,33.5652,22.7769,77.3303,16.3626,-31.133,26.5876,7.12502,-4.41153,56.5216,-11.6034,23.8701,14.1028,49.4289,-11.7713,3.44967,-15.2889,-5.13954,-11.5145,-12.949,38.8548,-7.24904,-0.196308,-28.1356
0.329408,18.4016,2.78815,-4.85394,-1.9894,3.40852,7.25634,-0.0219521,-2.3246,0.850327,-0.272042,-1.66896,-3.18783,-0.11566,-0.390474,-8.64843,-0.465374,-7.9377,12.1989,-0.620037,8.24251,5.12169,-0.124556,3.84848,-1.18572e-14,-1.76918e-14,28.3402,-44.2963,-22.2764,69.8173,-6.86349,-40.7512,-0.174039,7.12502,-13.6918,-29.7036,-1.18572e-14,-1.76918e-14,34.1799,34.2071,23.6706,78.2547,16.2101,-31.2047,26.3257,7.12502,-4.48085,56.2583,-11.4052,24.2378,14.3021,50.4012,-14.6318,1.14397,-14.6003,-5.06037,-11.7416,-12.9127,39.4342,-9.50727,-0.65083,-30.4956
0.330192,18.2531,2.79041,-4.94391,-1.88346,3.46254,7.28678,-0.062443,-2.40054,0.831328,-0.334456,-1.69256,-3.22362,-0.145477,-0.366086,-8.57302,-0.425749,-8.05384,12.0224,-0.564824,8.38002,5.05,-0.0953034,3.91233,1.45346e-14,1.94809e-14,30.4837,-44.2541,-22.8847,71.3606,-5.9928,-40.9331,-0.0183387,7.12502,-13.8671,-29.536,1.45346e-14,1.94809e-14,36.4088,34.7238,24.497,79.2096,15.9856,-31.2438,26.3998,7.12502,-4.51852,56.3316,-11.315,24.5717,14.4943,51.4325,-16.673,-0.279675,-15.9675,-5.11728,-11.8503,-12.8216,40.0687,-11.7383,-1.87323,-31.5965
0.3309,18.0928,2.7893,-5.06173,-1.83227,3.45753,7.37502,-0.0965305,-2.38622,0.805827,-0.384047,-1.72998,-3.29919,-0.169792,-0.407728,-8.60769,-0.395571,-8.02908,11.9931,-0.527191,8.40886,5.04355,-0.0731903,3.91964,-2.0034e-14,-1.19271e-14,32.3681,-44.0262,-23.2251,72.856,-4.9511,-41.0651,0.37138,7.12502,-13.9943,-29.1376,-2.0034e-14,-1.19271e-14,38.5608,35.0874,25.1824,80.171,15.7578,-31.2911,26.5007,7.12502,-4.5642,56.4315,-11.2549,24.9897,14.7785,52.4473,-18.6849,-0.409739,-17.7501,-5.15534,-11.7679,-12.6936,40.7827,-13.9333,-2.57332,-29.1256
0.329847,17.9324,2.78796,-5.29169,-1.79022,3.64453,7.60862,-0.113434,-2.63622,0.783994,-0.438771,-1.77771,-3.45052,-0.192454,-0.310794,-8.55267,-0.382423,-8.04472,11.9799,-0.512564,8.4253,5.02883,-0.0668051,3.92793,1.41564e-14,3.91606e-14,34.2251,-43.6931,-23.4972,74.4149,-4.09268,-40.9824,0.917392,7.12502,-13.9146,-28.597,1.41564e-14,3.91606e-14,40.6218,35.3479,25.9377,81.1527,15.246,-31.2646,26.7221,7.12502,-4.53862,56.6535,-11.057,25.4002,14.9309,53.3966,-20.9883,-0.456682,-16.4137,-5.14565,-11.5311,-12.8509,41.6627,-16.13,-2.31264,-27.9487
0.328212,17.7785,2.78493,-5.50481,-1.69967,3.97719,7.86524,-0.142685,-3.06449,0.751235,-0.528532,-1.82918,-3.62366,-0.229147,-0.113646,-8.33129,-0.350125,-8.18855,11.7823,-0.468001,8.52608,4.92668,-0.0494208,3.98258,-1.01504e-14,0,36.0622,-43.2417,-23.7087,76.0627,-3.46216,-40.8674,1.51646,7.12502,-13.8038,-28.0056,-1.01504e-14,0,42.643,35.4891,26.7806,82.1024,14.6231,-31.4475,26.48,7.12502,-4.71526,56.4076,-10.9221,25.6879,14.8906,54.2957,-23.219,-1.34025,-14.459,-5.30677,-11.1566,-13.1862,42.7115,-18.1979,-2.22987,-27.0862
0.324038,17.6215,2.77271,-5.72988,-1.59705,4.04165,8.20857,-0.172926,-3.22222,0.755777,-0.598128,-1.81271,-3.80792,-0.258942,0.000898131,-8.1066,-0.388763,-8.32468,11.5,-0.508554,8.55682,4.80591,-0.077798,4.00688,-2.19921e-14,-4.13472e-14,37.7543,-42.8141,-23.8651,77.7776,-2.74484,-41.2991,2.454,7.12502,-14.2199,-27.0392,-2.19921e-14,-4.13472e-14,44.7199,35.5769,27.7312,83.1184,13.9899,-31.664,25.6216,7.12502,-4.92429,55.5444,-10.8294,25.8718,15.1808,55.1742,-25.1608,-2.57703,-14.2557,-5.61581,-10.7376,-13.2079,43.908,-20.05,-2.7258,-25.08
0.316006,17.4643,2.75794,-6.07479,-1.52272,3.97858,8.69283,-0.186503,-3.24293,0.802555,-0.639365,-1.80441,-4.0289,-0.276557,0.0281863,-7.95707,-0.41999,-8.39788,11.3333,-0.556461,8.65569,4.73391,-0.10142,4.0442,1.11816e-16,-1.33186e-14,39.2718,-42.4294,-24.0225,79.562,-1.91404,-41.3682,3.17614,7.12502,-14.2864,-26.3124,1.11816e-16,-1.33186e-14,46.7063,35.5612,28.5887,84.2033,13.2079,-31.8359,24.7944,7.12502,-5.09029,54.7133,-10.6228,25.9346,15.7129,56.0788,-27.1075,-3.64503,-14.7031,-5.88893,-10.2408,-13.1088,45.2656,-21.7053,-2.84165,-23.5532
0.30857,17.3226,2.7456,-6.49501,-1.41407,4.13519,9.27451,-0.231068,-3.46699,0.816094,-0.752989,-1.88564,-4.33589,-0.325583,0.0866872,-7.79263,-0.369508,-8.32837,11.2754,-0.511621,8.7008,4.68398,-0.0772016,4.04789,1.78394e-14,3.10104e-14,40.7564,-41.8636,-24.2482,81.3159,-1.21533,-41.0867,3.74441,7.12502,-14.0152,-25.7631,1.78394e-14,3.10104e-14,48.2693,35.4431,29.0339,85.3534,12.4246,-32.0937,24.1991,7.12502,-5.33917,54.1118,-10.3812,25.8526,16.0179,57.0235,-29.0154,-4.76931,-15.0587,-6.15725,-9.6255,-13.2844,46.7532,-23.2721,-2.1816,-23.0358
0.299563,17.1924,2.73,-6.8439,-1.32019,4.25174,9.80899,-0.266351,-3.65559,0.820176,-0.850332,-1.93956,-4.62631,-0.366464,0.152646,-7.75044,-0.343039,-8.24391,11.3029,-0.488818,8.68321,4.68299,-0.0644061,4.02974,5.3237e-15,-1.96797e-14,42.1415,-41.275,-24.3575,83.1092,-0.932043,-41.1775,4.38136,7.12502,-14.1027,-25.1201,5.3237e-15,-1.96797e-14,49.6565,35.2766,29.404,86.6006,11.7529,-32.4572,23.7325,7.12502,-5.69012,53.6361,-10.2752,25.754,16.3399,57.9987,-30.5756,-6.14585,-14.6906,-6.57534,-8.97509,-13.3896,48.3187,-24.6093,-1.60473,-22.0419
0.287188,17.0729,2.71095,-7.16984,-1.23799,4.17375,10.2968,-0.316726,-3.67935,0.854548,-0.942866,-1.90276,-4.85943,-0.408068,0.220909,-7.65538,-0.318713,-8.38782,11.253,-0.459759,8.82889,4.64901,-0.0495775,4.10051,4.82363e-15,-1.15295e-14,43.3996,-40.6694,-24.3008,84.9728,-1.04695,-41.1584,4.43054,7.12502,-14.0843,-25.0722,4.82363e-15,-1.15295e-14,50.795,35.0887,29.6341,87.8764,11.1481,-32.9927,23.294,7.12502,-6.20718,53.183,-10.218,25.6023,16.88,58.9547,-31.9307,-7.4737,-13.1139,-7.06848,-8.43561,-13.2613,49.8695,-25.6122,-1.37175,-21.7369
0.274082,16.9704,2.69401,-7.50494,-1.18377,4.18798,10.7764,-0.348271,-3.8282,0.873179,-1.02588,-1.87025,-5.10245,-0.441777,0.354701,-7.41278,-0.291629,-8.591,11.1457,-0.433043,9.01815,4.57263,-0.039095,4.1931,4.19311e-15,-1.49089e-14,44.4674,-39.9599,-24.0747,86.8338,-1.31453,-41.0731,4.68289,7.12502,-14.0021,-24.8255,4.19311e-15,-1.49089e-14,51.7228,34.8168,29.7347,89.0869,10.4069,-33.455,22.8709,7.12502,-6.65347,52.7464,-10.1881,25.3589,17.2757,59.848,-33.1665,-8.42946,-12.7494,-7.5358,-8.04882,-13.2561,51.3212,-26.4096,-1.00809,-22.4393
0.260797,16.8842,2.68147,-7.813,-1.30373,4.07877,11.1478,-0.32849,-3.83774,0.919639,-1.01644,-1.81569,-5.26026,-0.434181,0.419145,-7.13214,-0.311507,-8.53902,10.923,-0.465152,8.92892,4.46039,-0.0639914,4.14927,3.19919e-16,-6.55989e-15,45.3541,-39.2743,-23.7204,88.5791,-1.59361,-41.2825,5.40991,7.12502,-14.2038,-24.0845,3.19919e-16,-6.55989e-15,52.598,34.57,29.8272,90.2949,9.67172,-33.7475,22.4528,7.12502,-6.9358,52.3191,-10.2274,25.2088,17.8002,60.637,-34.1268,-9.20828,-14.0335,-7.9032,-7.70958,-13.0727,52.5917,-27.1264,-0.480177,-23.1538
0.248766,16.8084,2.67298,-8.06049,-1.59576,3.81276,11.3098,-0.265077,-3.6078,1.0175,-0.906454,-1.77743,-5.25417,-0.385827,0.314317,-6.9762,-0.343853,-8.40747,10.7074,-0.517152,8.86232,4.37318,-0.0914198,4.09929,-7.8023e-15,-9.34288e-15,45.9825,-38.6887,-23.314,90.2989,-1.93721,-41.6783,5.92831,7.12502,-14.5852,-23.5389,-7.8023e-15,-9.34288e-15,53.3342,34.2596,29.7388,91.5446,9.006,-34.3655,22.1593,7.12502,-7.53235,52.0052,-10.2508,25.1419,18.475,61.2837,-34.8846,-10.1797,-14.5599,-8.1183,-7.45602,-12.6763,53.5992,-27.7532,-0.3319,-22.9064
0.237174,16.7454,2.66822,-8.26735,-1.94163,3.84476,11.2478,-0.154757,-3.6609,1.18629,-0.760756,-1.84026,-5.04677,-0.318322,0.255394,-7.08097,-0.350211,-8.38887,10.6864,-0.535085,8.99918,4.38598,-0.0896018,4.13869,1.27005e-14,1.25234e-14,46.5357,-38.1911,-22.959,91.9443,-2.0613,-41.8766,5.85525,7.12502,-14.7763,-23.598,1.27005e-14,1.25234e-14,53.9381,33.9762,29.5485,92.7159,8.38217,-35.1362,21.8559,7.12502,-8.27623,51.6738,-10.1816,24.9764,18.7415,61.7413,-35.4152,-11.3795,-14.5906,-8.1212,-7.37514,-12.6421,54.2598,-28.3008,-0.476117,-22.5711
0.224563,16.7057,2.66801,-8.37022,-2.35741,4.07806,10.9867,-0.0119276,-3.88676,1.3253,-0.586641,-1.97791,-4.75996,-0.235109,0.211056,-7.06434,-0.368944,-8.33097,10.6535,-0.583308,9.14191,4.37729,-0.10349,4.17087,-3.06253e-15,1.33186e-14,47.0073,-37.6385,-22.6663,93.3894,-1.86992,-41.8855,5.87575,7.12502,-14.7849,-23.5769,-3.06253e-15,1.33186e-14,54.3515,33.6714,29.2238,93.7736,7.82614,-35.9034,21.8092,7.12502,-9.01656,51.5965,-10.2425,24.8091,18.665,62.0135,-35.8385,-12.0675,-15.1059,-7.97422,-7.3526,-12.8257,54.5134,-28.6515,-0.64092,-22.3955
0.21092,16.6908,2.67324,-8.41993,-2.83146,4.32314,10.6781,0.136484,-4.11805,1.37542,-0.403217,-2.09481,-4.54073,-0.14547,0.191614,-6.77286,-0.374601,-8.3362,10.5173,-0.618313,9.26982,4.28973,-0.120742,4.20683,-2.45685e-15,1.98785e-14,47.3891,-36.9649,-22.3326,94.5525,-1.52979,-41.8454,6.00688,7.12502,-14.7462,-23.4486,-2.45685e-15,1.98785e-14,54.4648,33.3047,28.739,94.6323,7.14591,-36.5327,22.111,7.12502,-9.62379,51.8712,-10.314,24.6612,18.497,62.0703,-36.1651,-12.3242,-15.0936,-7.65946,-7.39532,-13.0187,54.3813,-28.8719,-0.777332,-22.2654
0.194927,16.6924,2.68547,-8.50954,-3.40592,4.48132,10.4024,0.293339,-4.23237,1.35372,-0.197972,-2.20423,-4.4169,-0.0449055,0.112671,-6.54102,-0.345932,-8.39087,10.6544,-0.622496,9.48874,4.29203,-0.118152,4.28581,-5.10007e-15,-1.66979e-14,47.539,-36.161,-21.9216,95.4999,-1.23732,-42.0631,6.33437,7.12502,-14.956,-23.1056,-5.10007e-15,-1.66979e-14,54.3307,32.8267,28.0801,95.2721,6.38973,-37.1612,22.3034,7.12502,-10.2302,52.0346,-10.241,24.5147,18.3873,61.8993,-36.3617,-12.3455,-13.8411,-7.11903,-7.42083,-13.1169,53.9295,-28.935,-1.03892,-21.777
0.175829,16.7118,2.69831,-8.55075,-4.03013,4.38681,10.1987,0.413976,-4.06238,1.2306,-0.0153298,-2.27723,-4.43838,0.043299,-0.0841487,-6.42521,-0.319473,-8.41949,11.0619,-0.639705,9.69663,4.3968,-0.118106,4.36103,-9.3553e-15,-1.82882e-14,47.5175,-35.1987,-21.5786,96.1868,-0.881585,-42.5432,6.67452,7.12502,-15.4184,-22.7305,-9.3553e-15,-1.82882e-14,53.9461,32.2952,27.2374,95.7466,5.69793,-37.6787,22.2115,7.12502,-10.7293,51.9175,-10.1125,24.431,18.5494,61.5031,-36.3756,-12.1224,-12.6054,-6.53389,-7.36437,-12.9105,53.2738,-28.7585,-1.16799,-21.9722
0.156378,16.755,2.71562,-8.5181,-4.50633,4.49212,9.91223,0.520725,-4.13766,1.08023,0.123835,-2.38342,-4.44,0.113882,-0.171032,-6.41933,-0.334711,-8.31233,11.6447,-0.708159,9.69787,4.57834,-0.145631,4.34864,-2.5345e-15,1.98785e-15,47.2917,-34.2339,-21.1904,96.653,-0.312121,-43.1532,6.71813,7.12502,-16.0059,-22.6407,-2.5345e-15,1.98785e-15,53.3646,31.7329,26.2985,95.9604,5.15026,-38.0379,21.9636,7.12502,-11.0759,51.6513,-9.95532,24.3358,18.4104,60.9048,-36.231,-11.6293,-12.0814,-5.97167,-7.3776,-12.9901,52.4811,-28.3686,-1.07112,-22.8906
0.138715,16.8149,2.73362,-8.49816,-4.76827,4.84685,9.59177,0.590177,-4.4425,0.934109,0.187551,-2.58085,-4.41642,0.150168,-0.213265,-6.20165,-0.338016,-8.18674,12.0346,-0.772697,9.75442,4.66494,-0.172539,4.34697,1.06723e-14,-3.18055e-15,46.9235,-33.3133,-20.8471,96.8067,0.416306,-43.7949,7.02734,7.12502,-16.6238,-22.2807,1.06723e-14,-3.18055e-15,52.6602,31.1252,25.3039,96.0096,4.71266,-38.5003,22.4293,7.12502,-11.5218,52.0927,-9.70375,24.0767,17.8941,60.1281,-35.9189,-10.9871,-11.8452,-5.44201,-7.54428,-13.4474,51.6153,-27.7687,-0.780778,-23.2373
0.115402,16.8908,2.75107,-8.45991,-5.03477,4.99853,9.26195,0.647642,-4.59349,0.749973,0.254986,-2.71731,-4.42692,0.187086,-0.278506,-5.80664,-0.308261,-8.10811,12.4069,-0.809614,9.9038,4.71308,-0.186631,4.38337,-2.13818e-14,-3.97569e-15,46.3212,-32.3814,-20.5107,96.7428,1.13697,-43.9463,7.25675,7.12502,-16.7695,-22.039,-2.13818e-14,-3.97569e-15,51.7812,30.4341,24.3819,95.9904,4.05886,-38.5624,23.1539,7.12502,-11.5817,52.8138,-9.41083,23.8765,17.6018,59.1903,-35.3011,-10.2837,-11.4587,-4.9679,-7.62958,-13.6692,50.7279,-26.885,-0.385019,-23.1429
0.0874758,16.9879,2.77339,-8.42616,-5.32037,4.97489,8.94701,0.679816,-4.61308,0.548018,0.30377,-2.79743,-4.46302,0.213448,-0.356118,-5.57876,-0.275947,-8.02211,12.999,-0.840315,10.0005,4.85619,-0.194971,4.40698,1.52319e-14,1.47101e-14,45.5373,-31.4427,-20.178,96.5034,1.70845,-44.1918,7.08223,7.12502,-17.0058,-22.1934,1.52319e-14,1.47101e-14,50.6805,29.7751,23.4178,95.7846,3.40773,-38.3447,23.2365,7.12502,-11.3717,52.9081,-9.00875,23.741,17.5241,58.0994,-34.3089,-9.53056,-11.4454,-4.46176,-7.63404,-13.7037,49.8592,-25.7996,0.159103,-23.6589
0.0594474,17.104,2.79829,-8.38037,-5.50509,4.89462,8.60759,0.679433,-4.5462,0.396082,0.321958,-2.88327,-4.43118,0.221354,-0.482985,-5.49964,-0.304546,-7.94758,13.5305,-0.941988,10.1083,5.01372,-0.234071,4.4322,1.17034e-14,-7.55382e-14,44.5923,-30.6862,-19.8517,96.0036,2.14253,-44.466,7.16096,7.12502,-17.2698,-22.0917,1.17034e-14,-7.55382e-14,49.4901,29.2838,22.4119,95.4893,3.06767,-38.2098,23.0812,7.12502,-11.2416,52.76,-8.52207,23.54,17.4695,56.8834,-33.0858,-8.55302,-11.5368,-4.00692,-7.63442,-13.7155,49.0323,-24.5148,1.07277,-25.2017
0.0300203,17.2324,2.81575,-8.22871,-5.60191,4.6686,8.22887,0.648184,-4.40471,0.245317,0.312529,-2.8871,-4.3748,0.214552,-0.562127,-5.42015,-0.357113,-7.97404,13.9521,-1.06191,10.2334,5.14019,-0.286285,4.47739,-9.61621e-15,0,43.5428,-30.0658,-19.5609,95.3138,2.52895,-44.4445,7.32436,7.12502,-17.249,-21.9301,-9.61621e-15,0,48.1488,28.8482,21.4571,95.0873,2.79187,-38.1669,23.2899,7.12502,-11.2002,52.9709,-8.12575,23.3014,17.5242,55.5827,-31.7041,-7.45759,-11.8317,-3.74892,-7.67165,-13.5417,48.2317,-22.9743,1.94579,-26.809
2.96435e-05,17.3736,2.82986,-8.0138,-5.6918,4.27783,7.8632,0.591983,-4.17156,0.0813611,0.279196,-2.81578,-4.33839,0.195136,-0.612013,-5.29254,-0.371104,-7.88858,14.257,-1.11843,10.2258,5.21642,-0.311678,4.46227,1.49089e-15,5.96354e-15,42.3447,-29.565,-19.2892,94.5349,2.65534,-44.117,6.75952,7.12502,-16.9338,-22.5223,1.49089e-15,5.96354e-15,46.6071,28.399,20.5219,94.5065,2.42957,-38.1153,23.249,7.12502,-11.1504,52.9327,-7.80611,23.0765,17.735,54.2092,-30.0875,-6.23773,-11.4791,-3.60282,-7.77615,-13.1587,47.417,-21.2609,2.45246,-27.2562
-0.0283104,17.5267,2.84681,-7.87776,-5.69124,3.98919,7.6058,0.539099,-4.00377,-0.0388581,0.235161,-2.80818,-4.31715,0.170724,-0.691471,-5.13743,-0.369494,-7.76493,14.4196,-1.1573,10.2721,5.24242,-0.324374,4.45624,-2.17669e-14,1.35174e-14,40.8597,-29.286,-18.9762,93.5931,2.70875,-43.697,5.67378,7.12502,-16.5295,-23.6422,-2.17669e-14,1.35174e-14,45.0308,27.9981,19.6466,93.8247,2.21138,-38.0691,23.1552,7.12502,-11.1059,52.8413,-7.38495,22.6847,17.8155,52.7889,-28.2897,-5.04162,-10.924,-3.35858,-8.00061,-12.9559,46.5359,-19.3905,2.99869,-27.5971
-0.0552096,17.6885,2.86614,-7.7282,-5.5918,3.90099,7.28114,0.498199,-3.9871,-0.0953086,0.196351,-2.89158,-4.19228,0.149259,-0.780363,-5.34026,-0.440722,-7.70134,14.7864,-1.29514,10.4092,5.40332,-0.371878,4.48943,9.83984e-15,-2.62396e-14,39.2248,-29.2421,-18.7093,92.4896,2.77948,-43.64,4.8547,7.12502,-16.4746,-24.4658,9.83984e-15,-2.62396e-14,43.4809,27.758,18.8496,93.0919,2.21775,-37.7315,23.7326,7.12502,-10.7803,53.436,-6.9444,22.1426,17.6213,51.3197,-26.4135,-3.82241,-10.5348,-3.12692,-8.23744,-13.0108,45.5863,-17.3199,3.68666,-28.6465
-0.0823083,17.8597,2.88564,-7.53074,-5.56123,3.7858,6.80186,0.499978,-4.00776,-0.0763319,0.227931,-2.90254,-3.90327,0.161698,-0.778266,-5.69951,-0.555568,-7.74604,15.1547,-1.46959,10.5251,5.59701,-0.439729,4.5327,-2.127e-14,7.95139e-15,37.5954,-29.4126,-18.4661,91.1552,2.67447,-43.7937,4.97542,7.12502,-16.6226,-24.3328,-2.127e-14,7.95139e-15,41.8215,27.6334,18.1619,92.2527,2.6271,-37.3331,24.1315,7.12502,-10.396,53.8545,-6.56376,21.648,17.4518,49.8058,-24.3242,-2.65464,-10.6029,-2.9231,-8.42413,-13.0023,44.5614,-15.2062,4.25378,-28.827
-0.109068,18.0338,2.90025,-7.27009,-5.57098,3.3439,6.36206,0.487869,-3.79938,-0.0850623,0.261377,-2.73942,-3.66466,0.173393,-0.72451,-5.87192,-0.6338,-7.92971,15.2991,-1.5786,10.6767,5.68396,-0.487345,4.61016,1.98288e-14,-1.82882e-14,35.9399,-29.643,-18.1624,89.5836,2.30212,-43.7686,4.8562,7.12502,-16.5984,-24.454,1.98288e-14,-1.82882e-14,39.852,27.4553,17.5067,91.4209,3.35064,-37.1493,24.2918,7.12502,-10.2186,54.0236,-6.24868,21.1432,17.6548,48.2574,-21.9712,-1.61485,-10.6377,-2.78843,-8.67409,-12.623,43.5005,-12.9596,4.81911,-26.9114
-0.13337,18.2086,2.91287,-7.07195,-5.51545,2.94257,6.10575,0.470953,-3.61226,-0.17426,0.269436,-2.5932,-3.61252,0.175554,-0.676874,-5.84464,-0.703992,-8.03302,15.3998,-1.68399,10.7536,5.72179,-0.539368,4.64811,1.52567e-14,-1.03368e-14,34.0669,-29.769,-17.7862,87.8977,1.52847,-43.6092,4.52051,7.12502,-16.445,-24.8025,1.52567e-14,-1.03368e-14,37.7365,27.1547,16.8886,90.5818,4.18235,-36.9568,24.9347,7.12502,-10.033,54.6755,-5.88888,20.5375,17.7786,46.6999,-19.4901,-0.481471,-10.2147,-2.62416,-8.97108,-12.3355,42.4332,-10.6056,5.43755,-24.2367
-0.155257,18.3874,2.92883,-6.91576,-5.45932,2.62119,5.84769,0.464518,-3.43936,-0.228817,0.288857,-2.49976,-3.52342,0.182474,-0.676692,-5.81972,-0.79926,-8.01028,15.4822,-1.81433,10.681,5.75587,-0.606623,4.61357,-1.25234e-14,1.66979e-14,32.1788,-29.9969,-17.5253,86.0582,0.53755,-43.4117,3.65305,7.12502,-16.2548,-25.6856,-1.25234e-14,1.66979e-14,35.5741,26.9181,16.2987,89.734,5.26506,-36.3212,25.8114,7.12502,-9.41977,55.5809,-5.56507,19.9719,17.7762,45.1689,-16.8495,0.745115,-8.77192,-2.44835,-9.28168,-12.1825,41.3898,-8.25204,6.18509,-22.4338
-0.17653,18.5578,2.94322,-6.71413,-5.43281,2.26944,5.53941,0.445787,-3.2495,-0.239623,0.296742,-2.39072,-3.36048,0.182578,-0.668041,-5.94276,-0.861099,-8.0161,15.598,-1.89514,10.6534,5.8216,-0.644047,4.60292,-2.78795e-14,1.35174e-14,30.4432,-30.3693,-17.5085,84.0807,-0.584714,-43.3027,2.79616,7.12502,-16.1499,-26.551,-2.78795e-14,1.35174e-14,33.3217,26.7436,15.6909,88.7937,6.55339,-35.6639,26.4002,7.12502,-8.78545,56.1973,-5.29772,19.3733,17.8124,43.6865,-14.104,1.73535,-7.99217,-2.35145,-9.61648,-11.9916,40.3909,-6.06581,7.06995,-19.4219
-0.195545,18.7163,2.95306,-6.47999,-5.3897,2.0581,5.27878,0.460746,-3.17809,-0.301039,0.334918,-2.3152,-3.27774,0.200662,-0.631233,-6.05129,-0.898074,-8.0127,15.7206,-1.94234,10.6163,5.88347,-0.665466,4.58985,2.03754e-15,2.38542e-15,28.5372,-30.7893,-17.3778,82.058,-1.99957,-43.2121,2.58322,7.12502,-16.0627,-26.771,2.03754e-15,2.38542e-15,31.1327,26.4556,15.2935,87.7609,7.8432,-35.2843,26.6154,7.12502,-8.4191,56.4276,-5.05775,18.6492,17.6903,42.2755,-11.4283,2.56765,-9.20509,-2.32375,-9.94469,-11.9762,39.4398,-3.92165,8.21227,-15.8928
-0.211949,18.8738,2.96398,-6.17435,-5.38287,1.71062,4.99535,0.485096,-2.94052,-0.403243,0.395941,-2.20545,-3.22348,0.228123,-0.653878,-6.18309,-0.900077,-8.01418,15.8794,-1.95424,10.6577,5.95746,-0.663557,4.60656,4.12478e-15,2.22639e-14,26.4817,-31.2065,-17.1727,80.0444,-3.43384,-43.2132,1.7507,7.12502,-16.0637,-27.6034,4.12478e-15,2.22639e-14,28.9158,26.0409,14.9345,86.6288,9.39978,-35.0759,26.7601,7.12502,-8.21804,56.5802,-4.9716,18.043,17.6692,40.9182,-8.73177,3.31756,-9.80333,-2.39153,-10.1495,-11.8265,38.5578,-2.07011,9.50972,-13.8986
-0.227008,19.0266,2.97658,-5.86593,-5.39119,1.41597,4.70357,0.503498,-2.76118,-0.493503,0.44498,-2.0945,-3.15225,0.25041,-0.641361,-6.48532,-0.93034,-8.08282,16.1641,-1.99975,10.7274,6.10515,-0.674409,4.64506,2.98177e-15,-2.46493e-14,24.4844,-31.599,-16.9606,77.9669,-4.7966,-43.2144,0.289253,7.12502,-16.0649,-29.0648,2.98177e-15,-2.46493e-14,26.6532,25.6991,14.6921,85.4196,11.1303,-34.8188,27.1064,7.12502,-7.96988,56.9361,-5.05258,17.5519,17.5478,39.645,-5.89528,3.72804,-9.28901,-2.47877,-10.2035,-11.7358,37.7596,-1.13653,10.7274,-12.8489
-0.240065,19.1648,2.98911,-5.65914,-5.43225,1.20166,4.48439,0.524583,-2.62572,-0.528182,0.491999,-2.0041,-3.06456,0.271861,-0.625366,-6.74525,-0.94183,-8.10388,16.3343,-2.01183,10.7486,6.20601,-0.671607,4.6594,2.13694e-15,-8.74653e-15,22.6511,-32.0423,-16.8089,75.6833,-5.89357,-43.0933,-0.891194,7.12502,-15.9482,-30.2546,2.13694e-15,-8.74653e-15,24.4269,25.5235,14.6993,84.2096,12.8621,-34.5023,27.1647,7.12502,-7.66445,57.0058,-5.07125,17.141,17.3661,38.4355,-3.18205,3.92821,-9.43863,-2.47287,-10.1658,-11.744,37.0841,-1.20679,11.5915,-12.7052
-0.252662,19.292,2.99479,-5.43786,-5.4454,1.04237,4.30125,0.520185,-2.54661,-0.533064,0.500296,-1.92629,-2.96647,0.27469,-0.58812,-7.04453,-0.913646,-8.10098,16.4457,-1.96339,10.7582,6.28919,-0.638202,4.66917,-2.3556e-14,2.94201e-14,20.8459,-32.5306,-16.6892,73.4706,-6.95149,-43.2338,-1.51354,7.12502,-16.0835,-30.8661,-2.3556e-14,2.94201e-14,22.154,25.4218,14.5932,82.8637,14.5378,-34.0695,27.3228,7.12502,-7.24661,57.1787,-5.12502,16.9058,17.1573,37.3266,-1.13182,4.02467,-11.2056,-2.5705,-9.95557,-11.7925,36.547,-2.08622,11.4116,-13.8008
-0.266746,19.4131,2.99379,-5.10544,-5.39755,0.948819,4.14355,0.501451,-2.53563,-0.624102,0.48058,-1.89095,-2.97166,0.265503,-0.555688,-7.34552,-0.893681,-8.20174,16.6083,-1.94066,10.9159,6.39291,-0.612129,4.74545,3.42904e-15,1.66979e-14,18.8277,-32.9429,-16.4793,71.4375,-7.94462,-43.2203,-1.6356,7.12502,-16.0705,-30.9892,3.42904e-15,1.66979e-14,19.8618,25.2409,14.3634,81.4244,15.796,-33.1929,27.881,7.12502,-6.4004,57.7643,-5.34916,16.7985,16.8641,36.33,0.312967,3.86672,-13.8912,-2.89276,-9.65895,-11.8902,36.1252,-3.68448,10.4113,-13.7766
-0.278991,19.5244,2.99636,-4.83527,-5.43141,0.915733,4.04368,0.529936,-2.54057,-0.711377,0.520583,-1.86053,-3.00619,0.286469,-0.524006,-7.61969,-0.895415,-8.25258,16.7413,-1.93462,10.9586,6.48367,-0.600543,4.77329,-4.47266e-15,7.95139e-15,16.7009,-33.3199,-16.1837,69.533,-8.68934,-42.833,-1.51611,7.12502,-15.6975,-30.8994,-4.47266e-15,7.95139e-15,17.5276,24.9861,14.2665,80.003,17.0022,-32.5398,28.1404,7.12502,-5.76987,58.0419,-5.53828,16.801,16.5413,35.4963,1.24191,3.53347,-16.4577,-3.15029,-9.27987,-12.0955,35.7884,-4.96311,9.37724,-12.3773
-0.28711,19.6226,3.0062,-4.65224,-5.53332,1.01656,3.8689,0.579937,-2.57503,-0.684131,0.592606,-1.88826,-2.88052,0.321612,-0.535685,-7.89634,-0.857908,-8.05091,16.6495,-1.84559,10.7188,6.49256,-0.556244,4.66491,2.56432e-14,-3.02153e-14,14.6109,-33.7877,-15.9617,67.7437,-9.31888,-42.6529,-1.60382,7.12502,-15.5241,-31.0006,2.56432e-14,-3.02153e-14,15.1531,24.7698,14.1809,78.6113,18.1965,-32.4107,28.4959,7.12502,-5.64527,58.4007,-5.67339,16.8622,16.1029,34.8893,1.5469,2.97013,-17.0721,-3.295,-8.88509,-12.5174,35.5016,-5.86924,8.41125,-11.0555
-0.296122,19.7061,3.01261,-4.46374,-5.59809,1.08437,3.75418,0.581024,-2.54895,-0.681153,0.599306,-1.91569,-2.81238,0.323782,-0.577523,-8.04516,-0.769923,-7.99142,16.4073,-1.68642,10.6087,6.42572,-0.48152,4.62555,7.85199e-15,-4.77083e-15,12.5794,-34.2048,-15.8871,66.1489,-9.93169,-42.6684,-2.05276,7.12502,-15.539,-31.4484,7.85199e-15,-4.77083e-15,12.6904,24.5942,14.0569,77.2167,19.0126,-32.2496,28.804,7.12502,-5.48976,58.7129,-5.85496,17.0501,15.7603,34.5315,0.945128,1.97391,-15.9126,-3.50852,-8.3219,-12.8504,35.2656,-7.10945,6.95291,-12.8567
-0.308492,19.7763,3.00972,-4.27472,-5.62135,1.11674,3.81626,0.555977,-2.54448,-0.720083,0.562197,-1.92236,-2.88702,0.305888,-0.585684,-8.30385,-0.754549,-8.07965,16.309,-1.62673,10.6009,6.43535,-0.452418,4.64185,1.27719e-14,-1.11319e-14,10.4645,-34.4437,-15.7663,64.6888,-10.3632,-42.6969,-2.25409,7.12502,-15.5665,-31.6476,1.27719e-14,-1.11319e-14,10.1924,24.4285,14.0106,75.7865,19.3536,-32.365,29.0816,7.12502,-5.60119,58.9876,-6.10053,17.3992,15.5251,34.4395,-0.442143,0.549291,-13.3287,-3.81009,-7.64561,-13.0929,35.0941,-7.26724,6.27296,-16.1128
-0.320292,19.8327,3.00401,-4.13942,-5.63501,1.17268,3.90452,0.548381,-2.54628,-0.688561,0.549126,-1.93035,-2.90402,0.299299,-0.592785,-8.71484,-0.801041,-8.1275,16.2702,-1.63458,10.4889,6.49728,-0.457284,4.61376,6.01324e-15,-6.36111e-15,8.22278,-34.624,-15.5136,63.3694,-10.7107,-42.4463,-2.10601,7.12502,-15.3251,-31.5182,6.01324e-15,-6.36111e-15,7.70679,24.3083,14.0642,74.3374,19.3787,-32.0129,29.0973,7.12502,-5.26116,59.012,-6.34046,17.8908,15.2975,34.5546,-2.33898,-1.3165,-11.5218,-4.09592,-6.92658,-13.3844,35.0007,-7.28323,5.09069,-18.5379
-0.330161,19.8759,2.99465,-3.98697,-5.68874,1.24454,3.98643,0.585057,-2.51427,-0.636257,0.597225,-1.95394,-2.89599,0.322206,-0.638538,-9.02389,-0.828048,-8.10898,16.0606,-1.60989,10.3161,6.48316,-0.450741,4.5522,2.68359e-15,7.95139e-16,5.83418,-34.8742,-15.2271,62.2568,-11.0225,-42.2986,-2.39443,7.12502,-15.1828,-31.8174,2.68359e-15,7.95139e-16,5.40632,24.2554,14.2934,72.823,19.419,-30.775,28.3784,7.12502,-4.06588,58.3194,-6.70906,18.3727,15.0102,34.8,-4.41918,-3.57329,-13.0013,-4.41313,-6.14926,-13.714,34.965,-7.10256,3.76473,-19.7132
-0.340185,19.9101,2.9869,-3.85986,-5.76481,1.33025,4.11713,0.616727,-2.4774,-0.606953,0.635658,-1.9974,-2.93872,0.340501,-0.707788,-9.22086,-0.794431,-8.06269,15.8026,-1.51901,10.1923,6.42708,-0.409829,4.50593,5.19325e-15,0,3.33061,-34.9679,-15.0268,61.3756,-11.3512,-42.1683,-2.503,7.12502,-15.0573,-31.9354,5.19325e-15,0,3.17438,24.3046,14.6743,71.3161,19.5741,-30.1361,27.3277,7.12502,-3.4489,57.2795,-7.07923,18.8664,14.6998,35.1001,-6.10178,-5.85236,-14.3968,-4.70697,-5.36049,-14.0695,34.985,-6.88293,2.5536,-20.4399
-0.349067,19.9355,2.98029,-3.84243,-5.79507,1.44909,4.36586,0.636292,-2.43183,-0.560043,0.653425,-2.06882,-3.02908,0.34831,-0.810856,-9.3933,-0.7623,-7.98155,15.5594,-1.44295,10.0907,6.37281,-0.372885,4.46028,1.26477e-14,-1.19271e-14,0.741487,-34.8459,-14.8302,60.6687,-11.8555,-41.8814,-2.17374,7.12502,-14.7809,-31.6267,1.26477e-14,-1.19271e-14,0.929542,24.3351,15.0967,69.864,19.7318,-30.304,26.3921,7.12502,-3.61105,56.3412,-7.32431,19.2076,14.3765,35.4419,-7.21389,-7.82605,-13.5556,-4.89488,-4.62566,-14.5101,35.0573,-6.66669,1.49135,-21.0863
-0.356245,19.9479,2.96727,-3.90638,-5.80648,1.50463,4.79405,0.680487,-2.27367,-0.492067,0.70447,-2.1327,-3.19728,0.371094,-0.974234,-9.6465,-0.810044,-7.93962,15.366,-1.46378,9.95736,6.35826,-0.385433,4.40477,5.66536e-15,3.81667e-14,-1.93704,-34.6855,-14.601,60.0935,-12.4964,-41.6981,-1.92445,7.12502,-14.6043,-31.3902,5.66536e-15,3.81667e-14,-1.22122,24.2841,15.6281,68.3724,19.731,-30.3033,25.5612,7.12502,-3.61031,55.5103,-7.50931,19.4616,14.1519,35.845,-8.07388,-9.4764,-11.3771,-5.04318,-3.87956,-14.898,35.1919,-6.35093,0.477227,-21.7009
-0.362516,19.9521,2.95267,-3.91435,-5.82465,1.38374,5.20673,0.708086,-1.93539,-0.413412,0.749717,-2.11519,-3.34384,0.388195,-1.15454,-9.88463,-0.818173,-7.88334,15.0492,-1.39922,9.66235,6.29327,-0.369265,4.29811,-6.31141e-15,-1.43125e-14,-4.49139,-34.6151,-14.5332,59.6135,-13.129,-41.423,-1.65834,7.12502,-14.3393,-31.1431,-6.31141e-15,-1.43125e-14,-3.32694,24.2896,16.3324,66.8197,19.4344,-30.2429,25.0792,7.12502,-3.55206,55.0293,-7.73498,19.5986,14.1021,36.299,-8.73751,-10.7963,-9.68367,-5.32304,-3.19645,-15.0913,35.4263,-5.90801,-0.541209,-21.3041
-0.366642,19.942,2.93892,-3.95561,-5.74527,1.32429,5.56107,0.684197,-1.65816,-0.300815,0.728179,-2.09054,-3.42353,0.372775,-1.28688,-10.0046,-0.772329,-7.69559,14.6134,-1.25446,9.17971,6.16168,-0.324291,4.11196,8.44835e-16,-1.35174e-14,-6.88402,-34.537,-14.6415,59.121,-13.7753,-41.0373,-1.60269,7.12502,-13.9676,-31.1135,8.44835e-16,-1.35174e-14,-5.31749,24.5541,17.1929,65.1854,19.286,-30.8002,24.7342,7.12502,-4.09018,54.6747,-7.84329,19.5418,13.9909,36.7913,-9.38653,-11.9473,-8.1078,-5.63469,-2.55384,-15.3653,35.7797,-5.50623,-1.62948,-20.889
-0.370285,19.918,2.92473,-3.99242,-5.59519,1.17702,5.9129,0.634132,-1.32485,-0.148336,0.680376,-2.01953,-3.46086,0.343696,-1.39991,-10.3352,-0.806512,-7.65227,14.3596,-1.21925,8.84765,6.13573,-0.323501,3.99619,-3.97569e-15,-2.06736e-14,-9.15297,-34.4624,-14.8401,58.6195,-14.4449,-40.9245,-1.52183,7.12502,-13.8589,-31.0401,-3.97569e-15,-2.06736e-14,-7.12263,25.1582,18.2655,63.469,19.1995,-31.7903,24.8086,7.12502,-5.04621,54.7285,-7.92842,19.4304,13.991,37.2812,-9.87517,-13.2736,-6.49544,-5.96823,-1.89192,-15.5566,36.2617,-5.17765,-2.67188,-21.0172
-0.373866,19.8861,2.90879,-3.92026,-5.49877,0.950603,6.23235,0.581554,-0.970217,-0.0259036,0.635203,-1.89021,-3.51171,0.316227,-1.46455,-10.834,-0.848272,-7.78239,14.2134,-1.18936,8.70066,6.1746,-0.316848,3.97267,1.52195e-14,-1.19271e-14,-11.304,-34.3183,-15.141,58.2323,-15.1786,-40.6943,-1.63594,7.12502,-13.6371,-31.1692,1.52195e-14,-1.19271e-14,-9.03401,25.7548,19.3364,61.7461,18.9646,-31.8693,24.9682,7.12502,-5.12255,54.8862,-8.21669,19.2994,14.0412,37.7774,-9.89054,-14.7246,-6.02852,-6.4487,-1.26536,-15.6781,36.8457,-4.83914,-3.48696,-21.7928
-0.378572,19.8393,2.89403,-3.86631,-5.51523,0.575552,6.57129,0.564359,-0.45948,0.0586084,0.651229,-1.73853,-3.61017,0.316559,-1.60009,-11.0867,-0.838992,-7.83882,13.93,-1.11065,8.55155,6.12254,-0.288055,3.93643,-2.2736e-15,-1.07344e-14,-13.4289,-34.2021,-15.5767,57.8174,-15.8279,-40.4681,-1.30742,7.12502,-13.419,-30.8552,-2.2736e-15,-1.07344e-14,-11.0283,26.1031,20.2967,60.1499,18.938,-31.0256,24.8162,7.12502,-4.30788,54.7524,-8.48111,19.1813,14.2742,38.2739,-9.62405,-15.9702,-4.51155,-6.95174,-0.607233,-15.6291,37.5168,-4.45595,-4.18127,-23.282
-0.385629,19.7793,2.87729,-3.86208,-5.48861,0.258529,6.94386,0.527085,-0.0189903,0.154944,0.637403,-1.61665,-3.71637,0.302834,-1.72458,-11.2501,-0.828583,-7.85796,13.5928,-1.04238,8.41168,6.03888,-0.263327,3.89482,4.50061e-15,1.23246e-14,-15.4336,-34.1006,-16.2178,57.3561,-16.463,-40.4487,-0.864996,7.12502,-13.4003,-30.414,4.50061e-15,1.23246e-14,-12.9613,26.4111,21.2079,58.5258,19.0635,-30.6733,24.5948,7.12502,-3.96769,54.5376,-8.71889,19.11,14.47,38.8183,-9.28148,-17.0913,-2.15758,-7.45193,0.013409,-15.6395,38.2282,-3.99759,-4.86886,-24.0057
-0.392279,19.7087,2.8594,-3.84944,-5.32258,0.137632,7.24554,0.436064,0.180035,0.281463,0.534665,-1.53252,-3.75648,0.249275,-1.74173,-11.4084,-0.796806,-7.80329,13.2162,-0.944807,8.18972,5.9391,-0.226705,3.81623,8.87775e-15,-2.0276e-14,-17.3105,-33.9723,-16.9892,56.948,-17.0397,-40.3969,-1.20665,7.12502,-13.3504,-30.759,8.87775e-15,-2.0276e-14,-14.8801,26.8527,22.1696,56.9274,19.1621,-30.8848,24.7479,7.12502,-4.17187,54.6868,-8.9605,18.9786,14.4299,39.43,-9.02906,-18.0192,-0.405414,-7.98944,0.539512,-15.8955,39.0015,-3.52868,-5.44983,-24.3379
-0.401644,19.6218,2.83965,-3.86954,-5.15776,0.0841364,7.53941,0.348132,0.208933,0.447384,0.424103,-1.42462,-3.75321,0.195405,-1.63652,-11.5832,-0.723302,-7.75729,12.7772,-0.788246,7.98119,5.81801,-0.160174,3.74782,-6.25551e-15,2.66371e-14,-19.0562,-34.0058,-17.8132,56.4814,-17.2137,-40.0618,-1.50289,7.12502,-13.0274,-31.0761,-6.25551e-15,2.66371e-14,-16.7121,27.4406,23.2446,55.344,19.5421,-31.2328,25.0393,7.12502,-4.50791,54.9713,-9.18902,18.9007,14.3409,40.1262,-8.71534,-18.6136,0.857535,-8.5074,1.06153,-16.2218,39.8136,-2.99701,-5.93117,-24.7175
-0.414914,19.5197,2.81748,-3.76668,-4.99658,-0.242878,7.794,0.265936,0.432169,0.570328,0.342345,-1.21453,-3.77063,0.153152,-1.53726,-11.6941,-0.668698,-7.76823,12.2417,-0.662569,7.86561,5.65925,-0.105203,3.71482,4.36084e-15,2.06736e-14,-20.7512,-34.0236,-18.6965,55.993,-17.5002,-39.9386,-1.34539,7.12502,-12.9086,-30.9261,4.36084e-15,2.06736e-14,-18.4556,27.873,24.414,53.7934,20.3621,-31.5981,25.2044,7.12502,-4.86066,55.1286,-9.56754,18.8469,14.5316,40.8811,-8.38719,-18.9716,1.59669,-9.20892,1.53833,-16.2293,40.6653,-2.28234,-6.32451,-24.8689
-0.427863,19.406,2.80117,-3.67578,-4.83394,-0.520591,7.93752,0.168921,0.597478,0.717978,0.236523,-1.01294,-3.70108,0.100522,-1.41012,-11.7688,-0.635239,-7.62431,11.746,-0.574912,7.57955,5.50978,-0.0743615,3.59896,3.19298e-15,-4.77083e-15,-22.2488,-33.9877,-19.7815,55.5362,-18.2835,-40.072,-1.43188,7.12502,-13.0372,-31.0045,3.19298e-15,-4.77083e-15,-20.3461,27.962,25.5141,52.4691,21.9422,-31.8347,25.324,7.12502,-5.08912,55.2429,-9.92389,18.8143,14.6577,41.7001,-8.27262,-19.0349,1.75947,-9.89919,1.90642,-16.2925,41.5322,-1.34233,-6.52144,-24.6331
-0.43964,19.2811,2.7862,-3.67175,-4.69451,-0.619828,8.13344,0.0881761,0.660886,0.873237,0.139181,-0.92257,-3.65246,0.0528164,-1.34189,-11.8248,-0.637929,-7.42734,11.3286,-0.555621,7.3167,5.38725,-0.0731393,3.47808,2.85753e-15,3.18055e-15,-23.7622,-33.9994,-20.9983,55.1084,-19.06,-40.3551,-1.66926,7.12502,-13.3101,-31.2242,2.85753e-15,3.18055e-15,-22.1349,28.0752,26.623,51.2812,23.9215,-31.9826,25.6658,7.12502,-5.23193,55.5812,-10.2005,18.861,14.6163,42.5635,-8.14645,-18.875,1.96379,-10.5243,2.15895,-16.5691,42.4456,-0.242879,-6.59617,-24.6471
-0.453632,19.1433,2.76501,-3.63907,-4.63526,-0.840932,8.42563,0.0247299,0.779062,0.980136,0.0719021,-0.791978,-3.70667,0.0186817,-1.26646,-11.7421,-0.610806,-7.32463,10.7647,-0.507314,7.22943,5.19436,-0.0516019,3.42907,7.4917e-15,-6.36111e-15,-25.2153,-34.1397,-22.2743,54.6517,-19.2496,-39.8693,-1.84342,7.12502,-12.8418,-31.4284,7.4917e-15,-6.36111e-15,-23.7601,28.4937,27.7634,50.0204,25.6717,-31.6475,25.8635,7.12502,-4.90838,55.7866,-10.5493,19.0547,14.724,43.4348,-7.72806,-18.6148,2.11281,-11.2371,2.47756,-16.6865,43.487,0.78559,-6.90782,-23.8924
-0.470506,18.9906,2.74136,-3.5071,-4.58146,-1.16627,8.63004,-0.0421701,0.926185,1.0602,0.00581934,-0.593632,-3.73948,-0.0148124,-1.13652,-11.7296,-0.506287,-7.22153,10.2629,-0.349356,7.11524,5.0248,0.0228506,3.38135,-6.00081e-15,4.77083e-15,-26.5535,-34.3581,-23.5609,54.1563,-19.1148,-39.1254,-2.20923,7.12502,-12.1246,-31.8379,-6.00081e-15,4.77083e-15,-25.3705,28.9376,28.9497,48.8214,27.3165,-31.1854,26.119,7.12502,-4.4622,56.052,-11.0799,19.2825,14.9196,44.2903,-7.08829,-18.2469,1.50832,-12.0297,2.95267,-16.6721,44.7528,0.9762,-8.00144,-10.914
-0.487403,18.8308,2.72314,-3.42037,-4.48054,-1.40386,8.77836,-0.121953,0.956915,1.20128,-0.0888938,-0.405839,-3.67801,-0.0601138,-0.948122,-11.9274,-0.415835,-7.09786,9.9109,-0.205708,6.98689,4.93836,0.0934697,3.32795,5.03174e-15,8.34896e-15,-27.7313,-34.5475,-25.0074,53.7168,-19.4318,-39.1179,-2.73782,7.12502,-12.1173,-32.3669,5.03174e-15,8.34896e-15,-27.0204,29.1395,30.2244,47.894,29.1471,-31.1194,26.4793,7.12502,-4.39846,56.4136,-11.5843,19.5133,15.0158,45.1603,-6.93354,-17.7166,-0.903987,-12.6883,3.51136,-16.7375,46.321,-1.38965,-10.3111,1.98126
-0.504744,18.668,2.70918,-3.41722,-4.42072,-1.42991,8.94881,-0.155133,0.742572,1.34579,-0.14739,-0.275464,-3.62351,-0.0848072,-0.685445,-11.9461,-0.355179,-6.90619,9.47581,-0.113874,6.78159,4.80056,0.13338,3.23318,-2.70596e-14,-2.18663e-15,-28.8524,-34.8054,-26.5267,53.2783,-19.9157,-39.1827,-2.89977,7.12502,-12.1798,-32.5252,-2.70596e-14,-2.18663e-15,-28.72,29.167,31.5819,47.229,30.8641,-31.2839,26.9277,7.12502,-4.5573,56.8586,-11.925,19.8098,14.9038,46.1079,-7.99867,-17.285,-6.34221,-13.275,4.02062,-16.9772,48.1411,-5.35716,-9.54231,-5.20651
-0.523525,18.4772,2.68805,-3.42662,-4.36894,-1.53186,9.21782,-0.175781,0.670752,1.41076,-0.176128,-0.17413,-3.70578,-0.0977424,-0.536262,-11.7379,-0.316447,-6.66201,9.01952,-0.0733509,6.567,4.62271,0.145876,3.12187,2.67117e-15,-3.57812e-15,-30.1417,-34.893,-27.9712,52.8782,-20.3149,-38.7243,-3.02669,7.12502,-11.7378,-32.6778,2.67117e-15,-3.57812e-15,-30.4416,28.9686,32.9364,46.6689,32.1874,-31.046,27.3721,7.12502,-4.32758,57.3079,-12.1839,20.0741,14.8788,47.1844,-10.5872,-17.1541,-13.3781,-13.9326,4.23949,-17.0897,50.0807,-9.30533,-5.86944,-18.1126
-0.545076,18.265,2.66255,-3.4624,-4.32931,-1.73185,9.52689,-0.19656,0.676307,1.50303,-0.196604,-0.0588508,-3.78175,-0.107404,-0.416828,-11.6853,-0.30407,-6.4656,8.68455,-0.068941,6.46821,4.51085,0.148341,3.05503,-2.8948e-15,-2.78299e-15,-31.3851,-34.7616,-29.5595,52.5997,-21.2452,-38.9531,-3.19082,7.12502,-11.9585,-32.8292,-2.8948e-15,-2.78299e-15,-31.9675,28.8124,34.4059,46.0967,33.071,-30.5492,27.671,7.12502,-3.84786,57.616,-12.4077,20.225,15.0119,48.4272,-13.8727,-16.8636,-17.9733,-14.5631,4.32693,-17.0531,51.9429,-11.8974,-6.21892,-14.4011
-0.569263,18.0664,2.63979,-3.51897,-4.36714,-1.86208,9.81528,-0.192135,0.487054,1.69431,-0.203937,0.06762,-3.74212,-0.107656,-0.17776,-11.8718,-0.259189,-6.39851,8.3502,-0.00737627,6.5639,4.43501,0.189911,3.07612,2.00897e-14,-1.19271e-15,-32.2942,-34.8375,-31.4368,52.3628,-22.6707,-40.0544,-3.41505,7.12502,-13.0202,-32.9887,2.00897e-14,-1.19271e-15,-33.1796,28.901,36.0503,45.4296,33.7939,-30.4708,27.7662,7.12502,-3.77213,57.7126,-12.6825,20.4131,15.1103,49.7732,-17.0295,-16.2412,-18.5119,-15.1933,4.40896,-17.0108,53.5973,-14.3804,-8.14172,-9.90132
-0.597235,17.8761,2.61665,-3.61436,-4.42838,-1.76252,10.1995,-0.141318,0.0339866,1.87464,-0.18202,0.110548,-3.76605,-0.0912943,0.119802,-11.9338,-0.219305,-6.39033,7.82616,0.0434833,6.79649,4.2814,0.230281,3.14623,2.11209e-15,-1.72943e-14,-33.2158,-35.1648,-33.3259,52.112,-23.7457,-40.4292,-3.59445,7.12502,-13.3815,-33.1447,2.11209e-15,-1.72943e-14,-34.1703,28.9892,37.7954,44.7594,34.4758,-30.6901,28.1159,7.12502,-3.98383,58.0584,-13.1043,20.7031,14.9573,51.1736,-19.8979,-15.5626,-19.2702,-15.776,4.37804,-17.147,54.99,-16.7243,-7.81839,-7.51127
-0.62887,17.6824,2.59656,-3.81904,-4.52476,-1.48813,10.6821,-0.0711418,-0.591457,2.00044,-0.160354,0.0847853,-3.90066,-0.0734699,0.443612,-11.8375,-0.200389,-6.38365,7.39095,0.0574798,7.01572,4.13179,0.248292,3.20958,4.09993e-15,2.18663e-15,-34.2296,-35.4854,-35.2022,51.8467,-24.3665,-39.9974,-3.8232,7.12502,-12.9653,-33.4004,4.09993e-15,2.18663e-15,-35.2108,29.0408,39.4672,44.1165,35.123,-30.8901,28.46,7.12502,-4.17704,58.3988,-13.448,21.07,14.632,52.5937,-22.2121,-15.2133,-22.4543,-16.1223,4.31622,-17.4408,56.2228,-19.4795,-6.97023,-7.22998
-0.663831,17.4845,2.57859,-4.10224,-4.62046,-1.17746,11.196,-0.0129832,-1.29093,2.15818,-0.170125,0.0538408,-4.01807,-0.07043,0.808355,-11.7812,-0.195701,-6.3218,7.02039,0.0574712,7.10329,4.00975,0.253545,3.2227,-4.72114e-16,5.96354e-15,-35.0353,-35.7647,-37.2768,51.5371,-25.2906,-40.0571,-4.55792,7.12502,-13.0228,-34.1314,-4.72114e-16,5.96354e-15,-36.2449,29.1691,41.1476,43.5609,35.8286,-30.859,28.7232,7.12502,-4.14701,58.6626,-13.6548,21.4257,14.3329,54.0257,-24.5822,-15.1087,-23.0299,-16.3508,4.2793,-17.7063,57.4775,-21.9132,-7.15196,-6.10438
-0.703035,17.2789,2.55373,-4.41672,-4.73006,-0.876224,11.7996,0.0840638,-1.99419,2.333,-0.138607,0.0106709,-4.16734,-0.0468335,1.157,-11.723,-0.213875,-6.21746,6.53973,0.0313371,7.12797,3.85596,0.242869,3.20656,1.86361e-15,-1.98785e-15,-35.7518,-36.2052,-39.4073,51.1735,-26.4271,-39.8816,-5.36633,7.12502,-12.8537,-34.9505,1.86361e-15,-1.98785e-15,-37.1249,29.228,42.967,43.1698,36.6607,-31.231,29.5056,7.12502,-4.50622,59.4377,-13.9722,21.7575,14.0617,55.5113,-26.6169,-14.8996,-23.098,-16.6537,4.24514,-17.8874,58.8759,-23.5888,-8.87013,-1.73279
-0.74373,17.0769,2.52305,-4.67476,-4.91261,-0.476341,12.4091,0.235206,-2.75615,2.46361,-0.0551599,-0.0809086,-4.36785,0.00411456,1.47984,-11.6875,-0.209325,-6.10528,6.05624,0.0382911,7.13224,3.70298,0.247516,3.18533,2.08724e-15,1.39149e-14,-36.4487,-36.6148,-41.5657,50.7324,-27.3755,-38.8452,-5.92339,7.12502,-11.8544,-35.5678,2.08724e-15,1.39149e-14,-37.8992,29.4174,44.7915,42.8209,37.2886,-32.0481,30.5786,7.12502,-5.29514,60.4924,-14.5569,22.0445,13.6201,57.0715,-28.5042,-14.4872,-22.8695,-17.131,4.31875,-18.1703,60.4406,-25.2477,-9.70303,0.371824
-0.783948,16.8891,2.49462,-4.88604,-5.17539,-0.0404262,12.9729,0.410361,-3.5205,2.52529,0.0489484,-0.189447,-4.6176,0.0675273,1.78152,-11.4406,-0.194283,-6.11505,5.52125,0.0636562,7.21537,3.49911,0.258176,3.20808,-1.31198e-14,-1.27222e-14,-37.1118,-36.7635,-43.8531,50.2624,-28.3412,-38.2068,-6.30073,7.12502,-11.2388,-35.9797,-1.31198e-14,-1.27222e-14,-38.7163,29.6843,46.5197,42.4619,37.8502,-32.1466,31.2798,7.12502,-5.3903,61.1913,-15.2983,22.3071,13.1153,58.7128,-30.1936,-14.4261,-22.7856,-17.742,4.54998,-18.5112,62.1333,-27.0887,-9.21758,-0.32154
-0.824305,16.717,2.46681,-5.0613,-5.43229,0.468588,13.4808,0.571587,-4.3458,2.54957,0.114518,-0.352905,-4.87498,0.114529,2.06475,-11.0793,-0.170752,-6.03916,4.95896,0.0878523,7.25145,3.26907,0.265195,3.20135,-4.42296e-15,0,-37.669,-36.8209,-46.2852,49.6296,-29.2849,-37.664,-6.53741,7.12502,-10.7152,-36.2442,-4.42296e-15,0,-39.5472,29.9513,48.1151,42.1333,38.571,-31.878,31.7134,7.12502,-5.1309,61.6312,-16.1656,22.5341,12.541,60.439,-31.6274,-14.5599,-23.2382,-18.4933,4.8402,-18.939,63.9243,-28.4875,-9.09075,-0.184623
-0.861322,16.5557,2.44095,-5.25448,-5.4892,0.971736,13.9506,0.654627,-5.08512,2.60366,0.0807309,-0.543561,-5.07308,0.110948,2.28723,-10.8818,-0.150111,-5.81736,4.51265,0.101943,7.14332,3.10167,0.266248,3.12783,3.72721e-15,-7.95139e-15,-37.9963,-36.7031,-48.8769,48.812,-30.383,-36.9259,-6.91245,7.12502,-10.0032,-36.6547,3.72721e-15,-7.95139e-15,-40.1956,30.2581,49.6768,41.6738,39.2861,-31.4979,32.0063,7.12502,-4.76396,61.9328,-16.9829,22.5189,12.0263,62.2124,-32.8914,-14.5971,-23.5053,-19.3395,5.04286,-19.3905,65.8309,-29.4221,-9.53256,0.00669457
-0.894021,16.3973,2.41391,-5.37961,-5.54008,1.0092,14.3278,0.667006,-5.23322,2.71158,0.0488261,-0.635553,-5.16282,0.0969323,2.27971,-10.9296,-0.128455,-5.59234,4.22838,0.123017,7.01213,3.02244,0.274493,3.05007,3.08116e-15,-5.1684e-15,-37.9716,-36.4374,-51.6048,47.7534,-31.6091,-36.3476,-7.54707,7.12502,-9.44517,-37.3154,3.08116e-15,-5.1684e-15,-40.5888,30.7882,51.2268,41.0957,40.1042,-30.4826,32.3179,7.12502,-3.78352,62.2641,-17.7798,22.327,12.0513,63.9405,-34.1159,-14.5093,-23.0247,-20.3523,5.30349,-19.3185,67.8948,-30.2958,-9.49549,-0.256667
-0.921828,16.2441,2.37828,-5.3495,-5.79809,0.710314,14.5916,0.699394,-5.00656,2.80829,0.112401,-0.627455,-5.20952,0.123828,2.14853,-11.0954,-0.0708571,-5.43938,4.06378,0.200994,6.89352,2.9946,0.312658,2.99282,-5.96354e-15,5.96354e-15,-37.6475,-36.2854,-54.2745,46.283,-32.45,-35.6655,-8.46918,7.12502,-8.78702,-38.2663,-5.96354e-15,5.96354e-15,-40.8248,31.4342,52.7775,40.4223,40.7622,-28.7827,32.4679,7.12502,-2.14187,62.4369,-18.7964,22.098,12.3826,65.5715,-35.1786,-14.7672,-22.6032,-21.5764,5.76691,-18.8842,70.0098,-31.1637,-8.7019,-1.12298
-0.940571,16.1105,2.34999,-5.36743,-6.26951,0.226797,14.8555,0.778386,-4.51995,2.8709,0.280043,-0.581239,-5.29846,0.199423,1.89029,-11.2293,-0.0290375,-5.34725,4.08326,0.251276,6.85478,3.01899,0.33981,2.96969,4.32357e-15,3.57812e-15,-37.244,-35.7992,-56.8922,44.5237,-33.0136,-34.8343,-8.93244,7.12502,-7.98486,-38.7616,4.32357e-15,3.57812e-15,-41.0146,32.067,54.1161,39.4211,40.8793,-27.1269,32.4935,7.12502,-0.542608,62.4725,-19.7139,21.9291,12.9562,66.9849,-35.9926,-15.3687,-22.5607,-22.5925,6.3168,-18.2667,71.9751,-31.9454,-8.11526,-2.69506
-0.949516,15.9945,2.33779,-5.5441,-6.95211,-0.0983566,15.0239,0.930715,-4.04083,3.02201,0.547772,-0.614189,-5.24372,0.319532,1.53295,-11.3315,-0.0336028,-5.31827,4.03746,0.245507,6.87849,3.02209,0.339996,2.97229,1.83876e-15,9.14409e-15,-36.6014,-35.1136,-59.5606,42.5598,-33.2532,-34.3417,-9.09881,7.12502,-7.5094,-38.9455,1.83876e-15,9.14409e-15,-40.9509,32.7309,55.3763,38.2251,41.0619,-26.4355,32.8883,7.12502,0.125117,62.868,-20.3756,21.8137,13.4111,68.1828,-36.7981,-15.9449,-23.0748,-23.1645,6.91034,-17.8253,73.6633,-32.633,-8.11737,-3.50587
-0.959331,15.8944,2.32758,-5.71152,-7.49678,-0.375971,15.0995,1.05346,-3.65585,3.21528,0.770142,-0.611233,-5.08808,0.417805,1.27629,-11.3696,-0.0177341,-5.2495,3.83779,0.275458,6.75299,2.9661,0.350101,2.92302,-7.7526e-15,-9.14409e-15,-35.8549,-33.8638,-62.272,40.8077,-33.5979,-33.9205,-9.35193,7.12502,-7.10287,-39.2127,-7.7526e-15,-9.14409e-15,-40.7659,33.5322,56.584,37.0591,41.2074,-26.5851,33.6467,7.12502,-0.0193693,63.6265,-20.8344,21.5128,13.8423,69.1415,-37.7825,-16.4778,-23.4346,-23.584,7.29146,-17.415,75.047,-33.1735,-8.14509,-3.21533
-0.975001,15.8082,2.31102,-5.84509,-7.76757,-0.637335,15.2488,1.11847,-3.4349,3.31724,0.890629,-0.522518,-5.06553,0.472631,1.22086,-11.266,0.00896126,-5.38958,3.39183,0.356012,6.48338,3.13225,0.357599,3.18049,7.05686e-15,-1.11319e-14,-35.2496,-32.1394,-64.7355,39.3173,-34.2746,-33.6956,-9.3222,7.12502,-6.88577,-39.1902,7.05686e-15,-1.11319e-14,-40.704,34.4073,57.5698,35.8172,40.6577,-26.7471,33.9841,7.12502,-0.175814,63.9637,-21.1594,20.9802,14.2606,69.9144,-38.6109,-16.9478,-23.4012,-23.9851,7.39686,-17.0017,76.1267,-33.606,-7.86179,-3.81461
-0.98557,15.7466,2.29931,-6.14618,-7.9757,-0.68139,15.4972,1.20113,-3.36687,3.46759,1.00307,-0.502043,-5.04543,0.524571,1.18017,-11.396,0.0106831,-5.47128,3.64877,0.356517,6.7263,2.90772,0.385262,2.95442,-1.7344e-14,-1.94809e-14,-34.5353,-31.1006,-66.7235,37.672,-34.4728,-32.8813,-8.42185,7.12502,-6.09963,-38.314,-1.7344e-14,-1.94809e-14,-40.4606,35.2845,58.4454,34.4179,39.8028,-25.6862,34.3324,7.12502,0.848775,64.3105,-21.1889,20.496,14.4123,70.5055,-39.2285,-17.0807,-23.2889,-23.9764,7.33005,-16.8742,76.8145,-34.0177,-7.58418,-4.72332
-0.989461,15.7093,2.29391,-6.49371,-8.20476,-0.610321,15.838,1.29971,-3.28335,3.58074,1.1293,-0.566584,-5.11291,0.584281,1.03571,-11.5103,-0.0234887,-5.50238,3.70802,0.3205,6.68808,2.94603,0.36735,2.9469,-1.87355e-14,3.97569e-15,-33.803,-31.4102,-67.966,35.6443,-33.0143,-31.0053,-7.5976,7.12502,-4.28821,-37.5342,-1.87355e-14,3.97569e-15,-40.0645,35.8735,59.3179,32.9776,39.4024,-24.5236,32.7415,7.12502,1.97167,62.7121,-21.1549,20.2799,14.3374,70.9295,-39.4992,-16.7589,-23.249,-23.6802,7.19671,-16.9388,77.1233,-34.4327,-7.43249,-5.04795
-0.988692,15.6887,2.29217,-6.73473,-8.38594,-0.448236,16.0615,1.39927,-3.2705,3.61393,1.24901,-0.63267,-5.20185,0.64291,0.93086,-11.4154,-0.0567798,-5.50022,3.40933,0.302532,6.2903,3.16964,0.323614,3.13374,-1.99779e-14,1.19271e-14,-33.145,-32.6416,-68.4925,33.4936,-30.6863,-29.3179,-7.41279,7.12502,-2.65875,-37.376,-1.99779e-14,1.19271e-14,-39.0521,34.8106,61.5861,34.5723,46.6958,-32.8061,39.1266,7.12502,-6.02705,69.0209,-21.2284,20.2015,14.0332,71.1791,-39.4485,-16.0799,-23.1968,-23.3794,6.91271,-17.1866,77.1339,-34.7777,-7.16179,-4.53292
-0.987013,15.6892,2.29949,-6.91512,-8.50421,-0.119233,16.0577,1.50118,-3.47122,3.60687,1.34658,-0.686413,-5.21424,0.693107,0.967436,-11.301,-0.0422689,-5.51539,3.46355,0.328296,6.1214,3.16288,0.327727,3.07791,2.22639e-14,-1.03368e-14,-32.6903,-33.613,-68.7858,31.9182,-29.1476,-28.9225,-7.35024,7.12502,-2.27687,-37.3178,2.22639e-14,-1.03368e-14,-38.7128,35.316,62.2114,34.056,47.1527,-26.7065,34.9371,7.12502,-0.136589,64.9168,-21.1879,20.0627,13.5153,71.171,-39.1925,-15.6262,-23.5073,-23.0001,6.56755,-17.6795,76.8603,-35.0893,-6.51612,-5.09784
-0.983439,15.7081,2.31039,-7.02725,-8.63339,0.161519,15.9945,1.59988,-3.66964,3.56658,1.44556,-0.690469,-5.23154,0.744766,1.05565,-11.3623,-0.008145,-5.56796,3.68432,0.38408,6.0115,3.24682,0.35058,3.05857,1.44119e-15,-1.66979e-14,-32.42,-34.0667,-69.0026,31.1398,-28.6926,-29.0239,-7.20532,7.12502,-2.37477,-37.1718,1.44119e-15,-1.66979e-14,-38.3322,35.8506,62.7036,33.5911,47.4757,-23.7801,33.788,7.12502,2.68974,63.7508,-21.0467,19.8334,13.0605,70.9257,-38.907,-15.2374,-23.9634,-22.6238,6.25979,-18.1492,76.4008,-35.2738,-5.86144,-5.77108
-0.97613,15.7473,2.32221,-7.10477,-8.6964,0.200844,15.9855,1.64763,-3.58444,3.52745,1.5256,-0.634686,-5.27151,0.78425,1.04975,-11.5976,-0.00433404,-5.5477,4.27623,0.378882,6.06549,3.12723,0.370284,2.77049,-1.27719e-14,-5.96354e-15,-32.1773,-34.9226,-68.7885,30.5427,-28.0517,-27.6521,-7.93607,7.12502,-1.04987,-37.9132,-1.27719e-14,-5.96354e-15,-37.893,36.0949,63.2043,33.4929,47.9692,-24.9979,35.0077,7.12502,1.51356,64.9821,-20.7353,19.5008,12.9263,70.4513,-38.6988,-14.7875,-23.8574,-22.2237,5.91075,-18.366,75.8197,-35.26,-5.39341,-5.31159
-0.967428,15.8062,2.33285,-7.03703,-8.65434,0.134942,15.8355,1.63687,-3.36804,3.44706,1.55654,-0.572358,-5.27365,0.798284,0.989225,-11.7303,0.00940125,-5.5345,4.59933,0.39785,5.96345,3.24517,0.377382,2.74119,2.14687e-14,0,-31.9728,-35.4414,-68.4763,30.3293,-28.0741,-29.3003,-7.16214,7.12502,-2.64177,-37.1255,2.14687e-14,0,-37.4619,36.1311,63.5737,33.6484,48.6944,-29.4535,37.8586,7.12502,-2.78964,67.8201,-20.4597,19.0632,12.9077,69.7741,-38.3811,-14.4975,-23.3638,-21.9179,5.57885,-18.4901,75.1252,-35.1947,-4.92398,-4.95961
-0.960656,15.88,2.34208,-6.79887,-8.58926,-0.174052,15.539,1.60692,-2.98293,3.31616,1.59976,-0.419058,-5.24847,0.816945,0.929634,-11.7158,0.0498637,-5.45037,4.76659,0.442868,5.83285,3.29109,0.394958,2.69107,-5.71506e-15,1.43125e-14,-31.9149,-35.5399,-68.0583,30.6548,-28.7483,-30.1679,-7.63089,7.12502,-3.47956,-37.5822,-5.71506e-15,1.43125e-14,-37.0905,36.5653,63.4443,33.7519,48.2002,-28.5938,38.2892,7.12502,-1.95942,68.2599,-20.2535,18.62,13.1563,68.8853,-37.85,-14.1011,-22.6252,-21.7408,5.35923,-18.3338,74.3335,-34.9556,-4.29637,-5.26952
-0.95303,15.9757,2.35758,-6.61292,-8.45446,-0.546594,15.254,1.5439,-2.60237,3.19068,1.60001,-0.200914,-5.22323,0.814682,0.949332,-11.8062,0.102223,-5.40563,5.07617,0.510548,5.70008,3.3958,0.424232,2.64989,1.63997e-15,-1.19271e-15,-31.8827,-35.7289,-67.3126,31.1284,-29.2524,-31.0616,-7.83162,7.12502,-4.34258,-37.7671,1.63997e-15,-1.19271e-15,-36.5678,36.2564,63.7143,34.4373,49.7553,-26.5843,35.5247,7.12502,-0.0185815,65.5044,-19.8134,18.2183,13.5522,67.7991,-37.2081,-13.7283,-21.7417,-21.4128,5.10354,-18.0845,73.3624,-34.4758,-3.60642,-6.24469
-0.941405,16.0977,2.38076,-6.48823,-8.24126,-0.664017,14.9749,1.47742,-2.46305,3.04071,1.55154,-0.0471529,-5.22928,0.791882,1.04605,-11.888,0.163101,-5.5102,5.50546,0.593323,5.76093,3.53413,0.467095,2.69478,1.34428e-14,-1.98785e-15,-31.8351,-36.1341,-66.2469,31.5363,-29.757,-32.3802,-7.8344,7.12502,-5.61578,-37.74,1.34428e-14,-1.98785e-15,-36.2772,36.0904,63.5088,35.1101,50,-29.3741,37.8735,7.12502,-2.71302,67.836,-19.1779,17.8036,13.7096,66.5689,-36.4379,-13.5726,-21.3695,-20.8834,4.69988,-18.1397,72.1316,-33.7964,-3.04813,-6.99123
-0.925153,16.2363,2.40716,-6.31673,-8.19513,-0.588715,14.5401,1.46606,-2.39943,2.91507,1.56129,-0.00594536,-5.12505,0.796903,1.05892,-11.9153,0.193071,-5.69723,5.7911,0.631407,6.03526,3.62196,0.496197,2.81512,2.18912e-14,6.95746e-15,-31.7279,-36.5056,-65.0849,31.9806,-30.001,-33.137,-7.7547,7.12502,-6.34647,-37.6396,2.18912e-14,6.95746e-15,-35.8635,35.6984,63.2,35.9143,50.5599,-25.8709,35.0736,7.12502,0.670452,65.0523,-18.6386,17.5317,13.6274,65.2573,-35.3197,-13.7002,-21.5358,-20.2883,4.36799,-18.3856,70.705,-32.9677,-2.96046,-6.18252
-0.906465,16.3867,2.42592,-6.04873,-8.41235,-0.502832,14.0514,1.50273,-2.35872,2.77548,1.63072,0.0209495,-5.00776,0.831438,1.05971,-11.9656,0.219935,-5.69536,6.04716,0.653222,6.12128,3.70651,0.512298,2.84559,6.53505e-15,-4.77083e-15,-31.4814,-36.5374,-63.9713,32.5515,-29.9353,-32.9969,-7.5157,7.12502,-6.21126,-37.4046,6.53505e-15,-4.77083e-15,-35.2852,35.6342,62.5489,36.4224,50.7077,-28.896,36.8846,7.12502,-2.25129,66.8524,-18.3873,17.602,13.4831,63.9357,-33.9032,-13.694,-21.2281,-19.7662,4.22134,-18.5684,69.1761,-31.7454,-3.33089,-4.39783
-0.887699,16.546,2.43612,-5.69402,-8.61931,-0.652225,13.594,1.50742,-2.16305,2.6337,1.68413,0.147179,-4.90719,0.856637,1.08024,-12.0925,0.2602,-5.59894,6.31265,0.697017,6.02838,3.80583,0.533156,2.80745,1.58531e-14,-1.25234e-14,-31.0005,-36.1959,-62.9611,33.2962,-30.2225,-33.2693,-7.70682,7.12502,-6.47422,-37.5879,1.58531e-14,-1.25234e-14,-34.525,35.6997,61.808,36.7684,50.5482,-28.9446,35.4237,7.12502,-2.29822,65.391,-18.1861,17.7847,13.6073,62.5833,-32.1586,-13.5013,-20.282,-19.3576,4.16604,-18.4307,67.6175,-30.2365,-3.34992,-4.58238
-0.866033,16.7197,2.45157,-5.38069,-8.82928,-0.956125,13.1883,1.50765,-1.72739,2.48584,1.7622,0.284714,-4.83464,0.890815,0.972088,-12.0781,0.280169,-5.6053,6.46735,0.715302,6.06681,3.84941,0.543933,2.82297,1.66731e-14,5.1684e-15,-30.5277,-36.1225,-61.7124,33.9473,-30.1345,-33.5654,-8.02223,7.12502,-6.76007,-37.8943,1.66731e-14,5.1684e-15,-33.898,35.1863,61.0577,37.4904,50.7926,-28.9506,35.1058,7.12502,-2.30404,65.0731,-17.8139,18.0284,13.9445,61.1681,-30.1465,-13.3641,-19.6009,-18.8582,4.15987,-18.0743,65.9781,-28.5191,-3.4381,-5.05074
-0.83951,16.9258,2.47735,-5.16918,-9.03082,-0.929293,12.7983,1.52837,-1.53405,2.3007,1.82431,0.30173,-4.81148,0.920354,0.876728,-11.9563,0.297596,-5.62792,6.6607,0.72552,6.11348,3.8877,0.549245,2.84267,-1.51573e-15,3.97569e-16,-30.1529,-36.3843,-60.1737,34.4285,-29.571,-33.6567,-8.01275,7.12502,-6.84816,-37.882,-1.51573e-15,3.97569e-16,-33.4879,34.5275,60.0366,38.3424,50.939,-28.832,34.8023,7.12502,-2.18948,64.7708,-17.4183,18.3035,13.8917,59.7006,-28.0408,-13.4659,-20.056,-18.1605,4.06602,-18.0663,64.1856,-26.6216,-3.88463,-4.64248
-0.811198,17.1491,2.50082,-5.00809,-9.13349,-0.579115,12.3937,1.50406,-1.65006,2.14195,1.77919,0.209725,-4.75448,0.900601,0.860629,-11.8748,0.353874,-5.54803,6.95842,0.778376,6.06776,3.96247,0.573823,2.82118,-1.13059e-15,1.09332e-14,-29.5784,-36.7495,-58.6815,34.8078,-28.8727,-33.5558,-7.38623,7.12502,-6.75081,-37.2586,-1.13059e-15,1.09332e-14,-33.0232,34.1467,58.755,39.0627,50.8819,-28.852,34.5777,7.12502,-2.20874,64.546,-17.1563,18.4838,13.4591,58.2235,-25.4741,-13.8718,-22.3485,-17.4019,3.89113,-18.4055,62.2969,-24.4237,-4.33048,-4.96124
-0.788635,17.3465,2.51295,-4.79221,-9.32493,-0.51753,11.9737,1.4851,-1.53655,2.03725,1.77644,0.20719,-4.62891,0.898012,0.802934,-11.758,0.400131,-5.46446,7.1197,0.823925,5.98682,3.99052,0.592435,2.78599,-1.60022e-14,7.95139e-15,-28.8306,-36.8496,-57.3244,35.3341,-28.228,-33.3109,-7.04178,7.12502,-6.51439,-36.9216,-1.60022e-14,7.95139e-15,-32.3738,33.7674,57.4837,39.7628,50.9542,-29.201,34.3657,7.12502,-2.54582,64.3303,-16.6694,18.9287,13.3249,56.7868,-23.4328,-13.2726,-22.7991,-16.8346,3.90103,-18.3338,60.507,-21.829,-4.79542,-6.05358
-0.769102,17.5548,2.52435,-4.45703,-9.52199,-0.629322,11.539,1.46671,-1.32017,1.88375,1.79074,0.293117,-4.54596,0.903412,0.776661,-11.6405,0.408938,-5.55563,7.23734,0.844059,5.95436,4.00567,0.5963,2.79224,3.66509e-15,4.87022e-15,-28.1132,-36.8031,-55.9046,36.0191,-27.6666,-33.2844,-6.82472,7.12502,-6.48881,-36.7053,3.66509e-15,4.87022e-15,-31.7485,33.3625,56.1757,40.5278,51.1254,-29.5585,33.8495,7.12502,-2.89104,63.8097,-16.4621,19.4067,13.3683,55.3409,-20.8164,-13.1764,-23.2832,-16.4107,3.99432,-18.0234,58.7241,-19.0201,-5.2757,-7.16986
-0.747806,17.7745,2.54161,-4.21807,-9.54313,-0.493641,11.1279,1.37923,-1.27364,1.75881,1.68451,0.250391,-4.44374,0.850729,0.729811,-11.7222,0.44601,-5.55792,7.57328,0.887997,5.94388,4.11901,0.618282,2.79658,-1.17345e-14,-1.15295e-14,-27.2671,-36.8451,-54.6064,36.6922,-27.1378,-33.443,-6.75573,7.12502,-6.64191,-36.6316,-1.17345e-14,-1.15295e-14,-31.1265,32.8747,54.6549,41.3358,51.3254,-29.7985,33.4129,7.12502,-3.12284,63.3697,-16.2056,19.7817,13.1105,53.8553,-18.1657,-13.0673,-22.9686,-15.8998,4.06687,-17.9863,56.9452,-16.1718,-5.70351,-8.25186
-0.727139,17.9957,2.56048,-3.99641,-9.49082,-0.382788,10.7001,1.26068,-1.16404,1.66089,1.54266,0.175582,-4.30046,0.778908,0.619008,-11.78,0.509619,-5.54418,7.87578,0.957575,6.00572,4.21659,0.657251,2.82216,6.1499e-15,6.16232e-15,-26.3287,-37.0406,-53.3387,37.3485,-26.5354,-33.784,-6.71781,7.12502,-6.97111,-36.583,6.1499e-15,6.16232e-15,-30.3791,32.373,53.0363,42.078,51.523,-30.0264,33.2973,7.12502,-3.34291,63.2508,-15.8991,20.0919,12.8827,52.3217,-15.392,-12.8989,-22.1135,-15.4017,4.11413,-17.8751,55.1245,-13.1008,-6.31742,-7.96209
-0.709187,18.2107,2.57487,-3.71353,-9.4506,-0.368802,10.2757,1.1567,-1.01328,1.50835,1.42625,0.155866,-4.21732,0.719835,0.536763,-11.569,0.564798,-5.59361,7.98663,1.01891,6.07442,4.21146,0.68699,2.85488,1.3213e-14,4.57205e-15,-25.398,-36.9988,-51.9951,38.0305,-26.0685,-34.305,-6.69276,7.12502,-7.474,-36.5407,1.3213e-14,4.57205e-15,-29.6387,31.916,51.3423,42.7564,51.667,-29.9418,33.0103,7.12502,-3.26124,62.9651,-15.6994,20.4097,12.7557,50.7734,-12.4275,-12.7579,-20.0482,-15.0213,4.15531,-17.5973,53.2733,-9.66933,-7.03552,-7.22172
-0.692296,18.4144,2.58479,-3.50077,-9.31946,-0.248235,9.91988,1.0578,-0.98739,1.39905,1.30093,0.131397,-4.13,0.657825,0.519216,-11.3969,0.559587,-5.59017,8.03275,1.0153,5.94311,4.19817,0.675192,2.812,1.59183e-14,1.04362e-15,-24.4561,-36.7002,-50.6255,38.8423,-25.6888,-34.6432,-6.59958,7.12502,-7.80045,-36.4357,1.59183e-14,1.04362e-15,-28.7831,31.5001,49.6921,43.4051,51.7364,-29.7606,32.5288,7.12502,-3.08627,62.4862,-15.4467,20.5779,12.5321,49.2738,-9.53705,-12.712,-16.5371,-14.6216,4.15905,-17.4122,51.4212,-6.05534,-7.6855,-8.06523
-0.676459,18.6129,2.59728,-3.30882,-9.09388,0.0278966,9.55198,0.942183,-1.11454,1.33097,1.13486,0.0452002,-3.99393,0.57706,0.528556,-11.5258,0.532417,-5.57409,8.29043,0.979645,5.88939,4.30074,0.656477,2.79455,-8.50736e-15,1.98785e-15,-23.3992,-36.5446,-49.286,39.5957,-25.0458,-35.0973,-6.55547,7.12502,-8.23869,-36.3748,-8.50736e-15,1.98785e-15,-27.8039,31.2674,48.0027,44.044,51.6127,-29.5905,32.1324,7.12502,-2.92202,62.0921,-15.1566,20.5314,12.1424,47.8554,-6.93365,-12.5707,-11.8389,-14.2248,4.11015,-17.3818,49.5346,-2.28479,-8.20817,-8.26292
-0.66128,18.8027,2.61044,-3.05674,-8.87787,0.206908,9.14852,0.838487,-1.15025,1.23276,0.995963,-0.0241526,-3.86815,0.508569,0.499357,-11.605,0.531258,-5.64441,8.59284,0.969673,6.01657,4.406,0.657735,2.84943,-2.32299e-14,6.90777e-15,-22.3161,-36.7391,-47.8228,40.2176,-24.1576,-35.4431,-6.33937,7.12502,-8.57237,-36.1454,-2.32299e-14,6.90777e-15,-26.7739,30.9276,46.3104,44.7003,51.4425,-29.4519,32.0365,7.12502,-2.78815,61.998,-14.9485,20.3409,11.8449,46.5651,-5.15847,-12.2847,-7.75076,-13.9133,4.0403,-17.1878,47.6383,1.75159,-8.57022,-6.07827
-0.646596,18.9774,2.62443,-2.83135,-8.59015,0.491486,8.68025,0.707692,-1.32444,1.15107,0.809184,-0.0992769,-3.68991,0.417814,0.547323,-11.6448,0.54038,-5.68258,8.89445,0.974959,6.06315,4.50431,0.662164,2.8747,-7.98245e-15,1.54058e-15,-21.1548,-36.8565,-46.3401,40.8247,-23.2284,-35.4841,-5.66253,7.12502,-8.61198,-35.4669,-7.98245e-15,1.54058e-15,-25.7493,30.5715,44.5555,45.3555,51.3006,-29.3437,31.6442,7.12502,-2.68367,61.6071,-14.7338,20.0284,11.457,45.4603,-4.62476,-12.0164,-6.09755,-13.5966,3.85707,-17.0975,45.7434,5.78001,-8.69639,-4.14575
-0.63388,19.1321,2.63694,-2.63221,-8.26985,0.802171,8.24916,0.581895,-1.48942,1.04899,0.629206,-0.217811,-3.55215,0.330061,0.54182,-11.6324,0.531554,-5.53824,9.20833,0.943643,5.92776,4.60211,0.642857,2.81033,2.7395e-15,-4.62174e-15,-20.1084,-36.7507,-44.8113,41.5132,-22.4261,-35.7271,-4.94403,7.12502,-8.84644,-34.7386,2.7395e-15,-4.62174e-15,-24.6188,30.225,42.7404,45.9628,51.0659,-29.2723,31.0827,7.12502,-2.61472,61.0464,-14.5248,19.7468,11.0837,44.5677,-5.12678,-11.9659,-6.27811,-13.2619,3.6946,-17.0221,43.9012,9.56579,-8.86681,-3.33061
-0.624523,19.271,2.64513,-2.36672,-8.01389,0.887247,7.86856,0.511576,-1.48554,0.905983,0.541104,-0.247122,-3.48565,0.286654,0.521452,-11.503,0.569492,-5.47017,9.43322,0.978133,5.85861,4.64845,0.655886,2.78146,8.89872e-15,-5.66536e-15,-19.1355,-36.6505,-43.0951,42.2186,-21.5759,-36.2669,-4.69372,7.12502,-9.36737,-34.4656,8.89872e-15,-5.66536e-15,-23.3819,29.8496,41.0561,46.5941,50.5888,-29.2004,30.8777,7.12502,-2.54528,60.8423,-14.3909,19.5815,10.9757,43.8945,-6.31733,-12.0921,-6.16322,-13.0248,3.52768,-16.677,42.1476,12.9011,-9.09505,-3.49732
-0.615238,19.4031,2.65272,-2.07643,-7.74932,0.869536,7.44158,0.465458,-1.40695,0.789849,0.493648,-0.24199,-3.36566,0.262119,0.49025,-11.1798,0.564929,-5.49854,9.38708,0.957622,5.90394,4.58136,0.643359,2.79505,-2.76808e-14,9.79014e-15,-18.1989,-36.5449,-41.2721,42.9949,-20.9036,-36.934,-4.56036,7.12502,-10.011,-34.3023,-2.76808e-14,9.79014e-15,-21.9368,29.3885,39.4933,47.2135,50.1055,-29.5649,30.8171,7.12502,-2.89731,60.7772,-14.2455,19.4174,10.9906,43.3657,-7.68698,-12.3815,-4.74044,-12.8514,3.23147,-16.2258,40.5244,15.3493,-9.63617,-5.38444
-0.603321,19.5264,2.66028,-1.82852,-7.47612,0.916143,7.0675,0.413551,-1.38143,0.679648,0.431723,-0.26445,-3.26887,0.230996,0.46099,-10.8891,0.514196,-5.50774,9.38796,0.871765,5.94895,4.53814,0.599688,2.80199,-2.09035e-15,-1.93815e-15,-17.1632,-36.4041,-39.4707,43.7327,-20.2853,-37.7044,-4.46849,7.12502,-10.7542,-34.1732,-2.09035e-15,-1.93815e-15,-20.3623,29.0508,37.8859,47.7008,49.5612,-30.1985,30.6836,7.12502,-3.50915,60.6344,-14.1626,19.2888,10.9311,42.8992,-8.57702,-12.8699,-3.34932,-12.6577,2.83228,-15.851,39.0851,16.4993,-10.099,-6.96037
-0.590903,19.6367,2.66924,-1.64108,-7.33535,0.783572,6.86234,0.376505,-1.17845,0.56605,0.401658,-0.236757,-3.26969,0.214039,0.379289,-10.8209,0.466063,-5.40499,9.57377,0.792841,5.84943,4.58952,0.557411,2.75034,2.91344e-15,1.54058e-15,-15.9681,-36.4194,-37.7529,44.3877,-19.4079,-38.2448,-4.2585,7.12502,-11.2754,-33.9354,2.91344e-15,1.54058e-15,-18.8298,28.7628,36.1738,48.1781,49.0398,-30.4499,30.4152,7.12502,-3.75197,60.3619,-14.0758,19.3548,11.0914,42.439,-9.14022,-13.4681,-2.51699,-12.3453,2.33656,-15.2787,37.8543,16.0776,-9.91928,-7.5177
-0.577514,19.7331,2.68256,-1.55664,-7.22954,0.456888,6.72665,0.338112,-0.745373,0.512879,0.387207,-0.169771,-3.24595,0.20139,0.207144,-10.8555,0.409841,-5.33753,9.76841,0.706263,5.80934,4.66067,0.515233,2.72348,1.6701e-14,-4.39811e-15,-14.6752,-36.4298,-36.0836,44.9939,-18.709,-38.6455,-4.12345,7.12502,-11.6618,-33.7789,1.6701e-14,-4.39811e-15,-17.2746,28.4474,34.427,48.6652,48.5142,-30.2895,30.0459,7.12502,-3.59703,59.9953,-13.7926,19.4524,11.5138,41.9694,-9.71127,-14.0344,-2.14866,-11.8867,1.65774,-14.5087,36.8633,14.3409,-8.78393,-8.19828
-0.559293,19.8179,2.6963,-1.43601,-7.08121,0.246983,6.49218,0.299627,-0.386697,0.457163,0.365968,-0.118099,-3.17004,0.186202,0.0620945,-10.8135,0.374568,-5.37415,9.90771,0.656466,5.82224,4.6992,0.489587,2.73139,4.48353e-15,-3.97569e-15,-13.3561,-36.4257,-34.3266,45.5834,-18.2251,-39.0827,-3.76187,7.12502,-12.0834,-33.393,4.48353e-15,-3.97569e-15,-15.6683,28.1556,32.7567,49.0999,47.9175,-30.3135,29.5867,7.12502,-3.62022,59.5357,-13.518,19.4716,11.7542,41.5096,-10.3115,-14.4239,-2.11814,-11.5189,0.794969,-13.9243,36.0881,11.928,-6.84846,-9.31349
-0.538848,19.8877,2.70504,-1.33677,-6.89581,0.113867,6.34554,0.248002,-0.156338,0.374962,0.317481,-0.0252175,-3.17181,0.159605,0.0333361,-10.6059,0.366718,-5.48913,9.92508,0.656185,5.80131,4.66952,0.480955,2.7421,1.72398e-14,-3.4764e-15,-11.9509,-36.5221,-32.532,46.1324,-17.4586,-39.1891,-3.47978,7.12502,-12.186,-33.1048,1.72398e-14,-3.4764e-15,-13.8551,28.3857,31.2549,49.2718,46.9133,-30.322,29.2954,7.12502,-3.62844,59.2443,-13.2318,19.5417,11.8843,41.0733,-10.8405,-14.627,-2.17719,-11.1978,-0.122902,-13.434,35.4868,9.39911,-4.57464,-11.2278
-0.519301,19.9463,2.7123,-1.42712,-6.70755,0.12472,6.38479,0.204647,-0.12257,0.368136,0.264522,0.0467179,-3.20094,0.133283,0.0931008,-10.4632,0.376081,-5.59534,9.90423,0.679482,5.79823,4.63748,0.486293,2.75866,-1.01264e-14,2.68359e-15,-10.4651,-36.6013,-30.718,46.6134,-16.7065,-39.5287,-3.10109,7.12502,-12.5134,-32.7064,-1.01264e-14,2.68359e-15,-11.7384,29.0456,29.9643,49.254,45.6636,-30.3191,29.2677,7.12502,-3.62564,59.2167,-12.7642,19.6624,11.913,40.6621,-11.1289,-14.652,-2.97792,-10.7402,-1.06602,-13.0924,35.0135,7.1039,-2.18466,-13.9113
-0.49991,19.9941,2.7192,-1.54008,-6.58094,0.0599378,6.4164,0.175583,0.0227659,0.42329,0.237575,0.0870467,-3.1612,0.118052,0.0554928,-10.4858,0.393443,-5.5851,9.98964,0.697219,5.81921,4.66637,0.496895,2.76596,2.02046e-15,-3.27995e-15,-8.97067,-36.6298,-28.9795,47.1154,-16.1015,-40.1583,-3.14058,7.12502,-13.1204,-32.7078,2.02046e-15,-3.27995e-15,-9.82086,29.2992,28.5147,49.5009,44.9036,-30.2236,29.2282,7.12502,-3.53341,59.1787,-12.3046,19.7876,12.028,40.2659,-11.1192,-14.5576,-3.21799,-10.2907,-2.00077,-12.6542,34.6466,5.22903,0.35025,-15.5756
-0.483612,20.0265,2.72507,-1.6139,-6.48417,-0.175855,6.45956,0.142692,0.300565,0.453361,0.217094,0.183773,-3.15367,0.104631,0.000958896,-10.3901,0.433015,-5.54023,9.99664,0.744736,5.76952,4.65011,0.517532,2.7455,2.00043e-14,-4.62174e-15,-7.39139,-36.7942,-27.3191,47.5737,-15.2435,-40.4596,-3.28042,7.12502,-13.4108,-32.8288,2.00043e-14,-4.62174e-15,-8.21727,29.294,26.8695,49.9695,44.5689,-29.9984,29.2244,7.12502,-3.31594,59.1783,-11.8822,20.0249,12.3267,39.8717,-11.0503,-14.3051,-2.34459,-9.89166,-2.84855,-11.9935,34.3547,3.68609,2.70075,-15.2978
-0.467423,20.0477,2.72905,-1.70291,-6.27269,-0.237822,6.53231,0.0816362,0.434033,0.467616,0.146831,0.213251,-3.17959,0.0680004,-0.0373553,-10.2186,0.442152,-5.48951,9.92947,0.751854,5.69613,4.60101,0.516211,2.71241,-1.68004e-14,3.32964e-15,-5.79037,-37.0772,-25.7173,47.9963,-14.2512,-40.6775,-3.23955,7.12502,-13.6209,-32.7739,-1.68004e-14,3.32964e-15,-6.40039,29.6414,25.3301,50.2618,44.0443,-29.6298,29.328,7.12502,-2.9599,59.2872,-11.4197,20.2421,12.442,39.4696,-10.7258,-13.9177,-1.92066,-9.53537,-3.73247,-11.5376,34.1284,2.38598,4.499,-14.7377
-0.452387,20.0602,2.73416,-1.81863,-6.12573,-0.196091,6.51637,0.0576257,0.465733,0.54192,0.116733,0.21459,-3.094,0.0528395,-0.0509584,-10.0207,0.429216,-5.49862,9.73684,0.732801,5.69185,4.51001,0.503919,2.70736,-2.2736e-15,-1.09332e-15,-4.17512,-37.5154,-24.1277,48.4192,-13.1905,-40.6623,-3.20474,7.12502,-13.6061,-32.7401,-2.2736e-15,-1.09332e-15,-4.43217,30.124,23.9098,50.5098,43.6657,-30.0561,29.3774,7.12502,-3.37165,59.3304,-11.0141,20.5241,12.4393,39.0785,-10.0255,-13.3241,-3.45225,-9.15477,-4.45784,-11.1978,33.9319,1.39977,5.80933,-12.664
-0.440225,20.0594,2.73816,-1.94492,-6.04417,-0.258843,6.53158,0.0401394,0.571237,0.62829,0.101617,0.242909,-3.01329,0.044391,-0.079632,-9.85776,0.41218,-5.42087,9.55248,0.706254,5.60495,4.4287,0.486599,2.66237,-1.3126e-14,4.96962e-16,-2.5464,-37.9565,-22.6247,48.8933,-12.3685,-40.7701,-3.06966,7.12502,-13.71,-32.598,-1.3126e-14,4.96962e-16,-2.57162,30.6293,22.4501,50.8486,43.4433,-30.897,29.2097,7.12502,-4.18364,59.1483,-10.7282,20.9385,12.5671,38.7513,-9.10978,-12.6612,-6.27554,-8.75536,-5.03364,-10.7132,33.7469,0.75529,6.85757,-8.44427
-0.427622,20.0447,2.73998,-2.08472,-5.90309,-0.117489,6.64112,-0.00482893,0.457694,0.681431,0.0331885,0.218587,-3.02015,0.0116598,-0.0347866,-9.70785,0.418204,-5.30735,9.36087,0.710474,5.4826,4.34595,0.483826,2.60266,6.95125e-15,5.96354e-15,-0.870825,-38.258,-21.2338,49.3904,-11.7742,-41.1748,-3.16447,7.12502,-14.1001,-32.6661,6.95125e-15,5.96354e-15,-0.81351,31.1899,20.9576,51.2933,43.3121,-30.944,28.9026,7.12502,-4.22904,58.8404,-10.4428,21.3848,12.4678,38.5273,-8.29449,-11.9414,-7.0425,-8.39092,-5.58759,-10.4729,33.5941,0.428419,7.78051,-6.26036
-0.416777,20.0096,2.74272,-2.22407,-5.73382,0.228214,6.69479,-0.0370573,0.109095,0.748248,-0.0375084,0.150582,-2.9813,-0.0196043,0.0973602,-9.59013,0.449922,-5.31019,9.13456,0.753735,5.49416,4.25473,0.504482,2.60602,1.34242e-14,-1.39149e-15,0.813223,-38.7753,-19.8536,49.8761,-10.8503,-40.9529,-2.99227,7.12502,-13.8862,-32.5087,1.34242e-14,-1.39149e-15,1.11354,32.0387,19.7009,51.6912,43.0059,-30.9299,28.4604,7.12502,-4.21549,58.3985,-10.1595,21.8166,12.14,38.429,-7.64646,-11.1516,-6.87112,-8.04819,-6.05123,-10.4667,33.4808,0.35526,8.51088,-6.74846
-0.407822,19.9578,2.74543,-2.28546,-5.58002,0.432912,6.60721,-0.071885,-0.139908,0.824735,-0.102644,0.135539,-2.85295,-0.0493642,0.2274,-9.47367,0.511947,-5.33704,8.91416,0.836179,5.55157,4.16305,0.546221,2.62992,3.97259e-15,9.93923e-17,2.64368,-39.6533,-18.6243,50.3261,-9.67925,-40.2395,-2.47008,7.12502,-13.1987,-32.0323,3.97259e-15,9.93923e-17,3.07124,33.1328,18.6057,52.1333,42.7208,-31.2368,28.1731,7.12502,-4.51179,58.1051,-9.98942,22.3175,11.9645,38.4408,-7.01641,-10.5455,-7.25546,-7.81626,-6.44875,-10.2659,33.4098,0.480895,8.99496,-6.97061
-0.397722,19.8934,2.74742,-2.40553,-5.40874,0.743486,6.5983,-0.12842,-0.423483,0.876508,-0.20138,0.03216,-2.79347,-0.0961212,0.288861,-9.33454,0.560649,-5.28086,8.79927,0.888316,5.57807,4.10211,0.573617,2.62963,-8.98879e-15,6.85807e-15,4.50696,-40.4969,-17.6059,50.7945,-8.62014,-39.9004,-2.16577,7.12502,-12.8718,-31.7489,-8.98879e-15,6.85807e-15,4.94789,34.236,17.4998,52.7289,42.6658,-30.5323,28.1163,7.12502,-3.83146,58.0616,-9.77455,22.7778,11.7051,38.5439,-6.56892,-9.87903,-8.13344,-7.56743,-6.96425,-10.1943,33.4083,0.682149,9.39263,-6.55848
-0.386215,19.8158,2.75187,-2.60645,-5.23617,1.06173,6.71876,-0.178397,-0.640934,0.949619,-0.288307,-0.104563,-2.78431,-0.137925,0.278194,-9.21717,0.5722,-5.18358,8.60776,0.892218,5.56886,4.02467,0.576862,2.60803,5.91074e-15,-1.39149e-15,6.31921,-41.2598,-16.6431,51.3222,-7.64503,-39.9164,-1.98748,7.12502,-12.8872,-31.5696,5.91074e-15,-1.39149e-15,7.06689,35.5477,16.7339,53.3769,42.5301,-27.4791,28.7173,7.12502,-0.882845,58.6952,-9.47024,23.2282,11.4771,38.6942,-6.38615,-9.11325,-8.95177,-7.23422,-7.40786,-10.1737,33.4902,1.21329,9.45528,-7.6889
-0.375522,19.728,2.75439,-2.72508,-5.09429,1.26495,6.81753,-0.236769,-0.753758,0.986992,-0.378534,-0.222018,-2.80015,-0.182218,0.229071,-9.13041,0.608513,-4.9782,8.46183,0.921946,5.49325,3.96574,0.592998,2.55053,-4.89507e-15,2.28602e-15,8.21149,-41.9933,-15.8565,51.8677,-6.79917,-40.3981,-2.09536,7.12502,-13.3516,-31.6476,-4.89507e-15,2.28602e-15,9.22325,36.8838,16.0732,54.1196,42.2881,-29.4716,29.3236,7.12502,-2.80716,59.2849,-9.29677,23.7584,11.3779,38.9004,-6.10737,-8.28786,-8.50002,-7.01179,-7.84602,-10.0177,33.6415,1.99125,9.15397,-9.15831
-0.366153,19.6253,2.75539,-2.78964,-4.94018,1.43489,6.89168,-0.310464,-0.88891,0.98317,-0.489897,-0.301411,-2.84403,-0.236403,0.233801,-9.24711,0.622736,-4.68149,8.58852,0.9272,5.24631,4.02629,0.593238,2.42838,-5.46347e-15,-3.37934e-15,10.2398,-42.7812,-15.2343,52.4059,-6.0607,-40.5575,-1.72193,7.12502,-13.5052,-31.264,-5.46347e-15,-3.37934e-15,11.337,38.2634,15.5352,55.0113,42.1296,-29.7197,29.6195,7.12502,-3.04673,59.5775,-9.17288,24.2311,11.3175,39.1768,-5.87736,-7.22691,-7.06695,-6.9288,-8.37019,-9.80347,33.8682,2.70829,8.5649,-9.51331
-0.358014,19.5115,2.75695,-2.87479,-4.7173,1.67415,7.03006,-0.39303,-1.11659,0.938849,-0.621793,-0.38411,-2.96422,-0.299227,0.289933,-9.29959,0.634887,-4.52391,8.73789,0.93011,5.14574,4.08171,0.594993,2.37371,-4.87954e-15,8.94531e-16,12.2235,-43.5154,-14.5755,52.9879,-5.39224,-40.3525,-1.37079,7.12502,-13.3075,-30.9259,-4.87954e-15,8.94531e-16,13.6156,39.6957,15.3714,55.9613,41.8518,-29.0525,29.5854,7.12502,-2.40238,59.5517,-9.0052,24.6656,11.223,39.5329,-5.99196,-6.66834,-6.64779,-6.8815,-8.89396,-9.67307,34.1741,3.4643,7.57138,-10.043
-0.34967,19.3844,2.75781,-2.94279,-4.43689,1.87087,7.13755,-0.509951,-1.33788,0.911425,-0.797684,-0.42177,-3.04785,-0.383752,0.39326,-9.20369,0.662666,-4.60533,8.73398,0.965058,5.24137,4.06183,0.613647,2.41776,-1.5791e-14,1.02374e-14,14.4593,-44.2781,-14.1536,53.5595,-4.84525,-40.6593,-1.51826,7.12502,-13.6033,-31.0538,-1.5791e-14,1.02374e-14,15.8359,41.0275,15.2863,56.9456,41.6237,-28.4033,29.2214,7.12502,-1.77538,59.1937,-8.86849,25.1636,11.2101,39.9721,-6.14914,-6.56341,-7.71553,-6.87005,-9.48575,-9.51927,34.5509,4.27379,6.31262,-10.8414
-0.339782,19.2452,2.75843,-2.98976,-4.16185,2.09456,7.13678,-0.642692,-1.54299,0.919515,-0.992138,-0.482913,-3.03353,-0.478508,0.463855,-9.09517,0.704851,-4.83871,8.70747,1.01699,5.55846,4.02976,0.64759,2.55566,1.01846e-14,9.49197e-15,16.8964,-45.0758,-14.0037,54.1453,-4.51269,-41.2017,-1.74788,7.12502,-14.126,-31.2477,1.01846e-14,9.49197e-15,18.0696,42.3124,15.1802,57.9672,41.6703,-27.9389,29.18,7.12502,-1.32691,59.1556,-8.76368,25.8517,11.2101,40.5197,-6.28876,-6.57462,-9.1579,-6.92721,-10.1459,-9.42159,35.0122,4.81175,5.0043,-12.1402
-0.329675,19.0921,2.75862,-3.10243,-3.93056,2.28556,7.16186,-0.75415,-1.69068,0.988704,-1.15362,-0.548507,-2.97147,-0.558303,0.494237,-9.07606,0.757918,-4.90025,8.64624,1.08562,5.67739,4.00307,0.68562,2.60559,-1.50517e-14,8.94531e-16,19.3074,-45.8552,-13.8913,54.7605,-4.1694,-41.5844,-1.53078,7.12502,-14.4948,-31.0045,-1.50517e-14,8.94531e-16,20.6366,43.6645,15.4621,59.0065,41.6772,-27.8184,29.113,7.12502,-1.21053,59.0893,-8.62794,26.5408,11.2925,41.2018,-6.67898,-6.56499,-10.7477,-6.95498,-10.8349,-9.30321,35.6321,4.2565,3.72881,-18.2178
