JuanDHNZ/ProyectoFinalCD/preprocessing/sports_trials_csv/13_23.csv
root1,root2,root3,root4,root5,root6,lowerback1,lowerback2,lowerback3,upperback1,upperback2,upperback3,thorax1,thorax2,thorax3,lowerneck1,lowerneck2,lowerneck3,upperneck1,upperneck2,upperneck3,head1,head2,head3,rclavicle1,rclavicle2,rhumerus1,rhumerus2,rhumerus3,rradius1,rwrist1,rhand1,rhand2,rfingers1,rthumb1,rthumb2,lclavicle1,lclavicle2,lhumerus1,lhumerus2,lhumerus3,lradius1,lwrist1,lhand1,lhand2,lfingers1,lthumb1,lthumb2,rfemur1,rfemur2,rfemur3,rtibia1,rfoot1,rfoot2,rtoes1,lfemur1,lfemur2,lfemur3,ltibia1,lfoot1,lfoot2,ltoes1
1.014,18.7761,-0.148606,1.09658,-60.3876,7.12704,6.71619,-1.79393,1.75951,2.66144,-2.29242,2.65186,-0.977404,-1.17198,1.91222,-9.91275,-1.42825,-6.9674,28.0172,-2.22286,3.94618,10.7394,-1.4729,2.32206,-1.35174e-14,6.36111e-15,-31.4355,15.5072,-80.408,123.053,-59.8385,-37.2334,-6.78412,7.12502,-10.2998,-36.5119,-1.35174e-14,6.36111e-15,-14.0603,-0.434199,78.2173,18.7205,-30.1562,-38.4261,20.5699,7.12502,-11.4502,50.2372,-24.8862,24.008,4.08829,22.2881,-13.8149,-32.8457,9.61519,-1.313,4.72153,-21.6319,15.4106,-19.6457,27.4076,-5.72873
0.945543,18.7849,-0.150581,0.946046,-60.7745,7.20748,6.65416,-1.75636,1.83418,2.69831,-2.24249,2.69676,-0.906909,-1.14754,1.90993,-10.0622,-1.36813,-6.49762,28.1267,-2.15001,3.64605,10.7963,-1.42623,2.14142,3.57812e-15,1.90833e-14,-31.4055,15.3624,-80.3809,123.047,-60.0584,-37.9113,-5.72517,7.12502,-10.9538,-35.4194,3.57812e-15,1.90833e-14,-14.0945,-0.996784,78.1045,19.1338,-29.087,-38.3358,20.1992,7.12502,-11.3631,49.8713,-24.7136,24.0717,4.34051,22.296,-13.4527,-32.6099,9.04389,-1.08243,4.71122,-21.5373,15.6175,-19.843,27.5589,-5.21727
0.877448,18.7941,-0.153163,1.11514,-60.9609,6.97056,6.5286,-1.80311,2.11884,2.71888,-2.29395,2.79918,-0.821481,-1.17288,1.85491,-10.1779,-1.30959,-6.21775,28.2219,-2.08446,3.49734,10.8461,-1.38562,2.04756,7.95139e-15,1.27222e-14,-31.3652,15.1662,-80.3238,123.059,-60.2146,-38.4524,-4.72652,7.12502,-11.4756,-34.3924,7.95139e-15,1.27222e-14,-14.1627,-2.07677,78.156,19.5292,-28.144,-38.3785,20.5078,7.12502,-11.4043,50.1777,-24.5324,23.9167,4.7851,22.3752,-13.4324,-32.2784,8.95853,-0.922725,4.81551,-21.24,15.8039,-19.5672,27.584,-5.44877
0.806495,18.8026,-0.154409,0.730438,-61.1167,7.35687,6.35196,-1.8091,2.18455,2.7388,-2.30618,2.77323,-0.706371,-1.17795,1.78521,-10.2175,-1.2839,-5.95444,28.3333,-2.09886,3.44822,10.8924,-1.37298,1.98326,1.15295e-14,-2.22639e-14,-31.4074,14.7567,-80.281,123.081,-60.4523,-37.8257,-4.68572,7.12502,-10.8712,-34.3843,1.15295e-14,-2.22639e-14,-14.3159,-3.37186,78.2568,19.8673,-27.9494,-38.704,21.64,7.12502,-11.7182,51.2922,-24.2874,23.6654,4.90291,22.402,-13.4133,-31.8385,8.84882,-0.805034,5.22699,-21.2287,16.0729,-18.3954,27.4849,-7.90975
0.732912,18.8128,-0.156957,0.271333,-61.356,7.86375,6.17523,-1.83089,2.02682,2.70566,-2.3495,2.88158,-0.630973,-1.20133,1.98206,-10.157,-1.19499,-6.08851,28.4079,-1.9803,3.53033,10.9038,-1.32775,2.05163,3.89618e-14,-3.18055e-14,-31.4755,14.6942,-80.0428,123.152,-60.7935,-36.1636,-6.35945,7.12502,-9.26771,-36.1358,3.89618e-14,-3.18055e-14,-14.5035,-3.50854,78.3473,20.1058,-28.396,-38.7517,22.1418,7.12502,-11.7642,51.7914,-24.0955,23.5702,4.9206,22.4108,-13.5145,-31.4553,8.91861,-0.736673,5.57251,-21.2815,16.3955,-16.9958,27.4947,-11.3938
0.662041,18.827,-0.157357,0.117513,-61.489,7.99033,6.0553,-1.93971,2.14932,2.66267,-2.4907,2.99215,-0.605841,-1.27203,2.03312,-10.1085,-1.06323,-6.18228,28.566,-1.81365,3.60652,10.9454,-1.25968,2.11761,6.12257e-14,-2.22639e-14,-31.5683,14.7313,-79.9146,123.14,-60.785,-31.9244,-11.4668,7.12502,-5.17578,-41.3836,6.12257e-14,-2.22639e-14,-14.6726,-3.76964,78.3349,20.3779,-28.1111,-38.5188,21.7355,7.12502,-11.5397,51.3978,-23.8573,23.4892,5.15446,22.4424,-13.4718,-31.2414,8.65256,-0.593526,5.66138,-21.1678,16.6494,-16.0327,27.5541,-13.6768
0.589086,18.8388,-0.162179,-0.0862623,-61.6515,8.15413,5.95758,-2.00559,2.27229,2.64467,-2.57506,2.99656,-0.573491,-1.31319,1.97084,-10.1325,-0.999456,-5.95288,28.7327,-1.77132,3.5507,11.0075,-1.22793,2.06423,2.14687e-14,-1.43125e-14,-31.6938,14.4483,-79.9797,123.128,-60.6779,-35.5122,-4.69723,7.12502,-8.63905,-34.5005,2.14687e-14,-1.43125e-14,-14.841,-4.4062,78.2498,20.7851,-27.2601,-38.1035,21.0405,7.12502,-11.1391,50.7248,-23.6376,23.4705,5.37902,22.483,-13.2707,-31.1074,8.07721,-0.455473,5.93992,-21.0251,16.9048,-15.3969,27.4076,-14.6145
0.516295,18.8481,-0.169979,-0.320019,-61.9019,8.3503,5.87286,-1.99505,2.30586,2.63887,-2.56318,3.04344,-0.531809,-1.30751,1.9963,-10.1957,-0.984102,-5.81678,28.887,-1.78868,3.54981,11.0781,-1.22518,2.03963,3.06128e-14,-2.22639e-14,-31.8141,14.1708,-79.8921,123.169,-60.8559,-35.4931,-4.55798,7.12502,-8.62065,-34.362,3.06128e-14,-2.22639e-14,-14.886,-4.54069,78.1977,21.1362,-26.6283,-37.5425,19.7427,7.12502,-10.5979,49.4555,-23.4399,23.5174,5.57472,22.5121,-13.212,-30.9321,7.73804,-0.354112,5.97636,-20.9001,17.2276,-15.2856,27.3571,-14.2149
0.443091,18.8542,-0.178639,-0.641711,-62.1042,8.67095,5.7511,-2.00639,2.28618,2.62783,-2.58438,3.09326,-0.471941,-1.31858,2.0552,-10.2085,-0.907302,-5.77916,28.9889,-1.70349,3.57429,11.1142,-1.18291,2.05364,4.45278e-14,-6.36111e-14,-31.9896,14.0411,-79.7778,123.208,-60.9556,-35.8749,-5.25296,7.12502,-8.9891,-35.0414,4.45278e-14,-6.36111e-14,-14.9916,-4.8137,78.1948,21.4358,-26.629,-36.8529,19.1998,7.12502,-9.93275,48.9455,-23.2813,23.583,5.68219,22.5893,-13.2869,-30.763,7.60764,-0.256864,6.05042,-20.8278,17.5202,-15.092,27.186,-13.5044
0.370032,18.8626,-0.18397,-0.990166,-62.3125,8.91603,5.71976,-2.02295,2.41081,2.65433,-2.60358,3.10232,-0.431747,-1.32758,1.99417,-10.1891,-0.832901,-5.76225,29.0058,-1.63885,3.68595,11.1128,-1.14025,2.09978,-2.54444e-14,-3.97569e-14,-32.1793,13.9296,-79.7532,123.232,-60.9845,-36.0679,-5.08116,7.12502,-9.17537,-34.8615,-2.54444e-14,-3.97569e-14,-15.1692,-5.35757,78.2102,21.8042,-26.8184,-36.5825,19.1314,7.12502,-9.67186,48.8893,-22.9779,23.4688,5.91726,22.6563,-13.2219,-30.4162,7.33887,-0.0557708,6.32794,-20.6884,17.8504,-14.765,26.8427,-13.1059
0.294518,18.8725,-0.190805,-1.31532,-62.4799,9.08092,5.75574,-2.03757,2.47818,2.67453,-2.61992,3.13074,-0.432132,-1.33598,1.98786,-10.2027,-0.824163,-5.67315,29.0634,-1.68117,3.78227,11.1392,-1.14063,2.11498,2.5842e-14,-4.92986e-14,-32.4359,13.8201,-79.8206,123.248,-60.9995,-35.8618,-4.09491,7.12502,-8.97641,-33.8839,2.5842e-14,-4.92986e-14,-15.3646,-6.09517,78.2113,22.2844,-26.1193,-36.8756,19.4614,7.12502,-9.95466,49.206,-22.5785,23.4005,6.21621,22.6914,-13.1408,-30.1258,6.79375,0.151718,6.65629,-20.4726,18.2531,-14.251,26.4652,-13.3978
0.218122,18.8851,-0.203772,-1.36311,-62.6473,9.07271,5.70383,-2.07594,2.5716,2.65718,-2.66827,3.16708,-0.422663,-1.35986,1.97434,-10.2778,-0.82896,-5.43632,29.1754,-1.71361,3.66676,11.1959,-1.1459,2.02841,-1.86858e-14,-1.59028e-14,-32.5807,13.6971,-79.9625,123.196,-60.8858,-35.1938,-3.45781,7.12502,-8.33185,-33.2735,-1.86858e-14,-1.59028e-14,-15.5105,-6.62469,78.1236,22.6413,-25.5591,-37.1625,20.2493,7.12502,-10.2315,49.9805,-22.3295,23.4898,6.50226,22.7219,-13.3776,-29.9329,6.63998,0.13703,6.65346,-20.1414,18.7312,-14.3494,26.1802,-12.341
0.145263,18.9014,-0.213707,-1.61491,-62.8747,9.29286,5.64923,-2.11167,2.6837,2.65865,-2.71315,3.15157,-0.395873,-1.38119,1.89616,-10.3797,-0.820241,-5.4245,29.3272,-1.73172,3.73605,11.2761,-1.14783,2.05119,-4.77083e-15,-3.18055e-15,-32.603,13.6492,-80.0613,123.075,-60.6771,-34.8336,-3.27076,7.12502,-7.98419,-33.1,-4.77083e-15,-3.18055e-15,-15.6289,-6.49972,77.9973,22.8926,-25.7809,-37.1639,20.3042,7.12502,-10.2328,50.0353,-22.1073,23.4923,6.66816,22.7836,-13.7865,-29.5211,6.93119,0.0775806,6.42118,-19.944,19.2609,-15.258,25.9773,-10.499
0.0749538,18.913,-0.220918,-2.33544,-63.0537,9.96411,5.63294,-2.13841,2.66386,2.67944,-2.75104,3.05912,-0.368711,-1.39903,1.81302,-10.3581,-0.820223,-5.51527,29.3744,-1.7873,3.96048,11.2949,-1.15902,2.14325,5.96354e-15,-1.11319e-14,-32.7803,13.6615,-80.0961,123.051,-60.557,-34.7076,-3.09048,7.12502,-7.86257,-32.9243,5.96354e-15,-1.11319e-14,-15.7689,-6.52908,77.8866,23.2664,-25.6031,-37.2065,20.2943,7.12502,-10.2739,50.0234,-21.8287,23.2648,6.65774,22.9014,-14.1282,-28.9012,7.29234,0.0896925,6.51105,-20.0075,19.8303,-15.2936,25.8932,-11.835
0.00642323,18.918,-0.230118,-2.7593,-63.1854,10.3364,5.62529,-2.17309,2.73467,2.70141,-2.79518,3.00945,-0.347094,-1.41994,1.72414,-10.5019,-0.826723,-5.47484,29.496,-1.85077,4.10612,11.375,-1.16722,2.18364,1.19271e-15,-1.11319e-14,-32.9137,13.6741,-80.1497,123.097,-60.4,-34.6168,-3.42403,7.12502,-7.77493,-33.2611,1.19271e-15,-1.11319e-14,-15.9522,-6.96895,77.8063,23.7427,-24.9239,-37.4322,20.5638,7.12502,-10.4916,50.282,-21.6046,22.9396,6.8097,23.0553,-14.1957,-28.3537,7.20916,0.0292284,6.76188,-19.9416,20.475,-14.6031,25.8084,-13.9057
-0.0630219,18.9198,-0.238583,-3.14098,-63.4185,10.6216,5.64721,-2.21987,2.82798,2.74827,-2.85454,2.95085,-0.317805,-1.44831,1.61514,-10.7116,-0.767805,-5.24841,29.6721,-1.8072,4.06475,11.4807,-1.12906,2.13669,5.84427e-14,-7.95139e-15,-32.9577,13.75,-80.3068,123.095,-60.1383,-34.9501,-3.66157,7.12502,-8.09662,-33.4865,5.84427e-14,-7.95139e-15,-16.0065,-6.77355,77.5758,23.9771,-24.4968,-37.8656,20.71,7.12502,-10.9096,50.4065,-21.3873,22.8123,6.999,23.2274,-14.3703,-27.9298,7.18976,-0.0373095,7.08152,-19.8001,21.2214,-14.0479,25.3002,-13.8553
-0.133906,18.9232,-0.246545,-3.6323,-63.5861,10.9938,5.65526,-2.29592,2.89837,2.8178,-2.95564,2.86639,-0.257829,-1.49716,1.49362,-10.8774,-0.672769,-5.07151,29.8014,-1.71911,4.08528,11.558,-1.06852,2.12657,9.54166e-15,5.24792e-14,-33.0167,13.846,-80.5091,123.068,-59.8646,-35.7924,-3.33885,7.12502,-8.9095,-33.1307,9.54166e-15,5.24792e-14,-16.0166,-6.29628,77.303,24.2369,-23.8438,-37.9917,20.3935,7.12502,-11.0313,50.0836,-21.0974,22.7036,7.13848,23.3699,-14.6863,-27.5249,7.64711,-0.135074,7.47001,-19.6935,22.0813,-12.9032,24.8992,-15.2797
-0.205788,18.927,-0.256687,-3.92056,-63.7459,11.2063,5.62646,-2.38187,2.96129,2.83261,-3.06952,2.86478,-0.229223,-1.55343,1.46195,-10.7896,-0.61219,-5.33547,29.6763,-1.69543,4.49798,11.4938,-1.03803,2.32717,5.00937e-14,-3.18055e-14,-33.129,14.2301,-80.6713,123.009,-59.5258,-36.3907,-2.22797,7.12502,-9.48678,-31.9944,5.00937e-14,-3.18055e-14,-16.1753,-5.89737,77.1345,24.5577,-23.3131,-38.0529,20.3745,7.12502,-11.0903,50.0615,-20.8732,22.5104,7.36779,23.4922,-14.6604,-27.1856,7.17825,-0.375958,7.82447,-19.5039,23.0352,-11.8899,24.692,-16.5377
-0.276486,18.9271,-0.266374,-4.08222,-63.9188,11.2649,5.60062,-2.43496,3.1222,2.85279,-3.13546,2.86995,-0.201688,-1.585,1.3799,-10.6058,-0.632254,-5.77764,29.3802,-1.81412,5.15984,11.3558,-1.05997,2.6297,-1.43125e-14,-1.59028e-15,-33.2722,14.641,-80.7994,122.979,-59.1552,-36.503,-1.4527,7.12502,-9.5951,-31.2142,-1.43125e-14,-1.59028e-15,-16.3448,-5.60809,76.9923,24.8052,-23.2602,-38.3645,20.7418,7.12502,-11.3909,50.4124,-20.6317,22.2853,7.70359,23.6008,-14.5018,-26.8782,6.36801,-0.654667,8.04635,-19.2335,24.0886,-11.5237,24.4115,-15.8278
-0.345084,18.9239,-0.278656,-4.3433,-64.1446,11.3394,5.65724,-2.44513,3.32025,2.92695,-3.14114,2.7997,-0.170747,-1.58529,1.19868,-10.5234,-0.66537,-5.83154,29.2226,-1.94456,5.48932,11.2892,-1.08551,2.74153,-1.19271e-14,2.38542e-14,-33.2878,14.8344,-80.9449,122.969,-58.9582,-36.8118,-2.15618,7.12502,-9.89312,-31.9037,-1.19271e-14,2.38542e-14,-16.4627,-5.78503,76.789,25.1459,-23.0327,-38.9596,21.5334,7.12502,-11.9647,51.1715,-20.3184,22.177,8.04805,23.7109,-14.5061,-26.6408,5.39763,-0.881629,8.38421,-18.932,25.2351,-10.8392,24.0505,-15.6767
-0.415362,18.9241,-0.289678,-4.76624,-64.3062,11.7019,5.58196,-2.49822,3.34254,2.98648,-3.21792,2.73258,-0.0729043,-1.62178,1.1165,-10.5546,-0.639352,-5.66828,29.1965,-1.92998,5.44559,11.2824,-1.06614,2.6979,3.18055e-15,2.8625e-14,-33.2338,15.0862,-81.1638,122.959,-58.7444,-37.314,-3.40015,7.12502,-10.3776,-33.1241,3.18055e-15,2.8625e-14,-16.5186,-5.49341,76.5621,25.4057,-22.9433,-39.368,22.1965,7.12502,-12.3584,51.8113,-20.1005,21.9599,8.21428,23.8507,-14.4398,-26.3449,4.56792,-1.26165,8.77501,-18.7843,26.454,-9.95382,23.6712,-16.0238
-0.484919,18.927,-0.301814,-5.09797,-64.4192,12.0209,5.48995,-2.5559,3.32905,3.00041,-3.30091,2.7168,-0.00808505,-1.66253,1.10758,-10.562,-0.601287,-5.59595,29.1687,-1.86515,5.35916,11.2674,-1.03914,2.66064,5.64548e-14,0,-33.1823,15.4832,-81.3505,122.875,-58.445,-38.0161,-4.19922,7.12502,-11.0547,-33.8881,5.64548e-14,0,-16.5298,-5.02493,76.3631,25.5651,-22.8793,-39.4163,22.5652,7.12502,-12.405,52.1771,-19.9536,21.6589,8.37484,24.0102,-14.3973,-25.9601,4.30989,-1.78733,9.08253,-18.602,27.7507,-9.40879,23.207,-14.544
-0.549582,18.9303,-0.317907,-5.36677,-64.4406,12.2744,5.4416,-2.61286,3.34597,2.99699,-3.37778,2.68085,0.0117112,-1.69996,1.06328,-10.5599,-0.575224,-5.67451,29.1866,-1.86087,5.51653,11.275,-1.0286,2.7335,0,-1.59028e-15,-33.1594,15.9657,-81.5282,122.693,-58.186,-39.0274,-4.60102,7.12502,-12.0301,-34.2353,0,-1.59028e-15,-16.5422,-4.94671,76.1354,25.8159,-22.3817,-39.3777,23.0205,7.12502,-12.3678,52.6347,-19.7923,21.4465,8.53216,24.1675,-14.6486,-25.7078,4.31934,-2.42121,9.30565,-18.4067,29.1196,-8.527,22.8196,-13.6106
-0.617799,18.931,-0.332575,-5.71574,-64.527,12.4958,5.44513,-2.63896,3.43164,3.04228,-3.41034,2.5814,0.0453456,-1.71371,0.914387,-10.483,-0.567027,-5.66019,29.1276,-1.91234,5.70554,11.2409,-1.02968,2.79295,2.70347e-14,-2.06736e-14,-33.173,16.3045,-81.8666,122.523,-57.9577,-39.982,-4.18194,7.12502,-12.9504,-33.76,2.70347e-14,-2.06736e-14,-16.587,-5.01138,75.8376,26.1617,-21.6728,-39.2559,22.8836,7.12502,-12.2504,52.5048,-19.4752,21.3308,8.74703,24.2967,-14.9896,-25.4205,4.251,-2.95759,9.63373,-18.2101,30.5664,-6.94749,22.5491,-15.5637
-0.685141,18.9323,-0.34863,-5.91936,-64.696,12.4882,5.51775,-2.64795,3.53728,3.13305,-3.41954,2.54752,0.0907294,-1.71671,0.822606,-10.5143,-0.539576,-5.54659,29.1104,-1.9057,5.7357,11.2391,-1.01045,2.78469,6.36111e-15,4.13472e-14,-33.059,16.6567,-82.1817,122.337,-57.9153,-40.8389,-3.90049,7.12502,-13.7764,-33.4244,6.36111e-15,4.13472e-14,-16.5772,-4.92373,75.6106,26.3906,-21.5986,-39.4753,23.1496,7.12502,-12.4619,52.7581,-19.1044,21.4,9.06985,24.3978,-15.3882,-25.1026,4.81254,-3.46795,9.92916,-17.8723,32.0603,-5.66352,22.2246,-17.6114
-0.750648,18.9349,-0.361801,-5.75064,-64.9056,12.1384,5.5556,-2.67745,3.72567,3.17436,-3.45238,2.6164,0.106003,-1.73219,0.791494,-10.5316,-0.476446,-5.49261,29.1781,-1.82465,5.70148,11.2621,-0.973811,2.77399,-5.96354e-15,-3.65764e-14,-32.9491,17.2564,-82.3917,122.157,-57.9462,-41.3611,-4.5968,7.12502,-14.2796,-34.0858,-5.96354e-15,-3.65764e-14,-16.6223,-4.7689,75.4555,26.5246,-21.619,-39.7146,23.762,7.12502,-12.6927,53.3563,-18.8116,21.3972,9.53094,24.4762,-15.5823,-24.7426,5.26958,-4.06243,10.0622,-17.3809,33.5786,-4.92669,21.7842,-16.739
-0.814843,18.9359,-0.372214,-5.56132,-65.0796,11.7747,5.65508,-2.74994,3.88352,3.13823,-3.53563,2.74273,0.0117362,-1.77528,0.845023,-10.4483,-0.370558,-5.57539,29.2668,-1.66515,5.68045,11.2684,-0.91807,2.80185,-3.29983e-14,-1.43125e-14,-32.9938,18.0976,-82.4863,121.99,-57.9843,-41.8061,-5.21663,7.12502,-14.7084,-34.6749,-3.29983e-14,-1.43125e-14,-16.7737,-4.61977,75.3586,26.6522,-21.3785,-39.8179,23.9438,7.12502,-12.7922,53.5319,-18.4962,21.0986,10.0216,24.5384,-15.6812,-24.2055,5.44826,-4.66704,10.1465,-16.8998,35.0696,-3.99818,21.3149,-15.1508
-0.876832,18.9344,-0.386108,-5.56007,-65.1499,11.6414,5.78454,-2.83223,3.90972,3.0945,-3.63476,2.84329,-0.101344,-1.82761,0.948265,-10.4441,-0.270768,-5.60762,29.3853,-1.51514,5.63701,11.3025,-0.862514,2.8124,-1.98785e-14,-9.54166e-15,-32.9533,18.8724,-82.5648,121.762,-58.0449,-42.2856,-5.45752,7.12502,-15.1703,-34.8814,-1.98785e-14,-9.54166e-15,-16.8518,-4.57756,75.2705,26.7844,-21.1653,-40.0245,24.3418,7.12502,-12.9914,53.9173,-18.2053,20.9482,10.3601,24.6142,-15.9811,-23.8847,5.74452,-5.32711,10.2621,-16.5077,36.5231,-2.90033,20.8011,-13.5587
-0.940126,18.9311,-0.394856,-5.9021,-65.3046,11.765,5.85854,-2.82849,4.00734,3.17698,-3.62603,2.78004,-0.0669014,-1.82131,0.830203,-10.5429,-0.25323,-5.60033,29.4906,-1.51361,5.6992,11.3633,-0.854485,2.83727,3.85642e-14,-5.56597e-14,-32.8026,19.3542,-82.8131,121.51,-57.8755,-42.6949,-5.89589,7.12502,-15.5645,-35.2896,3.85642e-14,-5.56597e-14,-16.7168,-4.87009,75.118,26.9261,-20.8905,-40.1085,24.7897,7.12502,-13.0724,54.3601,-17.7982,20.9875,10.6049,24.7045,-16.3303,-23.6022,6.15246,-5.80759,10.3075,-16.2768,37.9351,-2.05644,20.5364,-11.7481
-1.00181,18.9269,-0.404273,-6.33582,-65.5264,12.0223,5.90458,-2.79561,3.99679,3.25281,-3.58505,2.71816,-0.0169128,-1.79984,0.770028,-10.58,-0.224921,-5.60259,29.555,-1.49476,5.75876,11.3946,-0.840394,2.86382,3.18055e-14,1.59028e-14,-32.6049,19.8694,-83.0519,121.157,-57.6544,-43.2052,-6.03336,7.12502,-16.056,-35.3881,3.18055e-14,1.59028e-14,-16.5559,-5.02575,74.9515,26.9824,-20.9429,-40.4554,25.0205,7.12502,-13.4067,54.5691,-17.4523,20.8469,10.7998,24.7767,-16.5922,-23.1417,6.53173,-6.31548,10.3823,-16.1204,39.3218,-1.30975,20.2683,-9.76716
-1.05985,18.9242,-0.418331,-6.3581,-65.7277,11.8762,6.02862,-2.80876,3.98809,3.26395,-3.59768,2.78127,-0.0696385,-1.80835,0.846854,-10.5263,-0.145488,-5.61506,29.5937,-1.39692,5.78922,11.3915,-0.796943,2.88996,2.3059e-14,1.59028e-15,-32.4585,20.6169,-83.1971,120.847,-57.6581,-43.7453,-5.41765,7.12502,-16.576,-34.7297,2.3059e-14,1.59028e-15,-16.4808,-5.03032,74.8165,27.0089,-21.0618,-40.9032,25.0342,7.12502,-13.8383,54.5539,-17.1708,20.8447,11.1675,24.822,-16.6881,-22.961,6.29689,-6.92965,10.4395,-15.7538,40.6728,-0.638072,19.9724,-7.12099
-1.11536,18.925,-0.42506,-6.2652,-65.8819,11.5061,6.20938,-2.80887,4.23206,3.33402,-3.58015,2.7916,-0.110181,-1.79823,0.729013,-10.5668,-0.113986,-5.50949,29.6528,-1.38434,5.80393,11.421,-0.778809,2.88004,7.95139e-14,-3.65764e-14,-32.2729,21.1419,-83.4141,120.608,-57.6117,-44.2697,-5.71222,7.12502,-17.0808,-34.9813,7.95139e-14,-3.65764e-14,-16.2877,-5.1048,74.6644,27.078,-21.3926,-41.0606,25.2344,7.12502,-13.99,54.7437,-16.7471,20.689,11.6447,24.827,-16.6921,-22.6304,6.21216,-7.45279,10.3835,-15.3231,41.9805,0.0250231,19.5847,-5.55095
-1.16821,18.9253,-0.424942,-6.28808,-66.0148,11.307,6.34338,-2.78818,4.56045,3.37398,-3.52939,2.71727,-0.165136,-1.76919,0.473625,-10.4637,-0.0881444,-5.34584,29.5723,-1.39227,5.82429,11.3682,-0.762684,2.85521,-2.38542e-14,1.59028e-15,-32.1338,21.6698,-83.7124,120.354,-57.4071,-44.5142,-5.59317,7.12502,-17.3162,-34.8418,-2.38542e-14,1.59028e-15,-16.0636,-5.41527,74.5222,27.0901,-21.7506,-41.1062,25.606,7.12502,-14.034,55.1122,-16.3215,20.2571,12.0041,24.7566,-16.579,-22.0716,5.98357,-8.01523,10.2022,-15.0437,43.2226,0.446033,19.0613,-5.21577
-1.22344,18.9234,-0.427417,-6.20145,-66.2682,11.0633,6.42597,-2.72241,4.79132,3.38277,-3.42502,2.68278,-0.213611,-1.71509,0.307316,-10.2727,-0.0171366,-5.0586,29.4322,-1.32356,5.71288,11.2682,-0.714495,2.76726,8.34896e-15,1.27222e-14,-32.0933,22.3219,-84.0181,120.116,-57.2317,-44.7332,-4.53474,7.12502,-17.5269,-33.7647,8.34896e-15,1.27222e-14,-15.8799,-5.74093,74.3932,27.1148,-22.0541,-41.286,25.985,7.12502,-14.2072,55.4791,-15.9902,20.0401,12.3726,24.6619,-16.4649,-21.6583,5.78734,-8.61304,10.0986,-14.7332,44.3744,0.608896,18.2838,-5.47414
-1.28158,18.9238,-0.42996,-6.04873,-66.4951,10.7488,6.45817,-2.70083,4.93074,3.42046,-3.39075,2.73205,-0.195583,-1.69726,0.278943,-10.2743,0.0702401,-4.99699,29.509,-1.21442,5.69439,11.2903,-0.662497,2.76469,-1.31198e-14,-3.18055e-14,-31.9687,23.1132,-84.2732,119.817,-56.949,-42.8979,-6.83641,7.12502,-15.76,-36.2148,-1.31198e-14,-3.18055e-14,-15.7131,-5.68281,74.324,27.1556,-22.5785,-41.4186,26.08,7.12502,-14.335,55.5651,-15.6662,19.8499,12.7891,24.6123,-16.3202,-21.4093,5.18851,-9.19495,9.8977,-14.4271,45.4288,0.556887,17.4701,-6.20374
-1.33609,18.9222,-0.43613,-6.14984,-66.7093,10.7926,6.45443,-2.66383,4.88259,3.44687,-3.34691,2.73442,-0.162149,-1.67558,0.303875,-10.3148,0.116655,-5.01107,29.6185,-1.17096,5.75283,11.3379,-0.639547,2.79695,-3.18055e-15,7.95139e-15,-31.8093,23.8816,-84.5825,119.549,-56.5865,-44.5102,-6.08054,7.12502,-17.3123,-35.3295,-3.18055e-15,7.95139e-15,-15.4834,-5.76338,74.2337,27.142,-22.9141,-41.5232,25.949,7.12502,-14.4358,55.4269,-15.4823,19.6991,13.0101,24.619,-16.1635,-21.2536,4.27008,-9.8894,9.85371,-14.281,46.3666,0.689156,16.5317,-8.17141
-1.38811,18.9143,-0.438465,-6.36661,-66.9142,10.9545,6.47412,-2.64748,4.86984,3.45879,-3.32524,2.69191,-0.161993,-1.66439,0.266338,-10.2605,0.194223,-5.03117,29.5711,-1.08217,5.8434,11.3023,-0.591672,2.84343,2.06736e-14,-1.74931e-14,-31.6492,24.72,-84.9134,119.308,-56.2551,-45.9636,-5.3115,7.12502,-18.7107,-34.4316,2.06736e-14,-1.74931e-14,-15.2578,-6.08171,74.1279,27.0828,-22.881,-41.6525,26.008,7.12502,-14.5603,55.477,-15.3108,19.7175,13.1407,24.6755,-16.185,-21.1363,3.58451,-10.5364,9.8112,-14.1886,47.1644,0.618749,15.5632,-9.90657
-1.4418,18.9134,-0.438201,-6.56965,-67.1566,11.0366,6.53925,-2.60366,4.87528,3.49201,-3.26514,2.67673,-0.162931,-1.63444,0.245706,-10.2243,0.259374,-4.94994,29.5726,-0.991636,5.78242,11.2889,-0.54997,2.81728,4.96962e-14,-3.18055e-14,-31.4796,25.5625,-85.1875,119.071,-56.0437,-46.4183,-5.45852,7.12502,-19.148,-34.5359,4.96962e-14,-3.18055e-14,-14.9866,-6.28842,74.0855,27.0077,-22.8756,-41.7408,26.3797,7.12502,-14.6454,55.8425,-15.0888,19.6227,13.3302,24.8105,-16.3821,-20.7414,3.80786,-11.0359,9.62912,-14.0761,47.8003,0.147981,14.812,-10.6308
-1.49677,18.9156,-0.435057,-6.99076,-67.4419,11.3338,6.59682,-2.49398,4.81155,3.54818,-3.12311,2.62005,-0.132381,-1.56319,0.213699,-10.2039,0.283259,-4.87164,29.5817,-0.989274,5.82093,11.2878,-0.536466,2.81813,4.09496e-14,-2.38542e-14,-31.33,26.2995,-85.4748,118.854,-55.7326,-46.7945,-5.20988,7.12502,-19.5097,-34.2511,4.09496e-14,-2.38542e-14,-14.6852,-6.64118,74.068,26.9911,-22.8652,-41.6712,27.091,7.12502,-14.5784,56.5587,-14.8523,19.3071,13.4594,24.9729,-16.4182,-20.2066,3.31699,-11.4569,9.39031,-14.0638,48.3046,-0.581776,14.2382,-10.2528
-1.55143,18.9124,-0.433282,-7.36589,-67.7224,11.6723,6.6038,-2.41362,4.70778,3.57184,-3.02311,2.56646,-0.106819,-1.51342,0.208594,-10.2155,0.375584,-4.85942,29.6277,-0.884721,5.89439,11.3005,-0.480089,2.85725,-1.98785e-14,2.22639e-14,-31.1663,27.0875,-85.8272,118.65,-55.2193,-46.8423,-5.13413,7.12502,-19.5557,-34.1706,-1.98785e-14,2.22639e-14,-14.4354,-6.83023,74.0113,26.9761,-22.9765,-41.6028,27.2157,7.12502,-14.5124,56.6882,-14.7236,19.2075,13.5424,25.1294,-16.4031,-19.9802,2.54627,-11.9461,9.18808,-14.0679,48.7024,-1.28872,13.6967,-9.62456
-1.60231,18.9074,-0.433258,-7.32001,-67.9128,11.6885,6.53594,-2.37756,4.6383,3.52428,-2.98059,2.60817,-0.111777,-1.49371,0.285115,-10.1982,0.469746,-4.87574,29.6963,-0.763319,5.92619,11.315,-0.42539,2.88823,-5.40694e-14,3.18055e-15,-31.0787,28.0097,-86.2067,118.418,-54.5792,-47.1179,-5.20568,7.12502,-19.8206,-34.215,-5.40694e-14,3.18055e-15,-14.2586,-6.80602,74.055,26.9563,-22.9957,-41.7142,27.1248,7.12502,-14.6198,56.5895,-14.724,19.1704,13.6759,25.2701,-16.5212,-19.8162,2.34865,-12.6081,8.98739,-13.9618,49.0297,-1.80027,13.091,-9.56348
-1.65007,18.9043,-0.432863,-7.26475,-67.9988,11.7313,6.4837,-2.35915,4.54059,3.46304,-2.96044,2.62981,-0.140111,-1.4854,0.359367,-10.1556,0.532273,-4.81338,29.6483,-0.694001,5.95225,11.2827,-0.384144,2.8937,-2.50469e-14,-2.22639e-14,-30.9777,28.9348,-86.5419,118.201,-53.9378,-47.6384,-5.24835,7.12502,-20.321,-34.2052,-2.50469e-14,-2.22639e-14,-14.0514,-6.88944,74.0973,26.8845,-22.9088,-41.9379,27.0722,7.12502,-14.8353,56.5212,-14.737,19.1878,13.7453,25.3846,-16.7594,-19.7196,2.35536,-13.3398,8.68791,-13.9217,49.2759,-2.0973,12.4876,-10.5722
-1.6998,18.9003,-0.428893,-7.24343,-68.1534,11.7517,6.44394,-2.32336,4.5514,3.45775,-2.91408,2.58437,-0.125256,-1.46114,0.301768,-10.1551,0.603946,-4.75521,29.5815,-0.631125,6.06405,11.252,-0.33492,2.93085,-2.18663e-14,3.02153e-14,-30.7807,29.7353,-86.9217,117.995,-53.4021,-48.048,-5.03065,7.12502,-20.7145,-33.9451,-2.18663e-14,3.02153e-14,-13.7654,-7.03285,74.0207,26.8064,-23.0401,-41.853,27.0828,7.12502,-14.7536,56.5377,-14.6758,19.2824,13.8488,25.4711,-16.8277,-19.6579,1.78787,-13.9579,8.3972,-13.8759,49.4008,-2.41913,12.051,-11.5352
-1.75324,18.897,-0.421151,-6.93039,-68.4295,11.4308,6.37096,-2.27436,4.73185,3.46845,-2.84549,2.57916,-0.0798989,-1.42405,0.188134,-10.0866,0.668064,-4.68227,29.5295,-0.550882,6.04895,11.2125,-0.292999,2.91993,2.46493e-14,3.18055e-15,-30.6863,30.6061,-87.3191,117.828,-52.8222,-48.4034,-4.62744,7.12502,-21.056,-33.5043,2.46493e-14,3.18055e-15,-13.4705,-6.79293,73.986,26.6598,-23.4127,-41.7689,27.3459,7.12502,-14.6725,56.8067,-14.595,19.2814,14.124,25.5484,-16.7483,-19.4688,1.04602,-14.4714,8.2363,-13.6535,49.3891,-2.75545,11.6441,-11.5277
-1.80748,18.8945,-0.409421,-7.19369,-68.7464,11.6202,6.40265,-2.19593,4.72947,3.48697,-2.74037,2.51277,-0.0782607,-1.37076,0.114873,-10.0524,0.751536,-4.52163,29.5411,-0.457416,6.00385,11.2038,-0.239569,2.88609,-1.70955e-14,2.22639e-14,-30.6732,31.5001,-87.8072,117.629,-52.127,-48.8011,-4.36857,7.12502,-21.438,-33.2024,-1.70955e-14,2.22639e-14,-13.2095,-6.70573,73.9805,26.4829,-23.5393,-41.7883,27.8028,7.12502,-14.6912,57.2622,-14.4058,19.0863,14.231,25.6258,-16.8202,-19.0453,0.838531,-14.7764,8.10629,-13.6276,49.218,-3.12381,11.2753,-10.9336
-1.85842,18.8903,-0.396345,-7.73744,-69.0796,12.0587,6.5129,-2.10181,4.72275,3.53474,-2.61085,2.37121,-0.0921916,-1.30455,-0.0325604,-10.0749,0.822663,-4.42091,29.5132,-0.392073,6.06659,11.1931,-0.190665,2.89898,1.07344e-14,-3.18055e-15,-30.5558,32.3095,-88.2858,117.446,-51.5663,-49.1877,-4.09784,7.12502,-21.8092,-32.889,1.07344e-14,-3.18055e-15,-12.8736,-6.68025,73.9187,26.2882,-23.4813,-41.665,28.3362,7.12502,-14.5724,57.8043,-14.1766,18.9599,14.2602,25.7025,-16.7938,-18.7062,0.363819,-15.0126,8.01495,-13.6881,48.9307,-3.41326,10.7613,-10.9236
-1.90708,18.886,-0.386024,-7.93378,-69.411,12.1666,6.637,-2.04434,4.69827,3.56905,-2.53089,2.36524,-0.12191,-1.26583,-0.0266456,-10.0803,0.917177,-4.50841,29.4655,-0.237949,6.09271,11.165,-0.126108,2.94129,5.96354e-14,-1.43125e-14,-30.3778,33.1725,-88.6329,117.335,-51.0629,-49.2784,-4.57977,7.12502,-21.8964,-33.3607,5.96354e-14,-1.43125e-14,-12.6085,-6.2474,73.9601,26.1684,-23.6919,-41.4918,28.4651,7.12502,-14.4055,57.9452,-14.0051,18.9668,14.387,25.7985,-16.9123,-18.473,0.145613,-15.306,7.90501,-13.5944,48.5602,-3.62724,10.147,-10.4176
-1.95674,18.8793,-0.375418,-8.11868,-69.7082,12.3213,6.69774,-1.99846,4.54784,3.58508,-2.47661,2.41916,-0.129036,-1.24185,0.110478,-10.0724,1.05465,-4.6299,29.4571,-0.00958026,6.08776,11.1441,-0.0361274,2.98772,-4.8901e-14,1.74931e-14,-30.217,34.1084,-88.9191,117.211,-50.4345,-49.2131,-4.81627,7.12502,-21.8337,-33.6046,-4.8901e-14,1.74931e-14,-12.4397,-5.88686,74.0843,26.1103,-23.9525,-41.4194,28.634,7.12502,-14.3358,58.119,-13.8827,19.0915,14.4526,25.8793,-17.1555,-18.3,0.47785,-15.6518,7.71449,-13.5462,48.1376,-3.87764,9.84055,-9.16749
-2.00271,18.8709,-0.36344,-7.80364,-69.956,11.9943,6.75078,-1.96557,4.72388,3.57612,-2.41912,2.38148,-0.173845,-1.21147,-0.0280208,-10.0444,1.17078,-4.46776,29.4249,0.13639,6.04072,11.1172,0.0423588,2.95789,-4.21423e-14,-4.77083e-15,-30.1177,35.002,-89.417,117.008,-49.576,-49.635,-4.24129,7.12502,-22.2387,-32.9818,-4.21423e-14,-4.77083e-15,-12.1935,-5.78495,74.0657,26.0034,-23.9436,-41.3166,28.6593,7.12502,-14.2367,58.1513,-13.8122,19.1637,14.6781,25.9608,-17.3139,-18.0808,0.956527,-16.0862,7.61247,-13.3247,47.6446,-4.19831,9.84111,-9.20514
-2.05127,18.8637,-0.346874,-7.14903,-70.2402,11.2924,6.76188,-1.93295,5.11305,3.60231,-2.35525,2.31849,-0.16667,-1.17416,-0.313778,-10.0652,1.26819,-4.2194,29.3453,0.237658,6.01341,11.0856,0.114218,2.91436,2.78299e-14,-1.27222e-14,-29.9856,35.8098,-89.9997,116.833,-48.5993,-50.0434,-3.9259,7.12502,-22.6308,-32.6192,2.78299e-14,-1.27222e-14,-11.8501,-5.7258,73.9495,25.8116,-23.8173,-41.0903,28.9061,7.12502,-14.0186,58.4134,-13.7142,19.0828,15.0577,26.0541,-17.4168,-17.8147,0.712288,-16.4327,7.54594,-12.9623,47.0617,-4.86548,9.97999,-9.67464
-2.10343,18.862,-0.328783,-7.39195,-70.5599,11.5689,6.72327,-1.81896,5.06577,3.63148,-2.21095,2.2444,-0.110402,-1.10048,-0.376166,-10.091,1.32357,-4.10968,29.2886,0.300501,6.01351,11.0658,0.156687,2.9015,-7.55382e-15,-4.92986e-14,-29.8676,36.555,-90.4334,116.709,-47.5946,-50.5139,-4.23832,7.12502,-23.0823,-32.8758,-7.55382e-15,-4.92986e-14,-11.4883,-5.771,73.9668,25.5531,-23.7472,-41.0373,29.3104,7.12502,-13.9676,58.8212,-13.6486,19.0915,15.0409,26.1571,-17.5903,-17.4769,0.651268,-16.7063,7.46988,-12.973,46.3445,-5.58623,10.2089,-8.96358
-2.15079,18.8558,-0.310997,-7.63971,-70.7991,11.9059,6.69844,-1.75997,4.93696,3.63049,-2.14096,2.1981,-0.0925467,-1.06606,-0.358055,-10.1635,1.3963,-4.12548,29.2757,0.398573,6.069,11.0685,0.207803,2.93705,-5.36719e-14,-2.54444e-14,-29.751,37.4446,-90.7585,116.659,-46.6529,-50.9727,-4.29595,7.12502,-23.5224,-32.8777,-5.36719e-14,-2.54444e-14,-11.1957,-5.30384,74.0123,25.2816,-24.024,-40.7872,29.3156,7.12502,-13.7266,58.8428,-13.6453,19.0421,14.9672,26.2328,-17.7312,-17.1402,0.723129,-17.0617,7.32292,-13.0028,45.5202,-6.14596,10.3133,-7.57286
-2.19931,18.8497,-0.292716,-7.73129,-71.1546,11.9419,6.79717,-1.72247,4.92936,3.67375,-2.08853,2.15879,-0.101407,-1.03995,-0.395658,-10.138,1.51224,-4.15798,29.131,0.564956,6.13544,10.9963,0.290004,2.98216,1.59028e-15,2.22639e-14,-29.5674,38.3728,-91.1089,116.602,-45.9441,-51.5219,-4.10757,7.12502,-24.0492,-32.6207,1.59028e-15,2.22639e-14,-10.8788,-4.36102,74.0172,24.9249,-24.5955,-40.3178,28.9702,7.12502,-13.2741,58.5275,-13.4952,18.9102,15.072,26.2779,-17.8232,-16.8639,0.405072,-17.2186,7.29075,-12.8914,44.5984,-6.59872,10.5009,-6.12717
-2.25134,18.8466,-0.266233,-8.09271,-71.0731,12.0707,6.98495,-1.81126,4.97862,3.76817,-2.19715,2.02074,-0.119096,-1.09207,-0.552832,-10.0898,1.59916,-3.98875,28.9886,0.655584,6.15489,10.9277,0.35336,2.96529,-4.13472e-14,-9.54166e-15,-29.3935,39.0998,-91.548,116.507,-45.2234,-51.7732,-4.22056,7.12502,-24.29,-32.7017,-4.13472e-14,-9.54166e-15,-10.5027,-3.89099,73.9219,24.5873,-24.7985,-40.1567,28.6635,7.12502,-13.1189,58.2308,-12.9799,18.6888,15.1705,26.2936,-18.0882,-16.9523,0.079846,-17.2567,6.9072,-12.9091,43.6249,-6.97164,10.9307,-4.66246
-2.30234,18.8457,-0.232739,-8.23562,-70.3362,11.9862,7.06588,-2.10894,5.10804,3.85382,-2.5842,1.92379,-0.102041,-1.28152,-0.694207,-10.1207,1.6988,-3.88906,28.9823,0.781655,6.1458,10.9245,0.421212,2.95957,2.26615e-14,1.90833e-14,-29.2256,39.8833,-91.8645,116.428,-44.2772,-52.0331,-4.85741,7.12502,-24.5392,-33.305,2.26615e-14,1.90833e-14,-10.0767,-3.53804,73.914,24.1298,-24.8134,-40.0729,28.5981,7.12502,-13.0381,58.1706,-12.3369,18.3106,15.2503,26.2999,-18.4939,-17.099,0.423073,-17.4708,5.89038,-12.9973,42.6034,-7.23996,11.3484,-3.18468
-2.35294,18.8438,-0.204142,-7.85511,-70.1006,11.6077,6.99159,-2.27288,5.24838,3.86463,-2.79948,1.94521,-0.0649778,-1.38646,-0.736904,-10.1451,1.83524,-3.94454,28.9842,0.985904,6.16496,10.9161,0.510919,3.00045,3.10104e-14,0,-28.9737,40.8671,-92.0749,116.379,-43.2515,-52.561,-5.16442,7.12502,-25.0452,-33.5424,3.10104e-14,0,-9.72707,-2.96573,73.9791,23.5585,-25.3896,-39.8275,29.0829,7.12502,-12.8015,58.6704,-12.0656,18.1824,15.399,26.29,-18.7412,-16.9261,0.792902,-17.8138,5.35751,-12.8678,41.5202,-7.49191,11.6408,-3.23598
-2.4021,18.8368,-0.189275,-7.94697,-70.9611,11.8291,7.00349,-2.05699,5.01621,3.86546,-2.52692,1.97535,-0.0469202,-1.25414,-0.597156,-10.1283,1.96819,-3.97421,28.9318,1.19169,6.14841,10.8795,0.600136,3.02139,1.74931e-14,-3.81667e-14,-28.7235,41.7106,-92.3627,116.323,-42.256,-53.0308,-4.87884,7.12502,-25.4953,-33.1932,1.74931e-14,-3.81667e-14,-9.45561,-2.37752,74.0192,23.0467,-26.2138,-39.5866,29.5853,7.12502,-12.5692,59.1872,-12.174,18.5703,15.416,26.2693,-18.4437,-16.486,0.204502,-17.9733,5.92181,-12.712,40.3715,-7.72672,11.9542,-4.25665
-2.44742,18.8307,-0.179091,-7.9978,-72.0503,11.906,7.20682,-1.76937,4.834,3.89801,-2.1465,1.95384,-0.102923,-1.06846,-0.540264,-10.1587,2.09897,-3.8578,28.8825,1.36945,6.11202,10.8575,0.690657,3.0073,1.74931e-14,1.43125e-14,-28.4831,42.4095,-92.7216,116.303,-41.3537,-53.3871,-4.43077,7.12502,-25.8365,-32.6959,1.74931e-14,1.43125e-14,-9.05985,-1.62719,73.892,22.4614,-26.9104,-39.4746,29.4896,7.12502,-12.4613,59.0981,-12.2528,19.0339,15.5577,26.2468,-18.1604,-16.0238,-0.248988,-17.9674,6.51045,-12.4248,39.1389,-7.97873,12.397,-4.47106
-2.49603,18.8309,-0.15623,-7.99696,-72.6092,11.9016,7.31086,-1.6436,4.8463,3.94184,-1.97547,1.84558,-0.111509,-0.981919,-0.669234,-10.1773,2.17273,-3.72706,28.8219,1.44592,6.13033,10.8351,0.742679,2.99843,2.94201e-14,-1.11319e-14,-28.254,42.9549,-93.0995,116.302,-40.4908,-53.5413,-4.47346,7.12502,-25.9841,-32.717,2.94201e-14,-1.11319e-14,-8.57643,-0.844773,73.7345,21.7582,-27.5695,-39.2556,28.879,7.12502,-12.2501,58.5003,-12.1578,19.1292,15.6574,26.2166,-18.0957,-15.6729,-0.462628,-17.9798,6.37535,-12.2422,37.8237,-8.06964,12.9407,-5.94075
-2.54655,18.8306,-0.124885,-7.9999,-72.8601,11.959,7.27853,-1.61906,4.89023,3.98084,-1.94434,1.70974,-0.0576938,-0.962626,-0.837611,-10.2328,2.25678,-3.60478,28.7844,1.51626,6.22527,10.8279,0.799977,3.01969,1.74931e-14,-9.54166e-15,-27.9392,43.481,-93.4263,116.277,-39.5696,-53.8114,-4.83693,7.12502,-26.2428,-33.0423,1.74931e-14,-9.54166e-15,-8.07488,-0.105299,73.5631,21.0462,-28.3274,-38.9653,28.1683,7.12502,-11.9702,57.806,-12.0331,18.994,15.6598,26.141,-18.0965,-15.3753,-0.643596,-18.0735,6.06024,-12.1502,36.4316,-7.93474,13.3545,-7.71391
-2.59298,18.8271,-0.0958951,-7.91424,-73.0697,11.9764,7.26333,-1.5979,4.81223,3.9776,-1.92128,1.64878,-0.0515895,-0.951134,-0.85908,-10.1678,2.35857,-3.53859,28.6894,1.63211,6.28977,10.7718,0.867529,3.04041,2.78299e-14,1.59028e-14,-27.6908,43.982,-93.6895,116.345,-38.7281,-54.0296,-5.38192,7.12502,-26.4517,-33.556,2.78299e-14,1.59028e-14,-7.63906,1.45988,73.4914,20.4919,-29.7608,-38.3794,26.6409,7.12502,-11.4052,56.3107,-11.962,18.8316,15.6635,26.0153,-18.1227,-15.1569,-0.849266,-18.2516,5.83676,-12.0242,35.021,-7.90134,13.6459,-8.23127
-2.6418,18.8257,-0.0652056,-7.98505,-73.3296,12.1335,7.23821,-1.58804,4.70326,4.02726,-1.91954,1.58451,0.014506,-0.949594,-0.866231,-10.2485,2.46824,-3.42207,28.6685,1.79582,6.19728,10.7733,0.945661,3.00631,5.52621e-14,-9.54166e-15,-27.3262,44.5121,-93.8677,116.341,-37.9442,-54.2244,-5.20047,7.12502,-26.6381,-33.3464,5.52621e-14,-9.54166e-15,-7.30634,3.65187,73.4689,20.271,-31.6239,-37.5666,24.863,7.12502,-10.6212,54.5746,-11.8289,18.719,15.6354,25.8392,-18.1605,-14.9528,-1.39042,-18.3567,5.5823,-11.9388,33.5935,-7.81111,14.0585,-8.81731
-2.69288,18.8261,-0.0313401,-7.54337,-73.6381,11.7669,7.14322,-1.57825,4.82199,4.12738,-1.91253,1.52684,0.166159,-0.940492,-0.996677,-10.4117,2.59762,-3.24064,28.6411,1.97968,6.09972,10.7895,1.04114,2.96334,3.33958e-14,-3.49861e-14,-26.8023,45.1929,-93.8154,116.218,-37.3156,-54.8985,-4.65096,7.12502,-27.2831,-32.6972,3.33958e-14,-3.49861e-14,-6.87817,4.54852,73.4189,19.8982,-32.5629,-37.1444,24.7898,7.12502,-10.214,54.5218,-11.6634,18.6928,15.7555,25.6078,-18.1632,-14.7269,-1.66883,-18.44,5.21934,-11.667,32.1434,-7.72527,14.5887,-8.88846
-2.74148,18.8291,0.00275669,-6.78348,-73.9259,11.0419,7.19481,-1.59237,4.98293,4.16137,-1.92162,1.49747,0.167369,-0.942389,-1.11502,-10.4907,2.74532,-3.05157,28.6195,2.15606,6.08765,10.7905,1.1416,2.94755,0,1.11319e-14,-26.3209,46.0752,-93.6647,116.088,-36.7548,-55.6132,-4.47192,7.12502,-27.9665,-32.4087,0,1.11319e-14,-6.38422,4.43021,73.2827,19.0621,-32.9194,-37.3752,25.7799,7.12502,-10.4366,55.5009,-11.442,18.761,15.9866,25.3288,-18.1428,-14.5769,-1.60047,-18.5059,4.67721,-11.252,30.652,-7.60016,15.1664,-8.23382
-2.79049,18.8331,0.0410613,-6.66726,-74.1875,10.9204,7.2995,-1.62605,4.98367,4.17059,-1.96027,1.41721,0.114158,-0.961894,-1.19237,-10.4182,2.86091,-2.95757,28.5544,2.30591,6.06589,10.7451,1.21632,2.93649,4.53229e-14,1.35174e-14,-26.0464,46.5938,-93.955,116.121,-36.0129,-55.5954,-4.811,7.12502,-27.9495,-32.7506,4.53229e-14,1.35174e-14,-6.08898,4.55832,73.1454,18.4433,-33.5742,-37.4158,26.9375,7.12502,-10.4758,56.6564,-11.1076,18.8647,16.0192,25.0062,-18.3117,-14.3523,-0.937561,-18.4586,4.07316,-11.0076,29.1378,-7.48901,15.5616,-7.91355
-2.84252,18.8363,0.0802919,-7.04322,-74.4989,11.2877,7.3563,-1.6103,4.83787,4.23163,-1.94854,1.298,0.146469,-0.956026,-1.23419,-10.4151,2.97027,-2.90905,28.5,2.43824,6.11994,10.7164,1.28833,2.96074,-2.18663e-14,1.03368e-14,-25.8211,46.7153,-94.2955,116.321,-35.2032,-55.3169,-5.49488,7.12502,-27.6833,-33.4775,-2.18663e-14,1.03368e-14,-5.97719,4.27611,73.0121,18.3486,-33.6742,-37.0177,27.0557,7.12502,-10.0917,56.7937,-10.7361,18.9642,15.9041,24.6757,-18.4621,-14.0223,-0.584287,-18.3332,3.58773,-10.885,27.5894,-7.17951,15.8598,-7.5635
-2.88856,18.8414,0.11954,-6.89693,-75.0508,11.1489,7.47063,-1.48363,4.89931,4.3134,-1.77572,1.14148,0.171796,-0.866323,-1.44106,-10.5193,3.04692,-2.55836,28.4758,2.48769,6.06959,10.734,1.34362,2.88946,1.11319e-14,-3.18055e-15,-25.4861,46.8257,-94.4471,116.336,-34.4887,-55.7611,-5.20889,7.12502,-28.1079,-33.1226,1.11319e-14,-3.18055e-15,-5.70642,3.84279,72.8031,18.2508,-33.6562,-36.4078,25.9124,7.12502,-9.50332,55.6781,-10.4905,19.0777,15.9137,24.3451,-18.5661,-13.4213,0.540125,-18.2187,3.08064,-10.5164,26.0501,-6.91215,16.4667,-6.19326
-2.92907,18.8444,0.16338,-6.09738,-75.6787,10.3422,7.70579,-1.36058,5.11907,4.33386,-1.58712,1.05139,0.0681298,-0.770506,-1.66587,-10.6011,3.11665,-2.31568,28.5484,2.51412,6.10938,10.7808,1.38465,2.86928,1.23246e-14,-3.10104e-14,-25.2038,47.0936,-94.5353,116.332,-34.006,-56.0686,-4.92396,7.12502,-28.4018,-32.789,1.23246e-14,-3.10104e-14,-5.58184,2.87834,72.6035,18.2907,-33.1115,-35.9909,25.2265,7.12502,-9.10099,55.0101,-10.2966,19.1026,16.097,24.0072,-18.5361,-12.8305,0.942147,-18.1115,2.46468,-9.93363,24.5394,-6.45281,17.1891,-6.64298
-2.97646,18.8433,0.206168,-4.65796,-76.0465,9.0341,7.62496,-1.34576,5.29751,4.35854,-1.56388,1.07887,0.137395,-0.754955,-1.74117,-10.6326,3.19754,-2.2877,28.5281,2.60681,6.16765,10.7739,1.43655,2.89618,1.15295e-14,1.11319e-14,-24.7918,47.5145,-94.4511,116.347,-33.5427,-56.1621,-5.1461,7.12502,-28.4912,-32.9962,1.15295e-14,1.11319e-14,-5.51969,2.09611,72.4875,18.3673,-32.5853,-35.5882,24.6527,7.12502,-8.71239,54.4529,-10.1755,19.234,16.3867,23.6701,-18.4675,-12.7201,0.717176,-18.1841,1.78027,-9.25671,23.0217,-5.55484,17.4398,-8.43807
-3.0303,18.8455,0.251172,-3.6769,-76.2066,8.38071,7.17966,-1.31859,5.33337,4.40171,-1.55592,1.01554,0.426229,-0.74127,-1.83772,-10.5945,3.24088,-2.02283,28.3571,2.64317,6.08685,10.7081,1.4734,2.81895,6.16232e-15,3.18055e-15,-24.1988,47.6968,-94.2692,116.301,-33.0554,-56.263,-4.95394,7.12502,-28.5875,-32.7879,6.16232e-15,3.18055e-15,-5.31392,1.60478,72.4037,18.3995,-32.5134,-35.3505,23.8837,7.12502,-8.48303,53.6933,-10.2024,19.4272,16.4149,23.3499,-18.4367,-12.8077,0.721201,-18.4135,0.587281,-8.69611,21.4642,-4.89461,17.6402,-8.22038
-3.08073,18.8483,0.301469,-3.59781,-76.5033,8.59362,6.93266,-1.38972,5.13159,4.3781,-1.67453,0.980334,0.532775,-0.800531,-1.75853,-10.5721,3.428,-2.05572,28.3886,2.9169,6.06612,10.7008,1.59022,2.84856,-2.14687e-14,3.18055e-15,-23.7957,48.3695,-94.2047,116.238,-32.5379,-56.333,-5.35475,7.12502,-28.6544,-33.1774,-2.14687e-14,3.18055e-15,-5.4536,1.23433,72.2875,18.5117,-32.2345,-35.3606,23.72,7.12502,-8.49277,53.5292,-10.2106,19.4292,16.1861,23.0288,-18.3645,-12.5076,0.768854,-18.5172,-0.723757,-8.27325,19.9075,-4.65565,18.0512,-7.0187
-3.13122,18.8496,0.349796,-3.34809,-76.9729,8.52429,6.9198,-1.58906,4.73935,4.30301,-1.95811,1.16218,0.45901,-0.954159,-1.33215,-10.4097,3.78418,-2.58106,28.3942,3.51662,6.12318,10.6228,1.81129,3.02176,-1.43125e-14,-1.03368e-14,-23.6556,49.661,-94.1309,116.255,-32.0914,-56.4598,-6.11731,7.12502,-28.7755,-33.9194,-1.43125e-14,-1.03368e-14,-5.951,1.60335,72.2701,18.5901,-32.3032,-35.3385,24.1454,7.12502,-8.47146,53.9555,-10.1276,19.5593,16.0791,22.7139,-18.4407,-12.1823,1.67752,-18.4537,-1.73416,-7.71969,18.3242,-4.01275,18.3318,-6.88711
-3.18208,18.8474,0.397053,-2.39638,-77.5366,7.7124,6.93449,-1.61469,4.56917,4.27119,-2.00027,1.27524,0.424074,-0.981155,-1.11702,-10.2792,3.98846,-2.82776,28.3338,3.84521,6.16995,10.5475,1.93909,3.11044,3.37934e-15,-1.35174e-14,-23.4106,50.3831,-93.9991,116.284,-31.7382,-56.8701,-6.52312,7.12502,-29.1674,-34.258,3.37934e-15,-1.35174e-14,-6.13033,1.6784,72.2199,18.6071,-32.4532,-35.2018,24.1154,7.12502,-8.33948,53.9308,-10.0521,19.726,16.1897,22.4027,-18.4407,-11.9897,2.00468,-18.3159,-2.7895,-6.9119,16.7175,-3.22574,18.4732,-7.39884
-3.23343,18.8443,0.449557,-1.48487,-78.015,6.96333,6.9041,-1.53476,4.54965,4.23205,-1.89399,1.21403,0.404276,-0.927842,-1.17665,-10.2046,4.07771,-2.60801,28.3553,3.93367,6.10231,10.5443,1.99143,3.05652,8.15017e-15,1.66979e-14,-23.2532,50.5822,-93.9646,116.294,-31.3062,-57.258,-6.19088,7.12502,-29.5378,-33.8609,8.15017e-15,1.66979e-14,-6.12031,1.16235,72.0841,18.6252,-32.3321,-34.7668,23.6456,7.12502,-7.91974,53.4772,-9.97355,19.7695,16.2395,22.0704,-18.3458,-11.7957,1.11235,-18.1702,-4.4691,-6.0098,15.1459,-3.10313,18.8438,-6.74857
-3.28572,18.8442,0.505354,-1.49858,-78.4974,7.12353,6.90952,-1.50794,4.27802,4.21642,-1.87105,1.09454,0.389111,-0.919479,-1.14924,-10.1771,4.21431,-2.3568,28.4289,4.07826,6.03746,10.5681,2.07203,3.0077,1.8487e-14,-6.36111e-15,-22.9111,50.9269,-93.9316,116.177,-30.8711,-57.2711,-5.52948,7.12502,-29.5503,-33.1972,1.8487e-14,-6.36111e-15,-6.18874,0.697583,71.833,18.7455,-31.9906,-34.103,23.1066,7.12502,-7.27897,52.9614,-9.83557,19.8735,16.0401,21.733,-18.4657,-11.4589,0.750095,-17.9851,-6.52102,-5.23831,13.6267,-2.98164,19.4137,-6.52643
-3.3378,18.8438,0.563871,-1.23015,-79.1193,6.89436,7.01812,-1.48465,4.07877,4.24219,-1.84753,0.996513,0.358785,-0.910778,-1.13797,-10.1623,4.40284,-2.16782,28.4876,4.29454,6.03383,10.5819,2.18645,2.9992,-2.94201e-14,4.29375e-14,-22.5833,51.3272,-93.9644,116.04,-30.4595,-57.308,-4.703,7.12502,-29.5855,-32.3645,-2.94201e-14,4.29375e-14,-6.33401,-0.200748,71.4772,19.0167,-30.8587,-33.5892,22.3826,7.12502,-6.78302,52.2539,-9.61395,20.0384,15.9665,21.4093,-18.5528,-11.0355,0.978645,-17.6852,-8.41304,-4.35103,12.1822,-2.80885,19.8176,-6.85932
-3.39048,18.8374,0.623362,-0.509286,-79.762,6.29029,7.06948,-1.44655,3.92091,4.19698,-1.80096,0.961037,0.288597,-0.89113,-1.08748,-10.0884,4.57956,-2.21343,28.5554,4.50276,6.17069,10.5756,2.28764,3.07811,9.54166e-15,-9.54166e-15,-22.4535,51.686,-94.0272,115.954,-30.0728,-57.1333,-4.7543,7.12502,-29.4187,-32.4453,9.54166e-15,-9.54166e-15,-6.60036,-0.853969,71.2772,19.2899,-29.9456,-33.1181,21.927,7.12502,-6.32826,51.8125,-9.50953,20.2278,15.9477,21.094,-18.4613,-10.7424,0.294098,-17.5336,-9.78666,-3.45337,10.8781,-2.35174,19.7913,-7.74581
-3.44196,18.8317,0.680457,1.29153,-80.3133,4.80026,6.87196,-1.39261,3.87,4.13248,-1.73743,0.967418,0.335336,-0.859027,-1.061,-9.97331,4.6709,-2.29095,28.5119,4.59544,6.33636,10.5233,2.33791,3.15426,-1.86858e-14,9.54166e-15,-22.194,51.9487,-93.9862,115.817,-29.7314,-56.7482,-5.26522,7.12502,-29.0511,-33.0202,-1.86858e-14,9.54166e-15,-6.74447,-1.0629,71.1779,19.4559,-29.6974,-32.8473,22.0126,7.12502,-6.06682,51.9057,-9.6461,20.4035,16.0045,20.7914,-18.2959,-10.5232,-0.967306,-17.6517,-9.9012,-2.7429,9.71388,-1.05065,18.7042,-9.76997
-3.48674,18.8294,0.736161,3.73889,-80.8216,2.69597,6.71666,-1.34945,3.87886,4.08083,-1.68359,0.949066,0.369477,-0.830758,-1.09155,-10.0285,4.76816,-2.18802,28.5714,4.686,6.39637,10.5531,2.39428,3.17189,1.76918e-14,-6.36111e-15,-21.7587,52.1953,-93.844,115.646,-29.5008,-56.2439,-4.50053,7.12502,-28.5693,-32.3375,1.76918e-14,-6.36111e-15,-6.65787,-0.923601,71.0072,19.4307,-29.6202,-32.6479,21.5718,7.12502,-5.87427,51.4704,-9.89142,20.6551,16.095,20.5371,-18.1829,-10.3014,-1.44747,-17.8593,-10.0278,-1.94986,8.62281,0.0214044,17.7338,-10.6061
-3.53471,18.8275,0.800667,4.79562,-81.41,1.89583,6.58955,-1.25132,3.76221,4.07071,-1.56378,0.811627,0.433599,-0.769512,-1.17836,-9.94937,4.88952,-1.95866,28.5296,4.81036,6.37247,10.5244,2.47017,3.13313,-1.23246e-14,5.96354e-15,-21.3518,52.2688,-93.6765,115.489,-29.1983,-55.9265,-4.67755,7.12502,-28.266,-32.5652,-1.23246e-14,5.96354e-15,-6.54053,-1.07977,70.8418,19.4512,-29.4814,-32.5789,21.327,7.12502,-5.8077,51.2274,-10.0165,20.8085,15.917,20.3144,-18.1514,-9.92461,-1.52393,-17.8804,-10.1341,-1.48088,7.66228,0.457945,16.9033,-9.33712
-3.58947,18.8233,0.871839,3.80715,-82.0811,2.96047,6.58223,-1.13906,3.35775,4.11447,-1.4377,0.595381,0.491184,-0.709644,-1.18327,-9.87031,5.02213,-1.84017,28.5276,4.92331,6.51459,10.5016,2.54688,3.17242,1.59028e-15,0,-20.9952,52.3183,-93.6113,115.285,-28.8932,-55.3601,-5.65958,7.12502,-27.7245,-33.6356,1.59028e-15,0,-6.53815,-1.89958,70.6387,19.5991,-28.8952,-32.4266,21.7812,7.12502,-5.66057,51.6856,-9.88439,20.791,15.5193,20.0996,-18.0397,-9.45018,-2.04371,-17.6594,-10.2592,-1.37453,6.85639,1.45932,15.9429,-11.1693
-3.64636,18.8139,0.942976,4.04481,-82.7844,2.74712,6.6248,-1.04697,3.04033,4.14679,-1.33233,0.457153,0.508176,-0.660873,-1.15392,-9.80334,5.17848,-1.70899,28.5826,5.0693,6.63138,10.502,2.6356,3.20661,1.42131e-14,8.34896e-15,-20.782,52.4624,-93.6854,115.073,-28.7451,-55.0089,-4.78421,7.12502,-27.3887,-32.8138,1.42131e-14,8.34896e-15,-6.65412,-2.6814,70.3758,19.8004,-28.174,-31.9808,21.9951,7.12502,-5.23022,51.9105,-9.71307,20.8926,15.3386,19.9032,-17.9074,-8.94078,-2.38428,-17.4247,-10.3427,-1.0599,6.18312,2.98169,14.9617,-15.6095
-3.69946,18.8048,1.01674,5.64451,-83.4587,1.13743,6.73139,-0.973027,2.97329,4.18753,-1.23704,0.326669,0.493679,-0.613721,-1.25508,-9.70365,5.3347,-1.56005,28.5494,5.24006,6.67417,10.4654,2.7308,3.20922,-3.57812e-15,-5.36719e-15,-20.4611,52.6193,-93.5642,114.952,-28.9003,-54.5536,-4.03833,7.12502,-26.9531,-32.136,-3.57812e-15,-5.36719e-15,-6.62394,-2.81236,70.0824,19.7999,-28.1427,-31.2442,21.4938,7.12502,-4.51896,51.4256,-9.53572,21.0246,15.3271,19.7177,-17.8309,-8.52394,-2.75999,-17.2949,-10.4515,-0.597308,5.82159,3.64619,14.7061,-15.9483
-3.7463,18.7991,1.0934,6.81319,-84.0916,0.0190171,6.85747,-0.908481,2.89436,4.20181,-1.15298,0.115261,0.439401,-0.571772,-1.43176,-9.6317,5.48,-1.43057,28.5106,5.3879,6.76367,10.4311,2.8192,3.22995,9.49197e-15,-1.53064e-14,-20.1355,52.7247,-93.5384,114.86,-29.1074,-54.0804,-4.89169,7.12502,-26.5002,-33.0585,9.49197e-15,-1.53064e-14,-6.48118,-2.71046,69.7408,19.7159,-28.4913,-30.9296,20.8306,7.12502,-4.21516,50.7687,-9.46569,20.9824,15.1585,19.5297,-17.8191,-7.93818,-3.18878,-17.4823,-10.6166,-0.300904,5.98547,4.12751,14.8676,-15.6948
-3.79783,18.7907,1.17323,7.89004,-84.7905,-0.993294,6.9743,-0.802144,2.7115,4.16593,-1.01781,-0.0721366,0.343031,-0.506807,-1.52889,-9.51402,5.6179,-1.37438,28.5304,5.51804,6.90989,10.4053,2.89596,3.28151,-2.1916e-14,1.799e-14,-20.0512,52.786,-93.6971,114.699,-29.1578,-54.1098,-5.10211,7.12502,-26.5284,-33.2646,-2.1916e-14,1.799e-14,-6.45046,-2.95874,69.4678,19.6611,-28.5032,-31.0328,20.7548,7.12502,-4.31486,50.6909,-9.42501,21.0766,14.9283,19.3824,-17.8176,-7.43259,-3.51137,-17.7492,-10.7323,-0.0958686,6.42106,4.79924,15.0002,-16.4139
-3.85095,18.7765,1.25835,10.3515,-85.3918,-3.40218,7.06407,-0.730011,2.60815,4.14677,-0.925865,-0.177056,0.277448,-0.462712,-1.58374,-9.45306,5.76992,-1.19794,28.7049,5.71607,6.76147,10.4613,2.98082,3.22446,4.1869e-15,-1.03368e-14,-19.9974,52.8632,-93.7934,114.512,-29.0442,-54.2774,-4.36877,7.12502,-26.6888,-32.507,4.1869e-15,-1.03368e-14,-6.44533,-3.43725,69.2538,19.6339,-28.2488,-30.6883,20.5443,7.12502,-3.98219,50.4868,-9.36449,21.2177,14.8202,19.3104,-17.9064,-7.17327,-3.88117,-18.0358,-10.9149,0.247258,6.89169,5.54044,15.1641,-16.1398
-3.90345,18.7621,1.34195,13.6296,-85.9855,-6.65585,7.19199,-0.664584,2.424,4.13942,-0.847798,-0.233058,0.203919,-0.427744,-1.54182,-9.38448,5.94693,-0.827379,28.9093,6.02479,6.20643,10.5483,3.08991,3.00375,1.77912e-14,1.05853e-14,-19.7619,53.0295,-93.7171,114.31,-29.0862,-54.2665,-4.13372,7.12502,-26.6784,-32.2735,1.77912e-14,1.05853e-14,-6.45179,-3.37024,69.0891,19.5868,-28.468,-30.1272,20.3632,7.12502,-3.44029,50.3152,-9.30013,21.4736,14.7159,19.2748,-18.002,-6.93529,-3.96245,-18.3342,-11.1027,0.591891,7.53957,6.15992,15.358,-14.6863
-3.95664,18.7493,1.42469,15.564,-86.6131,-8.55957,7.27922,-0.55944,2.02142,4.1631,-0.733372,-0.339272,0.187486,-0.376969,-1.43244,-9.32071,6.09366,-0.742054,28.8494,6.21643,6.1994,10.5091,3.18448,3.00196,-3.47873e-16,8.34896e-15,-19.451,53.1412,-93.5572,114.103,-29.2069,-54.0108,-3.76591,7.12502,-26.4337,-31.9427,-3.47873e-16,8.34896e-15,-6.30717,-3.36907,68.8795,19.4586,-28.7032,-29.9752,20.3966,7.12502,-3.29355,50.3509,-9.2543,21.6922,14.4345,19.2602,-18.0937,-6.61778,-4.58757,-18.6497,-11.3004,0.725094,8.34726,6.62057,15.6233,-12.6043
-4.00891,18.7318,1.51368,20.715,-87.2155,-13.6796,7.34313,-0.436543,1.88776,4.1897,-0.580635,-0.49069,0.185244,-0.302091,-1.52369,-9.30769,6.19828,-1.02358,28.6598,6.23803,6.88749,10.3926,3.24527,3.28503,-1.59028e-15,1.98785e-15,-19.1955,53.0662,-93.5468,113.874,-29.1138,-53.6707,-3.70846,7.12502,-26.1081,-31.9338,-1.59028e-15,1.98785e-15,-6.12336,-4.10707,68.5933,19.4391,-28.2187,-29.732,20.5609,7.12502,-3.05866,50.5187,-9.22219,21.9206,14.257,19.2481,-18.1371,-6.31139,-5.58502,-19.0028,-11.4685,0.979149,9.24379,7.17433,15.7474,-11.0144
-4.05934,18.7132,1.60729,30.5338,-87.7119,-23.4084,7.4031,-0.331673,1.87672,4.16801,-0.442253,-0.606235,0.134654,-0.232883,-1.64589,-9.29651,6.29652,-1.11457,28.5873,6.31413,7.18325,10.3427,3.30357,3.40812,-1.2921e-15,1.33186e-14,-19.0147,53.0308,-93.5575,113.642,-28.9027,-53.4878,-3.62575,7.12502,-25.9329,-31.8768,-1.2921e-15,1.33186e-14,-6.0448,-5.08554,68.3677,19.4361,-27.5318,-29.6417,20.5729,7.12502,-2.97145,50.5319,-9.25903,22.1705,14.1424,19.2151,-18.2198,-6.10159,-5.97331,-19.4813,-11.6386,1.36962,10.2295,7.67933,15.8122,-8.81123
-4.11428,18.6975,1.70639,46.5432,-88.0907,-39.3036,7.39311,-0.209287,1.87669,4.14466,-0.280376,-0.668406,0.122721,-0.151701,-1.7215,-9.26051,6.38009,-1.01697,28.5771,6.44145,7.07006,10.3349,3.35741,3.36271,-2.08724e-15,-1.64991e-14,-18.9784,53.0341,-93.5289,113.492,-28.7522,-53.3417,-3.692,7.12502,-25.7931,-31.9635,-2.08724e-15,-1.64991e-14,-5.95042,-5.95583,68.2145,19.3929,-26.8154,-29.5745,20.8921,7.12502,-2.90658,50.852,-9.34358,22.3473,14.0398,19.2076,-18.3411,-5.78209,-6.22831,-19.9366,-11.4203,1.62237,11.3336,7.7588,15.3126,-8.21278
-4.17134,18.6796,1.81033,66.9377,-88.289,-59.7025,7.51686,-0.0934903,1.86265,4.14879,-0.128376,-0.747957,0.0653291,-0.0767431,-1.80639,-9.18612,6.47565,-0.983404,28.4354,6.56492,7.11468,10.2615,3.42319,3.37536,-3.57812e-15,3.97569e-15,-18.8813,53.0126,-93.4654,113.369,-28.8441,-53.2664,-3.16794,7.12502,-25.7209,-31.4499,-3.57812e-15,3.97569e-15,-5.73668,-6.07768,68.0941,19.2106,-26.7882,-29.3464,21.2728,7.12502,-2.68626,51.2356,-9.312,22.2585,13.9481,19.2515,-18.4426,-5.25577,-6.78874,-20.2157,-11.3145,1.74836,12.4885,6.88427,14.7648,-11.2259
-4.23008,18.6569,1.915,90.0236,-88.2217,-82.8032,7.57942,0.0143462,1.87755,4.1928,0.0122554,-0.836982,0.0829579,-0.00626665,-1.91694,-9.24643,6.61627,-1.00104,28.422,6.73146,7.2444,10.2531,3.51238,3.44254,-3.37934e-15,2.78299e-15,-18.6002,52.9983,-93.3792,113.213,-28.8884,-53.1929,-2.85574,7.12502,-25.6505,-31.1478,-3.37934e-15,2.78299e-15,-5.48582,-5.35148,68.0048,19.0089,-27.6741,-28.7694,21.7877,7.12502,-2.12896,51.7568,-9.29406,22.3599,13.8671,19.363,-18.6424,-4.83143,-6.96098,-20.3624,-10.7392,1.67522,13.6568,5.75991,14.0271,-14.4372
-4.29052,18.6305,2.02399,112.034,-88.0578,-104.847,7.65105,0.101023,1.69405,4.22819,0.111896,-0.946733,0.0841674,0.0404444,-1.93441,-9.30504,6.80962,-0.941563,28.4928,7.01387,7.14653,10.2838,3.63515,3.43274,-4.77083e-15,6.36111e-15,-18.4052,53.2066,-93.3687,113.068,-28.9285,-53.347,-3.00245,7.12502,-25.7981,-31.2732,-4.77083e-15,6.36111e-15,-5.39652,-4.76587,67.8999,18.8205,-28.2552,-28.5073,21.9389,7.12502,-1.87583,51.9104,-9.27028,22.6392,13.5268,19.4911,-18.9752,-4.23074,-5.68179,-20.3985,-9.96219,1.2559,14.876,4.57209,13.5931,-16.3054
-4.35278,18.5994,2.13469,129.804,-87.7428,-122.712,7.76455,0.210701,1.28123,4.25412,0.227662,-0.984483,0.0509419,0.0902467,-1.75017,-9.28953,6.98324,-0.92787,28.5772,7.28772,7.00359,10.3057,3.74256,3.41094,-1.98785e-15,2.10712e-14,-18.3349,53.4944,-93.2612,112.981,-29.0968,-53.6068,-2.79896,7.12502,-26.0469,-31.0333,-1.98785e-15,2.10712e-14,-5.39404,-4.43055,67.8905,18.5953,-28.6097,-28.8833,21.6869,7.12502,-2.23903,51.6549,-9.15678,22.9391,13.1527,19.6118,-19.1776,-3.8942,-5.47495,-20.3981,-9.22057,0.713705,16.1675,3.48261,13.2759,-19.2861
-4.41911,18.5726,2.24568,141.01,-87.2259,-134.055,7.85445,0.368469,1.04935,4.31007,0.416068,-1.09935,0.0655286,0.180046,-1.75284,-9.21681,7.0903,-0.878336,28.5339,7.4158,7.04297,10.2699,3.80912,3.42358,3.37934e-15,7.95139e-15,-18.2825,53.5004,-93.3049,112.85,-29.1447,-53.3447,-3.02703,7.12502,-25.7959,-31.2981,3.37934e-15,7.95139e-15,-5.27144,-4.32853,67.8131,18.4185,-28.8377,-29.0825,21.5164,7.12502,-2.43141,51.4823,-8.94201,23.258,12.9293,19.6656,-19.219,-3.84516,-6.11562,-20.3847,-8.42428,0.255852,17.5472,2.35381,12.6012,-22.4506
-4.4826,18.5507,2.36102,146.559,-86.6307,-139.679,7.95964,0.490295,0.978503,4.32244,0.569266,-1.18827,0.0264742,0.2547,-1.81727,-9.08015,7.21733,-0.852423,28.4399,7.58158,7.07661,10.2002,3.89035,3.43601,2.98177e-15,2.66371e-14,-18.3427,53.5035,-93.4274,112.669,-28.9665,-53.1003,-2.97952,7.12502,-25.5618,-31.2844,2.98177e-15,2.66371e-14,-5.11754,-4.05985,67.767,18.1808,-29.0956,-28.8076,21.4068,7.12502,-2.16591,51.3755,-8.77068,23.3412,12.7607,19.6383,-19.264,-3.5472,-6.67495,-20.4766,-7.55392,-0.07834,18.9968,1.03891,11.6399,-23.6273
-4.53915,18.5282,2.47813,146.68,-85.8873,-139.819,8.08501,0.545141,1.09646,4.32822,0.649227,-1.11549,-0.0327412,0.294441,-1.81604,-9.05915,7.39683,-0.910463,28.4104,7.84731,7.07779,10.1687,4.00619,3.46934,4.96962e-15,1.27222e-14,-18.1846,53.763,-93.28,112.533,-28.8574,-52.9579,-3.409,7.12502,-25.4254,-31.7333,4.96962e-15,1.27222e-14,-5.02387,-3.57469,67.7849,17.9681,-29.3219,-28.6682,21.4487,7.12502,-2.03126,51.4188,-8.67989,23.5389,12.8763,19.5628,-19.1916,-3.39075,-6.83301,-20.7077,-6.41431,-0.134948,20.4194,-0.0256913,10.6416,-24.5184
-4.5911,18.5039,2.59118,145.565,-84.9927,-138.849,8.38693,0.639571,1.31399,4.3636,0.787454,-1.03181,-0.154357,0.362937,-1.86658,-9.11596,7.57475,-0.839062,28.5069,8.07277,7.0838,10.208,4.1146,3.48949,2.98177e-15,-1.19271e-14,-17.9973,53.9357,-93.1543,112.478,-28.8793,-52.6285,-3.69458,7.12502,-25.1099,-32.0635,2.98177e-15,-1.19271e-14,-4.90933,-3.11834,67.7417,17.7637,-29.5333,-28.9915,21.6853,7.12502,-2.34349,51.6522,-8.45114,24.0011,13.2466,19.4864,-19.1856,-3.39244,-6.12665,-20.8078,-5.13108,-0.0489105,21.7316,-0.855783,9.78976,-25.8026
-4.64451,18.4837,2.70262,146.388,-84.31,-139.781,8.66028,0.73528,1.27363,4.36869,0.909106,-1.03645,-0.294803,0.419967,-1.86268,-9.05414,7.70429,-0.679349,28.4956,8.24035,7.00384,10.1974,4.19637,3.44843,-5.36719e-15,-3.4191e-14,-17.9846,54.0533,-93.1522,112.438,-28.8595,-52.573,-3.42558,7.12502,-25.0567,-31.8019,-5.36719e-15,-3.4191e-14,-4.85304,-2.52474,67.6942,17.6247,-30.0647,-28.9848,22.1708,7.12502,-2.33701,52.1377,-8.27412,24.4305,13.3323,19.4576,-19.2551,-3.49079,-5.59036,-20.9244,-4.26783,-0.177079,22.8934,-1.94025,9.44784,-25.0429
-4.70339,18.4702,2.81395,149.001,-83.9555,-142.43,8.79093,0.806479,0.904054,4.37002,0.9713,-1.14025,-0.367846,0.444534,-1.76938,-8.99155,7.80536,-0.460344,28.438,8.36681,6.89741,10.1772,4.26361,3.38252,-4.17448e-15,1.43125e-14,-17.9559,54.1076,-93.1602,112.351,-28.797,-52.7608,-2.85146,7.12502,-25.2366,-31.2026,-4.17448e-15,1.43125e-14,-4.7762,-2.13244,67.6664,17.5186,-30.3605,-28.9615,22.6212,7.12502,-2.3145,52.5884,-8.15091,24.8091,13.0127,19.4945,-19.414,-3.62535,-5.18586,-21.0997,-3.51404,-0.754405,23.9262,-2.83925,9.15529,-24.9308
-4.75947,18.4615,2.92333,153.255,-83.794,-146.693,8.90091,0.903978,0.257995,4.39901,1.04233,-1.31957,-0.405009,0.469824,-1.59908,-9.04443,7.88572,-0.409286,28.4146,8.44571,6.98459,10.1736,4.31496,3.4139,8.94531e-15,7.95139e-16,-17.8825,54.082,-93.1184,112.326,-28.7487,-52.934,-2.98155,7.12502,-25.4025,-31.3092,8.94531e-15,7.95139e-16,-4.51769,-1.84274,67.651,17.2981,-30.4704,-29.3857,23.0499,7.12502,-2.72419,53.0123,-8.11747,24.9425,12.3628,19.5845,-19.5562,-3.73375,-4.03123,-21.3252,-2.78342,-1.66571,24.8905,-3.64433,8.96564,-24.9665
-4.80796,18.4565,3.02938,156.338,-83.6532,-149.675,8.99496,0.98126,-0.354335,4.40089,1.08939,-1.45647,-0.462838,0.483747,-1.40211,-9.01958,7.92637,-0.527802,28.2659,8.49193,7.14562,10.0959,4.34462,3.48414,1.11319e-14,1.11319e-14,-17.8223,54.0325,-93.1551,112.271,-28.4594,-53.0493,-3.49529,7.12502,-25.513,-31.8071,1.11319e-14,1.11319e-14,-4.18102,-1.36857,67.6657,17.0326,-30.6807,-29.6846,23.0335,7.12502,-3.0129,52.992,-8.26275,24.6864,11.8042,19.7173,-19.4794,-3.94408,-4.52389,-21.7092,-2.07942,-2.44811,25.8227,-4.41726,8.78707,-24.1502
-4.85319,18.4505,3.13374,156.647,-83.3823,-149.797,9.07982,1.07701,-0.613643,4.3777,1.1914,-1.50714,-0.535566,0.530561,-1.31994,-9.13533,7.92129,-0.73485,28.2382,8.46221,7.39496,10.0831,4.33962,3.60522,-1.07344e-14,-1.11319e-14,-17.7889,53.8762,-93.1461,112.169,-28.0535,-53.1345,-3.65614,7.12502,-25.5946,-31.9563,-1.07344e-14,-1.11319e-14,-3.79315,-0.733409,67.7489,16.7899,-31.24,-29.6282,22.9361,7.12502,-2.95835,52.8953,-8.48993,24.6255,11.6189,19.8921,-19.4017,-4.43106,-5.68123,-22.2025,-1.42737,-2.81265,26.7584,-5.12961,8.64352,-23.392
-4.89766,18.4479,3.23626,158.002,-83.1972,-150.992,9.18421,1.17291,-1.04325,4.37598,1.27667,-1.57901,-0.60095,0.566252,-1.163,-9.13589,7.94335,-0.880846,28.0359,8.50352,7.52898,9.9909,4.36407,3.66845,2.26615e-14,-1.59028e-15,-17.75,53.6673,-93.085,112.102,-27.7587,-53.4127,-3.38517,7.12502,-25.861,-31.6468,2.26615e-14,-1.59028e-15,-3.40656,0.222162,67.9048,16.5605,-32.0423,-29.5195,23.2291,7.12502,-2.85338,53.1898,-8.74422,24.5846,11.2775,20.1447,-19.3757,-5.02665,-6.44426,-22.6489,-0.962832,-3.33476,27.6489,-5.84546,8.58834,-22.9955
-4.9388,18.4432,3.3364,158.351,-82.9588,-151.18,9.35878,1.27043,-1.36185,4.35115,1.37094,-1.62472,-0.727515,0.60835,-1.04445,-8.9258,7.98403,-1.00343,27.6837,8.59944,7.56592,9.80825,4.40575,3.6801,6.75868e-15,1.35174e-14,-17.8899,53.4192,-93.1996,112.137,-27.4898,-53.5906,-3.50769,7.12502,-26.0314,-31.7443,6.75868e-15,1.35174e-14,-3.0331,0.901851,68.0422,16.3217,-32.3244,-29.8374,23.4885,7.12502,-3.1604,53.4448,-9.026,24.3592,11.1043,20.4079,-19.2364,-5.66987,-7.49522,-23.1083,-0.191442,-3.7518,28.4651,-6.24755,8.26021,-23.4487
-4.97784,18.4371,3.43815,158.02,-82.6531,-150.618,9.46177,1.35548,-1.60696,4.32855,1.4578,-1.62479,-0.812713,0.648094,-0.918208,-8.67958,8.01875,-1.00663,27.2806,8.72429,7.38458,9.61998,4.44968,3.5964,-1.07344e-14,3.18055e-15,-18.0551,53.2348,-93.3115,112.221,-27.2515,-53.4879,-3.78308,7.12502,-25.933,-32.0342,-1.07344e-14,3.18055e-15,-2.64919,1.54691,68.173,16.0772,-32.3271,-30.3713,23.2303,7.12502,-3.67601,53.1784,-9.39979,24.1089,11.0043,20.6675,-19.0761,-6.09854,-7.95939,-23.6051,0.668783,-4.0501,29.1624,-6.44555,7.90726,-24.9087
-5.01656,18.436,3.54197,157.757,-82.3823,-150.077,9.51367,1.4614,-1.8262,4.30058,1.57557,-1.6454,-0.874827,0.704133,-0.830016,-8.7024,7.97239,-1.06489,27.0517,8.65373,7.5172,9.53517,4.43143,3.63425,-1.19271e-14,-7.15625e-15,-18.2822,52.8592,-93.471,112.34,-26.965,-53.5201,-3.95928,7.12502,-25.9638,-32.2058,-1.19271e-14,-7.15625e-15,-2.21605,2.30059,68.3214,15.8577,-32.9079,-30.5245,22.8634,7.12502,-3.82395,52.8088,-9.81274,23.7766,10.8481,20.9125,-18.8689,-6.36272,-7.63213,-24.0642,0.936311,-4.23058,29.7711,-6.95298,7.87867,-24.4466
-5.05279,18.4404,3.64394,157.44,-82.0848,-149.556,9.66526,1.58227,-1.92567,4.30139,1.7146,-1.7688,-0.955795,0.77149,-0.919856,-8.77166,7.93752,-1.05525,26.8255,8.55258,7.77706,9.45932,4.41904,3.70432,-1.19271e-15,7.95139e-15,-18.5176,52.3429,-93.8664,112.397,-26.6159,-53.6262,-3.93977,7.12502,-26.0655,-32.1714,-1.19271e-15,7.95139e-15,-1.71201,2.96496,68.3223,15.7012,-33.7786,-30.4389,22.7372,7.12502,-3.74133,52.6841,-10.1654,23.2365,10.7884,21.1635,-18.5228,-6.7209,-7.95069,-24.3506,0.998266,-4.30305,30.2874,-7.66495,7.7693,-22.191
-5.08366,18.4452,3.74172,157.464,-81.6904,-149.346,9.82314,1.71089,-2.07418,4.30598,1.85829,-1.87851,-1.03803,0.840188,-0.969419,-8.79993,7.96411,-1.03211,26.5949,8.59034,7.83122,9.37944,4.44988,3.7124,-3.57812e-15,-7.95139e-15,-18.6901,51.9702,-94.2509,112.414,-26.2499,-53.9304,-3.74083,7.12502,-26.3567,-31.9292,-3.57812e-15,-7.95139e-15,-1.23641,3.7848,68.326,15.5561,-34.801,-30.3295,22.8142,7.12502,-3.6357,52.763,-10.5939,22.9666,10.7366,21.405,-18.1606,-7.23684,-8.1259,-24.6406,1.43111,-4.39263,30.7201,-8.21016,7.43288,-20.6036
-5.11266,18.449,3.83942,157.181,-81.2422,-148.843,10.0313,1.83587,-2.25254,4.31897,1.99336,-1.91291,-1.14286,0.903713,-0.925715,-8.81076,7.99364,-1.10316,26.2968,8.65673,7.88589,9.26554,4.4867,3.73374,-2.38542e-15,2.8625e-14,-18.806,51.6804,-94.6214,112.412,-25.7928,-54.3058,-3.95447,7.12502,-26.716,-32.0885,-2.38542e-15,2.8625e-14,-0.746185,4.51052,68.3449,15.4125,-35.6084,-29.9047,22.5069,7.12502,-3.22538,52.4622,-11.0377,22.7873,10.7537,21.6657,-17.7078,-7.73309,-8.91134,-24.8651,1.85113,-4.41363,31.063,-8.6323,7.09438,-19.5311
-5.14043,18.4526,3.93907,156.717,-80.775,-148.157,10.2301,1.9036,-2.3955,4.34323,2.05377,-1.98809,-1.22846,0.93022,-0.935986,-8.80732,8.07527,-0.905794,25.9845,8.78508,7.77334,9.16691,4.55893,3.66027,-6.36111e-15,2.8625e-14,-18.9235,51.5212,-95.1205,112.476,-25.4885,-54.3787,-3.78466,7.12502,-26.7858,-31.908,-6.36111e-15,2.8625e-14,-0.334335,4.62023,68.1162,15.3728,-35.6505,-29.6427,22.0837,7.12502,-2.97236,52.0427,-11.5102,22.5156,10.7993,21.9714,-17.2433,-8.05696,-9.25261,-25.0296,2.02631,-4.37389,31.3154,-8.95089,7.11201,-18.844
-5.16806,18.4593,4.03692,156.704,-80.3071,-147.857,10.3002,1.92676,-2.65697,4.36393,2.04884,-2.0853,-1.25051,0.923133,-0.891532,-8.73543,8.22984,-0.517939,25.677,9.01009,7.51804,9.0731,4.67649,3.51445,-7.15625e-15,3.02153e-14,-19.0617,51.4628,-95.695,112.613,-25.1596,-55.002,-2.75326,7.12502,-27.382,-30.7839,-7.15625e-15,3.02153e-14,-0.0246701,4.40158,67.7333,15.4,-35.1293,-29.6476,22.2825,7.12502,-2.97716,52.2415,-12.0854,22.3049,10.733,22.2974,-16.8179,-8.32636,-9.31105,-25.2255,2.08668,-4.40307,31.5139,-9.13736,7.42175,-18.9736
-5.19318,18.471,4.1331,156.999,-79.8695,-147.904,10.4446,2.00961,-2.87202,4.41093,2.11996,-2.22017,-1.28316,0.953249,-0.922807,-8.82725,8.30381,-0.362151,25.476,9.10437,7.49323,9.02707,4.73651,3.48541,3.97569e-14,-1.27222e-14,-19.0938,51.1932,-96.1891,112.704,-24.794,-55.6486,-1.38376,7.12502,-28.0003,-29.315,3.97569e-14,-1.27222e-14,0.345719,4.60012,67.533,15.452,-35.163,-29.7542,22.4172,7.12502,-3.08006,52.3747,-12.6503,22.1393,10.6103,22.6297,-16.5118,-8.57208,-8.3081,-25.3752,2.11467,-4.50226,31.6658,-9.4334,7.76907,-18.9456
-5.21672,18.4807,4.22059,157.105,-79.3586,-147.753,10.5735,2.08687,-3.0864,4.42404,2.18689,-2.29279,-1.34505,0.982391,-0.890059,-8.70511,8.38676,-0.380058,25.1939,9.25924,7.4206,8.90213,4.80214,3.457,-3.4191e-14,6.36111e-14,-19.1555,51.04,-96.6715,112.709,-24.3401,-55.7202,-1.13031,7.12502,-28.0688,-29.0504,-3.4191e-14,6.36111e-14,0.552642,4.6691,67.2964,15.5916,-34.9509,-29.8331,22.2937,7.12502,-3.15627,52.2501,-13.2429,21.9843,10.6081,22.9659,-16.112,-8.89655,-7.10405,-25.5149,2.59121,-4.56145,31.7712,-9.68857,7.70471,-18.8915
-5.23895,18.4937,4.31014,157.896,-78.9692,-148.224,10.5847,2.0688,-3.52577,4.3828,2.1161,-2.3018,-1.40828,0.942933,-0.646687,-8.42407,8.5615,-0.664228,24.9814,9.57349,7.38022,8.74616,4.9179,3.48808,2.06736e-14,-7.95139e-15,-19.3552,51.2584,-97.1373,112.751,-23.9163,-55.1342,-1.13165,7.12502,-27.5085,-29.1422,2.06736e-14,-7.95139e-15,0.563421,4.20627,66.9574,15.8112,-33.9728,-29.9909,22.296,7.12502,-3.30863,52.2501,-13.9322,21.7495,10.3868,23.3259,-15.6051,-9.20807,-6.8046,-25.7119,2.91844,-4.78861,31.8162,-9.91618,7.7359,-18.1081
-5.2587,18.5106,4.40134,158.568,-78.6572,-148.532,10.5638,2.06598,-3.87736,4.40446,2.07345,-2.35941,-1.38323,0.91604,-0.503831,-8.40328,8.68742,-0.939808,24.8716,9.79997,7.40191,8.67474,5.00287,3.54987,-3.97569e-15,-8.11041e-14,-19.2244,51.3914,-97.3387,112.811,-23.5694,-54.8894,-0.747732,7.12502,-27.2743,-28.7953,-3.97569e-15,-8.11041e-14,0.802491,3.84383,66.6927,15.9772,-33.0923,-29.8984,22.1409,7.12502,-3.21933,52.0964,-14.6934,21.5715,10.1056,23.7402,-15.1291,-9.49599,-6.60144,-25.9361,2.77369,-4.97399,31.8017,-10.1723,8.22443,-17.1944
-5.27504,18.5291,4.48566,159.531,-78.3715,-149.151,10.6363,2.18376,-4.30551,4.4566,2.1684,-2.52943,-1.37849,0.954553,-0.453877,-8.48482,8.6951,-0.88615,24.7097,9.82625,7.34581,8.63999,5.01822,3.52211,-3.26007e-14,-8.42847e-14,-18.8453,51.1629,-97.5793,112.771,-23.1945,-55.1299,-0.942631,7.12502,-27.5044,-28.9538,-3.26007e-14,-8.42847e-14,1.32518,3.81774,66.4923,16.0458,-32.8459,-29.799,21.9492,7.12502,-3.12333,51.906,-15.4832,21.4258,9.75359,24.1845,-14.5917,-9.69888,-6.39576,-26.1344,2.60705,-5.21946,31.713,-10.3652,8.67247,-16.2311
-5.28949,18.5459,4.56896,160.542,-78.118,-149.828,10.7905,2.31315,-4.69987,4.45998,2.2718,-2.74749,-1.46677,0.999582,-0.478167,-8.58825,8.68484,-0.786157,24.6704,9.80253,7.31696,8.65499,5.01392,3.49916,7.15625e-15,-6.20208e-14,-18.7475,50.7329,-98.0928,112.725,-22.6674,-55.1664,-0.790192,7.12502,-27.5393,-28.7958,7.15625e-15,-6.20208e-14,1.82196,3.39643,66.2078,16.1309,-32.4341,-29.6949,22.062,7.12502,-3.02286,52.0204,-16.2629,21.371,9.37087,24.6464,-13.9981,-9.96352,-6.89068,-26.3599,2.70709,-5.54429,31.5686,-10.3754,8.89652,-15.7937
-5.30374,18.5648,4.65289,161.358,-77.7931,-150.298,10.9108,2.45657,-4.94245,4.47576,2.40785,-3.00754,-1.51743,1.06144,-0.634088,-8.68682,8.66035,-0.618501,24.6059,9.75173,7.27091,8.66707,5.00138,3.45632,1.35174e-14,6.83819e-14,-18.6213,50.2508,-98.612,112.71,-22.2589,-55.2907,-0.447336,7.12502,-27.6581,-28.434,1.35174e-14,6.83819e-14,2.38013,2.27033,65.6871,16.2647,-31.3733,-29.7738,22.1778,7.12502,-3.09899,52.135,-17.0753,21.6473,8.99805,25.1079,-13.492,-10.2793,-7.04628,-26.557,2.92507,-5.79528,31.3733,-10.3587,8.98097,-14.9727
-5.31794,18.5874,4.73274,161.804,-77.4502,-150.402,11.0251,2.58773,-5.17057,4.52288,2.5317,-3.20422,-1.53385,1.11595,-0.730634,-8.82307,8.61614,-0.524234,24.5383,9.70671,7.15312,8.68428,4.97904,3.40377,-1.74931e-14,7.15625e-14,-18.2693,49.8869,-98.8936,112.675,-21.7734,-56.6215,-0.421007,7.12502,-28.93,-28.1968,-1.74931e-14,7.15625e-14,2.97127,1.48401,65.2398,16.4067,-30.4889,-29.7653,23.1346,7.12502,-3.09082,53.0919,-17.8804,21.961,8.68196,25.5338,-12.9811,-10.4918,-6.15811,-26.7476,3.20454,-5.97198,31.1668,-10.3472,9.06288,-14.7802
-5.3302,18.6106,4.81024,162.19,-77.164,-150.533,11.2622,2.72632,-5.40383,4.55702,2.6514,-3.402,-1.63072,1.16904,-0.831307,-8.84215,8.57475,-0.361195,24.4925,9.66767,6.95269,8.69616,4.95444,3.30816,2.94201e-14,-1.11319e-14,-17.9515,49.5004,-99.1465,112.718,-21.2916,-58.5138,-1.30645,7.12502,-30.7359,-28.7579,2.94201e-14,-1.11319e-14,3.52431,1.31888,65.0086,16.4905,-30.2306,-29.5849,24.177,7.12502,-2.9166,54.1368,-18.5643,22.1519,8.38394,25.8944,-12.3563,-10.6901,-5.01401,-26.8362,3.30393,-6.14935,30.9718,-10.4264,9.23577,-15.5173
-5.34164,18.6319,4.89069,162.373,-76.7838,-150.409,11.4577,2.87792,-5.47972,4.56142,2.80685,-3.61603,-1.72899,1.24275,-1.04115,-8.80773,8.55937,-0.160897,24.4759,9.64465,6.78824,8.70755,4.94233,3.21823,2.38542e-15,-4.29375e-14,-17.6556,49.2036,-99.5001,112.693,-20.7399,-59.4095,-2.87889,7.12502,-31.5896,-30.1663,2.38542e-15,-4.29375e-14,4.04988,1.26191,64.7454,16.5412,-30.2891,-29.5688,24.4913,7.12502,-2.90103,54.4514,-19.3039,22.4496,8.12964,26.2128,-11.6647,-10.843,-4.14727,-26.9284,3.22266,-6.2059,30.7649,-10.4856,9.71731,-16.2183
-5.35102,18.6531,4.97705,162.203,-76.3836,-149.861,11.6004,2.88081,-5.48945,4.60241,2.78917,-3.6812,-1.76059,1.23084,-1.10677,-8.99503,8.64258,-0.476219,24.57,9.81771,6.77655,8.74779,4.99451,3.29281,1.19271e-14,3.81667e-14,-17.1869,49.4629,-99.6199,112.639,-20.1571,-59.4615,-2.63035,7.12502,-31.6391,-29.908,1.19271e-14,3.81667e-14,4.45934,1.52235,64.5247,16.5666,-30.2179,-29.7207,24.9349,7.12502,-3.04773,54.8929,-20.09,22.5856,7.95817,26.4726,-10.7285,-10.8963,-4.36616,-27.0801,2.90556,-6.12522,30.5139,-10.4998,10.4181,-16.2301
-5.36148,18.6787,5.05762,162.489,-76.0088,-149.878,11.8083,2.85018,-5.72619,4.66481,2.69537,-3.71705,-1.81471,1.17761,-1.00788,-9.13096,8.78503,-0.825956,24.6525,10.1189,6.60918,8.77599,5.08676,3.32922,3.18055e-15,-3.97569e-14,-16.7238,49.9018,-99.7134,112.651,-19.5945,-59.2768,-1.98557,7.12502,-31.4631,-29.2977,3.18055e-15,-3.97569e-14,4.8037,2.48794,64.4653,16.5009,-30.5882,-29.7419,25.1633,7.12502,-3.06819,55.121,-20.7377,22.7321,7.69411,26.6591,-9.8039,-10.9653,-5.08984,-27.1086,2.52822,-6.14938,30.2566,-10.5754,11.1543,-15.4849
-5.37685,18.7049,5.12738,162.911,-75.6136,-150.154,12.0371,2.95293,-6.07011,4.74221,2.75646,-3.796,-1.8704,1.19819,-0.91652,-9.10028,8.87147,-0.9157,24.6689,10.3075,6.37643,8.77668,5.14094,3.28169,-2.54444e-14,9.70069e-14,-16.3729,50.048,-99.9135,112.678,-19.0589,-58.5683,-1.31427,7.12502,-30.7878,-28.756,-2.54444e-14,9.70069e-14,5.27383,3.24762,64.4732,16.3785,-30.9963,-29.3394,24.0215,7.12502,-2.67951,53.9844,-21.2147,23.1495,7.42823,26.7768,-9.03465,-11.3384,-5.33653,-26.9927,2.2909,-6.2432,30.0006,-10.4315,11.9046,-15.9859
-5.38949,18.7289,5.19385,162.588,-75.1833,-149.621,12.1994,3.07929,-6.17285,4.82713,2.88286,-3.88827,-1.87288,1.25315,-0.979297,-9.03141,8.9068,-0.937756,24.6603,10.3706,6.30837,8.76119,5.15883,3.26344,-1.59028e-15,5.88403e-14,-15.8937,50.0602,-100.006,112.718,-18.6221,-57.0585,-0.0112133,7.12502,-29.3473,-27.7147,-1.59028e-15,5.88403e-14,5.85996,3.44256,64.3115,16.2933,-31.0943,-28.904,22.0573,7.12502,-2.25898,52.0251,-21.6877,23.5232,7.40086,26.7889,-8.15833,-11.6836,-4.84319,-26.9712,2.07017,-6.09864,29.811,-10.2388,12.5872,-16.7305
-5.39749,18.751,5.26611,161.949,-74.7107,-148.731,12.3884,3.17414,-6.08505,4.88013,2.98737,-3.99035,-1.9131,1.30142,-1.15742,-9.01941,8.94985,-0.91476,24.7215,10.4296,6.25166,8.78269,5.17837,3.2482,1.74931e-14,3.18055e-14,-15.3107,50.1237,-100.042,112.739,-18.1825,-56.1819,0.367677,7.12502,-28.5101,-27.4793,1.74931e-14,3.18055e-14,6.47643,3.85028,64.1619,16.0747,-31.2193,-28.8825,20.8716,7.12502,-2.23819,50.8396,-22.1721,23.6684,7.48921,26.7095,-7.01536,-11.8079,-4.40063,-27.0184,1.9075,-5.83659,29.6909,-10.2823,13.1169,-16.4791
-5.40692,18.7703,5.33111,159.967,-74.0828,-146.397,12.4501,3.18002,-5.65733,4.91864,3.04638,-3.90207,-1.89195,1.33419,-1.31259,-9.01065,9.06098,-1.05204,24.845,10.6153,6.17189,8.8119,5.23887,3.2639,4.13472e-14,2.70347e-14,-14.7786,50.4447,-100.01,112.753,-17.6726,-56.2265,0.553757,7.12502,-28.5527,-27.286,4.13472e-14,2.70347e-14,6.90633,4.00992,63.9556,15.9175,-30.8791,-29.0623,20.5569,7.12502,-2.41186,50.523,-22.6729,24.0103,8.01207,26.5707,-6.06109,-11.9863,-3.35745,-27.1877,2.17675,-5.12332,29.6233,-10.3839,13.2303,-15.8995
-5.41731,18.7907,5.38545,158.383,-73.5503,-144.583,12.5271,3.22019,-5.50292,5.03418,3.11601,-3.7847,-1.81282,1.36483,-1.28619,-9.06143,9.15155,-1.09554,24.984,10.7797,5.99651,8.87119,5.28811,3.23659,-2.70347e-14,-4.6118e-14,-14.1399,50.7812,-99.801,112.78,-17.176,-56.4573,0.598975,7.12502,-28.7731,-27.2036,-2.70347e-14,-4.6118e-14,7.30463,3.57353,63.6312,15.9322,-30.1948,-28.965,20.5864,7.12502,-2.31792,50.5535,-23.0314,24.5687,8.39829,26.4041,-5.33797,-12.3217,-1.88047,-27.2633,2.67258,-4.60037,29.5454,-10.3674,13.0388,-15.8665
-5.42983,18.8142,5.44672,158.125,-73.2634,-144.217,12.694,3.31547,-5.67365,5.1746,3.19424,-3.84769,-1.76205,1.39228,-1.27331,-9.10181,9.21037,-0.964512,25.119,10.8571,5.85863,8.94047,5.31556,3.18668,1.74931e-14,-5.40694e-14,-13.3854,51.0261,-99.5164,112.772,-16.7322,-56.7114,0.445323,7.12502,-29.0158,-27.3157,1.74931e-14,-5.40694e-14,7.76224,3.04099,63.3334,15.9862,-29.5505,-29.1893,20.6499,7.12502,-2.5345,50.6145,-23.2764,24.895,8.31407,26.2317,-4.57469,-12.5498,-1.09489,-27.2143,2.69723,-4.56431,29.424,-10.4331,13.2457,-15.7985
-5.44049,18.8359,5.51302,157.978,-72.9846,-143.881,12.809,3.31871,-5.84076,5.27617,3.15947,-3.88883,-1.72277,1.36604,-1.22165,-9.11983,9.34564,-1.08832,25.195,11.045,5.91088,8.95051,5.39308,3.24332,-1.27222e-14,9.06458e-14,-12.6556,51.6135,-99.1571,112.826,-16.3114,-56.9549,-0.810975,7.12502,-29.2484,-28.5317,-1.27222e-14,9.06458e-14,8.07456,2.99556,63.1234,16.0868,-29.0057,-29.152,20.6293,7.12502,-2.49854,50.5944,-23.6251,25.0785,8.20545,26.0944,-3.81611,-12.729,-0.61197,-27.2221,2.40738,-4.4811,29.2373,-10.4883,13.7902,-15.6396
-5.45014,18.8559,5.57626,157.956,-72.6734,-143.51,12.747,3.30271,-6.04006,5.32825,3.11835,-3.88434,-1.64379,1.33893,-1.09589,-9.21526,9.45829,-1.32453,25.3425,11.2306,5.93131,8.9938,5.45478,3.31453,-5.08889e-14,-4.45278e-14,-11.9306,52.1712,-98.7245,112.914,-15.888,-56.8564,-1.84814,7.12502,-29.1544,-29.5852,-5.08889e-14,-4.45278e-14,8.39871,3.60231,63.1098,16.0274,-29.2164,-28.9198,20.1633,7.12502,-2.27425,50.1309,-24.1636,25.1838,8.09522,25.9574,-2.98064,-12.8382,-0.891602,-27.3963,2.28632,-4.37305,29.012,-10.4761,14.1904,-15.5198
-5.46227,18.8767,5.63868,158.071,-72.2593,-143.257,12.6421,3.33053,-6.1793,5.35341,3.14364,-3.92518,-1.56591,1.34625,-1.05916,-9.37958,9.55246,-1.46067,25.6132,11.3617,5.97041,9.10057,5.49765,3.38242,-2.38542e-14,6.52014e-14,-11.1902,52.5522,-98.3547,112.927,-15.5207,-56.5953,-1.57656,7.12502,-28.905,-29.3566,-2.38542e-14,6.52014e-14,8.67956,3.62115,62.9198,16.0845,-28.841,-28.7365,19.896,7.12502,-2.0972,49.8654,-24.7215,25.2666,7.98609,25.7914,-2.02991,-12.734,-1.73912,-27.5503,2.22158,-4.24433,28.8083,-10.5098,14.6061,-15.1744
-5.47508,18.8968,5.70323,157.722,-71.887,-142.73,12.8065,3.36072,-6.12979,5.39656,3.16153,-4.02041,-1.60194,1.352,-1.19599,-9.44145,9.644,-1.33368,25.8432,11.4348,6.00529,9.19589,5.53608,3.39594,1.59028e-15,-3.33958e-14,-10.5705,52.8743,-98.1664,112.894,-15.0859,-56.8626,-2.25467,7.12502,-29.1602,-29.9908,1.59028e-15,-3.33958e-14,8.9249,2.91616,62.4948,16.235,-27.8509,-28.7531,19.8131,7.12502,-2.11328,49.7824,-24.9985,25.4384,7.99922,25.6237,-1.06148,-12.7252,-2.49203,-27.5084,1.82113,-4.01005,28.6187,-10.5941,15.2818,-14.5292
-5.4823,18.9164,5.76515,157.087,-71.6603,-142.052,13.2402,3.36366,-6.1364,5.41378,3.10833,-4.08949,-1.81262,1.32408,-1.27866,-9.24068,9.7309,-1.12056,25.8124,11.5092,5.96357,9.16289,5.58104,3.34185,-4.6118e-14,4.77083e-14,-10.1213,53.1645,-98.0757,112.845,-14.6594,-56.6787,-2.67195,7.12502,-28.9847,-30.4383,-4.6118e-14,4.77083e-14,9.0798,2.25564,62.1368,16.3784,-26.9265,-28.6614,19.6373,7.12502,-2.02469,49.6074,-25.0915,25.6513,8.08977,25.4593,-0.157215,-13.1822,-2.56636,-27.4233,1.29798,-3.78958,28.4568,-10.5865,15.9533,-14.0882
-5.48915,18.9341,5.8237,156.955,-71.4222,-141.743,13.4292,3.38288,-6.27992,5.43668,3.08608,-4.14853,-1.89337,1.30859,-1.2668,-9.2111,9.80697,-1.09931,25.8348,11.5954,5.98825,9.16139,5.62219,3.35319,-4.6118e-14,3.18055e-14,-9.47056,53.4611,-97.6059,112.901,-14.3777,-56.0368,-2.31886,7.12502,-28.3714,-30.189,-4.6118e-14,3.18055e-14,9.39668,2.17649,62.056,16.3369,-26.5682,-28.8957,19.7798,7.12502,-2.251,49.7477,-25.3572,25.7991,8.01646,25.2616,0.578462,-13.5731,-1.82081,-27.4879,1.13646,-3.70124,28.3169,-10.7361,16.2739,-13.3899
-5.49821,18.9485,5.87983,156.869,-71.0961,-141.399,13.4291,3.41516,-6.37735,5.47268,3.11003,-4.18606,-1.85862,1.31558,-1.25495,-9.26361,9.8792,-1.21768,25.895,11.6846,6.09571,9.17189,5.66081,3.42005,1.59028e-15,-3.81667e-14,-8.59557,53.737,-96.8936,112.96,-14.231,-55.6475,-2.08548,7.12502,-27.9993,-30.0169,1.59028e-15,-3.81667e-14,9.7479,2.11616,61.981,16.2554,-26.2651,-29.1384,20.0015,7.12502,-2.48539,49.9668,-25.7096,25.9121,7.96604,25.0637,1.25778,-13.7243,-0.953158,-27.6296,1.48824,-3.65165,28.2112,-10.7481,16.2092,-13.0441
-5.51137,18.9628,5.93683,156.436,-70.8002,-140.778,13.5066,3.44393,-6.3173,5.51961,3.13881,-4.2609,-1.84437,1.32662,-1.37384,-9.2377,9.9267,-1.10716,25.8836,11.7117,6.13805,9.16695,5.68576,3.41715,-1.74931e-14,-2.8625e-14,-7.83957,53.8988,-96.4014,112.912,-13.8681,-55.6913,-1.64,7.12502,-28.0411,-29.5646,-1.74931e-14,-2.8625e-14,10.0933,1.68126,61.7362,16.2587,-25.7316,-29.0349,19.682,7.12502,-2.38539,49.6484,-25.9253,25.9692,8.05563,24.8735,1.85449,-14.0065,0.345718,-27.6988,1.76966,-3.53102,28.1197,-10.7225,16.1685,-12.6026
-5.52317,18.9769,5.99397,156.426,-70.4539,-140.584,13.6012,3.48654,-6.431,5.51748,3.15911,-4.33882,-1.8991,1.33335,-1.40102,-9.20181,9.96656,-0.971944,25.8554,11.7375,6.12656,9.16016,5.70686,3.3913,-8.90555e-14,2.8625e-14,-7.18623,54.212,-95.9186,112.817,-13.4628,-55.874,-1.7945,7.12502,-28.2158,-29.6904,-8.90555e-14,2.8625e-14,10.2738,0.971622,61.4165,16.3872,-24.7385,-28.9217,19.7511,7.12502,-2.27608,49.7187,-26.2002,26.1067,8.00263,24.6684,2.57322,-14.0541,0.610582,-27.7446,1.86978,-3.46862,28.0149,-10.7035,16.3896,-12.1672
-5.53299,18.9924,6.03736,156.372,-69.9662,-140.428,13.7594,3.50731,-6.54329,5.50833,3.13037,-4.55662,-1.98626,1.31442,-1.57195,-9.21905,10.095,-0.590684,25.8351,11.8229,6.16699,9.17841,5.78177,3.35477,2.54444e-14,1.33583e-13,-6.49879,54.5639,-95.7837,112.764,-13.1669,-55.9009,-2.19507,7.12502,-28.2415,-30.0867,2.54444e-14,1.33583e-13,10.3618,0.462005,60.8037,16.5796,-23.883,-28.8021,20.1984,7.12502,-2.16056,50.1672,-26.3922,26.5887,8.04544,24.4523,3.22718,-14.1689,0.202129,-27.6167,2.1749,-3.31179,27.8736,-10.8272,16.4712,-11.602
-5.54572,19.0126,6.06681,156.165,-69.4266,-140.247,14.0326,3.58538,-6.21906,5.47448,3.17968,-5.25502,-2.11263,1.33544,-2.51176,-9.05211,10.1928,0.519525,25.6459,11.6836,6.36433,9.15651,5.83357,3.22058,-3.33958e-14,-5.08889e-14,-5.95654,54.2936,-96.498,112.69,-12.7852,-55.7212,-2.73758,7.12502,-28.0698,-30.6575,-3.33958e-14,-5.08889e-14,10.6333,-0.76367,59.4215,16.9447,-22.7909,-28.7967,20.3658,7.12502,-2.15541,50.3346,-26.4206,27.2954,8.20958,24.2538,3.56442,-14.7356,0.91673,-27.2853,2.81522,-3.14126,27.705,-10.884,16.2688,-10.8254
-5.55864,19.0283,6.10608,156.149,-69.0867,-140.234,14.0504,3.91883,-7.01392,5.61135,3.51838,-4.9702,-2.04067,1.48329,-1.82433,-9.10001,10.0316,0.515695,25.5726,11.5213,6.15446,9.1598,5.74007,3.13719,-1.11319e-14,9.54166e-15,-5.20057,54.2842,-95.2458,112.801,-12.5358,-55.7756,-2.97928,7.12502,-28.1218,-30.8907,-1.11319e-14,9.54166e-15,11.0461,-1.12679,60.0153,17.0216,-22.03,-29.2419,20.6971,7.12502,-2.58531,50.6612,-26.4737,27.7297,8.17904,24.0654,3.81197,-15.1827,1.71321,-27.0544,2.97494,-3.10566,27.5148,-10.7806,16.4474,-11.2317
-5.57241,19.0395,6.16051,156.307,-68.8285,-140.3,14.0412,4.03527,-7.33148,5.70093,3.6241,-4.95621,-1.96192,1.52328,-1.6488,-9.10154,9.97772,0.43805,25.4435,11.4661,6.16554,9.11022,5.71177,3.14099,1.43125e-14,-1.27222e-14,-4.49162,54.3387,-94.3999,112.887,-12.2749,-55.9571,-2.80572,7.12502,-28.2952,-30.6885,1.43125e-14,-1.27222e-14,11.3123,-2.49323,59.9689,17.3074,-19.603,-30.5104,22.2025,7.12502,-3.81039,52.1482,-26.6315,27.8348,8.04567,23.8743,4.3489,-15.223,1.60465,-26.963,2.7088,-3.11207,27.3196,-10.714,17.0226,-11.3728
-5.5841,19.0516,6.21652,156.665,-68.5907,-140.508,14.1288,4.01816,-7.43772,5.64768,3.54642,-5.24056,-2.05089,1.48222,-1.8847,-9.01554,10.0272,0.703494,25.3669,11.4442,6.29955,9.07884,5.73575,3.13349,-4.77083e-15,-3.18055e-14,-4.09131,54.3676,-94.2089,113.124,-12.103,-56.103,-2.52878,7.12502,-28.4347,-30.3883,-4.77083e-15,-3.18055e-14,11.3669,-4.60333,59.3077,17.8744,-15.9964,-32.0208,24.5806,7.12502,-5.26877,54.4951,-26.8764,27.8073,7.85824,23.7062,4.8399,-15.4233,1.96696,-26.9467,2.34412,-3.12377,27.1566,-10.9073,17.5588,-10.6764
-5.59429,19.0601,6.26927,156.681,-68.3476,-140.418,14.2771,3.99506,-7.47198,5.62984,3.47482,-5.38942,-2.14023,1.44496,-2.02087,-8.98395,10.0428,0.598538,25.2234,11.4484,6.47301,9.00296,5.74744,3.19675,9.54166e-15,3.49861e-14,-3.67648,54.3599,-93.7378,113.479,-11.9878,-56.1447,-2.55245,7.12502,-28.4745,-30.4054,9.54166e-15,3.49861e-14,11.562,-4.86367,59.3201,18.0877,-14.9412,-32.3786,24.979,7.12502,-5.61427,54.8847,-27.0375,27.7659,7.8166,23.5292,5.20248,-15.7266,3.24252,-26.9178,2.13484,-3.03802,27.0633,-11.1934,17.8028,-9.41889
-5.60656,19.065,6.32166,156.706,-68.0998,-140.326,14.2838,4.06555,-7.70116,5.66067,3.5338,-5.34496,-2.12774,1.4679,-1.85729,-9.00562,9.98251,0.301741,25.132,11.403,6.57767,8.94738,5.71348,3.26779,-1.74931e-14,9.22361e-14,-3.28977,54.2435,-93.0358,113.781,-11.8102,-56.5094,-3.14574,7.12502,-28.823,-30.9398,-1.74931e-14,9.22361e-14,11.9272,-4.30768,59.9646,18.0436,-15.1057,-32.36,24.7022,7.12502,-5.59628,54.6083,-27.1731,27.7484,7.7657,23.3349,5.58099,-15.9296,3.98061,-26.9643,2.17685,-3.02631,27.0609,-11.3695,17.8781,-8.86525
-5.61794,19.0679,6.38073,156.804,-67.6825,-140.208,14.1851,4.18631,-7.81359,5.61877,3.68641,-5.32654,-2.13066,1.54258,-1.79737,-9.02425,9.9061,0.151324,25.2161,11.2744,6.74807,8.96193,5.65424,3.3396,6.52014e-14,9.54166e-15,-3.1204,53.8795,-92.5596,114.062,-11.7549,-56.722,-4.14899,7.12502,-29.026,-31.9083,6.52014e-14,9.54166e-15,12.2743,-3.93372,60.5945,18.0973,-15.2551,-32.1641,24.6964,7.12502,-5.4072,54.6074,-27.4564,27.6515,7.79243,23.13,6.38977,-15.8364,3.56807,-27.1269,2.49578,-2.98254,27.1381,-11.3977,17.9503,-9.14786
-5.62744,19.0695,6.44386,157.117,-67.1104,-140.143,13.9298,4.26966,-7.78928,5.52627,3.82865,-5.34524,-2.0929,1.61672,-1.84126,-9.08434,9.88064,-0.0994656,25.2527,11.2311,6.95914,8.95442,5.63215,3.44773,-9.54166e-15,3.18055e-15,-3.00677,53.4431,-92.1045,114.371,-11.8415,-56.8144,-5.20959,7.12502,-29.1143,-32.9536,-9.54166e-15,3.18055e-15,12.6023,-2.97137,61.4008,18.1579,-15.9024,-31.8101,24.5871,7.12502,-5.06538,54.5066,-28.0059,27.416,7.79886,22.9295,7.33192,-15.4774,3.10908,-27.4314,2.93913,-2.87781,27.2344,-11.3136,18.1048,-9.23538
-5.63484,19.0711,6.49819,157.162,-66.6912,-139.951,13.855,4.32526,-7.84224,5.47997,3.89859,-5.36758,-2.10527,1.65162,-1.84431,-9.08967,9.86523,-0.20957,25.171,11.2151,7.04048,8.91405,5.62444,3.4854,3.97569e-14,-6.36111e-15,-2.90757,52.8789,-91.7223,114.592,-12.063,-57.0348,-5.9512,7.12502,-29.3247,-33.6587,3.97569e-14,-6.36111e-15,13.0288,-1.58042,62.3737,18.0883,-16.9632,-30.9707,23.8303,7.12502,-4.25483,53.7676,-28.3478,27.2584,7.85751,22.7559,7.85078,-15.3676,3.41285,-27.613,3.12544,-2.75244,27.2968,-11.143,18.3858,-9.28305
-5.64479,19.0793,6.54234,156.854,-66.4164,-139.685,14.0528,4.41485,-7.95144,5.48658,3.96335,-5.41303,-2.20964,1.67982,-1.85662,-8.98427,9.81112,-0.188939,25.0767,11.1265,7.08531,8.86405,5.58861,3.47749,2.22639e-14,5.40694e-14,-2.97078,52.0628,-91.539,114.753,-12.3333,-57.6812,-7.34505,7.12502,-29.9417,-34.9429,2.22639e-14,5.40694e-14,13.532,-0.277677,63.346,17.9696,-18.048,-29.5551,22.2929,7.12502,-2.88776,52.2531,-28.3201,27.4585,8.00087,22.6419,8.13266,-15.7154,3.92676,-27.4992,3.05358,-2.60155,27.3077,-11.1779,18.5927,-9.54726
-5.65621,19.085,6.58494,156.523,-66.1832,-139.466,14.3007,4.48955,-8.03584,5.51032,4.00302,-5.47459,-2.31924,1.69478,-1.89848,-8.9407,9.77355,-0.332408,25.0627,11.0505,7.28106,8.83063,5.55818,3.55262,-4.77083e-15,1.55847e-13,-3.20615,51.1629,-91.4925,114.901,-12.559,-58.3805,-9.69149,7.12502,-30.6088,-37.1668,-4.77083e-15,1.55847e-13,13.9899,0.981926,64.3764,18.0028,-19.2927,-28.4608,21.9907,7.12502,-1.83096,51.9626,-28.2289,27.7048,8.14337,22.5942,8.41101,-16.1433,4.57211,-27.2988,3.08069,-2.50981,27.2699,-11.2021,18.6194,-9.72258
-5.66852,19.0899,6.62915,156.274,-66.0158,-139.26,14.5087,4.48183,-8.11967,5.51958,3.93846,-5.56846,-2.41771,1.65931,-1.95469,-8.98035,9.79061,-0.458639,25.0879,11.0432,7.48429,8.82398,5.56188,3.64075,4.77083e-14,6.99722e-14,-3.54203,50.3061,-91.57,115.086,-12.7745,-58.7256,-11.2855,7.12502,-30.9378,-38.6989,4.77083e-14,6.99722e-14,14.3896,1.77391,65.2001,18.1623,-19.8797,-28.1825,22.8189,7.12502,-1.56216,52.7929,-28.1911,27.5631,8.32442,22.6203,8.80137,-16.1015,4.59875,-27.16,3.10376,-2.47396,27.1951,-11.2938,18.5579,-9.4618
-5.68058,19.0933,6.66888,156.006,-65.8757,-138.939,14.609,4.46845,-8.2416,5.4896,3.87998,-5.62779,-2.50504,1.62962,-1.94857,-8.83426,9.80971,-0.473895,25.0079,11.0615,7.52336,8.7647,5.57032,3.64342,-2.38542e-14,2.22639e-14,-4.0591,49.4297,-91.6482,115.249,-13.0011,-59.0689,-11.3311,7.12502,-31.265,-38.6817,-2.38542e-14,2.22639e-14,14.8512,2.51536,66.1832,18.126,-20.1429,-28.3874,23.423,7.12502,-1.7601,53.3955,-28.2586,27.4111,8.5156,22.6466,9.30707,-15.9864,4.21597,-27.1207,3.17024,-2.41694,27.1329,-11.2514,18.4913,-9.36372
-5.69188,19.0968,6.70944,155.972,-65.7865,-138.862,14.6753,4.47021,-8.3993,5.43826,3.83068,-5.77693,-2.59305,1.60375,-2.01833,-8.41072,9.83271,-0.142021,24.7257,11.0915,7.3044,8.62728,5.58842,3.48311,3.65764e-14,-4.77083e-14,-4.61325,48.3322,-91.8169,115.312,-13.3994,-59.3763,-12.068,7.12502,-31.5579,-39.3616,3.65764e-14,-4.77083e-14,15.3787,3.24811,67.1236,17.9671,-20.8449,-28.5723,23.7589,7.12502,-1.93867,53.7298,-28.34,27.3777,8.5289,22.6259,9.83661,-16.0341,3.89978,-27.1014,3.01725,-2.43998,27.1007,-11.2661,18.5785,-9.13319
-5.70602,19.1009,6.75551,155.746,-65.7682,-138.723,14.9239,4.44868,-8.35933,5.41916,3.74591,-6.00142,-2.72677,1.56007,-2.28112,-8.22113,9.8438,0.070774,24.6196,11.0629,7.32218,8.57155,5.59142,3.43691,9.85972e-14,1.49486e-13,-5.28009,47.0666,-92.018,115.581,-14.0847,-59.6633,-13.1329,7.12502,-31.8312,-40.3725,9.85972e-14,1.49486e-13,15.8765,3.34482,67.6871,17.9161,-21.2186,-28.4278,23.9133,7.12502,-1.79912,53.8855,-28.2921,27.3716,8.55588,22.6376,10.2019,-16.2522,4.15265,-26.9564,2.4345,-2.41362,27.0443,-11.585,18.9107,-7.64064
-5.72164,19.1062,6.7975,155.063,-65.825,-138.093,15.139,4.32605,-8.2948,5.44719,3.56123,-6.04293,-2.8017,1.46875,-2.33987,-8.21195,9.87813,-0.23226,24.5834,11.1163,7.53223,8.51894,5.61015,3.55191,-6.36111e-15,-2.22639e-14,-5.95474,46.1615,-91.7061,116.238,-14.9833,-60.0965,-14.8927,7.12502,-32.2437,-42.0494,-6.36111e-15,-2.22639e-14,16.1927,3.11408,68.2453,18.0138,-21.0176,-28.7411,24.4521,7.12502,-2.1017,54.4215,-28.2204,27.3326,8.74544,22.7156,10.3236,-16.6522,5.35299,-26.8517,1.87224,-2.24685,26.9574,-11.8178,19.1351,-6.70511
-5.7344,19.1171,6.83216,154.511,-65.886,-137.577,15.2641,4.18208,-8.4755,5.4818,3.32738,-6.04852,-2.83604,1.35023,-2.20991,-8.18004,9.96978,-0.524674,24.523,11.2524,7.72012,8.45198,5.66598,3.66155,3.18055e-15,-3.49861e-14,-6.46688,45.4553,-91.2949,116.899,-15.7053,-60.602,-17.1573,7.12502,-32.7248,-44.2152,3.18055e-15,-3.49861e-14,16.3189,2.73844,68.6245,18.3541,-20.7629,-28.9326,25.21,7.12502,-2.28661,55.1774,-28.1496,27.239,8.93004,22.8344,10.538,-16.8088,6.12452,-26.7725,1.67059,-2.19425,26.8641,-11.7592,19.1601,-7.11281
-5.74383,19.1242,6.86478,154.028,-65.8565,-137.009,15.3297,4.06557,-8.57682,5.42009,3.14726,-6.07181,-2.9363,1.26532,-2.15165,-8.18649,10.0405,-0.736432,24.631,11.3397,7.87143,8.4596,5.69811,3.75428,1.59028e-14,6.36111e-15,-7.09182,44.6652,-91.0343,117.473,-16.1761,-60.7571,-18.4336,7.12502,-32.8723,-45.4607,1.59028e-14,6.36111e-15,16.4116,2.56409,69.1339,18.6191,-21.1193,-28.9326,25.5379,7.12502,-2.28662,55.5054,-28.2941,27.1205,9.14589,23.0442,10.7877,-16.9442,6.64024,-26.7767,1.61124,-2.06193,26.745,-11.7056,19.1057,-7.12424
-5.7541,19.1297,6.89683,153.706,-65.9029,-136.651,15.4724,4.01684,-8.70203,5.31843,3.03485,-6.12095,-3.12154,1.21593,-2.12633,-8.19079,10.0684,-1.00014,24.8747,11.3371,8.14275,8.50495,5.69158,3.89371,2.8625e-14,-1.01778e-13,-7.98422,43.3778,-91.2131,117.813,-16.3867,-60.4674,-18.3939,7.12502,-32.5967,-45.4783,2.8625e-14,-1.01778e-13,16.3859,1.93633,69.6519,18.9939,-21.3731,-29.3332,26.175,7.12502,-2.67353,56.138,-28.453,26.9118,9.30238,23.3647,10.8516,-17.1758,7.42494,-26.729,1.5065,-2.04489,26.5909,-11.7058,19.0128,-6.74801
-5.76812,19.1341,6.92652,153.284,-66.036,-136.21,15.61,4.05366,-8.67291,5.27556,3.05114,-6.24886,-3.23299,1.22532,-2.29201,-7.99048,9.94005,-0.796258,24.7759,11.1711,7.95237,8.47124,5.61107,3.77074,-3.81667e-14,-6.36111e-15,-8.98663,40.8989,-92.2441,117.657,-16.2888,-59.5923,-16.4535,7.12502,-31.7637,-43.7066,-3.81667e-14,-6.36111e-15,16.4665,0.500827,69.9913,19.5441,-21.3152,-29.4691,26.8803,7.12502,-2.80478,56.8416,-28.5229,26.6934,9.49821,23.6862,11.1055,-17.3334,7.61338,-26.699,1.27682,-2.03547,26.4484,-11.68,18.9428,-6.48662
-5.78389,19.1381,6.95154,152.695,-66.1856,-135.616,15.7137,4.0848,-8.58629,5.2494,3.0667,-6.45058,-3.30158,1.23194,-2.56593,-7.39633,9.80872,-0.0445336,24.2755,11.0391,7.29845,8.29748,5.5513,3.37423,5.40694e-14,8.90555e-14,-9.79448,39.6651,-92.0028,118.397,-16.5376,-59.3811,-16.2691,7.12502,-31.5625,-43.5618,5.40694e-14,8.90555e-14,16.6348,-0.861779,70.2137,20.0063,-21.4448,-29.192,26.9929,7.12502,-2.53712,56.9575,-28.5325,26.5171,9.75817,23.9842,11.4459,-17.5202,7.62152,-26.6608,1.15568,-2.02065,26.303,-11.4081,18.8258,-7.13632
-5.80288,19.1436,6.97796,152.021,-66.2856,-134.902,15.7403,4.08433,-8.41992,5.19862,3.06452,-6.668,-3.35005,1.23162,-2.8938,-6.97213,9.75242,0.638,24.045,10.9175,7.02458,8.21406,5.52067,3.13703,4.77083e-14,-9.54166e-15,-10.6864,38.3927,-92.0233,119.142,-17.0729,-58.9634,-16.3675,7.12502,-31.1644,-43.7375,4.77083e-14,-9.54166e-15,16.7637,-2.21633,70.3631,20.4265,-21.4632,-29.0071,27.1094,7.12502,-2.35857,57.0761,-28.5359,26.0941,10.1522,24.2712,11.753,-17.4826,7.87425,-26.6257,1.02517,-1.93482,26.1429,-11.2206,18.7274,-7.99165
-5.82499,19.1486,7.00661,151.683,-66.4018,-134.487,15.6407,4.06206,-8.40582,5.1581,3.03271,-6.8475,-3.32927,1.21508,-3.08356,-6.87419,9.7374,0.873484,24.1047,10.8156,7.15968,8.22828,5.49915,3.13364,4.77083e-14,9.85972e-14,-11.4729,37.1872,-91.8333,119.95,-17.8357,-58.4001,-16.2045,7.12502,-30.6274,-43.6763,4.77083e-14,9.85972e-14,16.7752,-3.92854,70.3108,20.9924,-20.809,-28.9189,27.0898,7.12502,-2.27339,57.0575,-28.6017,25.5792,10.361,24.5126,11.7003,-17.6007,8.98027,-26.6304,0.847811,-1.97037,26.0161,-11.0459,18.7268,-9.10163
-5.84337,19.1537,7.03062,150.964,-66.5132,-133.669,15.5432,3.98948,-8.33141,5.12794,2.95859,-6.92806,-3.30089,1.18055,-3.19187,-6.7645,9.74612,1.08344,24.2086,10.7651,7.21454,8.25688,5.49098,3.11361,-5.08889e-14,-6.99722e-14,-12.3175,36.1354,-91.8692,120.424,-17.6427,-58.3292,-16.3519,7.12502,-30.5599,-43.8363,-5.08889e-14,-6.99722e-14,16.7608,-5.76073,70.1733,21.5634,-20.0715,-28.8786,27.6098,7.12502,-2.23446,57.5778,-28.6829,25.1856,10.6541,24.7467,11.4374,-18.0131,10.7193,-26.6719,0.680757,-1.83,25.915,-10.9395,18.6393,-9.36259
-5.86039,19.1565,7.05031,149.706,-66.5593,-132.338,15.5735,3.94644,-8.05352,5.0929,2.94541,-6.93767,-3.34065,1.17999,-3.35606,-6.64264,9.72321,1.42137,24.2915,10.6838,7.14147,8.29453,5.46858,3.02918,-3.49861e-14,6.36111e-15,-13.2862,34.6665,-92.4185,120.411,-16.6569,-58.4929,-16.1825,7.12502,-30.716,-43.6377,-3.49861e-14,6.36111e-15,16.7633,-7.72067,70.098,22.1817,-19.3246,-29.0607,28.1767,7.12502,-2.41029,58.1429,-28.6906,24.9284,11.2116,25.0117,11.4646,-18.2538,11.456,-26.6669,0.556328,-1.45915,25.7896,-10.8067,18.4072,-9.46544
-5.87931,19.1581,7.07386,148.918,-66.7835,-131.524,15.6528,3.93271,-7.93175,5.07366,2.92673,-7.03324,-3.39265,1.17217,-3.52837,-6.65479,9.67641,1.66398,24.4109,10.543,7.2441,8.35298,5.42923,3.02075,4.45278e-14,5.08889e-14,-14.2274,33.6303,-92.3534,120.829,-15.9551,-59.2776,-15.6462,7.12502,-31.4639,-42.9582,4.45278e-14,5.08889e-14,16.7984,-9.61696,70.0516,22.8833,-18.7096,-28.8031,28.4884,7.12502,-2.16154,58.4572,-28.6518,24.4315,11.5242,25.2892,11.5678,-18.2016,12.1571,-26.6612,0.324884,-1.42252,25.6216,-10.6287,18.3009,-10.1397
-5.89372,19.1622,7.10191,148.174,-67.3273,-130.777,15.9077,3.82435,-7.87145,5.05036,2.74718,-7.158,-3.54552,1.08581,-3.67816,-6.73483,9.63649,1.7196,24.6325,10.409,7.44676,8.43913,5.38648,3.08213,1.01778e-13,6.36111e-14,-15.1515,33.1145,-91.7744,121.727,-15.6753,-59.859,-15.8987,7.12502,-32.0176,-43.1011,1.01778e-13,6.36111e-14,16.8385,-11.5757,69.945,23.5204,-18.0124,-28.6638,28.8667,7.12502,-2.02703,58.8368,-28.5561,23.6951,11.5835,25.545,11.4881,-18.2265,13.5093,-26.7294,-0.306514,-1.59063,25.4139,-10.6355,18.2343,-9.82709
-5.90461,19.168,7.1304,147.104,-67.9425,-129.721,16.2952,3.70969,-7.66005,5.00242,2.56015,-7.33066,-3.78827,0.99729,-3.97057,-6.70581,9.55631,2.04532,24.8314,10.205,7.5203,8.52749,5.32024,3.04762,9.54166e-15,9.54166e-14,-16.1385,31.8074,-91.8687,122.304,-15.4424,-59.2929,-14.2982,7.12502,-31.4784,-41.6074,9.54166e-15,9.54166e-14,17.022,-14.0297,69.5507,24.0912,-17.2573,-28.5068,29.4331,7.12502,-1.87543,59.4046,-28.3951,23.0522,11.6501,25.7626,11.3452,-18.2894,14.5289,-26.7912,-1.08865,-1.68981,25.1575,-10.6444,18.1914,-9.27926
-5.92456,19.1768,7.15721,146.294,-68.2628,-128.865,16.3602,3.68482,-7.37044,4.9643,2.54462,-7.54743,-3.8416,0.989773,-4.36943,-6.6437,9.4564,2.61141,24.9637,9.96784,7.47265,8.61204,5.24865,2.92908,-7.95139e-14,2.54444e-14,-17.3098,31.1018,-91.508,123.374,-15.3855,-59.0765,-12.2697,7.12502,-31.2723,-39.6189,-7.95139e-14,2.54444e-14,17.3336,-16.2113,69.0581,24.5684,-17.3348,-27.8147,29.0703,7.12502,-1.20692,59.0466,-28.3204,22.798,11.7233,25.8883,11.213,-18.3138,15.293,-26.7445,-1.6826,-1.6409,24.8861,-10.8468,18.1337,-8.08839
-5.9476,19.1861,7.18322,145.735,-68.4781,-128.306,16.3569,3.65435,-7.18483,4.88413,2.51564,-7.72926,-3.91004,0.977087,-4.66819,-6.38182,9.42339,3.03523,25.0209,9.84354,7.47511,8.61719,5.2184,2.8423,3.81667e-14,4.45278e-14,-18.3632,28.8798,-92.522,123.468,-14.9747,-57.7808,-8.52726,7.12502,-30.0367,-36.1079,3.81667e-14,4.45278e-14,17.3773,-17.7925,68.7349,25.1267,-17.9836,-26.9722,27.7111,7.12502,-0.393271,57.6904,-28.1908,22.6555,11.7415,25.8738,11.0883,-18.3264,16.172,-26.6261,-2.1487,-1.63286,24.689,-11.1419,18.0573,-6.80496
-5.96884,19.1994,7.20624,144.857,-68.7826,-127.479,16.4422,3.47765,-7.01706,4.76587,2.29626,-7.7983,-4.0792,0.876189,-4.80275,-5.96035,9.49927,3.1142,25.1463,9.89115,7.60097,8.58032,5.24417,2.85605,-4.13472e-14,-3.81667e-14,-19.4381,29.53,-91.5135,124.853,-14.8944,-57.8801,-8.13807,7.12502,-30.1314,-35.7015,-4.13472e-14,-3.81667e-14,17.0441,-19.8009,68.1867,26.0895,-17.5126,-27.442,28.5393,7.12502,-0.847016,58.5173,-27.9285,22.368,11.8674,25.7923,11.1989,-18.0633,15.8994,-26.5526,-2.42593,-1.71779,24.5754,-11.2486,17.8258,-5.86092
-5.98949,19.2123,7.23075,143.872,-69.0007,-126.487,16.4633,3.17261,-6.66932,4.59718,1.96883,-7.73537,-4.27196,0.728958,-4.86969,-5.33612,9.67936,2.61969,25.1853,10.1669,7.80369,8.42401,5.33068,2.98328,-3.18055e-14,1.30403e-13,-20.3732,29.3267,-91.0979,125.809,-15.2194,-57.0567,-5.40861,7.12502,-29.3457,-33.1124,-3.18055e-14,1.30403e-13,16.4182,-21.7521,67.7232,27.3007,-16.5018,-28.8004,30.5983,7.12502,-2.15889,60.5671,-27.7372,22.0148,12.0994,25.779,11.3539,-17.5201,15.3849,-26.5565,-2.60269,-1.73992,24.5201,-11.2907,17.7186,-4.97501
-6.00813,19.2159,7.25434,142.728,-69.0801,-125.329,16.2035,2.00778,-7.77332,5.30747,0.499112,-6.38509,-3.44062,0.00658529,-2.46643,-7.95412,10.7594,-1.18592,25.9239,12.2754,7.88141,8.77747,6.03295,3.94573,3.18055e-15,3.18055e-14,-18.0348,32.6748,-88.1813,126.414,-16.7776,-55.5043,-2.00681,7.12502,-27.8624,-29.9605,3.18055e-15,3.18055e-14,16.0212,-18.0404,68.6636,28.1475,-16.9578,-29.4156,31.2656,7.12502,-2.75308,61.2276,-27.571,21.6111,12.4676,25.7832,11.3535,-16.9924,15.2753,-26.5515,-3.05975,-1.49227,24.44,-11.172,17.8855,-4.91667
-6.02689,19.2031,7.27364,141.463,-69.3137,-124.018,16.2461,1.85889,-7.308,5.26268,0.3778,-6.42953,-3.50749,-0.0450079,-2.75171,-7.73732,10.6877,-0.895455,25.9582,12.1485,7.72952,8.79034,5.97836,3.83095,-3.81667e-14,-2.54444e-14,-18.7093,31.5188,-88.0044,127.312,-17.4687,-54.3074,0.447241,7.12502,-26.7175,-27.6866,-3.81667e-14,-2.54444e-14,15.7678,-19.7572,68.323,29.3492,-16.4413,-29.5743,31.4463,7.12502,-2.90639,61.4062,-27.3978,20.5565,12.9065,25.8416,11.461,-16.1549,15.3144,-26.6552,-3.62776,-1.26331,24.3388,-10.9294,17.8685,-5.84389
-6.0514,19.2047,7.29992,140.134,-69.6635,-122.577,16.0919,1.55493,-6.89459,5.2677,0.0880994,-6.36872,-3.41839,-0.180003,-2.85808,-7.75606,10.7243,-1.0175,26.2226,12.2121,7.67396,8.87678,5.98167,3.85135,6.36111e-15,-8.90555e-14,-19.1707,30.8604,-87.5735,128.172,-17.5168,-54.2563,0.426302,7.12502,-26.6686,-27.715,6.36111e-15,-8.90555e-14,15.3207,-20.8104,68.225,30.566,-16.108,-29.9043,31.4339,7.12502,-3.22505,61.3892,-27.2869,20.0315,13.0798,25.8966,11.1679,-16.1231,15.4115,-26.8179,-3.99568,-1.21132,24.1837,-10.7113,17.6857,-6.18728
-6.07781,19.2087,7.32603,139.442,-69.9178,-121.894,15.9727,1.32368,-6.77376,5.23129,-0.173411,-6.37554,-3.39403,-0.303568,-2.88149,-7.55964,10.8575,-0.871664,26.3649,12.3826,7.52604,8.90464,6.04779,3.7887,-2.54444e-14,-6.04305e-14,-19.5916,30.1949,-87.3247,128.973,-17.5596,-54.3001,-0.295661,7.12502,-26.7105,-28.4305,-2.54444e-14,-6.04305e-14,14.59,-21.5001,68.1617,31.8861,-16.0698,-30.4681,31.553,7.12502,-3.76953,61.4994,-27.135,19.6744,13.1106,25.9629,10.8608,-16.1669,15.8585,-26.7359,-4.36407,-1.31529,23.9706,-10.6417,17.7032,-6.25375
-6.10182,19.2139,7.34504,138.848,-69.9773,-121.379,15.9284,1.1402,-6.76772,5.19547,-0.395031,-6.30445,-3.40831,-0.407507,-2.76646,-7.36197,10.9936,-0.706962,26.4655,12.5611,7.35935,8.92108,6.11857,3.71547,-4.77083e-14,-1.11319e-13,-19.8226,29.5859,-86.9319,129.812,-18.2986,-53.8746,-0.460709,7.12502,-26.3033,-28.6571,-4.77083e-14,-1.11319e-13,13.7292,-21.6812,68.3088,33.2679,-16.1487,-30.8244,31.89,7.12502,-4.11353,61.83,-26.8944,19.4237,13.3211,25.9302,10.802,-16.208,16.0503,-26.495,-4.75577,-1.26688,23.7147,-10.6142,17.8607,-6.57285
-6.12597,19.2204,7.3633,138.672,-70.0866,-121.292,15.8761,1.12583,-6.74543,5.24299,-0.388978,-6.19121,-3.32884,-0.404734,-2.65781,-7.60858,10.9484,-1.07333,26.706,12.5319,7.46314,9.01398,6.07934,3.83133,7.95139e-14,1.08139e-13,-19.8403,28.5765,-86.0863,130.643,-19.2951,-53.4029,-0.160653,7.12502,-25.8517,-28.4236,7.95139e-14,1.08139e-13,13.1574,-22.0093,68.7511,34.6862,-16.0329,-30.7788,31.7511,7.12502,-4.0695,61.692,-26.6977,19.2139,13.3465,25.8981,10.7227,-16.4482,16.3822,-26.2255,-5.15333,-1.36101,23.4445,-10.5917,18.1225,-6.20207
-6.15273,19.2284,7.38395,138.753,-70.2094,-121.51,15.8169,1.22536,-6.66644,5.28469,-0.240138,-6.20178,-3.25344,-0.334378,-2.74001,-7.73631,10.8875,-1.06893,26.9312,12.4446,7.43503,9.12336,6.03194,3.83668,-4.13472e-14,1.27222e-14,-19.9966,27.1411,-85.5908,131.416,-20.3559,-52.9854,0.197519,7.12502,-25.4517,-28.1231,-4.13472e-14,1.27222e-14,12.6743,-22.6553,69.1065,36.0415,-15.8555,-29.9437,30.2191,7.12502,-3.26313,60.1739,-26.4567,19.0546,13.2476,25.8508,10.6157,-16.7693,17.242,-25.8792,-5.52453,-1.55579,23.1837,-10.6994,18.3131,-5.48479
-6.18092,19.2342,7.4062,138.884,-70.392,-121.826,15.7531,1.2443,-6.74367,5.31832,-0.219263,-6.20344,-3.18298,-0.326946,-2.70125,-7.73488,10.9195,-0.998757,27.1219,12.4861,7.33545,9.20171,6.04018,3.80776,5.08889e-14,1.27222e-14,-20.1332,25.9026,-85.3703,132.128,-21.4047,-52.1228,1.2645,7.12502,-24.6252,-27.1714,5.08889e-14,1.27222e-14,11.9936,-23.1791,69.3726,37.5077,-15.5061,-28.3785,28.0451,7.12502,-1.7515,58.0176,-26.124,18.6379,13.1592,25.7723,10.7737,-16.9657,17.9609,-25.5406,-5.82836,-1.88134,22.995,-10.7378,18.4437,-5.78876
-6.20533,19.2376,7.42473,138.83,-70.4012,-121.849,15.6381,1.22709,-6.72913,5.31614,-0.211421,-6.08259,-3.1232,-0.321013,-2.58003,-7.76929,10.9219,-1.07507,27.2879,12.5378,7.16007,9.27201,6.03322,3.77756,-2.54444e-14,4.45278e-14,-20.1394,24.8096,-84.9895,132.871,-22.3287,-51.2829,2.17596,7.12502,-23.8199,-26.3673,-2.54444e-14,4.45278e-14,11.2846,-23.6517,69.7529,38.8973,-14.8651,-28.1567,27.433,7.12502,-1.53729,57.4072,-25.8901,18.3021,13.2746,25.625,11.1353,-17.3149,18.0583,-25.3538,-5.77104,-2.02034,22.9253,-10.7552,18.3456,-6.0859
-6.22708,19.2419,7.44155,138.522,-70.1844,-121.551,15.5342,1.2433,-6.46917,5.24345,-0.124733,-5.96215,-3.14562,-0.270725,-2.61177,-7.78558,10.8842,-0.96748,27.5379,12.47,7.06685,9.38295,5.99204,3.74071,1.59028e-14,3.18055e-15,-20.2287,23.7649,-84.7277,133.661,-22.999,-51.1311,1.73871,7.12502,-23.6744,-26.8234,1.59028e-14,3.18055e-15,10.5776,-24.4046,70.047,40.1999,-13.9905,-29.1921,28.6729,7.12502,-2.53727,58.6376,-25.7353,18.3324,13.5528,25.4542,11.3818,-17.8856,18.341,-25.2033,-5.55415,-1.91598,22.8984,-10.7878,18.3112,-5.69808
-6.25143,19.2516,7.45822,138.488,-70.0848,-121.593,15.415,1.27161,-6.38181,5.18144,-0.056809,-5.92183,-3.14776,-0.233334,-2.6287,-7.56853,10.862,-0.694607,27.5678,12.3957,6.98607,9.38492,5.96944,3.65414,-9.54166e-15,1.145e-13,-20.3674,22.7113,-84.6985,134.447,-23.6482,-50.9045,1.04167,7.12502,-23.457,-27.5484,-9.54166e-15,1.145e-13,9.76815,-25.0127,70.2639,41.4865,-13.4816,-29.925,29.7188,7.12502,-3.24501,59.6738,-25.5264,18.4441,13.6315,25.2875,11.44,-18.5372,19.4345,-25.0014,-5.44467,-2.00929,22.8963,-10.8868,18.3905,-4.56759
