JuanDHNZ/ProyectoFinalCD/preprocessing/sports_trials_csv/13_26.csv
root1,root2,root3,root4,root5,root6,lowerback1,lowerback2,lowerback3,upperback1,upperback2,upperback3,thorax1,thorax2,thorax3,lowerneck1,lowerneck2,lowerneck3,upperneck1,upperneck2,upperneck3,head1,head2,head3,rclavicle1,rclavicle2,rhumerus1,rhumerus2,rhumerus3,rradius1,rwrist1,rhand1,rhand2,rfingers1,rthumb1,rthumb2,lclavicle1,lclavicle2,lhumerus1,lhumerus2,lhumerus3,lradius1,lwrist1,lhand1,lhand2,lfingers1,lthumb1,lthumb2,rfemur1,rfemur2,rfemur3,rtibia1,rfoot1,rfoot2,rtoes1,lfemur1,lfemur2,lfemur3,ltibia1,lfoot1,lfoot2,ltoes1
-0.200868,18.6574,0.98233,-0.359402,-23.9596,3.01985,2.75198,1.52351,-1.37328,1.32777,1.98773,-1.02549,-0.191631,0.98911,-0.337788,-13.9793,0.509531,-4.03799,9.59106,0.309591,9.09012,5.15331,0.638752,3.546,5.44484e-15,-5.01931e-15,-10.7111,23.4406,-70.7052,37.6898,-18.3956,-14.2342,-2.10434,7.12502,11.9033,-31.746,5.44484e-15,-5.01931e-15,-2.86799,14.1769,66.3793,30.7961,60.0666,-16.0601,28.1923,7.12502,10.1422,57.9279,-7.62058,12.5684,18.6361,29.5328,-22.6738,-21.4074,1.08541,-7.65066,-1.39228,-14.2196,29.9462,-13.0146,14.3741,-15.7146
-0.228371,18.6588,0.962914,-0.400609,-23.7519,2.97839,2.83672,1.53081,-1.41465,1.25823,1.99373,-0.994331,-0.312779,0.992638,-0.286745,-14.1652,0.575223,-3.90865,9.85228,0.379823,8.93412,5.26091,0.675206,3.48732,-2.77708e-14,9.79014e-15,-9.0387,23.3609,-69.8316,38.3529,-19.5791,-13.9957,-2.00407,7.12502,12.1333,-31.6322,-2.77708e-14,9.79014e-15,-1.47979,14.1391,66.3007,31.0162,60.6769,-16.1364,28.3148,7.12502,10.0686,58.054,-7.57951,12.4281,18.8167,29.5837,-22.6163,-21.4574,1.0636,-7.70483,-1.34455,-14.0355,29.9972,-12.661,14.228,-16.6412
-0.254708,18.6589,0.957711,-0.488354,-23.7331,3.10243,2.67241,1.61089,-1.47871,1.2359,2.10207,-1.0516,-0.2445,1.04653,-0.308246,-14.2701,0.64639,-3.71613,10.0592,0.445517,8.78745,5.33918,0.709752,3.41899,1.00945e-15,-5.51627e-15,-7.30688,23.1282,-68.9806,38.9209,-20.9484,-13.828,-1.55578,7.12502,12.295,-31.1743,1.00945e-15,-5.51627e-15,-0.0751645,13.8816,66.1858,31.3176,61.5081,-16.467,28.8083,7.12502,9.74965,58.5627,-7.56256,12.4123,18.7872,29.6838,-22.639,-21.406,0.899408,-7.62978,-1.43313,-14.0784,29.9389,-12.6021,14.2444,-16.6252
-0.280851,18.6579,0.95223,-0.64228,-23.6593,3.19393,2.58674,1.66705,-1.53436,1.2379,2.17765,-1.07091,-0.196265,1.08395,-0.296338,-14.3776,0.716946,-3.67021,10.2032,0.529164,8.75276,5.3966,0.754399,3.41123,2.12234e-14,-2.11209e-14,-5.59934,22.9367,-68.061,39.6076,-22.4369,-13.388,-1.1778,7.12502,12.7191,-30.7704,2.12234e-14,-2.11209e-14,1.22782,13.328,65.9592,31.6972,62.8814,-16.9906,28.7696,7.12502,9.24445,58.5469,-7.4323,12.334,18.8073,29.7637,-22.7425,-21.3087,1.15185,-7.46672,-1.56709,-14.1055,29.9307,-12.5394,14.3021,-17.036
-0.307498,18.6569,0.93994,-0.750074,-23.6146,3.20419,2.60395,1.73264,-1.56525,1.19591,2.26335,-1.05906,-0.251084,1.1271,-0.27083,-14.4517,0.772846,-3.68521,10.3192,0.602116,8.75204,5.44015,0.792699,3.42266,5.69052e-14,-2.15184e-14,-3.93451,22.5248,-67.2039,40.2797,-23.78,-12.4621,-1.26136,7.12502,13.6116,-30.7964,5.69052e-14,-2.15184e-14,2.52635,12.9965,65.771,31.9782,64.1247,-17.1233,28.1654,7.12502,9.11632,57.9483,-7.37725,12.2902,18.9191,29.858,-22.784,-21.265,1.05756,-7.34346,-1.61383,-14.0389,29.8997,-12.3504,14.4079,-17.7642
-0.334018,18.6552,0.927359,-0.776014,-23.5543,3.16081,2.59886,1.80815,-1.54437,1.14828,2.36398,-1.04994,-0.297274,1.17789,-0.276885,-14.5454,0.810461,-3.62101,10.3795,0.642741,8.7154,5.47236,0.81535,3.40618,-4.10459e-14,5.81445e-15,-2.25706,21.9373,-66.3873,40.8965,-25.1869,-12.0167,-1.71293,7.12502,14.0409,-31.2187,-4.10459e-14,5.81445e-15,3.9117,12.73,65.6395,32.2227,65.137,-16.7604,27.2319,7.12502,9.46658,56.9992,-7.36719,12.2168,19.0718,29.9337,-22.832,-21.2382,1.03217,-7.37174,-1.73218,-13.884,29.8958,-12.3842,14.4288,-17.4599
-0.36037,18.6554,0.920499,-0.891659,-23.391,3.32882,2.53382,1.84385,-1.69401,1.10357,2.40874,-1.08695,-0.311512,1.20015,-0.23123,-14.6396,0.850468,-3.68761,10.5536,0.688548,8.80919,5.53889,0.84651,3.4556,3.24889e-14,-1.2921e-15,-0.578225,21.5196,-65.5448,41.5205,-26.9698,-12.4033,-1.97303,7.12502,13.6684,-31.5042,3.24889e-14,-1.2921e-15,5.40051,12.8046,65.6301,32.3595,65.6182,-16.5511,26.9347,7.12502,9.66845,56.6928,-7.29136,12.0926,18.9961,30.0026,-23.0778,-21.1357,1.57816,-7.32792,-1.83501,-13.9634,29.875,-12.3212,14.3648,-17.0734
-0.386676,18.655,0.91877,-1.07885,-23.2641,3.54523,2.42491,1.87014,-1.81217,1.09039,2.4434,-1.16119,-0.266039,1.21707,-0.238587,-14.8199,0.920339,-3.78127,10.8435,0.766122,8.96253,5.65368,0.900016,3.53509,6.85093e-14,-1.93815e-15,1.09545,21.1284,-64.7611,42.1715,-28.9981,-12.8338,-2.19242,7.12502,13.2534,-31.7511,6.85093e-14,-1.93815e-15,7.0068,13.2577,65.7448,32.5021,65.9583,-18.0366,28.3761,7.12502,8.23497,58.1956,-7.15869,11.9678,18.8693,30.0794,-23.2771,-20.9946,2.35356,-7.10474,-1.83979,-14.1218,29.7868,-12.0726,14.2786,-17.0142
-0.414594,18.6525,0.915135,-1.25596,-23.1096,3.62622,2.40221,1.88933,-1.86321,1.08395,2.46824,-1.18799,-0.261113,1.22939,-0.237532,-15.0533,0.984957,-3.79596,11.1254,0.82955,9.05548,5.77664,0.946521,3.58217,-3.27141e-14,9.34288e-15,2.77721,20.5314,-64.0544,42.7707,-30.9995,-12.787,-2.443,7.12502,13.2986,-31.9987,-3.27141e-14,9.34288e-15,8.48118,13.3112,65.7426,32.8856,66.8356,-20.2471,29.8888,7.12502,6.10123,59.7809,-6.98421,11.8889,18.9182,30.171,-23.4826,-20.9614,2.86767,-6.91602,-1.98604,-14.1172,29.6535,-11.8628,14.2914,-16.7653
-0.440415,18.6512,0.909259,-1.37699,-22.8769,3.78804,2.36427,1.92378,-1.99076,1.0312,2.51116,-1.23847,-0.2975,1.25104,-0.21901,-15.1351,0.984844,-3.79922,11.2481,0.815988,9.10866,5.82978,0.947559,3.60244,4.95906e-14,-5.76476e-15,4.37558,19.7237,-63.3785,43.2834,-32.9312,-12.5967,-2.22737,7.12502,13.4819,-31.771,4.95906e-14,-5.76476e-15,9.82434,12.7906,65.5615,33.3498,67.7413,-20.4164,29.7513,7.12502,5.93785,59.6481,-6.92082,11.7097,18.8532,30.2609,-23.5872,-20.9412,2.84891,-6.85867,-2.22164,-14.2,29.5161,-11.7714,14.3256,-16.5284
-0.467789,18.6522,0.903571,-1.43332,-22.6209,3.91084,2.28184,1.94353,-2.08639,0.968713,2.53655,-1.27601,-0.318096,1.26402,-0.203129,-15.0848,0.96726,-3.78082,11.2271,0.79325,9.07864,5.81649,0.933691,3.58646,-2.43682e-14,1.23246e-14,5.90941,18.9198,-62.7312,43.852,-34.8748,-12.3491,-1.25367,7.12502,13.7206,-30.7813,-2.43682e-14,1.23246e-14,11.3054,12.6224,65.4855,33.5426,68.2278,-18.8284,29.0305,7.12502,7.47083,58.8786,-6.89823,11.5561,18.8254,30.352,-23.6505,-20.9742,2.79269,-6.80421,-2.41361,-14.2488,29.3709,-11.7095,14.3145,-16.5578
-0.497589,18.6518,0.895556,-1.49578,-22.3913,3.82045,2.30912,1.96534,-2.02513,0.922756,2.56543,-1.24818,-0.379404,1.27925,-0.211687,-15.0898,0.957015,-3.77283,11.2895,0.769821,9.10584,5.83861,0.925883,3.59317,-4.14031e-14,1.13059e-14,7.37247,18.1696,-62.0963,44.4993,-36.8556,-12.0496,-0.893502,7.12502,14.0092,-30.4014,-4.14031e-14,1.13059e-14,12.7722,12.6151,65.4546,33.7699,68.8274,-17.6801,28.7407,7.12502,8.57909,58.5464,-6.7824,11.4669,19.0678,30.443,-23.723,-21.1341,2.88351,-6.67814,-2.43616,-14.044,29.2435,-11.5064,14.2608,-17.1184
-0.526982,18.6494,0.892079,-1.67457,-22.2609,3.86016,2.33706,2.02859,-2.03291,0.915113,2.64822,-1.29243,-0.402052,1.32084,-0.256175,-15.1463,0.9473,-3.64841,11.38,0.72551,9.10003,5.88069,0.912048,3.56947,1.88294e-14,-5.73991e-15,8.87571,17.3386,-61.5258,44.992,-38.8531,-11.9502,-1.73164,7.12502,14.105,-31.2329,1.88294e-14,-5.73991e-15,14.1924,12.3507,65.2677,34.1341,69.631,-17.3984,29.0768,7.12502,8.85095,58.8712,-6.57404,11.3413,19.1631,30.5082,-23.8074,-21.1261,3.12915,-6.45826,-2.32231,-13.9794,29.1533,-11.4629,14.1875,-17.6232
-0.55413,18.647,0.89021,-1.82082,-22.1022,3.94702,2.36468,2.07747,-2.072,0.863645,2.71012,-1.34514,-0.470141,1.35243,-0.292407,-15.1923,0.943216,-3.58408,11.4567,0.691874,9.16595,5.91538,0.905999,3.57939,4.43034e-14,-1.22004e-14,10.4793,16.4607,-61.0255,45.1919,-40.8863,-12.0137,-1.899,7.12502,14.0438,-31.4045,4.43034e-14,-1.22004e-14,15.5573,12.0128,65.0324,34.5076,70.4127,-17.0815,29.2011,7.12502,9.15673,58.9824,-6.39322,11.2031,19.174,30.5502,-23.9146,-20.9987,3.51174,-6.31402,-2.28442,-13.9712,29.0823,-11.5812,14.0641,-17.3689
-0.582776,18.6458,0.884562,-1.86847,-21.8227,3.949,2.35755,2.06737,-2.04191,0.804224,2.69614,-1.37795,-0.523942,1.34616,-0.343468,-15.2558,0.914574,-3.60709,11.5583,0.632578,9.29759,5.96203,0.889646,3.62351,-6.66348e-14,3.77691e-15,12.0938,15.5932,-60.6164,45.4135,-42.8225,-12.0361,-1.526,7.12502,14.0222,-31.033,-6.66348e-14,3.77691e-15,16.8557,11.7541,64.7677,35.0063,71.2775,-16.9959,28.9556,7.12502,9.23934,58.7332,-6.27093,11.0472,19.283,30.5756,-23.9741,-21.0087,3.44727,-6.31201,-2.38114,-13.8628,29.0293,-11.7003,13.9378,-16.8996
-0.613711,18.6457,0.878824,-1.88934,-21.5218,3.91091,2.29344,2.06066,-1.98902,0.792046,2.69002,-1.4156,-0.496273,1.34309,-0.408943,-15.4122,0.84042,-3.50075,11.6737,0.505781,9.27694,6.03461,0.83675,3.59244,1.05156e-14,1.57537e-14,13.6272,14.7907,-60.1335,45.8108,-44.9089,-12.0566,-1.39251,7.12502,14.0025,-30.9009,1.05156e-14,1.57537e-14,18.1795,11.4915,64.4779,35.5944,72.309,-17.0458,28.8083,7.12502,9.19114,58.588,-6.16902,10.9046,19.4452,30.5933,-24.0411,-21.0902,3.40975,-6.31224,-2.4617,-13.7147,28.998,-11.4803,13.7775,-17.2434
-0.64223,18.645,0.875128,-1.90127,-21.2738,3.9107,2.23427,2.09306,-1.97355,0.750893,2.73451,-1.43035,-0.504243,1.36563,-0.432509,-15.5394,0.760436,-3.50123,11.776,0.382525,9.33897,6.09721,0.786612,3.60529,-6.37547e-15,6.21202e-17,14.9297,14.2804,-59.3393,46.6076,-47.2487,-12.2758,-1.62869,7.12502,13.7912,-31.1516,-6.37547e-15,6.21202e-17,19.4273,11.1805,64.2331,36.1472,73.1599,-16.3297,28.1656,7.12502,9.88205,57.9137,-6.11267,10.8139,19.5543,30.6173,-24.0847,-21.1829,3.33528,-6.31476,-2.44803,-13.6182,28.9921,-11.0626,13.6266,-18.0866
-0.669254,18.643,0.874355,-1.92969,-21.0421,3.98813,2.15509,2.12165,-1.99185,0.675347,2.77284,-1.4705,-0.536497,1.38534,-0.463079,-15.4406,0.729521,-3.60197,11.7622,0.340285,9.48702,6.07867,0.771035,3.66437,-3.46173e-14,1.1691e-14,16.1644,13.8169,-58.5432,47.4599,-49.5164,-12.4982,-2.18485,7.12502,13.5768,-31.7222,-3.46173e-14,1.1691e-14,20.6158,10.9532,63.9951,36.5505,73.4354,-16.999,28.253,7.12502,9.23635,58.0307,-6.06242,10.6945,19.5628,30.6602,-24.0689,-21.2096,3.32279,-6.32728,-2.43469,-13.6152,28.9995,-10.8699,13.505,-18.1349
-0.696463,18.6396,0.87062,-1.92719,-20.7615,4.0092,2.03872,2.11902,-1.96399,0.626709,2.77245,-1.50216,-0.518334,1.38531,-0.507344,-15.2991,0.741292,-3.71055,11.7204,0.355383,9.65953,6.03997,0.783274,3.73679,-1.50556e-14,-5.93869e-15,17.725,12.7379,-58.3126,47.5449,-50.9183,-12.5062,-2.41288,7.12502,13.5692,-31.9507,-1.50556e-14,-5.93869e-15,21.8375,10.747,63.6699,36.9634,73.6588,-16.0923,27.6784,7.12502,10.1112,57.4155,-6.01636,10.6155,19.638,30.715,-24.2376,-21.1826,3.78825,-6.42186,-2.42592,-13.5184,29.0344,-10.8862,13.251,-17.4806
-0.722754,18.6343,0.865228,-1.90489,-20.411,3.95769,1.98179,2.09642,-1.89489,0.579141,2.74465,-1.49677,-0.532083,1.37176,-0.538441,-15.2685,0.729236,-3.78464,11.7723,0.334072,9.77384,6.05241,0.778938,3.7849,2.4753e-14,7.30534e-15,19.2395,11.6355,-58.1263,47.511,-52.0661,-12.1391,-1.94244,7.12502,13.923,-31.4563,2.4753e-14,7.30534e-15,22.9726,10.4609,63.3198,37.7726,74.8522,-16.8935,28.7736,7.12502,9.33806,58.5467,-5.95751,10.5559,19.799,30.7668,-24.3341,-21.2877,4.10218,-6.58556,-2.43266,-13.3295,29.1073,-10.9245,12.9367,-17.0001
-0.74852,18.6283,0.866345,-1.91265,-20.0506,3.94767,1.88719,2.04301,-1.83866,0.551893,2.67702,-1.49618,-0.504192,1.33798,-0.564308,-15.2943,0.695724,-3.74648,11.9082,0.28485,9.68162,6.10338,0.752506,3.74727,1.79489e-15,-7.30534e-15,20.6292,10.91,-57.6858,47.8119,-53.4402,-11.6961,-1.66281,7.12502,14.3499,-31.1469,1.79489e-15,-7.30534e-15,24.0255,10.3296,62.9728,38.5397,75.5619,-16.5099,28.7012,7.12502,9.70818,58.4575,-5.87742,10.4664,19.8938,30.8172,-24.2431,-21.4486,3.61505,-6.72343,-2.41582,-13.2026,29.2404,-10.9289,12.6062,-16.6536
-0.774091,18.624,0.870225,-1.99204,-19.7292,3.94361,1.76679,2.00264,-1.71002,0.620274,2.63061,-1.52628,-0.359398,1.31403,-0.65926,-15.5125,0.634316,-3.74547,12.2199,0.193133,9.61115,6.24569,0.712918,3.72542,-1.04222e-14,-1.12313e-14,22.1223,10.1284,-57.2676,48.1562,-54.8587,-11.8084,-1.81087,7.12502,14.2417,-31.3026,-1.04222e-14,-1.12313e-14,25.2828,10.4554,62.7823,39.1206,75.9881,-15.339,28.0824,7.12502,10.8378,57.7827,-5.6925,10.4224,19.9886,30.8521,-24.349,-21.5237,2.93872,-6.77566,-2.31429,-13.0906,29.4443,-10.8363,12.2441,-16.636
-0.799955,18.6187,0.864214,-2.041,-19.3055,3.8964,1.81651,1.94303,-1.61738,0.661457,2.55233,-1.52947,-0.340777,1.27483,-0.713412,-15.8394,0.570616,-3.73588,12.6335,0.093826,9.52437,6.43992,0.672753,3.69959,-1.6675e-14,5.31749e-15,23.659,9.21464,-56.9613,48.3803,-56.0342,-12.0889,-2.14846,7.12502,13.9713,-31.659,-1.6675e-14,5.31749e-15,26.6825,10.7248,62.7852,39.5592,76.1252,-14.9436,28.6852,7.12502,11.2191,58.3652,-5.52921,10.387,20.1604,30.8735,-24.4358,-21.6795,2.6542,-6.92272,-2.20846,-12.8991,29.6914,-10.6365,11.7551,-16.8434
-0.824634,18.6143,0.852809,-2.02027,-18.7769,3.83802,1.97244,1.85013,-1.5852,0.593936,2.42367,-1.49046,-0.497625,1.21131,-0.695813,-15.9695,0.555866,-3.75068,13.0121,0.0701727,9.41836,6.58422,0.660852,3.67501,2.28657e-14,-1.82633e-15,25.032,8.39961,-56.6144,48.6398,-57.1017,-12.2224,-2.5204,7.12502,13.8427,-32.0398,2.28657e-14,-1.82633e-15,27.5701,10.5061,62.3323,40.4852,76.8055,-15.0255,29.0784,7.12502,11.1401,58.7627,-5.45718,10.3161,20.333,30.8718,-24.4447,-21.8658,2.84706,-7.221,-2.2522,-12.685,29.959,-10.4389,11.2719,-16.8672
-0.848227,18.6105,0.851047,-2.04491,-18.4156,3.83187,2.02291,1.79472,-1.56354,0.5194,2.34777,-1.44878,-0.60312,1.174,-0.666787,-15.895,0.568503,-3.79828,13.3433,0.0936324,9.30422,6.67497,0.663493,3.65379,4.87517e-14,3.57657e-15,26.1699,7.66963,-56.3337,49.1112,-57.9727,-12.3528,-2.90995,7.12502,13.717,-32.4378,4.87517e-14,3.57657e-15,27.9811,9.96191,61.4147,41.8821,78.1292,-14.8325,28.2257,7.12502,11.3263,57.8999,-5.33324,10.3286,20.4113,30.8521,-24.5899,-21.8755,3.55757,-7.43098,-2.24837,-12.5641,30.2312,-10.243,10.9453,-17.1183
-0.869658,18.6079,0.859211,-2.089,-18.204,3.83693,1.84394,1.79135,-1.44772,0.546128,2.35111,-1.42862,-0.471768,1.17521,-0.703989,-15.8647,0.564532,-3.87485,13.6897,0.0970745,9.21668,6.77984,0.658085,3.64521,2.01169e-14,-9.08197e-15,27.4545,6.94022,-56.0068,49.4616,-58.8403,-12.648,-3.24105,7.12502,13.4325,-32.788,2.01169e-14,-9.08197e-15,28.5765,9.61334,60.6707,43.0896,79.1424,-14.5588,27.6618,7.12502,11.5902,57.3213,-5.14603,10.3453,20.454,30.82,-24.5711,-21.8638,3.5563,-7.52472,-2.15705,-12.4966,30.5052,-10.0412,10.6882,-17.6784
-0.890843,18.6078,0.865339,-2.20117,-17.9035,3.92363,1.69136,1.76957,-1.33012,0.639712,2.32946,-1.50371,-0.282757,1.16381,-0.838623,-15.8886,0.555828,-3.83558,14.0161,0.0685638,9.13507,6.89085,0.644572,3.61647,2.80317e-15,7.87684e-15,29.0332,6.16013,-55.7012,49.3962,-59.729,-13.2705,-3.36791,7.12502,12.8324,-32.9535,2.80317e-15,7.87684e-15,29.4509,9.42534,59.9775,44.1199,80.1239,-14.6903,27.9934,7.12502,11.4635,57.66,-4.8967,10.221,20.4135,30.7783,-24.6717,-21.7769,3.24895,-7.57491,-2.02979,-12.5169,30.767,-9.75926,10.3521,-18.2873
-0.912587,18.6091,0.862545,-2.28271,-17.5491,4.04017,1.61169,1.75274,-1.27682,0.727552,2.31116,-1.60604,-0.141961,1.15442,-0.968114,-15.9715,0.56719,-3.6993,14.36,0.0518335,9.01278,7.01763,0.63987,3.56053,-2.97534e-15,1.46573e-14,30.5338,5.2375,-55.4775,49.411,-60.6269,-14.0719,-3.52639,7.12502,12.0598,-33.1589,-2.97534e-15,1.46573e-14,30.4413,9.26894,59.3335,45.1359,81.2293,-15.045,28.2174,7.12502,11.1214,57.9027,-4.75135,10.0745,20.3526,30.7493,-24.6163,-21.816,2.4365,-7.73998,-1.91066,-12.5424,30.9997,-9.35744,10.0443,-19.0134
-0.934438,18.6055,0.856637,-2.35497,-17.2308,4.03363,1.60429,1.7328,-1.15406,0.807868,2.28815,-1.64386,-0.0494118,1.1431,-1.07305,-15.9243,0.562704,-3.57841,14.6723,0.0335243,8.80031,7.11175,0.622094,3.47438,5.84639e-14,-1.82416e-14,31.9242,4.39005,-55.2559,49.633,-61.4946,-14.7496,-3.7903,7.12502,11.4063,-33.46,5.84639e-14,-1.82416e-14,31.3872,9.1966,58.7363,46.0186,81.9075,-14.9516,28.1231,7.12502,11.2114,57.8036,-4.59169,10.0968,20.4721,30.7266,-24.2744,-22.1261,1.2262,-7.94239,-1.80026,-12.4021,31.2263,-9.05769,9.69025,-19.4241
-0.955204,18.6016,0.85794,-2.48564,-16.9363,4.04489,1.64006,1.71086,-1.09297,0.842887,2.25988,-1.60079,-0.0332644,1.12907,-1.06313,-15.5916,0.574301,-3.62172,14.9481,0.0775138,8.57373,7.13928,0.616957,3.41237,3.20455e-14,-1.15916e-14,33.21,3.7313,-54.8963,49.9016,-62.3509,-15.5435,-4.21585,7.12502,10.6405,-33.9264,3.20455e-14,-1.15916e-14,32.0844,9.07168,58.086,46.87,82.4075,-14.6905,27.985,7.12502,11.4632,57.6516,-4.31698,10.1249,20.5666,30.6793,-24.2992,-22.2627,1.13436,-8.09877,-1.7538,-12.2963,31.488,-8.92092,9.3391,-19.3545
-0.973226,18.6005,0.858537,-2.5585,-16.5657,4.04123,1.69568,1.69809,-0.986129,0.834503,2.2433,-1.57764,-0.069997,1.12118,-1.10086,-15.2124,0.608,-3.63638,15.206,0.130521,8.43051,7.15256,0.624151,3.3731,-4.78376e-14,1.78658e-14,34.3419,3.01128,-54.5095,50.2976,-63.3874,-16.8278,-4.89901,7.12502,9.40152,-34.6693,-4.78376e-14,1.78658e-14,32.7541,8.87018,57.4243,47.7786,83.0584,-14.4502,28.0869,7.12502,11.695,57.7405,-4.10175,10.0905,20.66,30.5976,-24.3887,-22.38,1.20633,-8.32139,-1.74683,-12.196,31.7987,-8.70915,9.00699,-19.3152
-0.991586,18.5989,0.852819,-2.48303,-16.1683,3.83039,1.86562,1.6804,-0.696532,0.705762,2.21939,-1.54343,-0.287601,1.10991,-1.23545,-14.8943,0.648493,-3.52927,15.6033,0.148015,8.33978,7.22469,0.629194,3.33124,3.85126e-14,1.04362e-15,35.285,2.2493,-54.2828,50.8205,-64.4564,-18.3277,-5.8918,7.12502,7.9541,-35.7221,3.85126e-14,1.04362e-15,33.2601,8.56629,56.651,48.8986,83.8259,-14.5009,27.9196,7.12502,11.6461,57.5759,-4.0325,10.0402,20.9842,30.5079,-24.3032,-22.7041,0.975999,-8.69143,-1.70923,-11.842,32.1633,-8.41967,8.54623,-19.2532
-1.01131,18.5979,0.848018,-2.49717,-15.8442,3.74955,2.241,1.67543,-0.527221,0.448925,2.20618,-1.5456,-0.754452,1.10247,-1.34974,-14.4182,0.68956,-3.4181,16.1675,0.158429,8.22313,7.32363,0.627755,3.28093,-1.93264e-14,2.60905e-15,36.0133,1.65065,-54.1043,51.3274,-65.4351,-19.2582,-6.6083,7.12502,7.05588,-36.4707,-1.93264e-14,2.60905e-15,33.4522,8.16992,55.7442,50.2487,84.7258,-14.8083,27.8569,7.12502,11.3496,57.5298,-3.90964,9.94208,21.1763,30.4304,-24.3419,-22.9335,1.0004,-8.96627,-1.61869,-11.6392,32.5649,-8.08458,8.09691,-19.6793
-1.02934,18.5989,0.846529,-2.59026,-15.5471,3.90037,1.96761,1.65761,-0.519478,0.659612,2.18969,-1.6107,-0.383144,1.09524,-1.40696,-14.1302,0.776098,-3.35934,16.3853,0.266147,8.11991,7.33675,0.670499,3.24854,2.37326e-14,4.09993e-15,37.2405,0.795483,-53.9336,51.9499,-66.4962,-20.2011,-6.67015,7.12502,6.14572,-36.561,2.37326e-14,4.09993e-15,34.1043,8.22456,54.9123,51.6134,85.6358,-15.1275,27.8608,7.12502,11.0418,57.5503,-3.76039,9.80474,21.1136,30.3766,-24.3411,-23.134,0.914697,-9.20049,-1.52376,-11.6958,32.9755,-7.68501,7.70183,-19.9893
-1.04661,18.5965,0.843897,-2.63806,-15.2553,3.96265,1.53375,1.64298,-0.412775,1.03352,2.18443,-1.65668,0.248251,1.09493,-1.49215,-14.0066,0.852005,-3.37808,16.4054,0.373101,8.11349,7.3143,0.71786,3.25891,1.86904e-14,1.73937e-15,38.6038,-0.232572,-53.8371,52.7053,-67.69,-21.1355,-6.46305,7.12502,5.24351,-36.3782,1.86904e-14,1.73937e-15,35.0856,8.55504,54.2024,52.8831,86.7018,-15.5468,28.1023,7.12502,10.6374,57.8131,-3.65507,9.75721,21.1566,30.3464,-24.4825,-23.3579,1.45117,-9.50568,-1.46787,-11.6454,33.3573,-7.28342,7.32239,-20.0602
-1.06343,18.5932,0.840208,-2.68105,-15.0042,3.99285,2.35806,1.70738,-0.608573,0.57618,2.24774,-1.46571,-0.695175,1.12366,-1.22495,-13.5295,0.855567,-3.62986,17.0926,0.394312,8.06569,7.44988,0.706114,3.29635,-2.73034e-14,-8.05078e-15,38.9129,-0.670968,-53.3899,53.7934,-69.2431,-22.0305,-7.03668,7.12502,4.37936,-36.9714,-2.73034e-14,-8.05078e-15,35.0286,8.35352,53.7704,54.2732,88.0999,-15.9476,28.4967,7.12502,10.2507,58.2269,-3.56145,9.75385,21.2436,30.3186,-24.668,-23.5994,2.08843,-9.82491,-1.35574,-11.5536,33.7458,-6.88433,6.92362,-20.2032
-1.08073,18.594,0.837716,-2.77247,-14.7467,4.07246,1.52568,1.68544,-0.422067,1.27749,2.24492,-1.60187,0.501457,1.1259,-1.42652,-13.6712,0.938401,-3.6563,17.0541,0.492187,8.20807,7.45549,0.766695,3.35905,-1.74247e-14,2.73329e-15,40.5399,-2.12765,-53.7025,55.0757,-70.9839,-23.0987,-8.30199,7.12502,3.34782,-38.2555,-1.74247e-14,2.73329e-15,36.1666,9.09985,53.0387,55.777,89.4208,-16.3457,28.7587,7.12502,9.86664,58.5075,-3.39675,9.75536,21.2831,30.269,-24.8955,-23.8265,2.28151,-10.0731,-1.35173,-11.5333,34.1599,-6.5231,6.60563,-19.8776
-1.09764,18.5956,0.83697,-2.78835,-14.5241,4.07789,1.38546,1.70707,-0.429608,1.40429,2.2775,-1.52159,0.70697,1.1423,-1.33327,-13.3511,0.951799,-3.94744,17.3825,0.522598,8.34276,7.50051,0.771925,3.45898,2.1124e-14,-1.21259e-14,41.3522,-2.97037,-53.6496,56.6123,-72.8402,-24.2294,-8.57986,7.12502,2.2558,-38.5477,2.1124e-14,-1.21259e-14,36.5711,9.43882,52.5815,57.3857,90.6154,-16.9324,29.3388,7.12502,9.30055,59.1136,-3.2959,9.7286,21.3792,30.2123,-25.0113,-24.0407,2.16115,-10.373,-1.29524,-11.4274,34.6032,-6.15112,6.26399,-19.7606
-1.11385,18.5937,0.836098,-2.83881,-14.3348,4.1161,1.37407,1.71378,-0.36503,1.42099,2.28751,-1.53013,0.733563,1.14804,-1.37746,-12.7142,1.00306,-3.9936,17.595,0.574173,8.35241,7.45142,0.784185,3.47035,9.6659e-15,4.27387e-15,41.9212,-3.69796,-53.7627,58.2055,-74.4016,-24.3724,-7.6205,7.12502,2.11775,-37.5897,9.6659e-15,4.27387e-15,36.8386,9.70735,51.9669,59.0379,92.3541,-17.7268,30.2557,7.12502,8.53395,60.0632,-3.1765,9.75429,21.4442,30.1507,-25.1506,-24.257,2.37607,-10.6567,-1.15838,-11.3413,35.0628,-5.75823,5.82503,-19.7934
-1.13118,18.594,0.832297,-2.87985,-14.1124,4.23015,1.77339,1.71533,-0.411285,1.17294,2.27981,-1.5783,0.255957,1.14279,-1.41914,-11.9889,1.0892,-4.0092,17.9506,0.637326,8.46116,7.43149,0.812707,3.5128,6.63133e-15,-5.66536e-15,42.1691,-4.33007,-53.9476,59.9032,-75.5573,-23.8104,-6.81026,7.12502,2.66051,-36.7734,6.63133e-15,-5.66536e-15,36.6604,9.77373,51.1528,60.9058,94.7318,-18.0893,30.875,7.12502,8.18416,60.6965,-3.10905,9.7201,21.4154,30.1118,-25.2856,-24.4122,2.62637,-10.9968,-1.08513,-11.3331,35.5155,-5.35047,5.39317,-19.7357
-1.14607,18.5978,0.827724,-2.83718,-13.813,4.3835,2.19329,1.72724,-0.525819,0.914538,2.28305,-1.6378,-0.245582,1.14273,-1.43564,-11.4923,1.10367,-4.15846,18.3664,0.60459,8.69665,7.47686,0.802722,3.61646,-3.08924e-14,1.98785e-16,42.3431,-5.09663,-54.1729,61.8211,-76.2342,-23.7542,-6.09411,7.12502,2.71472,-36.0566,-3.08924e-14,1.98785e-16,36.662,9.86442,50.5639,62.9047,96.8166,-18.093,31.2768,7.12502,8.18057,61.0984,-3.13757,9.59895,21.2954,30.0852,-25.3847,-24.5223,2.77303,-11.4721,-1.06101,-11.3874,35.9541,-4.91726,5.00072,-20.1017
-1.15742,18.5981,0.823684,-2.84411,-13.5433,4.48971,2.46427,1.80521,-0.471095,0.92891,2.38319,-1.79686,-0.371268,1.19298,-1.64083,-11.5197,1.03395,-4.07158,18.7248,0.437664,8.85877,7.6108,0.748333,3.65062,2.01611e-14,-2.68359e-15,42.6732,-6.35837,-54.6572,63.9421,-76.6967,-23.3659,-5.61849,7.12502,3.08972,-35.5759,2.01611e-14,-2.68359e-15,37.236,10.0885,50.1868,65.0152,98.6231,-18.3429,32.096,7.12502,7.93935,61.9269,-3.12149,9.47256,21.2256,30.0699,-25.5058,-24.5971,2.91399,-11.8797,-0.993827,-11.3939,36.3767,-4.42885,4.58435,-20.3125
-1.16862,18.5954,0.824272,-2.94125,-13.3227,4.56564,2.62931,1.87279,-0.387247,0.943627,2.47232,-1.90563,-0.437861,1.23777,-1.80735,-11.0547,0.981394,-4.02077,18.89,0.318229,8.93837,7.58901,0.69464,3.65484,-1.28519e-14,-7.85199e-15,42.8787,-7.43445,-55.0894,66.2399,-76.8262,-22.5248,-5.01036,7.12502,3.90204,-34.9544,-1.28519e-14,-7.85199e-15,37.5452,10.3103,49.7486,67.1755,100.604,-18.6701,32.794,7.12502,7.62362,62.6366,-2.98423,9.37872,21.2146,30.0607,-25.6078,-24.7173,3.08666,-12.1469,-0.836124,-11.3563,36.7922,-3.93388,4.10472,-19.8853
-1.17987,18.5947,0.82578,-2.97527,-13.0623,4.68381,2.66114,1.89198,-0.452403,1.16409,2.49945,-1.93816,-0.230302,1.25247,-1.80121,-11.2027,0.860676,-4.19212,19.0848,0.154213,9.04512,7.69041,0.619391,3.71217,-3.75237e-14,1.13804e-14,43.4472,-8.57652,-55.3477,68.5161,-76.8128,-21.2479,-3.49961,7.12502,5.13495,-33.4174,-3.75237e-14,1.13804e-14,38.0572,10.997,49.467,69.41,102.424,-18.9364,33.2646,7.12502,7.36655,63.1163,-2.92152,9.23164,21.1347,30.0596,-25.6666,-24.8212,3.12769,-12.4993,-0.762355,-11.3778,37.2062,-3.4786,3.68265,-18.9707
-1.19067,18.5945,0.824922,-2.89707,-12.8306,4.75674,2.68917,1.93338,-0.473233,1.28114,2.5556,-1.98807,-0.12304,1.28125,-1.84061,-11.2658,0.756837,-4.31789,19.2728,-0.00706411,9.20134,7.77469,0.551631,3.7772,1.27968e-15,-6.95746e-15,43.843,-9.72197,-55.5902,70.7738,-76.8921,-19.6019,-1.44108,7.12502,6.72409,-31.3143,1.27968e-15,-6.95746e-15,38.4638,11.6277,49.2593,71.7742,103.946,-19.3897,33.4519,7.12502,6.92894,63.3185,-2.99884,9.12141,21.0835,30.0564,-25.6582,-24.9488,2.98811,-12.9793,-0.709737,-11.3525,37.6169,-3.04193,3.32549,-18.2722
-1.20132,18.5931,0.819435,-2.79423,-12.6481,4.69977,2.83509,1.95658,-0.383611,1.16855,2.58436,-1.98233,-0.315478,1.29508,-1.8939,-10.5179,0.766873,-4.39665,19.1716,-0.000679222,9.25599,7.60371,0.536947,3.79599,-9.5339e-15,2.37051e-14,43.9928,-10.5805,-55.9559,73.1996,-76.6669,-18.1473,-0.6709,7.12502,8.12815,-30.4946,-9.5339e-15,2.37051e-14,38.368,12.0932,48.9486,74.3157,104.921,-19.5814,33.3557,7.12502,6.7439,63.2283,-3.09767,9.11055,21.2,30.0625,-25.8309,-25.0959,3.25329,-13.4717,-0.530541,-11.1783,38.0247,-2.5261,2.95323,-17.9952
-1.21099,18.5907,0.817224,-2.73638,-12.5079,4.64329,2.96556,2.01142,-0.299873,1.30899,2.66004,-2.00414,-0.237278,1.33405,-1.9671,-10.627,0.715695,-4.2876,19.1871,-0.0634479,9.12462,7.63457,0.505555,3.72958,-2.47456e-14,2.83268e-14,44.5363,-11.7552,-56.4619,75.723,-76.0489,-16.9677,-0.805667,7.12502,9.26653,-30.582,-2.47456e-14,2.83268e-14,38.6692,12.8483,48.7817,76.883,105.205,-19.3782,33.2021,7.12502,6.94005,63.0683,-3.12935,9.04997,21.3089,30.0706,-25.9671,-25.1728,3.401,-13.8836,-0.336171,-11.016,38.4428,-2.09429,2.59904,-17.6313
-1.21979,18.5901,0.820057,-2.70877,-12.3345,4.75054,3.04617,2.05003,-0.389298,1.45211,2.70998,-2.05809,-0.135499,1.35963,-1.97372,-10.9588,0.6813,-4.2276,19.3366,-0.117261,9.09276,7.74869,0.490333,3.71238,1.34754e-14,1.20265e-14,45.1302,-12.8708,-56.9726,78.0964,-75.3429,-15.6559,-0.614115,7.12502,10.5321,-30.3302,1.34754e-14,1.20265e-14,38.8999,13.6352,48.6528,79.4259,104.877,-19.2149,33.138,7.12502,7.09769,62.999,-3.14684,8.87695,21.2098,30.0815,-25.9117,-25.2388,3.07948,-14.2549,-0.227411,-11.069,38.858,-1.81447,2.34818,-17.7645
-1.22814,18.5886,0.820463,-2.59085,-12.1422,4.77525,3.18272,2.11728,-0.427673,1.86442,2.80362,-2.13838,0.216335,1.40905,-2.03287,-12.6954,0.505442,-4.04974,19.8187,-0.384936,9.06953,8.24871,0.417002,3.68534,3.59878e-14,1.54058e-14,46.2499,-14.4407,-57.698,80.3452,-74.4853,-13.8436,-0.480652,7.12502,12.2799,-30.1001,3.59878e-14,1.54058e-14,39.7907,14.7211,48.7607,81.9803,103.882,-18.9429,33.0051,7.12502,7.36024,62.8571,-3.27881,8.69479,21.184,30.0987,-25.8003,-25.3583,2.69057,-14.7146,-0.12845,-11.0324,39.2551,-1.63641,2.15698,-18.7228
-1.2347,18.5851,0.819802,-2.51152,-11.9533,4.76903,3.40086,2.13893,-0.378686,1.53195,2.82373,-2.1278,-0.244027,1.4167,-2.06762,-11.3134,0.543586,-4.1648,19.4922,-0.325132,9.11058,7.88098,0.407633,3.69705,-3.45777e-14,-6.28657e-15,46.0844,-15.0221,-57.9922,82.5246,-73.7984,-11.538,0.339616,7.12502,14.5021,-29.1336,-3.45777e-14,-6.28657e-15,39.2917,15.0643,48.6297,84.493,102.575,-18.0194,32.6848,7.12502,8.25164,62.5036,-3.37191,8.55277,21.2004,30.1302,-25.8332,-25.4244,2.82304,-15.1361,0.00194104,-10.9712,39.6209,-1.44459,2.01945,-19.055
-1.24133,18.5825,0.820442,-2.46844,-11.8032,4.7975,3.634,2.13964,-0.46831,1.54925,2.81788,-2.10393,-0.362186,1.41281,-2.00242,-11.1243,0.539745,-4.16518,19.264,-0.2962,8.99873,7.76913,0.404287,3.65354,-7.53208e-16,-1.83876e-14,46.6155,-15.7666,-58.5452,84.4538,-73.4438,-9.28379,2.6205,7.12502,16.6732,-26.6834,-7.53208e-16,-1.83876e-14,39.4055,15.9401,48.7905,86.6422,101.028,-16.4703,31.8809,7.12502,9.74647,61.6354,-3.42502,8.44663,21.1845,30.163,-25.9078,-25.4989,2.85716,-15.4982,0.129997,-10.9566,39.925,-1.38466,1.88634,-18.7212
-1.24731,18.5793,0.819416,-2.37388,-11.6701,4.73768,3.82037,2.15362,-0.511731,1.51982,2.83152,-2.02339,-0.502216,1.41858,-1.90486,-10.7874,0.50552,-4.26958,19.0182,-0.297318,8.91139,7.62683,0.378365,3.63116,-8.69062e-15,5.66536e-15,47.1143,-16.4359,-59.0415,86.2613,-73.0633,-7.26215,4.25173,7.12502,18.6187,-24.8772,-8.69062e-15,5.66536e-15,39.4527,16.7411,49.0052,88.742,99.3146,-14.7182,30.4732,7.12502,11.4366,60.1412,-3.51443,8.43937,21.2845,30.1985,-26.0386,-25.5945,2.97033,-15.8747,0.228719,-10.8503,40.1349,-1.45346,1.769,-16.9981
-1.25009,18.5756,0.824621,-2.27389,-11.5034,4.7267,3.85759,2.16935,-0.545649,1.51563,2.85095,-1.96885,-0.531193,1.42792,-1.8325,-10.4497,0.475866,-4.39222,18.8866,-0.302308,8.84882,7.52243,0.353182,3.62317,3.48091e-14,-1.94809e-14,47.5394,-17.1786,-59.4862,87.9796,-72.6092,-5.15922,4.60408,7.12502,20.6404,-24.3185,3.48091e-14,-1.94809e-14,39.4733,17.5001,49.2462,90.9315,97.5561,-13.0837,29.0114,7.12502,13.0125,58.5855,-3.58982,8.36267,21.2987,30.2225,-26.0977,-25.6471,2.97295,-16.2104,0.313718,-10.8306,40.2549,-1.61181,1.72238,-13.7014
-1.25103,18.5736,0.83527,-2.20373,-11.3034,4.75743,3.82828,2.17616,-0.583741,1.56883,2.8603,-1.95858,-0.46241,1.43276,-1.7984,-10.2983,0.40171,-4.5141,18.9711,-0.388163,8.83278,7.52857,0.299933,3.63116,-4.26828e-14,1.94809e-14,47.9597,-17.9439,-59.9374,89.5428,-72.2933,-3.04508,5.21767,7.12502,22.6707,-23.4707,-4.26828e-14,1.94809e-14,39.6248,18.3536,49.6299,93.1131,95.8478,-11.3293,28.1875,7.12502,14.7033,57.6461,-3.61155,8.2783,21.2629,30.2232,-26.1568,-25.6933,3.13412,-16.4784,0.355838,-10.9007,40.3018,-1.88484,1.7159,-16.0786
-1.25314,18.573,0.843569,-2.15112,-11.1257,4.71407,3.92463,2.18174,-0.603333,1.58842,2.86581,-1.92327,-0.498715,1.43525,-1.75518,-10.0701,0.32793,-4.61541,18.871,-0.472773,8.83875,7.46064,0.247167,3.63771,-1.9835e-14,5.26779e-15,48.3579,-18.6194,-60.4139,90.9458,-72.096,-1.46894,5.76265,7.12502,24.1827,-22.7328,-1.9835e-14,5.26779e-15,39.7675,19.2134,50.055,95.2763,94.4975,-9.63792,27.3994,7.12502,16.3323,56.7317,-3.59193,8.25037,21.3345,30.1848,-26.1645,-25.8636,2.99654,-16.6668,0.402623,-10.8894,40.2699,-2.3536,1.67852,-15.7258
-1.25422,18.5749,0.854232,-2.05312,-10.9472,4.71078,3.94213,2.18649,-0.661627,1.565,2.86949,-1.89221,-0.536883,1.43664,-1.69234,-9.92299,0.321127,-4.53387,18.7309,-0.457781,8.6654,7.3876,0.240274,3.56235,4.46955e-14,-2.48481e-14,48.7492,-19.2689,-60.9433,92.1616,-72.1872,0.428688,6.03043,7.12502,26.0009,-22.2107,4.46955e-14,-2.48481e-14,39.8035,20.0197,50.466,97.4324,93.4839,-8.33399,26.6514,7.12502,17.5875,55.8759,-3.5988,8.12862,21.3275,30.1086,-26.163,-25.95,2.79626,-16.8389,0.402653,-10.9368,40.1402,-2.9668,1.69038,-14.4284
-1.25255,18.576,0.872938,-1.92761,-10.7448,4.7109,3.81476,2.17356,-0.653524,1.54741,2.8549,-1.88455,-0.48422,1.4295,-1.68331,-9.86124,0.332301,-4.60714,18.7555,-0.435417,8.68354,7.38256,0.246618,3.58283,-3.51973e-14,2.72335e-14,49.0796,-19.8669,-61.4677,93.2558,-72.4919,2.26549,6.5104,7.12502,27.7585,-21.4601,-3.51973e-14,2.72335e-14,39.8484,20.8025,50.8808,99.4842,92.6313,-7.01588,25.862,7.12502,18.8556,54.9681,-3.58013,8.02719,21.3072,29.9986,-26.2258,-26.043,2.69115,-17.0063,0.365606,-11.0061,39.9014,-3.50919,1.79721,-15.3855
-1.24905,18.5744,0.894328,-1.8792,-10.5975,4.67567,3.78561,2.16199,-0.586301,1.50519,2.84171,-1.89488,-0.507779,1.42309,-1.73073,-9.76048,0.315225,-4.77904,18.9498,-0.480481,8.87368,7.43025,0.22981,3.67528,-4.77083e-15,-3.39922e-14,49.2855,-20.3196,-61.9384,94.1744,-72.7555,3.43309,7.2504,7.12502,28.8743,-20.5349,-4.77083e-15,-3.39922e-14,39.8267,21.5037,51.2188,101.456,91.9289,-5.93827,25.0361,7.12502,19.8917,54.0381,-3.46354,7.97939,21.3324,29.8854,-26.2957,-26.1311,2.68035,-17.0286,0.35905,-11.0369,39.5274,-3.9575,2.05917,-16.0887
-1.24797,18.5744,0.908738,-1.85616,-10.4999,4.62801,3.78916,2.17979,-0.566369,1.47625,2.86569,-1.88589,-0.538316,1.435,-1.73452,-9.73534,0.321661,-4.82812,19.1355,-0.493519,8.96814,7.4869,0.230011,3.71854,-1.92262e-14,-8.84592e-15,49.4514,-20.644,-62.4445,94.965,-72.8355,4.76347,7.66602,7.12502,30.1443,-19.895,-1.92262e-14,-8.84592e-15,39.8967,22.1671,51.6779,103.314,91.523,-5.23798,24.4735,7.12502,20.5647,53.4042,-3.34147,8.04009,21.4115,29.7681,-26.3702,-26.2666,2.75786,-16.9785,0.387315,-11.0532,39.025,-4.33794,2.57657,-15.5057
-1.24516,18.5742,0.919075,-1.79174,-10.3966,4.61618,3.79162,2.18468,-0.58456,1.4039,2.87023,-1.88689,-0.614622,1.43688,-1.7276,-9.64047,0.364338,-4.72037,19.1776,-0.439228,8.87021,7.4795,0.253456,3.67227,-1.44802e-14,9.93923e-16,49.5225,-20.9657,-62.9032,95.5774,-73.0809,6.48304,7.9192,7.12502,31.7835,-19.3299,-1.44802e-14,9.93923e-16,39.9355,22.8442,52.1445,105.028,91.3702,-4.98404,24.0818,7.12502,20.8088,52.986,-3.29962,8.09652,21.4428,29.6506,-26.4661,-26.4076,3.03192,-16.9995,0.361588,-11.125,38.4361,-4.72771,3.19192,-15.0779
-1.23906,18.5734,0.936227,-1.73893,-10.2875,4.61392,3.77348,2.19324,-0.623695,1.31786,2.87915,-1.87385,-0.695128,1.44086,-1.69426,-9.5029,0.371442,-4.75543,19.2444,-0.442077,8.9252,7.47627,0.252435,3.69659,9.56651e-16,-4.17448e-15,49.4747,-21.4553,-63.0969,95.9888,-73.5012,7.95886,7.78224,7.12502,33.1879,-19.1781,9.56651e-16,-4.17448e-15,39.9276,23.4592,52.6187,106.525,91.1987,-4.62626,23.6753,7.12502,21.1525,52.5414,-3.22092,8.09695,21.4318,29.5268,-26.5547,-26.5024,3.2379,-16.9457,0.28051,-11.2252,37.7967,-5.27858,3.93304,-14.8421
-1.23163,18.5759,0.961273,-1.7908,-10.193,4.69633,3.72026,2.22916,-0.712833,1.32193,2.92443,-1.92573,-0.661856,1.46355,-1.69709,-9.60242,0.299722,-4.8117,19.4356,-0.584105,9.14287,7.56748,0.204386,3.7726,-3.43338e-14,-1.68967e-15,49.4519,-21.9429,-63.3234,96.1684,-73.7417,8.85208,7.87509,7.12502,34.0368,-18.9005,-3.43338e-14,-1.68967e-15,40.0941,24.0017,53.2058,107.814,91.0573,-4.34141,23.24,7.12502,21.4261,52.0752,-3.00275,8.03567,21.3134,29.3841,-26.5692,-26.5431,3.12356,-16.6918,0.169709,-11.4575,37.1471,-5.89101,4.8299,-15.6447
-1.22271,18.5787,0.986944,-1.8333,-10.1449,4.74188,3.63006,2.24918,-0.772702,1.35315,2.95128,-1.95135,-0.580489,1.47713,-1.68614,-9.75896,0.211645,-4.95359,19.6107,-0.728179,9.34367,7.66462,0.148884,3.85785,-2.03785e-14,5.76476e-15,49.4675,-22.2325,-63.6431,96.1674,-73.9041,9.37123,8.15329,7.12502,34.5297,-18.5113,-2.03785e-14,5.76476e-15,40.247,24.5576,53.8102,108.86,90.8481,-3.94963,22.6492,7.12502,21.8023,51.4411,-2.76925,8.02506,21.2342,29.2189,-26.6216,-26.5527,3.04167,-16.4086,0.121806,-11.6764,36.4971,-6.32457,5.6332,-15.6953
-1.21241,18.5786,1.00687,-1.7721,-10.1113,4.58097,3.51938,2.255,-0.646534,1.32299,2.96559,-1.89839,-0.545727,1.48458,-1.69864,-9.67943,0.14033,-5.18322,19.7034,-0.834396,9.53926,7.68901,0.0983906,3.95527,1.23806e-14,-1.04859e-14,49.3788,-22.4412,-63.8686,95.9046,-74.1379,10.3167,8.35029,7.12502,35.4266,-18.1051,1.23806e-14,-1.04859e-14,40.3115,25.0517,54.4332,109.632,90.583,-3.42004,21.9913,7.12502,22.3108,50.7233,-2.62585,7.95363,21.3664,29.0086,-26.5038,-26.6103,2.70568,-16.2651,0.155066,-11.6513,35.8489,-6.63901,6.18653,-14.6184
-1.20102,18.5777,1.0264,-1.65894,-9.99101,4.42429,3.31099,2.2346,-0.500469,1.26256,2.94636,-1.8681,-0.486032,1.47539,-1.74068,-9.57067,0.138783,-5.17881,19.744,-0.84797,9.5608,7.6835,0.0922424,3.96054,3.11968e-14,-1.50579e-14,49.1584,-22.6324,-63.9833,95.4003,-74.2733,11.362,8.44643,7.12502,36.417,-17.7665,3.11968e-14,-1.50579e-14,40.4009,25.4591,55.0472,110.092,90.3238,-3.42127,21.5764,7.12502,22.3096,50.3085,-2.52166,7.88374,21.4956,28.7701,-26.488,-26.7098,2.54302,-16.2162,0.0603903,-11.6243,35.1647,-6.83016,6.84848,-13.5396
-1.18993,18.5844,1.04905,-1.62927,-9.86561,4.35079,3.13981,2.24515,-0.397705,1.23775,2.96597,-1.90233,-0.408285,1.48585,-1.82676,-9.8051,0.146555,-4.98658,19.9174,-0.868813,9.52657,7.7853,0.100958,3.92138,4.60497e-14,-3.91109e-14,48.8565,-22.8619,-64.046,94.7197,-74.3073,12.0175,8.55363,7.12502,37.0373,-17.5012,4.60497e-14,-3.91109e-14,40.633,25.7918,55.5991,110.205,90.1472,-3.71838,21.3113,7.12502,22.0244,50.0772,-2.33353,7.87808,21.5575,28.558,-26.4837,-26.8509,2.3846,-16.0929,-0.159186,-11.6901,34.4098,-6.8842,7.71869,-12.4521
-1.17729,18.59,1.07338,-1.67578,-9.80648,4.28705,3.07035,2.26688,-0.356776,1.20537,2.99684,-1.89481,-0.400095,1.50137,-1.84062,-9.95636,0.0723292,-5.03211,20.1182,-0.990167,9.61038,7.88951,0.0534278,3.95363,-3.57347e-15,3.13086e-15,48.4992,-22.9327,-63.9795,93.8274,-74.2793,12.1641,9.08367,7.12502,37.1759,-16.9351,-3.57347e-15,3.13086e-15,40.6918,26.0261,56.0395,110.022,90.0367,-4.11451,20.7511,7.12502,21.644,49.5614,-2.07079,7.98154,21.6182,28.3911,-26.64,-26.9107,2.61291,-15.8031,-0.332166,-11.7769,33.5721,-6.95885,8.51414,-10.5438
-1.16198,18.5796,1.09824,-1.77641,-9.77639,4.1926,2.98038,2.30766,-0.294672,1.19866,3.05452,-1.87203,-0.353018,1.53055,-1.84979,-9.83602,-0.096846,-5.20138,20.1942,-1.22301,9.70174,7.91243,-0.0634881,3.99302,-1.88644e-14,-4.57205e-15,48.1009,-22.9751,-63.7734,92.7124,-74.31,11.8495,9.23676,7.12502,36.8784,-16.8591,-1.88644e-14,-4.57205e-15,40.6771,26.1452,56.4724,109.68,90.0646,-4.94872,20.5438,7.12502,20.8427,49.4442,-1.75901,8.16546,21.7307,28.2611,-26.8691,-27.0121,2.91391,-15.3311,-0.453842,-11.8391,32.6779,-7.21979,9.03694,-8.35692
-1.1465,18.5678,1.12317,-1.8993,-9.71086,4.08826,2.85375,2.33315,-0.169461,1.22839,3.0943,-1.89413,-0.242721,1.55158,-1.93674,-9.85435,-0.201988,-5.2293,20.2904,-1.38179,9.75489,7.96147,-0.13451,4.0039,3.44884e-14,1.27222e-14,47.7061,-23.0103,-63.6205,91.4411,-74.2912,11.2602,9.05343,7.12502,36.3206,-17.1837,3.44884e-14,1.27222e-14,40.7737,26.1949,56.8251,109.051,90.125,-5.81119,20.5986,7.12502,20.0139,49.5879,-1.45315,8.30629,21.8613,28.1711,-26.9941,-27.251,2.74064,-14.876,-0.605874,-11.8874,31.7866,-7.38812,9.51173,-7.48272
-1.12791,18.5625,1.14825,-1.97727,-9.552,4.01481,2.71296,2.30728,-0.0389821,1.21143,3.0648,-1.91896,-0.174142,1.53774,-2.02816,-10.001,-0.237621,-5.11753,20.4628,-1.4368,9.64671,8.04977,-0.156641,3.94872,1.90554e-14,-6.60959e-15,47.3412,-22.9004,-63.5007,90.055,-74.3071,10.4838,8.24619,7.12502,35.5851,-18.1712,1.90554e-14,-6.60959e-15,40.7247,26.1566,56.9748,108.113,90.3425,-6.7096,20.3181,7.12502,19.1501,49.3953,-1.22048,8.34863,21.9358,28.1336,-27.1741,-27.4476,2.65101,-14.5408,-0.877682,-11.9945,30.9263,-7.35583,9.9935,-6.91718
-1.10784,18.5569,1.17321,-1.99917,-9.41581,3.86358,2.59119,2.3043,0.146739,1.12028,3.06563,-1.89593,-0.190966,1.53837,-2.10516,-10.1727,-0.272497,-5.07003,20.7112,-1.48994,9.57067,8.16831,-0.17823,3.91796,1.35612e-14,-9.30716e-15,47.0169,-22.666,-63.3973,88.521,-74.2798,9.62429,7.18757,7.12502,34.7699,-19.4219,1.35612e-14,-9.30716e-15,40.5043,25.9641,56.9998,106.931,90.7675,-7.70215,20.2033,7.12502,18.1954,49.3723,-1.02567,8.30792,22.0575,28.0584,-27.3024,-27.4889,2.72148,-14.256,-1.16976,-12.0194,30.143,-7.33099,10.33,-5.64676
-1.08915,18.5499,1.19713,-2.01536,-9.2998,3.75625,2.43176,2.29235,0.205255,1.05522,3.05194,-1.84788,-0.168622,1.53142,-2.08274,-10.4452,-0.301375,-5.15435,20.9687,-1.52879,9.59664,8.30873,-0.191254,3.94735,-3.33028e-14,8.49183e-15,46.7244,-22.3604,-63.1455,86.8404,-74.5205,8.1765,6.76045,7.12502,33.3948,-20.1556,-3.33028e-14,8.49183e-15,40.2844,25.689,57.0264,105.673,91.1507,-9.02699,20.3763,7.12502,16.9205,49.6592,-0.856931,8.15681,22.101,27.972,-27.2955,-27.4391,2.64611,-14.0274,-1.42467,-12.0969,29.4228,-7.58045,10.5721,-6.90791
-1.06929,18.5496,1.22518,-2.10019,-9.18426,3.77513,2.24052,2.29869,0.160678,1.06112,3.06132,-1.86331,-0.0567934,1.5367,-2.06493,-10.8088,-0.329636,-5.11317,21.2108,-1.57711,9.5771,8.4619,-0.201306,3.93896,4.87818e-15,1.0225e-14,46.4281,-22.1329,-62.7509,84.9302,-74.9203,6.73502,6.61133,7.12502,32.0234,-20.5899,4.87818e-15,1.0225e-14,40.2176,25.2089,57.0808,104.2,91.3984,-10.3752,20.4846,7.12502,15.6223,49.8737,-0.618979,8.0038,21.9976,27.903,-27.3596,-27.3954,2.51081,-13.7497,-1.7318,-12.3365,28.7725,-8.14678,10.9291,-9.52333
-1.04758,18.5476,1.25291,-2.20574,-9.06605,3.86556,2.07719,2.31599,0.0320808,1.06028,3.0836,-1.86955,0.0280456,1.54777,-1.99249,-11.0889,-0.376376,-4.98582,21.3443,-1.61686,9.34683,8.56111,-0.224448,3.83981,-2.45888e-14,5.20567e-15,46.1558,-21.7852,-62.2766,82.823,-75.1555,5.11942,6.40013,7.12502,30.4839,-21.0984,-2.45888e-14,5.20567e-15,40.1088,24.7331,57.016,102.45,91.8249,-11.5281,20.612,7.12502,14.5117,50.0845,-0.399036,7.94369,21.8345,27.8785,-27.551,-27.399,2.71149,-13.4385,-2.10917,-12.6563,28.1861,-8.63682,11.4217,-9.95131
-1.02508,18.5382,1.28114,-2.33039,-9.00678,3.79569,1.90844,2.32081,0.063221,1.06019,3.09254,-1.80531,0.120701,1.55264,-1.93645,-11.4038,-0.418473,-4.97985,21.4936,-1.63647,9.16711,8.67141,-0.242339,3.78161,-1.60868e-14,-1.07064e-14,45.9571,-21.2404,-61.7683,80.5429,-75.4826,3.1533,5.86096,7.12502,28.607,-21.9697,-1.60868e-14,-1.07064e-14,39.9047,24.303,56.7201,100.526,92.3629,-12.9581,20.7372,7.12502,13.1336,50.3036,-0.127991,7.88882,21.8445,27.8524,-27.7415,-27.2981,2.99316,-13.1055,-2.32534,-12.7906,27.7312,-8.8895,12.0114,-9.06592
-0.999419,18.5282,1.31637,-2.52428,-8.99601,3.85655,1.65173,2.33786,0.0102992,1.1042,3.11796,-1.78922,0.306515,1.56605,-1.87777,-11.9089,-0.413383,-4.9073,21.7953,-1.60749,8.98806,8.8655,-0.226596,3.7231,-9.70512e-15,-7.88927e-15,45.8789,-20.6682,-61.3588,78.1883,-76.0029,0.920063,5.01626,7.12502,26.4713,-23.1549,-9.70512e-15,-7.88927e-15,39.7443,23.7679,56.3452,98.3805,92.7633,-14.32,20.8088,7.12502,11.8206,50.4552,0.213445,7.79103,21.6765,27.8456,-27.9231,-27.111,3.08244,-12.7022,-2.45891,-13.1233,27.4016,-9.06118,12.8769,-9.04535
-0.973418,18.5221,1.34972,-2.64293,-8.93264,3.79548,1.40642,2.33932,0.0567001,1.12121,3.12334,-1.75841,0.462117,1.56967,-1.86041,-12.405,-0.395719,-4.70501,22.103,-1.57146,8.73023,9.05959,-0.205823,3.61558,-4.50038e-14,1.82385e-14,45.8769,-20.1254,-61.014,75.7266,-76.6011,-1.17871,4.14431,7.12502,24.4609,-24.3139,-4.50038e-14,1.82385e-14,39.6234,23.1231,55.877,96.0328,93.1133,-15.3471,21.1137,7.12502,10.83,50.8144,0.471024,7.69452,21.6528,27.863,-28.0659,-27.0375,2.94277,-12.4148,-2.49205,-13.3288,27.1891,-8.94947,13.7591,-9.60772
-0.946699,18.5173,1.37815,-2.76224,-8.8583,3.69917,1.2608,2.32801,0.131435,1.06393,3.1095,-1.71914,0.486242,1.56294,-1.8567,-12.5911,-0.361019,-4.5929,22.3074,-1.52013,8.58201,9.16006,-0.18198,3.55776,-5.43246e-15,9.08819e-15,45.8766,-19.461,-60.7024,73.1952,-76.9931,-3.58487,3.09584,7.12502,22.1526,-25.655,-5.43246e-15,9.08819e-15,39.4699,22.3126,55.2957,93.5604,93.4125,-16.3128,21.3678,7.12502,9.89835,51.1151,0.695154,7.70087,21.6992,27.9024,-28.0745,-27.1495,2.53917,-12.1524,-2.62779,-13.4843,27.0835,-8.91286,14.7011,-9.90585
-0.916041,18.5103,1.40826,-2.94856,-8.75698,3.80249,1.17514,2.2965,0.0137778,0.94506,3.06555,-1.71377,0.404428,1.5393,-1.78464,-12.695,-0.284235,-4.65998,22.5994,-1.42269,8.62725,9.27373,-0.132267,3.60575,1.99612e-14,-4.9075e-15,45.8679,-18.6407,-60.3345,70.6637,-77.3289,-6.54382,1.5315,7.12502,19.3095,-27.5298,1.99612e-14,-4.9075e-15,39.2624,21.3911,54.6193,90.8864,93.7096,-17.1504,21.5262,7.12502,9.09022,51.3103,0.978858,7.64568,21.4937,27.9243,-28.1078,-27.1705,2.1343,-11.8775,-2.77488,-13.8867,27.114,-9.0328,15.5007,-9.94146
-0.883632,18.5007,1.44035,-3.13319,-8.68601,3.82359,1.04969,2.30899,-0.0239532,0.885062,3.08231,-1.69098,0.410443,1.54716,-1.7363,-12.9884,-0.248457,-4.69173,22.8776,-1.3899,8.69625,9.42445,-0.103474,3.65067,-1.47638e-14,-1.46852e-14,45.9538,-17.9317,-59.8781,68.0504,-78.0489,-9.21117,-0.0291689,7.12502,16.7432,-29.3272,-1.47638e-14,-1.46852e-14,39.3582,20.3806,54.0912,88.0368,93.9396,-17.9023,21.6897,7.12502,8.36461,51.504,1.28712,7.45894,21.3372,27.9175,-28.1917,-27.054,2.10025,-11.6178,-2.83613,-14.1926,27.2395,-9.13472,15.8938,-9.6922
-0.853972,18.4932,1.46838,-3.24868,-8.75537,3.48404,0.895923,2.3507,0.267695,0.84549,3.14045,-1.57162,0.466717,1.57755,-1.77105,-13.2906,-0.253655,-4.59692,23.1185,-1.40549,8.61387,9.56732,-0.103007,3.61392,-2.59901e-14,2.11209e-15,46.1799,-17.1984,-59.4856,65.343,-79.0957,-11.5937,-1.18316,7.12502,14.4485,-30.6602,-2.59901e-14,2.11209e-15,39.5376,19.3825,53.5949,85.1344,94.1636,-18.4631,22.074,7.12502,7.82337,51.9093,1.53993,7.44887,21.6318,27.9142,-28.0224,-27.0893,1.7665,-11.3985,-2.68556,-14.0408,27.3701,-9.2305,15.9678,-9.95331
-0.825461,18.491,1.4967,-3.30031,-8.87106,3.05449,0.719328,2.39953,0.583232,0.780688,3.20664,-1.38408,0.507946,1.61163,-1.74877,-13.557,-0.287701,-4.51448,23.3071,-1.42653,8.40977,9.68524,-0.120979,3.53332,-1.32704e-14,-4.84538e-15,46.4941,-16.4534,-59.174,62.7139,-80.1864,-13.9787,-2.44461,7.12502,12.1496,-32.0718,-1.32704e-14,-4.84538e-15,39.7595,18.383,53.1269,82.0523,94.4619,-18.8077,22.613,7.12502,7.49072,52.4603,1.70291,7.64115,22.0722,27.9439,-27.8367,-27.3083,1.4549,-11.2021,-2.68412,-13.7685,27.446,-9.56567,16.1804,-10.0359
-0.790579,18.4907,1.53141,-3.42277,-8.87347,3.10669,0.466971,2.43361,0.492059,0.76297,3.2521,-1.35556,0.625893,1.63423,-1.65727,-14.0529,-0.3107,-4.49327,23.6247,-1.45638,8.35914,9.89546,-0.126035,3.52286,3.42756e-14,-1.55301e-14,46.9408,-15.8482,-59.0462,60.154,-81.4361,-16.3298,-3.72333,7.12502,9.88198,-33.4714,3.42756e-14,-1.55301e-14,40.1644,17.3553,52.591,78.7986,94.9699,-19.0351,23.1881,7.12502,7.27127,53.0431,1.89094,7.50345,21.8527,27.9963,-27.8352,-27.1898,0.907295,-10.9178,-2.98219,-14.0835,27.4489,-9.95503,16.714,-9.95487
-0.750835,18.4894,1.56524,-3.58373,-8.79994,3.40613,0.242079,2.45739,0.231364,0.698274,3.28454,-1.45166,0.677583,1.64911,-1.60124,-14.3685,-0.313869,-4.50463,23.8322,-1.50218,8.51723,10.0354,-0.122134,3.58574,-3.51787e-14,1.2921e-15,47.3539,-15.2878,-59.0066,57.6209,-82.6235,-18.6319,-5.17442,7.12502,7.66041,-35.0157,-3.51787e-14,1.2921e-15,40.5232,16.1682,51.8206,75.5673,95.5622,-19.2343,23.8993,7.12502,7.07898,53.7609,2.07303,7.18947,21.297,28.0845,-27.932,-26.8807,0.593101,-10.6182,-3.34845,-14.6747,27.3693,-10.2117,17.2529,-9.75012
-0.712033,18.4871,1.59419,-3.70489,-8.78018,3.385,0.101629,2.48789,0.234518,0.636816,3.32514,-1.41796,0.69266,1.66907,-1.56327,-14.6188,-0.343125,-4.59358,23.8768,-1.55077,8.65131,10.1052,-0.131763,3.6475,-3.06788e-14,2.73329e-16,47.9153,-14.8107,-59.0689,55.1948,-83.4622,-20.6741,-7.63417,7.12502,5.68897,-37.5378,-3.06788e-14,2.73329e-16,40.9713,14.9465,51.0824,72.283,96.0942,-19.3461,24.5067,7.12502,6.97103,54.3719,2.20954,7.02247,21.1494,28.2095,-27.7921,-26.8076,0.165435,-10.3508,-3.72581,-14.8403,27.268,-10.502,17.5906,-9.09114
-0.677817,18.4859,1.62731,-3.89994,-8.89361,3.12691,-0.0279178,2.56949,0.442255,0.654308,3.43344,-1.30427,0.791527,1.72459,-1.55488,-14.9361,-0.405327,-4.62436,23.9578,-1.62954,8.66281,10.2028,-0.162354,3.65314,2.74571e-14,-9.79014e-15,48.5497,-14.517,-59.3343,52.9843,-83.7785,-22.8084,-11.0251,7.12502,3.62815,-40.974,2.74571e-14,-9.79014e-15,41.5876,13.7136,50.3135,68.897,96.5169,-19.2347,24.8218,7.12502,7.07864,54.6834,2.39472,7.18164,21.3694,28.4784,-27.6763,-26.9382,-0.589819,-9.8924,-3.95404,-14.7026,27.0934,-10.7145,17.7878,-8.80495
-0.648521,18.4826,1.66095,-4.23628,-9.16635,2.63505,0.0317484,2.71333,0.866122,0.554804,3.6222,-1.12741,0.67691,1.81977,-1.61428,-14.7544,-0.453939,-4.58453,24.044,-1.71819,8.65605,10.2054,-0.203041,3.63337,-2.08848e-14,-1.56294e-14,48.9569,-14.1597,-59.7436,50.783,-83.5765,-24.973,-13.9202,7.12502,1.53762,-43.8944,-2.08848e-14,-1.56294e-14,42.0309,12.186,49.293,65.4309,96.873,-18.9673,25.2526,7.12502,7.33674,55.1053,2.71325,7.68679,21.9821,28.8003,-27.4943,-27.3636,-1.50141,-9.21971,-3.96571,-14.2633,26.9477,-10.9314,17.8109,-8.62702
-0.601565,18.4794,1.68986,-4.42432,-9.03833,3.26268,-0.138113,2.75941,0.349824,0.292801,3.684,-1.32593,0.486326,1.8464,-1.52874,-14.2567,-0.491403,-4.56755,24.0083,-1.79628,8.68832,10.1021,-0.244006,3.62598,3.70035e-14,9.29318e-15,49.3009,-13.8204,-60.2681,48.5075,-82.8121,-26.662,-15.9044,7.12502,-0.093597,-45.8841,3.70035e-14,9.29318e-15,42.3849,10.4541,48.0959,62.0123,97.0887,-18.8683,25.932,7.12502,7.43223,55.7815,2.69217,7.50347,21.0517,29.2022,-27.3139,-27.199,-2.40559,-8.89506,-4.20027,-15.1463,26.7693,-11.1748,17.7252,-8.03436
-0.560577,18.4747,1.72132,-4.62021,-9.04201,3.72964,-0.299396,2.84269,-0.125576,0.465758,3.80125,-1.48504,0.737106,1.90471,-1.41142,-15.402,-0.611258,-4.4297,24.2964,-1.98532,8.67083,10.4448,-0.294007,3.59209,-1.05251e-14,3.17465e-14,50.3932,-13.906,-60.8913,46.3328,-81.6324,-28.242,-17.4378,7.12502,-1.61966,-47.4114,-1.05251e-14,3.17465e-14,43.4681,9.17347,46.8803,58.5797,96.883,-18.8096,26.497,7.12502,7.48898,56.3445,2.71593,7.58659,20.3762,29.6433,-27.2308,-27.0704,-3.17037,-8.54019,-4.32437,-15.8088,26.6161,-11.4297,17.6108,-7.55879
-0.521768,18.4761,1.75722,-4.84424,-9.09098,3.87946,-0.423021,2.89415,-0.259637,0.333046,3.87012,-1.50362,0.664463,1.93791,-1.3527,-15.2689,-0.612756,-4.49283,24.3158,-2.00061,8.76597,10.4283,-0.298106,3.63503,3.90556e-14,-1.5499e-15,50.9813,-13.6201,-61.5819,44.3118,-79.9555,-29.6734,-19.0991,7.12502,-3.00206,-49.0577,3.90556e-14,-1.5499e-15,43.9415,7.49734,45.3569,55.1775,96.23,-18.9663,27.4206,7.12502,7.33772,57.2734,2.80985,7.68928,20.0797,30.1269,-27.2642,-26.9222,-3.81056,-8.07515,-4.33439,-16.1072,26.4129,-11.448,17.4485,-8.00096
-0.485406,18.4786,1.79325,-5.05195,-9.20811,3.6615,-0.5282,2.91848,-0.106973,0.534723,3.9046,-1.37612,0.931942,1.95661,-1.2941,-16.2911,-0.657233,-4.56378,24.564,-2.04113,8.79893,10.7246,-0.29591,3.67283,5.21111e-15,-1.89218e-14,52.3522,-13.6299,-62.766,42.2914,-77.703,-30.9245,-20.6788,7.12502,-4.21026,-50.6169,5.21111e-15,-1.89218e-14,44.8814,6.31193,43.7888,51.7676,95.305,-19.1723,28.5659,7.12502,7.13883,58.4255,2.95614,7.82611,20.2309,30.5306,-27.498,-26.7534,-3.59701,-7.57595,-4.20513,-15.9674,26.2533,-11.4453,17.1837,-8.52563
-0.448064,18.4863,1.83082,-5.30037,-9.38027,3.39987,-0.514795,3.01111,0.187374,0.223209,4.02107,-1.26625,0.620327,2.01426,-1.35515,-15.386,-0.605516,-4.54997,24.4475,-1.99021,8.80327,10.4992,-0.290244,3.66557,3.01718e-14,-1.61016e-14,52.6537,-13.3232,-63.5749,40.3116,-75.3473,-31.7822,-22.0504,7.12502,-5.03847,-51.9704,3.01718e-14,-1.61016e-14,45.1987,4.26372,41.9859,48.5083,94.4563,-18.7839,30.0839,7.12502,7.51375,59.9305,3.14679,8.02706,20.4182,30.8677,-27.9728,-26.3908,-2.31308,-7.06746,-4.13505,-15.7885,26.1591,-11.567,16.9874,-8.31266
-0.403277,18.4975,1.86812,-5.50663,-9.36693,3.41369,-0.586192,2.98457,0.209311,0.265347,3.9859,-1.2037,0.699557,1.99697,-1.29839,-15.9289,-0.552452,-4.58849,24.7485,-1.90981,8.80902,10.7102,-0.24219,3.70132,1.31384e-14,1.80894e-14,53.8092,-13.1685,-64.6168,38.4201,-72.8241,-32.4945,-23.779,7.12502,-5.72621,-53.6816,1.31384e-14,1.80894e-14,45.9683,2.96029,40.2707,45.3204,93.5295,-18.7073,30.4694,7.12502,7.58768,60.3133,3.24523,7.89465,20.17,31.1995,-28.0239,-25.9905,-1.69965,-6.70727,-4.3207,-15.9623,26.115,-11.8502,16.8317,-7.81987
-0.355531,18.4956,1.90497,-5.65564,-9.27155,3.57092,-0.805607,2.93262,0.106338,0.374784,3.91994,-1.20616,0.92607,1.96437,-1.2285,-16.6035,-0.489759,-4.62333,25.0492,-1.82625,8.86683,10.949,-0.183866,3.75885,-1.8049e-14,2.90723e-14,55.0708,-12.9971,-65.6345,36.7625,-70.3542,-33.622,-25.3539,7.12502,-6.81467,-55.2243,-1.8049e-14,2.90723e-14,46.7517,1.79415,38.41,42.4648,92.703,-18.5333,31.7732,7.12502,7.75558,61.611,3.2909,7.59779,19.7347,31.5713,-27.1213,-25.9374,-2.89341,-6.44779,-4.38515,-16.3134,26.0915,-12.0666,16.6284,-7.45854
-0.308897,18.4939,1.93871,-5.8118,-9.10437,3.66919,-0.9733,2.83613,0.0187159,0.326594,3.79216,-1.14707,0.957922,1.89953,-1.1143,-16.5993,-0.367786,-4.68955,25.1666,-1.64745,8.89357,10.977,-0.104373,3.80949,1.00635e-15,-4.77083e-15,56.0425,-12.6131,-66.5498,35.2458,-68.1857,-34.8924,-26.1677,7.12502,-8.04096,-55.9947,1.00635e-15,-4.77083e-15,47.1808,0.565878,36.6713,40.0077,91.7163,-18.2704,33.513,7.12502,8.00933,63.3412,3.34552,7.40211,19.4102,31.9978,-26.4425,-25.9384,-4.09461,-6.21441,-4.39953,-16.6097,26.1297,-12.2027,16.3782,-7.19098
-0.261395,18.4978,1.96873,-5.91882,-8.94035,3.66687,-1.01197,2.76851,0.0237153,0.41621,3.70275,-1.10492,1.06706,1.85514,-1.07089,-17.3173,-0.310609,-4.47432,25.3968,-1.57091,8.70723,11.1976,-0.055473,3.73172,4.11422e-14,-1.16289e-14,57.3701,-12.5834,-67.6335,33.7979,-66.1531,-35.7701,-27.6017,7.12502,-8.88792,-57.3945,4.11422e-14,-1.16289e-14,47.9086,-0.203053,35.2175,37.8836,90.4474,-17.7964,35.1569,7.12502,8.46683,64.9671,3.26835,7.1938,19.1775,32.5036,-26.4614,-25.7048,-4.43761,-6.11744,-4.39451,-16.7852,26.275,-12.2813,16.1323,-7.22357
-0.211772,18.4975,1.9982,-6.04327,-8.88424,3.58934,-0.936076,2.64431,0.111903,0.322257,3.533,-0.943714,0.920084,1.76973,-0.965726,-17.315,-0.149666,-4.46392,25.4872,-1.29572,8.51892,11.2066,0.0478228,3.70219,1.96424e-14,1.19271e-15,58.4432,-12.0911,-68.4241,32.549,-64.6529,-36.5682,-29.6185,7.12502,-9.65805,-59.3771,1.96424e-14,1.19271e-15,48.0339,-0.744922,34.2485,36.3524,89.5068,-18.2552,37.1529,7.12502,8.02405,66.9806,3.14256,7.04785,19.0241,33.107,-26.1346,-25.5296,-5.46088,-5.99292,-4.28186,-16.8834,26.4275,-12.2451,15.9505,-7.63649
-0.16179,18.4982,2.02657,-6.12248,-8.83231,3.63505,-0.934303,2.57325,0.111523,0.27358,3.43709,-0.863053,0.862482,1.72126,-0.886571,-17.2675,-0.0193598,-4.51869,25.3681,-1.09112,8.53591,11.1355,0.136202,3.74185,3.24267e-15,2.24627e-14,59.5026,-11.7659,-69.1698,31.5087,-63.5314,-37.5181,-30.8928,7.12502,-10.5745,-60.6068,3.24267e-15,2.24627e-14,48.2826,-0.726381,34.2895,35.2678,88.3592,-19.1592,38.7676,7.12502,7.15144,68.6268,2.90576,6.93275,18.7213,33.8092,-25.3774,-25.4556,-7.47119,-5.89906,-4.2159,-17.1161,26.5398,-12.3555,15.7811,-7.59046
-0.108757,18.5007,2.05422,-6.23002,-8.79686,3.72276,-0.918901,2.50376,0.0634944,0.437323,3.34541,-0.767596,1.01151,1.67544,-0.760081,-17.7724,0.0803448,-4.52762,25.2891,-0.903113,8.45683,11.1905,0.219694,3.74548,3.67503e-14,-1.70955e-14,60.7688,-11.4955,-69.7213,30.8743,-62.9983,-38.6521,-31.7598,7.12502,-11.6682,-61.4149,3.67503e-14,-1.70955e-14,48.6731,0.159674,35.2719,34.5343,87.1079,-19.7598,39.3067,7.12502,6.57171,69.1847,2.63462,6.85045,18.3658,34.5869,-25.0381,-25.2496,-8.5581,-5.74907,-4.06433,-17.403,26.6176,-12.4761,15.5611,-7.79822
-0.053984,18.4983,2.08396,-6.34617,-8.75977,3.73807,-0.830716,2.44079,0.126824,0.395649,3.2591,-0.663035,0.915617,1.63213,-0.69562,-17.4728,0.207002,-4.46988,25.0518,-0.702379,8.34185,11.0252,0.29611,3.70724,-2.07978e-14,-5.76476e-15,61.5384,-11.0867,-69.9862,30.5088,-62.9807,-39.6521,-32.0485,7.12502,-12.6324,-61.6465,-2.07978e-14,-5.76476e-15,48.75,1.02767,36.6271,34.2515,86.3068,-20.1173,39.3488,7.12502,6.22662,69.2373,2.34734,6.69469,18.0547,35.4337,-25.1118,-24.8451,-8.84742,-5.59038,-3.95986,-17.62,26.6805,-12.6194,15.3896,-7.83289
0.000599312,18.4935,2.10886,-6.39992,-8.70401,3.7759,-0.729261,2.369,0.144177,0.491981,3.16284,-0.585196,0.952641,1.58414,-0.629504,-17.8871,0.321132,-4.36515,25.0504,-0.528624,8.23391,11.0927,0.379082,3.68051,-1.70458e-14,2.78299e-15,62.6267,-10.8325,-70.3364,30.4214,-63.0549,-40.3946,-32.2764,7.12502,-13.3481,-61.8289,-1.70458e-14,2.78299e-15,49.0638,2.42517,38.3296,34.2737,85.8153,-19.6164,39.1065,7.12502,6.71015,68.9802,1.91166,6.51737,17.7117,36.353,-24.9653,-24.54,-9.24631,-5.50395,-4.05421,-17.8669,26.7107,-12.8243,15.3081,-7.32788
0.0525788,18.489,2.12744,-6.36216,-8.74604,3.58182,-0.573766,2.30314,0.329443,0.521493,3.07138,-0.380812,0.893109,1.53887,-0.531728,-18.07,0.438744,-4.40488,24.9897,-0.334517,8.21581,11.0905,0.464193,3.70906,-4.05769e-14,-1.51076e-14,63.6462,-10.4797,-70.3468,30.5599,-63.3761,-40.8116,-33.2849,7.12502,-13.7501,-62.8106,-4.05769e-14,-1.51076e-14,49.1739,3.82295,40.04,34.7528,85.7987,-18.5746,38.1104,7.12502,7.71578,67.9496,1.32609,6.48525,17.6829,37.3463,-24.5812,-24.3982,-10.1193,-5.49528,-3.99078,-17.7984,26.7242,-13.0475,15.0627,-6.36326
0.103165,18.4852,2.15015,-6.41488,-8.83035,3.43367,-0.376787,2.29506,0.482078,0.54324,3.05879,-0.244583,0.805448,1.53296,-0.486077,-17.9669,0.515678,-4.25021,24.8478,-0.257114,8.17637,11.0116,0.507233,3.67147,-1.3418e-15,1.98785e-14,64.4252,-10.243,-70.1426,30.9105,-63.8391,-40.6326,-33.7445,7.12502,-13.5775,-63.2818,-1.3418e-15,1.98785e-14,49.2931,5.08821,41.6848,35.7252,86.3402,-18.0074,36.9531,7.12502,8.2632,66.7715,0.818035,6.54281,17.6099,38.4249,-24.3535,-23.9968,-10.2949,-5.38077,-3.89716,-17.7719,26.762,-13.326,14.7898,-5.34872
0.155762,18.4821,2.17692,-6.53746,-8.84001,3.53182,-0.203781,2.25867,0.426123,0.640497,3.01099,-0.196171,0.802025,1.50881,-0.411122,-17.9814,0.580587,-4.07974,24.7772,-0.199906,8.12785,10.9844,0.543472,3.62983,-4.31363e-14,-2.78299e-15,65.1085,-9.99432,-69.673,31.6908,-64.538,-40.504,-33.3256,7.12502,-13.4536,-62.8711,-4.31363e-14,-2.78299e-15,49.3976,6.42209,43.1661,37.1547,87.4928,-18.2393,36.0471,7.12502,8.03941,65.8742,0.330523,6.45097,17.1831,39.6025,-24.1003,-23.4745,-10.6429,-5.20887,-3.90552,-18.0683,26.8276,-13.6799,14.5913,-4.46135
0.206011,18.4774,2.19561,-6.5759,-8.81615,3.57061,0.0422816,2.27788,0.42562,0.474694,3.03753,-0.206802,0.495372,1.52113,-0.436841,-17.2305,0.632756,-3.85895,24.6573,-0.232734,8.23009,10.7957,0.549371,3.60692,2.82274e-14,1.31198e-14,65.1677,-9.81858,-68.861,32.8223,-65.367,-40.5449,-32.3607,7.12502,-13.493,-61.9036,2.82274e-14,1.31198e-14,49.2578,7.20521,44.2691,38.9665,88.9833,-18.3372,35.3856,7.12502,7.94489,65.2163,-0.340295,6.3065,16.8214,40.8842,-23.8896,-23.0243,-11.3377,-5.15585,-3.80651,-18.2666,26.8723,-13.8952,14.3726,-4.33191
0.251749,18.4778,2.21273,-6.59812,-8.78941,3.4499,0.351257,2.26656,0.472575,0.563565,3.02323,-0.108053,0.410285,1.51397,-0.373606,-17.4647,0.627651,-3.89812,24.8124,-0.303878,8.48895,10.9048,0.549983,3.70938,-1.49089e-16,-1.11319e-14,65.6603,-9.76031,-67.9699,34.2563,-65.9678,-40.0969,-31.4347,7.12502,-13.0611,-61.0057,-1.49089e-16,-1.11319e-14,49.3366,8.42319,45.3619,41.0246,90.6867,-18.0507,35.1444,7.12502,8.22139,64.9644,-1.11031,6.17452,16.687,42.2703,-23.2766,-22.8145,-12.5053,-5.1355,-3.71366,-18.2598,26.9367,-14.0473,14.1182,-3.94114
0.296639,18.4777,2.23418,-6.6219,-8.74139,3.46142,0.554421,2.25915,0.368471,0.682999,3.01363,-0.0333257,0.409287,1.50877,-0.245205,-17.6555,0.583084,-3.96789,24.9534,-0.423451,8.74865,11.0048,0.525132,3.81001,-1.58531e-14,9.54166e-15,66.0457,-9.7557,-66.8809,36.0427,-66.4265,-39.4731,-30.4658,7.12502,-12.4598,-60.0744,-1.58531e-14,9.54166e-15,49.3391,9.59959,46.3414,43.368,92.5372,-17.7075,34.839,7.12502,8.55263,64.6458,-1.93604,6.01838,16.3891,43.7348,-22.2939,-22.6564,-12.7981,-5.144,-3.59231,-18.4131,27.0418,-14.0683,13.9298,-4.07593
0.340594,18.4651,2.25224,-6.6606,-8.70937,3.68413,0.727461,2.29328,0.113166,0.400926,3.05861,-0.075939,0.013087,1.52973,-0.162096,-16.2033,0.554776,-3.86406,24.7469,-0.563517,8.93019,10.6534,0.464989,3.80526,9.49197e-15,-1.31198e-14,65.4894,-9.59918,-65.5959,38.2085,-66.7925,-38.9625,-29.5926,7.12502,-11.9675,-59.2305,9.49197e-15,-1.31198e-14,48.7782,10.1817,47.1274,45.9145,94.4541,-17.3729,34.3903,7.12502,8.87555,64.1837,-2.799,5.9071,15.8372,45.2592,-21.5203,-22.2999,-12.3697,-5.20129,-3.38752,-18.7826,27.161,-14.0785,13.675,-4.57391
0.381214,18.4502,2.2676,-6.77807,-8.68135,3.95181,0.995839,2.25456,-0.315807,0.711391,3.00401,-0.0397323,0.156411,1.50127,0.110493,-16.729,0.473026,-3.89617,24.8147,-0.684215,8.99725,10.7921,0.424862,3.83114,5.76476e-15,1.27222e-14,65.9587,-9.70528,-64.25,40.6067,-67.4286,-38.1406,-28.2388,7.12502,-11.1749,-57.9212,5.76476e-15,1.27222e-14,49.011,11.8127,48.2719,48.5461,96.026,-17.018,34.3112,7.12502,9.21794,64.0897,-3.63877,5.79412,15.2429,46.8316,-20.7096,-21.8837,-12.8334,-5.18679,-3.23632,-19.1934,27.293,-14.1832,13.3961,-4.95858
0.420372,18.4446,2.28431,-6.83048,-8.67051,4.13563,1.23461,2.2757,-0.640241,0.792047,3.02816,-0.0133373,0.0870731,1.51221,0.309368,-16.3095,0.399908,-3.85096,24.6056,-0.807844,9.03654,10.6426,0.367043,3.80567,-2.79292e-14,5.56597e-15,65.768,-9.89241,-62.4209,43.2381,-68.4687,-37.0608,-26.3406,7.12502,-10.1333,-56.0766,-2.79292e-14,5.56597e-15,49.0129,12.9772,49.231,51.3142,97.3838,-16.7081,34.3832,7.12502,9.51699,64.1483,-4.59603,5.71944,14.7533,48.4305,-19.7442,-21.5902,-13.5072,-5.19079,-3.17442,-19.5053,27.4212,-14.4321,13.132,-4.2873
0.45714,18.4409,2.30038,-6.84839,-8.64447,4.33407,1.47925,2.31752,-0.946928,0.790178,3.07793,-0.0771415,-0.0647704,1.53682,0.403245,-15.6698,0.297738,-3.69938,24.4238,-1.0284,9.15413,10.469,0.279237,3.77593,-4.80065e-14,1.35174e-14,65.3639,-10.1965,-60.7984,46.0982,-69.073,-36.2756,-24.3799,7.12502,-9.37569,-54.1513,-4.80065e-14,1.35174e-14,48.8921,13.899,49.6567,54.1068,99.0154,-16.422,33.9852,7.12502,9.79299,63.7375,-5.62978,5.66824,14.2658,50.046,-18.7373,-21.391,-12.8603,-5.21197,-3.06124,-19.8252,27.5149,-14.6608,12.8359,-3.12568
0.489401,18.4397,2.31624,-6.90657,-8.54331,4.59564,1.79901,2.33653,-1.34899,0.840149,3.09294,-0.156137,-0.209463,1.54396,0.533022,-15.2573,0.19612,-3.72653,24.2538,-1.25488,9.50427,10.347,0.202826,3.86608,4.96962e-16,1.19271e-15,65.0261,-10.5797,-59.3991,49.1969,-68.9512,-35.4981,-22.4509,7.12502,-8.62543,-52.2547,4.96962e-16,1.19271e-15,48.8779,14.9209,50.0549,56.8878,100.476,-15.9938,33.1311,7.12502,10.2062,62.8635,-6.6224,5.63764,13.7314,51.6547,-17.6744,-21.1844,-11.7352,-5.20304,-2.99739,-20.2173,27.5758,-14.7655,12.6284,-2.24599
0.522028,18.4353,2.3316,-6.9082,-8.43004,4.73446,2.06676,2.33005,-1.58798,0.901546,3.07541,-0.213817,-0.305298,1.53503,0.597163,-14.8171,0.109872,-3.75901,23.9863,-1.44391,9.83465,10.1824,0.137378,3.95097,2.06736e-14,-9.54166e-15,64.6562,-11.0416,-58.0172,52.4456,-68.4992,-34.3472,-20.5991,7.12502,-7.5147,-50.4457,2.06736e-14,-9.54166e-15,48.9746,16.0621,50.7288,59.8378,101.262,-15.5262,32.4384,7.12502,10.6572,62.1481,-7.64607,5.55462,13.3014,53.2258,-16.6295,-20.8235,-10.9804,-5.25347,-3.08146,-20.4958,27.6053,-14.8039,12.7029,-2.40802
0.555617,18.4288,2.3464,-6.9027,-8.36012,4.86962,2.35962,2.33466,-1.81434,0.951972,3.07077,-0.262196,-0.426422,1.53288,0.662076,-14.3875,-0.00528139,-3.72977,23.7743,-1.64646,9.98955,10.0409,0.0507701,3.96252,-4.14963e-15,2.18663e-14,64.3293,-11.6087,-56.8895,55.664,-67.8268,-33.184,-19.1324,7.12502,-6.39185,-49.0159,-4.14963e-15,2.18663e-14,49.1494,17.2455,51.5033,62.7197,101.788,-14.8965,31.9078,7.12502,11.2646,61.5854,-8.72156,5.46866,12.8604,54.7357,-15.4431,-20.4254,-10.8721,-5.27418,-3.15982,-20.7758,27.6021,-14.8935,12.7811,-2.53371
0.585319,18.429,2.36261,-6.94209,-8.27079,5.01108,2.69875,2.36158,-2.04159,1.09105,3.09401,-0.350607,-0.481066,1.54368,0.686022,-14.2112,-0.163952,-3.66447,23.5252,-1.92367,10.1911,9.94316,-0.0574332,3.978,2.6339e-15,-1.47101e-14,64.1447,-12.4629,-56.0883,58.8115,-67.2694,-32.1532,-17.3716,7.12502,-5.39665,-47.2828,2.6339e-15,-1.47101e-14,49.6075,18.4383,52.3376,65.5524,102.239,-14.219,31.4484,7.12502,11.9179,61.0892,-9.7038,5.45938,12.4553,56.1215,-14.0169,-20.2464,-11.1713,-5.22531,-3.0557,-21.0458,27.5892,-14.85,12.7254,-2.8317
0.610636,18.4298,2.37857,-6.93926,-8.15733,5.09408,3.00837,2.39575,-2.21825,1.29444,3.12863,-0.434135,-0.451149,1.55896,0.689293,-14.3291,-0.33279,-3.66174,23.3446,-2.22464,10.4904,9.9316,-0.163446,4.04296,2.25372e-14,2.38542e-14,64.1522,-13.5338,-55.5154,61.8993,-66.516,-30.7128,-15.5976,7.12502,-4.00581,-45.5396,2.25372e-14,2.38542e-14,50.1219,19.6326,52.8413,68.2964,103.006,-13.6663,30.5684,7.12502,12.4508,60.1775,-10.6452,5.46713,12.1483,57.378,-12.5264,-20.2875,-11.4021,-5.21356,-2.91861,-21.2224,27.5506,-14.7456,12.5737,-3.20027
0.637834,18.431,2.39549,-6.89917,-7.94611,5.12642,3.30993,2.37501,-2.36444,1.39696,3.08901,-0.457217,-0.51961,1.53857,0.737709,-13.7518,-0.620464,-3.92111,23.1182,-2.61328,10.7148,9.77782,-0.361577,4.1065,-1.53561e-14,1.82882e-14,64.0644,-14.4345,-54.924,65.0412,-65.1417,-28.6643,-13.909,7.12502,-2.02752,-43.8792,-1.53561e-14,1.82882e-14,50.4618,20.843,53.3238,70.9551,103.659,-13.1585,30.0079,7.12502,12.9404,59.5866,-11.5169,5.3337,11.8675,58.4943,-11.1093,-20.2116,-10.9933,-5.22948,-2.92888,-21.3721,27.4878,-14.6223,12.5109,-3.41209
0.663331,18.4339,2.41431,-6.86251,-7.73687,5.21786,3.61348,2.32926,-2.57752,1.42819,3.01161,-0.469097,-0.664805,1.50044,0.834781,-13.6318,-0.510498,-3.66807,22.6768,-2.47163,10.6762,9.58459,-0.289635,4.04896,-2.60781e-14,2.38542e-15,63.8822,-15.1717,-54.2392,68.1749,-63.1345,-27.203,-11.6825,7.12502,-0.616139,-41.6614,-2.60781e-14,2.38542e-15,50.7783,22.102,54.3241,73.8815,103.436,-12.1735,29.4296,7.12502,13.8898,58.9458,-12.3462,5.24631,11.5259,59.4885,-9.84341,-19.9033,-9.30763,-5.23112,-3.08612,-21.6047,27.419,-14.5572,12.5674,-3.174
0.683658,18.4376,2.43335,-6.85896,-7.53703,5.24077,3.97725,2.31236,-2.73284,1.4609,2.97134,-0.471859,-0.840491,1.48148,0.90531,-13.1368,-0.716996,-3.867,22.3235,-2.73839,10.8706,9.39334,-0.430978,4.10425,-3.21783e-15,-5.1684e-15,63.6892,-15.972,-53.5903,71.2067,-60.2855,-26.5348,-9.09428,7.12502,0.0292585,-39.074,-3.21783e-15,-5.1684e-15,51.0765,23.2486,55.3168,76.828,102.947,-10.6469,28.2281,7.12502,15.3606,57.6375,-13.0829,5.21514,11.2958,60.3762,-8.60451,-19.5055,-5.9276,-5.17806,-3.18477,-21.7392,27.342,-14.4787,12.6164,-2.76117
0.702806,18.4401,2.45098,-6.85981,-7.25867,5.25817,4.37953,2.30218,-2.89181,1.46438,2.93669,-0.466037,-1.06823,1.46638,0.984371,-12.7341,-0.882983,-3.88279,22.1066,-2.94563,10.834,9.25861,-0.548619,4.05935,1.99157e-14,1.98785e-14,63.3792,-16.8127,-52.8545,74.0896,-56.7312,-26.3468,-6.24068,7.12502,0.210768,-36.2203,1.99157e-14,1.98785e-14,51.2739,24.3124,56.0765,79.7016,102.822,-9.30534,27.2291,7.12502,16.6525,56.5348,-13.7538,5.04004,11.07,61.1449,-7.20268,-19.2297,-3.30029,-5.12518,-3.24887,-21.862,27.2515,-14.3076,12.6822,-2.87051
0.722212,18.4435,2.47148,-6.79247,-6.97495,5.29862,4.68743,2.31457,-3.02641,1.46114,2.93492,-0.4896,-1.24862,1.46753,1.022,-12.2882,-1.04545,-3.81823,21.895,-3.145,10.7075,9.11496,-0.666444,3.97095,-2.41151e-14,7.95139e-16,62.9594,-17.6957,-52.1991,76.9641,-52.4565,-26.3656,-3.12973,7.12502,0.192646,-33.1094,-2.41151e-14,7.95139e-16,51.6271,25.2941,57.0387,82.5844,102.774,-8.40146,26.8047,7.12502,17.5225,56.035,-14.422,4.79187,10.7825,61.7879,-6.03264,-19.0321,-1.68953,-5.13731,-3.33075,-22.0142,27.1763,-14.2219,12.6852,-2.98898
0.739049,18.4489,2.49772,-6.71216,-6.66634,5.30088,4.90556,2.29706,-3.13624,1.51095,2.89859,-0.494888,-1.32261,1.44974,1.07207,-12.0735,-1.17769,-3.83785,21.7178,-3.30856,10.6888,9.02709,-0.756372,3.94271,-3.23522e-14,3.97569e-16,62.779,-18.5351,-52.0023,80.0208,-47.3055,-26.2481,-0.666807,7.12502,0.306164,-30.6463,-3.23522e-14,3.97569e-16,52.0595,26.2961,58.1669,85.4528,102.529,-7.56395,26.3075,7.12502,18.3284,55.464,-14.9828,4.57338,10.5464,62.3017,-5.22682,-18.8555,-0.476057,-5.15244,-3.32703,-22.1061,27.1222,-14.1547,12.5452,-3.58246
0.754922,18.4564,2.52655,-6.63261,-6.34031,5.15403,5.1051,2.24839,-3.0432,1.54677,2.83168,-0.464614,-1.3913,1.41667,1.04827,-11.8833,-1.23731,-3.95285,21.5876,-3.3817,10.7936,8.95576,-0.797456,3.9865,-2.09407e-14,-1.82882e-14,62.7662,-19.2901,-52.0521,83.0159,-41.6238,-26.5444,1.58196,7.12502,0.0199334,-28.3978,-2.09407e-14,-1.82882e-14,52.4117,27.3295,59.283,88.2623,102.286,-6.53053,25.7986,7.12502,19.3223,54.8586,-15.4264,4.30693,10.4779,62.6886,-4.80914,-18.5523,-0.30339,-5.13,-3.38238,-22.0357,27.0581,-14.1719,12.3871,-3.7699
0.768089,18.462,2.54857,-6.50895,-5.98889,5.03653,5.32337,2.21661,-2.97456,1.54003,2.7845,-0.456065,-1.51518,1.39448,1.01291,-11.7769,-1.26808,-3.98155,21.5815,-3.43486,10.8638,8.93976,-0.820364,4.00958,2.07109e-14,-1.19271e-15,62.6907,-20.0721,-51.9916,85.7634,-36.0703,-27.7104,4.46033,7.12502,-1.10621,-25.5166,2.07109e-14,-1.19271e-15,52.8048,28.3352,60.3784,90.9075,102.121,-5.47179,25.6039,7.12502,20.3401,54.5588,-15.9032,4.01388,10.3724,62.9483,-4.74221,-18.1051,-2.23938,-5.18338,-3.572,-22.001,26.9856,-14.1191,12.3875,-4.03034
0.780762,18.4662,2.57348,-6.43094,-5.61172,5.10865,5.49421,2.17878,-3.1001,1.54331,2.72016,-0.484469,-1.60874,1.36359,1.05157,-11.4239,-1.29324,-3.7769,21.3403,-3.4402,10.6278,8.78418,-0.84518,3.88281,6.17071e-14,4.37326e-15,62.5745,-20.7872,-51.8724,88.4165,-31.0596,-29.3187,6.88208,7.12502,-2.65953,-23.0811,6.17071e-14,4.37326e-15,53.1825,29.3235,61.5581,93.4374,101.582,-4.27422,25.3221,7.12502,21.4906,54.1499,-16.2827,3.71732,10.0263,63.0589,-5.09346,-17.5769,-0.286179,-5.20683,-3.79258,-22.1864,26.9506,-14.1515,12.3876,-4.06885
0.791242,18.4749,2.6063,-6.38829,-5.23733,5.09723,5.61368,2.13641,-3.13016,1.55831,2.65781,-0.475735,-1.65901,1.33298,1.07756,-10.7737,-1.35902,-3.61663,20.8053,-3.44063,10.2625,8.47189,-0.898806,3.71269,-1.67631e-14,1.66979e-14,62.4299,-21.446,-51.7446,90.9797,-27.1653,-30.8257,7.99467,7.12502,-4.11484,-21.9453,-1.67631e-14,1.66979e-14,53.5569,30.1909,62.8265,95.7543,100.413,-2.6551,24.2236,7.12502,23.0449,52.8658,-16.4854,3.52138,9.79352,62.9749,-5.65621,-16.9442,0.125724,-5.17869,-3.9065,-22.2627,26.9704,-14.2145,12.2742,-4.16697
0.797598,18.4797,2.63494,-6.30411,-4.92979,4.82435,5.79017,2.11814,-2.92254,1.52739,2.63976,-0.392082,-1.78319,1.32524,1.04142,-10.6059,-1.38789,-3.82953,20.7936,-3.46106,10.3645,8.44244,-0.919709,3.78191,1.04548e-14,-6.36111e-15,62.2585,-22.0449,-51.6432,93.3515,-24.7126,-32.0111,8.87933,7.12502,-5.25944,-21.0354,1.04548e-14,-6.36111e-15,54.0439,30.9969,64.2781,97.8114,99.0963,-1.0672,23.3661,7.12502,24.5678,51.8098,-16.6747,3.44113,9.89607,62.704,-6.28942,-16.24,-0.17304,-5.21904,-4.06192,-22.0197,27.0152,-14.2262,12.2016,-4.24847
0.801261,18.4806,2.65799,-6.22443,-4.5768,4.50311,6.05691,2.08276,-2.69296,1.47927,2.59866,-0.279815,-1.97491,1.3065,1.02053,-10.8137,-1.36882,-4.14333,21.1399,-3.47478,10.7059,8.60941,-0.903594,3.96259,4.46023e-15,1.59028e-15,62.1525,-22.5686,-51.548,95.4728,-23.6409,-33.0856,9.46445,7.12502,-6.29689,-20.422,4.46023e-15,1.59028e-15,54.6595,31.7961,65.9169,99.5815,97.7785,0.787491,23.0917,7.12502,26.3444,51.2819,-16.8259,3.45558,10.0635,62.2588,-7.15623,-15.7451,0.30557,-5.31607,-4.29327,-21.7154,27.1098,-14.1392,12.206,-4.47992
0.807024,18.4818,2.68566,-6.17636,-4.18159,4.38699,6.2373,2.03991,-2.60602,1.45569,2.54172,-0.239054,-2.09565,1.27918,1.01127,-10.8221,-1.4,-4.13058,21.2282,-3.50634,10.6112,8.64176,-0.924089,3.92667,-3.43214e-14,3.57812e-15,62.0278,-22.9735,-51.4155,97.3357,-23.9403,-34.529,9.76761,7.12502,-7.69015,-20.0726,-3.43214e-14,3.57812e-15,55.3531,32.5252,67.6393,101.024,96.3856,2.80638,22.7135,7.12502,28.2755,50.5995,-16.8976,3.46097,9.96114,61.667,-8.31413,-15.4309,0.618256,-5.39286,-4.48743,-21.656,27.2756,-14.1273,12.1351,-4.65724
0.813709,18.4815,2.71514,-6.04825,-3.81637,4.29983,6.2462,1.99676,-2.50454,1.40513,2.49036,-0.219236,-2.1474,1.25409,0.977769,-10.6266,-1.40107,-4.0468,21.1352,-3.46578,10.38,8.56473,-0.927993,3.83352,-3.42282e-14,5.56597e-15,61.9232,-23.2438,-51.3783,98.8274,-24.8598,-35.7928,10.1421,7.12502,-8.90983,-19.6498,-3.42282e-14,5.56597e-15,56.1063,33.1675,69.4584,102.164,95.1541,4.84842,22.6105,7.12502,30.2254,50.1567,-16.9986,3.50042,9.81599,60.9915,-10.0499,-15.2025,0.413281,-5.53251,-4.61526,-21.6187,27.4284,-14.1381,12.0098,-5.00675
0.820398,18.4779,2.74179,-5.89818,-3.43561,4.19979,6.27894,1.9596,-2.35068,1.31386,2.44886,-0.214245,-2.25205,1.23429,0.897222,-10.4786,-1.41355,-4.04533,21.1631,-3.46519,10.2838,8.54451,-0.93992,3.80061,-8.3738e-15,1.19271e-15,61.7993,-23.4773,-51.3841,99.8832,-26.1413,-36.2583,9.05149,7.12502,-9.359,-20.7207,-8.3738e-15,1.19271e-15,56.9011,33.6973,71.3549,103.032,94.4376,6.78996,23.023,7.12502,32.0757,50.2137,-17.0872,3.54075,9.68339,60.2546,-12.0254,-15.0668,0.0110614,-5.67841,-4.72938,-21.546,27.5086,-14.1641,11.753,-4.91129
0.824573,18.4707,2.77099,-5.87594,-3.00334,4.32391,6.38452,1.94157,-2.40275,1.24139,2.41585,-0.270677,-2.3842,1.21977,0.865817,-10.3883,-1.48117,-4.08934,21.313,-3.54235,10.1858,8.58346,-0.988056,3.7701,1.3654e-14,2.78299e-15,61.6063,-23.6512,-51.3643,100.529,-27.6995,-35.9192,7.11663,7.12502,-9.03184,-22.67,1.3654e-14,2.78299e-15,57.6447,34.0747,73.3178,103.624,94.1208,9.12329,23.5517,7.12502,34.2943,50.2697,-17.0154,3.58207,9.30208,59.4518,-13.2916,-15.1078,-0.645046,-5.67588,-4.8863,-21.7392,27.5688,-14.185,11.5627,-5.06815
0.827303,18.4674,2.80883,-5.967,-2.61121,4.53317,6.40027,1.94185,-2.53323,1.23704,2.40488,-0.351072,-2.39894,1.2152,0.856366,-10.3396,-1.48135,-4.07919,21.4948,-3.54053,10.1033,8.6341,-0.991238,3.7448,4.95719e-15,1.59028e-14,61.4123,-23.7267,-51.528,100.907,-28.9719,-35.6047,6.34373,7.12502,-8.72832,-23.4558,4.95719e-15,1.59028e-14,58.3851,34.3629,75.3053,103.956,94.2875,11.6857,24.0909,7.12502,36.7234,50.2264,-16.7768,3.74453,8.84356,58.5424,-13.9341,-15.448,-2.5432,-5.51382,-5.12192,-22.0501,27.651,-14.3181,11.4815,-5.10255
0.825508,18.4668,2.84473,-6.0025,-2.25696,4.52,6.28523,1.93851,-2.44586,1.26633,2.40986,-0.378505,-2.30002,1.21601,0.783607,-10.5498,-1.46254,-3.94708,21.7389,-3.51429,9.92146,8.74962,-0.974693,3.66837,1.26539e-14,5.1684e-15,61.2932,-23.7185,-51.858,100.885,-29.7281,-35.6168,6.38331,7.12502,-8.74002,-23.4157,1.26539e-14,5.1684e-15,59.091,34.6242,77.119,103.981,94.8131,14.1561,24.615,7.12502,39.0567,50.1188,-16.5718,4.19974,8.6751,57.4981,-14.5549,-16.0797,-4.39709,-5.41493,-5.26524,-22.0749,27.7375,-14.4023,11.3242,-5.26742
0.819718,18.4628,2.87013,-5.96401,-1.93014,4.35891,6.19875,1.93063,-2.22817,1.26316,2.41674,-0.36244,-2.24707,1.21779,0.680903,-10.817,-1.48542,-3.82607,22.0379,-3.53827,9.69644,8.89866,-0.984733,3.57473,-2.21086e-14,3.57812e-15,61.1469,-23.6327,-52.0759,100.413,-30.1274,-35.9407,5.9404,7.12502,-9.05255,-23.8453,-2.21086e-14,3.57812e-15,59.7377,34.8323,78.7564,103.665,95.5754,16.3237,25.0926,7.12502,41.0962,49.9784,-16.4594,4.77318,8.70163,56.3662,-15.092,-16.9543,-3.53644,-5.44848,-5.29352,-21.8871,27.8172,-14.3786,11.0958,-5.91719
0.811778,18.4599,2.89339,-5.92158,-1.56128,4.13516,6.13258,1.91229,-1.96566,1.22732,2.41179,-0.320182,-2.23805,1.21404,0.579605,-10.7688,-1.49008,-3.88758,22.1995,-3.54578,9.70253,8.94643,-0.98995,3.59092,1.0753e-14,7.95139e-16,60.9306,-23.4887,-52.2321,99.5292,-30.316,-36.3661,5.87993,7.12502,-9.46309,-23.8876,1.0753e-14,7.95139e-16,60.2374,34.8277,80.335,103.115,96.3439,18.3467,25.8336,7.12502,42.9919,50.0824,-16.294,5.34353,8.79834,55.162,-15.6694,-17.8022,-1.42021,-5.51725,-5.3892,-21.6185,27.9134,-14.3776,10.8701,-6.59783
0.802237,18.4604,2.92188,-5.88833,-1.16179,4.0756,5.97279,1.89902,-1.85874,1.19138,2.40419,-0.337551,-2.18064,1.20953,0.507495,-10.6781,-1.4693,-3.94416,22.3641,-3.52486,9.73312,8.98534,-0.979942,3.61804,2.76062e-14,4.37326e-15,60.6616,-23.2759,-52.4742,98.3891,-30.3686,-36.8081,6.07008,7.12502,-9.88953,-23.6776,2.76062e-14,4.37326e-15,60.5715,34.625,81.7358,102.392,97.0051,19.5214,26.5102,7.12502,44.089,50.3598,-16.0715,5.91966,8.68194,53.9049,-16.5117,-18.5064,-1.9512,-5.53047,-5.47451,-21.5264,27.9934,-14.4362,10.5683,-6.6745
0.791171,18.4613,2.95269,-5.88615,-0.802881,4.04598,6.51215,1.98765,-1.45303,0.61473,2.52341,-0.592019,-3.05027,1.27052,-0.023904,-10.3447,-1.50779,-4.05273,23.044,-3.70874,10.122,9.18061,-1.02864,3.77172,-1.30949e-14,1.51076e-14,59.3645,-22.9009,-52.4484,97.0533,-30.3647,-37.3685,5.98233,7.12502,-10.4301,-23.739,-1.30949e-14,1.51076e-14,59.9115,33.9269,82.2574,101.479,97.7866,19.9636,26.8155,7.12502,44.5012,50.5089,-15.8174,6.55875,8.51506,52.6075,-17.4212,-19.1589,-3.26584,-5.4593,-5.55235,-21.4689,28.0113,-14.4782,10.3222,-6.70688
0.778036,18.46,2.98159,-5.91464,-0.436209,3.98332,6.37654,1.95358,-1.30127,0.569014,2.4897,-0.641384,-3.01252,1.25177,-0.152372,-10.6882,-1.42644,-4.42916,23.6977,-3.69649,10.6608,9.48938,-0.976142,4.05086,2.24999e-14,-3.97569e-15,59.0394,-22.4991,-52.7713,95.5279,-30.1568,-37.8586,5.31701,7.12502,-10.9029,-24.3799,2.24999e-14,-3.97569e-15,59.8185,33.7031,83.0888,100.499,98.5178,19.5297,26.9549,7.12502,44.0967,50.8016,-15.504,7.20194,8.39066,51.2787,-18.087,-19.7869,-3.3379,-5.33922,-5.5611,-21.3602,27.9752,-14.4539,10.0336,-7.07009
0.761353,18.4556,3.00902,-5.95409,-0.0106697,3.99446,6.07985,1.90359,-1.38636,0.654156,2.4255,-0.598619,-2.76359,1.22036,-0.0422588,-11.007,-1.38773,-4.73093,24.0623,-3.6506,10.8577,9.68338,-0.944254,4.19326,-6.65929e-15,-4.17448e-15,59.0088,-22.0685,-53.1744,93.8489,-30.0244,-38.2152,4.21936,7.12502,-11.2468,-25.4591,-6.65929e-15,-4.17448e-15,59.6935,33.5103,83.8952,99.3876,99.3086,18.3844,26.6277,7.12502,43.0271,50.864,-15.1402,7.82449,8.18322,49.93,-18.5391,-20.3064,-2.77808,-5.22801,-5.56384,-21.3178,27.9416,-14.4628,9.69938,-7.50084
0.741534,18.454,3.03503,-6.00609,0.401275,4.00748,5.931,1.90228,-1.46609,0.666427,2.4225,-0.573663,-2.67207,1.21962,0.0338718,-11.0785,-1.41346,-4.88678,24.1728,-3.66214,10.8684,9.73984,-0.957706,4.22752,8.31168e-15,-7.95139e-15,58.8519,-21.6575,-53.5215,91.9769,-30.1499,-38.8407,3.29779,7.12502,-11.85,-26.3469,8.31168e-15,-7.95139e-15,59.3415,33.0836,84.4598,98.1152,100.084,16.7615,25.8487,7.12502,41.5071,50.6017,-14.7712,8.52218,7.98417,48.5559,-18.9058,-20.7659,-2.45892,-5.12303,-5.53168,-21.2546,27.9276,-14.4481,9.30325,-7.96755
0.72115,18.4528,3.06027,-6.09831,0.849974,3.90221,5.83223,1.89184,-1.40154,0.682023,2.41681,-0.510786,-2.60074,1.2162,0.0668021,-10.9582,-1.49452,-4.98054,24.0675,-3.7119,10.7224,9.68229,-1.00952,4.18163,-4.49502e-14,1.03368e-14,58.7006,-21.2165,-53.922,90.0134,-30.4782,-39.5394,2.89663,7.12502,-12.5237,-26.7081,-4.49502e-14,1.03368e-14,58.8477,32.5525,84.8534,96.7525,100.759,14.7169,25.2939,7.12502,39.5851,50.6438,-14.3523,9.29666,7.92685,47.1731,-19.2967,-21.1814,-2.02285,-4.96642,-5.53386,-21.0701,27.8849,-14.3887,8.91619,-8.43357
0.697897,18.4497,3.08311,-6.11026,1.34233,3.81362,5.64756,1.87045,-1.39113,0.694286,2.3946,-0.444264,-2.487,1.205,0.137969,-10.8786,-1.56805,-5.0345,23.9652,-3.74545,10.5214,9.6307,-1.05469,4.11142,1.77167e-14,-1.07344e-14,58.5916,-20.8143,-54.3017,87.9913,-31.0824,-40.089,1.90749,7.12502,-13.0535,-27.664,1.77167e-14,-1.07344e-14,58.353,31.9354,85.2086,95.2264,101.474,12.5454,24.8372,7.12502,37.5364,50.7611,-14.0332,10.0475,7.84378,45.7866,-19.5618,-21.5421,-1.46308,-4.90866,-5.66342,-20.902,27.8193,-14.3065,8.58296,-8.72017
0.675599,18.4465,3.10978,-6.10641,1.88739,3.9475,5.42576,1.82257,-1.63803,0.760928,2.32169,-0.431907,-2.30371,1.16999,0.303405,-11.0996,-1.57117,-5.20562,23.9764,-3.71911,10.5728,9.67865,-1.04561,4.16409,-6.83322e-15,6.36111e-15,58.6353,-20.429,-54.7634,85.7764,-31.8082,-40.1626,0.374598,7.12502,-13.1245,-29.1924,-6.83322e-15,6.36111e-15,57.9912,31.332,85.5288,93.4835,102.075,10.5343,24.4195,7.12502,35.6329,50.8254,-13.6883,10.6712,7.47364,44.404,-19.6068,-21.6292,-1.5752,-4.84501,-5.85536,-20.9991,27.7492,-14.2515,8.27371,-8.73039
0.652756,18.4436,3.13943,-6.19132,2.39086,4.10273,5.28205,1.817,-1.84172,0.808582,2.30603,-0.454564,-2.18114,1.16292,0.401046,-11.1503,-1.62973,-5.15963,23.8805,-3.7564,10.3958,9.65414,-1.07721,4.08515,1.16538e-14,5.1684e-15,58.5916,-20.0306,-55.2172,83.4517,-32.4651,-40.1658,-0.396584,7.12502,-13.1276,-29.9634,1.16538e-14,5.1684e-15,57.4063,30.599,85.5745,91.5394,102.49,8.37647,24.0779,7.12502,33.5849,50.9529,-13.1993,11.4617,7.08938,43.0201,-19.8014,-21.4091,-2.05841,-4.6824,-5.97217,-21.1245,27.7106,-14.2359,7.94706,-8.97899
0.626654,18.4426,3.16952,-6.33916,2.81218,4.05654,5.12898,1.8585,-1.85293,0.874429,2.36695,-0.387958,-2.03246,1.19242,0.477965,-11.2548,-1.71892,-5.39357,23.8768,-3.84912,10.4847,9.68733,-1.12831,4.14754,-1.05604e-15,-1.59028e-14,58.5724,-19.6653,-55.6547,81.1685,-33.2644,-40.3254,-0.555604,7.12502,-13.2815,-30.1124,-1.05604e-15,-1.59028e-14,56.7307,29.7621,85.5621,89.4458,102.703,6.30266,23.6744,7.12502,31.6117,50.9574,-12.6789,12.4513,6.96822,41.6464,-20.1161,-20.994,-2.17332,-4.46594,-6.09256,-21.0176,27.7359,-14.2861,7.6394,-8.90269
0.597938,18.4397,3.19627,-6.38861,3.3013,3.81131,4.89662,1.83793,-1.69823,0.953786,2.35735,-0.236339,-1.82101,1.18545,0.557439,-11.5604,-1.74593,-5.76486,23.9407,-3.84846,10.6805,9.77917,-1.13054,4.28648,-2.88238e-14,1.70955e-14,58.7918,-19.2688,-56.163,78.7653,-34.1821,-40.7558,-1.01203,7.12502,-13.6963,-30.5413,-2.88238e-14,1.70955e-14,56.1263,28.9839,85.5182,87.3631,102.908,4.12318,23.4475,7.12502,29.5333,51.1183,-12.2918,13.3772,7.07476,40.3067,-20.086,-20.5544,-2.82323,-4.45,-6.28018,-20.6664,27.8597,-14.348,7.29748,-8.99413
0.565055,18.4328,3.21376,-6.28985,3.85,3.52415,4.6519,1.81824,-1.39869,0.972684,2.35247,-0.171232,-1.65554,1.18079,0.465988,-11.5635,-1.80203,-5.52605,23.5889,-3.85056,10.2862,9.64406,-1.15713,4.09074,1.15419e-14,-7.95139e-15,59.0175,-19.0139,-56.7619,76.2105,-34.9156,-41.0549,-1.71441,7.12502,-13.9845,-31.224,1.15419e-14,-7.95139e-15,55.5411,27.9851,85.3197,85.1827,103.208,2.06296,23.3671,7.12502,27.5648,51.3687,-12.1066,14.2707,7.19939,39.0384,-19.881,-19.9186,-3.5431,-4.69142,-6.49259,-20.2186,28.0266,-14.362,6.90388,-9.15937
0.531671,18.4261,3.23126,-6.26993,4.38663,3.31831,4.43681,1.89211,-0.958124,1.02063,2.47424,-0.24825,-1.46656,1.23906,0.142486,-11.5169,-1.91359,-5.35831,23.2102,-3.97066,10.1143,9.50711,-1.22283,3.97414,-1.52443e-14,-1.15295e-14,59.0934,-19.0425,-57.3303,73.6038,-35.7419,-41.2149,-3.56544,7.12502,-14.1387,-33.0644,-1.52443e-14,-1.15295e-14,55.0007,26.6387,84.95,82.7608,103.503,0.465734,23.2965,7.12502,26.0364,51.5324,-11.8135,15.1698,7.22847,37.8247,-19.7494,-18.8754,-4.1005,-4.84213,-6.69341,-19.879,28.2122,-14.3753,6.54896,-9.58053
0.496453,18.4192,3.25848,-6.34229,4.97336,3.38625,4.27473,1.96963,-0.883848,1.08313,2.58207,-0.350473,-1.30505,1.29227,-0.00214065,-11.7437,-2.05093,-5.44284,23.1977,-4.15102,10.1756,9.5663,-1.3008,3.98935,1.17283e-14,-2.64384e-14,59.2239,-19.0252,-57.8205,70.9603,-36.8684,-41.6146,-5.1064,7.12502,-14.5238,-34.578,1.17283e-14,-2.64384e-14,54.3482,25.2798,84.3707,80.3021,103.724,-0.949614,23.2448,7.12502,24.6805,51.6731,-11.3442,16.1006,6.99479,36.6786,-19.6516,-17.6507,-5.22863,-4.81368,-6.93431,-19.865,28.3883,-14.4314,6.17833,-10.0062
0.454435,18.4113,3.28857,-6.4285,5.54558,3.29295,4.17765,1.97539,-0.868786,1.1686,2.59285,-0.321836,-1.1639,1.29726,0.0238841,-12.2705,-2.1436,-5.40151,23.2866,-4.24571,10.0343,9.7047,-1.34019,3.92295,2.6339e-15,4.57205e-15,59.7033,-18.9084,-58.3637,68.2514,-38.1647,-42.1443,-5.77117,7.12502,-15.0342,-35.2053,2.6339e-15,4.57205e-15,53.7876,24.0849,83.6687,77.8336,103.929,-2.32238,23.0046,7.12502,23.3642,51.6065,-10.9299,17.2768,6.99953,35.5964,-19.6156,-16.5295,-6.44897,-4.77954,-7.13046,-19.6271,28.5497,-14.5128,5.72549,-10.2483
0.410738,18.4021,3.31621,-6.44104,6.10962,3.21713,4.08114,1.93576,-0.883904,1.17075,2.54072,-0.32375,-1.10799,1.27116,0.0367361,-12.7029,-2.12337,-5.22626,23.4506,-4.21505,9.87261,9.83699,-1.31314,3.84316,-1.89467e-14,-6.95746e-15,60.2816,-18.6912,-59.1784,65.5713,-39.6746,-42.2523,-6.9969,7.12502,-15.1382,-36.4232,-1.89467e-14,-6.95746e-15,53.1379,22.9436,82.6398,75.3244,104.262,-4.01069,22.9098,7.12502,21.7437,51.7086,-10.6551,18.3919,6.95965,34.5936,-19.549,-15.1741,-7.51314,-4.86977,-7.29456,-19.3802,28.7239,-14.5466,5.24553,-10.5438
0.364835,18.3887,3.34361,-6.44622,6.69019,3.19487,4.02429,1.92951,-0.927892,1.08151,2.53034,-0.347667,-1.16849,1.26638,0.0374191,-12.9992,-2.12424,-5.19554,23.7113,-4.24157,9.90479,9.99029,-1.30582,3.85419,1.93442e-14,-6.16232e-15,60.6306,-18.409,-60.1286,63.0266,-40.894,-42.0748,-8.55428,7.12502,-14.9672,-37.9934,1.93442e-14,-6.16232e-15,52.3272,21.6133,81.3364,72.7913,104.775,-6.0963,23.2109,7.12502,19.7398,52.2286,-10.3803,19.3706,6.88713,33.7084,-19.447,-13.6993,-8.78054,-4.99354,-7.50597,-19.1884,28.9492,-14.5957,4.75573,-10.4815
0.315388,18.3741,3.37101,-6.4859,7.22539,3.04521,3.99971,2.01235,-0.792258,1.05852,2.64677,-0.32384,-1.1743,1.32442,-0.0193568,-13.4065,-2.20121,-5.34886,23.7968,-4.34264,10.0473,10.1164,-1.33732,3.92264,2.09345e-14,1.51076e-14,61.0652,-18.3744,-60.8985,60.2774,-41.5858,-41.8755,-9.11801,7.12502,-14.7752,-38.5714,2.09345e-14,1.51076e-14,51.7432,20.0222,80.193,70.2691,105.319,-8.27448,24.1291,7.12502,17.6447,53.3484,-10.1784,20.4326,7.00914,32.9887,-19.4241,-12.2356,-10.0786,-5.13946,-7.80058,-18.861,29.2544,-14.6872,4.37202,-10.3836
0.26301,18.3585,3.39854,-6.47936,7.78978,2.98321,3.97153,2.04717,-0.76131,1.07326,2.69492,-0.326884,-1.14218,1.3484,-0.0406723,-14.0076,-2.24117,-5.52503,23.9269,-4.39531,10.2396,10.2945,-1.3371,4.02144,-3.24267e-14,-1.98785e-16,61.8137,-18.3924,-61.8385,57.3288,-41.7527,-41.7559,-9.5554,7.12502,-14.66,-39.0172,-3.24267e-14,-1.98785e-16,51.2833,18.4848,78.8613,67.7792,105.602,-10.4561,24.8873,7.12502,15.5444,54.2825,-10.108,21.5038,7.05198,32.4574,-19.5069,-10.7781,-10.8524,-5.36473,-8.10695,-18.613,29.6391,-14.8141,3.9178,-10.1478
0.207155,18.3372,3.42443,-6.44072,8.38766,2.85512,3.96228,2.05516,-0.686961,1.04445,2.70843,-0.333229,-1.16288,1.35512,-0.0896284,-14.6876,-2.28512,-5.54879,24.2232,-4.46136,10.2737,10.5443,-1.34178,4.04028,-1.6201e-14,5.96354e-16,62.616,-18.4393,-63.03,54.4317,-40.9996,-41.6514,-10.3045,7.12502,-14.5593,-39.7736,-1.6201e-14,5.96354e-16,50.8591,16.8924,77.2597,65.2695,105.841,-12.1704,25.6133,7.12502,13.8928,55.1293,-10.0744,22.5195,7.21398,32.0878,-19.4618,-9.5575,-11.3654,-5.70372,-8.39404,-18.2654,30.1083,-14.9673,3.35463,-9.9175
0.144989,18.3117,3.44905,-6.40645,9.01894,2.51155,3.92405,2.11008,-0.404331,1.02015,2.7936,-0.300335,-1.15499,1.39722,-0.216827,-15.3873,-2.33187,-5.61964,24.4337,-4.54051,10.4204,10.7738,-1.34419,4.10495,-2.62272e-14,8.74653e-15,63.4521,-18.7851,-64.2483,51.595,-39.2678,-41.1735,-10.5291,7.12502,-14.0989,-40.0308,-2.62272e-14,8.74653e-15,50.6751,15.0589,75.7796,62.786,106.099,-13.9687,26.9558,7.12502,12.1593,56.5825,-10.0755,23.2951,7.66313,31.9128,-19.3266,-8.34575,-11.8935,-6.14668,-8.71347,-17.6409,30.6193,-15.055,2.75984,-9.50513
0.0790596,18.2854,3.47446,-6.40779,9.68314,2.27258,3.94107,2.1556,-0.251518,0.925555,2.85964,-0.318263,-1.2531,1.4298,-0.326712,-15.6279,-2.15403,-5.7005,24.4027,-4.37163,10.8747,10.8072,-1.21339,4.31209,9.31182e-15,-6.85807e-15,64.2722,-19.1379,-65.619,48.763,-36.5972,-40.6492,-10.4618,7.12502,-13.5935,-39.998,9.31182e-15,-6.85807e-15,50.5008,13.1578,74.2066,60.3787,106.315,-16.3487,28.9684,7.12502,9.86372,58.7174,-10.071,23.7978,8.05096,31.9092,-19.0406,-6.98947,-11.8401,-6.58104,-9.04194,-17.1396,31.1949,-15.168,2.27365,-9.66619
0.012184,18.2549,3.50298,-6.41416,10.5206,2.34396,3.96269,2.19914,-0.373205,0.651855,2.90801,-0.513752,-1.54166,1.45376,-0.46937,-14.6249,-1.72238,-5.43556,23.7811,-3.92278,11.3623,10.3422,-0.962408,4.47878,1.08524e-14,1.2921e-15,64.6964,-19.5138,-67.1007,45.9852,-32.9421,-40.4881,-10.2131,7.12502,-13.4383,-39.7596,1.08524e-14,1.2921e-15,50.0578,10.9248,72.2583,58.1252,106.638,-19.0865,30.8714,7.12502,7.22161,60.7282,-9.94989,24.0727,8.16593,32.0928,-18.8565,-5.68194,-9.68052,-6.96581,-9.43714,-16.999,31.7985,-15.3013,1.74392,-9.78589
-0.0594081,18.2227,3.53045,-6.42955,11.431,2.29239,3.87628,1.97256,-0.65469,1.38189,2.60356,-0.347596,-0.766375,1.30226,-0.105888,-17.2007,-1.31533,-5.68255,23.886,-3.27287,11.6136,10.8306,-0.586215,4.732,-6.89534e-16,1.10325e-14,67.5271,-19.7049,-69.406,43.3712,-28.7014,-40.6727,-10.004,7.12502,-13.6162,-39.5387,-6.89534e-16,1.10325e-14,51.3513,10.1859,71.0558,55.9862,106.578,-21.4333,33.0019,7.12502,4.95594,62.9239,-9.7497,24.1193,8.48993,32.4381,-19.0472,-5.13403,-6.90161,-7.40751,-9.83308,-16.7093,32.4247,-15.4355,1.18647,-10.5212
-0.135464,18.1877,3.55613,-6.40741,12.3267,2.28846,3.91733,2.1899,-0.654788,0.99501,2.88617,-0.62999,-1.17231,1.44423,-0.419153,-15.8405,-1.0187,-5.18672,23.2473,-3.06453,12.0102,10.3098,-0.443591,4.77744,-2.88393e-15,-1.40516e-14,67.4661,-20.6418,-70.581,41.1706,-24.8783,-41.1032,-10.0779,7.12502,-14.0311,-39.5843,-2.88393e-15,-1.40516e-14,51.2117,7.49283,69.5626,54.0307,106.545,-23.0693,35.6726,7.12502,3.37619,65.6256,-9.5665,23.9622,8.80621,32.9038,-19.5363,-5.97822,-6.32402,-7.89488,-10.3468,-16.4726,33.0508,-15.6113,0.844939,-11.4464
-0.219582,18.1509,3.58091,-6.42,13.1977,2.16199,4.01339,2.16195,-0.787835,1.16773,2.84491,-0.590151,-1.05738,1.42374,-0.30183,-16.7195,-0.604438,-5.10528,23.1995,-2.51804,12.2021,10.4098,-0.137675,4.91739,1.86299e-14,-6.95125e-15,68.926,-21.0543,-72.2721,39.1839,-21.383,-41.7127,-9.93763,7.12502,-14.6183,-39.4024,1.86299e-14,-6.95125e-15,51.9007,6.07624,68.4592,52.1819,106.399,-24.1543,38.239,7.12502,2.32835,68.206,-9.41159,23.6902,9.30456,33.4285,-20.0146,-7.85831,-8.25462,-8.39401,-10.8284,-16.0504,33.6389,-15.7537,0.410141,-11.8621
-0.310619,18.1196,3.60681,-6.47997,14.0371,1.86359,4.10562,2.19682,-0.792489,1.24006,2.89118,-0.57278,-1.03586,1.44687,-0.285803,-17.0904,-0.109681,-4.69071,23.004,-1.92609,12.2968,10.3489,0.191429,4.95624,1.04315e-14,2.13694e-15,70.0687,-21.5664,-73.8969,37.5738,-18.6058,-42.6054,-9.87828,7.12502,-15.4784,-39.2787,1.04315e-14,2.13694e-15,52.5539,4.3699,67.3353,50.4108,106.319,-24.9775,40.2689,7.12502,1.53327,70.2431,-9.29453,23.3177,10.0368,33.9822,-20.3361,-9.46114,-9.67809,-8.85646,-11.3102,-15.4014,34.0864,-15.8085,-0.0830418,-11.9403
-0.40004,18.0985,3.63653,-6.55616,14.9431,1.70283,4.26229,2.32418,-0.806885,1.0719,3.05434,-0.734377,-1.28795,1.52881,-0.462941,-16.4568,0.430311,-3.9733,22.6158,-1.34731,12.386,10.0279,0.510991,4.90835,7.57867e-16,-2.10712e-14,70.3337,-22.3006,-75.0097,36.5461,-17.102,-43.3231,-10.0986,7.12502,-16.1695,-39.4442,7.57867e-16,-2.10712e-14,52.9483,2.1855,66.097,48.8458,106.371,-25.7546,41.7501,7.12502,0.782808,71.7284,-9.18178,22.7349,10.6209,34.548,-20.5969,-9.78774,-8.9833,-9.16002,-11.9572,-14.9514,34.3378,-15.7771,-0.439316,-12.2523
-0.487331,18.0893,3.66523,-6.65602,15.9353,1.70385,4.50612,2.27022,-1.03573,1.12475,2.96852,-0.792762,-1.3784,1.48663,-0.399972,-16.4739,1.08943,-3.49087,22.3151,-0.500639,12.3322,9.84259,0.934413,4.89717,-1.26663e-14,2.5842e-15,71.0515,-22.4796,-76.2262,36.0668,-16.7971,-43.8742,-10.6989,7.12502,-16.7,-40.0006,-1.26663e-14,2.5842e-15,53.577,0.81232,65.2542,47.3762,106.128,-26.5985,42.8573,7.12502,-0.0323199,72.8371,-9.08194,22.0089,11.0132,35.1172,-20.6856,-9.4623,-7.4089,-9.27923,-12.7481,-14.7312,34.3935,-15.7024,-0.673688,-12.5267
-0.578476,18.0852,3.69107,-6.72676,16.8938,1.6636,4.74953,2.28149,-1.20658,1.09768,2.96998,-0.84629,-1.54782,1.48822,-0.371233,-16.2231,1.72301,-3.02494,22.0148,0.304718,12.3181,9.61623,1.33581,4.88869,-1.82633e-14,6.36111e-15,71.4287,-22.6654,-77.1021,36.0459,-17.2244,-44.3408,-11.1669,7.12502,-17.1492,-40.4301,-1.82633e-14,6.36111e-15,54.1945,-0.632055,64.9105,45.9383,105.56,-26.8763,43.4734,7.12502,-0.300638,73.4529,-9.10616,21.32,11.427,35.6955,-20.5804,-9.75194,-7.16209,-9.37113,-13.5044,-14.4376,34.286,-15.5999,-0.904585,-12.7093
-0.669592,18.0808,3.71965,-6.82238,17.8204,1.62216,5.03182,2.38237,-1.2842,1.0584,3.0926,-0.954891,-1.74418,1.55017,-0.460929,-15.9303,2.36424,-2.20123,21.8892,1.0678,12.0741,9.46025,1.72607,4.73585,7.34137e-14,-9.93923e-16,71.3473,-22.9805,-77.2814,36.4031,-18.3762,-44.5914,-11.499,7.12502,-17.3905,-40.741,7.34137e-14,-9.93923e-16,54.7781,-2.17965,64.6548,44.7335,105.126,-26.7584,43.8543,7.12502,-0.186787,73.834,-9.09482,20.7124,11.8639,36.2419,-20.4232,-10.7348,-7.94604,-9.40015,-14.2168,-14.1424,34.0815,-15.4281,-1.16068,-12.7237
-0.754238,18.0789,3.75063,-6.93928,18.6757,1.52476,5.23692,2.38339,-1.3228,1.12777,3.09049,-0.874168,-1.7938,1.54942,-0.364167,-15.5245,3.18118,-1.51079,21.6077,2.21421,11.4569,9.20857,2.2344,4.50468,7.0817e-14,-1.43125e-14,71.36,-22.7951,-76.904,36.7866,-20.0163,-44.4036,-12.0098,7.12502,-17.2097,-41.2678,7.0817e-14,-1.43125e-14,55.1469,-3.08935,64.6003,43.9317,104.629,-26.9513,44.1104,7.12502,-0.373091,74.0898,-9.03764,20.1696,12.3591,36.7068,-20.3667,-11.5295,-8.35874,-9.38235,-14.9731,-13.8193,33.8291,-15.1999,-1.33037,-12.5162
-0.839079,18.0805,3.78376,-6.98667,19.4834,1.3746,5.27485,2.43155,-1.27372,1.1891,3.15862,-0.830281,-1.75206,1.58318,-0.351188,-14.9997,3.94783,-0.920845,21.1773,3.32666,10.8394,8.90244,2.71517,4.27414,7.27676e-14,-5.36719e-15,71.4377,-22.7146,-76.7625,37.3755,-21.2534,-44.271,-12.308,7.12502,-17.0821,-41.577,7.27676e-14,-5.36719e-15,55.4642,-3.9593,64.8257,43.5411,103.977,-27.4094,44.5428,7.12502,-0.8155,74.521,-8.99766,19.7223,12.8904,37.0373,-20.3037,-11.8684,-8.2405,-9.41483,-15.6579,-13.4113,33.5611,-15.0339,-1.4636,-12.8111
-0.925974,18.0856,3.81946,-7.02686,20.1882,1.20344,5.26554,2.51734,-1.19756,1.25148,3.27956,-0.767568,-1.6827,1.64319,-0.33526,-14.7575,4.67154,-0.601123,21.0461,4.34944,10.5278,8.75806,3.18077,4.20752,-1.59897e-14,2.04748e-14,71.5873,-22.5506,-77.1661,38.6666,-21.6315,-44.2778,-12.0931,7.12502,-17.0886,-41.3615,-1.59897e-14,2.04748e-14,55.6356,-4.59442,65.5094,43.4552,103.694,-27.8774,44.6873,7.12502,-1.26749,74.6633,-8.91131,19.4696,13.4514,37.2193,-20.3137,-12.2999,-8.22686,-9.42521,-16.1631,-12.9491,33.2543,-14.8891,-1.61158,-13.319
-1.01096,18.0906,3.85664,-7.15617,20.8584,0.954126,5.31563,2.60475,-0.996408,1.32682,3.40907,-0.670949,-1.62795,1.70719,-0.357172,-14.48,5.4596,-0.315107,20.9914,5.43174,10.3755,8.63125,3.69161,4.20684,1.58655e-14,1.19271e-15,71.5925,-22.2135,-77.1855,40.0849,-21.7921,-44.3437,-11.7712,7.12502,-17.1521,-41.0341,1.58655e-14,1.19271e-15,55.6589,-4.9563,66.682,43.6351,103.765,-28.1846,44.4031,7.12502,-1.56422,74.3771,-8.65776,19.292,14.126,37.2683,-20.366,-13.0609,-8.40297,-9.32246,-16.5816,-12.4223,32.8817,-14.7253,-1.82285,-13.516
-1.09457,18.0986,3.89792,-7.20656,21.5248,0.794809,5.27751,2.67008,-0.825192,1.37791,3.50779,-0.611931,-1.54792,1.75608,-0.394977,-14.1842,6.26127,-0.0806343,20.9922,6.51385,10.3609,8.51839,4.21524,4.25956,-2.25621e-14,-5.96354e-16,71.3627,-21.7405,-76.5207,41.3096,-22.0319,-44.3064,-11.6964,7.12502,-17.1162,-40.9624,-2.25621e-14,-5.96354e-16,55.472,-5.06771,68.1559,44.1428,104.135,-27.9427,43.948,7.12502,-1.33059,73.9235,-8.39572,19.1373,14.6862,37.2224,-20.4651,-13.6251,-8.01437,-9.22723,-16.9783,-11.9853,32.433,-14.5351,-1.94122,-13.8657
-1.17993,18.1092,3.94151,-7.15231,22.1626,0.772965,5.1384,2.76539,-0.723741,1.40672,3.64188,-0.653023,-1.4319,1.82303,-0.493687,-14.0376,6.90263,0.389651,21.2616,7.3532,10.0937,8.56502,4.62335,4.18539,-3.19919e-14,1.98785e-16,70.9597,-21.3047,-75.5783,42.589,-22.1674,-43.9981,-11.9352,7.12502,-16.8193,-41.2267,-3.19919e-14,1.98785e-16,55.1345,-5.09775,69.7138,45.0168,104.788,-27.0557,43.363,7.12502,-0.473852,73.3422,-8.20238,18.9462,15.072,37.1352,-20.6137,-13.8972,-7.32259,-9.17383,-17.3377,-11.6625,31.8965,-14.2802,-2.03386,-13.8427
-1.26482,18.1243,3.98249,-7.03877,22.6848,0.733359,4.94169,2.93913,-0.534508,1.39152,3.88404,-0.737805,-1.31897,1.94403,-0.689765,-13.6189,7.43558,1.18454,21.4315,8.04555,9.54854,8.57395,4.95244,3.93474,5.79954e-14,-7.15625e-15,70.4131,-20.9516,-74.292,43.7807,-22.19,-43.846,-11.7102,7.12502,-16.673,-41.0142,5.79954e-14,-7.15625e-15,54.6881,-5.20057,71.2283,46.2576,105.643,-26.263,42.8555,7.12502,0.291766,72.835,-8.1278,18.7948,15.4579,37.0382,-20.5819,-14.2402,-6.83783,-9.12572,-17.6088,-11.2861,31.2546,-13.9863,-2.11838,-13.8194
-1.3458,18.142,4.02088,-6.85778,23.1992,0.809191,4.71931,2.95759,-0.447824,1.53305,3.91721,-0.727823,-1.04449,1.96142,-0.711608,-13.5242,8.12233,1.45239,21.582,8.99919,9.29355,8.58768,5.3964,3.90629,8.52103e-14,1.98785e-15,70.3339,-20.1048,-73.0602,45.0781,-22.5675,-43.4396,-10.3884,7.12502,-16.2817,-39.7248,8.52103e-14,1.98785e-15,54.2934,-4.64569,72.7777,47.7838,106.64,-26.1556,42.4141,7.12502,0.395483,72.3935,-8.10251,18.5541,15.6758,36.9467,-20.577,-14.6018,-6.17666,-9.05767,-17.8187,-11.0272,30.5366,-13.6046,-2.25352,-13.7407
-1.42616,18.1596,4.06168,-6.68959,23.685,1.00165,4.61601,3.10683,-0.290614,1.49734,4.12189,-0.928021,-0.996061,2.06451,-1.00928,-13.2184,8.60564,1.59755,21.8643,9.57537,9.66222,8.58942,5.72409,4.06156,4.58447e-15,1.59028e-15,69.7283,-19.5406,-71.6826,46.5882,-23.2063,-42.451,-9.20292,7.12502,-15.3297,-38.6147,4.58447e-15,1.59028e-15,53.6918,-4.55084,74.2178,49.4443,107.704,-25.8639,41.8883,7.12502,0.677178,71.8669,-8.02381,18.2945,15.7679,36.8527,-20.7367,-14.8426,-5.81895,-8.90119,-18.0032,-10.9094,29.7936,-13.1358,-2.37258,-13.5817
-1.50787,18.1759,4.10617,-6.61245,24.0117,1.14948,4.61463,3.3055,-0.10736,1.43468,4.39257,-1.10634,-1.02784,2.20023,-1.3093,-12.8504,9.01681,1.724,22.1333,10.0823,9.93361,8.58147,6.00669,4.17462,-1.80024e-14,1.66979e-14,68.921,-18.8577,-69.955,48.1349,-23.6254,-41.8849,-9.11062,7.12502,-14.7843,-38.5633,-1.80024e-14,1.66979e-14,53.0168,-4.34902,75.7141,51.0926,108.596,-24.9197,41.1959,7.12502,1.58914,71.1697,-7.86626,18.2139,15.9524,36.7397,-20.8432,-15.0825,-5.79979,-8.59549,-18.066,-10.7798,29.0601,-12.7801,-2.29056,-14.17
-1.58825,18.1952,4.14732,-6.53852,24.2174,1.16639,4.60972,3.37625,0.0807674,1.42507,4.49631,-1.01592,-1.02563,2.25189,-1.32651,-12.4026,9.59804,1.79869,22.4227,10.9784,9.56568,8.58059,6.3959,4.11551,-7.69421e-14,-1.27222e-14,68.433,-17.5787,-68.0047,49.7028,-23.9444,-41.5269,-8.78889,7.12502,-14.4393,-38.2666,-7.69421e-14,-1.27222e-14,52.2842,-3.39878,77.518,52.7854,109.314,-23.9252,40.539,7.12502,2.54964,70.5035,-7.80055,18.1937,16.2397,36.5923,-20.7678,-15.2529,-5.46556,-8.33933,-17.989,-10.5042,28.3508,-12.3939,-2.19671,-14.765
-1.66189,18.2131,4.18433,-6.36353,24.3841,1.31497,4.56385,3.54443,0.282939,1.35046,4.72861,-1.06288,-1.05107,2.3677,-1.49797,-11.9795,10.1455,2.23106,23.0051,11.7356,9.26102,8.71958,6.76139,4.03264,-5.01062e-14,-3.97569e-16,67.8811,-16.5376,-66.0725,51.2743,-24.2957,-40.8724,-7.66252,7.12502,-13.8086,-37.1842,-5.01062e-14,-3.97569e-16,51.5168,-2.69765,79.241,54.7047,109.784,-22.7426,39.7919,7.12502,3.69169,69.7396,-7.79099,18.0502,16.3138,36.3853,-20.6535,-15.2224,-5.38292,-8.16464,-17.918,-10.3822,27.7256,-12.0604,-2.01654,-15.1747
-1.73087,18.2292,4.22299,-6.22562,24.4516,1.44945,4.4922,3.72277,0.512806,1.32926,4.97544,-1.20231,-0.994219,2.49198,-1.77492,-12.0105,10.6232,2.75641,23.7852,12.2912,9.22805,9.01501,7.07476,4.05429,-1.35397e-13,8.34896e-15,67.3762,-15.5959,-64.1476,52.9326,-24.77,-39.8096,-6.61828,7.12502,-12.7842,-36.2069,-1.35397e-13,8.34896e-15,50.8281,-1.95174,80.6331,56.7513,110.169,-21.3105,38.7984,7.12502,5.07458,68.7176,-7.73258,17.8732,16.3833,36.1604,-20.5684,-15.0695,-5.69892,-7.91155,-17.8301,-10.2715,27.1553,-11.8243,-1.72773,-15.105
-1.79773,18.2446,4.26344,-6.22865,24.4053,1.30238,4.48137,3.88624,1.00874,1.30858,5.21465,-1.29452,-0.948419,2.61252,-2.15372,-12.1736,10.986,3.18853,24.4535,12.6865,9.25557,9.29671,7.31033,4.10027,3.88127e-14,6.36111e-15,66.9055,-14.6589,-62.193,54.6727,-25.2718,-38.4555,-6.03862,7.12502,-11.4786,-35.7044,3.88127e-14,6.36111e-15,50.1615,-1.0595,81.7717,58.8301,110.512,-19.7856,37.5034,7.12502,6.54684,67.3822,-7.66039,17.7545,16.7576,35.9511,-20.4624,-14.9383,-5.88857,-7.63103,-17.6435,-9.88017,26.6119,-11.6527,-1.31862,-14.9972
-1.86181,18.2596,4.30119,-6.06369,24.3743,1.31082,4.37745,4.04412,1.37216,1.30826,5.44033,-1.33856,-0.842779,2.72717,-2.40034,-12.0503,11.3235,3.45274,24.7531,13.1564,9.07534,9.39728,7.53511,4.06399,4.69753e-14,-2.78299e-15,66.5378,-13.7471,-60.0909,56.4792,-25.7426,-37.1469,-5.29594,7.12502,-10.2164,-35.0279,4.69753e-14,-2.78299e-15,49.6217,0.0256506,83.0334,60.8601,110.722,-18.3707,36.3006,7.12502,7.9126,66.1325,-7.7659,17.4947,16.881,35.7915,-20.3527,-14.5606,-4.41895,-7.50345,-17.4078,-9.6397,26.0946,-11.5348,-0.723369,-15.825
-1.92434,18.2724,4.3354,-5.77752,24.3868,1.58783,4.30779,4.20163,1.47218,1.33539,5.65381,-1.42526,-0.746737,2.83612,-2.54522,-11.6735,11.6181,3.76571,24.7394,13.6184,8.71988,9.36132,7.73494,3.92186,2.94263e-14,3.18055e-15,66.27,-12.9227,-57.8959,58.2196,-26.1497,-35.8873,-3.58621,7.12502,-9.00108,-33.3742,2.94263e-14,3.18055e-15,49.1552,1.16835,84.3851,62.87,110.743,-16.7014,34.9887,7.12502,9.52347,64.7535,-7.9298,17.1802,16.7077,35.6894,-20.2323,-14.0861,-0.433552,-7.37941,-17.0621,-9.68703,25.6053,-11.5027,-0.128546,-17.0284
-1.98423,18.2808,4.36709,-5.54942,24.4058,1.78776,4.33148,4.29999,1.58187,1.33834,5.78971,-1.45906,-0.735076,2.90472,-2.64712,-11.7711,11.8348,3.70111,25.0418,13.9418,8.68356,9.47217,7.87931,3.98107,8.22472e-15,-2.38542e-15,66.1161,-11.9885,-55.7476,59.9775,-26.1774,-34.6788,-2.02692,7.12502,-7.83477,-31.8618,8.22472e-15,-2.38542e-15,48.6562,2.47995,85.737,64.9063,110.517,-14.9555,33.774,7.12502,11.2077,63.4546,-8.07683,16.9207,16.6433,35.658,-20.1756,-13.7814,-3.23319,-7.16422,-16.6676,-9.66747,25.1027,-11.5471,0.307772,-16.3059
