JuanDHNZ/ProyectoFinalCD/preprocessing/sports_trials_csv/13_27.csv
root1,root2,root3,root4,root5,root6,lowerback1,lowerback2,lowerback3,upperback1,upperback2,upperback3,thorax1,thorax2,thorax3,lowerneck1,lowerneck2,lowerneck3,upperneck1,upperneck2,upperneck3,head1,head2,head3,rclavicle1,rclavicle2,rhumerus1,rhumerus2,rhumerus3,rradius1,rwrist1,rhand1,rhand2,rfingers1,rthumb1,rthumb2,lclavicle1,lclavicle2,lhumerus1,lhumerus2,lhumerus3,lradius1,lwrist1,lhand1,lhand2,lfingers1,lthumb1,lthumb2,rfemur1,rfemur2,rfemur3,rtibia1,rfoot1,rfoot2,rtoes1,lfemur1,lfemur2,lfemur3,ltibia1,lfoot1,lfoot2,ltoes1
-8.57277,18.6054,3.93948,0.493538,12.8823,0.207978,1.37942,-1.75519,-4.60911,0.243363,-2.40774,-0.56036,-0.35747,-1.1985,2.04152,-4.43153,-11.7441,-11.651,18.0594,-16.9643,10.7636,8.24386,-8.10546,3.76605,-8.74653e-15,-1.74931e-14,-24.3051,40.9192,-90.1173,76.3143,10.4396,5.7322,1.66347,7.12502,31.0681,-25.725,-8.74653e-15,-1.74931e-14,-31.8414,-22.8983,94.6953,87.3179,-1.86751,-12.2819,20.9083,7.12502,13.7854,50.4315,-13.0833,20.1006,13.4649,25.8962,-14.5042,-18.469,-3.42471,-0.927291,-5.18222,-21.835,23.8864,-32.0176,29.4107,7.88615
-8.56168,18.5999,3.96569,0.111914,13.1513,0.60645,1.58685,-1.7314,-5.11739,0.431452,-2.38972,-0.700778,-0.26667,-1.19402,2.18382,-4.56578,-11.7448,-11.5856,18.1755,-16.9644,10.7274,8.29741,-8.09619,3.73536,3.19919e-14,-1.19271e-15,-24.7424,40.2118,-90.3628,74.9755,9.97378,4.59915,1.81687,7.12502,29.9876,-25.7727,3.19919e-14,-1.19271e-15,-31.7907,-22.0771,94.2787,85.5958,-2.10868,-12.4661,21.0282,7.12502,13.6078,50.5634,-12.6183,19.8329,13.2372,26.4562,-14.9647,-18.32,-3.50198,0.0868322,-5.21658,-22.3225,23.0695,-31.5634,29.4738,7.68756
-8.53924,18.5914,3.98412,0.0250907,13.4243,1.75013,1.71409,-1.70926,-6.16175,0.519697,-2.38246,-1.08974,-0.221151,-1.19232,2.36813,-4.45867,-11.7403,-11.5182,18.1923,-16.963,10.6632,8.27154,-8.10031,3.71151,3.61664e-14,1.23246e-14,-25.3087,39.3003,-90.7154,73.5885,9.69783,3.48666,1.91814,7.12502,28.9255,-25.8584,3.61664e-14,1.23246e-14,-31.9574,-21.1803,93.925,83.877,-2.40081,-12.895,20.8452,7.12502,13.1944,50.4077,-12.2084,19.1273,12.0783,26.8142,-15.2723,-17.7907,-3.88453,0.783405,-5.26465,-23.6636,22.6684,-31.3443,29.4739,7.49607
-8.52068,18.5934,3.98104,0.21864,13.3486,1.84443,1.56581,-1.59915,-6.19832,0.423565,-2.22943,-1.13957,-0.250912,-1.11307,2.3327,-4.17737,-11.7409,-11.5864,18.047,-16.9734,10.7015,8.18371,-8.12067,3.75158,-9.31803e-15,-7.95139e-15,-25.8831,38.2262,-90.9706,72.1779,9.45464,2.02282,1.92171,7.12502,27.5264,-26.086,-9.31803e-15,-7.95139e-15,-32.1608,-20.2402,93.657,82.2454,-2.7414,-13.4609,21.0775,7.12502,12.6489,50.6745,-12.5373,18.9924,11.8398,27.0529,-15.3078,-17.6319,-4.0765,0.745242,-5.27547,-23.8351,22.4017,-31.2899,29.5897,7.77887
-8.50754,18.5973,3.98204,0.47458,13.2646,1.40487,1.14907,-1.52304,-5.7977,0.330373,-2.09558,-0.990424,-0.13362,-1.04803,2.25058,-3.99892,-11.7453,-11.7827,17.9469,-16.9757,10.7611,8.14239,-8.13841,3.81112,-2.37299e-14,-1.59028e-14,-26.334,37.3385,-91.0973,70.6365,8.96493,0.0949023,2.1441,7.12502,25.6813,-26.1436,-2.37299e-14,-1.59028e-14,-32.2869,-19.3021,93.4268,80.5788,-2.60192,-14.3243,21.7434,7.12502,11.8164,51.3901,-13.023,19.0969,12.1641,27.1931,-15.2594,-17.7696,-4.38273,0.391381,-5.22044,-23.3586,22.3132,-31.2315,29.6333,7.81519
-8.49195,18.5973,3.99069,0.68816,13.495,1.3549,0.798671,-1.53154,-5.7237,0.270629,-2.08336,-1.00656,-0.00285946,-1.04414,2.18309,-3.87298,-11.7389,-11.7895,17.9459,-16.9682,10.7202,8.11559,-8.14332,3.80784,-1.07468e-14,-8.74653e-15,-26.7342,36.3896,-91.2764,68.8906,8.69606,-1.31196,2.42606,7.12502,24.3332,-26.0493,-1.07468e-14,-8.74653e-15,-32.4094,-18.4946,93.1256,78.606,-2.02597,-15.3966,20.903,7.12502,10.7822,50.6063,-13.155,19.0406,12.1269,27.1515,-15.2828,-17.974,-4.66778,0.0497294,-5.28491,-23.3015,22.5277,-31.1286,29.5638,7.51413
-8.47945,18.5969,3.9964,0.797169,13.7694,1.27624,0.636393,-1.5334,-5.62432,0.219519,-2.07565,-1.05625,0.029521,-1.04,2.07272,-3.93516,-11.7278,-11.6827,18.1264,-16.9522,10.6045,8.16448,-8.13187,3.75142,2.46866e-14,-8.74653e-15,-26.9449,35.3242,-91.3879,66.9712,8.65786,-2.15673,2.53469,7.12502,23.5231,-26.047,2.46866e-14,-8.74653e-15,-32.5471,-17.7573,92.6726,76.5813,-1.61868,-16.009,20.1299,7.12502,10.1915,49.863,-13.1678,18.9555,12.155,27.0887,-15.369,-18.1292,-4.465,-0.20074,-5.50343,-23.2288,22.7572,-31.2795,29.4009,7.69342
-8.47186,18.5961,3.99679,0.823768,13.9146,1.12538,0.621395,-1.47614,-5.52562,0.183917,-1.99928,-1.06165,-0.00822198,-1.00023,2.01247,-4.03908,-11.7453,-11.7188,18.3384,-16.9909,10.6295,8.26445,-8.14232,3.75105,-1.06598e-14,-1.59028e-14,-27.0625,34.1954,-91.4176,65.0271,8.53515,-3.17043,2.62811,7.12502,22.5504,-26.0749,-1.06598e-14,-1.59028e-14,-32.5982,-17.0059,92.1523,74.5438,-1.50077,-16.0725,20.197,7.12502,10.1302,49.9331,-13.2043,18.9193,12.2785,27.0981,-15.4151,-18.1963,-4.06522,-0.327895,-5.5812,-23.0727,22.856,-31.3284,29.2838,7.84167
-8.46081,18.5941,3.99936,0.857163,13.9982,1.17135,0.574728,-1.43638,-5.65573,0.188731,-1.94339,-1.06762,0.0228402,-0.97319,2.07739,-4.03747,-11.7335,-11.7879,18.3829,-16.9804,10.6738,8.28827,-8.13741,3.7767,3.35201e-14,1.63003e-14,-27.1547,33.1342,-91.3834,63.0584,8.42425,-4.78069,2.22889,7.12502,21.0041,-26.6537,3.35201e-14,1.63003e-14,-32.4743,-16.1546,91.603,72.2633,-1.28719,-16.0646,20.1613,7.12502,10.1378,49.8971,-13.1994,18.8781,12.1791,27.0883,-15.449,-18.196,-4.00024,-0.393361,-5.49631,-23.1354,22.9462,-31.1671,29.2366,7.40289
-8.44764,18.5911,4.00565,0.866921,14.0745,1.33308,0.465859,-1.3935,-5.87291,0.231892,-1.87718,-1.11523,0.12868,-0.943669,2.14573,-4.02685,-11.6896,-11.9418,18.476,-16.942,10.8117,8.33967,-8.11717,3.84952,1.9133e-15,-3.18055e-15,-27.2636,31.867,-91.3023,61.0917,8.53963,-6.46909,2.02275,7.12502,19.3814,-27.0314,1.9133e-15,-3.18055e-15,-32.3006,-15.3367,91.0428,69.8114,-1.1346,-16.0452,20.033,7.12502,10.1566,49.7679,-13.1143,18.8486,11.9661,27.0703,-15.5162,-18.1853,-4.09903,-0.386975,-5.30608,-23.3179,23.0274,-30.9691,29.1366,6.91276
-8.43219,18.5898,4.01157,0.823901,14.3052,1.21449,0.384065,-1.36662,-5.74946,0.206168,-1.83607,-1.12814,0.140422,-0.922796,2.06205,-3.83731,-11.6668,-12.0556,18.5821,-16.9431,10.8865,8.35884,-8.12517,3.9018,4.78698e-14,1.66979e-14,-27.537,30.357,-91.2454,59.091,8.88305,-8.44415,2.26729,7.12502,17.4814,-26.9667,4.78698e-14,1.66979e-14,-32.3136,-14.5527,90.5117,67.3313,-1.06169,-16.1551,20.0158,7.12502,10.0505,49.7558,-12.9923,18.88,12.0773,27.0794,-15.5853,-18.371,-4.18173,-0.378725,-5.32528,-23.2001,23.0661,-30.8588,28.9889,6.64341
-8.41624,18.5898,4.01304,0.844475,14.5954,1.08933,0.33008,-1.33015,-5.61686,0.116244,-1.78706,-1.14112,0.0697872,-0.894778,1.97508,-3.51507,-11.6891,-12.0448,18.6082,-16.9905,10.8041,8.30737,-8.16572,3.8869,-2.36367e-14,-3.18055e-15,-27.765,28.7651,-91.1342,56.8828,9.14701,-11.0355,2.42226,7.12502,14.9863,-27.0155,-2.36367e-14,-3.18055e-15,-32.2694,-13.7196,89.9696,64.6686,-0.900234,-16.4213,20.5299,7.12502,9.79374,50.2822,-12.9306,18.802,12.1793,27.1116,-15.589,-18.5177,-4.58006,-0.471922,-5.3791,-23.0609,23.0973,-30.7418,28.8325,6.47377
-8.40089,18.5871,4.01457,0.843503,14.7106,1.16846,0.39576,-1.28257,-5.71193,0.0396205,-1.73192,-1.16344,-0.0479978,-0.862835,2.00816,-3.37574,-11.6952,-12.0673,18.6916,-16.982,10.6337,8.29603,-8.18006,3.84361,2.23943e-14,9.54166e-15,-27.7769,27.2357,-90.9656,54.4245,9.37085,-13.099,2.29008,7.12502,12.9977,-27.285,2.23943e-14,9.54166e-15,-32.0477,-12.7862,89.392,61.7871,-0.634482,-16.6324,21.0206,7.12502,9.59007,50.7823,-12.8558,18.5409,12.0731,27.1583,-15.554,-18.4003,-4.8783,-0.469948,-5.2551,-23.1569,23.1441,-30.6418,28.6608,6.51751
-8.38709,18.5824,4.0195,0.780064,14.7845,1.29658,0.487568,-1.25425,-5.84665,-0.00830601,-1.70357,-1.22915,-0.149147,-0.844975,2.01875,-3.20449,-11.6366,-12.117,18.7458,-16.9101,10.6027,8.27622,-8.15782,3.86104,-2.3382e-14,-6.36111e-15,-27.7463,25.7076,-90.8486,51.9147,9.60547,-13.9588,2.19392,7.12502,12.1688,-27.4321,-2.3382e-14,-6.36111e-15,-31.8718,-11.9715,88.7571,58.8885,0.0207947,-16.5772,21.1788,7.12502,9.64331,50.9381,-12.7343,18.4141,11.9414,27.246,-15.6111,-18.3125,-5.06514,-0.351533,-5.09574,-23.3119,23.1626,-30.5703,28.483,6.40086
-8.37041,18.5783,4.0229,0.754589,14.9987,1.41831,0.459281,-1.25982,-5.9532,0.00311557,-1.70868,-1.30746,-0.120399,-0.848227,1.99673,-3.09907,-11.6192,-12.1697,18.7762,-16.9007,10.6369,8.27438,-8.15803,3.88771,1.85305e-14,-8.74653e-15,-27.5601,23.9798,-90.5982,49.32,9.9058,-14.4991,2.16482,7.12502,11.6479,-27.4914,1.85305e-14,-8.74653e-15,-31.727,-11.2334,88.1269,56.0458,0.895239,-16.9933,21.6116,7.12502,9.24183,51.389,-12.6234,18.2188,11.8055,27.3556,-15.6589,-18.3111,-4.93153,-0.290501,-4.94042,-23.4411,23.1493,-30.2124,28.3611,5.81311
-8.35255,18.5757,4.0277,0.725379,15.2066,1.42344,0.313915,-1.23965,-5.99408,0.0674017,-1.66774,-1.32424,0.024877,-0.832736,1.99772,-3.11917,-11.6932,-12.1345,18.8486,-16.9865,10.5154,8.29906,-8.20297,3.8291,1.59587e-14,-1.35174e-14,-27.2149,22.194,-90.1846,46.6367,9.96042,-16.4521,1.5032,7.12502,9.764,-28.2504,1.59587e-14,-1.35174e-14,-31.4467,-10.3451,87.4849,53.0217,1.3339,-17.4707,22.2519,7.12502,8.78111,52.0492,-12.5238,18.052,11.7941,27.4451,-15.6601,-18.4054,-5.26146,-0.252022,-4.88507,-23.4628,23.1287,-29.8841,28.2787,5.62669
-8.33652,18.5757,4.03425,0.662234,15.357,1.38927,0.202375,-1.22491,-6.07448,0.0657043,-1.63965,-1.29799,0.0865542,-0.820345,2.06686,-2.80571,-11.6939,-12.1165,18.7473,-16.9739,10.356,8.1915,-8.22176,3.79697,3.46134e-14,4.77083e-15,-26.9417,20.5164,-89.7851,43.8188,10.0014,-19.5418,1.31497,7.12502,6.78217,-28.5564,3.46134e-14,4.77083e-15,-31.1778,-9.10574,86.7465,49.7843,1.02672,-17.5768,23.6516,7.12502,8.67875,53.4532,-12.4042,18.0246,11.8436,27.495,-15.6734,-18.6007,-5.82298,-0.193014,-4.87394,-23.4539,23.1496,-29.7034,28.1624,5.77632
-8.32044,18.5737,4.03714,0.603222,15.5009,1.43592,0.24734,-1.22247,-6.18057,-0.0184626,-1.64393,-1.31197,-0.0225164,-0.817816,2.11386,-2.39102,-11.6437,-12.0762,18.6194,-16.8958,10.177,8.04555,-8.21381,3.77109,4.95541e-14,1.03368e-14,-26.7636,18.7287,-89.4075,40.8817,10.3054,-22.5972,1.79342,7.12502,3.83212,-28.1519,4.95541e-14,1.03368e-14,-31.1099,-7.67496,85.8673,46.6827,0.441699,-17.2598,24.6982,7.12502,8.98468,54.4869,-12.2685,18.0454,11.7838,27.4992,-15.7785,-18.7472,-5.69583,-0.128911,-4.94733,-23.5603,23.2254,-29.7581,28.0433,5.99857
-8.30344,18.5699,4.03491,0.535779,15.6249,1.35928,0.34369,-1.19641,-6.04615,-0.116836,-1.62101,-1.33552,-0.184246,-0.800248,2.01862,-2.16077,-11.6424,-12.1195,18.7062,-16.8909,10.0311,8.02424,-8.23265,3.74448,-6.22289e-15,0,-26.5839,16.8054,-88.9833,37.9576,10.5151,-23.9797,0.906898,7.12502,2.49696,-29.0582,-6.22289e-15,0,-30.9609,-6.38855,84.9425,43.4372,0.483791,-16.7053,25.807,7.12502,9.51965,55.572,-12.1817,17.8702,11.8269,27.4926,-15.7815,-18.6915,-5.83985,-0.126508,-4.89297,-23.5149,23.3171,-29.6859,27.9469,5.7646
-8.2865,18.567,4.03492,0.464645,15.742,1.20539,0.3379,-1.14284,-5.86436,-0.128729,-1.54914,-1.33414,-0.203666,-0.763994,1.91889,-2.02554,-11.7077,-12.1493,18.7019,-16.9756,9.95276,8.00528,-8.28551,3.72099,4.01825e-14,1.51076e-14,-26.3089,14.6737,-88.4055,35.0588,10.7051,-24.5671,-0.424971,7.12502,1.92969,-30.396,4.01825e-14,1.51076e-14,-30.4234,-5.01705,83.9977,39.7986,0.616367,-15.8648,26.5993,7.12502,10.3305,56.3256,-12.107,17.791,11.9484,27.4935,-15.8604,-18.6479,-5.81729,-0.140918,-4.84049,-23.3701,23.4076,-29.6679,27.7499,5.84407
-8.26922,18.5642,4.03585,0.387478,15.9085,1.17239,0.347628,-1.1525,-5.90634,-0.0699955,-1.56017,-1.32104,-0.14631,-0.771995,1.95513,-2.11797,-11.7694,-12.0309,18.693,-17.0143,9.72828,7.99254,-8.30878,3.62011,-1.19644e-14,-1.59028e-15,-25.9032,12.744,-87.7593,32.157,10.926,-25.9399,-1.33195,7.12502,0.60382,-31.3108,-1.19644e-14,-1.59028e-15,-29.8703,-3.28141,82.9196,36.3104,0.222388,-15.6697,24.1979,7.12502,10.5187,53.9147,-11.977,17.7965,11.9534,27.5066,-15.9797,-18.6951,-5.33376,-0.118647,-4.84225,-23.3668,23.4978,-29.5671,27.6999,5.49771
-8.24928,18.5598,4.03815,0.366875,16.0447,1.25819,0.320706,-1.1743,-6.05364,-0.0593432,-1.58702,-1.33558,-0.114597,-0.786177,2.0214,-2.18193,-11.8086,-11.9701,18.7895,-17.0358,9.52794,8.01518,-8.32572,3.53837,7.24632e-15,1.11319e-14,-25.4797,10.8413,-87.0828,29.1678,11.2609,-27.5324,-2.06167,7.12502,-0.93431,-32.0394,7.24632e-15,1.11319e-14,-29.5878,-1.34856,81.765,33.0066,-0.226791,-17.4873,23.7791,7.12502,8.76509,53.5771,-11.8799,17.7738,11.8126,27.5342,-16.0336,-18.7105,-5.03855,-0.100396,-4.75588,-23.4943,23.5573,-29.4143,27.6736,5.13549
-8.22874,18.5581,4.04414,0.346544,16.1168,1.26082,0.211197,-1.20367,-6.13797,-0.0243784,-1.61606,-1.32117,-0.012047,-0.804017,2.08,-2.30352,-11.8467,-11.906,18.8893,-17.0535,9.34138,8.04956,-8.33766,3.45724,1.90833e-14,1.03368e-14,-24.9456,8.75548,-86.3463,26.2159,11.915,-28.5555,-3.29012,7.12502,-1.92238,-33.2612,1.90833e-14,1.03368e-14,-29.2868,1.04065,80.3879,29.587,-0.841131,-18.5088,24.5136,7.12502,7.77932,54.3505,-11.8403,17.7722,11.7625,27.6029,-16.1873,-18.7399,-4.67853,-0.0432536,-4.69654,-23.5469,23.5738,-29.3937,27.5179,5.35279
-8.20907,18.5598,4.04608,0.30124,16.1749,1.1819,0.180461,-1.20738,-6.14104,-0.0546329,-1.62,-1.30809,-0.0251928,-0.805044,2.09485,-2.02956,-11.8445,-11.804,18.6956,-17.046,9.24037,7.91717,-8.34787,3.43186,-2.94419e-14,-1.11319e-14,-24.5953,6.48049,-85.5164,23.4559,12.89,-29.0348,-4.54581,7.12502,-2.38534,-34.5122,-2.94419e-14,-1.11319e-14,-29.1471,3.83611,78.7485,26.1529,-1.92912,-18.9312,26.032,7.12502,7.37155,55.8836,-11.892,17.8785,11.7941,27.7393,-16.3926,-18.8746,-4.22985,0.0242094,-4.74065,-23.5362,23.5419,-29.4056,27.4858,5.50406
-8.18882,18.5624,4.04439,0.208775,16.2891,1.0271,0.203006,-1.17858,-5.96415,-0.171131,-1.58842,-1.35243,-0.166476,-0.783471,1.9531,-1.37689,-11.8179,-11.7058,18.4231,-17.045,9.20068,7.6994,-8.37201,3.45265,4.30058e-14,5.56597e-15,-24.6244,3.99168,-84.6312,20.8576,13.7143,-29.8342,-4.71106,7.12502,-3.15732,-34.6674,4.30058e-14,5.56597e-15,-29.295,7.24589,76.6266,22.8154,-3.99779,-19.3941,26.0907,7.12502,6.92477,55.9574,-11.8559,17.6666,11.9573,27.9177,-16.4201,-18.9264,-4.63735,0.108734,-4.89923,-23.4566,23.485,-29.4502,27.5528,5.51584
-8.16643,18.564,4.04835,0.119595,16.4071,1.07547,0.200941,-1.16471,-6.01348,-0.182093,-1.57032,-1.4079,-0.178269,-0.773753,1.9237,-1.07129,-11.8521,-11.646,18.2551,-17.0936,9.11904,7.58354,-8.41054,3.43501,-8.75895e-16,-7.15625e-15,-24.5627,1.28014,-83.5255,18.3874,14.7845,-30.4459,-4.92943,7.12502,-3.74806,-34.8762,-8.75895e-16,-7.15625e-15,-29.4154,12.0821,73.8576,19.4394,-7.62408,-19.7952,25.7031,7.12502,6.53748,55.5822,-11.6461,17.1949,11.9666,28.0922,-16.2053,-18.8985,-6.38242,0.27753,-4.92818,-23.5775,23.4437,-29.4385,27.5048,5.51045
-8.14513,18.5642,4.0506,0.128369,16.4828,1.15487,0.134381,-1.19588,-6.21398,-0.160072,-1.60582,-1.39335,-0.109627,-0.793338,2.04829,-1.10827,-11.9181,-11.5665,18.1765,-17.1476,8.95121,7.54816,-8.44253,3.36238,-3.26131e-15,9.54166e-15,-24.3541,-2.10026,-82.0547,16.0375,17.2947,-30.4313,-6.13822,7.12502,-3.73396,-36.0853,-3.26131e-15,9.54166e-15,-29.9524,17.9752,70.3997,16.3287,-12.319,-20.2657,25.5938,7.12502,6.08333,55.4864,-11.568,17.056,11.8699,28.1989,-16.1796,-18.9812,-7.29897,0.294757,-4.77066,-23.6866,23.469,-29.353,27.3307,5.4648
-8.12262,18.5589,4.05238,0.160182,16.628,1.19114,0.0810965,-1.23818,-6.33192,-0.229206,-1.66118,-1.39796,-0.143341,-0.818394,2.10868,-0.906914,-11.9934,-11.5699,18.1195,-17.2536,8.88251,7.50073,-8.50619,3.34269,1.963e-14,1.66979e-14,-24.5031,-6.12329,-80.268,14.0163,20.7285,-30.1334,-7.22962,7.12502,-3.44632,-37.1815,1.963e-14,1.66979e-14,-31.4401,24.629,65.833,13.561,-18.2525,-20.677,25.0759,7.12502,5.6862,54.9796,-11.5543,17.1126,11.7421,28.2227,-16.2664,-19.0221,-7.01123,0.248633,-4.6726,-23.7503,23.5389,-29.2801,27.079,5.42015
-8.09943,18.5481,4.05472,0.163365,16.7978,1.19289,0.0982121,-1.28748,-6.32321,-0.332134,-1.73307,-1.46151,-0.255323,-0.849042,2.04023,-0.570399,-12.0315,-11.5292,17.9793,-17.3346,8.90733,7.40387,-8.55509,3.36049,1.76421e-14,-1.03368e-14,-25.0353,-10.9712,-78.1008,12.3476,25.0968,-29.649,-7.54231,7.12502,-2.97844,-37.5013,1.76421e-14,-1.03368e-14,-34.5585,33.2928,58.8535,11.0319,-26.7063,-21.0403,25.3994,7.12502,5.33541,55.3122,-11.4795,17.2857,11.6358,28.1487,-16.3288,-19.109,-6.8503,0.193042,-4.64794,-23.7949,23.6774,-29.2861,26.8979,5.34588
-8.07673,18.5413,4.05387,0.17431,16.9017,1.19381,0.0784364,-1.33015,-6.36497,-0.350826,-1.78914,-1.50326,-0.258996,-0.876365,2.02014,-0.413644,-12.0486,-11.4213,17.7368,-17.3625,8.92964,7.29233,-8.56949,3.36404,4.07881e-14,-2.14687e-14,-25.6458,-15.3238,-75.945,11.095,29.2828,-29.0746,-7.86568,7.12502,-2.42379,-37.8317,4.07881e-14,-2.14687e-14,-34.7445,34.0713,57.7639,8.78541,-25.7616,-22.5044,29.6815,7.12502,3.92172,59.6252,-11.4148,17.3477,11.538,28.0403,-16.2485,-19.1867,-7.1484,0.11362,-4.67938,-23.8619,23.8422,-29.4093,26.8116,5.56508
-8.05339,18.5399,4.05332,0.125654,16.8791,1.11126,0.0209457,-1.34273,-6.39079,-0.221569,-1.79483,-1.45662,-0.0906795,-0.88647,2.07886,-0.721739,-12.176,-11.3163,17.5925,-17.4826,8.81124,7.29138,-8.61923,3.27908,2.08227e-14,1.35174e-14,-25.5491,-16.0005,-75.4633,9.95834,29.6816,-28.7012,-8.99277,7.12502,-2.06315,-38.9625,2.08227e-14,1.35174e-14,-35.0291,34.9468,56.6621,7.08142,-24.7608,-23.4868,33.7793,7.12502,2.97297,63.7383,-11.3532,17.4113,11.56,27.9843,-16.1349,-19.2429,-7.54353,0.101925,-4.65229,-23.8569,23.9585,-29.52,26.7685,5.67683
-8.02779,18.5377,4.05619,0.024142,16.8411,1.07592,-0.0379493,-1.32915,-6.42453,-0.0979746,-1.76582,-1.43966,0.0689876,-0.878959,2.11171,-0.821987,-12.3339,-11.2283,17.4049,-17.6623,8.70789,7.24968,-8.70569,3.20955,-5.91384e-15,1.35174e-14,-25.7367,-16.6622,-74.8281,9.23537,29.7647,-27.6273,-9.5285,7.12502,-1.02594,-39.5058,-5.91384e-15,1.35174e-14,-35.7889,35.5477,55.2334,5.94821,-23.6172,-24.505,36.1005,7.12502,1.98967,66.071,-11.2372,17.6019,11.5644,28.029,-16.1399,-19.3732,-7.74008,0.233755,-4.61213,-23.9221,23.994,-29.5352,26.7925,5.49504
-8.00086,18.5357,4.06004,-0.00733982,16.8988,1.16117,-0.134856,-1.33168,-6.57451,-0.0782985,-1.75957,-1.48374,0.146271,-0.87825,2.14697,-0.500631,-12.3864,-11.2098,17.135,-17.7559,8.78555,7.12206,-8.75957,3.24802,1.52443e-14,-7.95139e-15,-26.6556,-17.2474,-73.9354,9.25052,30.0437,-26.2551,-8.99539,7.12502,0.29932,-38.9749,1.52443e-14,-7.95139e-15,-36.8814,35.8841,53.5553,4.99942,-22.2991,-26.181,37.6851,7.12502,0.370912,67.6645,-11.1794,17.5917,11.4091,28.1516,-16.2356,-19.3648,-7.50594,0.345879,-4.64133,-24.1057,23.9916,-29.5373,26.761,5.53003
-7.97195,18.534,4.05896,0.0538076,17.101,1.23842,-0.137063,-1.3885,-6.66934,-0.168443,-1.83902,-1.54973,0.0620904,-0.91334,2.13251,-0.0765653,-12.3745,-11.2969,16.8224,-17.8003,9.08005,6.98778,-8.78706,3.38255,-5.03174e-15,3.18055e-15,-27.8946,-17.7286,-72.951,9.58634,30.8419,-25.227,-8.05714,7.12502,1.29235,-38.033,-5.03174e-15,3.18055e-15,-37.7296,36.2675,51.979,3.75378,-21.1052,-27.2284,40.2383,7.12502,-0.640695,70.217,-11.2288,17.31,11.2029,28.2999,-16.3187,-19.1875,-7.1447,0.320564,-4.63944,-24.2404,23.979,-29.3957,26.6347,5.39144
-7.94365,18.5325,4.05277,0.112016,17.228,1.27794,-0.0941351,-1.42726,-6.70917,-0.203201,-1.89586,-1.59332,0.00680977,-0.939208,2.11108,0.16548,-12.4285,-11.4282,16.5017,-17.9219,9.40799,6.89873,-8.84631,3.51168,-6.64686e-15,2.3059e-14,-28.8425,-18.211,-71.9996,9.85987,31.7144,-23.3806,-7.7532,7.12502,3.07553,-37.7108,-6.64686e-15,2.3059e-14,-38.3599,36.7811,50.5046,2.50221,-20.3598,-27.2283,44.307,7.12502,-0.640614,74.2858,-11.3251,17.0778,11.0266,28.4451,-16.3015,-19.0067,-7.19964,0.26325,-4.59391,-24.3409,23.9811,-29.3667,26.4485,5.6768
-7.91707,18.5313,4.04752,0.132461,17.2565,1.32134,-0.0942208,-1.44472,-6.8102,-0.0884198,-1.91286,-1.5933,0.130085,-0.953634,2.16508,-0.0500005,-12.5388,-11.463,16.2935,-18.0535,9.51348,6.89634,-8.89998,3.52227,-3.1408e-14,2.38542e-15,-29.5256,-18.6738,-71.0322,10.0965,32.9452,-20.7675,-7.96412,7.12502,5.59886,-37.8702,-3.1408e-14,2.38542e-15,-39.5318,37.2685,48.8577,2.18116,-19.7513,-27.7303,46.8631,7.12502,-1.12544,76.8399,-11.4011,17.1177,10.8731,28.5691,-16.2829,-19.004,-7.15778,0.232092,-4.48046,-24.4494,24.0307,-29.316,26.3173,5.66393
-7.89034,18.53,4.04219,0.132396,17.2532,1.27822,-0.0258473,-1.45933,-6.84209,-0.0328532,-1.93546,-1.56952,0.152923,-0.966827,2.20801,-0.360032,-12.6337,-11.4281,16.2309,-18.1512,9.49953,6.93563,-8.93528,3.4805,-1.55487e-14,5.56597e-15,-30.0858,-16.0774,-71.7183,10.8475,30.4933,-19.4928,-7.84991,7.12502,6.82946,-37.7198,-1.55487e-14,5.56597e-15,-41.6243,37.4782,46.8562,3.03809,-19.0884,-28.0353,45.4035,7.12502,-1.41998,75.3785,-11.4991,17.1964,10.8141,28.6965,-16.1773,-19.0488,-7.49942,0.193594,-4.35963,-24.4713,24.0905,-29.2402,26.2566,5.49339
-7.86211,18.5279,4.03588,0.0995218,17.2419,1.192,0.09623,-1.45927,-6.78647,-0.119649,-1.95076,-1.57058,-0.00576659,-0.967934,2.18094,-0.0284287,-12.6514,-11.5247,15.9598,-18.2054,9.66063,6.82212,-8.97357,3.56626,1.82261e-14,-1.59028e-15,-31.1986,-13.6276,-72.3007,12.0534,27.4787,-19.0645,-6.98451,7.12502,7.24288,-36.8406,1.82261e-14,-1.59028e-15,-44.0657,37.3278,44.6109,4.15792,-18.6471,-26.8492,42.6898,7.12502,-0.274436,72.6694,-11.5684,17.1772,10.7971,28.8387,-16.0235,-19.0064,-8.23463,0.179952,-4.35664,-24.483,24.1387,-29.0359,26.4051,4.65368
-7.83373,18.5266,4.03248,0.0587974,17.2682,1.19394,0.175194,-1.47155,-6.84068,-0.166852,-1.97652,-1.60055,-0.0958321,-0.976953,2.18318,0.3682,-12.6648,-11.5364,15.6261,-18.2552,9.81245,6.66848,-9.00938,3.64419,-8.07563e-16,-4.05521e-14,-32.138,-11.5758,-72.8061,13.0582,24.5444,-18.8628,-5.54607,7.12502,7.43762,-35.3953,-8.07563e-16,-4.05521e-14,-46.2513,37.1119,42.3577,5.00054,-18.2027,-25.7697,40.3858,7.12502,0.768179,70.3642,-11.614,17.1132,10.6846,29.0161,-15.7947,-18.9222,-9.01463,0.231812,-4.33084,-24.5821,24.1646,-28.8324,26.4813,3.94303
-7.80393,18.527,4.02556,0.030669,17.3199,1.23608,0.295938,-1.48027,-6.95394,-0.126347,-1.99694,-1.60269,-0.116269,-0.987183,2.24655,0.385906,-12.7022,-11.534,15.325,-18.3105,9.98773,6.59156,-9.031,3.69871,3.04762e-14,-7.95139e-15,-32.6734,-9.70612,-73.2987,13.798,21.2309,-19.443,-3.69187,7.12502,6.87748,-33.5602,3.04762e-14,-7.95139e-15,-48.0926,37.0479,40.3425,5.70876,-17.6573,-24.892,38.6288,7.12502,1.61588,68.6025,-11.684,17.1382,10.507,29.2293,-15.6218,-18.8256,-9.46453,0.282371,-4.24118,-24.7106,24.1477,-28.768,26.3843,3.93608
-7.76948,18.5247,4.01692,0.0438908,17.3674,1.28355,0.326638,-1.49982,-7.04236,-0.0338552,-2.02099,-1.57143,-0.0316358,-1.00374,2.32694,0.355329,-12.7714,-11.6142,14.9318,-18.3921,10.1649,6.50511,-9.06901,3.76007,1.2921e-15,-4.77083e-15,-33.1392,-8.32095,-73.5275,14.4068,18.3608,-19.9596,-2.1528,7.12502,6.37884,-32.0368,1.2921e-15,-4.77083e-15,-49.8852,37.0958,38.4578,6.42157,-17.1816,-23.6569,37.5038,7.12502,2.80872,67.4651,-11.7942,17.0168,10.2996,29.4766,-15.4479,-18.6665,-10.1072,0.313396,-4.10718,-24.858,24.0987,-28.8309,26.2006,4.19087
-7.73338,18.5192,4.00966,-0.0448986,17.4549,1.39032,0.44766,-1.48886,-7.09004,0.0846881,-2.01093,-1.6319,0.0214182,-1.00281,2.29263,0.365353,-12.8853,-11.6299,14.6087,-18.5444,10.32,6.43463,-9.13994,3.79927,3.95644e-14,7.15625e-15,-33.6986,-7.52818,-73.5524,14.8707,16.1003,-19.7599,-1.26479,7.12502,6.57159,-31.1428,3.95644e-14,7.15625e-15,-51.5828,36.975,36.6087,7.23579,-16.7387,-22.203,36.0965,7.12502,4.2127,66.0346,-11.7581,16.8199,10.0505,29.7222,-15.3438,-18.4385,-10.5573,0.487209,-3.99286,-25.0797,24.0951,-28.9441,25.9213,4.6785
-7.70264,18.5156,3.99798,-0.14143,17.5249,1.39971,0.606281,-1.49807,-7.13895,0.175974,-2.03294,-1.61309,0.0310924,-1.01616,2.34211,0.283648,-12.9653,-11.7081,14.4423,-18.6431,10.4109,6.42352,-9.18575,3.82338,3.11315e-14,2.22639e-14,-34.155,-7.14288,-73.3059,15.2715,14.1845,-19.1446,-0.670103,7.12502,7.16558,-30.5288,3.11315e-14,2.22639e-14,-53.2174,36.9853,34.8255,7.89574,-16.2407,-20.8553,34.2797,7.12502,5.51402,64.188,-11.7955,16.6784,9.90502,29.9697,-15.1834,-18.2201,-10.8634,0.590211,-3.96967,-25.1951,24.1429,-29.0314,25.7035,5.10941
-7.67661,18.5135,3.9804,-0.123152,17.5544,1.3072,0.629616,-1.5216,-7.15873,0.265164,-2.0618,-1.52925,0.11667,-1.03551,2.43835,0.322758,-12.9287,-11.879,14.0456,-18.6074,10.7654,6.33716,-9.16532,3.96995,-1.50696e-14,-8.74653e-15,-34.4461,-7.47839,-72.6815,15.5483,12.9732,-18.4939,-0.232091,7.12502,7.79361,-30.0685,-1.50696e-14,-8.74653e-15,-54.6055,37.2314,33.1824,8.27648,-15.7206,-19.7076,32.9301,7.12502,6.62208,62.8065,-12.039,16.6925,9.82584,30.2332,-15.1272,-18.0668,-10.6381,0.463789,-3.96408,-25.1789,24.2001,-28.9752,25.592,5.30878
-7.65093,18.5102,3.96122,-0.086115,17.6723,1.30093,0.680606,-1.53931,-7.26927,0.359581,-2.08544,-1.48646,0.193517,-1.05215,2.54344,0.418358,-12.8864,-12.0249,13.5761,-18.5783,11.2249,6.22683,-9.14534,4.15011,-2.33883e-15,2.54444e-14,-34.6334,-8.16894,-71.9404,15.6377,11.9422,-17.9235,-0.403785,7.12502,8.34418,-30.219,-2.33883e-15,2.54444e-14,-55.6412,37.555,31.7308,8.39039,-15.1748,-18.6782,32.1474,7.12502,7.61575,61.9903,-12.258,16.6886,9.65423,30.5103,-15.102,-17.9494,-10.5994,0.318989,-3.84785,-25.2173,24.2825,-28.8574,25.3643,5.29393
-7.62409,18.5053,3.94084,-0.0818949,17.8484,1.50677,0.914659,-1.57549,-7.58115,0.409095,-2.15449,-1.49234,0.131576,-1.08609,2.71666,0.467702,-12.9362,-12.1129,13.3248,-18.6482,11.3873,6.17202,-9.18085,4.21196,2.70161e-14,3.97569e-15,-34.8263,-9.08076,-71.0698,15.5799,11.0313,-17.3279,-0.686351,7.12502,8.91893,-30.4778,2.70161e-14,3.97569e-15,-56.7039,37.8646,30.2539,8.39992,-14.4111,-17.5707,30.8995,7.12502,8.68462,60.7009,-12.3765,16.6245,9.27316,30.8136,-14.966,-17.8365,-11.1215,0.260326,-3.62368,-25.4643,24.3801,-28.6168,25.1521,4.86122
-7.5935,18.5019,3.92172,-0.14562,17.9829,1.59259,1.0756,-1.58755,-7.68004,0.502105,-2.18135,-1.51683,0.143066,-1.10216,2.74954,0.404952,-13.0497,-12.0998,13.2718,-18.7954,11.3988,6.18422,-9.24904,4.19262,3.4104e-15,3.97569e-15,-35.1943,-9.9526,-70.2385,15.7454,9.79467,-17.0695,-1.2003,7.12502,9.16825,-30.981,3.4104e-15,3.97569e-15,-57.777,38.0976,28.764,8.60477,-13.362,-16.4679,29.9363,7.12502,9.7487,59.6907,-12.4784,16.589,9.04153,31.156,-14.7213,-17.7836,-11.7931,0.282491,-3.53814,-25.6368,24.4402,-28.4796,25.03,4.73611
-7.56239,18.5025,3.90156,-0.200248,18.1232,1.55105,1.17817,-1.60422,-7.68172,0.55284,-2.21057,-1.50504,0.141581,-1.11795,2.76494,0.490961,-13.0795,-12.1501,13.1896,-18.86,11.5635,6.17284,-9.27918,4.2501,-2.67241e-14,-1.43125e-14,-35.5067,-11.7716,-68.8832,15.6477,9.49139,-16.511,-1.92918,7.12502,9.70718,-31.6855,-2.67241e-14,-1.43125e-14,-58.8212,38.3228,27.3047,8.83255,-12.1507,-15.4954,29.6296,7.12502,10.6869,59.3378,-12.6596,16.3899,8.93875,31.5472,-14.4331,-17.6087,-12.4622,0.266262,-3.52725,-25.6871,24.4718,-28.3758,24.935,4.73152
-7.53179,18.5027,3.87896,-0.231633,18.3482,1.55512,1.28915,-1.61826,-7.71634,0.605169,-2.23726,-1.50494,0.137615,-1.13243,2.78685,0.642374,-13.1084,-12.2774,13.021,-18.9377,11.8564,6.14515,-9.31702,4.36215,-3.84151e-14,5.56597e-15,-35.589,-14.4257,-67.1192,15.0881,9.98718,-16.1501,-2.39041,7.12502,10.0554,-32.1302,-3.84151e-14,5.56597e-15,-59.5509,38.6585,26.0329,8.75923,-11.008,-15.1021,29.6832,7.12502,11.0663,59.3714,-12.8604,16.1486,8.77332,31.977,-14.2519,-17.4174,-12.7579,0.227579,-3.55449,-25.7782,24.5084,-28.2416,24.8006,4.71018
-7.50446,18.4994,3.85426,-0.244235,18.5538,1.68327,1.37728,-1.61057,-7.86899,0.777828,-2.22682,-1.53331,0.270825,-1.13633,2.84153,0.280792,-13.2469,-12.2644,13.1066,-19.1105,11.9003,6.2585,-9.38073,4.32406,7.56624e-15,-5.56597e-15,-35.556,-16.5818,-65.6921,14.6606,9.91421,-16.3734,-2.79984,7.12502,9.83996,-32.5499,7.56624e-15,-5.56597e-15,-59.9979,39.2555,24.9208,8.56131,-9.97759,-15.0483,29.8714,7.12502,11.1182,59.5568,-13.0576,16.0387,8.48855,32.4272,-14.1428,-17.3092,-12.6631,0.18669,-3.47516,-25.9753,24.5737,-28.1302,24.5761,4.81578
-7.47844,18.4969,3.82874,-0.273802,18.6842,1.76747,1.48673,-1.5823,-8.03024,0.933966,-2.19243,-1.51351,0.37471,-1.12748,2.95166,-0.199496,-13.3941,-12.2142,13.3575,-19.2767,11.7754,6.42303,-9.43958,4.21732,1.79652e-14,-1.27222e-14,-35.6197,-17.8158,-64.69,14.4632,8.89387,-17.4173,-3.08184,7.12502,8.83266,-32.877,1.79652e-14,-1.27222e-14,-60.4362,39.9609,23.869,8.3937,-8.88803,-15.1042,30.4175,7.12502,11.0642,60.1059,-13.2963,16.0007,8.2563,32.8936,-13.9067,-17.2743,-12.6345,0.133303,-3.30339,-26.1194,24.6463,-27.9533,24.3444,4.78655
-7.45346,18.4979,3.80271,-0.383991,18.8938,1.56796,1.64348,-1.59252,-7.93895,0.994113,-2.21756,-1.41512,0.352085,-1.14089,3.00654,-0.25105,-13.4781,-12.2995,13.4257,-19.3968,11.8108,6.48098,-9.49561,4.21909,4.04775e-14,1.27222e-14,-35.8434,-19.111,-63.5779,14.226,8.06252,-19.107,-2.76169,7.12502,7.20185,-32.6191,4.04775e-14,1.27222e-14,-61.0384,40.5233,22.7133,8.32934,-7.80655,-15.5188,31.1791,7.12502,10.6643,60.8885,-13.5384,15.9193,8.33097,33.368,-13.6017,-17.2531,-12.9964,0.0550511,-3.21112,-25.9639,24.7287,-27.6651,24.2158,4.2899
-7.42859,18.4965,3.77758,-0.455294,19.1762,1.44815,1.72759,-1.64273,-7.9548,1.09042,-2.28749,-1.32965,0.416699,-1.18108,3.10453,-0.094188,-13.5269,-12.4317,13.1784,-19.4848,12.0516,6.42529,-9.54251,4.31597,2.05494e-14,7.15625e-15,-35.9174,-20.6731,-62.3708,13.7579,7.78579,-19.9293,-2.46294,7.12502,6.4081,-32.346,2.05494e-14,7.15625e-15,-61.5414,41.2656,21.5841,8.10359,-7.12419,-16.1551,31.9509,7.12502,10.0505,61.6909,-13.7705,15.8729,8.32417,33.8689,-13.4598,-17.2649,-12.7815,-0.0420617,-3.04559,-25.8622,24.8033,-27.3212,23.9699,3.98966
-7.40214,18.4947,3.75196,-0.487861,19.4628,1.53845,1.85917,-1.64661,-8.06773,1.19179,-2.3009,-1.35633,0.453162,-1.19206,3.14196,-0.0838454,-13.6102,-12.5074,13.1089,-19.6265,12.279,6.45115,-9.60407,4.37968,6.34869e-14,-9.54166e-15,-36.1056,-23.0015,-60.7583,13.1039,8.6179,-19.8891,-2.71326,7.12502,6.44683,-32.5951,6.34869e-14,-9.54166e-15,-61.7622,42.0439,20.6111,7.84949,-6.58935,-16.5772,32.7481,7.12502,9.64325,62.5074,-13.9935,15.7992,8.08744,34.3997,-13.3513,-17.2545,-12.2205,-0.0654076,-2.87233,-25.9879,24.8272,-27.0301,23.6641,3.86745
-7.37445,18.4933,3.72432,-0.485438,19.7729,1.71277,1.98895,-1.65682,-8.19614,1.29805,-2.32232,-1.43596,0.495202,-1.20715,3.13311,-0.152883,-13.6873,-12.5698,13.1059,-19.7644,12.5297,6.51264,-9.65725,4.44173,-4.65653e-14,3.18055e-15,-36.2672,-25.8346,-58.9323,12.3879,10.1844,-19.7802,-3.50083,7.12502,6.55205,-33.3795,-4.65653e-14,3.18055e-15,-62.1186,42.7355,19.5794,7.99933,-5.91065,-17.1096,33.6198,7.12502,9.12955,63.4022,-14.2338,15.6943,7.75741,34.9606,-13.173,-17.2701,-12.3045,-0.0463097,-2.81049,-26.2249,24.7727,-26.8312,23.3337,4.0732
-7.34208,18.4928,3.70318,-0.472167,20.1134,1.95428,1.99044,-1.70139,-8.43042,1.44987,-2.37489,-1.48135,0.666593,-1.24494,3.21279,-0.0472268,-13.7084,-12.6889,12.7964,-19.8151,12.856,6.44982,-9.68114,4.5649,-5.99584e-14,1.11319e-14,-36.1779,-28.2014,-57.4263,11.9004,11.4796,-19.594,-4.76953,7.12502,6.73178,-34.6425,-5.99584e-14,1.11319e-14,-62.5836,43.5228,18.5278,8.22827,-5.14033,-17.9094,34.374,7.12502,8.35774,64.1886,-14.4201,15.5448,7.35509,35.5436,-13.0242,-17.2173,-12.5551,0.0328726,-2.83894,-26.5657,24.7257,-26.6437,23.0782,3.99994
-7.31023,18.4925,3.68956,-0.490524,20.4435,2.0487,1.90258,-1.7298,-8.54568,1.5965,-2.39496,-1.50756,0.874879,-1.26743,3.24293,-0.00060812,-13.7911,-12.6465,12.5951,-19.9359,13.0095,6.4065,-9.73599,4.59786,6.32881e-14,-7.15625e-15,-36.1748,-30.4312,-56.0086,11.5375,12.6512,-19.7491,-5.49334,7.12502,6.58202,-35.3711,6.32881e-14,-7.15625e-15,-62.6658,44.536,17.6523,8.10651,-4.58247,-18.8193,34.9495,7.12502,7.47961,64.7972,-14.6122,15.5082,7.11987,36.1323,-12.9348,-17.2518,-12.1428,0.0539501,-2.69561,-26.7178,24.7886,-26.4017,22.7555,3.79813
-7.29266,18.4915,3.65657,-0.498523,20.7779,2.02949,2.11413,-1.75206,-8.63986,1.64693,-2.4452,-1.46997,0.820626,-1.29286,3.34048,-0.224252,-13.9023,-12.629,12.7381,-20.0887,13.0268,6.51062,-9.79426,4.56049,3.42904e-14,1.35174e-14,-36.2606,-32.7014,-54.4649,11.1276,13.9595,-19.8566,-5.77374,7.12502,6.47826,-35.6547,3.42904e-14,1.35174e-14,-62.6475,45.6972,16.8119,7.92401,-3.97222,-19.7641,35.3145,7.12502,6.56755,65.1926,-14.9443,15.5863,7.0384,36.6835,-12.5041,-17.4543,-12.0502,-0.207188,-2.5653,-26.6947,25.0307,-26.1186,22.458,3.26702
-7.2835,18.4902,3.60584,-0.443741,21.0966,1.87929,2.48384,-1.75589,-8.65631,1.57001,-2.4956,-1.37643,0.544228,-1.30595,3.4622,-0.29219,-13.9984,-12.674,12.8193,-20.2284,13.0617,6.57549,-9.85631,4.55151,6.99722e-14,2.38542e-15,-36.4305,-34.6525,-53.0419,10.84,15.0156,-19.8855,-6.01338,7.12502,6.45037,-35.8952,6.99722e-14,2.38542e-15,-62.8747,46.6341,15.9023,8.14823,-4.02084,-20.1756,35.9207,7.12502,6.17024,65.8108,-15.4758,15.6226,7.08506,37.2265,-11.8156,-17.7105,-12.6176,-0.71475,-2.51592,-26.5213,25.3738,-25.9401,22.1246,3.18
-7.2661,18.4909,3.56656,-0.447781,21.5138,1.32697,2.50852,-1.78658,-8.19282,1.53979,-2.53309,-1.22325,0.488612,-1.31954,3.3656,-0.231008,-14.1339,-12.638,12.7708,-20.4201,13.0826,6.57447,-9.94947,4.53306,-1.93815e-15,3.97569e-15,-36.6153,-36.6033,-51.6663,10.6057,15.7023,-20.1319,-5.83279,7.12502,6.21244,-35.7217,-1.93815e-15,3.97569e-15,-63.0324,47.4628,15.063,8.52387,-4.56198,-19.9023,35.9936,7.12502,6.43417,65.8759,-16.0227,15.5781,7.50382,37.7936,-11.4427,-17.9606,-12.8594,-1.2432,-2.55451,-25.9616,25.7277,-25.8065,21.7125,3.29181
-7.2429,18.4909,3.54127,-0.507836,21.9747,1.17806,2.52683,-1.8229,-8.07459,1.59028,-2.57815,-1.16457,0.533203,-1.34453,3.36046,-0.12246,-14.2211,-12.8138,12.7156,-20.5698,13.2831,6.59982,-10.0247,4.6066,-4.35835e-14,-1.90833e-14,-36.5036,-37.8958,-50.7819,10.5111,15.1502,-20.5178,-5.63771,7.12502,5.83987,-35.5372,-4.35835e-14,-1.90833e-14,-63.0874,48.3952,14.257,8.78139,-4.44252,-19.5559,35.3746,7.12502,6.76851,65.2464,-16.3047,15.4558,7.55009,38.4138,-11.2222,-18.1619,-13.3059,-1.4417,-2.5832,-25.8413,26.0009,-25.6668,21.3186,3.18254
-7.22011,18.487,3.51116,-0.476165,22.4225,1.55548,2.75643,-1.86454,-8.47587,1.55461,-2.66648,-1.19965,0.396116,-1.38487,3.55749,0.148035,-14.2453,-13.1062,12.7732,-20.642,13.3877,6.62515,-10.0777,4.68735,-4.52732e-14,-6.36111e-15,-35.7691,-37.3571,-51.1275,10.7879,12.5233,-21.0657,-6.37737,7.12502,5.31093,-36.2908,-4.52732e-14,-6.36111e-15,-63.2352,49.3597,13.358,8.94958,-3.92429,-19.4524,34.7881,7.12502,6.86849,64.6567,-16.5295,15.2235,7.07876,39.0666,-10.8077,-18.3065,-14.0588,-1.49577,-2.6637,-26.2914,26.1612,-25.4671,21.0241,3.27491
-7.19762,18.4849,3.47932,-0.487069,22.9348,1.72373,2.94697,-1.87162,-8.60367,1.56449,-2.69757,-1.25288,0.307208,-1.39739,3.58102,0.178038,-14.3835,-13.0508,12.9638,-20.8233,13.1669,6.6758,-10.1701,4.58633,-6.99722e-14,1.35174e-14,-35.3742,-37.7185,-50.9028,11.0425,10.9891,-21.8028,-6.94788,7.12502,4.5992,-36.878,-6.99722e-14,1.35174e-14,-63.0024,50.375,12.7194,9.17487,-3.82696,-19.1324,34.2443,7.12502,7.1773,64.1026,-16.7716,14.9661,6.82498,39.7351,-10.4725,-18.5124,-14.2825,-1.53347,-2.76689,-26.5218,26.1963,-25.1869,20.7669,3.01862
-7.17381,18.4829,3.45506,-0.554142,23.4016,1.73633,3.00676,-1.83849,-8.60402,1.6397,-2.65479,-1.26166,0.346156,-1.37947,3.57205,0.0845866,-14.5446,-13.0044,13.12,-21.0373,13.0517,6.75339,-10.2682,4.50472,5.35228e-14,1.51076e-14,-35.0264,-38.6838,-50.3311,11.2155,9.97514,-22.6467,-7.27335,7.12502,3.78428,-37.2195,5.35228e-14,1.51076e-14,-62.7361,51.322,12.1695,9.58443,-4.0795,-18.1433,33.4197,7.12502,8.13206,63.2433,-16.9678,14.9323,6.7472,40.3886,-10.3339,-18.8366,-13.8951,-1.53506,-2.76649,-26.581,26.2115,-24.9155,20.4635,2.85412
-7.14919,18.482,3.43437,-0.622885,23.8617,1.75109,2.97405,-1.85349,-8.66296,1.74923,-2.6656,-1.21741,0.485008,-1.39413,3.64655,-0.0385944,-14.6505,-13.0705,13.2274,-21.1735,13.0074,6.82985,-10.3298,4.46809,2.21645e-14,2.8625e-14,-34.0166,-38.7608,-50.5403,11.504,7.71687,-23.4829,-7.98028,7.12502,2.97671,-37.9392,2.21645e-14,2.8625e-14,-62.7025,52.4364,11.4904,10.0524,-4.41818,-16.8699,32.6497,7.12502,9.36089,62.4218,-17.1426,15.0155,6.67838,41.0048,-10.2187,-19.3099,-13.7047,-1.54564,-2.63148,-26.6033,26.2659,-24.6529,19.994,2.96351
-7.12512,18.4813,3.41256,-0.667013,24.3949,1.75847,2.90189,-1.92196,-8.69111,1.85779,-2.74274,-1.16445,0.652489,-1.44295,3.71194,-0.177252,-14.7045,-13.2343,13.3718,-21.2475,13.0281,6.93053,-10.3609,4.47021,-2.66371e-14,-3.33958e-14,-32.6661,-38.4018,-51.1035,11.8655,5.00069,-23.9453,-8.57294,7.12502,2.53016,-38.5377,-2.66371e-14,-3.33958e-14,-56.4267,50.751,18.7601,10.6965,1.23478,-19.1865,35.0881,7.12502,7.12517,64.9481,-17.3335,14.9712,6.60793,41.6065,-10.1918,-19.7185,-13.198,-1.58675,-2.51129,-26.6118,26.3173,-24.2414,19.5737,2.25121
-7.10288,18.4791,3.38775,-0.715797,24.9726,1.81065,3.2268,-1.92504,-8.69015,1.68535,-2.79186,-1.17819,0.296328,-1.44805,3.71589,0.0489026,-14.7591,-13.3337,13.5913,-21.3461,12.9014,6.973,-10.4246,4.44442,3.83654e-14,-1.98785e-14,-32.2038,-39.1249,-50.4803,11.947,3.83616,-23.8404,-8.86387,7.12502,2.63151,-38.8274,3.83654e-14,-1.98785e-14,-50.7499,48.1231,25.2882,11.4179,6.76624,-18.015,34.5423,7.12502,8.25588,64.361,-17.4903,14.689,6.50385,42.1783,-10.012,-20.006,-12.9956,-1.60805,-2.57865,-26.6966,26.371,-23.9671,19.2004,1.78591
-7.07998,18.4768,3.36605,-0.811594,25.505,1.91915,4.07028,-1.87178,-8.71609,1.13072,-2.84701,-1.20665,-0.74686,-1.41712,3.75242,0.684693,-14.7871,-13.4472,14.0271,-21.4305,12.5089,6.98499,-10.5111,4.37132,1.94064e-14,-1.11319e-14,-32.3128,-39.641,-49.2943,11.8455,3.04839,-23.865,-9.08858,7.12502,2.60777,-39.0524,1.94064e-14,-1.11319e-14,-48.167,46.5812,27.7956,11.6846,8.24599,-17.1363,33.8639,7.12502,9.10382,63.6474,-17.5469,14.4801,6.38833,42.748,-9.75487,-20.3112,-13.1195,-1.53004,-2.45664,-26.8122,26.4096,-23.7324,18.7014,1.42382
-7.05697,18.4807,3.34379,-0.959139,26.0193,1.71295,3.07813,-2.00212,-8.64567,1.93228,-2.86184,-1.09831,0.64763,-1.50414,3.76172,-0.174426,-14.9086,-13.2508,13.8381,-21.5063,12.5959,7.06838,-10.4966,4.29374,-7.79733e-14,1.66979e-14,-29.818,-40.9872,-50.0476,11.8667,2.05399,-23.4829,-7.65049,7.12502,2.97678,-37.6095,-7.79733e-14,1.66979e-14,-44.9878,47.7368,30.1012,11.8055,8.60374,-15.9258,32.8961,7.12502,10.2717,62.6253,-17.6924,14.6664,6.60217,43.3379,-9.70732,-20.9913,-12.9444,-1.52862,-2.40515,-26.621,26.3879,-23.4106,18.3217,1.02719
-7.0316,18.4808,3.32079,-0.913754,26.6244,1.80463,3.06024,-2.04882,-8.69344,1.91694,-2.92384,-1.09184,0.652734,-1.53523,3.79511,-0.354464,-14.9822,-13.333,14.1836,-21.6047,12.4712,7.21917,-10.5375,4.22918,1.73937e-15,9.54166e-15,-28.3003,-40.1077,-50.7139,12.4738,-0.558902,-23.2123,-5.31993,7.12502,3.23807,-35.2751,1.73937e-15,9.54166e-15,-40.9663,45.9558,34.1827,12.3947,12.1096,-16.3897,32.9935,7.12502,9.82417,62.7443,-17.8985,14.7068,6.45935,43.9454,-9.68837,-21.5945,-12.628,-1.56957,-2.50841,-26.7554,26.3322,-23.0785,17.9699,0.907013
-7.00489,18.4697,3.29977,-0.658488,27.2933,2.52191,3.01615,-2.10078,-9.25741,1.92365,-2.99809,-1.29499,0.715172,-1.57788,3.89522,-0.33065,-15.0386,-13.2847,14.3883,-21.6869,12.3381,7.27185,-10.578,4.16823,-6.65432e-14,-2.14687e-14,-27.0429,-40.0565,-50.9283,12.9607,-2.05331,-23.7472,-4.61659,7.12502,2.72154,-34.579,-6.65432e-14,-2.14687e-14,-37.6096,45.0667,36.9927,12.7508,14.0324,-16.781,33.1622,7.12502,9.44669,62.9305,-18.0373,14.2252,5.65191,44.5803,-9.30423,-21.7254,-12.8195,-1.50445,-2.48485,-27.4826,26.2919,-22.737,17.4424,0.640144
-6.98069,18.4632,3.27762,-0.591284,27.8873,2.80125,2.94489,-2.16394,-9.44258,1.93493,-3.07591,-1.38355,0.783427,-1.62053,3.90254,-0.357987,-15.0518,-13.2452,14.6594,-21.7096,12.1972,7.34681,-10.5873,4.10897,5.73991e-14,6.36111e-15,-25.5328,-39.2683,-51.5265,13.7071,-4.11984,-24.4019,-5.51248,7.12502,2.08926,-35.482,5.73991e-14,6.36111e-15,-34.4314,43.8957,39.5542,13.0895,15.7856,-15.7382,32.54,7.12502,10.4527,62.2602,-18.2233,13.9427,5.28366,45.22,-9.21051,-22.0407,-11.8376,-1.46001,-2.37922,-27.7521,26.2432,-22.4139,16.8863,0.470637
-6.96161,18.4626,3.25427,-0.729294,28.4366,2.66756,2.99951,-2.21061,-9.37232,1.93509,-3.1431,-1.31025,0.762245,-1.65317,3.94262,-0.588436,-15.0653,-13.1888,15.0541,-21.7017,11.9207,7.47515,-10.5768,3.99054,2.78795e-14,-6.36111e-15,-23.9235,-38.5148,-52.0173,14.3751,-6.14859,-24.7589,-6.36769,7.12502,1.74441,-36.3403,2.78795e-14,-6.36111e-15,-31.3706,42.331,42.0798,13.5518,18.0813,-14.7353,32.0048,7.12502,11.4201,61.6738,-18.3841,14.0739,5.3858,45.7934,-9.31269,-22.7642,-10.3472,-1.49199,-2.3852,-27.6263,26.3401,-22.2429,16.3961,0.713455
-6.94264,18.4605,3.2345,-0.911669,28.9516,2.6786,3.09941,-2.22864,-9.44923,1.88818,-3.18338,-1.28913,0.668662,-1.66865,4.01349,-0.334378,-15.0336,-13.146,15.185,-21.6574,11.7011,7.43813,-10.575,3.94332,5.69021e-14,1.27222e-14,-22.4768,-38.8157,-51.9033,14.3753,-7.12269,-24.9385,-5.9897,7.12502,1.57098,-35.9637,5.69021e-14,1.27222e-14,-28.5315,40.9543,44.2371,13.9675,20.0273,-14.9165,31.921,7.12502,11.2452,61.5996,-18.3942,14.1705,5.43403,46.3198,-8.85307,-23.4301,-10.4602,-1.46938,-2.38604,-27.6652,26.6013,-22.1632,16.0887,0.226154
-6.92744,18.4616,3.23068,-1.63622,29.224,1.74138,3.01089,-2.20489,-8.80325,1.97541,-3.12429,-1.02256,0.77803,-1.64332,3.92522,-0.204712,-15.0111,-13.2209,15.3159,-21.6338,11.6202,7.45487,-10.5749,3.93942,-6.90528e-14,-7.95139e-15,-20.8341,-39.5489,-51.7642,14.2919,-7.69161,-24.7791,-5.04377,7.12502,1.72495,-35.0165,-6.90528e-14,-7.95139e-15,-25.8119,39.7551,46.1824,14.4415,21.6701,-15.0187,31.7773,7.12502,11.1467,61.4612,-18.3395,14.6816,6.51554,46.8009,-8.559,-24.2959,-10.1054,-1.37329,-2.29536,-26.7611,26.9262,-22.2176,15.779,-0.144824
-6.90232,18.4576,3.1944,-1.82974,29.829,1.35429,3.047,-2.28539,-8.26193,1.96023,-3.22467,-0.959574,0.726114,-1.68623,3.69333,-0.337012,-15.0359,-13.2243,15.5653,-21.659,11.4982,7.54885,-10.5825,3.88211,5.37464e-14,1.11319e-14,-19.0833,-39.5905,-51.9588,14.607,-8.8922,-24.8896,-4.38174,7.12502,1.61824,-34.3553,5.37464e-14,1.11319e-14,-23.048,37.5674,48.2804,15.1839,24.4146,-14.8991,31.5075,7.12502,11.2621,61.1851,-18.5788,14.5209,6.80757,47.3698,-8.47129,-24.8053,-9.20044,-1.48081,-2.3783,-26.453,26.9756,-21.9872,15.3555,-0.0676997
-6.87627,18.4491,3.15067,-1.47663,30.5568,1.72374,3.04518,-2.40792,-8.32357,1.8125,-3.39653,-1.09085,0.590748,-1.76187,3.59755,-0.38396,-15.0396,-13.2056,15.8487,-21.6592,11.3285,7.62819,-10.5834,3.81753,-5.48149e-14,1.43125e-14,-17.3603,-39.2175,-52.2094,15.0429,-10.4005,-25.2571,-4.80574,7.12502,1.26327,-34.7817,-5.48149e-14,1.43125e-14,-20.573,35.6428,49.8945,15.9604,27.0175,-15.1415,31.6724,7.12502,11.0282,61.3627,-19.0388,14.0483,6.26463,48.0125,-8.15607,-25.0865,-8.89309,-1.74673,-2.51686,-26.8808,26.916,-21.6426,14.9418,-0.29992
-6.82928,18.4369,3.14134,-0.491691,31.5389,3.42546,2.51167,-2.63396,-9.53341,1.80079,-3.65787,-1.54252,0.962329,-1.9125,3.77022,-0.298076,-15.0101,-13.312,15.9947,-21.6518,11.4031,7.68156,-10.5813,3.85902,1.06598e-13,1.66979e-14,-15.5474,-39.4525,-52.3604,15.3388,-11.4694,-25.7661,-5.74031,7.12502,0.7717,-35.7187,1.06598e-13,1.66979e-14,-18.2605,35.2787,50.966,16.493,28.1522,-14.9102,31.5309,7.12502,11.2514,61.2092,-19.1867,13.1465,4.4075,48.7269,-8.01901,-24.9892,-8.28458,-1.63699,-2.52763,-28.5434,26.6345,-21.2501,14.2683,-0.611424
-6.80522,18.4275,3.11535,0.0220569,32.1409,4.29712,2.36854,-2.7354,-10.1792,1.76321,-3.78437,-1.75404,1.05175,-1.98167,3.89832,-0.323192,-14.9764,-13.3815,16.1177,-21.6279,11.4831,7.74059,-10.5645,3.89127,4.23908e-14,-2.38542e-14,-13.5569,-39.5203,-52.6358,15.7014,-12.875,-26.0573,-6.41162,7.12502,0.490407,-36.3908,4.23908e-14,-2.38542e-14,-15.9975,33.8148,52.1971,17.3392,30.4568,-14.7109,31.4227,7.12502,11.4436,61.0904,-19.5484,12.8081,3.44023,49.4416,-7.83317,-25.153,-7.13741,-1.55593,-2.5343,-29.3813,26.2836,-20.877,13.7963,-0.703839
-6.78044,18.4217,3.10446,-0.0378967,32.6339,4.48332,2.2864,-2.79979,-10.3344,1.83853,-3.85525,-1.76331,1.19761,-2.02735,3.96547,-0.537576,-14.991,-13.4959,16.3401,-21.6425,11.4673,7.86443,-10.5634,3.87562,1.17034e-14,2.38542e-15,-11.5388,-38.4845,-53.0162,16.4195,-15.37,-26.6402,-6.9352,7.12502,-0.0725818,-36.9149,1.17034e-14,2.38542e-15,-13.9287,31.4385,53.411,18.5387,33.9328,-15.1213,31.592,7.12502,11.0478,61.2812,-19.5936,12.7745,3.26381,50.0783,-7.72018,-25.3834,-5.66405,-1.18537,-2.43936,-29.5535,25.9182,-20.6371,13.2803,-0.487874
-6.75708,18.4152,3.09777,-0.137563,33.1242,4.66219,2.27797,-2.85542,-10.5517,1.8479,-3.92984,-1.75272,1.2399,-2.06914,4.09375,-0.528414,-14.9834,-13.5857,16.5343,-21.624,11.3372,7.92005,-10.5637,3.84594,-4.0229e-14,-6.36111e-15,-9.79359,-37.1482,-53.2191,17.2722,-17.9429,-27.5561,-7.55017,7.12502,-0.957167,-37.5278,-4.0229e-14,-6.36111e-15,-12.1612,29.3336,54.2955,19.8433,37.1528,-15.2565,31.6548,7.12502,10.9174,61.351,-19.5864,12.7669,3.11151,50.6512,-7.52277,-25.6558,-4.22051,-0.891903,-2.36246,-29.7119,25.7918,-20.5067,12.8145,-0.182445
-6.73137,18.4067,3.08532,-0.156361,33.6965,4.94132,2.34014,-2.93951,-10.7045,1.79996,-4.05401,-1.82981,1.17912,-2.12689,4.1014,-0.442145,-14.9347,-13.6602,16.7716,-21.5704,11.2507,7.97543,-10.5467,3.83899,4.90253e-14,2.62396e-14,-8.10539,-36.537,-53.3128,17.8886,-19.9632,-28.0525,-7.75616,7.12502,-1.4366,-37.7311,4.90253e-14,2.62396e-14,-10.573,27.1839,54.8641,21.2076,40.4826,-14.8965,31.6896,7.12502,11.2646,61.3671,-19.5711,12.6253,2.82824,51.1733,-7.13495,-25.9969,-3.06148,-0.67911,-2.28235,-29.9742,25.7779,-20.368,12.3008,-0.191514
-6.70837,18.3988,3.07345,-0.0717257,34.2351,5.30659,2.35825,-3.01157,-10.9434,1.75772,-4.15683,-1.93071,1.15099,-2.17613,4.12866,-0.460369,-14.9157,-13.5897,16.9763,-21.5363,11.0886,8.01517,-10.5319,3.77931,7.72278e-14,4.6118e-14,-6.42361,-36.0542,-53.3754,18.5705,-22.0404,-28.2085,-7.94046,7.12502,-1.58732,-37.9143,7.72278e-14,4.6118e-14,-8.84084,25.8754,55.3244,22.3597,43.0774,-14.7944,31.7071,7.12502,11.3631,61.3792,-19.6146,12.5277,2.48106,51.6826,-6.67401,-26.4317,-1.4235,-0.568963,-2.05532,-30.2739,25.8256,-20.186,11.6851,-0.28466
-6.69248,18.3952,3.07133,-0.24422,34.6024,5.23266,2.30727,-3.00413,-10.985,1.75228,-4.14091,-1.91922,1.17562,-2.16969,4.1606,-0.464573,-14.9476,-13.4089,17.0863,-21.5581,10.8672,8.00881,-10.544,3.68216,6.51889e-14,-2.38542e-15,-4.87274,-35.4872,-53.364,19.4282,-24.3859,-28.5132,-8.23466,7.12502,-1.8816,-38.2061,6.51889e-14,-2.38542e-15,-7.05833,24.712,55.7812,23.5764,45.438,-15.364,31.8002,7.12502,10.8137,61.5018,-19.7073,12.6811,2.62637,52.1783,-6.39939,-26.9362,0.215777,-0.456223,-1.93792,-30.1719,25.8772,-20.132,11.2149,-0.192147
-6.67217,18.3928,3.07282,-0.556229,34.9266,5.02087,2.25549,-3.00759,-10.9109,1.75831,-4.13807,-1.84774,1.21033,-2.1704,4.19088,-0.41262,-15.0044,-13.3852,17.2633,-21.6143,10.6221,8.03521,-10.5838,3.59529,-4.29872e-14,1.90833e-14,-3.18774,-35.0473,-53.3559,20.1847,-26.5189,-28.6699,-8.2918,7.12502,-2.03286,-38.2619,-4.29872e-14,1.90833e-14,-5.4644,23.4018,56.1253,24.9332,48.0987,-16.279,31.9831,7.12502,9.93097,61.7289,-19.7216,12.8476,2.91548,52.6601,-6.25251,-27.2822,1.30379,-0.270862,-1.84963,-29.9767,25.9586,-20.1025,10.9305,-0.4273
-6.64664,18.3887,3.0643,-0.592501,35.3972,5.2042,2.24953,-3.07439,-11.0618,1.74121,-4.2292,-1.83119,1.22296,-2.21746,4.28945,-0.357005,-15.0399,-13.4541,17.394,-21.6376,10.4152,8.05639,-10.6118,3.53778,3.20665e-14,1.66979e-14,-1.43889,-34.5981,-53.2913,20.9982,-28.6045,-28.4266,-8.08722,7.12502,-1.79791,-38.0594,3.20665e-14,1.66979e-14,-3.99417,22.2075,56.3852,26.3622,50.9295,-16.5037,31.9561,7.12502,9.71422,61.712,-19.7384,12.6815,2.78991,53.1398,-5.77139,-27.4543,2.13398,-0.121718,-1.83305,-30.1537,26.0547,-20.0604,10.5116,-0.498769
-6.62284,18.3818,3.04985,-0.479543,35.9011,5.42031,2.2077,-3.16387,-11.1411,1.6861,-4.34676,-1.87896,1.20959,-2.27334,4.28071,-0.465047,-15.0646,-13.4989,17.6133,-21.655,10.2812,8.14048,-10.6224,3.48486,-6.2406e-14,1.43125e-14,0.15329,-33.9843,-53.2159,21.9899,-30.9825,-28.272,-7.65347,7.12502,-1.64866,-37.6268,-6.2406e-14,1.43125e-14,-2.58856,20.8769,56.4172,27.8621,53.9503,-16.586,31.8316,7.12502,9.63476,61.5913,-19.8913,12.3518,2.58794,53.594,-5.33533,-27.496,3.77484,-0.124464,-1.88375,-30.3637,26.1474,-19.9381,10.1256,-0.656242
-6.59879,18.3746,3.03987,-0.570264,36.2883,5.47499,2.24149,-3.20696,-11.0316,1.65956,-4.40827,-1.95366,1.15739,-2.29828,4.14572,-0.693649,-15.0889,-13.5099,18.0052,-21.6807,10.1499,8.30124,-10.6267,3.41312,5.08656e-14,4.45278e-14,1.58689,-33.1576,-53.085,23.0987,-33.629,-28.358,-7.2903,7.12502,-1.73164,-37.263,5.08656e-14,4.45278e-14,-1.14637,19.8403,56.3779,29.3361,56.6184,-16.4676,32.0538,7.12502,9.74908,61.8082,-19.9538,12.1813,2.55627,54.0181,-5.04138,-27.5017,6.08985,0.00998325,-1.89937,-30.4548,26.2249,-19.8693,9.85774,-0.727605
-6.57419,18.3746,3.04033,-1.02914,36.5483,5.09517,2.23063,-3.20648,-10.7378,1.71257,-4.39992,-1.85703,1.20173,-2.29665,4.08283,-0.827376,-15.0843,-13.5087,18.2234,-21.6454,9.96993,8.37245,-10.6122,3.34575,1.01888e-13,-3.97569e-15,3.03702,-32.3572,-52.877,24.2561,-36.0833,-28.665,-8.30963,7.12502,-2.02813,-38.2797,1.01888e-13,-3.97569e-15,0.268334,19.0691,56.424,30.8605,59.0056,-16.0475,32.2979,7.12502,10.1544,62.0328,-19.8776,12.3478,3.00315,54.3854,-4.75803,-27.6327,8.76263,0.265446,-1.90282,-30.1741,26.3312,-19.9601,9.66412,-0.55814
-6.55051,18.374,3.04169,-1.44603,36.8024,4.76943,2.24659,-3.1881,-10.5011,1.73383,-4.37432,-1.7809,1.19812,-2.2832,4.03312,-0.776199,-15.0921,-13.434,18.306,-21.6347,9.78022,8.35919,-10.6164,3.28155,2.83951e-14,-4.53229e-14,4.27799,-31.4963,-52.5261,25.5316,-38.5408,-28.8719,-9.37857,7.12502,-2.22802,-39.3467,2.83951e-14,-4.53229e-14,1.50362,17.9831,56.2952,32.5803,61.7222,-16.0896,32.2884,7.12502,10.1137,62.0254,-19.8121,12.5306,3.40168,54.7171,-4.64777,-27.5723,11.2439,0.515634,-1.84239,-29.9138,26.4283,-20.0309,9.39235,-0.262449
-6.52726,18.3664,3.0435,-1.61123,37.1322,4.79864,2.31445,-3.21571,-10.4821,1.68068,-4.4232,-1.81559,1.10711,-2.30087,3.9928,-0.576491,-15.1084,-13.4527,18.3468,-21.6636,9.6891,8.33368,-10.6453,3.26732,-8.75771e-14,-1.27222e-14,5.42753,-30.6211,-52.1682,26.8843,-41.005,-28.8564,-9.41106,7.12502,-2.21303,-39.3793,-8.75771e-14,-1.27222e-14,2.55755,16.8067,55.9443,34.4447,64.7828,-16.9979,32.3528,7.12502,9.23736,62.1304,-19.7649,12.486,3.45045,55.0204,-4.38395,-27.0785,12.128,0.744454,-1.79919,-29.9551,26.4932,-20.0031,9.1354,-0.487473
-6.50442,18.3632,3.05093,-1.63971,37.4963,4.76892,2.16774,-3.29477,-10.4278,1.6144,-4.5137,-1.81489,1.12894,-2.34421,3.95559,-0.583609,-15.1147,-13.5829,18.5049,-21.669,9.62986,8.39767,-10.6568,3.2594,1.08189e-13,1.19271e-14,6.7041,-29.9582,-51.9157,28.2144,-43.1843,-28.8244,-9.22194,7.12502,-2.18208,-39.1905,1.08189e-13,1.19271e-14,3.62135,15.9835,55.6554,36.376,67.5783,-17.9094,32.4702,7.12502,8.35773,62.2848,-19.8482,12.4107,3.53781,55.273,-4.1333,-26.4761,12.1469,0.822935,-1.87184,-29.9382,26.5193,-19.9963,8.88135,-0.447394
-6.48042,18.3634,3.05593,-1.70721,37.7453,4.72816,2.07113,-3.34426,-10.3766,1.56135,-4.5708,-1.79778,1.1331,-2.37085,3.94011,-0.765332,-15.0988,-13.5952,18.7613,-21.6089,9.41894,8.48552,-10.632,3.18229,1.02374e-13,1.59028e-14,8.03615,-29.5638,-51.7432,29.5727,-45.0261,-28.5341,-9.48831,7.12502,-1.90177,-39.4596,1.02374e-13,1.59028e-14,4.58444,15.3609,55.3837,38.4742,70.2085,-18.6934,32.5482,7.12502,7.60112,62.3916,-19.9247,12.5658,3.61582,55.4543,-4.10142,-25.7839,12.5984,0.958367,-1.99617,-29.9555,26.5062,-20.0526,8.74746,-0.034816
-6.45699,18.3613,3.0585,-1.80232,38.0006,4.78595,2.12161,-3.37565,-10.4607,1.52276,-4.62337,-1.76593,1.08174,-2.39456,4.02331,-0.872592,-15.0928,-13.4934,18.9033,-21.541,9.09775,8.49459,-10.6099,3.06705,1.22153e-13,9.54166e-15,9.27632,-29.0156,-51.3952,31.1014,-47.09,-28.2899,-10.1136,7.12502,-1.66589,-40.0868,1.22153e-13,9.54166e-15,5.511,14.9175,55.1419,40.5382,72.1849,-19.2221,32.4432,7.12502,7.09078,62.3044,-19.8919,12.8264,3.60014,55.5302,-4.26412,-24.8432,12.4062,1.16116,-2.1176,-30.0736,26.5127,-20.0787,8.71968,0.0674615
-6.43448,18.3588,3.06495,-1.64713,38.3587,4.95729,1.95297,-3.42638,-10.6294,1.45655,-4.67535,-1.77551,1.12831,-2.4216,4.09561,-0.84896,-15.1099,-13.3721,18.9362,-21.5352,8.89468,8.46314,-10.6146,2.99111,4.57205e-14,-3.4191e-14,10.2875,-28.4023,-50.8766,32.8193,-49.2994,-28.2389,-10.6442,7.12502,-1.61663,-40.6178,4.57205e-14,-3.4191e-14,6.52215,14.6949,54.9748,42.5172,73.319,-19.2404,32.2069,7.12502,7.07313,62.0687,-19.9786,12.9025,3.45069,55.511,-4.39018,-23.6713,11.3016,1.14795,-2.2381,-30.244,26.5771,-20.0641,8.5487,-0.0846042
-6.413,18.3582,3.07924,-1.89436,38.5811,4.62837,1.82493,-3.43433,-10.4263,1.4331,-4.67023,-1.70928,1.16328,-2.41902,4.04567,-0.865172,-15.0869,-13.2085,18.971,-21.4869,8.76017,8.43702,-10.5902,2.93449,-4.09496e-14,2.3059e-14,11.1428,-27.8101,-50.3365,34.7183,-51.4542,-28.042,-10.7434,7.12502,-1.42647,-40.7184,-4.09496e-14,2.3059e-14,7.59092,14.9214,54.9295,44.4719,73.8551,-18.3528,32.436,7.12502,7.92983,62.2672,-19.9508,13.1764,3.83504,55.4135,-4.50828,-22.5215,10.2177,1.24803,-2.29081,-29.9698,26.6696,-20.0931,8.40132,-0.15478
-6.39078,18.3583,3.09295,-2.42626,38.7346,4.02523,1.87754,-3.40932,-9.97646,1.4308,-4.64188,-1.57964,1.1001,-2.39993,3.9386,-0.982684,-15.1097,-13.1499,19.0829,-21.4967,8.64168,8.47606,-10.5931,2.87609,-6.96492e-14,-2.70347e-14,11.9158,-27.3315,-49.7403,36.7915,-53.6421,-27.4634,-11.1257,7.12502,-0.867664,-41.1037,-6.96492e-14,-2.70347e-14,8.71585,15.5647,55.0976,46.4275,73.7906,-16.9031,33.0885,7.12502,9.32886,62.8621,-19.8236,13.6217,4.48252,55.241,-4.80786,-21.3752,9.5111,1.48016,-2.40304,-29.4953,26.7675,-20.2493,8.35344,-0.0766249
-6.36857,18.3536,3.10434,-2.21507,39.0033,4.23898,1.74337,-3.47176,-10.1929,1.36386,-4.71536,-1.54825,1.13709,-2.43819,4.08143,-1.22174,-15.1489,-13.199,19.2613,-21.498,8.44234,8.56136,-10.5987,2.79427,4.48756e-14,1.98785e-15,12.8616,-26.9486,-49.2346,38.9202,-55.6366,-27.0811,-11.6403,7.12502,-0.498375,-41.6195,4.48756e-14,1.98785e-15,9.74249,16.4405,55.3597,48.5037,73.4239,-15.2768,33.6997,7.12502,10.8977,63.3969,-19.961,13.7965,4.27689,55.0462,-5.20845,-20.0174,8.47518,1.44331,-2.4695,-29.691,26.8631,-20.3116,8.17302,-0.139917
-6.34873,18.3527,3.12307,-2.0763,39.2057,4.38583,1.59534,-3.51952,-10.4254,1.33224,-4.76473,-1.50115,1.21856,-2.468,4.24697,-1.48105,-15.123,-13.2219,19.3889,-21.4153,8.30703,8.62737,-10.5588,2.74137,8.69683e-14,1.55052e-14,13.7523,-26.6846,-48.773,41.1585,-57.5242,-26.6991,-11.8625,7.12502,-0.129489,-41.8422,8.69683e-14,1.55052e-14,10.6787,17.3331,55.585,50.7718,73.2494,-13.9979,33.7654,7.12502,12.1311,63.3937,-20.0761,14.0531,4.18796,54.8013,-5.60249,-18.8166,7.3296,1.47882,-2.38167,-29.7808,26.8762,-20.3322,7.92724,-0.106088
-6.33017,18.3532,3.14337,-2.21011,39.3506,4.23703,1.56586,-3.48541,-10.4692,1.33744,-4.7173,-1.38568,1.24711,-2.44784,4.38955,-1.68026,-15.1297,-13.1723,19.3974,-21.3778,8.17315,8.63926,-10.5398,2.68181,7.89921e-14,-1.07344e-14,14.3722,-26.6194,-48.1425,43.6996,-59.6036,-26.3794,-12.0299,7.12502,0.179321,-42.0095,7.89921e-14,-1.07344e-14,11.7842,18.3215,56.1072,53.0682,73.0661,-14.3654,32.8359,7.12502,11.7767,62.4848,-20.107,14.4319,4.40845,54.4907,-6.02537,-17.728,6.39716,1.65755,-2.50053,-29.6724,26.7878,-20.3745,7.87315,0.304545
-6.30544,18.3535,3.15578,-2.17691,39.6562,4.38083,1.63699,-3.51536,-10.5906,1.34642,-4.7666,-1.36485,1.23647,-2.47353,4.48092,-1.67824,-15.1374,-13.1343,19.1899,-21.3676,8.15496,8.56016,-10.5371,2.67885,-7.45443e-16,-1.55052e-14,14.9072,-26.516,-47.4357,46.4694,-61.4276,-26.0891,-12.438,7.12502,0.459729,-42.4172,-7.45443e-16,-1.55052e-14,12.9879,19.5619,56.8042,55.3861,72.8807,-13.4869,32.7669,7.12502,12.6238,62.3654,-19.9824,14.7175,4.36137,54.0856,-6.53508,-16.6961,5.83716,1.85604,-2.65963,-29.8524,26.7273,-20.3669,7.84734,0.32004
-6.28033,18.359,3.17154,-2.20446,39.935,4.31478,1.65882,-3.55604,-10.5003,1.32049,-4.82485,-1.35242,1.19932,-2.49923,4.44573,-1.49298,-15.1256,-13.1236,18.9093,-21.3833,8.33143,8.45316,-10.5421,2.7537,1.0061e-13,-5.56597e-15,15.3503,-26.5287,-46.8067,49.079,-62.3948,-24.8733,-12.2953,7.12502,1.6339,-42.2688,1.0061e-13,-5.56597e-15,14.134,20.6889,57.4001,57.7843,72.9305,-12.7145,32.669,7.12502,13.3684,62.2201,-19.8586,15.2669,4.55046,53.5755,-7.09465,-16.1734,4.90553,1.9473,-2.82747,-29.8359,26.7397,-20.4011,7.71411,0.383497
-6.25896,18.3628,3.18851,-2.35189,40.0356,3.86328,1.5479,-3.55688,-10.0954,1.26656,-4.81405,-1.29543,1.17325,-2.48813,4.27819,-1.4846,-15.0976,-13.0491,18.7233,-21.3739,8.52012,8.40026,-10.5225,2.81053,1.2921e-14,5.96354e-15,15.6097,-26.4591,-46.1264,51.8234,-63.6351,-23.6583,-11.1574,7.12502,2.80738,-41.1186,1.2921e-14,5.96354e-15,15.1717,21.5959,57.8319,60.3506,73.3883,-12.3386,32.2043,7.12502,13.7306,61.7312,-19.9812,15.8288,5.01518,53.0016,-7.51334,-15.7273,3.66344,1.85616,-2.97365,-29.481,26.7932,-20.4467,7.63801,0.551144
-6.23938,18.3591,3.20408,-2.41676,40.2043,3.59498,1.57072,-3.56188,-9.82655,1.20626,-4.82629,-1.26162,1.07879,-2.48628,4.17027,-1.79264,-15.0679,-13.0676,18.7276,-21.3368,8.6908,8.47254,-10.4812,2.84498,7.97623e-15,-9.93923e-15,15.6579,-26.2969,-45.2993,55.2345,-65.8285,-24.113,-10.2013,7.12502,2.36823,-40.1679,7.97623e-15,-9.93923e-15,16.1707,22.47,58.3217,63.0615,74.1561,-12.0476,32.1981,7.12502,14.0111,61.7059,-20.0948,16.0334,5.26629,52.3861,-7.78829,-15.0159,2.90194,1.76678,-3.05081,-29.2593,26.8952,-20.4849,7.56125,0.55144
-6.21982,18.3536,3.22116,-2.34412,40.4741,3.67804,1.65458,-3.59715,-9.90184,1.21142,-4.88347,-1.2529,1.05279,-2.51443,4.22502,-2.05034,-15.0624,-13.0594,18.6207,-21.3122,8.78252,8.48765,-10.4536,2.85705,3.98315e-14,5.1684e-15,15.912,-26.4149,-44.5877,58.5215,-67.4968,-24.3759,-9.45891,7.12502,2.1143,-39.4282,3.98315e-14,5.1684e-15,17.2305,23.3995,58.9197,65.819,74.899,-11.9049,32.3826,7.12502,14.1486,61.8808,-20.0503,16.1644,5.23414,51.7538,-8.22959,-14.3785,2.54182,1.7841,-3.19497,-29.3536,27.0251,-20.5667,7.61971,0.151181
-6.19838,18.3523,3.23564,-2.26646,40.755,3.7054,1.6926,-3.6202,-9.87825,1.25759,-4.9156,-1.22219,1.08513,-2.53355,4.2438,-2.19452,-15.1096,-13.1019,18.2904,-21.362,8.94883,8.43064,-10.4668,2.9025,3.02898e-14,1.66979e-14,16.2921,-26.8013,-43.8898,61.4037,-68.1884,-23.2525,-8.17526,7.12502,3.19925,-38.131,3.02898e-14,1.66979e-14,18.3728,24.2155,59.5623,68.5494,75.8174,-11.613,31.9201,7.12502,14.4299,61.3985,-20.0342,16.3637,5.24197,51.0873,-8.73273,-13.9062,1.73017,1.77473,-3.36551,-29.4055,27.1102,-20.6454,7.62519,-0.264103
-6.17808,18.3535,3.25019,-2.1412,41.0246,3.71468,1.81571,-3.6262,-9.78352,1.21592,-4.93979,-1.24728,0.96536,-2.53784,4.17653,-2.26358,-15.1505,-12.9983,17.9746,-21.4232,9.10991,8.34959,-10.4804,2.93294,9.23106e-14,-7.95139e-16,16.4883,-27.1691,-43.1404,64.2787,-68.6798,-21.9417,-7.21963,7.12502,4.4651,-37.1526,9.23106e-14,-7.95139e-16,19.3999,24.9207,60.1182,71.2993,76.9437,-10.8673,31.2542,7.12502,15.1483,60.6798,-20.1027,16.5316,5.25649,50.3868,-9.17982,-13.5243,0.542585,1.71526,-3.50235,-29.4152,27.1755,-20.7007,7.50242,0.0383067
-6.16102,18.35,3.26958,-2.10696,41.3057,3.67287,1.97074,-3.63889,-9.72976,1.19766,-4.9752,-1.27451,0.857155,-2.54935,4.13065,-2.22947,-15.1491,-12.8226,17.6077,-21.4446,9.31558,8.22588,-10.4735,2.98449,1.18277e-14,-6.36111e-15,16.6684,-27.6254,-42.4847,67.2047,-69.04,-20.7467,-6.46922,7.12502,5.6189,-36.3747,1.18277e-14,-6.36111e-15,20.2656,25.6082,60.4848,74.1435,78.0001,-10.05,30.633,7.12502,15.9355,59.9975,-20.0713,16.613,5.35303,49.6382,-9.74126,-13.3146,-0.0399304,1.73212,-3.67049,-29.3674,27.2463,-20.7715,7.34044,0.550535
-6.14205,18.3491,3.28859,-2.39835,41.5036,3.15886,2.0486,-3.64866,-9.31869,1.26281,-4.98911,-1.1606,0.857208,-2.55693,4.02602,-2.25738,-15.1036,-12.8027,17.1615,-21.385,9.57015,8.10098,-10.4333,3.07843,-1.2921e-15,-1.39149e-14,16.9413,-28.1373,-41.8165,70.1542,-69.4078,-19.4237,-4.85715,7.12502,6.89615,-34.7248,-1.2921e-15,-1.39149e-14,21.1609,26.3895,60.8681,77.056,79.0753,-9.64912,29.8724,7.12502,16.3215,59.2056,-20.039,16.8778,5.86041,48.8612,-10.233,-13.2992,-0.222764,1.77304,-3.76152,-28.9294,27.2666,-20.8621,7.17463,0.737252
-6.12282,18.3517,3.30546,-2.59813,41.6818,2.74463,2.20912,-3.64404,-8.8882,1.25917,-4.99567,-1.10013,0.731415,-2.55271,3.86483,-2.21905,-15.0416,-12.912,16.7503,-21.3197,9.91239,8.00108,-10.3941,3.22033,-1.03356e-13,1.78906e-14,17.0748,-28.6322,-41.1034,73.1082,-69.7192,-18.0551,-3.27658,7.12502,8.21716,-33.0968,-1.03356e-13,1.78906e-14,22.0596,27.1085,61.3476,79.9784,80.2016,-9.57904,28.8271,7.12502,16.389,58.1547,-20.0774,17.1658,6.25259,48.0532,-10.5656,-13.3018,-0.831458,1.79131,-3.84694,-28.5819,27.2584,-20.9279,7.05527,0.75348
-6.10854,18.3548,3.32982,-2.20362,41.8395,3.08486,2.24408,-3.62195,-9.13451,1.23432,-4.97433,-1.17681,0.698,-2.5405,3.92458,-2.20824,-15.0193,-12.963,16.3905,-21.3008,10.1798,7.91373,-10.3769,3.32131,2.41896e-14,2.18663e-14,17.2803,-29.2273,-40.4862,75.9863,-69.8268,-17.0562,-2.88684,7.12502,9.18112,-32.667,2.41896e-14,2.18663e-14,23.0698,27.8304,61.9261,82.7813,81.1921,-9.37028,27.8246,7.12502,16.59,57.1355,-20.2783,17.4915,5.95184,47.2202,-10.8897,-13.3196,-0.608288,1.71311,-3.95565,-28.8344,27.2324,-20.9523,6.98157,0.626872
-6.089,18.357,3.3522,-2.10885,41.9623,3.0524,2.22799,-3.61033,-9.10317,1.28281,-4.95368,-1.14453,0.754921,-2.53414,3.93751,-2.14137,-14.9792,-12.9632,15.897,-21.2392,10.391,7.75539,-10.3461,3.41269,5.59703e-14,5.56597e-15,17.5777,-29.8484,-39.851,78.8448,-69.6824,-16.2558,-2.71621,7.12502,9.95338,-32.4609,5.59703e-14,5.56597e-15,24.0415,28.6273,62.5373,85.6081,82.2296,-9.05089,27.398,7.12502,16.8975,56.6829,-20.4107,17.8648,5.95514,46.3533,-11.3206,-13.3959,0.492468,1.72731,-4.03277,-28.8049,27.1742,-20.976,6.94852,0.450251
-6.06628,18.3586,3.3692,-2.22782,42.1619,2.71927,2.31189,-3.64388,-8.72505,1.31193,-5.0001,-1.10804,0.714115,-2.55439,3.77247,-2.12241,-14.9097,-12.8728,15.4687,-21.1316,10.5346,7.60379,-10.2903,3.47306,-6.46796e-14,1.19271e-14,17.7643,-30.4609,-39.2342,81.6397,-69.5124,-15.0766,-2.30624,7.12502,11.0909,-31.9932,-6.46796e-14,1.19271e-14,24.8628,29.382,62.92,88.3496,83.2322,-8.52615,26.937,7.12502,17.4025,56.1779,-20.4707,18.0792,6.21664,45.4515,-11.7068,-13.5075,0.680289,1.7652,-4.13769,-28.5372,27.0952,-20.9813,6.88321,0.227337
-6.05244,18.3599,3.39,-2.19618,42.2965,2.57758,2.48595,-3.64793,-8.53504,1.28159,-5.02217,-1.11933,0.569868,-2.5575,3.67105,-2.13067,-14.7973,-12.7832,15.1228,-20.9718,10.6885,7.47927,-10.2066,3.53978,1.72694e-14,1.90833e-14,17.9159,-31.1364,-38.6812,84.2503,-69.4011,-13.2632,-2.29394,7.12502,12.8395,-31.8791,1.72694e-14,1.90833e-14,25.6419,30.1257,63.2532,91.0084,83.9699,-7.52755,26.2234,7.12502,18.3634,55.3766,-20.5983,18.2881,6.34562,44.5297,-11.8975,-13.7009,0.150933,1.73148,-4.16957,-28.3806,27.0321,-20.9685,6.82609,-0.169542
-6.03682,18.3592,3.40936,-2.30202,42.4333,2.43048,2.83896,-3.63042,-8.27038,1.26315,-5.03036,-1.15651,0.327038,-2.54985,3.51514,-2.06517,-14.6578,-12.7626,14.7784,-20.7874,10.9018,7.35419,-10.1142,3.64228,-5.16281e-14,1.19271e-14,18.0581,-31.8658,-38.1451,86.654,-69.3261,-10.8985,-1.67153,7.12502,15.1183,-31.0994,-5.16281e-14,1.19271e-14,26.4426,30.8967,63.6499,93.6641,84.6128,-6.2852,25.8319,7.12502,19.5582,54.8682,-20.5614,18.5539,6.50539,43.5926,-12.085,-13.9166,-0.487313,1.88359,-4.22482,-28.2524,26.9448,-21.0471,6.71396,0.0760241
-6.01732,18.3601,3.42837,-2.35131,42.6001,2.35991,3.0806,-3.59176,-8.07426,1.28396,-4.99677,-1.19145,0.188835,-2.52712,3.3888,-1.94566,-14.5433,-12.6857,14.3598,-20.6283,11.0641,7.18742,-10.038,3.72403,5.22928e-14,1.03368e-14,18.1506,-32.6191,-37.4808,88.8244,-68.8884,-7.72518,0.653576,7.12502,18.1733,-28.5175,5.22928e-14,1.03368e-14,27.3856,31.5911,64.2836,96.2366,85.2647,-5.28321,25.3821,7.12502,20.5213,54.3175,-20.5133,18.8234,6.5711,42.6543,-12.4287,-14.078,-0.901037,2.05873,-4.29962,-28.2039,26.8344,-21.1753,6.64348,0.405611
-6.00192,18.3615,3.45055,-2.08757,42.7284,2.5033,3.10082,-3.57672,-8.16705,1.27711,-4.98122,-1.20824,0.175242,-2.51878,3.42409,-1.73111,-14.3776,-12.55,13.7395,-20.3776,11.1637,6.91556,-9.92751,3.80325,-2.91841e-14,1.35174e-14,18.3856,-33.3345,-36.9238,90.8742,-68.2437,-4.76876,2.65631,7.12502,21.0156,-26.225,-2.91841e-14,1.35174e-14,28.2035,32.3108,64.7829,98.7486,86.0765,-4.50753,24.8394,7.12502,21.2665,53.6927,-20.7154,19.1021,6.39544,41.7252,-12.7128,-14.1929,-1.48655,2.06385,-4.32348,-28.2864,26.6556,-21.2081,6.5889,0.617932
-5.98617,18.3618,3.46968,-1.9848,42.7982,2.37447,3.10899,-3.54796,-7.96378,1.29096,-4.93776,-1.20103,0.162772,-2.49623,3.31993,-1.64175,-14.1693,-12.4348,13.2106,-20.0762,11.337,6.69974,-9.7821,3.90113,6.38006e-14,2.3059e-14,18.6321,-34.1579,-36.4384,92.8967,-67.8424,-2.61237,3.4091,7.12502,23.0859,-25.2279,6.38006e-14,2.3059e-14,29.0266,33.0507,65.1997,101.165,86.9509,-3.57512,24.3978,7.12502,22.1619,53.1475,-20.9791,19.4329,6.40821,40.8054,-12.9433,-14.2881,-1.63063,2.05718,-4.41727,-28.1803,26.4119,-21.1412,6.63557,0.4965
-5.96816,18.3644,3.49551,-1.7225,42.8261,2.51681,3.05769,-3.52178,-7.98152,1.31543,-4.89658,-1.24011,0.2102,-2.47769,3.28442,-1.73001,-13.9262,-12.3661,12.9094,-19.7217,11.4571,6.5799,-9.60431,3.97578,3.50921e-15,1.66979e-14,18.8713,-34.8797,-35.9921,94.8056,-67.6562,-0.839904,3.94246,7.12502,24.7857,-24.4714,3.50921e-15,1.66979e-14,29.8182,33.8557,65.6633,103.416,87.6061,-2.23737,24.1487,7.12502,23.4457,52.7402,-21.253,19.6968,6.19616,39.8949,-13.1121,-14.228,-0.834422,2.10045,-4.4715,-28.2865,26.1743,-21.1245,6.61602,0.838487
-5.95137,18.3689,3.52363,-1.36404,42.8681,2.88089,3.09722,-3.52667,-8.23458,1.31364,-4.9128,-1.30199,0.204615,-2.48584,3.3624,-1.83966,-13.6533,-12.1865,12.6491,-19.3002,11.3589,6.43503,-9.39987,3.97481,-1.53696e-13,1.11319e-14,19.1618,-35.4162,-35.5956,96.5047,-67.4849,0.641459,4.6554,7.12502,26.2046,-23.5556,-1.53696e-13,1.11319e-14,30.4561,34.7365,65.9906,105.573,88.2379,-0.795438,23.7499,7.12502,24.8283,52.1579,-21.4503,19.91,5.83252,38.972,-13.316,-14.1308,-0.768759,2.21775,-4.57397,-28.5722,25.9539,-21.1758,6.62705,1.19322
-5.93436,18.3706,3.54298,-1.35289,42.9031,2.70964,3.20854,-3.53774,-8.00573,1.30331,-4.93347,-1.28292,0.115769,-2.49184,3.26544,-1.90654,-13.3704,-11.9414,12.309,-18.8699,11.2826,6.25413,-9.19013,3.97627,-2.16986e-14,7.15625e-15,19.4514,-35.9767,-35.2767,98.1,-67.3647,1.70398,4.95385,7.12502,27.2215,-23.102,-2.16986e-14,7.15625e-15,31.1024,35.6182,66.29,107.608,88.748,0.648771,23.5141,7.12502,26.2116,51.724,-21.6637,20.1248,5.90338,38.0379,-13.4035,-14.0772,-1.93201,2.32169,-4.57001,-28.4126,25.6802,-21.1598,6.59314,0.955574
-5.91827,18.3724,3.56291,-1.34216,42.9102,2.52974,3.28348,-3.50251,-7.75547,1.30365,-4.88709,-1.29218,0.0464296,-2.46518,3.12395,-1.94893,-13.0705,-11.6633,11.9813,-18.4296,11.2505,6.07506,-8.97221,3.98757,1.70893e-14,-8.74653e-15,19.5797,-36.6189,-34.9294,99.5175,-67.4396,2.47084,5.23677,7.12502,27.9548,-22.7019,1.70893e-14,-8.74653e-15,31.8133,36.3758,66.7151,109.525,89.0155,2.11166,23.4819,7.12502,27.6114,51.4761,-21.9219,20.3773,5.96064,37.1112,-13.416,-13.8674,-2.20803,2.44145,-4.56449,-28.2397,25.3827,-21.1197,6.52036,0.89873
-5.90181,18.3767,3.59055,-1.24436,42.9231,2.58014,3.30676,-3.45299,-7.72985,1.36024,-4.81906,-1.32636,0.0794399,-2.4333,3.07328,-1.99039,-12.7656,-11.5191,11.6315,-17.9872,11.3092,5.91164,-8.75417,4.0433,1.38528e-15,1.03368e-14,19.7185,-37.2457,-34.5777,100.615,-67.6386,3.37707,5.86792,7.12502,28.8208,-21.9265,1.38528e-15,1.03368e-14,32.457,37.122,67.1344,111.306,89.2492,3.81537,23.2272,7.12502,29.2394,50.9495,-22.0721,20.6794,5.86012,36.1897,-13.378,-13.6556,-2.49473,2.64156,-4.57424,-28.252,25.116,-21.1645,6.4398,1.26334
-5.88642,18.377,3.62219,-0.972019,42.9295,2.84043,3.27181,-3.37991,-7.9105,1.43543,-4.71826,-1.36983,0.177399,-2.38855,3.12091,-2.23834,-12.5043,-11.3702,11.34,-17.5838,11.3007,5.80014,-8.54905,4.05645,4.77083e-14,2.38542e-15,19.8357,-37.8962,-34.2241,101.604,-67.5379,3.49662,5.92297,7.12502,28.935,-21.8519,4.77083e-14,2.38542e-15,33.2324,37.8634,67.7626,112.951,89.3487,5.6605,23.6387,7.12502,30.9998,51.0402,-22.2658,20.9568,5.57292,35.2827,-13.3757,-13.4305,-2.90996,2.80328,-4.60537,-28.4402,24.8371,-21.1284,6.54991,1.04903
-5.87278,18.3746,3.6498,-0.641465,42.8751,3.12999,3.31501,-3.28339,-8.06948,1.43018,-4.59808,-1.45327,0.140374,-2.32686,3.1244,-2.4389,-12.2503,-11.146,11.0101,-17.1911,11.2463,5.66021,-8.35109,4.04715,1.47225e-14,-6.36111e-15,19.7992,-38.4519,-33.894,102.488,-67.3194,3.05959,5.65022,7.12502,28.5175,-22.1955,1.47225e-14,-6.36111e-15,33.9671,38.4988,68.4169,114.441,89.2691,7.29574,24.1057,7.12502,32.5572,51.1983,-22.5703,21.1007,5.23683,34.4003,-13.3248,-12.9977,-3.56986,2.90482,-4.62926,-28.6621,24.5287,-21.1407,6.70497,0.795657
-5.85453,18.3717,3.67217,-0.733045,42.912,3.02282,3.54696,-3.17992,-7.79627,1.45254,-4.47374,-1.54337,-0.0093487,-2.2579,2.89511,-2.53233,-12.0325,-10.7619,10.6894,-16.8626,11.1438,5.49604,-8.18454,3.9995,-1.07095e-14,1.98785e-14,19.5449,-38.9768,-33.4637,103.108,-67.1905,2.48749,5.79891,7.12502,27.9707,-22.1372,-1.07095e-14,1.98785e-14,34.618,38.9012,69.0325,115.799,89.1243,8.54553,24.0479,7.12502,33.7455,50.8878,-22.6172,21.3697,5.27147,33.4967,-13.3254,-12.6466,-4.137,3.17065,-4.64913,-28.5818,24.2585,-21.2097,6.7042,1.26656
-5.83543,18.373,3.69792,-0.7507,42.9976,3.03016,3.74473,-3.10162,-7.70941,1.47566,-4.38434,-1.5778,-0.115053,-2.20934,2.82259,-2.69243,-11.8018,-10.5489,10.566,-16.5216,11.0531,5.4202,-8.01145,3.97146,-7.27428e-14,-3.4191e-14,19.3277,-39.4408,-33.0402,103.555,-67.1417,2.02396,6.25164,7.12502,27.5275,-21.7559,-7.27428e-14,-3.4191e-14,35.0433,39.2981,69.5956,117.052,88.8954,9.42742,23.8951,7.12502,34.5831,50.5475,-22.61,21.8175,5.21192,32.5919,-13.3725,-12.4909,-4.54466,3.42054,-4.65154,-28.5722,24.0464,-21.2297,6.6009,2.19595
-5.82152,18.375,3.72654,-0.64301,42.9829,3.07335,3.8452,-3.03416,-7.77016,1.45632,-4.30742,-1.56082,-0.193422,-2.16799,2.87916,-2.75525,-11.5352,-10.5041,10.3804,-16.1384,11.0716,5.32833,-7.82338,4.01143,-5.85297e-14,2.8625e-14,19.2506,-39.8021,-32.8194,103.855,-66.9434,1.29408,6.37861,7.12502,26.8293,-21.7381,-5.85297e-14,2.8625e-14,35.3623,39.7681,70.154,118.214,88.5665,9.91628,23.8551,7.12502,35.0469,50.4002,-22.7864,22.2987,5.06881,31.7136,-13.4079,-12.3401,-4.73599,3.54082,-4.63641,-28.5774,23.8534,-21.2565,6.62516,2.38826
-5.80869,18.3738,3.75929,-0.375768,42.8957,3.21866,3.75757,-2.93967,-7.84796,1.45711,-4.1754,-1.64552,-0.158251,-2.10285,2.82666,-2.85758,-11.3412,-10.3957,10.1857,-15.8621,11.1409,5.2516,-7.68137,4.04349,-5.52373e-14,3.97569e-15,19.0358,-40.2104,-32.6467,103.943,-66.6773,0.357912,6.28452,7.12502,25.9331,-21.9665,-5.52373e-14,3.97569e-15,35.7806,40.1054,70.7315,119.203,88.437,10.124,23.7995,7.12502,35.2439,50.2982,-23.099,22.594,4.80977,30.8534,-13.3083,-11.9711,-4.98685,3.54204,-4.6088,-28.6585,23.6936,-21.3265,6.73236,2.17652
-5.79564,18.3719,3.79102,0.0193971,42.8605,3.52028,3.6693,-2.85102,-8.00002,1.45122,-4.05329,-1.77945,-0.126747,-2.0421,2.76496,-3.2396,-11.2347,-10.2569,10.2365,-15.6935,11.0915,5.29757,-7.58192,4.00213,-3.44146e-14,1.11319e-14,18.6981,-40.6251,-32.4201,103.846,-66.3664,-0.727842,6.11325,7.12502,24.893,-22.2858,-3.44146e-14,1.11319e-14,36.0014,40.2533,71.1189,119.987,88.3551,9.97005,24.0345,7.12502,35.0979,50.5677,-23.384,22.6645,4.45056,29.9778,-13.1143,-11.5733,-5.90054,3.47045,-4.56101,-28.8453,23.6349,-21.4,6.7017,2.33053
-5.78028,18.3723,3.81358,-0.15556,42.9035,3.19077,3.87502,-2.81431,-7.63876,1.39713,-4.01692,-1.74523,-0.325259,-2.01512,2.61513,-3.29262,-11.0496,-10.3566,10.1186,-15.4302,11.1866,5.25655,-7.4529,4.07204,1.76421e-14,8.74653e-15,18.4482,-40.8699,-32.195,103.526,-66.2494,-1.65589,5.61507,7.12502,24.0034,-22.9041,1.76421e-14,8.74653e-15,35.8781,40.3413,71.3768,120.663,88.0899,9.47344,24.8398,7.12502,34.6267,51.4822,-23.4623,22.7985,4.64646,29.0997,-12.9914,-11.3159,-6.5594,3.51626,-4.45701,-28.5358,23.6166,-21.472,6.60279,2.16783
-5.7653,18.3741,3.8394,-0.477527,42.964,2.65773,4.04002,-2.74833,-7.14468,1.37353,-3.92913,-1.69507,-0.481785,-1.96525,2.40312,-3.07638,-10.8083,-10.3263,9.7345,-15.101,11.3258,5.07405,-7.29938,4.16324,-4.24405e-14,-1.27222e-14,18.0705,-41.1391,-31.9528,102.982,-66.1308,-2.36601,5.16388,7.12502,23.3223,-23.4434,-4.24405e-14,-1.27222e-14,35.8076,40.2361,71.7314,121.181,87.9392,8.81918,25.0573,7.12502,34.0055,51.8399,-23.5359,23.052,4.99823,28.2855,-12.9445,-11.2058,-6.86131,3.59733,-4.30845,-28.0513,23.5437,-21.4778,6.54948,1.81989
-5.74789,18.3737,3.87486,-0.433523,43.0927,2.62205,4.00248,-2.67018,-7.06575,1.41808,-3.81613,-1.76024,-0.435037,-1.91064,2.28585,-2.91349,-10.5547,-10.1243,9.26446,-14.7504,11.4407,4.85732,-7.1302,4.22097,-9.7653e-15,-7.95139e-15,17.5717,-41.4756,-31.675,102.254,-65.9206,-2.94494,5.50019,7.12502,22.7668,-23.1764,-9.7653e-15,-7.95139e-15,35.7613,39.9169,72.0845,121.469,88.0348,7.92262,24.0106,7.12502,33.1535,50.9783,-23.5699,23.0788,4.98891,27.5073,-12.849,-10.9818,-7.41943,3.71244,-4.29707,-27.9618,23.4583,-21.5057,6.42992,1.81794
-5.72677,18.3691,3.91128,-0.207055,43.2572,2.97374,4.03064,-2.62904,-7.27658,1.46197,-3.76826,-1.87533,-0.40333,-1.88792,2.28238,-2.91675,-10.3536,-10.0982,8.98424,-14.4668,11.5739,4.74896,-6.98972,4.28971,5.98093e-14,-3.26007e-14,17.1963,-41.6539,-31.4854,101.361,-65.612,-3.90407,5.91404,7.12502,21.8461,-22.8728,5.98093e-14,-3.26007e-14,35.5263,39.5296,72.399,121.592,88.182,7.05243,23.2741,7.12502,32.3256,50.4142,-23.5071,23.0564,4.69892,26.8068,-12.7389,-10.7928,-7.98784,3.94823,-4.32803,-28.2126,23.3537,-21.5981,6.36081,2.11205
-5.7095,18.3674,3.94681,-0.0291918,43.4195,3.14038,4.05044,-2.59974,-7.42104,1.47916,-3.7348,-1.89827,-0.391583,-1.87191,2.33787,-3.22963,-10.2982,-10.119,8.97849,-14.3575,11.5059,4.78396,-6.92895,4.26546,2.16178e-14,3.18055e-15,16.9908,-41.8014,-31.4064,100.38,-65.2708,-5.16356,5.41067,7.12502,20.6363,-23.5123,2.16178e-14,3.18055e-15,35.1833,39.0699,72.6838,121.531,88.4736,6.45191,23.0632,7.12502,31.7538,50.3182,-23.6078,23.2615,4.48347,26.2392,-12.6753,-10.8961,-8.90487,4.0911,-4.26385,-28.2706,23.1661,-21.6335,6.22763,2.22542
-5.6951,18.3668,3.98367,0.022773,43.6264,3.0766,4.02224,-2.57308,-7.37946,1.49661,-3.69392,-1.89865,-0.364346,-1.85263,2.31132,-3.58579,-10.2945,-10.1174,9.06996,-14.3163,11.3607,4.85612,-6.90115,4.20399,-2.39784e-14,1.51076e-14,16.7453,-41.965,-31.3393,99.2814,-65.1604,-6.51949,4.51274,7.12502,19.3329,-24.5462,-2.39784e-14,1.51076e-14,34.8005,38.4971,72.8507,121.271,88.9616,5.45594,22.8903,7.12502,30.8048,50.3288,-23.747,23.4487,4.46877,25.7762,-12.533,-11.0543,-10.4433,4.21786,-4.25114,-28.1232,22.9436,-21.5902,6.05361,2.38479
-5.67569,18.3629,4.02047,0.160877,43.8426,3.30755,4.0623,-2.53356,-7.47125,1.5263,-3.64599,-1.9945,-0.36075,-1.82868,2.26313,-3.74785,-10.2569,-10.2471,9.0789,-14.2525,11.4327,4.89379,-6.86505,4.24263,-4.26393e-14,2.70347e-14,16.3882,-42.0375,-31.1733,97.9724,-65.2582,-7.66134,4.62325,7.12502,18.2347,-24.5421,-4.26393e-14,2.70347e-14,34.3243,37.8469,72.9924,120.852,89.5105,4.31864,22.5436,7.12502,29.7199,50.1812,-23.6876,23.2901,4.33302,25.3106,-12.4178,-10.8131,-11.3051,4.4461,-4.33156,-28.2661,22.8394,-21.6034,6.03423,2.05028
-5.65642,18.3582,4.05978,0.373653,44.0304,3.64872,4.14512,-2.49865,-7.69571,1.48108,-3.61821,-2.09733,-0.448736,-1.81026,2.28595,-3.86175,-10.1988,-10.3937,9.16264,-14.1709,11.5152,4.94608,-6.82069,4.29042,-3.61043e-14,2.70347e-14,16.0429,-41.9285,-31.0342,96.6017,-65.1633,-9.04071,4.63459,7.12502,16.9073,-24.6495,-3.61043e-14,2.70347e-14,33.5586,37.059,72.9433,120.316,90.0478,3.23971,22.2248,7.12502,28.6896,50.0415,-23.6258,23.1298,4.12258,24.8415,-12.3913,-10.6568,-11.1212,4.61985,-4.30508,-28.4701,22.8164,-21.6523,5.95217,1.77706
-5.64214,18.3558,4.10023,0.380512,44.2176,3.42406,4.01704,-2.4894,-7.55493,1.41562,-3.59284,-2.08065,-0.455376,-1.79605,2.22035,-4.13643,-10.1753,-10.4151,9.36929,-14.1225,11.4242,5.04487,-6.78881,4.25282,-1.04536e-13,7.15625e-15,15.9149,-41.8406,-31.0692,95.0347,-64.975,-10.4127,3.94018,7.12502,15.5862,-25.4518,-1.04536e-13,7.15625e-15,32.8258,36.1175,72.7736,119.571,90.521,2.03156,22.0273,7.12502,27.5348,50.0337,-23.7815,23.2207,4.25251,24.4186,-12.4704,-10.8058,-10.7453,4.57801,-4.35377,-28.1991,22.7873,-21.678,5.84094,1.82276
-5.62633,18.3546,4.1432,0.298402,44.5128,3.10639,3.85685,-2.4857,-7.28069,1.40292,-3.56406,-2.08756,-0.399489,-1.78295,2.05358,-4.46252,-10.1809,-10.3323,9.52786,-14.1035,11.2543,5.12776,-6.77079,4.17058,-9.4373e-14,2.94201e-14,15.7574,-41.8142,-31.0791,93.2751,-64.9949,-11.6291,3.6938,7.12502,14.4144,-25.7857,-9.4373e-14,2.94201e-14,32.2413,34.9994,72.5905,118.59,90.9689,0.807309,21.7733,7.12502,26.3634,49.9607,-23.8544,23.4623,4.44125,24.0335,-12.6788,-11.1359,-10.325,4.57815,-4.38101,-27.8234,22.7686,-21.7155,5.63063,1.63403
-5.60755,18.3529,4.18733,0.272008,44.8517,3.0789,3.9003,-2.48723,-7.20922,1.40956,-3.56702,-2.13899,-0.424493,-1.78312,1.96352,-4.75454,-10.1801,-10.2344,9.55108,-14.0653,11.061,5.15854,-6.7479,4.0848,-1.65985e-14,1.11319e-14,15.7748,-41.7412,-31.1916,91.4391,-65.0129,-12.9957,3.56397,7.12502,13.0974,-26.0048,-1.65985e-14,1.11319e-14,31.6811,33.7868,72.5303,117.493,91.2906,-0.0228349,21.7113,7.12502,25.5685,50.0152,-23.7134,23.7139,4.45615,23.6396,-12.9593,-11.6239,-10.6124,4.73171,-4.31942,-27.6765,22.7964,-21.7564,5.44397,0.882895
-5.58934,18.3518,4.23415,0.359769,45.1721,3.14647,3.91167,-2.53956,-7.21928,1.37102,-3.64026,-2.19724,-0.467596,-1.81697,1.91316,-5.0874,-10.1827,-10.1956,9.65904,-14.0322,10.8778,5.22788,-6.72661,4.00707,-6.86304e-14,-1.19271e-14,16.1045,-41.5735,-31.592,89.5245,-64.9446,-14.2516,2.95327,7.12502,11.8865,-26.6893,-6.86304e-14,-1.19271e-14,31.088,32.5775,72.4552,116.246,91.4621,-0.602831,21.8217,7.12502,25.0128,50.2041,-23.6454,23.9221,4.40975,23.3453,-13.0214,-12.2537,-11.3484,4.84672,-4.23219,-27.5892,22.7686,-21.7311,5.26116,0.0361783
-5.57337,18.3502,4.28888,0.38628,45.4731,3.11607,3.85878,-2.64105,-7.23124,1.31065,-3.77451,-2.21068,-0.489165,-1.88194,1.90888,-5.4407,-10.1265,-10.2292,9.86397,-13.9152,10.6728,5.32517,-6.66636,3.93973,3.83654e-14,-9.54166e-15,16.6267,-41.2108,-32.1127,87.4672,-64.9128,-15.7125,2.37041,7.12502,10.4775,-27.3485,3.83654e-14,-9.54166e-15,30.4645,31.4475,72.3104,114.817,91.6022,-1.41039,21.5128,7.12502,24.2388,50.0008,-23.6053,24.1825,4.47204,23.1735,-13.0647,-12.8513,-11.4029,4.98874,-4.3639,-27.4622,22.6874,-21.6798,5.23923,-0.763678
-5.55697,18.3459,4.34145,0.527353,45.8019,3.29869,3.80224,-2.70992,-7.45413,1.31908,-3.86723,-2.16969,-0.422729,-1.93084,2.07246,-5.90142,-10.0927,-10.4511,10.0414,-13.8044,10.5257,5.45072,-6.61028,3.91289,6.0679e-14,-9.54166e-15,17.2969,-40.9074,-32.4831,85.2645,-64.9301,-17.0552,1.8398,7.12502,9.18203,-27.9403,6.0679e-14,-9.54166e-15,29.9825,30.165,72.432,113.363,91.7063,-2.73322,21.0452,7.12502,22.97,49.6967,-23.5229,24.2774,4.41777,23.0916,-13.1985,-13.2126,-10.7526,5.1891,-4.57709,-27.5234,22.5969,-21.6879,5.21195,-1.02749
-5.53488,18.3416,4.38678,0.608156,46.2388,3.43471,3.68085,-2.77129,-7.60547,1.40952,-3.9355,-2.10435,-0.239659,-1.97349,2.21414,-6.30666,-10.0942,-10.7008,10.0513,-13.7465,10.5286,5.53381,-6.57732,3.93658,-2.05742e-14,-1.98785e-14,18.0718,-40.7635,-32.8216,82.9442,-65.0626,-18.3176,1.0881,7.12502,7.96379,-28.7419,-2.05742e-14,-1.98785e-14,29.7634,28.7616,72.8193,111.785,91.7975,-4.05512,21.1783,7.12502,21.701,49.9819,-23.3347,24.0293,4.48697,23.0653,-13.301,-13.3835,-10.1785,5.4034,-4.7413,-27.5462,22.5377,-21.6466,5.05873,-1.13885
-5.51604,18.3365,4.4351,0.5897,46.64,3.55925,3.64632,-2.82383,-7.79776,1.50701,-4.00086,-2.06318,-0.0963365,-2.01373,2.35773,-6.63255,-10.1119,-10.7658,10.0158,-13.7141,10.3978,5.56936,-6.56092,3.89341,-1.5207e-14,-8.74653e-15,18.8976,-40.5913,-33.2339,80.4597,-65.227,-19.4128,0.885423,7.12502,6.90669,-28.9819,-1.5207e-14,-8.74653e-15,29.6361,27.432,73.1828,110.125,92.0578,-5.19402,21.5586,7.12502,20.607,50.4848,-23.0802,23.8887,4.62149,23.1011,-13.341,-13.5991,-10.1373,5.67379,-4.74679,-27.5156,22.5032,-21.5715,4.88833,-1.70649
-5.50154,18.3294,4.48692,0.6118,46.9898,3.71648,3.65331,-2.8763,-7.99456,1.53018,-4.07513,-2.07402,-0.055334,-2.05305,2.45548,-6.93486,-10.0789,-10.7796,10.1236,-13.6314,10.2687,5.63644,-6.51713,3.848,2.88238e-15,2.38542e-14,19.6749,-40.2854,-33.672,77.8527,-65.3697,-20.5072,0.661027,7.12502,5.85012,-29.2382,2.88238e-15,2.38542e-14,29.495,26.0561,73.3759,108.316,92.3732,-6.1724,21.8526,7.12502,19.6666,50.8778,-22.8602,23.7302,4.76067,23.1446,-13.1303,-13.7789,-10.6501,5.89046,-4.66518,-27.4797,22.5164,-21.561,4.69045,-1.74534
-5.48031,18.3244,4.54368,0.520893,47.3669,3.57571,3.55479,-2.97288,-7.89466,1.46691,-4.195,-2.07058,-0.0610278,-2.11097,2.40283,-6.91647,-9.91065,-10.8364,9.9766,-13.3973,10.3608,5.5729,-6.40278,3.914,4.49999e-14,5.56597e-15,20.5153,-39.9,-34.2099,75.145,-65.4259,-21.3598,0.0857238,7.12502,5.02695,-29.8346,4.49999e-14,5.56597e-15,29.2707,24.5986,73.3794,106.298,92.6362,-7.06468,21.7607,7.12502,18.8086,50.8714,-22.6807,23.6109,5.07915,23.217,-12.874,-13.8367,-11.0249,6.02963,-4.54502,-27.2001,22.541,-21.5778,4.50516,-1.54061
-5.45718,18.3186,4.6042,0.196795,47.7274,3.17632,3.49307,-3.07641,-7.56127,1.40753,-4.32124,-2.07083,-0.101214,-2.17045,2.2206,-6.61374,-9.64361,-10.847,9.44129,-13.0509,10.6268,5.33779,-6.23666,4.05751,1.05182e-13,1.74931e-14,21.4709,-39.5349,-34.9203,72.2689,-65.3902,-22.129,-0.245407,7.12502,4.28418,-30.1821,1.05182e-13,1.74931e-14,29.1817,23.1136,73.3298,104.104,92.8491,-8.00125,21.8098,7.12502,17.9076,51.0053,-22.463,23.4977,5.62859,23.3459,-12.3999,-13.6845,-11.7984,6.23678,-4.32535,-26.7261,22.5601,-21.5945,4.34861,-1.81903
-5.43296,18.3118,4.66492,0.0600368,48.1536,3.21106,3.43799,-3.17959,-7.59231,1.47874,-4.44888,-2.07998,0.017144,-2.23945,2.22384,-6.55491,-9.46405,-11.076,9.03202,-12.7936,10.9456,5.2103,-6.10908,4.22657,6.97237e-14,7.95139e-16,22.6566,-39.2188,-35.6108,69.2628,-64.8126,-23.215,-0.780274,7.12502,3.23552,-30.7355,6.97237e-14,7.95139e-16,29.3356,21.7336,73.4864,101.865,93.0034,-8.89538,21.9515,7.12502,17.0471,51.2235,-22.0983,23.3909,5.88453,23.5258,-11.855,-13.3332,-11.1709,6.60367,-4.21798,-26.6254,22.5555,-21.5673,4.29697,-2.08589
-5.40662,18.3058,4.72583,-0.0195774,48.6048,3.383,3.35485,-3.2905,-7.7989,1.5915,-4.58576,-2.05738,0.212292,-2.31763,2.35153,-6.83541,-9.37511,-11.2598,9.07239,-12.6399,11.0341,5.27053,-6.02567,4.28517,2.81032e-14,7.15625e-15,23.9996,-38.9291,-36.3592,66.271,-63.6825,-24.344,-2.25709,7.12502,2.14511,-32.2261,2.81032e-14,7.15625e-15,29.5993,20.4204,73.6406,99.4549,93.2249,-9.56191,22.2438,7.12502,16.4055,51.57,-21.6365,23.3977,6.04605,23.757,-11.1948,-12.8794,-8.62378,7.05846,-4.25736,-26.6808,22.5223,-21.5546,4.54338,-3.32199
-5.37927,18.3034,4.78869,-0.112204,48.9511,3.38054,3.17056,-3.37856,-7.88519,1.60759,-4.68557,-2.02894,0.351508,-2.37331,2.41546,-7.11818,-9.31631,-11.1773,9.28066,-12.5307,10.8129,5.34968,-5.96969,4.20016,9.94669e-14,-6.36111e-15,25.3102,-38.681,-37.1624,63.1952,-63.0244,-24.9193,-3.12836,7.12502,1.58952,-33.1022,9.94669e-14,-6.36111e-15,29.7942,19.0048,73.589,96.8467,93.5098,-9.96009,22.5229,7.12502,16.0221,51.8804,-21.3569,23.3839,6.30017,24.0211,-10.3473,-12.2593,-5.54065,7.39585,-4.31156,-26.6145,22.4687,-21.5332,4.83345,-4.50978
-5.35451,18.3062,4.85429,-0.223288,49.2826,3.29561,3.02725,-3.48196,-7.85554,1.56163,-4.81099,-2.04657,0.39243,-2.43592,2.37402,-7.36066,-9.22438,-10.9644,9.44708,-12.389,10.5693,5.39622,-5.89684,4.09417,6.15611e-14,-3.18055e-15,26.7091,-38.591,-38.1837,59.9459,-62.9182,-25.0617,-2.90388,7.12502,1.45202,-32.8787,6.15611e-14,-3.18055e-15,30.022,17.5179,73.3054,94.0973,93.5776,-10.4061,22.7317,7.12502,15.5925,52.1232,-21.1376,23.3753,6.61643,24.2758,-9.45623,-11.7654,-4.07627,7.65995,-4.38386,-26.4683,22.43,-21.5264,4.98441,-4.47966
-5.32996,18.3089,4.92019,-0.511918,49.6387,3.09209,2.9672,-3.6016,-7.70741,1.56324,-4.96082,-2.05689,0.428515,-2.51101,2.279,-7.7111,-9.11429,-10.8482,9.72593,-12.2182,10.3885,5.50361,-5.80532,4.01992,2.61402e-14,2.62396e-14,28.4627,-38.7711,-39.5696,56.5638,-62.8237,-25.0283,-3.63306,7.12502,1.4842,-33.6076,2.61402e-14,2.62396e-14,30.3341,16.0306,72.8765,91.2121,93.3718,-10.9644,23.1093,7.12502,15.0548,52.5419,-20.7952,23.2993,7.07521,24.4911,-8.62844,-11.64,-4.31679,8.01431,-4.5002,-26.2544,22.4338,-21.5714,5.168,-4.73012
-5.30316,18.3127,4.98444,-0.92551,49.9936,2.78107,2.88857,-3.70499,-7.54488,1.62312,-5.08426,-1.98335,0.538524,-2.57744,2.25749,-8.14688,-9.04761,-11.0134,10.1215,-12.0968,10.3937,5.69745,-5.73366,4.03744,6.05548e-14,-1.82882e-14,30.346,-39.0471,-41.0247,53.2831,-62.5981,-24.5831,-5.78553,7.12502,1.91419,-35.7567,6.05548e-14,-1.82882e-14,30.7118,14.5212,72.3261,88.1801,93.0238,-11.5886,23.8116,7.12502,14.4534,53.2883,-20.3967,23.1372,7.62172,24.6792,-7.89732,-11.923,-5.3529,8.4125,-4.61986,-25.9846,22.4725,-21.555,5.34603,-5.56208
-5.27613,18.3195,5.04779,-1.28635,50.2728,2.51545,2.79872,-3.78035,-7.40141,1.66144,-5.17166,-1.91361,0.630073,-2.62477,2.24219,-8.48476,-9.00187,-11.2084,10.4549,-12.0045,10.4114,5.86167,-5.6808,4.06608,2.15371e-14,-3.26007e-14,32.2208,-39.3233,-42.5094,50.0758,-62.4036,-24.1905,-7.65447,7.12502,2.29336,-37.6219,2.15371e-14,-3.26007e-14,31.064,12.88,71.5047,85.0659,92.602,-12.5501,24.5283,7.12502,13.5268,54.069,-20.0516,22.9492,8.1115,24.8486,-7.40079,-12.4908,-5.27056,8.75592,-4.72395,-25.7551,22.5486,-21.6069,5.36828,-5.95598
-5.24803,18.3289,5.11457,-1.76301,50.5042,2.08284,2.72191,-3.86731,-7.07739,1.65518,-5.27552,-1.87825,0.649183,-2.67538,2.09635,-8.79878,-8.91454,-11.1832,10.8211,-11.8675,10.2795,6.00421,-5.60784,4.01991,-7.90542e-14,-2.38542e-15,34.0985,-39.6387,-44.2394,47.0111,-62.3436,-24.3283,-8.98568,7.12502,2.16025,-38.9545,-7.90542e-14,-2.38542e-15,31.4681,11.2071,70.3058,81.732,92.6082,-13.2414,24.996,7.12502,12.8605,54.5797,-19.7041,22.7806,8.73274,25.0313,-7.24663,-13.1382,-4.42604,9.0852,-4.79041,-25.3897,22.6366,-21.6186,5.39835,-6.05049
-5.21964,18.3383,5.18287,-2.26266,50.7468,1.58083,2.61924,-3.97541,-6.67857,1.62837,-5.40591,-1.84109,0.655756,-2.73797,1.91051,-9.05726,-8.8143,-11.1506,11.1601,-11.7113,10.1134,6.12475,-5.53017,3.96688,2.14765e-14,5.56597e-15,36.1078,-40.0726,-46.2524,44.1118,-62.4018,-24.7127,-10.4005,7.12502,1.78904,-40.3727,2.14765e-14,5.56597e-15,31.9011,9.37393,68.7197,78.2665,92.6426,-14.1293,25.211,7.12502,12.0045,54.8467,-19.3457,22.4282,9.41537,25.2166,-7.11422,-13.2425,-4.87499,9.3529,-4.81036,-24.9377,22.752,-21.4005,5.51476,-7.03105
-5.19205,18.346,5.25204,-2.53478,50.9711,1.3703,2.51909,-4.04233,-6.53179,1.5778,-5.48769,-1.8082,0.655161,-2.77734,1.85872,-9.1043,-8.74092,-11.2353,11.3819,-11.594,10.0005,6.18758,-5.481,3.95393,3.25261e-14,1.19271e-14,38.0842,-40.6144,-48.2412,41.4508,-62.6106,-25.1909,-11.829,7.12502,1.3272,-41.8046,3.25261e-14,1.19271e-14,32.3942,7.27283,66.7662,74.8228,92.5997,-15.866,25.1007,7.12502,10.3294,54.8271,-18.9774,22.015,9.88288,25.376,-6.96777,-12.861,-5.51523,9.58329,-4.83551,-24.6744,22.9333,-21.1867,5.51894,-8.1186
-5.16519,18.3553,5.32769,-2.70214,51.1276,1.26718,2.34402,-4.07637,-6.55699,1.56835,-5.52016,-1.74513,0.754577,-2.79712,1.92294,-9.32028,-8.69104,-11.4117,11.7137,-11.4977,9.96684,6.32697,-5.4347,3.97092,-1.33124e-13,-2.06736e-14,40.241,-41.3224,-50.4405,39.0518,-62.7917,-25.9739,-13.3011,7.12502,0.570967,-43.2801,-1.33124e-13,-2.06736e-14,33.0842,5.14156,64.6295,71.4314,92.9858,-18.1428,25.3783,7.12502,8.1325,55.2018,-18.6429,21.8939,10.2594,25.5076,-6.94334,-12.6875,-5.03159,9.77986,-4.84075,-24.4412,23.1739,-21.0418,5.2811,-8.09412
-5.14017,18.3693,5.40302,-2.99212,51.2735,0.97258,2.17522,-4.07854,-6.42705,1.54487,-5.50974,-1.67807,0.817802,-2.79315,1.90815,-9.54403,-8.68572,-11.4189,12.079,-11.4551,9.71991,6.46136,-5.42162,3.88669,8.76392e-14,-1.43125e-14,42.4558,-42.2327,-52.9162,37.036,-62.6475,-27.3701,-14.6201,7.12502,-0.777506,-44.5984,8.76392e-14,-1.43125e-14,33.9569,2.84033,62.235,68.0418,94.0355,-20.1609,27.1313,7.12502,6.18449,57.021,-18.332,21.9388,10.75,25.6407,-7.00272,-12.7293,-4.04787,9.92064,-4.83614,-24.0228,23.4285,-20.8236,4.84822,-7.74908
-5.11315,18.3829,5.47779,-3.261,51.4446,0.682285,1.96948,-4.09615,-6.25263,1.50212,-5.51769,-1.63935,0.876138,-2.79714,1.83809,-9.59754,-8.62798,-11.2992,12.3237,-11.3528,9.38147,6.50913,-5.38727,3.76776,-1.12935e-14,1.82882e-14,44.9574,-43.3237,-55.9257,35.2912,-62.1207,-28.7865,-16.1047,7.12502,-2.14554,-46.0736,-1.12935e-14,1.82882e-14,34.9403,0.47611,59.5475,64.7046,95.5761,-21.5895,29.5905,7.12502,4.80512,59.516,-18.034,21.7788,11.2558,25.7906,-7.05674,-12.703,-4.22244,10.0492,-4.8926,-23.619,23.659,-20.4857,4.47528,-7.91616
-5.08651,18.3954,5.55769,-3.37288,51.6092,0.570396,1.75308,-4.13263,-6.2641,1.47111,-5.55208,-1.55831,0.977009,-2.81749,1.91052,-9.68733,-8.55035,-11.356,12.5488,-11.2064,9.14865,6.56973,-5.3318,3.71398,-8.70677e-14,3.97569e-15,47.7108,-44.3306,-59.1594,33.7987,-61.4865,-30.4127,-17.507,7.12502,-3.716,-47.4543,-8.70677e-14,3.97569e-15,35.9891,-1.78186,56.681,61.5746,97.4644,-22.9076,31.9606,7.12502,3.53236,61.9111,-17.7766,21.5828,11.6429,25.9528,-7.17305,-12.628,-4.73815,10.1681,-4.89338,-23.3037,23.8611,-20.1088,4.23094,-9.00218
-5.06148,18.4083,5.64065,-3.23853,51.7581,0.817583,1.63777,-4.1632,-6.54868,1.40268,-5.58988,-1.51147,1.00654,-2.83872,2.10674,-9.80943,-8.46949,-11.5004,12.9173,-11.0513,8.9462,6.68814,-5.27304,3.68246,-5.46658e-15,3.18055e-15,50.2832,-45.0979,-62.1533,32.5626,-60.9021,-32.028,-18.5824,7.12502,-5.27578,-48.4967,-5.46658e-15,3.18055e-15,36.9958,-4.00875,53.6446,58.8017,99.6028,-24.1058,34.5359,7.12502,2.37516,64.5024,-17.4964,21.5881,11.7946,26.144,-7.3703,-12.6728,-4.61697,10.3153,-4.80702,-23.1803,24.022,-19.6334,3.84968,-9.75446
-5.03715,18.4191,5.72301,-3.12577,51.9164,1.06059,1.58463,-4.2063,-6.85092,1.32438,-5.64982,-1.46067,0.99564,-2.86972,2.32181,-9.88276,-8.35157,-11.5951,13.2475,-10.855,8.75108,6.77959,-5.19404,3.65276,-6.02318e-14,-1.35174e-14,52.831,-45.7618,-65.1191,31.5271,-60.3404,-33.4545,-19.6453,7.12502,-6.65298,-49.5208,-6.02318e-14,-1.35174e-14,37.9991,-6.15631,50.5512,56.4065,101.761,-25.3087,37.6016,7.12502,1.21342,67.5779,-17.1938,21.6278,11.9556,26.3349,-7.57745,-12.7473,-4.39488,10.4889,-4.71945,-23.0278,24.1782,-19.1076,3.292,-10.3026
-5.0104,18.429,5.80296,-3.06755,52.048,1.19139,1.49118,-4.25211,-7.02287,1.29578,-5.70607,-1.41177,1.04578,-2.90058,2.45795,-10.1091,-8.22162,-11.4887,13.5653,-10.6392,8.45524,6.87492,-5.09974,3.55606,-1.40441e-13,9.54166e-15,55.2811,-46.3028,-67.9339,30.7195,-59.9519,-34.8583,-20.5784,7.12502,-8.00799,-50.4067,-1.40441e-13,9.54166e-15,39.0925,-8.23504,47.2085,54.4361,103.921,-26.7312,40.5893,7.12502,-0.160449,70.569,-16.9276,21.4769,12.1811,26.501,-7.75803,-12.6277,-4.64556,10.6366,-4.68865,-22.8298,24.3564,-18.5697,2.81396,-11.3125
-4.98207,18.4422,5.88511,-3.20627,52.1154,1.07887,1.42525,-4.27406,-7.00299,1.26424,-5.73228,-1.34532,1.05735,-2.91402,2.51061,-10.2108,-8.07659,-11.3678,13.7086,-10.4173,8.21924,6.89566,-5.00177,3.4827,-1.01753e-13,1.82882e-14,57.3097,-46.6806,-70.2063,30.0998,-59.8386,-36.0236,-21.5189,7.12502,-9.13258,-51.3012,-1.01753e-13,1.82882e-14,40.1435,-10.3137,43.62,53.0112,105.978,-28.2088,42.9553,7.12502,-1.5876,72.9291,-16.648,21.3812,12.583,26.6281,-7.86446,-12.5166,-4.714,10.7554,-4.59839,-22.4666,24.5769,-18.0239,2.50134,-12.9933
-4.95281,18.4551,5.97015,-3.27789,52.1529,1.029,1.33352,-4.30562,-7.06361,1.23663,-5.7699,-1.23541,1.10127,-2.93535,2.64876,-10.2984,-7.94296,-11.3803,13.7999,-10.1938,8.024,6.90747,-4.90752,3.44416,-8.22969e-14,-6.36111e-15,58.9161,-46.8152,-71.806,29.6365,-60.0518,-37.0774,-22.2336,7.12502,-10.1493,-51.9688,-8.22969e-14,-6.36111e-15,41.1521,-12.1962,40.0109,52.0695,107.638,-29.3209,44.7301,7.12502,-2.66161,74.6932,-16.3665,21.352,12.9408,26.7299,-7.98411,-12.4598,-4.64473,10.834,-4.50018,-22.1391,24.8342,-17.5353,2.17409,-13.9978
-4.92309,18.4645,6.05415,-3.28405,52.1738,1.08759,1.23007,-4.34616,-7.24379,1.25617,-5.81665,-1.10019,1.21673,-2.96587,2.87396,-10.409,-7.83039,-11.4473,13.8678,-9.99809,7.90079,6.92577,-4.82351,3.43353,-3.19795e-14,-2.3059e-14,60.387,-46.8072,-73.1302,29.3053,-60.2887,-38.0659,-22.8056,7.12502,-11.1028,-52.4919,-3.19795e-14,-2.3059e-14,42.1166,-13.82,36.4123,51.5852,108.711,-30.2342,46.3878,7.12502,-3.54362,76.3381,-16.0657,21.361,13.2328,26.8145,-8.12357,-12.4869,-4.91792,10.9466,-4.48238,-21.9169,25.1151,-17.0206,1.94424,-14.3965
-4.8941,18.4737,6.13586,-3.36526,52.1506,1.01802,1.17054,-4.38384,-7.31254,1.26509,-5.86374,-0.957932,1.2864,-2.99423,3.05005,-10.5083,-7.71593,-11.4889,13.9051,-9.81289,7.83284,6.93489,-4.73943,3.43627,-6.35365e-14,-1.51076e-14,61.4292,-46.6751,-73.9162,29.2301,-60.7059,-38.7492,-23.566,7.12502,-11.7618,-53.2157,-6.35365e-14,-1.51076e-14,42.9447,-15.1215,33.015,51.4975,109.069,-31.3213,47.875,7.12502,-4.59343,77.8052,-15.8184,21.4105,13.5838,26.9059,-8.31319,-12.533,-5.26659,11.0222,-4.39645,-21.5757,25.3957,-16.3032,1.55213,-14.554
-4.86433,18.4829,6.21519,-3.52054,52.0792,0.895139,1.2467,-4.40735,-7.22804,1.2335,-5.90491,-0.854916,1.21762,-3.01247,3.11677,-10.5058,-7.57161,-11.5612,13.8852,-9.60054,7.82952,6.91008,-4.64152,3.47168,-1.97294e-14,2.98177e-14,61.878,-46.4472,-74,29.4289,-61.3078,-39.1014,-24.5766,7.12502,-12.1014,-54.2067,-1.97294e-14,2.98177e-14,43.6235,-16.0498,30.2179,51.547,108.604,-32.1611,48.8676,7.12502,-5.40432,78.7787,-15.522,21.2942,13.9764,26.9844,-8.42847,-12.3673,-5.61006,11.133,-4.2303,-21.1931,25.6963,-15.6155,0.910604,-14.4043
-4.83287,18.4906,6.29059,-3.55418,51.9533,0.962584,1.39786,-4.40257,-7.15073,1.22294,-5.91236,-0.822887,1.11822,-3.0126,3.12108,-10.6228,-7.46309,-11.5921,13.9469,-9.43056,7.79689,6.93286,-4.56118,3.48188,-5.93372e-14,1.98785e-14,62.0956,-46.1765,-73.7826,29.7648,-61.843,-39.2393,-25.3019,7.12502,-12.2344,-54.9241,-5.93372e-14,1.98785e-14,44.164,-16.4512,28.1781,51.7789,107.774,-32.9822,49.6924,7.12502,-6.19702,79.5818,-15.2037,21.0564,14.2376,27.0397,-8.49931,-12.0243,-6.0877,11.2556,-4.03883,-20.979,26.0368,-15.1478,0.418651,-14.9228
-4.79731,18.4983,6.36861,-3.52642,51.7481,1.0454,1.38789,-4.38414,-7.05754,1.26812,-5.88447,-0.812497,1.15907,-3.00039,3.07824,-10.7549,-7.38221,-11.4843,13.896,-9.31096,7.73876,6.91887,-4.49939,3.45598,-8.75646e-14,3.97569e-15,61.8982,-45.8173,-73.064,30.4081,-62.6672,-39.3941,-25.6189,7.12502,-12.3836,-55.2321,-8.75646e-14,3.97569e-15,44.4427,-16.2882,26.7366,52.3568,106.929,-33.6754,49.9836,7.12502,-6.86622,79.8522,-14.9396,20.9688,14.4524,27.0844,-8.67077,-11.7309,-6.25366,11.3165,-3.8464,-20.8107,26.4045,-14.6936,0.184787,-15.8988
-4.76242,18.5058,6.44642,-3.50908,51.5156,1.05598,1.34796,-4.35261,-6.92572,1.27388,-5.83891,-0.77096,1.17334,-2.97763,3.04614,-10.692,-7.32287,-11.4188,13.7502,-9.23051,7.68175,6.84697,-4.46312,3.43885,-1.66731e-14,-1.19271e-15,61.1171,-45.3909,-71.5975,31.3949,-63.8663,-39.5419,-25.8633,7.12502,-12.5262,-55.4679,-1.66731e-14,-1.19271e-15,44.3742,-15.7649,25.9632,53.293,106.127,-33.7992,49.1497,7.12502,-6.98573,79.0144,-14.7313,21.0724,14.6866,27.1372,-8.8912,-11.557,-5.78144,11.3275,-3.61068,-20.5738,26.7824,-14.1971,-0.134342,-16.2055
-4.72617,18.5145,6.5186,-3.54391,51.3086,0.999889,1.41405,-4.31745,-6.67219,1.23201,-5.79875,-0.731537,1.06699,-2.95181,2.95702,-10.5424,-7.27324,-11.3783,13.6643,-9.16209,7.56813,6.77932,-4.44027,3.40826,-8.15638e-14,-4.77083e-15,59.9354,-44.9163,-69.6345,32.6116,-65.2685,-39.6756,-25.9426,7.12502,-12.655,-55.5392,-8.15638e-14,-4.77083e-15,44.0374,-14.9878,25.824,54.477,105.325,-33.0367,47.3144,7.12502,-6.24963,77.2022,-14.5353,20.9581,14.9404,27.1893,-9.12935,-11.2105,-4.79352,11.328,-3.35652,-20.2717,27.1793,-13.7458,-0.550069,-15.6016
-4.68736,18.5252,6.58612,-3.40847,51.1144,1.07082,1.43144,-4.29123,-6.41434,1.18623,-5.76569,-0.73733,0.979793,-2.92972,2.81502,-10.3997,-7.22297,-11.3562,13.5266,-9.10118,7.54211,6.7022,-4.41491,3.40814,-8.19987e-15,1.35174e-14,58.7233,-44.4532,-67.6081,34,-66.6445,-39.7596,-25.731,7.12502,-12.736,-55.3226,-8.19987e-15,1.35174e-14,43.5419,-13.9329,26.061,55.8829,104.551,-31.849,45.4012,7.12502,-5.10289,75.3198,-14.4262,20.6355,15.0554,27.2344,-9.32159,-10.6528,-3.88142,11.2115,-3.06244,-20.0699,27.5898,-13.3208,-0.859732,-16.0153
-4.64939,18.5324,6.65582,-3.24565,50.8816,1.18534,1.44116,-4.25253,-6.22228,1.16981,-5.71447,-0.731023,0.933812,-2.90116,2.71922,-10.3063,-7.18624,-11.3206,13.3428,-9.0521,7.50711,6.61907,-4.39396,3.40026,8.38002e-14,7.15625e-15,57.6393,-44.0509,-65.7133,35.5605,-68.0476,-39.9169,-25.6831,7.12502,-12.8877,-55.2652,8.38002e-14,7.15625e-15,42.9532,-12.5698,26.5166,57.5169,104.173,-30.825,43.7957,7.12502,-4.11413,73.7357,-14.2839,20.4852,15.1651,27.2475,-9.45791,-10.2209,-3.34123,11.0806,-2.75769,-19.9301,28.0416,-12.8943,-1.03572,-17.7818
-4.61178,18.5381,6.73013,-3.29632,50.5883,1.12838,1.50641,-4.14232,-5.95829,1.17739,-5.57043,-0.712286,0.867721,-2.82587,2.60133,-10.0971,-7.23258,-11.3284,13.1338,-9.13349,7.54886,6.52676,-4.43493,3.41324,-3.15819e-14,3.97569e-16,56.5497,-43.8676,-63.8639,37.2393,-69.6207,-40.1973,-25.7311,7.12502,-13.158,-55.2959,-3.15819e-14,3.97569e-16,42.4771,-11.033,27.3017,59.2889,104.235,-29.4462,42.0808,7.12502,-2.7826,72.0424,-14.0328,20.4766,15.4455,27.2184,-9.57966,-9.8882,-3.17315,11.0445,-2.36573,-19.6259,28.5425,-12.4797,-1.36452,-18.791
-4.5757,18.5483,6.80356,-3.46476,50.2982,0.809847,1.54841,-4.03436,-5.48547,1.134,-5.42793,-0.665884,0.746253,-2.748,2.39734,-9.71956,-7.29621,-11.4044,12.8854,-9.26382,7.71673,6.40744,-4.49773,3.47802,-2.05494e-14,-1.51076e-14,55.3146,-43.685,-61.8753,39.1307,-71.2867,-40.3246,-25.3004,7.12502,-13.2807,-54.8572,-2.05494e-14,-1.51076e-14,42.0374,-9.34495,28.4017,61.123,104.649,-27.6489,40.418,7.12502,-1.04686,70.3952,-13.8804,20.4416,15.873,27.1709,-9.69372,-9.57389,-3.66159,10.8834,-1.92553,-19.0819,29.0761,-11.8329,-2.05263,-18.2084
-4.53968,18.5602,6.87534,-3.43921,50.0297,0.735723,1.63351,-3.97471,-5.17521,1.08307,-5.35313,-0.648421,0.612658,-2.7048,2.25515,-9.41383,-7.30068,-11.3074,12.6564,-9.3018,7.68617,6.27985,-4.52052,3.45969,4.1459e-14,-8.34896e-15,54.0544,-43.3572,-59.8678,41.2977,-72.9351,-40.2986,-24.952,7.12502,-13.2556,-54.5105,4.1459e-14,-8.34896e-15,41.4666,-7.4792,29.6267,63.0955,105.166,-26.0358,39.0315,7.12502,0.511172,69.0107,-13.7593,20.2845,16.1101,27.1587,-9.85075,-9.16443,-4.51667,10.7035,-1.50845,-18.7149,29.5966,-10.8781,-2.9708,-16.4285
-4.50358,18.5677,6.94878,-3.22182,49.8452,0.925082,1.69753,-3.97483,-5.10812,1.06127,-5.35731,-0.65742,0.547599,-2.70456,2.21533,-9.29053,-7.28192,-11.2146,12.5654,-9.28786,7.61493,6.22056,-4.51715,3.4282,9.82866e-14,1.11319e-14,52.9037,-43.0067,-58.0149,43.6949,-74.403,-39.7515,-24.3522,7.12502,-12.7282,-53.9442,9.82866e-14,1.11319e-14,40.7738,-5.53417,30.7795,65.4052,105.736,-24.7906,37.8407,7.12502,1.7138,67.8136,-13.6019,20.1274,16.1704,27.1758,-10.0026,-8.8062,-4.95439,10.5361,-1.10218,-18.5137,30.1311,-9.95628,-3.64197,-15.4682
-4.46831,18.5753,7.0235,-2.82812,49.6727,1.27241,1.69015,-3.9331,-5.13796,1.06688,-5.30076,-0.731876,0.548853,-2.67597,2.1552,-9.26567,-7.36494,-11.1484,12.5571,-9.42436,7.68491,6.22708,-4.57567,3.4266,1.12767e-13,3.97569e-15,51.819,-42.9225,-56.3435,46.2695,-75.5436,-38.8151,-23.1214,7.12502,-11.8253,-52.7675,1.12767e-13,3.97569e-15,40.3756,-3.52751,31.9728,67.7311,106.222,-23.3319,37.1676,7.12502,3.12254,67.1244,-13.5259,20.073,16.0951,27.2438,-10.2211,-8.54956,-4.7709,10.2665,-0.553563,-18.3674,30.6843,-9.07753,-4.16645,-14.9153
-4.4338,18.5836,7.09412,-2.6124,49.4665,1.4276,1.76741,-3.85149,-5.00583,1.10096,-5.19343,-0.796719,0.514643,-2.62083,2.02145,-9.23848,-7.45592,-10.989,12.4871,-9.58087,7.74246,6.21026,-4.64043,3.40471,6.09213e-14,-5.1684e-15,50.8453,-43.0562,-54.8688,48.9079,-76.7126,-38.077,-21.2119,7.12502,-11.1136,-50.8977,6.09213e-14,-5.1684e-15,40.2375,-1.38128,33.3632,69.9394,106.308,-21.38,36.7806,7.12502,5.00745,66.7015,-13.4358,20.1768,16.1308,27.3138,-10.5355,-8.31358,-3.94063,9.99533,-0.00842183,-18.0962,31.2858,-8.15411,-4.63151,-13.7837
-4.39904,18.591,7.16057,-2.43264,49.2991,1.53543,1.90017,-3.84074,-4.86553,1.07046,-5.18658,-0.785569,0.396895,-2.61368,1.96751,-9.06519,-7.45933,-11.0505,12.3902,-9.6069,7.86019,6.16149,-4.65187,3.45564,6.3257e-14,-8.74653e-15,49.9131,-42.9894,-53.4153,51.6393,-77.5626,-37.6727,-19.43,7.12502,-10.7236,-49.1363,6.3257e-14,-8.74653e-15,39.9741,0.812086,34.9207,72.2138,106.14,-19.954,35.8659,7.12502,6.38419,65.7497,-13.3619,20.204,16.1915,27.3963,-10.747,-8.11721,-3.54758,9.69168,0.51017,-17.8169,31.9344,-7.22052,-5.02671,-13.9255
