JuanDHNZ/ProyectoFinalCD/preprocessing/sports_trials_csv/13_20.csv
root1,root2,root3,root4,root5,root6,lowerback1,lowerback2,lowerback3,upperback1,upperback2,upperback3,thorax1,thorax2,thorax3,lowerneck1,lowerneck2,lowerneck3,upperneck1,upperneck2,upperneck3,head1,head2,head3,rclavicle1,rclavicle2,rhumerus1,rhumerus2,rhumerus3,rradius1,rwrist1,rhand1,rhand2,rfingers1,rthumb1,rthumb2,lclavicle1,lclavicle2,lhumerus1,lhumerus2,lhumerus3,lradius1,lwrist1,lhand1,lhand2,lfingers1,lthumb1,lthumb2,rfemur1,rfemur2,rfemur3,rtibia1,rfoot1,rfoot2,rtoes1,lfemur1,lfemur2,lfemur3,ltibia1,lfoot1,lfoot2,ltoes1
-0.283019,18.6742,-1.75877,1.49957,-2.48288,0.355454,3.51864,0.264526,0.868093,0.914254,0.39171,0.708194,-1.03387,0.194188,0.221817,-6.78165,-7.88887,-8.86956,21.3441,-11.9453,10.2628,8.92997,-5.43373,3.71368,9.44227e-16,9.54166e-15,-32.0545,0.606558,-74.0822,38.0934,11.7814,-24.564,4.89004,7.12502,1.93262,-25.0809,9.44227e-16,9.54166e-15,-39.4468,20.7643,69.2812,26.1834,-2.56915,-19.9229,24.3955,7.12502,6.41426,54.2784,-6.01805,20.1848,15.5263,23.1315,-17.8433,-17.3688,-6.54004,0.157361,-9.47476,-12.9976,15.3793,-15.8993,21.3119,-9.67398
-0.28923,18.6718,-1.7666,1.49796,-2.59672,0.3523,3.72221,0.176288,1.01967,0.924685,0.283475,0.773506,-1.13686,0.139525,0.207786,-6.37122,-8.11777,-9.06475,21.6237,-12.276,10.1623,8.99305,-5.62261,3.68725,-6.4605e-16,-9.93923e-15,-31.9794,1.02849,-74.0305,38.9697,11.5147,-24.6973,4.55974,7.12502,1.80389,-25.4124,-6.4605e-16,-9.93923e-15,-39.4127,20.5104,69.631,26.3282,-2.25315,-19.8267,24.737,7.12502,6.50715,54.617,-6.20957,20.1948,15.5286,23.3552,-17.785,-17.346,-6.90021,0.0391181,-9.43539,-12.9799,15.6179,-16.0976,21.3291,-9.2692
-0.297784,18.669,-1.77797,1.49557,-2.72002,0.501456,3.95342,0.0971745,1.01011,0.994673,0.180437,0.768237,-1.19479,0.0879967,0.212134,-6.19731,-8.33107,-9.1475,21.9607,-12.5831,10.0272,9.10829,-5.78501,3.62415,-4.67144e-15,-1.59028e-15,-31.7182,1.29089,-73.9954,39.7487,11.3546,-24.6617,4.74761,7.12502,1.83832,-25.2242,-4.67144e-15,-1.59028e-15,-39.1451,19.951,70.1727,26.4539,-1.60505,-19.8514,24.8571,7.12502,6.48331,54.7378,-6.49418,20.2473,15.3608,23.7223,-17.8514,-17.2656,-7.11492,-0.0502258,-9.27985,-13.112,15.7699,-16.1719,21.2659,-9.18705
-0.307782,18.6648,-1.78794,1.49501,-2.9396,0.65266,4.10745,0.0838446,0.917789,1.13408,0.159944,0.800966,-1.13839,0.0782813,0.298317,-6.25559,-8.54526,-9.16075,22.417,-12.8718,9.78795,9.29498,-5.93145,3.50615,-1.21756e-14,-1.15295e-14,-31.3738,1.51743,-73.8802,40.6044,11.0673,-24.5229,4.76439,7.12502,1.97234,-25.2062,-1.21756e-14,-1.15295e-14,-38.6751,19.1862,70.9373,26.4344,-0.709729,-20.8394,24.2236,7.12502,5.52939,54.1314,-6.79748,20.3467,15.1876,24.0747,-17.867,-17.1765,-7.21528,-0.11422,-8.95507,-13.2426,15.9072,-16.0847,21.2703,-9.78699
-0.316331,18.6612,-1.79326,1.48344,-3.19075,0.835088,4.16741,0.0761049,0.840057,1.31042,0.145142,0.807411,-0.991334,0.0714819,0.349289,-6.24183,-8.76602,-9.1263,22.7658,-13.1551,9.49004,9.42259,-6.08143,3.36251,-3.08116e-15,5.96354e-15,-31.044,1.7473,-73.8162,41.5428,10.9028,-24.4444,4.19587,7.12502,2.04814,-25.774,-3.08116e-15,5.96354e-15,-38.3153,18.7585,71.4464,26.6054,-0.699735,-21.3143,23.8272,7.12502,5.07083,53.7466,-7.09891,20.4759,14.9774,24.4768,-17.9426,-17.097,-7.33249,-0.114672,-8.57905,-13.4131,15.9925,-16.013,21.2142,-10.0078
-0.324086,18.6566,-1.79356,1.44527,-3.42731,1.01873,4.27906,0.0307088,0.818605,1.4382,0.083685,0.802012,-0.922692,0.0410235,0.358797,-6.10698,-8.94582,-9.17363,23.075,-13.3884,9.25565,9.51841,-6.21453,3.26514,1.16289e-14,1.94809e-14,-30.8217,2.14214,-73.8111,42.5262,10.7431,-24.7243,3.91385,7.12502,1.77779,-26.0585,1.16289e-14,1.94809e-14,-38.1356,18.7147,71.6461,26.876,-1.63366,-20.175,24.0908,7.12502,6.17091,53.981,-7.31645,20.5378,14.7822,24.8794,-18.0923,-16.8848,-7.33339,-0.095114,-8.16955,-13.5852,16.1086,-15.9859,21.063,-10.1006
-0.333084,18.6513,-1.80097,1.4306,-3.64744,1.20309,4.50443,-0.0300053,0.752321,1.49875,0.00241803,0.8116,-0.986397,0.000245029,0.409995,-5.92088,-9.07795,-9.26247,23.3729,-13.579,9.13344,9.60743,-6.32312,3.2209,-1.73937e-15,-4.37326e-15,-30.7352,2.68486,-73.8017,43.5916,10.389,-25.4152,4.22597,7.12502,1.11059,-25.7509,-1.73937e-15,-4.37326e-15,-37.9431,18.4926,71.9329,27.1168,-2.25495,-18.7512,24.2998,7.12502,7.54534,54.1452,-7.594,20.6234,14.5725,25.2835,-18.2654,-16.6895,-7.26838,-0.159588,-7.89013,-13.7504,16.2451,-15.9801,21.0207,-10.1882
-0.341533,18.6489,-1.81782,1.46912,-3.85475,1.24302,4.76645,-0.0927477,0.820698,1.5665,-0.074536,0.871206,-1.06297,-0.0383761,0.437275,-5.89881,-9.21439,-9.25858,23.7441,-13.7604,8.91554,9.73858,-6.42125,3.12191,-4.82053e-15,7.95139e-16,-30.5749,3.10225,-73.7483,44.645,10.1422,-25.9669,4.33095,7.12502,0.577727,-25.648,-4.82053e-15,7.95139e-16,-37.6614,18.0813,72.4072,27.4351,-2.23361,-18.1692,24.0683,7.12502,8.10707,53.8928,-7.99959,20.8322,14.5032,25.7011,-18.3607,-16.7168,-7.34703,-0.324294,-7.56215,-13.7326,16.3871,-15.9168,20.9608,-10.274
-0.350424,18.647,-1.83659,1.58138,-4.07202,1.34972,4.94301,-0.137627,0.835662,1.65689,-0.131867,0.899381,-1.06857,-0.067033,0.461344,-5.93271,-9.37884,-9.2881,24.0847,-13.9879,8.77337,9.88332,-6.5347,3.04465,-1.19271e-14,4.37326e-15,-30.2968,3.44514,-73.6733,45.6723,9.9479,-26.3352,4.48216,7.12502,0.221973,-25.4975,-1.19271e-14,4.37326e-15,-37.3781,17.646,72.9032,27.9173,-2.17382,-18.0854,23.8798,7.12502,8.18794,53.7012,-8.52578,21.0015,14.312,26.1355,-18.4103,-16.6959,-7.26615,-0.60503,-7.35218,-13.788,16.585,-15.9896,20.9639,-10.18
-0.356785,18.643,-1.8511,1.66356,-4.28353,1.56231,5.13138,-0.197279,0.767199,1.75996,-0.213268,0.902072,-1.0674,-0.107753,0.507721,-5.82384,-9.50843,-9.29108,24.2019,-14.1597,8.64584,9.91371,-6.6278,2.9828,-3.18055e-15,1.35174e-14,-30.0237,3.95626,-73.6346,46.7197,9.71985,-27.0283,5.26195,7.12502,-0.447404,-24.7173,-3.18055e-15,1.35174e-14,-37.0859,17.2207,73.3618,28.3285,-2.19664,-18.4139,24.0348,7.12502,7.87091,53.8683,-9.00632,21.0998,14.0074,26.5928,-18.5306,-16.5428,-7.30839,-0.886937,-7.07859,-13.9717,16.8671,-16.0267,20.9216,-10.1
-0.362128,18.6371,-1.86795,1.75015,-4.49375,1.76969,5.32269,-0.280965,0.693641,1.87269,-0.326739,0.938436,-1.05729,-0.164622,0.593778,-5.72091,-9.59791,-9.35452,24.2578,-14.2565,8.51221,9.91948,-6.69293,2.93824,-1.30204e-14,-6.36111e-15,-29.701,4.6621,-73.5753,47.7751,9.43557,-27.2301,5.49055,7.12502,-0.642281,-24.4882,-1.30204e-14,-6.36111e-15,-36.7802,16.7215,73.9349,28.7994,-2.032,-18.9836,24.4248,7.12502,7.32096,54.2782,-9.50401,21.1967,13.7108,27.0798,-18.6215,-16.4568,-7.40429,-1.20337,-6.56087,-14.1311,17.2063,-15.9936,20.661,-10.1162
-0.369339,18.6315,-1.8901,1.89177,-4.75065,1.90207,5.50758,-0.331519,0.726661,1.99175,-0.391321,0.945866,-1.03783,-0.196858,0.587619,-5.7576,-9.70937,-9.31148,24.3976,-14.4036,8.39803,9.98004,-6.7636,2.86955,-9.14409e-15,7.95139e-16,-29.2502,5.04409,-73.5014,48.7003,9.17284,-26.8315,5.55903,7.12502,-0.257306,-24.4206,-9.14409e-15,7.95139e-16,-36.4256,16.0109,74.554,29.5272,-1.60778,-19.3885,24.5951,7.12502,6.93014,54.4617,-10.1199,21.3541,13.4764,27.6035,-18.66,-16.4636,-7.52438,-1.60929,-6.01664,-14.1849,17.576,-16.013,20.4382,-10.2253
-0.376486,18.6244,-1.91612,1.97692,-5.03215,2.00712,5.83109,-0.365029,0.768265,2.10612,-0.430431,0.966582,-1.10034,-0.216487,0.589928,-5.73539,-9.82829,-9.2385,24.4256,-14.5571,8.28126,9.98672,-6.83884,2.7978,1.59028e-15,-3.18055e-15,-28.8354,5.29865,-73.3938,49.6377,9.03849,-26.712,5.75655,7.12502,-0.141949,-24.2231,1.59028e-15,-3.18055e-15,-36.0386,15.2355,75.1919,30.1759,-1.30919,-20.0936,24.308,7.12502,6.24941,54.1958,-10.6966,21.5626,13.2834,28.18,-18.821,-16.4002,-7.52835,-1.97596,-5.54774,-14.2289,17.9626,-16.071,20.3098,-10.3227
-0.379383,18.6177,-1.93623,2.00897,-5.36377,2.2576,6.11712,-0.408523,0.721532,2.21877,-0.488836,0.948548,-1.14315,-0.245847,0.603357,-5.59555,-9.87443,-9.27872,24.3963,-14.6203,8.26749,9.95857,-6.87785,2.79823,-1.49089e-14,-1.19271e-14,-28.5542,5.65424,-73.297,50.6926,9.09062,-26.8313,5.8756,7.12502,-0.257188,-24.104,-1.49089e-14,-1.19271e-14,-35.6864,14.4664,75.7998,30.6376,-1.51238,-20.891,24.4562,7.12502,5.47957,54.3653,-11.2353,21.7712,12.9046,28.7963,-19.0768,-16.1836,-7.24875,-2.26534,-5.12161,-14.4933,18.3881,-16.167,20.2299,-10.3608
-0.380254,18.6078,-1.95642,2.06787,-5.80751,2.68958,6.32153,-0.419552,0.478662,2.33559,-0.517649,0.908184,-1.13478,-0.260978,0.701374,-5.50227,-9.8894,-9.30988,24.3587,-14.6228,8.20358,9.92504,-6.89128,2.78586,-1.50082e-14,-6.36111e-15,-28.2348,6.06833,-73.1411,51.75,9.03046,-26.7391,6.13559,7.12502,-0.168109,-23.8441,-1.50082e-14,-6.36111e-15,-35.3604,13.4988,76.5141,31.1821,-1.73162,-21.7497,24.5929,7.12502,4.65044,54.5219,-11.9116,21.9573,12.2633,29.4425,-19.281,-15.8718,-7.12794,-2.59487,-4.59883,-14.9668,18.8452,-16.3538,20.1375,-10.2981
-0.385934,18.5961,-1.98412,2.16847,-6.31688,2.89964,6.65463,-0.425308,0.349324,2.43985,-0.530238,0.979216,-1.21055,-0.268163,0.850387,-5.66236,-9.91802,-9.30798,24.451,-14.6129,8.01783,9.97246,-6.89635,2.71362,1.96797e-14,-9.54166e-15,-27.8069,6.53783,-72.8962,52.7768,8.81762,-26.6572,6.04334,7.12502,-0.088998,-23.9364,1.96797e-14,-9.54166e-15,-34.9737,12.4404,77.3499,31.8558,-1.65064,-22.5477,24.6878,7.12502,3.8799,54.6323,-12.6992,22.1977,11.875,30.1333,-19.4006,-15.5747,-7.05496,-2.97626,-4.02739,-15.1636,19.2731,-16.4371,20.1736,-10.6011
-0.395949,18.5856,-2.01414,2.29716,-6.78161,2.982,7.00009,-0.440649,0.334028,2.54837,-0.548571,1.05458,-1.28938,-0.277904,0.940609,-5.82674,-9.93638,-9.30699,24.5003,-14.6177,7.96426,10.0175,-6.89642,2.68507,-1.64991e-14,1.82882e-14,-27.3389,6.84532,-72.7075,53.7373,8.72057,-26.6892,5.81358,7.12502,-0.119917,-24.1661,-1.64991e-14,1.82882e-14,-34.5006,11.1428,78.1908,32.5335,-1.49045,-23.2212,24.6211,7.12502,3.22951,54.5764,-13.5395,22.4703,11.6562,30.9089,-19.5464,-15.4345,-7.0959,-3.39906,-3.48418,-15.186,19.6489,-16.402,20.2121,-10.9711
-0.40607,18.5735,-2.03961,2.37837,-7.1983,3.25801,7.23571,-0.461094,0.149189,2.72054,-0.588359,1.06241,-1.24019,-0.29912,1.05703,-5.83959,-9.94787,-9.30772,24.3292,-14.6285,8.02048,9.96385,-6.89784,2.70328,1.21259e-14,4.53229e-14,-26.7563,7.02197,-72.5429,54.5134,8.98104,-27.1047,5.79278,7.12502,-0.521189,-24.1863,1.21259e-14,4.53229e-14,-33.9578,9.72519,79.0355,33.1652,-1.59505,-24.0691,24.2914,7.12502,2.41066,54.2575,-14.3617,22.6259,11.2262,31.733,-19.6977,-15.1623,-6.9804,-3.76485,-2.99937,-15.4388,20.0357,-16.4811,20.1788,-11.0604
-0.406462,18.5623,-2.06845,2.52352,-7.62226,3.9841,7.4326,-0.472976,-0.34686,2.81821,-0.641249,0.918537,-1.24383,-0.327466,1.19346,-5.73975,-9.96615,-9.28571,24.0579,-14.6437,8.05269,9.84962,-6.90743,2.71578,-7.35503e-15,-1.59028e-14,-26.1806,7.21468,-72.3569,55.2483,9.26781,-27.4781,5.995,7.12502,-0.881886,-23.9829,-7.35503e-15,-1.59028e-14,-33.4656,8.24539,79.8931,33.8998,-1.83473,-25.2627,24.7049,7.12502,1.25789,54.6809,-15.3616,22.5013,10.1883,32.5874,-19.7639,-14.5902,-6.97427,-4.24625,-2.47116,-16.2258,20.4053,-16.532,20.1758,-11.2606
-0.41108,18.5509,-2.09991,2.64491,-8.13214,4.39618,7.79339,-0.481779,-0.616956,2.85943,-0.673377,0.905199,-1.39712,-0.344162,1.33817,-5.67123,-9.95567,-9.37562,23.9735,-14.609,8.04097,9.8095,-6.90356,2.73443,-3.97569e-15,7.15625e-15,-25.6498,7.56631,-72.1394,55.9646,9.27442,-27.478,6.35092,7.12502,-0.881756,-23.627,-3.97569e-15,7.15625e-15,-33.1063,6.75307,80.768,34.6357,-2.11975,-26.3508,24.8499,7.12502,0.20692,54.8295,-16.3329,22.488,9.55353,33.4358,-19.6945,-14.2114,-7.61187,-4.65433,-1.84709,-16.6488,20.7562,-16.4981,20.1974,-11.5418
-0.417285,18.5381,-2.13204,2.77704,-8.639,4.61563,8.11341,-0.507125,-0.69607,2.95773,-0.71415,0.935215,-1.47006,-0.365253,1.42047,-5.75024,-9.94335,-9.37185,23.9511,-14.565,7.96987,9.80576,-6.88681,2.71126,-9.14409e-15,-3.97569e-15,-24.9759,7.87855,-71.9363,56.5691,9.30402,-27.5468,6.28351,7.12502,-0.948199,-23.6941,-9.14409e-15,-3.97569e-15,-32.6502,5.29867,81.5876,35.3029,-2.50095,-27.3217,24.6249,7.12502,-0.730767,54.6034,-17.2696,22.5747,9.14711,34.2278,-19.6883,-13.9124,-7.62612,-5.05635,-1.24047,-16.8459,21.1313,-16.5087,20.1435,-11.7134
-0.422693,18.5255,-2.1671,2.95007,-9.15503,4.81435,8.42135,-0.535751,-0.715376,3.05507,-0.755153,0.953626,-1.5379,-0.386224,1.45741,-5.68968,-9.9233,-9.33124,23.6621,-14.5086,7.9402,9.6795,-6.86651,2.7075,-1.61016e-14,3.97569e-15,-24.2274,8.18372,-71.7528,57.0891,9.40523,-27.8764,6.10009,7.12502,-1.26649,-23.8759,-1.61016e-14,3.97569e-15,-32.137,3.76267,82.3724,35.9947,-3.06858,-28.2392,24.8336,7.12502,-1.61696,54.8072,-18.2291,22.6571,8.73119,34.9201,-19.6802,-13.5409,-7.24654,-5.55013,-0.637708,-17.0115,21.5417,-16.4969,20.0312,-11.9785
-0.427024,18.5107,-2.19891,2.97129,-9.88098,4.95584,8.88161,-0.488361,-0.669867,3.19261,-0.691004,0.970492,-1.65196,-0.354644,1.44789,-5.60841,-9.91119,-9.29734,23.3423,-14.473,7.95701,9.5455,-6.85313,2.7192,-1.68967e-14,-3.57812e-14,-23.4573,8.4555,-71.588,57.4741,9.60892,-28.4671,6.03296,7.12502,-1.83706,-23.9389,-1.68967e-14,-3.57812e-14,-31.6107,2.10358,83.1054,36.7701,-4.09856,-28.3833,25.7995,7.12502,-1.75609,55.772,-19.0109,22.8581,8.41939,35.5214,-19.6267,-13.0911,-7.12466,-5.80825,0.0889687,-17.1305,21.9088,-16.6244,19.9559,-11.9614
-0.432545,18.4975,-2.22509,2.87909,-10.6936,5.13407,9.33609,-0.441751,-0.666757,3.37528,-0.632056,0.980356,-1.71497,-0.326539,1.4545,-5.53622,-9.84055,-9.33946,23.128,-14.3701,8.03543,9.45533,-6.80737,2.77123,1.23246e-14,1.59028e-15,-22.631,8.7827,-71.4432,57.7606,9.93359,-29.1122,6.14103,7.12502,-2.46003,-23.8245,1.23246e-14,1.59028e-15,-31.0078,0.62093,83.7558,37.4698,-5.33185,-27.8659,26.9386,7.12502,-1.25639,56.9146,-19.6275,23.1167,8.1148,36.0483,-19.602,-12.5661,-6.93182,-5.84825,0.803014,-17.2969,22.1851,-16.8563,19.9377,-11.8279
-0.436424,18.4855,-2.25194,2.82157,-11.4154,5.45378,9.70714,-0.452085,-0.803187,3.56096,-0.661287,0.990521,-1.72402,-0.343415,1.54813,-5.55747,-9.73092,-9.46072,23.0221,-14.1965,8.07874,9.41743,-6.73351,2.82697,-3.26007e-14,-1.59028e-15,-21.6658,9.24548,-71.2405,57.9845,10.3251,-29.9153,5.99223,7.12502,-3.23563,-23.963,-3.26007e-14,-1.59028e-15,-30.3118,-0.91142,84.5442,38.0058,-5.51213,-27.4452,27.3975,7.12502,-0.850053,57.3755,-20.2441,23.2833,7.63808,36.4939,-19.5677,-12.108,-7.03377,-5.92835,1.39366,-17.6241,22.3794,-17.0066,19.8995,-11.672
-0.437386,18.4779,-2.27745,2.7969,-12.0872,5.78626,10.0803,-0.478193,-0.863046,3.71209,-0.705777,0.960979,-1.77036,-0.366936,1.55986,-5.59348,-9.64008,-9.45672,22.9075,-14.0406,8.02229,9.36314,-6.66635,2.82644,-9.14409e-15,8.74653e-15,-20.6689,9.64857,-71.0641,58.0185,10.7954,-30.6711,5.72202,7.12502,-3.96558,-24.2208,-9.14409e-15,8.74653e-15,-29.5893,-2.7948,85.4085,38.425,-4.82761,-27.1143,27.3861,7.12502,-0.530496,57.3652,-20.831,23.3886,7.12549,36.8374,-19.555,-11.6064,-7.01574,-6.03862,1.82967,-17.9907,22.5177,-17.1169,20.0183,-11.6862
-0.434494,18.4721,-2.30451,2.84758,-12.7175,6.10794,10.2994,-0.529065,-0.799959,3.92525,-0.772226,0.891316,-1.66908,-0.401957,1.461,-5.66867,-9.53848,-9.29375,22.6543,-13.8661,7.93203,9.2508,-6.58121,2.79108,4.37326e-15,-6.36111e-15,-19.5555,9.92559,-70.9273,57.9692,11.3636,-31.4284,5.79228,7.12502,-4.6968,-24.1357,4.37326e-15,-6.36111e-15,-28.7089,-4.50674,86.0564,38.9691,-4.87698,-27.0782,26.8719,7.12502,-0.495624,56.851,-21.445,23.4581,6.57936,37.0698,-19.5127,-11.0747,-7.00804,-6.23411,2.25471,-18.3562,22.6266,-17.1753,20.1656,-11.5163
-0.432465,18.468,-2.33149,3.00438,-13.3623,6.30174,10.3065,-0.598716,-0.533091,4.22693,-0.844684,0.787186,-1.3637,-0.439562,1.20872,-5.88626,-9.42777,-9.0344,22.3871,-13.7012,7.92829,9.16086,-6.48066,2.76159,-9.14409e-15,0,-18.2276,9.99149,-70.8481,57.8362,11.8762,-31.8723,6.0706,7.12502,-5.12544,-23.8474,-9.14409e-15,0,-27.6089,-6.31385,86.4678,39.586,-5.23488,-27.5993,26.1302,7.12502,-0.998951,56.1076,-22.1008,23.5702,6.1567,37.1921,-19.393,-10.7705,-7.23341,-6.51535,2.74857,-18.5775,22.7331,-17.2453,20.2429,-11.3352
-0.432606,18.4666,-2.35659,3.15771,-14.0082,6.42258,10.4119,-0.68441,-0.252615,4.42659,-0.935528,0.733031,-1.2176,-0.483929,1.00487,-5.94833,-9.30924,-8.78441,22.1729,-13.5214,7.83306,9.05404,-6.38711,2.71205,-3.18055e-15,1.11319e-14,-17.081,10.1771,-70.7806,57.7139,12.3528,-32.1177,6.45711,7.12502,-5.36238,-23.455,-3.18055e-15,1.11319e-14,-26.6294,-8.33489,86.9518,40.1414,-5.09709,-27.7006,25.9915,7.12502,-1.09671,55.9685,-22.6801,23.6726,5.82076,37.2249,-19.3571,-10.38,-7.02338,-6.77837,3.16161,-18.7231,22.8392,-17.3138,20.3846,-11.2863
-0.42959,18.4649,-2.38026,3.22914,-14.7453,6.58582,10.8419,-0.740188,-0.144766,4.47139,-0.998293,0.797342,-1.40506,-0.51484,1.02443,-5.90788,-9.17969,-8.71398,22.1096,-13.2844,7.56607,8.97753,-6.29751,2.64369,1.39149e-14,-1.82882e-14,-16.1229,10.7713,-70.5362,57.5977,12.717,-32.6138,6.23165,7.12502,-5.84139,-23.6678,1.39149e-14,-1.82882e-14,-25.8406,-9.97893,87.5859,40.61,-4.85846,-27.6488,25.5137,7.12502,-1.04671,55.4909,-23.1605,23.7138,5.44474,37.1879,-19.2524,-9.75053,-7.21626,-6.95745,3.51,-18.9474,22.9598,-17.5116,20.6726,-10.9048
-0.424102,18.4636,-2.4022,3.27136,-15.5756,6.82461,11.3464,-0.729488,-0.205604,4.48304,-0.9871,0.944635,-1.66399,-0.510831,1.21831,-5.80628,-9.07197,-8.8464,22.0238,-13.0673,7.3601,8.90427,-6.22906,2.62762,0,-1.59028e-14,-15.1766,11.3143,-70.1129,57.4522,13.1683,-33.0801,5.73646,7.12502,-6.29154,-24.1501,0,-1.59028e-14,-25.0309,-11.3067,88.3322,40.951,-4.86706,-27.7168,24.4952,7.12502,-1.11235,54.4721,-23.6507,23.8403,4.9564,37.1183,-19.1452,-9.07553,-7.6794,-7.09456,3.96492,-19.2693,23.0459,-17.683,20.9716,-10.5697
-0.418117,18.4631,-2.42771,3.42858,-16.4085,6.91379,11.7965,-0.713459,-0.134747,4.52632,-0.953813,1.13779,-1.86197,-0.495412,1.38187,-5.81901,-8.98085,-8.96602,21.8775,-12.8822,7.24259,8.83976,-6.16332,2.6299,1.35174e-14,-9.54166e-15,-14.1171,11.439,-69.7289,57.2403,13.9009,-33.1077,5.279,7.12502,-6.31815,-24.6068,1.35174e-14,-9.54166e-15,-24.1009,-12.703,89.0383,41.3386,-4.8472,-27.7614,24.0097,7.12502,-1.15549,53.9863,-24.2686,23.9733,4.58322,37.0351,-18.9911,-8.39034,-7.77426,-7.32066,4.48078,-19.425,23.084,-17.7014,21.2611,-10.538
-0.410452,18.4662,-2.45407,3.62093,-17.2719,7.09429,12.2468,-0.686441,-0.162085,4.5714,-0.916463,1.31703,-2.05659,-0.47865,1.58597,-5.93964,-8.8944,-9.0319,21.7313,-12.6918,7.07526,8.78766,-6.0917,2.6026,-4.37326e-14,-9.54166e-15,-12.8551,11.6368,-69.3348,56.7839,14.5894,-33.1524,4.84271,7.12502,-6.36134,-25.0418,-4.37326e-14,-9.54166e-15,-23.1018,-13.9988,89.6709,41.8073,-4.98862,-27.6218,24.1302,7.12502,-1.0206,54.1075,-24.9941,23.9459,4.07892,36.9293,-18.7537,-7.5346,-7.11284,-7.63134,4.99017,-19.6993,23.1341,-17.7864,21.5478,-10.2779
-0.398861,18.4711,-2.47713,3.77815,-18.1655,7.42419,12.7006,-0.660012,-0.29635,4.5743,-0.892827,1.45638,-2.29549,-0.468343,1.81158,-5.98017,-8.79678,-9.05499,21.6018,-12.4853,6.84039,8.71809,-6.01753,2.55174,1.23246e-14,6.36111e-15,-11.6333,12.1339,-68.8789,56.1843,15.0687,-33.4816,4.85326,7.12502,-6.67914,-25.0214,1.23246e-14,6.36111e-15,-22.2025,-15.2629,90.3014,42.2918,-5.03952,-27.5465,24.3868,7.12502,-0.947896,54.3644,-25.7255,23.7705,3.40574,36.8039,-18.4667,-6.51546,-6.18311,-7.97039,5.48762,-20.1703,23.2397,-17.8596,21.9078,-10.2051
-0.386182,18.4759,-2.50567,4.04256,-19.0311,7.51769,13.0682,-0.711848,-0.0445594,4.65423,-0.929452,1.52489,-2.41247,-0.486495,1.75204,-6.07208,-8.66877,-8.98865,21.3861,-12.2723,6.75589,8.63182,-5.91955,2.53619,-4.25399e-14,2.22639e-14,-10.3317,12.4126,-68.6219,55.6521,15.5606,-33.4921,4.91801,7.12502,-6.6893,-24.9563,-4.25399e-14,2.22639e-14,-21.0075,-16.5326,90.5813,42.6174,-5.19293,-27.2508,24.5489,7.12502,-0.662335,54.5276,-26.5139,23.5748,2.99213,36.6645,-18.0632,-5.55831,-5.63182,-8.40527,5.94144,-20.3859,23.3722,-17.8772,22.2843,-10.2051
-0.373774,18.4794,-2.53992,4.37977,-20.0142,7.43355,13.3847,-0.790475,0.523279,4.85162,-0.967637,1.45619,-2.38636,-0.504168,1.36923,-6.31054,-8.51705,-8.74047,21.0724,-12.064,6.81316,8.53641,-5.79453,2.53286,-2.3059e-14,-4.13472e-14,-8.82006,12.4224,-68.6748,55.108,16.1182,-33.5253,4.88956,7.12502,-6.72129,-24.9838,-2.3059e-14,-4.13472e-14,-19.4208,-17.6779,90.4034,42.7508,-5.70401,-26.9529,24.7833,7.12502,-0.374604,54.7627,-27.391,23.4957,2.75945,36.5003,-17.6419,-4.69502,-5.73683,-8.89251,6.3538,-20.4032,23.5243,-18.0419,22.699,-9.94221
-0.360069,18.4837,-2.57241,4.7502,-21.0248,7.53191,13.7001,-0.818889,0.849868,4.97603,-0.965905,1.39795,-2.43226,-0.5025,1.1284,-6.55052,-8.39565,-8.48268,20.8042,-11.8668,6.70187,8.44773,-5.68837,2.47016,2.54444e-14,-7.95139e-15,-7.38127,12.5114,-68.6245,54.5055,16.6318,-33.5162,4.82302,7.12502,-6.71255,-25.0506,2.54444e-14,-7.95139e-15,-17.9951,-18.6704,90.2991,43.048,-6.06947,-26.6813,24.8277,7.12502,-0.112311,54.8074,-28.3494,23.3146,2.30067,36.3049,-17.2914,-3.76311,-5.55259,-9.47515,6.68061,-20.6307,23.6903,-18.311,23.1235,-9.46534
-0.345892,18.4891,-2.59779,5.0724,-22.0563,7.75118,14.0442,-0.826781,0.941377,5.03218,-0.961371,1.42325,-2.55939,-0.501292,1.1082,-6.70692,-8.29427,-8.50149,20.5593,-11.6834,6.66183,8.37653,-5.60505,2.47621,-3.4191e-14,9.54166e-15,-6.0447,12.7982,-68.4242,53.8759,17.2106,-33.5334,4.18126,7.12502,-6.72919,-25.6918,-3.4191e-14,9.54166e-15,-16.8113,-19.4323,90.3774,43.4477,-6.45104,-26.7192,24.6839,7.12502,-0.148925,54.6635,-29.2742,23.0337,1.73843,36.1272,-17.0394,-2.75606,-5.38939,-10.0123,7.18562,-21.003,23.8631,-18.5295,23.4793,-9.11916
-0.334978,18.4938,-2.62163,5.29475,-23.1932,7.98832,14.4843,-0.800373,0.958786,5.13982,-0.922125,1.4301,-2.6831,-0.48381,1.10603,-7.02758,-8.20646,-8.56685,20.3674,-11.5394,6.78481,8.36944,-5.52437,2.53157,5.64548e-14,2.22639e-14,-4.67702,13.1131,-68.2331,53.2541,17.74,-33.5571,3.63392,7.12502,-6.75206,-26.2384,5.64548e-14,2.22639e-14,-15.5356,-20.2527,90.3439,43.7907,-6.77223,-26.9685,24.7013,7.12502,-0.38964,54.6807,-30.1174,23.0425,1.16362,35.9525,-16.9349,-2.0182,-5.49515,-10.4267,7.84041,-21.372,24.0194,-18.5622,23.8343,-9.36904
-0.327914,18.4951,-2.64934,5.61288,-24.3497,8.13173,14.9058,-0.725873,1.00934,5.2637,-0.816354,1.43402,-2.78027,-0.433486,1.06992,-7.20498,-8.11925,-8.35196,19.9324,-11.3973,6.76399,8.2282,-5.44264,2.50304,9.54166e-15,-3.18055e-15,-3.27431,13.2557,-68.0456,52.5215,18.2158,-33.4881,3.75543,7.12502,-6.68544,-26.119,9.54166e-15,-3.18055e-15,-14.208,-21.1248,90.2229,44.1382,-7.05616,-26.6603,24.3698,7.12502,-0.0919666,54.3495,-31.0321,23.1858,0.644603,35.7981,-17.0856,-1.54233,-6.11508,-10.9069,8.56925,-21.6312,24.1677,-18.3735,24.0914,-9.82599
-0.31695,18.5012,-2.68136,6.07014,-25.3448,8.33152,15.2288,-0.711945,1.07502,5.35492,-0.787792,1.44554,-2.85764,-0.420962,1.04441,-7.3051,-8.00762,-8.1192,19.3888,-11.1945,6.61294,8.02442,-5.34555,2.43988,1.90833e-14,-7.95139e-15,-1.91553,13.3119,-67.8177,51.8774,18.701,-33.4888,3.44456,7.12502,-6.68606,-26.4299,1.90833e-14,-7.95139e-15,-12.8884,-21.8158,90.0934,44.5459,-7.34027,-25.7466,23.834,7.12502,0.790441,53.8123,-32.0946,23.068,0.0423735,35.6793,-17.3295,-1.07565,-7.47363,-11.5543,9.14977,-21.9656,24.2287,-18.174,24.2296,-10.166
-0.303801,18.5048,-2.70951,6.48825,-26.3339,8.64374,15.5307,-0.714083,1.05409,5.45054,-0.79408,1.43593,-2.91762,-0.426033,1.05127,-7.47092,-7.88665,-8.01626,18.9692,-10.9887,6.5686,7.88934,-5.24416,2.4289,7.15625e-15,3.33958e-14,-0.586342,13.3345,-67.615,51.2248,19.2052,-33.4154,3.21421,7.12502,-6.6152,-26.6625,7.15625e-15,3.33958e-14,-11.5889,-22.5204,89.9255,44.9449,-7.78656,-25.6017,23.768,7.12502,0.930417,53.7457,-33.1702,22.7813,-0.628055,35.5955,-17.5268,-0.537052,-8.61306,-12.1958,9.59005,-22.3865,24.2229,-18.1125,24.3219,-10.3207
-0.294744,18.5114,-2.7318,6.65833,-27.3596,9.01081,16.018,-0.68926,0.955291,5.61393,-0.776845,1.41701,-3.00351,-0.420721,1.09053,-7.63275,-7.78218,-7.99134,18.5923,-10.8022,6.54264,7.77585,-5.15517,2.43379,1.35174e-14,3.81667e-14,0.812572,13.3729,-67.4483,50.4967,19.6578,-32.8196,3.28014,7.12502,-6.04,-26.6138,1.35174e-14,3.81667e-14,-10.3366,-23.1761,89.7461,45.3864,-8.45922,-25.8736,24.1533,7.12502,0.667798,54.132,-33.9304,22.498,-1.19674,35.4524,-17.6261,-0.190838,-9.73077,-12.5963,10.1631,-22.8088,24.2863,-17.8564,24.3447,-11.287
-0.289248,18.5202,-2.75539,6.66591,-28.4001,9.17345,16.8218,-0.670859,1.03093,5.83758,-0.738228,1.425,-3.19353,-0.405276,1.0597,-7.78481,-7.66286,-7.93543,18.1558,-10.5857,6.45944,7.63433,-5.05525,2.41928,-1.03368e-14,7.95139e-15,2.2355,13.4155,-67.3184,49.7757,19.9492,-32.1126,3.38251,7.12502,-5.3574,-26.5298,-1.03368e-14,7.95139e-15,-9.05517,-23.638,89.4809,45.8155,-8.8753,-25.8467,23.9243,7.12502,0.693791,53.9029,-34.4474,22.4621,-1.44957,35.3474,-17.7386,-0.513338,-11.4594,-12.6335,10.8279,-22.9596,24.2332,-17.3332,24.3386,-12.775
-0.287307,18.5217,-2.78498,7.05714,-29.5581,8.65662,17.6129,-0.650414,1.53776,6.06813,-0.619738,1.58507,-3.36894,-0.350345,0.928419,-8.1025,-7.53401,-7.81825,17.7677,-10.3566,6.36546,7.53408,-4.94173,2.3863,-3.33958e-14,-1.59028e-15,3.71394,13.5468,-67.1676,49.084,19.951,-31.8222,3.39298,7.12502,-5.07709,-26.5262,-3.33958e-14,-1.59028e-15,-7.68979,-24.131,89.0316,46.2686,-8.57492,-25.6758,23.6806,7.12502,0.858907,53.6586,-35.1252,22.8819,-1.18077,35.2087,-17.8057,-1.89049,-13.4071,-12.8291,11.7343,-22.4311,24.2301,-16.8404,24.2273,-13.801
-0.281666,18.5229,-2.81284,7.13837,-30.2549,9.65273,18.0305,-0.68262,0.892334,6.14364,-0.771326,1.48229,-3.5011,-0.429366,1.22226,-8.39723,-7.49183,-7.56558,17.362,-10.2469,6.15363,7.42017,-4.88656,2.28209,2.78299e-14,4.92986e-14,5.13931,13.6623,-66.9239,48.3877,19.9083,-32.3037,2.83705,7.12502,-5.54198,-27.0705,2.78299e-14,4.92986e-14,-6.2835,-24.7582,88.6574,46.6916,-8.10488,-25.2719,23.798,7.12502,1.24898,53.7741,-35.95,22.1547,-2.33733,35.1485,-17.8375,-3.68023,-15.1946,-13.5267,12.1333,-23.4704,24.256,-16.2615,24.0723,-14.6186
-0.276972,18.5284,-2.83581,7.56122,-31.0103,9.80744,18.3646,-0.690309,1.03944,6.28005,-0.756775,1.51897,-3.53177,-0.424471,1.17895,-8.51429,-7.43943,-7.2713,16.7919,-10.1448,6.00375,7.22386,-4.83318,2.19932,6.36111e-14,-1.43125e-14,6.51545,13.5168,-66.7503,47.6405,19.9849,-32.8236,2.35201,7.12502,-6.04391,-27.5418,6.36111e-14,-1.43125e-14,-4.86848,-25.5224,88.3064,47.0951,-7.725,-25.0786,24.5047,7.12502,1.43561,54.4796,-36.7151,21.5348,-2.6027,35.1135,-17.7562,-5.67727,-15.917,-14.1319,12.385,-23.6917,24.372,-16.1885,24.0037,-14.6168
-0.275106,18.5308,-2.85561,7.84626,-31.7519,10.0657,18.7104,-0.700776,1.17442,6.50004,-0.753513,1.49326,-3.47914,-0.425296,1.07797,-8.77248,-7.34881,-7.08402,16.3238,-9.98666,5.92709,7.09245,-4.75013,2.15706,-1.00983e-13,-3.49861e-14,7.95094,13.1876,-66.6334,46.8732,20.0832,-32.3629,2.2108,7.12502,-5.59912,-27.6952,-1.00983e-13,-3.49861e-14,-3.29479,-26.2953,87.8137,47.4299,-7.23758,-25.3857,24.8622,7.12502,1.1391,54.8389,-37.4069,20.9358,-2.93301,35.2269,-18.1092,-7.46982,-14.0129,-14.5348,12.7093,-24.0016,24.333,-16.0613,23.8806,-14.7798
-0.275499,18.5316,-2.87716,8.1652,-32.5385,10.3012,19.1299,-0.733056,1.15711,6.66523,-0.798839,1.5342,-3.51914,-0.451491,1.14644,-9.0359,-7.18159,-7.0182,15.9418,-9.70994,5.83537,6.98804,-4.61857,2.14062,1.59028e-14,2.22639e-14,9.38723,13.0823,-66.517,46.127,19.8913,-32.533,2.15481,7.12502,-5.76338,-27.7468,1.59028e-14,2.22639e-14,-1.71086,-26.8646,87.2323,47.693,-6.38634,-26.0012,24.4018,7.12502,0.544586,54.3809,-38.1554,20.2861,-3.18995,35.3668,-18.7878,-9.0463,-9.99162,-15.0431,13.1659,-24.2915,24.347,-15.8215,23.742,-15.1143
-0.278356,18.5307,-2.89986,8.50163,-33.3306,10.5677,19.6155,-0.730987,1.03585,6.74038,-0.812275,1.60827,-3.6871,-0.462423,1.30503,-9.17772,-7.02354,-6.98337,15.5709,-9.44377,5.70112,6.86693,-4.49958,2.11847,-6.36111e-14,5.88403e-14,10.6462,13.1049,-66.3434,45.4248,19.2862,-33.4306,2.38997,7.12502,-6.62987,-27.4862,-6.36111e-14,5.88403e-14,-0.224855,-27.2463,86.808,47.8508,-5.57915,-26.1391,23.9687,7.12502,0.411401,53.948,-38.9607,19.4914,-3.37212,35.5611,-19.1112,-10.497,-7.09289,-15.579,13.5261,-24.5977,24.3241,-15.6475,23.6306,-14.8151
-0.283835,18.5315,-2.92024,8.84054,-33.9777,10.7734,20.0866,-0.745939,1.07953,6.85072,-0.819892,1.66484,-3.81105,-0.469367,1.34979,-9.28362,-6.93133,-6.90664,15.1346,-9.27628,5.58114,6.72464,-4.42494,2.08591,9.14409e-14,-1.11319e-14,11.8284,12.9645,-66.2381,44.7292,18.543,-33.6958,2.54947,7.12502,-6.88589,-27.3185,9.14409e-14,-1.11319e-14,1.2635,-27.3667,86.5861,47.9265,-5.02575,-25.5434,23.7165,7.12502,0.986716,53.6939,-39.6581,18.6608,-3.42826,35.7504,-19.0731,-11.9512,-5.16282,-16.0823,13.8217,-24.8373,24.3084,-15.359,23.5416,-15.15
-0.292138,18.5324,-2.94063,9.15267,-34.5783,11.0247,20.3494,-0.808865,1.28088,7.04733,-0.875246,1.55342,-3.73838,-0.497248,1.13182,-9.33506,-6.86489,-6.6737,14.6428,-9.18631,5.5601,6.55807,-4.37274,2.05484,7.95139e-14,-3.18055e-14,13.0232,12.6329,-66.3754,44.0716,18.037,-33.5381,1.84984,7.12502,-6.73365,-28.0231,7.95139e-14,-3.18055e-14,2.89951,-27.7621,85.9826,47.9983,-4.20829,-25.0821,23.7309,7.12502,1.43223,53.7058,-40.3596,17.8445,-3.52581,35.8994,-18.753,-13.0806,-3.22131,-16.6409,14.1111,-25.1175,24.3462,-14.9698,23.5263,-15.7884
-0.302081,18.5319,-2.96095,9.55509,-35.203,11.2721,20.8221,-0.691351,1.00044,7.01227,-0.756001,1.81919,-4.01239,-0.445096,1.55704,-9.37413,-6.87323,-6.87091,14.4029,-9.12631,5.41082,6.4871,-4.36606,2.04566,-1.27222e-14,-1.59028e-14,13.9656,12.5114,-65.9578,43.5175,17.3693,-33.223,1.39225,7.12502,-6.42954,-28.4902,-1.27222e-14,-1.59028e-14,4.2633,-28.2327,85.989,47.9233,-3.48097,-25.2766,23.8243,7.12502,1.24443,53.8004,-41.1796,17.0981,-3.67089,36.0018,-18.1094,-13.7811,-1.78553,-17.3489,14.3053,-25.3994,24.4858,-14.9913,23.428,-15.6341
-0.315838,18.5259,-2.98225,10.0222,-35.8217,11.4294,21.0202,-0.761215,1.20085,7.14427,-0.818625,1.69599,-3.97445,-0.475977,1.32823,-9.40889,-6.76026,-6.72838,14.0105,-8.99815,5.58169,6.36114,-4.28591,2.09289,2.54444e-14,6.36111e-15,15.1071,11.9798,-66.3577,42.838,16.8552,-32.7906,1.57653,7.12502,-6.01206,-28.3182,2.54444e-14,6.36111e-15,5.93802,-28.6641,85.217,47.7316,-2.9505,-25.1846,23.7033,7.12502,1.33331,53.6789,-42.0557,16.5019,-3.76036,36.0684,-17.0583,-14.2733,-0.585244,-18.0978,14.5377,-25.6154,24.7326,-15.1479,23.3132,-15.4303
-0.332481,18.5122,-2.99919,10.4345,-36.4928,11.4859,21.4824,-0.713349,1.08128,7.22603,-0.768318,1.90328,-4.1178,-0.457628,1.61444,-9.43609,-6.67048,-6.79214,13.6386,-8.81838,5.41499,6.23173,-4.21661,2.07069,-1.90833e-14,1.11319e-14,16.2583,11.726,-66.2693,42.1746,16.3802,-32.6278,1.40773,7.12502,-5.85491,-28.4914,-1.90833e-14,1.11319e-14,7.48534,-28.782,84.988,47.4942,-2.58741,-25.0905,23.5954,7.12502,1.42411,53.5704,-42.906,16.06,-3.73606,36.1278,-15.696,-14.5496,-0.00295216,-18.7441,14.9402,-25.7635,25.0216,-15.2924,23.2109,-15.3169
-0.350162,18.4949,-3.01383,10.8277,-37.13,11.5624,21.8261,-0.685434,1.07187,7.38989,-0.734097,2.00521,-4.11402,-0.44634,1.72566,-9.68917,-6.60488,-6.58517,13.3835,-8.69266,5.15974,6.16545,-4.16087,1.96444,1.59028e-14,0,17.4647,11.4577,-66.2433,41.48,15.8715,-32.8764,1.03515,7.12502,-6.09492,-28.8572,1.59028e-14,0,9.23914,-29.0394,84.4846,47.1667,-2.17918,-25.2909,23.3763,7.12502,1.23064,53.3525,-43.7635,15.6396,-3.72498,36.2061,-14.2478,-14.494,0.513452,-19.3481,15.2653,-25.9317,25.27,-15.4306,23.2018,-15.1004
-0.371687,18.4831,-3.04064,11.2592,-37.5086,11.8347,22.0888,-0.69778,0.995403,7.4687,-0.763165,2.06273,-4.15914,-0.463691,1.84271,-9.8318,-6.56827,-6.46688,13.0708,-8.62529,5.08273,6.07811,-4.12712,1.92698,6.67916e-14,7.63333e-14,18.5218,10.9808,-66.3582,40.7638,15.4482,-33.0966,0.806604,7.12502,-6.30743,-29.0795,6.67916e-14,7.63333e-14,10.9079,-29.3506,84.0355,46.796,-1.99593,-25.2455,22.9913,7.12502,1.27442,52.9673,-44.7083,15.0852,-3.87362,36.364,-12.9629,-14.1073,0.981388,-20.1285,15.4152,-26.2471,25.4786,-15.3131,23.2093,-15.6579
-0.398591,18.4732,-3.05734,11.3592,-37.9531,12.2938,22.4817,-0.698387,0.831707,7.61419,-0.801643,2.04687,-4.19685,-0.486767,1.93512,-9.89361,-6.5498,-6.482,12.7091,-8.58789,5.15954,5.9764,-4.10499,1.95906,-5.40694e-14,-2.70347e-14,19.5266,10.3706,-66.6134,40.0692,15.2297,-33.0006,0.409844,7.12502,-6.21478,-29.479,-5.40694e-14,-2.70347e-14,12.6189,-29.5174,83.6837,46.248,-2.1684,-25.0256,22.9172,7.12502,1.48685,52.8918,-45.4441,14.6308,-4.10723,36.6209,-12.2222,-13.4229,1.22105,-20.609,15.6813,-26.6923,25.6134,-15.1435,23.2349,-16.2992
-0.424117,18.4538,-3.07625,11.5681,-38.3875,12.6804,22.8275,-0.705625,0.690461,7.76758,-0.846512,2.02587,-4.20125,-0.513005,2.01003,-10.1205,-6.53862,-6.44207,12.4271,-8.567,5.26549,5.92784,-4.08286,1.98403,-5.725e-14,-4.45278e-14,20.5451,9.73881,-66.9277,39.4312,15.0779,-33.2725,0.140182,7.12502,-6.47732,-29.7408,-5.725e-14,-4.45278e-14,14.5955,-29.867,82.9306,45.6209,-1.92062,-24.9957,23.106,7.12502,1.51569,53.0803,-46.3273,14.175,-4.28552,36.9992,-11.9472,-12.8786,1.21327,-21.1743,16.019,-27.1116,25.6907,-14.9938,23.1986,-16.6289
-0.450068,18.4344,-3.09029,11.6413,-38.8233,13.152,23.2777,-0.727561,0.484845,7.92324,-0.924877,1.98854,-4.25239,-0.556018,2.11556,-10.4428,-6.44345,-6.29974,12.2507,-8.43016,5.24446,5.91159,-4.00697,1.96015,-9.54166e-15,-8.26944e-14,21.4903,9.4057,-67.1434,38.9447,14.6932,-34.0853,-0.140569,7.12502,-7.26188,-29.996,-9.54166e-15,-8.26944e-14,16.6084,-30.1709,82.0353,44.912,-1.44311,-25.0229,22.9329,7.12502,1.48944,52.9074,-47.1404,13.8627,-4.57987,37.4641,-11.984,-12.7397,0.845014,-21.6396,16.1521,-27.5623,25.8319,-15.0097,23.3108,-16.6742
-0.479608,18.4142,-3.10449,11.4848,-39.3092,13.728,23.9271,-0.733367,0.15802,8.08994,-1.01111,1.94348,-4.38623,-0.604087,2.28978,-10.7446,-6.29638,-6.32489,12.1059,-8.2151,5.32985,5.90913,-3.89367,2.004,1.27222e-14,3.02153e-14,23.0017,9.03659,-67.6458,37.7949,14.6531,-34.6644,-0.329239,7.12502,-7.82085,-30.1646,1.27222e-14,3.02153e-14,18.4135,-30.1823,81.3744,44.1828,-1.45303,-24.9739,22.7879,7.12502,1.53678,52.7621,-47.8232,13.6648,-4.93228,37.9948,-12.0902,-12.737,0.505521,-21.9695,16.1829,-28.0229,26.1281,-15.2955,23.5264,-16.5322
-0.508754,18.3903,-3.12384,11.6002,-39.7266,13.9821,24.5682,-0.766411,0.0830204,8.21941,-1.07449,1.93905,-4.55779,-0.638586,2.35946,-10.9369,-6.24814,-6.39771,11.8437,-8.14266,5.52818,5.8664,-3.84603,2.08174,-2.38542e-14,4.13472e-14,23.6932,8.66853,-67.871,37.437,14.5352,-34.4157,-0.118274,7.12502,-7.58077,-29.9624,-2.38542e-14,4.13472e-14,20.0182,-30.0224,81.0162,43.4055,-1.67221,-24.8193,22.6258,7.12502,1.68611,52.5989,-48.6064,13.5099,-5.0315,38.551,-12.0977,-12.4745,0.00529957,-22.4564,16.3623,-28.2364,26.4811,-15.5025,23.5918,-16.3275
-0.533982,18.368,-3.14408,12.0577,-39.967,14.0032,25.0503,-0.879911,0.350142,8.3026,-1.15957,1.92284,-4.70554,-0.679304,2.22383,-11.0906,-6.26201,-6.26396,11.4569,-8.17697,5.67665,5.77367,-3.84633,2.10331,2.8625e-14,-3.18055e-15,24.9614,7.90728,-68.7055,36.3265,14.9893,-34.602,0.0790895,7.12502,-7.76061,-29.7585,2.8625e-14,-3.18055e-15,21.7004,-29.9787,80.5584,42.6107,-1.61604,-24.3212,22.4237,7.12502,2.16715,52.3924,-49.5528,13.2901,-5.0081,39.155,-12.1143,-12.0634,-0.707393,-23.1462,16.4424,-28.3053,26.752,-15.5634,23.6164,-16.0046
-0.559263,18.3428,-3.16166,12.2056,-40.2398,14.3919,25.5645,-1.0917,0.229441,8.40702,-1.45597,1.96074,-4.82737,-0.826034,2.43166,-11.2865,-6.14995,-6.59279,11.1182,-7.97416,5.89611,5.71069,-3.74602,2.24114,-2.8625e-14,-4.45278e-14,25.7333,8.09283,-68.7082,36.2298,14.8022,-35.1432,-0.536508,7.12502,-8.28298,-30.3541,-2.8625e-14,-4.45278e-14,23.5251,-29.5208,79.9481,41.6201,-1.529,-24.1341,22.4789,7.12502,2.34789,52.4457,-50.4368,13.0465,-5.28019,39.7798,-12.1282,-11.8461,-1.55168,-23.6934,16.3672,-28.6489,26.9947,-15.8344,23.7314,-15.5558
-0.589611,18.3169,-3.1734,11.5442,-40.6276,15.549,26.2604,-1.42797,-0.750222,8.58451,-2.11689,2.08918,-4.90093,-1.15808,3.34723,-11.419,-5.83785,-7.79138,10.7521,-7.3739,6.23775,5.63855,-3.48141,2.59553,-4.92986e-14,2.78299e-14,27.0259,9.29182,-68.4496,36.0416,14.6414,-35.4227,-0.836587,7.12502,-8.5527,-30.6434,-4.92986e-14,2.78299e-14,24.9919,-28.1646,79.6293,40.6081,-1.67096,-24.3237,22.5396,7.12502,2.16473,52.5084,-50.9799,12.7619,-6.05391,40.4014,-12.1817,-11.6175,-2.31673,-23.8463,16.3773,-29.5449,27.2731,-16.1132,23.8048,-15.3494
-0.619957,18.2935,-3.18719,11.2231,-40.8818,16.3377,27.0807,-1.06526,-0.816657,8.74054,-1.70181,1.81758,-5.15695,-0.955358,2.99125,-11.6299,-6.21224,-6.4745,10.205,-8.02619,5.97815,5.48425,-3.7621,2.24224,6.99722e-14,-7.95139e-15,27.3172,7.3746,-68.8973,35.6676,14.9798,-35.5331,-0.717422,7.12502,-8.65926,-30.5198,6.99722e-14,-7.95139e-15,27.2754,-29.7747,78.7389,39.7142,-1.73309,-24.1132,22.6046,7.12502,2.36805,52.5712,-51.5871,12.6078,-6.62863,40.9848,-12.3173,-11.3575,-2.27147,-24.1446,16.2733,-30.1248,27.5552,-16.3798,23.8795,-14.9743
-0.646333,18.2686,-3.20903,11.8868,-40.9672,16.1965,27.6311,-1.22113,-0.154262,8.74574,-1.73975,1.66666,-5.43837,-0.964547,2.47484,-11.7324,-6.26694,-5.75369,9.69663,-8.18327,5.91515,5.32,-3.81868,2.0968,-2.22639e-14,-3.97569e-15,27.9503,6.55268,-69.5308,35.2455,15.1395,-35.6501,-0.889885,7.12502,-8.77217,-30.6876,-2.22639e-14,-3.97569e-15,29.0069,-30.0393,78.148,38.7474,-2.22897,-23.2709,22.5564,7.12502,3.18145,52.5124,-52.572,12.6352,-6.66241,41.4876,-12.4041,-11.4217,-2.17089,-24.9796,15.9676,-30.0042,27.8646,-16.4761,24.1347,-15.0806
-0.674675,18.2456,-3.22325,12.5953,-41.0617,16.1736,27.8778,-1.34522,0.0428403,8.79859,-1.83007,1.87105,-5.49142,-1.00983,2.62248,-12.0013,-6.28251,-5.72411,9.30726,-8.15839,5.75176,5.23318,-3.81618,2.04052,1.1291e-13,-3.89618e-14,28.8425,6.44056,-69.4031,34.9714,14.9456,-35.7633,-0.736252,7.12502,-8.88142,-30.5293,1.1291e-13,-3.89618e-14,30.9148,-29.8865,77.6344,37.7673,-2.19936,-22.7808,22.5213,7.12502,3.65481,52.4697,-53.5977,12.6,-6.8271,41.9014,-12.5161,-11.6722,-2.17441,-25.97,15.7427,-30.0364,28.2918,-16.652,24.2297,-14.9487
-0.709339,18.2328,-3.22765,13.1315,-41.1809,16.3016,28.0319,-1.56144,0.348024,8.94248,-2.02881,1.86092,-5.4058,-1.10642,2.5,-12.3525,-6.22648,-5.62491,8.99553,-8.0712,5.76254,5.18549,-3.76726,2.03018,7.15625e-14,2.62396e-14,29.9115,6.2032,-69.7242,34.5457,14.9475,-35.4649,0.045054,7.12502,-8.59341,-29.7601,7.15625e-14,2.62396e-14,32.9653,-29.9126,76.5296,36.8433,-1.97428,-22.938,22.7549,7.12502,3.50293,52.7058,-54.4561,12.5778,-7.07888,42.2738,-12.6428,-11.8998,-2.43567,-26.7969,15.6866,-30.1932,28.7017,-16.858,24.1282,-14.7581
-0.745559,18.2211,-3.23223,13.7216,-41.397,16.3949,28.3166,-1.73026,0.579213,9.00964,-2.17995,1.86279,-5.4677,-1.17801,2.42635,-12.5304,-6.13884,-5.6044,8.59882,-7.9445,5.86792,5.08782,-3.69992,2.07101,-1.27222e-14,4.29375e-14,30.5107,6.24268,-69.6265,34.659,14.4603,-35.1972,0.828602,7.12502,-8.3351,-28.987,-1.27222e-14,4.29375e-14,34.3645,-29.5942,76.4006,35.8632,-2.80676,-22.9583,22.6508,7.12502,3.48334,52.602,-55.3952,12.6764,-7.37098,42.6231,-12.7668,-12.1213,-2.50971,-27.6075,15.6706,-30.3339,28.984,-16.9596,24.0766,-14.5672
-0.778145,18.2026,-3.23499,13.8965,-41.7854,17.0352,28.7594,-1.7516,0.315189,9.04283,-2.27527,1.83155,-5.6279,-1.22373,2.5914,-12.8041,-6.08529,-5.60315,8.33638,-7.85524,5.91814,5.04809,-3.65185,2.09028,-1.11319e-14,5.32743e-14,31.2926,6.22167,-69.4895,34.5262,14.1936,-35.6635,0.674543,7.12502,-8.78509,-29.1226,-1.11319e-14,5.32743e-14,35.6257,-29.2577,76.5571,34.8885,-3.8627,-22.8081,22.335,7.12502,3.62844,52.2839,-56.3116,12.6517,-8.09532,42.9358,-12.8196,-12.1678,-2.42833,-28.3197,15.5616,-30.9142,29.2098,-16.9692,24.1622,-14.5046
-0.805681,18.1892,-3.24219,14.0753,-42.172,17.4802,29.0886,-1.84985,0.374348,9.27908,-2.40477,1.67128,-5.52231,-1.28877,2.42836,-13.2149,-6.03706,-5.35449,7.99085,-7.80867,5.97296,4.99792,-3.61551,2.06563,-3.02153e-14,-4.85035e-14,32.3325,5.9025,-69.7437,34.2769,14.2886,-36.2689,0.365262,7.12502,-9.3693,-29.4065,-3.02153e-14,-4.85035e-14,37.4493,-29.1224,75.8902,33.8637,-4.54096,-23.0859,22.3462,7.12502,3.36011,52.2995,-57.0977,12.7223,-8.63556,43.1837,-12.8721,-12.2622,-2.28268,-28.8838,15.4203,-31.2708,29.4218,-17.1322,24.2007,-13.8105
-0.829656,18.182,-3.25311,14.6238,-42.4582,17.436,29.6656,-1.87496,0.522015,9.36824,-2.38057,1.84666,-5.68914,-1.2797,2.55214,-13.6756,-6.04433,-5.36103,7.70129,-7.78248,5.93831,4.98001,-3.60183,2.04973,-1.74931e-14,1.43125e-14,33.2112,5.73903,-69.4942,34.0581,14.2855,-36.7504,0.706505,7.12502,-9.83379,-29.0439,-1.74931e-14,1.43125e-14,39.139,-28.955,75.6261,32.7658,-5.27534,-23.3313,22.2942,7.12502,3.12316,52.2511,-57.9044,12.9213,-8.83852,43.3773,-12.9124,-12.4647,-1.9866,-29.5237,15.3595,-31.2232,29.5645,-17.1375,24.1532,-13.1297
-0.860088,18.1757,-3.26012,15.0238,-42.94,17.5224,30.281,-1.85297,0.526156,9.50228,-2.35055,1.8849,-5.82249,-1.26872,2.60472,-14.193,-6.01617,-5.32108,7.45842,-7.73184,6.03073,4.98799,-3.56511,2.0665,3.02153e-14,-7.79236e-14,34.1247,5.49713,-69.4134,33.7916,14.4391,-36.7775,1.93774,7.12502,-9.85995,-27.8114,3.02153e-14,-7.79236e-14,40.8346,-28.8179,75.1313,31.7408,-6.12699,-23.7282,22.3114,7.12502,2.73984,52.2736,-58.6916,13.2157,-9.17059,43.525,-12.956,-12.5721,-1.73448,-30.0504,15.4819,-31.294,29.6534,-16.9243,23.9515,-12.0699
-0.897536,18.1634,-3.26502,15.1594,-43.7298,17.9355,30.8816,-1.74325,0.349373,9.62664,-2.28473,1.69317,-5.96327,-1.23885,2.49177,-14.3738,-5.98177,-5.18002,7.0477,-7.6978,6.10756,4.88545,-3.54315,2.07147,3.02153e-14,2.38542e-15,34.9784,5.15346,-69.6681,33.5389,14.7823,-36.618,2.91029,7.12502,-9.70611,-26.8461,3.02153e-14,2.38542e-15,42.4449,-28.8323,74.4057,30.8189,-6.92456,-24.0316,22.425,7.12502,2.44688,52.3908,-59.5581,13.5386,-9.71528,43.6485,-12.8109,-12.6534,-2.05103,-30.4567,15.8227,-31.6845,29.6704,-16.5318,23.6758,-10.7837
-0.93108,18.1521,-3.26594,15.3908,-44.3151,18.3291,31.3703,-1.73263,0.324379,9.72641,-2.29405,1.55634,-6.07853,-1.2433,2.37338,-14.4289,-5.92298,-5.0158,6.51754,-7.62449,6.0781,4.71791,-3.51284,2.04813,5.24792e-14,3.02153e-14,35.8063,4.99068,-69.7432,33.4584,14.876,-36.2589,2.81215,7.12502,-9.35958,-26.9601,5.24792e-14,3.02153e-14,44.1089,-28.9022,73.4856,29.995,-7.35026,-23.9006,22.2206,7.12502,2.57331,52.1849,-60.3937,13.6862,-10.2295,43.7622,-12.6987,-12.741,-2.57567,-30.8687,15.9266,-32.0348,29.5909,-16.309,23.5049,-10.0329
-0.959825,18.147,-3.26566,15.6422,-44.6272,18.8087,31.7453,-1.85533,0.364875,9.85865,-2.44743,1.44289,-6.09984,-1.31576,2.28801,-14.6884,-5.80969,-4.73669,6.01481,-7.49398,6.0399,4.58445,-3.44898,2.00418,-4.13472e-14,-6.04305e-14,36.808,4.80146,-69.844,33.2193,14.9927,-36.2717,2.84512,7.12502,-9.372,-26.9265,-4.13472e-14,-6.04305e-14,45.8132,-28.7588,72.6485,29.173,-8.00676,-23.6972,22.1617,7.12502,2.76979,52.1234,-61.1223,13.6077,-10.7992,43.8579,-12.7488,-12.8097,-2.5135,-31.2956,15.679,-32.3525,29.4467,-16.3648,23.3669,-9.13433
-0.988823,18.145,-3.26779,16.0736,-44.9286,19.1307,32.0975,-1.94877,0.481125,9.95577,-2.53668,1.36675,-6.15356,-1.35679,2.17881,-15.0271,-5.71931,-4.32172,5.56869,-7.41099,5.88705,4.47412,-3.41107,1.89683,-4.92986e-14,7.95139e-14,37.7505,4.50881,-69.8764,32.9571,15.1913,-36.5403,3.05559,7.12502,-9.63109,-26.7043,-4.92986e-14,7.95139e-14,47.456,-28.6012,71.9473,28.3572,-8.76775,-24.0831,22.4704,7.12502,2.39712,52.4367,-61.9038,13.5107,-11.239,43.9181,-12.7345,-12.8926,-2.61672,-31.8369,15.4462,-32.5382,29.2945,-16.1889,23.2833,-8.5567
-1.02037,18.1427,-3.26374,16.5149,-45.2524,19.4154,32.4794,-2.00206,0.650352,9.99007,-2.55759,1.27518,-6.29688,-1.3631,2.00067,-15.2244,-5.67178,-3.87802,5.23792,-7.40625,5.77727,4.38204,-3.40934,1.79335,-3.65764e-14,3.02153e-14,38.3702,4.13219,-69.844,32.916,15.2883,-36.6183,3.00368,7.12502,-9.70638,-26.7527,-3.65764e-14,3.02153e-14,48.9768,-28.6581,71.2562,27.5545,-9.50076,-24.9533,23.0059,7.12502,1.55672,52.98,-62.6638,13.4331,-11.6595,43.9727,-12.6887,-12.9749,-2.95187,-32.378,15.319,-32.7317,29.1451,-15.7774,23.2388,-8.04482
-1.05082,18.139,-3.25841,16.7979,-45.6039,19.8407,33.2662,-2.01005,0.802118,9.54417,-2.52186,1.18904,-6.47247,-1.35052,1.70517,-15.1708,-5.6517,-3.35632,4.93817,-7.46018,5.6631,4.25965,-3.43893,1.67693,-1.27222e-14,5.88403e-14,38.7754,3.62204,-69.8446,32.9156,15.351,-36.3178,3.2479,7.12502,-9.41649,-26.5217,-1.27222e-14,5.88403e-14,50.4522,-29.0798,70.3819,26.8227,-10.1544,-25.6715,23.532,7.12502,0.862982,53.51,-63.3612,13.3543,-12.1892,44.0149,-12.606,-12.9798,-3.29616,-32.8261,15.2775,-33.0424,28.9817,-15.3894,23.0693,-7.02772
-1.08249,18.1343,-3.25323,17.1695,-45.9506,20.1725,33.61,-2.11565,0.821085,9.52445,-2.64027,1.19488,-6.61975,-1.40478,1.75323,-15.0864,-5.50818,-3.27938,4.55973,-7.26418,5.57984,4.11451,-3.35537,1.66347,-4.77083e-14,-7.23576e-14,39.5274,3.6754,-69.6825,32.7845,15.42,-36.2074,3.54056,7.12502,-9.30997,-26.2339,-4.77083e-14,-7.23576e-14,51.8669,-29.1341,69.33,26.1573,-10.341,-25.4847,23.6882,7.12502,1.04339,53.6654,-64.0386,13.2984,-12.724,44.0792,-12.9084,-12.8533,-2.05487,-33.2716,15.2709,-33.2883,28.7889,-14.9476,22.8096,-6.72857
-1.11379,18.1261,-3.24295,17.5784,-46.2005,20.5567,33.8504,-2.46244,0.624423,9.58544,-3.09375,1.56413,-6.60674,-1.62593,2.40806,-15.4583,-5.22769,-4.51832,4.29202,-6.64694,5.71387,4.10798,-3.06734,1.94815,3.49861e-14,-8.0309e-14,40.9772,4.84949,-68.7845,32.6437,15.2066,-36.6567,3.13441,7.12502,-9.74345,-26.6202,3.49861e-14,-8.0309e-14,52.9911,-28.0431,68.9299,25.4475,-10.54,-24.5814,23.3056,7.12502,1.91582,53.2767,-64.7972,13.039,-13.1436,44.1377,-12.8132,-12.9917,-2.7782,-33.7579,15.1005,-33.5581,28.5715,-14.5707,22.5211,-6.99404
-1.13785,18.1206,-3.2249,17.9608,-46.2079,20.9474,33.9938,-2.47698,1.45472,9.58655,-2.84326,1.5385,-6.69389,-1.50207,1.85959,-15.5292,-5.56106,-4.48053,3.96696,-7.09524,5.77052,4.04178,-3.29051,1.92206,9.22361e-14,-4.96962e-14,41.3356,3.55175,-68.378,32.3832,15.6742,-36.9567,2.75437,7.12502,-10.0328,-26.9865,9.22361e-14,-4.96962e-14,54.8861,-29.1279,68.1299,24.9294,-10.8466,-24.3988,22.8267,7.12502,2.09223,52.7962,-65.347,12.5447,-13.4608,44.2099,-12.8069,-13.0055,-3.19865,-34.1798,14.5688,-33.716,28.3277,-14.3972,22.2894,-8.27933
-1.15372,18.1157,-3.20558,18.4934,-45.8659,21.2361,33.9243,-2.63594,2.64949,9.54835,-2.62412,1.82027,-6.73263,-1.39698,1.44583,-15.5645,-6.10829,-5.46721,3.78826,-7.66014,6.09137,4.07004,-3.57255,2.12516,2.8625e-14,-1.03368e-14,41.6316,2.31595,-67.3999,32.1511,16.1212,-37.0931,2.76747,7.12502,-10.1644,-26.967,2.8625e-14,-1.03368e-14,56.2834,-29.8622,68.7476,24.3462,-11.9442,-25.1355,22.6123,7.12502,1.38067,52.5876,-65.8088,11.7851,-13.5986,44.289,-12.6771,-13.0201,-3.94089,-34.6386,13.5686,-33.6378,28.0183,-14.1603,22.2947,-10.7211
-1.18595,18.1066,-3.20135,18.811,-46.2135,21.4821,34.31,-2.94291,2.13275,9.62234,-3.17159,1.65805,-6.78041,-1.65151,1.75338,-15.821,-5.41039,-4.35278,3.62652,-6.89782,5.72371,3.96615,-3.19647,1.90283,-3.02153e-14,1.19271e-15,42.7586,3.10024,-68.1495,31.9697,16.4152,-37.2013,2.87345,7.12502,-10.2688,-26.8559,-3.02153e-14,1.19271e-15,56.8443,-28.6671,67.7834,23.8727,-12.4538,-25.0029,22.6749,7.12502,1.50872,52.6493,-66.4754,11.6241,-13.7914,44.3973,-12.4558,-12.9308,-4.64101,-34.8626,13.3949,-33.6566,27.6654,-13.9501,22.2256,-11.7678
-1.22195,18.0991,-3.19125,18.987,-46.5391,21.9559,34.644,-3.20041,1.58715,9.65861,-3.63904,1.81865,-6.82356,-1.87419,2.38711,-16.0366,-4.95956,-4.63517,3.42153,-6.22968,5.75716,3.91344,-2.86932,2.01437,2.70347e-14,3.22031e-14,43.9356,4.02182,-68.0165,31.8268,16.4169,-37.1371,3.3241,7.12502,-10.2069,-26.4083,2.70347e-14,3.22031e-14,57.2038,-27.2705,67.9086,23.3412,-13.2409,-24.5324,22.6985,7.12502,1.96319,52.6692,-67.0867,11.3858,-14.1452,44.5345,-12.4467,-12.8988,-4.95012,-35.0392,13.2758,-33.908,27.3132,-13.6716,22.0287,-11.878
-1.25822,18.0915,-3.18029,18.9985,-46.7834,22.4668,35.0427,-3.19693,1.49828,9.69577,-3.65751,1.78648,-6.92354,-1.88125,2.42191,-16.0739,-4.82462,-4.08858,3.14339,-6.13185,5.5375,3.80446,-2.82941,1.87128,1.59028e-15,9.54166e-15,44.5909,3.48452,-68.2964,31.5231,16.8677,-37.0404,3.90374,7.12502,-10.1136,-25.8332,1.59028e-15,9.54166e-15,58.0738,-27.1542,67.7241,22.9914,-13.9338,-24.508,22.6047,7.12502,1.98679,52.5752,-67.5204,11.1963,-14.5007,44.6771,-12.4731,-12.922,-5.31683,-35.0622,13.1198,-34.1476,26.9777,-13.1799,21.927,-12.6574
-1.28725,18.0787,-3.17339,19.1815,-46.8408,22.8271,35.4492,-3.25972,1.66062,9.64126,-3.66875,1.76138,-7.00797,-1.88423,2.33426,-16.1005,-4.73214,-3.43594,2.84523,-6.11423,5.34163,3.68978,-2.8278,1.71246,-1.11319e-14,1.63003e-14,45.2535,2.78425,-68.692,31.168,17.4839,-37.1011,4.12614,7.12502,-10.1722,-25.6079,-1.11319e-14,1.63003e-14,59.3041,-27.4113,66.6853,22.8174,-13.728,-24.2627,22.9335,7.12502,2.22363,52.9017,-67.9914,10.8971,-14.7051,44.8338,-12.3119,-12.9829,-5.77743,-35.1882,12.6944,-34.1668,26.6493,-12.661,21.9108,-13.1813
-1.31529,18.0677,-3.16334,19.5557,-46.8645,22.9187,35.7181,-3.35556,1.96465,9.69574,-3.66604,1.86733,-7.04941,-1.88356,2.29556,-16.2602,-4.6877,-3.15142,2.63766,-6.10044,5.29157,3.63981,-2.82274,1.65274,-1.74931e-14,-2.8625e-14,45.869,2.3916,-68.504,31.0313,17.5735,-37.3073,4.06062,7.12502,-10.3711,-25.6636,-1.74931e-14,-2.8625e-14,60.3766,-27.4801,65.997,22.6754,-13.3773,-23.9834,22.908,7.12502,2.49342,52.8731,-68.4663,10.6346,-14.707,45.0005,-12.103,-13.0328,-6.42729,-35.2825,12.1543,-33.9177,26.3414,-12.472,21.9001,-13.3818
-1.34625,18.0624,-3.14862,19.6996,-46.9858,23.119,36.0409,-3.43299,2.09573,9.81796,-3.69482,2.04946,-7.02188,-1.90209,2.43867,-16.5624,-4.65328,-3.30875,2.49771,-6.02367,5.39172,3.64809,-2.78122,1.71065,1.43125e-14,2.78299e-15,46.6098,2.18277,-68.1546,30.8919,17.5372,-37.5218,4.34463,7.12502,-10.578,-25.3692,1.43125e-14,2.78299e-15,61.0339,-27.0777,66.4014,22.4119,-13.3736,-24.2272,22.6437,7.12502,2.25797,52.6115,-68.7974,10.4828,-14.7916,45.1919,-12.1181,-13.0344,-6.9563,-35.1893,11.7513,-33.8059,26.046,-12.2816,21.8175,-14.3985
-1.37565,18.0534,-3.1353,19.8566,-47.0297,23.389,36.2721,-3.55979,2.22248,9.9112,-3.78114,2.25701,-6.98998,-1.94679,2.62952,-16.7628,-4.60696,-3.52734,2.31828,-5.91507,5.44792,3.62694,-2.72887,1.76992,-3.18055e-15,-4.81059e-14,47.4034,1.9482,-68.0327,30.6769,17.6613,-37.6535,4.68698,7.12502,-10.7051,-25.0203,-3.18055e-15,-4.81059e-14,61.6512,-26.6359,66.8368,22.1696,-12.9183,-24.3248,22.506,7.12502,2.16365,52.4747,-69.1776,10.2497,-14.9547,45.419,-12.2819,-13.056,-6.63837,-35.1653,11.2038,-33.7146,25.7123,-12.2637,21.6594,-14.8065
-1.40798,18.0443,-3.12297,20.0778,-47.1631,23.5936,36.5075,-3.60375,2.28421,9.95893,-3.78667,2.46215,-7.00884,-1.95392,2.82456,-16.8894,-4.5738,-3.69811,2.18545,-5.83343,5.47653,3.60741,-2.69045,1.81178,5.24792e-14,-6.22196e-14,48.0874,1.67846,-67.9753,30.5518,17.8035,-37.5906,4.53316,7.12502,-10.6443,-25.1772,5.24792e-14,-6.22196e-14,62.1945,-26.3437,67.0396,22.0875,-12.2148,-24.4086,22.4615,7.12502,2.08278,52.4311,-69.6586,10.1248,-15.1424,45.676,-12.4717,-13.0598,-6.14208,-35.1482,10.6996,-33.5583,25.3443,-12.3854,21.5411,-14.3119
-1.44008,18.0331,-3.1106,20.2063,-47.3522,23.8795,36.7623,-3.60512,2.23567,10.0199,-3.78109,2.64504,-7.01687,-1.95647,3.04977,-17.0394,-4.52395,-3.86859,2.03058,-5.7314,5.55134,3.58522,-2.63939,1.86946,4.29375e-14,-8.18993e-14,48.7213,1.43241,-67.9398,30.5593,17.8609,-37.441,3.97157,7.12502,-10.5,-25.7462,4.29375e-14,-8.18993e-14,62.6647,-26.0231,67.2507,22.0956,-11.3737,-24.4069,22.1436,7.12502,2.08441,52.1132,-70.1329,10.0083,-15.359,45.9772,-12.5824,-13.0862,-6.25978,-35.1146,10.3185,-33.4986,24.9713,-12.3625,21.4416,-14.0974
-1.46515,18.0215,-3.0961,20.3801,-47.2553,24.2291,36.9068,-3.80594,2.39618,10.0262,-3.94033,2.8189,-7.04948,-2.03081,3.21561,-17.156,-4.45033,-3.92631,1.91324,-5.61592,5.54063,3.56262,-2.58453,1.88443,6.20208e-14,-3.3197e-14,49.3176,1.27121,-67.8804,30.4999,17.7312,-37.5231,4.24695,7.12502,-10.5793,-25.4668,6.20208e-14,-3.3197e-14,62.9838,-25.6,67.7901,22.0447,-10.3995,-24.3936,21.8097,7.12502,2.09722,51.7791,-70.4432,9.63635,-15.5912,46.238,-12.941,-13.0732,-5.46783,-35.1413,9.66445,-33.4293,24.5658,-12.2483,21.3651,-14.1674
-1.49934,18.01,-3.08701,20.5013,-47.6701,24.4965,37.2094,-3.66631,2.11355,10.063,-3.84571,2.99067,-7.0946,-1.99371,3.52139,-17.2693,-4.39255,-3.89274,1.75898,-5.53271,5.42198,3.52333,-2.55145,1.84939,-2.06736e-14,-2.38542e-14,49.9374,1.04236,-67.8605,30.3185,17.5643,-37.4204,5.26306,7.12502,-10.4802,-24.4557,-2.06736e-14,-2.38542e-14,63.337,-25.2312,68.2299,22.071,-9.20994,-24.656,22.1648,7.12502,1.84378,52.1365,-70.8673,9.70083,-16.0481,46.4933,-13.8269,-12.5542,-2.40561,-35.0613,9.3329,-33.3755,24.1579,-12.342,21.4903,-14.0102
-1.531,17.9971,-3.07151,20.5206,-47.9414,24.8859,37.4456,-3.62811,1.9661,10.1394,-3.83319,3.13998,-7.07646,-1.9938,3.75885,-17.3762,-4.35879,-3.94967,1.46136,-5.46406,5.3493,3.44346,-2.52703,1.84304,-6.52014e-14,7.35503e-15,50.5585,0.79559,-67.8349,30.2886,17.4148,-37.204,5.64049,7.12502,-10.2714,-24.0887,-6.52014e-14,7.35503e-15,63.7392,-24.7982,68.7418,22.0808,-8.40434,-24.2641,22.0216,7.12502,2.22229,51.9898,-71.409,9.46728,-16.0343,46.6498,-13.0573,-12.8894,-6.61258,-34.9906,8.9469,-33.4119,23.7907,-12.4383,21.5404,-13.7547
-1.55972,17.984,-3.06093,20.6847,-48.1932,25.0977,37.7247,-3.59628,1.85004,10.1778,-3.80608,3.36492,-7.11225,-1.98824,4.05895,-17.5944,-4.28129,-4.08926,1.33342,-5.31811,5.24525,3.43013,-2.46177,1.84332,5.88403e-14,3.37934e-15,51.1665,0.7647,-67.5904,30.3792,17.1977,-37.2417,5.33409,7.12502,-10.3078,-24.3933,5.88403e-14,3.37934e-15,64.0018,-24.2914,69.5305,22.0605,-7.43567,-22.962,21.157,7.12502,3.47977,51.1083,-71.8956,9.38141,-16.1458,46.7925,-12.8122,-13.0136,-8.27356,-34.9831,8.66484,-33.36,23.4306,-12.5096,21.5448,-13.3735
-1.58483,17.9747,-3.0495,21.0593,-48.3549,25.0662,37.9176,-3.60923,1.9,10.1964,-3.76923,3.65693,-7.14436,-1.97907,4.3381,-17.7469,-4.20346,-4.24837,1.23541,-5.16798,5.12251,3.41566,-2.39554,1.84208,-9.54166e-15,-3.95581e-14,51.9422,0.754459,-67.493,30.2041,17.1808,-37.4452,5.45231,7.12502,-10.5041,-24.2652,-9.54166e-15,-3.95581e-14,64.2389,-23.9267,70.169,22.1278,-5.23824,-22.6342,20.9604,7.12502,3.79637,50.9063,-72.2887,9.29177,-16.1523,46.8639,-12.8081,-12.9262,-8.13486,-35.0452,8.34301,-33.1232,23.1172,-12.668,21.5547,-12.7605
-1.60762,17.9696,-3.03424,21.2995,-48.3654,25.2222,38.0225,-3.72488,2.05816,10.2327,-3.82612,3.87866,-7.12956,-2.01025,4.51681,-17.8187,-4.14667,-4.36778,1.00425,-5.05703,5.03462,3.34991,-2.34963,1.84438,6.04305e-14,-4.6615e-14,52.3311,0.644941,-67.1874,30.4143,16.8544,-37.642,5.72188,7.12502,-10.694,-23.986,6.04305e-14,-4.6615e-14,64.6167,-23.6532,70.4828,22.2884,-2.65937,-22.9129,21.1119,7.12502,3.5272,51.0624,-72.5728,8.99639,-16.1659,46.964,-12.766,-12.7939,-8.0093,-35.138,7.9336,-33.0259,22.8558,-12.6619,21.5659,-13.0934
-1.63808,17.9621,-3.02507,21.5464,-48.9081,25.1786,38.3513,-3.51259,1.79242,10.3195,-3.64711,4.07293,-7.13429,-1.93955,4.80596,-18.0299,-4.07189,-4.5375,0.901713,-4.91692,5.07465,3.34858,-2.27906,1.89342,-4.92986e-14,-1.06946e-13,52.926,0.56972,-67.1334,30.4691,16.6506,-37.7644,5.55741,7.12502,-10.812,-24.1443,-4.92986e-14,-1.06946e-13,65.0011,-23.2586,70.8301,22.4185,-0.377122,-22.6988,21.0865,7.12502,3.73398,51.0335,-73.0718,9.1876,-16.2063,47.052,-12.6898,-12.6768,-8.29754,-35.162,8.05827,-32.953,22.6198,-12.5566,21.693,-14.2546
-1.66092,17.9518,-3.00925,21.7708,-49.2226,25.3387,38.4311,-3.46961,1.74074,10.3875,-3.60418,4.21764,-7.07949,-1.92698,4.97173,-18.1936,-4.00996,-4.68295,0.793872,-4.79961,5.11088,3.33856,-2.22025,1.93638,9.06458e-14,-2.27608e-14,53.5059,0.487633,-67.0539,30.5152,16.4237,-37.8632,5.6135,7.12502,-10.9073,-24.0832,9.06458e-14,-2.27608e-14,65.3494,-22.9422,71.1946,22.5923,2.07156,-22.5888,21.2173,7.12502,3.84016,51.1625,-73.5378,9.08578,-16.3867,47.1747,-12.7878,-12.4669,-7.92841,-35.2707,7.82118,-32.9464,22.3546,-12.5769,21.8476,-14.3172
-1.68118,17.9463,-2.99089,21.9467,-49.3593,25.5924,38.4444,-3.52405,1.85331,10.4228,-3.61934,4.33045,-7.04193,-1.9369,5.03841,-18.2307,-3.96348,-4.63399,0.541422,-4.73689,4.97514,3.25789,-2.19996,1.89368,-1.27222e-14,-7.27552e-14,54.0261,0.23594,-67.1642,30.4598,16.3583,-37.8472,5.84306,7.12502,-10.8919,-23.8545,-1.27222e-14,-7.27552e-14,65.6857,-22.7274,71.5528,22.7843,4.68229,-22.1516,21.5337,7.12502,4.26241,51.4708,-73.8773,8.81823,-16.5538,47.2947,-12.9744,-12.3019,-7.4603,-35.392,7.47271,-32.9997,22.1221,-12.53,21.9454,-13.8757
-1.7043,17.9414,-2.9741,22.107,-49.5641,25.8174,38.5135,-3.5404,1.88471,10.4612,-3.61863,4.42652,-7.01857,-1.94004,5.12592,-18.3234,-3.92673,-4.64653,0.325608,-4.68049,4.96221,3.20232,-2.17571,1.89706,-8.90555e-14,5.06901e-15,54.4453,0.118157,-67.0131,30.5786,15.8403,-37.8807,5.82002,7.12502,-10.9242,-23.8758,-8.90555e-14,5.06901e-15,65.8852,-22.4062,72.3298,22.8439,6.85168,-21.4502,21.7678,7.12502,4.93968,51.6902,-74.2227,8.6664,-16.7233,47.4182,-13.0628,-12.216,-7.65017,-35.4829,7.28096,-33.0851,21.8913,-12.3285,22.0294,-14.3438
-1.72913,17.9332,-2.96361,22.248,-49.9695,25.9729,38.6819,-3.416,1.65623,10.537,-3.5424,4.55426,-6.98221,-1.91392,5.35697,-18.5875,-3.88596,-4.6875,0.303065,-4.60797,4.92247,3.23059,-2.14062,1.89416,-3.49861e-14,-7.97623e-14,54.8617,0.287006,-66.4028,30.882,14.7031,-38.0953,5.41717,7.12502,-11.1312,-24.2676,-3.49861e-14,-7.97623e-14,66.0242,-21.9713,73.1278,22.9466,8.94329,-21.0788,21.857,7.12502,5.29826,51.7708,-74.654,8.71216,-16.913,47.5201,-13.3205,-12.1009,-7.05408,-35.5518,7.23892,-33.1358,21.6797,-12.3224,22.164,-14.2328
-1.75349,17.9266,-2.95473,22.5529,-50.3287,25.8746,38.8869,-3.27255,1.5843,10.5915,-3.3843,4.69682,-6.99247,-1.84942,5.49413,-18.7853,-3.84914,-4.64524,0.28226,-4.56198,4.90677,3.24986,-2.11746,1.88419,-1.90833e-14,-2.21645e-14,55.3568,0.237129,-66.2341,30.9034,13.8237,-38.0473,5.44839,7.12502,-11.0849,-24.2389,-1.90833e-14,-2.21645e-14,66.2444,-21.6924,73.7983,23.0495,11.052,-20.7793,22.0902,7.12502,5.58743,51.9966,-75.0718,8.82698,-16.9298,47.5958,-13.7878,-12.0458,-5.63349,-35.5971,7.17475,-32.9799,21.4555,-12.5316,22.2801,-13.085
-1.77325,17.9193,-2.94384,22.7892,-50.5403,25.9049,38.9797,-3.2236,1.65779,10.6451,-3.29473,4.77663,-6.96888,-1.81259,5.50897,-18.9309,-3.81509,-4.47567,0.179728,-4.54439,4.80819,3.23233,-2.11406,1.82734,0,-7.80975e-14,55.896,-0.112195,-66.6781,30.7294,13.2624,-37.7338,5.72044,7.12502,-10.7826,-23.9828,0,-7.80975e-14,66.5335,-21.5546,74.2412,23.1556,13.1261,-20.3098,22.2534,7.12502,6.0407,52.1473,-75.3927,8.73812,-16.945,47.6564,-13.7951,-11.8738,-5.06914,-35.669,6.90237,-32.8584,21.2438,-12.7981,22.4615,-12.2476
-1.78876,17.9135,-2.93125,22.9084,-50.7061,26.1865,38.9443,-3.25585,1.64326,10.6892,-3.3361,4.84612,-6.9022,-1.83488,5.60325,-19.1714,-3.7721,-4.48266,0.187424,-4.47744,4.76937,3.26592,-2.08124,1.81913,-1.27222e-14,-5.2271e-14,56.4397,-0.346443,-67.2563,30.6794,12.5961,-37.416,5.36414,7.12502,-10.476,-24.3548,-1.27222e-14,-5.2271e-14,66.6525,-21.2054,74.9923,23.2489,14.9045,-19.52,22.2876,7.12502,6.80316,52.1583,-75.7243,8.47767,-17.093,47.7079,-13.3551,-11.6936,-5.98639,-35.7955,6.29061,-32.8029,21.0292,-13.1108,22.8889,-12.0078
-1.80368,17.9086,-2.9208,23.1567,-50.8248,26.3098,38.9532,-3.31833,1.71502,10.6748,-3.37209,4.94562,-6.91626,-1.85256,5.68759,-19.3079,-3.74838,-4.53872,0.192059,-4.42959,4.75883,3.28598,-2.05756,1.82718,-8.42847e-14,3.49116e-15,56.8856,-0.34423,-67.4288,30.7661,11.3209,-37.2352,4.16435,7.12502,-10.3016,-25.5634,-8.42847e-14,3.49116e-15,66.6152,-20.8619,76.0265,23.3318,16.4846,-19.0138,22.4361,7.12502,7.29186,52.2905,-76.0667,8.26211,-17.1466,47.7505,-13.1067,-11.6216,-7.27834,-35.9503,5.95929,-32.7579,20.799,-13.1038,23.0841,-12.1954
-1.82454,17.9018,-2.91491,23.2197,-51.1607,26.4549,39.1213,-3.24905,1.50936,10.7015,-3.35108,5.05852,-6.9327,-1.84966,5.91478,-19.3859,-3.68135,-4.67691,0.124602,-4.30138,4.67336,3.27089,-1.99952,1.83334,-2.38542e-14,6.84813e-14,57.248,-0.0215547,-66.987,31.0621,9.18042,-37.2423,2.89098,7.12502,-10.3084,-26.8364,-2.38542e-14,6.84813e-14,66.6142,-20.427,76.9464,23.3507,18.0951,-19.061,22.6894,7.12502,7.24629,52.5453,-76.3824,8.29312,-17.2733,47.8027,-13.1082,-11.4989,-7.85851,-35.9531,6.14311,-32.9119,20.555,-12.9771,22.9998,-12.5951
-1.84905,17.8964,-2.90799,23.1306,-51.5997,26.6336,39.3763,-3.18992,1.10334,10.8498,-3.41944,5.24019,-6.82519,-1.89874,6.35319,-19.901,-3.61269,-5.33525,0.24551,-4.04816,4.79058,3.38678,-1.86493,1.98982,-3.81667e-14,4.90501e-14,57.8356,0.536319,-66.4249,31.4589,6.56985,-36.7257,2.71809,7.12502,-9.80999,-27.0334,-3.81667e-14,4.90501e-14,66.7877,-19.5393,78.0101,23.0944,19.5285,-19.0175,22.7754,7.12502,7.28823,52.6299,-76.63,8.47524,-17.4551,47.8587,-13.1786,-11.3529,-7.66872,-35.8491,6.45282,-33.1281,20.3703,-12.7986,22.9095,-13.2918
-1.86494,17.8899,-2.89749,23.0286,-51.8161,26.9161,39.5056,-3.20703,1.02409,10.8877,-3.47435,5.17772,-6.8188,-1.92413,6.3518,-20.1649,-3.54933,-5.06182,0.446892,-4.01249,4.66753,3.47774,-1.84829,1.9072,8.90555e-14,-7.33018e-14,58.0786,0.41172,-66.7894,31.6452,4.25472,-35.592,3.53369,7.12502,-8.71606,-26.2664,8.90555e-14,-7.33018e-14,66.9173,-19.3659,78.4097,23.0018,21.2803,-18.9386,22.5917,7.12502,7.36443,52.4435,-76.8023,8.40541,-17.6066,47.9256,-13.2255,-11.2055,-7.80031,-35.8181,6.53837,-33.3685,20.2334,-12.5482,22.8508,-14.1844
-1.87677,17.882,-2.88743,23.1589,-51.9366,27.0862,39.4438,-3.346,0.998888,10.9015,-3.64918,5.19052,-6.76557,-2.00548,6.44185,-20.4451,-3.43797,-4.98908,0.682395,-3.86533,4.55516,3.58058,-1.77591,1.86968,1.74931e-14,8.54774e-15,58.4648,0.652697,-67.0135,31.8255,1.78248,-34.693,3.38724,7.12502,-7.84844,-26.4471,1.74931e-14,8.54774e-15,66.9099,-18.9188,79.0878,22.8776,22.726,-19.0051,22.4725,7.12502,7.30021,52.3266,-77.0689,8.22754,-17.7151,47.9841,-13.2824,-11.1093,-7.81915,-35.9738,6.52563,-33.5144,20.1102,-12.3445,22.8262,-15.0739
-1.8903,17.8748,-2.87964,23.3929,-52.1048,27.0906,39.3632,-3.34086,1.16843,10.9119,-3.5942,5.11441,-6.74211,-1.97693,6.2459,-20.4666,-3.42399,-4.71286,0.652756,-3.91255,4.54237,3.57166,-1.79881,1.81757,2.22639e-14,-1.09083e-13,58.553,0.525661,-67.0787,32.126,-1.00964,-34.5804,2.50154,7.12502,-7.73979,-27.3368,2.22639e-14,-1.09083e-13,66.9922,-19.0543,79.6907,22.7377,23.7737,-18.4406,22.8181,7.12502,7.84513,52.6526,-77.3715,8.18328,-17.7643,48.035,-13.2737,-11.1039,-8.1922,-36.1303,6.61379,-33.5625,19.9944,-12.2386,22.7419,-15.3625
-1.90345,17.8702,-2.8703,23.4868,-52.1827,27.1143,39.4289,-3.49794,1.26416,10.9085,-3.73983,5.15031,-6.75455,-2.04404,6.29329,-20.6008,-3.37828,-4.87421,0.838502,-3.8095,4.55394,3.64738,-1.74441,1.85381,2.06736e-14,-1.67476e-14,58.8355,0.965089,-67.1506,32.5219,-3.85282,-34.4015,1.32213,7.12502,-7.56707,-28.5225,2.06736e-14,-1.67476e-14,66.8782,-18.709,80.3209,22.6817,24.6626,-17.5738,23.159,7.12502,8.68166,52.9605,-77.4982,8.12853,-17.7291,48.0959,-13.2869,-11.0666,-8.18061,-36.1396,6.52801,-33.5065,19.9063,-12.4072,22.6666,-15.0816
-1.91744,17.8655,-2.86282,23.4549,-52.3009,27.1923,39.5515,-3.60051,1.35739,10.9224,-3.83598,5.03968,-6.77695,-2.08432,6.16696,-20.7498,-3.29063,-4.58803,1.01868,-3.75311,4.47151,3.71591,-1.71543,1.78548,3.49861e-14,1.43622e-14,59.0828,1.12419,-67.8084,32.7961,-6.32484,-33.9923,0.300084,7.12502,-7.17211,-29.5584,3.49861e-14,1.43622e-14,66.8146,-18.6861,80.5789,22.7077,25.7878,-17.1832,23.2909,7.12502,9.05853,53.0764,-77.5851,8.14276,-17.7386,48.1717,-13.3499,-10.9875,-7.93432,-36.0436,6.49838,-33.4813,19.8052,-12.6828,22.5112,-14.7557
-1.93064,17.8592,-2.86069,23.3619,-52.4584,27.3948,39.5975,-3.63269,1.30048,10.9327,-3.90238,4.95898,-6.77575,-2.113,6.13651,-20.6011,-3.2141,-4.59898,0.819619,-3.66373,4.65629,3.6335,-1.66342,1.85596,-3.49861e-14,5.70512e-14,59.1939,1.25505,-68.2887,33.1349,-8.85008,-33.4354,-0.0182321,7.12502,-6.63452,-29.8943,-3.49861e-14,5.70512e-14,66.8028,-18.7795,80.635,22.7411,27.2788,-17.3046,23.3645,7.12502,8.94145,53.155,-77.7284,8.14794,-17.89,48.2615,-13.4214,-10.8988,-7.34578,-36.0085,6.58871,-33.6157,19.6919,-12.534,22.3804,-15.3828
-1.94281,17.8569,-2.85777,23.4001,-52.5177,27.4946,39.5464,-3.45354,1.11999,10.9539,-3.72971,5.26954,-6.73261,-2.04683,6.49663,-20.4199,-3.26104,-4.91591,0.483995,-3.65245,4.63339,3.5065,-1.66763,1.90356,6.36111e-15,-3.86636e-14,59.158,1.29729,-67.7391,33.7411,-11.3874,-32.9523,-0.929833,7.12502,-6.16817,-30.82,6.36111e-15,-3.86636e-14,66.7962,-19.014,81.163,22.8844,28.7177,-17.5911,23.2751,7.12502,8.66497,53.0773,-77.8672,8.11213,-17.9767,48.34,-13.4813,-10.8771,-6.8697,-36.0569,6.60773,-33.6619,19.6185,-12.2843,22.318,-16.2431
-1.95571,17.8512,-2.85666,23.5287,-52.6951,27.4697,39.5582,-3.30235,0.951615,10.9136,-3.59034,5.46456,-6.78216,-1.98931,6.74553,-20.3246,-3.27262,-5.07434,0.395713,-3.62693,4.53801,3.46399,-1.66329,1.90254,-3.49861e-14,6.20208e-14,58.9797,1.53906,-67.2133,34.4827,-13.5216,-32.9209,-2.94161,7.12502,-6.13788,-32.8327,-3.49861e-14,6.20208e-14,66.4911,-19.1102,81.9912,23.0334,29.4338,-17.1652,23.1519,7.12502,9.07598,52.9366,-78.0984,8.18171,-18.0061,48.4017,-13.4421,-10.8979,-7.17112,-36.1247,6.64623,-33.5995,19.5986,-12.4548,22.2508,-15.722
-1.96982,17.8456,-2.85694,23.7265,-52.9288,27.2704,39.5916,-3.25117,0.809587,10.9268,-3.57477,5.57353,-6.77124,-1.98964,6.93327,-20.4777,-3.23479,-5.4085,0.585892,-3.49804,4.66325,3.54747,-1.59017,2.00408,-3.18055e-15,5.35725e-14,58.9318,2.13634,-66.889,35.2864,-15.5901,-33.0932,-4.00573,7.12502,-6.30422,-33.8919,-3.18055e-15,5.35725e-14,66.1443,-18.9752,82.5115,23.3031,29.9947,-16.7674,23.392,7.12502,9.45982,53.1597,-78.3166,8.3425,-17.8856,48.454,-13.3974,-10.877,-7.45738,-36.1348,6.81908,-33.4537,19.5938,-12.6268,22.1536,-15.2689
-1.98151,17.8416,-2.85721,23.7242,-53.0527,27.3048,39.6185,-3.23389,0.786623,10.9353,-3.56987,5.51268,-6.77236,-1.9864,6.87822,-20.5459,-3.19846,-5.22384,0.639006,-3.49129,4.65086,3.57058,-1.58522,1.97069,-2.54444e-14,-4.72114e-15,58.6962,2.49042,-66.7618,36.1781,-17.3426,-33.4654,-3.57715,7.12502,-6.66351,-33.4523,-2.54444e-14,-4.72114e-15,66.0103,-19.3746,81.9897,23.8674,31.2105,-17.1524,23.9462,7.12502,9.08833,53.7304,-78.422,8.38538,-17.8983,48.5064,-13.4295,-10.7549,-7.36149,-36.1628,6.91131,-33.452,19.6514,-12.6083,22.0064,-15.2968
-1.98827,17.8411,-2.8574,23.7275,-53.0739,27.3712,39.644,-3.30076,0.891053,10.8791,-3.61002,5.45339,-6.84417,-1.99842,6.77871,-20.4496,-3.16556,-5.06696,0.571035,-3.48262,4.55908,3.53048,-1.58667,1.91905,7.4743e-14,-1.47101e-14,58.4104,2.78625,-66.7802,36.9651,-17.9476,-33.5424,-3.05867,7.12502,-6.73787,-32.9315,7.4743e-14,-1.47101e-14,65.821,-19.8082,81.5202,24.3781,32.0714,-17.395,24.1843,7.12502,8.85414,53.9785,-78.4926,8.3604,-17.9823,48.5653,-13.5595,-10.6431,-6.43356,-36.26,6.78936,-33.3894,19.773,-12.7562,21.9354,-15.0563
-1.99356,17.8398,-2.85986,23.7739,-53.129,27.3317,39.6353,-3.36749,1.00827,10.8545,-3.6534,5.37102,-6.87129,-2.01374,6.64566,-20.3393,-3.11435,-4.90015,0.51409,-3.45252,4.47857,3.49101,-1.57649,1.8714,-7.95139e-15,1.67476e-14,58.1043,3.00566,-66.9524,37.7246,-17.6087,-33.2595,-3.07916,7.12502,-6.46474,-32.9605,-7.95139e-15,1.67476e-14,65.5371,-20.1203,81.4241,24.8028,32.4873,-17.3653,24.2277,7.12502,8.88281,54.0207,-78.5751,8.37827,-17.9468,48.6221,-13.6108,-10.6158,-6.04322,-36.341,6.70116,-33.2585,19.9164,-12.8921,21.9624,-14.9138
-1.99902,17.835,-2.85971,23.7991,-53.1721,27.3014,39.5923,-3.35673,0.976456,10.8536,-3.64619,5.45898,-6.85492,-2.01422,6.75299,-20.29,-3.11263,-4.93958,0.496661,-3.43449,4.35112,3.47503,-1.57576,1.83994,-8.5875e-14,-3.16068e-14,57.8573,3.23489,-67.0111,38.4847,-16.7647,-32.4862,-2.3497,7.12502,-5.71819,-32.2525,-8.5875e-14,-3.16068e-14,65.2654,-20.339,81.5428,25.2471,32.9534,-17.4382,24.3809,7.12502,8.81246,54.1769,-78.638,8.36043,-17.8371,48.6861,-13.5872,-10.5369,-6.34467,-36.404,6.72075,-33.2063,20.071,-12.93,21.897,-14.9331
-2.00495,17.8335,-2.85679,23.7615,-53.1729,27.2932,39.5769,-3.32378,0.936414,10.8533,-3.60961,5.59787,-6.84765,-2.0028,6.91001,-20.2887,-3.11211,-4.99812,0.498343,-3.41083,4.20639,3.47159,-1.57279,1.8061,-2.70347e-14,-2.7482e-14,57.6874,3.53424,-66.8679,39.2209,-16.1526,-31.6274,0.226448,7.12502,-4.889,-29.6971,-2.70347e-14,-2.7482e-14,65.0301,-20.7069,81.2312,25.9261,33.7373,-17.6738,24.3555,7.12502,8.58517,54.161,-78.6229,8.36996,-17.7671,48.767,-13.6628,-10.4518,-6.46582,-36.4022,6.74451,-33.178,20.2356,-12.9668,21.8417,-15.0872
-2.00904,17.8291,-2.85822,23.6143,-53.1579,27.4513,39.5527,-3.37444,1.00658,10.8095,-3.64914,5.50367,-6.89038,-2.01444,6.78737,-20.2399,-3.05958,-4.72409,0.53455,-3.3989,4.07295,3.46816,-1.57235,1.72231,9.06458e-14,1.05853e-14,57.3618,3.81109,-66.8076,40.0498,-15.794,-32.6309,-0.0384453,7.12502,-5.85787,-29.9375,9.06458e-14,1.05853e-14,64.7036,-21.1979,80.771,26.6508,34.2263,-17.5447,24.1798,7.12502,8.70972,53.9801,-78.6256,8.33778,-17.8359,48.8575,-13.7428,-10.4207,-6.10914,-36.4273,6.71353,-33.2404,20.3904,-12.9618,21.7949,-15.2257
-2.01256,17.8252,-2.86325,23.4801,-53.1611,27.5968,39.5399,-3.46563,0.965417,10.7471,-3.77107,5.44682,-6.94412,-2.06521,6.79671,-20.0952,-3.01129,-4.77668,0.587416,-3.32828,4.11758,3.46249,-1.53446,1.75192,-5.08889e-14,-7.23576e-14,56.9681,4.37778,-66.5062,41.0645,-15.8,-33.0396,-0.00557547,7.12502,-6.25249,-29.8933,-5.08889e-14,-7.23576e-14,64.2445,-21.3833,80.5544,27.3334,34.3874,-17.5071,24.1295,7.12502,8.74599,53.9283,-78.6596,8.314,-17.8974,48.9635,-13.822,-10.3772,-5.66013,-36.4505,6.64304,-33.2668,20.5064,-12.9016,21.7724,-15.4608
-2.01886,17.8225,-2.87007,23.5278,-53.328,27.4692,39.5602,-3.41597,0.795944,10.7283,-3.76852,5.50731,-6.96358,-2.06778,6.95233,-20.1496,-2.99668,-5.12454,0.695282,-3.23482,4.29738,3.50886,-1.47792,1.87068,-1.27222e-14,6.32632e-14,56.6062,4.96584,-66.1651,42.1098,-15.9669,-33.0424,-0.0161053,7.12502,-6.25513,-29.9038,-1.27222e-14,6.32632e-14,63.8214,-21.4846,80.172,28.1759,34.877,-17.7691,23.9832,7.12502,8.49316,53.7924,-78.7655,8.49223,-17.8586,49.0289,-13.8627,-10.3376,-5.39898,-36.4747,6.7048,-33.1519,20.6627,-13.0293,21.8432,-15.3714
-2.01337,17.8213,-2.86616,23.4483,-52.9166,27.5917,39.2965,-3.37072,0.952527,10.6765,-3.62483,5.84048,-6.94505,-2.00691,7.16746,-19.8786,-3.13243,-5.16328,0.563742,-3.40138,4.03237,3.43017,-1.57999,1.78208,-1.90833e-14,3.05631e-14,55.9741,4.94185,-65.3924,43.0979,-16.0279,-32.9219,-0.254064,7.12502,-6.1388,-30.1451,-1.90833e-14,3.05631e-14,63.4039,-22.1707,80.4155,29.088,35.2192,-18.0242,23.9395,7.12502,8.24694,53.7586,-78.5095,8.19421,-17.8006,49.0781,-13.9719,-10.3144,-4.68873,-36.5324,6.18462,-33.0045,20.8253,-13.0628,21.9705,-15.2832
-2.02077,17.8222,-2.87394,23.4302,-53.1681,27.4486,39.3404,-2.91783,0.250367,10.7683,-3.29346,6.47014,-6.85628,-1.8878,8.09662,-20.1836,-3.26368,-6.0295,0.633601,-3.34912,3.85582,3.50154,-1.56915,1.86528,-4.45278e-14,-1.70458e-14,55.819,5.5154,-64.1005,44.1734,-16.3209,-32.9753,-0.406359,7.12502,-6.19039,-30.2959,-4.45278e-14,-1.70458e-14,62.932,-22.0312,81.2686,29.9753,35.0257,-18.2465,23.9402,7.12502,8.03248,53.7676,-78.5296,8.48976,-17.7817,49.0633,-14.0018,-10.2482,-4.30319,-36.513,6.38108,-32.9316,21.0313,-13.2108,22.0518,-15.2393
-2.0253,17.8273,-2.87565,23.395,-53.2619,27.3171,39.092,-3.13894,0.91218,10.8148,-3.40726,5.72184,-6.75203,-1.91568,6.96047,-19.7654,-3.14142,-4.83931,0.441955,-3.48512,3.8929,3.3714,-1.62956,1.68165,-3.49861e-14,-3.42407e-14,54.7797,5.24892,-64.9336,45.3014,-16.4264,-33.3133,-0.272741,7.12502,-6.51667,-30.1525,-3.49861e-14,-3.42407e-14,62.555,-22.9762,79.9894,30.9274,35.2287,-18.0361,24.0098,7.12502,8.23552,53.8292,-78.4416,8.65715,-17.672,49.029,-13.9878,-10.2261,-4.31696,-36.4653,6.52337,-32.8793,21.2286,-13.2439,22.0675,-15.4396
-2.02843,17.8303,-2.8797,23.2716,-53.4567,27.1997,38.9498,-3.21888,1.47559,10.854,-3.39013,4.94062,-6.70802,-1.88173,5.80623,-19.3762,-3.03525,-3.40897,0.303265,-3.67883,3.84228,3.25588,-1.72384,1.42739,3.33958e-14,5.69021e-14,53.6086,4.79178,-65.7219,46.4271,-16.6209,-33.7489,-0.49596,7.12502,-6.93714,-30.3623,3.33958e-14,5.69021e-14,62.1623,-24.0931,78.8339,31.8602,35.4027,-18.232,23.9866,7.12502,8.04646,53.8134,-78.336,8.93371,-17.6032,48.9525,-13.9117,-10.1993,-4.45589,-36.3565,6.76937,-32.8624,21.4109,-13.3402,22.0726,-15.2741
-2.03303,17.8336,-2.89159,23.1578,-53.7804,27.0757,38.8478,-3.30392,1.53755,10.986,-3.53896,4.45017,-6.53832,-1.94255,5.29253,-19.4562,-2.87983,-3.03838,0.37811,-3.5671,4.06509,3.28669,-1.65143,1.44603,2.22639e-14,-2.09221e-14,53.0891,5.06506,-66.1926,47.4775,-16.7035,-33.6423,-0.891632,7.12502,-6.83424,-30.7613,2.22639e-14,-2.09221e-14,61.7625,-24.2328,78.011,32.6981,35.578,-18.9358,23.8031,7.12502,7.36707,53.6548,-78.391,9.29258,-17.5575,48.8948,-13.782,-10.163,-4.90245,-36.253,7.03779,-32.821,21.5353,-13.6116,22.172,-14.6335
-2.0453,17.8405,-2.90962,22.9992,-54.3218,26.9321,38.8586,-3.37678,0.95768,11.1537,-3.86781,4.32627,-6.31579,-2.10892,5.57731,-19.7239,-2.62652,-3.93383,0.522634,-3.04247,4.51018,3.37445,-1.36469,1.76909,-3.57812e-14,-3.68746e-14,53.2829,6.42053,-66.2024,48.3104,-16.5591,-33.4038,-1.06118,7.12502,-6.60401,-30.9382,-3.57812e-14,-3.68746e-14,61.0217,-23.1966,77.9343,33.4611,35.5828,-19.5815,23.6604,7.12502,6.74383,53.533,-78.5108,9.87999,-17.5982,48.7949,-13.6227,-10.1426,-5.27557,-36.0943,7.55315,-32.8418,21.667,-13.8071,22.2571,-14.9946
-2.01428,17.8439,-2.89011,22.8953,-53.3137,27.3339,38.0689,-4.34868,2.49104,11.0655,-4.54961,3.68808,-6.20851,-2.37388,4.31984,-19.3122,-2.49771,-2.99665,0.357164,-3.08689,4.44369,3.25092,-1.39016,1.59909,1.43125e-14,-6.4605e-15,52.5943,6.29049,-67.1309,48.8146,-15.7615,-33.7536,-0.988893,7.12502,-6.94171,-30.8551,1.43125e-14,-6.4605e-15,60.4924,-23.9104,76.9392,34.5015,36.1467,-20.2693,23.7364,7.12502,6.07984,53.6291,-78.0039,8.88176,-17.4434,48.7458,-13.6543,-10.1876,-5.22258,-36.3794,6.47571,-32.8418,21.8404,-13.6099,22.4694,-15.6825
-2.03862,17.855,-2.91517,22.7964,-54.2235,26.9071,38.2537,-3.85675,1.92375,11.2092,-4.22103,3.29158,-6.12965,-2.22839,4.07293,-19.2395,-2.34396,-2.3566,0.319906,-3.0252,4.41797,3.21754,-1.35829,1.49508,2.38542e-14,2.29596e-14,52.0775,6.32988,-67.9928,49.3659,-14.9052,-34.1127,-0.858017,7.12502,-7.28833,-30.7125,2.38542e-14,2.29596e-14,59.9317,-24.1734,76.3196,35.4706,36.3996,-20.7036,23.9604,7.12502,5.66057,53.8648,-78.1615,9.95611,-17.4922,48.6247,-13.5876,-10.2442,-5.5238,-36.1137,7.58974,-32.9158,22.0355,-13.6776,22.5927,-16.4236
-2.00843,17.8512,-2.90944,22.8374,-53.553,27.0465,37.6828,-4.59005,2.95437,11.1961,-4.78855,2.86813,-6.00643,-2.45824,3.2741,-19.2401,-2.15289,-1.86585,0.260205,-2.88055,4.42268,3.18837,-1.28435,1.43071,3.02153e-14,-5.10131e-14,51.5381,6.45934,-68.6236,50.0576,-14.0779,-34.1521,-0.678188,7.12502,-7.32643,-30.5313,3.02153e-14,-5.10131e-14,59.3124,-24.1999,75.9087,36.395,36.3433,-21.0685,24.1496,7.12502,5.30821,54.0631,-77.8744,9.29741,-17.3356,48.537,-13.5375,-10.2245,-5.77974,-36.4515,6.83514,-32.8403,22.2796,-13.6032,22.8802,-16.4963
-2.01143,17.8556,-2.92768,22.6794,-53.7985,26.9157,37.6805,-4.5304,2.83997,11.2811,-4.7956,2.58402,-5.92822,-2.45837,3.03133,-19.3052,-2.02829,-1.58197,0.218398,-2.78874,4.58919,3.18223,-1.2289,1.44447,-8.66701e-14,-9.18882e-14,50.9393,6.5408,-69.0978,50.7849,-13.0139,-34.4896,-0.794761,7.12502,-7.65213,-30.6363,-8.66701e-14,-9.18882e-14,58.8369,-24.247,75.3486,37.288,36.5684,-21.6047,24.1351,7.12502,4.7905,54.061,-77.7549,9.70976,-17.3484,48.3711,-13.4724,-10.2394,-5.70284,-36.408,7.19415,-32.836,22.5446,-13.6482,22.9852,-16.5752
-2.01093,17.8651,-2.94153,22.5561,-54.0199,26.6646,37.7089,-4.4915,2.89129,11.386,-4.76929,2.32819,-5.84488,-2.44249,2.72216,-19.3745,-1.95046,-1.41693,0.122332,-2.73157,4.7507,3.16241,-1.19309,1.47293,-3.73715e-14,-7.73148e-14,50.3072,6.56387,-69.3372,51.5388,-12.142,-35.3202,-0.79288,7.12502,-8.45381,-30.6037,-3.73715e-14,-7.73148e-14,58.3874,-24.3221,75.002,38.0867,36.931,-21.7286,23.6465,7.12502,4.67088,53.575,-77.562,10.1263,-17.2212,48.2177,-13.4118,-10.1766,-5.86044,-36.2778,7.57656,-32.7731,22.7874,-13.8563,23.0378,-16.2647
-2.00561,17.8763,-2.95099,22.4568,-54.0125,26.4316,37.6506,-4.60732,3.14477,11.4646,-4.85205,2.11941,-5.76566,-2.47333,2.39596,-19.0784,-1.84362,-1.36731,-0.53404,-2.59397,4.78763,3.3037,-1.14379,1.62856,5.56597e-15,7.55382e-15,49.7863,6.70974,-69.3178,52.2063,-11.6562,-36.3297,-0.8249,7.12502,-9.42797,-30.594,5.56597e-15,7.55382e-15,57.7842,-24.3275,74.9771,38.8718,36.9701,-21.8589,23.4572,7.12502,4.54499,53.3884,-77.2693,10.3581,-17.039,48.0744,-13.4111,-10.1271,-5.89658,-36.1086,7.59671,-32.6064,22.9736,-14.1041,23.2347,-15.7258
-1.99113,17.8828,-2.95315,22.2593,-53.6915,26.5583,37.3156,-4.95868,3.56878,11.4969,-5.16325,1.87944,-5.65658,-2.60175,2.02085,-18.9895,-1.66138,-1.14054,-0.77994,-2.39616,4.80413,3.18831,-1.05013,1.60877,-2.38542e-15,5.63005e-14,49.2835,6.93458,-69.3069,52.8649,-11.3668,-37.6387,-1.37281,7.12502,-10.6908,-31.0808,-2.38542e-15,5.63005e-14,57.2064,-24.2982,74.7173,39.657,37.2034,-22.3755,23.7738,7.12502,4.04615,53.7151,-76.9345,10.1453,-16.9876,47.9555,-13.39,-10.1187,-5.6515,-36.1555,7.3811,-32.6958,23.1536,-14.0147,23.3959,-15.5074
-1.96006,17.8815,-2.94625,21.9437,-52.9106,27.0795,36.7036,-5.6019,4.38794,11.4853,-5.70262,1.58185,-5.53664,-2.82263,1.4526,-19.0076,-1.53648,-0.85558,-0.915739,-2.29101,4.81546,3.13468,-1.00001,1.56889,5.56597e-15,1.0107e-14,48.5973,7.00994,-69.3496,53.6538,-11.079,-38.8111,-2.05594,7.12502,-11.8215,-31.7023,5.56597e-15,1.0107e-14,56.7286,-24.3612,74.4154,40.4061,37.4127,-22.7767,24.008,7.12502,3.65878,53.9564,-76.485,9.35591,-17.0218,47.86,-13.3377,-10.145,-5.64588,-36.4011,6.64249,-32.9286,23.3242,-13.8055,23.5661,-15.012
-1.95613,17.8865,-2.9593,21.7412,-53.1503,26.998,36.6935,-5.48383,4.26626,11.5312,-5.62968,1.38461,-5.49544,-2.78763,1.27876,-19.0651,-1.45064,-0.676216,-0.981477,-2.22003,4.88939,3.11814,-0.962321,1.56712,6.20208e-14,3.02153e-14,47.8987,7.02162,-69.5065,54.3792,-10.4659,-39.2995,-2.32247,7.12502,-12.2925,-31.9412,6.20208e-14,3.02153e-14,56.1928,-24.3925,74.2984,41.116,37.3064,-22.7612,23.9546,7.12502,3.67366,53.9027,-76.3641,9.71101,-17.0566,47.7308,-13.2981,-10.1355,-5.52191,-36.3556,6.98298,-33.0209,23.5804,-13.9253,23.742,-14.6548
-1.95624,17.9004,-2.97716,21.6854,-53.4457,26.5973,36.8011,-5.29974,4.10127,11.6206,-5.48258,1.2932,-5.43199,-2.72426,1.2156,-19.2018,-1.30588,-0.552144,-1.0391,-2.05448,4.86805,3.11547,-0.880721,1.5516,-1.27222e-14,-3.29113e-14,47.509,7.11169,-69.7107,54.7862,-9.68726,-39.2599,-2.2776,7.12502,-12.2542,-31.8986,-1.27222e-14,-3.29113e-14,55.6302,-24.3058,74.255,41.8306,37.1274,-22.9706,24.1844,7.12502,3.47147,54.1359,-76.1953,10.305,-16.9326,47.5762,-13.2609,-10.184,-5.65638,-36.2436,7.60398,-32.9676,23.9076,-14.0987,23.7639,-14.8437
-1.92084,17.906,-2.98296,22.0682,-52.6392,26.3161,36.2767,-5.8334,5.08419,11.57,-5.81675,1.25137,-5.37482,-2.8564,0.764353,-19.262,-1.16452,-0.42081,-1.21254,-1.8872,4.77005,3.05578,-0.805467,1.50795,2.22639e-14,-5.7896e-14,47.098,7.14222,-69.7827,55.1724,-9.14274,-38.9225,-1.95811,7.12502,-11.9289,-31.5982,2.22639e-14,-5.7896e-14,55.0512,-24.2694,74.2919,42.5922,36.9086,-23.4756,24.3621,7.12502,2.98378,54.3209,-75.9065,9.75235,-16.6046,47.419,-13.222,-10.3028,-5.55309,-36.7103,7.12119,-32.7631,24.1835,-13.8973,23.8881,-15.7717
-1.89706,17.9106,-2.99528,22.1814,-52.1656,26.1671,35.9774,-6.08089,5.55615,11.5165,-5.97424,1.19778,-5.3688,-2.9175,0.510313,-19.1813,-1.04638,-0.312853,-1.4238,-1.74992,4.8266,2.96119,-0.740512,1.51772,3.02153e-14,3.07122e-14,46.4222,7.14133,-69.802,55.836,-8.85548,-38.7188,-1.64347,7.12502,-11.7325,-31.2949,3.02153e-14,3.07122e-14,54.494,-24.3104,74.2036,43.293,36.6346,-23.8873,23.9818,7.12502,2.58622,53.9459,-75.6628,9.52136,-16.4489,47.2789,-13.1704,-10.4602,-5.23038,-36.9495,6.99676,-32.7378,24.361,-13.6978,23.9982,-16.8646
-1.88594,17.9208,-2.99948,21.5625,-52.1529,26.5415,35.8877,-6.07877,5.43552,11.561,-6.03462,1.05757,-5.29964,-2.94367,0.438566,-19.16,-0.930408,-0.279501,-1.5975,-1.60004,4.87371,2.89182,-0.668153,1.53916,1.59028e-15,-6.4928e-14,45.8248,7.1466,-69.7896,56.402,-8.46679,-39.0239,-1.53193,7.12502,-12.0267,-31.1664,1.59028e-15,-6.4928e-14,53.974,-24.3714,74.1057,43.9086,36.3709,-24.4171,23.7509,7.12502,2.07454,53.7206,-75.244,9.55989,-16.6132,47.1656,-13.2002,-10.4582,-5.02437,-36.7389,7.12479,-33.1138,24.5239,-13.8245,24.1116,-16.5719
-1.87588,17.9341,-3.00645,21.0216,-52.2331,26.7335,35.8808,-5.9952,5.25653,11.6213,-6.00843,0.984533,-5.22779,-2.93415,0.439723,-19.2279,-0.826606,-0.292802,-1.6784,-1.45617,4.84568,2.87131,-0.598577,1.54405,2.38542e-15,4.13969e-14,45.2547,7.16189,-69.5793,56.9838,-8.03127,-39.0485,-1.6509,7.12502,-12.0504,-31.2839,2.38542e-15,4.13969e-14,53.4058,-24.3802,74.1646,44.5709,36.1261,-24.692,23.9296,7.12502,1.809,53.9017,-74.8561,9.7493,-16.6772,47.0534,-13.2423,-10.385,-4.79777,-36.4434,7.32365,-33.3485,24.6101,-13.9853,24.2618,-14.6501
-1.8555,17.9435,-3.01548,21.0324,-51.9871,26.5739,35.5923,-6.06646,5.51815,11.61,-6.02888,0.97448,-5.15905,-2.93842,0.285841,-19.2907,-0.743415,-0.260624,-1.71279,-1.35154,4.8314,2.86706,-0.546936,1.54232,-4.69132e-14,5.51627e-15,44.5247,7.13943,-69.2732,57.7287,-7.61861,-38.6885,-1.71015,7.12502,-11.7032,-31.3632,-4.69132e-14,5.51627e-15,52.8887,-24.4582,74.1659,45.1847,35.868,-24.4329,24.1354,7.12502,2.05924,54.1052,-74.5972,9.68656,-16.5187,46.9017,-13.2067,-10.3612,-4.79398,-36.4764,7.33218,-33.3389,24.6643,-13.7258,24.4329,-14.5168
-1.82703,17.9502,-3.01851,20.9136,-51.455,26.7236,35.0996,-6.31677,5.9471,11.5791,-6.22318,0.939024,-5.05968,-3.01693,0.0699689,-19.2313,-0.642356,-0.218658,-1.89319,-1.21864,4.80784,2.78766,-0.486453,1.53623,8.74653e-15,-7.2457e-14,43.8096,7.13331,-69.0571,58.4124,-7.18722,-38.86,-1.46369,7.12502,-11.8686,-31.1073,8.74653e-15,-7.2457e-14,52.3772,-24.5655,74.0509,45.8187,35.507,-24.3044,24.2742,7.12502,2.18336,54.2428,-74.224,9.2311,-16.4507,46.7546,-13.2487,-10.2867,-4.39581,-36.6323,7.11229,-33.5287,24.7741,-13.2581,24.5457,-16.0735
-1.83653,17.9638,-3.05295,20.6048,-52.3527,26.4497,35.5212,-5.55323,4.8605,11.6397,-5.64014,1.00106,-5.05142,-2.77563,0.50243,-19.4243,-0.524193,-0.145451,-1.90752,-1.07616,4.70166,2.8116,-0.418467,1.50006,5.88403e-14,5.93372e-14,43.1951,7.10803,-68.9505,58.9774,-6.59126,-39.3388,-1.20702,7.12502,-12.3303,-30.8234,5.88403e-14,5.93372e-14,51.8827,-24.5697,74.1004,46.3823,35.063,-24.4123,24.0426,7.12502,2.07914,54.0122,-74.2626,10.2977,-16.5814,46.5624,-13.2451,-10.2718,-3.96928,-36.3582,8.39342,-33.7413,24.9397,-13.4623,24.4788,-15.9829
-1.80502,17.9762,-3.0561,20.506,-51.7516,26.3695,35.354,-5.83618,5.40487,11.6004,-5.80314,1.056,-5.0658,-2.84064,0.332474,-19.7312,-0.423219,-0.0777286,-1.83716,-0.955912,4.50554,2.88625,-0.362569,1.43414,-4.77083e-14,3.23025e-14,42.721,7.07227,-68.8086,59.3532,-5.82584,-39.7222,-0.83849,7.12502,-12.7,-30.4323,-4.77083e-14,3.23025e-14,51.4287,-24.5659,74.326,46.8393,34.4953,-24.5348,23.7541,7.12502,1.96083,53.7249,-73.7263,10.0392,-16.4065,46.4046,-13.3038,-10.457,-3.98702,-36.3286,7.97791,-33.6209,25.0568,-13.6331,24.5795,-15.8069
-1.77697,17.9856,-3.06297,20.3899,-51.3684,26.3012,35.1703,-5.96418,5.64575,11.5389,-5.8777,1.15032,-5.07543,-2.87295,0.326493,-19.8331,-0.306129,-0.174094,-1.86918,-0.771638,4.37433,2.88816,-0.275173,1.42362,-2.54444e-14,-3.01159e-14,42.1964,7.04057,-68.6905,59.7064,-4.7886,-39.4492,-0.452084,7.12502,-12.4368,-30.0621,-2.54444e-14,-3.01159e-14,50.8566,-24.5608,74.5601,47.3603,34.0355,-24.8636,23.8393,7.12502,1.64326,53.8127,-73.3251,9.92926,-16.3071,46.2194,-13.1827,-10.6176,-3.95287,-36.3092,7.70698,-33.5456,25.1653,-13.6561,24.7578,-16.1062
-1.7507,17.9946,-3.06913,20.2087,-51.0844,26.3567,34.9066,-6.01188,5.73514,11.4637,-5.91082,1.24143,-5.06245,-2.88901,0.374491,-19.8353,-0.208059,-0.310858,-1.8986,-0.602729,4.28532,2.87392,-0.193865,1.43281,1.59028e-15,-1.11021e-13,41.5773,6.92105,-68.5554,60.0949,-3.58075,-38.5386,-0.0418235,7.12502,-11.5587,-29.7031,1.59028e-15,-1.11021e-13,50.2367,-24.6322,74.8206,47.9004,33.7881,-25.1537,23.8142,7.12502,1.36315,53.7896,-72.9935,9.81271,-16.3143,46.0471,-13.054,-10.7077,-3.91433,-36.3355,7.69216,-33.6723,25.2707,-13.501,24.7274,-14.3599
-1.72875,18.0055,-3.07822,19.8868,-50.9381,26.4463,34.8177,-5.90488,5.71235,11.4296,-5.7881,1.31076,-5.05655,-2.83468,0.410849,-19.7121,-0.119104,-0.382221,-2.12739,-0.461818,4.33092,2.76759,-0.126686,1.47015,8.26944e-14,-3.12092e-14,40.9097,6.64284,-68.3395,60.6033,-2.75503,-38.2488,0.13319,7.12502,-11.2792,-29.5435,8.26944e-14,-3.12092e-14,49.7486,-24.8797,75.1724,48.3511,33.5945,-25.4558,23.5199,7.12502,1.07133,53.4969,-72.6267,9.80461,-16.2847,45.867,-12.9527,-10.7501,-4.53219,-36.2257,8.01631,-33.9339,25.3445,-13.2529,24.4794,-12.1061
-1.70863,18.0236,-3.08889,19.6901,-50.7729,26.2227,34.8801,-5.75796,5.87755,11.4126,-5.55038,1.36811,-5.0929,-2.72383,0.307779,-19.4609,-0.0545607,-0.461635,-2.49214,-0.355093,4.57564,2.59345,-0.0725594,1.57027,7.79236e-14,1.89839e-14,40.1572,6.31732,-68.0919,61.1694,-2.68596,-39.3466,0.127802,7.12502,-12.3378,-29.4882,7.79236e-14,1.89839e-14,49.4149,-25.3571,75.2057,48.841,33.6427,-25.5029,23.4854,7.12502,1.0259,53.4626,-72.1643,9.9651,-16.0673,45.6885,-12.9148,-10.7977,-4.93883,-35.9559,8.26301,-33.9045,25.3838,-12.9482,24.3841,-12.8006
-1.68334,18.0383,-3.09516,19.4076,-50.4971,26.2121,34.7632,-5.76487,5.97458,11.3418,-5.51925,1.50765,-5.11941,-2.71208,0.389271,-19.3098,-0.00759432,-0.812308,-2.67047,-0.20447,4.54665,2.50135,-0.000136512,1.63323,7.79236e-14,-6.56983e-14,39.5592,6.46839,-67.6854,61.6542,-2.91908,-40.9676,-0.134776,7.12502,-13.9004,-29.6502,7.79236e-14,-6.56983e-14,48.829,-25.4737,75.4494,49.3458,33.4863,-25.4167,23.4441,7.12502,1.1091,53.4209,-71.6678,9.92658,-15.9689,45.519,-12.8259,-10.7817,-4.89607,-35.7359,8.21241,-33.9484,25.411,-12.8578,24.4044,-12.6903
-1.65682,18.0468,-3.10137,18.9966,-50.3119,26.4548,34.4488,-5.64226,5.90604,11.3678,-5.41263,1.54949,-5.10356,-2.66247,0.401417,-19.432,0.0483893,-0.479369,-2.68608,-0.182329,3.99775,2.50972,-0.0121001,1.39121,-1.59028e-14,-1.23445e-13,38.902,6.20831,-67.6015,61.9742,-2.33777,-40.8165,0.145685,7.12502,-13.7548,-29.3797,-1.59028e-14,-1.23445e-13,48.3277,-25.8055,75.6175,49.8061,33.239,-25.4399,23.1192,7.12502,1.08672,53.0962,-71.2577,9.83344,-16.0819,45.3387,-12.7174,-10.7508,-4.7326,-35.5698,8.12866,-34.1763,25.4242,-12.9008,24.4436,-11.3504
-1.63252,18.0585,-3.11183,18.7256,-50.1827,26.4285,34.375,-5.52455,5.76174,11.287,-5.30486,1.67939,-5.14344,-2.61956,0.571893,-19.5514,0.115645,-0.479643,-2.59783,-0.082502,3.70542,2.5574,0.0294323,1.30336,-1.90833e-14,-6.22196e-14,38.2913,5.89888,-67.6595,62.194,-0.855416,-38.7089,1.5064,7.12502,-11.723,-28.1456,-1.90833e-14,-6.22196e-14,47.715,-25.8882,76.0003,50.2015,32.8896,-25.6661,23.0855,7.12502,0.868205,53.0635,-70.8742,9.9394,-16.0635,45.1471,-12.6175,-10.8595,-4.77131,-35.3524,8.11873,-34.1942,25.4149,-12.6513,24.5499,-13.4176
-1.60702,18.073,-3.12331,18.6106,-49.942,26.1895,34.3197,-5.47683,5.71776,11.2123,-5.24271,1.88478,-5.18235,-2.59821,0.786548,-19.745,0.158463,-0.840851,-2.44866,0.0527771,3.70719,2.64363,0.104114,1.38371,-8.5875e-14,-3.24019e-14,37.7166,6.37912,-67.0513,62.9411,-2.10275,-40.9719,0.446974,7.12502,-13.9045,-29.0682,-8.5875e-14,-3.24019e-14,47.0297,-25.7889,76.4952,50.6615,32.5558,-25.6048,23.207,7.12502,0.927438,53.1847,-70.4457,10.0303,-15.8727,44.9283,-12.487,-11.0133,-4.85985,-35.1449,8.01067,-33.987,25.4083,-12.5141,24.5945,-10.1911
-1.58288,18.0876,-3.13294,18.477,-49.7081,25.9682,34.2544,-5.40008,5.70496,11.1443,-5.14286,2.01516,-5.21884,-2.55628,0.893162,-19.9344,0.27596,-0.78115,-2.36181,0.20876,3.37058,2.70234,0.170967,1.27559,3.65764e-14,-1.17283e-13,37.1118,6.47068,-66.8052,63.4336,-2.39622,-41.1684,0.840212,7.12502,-14.0939,-28.6618,3.65764e-14,-1.17283e-13,46.3833,-25.8615,76.6996,51.1775,32.4908,-25.4428,22.919,7.12502,1.08391,52.896,-69.9821,10.0957,-15.6626,44.6898,-12.4052,-11.0847,-5.03568,-34.92,7.94226,-33.8078,25.399,-12.409,24.6003,-8.84667
-1.55965,18.1012,-3.14221,18.1296,-49.6164,25.9392,34.2568,-5.18966,5.56074,11.0107,-4.91266,2.14441,-5.34343,-2.45625,1.0281,-19.8573,0.30913,-0.565206,-2.21639,0.216023,3.13188,2.73752,0.16661,1.15785,9.54166e-15,-8.24956e-14,36.3314,6.3268,-66.5731,63.7685,-2.07337,-41.2881,0.913761,7.12502,-14.2093,-28.5802,9.54166e-15,-8.24956e-14,45.7016,-26.2241,76.9518,51.6511,32.2888,-25.3768,22.9166,7.12502,1.14761,52.8933,-69.5109,10.2544,-15.622,44.4586,-12.3362,-11.1947,-5.14316,-34.5788,7.82814,-33.7435,25.3784,-12.5463,24.7692,-8.06964
-1.53963,18.1171,-3.1548,17.7323,-49.6829,25.9659,34.2732,-4.85651,5.18384,10.8647,-4.60232,2.31985,-5.47448,-2.32384,1.3047,-19.7024,0.432685,-0.612828,-2.24323,0.418821,2.66109,2.69369,0.249116,1.02437,-5.40694e-14,-2.10712e-14,35.6128,6.23202,-66.2937,64.0567,-1.75182,-41.8805,0.155145,7.12502,-14.78,-29.2978,-5.40694e-14,-2.10712e-14,44.9498,-26.5288,77.4783,52.0003,31.8692,-25.2187,22.9955,7.12502,1.30035,52.9713,-69.1377,10.5621,-15.7046,44.235,-12.2063,-11.3705,-5.31042,-34.228,7.75041,-33.712,25.3765,-12.7847,25.0165,-6.92279
-1.50361,18.1316,-3.15401,17.5491,-49.061,25.9098,33.9319,-5.00564,5.50735,10.7816,-4.68814,2.39766,-5.45112,-2.35869,1.23271,-19.9509,0.444659,-0.429114,-2.00509,0.396101,2.50369,2.82318,0.234488,0.940979,4.77083e-15,1.03368e-14,35.0302,6.13277,-66.327,64.3136,-1.45936,-41.914,0.215666,7.12502,-14.8123,-29.235,4.77083e-15,1.03368e-14,44.2656,-26.7101,77.8519,52.3494,31.4932,-25.1718,22.9936,7.12502,1.34561,52.9691,-68.5055,10.3617,-15.6304,44.026,-12.2381,-11.5891,-5.0234,-34.0352,7.23865,-33.551,25.3926,-12.7387,25.0654,-6.43572
-1.47196,18.1446,-3.15762,17.3964,-48.7281,25.6235,33.8231,-5.03507,5.55556,10.716,-4.69507,2.60062,-5.46921,-2.36718,1.41858,-20.2761,0.512091,-0.588334,-1.65607,0.525586,2.37401,3.00499,0.300212,0.943291,-5.24792e-14,-2.74323e-14,34.548,6.40024,-66.1867,64.6152,-1.14052,-41.9014,0.374059,7.12502,-14.8002,-29.0774,-5.24792e-14,-2.74323e-14,43.5052,-26.5475,78.3353,52.7387,31.2599,-25.2271,22.7846,7.12502,1.29224,52.7604,-67.9379,10.3949,-15.3544,43.8143,-12.2312,-11.6649,-4.97202,-33.7851,7.4818,-33.4491,25.4265,-12.4192,24.7481,-7.70549
-1.44505,18.1613,-3.16704,17.1515,-48.5451,25.3778,33.8515,-4.86985,5.49308,10.5677,-4.48181,2.82404,-5.61955,-2.27583,1.61867,-20.206,0.588853,-0.628273,-1.55473,0.653469,2.12316,3.02569,0.355052,0.8778,-5.725e-14,-2.38542e-15,33.7988,6.3396,-65.66,64.9777,-0.78576,-41.6801,0.459702,7.12502,-14.587,-29.0074,-5.725e-14,-2.38542e-15,42.6543,-26.7289,78.9431,53.1304,31.1528,-25.3283,22.6099,7.12502,1.19447,52.5863,-67.3972,10.5436,-15.1057,43.6186,-12.1719,-11.681,-4.92277,-33.483,7.80671,-33.3792,25.5061,-12.1468,24.5291,-11.9535
-1.41679,18.1765,-3.1777,16.8258,-48.3085,25.3001,33.8311,-4.7179,5.36614,10.4149,-4.30916,3.00544,-5.76034,-2.2017,1.81971,-20.1001,0.639696,-0.843149,-1.5932,0.773818,2.13398,2.99014,0.416478,0.929506,7.63333e-14,-6.44062e-14,33.0438,6.02974,-65.584,65.1431,0.494303,-40.5862,1.45589,7.12502,-13.5328,-28.0844,7.63333e-14,-6.44062e-14,41.7253,-26.9376,79.6655,53.489,30.9439,-25.858,22.2405,7.12502,0.682845,52.2192,-66.8604,10.6148,-14.9911,43.4184,-12.0467,-11.7611,-4.79735,-33.1944,7.80755,-33.3146,25.5724,-12.0738,24.4632,-11.6827
-1.38341,18.1824,-3.18998,16.5253,-47.9836,25.3478,33.7124,-4.77037,4.88326,10.1864,-4.47428,3.43134,-5.91822,-2.29349,2.57724,-19.5868,0.689247,-2.12729,-1.99022,1.11703,2.54094,2.74584,0.606491,1.31722,1.43125e-14,-9.54166e-14,32.7136,7.22151,-64.9299,65.5454,-0.203621,-42.2701,0.712037,7.12502,-15.1554,-28.713,1.43125e-14,-9.54166e-14,40.4039,-26.1217,80.9887,53.7108,30.257,-26.2892,22.0214,7.12502,0.266441,52.001,-66.4122,10.5127,-14.9716,43.2222,-11.8799,-11.7868,-4.65742,-33.038,7.76303,-33.3678,25.605,-11.7891,24.4726,-12.1449
-1.37154,18.1954,-3.21308,15.9417,-48.3473,25.1523,34.2165,-4.27029,3.9649,10.0941,-4.09386,3.7538,-6.15452,-2.13672,3.29447,-19.1473,0.725171,-2.72818,-2.40721,1.29345,2.57849,2.51301,0.696205,1.44113,-6.36111e-15,-4.37326e-14,32.3472,7.58521,-64.6458,65.5989,0.210101,-41.81,1.43896,7.12502,-14.7121,-28.019,-6.36111e-15,-4.37326e-14,39.4464,-25.8651,81.747,53.9853,29.9005,-26.2074,22.2923,7.12502,0.345477,52.2717,-65.947,11.2432,-14.8536,43.0169,-11.8139,-11.7329,-4.91899,-32.4041,8.54311,-33.3194,25.6185,-11.8119,24.4261,-11.3723
-1.34928,18.2124,-3.22496,15.5681,-48.3135,24.8976,34.3366,-3.99599,3.63141,9.98901,-3.83664,3.94276,-6.29907,-2.02437,3.58908,-18.9075,0.821361,-2.86157,-2.51342,1.45295,2.48565,2.42729,0.773316,1.4416,7.95139e-15,7.15625e-15,31.8787,7.7342,-64.6774,65.5514,0.631435,-41.7806,1.81065,7.12502,-14.6837,-27.6494,7.95139e-15,7.15625e-15,38.5509,-25.9789,82.1904,54.3123,29.7204,-26.0849,22.4933,7.12502,0.463761,52.4725,-65.3794,11.6148,-14.6379,42.8248,-11.8483,-11.8151,-5.10368,-31.9146,8.86116,-33.1576,25.6501,-11.9266,24.3076,-9.02387
-1.31641,18.2269,-3.23138,15.3241,-47.9848,24.6889,34.2069,-3.93846,3.5753,9.89063,-3.7738,4.03921,-6.35514,-1.99573,3.69592,-19.351,0.861941,-2.67636,-2.20018,1.47315,2.47296,2.61742,0.783739,1.41672,-2.54444e-14,2.70347e-14,31.1809,8.03062,-64.3713,66.0394,-0.027877,-43.4004,0.483619,7.12502,-16.2439,-28.8559,-2.54444e-14,2.70347e-14,37.6353,-26.021,82.5832,54.6337,29.3859,-26.0293,22.4131,7.12502,0.51743,52.3923,-64.7844,11.6332,-14.3981,42.6438,-11.8198,-11.923,-5.25394,-31.5772,8.8859,-33.0191,25.6749,-11.8481,24.1337,-7.28704
-1.28279,18.237,-3.2406,15.0448,-47.5339,24.5802,34.0509,-3.92948,3.45719,9.79876,-3.78622,4.181,-6.38723,-2.0029,3.90793,-19.6606,0.966541,-2.55266,-2.074,1.59437,2.33893,2.71536,0.838997,1.36578,2.70347e-14,-2.38542e-14,30.7239,8.32452,-64.2729,66.2508,-0.196009,-44.8767,-0.621198,7.12502,-17.665,-29.8387,2.70347e-14,-2.38542e-14,36.8036,-25.8969,82.9283,54.9216,29.1378,-25.7438,22.0047,7.12502,0.793215,51.983,-64.1826,11.4998,-14.1777,42.5067,-11.7321,-11.9342,-4.97843,-31.3036,8.87341,-32.9596,25.7347,-11.6338,23.8168,-7.20809
-1.25245,18.2462,-3.25021,14.7102,-47.1359,24.4825,33.9092,-3.85492,3.29686,9.67071,-3.72231,4.39706,-6.46221,-1.97576,4.19669,-19.1733,1.11119,-2.92208,-2.3683,1.86782,2.27022,2.51357,0.974841,1.41926,4.92986e-14,-4.8901e-14,30.2804,8.53906,-64.0963,66.2693,-0.108217,-45.2386,-0.251219,7.12502,-18.0132,-29.4371,4.92986e-14,-4.8901e-14,35.8753,-25.8695,83.4737,55.2449,29.095,-25.5932,21.7923,7.12502,0.938649,51.77,-63.5905,11.4528,-13.9888,42.409,-11.6074,-11.989,-4.72054,-31.0096,8.93631,-32.9124,25.8565,-11.4991,23.5239,-7.64253
-1.22369,18.2518,-3.25992,14.2649,-46.9818,24.4063,33.825,-3.51831,3.27104,9.56876,-3.31505,4.39311,-6.56138,-1.78323,4.06416,-18.8682,1.0117,-2.75573,-2.52783,1.70171,2.10613,2.40865,0.884019,1.31431,-1.43125e-14,-2.38542e-14,29.5281,8.09855,-64.1068,66.2623,-0.147311,-44.7503,0.186638,7.12502,-17.5434,-29.0418,-1.43125e-14,-2.38542e-14,35.0512,-26.6087,83.9485,55.5451,29.1088,-25.5439,21.8572,7.12502,0.986282,51.8346,-63.0883,11.6452,-13.906,42.3837,-11.5841,-12.0763,-4.48818,-30.6275,9.1644,-32.913,25.9821,-11.4718,23.4671,-9.42088
-1.19562,18.2532,-3.27274,13.8594,-47.1573,24.188,33.8045,-2.81921,3.44534,9.5657,-2.44106,4.00745,-6.60909,-1.36659,3.25774,-19.1725,0.757815,-1.2141,-2.41905,1.04663,1.6814,2.52261,0.529869,0.851152,5.08889e-14,-3.26007e-14,27.023,6.3798,-63.8177,67.7688,-0.59996,-44.7114,0.264033,7.12502,-17.506,-28.9678,5.08889e-14,-3.26007e-14,34.6181,-28.517,83.695,55.8089,29.2084,-25.4487,22.0361,7.12502,1.0782,52.0131,-62.7317,12.0128,-13.6966,42.3396,-11.5215,-12.0169,-4.65679,-30.2368,9.78199,-32.8828,26.1455,-11.4944,23.3077,-13.3928
-1.15201,18.2612,-3.26968,13.6435,-45.8884,24.0995,33.3204,-3.30254,3.96736,9.39396,-2.84802,4.26248,-6.6041,-1.55186,3.37934,-19.1052,0.796879,-1.76267,-2.41884,1.21678,1.76668,2.50567,0.62227,0.990232,6.36111e-15,-4.13472e-14,27.3278,6.80044,-64.0127,67.0487,0.229608,-45.0303,0.728572,7.12502,-17.8128,-28.4756,6.36111e-15,-4.13472e-14,33.4471,-28.2272,84.6068,56.0417,28.9293,-25.5483,22.0478,7.12502,0.982056,52.0253,-61.7699,11.337,-13.3786,42.3134,-11.6461,-12.2539,-4.77186,-30.0401,9.15351,-32.7549,26.3462,-11.1826,23.0589,-14.2955
-1.14556,18.2667,-3.29719,13.0105,-46.7709,23.667,33.8884,-2.55849,2.62738,9.4033,-2.30705,4.67721,-6.79532,-1.32028,4.36176,-19.1302,0.936005,-2.45913,-2.29459,1.56146,1.66188,2.54372,0.795465,1.10922,-3.81667e-14,-1.82882e-14,27.1294,7.70933,-63.4508,67.2071,0.232754,-44.8464,1.51157,7.12502,-17.6358,-27.7086,-3.81667e-14,-1.82882e-14,32.1438,-27.343,85.8545,56.2754,28.5734,-25.6494,21.8657,7.12502,0.884375,51.8437,-61.4536,12.5498,-13.0888,42.2082,-11.4274,-12.1548,-4.96036,-29.3339,10.5947,-32.5976,26.6246,-11.4085,22.8046,-14.8068
-1.1212,18.2658,-3.31756,12.4551,-47.3422,23.4068,34.1753,-1.96047,1.73245,9.35749,-1.83313,4.89786,-6.9678,-1.10818,4.91778,-19.1225,1.02226,-2.68086,-2.18767,1.73661,1.43734,2.57523,0.875651,1.08942,-7.63333e-14,-2.38542e-15,26.7752,8.26566,-63.2189,67.2541,0.23486,-45.1058,1.91953,7.12502,-17.8855,-27.278,-7.63333e-14,-2.38542e-15,31.0353,-26.9328,86.7268,56.4691,28.2958,-25.4757,21.9016,7.12502,1.05212,51.8788,-61.194,13.3226,-12.9098,42.2102,-11.2762,-12.0781,-5.14563,-28.7548,11.496,-32.5031,26.7346,-11.6768,22.7102,-14.7388
-1.0894,18.2555,-3.34065,12.0404,-48.2732,23.2038,34.1932,-0.867089,1.32215,9.44384,-0.677661,4.46235,-6.95683,-0.565752,4.26076,-19.6696,0.862169,-1.03349,-2.02885,1.18541,0.896216,2.75118,0.56884,0.577919,-3.18055e-14,1.03368e-14,25.6359,6.85677,-63.7183,67.4442,0.330014,-44.8576,1.78659,7.12502,-17.6466,-27.4326,-3.18055e-14,1.03368e-14,30.8157,-28.9391,86.0887,56.7157,29.3867,-26.3759,21.5022,7.12502,0.182678,51.4819,-61.3292,14.0612,-12.8221,42.182,-11.0507,-11.7863,-5.66199,-28.4681,12.5318,-32.546,26.8977,-11.9338,22.7945,-14.6822
-1.02614,18.2782,-3.30383,12.304,-44.2435,23.2688,32.5209,-2.85826,3.84374,9.17317,-2.33288,4.59722,-6.54878,-1.31024,3.59397,-19.488,0.928639,-1.07207,-2.1959,1.28985,0.722567,2.65827,0.613841,0.53298,-1.90833e-14,-9.54166e-15,25.1315,7.27654,-63.4677,67.7026,-0.0657128,-43.7285,1.4516,7.12502,-16.5598,-27.8618,-1.90833e-14,-9.54166e-15,29.8803,-29.0017,86.4928,56.9597,29.5359,-26.4503,21.4112,7.12502,0.110818,51.3909,-59.326,11.556,-12.4704,42.3022,-11.7598,-12.8464,-5.12908,-28.6035,9.27038,-32.1499,26.9904,-11.1114,22.6303,-15.506
-0.989664,18.2815,-3.30917,12.1035,-43.7465,22.9387,31.9089,-2.82167,3.8528,9.47742,-2.30482,4.62456,-6.57134,-1.2694,3.83972,-19.1145,0.997352,-1.39852,-2.45457,1.4516,0.727023,2.4956,0.69756,0.599957,9.54166e-15,-9.14409e-14,24.7345,7.80717,-63.1507,67.8595,-0.543728,-43.3505,0.954765,7.12502,-16.1958,-28.3887,9.54166e-15,-9.14409e-14,28.8536,-28.7923,87.2573,57.069,29.1763,-25.7859,21.4531,7.12502,0.752573,51.4316,-58.762,11.4855,-12.1206,42.3824,-11.7731,-12.9081,-5.26707,-28.2603,9.3584,-31.9748,27.1042,-11.0472,22.6655,-15.9975
-0.954119,18.2815,-3.31016,11.6805,-43.2817,22.8273,31.6608,-2.80902,3.79664,9.40937,-2.30543,4.71598,-6.53036,-1.26916,3.96498,-18.9116,1.05971,-1.69837,-2.55997,1.59822,0.749995,2.41804,0.774789,0.669163,-2.8625e-14,-1.13705e-13,24.4048,8.36228,-62.8531,67.9625,-0.91782,-43.7305,0.618638,7.12502,-16.5617,-28.6946,-2.8625e-14,-1.13705e-13,27.8959,-28.4878,88.0922,57.0655,29.1077,-25.1192,21.5987,7.12502,1.39647,51.5739,-58.1447,11.4,-11.9249,42.5241,-11.8552,-13.0076,-5.48559,-27.8193,9.4158,-31.9625,27.2023,-10.9888,22.7786,-16.336
-0.922883,18.2818,-3.31458,11.309,-42.9777,22.5783,31.4649,-2.67997,3.68997,9.40323,-2.18277,4.79367,-6.44661,-1.21306,4.0596,-18.9599,1.12133,-1.71568,-2.61199,1.68905,0.62866,2.40781,0.815601,0.639378,-3.18055e-15,7.95139e-16,24.0463,8.82748,-62.6228,68.1421,-1.42971,-44.1402,0.543457,7.12502,-16.9561,-28.7364,-3.18055e-15,7.95139e-16,27.113,-28.3032,88.7907,57.0464,29.4977,-24.8647,21.7067,7.12502,1.64225,51.6801,-57.5413,11.5203,-11.666,42.5793,-11.8899,-13.059,-5.2302,-27.4765,9.51846,-31.8054,27.5018,-11.1006,22.8304,-16.3106
-0.874591,18.2816,-3.31943,11.4549,-41.7072,22.3167,30.7463,-3.04398,4.33814,9.20371,-2.46009,4.84938,-6.35022,-1.33456,3.81497,-19.1006,1.14576,-1.60828,-2.57817,1.70613,0.484366,2.44646,0.817586,0.576051,-6.36111e-14,-3.97569e-14,23.5772,9.23869,-62.4731,68.3399,-2.05066,-44.126,0.616367,7.12502,-16.9424,-28.6647,-6.36111e-14,-3.97569e-14,26.2861,-28.2527,89.4392,57.082,30.1913,-24.7887,21.6892,7.12502,1.71566,51.6621,-56.9347,10.8291,-11.4185,42.6463,-12.0143,-13.3081,-5.0426,-27.704,8.69717,-31.5675,27.8202,-11.0451,22.7928,-16.1229
-0.836444,18.2813,-3.32939,11.2518,-40.9976,22.0816,30.4677,-3.07129,4.57195,9.08543,-2.42976,4.86394,-6.36414,-1.31604,3.67529,-19.2737,1.11292,-1.50019,-2.4821,1.64749,0.354675,2.51382,0.782141,0.512188,-6.04305e-14,4.29375e-14,23.0479,9.59135,-62.3448,68.546,-2.63796,-43.8578,0.592788,7.12502,-16.6843,-28.7102,-6.04305e-14,4.29375e-14,25.5095,-28.2826,90.1441,57.0717,31.1766,-24.5039,21.9472,7.12502,1.99067,51.9177,-56.3098,10.6469,-11.1777,42.6818,-12.1181,-13.5357,-5.54982,-27.603,8.56806,-31.4433,28.1729,-10.9555,22.7231,-16.4475
