JuanDHNZ/ProyectoFinalCD/preprocessing/sports_trials_csv/13_22.csv
root1,root2,root3,root4,root5,root6,lowerback1,lowerback2,lowerback3,upperback1,upperback2,upperback3,thorax1,thorax2,thorax3,lowerneck1,lowerneck2,lowerneck3,upperneck1,upperneck2,upperneck3,head1,head2,head3,rclavicle1,rclavicle2,rhumerus1,rhumerus2,rhumerus3,rradius1,rwrist1,rhand1,rhand2,rfingers1,rthumb1,rthumb2,lclavicle1,lclavicle2,lhumerus1,lhumerus2,lhumerus3,lradius1,lwrist1,lhand1,lhand2,lfingers1,lthumb1,lthumb2,rfemur1,rfemur2,rfemur3,rtibia1,rfoot1,rfoot2,rtoes1,lfemur1,lfemur2,lfemur3,ltibia1,lfoot1,lfoot2,ltoes1
0.05211,18.7423,7.09761,-2.15771,12.6451,-2.75548,2.46232,4.63013,-1.63334,-0.485281,6.05157,-5.88195,-1.406,3.03176,-5.37137,-14.0587,-3.40613,-8.24321,3.3357,-3.84812,10.3034,3.64337,-1.50479,4.24065,-7.05686e-15,-4.77083e-14,20.0111,-34.0943,-50.4669,70.8659,8.48012,-54.4747,11.7447,7.12502,-26.8776,-16.3646,-7.05686e-15,-4.77083e-14,-33.3136,21.5764,57.1879,17.0464,-11.8629,-28.1989,27.6307,7.12502,-1.57799,57.6046,6.24753,5.79738,20.1565,18.598,-20.3108,-34.8513,-8.65066,-7.83811,-13.8776,-8.28739,20.6523,-11.213,5.13831,-12.3217
0.0655101,18.7417,7.10669,-2.3658,13.0694,-2.94094,2.55255,4.58268,-1.58608,-0.482228,5.98595,-5.81172,-1.46131,2.99793,-5.33092,-14.0599,-3.34931,-8.06707,3.46523,-3.80416,10.2038,3.67279,-1.48423,4.18394,2.3556e-14,-3.18055e-14,20.0552,-34.2351,-50.1963,70.6744,8.68498,-54.5012,11.1294,7.12502,-26.903,-16.976,2.3556e-14,-3.18055e-14,-33.3408,22.241,56.8453,16.7643,-12.4799,-28.1327,27.2924,7.12502,-1.51405,57.2668,6.49412,5.54859,20.2735,18.675,-20.1404,-34.6942,-8.87298,-7.92469,-13.6207,-8.1601,21.0568,-11.4073,5.46231,-12.6408
0.0759154,18.7408,7.11116,-2.63574,13.5371,-3.03889,2.79256,4.50799,-1.63913,-0.435066,5.87521,-5.74194,-1.56848,2.94196,-5.24535,-14.279,-3.32166,-8.19899,3.83436,-3.76997,10.3877,3.82396,-1.45089,4.26589,-6.70898e-14,1.59028e-14,20.3282,-34.4146,-50.0735,70.4677,9.05753,-54.4192,10.3155,7.12502,-26.8245,-17.8019,-6.70898e-14,1.59028e-14,-33.3951,22.6829,56.6548,16.6596,-12.7706,-28.0286,26.7687,7.12502,-1.41356,56.7438,6.7971,5.34367,20.3394,18.7949,-20.0696,-34.6371,-9.09108,-7.85557,-13.3731,-8.12452,21.3121,-11.6935,6.14302,-13.3049
0.0893824,18.7411,7.12054,-2.82584,13.8762,-3.14745,2.82732,4.47094,-1.74441,-0.386601,5.82346,-5.6384,-1.56324,2.91688,-5.07762,-14.5196,-3.29303,-8.32361,4.19995,-3.73098,10.5316,3.97594,-1.41635,4.33506,2.21645e-14,6.99722e-14,20.4879,-34.4833,-49.8401,70.2702,9.22403,-54.4784,10.7585,7.12502,-26.8812,-17.3502,2.21645e-14,6.99722e-14,-33.4515,22.9012,56.5849,16.5889,-12.8293,-28.0462,26.4006,7.12502,-1.43052,56.3756,7.01423,5.178,20.4129,18.9237,-19.9991,-34.5774,-9.4041,-7.81865,-13.0873,-8.05602,21.5658,-12.0959,7.09704,-13.6244
0.106366,18.742,7.13703,-2.96825,14.1177,-3.22556,2.76317,4.45194,-1.89364,-0.382437,5.79658,-5.57274,-1.54668,2.90439,-4.91944,-14.5381,-3.25661,-8.14231,4.38356,-3.7125,10.3554,4.02507,-1.41142,4.25124,-2.0276e-14,-6.36111e-15,20.4106,-34.4277,-49.5409,70.184,9.20401,-54.5817,11.0127,7.12502,-26.98,-17.0808,-2.0276e-14,-6.36111e-15,-33.5677,22.91,56.4923,16.5701,-12.6747,-28.1129,26.3325,7.12502,-1.49496,56.307,7.21009,4.92069,20.4217,19.0569,-19.8697,-34.3691,-9.8021,-7.72217,-12.6458,-8.00338,21.762,-12.5815,7.8764,-12.9991
0.125865,18.7438,7.15624,-3.11133,14.3453,-3.25893,2.7159,4.43602,-1.9846,-0.413096,5.77292,-5.5779,-1.562,2.89291,-4.87118,-14.4617,-3.23104,-8.14536,4.57278,-3.70021,10.392,4.07025,-1.40405,4.26523,7.95636e-14,6.36111e-15,20.2127,-34.3296,-49.2474,70.0672,9.31838,-54.7448,11.5152,7.12502,-27.136,-16.554,7.95636e-14,6.36111e-15,-33.6919,22.9165,56.2727,16.5245,-12.4063,-28.0469,26.3327,7.12502,-1.43124,56.3077,7.40483,4.72813,20.3871,19.1884,-19.7425,-34.2547,-10.2095,-7.55295,-12.0062,-8.00471,21.9148,-12.9423,8.40505,-12.3611
0.149891,18.7464,7.17616,-3.24153,14.6228,-3.16233,2.66089,4.39321,-2.16884,-0.42768,5.71141,-5.61151,-1.56509,2.86346,-4.7981,-14.5315,-3.16871,-8.31611,4.81672,-3.6195,10.6319,4.15732,-1.3503,4.37715,3.7123e-14,0,20.0903,-34.1593,-48.9543,69.8291,9.51668,-54.9089,12.2094,7.12502,-27.293,-15.8353,3.7123e-14,0,-33.8345,22.8915,56.0722,16.4701,-12.1695,-28.0517,26.3104,7.12502,-1.43586,56.2853,7.59538,4.62608,20.227,19.3041,-19.491,-34.3901,-10.8216,-7.36534,-11.4087,-8.17617,22.0601,-13.2403,8.91706,-11.6018
0.177582,18.7479,7.19161,-3.32676,14.9485,-2.98776,2.668,4.34301,-2.40131,-0.481361,5.63215,-5.70377,-1.64291,2.82504,-4.76689,-14.3279,-3.07484,-8.07911,4.77116,-3.54286,10.5831,4.09809,-1.31649,4.32946,-5.2181e-16,-1.59028e-14,19.9202,-33.944,-48.6275,69.5904,9.65621,-55.2296,12.7352,7.12502,-27.5998,-15.2608,-5.2181e-16,-1.59028e-14,-33.9547,22.7393,55.8422,16.3597,-12.1009,-28.0867,25.6488,7.12502,-1.46969,55.6234,7.77082,4.52619,19.9733,19.3761,-19.4202,-34.5529,-11.0503,-7.25342,-10.9813,-8.42413,22.2085,-13.5618,9.4472,-10.5971
0.204432,18.7474,7.20972,-3.46978,15.208,-3.06711,2.60192,4.29086,-2.43031,-0.521476,5.56319,-5.70827,-1.65403,2.79058,-4.74959,-14.1287,-2.99274,-7.85348,4.79292,-3.48186,10.5123,4.06133,-1.29112,4.27547,7.5181e-14,-9.54166e-15,19.88,-33.6891,-48.3405,69.3691,9.69626,-55.2906,12.8051,7.12502,-27.6581,-15.1816,7.5181e-14,-9.54166e-15,-34.1139,23.0798,55.3692,16.1461,-12.4338,-27.872,25.239,7.12502,-1.2623,55.215,7.96964,4.61012,20.0561,19.4532,-19.6941,-34.7401,-10.9359,-7.13098,-10.4437,-8.37115,22.3017,-13.747,9.89531,-10.6803
0.229687,18.7452,7.22995,-3.70657,15.5013,-3.18344,2.63772,4.24055,-2.43561,-0.554337,5.49199,-5.68825,-1.715,2.75451,-4.72845,-14.0334,-2.95008,-7.93604,4.99199,-3.44545,10.6748,4.10839,-1.26666,4.34484,-6.06977e-14,-6.36111e-15,19.8032,-33.4515,-48.0465,69.1775,9.84002,-55.2515,12.411,7.12502,-27.6207,-15.5817,-6.06977e-14,-6.36111e-15,-34.3416,23.8548,54.6679,15.8546,-13.1745,-27.9068,25.5793,7.12502,-1.29594,55.5551,8.2549,4.68541,20.2075,19.5683,-19.9657,-34.9506,-10.8562,-6.9113,-9.96327,-8.28723,22.3275,-13.7378,10.2344,-11.0018
0.257596,18.7446,7.24839,-3.84425,15.8684,-3.05272,2.81962,4.18149,-2.6041,-0.675496,5.3875,-5.80414,-1.95322,2.70216,-4.77546,-13.9364,-2.91705,-7.94588,5.24342,-3.44204,10.8621,4.17361,-1.25477,4.40778,-4.48756e-14,-4.45278e-14,19.5629,-33.2043,-47.7434,69.0124,10.1692,-55.1553,11.7163,7.12502,-27.5287,-16.291,-4.48756e-14,-4.45278e-14,-34.5103,23.9732,54.1567,15.6712,-13.4859,-27.8741,26.5967,7.12502,-1.2643,56.5727,8.45172,4.54294,20.0191,19.7125,-19.7894,-35.2043,-11.3909,-6.72563,-9.66783,-8.49628,22.3152,-13.5376,10.5921,-11.5171
0.292526,18.7441,7.26733,-3.89825,16.249,-2.88271,2.94557,4.10285,-2.70428,-0.832404,5.25944,-5.9652,-2.1882,2.63747,-4.90341,-13.9572,-2.91463,-7.88859,5.64375,-3.48627,10.935,4.30402,-1.26593,4.41984,-9.88954e-15,2.22639e-14,19.3932,-32.9547,-47.4696,68.7873,10.8582,-54.9776,12.2999,7.12502,-27.3588,-15.7344,-9.88954e-15,2.22639e-14,-34.6102,23.7599,53.7729,15.455,-13.5249,-27.8954,27.2859,7.12502,-1.28491,57.2618,8.5787,4.34805,19.7381,19.8702,-19.6131,-35.3749,-11.7664,-6.61715,-9.45998,-8.76245,22.2847,-13.2147,10.8535,-12.2066
0.331078,18.7411,7.28517,-3.98302,16.7371,-2.79461,2.90321,3.98681,-2.78926,-0.865812,5.10173,-6.02592,-2.21094,2.55961,-4.91144,-13.9282,-2.93205,-7.8597,5.83643,-3.52522,10.8623,4.35945,-1.28736,4.38971,-4.46769e-14,9.54166e-15,19.5485,-32.8097,-47.2158,68.5319,11.9476,-54.7464,12.7348,7.12502,-27.1376,-15.3342,-4.46769e-14,9.54166e-15,-34.7408,24.7772,52.9344,14.9485,-14.7772,-27.8616,26.7181,7.12502,-1.2522,56.6942,8.75131,4.14223,19.5583,20.0679,-19.813,-35.452,-11.7051,-6.56581,-9.2951,-8.94368,22.2506,-12.7169,10.7128,-12.4778
0.36894,18.7358,7.30383,-4.09292,17.1368,-2.91871,2.64645,3.91497,-2.75833,-0.790316,5.02996,-5.98269,-1.99431,2.52506,-4.85449,-13.9101,-2.97841,-7.93382,5.86743,-3.57647,10.8462,4.37167,-1.31556,4.39275,2.41026e-14,-5.40694e-14,19.8249,-32.8469,-46.9178,68.2981,13.2684,-54.6696,13.1661,7.12502,-27.0641,-14.9144,2.41026e-14,-5.40694e-14,-34.7332,26.311,52.019,14.3251,-16.3852,-27.7447,26.0112,7.12502,-1.13937,55.9879,8.84667,4.03984,19.6138,20.2898,-19.9269,-35.5484,-11.7829,-6.54825,-9.16182,-8.88259,22.2387,-12.0372,10.4378,-12.1627
0.408952,18.7306,7.32313,-4.24138,17.4385,-3.12565,2.41582,3.86892,-2.67773,-0.747851,4.99025,-5.88067,-1.82553,2.50544,-4.76968,-13.8909,-3.0229,-8.1177,5.96677,-3.6194,10.9189,4.40785,-1.33656,4.44343,-8.33902e-14,3.81667e-14,20.0736,-32.8287,-46.54,68.0049,14.9241,-54.9845,14.7779,7.12502,-27.3653,-13.2553,-8.33902e-14,3.81667e-14,-34.7681,27.5037,51.3093,13.8413,-17.4607,-27.7623,26.4842,7.12502,-1.15638,56.4608,8.952,3.94888,19.7395,20.4889,-19.7231,-35.6908,-12.3984,-6.52854,-9.02903,-8.75492,22.3137,-11.1843,10.093,-11.7697
0.454958,18.7275,7.33959,-4.3057,17.8323,-3.11784,2.2681,3.8083,-2.70906,-0.749322,4.91841,-5.86035,-1.753,2.47033,-4.71672,-13.9177,-3.07103,-8.23341,6.22018,-3.6754,10.8581,4.4954,-1.3674,4.43979,-4.87022e-14,-6.36111e-15,20.2572,-32.806,-46.1158,67.7187,16.9337,-55.1185,15.1844,7.12502,-27.4935,-12.8285,-4.87022e-14,-6.36111e-15,-34.8823,28.8393,50.4772,13.324,-18.8482,-27.7531,26.3504,7.12502,-1.14744,56.3271,9.09358,3.68547,19.5618,20.6662,-19.7439,-35.5764,-12.5348,-6.63141,-9.00908,-8.89582,22.4741,-10.5133,9.62876,-10.9705
0.502169,18.7255,7.35639,-4.38586,18.2617,-3.27209,2.20292,3.74872,-2.54565,-0.830552,4.84376,-5.85019,-1.7921,2.43111,-4.79363,-13.9042,-3.11007,-8.1608,6.50674,-3.7488,10.7026,4.5827,-1.40846,4.37336,-3.95581e-14,-1.27222e-14,20.2973,-32.8009,-45.6338,67.4738,19.1443,-54.966,15.0945,7.12502,-27.3477,-12.9415,-3.95581e-14,-1.27222e-14,-35.0535,30.0343,49.5644,12.8256,-20.359,-27.692,25.8374,7.12502,-1.08849,55.8144,9.19678,3.35661,19.5166,20.857,-19.9214,-35.332,-12.2641,-6.79782,-9.05362,-8.8762,22.7109,-10.2675,9.23565,-10.6868
0.54996,18.7237,7.3719,-4.55467,18.7533,-3.38223,2.24748,3.68167,-2.45731,-0.902376,4.75065,-5.81358,-1.89307,2.38294,-4.8088,-13.6661,-3.12769,-8.19189,6.59927,-3.78297,10.6322,4.57392,-1.43639,4.35448,5.56597e-15,0,20.3948,-32.7993,-45.0981,67.124,21.5831,-54.9256,16.2915,7.12502,-27.309,-11.7507,5.56597e-15,0,-35.397,31.6743,48.3876,12.3005,-22.2453,-27.5595,25.9176,7.12502,-0.960455,55.8952,9.38597,3.08784,19.451,21.0781,-19.9137,-35.2367,-12.3966,-6.87449,-9.13068,-8.9452,23.0159,-10.2307,9.15258,-11.372
0.599909,18.7203,7.38593,-4.725,19.2155,-3.46146,2.26207,3.64798,-2.38062,-0.962772,4.70438,-5.7901,-1.96236,2.3585,-4.82972,-13.4035,-3.16646,-8.26941,6.70735,-3.84511,10.6068,4.57049,-1.47714,4.35555,1.17283e-14,-1.59028e-14,20.4293,-32.8298,-44.4679,66.8002,23.9595,-54.9681,17.5873,7.12502,-27.3497,-10.4484,1.17283e-14,-1.59028e-14,-35.5168,32.5009,47.7545,11.9439,-23.1872,-27.4784,26.1739,7.12502,-0.882108,56.1518,9.56496,2.7571,19.3312,21.3434,-19.8799,-35.0983,-12.6848,-6.95761,-9.2994,-9.06837,23.3781,-10.291,9.32073,-12.1517
0.647576,18.7173,7.40018,-4.87288,19.5662,-3.55504,2.29583,3.64039,-2.35494,-1.05656,4.68808,-5.7426,-2.08119,2.34903,-4.80136,-13.2328,-3.19269,-8.29009,6.8835,-3.8922,10.513,4.59874,-1.50978,4.32675,3.51849e-14,1.59028e-14,20.4674,-32.8128,-43.8235,66.5778,25.9331,-55.0324,18.7233,7.12502,-27.4111,-9.30272,3.51849e-14,1.59028e-14,-35.7215,33.451,47.0428,11.587,-24.2523,-27.7258,26.5863,7.12502,-1.1211,56.5631,9.62462,2.48707,19.2213,21.7209,-19.8238,-34.9183,-13.1192,-7.01614,-9.3584,-9.15198,23.7039,-10.43,9.09285,-12.4317
0.696176,18.7148,7.4145,-4.95023,19.9381,-3.52305,2.27152,3.6561,-2.44856,-1.11908,4.70393,-5.75077,-2.13805,2.35774,-4.75976,-13.0435,-3.2575,-8.23149,6.92371,-3.99458,10.4006,4.58575,-1.57011,4.27355,-1.03368e-14,-2.8625e-14,20.5054,-32.8487,-43.1558,66.364,27.4775,-55.063,19.3865,7.12502,-27.4404,-8.63485,-1.03368e-14,-2.8625e-14,-35.9078,34.8283,46.1166,11.1916,-25.6714,-27.7853,26.7285,7.12502,-1.17856,56.705,9.58239,2.28086,18.9952,22.215,-19.4979,-34.8722,-14.0853,-7.04817,-9.42516,-9.3739,23.9598,-10.5822,8.514,-12.2368
0.745532,18.7126,7.43001,-4.98029,20.3545,-3.26594,2.21837,3.66004,-2.79074,-1.1332,4.70036,-5.77889,-2.14844,2.36052,-4.59536,-12.88,-3.33008,-8.32774,6.99927,-4.09345,10.4045,4.59333,-1.62509,4.2836,-4.92986e-14,4.77083e-14,20.7338,-32.9155,-42.5936,66.0286,28.9437,-55.1688,19.7203,7.12502,-27.5416,-8.28494,-4.92986e-14,4.77083e-14,-35.9452,35.8101,45.5958,10.9274,-26.479,-27.6517,27.0271,7.12502,-1.04956,57.0043,9.58491,2.04021,18.5202,22.7618,-19.4068,-34.7135,-14.8469,-7.01897,-9.60102,-9.8547,24.1705,-10.6677,8.29154,-11.752
0.792248,18.7097,7.44106,-5.00729,20.7765,-2.98191,2.29539,3.65299,-3.12583,-1.17245,4.67169,-5.86186,-2.25425,2.35035,-4.50308,-12.7295,-3.38822,-8.4056,7.05648,-4.18568,10.5193,4.59945,-1.66938,4.32647,6.56983e-14,-4.45278e-14,20.9585,-33.0017,-42.126,65.6533,30.0173,-55.3087,21.0534,7.12502,-27.6754,-6.93047,6.56983e-14,-4.45278e-14,-36.0958,37.0547,44.7963,10.6549,-27.6327,-27.6282,27.0303,7.12502,-1.02679,57.0076,9.55483,1.882,18.0428,23.3163,-19.464,-34.6194,-15.1431,-6.99441,-9.83105,-10.3566,24.353,-10.6809,8.39435,-11.9585
0.83925,18.7081,7.4515,-5.03395,21.0945,-2.95774,2.27241,3.66607,-3.17544,-1.24985,4.68421,-5.88446,-2.32294,2.35715,-4.50209,-12.3634,-3.40376,-8.4618,6.85117,-4.21684,10.6072,4.48277,-1.69341,4.36254,-1.2921e-15,6.36111e-15,21.2056,-33.1156,-41.6827,65.3393,30.7326,-55.2848,21.8606,7.12502,-27.6526,-6.12695,-1.2921e-15,6.36111e-15,-36.1407,37.8932,44.2791,10.488,-28.2558,-27.4735,26.536,7.12502,-0.87744,56.514,9.4076,1.8467,17.8526,23.871,-19.5384,-34.5032,-15.0274,-7.04053,-9.98844,-10.5585,24.506,-10.7298,8.34713,-12.9685
0.887361,18.7086,7.46542,-5.05862,21.3132,-3.06037,2.12443,3.70919,-3.11006,-1.33326,4.74931,-5.8728,-2.3182,2.38882,-4.52157,-12.0553,-3.42897,-8.50639,6.77747,-4.26794,10.6857,4.41737,-1.72475,4.39248,-7.43455e-14,0,21.5977,-33.2854,-41.3988,64.9588,31.3414,-55.4111,21.5782,7.12502,-27.7733,-6.38996,-7.43455e-14,0,-35.8559,38.0095,44.4006,10.485,-27.9908,-27.3064,26.4865,7.12502,-0.71604,56.465,9.2463,1.88593,17.8092,24.4205,-19.7094,-34.2461,-14.3882,-7.09142,-10.077,-10.6158,24.6457,-10.8194,8.11507,-13.4712
0.937356,18.7102,7.4787,-5.04418,21.493,-3.06408,2.02354,3.79394,-3.07671,-1.46413,4.86183,-5.94531,-2.3819,2.4442,-4.61928,-11.803,-3.48342,-8.33146,6.88399,-4.38955,10.6251,4.41474,-1.7892,4.33652,-2.98177e-14,-6.36111e-15,21.9176,-33.5067,-41.2092,64.5645,31.8257,-55.7568,21.4207,7.12502,-28.1038,-6.49366,-2.98177e-14,-6.36111e-15,-35.517,37.9957,44.4933,10.472,-27.8438,-27.2954,26.8251,7.12502,-0.705438,56.8037,9.08678,1.91073,17.6397,24.9717,-19.9168,-33.9162,-13.6413,-7.11881,-10.0879,-10.7819,24.7725,-10.8467,7.98849,-13.6431
0.988524,18.71,7.48969,-5.02878,21.7036,-2.96481,1.94736,3.8695,-3.1211,-1.59069,4.958,-6.03361,-2.46093,2.49251,-4.69159,-11.4545,-3.52667,-8.24797,6.89504,-4.48681,10.6329,4.36822,-1.84406,4.32011,3.16068e-14,-5.40694e-14,22.2872,-33.7367,-41.0262,64.1874,31.9855,-55.5782,21.889,7.12502,-27.9331,-6.05322,3.16068e-14,-5.40694e-14,-35.1404,37.7562,44.708,10.5159,-27.4222,-27.2185,27.0406,7.12502,-0.6311,57.0195,8.9041,1.73954,17.2673,25.5171,-19.4902,-33.6445,-13.4248,-7.08914,-10.0788,-11.0636,24.8668,-10.879,7.93922,-14.0032
1.03831,18.7107,7.49811,-4.97797,21.8605,-2.87587,1.86745,3.91709,-3.17206,-1.72129,5.01679,-6.07852,-2.54849,2.52224,-4.71353,-11.1394,-3.4992,-8.45693,6.83339,-4.46137,10.9061,4.30652,-1.83196,4.44595,-6.38099e-14,0,22.9441,-33.9536,-41.0683,63.7539,31.9513,-55.3931,22.1529,7.12502,-27.7561,-5.81802,-6.38099e-14,0,-35.2616,38.6532,44.1851,10.5333,-28.09,-27.0672,26.8743,7.12502,-0.484982,56.8535,8.59741,1.64156,16.894,26.063,-18.8317,-33.4912,-13.518,-7.07923,-10.0767,-11.3284,24.9114,-10.9084,7.89256,-14.3539
1.08392,18.7142,7.50667,-4.89307,21.8954,-2.88735,1.78526,4.00484,-3.11606,-1.8898,5.13037,-6.10989,-2.66278,2.57729,-4.78466,-10.9943,-3.47383,-8.55665,6.93757,-4.44511,11.0595,4.31851,-1.82136,4.51423,-1.94809e-14,-1.90833e-14,23.6758,-34.2162,-41.1816,63.2848,31.8577,-55.2068,21.3563,7.12502,-27.5779,-6.64316,-1.94809e-14,-1.90833e-14,-35.4866,39.7885,43.5313,10.5916,-29.1319,-26.8487,26.5423,7.12502,-0.273936,56.5219,8.20866,1.78972,16.7112,26.5927,-18.227,-33.3462,-13.8136,-7.11898,-10.0113,-11.4444,24.9476,-11.0197,7.73462,-13.9856
1.12906,18.7195,7.51566,-4.78129,21.9192,-2.7704,1.59348,4.12002,-3.15565,-1.95029,5.29202,-6.20026,-2.60347,2.65896,-4.85002,-11.0259,-3.47348,-8.33466,6.97206,-4.45663,10.8399,4.32477,-1.8315,4.40653,1.17283e-14,2.22639e-14,24.4822,-34.6587,-41.3852,62.8752,31.6897,-55.1637,20.5763,7.12502,-27.5367,-7.42973,1.17283e-14,2.22639e-14,-34.762,39.212,44.2646,10.8199,-28.1868,-26.538,26.0002,7.12502,0.0261341,55.9799,7.89571,1.87021,16.3542,27.0857,-17.5813,-32.9602,-13.6166,-7.11795,-9.90457,-11.6976,24.9964,-11.1225,7.61076,-13.9729
1.17277,18.7217,7.5223,-4.71076,21.9787,-2.68607,1.45216,4.19264,-3.1517,-2.00031,5.39552,-6.29368,-2.56054,2.71073,-4.94396,-11.0608,-3.39467,-8.02465,6.85589,-4.35939,10.5801,4.27244,-1.78946,4.27966,1.05356e-14,4.77083e-14,25.4221,-35.0688,-41.7531,62.4044,31.3592,-55.4267,21.3196,7.12502,-27.7882,-6.64616,1.05356e-14,4.77083e-14,-33.7353,37.6392,45.5697,11.2185,-25.9669,-26.233,25.6178,7.12502,0.320734,55.5973,7.65954,1.89614,16.0141,27.5292,-16.9407,-32.5627,-13.0297,-7.11042,-9.92927,-11.9343,25.0405,-11.2165,7.66224,-14.1669
1.21119,18.7195,7.53117,-4.70266,21.9799,-2.65441,1.43417,4.26287,-3.13088,-2.10251,5.48399,-6.36178,-2.64263,2.75387,-5.03455,-10.9804,-3.31211,-7.90511,6.83725,-4.26898,10.5802,4.24232,-1.744,4.26754,7.27552e-14,5.08889e-14,26.4598,-35.3836,-42.2548,61.7476,30.8532,-55.6308,21.7968,7.12502,-27.9833,-6.13726,7.27552e-14,5.08889e-14,-32.9887,36.1155,46.6591,11.7562,-23.9013,-25.976,25.6361,7.12502,0.568895,55.6151,7.46908,2.10262,15.7921,27.9486,-16.4865,-32.0605,-12.2642,-7.05116,-9.91162,-12.0935,25.0567,-11.2359,7.66902,-14.3748
1.24683,18.7197,7.5389,-4.65561,21.9141,-2.5845,1.41879,4.37964,-3.15937,-2.22431,5.63149,-6.42646,-2.74776,2.82717,-5.09795,-10.8532,-3.29806,-7.90386,6.94863,-4.27576,10.6749,4.25796,-1.74432,4.29824,3.00165e-14,-3.18055e-14,27.4929,-35.6817,-42.7291,61.1358,30.1012,-55.6728,21.7043,7.12502,-28.0234,-6.22322,3.00165e-14,-3.18055e-14,-32.1663,34.1278,48.0244,12.3928,-21.6316,-25.8496,26.0911,7.12502,0.691013,56.0697,7.26684,2.42158,15.5495,28.2951,-15.9836,-31.3117,-11.6553,-7.01438,-9.83634,-12.2658,25.0906,-11.3293,7.55489,-13.9438
1.28311,18.7186,7.54354,-4.56964,21.9038,-2.40844,1.40814,4.47702,-3.27148,-2.32833,5.75119,-6.51041,-2.84515,2.88829,-5.13415,-10.7115,-3.27785,-7.89042,7.04696,-4.26936,10.703,4.26395,-1.74208,4.30692,-8.52786e-14,1.90833e-14,28.5196,-35.9359,-43.174,60.7041,29.3192,-55.9054,22.1943,7.12502,-28.2458,-5.69664,-8.52786e-14,1.90833e-14,-31.527,32.4563,49.1174,12.9583,-19.898,-25.778,26.0919,7.12502,0.760172,56.0703,7.14436,2.63569,15.1568,28.5327,-15.2067,-30.4031,-10.9518,-6.99544,-9.82354,-12.5571,25.146,-11.4778,7.52579,-13.8071
1.31623,18.7162,7.54805,-4.54519,21.8416,-2.39717,1.39065,4.55669,-3.18485,-2.39133,5.85694,-6.57818,-2.87846,2.93893,-5.25913,-10.6698,-3.22649,-7.93919,7.15987,-4.21526,10.8208,4.28989,-1.7101,4.35735,4.29375e-14,-1.59028e-14,29.7714,-36.2225,-43.8474,60.2381,28.9089,-56.1869,22.465,7.12502,-28.5148,-5.38117,4.29375e-14,-1.59028e-14,-30.9085,30.5711,50.1947,13.6381,-17.8991,-25.725,25.883,7.12502,0.811373,55.8612,7.07896,3.04199,15.0081,28.6172,-14.5662,-29.5358,-10.6815,-6.96225,-9.73421,-12.66,25.2082,-11.5983,7.50587,-13.8228
1.34126,18.7118,7.55,-4.53268,21.7931,-2.37672,1.4485,4.63921,-3.15595,-2.45131,5.95922,-6.65138,-2.95623,2.98855,-5.36528,-10.5135,-3.16151,-7.84916,7.11072,-4.1454,10.8155,4.24021,-1.67848,4.34698,-7.67309e-14,8.26944e-14,31.0331,-36.4649,-44.5658,59.8435,28.5365,-56.0366,21.2635,7.12502,-28.3712,-6.60662,-7.67309e-14,8.26944e-14,-30.2449,27.7911,51.6322,14.5719,-15.0111,-25.8277,26.3451,7.12502,0.712165,56.3236,7.0292,3.71635,14.9524,28.5717,-13.9569,-28.8565,-11.5882,-6.96405,-9.64269,-12.7513,25.2775,-11.6616,7.44429,-13.6951
1.36394,18.7092,7.55464,-4.58444,21.8266,-2.30342,1.5924,4.71069,-3.17377,-2.51394,6.03852,-6.74863,-3.0889,3.02708,-5.47958,-10.2729,-3.12701,-7.5621,7.03657,-4.1279,10.6048,4.16516,-1.68088,4.23544,6.7388e-14,-1.59028e-14,32.0467,-36.6148,-45.1865,59.6661,28.1955,-55.5078,18.9674,7.12502,-27.8657,-8.98581,6.7388e-14,-1.59028e-14,-29.7851,25.0367,52.8852,15.6337,-12.295,-25.9428,26.8263,7.12502,0.60097,56.8052,7.15134,4.45785,14.8857,28.3983,-13.4746,-28.2583,-13.4447,-6.89166,-9.65924,-12.9139,25.3616,-11.7353,7.38652,-13.5505
1.38795,18.7072,7.56287,-4.6114,21.8295,-2.20304,1.64135,4.78216,-3.172,-2.55361,6.12675,-6.87447,-3.13818,3.07025,-5.62416,-10.0838,-3.11466,-7.39832,7.02167,-4.13954,10.5602,4.12591,-1.68982,4.19473,4.45278e-14,-9.85972e-14,33.1247,-36.7416,-45.8938,59.4483,28.1119,-55.2913,17.7906,7.12502,-27.6587,-10.1959,4.45278e-14,-9.85972e-14,-29.4654,23.7057,53.3924,16.3751,-11.2486,-25.9369,26.6852,7.12502,0.606716,56.6641,7.3427,5.04322,14.758,28.1567,-13.4408,-27.637,-14.6008,-6.80374,-9.65827,-13.1118,25.4467,-11.7813,7.38685,-13.7308
1.41269,18.7036,7.56687,-4.58087,21.8308,-1.95711,1.73793,4.84566,-3.30262,-2.56393,6.19778,-7.00299,-3.19861,3.10769,-5.70123,-10.0707,-3.11274,-7.51737,7.11462,-4.14979,10.7861,4.16063,-1.68513,4.28551,9.95911e-14,1.59028e-14,34.2581,-36.7373,-46.4644,59.1,28.0679,-55.4086,17.8459,7.12502,-27.7709,-10.1226,9.95911e-14,1.59028e-14,-29.1014,22.9239,53.7391,16.8579,-10.8689,-25.9961,26.5421,7.12502,0.549492,56.5211,7.53604,5.48169,14.4269,27.8946,-13.4131,-27.2495,-15.09,-6.72428,-9.7207,-13.4808,25.5458,-11.8353,7.47266,-13.556
1.4339,18.6977,7.5691,-4.52948,21.9164,-1.76212,1.82876,4.86468,-3.43408,-2.57246,6.21006,-7.07861,-3.26395,3.11601,-5.7195,-10.0223,-3.10743,-7.5824,7.06922,-4.14051,10.8671,4.1412,-1.68008,4.3228,-3.20043e-14,7.31528e-14,35.3243,-36.5529,-46.8298,58.7121,28.0632,-55.6798,17.7934,7.12502,-28.0302,-10.133,-3.20043e-14,7.31528e-14,-28.8394,22.0187,54.1795,17.4997,-10.2001,-26.1304,26.5206,7.12502,0.419772,56.5,7.69926,5.84621,14.1626,27.6296,-13.4198,-27.2546,-15.4558,-6.75815,-9.77212,-13.7798,25.7076,-11.8732,7.441,-13.3213
1.44857,18.693,7.57359,-4.55495,21.9895,-1.85473,1.85109,4.87827,-3.31824,-2.572,6.23085,-7.12077,-3.25745,3.12378,-5.83087,-9.96049,-3.11331,-7.39961,6.96887,-4.15292,10.6933,4.09394,-1.69343,4.23668,8.01102e-14,-8.5875e-14,36.2785,-36.3257,-47.1583,58.4362,28.2918,-55.7935,17.8662,7.12502,-28.1388,-10.0423,8.01102e-14,-8.5875e-14,-28.5495,20.8315,54.624,18.283,-9.14915,-26.2247,26.7078,7.12502,0.328683,56.6873,7.84827,6.17384,14.2511,27.3954,-13.498,-27.336,-15.5873,-6.86812,-9.78544,-13.7245,25.9141,-12.0189,7.34984,-12.9945
1.4564,18.6924,7.58312,-4.76301,21.9886,-2.30394,1.89811,4.90663,-2.86494,-2.57153,6.28321,-7.12326,-3.22986,3.14002,-6.09022,-9.92844,-3.13721,-7.41452,6.93356,-4.19699,10.848,4.08624,-1.70868,4.28484,7.4743e-14,-5.725e-14,37.0724,-36.0587,-47.4839,58.383,28.6115,-55.8027,17.9788,7.12502,-28.1476,-9.9283,7.4743e-14,-5.725e-14,-28.2065,18.8626,55.2273,19.1351,-7.50106,-26.2975,27.0394,7.12502,0.258425,57.019,8.05335,6.58041,14.8085,27.1961,-13.5306,-27.5689,-15.6315,-6.94163,-9.82828,-13.2757,26.1542,-12.1489,7.34736,-13.4108
1.46616,18.6914,7.59099,-4.87131,21.9706,-2.56472,2.02644,4.97088,-2.55011,-2.65795,6.36644,-7.17954,-3.34476,3.17237,-6.34754,-9.78444,-3.19241,-7.47888,6.91194,-4.28752,11.0386,4.07037,-1.74949,4.35016,9.34288e-15,9.54166e-15,37.4828,-35.6052,-47.3629,58.4421,28.7682,-55.6092,18.4683,7.12502,-27.9627,-9.46911,9.34288e-15,9.54166e-15,-27.9668,16.7609,55.8121,19.9272,-5.97835,-26.3698,26.6644,7.12502,0.188553,56.6441,8.2127,6.86636,15.1133,27.0485,-13.3266,-27.7966,-16.1043,-7.01881,-9.87898,-13.0394,26.3771,-12.2598,7.39977,-13.8444
1.48073,18.6897,7.59734,-4.84533,21.9751,-2.59113,2.0754,5.05621,-2.42084,-2.70924,6.47864,-7.26552,-3.39195,3.22434,-6.52391,-9.73799,-3.26825,-7.47688,6.95996,-4.39861,11.0527,4.08809,-1.80407,4.34672,-1.08536e-13,2.22639e-14,37.7224,-35.0184,-46.841,58.5167,28.8905,-55.4658,17.9801,7.12502,-27.8256,-9.97963,-1.08536e-13,2.22639e-14,-27.6857,16.0128,55.968,20.417,-6.10696,-25.7773,25.7918,7.12502,0.760849,55.7702,8.35398,6.97337,15.0915,26.9048,-12.9417,-27.7786,-16.9506,-7.11133,-9.95632,-13.0713,26.5701,-12.3654,7.44177,-13.5907
1.49411,18.6882,7.60167,-4.74581,22.0694,-2.49032,2.06296,5.10274,-2.44009,-2.70917,6.54044,-7.36061,-3.37054,3.25595,-6.61511,-9.75315,-3.30857,-7.42082,6.98446,-4.4572,11.0014,4.10113,-1.83319,4.31687,6.7388e-14,-4.77083e-14,37.9719,-34.365,-46.2601,58.6876,29.2697,-55.2833,17.1088,7.12502,-27.6511,-10.879,6.7388e-14,-4.77083e-14,-27.4082,15.8618,55.9296,20.8218,-6.97515,-24.9228,24.8075,7.12502,1.58614,54.7813,8.48564,7.00247,14.9233,26.7678,-12.6148,-27.6376,-18.06,-7.22431,-10.0956,-13.2377,26.7063,-12.4305,7.52,-13.3068
1.50432,18.687,7.60359,-4.59689,22.2165,-2.43774,1.99052,5.09493,-2.46128,-2.69278,6.53492,-7.437,-3.30673,3.25476,-6.67487,-9.87109,-3.34329,-7.36269,6.97449,-4.50045,10.9543,4.11953,-1.85196,4.28803,9.38264e-14,-2.54444e-14,38.2624,-33.612,-45.6271,58.8959,29.7374,-55.157,17.9196,7.12502,-27.5303,-10.0875,9.38264e-14,-2.54444e-14,-27.1407,15.3884,56.0388,21.3067,-7.01259,-24.6161,24.0743,7.12502,1.88229,54.0457,8.54579,7.05515,14.8228,26.5872,-12.2635,-27.6271,-18.7607,-7.41473,-10.3151,-13.3313,26.8047,-12.5291,7.60651,-12.9569
1.51076,18.6868,7.60618,-4.49056,22.2974,-2.44771,1.87173,5.08102,-2.49598,-2.62743,6.52764,-7.471,-3.17216,3.25435,-6.67286,-10.0583,-3.36638,-7.3758,6.92421,-4.51707,10.9689,4.13794,-1.85491,4.2917,1.74931e-14,-6.36111e-15,38.556,-32.7368,-44.8811,59.2041,30.2786,-55.3421,18.875,7.12502,-27.7073,-9.10375,1.74931e-14,-6.36111e-15,-26.7751,14.8863,56.2144,21.7188,-6.6269,-24.8733,23.6524,7.12502,1.63392,53.6259,8.63461,7.28061,14.8724,26.3512,-12.1848,-27.7518,-18.9576,-7.55893,-10.4588,-13.3345,26.8505,-12.5953,7.66335,-12.3234
1.51563,18.6905,7.61333,-4.50057,22.2956,-2.58451,1.80491,5.07606,-2.40544,-2.55465,6.53448,-7.45235,-3.04978,3.2581,-6.69,-10.3197,-3.37229,-7.68073,6.98096,-4.50101,11.2697,4.21183,-1.83071,4.43664,1.07344e-14,9.54166e-15,38.7604,-31.7275,-44.011,59.5762,31.0181,-55.5746,18.8664,7.12502,-27.9296,-9.07646,1.07344e-14,9.54166e-15,-26.3597,14.2371,56.5246,22.1169,-5.53494,-25.1779,23.8062,7.12502,1.33972,53.7817,8.82475,7.59518,15.1111,26.0657,-12.1908,-27.8859,-19.4206,-7.58517,-10.5322,-13.2018,26.8562,-12.6339,7.7059,-11.7647
1.52092,18.6941,7.62351,-4.50402,22.2643,-2.62778,1.78081,5.11349,-2.36443,-2.52967,6.58939,-7.48657,-2.99629,3.28567,-6.746,-10.3736,-3.38849,-7.93949,7.02028,-4.51401,11.5557,4.24729,-1.8267,4.56919,-9.62118e-14,4.45278e-14,38.625,-30.6052,-42.7907,59.953,31.7957,-55.7253,19.6664,7.12502,-28.0737,-8.25291,-9.62118e-14,4.45278e-14,-26.0057,12.4998,57.2686,22.9203,-2.51274,-26.3755,25.8799,7.12502,0.183028,55.8596,9.03854,7.81803,15.2116,25.7781,-11.9739,-27.9652,-20.0412,-7.52112,-10.5947,-13.1816,26.8048,-12.6479,7.78961,-12.0927
1.52436,18.6986,7.63186,-4.43815,22.242,-2.59688,1.82414,5.19015,-2.37133,-2.60891,6.68262,-7.57737,-3.08462,3.33057,-6.85292,-10.1274,-3.43422,-7.88947,6.9288,-4.58365,11.4845,4.18244,-1.87249,4.53462,6.20208e-14,-3.18055e-15,38.1301,-29.3274,-41.1904,60.3879,32.4723,-55.6708,21.2935,7.12502,-28.0216,-6.6343,6.20208e-14,-3.18055e-15,-25.815,11.8689,57.3542,23.3842,-2.21374,-25.9839,25.678,7.12502,0.561261,55.657,9.21467,8.00542,15.2172,25.4594,-11.9419,-28.0162,-19.9699,-7.49608,-10.6526,-13.2224,26.7284,-12.6315,7.84008,-12.1568
1.52552,18.7048,7.63884,-4.36581,22.2422,-2.6151,1.89916,5.27588,-2.35152,-2.6998,6.78602,-7.66199,-3.19939,3.37941,-6.97342,-9.87228,-3.49493,-7.80163,6.76004,-4.6741,11.4278,4.09445,-1.92805,4.49689,-1.39149e-15,4.45278e-14,37.5566,-28.0273,-39.4823,60.9166,33.3382,-55.4514,21.7181,7.12502,-27.8118,-6.24384,-1.39149e-15,4.45278e-14,-25.6309,11.2023,57.4825,23.8908,-1.82805,-26.2657,25.9292,7.12502,0.289138,55.9087,9.37539,8.21351,15.301,25.1034,-12.0743,-28.1725,-20.5763,-7.50388,-10.7136,-13.199,26.6228,-12.5819,7.9157,-11.9078
1.52746,18.7131,7.64639,-4.32019,22.2718,-2.88186,1.82865,5.31937,-2.16514,-2.75486,6.85294,-7.64062,-3.19097,3.40861,-7.05216,-9.85565,-3.53232,-7.82625,6.74524,-4.72494,11.4663,4.09392,-1.95247,4.50947,8.22969e-14,-7.95139e-14,37.1474,-26.6844,-37.7549,61.5041,34.3781,-55.5211,21.6362,7.12502,-27.8784,-6.31491,8.22969e-14,-7.95139e-14,-25.4734,10.8954,57.541,24.3479,-1.68377,-26.0318,25.8216,7.12502,0.515045,55.8007,9.49971,8.33541,15.6431,24.6855,-12.1137,-28.3914,-21.3392,-7.60384,-10.7663,-12.9031,26.5272,-12.5271,8.01239,-11.9972
1.53071,18.7208,7.65268,-4.25304,22.4036,-3.01673,1.77738,5.32458,-2.10081,-2.76768,6.86523,-7.64226,-3.16636,3.41379,-7.08493,-9.97232,-3.54669,-7.79308,6.81528,-4.7429,11.4134,4.13411,-1.95845,4.48497,7.25564e-14,-1.59028e-14,36.7016,-25.2473,-35.8804,62.1756,35.1683,-55.9338,21.8086,7.12502,-28.273,-6.07787,7.25564e-14,-1.59028e-14,-25.076,11.2924,57.5438,24.3928,-2.23657,-25.825,25.4266,7.12502,0.714722,55.4052,9.68876,8.3151,15.8317,24.2359,-12.0609,-28.5567,-21.0943,-7.67608,-10.8933,-12.7615,26.4158,-12.448,8.08057,-12.4273
1.53351,18.7292,7.65667,-4.23729,22.5572,-3.13416,1.84069,5.3217,-2.00791,-2.78818,6.85964,-7.67384,-3.20932,3.40803,-7.17917,-10.0143,-3.55249,-7.7228,6.83062,-4.75953,11.4173,4.14598,-1.96281,4.47287,4.23411e-14,2.54444e-14,36.1921,-23.737,-33.9918,62.8718,35.9765,-56.565,21.7657,7.12502,-28.8761,-6.0193,4.23411e-14,2.54444e-14,-24.5913,11.9825,57.5061,24.2904,-3.22758,-26.1513,25.7595,7.12502,0.399663,55.7389,9.93911,8.12804,15.9579,23.7458,-11.7444,-28.6631,-20.5427,-7.69802,-11.022,-12.6509,26.3188,-12.3996,8.08667,-12.5279
1.53351,18.7371,7.66155,-4.20762,22.6724,-3.2227,1.86124,5.34965,-1.95649,-2.78452,6.89794,-7.73487,-3.19958,3.42629,-7.27608,-9.98343,-3.57335,-7.64492,6.73511,-4.798,11.478,4.11585,-1.97869,4.47617,4.87022e-14,-6.67916e-14,35.669,-22.2956,-32.0251,63.5211,36.8911,-56.8698,23.5251,7.12502,-29.1671,-4.20982,4.87022e-14,-6.67916e-14,-24.2324,12.0354,57.4937,24.4659,-3.78103,-26.6514,26.4796,7.12502,-0.0833933,56.4593,10.1539,7.95895,16.0506,23.2677,-11.5141,-28.7967,-20.2288,-7.71064,-11.0863,-12.557,26.2059,-12.3556,8.05352,-12.8051
1.5315,18.7468,7.66902,-4.18993,22.746,-3.49474,1.75632,5.40931,-1.7564,-2.77383,6.99354,-7.75126,-3.09284,3.47203,-7.39368,-9.8256,-3.57916,-7.63559,6.44088,-4.80457,11.6252,4.0056,-1.98359,4.52126,-1.35174e-14,-1.90833e-14,35.1574,-20.8871,-29.8722,64.0647,37.8198,-56.7868,24.8899,7.12502,-29.0879,-2.85869,-1.35174e-14,-1.90833e-14,-24.001,11.3546,57.6445,24.8877,-3.54072,-26.9769,27.0775,7.12502,-0.397734,57.0569,10.27,7.90848,16.3775,22.8076,-11.3073,-29.1066,-20.7205,-7.80051,-11.0798,-12.2457,26.1159,-12.3487,8.02649,-13.2747
1.52897,18.7547,7.67621,-4.20843,22.8304,-3.72093,1.72158,5.42821,-1.63102,-2.76333,7.02689,-7.73289,-3.04569,3.48711,-7.43939,-9.71091,-3.54383,-7.58113,6.1967,-4.74958,11.6298,3.9065,-1.96241,4.51817,-3.22031e-14,-2.22639e-14,34.7881,-19.393,-27.7792,64.5349,38.8437,-56.8625,25.4064,7.12502,-29.1602,-2.32965,-3.22031e-14,-2.22639e-14,-23.888,10.9588,57.7065,25.192,-3.34535,-27.0068,26.9549,7.12502,-0.426664,56.9342,10.4278,7.88554,16.6742,22.374,-11.3231,-29.3961,-20.8122,-7.83238,-11.1372,-11.989,26.0144,-12.3264,8.0112,-13.2201
1.52724,18.7618,7.68346,-4.2839,22.9195,-3.97626,1.72441,5.42516,-1.51724,-2.73592,7.02936,-7.65375,-3.01438,3.48681,-7.41604,-9.79255,-3.53571,-7.68506,6.23186,-4.72611,11.6635,3.93164,-1.94869,4.54712,6.0033e-14,4.77083e-14,34.5863,-17.917,-25.7574,65.0095,39.815,-57.2965,25.9059,7.12502,-29.5746,-1.75756,6.0033e-14,4.77083e-14,-23.7965,10.9064,57.7244,25.437,-3.27411,-26.8954,26.6987,7.12502,-0.319092,56.6782,10.6408,7.80091,16.9839,21.942,-11.3128,-29.6323,-20.2417,-7.81859,-11.1931,-11.7185,25.922,-12.2215,8.01415,-13.6021
1.52826,18.769,7.69104,-4.28939,23.0499,-4.05402,1.7624,5.43987,-1.49578,-2.70236,7.05014,-7.65579,-2.99553,3.49759,-7.43232,-9.95123,-3.58559,-7.74543,6.29323,-4.78044,11.6467,3.98292,-1.9719,4.54646,-1.37161e-14,7.95139e-14,34.3862,-16.5148,-23.7641,65.3659,40.8897,-58.155,25.7869,7.12502,-30.3937,-1.72837,-1.37161e-14,7.95139e-14,-23.6787,10.6666,57.8,25.7346,-3.16303,-26.7057,26.7321,7.12502,-0.135859,56.7119,10.8552,7.61492,17.0653,21.5393,-11.2236,-29.7424,-19.7148,-7.78568,-11.2935,-11.6412,25.8222,-12.2021,7.96618,-13.1542
1.52946,18.7765,7.6947,-4.2738,23.1912,-4.1818,1.87694,5.46135,-1.38777,-2.73014,7.0749,-7.67829,-3.07039,3.50595,-7.53318,-10.0672,-3.61599,-7.56208,6.30098,-4.82025,11.4214,3.99784,-1.9945,4.44072,-7.43455e-14,0,34.1328,-15.1462,-21.7979,65.4876,42.4245,-59.1884,25.7629,7.12502,-31.3788,-1.56569,-7.43455e-14,0,-23.6506,10.1763,57.898,26.0687,-2.95936,-26.6391,26.7282,7.12502,-0.0715565,56.708,10.9967,7.44509,17.1954,21.2005,-11.2,-29.8571,-19.3471,-7.81613,-11.3623,-11.4974,25.709,-12.173,7.89131,-12.6408
1.52866,18.7838,7.69806,-4.24069,23.2973,-4.31782,1.9401,5.47642,-1.38779,-2.78216,7.0881,-7.66024,-3.16106,3.51012,-7.52635,-9.95159,-3.55913,-7.09458,6.10578,-4.7539,10.9467,3.88915,-1.98061,4.21953,5.80451e-14,-9.54166e-14,34.1251,-13.8285,-20.0617,65.4341,43.965,-59.496,25.4856,7.12502,-31.6719,-1.78562,5.80451e-14,-9.54166e-14,-23.7261,9.6209,58.028,26.4366,-2.55385,-26.7226,26.911,7.12502,-0.152152,56.8907,11.0514,7.33783,17.3431,20.9513,-11.1607,-29.9716,-19.4267,-7.86116,-11.4089,-11.3323,25.5592,-12.0892,7.8295,-12.8599
1.52917,18.7905,7.70156,-4.1689,23.4085,-4.31955,1.91973,5.46618,-1.50258,-2.77815,7.07089,-7.67915,-3.15896,3.50417,-7.47955,-9.81613,-3.53829,-6.84142,5.90334,-4.73505,10.7776,3.7935,-1.98068,4.12719,7.15625e-14,-3.81667e-14,34.3717,-12.7361,-18.6407,65.4011,44.9501,-59.5161,26.952,7.12502,-31.6911,-0.315463,7.15625e-14,-3.81667e-14,-23.8471,8.99481,58.0921,26.9106,-1.98405,-26.8806,27.0802,7.12502,-0.304791,57.0598,11.0801,7.24791,17.3377,20.7798,-11.1229,-30.0753,-19.9252,-7.86682,-11.4819,-11.3201,25.3929,-12.0398,7.80067,-13.0878
1.53196,18.796,7.70375,-4.09911,23.5571,-4.23679,1.89777,5.44945,-1.6292,-2.73722,7.04715,-7.73805,-3.11459,3.49648,-7.46543,-9.94799,-3.53791,-7.07177,6.07536,-4.73909,11.0995,3.88192,-1.9654,4.26478,-5.36719e-14,5.725e-14,34.5687,-11.8344,-17.2603,65.535,45.6388,-59.8497,29.0207,7.12502,-32.0087,1.81654,-5.36719e-14,5.725e-14,-23.9865,8.27888,58.0971,27.4045,-1.32161,-26.9205,26.7906,7.12502,-0.343262,56.77,11.1492,7.10528,17.2308,20.649,-10.936,-30.1375,-20.3458,-7.83115,-11.6171,-11.4198,25.2278,-12.009,7.77104,-12.8427
1.53102,18.8035,7.70616,-4.03031,23.6929,-4.256,1.82958,5.45324,-1.67147,-2.70918,7.05656,-7.79397,-3.04398,3.50393,-7.49136,-10.0554,-3.55346,-7.07338,6.18788,-4.7723,11.1967,3.93966,-1.97158,4.29225,8.34896e-14,-2.22639e-14,34.6978,-11.136,-16.0727,65.6079,46.5359,-59.7799,31.2561,7.12502,-31.9423,4.0386,8.34896e-14,-2.22639e-14,-24.0157,7.70501,58.1189,27.7591,-0.877906,-26.8014,26.5367,7.12502,-0.228292,56.5163,11.1435,7.05721,17.2698,20.568,-10.7444,-30.2164,-20.6729,-7.84512,-11.7441,-11.3838,25.0537,-11.9749,7.74185,-12.4395
1.52959,18.8109,7.71068,-3.95956,23.7629,-4.39794,1.71168,5.47565,-1.58178,-2.70268,7.09786,-7.82782,-2.95089,3.52482,-7.56353,-10.0532,-3.55634,-6.96959,6.15527,-4.78572,11.176,3.92782,-1.97711,4.26749,3.46879e-14,1.59028e-14,34.9518,-10.6675,-15.2244,65.3826,47.6339,-59.2188,33.1559,7.12502,-31.4079,5.833,3.46879e-14,1.59028e-14,-23.9773,7.42785,58.123,27.9781,-0.780295,-26.5904,26.3924,7.12502,-0.024449,56.3722,11.0598,7.06995,17.4367,20.4904,-10.5425,-30.362,-21.2177,-7.91208,-11.8399,-11.2047,24.9049,-11.9663,7.76215,-12.1089
1.52979,18.815,7.71089,-3.87843,23.826,-4.45564,1.70005,5.46457,-1.53869,-2.66153,7.08826,-7.84887,-2.89463,3.52075,-7.6049,-10.3068,-3.56656,-7.01912,6.23915,-4.79159,11.2276,3.99851,-1.96931,4.2891,-8.18993e-14,3.49861e-14,35.4613,-10.4722,-14.7468,65.034,48.5674,-58.8087,34.1323,7.12502,-31.017,6.73401,-8.18993e-14,3.49861e-14,-23.9406,7.47601,58.1107,28.1129,-0.931103,-26.4987,26.3764,7.12502,0.0640761,56.3561,10.9887,7.0157,17.4705,20.3978,-10.2693,-30.4005,-21.4529,-7.9784,-11.9035,-11.1318,24.7796,-11.8742,7.82789,-12.3552
1.53062,18.8178,7.7095,-3.86849,23.9038,-4.58887,1.75854,5.46503,-1.41543,-2.61358,7.09352,-7.873,-2.85891,3.5222,-7.70246,-10.6271,-3.58068,-7.03396,6.38544,-4.81127,11.3001,4.10034,-1.96297,4.31008,-1.19967e-13,0,35.9405,-10.4611,-14.5687,64.6166,49.1733,-58.6928,34.0247,7.12502,-30.9065,6.60542,-1.19967e-13,0,-23.8286,7.50884,58.121,28.1368,-1.0796,-26.762,26.6063,7.12502,-0.190208,56.586,10.9661,6.97932,17.5842,20.2808,-10.3247,-30.4031,-20.7886,-8.02132,-11.9883,-10.9883,24.6824,-11.8453,7.80871,-11.9605
1.53051,18.8237,7.70943,-3.88587,23.9984,-4.62744,1.89884,5.46353,-1.43842,-2.59841,7.08319,-7.90276,-2.92244,3.51632,-7.73708,-10.6998,-3.56303,-6.92271,6.41546,-4.80062,11.2853,4.11759,-1.95261,4.28712,-4.37326e-15,-2.8625e-14,36.3952,-10.5176,-14.5984,64.1901,49.5812,-58.6838,32.3515,7.12502,-30.898,4.93068,-4.37326e-15,-2.8625e-14,-23.7886,7.51619,58.1503,28.1225,-1.19985,-27.0298,27.0098,7.12502,-0.448911,56.9891,11.0012,7.02218,17.6536,20.2048,-10.6023,-30.538,-20.173,-7.98997,-12.0917,-10.9501,24.5863,-11.8385,7.77423,-11.4324
1.53023,18.8293,7.71109,-3.91264,24.0831,-4.71532,2.03243,5.46674,-1.42794,-2.61475,7.07865,-7.93053,-3.01064,3.51174,-7.79027,-10.611,-3.56129,-6.74304,6.33461,-4.81583,11.226,4.07403,-1.96258,4.23814,-4.06515e-14,-6.36111e-14,36.7873,-10.7404,-14.9384,63.7851,49.7806,-58.5591,31.6442,7.12502,-30.7791,4.20081,-4.06515e-14,-6.36111e-14,-23.8616,7.20174,58.1898,28.2342,-1.09748,-27.1463,27.0237,7.12502,-0.561349,57.0027,11.0325,7.05172,17.7767,20.1481,-10.6799,-30.6379,-19.9857,-7.97187,-12.2094,-10.8642,24.5054,-11.8013,7.83494,-11.9379
1.52962,18.8337,7.71257,-3.90654,24.109,-4.85696,2.05211,5.48708,-1.40098,-2.60933,7.1061,-7.92773,-3.00982,3.52498,-7.80488,-10.603,-3.58812,-6.72993,6.25277,-4.85734,11.3349,4.05486,-1.9785,4.26695,-3.53837e-14,4.45278e-14,37.2331,-11.1961,-15.5407,63.3087,49.5984,-58.4577,32.1755,7.12502,-30.6824,4.71396,-3.53837e-14,4.45278e-14,-23.9991,6.72075,58.2537,28.469,-0.733362,-27.1065,26.4791,7.12502,-0.522917,56.4582,10.9679,7.12307,17.939,20.1145,-10.6329,-30.7369,-20.1957,-8.00476,-12.1976,-10.7008,24.4201,-11.7969,7.83074,-12.2722
1.52936,18.837,7.71239,-3.88783,24.0748,-4.95084,2.0477,5.53292,-1.43863,-2.59851,7.16675,-7.90783,-2.99578,3.55655,-7.76252,-10.5526,-3.60568,-6.79717,6.14631,-4.87922,11.4955,4.02284,-1.98601,4.32726,-9.83984e-14,-1.90833e-14,37.8236,-11.7945,-16.4218,62.7603,49.1899,-58.2826,31.19,7.12502,-30.5154,3.69733,-9.83984e-14,-1.90833e-14,-24.0934,6.46108,58.3302,28.577,-0.575322,-27.0366,26.4122,7.12502,-0.455479,56.3915,10.867,7.11737,18.0012,20.1126,-10.4741,-30.7013,-20.2189,-8.01234,-12.1155,-10.5895,24.3162,-11.7567,7.81017,-12.5701
1.52908,18.8413,7.71006,-3.88194,24.0515,-5.03544,2.08427,5.5731,-1.45254,-2.56996,7.21955,-7.90648,-2.9821,3.58387,-7.75662,-10.596,-3.6115,-6.99264,6.11569,-4.88302,11.8122,4.03535,-1.97526,4.4588,-3.74709e-14,-5.08889e-14,38.5644,-12.609,-17.6456,62.1658,48.5878,-57.4301,30.1581,7.12502,-29.7021,2.51732,-3.74709e-14,-5.08889e-14,-24.1097,6.19769,58.4222,28.6174,-0.472211,-27.1094,27.0866,7.12502,-0.525761,57.0657,10.7431,7.05226,18.0479,20.1817,-10.0551,-30.6625,-20.4551,-7.97966,-12.1308,-10.4902,24.1551,-11.7185,7.8203,-12.3672
1.52986,18.8491,7.70562,-3.79837,24.035,-5.04041,2.11048,5.61678,-1.45707,-2.54796,7.2776,-7.9606,-2.96053,3.6139,-7.81489,-10.7417,-3.67013,-7.24773,6.20193,-4.9576,12.1506,4.10939,-1.99409,4.60133,4.47762e-14,1.27222e-14,39.3085,-13.5663,-19.1087,61.4916,47.7983,-56.7554,29.8875,7.12502,-29.0579,2.1337,4.47762e-14,1.27222e-14,-24.0464,5.87737,58.5906,28.5789,0.219293,-27.6013,27.4098,7.12502,-1.00089,57.3872,10.5451,7.0533,18.026,20.2953,-9.64955,-30.6881,-21.0996,-7.97725,-12.1658,-10.4798,23.9495,-11.5797,7.92859,-12.4657
1.5332,18.8562,7.70061,-3.58327,24.0567,-4.74642,2.10528,5.65358,-1.72758,-2.54374,7.31555,-8.092,-2.96562,3.63867,-7.80555,-10.6459,-3.74545,-7.15373,6.13982,-5.06456,12.0599,4.08032,-2.05359,4.54937,-9.81002e-14,-5.40694e-14,40.0573,-14.5173,-20.6728,60.8569,46.8473,-56.8946,28.7895,7.12502,-29.1908,1.05874,-9.81002e-14,-5.40694e-14,-23.9716,5.822,58.685,28.3586,0.713544,-28.0414,27.4891,7.12502,-1.42587,57.4641,10.3549,7.05008,17.6869,20.4254,-9.71608,-30.546,-20.7459,-7.95661,-12.2638,-10.7896,23.7022,-11.434,8.0618,-12.5889
1.53522,18.8604,7.6979,-3.41483,24.0306,-4.4935,2.1121,5.70851,-1.98858,-2.54047,7.37725,-8.22007,-2.97514,3.67499,-7.8004,-10.5375,-3.80355,-7.03525,6.07198,-5.15577,12.0177,4.04666,-2.10259,4.51015,-1.36615e-13,-3.18055e-15,40.79,-15.4632,-22.2451,60.2702,45.7648,-57.1052,26.4519,7.12502,-29.3919,-1.2438,-1.36615e-13,-3.18055e-15,-23.8716,6.204,58.5067,27.9552,-0.139085,-27.3978,27.0745,7.12502,-0.804264,57.0527,10.1757,7.02962,17.3832,20.5729,-9.88341,-30.4184,-20.3095,-7.86605,-12.379,-11.0576,23.427,-11.2968,8.23782,-12.6364
1.53784,18.8623,7.69945,-3.38219,23.9454,-4.40871,2.15377,5.7721,-2.1006,-2.50051,7.4574,-8.26874,-2.95541,3.71825,-7.7944,-10.6216,-3.8249,-7.25044,6.08443,-5.17426,12.2716,4.07975,-2.10074,4.62392,-1.59525e-14,-3.18055e-15,41.6724,-16.4411,-24.0383,59.6791,44.4491,-57.0004,24.7649,7.12502,-29.2919,-2.94828,-1.59525e-14,-3.18055e-15,-23.8797,6.18548,58.4888,27.704,-0.182187,-27.2977,26.4353,7.12502,-0.707583,56.4139,10.0691,6.98057,17.2478,20.7097,-9.79934,-30.3644,-20.2739,-7.68933,-12.5158,-11.171,23.183,-11.2584,8.48134,-12.6831
1.54008,18.8647,7.70178,-3.3543,23.8835,-4.28304,2.26145,5.83239,-2.23122,-2.46682,7.52713,-8.31769,-2.98315,3.75565,-7.78741,-10.6635,-3.87075,-7.42656,6.03907,-5.21646,12.3947,4.08574,-2.1191,4.68842,3.85145e-14,-3.49861e-14,42.7082,-17.4714,-26.1003,59.1462,42.9085,-55.9268,24.7437,7.12502,-28.2663,-3.14382,3.85145e-14,-3.49861e-14,-23.8703,7.23848,58.0269,27.0706,-2.75164,-25.2237,23.715,7.12502,1.29548,53.6908,10.0192,6.95888,17.0911,20.8131,-9.74443,-30.3186,-20.3757,-7.52149,-12.6089,-11.3249,22.9974,-11.2527,8.64089,-12.0757
1.54222,18.8694,7.70282,-3.32786,23.7856,-4.34049,2.31389,5.88533,-2.22291,-2.48144,7.5933,-8.29396,-3.02248,3.78763,-7.77654,-10.5217,-3.92956,-7.46908,5.93917,-5.27868,12.2805,4.03563,-2.16386,4.65573,4.27636e-14,-3.18055e-15,43.9075,-18.4339,-28.2147,58.5215,41.6103,-54.4528,24.4295,7.12502,-26.8566,-3.68301,4.27636e-14,-3.18055e-15,-23.9914,7.74882,57.8732,26.7276,-3.8324,-24.8495,23.3063,7.12502,1.65695,53.2797,9.89394,6.96533,17.118,20.8746,-9.78414,-30.2975,-20.7272,-7.4569,-12.6066,-11.2631,22.8419,-11.2116,8.70372,-11.4741
1.54442,18.8745,7.70143,-3.26159,23.6507,-4.39992,2.28259,5.91045,-2.2274,-2.48548,7.62831,-8.24784,-3.01188,3.80521,-7.72183,-10.5548,-3.9344,-7.63214,6.03795,-5.27272,12.312,4.07532,-2.16062,4.69321,6.60462e-14,0,45.3466,-19.3156,-30.5275,57.7641,40.6058,-53.8448,23.9985,7.12502,-26.2747,-4.20211,6.60462e-14,0,-24.1626,7.59212,58.0419,26.666,-3.03624,-25.1691,24.56,7.12502,1.34826,54.5354,9.7192,6.98693,17.1294,20.9119,-9.80414,-30.2385,-20.6699,-7.44777,-12.5879,-11.192,22.6927,-11.1778,8.81126,-11.6491
1.54761,18.8793,7.69974,-3.13481,23.4993,-4.36662,2.19685,5.93493,-2.27001,-2.49871,7.66389,-8.25484,-2.97807,3.82435,-7.69675,-10.6466,-3.9079,-7.7438,6.19416,-5.23366,12.3493,4.1376,-2.13637,4.72623,-3.98315e-14,-3.18055e-15,46.782,-20.1052,-32.9702,57.1107,39.62,-53.4794,23.4542,7.12502,-25.9249,-4.79803,-3.98315e-14,-3.18055e-15,-24.3437,6.83817,58.4597,26.7101,-0.489634,-26.9627,26.8777,7.12502,-0.384074,56.8571,9.5158,6.93912,17.0143,20.9424,-9.62948,-30.1618,-20.6047,-7.43838,-12.5857,-11.2192,22.5425,-11.1924,8.9722,-11.9276
1.55198,18.8831,7.69911,-3.05868,23.3062,-4.35379,2.10202,6.01694,-2.22328,-2.48761,7.78314,-8.29703,-2.88752,3.88518,-7.75723,-10.471,-3.91112,-7.59231,6.04386,-5.23004,12.0681,4.04972,-2.15435,4.61366,-2.65874e-14,6.67916e-14,48.0956,-20.9473,-35.4427,56.5608,38.9691,-52.9067,23.1347,7.12502,-25.3764,-5.19661,-2.65874e-14,6.67916e-14,-24.3692,7.34096,58.335,26.2115,-0.798218,-26.6012,26.3208,7.12502,-0.0349356,56.3005,9.35298,6.88685,16.9233,21.0101,-9.49282,-30.0689,-20.2517,-7.31249,-12.5622,-11.2329,22.3152,-11.2138,9.11463,-11.3889
1.55846,18.8865,7.69801,-2.96759,23.0943,-4.25216,2.01828,6.09784,-2.25469,-2.45895,7.89812,-8.33378,-2.7964,3.94555,-7.76815,-10.2777,-3.90335,-7.48087,5.85488,-5.20045,11.7484,3.94454,-2.16347,4.49831,5.33488e-14,3.81667e-14,49.4804,-21.6657,-37.8413,55.9087,38.2783,-53.1667,22.6933,7.12502,-25.6254,-5.6024,5.33488e-14,3.81667e-14,-24.4825,7.6267,58.2668,25.8174,-1.05786,-26.5639,26.0961,7.12502,0.00114056,56.0758,9.20808,6.77174,16.7047,21.0908,-9.3405,-29.8386,-20.2212,-7.12837,-12.5233,-11.3624,22.0258,-11.15,9.27624,-11.0105
1.5653,18.8931,7.69706,-2.77976,22.9212,-3.91794,1.98815,6.1454,-2.51005,-2.45813,7.95304,-8.42171,-2.79485,3.97807,-7.71908,-10.4466,-3.90196,-7.47161,6.12816,-5.197,11.552,4.04803,-2.16173,4.43363,-3.65267e-14,1.90833e-14,50.8058,-22.1168,-40.1373,55.3373,37.3211,-54.2954,21.48,7.12502,-26.7061,-6.65555,-3.65267e-14,1.90833e-14,-24.6767,7.72565,58.1745,25.4696,-1.07587,-26.2638,25.9748,7.12502,0.290966,55.9544,9.06685,6.63603,16.2278,21.1445,-9.33151,-29.6132,-20.1265,-6.96211,-12.5814,-11.7449,21.7185,-11.0255,9.58829,-11.4452
1.56861,18.9003,7.6995,-2.69431,22.7365,-3.75219,1.98745,6.17115,-2.61055,-2.4571,7.98304,-8.49751,-2.79309,3.9951,-7.74563,-10.627,-3.83695,-7.45128,6.39569,-5.12129,11.5156,4.14968,-2.11558,4.42322,8.5875e-14,-1.90833e-14,52.0982,-22.5041,-42.4448,54.9252,36.7053,-54.6415,21.5852,7.12502,-27.0372,-6.49942,8.5875e-14,-1.90833e-14,-24.8303,7.99156,57.9763,24.9961,-1.19857,-26.3246,26.2007,7.12502,0.232223,56.1803,8.99909,6.56157,15.9795,21.1507,-9.49371,-29.4645,-19.7274,-6.78371,-12.6043,-11.9338,21.4334,-10.9414,9.82158,-11.779
1.57171,18.9064,7.70448,-2.67822,22.5191,-3.83234,1.90873,6.19205,-2.50467,-2.45578,8.02103,-8.49848,-2.72844,4.01324,-7.7948,-10.2959,-3.6528,-7.59517,6.04212,-4.86237,11.7806,3.97382,-1.99439,4.55342,-6.63754e-15,0,53.3778,-22.8021,-44.678,54.6672,36.3844,-54.5443,22.3334,7.12502,-26.9442,-5.76559,-6.63754e-15,0,-24.9525,8.71972,57.6697,24.4231,-2.05529,-26.5805,26.7844,7.12502,-0.0148765,56.7641,8.93592,6.54364,16.0085,21.1151,-9.7262,-29.3636,-19.619,-6.61525,-12.6485,-11.8549,21.1613,-10.9078,10.0676,-11.7316
1.57716,18.9117,7.7084,-2.63563,22.3421,-3.91857,1.80793,6.22208,-2.35764,-2.46489,8.0738,-8.50796,-2.65351,4.03839,-7.87391,-10.3433,-3.66549,-7.63095,6.19392,-4.88591,11.7862,4.03073,-2.0026,4.5593,-5.19224e-14,-5.725e-14,54.4689,-22.9791,-46.6307,54.4364,35.8948,-54.567,21.7988,7.12502,-26.9659,-6.29685,-5.19224e-14,-5.725e-14,-25.0763,9.61801,57.277,23.8192,-3.28695,-26.7961,27.0739,7.12502,-0.223115,57.0535,8.88181,6.47141,16.0212,21.008,-9.72027,-29.2759,-19.7806,-6.51495,-12.6675,-11.7696,20.9468,-10.912,10.2177,-11.5178
1.57888,18.9174,7.71203,-2.60931,22.128,-3.96725,1.75798,6.24695,-2.28457,-2.48425,8.11164,-8.50634,-2.63134,4.05615,-7.90801,-10.401,-3.63369,-7.52639,6.39696,-4.85466,11.5983,4.09033,-1.98918,4.48494,4.30695e-14,1.90833e-14,55.4409,-22.9657,-48.2917,54.1792,35.4313,-54.5391,19.7547,7.12502,-26.9392,-8.34509,4.30695e-14,1.90833e-14,-25.3307,10.1595,56.9359,23.3296,-3.84043,-26.7416,26.4966,7.12502,-0.170501,56.4763,8.85575,6.45047,16.0263,20.8728,-9.3937,-29.2223,-20.3737,-6.37739,-12.6902,-11.7253,20.7456,-10.9626,10.4591,-11.6101
1.57958,18.923,7.71547,-2.59222,21.8723,-4.05413,1.68835,6.28703,-2.21454,-2.49511,8.17156,-8.46773,-2.59233,4.08526,-7.89758,-10.4916,-3.59251,-7.53952,6.58482,-4.8002,11.5155,4.15452,-1.96126,4.46485,1.05053e-14,6.67916e-14,56.2361,-22.8329,-49.4782,53.9201,35.0102,-54.6305,17.9065,7.12502,-27.0267,-10.1798,1.05053e-14,6.67916e-14,-25.6737,10.2987,56.7713,23.0544,-3.88274,-26.4738,26.1631,7.12502,0.0881007,56.1429,8.82293,6.55113,16.1175,20.7579,-9.33646,-29.1866,-20.4423,-6.22909,-12.7083,-11.6306,20.5109,-10.9513,10.7159,-11.46
1.58246,18.9269,7.72039,-2.48164,21.6595,-3.92675,1.58498,6.33751,-2.31721,-2.47445,8.24398,-8.48943,-2.51554,4.12497,-7.84935,-10.54,-3.56389,-7.54635,6.67107,-4.75835,11.4458,4.18261,-1.94177,4.44699,-4.18069e-14,5.40694e-14,56.8638,-22.6669,-50.239,53.7252,34.5888,-54.5333,16.8191,7.12502,-26.9337,-11.2815,-4.18069e-14,5.40694e-14,-25.9472,10.4113,56.6778,22.7879,-3.91669,-26.4027,26.2899,7.12502,0.156808,56.2696,8.78817,6.60807,15.9695,20.6831,-9.3101,-29.1093,-20.5991,-6.04463,-12.7717,-11.7739,20.2079,-10.9289,10.9884,-10.9962
1.58761,18.9293,7.72408,-2.35646,21.5144,-3.70919,1.52134,6.38921,-2.46387,-2.45936,8.31371,-8.54849,-2.46815,4.16366,-7.82294,-10.4853,-3.55779,-7.40981,6.66655,-4.7528,11.2398,4.16252,-1.94825,4.36012,-2.45188e-14,7.31528e-14,57.2743,-22.4346,-50.7249,53.6563,34.2356,-54.0753,16.8104,7.12502,-26.4954,-11.3571,-2.45188e-14,7.31528e-14,-26.0829,11.0871,56.4561,22.2255,-4.53162,-26.5786,26.1754,7.12502,-0.0131199,56.1551,8.77371,6.5787,15.6955,20.6148,-9.21459,-29.0626,-20.6884,-5.82293,-12.8874,-12.0311,19.8646,-10.9118,11.2737,-10.6369
1.59289,18.9317,7.72836,-2.23131,21.355,-3.54552,1.41265,6.43085,-2.56355,-2.45695,8.3743,-8.6121,-2.40251,4.19713,-7.82189,-10.4247,-3.53082,-7.28472,6.66828,-4.73537,11.2192,4.14786,-1.93907,4.33475,3.75952e-14,-6.04305e-14,57.5045,-22.0978,-51.0275,53.6904,34.0302,-53.9004,17.9746,7.12502,-26.328,-10.218,3.75952e-14,-6.04305e-14,-26.1454,12.3776,56.0018,21.4386,-5.76142,-26.6418,26.0775,7.12502,-0.0741423,56.0572,8.73356,6.57586,15.4694,20.5221,-9.20253,-29.0532,-20.5803,-5.62734,-13.1121,-12.2346,19.5414,-10.9072,11.6665,-10.4112
1.59514,18.9346,7.73404,-2.17024,21.176,-3.42492,1.33487,6.46591,-2.66087,-2.44486,8.42462,-8.65842,-2.34762,4.22504,-7.80681,-10.3301,-3.4873,-7.19429,6.61912,-4.69386,11.2625,4.11251,-1.91744,4.3373,-3.41537e-14,7.95139e-14,57.7163,-21.6656,-51.2863,53.7073,34.0088,-53.9678,18.654,7.12502,-26.3925,-9.52901,-3.41537e-14,7.95139e-14,-26.218,13.464,55.5311,20.6626,-6.81776,-26.8254,26.1282,7.12502,-0.251419,56.1078,8.78163,6.66572,15.3345,20.3664,-9.30696,-29.0477,-20.6584,-5.42049,-13.2678,-12.3852,19.2857,-10.8907,11.97,-10.216
1.59816,18.9355,7.73805,-2.14531,21.0267,-3.47188,1.22451,6.46084,-2.6328,-2.43637,8.42739,-8.61621,-2.27879,4.22679,-7.76075,-10.2929,-3.43894,-7.26367,6.62726,-4.62544,11.3091,4.105,-1.88422,4.36911,6.75247e-14,9.54166e-15,57.8203,-21.0737,-51.0705,53.7808,34.0662,-54.1174,17.9351,7.12502,-26.5357,-10.2263,6.75247e-14,9.54166e-15,-26.4453,13.9568,55.2841,20.1698,-7.17372,-26.9926,26.4929,7.12502,-0.412956,56.4722,8.857,6.71475,15.3671,20.1152,-9.3894,-29.063,-20.7338,-5.29735,-13.4432,-12.3518,19.1218,-11.0173,12.2285,-9.62716
1.60019,18.9369,7.74218,-2.17541,20.916,-3.64096,1.1628,6.44769,-2.4734,-2.45498,8.4177,-8.56925,-2.24869,4.21945,-7.79076,-10.3056,-3.40233,-7.28874,6.77529,-4.58604,11.332,4.14915,-1.86144,4.38389,2.3966e-14,6.36111e-14,57.6457,-20.4052,-50.3713,53.9482,34.1962,-54.0417,17.3455,7.12502,-26.4632,-10.8269,2.3966e-14,6.36111e-14,-26.7449,14.2495,55.0363,19.7864,-7.3613,-26.8994,26.7261,7.12502,-0.32295,56.7056,8.97612,6.77782,15.5517,19.8155,-9.54647,-29.1475,-20.3973,-5.20667,-13.5184,-12.185,19.0041,-11.0733,12.4058,-9.49081
1.60312,18.9394,7.75069,-2.19008,20.7004,-3.85099,1.06834,6.49888,-2.24005,-2.51134,8.49581,-8.54233,-2.21566,4.25493,-7.88238,-10.3386,-3.38896,-7.1131,7.0199,-4.6034,11.2491,4.2241,-1.86425,4.32775,4.85159e-15,3.18055e-14,57.2107,-19.7247,-49.2927,54.1403,34.3858,-54.2085,18.0855,7.12502,-26.6228,-10.0627,4.85159e-15,3.18055e-14,-27.0702,14.412,54.7867,19.47,-7.4937,-26.8803,26.835,7.12502,-0.304523,56.8145,9.07707,6.98031,15.8059,19.4954,-9.68664,-29.266,-19.9194,-5.13997,-13.5942,-11.9707,18.9222,-11.1151,12.6754,-9.36488
1.60511,18.9421,7.76128,-2.14721,20.4681,-3.85585,0.967135,6.56194,-2.23904,-2.5385,8.58493,-8.54015,-2.17697,4.29994,-7.8694,-10.3518,-3.37909,-6.90423,7.15314,-4.61539,11.0985,4.25904,-1.86958,4.24491,-8.8571e-14,-1.27222e-14,56.6263,-18.9588,-47.7126,54.4055,34.3843,-54.3102,18.8517,7.12502,-26.7202,-9.28171,-8.8571e-14,-1.27222e-14,-27.3683,14.8037,54.4934,19.1558,-7.81156,-26.894,26.9764,7.12502,-0.317732,56.9559,9.17055,7.21624,15.8544,19.2084,-9.88637,-29.4176,-19.7274,-5.03312,-13.648,-11.9766,18.8243,-11.1733,12.9332,-9.37656
1.60839,18.9439,7.76622,-2.05476,20.3471,-3.73411,0.929422,6.61744,-2.30088,-2.56101,8.65855,-8.60447,-2.16991,4.33814,-7.90145,-10.3129,-3.42115,-6.79129,7.21305,-4.69176,11.0604,4.27426,-1.90601,4.20883,-1.11841e-13,3.18055e-15,55.8434,-18.176,-45.7441,54.7674,34.3718,-53.9581,18.151,7.12502,-26.3832,-10.0334,-1.11841e-13,3.18055e-15,-27.4985,16.1605,53.8926,18.5603,-9.23075,-26.8066,27.0747,7.12502,-0.23326,57.0543,9.21721,7.27892,15.7153,18.9625,-10.1749,-29.5435,-19.3258,-4.95118,-13.6689,-12.1196,18.7036,-11.1714,13.0942,-9.14901
1.61374,18.9426,7.77028,-2.01556,20.2285,-3.56459,0.983868,6.66613,-2.33444,-2.57303,8.71841,-8.70405,-2.19545,4.36878,-7.99883,-10.2989,-3.47872,-6.76041,7.35501,-4.794,11.1313,4.32571,-1.94923,4.2188,1.1865e-14,-3.49861e-14,55.0439,-17.3189,-43.7524,55.2102,34.5885,-53.7804,17.9868,7.12502,-26.2131,-10.223,1.1865e-14,-3.49861e-14,-27.5875,18.234,52.9908,17.764,-11.2317,-26.7777,26.7077,7.12502,-0.205369,56.6873,9.31297,7.28191,15.5082,18.7841,-10.1289,-29.5358,-19.4817,-4.77888,-13.6825,-12.3384,18.5522,-11.2093,13.2415,-8.76854
1.6195,18.9414,7.77883,-2.01683,20.0807,-3.47315,0.97719,6.70622,-2.3269,-2.57711,8.77282,-8.76559,-2.17871,4.39661,-8.06847,-10.3841,-3.52855,-6.76847,7.58691,-4.88416,11.2102,4.42114,-1.98239,4.23806,1.16556e-13,-9.85972e-14,54.3198,-16.3654,-41.8324,55.7285,34.956,-53.7621,18.5488,7.12502,-26.1956,-9.66354,1.16556e-13,-9.85972e-14,-27.7743,19.5938,52.2424,17.1335,-12.5292,-26.4687,26.0574,7.12502,0.0930276,56.0372,9.44841,7.3108,15.3992,18.6106,-9.92851,-29.5388,-19.7207,-4.59158,-13.7348,-12.4846,18.4467,-11.2946,13.4226,-8.6827
1.62234,18.9436,7.78459,-1.95172,19.9843,-3.43956,0.908589,6.73031,-2.31461,-2.60488,8.80846,-8.80344,-2.15714,4.41467,-8.10862,-10.3601,-3.53958,-6.7101,7.63594,-4.91284,11.2101,4.43332,-1.99445,4.22648,-4.71182e-14,1.90833e-14,53.5522,-15.3651,-39.7288,56.3019,35.3402,-53.5257,19.4025,7.12502,-25.9692,-8.84322,-4.71182e-14,1.90833e-14,-28.0017,20.3841,51.721,16.6828,-13.3622,-26.23,25.6834,7.12502,0.323647,55.6629,9.47275,7.38362,15.3747,18.4308,-9.73845,-29.7051,-19.9735,-4.54801,-13.8302,-12.5314,18.3743,-11.3761,13.5585,-8.59773
1.62193,18.9463,7.78685,-1.93232,19.8844,-3.57752,0.891815,6.73786,-2.18039,-2.67049,8.81819,-8.77087,-2.19995,4.4158,-8.15108,-10.3125,-3.52214,-6.7397,7.70918,-4.90087,11.2846,4.44923,-1.98524,4.2567,2.97012e-14,6.36111e-15,52.8091,-14.2656,-37.6112,56.9287,35.9475,-53.4208,20.7693,7.12502,-25.8688,-7.49117,2.97012e-14,6.36111e-15,-28.345,20.6222,51.4401,16.4976,-13.6925,-26.2717,25.8373,7.12502,0.283318,55.8169,9.4799,7.51979,15.5453,18.2221,-9.83712,-29.8272,-19.794,-4.57097,-13.8094,-12.3695,18.3356,-11.3988,13.6305,-8.94634
1.62461,18.9464,7.79167,-1.91324,19.7754,-3.57717,0.866462,6.76423,-2.14411,-2.6938,8.85454,-8.78351,-2.19812,4.43334,-8.18311,-10.458,-3.52623,-6.85925,7.98661,-4.92858,11.5006,4.56958,-1.98009,4.34272,-2.7489e-14,-2.22639e-14,52.0878,-13.1763,-35.529,57.6215,36.7429,-53.4582,21.6819,7.12502,-25.9046,-6.57337,-2.7489e-14,-2.22639e-14,-28.6318,20.512,51.3375,16.501,-13.488,-26.3166,26.1076,7.12502,0.239963,56.0872,9.56822,7.62515,15.5597,18.0138,-9.96977,-29.8999,-19.7555,-4.5078,-13.8494,-12.3895,18.3016,-11.4376,13.8281,-9.12652
1.62788,18.9454,7.79796,-1.91504,19.6713,-3.56904,0.820099,6.78273,-2.12092,-2.66257,8.88572,-8.77327,-2.13375,4.45011,-8.17495,-10.6725,-3.55393,-6.89432,8.23293,-4.97547,11.5283,4.68678,-1.991,4.35279,-2.62209e-14,5.40694e-14,51.4143,-12.0451,-33.3333,58.436,37.4825,-53.5151,21.679,7.12502,-25.9591,-6.56823,-2.62209e-14,5.40694e-14,-28.8346,20.4518,51.2946,16.4532,-13.1039,-26.6045,26.6105,7.12502,-0.0380739,56.5902,9.69419,7.73709,15.5824,17.8016,-9.85506,-30.0085,-19.7929,-4.42362,-13.8812,-12.426,18.2699,-11.4554,14.0092,-8.90375
1.62992,18.9464,7.80385,-1.8805,19.5695,-3.57037,0.745046,6.80191,-2.10062,-2.64492,8.91867,-8.77097,-2.06643,4.46777,-8.17084,-10.8369,-3.59197,-6.76251,8.3951,-5.03558,11.3631,4.76171,-2.01771,4.27254,-2.77305e-14,-9.54166e-15,50.7963,-10.9025,-31.1208,59.1486,38.2196,-53.6293,21.6649,7.12502,-26.0684,-6.56627,-2.77305e-14,-9.54166e-15,-28.9868,21.0861,50.9394,16.15,-13.5885,-26.8446,26.7689,7.12502,-0.26996,56.7484,9.77024,7.87955,15.6332,17.6129,-9.82006,-30.1581,-19.6789,-4.37101,-13.8605,-12.423,18.1965,-11.5285,14.0642,-8.37931
1.63606,18.9469,7.80923,-1.77808,19.501,-3.4954,0.614857,6.84368,-2.09331,-2.64381,8.98478,-8.80579,-1.9774,4.50295,-8.19277,-10.8935,-3.6427,-6.7033,8.51289,-5.11259,11.2841,4.81069,-2.0542,4.23114,-1.98313e-13,8.26944e-14,50.1409,-9.75108,-28.8406,59.8267,38.8784,-53.8133,22.3347,7.12502,-26.2446,-5.87037,-1.98313e-13,8.26944e-14,-29.1528,22.3576,50.3234,15.7273,-14.9431,-26.7202,26.4814,7.12502,-0.149868,56.4611,9.81968,7.99416,15.5684,17.4165,-9.92872,-30.274,-19.7544,-4.34889,-13.8994,-12.5174,18.118,-11.5758,14.1891,-8.69053
1.64387,18.9457,7.81469,-1.65034,19.4722,-3.30076,0.508215,6.8715,-2.16394,-2.6432,9.02894,-8.88423,-1.90974,4.52811,-8.22231,-11.0267,-3.66831,-6.70581,8.76996,-5.1663,11.3122,4.91771,-2.06951,4.236,2.42269e-15,-9.22361e-14,49.5172,-8.57626,-26.5691,60.5751,39.4553,-53.709,23.2338,7.12502,-26.1448,-4.98613,2.42269e-15,-9.22361e-14,-29.3737,22.8792,49.9806,15.5953,-15.4565,-26.5003,26.311,7.12502,0.0625039,56.2907,9.90056,8.01886,15.3546,17.2341,-10.0797,-30.306,-19.6779,-4.30588,-13.9786,-12.7549,18.0182,-11.5589,14.3315,-8.92033
1.64958,18.9458,7.8221,-1.59157,19.4314,-3.22152,0.456664,6.89261,-2.16298,-2.64636,9.06118,-8.90581,-1.87649,4.54515,-8.23849,-11.1414,-3.67748,-6.77723,8.94109,-5.17867,11.326,4.99279,-2.07028,4.25104,1.51449e-14,-1.27222e-14,48.941,-7.34532,-24.233,61.438,39.8216,-53.4796,23.949,7.12502,-25.9251,-4.30328,1.51449e-14,-1.27222e-14,-29.6351,22.6038,50.0028,15.7494,-15.0007,-26.5273,26.4117,7.12502,0.0364713,56.3914,10.0027,8.13386,15.3054,17.0418,-10.0782,-30.4156,-19.7911,-4.25195,-13.9457,-12.8475,17.9259,-11.548,14.3583,-8.76591
1.65374,18.9467,7.83162,-1.55603,19.416,-3.13488,0.418812,6.89317,-2.1855,-2.64336,9.06496,-8.95073,-1.84786,4.54829,-8.26846,-11.224,-3.69618,-6.81892,8.99306,-5.19986,11.3388,5.02613,-2.07778,4.25975,-9.06458e-14,-3.49861e-14,48.4332,-6.09552,-22.0027,62.1989,40.3648,-53.3513,24.6361,7.12502,-25.8022,-3.63401,-9.06458e-14,-3.49861e-14,-29.8562,22.5243,49.8983,15.8386,-14.7631,-26.6341,26.8092,7.12502,-0.0667028,56.789,10.1237,8.18275,15.2319,16.8489,-9.92645,-30.452,-19.7324,-4.19243,-13.8585,-12.9458,17.8593,-11.5436,14.3085,-8.75904
1.65846,18.9444,7.84167,-1.54891,19.4131,-3.08295,0.349039,6.86838,-2.20355,-2.64274,9.03674,-8.97551,-1.81043,4.53516,-8.2751,-11.2772,-3.66702,-6.85829,9.06093,-5.17077,11.455,5.05767,-2.05442,4.30592,1.51716e-13,-3.49861e-14,48.0396,-4.83518,-19.9834,62.8404,41.1601,-53.4321,24.8116,7.12502,-25.8796,-3.44728,1.51716e-13,-3.49861e-14,-30.1393,23.1773,49.4015,15.696,-15.2138,-26.5476,26.6703,7.12502,0.0168812,56.65,10.2793,8.14481,15.179,16.6641,-9.7499,-30.5074,-19.6819,-4.11777,-13.7464,-13.0059,17.8092,-11.5997,14.2003,-8.45294
1.66292,18.943,7.85096,-1.53087,19.41,-3.04067,0.283208,6.84448,-2.22435,-2.66326,9.00747,-8.98752,-1.79993,4.52071,-8.26926,-11.3433,-3.6171,-6.84032,9.19303,-5.1201,11.5085,5.10569,-2.02064,4.32474,-1.78678e-13,3.49861e-14,47.669,-3.59598,-18.145,63.7047,41.5488,-53.3838,24.3587,7.12502,-25.8333,-3.90693,-1.78678e-13,3.49861e-14,-30.4499,23.3041,49.127,15.7163,-15.1058,-26.316,25.9773,7.12502,0.240582,55.957,10.3954,8.13296,15.1452,16.5145,-9.71826,-30.5999,-19.5058,-4.04883,-13.6372,-13.0629,17.7584,-11.5428,14.1305,-8.91113
1.6645,18.9415,7.85873,-1.51307,19.3548,-2.96312,0.276371,6.86241,-2.28534,-2.69394,9.02805,-9.01081,-1.83124,4.53112,-8.26276,-11.3898,-3.60669,-6.86575,9.33609,-5.12331,11.6024,5.16124,-2.01252,4.3594,1.69408e-13,-6.04305e-14,47.2935,-2.42617,-16.3967,64.5942,41.6025,-53.5395,24.6906,7.12502,-25.9825,-3.55319,1.69408e-13,-6.04305e-14,-30.7095,22.7396,49.2088,15.9567,-14.3519,-26.0823,25.6808,7.12502,0.466303,55.66,10.4866,8.27325,15.1141,16.3999,-9.8678,-30.7603,-19.7332,-3.97184,-13.5641,-13.1508,17.7097,-11.503,14.1444,-9.30441
1.66667,18.9405,7.86474,-1.48691,19.2826,-2.88588,0.269073,6.88553,-2.33221,-2.72136,9.05624,-9.03428,-1.85576,4.54535,-8.26373,-11.3707,-3.58052,-6.79297,9.40077,-5.1007,11.5605,5.17265,-2.00065,4.33643,-4.79879e-14,6.04305e-14,46.9643,-1.30706,-14.6631,65.4051,41.7224,-53.678,25.1723,7.12502,-26.1151,-3.05204,-4.79879e-14,6.04305e-14,-30.9871,22.3481,49.2538,16.2116,-13.5968,-26.2582,26.053,7.12502,0.296356,56.0325,10.5547,8.41898,15.0713,16.3009,-10.0985,-30.9325,-20.259,-3.92862,-13.4805,-13.2317,17.6811,-11.535,14.1171,-9.30178
1.66942,18.9411,7.87119,-1.45167,19.2174,-2.8492,0.245611,6.8949,-2.34641,-2.74879,9.06788,-9.045,-1.87029,4.55088,-8.26664,-11.4012,-3.57732,-6.69079,9.46504,-5.10221,11.4373,5.19156,-2.00335,4.27985,-9.46463e-14,-3.81667e-14,46.6984,-0.271796,-13.1291,66.1193,42.0418,-53.3855,26.7417,7.12502,-25.835,-1.52372,-9.46463e-14,-3.81667e-14,-31.2357,22.9316,48.8764,16.1469,-13.8257,-26.7377,26.3422,7.12502,-0.166716,56.3219,10.6122,8.5391,15.064,16.1738,-10.2364,-31.0353,-20.2528,-3.92654,-13.4269,-13.2632,17.6824,-11.5729,14.1182,-9.07332
1.67109,18.943,7.87738,-1.4627,19.1663,-2.93378,0.259797,6.9038,-2.22803,-2.7783,9.07918,-9.04184,-1.88976,4.55428,-8.33278,-11.4938,-3.58656,-6.64125,9.49384,-5.11994,11.4257,5.21636,-2.00735,4.26567,3.36816e-14,-5.40694e-14,46.4565,0.696775,-11.7889,66.6781,42.4226,-53.2136,27.4693,7.12502,-25.6703,-0.819973,3.36816e-14,-5.40694e-14,-31.4697,23.608,48.4173,16.0876,-14.587,-26.7447,26.3732,7.12502,-0.173547,56.3529,10.7103,8.65991,15.203,15.9655,-10.1298,-31.1621,-20.1601,-3.96686,-13.3815,-13.1749,17.7646,-11.5904,14.1734,-9.04183
1.67498,18.9447,7.88516,-1.51523,19.1368,-3.05385,0.320813,6.91903,-2.03987,-2.83667,9.0954,-9.05392,-1.9516,4.55816,-8.46327,-11.4995,-3.55593,-6.57201,9.46213,-5.09529,11.5001,5.20589,-1.988,4.27992,-9.34164e-14,6.67916e-14,46.1845,1.68744,-10.6083,67.16,42.6355,-53.4669,27.0793,7.12502,-25.913,-1.17474,-9.34164e-14,6.67916e-14,-31.6807,23.254,48.3336,16.264,-14.3915,-26.201,25.8102,7.12502,0.351615,55.7896,10.8696,8.80483,15.3795,15.7363,-10.1854,-31.3537,-20.0721,-3.98073,-13.3466,-13.0689,17.8695,-11.5901,14.2301,-8.97992
1.68001,18.9439,7.89217,-1.57492,19.1876,-3.21236,0.359289,6.89636,-1.83113,-2.88873,9.06377,-9.04373,-2.00093,4.53762,-8.57779,-11.5511,-3.51327,-6.51207,9.51866,-5.0618,11.6019,5.23056,-1.95945,4.30557,7.61594e-14,-3.81667e-14,46.0199,2.59833,-9.54943,67.5615,42.8242,-53.897,27.2496,7.12502,-26.3247,-0.943501,7.61594e-14,-3.81667e-14,-31.9374,22.6322,48.3926,16.5673,-13.5565,-25.7561,24.8273,7.12502,0.781274,54.8056,11.0639,8.77082,15.5565,15.4705,-10.2983,-31.469,-19.9152,-4.01765,-13.3648,-12.9195,17.9887,-11.6771,14.1792,-8.63505
1.68313,18.9411,7.89802,-1.59167,19.2517,-3.21378,0.3856,6.87652,-1.82214,-2.89835,9.0349,-9.03705,-2.02927,4.52226,-8.58066,-11.7187,-3.50681,-6.58875,9.67559,-5.06923,11.7813,5.31536,-1.94499,4.3753,2.13445e-14,-7.95139e-14,45.8747,3.36999,-8.49726,67.8887,43.0933,-54.1951,27.4087,7.12502,-26.6101,-0.741496,2.13445e-14,-7.95139e-14,-32.1067,22.0971,48.5363,16.8295,-12.7087,-25.5436,24.3895,7.12502,0.986536,54.367,11.2597,8.7409,15.5777,15.2027,-10.4633,-31.557,-19.4124,-4.04453,-13.4107,-12.9281,18.0915,-11.7482,14.153,-8.56828
1.6874,18.9406,7.90473,-1.60285,19.2421,-3.21388,0.340743,6.87209,-1.81852,-2.8713,9.03421,-9.01884,-1.97832,4.52309,-8.55372,-11.8897,-3.49372,-6.6444,9.75415,-5.05612,11.8967,5.3723,-1.92554,4.42237,-3.01407e-14,-6.99722e-14,45.8021,4.00316,-7.44087,68.1317,43.275,-54.4897,27.1537,7.12502,-26.8919,-0.953332,-3.01407e-14,-6.99722e-14,-32.2435,22.3037,48.4332,16.9252,-12.7226,-25.4331,24.3599,7.12502,1.09329,54.3369,11.4114,8.78278,15.5986,14.966,-10.4482,-31.667,-19.36,-4.03701,-13.4392,-12.9427,18.1679,-11.8467,14.174,-8.38473
1.69296,18.9418,7.91215,-1.59069,19.1755,-3.22183,0.234832,6.90309,-1.80199,-2.83746,9.08623,-9.01321,-1.87506,4.55152,-8.53713,-12.0079,-3.51302,-6.62731,9.73253,-5.08401,11.9413,5.38959,-1.93197,4.43025,1.40541e-13,-2.54444e-14,45.6548,4.45894,-6.58776,68.3595,43.4668,-55.1595,26.8842,7.12502,-27.5327,-1.12249,1.40541e-13,-2.54444e-14,-32.2835,22.9098,48.1969,16.8347,-13.3217,-25.5668,24.8084,7.12502,0.964123,54.786,11.4799,8.86659,15.6068,14.8226,-10.439,-31.7146,-19.1118,-4.00418,-13.4663,-12.9636,18.1636,-11.8619,14.2903,-8.67397
1.6976,18.943,7.92023,-1.61243,19.1477,-3.21718,0.194818,6.91937,-1.80115,-2.79692,9.11406,-9.00293,-1.80816,4.56728,-8.51626,-12.0741,-3.53679,-6.57551,9.6797,-5.11781,11.9417,5.38676,-1.94536,4.41765,3.89618e-14,6.67916e-14,45.4721,4.77145,-6.02852,68.5438,43.7376,-55.9337,26.8363,7.12502,-28.2728,-1.05023,3.89618e-14,6.67916e-14,-32.3076,23.5577,47.9542,16.7024,-14.0804,-25.8153,25.4363,7.12502,0.724133,55.4148,11.5929,8.9034,15.614,14.704,-10.4566,-31.7713,-19.0011,-3.93105,-13.4268,-12.9984,18.1451,-11.852,14.3256,-8.90332
1.70324,18.941,7.92909,-1.66235,19.2031,-3.08042,0.229774,6.9124,-1.92924,-2.75326,9.10311,-9.02961,-1.79915,4.56442,-8.4758,-12.0942,-3.54314,-6.52037,9.62841,-5.13628,11.9897,5.37644,-1.94929,4.42164,-1.02486e-13,-1.27222e-14,45.2872,5.00732,-5.70615,68.506,44.1614,-56.5044,26.3824,7.12502,-28.8181,-1.41254,-1.02486e-13,-1.27222e-14,-32.3523,23.8295,47.7875,16.6546,-14.4475,-25.8562,25.6698,7.12502,0.684625,55.6484,11.831,8.8427,15.4788,14.5732,-10.5865,-31.7725,-18.8473,-3.79907,-13.4544,-13.1881,18.1609,-11.9533,14.3239,-8.96664
1.70755,18.9404,7.93556,-1.73311,19.2762,-3.07202,0.263965,6.91093,-1.94073,-2.7084,9.10228,-9.02065,-1.77479,4.56517,-8.46052,-12.0922,-3.57359,-6.55846,9.48151,-5.17528,12.1305,5.3401,-1.96353,4.46867,-8.84716e-14,3.81667e-14,45.0982,5.09173,-5.44129,68.3156,44.5482,-56.6377,26.6144,7.12502,-28.9455,-1.15869,-8.84716e-14,3.81667e-14,-32.3658,23.6757,47.8517,16.7169,-14.3955,-25.8042,25.4001,7.12502,0.734901,55.3786,12.0422,8.77599,15.491,14.4328,-10.7648,-31.8355,-18.588,-3.7366,-13.477,-13.2257,18.2082,-11.9547,14.2889,-8.91001
1.71207,18.9406,7.93954,-1.7533,19.3381,-3.23967,0.19622,6.9051,-1.79302,-2.66764,9.10566,-8.95675,-1.68129,4.56688,-8.4587,-12.1654,-3.62634,-6.49308,9.35343,-5.23955,12.0974,5.31694,-1.99518,4.43949,2.8128e-14,-2.8625e-14,44.9127,4.96927,-5.33045,68.0706,44.9621,-56.7854,26.8725,7.12502,-29.0866,-0.876384,2.8128e-14,-2.8625e-14,-32.3416,23.617,47.991,16.8022,-14.2989,-25.7203,25.1844,7.12502,0.815895,55.1626,12.117,8.73162,15.6732,14.2833,-10.8354,-31.9096,-18.4814,-3.80636,-13.4704,-13.0468,18.2732,-11.9963,14.2149,-8.66512
1.71846,18.942,7.94366,-1.66551,19.4198,-3.37746,0.0625432,6.88988,-1.6739,-2.67122,9.09642,-8.90049,-1.60209,4.56191,-8.44443,-12.1901,-3.68233,-6.41765,9.20566,-5.30406,12.0146,5.2775,-2.0321,4.39291,1.44678e-14,-2.54444e-14,44.6722,4.71576,-5.40262,67.8274,45.5017,-57.2685,27.1325,7.12502,-29.5478,-0.535704,1.44678e-14,-2.54444e-14,-32.3327,23.4591,48.154,16.9164,-13.9179,-25.5842,25.2128,7.12502,0.947337,55.1904,12.0783,8.59761,15.7667,14.1231,-10.6221,-31.936,-18.5166,-3.98781,-13.5001,-12.8935,18.3583,-12.0428,14.1842,-8.64551
1.72331,18.9436,7.94824,-1.57492,19.5015,-3.47384,-0.0220908,6.85864,-1.61919,-2.69084,9.05922,-8.84432,-1.58081,4.54224,-8.4043,-12.221,-3.7121,-6.27458,9.07633,-5.33742,11.8629,5.23775,-2.05529,4.31599,-6.92268e-14,5.08889e-14,44.492,4.34788,-5.67778,67.4936,45.9647,-58.0187,27.7201,7.12502,-30.2637,0.180864,-6.92268e-14,5.08889e-14,-32.3809,23.3757,48.2161,17.0052,-13.6454,-25.5421,25.3457,7.12502,0.988029,55.3232,12.0569,8.5157,15.843,13.9444,-10.5253,-32.0184,-18.4115,-4.17347,-13.4967,-12.77,18.4505,-12.055,14.1112,-8.24269
1.72702,18.9462,7.95156,-1.54091,19.6109,-3.4781,0.023801,6.8554,-1.63958,-2.68763,9.05186,-8.84089,-1.60783,4.53841,-8.39593,-12.3475,-3.78678,-6.19488,9.02963,-5.44051,11.835,5.25183,-2.10141,4.2828,-5.88837e-14,2.54444e-14,44.2448,3.8015,-6.23132,67.0048,46.3206,-58.3094,28.1538,7.12502,-30.541,0.665873,-5.88837e-14,2.54444e-14,-32.3175,23.1676,48.3424,17.0937,-13.4001,-25.7275,25.2771,7.12502,0.808964,55.2553,12.1135,8.48152,15.863,13.8161,-10.5588,-32.1193,-18.3163,-4.27261,-13.4466,-12.7496,18.5022,-12.0841,13.9701,-7.8055
1.73197,18.9467,7.95368,-1.5711,19.7302,-3.51885,0.122709,6.86082,-1.58057,-2.67515,9.05528,-8.83614,-1.64134,4.53909,-8.43632,-12.5094,-3.90155,-6.33968,9.03647,-5.5884,12.0123,5.30537,-2.16136,4.34873,5.38272e-15,2.8625e-14,43.9727,3.12507,-6.93625,66.4313,46.834,-58.5151,27.5362,7.12502,-30.7371,0.084927,5.38272e-15,2.8625e-14,-32.2406,22.8955,48.5156,17.1807,-13.0454,-25.863,24.9311,7.12502,0.678066,54.9098,12.2329,8.45936,15.9325,13.7116,-10.6585,-32.1839,-17.9834,-4.29929,-13.5018,-12.7217,18.552,-12.1236,13.917,-8.29177
1.73584,18.9473,7.95685,-1.56165,19.8042,-3.56839,0.185777,6.85887,-1.52072,-2.68714,9.04921,-8.83395,-1.68106,4.53445,-8.47725,-12.6275,-3.9559,-6.57955,9.02515,-5.65744,12.3594,5.34718,-2.17643,4.49295,-9.27858e-14,1.90833e-14,43.76,2.36751,-7.71501,65.8526,47.2221,-58.8329,27.652,7.12502,-31.0401,0.258206,-9.27858e-14,1.90833e-14,-32.2011,22.5958,48.7005,17.3262,-12.7995,-25.9308,25.02,7.12502,0.612628,54.9989,12.2578,8.44825,15.9965,13.653,-10.5336,-32.286,-18.2631,-4.34203,-13.5165,-12.6738,18.5828,-12.0954,13.8613,-8.78063
1.73533,18.9468,7.95898,-1.60145,19.8507,-3.78219,0.26082,6.81651,-1.4125,-2.70381,8.98733,-8.71284,-1.75169,4.49915,-8.42004,-12.724,-3.95461,-6.81763,8.98305,-5.63626,12.6105,5.36361,-2.15546,4.61479,-4.37451e-14,9.54166e-15,43.8124,1.53669,-8.55249,65.1539,47.3695,-58.6554,28.2196,7.12502,-30.8709,0.793627,-4.37451e-14,9.54166e-15,-32.2547,21.9184,49.1153,17.6062,-12.2534,-26.0915,25.4829,7.12502,0.457405,55.4621,12.2463,8.49352,16.2639,13.6071,-10.4266,-32.492,-18.4885,-4.40324,-13.4742,-12.4269,18.6151,-12.0292,13.7754,-8.90056
1.73451,18.9479,7.96052,-1.61611,19.946,-3.86801,0.399781,6.76686,-1.44168,-2.74443,8.90718,-8.63491,-1.89951,4.45494,-8.34543,-12.753,-3.97759,-6.83149,8.9289,-5.66223,12.6398,5.35597,-2.16689,4.62344,1.49853e-13,3.18055e-15,43.9106,0.61324,-9.61109,64.3558,47.4508,-58.4798,27.9715,7.12502,-30.7034,0.513942,1.49853e-13,3.18055e-15,-32.3178,21.0599,49.487,17.8666,-11.5854,-25.9556,25.6311,7.12502,0.588654,55.61,12.2475,8.5274,16.4071,13.6095,-10.4724,-32.6458,-18.4095,-4.46241,-13.5047,-12.3196,18.6259,-12.0106,13.7269,-8.68894
1.7349,18.95,7.96247,-1.56708,20.0617,-3.87314,0.510871,6.73728,-1.49908,-2.8348,8.85206,-8.63144,-2.07262,4.42327,-8.33553,-12.5882,-3.99563,-6.66054,8.77979,-5.70366,12.5957,5.28029,-2.19309,4.577,-9.40624e-14,3.18055e-14,43.9213,-0.341226,-10.8378,63.534,47.3147,-58.5006,27.4767,7.12502,-30.7233,0.0228327,-9.40624e-14,3.18055e-14,-32.3839,20.5527,49.6015,18.0075,-11.3089,-25.8487,25.9235,7.12502,0.691849,55.9021,12.1922,8.51484,16.4479,13.6557,-10.5358,-32.75,-18.2586,-4.55567,-13.5303,-12.2959,18.6108,-11.9705,13.6982,-8.74417
1.73658,18.9529,7.96492,-1.48457,20.1836,-3.83358,0.479733,6.6862,-1.57915,-2.84473,8.78279,-8.64447,-2.08458,4.38938,-8.30252,-12.5316,-3.95526,-6.48275,8.55878,-5.66556,12.6506,5.19633,-2.17163,4.56752,3.43338e-14,-1.27222e-14,44.0246,-1.44314,-12.1453,62.6891,46.9315,-58.3922,26.7674,7.12502,-30.6199,-0.705778,3.43338e-14,-1.27222e-14,-32.316,20.1865,49.7567,18.0799,-10.8479,-26.3369,26.8329,7.12502,0.22033,56.8125,12.1173,8.43334,16.4135,13.7169,-10.6718,-32.7673,-17.9926,-4.64305,-13.5458,-12.3195,18.5716,-11.9643,13.6419,-8.65107
1.74041,18.956,7.96678,-1.35928,20.3294,-3.76196,0.375352,6.64272,-1.6464,-2.79365,8.7339,-8.65873,-1.98688,4.36866,-8.26143,-12.4956,-3.96909,-6.4878,8.20437,-5.66367,12.777,5.08614,-2.17274,4.6072,2.16023e-14,7.31528e-14,44.1748,-2.70668,-13.4132,61.8772,46.3718,-58.3575,27.0109,7.12502,-30.5868,-0.468495,2.16023e-14,7.31528e-14,-32.0894,20.2171,49.8686,17.9468,-10.666,-26.992,27.3795,7.12502,-0.412352,57.3589,12.0253,8.24783,16.3078,13.7569,-10.6141,-32.7574,-17.8867,-4.76551,-13.646,-12.3813,18.539,-11.8769,13.6298,-8.80723
1.74384,18.9592,7.96839,-1.23185,20.4352,-3.83157,0.306032,6.61677,-1.5449,-2.82092,8.70461,-8.66985,-1.96343,4.35281,-8.32217,-12.3057,-4.06961,-6.53733,7.7644,-5.75887,12.8047,4.93149,-2.23736,4.6148,-1.08959e-13,1.145e-13,44.2625,-3.88898,-14.694,61.1857,45.5269,-58.5746,26.079,7.12502,-30.7938,-1.36152,-1.08959e-13,1.145e-13,-31.9889,20.4372,49.7614,17.8455,-10.9074,-27.0938,26.8512,7.12502,-0.510729,56.8303,11.8786,8.13803,16.3555,13.7737,-10.6191,-32.7811,-17.6148,-4.94674,-13.7179,-12.2798,18.5253,-11.8077,13.6313,-8.76159
1.74731,18.9626,7.97047,-1.1146,20.5144,-3.94117,0.261247,6.56833,-1.39773,-2.89214,8.64116,-8.6827,-1.99725,4.31724,-8.41812,-12.3095,-3.89251,-6.66334,7.67358,-5.53264,13.2339,4.90009,-2.10531,4.79375,-4.66523e-15,-9.54166e-15,44.4708,-4.97054,-16.0963,60.4599,44.4174,-58.5648,22.6986,7.12502,-30.7845,-4.7437,-4.66523e-15,-9.54166e-15,-31.9921,20.1833,49.7376,17.9199,-10.8233,-26.9936,26.7362,7.12502,-0.413889,56.7156,11.7312,8.0916,16.4552,13.7575,-10.5841,-32.843,-17.3523,-5.12534,-13.7432,-12.1356,18.5218,-11.7587,13.6143,-9.055
1.75115,18.9668,7.97239,-1.06497,20.6072,-4.07453,0.275488,6.50575,-1.24384,-2.92907,8.55752,-8.66272,-2.03551,4.27135,-8.48796,-12.3174,-3.8597,-6.47157,7.48291,-5.48679,13.1201,4.82968,-2.08847,4.72786,-3.5424e-14,-3.18055e-14,44.8765,-6.07901,-17.59,59.6523,43.1876,-58.3268,20.4261,7.12502,-30.5576,-7.05876,-3.5424e-14,-3.18055e-14,-31.9287,20.0969,49.7202,17.9294,-10.7829,-26.9462,26.8274,7.12502,-0.368122,56.8068,11.6713,8.01799,16.5757,13.6892,-10.5041,-32.9406,-17.5172,-5.24403,-13.8305,-11.9841,18.5318,-11.7422,13.634,-9.22164
1.75616,18.9683,7.97615,-1.05565,20.6753,-4.15689,0.35331,6.488,-1.124,-2.95175,8.53047,-8.62456,-2.09487,4.25408,-8.52642,-12.4239,-4.02193,-6.21132,7.58461,-5.70054,12.5831,4.87398,-2.21248,4.49261,8.44524e-15,1.90833e-14,45.2961,-7.19694,-19.0131,58.8858,41.6171,-58.2613,21.2909,7.12502,-30.4951,-6.20559,8.44524e-15,1.90833e-14,-31.8477,20.1409,49.6934,17.851,-10.9314,-26.7707,26.1807,7.12502,-0.198579,56.1603,11.672,7.97297,16.6526,13.6516,-10.3453,-33.0151,-18.0018,-5.27771,-13.8966,-11.9038,18.5179,-11.7633,13.6471,-9.3436
1.76128,18.9688,7.98028,-1.00049,20.694,-4.12433,0.404473,6.5218,-1.10279,-2.98532,8.57125,-8.6325,-2.14874,4.27278,-8.55667,-12.57,-4.14328,-6.24837,7.8369,-5.87606,12.5448,4.99254,-2.29037,4.47021,1.31372e-13,-3.49861e-14,45.6384,-8.29189,-20.3627,58.2234,39.9449,-58.1298,21.3438,7.12502,-30.3697,-6.17585,1.31372e-13,-3.49861e-14,-31.726,19.8278,49.8338,17.8128,-10.7302,-26.8902,26.017,7.12502,-0.314015,55.9966,11.6417,7.95598,16.596,13.6601,-10.225,-33.0032,-18.0323,-5.27968,-13.8962,-11.9519,18.4627,-11.7487,13.6726,-9.62932
1.76174,18.971,7.97871,-0.878658,20.7631,-4.05131,0.453647,6.49953,-1.16478,-3.05007,8.53234,-8.66586,-2.25333,4.25119,-8.5718,-12.6141,-4.19807,-6.25274,7.92328,-5.96908,12.6486,5.03968,-2.32533,4.49551,-4.77487e-14,-1.59028e-14,46.0207,-9.30802,-21.7448,57.6351,38.6693,-58.2406,19.6738,7.12502,-30.4753,-7.82633,-4.77487e-14,-1.59028e-14,-31.6405,19.2952,50.0323,17.9023,-10.1715,-27.2118,26.7197,7.12502,-0.624612,56.6985,11.5343,7.93125,16.5154,13.6801,-10.2008,-33.0371,-17.7253,-5.37099,-13.8846,-12.0063,18.386,-11.677,13.6399,-9.82318
1.75984,18.9741,7.97731,-0.789575,20.8458,-3.97943,0.543244,6.43142,-1.29386,-3.11485,8.42694,-8.67477,-2.40308,4.19608,-8.52948,-12.6687,-4.2245,-6.32537,8.02987,-6.0301,12.8967,5.09924,-2.33641,4.58153,-3.19143e-14,-2.54444e-14,46.51,-10.1997,-23.1256,57.0666,37.6923,-58.3472,19.003,7.12502,-30.577,-8.47818,-3.19143e-14,-2.54444e-14,-31.6375,19.5458,49.8383,17.8166,-10.5368,-27.2605,26.6116,7.12502,-0.671647,56.5903,11.4762,8.001,16.4692,13.6756,-10.3039,-33.1341,-17.5221,-5.44534,-13.9055,-12.0539,18.3238,-11.6211,13.6013,-9.87145
1.75955,18.9762,7.97919,-0.734757,20.8242,-4.03123,0.620135,6.42561,-1.27033,-3.16866,8.41091,-8.63877,-2.50672,4.18428,-8.51971,-12.6661,-4.20328,-6.31555,7.92777,-5.99057,12.8835,5.06277,-2.32044,4.57885,7.21837e-14,-2.22639e-14,46.9244,-11.0304,-24.2705,56.6348,36.7621,-58.5702,18.9197,7.12502,-30.7897,-8.52166,7.21837e-14,-2.22639e-14,-31.559,19.7918,49.7031,17.6894,-10.9525,-27.1201,26.044,7.12502,-0.536087,56.0231,11.3812,8.18376,16.5442,13.6723,-10.4732,-33.2359,-17.3522,-5.50298,-13.9176,-11.978,18.2755,-11.6142,13.6628,-9.84489
1.76007,18.9777,7.98015,-0.711814,20.8028,-4.12112,0.714023,6.45387,-1.16245,-3.20509,8.44389,-8.61125,-2.5817,4.19649,-8.56634,-12.6241,-4.34186,-6.37563,7.72285,-6.15851,12.9575,5.01451,-2.40678,4.59623,-2.8187e-16,5.08889e-14,47.192,-11.8521,-25.2288,56.3476,36.0496,-58.9835,18.8377,7.12502,-31.1836,-8.52858,-2.8187e-16,5.08889e-14,-31.3759,19.8684,49.6996,17.5942,-11.1268,-27.1155,25.817,7.12502,-0.531612,55.796,11.3176,8.34357,16.6501,13.655,-10.5638,-33.2786,-16.8342,-5.54638,-13.8689,-11.87,18.2214,-11.516,13.6874,-10.0766
1.76038,18.9795,7.98092,-0.674364,20.8119,-4.168,0.745249,6.46055,-1.11702,-3.21747,8.45161,-8.59215,-2.60745,4.19867,-8.57648,-12.5495,-4.46608,-6.41888,7.50015,-6.30855,13.0286,4.95319,-2.48577,4.61198,1.34161e-13,-5.08889e-14,47.4454,-12.5731,-26.004,56.1168,35.457,-59.1763,18.077,7.12502,-31.3674,-9.25379,1.34161e-13,-5.08889e-14,-31.1818,20.4548,49.4904,17.3916,-11.7589,-27.0558,25.8908,7.12502,-0.473952,55.8701,11.3157,8.44119,16.7103,13.5832,-10.5687,-33.2906,-16.0213,-5.5938,-13.9026,-11.8065,18.1888,-11.4697,13.7271,-10.1124
1.76243,18.9805,7.98168,-0.599232,20.8335,-4.09008,0.753553,6.44963,-1.20146,-3.19765,8.43515,-8.58985,-2.60614,4.19237,-8.52657,-12.6138,-4.41664,-6.3581,7.45628,-6.2502,13.0876,4.94534,-2.45015,4.62528,-2.00151e-14,5.40694e-14,47.7372,-13.1755,-26.591,55.874,35.0977,-59.3519,16.6871,7.12502,-31.5346,-10.6111,-2.00151e-14,5.40694e-14,-31.006,20.9913,49.3377,17.2628,-12.1608,-27.0344,25.9086,7.12502,-0.453322,55.8878,11.3377,8.47623,16.6119,13.4718,-10.5531,-33.261,-15.5222,-5.63963,-13.8642,-11.8784,18.1727,-11.4425,13.7004,-10.002
1.76734,18.9816,7.98225,-0.524792,20.8814,-4.10105,0.70758,6.41168,-1.19749,-3.18007,8.38839,-8.56438,-2.57145,4.16978,-8.49323,-12.7081,-4.41134,-6.21746,7.37666,-6.25117,13.057,4.93173,-2.44662,4.59053,-1.03064e-13,3.18055e-15,48.0381,-13.6828,-27.0949,55.7155,34.9977,-59.5598,16.4554,7.12502,-31.7327,-10.8038,-1.03064e-13,3.18055e-15,-30.8472,20.4161,49.6541,17.4799,-11.3344,-27.2651,26.1484,7.12502,-0.676174,56.1271,11.3109,8.50945,16.5995,13.3795,-10.4718,-33.2686,-15.5032,-5.70838,-13.9369,-11.8648,18.1389,-11.4046,13.7296,-10.0949
1.7716,18.9817,7.98197,-0.464598,20.9095,-4.10886,0.677165,6.37038,-1.2072,-3.1707,8.33507,-8.53112,-2.55803,4.14346,-8.44697,-12.9356,-4.2094,-6.70239,7.65213,-5.99903,13.8398,5.07323,-2.27178,4.94666,1.46293e-13,3.81667e-14,48.3025,-14.0744,-27.4398,55.6523,34.9392,-59.8003,17.2115,7.12502,-31.9617,-10.0021,1.46293e-13,3.81667e-14,-30.7458,20.203,49.7964,17.6069,-11.0646,-27.4824,26.612,7.12502,-0.885987,56.5899,11.3037,8.51354,16.5807,13.2881,-10.4517,-33.2403,-15.3743,-5.75378,-14.0293,-11.8542,18.0879,-11.3776,13.7708,-9.69036
1.77546,18.9834,7.98045,-0.408641,20.9266,-4.06665,0.725052,6.33058,-1.20469,-3.20261,8.2767,-8.55033,-2.62301,4.11214,-8.47882,-12.7885,-4.10546,-6.81194,7.30726,-5.84801,14.2378,4.9454,-2.19121,5.10697,-1.29185e-13,6.36111e-14,48.4426,-14.3226,-27.6472,55.6078,34.9329,-59.9471,17.8018,7.12502,-32.1015,-9.38379,-1.29185e-13,6.36111e-14,-30.685,20.8695,49.4292,17.4798,-11.8807,-27.0605,26.583,7.12502,-0.478538,56.5622,11.3456,8.4669,16.4898,13.1532,-10.2678,-33.1479,-15.6573,-5.79072,-14.0068,-11.9,18.0713,-11.3794,13.7427,-9.33825
1.7802,18.9847,7.97905,-0.363596,20.9729,-3.98388,0.756248,6.30852,-1.226,-3.20434,8.2447,-8.57991,-2.64538,4.09606,-8.50339,-12.5909,-4.11225,-6.6828,6.90548,-5.8517,14.3446,4.79101,-2.20171,5.11816,5.79582e-15,6.36111e-15,48.4458,-14.4678,-27.6142,55.5909,35.0612,-59.9972,17.1021,7.12502,-32.1492,-10.0738,5.79582e-15,6.36111e-15,-30.5763,21.0824,49.3031,17.5233,-12.4695,-26.3244,26.4756,7.12502,0.232446,56.4552,11.4313,8.39927,16.3671,13.0147,-9.88938,-33.0938,-16.3221,-5.8094,-13.9935,-12.0004,18.0621,-11.364,13.6993,-9.43088
1.78479,18.987,7.97828,-0.332867,20.9635,-4.0199,0.747952,6.31288,-1.18428,-3.22839,8.25067,-8.54449,-2.66435,4.09741,-8.48949,-12.4441,-4.11786,-6.70567,6.72786,-5.86357,14.5702,4.72319,-2.20533,5.19384,-9.67212e-15,-6.36111e-15,48.3686,-14.4801,-27.3465,55.6816,35.3385,-60.2766,17.6011,7.12502,-32.4151,-9.52075,-9.67212e-15,-6.36111e-15,-30.47,20.5133,49.6001,17.764,-12.0798,-25.9831,26.3204,7.12502,0.562044,56.2994,11.4384,8.3691,16.364,12.8974,-9.7001,-33.0649,-16.566,-5.85376,-13.9411,-11.9716,18.0505,-11.3127,13.6973,-9.69918
1.78688,18.9882,7.98031,-0.293401,20.9283,-4.06275,0.712866,6.3563,-1.15093,-3.26322,8.30962,-8.52223,-2.67164,4.12579,-8.48246,-12.2621,-4.10499,-6.86104,6.49684,-5.83749,14.9443,4.63862,-2.18874,5.34327,6.72513e-14,7.31528e-14,48.1431,-14.4483,-26.9064,55.7876,35.6807,-60.5588,20.4882,7.12502,-32.6836,-6.57825,6.72513e-14,7.31528e-14,-30.3043,20.2751,49.7581,17.8392,-11.8608,-26.1078,25.9002,7.12502,0.441587,55.8794,11.4375,8.43788,16.3959,12.7653,-9.74609,-33.121,-16.3792,-5.90636,-13.8734,-11.9128,18.0577,-11.3457,13.6525,-9.70261
1.78972,18.9871,7.98218,-0.283466,20.8895,-4.06507,0.698676,6.37438,-1.14012,-3.24119,8.33655,-8.49375,-2.63962,4.14012,-8.45364,-12.1891,-4.07383,-6.90162,6.25761,-5.78003,15.1305,4.55599,-2.16093,5.41445,-1.63401e-13,5.08889e-14,47.9459,-14.3441,-26.3511,55.9651,35.9935,-60.2071,21.8699,7.12502,-32.3489,-5.26545,-1.63401e-13,5.08889e-14,-30.1696,20.1205,49.9143,17.9647,-11.7307,-26.2464,25.8943,7.12502,0.307809,55.8739,11.5133,8.44048,16.363,12.6269,-9.80777,-33.0214,-16.3366,-5.90663,-13.8662,-11.9221,18.0736,-11.3583,13.6855,-10.0765
1.79312,18.9863,7.9858,-0.283505,20.8123,-4.10589,0.666092,6.3659,-1.11994,-3.21238,8.3294,-8.42591,-2.59923,4.13718,-8.3845,-12.2065,-4.05879,-6.83561,6.10631,-5.75271,15.1522,4.50933,-2.14833,5.41152,-1.19271e-15,-3.81667e-14,47.8782,-14.119,-25.7412,56.1704,36.1905,-60.2098,20.8997,7.12502,-32.3515,-6.23514,-1.19271e-15,-3.81667e-14,-30.0881,19.4601,50.2941,18.2589,-11.0425,-26.3569,26.1285,7.12502,0.201013,56.1081,11.578,8.41514,16.3583,12.5031,-9.88803,-32.8756,-16.3896,-5.88204,-13.8661,-11.8902,18.0664,-11.4535,13.7375,-9.66019
1.79626,18.9866,7.98919,-0.271136,20.712,-4.10901,0.63339,6.34495,-1.16991,-3.18798,8.30284,-8.34528,-2.57777,4.12524,-8.26341,-12.2541,-3.99778,-6.7869,6.02112,-5.66937,15.2056,4.48299,-2.10356,5.42695,5.13983e-14,-6.36111e-14,47.9145,-13.8527,-25.1605,56.3188,36.6428,-60.8452,21.0307,7.12502,-32.9561,-5.97875,5.13983e-14,-6.36111e-14,-30.0995,18.4711,50.7885,18.7197,-9.9257,-26.2505,26.268,7.12502,0.303833,56.2475,11.608,8.48725,16.3387,12.4111,-9.82411,-32.8276,-16.6689,-5.84885,-13.8326,-11.8974,18.041,-11.5088,13.7862,-9.2843
1.80046,18.9862,7.99006,-0.255507,20.6298,-4.06901,0.621639,6.33257,-1.22866,-3.16794,8.28618,-8.30707,-2.5663,4.11832,-8.18644,-12.3041,-3.9413,-6.60145,5.96066,-5.60704,15.1537,4.45928,-2.07058,5.38345,1.38652e-14,-7.31528e-14,47.8246,-13.5693,-24.5882,56.5023,37.1937,-60.9838,22.5836,7.12502,-33.0879,-4.398,1.38652e-14,-7.31528e-14,-30.0485,17.3091,51.3072,19.1198,-8.79587,-26.1537,26.3334,7.12502,0.397271,56.3128,11.6273,8.51368,16.2696,12.361,-9.73636,-32.7818,-16.9805,-5.79369,-13.8725,-11.9616,17.9996,-11.5568,13.9103,-9.21369
1.80425,18.9865,7.98867,-0.210105,20.5851,-3.99377,0.641467,6.3324,-1.24966,-3.16833,8.28414,-8.33125,-2.57755,4.1175,-8.20355,-12.2913,-3.91526,-6.23755,5.79898,-5.59042,14.9484,4.38924,-2.07006,5.25624,-1.35422e-14,6.36111e-15,47.5616,-13.2761,-24.0199,56.8071,37.5842,-60.5078,23.0947,7.12502,-32.6351,-3.98175,-1.35422e-14,6.36111e-15,-29.9066,16.3365,51.7195,19.4192,-7.93779,-26.1731,26.3353,7.12502,0.378535,56.3147,11.6185,8.53903,16.158,12.3344,-9.78431,-32.7114,-17.2359,-5.77207,-13.8139,-12.054,17.949,-11.4818,13.9208,-9.4233
1.80725,18.9878,7.98572,-0.179239,20.4886,-4.00297,0.682828,6.33384,-1.18664,-3.1903,8.28393,-8.32807,-2.61536,4.11495,-8.24273,-12.3307,-3.85323,-5.96506,5.68817,-5.52603,14.8667,4.34535,-2.03768,5.1886,1.8159e-13,1.59028e-14,47.3394,-12.9407,-23.3665,57.1225,37.9076,-60.1364,23.6876,7.12502,-32.2817,-3.46142,1.8159e-13,1.59028e-14,-29.8504,15.7795,51.9424,19.7186,-7.39812,-26.2882,26.1758,7.12502,0.2674,56.1554,11.5675,8.57169,16.1178,12.3117,-9.75632,-32.6133,-17.4174,-5.77991,-13.7404,-12.0458,17.9194,-11.5141,13.8974,-9.42253
1.81194,18.9882,7.98219,-0.197643,20.3063,-4.08464,0.712777,6.3493,-1.05309,-3.19016,8.3068,-8.28913,-2.61582,4.12353,-8.27879,-12.3893,-3.80208,-5.91051,5.59709,-5.46601,15.0269,4.32613,-1.9979,5.23505,-1.43373e-14,6.04305e-14,47.1961,-12.6049,-22.6829,57.4153,38.2705,-60.0185,25.0621,7.12502,-32.1695,-2.10974,-1.43373e-14,6.04305e-14,-29.8389,15.5786,52.0113,19.9585,-7.34446,-26.263,25.9161,7.12502,0.291731,55.8956,11.5133,8.59171,16.118,12.2945,-9.63464,-32.4874,-17.3772,-5.74267,-13.719,-11.9855,17.9183,-11.6565,13.9792,-8.93159
1.81574,18.9878,7.98157,-0.250811,20.1559,-4.07621,0.748213,6.35785,-1.04703,-3.14238,8.31933,-8.24599,-2.58961,4.13067,-8.23615,-12.4464,-3.79671,-5.89467,5.48987,-5.45991,15.1805,4.3084,-1.98675,5.28116,-1.51573e-14,-1.01778e-13,47.0587,-12.2452,-21.9752,57.6596,38.7105,-59.9913,25.822,7.12502,-32.1435,-1.35502,-1.51573e-14,-1.01778e-13,-29.8024,15.5156,52.0832,20.1587,-7.51936,-26.201,25.9937,7.12502,0.351589,55.9732,11.5395,8.5949,16.0564,12.2963,-9.55991,-32.3447,-17.4248,-5.63384,-13.687,-12.041,17.9241,-11.6512,14.1013,-9.04649
1.81864,18.9877,7.98138,-0.293625,20.0096,-4.06929,0.780053,6.33552,-1.06995,-3.09727,8.28944,-8.17675,-2.57766,4.11653,-8.14932,-12.6194,-3.75133,-5.85256,5.53111,-5.40794,15.2141,4.34452,-1.94942,5.28844,-1.43498e-14,1.59028e-14,47.0311,-11.8582,-21.3714,57.8944,39.1469,-59.7601,26.1597,7.12502,-31.9234,-1.06159,-1.43498e-14,1.59028e-14,-29.7754,15.1659,52.3324,20.4032,-7.24064,-26.3952,26.627,7.12502,0.164083,56.6067,11.5719,8.67178,16.0232,12.2817,-9.58255,-32.2672,-17.2618,-5.56018,-13.6542,-12.091,17.9508,-11.6102,14.2672,-9.26914
1.82202,18.9874,7.97918,-0.292835,19.8741,-4.02319,0.817192,6.31275,-1.09196,-3.06608,8.25787,-8.14138,-2.57829,4.10119,-8.10139,-12.7806,-3.65445,-5.90264,5.59214,-5.28558,15.3839,4.38428,-1.87168,5.36177,-7.04567e-14,2.8625e-14,47.0095,-11.5019,-20.8094,58.1224,39.3422,-59.7256,27.1875,7.12502,-31.8906,-0.0403705,-7.04567e-14,2.8625e-14,-29.7169,15.003,52.4749,20.5538,-7.25814,-26.3242,26.542,7.12502,0.232626,56.5216,11.557,8.68201,15.922,12.2766,-9.48356,-32.2085,-17.2945,-5.52018,-13.6149,-12.1687,17.9789,-11.7145,14.3622,-9.0093
1.82441,18.9866,7.97781,-0.325208,19.7809,-4.05126,0.83027,6.28203,-1.07421,-3.0069,8.22018,-8.08541,-2.53432,4.08333,-8.04739,-12.7841,-3.54166,-5.75554,5.41291,-5.13009,15.3641,4.30949,-1.79873,5.34269,5.90142e-15,6.67916e-14,46.9745,-11.2095,-20.2126,58.3066,39.7883,-60.2842,26.9403,7.12502,-32.4224,-0.180041,5.90142e-15,6.67916e-14,-29.6708,14.6893,52.6347,20.7758,-7.21957,-26.2513,25.9153,7.12502,0.303073,55.8948,11.5565,8.66013,15.911,12.3056,-9.46895,-32.095,-17.2132,-5.46668,-13.6303,-12.1594,17.9942,-11.8558,14.4185,-8.72044
1.82614,18.9856,7.97591,-0.388056,19.7316,-4.0345,0.902806,6.25799,-1.09394,-2.92002,8.1889,-8.04113,-2.49753,4.06961,-7.99078,-12.8178,-3.4967,-5.5565,5.1936,-5.06743,15.3133,4.23585,-1.77202,5.29631,-1.69464e-14,6.67916e-14,46.8537,-10.9748,-19.5437,58.4704,40.3706,-60.9022,25.6646,7.12502,-33.0103,-1.33341,-1.69464e-14,6.67916e-14,-29.5843,14.2408,52.9067,21.0462,-7.23347,-26.4027,25.8712,7.12502,0.156829,55.8509,11.5853,8.61932,15.8719,12.3779,-9.47206,-31.9931,-17.1644,-5.37473,-13.5902,-12.1971,17.9941,-11.8704,14.3796,-8.6717
1.82906,18.9843,7.97183,-0.399242,19.6355,-3.983,0.959703,6.25868,-1.10541,-2.85775,8.1903,-8.02154,-2.46874,4.07179,-7.96541,-12.9291,-3.4863,-5.47115,5.11116,-5.06144,15.4019,4.23053,-1.75985,5.30974,1.01902e-13,-7.95139e-14,46.7606,-10.7487,-18.9024,58.6072,40.5378,-61.3442,25.419,7.12502,-33.4306,-1.48935,1.01902e-13,-7.95139e-14,-29.4081,13.9866,53.1309,21.1296,-7.53625,-26.7525,26.2185,7.12502,-0.181009,56.1982,11.5209,8.56718,15.7569,12.4708,-9.37794,-31.9034,-17.2801,-5.3274,-13.5103,-12.2799,17.9946,-11.7609,14.4282,-9.15296
1.82962,18.984,7.96837,-0.400223,19.4841,-3.97964,0.995046,6.29026,-1.10123,-2.82491,8.23269,-7.99577,-2.45211,4.09361,-7.94205,-12.9964,-3.4835,-5.5085,5.05165,-5.0602,15.6121,4.23264,-1.74712,5.3831,-1.717e-14,2.22639e-14,46.6512,-10.5547,-18.3956,58.7756,40.5333,-61.6167,27.179,7.12502,-33.6895,0.326888,-1.717e-14,2.22639e-14,-29.2082,13.6551,53.3564,21.2277,-7.78021,-26.7832,26.5496,7.12502,-0.2107,56.5292,11.4035,8.59803,15.7069,12.578,-9.24375,-31.7958,-17.5242,-5.31343,-13.4533,-12.2931,18.0083,-11.7733,14.5309,-9.12708
1.82759,18.9841,7.96446,-0.390682,19.3682,-4.0592,1.00696,6.28483,-1.09929,-2.80857,8.22544,-7.92617,-2.45253,4.08975,-7.86885,-13.139,-3.45867,-5.6256,5.03398,-5.02759,15.9193,4.26205,-1.71046,5.50417,-4.19187e-14,2.8625e-14,46.5832,-10.3966,-18.0589,58.9897,40.8021,-61.4747,27.328,7.12502,-33.5546,0.44648,-4.19187e-14,2.8625e-14,-29.0734,13.3817,53.5684,21.3392,-7.92148,-26.8568,26.6787,7.12502,-0.281766,56.6583,11.2546,8.63967,15.7734,12.6733,-9.22867,-31.7603,-17.4885,-5.36859,-13.4436,-12.1885,18.0469,-11.8129,14.5832,-8.97226
1.82693,18.9861,7.95914,-0.350884,19.29,-4.18227,0.996831,6.26739,-1.01688,-2.80598,8.2052,-7.87349,-2.44277,4.07809,-7.85636,-13.2293,-3.42399,-5.6599,4.93095,-4.98104,16.1852,4.25202,-1.67265,5.5989,5.96354e-16,3.18055e-15,46.5284,-10.3313,-17.7939,59.1378,41.1543,-61.1564,25.9278,7.12502,-33.252,-1.01889,5.96354e-16,3.18055e-15,-28.8922,13.1165,53.7231,21.3634,-8.03214,-26.9496,26.1785,7.12502,-0.371411,56.1579,11.0633,8.6634,15.8825,12.7529,-9.22989,-31.8056,-17.247,-5.49377,-13.3573,-12.0343,18.1012,-11.7573,14.592,-9.56386
1.82802,18.9872,7.95358,-0.336808,19.2133,-4.34797,1.01813,6.26921,-0.852061,-2.82695,8.2104,-7.82621,-2.45974,4.0769,-7.90163,-13.0495,-3.39096,-5.55767,4.61031,-4.92423,16.3233,4.12214,-1.65452,5.62909,-5.62064e-14,-9.54166e-15,46.3921,-10.3132,-17.5894,59.2878,41.4405,-60.9666,26.0665,7.12502,-33.0716,-0.918629,-5.62064e-14,-9.54166e-15,-28.7219,12.7699,53.872,21.4413,-8.1064,-26.9904,25.6778,7.12502,-0.41083,55.6572,10.8899,8.62772,16.0081,12.8296,-9.23248,-31.7408,-17.2538,-5.60185,-13.3009,-11.8416,18.1608,-11.7849,14.5886,-9.78867
1.82953,18.9872,7.94902,-0.349807,19.1811,-4.34422,1.08393,6.26583,-0.837776,-2.78799,8.20536,-7.82472,-2.4549,4.07466,-7.9132,-12.8864,-3.39168,-5.51258,4.26214,-4.90355,16.52,3.99473,-1.65312,5.68461,-1.49585e-14,4.45278e-14,46.2876,-10.4242,-17.6039,59.3824,41.8513,-60.8497,27.6485,7.12502,-32.9603,0.639901,-1.49585e-14,4.45278e-14,-28.5049,12.5139,54.0054,21.5027,-8.29147,-27.1013,25.7112,7.12502,-0.517894,55.6903,10.8221,8.5582,15.9694,12.9357,-9.28637,-31.6445,-17.2887,-5.60331,-13.2798,-11.8487,18.2037,-11.9069,14.5504,-9.05109
1.83062,18.987,7.94538,-0.396411,19.1146,-4.2935,1.1431,6.25908,-0.929297,-2.71129,8.19484,-7.78853,-2.42751,4.07234,-7.82499,-12.715,-3.36894,-5.5527,3.8845,-4.83612,16.7751,3.85612,-1.6297,5.77732,-1.03368e-14,2.8625e-14,46.3411,-10.6401,-17.7975,59.3913,42.5284,-60.9591,29.3884,7.12502,-33.0644,2.40182,-1.03368e-14,2.8625e-14,-28.2884,12.5001,54.1089,21.4703,-8.69293,-27.0928,25.7851,7.12502,-0.509753,55.7642,10.8001,8.51181,15.888,13.0596,-9.37854,-31.5871,-17.0226,-5.54374,-13.2116,-11.9226,18.2328,-11.9423,14.5201,-8.6011
1.8299,18.9871,7.94142,-0.472903,18.9762,-4.24063,1.2674,6.2986,-1.02928,-2.64982,8.24135,-7.75949,-2.44563,4.09755,-7.75039,-12.4754,-3.34432,-5.47475,3.46916,-4.77055,16.9206,3.68847,-1.61587,5.8143,-5.64548e-14,-1.90833e-14,46.4143,-10.9713,-18.1554,59.2566,43.2463,-61.0704,31.6198,7.12502,-33.1702,4.65565,-5.64548e-14,-1.90833e-14,-28.0811,12.2326,54.3066,21.5691,-8.85572,-27.1206,25.997,7.12502,-0.53659,55.9761,10.7719,8.54394,15.8235,13.2291,-9.41004,-31.5541,-16.589,-5.42436,-13.1524,-12.0091,18.2366,-11.9793,14.579,-8.69301
1.82872,18.9864,7.93896,-0.553471,18.8488,-4.3173,1.29961,6.31111,-1.03545,-2.58395,8.26013,-7.66985,-2.40672,4.10828,-7.65002,-12.4225,-3.33631,-5.39023,3.33442,-4.75615,16.9485,3.63709,-1.61369,5.80935,3.78685e-14,3.81667e-14,46.6516,-11.3907,-18.7142,59.0345,43.9017,-60.9148,33.7251,7.12502,-33.0223,6.72963,3.78685e-14,3.81667e-14,-27.9385,11.8407,54.5814,21.7491,-8.72864,-27.2166,26.0424,7.12502,-0.629271,56.0212,10.6971,8.61014,15.9128,13.4242,-9.5046,-31.494,-16.4694,-5.33348,-13.0598,-11.9438,18.2201,-11.9441,14.6175,-9.0927
1.82948,18.9853,7.93371,-0.572528,18.7472,-4.30495,1.37306,6.32725,-1.04255,-2.54046,8.2802,-7.64365,-2.40501,4.11886,-7.62438,-12.3927,-3.39418,-5.39342,3.22476,-4.8309,17.1077,3.61445,-1.64836,5.85464,-1.07145e-13,6.99722e-14,46.8992,-11.9088,-19.445,58.7311,44.5439,-60.6736,33.9165,7.12502,-32.7929,6.87278,-1.07145e-13,6.99722e-14,-27.7476,11.4849,54.7841,21.8428,-8.71934,-27.2564,25.9987,7.12502,-0.66769,55.9774,10.5798,8.60541,15.8775,13.6221,-9.47304,-31.3599,-16.5289,-5.28026,-12.9743,-11.9668,18.1864,-11.9016,14.6304,-8.94438
1.83213,18.9839,7.92525,-0.529399,18.6709,-4.17345,1.47081,6.34872,-1.10438,-2.49211,8.30453,-7.67797,-2.41021,4.13266,-7.63597,-12.2484,-3.46586,-5.45298,2.8298,-4.88228,17.3585,3.49036,-1.68547,5.93989,3.18055e-14,1.90833e-14,47.2001,-12.5633,-20.3977,58.4176,45.0857,-60.5157,33.953,7.12502,-32.6427,6.87806,3.18055e-14,1.90833e-14,-27.5119,11.2258,54.9314,21.9022,-8.77304,-27.31,26.123,7.12502,-0.71954,56.1015,10.4184,8.54972,15.6797,13.8168,-9.48994,-31.2524,-16.6944,-5.26453,-12.9235,-12.125,18.1613,-11.9147,14.655,-8.8006
1.83234,18.9855,7.92146,-0.501769,18.5967,-4.13231,1.48587,6.34556,-1.19603,-2.45924,8.29805,-7.64223,-2.40346,4.13123,-7.54663,-11.9626,-3.46014,-5.54056,2.35601,-4.81329,17.6187,3.30632,-1.6742,6.04302,-4.91992e-14,3.18055e-14,47.589,-13.1601,-21.4174,58.0923,45.2519,-60.6372,34.7774,7.12502,-32.7583,7.72649,-4.91992e-14,3.18055e-14,-27.3075,10.9154,55.1914,22.0028,-8.51457,-27.6092,27.0096,7.12502,-1.0085,56.987,10.2507,8.54913,15.6194,14.0246,-9.58034,-31.2483,-16.6117,-5.25826,-12.856,-12.1714,18.137,-11.9234,14.656,-8.41117
1.83139,18.9877,7.91686,-0.496138,18.4977,-4.17379,1.50615,6.35257,-1.19182,-2.43911,8.30753,-7.61163,-2.39665,4.13608,-7.51745,-11.7581,-3.49375,-5.58151,2.05325,-4.82763,17.8825,3.19577,-1.69269,6.13353,-5.14852e-14,4.45278e-14,47.9685,-13.7494,-22.4992,57.6613,45.0547,-60.9396,34.8793,7.12502,-33.0459,7.88882,-5.14852e-14,4.45278e-14,-27.065,10.0707,55.6266,22.2138,-7.47159,-28.1417,28.2934,7.12502,-1.52277,58.2677,10.097,8.54112,15.6649,14.2187,-9.65421,-31.2974,-16.8054,-5.26632,-12.7854,-12.1251,18.1156,-11.9043,14.7032,-8.42881
1.83293,18.989,7.90852,-0.457437,18.3452,-4.17246,1.5517,6.3826,-1.14495,-2.41356,8.34841,-7.62355,-2.38228,4.15641,-7.5601,-11.7298,-3.63085,-5.4799,1.91225,-5.018,18.0293,3.1762,-1.78609,6.1484,3.35946e-14,3.18055e-15,48.4475,-14.396,-23.7183,57.1945,44.206,-60.8754,34.5136,7.12502,-32.9848,7.51017,3.35946e-14,3.18055e-15,-26.8688,9.42491,55.8835,22.4167,-6.82645,-28.3842,28.4555,7.12502,-1.75694,58.428,9.88003,8.43796,15.6062,14.3909,-9.5412,-31.2655,-17.2917,-5.29363,-12.7668,-12.1327,18.1029,-11.918,14.8037,-8.65335
1.83576,18.9911,7.90197,-0.418688,18.1709,-4.17031,1.56828,6.38466,-1.12089,-2.37233,8.35357,-7.58565,-2.3502,4.15952,-7.53157,-11.7527,-3.72515,-5.47723,1.80341,-5.13952,18.1698,3.16863,-1.84359,6.18336,-1.7831e-13,1.27222e-14,49.2039,-15.011,-25.1007,56.7413,42.6517,-60.5316,33.8731,7.12502,-32.6577,6.80126,-1.7831e-13,1.27222e-14,-26.7445,9.48649,55.9076,22.4182,-7.00035,-28.4359,27.5894,7.12502,-1.80691,57.5615,9.66406,8.41871,15.5457,14.5151,-9.26397,-31.2368,-17.5437,-5.31597,-12.6767,-12.1433,18.118,-11.9263,14.8673,-8.64178
1.83862,18.9915,7.89665,-0.431611,18.0758,-4.11435,1.60601,6.32661,-1.20116,-2.313,8.27439,-7.51867,-2.34021,4.12148,-7.41535,-11.7324,-3.72127,-5.6463,1.71687,-5.11178,18.4093,3.15053,-1.82684,6.29174,-1.11618e-13,4.45278e-14,50.0803,-15.522,-26.5883,56.3337,40.7745,-60.5136,32.583,7.12502,-32.6406,5.50764,-1.11618e-13,4.45278e-14,-26.6772,9.56702,55.9064,22.311,-7.117,-28.5394,27.1053,7.12502,-1.90687,57.0765,9.59917,8.40246,15.4565,14.5828,-9.26371,-31.2143,-17.2572,-5.28368,-12.5995,-12.231,18.1373,-11.9034,14.9177,-8.58053
1.8424,18.9914,7.89398,-0.468579,17.9688,-4.149,1.61619,6.2916,-1.15753,-2.26852,8.23128,-7.45826,-2.30734,4.09998,-7.37209,-11.7146,-3.7371,-5.75794,1.71603,-5.12913,18.5924,3.15988,-1.83013,6.369,5.73494e-14,3.81667e-14,50.9134,-16.0254,-28.1339,55.8837,38.8232,-60.5646,31.7173,7.12502,-32.6892,4.65198,5.73494e-14,3.81667e-14,-26.5799,9.77485,55.8375,22.1399,-7.41047,-28.7824,26.7888,7.12502,-2.14155,56.7578,9.58225,8.38362,15.4555,14.5954,-9.47703,-31.2468,-17.6733,-5.23828,-12.5594,-12.2265,18.1565,-11.9298,15.002,-8.14827
1.84551,18.9916,7.8919,-0.506453,17.783,-4.1897,1.64671,6.32102,-1.09919,-2.23765,8.27298,-7.40997,-2.28633,4.12053,-7.35472,-11.6263,-3.79909,-5.75125,1.69988,-5.22126,18.7069,3.15656,-1.87597,6.39822,7.41467e-14,-1.90833e-14,51.7334,-16.5524,-29.6553,55.3904,36.9484,-60.3469,32.3013,7.12502,-32.482,5.19321,7.41467e-14,-1.90833e-14,-26.4574,9.75014,55.8491,22.0336,-7.48655,-28.9291,25.9646,7.12502,-2.28324,55.9321,9.55906,8.4387,15.4675,14.5933,-9.54761,-31.3095,-17.9606,-5.15759,-12.5783,-12.2166,18.1615,-12.041,15.1651,-7.59613
1.84769,18.9933,7.88821,-0.503911,17.6427,-4.18786,1.69844,6.33659,-1.05579,-2.24628,8.29196,-7.41173,-2.3157,4.12862,-7.38838,-11.3734,-3.82222,-5.58291,1.53604,-5.2569,18.7535,3.06792,-1.91004,6.38243,-1.59028e-15,5.08889e-14,52.5363,-17.0527,-31.2613,54.9205,35.3385,-60.2566,32.15,7.12502,-32.3961,5.02432,-1.59028e-15,5.08889e-14,-26.3861,9.53547,55.8096,21.9804,-7.74864,-28.5145,25.5263,7.12502,-1.88282,55.4978,9.54023,8.54644,15.4521,14.5437,-9.60305,-31.3488,-17.756,-5.1467,-12.5636,-12.2322,18.1898,-12.0865,15.2502,-7.43164
1.85129,18.9939,7.88287,-0.459341,17.5754,-4.1438,1.72426,6.30694,-1.0207,-2.26164,8.25102,-7.46055,-2.33886,4.10697,-7.4638,-11.1949,-3.80303,-5.33641,1.44692,-5.2502,18.7287,3.00332,-1.91822,6.33324,1.09928e-13,-1.59028e-14,53.3389,-17.4699,-32.9382,54.5348,33.7703,-60.3365,29.8623,7.12502,-32.4722,2.75224,1.09928e-13,-1.59028e-14,-26.2937,9.60923,55.6231,21.9415,-8.47776,-27.9135,25.921,7.12502,-1.30238,55.8968,9.52265,8.52972,15.3678,14.4382,-9.51447,-31.3323,-17.7627,-5.20753,-12.5189,-12.2954,18.2492,-12.0643,15.3078,-7.5901
1.85468,18.9972,7.87948,-0.433992,17.4202,-4.22459,1.6923,6.28422,-0.905323,-2.28016,8.22516,-7.44903,-2.32876,4.09202,-7.51201,-11.1424,-3.79859,-5.12544,1.49164,-5.27819,18.6997,3.0043,-1.9315,6.28584,1.16488e-13,1.59028e-14,54.2218,-17.7561,-34.5986,54.1854,32.3899,-60.2677,26.5597,7.12502,-32.4067,-0.563851,1.16488e-13,1.59028e-14,-26.2598,9.43268,55.6058,22.1118,-8.69969,-27.4726,27.1632,7.12502,-0.876569,57.1412,9.48529,8.60366,15.4163,14.3031,-9.32679,-31.3137,-17.6282,-5.26427,-12.5283,-12.2213,18.3267,-12.2171,15.4327,-7.44141
1.85868,19.0016,7.87808,-0.483383,17.1559,-4.46378,1.62982,6.28025,-0.70666,-2.25161,8.2319,-7.31298,-2.25522,4.09364,-7.466,-11.247,-3.84096,-5.06564,1.6417,-5.3697,18.729,3.07697,-1.96251,6.27775,-8.54774e-15,-1.90833e-14,55.1994,-18.003,-36.1178,53.8586,31.6179,-60.2008,25.1615,7.12502,-32.343,-1.97504,-8.54774e-15,-1.90833e-14,-26.2811,8.90262,55.8396,22.3707,-8.14081,-27.1595,28.2185,7.12502,-0.574101,58.1975,9.43474,8.79156,15.6397,14.2011,-9.08525,-31.3731,-17.0727,-5.25144,-12.4621,-11.9927,18.3862,-12.3255,15.5993,-7.27329
1.86297,19.0032,7.87464,-0.509976,16.9201,-4.58386,1.61821,6.27658,-0.590808,-2.20236,8.2346,-7.19202,-2.19859,4.09456,-7.39562,-11.3735,-3.89074,-5.15041,1.81029,-5.45696,18.7863,3.16342,-1.99007,6.30382,5.76476e-15,-4.77083e-14,56.1395,-18.2275,-37.3657,53.6557,31.005,-60.2046,23.5488,7.12502,-32.3466,-3.587,5.76476e-15,-4.77083e-14,-26.305,8.53406,56.0029,22.4107,-7.67327,-27.0287,27.7984,7.12502,-0.447835,57.7777,9.38776,8.90786,15.7145,14.1248,-8.94765,-31.3788,-16.889,-5.23533,-12.3139,-11.8945,18.424,-12.3078,15.7102,-7.85563
