JuanDHNZ/ProyectoFinalCD/preprocessing/sports_trials_csv/13_28.csv
root1,root2,root3,root4,root5,root6,lowerback1,lowerback2,lowerback3,upperback1,upperback2,upperback3,thorax1,thorax2,thorax3,lowerneck1,lowerneck2,lowerneck3,upperneck1,upperneck2,upperneck3,head1,head2,head3,rclavicle1,rclavicle2,rhumerus1,rhumerus2,rhumerus3,rradius1,rwrist1,rhand1,rhand2,rfingers1,rthumb1,rthumb2,lclavicle1,lclavicle2,lhumerus1,lhumerus2,lhumerus3,lradius1,lwrist1,lhand1,lhand2,lfingers1,lthumb1,lthumb2,rfemur1,rfemur2,rfemur3,rtibia1,rfoot1,rfoot2,rtoes1,lfemur1,lfemur2,lfemur3,ltibia1,lfoot1,lfoot2,ltoes1
-1.47086,18.7228,0.798557,0.960625,-47.9303,1.69604,1.8557,0.584404,-1.44098,0.422214,0.731939,-1.65329,-0.604218,0.363877,-0.902264,-11.886,-0.0585669,-5.47446,18.1932,-0.341322,6.43749,7.56105,0.0269475,2.99381,-1.26725e-13,2.14687e-14,-38.8907,5.10107,-83.8915,35.5874,-4.28682,-20.4114,-5.98174,7.12502,5.94266,-35.8784,-1.26725e-13,2.14687e-14,-27.7764,4.93746,79.5283,24.281,13.3993,-15.8275,26.2386,7.12502,10.3666,55.9631,-8.02643,15.7293,15.3536,25.2922,-21.0729,-24.3918,-1.10056,-5.13341,-10.831,-19.6547,22.1054,-18.4745,17.4734,-1.84479
-1.46192,18.7234,0.793753,0.938717,-47.4907,1.78739,1.88354,0.588553,-1.47652,0.37903,0.734853,-1.67702,-0.664162,0.365612,-0.90738,-11.7876,-0.0217309,-5.47178,18.1225,-0.316717,6.56155,7.51831,0.0491442,3.03487,-2.0773e-14,-7.15625e-15,-38.8507,5.53239,-84.1813,35.7977,-6.21161,-20.6981,-6.27275,7.12502,5.66584,-36.177,-2.0773e-14,-7.15625e-15,-27.4255,4.4169,79.6883,24.3237,15.4066,-16.9491,26.0482,7.12502,9.28448,55.8237,-8.0447,15.7284,15.3081,25.3631,-21.2633,-24.7609,-0.812581,-5.36223,-10.6302,-19.6495,22.1993,-18.1029,17.0207,-2.53955
-1.45207,18.7236,0.793672,0.964295,-47.0042,1.81427,1.89732,0.567204,-1.47799,0.325052,0.705301,-1.65495,-0.727597,0.351296,-0.883768,-11.7681,0.032194,-5.45248,18.1664,-0.259113,6.61333,7.52511,0.0824362,3.05506,-4.09993e-15,-1.19271e-15,-38.7881,5.97114,-84.3918,35.9623,-8.12709,-20.5501,-6.49552,7.12502,5.80876,-36.3959,-4.09993e-15,-1.19271e-15,-27.0922,4.187,79.8098,24.2403,16.8283,-18.1539,25.4535,7.12502,8.12178,55.2774,-8.02799,15.5324,15.2863,25.3924,-21.4433,-24.9942,-0.57088,-5.58976,-10.6339,-19.6331,22.3185,-17.8798,16.6809,-2.78074
-1.44027,18.7227,0.794838,0.976408,-46.4794,1.78652,1.99633,0.519768,-1.47783,0.271263,0.639519,-1.57992,-0.839295,0.31922,-0.806707,-11.7615,0.0504101,-5.47379,18.2322,-0.226712,6.58335,7.54334,0.0936019,3.05304,8.21975e-14,1.55052e-14,-38.7309,6.4768,-84.5234,36.1168,-9.95654,-20.0969,-6.82225,7.12502,6.24625,-36.7102,8.21975e-14,1.55052e-14,-26.7539,4.57725,79.6844,24.1139,16.6011,-17.8745,25.2047,7.12502,8.39149,55.018,-7.95664,15.3456,15.3224,25.4467,-21.6021,-25.2584,-0.44221,-5.74498,-10.7012,-19.5852,22.4057,-17.7146,16.2809,-2.50402
-1.42763,18.7215,0.795351,0.906747,-45.9504,1.81655,2.11468,0.504357,-1.47965,0.248966,0.61601,-1.54161,-0.928957,0.308,-0.767123,-11.7392,0.0199191,-5.44258,18.2482,-0.267248,6.53807,7.54742,0.0721293,3.02897,7.26309e-14,-5.56597e-15,-38.6015,6.76507,-84.5922,36.2547,-11.8612,-20.1111,-7.37011,7.12502,6.23258,-37.2584,7.26309e-14,-5.56597e-15,-26.3299,4.62037,79.6547,24.0359,16.6214,-17.8158,25.004,7.12502,8.44811,54.8151,-7.84898,15.1897,15.3292,25.5062,-21.6725,-25.5539,-0.555709,-5.84833,-10.8043,-19.591,22.4764,-17.5409,15.8904,-2.64132
-1.41593,18.7189,0.797147,0.675226,-45.442,2.01495,2.2336,0.501191,-1.5237,0.234289,0.606396,-1.59275,-1.01057,0.303449,-0.795882,-11.7611,0.0451947,-5.31542,18.349,-0.258792,6.525,7.5838,0.083885,3.00615,-5.89645e-14,2.06736e-14,-38.44,7.01945,-84.7859,36.3491,-14.0097,-21.2174,-7.35838,7.12502,5.1644,-37.2755,-5.89645e-14,2.06736e-14,-25.945,4.22312,79.7448,24.0199,17.4594,-18.6371,24.5002,7.12502,7.65544,54.3417,-7.69981,15.045,15.2086,25.577,-21.8296,-25.7842,-0.394348,-5.87967,-11.0576,-19.7671,22.5419,-17.4459,15.6634,-2.69433
-1.40469,18.7162,0.796376,0.463767,-44.922,2.21546,2.31985,0.480489,-1.62298,0.228976,0.573122,-1.62599,-1.06509,0.287257,-0.774186,-11.809,0.0970061,-5.20316,18.4198,-0.215231,6.54871,7.61272,0.115457,3.00116,-1.01132e-14,1.70955e-14,-38.3281,7.77065,-85.3212,37.0512,-17.3647,-23.0051,-10.2849,7.12502,3.43817,-40.2369,-1.01132e-14,1.70955e-14,-25.5575,4.09306,79.7788,24.0621,18.289,-19.394,23.9664,7.12502,6.92484,53.8331,-7.58303,14.883,15.0893,25.6564,-21.9872,-26.097,-0.269462,-5.95313,-11.2145,-19.9276,22.6223,-17.2995,15.3648,-2.34042
-1.39318,18.7161,0.792014,0.450378,-44.3964,2.21372,2.35869,0.482518,-1.65339,0.240617,0.574873,-1.58774,-1.07561,0.288448,-0.718301,-11.8335,0.131061,-5.13017,18.3998,-0.191044,6.60477,7.60886,0.138166,3.00976,-1.01877e-14,8.34896e-15,-38.1162,8.21429,-85.5955,37.5544,-20.1924,-23.3772,-12.1252,7.12502,3.07887,-42.0828,-1.01877e-14,8.34896e-15,-25.0627,4.13398,79.8247,24.1621,19.0324,-19.927,23.8935,7.12502,6.41028,53.7765,-7.53721,14.7949,15.125,25.7413,-22.1813,-26.4859,-0.216379,-6.13119,-11.0631,-19.8767,22.7052,-16.9336,14.8704,-2.81403
-1.37853,18.7168,0.789982,0.472913,-43.8475,2.1968,2.40686,0.522492,-1.60109,0.232949,0.628381,-1.576,-1.11,0.315229,-0.737871,-11.753,0.127379,-5.15005,18.2889,-0.234341,6.82964,7.56035,0.13617,3.08088,9.16894e-15,1.63003e-14,-37.8462,8.33331,-85.6941,37.8329,-22.638,-22.4777,-12.9564,7.12502,3.9475,-42.8995,9.16894e-15,1.63003e-14,-24.5194,3.98966,79.9191,24.268,19.8888,-19.773,24.3454,7.12502,6.55898,54.2239,-7.53319,14.6495,15.1435,25.8634,-22.4377,-26.7508,0.0797241,-6.33715,-10.7713,-19.8017,22.7522,-16.4995,14.2065,-3.26271
-1.36531,18.7147,0.794358,0.267399,-43.3159,2.38889,2.4274,0.541358,-1.61242,0.266388,0.652372,-1.63434,-1.08668,0.326838,-0.792113,-11.6524,0.149552,-5.14671,18.1567,-0.238231,7.01588,7.49885,0.150405,3.13832,-1.64494e-14,9.93923e-15,-37.5264,8.44586,-85.8072,37.9484,-25.0441,-20.8616,-12.063,7.12502,5.50797,-41.9714,-1.64494e-14,9.93923e-15,-23.967,3.81988,79.9733,24.3771,20.8426,-19.0343,25.266,7.12502,7.27203,55.1211,-7.40988,14.5032,15.0012,26.0088,-22.8089,-26.9344,0.533413,-6.39386,-10.6774,-19.962,22.7961,-16.2573,13.7233,-3.56001
-1.35364,18.7103,0.80347,-0.239419,-42.7182,2.92736,2.36303,0.54554,-1.81525,0.385286,0.654123,-1.80375,-0.929122,0.32663,-0.850722,-11.6694,0.158851,-5.02573,18.0577,-0.265378,7.132,7.47133,0.157072,3.15213,-7.59357e-14,1.55052e-14,-37.0992,8.6288,-86.0145,38.0177,-27.5945,-20.2319,-11.9088,7.12502,6.1159,-41.8005,-7.59357e-14,1.55052e-14,-23.3183,3.68205,79.9319,24.6299,22.1439,-17.9269,26.9254,7.12502,8.34091,56.7407,-7.18243,14.1544,14.5798,26.1794,-23.0301,-27.0613,0.405547,-6.31732,-10.7272,-20.443,22.8163,-16.1376,13.2487,-3.59997
-1.33923,18.7095,0.808661,-0.550972,-42.1252,3.25055,2.30716,0.547202,-1.88917,0.481635,0.656653,-1.9266,-0.7985,0.326706,-0.934085,-11.8136,0.173918,-4.86791,18.1164,-0.293376,7.23659,7.5183,0.166982,3.1602,-1.05107e-14,9.14409e-15,-36.6311,8.85114,-86.2432,38.0107,-30.1843,-21.2371,-12.4134,7.12502,5.14545,-42.3309,-1.05107e-14,9.14409e-15,-22.6808,3.95286,79.8239,25.0315,23.4656,-16.4525,29.0269,7.12502,9.76359,58.7805,-7.048,13.7761,14.3144,26.3761,-23.2447,-27.2049,0.303284,-6.27856,-10.6355,-20.7477,22.7862,-15.817,12.6905,-3.77127
-1.3261,18.7104,0.811448,-0.752556,-41.6042,3.43027,2.29729,0.541332,-1.96066,0.524276,0.647981,-1.96087,-0.749696,0.322002,-0.928547,-11.9087,0.230365,-4.82487,18.1937,-0.254593,7.38996,7.55785,0.204636,3.2103,8.94531e-16,1.82882e-14,-36.1841,9.25186,-86.4469,38.0209,-32.8516,-22.631,-13.0335,7.12502,3.79941,-42.9794,8.94531e-16,1.82882e-14,-22.1754,4.10751,79.8186,25.408,25.0205,-15.871,30.3107,7.12502,10.3246,60.0372,-6.95784,13.5134,14.1702,26.5874,-23.4621,-27.3975,0.214854,-6.24454,-10.5517,-20.932,22.7392,-15.4716,12.1935,-4.12684
-1.31423,18.7091,0.813182,-0.932064,-41.1306,3.572,2.33882,0.584912,-2.04793,0.513633,0.701953,-1.97726,-0.784617,0.349269,-0.898658,-11.8015,0.263124,-4.79146,18.147,-0.248059,7.54505,7.52258,0.222375,3.25484,5.31004e-14,-5.96354e-15,-35.7276,9.42093,-86.5731,37.95,-35.2685,-23.1984,-13.7188,7.12502,3.2515,-43.6737,5.31004e-14,-5.96354e-15,-21.7216,4.1149,79.8892,25.6765,26.4627,-15.9921,31.0654,7.12502,10.2078,60.7978,-6.88943,13.341,14.0657,26.8097,-23.7193,-27.6229,0.230447,-6.20003,-10.6644,-21.0859,22.6911,-15.3722,12.053,-6.51171
-1.29787,18.7078,0.814685,-1.03295,-40.6024,3.68353,2.37557,0.648765,-2.05099,0.495398,0.784507,-2.02882,-0.823169,0.390675,-0.952927,-11.8513,0.24028,-4.63311,18.1973,-0.336768,7.66763,7.55423,0.203407,3.26198,-1.67476e-14,-2.10712e-14,-35.2498,9.43404,-86.7083,37.9724,-38.0319,-23.4934,-14.1364,7.12502,2.96662,-44.0955,-1.67476e-14,-2.10712e-14,-21.1592,4.40968,79.939,25.941,27.4858,-15.7739,32.2214,7.12502,10.4183,61.9433,-6.90398,13.0528,13.9595,27.0439,-23.8337,-27.8353,0.232901,-6.24219,-10.7649,-21.2067,22.6313,-15.1783,11.55,-4.60798
-1.28158,18.7019,0.818049,-1.2464,-40.0208,3.94549,2.36219,0.684213,-2.1767,0.522811,0.82879,-2.09339,-0.788347,0.412507,-0.949755,-11.9857,0.19473,-4.55944,18.2469,-0.444417,7.82816,7.60222,0.175036,3.29511,-6.61953e-14,-3.1408e-14,-34.6802,9.54796,-86.8486,38.0682,-41.2201,-24.0257,-14.5131,7.12502,2.45254,-44.4788,-6.61953e-14,-3.1408e-14,-20.5996,4.78123,80.0066,26.4,28.5368,-15.3667,33.9152,7.12502,10.8111,63.6169,-6.85893,12.7984,13.7347,27.2782,-23.9957,-28.1366,-0.0552676,-6.29432,-10.9461,-21.4553,22.5996,-15.0642,11.2176,-5.05238
-1.26712,18.6942,0.820628,-1.38459,-39.4284,4.02699,2.33817,0.686915,-2.21299,0.582401,0.834445,-2.07678,-0.71457,0.414819,-0.911754,-11.969,0.175018,-4.74047,18.1072,-0.494752,8.17402,7.5569,0.169851,3.43313,-3.54334e-14,-2.38542e-14,-33.9969,9.7489,-86.9261,38.0692,-43.958,-24.2099,-14.9756,7.12502,2.27462,-44.9432,-3.54334e-14,-2.38542e-14,-19.9608,5.12361,80.0596,26.8198,29.4384,-15.8417,34.0427,7.12502,10.3528,63.7678,-6.75331,12.5206,13.6737,27.5154,-24.3386,-28.4036,-0.272149,-6.29951,-11.1079,-21.5566,22.5974,-14.9619,10.8285,-5.61283
-1.25038,18.6948,0.815275,-1.39188,-38.7621,4.04599,2.31002,0.659826,-2.22148,0.596854,0.800091,-2.05718,-0.684365,0.397563,-0.885393,-12.0189,0.171075,-4.90409,18.1003,-0.538118,8.54531,7.56674,0.173249,3.58118,-1.06101e-14,2.8625e-14,-33.3212,9.94667,-87.0213,38.0869,-46.3715,-24.2919,-15.1877,7.12502,2.19546,-45.1562,-1.06101e-14,2.8625e-14,-19.2939,5.226,80.1114,27.2064,30.5456,-18.8823,29.6081,7.12502,7.41876,59.458,-6.77331,12.2172,13.6572,27.7749,-24.7106,-28.6418,-0.264954,-6.43284,-10.9855,-21.5572,22.6025,-14.6333,10.0977,-5.08846
-1.23532,18.6955,0.822491,-1.51336,-38.3933,4.26232,2.10332,0.745006,-2.31722,0.609504,0.919709,-2.07069,-0.557004,0.456596,-0.846037,-12.0608,0.149436,-4.87768,18.1382,-0.589314,8.62344,7.59068,0.159314,3.59928,1.56294e-14,9.93923e-16,-32.6645,10.1249,-87.0757,38.0838,-48.6977,-24.7413,-15.254,7.12502,1.76146,-45.2265,1.56294e-14,9.93923e-16,-18.7141,5.09935,80.3428,27.528,32.4574,-17.0462,33.4552,7.12502,9.19078,63.2349,-6.86402,11.9078,13.3988,28.0186,-24.6446,-28.6884,-0.56486,-6.52431,-10.8533,-21.7876,22.6365,-14.394,9.66373,-4.73861
-1.21863,18.6946,0.811771,-1.61256,-37.7658,4.38816,2.17892,0.799238,-2.48407,0.584174,0.98503,-2.03295,-0.628912,0.489992,-0.717169,-12.0512,0.0513711,-4.77663,18.1073,-0.730052,8.5599,7.58954,0.093439,3.54641,-8.39492e-14,1.74931e-14,-31.9633,10.0844,-86.9869,38.0641,-50.4152,-24.949,-15.6534,7.12502,1.56086,-45.6275,-8.39492e-14,1.74931e-14,-17.899,4.98399,80.6209,27.5839,34.3588,-19.6502,28.9515,7.12502,6.67747,58.8262,-6.87339,11.6117,13.2909,28.2627,-24.9237,-28.869,-0.216618,-6.67671,-10.634,-21.8622,22.6834,-14.222,9.079,-6.93517
-1.20533,18.6925,0.818078,-1.78972,-37.4468,4.48113,2.13894,0.975365,-2.47167,0.645427,1.22315,-2.06881,-0.54407,0.608042,-0.765963,-12.1601,-0.0626525,-4.74747,18.1184,-0.926208,8.73995,7.62819,0.0212943,3.58393,8.3589e-14,1.33186e-14,-31.1727,10.004,-86.937,38.0499,-51.6567,-24.8803,-16.2825,7.12502,1.6272,-46.2561,8.3589e-14,1.33186e-14,-16.7855,4.82691,80.7841,27.4317,35.6949,-20.1224,28.424,7.12502,6.22165,58.3126,-6.81487,11.4447,13.1844,28.5146,-25.1267,-28.953,-0.180946,-6.59339,-10.7661,-22.0202,22.6984,-14.0585,8.77738,-4.85782
-1.18811,18.6893,0.815165,-1.85379,-37.0341,4.50863,2.11892,1.06774,-2.46009,0.657178,1.34787,-2.06819,-0.521163,0.670237,-0.774552,-12.2172,-0.128898,-4.84402,18.1343,-1.0594,9.05115,7.65517,-0.018563,3.6926,3.47873e-15,-3.57812e-15,-30.2716,10.0541,-86.9333,37.9602,-52.5623,-25.0643,-16.9034,7.12502,1.44944,-46.8782,3.47873e-15,-3.57812e-15,-15.8797,4.75415,80.9363,27.4334,36.8464,-20.7444,27.5706,7.12502,5.62113,57.476,-6.84902,11.2265,13.136,28.7566,-25.1406,-29.1465,-0.505279,-6.64154,-10.9461,-22.0681,22.7202,-14.0205,8.45436,-3.79526
-1.16976,18.6859,0.814719,-1.90013,-36.5721,4.48275,2.07574,1.10052,-2.38347,0.648468,1.39566,-2.01331,-0.505678,0.694331,-0.76156,-12.2323,-0.162511,-5.03509,18.2336,-1.1276,9.32275,7.69714,-0.0377945,3.81234,6.92019e-14,9.34288e-15,-29.4139,10.367,-86.9658,37.9885,-53.3653,-26.0532,-17.7116,7.12502,0.494325,-47.6908,6.92019e-14,9.34288e-15,-15.1948,4.89621,81.1303,27.5403,37.8713,-20.8363,26.7041,7.12502,5.53241,56.6119,-6.83361,10.9724,13.1345,28.973,-25.2384,-29.2945,-0.638083,-6.6869,-11.0408,-22.0729,22.7779,-13.986,7.999,-3.01872
-1.1513,18.6822,0.820602,-1.95962,-36.1143,4.36723,2.05635,1.14982,-2.18358,0.663087,1.46783,-1.95203,-0.47677,0.730533,-0.811679,-12.3566,-0.182057,-5.00821,18.4499,-1.18774,9.40131,7.79592,-0.0521392,3.83489,-1.20029e-13,-6.55989e-15,-28.5577,10.7445,-86.9791,38.0319,-53.5882,-26.8372,-18.4736,7.12502,-0.262862,-48.4532,-1.20029e-13,-6.55989e-15,-14.4507,4.76612,81.3021,27.7022,39.0426,-20.7545,26.2629,7.12502,5.61138,56.1686,-6.73435,10.6245,13.2068,29.1862,-25.1104,-29.4787,-1.27235,-6.6897,-11.1623,-22.0372,22.9047,-14.101,7.64362,-3.05016
-1.13337,18.6805,0.819547,-2.0516,-35.6136,4.35097,2.07716,1.18602,-2.15921,0.697902,1.51756,-1.89596,-0.453735,0.755273,-0.76909,-12.6217,-0.225416,-4.94483,18.6944,-1.28529,9.47387,7.93308,-0.0782726,3.8476,-5.46658e-16,3.24019e-14,-27.5091,11.1913,-86.9497,37.9867,-53.2883,-27.1628,-19.717,7.12502,-0.577287,-49.6959,-5.46658e-16,3.24019e-14,-13.523,4.58304,81.4428,27.8342,40.146,-21.1343,25.9225,7.12502,5.24466,55.8376,-6.68263,10.2227,13.1893,29.423,-24.9966,-29.6309,-1.68056,-6.77084,-11.191,-22.0682,23.0733,-14.0714,7.20279,-3.10322
-1.11745,18.6812,0.823706,-2.10739,-35.29,4.34306,1.98136,1.28677,-2.09577,0.686652,1.65704,-1.84951,-0.411565,0.825046,-0.758233,-12.7978,-0.303396,-4.92853,18.9997,-1.44177,9.60107,8.07999,-0.131955,3.88148,-9.35655e-14,1.88845e-14,-26.7045,11.9495,-86.9722,38.2147,-53.1012,-27.1786,-20.808,7.12502,-0.5926,-50.7869,-9.35655e-14,1.88845e-14,-12.6253,4.43329,81.6085,27.9781,41.1575,-22.046,26.1053,7.12502,4.36433,56.0403,-6.71814,9.9839,13.1328,29.6969,-25.0522,-29.6312,-1.67815,-6.82338,-11.166,-22.1439,23.2264,-13.8462,6.94722,-2.17193
-1.10011,18.6818,0.819303,-2.20669,-34.8285,4.35901,1.98813,1.34574,-2.09467,0.653488,1.73527,-1.79953,-0.451026,0.864654,-0.710246,-12.894,-0.369699,-4.88815,19.3659,-1.58021,9.65396,8.23117,-0.183422,3.88863,-3.0824e-14,3.10104e-14,-26.1154,12.92,-87.0064,38.7093,-52.7696,-27.5069,-21.5811,7.12502,-0.909654,-51.5589,-3.0824e-14,3.10104e-14,-11.7167,4.21183,81.771,28.1023,42.2282,-22.6999,26.3906,7.12502,3.73286,56.3376,-6.70506,9.70724,13.0784,30.0107,-25.3201,-29.5449,-1.3463,-6.88354,-11.1974,-22.2073,23.3722,-13.6413,6.62093,-1.8063
-1.08066,18.6826,0.817104,-2.44197,-34.3504,4.54884,1.97882,1.37929,-2.17648,0.677848,1.77895,-1.83846,-0.422218,0.886115,-0.704838,-13.0374,-0.398372,-4.77073,19.758,-1.6819,9.69251,8.39711,-0.211381,3.8827,-2.91033e-14,1.02374e-14,-25.2004,13.8971,-87.0384,38.8889,-51.9324,-28.3017,-21.6999,7.12502,-1.67727,-51.673,-2.91033e-14,1.02374e-14,-10.7189,3.82853,81.7952,28.384,43.4805,-22.2415,27.2018,7.12502,4.17555,57.1406,-6.67751,9.33038,12.8493,30.358,-25.4832,-29.4346,-1.22977,-6.91127,-11.1532,-22.4322,23.5098,-13.4876,6.22443,-2.31379
-1.06079,18.6813,0.815062,-2.49141,-33.9054,4.56116,1.90723,1.40082,-2.15137,0.640642,1.81051,-1.78653,-0.421281,0.902246,-0.665112,-13.124,-0.446924,-4.825,20.1747,-1.79099,9.79137,8.56344,-0.250588,3.92652,2.65719e-14,-5.96354e-16,-24.1553,14.9521,-86.94,38.8728,-50.6794,-27.8835,-21.3788,7.12502,-1.27343,-51.3547,2.65719e-14,-5.96354e-16,-9.88898,3.52795,81.8957,28.9364,44.9589,-22.6201,28.6083,7.12502,3.80996,58.554,-6.81282,8.96012,12.7753,30.7568,-25.3614,-29.556,-1.61227,-7.01924,-10.9716,-22.4635,23.5745,-13.2645,5.67278,-2.52661
-1.04032,18.6787,0.810745,-2.50834,-33.5342,4.50327,1.8455,1.44704,-2.07966,0.567717,1.87484,-1.71103,-0.461942,0.935219,-0.628881,-13.1987,-0.507872,-4.75937,20.7297,-1.92887,9.76162,8.77639,-0.305807,3.90599,-6.50368e-14,-8.94531e-16,-23.125,16.1014,-86.797,38.9945,-49.5096,-26.7035,-22.0707,7.12502,-0.133682,-52.0504,-6.50368e-14,-8.94531e-16,-9.17155,3.27471,82.0424,29.4113,46.4802,-23.475,28.5821,7.12502,2.98438,58.541,-6.97829,8.69623,12.772,31.1929,-25.1547,-29.6832,-1.85858,-7.09986,-10.7487,-22.4205,23.5962,-13.0692,5.12936,-2.28252
-1.02233,18.6754,0.809629,-2.71339,-33.2793,4.69618,1.74711,1.52482,-2.22103,0.539781,1.97881,-1.6998,-0.441083,0.987182,-0.53849,-13.2811,-0.563251,-4.6833,21.2915,-2.07157,9.76939,8.99541,-0.358132,3.89637,-6.35583e-14,4.96962e-17,-22.0141,17.3025,-86.5984,39.2345,-48.3408,-26.68,-22.6391,7.12502,-0.111015,-52.6188,-6.35583e-14,4.96962e-17,-8.33599,3.15898,82.0861,29.7365,47.7823,-23.449,27.6544,7.12502,3.00945,57.6129,-7.10466,8.6196,12.5413,31.6411,-25.0602,-29.7137,-2.07603,-7.08957,-10.6472,-22.6505,23.6495,-12.9584,4.84602,-2.08745
-1.00392,18.6726,0.80896,-2.94488,-33.0662,4.87599,1.67162,1.5931,-2.32527,0.542044,2.07092,-1.69046,-0.401156,1.03293,-0.470463,-13.4284,-0.587511,-4.60807,21.885,-2.17341,9.7821,9.23608,-0.388388,3.89499,2.63747e-14,-7.10655e-15,-20.8526,18.5239,-86.304,39.5447,-47.161,-27.044,-21.6287,7.12502,-0.46255,-51.6079,2.63747e-14,-7.10655e-15,-7.4654,3.0002,82.0273,30.1871,48.9467,-23.3174,27.4064,7.12502,3.13653,57.3631,-7.21401,8.61348,12.3272,32.1231,-25.1292,-29.7363,-2.27312,-7.02484,-10.7431,-22.9029,23.7024,-12.8926,4.83989,-2.27566
-0.984168,18.6673,0.809154,-3.1077,-32.814,4.86476,1.63269,1.63958,-2.15187,0.550515,2.13745,-1.7172,-0.363947,1.06608,-0.594549,-13.484,-0.590577,-4.42649,22.4054,-2.26996,9.79886,9.43487,-0.409632,3.87444,-8.5774e-14,4.37326e-15,-19.6429,19.6762,-86.0243,40.0446,-46.3236,-26.933,-21.2976,7.12502,-0.355404,-51.2771,-8.5774e-14,4.37326e-15,-6.48458,2.65038,81.8344,30.5511,50.1436,-23.115,27.3786,7.12502,3.33201,57.3323,-7.26673,8.60029,12.3063,32.6394,-24.975,-29.8628,-2.8131,-6.9115,-10.8165,-22.9793,23.7409,-12.8554,4.71972,-2.31399
-0.964017,18.6628,0.813781,-3.3057,-32.5662,4.95574,1.4913,1.69135,-2.07778,0.555611,2.21289,-1.71984,-0.277078,1.10343,-0.635344,-13.4226,-0.627799,-4.38517,22.9168,-2.39304,9.84912,9.61305,-0.454193,3.88585,-2.045e-14,-1.26974e-14,-18.4055,20.972,-85.5896,40.6906,-45.8313,-26.7308,-22.1527,7.12502,-0.160066,-52.1324,-2.045e-14,-1.26974e-14,-5.463,2.67533,81.7566,30.8514,51.1414,-22.526,27.5035,7.12502,3.90083,57.4476,-7.34412,8.52014,12.1476,33.1912,-24.8464,-29.8436,-3.44195,-6.80753,-10.6421,-23.1473,23.7687,-12.7398,4.38746,-2.9237
-0.943753,18.6607,0.815709,-3.46682,-32.4378,5.00398,1.39527,1.77278,-2.01569,0.535229,2.32561,-1.67525,-0.244055,1.15987,-0.623532,-13.4348,-0.671237,-4.3622,23.4809,-2.51424,9.86059,9.82507,-0.500792,3.88949,1.32619e-14,-5.67779e-15,-17.0458,22.2757,-84.9869,41.1274,-45.0719,-26.333,-22.5138,7.12502,0.224109,-52.4934,1.32619e-14,-5.67779e-15,-4.55438,2.75771,81.7317,31.3496,52.1097,-22.4451,27.6898,7.12502,3.97893,57.6324,-7.49336,8.52589,12.0064,33.7579,-24.8515,-29.6797,-3.64249,-6.72976,-10.4079,-23.2648,23.7881,-12.6077,4.14281,-3.77563
-0.922016,18.661,0.812272,-3.63107,-32.3336,5.04643,1.38963,1.83899,-1.96627,0.52228,2.4149,-1.62787,-0.254525,1.20478,-0.604232,-13.5155,-0.66933,-4.31667,24.0309,-2.57734,9.88412,10.0424,-0.515229,3.90115,7.97551e-14,-2.55066e-14,-15.5337,23.4978,-84.2458,41.4061,-44.1328,-25.3327,-21.4653,7.12502,1.19028,-51.4417,7.97551e-14,-2.55066e-14,-3.57145,2.78944,81.6325,31.8794,53.1155,-22.3409,28.0815,7.12502,4.0796,58.0222,-7.68973,8.59987,11.8924,34.3405,-24.6371,-29.6553,-4.16798,-6.66388,-10.2559,-23.3644,23.8016,-12.478,3.99779,-3.88385
-0.899554,18.6597,0.809906,-3.86787,-32.1549,5.13521,1.41313,1.868,-1.95112,0.53618,2.45357,-1.60814,-0.253834,1.22411,-0.593719,-13.514,-0.648991,-4.20984,24.4925,-2.61854,9.88495,10.211,-0.519442,3.89333,2.60387e-14,1.16041e-14,-13.953,24.4653,-83.4377,41.7216,-43.1388,-23.9684,-19.5997,7.12502,2.50792,-49.5647,2.60387e-14,1.16041e-14,-2.6111,2.69043,81.4044,32.5789,54.434,-22.0563,28.4308,7.12502,4.3544,58.366,-7.81889,8.54524,11.7424,34.9043,-24.3216,-29.7108,-4.98011,-6.53776,-10.2473,-23.5353,23.8417,-12.4268,3.89998,-3.60872
-0.878149,18.6555,0.809613,-4.04242,-32.0798,5.13405,1.41727,1.92333,-1.88951,0.509939,2.52826,-1.51386,-0.284938,1.26191,-0.533712,-13.2692,-0.653757,-4.19358,24.8348,-2.65216,9.82596,10.2885,-0.542902,3.87447,-2.96211e-14,-8.24956e-15,-12.4349,25.471,-82.52,42.2661,-42.6537,-23.6232,-19.254,7.12502,2.84125,-49.2148,-2.96211e-14,-8.24956e-15,-1.69665,2.51103,81.1899,33.2863,55.7586,-22.1024,28.6962,7.12502,4.30987,58.6323,-7.96118,8.55457,11.6618,35.4421,-24.1942,-29.5567,-5.45022,-6.4246,-10.3456,-23.6325,23.9095,-12.4684,3.93504,-3.44351
-0.859627,18.6517,0.811653,-4.24144,-32.1022,5.06502,1.44764,1.98954,-1.76578,0.469395,2.61762,-1.38833,-0.344225,1.3073,-0.478078,-12.936,-0.634022,-4.19041,25.1989,-2.65368,9.77256,10.3541,-0.554536,3.86399,-2.45249e-14,4.17448e-15,-10.9483,26.5064,-81.5669,42.9738,-42.7634,-24.0098,-20.0578,7.12502,2.46787,-50.0232,-2.45249e-14,4.17448e-15,-0.742829,2.34563,80.9777,33.7769,56.9458,-22.132,28.9705,7.12502,4.28126,58.9073,-8.01894,8.70012,11.6568,35.9653,-24.2813,-29.1722,-5.10321,-6.23839,-10.3145,-23.6695,24.0115,-12.5211,3.94458,-3.21049
-0.839673,18.6485,0.812587,-4.38501,-32.0333,5.07538,1.39623,2.02525,-1.67292,0.447619,2.66827,-1.31471,-0.33727,1.33284,-0.454012,-12.7683,-0.617103,-4.08757,25.5642,-2.66807,9.6786,10.4534,-0.562654,3.82116,-7.45443e-17,-1.38155e-14,-9.28949,27.2975,-80.5102,43.7017,-43.0216,-23.9886,-20.4224,7.12502,2.48838,-50.3877,-7.45443e-17,-1.38155e-14,0.264366,2.1357,80.7507,34.3484,58.3427,-21.7066,28.8854,7.12502,4.69207,58.8135,-8.18676,8.72901,11.554,36.5014,-24.2218,-28.7677,-5.1568,-6.205,-10.0822,-23.7372,24.1321,-12.5135,3.6745,-3.13073
-0.817597,18.6435,0.809967,-4.53224,-31.8825,5.20303,1.34766,2.0517,-1.66528,0.414473,2.70451,-1.2996,-0.344557,1.35117,-0.442341,-12.5146,-0.63501,-3.98131,25.7474,-2.72545,9.6125,10.4732,-0.590994,3.77546,3.22016e-14,-6.36111e-15,-7.55912,27.8472,-79.3816,44.4031,-43.3298,-24.0186,-20.1808,7.12502,2.45942,-50.1463,3.22016e-14,-6.36111e-15,1.21716,1.98108,80.4971,35.0773,59.6984,-21.1608,28.9075,7.12502,5.21907,58.8232,-8.43855,8.65312,11.3308,37.0457,-23.5435,-28.8213,-6.46383,-6.26749,-9.84203,-23.8941,24.2491,-12.439,3.31487,-3.10453
-0.797125,18.6383,0.808366,-4.70287,-31.7869,5.30059,1.28562,2.07,-1.64411,0.412723,2.73111,-1.27024,-0.312191,1.36439,-0.422143,-12.2136,-0.614642,-3.94206,25.8999,-2.74289,9.66552,10.4711,-0.595711,3.78869,5.94615e-14,1.98785e-15,-5.58876,28.2501,-78.228,44.7833,-43.6276,-23.9699,-19.5895,7.12502,2.50643,-49.5546,5.94615e-14,1.98785e-15,2.2512,1.75024,80.0874,35.8082,61.2085,-21.0204,29.3698,7.12502,5.3547,59.2822,-8.62471,8.6444,11.1445,37.5559,-22.9271,-29.1737,-7.22624,-6.27555,-9.64911,-24.0479,24.4153,-12.4031,3.04037,-3.4411
-0.777506,18.6351,0.806357,-4.77117,-31.7848,5.15873,1.26108,2.10113,-1.38382,0.44927,2.77789,-1.20202,-0.252308,1.38772,-0.496266,-12.1723,-0.567106,-3.87849,26.1787,-2.74247,9.75315,10.5663,-0.577575,3.81926,6.39248e-14,-5.36719e-15,-3.17787,28.3507,-77.1092,44.6196,-44.0252,-23.4244,-18.9805,7.12502,3.0332,-48.9386,6.39248e-14,-5.36719e-15,3.47771,1.50843,79.5891,36.4467,62.6485,-21.4655,30.0074,7.12502,4.92487,59.9302,-8.79287,8.72702,11.2009,38.044,-22.6876,-29.4086,-6.76908,-6.26903,-9.53275,-23.9782,24.6133,-12.414,2.87366,-3.10803
-0.761723,18.6308,0.80199,-4.82191,-31.8752,4.65803,1.44699,2.16986,-0.853505,0.511584,2.8751,-1.04349,-0.274845,1.43685,-0.63748,-12.1203,-0.540454,-3.78048,26.4657,-2.77342,9.81082,10.6649,-0.5738,3.82935,-7.34571e-15,-3.18055e-15,-1.31947,28.4228,-75.9617,45.3578,-44.8151,-23.1811,-19.1157,7.12502,3.26816,-49.0704,-7.34571e-15,-3.18055e-15,4.66861,1.33179,79.1311,37.1293,63.9426,-22.788,30.8835,7.12502,3.64781,60.832,-8.79169,8.97082,11.6812,38.5632,-22.5763,-29.4234,-6.52634,-6.03489,-9.27772,-23.5603,24.7159,-12.4083,2.73585,-3.5484
-0.749737,18.6259,0.79344,-4.97401,-31.9899,4.44586,1.56541,2.20904,-0.711321,0.54841,2.92904,-0.881854,-0.304505,1.46394,-0.556698,-11.8645,-0.453256,-3.7317,26.6759,-2.69424,9.83821,10.6847,-0.534205,3.84621,-9.30561e-15,-3.97569e-16,0.643093,28.5267,-74.7752,45.9972,-45.8338,-23.0978,-19.4413,7.12502,3.34862,-49.3948,-9.30561e-15,-3.97569e-16,5.64527,1.19888,78.6361,37.968,65.3012,-23.6522,32.0453,7.12502,2.81328,62.0065,-8.8682,9.35497,11.9109,39.1038,-22.581,-29.2173,-6.91864,-5.81176,-9.09548,-23.3883,24.7176,-12.3654,2.65175,-3.64453
-0.733012,18.62,0.787356,-5.42771,-31.8261,5.33697,1.44376,2.15356,-1.51748,0.492788,2.84375,-0.96569,-0.328591,1.42079,-0.188129,-11.5668,-0.341017,-3.67177,26.8587,-2.55359,9.77312,10.6792,-0.477224,3.83301,-4.5354e-14,3.37934e-15,2.63378,28.5919,-73.617,46.6138,-46.9908,-23.0446,-19.3573,7.12502,3.39999,-49.3099,-4.5354e-14,3.37934e-15,6.56812,1.22791,78.1357,38.7365,66.5611,-23.3085,32.5262,7.12502,3.14515,62.4828,-9.23599,9.40739,10.9371,39.68,-22.6946,-28.7917,-7.06059,-5.84924,-9.10017,-24.2709,24.6259,-12.23,2.57254,-3.43781
-0.711938,18.6158,0.792972,-5.89262,-31.6284,6.01861,1.36732,2.09271,-1.98546,0.508806,2.75774,-1.03277,-0.287388,1.37704,0.00904295,-11.3247,-0.294367,-3.69587,27.0151,-2.50162,9.77117,10.6843,-0.461073,3.84645,5.684e-14,-9.93923e-15,4.47883,28.4541,-72.5136,47.4861,-48.0486,-23.5216,-19.3503,7.12502,2.93935,-49.3098,5.684e-14,-9.93923e-15,7.54649,1.15879,77.5785,39.5244,67.7655,-22.7419,31.5707,7.12502,3.69236,61.5185,-9.41048,9.23436,10.1275,40.2221,-22.4628,-28.6152,-7.0904,-5.7035,-9.26825,-25.0386,24.5659,-12.1767,2.59763,-3.02276
-0.693341,18.6127,0.79886,-6.14084,-31.5031,6.19922,1.37894,2.06727,-1.97894,0.528177,2.72396,-1.03744,-0.273025,1.35997,0.0012669,-11.1345,-0.287521,-3.64072,27.1716,-2.53602,9.80901,10.7074,-0.470678,3.85057,-3.30542e-14,-7.95139e-15,6.09723,27.9236,-71.6254,48.5482,-48.9373,-24.0316,-19.7332,7.12502,2.44684,-49.6989,-3.30542e-14,-7.95139e-15,8.52856,0.866667,76.9086,40.4301,69.1093,-22.7864,30.4752,7.12502,3.64936,60.4237,-9.51519,9.07666,9.84244,40.7016,-21.9784,-28.7064,-7.53662,-5.55165,-9.3736,-25.3209,24.5813,-12.2002,2.61611,-2.8885
-0.676919,18.6138,0.782976,-5.72513,-31.5596,5.67159,1.38997,2.09065,-1.45385,0.364058,2.76065,-0.903756,-0.429666,1.38031,-0.159793,-10.9282,-0.265621,-3.44083,27.3833,-2.57962,9.81772,10.7478,-0.472769,3.81924,3.93842e-15,6.75868e-15,7.74801,27.3345,-70.8183,49.3231,-50.2431,-24.3826,-19.6823,7.12502,2.10785,-49.6516,3.93842e-15,6.75868e-15,9.45346,0.581859,76.2252,41.3486,70.4238,-22.7037,30.3033,7.12502,3.72919,60.2504,-10.0258,9.24386,10.3183,41.0895,-21.472,-29.0246,-8.012,-5.86292,-9.21547,-24.7552,24.6287,-12.0919,2.44114,-2.956
-0.663079,18.6108,0.766258,-5.29194,-31.8029,4.94855,1.41798,2.17476,-0.785015,0.263426,2.88282,-0.69492,-0.527154,1.44168,-0.325122,-10.6844,-0.264087,-3.24522,27.5195,-2.62574,9.76351,10.7517,-0.485086,3.76195,8.2682e-14,-1.11319e-14,9.64918,26.7473,-69.9028,49.7737,-52.0929,-24.536,-19.3585,7.12502,1.95965,-49.3293,8.2682e-14,-1.11319e-14,10.3887,0.371028,75.592,42.3753,71.6403,-22.788,30.5183,7.12502,3.64786,60.4668,-10.4406,9.68865,11.0367,41.4242,-21.1243,-29.3466,-8.20972,-6.09764,-8.94673,-23.9938,24.7023,-12.1289,2.30054,-3.27193
-0.653687,18.603,0.776135,-5.82854,-31.7968,5.41208,1.44641,2.20942,-1.10006,0.37469,2.92456,-0.738038,-0.442682,1.46231,-0.192819,-10.4392,-0.274549,-3.11726,27.574,-2.6708,9.73032,10.7253,-0.502365,3.72154,6.8208e-15,2.78299e-15,11.5521,26.1043,-69.0088,50.2402,-54.055,-24.5989,-19.2647,7.12502,1.89893,-49.236,6.8208e-15,2.78299e-15,11.3768,0.286484,74.9987,43.4265,72.7665,-23.1421,30.9684,7.12502,3.30585,60.9225,-10.282,9.70078,10.5432,41.7489,-21.0133,-29.0495,-8.72617,-5.79674,-8.68646,-24.5105,24.7677,-12.2757,2.15044,-3.87125
-0.643774,18.6015,0.787775,-6.26175,-31.6593,6.00664,1.33571,2.18636,-1.52334,0.461978,2.89042,-0.835237,-0.307057,1.4443,-0.0487604,-10.4253,-0.253388,-2.96401,27.7404,-2.69534,9.73802,10.7864,-0.495289,3.70042,1.78285e-14,7.95139e-16,13.3773,25.5006,-68.1555,50.9702,-56.5016,-25.2338,-19.4925,7.12502,1.28572,-49.4684,1.78285e-14,7.95139e-16,12.4864,0.288567,74.3518,44.4061,73.907,-23.3339,31.3329,7.12502,3.12061,61.2898,-10.2611,9.54737,9.86028,42.0293,-21.0511,-28.4544,-9.4001,-5.59635,-8.41888,-25.1335,24.7044,-12.0852,1.83961,-3.17099
-0.632805,18.6035,0.790614,-6.33909,-31.6741,6.12828,1.26252,2.1914,-1.51815,0.464104,2.89889,-0.847284,-0.263123,1.44832,-0.060916,-10.3766,-0.235811,-2.87215,27.9079,-2.76003,9.90898,10.8472,-0.495583,3.74563,7.61594e-14,-4.37326e-15,14.9733,24.7872,-67.4798,51.9744,-59.4195,-26.1909,-19.9736,7.12502,0.36138,-49.953,7.61594e-14,-4.37326e-15,13.4307,0.23133,73.6234,45.5451,75.201,-23.4346,31.1571,7.12502,3.02339,61.1154,-10.4149,9.57746,9.65553,42.255,-20.9039,-28.1295,-9.9932,-5.50441,-8.32437,-25.2718,24.5289,-11.8445,1.75221,-2.49737
-0.620298,18.6027,0.800824,-6.52272,-31.6599,6.26104,1.26647,2.19119,-1.45814,0.453462,2.89924,-0.835963,-0.273856,1.44866,-0.0832119,-10.1833,-0.256844,-2.87656,28.0661,-2.84791,10.0382,10.8772,-0.525373,3.78826,7.42958e-15,-1.59028e-15,16.3892,23.9609,-66.9575,53.0343,-62.4956,-27.0236,-20.6162,7.12502,-0.442876,-50.5955,7.42958e-15,-1.59028e-15,14.0803,0.112967,72.9463,47.0425,76.326,-23.7554,31.0928,7.12502,2.71363,61.0553,-10.3681,9.581,9.42177,42.4014,-20.7286,-27.7919,-9.94401,-5.32257,-8.42823,-25.4924,24.4522,-11.8457,1.87794,-2.41708
-0.607531,18.6029,0.809862,-6.61264,-31.5834,6.28627,1.31771,2.15133,-1.37149,0.3861,2.84579,-0.744194,-0.371449,1.42273,-0.0407719,-9.92678,-0.286164,-3.01165,28.2377,-2.91965,10.1614,10.8987,-0.563962,3.85402,-7.30782e-14,-2.78299e-15,17.6299,23.0915,-66.6017,54.2,-65.4911,-27.748,-21.1877,7.12502,-1.14257,-51.1644,-7.30782e-14,-2.78299e-15,14.5829,0.0593874,72.3567,48.7822,77.0964,-24.3862,31.7412,7.12502,2.10433,61.7105,-10.3083,9.53255,9.28531,42.4978,-20.7058,-27.4567,-9.69303,-5.21235,-8.42976,-25.5967,24.42,-11.8083,1.85207,-2.51378
-0.598527,18.604,0.812864,-6.54624,-31.5734,6.17253,1.3305,2.15389,-1.21399,0.316201,2.851,-0.639423,-0.447875,1.42594,-0.0239449,-9.71274,-0.284859,-3.05837,28.3767,-2.96443,10.2911,10.9142,-0.579193,3.90916,-6.36111e-15,-1.27222e-14,18.611,22.0278,-66.4064,55.6614,-68.3796,-28.2788,-21.41,7.12502,-1.65518,-51.3833,-6.36111e-15,-1.27222e-14,15.1341,0.0406745,71.8476,50.5808,77.7662,-24.8796,32.2374,7.12502,1.62781,62.2109,-10.3762,9.52871,9.3046,42.5834,-20.5451,-27.375,-10.0965,-5.19181,-8.33302,-25.5072,24.3367,-11.7253,1.74147,-2.70719
-0.59127,18.6028,0.814575,-6.46061,-31.682,6.03475,1.33233,2.18538,-1.04915,0.281942,2.8956,-0.5425,-0.48121,1.44842,-0.0185929,-9.71977,-0.276098,-3.02666,28.6184,-3.02975,10.4368,11.0157,-0.58598,3.96021,5.14355e-15,1.19271e-15,19.607,20.9402,-66.281,57.267,-71.3066,-28.9458,-21.6824,7.12502,-2.29932,-51.6498,5.14355e-15,1.19271e-15,15.6831,0.05466,71.2902,52.5636,78.3163,-25.2147,32.7359,7.12502,1.30424,62.7116,-10.4971,9.66874,9.36635,42.6563,-20.1163,-27.3124,-10.8075,-5.1798,-8.25641,-25.3601,24.256,-11.8599,1.64762,-2.47471
-0.584589,18.5998,0.815481,-6.39041,-31.8114,5.98215,1.39819,2.2274,-0.957302,0.197084,2.95155,-0.498805,-0.603036,1.47691,-0.0312832,-9.69104,-0.33175,-2.89175,28.803,-3.18758,10.5151,11.0952,-0.633496,3.95408,-5.807e-14,3.97569e-16,20.5333,19.725,-66.407,58.8116,-73.9643,-29.5884,-22.3527,7.12502,-2.91998,-52.3125,-5.807e-14,3.97569e-16,16.1037,0.013945,70.6566,54.8111,78.9298,-25.7102,33.6906,7.12502,0.825638,63.6687,-10.6016,9.89309,9.31713,42.7037,-20.0084,-26.731,-9.90581,-5.22542,-8.16365,-25.2824,24.1833,-12.108,1.56704,-2.30978
-0.578922,18.5989,0.817615,-6.32373,-31.903,5.94619,1.45846,2.2486,-0.88997,0.137346,2.97995,-0.451182,-0.697221,1.49142,-0.0249829,-9.68703,-0.396041,-2.79327,28.9512,-3.34934,10.6033,11.1669,-0.685161,3.95636,-9.59136e-15,7.95139e-16,21.3804,18.485,-66.6326,60.4975,-76.2677,-29.9365,-22.7536,7.12502,-3.25617,-52.7085,-9.59136e-15,7.95139e-16,16.4568,0.15746,70.1077,57.2658,79.9081,-26.0637,34.3648,7.12502,0.484234,64.344,-10.6494,10.0509,9.24029,42.7092,-20.0044,-26.0487,-8.93644,-5.24735,-8.07199,-25.2262,24.0571,-12.162,1.49288,-2.11703
-0.57229,18.6009,0.825927,-6.28095,-31.9829,5.95441,1.41238,2.26393,-0.792766,0.142122,3.00287,-0.416629,-0.663545,1.50261,-0.0421535,-9.69376,-0.422962,-2.75897,29.0206,-3.4564,10.769,11.2079,-0.71055,4.00277,-9.1267e-14,-9.14409e-15,22.1735,17.2227,-66.908,62.3491,-78.2513,-30.0325,-22.9072,7.12502,-3.34887,-52.8607,-9.1267e-14,-9.14409e-15,16.8049,0.323385,69.5792,59.8773,80.9012,-26.1102,34.6376,7.12502,0.439277,64.6169,-10.6906,10.0666,9.10143,42.6618,-19.6816,-25.6059,-8.97722,-5.22026,-8.04853,-25.2402,23.9126,-12.1061,1.46342,-1.80294
-0.566752,18.603,0.837005,-6.38127,-32.0266,6.15608,1.38829,2.26665,-0.886467,0.153005,3.00561,-0.389764,-0.645191,1.50418,0.0387146,-9.60541,-0.447006,-2.87667,29.0073,-3.54028,11.0136,11.1983,-0.737214,4.10489,-5.58585e-14,5.56597e-15,22.8633,15.9951,-67.2515,64.3044,-79.8627,-29.6921,-22.6633,7.12502,-3.02012,-52.6217,-5.58585e-14,5.56597e-15,17.0442,0.565693,69.1388,62.6036,81.6564,-26.0294,34.5755,7.12502,0.517397,64.5547,-10.6516,10.0813,8.75012,42.5661,-19.3145,-25.1001,-9.0593,-5.13234,-8.05368,-25.4724,23.7914,-12.071,1.51564,-1.98407
-0.56454,18.6072,0.84652,-6.40619,-32.0392,6.17635,1.4406,2.22679,-0.877274,0.141259,2.95243,-0.317023,-0.68946,1.47783,0.106331,-9.50946,-0.446155,-2.96268,29.0017,-3.58699,11.2263,11.186,-0.747586,4.19412,1.2424e-15,1.03368e-14,23.5246,14.8664,-67.7766,66.2234,-81.0175,-29.1134,-21.4318,7.12502,-2.46121,-51.3974,1.2424e-15,1.03368e-14,17.1741,0.977371,68.7668,65.3636,82.4801,-25.8496,33.9709,7.12502,0.690975,63.9495,-10.5132,10.1651,8.58774,42.4432,-19.3208,-24.4477,-8.12909,-5.01363,-8.06829,-25.5298,23.6781,-12.0603,1.54262,-2.13622
-0.562866,18.6126,0.85288,-6.29733,-32.0384,6.01566,1.42761,2.21148,-0.630321,0.18833,2.93648,-0.306396,-0.622024,1.46902,-0.0181796,-9.42517,-0.506698,-2.82639,28.7868,-3.72863,11.3809,11.1019,-0.787111,4.20081,-9.05961e-14,7.15625e-15,24.2729,13.5457,-68.5138,68.0456,-81.8217,-28.5417,-20.0971,7.12502,-1.90911,-50.0683,-9.05961e-14,7.15625e-15,17.5589,1.28844,68.3523,68.1548,83.4362,-25.3246,32.983,7.12502,1.19802,62.9594,-10.4191,10.1485,8.59774,42.3056,-19.3441,-23.7425,-6.86753,-4.96345,-8.10248,-25.3979,23.5755,-12.0189,1.59956,-2.53211
-0.560559,18.6129,0.854235,-6.21451,-31.9754,6.00777,1.35048,2.20232,-0.481057,0.254885,2.92708,-0.376326,-0.499569,1.46376,-0.167394,-9.3184,-0.629785,-2.68047,28.475,-3.94529,11.5206,10.9834,-0.864905,4.1869,-4.66895e-14,5.56597e-15,25.2367,12.1506,-69.35,69.7609,-82.546,-28.2543,-19.5225,7.12502,-1.63148,-49.496,-4.66895e-14,5.56597e-15,18.0169,1.45615,67.8775,71.1071,84.1472,-24.6642,32.0409,7.12502,1.83588,62.0127,-10.4041,10.0511,8.45501,42.1459,-18.9823,-23.0758,-6.84225,-5.02293,-8.24533,-25.395,23.5117,-11.9803,1.6697,-2.34535
-0.559179,18.61,0.857692,-6.22149,-31.9168,6.08507,1.40108,2.19565,-0.473321,0.274421,2.91792,-0.387734,-0.506902,1.45913,-0.184838,-9.28777,-0.74859,-2.77037,28.3528,-4.15604,11.7588,10.9575,-0.948516,4.26203,-1.24663e-13,-1.59028e-15,25.7778,10.9279,-70.0162,71.9605,-83.1146,-27.6419,-18.6538,7.12502,-1.04007,-48.631,-1.24663e-13,-1.59028e-15,18.2537,1.69674,67.564,74.1371,84.6012,-23.8049,31.4488,7.12502,2.66575,61.4119,-10.3031,9.97288,8.23123,41.9571,-18.5439,-22.2905,-7.34469,-5.05465,-8.17971,-25.46,23.4906,-11.9716,1.51611,-2.24648
-0.560503,18.61,0.864675,-6.18783,-31.9065,6.0611,1.63379,2.21825,-0.542053,0.138176,2.94541,-0.249744,-0.787348,1.47361,-0.0199464,-9.12179,-0.895369,-3.00343,28.3339,-4.387,11.9844,10.9473,-1.06046,4.35977,7.33267e-14,-3.97569e-15,25.6945,9.90532,-70.4424,74.5248,-83.3212,-26.3496,-17.1644,7.12502,0.208068,-47.1441,7.33267e-14,-3.97569e-15,18.1807,1.93961,67.5237,77.0584,84.5172,-22.7652,30.4616,7.12502,3.66987,60.4097,-10.1441,9.90988,8.08327,41.7401,-18.4406,-21.2063,-7.06706,-5.07744,-7.98719,-25.4175,23.5222,-11.9566,1.28097,-2.16637
-0.56572,18.6104,0.869351,-6.12286,-31.9243,5.98924,1.86443,2.24886,-0.622002,-0.034386,2.98355,-0.105738,-1.10508,1.49405,0.155922,-8.81938,-1.05094,-3.08296,28.2595,-4.62686,12.104,10.8854,-1.17822,4.38612,-1.49387e-13,-2.38542e-15,25.8834,8.93626,-71.0849,76.5479,-83.1741,-25.0176,-15.7344,7.12502,1.49455,-45.7089,-1.49387e-13,-2.38542e-15,18.1312,2.07285,67.4351,79.9967,84.2055,-21.7147,29.0017,7.12502,4.68422,58.9299,-9.97211,9.87772,8.01016,41.5178,-18.4341,-19.9826,-6.53598,-5.11282,-7.85796,-25.3158,23.5608,-11.9492,1.11899,-2.43845
-0.572355,18.6089,0.872687,-6.01223,-31.9011,5.81574,1.85199,2.25173,-0.417215,0.015506,2.99202,-0.108815,-1.03643,1.49704,0.0404052,-8.81093,-1.16665,-2.90455,28.1368,-4.86099,12.2467,10.8626,-1.2548,4.37473,5.75233e-14,0,26.5443,7.75314,-72.1398,78.2397,-82.9305,-24.032,-14.2053,7.12502,2.44649,-44.171,5.75233e-14,0,18.4948,2.19926,67.0932,83.0627,83.9638,-20.846,28.2682,7.12502,5.52304,58.1762,-9.76511,9.93668,8.05984,41.3115,-18.4386,-18.7051,-5.81297,-5.13867,-7.77913,-25.1184,23.5711,-11.9451,0.988728,-2.70206
-0.579163,18.6065,0.878034,-6.07745,-31.8253,5.90499,1.76569,2.23014,-0.324821,0.151069,2.96485,-0.217486,-0.838749,1.48264,-0.113839,-8.81933,-1.24218,-2.71083,27.9201,-5.00889,12.3335,10.7972,-1.29822,4.34562,1.86112e-14,-1.74931e-14,27.1581,6.69818,-73.1215,80.0045,-82.7295,-22.9345,-11.6839,7.12502,3.50632,-41.6348,1.86112e-14,-1.74931e-14,18.7333,2.44713,66.7174,85.9946,83.2683,-20.033,27.8092,7.12502,6.30791,57.6953,-9.55735,9.95355,7.84565,41.1636,-18.1946,-17.5237,-5.88571,-5.09352,-7.7104,-25.1909,23.5583,-11.9166,0.824569,-2.49254
-0.587732,18.6067,0.885208,-6.17949,-31.7734,5.99639,1.76438,2.17519,-0.333848,0.185222,2.89154,-0.212702,-0.803676,1.44599,-0.101161,-8.44317,-1.27763,-2.80492,27.5836,-5.04815,12.5098,10.6046,-1.33004,4.40854,4.8578e-14,-1.51076e-14,27.5052,6.00819,-73.9194,81.6766,-82.4,-20.5425,-8.22338,7.12502,5.81603,-38.1236,4.8578e-14,-1.51076e-14,18.6665,2.77533,66.4395,88.798,82.1208,-19.124,26.9015,7.12502,7.18545,56.7595,-9.30123,9.98896,7.6561,41.0757,-17.9482,-16.4496,-6.13601,-4.98749,-7.51419,-25.2661,23.5513,-11.9011,0.626456,-2.46572
-0.598635,18.6062,0.891228,-6.28495,-31.7811,6.06543,1.80213,2.12267,-0.473113,0.200708,2.8197,-0.0835651,-0.822081,1.41069,0.108855,-8.24139,-1.35757,-2.93282,27.5606,-5.11728,12.4368,10.5616,-1.39138,4.39483,5.4467e-14,-6.36111e-15,27.8056,5.40047,-74.6837,83.1955,-82.2822,-17.1686,-5.92111,7.12502,9.07261,-35.706,5.4467e-14,-6.36111e-15,18.5505,3.16635,66.3444,91.6676,80.9268,-18.2462,25.9147,7.12502,8.03268,55.742,-9.01502,10.1624,7.52474,41.0549,-18.0274,-15.4501,-5.93594,-4.86025,-7.26684,-25.2934,23.5147,-11.8958,0.385098,-2.35673
-0.611705,18.6041,0.895209,-6.33471,-31.8389,6.09108,1.88362,2.11748,-0.629606,0.166479,2.81021,0.0540993,-0.917124,1.40695,0.332636,-8.26586,-1.47925,-2.93497,27.8037,-5.28027,12.2645,10.6687,-1.47843,4.32224,1.23222e-13,3.18055e-15,27.9442,4.76451,-75.4555,84.9236,-81.8887,-15.0762,-5.47347,7.12502,11.0912,-35.1604,1.23222e-13,3.18055e-15,18.364,3.47771,66.3527,94.522,79.684,-17.2123,25.2826,7.12502,9.03051,55.0693,-8.78386,10.4274,7.47549,41.0948,-18.2402,-14.78,-5.59699,-4.79264,-7.1083,-25.2668,23.5014,-11.9074,0.266984,-2.42414
-0.626381,18.6023,0.89894,-6.33747,-31.946,6.01134,1.97541,2.20024,-0.582359,0.127475,2.92204,0.170311,-1.01338,1.46316,0.416942,-8.04998,-1.57299,-3.37895,27.7829,-5.47342,12.7667,10.6608,-1.56875,4.56722,1.72197e-14,4.77083e-15,28.0275,3.79314,-76.2236,86.3915,-82.6941,-11.6496,-4.71949,7.12502,14.3946,-34.2004,1.72197e-14,4.77083e-15,18.1919,3.58663,66.5049,97.3883,78.5625,-16.3531,25.1038,7.12502,9.85947,54.853,-8.57431,10.6653,7.58054,41.2028,-18.3382,-14.5237,-5.36891,-4.71828,-7.11607,-25.1563,23.5234,-11.989,0.280161,-2.39992
-0.643462,18.5991,0.899516,-6.36012,-32.0054,6.0047,2.04153,2.29912,-0.575061,0.096334,3.05427,0.230221,-1.08679,1.52956,0.466347,-7.86829,-1.70114,-3.73715,27.7792,-5.71651,13.1982,10.67,-1.67937,4.76638,-4.33848e-14,1.35174e-14,28.0661,2.96516,-76.8693,87.9324,-82.311,-8.68011,-4.27119,7.12502,17.2543,-33.5252,-4.33848e-14,1.35174e-14,18.035,3.48765,66.6802,100.225,77.6871,-15.8818,24.5078,7.12502,10.3141,54.2349,-8.37609,10.8533,7.64849,41.3803,-18.5534,-14.5747,-4.80898,-4.68245,-7.23479,-25.1216,23.5983,-12.1087,0.390964,-2.72006
-0.660774,18.5961,0.896882,-6.44329,-32.0007,6.11166,2.15877,2.27872,-0.825687,0.0258699,3.02075,0.275076,-1.23958,1.51494,0.645719,-7.91046,-1.78232,-3.49619,28.1101,-5.869,12.9761,10.8082,-1.73863,4.63619,2.66868e-14,3.97569e-15,28.0139,2.44217,-77.7,89.4258,-81.9541,-6.28043,-3.91278,7.12502,19.5628,-32.9486,2.66868e-14,3.97569e-15,17.689,3.55859,66.6707,102.925,77.2563,-15.3778,23.59,7.12502,10.8004,53.2923,-8.19122,10.9594,7.64063,41.6415,-18.8405,-15.0456,-3.99126,-4.66367,-7.23636,-25.1744,23.6546,-12.1669,0.421962,-2.92903
-0.67808,18.5935,0.892025,-6.3699,-31.9935,5.9867,2.07658,2.20901,-0.75135,0.0649989,2.93025,0.272889,-1.14797,1.46887,0.609653,-7.95792,-1.79931,-3.25863,28.2849,-5.96578,12.9595,10.8898,-1.75487,4.58336,-1.01728e-13,1.03368e-14,28.0642,2.01983,-78.6546,90.7488,-81.9196,-4.56472,-2.32215,7.12502,21.2116,-31.1816,-1.01728e-13,1.03368e-14,17.454,3.67053,66.5189,105.506,77.1962,-14.8137,22.6404,7.12502,11.3444,52.3136,-8.06262,10.9451,7.87913,41.9717,-18.8719,-15.9152,-3.48276,-4.66304,-7.15906,-24.9857,23.6639,-12.1641,0.323252,-2.9952
-0.696799,18.5912,0.889193,-6.4017,-31.9945,5.99775,2.097,2.2323,-0.777261,0.0657415,2.96046,0.266294,-1.16012,1.48412,0.615519,-7.97163,-1.86424,-3.34502,28.4175,-6.16724,13.2994,10.9803,-1.81696,4.71059,6.30644e-14,-1.27222e-14,27.961,1.52006,-79.3522,91.9199,-81.9962,-2.71264,-0.381193,7.12502,22.9897,-29.0302,6.30644e-14,-1.27222e-14,17.1619,3.4751,66.5706,108.02,76.9169,-14.2089,21.5781,7.12502,11.9277,51.2183,-7.9118,10.8562,7.99244,42.3472,-18.7182,-16.8578,-3.30413,-4.57707,-7.16382,-24.9494,23.624,-12.1558,0.359494,-3.26461
-0.717843,18.5908,0.890246,-6.57755,-31.9621,6.2458,2.0948,2.28149,-0.943818,0.0632909,3.02131,0.199916,-1.16749,1.51531,0.638535,-8.07228,-1.96139,-3.30895,28.7084,-6.38639,13.3785,11.1403,-1.89334,4.7219,-1.24737e-14,-6.36111e-15,27.7699,0.979913,-79.9779,93.0745,-82.0006,-1.33598,0.755187,7.12502,24.3101,-27.7233,-1.24737e-14,-6.36111e-15,16.8492,3.10869,66.6741,110.297,75.9527,-12.9623,20.4171,7.12502,13.1295,49.9837,-7.74034,10.7592,7.88025,42.7406,-18.5849,-17.5784,-2.65921,-4.47201,-7.04044,-25.1317,23.5807,-12.1255,0.290673,-3.65383
-0.740481,18.5878,0.895071,-6.76387,-31.9817,6.49835,1.97773,2.37706,-1.02195,0.115595,3.14678,0.0562355,-1.04685,1.5774,0.53804,-8.21537,-2.0876,-3.09454,28.9926,-6.6561,13.3644,11.3056,-1.98119,4.65832,3.37437e-14,6.36111e-15,27.4967,0.332845,-80.5851,94.1376,-82.0972,-0.400045,1.31436,7.12502,25.2071,-27.0409,3.37437e-14,6.36111e-15,16.6557,2.63382,66.6808,112.368,74.6674,-11.3955,19.8472,7.12502,14.6395,49.3104,-7.53391,10.6452,7.76521,43.1164,-18.3494,-18.139,-1.704,-4.31758,-7.09183,-25.3418,23.5354,-12.2149,0.393126,-3.60799
-0.762727,18.5828,0.894326,-6.83112,-32.0929,6.55262,1.90351,2.50212,-0.926883,0.183321,3.31547,-0.0698062,-0.926048,1.66036,0.357006,-8.63715,-2.24165,-2.84287,29.4533,-7.02117,13.3957,11.612,-2.08592,4.60049,2.05494e-14,-8.74653e-15,27.2183,-0.291815,-81.0856,94.993,-82.28,0.175027,1.72669,7.12502,25.758,-26.5499,2.05494e-14,-8.74653e-15,16.5578,2.23345,66.7266,114.198,74.1149,-11.1212,20.4224,7.12502,14.9038,49.8663,-7.36126,10.5716,7.87037,43.4534,-17.7717,-18.8721,-0.86073,-4.21733,-7.21971,-25.3529,23.5216,-12.3228,0.645518,-3.60465
-0.787846,18.5812,0.888738,-6.86342,-32.1968,6.53011,1.79768,2.5563,-0.848692,0.21067,3.39057,-0.0753635,-0.834982,1.69728,0.311821,-8.85519,-2.32556,-2.79295,29.9652,-7.243,13.3965,11.8868,-2.15738,4.58799,-4.86029e-14,7.95139e-15,26.8296,-0.608017,-81.4247,95.5938,-82.5974,1.10648,3.06109,7.12502,26.6498,-25.0831,-4.86029e-14,7.95139e-15,16.1572,2.02388,66.9308,115.733,74.1703,-11.3019,20.6445,7.12502,14.7297,50.1012,-7.20396,10.582,8.10554,43.7493,-17.0751,-19.6408,-0.67977,-4.13298,-7.24294,-25.2609,23.5249,-12.2128,0.756694,-3.17866
-0.815125,18.5819,0.883074,-6.95119,-32.2111,6.50127,1.7268,2.52691,-0.807629,0.198819,3.35351,-0.00284622,-0.808986,1.67873,0.367072,-8.6992,-2.33341,-3.03441,30.2885,-7.30279,13.5363,12.0047,-2.19461,4.69648,5.76476e-14,0,26.2903,-0.758518,-81.713,96.2013,-82.7936,1.81147,3.72357,7.12502,27.3243,-24.3162,5.76476e-14,0,15.4885,1.74183,67.1217,117.053,73.7891,-9.93265,19.5471,7.12502,16.0485,48.9025,-6.93845,10.5224,8.36494,43.9977,-17.0178,-20.0668,-2.0671,-4.00091,-7.22909,-25.1722,23.584,-12.1326,0.742981,-3.3304
-0.8426,18.5741,0.876001,-7.08062,-32.2841,6.55959,1.75137,2.53592,-0.870528,0.139326,3.36442,0.0583733,-0.891097,1.68496,0.461201,-8.59667,-2.35719,-3.36439,30.6369,-7.41465,13.8035,12.1611,-2.24919,4.86749,-3.39425e-14,-1.11319e-14,25.6258,-1.03744,-81.9901,96.8871,-82.6895,1.62204,2.43053,7.12502,27.1431,-25.6376,-3.39425e-14,-1.11319e-14,14.8208,1.33622,67.2783,118.101,73.1048,-8.33643,18.8404,7.12502,17.5851,48.0651,-6.66935,10.5053,8.54719,44.2088,-17.3121,-20.5367,-4.1795,-3.89769,-7.21116,-25.1391,23.646,-12.3584,0.718943,-3.92111
-0.870167,18.5621,0.867734,-7.06341,-32.4643,6.53392,1.52249,2.59562,-0.710219,0.157194,3.44885,0.0234006,-0.734389,1.72611,0.346294,-8.66836,-2.41379,-3.4638,31.0484,-7.60823,13.9794,12.3829,-2.31545,4.95374,1.06151e-13,4.77083e-15,25.1781,-1.25607,-82.2239,97.1459,-82.5023,0.990612,2.2024,7.12502,26.5389,-25.9586,1.06151e-13,4.77083e-15,14.3658,0.920816,67.344,118.823,72.4399,-7.58426,18.8579,7.12502,18.3088,48.0162,-6.58746,10.4503,8.82429,44.3659,-17.0807,-21.2385,-7.68348,-3.88413,-7.17001,-24.9906,23.6471,-12.5765,0.749192,-4.11033
-0.898666,18.5559,0.860899,-7.09356,-32.5835,6.56204,1.29991,2.64724,-0.616664,0.164356,3.52084,0.00847373,-0.596798,1.76154,0.289167,-8.76794,-2.49551,-3.53568,31.5262,-7.8012,13.9847,12.6317,-2.39384,4.97085,-6.19711e-14,2.38542e-15,24.7771,-1.4191,-82.2579,97.1222,-82.3654,0.262867,1.99999,7.12502,25.8421,-26.2643,-6.19711e-14,2.38542e-15,13.8331,0.464121,67.5,119.34,71.6361,-6.72923,18.6565,7.12502,19.1312,47.7355,-6.49539,10.3817,9.05996,44.4521,-17.0491,-21.6912,-11.2426,-3.82169,-7.22667,-24.9386,23.6284,-12.6355,0.943736,-4.64009
-0.928796,18.5501,0.855504,-7.33223,-32.6362,6.81202,1.08339,2.70583,-0.709797,0.271233,3.59945,-0.0877914,-0.366595,1.80013,0.256094,-8.95643,-2.60668,-3.47541,31.907,-8.03545,13.9419,12.8607,-2.4785,4.93221,2.44505e-14,1.59028e-15,24.3576,-1.66052,-82.2714,97.0907,-82.2461,-1.25521,1.2225,7.12502,24.3876,-27.2455,2.44505e-14,1.59028e-15,13.5591,0.0143226,67.5762,119.6,70.8409,-6.10421,18.4918,7.12502,19.7322,47.5103,-6.1901,10.4508,9.05431,44.447,-17.8239,-21.938,-11.2269,-3.6428,-7.31997,-25.1267,23.6429,-12.7455,1.18555,-5.23571
-0.960789,18.5436,0.842762,-7.43103,-32.7469,6.88655,0.873138,2.79779,-0.629885,0.38602,3.72494,-0.190608,-0.120832,1.86205,0.120413,-9.20676,-2.74792,-3.4426,32.2772,-8.34629,14.0083,13.1195,-2.58531,4.93147,-2.22639e-14,-6.36111e-15,24.1287,-1.87084,-82.319,96.6953,-82.0315,-2.45011,0.89477,7.12502,23.2416,-27.7227,-2.22639e-14,-6.36111e-15,13.4849,-0.449163,67.6014,119.517,69.8221,-5.5598,18.2321,7.12502,20.2555,47.196,-5.90916,10.618,9.243,44.3323,-18.7265,-22.3017,-9.96867,-3.53644,-7.30566,-25.0922,23.6602,-12.8217,1.30149,-5.57695
-0.991801,18.5372,0.828001,-7.46756,-32.8398,6.9312,0.70602,2.91686,-0.505008,0.445125,3.88619,-0.307021,0.048392,1.94255,-0.0574867,-9.47198,-2.91859,-3.38963,32.6577,-8.70154,14.0497,13.3937,-2.70992,4.91032,-6.77359e-14,-3.97569e-15,24.2753,-1.97618,-82.3804,95.7119,-81.584,-3.50895,0.902005,7.12502,22.2254,-27.8401,-6.77359e-14,-3.97569e-15,13.3952,-1.00353,67.672,119.132,68.4624,-5.15742,17.8908,7.12502,20.6422,46.8132,-5.75664,10.7061,9.46008,44.1369,-19.3867,-22.557,-10.026,-3.50464,-7.33261,-25.0156,23.6882,-12.8848,1.38809,-5.68685
-1.02309,18.5342,0.811849,-7.52502,-32.9317,6.92575,0.569397,2.96395,-0.407365,0.478411,3.95068,-0.315345,0.165873,1.97485,-0.111429,-9.54905,-3.02157,-3.47137,33.0152,-8.90828,14.0541,13.6011,-2.79871,4.91924,-2.35063e-14,-1.03368e-14,23.5619,-1.99158,-81.8679,95.4437,-81.7111,-4.97865,0.521832,7.12502,20.8139,-28.3818,-2.35063e-14,-1.03368e-14,13.05,-1.45805,67.8306,118.688,66.9879,-6.15975,17.9841,7.12502,19.6788,47.0081,-5.60365,10.8168,9.73962,43.8893,-19.9738,-22.9294,-10.4297,-3.45527,-7.3696,-24.8864,23.7558,-12.9638,1.41736,-5.62129
-1.05345,18.5319,0.793918,-7.56706,-33.0951,6.89298,0.433865,2.79757,-0.356948,0.235699,3.72887,-0.0959168,-0.0178917,1.86428,0.0844334,-8.6913,-2.8294,-4.12051,33.4255,-8.57076,14.1109,13.5714,-2.75721,5.14366,-2.99171e-14,-7.95139e-15,22.9495,-0.993796,-81.4299,94.4432,-81.8316,-6.25404,-0.0990779,7.12502,19.5881,-29.1323,-2.99171e-14,-7.95139e-15,11.766,-1.45181,67.9475,118.3,65.6999,-7.19925,17.8988,7.12502,18.6792,47.022,-5.45824,10.901,10.0151,43.6496,-20.5238,-23.3891,-10.9941,-3.41661,-7.36197,-24.7315,23.8428,-13.0731,1.52661,-5.68087
-1.08575,18.5235,0.780835,-7.78206,-33.1911,7.102,0.245983,2.60981,-0.53296,0.084614,3.47862,0.0913209,-0.088418,1.73942,0.379147,-8.05738,-2.67848,-4.79918,33.8512,-8.26912,14.0789,13.5978,-2.73708,5.33035,9.93923e-16,1.66979e-14,23.0132,0.211299,-81.1151,92.7205,-81.9614,-8.10065,-0.848324,7.12502,17.812,-30.0526,9.93923e-16,1.66979e-14,10.7056,-1.16794,68.0944,117.631,64.9396,-7.35343,17.5876,7.12502,18.5309,46.7249,-5.20607,10.839,10.0368,43.4622,-20.971,-23.8885,-11.1983,-3.34602,-7.22682,-24.8181,23.9958,-13.1908,1.52814,-6.04087
-1.11847,18.5139,0.760528,-7.88826,-33.2244,7.19061,0.078794,2.6944,-0.527303,0.323892,3.5932,0.0112776,0.254257,1.79536,0.310412,-8.77392,-2.9648,-4.67757,34.2506,-8.72506,13.8861,13.9932,-2.90558,5.18401,5.53118e-14,7.15625e-15,22.9931,0.204802,-80.4541,91.759,-82.5169,-10.5173,-1.81587,7.12502,15.4854,-31.2157,5.53118e-14,7.15625e-15,11.1352,-1.29566,68.1687,116.501,64.6462,-7.46612,17.4495,7.12502,18.4225,46.5971,-5.04755,10.7895,10.2075,43.3443,-21.2784,-24.4364,-10.9166,-3.38694,-7.16218,-24.763,24.2156,-13.2901,1.48979,-6.3764
-1.14824,18.505,0.729667,-7.78744,-33.3643,7.02722,0.0870452,2.81414,-0.174835,0.422363,3.75318,-0.145903,0.382085,1.87632,-0.0422654,-9.30279,-3.19495,-4.44102,34.54,-9.19115,13.9058,14.3108,-3.04843,5.09545,-1.0635e-14,-7.95139e-16,23.246,0.177209,-80.0831,90.3138,-82.8653,-12.3408,-2.76702,7.12502,13.7285,-32.2941,-1.0635e-14,-7.95139e-16,11.5497,-1.46343,67.9855,115.136,64.6069,-7.96727,17.897,7.12502,17.9403,47.0896,-5.08082,10.8138,10.6374,43.2842,-21.486,-24.7987,-10.8537,-3.58017,-7.11901,-24.4315,24.4888,-13.4004,1.48846,-6.37466
-1.17893,18.4945,0.701296,-7.74893,-33.5308,6.92602,-0.0184663,2.83872,0.135245,0.432576,3.78587,-0.229616,0.477287,1.894,-0.293181,-9.29297,-3.25121,-4.40563,34.7769,-9.33285,13.8969,14.439,-3.10434,5.07955,3.97569e-15,-1.98785e-14,23.6928,0.526106,-79.8672,88.5224,-83.1186,-13.5972,-3.9774,7.12502,12.5174,-33.5825,3.97569e-15,-1.98785e-14,11.6095,-1.35399,67.7725,113.706,64.8478,-8.83441,18.804,7.12502,17.1058,48.071,-5.1023,10.8069,10.9865,43.2735,-21.8186,-25.0424,-10.9505,-3.74875,-7.17185,-24.181,24.8238,-13.602,1.57603,-6.0046
-1.21148,18.4876,0.671306,-7.8925,-33.6291,7.02324,-0.0936778,2.82402,0.229262,0.557551,3.76663,-0.32389,0.659584,1.88543,-0.433114,-9.53724,-3.32737,-4.45516,35.0705,-9.493,13.8887,14.6621,-3.16695,5.07904,-5.26779e-14,-7.95139e-15,24.4555,0.975048,-79.6395,86.6084,-83.5392,-15.3588,-4.62934,7.12502,10.8187,-34.3307,-5.26779e-14,-7.95139e-15,11.9828,-1.11341,67.5375,112.216,65.0197,-9.39603,19.3036,7.12502,16.5652,48.6165,-5.05149,10.7238,11.1435,43.3087,-22.2893,-25.3784,-11.2206,-3.83584,-7.12971,-24.1106,25.1794,-13.6468,1.548,-5.32884
-1.24356,18.4771,0.638309,-8.12319,-33.7635,7.27462,-0.258388,2.55802,0.0977977,0.411979,3.4113,-0.153168,0.581212,1.70637,-0.184985,-8.6017,-3.08473,-5.38279,35.2468,-8.98913,13.983,14.4966,-3.10535,5.38914,-8.64216e-14,8.74653e-15,24.9798,2.54368,-79.22,84.4651,-84.2724,-17.1367,-4.51854,7.12502,9.10345,-34.3021,-8.64216e-14,8.74653e-15,11.3563,-0.220715,67.4159,110.767,65.1179,-9.76501,19.49,7.12502,16.2099,48.8323,-5.04574,10.6521,11.1344,43.3994,-22.7015,-25.6652,-11.2197,-3.92077,-6.83388,-24.1419,25.4959,-13.6304,1.36398,-5.05791
-1.27625,18.4569,0.600835,-8.22146,-33.9226,7.4393,-0.369086,2.83017,0.456161,0.8344,3.77691,-0.693853,1.13714,1.89526,-0.911534,-9.81186,-3.47876,-4.5546,35.2955,-9.77362,13.9484,14.8884,-3.28299,5.09282,-1.30105e-13,2.38542e-15,26.0305,2.02397,-79.0705,82.7158,-85.1167,-18.8321,-3.75926,7.12502,7.46718,-33.6075,-1.30105e-13,2.38542e-15,13.1764,-0.52431,66.8311,108.892,65.7731,-10.1847,19.8123,7.12502,15.8058,49.187,-5.19875,10.5731,11.179,43.5386,-23.0754,-25.8043,-10.7694,-4.15291,-6.64,-24.0711,25.8283,-13.8412,1.28171,-5.93302
-1.30996,18.4368,0.560776,-8.33638,-34.0319,7.58902,-0.269719,2.73475,0.556396,0.774504,3.65033,-0.878887,1.03599,1.8332,-1.16517,-9.76354,-3.46446,-4.49396,35.5278,-9.80585,13.9021,14.9884,-3.29634,5.07196,-2.96189e-14,0,26.7089,2.95545,-78.9008,80.6025,-86.1083,-20.5172,-3.13659,7.12502,5.84052,-33.0361,-2.96189e-14,0,13.5464,-0.178095,66.3308,107.08,66.2215,-10.6001,19.9278,7.12502,15.4057,49.3338,-5.358,10.4203,11.2355,43.7291,-23.5308,-25.8327,-10.2645,-4.3772,-6.56803,-24.003,26.1685,-14.0369,1.30307,-7.01646
-1.34382,18.42,0.520035,-8.46033,-34.1496,7.69725,0.117744,2.6291,0.670394,0.537258,3.50937,-1.08591,0.592425,1.76124,-1.46902,-9.50648,-3.43818,-4.31744,35.7905,-9.83421,13.7872,15.0419,-3.31013,5.00303,-4.96465e-14,5.56597e-15,27.2947,3.41125,-79.0886,78.8021,-87.6616,-21.3729,-7.64654,7.12502,5.01432,-37.5672,-4.96465e-14,5.56597e-15,13.7453,0.0650906,65.7419,105.154,66.3448,-10.8617,20.0774,7.12502,15.1537,49.5026,-5.48122,10.3138,11.348,43.9598,-23.9343,-25.9714,-10.4168,-4.56535,-6.37025,-23.891,26.5236,-14.0565,1.24998,-7.7819
-1.37865,18.4047,0.480341,-8.63944,-34.3389,7.92268,0.401182,2.57037,0.473259,0.367945,3.42977,-1.11783,0.248325,1.71815,-1.41184,-9.25067,-3.47113,-4.38243,35.9108,-9.8351,13.6068,15.0274,-3.35321,4.94454,-2.6985e-14,-1.90833e-14,27.9883,4.05527,-78.8529,76.8823,-89.5252,-22.9859,-10.618,7.12502,3.45669,-40.5697,-2.6985e-14,-1.90833e-14,14.0404,0.500546,65.4681,103.137,66.8158,-10.7956,20.2195,7.12502,15.2174,49.6398,-5.64742,10.2765,11.3478,44.2211,-24.1648,-26.1903,-10.9887,-4.78389,-6.02759,-23.8625,26.9449,-14.1017,1.14292,-8.06233
-1.41426,18.3877,0.438126,-8.8054,-34.588,8.13156,0.0718749,2.6004,0.265762,0.705282,3.4729,-1.08558,0.764895,1.74193,-1.23646,-9.55486,-3.61032,-4.50719,35.8302,-9.94902,13.4751,15.0724,-3.42248,4.88231,9.11428e-14,-6.36111e-15,29.4474,4.5182,-78.2598,74.9742,-91.5331,-25.1429,-13.0333,7.12502,1.37351,-43.0086,9.11428e-14,-6.36111e-15,15.2539,1.17303,65.4311,101.013,67.8443,-10.5618,20.3186,7.12502,15.4426,49.7217,-5.8499,10.3034,11.3575,44.4911,-24.3851,-26.2179,-11.0723,-5.04883,-5.84225,-23.8293,27.46,-14.2565,1.18058,-7.93917
-1.45026,18.374,0.390273,-8.88692,-34.734,8.27354,0.137679,2.6117,0.183494,0.71119,3.48828,-1.16838,0.734749,1.74927,-1.27828,-9.61183,-3.74033,-4.53678,35.9785,-10.1718,13.4571,15.1931,-3.52179,4.85289,5.61567e-15,-2.22639e-14,30.4334,4.957,-77.8353,73.2104,-93.4232,-27.484,-14.8792,7.12502,-0.887529,-44.8571,5.61567e-15,-2.22639e-14,16.182,1.58267,65.2534,98.8612,69.0322,-10.5145,20.2802,7.12502,15.4882,49.6798,-6.07682,10.2454,11.4146,44.752,-24.6796,-26.1143,-10.9676,-5.40126,-5.81652,-23.7407,28.0102,-14.2737,1.24869,-7.49999
-1.48735,18.3607,0.338739,-8.85286,-34.8781,8.27597,0.142099,2.61839,0.210448,0.750485,3.49783,-1.24374,0.779114,1.75476,-1.36917,-9.58,-3.87515,-4.56005,35.9468,-10.3957,13.5076,15.2094,-3.61988,4.84076,-2.10712e-14,5.56597e-15,31.5134,5.32768,-77.5343,71.4442,-95.0168,-29.6302,-16.5509,7.12502,-2.96037,-46.5101,-2.10712e-14,5.56597e-15,17.2439,2.02855,65.0641,96.6194,70.2089,-10.6988,20.3517,7.12502,15.3107,49.765,-6.34827,10.1492,11.5858,44.9996,-24.9596,-25.9881,-11.2405,-5.82827,-5.76423,-23.4897,28.5914,-14.269,1.17715,-6.62924
-1.52451,18.3443,0.292811,-8.8846,-35.0983,8.20806,0.236547,2.66003,0.381162,0.804499,3.55361,-1.32722,0.798792,1.78452,-1.55215,-9.59142,-4.05562,-4.51295,35.9397,-10.7131,13.5535,15.2585,-3.74678,4.79905,5.19325e-15,-7.15625e-15,32.5347,5.63997,-77.2616,69.785,-96.2339,-31.4523,-18.4085,7.12502,-4.71991,-48.3359,5.19325e-15,-7.15625e-15,18.2672,2.4788,64.9034,94.2291,71.5187,-10.4501,20.5165,7.12502,15.5502,49.9112,-6.50007,10.1731,11.8396,45.2417,-25.2541,-25.9004,-11.7562,-6.12619,-5.75316,-23.2025,29.1839,-14.7227,1.43509,-8.71844
-1.56156,18.3236,0.250313,-8.987,-35.3958,8.19861,0.431616,2.6933,0.352769,0.782076,3.59678,-1.28182,0.66325,1.80509,-1.50058,-9.49737,-4.24269,-4.6373,35.9862,-11.0151,13.604,15.3173,-3.89415,4.79854,-5.3647e-14,2.22639e-14,33.4422,6.24115,-76.7451,68.3791,-97.1098,-33.579,-20.0593,7.12502,-6.77321,-49.931,-5.3647e-14,2.22639e-14,19.2049,3.05607,64.923,91.7693,73.0273,-10.2878,20.9639,7.12502,15.7065,50.3465,-6.63581,10.2928,12.0492,45.4972,-25.3163,-25.8857,-12.2719,-6.33514,-5.69887,-22.9746,29.7332,-14.6564,1.41293,-6.03427
-1.59826,18.2988,0.204282,-9.02456,-35.7527,8.12196,0.856747,2.72927,-0.0737833,0.583973,3.63839,-0.880461,0.170942,1.82065,-0.882932,-9.16563,-4.4911,-5.07987,36.045,-11.2418,13.4088,15.3083,-4.09059,4.76418,-8.71671e-14,1.59028e-14,34.16,7.23149,-75.6719,67.2233,-97.6664,-36.0979,-21.7105,7.12502,-9.20432,-51.4896,-8.71671e-14,1.59028e-14,20.003,3.71732,65.3114,89.4028,74.5522,-10.6296,21.4998,7.12502,15.3773,50.908,-6.80738,10.4962,12.3118,45.7566,-25.5517,-25.6139,-11.8982,-6.56794,-5.6673,-22.6724,30.2684,-14.9564,1.60107,-6.09333
-1.6351,18.2794,0.156274,-8.95873,-36.0242,7.97851,1.4521,2.80896,-0.901225,0.236028,3.73014,-0.136199,-0.619149,1.86648,0.289622,-8.83991,-4.81126,-5.79873,36.2709,-11.4453,12.9596,15.3756,-4.33771,4.68282,-2.4699e-14,1.03368e-14,34.7055,8.3523,-74.0365,66.1639,-97.3828,-37.2702,-23.6005,7.12502,-10.3353,-53.3265,-2.4699e-14,1.03368e-14,20.4423,4.33944,66.2191,87.1366,76.1304,-10.9143,21.7961,7.12502,15.103,51.2251,-7.02774,10.6482,12.6198,45.9866,-25.7693,-25.3823,-11.5956,-6.89331,-5.76225,-22.3325,30.8393,-15.2785,1.93519,-6.99665
-1.6735,18.2687,0.109828,-8.91618,-36.2196,7.88199,0.705041,2.72916,0.563039,0.850063,3.64452,-1.16532,0.586796,1.82986,-1.51067,-9.2631,-4.71645,-4.76458,35.9073,-11.7041,13.5236,15.3264,-4.23692,4.6674,-1.49585e-14,5.56597e-15,36.4554,8.17749,-75.0393,65.0593,-96.1368,-37.3633,-24.6881,7.12502,-10.4251,-54.4096,-1.49585e-14,5.56597e-15,22.7711,4.81978,64.6602,84.7768,78.1477,-11.3504,21.9876,7.12502,14.6829,51.4477,-7.19799,10.7104,12.8794,46.1537,-25.6482,-25.2962,-12.156,-7.2182,-5.75883,-22.0545,31.4696,-15.3901,2.23774,-7.29706
-1.71434,18.2596,0.0655268,-8.89596,-36.4919,7.71806,0.833048,2.70706,0.470231,0.867388,3.61394,-0.95441,0.51249,1.81292,-1.25008,-9.10828,-4.67107,-4.91353,35.7394,-11.6026,13.6103,15.2074,-4.21569,4.74214,1.04461e-13,7.95139e-15,37.4397,9.02946,-74.2478,64.2126,-95.4353,-37.8384,-25.7572,7.12502,-10.8834,-55.4552,1.04461e-13,7.95139e-15,23.6591,5.57663,64.7867,82.6157,79.6682,-11.923,22.3245,7.12502,14.1312,51.824,-7.24114,10.846,13.2123,46.2578,-25.5574,-25.1027,-12.6093,-7.47726,-5.6793,-21.7121,32.1376,-15.4574,2.51964,-7.58965
-1.75366,18.2448,0.0230068,-8.68606,-36.7927,7.2961,0.834272,2.73576,0.768891,0.913549,3.65351,-0.828605,0.570595,1.83459,-1.28626,-9.00367,-4.73089,-4.91908,35.7069,-11.7303,13.6966,15.1952,-4.26908,4.75975,2.1419e-14,-7.95139e-16,38.3345,9.61238,-73.5988,63.6936,-94.6167,-38.6706,-27.1854,7.12502,-11.686,-56.8395,2.1419e-14,-7.95139e-16,24.7669,6.17023,64.8431,80.4339,80.8332,-12.4825,22.5426,7.12502,13.592,52.0789,-7.2904,11.0124,13.766,46.315,-25.6307,-24.8173,-12.8055,-7.8499,-5.62003,-21.1184,32.8776,-15.7376,2.79772,-9.54043
-1.79235,18.2281,-0.0224242,-8.43412,-37.0155,6.89763,0.99461,2.81206,0.994231,0.817051,3.75712,-0.724506,0.392558,1.88586,-1.31721,-8.83911,-4.91146,-4.90928,35.7587,-12.0655,13.7701,15.241,-4.41221,4.74104,-2.01766e-14,-1.19271e-14,38.9462,10.0238,-72.9011,63.4878,-93.6748,-39.2671,-28.0797,7.12502,-12.2612,-57.7003,-2.01766e-14,-1.19271e-14,25.7915,6.52993,65.0474,78.3782,81.8427,-13.0085,22.5851,7.12502,13.085,52.1546,-7.39449,11.133,14.2904,46.346,-25.4818,-24.6986,-13.3241,-8.31228,-5.62782,-20.5184,33.6125,-15.9672,2.87527,-10.0966
-1.83283,18.2146,-0.0715583,-8.24992,-37.225,6.59848,1.07224,2.80599,1.13569,0.831828,3.75047,-0.64843,0.368071,1.8829,-1.32192,-8.80757,-5.01201,-4.74672,35.8376,-12.248,13.6683,15.2798,-4.48197,4.64035,1.05604e-13,0,39.7279,10.498,-72.4044,63.3776,-92.9641,-39.4372,-28.681,7.12502,-12.4252,-58.2917,1.05604e-13,0,26.8335,7.15931,65.1522,76.4465,82.7205,-13.8787,22.8529,7.12502,12.2461,52.4744,-7.46093,11.2852,14.74,46.3672,-25.4464,-24.5003,-13.5252,-8.71977,-5.47857,-19.9956,34.2895,-15.9037,2.81817,-9.40271
-1.87614,18.2077,-0.120329,-8.14583,-37.4006,6.4085,1.14897,2.75662,1.1143,0.875587,3.68472,-0.536775,0.359147,1.84963,-1.19864,-8.77471,-5.02644,-4.72334,35.8532,-12.2922,13.6784,15.2861,-4.49995,4.63435,2.11954e-14,-1.98785e-14,40.5313,11.0369,-71.9693,63.365,-92.4618,-39.4152,-29.0831,7.12502,-12.404,-58.6951,2.11954e-14,-1.98785e-14,27.7307,7.90631,65.3026,74.7623,83.483,-15.1083,23.1218,7.12502,11.0603,52.8104,-7.49473,11.3281,15.0666,46.3569,-25.6975,-24.1221,-13.0175,-9.04781,-5.40118,-19.583,34.9251,-15.846,2.82744,-9.01239
-1.91951,18.1969,-0.165486,-8.01112,-37.5267,6.28039,1.16412,2.68173,0.983423,0.888774,3.58351,-0.396348,0.344109,1.79777,-0.98264,-8.75256,-5.04881,-4.79505,35.7911,-12.3081,13.6888,15.2579,-4.51962,4.64547,1.27968e-14,-1.59028e-15,41.2385,11.5537,-71.611,63.6642,-92.0949,-39.3673,-29.0473,7.12502,-12.3578,-58.6621,1.27968e-14,-1.59028e-15,28.4797,8.74751,65.5552,73.3971,84.2017,-16.0643,23.5355,7.12502,10.1381,53.2712,-7.59562,11.2902,15.3057,46.3134,-25.8535,-23.8125,-12.804,-9.45695,-5.45046,-19.2139,35.5349,-15.9789,2.86655,-9.50894
-1.96191,18.1902,-0.209881,-7.78242,-37.7412,6.00408,1.29124,2.63081,0.97204,0.837233,3.51654,-0.218897,0.206708,1.76265,-0.803187,-8.74377,-5.07486,-4.89317,35.8653,-12.3562,13.7017,15.3086,-4.55315,4.66554,5.13113e-14,1.03368e-14,41.7498,12.0027,-71.3822,64.1943,-91.9753,-39.3884,-28.9483,7.12502,-12.3781,-58.5618,5.13113e-14,1.03368e-14,29.0247,9.57204,65.8414,72.4036,84.9669,-17.1295,23.9475,7.12502,9.11041,53.7307,-7.69757,11.3848,15.7007,46.2282,-25.7226,-23.6675,-13.0254,-9.86911,-5.20194,-18.6807,36.0919,-15.898,2.74237,-9.94117
-2.00453,18.1871,-0.250787,-7.72347,-37.9598,5.8768,1.32239,2.57842,0.984186,0.932212,3.44641,-0.16438,0.282398,1.72813,-0.752422,-8.71464,-5.03733,-4.94692,35.7771,-12.3564,13.9085,15.2836,-4.54336,4.76207,-6.55989e-15,1.19271e-14,42.3461,12.283,-71.331,64.84,-91.9203,-38.9563,-28.9494,7.12502,-11.9615,-58.5876,-6.55989e-15,1.19271e-14,29.5891,10.4153,66.1025,71.865,85.8385,-18.3743,24.0852,7.12502,7.90906,53.9172,-7.65278,11.4609,15.9493,46.1141,-25.8333,-23.3304,-12.7465,-10.1497,-4.91211,-18.3199,36.6305,-15.6726,2.69306,-10.4207
-2.04631,18.1757,-0.29057,-7.76203,-38.1784,5.85234,1.37103,2.53312,0.935269,1.0436,3.38517,-0.14866,0.364186,1.69792,-0.707766,-8.64427,-5.0033,-4.98899,35.6327,-12.3738,14.1666,15.2283,-4.53727,4.87358,3.28989e-14,4.77083e-15,42.7988,12.441,-71.4634,65.7364,-91.8266,-38.0418,-28.7094,7.12502,-11.0796,-58.3969,3.28989e-14,4.77083e-15,29.94,11.2154,66.2996,71.8586,86.7696,-19.3719,24.182,7.12502,6.94614,54.0481,-7.54717,11.5047,16.0969,45.98,-26.1501,-22.8081,-11.8591,-10.4059,-4.74726,-18.036,37.185,-15.5543,2.66773,-11.2771
-2.08749,18.1637,-0.333843,-7.64437,-38.4196,5.70661,1.54916,2.51109,0.839715,1.00766,3.35628,-0.0469672,0.215571,1.68175,-0.560575,-8.54071,-4.98388,-4.98995,35.5622,-12.3971,14.3146,15.1882,-4.5403,4.93291,-4.64659e-14,4.77083e-15,42.9648,12.5525,-71.7375,66.856,-91.7153,-37.3039,-28.0848,7.12502,-10.3678,-57.8092,-4.64659e-14,4.77083e-15,29.9223,11.9359,66.5103,72.3971,87.7021,-19.7928,24.6386,7.12502,6.53985,54.5176,-7.56114,11.5286,16.3644,45.8187,-26.1954,-22.5401,-11.819,-10.7868,-4.50323,-17.5975,37.7352,-15.3503,2.52025,-12.7142
-2.13079,18.1593,-0.373467,-7.52724,-38.6684,5.63298,1.50652,2.47178,0.899639,1.07159,3.30379,-0.10454,0.310841,1.65659,-0.64806,-8.51623,-4.94124,-4.87245,35.47,-12.4137,14.4811,15.1496,-4.51994,4.9763,-1.27073e-13,-1.03368e-14,43.1541,12.5269,-72.3451,68.132,-91.358,-36.605,-27.0558,7.12502,-9.69358,-56.8127,-1.27073e-13,-1.03368e-14,29.9736,12.7265,66.6522,73.4023,88.6617,-19.8411,25.29,7.12502,6.49323,55.1705,-7.59373,11.5178,16.5484,45.6264,-26.2276,-22.2505,-11.8837,-11.1736,-4.2281,-17.2157,38.2785,-15.1273,2.27716,-13.5466
-2.17171,18.162,-0.409246,-7.55096,-38.9438,5.74753,1.5379,2.40778,0.715524,1.08217,3.21642,-0.0740547,0.290601,1.61169,-0.514877,-8.30019,-4.86615,-4.99624,35.352,-12.3237,14.6583,15.0519,-4.49574,5.0887,-5.83681e-14,3.97569e-15,43.2142,12.6316,-72.8848,69.5377,-90.9478,-35.7501,-25.4279,7.12502,-8.86865,-55.2215,-5.83681e-14,3.97569e-15,29.6546,13.6562,66.8681,74.8795,89.6338,-19.7494,25.9257,7.12502,6.58172,55.8034,-7.59329,11.56,16.5561,45.421,-26.3065,-21.8981,-11.797,-11.4942,-4.06791,-17.0359,38.8348,-14.908,2.09145,-13.1687
-2.20724,18.1641,-0.447806,-7.38447,-39.277,5.59984,1.70578,2.30793,0.716988,1.01507,3.08477,0.0477136,0.119463,1.54461,-0.399484,-7.97301,-4.73707,-5.22118,35.2239,-12.1421,14.8712,14.9176,-4.44827,5.25158,-7.25316e-14,4.77083e-15,43.1744,12.7907,-73.5876,70.996,-90.5496,-35.1617,-24.0668,7.12502,-8.30079,-53.8837,-7.25316e-14,4.77083e-15,29.05,14.6615,67.0567,76.6658,90.3101,-19.3345,25.9267,7.12502,6.9823,55.7915,-7.65152,11.6264,16.7921,45.1953,-26.3008,-21.5958,-11.7104,-11.8814,-3.91445,-16.6139,39.4041,-14.6233,1.87704,-12.4567
-2.243,18.1598,-0.489724,-7.13541,-39.6545,5.31255,1.91025,2.28485,0.819764,0.987891,3.05738,0.134318,-0.0223874,1.53036,-0.377848,-7.78022,-4.67814,-5.11164,35.1513,-12.0522,14.8245,14.8092,-4.41418,5.22262,-1.06847e-14,-2.38542e-15,43.0606,12.6678,-74.5015,72.4694,-89.9061,-34.6428,-22.741,7.12502,-7.8,-52.5771,-1.06847e-14,-2.38542e-15,28.6343,15.514,67.3053,78.5635,90.7813,-18.1878,25.563,7.12502,8.08906,55.3882,-7.75743,11.6576,17.1632,45.0125,-26.2499,-21.3427,-11.7909,-12.265,-3.62325,-16.0149,39.9237,-14.2823,1.49941,-11.873
-2.27953,18.1569,-0.524636,-7.08785,-39.9787,5.3345,2.00858,2.26737,0.69698,1.03769,3.03237,0.152417,-0.0340766,1.51732,-0.293625,-7.93439,-4.71144,-4.99218,35.1159,-12.088,14.7207,14.8158,-4.41994,5.14245,5.79333e-14,-1.59028e-15,42.937,12.4997,-75.3552,74.0912,-89.009,-33.3202,-21.0563,7.12502,-6.52329,-50.9358,5.79333e-14,-1.59028e-15,28.262,16.3614,67.6325,80.6396,90.9487,-16.7683,25.1772,7.12502,9.45895,54.9449,-7.8387,11.5865,17.2335,44.8665,-26.2649,-21.0139,-11.8395,-12.6072,-3.26876,-15.7126,40.4381,-13.9282,1.16657,-12.0489
-2.31168,18.1523,-0.555736,-7.14351,-40.3361,5.50887,2.1254,2.22582,0.503266,1.07935,2.97392,0.181758,-0.0687901,1.48716,-0.158722,-7.6288,-4.61751,-5.35589,34.8367,-11.965,15.1191,14.6512,-4.39716,5.39182,-8.55644e-14,1.59028e-14,42.7909,12.4792,-76.2017,75.761,-87.9686,-30.945,-18.3725,7.12502,-4.23002,-48.3102,-8.55644e-14,1.59028e-14,27.624,17.2282,67.8369,82.939,90.4815,-15.1982,24.6681,7.12502,10.9735,54.3613,-7.96087,11.4968,17.1478,44.7772,-26.3426,-20.6027,-11.5731,-12.9306,-3.02719,-15.5463,40.9468,-13.5904,0.797357,-12.2275
-2.34076,18.1407,-0.585879,-7.05534,-40.8618,5.45154,2.21523,2.08274,0.45806,1.0709,2.78328,0.420427,-0.14291,1.39075,0.110165,-7.87932,-4.51296,-6.05792,35.0863,-11.7757,15.29,14.8608,-4.37719,5.64308,-8.15763e-14,-1.59028e-14,42.5523,12.981,-77.0136,77.5447,-86.4978,-28.475,-15.3006,7.12502,-1.84469,-45.2724,-8.15763e-14,-1.59028e-14,26.5349,18.4396,67.8984,85.4519,89.5467,-14.0046,24.1812,7.12502,12.1247,53.8099,-8.10284,11.5054,17.2826,44.6891,-26.4072,-20.2306,-11.268,-13.2251,-2.63926,-15.1485,41.4419,-13.2525,0.360153,-12.3246
-2.36847,18.1312,-0.613228,-6.86495,-41.356,5.29215,2.29303,2.03005,0.594286,1.01598,2.71707,0.532416,-0.241802,1.35746,0.145661,-7.73436,-4.43324,-6.34315,35.1034,-11.6367,15.3683,14.8355,-4.35805,5.75686,2.72087e-15,7.15625e-15,42.0381,13.0434,-77.9585,79.4488,-84.4596,-26.6573,-13.5568,7.12502,-0.0890666,-43.5365,2.72087e-15,7.15625e-15,25.486,19.2444,67.8742,88.068,88.6896,-12.9626,23.7908,7.12502,13.1293,53.3575,-8.23033,11.4402,17.4879,44.5469,-26.5881,-19.816,-10.676,-13.5236,-2.07652,-14.6864,41.8769,-12.8193,-0.0459829,-12.8375
-2.39763,18.1375,-0.638751,-6.80279,-41.7174,5.32066,2.47216,2.25914,0.739344,1.02821,3.02607,0.270027,-0.30719,1.51266,-0.217871,-7.71312,-4.64594,-5.91081,34.874,-12.1053,15.5887,14.7973,-4.48705,5.68213,4.88078e-14,-6.36111e-15,41.4477,11.8782,-79.0742,81.2587,-82.1133,-24.9467,-12.6396,7.12502,1.56308,-42.6137,4.88078e-14,-6.36111e-15,25.1216,19.063,67.9609,90.6155,88.0392,-11.6318,23.3353,7.12502,14.4118,52.815,-8.2606,11.3062,17.543,44.3031,-26.6826,-19.4859,-10.0854,-13.7385,-1.82659,-14.4494,42.1958,-12.3976,-0.258858,-13.4961
-2.42888,18.1572,-0.660448,-6.87698,-42.1455,5.51351,2.62036,2.49632,0.769017,1.08154,3.34249,0.0265238,-0.31626,1.67147,-0.496499,-7.671,-4.80284,-5.66448,34.5899,-12.4455,15.8563,14.722,-4.58288,5.68021,-3.41661e-16,-3.97569e-15,40.9593,10.7546,-80.2014,82.8751,-79.5062,-22.8551,-10.6328,7.12502,3.58299,-40.5824,-3.41661e-16,-3.97569e-15,24.6925,18.9602,68.1101,93.2524,87.4229,-10.2048,23.0356,7.12502,15.7864,52.4119,-8.21159,11.2721,17.4912,43.9393,-26.5468,-19.3498,-10.2352,-13.8224,-1.77227,-14.3753,42.3779,-12.0218,-0.231105,-13.6627
-2.45779,18.1778,-0.679286,-6.98289,-42.6876,5.74513,2.67051,2.70189,0.753283,1.21315,3.61449,-0.156323,-0.194769,1.80862,-0.679808,-7.81737,-4.95128,-5.30732,34.4252,-12.6734,15.7486,14.6815,-4.64219,5.51309,8.77879e-14,4.77083e-15,40.6124,9.8219,-81.2879,84.5054,-76.2834,-20.4698,-8.63494,7.12502,5.88622,-38.5332,8.77879e-14,4.77083e-15,24.063,19.0452,68.2535,96.0706,86.7676,-8.77622,22.911,7.12502,17.1618,52.1731,-8.16068,11.2528,17.3697,43.5295,-26.4406,-18.9449,-9.89505,-13.8378,-1.70613,-14.325,42.4712,-11.618,-0.189511,-13.119
-2.48522,18.2006,-0.69509,-7.08156,-43.2515,6.00423,2.96874,2.92167,0.629617,1.15168,3.90527,-0.28849,-0.418284,1.95264,-0.772642,-7.93143,-5.11594,-4.92707,34.436,-12.9187,15.4909,14.7015,-4.72004,5.28628,-9.29085e-15,4.77083e-15,40.0018,8.86828,-82.3592,86.236,-72.76,-17.9377,-8.00928,7.12502,8.33047,-37.825,-9.29085e-15,4.77083e-15,23.0195,18.9865,68.3136,99.0133,86.4249,-7.42182,22.8351,7.12502,18.4651,51.9787,-8.19457,11.1893,17.1921,43.1858,-26.3725,-18.4099,-9.37617,-13.8996,-1.63471,-14.307,42.6193,-11.2062,-0.107113,-13.1933
-2.51217,18.2114,-0.712248,-6.96024,-43.8226,5.99072,2.97232,3.02134,0.747143,1.1431,4.04121,-0.319244,-0.416285,2.02091,-0.87374,-7.69243,-5.05141,-4.93319,34.2854,-12.8002,15.5265,14.5569,-4.68444,5.31647,5.11405e-14,-7.15625e-15,39.4457,8.44597,-83.3083,87.5083,-69.8485,-15.4557,-3.25064,7.12502,10.7252,-32.9569,5.11405e-14,-7.15625e-15,21.8958,19.1725,68.1841,102.031,86.2399,-6.55087,22.9063,7.12502,19.3027,51.9683,-8.31264,11.2265,17.2662,42.9376,-26.3757,-18.012,-8.95715,-14.1194,-1.38423,-14.0006,42.9171,-10.8149,-0.325487,-13.3131
-2.53175,18.1993,-0.734778,-6.62411,-44.3309,5.73191,3.13373,3.10919,0.956193,1.01121,4.16685,-0.253419,-0.628961,2.08219,-0.94101,-7.40546,-4.99022,-5.0037,34.2172,-12.653,15.4613,14.4298,-4.655,5.32553,-9.58204e-16,-1.19271e-14,38.753,7.90602,-84.2141,88.7963,-67.2824,-13.4312,-0.578641,7.12502,12.6775,-30.1739,-9.58204e-16,-1.19271e-14,20.6081,19.2179,67.9438,105.166,86.2085,-6.21435,23.1737,7.12502,19.6263,52.203,-8.52292,11.2914,17.5439,42.7714,-26.4417,-17.7573,-8.70631,-14.5051,-0.947747,-13.4379,43.2999,-10.2376,-0.907471,-12.7654
-2.54919,18.1943,-0.753802,-6.11327,-44.8302,5.25318,3.32189,3.17241,1.32651,0.864251,4.26746,-0.121842,-0.865321,2.12981,-1.03262,-7.3176,-4.96645,-5.1175,34.227,-12.5464,15.3304,14.3894,-4.64246,5.3083,7.94517e-15,4.77083e-15,38.0575,7.3247,-85.0744,90.0187,-65.1922,-11.4165,0.722552,7.12502,14.6192,-28.7422,7.94517e-15,4.77083e-15,19.0134,19.2129,67.6965,108.313,86.2733,-5.81958,22.9899,7.12502,20.0058,51.98,-8.74653,11.4488,18.0203,42.6066,-26.3739,-17.7421,-8.81422,-14.8694,-0.591864,-12.7517,43.6835,-9.70815,-1.34564,-12.2096
-2.57034,18.2045,-0.761055,-5.99284,-45.3255,5.23676,3.31047,3.23219,1.54409,0.843549,4.35408,-0.158036,-0.858785,2.17286,-1.19302,-7.37565,-4.94308,-5.13803,34.2806,-12.458,15.1695,14.3981,-4.62049,5.25746,4.09993e-16,-1.11319e-14,37.439,6.75968,-86.0059,91.1362,-63.7498,-9.48356,1.87617,7.12502,16.4809,-27.4438,4.09993e-16,-1.11319e-14,17.14,19.1839,67.4624,111.305,86.4187,-4.85907,22.5772,7.12502,20.9288,51.4682,-8.82294,11.6316,18.1079,42.4015,-26.3507,-17.6016,-8.79203,-15.0141,-0.481631,-12.482,43.9498,-9.38009,-1.67175,-10.1877
-2.59234,18.2137,-0.76647,-6.20601,-45.7689,5.62064,3.26245,3.3121,1.52243,0.869059,4.45708,-0.33855,-0.789839,2.22543,-1.36439,-7.37386,-4.93191,-4.99247,34.2335,-12.4064,15.0201,14.3418,-4.59773,5.16975,5.44608e-14,-1.43125e-14,36.7795,6.16124,-86.9399,92.1017,-63.001,-8.032,3.02507,7.12502,17.8781,-26.1732,5.44608e-14,-1.43125e-14,15.3449,18.9755,67.2238,114.119,86.538,-3.41715,22.1755,7.12502,22.3136,50.9071,-8.77848,11.8069,17.8773,42.1269,-26.2814,-17.4574,-9.00637,-15.0378,-0.426733,-12.5487,44.0815,-9.03521,-1.90136,-9.87728
-2.6121,18.2222,-0.772433,-6.30695,-46.216,5.84457,3.30685,3.34956,1.49422,0.812972,4.50668,-0.39427,-0.868137,2.24922,-1.41248,-7.24421,-4.83666,-4.95405,34.2042,-12.1923,14.8292,14.2414,-4.5287,5.1135,1.58096e-15,-7.15625e-15,35.9585,5.66652,-87.5406,92.9987,-62.9563,-7.38812,3.43678,7.12502,18.4975,-25.7038,1.58096e-15,-7.15625e-15,13.4014,18.8363,66.9226,116.901,86.8274,-1.75269,22.0722,7.12502,23.9106,50.6036,-8.7199,12.0129,17.7799,41.7993,-26.0916,-17.3619,-9.0605,-15.0382,-0.412574,-12.5114,44.1104,-8.61868,-1.9788,-10.2634
-2.62927,18.2306,-0.77179,-6.23586,-46.6682,5.80718,3.38896,3.35124,1.64253,0.729343,4.51664,-0.344662,-0.991957,2.2521,-1.45314,-7.15153,-4.6661,-4.91107,34.2872,-11.8391,14.5104,14.1689,-4.40681,5.02898,6.36018e-14,-3.18055e-15,35.0193,5.28488,-87.9641,93.8818,-63.2656,-7.47705,3.2791,7.12502,18.412,-25.8695,6.36018e-14,-3.18055e-15,11.2757,18.7089,66.6363,119.722,87.4045,-0.846869,22.0485,7.12502,24.779,50.4633,-8.62886,12.2072,17.8753,41.448,-25.9237,-17.3349,-9.07936,-15.0734,-0.354436,-12.2679,44.1148,-8.19542,-2.18197,-9.47478
-2.64446,18.2447,-0.767819,-6.15775,-47.0643,5.79837,3.42463,3.37705,1.85457,0.666068,4.55993,-0.341088,-1.05895,2.27206,-1.57326,-7.14515,-4.55272,-4.81576,34.3457,-11.59,14.2239,14.1233,-4.31577,4.92949,-2.52876e-14,-5.56597e-15,34.1249,4.81643,-88.1638,94.5991,-63.7089,-7.70751,2.83523,7.12502,18.1902,-26.3342,-2.52876e-14,-5.56597e-15,9.16987,18.3592,66.5125,122.471,88.0948,-0.681805,22.0612,7.12502,24.9372,50.4541,-8.53749,12.3024,17.9114,41.0681,-25.8178,-17.3013,-9.11651,-15.1493,-0.264214,-12.0775,44.1326,-7.92715,-2.51242,-10.7457
-2.66398,18.2642,-0.765013,-6.23948,-47.4101,5.98789,3.4276,3.36883,1.88407,0.622768,4.5504,-0.361705,-1.10145,2.26642,-1.61223,-7.11405,-4.43081,-4.80433,34.2982,-11.337,14.0636,14.0399,-4.22437,4.89433,-2.56494e-14,-1.59028e-15,33.2312,4.45678,-88.24,95.1495,-64.2289,-8.27286,2.35917,7.12502,17.6463,-26.8601,-2.56494e-14,-1.59028e-15,6.91677,18.0246,66.3783,125.049,88.6175,0.124734,21.9934,7.12502,25.7098,50.2769,-8.40579,12.3791,17.8106,40.6791,-25.7073,-17.1929,-9.05327,-15.1477,-0.182331,-12.0421,44.1217,-7.69402,-2.85629,-12.1961
-2.68196,18.2749,-0.759433,-6.29284,-47.7328,6.03586,3.43956,3.30357,1.99495,0.627323,4.46771,-0.347817,-1.09945,2.2248,-1.65698,-7.24648,-4.26846,-4.71287,34.3381,-11.0121,13.786,14.0104,-4.09412,4.80701,1.00611e-13,3.97569e-15,32.236,4.24274,-88.4959,95.6382,-64.6979,-9.08836,1.89749,7.12502,16.8614,-27.3905,1.00611e-13,3.97569e-15,4.51739,17.7757,66.1859,127.483,88.9693,0.973997,22.0932,7.12502,26.523,50.2566,-8.18217,12.5033,17.842,40.2993,-25.6545,-17.0736,-8.99537,-15.0525,-0.192117,-11.8768,44.0608,-7.35622,-3.27887,-10.1067
-2.69854,18.2825,-0.752283,-6.2632,-48.1541,6.0407,3.37765,3.31644,2.17772,0.647625,4.48966,-0.35967,-1.0281,2.23637,-1.76601,-7.40641,-4.13493,-4.60164,34.3144,-10.7539,13.5977,13.9758,-3.98035,4.74041,-1.30713e-13,5.56597e-15,31.2164,3.94225,-88.7323,95.9538,-65.1252,-9.86152,1.0965,7.12502,16.117,-28.2533,-1.30713e-13,5.56597e-15,2.3412,17.3146,66.1398,129.612,89.21,1.46939,22.2494,7.12502,26.997,50.3403,-8.02616,12.7778,17.891,39.9357,-25.7738,-16.8734,-8.41017,-14.9379,-0.185032,-11.6767,43.9,-7.13933,-3.6937,-8.70783
-2.71468,18.2934,-0.748217,-6.27218,-48.5428,6.09487,3.39183,3.35074,2.27761,0.611585,4.53995,-0.342561,-1.06434,2.26041,-1.80796,-7.33514,-3.98726,-4.6098,34.1624,-10.4539,13.4887,13.8376,-3.86807,4.73263,-1.1641e-13,1.59028e-15,30.1162,3.6727,-88.6709,95.9682,-65.6561,-10.7968,0.657293,7.12502,15.2163,-28.7631,-1.1641e-13,1.59028e-15,0.272502,16.6478,66.2555,131.334,89.1641,2.56234,22.3009,7.12502,28.0423,50.2253,-7.89079,13.0773,17.9138,39.6079,-25.8824,-16.7379,-7.57492,-14.7885,-0.314315,-11.5314,43.6416,-7.20564,-3.92219,-9.75362
-2.73233,18.3071,-0.737236,-6.44078,-48.761,6.22722,3.40299,3.28579,2.29758,0.605004,4.45468,-0.322804,-1.08139,2.21742,-1.79689,-7.25861,-3.79745,-4.3928,34.025,-10.0427,13.1058,13.6588,-3.70785,4.58488,-1.67911e-14,0,28.9724,3.60771,-88.5845,95.8831,-66.2282,-11.8873,0.287672,7.12502,14.1656,-29.2094,-1.67911e-14,0,-1.97577,16.0413,66.362,132.908,88.8555,3.79875,22.4517,7.12502,29.2235,50.1767,-7.58758,13.2525,17.8941,39.3048,-26.011,-16.6679,-6.93573,-14.521,-0.680399,-11.482,43.2989,-7.48979,-3.89091,-10.5009
-2.74634,18.3126,-0.723461,-6.6088,-48.9318,6.41583,3.32665,3.17659,2.33636,0.651415,4.30753,-0.363394,-0.992019,2.1455,-1.84793,-7.43941,-3.63772,-4.07989,33.9479,-9.70415,12.7064,13.5743,-3.55685,4.40221,-1.11723e-14,3.18055e-15,27.9032,3.59389,-88.552,95.7541,-66.9345,-12.9507,-0.158957,7.12502,13.1407,-29.7249,-1.11723e-14,3.18055e-15,-4.30439,15.4592,66.4496,134.413,88.1867,4.22657,22.7332,7.12502,29.632,50.3865,-7.32162,13.3967,17.8177,38.9944,-26.102,-16.7162,-6.7792,-14.2911,-1.04238,-11.4933,42.9204,-7.74841,-3.81096,-12.0281
-2.75946,18.3188,-0.714704,-6.81334,-49.1446,6.72955,3.27643,3.13436,2.23777,0.672235,4.24568,-0.431654,-0.947561,2.1157,-1.85696,-7.50736,-3.5277,-3.94431,33.7188,-9.48602,12.6061,13.445,-3.45648,4.35409,-6.35148e-14,7.95139e-15,26.8494,3.4634,-88.3037,95.3662,-68.0244,-13.7805,-0.610944,7.12502,12.3407,-30.2267,-6.35148e-14,7.95139e-15,-6.55387,14.6628,66.6639,135.591,87.1122,4.61349,22.5345,7.12502,30.0012,50.1216,-7.14733,13.55,17.6657,38.6613,-25.9992,-16.9696,-7.07762,-14.1858,-1.1988,-11.572,42.5258,-8.0011,-3.80493,-12.6725
-2.77413,18.3317,-0.707165,-6.9489,-49.3863,6.92047,3.29752,3.11349,2.17252,0.657205,4.21596,-0.460793,-0.978707,2.10045,-1.85147,-7.86528,-3.41945,-3.8097,33.7294,-9.30262,12.477,13.4915,-3.35709,4.2976,-1.53561e-14,-1.11319e-14,25.7712,3.37427,-87.9369,94.8471,-69.2657,-14.4516,-1.29021,7.12502,11.6937,-30.9439,-1.53561e-14,-1.11319e-14,-8.77329,13.8055,66.9621,136.476,85.8949,5.34625,21.9584,7.12502,30.7002,49.4166,-6.95428,13.6436,17.6104,38.3007,-25.7764,-17.2328,-7.28876,-14.0911,-1.35035,-11.5322,42.0952,-8.22739,-3.65632,-10.2593
-2.78616,18.3423,-0.696414,-6.81634,-49.5713,6.76213,3.23613,3.02128,2.4312,0.690219,4.09957,-0.496392,-0.895193,2.04327,-2.02243,-8.15137,-3.29876,-3.64744,33.6104,-9.11261,12.4224,13.468,-3.24974,4.26259,1.64246e-14,-2.38542e-15,24.846,3.40372,-87.869,94.4371,-70.4338,-15.2192,-2.34882,7.12502,10.9533,-32.0431,1.64246e-14,-2.38542e-15,-10.6833,13.1641,67.1412,136.944,84.7905,6.01017,21.7692,7.12502,31.333,49.1067,-6.7178,13.7003,17.7907,37.8998,-25.7116,-17.3893,-7.04118,-13.9649,-1.59787,-11.2568,41.6045,-8.46955,-3.3348,-8.26955
-2.79887,18.353,-0.68467,-6.78623,-49.7006,6.69012,3.11397,2.95608,2.73105,0.78582,4.01656,-0.636708,-0.702281,2.00563,-2.31896,-8.29208,-3.24813,-3.46107,33.2863,-9.05337,12.521,13.3474,-3.19059,4.25943,1.18973e-13,3.18055e-15,24.004,3.33885,-87.8994,93.9439,-71.8667,-15.9475,-3.11828,7.12502,10.2508,-32.8485,1.18973e-13,3.18055e-15,-12.2648,12.4155,67.2898,137.047,83.6944,6.32213,21.6463,7.12502,31.6302,48.9257,-6.41306,13.8441,17.9256,37.4873,-25.789,-17.4867,-6.66336,-13.7481,-1.92544,-11.0726,41.0354,-8.71441,-2.80468,-7.92152
-2.81307,18.3638,-0.673217,-6.99242,-49.8186,6.83614,3.07756,2.89595,2.81489,0.869698,3.93568,-0.767461,-0.585685,1.96829,-2.49198,-8.31531,-3.1613,-3.50201,32.8822,-8.97472,12.8983,13.1924,-3.1274,4.41222,7.30409e-14,-2.38542e-15,23.1048,3.42801,-87.6668,93.1167,-73.7125,-16.5769,-3.16203,7.12502,9.64358,-32.9213,7.30409e-14,-2.38542e-15,-13.9265,11.6646,67.4677,137.118,82.4894,6.11503,21.575,7.12502,31.4329,48.893,-6.03591,13.9742,17.9131,37.0985,-25.8604,-17.5807,-6.29545,-13.452,-2.30492,-11.0408,40.4037,-8.94501,-2.20283,-7.14493
-2.82631,18.3717,-0.662487,-7.18214,-49.9275,7.02468,3.04086,2.78508,2.74573,0.912748,3.784,-0.787729,-0.533744,1.89375,-2.46667,-8.37619,-3.06508,-3.73957,32.5326,-8.80019,13.1472,13.0571,-3.05701,4.56332,-1.40808e-13,-4.77083e-15,22.26,3.83392,-87.263,92.0846,-75.8407,-17.1513,-3.01068,7.12502,9.08931,-32.7948,-1.40808e-13,-4.77083e-15,-15.5608,11.2465,67.6878,136.909,81.4654,5.90321,21.5756,7.12502,31.2311,48.9327,-5.74253,14.1068,17.856,36.7452,-25.8971,-17.686,-5.86775,-13.2156,-2.57787,-11.0147,39.7077,-9.05979,-1.74752,-6.46155
-2.83726,18.3785,-0.652666,-7.20572,-50.0265,7.02475,2.97513,2.67093,2.75171,0.958286,3.62991,-0.74443,-0.462359,1.81823,-2.41654,-8.44504,-3.03745,-3.87799,32.1843,-8.65096,13.1158,12.9061,-3.01515,4.57769,1.46933e-13,-1.59028e-14,21.5001,4.36246,-86.8091,91.0598,-78.4218,-17.9564,-3.19307,7.12502,8.31237,-33.0095,1.46933e-13,-1.59028e-14,-16.8799,11.0504,67.9041,136.175,80.9551,6.14324,21.6498,7.12502,31.4598,48.9626,-5.49565,14.3446,17.9463,36.4432,-26.0031,-17.8346,-5.24856,-13.0005,-2.835,-10.8474,38.964,-9.05836,-1.3368,-6.40022
-2.84778,18.3894,-0.645147,-7.21515,-50.0838,7.02369,2.92178,2.59653,2.7774,1.0028,3.52919,-0.776794,-0.389442,1.76965,-2.45723,-8.59667,-3.04829,-3.81597,31.8389,-8.59724,13.0654,12.7794,-2.98959,4.53405,9.68827e-14,-2.78299e-14,20.8581,4.70952,-86.4603,89.9285,-81.5033,-18.9697,-3.65016,7.12502,7.33441,-33.503,9.68827e-14,-2.78299e-14,-17.7984,10.7407,67.9915,135.157,80.637,5.4673,21.6354,7.12502,30.8156,49.0718,-5.29776,14.4924,18.0305,36.187,-25.9719,-18.0879,-5.12326,-12.8031,-3.1656,-10.693,38.165,-9.02135,-0.793709,-6.38528
-2.85706,18.3932,-0.640489,-7.42213,-50.1128,7.22176,2.94514,2.58416,2.69576,1.04215,3.50967,-0.889775,-0.361139,1.76089,-2.527,-8.75079,-3.08273,-3.76531,31.4846,-8.63515,13.1904,12.6736,-2.98708,4.55067,-2.41896e-14,1.59028e-15,20.3109,4.83359,-86.2215,88.6427,-84.8182,-20.1768,-3.53101,7.12502,6.16915,-33.4212,-2.41896e-14,1.59028e-15,-18.4279,10.2256,68.0178,133.979,80.0781,4.03569,21.7321,7.12502,29.4498,49.4176,-5.08758,14.6,17.9798,35.9666,-25.8718,-18.356,-5.43154,-12.5903,-3.45893,-10.6856,37.3172,-8.89908,-0.221957,-6.78376
-2.86584,18.396,-0.63579,-7.62989,-50.1151,7.39685,2.95593,2.57953,2.61981,1.09094,3.50034,-0.984118,-0.316319,1.75752,-2.58015,-8.88095,-3.10484,-3.72369,31.1719,-8.6355,13.2478,12.5725,-2.97638,4.54929,9.04594e-14,-1.59028e-14,19.8879,4.9804,-85.9703,87.2282,-88.3877,-20.1757,-4.05393,7.12502,6.17023,-33.9441,9.04594e-14,-1.59028e-14,-18.8104,9.79902,68.0519,132.504,79.4695,3.47467,22.0079,7.12502,28.914,49.7864,-4.84108,14.6927,17.9383,35.7592,-25.911,-18.5294,-5.59306,-12.3479,-3.70803,-10.657,36.4059,-8.61299,0.221243,-7.52212
-2.87448,18.4021,-0.628261,-7.95875,-50.1107,7.63725,3.02582,2.60577,2.48875,1.13384,3.53215,-1.04802,-0.313271,1.77367,-2.57565,-8.9394,-3.16733,-3.77092,30.8923,-8.6648,13.2545,12.4741,-2.99672,4.54232,-3.0265e-14,1.11319e-14,19.4592,5.27651,-85.5416,85.7744,-91.9714,-19.8548,-5.19584,7.12502,6.48002,-35.0767,-3.0265e-14,1.11319e-14,-18.905,9.33873,68.0718,130.8,79.216,2.93333,22.1042,7.12502,28.3968,49.9701,-4.52138,14.6954,17.8236,35.5772,-25.9881,-18.5356,-5.51509,-11.9898,-4.08789,-10.6851,35.4608,-8.33597,0.550074,-7.40288
-2.88202,18.4061,-0.619353,-8.26339,-50.1641,7.83819,3.01475,2.67131,2.39948,1.20478,3.61561,-1.10598,-0.230825,1.81727,-2.58442,-8.90462,-3.30454,-3.92786,30.5078,-8.80723,13.3901,12.339,-3.07317,4.5871,-2.46617e-14,7.95139e-15,19.1275,5.7033,-85.0828,84.4173,-94.9034,-21.2237,-6.24364,7.12502,5.15834,-36.1609,-2.46617e-14,7.95139e-15,-18.6737,8.90738,67.9489,128.912,79.5678,1.27169,22.1301,7.12502,26.8079,50.2501,-4.22567,14.723,17.7286,35.3946,-25.9223,-18.5858,-5.76446,-11.6059,-4.63544,-10.6994,34.4989,-8.13153,0.929396,-6.64107
-2.88762,18.4076,-0.61049,-8.44903,-50.1653,7.96303,2.87387,2.68753,2.36428,1.32333,3.63211,-1.16589,-0.0276902,1.82985,-2.61506,-8.94219,-3.44966,-4.06763,30.0712,-8.97136,13.574,12.205,-3.15066,4.64162,6.1499e-14,-6.36111e-15,19.0624,6.13054,-84.7842,83.071,-97.0236,-23.4718,-8.23134,7.12502,2.98747,-38.1902,6.1499e-14,-6.36111e-15,-18.0885,8.63718,67.6872,126.711,80.2704,-0.655576,21.8725,7.12502,24.9623,50.262,-4.00361,14.7164,17.6568,35.2243,-25.8755,-18.6107,-5.96727,-11.3131,-5.19621,-10.6485,33.5205,-7.75786,1.12649,-5.95937
-2.89259,18.4112,-0.602129,-8.53666,-50.0814,7.95772,2.82705,2.68401,2.43964,1.36251,3.62785,-1.2383,0.0479721,1.83,-2.72741,-8.96516,-3.47903,-3.95665,29.812,-8.96893,13.5155,12.096,-3.14778,4.58635,1.32999e-13,-5.56597e-15,19.0527,6.47072,-84.6574,81.5777,-98.4682,-25.2421,-10.2644,7.12502,1.2777,-40.2404,1.32999e-13,-5.56597e-15,-17.2413,8.26861,67.3574,124.375,81.0134,-2.30174,21.1856,7.12502,23.384,49.785,-3.77362,14.6443,17.6665,35.0932,-25.9257,-18.5644,-5.79857,-11.0721,-5.68699,-10.4886,32.5291,-7.34957,0.970661,-6.47063
-2.89573,18.413,-0.591223,-8.64013,-49.9567,7.95161,2.81513,2.70401,2.47874,1.35927,3.65532,-1.25857,0.0569461,1.84421,-2.77,-8.93236,-3.42354,-3.78753,29.6591,-8.81905,13.2999,11.9889,-3.08807,4.48521,2.2941e-14,-3.26007e-14,19.1065,6.89793,-84.4118,79.9396,-99.383,-27.0592,-11.6474,7.12502,-0.477295,-41.6266,2.2941e-14,-3.26007e-14,-16.1875,7.89523,67.1738,122.038,81.5334,-3.90874,20.7871,7.12502,21.8416,49.5744,-3.53588,14.5342,17.6701,34.9887,-25.9506,-18.5622,-5.839,-10.839,-6.34642,-10.3495,31.5364,-6.95692,0.647383,-6.85531
-2.89826,18.4106,-0.579761,-8.71866,-49.839,7.94793,2.69069,2.70512,2.48377,1.38852,3.65438,-1.24066,0.155562,1.84561,-2.74667,-8.95275,-3.41143,-3.71112,29.4915,-8.73398,13.1501,11.9035,-3.05901,4.41699,-5.16343e-14,-2.38542e-15,19.3698,7.57707,-84.0565,78.1868,-99.9807,-28.9347,-12.3545,7.12502,-2.2886,-42.322,-5.16343e-14,-2.38542e-15,-15.1425,7.90407,67.0451,119.519,82.1236,-4.93151,21.044,7.12502,20.8592,49.9426,-3.35873,14.4043,17.6572,34.9233,-25.9463,-18.5592,-6.00852,-10.6334,-7.03097,-10.2049,30.5193,-6.4097,0.241942,-5.57992
-2.90111,18.4092,-0.567581,-8.73871,-49.7564,7.87069,2.52119,2.69953,2.5724,1.42429,3.64533,-1.22559,0.291071,1.8442,-2.77012,-9.0604,-3.40927,-3.58751,29.4047,-8.67013,12.9422,11.8669,-3.0351,4.31743,4.66274e-14,0,19.8019,8.36781,-83.6915,76.4129,-99.9794,-31.4543,-13.0789,7.12502,-4.72184,-43.0063,4.66274e-14,0,-14.1538,8.20214,66.9572,116.707,83.1217,-5.3475,21.8005,7.12502,20.4595,50.7425,-3.21335,14.2883,17.6928,34.9049,-25.9554,-18.5282,-6.05811,-10.3926,-7.75317,-10.0133,29.4719,-5.72903,-0.275255,-4.13876
-2.9018,18.4086,-0.556182,-8.78665,-49.6318,7.87469,2.35371,2.72838,2.59526,1.42974,3.68087,-1.22981,0.394421,1.86399,-2.77834,-9.29169,-3.31962,-3.46388,29.5148,-8.53583,12.8151,11.9326,-2.96004,4.26614,7.33391e-14,-5.1684e-15,20.372,9.05222,-83.3621,74.5512,-99.0854,-34.4089,-15.0324,7.12502,-7.57427,-44.8767,7.33391e-14,-5.1684e-15,-12.7453,8.2506,66.8185,113.82,84.4831,-6.25598,22.4871,7.12502,19.5863,51.5205,-3.13577,14.1667,17.6479,34.9298,-26.057,-18.448,-5.72602,-10.2037,-8.72287,-9.89589,28.4298,-5.14613,-0.861938,-4.61835
-2.89964,18.4043,-0.546746,-8.72185,-49.5055,7.77477,2.24454,2.79366,2.62049,1.37061,3.76686,-1.17787,0.398651,1.90648,-2.73597,-9.36443,-3.23044,-3.37216,29.4876,-8.39684,12.7652,11.9152,-2.88801,4.24767,-1.56695e-13,1.86858e-14,21.0214,9.71212,-82.9725,72.5013,-98.2013,-36.4464,-17.8001,7.12502,-9.54052,-47.5641,-1.56695e-13,1.86858e-14,-11.0753,8.11575,66.7278,110.713,85.7169,-6.97845,22.9513,7.12502,18.8915,52.0539,-3.11026,14.0815,17.6836,34.9744,-26.0752,-18.4794,-5.66746,-10.1028,-9.6893,-9.68743,27.4441,-4.61769,-1.74632,-6.7369
-2.89589,18.3998,-0.536846,-8.62911,-49.3654,7.61203,2.191,2.82573,2.58386,1.26754,3.80901,-1.01353,0.311767,1.92411,-2.54807,-9.16104,-3.17374,-3.45731,29.2917,-8.23663,12.7035,11.7752,-2.84325,4.25515,4.25217e-14,-8.74653e-15,21.7134,10.6444,-82.4194,70.3395,-97.4935,-37.7047,-20.4046,7.12502,-10.7544,-50.1093,4.25217e-14,-8.74653e-15,-9.72865,8.3429,66.8934,107.237,86.916,-6.42963,23.7816,7.12502,19.4193,52.8319,-3.07439,13.9098,17.7581,35.0402,-25.9818,-18.5775,-6.21359,-10.0223,-10.4959,-9.44412,26.539,-3.86028,-2.7816,-6.52266
-2.89052,18.3947,-0.522933,-8.69299,-49.2456,7.55318,2.10646,2.84858,2.54346,1.2411,3.83728,-0.874229,0.321283,1.93723,-2.37937,-9.0853,-3.09628,-3.44241,29.2777,-8.0408,12.4617,11.7179,-2.78078,4.1857,-1.93349e-14,1.59028e-15,22.6394,11.7324,-81.7878,68.1231,-96.5387,-39.3414,-22.5917,7.12502,-12.3328,-52.208,-1.93349e-14,1.59028e-15,-8.16757,8.69058,67.1096,103.696,88.9032,-6.98249,24.466,7.12502,18.8877,53.5689,-2.96197,13.7089,17.7392,35.1223,-25.7736,-18.5802,-6.94875,-9.8473,-11.1934,-9.34896,25.7168,-3.27012,-3.43229,-6.02253
-2.88333,18.3885,-0.505481,-8.89262,-49.1546,7.62268,2.04385,2.94471,2.58411,1.23023,3.965,-0.882022,0.356208,2.00192,-2.40787,-9.13249,-3.05072,-3.25914,29.3723,-7.97642,12.3115,11.7442,-2.74196,4.10704,-1.57537e-13,7.95139e-15,23.668,12.5655,-81.2781,65.8447,-95.3795,-40.8162,-25.8237,7.12502,-13.7545,-55.3491,-1.57537e-13,7.95139e-15,-6.16178,8.69651,67.2286,100.306,91.9233,-9.779,25.1107,7.12502,16.1965,54.4541,-2.79891,13.6783,17.655,35.1947,-25.5089,-18.6542,-7.86644,-9.61912,-11.7634,-9.41329,25.0026,-3.11635,-3.68945,-7.90114
-2.87669,18.385,-0.484931,-9.29572,-49.0696,7.90865,2.11574,3.09965,2.50895,1.14386,4.17303,-0.963631,0.240806,2.10343,-2.45893,-9.08649,-3.0665,-3.11872,29.4274,-8.03699,12.3129,11.7586,-2.75296,4.07734,-9.41245e-14,6.36111e-15,24.57,13.2724,-80.7852,63.5734,-94.1425,-41.8577,-29.9188,7.12502,-14.7581,-59.3734,-9.41245e-14,6.36111e-15,-4.05083,8.51864,67.282,96.7232,94.9995,-11.9594,26.2174,7.12502,14.0961,55.7193,-2.59689,13.6801,17.4161,35.2644,-25.3287,-18.7095,-8.34154,-9.34735,-12.5433,-9.64698,24.4092,-3.18843,-3.51895,-8.24406
-2.87022,18.3827,-0.459759,-9.41732,-48.9458,7.85453,2.07983,3.19445,2.55988,1.08268,4.30043,-0.882157,0.203374,2.16598,-2.40517,-9.21574,-3.06534,-3.02172,29.6421,-8.02991,12.134,11.8578,-2.74602,3.99914,-4.21175e-15,-1.51076e-14,25.5812,14.1861,-80.1137,61.3789,-93.1547,-42.8584,-33.5781,7.12502,-15.722,-62.9594,-4.21175e-15,-1.51076e-14,-1.83061,8.57912,67.5167,92.6881,97.3017,-12.219,27.5314,7.12502,13.846,57.0505,-2.40123,13.5721,17.3947,35.3314,-25.3693,-18.7095,-8.5993,-9.12647,-13.443,-9.64716,23.9205,-3.26394,-3.16676,-6.42969
-2.8606,18.3772,-0.433656,-9.18287,-48.6778,7.45114,1.88456,3.20596,2.81569,1.04976,4.3158,-0.725514,0.286608,2.1753,-2.37589,-9.4448,-2.99816,-2.91235,29.9314,-7.9204,11.8993,11.9945,-2.69164,3.91268,1.72818e-14,-1.11319e-14,26.7599,15.1526,-79.4224,59.2661,-92.2546,-43.4777,-37.7764,7.12502,-16.3184,-67.1098,1.72818e-14,-1.11319e-14,0.335564,8.65828,67.84,88.6492,99.8414,-12.0416,28.2825,7.12502,14.0169,57.7899,-2.29087,13.3306,17.5884,35.4116,-25.4144,-18.7776,-8.96431,-9.09266,-14.1148,-9.43234,23.5369,-3.37241,-2.99873,-6.74867
-2.85216,18.3691,-0.411217,-9.12256,-48.5281,7.20227,1.7646,3.2847,3.02174,1.02897,4.42087,-0.666911,0.349993,2.22956,-2.42381,-9.5353,-2.94487,-2.81331,30.0365,-7.87717,11.9013,12.0487,-2.65274,3.90524,-1.95057e-14,-2.38542e-15,27.964,16.0255,-78.7764,57.2428,-91.467,-42.7517,-42.0929,7.12502,-15.6192,-71.4823,-1.95057e-14,-2.38542e-15,2.50782,8.43425,68.0296,84.7725,102.558,-12.9892,28.2493,7.12502,13.1036,57.8176,-2.1171,13.318,17.7269,35.5052,-25.5037,-18.7815,-9.05739,-9.0061,-14.4394,-9.32186,23.3249,-3.67451,-3.13037,-8.14624
-2.8431,18.3572,-0.390081,-9.23254,-48.5957,7.17779,1.70264,3.49221,3.02467,1.01063,4.69609,-0.623155,0.380119,2.36736,-2.37817,-9.8193,-2.98826,-2.70342,30.2296,-7.99175,11.8967,12.1958,-2.67365,3.87327,7.77993e-14,-6.36111e-15,29.203,16.8074,-77.9886,55.2817,-90.7226,-46.8438,-40.8622,7.12502,-19.5571,-69.8985,7.77993e-14,-6.36111e-15,4.84313,8.04106,68.2535,80.8955,104.728,-14.6893,27.9287,7.12502,11.4644,57.5953,-1.98064,13.5841,17.7428,35.6137,-25.5861,-18.7879,-8.99768,-8.84783,-14.363,-9.34642,23.2012,-3.96349,-3.43376,-9.28346
-2.83051,18.3459,-0.36694,-9.16422,-48.5312,7.04925,1.51038,3.63191,3.09157,0.982856,4.87775,-0.567165,0.471371,2.45953,-2.34576,-10.1926,-3.00253,-2.58626,30.5057,-8.07573,11.8775,12.3929,-2.67564,3.84081,-3.75455e-14,-3.18055e-15,30.5126,17.6468,-77.1515,53.4204,-90.0085,-48.8005,-41.6191,7.12502,-21.4374,-70.453,-3.75455e-14,-3.18055e-15,7.16435,7.82133,68.5032,77.0218,106.509,-16.1329,28.4286,7.12502,10.0719,58.1676,-1.97521,13.7208,17.7871,35.764,-25.609,-18.8739,-8.90229,-8.84478,-14.2283,-9.2964,23.1235,-4.07699,-3.68833,-8.4181
-2.81931,18.3408,-0.340125,-9.15695,-48.3803,6.97111,1.31438,3.70012,3.10403,0.943042,4.96314,-0.499348,0.540485,2.50262,-2.27085,-10.3811,-2.94309,-2.50493,30.718,-8.03485,11.8651,12.5138,-2.63454,3.8344,1.01778e-13,1.59028e-15,31.8211,18.6306,-76.2984,51.7081,-89.3408,-48.9046,-43.772,7.12502,-21.5374,-72.5945,1.01778e-13,1.59028e-15,9.3483,7.72685,68.7554,73.1569,107.806,-17.3579,29.3724,7.12502,8.89002,59.1651,-1.91139,13.7879,17.7892,35.9065,-25.6484,-18.9688,-8.83691,-8.76566,-14.1632,-9.35349,23.0754,-4.27553,-3.8332,-7.14511
-2.80691,18.3293,-0.308224,-9.33446,-48.243,7.07504,1.25138,3.78346,3.00694,0.894501,5.07217,-0.478825,0.522298,2.55563,-2.19355,-10.5459,-2.93561,-2.44983,30.8248,-8.06191,11.8944,12.5967,-2.62565,3.83554,4.47514e-14,2.38542e-15,33.0573,19.4448,-75.5044,50.2072,-88.5399,-47.7897,-45.029,7.12502,-20.4663,-73.9703,4.47514e-14,2.38542e-15,11.511,7.55332,68.9753,69.3875,108.732,-18.7953,30.1335,7.12502,7.50275,59.9804,-1.77753,13.9485,17.6459,36.0454,-25.7538,-19.0073,-8.96203,-8.54884,-14.1144,-9.61193,23.0582,-4.59579,-3.98512,-7.41925
-2.79455,18.322,-0.271264,-9.46299,-48.0935,7.10269,1.11342,3.86277,3.03828,0.899388,5.17406,-0.501116,0.615478,2.60846,-2.22241,-10.6802,-2.9048,-2.32852,30.7954,-8.07283,11.9988,12.6171,-2.59786,3.85156,-1.4059e-13,3.18055e-15,34.2604,20.0607,-74.8029,48.9569,-87.673,-47.1453,-46.2197,7.12502,-19.847,-75.2264,-1.4059e-13,3.18055e-15,13.6843,7.30041,69.1494,65.7392,109.143,-20.3462,30.5852,7.12502,6.00556,60.4801,-1.58456,14.0689,17.5444,36.1337,-25.7217,-19.0886,-9.6174,-8.25418,-14.1018,-9.84885,23.0025,-4.92448,-4.24654,-8.31029
-2.78322,18.3192,-0.233383,-9.60152,-47.9907,7.14261,0.997229,3.95618,3.01206,0.872983,5.2954,-0.51303,0.659498,2.66946,-2.21156,-10.7114,-2.82598,-2.15917,30.7482,-8.03385,12.1399,12.6034,-2.54294,3.88089,-2.84759e-14,-8.74653e-15,35.4284,20.7128,-74.0442,47.7911,-86.9412,-47.486,-47.665,7.12502,-20.1745,-76.6374,-2.84759e-14,-8.74653e-15,15.7042,6.92663,69.2862,62.3257,109.007,-21.8638,31.074,7.12502,4.54031,61.0053,-1.41609,14.2725,17.4726,36.2143,-25.5081,-19.3438,-10.6563,-7.97922,-13.8841,-10.0882,22.9459,-5.16058,-4.55329,-8.47312
-2.77307,18.322,-0.195986,-9.65147,-47.9376,7.07552,0.920227,4.05542,2.99174,0.866958,5.42522,-0.479116,0.699073,2.73459,-2.15897,-10.9227,-2.7703,-2.08515,30.755,-8.03126,12.3245,12.6609,-2.50102,3.9404,4.43787e-14,5.56597e-15,36.5661,21.2648,-73.347,46.9619,-86.431,-47.1508,-47.8293,7.12502,-19.8522,-76.8354,4.43787e-14,5.56597e-15,17.6402,6.5869,69.4161,59.2696,109.006,-23.3383,32.0857,7.12502,3.11642,62.0427,-1.24979,14.5856,17.5062,36.2615,-25.4865,-19.5114,-10.828,-7.70947,-13.6588,-10.2535,22.8548,-5.44537,-4.61069,-9.10803
-2.761,18.3215,-0.156268,-9.58136,-47.8777,6.89904,0.862042,4.118,3.08643,0.825433,5.50787,-0.461006,0.701129,2.77598,-2.18911,-11.0265,-2.72837,-2.00135,30.6868,-8.03028,12.4823,12.6621,-2.46898,3.98479,-1.94809e-14,7.95139e-16,37.55,21.6457,-72.9739,46.4615,-85.9118,-46.4995,-47.3896,7.12502,-19.226,-76.4593,-1.94809e-14,7.95139e-16,19.3163,6.35605,69.4712,56.7418,109.23,-24.7203,33.3338,7.12502,1.78174,63.3061,-1.1078,14.8286,17.5619,36.3112,-25.6596,-19.3622,-10.2088,-7.46275,-13.6526,-10.3438,22.7258,-5.87707,-4.45319,-9.97122
-2.74477,18.3193,-0.118872,-9.38683,-47.8601,6.58123,0.927244,4.15825,3.21729,0.724399,5.56559,-0.398153,0.570756,2.80194,-2.20673,-11.1015,-2.71184,-1.7089,30.6027,-8.02123,12.3572,12.6257,-2.44399,3.87967,-1.86361e-14,-9.54166e-15,38.3291,21.8978,-72.8695,46.2243,-85.3591,-46.2891,-46.9426,7.12502,-19.0237,-76.0322,-1.86361e-14,-9.54166e-15,20.6607,6.13747,69.4711,54.8519,109.3,-26.2425,34.3768,7.12502,0.311554,64.3564,-1.01046,15.0708,17.6964,36.3648,-25.734,-19.1742,-9.86194,-7.23712,-13.6106,-10.3129,22.5113,-6.2063,-4.41936,-10.2749
-2.72874,18.3193,-0.0822595,-9.28859,-47.8528,6.36871,0.986764,4.18055,3.25421,0.688261,5.59786,-0.33295,0.499413,2.81628,-2.16706,-11.3935,-2.68561,-1.55606,30.6537,-8.01247,12.2982,12.7014,-2.41451,3.83039,3.77194e-14,5.56597e-15,39.0711,22.0284,-72.8978,46.3456,-85.0805,-46.1341,-46.4933,7.12502,-18.8747,-75.5976,3.77194e-14,5.56597e-15,21.8376,6.00924,69.471,53.5729,109.26,-27.592,35.4627,7.12502,-0.991857,65.4401,-0.904478,15.3198,17.7773,36.462,-25.7508,-19.0765,-9.72877,-6.96036,-13.4466,-10.364,22.1748,-6.37583,-4.45544,-10.588
-2.71515,18.3236,-0.0365627,-9.50848,-47.8371,6.5442,0.889638,4.17029,3.28025,0.795261,5.58022,-0.496392,0.681392,2.81294,-2.33452,-11.7988,-2.5975,-1.42543,30.6347,-7.99226,12.5133,12.7896,-2.34866,3.89221,-7.73272e-14,1.03368e-14,39.8213,21.8697,-73.437,46.7823,-84.9893,-45.985,-45.7206,7.12502,-18.7313,-74.8388,-7.73272e-14,1.03368e-14,23.01,6.06803,69.347,52.9186,109.174,-28.5583,36.2411,7.12502,-1.9251,66.2122,-0.751051,15.5574,17.5568,36.5636,-25.6422,-19.0405,-10.2112,-6.54509,-13.4883,-10.7653,21.7692,-6.63431,-4.19118,-10.7666
-2.70169,18.3253,0.0137114,-9.80071,-47.8082,6.86684,0.577004,4.12249,3.54286,1.03218,5.50719,-0.978738,1.168,2.79371,-2.93483,-12.1141,-2.46558,-1.04131,30.2227,-8.00458,13.0131,12.7082,-2.25292,3.99987,-1.91504e-13,-1.31198e-14,40.7109,21.3782,-74.5676,47.3528,-84.9759,-45.5231,-44.3664,7.12502,-18.287,-73.5268,-1.91504e-13,-1.31198e-14,24.2331,6.1052,68.756,52.9457,109.293,-29.4335,36.7721,7.12502,-2.77041,66.7339,-0.641445,15.7527,17.1884,36.6404,-25.4016,-19.0513,-10.9616,-6.11783,-13.6054,-11.3238,21.383,-6.98218,-3.74479,-11.0013
-2.6838,18.3317,0.0643043,-9.68337,-47.8079,6.81136,0.64391,4.1697,3.28831,0.890837,5.57226,-0.809642,0.948655,2.81683,-2.63337,-12.0875,-2.54429,-1.22904,29.9266,-8.05326,13.1215,12.5963,-2.2932,4.05578,6.99971e-14,7.55382e-15,40.9819,21.0268,-75.1038,48.1019,-85.1762,-44.6718,-42.2423,7.12502,-17.4678,-71.4775,6.99971e-14,7.55382e-15,24.6619,6.177,69.1859,53.5922,109.412,-30.1802,37.3179,7.12502,-3.49144,67.269,-0.700777,15.9514,17.0689,36.6988,-25.1287,-19.1124,-11.2866,-5.8318,-13.9302,-11.595,20.9905,-7.29736,-3.04205,-10.3963
