JuanDHNZ/ProyectoFinalCD/preprocessing/sports_trials_csv/13_21.csv
root1,root2,root3,root4,root5,root6,lowerback1,lowerback2,lowerback3,upperback1,upperback2,upperback3,thorax1,thorax2,thorax3,lowerneck1,lowerneck2,lowerneck3,upperneck1,upperneck2,upperneck3,head1,head2,head3,rclavicle1,rclavicle2,rhumerus1,rhumerus2,rhumerus3,rradius1,rwrist1,rhand1,rhand2,rfingers1,rthumb1,rthumb2,lclavicle1,lclavicle2,lhumerus1,lhumerus2,lhumerus3,lradius1,lwrist1,lhand1,lhand2,lfingers1,lthumb1,lthumb2,rfemur1,rfemur2,rfemur3,rtibia1,rfoot1,rfoot2,rtoes1,lfemur1,lfemur2,lfemur3,ltibia1,lfoot1,lfoot2,ltoes1
0.284369,17.754,5.20264,-1.21213,-45.523,15.6688,22.1045,-2.90863,0.54668,11.7808,-4.07546,1.01472,0.58543,-2.22156,1.61956,-14.6203,-0.119961,-2.50713,-7.43331,0.0917101,6.11901,0.108193,0.0738699,2.39833,4.77083e-14,-3.18055e-14,18.2671,16.8259,-69.5783,94.3905,-20.4105,-49.6783,-15.3295,7.12502,-22.2803,-44.0651,4.77083e-14,-3.18055e-14,49.9598,-40.7077,58.1495,65.8218,-1.86998,-47.0557,27.9899,7.12502,-19.7608,57.0054,-44.2425,5.48261,-4.84135,45.373,-11.1312,-10.7674,0.419062,-20.5931,19.0997,-29.8452,41.1465,-25.3284,18.9608,-10.1429
0.293432,17.7664,5.20004,-1.35057,-45.0827,15.4865,21.8721,-2.80714,0.367851,11.6641,-3.96859,1.00002,0.577689,-2.17124,1.67329,-14.6119,-0.105522,-2.45119,-7.42718,0.104874,6.10633,0.1079,0.0803349,2.38437,-8.82604e-14,1.82882e-14,17.9819,16.91,-69.8419,94.0585,-17.169,-49.8373,-17.5077,7.12502,-22.4329,-46.225,-8.82604e-14,1.82882e-14,49.3863,-40.9241,58.7255,66.0034,-0.843669,-44.9945,27.7007,7.12502,-17.7784,56.908,-43.6362,5.62341,-4.8232,45.1738,-11.1597,-11.1389,0.307438,-20.1972,18.9737,-29.6421,40.9559,-25.1639,18.7961,-10.3006
0.308279,17.7775,5.20194,-1.54902,-44.6355,15.2947,21.7253,-2.75948,0.315098,11.5539,-3.90786,0.973102,0.527653,-2.13788,1.65782,-14.5182,-0.12467,-2.39639,-7.48924,0.0736418,5.98488,0.072723,0.0609599,2.33115,-4.05521e-14,2.8625e-14,17.804,17.0706,-70.0597,93.5709,-14.2377,-50.3215,-19.0312,7.12502,-22.8977,-47.6916,-4.05521e-14,2.8625e-14,48.7603,-41.0368,59.3462,66.1403,0.183468,-45.2237,28.1429,7.12502,-17.9989,57.3301,-42.9491,5.68633,-4.78182,44.9247,-11.1123,-11.4513,0.159872,-19.7502,18.7978,-29.4415,40.8351,-25.0844,18.6266,-10.219
0.324904,17.7881,5.20487,-1.63741,-44.173,14.9411,21.6403,-2.74834,0.355603,11.4122,-3.8742,0.981255,0.410553,-2.11425,1.63764,-14.4349,-0.0989418,-2.2704,-7.46119,0.0888349,5.80798,0.0658974,0.0648246,2.24906,5.48646e-14,-2.3059e-14,17.6206,17.3251,-70.336,93.0224,-11.6862,-51.0247,-19.8722,7.12502,-23.5723,-48.4475,5.48646e-14,-2.3059e-14,48.0141,-41.1117,60.0304,66.3499,1.14274,-46.9649,29.0471,7.12502,-19.6736,58.0715,-42.2355,5.79219,-4.6332,44.6773,-11.2417,-11.8017,0.18308,-19.3245,18.5736,-29.1177,40.7235,-24.9079,18.5066,-10.2533
0.336107,17.8012,5.20527,-1.46751,-43.6054,14.4463,21.3833,-2.72025,0.394354,11.2471,-3.81646,1.06844,0.358336,-2.08033,1.68851,-14.4393,-0.144834,-2.22303,-7.41373,0.020682,5.72918,0.0842823,0.0309787,2.2112,3.97569e-15,2.78299e-14,17.37,17.4925,-70.549,92.6064,-9.49804,-51.5482,-20.4762,7.12502,-24.0744,-48.9861,3.97569e-15,2.78299e-14,47.2828,-41.286,60.8022,66.6229,1.87712,-47.0575,29.3109,7.12502,-19.7626,58.3262,-41.6059,5.8686,-4.39417,44.4169,-11.4521,-12.251,0.586258,-19.0791,18.2016,-28.7048,40.6244,-24.7539,18.3439,-9.94073
0.346637,17.8118,5.20639,-1.44372,-43.1146,14.2077,21.0781,-2.65869,0.330906,11.071,-3.73587,1.06978,0.317642,-2.03624,1.69895,-14.4465,-0.245267,-2.34651,-7.34731,-0.0930095,5.79284,0.113059,-0.0194422,2.24999,-8.42847e-14,4.37326e-14,17.0704,17.6244,-70.7906,92.21,-7.50851,-52.5744,-20.7752,7.12502,-25.058,-49.1514,-8.42847e-14,4.37326e-14,46.5358,-41.5328,61.6304,66.7418,2.29702,-46.5839,29.3097,7.12502,-19.3072,58.3713,-41.0751,5.94332,-4.35588,44.1696,-11.6232,-12.6464,1.10671,-18.8616,17.824,-28.5227,40.5218,-24.6496,18.3229,-9.93255
0.357173,17.8234,5.21112,-1.48255,-42.7061,13.9382,23.0778,-2.03077,-0.889254,9.61346,-3.02575,2.36269,-2.13625,-1.70585,3.77843,-15.2314,-0.664203,-3.66925,-5.69909,-0.469258,5.13097,0.802808,-0.149624,2.26526,-3.18055e-15,6.36111e-15,15.4322,18.2988,-69.2694,92.0094,-6.11957,-53.726,-21.538,7.12502,-26.161,-49.7555,-3.18055e-15,6.36111e-15,43.647,-42.2595,66.1113,66.7043,2.44491,-46.4585,28.9153,7.12502,-19.1867,57.9888,-40.4775,6.1252,-4.29224,43.9229,-11.868,-12.9926,1.52064,-18.5373,17.5549,-28.2979,40.414,-24.536,18.3023,-10.1343
0.3681,17.8332,5.21298,-1.5926,-42.2323,13.8258,22.7528,-1.9846,-0.977793,9.48579,-2.97757,2.25199,-2.12158,-1.67565,3.68513,-15.2292,-0.686203,-3.70334,-5.61108,-0.491955,5.23462,0.834241,-0.155928,2.30573,-1.66979e-14,1.11319e-14,15.2374,18.2682,-69.631,91.7831,-4.70854,-54.2041,-22.6467,7.12502,-26.6186,-50.7956,-1.66979e-14,1.11319e-14,42.9323,-42.3889,66.5923,66.9677,3.26702,-46.1415,28.5251,7.12502,-18.8818,57.6286,-39.9171,6.21994,-4.34926,43.6881,-12.0076,-13.4343,1.48996,-18.2771,17.2652,-28.2021,40.3173,-24.4642,18.1699,-9.98433
0.379578,17.843,5.21144,-1.54611,-41.719,13.4752,22.4329,-1.93313,-0.963642,9.40363,-2.90108,2.21649,-2.06155,-1.63297,3.6071,-15.2322,-0.735977,-3.68697,-5.58222,-0.559128,5.32642,0.84857,-0.186572,2.33016,-4.92986e-14,3.18055e-15,15.0368,18.1847,-69.9388,91.5651,-3.09334,-55.0696,-23.0998,7.12502,-27.4467,-51.1201,-4.92986e-14,3.18055e-15,42.3792,-42.5125,67.0014,67.1728,4.21592,-45.885,28.4113,7.12502,-18.635,57.5387,-39.3203,6.37535,-4.20843,43.4171,-12.102,-13.9796,1.4352,-18.064,16.9267,-27.9064,40.2683,-24.3465,18.0936,-10.1871
0.39086,17.852,5.2066,-1.3793,-41.2147,12.9671,22.1325,-1.86987,-0.8523,9.32502,-2.78811,2.2485,-2.00978,-1.57165,3.53954,-15.2738,-0.820493,-3.6725,-5.61825,-0.670682,5.34601,0.849192,-0.241584,2.328,1.98785e-14,2.38542e-14,14.8453,18.0995,-70.1912,91.2947,-1.42155,-56.7018,-22.5814,7.12502,-29.0067,-50.344,1.98785e-14,2.38542e-14,41.8623,-42.6165,67.4483,67.4729,5.48419,-45.6044,28.8826,7.12502,-18.3651,58.0357,-38.7434,6.60396,-3.93093,43.1297,-12.216,-14.5393,1.34319,-17.9095,16.5981,-27.4695,40.2645,-24.2745,17.9366,-10.1008
0.401822,17.8654,5.20458,-1.10676,-40.7327,12.2935,21.7797,-1.82196,-0.603704,9.25733,-2.66801,2.33906,-1.92276,-1.50563,3.45292,-15.3702,-0.911069,-3.68556,-5.6348,-0.785107,5.27954,0.86468,-0.29852,2.30222,-9.30312e-14,-7.95139e-15,14.7308,18.0564,-70.3225,91.0649,0.0238994,-56.8123,-20.9257,7.12502,-29.1122,-48.6701,-9.30312e-14,-7.95139e-15,41.2734,-42.6702,67.9929,67.8746,6.9202,-45.0956,29.399,7.12502,-17.8757,58.5975,-38.1475,6.8073,-3.48937,42.8097,-12.3475,-15.0428,1.09335,-17.7672,16.243,-26.8981,40.3,-24.2471,17.7966,-9.99471
0.410058,17.8753,5.20172,-0.975994,-40.2426,11.8225,21.5619,-1.81639,-0.493993,9.08453,-2.62732,2.34087,-2.0094,-1.47545,3.3781,-15.3162,-0.927013,-3.72016,-5.58262,-0.799975,5.28689,0.874024,-0.30374,2.31023,1.59028e-14,2.70347e-14,14.5453,18.2042,-70.5646,90.851,1.28671,-56.7832,-20.3034,7.12502,-29.0845,-48.0526,1.59028e-14,2.70347e-14,40.369,-42.7464,68.6143,68.2483,8.25782,-44.739,29.5148,7.12502,-17.5325,58.7442,-37.5533,6.95126,-3.18931,42.4885,-12.3941,-15.4672,0.742688,-17.6068,15.888,-26.4811,40.3434,-24.2565,17.5915,-9.59672
0.418541,17.8823,5.19606,-0.961325,-39.7247,11.4818,21.4169,-1.78535,-0.55884,8.92019,-2.58677,2.37286,-2.11295,-1.45055,3.43832,-15.1525,-0.930609,-3.9507,-5.65922,-0.766894,5.4447,0.824074,-0.281195,2.40626,2.62396e-14,-4.6118e-14,14.3072,18.3976,-70.6526,90.7326,2.54872,-56.9555,-20.3898,7.12502,-29.2489,-48.1105,2.62396e-14,-4.6118e-14,39.4301,-42.7707,69.4012,68.5498,9.55115,-44.5534,29.6748,7.12502,-17.3538,58.9201,-36.923,7.1743,-3.00521,42.1495,-12.4581,-16.0213,0.627747,-17.4362,15.5624,-26.1704,40.3778,-24.1632,17.4878,-9.76628
0.425225,17.8942,5.19179,-0.934192,-39.1949,11.0862,21.2756,-1.67437,-0.628861,8.76967,-2.44329,2.4389,-2.20783,-1.37595,3.51499,-14.7642,-1.06688,-4.11401,-6.06095,-0.920811,5.5437,0.637043,-0.361269,2.45712,-4.29375e-14,-3.49861e-14,13.9164,18.4719,-70.681,90.7083,3.64554,-57.5867,-20.579,7.12502,-29.8516,-48.1931,-4.29375e-14,-3.49861e-14,38.5654,-42.9018,70.1337,68.9466,10.8412,-44.3461,30.387,7.12502,-17.1543,59.6498,-36.2434,7.57374,-2.81641,41.8041,-12.7253,-16.739,0.820826,-17.222,15.2725,-25.8192,40.3662,-23.9224,17.5084,-10.4824
0.429026,17.9104,5.18883,-0.831084,-38.6632,10.5048,21.198,-1.63182,-0.434523,8.62162,-2.34077,2.42053,-2.34484,-1.31383,3.3625,-14.1894,-1.28046,-4.14384,-6.74284,-1.19819,5.67975,0.333882,-0.511545,2.48989,4.85035e-14,-1.59028e-15,13.6427,18.4714,-70.9442,90.4991,4.71196,-57.9535,-20.1892,7.12502,-30.2015,-47.7398,4.85035e-14,-1.59028e-15,37.7196,-43.1087,70.6294,69.3757,12.4712,-44.3663,30.4981,7.12502,-17.1738,59.7591,-35.5084,8.02038,-2.43353,41.4482,-12.995,-17.5428,0.990951,-16.9333,14.9738,-25.2992,40.3159,-23.6146,17.5872,-11.0814
0.433571,17.9271,5.18778,-0.79968,-38.0349,10.0163,21.0922,-1.63926,-0.435459,8.50083,-2.33667,2.54302,-2.41638,-1.30918,3.49214,-13.8451,-1.42275,-4.46634,-7.19447,-1.33774,5.83985,0.142438,-0.580899,2.59609,-2.78299e-14,9.54166e-15,13.6466,18.7322,-70.8722,90.2046,5.89669,-57.5608,-19.4505,7.12502,-29.8268,-47.069,-2.78299e-14,9.54166e-15,36.753,-43.1053,71.3979,69.8441,14.2427,-44.8042,30.4782,7.12502,-17.5953,59.702,-34.7315,8.30069,-2.07363,41.0882,-13.1158,-18.3602,0.983012,-16.6038,14.5227,-24.8374,40.2056,-23.5328,17.5011,-10.8649
0.435687,17.9428,5.18541,-0.816197,-37.3713,9.56756,20.9283,-1.68091,-0.362076,8.40952,-2.36892,2.54981,-2.43311,-1.31972,3.45991,-13.8007,-1.49569,-4.71878,-7.15975,-1.39473,6.11438,0.156677,-0.599305,2.73393,-6.36111e-15,-1.59028e-15,13.5326,19.0361,-70.9428,90.0479,7.12397,-57.0351,-19.2001,7.12502,-29.325,-46.9075,-6.36111e-15,-1.59028e-15,35.7678,-43.017,71.9499,70.3401,15.3114,-44.7413,30.8535,7.12502,-17.5347,60.0827,-33.9386,8.62361,-1.74452,40.792,-13.4055,-19.1143,1.65595,-16.2042,14.1197,-24.3788,39.9675,-23.3972,17.264,-10.3139
0.432714,17.957,5.18651,-0.973257,-36.757,9.28863,20.8462,-1.62608,-0.493932,8.25315,-2.31048,2.58582,-2.55703,-1.28726,3.56142,-13.7805,-1.5753,-5.04,-6.89287,-1.45543,6.32689,0.251521,-0.615048,2.86425,-2.38542e-15,1.74931e-14,13.2212,19.3671,-70.8614,90.0012,7.97038,-57.3342,-20.113,7.12502,-29.6105,-47.7701,-2.38542e-15,1.74931e-14,34.5718,-42.887,72.8536,70.7403,15.7848,-44.041,31.3752,7.12502,-16.8607,60.6632,-33.1307,9.00727,-1.53146,40.5402,-13.6499,-19.8675,1.93853,-15.7122,13.8822,-24.0701,39.6726,-23.1426,17.0845,-10.5025
0.422991,17.9668,5.19078,-1.78925,-35.7903,10.0677,20.7757,-1.52013,-1.56841,8.08395,-2.36458,2.56369,-2.655,-1.32426,4.16428,-13.6927,-1.68726,-5.56022,-6.72425,-1.53215,6.53874,0.30689,-0.63674,3.03214,-1.11319e-14,-1.74931e-14,12.7693,19.7556,-70.4426,90.154,8.38446,-57.514,-19.8866,7.12502,-29.7821,-47.5131,-1.11319e-14,-1.74931e-14,33.2762,-42.7029,74.1761,71.0833,16.0521,-43.2021,31.6981,7.12502,-16.053,61.0531,-32.174,8.87748,-2.23255,40.3703,-13.6299,-20.5395,1.14091,-15.0971,13.3336,-24.7384,39.3259,-22.8776,17.0377,-11.0208
0.423447,17.9801,5.19378,-2.11079,-34.8348,10.2939,20.6467,-1.50462,-1.93665,7.89181,-2.40451,2.44875,-2.78266,-1.33756,4.25942,-13.8113,-1.68964,-5.48478,-6.41446,-1.54446,6.593,0.429736,-0.637285,3.03654,-5.725e-14,3.33958e-14,12.0522,19.9427,-70.3322,90.5573,8.86183,-57.646,-19.7586,7.12502,-29.9081,-47.3625,-5.725e-14,3.33958e-14,32.138,-42.7162,75.0063,71.5533,16.4243,-42.4736,31.9784,7.12502,-15.3514,61.3885,-31.3938,8.76285,-2.50034,40.2028,-13.8354,-21.1644,1.35456,-14.7268,12.7406,-24.9723,39.052,-22.6561,16.9348,-11.1859
0.426081,17.9944,5.19756,-2.09886,-33.97,10.1094,19.6743,-1.72094,-1.33268,8.18686,-2.59586,1.83398,-2.01614,-1.42667,3.24419,-14.3256,-1.46661,-4.64129,-6.1469,-1.35784,6.80667,0.586144,-0.546701,2.96185,-8.0309e-14,5.08889e-14,12.3263,19.6672,-71.0767,90.5133,9.63642,-57.3058,-17.9952,7.12502,-29.5834,-45.6571,-8.0309e-14,5.08889e-14,32.0701,-42.9177,74.0353,72.1886,17.5911,-42.4136,32.0935,7.12502,-15.2936,61.508,-30.7131,8.82205,-2.44525,40.0201,-14.5462,-21.6326,3.28084,-14.5082,12.2609,-24.853,38.8542,-22.4448,16.7937,-11.5691
0.418525,18.0091,5.19955,-1.98112,-33.2364,9.52924,19.5288,-1.58102,-1.44407,8.00655,-2.41142,2.14348,-2.12698,-1.33595,3.59829,-14.4923,-1.47139,-4.95028,-5.69441,-1.32151,6.88501,0.767271,-0.51078,3.0523,-1.18476e-13,6.52014e-14,12.2963,19.9464,-70.6333,90.3073,10.3782,-57.33,-15.9913,7.12502,-29.6066,-43.6491,-1.18476e-13,6.52014e-14,30.9229,-43.1233,75.0984,72.8696,19.282,-42.8402,31.7517,7.12502,-15.7044,61.1345,-29.9849,9.18163,-1.94709,39.7994,-15.0688,-22.3929,4.31647,-14.2411,11.9679,-24.3079,38.7888,-22.1829,16.6526,-12.2926
0.402408,18.0255,5.19736,-1.73456,-32.5165,8.45782,19.2904,-1.58259,-0.939327,7.98932,-2.31484,2.29499,-2.04474,-1.28039,3.44316,-14.4601,-1.53009,-5.10171,-5.595,-1.37751,7.14503,0.805189,-0.529151,3.16886,1.35174e-14,-4.92986e-14,11.9637,20.1556,-70.6396,90.3363,11.2158,-57.2679,-14.6283,7.12502,-29.5473,-42.2966,1.35174e-14,-4.92986e-14,29.9259,-43.2285,75.5575,73.6015,20.7685,-43.0041,31.7766,7.12502,-15.8623,61.1469,-29.1511,9.57816,-0.842464,39.594,-15.1372,-23.4321,3.45576,-13.9229,11.6475,-23.2174,38.7885,-21.8808,16.4982,-12.6461
0.384675,18.0361,5.19788,-1.64968,-31.6744,7.71681,18.9623,-1.59473,-0.576258,7.99399,-2.26402,2.32129,-1.88861,-1.24833,3.24051,-14.5114,-1.59431,-5.03686,-5.48891,-1.47185,7.25006,0.856576,-0.571963,3.18851,-2.14687e-14,-2.70347e-14,11.5257,20.2791,-70.6529,90.4401,11.9987,-56.9535,-14.3118,7.12502,-29.2471,-42.0328,-2.14687e-14,-2.70347e-14,28.928,-43.3308,76.0267,74.2133,21.5782,-42.7893,31.9057,7.12502,-15.6554,61.2923,-28.2896,9.80348,-0.0546649,39.4504,-15.5017,-24.1223,3.07336,-13.6296,11.2634,-22.4125,38.7978,-21.7959,16.1008,-12.1552
0.368797,18.0408,5.20262,-1.74988,-30.7342,7.45521,18.6121,-1.57168,-0.556645,7.9225,-2.22574,2.27777,-1.79037,-1.2251,3.16279,-14.476,-1.69522,-5.00041,-5.37344,-1.61329,7.32056,0.899165,-0.639339,3.19849,3.26007e-14,-9.54166e-15,11.2824,20.5411,-70.4134,90.376,12.607,-57.0318,-14.291,7.12502,-29.3219,-41.9989,3.26007e-14,-9.54166e-15,27.8782,-43.4987,76.6162,74.7723,22.3738,-42.7067,31.8985,7.12502,-15.5759,61.2913,-27.4797,9.85717,0.233545,39.3647,-16.2145,-24.2791,3.56934,-13.366,10.9748,-22.1018,38.81,-21.6864,15.6782,-12.142
0.35239,18.0444,5.20451,-1.85146,-29.7417,7.19351,18.3488,-1.56716,-0.593874,7.80061,-2.21682,2.29186,-1.78351,-1.2169,3.18934,-14.4033,-1.77007,-5.15129,-5.20518,-1.69484,7.48134,0.953814,-0.671687,3.27958,7.95139e-16,-1.43125e-14,11.1035,20.9298,-70.0346,90.3409,12.9802,-57.3348,-14.0957,7.12502,-29.6111,-41.7527,7.95139e-16,-1.43125e-14,26.693,-43.5729,77.2697,75.3936,23.1581,-42.6632,31.6398,7.12502,-15.534,61.0358,-26.6784,9.78207,0.54535,39.3211,-16.7916,-24.1041,3.54047,-13.1214,10.6077,-21.7808,38.8024,-21.4658,15.3206,-12.3259
0.329801,18.0479,5.20668,-1.94042,-28.7934,6.84037,18.0836,-1.54608,-0.60335,7.72311,-2.18392,2.30954,-1.73012,-1.19794,3.19827,-14.3098,-1.80781,-5.30093,-5.09281,-1.72674,7.68464,0.984009,-0.679631,3.37816,4.77083e-15,-1.11319e-14,10.9497,21.1794,-69.7667,90.3584,13.246,-57.4321,-13.2733,7.12502,-29.704,-40.9138,4.77083e-15,-1.11319e-14,25.5805,-43.6577,77.7537,75.9938,23.571,-42.5409,31.522,7.12502,-15.4162,60.9271,-25.851,9.678,0.995614,39.2832,-17.4155,-23.7647,3.18026,-12.844,10.1532,-21.3257,38.7673,-21.3268,14.9548,-12.3442
0.305142,18.0525,5.20945,-1.98625,-27.8774,6.44601,17.8176,-1.51086,-0.592359,7.63686,-2.12933,2.32217,-1.68765,-1.1675,3.18661,-14.3174,-1.8278,-5.32536,-4.9195,-1.75323,7.80166,1.04793,-0.686109,3.42354,-5.96354e-14,1.59028e-14,10.9777,21.5338,-69.3845,90.2881,13.4803,-57.0897,-12.7196,7.12502,-29.3771,-40.4178,-5.96354e-14,1.59028e-14,24.4354,-43.7437,78.242,76.5267,23.6802,-42.3148,32.3783,7.12502,-15.1984,61.8001,-25.0752,9.58843,1.49224,39.1535,-18.0837,-23.0988,2.56168,-12.5551,9.79248,-20.8208,38.6469,-21.0769,14.5276,-12.5974
0.281733,18.0636,5.20945,-1.92831,-26.918,6.06337,17.4355,-1.48036,-0.525489,7.52981,-2.07264,2.30699,-1.61002,-1.13407,3.10971,-14.4091,-1.88285,-5.24728,-4.71878,-1.84035,7.83705,1.13658,-0.724216,3.41732,7.95139e-14,-2.38542e-14,10.9286,21.804,-69.0542,90.2021,13.8002,-57.0282,-11.9624,7.12502,-29.3184,-39.6709,7.95139e-14,-2.38542e-14,23.3596,-43.9228,78.5799,77.0598,23.656,-41.9646,33.1718,7.12502,-14.8611,62.6188,-24.5166,9.48128,1.93248,39.0131,-18.667,-21.9772,1.58277,-12.3925,9.42243,-20.335,38.4287,-20.7674,14.0084,-12.7154
0.255095,18.0918,5.21334,-1.87448,-25.9207,5.59583,17,-1.44616,-0.472673,7.46091,-2.01273,2.40785,-1.45784,-1.10309,3.16063,-14.3876,-1.96538,-5.34307,-4.60694,-1.9372,7.85443,1.17926,-0.768128,3.43687,-7.196e-14,4.13472e-14,10.6475,21.8375,-68.902,90.2553,14.411,-57.3676,-11.5854,7.12502,-29.6424,-39.2368,-7.196e-14,4.13472e-14,22.2464,-43.9718,79.1039,77.4619,23.2901,-41.8092,32.3877,7.12502,-14.7113,61.8457,-23.8635,9.45394,2.47829,38.8365,-19.1923,-20.6428,0.644303,-12.139,8.9405,-19.7578,38.1274,-20.4701,13.5445,-12.7741
0.225795,18.1144,5.21706,-1.91684,-24.9473,5.35353,16.7099,-1.41762,-0.554427,7.28469,-1.97902,2.39305,-1.49332,-1.08197,3.17844,-14.3135,-2.00747,-5.43375,-4.37566,-1.98824,7.91754,1.25054,-0.787615,3.47486,2.38542e-14,-2.38542e-14,10.3618,22.0384,-68.7959,90.4226,14.9824,-57.4615,-12.1233,7.12502,-29.7321,-39.7588,2.38542e-14,-2.38542e-14,20.8638,-43.8664,79.7561,77.8005,22.7469,-41.5048,30.5537,7.12502,-14.418,60.0329,-23.2479,9.42874,2.80037,38.683,-19.7064,-19.2839,0.0461711,-11.8789,8.47584,-19.4076,37.8317,-20.1365,13.1645,-13.1835
0.193012,18.1278,5.22283,-1.8826,-23.8964,5.09769,16.2923,-1.37828,-0.709694,7.12017,-1.94075,2.45635,-1.44338,-1.0624,3.31488,-14.2335,-2.0549,-5.58638,-4.23309,-2.03335,7.94836,1.29117,-0.805471,3.5134,-1.66979e-14,3.81667e-14,10.2637,22.2972,-68.401,90.5417,15.387,-57.1342,-11.2335,7.12502,-29.4196,-38.9243,-1.66979e-14,3.81667e-14,19.5688,-43.7543,80.3218,78.2407,22.5317,-40.9802,29.3941,7.12502,-13.9125,58.9087,-22.6229,9.36327,3.18258,38.502,-20.2206,-18.3934,-1.11313,-11.6994,8.07487,-19.0258,37.5126,-19.7283,12.6754,-13.7817
0.162438,18.1334,5.23485,-1.93849,-22.9549,4.72158,16.1314,-1.32671,-0.640148,6.91408,-1.85143,2.50893,-1.58328,-1.01048,3.31442,-14.1859,-2.09298,-5.64622,-3.99569,-2.08238,7.91892,1.36645,-0.826212,3.51312,4.77083e-14,-5.88403e-14,10.0529,22.504,-68.0246,90.6323,15.817,-56.9504,-9.38705,7.12502,-29.2441,-37.1086,4.77083e-14,-5.88403e-14,18.1373,-43.7715,80.9001,78.7168,22.6847,-41.0096,29.7341,7.12502,-13.9409,59.2467,-21.8855,9.36763,3.73473,38.3515,-20.6862,-17.787,-2.08296,-11.3888,7.71172,-18.5143,37.2329,-19.4739,12.1746,-13.8985
0.13772,18.1459,5.24995,-2.21588,-22.0606,4.60586,15.8382,-1.25417,-0.563418,6.86144,-1.74538,2.36468,-1.49908,-0.951974,3.09186,-14.0982,-2.15313,-5.70301,-3.80073,-2.163,8.00097,1.42559,-0.8616,3.54934,-1.98785e-14,1.59028e-15,9.91274,22.5126,-67.7299,90.8002,16.0982,-56.9926,-7.99653,7.12502,-29.2844,-35.711,-1.98785e-14,1.59028e-15,16.885,-43.8964,81.2189,79.1562,22.6619,-41.2491,30.4414,7.12502,-14.1716,59.938,-21.0748,9.35279,4.00389,38.1906,-21.054,-17.2319,-2.6698,-10.9587,7.23541,-18.304,36.99,-19.3195,11.7926,-13.7702
0.101063,18.1549,5.25483,-2.45908,-20.9573,4.62383,15.5771,-1.18513,-0.789205,6.73022,-1.68266,2.24057,-1.50115,-0.918497,3.0727,-13.8813,-2.20783,-5.96703,-3.62911,-2.21333,8.3059,1.46176,-0.877286,3.70683,-5.56597e-15,2.70347e-14,9.75075,22.5354,-67.4572,90.9676,16.3002,-57.0723,-6.95676,7.12502,-29.3605,-34.6579,-5.56597e-15,2.70347e-14,15.6368,-44.128,81.4461,79.4387,22.3897,-41.6629,30.2154,7.12502,-14.5704,59.6836,-20.2538,9.38082,4.15694,38.0542,-21.6598,-16.8596,-2.5679,-10.6674,6.75415,-18.1771,36.7656,-19.0883,11.2366,-13.6594
0.0577243,18.1558,5.25388,-2.56381,-19.96,4.40292,15.3031,-1.08357,-0.917625,6.62727,-1.56225,2.19041,-1.47011,-0.856823,3.06654,-13.8675,-2.24723,-6.0138,-3.39328,-2.26938,8.43869,1.54748,-0.897811,3.76178,5.60573e-14,-3.49861e-14,9.79346,22.5583,-67.1216,91.111,16.6996,-57.1531,-7.54226,7.12502,-29.4376,-35.2299,5.60573e-14,-3.49861e-14,14.4839,-44.2813,81.5669,79.7145,22.33,-41.876,30.223,7.12502,-14.7757,59.6763,-19.4997,9.62833,4.57185,37.9698,-22.4429,-16.5148,-1.59079,-10.4426,6.40475,-17.7663,36.5213,-18.9257,10.6151,-13.3093
0.0162716,18.1594,5.25771,-2.68476,-19.0847,4.21218,15.06,-0.957811,-1.04566,6.49349,-1.40854,2.16018,-1.48919,-0.778,3.07806,-13.902,-2.29301,-6.00326,-3.05444,-2.34168,8.36501,1.6714,-0.929939,3.73176,-4.37326e-14,8.74653e-15,9.77803,22.4294,-66.9938,91.066,17.2644,-57.1408,-8.29057,7.12502,-29.4259,-35.9803,-4.37326e-14,8.74653e-15,13.1531,-44.2507,81.8298,80.0674,22.4257,-41.5196,30.1546,7.12502,-14.4323,59.6327,-18.8473,9.95012,4.96469,37.9413,-22.8632,-16.5202,-1.78952,-10.195,6.11412,-17.4045,36.2782,-18.7262,10.17,-13.5058
-0.0267818,18.1657,5.26936,-2.88366,-18.157,4.1599,14.7838,-0.831951,-1.27199,6.37891,-1.26821,2.10764,-1.46777,-0.70784,3.1235,-13.8585,-2.30811,-6.1885,-2.79403,-2.3444,8.37388,1.75604,-0.926401,3.77351,-9.14409e-15,3.02153e-14,9.85448,22.2576,-66.7983,90.8655,17.5288,-57.1721,-8.06963,7.12502,-29.4558,-35.7541,-9.14409e-15,3.02153e-14,11.9839,-44.2383,82.0027,80.2961,22.6855,-41.1491,29.6525,7.12502,-14.0753,59.1559,-18.1502,10.2036,5.24437,37.9276,-23.0192,-16.8443,-3.01585,-9.88381,5.79299,-17.2034,36.0448,-18.4819,9.79568,-14.0822
-0.0703685,18.173,5.28048,-3.01019,-17.1672,4.10499,14.4234,-0.716175,-1.40236,6.27179,-1.12883,1.97783,-1.39796,-0.635996,3.03228,-13.8209,-2.30252,-6.19319,-2.60228,-2.34366,8.37126,1.81411,-0.923453,3.7752,5.96354e-15,-1.35174e-14,9.95625,22.1225,-66.3958,90.8514,17.4393,-57.207,-6.98017,7.12502,-29.4891,-34.6588,5.96354e-15,-1.35174e-14,10.9554,-44.344,81.9778,80.4923,23.1977,-41.2052,29.0454,7.12502,-14.1294,58.545,-17.5237,10.3111,5.53402,37.8846,-23.1591,-17.0847,-3.86483,-9.66965,5.30652,-17.0169,35.7659,-18.3817,9.36674,-13.8639
-0.112922,18.1774,5.28788,-3.08765,-16.1077,3.98793,14.1142,-0.650481,-1.46238,6.14017,-1.04444,1.8803,-1.37777,-0.589981,2.94599,-13.8822,-2.31935,-6.13905,-2.30286,-2.37955,8.24582,1.92482,-0.93974,3.7205,4.6118e-14,-1.35174e-14,10.0279,22.0646,-65.9139,90.9548,17.4215,-57.3158,-5.8548,7.12502,-29.593,-33.515,4.6118e-14,-1.35174e-14,9.87454,-44.3601,81.9371,80.726,23.6528,-41.2654,28.3914,7.12502,-14.1873,57.8869,-16.9271,10.3243,5.873,37.856,-23.3941,-17.1102,-4.20467,-9.35634,4.72437,-16.7815,35.1643,-18.1282,9.007,-13.6638
-0.154475,18.1834,5.29815,-3.24981,-15.0369,3.94463,13.8772,-0.578521,-1.57007,6.01462,-0.958298,1.782,-1.38832,-0.543742,2.88778,-13.7973,-2.33389,-6.20719,-2.05068,-2.39875,8.16541,1.99582,-0.949384,3.70609,1.94809e-14,2.54444e-14,9.99135,21.974,-65.3804,90.9985,17.5685,-57.3738,-5.28708,7.12502,-29.6483,-32.9375,1.94809e-14,2.54444e-14,8.90591,-44.3588,81.8306,80.8716,23.9983,-41.1567,28.1196,7.12502,-14.0826,57.6224,-16.2179,10.356,6.12831,37.7722,-23.7434,-16.9815,-3.71748,-8.96736,4.1027,-16.6352,34.6306,-17.8454,8.63341,-13.6112
-0.195566,18.1847,5.35503,-4.72152,-13.574,6.07098,13.8318,-0.41888,-3.64641,6.21235,-1.02108,1.05761,-1.12057,-0.606221,3.31045,-13.5191,-2.34001,-6.30819,-1.97974,-2.40501,8.17406,1.97241,-0.955281,3.72809,-2.22639e-14,-7.95139e-15,11.6975,20.6269,-66.4971,90.8216,18.5573,-56.1632,-4.21979,7.12502,-28.4922,-32.0697,-2.22639e-14,-7.95139e-15,7.90677,-44.2264,81.8358,80.8895,24.2977,-40.9284,28.2324,7.12502,-13.8626,57.7504,-14.3468,9.62029,3.99265,37.6594,-24.125,-16.1367,-3.55762,-7.47927,3.18633,-18.9297,34.1466,-17.9106,8.4001,-13.816
-0.239766,18.1873,5.35166,-4.57907,-12.8656,5.59342,13.6437,-0.238369,-3.40942,5.98933,-0.745284,1.05854,-1.28222,-0.455624,3.13699,-13.5581,-2.35372,-6.35363,-1.4992,-2.42702,8.42932,1.91623,-0.942747,3.45543,2.34566e-14,-7.95139e-15,10.5492,21.3465,-64.8597,91.3363,18.2989,-57.2479,-4.60018,7.12502,-29.5281,-32.2719,2.34566e-14,-7.95139e-15,6.79783,-43.9838,81.9435,80.9132,24.6029,-40.836,28.4007,7.12502,-13.7736,57.9247,-14.031,10.1012,4.75179,37.4897,-23.8855,-16.34,-4.06113,-7.49516,2.73775,-18.2782,33.9027,-17.6198,8.09059,-13.7509
-0.288541,18.1936,5.33281,-3.98123,-12.1125,4.12102,13.3592,-0.16715,-2.22958,5.72908,-0.489359,1.34061,-1.43609,-0.305148,2.7258,-13.5917,-2.37709,-6.36797,-1.28404,-2.45774,8.2869,1.98512,-0.958443,3.41136,2.3059e-14,-8.74653e-15,10.8201,21.0503,-64.4086,91.3508,18.8145,-57.2892,-3.82723,7.12502,-29.5676,-31.4919,2.3059e-14,-8.74653e-15,5.96143,-43.7749,81.8175,80.8869,25.0152,-40.6975,28.2957,7.12502,-13.6401,57.8288,-14.0051,10.709,6.63404,37.2967,-23.4598,-16.5766,-4.47745,-7.97068,2.2584,-16.4926,33.7452,-17.1958,7.65657,-13.5598
-0.337309,18.1978,5.3395,-3.92586,-11.0988,3.71409,13.0254,-0.0973426,-1.99133,5.60879,-0.359968,1.30825,-1.39381,-0.234309,2.53587,-13.6199,-2.38017,-6.42562,-0.973712,-2.46219,8.22465,2.0821,-0.957999,3.4004,3.20043e-14,-1.90833e-14,11.0191,20.7424,-63.9741,91.4961,19.3735,-57.2824,-2.46877,7.12502,-29.5611,-30.1346,3.20043e-14,-1.90833e-14,5.19353,-43.4577,81.7054,80.7601,25.5709,-40.2945,28.0801,7.12502,-13.2517,57.6388,-13.4319,10.8358,7.29808,37.0165,-23.141,-16.2045,-4.12636,-8.15898,1.61594,-15.9335,33.9411,-17.1801,7.28485,-13.735
-0.386503,18.2006,5.35899,-3.88185,-10.2131,3.55347,12.5492,0.0443183,-2.03106,5.43064,-0.167764,1.23442,-1.33507,-0.135206,2.45173,-13.4492,-2.36063,-6.5626,-0.691422,-2.43596,8.24519,2.14034,-0.944213,3.43061,-1.74931e-14,1.90833e-14,11.1196,20.4182,-63.5395,91.5722,20.2789,-57.8186,-1.88695,7.12502,-30.0728,-29.461,-1.74931e-14,1.90833e-14,4.22234,-43.091,81.7299,80.7145,26.3405,-39.6849,27.9849,7.12502,-12.664,57.581,-12.9224,11.0821,7.68137,36.6981,-22.3042,-16.0388,-4.78682,-8.31463,1.02784,-15.6444,34.1068,-17.2502,6.95151,-13.9279
-0.441231,18.2007,5.37205,-3.75335,-9.48986,2.72963,12.2223,0.1869,-1.49705,5.20566,0.0920822,1.37178,-1.40933,0.0045694,2.25727,-13.282,-2.31699,-6.77515,-0.307202,-2.37425,8.33098,2.22907,-0.910199,3.49534,-4.57205e-15,2.14687e-14,11.3005,20.1812,-63.0017,91.5492,21.1964,-59.2733,-0.828756,7.12502,-31.4597,-28.1416,-4.57205e-15,2.14687e-14,3.16457,-42.7284,81.7761,80.7477,27.2928,-39.2589,27.909,7.12502,-12.2533,57.5301,-12.5293,11.6209,8.88281,36.4424,-21.1184,-16.1849,-6.18185,-8.39574,0.63623,-14.5465,34.0658,-17.0738,6.57002,-14.3081
-0.494233,18.2037,5.38131,-3.75883,-8.67621,2.17543,11.9944,0.318446,-1.12665,5.05353,0.312384,1.37604,-1.45482,0.121866,2.02317,-13.3195,-2.25376,-6.97341,0.152254,-2.28915,8.57135,2.37319,-0.854672,3.60656,1.19271e-14,-7.95139e-16,11.57,19.8949,-62.4762,91.5646,22.1132,-60.8974,0.231533,7.12502,-33.0058,-26.7675,1.19271e-14,-7.95139e-16,2.46677,-42.4554,81.5313,80.713,28.3089,-39.0262,27.9502,7.12502,-12.0289,57.5845,-12.0868,11.9909,9.80156,36.2788,-20.3884,-16.5391,-5.71913,-8.35418,0.0815488,-13.7721,33.9186,-16.8881,6.2231,-14.4844
-0.542603,18.2094,5.39381,-3.81017,-7.64841,2.47461,11.6739,0.444726,-1.57126,4.92723,0.432,1.13669,-1.41865,0.180753,2.01004,-13.39,-2.19771,-6.93316,0.470745,-2.23254,8.58582,2.47531,-0.821092,3.60766,1.0635e-14,6.36111e-15,11.815,19.5341,-62.0263,91.6747,23.2172,-60.7864,-0.729209,7.12502,-32.9002,-27.7504,1.0635e-14,6.36111e-15,2.02924,-42.0338,81.1187,80.5885,29.2221,-38.5984,28.3479,7.12502,-11.6164,58.0059,-11.6682,11.9921,9.70636,36.2324,-20.2724,-17.7329,-3.81037,-8.3411,-0.662822,-14.0145,33.7054,-16.7597,5.98496,-14.6237
-0.585771,18.2144,5.42032,-3.80106,-6.86487,2.79503,11.1185,0.635022,-1.95862,4.84253,0.648417,0.86701,-1.21571,0.286494,1.92371,-13.3283,-2.17493,-6.9493,0.62356,-2.21054,8.60454,2.51037,-0.808996,3.61759,-6.65929e-15,-3.18055e-15,12.1575,19.1427,-61.5729,91.7354,24.4583,-59.9455,-1.10553,7.12502,-32.1,-28.2914,-6.65929e-15,-3.18055e-15,1.69247,-41.5226,80.6668,80.4198,29.8516,-38.1006,29.1524,7.12502,-11.1363,58.8369,-11.3514,12.0513,9.54761,36.3101,-20.4233,-19.6333,-3.23212,-8.25388,-1.21078,-14.2996,33.4041,-16.6819,5.79263,-14.6282
-0.638945,18.2138,5.42641,-4.12392,-5.92458,2.7728,11.2734,0.759886,-2.11324,4.77601,0.793004,0.711056,-1.37563,0.361486,1.82994,-13.3341,-2.14092,-6.88004,0.777464,-2.17924,8.5385,2.55314,-0.79364,3.5878,-1.87852e-14,-1.90833e-14,12.5289,18.7973,-61.0938,91.6201,26.2461,-60.4231,-0.533388,7.12502,-32.5545,-27.6265,-1.87852e-14,-1.90833e-14,1.05723,-40.8464,80.4831,80.3573,30.4712,-38.0044,29.2617,7.12502,-11.0435,58.9512,-10.6409,12.0647,9.9392,36.4383,-20.723,-21.3686,-3.72544,-7.86814,-1.78437,-14.1272,33.0724,-16.4541,5.36863,-14.5748
-0.690343,18.2152,5.42793,-4.12398,-4.94226,2.72486,11.186,0.87597,-2.23308,4.61543,0.934237,0.569934,-1.50123,0.435818,1.73336,-13.3877,-2.10011,-6.74247,0.834,-2.13759,8.39035,2.57121,-0.775614,3.52204,-4.96962e-16,-5.56597e-15,12.9373,18.5321,-60.4725,91.4644,28.5394,-60.9521,-1.16464,7.12502,-33.0578,-28.1526,-4.96962e-16,-5.56597e-15,-0.150798,-39.7714,80.818,80.5535,30.8383,-37.7506,28.9436,7.12502,-10.7987,58.646,-10.3759,11.7376,10.2468,36.5652,-20.6849,-21.9814,-3.76315,-7.93107,-2.43182,-13.9338,32.8375,-16.2109,5.04853,-14.817
-0.735363,18.2199,5.44832,-4.13147,-4.3188,2.57233,10.8483,1.06228,-2.17734,4.51268,1.19295,0.465418,-1.43319,0.567204,1.56543,-13.1865,-2.02531,-6.78142,0.754443,-2.03585,8.36951,2.50801,-0.730335,3.52878,-7.45443e-16,-8.74653e-15,13.5708,18.5759,-59.6081,91.5548,30.3863,-60.9271,-3.08775,7.12502,-33.034,-30.0808,-7.45443e-16,-8.74653e-15,-0.813681,-39.0833,80.7084,80.7062,30.9791,-37.6322,29.6942,7.12502,-10.6845,59.4025,-10.1541,11.4574,10.6465,36.6355,-20.4011,-22.0821,-4.04743,-7.87009,-2.87249,-13.6417,32.6398,-16.0685,4.8104,-14.8405
-0.790486,18.2196,5.45175,-4.12675,-3.31391,2.25057,10.7309,1.10261,-2.08602,4.39375,1.2585,0.434136,-1.49322,0.603508,1.47438,-12.9104,-1.90195,-6.76312,0.640281,-1.87664,8.26219,2.41627,-0.661209,3.50285,-8.19987e-15,1.98785e-15,14.3274,18.7561,-58.6402,91.6785,31.8535,-61.6256,-4.82809,7.12502,-33.698,-31.6784,-8.19987e-15,1.98785e-15,-1.42103,-38.2755,80.5099,80.8748,31.1104,-37.7397,30.091,7.12502,-10.7882,59.7939,-9.83391,10.9142,11.2994,36.6829,-20.2463,-22.913,-4.92903,-7.95969,-3.41749,-13.0932,32.4216,-15.8319,4.231,-14.319
-0.839389,18.2239,5.46483,-4.1349,-2.29674,2.11861,10.5153,1.15803,-2.04849,4.31185,1.33852,0.293115,-1.45996,0.645976,1.30049,-12.8027,-1.85349,-6.70822,0.625264,-1.8198,8.17035,2.3886,-0.637829,3.4691,6.36111e-15,-1.07344e-14,14.856,18.8884,-57.7,91.747,32.9209,-62.1277,-4.56639,7.12502,-34.175,-31.3111,6.36111e-15,-1.07344e-14,-1.66855,-37.6585,80.0256,80.9828,31.569,-37.7721,29.6012,7.12502,-10.8195,59.3025,-9.4151,10.2778,11.669,36.6426,-20.3684,-23.7245,-5.39977,-8.03528,-4.00987,-12.8137,32.2091,-15.619,3.77993,-14.1052
-0.886178,18.2291,5.48107,-4.15215,-1.29107,2.26201,10.3052,1.23881,-2.31007,4.24795,1.42233,0.0958689,-1.41539,0.687723,1.2368,-12.8888,-1.84622,-6.60833,0.730083,-1.81593,7.98562,2.42942,-0.639248,3.39594,-4.37326e-15,-1.98785e-16,15.4453,19.211,-56.5438,91.8113,33.399,-61.6982,-4.23797,7.12502,-33.767,-31.0732,-4.37326e-15,-1.98785e-16,-1.86699,-36.9062,79.6295,81.0918,31.5943,-37.3904,29.8009,7.12502,-10.4513,59.5211,-8.96869,9.62393,11.6781,36.5349,-20.7898,-23.8715,-5.23462,-8.14764,-4.59581,-12.8422,32.0487,-15.4308,3.27127,-13.2448
-0.930773,18.2327,5.49776,-4.13671,-0.41945,2.06906,10.1161,1.31028,-2.26897,4.12964,1.52445,0.0195189,-1.43574,0.741371,1.12537,-12.8196,-1.77083,-6.54095,0.7737,-1.72485,7.87074,2.42264,-0.598552,3.35511,6.90777e-15,9.93923e-16,16.2075,19.7561,-55.1813,91.7771,34.0143,-61.2075,-5.1254,7.12502,-33.3006,-32.0617,6.90777e-15,9.93923e-16,-2.2893,-36.0537,79.408,81.2567,31.5491,-37.4182,30.1444,7.12502,-10.4781,59.8633,-8.52625,9.13316,12.0636,36.3176,-21.3305,-23.8603,-4.58225,-8.26047,-5.00232,-12.4698,31.9178,-15.2341,2.69507,-12.3518
-0.977633,18.2334,5.51711,-4.15237,0.431983,1.6644,9.8888,1.37703,-2.04007,4.04385,1.64003,0.00159758,-1.39821,0.801974,0.969126,-12.5638,-1.67219,-6.59101,0.575725,-1.59079,7.92309,2.31448,-0.535963,3.38749,-1.52816e-14,-4.27387e-15,17.0567,20.3037,-53.7589,91.6777,34.8253,-61.0942,-5.25485,7.12502,-33.1929,-32.2142,-1.52816e-14,-4.27387e-15,-2.70293,-35.2499,79.1497,81.4428,31.429,-37.518,30.0583,7.12502,-10.5743,59.7723,-8.02339,8.83093,12.7147,36.0355,-21.6887,-24.3846,-4.25072,-8.36761,-5.35386,-11.8436,31.8306,-15.0453,2.15672,-12.154
-1.02073,18.2349,5.53997,-4.25127,1.19858,1.36652,9.65745,1.46037,-1.8886,4.01839,1.76975,-0.046373,-1.29634,0.86821,0.82554,-12.3236,-1.58485,-6.67356,0.360353,-1.46617,7.99243,2.20462,-0.477404,3.42948,9.23106e-15,1.1778e-14,17.9462,20.9386,-52.2476,91.665,35.3161,-61.9416,-4.31499,7.12502,-33.9982,-31.0992,9.23106e-15,1.1778e-14,-3.25392,-34.2395,78.9824,81.6853,30.8907,-37.2528,29.9653,7.12502,-10.3185,59.6921,-7.44732,8.49147,13.2081,35.7166,-21.7793,-24.8207,-4.21758,-8.38921,-5.67186,-11.375,31.8022,-14.9173,1.72757,-12.3839
-1.06005,18.2386,5.55995,-4.2792,1.91128,1.15595,9.42664,1.53573,-1.80021,3.94935,1.88116,-0.144078,-1.23859,0.925727,0.668175,-12.1214,-1.48575,-6.61868,0.144238,-1.33809,7.60518,2.34278,-0.443181,3.66963,-1.16646e-14,3.72721e-16,18.879,21.513,-50.7741,91.6044,36.1929,-63.3408,-1.45882,7.12502,-35.3262,-27.9381,-1.16646e-14,3.72721e-16,-3.85369,-33.2649,78.7184,81.9855,30.596,-37.0552,29.618,7.12502,-10.1279,59.3543,-6.98995,7.97927,13.5306,35.3967,-21.7606,-24.7514,-4.79613,-8.46417,-5.94966,-11.0161,31.7585,-14.8286,1.34832,-12.5364
-1.09989,18.2428,5.56872,-4.18098,2.78782,0.933304,9.22967,1.54945,-1.70134,3.82663,1.91012,-0.240457,-1.25198,0.942887,0.513654,-12.1419,-1.39901,-6.49734,0.310308,-1.23919,7.46135,2.39003,-0.39704,3.60311,-6.24308e-15,-1.19271e-15,19.8719,22.0089,-49.2241,91.4891,37.6733,-63.0033,0.815853,7.12502,-35.0061,-25.7388,-6.24308e-15,-1.19271e-15,-4.06393,-32.5521,78.2625,82.2314,30.598,-37.1803,29.8133,7.12502,-10.2486,59.5437,-6.70133,7.41534,13.882,35.0831,-21.6394,-24.9095,-5.66232,-8.76112,-6.33084,-10.6175,31.6432,-14.6331,0.952218,-12.639
-1.13762,18.2504,5.57455,-4.0793,3.66832,0.714568,9.08382,1.56805,-1.56318,3.74301,1.9474,-0.36006,-1.2507,0.964208,0.311801,-12.5189,-1.36501,-6.37504,0.831575,-1.21371,7.70107,2.35259,-0.353281,3.30597,3.27373e-14,-1.59028e-14,20.9493,22.4666,-47.5654,91.4543,39.0381,-61.5845,0.891664,7.12502,-33.659,-25.9671,3.27373e-14,-1.59028e-14,-4.11064,-31.8423,77.7573,82.5852,30.4332,-37.4057,29.8857,7.12502,-10.4661,59.6052,-6.42758,6.98358,14.242,34.7599,-21.6412,-25.3425,-5.74593,-9.09156,-6.68086,-10.2295,31.4983,-14.3541,0.571573,-12.8252
-1.17264,18.2597,5.59227,-4.04769,4.39427,0.574082,8.88172,1.64005,-1.53274,3.71288,2.04816,-0.478375,-1.16717,1.01563,0.168188,-12.818,-1.36499,-6.31226,1.05785,-1.21371,7.62038,2.4662,-0.348532,3.27155,-1.48343e-14,2.38542e-15,22.0973,22.8832,-45.845,91.3797,40.1,-60.6953,2.40136,7.12502,-32.8135,-24.638,-1.48343e-14,2.38542e-15,-4.33053,-31.004,77.3472,82.9809,30.095,-37.2726,29.8501,7.12502,-10.3376,59.576,-6.03435,6.55969,14.5014,34.4081,-21.6902,-25.5999,-5.77818,-9.25499,-6.92204,-9.95719,31.365,-14.1154,0.234556,-12.525
-1.20625,18.2663,5.6163,-4.08497,5.109,0.280171,8.67062,1.71194,-1.37049,3.62253,2.15969,-0.540811,-1.13794,1.07357,0.00705932,-12.8414,-1.38096,-6.44846,1.25559,-1.23038,7.78937,2.53335,-0.349497,3.34534,-1.53064e-14,3.77691e-15,23.0257,23.3099,-44.2198,91.2885,41.2562,-60.6562,3.45662,7.12502,-32.7763,-23.5905,-1.53064e-14,3.77691e-15,-4.81013,-30.2241,77.0554,83.3151,29.6495,-37.0924,30.3552,7.12502,-10.1638,60.0897,-5.54723,6.05243,14.9372,34.0257,-21.7364,-25.7802,-5.97423,-9.326,-7.1054,-9.52755,31.232,-13.9038,-0.063637,-12.2379
-1.23634,18.2709,5.63936,-4.07255,5.73399,-0.104134,8.42809,1.81969,-1.08316,3.48107,2.32773,-0.606399,-1.13852,1.16071,-0.231907,-12.7992,-1.3674,-6.45044,1.4729,-1.23074,7.90823,2.59359,-0.344468,3.38277,2.30093e-14,8.74653e-15,23.853,23.6854,-42.6295,91.2037,42.5368,-61.1461,3.03616,7.12502,-33.2423,-23.9126,2.30093e-14,8.74653e-15,-5.48201,-29.4695,76.8652,83.5842,29.1361,-36.9826,30.3972,7.12502,-10.0579,60.1369,-5.15937,5.6346,15.4665,33.613,-21.8848,-25.9788,-5.72674,-9.45595,-7.13785,-8.99991,31.117,-13.7377,-0.417805,-12.1308
-1.26366,18.2779,5.65976,-4.03589,6.39258,-0.28356,8.23293,1.90998,-0.986107,3.3669,2.45553,-0.73225,-1.13987,1.22641,-0.422906,-12.8129,-1.37045,-6.35104,1.6178,-1.25654,7.91366,2.64076,-0.35484,3.36699,-1.59028e-14,1.47101e-14,24.7879,24.0057,-40.978,91.1208,43.5645,-61.411,3.43647,7.12502,-33.4941,-23.4582,-1.59028e-14,1.47101e-14,-6.10764,-28.6982,76.6184,83.8153,28.6002,-36.7781,30.2046,7.12502,-9.86056,59.9537,-4.77179,5.32501,15.7846,33.1893,-22.145,-26.2523,-5.28323,-9.61593,-7.19324,-8.73043,31.0242,-13.606,-0.795944,-11.8438
-1.29262,18.286,5.67873,-4.05511,7.1659,-0.51144,8.07523,1.96379,-0.874853,3.3014,2.53609,-0.844407,-1.11068,1.26843,-0.603246,-12.9178,-1.43228,-6.4091,1.81503,-1.34698,8.1432,2.72662,-0.387191,3.44255,3.9906e-14,-9.14409e-15,25.7288,24.2181,-39.2725,91.0171,44.1433,-61.4806,5.68178,7.12502,-33.5602,-21.1985,3.9906e-14,-9.14409e-15,-6.47079,-27.9616,76.3013,83.9117,28.0601,-36.6133,30.2507,7.12502,-9.70152,60.0073,-4.30222,5.05739,16.1998,32.7683,-22.4933,-26.5801,-4.80329,-9.78976,-7.31579,-8.42207,30.95,-13.4349,-1.10889,-11.6806
-1.31868,18.2947,5.69791,-4.09402,7.92549,-0.752214,7.90991,1.99189,-0.764933,3.2513,2.58255,-0.951434,-1.06121,1.29337,-0.773561,-12.9963,-1.49998,-6.42159,1.94285,-1.4486,8.33376,2.7878,-0.42691,3.49767,-6.09772e-14,1.90833e-14,26.7128,24.3631,-37.6602,90.7918,44.6061,-61.5289,6.94842,7.12502,-33.6061,-19.9219,-6.09772e-14,1.90833e-14,-6.7779,-27.2649,75.9075,83.9314,27.6525,-36.8202,30.3734,7.12502,-9.9012,60.1206,-3.8551,4.83828,16.636,32.3849,-22.8101,-26.9912,-4.21668,-9.96535,-7.44405,-8.12548,30.8577,-13.2148,-1.3098,-11.4957
-1.33895,18.3016,5.71399,-4.1025,8.61163,-0.86425,7.79134,2.03816,-0.75127,3.1638,2.64404,-1.09191,-1.07822,1.32519,-0.928283,-12.9682,-1.57007,-6.45281,1.98259,-1.54962,8.49169,2.80544,-0.470682,3.54542,-1.963e-14,1.59028e-15,27.6519,24.4674,-36.206,90.6197,44.8731,-61.2878,7.20785,7.12502,-33.377,-19.712,-1.963e-14,1.59028e-15,-7.2165,-26.5737,75.5248,83.9239,27.2044,-36.8738,30.0966,7.12502,-9.95294,59.8413,-3.48021,4.61451,16.8965,32.0253,-22.9354,-27.4745,-3.90819,-10.1274,-7.53522,-7.99848,30.8081,-13.0105,-1.4326,-11.4416
-1.3584,18.3085,5.73074,-4.10426,9.27329,-0.863651,7.70572,2.1263,-0.86611,3.13996,2.75192,-1.26982,-1.05086,1.37966,-1.0532,-13.1856,-1.65606,-6.43805,2.06679,-1.67038,8.67379,2.87712,-0.516625,3.59215,2.72832e-14,3.97569e-15,28.5922,24.3257,-34.76,90.5461,45.1027,-61.0197,6.67163,7.12502,-33.122,-20.3027,2.72832e-14,3.97569e-15,-7.54038,-25.8667,75.1066,83.875,26.6203,-36.7331,29.8746,7.12502,-9.8171,59.6258,-3.12253,4.53584,17.0589,31.6996,-23.0803,-27.9953,-3.77373,-10.2445,-7.60145,-8.00574,30.8024,-12.9264,-1.52509,-11.2886
-1.37574,18.3127,5.75106,-4.08285,9.80608,-1.07828,7.51065,2.26072,-0.747615,3.12236,2.94094,-1.39781,-0.946326,1.47608,-1.2585,-13.4612,-1.77135,-6.38939,2.19463,-1.83377,8.81653,2.97384,-0.582905,3.61824,1.41137e-14,-1.66979e-14,29.4282,23.9487,-33.3805,90.3851,45.1958,-60.8655,6.1739,7.12502,-32.9754,-20.8315,1.41137e-14,-1.66979e-14,-7.93649,-25.2411,74.7164,83.8833,26.0101,-36.5717,29.9788,7.12502,-9.66141,59.7373,-2.83768,4.64794,17.4814,31.3857,-23.4267,-28.5703,-3.44331,-10.4603,-7.44228,-7.76827,30.8634,-12.8412,-1.61455,-11.0951
-1.38894,18.3162,5.7736,-4.04811,10.3381,-1.33576,7.23721,2.3767,-0.538056,2.99815,3.11085,-1.512,-0.902991,1.56317,-1.49704,-13.2158,-1.86934,-6.5031,2.12272,-1.96854,9.0558,2.92893,-0.646475,3.7021,-2.46493e-14,3.97569e-15,29.9534,23.6472,-32.2173,90.1773,45.127,-60.9165,7.21017,7.12502,-33.024,-19.785,-2.46493e-14,3.97569e-15,-8.52582,-24.6744,74.4364,83.7477,25.4391,-36.4406,29.9363,7.12502,-9.53491,59.7006,-2.57749,4.69395,17.9191,31.0735,-23.6889,-29.1315,-3.26715,-10.74,-7.21223,-7.51844,30.9478,-12.7532,-1.53212,-11.6304
-1.39822,18.3206,5.79658,-4.01863,10.9358,-1.58659,6.90544,2.45309,-0.406314,2.90835,3.22452,-1.5629,-0.799329,1.62147,-1.61786,-13.0092,-1.97769,-6.7335,2.1061,-2.1031,9.3376,2.90908,-0.708363,3.81872,3.43897e-14,-5.56597e-15,30.5209,23.2489,-31.0896,89.8692,45.1767,-61.0706,9.42899,7.12502,-33.1704,-17.5351,3.43897e-14,-5.56597e-15,-9.12971,-24.0219,74.216,83.5088,24.8578,-36.3383,29.627,7.12502,-9.43624,59.3957,-2.28929,4.54863,18.3113,30.7276,-23.8795,-29.519,-2.93018,-11.0132,-7.00425,-7.29617,31.0405,-12.6845,-1.39215,-11.7573
-1.40395,18.3287,5.8182,-3.93408,11.5585,-1.67215,6.60949,2.51443,-0.472354,2.89314,3.30588,-1.65899,-0.6471,1.66298,-1.67109,-13.3258,-2.1016,-6.81442,2.29638,-2.26221,9.52403,3.03406,-0.769793,3.87965,2.18663e-15,1.66979e-14,31.1887,22.5894,-30.0757,89.4681,45.4474,-61.1042,10.5458,7.12502,-33.2024,-16.4115,2.18663e-15,1.66979e-14,-9.84663,-23.2601,73.9661,83.3962,24.1561,-36.4629,29.2297,7.12502,-9.55643,58.993,-2.01326,4.32441,18.4962,30.3693,-24.0624,-29.8213,-2.62207,-11.3016,-6.87217,-7.28323,31.1037,-12.6344,-1.23723,-11.4111
-1.40555,18.3385,5.84034,-3.88589,12.0882,-1.67185,6.46443,2.56409,-0.552397,2.8294,3.36749,-1.791,-0.627315,1.69407,-1.76073,-13.6593,-2.20586,-6.93044,2.54034,-2.39116,9.6927,3.17591,-0.816128,3.94278,-5.43676e-14,-3.18055e-15,31.8667,21.9492,-29.2057,89.0036,45.7547,-60.9964,11.4216,7.12502,-33.0999,-15.5575,-5.43676e-14,-3.18055e-15,-10.8466,-22.3847,73.731,83.2989,23.4522,-36.3907,28.5118,7.12502,-9.48682,58.2783,-1.68505,4.24036,18.5827,29.9973,-24.2227,-30.1851,-2.5203,-11.4845,-6.73093,-7.39968,31.1557,-12.6229,-1.08807,-11.2617
-1.40404,18.3471,5.86312,-3.88104,12.5943,-1.6711,6.15121,2.57259,-0.728996,2.83746,3.37531,-1.78274,-0.455935,1.69709,-1.63794,-13.6309,-2.24451,-7.24573,2.52338,-2.39761,9.8041,3.1724,-0.818913,4.02912,4.09496e-14,-2.3059e-14,32.9427,21.3244,-28.0494,88.521,45.7802,-60.5013,12.6286,7.12502,-32.6289,-14.4492,4.09496e-14,-2.3059e-14,-11.4844,-21.3256,73.5881,82.7899,22.9479,-36.1142,27.6746,7.12502,-9.21999,57.4531,-1.32203,4.1883,18.6575,29.6135,-24.4212,-30.5358,-2.44716,-11.5855,-6.57305,-7.53674,31.205,-12.6209,-0.892489,-11.25
-1.3992,18.353,5.88523,-3.85316,13.136,-1.6723,5.83327,2.65448,-0.855563,2.88654,3.48539,-1.86854,-0.22863,1.75243,-1.64399,-13.7373,-2.32971,-7.25854,2.47059,-2.50326,9.86929,3.18413,-0.865578,4.04392,-2.70347e-14,1.59028e-14,33.7436,20.4378,-26.9975,88.1372,45.7706,-60.1475,13.4638,7.12502,-32.2922,-13.6831,-2.70347e-14,1.59028e-14,-11.5075,-20.6075,73.259,81.8804,22.5396,-35.9821,27.3919,7.12502,-9.09253,57.176,-0.964943,4.1392,18.7312,29.1946,-24.6849,-30.9213,-2.07039,-11.752,-6.38848,-7.68227,31.3017,-12.6338,-0.710334,-11.5516
-1.39224,18.3579,5.90748,-3.78952,13.6598,-1.72191,5.88786,2.78542,-0.717495,2.66115,3.65862,-2.18616,-0.457107,1.84161,-2.06724,-13.8332,-2.43853,-6.89569,2.64118,-2.72394,9.9834,3.26829,-0.95984,4.00414,-3.29983e-14,1.51076e-14,33.7517,19.5553,-26.7125,87.6913,46.1287,-60.3653,14.1713,7.12502,-32.4996,-12.9332,-3.29983e-14,1.51076e-14,-11.9602,-20.4346,72.6719,81.0893,22.1803,-36.0408,27.2659,7.12502,-9.14922,57.0474,-0.63991,4.15113,18.8665,28.754,-24.9564,-31.3783,-1.57546,-12.0068,-6.26449,-7.75623,31.454,-12.6357,-0.521637,-11.5084
-1.38482,18.3633,5.93231,-3.74098,14.1425,-1.90445,5.91825,2.85129,-0.511041,2.30207,3.74637,-2.35966,-0.815748,1.88473,-2.37988,-13.4764,-2.49656,-6.89422,2.80698,-2.84866,10.2078,3.27729,-1.01851,4.06605,2.34566e-14,-1.66979e-14,33.8639,18.9413,-26.4979,87.0514,46.3131,-60.5375,15.2687,7.12502,-32.6634,-11.8019,2.34566e-14,-1.66979e-14,-13.0255,-20.0534,72.3316,80.4549,21.9019,-35.922,26.8624,7.12502,-9.03451,56.649,-0.33378,4.20005,19.1627,28.3056,-24.9426,-31.9992,-1.67457,-12.2573,-6.08085,-7.66912,31.6093,-12.6429,-0.412304,-11.7494
-1.37566,18.3687,5.95648,-3.75562,14.6334,-2.12567,5.76262,2.89458,-0.399107,2.15266,3.80969,-2.36842,-0.872823,1.91586,-2.45128,-13.1716,-2.55164,-7.08611,2.72264,-2.91243,10.3733,3.21508,-1.05422,4.14547,4.7112e-14,-2.14687e-14,34.3482,18.1455,-25.965,86.43,46.2808,-60.5043,14.8941,7.12502,-32.6318,-12.1831,4.7112e-14,-2.14687e-14,-13.8071,-19.398,72.1116,79.7207,21.5452,-35.6022,26.871,7.12502,-8.72591,56.6706,0.0279373,4.15797,19.4746,27.8693,-25.0051,-32.4895,-1.72887,-12.4235,-5.97521,-7.54433,31.711,-12.7013,-0.408637,-11.7701
-1.36086,18.3723,5.98118,-3.74672,15.0622,-2.21393,5.62954,2.99271,-0.410927,2.05226,3.9396,-2.41425,-0.894616,1.98038,-2.49527,-13.1449,-2.66418,-7.25992,2.75159,-3.04852,10.5203,3.23756,-1.11723,4.2106,1.15394e-13,-2.22639e-14,34.7898,17.1646,-25.4007,85.8509,46.2612,-60.5483,13.6157,7.12502,-32.6737,-13.4528,1.15394e-13,-2.22639e-14,-14.5237,-18.8204,71.8778,78.9764,21.2772,-35.2109,27.0345,7.12502,-8.34832,56.8495,0.390782,4.03896,19.5946,27.4366,-25.0897,-32.7935,-1.58429,-12.5508,-5.98971,-7.56006,31.7709,-12.7282,-0.429556,-11.5251
-1.34063,18.3768,6.00787,-3.70802,15.4175,-2.12762,5.49264,3.10154,-0.550734,1.94444,4.07607,-2.54557,-0.924044,2.04814,-2.55604,-13.2277,-2.76427,-7.38205,2.9041,-3.18118,10.6907,3.31474,-1.17211,4.27463,6.85807e-15,0,35.2085,16.1631,-24.9683,85.2265,46.021,-60.6704,14.573,7.12502,-32.7898,-12.4713,6.85807e-15,0,-15.2947,-18.287,71.5624,78.1499,21.1136,-34.8502,26.9648,7.12502,-8.00021,56.7934,0.760543,4.00884,19.5184,27.0233,-25.1654,-33.0986,-1.54552,-12.5969,-6.01335,-7.76809,31.7894,-12.7436,-0.508796,-11.5269
-1.31691,18.3816,6.03056,-3.65459,15.7756,-2.1659,5.31134,3.23119,-0.492537,1.85777,4.25248,-2.69455,-0.889625,2.13721,-2.74328,-13.383,-2.88201,-7.34712,3.0131,-3.35149,10.7974,3.39041,-1.24442,4.28942,-7.18607e-14,4.29375e-14,35.4656,15.0621,-24.627,84.5988,45.6352,-60.6481,15.4451,7.12502,-32.7686,-11.6037,-7.18607e-14,4.29375e-14,-15.8275,-17.8341,71.1992,77.1295,20.9295,-34.2004,26.7557,7.12502,-7.37297,56.6072,1.05007,3.99685,19.5593,26.6385,-25.2633,-33.3805,-1.53653,-12.681,-6.16488,-7.81811,31.7762,-12.7317,-0.673636,-11.2009
-1.29293,18.3878,6.0521,-3.5771,16.1488,-2.2938,5.18355,3.38481,-0.329592,1.70854,4.46304,-2.85612,-0.937339,2.24269,-3.00902,-13.3061,-3.05224,-7.25989,2.91748,-3.6002,10.9277,3.37448,-1.36279,4.2974,-6.91771e-14,2.22639e-14,35.5942,13.9211,-24.4103,83.9016,45.2291,-60.4075,15.0807,7.12502,-32.5397,-12.0155,-6.91771e-14,2.22639e-14,-16.3831,-17.558,70.7938,76.1409,20.7466,-33.4057,26.6907,7.12502,-6.60586,56.5677,1.27141,4.03818,19.7153,26.2659,-25.3191,-33.794,-1.41243,-12.8136,-6.41634,-7.74199,31.751,-12.7237,-0.864545,-10.7613
-1.26915,18.3916,6.07531,-3.51755,16.5402,-2.38899,5.05314,3.51355,-0.270845,1.58132,4.6359,-2.9877,-0.971416,2.32892,-3.18247,-13.1359,-3.174,-7.31499,2.69159,-3.76402,11.1968,3.3031,-1.43955,4.37929,2.73329e-14,-7.95139e-15,35.7605,12.738,-24.1869,83.1501,44.7868,-60.307,14.4186,7.12502,-32.4441,-12.6972,2.73329e-14,-7.95139e-15,-17.08,-17.2562,70.3684,75.272,20.5845,-32.7349,26.5922,7.12502,-5.95827,56.4885,1.54785,4.0862,19.8534,25.8824,-25.4178,-34.2148,-1.521,-12.9022,-6.70336,-7.6935,31.7428,-12.7649,-1.02474,-10.6105
-1.24293,18.3962,6.09988,-3.47755,16.8987,-2.48636,4.87202,3.62057,-0.26112,1.50781,4.7805,-3.05364,-0.932135,2.4015,-3.25311,-13.1156,-3.22991,-7.31383,2.51164,-3.82757,11.2386,3.25302,-1.4717,4.38748,7.38485e-14,-1.43125e-14,36.0387,11.5092,-23.8857,82.3947,44.2316,-60.3118,13.9029,7.12502,-32.4487,-13.212,7.38485e-14,-1.43125e-14,-17.7202,-16.7386,70.031,74.2069,20.2782,-32.9395,27.2069,7.12502,-6.15582,57.0975,1.84254,4.19086,19.9953,25.5333,-25.5563,-34.6109,-1.68813,-12.9321,-6.9203,-7.63752,31.7025,-12.8382,-1.2984,-11.0499
-1.21479,18.399,6.12245,-3.42485,17.1829,-2.67124,4.73229,3.75459,-0.179062,1.36561,4.96179,-3.0807,-0.981473,2.49092,-3.33134,-13.025,-3.309,-7.2587,2.30019,-3.92729,11.2049,3.18245,-1.52713,4.36091,2.9122e-14,0,36.2685,10.4035,-23.5637,81.7107,43.4518,-60.1389,13.2892,7.12502,-32.2841,-13.8594,2.9122e-14,0,-18.372,-16.2062,69.7573,72.9192,19.7305,-33.6417,28.9797,7.12502,-6.83365,58.8494,2.02828,4.33876,20.2111,25.2743,-25.9782,-34.8671,-1.28633,-12.9785,-7.08525,-7.46393,31.5836,-12.8982,-1.63576,-11.4143
-1.18523,18.3991,6.14035,-3.36383,17.5204,-2.77374,4.65897,3.88466,-0.130003,1.23789,5.13478,-3.17458,-1.04935,2.57637,-3.46377,-13.003,-3.39954,-7.0988,2.12957,-4.06019,11.202,3.13714,-1.59359,4.32397,9.44227e-15,-2.06736e-14,36.4448,9.21813,-23.3168,80.9825,42.8729,-59.9829,13.1273,7.12502,-32.1355,-14.0514,9.44227e-15,-2.06736e-14,-18.8675,-15.7285,69.356,71.5008,19.0085,-33.5513,29.708,7.12502,-6.74644,59.5805,2.1834,4.36789,20.3089,25.0743,-26.246,-35.1336,-0.953019,-13.0584,-7.32882,-7.39438,31.4215,-12.8488,-1.92583,-11.2166
-1.15304,18.4027,6.15661,-3.29944,18.0132,-2.62184,4.65934,3.9509,-0.339591,1.1642,5.20999,-3.30612,-1.1273,2.6134,-3.49034,-12.9704,-3.46466,-6.99325,1.92292,-4.14796,11.2065,3.07625,-1.63912,4.30189,-6.1822e-14,9.54166e-15,36.626,7.8821,-23.1262,80.1764,42.7747,-60.1379,12.9594,7.12502,-32.2831,-14.1894,-6.1822e-14,9.54166e-15,-19.2151,-15.1399,68.9518,69.9272,18.242,-32.1131,28.1785,7.12502,-5.35796,58.0907,2.41225,4.17954,20.1081,24.9016,-26.1163,-35.5091,-1.55163,-13.0884,-7.83173,-7.62426,31.2521,-12.7243,-2.24199,-10.1437
-1.11969,18.4067,6.17241,-3.22943,18.4947,-2.68589,4.61864,4.03809,-0.354437,1.06333,5.32301,-3.36842,-1.19735,2.66887,-3.55348,-12.8923,-3.55739,-7.02265,1.59367,-4.25185,11.357,2.98015,-1.69107,4.34721,5.48646e-14,7.95139e-15,36.6441,6.47457,-22.9321,79.3979,42.8164,-60.2241,12.3089,7.12502,-32.3652,-14.8232,5.48646e-14,7.95139e-15,-19.7481,-14.9462,68.7615,68.7592,18.5183,-29.9385,25.9439,7.12502,-3.25804,55.8987,2.55611,4.05814,20.1481,24.7693,-26.1866,-35.8252,-1.83809,-13.1533,-8.3159,-7.60871,31.078,-12.665,-2.55329,-9.70976
-1.08589,18.4072,6.19133,-3.17083,18.88,-2.87565,4.44959,4.16505,-0.275047,0.994485,5.49784,-3.41509,-1.1518,2.7565,-3.64295,-12.8542,-3.62642,-7.03755,1.17771,-4.31825,11.5668,2.86308,-1.72208,4.41151,2.3059e-14,-3.18055e-15,36.7016,5.06369,-22.7169,78.5854,42.7334,-59.3138,10.8081,7.12502,-31.4983,-16.4972,2.3059e-14,-3.18055e-15,-20.1586,-14.3512,68.3579,67.1144,17.128,-28.2923,25.4089,7.12502,-1.66821,55.3821,2.64993,4.12884,20.3486,24.6773,-26.4922,-36.1537,-1.86991,-13.2126,-8.6457,-7.46382,30.8976,-12.7051,-2.81014,-10.0387
-1.04991,18.4074,6.21025,-3.07856,19.2828,-2.94067,4.2488,4.25483,-0.324236,0.955985,5.61878,-3.46884,-1.07157,2.81789,-3.66114,-12.8411,-3.68712,-7.14531,0.787444,-4.36076,11.8143,2.75901,-1.73973,4.5046,1.78906e-15,2.8625e-14,36.8761,3.68889,-22.4488,77.7529,42.5416,-57.7818,10.0277,7.12502,-30.0377,-17.5527,1.78906e-15,2.8625e-14,-20.6697,-14.2032,68.1738,66.01,17.8343,-29.5892,27.3196,7.12502,-2.92076,57.2793,2.75669,4.20957,20.4117,24.547,-26.5644,-36.5721,-1.7747,-13.3,-9.06485,-7.46223,30.7517,-12.7301,-3.02588,-9.95942
-1.01045,18.4087,6.225,-2.94024,19.7137,-2.78412,4.2192,4.32079,-0.551589,0.847165,5.69298,-3.58489,-1.17282,2.85404,-3.66158,-12.743,-3.75058,-7.24747,0.457525,-4.41844,12.0943,2.66233,-1.76584,4.60649,3.40916e-14,-2.54444e-14,37.0512,2.35826,-22.2857,76.8682,42.5483,-56.9162,10.5315,7.12502,-29.2115,-17.1957,3.40916e-14,-2.54444e-14,-21.1832,-13.7255,67.8792,64.6121,17.385,-28.8005,27.7584,7.12502,-2.15904,57.7272,2.8946,4.18811,20.1955,24.3995,-26.6773,-36.8639,-1.68209,-13.3369,-9.59265,-7.7159,30.6117,-12.7965,-3.16891,-10.0249
-0.96861,18.4133,6.24322,-2.89276,20.1117,-2.79277,4.23409,4.43587,-0.586509,0.721512,5.8394,-3.70815,-1.29241,2.92598,-3.78396,-12.6296,-3.82918,-7.28887,0.139142,-4.50954,12.4577,2.57217,-1.80568,4.72228,-4.96962e-15,1.90833e-14,37.1287,0.954034,-22.3315,75.8848,42.8034,-56.8574,11.0025,7.12502,-29.1553,-16.7345,-4.96962e-15,1.90833e-14,-21.594,-13.208,67.5104,62.9725,16.3742,-30.0002,29.3962,7.12502,-3.31762,59.3502,3.10234,4.26759,20.179,24.2473,-26.9062,-37.1199,-1.71351,-13.2926,-10.1336,-7.80523,30.4627,-12.8424,-3.31643,-9.79388
-0.926614,18.4186,6.26332,-2.83869,20.4937,-2.89773,4.14577,4.54335,-0.569506,0.625217,5.98217,-3.8097,-1.32107,2.99692,-3.90153,-12.5601,-3.90526,-7.22905,-0.194463,-4.60256,12.743,2.48037,-1.84836,4.79665,-1.09332e-15,-1.11319e-14,37.2135,-0.510124,-22.4914,74.8862,43.0842,-57.2322,11.3609,7.12502,-29.5132,-16.3134,-1.09332e-15,-1.11319e-14,-22.0991,-12.9438,67.18,61.5939,16.2649,-28.55,27.9999,7.12502,-1.91712,57.9711,3.279,4.44759,20.2817,24.085,-26.8378,-37.52,-2.10145,-13.3025,-10.6275,-7.79802,30.3054,-12.8772,-3.3897,-9.63611
-0.88366,18.4271,6.28379,-2.77665,21.012,-2.99921,4.03212,4.59409,-0.562191,0.55309,6.0506,-3.8986,-1.31729,3.03116,-3.99357,-12.2621,-3.93769,-7.20563,-0.867532,-4.60636,13.0118,2.24325,-1.86304,4.88194,4.37326e-15,2.8625e-14,37.3276,-1.92986,-22.6063,73.8623,43.1842,-57.5308,11.1988,7.12502,-29.7982,-16.4248,4.37326e-15,2.8625e-14,-22.6586,-12.6588,66.8551,60.3363,16.173,-29.0374,29.0892,7.12502,-2.38782,59.0556,3.47528,4.55739,20.38,23.8983,-26.8284,-37.9873,-2.46278,-13.3663,-11.1848,-7.80403,30.1461,-12.8808,-3.43975,-9.78549
-0.84342,18.4385,6.30282,-2.69055,21.5055,-3.07132,3.95864,4.67492,-0.620751,0.454414,6.15392,-3.99944,-1.36635,3.08233,-4.06839,-11.678,-3.9217,-7.2234,-1.83743,-4.52157,13.3613,1.86854,-1.84916,5.01003,2.88238e-14,0,37.3431,-3.29524,-22.6899,72.8466,42.9121,-57.7358,11.2074,7.12502,-29.9938,-16.381,2.88238e-14,0,-23.148,-12.3349,66.4849,59.0602,15.6997,-28.1267,28.3012,7.12502,-1.5083,58.2756,3.62301,4.74968,20.4661,23.7428,-26.8924,-38.4809,-2.78188,-13.4684,-11.7284,-7.83497,29.9919,-12.8443,-3.4405,-9.91185
-0.804278,18.4477,6.31662,-2.60665,21.9728,-3.0977,3.99004,4.70695,-0.753016,0.331694,6.1844,-4.09077,-1.51216,3.09606,-4.10149,-11.3805,-3.91182,-7.33654,-2.41423,-4.45559,13.7827,1.66279,-1.8262,5.17083,-5.64548e-14,2.38542e-14,37.5231,-4.63987,-22.9799,71.7297,42.5423,-57.7665,13.7255,7.12502,-30.0231,-13.8575,-5.64548e-14,2.38542e-14,-23.7137,-11.8251,66.0946,57.7376,15.3137,-27.9584,29.2285,7.12502,-1.3457,59.204,3.75836,4.90191,20.4775,23.6106,-26.873,-38.8625,-2.97093,-13.5912,-12.2177,-7.90889,29.8529,-12.779,-3.54027,-9.57656
-0.761042,18.4558,6.3278,-2.48464,22.572,-3.07505,3.98675,4.68756,-0.879336,0.243624,6.14882,-4.19032,-1.60565,3.07778,-4.13816,-11.324,-3.98151,-7.4634,-2.76095,-4.50402,14.1709,1.57485,-1.84801,5.31317,1.08039e-13,-3.18055e-15,37.8169,-6.06137,-23.3564,70.5161,42.1923,-57.5174,14.9676,7.12502,-29.7854,-12.6584,1.08039e-13,-3.18055e-15,-24.2333,-11.1828,65.727,56.3882,14.9722,-27.7684,29.221,7.12502,-1.1622,59.1976,3.90519,4.80716,20.3817,23.4851,-26.9364,-39.0146,-3.00339,-13.7477,-12.7361,-8.0526,29.737,-12.7585,-3.68752,-9.39954
-0.716115,18.4663,6.3437,-2.35649,23.1837,-3.14556,3.91059,4.71835,-0.89714,0.117544,6.18606,-4.30749,-1.67963,3.09543,-4.25126,-11.2438,-4.14075,-7.40459,-3.09048,-4.69452,14.3741,1.49287,-1.94691,5.35832,1.11319e-14,2.8625e-14,37.9151,-7.48866,-23.753,69.4752,41.5731,-57.1834,13.8103,7.12502,-29.4665,-13.8723,1.11319e-14,2.8625e-14,-24.6265,-10.5621,65.3135,54.8926,14.1736,-26.7893,28.2787,7.12502,-0.216633,58.2584,4.01492,4.75482,20.3948,23.3677,-26.9604,-39.2141,-2.99445,-13.9147,-13.2366,-8.09428,29.6351,-12.7686,-3.78189,-9.54146
-0.670205,18.4779,6.36122,-2.29529,23.7945,-3.30657,3.8564,4.74214,-0.81775,-0.0659309,6.21506,-4.44788,-1.81262,3.10719,-4.44741,-10.9729,-4.17161,-7.02557,-3.45524,-4.75063,14.4095,1.34118,-1.99419,5.30823,-8.47817e-14,1.90833e-14,37.9228,-8.822,-24.2975,68.5053,40.8213,-56.8837,12.3901,7.12502,-29.1804,-15.3425,-8.47817e-14,1.90833e-14,-25.0407,-9.83616,64.7057,53.113,12.4011,-24.5694,26.1778,7.12502,1.92741,56.1488,4.15633,4.60228,20.4717,23.2416,-26.8233,-39.3815,-2.86459,-14.0709,-13.6893,-8.04936,29.557,-12.7892,-3.94662,-9.8571
-0.623863,18.4915,6.37572,-2.24733,24.3864,-3.36265,3.8601,4.73914,-0.894911,-0.205322,6.20075,-4.55946,-1.95532,3.09837,-4.52891,-10.639,-4.14646,-6.72236,-3.89653,-4.7132,14.5109,1.15133,-1.99853,5.29875,4.17448e-15,-6.36111e-15,38.1534,-10.2046,-25.0071,67.2699,40.7313,-57.1276,11.6846,7.12502,-29.4133,-16.0073,4.17448e-15,-6.36111e-15,-25.6751,-9.64675,64.3591,51.8964,12.7306,-25.1977,26.7585,7.12502,1.32059,56.7341,4.36434,4.39481,20.41,23.1,-26.6835,-39.444,-2.9222,-14.1701,-14.1177,-8.13232,29.4767,-12.7595,-4.16165,-9.49852
-0.579098,18.5056,6.39359,-2.19332,24.8769,-3.51325,3.78267,4.77451,-0.96526,-0.335106,6.24181,-4.58867,-2.04741,3.11763,-4.52286,-10.6553,-4.3569,-7.0791,-3.87613,-4.96189,15.0176,1.21652,-2.10679,5.50175,8.09054e-14,-3.18055e-14,38.4841,-11.6323,-25.728,66.0177,40.7027,-57.4338,11.4039,7.12502,-29.7056,-16.2363,8.09054e-14,-3.18055e-14,-26.2393,-9.27858,64.0753,50.6242,12.7831,-25.3027,27.0241,7.12502,1.21923,57.0003,4.50234,4.3618,20.4874,22.982,-26.7971,-39.5268,-3.00388,-14.2604,-14.5083,-8.08439,29.3714,-12.7372,-4.30448,-8.92577
-0.534542,18.5192,6.41197,-2.1277,25.4567,-3.7754,3.65517,4.79076,-0.913865,-0.500605,6.26344,-4.6268,-2.13575,3.12586,-4.58954,-10.8499,-4.64966,-7.55786,-3.58326,-5.33561,15.648,1.41562,-2.25877,5.75148,-7.12643e-14,5.40694e-14,38.8049,-13.1173,-26.6053,64.8418,40.3805,-57.3007,11.5585,7.12502,-29.5786,-16.1043,-7.12643e-14,5.40694e-14,-26.5443,-8.67659,63.8055,49.0473,12.4929,-25.2463,27.3424,7.12502,1.27369,57.3184,4.55866,4.30767,20.6998,22.9063,-26.8915,-39.6805,-3.29648,-14.4651,-14.8603,-7.8931,29.2549,-12.6447,-4.55985,-8.50322
-0.487844,18.5341,6.4263,-2.08843,25.9914,-3.98845,3.58393,4.76875,-0.885688,-0.644071,6.23167,-4.66901,-2.23864,3.10748,-4.64959,-10.9317,-4.80418,-7.62171,-3.51934,-5.54328,15.9069,1.48529,-2.34944,5.82839,7.0171e-14,-6.36111e-15,39.353,-14.5011,-27.7059,63.5537,39.6381,-57.9149,11.3391,7.12502,-30.1647,-16.2182,7.0171e-14,-6.36111e-15,-26.8317,-7.77796,63.4551,47.4307,12.158,-25.1013,27.728,7.12502,1.41377,57.7031,4.59995,4.22904,20.822,22.8483,-26.4655,-39.8794,-3.84446,-14.6262,-15.1389,-7.78914,29.1557,-12.5425,-4.78424,-8.37061
-0.443599,18.5501,6.44068,-2.06374,26.4775,-4.28743,3.4588,4.77094,-0.884283,-0.738519,6.23586,-4.6163,-2.27156,3.10844,-4.58958,-11.0151,-4.9449,-7.71234,-3.64143,-5.70402,16.0495,1.49155,-2.42364,5.878,1.36167e-14,4.13472e-14,40.0217,-15.8227,-28.7281,62.2453,38.3028,-59.1054,11.3288,7.12502,-31.2998,-16.0151,1.36167e-14,4.13472e-14,-27.1043,-6.95626,63.1869,45.8904,11.8864,-24.9533,27.9706,7.12502,1.5567,57.9447,4.5755,4.04322,20.9951,22.8049,-25.8638,-40.0655,-4.27317,-14.8096,-15.3082,-7.58679,29.0745,-12.4871,-5.02853,-8.36402
-0.399565,18.5643,6.45734,-2.12163,27.0135,-4.71873,3.32159,4.76852,-0.815948,-0.797153,6.23927,-4.51618,-2.25888,3.10899,-4.51381,-11.2375,-5.10893,-7.78391,-3.66812,-5.90273,16.1765,1.55166,-2.50814,5.9137,6.55989e-14,-5.40694e-14,40.7583,-17.248,-29.8227,61.0583,37.2916,-59.0686,12.1432,7.12502,-31.2647,-15.2075,6.55989e-14,-5.40694e-14,-27.2778,-6.14348,62.9437,44.3403,11.4848,-24.0632,28.0126,7.12502,2.41628,57.9787,4.58265,3.86662,21.3301,22.8272,-25.6502,-40.1793,-4.09652,-14.9568,-15.5549,-7.24946,28.961,-12.4431,-5.26003,-8.6155
-0.355124,18.5791,6.47238,-2.2295,27.5331,-5.10455,3.30335,4.83593,-0.69039,-0.973565,6.32859,-4.52508,-2.41013,3.14883,-4.60567,-11.0118,-5.31496,-7.82647,-3.72109,-6.18526,16.4625,1.54936,-2.65212,5.9953,-1.20165e-13,-3.18055e-14,41.1846,-18.6488,-30.995,60.0441,36.4949,-58.2047,12.0537,7.12502,-30.4411,-15.4528,-1.20165e-13,-3.18055e-14,-27.5967,-5.86058,62.7108,42.9918,11.3543,-23.477,28.1707,7.12502,2.98245,58.1296,4.64478,3.78642,21.6453,22.8755,-25.6397,-40.2933,-3.58622,-15.0335,-15.8346,-6.97494,28.8371,-12.3809,-5.47252,-8.4907
-0.311676,18.5953,6.48857,-2.29259,28.0097,-5.31612,3.32054,4.98857,-0.713025,-1.23126,6.51975,-4.623,-2.66371,3.23935,-4.7222,-10.4172,-5.56399,-7.86668,-3.88385,-6.53295,16.8253,1.46811,-2.84764,6.10399,-8.32908e-14,7.95139e-15,41.3387,-20.0245,-32.1007,59.1148,35.7449,-57.8259,11.1792,7.12502,-30.0798,-16.3936,-8.32908e-14,7.95139e-15,-27.929,-6.00014,62.5798,41.7776,11.8053,-23.9137,28.5759,7.12502,2.56073,58.5402,4.67261,3.74347,21.7702,22.9607,-25.1168,-40.5773,-4.02517,-15.0416,-16.0673,-6.89073,28.6945,-12.3429,-5.71211,-8.26545
-0.265318,18.6103,6.50832,-2.3849,28.4979,-5.57104,3.2348,5.01728,-0.7653,-1.34677,6.55464,-4.59033,-2.74225,3.25582,-4.66026,-10.4149,-5.76393,-8.0049,-3.78106,-6.80563,16.9824,1.54456,-2.97482,6.1565,5.34731e-14,3.18055e-15,42.1142,-21.3783,-33.4714,58.1631,35.3088,-57.1133,10.6753,7.12502,-29.3996,-17.019,5.34731e-14,3.18055e-15,-28.1457,-5.44378,62.3894,40.4149,11.9004,-23.0397,28.47,7.12502,3.40478,58.4226,4.70091,3.63085,21.8986,23.0993,-24.6879,-40.6797,-4.54069,-15.0019,-16.3819,-6.76379,28.5377,-12.2826,-5.95554,-7.36137
-0.219043,18.6229,6.52697,-2.51649,29.0085,-5.81552,3.15086,4.93808,-0.814587,-1.30445,6.45277,-4.47387,-2.6774,3.20711,-4.49653,-10.8277,-5.89786,-8.35508,-3.59419,-6.95321,17.1349,1.70536,-3.01627,6.24301,4.96962e-16,-3.18055e-14,43.4779,-22.6979,-35.0921,57.1704,35.0305,-56.2447,9.8445,7.12502,-28.57,-17.9924,4.96962e-16,-3.18055e-14,-28.2952,-4.53149,62.2099,39.1061,11.9938,-22.6042,28.4157,7.12502,3.82535,58.3611,4.84266,3.36926,22.0029,23.2329,-24.549,-40.4523,-4.19011,-14.9542,-16.7478,-6.67657,28.399,-12.2583,-6.08765,-7.26917
-0.176479,18.6357,6.54108,-2.64409,29.5351,-6.02711,3.13281,4.9124,-0.858114,-1.30469,6.41782,-4.43371,-2.67927,3.19045,-4.42776,-11.0051,-6.04537,-8.53187,-3.53457,-7.13312,17.2808,1.78912,-3.08962,6.3013,9.25343e-14,-1.59028e-14,44.7895,-24.0145,-36.7199,56.0688,34.7413,-56.5265,9.39681,7.12502,-28.8393,-18.3945,9.25343e-14,-1.59028e-14,-28.3543,-3.69349,61.924,37.829,11.395,-22.3336,28.6185,7.12502,4.08665,58.5591,4.98017,3.13267,22.0894,23.3426,-24.0711,-40.3504,-3.8981,-14.9388,-17.1379,-6.61773,28.2871,-12.0921,-6.21421,-6.46932
-0.130718,18.6541,6.55569,-2.84472,30.0088,-6.41097,3.10332,4.89589,-0.753603,-1.34009,6.40166,-4.32866,-2.70087,3.18035,-4.37526,-11.2275,-6.19083,-8.6245,-3.37118,-7.32753,17.219,1.89768,-3.17072,6.27619,7.32522e-14,4.77083e-15,46.1782,-25.1841,-38.3824,55.0229,34.364,-56.6325,9.34815,7.12502,-28.9405,-18.4258,7.32522e-14,4.77083e-15,-28.4734,-3.09789,61.7637,36.6109,11.3162,-22.4005,28.7838,7.12502,4.02205,58.7256,5.05931,2.9019,22.2945,23.4303,-23.2581,-40.2633,-3.94767,-14.8868,-17.4704,-6.40464,28.1815,-11.8261,-6.32882,-4.93592
-0.0851687,18.6731,6.57067,-3.04824,30.4235,-6.64747,3.13057,4.84891,-0.817838,-1.27877,6.33964,-4.16483,-2.68223,3.15125,-4.16681,-11.8142,-6.34409,-8.97348,-2.96973,-7.51125,17.2481,2.14832,-3.21907,6.3135,8.24956e-15,1.11319e-14,47.8555,-26.2055,-40.1021,54.0563,34.0511,-56.2042,9.54272,7.12502,-28.5314,-18.3007,8.24956e-15,1.11319e-14,-28.5502,-2.27629,61.7229,35.4023,11.2383,-22.0757,28.9298,7.12502,4.33571,58.8654,5.20833,2.70763,22.3554,23.5342,-22.543,-40.1723,-3.77572,-14.7178,-17.8557,-6.36078,28.0408,-11.652,-6.37084,-3.82704
-0.0407544,18.6863,6.587,-3.32637,30.8986,-6.88823,3.16298,4.85427,-0.85253,-1.26303,6.34587,-4.09086,-2.69579,3.15499,-4.07401,-11.8041,-6.5289,-9.30572,-2.98618,-7.72908,17.6289,2.20648,-3.31476,6.47222,7.30534e-14,-2.38542e-14,49.0707,-27.1733,-41.6219,53.2738,33.5506,-55.6036,9.59696,7.12502,-27.9573,-18.3413,7.30534e-14,-2.38542e-14,-28.5617,-1.77373,61.608,34.1619,10.924,-21.6014,28.6917,7.12502,4.79362,58.6175,5.48149,2.52687,22.46,23.6134,-21.9314,-40.2225,-2.98365,-14.5185,-18.3188,-6.34641,27.8801,-11.7641,-6.35221,-4.78259
0.00420461,18.6993,6.60269,-3.48027,31.3493,-7.09949,3.1344,5.01239,-0.749024,-1.45167,6.55398,-4.25059,-2.83207,3.25419,-4.31482,-11.0198,-6.72895,-9.14466,-3.41655,-8.01967,17.8739,2.00163,-3.50266,6.51969,1.04263e-13,-3.81667e-14,49.5496,-28.1631,-42.858,52.5259,32.6429,-54.6711,9.22775,7.12502,-27.0656,-18.8525,1.04263e-13,-3.81667e-14,-28.5314,-2.21096,61.4531,32.9932,10.9347,-21.4932,28.3696,7.12502,4.89812,58.293,5.60432,2.26827,22.4665,23.7219,-21.1238,-40.1458,-2.36879,-14.4262,-18.7022,-6.33655,27.6819,-12.0014,-6.29739,-6.8265
0.0502943,18.7133,6.61678,-3.59007,31.7497,-7.35851,3.04876,5.12232,-0.571406,-1.63113,6.70392,-4.37132,-2.92529,3.32335,-4.54697,-10.4621,-6.87965,-8.98285,-3.68506,-8.24301,17.9539,1.86105,-3.64709,6.5157,9.487e-14,-6.99722e-14,50.2427,-28.967,-44.0959,51.7267,31.5534,-53.8576,10.044,7.12502,-26.287,-18.1548,9.487e-14,-6.99722e-14,-28.5522,-2.61161,61.3361,31.9019,11.3019,-21.6347,27.9786,7.12502,4.76154,57.9051,5.63527,2.13518,22.5264,23.8674,-20.5287,-40.0096,-2.02122,-14.3642,-19.0409,-6.24346,27.4824,-12.1125,-6.3105,-7.59216
0.0926609,18.7273,6.63084,-3.80686,32.1208,-7.71763,2.98421,5.1493,-0.3656,-1.69733,6.74896,-4.39125,-2.92835,3.34157,-4.68002,-10.2647,-7.00681,-8.97216,-3.83947,-8.41016,18.0849,1.81438,-3.74053,6.54856,-6.12754e-14,-2.8625e-14,51.3731,-29.6755,-45.639,50.9711,31.0822,-53.3316,10.9206,7.12502,-25.7834,-17.3523,-6.12754e-14,-2.8625e-14,-28.5553,-2.68271,61.1687,30.898,11.681,-21.0002,27.4051,7.12502,5.37417,57.317,5.71901,2.22399,22.7822,24.0277,-20.1155,-40.0301,-1.91488,-14.2519,-19.3624,-6.05038,27.2991,-12.0821,-6.36209,-7.51138
0.131785,18.7403,6.64489,-3.98255,32.4621,-7.92467,2.99132,5.19638,-0.316436,-1.7381,6.81234,-4.41511,-2.96127,3.37145,-4.738,-10.2108,-7.14111,-8.93283,-3.9025,-8.59188,18.1176,1.81211,-3.83363,6.53966,1.20414e-13,-2.22639e-14,52.5968,-30.3523,-47.141,50.1803,30.9791,-53.2465,11.1266,7.12502,-25.7019,-17.1581,1.20414e-13,-2.22639e-14,-28.5625,-2.9211,61.2045,30.0691,12.3425,-20.7101,27.3618,7.12502,5.65425,57.2663,5.82867,2.16723,22.854,24.1622,-19.2335,-39.9843,-2.19912,-14.1199,-19.6069,-6.02766,27.1657,-12.0295,-6.39617,-7.48675
0.172578,18.7543,6.65846,-4.07771,32.8023,-8.08638,2.91622,5.2297,-0.331723,-1.75412,6.85791,-4.41227,-2.93437,3.39496,-4.7215,-10.4079,-7.31313,-9.07697,-3.72959,-8.82671,18.2802,1.94334,-3.92902,6.58772,1.20116e-13,0,53.9001,-30.8903,-48.5145,49.3501,30.7405,-53.3811,10.6671,7.12502,-25.8308,-17.5989,1.20116e-13,0,-28.5041,-3.04823,61.3785,29.2634,12.772,-21.2253,27.8031,7.12502,5.1568,57.7203,5.78981,2.13117,22.8276,24.3138,-17.953,-40.1408,-3.35831,-14.0581,-19.774,-6.03008,27.0757,-11.9615,-6.56077,-7.18651
0.211422,18.7658,6.66746,-4.21511,33.1294,-8.39889,2.83908,5.22665,-0.176838,-1.80809,6.86112,-4.42256,-2.92738,3.3934,-4.81255,-10.503,-7.42028,-9.19463,-3.62164,-8.97456,18.5163,2.03168,-3.98689,6.66509,-1.37161e-14,6.36111e-15,55.1031,-31.2509,-49.8748,48.6529,30.5084,-53.212,9.69418,7.12502,-25.6688,-18.5953,-1.37161e-14,6.36111e-15,-28.3767,-2.78438,61.2555,28.2921,12.2759,-21.2085,27.7051,7.12502,5.17306,57.622,5.58145,2.31501,22.9575,24.5468,-16.5859,-40.5259,-4.3298,-14.0508,-19.8708,-5.85595,26.9967,-11.7115,-6.85513,-5.65288
0.246208,18.7768,6.67973,-4.38758,33.3331,-8.65943,2.8163,5.2881,-0.0794295,-1.86986,6.94588,-4.44536,-2.95766,3.43281,-4.89481,-10.3433,-7.49592,-9.27842,-3.76712,-9.06194,18.7352,1.99434,-4.03632,6.74706,1.7344e-14,-2.22639e-14,55.9857,-31.5313,-50.952,48.0365,30.4475,-53.0238,8.41912,7.12502,-25.4885,-19.8962,1.7344e-14,-2.22639e-14,-28.2727,-2.45825,61.0295,27.3691,11.5951,-20.6106,27.321,7.12502,5.75034,57.223,5.55253,2.30102,23.0556,24.7955,-15.9614,-40.3285,-3.72559,-13.9222,-19.9377,-5.73874,26.9079,-11.3635,-7.02843,-3.47841
0.278415,18.7874,6.69475,-4.56788,33.541,-8.78028,2.8503,5.34133,-0.139847,-1.87376,7.01319,-4.45234,-2.98173,3.46712,-4.87565,-10.3559,-7.58671,-9.31135,-3.81806,-9.17508,18.8145,2.00445,-4.09014,6.76811,1.63053e-13,-9.54166e-15,56.8805,-31.6752,-51.8121,47.3699,30.3601,-53.1433,6.8602,7.12502,-25.603,-21.4387,1.63053e-13,-9.54166e-15,-28.181,-2.03693,60.8264,26.5294,11.0046,-20.1824,27.1186,7.12502,6.16372,57.009,5.74931,2.00838,23.0345,25.0563,-16.0881,-39.6885,-2.63554,-13.6932,-20.0134,-5.79238,26.789,-11.1901,-7.1102,-2.82623
0.313196,18.7964,6.7053,-4.66349,33.7918,-8.70228,2.92981,5.34699,-0.297605,-1.87441,7.01029,-4.53464,-3.03596,3.46763,-4.88337,-10.3721,-7.63683,-9.19512,-3.82267,-9.25349,18.8237,2.01178,-4.12799,6.74425,1.31993e-13,9.54166e-15,57.7457,-31.6898,-52.6761,46.8424,30.4254,-53.2539,6.77473,7.12502,-25.7089,-21.5089,1.31993e-13,9.54166e-15,-28.0832,-1.38589,60.4979,25.6218,10.0808,-19.7992,26.9678,7.12502,6.53371,56.847,5.82964,1.99037,22.8254,25.3452,-15.4132,-39.5624,-2.48848,-13.4478,-20.1131,-6.06273,26.6508,-11.3167,-7.17679,-3.92307
0.348943,18.8045,6.71338,-4.73002,33.9921,-8.71693,2.9344,5.35815,-0.308959,-1.92074,7.02185,-4.62404,-3.07598,3.47243,-4.97419,-10.0908,-7.66627,-9.18506,-4.08882,-9.27567,18.9985,1.90348,-4.15778,6.80779,-3.13086e-15,1.59028e-14,58.3697,-31.562,-53.2494,46.3597,30.4977,-53.2303,7.33478,7.12502,-25.6863,-20.9522,-3.13086e-15,1.59028e-14,-28.0425,-0.669285,60.0352,24.7597,8.73806,-19.4216,27.134,7.12502,6.89818,57.0017,5.65273,2.19089,22.6669,25.6441,-13.8357,-39.7473,-2.69865,-13.2994,-20.17,-6.214,26.5197,-11.573,-7.25265,-5.62338
0.382667,18.8123,6.72408,-4.86424,34.1396,-8.91046,2.8997,5.38689,-0.214637,-1.95177,7.06468,-4.61973,-3.07444,3.49176,-5.02148,-10.0242,-7.75244,-9.43883,-4.18522,-9.36278,19.2817,1.90931,-4.19873,6.93564,-2.56929e-14,0,58.9025,-31.3195,-53.551,45.8963,30.4288,-52.8832,7.24833,7.12502,-25.3538,-21.0862,-2.56929e-14,0,-28.0415,-0.202272,59.6974,24.0287,7.44619,-19.0659,27.3983,7.12502,7.24153,57.2544,5.51254,2.1736,22.6515,25.8983,-12.8278,-39.5946,-2.89713,-13.2034,-20.1669,-6.16934,26.4422,-11.6984,-7.4262,-6.27937
0.414372,18.8182,6.73297,-5.00868,34.2885,-9.09794,2.8667,5.41043,-0.115389,-1.93106,7.10236,-4.61779,-3.0196,3.50981,-5.0699,-10.1416,-7.85161,-9.60309,-4.20238,-9.47448,19.4672,1.96103,-4.24195,7.0089,-1.41634e-14,0,59.3157,-31.0566,-53.6383,45.609,30.0945,-52.4332,7.73691,7.12502,-24.9227,-20.6581,-1.41634e-14,0,-27.8458,0.727944,59.344,23.1933,6.1867,-18.6381,27.3202,7.12502,7.65443,57.1617,5.46367,2.04689,22.6507,26.16,-12.3284,-39.3042,-3.25285,-13.1069,-20.2337,-6.12492,26.4196,-11.7031,-7.51985,-6.03524
0.443356,18.8216,6.73988,-5.22126,34.3914,-9.28471,2.94106,5.42643,-0.0238991,-1.91171,7.12643,-4.63222,-3.02639,3.51994,-5.14289,-10.1333,-7.91082,-9.48557,-4.34947,-9.54519,19.5114,1.92473,-4.28117,6.99934,2.85256e-14,-3.49861e-14,59.613,-30.7006,-53.569,45.3133,29.9244,-52.1723,8.05013,7.12502,-24.6727,-20.3793,2.85256e-14,-3.49861e-14,-27.5829,2.62436,58.6264,22.1368,4.44878,-18.2151,26.5828,7.12502,8.06271,56.409,5.43217,1.99679,22.6631,26.4719,-11.647,-39.0443,-3.35433,-12.9765,-20.2197,-6.10723,26.4471,-11.7066,-7.6126,-6.00843
0.470282,18.8238,6.74741,-5.41663,34.4742,-9.43823,3.02816,5.42151,-0.0266684,-1.92884,7.11704,-4.61831,-3.09597,3.51371,-5.13791,-10.1439,-7.92266,-9.26111,-4.33595,-9.58248,19.3719,1.91431,-4.30307,6.91369,-5.96354e-16,-2.8625e-14,59.764,-30.132,-53.307,45.0088,30.2813,-52.3663,7.21907,7.12502,-24.8586,-21.1848,-5.96354e-16,-2.8625e-14,-27.4859,4.15231,57.9931,21.2375,3.33961,-18.0688,25.9118,7.12502,8.20397,55.7325,5.39183,1.94747,22.6545,26.7848,-10.9286,-38.7716,-3.54329,-12.868,-20.1742,-6.13025,26.5381,-11.7614,-7.66357,-6.80403
0.498375,18.8285,6.75656,-5.43878,34.6053,-9.39819,2.9729,5.41818,-0.187945,-1.96047,7.10502,-4.64313,-3.11515,3.51038,-5.07098,-10.0297,-7.92044,-9.12038,-4.39405,-9.58989,19.2746,1.86571,-4.31783,6.8631,-5.43676e-14,0,59.6388,-29.4648,-52.73,44.8149,30.8498,-52.9313,7.03033,7.12502,-25.4,-21.2976,-5.43676e-14,0,-27.4283,4.98912,57.7178,20.5717,2.88646,-18.2913,26.0703,7.12502,7.98921,55.8993,5.31968,1.78762,22.4328,27.0874,-10.2551,-38.3765,-3.40621,-12.8168,-20.1495,-6.32925,26.6545,-11.6988,-7.67926,-6.68666
0.528731,18.8319,6.76277,-5.57638,34.6551,-9.52073,2.96999,5.37512,-0.14685,-2.07349,7.04527,-4.67427,-3.22697,3.47654,-5.13167,-9.74115,-7.86811,-8.90147,-4.48054,-9.54336,19.2268,1.77239,-4.31635,6.82566,1.96797e-14,-1.27222e-14,59.2837,-28.5572,-51.9839,44.7368,31.1706,-52.7818,7.06117,7.12502,-25.2568,-21.2871,1.96797e-14,-1.27222e-14,-27.6247,5.84804,57.3039,20.0855,2.1681,-18.2923,26.4566,7.12502,7.98824,56.2856,5.2506,1.64952,22.328,27.4085,-9.65848,-37.8769,-2.63977,-12.7426,-20.103,-6.3823,26.7917,-11.395,-7.70751,-4.61108
0.556006,18.8344,6.76578,-5.72853,34.6592,-9.7071,3.10662,5.48972,0.121798,-2.01872,7.20936,-4.69993,-3.19697,3.55368,-5.32363,-10.0676,-8.10712,-9.23904,-4.46694,-9.82364,19.4695,1.90415,-4.42735,6.92348,1.22253e-13,8.26944e-14,58.8818,-28.0916,-50.6972,44.7222,31.282,-52.4562,7.80056,7.12502,-24.9447,-20.5914,1.22253e-13,8.26944e-14,-27.2929,6.47632,57.2839,19.6705,1.53521,-18.1831,26.9142,7.12502,8.09364,56.7392,5.10158,1.61799,22.3234,27.7468,-9.16059,-37.393,-2.209,-12.7159,-20.0579,-6.33133,26.9552,-11.2329,-7.75388,-2.49911
0.580135,18.8344,6.76786,-5.76667,34.6521,-9.79162,3.12928,5.52936,0.192693,-2.04104,7.26432,-4.71478,-3.21735,3.57894,-5.38448,-10.1835,-8.17787,-9.5103,-4.40857,-9.90021,19.7634,1.98695,-4.44777,7.05022,7.12643e-14,-6.36111e-15,58.3578,-27.2766,-49.283,44.8067,31.5421,-52.2615,8.98143,7.12502,-24.7582,-19.4362,7.12643e-14,-6.36111e-15,-27.3136,7.1306,57.0828,19.3909,1.15691,-18.0866,27.2821,7.12502,8.18679,57.1035,4.8924,1.61499,22.2454,28.0699,-8.61261,-36.6432,-2.2262,-12.7626,-20.0322,-6.34413,27.1608,-11.3484,-7.72237,-1.72738
0.605866,18.8345,6.77321,-5.75618,34.586,-9.78388,3.06292,5.55657,0.11216,-2.08194,7.2965,-4.74034,-3.22634,3.59613,-5.36364,-10.1811,-8.16682,-9.45011,-4.45095,-9.88464,19.808,1.97229,-4.44074,7.05649,2.045e-13,2.54444e-14,57.6763,-26.2919,-47.6045,44.9737,31.8938,-52.1047,9.31766,7.12502,-24.6079,-19.1206,2.045e-13,2.54444e-14,-27.4701,7.55149,56.8651,19.2015,1.24056,-17.9471,27.4875,7.12502,8.32135,57.3036,4.71637,1.60804,22.06,28.3829,-7.77877,-35.4311,-2.48905,-12.7691,-20.0434,-6.45654,27.3633,-11.4619,-7.57898,-1.34452
0.631042,18.8327,6.77882,-5.86364,34.5133,-9.81977,3.10474,5.59499,0.0846619,-2.09253,7.34492,-4.74429,-3.25944,3.62001,-5.36047,-10.2446,-8.19143,-9.32678,-4.44563,-9.92541,19.7178,1.97694,-4.45972,7.00149,-6.22196e-14,-4.13472e-14,56.8006,-25.217,-45.4797,45.1836,32.2776,-52.475,9.00738,7.12502,-24.9628,-19.382,-6.22196e-14,-4.13472e-14,-27.496,8.51344,56.5338,18.8342,0.845377,-17.9434,27.5961,7.12502,8.32497,57.412,4.67488,1.65145,21.919,28.6541,-7.10991,-34.0016,-1.94374,-12.6646,-20.0049,-6.57972,27.5814,-11.5992,-7.45662,-1.78761
0.653198,18.8277,6.78219,-6.0245,34.4389,-9.99098,3.16259,5.6372,0.192743,-2.11282,7.40541,-4.69277,-3.30077,3.64683,-5.37712,-10.3094,-8.25646,-9.45682,-4.37106,-10.0105,19.7772,2.03265,-4.4931,7.03082,2.98177e-14,4.45278e-14,55.8144,-24.027,-42.9838,45.5014,32.869,-53.1478,8.26105,7.12502,-25.6073,-20.0373,2.98177e-14,4.45278e-14,-27.4848,9.96965,56.1252,18.3769,-0.298287,-18.1257,27.7785,7.12502,8.14899,57.6014,4.57548,1.85234,21.942,28.894,-6.39442,-32.6536,-1.14337,-12.641,-19.846,-6.55752,27.8325,-11.7447,-7.42963,-2.56759
0.675799,18.8243,6.78885,-6.13593,34.2825,-10.2197,3.08562,5.67513,0.317605,-2.16291,7.46341,-4.62885,-3.29693,3.67283,-5.37618,-10.3294,-8.29042,-9.57645,-4.28669,-10.0598,19.8884,2.08217,-4.51012,7.0794,-1.13804e-14,-2.54444e-14,54.802,-22.6967,-40.3893,45.9325,33.7414,-53.6435,8.19956,7.12502,-26.082,-20.0296,-1.13804e-14,-2.54444e-14,-27.6314,10.5859,55.9337,18.225,-0.696661,-18.118,27.9663,7.12502,8.15647,57.7889,4.37215,2.21582,22.0592,29.1384,-5.80667,-31.5168,-0.597694,-12.6907,-19.789,-6.42784,28.0971,-11.9459,-7.30501,-2.35807
0.697659,18.8188,6.79368,-6.12339,34.1317,-10.2128,3.01155,5.73108,0.232916,-2.19806,7.53467,-4.61188,-3.29843,3.71,-5.30909,-10.306,-8.2976,-9.67798,-4.29158,-10.0625,20.0084,2.09183,-4.50932,7.13504,3.08116e-15,-3.81667e-14,53.7294,-21.2772,-37.6494,46.4444,34.4288,-53.8386,9.01056,7.12502,-26.2688,-19.1909,3.08116e-15,-3.81667e-14,-27.7543,10.7968,55.9009,18.1711,-0.528855,-17.9895,27.928,7.12502,8.28046,57.7457,4.16618,2.48788,21.9332,29.4474,-5.44289,-30.6723,-0.981941,-12.712,-19.7774,-6.52406,28.3676,-12.1727,-7.17118,-2.25135
0.718692,18.8127,6.7956,-6.12339,34.0015,-10.1454,3.00175,5.78048,0.12843,-2.21837,7.5949,-4.61867,-3.32123,3.74167,-5.26204,-10.269,-8.26505,-9.54518,-4.34856,-10.0218,19.8913,2.04744,-4.49665,7.08157,9.46215e-14,-4.13472e-14,52.6435,-19.7567,-34.7927,46.9784,35.0463,-53.8295,9.34965,7.12502,-26.2601,-18.8531,9.46215e-14,-4.13472e-14,-27.8102,11.2995,55.7812,18.0464,-0.630574,-18.1077,27.9739,7.12502,8.16641,57.7961,4.01596,2.77504,21.751,29.8169,-5.1787,-30.1806,-1.65065,-12.6979,-19.7797,-6.68813,28.6452,-12.3794,-7.05004,-2.23754
0.736528,18.8034,6.79552,-6.23232,33.8555,-10.2129,3.02999,5.80483,0.0929096,-2.21961,7.62572,-4.56114,-3.34803,3.75734,-5.18798,-10.1753,-8.20209,-9.39059,-4.52214,-9.92619,19.7556,1.94976,-4.4645,7.02746,-8.2595e-14,-9.54166e-15,51.67,-18.1898,-31.8931,47.5386,35.8114,-54.0374,10.4635,7.12502,-26.4591,-17.7095,-8.2595e-14,-9.54166e-15,-27.9296,11.3998,55.8447,18.0994,-0.297216,-18.4302,28.2436,7.12502,7.85518,58.0776,3.90907,3.1641,21.7579,30.2453,-4.76411,-29.9934,-2.7545,-12.67,-19.8086,-6.71146,28.927,-12.5897,-6.94275,-2.15605
0.753439,18.7935,6.79421,-6.32212,33.7387,-10.2929,3.0533,5.80419,0.0770974,-2.22864,7.6241,-4.50215,-3.38061,3.75623,-5.12193,-10.1123,-8.16969,-9.5303,-4.61968,-9.85921,19.9284,1.92181,-4.43328,7.11534,-3.65018e-14,-9.54166e-15,50.8228,-16.641,-29.1323,48.1444,36.8559,-53.6429,11.936,7.12502,-26.0814,-16.2933,-3.65018e-14,-9.54166e-15,-28.1257,11.6899,55.8067,18.218,-0.16258,-18.4281,27.9711,7.12502,7.8572,57.8051,3.80336,3.41298,21.7519,30.6612,-4.21183,-29.8232,-4.65766,-12.6698,-19.848,-6.71257,29.1914,-12.7561,-6.86445,-1.87332
0.773752,18.7854,6.79551,-6.34041,33.6807,-10.2427,3.08974,5.80257,0.00409031,-2.26542,7.61624,-4.50248,-3.44941,3.75218,-5.08974,-10.0052,-8.14921,-9.60109,-4.71824,-9.81694,20.0122,1.87958,-4.41927,7.16268,-3.10601e-15,9.54166e-15,49.9848,-15.128,-26.5215,48.9022,38.1268,-52.3225,12.9634,7.12502,-24.8166,-15.4463,-3.10601e-15,9.54166e-15,-28.3172,11.9602,55.6978,18.3091,-0.310917,-18.2947,27.8313,7.12502,7.98591,57.6605,3.74496,3.52644,21.57,31.0185,-3.82036,-29.5691,-6.77781,-12.6603,-19.9239,-6.85769,29.4398,-12.8596,-6.78495,-1.59647
0.794244,18.7811,6.79963,-6.41867,33.6127,-10.2909,3.09816,5.78994,0.0116698,-2.28483,7.59905,-4.49246,-3.47613,3.7427,-5.0854,-10.004,-8.11899,-9.50024,-4.80011,-9.77101,19.9737,1.841,-4.4008,7.13916,4.09745e-14,-9.54166e-15,49.3227,-13.7219,-24.2345,49.6397,39.508,-51.8929,14.0621,7.12502,-24.4048,-14.4036,4.09745e-14,-9.54166e-15,-28.4608,11.7215,55.8112,18.5384,0.232032,-18.5142,28.1755,7.12502,7.77409,58.0126,3.72369,3.72714,21.5011,31.279,-3.3186,-29.1677,-7.5957,-12.6366,-19.9897,-6.91648,29.6737,-13.0124,-6.69968,-1.59661
0.81264,18.7759,6.8067,-6.56206,33.466,-10.404,3.06391,5.80038,0.0855811,-2.26754,7.61811,-4.47974,-3.42943,3.75161,-5.10762,-9.97798,-8.06433,-9.38709,-4.92655,-9.68794,20.0215,1.78592,-4.36527,7.14583,-5.50385e-14,3.18055e-14,48.8774,-12.5482,-22.3639,50.0742,41.1104,-52.4984,16.2839,7.12502,-24.9852,-12.1024,-5.50385e-14,3.18055e-14,-28.5345,11.3825,56.0086,18.7824,1.16848,-19.0858,28.3275,7.12502,7.22233,58.1843,3.75877,4.10182,21.5609,31.4644,-2.5083,-28.6825,-6.86639,-12.5405,-19.9843,-6.90461,29.8928,-13.1954,-6.60186,-1.57437
0.829202,18.7688,6.81396,-6.78535,33.2896,-10.625,3.04439,5.79194,0.22209,-2.24851,7.61557,-4.41719,-3.38961,3.74836,-5.11316,-9.94416,-7.9747,-9.2817,-5.00598,-9.56389,20.0576,1.73672,-4.3089,7.15312,-1.42752e-13,-3.81667e-14,48.5678,-11.4702,-20.7125,50.4943,42.5631,-53.3945,18.5049,7.12502,-25.8436,-9.75926,-1.42752e-13,-3.81667e-14,-28.7669,11.3077,56.0307,19.1346,1.46153,-19.2121,28.2394,7.12502,7.10043,58.1002,3.83469,4.44497,21.7133,31.5894,-1.96573,-28.4756,-7.19329,-12.3828,-19.9987,-6.79394,30.0845,-13.4256,-6.46693,-1.83304
0.846014,18.7609,6.81591,-6.91613,33.1719,-10.6592,3.09518,5.76666,0.256774,-2.24542,7.58235,-4.42165,-3.41272,3.73038,-5.14122,-9.86423,-7.91985,-9.32221,-5.07666,-9.4801,20.2182,1.70482,-4.27111,7.22207,2.90723e-15,4.13472e-14,48.3068,-10.4935,-19.3088,50.999,43.7802,-54.567,19.1043,7.12502,-26.966,-8.99137,2.90723e-15,4.13472e-14,-28.9993,11.04,56.0253,19.5341,1.47435,-18.7194,27.8901,7.12502,7.57602,57.7344,3.95496,4.66389,21.655,31.6668,-1.84187,-28.4065,-8.66902,-12.2371,-20.0945,-6.87997,30.2461,-13.5999,-6.30344,-1.97929
0.862953,18.7564,6.81663,-6.89409,33.1228,-10.5248,3.11493,5.73028,0.170438,-2.28385,7.52663,-4.48587,-3.47112,3.70268,-5.16383,-9.74775,-7.85471,-9.29775,-5.08514,-9.39985,20.2907,1.67543,-4.23763,7.25177,7.0494e-14,9.54166e-15,48.1338,-9.73933,-18.4487,51.3962,45.0582,-55.4491,19.2141,7.12502,-27.8096,-8.74821,7.0494e-14,9.54166e-15,-29.1988,10.4845,56.1133,19.9034,1.75623,-18.1676,27.6768,7.12502,8.10856,57.5012,4.03139,4.8553,21.4221,31.699,-1.61746,-28.0262,-8.23814,-12.1897,-20.2346,-7.10762,30.3773,-13.6749,-6.12439,-1.99723
0.881197,18.7557,6.82134,-6.96671,32.9759,-10.5062,3.05464,5.72233,0.151465,-2.27817,7.51643,-4.48647,-3.43452,3.69886,-5.1459,-9.67627,-7.80451,-9.28422,-5.02807,-9.34706,20.3572,1.67636,-4.21308,7.27649,5.91695e-14,-1.27222e-14,48.1467,-9.25836,-18.0242,51.4997,46.5048,-55.9106,19.837,7.12502,-28.2508,-8.05309,5.91695e-14,-1.27222e-14,-29.4014,9.91258,56.3055,20.3096,2.36513,-18.0218,27.8897,7.12502,8.24926,57.7086,4.13084,5.15992,21.333,31.7028,-0.957142,-27.5118,-7.13992,-12.0355,-20.2898,-7.22845,30.4641,-13.799,-5.94532,-2.02016
0.895875,18.7563,6.82988,-7.18416,32.8036,-10.6674,2.97655,5.69419,0.17937,-2.23143,7.48459,-4.401,-3.35245,3.68474,-5.05816,-9.68868,-7.7568,-9.24774,-4.93801,-9.29933,20.352,1.69504,-4.18672,7.271,2.64725e-14,0,48.3634,-9.01525,-18.0065,51.3561,47.8207,-56.3099,20.0116,7.12502,-28.6323,-7.81474,2.64725e-14,0,-29.6372,9.60685,56.4289,20.7295,2.93088,-18.025,27.6418,7.12502,8.24617,57.4609,4.33035,5.51937,21.4875,31.6685,-0.344831,-27.248,-7.06442,-11.8075,-20.3161,-7.17274,30.5129,-13.9185,-5.80991,-2.05808
0.910326,18.7563,6.83776,-7.38007,32.7121,-10.8195,2.89025,5.64465,0.180502,-2.17967,7.42279,-4.33264,-3.26417,3.65636,-4.97118,-9.72844,-7.67909,-9.11901,-4.89966,-9.20708,20.2498,1.68539,-4.14108,7.22289,4.75717e-14,-6.36111e-15,48.6004,-8.98743,-18.3991,51.1804,48.4477,-56.6627,19.3396,7.12502,-28.9694,-8.42943,4.75717e-14,-6.36111e-15,-29.8181,9.16763,56.5748,21.1339,3.55561,-18.1329,27.3331,7.12502,8.14205,57.1562,4.5476,5.71758,21.6089,31.6023,0.0615021,-27.0801,-7.57976,-11.6041,-20.3656,-7.12147,30.5365,-14.0049,-5.75813,-1.93409
0.926213,18.7551,6.84521,-7.51417,32.5841,-10.8899,2.79944,5.60589,0.152154,-2.13996,7.37336,-4.28716,-3.18547,3.63437,-4.89294,-9.82642,-7.6409,-9.07769,-4.79653,-9.16943,20.2293,1.72224,-4.11445,7.20817,-8.7341e-14,2.8625e-14,48.9151,-9.10229,-19.1412,51.0598,48.0361,-56.4798,19.3277,7.12502,-28.7946,-8.4712,-8.7341e-14,2.8625e-14,-30.0309,8.54644,56.7523,21.5627,4.24538,-18.2876,27.2839,7.12502,7.99281,57.1128,4.73878,5.9871,21.6555,31.5528,0.362565,-26.9109,-7.96838,-11.3708,-20.3995,-7.1538,30.5248,-14.1224,-5.66699,-1.92032
0.942592,18.7556,6.85187,-7.60453,32.3937,-11.0033,2.65748,5.57477,0.176588,-2.14386,7.33654,-4.23038,-3.11706,3.61702,-4.82991,-9.948,-7.62959,-9.1074,-4.51765,-9.19102,20.2694,1.82999,-4.10809,7.21634,-1.95057e-14,2.54444e-14,49.3247,-9.34562,-20.2032,51.0057,46.8542,-55.6583,19.8364,7.12502,-28.0096,-8.09338,-1.95057e-14,2.54444e-14,-30.1934,8.56799,56.7382,21.7868,4.24996,-18.6265,27.4317,7.12502,7.66567,57.2728,4.82546,6.36027,21.7551,31.5228,0.577145,-26.8033,-8.72506,-11.1889,-20.3561,-7.10223,30.4776,-14.1952,-5.62834,-1.56877
0.956874,18.7573,6.85543,-7.60034,32.346,-10.8335,2.63368,5.56565,-0.0192519,-2.12608,7.31622,-4.25347,-3.10826,3.61123,-4.74209,-10.0324,-7.66138,-9.15414,-4.28259,-9.26484,20.273,1.92493,-4.1315,7.21294,3.10601e-14,6.36111e-15,49.6185,-9.80466,-21.4778,50.8287,45.6789,-54.8737,19.1002,7.12502,-27.2593,-8.94976,3.10601e-14,6.36111e-15,-30.1381,8.76211,56.7768,21.8105,3.90863,-18.6666,27.0686,7.12502,7.62698,56.911,4.96083,6.58885,21.5526,31.507,0.719736,-26.6506,-9.92063,-10.9802,-20.3823,-7.35279,30.4052,-14.1542,-5.58051,-1.22907
0.972218,18.7589,6.85765,-7.67702,32.3861,-10.7082,2.67237,5.55291,-0.155522,-2.09492,7.29267,-4.28213,-3.11273,3.60234,-4.69861,-10.0454,-7.70669,-9.1332,-4.17966,-9.34532,20.2215,1.96376,-4.16835,7.18383,-3.90363e-14,4.77083e-14,49.8826,-10.443,-22.954,50.5065,44.622,-54.0711,17.9231,7.12502,-26.4913,-10.245,-3.90363e-14,4.77083e-14,-30.033,8.90765,56.8201,21.8114,3.51486,-18.3897,26.2816,7.12502,7.89419,56.1143,5.16059,6.63065,21.3499,31.483,0.952535,-26.4505,-10.5996,-10.7257,-20.5145,-7.60359,30.302,-14.1433,-5.48799,-1.14368
0.987303,18.7621,6.85982,-7.80741,32.3586,-10.808,2.63565,5.53536,-0.0796809,-2.09672,7.27317,-4.29639,-3.08424,3.59146,-4.74976,-10.0951,-7.75159,-9.11916,-3.97615,-9.44073,20.2633,2.04686,-4.20486,7.18175,1.22998e-14,3.49861e-14,50.2001,-11.2299,-24.8086,50.2647,43.54,-53.25,17.5065,7.12502,-25.7052,-10.7777,1.22998e-14,3.49861e-14,-29.9421,8.79789,56.8623,21.8996,3.33503,-18.2212,26.1306,7.12502,8.05689,55.957,5.2803,6.62722,21.3533,31.4431,1.42573,-26.177,-11.3098,-10.5367,-20.567,-7.59852,30.1846,-14.1441,-5.46861,-1.24241
1.00174,18.768,6.86215,-7.84498,32.3386,-10.8359,2.51776,5.52166,-0.0929027,-2.09281,7.25685,-4.32056,-3.01379,3.58489,-4.75293,-10.1887,-7.79474,-9.24361,-3.6973,-9.53236,20.4152,2.17346,-4.23078,7.23639,1.38652e-14,0,50.6306,-12.1399,-26.8752,50.0394,42.3842,-52.8858,16.9456,7.12502,-25.3564,-11.3885,1.38652e-14,0,-29.8523,8.08141,57.159,22.1471,4.08098,-18.5189,26.3815,7.12502,7.7695,56.2188,5.36605,6.68601,21.3117,31.3516,1.86146,-25.9481,-11.7943,-10.4139,-20.6366,-7.6374,30.0865,-14.1248,-5.39761,-0.925219
1.01277,18.775,6.8648,-7.97272,32.2765,-11.0352,2.42243,5.492,-0.036552,-2.11318,7.22199,-4.26438,-2.9843,3.56688,-4.71507,-10.2416,-7.77968,-9.30813,-3.42077,-9.54966,20.4598,2.27099,-4.22545,7.25486,7.70291e-14,3.18055e-15,51.1762,-13.0343,-29.0496,49.7639,41.1024,-53.5634,15.593,7.12502,-26.0053,-12.6474,7.70291e-14,3.18055e-15,-29.7846,7.52849,57.3806,22.2867,4.84666,-18.7763,26.1672,7.12502,7.52111,56.0135,5.43286,6.8694,21.4843,31.2267,2.16678,-25.894,-11.6754,-10.3191,-20.6266,-7.47924,30.0208,-14.1012,-5.44571,-0.545866
1.02185,18.7795,6.86803,-8.21205,32.1987,-11.3782,2.39613,5.46506,0.16204,-2.12332,7.19588,-4.16854,-2.96992,3.55022,-4.72146,-10.2314,-7.78436,-9.37295,-3.32148,-9.56754,20.4614,2.30397,-4.23136,7.2637,-3.56818e-14,2.54444e-14,51.779,-13.9784,-31.3342,49.4571,39.828,-54.9892,14.4854,7.12502,-27.3698,-13.5471,-3.56818e-14,2.54444e-14,-29.6349,7.59428,57.4045,22.2717,4.73638,-18.5292,25.8687,7.12502,7.75955,55.7063,5.53602,7.08725,21.8117,31.1055,2.33741,-25.928,-11.1851,-10.1887,-20.596,-7.1914,29.9518,-14.1362,-5.46928,-0.899997
1.03287,18.7828,6.87098,-8.36754,32.196,-11.6051,2.35956,5.43884,0.321232,-2.13207,7.16837,-4.13636,-2.94531,3.53372,-4.77076,-10.1368,-7.80183,-9.36517,-3.39578,-9.58621,20.4419,2.26777,-4.24937,7.25798,6.21202e-15,-2.54444e-14,52.3825,-14.9437,-33.6103,49.1922,38.4866,-55.6244,13.8111,7.12502,-27.9772,-14.1239,6.21202e-15,-2.54444e-14,-29.3625,7.74179,57.3633,22.0976,4.27743,-18.1112,25.4367,7.12502,8.16305,55.2591,5.62776,7.11763,21.9709,30.9876,2.56268,-25.8207,-11.1545,-10.0907,-20.605,-7.02704,29.8898,-14.1632,-5.45517,-1.16999
1.04606,18.7858,6.87296,-8.39094,32.2173,-11.6401,2.2967,5.4265,0.362455,-2.15985,7.15348,-4.1707,-2.93069,3.52542,-4.82319,-10.09,-7.82382,-9.36923,-3.35736,-9.62652,20.461,2.27866,-4.27017,7.26185,1.03567e-13,-2.22639e-14,52.9438,-15.8534,-35.7602,48.9167,37.2204,-55.7596,12.338,7.12502,-28.1065,-15.5759,1.03567e-13,-2.22639e-14,-29.0607,7.93421,57.3076,21.8999,3.79241,-17.973,25.2175,7.12502,8.29642,55.0346,5.67064,7.04161,21.8902,30.8771,2.8534,-25.6407,-11.0482,-10.0197,-20.7003,-7.0495,29.8148,-14.1521,-5.42705,-0.798065
1.05939,18.79,6.87402,-8.4199,32.2667,-11.6351,2.23019,5.42723,0.364381,-2.14026,7.15606,-4.18749,-2.8705,3.52801,-4.83263,-10.0013,-7.91681,-9.40432,-3.4295,-9.74699,20.5094,2.2664,-4.33595,7.2754,-5.03422e-14,1.90833e-14,53.535,-16.7458,-37.7091,48.6411,36.181,-56.1864,9.28803,7.12502,-28.5143,-18.5582,-5.03422e-14,1.90833e-14,-28.6514,7.96961,57.4414,21.6813,3.59793,-18.0299,25.147,7.12502,8.24148,54.9662,5.73282,6.882,21.7571,30.7919,3.04196,-25.4605,-10.8678,-9.89455,-20.8568,-7.12111,29.6938,-14.1275,-5.38924,-0.462643
1.07124,18.7951,6.87563,-8.51055,32.2909,-11.6875,2.19108,5.44796,0.391218,-2.13428,7.1859,-4.17153,-2.83863,3.54314,-4.82682,-9.76114,-7.99764,-9.49061,-3.5742,-9.84483,20.6159,2.21174,-4.40045,7.32396,2.00872e-13,5.725e-14,54.0244,-17.5228,-39.3583,48.5393,35.0755,-56.1253,5.78514,7.12502,-28.456,-22.0709,2.00872e-13,5.725e-14,-28.3014,7.5455,57.7488,21.5806,3.65382,-18.1211,25.3438,7.12502,8.15344,55.1665,5.82797,6.69322,21.6829,30.718,3.26646,-25.1921,-10.8287,-9.69008,-20.9835,-7.14847,29.5156,-14.0882,-5.33303,-0.444911
1.08186,18.8024,6.87806,-8.50122,32.2669,-11.666,2.14372,5.4819,0.350278,-2.17216,7.22934,-4.18013,-2.85162,3.56509,-4.81205,-9.57242,-8.02627,-9.61113,-3.62308,-9.88019,20.73,2.18632,-4.42749,7.38398,3.57812e-15,-9.54166e-15,54.4312,-18.166,-40.6622,48.4554,34.0139,-55.6984,3.89317,7.12502,-28.0479,-24.0303,3.57812e-15,-9.54166e-15,-28.0266,6.87232,58.1035,21.6237,3.67495,-18.2194,25.9241,7.12502,8.05858,55.7505,5.83637,6.57478,21.5548,30.6419,3.56023,-24.9773,-10.5398,-9.54436,-20.986,-7.20675,29.3163,-14.021,-5.29033,-0.562655
1.09558,18.8082,6.88276,-8.49297,32.2248,-11.5792,2.10779,5.49779,0.281818,-2.19297,7.2477,-4.20256,-2.85706,3.57531,-4.7958,-9.45205,-8.00416,-9.65403,-3.66787,-9.84726,20.7806,2.15435,-4.41857,7.41488,4.97956e-14,-2.22639e-14,54.7423,-18.5321,-41.3753,48.1495,32.9184,-55.8483,3.14275,7.12502,-28.1912,-24.7572,4.97956e-14,-2.22639e-14,-27.7807,6.36298,58.3343,21.6461,3.76859,-18.1075,26.1745,7.12502,8.16662,55.9967,5.89206,6.53244,21.3888,30.575,3.82043,-24.8301,-10.3168,-9.3353,-20.9167,-7.35384,29.1205,-13.9623,-5.29674,-0.496136
1.10585,18.8142,6.88527,-8.49662,32.1956,-11.5429,2.11809,5.48684,0.227915,-2.25321,7.22893,-4.21393,-2.93196,3.56505,-4.78332,-9.31832,-7.96365,-9.5241,-3.66928,-9.8101,20.7081,2.11383,-4.41057,7.3772,8.49307e-14,0,54.8191,-18.5942,-41.4349,47.7969,32.0655,-56.313,1.7345,7.12502,-28.6353,-26.0914,8.49307e-14,0,-27.5679,6.10434,58.4101,21.5262,3.80204,-17.951,25.9965,7.12502,8.31764,55.8127,5.90204,6.55281,21.3031,30.5498,3.96533,-24.81,-10.2197,-9.16516,-20.9245,-7.43828,28.9508,-13.9627,-5.24317,-0.598132
1.11418,18.8186,6.88403,-8.49955,32.1656,-11.4857,2.1708,5.47433,0.169871,-2.30363,7.20736,-4.22089,-3.02178,3.55332,-4.76804,-9.18447,-7.93161,-9.36616,-3.71309,-9.77918,20.6115,2.0589,-4.40778,7.32713,9.34288e-14,-1.90833e-14,54.7559,-18.4963,-40.9471,47.5056,32.2522,-56.9071,-0.0937422,7.12502,-29.2027,-27.8225,9.34288e-14,-1.90833e-14,-27.3468,6.05282,58.4734,21.3999,3.67049,-18.1016,26.0218,7.12502,8.17229,55.8437,5.89286,6.60843,21.2037,30.5667,3.9637,-24.8929,-9.88018,-9.0066,-21.0025,-7.53995,28.8051,-13.9462,-5.18806,-0.432707
1.12349,18.821,6.87977,-8.46042,32.1133,-11.404,2.20091,5.46383,0.139327,-2.33033,7.19089,-4.21348,-3.07236,3.5446,-4.74869,-9.15884,-7.90217,-9.32665,-3.72656,-9.74012,20.5538,2.03865,-4.39204,7.30656,-8.51792e-14,2.22639e-14,54.5537,-18.1901,-39.7295,47.1807,32.916,-57.3334,0.768021,7.12502,-29.6097,-26.8892,-8.51792e-14,2.22639e-14,-27.1418,5.93051,58.639,21.3841,3.72414,-18.4861,26.5073,7.12502,7.80118,56.3434,5.83191,6.56738,21.0484,30.6166,4.08832,-24.8397,-10.2069,-8.90686,-21.0714,-7.6544,28.6889,-13.9018,-5.09764,-0.62559
1.13458,18.8253,6.87508,-8.38566,32.0519,-11.2499,2.24705,5.44806,0.0729424,-2.38594,7.16398,-4.25214,-3.16132,3.53033,-4.76098,-9.13438,-7.81813,-9.1879,-3.66295,-9.64673,20.4912,2.02724,-4.34728,7.27133,-7.74266e-14,-2.8625e-14,54.038,-17.5268,-37.7619,46.8148,33.5984,-57.6647,2.20359,7.12502,-29.926,-25.3971,-7.74266e-14,-2.8625e-14,-26.9425,6.03927,58.6475,21.2732,3.3512,-18.6229,26.55,7.12502,7.66916,56.391,5.7609,6.4949,20.7981,30.6741,4.24855,-24.7293,-10.8718,-8.80573,-21.117,-7.85538,28.5878,-13.855,-4.982,-0.717332
1.14598,18.8293,6.87029,-8.31623,31.9978,-11.1732,2.28016,5.41794,0.112193,-2.4586,7.12195,-4.29681,-3.24834,3.50601,-4.83645,-9.19578,-7.70353,-9.01408,-3.49026,-9.52712,20.4348,2.05654,-4.28058,7.23032,-1.02275e-13,6.36111e-15,53.3176,-16.6089,-35.1862,46.5912,34.6715,-58.0176,3.27343,7.12502,-30.2627,-24.266,-1.02275e-13,6.36111e-15,-26.7839,6.11738,58.6366,21.2447,3.00263,-18.3936,26.2203,7.12502,7.89049,56.053,5.66343,6.47386,20.6337,30.7085,4.37757,-24.6976,-11.4215,-8.76294,-21.0986,-7.95995,28.4991,-13.8251,-4.95123,-0.616015
1.16051,18.8328,6.86743,-8.2854,31.9177,-11.1622,2.24731,5.38072,0.225851,-2.48567,7.07718,-4.28723,-3.2491,3.4809,-4.88547,-9.2265,-7.58642,-8.93685,-3.45437,-9.37457,20.3668,2.04086,-4.20424,7.20761,-6.59965e-14,4.45278e-14,52.6158,-15.4983,-32.1462,46.4603,36.2767,-58.2859,6.44752,7.12502,-30.5186,-21.0446,-6.59965e-14,4.45278e-14,-26.7394,5.8615,58.7867,21.4383,3.22164,-18.3195,26.3146,7.12502,7.96198,56.1446,5.58582,6.48082,20.5242,30.7279,4.47476,-24.6453,-11.3326,-8.69615,-21.0628,-8.0063,28.4019,-13.814,-4.94311,-0.419063
1.17476,18.8342,6.86561,-8.33326,31.8507,-11.1873,2.22998,5.32605,0.350008,-2.46485,7.01082,-4.25461,-3.21243,3.44597,-4.91393,-9.19497,-7.47484,-8.73337,-3.59096,-9.21491,20.237,1.95391,-4.13625,7.14836,-5.2181e-14,1.59028e-14,51.9565,-14.3885,-29.1133,46.4671,38.7548,-57.7049,10.6715,7.12502,-29.9644,-16.9223,-5.2181e-14,1.59028e-14,-26.6191,5.73467,58.9376,21.5713,3.80627,-18.4809,26.4107,7.12502,7.80616,56.2466,5.59355,6.43328,20.4506,30.7383,4.51746,-24.5613,-11.0606,-8.56641,-21.0276,-8.03465,28.3029,-13.7622,-5.0182,0.136028
1.18533,18.8353,6.86512,-8.38445,31.7682,-11.14,2.26961,5.27592,0.365324,-2.44901,6.94434,-4.24428,-3.22329,3.41231,-4.91265,-9.18478,-7.37117,-8.4187,-3.66641,-9.08493,20.097,1.88683,-4.08024,7.06286,-7.02704e-14,3.18055e-14,51.3792,-13.4374,-26.5115,46.6735,42.088,-56.6045,14.8487,7.12502,-28.9138,-12.9299,-7.02704e-14,3.18055e-14,-26.541,5.25824,59.1826,21.7935,5.059,-18.6558,26.3556,7.12502,7.63738,56.1977,5.65302,6.46494,20.3635,30.7595,4.47159,-24.5572,-10.8652,-8.3649,-21.0207,-8.14811,28.185,-13.7217,-4.97416,0.161204
1.1936,18.8384,6.86503,-8.35698,31.6271,-11.1075,2.24161,5.2419,0.374259,-2.46671,6.89988,-4.2094,-3.2328,3.38974,-4.8782,-9.23779,-7.31812,-8.31959,-3.61029,-9.02678,20.0773,1.8974,-4.04758,7.04244,-8.5875e-14,-3.18055e-14,50.9532,-12.6546,-24.3221,46.9425,45.6648,-56.8573,17.1799,7.12502,-29.1552,-10.5571,-8.5875e-14,-3.18055e-14,-26.4797,5.02928,59.3836,21.9744,5.74877,-18.5362,26.1554,7.12502,7.75283,55.9932,5.57696,6.54806,20.3038,30.8121,4.66338,-24.5026,-10.956,-8.23913,-20.9014,-8.19815,28.0441,-13.6865,-4.93091,0.0580701
1.20196,18.8439,6.86354,-8.28687,31.5332,-11.0189,2.21654,5.19991,0.349889,-2.47338,6.84311,-4.20616,-3.23356,3.36191,-4.85731,-9.25895,-7.27113,-8.25199,-3.65443,-8.96023,20.1092,1.87767,-4.01498,7.04674,-9.72057e-14,3.18055e-15,50.6353,-12.039,-22.6777,47.2375,49.006,-58.2854,17.5993,7.12502,-30.5181,-9.89286,-9.72057e-14,3.18055e-15,-26.3543,5.29819,59.374,21.9912,5.43768,-18.4116,25.6982,7.12502,7.87311,55.5316,5.46083,6.64827,20.185,30.9035,4.80855,-24.4692,-10.886,-8.1553,-20.7905,-8.29502,27.8877,-13.5846,-4.94114,-0.00379648
1.20882,18.8469,6.85961,-8.25406,31.5173,-10.8877,2.25954,5.13138,0.308933,-2.45728,6.74875,-4.24909,-3.24845,3.31532,-4.87955,-9.2154,-7.18675,-8.17783,-3.73994,-8.84029,20.2284,1.83316,-3.95945,7.08449,3.18055e-15,2.8625e-14,50.465,-11.678,-21.8206,47.6131,51.4895,-59.1606,18.4807,7.12502,-31.3523,-8.85303,3.18055e-15,2.8625e-14,-26.2949,5.2367,59.3647,22.1773,5.46879,-18.4155,25.5523,7.12502,7.86931,55.3859,5.41558,6.64338,20.0221,30.999,5.07812,-24.3559,-11.0675,-8.04132,-20.7428,-8.45416,27.7371,-13.4922,-4.99773,0.193963
1.21322,18.8468,6.85512,-8.22582,31.4522,-10.7484,2.32225,5.06066,0.258357,-2.4557,6.65018,-4.29152,-3.29103,3.26616,-4.89888,-9.14281,-7.07399,-8.1352,-3.80304,-8.68447,20.4433,1.79281,-3.88495,7.1615,-6.69904e-14,3.49861e-14,50.5455,-11.5268,-21.6957,47.8458,52.3411,-59.401,19.6022,7.12502,-31.5814,-7.6868,-6.69904e-14,3.49861e-14,-26.3184,4.95312,59.3866,22.476,5.70214,-18.3657,25.6735,7.12502,7.91738,55.5052,5.37901,6.72865,19.8783,31.107,5.20094,-24.325,-10.8144,-7.88535,-20.73,-8.62363,27.59,-13.4284,-4.94942,0.288305
1.2174,18.8489,6.85133,-8.23953,31.2864,-10.7602,2.31454,5.00207,0.35444,-2.46195,6.57556,-4.30897,-3.28665,3.22652,-4.96675,-9.10193,-6.98778,-8.05686,-3.84708,-8.57055,20.7212,1.77147,-3.82753,7.24814,7.58364e-14,-1.90833e-14,50.8019,-11.5965,-22.3027,47.9235,51.5554,-59.6552,18.5059,7.12502,-31.8235,-8.73523,7.58364e-14,-1.90833e-14,-26.3087,4.67593,59.3498,22.6825,6.0203,-18.4656,25.4734,7.12502,7.82093,55.3088,5.27218,6.93792,19.8867,31.2372,5.13061,-24.3999,-10.2182,-7.75546,-20.6445,-8.62738,27.4661,-13.4077,-4.8626,0.0473515
1.21792,18.8527,6.84664,-8.22669,31.063,-10.6967,2.34385,4.97253,0.354897,-2.48001,6.53386,-4.36429,-3.31908,3.20447,-5.02729,-9.02242,-6.93137,-7.89735,-3.8844,-8.50722,20.9974,1.74882,-3.79774,7.31724,1.11618e-13,-3.18055e-14,51.1992,-11.9484,-23.8069,47.9144,49.5265,-59.3996,17.006,7.12502,-31.5801,-10.2832,1.11618e-13,-3.18055e-14,-26.3932,3.6411,59.5133,23.1355,7.00807,-19.1285,26.3803,7.12502,7.18109,56.2384,5.14516,7.25241,19.861,31.4001,5.10173,-24.4422,-10.0602,-7.60616,-20.4825,-8.68207,27.3389,-13.3571,-4.81035,-0.157266
1.21927,18.8547,6.8425,-8.16553,30.7828,-10.6415,2.30102,4.96473,0.36122,-2.48399,6.52379,-4.38829,-3.29652,3.19953,-5.05106,-8.95001,-6.89859,-7.72493,-4.00591,-8.46037,21.1285,1.69548,-3.78267,7.33709,-9.86966e-14,-3.49861e-14,51.8742,-12.6368,-26.1494,47.9526,46.7049,-57.8114,17.541,7.12502,-30.0659,-10.0344,-9.86966e-14,-3.49861e-14,-26.4933,2.37014,59.8557,23.706,8.26271,-19.9134,27.7098,7.12502,6.42339,57.5924,4.94745,7.55104,19.8292,31.5768,5.23564,-24.3937,-10.3456,-7.47588,-20.2787,-8.70641,27.1927,-13.3327,-4.74443,-0.432749
1.22092,18.8567,6.83767,-8.06129,30.4966,-10.544,2.26051,4.96425,0.305428,-2.51806,6.52054,-4.384,-3.31602,3.19853,-5.01395,-8.80147,-6.88303,-7.68978,-4.1264,-8.42915,21.2942,1.64046,-3.77866,7.3924,4.8901e-14,-2.22639e-14,52.7571,-13.4962,-29.0118,47.945,43.7192,-56.0911,17.2059,7.12502,-28.4233,-10.6556,4.8901e-14,-2.22639e-14,-26.4989,1.80548,60.065,23.9646,9.00547,-20.3023,27.8265,7.12502,6.048,57.7202,4.72486,7.84262,19.7424,31.7658,5.31478,-24.2674,-10.7205,-7.37371,-20.0816,-8.76692,27.0568,-13.3119,-4.68935,-0.720955
1.21953,18.8577,6.83066,-8.00975,30.2174,-10.3749,2.3353,4.96784,0.136084,-2.50714,6.51702,-4.36254,-3.36825,3.19986,-4.90547,-8.77566,-6.89429,-7.76897,-4.21586,-8.42697,21.5712,1.63191,-3.77742,7.49746,1.18674e-13,-3.18055e-14,53.8005,-14.4132,-31.9828,47.7906,40.481,-56.2499,14.3047,7.12502,-28.5751,-13.5313,1.18674e-13,-3.18055e-14,-26.3507,1.56848,60.1916,23.9507,9.33677,-20.4984,27.2645,7.12502,5.85864,57.1635,4.60998,8.17949,19.6131,31.9717,5.26962,-24.1392,-10.7909,-7.16733,-19.918,-8.93127,26.9141,-13.2943,-4.58784,-0.806553
1.21594,18.8563,6.82305,-8.02556,29.9418,-10.3756,2.39204,4.97618,0.0754459,-2.4731,6.52676,-4.27019,-3.3813,3.20658,-4.78035,-8.77355,-6.93105,-7.83849,-4.38108,-8.44551,21.7925,1.60488,-3.78957,7.58188,5.6753e-14,9.54166e-15,54.8725,-15.2725,-34.7071,47.7474,36.8674,-57.4635,10.4812,7.12502,-29.7339,-17.1539,5.6753e-14,9.54166e-15,-26.1798,1.22623,60.362,23.9803,9.47147,-20.3056,26.84,7.12502,6.04479,56.7338,4.46499,8.56513,19.6695,32.1769,5.32801,-24.0006,-10.8375,-7.01105,-19.7692,-8.91229,26.7845,-13.2896,-4.47676,-0.82178
1.21482,18.8571,6.81685,-7.93455,29.6664,-10.2455,2.41032,5.0096,-0.0929482,-2.47515,6.56465,-4.20476,-3.41702,3.22919,-4.62372,-8.77333,-6.98515,-7.87101,-4.3885,-8.51854,21.9121,1.62313,-3.82387,7.62044,-9.53172e-14,3.49861e-14,55.8036,-16.0097,-37.1237,47.8397,33.5484,-57.8495,6.61404,7.12502,-30.1023,-20.9547,-9.53172e-14,3.49861e-14,-25.9975,0.952362,60.5804,23.9801,9.50956,-20.2324,26.5353,7.12502,6.11542,56.427,4.25647,8.93152,19.57,32.3799,5.43255,-23.7975,-10.7495,-6.90099,-19.707,-9.0207,26.6686,-13.3097,-4.33848,-0.716151
1.21854,18.8561,6.80986,-7.77592,29.4336,-10.0683,2.37516,5.06533,-0.223782,-2.50922,6.63376,-4.17578,-3.44554,3.26632,-4.52352,-8.67043,-7.08109,-7.95107,-4.3914,-8.65136,22.0654,1.63898,-3.89276,7.67598,8.34896e-14,-6.04305e-14,56.4263,-16.5786,-38.8777,47.9497,30.4402,-57.398,3.50476,7.12502,-29.6714,-24.1415,8.34896e-14,-6.04305e-14,-25.6746,0.962393,60.7332,23.6866,8.80827,-19.9589,25.8793,7.12502,6.37951,55.7632,4.02189,9.08398,19.3352,32.5542,5.58074,-23.4626,-10.7715,-6.87142,-19.7135,-9.18808,26.6043,-13.3567,-4.174,-0.53759
