JuanDHNZ/ProyectoFinalCD/preprocessing/sports_trials_csv/13_25.csv
root1,root2,root3,root4,root5,root6,lowerback1,lowerback2,lowerback3,upperback1,upperback2,upperback3,thorax1,thorax2,thorax3,lowerneck1,lowerneck2,lowerneck3,upperneck1,upperneck2,upperneck3,head1,head2,head3,rclavicle1,rclavicle2,rhumerus1,rhumerus2,rhumerus3,rradius1,rwrist1,rhand1,rhand2,rfingers1,rthumb1,rthumb2,lclavicle1,lclavicle2,lhumerus1,lhumerus2,lhumerus3,lradius1,lwrist1,lhand1,lhand2,lfingers1,lthumb1,lthumb2,rfemur1,rfemur2,rfemur3,rtibia1,rfoot1,rfoot2,rtoes1,lfemur1,lfemur2,lfemur3,ltibia1,lfoot1,lfoot2,ltoes1
4.15776,18.8243,-0.0342312,6.96291,-52.4033,-0.000673471,5.47959,-0.58935,1.26682,1.77513,-0.714999,1.54601,-1.24156,-0.368464,0.922877,-10.3651,-1.65955,-5.61261,11.2472,-2.47776,8.21927,5.25361,-0.914096,3.30806,5.70512e-14,-7.95139e-15,-28.9554,-3.28805,-75.8597,72.2387,-62.6234,-37.0918,-14.8814,7.12502,-10.1632,-44.6159,5.70512e-14,-7.95139e-15,-22.752,8.52705,79.4288,12.0746,-43.603,-32.7224,19.8444,7.12502,-5.94624,49.7409,-19.6078,19.0436,16.0114,26.6652,-16.2707,-24.5389,3.66853,-7.22521,-4.07537,-17.3854,19.1486,-25.4856,30.5436,1.33209
4.14196,18.8242,-0.0500369,6.9755,-52.5941,0.21469,5.47107,-0.652134,1.11088,1.8721,-0.810237,1.50269,-1.13511,-0.416098,0.970998,-10.3555,-1.52747,-5.46084,11.4131,-2.29448,7.93541,5.28496,-0.835702,3.20849,2.98177e-14,1.03368e-14,-29.1456,-2.28734,-76.3062,74.3275,-62.3961,-38.4849,-15.7253,7.12502,-11.5069,-45.3895,2.98177e-14,1.03368e-14,-22.4073,6.4386,80.1949,12.4584,-41.6214,-32.7966,19.847,7.12502,-6.01782,49.7415,-19.9205,18.9849,15.864,26.818,-16.1582,-24.2886,3.29888,-7.31464,-3.90233,-17.4647,18.9995,-25.4157,30.567,0.930812
4.12443,18.8237,-0.0651201,6.97162,-52.8025,0.325536,5.58988,-0.716764,1.03521,1.96689,-0.901036,1.48633,-1.10222,-0.461999,1.00331,-10.3724,-1.38863,-5.47799,11.6668,-2.09937,7.79887,5.35114,-0.748317,3.18549,7.55382e-15,-3.18055e-15,-29.3828,-1.15625,-76.7274,76.4574,-62.089,-40.8,-16.95,7.12502,-13.7389,-46.4764,7.55382e-15,-3.18055e-15,-22.1604,4.64487,80.9023,12.8691,-39.9822,-32.7294,19.8763,7.12502,-5.95292,49.7726,-20.0903,19.031,15.8186,26.9042,-16.0838,-24.1443,3.04591,-7.33544,-3.80867,-17.4786,18.953,-25.532,30.565,1.07095
4.10394,18.8231,-0.0815154,7.26267,-53.2713,0.238563,5.58476,-0.675657,0.969553,1.99671,-0.85083,1.51198,-1.0679,-0.437398,1.06292,-10.2528,-1.24103,-5.43374,11.9148,-1.90897,7.66915,5.39245,-0.663617,3.15409,3.04141e-14,6.36111e-15,-29.6223,-0.318229,-77.1407,78.4628,-61.5118,-42.7353,-18.4726,7.12502,-15.6035,-47.8633,3.04141e-14,6.36111e-15,-22.0274,2.70544,81.6617,13.3895,-38.2395,-32.4667,19.5277,7.12502,-5.69938,49.431,-20.4676,19.1879,15.8374,26.9887,-15.9325,-23.8871,3.00407,-7.45431,-3.62428,-17.3849,18.9126,-25.9128,30.6636,1.58522
4.07708,18.8206,-0.108665,8.06641,-54.4666,0.00494195,5.17863,-0.431035,0.555889,1.95918,-0.551042,1.62406,-0.87867,-0.288847,1.38719,-10.2675,-1.025,-5.298,12.3199,-1.62125,7.38693,5.49746,-0.534448,3.06823,6.95746e-14,-8.74653e-15,-29.7081,0.660338,-77.5154,80.3196,-60.963,-43.6811,-20.3135,7.12502,-16.5142,-49.6307,6.95746e-14,-8.74653e-15,-21.7925,1.19028,82.298,13.813,-36.6887,-32.2267,19.1514,7.12502,-5.46757,49.0609,-21.4221,19.6148,15.7424,27.022,-15.4752,-23.3012,2.66796,-7.90661,-3.06322,-17.2623,18.9378,-26.615,31.0005,2.15157
4.06051,18.8198,-0.135387,8.27339,-54.8923,-0.134073,5.42531,-0.459152,0.39351,2.02973,-0.595237,1.68148,-0.940439,-0.312451,1.54222,-10.2231,-0.828551,-5.13618,12.6728,-1.35541,7.05695,5.57874,-0.420159,2.96067,-2.83268e-14,-1.23246e-14,-29.8785,1.7497,-77.9029,82.2457,-60.7897,-44.6399,-21.9414,7.12502,-17.4372,-51.1793,-2.83268e-14,-1.23246e-14,-21.6084,-0.0773254,82.7942,14.3023,-35.2798,-32.0542,18.9507,7.12502,-5.30103,48.8644,-21.615,19.6381,15.8828,27.0274,-15.181,-22.9849,2.32765,-7.96046,-2.84059,-17.1316,19.0042,-26.727,31.18,2.22545
4.04375,18.8199,-0.14552,8.72215,-55.1514,-0.356529,5.32231,-0.528296,0.591655,2.08017,-0.680494,1.67201,-0.831634,-0.354953,1.4248,-10.1405,-0.723146,-5.06472,13.0081,-1.21616,6.84858,5.65852,-0.364726,2.8967,1.12413e-13,-1.70955e-14,-29.9621,2.50454,-78.3964,83.9532,-60.4784,-45.6174,-22.749,7.12502,-18.3777,-51.9009,1.12413e-13,-1.70955e-14,-21.49,-0.446084,83.0611,14.7073,-34.8329,-31.8532,18.6046,7.12502,-5.107,48.523,-21.9424,19.4921,15.9959,27.001,-14.9782,-22.6381,2.12418,-8.23143,-3.0335,-16.9671,19.1279,-27.21,31.4322,2.5781
4.03042,18.8183,-0.159993,9.01996,-55.36,-0.570801,5.48859,-0.611528,0.783723,2.14097,-0.781421,1.64144,-0.862639,-0.405197,1.29332,-10.1008,-0.597546,-4.8998,13.4126,-1.06691,6.64535,5.76689,-0.299137,2.82052,1.23644e-13,-1.98785e-14,-29.9646,3.03467,-78.9039,85.5125,-59.991,-46.1794,-23.2492,7.12502,-18.9182,-52.3492,1.23644e-13,-1.98785e-14,-21.1293,0.0233384,83.0466,14.7841,-35.3074,-31.4899,18.067,7.12502,-4.75616,47.9936,-22.1036,19.4963,16.1405,26.9577,-14.9117,-22.4289,2.38731,-8.38814,-3.07648,-16.7843,19.2769,-27.6286,31.4438,3.05681
4.01623,18.8158,-0.176331,9.41259,-55.5845,-0.901931,5.69956,-0.652961,0.953702,2.17751,-0.825423,1.66813,-0.943669,-0.427378,1.23079,-9.95972,-0.457222,-4.76982,13.7689,-0.894682,6.4546,5.84233,-0.225539,2.75508,-5.96354e-14,2.54444e-14,-30.191,3.87289,-79.1621,87.2777,-59.7329,-46.6963,-24.2772,7.12502,-19.4153,-53.3279,-5.96354e-14,2.54444e-14,-20.7086,-0.129567,83.2139,14.8119,-35.3686,-31.5291,17.9315,7.12502,-4.79402,47.8572,-22.2385,19.5492,16.3596,26.9031,-14.9816,-22.2124,2.87013,-8.57027,-2.61874,-16.5211,19.4589,-27.3855,31.3727,2.8232
3.99889,18.8126,-0.192318,9.76205,-55.9041,-1.09507,5.77108,-0.68566,0.982708,2.22686,-0.867708,1.70851,-0.931886,-0.449163,1.25936,-9.91294,-0.321386,-4.77415,14.2634,-0.717095,6.31463,5.9782,-0.151361,2.73068,7.87187e-14,-1.86858e-14,-30.4205,4.86935,-79.3478,89.0356,-59.3914,-47.0462,-25.7403,7.12502,-19.7517,-54.7568,7.87187e-14,-1.86858e-14,-20.2872,-0.196658,83.399,14.8212,-35.4239,-31.6242,17.8202,7.12502,-4.88589,47.7438,-22.4797,19.6735,16.4462,26.8794,-14.9752,-21.9647,3.39095,-8.78785,-2.21312,-16.3615,19.6203,-27.3133,31.3992,2.74148
3.98171,18.8098,-0.206725,10.0163,-56.1609,-1.23536,5.85031,-0.784664,1.09335,2.32659,-0.995783,1.67134,-0.87404,-0.513227,1.16767,-9.8579,-0.182838,-4.61731,14.6928,-0.543596,6.08258,6.09286,-0.0783812,2.64899,-8.8658e-14,-9.14409e-15,-30.2726,5.14542,-79.8373,90.2456,-58.5609,-47.3379,-26.5929,7.12502,-20.0321,-55.5803,-8.8658e-14,-9.14409e-15,-19.7609,-0.135472,83.3841,14.7889,-35.2457,-31.2207,17.593,7.12502,-4.49623,47.5253,-22.69,19.7004,16.5324,26.9244,-14.9351,-21.683,3.71231,-8.91377,-2.1179,-16.232,19.6934,-27.4988,31.4906,2.79414
3.96619,18.8087,-0.217459,10.2296,-56.3864,-1.34175,5.98307,-0.901139,1.22167,2.42352,-1.1447,1.65771,-0.849048,-0.587745,1.09279,-9.80324,-0.0417795,-4.68686,15.0888,-0.360217,6.055,6.19747,0.00191025,2.67107,2.13694e-14,2.62396e-14,-29.8752,4.80426,-80.4247,91.3182,-57.1324,-47.9373,-27.3184,7.12502,-20.6082,-56.2444,2.13694e-14,2.62396e-14,-19.1683,0.229025,83.3471,14.6992,-35.1239,-30.6495,17.1674,7.12502,-3.94467,47.1107,-22.9414,19.5487,16.6204,27.0914,-14.9365,-21.2695,3.58003,-8.93162,-2.19645,-16.1303,19.5667,-27.7229,31.6671,3.15583
3.94979,18.8073,-0.226138,9.88839,-56.7704,-0.832201,6.13438,-0.951346,0.999134,2.52972,-1.22524,1.54227,-0.821173,-0.629029,1.10596,-9.71319,0.100729,-4.77597,15.4378,-0.166193,6.00237,6.28064,0.0832576,2.68864,9.34288e-14,-3.37934e-14,-30.2284,6.43288,-80.5722,93.1491,-57.0731,-49.4733,-27.8321,7.12502,-22.0835,-56.5911,9.34288e-14,-3.37934e-14,-18.5214,1.28555,83.2126,14.4648,-35.7956,-30.0391,16.9235,7.12502,-3.35519,46.8768,-23.1889,19.2642,16.3674,27.3256,-14.7735,-20.7148,3.18048,-8.80591,-2.12122,-16.4493,19.3168,-27.8553,31.8446,3.43707
3.92894,18.8039,-0.230312,8.99517,-57.258,0.161181,6.30767,-0.966602,0.541577,2.73709,-1.27701,1.31651,-0.699018,-0.65769,1.13499,-9.75288,0.216944,-4.79899,15.8033,-0.0070716,5.9138,6.39415,0.150369,2.68217,-9.0944e-14,7.55382e-15,-30.1317,6.75486,-80.8603,94.6162,-56.3094,-50.2411,-28.8707,7.12502,-22.8205,-57.5407,-9.0944e-14,7.55382e-15,-17.7612,2.60808,82.9823,14.0889,-36.9343,-29.4648,16.8152,7.12502,-2.80058,46.7766,-23.2385,19.0538,15.8554,27.5193,-14.6747,-20.159,3.0611,-8.54409,-2.03528,-17.0838,19.2156,-28.3487,31.8769,4.04918
3.90288,18.8002,-0.231183,8.84854,-57.6992,0.329843,6.36933,-0.994082,0.572087,2.92934,-1.31822,1.18934,-0.538567,-0.679034,0.988869,-9.90131,0.327968,-4.70927,16.3267,0.131342,5.77902,6.57907,0.210714,2.64371,5.4964e-14,-3.57812e-14,-29.9654,6.94259,-81.1586,95.9126,-55.3094,-50.3183,-29.7851,7.12502,-22.8946,-58.446,5.4964e-14,-3.57812e-14,-17.0446,4.09399,82.6548,13.7288,-38.3067,-28.5785,16.1599,7.12502,-1.94467,46.1308,-23.2893,19.0621,15.8,27.6157,-14.6398,-19.7834,2.97952,-8.44525,-2.02918,-17.2151,19.3359,-29.0272,31.8995,4.70462
3.89176,18.7989,-0.263622,10.1076,-57.5934,-0.650391,6.46352,-1.18016,1.03818,2.85803,-1.53415,1.37811,-0.667935,-0.784534,0.939354,-9.82542,0.436338,-4.73508,16.671,0.289781,5.61763,6.66711,0.268125,2.61337,5.66536e-15,-2.94201e-14,-29.7956,7.17986,-81.3529,97.1178,-54.3093,-50.4274,-30.2678,7.12502,-22.9993,-58.9157,5.66536e-15,-2.94201e-14,-16.4197,5.388,82.437,13.4342,-39.4375,-27.6711,15.2469,7.12502,-1.06821,45.2239,-23.7931,19.0879,16.3565,27.5602,-14.4951,-19.8997,2.93294,-9.21498,-1.43523,-16.4522,19.7292,-28.3242,31.6623,3.83705
3.8849,18.794,-0.286762,11.4159,-57.6084,-1.88255,6.73841,-1.31456,1.69635,2.83564,-1.6659,1.61324,-0.853024,-0.848861,0.829208,-9.6805,0.539355,-4.83797,16.8848,0.46148,5.43691,6.70087,0.324936,2.58817,-7.77248e-14,3.06128e-14,-29.8122,7.48121,-81.4238,98.5504,-53.6082,-50.7902,-30.2112,7.12502,-23.3473,-58.8153,-7.77248e-14,3.06128e-14,-15.7945,5.86855,82.4886,13.2371,-39.7778,-26.9837,14.7468,7.12502,-0.404355,44.7262,-24.0602,19.0774,17.0991,27.3896,-14.3346,-19.8185,3.10842,-9.87362,-0.894415,-15.6088,20.355,-28.0965,31.3949,3.33208
3.8739,18.7879,-0.298141,12.3301,-57.8232,-2.86555,7.01291,-1.42968,2.30066,2.96262,-1.77865,1.71707,-0.887952,-0.903783,0.611858,-9.74184,0.683854,-4.92194,17.1503,0.668303,5.40433,6.78485,0.414262,2.6135,1.44218e-13,-1.51076e-14,-29.5769,6.88399,-81.8481,99.8554,-52.7044,-49.7116,-30.3221,7.12502,-22.3123,-59.0539,1.44218e-13,-1.51076e-14,-15.0659,6.04268,82.503,13.0641,-39.9337,-26.1486,13.9178,7.12502,0.402269,43.8972,-24.0878,19.0396,17.7239,27.2311,-14.2642,-19.4862,3.46184,-10.247,-0.380459,-15.0043,21.0165,-28.1491,31.1893,3.00188
3.84826,18.7828,-0.312197,12.7377,-58.2366,-3.29795,7.15061,-1.4648,2.5447,3.15637,-1.81506,1.64065,-0.774082,-0.919905,0.400286,-9.88166,0.817226,-4.82754,17.4486,0.831069,5.37616,6.89673,0.494614,2.60846,-1.98785e-16,-1.8487e-14,-29.8982,8.02771,-81.9671,101.733,-53.1205,-52.4214,-29.5715,7.12502,-24.9114,-57.9681,-1.98785e-16,-1.8487e-14,-14.3883,4.86636,82.5394,13.0622,-39.3863,-25.2321,13.069,7.12502,1.28741,43.0449,-24.1354,19.2208,17.9937,27.2316,-14.2528,-19.1368,3.64128,-10.3641,0.303783,-14.7692,21.3957,-28.0148,31.0564,2.51355
3.81551,18.7797,-0.329417,12.6799,-58.5948,-3.08777,7.18386,-1.46702,2.34508,3.29331,-1.83654,1.57725,-0.647785,-0.931363,0.446965,-9.87361,0.881576,-4.92467,17.6492,0.924374,5.37796,6.95393,0.530441,2.63638,3.3197e-14,1.17283e-14,-29.9962,8.10305,-82.1173,103.133,-52.8213,-53.2141,-27.8182,7.12502,-25.6708,-56.1074,3.3197e-14,1.17283e-14,-13.7984,3.35159,82.7999,13.1605,-38.7043,-24.4587,12.3052,7.12502,2.03437,42.2752,-24.3339,19.4015,17.8756,27.3968,-14.3663,-18.9422,3.8588,-10.4423,0.802675,-14.8873,21.4961,-27.8831,31.0584,2.23525
3.78632,18.7785,-0.339893,12.0597,-58.6804,-2.2439,7.29006,-1.57611,1.97284,3.3844,-2.00605,1.46911,-0.606133,-1.01838,0.558595,-9.78631,0.956268,-5.02419,17.7873,1.05365,5.26009,6.97613,0.572458,2.62684,-2.82274e-14,1.61016e-14,-30.0596,8.04385,-82.145,104.305,-52.3325,-52.8499,-25.2049,7.12502,-25.322,-53.544,-2.82274e-14,1.61016e-14,-13.3486,1.75518,83.1995,13.4194,-37.703,-23.5195,12.0766,7.12502,2.94145,42.0361,-24.5097,19.2667,17.467,27.6801,-14.5805,-18.8646,3.87995,-10.4719,1.02108,-15.3194,21.4556,-27.7969,30.9382,2.39312
3.75959,18.7768,-0.349119,11.5125,-58.8275,-1.51197,7.40337,-1.69457,1.72702,3.52473,-2.18261,1.32996,-0.521621,-1.10799,0.567689,-9.89882,1.03875,-5.08142,18.0292,1.20522,5.0793,7.06723,0.623936,2.59582,6.44062e-14,-1.90833e-14,-30.0587,8.29706,-82.0028,105.42,-51.5284,-51.7522,-23.6025,7.12502,-24.27,-52.0863,6.44062e-14,-1.90833e-14,-12.9436,-0.554403,83.5814,13.8344,-35.6593,-23.0812,12.1395,7.12502,3.36466,42.0927,-24.7051,19.0994,17.1238,28.0055,-14.7374,-18.6599,3.55218,-10.4515,1.32023,-15.691,21.3767,-27.6014,30.8387,2.30846
3.73355,18.7729,-0.365553,11.5858,-59.1393,-1.31014,7.37723,-1.73049,1.58193,3.63184,-2.24509,1.29194,-0.393111,-1.14058,0.611483,-10.0809,1.09183,-5.18203,18.2945,1.31318,4.9781,7.17998,0.658541,2.59576,-3.8266e-14,1.19271e-14,-30.2191,8.92524,-81.5105,106.686,-49.9987,-49.3824,-24.0482,7.12502,-21.9962,-52.8175,-3.8266e-14,1.19271e-14,-12.6462,-4.47095,83.8967,14.5837,-32.1556,-22.9566,12.4917,7.12502,3.48502,42.443,-25.1377,19.0611,17.0056,28.2958,-14.761,-18.3811,3.15003,-10.6494,1.92934,-15.7668,21.3572,-27.2904,30.7364,1.89153
3.70764,18.7675,-0.380315,11.6593,-59.2827,-1.2532,7.50296,-1.82103,1.54124,3.75023,-2.37007,1.30154,-0.338401,-1.20452,0.655612,-10.278,1.14683,-5.32683,18.5723,1.42689,4.91087,7.29872,0.695201,2.61539,3.42904e-15,1.90833e-14,-29.8239,7.95072,-81.6961,107.363,-49.766,-48.0513,-21.3927,7.12502,-20.7177,-50.3068,3.42904e-15,1.90833e-14,-12.3129,-6.2006,84.0912,15.12,-31.0292,-22.0671,12.19,7.12502,4.34396,42.1255,-25.3624,18.9662,17.0469,28.5153,-14.7572,-18.2219,2.91532,-10.833,2.63014,-15.7277,21.4962,-26.7697,30.4632,1.42662
3.68369,18.7629,-0.38722,11.5572,-59.1096,-1.22675,7.80115,-2.0426,1.78178,3.91474,-2.64804,1.26234,-0.345001,-1.34153,0.510562,-10.3573,1.25532,-5.29853,18.7167,1.60675,4.71554,7.35278,0.763774,2.56607,5.96354e-16,-1.59028e-14,-29.8117,7.82995,-81.6172,108.555,-50.4184,-46.7669,-18.2973,7.12502,-19.4832,-47.3412,5.96354e-16,-1.59028e-14,-12.0271,-7.89916,84.261,15.664,-29.6333,-20.5608,11.1716,7.12502,5.79839,41.0722,-25.2539,18.7394,17.2146,28.6688,-14.8896,-18.189,3.09463,-10.9293,3.06209,-15.619,21.807,-26.3541,30.0754,1.20281
3.66376,18.7584,-0.390638,11.3767,-58.7483,-1.08395,8.10307,-2.3217,2.05263,4.07056,-2.99795,1.2506,-0.36522,-1.51402,0.385221,-10.4927,1.35628,-5.26178,18.8458,1.78751,4.48104,7.41306,0.830548,2.50321,-2.86747e-14,-1.37161e-14,-29.777,7.66447,-81.3459,109.681,-51.1412,-45.4247,-15.3439,7.12502,-18.1922,-44.5131,-2.86747e-14,-1.37161e-14,-11.6766,-9.36979,84.4648,16.1429,-28.1599,-19.4697,10.3473,7.12502,6.8518,40.2164,-25.1377,18.4345,17.3075,28.7878,-15.0672,-18.2128,3.263,-11.1365,3.24356,-15.565,22.194,-25.8203,29.8903,0.39441
3.63995,18.7508,-0.397555,11.5465,-58.5383,-1.22768,8.30107,-2.51441,2.34868,4.18704,-3.23151,1.28405,-0.36885,-1.62803,0.28075,-10.5957,1.454,-5.22988,18.9927,1.95054,4.30617,7.47392,0.892754,2.45917,6.15736e-14,-2.42517e-14,-29.7193,7.33086,-81.0268,110.744,-51.8631,-43.9117,-12.4507,7.12502,-16.7362,-41.7493,6.15736e-14,-2.42517e-14,-11.3649,-11.1238,84.6564,16.6802,-26.6428,-19.0491,10.1754,7.12502,7.25772,40.031,-25.1805,18.4385,17.4713,28.9018,-15.1002,-18.312,3.03436,-11.4418,3.59852,-15.3941,22.6065,-25.2891,29.7562,-0.828496
3.61175,18.7447,-0.403301,11.717,-58.4886,-1.38946,8.44996,-2.66863,2.61666,4.31575,-3.41785,1.28849,-0.333932,-1.71805,0.156211,-10.5047,1.58283,-5.19548,18.9308,2.14225,4.17581,7.42985,0.974238,2.42517,-2.37051e-14,2.46493e-14,-29.6219,6.99872,-80.6982,111.857,-52.7541,-41.7329,-10.096,7.12502,-14.6378,-39.5594,-2.37051e-14,2.46493e-14,-11.1374,-13.4349,84.8698,17.2545,-24.3947,-19.3351,10.3242,7.12502,6.98167,40.189,-25.1998,18.5415,17.6213,29.0182,-15.3462,-18.3081,3.16907,-11.6919,4.12192,-15.2549,23.0564,-24.8268,29.6078,-1.92164
3.57973,18.7404,-0.410934,11.6114,-58.5325,-1.25006,8.53606,-2.8144,2.62469,4.4823,-3.61593,1.28621,-0.212337,-1.81687,0.166273,-10.4373,1.71016,-5.22346,18.8156,2.34833,4.03649,7.37177,1.0589,2.39914,2.80286e-14,1.88845e-15,-29.4728,6.82407,-80.339,113.028,-53.4771,-39.8607,-8.18787,7.12502,-12.8335,-37.7734,2.80286e-14,1.88845e-15,-10.7926,-15.0592,85.045,17.6252,-22.5602,-19.5761,10.2046,7.12502,6.749,40.0771,-25.184,18.6327,17.6099,29.1367,-15.6584,-18.3053,3.57686,-11.9255,4.65825,-15.279,23.569,-24.6262,29.3105,-2.44946
3.54608,18.7377,-0.420119,11.5179,-58.5635,-1.11044,8.60062,-2.94004,2.62041,4.64425,-3.78886,1.27515,-0.0830054,-1.90313,0.170805,-10.4343,1.80945,-5.16995,18.7656,2.51837,3.81681,7.35123,1.12438,2.33228,2.81777e-14,5.06901e-15,-29.2843,6.53163,-79.9586,114.077,-53.9085,-38.0838,-6.41086,7.12502,-11.1201,-36.0962,2.81777e-14,5.06901e-15,-10.2908,-16.0654,85.1045,17.7773,-21.612,-19.5436,9.87698,7.12502,6.78037,39.7484,-25.1809,18.6254,17.6374,29.2606,-15.6891,-18.3293,3.25716,-12.1841,5.14478,-15.2759,24.1056,-24.5597,28.9239,-2.35883
3.52039,18.734,-0.435409,11.8379,-58.3293,-1.26293,8.67687,-3.12729,2.78556,4.68638,-4.02352,1.35061,-0.0898243,-2.0188,0.180638,-10.4169,1.92862,-5.04347,18.7725,2.70043,3.59037,7.34769,1.19869,2.25301,2.48481e-14,-1.48095e-14,-29.1286,6.27281,-79.5726,115.073,-54.4132,-36.5831,-4.42317,7.12502,-9.6724,-34.1811,2.48481e-14,-1.48095e-14,-9.7514,-16.8514,85.1675,17.7997,-21.094,-19.5052,9.73622,7.12502,6.81749,39.6065,-25.3828,18.4222,17.8294,29.3727,-15.6259,-18.3796,3.18667,-12.7337,5.49929,-15.0599,24.6475,-24.2116,28.5801,-2.78392
3.49494,18.7316,-0.450785,12.1364,-58.0514,-1.2782,8.63712,-3.31849,2.89847,4.69981,-4.26975,1.4119,-0.0611622,-2.14007,0.200249,-10.5375,2.04503,-4.86712,18.9913,2.86976,3.37516,7.43972,1.26795,2.17433,2.04251e-14,-1.15295e-14,-28.9789,6.1642,-79.2686,116.041,-54.8872,-35.6769,-2.06303,7.12502,-8.79805,-31.8596,2.04251e-14,-1.15295e-14,-9.14516,-17.2747,85.2227,17.6795,-21.103,-19.3631,9.70049,7.12502,6.95463,39.5662,-25.6887,18.329,17.8692,29.4544,-15.8089,-18.394,3.45778,-13.431,5.77986,-14.9361,25.2088,-23.6858,28.393,-3.64507
3.46058,18.731,-0.45547,12.1464,-58.1002,-1.17523,8.61935,-3.42475,2.96479,4.76672,-4.40986,1.35821,0.00664971,-2.20764,0.117355,-10.5153,2.184,-4.70379,19.163,3.04427,3.2622,7.48894,1.34749,2.12843,2.38045e-14,-4.69132e-14,-28.8494,5.83967,-78.9607,116.988,-54.8145,-34.1305,-1.42011,7.12502,-7.30553,-31.274,2.38045e-14,-4.69132e-14,-8.55754,-17.2643,85.2232,17.3571,-21.5158,-19.4726,9.58728,7.12502,6.84898,39.4565,-25.7325,18.415,17.8568,29.5064,-16.0512,-18.1686,3.3725,-13.7932,6.05866,-14.9451,25.7983,-23.4374,28.3846,-4.47888
3.42139,18.7315,-0.457227,12.0875,-58.2312,-1.09882,8.61896,-3.53048,2.98233,4.85365,-4.55354,1.31961,0.0899685,-2.27817,0.077405,-10.407,2.36746,-4.62871,19.2872,3.27683,3.22529,7.50194,1.45554,2.12473,4.68138e-14,-8.74653e-15,-28.5906,5.4456,-78.493,117.867,-54.3215,-31.9179,-2.41699,7.12502,-5.16942,-32.3339,4.68138e-14,-8.74653e-15,-7.90217,-16.6703,85.2207,16.8034,-22.2943,-19.4938,8.92042,7.12502,6.82851,38.7903,-25.635,18.5971,17.8807,29.534,-16.2897,-18.062,3.5934,-14.0158,6.41305,-14.9485,26.4129,-23.3135,28.2819,-4.86619
3.38345,18.7331,-0.460109,12.1154,-58.1784,-1.10924,8.65185,-3.71483,3.02683,4.91285,-4.79623,1.36511,0.12929,-2.39916,0.120941,-10.404,2.55856,-4.55868,19.589,3.54381,3.08177,7.59365,1.56609,2.09541,1.11593e-13,-1.48095e-14,-28.2519,5.30919,-78.0293,118.724,-54.0033,-30.4209,-2.64015,7.12502,-3.72389,-32.5874,1.11593e-13,-1.48095e-14,-7.19507,-15.2885,85.2719,16.11,-23.9407,-19.216,8.04832,7.12502,7.09665,37.9093,-25.5263,18.6527,17.9833,29.5436,-16.5235,-18.0979,3.86857,-14.3354,6.90929,-14.8886,27.0595,-22.7141,28.1296,-5.82165
3.34921,18.735,-0.463439,12.2176,-58.0109,-1.18075,8.70797,-3.93096,3.11416,4.92507,-5.07409,1.46968,0.108593,-2.53815,0.208522,-10.3651,2.73081,-4.50074,19.9218,3.80003,2.86323,7.69227,1.66182,2.04254,-3.4017e-14,3.15571e-14,-27.9317,5.26981,-77.6112,119.574,-54.078,-29.6717,-1.62986,7.12502,-3.00037,-31.5885,-3.4017e-14,3.15571e-14,-6.52506,-13.5993,85.4497,15.39,-26.077,-19.1612,7.92762,7.12502,7.14959,37.7869,-25.4444,18.4782,18.1552,29.5495,-16.6746,-17.9992,4.05347,-14.7513,7.47145,-14.7806,27.7381,-21.8446,27.9587,-7.34773
3.31334,18.7352,-0.465302,12.1816,-57.8493,-1.09581,8.70383,-4.14781,3.17205,4.94666,-5.35784,1.49858,0.126002,-2.67889,0.230701,-10.3416,2.90734,-4.49689,20.262,4.03579,2.82922,7.79174,1.76061,2.05798,4.31114e-14,-5.31749e-15,-27.6435,5.18155,-77.2382,120.429,-54.3092,-28.9022,-1.01067,7.12502,-2.25725,-30.9785,4.31114e-14,-5.31749e-15,-5.95516,-12.9786,85.5255,14.9708,-27.0645,-18.9011,8.30591,7.12502,7.40061,38.1565,-25.3353,18.3087,18.2409,29.5517,-16.7191,-17.9479,3.88603,-15.1393,7.87673,-14.7356,28.4336,-21.4681,27.6053,-7.72823
3.27508,18.7374,-0.466274,12.0269,-57.7202,-0.792108,8.58219,-4.3597,3.13163,4.96416,-5.64671,1.45364,0.204434,-2.82188,0.22219,-10.3931,3.10503,-4.4499,20.6691,4.29293,2.80952,7.92714,1.87234,2.07637,1.1414e-13,-2.31336e-14,-27.2766,5.0355,-76.9338,121.216,-54.4532,-27.3081,-1.04355,7.12502,-0.717702,-31.0221,1.1414e-13,-2.31336e-14,-5.28595,-11.3498,85.5195,14.4172,-29.1181,-18.362,7.6602,7.12502,7.92091,37.4918,-25.2967,18.2656,18.1492,29.5514,-16.653,-18.012,3.37088,-15.5796,8.03324,-14.7984,29.1279,-21.3841,27.258,-7.34994
3.23637,18.7425,-0.470056,11.9405,-57.661,-0.475634,8.41369,-4.52211,3.0512,4.92859,-5.87173,1.39745,0.257054,-2.93349,0.216236,-10.443,3.25962,-4.35467,21.1264,4.48539,2.76611,8.08426,1.95288,2.0746,2.17731e-15,8.60365e-15,-26.883,4.87222,-76.6661,121.907,-54.4255,-25.7767,-0.992878,7.12502,0.761446,-30.9713,2.17731e-15,8.60365e-15,-4.58868,-8.44667,85.583,13.7109,-32.5185,-17.7206,6.84674,7.12502,8.54,36.654,-25.3727,18.4295,17.985,29.5436,-16.7159,-18.2012,3.18919,-16.1039,8.14264,-14.8785,29.8063,-21.0723,27.0992,-7.4239
3.19671,18.7424,-0.472682,11.9473,-57.6749,-0.352709,8.30317,-4.6471,3.06878,4.92408,-6.03993,1.34358,0.302193,-3.01537,0.156854,-10.5745,3.39453,-4.15018,21.5881,4.64202,2.69095,8.26411,2.02214,2.04352,4.51614e-15,3.86388e-15,-26.5489,4.78801,-76.4404,122.623,-54.3615,-25.0377,-0.951658,7.12502,1.47516,-30.9263,4.51614e-15,3.86388e-15,-3.98207,-5.87308,85.6795,13.2202,-35.2274,-17.4208,6.58279,7.12502,8.82931,36.3781,-25.3554,18.6605,17.9518,29.4861,-16.8166,-18.3762,3.44888,-16.5481,8.35457,-14.8475,30.5142,-20.7297,26.9124,-7.32724
3.1569,18.7434,-0.47003,11.8989,-57.6938,-0.283659,8.24855,-4.75551,3.19234,4.92513,-6.17703,1.27637,0.310715,-3.07993,0.0278644,-10.5676,3.53376,-3.99648,21.931,4.80861,2.61732,8.37821,2.09459,2.01653,3.18801e-14,2.48481e-14,-26.3096,4.74477,-76.2459,123.322,-54.1989,-24.5501,-0.809712,7.12502,1.94609,-30.7806,3.18801e-14,2.48481e-14,-3.54623,-3.8176,85.8293,12.9695,-37.2424,-17.2496,6.37939,7.12502,8.99447,36.1676,-25.1805,18.6311,18.0251,29.382,-16.945,-18.2427,4.06,-16.9035,8.53212,-14.7619,31.2822,-20.6258,26.5997,-6.53803
3.11667,18.7546,-0.462975,11.7221,-57.7771,-0.0487371,8.14058,-4.82994,3.25857,4.89606,-6.27417,1.236,0.32611,-3.12591,-0.0491637,-10.5152,3.66475,-4.08293,22.2858,5.00246,2.5702,8.48073,2.16206,2.03995,-1.00399e-13,3.07122e-14,-26.128,4.86086,-76.0429,123.994,-53.758,-24.4823,-0.487777,7.12502,2.01156,-30.458,-1.00399e-13,3.07122e-14,-3.15702,-1.82257,86.1678,12.7335,-39.274,-16.9274,6.68728,7.12502,9.30542,36.4619,-25.0064,18.4658,18.0008,29.2697,-17.1556,-17.999,4.64552,-17.2709,8.59357,-14.775,32.0784,-20.8443,26.3153,-4.94657
3.07658,18.7674,-0.459818,11.3738,-57.9773,0.36717,8.09842,-4.86155,3.07472,4.85907,-6.32841,1.24084,0.328789,-3.15658,0.05862,-10.4945,3.76801,-4.24319,22.5918,5.19352,2.44905,8.57375,2.21546,2.05053,-3.08489e-14,8.93289e-15,-25.9671,5.16721,-75.8453,124.652,-53.2297,-24.4519,-0.335711,7.12502,2.04092,-30.3057,-3.08489e-14,8.93289e-15,-2.79299,0.200823,86.6081,12.5134,-41.4223,-16.5589,6.89264,7.12502,9.66099,36.6511,-24.8494,18.4929,17.8443,29.1765,-17.3156,-17.9694,4.61683,-17.6054,8.75672,-14.9188,32.8775,-20.786,26.1405,-4.18839
3.03572,18.7738,-0.45673,11.0367,-58.1491,0.780147,8.05397,-4.92569,2.90008,4.80625,-6.42397,1.21659,0.311641,-3.20718,0.135825,-10.3701,3.87568,-4.36627,22.745,5.3751,2.34914,8.59636,2.27332,2.05474,-7.74825e-14,1.43001e-14,-25.8058,5.59703,-75.7358,125.279,-52.8146,-24.1656,-0.528509,7.12502,2.3174,-30.4957,-7.74825e-14,1.43001e-14,-2.47564,1.91064,86.9511,12.2962,-43.2403,-16.4441,6.7556,7.12502,9.77172,36.5089,-24.7299,18.5945,17.6848,29.1554,-17.3771,-17.9944,4.43158,-17.9052,8.94439,-15.0756,33.6371,-20.5877,25.8966,-3.16462
2.99468,18.7763,-0.448823,10.8015,-58.3535,1.05063,7.95043,-4.9735,2.89236,4.80376,-6.49186,1.13597,0.355802,-3.2394,0.0540117,-10.2355,3.99427,-4.46939,22.791,5.54704,2.34817,8.5777,2.34222,2.08488,3.02215e-14,3.60297e-16,-25.6247,6.08294,-75.7337,125.906,-52.4495,-24.2929,-0.565838,7.12502,2.19447,-30.5343,3.02215e-14,3.60297e-16,-2.20744,1.38265,87.1024,12.2762,-42.7593,-16.6265,6.87101,7.12502,9.59573,36.6325,-24.6313,18.7442,17.604,29.2238,-17.4726,-18.0137,4.27964,-18.1919,9.28819,-15.1746,34.3708,-19.8135,25.8874,-3.20492
2.95619,18.7739,-0.442053,10.4119,-58.5943,1.3763,7.96308,-4.97128,2.88468,4.84121,-6.49067,0.967717,0.368817,-3.23651,-0.114039,-10.2286,4.07227,-4.28949,22.9088,5.65232,2.18918,8.62403,2.38563,2.01461,6.7711e-15,-1.25483e-14,-25.5433,6.44233,-75.8374,126.638,-52.3268,-24.7252,-0.333422,7.12502,1.77699,-30.3058,6.7711e-15,-1.25483e-14,-1.91687,0.0935446,87.1509,12.2976,-41.4015,-16.8157,7.03321,7.12502,9.41313,36.803,-24.4634,18.8173,17.5353,29.3541,-17.5853,-17.9122,3.96351,-18.3538,9.66752,-15.3292,35.0969,-18.7958,26.0197,-3.80356
2.91793,18.7707,-0.439006,10.0496,-58.8832,1.61455,8.06246,-4.94651,2.82411,4.88122,-6.46036,0.856023,0.349972,-3.22168,-0.190245,-10.3224,4.14982,-4.13917,23.0984,5.77894,1.98681,8.71416,2.42992,1.94142,1.95803e-14,1.35671e-14,-25.4023,6.82711,-76.0181,127.355,-52.3163,-24.8429,-0.173801,7.12502,1.66327,-30.1471,1.95803e-14,1.35671e-14,-1.62281,-0.836437,87.2536,12.3306,-40.3392,-16.9764,7.28938,7.12502,9.25812,37.0661,-24.2712,18.9932,17.5284,29.5048,-17.6633,-17.8543,3.63258,-18.4532,10.0616,-15.3949,35.8592,-18.0867,25.976,-3.78975
2.87937,18.772,-0.433336,9.78594,-59.2694,1.83016,8.09092,-4.88866,2.72746,4.8642,-6.38892,0.792901,0.321113,-3.18753,-0.204291,-10.2882,4.2603,-4.07943,23.2021,5.97209,1.74109,8.74867,2.49528,1.86934,6.37353e-14,-5.56597e-15,-25.2465,7.35053,-76.1449,128.083,-52.338,-24.7781,-0.107539,7.12502,1.72587,-30.0803,6.37353e-14,-5.56597e-15,-1.48378,-2.19699,87.3331,12.5054,-39.2606,-17.2411,7.39051,7.12502,9.00267,37.1784,-24.1794,19.4276,17.4556,29.6513,-17.7937,-17.9473,3.59321,-18.6507,10.4974,-15.4298,36.6601,-17.6139,25.7412,-3.6853
2.84201,18.7744,-0.424109,9.28012,-59.6133,2.32964,8.0594,-4.82471,2.59216,4.86472,-6.31477,0.63846,0.336828,-3.15092,-0.296977,-10.2178,4.38956,-3.98975,23.256,6.19079,1.46834,8.76137,2.57404,1.78362,6.48535e-14,-3.97569e-15,-25.1134,7.71737,-76.2183,128.923,-52.2488,-24.6446,-0.0611473,7.12502,1.85485,-30.0328,6.48535e-14,-3.97569e-15,-1.3595,-3.57238,87.3492,12.7704,-38.4226,-17.357,7.17421,7.12502,8.89081,36.9669,-24.0665,19.6928,17.2333,29.7707,-17.8655,-17.9347,3.59502,-18.885,10.848,-15.6189,37.4823,-17.0396,25.5204,-4.32102
2.80242,18.7778,-0.41404,8.74078,-59.9018,2.83573,8.03481,-4.78662,2.38678,4.87921,-6.27999,0.560425,0.378311,-3.13646,-0.270476,-10.0918,4.50992,-3.9611,23.2097,6.41963,1.13792,8.7305,2.64988,1.68578,-3.39176e-14,-1.25234e-14,-24.9818,8.06586,-76.2219,129.827,-51.9515,-24.4047,0.316721,7.12502,2.08647,-29.6528,-3.39176e-14,-1.25234e-14,-1.23231,-4.89829,87.4933,13.1475,-37.1786,-17.3485,7.40461,7.12502,8.89903,37.197,-23.8944,19.8513,17.0423,29.8832,-18.0006,-17.8011,3.7986,-19.0858,11.0144,-15.7952,38.2917,-16.4035,25.3785,-4.38939
2.76336,18.7796,-0.401176,8.22325,-60.2226,3.25523,8.09136,-4.74264,2.14661,4.89182,-6.23744,0.562155,0.386065,-3.12059,-0.136913,-10.0993,4.59859,-3.9569,23.2547,6.61504,0.818661,8.75633,2.70583,1.59867,-6.15114e-14,1.43125e-14,-24.7843,8.5653,-76.1102,130.703,-51.5736,-23.4251,0.656482,7.12502,3.03253,-29.3017,-6.15114e-14,1.43125e-14,-1.15733,-5.80678,87.754,13.6348,-36.2529,-17.4009,7.53064,7.12502,8.84845,37.3251,-23.6612,19.868,16.9464,30.006,-18.151,-17.5555,3.61268,-19.2063,11.1823,-15.9067,39.0979,-15.9212,25.0617,-3.21148
2.72833,18.7798,-0.389359,7.67845,-60.5317,3.74485,8.17541,-4.70444,1.86458,4.87741,-6.20358,0.553267,0.353442,-3.1098,0.013442,-10.2245,4.69757,-3.89358,23.4005,6.81803,0.515845,8.84056,2.76776,1.51406,-4.7904e-14,2.50469e-14,-24.5766,9.19449,-76.0697,131.588,-50.8772,-21.7838,1.0787,7.12502,4.61756,-28.851,-4.7904e-14,2.50469e-14,-1.03837,-5.56631,88.0639,14.0314,-36.6242,-17.594,7.25362,7.12502,8.6621,37.0559,-23.4832,19.6886,16.8163,30.1118,-18.3413,-17.1942,3.16905,-19.3972,11.2366,-16.0217,39.9154,-15.5689,24.6266,-0.953649
2.69094,18.7789,-0.378986,7.40638,-60.7685,3.9645,8.18345,-4.68585,1.79117,4.86348,-6.18365,0.495056,0.335796,-3.10067,-0.00589327,-10.3856,4.8251,-3.63245,23.6667,7.02878,0.196197,8.98179,2.84291,1.39598,-3.23274e-14,9.3553e-15,-24.3734,9.86799,-76.3016,132.39,-49.574,-22.0198,1.97737,7.12502,4.38965,-27.9571,-3.23274e-14,9.3553e-15,-0.914994,-5.52239,88.2445,14.4285,-36.6833,-17.8261,7.06609,7.12502,8.4382,36.8775,-23.3304,19.6435,16.8061,30.2044,-18.5606,-16.9313,3.03073,-19.6706,11.4392,-15.9949,40.7575,-14.7204,24.157,0.324542
2.65343,18.7784,-0.367032,7.22669,-60.983,3.99355,8.22415,-4.64911,1.9113,4.86883,-6.12677,0.406544,0.297891,-3.0692,-0.162917,-10.3856,4.90746,-3.4074,23.8427,7.15779,-0.0576537,9.06042,2.88751,1.29054,-2.19098e-14,8.72168e-15,-24.1068,9.91061,-76.3142,133.387,-49.9738,-21.2605,1.36164,7.12502,5.1228,-28.5564,-2.19098e-14,8.72168e-15,-0.846546,-6.97535,88.3033,14.9196,-35.287,-18.071,7.42167,7.12502,8.20181,37.2425,-23.0907,19.7662,16.9072,30.3186,-18.6606,-16.7264,3.65126,-19.8776,11.626,-15.8797,41.6116,-13.7066,23.7751,0.31496
2.61816,18.7763,-0.352223,6.96675,-61.2028,4.06372,8.28467,-4.61727,2.03001,4.90024,-6.07717,0.309408,0.275719,-3.04151,-0.327207,-10.1937,4.98873,-3.36042,23.714,7.26342,-0.123981,8.98282,2.93948,1.26253,5.5933e-14,6.41081e-15,-23.8241,10.3507,-76.4314,134.299,-49.383,-21.2321,1.22311,7.12502,5.15021,-28.6943,5.5933e-14,6.41081e-15,-0.877711,-9.34729,88.2504,15.6457,-33.0645,-18.4885,8.14922,7.12502,7.79884,37.9854,-22.8081,19.8112,17.0101,30.4265,-18.6522,-16.474,4.05864,-20.0588,11.6129,-15.7498,42.4724,-13.0556,23.3187,1.00093
2.58478,18.7697,-0.340881,6.71665,-61.3511,4.19606,8.37792,-4.55897,1.98316,4.89801,-6.00134,0.268893,0.224149,-3.00472,-0.341094,-10.1983,5.04038,-3.17445,23.7595,7.3248,-0.229882,9.01036,2.97131,1.204,-4.79568e-14,-2.43511e-15,-23.561,10.9929,-76.5853,135.187,-48.2761,-21.5829,1.40337,7.12502,4.81152,-28.522,-4.79568e-14,-2.43511e-15,-0.806226,-10.4737,88.3632,16.295,-32.0463,-18.7045,8.39133,7.12502,7.59035,38.2351,-22.6124,19.722,17.0752,30.5276,-18.7018,-16.2543,3.8629,-20.3485,11.5011,-15.5888,43.3192,-12.5378,22.5118,1.64776
2.55,18.7639,-0.329411,6.64106,-61.5517,4.17984,8.668,-4.48695,1.70085,4.71553,-5.91135,0.497206,-0.0701664,-2.96903,0.0729703,-10.1531,5.0751,-3.29646,23.9455,7.43003,-0.385651,9.0681,2.98447,1.18431,7.20967e-14,-2.18663e-15,-23.3203,11.8923,-76.4389,136.044,-47.2933,-22.1501,1.21789,7.12502,4.26387,-28.7192,7.20967e-14,-2.18663e-15,-0.826082,-10.5823,88.911,16.7,-31.6444,-19.1004,8.53077,7.12502,7.20827,38.388,-22.4513,19.7619,17.1831,30.6138,-18.8313,-16.1216,3.99979,-20.6576,11.4103,-15.3422,44.1425,-12.0833,21.3101,1.06602
2.51506,18.7629,-0.315146,6.3716,-61.7871,4.28772,8.64144,-4.51599,1.83657,4.78093,-5.94453,0.334329,-0.0189294,-2.98155,-0.170132,-10.0899,5.19438,-3.25193,23.9337,7.57544,-0.361094,9.0503,3.05904,1.19762,-5.68113e-14,-3.16347e-15,-22.8362,12.6035,-76.8664,136.828,-46.2259,-22.4464,1.05366,7.12502,3.97766,-28.889,-5.68113e-14,-3.16347e-15,-0.607263,-11.2482,88.7748,17.0728,-30.7576,-19.4908,8.42987,7.12502,6.83143,38.2997,-22.1845,19.8949,17.2378,30.6911,-19.0233,-16.0209,4.64601,-20.8666,11.3522,-15.2146,44.9287,-11.3896,19.6924,-0.594125
2.48013,18.7624,-0.299747,6.13191,-61.8938,4.3775,8.68662,-4.49885,1.7347,4.81306,-5.92997,0.397626,0.00668956,-2.97742,-0.0490366,-10.1624,5.255,-3.345,24.0384,7.70522,-0.454238,9.09958,3.09608,1.19922,-1.99654e-14,5.71506e-16,-22.3804,13.3965,-76.8998,137.596,-45.082,-22.799,1.12243,7.12502,3.63723,-28.8263,-1.99654e-14,5.71506e-16,-0.389721,-11.6936,89.0262,17.5024,-30.2003,-19.5925,8.29387,7.12502,6.73316,38.1668,-21.8937,19.8296,17.3173,30.7317,-19.0769,-15.873,4.68711,-21.1636,11.1904,-15.113,45.6688,-10.751,17.5532,-2.40356
2.44487,18.7601,-0.285603,5.92021,-61.9989,4.50861,8.61354,-4.50934,1.73561,4.8669,-5.94833,0.334401,0.0953646,-2.98575,-0.121549,-10.2969,5.31458,-3.28282,24.1687,7.80456,-0.532939,9.17528,3.13263,1.18004,-1.06294e-13,8.87077e-15,-21.9021,14.2578,-77.1023,138.307,-43.8578,-23.3966,1.32451,7.12502,3.06007,-28.6333,-1.06294e-13,8.87077e-15,-0.101416,-12.2879,89.0755,17.9441,-29.5824,-19.6739,8.47083,7.12502,6.65463,38.3463,-21.6697,19.6872,17.3634,30.7666,-18.9642,-15.6932,3.86997,-21.5288,10.8862,-14.9849,46.3306,-10.18,16.5703,-3.55911
2.41386,18.7577,-0.271446,5.79842,-62.0867,4.60405,8.56851,-4.52526,1.74148,4.88304,-5.97107,0.272266,0.129115,-2.9961,-0.190845,-10.286,5.3456,-3.18828,24.1694,7.84345,-0.598772,9.18002,3.15165,1.14615,-2.07016e-14,1.00542e-14,-21.3904,15.1674,-77.386,138.963,-42.7619,-24.1046,1.59586,7.12502,2.37634,-28.3707,-2.07016e-14,1.00542e-14,0.253023,-12.5121,89.1512,18.2112,-29.3706,-20.0371,8.79547,7.12502,6.30401,38.6817,-21.5355,19.5873,17.3964,30.8141,-18.9059,-15.5618,3.35537,-21.9538,10.5317,-14.8347,46.9015,-9.99259,15.1517,-4.72698
2.38493,18.75,-0.25584,5.86307,-62.1527,4.45226,8.62655,-4.51311,1.75903,4.87431,-5.95214,0.330003,0.093134,-2.98746,-0.137783,-10.1939,5.34509,-3.27198,24.1273,7.83979,-0.54801,9.14214,3.15022,1.17236,-3.76138e-14,9.49197e-15,-20.9303,16.1501,-77.5632,139.601,-41.5372,-24.5435,1.52101,7.12502,1.95247,-28.4498,-3.76138e-14,9.49197e-15,0.604915,-12.8051,89.358,18.3931,-29.0632,-20.6737,9.04514,7.12502,5.68942,38.9488,-21.3755,19.6208,17.5462,30.8789,-19.0495,-15.5343,3.38955,-22.3281,10.2791,-14.5967,47.3608,-9.45644,13.3304,-7.72772
2.35302,18.7444,-0.239072,5.87491,-62.2105,4.31444,8.68218,-4.48201,1.74368,4.90247,-5.91225,0.374418,0.0988144,-2.96894,-0.0843814,-10.1522,5.33425,-3.24046,24.0878,7.82998,-0.608429,9.12506,3.14383,1.14374,1.84373e-14,-2.95941e-14,-20.4891,17.1471,-77.7251,140.24,-40.319,-25.15,1.43596,7.12502,1.36668,-28.5394,1.84373e-14,-2.95941e-14,0.998676,-13.4136,89.4577,18.6347,-28.5648,-21.0258,9.43323,7.12502,5.34944,39.3457,-21.1408,19.7299,17.6871,30.9336,-19.3285,-15.5009,3.7677,-22.5961,9.88969,-14.3426,47.6933,-9.11449,11.5271,-9.7739
2.32278,18.7407,-0.22579,5.72491,-62.2831,4.36788,8.77956,-4.43501,1.55926,4.92684,-5.86274,0.426301,0.0949381,-2.94903,0.0720595,-10.1418,5.28156,-3.18169,24.0681,7.77691,-0.744596,9.12631,3.11029,1.0823,1.17817e-13,-1.92573e-14,-19.9665,18.2797,-77.9166,140.829,-39.071,-26.2974,1.30794,7.12502,0.258515,-28.6716,1.17817e-13,-1.92573e-14,1.44981,-13.8302,89.5674,18.8038,-28.1656,-21.0589,9.45913,7.12502,5.31752,39.3724,-20.9163,19.8219,17.7302,30.966,-19.5233,-15.4481,3.80529,-22.8655,9.43092,-14.184,47.8932,-9.05521,10.0136,-7.39094
2.2947,18.735,-0.208644,5.78148,-62.3671,4.20267,8.85147,-4.48619,1.76408,4.95083,-5.9154,0.295589,0.0461655,-2.97028,-0.163721,-10.1308,5.29203,-3.04754,24.0903,7.7491,-0.684567,9.1344,3.11438,1.07772,-4.48694e-14,2.62334e-14,-19.4027,19.496,-78.5126,141.257,-37.6032,-27.3825,1.16944,7.12502,-0.789554,-28.8088,-4.48694e-14,2.62334e-14,1.89441,-13.7338,89.4336,18.8585,-28.1539,-21.3544,9.35105,7.12502,5.03217,39.2713,-20.6958,19.7344,17.8927,30.9556,-19.5929,-15.2815,3.52903,-23.148,9.17207,-13.9485,47.9502,-8.90057,8.64715,-5.22888
2.26633,18.731,-0.189875,6.00785,-62.4965,3.93862,8.90084,-4.52179,1.81391,4.92176,-5.95643,0.339585,-0.0117282,-2.99068,-0.136544,-10.0739,5.3206,-3.12776,24.0592,7.80787,-0.72346,9.11101,3.13119,1.08107,-2.46928e-14,1.81018e-14,-18.8416,20.8075,-78.7144,141.643,-36.2112,-28.1001,1.32152,7.12502,-1.48262,-28.6531,-2.46928e-14,1.81018e-14,2.3657,-12.9057,89.6326,18.8084,-28.772,-21.9078,9.48602,7.12502,4.49781,39.4183,-20.5552,19.6567,18.0749,30.9142,-19.6253,-15.1394,3.24185,-23.5249,8.98901,-13.6997,47.8738,-8.67575,7.60328,-7.03936
2.23915,18.7289,-0.177245,6.28013,-62.6404,3.61082,9.00791,-4.54094,1.77524,4.90907,-5.9816,0.428296,-0.0702891,-3.0057,-0.0126377,-9.96787,5.3118,-3.45664,23.8819,7.815,-0.57991,9.0092,3.12875,1.17615,4.09434e-14,-8.19987e-15,-18.2722,22.1577,-78.8897,142.029,-34.7113,-28.7481,1.17576,7.12502,-2.1084,-28.7936,4.09434e-14,-8.19987e-15,2.85957,-12.5705,89.742,18.8421,-28.8129,-22.428,10.1574,7.12502,3.99547,40.0997,-20.4062,19.7847,18.2905,30.8696,-19.6229,-15.1238,3.27317,-23.8942,8.71932,-13.3831,47.6509,-8.49075,6.87868,-8.12896
2.21488,18.7265,-0.164636,6.32168,-62.8011,3.40711,9.22947,-4.56364,1.80905,4.96333,-6.00702,0.367216,-0.144976,-3.01839,-0.0747055,-9.55915,5.38355,-3.9105,23.4961,7.87339,-0.186193,8.76057,3.17709,1.36434,-7.76006e-14,6.75868e-15,-17.6811,23.584,-79.2325,142.302,-32.7518,-29.1818,0.517753,7.12502,-2.52732,-29.447,-7.76006e-14,6.75868e-15,3.38327,-12.6788,89.5978,18.9208,-28.4835,-22.6411,10.7147,7.12502,3.78968,40.6607,-20.1281,19.7885,18.4872,30.8103,-19.5683,-15.0158,3.28494,-24.0913,8.50989,-13.1162,47.2702,-8.40757,6.33176,-8.21475
2.19189,18.7215,-0.146588,6.31861,-62.9416,3.37769,9.22987,-4.5955,1.99813,5.06497,-6.04038,0.111639,-0.0866068,-3.02874,-0.441098,-9.8452,5.35733,-3.56287,23.6327,7.79443,-0.189255,8.87588,3.16273,1.3123,1.95306e-14,-8.94531e-16,-17.145,25.0801,-79.8818,142.377,-30.2302,-29.9139,0.305875,7.12502,-3.2343,-29.6493,1.95306e-14,-8.94531e-16,4.00997,-12.8826,89.2113,18.9154,-28.1387,-23.0344,11.0719,7.12502,3.40985,41.0244,-19.9829,19.5217,18.5574,30.7519,-19.5952,-14.7529,2.8632,-24.3516,8.32769,-13.0255,46.731,-8.4524,6.07911,-8.67266
2.16717,18.7212,-0.131675,6.45115,-63.0634,3.33466,9.12469,-4.59235,1.98928,5.12375,-6.0426,0.00243274,0.0207223,-3.02812,-0.559808,-10.0922,5.27938,-3.34904,23.7597,7.68162,-0.268911,8.98014,3.11336,1.25097,-5.08392e-14,-4.57205e-15,-16.5938,26.4309,-80.3797,142.408,-28.018,-31.5531,1.02868,7.12502,-4.8172,-28.8966,-5.08392e-14,-4.57205e-15,4.64149,-12.7939,89.0759,18.9089,-27.8682,-23.466,11.4219,7.12502,2.99304,41.3806,-19.963,19.4571,18.5927,30.687,-19.5722,-14.6912,2.55433,-24.6802,7.90466,-12.9192,46.0583,-8.65612,6.17393,-7.69626
2.14293,18.7254,-0.118302,6.47408,-63.2355,3.40614,9.15954,-4.5868,1.7687,5.11531,-6.0514,-0.0248942,0.0115986,-3.03648,-0.462717,-10.0555,5.27654,-3.41167,23.7019,7.67448,-0.222357,8.94855,3.11154,1.27344,-4.57205e-15,-3.57812e-15,-16.0546,27.7284,-80.6414,142.518,-26.4827,-33.2101,1.77387,7.12502,-6.41706,-28.1089,-4.57205e-15,-3.57812e-15,5.18357,-12.3795,89.089,18.9988,-27.8213,-23.4377,11.5416,7.12502,3.02043,41.4999,-19.9323,19.4402,18.5541,30.5935,-19.4732,-14.5742,2.43225,-24.9939,7.55169,-12.8353,45.2838,-8.90835,6.34514,-6.80895
2.12102,18.7252,-0.0982472,6.70467,-63.4369,3.2615,9.21703,-4.60755,1.66179,5.09346,-6.08511,-0.00316345,-0.0300765,-3.05583,-0.372645,-9.89133,5.31695,-3.55057,23.464,7.73653,-0.194873,8.82796,3.14163,1.30062,4.27387e-15,-5.36719e-15,-15.4621,29.0666,-80.6721,142.684,-25.2271,-33.6798,1.57515,7.12502,-6.87046,-28.2934,4.27387e-15,-5.36719e-15,5.69127,-11.9858,89.0867,19.0924,-27.9096,-23.4586,11.9,7.12502,3.00023,41.8586,-19.9087,19.3091,18.5947,30.4559,-19.4799,-14.3425,2.10376,-25.3188,7.35161,-12.6814,44.4111,-9.18395,6.6482,-7.05733
2.09974,18.7257,-0.0755806,7.17895,-63.6599,2.89384,9.31274,-4.63952,1.61652,5.02731,-6.12599,0.0657328,-0.13952,-3.07809,-0.261602,-9.7762,5.31714,-3.69994,23.3176,7.75375,-0.19555,8.75018,3.14243,1.31906,-2.84262e-14,-8.94531e-15,-14.8813,30.3985,-80.5978,142.853,-24.3617,-33.7198,1.26106,7.12502,-6.90907,-28.6062,-2.84262e-14,-8.94531e-15,6.1527,-11.4447,89.1478,19.1111,-28.0036,-23.75,12.8041,7.12502,2.71882,42.7665,-19.9025,19.2823,18.7098,30.2891,-19.4779,-14.127,1.80563,-25.6186,7.03215,-12.4373,43.4593,-9.45976,7.24751,-7.34585
2.07944,18.7307,-0.0565373,7.2325,-63.9007,2.96056,9.49105,-4.65549,1.28545,4.97063,-6.16839,0.0857138,-0.260251,-3.1056,-0.0371691,-9.75347,5.29288,-3.71995,23.2848,7.7269,-0.228258,8.73608,3.12501,1.30719,-3.97569e-16,2.00773e-14,-14.2743,31.6133,-80.5569,142.848,-23.2801,-34.0153,1.77975,7.12502,-7.19431,-28.078,-3.97569e-16,2.00773e-14,6.64146,-10.6388,89.2361,19.0767,-28.2046,-24.3149,13.1332,7.12502,2.17322,43.1018,-19.8456,19.4254,18.5948,30.0842,-19.3512,-13.975,1.65387,-25.8523,6.56743,-12.3862,42.4385,-9.77983,8.04856,-7.20123
2.06124,18.734,-0.0344164,7.38801,-64.2025,2.83922,9.66405,-4.59934,1.19258,5.00034,-6.10146,0.0173314,-0.320981,-3.07389,-0.0491724,-9.68787,5.23847,-3.66344,23.1137,7.63986,-0.250876,8.67007,3.09403,1.27632,3.86636e-14,-1.31198e-14,-13.6889,32.513,-80.6305,142.841,-22.1256,-34.4006,1.76002,7.12502,-7.56626,-28.0846,3.86636e-14,-1.31198e-14,7.23884,-10.3007,89.224,19.04,-28.1414,-24.8072,13.1248,7.12502,1.69782,43.0978,-19.7241,19.3507,18.6002,29.8594,-19.0414,-13.6175,0.828606,-25.9921,6.12557,-12.2406,41.3725,-10.2154,8.89916,-6.996
2.04271,18.7357,-0.00847802,7.98651,-64.5136,2.27134,9.76834,-4.55509,1.33513,5.05336,-6.03247,-0.0420201,-0.342561,-3.03728,-0.18855,-9.83488,5.23509,-3.49013,23.2205,7.64302,-0.385191,8.74717,3.0902,1.21101,-2.26615e-14,2.14687e-14,-13.1169,33.5257,-80.7432,142.84,-21.0886,-35.0019,1.52523,7.12502,-8.1466,-28.2977,-2.26615e-14,2.14687e-14,7.89537,-9.98707,89.1698,18.9235,-28.1372,-25.2291,13.4607,7.12502,1.29031,43.4365,-19.6509,19.2492,18.804,29.632,-18.8189,-13.1754,0.385603,-26.1679,5.78803,-11.9137,40.2703,-10.5124,9.79339,-8.04714
2.02623,18.7367,0.0084873,8.53935,-64.7676,1.89265,9.7935,-4.5554,1.31468,5.06836,-6.03558,-0.119037,-0.347037,-3.03844,-0.254292,-9.91408,5.27198,-3.50483,23.2547,7.67172,-0.259956,8.7662,3.11307,1.26107,1.59028e-15,-1.43125e-14,-12.6226,34.5736,-80.978,142.613,-19.9899,-35.9227,2.26706,7.12502,-9.03517,-27.5194,1.59028e-15,-1.43125e-14,8.51529,-10.1197,88.8083,18.9537,-27.6125,-25.6549,14.0942,7.12502,0.879094,44.0721,-19.7037,19.4709,18.8741,29.3834,-18.6651,-13.2398,0.534929,-26.5334,5.61493,-11.6718,39.1399,-10.6339,10.5824,-8.91619
2.01036,18.7395,0.0254624,9.05583,-65.0589,1.55748,9.81139,-4.54156,1.23941,5.12212,-6.02651,-0.206392,-0.302749,-3.03466,-0.304606,-9.95225,5.30161,-3.56323,23.0574,7.69193,-0.115003,8.69557,3.14103,1.31787,-1.41137e-14,-1.82882e-14,-12.0381,35.3488,-81.1042,142.395,-19.022,-36.7099,3.00628,7.12502,-9.79476,-26.7459,-1.41137e-14,-1.82882e-14,9.1946,-10.2345,88.4176,19.051,-26.9275,-26.0254,14.5267,7.12502,0.521249,44.5058,-19.7428,19.6679,18.9094,29.0956,-18.515,-13.4204,0.827096,-26.8847,5.45784,-11.4529,37.9614,-10.9176,11.332,-9.70729
1.9879,18.7414,0.055528,9.59225,-65.5378,1.07558,9.84522,-4.48618,1.26339,5.22573,-5.9569,-0.331609,-0.22816,-2.99924,-0.455506,-10.0406,5.37314,-3.36649,22.9707,7.78908,-0.249987,8.69489,3.19177,1.25199,-2.22639e-14,-4.37326e-15,-11.3699,36.0562,-81.1281,142.341,-18.3784,-37.517,3.07274,7.12502,-10.5734,-26.6413,-2.22639e-14,-4.37326e-15,9.87024,-9.71885,88.2591,19.0057,-26.8792,-26.2154,14.8315,7.12502,0.337738,44.811,-19.6388,19.8243,19.0024,28.7782,-18.4037,-13.3389,0.655445,-26.9742,5.08626,-11.1633,36.732,-11.5277,12.3065,-10.0461
1.96344,18.7462,0.0914734,9.88835,-66.0641,0.863331,9.78344,-4.47417,1.22074,5.36832,-5.95382,-0.541261,-0.0644756,-2.99705,-0.659575,-10.1272,5.49518,-3.1164,22.902,7.95298,-0.423181,8.70346,3.27291,1.17181,3.18055e-14,-1.39149e-14,-10.6156,36.893,-81.258,142.272,-17.9273,-37.8351,2.66419,7.12502,-10.8802,-27.0339,3.18055e-14,-1.39149e-14,10.527,-9.28954,87.894,19.0207,-26.7739,-26.287,15.2146,7.12502,0.268544,45.1941,-19.5121,19.8057,18.9504,28.4007,-18.2013,-13.0429,-0.0207871,-27.0433,4.59144,-10.9984,35.4649,-12.106,13.3712,-9.46083
1.94274,18.7499,0.124777,10.4289,-66.5035,0.433773,9.74479,-4.48704,1.20466,5.50301,-5.97938,-0.658207,0.0851937,-3.00966,-0.778284,-10.2625,5.59019,-3.19472,22.8233,8.10549,-0.422966,8.69613,3.33946,1.20265,-1.55052e-14,-7.95139e-15,-9.83656,37.5963,-81.2987,142.046,-17.319,-35.8957,2.32643,7.12502,-9.00917,-27.4612,-1.55052e-14,-7.95139e-15,11.2388,-8.91063,87.5117,19.0298,-26.4769,-26.4954,15.3159,7.12502,0.0672983,45.2956,-19.4109,19.6194,19.0023,27.9676,-18.0833,-12.6057,0.0897121,-27.2021,4.1891,-10.7544,34.183,-12.3896,14.3765,-8.68092
1.92306,18.7545,0.155062,11.1693,-66.858,-0.144874,9.77039,-4.50536,1.12441,5.57492,-6.01293,-0.658649,0.153301,-3.0288,-0.733231,-10.4056,5.66249,-3.39035,22.7826,8.25103,-0.427895,8.69869,3.39054,1.25106,2.22639e-14,-4.05521e-14,-9.1107,38.2032,-81.1289,141.624,-16.629,-36.6531,3.71922,7.12502,-9.74001,-26.0356,2.22639e-14,-4.05521e-14,11.9031,-8.14665,87.4705,18.9708,-26.2807,-26.9353,15.9885,7.12502,-0.357645,45.9679,-19.36,19.5807,19.0986,27.51,-18.1945,-12.2326,0.897647,-27.4562,3.78756,-10.4043,32.8976,-12.5791,15.2136,-6.74685
1.90318,18.7648,0.184815,11.7436,-67.3081,-0.549787,9.85849,-4.47823,0.958848,5.62016,-5.99306,-0.747322,0.159772,-3.0222,-0.730063,-10.4848,5.72964,-3.33519,22.7267,8.35498,-0.512572,8.69938,3.43581,1.22606,-1.07344e-14,-2.14687e-14,-8.6103,38.6975,-81.0531,141.299,-16.0062,-36.6226,4.12765,7.12502,-9.71052,-25.6285,-1.07344e-14,-2.14687e-14,12.523,-7.63779,87.3415,18.9127,-25.7207,-27.6007,16.9304,7.12502,-1.0003,46.9078,-19.3219,19.7594,19.0809,27.0685,-18.1753,-11.9688,1.17852,-27.6846,3.19517,-10.0452,31.6416,-12.9867,16.0374,-3.50249
1.88308,18.7761,0.218224,12.2835,-67.8429,-0.948633,9.9279,-4.45812,0.825946,5.68653,-5.98259,-0.966347,0.181039,-3.01824,-0.879795,-10.3735,5.86287,-3.06192,22.5001,8.49867,-0.621055,8.61666,3.5239,1.15155,6.91771e-14,-5.56597e-15,-8.14233,39.1313,-81.2526,141.026,-15.5096,-36.5346,3.94205,7.12502,-9.62561,-25.818,6.91771e-14,-5.56597e-15,13.0716,-7.46283,86.8197,19.0063,-24.9478,-27.8695,17.6056,7.12502,-1.2599,47.5816,-19.262,19.8821,19.0405,26.6708,-18.0842,-11.5512,1.20294,-27.8422,2.48627,-9.70484,30.4199,-13.305,17.0118,-3.35012
1.86608,18.7821,0.246841,12.8333,-68.2937,-1.30097,10.057,-4.47947,0.473566,5.71078,-6.04316,-1.1226,0.153283,-3.05504,-0.830655,-10.3054,6.02473,-2.76165,22.3572,8.68564,-0.755998,8.57347,3.62729,1.07175,-3.06128e-14,3.97569e-14,-7.65005,39.5949,-81.5895,140.706,-15.1029,-36.7085,3.7973,7.12502,-9.79343,-25.955,-3.06128e-14,3.97569e-14,13.6853,-7.51823,85.995,19.0778,-23.8246,-27.8746,18.0187,7.12502,-1.26477,47.9947,-19.2936,19.9282,18.9787,26.3256,-18.0344,-11.1572,1.20167,-28.124,2.05475,-9.44638,29.2362,-13.0297,17.8278,-5.26065
1.85244,18.7827,0.272217,13.6444,-68.6494,-1.87236,10.2024,-4.49757,0.211311,5.70082,-6.09069,-1.20388,0.0808772,-3.08373,-0.752226,-10.3559,6.1229,-2.51544,22.3507,8.81651,-0.947386,8.60079,3.68719,0.984031,1.90833e-14,3.73715e-14,-7.2716,39.9063,-81.8471,140.423,-14.7723,-36.8966,3.29718,7.12502,-9.97487,-26.4465,1.90833e-14,3.73715e-14,14.3372,-7.54256,85.2438,19.0848,-22.6345,-28.1112,18.1413,7.12502,-1.49333,48.1158,-19.3864,19.9931,18.9985,25.9484,-17.9397,-10.7842,1.50169,-28.5548,1.87862,-9.10538,28.1358,-12.5817,18.2801,-5.97325
1.83979,18.7803,0.301587,14.592,-68.9819,-2.56935,10.2833,-4.48009,0.150795,5.73111,-6.07572,-1.30422,0.0640098,-3.07703,-0.817897,-10.5065,6.12917,-2.44593,22.3641,8.83523,-1.0211,8.64014,3.69127,0.956429,5.36719e-14,-3.4191e-14,-6.97609,39.9142,-81.9129,140.038,-14.2911,-36.6563,3.09647,7.12502,-9.74306,-26.6582,5.36719e-14,-3.4191e-14,15.0252,-7.30756,84.8109,19.0136,-22.0403,-28.4001,17.9699,7.12502,-1.77236,47.9423,-19.4897,20.0677,19.0422,25.5445,-17.7853,-10.4601,1.75314,-29.0324,1.51078,-8.67745,27.1131,-12.2531,18.7366,-6.55407
1.8234,18.7869,0.345872,15.8082,-69.3399,-3.69028,10.4573,-4.48385,0.311919,5.79334,-6.07056,-1.36193,0.012164,-3.07184,-0.954287,-10.793,6.15751,-2.48402,22.546,8.91653,-1.10333,8.75761,3.70591,0.958123,8.74653e-15,-2.38542e-15,-6.69015,39.878,-81.7302,139.524,-13.9223,-36.1559,3.72589,7.12502,-9.26022,-26.0508,8.74653e-15,-2.38542e-15,15.6389,-6.13424,84.9867,18.8312,-22.5842,-28.7029,18.192,7.12502,-2.06479,48.1618,-19.4209,20.0706,19.248,25.1374,-17.6169,-10.0656,1.51509,-29.3326,0.671623,-7.9817,26.1138,-12.1192,19.5242,-6.79371
1.80804,18.7942,0.392268,16.9178,-69.7596,-4.70224,10.6119,-4.49606,0.51475,5.88008,-6.07567,-1.56031,-0.0230553,-3.06964,-1.25954,-11.0076,6.23617,-2.27469,22.6411,9.02453,-1.2338,8.84627,3.75268,0.902785,1.01778e-13,2.38542e-14,-6.32037,39.8253,-81.9048,138.897,-13.9121,-36.3424,4.84842,7.12502,-9.44016,-24.9202,1.01778e-13,2.38542e-14,16.2765,-4.75691,85.1364,18.6239,-23.3223,-28.9754,18.6282,7.12502,-2.328,48.5952,-19.3541,20.0504,19.3791,24.714,-17.4596,-9.56474,1.16763,-29.5857,-0.321633,-7.28145,25.1224,-12.2355,20.447,-7.47939
1.79887,18.7916,0.42229,17.8393,-70.1187,-5.3848,10.8396,-4.44912,0.379161,5.86802,-6.02986,-1.70827,-0.159961,-3.04889,-1.32184,-11.0769,6.27469,-2.01922,22.6111,9.07188,-1.42528,8.87131,3.77524,0.805568,-6.36111e-15,-5.08889e-14,-6.08639,39.7321,-82.244,138.358,-14.0496,-36.9913,5.30049,7.12502,-10.0662,-24.4388,-6.36111e-15,-5.08889e-14,16.8083,-3.80806,85.2381,18.4827,-23.7884,-29.1623,18.7195,7.12502,-2.50849,48.6845,-19.4375,20.2337,19.3627,24.2822,-17.2846,-9.37922,1.45284,-29.99,-1.30397,-6.61787,24.1716,-12.8327,21.1364,-7.76477
1.78352,18.7903,0.447233,19.1724,-70.6332,-6.56059,11.0605,-4.28312,0.152666,5.91607,-5.83811,-1.79632,-0.211383,-2.95886,-1.29387,-11.1815,6.28404,-1.76334,22.5452,9.07546,-1.59276,8.88939,3.78177,0.71236,-2.38542e-15,-2.06736e-14,-5.84082,39.3781,-82.468,137.789,-14.0034,-36.9762,5.40385,7.12502,-10.0517,-24.3361,-2.38542e-15,-2.06736e-14,17.2873,-3.61661,84.9195,18.5708,-23.6413,-29.1555,18.7337,7.12502,-2.50192,48.6988,-19.4982,20.6226,19.5056,23.955,-17.1207,-9.22798,1.6275,-30.264,-2.13341,-5.80229,23.2454,-13.6392,21.8465,-7.49767
1.76276,18.7894,0.481171,20.5569,-71.2053,-7.85453,11.1908,-4.1229,-0.149927,6.07573,-5.66376,-1.83387,-0.0861466,-2.88136,-1.184,-11.4402,6.317,-1.54773,22.4776,9.13488,-1.79175,8.93549,3.80644,0.627009,-7.95139e-15,3.49861e-14,-5.26864,38.9231,-82.4225,137.096,-14.1942,-37.0096,5.62166,7.12502,-10.0839,-24.1167,-7.95139e-15,3.49861e-14,17.758,-3.95718,84.1096,18.9289,-22.6774,-28.9247,18.8998,7.12502,-2.27895,48.8673,-19.5405,20.9662,19.6584,23.7595,-17.0176,-8.99092,1.33531,-30.4424,-2.84522,-5.09072,22.3564,-14.0673,22.6328,-8.98162
1.74983,18.7822,0.525188,21.7132,-71.5579,-8.7852,11.3779,-4.08331,-0.465644,6.10543,-5.64517,-1.78985,-0.121487,-2.88062,-0.954139,-11.5025,6.40378,-1.44162,22.3275,9.28433,-2.02204,8.91397,3.86517,0.54953,0,-3.49861e-14,-4.83029,38.6577,-82.3165,136.342,-14.4491,-37.9235,5.87043,7.12502,-10.9655,-23.8232,0,-3.49861e-14,18.1696,-3.69483,83.6897,19.0981,-22.0815,-28.9924,18.9125,7.12502,-2.34434,48.8794,-19.7351,21.1091,19.6539,23.5922,-16.972,-8.80295,1.00048,-30.8523,-3.67919,-4.53335,21.6053,-14.163,23.1683,-11.4862
1.7404,18.7688,0.57423,22.7786,-71.8013,-9.57282,11.5002,-4.10185,-0.566242,6.1559,-5.68545,-1.90741,-0.137598,-2.90276,-1.00788,-11.4319,6.44922,-0.979014,21.9842,9.34017,-2.45487,8.83015,3.89797,0.330061,-7.95139e-16,-4.6118e-14,-4.40539,38.4302,-82.3823,135.398,-14.5137,-38.157,6.19251,7.12502,-11.1907,-23.489,-7.95139e-16,-4.6118e-14,18.6875,-3.40858,83.3315,19.1332,-21.6105,-28.8029,18.3373,7.12502,-2.16134,48.3061,-19.9815,21.1379,19.5947,23.4221,-16.9136,-8.57452,0.56637,-31.3781,-4.49391,-4.04032,21.0113,-14.6025,23.3378,-11.864
1.72628,18.7607,0.620696,24.1722,-72.1141,-10.7407,11.5716,-4.06189,-0.707525,6.25757,-5.65324,-2.00157,-0.0654884,-2.8912,-1.03037,-11.4273,6.41573,-0.657439,21.6341,9.29136,-2.76833,8.74195,3.88277,0.164178,1.35174e-14,-3.81667e-14,-3.91542,38.1787,-82.4731,134.379,-14.6308,-38.0578,6.36029,7.12502,-11.095,-23.3264,1.35174e-14,-3.81667e-14,19.2737,-3.25137,82.9199,19.1167,-20.8758,-27.5975,16.7849,7.12502,-0.997218,46.7624,-20.1938,21.2072,19.663,23.2833,-16.8218,-8.33143,-0.143178,-31.8702,-4.96486,-3.56071,20.5003,-15.0355,23.6059,-11.0258
1.70717,18.7625,0.668536,25.6512,-72.4465,-12.0624,11.7545,-3.99729,-0.822901,6.30482,-5.58689,-2.05699,-0.108344,-2.86175,-1.0198,-11.519,6.38119,-0.703928,21.4782,9.2474,-2.74506,8.70144,3.86618,0.175385,2.78299e-14,4.29375e-14,-3.72535,37.8703,-82.7246,133.436,-14.6776,-38.3249,6.45212,7.12502,-11.3526,-23.2206,2.78299e-14,4.29375e-14,19.7014,-3.23885,82.5285,19.1239,-19.8813,-26.4672,15.1298,7.12502,0.0944981,45.1096,-20.2932,21.4739,19.749,23.1408,-16.835,-8.17515,-0.245513,-32.3405,-5.53021,-3.03194,20.0993,-15.1655,24.3079,-11.6579
1.68693,18.76,0.719291,26.8077,-72.8152,-13.0539,12.0326,-3.93679,-1.10527,6.29093,-5.54441,-2.09007,-0.248801,-2.84689,-0.881293,-11.4851,6.41576,-0.890074,21.2536,9.28785,-2.57859,8.60077,3.89734,0.259289,-1.27222e-14,-1.43125e-14,-3.61525,37.6948,-82.9693,132.403,-14.6462,-38.6365,6.55169,7.12502,-11.6531,-23.1043,-1.27222e-14,-1.43125e-14,19.9398,-3.345,82.0907,19.2365,-18.5847,-25.924,14.3903,7.12502,0.619109,44.3691,-20.3547,21.9148,19.655,22.9557,-16.9135,-8.12269,0.0311833,-32.8192,-6.30033,-2.56185,19.8717,-15.7967,24.974,-11.9885
1.6712,18.749,0.765186,28.5192,-73.1713,-14.4556,12.1592,-3.85363,-1.43689,6.25666,-5.47241,-2.0554,-0.317918,-2.81816,-0.660342,-11.477,6.45896,-0.950301,21.0085,9.33758,-2.50911,8.50961,3.93346,0.292584,7.07673e-14,3.65764e-14,-3.308,37.5492,-83.1259,131.258,-14.8023,-39.0726,6.78131,7.12502,-12.0736,-22.8504,7.07673e-14,3.65764e-14,20.1908,-3.21018,81.7754,19.3575,-17.558,-25.8478,14.4133,7.12502,0.69279,44.3919,-20.6523,22.1271,19.6516,22.7766,-16.8937,-7.91103,0.182268,-33.4782,-6.57969,-2.13087,19.7627,-16.2729,25.2899,-12.4516
1.65286,18.7367,0.814781,30.8117,-73.4683,-16.3247,12.0507,-3.75235,-1.55842,6.20228,-5.34815,-2.05512,-0.30509,-2.75777,-0.613345,-11.5171,6.48811,-0.819286,20.9027,9.33469,-2.4369,8.48311,3.95378,0.294871,-1.03368e-14,-2.22639e-14,-3.07567,37.2351,-83.2665,130.059,-15.2038,-39.7198,7.50962,7.12502,-12.6976,-22.0843,-1.03368e-14,-2.22639e-14,20.3703,-3.22796,81.4722,19.4966,-16.6636,-25.9252,14.6669,7.12502,0.617953,44.6457,-21.1182,22.0135,19.7832,22.6503,-16.8816,-7.36654,0.208128,-34.2435,-6.29515,-1.83409,19.7421,-16.1649,25.2692,-13.5099
1.62848,18.7255,0.872957,32.5434,-73.7707,-17.7797,12.0268,-3.61284,-1.63194,6.20363,-5.17655,-2.19287,-0.297049,-2.67307,-0.736718,-11.5036,6.43359,-0.624467,20.7708,9.18449,-2.28115,8.43509,3.92051,0.29625,2.06736e-14,1.11319e-14,-2.96285,36.7522,-83.5917,128.806,-15.3965,-40.7384,8.05484,7.12502,-13.6795,-21.4756,2.06736e-14,1.11319e-14,20.5623,-3.70751,81.0231,19.6008,-15.6517,-25.8944,14.9026,7.12502,0.647769,44.8814,-21.354,22.0198,19.8006,22.5526,-16.9316,-6.91751,0.218909,-34.8371,-5.79349,-1.94535,19.8648,-15.6619,25.0054,-14.0903
1.60313,18.7125,0.940539,34.2027,-74.038,-19.2506,12.0841,-3.53056,-1.6595,6.22607,-5.07868,-2.3339,-0.31469,-2.62458,-0.875424,-11.5474,6.41615,-0.388993,20.7353,9.10132,-2.22368,8.43816,3.90638,0.26982,9.54166e-15,-3.81667e-14,-2.7763,36.2502,-84.1791,127.321,-15.2322,-41.2774,8.41275,7.12502,-14.1989,-21.082,9.54166e-15,-3.81667e-14,20.7144,-4.20941,80.4354,19.731,-14.5524,-25.8399,15.1624,7.12502,0.700356,45.141,-21.4743,22.2146,19.7939,22.4721,-17.1309,-6.79413,-0.29562,-35.331,-5.34578,-2.154,20.0911,-14.9517,24.6526,-14.6056
1.5759,18.6968,1.00968,36.0801,-74.4339,-21.0603,12.278,-3.53807,-1.92014,6.24176,-5.12503,-2.34083,-0.380508,-2.6541,-0.720292,-11.657,6.54713,-0.461475,20.7557,9.29398,-2.21313,8.46294,3.98873,0.30964,6.83819e-14,2.54444e-14,-2.412,36.194,-84.6727,125.647,-14.8521,-40.8477,8.70428,7.12502,-13.7849,-20.819,6.83819e-14,2.54444e-14,20.7633,-3.79221,80.0465,19.7446,-13.75,-25.6064,15.0348,7.12502,0.925862,45.0125,-21.4656,22.5462,19.8264,22.3788,-17.3813,-6.78877,-1.29173,-35.6044,-4.63647,-2.5118,20.4314,-14.0173,23.9654,-14.9552
1.54279,18.6819,1.0766,37.7951,-75.0116,-22.8827,12.6517,-3.48535,-2.48146,6.24018,-5.13266,-2.27155,-0.526687,-2.67092,-0.311977,-11.7118,6.70283,-0.86896,20.789,9.56345,-2.10311,8.46038,4.09081,0.441188,3.65764e-14,2.8625e-14,-2.10222,36.4904,-84.9083,124.018,-14.6544,-40.7165,8.83793,7.12502,-13.6584,-20.6939,3.65764e-14,2.8625e-14,20.6717,-2.81096,80.0423,19.6289,-13.3892,-25.3856,14.676,7.12502,1.1391,44.6527,-21.2014,22.8251,19.834,22.1986,-17.4525,-6.43638,-1.37172,-35.6551,-3.83382,-3.06496,20.9687,-13.1441,23.1487,-12.881
1.50959,18.6701,1.15519,39.7509,-75.4581,-24.8182,12.8288,-3.42406,-2.69011,6.20711,-5.08541,-2.27306,-0.638569,-2.65088,-0.190341,-11.7931,6.7979,-1.11877,20.9045,9.72156,-1.99111,8.49634,4.14974,0.539123,-3.18055e-15,-1.27222e-14,-1.87543,36.7073,-85.163,122.423,-14.5841,-41.0551,8.93361,7.12502,-13.9848,-20.576,-3.18055e-15,-1.27222e-14,20.5061,-2.09934,80.1319,19.5099,-13.2807,-25.6988,14.2559,7.12502,0.83661,44.234,-20.9892,22.8208,19.8398,21.8704,-17.2982,-5.7396,-0.746029,-35.9158,-3.35075,-3.50006,21.6564,-11.4516,22.6712,-9.76716
1.47868,18.6635,1.2474,42.2895,-75.7099,-27.1422,12.7862,-3.42451,-2.48637,6.10973,-5.06147,-2.29474,-0.738065,-2.63153,-0.326395,-11.8102,6.9015,-1.17819,21.0545,9.87275,-1.98178,8.54754,4.20823,0.571016,5.725e-14,-1.11319e-14,-1.68088,36.8255,-85.6163,120.718,-14.5182,-41.3506,9.091,7.12502,-14.2695,-20.3987,5.725e-14,-1.11319e-14,20.2442,-1.49519,80.1961,19.3823,-13.3077,-26.018,13.7206,7.12502,0.52835,43.6997,-20.9046,22.587,19.9142,21.3758,-17.1377,-4.96487,-0.789794,-36.4524,-3.21815,-3.6097,22.4434,-9.04986,22.2242,-7.41394
1.44429,18.6675,1.33868,44.9894,-76.0306,-29.6619,12.7468,-3.34505,-2.30754,6.02435,-4.93909,-2.38686,-0.831166,-2.56431,-0.534501,-11.8357,6.96486,-1.17546,21.1947,9.94,-1.89285,8.59495,4.24146,0.610527,6.36111e-15,-3.97569e-14,-1.52298,36.8382,-86.1878,118.967,-14.372,-41.1534,8.14651,7.12502,-14.0794,-21.3565,6.36111e-15,-3.97569e-14,20.0132,-0.432057,80.5621,19.1786,-13.8038,-25.9643,13.5024,7.12502,0.58018,43.4813,-20.7144,22.6026,19.9298,20.7583,-17.0376,-4.41563,-0.873028,-36.9731,-3.89567,-3.21706,23.3113,-7.35793,22.8435,-5.80593
1.40874,18.6741,1.42545,47.7459,-76.4075,-32.3408,12.7914,-3.20108,-2.29279,5.96217,-4.7548,-2.45998,-0.928728,-2.47081,-0.636266,-11.8673,7.03735,-1.10515,21.4022,10.0259,-1.89087,8.67535,4.27626,0.61471,-9.38264e-14,-6.52014e-14,-1.44137,36.9011,-86.6899,117.28,-14.2491,-39.7387,6.85407,7.12502,-12.7158,-22.7388,-9.38264e-14,-6.52014e-14,19.7933,0.802447,81.1184,18.9168,-14.1498,-25.9858,13.6508,7.12502,0.559507,43.6298,-20.4161,22.9066,19.8918,20.1636,-16.9872,-4.02456,-0.63038,-37.3848,-4.84357,-2.58821,24.1714,-7.27195,25.0367,-3.56834
1.3702,18.6737,1.50825,50.615,-76.8357,-35.189,12.8645,-2.99789,-2.55261,5.93009,-4.5225,-2.4175,-0.978655,-2.36054,-0.472882,-11.9268,7.10435,-1.19478,21.5587,10.1569,-1.97506,8.7409,4.31199,0.620815,3.18055e-15,-3.81667e-14,-1.34977,37.0706,-86.9908,115.714,-14.1496,-39.2651,6.70656,7.12502,-12.2593,-22.9141,3.18055e-15,-3.81667e-14,19.542,2.02349,81.7927,18.6941,-14.1248,-26.1349,14.0782,7.12502,0.41548,44.0576,-20.1405,23.3527,19.8411,19.7294,-16.9143,-3.85796,-0.756979,-37.6153,-5.20816,-2.19897,24.9695,-7.99439,27.2912,-1.0913
1.32677,18.6668,1.58912,53.3147,-77.3278,-37.8742,12.9261,-2.74424,-2.91076,5.89132,-4.2405,-2.49139,-1.03392,-2.22639,-0.382435,-11.9404,7.14186,-1.19514,21.7595,10.1889,-1.88363,8.8066,4.32603,0.658892,-4.29375e-14,1.59028e-15,-1.37303,37.2434,-87.3292,114.229,-14.0073,-41.7476,7.6626,7.12502,-14.652,-21.7997,-4.29375e-14,1.59028e-15,19.199,2.98391,82.2839,18.4813,-13.9379,-26.0405,14.5235,7.12502,0.506623,44.5026,-19.9895,23.6309,19.7271,19.5695,-16.9138,-3.7218,-1.20045,-37.6994,-5.01258,-2.2143,25.7653,-8.34229,27.674,0.9557
1.28071,18.6575,1.66698,55.7869,-77.8154,-40.2866,12.9394,-2.52098,-3.30164,5.8594,-4.00405,-2.65386,-1.06177,-2.11512,-0.362738,-11.9902,7.22784,-1.08143,21.9418,10.261,-1.77219,8.87774,4.37109,0.691459,3.81667e-14,-2.54444e-14,-1.34125,37.5043,-87.7195,112.781,-13.9897,-44.2701,8.45605,7.12502,-17.0812,-20.813,3.81667e-14,-2.54444e-14,18.8834,3.66473,82.5012,18.1606,-13.5064,-26.0918,15.2161,7.12502,0.457124,45.1954,-20.0534,23.8532,19.5146,19.7288,-17.0389,-3.59103,-1.7423,-37.7976,-4.23688,-2.60273,26.585,-8.45943,26.3114,2.43075
1.23603,18.6473,1.74846,57.695,-78.3884,-42.0833,12.8905,-2.34317,-3.90202,5.82815,-3.84615,-2.76383,-1.03732,-2.04709,-0.165419,-11.9715,7.34985,-1.02952,21.9416,10.4253,-1.81829,8.88064,4.446,0.685298,4.45278e-14,4.29375e-14,-1.32091,37.8029,-88.0717,111.687,-14.3063,-45.1947,8.57737,7.12502,-17.971,-20.6124,4.45278e-14,4.29375e-14,18.5103,4.15477,82.5903,17.7911,-13.0963,-26.5557,15.8158,7.12502,0.0090359,45.7956,-20.3138,24.111,19.0265,20.1292,-17.3285,-3.36775,-1.80369,-37.9787,-3.03084,-3.41427,27.4092,-8.12207,25.1616,1.22749
1.1905,18.635,1.82751,59.3366,-78.9132,-43.5535,12.8125,-2.15627,-4.49194,5.7588,-3.67097,-2.83677,-1.03791,-1.96871,0.0622675,-12.0002,7.41008,-1.07467,22.0045,10.5285,-1.86453,8.90857,4.48132,0.691009,2.70347e-14,5.56597e-14,-1.54208,37.8014,-88.4843,111.21,-14.8255,-45.8763,8.39641,7.12502,-18.6267,-20.7318,2.70347e-14,5.56597e-14,18.0809,4.62392,82.7952,17.2983,-13.7239,-27.5122,16.2001,7.12502,-0.914828,46.1779,-20.6846,24.3884,18.4646,20.63,-17.7261,-3.14207,-0.976931,-38.2729,-1.62966,-4.34121,28.2462,-6.90494,24.5449,-2.3997
1.13604,18.6243,1.89248,62.0174,-79.4625,-46.0107,12.5641,-1.88988,-5.06121,5.64758,-3.37883,-2.96806,-1.00259,-1.83092,0.196987,-11.9958,7.43346,-1.19597,22.1107,10.547,-1.69447,8.9267,4.49289,0.769888,-7.15625e-14,-1.11319e-14,-1.99913,37.3085,-89.2658,111.213,-15.642,-45.5733,8.37956,7.12502,-18.3353,-20.7763,-7.15625e-14,-1.11319e-14,17.5533,5.00763,82.9004,16.7905,-14.9474,-28.1489,16.0981,7.12502,-1.52968,46.0723,-21.1136,24.8385,17.9766,21.1785,-18.155,-3.03419,-0.194639,-38.5203,-0.226115,-5.05657,29.0621,-6.21849,23.4095,-4.12452
1.07924,18.6142,1.95782,64.9366,-79.9508,-48.7787,12.3846,-1.614,-5.5223,5.52811,-3.0679,-3.13992,-1.02602,-1.68065,0.231817,-11.9843,7.47675,-1.13379,22.2941,10.5777,-1.62337,8.98674,4.51063,0.790424,1.59028e-14,1.27222e-14,-2.59951,36.3851,-90.3696,111.436,-16.4378,-44.0874,8.8158,7.12502,-16.9054,-20.4684,1.59028e-14,1.27222e-14,16.8719,4.84785,82.7372,16.5004,-15.4854,-28.4011,15.6316,7.12502,-1.77331,45.604,-21.4284,25.3418,17.5726,21.6927,-18.5124,-3.2444,-0.302745,-38.6989,0.862022,-5.56773,29.8802,-6.64178,21.9401,-3.85094
1.02628,18.6018,2.03924,66.5124,-80.4431,-50.4006,12.5652,-1.35051,-5.88786,5.40782,-2.79618,-3.33504,-1.25216,-1.54451,0.208098,-11.9629,7.46779,-1.01976,22.5175,10.5574,-1.68886,9.07069,4.49243,0.752704,6.36111e-15,-2.8625e-14,-3.43897,35.4772,-91.3545,111.875,-16.6147,-43.37,8.7416,7.12502,-16.2146,-20.6003,6.36111e-15,-2.8625e-14,15.9566,3.63045,82.3043,16.5365,-15.2317,-28.8415,14.9914,7.12502,-2.19866,44.9598,-21.4297,25.3566,17.1588,22.1072,-18.8122,-3.28135,-0.628043,-38.7914,1.72765,-6.30995,30.7276,-7.1167,21.0303,-3.87872
0.974191,18.5868,2.12716,68.0147,-80.6315,-51.9926,12.7476,-1.15857,-5.84138,5.33453,-2.56482,-3.43364,-1.44513,-1.42404,0.0577843,-12.0022,7.45351,-1.17666,22.7473,10.5475,-1.56947,9.1412,4.47634,0.822348,-3.18055e-14,-2.22639e-14,-4.15008,34.5989,-92.2736,112.138,-16.4459,-43.0452,8.28355,7.12502,-15.9019,-21.0836,-3.18055e-14,-2.22639e-14,14.8829,1.10756,81.4699,17.0015,-13.7127,-29.3596,15.0534,7.12502,-2.69895,45.016,-21.3154,25.2286,17.0549,22.4273,-19.0424,-3.15197,-0.910191,-38.9493,2.68121,-6.9426,31.596,-7.3256,20.5306,-3.83779
0.919699,18.5726,2.2132,69.7736,-80.7091,-53.7811,12.7322,-1.05119,-5.69535,5.28728,-2.41123,-3.50446,-1.50276,-1.34393,-0.116826,-11.9721,7.53461,-1.18545,22.8838,10.6755,-1.63543,9.18733,4.52062,0.817786,-4.92986e-14,-2.8625e-14,-4.78348,33.9168,-93.2222,112.303,-16.3141,-42.3705,7.66378,7.12502,-15.252,-21.7539,-4.92986e-14,-2.8625e-14,13.81,-1.03802,80.7217,17.6548,-11.9972,-29.5714,15.1494,7.12502,-2.90359,45.1094,-21.2353,25.1145,17.0744,22.7355,-19.2721,-3.02406,-1.26544,-39.1509,3.59862,-7.50067,32.4495,-7.54262,19.7943,-4.02415
0.86262,18.564,2.29942,71.4104,-80.9475,-55.469,12.6768,-0.901775,-5.6855,5.25447,-2.21968,-3.64447,-1.52066,-1.24863,-0.294524,-11.9508,7.64542,-0.869585,23.0582,10.8404,-1.96773,9.28527,4.57776,0.679792,3.49861e-14,7.63333e-14,-5.43313,33.3907,-93.8945,112.551,-16.3718,-41.9608,7.22378,7.12502,-14.8574,-22.2235,3.49861e-14,7.63333e-14,12.7806,-2.75047,80.1711,18.3925,-10.1324,-29.5425,14.8024,7.12502,-2.87562,44.7628,-21.1248,24.9543,16.9353,23.0426,-19.4244,-2.85863,-0.80562,-39.2443,4.23412,-8.11076,33.2781,-8.06771,19.0421,-4.34698
0.80705,18.5523,2.38391,72.7581,-81.2541,-56.8658,12.6254,-0.735453,-5.78248,5.21162,-2.01801,-3.75782,-1.5453,-1.14934,-0.386088,-12.0228,7.71251,-0.739626,23.2938,10.9614,-2.1731,9.40373,4.60903,0.613395,1.11319e-14,2.54444e-14,-6.04557,32.8168,-94.4623,112.863,-16.4537,-41.6463,7.24181,7.12502,-14.5544,-22.2276,1.11319e-14,2.54444e-14,11.7365,-4.62677,79.7077,19.207,-8.0843,-29.5287,14.42,7.12502,-2.86234,44.3806,-21.0437,24.6806,16.7156,23.4016,-19.5094,-2.94056,-0.410176,-39.3245,4.63397,-8.69883,34.0313,-8.54094,18.7257,-4.76264
0.750658,18.5401,2.46662,73.6437,-81.4593,-57.8505,12.5598,-0.607349,-5.89112,5.17899,-1.8584,-3.74995,-1.54518,-1.07118,-0.339572,-11.8043,7.79279,-0.756856,23.2529,11.126,-2.43686,9.36724,4.65775,0.536286,1.59028e-15,-6.36111e-15,-6.6285,32.5177,-94.7143,113.341,-16.5766,-41.299,7.06777,7.12502,-14.2198,-22.4255,1.59028e-15,-6.36111e-15,10.6904,-5.79034,79.6774,19.9075,-6.912,-29.2079,14.1977,7.12502,-2.55247,44.1622,-20.918,24.3987,16.6377,23.8656,-19.6396,-3.3522,-0.952927,-39.3106,4.77493,-9.09603,34.687,-9.28825,18.5692,-3.42887
0.690663,18.5315,2.5487,74.3595,-81.7125,-58.6965,12.4386,-0.518945,-6.10972,5.17254,-1.75625,-3.71739,-1.48121,-1.02486,-0.199867,-11.4717,7.95242,-0.771529,23.0332,11.4092,-2.78931,9.25518,4.76252,0.433988,-1.43125e-14,-4.29375e-14,-7.21979,32.6071,-94.7817,113.822,-16.6868,-40.7371,6.46924,7.12502,-13.6783,-23.0613,-1.43125e-14,-4.29375e-14,9.63817,-6.55701,79.7876,20.5972,-5.72142,-28.9094,14.5672,7.12502,-2.26422,44.5349,-20.7716,24.0789,16.5589,24.433,-19.9315,-3.52022,-1.32412,-39.1885,4.75239,-9.48964,35.2836,-10.1904,18.2931,-1.65989
0.630037,18.5209,2.63079,74.9544,-81.8963,-59.4691,12.3383,-0.437835,-6.20879,5.17627,-1.65205,-3.70753,-1.42344,-0.976272,-0.150083,-11.274,8.07141,-0.804117,22.981,11.6077,-2.96254,9.21305,4.83711,0.393797,-1.27222e-14,-2.06736e-14,-7.82019,32.6921,-94.8382,114.162,-16.7424,-40.3119,5.80177,7.12502,-13.2684,-23.7559,-1.27222e-14,-2.06736e-14,8.62442,-7.36231,79.9073,21.3229,-4.53097,-28.7771,15.3506,7.12502,-2.1364,45.3197,-20.588,23.7842,16.5663,25.0515,-20.2921,-3.65168,-1.36855,-39.0173,4.82899,-9.90153,35.8579,-10.7092,17.9958,-1.83201
0.568425,18.5079,2.71284,75.645,-81.9048,-60.3834,12.3303,-0.344485,-6.02111,5.11461,-1.5096,-3.7249,-1.49595,-0.89994,-0.290449,-11.1003,8.11386,-0.720108,23.1953,11.6535,-3.00222,9.26418,4.8512,0.368726,1.27222e-14,1.17681e-13,-8.50642,32.7014,-94.9024,114.428,-16.7765,-40.2483,5.44669,7.12502,-13.2072,-24.115,1.27222e-14,1.17681e-13,7.53612,-7.1914,80.39,22.024,-4.76803,-28.3738,15.9237,7.12502,-1.74688,45.8963,-20.3614,23.5077,16.7648,25.6886,-20.6297,-3.98213,-1.01805,-38.8326,5.02906,-10.202,36.413,-10.9575,17.8232,-2.51756
0.506957,18.497,2.79228,76.0095,-81.8525,-60.9722,12.3721,-0.257481,-5.85103,5.01369,-1.37918,-3.68471,-1.63309,-0.827169,-0.358537,-11.0519,8.12786,-0.683499,23.6399,11.6582,-2.94338,9.40927,4.83905,0.389358,4.77083e-15,2.70347e-14,-9.26476,32.6862,-94.9444,114.986,-17.1271,-39.5961,5.6014,7.12502,-12.5784,-23.9999,4.77083e-15,2.70347e-14,6.39951,-6.52175,81.0612,22.7516,-5.42569,-27.8684,16.1695,7.12502,-1.25885,46.1455,-20.1257,23.1468,17.0412,26.3184,-20.8007,-4.42775,-0.468557,-38.6665,5.29883,-10.4621,36.951,-11.2943,17.4706,-2.78502
0.443678,18.4907,2.87066,76.0012,-81.869,-61.201,12.2844,-0.202475,-5.83375,5.00911,-1.29239,-3.60893,-1.59195,-0.784328,-0.301761,-11.0184,8.1724,-0.786155,23.8739,11.7146,-2.82225,9.47116,4.8573,0.454942,-3.49861e-14,-7.79236e-14,-9.88699,32.9069,-94.7884,115.702,-17.5387,-38.9264,5.88109,7.12502,-11.9327,-23.7588,-3.49861e-14,-7.79236e-14,5.48414,-7.03054,81.3121,23.4363,-4.58043,-27.7753,16.5081,7.12502,-1.16892,46.4847,-19.8467,22.7413,17.2364,26.9172,-20.9896,-4.79129,-0.33814,-38.4676,5.55085,-10.8055,37.4549,-11.6155,17.1053,-3.62206
0.380617,18.488,2.94923,75.4266,-81.9341,-60.9596,12.1843,-0.134704,-5.81352,5.11106,-1.18697,-3.55166,-1.43385,-0.738298,-0.269514,-10.9542,8.20208,-0.806258,23.8903,11.7696,-2.8702,9.46788,4.876,0.445677,-3.18055e-14,-1.09729e-13,-10.2957,33.2299,-94.3478,116.314,-17.3386,-39.5157,5.17619,7.12502,-12.5008,-24.4299,-3.18055e-14,-1.09729e-13,4.79168,-7.92072,81.4962,24.1152,-3.29107,-27.7496,16.7035,7.12502,-1.14405,46.6802,-19.4306,22.4102,17.3905,27.5089,-21.2628,-5.11694,-0.360744,-38.1299,5.71495,-11.2255,37.9179,-11.8952,16.9219,-4.6886
0.314626,18.4825,3.02347,74.3502,-82.0047,-60.2832,12.1395,-0.0325935,-5.80849,5.19838,-1.04574,-3.52471,-1.32281,-0.673571,-0.263889,-10.9499,8.16289,-0.808778,24.1683,11.7018,-2.78189,9.55798,4.83982,0.473152,-2.38542e-14,-2.06736e-14,-10.7089,33.2097,-93.9343,116.955,-17.6642,-39.0885,4.69675,7.12502,-12.089,-24.934,-2.38542e-14,-2.06736e-14,4.09808,-8.67718,81.7832,24.8009,-2.36584,-27.729,17.1123,7.12502,-1.12419,47.0891,-18.9152,22.1513,17.5532,28.1256,-21.5788,-5.66204,-0.321532,-37.6715,5.822,-11.6324,38.3472,-12.2969,16.6427,-4.76398
0.246698,18.4733,3.09035,74.1084,-82.09,-60.4797,12.1559,0.139629,-5.92184,5.20663,-0.832773,-3.47672,-1.32787,-0.570471,-0.178087,-10.8783,8.08308,-0.886496,24.5139,11.5547,-2.55194,9.64394,4.77348,0.548671,7.95139e-15,1.00187e-13,-11.3026,33.0805,-93.6584,117.6,-17.8627,-38.7628,4.33019,7.12502,-11.7749,-25.3188,7.95139e-15,1.00187e-13,3.32858,-9.63099,82.0765,25.4494,-1.50582,-27.67,17.4302,7.12502,-1.0672,47.4073,-18.4329,22.1135,17.7436,28.8043,-21.8508,-6.38349,-0.654035,-37.1672,6.33096,-12.0492,38.7533,-12.6029,15.9922,-4.92348
0.181318,18.4631,3.16355,74.5835,-82.2249,-61.1735,11.908,0.29931,-5.90497,5.16934,-0.600019,-3.50437,-1.242,-0.455069,-0.247268,-10.9294,7.99185,-0.810532,24.8938,11.3939,-2.42724,9.78313,4.70002,0.570352,-7.95139e-15,1.59028e-15,-11.8474,32.907,-93.3751,118.27,-18.1516,-38.3618,4.27091,7.12502,-11.3882,-25.3998,-7.95139e-15,1.59028e-15,2.6357,-10.7665,82.2507,26.1655,-0.510268,-27.3928,17.7057,7.12502,-0.79945,47.684,-18.2918,21.9034,17.7313,29.54,-22.0288,-6.5855,-0.972268,-36.9173,6.96224,-12.5497,39.141,-12.7219,15.4611,-6.34309
0.122859,18.454,3.24251,73.6102,-82.2351,-60.2881,11.6037,0.329416,-5.71224,5.11123,-0.509768,-3.50758,-1.14362,-0.406043,-0.370045,-10.9651,7.93978,-0.750875,25.2092,11.2949,-2.33212,9.89894,4.65421,0.589677,-2.22639e-14,-6.36111e-14,-12.3459,32.7791,-93.0647,118.96,-18.5243,-38.06,4.12504,7.12502,-11.0972,-25.5616,-2.22639e-14,-6.36111e-14,1.93764,-11.8798,82.433,26.9224,0.379424,-27.5136,17.8175,7.12502,-0.916172,47.7953,-18.3367,21.2486,17.6791,30.3463,-22.1158,-6.29166,-1.09515,-36.841,7.18836,-12.9463,39.5109,-12.9106,15.0244,-7.03825
0.0642349,18.4456,3.31761,71.9224,-82.1696,-58.7977,11.4395,0.259992,-5.62333,5.06855,-0.569314,-3.39925,-1.09697,-0.432379,-0.299881,-10.8336,7.96018,-0.816257,25.3128,11.3288,-2.32304,9.90692,4.66024,0.602586,1.59028e-15,7.95139e-15,-12.8001,32.8982,-92.6941,119.663,-18.9837,-37.9222,3.85812,7.12502,-10.9642,-25.8356,1.59028e-15,7.95139e-15,1.14815,-12.9164,82.621,27.7842,1.35086,-27.7027,17.84,7.12502,-1.09878,47.8169,-18.2431,20.6633,17.7344,31.1975,-22.1896,-6.22561,-1.3689,-36.6081,7.21234,-13.209,39.8398,-13.3089,14.5993,-6.86181
0.00826075,18.4359,3.38922,70.432,-82.1933,-57.5955,11.3732,0.210777,-5.66231,5.06689,-0.625306,-3.2812,-1.05861,-0.46078,-0.148869,-10.7782,7.98561,-0.971697,25.3882,11.4051,-2.36665,9.91802,4.67176,0.619743,1.59028e-14,-1.11319e-14,-13.1198,33.0399,-92.109,120.457,-19.6748,-37.7174,3.60571,7.12502,-10.7667,-26.0984,1.59028e-14,-1.11319e-14,0.413345,-13.6647,82.8726,28.7073,1.98003,-27.6759,17.9216,7.12502,-1.07286,47.8987,-18.087,20.5688,17.7051,32.0836,-22.2982,-6.5155,-1.56442,-36.2441,7.3228,-13.5396,40.1155,-13.6779,14.1552,-6.69926
-0.0463463,18.4279,3.45995,68.7144,-82.257,-56.2266,11.3816,0.199096,-5.68242,5.066,-0.641022,-3.23785,-1.06265,-0.468625,-0.090629,-10.755,7.9848,-0.950308,25.5505,11.416,-2.42196,9.97768,4.66353,0.601041,-5.56597e-15,4.77083e-15,-13.4132,32.9438,-91.6791,121.169,-20.2524,-37.4109,3.19029,7.12502,-10.4711,-26.5289,-5.56597e-15,4.77083e-15,-0.400171,-14.4333,83.052,29.8371,2.37968,-27.6969,18.1468,7.12502,-1.09321,48.1237,-17.9053,20.4215,17.6238,32.9835,-22.2125,-6.72375,-2.43999,-35.7907,7.40763,-13.924,40.3412,-13.8996,13.8384,-7.07459
-0.10447,18.423,3.5291,67.615,-82.288,-55.492,11.3594,0.234828,-5.63088,5.04831,-0.585362,-3.21418,-1.07174,-0.43936,-0.101403,-10.6616,7.97604,-0.848679,25.7027,11.3826,-2.42496,10.021,4.65032,0.578726,1.59028e-14,9.54166e-15,-13.7541,32.6472,-91.4605,121.823,-20.7335,-37.3049,3.10042,7.12502,-10.3688,-26.6239,1.59028e-14,9.54166e-15,-1.16131,-15.3596,83.1792,30.937,2.86984,-27.8781,18.4315,7.12502,-1.26815,48.4075,-17.7323,20.3542,17.5793,33.9027,-22.0397,-6.80883,-3.62568,-35.2788,7.54579,-14.2327,40.5339,-14.2444,13.5146,-6.58922
-0.163029,18.4173,3.59642,66.525,-82.2781,-54.7801,11.3224,0.251391,-5.48665,5.04619,-0.544132,-3.20726,-1.05736,-0.416706,-0.179728,-10.6146,7.94838,-0.871648,25.8636,11.3175,-2.29572,10.0589,4.62536,0.619486,-3.97569e-15,-6.36111e-15,-13.9747,32.3059,-91.1718,122.448,-21.2792,-37.1364,3.51432,7.12502,-10.2062,-26.2181,-3.97569e-15,-6.36111e-15,-1.73141,-16.2952,83.3066,31.7729,3.28859,-28.0565,18.4473,7.12502,-1.44047,48.4222,-17.5562,20.4418,17.5252,34.8306,-21.8701,-6.69953,-4.21527,-34.7185,7.58581,-14.4784,40.6666,-14.6495,13.2522,-5.70068
-0.219252,18.4121,3.66245,65.0956,-82.3018,-53.705,11.2552,0.223527,-5.38642,5.0768,-0.564376,-3.23017,-0.9898,-0.427107,-0.25755,-10.6524,7.94471,-0.942706,25.9729,11.3043,-2.18471,10.0933,4.61934,0.670833,7.95139e-15,3.18055e-15,-14.0443,32.0552,-90.898,123.043,-21.7341,-36.8963,3.75956,7.12502,-9.97456,-25.9841,7.95139e-15,3.18055e-15,-2.16977,-17.0842,83.3999,32.5646,3.59738,-28.3372,18.6057,7.12502,-1.71162,48.5786,-17.438,20.3186,17.3995,35.762,-21.5141,-6.4599,-5.08947,-34.1582,7.54708,-14.7714,40.7463,-15.01,13.1152,-5.17492
-0.27614,18.4137,3.72604,63.6459,-82.3773,-52.6283,11.1455,0.158276,-5.48449,5.15228,-0.64651,-3.16927,-0.84607,-0.474148,-0.131047,-10.7051,8.00931,-1.17568,25.9981,11.4316,-2.12695,10.0951,4.65989,0.744799,-2.46493e-14,-2.06736e-14,-14.206,32.8611,-89.7379,123.743,-22.1628,-37.4459,3.76292,7.12502,-10.5048,-25.9546,-2.46493e-14,-2.06736e-14,-2.53147,-17.394,83.5748,33.4068,3.87779,-28.6435,18.9663,7.12502,-2.00737,48.9366,-17.3299,20.1613,17.2346,36.6899,-20.9897,-6.2393,-6.0618,-33.5268,7.58189,-15.1141,40.7613,-15.2809,12.9461,-5.01413
-0.332176,18.4168,3.78699,62.3098,-82.4135,-51.7119,11.0647,0.0923426,-5.55567,5.23548,-0.730447,-3.13385,-0.710311,-0.522122,-0.0462037,-10.6488,8.05904,-1.2204,25.9382,11.5201,-2.1814,10.0645,4.69319,0.739467,4.77083e-15,3.49861e-14,-14.1533,33.0296,-89.1724,124.312,-22.4739,-37.3952,3.70074,7.12502,-10.4559,-26.0192,4.77083e-15,3.49861e-14,-2.88897,-17.7562,83.6342,34.2906,4.19482,-29.0815,19.3883,7.12502,-2.43046,49.3542,-17.1812,20.1744,17.1099,37.6166,-20.4711,-6.02178,-6.46591,-32.8207,7.55635,-15.3794,40.7179,-15.4928,12.8266,-5.21141
-0.385841,18.4211,3.84688,61.012,-82.4489,-50.7966,11.0117,0.0808243,-5.50709,5.25518,-0.73762,-3.18298,-0.662151,-0.526177,-0.1241,-10.4718,8.04591,-1.11953,25.8925,11.4842,-2.23435,10.0239,4.68447,0.691896,-1.51076e-14,-6.36111e-15,-14.1365,32.6518,-89.0768,124.803,-22.7293,-37.1326,3.68778,7.12502,-10.2026,-26.0448,-1.51076e-14,-6.36111e-15,-3.25426,-18.2374,83.7394,35.1327,4.47033,-29.4128,19.8123,7.12502,-2.75039,49.7744,-17.101,20.2112,16.9583,38.5329,-19.8831,-5.94974,-7.4732,-32.1484,7.48482,-15.6355,40.6335,-15.6865,12.822,-5.38151
-0.440746,18.4285,3.90695,60.0158,-82.4904,-50.089,10.8558,0.121658,-5.38294,5.25533,-0.660929,-3.26799,-0.583034,-0.486731,-0.291291,-10.4511,7.98096,-1.00153,26.0092,11.3637,-2.19766,10.0658,4.63908,0.6734,1.90833e-14,2.8625e-14,-14.1094,32.1484,-88.9,125.345,-22.9776,-36.5737,3.43776,7.12502,-9.66332,-26.3206,1.90833e-14,2.8625e-14,-3.50412,-18.7582,83.8949,35.9337,4.94407,-29.7237,20.0694,7.12502,-3.05058,50.0273,-17.1654,20.1932,16.7495,39.4552,-19.2461,-5.65455,-8.25685,-31.5485,7.42668,-15.8882,40.5245,-15.8741,12.8207,-5.5546
-0.491901,18.4336,3.96501,58.5394,-82.4571,-48.8535,10.7458,0.127525,-5.28156,5.23405,-0.635151,-3.31928,-0.548365,-0.471365,-0.404435,-10.4339,7.93058,-0.894397,26.0706,11.2673,-2.1681,10.0884,4.60615,0.655982,1.19271e-14,5.56597e-14,-14.0817,31.7965,-88.65,125.9,-23.1147,-36.2213,3.39523,7.12502,-9.32338,-26.3786,1.19271e-14,5.56597e-14,-3.70148,-19.221,84.0188,36.7119,5.39816,-30.2048,20.2249,7.12502,-3.51521,50.1757,-17.275,20.2171,16.5516,40.3782,-18.6215,-5.26708,-8.18822,-31.0209,7.27082,-16.1179,40.4016,-16.0059,12.8453,-5.82299
-0.538539,18.4386,4.01895,56.6718,-82.4091,-47.2934,10.7513,0.0681735,-5.26032,5.23242,-0.713173,-3.36932,-0.551635,-0.509358,-0.45969,-10.3779,7.9335,-0.811245,26.0431,11.2499,-2.15673,10.0717,4.60966,0.641546,0,-3.18055e-15,-14.0218,31.5889,-88.5283,126.366,-23.0644,-35.9562,3.47598,7.12502,-9.06758,-26.3091,0,-3.18055e-15,-3.87535,-19.4045,84.0755,37.438,5.6041,-30.3299,20.1019,7.12502,-3.636,50.0506,-17.3558,20.275,16.3784,41.3224,-17.8355,-5.03076,-8.52185,-30.4197,7.01802,-16.3172,40.2493,-16.1777,12.8108,-5.46455
-0.585138,18.4454,4.06929,54.7112,-82.3949,-45.6985,10.8053,0.0113813,-5.43028,5.24984,-0.806941,-3.32374,-0.556167,-0.559618,-0.307083,-10.4788,7.95529,-0.959017,26.1984,11.2936,-2.05689,10.1317,4.61724,0.711714,2.38542e-15,-9.54166e-15,-14.0279,31.5434,-88.2388,126.904,-23.0077,-35.5703,3.15966,7.12502,-8.69514,-26.6413,2.38542e-15,-9.54166e-15,-3.99532,-19.2867,84.272,38.0716,5.55528,-30.408,20.3319,7.12502,-3.7115,50.2793,-17.3751,20.3532,16.2156,42.2554,-17.0334,-4.90762,-9.35776,-29.7493,6.77995,-16.5374,40.103,-16.3654,12.8019,-5.22417
-0.630331,18.452,4.11553,52.6771,-82.3852,-43.9577,10.8652,-0.00419758,-5.6272,5.19175,-0.850494,-3.27081,-0.643238,-0.581305,-0.136473,-10.3953,7.93093,-1.28253,26.2511,11.2628,-1.82776,10.0982,4.59668,0.833739,-1.90833e-14,-3.65764e-14,-14.2491,31.4799,-87.916,127.56,-23.039,-35.4049,2.75484,7.12502,-8.53553,-27.0526,-1.90833e-14,-3.65764e-14,-4.18441,-19.2805,84.5684,38.6871,5.42793,-30.6319,20.7588,7.12502,-3.92766,50.7023,-17.4923,20.4404,15.9944,43.1737,-16.2361,-4.6731,-9.39707,-29.174,6.63913,-16.8035,39.9568,-16.4584,12.7479,-5.30869
-0.671913,18.4573,4.15832,51.2434,-82.2181,-42.7406,10.9078,-0.0582654,-5.56771,5.11373,-0.919477,-3.26915,-0.746539,-0.609657,-0.159007,-10.1565,7.91413,-1.34116,26.0524,11.2378,-1.83778,9.97726,4.59174,0.820701,-1.03368e-14,-5.725e-14,-14.0249,31.0553,-87.9657,128.016,-23.0807,-35.4191,2.30264,7.12502,-8.54928,-27.5043,-1.03368e-14,-5.725e-14,-4.28694,-19.2855,84.7098,39.1931,5.41459,-30.8586,20.7982,7.12502,-4.14663,50.7376,-17.7174,20.477,15.8953,44.059,-15.2596,-4.25666,-8.76597,-28.7245,6.51407,-16.8864,39.8197,-16.6692,12.5342,-4.65984
-0.713803,18.4637,4.20233,50.2748,-82.0719,-41.9197,10.8727,-0.104104,-5.44498,5.03439,-0.966796,-3.3225,-0.812108,-0.626816,-0.277054,-10.1448,7.89731,-1.25614,26.0561,11.1872,-1.79018,9.97781,4.58246,0.817357,4.77083e-15,-6.36111e-15,-13.0999,29.9952,-88.6568,128.18,-22.9949,-34.9153,1.56559,7.12502,-8.06307,-28.2606,4.77083e-15,-6.36111e-15,-4.39027,-19.4314,84.748,39.7908,5.5457,-31.2443,20.7598,7.12502,-4.51907,50.6916,-18.0425,20.568,15.7787,44.9362,-14.2399,-3.93888,-8.83195,-28.3452,6.40894,-16.971,39.6762,-16.8329,12.3576,-4.06905
-0.752729,18.4695,4.24353,48.6062,-81.9877,-40.4023,10.8545,-0.124671,-5.489,4.96614,-1.00097,-3.40686,-0.872806,-0.640916,-0.335815,-10.1434,7.8615,-1.16379,26.1337,11.0873,-1.6535,10.0009,4.55763,0.839563,-3.02153e-14,-1.74931e-14,-13.0455,29.6155,-88.7754,128.615,-22.8719,-34.5966,1.66034,7.12502,-7.75542,-28.1774,-3.02153e-14,-1.74931e-14,-4.48124,-19.7329,84.7958,40.4494,5.88706,-31.5211,20.901,7.12502,-4.78633,50.827,-18.3688,20.6952,15.5597,45.7903,-13.2772,-3.73901,-8.157,-27.9682,6.26753,-17.173,39.5336,-16.9085,12.2465,-3.92676
-0.792006,18.4742,4.27676,46.7622,-81.8367,-38.7196,10.7988,-0.15137,-5.65777,4.93609,-1.04757,-3.40334,-0.868291,-0.665323,-0.23322,-10.0374,7.79873,-1.13979,26.0848,11.0016,-1.70041,9.96729,4.51875,0.804013,1.27222e-14,-2.70347e-14,-12.902,29.3546,-88.7641,129.074,-22.7523,-34.2311,1.76457,7.12502,-7.40259,-28.0859,1.27222e-14,-2.70347e-14,-4.47889,-19.8079,84.9077,41.0659,6.15439,-31.4693,20.9786,7.12502,-4.73625,50.9056,-18.6773,20.8314,15.4078,46.6279,-12.3514,-3.47208,-7.16713,-27.5768,6.10742,-17.3212,39.3756,-16.9566,12.1368,-3.95538
-0.833736,18.4821,4.31155,45.4671,-81.6038,-37.5698,10.6934,-0.187699,-5.69076,4.94836,-1.08658,-3.38129,-0.795216,-0.686282,-0.189027,-10.0882,7.70753,-1.21113,26.0393,10.8946,-1.70346,9.95605,4.46501,0.803708,-8.74653e-15,1.43125e-14,-12.7253,29.2268,-88.6599,129.541,-22.443,-34.0035,2.19052,7.12502,-7.18291,-27.6676,-8.74653e-15,1.43125e-14,-4.31332,-19.7829,84.9875,41.6042,6.40772,-31.6688,21.3311,7.12502,-4.92892,51.2538,-18.9952,20.8207,15.3483,47.412,-11.7095,-2.94667,-6.51633,-27.1889,5.94617,-17.3849,39.2031,-16.9658,12.1121,-4.25566
-0.873655,18.4875,4.34639,43.9405,-81.394,-36.18,10.6338,-0.201211,-5.66199,4.96977,-1.09825,-3.45851,-0.742123,-0.692856,-0.284974,-10.2015,7.60377,-1.17138,25.9487,10.7379,-1.64538,9.94251,4.40897,0.803208,-1.11319e-14,9.54166e-15,-12.6299,29.0748,-88.6586,130.025,-21.9811,-33.6174,2.77054,7.12502,-6.81024,-27.0999,-1.11319e-14,9.54166e-15,-4.03454,-19.7589,85.0163,42.0395,6.81026,-32.1398,21.2388,7.12502,-5.38375,51.1505,-19.2957,20.8589,15.2331,48.1328,-11.3938,-2.26097,-5.56087,-26.8018,5.83104,-17.5138,39.016,-17.0098,12.0111,-4.40191
-0.911035,18.4903,4.37744,42.0215,-81.1741,-34.3717,10.6557,-0.192263,-5.70917,4.94034,-1.09749,-3.5582,-0.785701,-0.691242,-0.361746,-10.2535,7.51444,-1.0162,25.8867,10.5767,-1.59359,9.93472,4.36025,0.779495,5.56597e-15,-1.43125e-14,-12.6413,28.801,-88.8269,130.532,-21.4933,-33.0224,3.01336,7.12502,-6.23581,-26.8749,5.56597e-15,-1.43125e-14,-3.77522,-19.6391,85.094,42.425,7.01184,-32.2701,20.8502,7.12502,-5.50949,50.7586,-19.5971,20.9019,15.0516,48.7697,-11.3152,-1.8302,-4.73755,-26.446,5.5043,-17.6548,38.823,-17.1347,11.924,-4.12788
-0.948228,18.4958,4.40935,40.1358,-80.9602,-32.575,10.7134,-0.228387,-5.80499,4.84559,-1.16418,-3.62512,-0.912855,-0.720161,-0.368792,-10.2182,7.45964,-1.02426,25.9138,10.4625,-1.43612,9.92615,4.32474,0.820329,3.97569e-15,6.36111e-15,-12.7264,28.7991,-89.0211,131.019,-20.9366,-32.4448,3.21533,7.12502,-5.67819,-26.6886,3.97569e-15,6.36111e-15,-3.61706,-19.3763,85.2366,42.7952,6.889,-32.3419,20.6566,7.12502,-5.57881,50.5632,-19.9069,20.9158,14.8458,49.3277,-11.5397,-1.80102,-5.06691,-26.1143,5.07218,-17.8188,38.6316,-17.3092,11.9265,-3.46256
-0.985326,18.5045,4.44051,38.5806,-80.6859,-31.123,10.745,-0.314241,-5.90576,4.78564,-1.28764,-3.5702,-0.984288,-0.778982,-0.240748,-10.2584,7.39622,-1.4109,25.9446,10.3959,-1.20202,9.90717,4.28255,0.956006,-2.8625e-14,-8.11041e-14,-12.7759,29.1446,-89.0437,131.563,-20.4288,-31.9418,3.30216,7.12502,-5.19258,-26.6142,-2.8625e-14,-8.11041e-14,-3.35225,-18.8922,85.5017,43.0012,6.78315,-32.6335,20.5101,7.12502,-5.86038,50.4091,-20.197,20.8138,14.7058,49.8054,-11.7414,-1.48397,-4.87267,-25.7923,4.61698,-17.8963,38.4733,-17.5437,11.8207,-1.925
-1.02275,18.512,4.46596,37.1538,-80.3821,-29.7717,10.7397,-0.418233,-6.04964,4.73738,-1.43771,-3.55799,-1.02141,-0.852545,-0.130787,-10.1413,7.40369,-1.47955,25.7352,10.4169,-1.2162,9.80649,4.29577,0.954453,2.62396e-14,4.13472e-14,-12.7964,29.5847,-89.2786,132.054,-19.6769,-32.1761,2.91985,7.12502,-5.41875,-26.9909,2.62396e-14,4.13472e-14,-2.98785,-18.4503,85.5976,43.0451,6.82082,-32.8429,20.5277,7.12502,-6.06251,50.4209,-20.5071,20.6994,14.5957,50.1996,-11.7937,-1.0323,-4.43512,-25.541,4.21985,-17.9339,38.3841,-17.762,11.6286,-0.45795
-1.0536,18.5128,4.48586,36.0894,-80.0776,-28.717,10.7286,-0.456674,-6.18895,4.68145,-1.50215,-3.56986,-1.06713,-0.883132,-0.0579387,-10.0397,7.41189,-1.3424,25.562,10.4121,-1.27668,9.73675,4.30995,0.903512,3.97569e-15,-7.95139e-15,-12.7585,29.9129,-89.5291,132.426,-18.5631,-32.9961,2.76564,7.12502,-6.2104,-27.1233,3.97569e-15,-7.95139e-15,-2.49313,-18.1961,85.6316,42.9712,6.71653,-33.0296,20.475,7.12502,-6.24279,50.363,-20.9095,20.6856,14.543,50.5123,-11.8557,-0.855497,-5.07453,-25.4447,4.01008,-17.9545,38.3643,-17.7832,11.4442,-0.726939
-1.08034,18.5118,4.4994,35.3936,-79.6804,-28.0012,10.7384,-0.454436,-6.28612,4.63171,-1.50736,-3.5177,-1.11965,-0.883522,0.0516965,-10.1927,7.34635,-1.37645,25.6618,10.2984,-1.10674,9.78842,4.26924,0.963239,1.27222e-14,-3.02153e-14,-12.7076,30.0919,-89.6653,132.761,-17.5168,-33.359,2.75678,7.12502,-6.56081,-27.1216,1.27222e-14,-3.02153e-14,-1.86753,-18.0305,85.7422,42.8006,6.54837,-33.0588,20.057,7.12502,-6.27098,49.9442,-21.3352,20.7422,14.6229,50.7451,-11.9928,-1.02529,-6.25,-25.4377,3.82346,-17.8761,38.3815,-17.7245,11.3668,-1.69769
-1.11004,18.5141,4.51633,34.4795,-79.2733,-27.1111,10.7936,-0.479682,-6.28119,4.59546,-1.54688,-3.55325,-1.18699,-0.89997,0.0179563,-10.2266,7.26439,-1.42934,25.5926,10.1467,-0.893646,9.75324,4.2236,1.02721,1.74931e-14,3.97569e-14,-12.7499,30.2575,-89.9165,133.061,-16.7167,-33.3018,2.85643,7.12502,-6.50559,-27.0237,1.74931e-14,3.97569e-14,-1.18376,-17.82,85.8053,42.4677,6.25207,-32.8763,19.5055,7.12502,-6.09482,49.3979,-21.6688,20.734,14.646,50.9049,-12.1539,-1.32484,-8.17328,-25.3532,3.51396,-17.8409,38.4044,-17.8127,11.3475,-1.51162
-1.14087,18.5167,4.53262,33.7678,-78.904,-26.4518,10.8632,-0.533063,-6.26848,4.58815,-1.62572,-3.63192,-1.23192,-0.937531,-0.0605494,-10.2384,7.23471,-1.46677,25.3529,10.0683,-0.700493,9.65535,4.21918,1.08513,3.4191e-14,5.56597e-14,-12.7079,30.4936,-90.2642,133.232,-15.9201,-33.2479,3.08928,7.12502,-6.45349,-26.7924,3.4191e-14,5.56597e-14,-0.478127,-17.3675,85.7802,42.1124,5.91502,-32.8044,19.0124,7.12502,-6.02541,48.9067,-21.9798,20.7877,14.6662,51.011,-11.8195,-1.64077,-8.06319,-25.2074,3.25931,-17.7887,38.4095,-17.9707,11.1845,-0.832653
-1.16878,18.5169,4.54432,33.0873,-78.561,-25.7953,10.8983,-0.543605,-6.32455,4.59482,-1.65162,-3.70761,-1.24344,-0.950913,-0.10459,-10.2394,7.17482,-1.38506,25.1478,9.95501,-0.631687,9.58293,4.19356,1.07863,9.54166e-15,-7.95139e-15,-12.6327,30.6612,-90.5375,133.371,-15.0406,-33.321,3.26993,7.12502,-6.52414,-26.6096,9.54166e-15,-7.95139e-15,0.242106,-17.1537,85.6727,41.7958,5.76855,-32.8752,18.6061,7.12502,-6.09373,48.4985,-22.3451,20.8843,14.6558,51.0735,-12.0093,-2.13192,-7.41098,-25.1135,3.09068,-17.7484,38.3954,-17.9845,11.0102,-0.96993
-1.19118,18.5127,4.55423,32.2874,-78.1653,-24.9597,10.9601,-0.578806,-6.34859,4.56251,-1.71085,-3.79521,-1.31033,-0.977869,-0.173868,-10.1172,7.10299,-1.31786,24.8976,9.81773,-0.550107,9.47004,4.15903,1.06959,-7.15625e-15,-4.29375e-14,-12.6766,30.7803,-90.8682,133.485,-14.159,-33.4304,3.60344,7.12502,-6.62972,-26.2728,-7.15625e-15,-4.29375e-14,0.96283,-17.0147,85.5725,41.396,5.38254,-32.8873,18.6625,7.12502,-6.10545,48.5545,-22.8097,20.7637,14.6205,51.0804,-12.2488,-2.59126,-7.5737,-25.109,2.81538,-17.7041,38.3848,-18.0349,10.7878,-0.557559
-1.21063,18.5087,4.56489,31.2762,-77.7024,-23.884,11.0743,-0.660272,-6.4071,4.50937,-1.83768,-3.83278,-1.42208,-1.03678,-0.162566,-10.0829,6.99397,-1.47766,24.7157,9.6522,-0.361391,9.37994,4.09849,1.13505,1.11319e-14,-1.11319e-14,-12.7033,30.9611,-91.1721,133.524,-13.3609,-33.4904,3.74317,7.12502,-6.68766,-26.1312,1.11319e-14,-1.11319e-14,1.67847,-16.553,85.6647,40.9049,4.62456,-33.0044,18.8184,7.12502,-6.21845,48.7071,-23.271,20.5532,14.5503,51.0159,-12.4152,-3.06376,-8.46413,-25.1697,2.44064,-17.6994,38.3942,-18.0715,10.6078,-0.218856
-1.2331,18.5077,4.57365,30.3992,-77.2635,-23.0017,11.2007,-0.736816,-6.51439,4.52644,-1.96288,-3.87158,-1.46518,-1.09932,-0.126172,-10.1549,6.8902,-1.5715,24.5102,9.50416,-0.240057,9.30981,4.04512,1.17352,1.03368e-14,-6.36111e-15,-12.5596,31.1984,-91.4751,133.419,-12.6992,-33.5087,3.83793,7.12502,-6.70531,-26.0359,1.03368e-14,-6.36111e-15,2.45624,-16.0642,85.6752,40.4632,4.10704,-33.2728,18.5321,7.12502,-6.47761,48.413,-23.6171,20.6372,14.4901,50.857,-12.7293,-3.64808,-7.8859,-25.1735,2.17296,-17.6887,38.4364,-18.0403,10.4587,-0.188966
-1.25947,18.5067,4.57574,29.7043,-76.9572,-22.3682,11.3364,-0.774724,-6.72038,4.5868,-2.0504,-3.94279,-1.46664,-1.14713,-0.0735714,-10.2688,6.83694,-1.70474,24.2704,9.42102,-0.0532247,9.22971,4.02676,1.24788,2.38542e-14,3.81667e-14,-12.2828,31.4251,-91.7573,133.218,-11.9587,-33.567,3.90196,7.12502,-6.76156,-25.9701,2.38542e-14,3.81667e-14,3.27095,-15.776,85.4566,40.1002,4.08819,-33.278,18.1354,7.12502,-6.4826,48.0162,-23.8749,20.8763,14.4281,50.6071,-13.1551,-4.34337,-7.50814,-25.0781,2.0709,-17.6741,38.5019,-18.0538,10.3075,-0.544225
-1.28229,18.5032,4.57181,29.344,-76.6969,-22.0589,11.5315,-0.802133,-6.95323,4.60098,-2.13381,-3.97623,-1.54602,-1.18976,0.0351857,-10.361,6.81056,-1.94084,24.0522,9.38859,0.15697,9.14647,4.02404,1.35089,-3.65764e-14,-1.01778e-13,-12.0591,31.6506,-92.0271,133.01,-11.234,-33.7217,3.83778,7.12502,-6.91096,-26.0294,-3.65764e-14,-1.01778e-13,4.10845,-15.4046,85.2075,39.5443,3.92494,-32.9634,17.495,7.12502,-6.17891,47.3849,-24.1877,21.1134,14.4111,50.2805,-13.6175,-5.11852,-7.69348,-25.0179,2.07349,-17.6072,38.5846,-18.0826,10.1489,-1.21251
-1.29951,18.4977,4.57066,28.9412,-76.315,-21.7425,11.8167,-0.866307,-7.10909,4.66542,-2.2638,-3.9818,-1.62077,-1.25614,0.137837,-10.4542,6.83463,-2.12644,23.7689,9.43795,0.279554,9.04793,4.05729,1.42323,-7.15625e-15,-1.27222e-14,-11.7725,31.8278,-92.0074,132.943,-10.9559,-34.1251,3.83317,7.12502,-7.30034,-26.0209,-7.15625e-15,-1.27222e-14,5.01742,-14.9893,84.9969,38.9357,3.83045,-32.667,16.9386,7.12502,-5.89274,46.8366,-24.4486,21.3293,14.444,49.877,-14.0718,-6.10227,-7.82864,-24.9607,1.89557,-17.4834,38.6639,-18.088,10.0428,-1.84772
-1.31802,18.4976,4.5731,28.7002,-75.8215,-21.6045,12.1026,-0.941944,-7.188,4.75464,-2.39541,-3.92048,-1.66932,-1.32352,0.268109,-10.4511,6.89352,-2.31945,23.4057,9.55,0.322837,8.90764,4.11448,1.47009,-2.38542e-15,-6.99722e-14,-11.4935,31.9252,-91.641,133.058,-11.3747,-34.7677,3.76,7.12502,-7.92059,-26.0716,-2.38542e-15,-6.99722e-14,5.89615,-14.4292,85.0406,38.3349,3.61929,-32.2292,16.6061,7.12502,-5.47001,46.5155,-24.6394,21.564,14.5457,49.3983,-14.4901,-7.09007,-7.89924,-24.8993,1.61878,-17.2651,38.7716,-18.1598,9.86943,-1.8048
-1.33848,18.4994,4.57384,28.5137,-75.3655,-21.4404,12.2993,-1.00334,-7.32459,4.81698,-2.50503,-3.83382,-1.69382,-1.3801,0.452501,-10.3812,6.91271,-2.53828,22.9859,9.62361,0.294176,8.73972,4.14682,1.48854,-4.77083e-14,-3.18055e-15,-11.2268,32.3926,-91.6771,132.788,-11.641,-36.0867,3.88022,7.12502,-9.19348,-25.8994,-4.77083e-14,-3.18055e-15,6.74664,-13.7677,85.2172,37.6908,3.15107,-31.9266,16.5173,7.12502,-5.17786,46.4341,-24.8728,21.9784,14.4679,48.8427,-15.4302,-7.28385,-4.70518,-24.9255,1.44025,-17.087,38.9012,-18.1846,9.61805,-1.79562
-1.35575,18.4907,4.57033,28.2484,-74.9679,-21.1251,12.4511,-1.0513,-7.45921,4.89277,-2.5979,-3.85063,-1.68504,-1.43022,0.524367,-10.4521,6.91587,-2.67392,22.6064,9.65838,0.30524,8.61478,4.17081,1.5102,-2.78299e-14,-8.5875e-14,-10.8714,32.7665,-92.2146,132.172,-11.1295,-36.8679,3.878,7.12502,-9.94717,-25.867,-2.78299e-14,-8.5875e-14,7.62553,-13.4152,85.1167,37.1259,2.96351,-31.7761,16.4126,7.12502,-5.03251,46.3329,-25.1883,22.4408,14.2175,48.2242,-16.4934,-6.87392,0.410881,-25.0651,1.35451,-16.9827,39.0431,-18.1769,9.35732,-1.68318
-1.37227,18.4841,4.56569,28.3713,-74.5656,-21.243,12.6505,-1.07756,-7.4109,4.9898,-2.65011,-3.95002,-1.69539,-1.45891,0.404963,-10.5768,6.9902,-2.75382,22.2333,9.74885,0.475603,8.49458,4.24237,1.58282,2.62396e-14,3.18055e-15,-10.392,32.5918,-92.4822,131.664,-10.4721,-37.0369,3.78661,7.12502,-10.1102,-25.9505,2.62396e-14,3.18055e-15,8.52024,-13.4526,84.7053,36.5858,3.01764,-31.4815,16.2211,7.12502,-4.74809,46.1479,-25.5341,22.6886,14.2506,47.5442,-16.9328,-7.38609,0.636403,-25.1899,1.34811,-16.7607,39.218,-18.1884,9.18176,-1.61056
-1.38496,18.4821,4.56159,28.2789,-74.1771,-21.1665,12.9194,-1.0532,-7.40526,5.09972,-2.64891,-4.04967,-1.73076,-1.46167,0.303772,-10.6967,6.97913,-2.85741,21.8542,9.7244,0.657018,8.37206,4.25965,1.65083,-5.80451e-14,1.59028e-14,-9.87577,32.1043,-92.4612,131.242,-10.0077,-36.9367,3.5748,7.12502,-10.0136,-26.167,-5.80451e-14,1.59028e-14,9.48002,-13.5552,84.3599,35.992,3.15097,-30.9125,15.9909,7.12502,-4.19869,45.9293,-25.9359,22.6543,14.4223,46.847,-16.7239,-8.85854,-3.74679,-25.2867,1.31308,-16.6029,39.3974,-18.1725,9.07212,-2.1706
-1.39423,18.4711,4.55245,27.8453,-73.7927,-20.7074,13.161,-1.03206,-7.56906,5.25178,-2.66827,-4.14105,-1.69611,-1.48006,0.305557,-10.935,6.91415,-2.88531,21.5352,9.64991,0.695566,8.30541,4.24132,1.66254,2.38542e-15,-1.90833e-14,-9.3387,31.7955,-92.486,130.759,-9.88691,-37.4793,3.79012,7.12502,-10.537,-25.9258,2.38542e-15,-1.90833e-14,10.4876,-13.5992,84.0405,35.3863,3.2455,-30.25,15.9906,7.12502,-3.55891,45.9407,-26.3192,22.9574,14.28,46.0999,-17.0915,-9.48909,-3.8629,-25.4392,1.2895,-16.5477,39.582,-18.0483,8.91357,-3.47869
-1.40375,18.4611,4.53839,27.1593,-73.4563,-19.9771,13.4283,-1.0247,-7.91695,5.4189,-2.73269,-4.23207,-1.64628,-1.52443,0.415817,-11.0349,6.91975,-2.71608,20.9823,9.68539,0.450872,8.16003,4.27049,1.54951,-6.44062e-14,-2.54444e-14,-8.83997,31.6782,-92.5398,130.314,-10.1157,-38.3729,4.31397,7.12502,-11.3989,-25.3562,-6.44062e-14,-2.54444e-14,11.4743,-13.5219,83.7276,34.7596,3.19585,-30.0443,16.0201,7.12502,-3.36021,45.9733,-26.7362,23.2105,14.0088,45.3339,-17.4584,-9.98042,-3.78229,-25.6114,1.27508,-16.5799,39.7689,-18.0416,8.64904,-3.75699
-1.41151,18.4506,4.52549,26.5687,-73.0602,-19.3296,13.7996,-1.03701,-8.17366,5.50335,-2.82701,-4.30066,-1.74063,-1.57495,0.509017,-10.7407,6.95586,-2.39497,20.122,9.75864,-0.0431349,7.86413,4.31708,1.31164,9.54166e-15,6.36111e-15,-8.35762,31.4141,-92.5482,129.777,-10.0999,-38.8365,4.25838,7.12502,-11.846,-25.3866,9.54166e-15,6.36111e-15,12.3529,-13.6138,83.3874,34.0927,3.39707,-29.9656,16.0622,7.12502,-3.28428,46.0166,-27.1402,23.2889,13.7955,44.4923,-17.5014,-10.8277,-4.79429,-25.8422,1.15733,-16.5619,39.9892,-18.1933,8.28312,-2.5145
-1.41618,18.4383,4.51587,26.3498,-72.5584,-19.0369,14.2086,-1.08767,-8.18698,5.55251,-2.94501,-4.35565,-1.90323,-1.63006,0.488648,-10.5732,6.98996,-2.26242,19.4917,9.82251,-0.308874,7.64705,4.35806,1.18862,4.77083e-15,2.8625e-14,-7.72683,31.0079,-92.4774,129.064,-9.9113,-38.6033,3.88252,7.12502,-11.6211,-25.7752,4.77083e-15,2.8625e-14,13.1925,-13.7071,83.0857,33.3641,3.6097,-29.8139,16.1454,7.12502,-3.13778,46.102,-27.5567,23.3409,13.6922,43.5869,-17.2668,-11.722,-6.25604,-26.1402,0.984157,-16.4202,40.2305,-18.231,8.0513,-2.14248
-1.42355,18.4295,4.50666,26.4351,-72.1186,-19.0553,14.5864,-1.12726,-8.17256,5.6045,-3.03842,-4.36965,-2.0466,-1.67332,0.492051,-10.5295,7.00254,-2.48089,18.9095,9.88702,-0.381527,7.44039,4.39074,1.18859,-2.22639e-14,-2.22639e-14,-7.1199,30.756,-92.3756,128.278,-9.93605,-38.6343,4.11202,7.12502,-11.651,-25.544,-2.22639e-14,-2.22639e-14,13.9704,-13.75,82.8143,32.6015,3.64261,-29.7468,16.0667,7.12502,-3.07295,46.0243,-27.9888,23.3708,13.6461,42.615,-16.8551,-12.191,-8.00593,-26.4248,0.902864,-16.2252,40.4808,-18.2654,7.89155,-2.42312
-1.4327,18.419,4.49368,26.5363,-71.7218,-19.047,14.8626,-1.15187,-8.31281,5.70179,-3.11516,-4.31282,-2.07441,-1.71535,0.648144,-10.6428,7.03522,-2.82545,18.3803,10.0188,-0.509742,7.27612,4.43919,1.2043,3.18055e-15,-2.54444e-14,-6.49281,30.6032,-92.1499,127.526,-10.1794,-38.8666,4.27623,7.12502,-11.875,-25.367,3.18055e-15,-2.54444e-14,14.8089,-13.6535,82.6045,31.8445,3.71412,-29.5657,16.4327,7.12502,-2.89802,46.3927,-28.4732,23.4573,13.5536,41.6104,-16.5995,-12.3814,-8.59238,-26.7615,0.892297,-16.0442,40.7425,-18.3059,7.70105,-2.74056
-1.44238,18.4098,4.48122,26.223,-71.3164,-18.4787,14.9603,-1.17334,-8.53414,5.81176,-3.18318,-4.35606,-1.99375,-1.75802,0.735554,-10.697,7.02177,-2.90745,17.8536,10.062,-0.781567,7.12571,4.45111,1.12397,9.54166e-15,-1.59028e-14,-5.79797,30.3131,-91.9434,126.678,-10.3724,-39.1172,4.1993,7.12502,-12.1166,-25.4298,9.54166e-15,-1.59028e-14,15.6496,-13.5709,82.3994,31.0294,3.51424,-29.3244,16.7719,7.12502,-2.66503,46.735,-29.0784,23.6758,13.1762,40.5902,-16.5228,-12.544,-8.22811,-27.2349,0.720092,-16.0357,41.0186,-18.3713,7.52956,-2.52257
-1.45025,18.4016,4.46791,25.7661,-70.8981,-17.7441,15.1139,-1.2145,-8.7375,5.89009,-3.28653,-4.45348,-1.97801,-1.8146,0.764568,-10.7567,7.03419,-2.93986,17.3949,10.1175,-0.982232,6.99708,4.47643,1.06172,5.08889e-14,0,-5.17464,30.0787,-91.8419,125.734,-10.5895,-39.5133,4.53395,7.12502,-12.4985,-25.0723,5.08889e-14,0,16.4585,-13.327,82.2475,30.1272,3.08081,-29.126,16.8545,7.12502,-2.47336,46.8199,-29.7018,23.8703,12.6946,39.5444,-16.4127,-12.5388,-7.87265,-27.7328,0.491439,-16.0802,41.3128,-18.4187,7.33223,-2.16798
-1.45861,18.3898,4.45161,26.2958,-70.3463,-18.0187,15.2854,-1.2977,-8.62165,5.94376,-3.39358,-4.43731,-2.01116,-1.86571,0.739783,-10.7131,7.09866,-3.29957,16.7514,10.2292,-0.843476,6.75394,4.54804,1.15118,4.45278e-14,5.08889e-14,-4.58003,29.9139,-91.7227,124.785,-11.0228,-40.1404,5.00801,7.12502,-13.1031,-24.5604,4.45278e-14,5.08889e-14,17.2673,-12.9942,82.1226,29.1213,2.60101,-28.8289,17.1975,7.12502,-2.1865,47.166,-30.3749,24.0916,12.5748,38.4675,-16.3523,-12.4891,-8.0223,-28.2807,0.377356,-15.7157,41.612,-18.4035,7.11526,-2.68664
-1.46788,18.3795,4.43586,27.0688,-69.8133,-18.5399,15.4153,-1.36277,-8.46594,5.99635,-3.46299,-4.38172,-2.02625,-1.89831,0.727215,-10.6035,7.17226,-3.71579,16.1269,10.3491,-0.6542,6.50031,4.6248,1.26168,-4.6118e-14,-1.90833e-14,-4.03706,29.8554,-91.5392,123.869,-11.613,-41.1582,5.19316,7.12502,-14.084,-24.3096,-4.6118e-14,-1.90833e-14,18.0366,-12.4076,82.1311,28.0316,2.00181,-28.195,17.2621,7.12502,-1.57422,47.236,-31.0623,24.37,12.503,37.3706,-16.451,-12.3062,-8.0158,-28.8192,0.247504,-15.2509,41.8787,-18.3343,6.98301,-3.39325
-1.47965,18.3756,4.42267,27.4988,-69.4498,-18.7112,15.5358,-1.41474,-8.52185,6.0247,-3.54949,-4.36475,-2.04904,-1.94111,0.793598,-10.6355,7.25674,-3.90739,15.7441,10.4947,-0.682898,6.37308,4.69723,1.28423,3.02153e-14,2.8625e-14,-3.50777,29.8884,-91.3322,122.834,-11.9894,-41.8021,5.72023,7.12502,-14.7045,-23.7383,3.02153e-14,2.8625e-14,18.7185,-11.1556,82.4686,26.8349,0.960914,-27.4784,16.963,7.12502,-0.882163,46.941,-31.7332,24.5997,12.2507,36.2484,-16.321,-11.9045,-7.40712,-29.2577,0.0699006,-14.9831,42.0979,-18.3147,7.01214,-3.81026
-1.49232,18.371,4.40935,27.4483,-69.151,-18.3549,15.6633,-1.46948,-8.70742,6.03776,-3.66546,-4.41882,-2.08507,-1.99901,0.862189,-10.8047,7.36162,-4.00385,15.5287,10.6684,-0.737107,6.32889,4.77879,1.29713,1.43125e-14,1.27222e-14,-2.89896,29.7421,-91.1801,121.603,-12.0487,-41.6984,6.25917,7.12502,-14.6046,-23.2066,1.43125e-14,1.27222e-14,19.3882,-9.79959,82.8752,25.5442,-0.428623,-26.9972,16.6796,7.12502,-0.417341,46.659,-32.4243,24.8042,11.7593,35.1244,-15.9555,-11.5387,-6.45612,-29.7006,-0.0745049,-14.9462,42.2567,-18.2973,7.01744,-4.36545
-1.50546,18.3666,4.39605,27.7507,-68.7677,-18.3974,15.8392,-1.50461,-8.67151,6.04211,-3.7274,-4.44217,-2.17362,-2.02525,0.835602,-10.9118,7.44915,-4.04346,15.3008,10.8189,-0.882999,6.27918,4.84562,1.2683,-6.36111e-15,1.59028e-14,-2.34466,29.5247,-91.0712,120.341,-12.0712,-41.248,6.25239,7.12502,-14.1706,-23.2443,-6.36111e-15,1.59028e-14,19.956,-8.66221,83.2671,24.3228,-1.93512,-26.5561,16.8992,7.12502,0.00864661,46.879,-33.0959,25.0692,11.4506,34.0072,-15.3257,-11.2922,-5.59057,-30.1258,-0.177635,-14.7128,42.3766,-18.2685,6.87277,-4.28998
