JuanDHNZ/ProyectoFinalCD/preprocessing/sports_trials_csv/13_38.csv
root1,root2,root3,root4,root5,root6,lowerback1,lowerback2,lowerback3,upperback1,upperback2,upperback3,thorax1,thorax2,thorax3,lowerneck1,lowerneck2,lowerneck3,upperneck1,upperneck2,upperneck3,head1,head2,head3,rclavicle1,rclavicle2,rhumerus1,rhumerus2,rhumerus3,rradius1,rwrist1,rhand1,rhand2,rfingers1,rthumb1,rthumb2,lclavicle1,lclavicle2,lhumerus1,lhumerus2,lhumerus3,lradius1,lwrist1,lhand1,lhand2,lfingers1,lthumb1,lthumb2,rfemur1,rfemur2,rfemur3,rtibia1,rfoot1,rfoot2,rtoes1,lfemur1,lfemur2,lfemur3,ltibia1,lfoot1,lfoot2,ltoes1
-12.1884,18.8421,2.09714,2.2818,12.6956,-2.73266,3.44322,3.77264,-0.574196,1.31355,4.99165,-3.55291,-0.306137,2.51028,-3.50288,-8.90679,6.81591,-7.19055,26.1088,11.0367,0.712836,9.26391,4.58708,2.56743,-8.15017e-14,1.90833e-14,-29.2442,-6.23124,-83.1574,21.0285,23.9474,-31.7414,-3.55606,7.12502,-4.99903,-33.4771,-8.15017e-14,1.90833e-14,-42.7192,32.9291,58.3267,21.0539,-8.0901,-22.5604,28.5255,7.12502,3.86759,58.4701,9.71066,8.64527,24.2731,17.1889,-11.9709,-23.349,-21.5168,-19.1243,-2.55941,-13.8963,16.2968,-32.7754,39.4581,29.5695
-12.1031,18.8552,2.1752,2.21121,13.1807,-2.86886,3.43208,3.80827,-0.54817,1.2699,5.03908,-3.58658,-0.336773,2.53395,-3.55455,-9.09317,6.7899,-7.08035,26.3449,11.0036,0.782768,9.38449,4.57761,2.58976,-1.68967e-14,1.43125e-14,-29.4131,-6.18332,-83.2676,21.1625,24.1177,-31.4224,-4.36968,7.12502,-4.691,-34.2977,-1.68967e-14,1.43125e-14,-42.1807,32.3447,58.9166,21.5165,-7.53731,-22.5168,28.567,7.12502,3.90972,58.5109,9.86425,8.34354,24.1988,17.4819,-11.422,-23.09,-21.4636,-19.0558,-2.65083,-14.0481,16.7078,-32.4891,38.9345,29.7187
-12.0128,18.8688,2.25664,2.10498,13.6423,-3.075,3.32029,3.85206,-0.432011,1.28941,5.10545,-3.58067,-0.240916,2.56869,-3.60522,-9.29415,6.74147,-7.12774,26.4911,10.9598,0.859464,9.46813,4.55308,2.63525,3.69739e-14,-1.11319e-14,-29.5354,-6.05207,-83.3657,21.2524,23.987,-31.2326,-4.26399,7.12502,-4.50772,-34.196,3.69739e-14,-1.11319e-14,-41.5983,31.7843,59.5564,21.973,-6.91233,-22.519,28.6118,7.12502,3.90761,58.5557,9.97282,8.04368,24.1652,17.9013,-10.7567,-22.8195,-22.0194,-18.8777,-2.5924,-14.1882,16.9703,-31.6266,38.593,29.3498
-11.9218,18.8777,2.33488,2.02859,14.12,-3.14833,3.26519,3.89015,-0.477335,1.25326,5.1553,-3.58643,-0.247856,2.59324,-3.58477,-9.30866,6.69772,-7.14532,26.5754,10.9124,0.873325,9.50132,4.52878,2.64289,8.15017e-15,1.90833e-14,-29.7646,-5.90116,-83.4436,21.3511,23.7274,-31.14,-4.00773,7.12502,-4.4183,-33.9416,8.15017e-15,1.90833e-14,-41.0993,31.279,60.0997,22.2944,-6.44512,-22.5568,28.8243,7.12502,3.87108,58.7688,10.0731,7.78274,23.9873,18.3431,-10.1244,-22.5558,-22.6851,-18.7351,-3.29165,-14.2731,17.2929,-32.4655,38.0195,30.1358
-11.8364,18.8918,2.41202,1.94361,14.6324,-3.27696,3.28118,3.90836,-0.555455,1.167,5.17377,-3.55773,-0.353997,2.60055,-3.5178,-9.32446,6.65499,-7.17179,26.7009,10.8661,0.909036,9.54743,4.50497,2.66108,7.39479e-14,-1.11319e-14,-30.0338,-5.76068,-83.4879,21.5025,23.5648,-31.2235,-3.81707,7.12502,-4.49894,-33.7493,7.39479e-14,-1.11319e-14,-40.7265,31.2222,60.343,22.5196,-6.46348,-22.2933,28.8326,7.12502,4.12552,58.7724,10.0932,7.55934,23.9086,18.8548,-9.69624,-22.3556,-22.4979,-18.622,-3.1284,-14.5321,17.6218,-31.2122,37.9195,29.3388
-11.7541,18.9002,2.48864,1.84916,15.1403,-3.53499,3.22014,3.92191,-0.531313,1.11673,5.19275,-3.50471,-0.373417,2.60932,-3.47472,-9.42591,6.59612,-7.15221,26.8368,10.7961,0.943953,9.61693,4.47217,2.67435,5.98342e-14,-2.22639e-14,-30.1619,-5.70227,-83.5192,21.5539,23.5422,-31.4998,-3.39558,7.12502,-4.76574,-33.322,5.98342e-14,-2.22639e-14,-40.3264,31.1341,60.6207,22.8697,-6.26345,-21.7661,28.2787,7.12502,4.6346,58.208,9.98,7.29885,23.9732,19.4895,-9.0521,-22.1876,-22.6542,-18.5639,-3.08544,-14.5746,17.9622,-30.5476,37.5393,29.1506
-11.6675,18.9122,2.56356,1.84746,15.7141,-3.64539,3.10469,3.94037,-0.597521,1.04408,5.21617,-3.50994,-0.387795,2.6203,-3.43842,-9.41098,6.5389,-6.95917,26.8958,10.7108,0.857471,9.65544,4.4406,2.60924,-6.75868e-14,9.54166e-15,-30.3045,-5.87681,-83.4784,21.5628,23.8369,-31.7161,-3.42023,7.12502,-4.97463,-33.3418,-6.75868e-14,9.54166e-15,-39.8356,30.6847,61.0913,23.2194,-5.84372,-21.6242,27.4146,7.12502,4.7716,57.3409,9.76079,6.89272,23.8247,20.229,-8.40913,-21.9582,-23.0726,-18.6078,-3.302,-14.7283,18.3566,-30.1368,37.2353,29.071
-11.5755,18.9232,2.63929,1.82434,16.3111,-3.76261,3.00409,3.93037,-0.583929,0.959496,5.20342,-3.52611,-0.416558,2.61336,-3.45829,-9.38001,6.51925,-6.8676,26.9348,10.6592,0.903443,9.66685,4.43141,2.60582,-1.03368e-14,4.13472e-14,-30.4796,-5.93068,-83.485,21.6728,23.9593,-31.5214,-3.96419,7.12502,-4.78665,-33.8901,-1.03368e-14,4.13472e-14,-39.3558,29.9906,61.6979,23.6277,-5.24663,-21.7209,27.3096,7.12502,4.67831,57.2379,9.51365,6.35214,23.619,21.0856,-7.96794,-21.5702,-22.8219,-18.604,-3.45693,-14.9043,18.7119,-29.7571,36.8641,29.381
-11.4851,18.9258,2.71392,1.7195,16.8273,-3.90572,2.9205,3.9322,-0.587578,0.945409,5.20786,-3.49317,-0.387585,2.61555,-3.41657,-9.47206,6.52609,-7.04922,26.9502,10.6519,1.14882,9.66232,4.43836,2.72159,5.78463e-14,4.77083e-15,-30.5863,-5.83187,-83.5404,21.7904,23.5825,-31.5847,-4.20612,7.12502,-4.84774,-34.1307,5.78463e-14,4.77083e-15,-38.8956,29.5269,62.2116,23.9938,-5.00724,-21.5158,27.8779,7.12502,4.87629,57.8018,9.2486,5.87326,23.4291,22.0726,-7.36526,-21.0853,-22.2959,-18.5126,-3.57494,-15.0393,19.0327,-29.6449,36.3233,29.8977
-11.3997,18.9338,2.78812,1.6406,17.2922,-3.98904,2.83768,3.96336,-0.774894,0.922288,5.24556,-3.41595,-0.387224,2.63328,-3.22915,-9.61219,6.53247,-7.20895,27.0876,10.6774,1.31326,9.71696,4.44765,2.81748,-7.95139e-14,1.59028e-15,-30.7403,-5.66619,-83.5643,21.8763,23.0802,-31.986,-4.21347,7.12502,-5.2352,-34.1288,-7.95139e-14,1.59028e-15,-38.5462,29.3685,62.5432,24.313,-5.20097,-21.2466,28.8259,7.12502,5.13629,58.7436,8.8819,5.56593,23.2412,23.1864,-6.54246,-20.7582,-21.8778,-18.4061,-3.66686,-15.2191,19.2908,-29.1206,36.0348,29.4656
-11.3111,18.9356,2.86105,1.61564,17.9022,-3.95605,2.77257,3.99658,-0.933669,0.864972,5.28555,-3.45651,-0.418233,2.65272,-3.18166,-9.67822,6.48062,-7.21829,27.1974,10.593,1.44122,9.76296,4.41902,2.86269,4.67144e-14,-2.06736e-14,-30.8419,-5.76408,-83.5613,21.7799,22.6586,-32.2987,-3.85563,7.12502,-5.53713,-33.7633,4.67144e-14,-2.06736e-14,-38.0587,29.1025,62.8433,24.5142,-5.30154,-21.0044,28.6731,7.12502,5.37007,58.5851,8.48045,5.06997,22.896,24.3176,-5.6491,-20.4101,-21.608,-18.3734,-3.29406,-15.6829,19.6546,-27.6484,35.8045,28.3728
-11.2223,18.9316,2.93429,1.54559,18.5513,-3.84563,2.79073,4.04201,-1.07762,0.810195,5.33981,-3.57111,-0.484086,2.6798,-3.22539,-9.69128,6.38819,-7.23369,27.2933,10.4184,1.67301,9.79007,4.36184,2.93238,4.03533e-14,3.18055e-15,-30.9459,-6.01917,-83.5354,21.7055,22.4207,-32.1769,-3.89926,7.12502,-5.41948,-33.81,4.03533e-14,3.18055e-15,-37.4124,28.5815,63.2895,24.6675,-4.83461,-20.8675,27.7235,7.12502,5.50231,57.632,8.06866,4.45764,22.4376,25.5779,-4.76867,-20.0201,-21.645,-18.2483,-3.1696,-16.1484,19.9369,-26.5105,35.7116,28.1072
-11.135,18.9483,3.01029,1.42197,19.1102,-3.65836,2.84737,4.10889,-1.37455,0.794493,5.41797,-3.67244,-0.545619,2.71881,-3.17319,-9.64808,6.33572,-7.19762,27.3291,10.2937,1.85335,9.78905,4.33012,2.97586,4.27387e-14,4.13472e-14,-31.087,-6.48673,-83.403,21.753,22.7272,-32.0717,-4.2204,7.12502,-5.31798,-34.1337,4.27387e-14,4.13472e-14,-36.7221,28.0988,63.8192,24.8079,-4.0984,-20.8347,27.0849,7.12502,5.53397,56.9926,7.67988,4.09146,21.9588,26.925,-4.03753,-19.8387,-21.1312,-17.8583,-2.43142,-16.8386,20.2252,-24.9077,35.0816,27.1214
-11.0472,18.945,3.08007,1.33075,19.7031,-3.43015,2.86441,4.12224,-1.70335,0.803287,5.42604,-3.7443,-0.569114,2.72289,-3.06698,-9.66995,6.3253,-7.14736,27.4061,10.2669,1.91272,9.82054,4.3282,2.99034,-7.33515e-14,6.36111e-15,-31.1903,-6.89359,-83.2417,21.7748,23.1222,-31.6121,-3.77264,7.12502,-4.87423,-33.6966,-7.33515e-14,6.36111e-15,-36.0962,27.7225,64.3657,25.0193,-3.3931,-20.9919,27.3276,7.12502,5.38216,57.2392,7.22936,3.63662,21.3975,28.3706,-3.28264,-19.6766,-20.315,-17.6698,-2.19605,-17.4356,20.5056,-23.5958,34.7691,25.9659
-10.9626,18.9425,3.14559,1.19626,20.3598,-3.34465,2.92759,4.08604,-1.93622,0.810662,5.3687,-3.72542,-0.622252,2.69384,-2.92247,-9.64175,6.34041,-7.11298,27.4076,10.3003,1.85594,9.82016,4.34281,2.96783,4.13472e-14,-1.27222e-14,-31.1588,-6.96199,-83.1526,21.6785,23.0775,-30.5273,-3.16846,7.12502,-3.82671,-33.1138,4.13472e-14,-1.27222e-14,-35.5667,27.5175,64.8482,25.2512,-2.96521,-21.076,27.979,7.12502,5.301,57.8927,6.69204,3.10779,20.9948,29.8784,-2.00264,-19.3723,-19.3588,-17.4778,-1.99664,-17.8608,20.828,-22.9392,34.0874,25.7144
-10.8819,18.9387,3.20658,1.02318,20.9783,-3.34842,3.03805,4.08375,-2.11817,0.8156,5.3555,-3.65653,-0.702558,2.68672,-2.76006,-9.52696,6.34491,-7.22535,27.3202,10.3006,1.91979,9.75639,4.34695,2.99802,3.47873e-14,-7.15625e-14,-31.0896,-6.92271,-83.0589,21.5505,22.911,-30.29,-2.91293,7.12502,-3.59751,-32.8623,3.47873e-14,-7.15625e-14,-35.012,27.5474,65.2412,25.3051,-3.01025,-20.7805,27.6717,7.12502,5.58623,57.578,6.03898,2.70433,20.7133,31.5336,-0.446304,-18.9367,-17.2153,-17.182,-1.67734,-18.1807,20.9661,-22.2488,33.3014,25.3291
-10.8021,18.9354,3.26172,1.017,21.6697,-3.17207,3.12025,4.07737,-2.37244,0.791838,5.33414,-3.70045,-0.792394,2.67629,-2.67245,-9.53242,6.32062,-7.25154,27.3604,10.2687,1.96724,9.76893,4.33571,3.01776,2.14687e-14,-4.6118e-14,-31.0136,-7.02174,-82.9982,21.4372,22.8205,-30.5318,-2.75692,7.12502,-3.83101,-32.7022,2.14687e-14,-4.6118e-14,-34.3704,27.4074,65.6689,25.3447,-2.9757,-20.564,27.109,7.12502,5.79533,57.0098,5.24318,2.26621,20.2254,33.2367,0.805182,-18.6136,-15.4872,-17.0244,-1.5486,-18.6485,21.1433,-21.7667,32.5101,25.0963
-10.7236,18.9335,3.31441,1.09128,22.4811,-2.90887,3.15005,3.99465,-2.73343,0.814535,5.21206,-3.70882,-0.820347,2.61548,-2.47931,-9.69884,6.33348,-7.31332,27.4555,10.3352,1.93626,9.83136,4.35243,3.03615,2.14687e-14,-7.95139e-15,-30.8679,-7.05375,-82.8949,21.3854,23.0663,-30.5345,-2.81003,7.12502,-3.83363,-32.7553,2.14687e-14,-7.95139e-15,-33.7011,27.2154,66.2647,25.5034,-2.64583,-20.5008,27.1324,7.12502,5.85634,57.0315,4.3815,1.81268,19.664,35.0109,1.68849,-18.4986,-13.9746,-16.9155,-1.48892,-19.1925,21.2634,-21.2527,31.7375,24.5706
-10.6417,18.9309,3.36733,1.17078,23.1273,-2.59515,3.12696,3.98101,-3.10881,0.835823,5.18439,-3.72129,-0.818034,2.60178,-2.28196,-9.71595,6.33183,-7.37432,27.4649,10.3693,1.878,9.83805,4.35701,3.03098,-1.71352e-13,-1.11319e-14,-30.829,-7.08798,-82.7335,21.5473,23.8346,-29.8734,-3.89163,7.12502,-3.19516,-33.8474,-1.71352e-13,-1.11319e-14,-33.0395,26.9427,66.8694,25.6483,-2.2402,-20.454,27.411,7.12502,5.90155,57.3088,3.49147,1.52479,19.049,36.8913,2.99172,-18.2656,-12.4828,-16.7038,-1.33416,-19.8084,21.248,-20.5771,31.2118,23.5048
-10.5623,18.927,3.41907,1.1878,23.7009,-2.2608,3.20174,4.01801,-3.43977,0.856525,5.21985,-3.79101,-0.860575,2.6202,-2.17824,-9.76614,6.30416,-7.35476,27.5653,10.3638,1.81348,9.89065,4.34628,3.01303,-1.0138e-13,3.49861e-14,-30.7328,-7.11262,-82.6609,21.6133,24.2912,-29.2624,-4.43347,7.12502,-2.60512,-34.3973,-1.0138e-13,3.49861e-14,-32.3012,26.493,67.4989,25.7665,-1.79182,-20.4372,27.7593,7.12502,5.91773,57.6566,2.62154,1.4133,18.4764,38.8156,4.40151,-17.9714,-11.653,-16.4027,-1.16893,-20.4255,21.2305,-19.8523,30.7105,22.5338
-10.4866,18.9232,3.4679,1.16431,24.2719,-1.86752,3.39118,4.06591,-3.82582,0.88629,5.26028,-3.87805,-0.961236,2.64166,-2.0715,-9.86854,6.28242,-7.35649,27.772,10.3573,1.84966,9.98353,4.33982,3.03985,-3.67752e-14,1.59028e-15,-30.5096,-6.76374,-82.8095,21.4455,23.7689,-29.4147,-4.04187,7.12502,-2.75225,-34.0039,-3.67752e-14,1.59028e-15,-31.5248,26.4471,67.9481,25.695,-1.92681,-20.1747,27.8111,7.12502,6.17113,57.7012,1.7392,1.39147,17.869,40.7681,5.57816,-17.6618,-10.9724,-16.0074,-1.07288,-21.0857,21.1996,-19.2154,30.2386,21.7843
-10.4114,18.9209,3.51714,1.13007,24.8286,-1.57173,3.59494,4.09827,-4.0697,0.862949,5.27955,-3.9723,-1.11164,2.65337,-2.05338,-9.76242,6.30132,-7.29683,27.8111,10.3796,1.82797,9.98118,4.35615,3.02198,-6.12257e-14,3.18055e-15,-30.3435,-6.47822,-82.9697,21.2923,23.493,-29.294,-4.09769,7.12502,-2.63561,-34.0612,-6.12257e-14,3.18055e-15,-30.8634,26.3452,68.2714,25.6366,-2.18509,-20.0954,27.5498,7.12502,6.24774,57.4377,0.848037,1.45793,17.4082,42.6819,6.86418,-17.358,-9.81975,-15.6477,-0.903493,-21.6571,21.241,-18.5983,29.7235,21.1568
-10.3464,18.9112,3.57644,0.887074,25.3338,-1.5767,3.81908,4.13064,-4.15343,0.864029,5.30401,-3.95682,-1.24447,2.66683,-2.01134,-9.70557,6.32443,-7.34268,27.8788,10.4296,1.82967,9.99047,4.3756,3.03511,2.72335e-14,6.36111e-15,-30.1953,-6.58831,-82.9824,21.1918,23.9253,-29.0774,-4.0072,7.12502,-2.42649,-33.9731,2.72335e-14,6.36111e-15,-30.3023,26.2677,68.5519,25.64,-2.65466,-20.5424,27.755,7.12502,5.81616,57.6552,0.0750913,1.66576,17.3895,44.5453,8.37267,-16.9292,-8.49138,-15.2652,-0.895546,-21.8199,21.3446,-18.4475,29.2637,21.1909
-10.2886,18.9057,3.63955,0.539758,25.7768,-1.76279,4.00853,4.18403,-4.24524,0.917017,5.36157,-3.80492,-1.31831,2.69541,-1.82155,-9.88654,6.3597,-7.50124,28.1453,10.5529,1.85314,10.1077,4.40814,3.10164,4.05521e-14,-4.13472e-14,-29.9694,-6.65744,-82.9256,21.104,24.2957,-28.8841,-3.67921,7.12502,-2.23979,-33.6472,4.05521e-14,-4.13472e-14,-29.745,26.2682,68.9007,25.6789,-3.43548,-20.8385,28.2071,7.12502,5.53028,58.1149,-0.688235,2.06728,17.6392,46.3229,9.53777,-16.457,-7.18831,-14.8622,-0.817442,-21.7731,21.4866,-18.4233,28.8261,21.1266
-10.2202,18.8967,3.69496,0.42785,26.3858,-1.60849,4.04333,4.19599,-4.48605,1.01022,5.37106,-3.77833,-1.26593,2.69967,-1.66141,-9.98109,6.39194,-7.50253,28.2876,10.6396,1.80999,10.1777,4.43768,3.10726,5.36719e-14,4.13472e-14,-29.6764,-6.41667,-82.9914,21.0525,24.1932,-29.0529,-3.81414,7.12502,-2.40277,-33.7804,5.36719e-14,4.13472e-14,-29.0652,26.1151,69.3951,25.7883,-3.80857,-20.6608,28.4485,7.12502,5.70187,58.3518,-1.48481,2.30978,17.496,48.0494,10.2998,-15.7431,-6.50686,-14.5076,-0.713425,-22.1342,21.5577,-18.1641,28.2883,20.8112
-10.1411,18.8883,3.74082,0.503878,27.2721,-1.11014,4.08659,4.12812,-4.83096,1.09319,5.26898,-3.88174,-1.22457,2.64919,-1.57258,-9.66338,6.44215,-7.25609,28.0424,10.7044,1.49988,10.06,4.47366,2.94185,4.77083e-15,-4.45278e-14,-29.4515,-6.17652,-83.0565,21.0232,24.2198,-29.4673,-3.93643,7.12502,-2.80298,-33.8978,4.77083e-15,-4.45278e-14,-28.378,26.2974,69.8141,25.7801,-4.1228,-20.417,28.2126,7.12502,5.93724,58.1094,-2.24403,2.25261,16.9108,49.7291,10.6481,-14.739,-5.06716,-14.1804,-0.664571,-22.8908,21.6673,-17.7253,27.5329,20.1227
-10.0584,18.8818,3.77433,0.6764,28.1396,-0.724538,4.14173,4.05255,-4.96099,1.10048,5.16005,-3.96387,-1.25037,2.5962,-1.58356,-9.40371,6.47593,-7.16342,27.8478,10.7704,1.25076,9.96024,4.49954,2.8276,4.7112e-14,2.38542e-14,-29.2765,-5.99772,-83.0549,21.027,24.5369,-29.7764,-3.8893,7.12502,-3.10148,-33.8465,4.7112e-14,2.38542e-14,-27.7461,26.3081,70.3555,25.8362,-4.29425,-20.1684,27.8938,7.12502,6.17724,57.7837,-3.2301,2.17034,16.3632,51.3691,10.6242,-13.4092,-3.91907,-13.9949,-0.625025,-23.5553,21.7464,-17.3015,26.784,19.6474
-9.98306,18.8739,3.80153,0.775719,28.7497,-0.661875,4.24372,4.04109,-4.80921,1.03326,5.13964,-3.98012,-1.36188,2.58795,-1.69348,-9.49122,6.49458,-7.18332,28.0848,10.8463,1.22691,10.062,4.52122,2.84523,-5.30755e-14,6.52014e-14,-29.0601,-5.91982,-82.9984,21.0217,24.8798,-29.5887,-3.93755,7.12502,-2.92023,-33.8973,-5.30755e-14,6.52014e-14,-27.237,25.9314,70.9269,26.0499,-4.35899,-19.9621,27.7647,7.12502,6.37643,57.6487,-4.42158,2.39209,16.1787,52.96,10.2342,-11.8793,-4.41295,-13.9123,-0.511377,-23.8749,21.7796,-16.9327,26.2018,19.0418
-9.91397,18.8698,3.83918,0.747001,29.4958,-0.572019,4.35846,3.97924,-4.76705,1.05034,5.0522,-4.00576,-1.40169,2.54515,-1.7458,-9.69055,6.53336,-7.2392,28.4218,10.9246,1.38764,10.2057,4.55552,2.94198,-6.32135e-14,-1.43125e-14,-28.8043,-5.94256,-82.9982,21.1061,25.1106,-29.3526,-4.04978,7.12502,-2.69221,-34.0125,-6.32135e-14,-1.43125e-14,-26.7059,25.6119,71.3666,26.2273,-4.55845,-19.5038,27.5324,7.12502,6.81887,57.4026,-5.41544,2.64238,16.0793,54.4966,9.36518,-10.6212,-4.83798,-13.6447,-0.55474,-24.174,21.7738,-16.5801,25.6549,18.4915
-9.84746,18.8687,3.88535,0.779703,30.3879,-0.379753,4.36045,3.88204,-4.92491,1.11399,4.92085,-4.00241,-1.34961,2.47939,-1.64497,-9.86555,6.58042,-7.41973,28.669,11.0075,1.62418,10.299,4.59275,3.08011,-3.93594e-14,1.59028e-15,-28.5575,-5.75164,-83.034,21.3398,24.8836,-29.7052,-4.26094,7.12502,-3.03278,-34.2191,-3.93594e-14,1.59028e-15,-26.1376,25.2511,71.9267,26.4555,-4.46845,-19.444,27.5485,7.12502,6.87656,57.4168,-6.38583,2.93067,15.9437,55.9643,8.19137,-10.0124,-4.61357,-13.327,-0.722325,-24.5389,21.7005,-16.2644,25.0893,18.0452
-9.78411,18.8649,3.93327,1.22644,31.2611,0.189825,4.13244,3.7949,-5.51281,1.12873,4.80049,-4.03714,-1.25027,2.41931,-1.33392,-9.832,6.64019,-7.48133,28.713,11.1108,1.63624,10.2999,4.63711,3.10455,8.62725e-14,-3.33958e-14,-28.366,-5.3682,-83.0508,21.6601,24.371,-30.103,-4.6089,7.12502,-3.41697,-34.5613,8.62725e-14,-3.33958e-14,-25.5318,24.4382,72.8084,26.8047,-3.13908,-21.1765,28.6011,7.12502,5.20391,58.5172,-7.55629,3.23874,15.4399,57.3525,6.76267,-9.82245,-4.25394,-13.2017,-0.820138,-25.2481,21.5427,-15.741,24.518,17.3944
-9.72379,18.8531,3.98139,1.95473,32.1762,1.15313,3.79163,3.67317,-6.50693,1.16174,4.63455,-4.14076,-1.09058,2.33528,-0.861545,-9.84788,6.72371,-7.42476,28.7733,11.255,1.55758,10.328,4.69939,3.08676,-3.99557e-14,1.59028e-15,-28.1117,-5.28143,-82.9788,21.8854,24.3637,-29.6523,-4.53501,7.12502,-2.9817,-34.4939,-3.99557e-14,1.59028e-15,-24.9094,22.611,74.0882,27.4789,0.409372,-21.7249,29.1495,7.12502,4.67437,59.0779,-8.71593,3.38179,14.5414,58.6062,5.5595,-9.52065,-4.04333,-13.1701,-0.808125,-26.3235,21.4246,-15.0379,23.8583,16.4377
-9.66418,18.8404,4.02666,2.25297,33.1545,1.65116,3.73414,3.55869,-7.01775,1.21051,4.47446,-4.14708,-1.03968,2.25448,-0.574219,-9.87347,6.76482,-7.53676,28.8406,11.3034,1.72652,10.3356,4.73014,3.17165,5.36719e-15,1.74931e-14,-27.902,-5.20404,-82.9154,22.1061,24.3171,-28.6426,-4.32507,7.12502,-2.00652,-34.2954,5.36719e-15,1.74931e-14,-24.4703,21.7157,74.8477,27.8724,1.32396,-21.4961,28.9318,7.12502,4.89532,58.8553,-9.61423,3.58749,14.142,59.6545,4.58893,-9.36846,-4.48138,-13.0138,-0.876828,-26.9302,21.4525,-14.5329,23.1785,15.3888
-9.60462,18.8277,4.07188,2.10699,34.1712,1.47726,3.7722,3.43682,-6.85802,1.27455,4.32026,-4.02573,-0.986224,2.17539,-0.527476,-9.80639,6.7946,-7.61992,28.7888,11.3324,1.81571,10.2899,4.75209,3.21206,2.88238e-14,2.54444e-14,-27.7083,-5.0653,-82.8598,22.3728,24.2849,-28.1339,-3.95042,7.12502,-1.51519,-33.9248,2.88238e-14,2.54444e-14,-24.0311,21.0153,75.5442,28.2875,1.89322,-22.0595,29.4616,7.12502,4.35131,59.3969,-10.3432,3.9093,14.4304,60.4777,3.3939,-9.48068,-5.74691,-12.8347,-1.02779,-26.8889,21.6108,-14.245,22.4472,14.7299
-9.54535,18.816,4.11785,1.803,35.258,1.15668,3.8837,3.30817,-6.52356,1.34234,4.15662,-3.92292,-0.956401,2.09245,-0.599644,-9.69528,6.80777,-7.49944,28.7224,11.3366,1.74741,10.2558,4.76571,3.1615,2.5842e-15,1.90833e-14,-27.5592,-4.99744,-82.878,22.6672,24.0767,-28.2097,-4.01761,7.12502,-1.58842,-33.9914,2.5842e-15,1.90833e-14,-23.6181,20.469,76.0487,28.5774,2.03972,-22.0286,29.1942,7.12502,4.38111,59.1288,-10.8785,4.21099,14.8656,61.0836,2.08635,-9.78343,-6.7069,-12.6957,-1.14324,-26.7105,22.0254,-14.1191,21.6119,14.0033
-9.48552,18.8068,4.16538,1.69713,36.3414,1.13416,4.11868,3.25773,-6.34975,1.28726,4.07089,-3.96328,-1.12681,2.05479,-0.748523,-9.41224,6.75941,-7.25136,28.6596,11.2064,1.71436,10.2005,4.73877,3.0814,7.89175e-14,-7.95139e-15,-27.6256,-5.18212,-82.8867,22.9636,23.6615,-28.7016,-4.10006,7.12502,-2.0635,-34.0698,7.89175e-14,-7.95139e-15,-23.3009,16.6282,77.7514,30.2751,9.13193,-29.1225,37.278,7.12502,-2.47001,67.2434,-11.4129,4.58243,15.0274,61.5223,1.02643,-10.3242,-6.16188,-12.6489,-1.42376,-26.7977,22.6092,-14.1922,20.9077,13.4687
-9.42663,18.8006,4.2095,1.28222,37.3637,0.471464,4.40611,3.21726,-5.63433,1.147,4.01149,-3.85048,-1.39118,2.03009,-1.04494,-9.27253,6.75599,-7.01265,28.7344,11.1537,1.73872,10.2147,4.74553,3.04401,1.06747e-13,-2.06736e-14,-27.7916,-5.19138,-82.8733,23.3918,23.0003,-29.6873,-4.00108,7.12502,-3.01544,-33.9595,1.06747e-13,-2.06736e-14,-23.1973,18.3074,77.0369,29.3098,2.7401,-21.7441,29.1185,7.12502,4.65586,59.0473,-12.0411,5.221,15.8178,61.827,0.0621059,-11.1898,-5.68275,-12.6433,-1.78105,-26.3141,23.0714,-14.267,20.3203,12.996
-9.3692,18.7953,4.25586,0.841378,38.3721,-0.307198,4.49138,3.11058,-5.02124,1.04581,3.88422,-3.60629,-1.51773,1.96653,-1.13207,-9.21804,6.85331,-6.82344,28.7964,11.2903,1.65554,10.2381,4.82024,2.99947,-3.55825e-14,2.8625e-14,-27.8918,-5.09216,-82.7788,23.8984,22.572,-31.0549,-3.87499,7.12502,-4.3362,-33.8106,-3.55825e-14,2.8625e-14,-23.0429,17.9638,77.4033,29.5269,2.18054,-20.9854,28.6471,7.12502,5.38846,58.5586,-12.7251,5.91633,16.6979,62.0303,-0.771775,-11.9429,-6.72921,-12.6631,-1.908,-25.7325,23.4372,-14.251,19.5324,12.4598
-9.31236,18.7855,4.3122,1.14939,39.4668,0.188229,4.4084,3.02218,-5.53391,1.07286,3.75328,-3.61522,-1.47254,1.90252,-0.844791,-9.17109,6.84409,-6.85166,28.7924,11.2609,1.74675,10.22,4.81925,3.03002,2.92213e-14,4.29375e-14,-27.8881,-4.8914,-82.7556,24.264,22.4847,-31.6372,-4.10978,7.12502,-4.89845,-34.0332,2.92213e-14,4.29375e-14,-22.7796,17.2838,77.8898,29.841,2.15235,-20.7227,28.3349,7.12502,5.64212,58.2398,-13.333,6.35155,16.3577,62.2075,-1.7006,-12.4558,-7.71334,-12.6149,-2.11701,-26.2417,23.757,-14.1757,18.8208,11.6824
-9.25131,18.7749,4.3694,1.36118,40.723,0.694064,4.48656,2.92555,-5.91452,1.10994,3.60506,-3.67332,-1.49285,1.83083,-0.688923,-9.14322,6.73879,-6.98755,28.893,11.0781,2.01611,10.2314,4.75398,3.13013,-4.1546e-14,3.18055e-15,-27.9881,-4.34888,-82.8929,24.5545,22.3035,-31.6578,-4.51598,7.12502,-4.91829,-34.4389,-4.1546e-14,3.18055e-15,-22.5985,16.1312,78.4529,30.3052,2.52462,-20.5628,28.0651,7.12502,5.79648,57.9659,-13.695,6.60018,15.9848,62.238,-2.76263,-13.0079,-7.657,-12.335,-2.50074,-26.757,24.064,-14.2555,18.0385,11.5443
-9.18618,18.7609,4.41568,0.96061,42.016,0.479395,4.79461,2.80334,-5.57618,1.14449,3.43539,-3.61384,-1.60813,1.74717,-0.818631,-9.07652,6.64439,-7.0776,28.9895,10.9143,2.2307,10.2407,4.69671,3.20425,1.31198e-14,-1.74931e-14,-28.1442,-3.72518,-83.0367,24.961,21.7419,-31.6982,-4.63492,7.12502,-4.95733,-34.5569,1.31198e-14,-1.74931e-14,-22.4551,15.0702,78.9781,30.7162,2.81405,-20.688,28.203,7.12502,5.67558,58.107,-13.8588,6.93413,16.225,62.1305,-3.89354,-13.6871,-6.47179,-11.921,-2.77594,-26.6714,24.2538,-14.1945,17.1806,11.5542
-9.11861,18.7506,4.45905,0.455195,43.1983,0.0892697,5.08465,2.67869,-5.17004,1.14727,3.26777,-3.45101,-1.75016,1.66386,-0.878803,-8.92317,6.60487,-7.19376,29.0467,10.8604,2.31824,10.2224,4.6756,3.24292,-2.08724e-15,-1.11319e-14,-28.2904,-3.46599,-82.9416,25.3391,21.5174,-31.8751,-4.20177,7.12502,-5.12816,-34.1197,-2.08724e-15,-1.11319e-14,-22.4325,14.3114,79.4765,31.1419,2.95046,-20.7181,28.706,7.12502,5.64654,58.6108,-13.9988,7.39379,16.5885,61.8888,-5.03383,-14.4777,-5.83551,-11.5309,-2.76934,-26.4808,24.5943,-14.2479,16.1912,10.8737
-9.05286,18.7357,4.50753,0.208819,44.3312,-0.0239136,5.30103,2.59368,-4.98419,1.10333,3.14612,-3.39865,-1.90676,1.60515,-0.931433,-8.6027,6.56061,-7.23422,28.986,10.7506,2.43903,10.1324,4.64782,3.2611,-3.57812e-14,4.29375e-14,-28.4978,-3.70223,-82.8206,25.7291,21.554,-32.1021,-4.05854,7.12502,-5.34735,-33.9711,-3.57812e-14,4.29375e-14,-22.441,13.453,79.8737,31.57,3.00612,-20.3074,28.6555,7.12502,6.04307,58.5493,-14.2179,7.75925,16.7246,61.6041,-5.91992,-15.3215,-6.82895,-11.2547,-2.88738,-26.4998,24.9589,-14.2732,15.4035,9.61416
-8.98948,18.7272,4.55956,0.184679,45.4894,-0.0258047,5.38572,2.50002,-4.9154,0.998396,3.01323,-3.39773,-2.05628,1.54175,-0.966289,-8.22539,6.49896,-7.15876,28.8938,10.6081,2.48675,10.0337,4.60986,3.22885,-4.28381e-14,-2.06736e-14,-28.7252,-3.7961,-82.7792,26.237,20.8723,-31.8043,-4.17689,7.12502,-5.05975,-34.0965,-4.28381e-14,-2.06736e-14,-22.2533,12.9469,80.2398,31.7194,2.81693,-20.0027,28.3052,7.12502,6.33722,58.1904,-14.623,8.12199,16.7408,61.2653,-6.79804,-16.2037,-7.19622,-11.0868,-3.12542,-26.5541,25.2763,-14.5025,14.5237,9.51319
-8.92333,18.7194,4.60976,0.197907,46.7166,0.0962185,5.45162,2.395,-4.8857,0.950885,2.86811,-3.4433,-2.13546,1.4714,-1.02336,-7.95185,6.42354,-7.13083,28.8599,10.4278,2.67971,9.96479,4.56205,3.2589,1.36167e-14,-1.27222e-14,-28.9013,-3.79942,-82.7752,26.6541,20.3153,-31.3603,-4.18433,7.12502,-4.63101,-34.1137,1.36167e-14,-1.27222e-14,-21.9566,12.4587,80.6012,31.7665,2.63279,-19.9746,28.1895,7.12502,6.36434,58.0739,-14.9448,8.5624,16.6004,60.8206,-8.01726,-17.0362,-5.28348,-10.8839,-3.40319,-26.7191,25.475,-14.4599,13.7761,8.92066
-8.86145,18.6996,4.66048,0.238189,47.9316,0.347803,5.55852,2.30332,-4.9903,0.968917,2.73437,-3.46623,-2.17761,1.40672,-0.983148,-7.77363,6.33998,-7.14527,28.8292,10.267,2.81697,9.91698,4.51022,3.28394,-5.57591e-14,-6.36111e-15,-28.9917,-3.75397,-82.754,26.9089,20.218,-31.743,-4.31322,7.12502,-5.00058,-34.2342,-5.57591e-14,-6.36111e-15,-21.9018,11.5164,80.9526,32.1417,2.79295,-20.0122,28.0965,7.12502,6.32802,57.982,-15.1794,9.07215,16.3902,60.3069,-9.18219,-18.0484,-3.82289,-10.5469,-3.45551,-26.9813,25.6474,-14.3933,12.8407,8.36807
-8.7988,18.6833,4.71081,0.313738,49.1072,0.601497,5.60891,2.27236,-5.14044,0.993967,2.68399,-3.39578,-2.18893,1.38296,-0.824884,-7.61392,6.21521,-7.32894,28.8773,10.0894,2.95523,9.89505,4.43164,3.34039,-7.12643e-14,1.27222e-14,-29.0865,-3.81102,-82.4722,27.2348,19.7627,-32.0704,-4.0783,7.12502,-5.31669,-33.9916,-7.12643e-14,1.27222e-14,-21.9915,10.4289,81.4645,32.6906,3.09946,-20.7659,28.0611,7.12502,5.60033,57.9671,-15.4044,9.56915,16.1648,59.6856,-10.3241,-19.2406,-3.56879,-10.2035,-3.45588,-27.2166,25.7788,-14.2963,11.934,7.4633
-8.73404,18.6718,4.76157,0.339322,50.2664,0.672702,5.46855,2.27881,-5.28467,1.03761,2.70056,-3.19303,-2.08205,1.38972,-0.529658,-7.41483,6.07081,-7.72648,28.8621,9.90387,3.12897,9.83104,4.33475,3.43794,-8.14023e-14,0,-29.1698,-3.87845,-82.0185,27.5436,19.2833,-31.8747,-3.47929,7.12502,-5.12775,-33.3972,-8.14023e-14,0,-22.0408,9.32716,82.2406,33.2719,3.82966,-22.2446,28.4775,7.12502,4.17256,58.4164,-15.6851,10.136,16.0659,58.9865,-11.6279,-20.3882,-2.48259,-9.91628,-3.79588,-27.3069,25.8656,-14.4023,11.263,7.40863
-8.66896,18.6576,4.81449,0.43741,51.4239,0.821955,5.32144,2.24702,-5.45182,1.08501,2.66555,-3.08079,-1.96248,1.37084,-0.310952,-7.23938,5.94131,-7.89767,28.7555,9.71707,3.20195,9.75692,4.24974,3.46174,7.56376e-14,-2.70347e-14,-29.2325,-3.98127,-81.7537,27.7373,19.2612,-31.8219,-3.48894,7.12502,-5.07677,-33.4081,7.56376e-14,-2.70347e-14,-22.0434,8.53284,82.7837,33.7813,4.3412,-22.6204,28.9139,7.12502,3.80963,58.8596,-15.9634,10.6794,15.8962,58.2278,-12.5336,-21.1621,-1.53457,-9.65076,-4.25912,-27.4371,25.9704,-14.6896,10.6411,8.5784
-8.60333,18.6448,4.87075,0.4783,52.6314,0.981291,5.30994,2.19926,-5.55268,1.1101,2.60066,-3.01046,-1.93539,1.33855,-0.176601,-7.24917,5.85045,-7.83716,28.8451,9.62118,3.12365,9.80633,4.20456,3.42358,-2.50469e-14,1.43125e-14,-29.3441,-4.27146,-81.5218,27.8043,19.5239,-32.246,-3.81524,7.12502,-5.48625,-33.7242,-2.50469e-14,1.43125e-14,-22.0678,8.06903,83.0837,34.1122,3.93527,-22.7562,28.4195,7.12502,3.67851,58.3675,-16.1227,11.1744,15.7529,57.4195,-13.345,-21.9687,-1.00504,-9.32587,-4.41513,-27.549,26.0653,-14.7664,9.79497,8.56005
-8.53716,18.6389,4.92147,0.472715,53.8383,1.07656,5.37468,2.19277,-5.50779,1.1281,2.59186,-2.93846,-1.954,1.3342,-0.128854,-7.5057,5.81147,-7.76133,29.1194,9.60492,3.15223,9.9588,4.2014,3.44734,3.86636e-14,2.70347e-14,-29.453,-4.49595,-81.2797,27.8274,19.7626,-32.8483,-4.19865,7.12502,-6.06771,-34.0918,3.86636e-14,2.70347e-14,-21.9189,7.65674,83.5093,34.2122,3.29918,-22.8289,27.699,7.12502,3.60831,57.6482,-16.2593,11.7169,15.6307,56.551,-14.4272,-22.7998,-0.558481,-8.97761,-4.47365,-27.5775,26.1397,-14.7653,8.70735,8.45466
-8.47339,18.629,4.97085,0.59417,54.9765,1.25173,5.37674,2.21634,-5.50295,1.15719,2.62646,-2.9027,-1.92785,1.35094,-0.0966042,-7.75133,5.7508,-7.73626,29.3151,9.54192,3.23475,10.0774,4.17987,3.48942,5.86415e-14,1.59028e-14,-29.5081,-4.63457,-81.0948,27.8728,19.8239,-32.7329,-4.2052,7.12502,-5.95631,-34.1015,5.86415e-14,1.59028e-14,-21.5635,7.4104,84.0021,34.15,2.82221,-22.6791,27.1717,7.12502,3.75301,57.1184,-16.4851,12.3337,15.4027,55.5899,-15.3966,-23.4015,0.16905,-8.72502,-4.6634,-27.6652,26.2092,-14.6959,7.8692,7.81486
-8.40584,18.6193,5.02275,0.67644,56.1019,1.35794,5.26887,2.1996,-5.52792,1.20532,2.61588,-2.80578,-1.82298,1.34329,0.0237106,-7.9447,5.69045,-7.9344,29.4857,9.48885,3.40383,10.1604,4.1514,3.59449,-6.61953e-14,2.38542e-15,-29.5445,-4.53399,-80.9055,27.9207,19.6838,-32.4703,-3.94112,7.12502,-5.70282,-33.8444,-6.61953e-14,2.38542e-15,-21.3427,7.28526,84.4186,34.1769,2.45217,-22.862,27.0066,7.12502,3.57636,56.9563,-16.6904,12.9482,15.1734,54.5222,-16.5544,-23.7619,1.79095,-8.46658,-5.1696,-27.7298,26.3188,-14.7827,7.33305,7.30283
-8.33456,18.6066,5.07324,0.829969,57.2211,1.52176,5.15952,2.20458,-5.4964,1.21596,2.63454,-2.76727,-1.75209,1.35118,0.0494318,-8.00377,5.62734,-7.96354,29.633,9.41152,3.4954,10.224,4.12376,3.63591,-1.73937e-14,-5.56597e-15,-29.6645,-4.60484,-80.696,28.003,19.2405,-32.0967,-3.95519,7.12502,-5.34209,-33.8679,-1.73937e-14,-5.56597e-15,-21.2716,6.89959,84.7541,34.2583,2.35437,-22.9254,26.9178,7.12502,3.51513,56.8685,-16.8712,13.5086,14.9032,53.3929,-17.9509,-24.074,2.63264,-8.20163,-5.83744,-27.8318,26.398,-14.9102,6.91361,6.77172
-8.26977,18.5923,5.1236,0.988574,58.4046,1.78638,5.28815,2.21655,-5.46748,1.19524,2.64159,-2.82307,-1.84171,1.35727,-0.0305661,-7.97517,5.54121,-7.78995,29.73,9.26197,3.55002,10.2681,4.08269,3.61844,-2.79292e-14,3.18055e-15,-29.8114,-4.84337,-80.6025,28.0082,18.8364,-31.5533,-4.23849,7.12502,-4.81745,-34.1637,-2.79292e-14,3.18055e-15,-21.317,6.27004,84.9572,34.4434,2.51932,-22.8942,26.6209,7.12502,3.54524,56.5712,-16.928,13.9281,14.6579,52.2528,-16.142,-24.6171,-3.49755,-7.85164,-6.30022,-27.9341,26.3969,-14.8849,6.17271,6.17745
-8.20887,18.5844,5.17622,1.14813,59.6049,2.01124,5.44384,2.20936,-5.49841,1.13828,2.61548,-2.84651,-1.98676,1.34824,-0.043827,-8.01475,5.42553,-7.60651,29.8728,9.10418,3.51301,10.3504,4.02592,3.57248,7.02704e-14,-3.18055e-15,-29.9759,-5.05333,-80.5186,27.879,18.9483,-31.5142,-4.23571,7.12502,-4.77968,-34.1618,7.02704e-14,-3.18055e-15,-21.3731,6.05252,85.0938,34.5621,2.30308,-22.8583,26.3334,7.12502,3.57997,56.2831,-17.1013,14.5124,14.3868,51.1737,-15.4632,-24.8378,-6.38526,-7.44866,-6.39039,-27.9787,26.3113,-14.7781,5.24846,5.23192
-8.14784,18.5892,5.2312,1.8043,60.8652,2.66253,5.4125,2.17257,-5.8195,1.09737,2.5501,-2.86183,-2.02173,1.31937,0.123291,-8.28536,5.3201,-7.34561,30.2478,9.02399,3.34678,10.5734,3.9885,3.49868,6.06293e-14,1.66979e-14,-30.1059,-5.33483,-80.3239,27.7195,19.3594,-31.4132,-4.00966,7.12502,-4.68216,-33.9379,6.06293e-14,1.66979e-14,-21.3057,6.13348,85.2681,34.5224,1.90999,-22.7816,26.1977,7.12502,3.65396,56.1461,-17.4558,15.2009,13.7514,50.1128,-16.3802,-24.4533,-4.61484,-7.21252,-6.79893,-28.212,26.1661,-14.6915,4.49723,5.02023
-8.09039,18.5911,5.28565,2.38724,62.1663,3.19614,5.35488,2.10115,-6.09318,1.08123,2.44543,-2.81013,-2.01472,1.26928,0.33795,-8.60158,5.26007,-7.13479,30.6063,9.03415,3.1328,10.7969,3.98105,3.42523,-8.74653e-15,3.89618e-14,-30.1472,-5.46079,-80.1324,27.5365,19.5156,-31.2229,-3.57881,7.12502,-4.4984,-33.511,-8.74653e-15,3.89618e-14,-21.2088,6.26323,85.5022,34.4327,1.97397,-23.1763,26.1828,7.12502,3.27285,56.1374,-17.8015,15.7332,13.2272,49.0717,-17.1374,-23.9483,-2.63098,-6.96275,-7.11091,-28.3181,25.9323,-14.5554,3.5742,4.52478
-8.02645,18.5951,5.33807,2.51358,63.361,3.22964,5.23659,2.10472,-6.03938,1.06162,2.46286,-2.73361,-1.97097,1.27678,0.389893,-8.55688,5.1372,-7.07624,30.6723,8.89788,3.02898,10.8319,3.91789,3.36861,-1.72943e-14,1.59028e-15,-30.2568,-5.47559,-79.9925,27.3713,19.3905,-31.2132,-3.32365,7.12502,-4.48901,-33.2561,-1.72943e-14,1.59028e-15,-21.2016,6.2079,85.7374,34.4247,2.36383,-23.8516,26.1083,7.12502,2.62067,56.072,-18.0747,16.2922,13.0068,47.9824,-16.3318,-23.7709,-4.38368,-6.71394,-7.52692,-28.1843,25.701,-14.3844,2.83411,4.74089
-7.95652,18.5943,5.38456,2.8252,64.5291,3.43729,5.05172,2.19953,-5.88398,1.0262,2.61109,-2.82256,-1.90101,1.34944,0.207868,-8.09852,4.97644,-6.84327,30.4055,8.57696,3.04212,10.6666,3.81912,3.27083,3.63776e-14,6.36111e-15,-30.4724,-5.73164,-79.9513,27.2031,19.1475,-31.166,-3.27673,7.12502,-4.44346,-33.2101,3.63776e-14,6.36111e-15,-21.2414,5.7806,85.8737,34.46,2.81537,-24.4263,25.7229,7.12502,2.0656,55.6926,-18.4107,16.7957,12.6209,46.8805,-16.4959,-23.3506,-4.58494,-6.49693,-8.04453,-28.2089,25.4972,-14.1203,2.3623,4.36913
-7.89049,18.5972,5.42453,3.44158,65.737,3.96777,5.0134,2.27265,-5.70082,0.948583,2.7169,-3.01963,-1.94695,1.4044,-0.104659,-7.75895,4.84371,-6.5294,30.2562,8.29602,3.08499,10.5686,3.74501,3.18627,7.55382e-15,-2.8625e-14,-30.6904,-6.10725,-79.9435,26.9835,19.0952,-31.1325,-3.42059,7.12502,-4.41104,-33.3547,7.55382e-15,-2.8625e-14,-21.3171,5.40023,85.8898,34.4156,3.13138,-25.0449,25.3193,7.12502,1.46816,55.294,-18.7565,17.256,12.041,45.7424,-16.4596,-22.6949,-4.96972,-6.25628,-8.65618,-28.3528,25.3543,-14.1859,1.74829,4.79574
-7.82803,18.5986,5.47194,3.72996,66.8762,4.24249,5.05676,2.24224,-5.65621,0.938887,2.67548,-2.97129,-1.97986,1.3843,-0.0786862,-7.84702,4.79829,-6.74146,30.3981,8.26516,3.22583,10.6244,3.72604,3.27997,2.09718e-14,-1.19271e-14,-30.6727,-5.93558,-79.8471,26.6946,19.1275,-30.9833,-3.45383,7.12502,-4.26697,-33.3908,2.09718e-14,-1.19271e-14,-21.4031,5.6819,85.9291,34.3625,3.0577,-25.3824,25.495,7.12502,1.14226,55.4716,-18.9766,17.8291,11.6664,44.5927,-16.3557,-22.1746,-5.18487,-5.95149,-9.06998,-28.3302,25.2298,-14.4224,1.14469,4.72162
-7.76661,18.601,5.51063,3.92528,68.043,4.44712,5.23211,2.12782,-5.57572,0.92112,2.51301,-2.81848,-2.0932,1.30454,0.0384193,-7.93199,4.83075,-7.20264,30.5034,8.37754,3.4065,10.6451,3.7509,3.44052,-9.93923e-15,-1.59028e-14,-30.5675,-5.43345,-79.7129,26.3207,19.1324,-31.0873,-3.38303,7.12502,-4.36748,-33.318,-9.93923e-15,-1.59028e-14,-21.502,6.27156,85.9768,34.2772,3.09334,-25.1802,25.4546,7.12502,1.33755,55.4302,-19.1764,18.1465,11.2898,43.4067,-16.2031,-21.4377,-4.91393,-5.61388,-9.7659,-28.2862,25.1591,-14.5424,0.632776,6.03671
-7.70522,18.6033,5.53761,3.95407,69.3074,4.46495,5.52378,1.96324,-5.22493,0.870415,2.28852,-2.69325,-2.291,1.19359,-0.0223222,-7.82518,4.89355,-7.59043,30.4255,8.51628,3.49102,10.5654,3.79172,3.53913,1.85864e-14,9.54166e-15,-30.583,-5.1496,-79.5778,26.0167,19.3267,-31.0889,-3.0901,7.12502,-4.36895,-33.025,1.85864e-14,9.54166e-15,-21.6298,6.9899,85.9675,34.1563,3.17068,-24.5773,24.9356,7.12502,1.91985,54.9067,-19.3554,18.2914,10.9565,42.2027,-16.0446,-20.6035,-4.92568,-5.4854,-10.2569,-28.1943,25.0411,-14.2955,0.0731526,5.81907
-7.64185,18.6103,5.58397,3.98946,70.5246,4.49008,5.63249,1.76087,-5.16111,0.891615,2.01783,-2.48522,-2.32468,1.05802,0.174966,-7.87757,5.0716,-7.90691,30.3098,8.82127,3.53287,10.4969,3.90877,3.6304,-9.29318e-15,-2.38542e-14,-30.4426,-4.90893,-79.4502,25.6363,19.7344,-30.5589,-2.38214,7.12502,-3.85721,-32.327,-9.29318e-15,-2.38542e-14,-21.7538,7.96085,85.9133,34.0654,3.1748,-24.4016,24.5127,7.12502,2.08949,54.4822,-19.4406,18.7615,10.7412,41.0011,-15.949,-20.2316,-4.48254,-5.08539,-10.6575,-28.0035,24.8645,-14.2966,-0.770054,6.40995
-7.57638,18.6184,5.64559,4.41545,71.6643,4.89785,5.58436,1.78787,-5.27641,0.923276,2.05385,-2.41675,-2.27296,1.07578,0.309016,-7.90733,5.1558,-7.8922,30.1925,8.88441,3.7288,10.4406,3.97035,3.69809,3.61291e-14,2.06736e-14,-30.4659,-4.92282,-79.3505,25.317,19.7689,-29.9954,-2.10694,7.12502,-3.313,-32.0609,3.61291e-14,2.06736e-14,-21.8162,8.15369,85.8854,33.9022,3.2615,-24.6456,24.5654,7.12502,1.85389,54.5371,-19.5328,19.4227,10.4666,39.8155,-15.8314,-20.1023,-3.78285,-4.66618,-11.1197,-27.9112,24.6071,-14.2462,-1.49699,6.84776
-7.50928,18.6265,5.70596,4.7091,72.7785,5.18841,5.56279,2.1021,-5.06116,0.942358,2.48734,-2.61753,-2.24258,1.2906,-0.050614,-7.81513,4.89308,-7.40769,30.1596,8.36378,3.94393,10.4488,3.81777,3.64269,-1.03368e-14,8.74653e-15,-30.8074,-6.01572,-79.2351,25.0947,19.9019,-29.9839,-2.32594,7.12502,-3.30192,-32.2801,-1.03368e-14,8.74653e-15,-21.6797,7.33136,85.8416,33.5591,3.51381,-24.8382,24.8274,7.12502,1.66782,54.8006,-19.6,20.1025,10.2187,38.6287,-15.8722,-19.8804,-4.89934,-4.21864,-11.6006,-27.7835,24.3195,-14.158,-2.13513,7.2547
-7.44407,18.6335,5.76754,4.48316,73.8988,4.9232,5.58936,2.31513,-4.73146,0.934005,2.78791,-2.70651,-2.25733,1.4387,-0.350418,-7.66109,4.66479,-7.06292,30.081,7.96473,3.97677,10.426,3.686,3.5516,-4.25399e-14,1.59028e-14,-31.1263,-6.83138,-79.1507,24.9326,20.1034,-30.0523,-2.76092,7.12502,-3.36797,-32.7141,-4.25399e-14,1.59028e-14,-21.7039,6.90186,85.7528,33.366,3.80014,-24.7798,25.007,7.12502,1.72424,54.9797,-19.6698,20.7781,10.1038,37.4407,-16.2072,-19.5106,-5.71287,-3.78329,-11.9105,-27.4509,24.0068,-14.1058,-2.84947,7.2406
-7.38727,18.6439,5.83338,4.29512,75.1041,4.69331,5.65846,2.33075,-4.72688,0.969099,2.80761,-2.54636,-2.26812,1.44784,-0.191728,-7.65302,4.62671,-7.13356,30.0078,7.93367,3.96802,10.397,3.67011,3.55441,9.93923e-17,1.03368e-14,-31.1784,-7.02962,-78.98,24.7703,20.236,-29.7226,-2.78954,7.12502,-3.04953,-32.7475,9.93923e-17,1.03368e-14,-21.9958,6.99791,85.7185,33.473,4.08864,-24.7492,25.0701,7.12502,1.75376,55.0426,-19.7258,21.351,10.0014,36.2413,-16.6653,-19.1255,-4.41686,-3.49968,-12.1246,-27.076,23.7617,-13.9755,-3.66034,7.00698
-7.33202,18.6541,5.90178,4.29031,76.3122,4.68429,5.77126,2.29414,-4.90424,1.00621,2.74456,-2.37793,-2.30717,1.41776,0.0812116,-7.61264,4.61319,-7.06766,29.9614,7.94165,3.85563,10.3811,3.67422,3.5017,2.79292e-14,-3.4191e-14,-31.1035,-7.17568,-78.8559,24.5202,20.4984,-29.1194,-2.13335,7.12502,-2.46707,-32.0988,2.79292e-14,-3.4191e-14,-22.1951,7.45854,85.5126,33.3153,4.05189,-24.5747,24.9271,7.12502,1.92234,54.8982,-19.7504,21.8181,9.89078,35.0597,-16.7869,-18.9221,-3.51357,-3.21467,-12.2924,-26.7298,23.5923,-13.9733,-4.59549,7.54924
-7.27121,18.6634,5.95458,4.38177,77.4567,4.61495,5.7143,2.26492,-4.80268,1.00862,2.71657,-2.30104,-2.27089,1.4022,0.108907,-7.51332,4.59377,-6.83264,29.8103,7.93845,3.5933,10.3309,3.67603,3.3597,9.93923e-17,4.77083e-15,-31.0233,-7.18612,-78.8544,24.2803,20.6896,-28.7759,-1.83786,7.12502,-2.13532,-31.8069,9.93923e-17,4.77083e-15,-21.9863,8.05926,85.2081,32.6593,3.82337,-24.438,24.9556,7.12502,2.05437,54.9254,-19.9655,22.0992,9.66287,33.9073,-16.6241,-18.5989,-3.983,-3.11901,-12.609,-26.4146,23.4398,-13.9843,-5.39191,8.9132
-7.21288,18.6698,5.99341,5.02475,78.6247,5.02273,5.61894,2.2344,-4.57504,1.00959,2.69609,-2.27426,-2.20684,1.38925,0.0159701,-7.48687,4.60266,-6.94401,29.6039,7.94969,3.63403,10.2411,3.68232,3.38274,-1.12313e-14,2.3059e-14,-30.9315,-7.41029,-78.7211,24.0632,21.011,-28.323,-1.77744,7.12502,-1.69786,-31.7504,-1.12313e-14,2.3059e-14,-21.7473,8.786,84.9761,31.9848,3.34424,-24.7647,25.1856,7.12502,1.73881,55.1582,-20.3378,22.205,9.20234,32.7984,-16.4856,-18.1954,-4.7023,-3.14037,-13.1661,-26.2619,23.281,-13.9302,-5.91833,8.24221
-7.15255,18.6754,6.04473,5.71616,79.9472,5.58697,5.61636,2.18018,-4.49936,1.02706,2.63042,-2.21208,-2.18463,1.35552,0.0437633,-7.40583,4.65949,-6.67572,29.4194,8.04234,3.39069,10.1768,3.73462,3.25041,1.63997e-14,-6.36111e-15,-30.8932,-7.70942,-78.4921,23.8411,21.3273,-27.597,-1.16764,7.12502,-0.996722,-31.1451,1.63997e-14,-6.36111e-15,-21.7196,9.35573,84.7341,31.4678,3.07819,-26.029,25.6295,7.12502,0.517713,55.6086,-20.5302,22.4435,8.81265,31.7654,-16.6872,-18.0358,-4.9111,-2.99861,-13.7872,-26.08,23.107,-13.8036,-6.49153,6.46511
-7.09144,18.6799,6.10401,5.81663,81.2536,5.59428,5.66998,2.15458,-4.30451,1.04842,2.60632,-2.15187,-2.18598,1.34193,-0.00224229,-7.10506,4.72873,-5.88795,28.9512,8.19378,2.53133,10.0211,3.80571,2.8031,-1.07344e-14,2.46493e-14,-30.9137,-7.77022,-78.3843,23.7184,21.3005,-26.9976,-0.735566,7.12502,-0.417723,-30.7149,-1.07344e-14,2.46493e-14,-21.7004,9.71713,84.4434,30.9743,3.03732,-26.6087,25.8239,7.12502,-0.0421472,55.8036,-20.6973,22.867,8.59874,30.8582,-16.7685,-17.8524,-5.35733,-2.76848,-14.337,-25.7537,22.8574,-13.6623,-7.07888,5.77053
-7.0332,18.6903,6.15892,6.84939,82.4315,6.4746,5.71921,2.19123,-4.13551,1.0415,2.6621,-2.19946,-2.21259,1.3694,-0.151788,-7.09861,4.65053,-5.63699,28.8312,8.07827,2.38963,9.99917,3.76864,2.69773,-1.73937e-14,-1.43125e-14,-30.9998,-8.00868,-78.3585,23.6887,21.2654,-26.8438,-0.76297,7.12502,-0.269178,-30.7425,-1.73937e-14,-1.43125e-14,-21.6588,10.0072,84.0691,30.4843,3.01696,-25.0232,25.1013,7.12502,1.48916,55.0758,-20.8432,23.2526,8.19318,29.7288,-16.8046,-17.4025,-5.33952,-2.77364,-14.9483,-25.5586,22.8201,-13.4166,-7.51684,6.66577
-6.97047,18.7152,6.21393,7.48786,83.6391,6.96246,5.70981,2.19167,-3.95176,1.06455,2.67582,-2.19939,-2.17567,1.37458,-0.253853,-7.32601,4.49246,-6.0197,29.0042,7.79493,2.97917,10.0704,3.66284,2.95659,3.18055e-15,-2.06736e-14,-30.9943,-8.34836,-78.3211,23.6226,21.2223,-27.043,-0.223168,7.12502,-0.461656,-30.2024,3.18055e-15,-2.06736e-14,-21.5977,10.5017,83.6187,29.8889,2.63543,-23.7721,24.3884,7.12502,2.69748,54.3511,-20.8646,23.713,7.86369,28.6353,-17.4425,-17.0553,-6.06064,-2.80007,-15.3956,-25.2361,22.7819,-13.111,-8.13534,7.83192
-6.91008,18.6891,6.27529,8.26374,84.8459,7.67014,5.78024,2.10392,-3.91114,1.09572,2.56033,-2.05209,-2.18488,1.31622,-0.117821,-7.38089,4.46267,-6.35944,29.0068,7.77271,3.17665,10.0591,3.64326,3.08243,1.36167e-14,-2.14687e-14,-30.9144,-7.92162,-78.3766,23.6085,20.7602,-27.8212,-0.330549,7.12502,-1.21323,-30.3068,1.36167e-14,-2.14687e-14,-21.659,11.4171,83.194,29.2944,2.04548,-24.0565,24.4393,7.12502,2.42278,54.4053,-21.0052,23.7386,7.83397,27.4265,-16.0329,-17.8047,-13.3739,-2.61755,-16.0625,-24.9131,22.8246,-13.1516,-8.70723,8.77433
-6.84984,18.6908,6.32972,8.84062,86.0159,8.2425,5.9738,2.04136,-3.76051,1.12116,2.47835,-1.89593,-2.26509,1.27467,-0.0414136,-7.29001,4.43055,-6.43815,28.9101,7.78016,3.03457,10.0116,3.63029,3.03976,-1.69961e-14,2.22639e-14,-30.9205,-7.38952,-78.4075,23.6756,20.321,-28.6219,-1.98744,7.12502,-1.98651,-31.9579,-1.69961e-14,2.22639e-14,-21.7453,12.1569,82.7917,28.7298,1.75004,-24.461,24.7683,7.12502,2.03211,54.7384,-20.9636,24.2683,7.59966,26.3161,-16.0916,-17.0369,-14.1142,-2.38169,-16.558,-24.6385,22.8164,-13.2342,-9.22966,7.78943
-6.78877,18.6916,6.38254,9.04855,87.2075,8.50956,6.254,2.04148,-3.45589,1.15645,2.48639,-1.81756,-2.37602,1.27754,-0.141169,-7.21828,4.34535,-6.42687,28.8602,7.6572,3.05353,9.98549,3.5839,3.02922,8.34896e-15,7.95139e-16,-30.9962,-7.60305,-78.2413,23.6973,20.3873,-28.4572,-2.1714,7.12502,-1.82746,-32.1433,8.34896e-15,7.95139e-16,-21.7508,12.4525,82.363,28.1036,1.55742,-24.54,25.1206,7.12502,1.95587,55.0914,-20.7505,24.8374,7.41219,25.1166,-16.0223,-15.5601,-13.7987,-2.14878,-17.1893,-24.3455,22.8726,-13.1313,-9.62697,8.08534
-6.73007,18.6993,6.44035,12.8375,88.4471,12.2958,6.47889,1.99586,-3.27977,1.18592,2.4292,-1.76948,-2.46456,1.24876,-0.192864,-7.23414,4.27493,-6.40113,28.8739,7.54612,3.13004,9.99603,3.54804,3.04359,1.43125e-14,3.18055e-15,-30.9811,-7.86355,-78.0939,23.6701,20.7064,-27.3735,-0.736748,7.12502,-0.780835,-30.7151,1.43125e-14,3.18055e-15,-21.751,12.6968,81.8705,27.4793,1.19093,-24.7336,25.3791,7.12502,1.76884,55.3515,-20.7017,25.4598,7.12204,24.2249,-15.9346,-14.1345,-13.3064,-2.01393,-17.5632,-24.0479,22.7676,-12.8995,-10.0636,8.06863
-6.67408,18.7047,6.50773,43.3585,89.6831,42.6877,6.53816,1.88905,-3.26388,1.2237,2.28923,-1.63776,-2.4603,1.17864,-0.0550336,-7.33186,4.20747,-6.3016,28.8895,7.4844,3.00285,10.0349,3.51714,2.98279,-1.6201e-14,2.38542e-15,-30.8715,-7.75142,-78.0534,23.6791,21.1588,-26.512,-0.237931,7.12502,0.0512699,-30.2177,-1.6201e-14,2.38542e-15,-21.7276,13.7056,81.2958,26.8163,0.42089,-24.6743,25.1423,7.12502,1.82608,55.1142,-20.837,25.9779,6.89328,23.3521,-15.6199,-13.1267,-14.8514,-2.14391,-17.4688,-23.6184,22.7057,-12.8621,-10.696,5.63188
-6.61598,18.7194,6.56948,-11.9685,91.1481,-12.7779,6.48149,1.71797,-3.42054,1.33171,2.06162,-1.46693,-2.32331,1.06456,0.232555,-7.37757,4.17784,-6.41171,28.7739,7.48582,2.90839,10.0029,3.49899,2.96565,-1.39149e-14,0,-30.6092,-7.40477,-78.0339,23.662,21.3404,-26.5938,-0.930077,7.12502,-0.0277671,-30.9098,-1.39149e-14,0,-21.7892,14.8407,80.8182,26.3148,0.0042041,-24.5138,25.3011,7.12502,1.98114,55.2716,-20.9087,26.2053,6.53834,22.4791,-15.4845,-11.9278,-16.8127,-2.18658,-17.9438,-23.3568,22.7046,-12.744,-11.4025,6.03202
-6.55904,18.7254,6.62576,-3.75544,92.4749,-4.63193,6.50987,1.57186,-3.30357,1.46342,1.88248,-1.30575,-2.19951,0.972703,0.350399,-7.3221,4.13889,-6.71553,28.5623,7.43685,3.0175,9.90055,3.46384,3.03824,-3.29983e-14,1.51076e-14,-30.3301,-6.89856,-78.1166,23.6919,21.0319,-27.741,-2.62603,7.12502,-1.13579,-32.6027,-3.29983e-14,1.51076e-14,-21.7853,15.4668,80.3712,25.8107,0.0502208,-23.9909,25.8603,7.12502,2.48612,55.8256,-20.83,26.3597,6.31733,21.604,-15.3812,-10.3252,-17.9728,-2.16314,-18.5971,-23.0151,22.7313,-12.3117,-12.1168,9.10566
-6.49854,18.7266,6.67489,1.67124,93.6259,0.875425,6.6592,1.5077,-2.77404,1.61104,1.83519,-1.17209,-2.11723,0.945314,0.19455,-7.29322,4.06678,-6.98729,28.411,7.3394,3.14518,9.82876,3.41111,3.11144,-2.84759e-14,1.55052e-14,-30.1404,-6.33465,-78.2981,23.7694,20.5415,-28.8385,-3.96731,7.12502,-2.19572,-33.9358,-2.84759e-14,1.55052e-14,-21.6807,16.1163,79.8277,25.1088,-0.235649,-23.6626,26.0015,7.12502,2.80322,55.9629,-20.6401,26.7919,6.35435,20.7972,-15.3447,-8.61601,-18.9043,-2.01808,-18.5597,-22.6086,22.7448,-12.3404,-12.3156,7.47482
-6.42679,18.7275,6.72719,1.5058,94.6708,0.747515,6.63728,1.49135,-2.55446,1.75329,1.83645,-1.12649,-1.9532,0.943975,0.121789,-7.44026,3.99008,-7.19996,28.5101,7.24967,3.32296,9.88157,3.36826,3.21128,1.71452e-14,-5.96354e-15,-30.1152,-5.50774,-78.5706,24.0169,19.4832,-29.4922,-3.94986,7.12502,-2.82708,-33.9109,1.71452e-14,-5.96354e-15,-21.6007,16.7396,79.2462,24.3168,-0.739954,-23.8348,26.0399,7.12502,2.63691,56.0033,-20.5945,27.51,6.06143,20.1546,-15.6362,-7.04916,-19.5793,-1.81692,-18.7297,-22.5124,22.6693,-12.4278,-12.306,6.05667
-6.35067,18.7265,6.79315,-1.71805,95.7703,-2.64681,6.41252,1.5191,-2.8306,1.80044,1.86613,-1.16564,-1.78731,0.958505,0.240725,-7.62415,3.89101,-7.44097,28.8191,7.10129,3.72085,10.0095,3.31888,3.39903,3.23025e-15,-5.1684e-15,-30.2137,-4.83061,-78.7976,24.3245,18.2519,-29.6798,-4.07494,7.12502,-3.00824,-34.0335,3.23025e-15,-5.1684e-15,-21.6303,17.0949,78.6766,23.5983,-1.15852,-24.2426,26.2289,7.12502,2.24302,56.1968,-20.7912,28.2956,5.33248,19.6482,-15.9741,-5.71858,-20.0808,-1.79607,-19.0289,-22.6561,22.5473,-12.4629,-12.4664,5.32479
-6.27813,18.7233,6.85975,-2.92913,96.9164,-3.95426,6.36415,1.5337,-2.96606,1.80798,1.88038,-1.1175,-1.75874,0.965658,0.366278,-7.51434,3.8214,-7.60913,28.9715,7.00632,3.92521,10.0344,3.2883,3.49435,3.22031e-14,1.19271e-15,-30.2013,-4.8873,-78.7124,24.3178,18.439,-29.2204,-3.53553,7.12502,-2.56452,-33.4999,3.22031e-14,1.19271e-15,-21.8027,17.7785,78.094,22.9097,-1.97737,-24.2756,26.0423,7.12502,2.21121,56.0105,-20.906,28.9208,4.86274,19.3169,-16.2491,-4.37817,-20.3493,-1.66612,-19.4229,-22.6553,22.3834,-12.3269,-12.6668,5.62873
-6.20604,18.7201,6.92202,-2.69067,98.102,-3.63147,6.48913,1.48281,-2.8731,1.8833,1.81915,-1.03679,-1.74872,0.93508,0.400043,-7.35427,3.81053,-7.45582,28.9953,6.99418,3.85422,10.0224,3.29916,3.43908,-1.06847e-14,6.75868e-15,-30.0957,-5.19803,-78.5596,24.244,18.9871,-28.5282,-2.81986,7.12502,-1.89603,-32.7912,-1.06847e-14,6.75868e-15,-21.998,18.7196,77.3783,22.2614,-3.02895,-23.8607,25.8477,7.12502,2.61192,55.8114,-20.7848,29.4441,4.76675,19.13,-16.5769,-2.96227,-20.1723,-1.32863,-19.8768,-22.5213,22.2446,-11.9018,-12.8538,7.59544
-6.13428,18.7154,6.98586,-2.4844,99.2969,-3.39354,6.62196,1.39117,-2.88373,1.90462,1.69466,-0.938267,-1.8003,0.873656,0.514298,-7.22784,3.78169,-7.36527,29.057,6.95068,3.86046,10.0264,3.29637,3.4215,3.96575e-14,-2.46493e-14,-30.073,-5.22415,-78.4301,24.2966,18.6237,-28.7567,-3.96763,7.12502,-2.11675,-33.9369,3.96575e-14,-2.46493e-14,-22.2793,19.7283,76.5563,21.7245,-3.69454,-23.5063,26.0163,7.12502,2.95411,55.9756,-20.6884,29.826,4.72075,18.9906,-16.812,-1.73646,-20.2151,-1.12818,-20.2086,-22.2975,22.1902,-11.1607,-13.2655,11.1688
-6.06212,18.7075,7.0509,-2.4234,100.515,-3.41778,6.71175,1.26762,-2.95162,1.84654,1.52155,-0.843221,-1.90905,0.788549,0.661471,-7.17564,3.73677,-7.34404,29.2286,6.92053,3.84464,10.084,3.28847,3.41743,-6.87795e-14,-2.38542e-15,-29.9756,-5.75822,-78.1217,24.134,18.5622,-29.9121,-6.3952,7.12502,-3.23258,-36.3504,-6.87795e-14,-2.38542e-15,-22.6852,20.7854,75.6318,21.2287,-4.08782,-23.5496,26.0871,7.12502,2.91237,56.047,-20.6957,30.0011,4.65971,18.9374,-17.0035,-0.665745,-20.8919,-1.09833,-20.6098,-22.0494,22.1903,-10.712,-13.7488,13.7324
-5.98726,18.6985,7.11322,-2.04894,101.725,-3.06846,6.76467,1.14912,-2.83895,1.84902,1.37107,-0.782068,-1.92985,0.713523,0.672969,-7.11188,3.70606,-7.15097,29.3387,6.89398,3.75089,10.1258,3.29178,3.35409,5.31749e-15,1.55052e-14,-29.8196,-6.3207,-77.9103,23.8869,19.0636,-30.2874,-6.59491,7.12502,-3.59499,-36.5443,5.31749e-15,1.55052e-14,-23.0619,21.7247,74.6867,20.793,-4.63399,-23.8127,26.0353,7.12502,2.65829,55.9985,-20.6132,30.0747,4.80264,18.9964,-17.1742,0.121817,-21.9855,-0.997857,-21.1507,-21.7655,22.2379,-10.4705,-14.1553,15.2167
-5.91059,18.6894,7.17698,-2.12857,102.929,-3.15087,6.79465,1.03573,-2.79728,1.88926,1.22508,-0.759234,-1.89985,0.640715,0.68544,-7.01049,3.74333,-6.98129,29.3377,6.91152,3.80266,10.1072,3.33031,3.34225,-5.37713e-14,1.70955e-14,-29.7613,-6.34279,-77.9481,23.8985,19.4959,-29.57,-4.36186,7.12502,-2.90215,-34.3219,-5.37713e-14,1.70955e-14,-23.3924,22.4442,73.8108,20.4569,-4.95331,-24.071,26.1626,7.12502,2.4088,56.1288,-20.4779,30.2911,4.84415,19.1256,-17.2699,0.928567,-21.9595,-0.903618,-21.6194,-21.5474,22.3354,-10.1063,-14.6351,17.1074
-5.83361,18.6828,7.24218,-1.80105,104.114,-2.88364,6.82133,0.921295,-2.75767,1.87849,1.07659,-0.609726,-1.92309,0.566445,0.829185,-6.99851,3.78804,-7.11784,29.4366,6.99407,3.91856,10.1262,3.37284,3.41846,1.97791e-14,-3.18055e-15,-29.707,-6.47432,-77.7171,23.89,19.6141,-29.6002,-4.68772,7.12502,-2.93139,-34.6473,1.97791e-14,-3.18055e-15,-23.8039,23.4353,72.9824,20.1667,-5.25378,-23.9242,26.3417,7.12502,2.55055,56.3062,-20.4205,30.5001,4.94563,19.3063,-17.3936,1.97843,-20.9378,-0.935863,-21.9323,-21.1433,22.4494,-9.70921,-15.33,18.8778
-5.75144,18.6748,7.30477,-1.50434,105.266,-2.666,6.78656,0.827317,-2.72369,1.84108,0.955809,-0.450878,-1.94028,0.505746,0.984119,-6.95211,3.75692,-7.10442,29.5594,7.01441,3.78971,10.1702,3.37593,3.37873,3.53837e-14,-3.37934e-15,-29.7106,-6.82558,-77.3509,23.8518,19.7031,-29.8539,-6.21448,7.12502,-3.17634,-36.1706,3.53837e-14,-3.37934e-15,-24.344,24.5487,72.0228,19.9101,-5.55997,-23.8061,26.4548,7.12502,2.66464,56.4179,-20.3422,30.5152,5.16626,19.5397,-17.5663,2.79193,-19.9724,-0.974787,-22.2835,-20.745,22.5611,-9.40325,-15.9298,20.3331
-5.66552,18.6612,7.36687,-1.97008,106.393,-3.18548,6.77337,0.762423,-2.79387,1.81108,0.864434,-0.452276,-1.96136,0.460866,1.0297,-6.91681,3.67968,-6.84824,29.6953,6.93756,3.62562,10.2365,3.35532,3.2782,-4.32357e-15,1.98785e-16,-29.7782,-6.81031,-77.3648,23.8723,19.5411,-29.3436,-5.01737,7.12502,-2.68355,-34.9802,-4.32357e-15,1.98785e-16,-25.0157,25.4605,70.9886,19.9379,-5.84253,-24.1684,26.2919,7.12502,2.31477,56.259,-20.1474,30.3717,5.32166,19.7711,-17.6728,3.3452,-19.9472,-0.947997,-22.7419,-20.6198,22.7184,-9.1598,-16.3315,21.1377
-5.57809,18.6478,7.43014,-2.73725,107.529,-4.05083,6.66183,0.714628,-2.96062,1.81706,0.793461,-0.516906,-1.89145,0.425522,1.06401,-6.8778,3.5865,-6.72795,29.7386,6.80144,3.62759,10.2571,3.31178,3.24818,5.07646e-14,-1.55052e-14,-29.8215,-6.9023,-77.3892,23.9154,19.1495,-29.0248,-3.5924,7.12502,-2.37563,-33.5589,5.07646e-14,-1.55052e-14,-25.6125,25.658,70.2004,20.2935,-5.37153,-24.0342,25.9932,7.12502,2.44435,55.959,-19.9211,30.1212,5.38244,19.9647,-17.633,3.68573,-20.6623,-0.978375,-23.3501,-20.6372,22.9536,-9.05997,-16.647,21.5164
-5.48969,18.6331,7.49188,-3.08915,108.691,-4.4454,6.46914,0.627529,-2.96566,1.91266,0.68864,-0.543297,-1.68113,0.370829,1.05096,-6.85711,3.50071,-6.71221,29.6502,6.67742,3.62193,10.2282,3.26043,3.22805,8.09054e-14,-1.19271e-14,-29.743,-7.15448,-77.3249,23.9302,18.9106,-29.5447,-3.66237,7.12502,-2.87772,-33.6227,8.09054e-14,-1.19271e-14,-25.8609,25.454,69.5612,20.3919,-4.2136,-23.5067,25.8543,7.12502,2.95374,55.8136,-19.6118,30.1742,5.55526,20.1483,-17.4655,3.67105,-21.2228,-1.06062,-23.8028,-20.5024,23.3013,-8.9867,-17.0949,21.265
-5.40075,18.6149,7.55167,-3.55081,109.855,-4.89258,6.3703,0.555075,-2.93309,2.00008,0.60236,-0.574252,-1.53193,0.326394,1.00906,-6.82108,3.44071,-6.81064,29.5816,6.58456,3.7214,10.1931,3.22426,3.26738,-5.55355e-15,-4.27387e-15,-29.7431,-7.39501,-77.2177,23.9826,18.8242,-29.9343,-4.08437,7.12502,-3.25403,-34.0393,-5.55355e-15,-4.27387e-15,-26.0851,24.877,69.0862,20.4617,-2.88122,-24.0286,25.9198,7.12502,2.44976,55.8855,-19.2484,30.6321,5.65844,20.4381,-17.1092,3.5014,-20.4082,-1.17978,-23.9334,-20.3701,23.7528,-8.82718,-17.8321,20.984
-5.32036,18.6003,7.6238,-3.35688,111.099,-4.85178,6.35658,0.493618,-2.87754,1.93972,0.522786,-0.489922,-1.58375,0.286884,1.07058,-6.71192,3.35391,-7.16876,29.4575,6.44555,3.98184,10.1104,3.15989,3.39757,-3.6564e-14,8.29926e-15,-29.8902,-7.40676,-77.0212,24.1476,18.4123,-29.8279,-4.40409,7.12502,-3.15124,-34.3606,-3.6564e-14,8.29926e-15,-26.5114,24.2655,68.7265,20.8228,-1.97247,-24.4682,26.0373,7.12502,2.02516,56.0074,-19.1916,30.8204,5.88398,20.8794,-16.314,3.45795,-18.5003,-1.69402,-23.9765,-19.8537,24.2896,-8.40398,-18.8196,21.1679
-5.24186,18.5902,7.69855,-3.30339,112.382,-5.10367,6.28075,0.413293,-2.93985,1.83441,0.410291,-0.447234,-1.64622,0.231246,1.15815,-6.70509,3.26097,-7.51339,29.4073,6.3029,4.25898,10.0758,3.09457,3.53852,2.30155e-15,3.50358e-15,-30.0517,-7.31872,-76.9268,24.3504,17.8605,-29.9041,-4.74415,7.12502,-3.22489,-34.6995,2.30155e-15,3.50358e-15,-26.9626,23.655,68.3023,21.2948,-1.02795,-24.2444,26.0727,7.12502,2.24129,56.0407,-19.3206,30.6062,5.99567,21.4816,-15.3192,3.3436,-15.6443,-2.43164,-24.0909,-19.3945,24.8876,-8.0932,-19.65,20.5852
-5.15444,18.5819,7.75199,-3.49496,113.408,-5.43771,6.1538,0.377136,-2.80577,1.80484,0.372942,-0.462823,-1.60371,0.211699,1.07037,-6.69407,3.19198,-7.65934,29.3911,6.23137,4.29915,10.0669,3.05669,3.57093,-1.34824e-14,1.29459e-14,-30.1641,-7.71211,-76.7293,24.3549,17.8544,-30.1436,-4.83311,7.12502,-3.45616,-34.7848,-1.34824e-14,1.29459e-14,-27.4365,23.6846,67.6082,21.5921,-0.297954,-24.2323,25.8237,7.12502,2.25302,55.7916,-19.2695,30.3094,6.18127,22.2515,-14.9607,3.05689,-12.7685,-2.88119,-24.0295,-19.1959,25.5652,-8.09434,-20.2899,19.0658
-5.07297,18.5748,7.79948,-3.69927,114.228,-5.53416,6.35371,0.426931,-2.51735,1.79815,0.451576,-0.435466,-1.72338,0.252238,0.929477,-6.67828,3.07115,-7.70598,29.4118,6.14197,4.10292,10.0875,2.99555,3.50414,-8.23093e-15,4.77083e-15,-30.263,-8.04533,-76.4444,24.2007,17.7971,-30.1355,-4.16652,7.12502,-3.44832,-34.1184,-8.23093e-15,4.77083e-15,-27.8907,24.1466,66.8442,21.6464,-0.103459,-24.0741,25.1374,7.12502,2.40583,55.1036,-19.0629,29.7013,6.61508,23.1211,-15.1817,3.0306,-11.4837,-3.1429,-23.9325,-19.0697,26.4179,-7.95456,-20.6845,18.2391
-5.00505,18.5637,7.85229,-4.03383,115.201,-5.64045,6.88266,0.437083,-2.29622,1.78998,0.468259,-0.345632,-2.02595,0.264343,0.892807,-6.67698,2.9589,-7.83878,29.4673,6.08665,3.90744,10.1195,2.94152,3.45744,7.44946e-14,-2.29596e-14,-30.4023,-7.89956,-76.1876,24.1862,17.5243,-29.9712,-3.64404,7.12502,-3.28963,-33.5984,7.44946e-14,-2.29596e-14,-28.3666,24.3206,66.3633,21.756,-0.257945,-23.9458,24.5616,7.12502,2.52967,54.5264,-18.7606,28.741,7.10417,23.9989,-15.3669,3.01823,-11.6015,-3.46845,-23.9459,-19.0001,27.4553,-7.52335,-20.9334,18.0285
-4.94515,18.5558,7.90907,-4.46832,116.201,-5.90676,7.36617,0.472506,-2.07774,1.8258,0.523031,-0.355813,-2.25784,0.294788,0.751339,-6.52791,2.89267,-7.83371,29.2508,6.01721,3.75365,10.0234,2.90239,3.38217,6.55244e-14,-3.97569e-16,-30.5123,-7.89317,-76.0843,24.2244,17.2456,-30.7558,-5.49189,7.12502,-4.04728,-35.4332,6.55244e-14,-3.97569e-16,-28.7032,23.8548,66.1416,22.1501,-0.410553,-23.5111,25.8569,7.12502,2.9495,55.8163,-18.5124,27.9343,7.41426,24.7724,-15.1884,2.6611,-10.3896,-4.06279,-23.6184,-18.971,28.7512,-7.30648,-21.0897,15.7864
-4.88847,18.5461,7.96525,-4.73928,117.114,-6.07242,7.70431,0.544276,-1.79663,1.89056,0.636217,-0.419623,-2.37863,0.352681,0.514373,-6.15387,2.86175,-7.66127,28.718,5.91629,3.59736,9.77372,2.86901,3.25313,-5.18331e-14,7.95139e-15,-30.5166,-8.33627,-75.8978,24.0112,17.4815,-31.3768,-6.34551,7.12502,-4.64699,-36.2745,-5.18331e-14,7.95139e-15,-28.8978,23.24,65.9556,22.5377,-0.365984,-23.8104,26.5244,7.12502,2.66045,56.4876,-18.3395,27.2003,7.70849,25.4439,-14.9968,2.33308,-8.86234,-4.85877,-23.0523,-18.8378,30.2995,-6.74012,-21.2378,14.2949
-4.83452,18.5409,8.01727,-4.7928,117.972,-5.99736,8.0123,0.579482,-1.45516,1.9922,0.712411,-0.361515,-2.44329,0.391406,0.372461,-6.00477,2.78719,-7.6822,28.3426,5.81778,3.42436,9.62264,2.80939,3.16727,-3.8266e-15,0,-30.3974,-8.2182,-75.6662,23.7996,17.4811,-31.0084,-3.50157,7.12502,-4.29125,-33.4381,-3.8266e-15,0,-29.1461,23.4029,65.6919,22.7379,-0.653895,-24.5896,26.1957,7.12502,1.90795,56.1669,-18.0916,26.5508,8.10652,25.9576,-15.0467,2.38062,-8.78276,-5.81203,-22.2496,-18.5651,32.0982,-5.7534,-21.2853,14.2145
-4.78198,18.5391,8.06767,-4.58632,118.872,-5.69095,8.24296,0.584176,-1.03863,2.09366,0.759588,-0.213283,-2.46427,0.415008,0.284698,-6.13872,2.62838,-7.77873,28.2656,5.6691,3.2272,9.63713,2.71084,3.10441,-1.62506e-14,2.38542e-15,-30.2337,-8.06829,-75.3304,23.6089,17.6608,-30.4527,-1.71691,7.12502,-3.7546,-31.6636,-1.62506e-14,2.38542e-15,-29.4064,24.2424,65.3036,22.9685,-0.949558,-24.499,26.1818,7.12502,1.99539,56.1522,-17.792,25.9712,8.56339,26.3044,-15.201,2.69846,-8.55484,-6.9882,-21.2176,-18.1128,34.1103,-4.58991,-21.3821,14.1816
-4.72285,18.5391,8.11914,-4.00324,119.724,-5.05296,8.29657,0.629175,-0.475594,2.16718,0.87425,-0.0512027,-2.41414,0.470926,0.123714,-6.24446,2.45054,-7.82919,28.2334,5.46085,3.1444,9.66155,2.6026,3.06912,-5.83433e-14,1.98785e-15,-30.1173,-8.33344,-74.9425,23.357,18.2008,-30.0888,-2.36336,7.12502,-3.40319,-32.3159,-5.83433e-14,1.98785e-15,-29.6462,24.9303,64.8795,23.4045,-0.542244,-23.1436,27.2992,7.12502,3.30443,57.2533,-17.5154,25.4713,9.18276,26.5027,-15.2081,2.54201,-8.1701,-8.3126,-20.0317,-17.4473,36.3038,-3.70199,-21.4085,13.2102
-4.66294,18.5398,8.17327,-3.0962,120.629,-4.18355,8.19711,0.652587,0.171678,2.19768,0.966763,0.169562,-2.32166,0.515235,-0.0200211,-6.20022,2.29121,-7.9797,28.0643,5.24903,3.14177,9.60227,2.49423,3.06784,-1.12214e-13,-4.37326e-15,-30.0577,-8.45683,-74.566,23.1887,18.7098,-29.737,-3.00034,7.12502,-3.06346,-32.9581,-1.12214e-13,-4.37326e-15,-29.8808,25.305,64.6334,23.6993,-0.185144,-22.6336,28.0128,7.12502,3.79693,57.9587,-17.3552,25.0203,9.90009,26.6386,-15.027,1.86115,-8.06148,-9.9191,-18.5506,-16.5511,38.6441,-2.8126,-21.289,11.5799
-4.604,18.5438,8.22688,-2.29536,121.742,-3.45627,8.05036,0.608854,0.735971,2.23222,0.961239,0.369198,-2.1991,0.512167,-0.128297,-6.03537,2.12482,-8.03346,27.7516,4.99789,3.09244,9.4748,2.37368,3.02156,-4.42296e-14,3.97569e-15,-29.9745,-8.50196,-74.2443,23.0526,18.9561,-29.249,-3.24927,7.12502,-2.59218,-33.2133,-4.42296e-14,3.97569e-15,-30.1668,25.5943,64.4565,24.0192,-0.0654887,-23.2117,28.1247,7.12502,3.23864,58.0799,-17.1473,24.7952,10.5484,26.7334,-15.1067,0.973955,-7.48278,-11.6246,-17.0639,-15.7399,41.0212,-1.44863,-20.7917,11.6496
-4.54249,18.5435,8.27692,-1.78838,122.886,-3.05975,7.79364,0.59416,1.16194,2.31208,0.978253,0.506911,-1.96972,0.522577,-0.222967,-6.01646,1.9672,-8.07891,27.6102,4.76286,3.13872,9.43225,2.26897,3.01976,-5.71506e-14,7.95139e-16,-29.8654,-8.52091,-73.9478,22.9211,19.0446,-28.8611,-3.33386,7.12502,-2.21755,-33.3021,-5.71506e-14,7.95139e-16,-30.4134,25.636,64.4703,24.4466,0.76937,-23.9472,28.1504,7.12502,2.52834,58.1152,-16.9314,24.5652,11.0177,26.8424,-15.5354,0.521071,-5.32496,-13.2868,-15.6871,-15.2333,43.3957,-0.316144,-19.853,11.5237
-4.48661,18.5456,8.32635,-1.55252,123.935,-2.83868,7.74689,0.583614,1.47444,2.3731,0.995365,0.660123,-1.87816,0.533611,-0.24102,-6.13358,1.90902,-8.12643,27.6769,4.69826,3.20742,9.47916,2.2446,3.05273,3.86636e-14,8.74653e-15,-29.7966,-8.2908,-73.6372,22.8138,19.1181,-28.5834,-3.42063,7.12502,-1.94932,-33.3915,3.86636e-14,8.74653e-15,-30.7058,25.3626,64.6996,24.7915,2.45606,-25.3854,27.2029,7.12502,1.13935,57.1796,-16.6821,24.1251,11.4334,27.0015,-15.837,0.338068,-3.74083,-14.7795,-14.3464,-14.9458,45.69,0.385053,-18.7904,10.3459
-4.44006,18.5475,8.37421,-1.87432,125.078,-3.052,8.16174,0.49945,1.4587,2.32165,0.900004,0.812495,-2.16529,0.485771,-0.0721058,-6.19904,1.84987,-8.11034,27.8642,4.68093,3.11591,9.56519,2.23456,3.02742,-1.19271e-15,1.51076e-14,-29.8927,-7.64305,-73.3108,22.7748,19.0986,-28.1126,-3.5133,7.12502,-1.49468,-33.4878,-1.19271e-15,1.51076e-14,-31.4245,24.9356,64.895,25.3742,4.26237,-26.7491,25.9584,7.12502,-0.177768,55.9381,-16.2581,23.5346,11.6459,27.2274,-15.9923,-0.138323,-3.47662,-16.0917,-13.143,-15.021,47.9577,1.10194,-17.6834,9.9198
-4.39598,18.5549,8.42488,-2.53779,126.187,-3.60781,8.54908,0.462233,1.3106,2.38931,0.852786,0.815044,-2.31269,0.465173,0.0142412,-6.36128,1.7002,-8.13956,28.0237,4.49268,3.19742,9.66242,2.1548,3.05573,-9.90942e-14,3.18055e-15,-29.8039,-7.37795,-72.9933,22.6159,19.4678,-27.6364,-3.12523,7.12502,-1.03479,-33.1025,-9.90942e-14,3.18055e-15,-31.9144,24.5704,65.0415,26.0233,5.4334,-27.1144,25.7387,7.12502,-0.530531,55.7178,-15.8038,22.8907,11.6598,27.4839,-16.1083,-0.693537,-3.85126,-17.2883,-11.9267,-15.3802,50.1718,1.61905,-16.3744,10.0739
-4.34788,18.5598,8.48133,-2.77839,127.036,-3.76722,8.80108,0.484112,1.24145,2.44875,0.889534,0.904184,-2.39291,0.486355,0.13863,-6.41587,1.60804,-8.24163,28.0815,4.36111,3.3464,9.69518,2.10298,3.11792,-3.45885e-14,2.38542e-15,-29.6174,-7.10127,-72.7777,22.3768,19.7623,-27.4825,-3.59444,7.12502,-0.886088,-33.5723,-3.45885e-14,2.38542e-15,-32.2478,24.6,64.9813,26.2245,5.79867,-26.8344,25.783,7.12502,-0.260164,55.7626,-15.586,22.3537,11.8905,27.796,-16.2455,-0.999249,-3.94647,-18.5348,-10.3386,-15.4758,52.4004,1.4533,-15.3357,8.43013
-4.29773,18.5633,8.53264,-2.89136,127.816,-3.91386,9.01146,0.545183,1.1573,2.38138,0.972561,1.01752,-2.58183,0.527267,0.290885,-6.38351,1.51779,-8.18983,28.2221,4.26806,3.31492,9.74893,2.06991,3.09619,2.90226e-14,-3.10104e-14,-29.6367,-6.63193,-72.5442,22.2705,19.8612,-27.4348,-5.05727,7.12502,-0.840076,-35.0354,2.90226e-14,-3.10104e-14,-32.6979,24.7532,64.8341,26.2346,5.76572,-26.6714,25.6036,7.12502,-0.102716,55.5833,-15.5263,21.8791,12.0536,28.1194,-16.4628,-1.16638,-3.44762,-19.8605,-8.64543,-15.607,54.6115,0.885862,-14.6685,5.90218
-4.25193,18.565,8.58077,-3.05726,128.62,-4.22151,9.0584,0.608963,1.06197,2.36229,1.05255,1.078,-2.63016,0.5676,0.397294,-6.4266,1.40195,-8.08202,28.3434,4.15265,3.19651,9.81553,2.02075,3.03325,-5.25785e-14,-3.18055e-15,-29.5689,-6.33939,-72.2287,22.1298,19.8906,-27.5131,-5.5959,7.12502,-0.915674,-35.5737,-5.25785e-14,-3.18055e-15,-33.2122,24.9829,64.7713,26.619,5.65429,-26.6114,25.2792,7.12502,-0.0447363,55.259,-15.5059,21.2949,12.0509,28.3727,-16.6339,-1.31074,-3.17102,-21.301,-7.041,-15.925,56.8334,0.0934319,-14.2494,2.68889
-4.20832,18.5666,8.63321,-3.15812,129.387,-4.34412,9.18288,0.654012,1.15173,2.42509,1.12657,1.05949,-2.63198,0.606327,0.31817,-6.56571,1.3161,-7.86894,28.3853,4.0271,3.15751,9.86947,1.98136,2.97738,5.56597e-15,-1.51076e-14,-29.3007,-6.64858,-71.9502,21.8479,20.317,-27.4954,-5.54613,7.12502,-0.898581,-35.524,5.56597e-15,-1.51076e-14,-33.3914,24.4105,65.1003,26.989,7.52425,-28.1633,23.9127,7.12502,-1.54364,53.8868,-15.3747,20.9164,12.2022,28.5449,-16.7642,-1.69119,-2.53138,-22.6611,-5.53749,-16.1487,59.0209,-0.890302,-13.9607,-0.658936
-4.1632,18.5681,8.68362,-3.05966,130.092,-4.03774,9.61158,0.635022,1.35731,2.39586,1.14063,1.17682,-2.89778,0.613744,0.315808,-6.69851,1.32062,-7.70411,28.5581,4.05117,3.13898,9.95989,2.01078,2.95589,-3.6477e-14,2.38542e-15,-29.1252,-7.1803,-71.5314,21.5272,21.2498,-27.2983,-4.62913,7.12502,-0.708203,-34.6077,-3.6477e-14,2.38542e-15,-33.9959,24.442,64.812,27.2572,7.10015,-27.4011,24.6222,7.12502,-0.807508,54.6004,-15.0447,20.8004,12.724,28.639,-16.9166,-2.18813,-2.29163,-23.8526,-4.0217,-16.0725,61.1793,-1.7452,-13.7031,-3.11383
-4.11812,18.5699,8.72945,-3.0915,130.755,-3.92484,9.90198,0.634896,1.50735,2.40476,1.17238,1.27993,-3.04823,0.63077,0.330162,-6.81466,1.29689,-7.74903,28.7244,4.0548,3.18054,10.0418,2.01644,2.98903,-4.11484e-14,1.43125e-14,-28.9858,-7.46092,-71.1366,21.3935,22.0172,-27.8015,-3.58603,7.12502,-1.19425,-33.5624,-4.11484e-14,1.43125e-14,-34.5158,24.4619,64.6528,27.3435,6.581,-26.8274,25.1889,7.12502,-0.25337,55.1685,-14.7168,20.6913,13.0945,28.6704,-17.0415,-2.54564,-1.92544,-25.0262,-2.50176,-16.1415,63.2802,-2.37686,-13.4379,-4.34391
-4.07429,18.5758,8.77303,-3.28012,131.371,-4.07354,10.1135,0.705436,1.60381,2.41534,1.28466,1.27635,-3.15145,0.686869,0.255069,-6.88146,1.20866,-7.84344,28.8448,3.94538,3.30529,10.1008,1.97496,3.04653,2.84262e-14,7.15625e-15,-28.9453,-7.6478,-70.7988,21.3769,22.4333,-28.9363,-4.06407,7.12502,-2.29017,-34.0315,2.84262e-14,7.15625e-15,-34.8469,24.1933,64.6889,27.3398,6.54019,-26.7665,24.9046,7.12502,-0.194596,54.8843,-14.4369,20.6124,13.2353,28.6602,-17.1413,-2.84257,-1.44233,-26.2079,-1.00113,-16.431,65.3138,-2.96082,-13.2943,-5.00959
-4.03251,18.5804,8.81205,-3.25032,131.988,-3.96179,10.2943,0.736787,1.9393,2.41823,1.37001,1.26724,-3.23988,0.727977,0.0432156,-6.86879,1.16321,-7.78777,28.8439,3.87852,3.32553,10.1024,1.95746,3.03845,4.69132e-14,2.38542e-15,-28.8962,-8.16001,-70.3961,21.3227,22.6123,-29.6038,-4.80374,7.12502,-2.93488,-34.7633,4.69132e-14,2.38542e-15,-35.1622,23.9748,64.6146,27.3193,6.29634,-26.5301,24.7038,7.12502,0.0337906,54.6836,-14.2084,20.4288,13.5366,28.6963,-17.1787,-3.1639,-0.87404,-27.4229,0.489548,-16.5643,67.3112,-3.42712,-13.5363,-4.9101
-3.98887,18.5848,8.85068,-3.01774,132.562,-3.67832,10.3924,0.716265,2.31027,2.4271,1.39163,1.31137,-3.277,0.7379,-0.123911,-7.03422,1.17371,-7.69712,28.9117,3.91708,3.27237,10.1603,1.97942,3.01502,2.62396e-14,7.95139e-16,-28.7035,-8.83641,-70.0068,21.2344,23.029,-29.7568,-4.98965,7.12502,-3.08256,-34.9471,2.62396e-14,7.95139e-16,-35.5248,23.9936,64.4512,27.2938,6.00611,-26.2723,24.8653,7.12502,0.282715,54.8448,-14.0907,20.2314,13.9577,28.7642,-17.2214,-3.55091,-0.233149,-28.7018,1.99065,-16.5692,69.2459,-3.76627,-14.0265,-3.98492
-3.94599,18.5868,8.8933,-2.84015,133.082,-3.58498,10.4691,0.710692,2.38312,2.40185,1.40081,1.3921,-3.34586,0.742179,-0.0839574,-7.3376,1.16929,-7.64562,29.1182,3.97751,3.17363,10.2971,2.00026,2.99326,2.00773e-14,-2.70347e-14,-28.4729,-9.18338,-69.7316,21.2403,23.347,-29.8499,-4.58724,7.12502,-3.17252,-34.5434,2.00773e-14,-2.70347e-14,-36.0457,24.1514,64.2885,27.3291,5.67686,-26.1227,24.7494,7.12502,0.427238,54.7288,-14.1243,20.0711,14.2069,28.8333,-17.1676,-3.80984,0.89366,-30.049,3.53731,-16.7379,71.1064,-4.21251,-14.3243,-3.40017
-3.90637,18.5865,8.93518,-2.89276,133.658,-3.7278,10.6503,0.706331,2.34022,2.34013,1.39846,1.40377,-3.51152,0.739146,-0.0512758,-7.64933,1.15981,-7.31255,29.4695,4.10411,2.73644,10.5038,2.04677,2.81609,-5.80451e-14,2.46493e-14,-28.4114,-9.30677,-69.5491,21.3826,23.1886,-30.0811,-4.47796,7.12502,-3.39579,-34.4307,-5.80451e-14,2.46493e-14,-36.6452,24.1962,64.0789,27.3062,5.22063,-26.1472,24.4722,7.12502,0.403574,54.4515,-14.0945,19.7911,14.2929,28.9164,-17.0352,-4.0441,0.784513,-31.3089,4.95823,-17.1244,72.8882,-4.6728,-14.3396,-4.27102
-3.86648,18.5896,8.97438,-3.06692,134.199,-3.88525,10.8666,0.718321,2.38991,2.35162,1.42852,1.35939,-3.61611,0.75374,-0.13314,-8.08825,1.15135,-6.89287,29.9133,4.25591,2.23328,10.7761,2.10405,2.60898,-6.40087e-14,2.54444e-14,-28.3485,-9.82483,-69.2827,21.5534,22.9659,-30.3355,-5.11406,7.12502,-3.64141,-35.0627,-6.40087e-14,2.54444e-14,-37.0755,24.2049,63.8762,27.1356,4.56305,-26.1289,24.3291,7.12502,0.421233,54.3084,-13.9581,19.6482,14.4076,29.047,-17.0282,-4.40906,1.23277,-32.4078,6.25374,-17.518,74.6021,-5.17661,-14.1738,-5.61664
-3.82879,18.5919,9.01108,-3.1232,134.677,-3.97789,10.999,0.719805,2.43404,2.3771,1.44257,1.34604,-3.66099,0.76142,-0.175964,-8.32223,1.15847,-6.80911,30.0537,4.33951,2.06256,10.8802,2.13071,2.55375,-7.67309e-14,1.43125e-14,-28.1241,-10.2897,-69.0502,21.6403,22.7692,-30.6262,-5.42137,7.12502,-3.92218,-35.365,-7.67309e-14,1.43125e-14,-37.4676,24.2988,63.6909,26.8661,3.94179,-26.1096,24.1425,7.12502,0.439851,54.1218,-13.9189,19.5647,14.5235,29.1921,-17.3119,-4.74384,3.14137,-33.554,7.58194,-17.9007,76.24,-5.76474,-14.1023,-7.07403
-3.7951,18.5909,9.04791,-3.19802,135.122,-4.16767,11.1683,0.716216,2.39332,2.34985,1.43942,1.32458,-3.78333,0.758865,-0.178363,-8.31005,1.14668,-7.03127,29.9713,4.33172,2.16274,10.8399,2.1166,2.62399,6.95746e-15,-4.77083e-15,-27.9703,-10.5599,-68.8774,21.8372,22.4421,-30.6688,-4.78952,7.12502,-3.96327,-34.7324,6.95746e-15,-4.77083e-15,-37.9637,24.5485,63.4146,26.5703,3.48581,-26.1209,23.823,7.12502,0.428945,53.8023,-13.975,19.5206,14.5142,29.3301,-17.5679,-5.01593,4.72534,-34.7329,8.89079,-18.3822,77.7895,-6.1637,-14.2982,-7.32945
-3.76135,18.5905,9.08759,-3.303,135.637,-4.29643,11.3919,0.725544,2.39339,2.36775,1.46082,1.28099,-3.88644,0.769747,-0.230824,-8.21634,1.07815,-7.14924,29.814,4.23101,2.18741,10.7642,2.0644,2.6345,-1.68967e-14,1.98785e-14,-27.8903,-10.7571,-68.827,22.2125,21.6901,-30.2623,-3.93575,7.12502,-3.57075,-33.8856,-1.68967e-14,1.98785e-14,-38.3022,24.7592,63.1346,26.2239,3.04649,-26.0328,23.3571,7.12502,0.514066,53.3362,-13.937,19.5893,14.6112,29.4784,-17.7064,-5.54764,4.89354,-35.8656,10.0694,-18.8052,79.2997,-6.52551,-14.4644,-7.54989
-3.72803,18.5964,9.1284,-3.40569,136.238,-4.421,11.5664,0.706982,2.42063,2.45785,1.44693,1.20488,-3.8862,0.765871,-0.325809,-8.26458,1.00334,-7.12626,29.6411,4.1325,2.07378,10.7177,2.00735,2.57381,-9.06458e-14,-3.10104e-14,-27.7308,-10.8183,-68.9076,22.6828,20.7196,-30.1886,-3.68057,7.12502,-3.49957,-33.6316,-9.06458e-14,-3.10104e-14,-38.4518,25.1482,62.8325,25.7832,2.34099,-25.8811,23.2828,7.12502,0.660619,53.2615,-13.859,19.5602,14.7149,29.6049,-17.8376,-6.06135,5.29355,-37.0343,11.0438,-19.2311,80.7617,-6.91852,-14.3767,-7.84834
-3.69388,18.6025,9.16925,-3.54174,136.767,-4.58769,11.7231,0.667615,2.35379,2.57221,1.39579,1.15522,-3.85454,0.745836,-0.334332,-8.36272,0.974183,-7.19419,29.4488,4.10832,1.97556,10.6681,1.9737,2.54233,2.72335e-14,2.8625e-14,-27.4793,-10.7884,-69.0037,23.1101,19.9241,-30.1668,-3.55405,7.12502,-3.47858,-33.5054,2.72335e-14,2.8625e-14,-38.7174,25.7005,62.4907,25.3211,1.42977,-25.8142,23.1933,7.12502,0.725192,53.1718,-13.7713,19.4297,14.7832,29.6936,-17.8141,-6.48476,5.52346,-38.1746,11.9957,-19.6712,82.155,-7.42392,-14.1657,-7.97061
-3.66042,18.6075,9.20694,-3.58855,137.283,-4.59388,11.9445,0.6122,2.35236,2.64022,1.33882,1.19319,-3.90759,0.721421,-0.288973,-8.32464,0.952974,-7.40637,29.2598,4.10211,1.95224,10.588,1.94658,2.56189,1.14301e-13,2.8625e-14,-27.3146,-10.6814,-68.9906,23.5686,19.1051,-30.054,-3.17048,7.12502,-3.36961,-33.1236,1.14301e-13,2.8625e-14,-39.1271,26.433,62.1201,24.7257,0.538247,-26.0648,22.3769,7.12502,0.483133,52.3561,-13.6493,19.2464,14.9863,29.7384,-17.6933,-6.88993,5.58637,-39.2865,12.8707,-19.9775,83.5155,-7.97897,-13.9268,-8.09087
-3.62953,18.6116,9.24272,-3.61788,137.884,-4.77146,12.1043,0.59072,2.24818,2.59434,1.30349,1.18825,-4.04638,0.703134,-0.23333,-8.1369,0.898503,-7.54253,29.0855,4.04141,1.9084,10.4892,1.90663,2.55341,2.34566e-14,7.95139e-15,-27.3069,-10.596,-68.949,24.0393,18.1951,-30.2144,-3.52342,7.12502,-3.52453,-33.474,2.34566e-14,7.95139e-15,-39.5781,27.028,61.7615,24.1815,-0.00267278,-26.4464,21.9856,7.12502,0.114577,51.9653,-13.6485,19.1131,14.9967,29.7288,-17.6069,-7.48939,5.31244,-40.5248,13.5532,-20.4891,84.7915,-8.39357,-13.6655,-7.7203
-3.5956,18.6118,9.27424,-3.47145,138.424,-4.70132,12.2122,0.572025,2.31219,2.53943,1.29371,1.22794,-4.16293,0.69623,-0.228762,-7.96053,0.821796,-7.75465,28.9683,3.93655,1.98621,10.4118,1.85212,2.59922,-4.21423e-14,3.18055e-15,-27.3702,-10.3893,-68.9565,24.5952,17.3811,-30.2746,-3.84295,7.12502,-3.58268,-33.7926,-4.21423e-14,3.18055e-15,-40.0249,27.6364,61.2943,23.7443,-0.382043,-25.6069,22.5321,7.12502,0.925371,52.5099,-13.5869,19.2084,15.2032,29.6258,-17.6344,-8.17342,5.78239,-41.7709,14.3091,-20.7998,86.0722,-8.98598,-13.3256,-8.89305
-3.55826,18.6159,9.30522,-3.27072,138.872,-4.36736,12.3847,0.530985,2.49623,2.57939,1.28067,1.31262,-4.21447,0.691357,-0.244569,-7.9396,0.784443,-7.96649,28.9032,3.8721,2.14751,10.3791,1.81985,2.68356,-1.02175e-13,7.95139e-16,-27.3107,-10.1788,-69.053,25.1046,16.6951,-30.2242,-3.61094,7.12502,-3.534,-33.5614,-1.02175e-13,7.95139e-16,-40.4076,28.4936,60.7038,23.2043,-1.12804,-24.2187,23.3529,7.12502,2.26611,53.3206,-13.3872,19.2989,15.7103,29.5023,-17.448,-8.90296,5.2592,-42.9123,15.064,-20.7807,87.344,-9.61685,-12.9332,-10.251
-3.52698,18.6259,9.34112,-3.03833,139.449,-4.11798,12.5462,0.442973,2.63131,2.60579,1.19822,1.38328,-4.27629,0.652129,-0.236254,-8.06501,0.753803,-8.1568,28.8971,3.83825,2.26734,10.3973,1.79528,2.75766,-3.27995e-14,4.13472e-14,-27.1805,-9.94851,-69.1627,25.6006,16.1521,-30.256,-3.92451,7.12502,-3.56469,-33.8744,-3.27995e-14,4.13472e-14,-40.8044,29.3185,60.2,22.4927,-2.36366,-23.8952,23.3482,7.12502,2.57857,53.3123,-13.3034,19.2374,16.0883,29.3817,-17.1348,-9.52276,4.53868,-44.2083,15.528,-20.8532,88.5325,-10.3346,-12.3132,-10.29
-3.49726,18.6285,9.37497,-2.9113,139.99,-4.02778,12.7271,0.421304,2.69977,2.59192,1.19098,1.40756,-4.38971,0.647978,-0.251064,-8.05234,0.66511,-8.25631,28.8332,3.71762,2.3016,10.3763,1.73521,2.7722,2.98177e-15,-4.77083e-15,-27.2363,-9.62796,-69.2555,26.2328,15.4559,-30.4394,-4.69152,7.12502,-3.7418,-34.6384,2.98177e-15,-4.77083e-15,-41.2033,29.8246,59.8282,21.8361,-3.22696,-23.9821,23.4096,7.12502,2.49465,53.3748,-13.2368,19.2672,16.3046,29.2732,-17.0339,-10.0462,4.41672,-45.3644,16.0203,-21.0895,89.6472,-11.7585,-11.1104,-13.0514
-3.46572,18.6271,9.40228,-2.87872,140.472,-3.85061,12.9509,0.397808,2.85378,2.65958,1.19913,1.43067,-4.439,0.654465,-0.317872,-7.88468,0.599876,-8.31578,28.5997,3.60563,2.281,10.2634,1.6795,2.75182,3.02153e-14,-2.22639e-14,-27.2244,-9.30448,-69.3807,26.7693,14.8057,-30.4185,-5.09942,7.12502,-3.7216,-35.0467,3.02153e-14,-2.22639e-14,-41.5665,30.4632,59.3547,21.3486,-3.65311,-23.5231,25.1285,7.12502,2.93794,55.088,-13.0099,19.424,16.6432,29.2111,-17.1654,-10.5797,5.09047,-46.2903,16.5555,-21.1811,90.6841,-13.095,-10.1525,-15.5476
-3.43488,18.6358,9.43354,-2.68159,141.02,-3.61807,13.0911,0.343292,2.9689,2.67413,1.15723,1.48163,-4.5008,0.634667,-0.324483,-7.60818,0.588873,-8.47799,28.3066,3.52654,2.43406,10.0991,1.6492,2.80969,3.49861e-14,3.97569e-15,-27.1834,-9.12581,-69.4955,27.188,14.4782,-30.4469,-5.13507,7.12502,-3.74904,-35.0818,3.49861e-14,3.97569e-15,-42.0246,31.4534,58.6387,20.7665,-4.48923,-23.3553,26.4353,7.12502,3.09999,56.3925,-12.9625,19.5311,17.0043,29.1816,-17.2072,-11.2564,5.24171,-47.4762,16.8563,-21.1923,91.5825,-13.5151,-10.2991,-13.8385
-3.40574,18.6485,9.46943,-2.7163,141.606,-3.84308,13.2379,0.34612,2.75682,2.6733,1.13442,1.40577,-4.58513,0.624809,-0.282685,-7.61057,0.562713,-8.38749,28.2713,3.47905,2.41995,10.0905,1.63695,2.7837,-8.88567e-14,3.18055e-15,-27.1926,-9.17959,-69.5818,27.6369,14.4411,-30.595,-4.25585,7.12502,-3.89203,-34.2001,-8.88567e-14,3.18055e-15,-42.4099,32.501,57.8155,20.0729,-5.61062,-23.4123,25.4505,7.12502,3.04494,55.4085,-12.982,19.5097,16.9518,29.1232,-17.1717,-11.9098,5.06357,-48.6791,17.0036,-21.6178,92.3177,-13.8168,-10.2469,-12.2468
-3.37631,18.6603,9.4986,-2.92175,142.143,-4.17334,13.3898,0.330829,2.51833,2.74944,1.08345,1.28427,-4.59143,0.60471,-0.268581,-7.99197,0.596644,-8.02067,28.5567,3.60575,2.13898,10.2754,1.69795,2.6527,-2.42517e-14,1.43125e-14,-27.1136,-9.03437,-69.7621,28.0551,14.4661,-30.3571,-2.90818,7.12502,-3.66227,-32.8565,-2.42517e-14,1.43125e-14,-42.7897,33.3362,57.1332,19.5049,-6.58992,-23.7517,23.7213,7.12502,2.71713,53.6838,-12.8224,19.5038,16.8168,29.0016,-17.2139,-12.3765,5.47998,-49.6107,17.129,-22.0988,92.9223,-14.3523,-9.7627,-11.9046
-3.34732,18.6736,9.52362,-3.0919,142.638,-4.49792,13.4787,0.21973,2.18252,2.81377,0.897458,1.28859,-4.58148,0.520345,-0.043845,-8.18904,0.71423,-8.13107,28.6827,3.86552,2.01637,10.3501,1.79061,2.66353,-1.27222e-14,6.36111e-15,-26.9023,-8.20445,-70.0125,28.4299,14.2227,-30.0358,-1.41685,7.12502,-3.35199,-31.3702,-1.27222e-14,6.36111e-15,-43.5336,34.5946,56.2896,18.9541,-7.69441,-23.4232,23.4857,7.12502,3.03436,53.4439,-12.6806,19.4151,16.6587,28.8515,-17.2981,-12.6897,5.52284,-50.5435,17.2329,-22.5859,93.4186,-14.9232,-9.207,-11.8892
-3.31923,18.6905,9.5485,-3.20635,143.121,-4.81555,13.5522,0.0318645,1.76342,2.82038,0.601846,1.39624,-4.62445,0.381697,0.355559,-8.07496,0.87693,-8.74663,28.5671,4.1777,2.09975,10.2583,1.88445,2.82319,5.22804e-14,-7.15625e-14,-26.6084,-7.06408,-70.2112,28.7319,13.9294,-30.1244,-0.908666,7.12502,-3.43756,-30.8607,5.22804e-14,-7.15625e-14,-44.577,36.0192,55.3175,18.4014,-8.69348,-22.5909,24.2381,7.12502,3.83821,54.1832,-12.5877,19.2828,16.4717,28.6692,-17.3734,-12.9515,5.32066,-51.5417,17.273,-23.0492,93.805,-15.3186,-8.73396,-11.504
-3.29309,18.7013,9.57494,-3.16947,143.659,-4.83187,13.6569,-0.00771116,1.82624,2.87506,0.562105,1.31976,-4.62313,0.363767,0.246191,-8.00712,0.847655,-8.73582,28.4705,4.11598,2.1222,10.2122,1.86275,2.81825,-1.55052e-14,1.59028e-15,-26.5239,-6.8456,-70.4464,29.0058,13.7997,-30.5263,-1.20651,7.12502,-3.82568,-31.1519,-1.55052e-14,1.59028e-15,-44.839,36.7404,54.6714,17.7627,-9.71633,-22.2485,24.2229,7.12502,4.16884,54.1618,-12.4399,19.1354,16.57,28.4799,-17.444,-13.3224,5.37468,-52.5352,17.258,-23.1929,94.1719,-15.4831,-8.56371,-10.2212
-3.26654,18.7085,9.59893,-3.03205,144.044,-4.80467,13.6928,0.191965,2.08227,2.95307,0.847721,1.01669,-4.54999,0.501981,-0.265462,-8.07465,0.626895,-8.0903,28.4403,3.66412,2.17056,10.2435,1.7245,2.68012,-5.4467e-14,-5.56597e-15,-26.641,-7.67142,-70.7115,29.2299,14.0647,-30.7628,-0.816957,7.12502,-4.05407,-30.7581,-5.4467e-14,-5.56597e-15,-44.432,36.9658,54.2694,17.1578,-10.9626,-21.9494,24.0987,7.12502,4.45759,54.0318,-12.4231,19.0573,16.6732,28.3303,-17.4647,-13.6287,5.42979,-53.6138,17.4305,-23.3034,94.5221,-15.5982,-8.46239,-8.67736
-3.23854,18.719,9.62778,-2.85398,144.388,-4.87683,13.6999,0.329053,1.98856,2.9554,1.00619,0.872327,-4.54723,0.579707,-0.391256,-8.10208,0.491084,-7.72349,28.4312,3.40975,2.15141,10.2628,1.64348,2.58509,-9.95911e-14,3.89618e-14,-26.6553,-8.13016,-70.8611,29.3904,14.3938,-30.6976,-0.337287,7.12502,-3.99108,-30.2797,-9.95911e-14,3.89618e-14,-44.5502,37.458,53.7357,16.7451,-12.2235,-21.5846,23.7586,7.12502,4.80991,53.684,-12.5776,18.9775,16.6498,28.2516,-17.4699,-13.8438,5.5422,-54.7742,17.6289,-23.5488,94.8155,-15.8057,-8.1058,-8.55413
-3.21019,18.7231,9.66154,-2.72606,144.886,-4.98698,13.7938,0.348415,1.7573,2.92039,0.999252,0.843151,-4.63874,0.577343,-0.291628,-8.15963,0.405794,-7.65493,28.501,3.31163,2.09563,10.3081,1.60092,2.54747,-5.02925e-14,-1.43125e-14,-26.6462,-7.94767,-71.0194,29.5916,14.3323,-30.8491,-0.908326,7.12502,-4.13745,-30.8479,-5.02925e-14,-1.43125e-14,-44.8706,37.9769,53.2939,16.3734,-13.2829,-21.5341,23.3442,7.12502,4.85866,53.2685,-12.6953,18.7207,16.6248,28.2026,-17.5699,-14.0266,5.8271,-55.7822,17.699,-23.8687,95.0527,-16.2042,-7.70215,-9.58694
-3.18192,18.7155,9.68124,-2.56497,145.18,-4.92178,13.8202,0.411364,1.82668,2.90883,1.08921,0.778267,-4.66126,0.619985,-0.414959,-8.09425,0.347602,-7.61609,28.5052,3.21738,2.13824,10.3011,1.57095,2.5458,-2.0276e-14,-1.98785e-14,-26.7386,-7.75172,-71.2347,29.7933,14.2829,-30.9653,-1.1615,7.12502,-4.24964,-31.0989,-2.0276e-14,-1.98785e-14,-45.0977,38.3144,52.8942,15.9765,-14.3804,-21.3073,23.2779,7.12502,5.0776,53.197,-12.7391,18.5813,16.7557,28.1378,-17.6462,-14.1207,6.22687,-56.5882,18.05,-24.0708,95.2918,-16.8253,-7.29641,-11.0571
-3.15244,18.7162,9.68936,-2.58691,145.262,-4.9495,13.8602,0.511842,1.8364,2.9553,1.22339,0.710161,-4.62993,0.687612,-0.515553,-7.94401,0.33854,-7.72885,28.464,3.19524,2.24697,10.2539,1.56767,2.59801,9.20373e-14,-3.49861e-14,-26.7788,-7.44102,-71.4488,29.9824,14.2409,-30.9637,-0.985792,7.12502,-4.24805,-30.9232,9.20373e-14,-3.49861e-14,-45.3769,38.5343,52.6251,15.7389,-15.1719,-21.0189,23.1825,7.12502,5.35606,53.0948,-12.6269,18.5906,16.8315,28.0587,-17.7145,-14.18,6.72433,-57.1496,18.4955,-24.2542,95.4065,-17.3249,-7.05719,-11.5267
-3.12232,18.7306,9.69824,-2.73009,145.396,-5.21699,13.8937,0.610636,1.5679,3.00122,1.31419,0.636838,-4.60197,0.73678,-0.456925,-7.89112,0.299561,-7.89097,28.5042,3.15041,2.36801,10.2568,1.54821,2.66526,8.94531e-15,-1.66979e-14,-26.7237,-7.17982,-71.6381,30.0382,14.2395,-31.0109,-0.654334,7.12502,-4.29364,-30.5908,8.94531e-15,-1.66979e-14,-45.7924,38.8692,52.3044,15.5986,-16.116,-20.6531,22.8477,7.12502,5.70928,52.7508,-12.4987,18.5936,16.6936,27.922,-17.7222,-14.3768,6.81732,-57.6754,18.7687,-24.5932,95.3476,-17.5613,-6.97786,-10.8627
-3.0926,18.7397,9.70708,-2.74909,145.545,-5.42067,13.835,0.713186,1.36468,3.03904,1.41518,0.551452,-4.53079,0.789609,-0.447749,-7.94563,0.252574,-8.00891,28.5626,3.07717,2.53005,10.2879,1.52127,2.73899,1.47101e-14,1.66979e-14,-26.6364,-7.0309,-71.8222,30.0278,14.2917,-30.9871,-0.687817,7.12502,-4.27069,-30.6247,1.47101e-14,1.66979e-14,-45.9266,38.9184,52.3237,15.4604,-16.8336,-20.5495,22.6695,7.12502,5.80933,52.5698,-12.4457,18.5833,16.5787,27.7223,-17.7169,-14.4981,7.43354,-58.3398,19.057,-24.928,95.2247,-17.7072,-6.83303,-10.5206
-3.0633,18.7498,9.71271,-2.79026,145.599,-5.53447,13.8204,0.832373,1.2875,3.0989,1.55844,0.442768,-4.45638,0.862955,-0.541798,-7.90283,0.217094,-7.96944,28.5128,3.01718,2.52903,10.265,1.50001,2.7235,-5.38706e-14,3.10104e-14,-26.6047,-6.75063,-72.1046,30.0922,14.2314,-31.1388,-1.43905,7.12502,-4.41719,-31.373,-5.38706e-14,3.10104e-14,-45.9293,38.6786,52.5984,15.5288,-17.142,-20.4875,22.8238,7.12502,5.86918,52.7225,-12.3084,18.5848,16.5662,27.5096,-17.698,-14.5417,7.74832,-58.8558,19.4397,-25.1502,95.0114,-17.8543,-6.75414,-10.1437
-3.03512,18.7625,9.71618,-2.86544,145.649,-5.67927,13.819,0.934643,1.26735,3.14386,1.68367,0.268264,-4.40134,0.92606,-0.734062,-7.83572,0.213177,-7.77475,28.4853,3.01325,2.40265,10.2468,1.50847,2.64324,-4.59193e-14,-1.35174e-14,-26.6493,-6.56443,-72.4496,30.1644,14.3464,-31.1805,-2.11196,7.12502,-4.45748,-32.0451,-4.59193e-14,-1.35174e-14,-46.0074,38.4993,52.6552,15.5922,-17.5351,-20.2942,22.8716,7.12502,6.05577,52.765,-12.1672,18.5887,16.5204,27.3354,-17.6859,-14.6031,7.83658,-59.2705,19.8009,-25.3992,94.7213,-18.0065,-6.67592,-10.2343
-3.00779,18.7738,9.72567,-2.88722,145.923,-5.81149,13.817,0.96222,1.16404,3.18341,1.70183,0.140229,-4.35716,0.937658,-0.812347,-7.85336,0.20593,-7.59102,28.507,3.01663,2.27246,10.263,1.51676,2.56737,-4.19436e-14,-2.3059e-14,-26.5769,-6.44612,-72.7661,30.1205,14.3916,-31.0689,-2.32847,7.12502,-4.34968,-32.2638,-4.19436e-14,-2.3059e-14,-46.0838,38.4717,52.6424,15.5401,-18.0277,-20.2009,22.5137,7.12502,6.14587,52.4045,-12.0586,18.4032,16.4872,27.1869,-17.6465,-14.7836,7.47282,-59.7506,19.9091,-25.6459,94.405,-18.182,-6.57572,-10.5179
-2.98148,18.7801,9.73983,-2.80527,146.358,-5.79608,13.8793,0.947779,1.13143,3.19554,1.67852,0.071338,-4.37762,0.927511,-0.863591,-7.80474,0.172501,-7.57433,28.4271,2.93863,2.33676,10.2262,1.49103,2.57589,3.69739e-14,1.59028e-14,-26.5036,-6.21147,-73.0847,30.0707,14.3144,-30.999,-2.60273,7.12502,-4.28213,-32.5394,3.69739e-14,1.59028e-14,-45.8641,37.9706,53.1348,15.5694,-17.8699,-20.18,22.1224,7.12502,6.16607,52.0127,-11.9789,18.0453,16.5854,27.083,-17.7127,-14.9513,7.50657,-60.2975,19.9238,-25.7649,94.0918,-18.2424,-6.66465,-10.3594
-2.95447,18.7826,9.74998,-2.7316,146.717,-5.81253,13.9224,0.956565,1.02482,3.2233,1.67805,0.0470079,-4.37414,0.930073,-0.829608,-7.83546,0.146675,-7.69452,28.3705,2.89226,2.43706,10.2104,1.46765,2.62593,-2.32578e-14,-7.15625e-15,-26.408,-5.82916,-73.3297,30.0495,14.3159,-30.9182,-2.73422,7.12502,-4.20411,-32.6725,-2.32578e-14,-7.15625e-15,-45.69,37.55,53.7047,15.7087,-17.5709,-20.0688,21.9248,7.12502,6.27339,51.8119,-11.9288,17.6963,16.6482,26.9997,-17.7503,-15.0793,7.40118,-60.8292,20.057,-25.9423,93.7694,-18.2315,-6.75314,-10.0668
-2.92807,18.7849,9.7606,-2.61842,147.007,-5.82878,14.0133,0.97879,0.882123,3.19174,1.68773,0.0455064,-4.46059,0.93523,-0.755262,-8.05188,0.139787,-7.70445,28.5623,2.93918,2.39793,10.3227,1.48363,2.6295,6.81831e-14,-2.46493e-14,-26.3506,-5.44833,-73.5483,29.9915,14.473,-31.0377,-3.0679,7.12502,-4.31957,-33.0038,6.81831e-14,-2.46493e-14,-45.6182,37.116,54.2964,15.9659,-17.2133,-19.8546,22.1283,7.12502,6.48019,52.0091,-11.9401,17.6034,16.702,26.9019,-17.8131,-15.4063,6.97007,-61.3847,20.1803,-26.1254,93.4123,-18.2118,-6.65223,-10.2282
-2.90159,18.7893,9.76411,-2.45676,147.268,-5.71805,14.0259,1.00249,0.904919,3.13518,1.71962,0.0572705,-4.5261,0.948384,-0.762577,-8.05549,0.133802,-7.82878,28.6964,2.95965,2.49574,10.3693,1.49653,2.69358,1.21259e-14,3.4191e-14,-26.3978,-5.09811,-73.7377,29.861,14.7455,-30.8418,-3.87435,7.12502,-4.13037,-33.8141,1.21259e-14,3.4191e-14,-45.661,36.5805,54.8464,16.2153,-16.922,-19.8709,22.1312,7.12502,6.46449,52.0125,-11.8962,17.579,16.8783,26.7697,-17.8491,-15.7477,6.61745,-61.8483,20.2972,-26.1705,93.0227,-18.1918,-6.59728,-9.53524
-2.87483,18.7956,9.75999,-2.36345,147.513,-5.66293,13.9436,1.01828,0.942433,3.12476,1.74189,0.0274585,-4.48979,0.958437,-0.816811,-7.95773,0.129685,-7.90772,28.7223,2.97364,2.52328,10.3583,1.50416,2.71847,-3.45885e-14,0,-26.4505,-4.90519,-73.9445,29.6791,15.0506,-30.2182,-5,7.12502,-3.52814,-34.9505,-3.45885e-14,0,-45.794,36.3767,55.0681,16.3506,-16.9607,-19.9957,21.663,7.12502,6.34395,51.548,-11.7672,17.423,16.9899,26.6298,-17.9547,-15.8796,6.69512,-62.1733,20.4544,-26.2666,92.6082,-18.1951,-6.55435,-8.30148
-2.84609,18.799,9.75937,-2.3062,147.771,-5.60448,13.9297,1.03942,0.968431,3.16783,1.77518,-0.0136071,-4.43418,0.976847,-0.879234,-7.98253,0.139547,-7.8628,28.6508,3.00307,2.42306,10.3381,1.51142,2.67613,3.43897e-14,-9.54166e-15,-26.3663,-4.79976,-74.186,29.4767,15.298,-30.1284,-4.91043,7.12502,-3.44147,-34.8624,3.43897e-14,-9.54166e-15,-45.742,36.2606,55.337,16.4873,-16.8465,-20.0149,21.3646,7.12502,6.32539,51.2502,-11.589,17.2266,17.1333,26.4829,-18.0849,-16.0239,6.59589,-62.4651,20.6459,-26.3512,92.1773,-18.3027,-6.40836,-9.15524
-2.81781,18.7984,9.76113,-2.24689,148.049,-5.58539,13.988,1.06835,0.937882,3.17397,1.80907,-0.069842,-4.45782,0.994493,-0.928378,-7.99786,0.159094,-7.76123,28.5464,3.03364,2.30663,10.3043,1.52294,2.6171,-4.13472e-14,-7.95139e-15,-26.2617,-4.79365,-74.4215,29.2803,15.3861,-30.1684,-3.77757,7.12502,-3.48008,-33.7289,-4.13472e-14,-7.95139e-15,-45.5353,35.8447,55.8231,16.6537,-16.2604,-19.9398,21.2162,7.12502,6.39794,51.0995,-11.464,17.0894,17.2406,26.3492,-18.1917,-16.2158,6.45683,-62.7728,20.7687,-26.469,91.7125,-18.3971,-6.27669,-10.6355
-2.79181,18.7976,9.76397,-2.12855,148.325,-5.43587,14.104,1.08258,1.0193,3.12858,1.83888,-0.0947692,-4.5649,1.00666,-1.0098,-7.98052,0.173522,-7.62869,28.5279,3.08462,2.13196,10.2974,1.54423,2.53723,1.98785e-16,1.74931e-14,-26.3041,-4.66212,-74.6838,29.1619,15.4551,-29.5096,-4.65364,7.12502,-2.8439,-34.6144,1.98785e-16,1.74931e-14,-45.499,35.4264,56.2085,16.9099,-15.7556,-19.8112,21.2686,7.12502,6.52209,51.1482,-11.3612,16.9961,17.4665,26.2287,-18.3194,-16.4575,6.15429,-63.0889,20.9046,-26.4806,91.2481,-18.2744,-6.10811,-11.5234
-2.76424,18.8015,9.76249,-2.07939,148.67,-5.37855,14.1227,1.08168,1.00455,3.15025,1.83817,-0.108743,-4.55228,1.00801,-1.01623,-8.05946,0.152676,-7.64587,28.5449,3.09564,2.04383,10.3215,1.53825,2.51232,4.73108e-14,9.54166e-15,-26.3435,-4.41145,-74.8971,29.164,15.8871,-29.738,-5.28498,7.12502,-3.06442,-35.2427,4.73108e-14,9.54166e-15,-45.4787,35.1749,56.6095,17.2482,-15.3335,-19.8001,21.3476,7.12502,6.53284,51.2268,-11.1923,16.8297,17.6152,26.1107,-18.4907,-16.6901,5.6828,-63.2947,20.9683,-26.5608,90.7334,-18.1507,-5.87253,-12.3995
-2.73601,18.8101,9.75365,-2.19545,149.027,-5.50658,14.1156,1.09291,0.830683,3.22054,1.83231,-0.149581,-4.47843,1.01077,-0.95857,-8.05128,0.16105,-7.77548,28.4854,3.11736,2.08803,10.2947,1.54131,2.55059,1.09332e-14,-2.14687e-14,-26.3525,-4.37488,-75.0033,29.134,16.4163,-30.7888,-3.02981,7.12502,-4.07924,-32.9705,1.09332e-14,-2.14687e-14,-45.4233,35.007,56.9875,17.4715,-14.9463,-20.0379,21.0387,7.12502,6.30327,50.9249,-10.8935,16.6048,17.5947,25.9602,-18.6956,-16.8313,5.59254,-63.2829,20.9889,-26.7581,90.1625,-18.2312,-5.59988,-13.0178
-2.70898,18.8157,9.74538,-2.21354,149.299,-5.54143,14.1434,1.12497,0.659467,3.22076,1.85308,-0.115523,-4.49924,1.02319,-0.830782,-7.91156,0.228487,-7.78297,28.326,3.25876,1.87002,10.2077,1.58733,2.48189,-2.0276e-14,1.11319e-14,-26.3908,-4.28481,-75.0113,28.9829,16.9862,-29.943,-1.95381,7.12502,-3.26243,-31.9086,-2.0276e-14,1.11319e-14,-45.4629,34.8104,57.385,17.658,-14.6,-20.0597,21.4382,7.12502,6.28214,51.3251,-10.6604,16.4678,17.6459,25.7905,-18.7974,-17.0314,5.85668,-63.3314,21.0565,-26.8704,89.6136,-18.1889,-5.4012,-11.9426
-2.68133,18.8218,9.73983,-2.16109,149.586,-5.51548,14.1542,1.15031,0.614122,3.21212,1.87927,-0.137921,-4.51438,1.03649,-0.833795,-7.9704,0.280027,-7.73758,28.3222,3.36282,1.76823,10.2158,1.63021,2.45019,-4.29375e-14,4.77083e-15,-26.4558,-4.2304,-75.1703,28.863,17.264,-30.0527,-2.98709,7.12502,-3.36838,-32.9402,-4.29375e-14,4.77083e-15,-45.2877,34.2665,58.0216,17.9052,-14.0282,-19.6512,22.7772,7.12502,6.67655,52.6519,-10.49,16.3423,17.7464,25.6268,-18.862,-17.288,5.95821,-63.4467,21.1263,-26.9604,89.0517,-18.0007,-5.1605,-11.2602
-2.65493,18.8216,9.72984,-2.06139,149.879,-5.39183,14.0976,1.13342,0.724132,3.24418,1.87293,-0.184623,-4.44495,1.03402,-0.941452,-8.07211,0.326817,-7.67922,28.3007,3.43779,1.71437,10.2257,1.66317,2.43006,-4.53229e-14,1.59028e-14,-26.4086,-4.614,-75.2676,28.6533,18.1548,-29.738,-2.55349,7.12502,-3.06448,-32.5112,-4.53229e-14,1.59028e-14,-45.0728,33.8524,58.5445,18.1759,-13.3388,-19.4123,23.6193,7.12502,6.90718,53.4866,-10.3077,16.1627,17.9359,25.4777,-18.9261,-17.4799,5.92611,-63.5454,21.2056,-26.973,88.5321,-17.8859,-4.91529,-11.086
-2.62949,18.8213,9.71857,-1.96695,150.184,-5.29073,14.0334,1.11522,0.761382,3.27684,1.85666,-0.179359,-4.37502,1.0275,-0.951651,-8.1208,0.372404,-7.73653,28.2478,3.53866,1.62695,10.213,1.69444,2.41869,3.18055e-15,-2.94201e-14,-26.3444,-4.71916,-75.36,28.5191,18.509,-29.5513,-1.85313,7.12502,-2.88409,-31.8134,3.18055e-15,-2.94201e-14,-44.9701,33.7395,58.8969,18.3934,-12.8971,-19.5366,23.6252,7.12502,6.78713,53.4965,-10.1271,16.0139,18.1014,25.3094,-18.9849,-17.7232,5.81826,-63.6044,21.2613,-27.0115,88.0217,-17.8543,-4.62691,-11.0196
-2.60431,18.8233,9.70895,-1.88244,150.554,-5.28753,13.9865,1.10321,0.705636,3.2663,1.83115,-0.193672,-4.36227,1.01522,-0.9296,-8.12072,0.411348,-7.81144,28.2288,3.62987,1.57786,10.2027,1.72654,2.42344,-1.90833e-14,-5.56597e-15,-26.4198,-4.6147,-75.5401,28.4963,18.3483,-29.8748,-2.25192,7.12502,-3.19657,-32.2077,-1.90833e-14,-5.56597e-15,-44.9202,33.637,59.1899,18.6021,-12.6167,-19.7696,23.2266,7.12502,6.56222,53.1049,-9.95304,15.9208,18.1697,25.0913,-19.1794,-18.0131,5.86925,-63.6465,21.1951,-27.114,87.515,-18.0084,-4.32458,-11.1053
-2.57958,18.8286,9.69602,-1.77033,150.877,-5.17442,13.9465,1.12491,0.776964,3.25635,1.86907,-0.195658,-4.34797,1.03306,-0.977474,-8.03126,0.432764,-7.74947,28.1175,3.69006,1.397,10.1479,1.74615,2.35053,-3.97569e-14,-1.59028e-14,-26.5822,-4.41199,-75.7063,28.5729,18.0036,-30.1548,-2.57712,7.12502,-3.46699,-32.5287,-3.97569e-14,-1.59028e-14,-44.8031,33.4795,59.5046,18.7688,-12.3951,-19.7104,23.0072,7.12502,6.61938,52.8838,-9.73285,15.7509,18.3434,24.8446,-19.3771,-18.1643,5.89369,-63.6185,21.1782,-27.07,87.0068,-18.2815,-4.10026,-12.1559
-2.5531,18.8393,9.67934,-1.70432,151.114,-5.1614,13.8651,1.17112,0.71553,3.23238,1.91744,-0.206908,-4.32937,1.05629,-0.960904,-7.94051,0.475872,-7.66614,28.0559,3.79623,1.18528,10.1107,1.78722,2.26981,1.13307e-14,-9.54166e-15,-26.7001,-4.36996,-75.8094,28.5329,17.8417,-30.4101,-2.41952,7.12502,-3.71347,-32.3669,1.13307e-14,-9.54166e-15,-44.7659,33.2586,59.8267,18.975,-12.0917,-19.5216,23.1134,7.12502,6.80167,52.9842,-9.51552,15.6095,18.4147,24.5922,-19.4389,-18.3332,5.82395,-63.5685,21.2478,-27.1134,86.3893,-18.1444,-3.96326,-12.4702
-2.52736,18.8435,9.66176,-1.64305,151.336,-5.14413,13.7898,1.21176,0.661357,3.22432,1.96174,-0.204149,-4.29774,1.07826,-0.932882,-7.88189,0.535743,-7.675,28.004,3.92985,1.03175,10.0796,1.83716,2.22899,-2.98177e-15,0,-26.7071,-4.58142,-75.8529,28.3651,17.9299,-30.7878,-1.96747,7.12502,-4.07823,-31.9082,-2.98177e-15,0,-44.661,32.8585,60.3509,19.2947,-11.5119,-19.2999,23.3782,7.12502,7.01566,53.2419,-9.26941,15.4376,18.4853,24.296,-19.4687,-18.4147,5.91877,-63.5196,21.3513,-27.1773,85.825,-17.5837,-3.85485,-11.1034
-2.50468,18.8445,9.64317,-1.58648,151.587,-5.11168,13.7127,1.21507,0.71331,3.25236,1.97313,-0.238741,-4.22316,1.08488,-0.997372,-7.94204,0.608927,-7.68223,28.0037,4.08749,0.897741,10.0888,1.89668,2.20093,-8.80616e-14,3.4191e-14,-26.6197,-4.72326,-75.986,28.1634,17.9719,-31.0332,-1.78837,7.12502,-4.31516,-31.7244,-8.80616e-14,3.4191e-14,-44.4869,32.7094,60.6929,19.5027,-11.2031,-19.1611,23.3687,7.12502,7.14967,53.2279,-9.01319,15.2529,18.5607,23.9977,-19.5554,-18.4386,5.81598,-63.4125,21.35,-27.1894,85.301,-17.8748,-3.48043,-12.8488
-2.48136,18.8498,9.62833,-1.52473,151.889,-5.01981,13.822,1.24517,0.840632,3.16151,2.02275,-0.325793,-4.36968,1.10427,-1.17399,-7.78603,0.64473,-7.5537,27.9866,4.13861,0.837522,10.0535,1.93656,2.16069,-3.73715e-14,1.74931e-14,-26.803,-4.91132,-76.2007,28.0721,17.7451,-30.9199,-1.72693,7.12502,-4.20575,-31.6652,-3.73715e-14,1.74931e-14,-44.3224,32.1669,61.0421,19.769,-10.7381,-19.0922,23.4,7.12502,7.21619,53.257,-8.7306,15.1559,18.7171,23.7056,-19.7379,-18.5298,5.81149,-63.3069,21.2424,-27.0986,84.7198,-17.7655,-3.28784,-13.4346
-2.45593,18.8526,9.6129,-1.43801,152.292,-5.0091,13.878,1.29937,0.869309,3.01877,2.08248,-0.464979,-4.5425,1.1266,-1.35102,-7.51437,0.65795,-7.13439,27.9643,4.14821,0.623121,10.0042,1.9752,2.01091,6.65929e-14,-3.97569e-15,-27.1885,-5.16009,-76.4415,28.097,17.4548,-31.0756,-1.96294,7.12502,-4.35619,-31.8981,6.65929e-14,-3.97569e-15,-44.1213,31.2345,61.5086,20.0764,-10.1563,-18.9975,23.4912,7.12502,7.30756,53.345,-8.4917,15.1431,18.7963,23.4153,-19.8976,-18.823,6.14891,-63.233,21.0422,-27.1045,84.122,-17.5027,-3.37769,-13.3925
-2.43177,18.853,9.59436,-1.24357,152.663,-4.84025,13.7885,1.29644,0.968905,2.99508,2.0888,-0.483044,-4.51425,1.12767,-1.42462,-7.6058,0.711053,-6.76443,27.953,4.26524,0.273221,10.0293,2.02951,1.83937,7.55382e-15,1.59028e-15,-27.2693,-5.37253,-76.6,27.9848,17.5269,-31.5622,-2.577,7.12502,-4.82601,-32.502,7.55382e-15,1.59028e-15,-43.8698,30.7015,62.017,20.356,-9.80994,-19.0152,23.5001,7.12502,7.29045,53.3545,-8.27299,15.1084,19.0191,23.1119,-20.0084,-19.0784,6.37919,-63.1766,20.8363,-26.9195,83.5293,-17.0913,-3.76738,-11.2724
-2.40883,18.8517,9.5756,-1.02535,152.973,-4.55041,13.7319,1.247,1.1234,3.01948,2.05112,-0.389238,-4.45714,1.10909,-1.40459,-7.8899,0.815662,-6.73453,27.9397,4.46847,0.0907625,10.0788,2.09861,1.79615,1.94809e-14,1.11319e-14,-27.1341,-5.44452,-76.6732,27.7384,17.7722,-31.9412,-2.44121,7.12502,-5.19196,-32.3576,1.94809e-14,1.11319e-14,-43.6958,30.5848,62.4383,20.6047,-9.62996,-18.9528,23.4934,7.12502,7.35069,53.3457,-8.08749,15.0313,19.3641,22.8713,-20.0603,-19.2829,6.34335,-63.1145,20.6835,-26.5913,83.0011,-16.6716,-4.0815,-8.32734
-2.38689,18.849,9.55214,-0.916957,153.422,-4.39499,13.7025,1.14955,1.2467,3.04847,1.94351,-0.369487,-4.41065,1.05689,-1.43361,-8.04133,0.920117,-6.80837,27.8775,4.61812,0.11725,10.0776,2.15812,1.8343,-1.21259e-14,1.35174e-14,-27.0849,-5.32386,-76.8568,27.6105,17.7612,-32.3786,-1.9528,7.12502,-5.61427,-31.8584,-1.21259e-14,1.35174e-14,-43.5365,30.4123,62.8151,20.8785,-9.4787,-18.9042,23.6081,7.12502,7.39758,53.4588,-7.82842,14.8736,19.582,22.6481,-20.3258,-19.5216,6.44469,-62.9769,20.4274,-26.4317,82.5681,-16.5718,-4.00676,-8.206
-2.36714,18.8515,9.52621,-0.916902,153.798,-4.49905,13.693,1.10024,1.15625,3.07361,1.86675,-0.406286,-4.38297,1.02174,-1.40737,-8.20964,1.01389,-6.93804,27.8492,4.78989,0.0901671,10.0929,2.21763,1.8672,-3.18055e-15,1.19271e-14,-27.0528,-5.27034,-76.9995,27.5724,17.5955,-32.5961,-1.46529,7.12502,-5.82423,-31.3652,-3.18055e-15,1.19271e-14,-43.2765,30.2261,63.2398,21.0321,-9.29529,-18.8777,23.488,7.12502,7.42317,53.3378,-7.6085,14.6617,19.5198,22.4843,-20.5722,-19.6623,6.5302,-62.758,20.2174,-26.5462,82.1207,-16.5551,-3.91746,-9.00979
-2.34547,18.8553,9.49978,-0.777716,153.98,-4.43057,13.6315,1.11082,1.1242,3.08355,1.87802,-0.359042,-4.34127,1.02828,-1.33964,-8.45307,1.11431,-7.13424,27.8623,5.00213,0.0421353,10.1365,2.28515,1.91135,1.92821e-14,-1.59028e-15,-26.9933,-5.26749,-77.0546,27.489,17.5176,-32.7149,-0.838417,7.12502,-5.93893,-30.7352,1.92821e-14,-1.59028e-15,-43.0442,30.1508,63.6665,21.2064,-9.10887,-19.0096,23.4485,7.12502,7.29584,53.3028,-7.51501,14.5557,19.6071,22.3726,-20.7588,-19.7142,6.67301,-62.665,20.1608,-26.4518,81.6304,-16.1322,-4.0387,-7.7414
-2.32357,18.8531,9.47093,-0.597643,154.144,-4.28873,13.5216,1.12089,1.14446,3.1083,1.8961,-0.304129,-4.25606,1.03837,-1.29276,-8.66586,1.2214,-7.2167,27.8248,5.21135,-0.076263,10.1599,2.35511,1.90925,2.06736e-14,2.22639e-14,-26.9037,-5.15307,-77.185,27.329,17.48,-33.1013,-0.408555,7.12502,-6.312,-30.2945,2.06736e-14,2.22639e-14,-42.8536,30.1407,64.0083,21.447,-9.08032,-18.9875,23.3889,7.12502,7.31722,53.2423,-7.43426,14.463,19.7697,22.2595,-20.8497,-19.7853,6.6733,-62.5911,20.0882,-26.2683,81.1039,-15.696,-4.05682,-6.71341
-2.30361,18.8476,9.44642,-0.426683,154.445,-4.18789,13.4856,1.10576,1.11452,3.10427,1.87403,-0.248323,-4.24415,1.02787,-1.21279,-8.75642,1.30129,-7.28989,27.7254,5.34973,-0.145651,10.1375,2.40228,1.91079,-4.07509e-14,1.27222e-14,-26.8988,-4.77771,-77.3836,27.3303,17.2707,-33.2186,-1.19308,7.12502,-6.42526,-31.0756,-4.07509e-14,1.27222e-14,-42.6374,30.0126,64.4137,21.7113,-8.98089,-19.003,23.3603,7.12502,7.30222,53.2143,-7.34377,14.3184,19.8995,22.1123,-20.8847,-19.9529,6.39139,-62.5169,19.9041,-26.1592,80.6401,-15.4933,-3.80593,-6.56799
-2.28606,18.8469,9.42126,-0.327444,154.815,-4.07593,13.5781,1.06309,1.13243,3.06469,1.82441,-0.169841,-4.33966,1.00189,-1.13595,-8.71476,1.34707,-7.65157,27.6272,5.42076,0.0388625,10.077,2.42267,2.03961,6.79844e-14,1.19271e-14,-27.061,-4.12371,-77.625,27.6165,16.7314,-33.1392,-2.54487,7.12502,-6.3486,-32.4297,6.79844e-14,1.19271e-14,-42.4892,29.8051,64.8618,21.9606,-8.81799,-19.1279,23.3684,7.12502,7.18165,53.2266,-7.17047,14.1171,20.0601,21.9935,-20.9612,-20.1179,6.18017,-62.3839,19.7357,-26.0721,80.2971,-15.3953,-3.31126,-6.96888
-2.26767,18.8478,9.39248,-0.269507,155.081,-3.98003,13.6603,1.06536,1.1439,3.06966,1.83508,-0.123884,-4.38027,1.00793,-1.0985,-8.83581,1.34841,-7.88697,27.6448,5.46862,0.095967,10.0992,2.42606,2.10783,-2.98177e-14,-1.59028e-15,-27.084,-3.73794,-77.8423,27.7443,16.3447,-33.1222,-3.28086,7.12502,-6.33222,-33.1662,-2.98177e-14,-1.59028e-15,-42.2431,29.4713,65.3889,22.258,-8.43746,-19.0351,23.4454,7.12502,7.27128,53.3005,-6.96616,14.0529,20.2084,21.8903,-21.209,-20.2435,6.46079,-62.2206,19.6811,-26.0129,80.016,-15.3192,-3.19356,-6.92068
-2.24595,18.8435,9.3687,-0.0088438,155,-3.82079,13.6162,1.19409,1.07668,3.05877,1.99597,-0.0722833,-4.36763,1.08723,-1.0327,-9.14534,1.35729,-8.02635,27.6766,5.53455,0.0802156,10.1668,2.43098,2.14088,1.39149e-15,9.54166e-15,-26.9405,-3.55039,-78.0146,27.6323,16.046,-33.0741,-4.05702,7.12502,-6.28573,-33.9438,1.39149e-15,9.54166e-15,-41.94,29.2825,65.8251,22.5935,-8.18799,-18.8396,23.6028,7.12502,7.45994,53.4513,-7.03541,14.1529,20.3713,21.7961,-21.273,-20.2552,6.5556,-62.2968,19.9453,-25.9044,79.7457,-15.2003,-2.90379,-7.10826
