JuanDHNZ/ProyectoFinalCD/preprocessing/sports_trials_csv/13_37.csv
root1,root2,root3,root4,root5,root6,lowerback1,lowerback2,lowerback3,upperback1,upperback2,upperback3,thorax1,thorax2,thorax3,lowerneck1,lowerneck2,lowerneck3,upperneck1,upperneck2,upperneck3,head1,head2,head3,rclavicle1,rclavicle2,rhumerus1,rhumerus2,rhumerus3,rradius1,rwrist1,rhand1,rhand2,rfingers1,rthumb1,rthumb2,lclavicle1,lclavicle2,lhumerus1,lhumerus2,lhumerus3,lradius1,lwrist1,lhand1,lhand2,lfingers1,lthumb1,lthumb2,rfemur1,rfemur2,rfemur3,rtibia1,rfoot1,rfoot2,rtoes1,lfemur1,lfemur2,lfemur3,ltibia1,lfoot1,lfoot2,ltoes1
-13.8396,18.7285,-0.540329,2.40861,-14.239,1.0682,2.26081,-0.947326,-1.92149,-0.850945,-1.32585,-0.109659,-2.09911,-0.636825,1.01737,-10.3025,-3.7233,-9.60861,16.3759,-4.82937,7.71778,7.1219,-2.27963,3.65061,-3.60546e-14,-1.93815e-15,-33.6857,-5.11655,-78.2024,26.4634,19.3544,-22.4663,-1.78373,7.12502,3.95849,-31.7267,-3.60546e-14,-1.93815e-15,-32.4892,23.9267,75.0058,19.2329,-10.3302,-22.4468,22.8388,7.12502,3.97732,52.7814,-8.47365,20.1432,22.4729,23.6778,-15.5421,-3.57434,5.25222,-5.3936,-8.94249,-18.6654,21.3721,-18.0841,18.6788,-5.93192
-13.8459,18.7273,-0.537553,2.35215,-14.0998,1.15072,2.25055,-0.954235,-1.94324,-0.768411,-1.33527,-0.153041,-2.00882,-0.642984,0.984267,-10.5157,-3.71085,-9.50691,16.4658,-4.80108,7.64239,7.1818,-2.26162,3.61006,9.41587e-15,6.31141e-15,-33.5602,-5.32483,-78.1618,26.4345,19.8472,-23.2135,-0.332489,7.12502,3.23694,-30.2877,9.41587e-15,6.31141e-15,-32.3167,23.829,75.1178,19.3238,-10.3435,-22.34,22.685,7.12502,4.08042,52.6256,-8.43285,20.1513,22.4363,23.7421,-15.6234,-3.69599,5.50659,-5.31699,-8.93185,-18.7219,21.2983,-17.9679,18.5439,-5.48464
-13.8512,18.7254,-0.532566,2.31936,-13.9796,1.18815,2.22,-0.982351,-1.90062,-0.706876,-1.37051,-0.18327,-1.92908,-0.662491,0.929403,-10.7112,-3.66139,-9.42624,16.5786,-4.72534,7.58901,7.24269,-2.22098,3.58568,1.16957e-14,5.11871e-15,-33.4294,-5.38022,-78.213,26.2714,19.7436,-23.6043,0.476567,7.12502,2.85949,-29.484,1.16957e-14,5.11871e-15,-32.2159,23.8328,75.1747,19.4491,-10.2654,-22.3804,22.6282,7.12502,4.04146,52.5696,-8.33339,20.1474,22.4313,23.6829,-15.6513,-3.76425,5.70619,-5.31477,-9.03058,-18.7269,21.368,-18.1901,18.3332,-4.47817
-13.8578,18.7229,-0.530314,2.35434,-13.9318,1.02937,2.21349,-0.95716,-1.7044,-0.692527,-1.33003,-0.14657,-1.91534,-0.644622,0.855386,-10.7369,-3.66943,-9.39314,16.5913,-4.73182,7.54205,7.25013,-2.22539,3.56373,-3.03224e-14,5.31749e-15,-33.3253,-5.47805,-78.1981,26.0955,19.8651,-23.4512,-0.102423,7.12502,3.00738,-30.061,-3.03224e-14,5.31749e-15,-32.1954,23.6938,75.2884,19.647,-10.0606,-22.436,22.5931,7.12502,3.98777,52.5355,-8.31577,20.2235,22.6299,23.6867,-15.6493,-3.86131,5.67919,-5.32266,-9.17347,-18.492,21.4074,-18.6738,18.049,-2.71453
-13.8643,18.721,-0.529867,2.38678,-13.8982,0.914263,2.24018,-0.928395,-1.55005,-0.726433,-1.28728,-0.111558,-1.96877,-0.624286,0.804168,-10.7857,-3.64266,-9.4815,16.7737,-4.69769,7.61522,7.31862,-2.2082,3.60778,5.97332e-14,-3.67752e-15,-33.3395,-5.51342,-78.1502,25.9528,20.0906,-23.258,-1.0783,7.12502,3.19392,-31.0341,5.97332e-14,-3.67752e-15,-32.2425,23.3441,75.4409,19.8733,-9.66496,-22.4424,22.6928,7.12502,3.98156,52.6354,-8.30217,20.3245,22.7847,23.6849,-15.6615,-3.97998,5.64644,-5.3637,-9.01124,-18.3227,21.4605,-18.5937,17.8703,-2.8559
-13.8688,18.718,-0.530345,2.33931,-13.8547,1.00189,2.35998,-0.903823,-1.59172,-0.79666,-1.259,-0.118823,-2.10819,-0.608138,0.821986,-10.6947,-3.546,-9.55235,16.9122,-4.57226,7.64262,7.33788,-2.15303,3.6442,3.84842e-14,-6.95746e-15,-33.5165,-5.41566,-78.1186,25.8671,19.7547,-23.8913,-0.345233,7.12502,2.58232,-30.3093,3.84842e-14,-6.95746e-15,-32.3912,23.051,75.5449,20.0952,-9.27927,-22.4377,22.6774,7.12502,3.98606,52.6199,-8.26346,20.3588,22.7199,23.6749,-15.6614,-4.07194,4.99219,-5.36684,-8.69685,-18.4165,21.4882,-18.1444,17.904,-4.86255
-13.8748,18.7172,-0.528957,2.3017,-13.7669,1.0398,2.40018,-0.876591,-1.5814,-0.792505,-1.22344,-0.136474,-2.128,-0.590496,0.797362,-10.5692,-3.47471,-9.49095,16.852,-4.47739,7.55925,7.2839,-2.11307,3.61644,-2.35894e-14,1.49089e-16,-33.6007,-5.51498,-78.1013,25.5941,18.7568,-25.5283,2.36576,7.12502,1.00137,-27.6116,-2.35894e-14,1.49089e-16,-32.3657,22.8101,75.6528,20.2436,-9.00529,-22.4038,22.6941,7.12502,4.0188,52.6359,-8.22531,20.3446,22.725,23.722,-15.7383,-4.12598,5.52751,-5.40241,-8.78057,-18.4017,21.5268,-18.3023,17.7718,-4.64818
-13.8829,18.7209,-0.527256,2.26387,-13.6525,1.1217,2.39861,-0.866989,-1.64453,-0.752697,-1.213,-0.175642,-2.08607,-0.585284,0.791676,-10.581,-3.40321,-9.34246,16.8423,-4.38839,7.47757,7.2693,-2.06756,3.57333,1.62662e-14,-8.07563e-15,-33.6235,-5.73254,-78.0535,25.9525,20.0948,-23.9072,-0.258114,7.12502,2.56696,-30.2224,1.62662e-14,-8.07563e-15,-32.2573,22.5751,75.7503,20.3798,-8.79657,-22.3993,22.8203,7.12502,4.02322,52.7621,-8.20725,20.3625,22.6935,23.8048,-15.8063,-4.2433,5.70348,-5.50392,-9.51939,-18.3439,21.5324,-19.1858,17.412,-0.855514
-13.8907,18.7139,-0.526457,2.30759,-13.59,1.04116,2.38147,-0.852579,-1.55886,-0.746881,-1.19026,-0.15786,-2.07236,-0.57507,0.760654,-10.5774,-3.31183,-9.2358,16.849,-4.26918,7.40905,7.256,-2.00955,3.54495,-1.75924e-14,5.46658e-16,-33.574,-5.80657,-78.0571,25.9147,20.5436,-23.1794,-1.27914,7.12502,3.26982,-31.2338,-1.75924e-14,5.46658e-16,-32.2201,22.2648,75.8655,20.6029,-8.42148,-22.4103,22.6203,7.12502,4.01258,52.5623,-8.25735,20.4353,22.8178,23.8802,-15.7949,-4.37912,5.88381,-5.42053,-8.7175,-18.2417,21.5285,-18.5015,17.103,-3.74267
-13.8977,18.7093,-0.52549,2.35329,-13.5315,1.03747,2.2999,-0.824164,-1.53206,-0.714584,-1.14927,-0.140497,-1.99451,-0.555641,0.76009,-10.6101,-3.22648,-9.19851,16.8806,-4.13897,7.31667,7.25775,-1.95198,3.52122,-3.53165e-14,5.34234e-16,-33.4523,-5.73105,-78.0845,25.804,20.471,-22.8934,-1.61828,7.12502,3.54606,-31.5685,-3.53165e-14,5.34234e-16,-32.1564,22.2397,75.9502,20.8035,-8.35386,-22.3581,22.4833,7.12502,4.06301,52.4243,-8.34694,20.4685,22.8424,23.9857,-15.8379,-4.45075,5.90354,-5.49185,-8.39541,-18.1724,21.5624,-18.3911,16.7712,-4.2162
-13.9036,18.7071,-0.52302,2.32101,-13.4604,1.07289,2.24929,-0.792252,-1.48052,-0.674279,-1.10431,-0.16813,-1.92728,-0.534727,0.699948,-10.59,-3.12814,-9.17314,16.9783,-4.00029,7.24281,7.27151,-1.8911,3.50768,-1.46844e-14,2.83268e-15,-33.4408,-5.64315,-78.1724,25.7132,20.0349,-23.2578,-1.02451,7.12502,3.19416,-30.9803,-1.46844e-14,2.83268e-15,-32.1106,22.1112,75.9991,20.9976,-8.17749,-22.2128,22.3412,7.12502,4.20333,52.2795,-8.36246,20.4205,22.8439,24.1219,-15.9291,-4.48688,5.79724,-5.63907,-8.55294,-18.1163,21.6512,-18.6429,16.5672,-2.82778
-13.9092,18.7012,-0.517956,2.25391,-13.3887,1.11192,2.22276,-0.745526,-1.40837,-0.626723,-1.03968,-0.211706,-1.86708,-0.504238,0.611609,-10.6365,-3.04874,-9.13639,17.1569,-3.88437,7.15198,7.32504,-1.84107,3.48474,-5.6496e-14,8.29926e-15,-33.496,-5.57753,-78.2556,25.5908,19.1853,-24.3482,0.791205,7.12502,2.14112,-29.1778,-5.6496e-14,8.29926e-15,-32.1082,21.9207,76.0364,21.2668,-7.89749,-22.286,22.3153,7.12502,4.13257,52.255,-8.30501,20.3774,22.8587,24.2146,-16.0288,-4.49631,5.76856,-5.48494,-7.89117,-18.1573,21.7376,-18.1958,16.2707,-5.06164
-13.9161,18.6944,-0.514705,2.17477,-13.3035,1.07353,2.28658,-0.708224,-1.34059,-0.597119,-0.988682,-0.210415,-1.87467,-0.479608,0.573745,-10.6095,-2.94126,-9.04165,17.2503,-3.74387,7.06742,7.33467,-1.77601,3.45621,2.87667e-14,1.49089e-16,-33.6117,-5.52669,-78.3116,25.7301,19.0648,-24.6119,0.597046,7.12502,1.88637,-29.3744,2.87667e-14,1.49089e-16,-32.1441,21.8465,76.0277,21.496,-7.73772,-22.2437,22.3468,7.12502,4.17349,52.2856,-8.23343,20.3004,22.9692,24.329,-16.1033,-4.47679,5.88757,-5.42321,-7.50736,-18.0586,21.8542,-18.1567,15.905,-5.83766
-13.9249,18.6922,-0.517741,2.18402,-13.2259,0.957859,2.38476,-0.677311,-1.25448,-0.617336,-0.945814,-0.169306,-1.95204,-0.458354,0.567539,-10.4716,-2.80102,-8.91437,17.2551,-3.56589,6.96348,7.29177,-1.69411,3.4191,-1.90814e-14,-5.04416e-15,-33.7355,-5.37969,-78.3735,26.0754,19.6547,-23.7107,-0.750933,7.12502,2.75675,-30.7129,-1.90814e-14,-5.04416e-15,-32.1801,21.7213,76.0288,21.7063,-7.53503,-22.2105,22.2357,7.12502,4.20546,52.174,-8.28228,20.3383,23.1511,24.4793,-16.196,-4.62197,5.43555,-5.62367,-7.62146,-17.7559,22.0146,-18.8115,15.2484,-3.20689
-13.9339,18.6847,-0.520755,2.19477,-13.0808,1.00085,2.39687,-0.660824,-1.29684,-0.609751,-0.925511,-0.181409,-1.95099,-0.447829,0.578162,-10.4513,-2.68679,-8.85506,17.3533,-3.41417,6.90712,7.30487,-1.62337,3.4068,3.06404e-14,4.02539e-15,-33.7594,-5.24563,-78.4766,26.0986,19.4011,-23.7603,-0.0156177,7.12502,2.70889,-29.9782,3.06404e-14,4.02539e-15,-32.1206,21.4405,76.1211,21.8523,-7.36361,-22.305,22.1902,7.12502,4.11423,52.1302,-8.38118,20.2943,23.1536,24.6576,-16.3801,-4.77418,4.58675,-5.64033,-7.01988,-17.6812,22.1857,-18.8818,14.2859,-3.1087
-13.9421,18.6744,-0.515703,2.12001,-12.9236,1.07875,2.37329,-0.647674,-1.33112,-0.545333,-0.907986,-0.179249,-1.87142,-0.439479,0.59806,-10.6234,-2.58099,-8.87972,17.6567,-3.24662,6.82879,7.41934,-1.55044,3.40443,4.80579e-14,-1.33869e-15,-33.7642,-5.0476,-78.5403,25.8548,18.408,-24.1942,0.837803,7.12502,2.28982,-29.1297,4.80579e-14,-1.33869e-15,-32.0553,21.3343,76.2175,21.962,-7.33695,-22.4622,22.3029,7.12502,3.96249,52.2458,-8.35446,20.2428,23.1472,24.8331,-16.5647,-4.89016,4.45363,-5.64591,-6.24008,-17.6509,22.4275,-18.7015,13.4071,-4.00146
-13.9521,18.665,-0.512932,2.08822,-12.8098,0.998727,2.40838,-0.61875,-1.20755,-0.529522,-0.86565,-0.160917,-1.87723,-0.419641,0.546306,-10.6831,-2.41649,-8.9115,17.9505,-3.02406,6.84631,7.50726,-1.44572,3.44164,2.27593e-15,-3.00662e-15,-33.9242,-5.04358,-78.5384,25.9653,18.5211,-23.3849,-0.204119,7.12502,3.07135,-30.1617,2.27593e-15,-3.00662e-15,-32.0466,21.2259,76.2285,22.0905,-7.25724,-22.4673,22.4477,7.12502,3.95756,52.3907,-8.38622,20.3066,23.3157,25.0737,-16.7484,-5.02848,4.88565,-5.76501,-5.51688,-17.4284,22.7323,-18.5643,12.6523,-4.66852
-13.9595,18.6572,-0.515381,2.17057,-12.6597,0.793194,2.44213,-0.606392,-0.955855,-0.564207,-0.840945,-0.105737,-1.93491,-0.409394,0.461548,-10.6452,-2.26012,-8.85485,18.1675,-2.81186,6.75003,7.55103,-1.35147,3.42439,4.0844e-16,5.02552e-15,-34.0464,-5.11513,-78.4774,26.2959,19.4557,-22.8044,-0.490327,7.12502,3.63203,-30.4391,4.0844e-16,5.02552e-15,-32.0971,21.1229,76.2231,22.3082,-7.09083,-22.4588,22.5503,7.12502,3.96574,52.4932,-8.5281,20.2614,23.5646,25.2836,-16.892,-5.10247,5.04806,-6.07595,-4.86406,-17.0618,23.1229,-18.4031,11.9668,-5.72789
-13.9647,18.6467,-0.516096,2.15876,-12.474,0.788635,2.47112,-0.598037,-0.893838,-0.542131,-0.828204,-0.115885,-1.92973,-0.403896,0.416081,-10.6407,-2.12533,-8.67665,18.3482,-2.62858,6.55942,7.5892,-1.27032,3.35158,2.71267e-14,3.35449e-16,-34.0047,-5.09163,-78.5252,26.375,19.795,-22.744,-0.344617,7.12502,3.6903,-30.2924,2.71267e-14,3.35449e-16,-32.1176,21.0212,76.2024,22.5589,-6.87725,-22.5371,22.8419,7.12502,3.8901,52.7862,-8.6011,20.0959,23.606,25.4938,-17.0432,-5.13357,4.89454,-6.34051,-4.11438,-16.9226,23.5753,-18.3194,11.1078,-6.8957
-13.9719,18.637,-0.515445,2.12145,-12.3703,0.708441,2.49805,-0.545317,-0.779371,-0.507401,-0.753896,-0.0944012,-1.91136,-0.368147,0.371015,-10.57,-1.95163,-8.51479,18.4811,-2.4002,6.41236,7.59731,-1.16553,3.29995,1.59921e-14,-3.2054e-15,-33.9861,-5.07994,-78.5667,26.218,19.8263,-22.6261,-0.902456,7.12502,3.80418,-30.8482,1.59921e-14,-3.2054e-15,-32.213,20.827,76.2416,22.9447,-6.45812,-22.5638,23.2446,7.12502,3.86436,53.1893,-8.62819,19.8764,23.7364,25.6846,-17.1303,-5.04221,4.77208,-6.61528,-3.34653,-16.6768,24.1101,-18.336,10.1528,-7.19319
-13.9781,18.6278,-0.513588,2.06675,-12.2923,0.702288,2.52163,-0.47761,-0.690439,-0.472667,-0.661268,-0.119992,-1.89135,-0.323196,0.291207,-10.531,-1.78351,-8.39079,18.6566,-2.19029,6.36229,7.6284,-1.06327,3.28581,1.25227e-14,4.5969e-15,-33.9953,-5.08225,-78.6283,26.0698,19.7953,-22.7179,-1.57277,7.12502,3.71556,-31.5201,1.25227e-14,4.5969e-15,-32.2489,20.513,76.3255,23.3124,-5.82973,-22.5749,23.5826,7.12502,3.85362,53.5275,-8.65562,19.5576,23.764,25.8895,-17.2105,-4.7901,4.8415,-6.90717,-2.74107,-16.5376,24.7002,-18.3634,9.26546,-6.26413
-13.9819,18.6182,-0.511222,1.99459,-12.083,0.646095,2.58851,-0.463687,-0.491794,-0.424675,-0.637194,-0.153969,-1.88241,-0.313638,0.144443,-10.4986,-1.65262,-8.18211,18.8519,-2.01904,6.1695,7.66914,-0.986566,3.20606,5.45881e-15,1.0666e-14,-33.9997,-5.03627,-78.7251,26.0203,19.72,-22.8266,-1.51479,7.12502,3.6106,-31.464,5.45881e-15,1.0666e-14,-32.234,20.3674,76.3182,23.5623,-5.58415,-22.4662,23.9613,7.12502,3.95858,53.9043,-8.60966,19.249,23.8602,26.0331,-17.2802,-4.6413,4.72341,-7.25049,-2.22987,-16.372,25.4435,-18.3127,8.45949,-5.8163
-13.9874,18.6085,-0.512646,1.91675,-11.8334,0.641084,2.69378,-0.45252,-0.409948,-0.383464,-0.620466,-0.174934,-1.9004,-0.306285,0.0771205,-10.5614,-1.53514,-8.06252,19.1855,-1.86889,6.08824,7.77655,-0.915913,3.1788,2.17163e-14,-4.09993e-16,-34.0664,-4.89311,-78.8134,26.0872,19.5691,-22.9527,-1.14491,7.12502,3.48878,-31.0961,2.17163e-14,-4.09993e-16,-32.1718,20.3474,76.2612,23.6222,-5.64807,-22.232,23.8809,7.12502,4.18473,53.8195,-8.55977,19.0476,23.9242,26.1589,-17.4462,-4.6526,4.8416,-7.70875,-1.67203,-16.2441,26.3223,-18.098,7.67484,-6.38019
-13.9934,18.5959,-0.520062,1.8839,-11.5901,0.443603,2.8338,-0.431517,-0.175097,-0.323129,-0.583831,-0.122731,-1.91902,-0.290228,-0.00169173,-10.609,-1.41381,-8.04131,19.3972,-1.71826,6.13959,7.84296,-0.838872,3.21097,1.52047e-14,-3.41661e-16,-34.0997,-4.69867,-78.8992,26.1771,19.3138,-22.8684,-0.71599,7.12502,3.57017,-30.6658,1.52047e-14,-3.41661e-16,-32.108,20.1977,76.2915,23.7502,-5.50481,-22.2164,23.7036,7.12502,4.19982,53.6419,-8.50793,18.8981,24.2165,26.2423,-17.5468,-4.77323,5.08039,-8.28717,-1.03023,-15.9007,27.3382,-17.8914,6.98819,-7.46668
-13.9992,18.5825,-0.529063,1.86712,-11.3369,0.127479,3.05393,-0.410257,0.19603,-0.273132,-0.541044,-0.0647693,-1.99418,-0.272499,-0.150718,-10.6775,-1.31482,-7.92212,19.5926,-1.60045,6.12014,7.90937,-0.776423,3.19952,-2.41521e-14,7.06307e-15,-34.0807,-4.65708,-78.9775,26.1719,19.2331,-22.8356,-0.569437,7.12502,3.6019,-30.5187,-2.41521e-14,7.06307e-15,-32.1183,19.7387,76.4075,24.1139,-5.07463,-22.2721,24.0453,7.12502,4.14599,53.9847,-8.47645,18.6324,24.6135,26.3097,-17.5618,-4.71823,5.57339,-8.90163,-0.292671,-15.4232,28.4003,-17.8408,6.15891,-7.57428
-14.005,18.5722,-0.53613,1.83839,-11.0718,-0.191646,3.24058,-0.388531,0.597884,-0.204038,-0.49497,-0.00734305,-2.03075,-0.253472,-0.318261,-10.7967,-1.24029,-7.87207,19.8386,-1.51775,6.17997,8.00569,-0.727937,3.22417,1.14452e-15,6.06138e-15,-34.0665,-4.75318,-79.0065,26.1874,19.2697,-22.865,-0.738411,7.12502,3.57346,-30.6882,1.14452e-15,6.06138e-15,-32.0411,19.4396,76.4735,24.3742,-4.92521,-22.0099,24.4316,7.12502,4.39922,54.3659,-8.47731,18.3117,24.996,26.4359,-17.658,-4.53937,6.02956,-9.59764,0.315956,-14.9195,29.5375,-17.9059,5.1707,-6.03413
-14.0121,18.5672,-0.538445,1.75687,-10.8216,-0.273616,3.3637,-0.373314,0.699113,-0.12981,-0.468942,0.0473816,-2.02374,-0.241086,-0.319659,-10.8175,-1.13829,-7.90497,20.0521,-1.39268,6.26413,8.07086,-0.664351,3.27481,7.08326e-15,3.96327e-15,-34.0678,-4.66188,-78.9906,26.1847,19.2976,-22.8205,-0.564758,7.12502,3.61647,-30.5138,7.08326e-15,3.96327e-15,-31.939,19.2684,76.5983,24.5117,-4.68632,-21.7259,24.7375,7.12502,4.67343,54.666,-8.45937,17.933,25.1281,26.6147,-17.7833,-4.37117,6.10577,-10.3167,0.687094,-14.6798,30.6581,-17.8791,4.24391,-3.82519
-14.0176,18.5524,-0.541364,1.61714,-10.5614,-0.194404,3.58518,-0.356338,0.640114,-0.0939826,-0.447455,0.0313003,-2.11063,-0.229985,-0.302875,-10.7294,-1.0234,-7.76729,20.2334,-1.27999,6.29834,8.10486,-0.599936,3.27764,-3.64304e-14,5.14355e-15,-34.1233,-4.43316,-79.0822,26.2051,19.1497,-22.7086,-0.304023,7.12502,3.72451,-30.2512,-3.64304e-14,5.14355e-15,-31.9612,19.0226,76.6621,24.6996,-4.33633,-21.4965,24.9102,7.12502,4.89499,54.8337,-8.42436,17.4972,25.0992,26.8172,-17.8619,-4.2414,5.95921,-10.7269,1.57559,-14.7527,31.7862,-17.505,3.72215,-5.86388
-14.0231,18.5436,-0.544378,1.50795,-10.2784,-0.153511,3.82364,-0.348849,0.634588,-0.0878726,-0.436775,-0.00585129,-2.23828,-0.225121,-0.336993,-10.6169,-0.901722,-7.59374,20.4443,-1.16949,6.3413,8.14427,-0.533481,3.2776,-1.97799e-14,-1.11816e-16,-34.2622,-4.12922,-79.2606,26.4008,18.7776,-22.5152,-0.63907,7.12502,3.91125,-30.5829,-1.97799e-14,-1.11816e-16,-31.9887,18.8005,76.6396,24.85,-4.1206,-21.3225,25.1598,7.12502,5.06295,55.0793,-8.40807,17.2391,25.1049,27.0079,-17.9237,-4.22481,5.90774,-11.3184,2.2379,-14.7327,32.9181,-17.0175,3.18374,-6.82726
-14.0289,18.5377,-0.545016,1.41822,-10.0212,-0.149844,3.94887,-0.346322,0.667606,-0.0343378,-0.431431,-0.0172317,-2.25382,-0.222807,-0.366926,-10.5456,-0.77387,-7.52774,20.6283,-1.03495,6.43006,8.18134,-0.4584,3.31339,-9.9734e-15,-5.00689e-15,-34.3549,-3.74931,-79.4451,26.5327,18.444,-22.4493,-1.08288,7.12502,3.9749,-31.0255,-9.9734e-15,-5.00689e-15,-32.0125,18.7175,76.5883,24.9621,-4.00029,-21.2973,25.2565,7.12502,5.0873,55.1754,-8.37805,17.1726,25.1588,27.1777,-17.9429,-4.34461,5.93084,-12.0155,2.81032,-14.6344,34.1202,-16.4851,2.56246,-7.05834
-14.0373,18.5324,-0.545272,1.32447,-9.74811,-0.183843,3.99222,-0.330913,0.690273,0.0938712,-0.40923,0.0192048,-2.14606,-0.211177,-0.343752,-10.5668,-0.665326,-7.4894,20.7924,-0.909403,6.49746,8.22972,-0.390016,3.34592,-2.83913e-14,1.56543e-15,-34.2074,-3.40164,-79.5777,26.4061,18.166,-22.3735,-1.4167,7.12502,4.04814,-31.358,-2.83913e-14,1.56543e-15,-31.9612,18.7033,76.6254,25.0993,-4.03667,-21.3162,25.3788,7.12502,5.06904,55.2982,-8.27818,17.1473,25.285,27.2622,-18.0531,-4.58392,5.75305,-12.704,3.35149,-14.4967,35.3331,-15.8735,2.06786,-7.19433
-14.0435,18.5286,-0.547584,1.28458,-9.33603,-0.267895,4.09566,-0.349095,0.836385,0.149776,-0.425626,0.0374011,-2.14775,-0.220599,-0.405645,-10.5525,-0.55456,-7.40614,20.9872,-0.794744,6.5713,8.2825,-0.323366,3.37255,1.44088e-14,-4.72114e-15,-34.1757,-3.20019,-79.6848,26.3456,18.1119,-22.4359,-1.56235,7.12502,3.98785,-31.5048,1.44088e-14,-4.72114e-15,-31.904,18.594,76.6667,25.1625,-3.96011,-21.5223,25.3985,7.12502,4.87,55.3225,-8.22155,16.9678,25.4353,27.3063,-18.3592,-4.7291,6.61298,-13.481,3.74646,-14.3218,36.5746,-15.2948,1.62885,-7.46294
-14.0486,18.5242,-0.548928,1.22666,-8.8532,-0.271708,4.22768,-0.379591,0.92152,0.177987,-0.461301,0.0238842,-2.19405,-0.239393,-0.464401,-10.5209,-0.458807,-7.26713,21.2176,-0.707043,6.61075,8.34616,-0.268837,3.37611,-2.83656e-14,7.62836e-15,-34.2302,-3.34325,-79.6303,26.1989,18.6587,-22.8239,-0.645205,7.12502,3.61312,-30.5943,-2.83656e-14,7.62836e-15,-31.9084,18.6156,76.6239,25.1971,-3.9658,-21.8122,25.2349,7.12502,4.59009,55.1652,-8.11876,16.7664,25.4871,27.2928,-18.5261,-4.84128,7.39526,-14.2803,4.04452,-14.2408,37.8469,-14.6709,1.15949,-7.20518
-14.0562,18.5161,-0.548259,1.09084,-8.4928,-0.224962,4.39374,-0.357735,0.898898,0.23547,-0.432414,-0.00138673,-2.22765,-0.224828,-0.478616,-10.494,-0.399031,-7.12112,21.4879,-0.674211,6.65913,8.42872,-0.238822,3.37712,-2.71465e-15,-2.26118e-15,-34.2486,-3.45984,-79.5664,25.9101,19.4113,-23.4459,0.602065,7.12502,3.01249,-29.3564,-2.71465e-15,-2.26118e-15,-31.8657,18.653,76.549,25.1196,-4.15752,-21.9474,25.0328,7.12502,4.4596,54.9658,-7.90252,16.6697,25.532,27.2407,-18.6355,-5.02854,7.85937,-14.9799,4.46935,-14.2358,39.0953,-13.9995,0.842749,-7.54528
-14.0647,18.5152,-0.548116,0.934604,-8.25388,-0.375732,4.65341,-0.304,1.04841,0.297092,-0.349457,0.046983,-2.30918,-0.184911,-0.516921,-10.4651,-0.331844,-7.07058,21.7743,-0.633484,6.79796,8.51602,-0.203646,3.42675,3.19018e-14,-4.96962e-16,-34.2736,-3.29056,-79.587,25.7333,19.7078,-23.5923,1.09114,7.12502,2.87109,-28.8693,3.19018e-14,-4.96962e-16,-31.838,18.4949,76.5589,25.0448,-4.11479,-21.8227,24.8376,7.12502,4.58001,54.7681,-7.63125,16.6718,25.8183,27.1661,-18.6965,-5.28518,7.96265,-15.593,4.89614,-13.9987,40.2978,-13.2871,0.543772,-8.25613
-14.0705,18.518,-0.542333,0.809102,-8.08582,-0.406876,4.7645,-0.223617,1.13269,0.396244,-0.237332,0.0415128,-2.26795,-0.12931,-0.577052,-10.4501,-0.207263,-6.98687,22.0311,-0.511919,6.91395,8.58965,-0.129133,3.47077,1.47535e-16,7.03201e-15,-34.2435,-3.31025,-79.5984,25.6463,19.8305,-23.5412,1.28922,7.12502,2.92045,-28.6705,1.47535e-16,7.03201e-15,-31.7564,18.5149,76.5361,24.944,-4.15935,-21.6912,24.9763,7.12502,4.70699,54.904,-7.39995,16.6741,25.9261,27.0908,-18.7758,-5.39654,8.42067,-16.1921,5.23396,-13.8969,41.4481,-12.6616,0.187576,-8.47667
-14.0726,18.5159,-0.531413,0.68132,-7.96234,-0.312721,4.74559,-0.13312,1.13053,0.523207,-0.118888,0.00652415,-2.12472,-0.0691216,-0.619807,-10.4866,-0.0629519,-6.85506,22.357,-0.350074,6.93469,8.69384,-0.0406821,3.48048,1.4547e-14,1.06847e-15,-34.2409,-3.3258,-79.5678,25.5856,19.9719,-23.5496,1.8205,7.12502,2.91235,-28.1394,1.4547e-14,1.06847e-15,-31.6763,18.6449,76.4679,24.8747,-4.47182,-21.9525,24.6587,7.12502,4.45461,54.5918,-7.16535,16.6344,25.8668,27.0105,-18.8898,-5.41741,8.74508,-16.7762,5.59485,-13.9582,42.5744,-11.9939,-0.0502145,-8.65999
-14.0756,18.5151,-0.52462,0.607701,-7.7375,-0.30148,4.81332,-0.0784707,1.17072,0.562659,-0.0431934,0.0139476,-2.12066,-0.0315075,-0.639642,-10.4433,0.0775671,-6.76215,22.7026,-0.204057,7.00877,8.79137,0.0412384,3.51375,-6.39528e-15,-5.51627e-15,-34.3182,-3.19636,-79.5606,25.4901,19.932,-23.6971,2.06778,7.12502,2.76986,-27.894,-6.39528e-15,-5.51627e-15,-31.7696,18.6213,76.4311,24.9426,-4.74215,-22.5865,24.1391,7.12502,3.84237,54.0842,-7.02676,16.4826,25.8938,26.9599,-18.9523,-5.4975,8.94855,-17.4623,5.90971,-13.9164,43.6622,-11.1925,-0.153725,-8.77228
-14.0814,18.5138,-0.523313,0.572438,-7.48495,-0.378171,4.91956,-0.0217529,1.27106,0.589167,0.0399353,0.0543667,-2.15119,0.00917624,-0.659949,-10.3087,0.230745,-6.77088,22.9405,-0.035962,7.14727,8.83291,0.130989,3.58531,1.82758e-14,1.25731e-14,-34.3309,-3.02973,-79.5656,25.3622,19.7347,-23.7014,2.0744,7.12502,2.76571,-27.8874,1.82758e-14,1.25731e-14,-31.8421,18.6038,76.4477,24.974,-4.8439,-22.8673,23.994,7.12502,3.57128,53.9438,-6.94474,16.3691,26.0307,26.9304,-19.0072,-5.65626,9.11938,-18.2104,6.22523,-13.7675,44.7182,-10.3817,-0.167785,-9.79473
-14.0867,18.5156,-0.518576,0.518807,-7.22933,-0.343906,5.01694,0.0202066,1.26682,0.626536,0.0967401,0.0542942,-2.1661,0.037601,-0.661569,-10.3056,0.419171,-6.70529,23.2819,0.184897,7.22612,8.93095,0.247162,3.6336,-3.26783e-14,7.90169e-15,-34.3922,-2.86682,-79.6104,25.3643,19.6488,-23.6918,1.88612,7.12502,2.77505,-28.0756,-3.26783e-14,7.90169e-15,-31.8449,18.8207,76.3359,24.7128,-4.93963,-23.0661,23.4048,7.12502,3.37925,53.3578,-6.82659,16.1949,26.0508,26.8948,-19.0645,-5.80287,9.18781,-18.8847,6.5275,-13.7514,45.7131,-9.76554,-0.115274,-11.5112
-14.0904,18.5172,-0.512669,0.468372,-6.9265,-0.266638,5.10454,0.0232425,1.2211,0.67604,0.0987377,0.0364828,-2.16422,0.0391342,-0.654457,-10.3955,0.614045,-6.51899,23.6201,0.421278,7.19951,9.04617,0.371543,3.62778,-1.4269e-14,-1.07344e-14,-34.3977,-2.68389,-79.6958,25.3287,19.6457,-24.0328,1.91367,7.12502,2.44573,-28.0521,-1.4269e-14,-1.07344e-14,-31.8918,19.0255,76.1925,24.585,-4.88006,-22.6834,23.9701,7.12502,3.74887,53.9169,-6.69768,15.9691,26.0332,26.8381,-19.0771,-6.04595,8.63216,-19.5426,6.75326,-13.796,46.6099,-9.31056,0.0136086,-12.3735
-14.092,18.5191,-0.506401,0.476784,-6.61725,-0.269888,5.14557,0.0477319,1.28779,0.721523,0.135169,0.0305531,-2.1395,0.0571043,-0.700509,-10.5082,0.785839,-6.33481,23.9556,0.632461,7.15266,9.16819,0.482268,3.61353,-9.31803e-15,6.85807e-15,-34.3927,-2.73874,-79.6713,25.2403,19.8117,-24.3906,2.26889,7.12502,2.10014,-27.7005,-9.31803e-15,6.85807e-15,-31.9922,19.0348,76.1523,24.7713,-4.65954,-21.8407,24.9413,7.12502,4.56261,54.8721,-6.61534,15.7655,26.0799,26.7602,-19.0813,-6.29151,8.16307,-20.2412,6.9409,-13.7583,47.4032,-8.91243,0.21369,-12.8481
-14.0939,18.5245,-0.49032,0.431999,-6.41357,-0.156407,5.0672,0.106809,1.24626,0.83517,0.208881,0.00326812,-1.9773,0.0956173,-0.709816,-10.6151,0.96837,-6.16925,24.227,0.874255,7.0679,9.26592,0.601894,3.59078,3.8763e-15,1.1778e-14,-34.3826,-2.77753,-79.6221,25.2525,19.9744,-24.4455,2.27718,7.12502,2.04715,-27.6927,3.8763e-15,1.1778e-14,-32.0215,18.9946,76.1773,24.8001,-4.36905,-22.4373,24.2755,7.12502,3.98652,54.218,-6.46729,15.5997,25.9987,26.7103,-19.1528,-6.43013,7.85097,-20.7824,7.22381,-13.8531,48.1057,-8.68751,0.385478,-13.7934
-14.0961,18.5259,-0.473675,0.337801,-6.32233,-0.0791805,5.06489,0.216238,1.25925,0.942798,0.353581,-0.0358039,-1.86197,0.168837,-0.766492,-10.5859,1.12618,-6.04038,24.4394,1.07134,7.03376,9.32058,0.701179,3.58352,-1.81453e-14,2.48481e-15,-34.3572,-2.85444,-79.5919,25.2241,20.008,-24.4281,2.23732,7.12502,2.0639,-27.7324,-1.81453e-14,2.48481e-15,-31.994,18.7067,76.3035,24.7112,-3.80642,-23.315,23.8728,7.12502,3.1389,53.8294,-6.27142,15.5182,25.9817,26.6991,-19.1913,-6.59874,7.80623,-21.201,7.65456,-13.9341,48.7249,-8.70362,0.352561,-15.7303
-14.1006,18.519,-0.463982,0.302572,-6.26209,-0.112295,5.13828,0.334934,1.27692,0.970509,0.513932,-0.0108375,-1.87097,0.248825,-0.761699,-10.4591,1.32294,-5.96498,24.6961,1.31237,7.06344,9.36777,0.821452,3.61209,-3.03768e-15,-9.93923e-16,-34.3713,-2.61672,-79.6552,25.1405,19.6914,-24.29,2.03616,7.12502,2.19733,-27.9323,-3.03768e-15,-9.93923e-16,-32.0936,18.5525,76.3526,24.6953,-3.64442,-23.1412,24.6535,7.12502,3.30678,54.6076,-6.18657,15.611,26.091,26.7151,-19.2083,-6.81953,7.76716,-21.6591,8.1913,-13.9127,49.2309,-8.78598,-0.0321309,-16.6406
-14.1058,18.5138,-0.456376,0.279329,-6.20363,-0.0993582,5.27088,0.433262,1.20279,0.986934,0.643208,0.0214596,-1.92648,0.313472,-0.696678,-10.5074,1.55964,-5.86295,25.039,1.62447,7.04072,9.47494,0.973209,3.6315,2.19719e-14,-1.0138e-14,-34.3702,-2.37257,-79.6872,25.0636,19.5507,-24.0725,2.27599,7.12502,2.40735,-27.6902,2.19719e-14,-1.0138e-14,-32.2289,18.8078,76.1688,24.5805,-4.18485,-22.638,25.0418,7.12502,3.79271,54.9878,-6.13869,15.761,26.142,26.7471,-19.3103,-7.03001,7.529,-22.1106,8.68896,-13.9415,49.5891,-8.8436,-0.598353,-14.2778
-14.1068,18.5188,-0.445112,0.260716,-6.05852,0.11031,5.37415,0.513315,1.0211,0.989213,0.740041,-0.0174824,-1.98164,0.362425,-0.642466,-10.6603,1.77681,-5.74477,25.4387,1.91662,6.99319,9.6257,1.11501,3.64232,1.28278e-14,-1.41137e-14,-34.4218,-2.2974,-79.64,25.033,19.579,-24.2497,2.8587,7.12502,2.23617,-27.1093,1.28278e-14,-1.41137e-14,-32.3636,19.104,75.9961,24.3976,-4.38413,-22.5647,24.8937,7.12502,3.86343,54.8384,-6.11806,15.7877,25.9331,26.8003,-19.4776,-7.1301,7.42881,-22.556,9.01079,-14.2185,49.7687,-8.96846,-1.07201,-11.9109
-14.1053,18.526,-0.431206,0.249253,-5.87464,0.274963,5.43225,0.579821,0.937542,0.99279,0.82315,-0.0758341,-2.00921,0.404116,-0.661986,-10.7584,2.00084,-5.44416,25.7755,2.20835,6.8316,9.75005,1.26082,3.5788,6.34869e-15,-2.68359e-15,-34.5091,-2.2505,-79.6425,25.0685,19.5753,-24.4446,3.12235,7.12502,2.04801,-26.8476,6.34869e-15,-2.68359e-15,-32.5439,19.2258,75.8635,24.3264,-4.13117,-22.728,24.6066,7.12502,3.70572,54.5542,-6.08689,15.6932,25.7551,26.8411,-19.6116,-7.17612,7.51083,-22.9411,9.27031,-14.4606,49.78,-9.13317,-1.22614,-11.469
-14.1043,18.5319,-0.41811,0.221119,-5.74379,0.40159,5.54153,0.688083,0.88539,1.0004,0.963569,-0.151066,-2.05945,0.47403,-0.721382,-10.7259,2.19614,-5.09813,25.9842,2.45201,6.65369,9.81001,1.3865,3.48928,-6.22444e-15,1.2424e-14,-34.5568,-2.44206,-79.6298,24.9878,19.7706,-24.6969,2.84246,7.12502,1.80429,-27.1297,-6.22444e-15,1.2424e-14,-32.7937,19.2534,75.6751,24.3221,-4.23864,-22.9797,23.8777,7.12502,3.46272,53.8293,-6.04508,15.5584,25.6249,26.8856,-19.7159,-7.25633,7.20904,-23.2439,9.65089,-14.6575,49.6527,-9.2186,-1.03641,-11.6132
-14.1024,18.5336,-0.403742,0.194799,-5.67595,0.524206,5.63909,0.801143,0.814314,1.02546,1.10919,-0.211306,-2.0856,0.546874,-0.7552,-10.6719,2.36249,-4.92265,26.1414,2.67185,6.55527,9.84571,1.49372,3.45223,5.64051e-15,-1.49089e-15,-34.5483,-2.48393,-79.6631,24.8969,19.7956,-24.8282,2.53414,7.12502,1.67745,-27.439,5.64051e-15,-1.49089e-15,-33.0427,19.348,75.4906,24.3686,-4.5359,-22.8939,23.8255,7.12502,3.54555,53.7758,-5.99982,15.4533,25.4975,26.9222,-19.8206,-7.31038,6.60598,-23.5036,10.1377,-14.8541,49.4372,-9.34418,-0.669714,-11.6392
-14.1021,18.533,-0.388029,0.138602,-5.5449,0.68981,5.77453,0.880511,0.640179,1.04238,1.20469,-0.232282,-2.14521,0.59528,-0.68832,-10.6966,2.50073,-4.88849,26.3167,2.86778,6.52566,9.90136,1.58437,3.46392,9.93923e-16,-5.56597e-15,-34.5403,-2.24243,-79.7192,24.8302,19.6234,-24.9117,2.31264,7.12502,1.59686,-27.6611,9.93923e-16,-5.56597e-15,-33.2036,19.4939,75.3618,24.2708,-4.6984,-22.5842,24.2576,7.12502,3.84466,54.2026,-5.90515,15.3307,25.3442,26.9467,-19.9106,-7.39162,6.17746,-23.7197,10.5346,-15.1006,49.1611,-9.54245,-0.323355,-11.0959
-14.1026,18.5322,-0.371863,0.141829,-5.32829,0.732571,5.81516,0.906513,0.575666,1.10881,1.23555,-0.225251,-2.10059,0.611469,-0.64721,-10.8846,2.62504,-4.85273,26.5152,3.05143,6.49114,9.99849,1.66976,3.47774,-2.18663e-15,4.96962e-15,-34.4154,-2.06054,-79.7471,24.7691,19.5805,-24.9149,2.17836,7.12502,1.59373,-27.7954,-2.18663e-15,4.96962e-15,-33.1835,19.8367,75.2078,24.0643,-4.78241,-22.6087,24.0565,7.12502,3.821,54.002,-5.82602,15.2548,25.3319,26.9471,-19.9736,-7.60204,6.00074,-23.9951,10.8958,-15.2285,48.8462,-9.66167,-0.0443898,-10.6508
-14.1015,18.5363,-0.350477,0.177706,-5.01542,0.811267,5.73467,0.929178,0.556192,1.21614,1.26242,-0.293357,-1.94377,0.62587,-0.705445,-11.1026,2.69844,-4.86585,26.6895,3.14216,6.58388,10.0952,1.72222,3.53555,-1.09083e-14,1.53064e-14,-34.3113,-2.0711,-79.7933,24.7829,19.5852,-25.2151,2.10218,7.12502,1.3038,-27.8736,-1.09083e-14,1.53064e-14,-33.1144,20.0114,75.0805,23.9248,-4.62944,-22.7207,23.7729,7.12502,3.71282,53.7203,-5.74181,15.0761,25.266,26.9161,-20.0782,-7.89173,5.46217,-24.2702,11.1959,-15.413,48.4867,-9.87319,0.296338,-10.4901
-14.0998,18.5391,-0.329852,0.207853,-4.67388,0.847269,5.70455,0.970597,0.595524,1.31398,1.31784,-0.376867,-1.82264,0.654113,-0.815458,-11.2551,2.72906,-4.7518,26.7401,3.18088,6.53747,10.1444,1.74788,3.51016,-1.88908e-14,-1.0635e-14,-34.1373,-2.17942,-79.858,24.6401,19.4875,-25.3956,2.24041,7.12502,1.12949,-27.7363,-1.88908e-14,-1.0635e-14,-33.0775,19.9084,75.0295,23.8599,-4.25055,-22.7417,23.692,7.12502,3.69255,53.6398,-5.62564,15.02,25.2687,26.8278,-20.1706,-8.32389,4.72446,-24.5079,11.4152,-15.5634,48.0736,-10.1519,0.868688,-10.542
-14.0963,18.5393,-0.308629,0.205449,-4.35822,0.840183,5.76559,1.01106,0.65675,1.33888,1.37462,-0.423415,-1.82745,0.682226,-0.902582,-11.1495,2.75774,-4.636,26.6737,3.22722,6.41902,10.1021,1.76783,3.44786,-4.32357e-15,7.25564e-15,-34.1477,-2.43677,-79.8195,24.5204,19.5591,-25.1832,2.27737,7.12502,1.33466,-27.6982,-4.32357e-15,7.25564e-15,-33.3151,19.7234,74.9652,23.9286,-4.00036,-22.9176,23.7095,7.12502,3.52267,53.6601,-5.46084,14.9247,25.3062,26.7108,-20.2082,-8.65034,4.11171,-24.6734,11.665,-15.6885,47.5646,-10.3696,1.81593,-10.7515
-14.0919,18.5396,-0.287944,0.201881,-4.04814,0.793391,5.8662,1.04788,0.771314,1.34274,1.43014,-0.466294,-1.87454,0.709169,-1.01699,-10.9399,2.80425,-4.64247,26.5142,3.27973,6.46654,9.99848,1.79767,3.45949,2.85132e-15,-1.5207e-14,-34.2665,-2.54228,-79.8301,24.5494,19.5568,-24.8854,2.29591,7.12502,1.62227,-27.6777,2.85132e-15,-1.5207e-14,-33.5869,19.6303,74.8239,23.9609,-3.87694,-23.1111,23.8748,7.12502,3.33583,53.8284,-5.2971,14.7209,25.3691,26.5835,-19.8908,-9.06762,1.15744,-24.8191,11.9517,-15.7787,46.9032,-10.5476,2.84031,-11.0546
-14.0898,18.5395,-0.270853,0.27039,-3.75625,0.757592,5.9214,1.08479,0.851184,1.35965,1.48302,-0.533315,-1.88288,0.73519,-1.13551,-10.8893,2.77949,-4.70672,26.3979,3.22148,6.61823,9.9451,1.78307,3.5121,-2.89791e-15,1.69464e-14,-34.4056,-2.37428,-80.0179,24.7065,19.1386,-25.0502,2.55282,7.12502,1.46312,-27.4219,-2.89791e-15,1.69464e-14,-33.7535,19.6935,74.5966,23.9186,-3.86775,-23.1625,24.0038,7.12502,3.2862,53.9582,-5.21672,14.5892,25.4118,26.4326,-20.0176,-9.09053,2.4138,-25.0587,12.1736,-15.8675,46.1173,-10.6795,3.71668,-11.0992
-14.0884,18.5454,-0.247202,0.381625,-3.34838,0.873585,5.85387,1.06619,0.699353,1.36002,1.44756,-0.591208,-1.84804,0.718348,-1.10575,-10.8342,2.72707,-4.6709,26.3176,3.16794,6.51486,9.91266,1.75079,3.45925,-1.07468e-15,-1.41883e-14,-34.7113,-1.97252,-80.2076,25.012,18.6931,-25.5424,3.01861,7.12502,0.987705,-26.9588,-1.07468e-15,-1.41883e-14,-34.0369,19.9926,74.2832,23.8619,-4.0678,-23.1069,23.8577,7.12502,3.33986,53.8112,-5.14799,14.3909,25.269,26.2748,-20.1951,-9.23573,2.53539,-25.3212,12.1795,-16.1155,45.2552,-11.1695,4.63101,-15.5735
-14.0894,18.5495,-0.224274,0.468205,-2.85054,0.911134,5.81846,1.01325,0.514525,1.3727,1.36668,-0.558915,-1.82234,0.678981,-0.962143,-10.7567,2.73859,-4.66756,26.1783,3.22148,6.37735,9.84771,1.76153,3.40845,3.19298e-15,4.47266e-15,-34.8912,-1.66612,-80.2658,25.1351,18.5165,-25.7667,3.1607,7.12502,0.771047,-26.8176,3.19298e-15,4.47266e-15,-34.3338,20.4171,73.9934,23.761,-4.34604,-23.0455,23.3669,7.12502,3.39917,53.3195,-5.05021,14.1981,25.2536,26.1436,-20.3046,-9.60315,2.10588,-25.5526,12.2253,-16.2981,44.4016,-11.1035,5.65739,-14.2117
-14.0898,18.5456,-0.208151,0.566533,-2.42938,0.794751,5.87846,1.0063,0.554304,1.38057,1.36006,-0.558641,-1.8469,0.67545,-0.984859,-10.824,2.67379,-4.68131,26.1291,3.14317,6.36028,9.84853,1.72361,3.39665,-5.27711e-15,9.80257e-15,-34.8935,-1.64712,-80.3581,25.0917,18.4684,-25.6648,2.55628,7.12502,0.869445,-27.4217,-5.27711e-15,9.80257e-15,-34.4876,20.425,73.8354,23.6992,-4.33527,-22.9506,23.3821,7.12502,3.49079,53.3332,-4.98913,14.1462,25.4223,26.0037,-20.3398,-10.0776,2.31904,-25.7777,12.5097,-16.3763,43.5874,-10.8708,6.72427,-7.42688
-14.0891,18.5446,-0.186711,0.581429,-2.05579,0.67154,5.94446,1.03129,0.627193,1.44719,1.39779,-0.570965,-1.81234,0.694434,-1.04168,-10.8783,2.55314,-4.71783,26.0392,2.98841,6.35344,9.83663,1.64941,3.38239,-1.23922e-14,-1.09456e-14,-34.8554,-1.62273,-80.477,25.0942,18.5124,-25.6707,1.83683,7.12502,0.863755,-28.1412,-1.23922e-14,-1.09456e-14,-34.5114,20.3461,73.7323,23.6211,-4.36112,-22.9021,23.9118,7.12502,3.53767,53.8622,-4.84359,14.0485,25.5977,25.8441,-20.3469,-10.3899,2.47612,-25.8785,12.8524,-16.4426,42.7889,-11.0219,7.6147,-6.64141
-14.0862,18.5477,-0.153643,0.552371,-1.61911,0.543843,5.95201,1.02555,0.72627,1.53408,1.39594,-0.589098,-1.7244,0.694108,-1.11473,-10.9313,2.4421,-4.79691,25.912,2.83804,6.42062,9.80826,1.58173,3.40046,-1.78471e-14,-5.8393e-15,-34.7799,-1.59546,-80.5883,24.9591,18.7034,-25.9991,1.83536,7.12502,0.546597,-28.1437,-1.78471e-14,-5.8393e-15,-34.5569,20.4666,73.4894,23.4731,-4.5164,-22.7977,23.6492,7.12502,3.63848,53.5979,-4.56874,13.9093,25.7914,25.6433,-20.3613,-10.7023,2.22937,-25.9065,13.0221,-16.4618,41.9615,-11.1297,8.52913,-4.59008
-14.0823,18.5495,-0.118358,0.550241,-1.15202,0.579798,5.92557,0.999085,0.628537,1.58996,1.35433,-0.618066,-1.65481,0.674281,-1.08539,-11.0313,2.37196,-4.96977,25.9356,2.75288,6.53496,9.83607,1.53988,3.4649,-8.65335e-15,1.81391e-15,-34.7918,-1.43293,-80.6817,24.8732,18.6304,-26.3318,2.05627,7.12502,0.22525,-27.9234,-8.65335e-15,1.81391e-15,-34.7289,20.7402,73.2053,23.3198,-4.76903,-22.7587,23.1475,7.12502,3.67617,53.0956,-4.26064,13.7205,25.8046,25.3652,-20.3876,-11.0617,1.79834,-25.9318,13.1594,-16.6696,41.0666,-11.0748,9.55091,-1.99604
-14.0804,18.5508,-0.0858364,0.58111,-0.72033,0.577197,5.9089,1.0165,0.502169,1.62331,1.36994,-0.626445,-1.61367,0.682721,-1.02344,-11.1371,2.29973,-5.04303,25.9927,2.66529,6.56368,9.88126,1.49683,3.48327,5.03795e-15,5.31749e-15,-34.8738,-1.45329,-80.7076,24.8628,18.5307,-26.2646,2.37154,7.12502,0.290209,-27.608,5.03795e-15,5.31749e-15,-34.8746,21.0721,72.9313,23.0473,-5.00651,-22.5991,22.7743,7.12502,3.83022,52.7196,-3.94596,13.7296,25.8774,25.0094,-20.4658,-11.4629,1.8562,-26.0073,13.5306,-16.8722,40.1047,-10.8781,10.3688,-0.776736
-14.0824,18.552,-0.0588931,0.690951,-0.254329,0.251436,5.9373,1.02195,0.655952,1.57582,1.38808,-0.546622,-1.67624,0.690965,-1.03021,-11.0712,2.22802,-5.03506,25.9149,2.56779,6.54711,9.84796,1.45143,3.46128,-1.36664e-16,3.62782e-15,-35.062,-1.35683,-80.8141,24.9272,18.2511,-26.0561,2.58124,7.12502,0.491562,-27.3979,-1.36664e-16,3.62782e-15,-35.0466,21.468,72.5681,22.6651,-5.31547,-22.4379,22.4044,7.12502,3.98588,52.3469,-3.70196,13.81,26.3107,24.5634,-20.4946,-11.9368,2.11001,-26.26,13.9066,-16.7519,39.1071,-10.4518,11.2608,-0.831007
-14.0823,18.5577,-0.035931,0.819385,0.375178,0.0869596,6.01148,0.970021,0.713385,1.51695,1.32332,-0.527623,-1.77867,0.657738,-1.04054,-10.9483,2.17308,-5.01637,25.7476,2.50166,6.49042,9.77052,1.41713,3.42209,-8.08184e-15,2.29596e-14,-35.1244,-1.04533,-81.0098,24.854,17.8762,-26.1186,2.54016,7.12502,0.431208,-27.4391,-8.08184e-15,2.29596e-14,-35.2027,21.8781,72.1989,22.359,-5.82912,-22.4624,22.3092,7.12502,3.96222,52.2521,-3.483,13.711,26.5459,24.0704,-20.4118,-12.4001,2.19293,-26.5649,13.9857,-16.8138,38.0744,-9.88908,12.2486,-1.33599
-14.0772,18.5707,-0.00984967,0.942131,1.11858,0.0768828,5.99346,0.879226,0.692105,1.52069,1.20058,-0.563082,-1.76726,0.596744,-1.05566,-11.0588,2.1316,-5.03275,25.7754,2.45945,6.46752,9.80507,1.39508,3.41615,-1.07592e-14,-8.84592e-15,-35.0829,-0.455315,-81.3078,24.7855,17.3489,-26.4043,2.17737,7.12502,0.155227,-27.8023,-1.07592e-14,-8.84592e-15,-35.2502,22.3151,71.8443,21.997,-6.46171,-22.5104,21.8772,7.12502,3.91592,51.8209,-3.28127,13.3687,26.5533,23.6071,-20.4641,-12.6898,2.20126,-26.9517,13.9748,-17.0972,37.0585,-9.07788,13.1809,-3.09335
-14.0704,18.574,0.0199714,1.03558,1.68804,-0.0536857,5.98513,0.860724,0.78646,1.51603,1.18139,-0.58379,-1.76547,0.586946,-1.12839,-11.158,2.10157,-5.01933,25.8349,2.41005,6.50587,9.84845,1.37929,3.42683,9.13167e-15,-6.55989e-15,-35.1582,-0.401884,-81.4041,24.8166,17.3706,-26.0233,1.96796,7.12502,0.523259,-28.0111,9.13167e-15,-6.55989e-15,-35.3545,22.8884,71.375,21.5755,-7.10222,-22.535,21.0705,7.12502,3.89217,51.0147,-3.04332,13.0917,26.6924,23.1605,-20.4919,-12.9126,2.12493,-27.2159,14.1945,-17.2482,36.0368,-8.65939,13.7711,-3.11196
-14.0669,18.5647,0.0508991,1.10962,2.07099,-0.292128,6.05219,0.878983,0.874011,1.44391,1.21265,-0.533011,-1.87551,0.601247,-1.12973,-11.0867,2.09517,-4.99256,25.7913,2.4085,6.45671,9.82066,1.37617,3.40161,-4.06266e-15,1.78906e-15,-35.2931,-0.225686,-81.4889,24.7444,17.4266,-25.7636,2.34569,7.12502,0.774097,-27.6327,-4.06266e-15,1.78906e-15,-35.7773,23.5414,70.8291,21.3971,-7.70714,-22.4856,20.7642,7.12502,3.9399,50.7075,-2.73888,12.905,26.9776,22.6249,-20.4518,-13.1192,1.89564,-27.2262,14.2902,-17.1157,35.055,-9.14329,14.0156,0.41153
-14.0622,18.5625,0.0830916,1.17375,2.50756,-0.523627,6.09233,0.891843,0.953398,1.38251,1.23644,-0.476371,-1.95999,0.611993,-1.11933,-11.0247,2.09134,-4.97912,25.8146,2.41428,6.40181,9.81804,1.37427,3.38012,4.65902e-15,1.76918e-14,-35.3643,-0.143576,-81.5059,24.5281,17.5242,-25.9012,2.79552,7.12502,0.641149,-27.1833,4.65902e-15,1.76918e-14,-36.1156,23.8276,70.4947,21.3056,-7.99023,-22.4352,21.0402,7.12502,3.98856,50.9826,-2.37368,12.8656,27.2817,22.0125,-20.1037,-13.5039,1.46761,-27.3452,14.1208,-16.9381,34.1603,-9.35726,14.4981,1.48364
-14.0526,18.5778,0.116083,1.27705,3.0336,-0.641697,6.08877,0.901095,1.04388,1.36039,1.25396,-0.503724,-1.97772,0.620106,-1.19975,-11.0691,2.0901,-4.97727,25.8388,2.40846,6.4346,9.83507,1.37683,3.39288,2.80535e-14,1.43125e-14,-35.312,-0.455364,-81.4354,24.3269,17.8815,-25.9273,2.68352,7.12502,0.615972,-27.2953,2.80535e-14,1.43125e-14,-36.1882,24.1304,70.1792,21.0528,-8.29825,-22.4723,21.366,7.12502,3.95269,51.3091,-2.0264,12.8235,27.4318,21.3682,-19.9612,-13.8631,1.71679,-27.6315,13.9443,-16.9865,33.2859,-9.31848,15.2302,-0.874509
-14.0418,18.5984,0.157365,1.43196,3.49379,-0.661653,5.92493,0.920198,0.993841,1.37947,1.27431,-0.534198,-1.86658,0.631427,-1.20103,-11.2762,2.08697,-5.00359,25.9101,2.41292,6.46295,9.89953,1.38194,3.41556,-1.99033e-14,-1.0138e-14,-35.1947,-0.63224,-81.3884,24.1835,18.2433,-25.3364,2.1819,7.12502,1.1867,-27.7945,-1.99033e-14,-1.0138e-14,-36.238,24.6528,69.8081,20.7217,-8.73007,-22.5072,21.5072,7.12502,3.91901,51.4509,-1.68544,12.7016,27.4393,20.6925,-19.9276,-14.0981,1.70956,-27.7785,14.0877,-17.2523,32.3516,-11.4495,15.9737,9.47933
-14.0311,18.6052,0.203798,1.52254,3.92494,-0.647339,5.71686,0.960062,0.899216,1.43297,1.31947,-0.572355,-1.69558,0.65582,-1.18547,-11.3679,2.08849,-5.05929,25.9142,2.41842,6.525,9.91624,1.38802,3.4502,-9.64106e-15,-1.72943e-14,-35.1522,-0.683226,-81.3895,24.1265,18.3123,-25.0884,2.24272,7.12502,1.42614,-27.7323,-9.64106e-15,-1.72943e-14,-36.3231,25.1525,69.4331,20.3954,-9.17473,-22.4073,21.0991,7.12502,4.01545,51.041,-1.2497,12.5436,27.4411,20.0135,-19.8851,-14.3604,1.59617,-27.8003,14.2455,-17.5357,31.4383,-11.3292,16.581,8.40851
-14.0207,18.6038,0.242458,1.50744,4.34297,-0.651682,5.75925,1.01143,0.8238,1.45574,1.38276,-0.624743,-1.69461,0.687776,-1.20202,-11.2833,2.13648,-5.05818,25.8364,2.47827,6.56126,9.86693,1.42093,3.46457,-4.67144e-15,0,-35.2033,-0.68788,-81.4612,24.1145,18.3116,-25.4577,2.44097,7.12502,1.06947,-27.5361,-4.67144e-15,0,-36.4484,25.4543,69.0919,20.1446,-9.44991,-22.2137,20.5878,7.12502,4.2024,50.526,-0.780044,12.4727,27.516,19.448,-19.8108,-14.7355,1.52879,-27.8003,14.1684,-17.7062,30.519,-11.1301,17.5951,7.28191
-14.0094,18.6053,0.279124,1.53401,4.77379,-0.811883,5.8265,1.05254,0.906452,1.44832,1.44242,-0.645897,-1.73552,0.71701,-1.2759,-11.2064,2.19807,-5.01239,25.7134,2.55984,6.5546,9.80318,1.46367,3.45685,-8.19987e-16,-1.15295e-14,-35.2193,-0.641473,-81.5818,24.0274,18.2609,-25.9458,2.28449,7.12502,0.598073,-27.6944,-8.19987e-16,-1.15295e-14,-36.5541,25.7365,68.7609,19.9182,-9.66484,-22.094,20.6394,7.12502,4.31798,50.5754,-0.434614,12.3083,27.7275,18.9862,-19.7992,-14.9958,1.81174,-27.7215,13.955,-17.6582,29.6257,-11.6107,18.4257,7.72133
-13.9951,18.6055,0.324279,1.55287,5.09271,-0.855066,5.80713,1.13975,0.860442,1.45581,1.55483,-0.690761,-1.71382,0.773456,-1.30357,-11.1184,2.2352,-4.95686,25.5824,2.60884,6.53029,9.73748,1.49019,3.43718,-2.31584e-14,-1.17283e-14,-35.1313,-0.563751,-81.7058,23.6532,18.17,-26.0337,2.30585,7.12502,0.513163,-27.6733,-2.31584e-14,-1.17283e-14,-36.738,26.0449,68.3562,19.6615,-10.0006,-21.9189,21.0872,7.12502,4.48706,51.0197,-0.065625,12.0965,27.7815,18.5603,-19.8616,-15.0481,2.26213,-27.6099,13.8702,-17.7765,28.7757,-11.6774,19.4091,6.30185
-13.978,18.6081,0.365979,1.59483,5.46658,-0.855902,5.81327,1.20774,0.778119,1.45949,1.64014,-0.712415,-1.71272,0.816325,-1.28576,-11.1258,2.24333,-4.95489,25.5644,2.64556,6.44672,9.73199,1.49937,3.41105,-1.68967e-14,-9.14409e-15,-34.9505,-0.517323,-81.7199,23.1237,18.1315,-26.0322,2.62029,7.12502,0.514655,-27.3588,-1.68967e-14,-9.14409e-15,-36.9736,26.8516,67.719,19.1845,-10.9613,-22.1247,21.1573,7.12502,4.28838,51.0938,0.255404,11.9153,27.7724,18.1599,-20.0356,-15.0463,3.417,-27.5731,13.6605,-17.9379,28.0091,-11.6659,20.5765,4.84219
-13.9633,18.613,0.403739,1.66304,5.87739,-0.894055,5.77165,1.25101,0.722039,1.54146,1.69394,-0.743726,-1.60446,0.844508,-1.28784,-11.3863,2.25767,-4.95548,25.6238,2.69043,6.40149,9.80156,1.51773,3.40876,-2.09221e-14,-8.15017e-15,-34.7788,-0.583355,-81.715,22.8976,18.2831,-26.1043,2.74161,7.12502,0.44498,-27.2377,-2.09221e-14,-8.15017e-15,-36.8809,27.3951,67.4283,18.8706,-11.2958,-22.1899,21.4159,7.12502,4.22544,51.3538,0.454407,11.8564,27.8291,17.8726,-20.2123,-15.2503,4.33187,-27.5563,13.2312,-17.9864,27.2142,-11.8899,21.9015,5.52073
-13.9465,18.6137,0.444886,1.75306,6.26591,-0.905725,5.71275,1.32682,0.688825,1.58665,1.79138,-0.830029,-1.52079,0.894093,-1.36217,-11.5574,2.25983,-4.91366,25.6432,2.69976,6.38065,9.84225,1.52603,3.40041,-3.27995e-15,-7.95139e-15,-34.8485,-0.768147,-81.684,22.9521,18.7068,-25.5466,2.82187,7.12502,0.983692,-27.1556,-3.27995e-15,-7.95139e-15,-36.6652,27.1021,67.6189,18.9098,-10.4985,-22.5248,22.9918,7.12502,3.902,52.9359,0.62329,11.7458,27.8388,17.6203,-20.3222,-15.4142,4.67846,-27.5605,12.6844,-18.0034,26.4869,-12.5442,23.2751,7.55217
-13.9272,18.6103,0.486988,1.86795,6.68804,-0.878286,5.66548,1.37915,0.578608,1.5731,1.85372,-0.883209,-1.50837,0.925481,-1.35812,-11.6145,2.23426,-5.00755,25.6504,2.67667,6.43359,9.85467,1.51387,3.43453,3.13086e-15,1.59028e-14,-34.9021,-0.821417,-81.6424,22.9515,19.0959,-25.1325,3.114,7.12502,1.38361,-26.8613,3.13086e-15,1.59028e-14,-36.7818,27.1476,67.5116,18.9012,-10.194,-23.326,24.6416,7.12502,3.12828,54.5984,0.765971,11.5157,27.798,17.4132,-20.3125,-15.5433,4.1175,-27.5899,12.1671,-18.1174,25.8365,-13.2384,24.7861,8.13545
-13.9057,18.611,0.528004,1.95426,7.03005,-1.01056,5.62345,1.45295,0.653426,1.5587,1.95529,-0.931536,-1.49275,0.976188,-1.45547,-11.5815,2.2006,-5.04287,25.5926,2.61149,6.54306,9.82901,1.49387,3.46938,-2.62893e-14,2.78299e-15,-34.8002,-0.974465,-81.6425,22.7838,19.4678,-25.4878,3.55542,7.12502,1.04042,-26.4218,-2.62893e-14,2.78299e-15,-36.9329,27.4234,67.1389,18.738,-10.4762,-23.7159,25.0539,7.12502,2.75173,55.0159,0.900609,11.3219,27.9214,17.2313,-20.1623,-15.6963,3.43282,-27.5968,11.7868,-18.0973,25.2719,-13.6761,26.3818,7.02374
-13.8838,18.6055,0.572954,1.9562,7.34305,-1.18427,5.63564,1.53747,0.750482,1.57729,2.07304,-0.955254,-1.47258,1.03514,-1.54201,-11.58,2.18105,-5.08279,25.5351,2.58662,6.5836,9.80835,1.48452,3.48584,-3.27995e-15,-9.14409e-15,-34.6582,-1.05289,-81.6595,22.6652,19.7256,-26.2077,4.1277,7.12502,0.3451,-25.8518,-3.27995e-15,-9.14409e-15,-36.9933,27.4071,67.0002,18.692,-10.4342,-23.5302,24.9708,7.12502,2.93106,54.9304,1.1386,11.2464,28.1214,17.0171,-20.0298,-15.8721,2.89767,-27.5255,11.4366,-18.0185,24.849,-14.289,27.732,6.42091
-13.8622,18.6029,0.619136,1.97323,7.73263,-1.27387,5.61416,1.58841,0.699785,1.61383,2.13845,-0.940725,-1.42343,1.06844,-1.50155,-11.5459,2.19906,-5.12309,25.4462,2.65337,6.47122,9.76728,1.50018,3.4563,2.57923e-14,-1.35174e-14,-34.5876,-0.733825,-81.7521,22.6737,19.673,-26.6975,4.30936,7.12502,-0.127883,-25.6703,2.57923e-14,-1.35174e-14,-37.0681,27.2815,67.0326,18.7681,-10.081,-23.3756,25.3461,7.12502,3.08039,55.3036,1.39721,11.2422,28.246,16.7863,-20.1006,-16.0491,2.87611,-27.6225,11.253,-18.1113,24.6167,-15.0988,28.9782,6.73281
-13.8427,18.6,0.659281,2.00622,8.12008,-1.4004,5.6345,1.6473,0.705768,1.62765,2.21706,-0.95879,-1.41718,1.10786,-1.52899,-11.5238,2.20037,-5.14285,25.3945,2.68044,6.40279,9.74402,1.50431,3.43621,3.73218e-14,5.56597e-15,-34.5338,-0.602842,-81.8475,22.6746,19.7927,-26.9338,4.06515,7.12502,-0.356189,-25.9143,3.73218e-14,5.56597e-15,-37.1143,27.2184,67.0014,18.8249,-9.7799,-23.3787,25.584,7.12502,3.07734,55.5416,1.57426,11.2278,28.4137,16.652,-20.1685,-16.3208,2.62526,-27.7969,11.0183,-18.133,24.4319,-16.5444,30.2142,8.62031
-13.8221,18.5953,0.698148,2.04135,8.45277,-1.46794,5.75408,1.7395,0.68797,1.60737,2.3373,-1.05191,-1.49766,1.16733,-1.62729,-11.5966,2.16603,-5.25431,25.4433,2.61728,6.58055,9.77398,1.48593,3.51491,-1.50082e-14,5.56597e-15,-34.5404,-0.495295,-82.0423,22.8047,19.6668,-26.7313,3.69536,7.12502,-0.16057,-26.2843,-1.50082e-14,5.56597e-15,-37.0777,27.1298,66.9201,18.8061,-9.63964,-23.5822,25.4041,7.12502,2.8809,55.3644,1.69474,11.2204,28.4918,16.6111,-20.2894,-16.4725,2.60958,-27.8314,11.0532,-18.3268,24.2944,-18.2813,30.7235,10.4572
-13.7954,18.5895,0.742764,2.111,8.83323,-1.54888,5.77014,1.81836,0.706627,1.58227,2.4421,-1.11984,-1.5252,1.21938,-1.71572,-11.5964,2.11458,-5.39983,25.435,2.5332,6.76663,9.77042,1.45539,3.59633,1.25234e-14,-3.97569e-16,-34.5387,-0.262714,-82.237,22.8616,19.2288,-26.6598,3.547,7.12502,-0.0915385,-26.4327,1.25234e-14,-3.97569e-16,-37.1132,27.1986,66.7734,18.7494,-9.79315,-23.6506,25.0045,7.12502,2.81478,54.9657,1.80601,11.0267,28.5361,16.55,-20.4634,-16.4757,3.00431,-28.0046,11.1434,-18.5504,24.324,-18.9278,31.1986,10.198
-13.7705,18.5774,0.791126,2.10366,9.21876,-1.75667,5.78304,1.87688,0.771225,1.55576,2.52381,-1.1139,-1.5543,1.2597,-1.7524,-11.4307,2.09172,-5.45591,25.3897,2.49056,6.84346,9.72277,1.43891,3.62289,1.80894e-14,2.14687e-14,-34.5029,-0.0652389,-82.3405,22.7527,19.206,-26.8019,4.01185,7.12502,-0.228766,-25.9678,1.80894e-14,2.14687e-14,-37.2571,27.1384,66.6682,18.8078,-9.7994,-23.5289,24.71,7.12502,2.93228,54.6696,1.96254,10.8133,28.7618,16.5448,-20.5951,-16.5686,2.77984,-28.2118,11.4598,-18.7062,24.3927,-18.2143,31.7795,8.70088
-13.7476,18.5727,0.838753,2.05512,9.55722,-1.92141,5.82879,1.98191,0.80768,1.53975,2.66476,-1.17148,-1.5868,1.3297,-1.84374,-11.1596,2.07918,-5.39748,25.273,2.43026,6.93691,9.63231,1.42637,3.62861,-1.30204e-14,-1.59028e-15,-34.4758,-0.207094,-82.3829,22.7118,19.4038,-27.0593,4.21877,7.12502,-0.477401,-25.7604,-1.30204e-14,-1.59028e-15,-37.2995,27.0511,66.5434,18.8429,-9.81023,-23.4879,24.4018,7.12502,2.97194,54.3608,2.16605,10.6051,28.957,16.5271,-20.5432,-16.7437,2.04813,-28.2358,11.772,-18.8458,24.4887,-18.4689,31.6046,8.82469
-13.7182,18.56,0.888353,2.0515,9.8614,-2.0251,5.80953,2.07234,0.762924,1.57869,2.7821,-1.21002,-1.53188,1.38917,-1.86439,-11.0222,2.06263,-5.29804,25.0929,2.4025,6.8707,9.54715,1.41595,3.57551,2.5345e-14,-2.50469e-14,-34.3384,-0.170653,-82.4403,22.7202,19.3939,-27.3643,4.26631,7.12502,-0.771901,-25.712,2.5345e-14,-2.50469e-14,-37.285,27.0393,66.5227,18.9198,-9.65493,-23.5485,24.1235,7.12502,2.91342,54.0834,2.36321,10.437,29.0613,16.5038,-20.7079,-16.8534,1.86166,-28.3089,11.8057,-18.9458,24.5894,-19.014,31.414,9.84499
-13.6838,18.5546,0.944779,2.0355,10.1294,-2.12935,5.74751,2.12739,0.740109,1.63947,2.85434,-1.21839,-1.43286,1.42658,-1.86068,-11.0493,2.08088,-5.34199,24.976,2.45475,6.8255,9.50758,1.43264,3.569,-2.8625e-14,1.11319e-14,-34.1881,0.0250601,-82.5091,22.7247,19.3014,-27.6352,4.66293,7.12502,-1.03354,-25.3143,-2.8625e-14,1.11319e-14,-37.3727,26.7539,66.7054,19.1898,-9.18897,-23.6329,24.479,7.12502,2.83194,54.4399,2.64095,10.2428,29.1352,16.4345,-20.5742,-16.9955,0.485277,-28.4033,12.0626,-19.1727,24.7776,-17.8457,31.6163,9.90471
-13.651,18.554,1.00422,1.94134,10.3794,-2.1271,5.78776,2.2075,0.64436,1.71372,2.95448,-1.31771,-1.37478,1.47785,-1.91548,-11.1071,2.11537,-5.29126,24.928,2.49935,6.82242,9.49942,1.45934,3.56359,-7.65321e-15,1.19271e-14,-34.0846,0.0994107,-82.6417,22.8327,19.3602,-27.5513,4.30289,7.12502,-0.952566,-25.6747,-7.65321e-15,1.19271e-14,-37.4067,26.3017,66.8601,19.4658,-8.81483,-23.6178,25.1268,7.12502,2.84648,55.0875,3.00943,10.2159,29.1202,16.3901,-20.6473,-17.056,0.050679,-28.2196,11.9428,-19.2694,24.9765,-17.8765,31.3937,11.8073
-13.6185,18.5458,1.06023,1.9198,10.6139,-2.25281,5.80299,2.31884,0.673803,1.71714,3.10304,-1.40465,-1.36774,1.55235,-2.03154,-11.0775,2.13715,-5.22691,24.9311,2.50484,6.87658,9.4943,1.47467,3.5717,2.56432e-14,1.19271e-14,-34.0137,0.0567319,-82.7174,22.9845,19.7468,-27.0993,3.73487,7.12502,-0.516029,-26.2442,2.56432e-14,1.19271e-14,-37.4478,25.935,66.9046,19.6513,-8.67058,-23.5696,25.0568,7.12502,2.89305,55.0169,3.23979,10.333,29.2593,16.3612,-20.8406,-17.2912,-0.261424,-28.2718,12.0075,-19.3634,25.2938,-17.1513,31.1564,11.8347
-13.5905,18.5318,1.11399,1.91505,10.8351,-2.54363,5.76615,2.40608,0.761618,1.73909,3.22451,-1.40199,-1.31515,1.61367,-2.08322,-11.1556,2.14199,-5.25119,24.9514,2.508,6.93482,9.51454,1.48177,3.59936,-2.51463e-14,2.06736e-14,-33.8,0.223092,-82.8191,23.049,19.835,-27.0875,3.54374,7.12502,-0.504585,-26.4354,-2.51463e-14,2.06736e-14,-37.5294,26.2666,66.6474,19.6989,-9.13535,-23.5181,24.2289,7.12502,2.94273,54.1884,3.37561,10.5326,29.6137,16.3908,-20.5198,-17.6458,-1.46925,-28.3472,12.1358,-19.2852,25.5866,-16.6082,30.6393,13.2522
-13.5624,18.523,1.16674,1.98024,11.1392,-2.75431,5.66435,2.43853,0.73041,1.75742,3.2665,-1.38127,-1.24094,1.63542,-2.04152,-11.2005,2.16993,-5.27239,24.9341,2.56102,6.91651,9.5133,1.50353,3.60262,1.10325e-14,7.95139e-15,-33.5903,0.439068,-82.9023,23.1127,19.8626,-27.1823,3.33782,7.12502,-0.596186,-26.6411,1.10325e-14,7.95139e-15,-37.5971,26.7338,66.383,19.6796,-9.43956,-23.4914,24.1812,7.12502,2.96859,54.1403,3.48339,10.422,29.8183,16.3544,-20.7163,-17.643,-1.10666,-28.4784,12.2896,-19.316,25.9071,-16.0844,29.9577,14.822
-13.5271,18.5228,1.22336,2.07915,11.5001,-2.69319,5.60154,2.47918,0.500952,1.70942,3.30666,-1.44189,-1.26319,1.65502,-1.97652,-11.0507,2.21725,-5.31469,24.8921,2.62757,6.94453,9.46358,1.53352,3.62137,2.85256e-14,5.56597e-15,-33.6077,0.396996,-82.8923,23.2692,20.0647,-27.0661,3.1425,7.12502,-0.483924,-26.8367,2.85256e-14,5.56597e-15,-37.7084,26.5342,66.4589,19.8015,-9.04076,-23.2109,24.7103,7.12502,3.23939,54.6654,3.68534,10.096,29.6719,16.2557,-20.9514,-17.4692,-0.901092,-28.6903,12.22,-19.5606,26.2235,-15.2847,29.7464,15.4382
-13.4918,18.5268,1.27792,2.11709,11.8024,-2.75205,5.62966,2.52128,0.432787,1.67376,3.35743,-1.50982,-1.31342,1.67993,-2.01396,-10.9487,2.27561,-5.33767,24.826,2.70733,6.97362,9.41389,1.57199,3.63866,1.28216e-14,2.38542e-15,-33.5596,0.484026,-83.0028,23.4047,19.9858,-27.1318,3.20523,7.12502,-0.547353,-26.7738,1.28216e-14,2.38542e-15,-37.7844,26.1579,66.5875,19.9754,-8.46128,-23.0997,24.6756,7.12502,3.34681,54.6291,3.8967,9.94076,29.7007,16.1765,-20.8975,-17.5489,-1.32058,-28.7976,11.8784,-19.4773,26.5108,-15.4963,29.7162,16.6793
-13.4588,18.5257,1.3295,2.17575,12.1238,-2.96394,5.6541,2.57686,0.517376,1.68443,3.43539,-1.56502,-1.30471,1.71919,-2.12366,-11.1416,2.28156,-5.38052,24.8575,2.71027,7.07412,9.4586,1.58284,3.68761,5.08889e-14,-2.70347e-14,-33.2827,0.479214,-83.086,23.401,19.9687,-27.4602,3.51526,7.12502,-0.864582,-26.4627,5.08889e-14,-2.70347e-14,-37.6557,25.7566,66.7662,20.1343,-8.04592,-23.3663,24.278,7.12502,3.08937,54.2354,4.01947,9.91836,29.9245,16.0843,-20.6605,-17.794,-1.69562,-28.9727,11.5719,-19.2543,26.7684,-15.4017,30.0026,16.3308
-13.4283,18.5242,1.38326,2.1992,12.4411,-3.01306,5.73401,2.66267,0.36844,1.72831,3.54016,-1.64325,-1.30391,1.77201,-2.1304,-11.2642,2.3038,-5.3211,24.7995,2.73209,7.09653,9.46063,1.60314,3.68856,-9.44227e-15,-8.74653e-15,-32.9538,0.527477,-83.1668,23.4317,19.8359,-27.5733,3.23068,7.12502,-0.973841,-26.7468,-9.44227e-15,-8.74653e-15,-37.5024,25.5287,66.8669,20.2488,-7.97729,-23.5918,24.2176,7.12502,2.87159,54.178,4.22437,9.80417,29.9922,16.0544,-20.415,-18.0376,-2.6256,-29.0087,11.3315,-19.2029,27.0232,-15.3831,30.1418,16.4876
-13.3973,18.5273,1.43995,2.25459,12.7531,-3.01907,5.7121,2.7234,0.15066,1.75075,3.60801,-1.72092,-1.27445,1.8064,-2.09111,-11.1795,2.37201,-5.2021,24.6492,2.83676,6.96504,9.3892,1.64889,3.62518,-5.40694e-14,8.74653e-15,-32.741,0.587171,-83.2687,23.5345,19.7911,-27.7701,3.29306,7.12502,-1.16389,-26.6835,-5.40694e-14,8.74653e-15,-37.4754,25.6172,66.768,20.2564,-8.19383,-23.5929,24.126,7.12502,2.87047,54.0864,4.32343,9.81602,30.0213,16.0458,-20.3931,-18.5202,-3.91597,-29.0958,11.187,-19.2213,27.3658,-15.2953,29.8643,17.2474
-13.362,18.5285,1.49564,2.38903,13.1049,-3.02166,5.559,2.76043,0.012891,1.76934,3.65011,-1.82984,-1.1701,1.82857,-2.11957,-11.1298,2.41236,-5.13884,24.5376,2.90722,6.86399,9.33913,1.67706,3.58095,-1.15295e-14,3.97569e-15,-32.502,0.488808,-83.3478,23.5893,19.8934,-27.9098,3.35973,7.12502,-1.29878,-26.6161,-1.15295e-14,3.97569e-15,-37.4044,25.6951,66.6727,20.205,-8.30693,-23.6025,23.9355,7.12502,2.86122,53.896,4.05239,10.0199,29.993,16.2259,-20.4192,-19.1612,-5.33498,-29.2918,11.293,-19.4095,27.5584,-14.129,29.5631,15.9894
-13.3206,18.5331,1.55779,2.42544,13.3224,-2.94125,5.55416,2.85458,-0.160883,1.74584,3.76362,-1.98054,-1.18842,1.88538,-2.185,-11.0575,2.41232,-5.14711,24.5513,2.90112,6.89694,9.32967,1.67736,3.59201,-3.37934e-15,7.95139e-15,-32.385,0.532728,-83.492,23.6727,19.6232,-27.8867,3.02132,7.12502,-1.27648,-26.9546,-3.37934e-15,7.95139e-15,-37.4026,25.6189,66.5883,20.1942,-8.09282,-23.6195,24.3451,7.12502,2.84486,54.3059,4.12253,9.81076,29.8412,16.4421,-20.3995,-19.2695,-6.79977,-29.2069,11.4532,-19.6591,27.8455,-14.1766,28.9559,16.3933
-13.2737,18.5371,1.62265,2.38254,13.4165,-2.72361,5.60113,3.00746,-0.486248,1.77097,3.94686,-2.14055,-1.19264,1.97724,-2.18145,-10.9158,2.42374,-5.18096,24.464,2.90998,6.95208,9.26952,1.68457,3.61102,-3.12092e-14,2.22639e-14,-32.2445,0.700449,-83.637,23.7103,19.1859,-27.8896,2.5606,7.12502,-1.27933,-27.4153,-3.12092e-14,2.22639e-14,-37.3916,25.4762,66.6031,20.2278,-7.88878,-23.7718,24.5292,7.12502,2.69771,54.4919,4.30052,9.77068,29.516,16.7508,-20.7863,-19.0437,-6.37737,-29.0085,11.423,-19.9188,28.0223,-13.9906,28.8101,16.595
-13.2304,18.5453,1.68255,2.41905,13.6486,-2.67444,5.5852,3.09675,-0.665549,1.78165,4.0552,-2.23795,-1.17444,2.03167,-2.18713,-10.7865,2.46782,-5.20796,24.3373,2.98086,6.938,9.19553,1.71389,3.60976,5.02925e-14,-2.70347e-14,-32.105,0.445603,-83.5955,23.7749,19.3327,-27.9006,2.41376,7.12502,-1.28989,-27.5621,5.02925e-14,-2.70347e-14,-37.3936,25.737,66.3945,20.0787,-8.3288,-23.8356,23.6842,7.12502,2.63611,53.6477,4.40528,9.49815,29.4223,16.9663,-20.9064,-19.0777,-6.71797,-28.9004,11.4536,-20.094,28.3129,-14.3397,28.1392,17.6718
-13.1892,18.5414,1.74273,2.51915,13.9846,-2.71046,5.50775,3.12506,-0.751113,1.75619,4.08836,-2.32611,-1.15595,2.0485,-2.22823,-10.7012,2.53713,-5.27136,24.2437,3.08519,6.96729,9.13732,1.7605,3.63527,2.52457e-14,7.95139e-15,-32.115,0.128398,-83.6039,24.0224,19.5913,-27.4183,2.34632,7.12502,-0.824066,-27.6318,2.52457e-14,7.95139e-15,-37.4352,26.0715,66.0829,19.8941,-8.72272,-23.728,22.8939,7.12502,2.74006,52.8561,4.38062,9.32327,29.4435,17.2631,-21.0827,-19.1654,-6.4096,-29.0055,11.3939,-20.2118,28.4708,-13.7374,27.9156,16.5763
-13.1439,18.543,1.80711,2.57884,14.2001,-2.89334,5.38282,3.21298,-0.708891,1.73106,4.2093,-2.38528,-1.10085,2.10942,-2.31267,-10.7072,2.61164,-5.26422,24.2623,3.18518,6.99399,9.13718,1.8117,3.65409,-8.18993e-14,7.15625e-15,-32.1863,-0.192047,-83.6094,24.406,19.7022,-25.8521,2.13243,7.12502,0.688598,-27.8462,-8.18993e-14,7.15625e-15,-37.4739,26.0299,65.9929,19.8983,-8.77575,-23.6529,22.8959,7.12502,2.81258,52.8571,4.39376,9.286,29.5815,17.419,-20.785,-19.3438,-6.7238,-29.0077,11.1334,-20.0474,28.7524,-14.2896,27.6207,17.899
-13.095,18.5598,1.86996,2.649,14.3909,-3.03724,5.27956,3.31402,-0.668456,1.68329,4.34612,-2.47998,-1.07741,2.1782,-2.43544,-10.7547,2.69838,-5.09006,24.407,3.29797,6.89654,9.19471,1.87046,3.6089,-2.8625e-14,-3.18055e-15,-32.1444,-0.320249,-83.6845,24.6698,19.6703,-24.7575,1.99161,7.12502,1.74577,-27.981,-2.8625e-14,-3.18055e-15,-37.4758,25.8155,66.0276,20.0016,-8.66867,-23.7828,23.3336,7.12502,2.68716,53.2965,4.39366,9.24738,29.617,17.4751,-20.4906,-19.4166,-7.21091,-29.0126,10.9054,-19.9712,28.9998,-14.3099,27.6264,18.2281
-13.0462,18.564,1.93486,2.6453,14.6279,-3.21651,5.22844,3.3748,-0.624861,1.67531,4.42984,-2.53007,-1.0468,2.22051,-2.5127,-10.9369,2.78104,-4.94967,24.5959,3.42769,6.75159,9.29321,1.9294,3.5602,3.79679e-14,-1.82882e-14,-31.9452,-0.220441,-83.8086,24.8047,19.4294,-24.7432,2.01685,7.12502,1.75954,-27.9556,3.79679e-14,-1.82882e-14,-37.4109,25.8155,66.0677,20.0469,-8.57222,-23.7144,23.6691,7.12502,2.75322,53.631,4.70332,8.96652,29.7051,17.3583,-20.3571,-19.1936,-7.13559,-28.9928,10.6949,-19.839,29.3368,-14.6792,27.3917,18.7535
-12.9936,18.5692,2.00338,2.64183,14.9027,-3.4524,5.14996,3.46754,-0.473041,1.68925,4.56329,-2.53734,-0.97123,2.28814,-2.60575,-11.1735,2.77759,-5.13935,24.7142,3.44901,6.85495,9.37138,1.9356,3.64188,1.51076e-14,-2.70347e-14,-31.8786,-0.130963,-83.8339,25.1166,19.0815,-24.7638,2.065,7.12502,1.73968,-27.9077,1.51076e-14,-2.70347e-14,-37.2235,25.6711,66.3036,20.0403,-8.38883,-23.7282,23.8619,7.12502,2.73985,53.824,5.03327,8.81022,29.8525,17.2074,-20.2453,-18.8781,-6.1126,-28.9692,10.6413,-19.7207,29.6307,-14.6644,27.027,18.6532
-12.9384,18.5759,2.07165,2.6651,15.2307,-3.57097,5.06113,3.54989,-0.407381,1.6754,4.67729,-2.61189,-0.919803,2.34601,-2.71907,-11.2208,2.81022,-5.10478,24.7506,3.50302,6.81296,9.39134,1.96058,3.62983,-1.72943e-14,-6.36111e-15,-31.9447,0.210477,-84.0236,25.4919,18.5101,-24.6372,1.88953,7.12502,1.86194,-28.0821,-1.72943e-14,-6.36111e-15,-37.0956,25.3706,66.4601,20.001,-8.28221,-23.8793,24.0018,7.12502,2.59394,53.9657,5.32216,8.38519,29.8614,17.0322,-19.7665,-18.5576,-5.00239,-28.9418,10.5639,-19.7865,29.9458,-14.48,26.7212,18.3768
-12.8812,18.5859,2.14282,2.72147,15.5628,-3.65807,4.83708,3.58965,-0.397265,1.66967,4.73485,-2.70286,-0.789921,2.37627,-2.80501,-11.2165,2.91736,-4.96594,24.8103,3.65133,6.71312,9.40712,2.03201,3.58896,1.00983e-13,-9.54166e-15,-31.8939,0.750623,-84.3213,25.7499,18.0156,-24.9444,1.75206,7.12502,1.56527,-28.2219,1.00983e-13,-9.54166e-15,-37.021,24.9065,66.6743,20.0405,-8.00773,-23.8564,24.3257,7.12502,2.61604,54.2894,5.5977,8.02283,29.8005,16.9578,-19.1069,-18.5181,-7.7729,-28.8858,10.0313,-19.6979,30.1863,-14.9711,26.6973,19.5006
-12.8274,18.6021,2.21095,2.76018,15.9118,-3.76682,4.71905,3.61623,-0.450003,1.63892,4.76942,-2.73501,-0.755838,2.39365,-2.80321,-11.2258,3.04739,-5.01975,24.8596,3.83522,6.77085,9.41048,2.11995,3.63907,3.06128e-14,-3.18055e-15,-31.8068,1.09893,-84.4514,25.9981,17.7373,-25.2286,2.22644,7.12502,1.29074,-27.7494,3.06128e-14,-3.18055e-15,-36.9444,24.4738,66.9312,20.0187,-7.70849,-23.6662,24.7399,7.12502,2.79978,54.7013,5.73521,7.87231,29.8191,17.0275,-18.7423,-18.5568,-9.03473,-28.8504,10.0224,-19.8371,30.3599,-14.2244,26.6941,17.6096
-12.7725,18.6159,2.27706,2.77796,16.3045,-3.85764,4.70393,3.62221,-0.545637,1.55984,4.77095,-2.76541,-0.833851,2.39334,-2.78393,-11.1424,3.19204,-4.93807,24.8673,4.03842,6.7031,9.38725,2.21507,3.62003,-2.14687e-14,6.36111e-15,-31.7959,1.33525,-84.5513,26.234,17.6912,-25.1223,2.48575,7.12502,1.39341,-27.4894,-2.14687e-14,6.36111e-15,-36.933,24.1302,67.0709,19.9327,-7.53268,-23.6795,25.0079,7.12502,2.78691,54.9695,5.74447,7.6663,29.8265,17.2787,-18.5738,-18.6119,-9.5637,-28.7274,9.91958,-19.923,30.441,-13.92,26.4083,16.4605
-12.7131,18.6254,2.34781,2.80388,16.668,-3.74637,4.64476,3.64359,-0.79071,1.52046,4.78781,-2.87051,-0.851622,2.40146,-2.75432,-10.9568,3.36977,-4.7362,24.8166,4.27986,6.55258,9.32769,2.32972,3.55012,6.16232e-15,1.11319e-14,-31.7593,1.6211,-84.7089,26.4264,17.6596,-24.7258,2.51868,7.12502,1.77641,-27.4537,6.16232e-15,1.11319e-14,-36.8807,23.4457,67.3979,20.0275,-7.19968,-23.6712,25.3738,7.12502,2.79494,55.3353,5.80187,7.32307,29.5886,17.6768,-18.7102,-18.4586,-9.3561,-28.4798,9.64377,-20.1522,30.5033,-14.0476,26.1269,16.4813
-12.6553,18.6295,2.41835,2.76557,17.0253,-3.74128,4.60261,3.6748,-0.929959,1.52554,4.82411,-2.92958,-0.827747,2.41982,-2.73629,-10.8005,3.55547,-4.58981,24.771,4.54805,6.39236,9.27369,2.45098,3.48986,-4.59193e-14,3.65764e-14,-31.6888,2.1646,-84.9135,26.6984,17.2476,-24.2868,2.29214,7.12502,2.20037,-27.6763,-4.59193e-14,3.65764e-14,-36.8034,22.8737,67.7577,20.1242,-7.0076,-23.4087,25.3772,7.12502,3.04842,55.3352,5.82891,6.92985,29.4592,18.2212,-18.7323,-18.219,-9.75475,-28.1781,9.31735,-20.2386,30.4913,-14.1142,25.9977,16.5047
-12.6005,18.6321,2.48506,2.71932,17.3752,-3.76812,4.59676,3.70947,-1.10477,1.51091,4.86199,-2.94569,-0.851107,2.43828,-2.65821,-10.6968,3.71677,-4.4263,24.7884,4.80225,6.14211,9.25735,2.55739,3.39859,4.8901e-14,6.36111e-15,-31.6233,2.76339,-85.0684,27.0311,16.9913,-24.3818,1.79582,7.12502,2.10862,-28.1735,4.8901e-14,6.36111e-15,-36.7334,22.7503,67.9145,19.9782,-7.24022,-23.2342,25.1958,7.12502,3.21696,55.1513,5.74743,6.57339,29.3624,18.882,-18.3854,-18.0941,-11.4474,-27.829,8.82457,-20.2164,30.4206,-14.6,25.86,17.5223
-12.5422,18.6354,2.5499,2.69286,17.7425,-3.7292,4.65513,3.77867,-1.28079,1.45598,4.94197,-3.01084,-0.946084,2.4777,-2.63871,-10.6613,3.8216,-4.32211,24.8513,4.94373,6.09164,9.26884,2.62824,3.37916,9.14409e-15,-4.77083e-15,-31.5581,3.13997,-85.1735,27.2848,16.7604,-24.7475,1.36738,7.12502,1.7554,-28.6051,9.14409e-15,-4.77083e-15,-36.6695,22.5753,68.0727,19.9157,-7.55279,-23.4258,25.4886,7.12502,3.03187,55.4468,5.61931,6.24259,29.1783,19.618,-18.1291,-17.9409,-12.9974,-27.4565,8.27631,-20.2224,30.358,-15.491,25.5347,19.4399
-12.4819,18.6454,2.61779,2.70719,18.0999,-3.56551,4.66557,3.84492,-1.56803,1.42407,5.01477,-3.09481,-0.999035,2.51386,-2.57232,-10.6707,3.96123,-4.29186,24.9259,5.13865,6.09207,9.28579,2.72293,3.3968,2.38542e-14,1.11319e-14,-31.5535,3.42126,-85.2549,27.4959,16.4405,-25.041,1.76864,7.12502,1.47195,-28.206,2.38542e-14,1.11319e-14,-36.6356,22.0886,68.395,20.0581,-7.59078,-23.5651,25.9304,7.12502,2.89741,55.8905,5.48458,5.89341,28.8309,20.4034,-18.1095,-17.5938,-13.5386,-27.072,7.89448,-20.4086,30.3077,-16.1314,25.1173,20.7707
-12.4216,18.6572,2.68853,2.62039,18.4029,-3.46191,4.72593,3.91208,-1.80122,1.40072,5.08948,-3.17356,-1.06717,2.55116,-2.53428,-10.5708,4.11061,-4.12775,24.9564,5.3372,6.00617,9.27403,2.82189,3.35716,2.04748e-14,-4.77083e-15,-31.7078,3.50658,-85.3535,27.7638,16.3573,-25.3962,2.45412,7.12502,1.12895,-27.5226,2.04748e-14,-4.77083e-15,-36.6975,21.2325,68.8044,20.3702,-7.31385,-23.3904,25.7655,7.12502,3.06606,55.7232,5.39786,5.51747,28.5159,21.2199,-17.8499,-17.1404,-14.1654,-26.5976,7.66076,-20.5799,30.2503,-16.4422,24.8134,20.8932
-12.361,18.6633,2.7592,2.47304,18.809,-3.48368,4.7715,3.9435,-1.8722,1.4118,5.12625,-3.24578,-1.0795,2.56996,-2.5743,-10.504,4.27134,-3.93724,24.989,5.52978,5.99278,9.26828,2.92859,3.33861,-4.83047e-14,1.27222e-14,-31.7355,3.66279,-85.5195,28.0007,16.0725,-25.7402,3.00226,7.12502,0.796678,-26.976,-4.83047e-14,1.27222e-14,-36.6454,20.4643,69.2616,20.7273,-6.59848,-23.2061,25.8081,7.12502,3.24406,55.7632,5.2976,5.15321,28.3621,22.1141,-17.4669,-16.7794,-14.7826,-26.1312,7.40274,-20.6453,30.2059,-16.5021,24.4641,20.5372
-12.2984,18.6702,2.83253,2.39725,19.3088,-3.36176,4.75066,3.93221,-2.09824,1.42901,5.10175,-3.3257,-1.06313,2.5581,-2.52792,-10.4486,4.45399,-3.85895,25.0227,5.75891,6.05269,9.25652,3.0502,3.36771,-8.80616e-14,3.49861e-14,-31.6829,3.85585,-85.6391,28.1865,15.714,-25.6572,3.15869,7.12502,0.876787,-26.8193,-8.80616e-14,3.49861e-14,-36.5175,19.769,69.8356,21.0949,-5.40561,-23.352,27.2144,7.12502,3.10319,57.1715,5.1718,4.75424,28.0577,23.0756,-17.1824,-16.372,-15.4445,-25.6845,7.14319,-20.8788,30.1789,-16.6051,24.0498,20.3759
-12.2336,18.6808,2.90341,2.35217,19.7445,-3.34612,4.6346,3.96411,-2.21836,1.43444,5.14418,-3.35974,-0.999081,2.57949,-2.48952,-10.3712,4.61623,-3.72079,25.0752,5.99033,5.93681,9.25676,3.15888,3.32689,-5.9039e-14,3.49861e-14,-31.6468,4.01161,-85.6698,28.3586,15.3971,-25.5171,3.23202,7.12502,1.01212,-26.7453,-5.9039e-14,3.49861e-14,-36.4453,19.8522,69.9033,21.0465,-5.71107,-23.4931,27.4979,7.12502,2.96688,57.457,4.87488,4.52027,27.7962,24.0833,-17.0721,-15.7747,-14.2848,-25.3312,7.09049,-21.0469,30.1645,-16.5248,23.6278,19.7252
-12.1692,18.6942,2.97333,2.25205,20.1322,-3.54594,4.47554,3.99426,-2.18946,1.46115,5.19472,-3.2924,-0.885511,2.60453,-2.42503,-10.3192,4.78542,-3.63398,25.0966,6.24976,5.78924,9.24946,3.27246,3.28603,4.41302e-14,-6.36111e-15,-31.5734,4.29152,-85.7043,28.5352,14.9215,-26.0318,3.32636,7.12502,0.515026,-26.6528,4.41302e-14,-6.36111e-15,-36.4828,20.5298,69.5631,20.7727,-7.03298,-23.4447,25.7693,7.12502,3.01368,55.7278,4.46203,4.44424,27.7429,25.1508,-16.6353,-15.1972,-11.3586,-25.0216,6.97674,-20.9704,30.1581,-16.4098,23.2892,18.6666
-12.1058,18.701,3.04251,2.08015,20.5517,-3.76664,4.39282,4.02634,-2.13774,1.50656,5.24602,-3.20813,-0.79483,2.62993,-2.36086,-10.402,4.95722,-3.64415,25.239,6.50248,5.78569,9.30096,3.38937,3.32026,-5.74488e-14,4.77083e-14,-31.5349,4.17076,-85.5774,28.8005,15.2093,-26.2855,3.36922,7.12502,0.270027,-26.6103,-5.74488e-14,4.77083e-14,-36.4625,20.797,69.5322,20.7242,-7.57907,-23.2105,24.6639,7.12502,3.23983,54.619,4.16219,4.10917,27.7197,26.2506,-15.9854,-14.6644,-12.5487,-24.7144,6.80534,-20.8298,30.2343,-16.4362,22.8903,17.9736
-12.0422,18.697,3.10914,1.9089,21.0174,-3.9695,4.37668,4.04476,-2.05087,1.47303,5.27422,-3.14749,-0.817665,2.64395,-2.34828,-10.4534,5.10295,-3.65915,25.4981,6.72119,5.78534,9.3893,3.4896,3.35739,6.50026e-14,-1.74931e-14,-31.5398,3.74788,-85.3024,29.039,16.2251,-25.577,3.3482,7.12502,0.954252,-26.6294,6.50026e-14,-1.74931e-14,-36.4559,20.5969,69.7424,20.8458,-7.38144,-22.8515,24.7567,7.12502,3.5865,54.7063,3.91661,3.67474,27.7095,27.3851,-15.2344,-14.1648,-14.1143,-24.4418,6.56267,-20.6881,30.3218,-16.6611,22.4902,17.9659
-11.9724,18.6959,3.17479,1.86729,21.5131,-3.93846,4.29466,4.07507,-2.10701,1.43431,5.31439,-3.18,-0.812764,2.66418,-2.34793,-10.4264,5.21566,-3.50245,25.6876,6.89293,5.63685,9.45521,3.56771,3.30512,5.10877e-14,-3.33958e-14,-31.4871,3.53425,-85.1322,29.172,16.6525,-25.0477,3.20661,7.12502,1.46551,-26.7681,5.10877e-14,-3.33958e-14,-36.3595,20.4855,69.9298,20.8965,-7.06184,-22.8294,24.8105,7.12502,3.6079,54.7597,3.56892,3.13459,27.3789,28.6027,-14.6491,-13.4858,-14.4828,-24.1728,6.5448,-20.9308,30.4164,-16.548,22.1488,17.1669
-11.8962,18.6954,3.23849,1.9265,21.9821,-3.81649,4.10602,4.12775,-2.13484,1.41062,5.3909,-3.2966,-0.72138,2.70323,-2.44137,-10.4074,5.3171,-3.29098,25.8472,7.02567,5.53721,9.51485,3.63856,3.25593,4.63168e-14,1.27222e-14,-31.4352,3.55713,-85.1614,29.385,16.2035,-24.6938,2.94208,7.12502,1.80732,-27.03,4.63168e-14,1.27222e-14,-36.164,20.2435,70.1321,20.934,-6.63474,-22.7489,24.4882,7.12502,3.6856,54.4361,3.05028,2.47341,26.8397,29.9362,-13.8765,-12.613,-14.8471,-23.9524,6.44286,-21.2546,30.4417,-16.5834,21.8048,16.7395
-11.8219,18.6977,3.30256,1.902,22.5221,-3.74389,3.99719,4.15229,-2.146,1.38026,5.42715,-3.36998,-0.684869,2.72195,-2.50456,-10.4205,5.44828,-3.15982,26.14,7.1893,5.56474,9.61737,3.72989,3.2741,-1.76918e-14,9.54166e-15,-31.4322,3.60293,-85.1592,29.627,15.7587,-24.3537,2.58615,7.12502,2.13575,-27.3829,-1.76918e-14,9.54166e-15,-36.1381,20.1608,70.1779,21.0401,-6.5385,-22.3991,23.9713,7.12502,4.02335,53.913,2.49511,1.76243,26.3742,31.393,-12.8881,-11.9081,-16.375,-23.545,6.50008,-21.556,30.4128,-16.7888,21.07,16.8704
-11.7512,18.7025,3.37068,1.72026,23.2002,-3.64298,4.02212,4.12335,-2.26753,1.40358,5.38431,-3.37221,-0.686793,2.7005,-2.43906,-10.3985,5.57745,-3.21456,26.3897,7.35979,5.70103,9.68423,3.81958,3.35756,-3.35946e-14,-1.59028e-14,-31.4277,3.6196,-85.0844,29.7355,15.7896,-24.6567,2.67074,7.12502,1.84311,-27.301,-3.35946e-14,-1.59028e-14,-36.1564,20.4215,70.143,21.0695,-6.84572,-22.1638,23.5665,7.12502,4.25056,53.5038,2.0471,1.11222,25.9485,32.9551,-11.9184,-11.3439,-17.9528,-22.9427,6.30979,-21.8024,30.2748,-16.8781,20.5225,16.7011
-11.6822,18.7005,3.4356,1.57263,23.8749,-3.47672,4.05436,4.12723,-2.46197,1.44098,5.38253,-3.37468,-0.683782,2.69934,-2.3355,-10.3433,5.63252,-3.32149,26.5409,7.44256,5.80298,9.71338,3.86053,3.42327,-6.36111e-15,-7.95139e-15,-31.4622,3.66914,-84.9888,29.8333,16.1558,-25.2437,2.87253,7.12502,1.27616,-27.1034,-6.36111e-15,-7.95139e-15,-36.0062,20.5427,70.3177,21.0822,-6.8728,-21.9859,23.4263,7.12502,4.42238,53.3601,1.53712,0.536555,25.4399,34.5767,-11.0073,-10.7162,-18.5808,-22.3507,6.05424,-22.0926,30.129,-17.007,20.0072,16.5764
-11.6137,18.7003,3.49821,1.50349,24.4842,-3.24514,4.04444,4.18959,-2.76043,1.47225,5.45623,-3.37785,-0.671643,2.73543,-2.17602,-10.2471,5.65456,-3.34796,26.6317,7.48446,5.8098,9.72375,3.88006,3.43448,-8.01102e-14,-6.36111e-15,-31.5248,3.59248,-84.8106,29.9872,16.6587,-25.5978,2.95078,7.12502,0.934156,-27.0269,-8.01102e-14,-6.36111e-15,-35.763,20.3894,70.6694,21.1474,-6.58999,-21.9133,23.5427,7.12502,4.49246,53.4751,0.937356,0.121544,24.8766,36.1981,-9.90948,-10.1572,-19.1706,-21.8634,5.89797,-22.4548,30.0209,-17.0266,19.5082,16.3658
-11.5451,18.7007,3.56225,1.44606,25.1469,-3.11252,4.02148,4.18506,-2.94974,1.45965,5.4439,-3.37766,-0.689453,2.72896,-2.07023,-10.3095,5.7129,-3.43537,26.9267,7.56669,5.94043,9.82647,3.92458,3.51952,-3.10104e-14,3.18055e-14,-31.5322,3.63188,-84.7379,30.0343,17.002,-26.1167,3.23521,7.12502,0.432993,-26.7441,-3.10104e-14,3.18055e-14,-35.7531,19.3808,71.3452,21.8143,-5.30022,-21.731,24.0308,7.12502,4.66852,53.9594,0.251064,-0.352814,24.3842,37.8226,-8.69992,-9.56452,-20.2297,-21.4502,5.84006,-22.7492,29.955,-17.0224,18.9554,16.4217
-11.4771,18.6993,3.62188,1.37121,25.8336,-2.97508,4.04567,4.12773,-3.12004,1.47594,5.36095,-3.35186,-0.705197,2.68711,-1.94773,-10.4888,5.81022,-3.62495,27.2834,7.73481,6.0517,9.96571,3.99511,3.6322,1.01181e-13,-2.8625e-14,-31.4315,3.948,-84.7028,30.0911,16.9911,-26.5462,3.30272,7.12502,0.0182097,-26.677,1.01181e-13,-2.8625e-14,-35.6704,18.7624,71.895,22.2631,-4.23785,-21.7581,24.2368,7.12502,4.64239,54.1659,-0.438685,-0.807522,23.8548,39.418,-7.30956,-8.90482,-20.1732,-21.0365,5.8153,-23.0791,29.9435,-17.0253,18.4162,16.1514
-11.4066,18.693,3.67849,1.28485,26.4921,-2.82599,4.04646,4.10642,-3.237,1.50583,5.33014,-3.34266,-0.686564,2.67142,-1.87132,-10.5448,5.87197,-3.74487,27.5455,7.84088,6.13601,10.0554,4.04167,3.70817,-3.43897e-14,7.95139e-15,-31.3238,4.18535,-84.6332,30.2259,16.6841,-26.2965,3.16363,7.12502,0.259367,-26.816,-3.43897e-14,7.95139e-15,-35.2744,19.9138,71.5622,21.6222,-5.17832,-21.6859,23.7213,7.12502,4.71207,53.6489,-1.11738,-1.16713,23.313,40.9901,-5.68047,-8.34046,-19.2319,-20.6271,5.6028,-23.3569,29.9612,-17.1793,17.9353,16.322
-11.334,18.6871,3.73716,1.18951,27.2317,-2.64307,4.02608,4.1234,-3.33754,1.53083,5.35216,-3.36634,-0.656008,2.68239,-1.83863,-10.5105,5.84776,-3.80502,27.7636,7.81067,6.21883,10.1227,4.03239,3.75429,7.35503e-15,-1.59028e-15,-31.321,4.21422,-84.5188,30.4514,16.2465,-25.5055,3.29274,7.12502,1.02334,-26.6845,7.35503e-15,-1.59028e-15,-34.9384,20.706,71.3243,21.1337,-5.98315,-21.6192,23.1206,7.12502,4.77643,53.0467,-1.753,-1.52109,22.7499,42.5286,-3.84776,-7.83146,-18.9799,-20.1786,5.36123,-23.6823,29.9856,-17.2422,17.4861,15.9682
-11.2662,18.6812,3.79222,1.1591,28.1515,-2.43214,4.02434,4.05029,-3.4838,1.55365,5.25146,-3.37622,-0.644196,2.63191,-1.76246,-10.5827,5.82117,-4.00988,28.0253,7.78894,6.38596,10.2149,4.02148,3.86208,8.8658e-14,-2.8625e-14,-31.257,4.35683,-84.4808,30.5158,16.1612,-25.5687,3.17247,7.12502,0.962333,-26.8051,8.8658e-14,-2.8625e-14,-34.6348,20.9809,71.3773,20.9479,-6.124,-21.5472,23.0574,7.12502,4.84598,52.9819,-2.47301,-1.97395,22.1682,44.0487,-1.84677,-7.28686,-19.3757,-19.788,5.06041,-24.0488,29.974,-17.1991,16.9685,15.924
-11.2003,18.6746,3.8487,1.16309,29.02,-2.21135,3.9924,3.97708,-3.64913,1.54883,5.15035,-3.4227,-0.641778,2.58154,-1.71219,-10.4756,5.81965,-4.15767,28.1312,7.78472,6.54033,10.2176,4.02485,3.94083,-8.68689e-14,1.11319e-14,-31.2521,4.48146,-84.5339,30.596,16.2078,-26.1375,3.03183,7.12502,0.412919,-26.9475,-8.68689e-14,1.11319e-14,-34.2112,22.8515,70.5761,19.9663,-7.9089,-21.2342,22.3204,7.12502,5.14823,52.2379,-3.208,-2.264,21.604,45.512,0.147186,-6.70004,-19.5471,-19.4304,4.90185,-24.4145,29.9684,-17.1028,16.3564,15.6058
-11.1326,18.6682,3.90593,1.10678,29.7684,-2.11761,3.92478,3.96667,-3.68539,1.53098,5.13931,-3.45326,-0.622782,2.57637,-1.7186,-10.3611,5.78832,-4.24467,28.2933,7.72125,6.71563,10.2451,4.00945,4.01424,3.598e-14,5.08889e-14,-31.2821,4.44234,-84.5228,30.7149,16.1954,-25.9267,3.12706,7.12502,0.616497,-26.8518,3.598e-14,5.08889e-14,-33.9089,23.8737,70.1505,19.5767,-8.64783,-20.6597,21.5682,7.12502,5.70291,51.4714,-3.9429,-2.36881,21.1839,46.9358,2.13164,-6.11946,-19.5677,-19.0397,4.73052,-24.6283,29.9289,-17.1468,15.7767,15.3033
-11.064,18.6607,3.96001,0.92551,30.5719,-2.06886,3.95777,3.96795,-3.63115,1.57658,5.14458,-3.46694,-0.588183,2.57937,-1.76299,-10.3618,5.70266,-4.33188,28.5057,7.58909,6.87484,10.3195,3.95984,4.08433,-3.18055e-14,4.29375e-14,-31.231,4.39652,-84.468,30.7976,16.1154,-25.0264,3.64827,7.12502,1.48604,-26.3263,-3.18055e-14,4.29375e-14,-33.6878,21.3755,71.4589,20.8273,-5.74488,-20.3568,22.1697,7.12502,5.99531,52.0649,-4.5688,-2.46797,20.8178,48.3326,4.62932,-5.39412,-17.0998,-18.4888,4.40712,-24.7839,29.8128,-17.1988,15.2291,15.3025
-10.9929,18.6529,4.01438,0.915607,31.4992,-1.69491,4.19925,3.9765,-3.75458,1.4626,5.13073,-3.59678,-0.838707,2.57581,-1.85211,-10.1944,5.60491,-4.40683,28.8198,7.4281,7.07296,10.3998,3.90399,4.1617,-6.83819e-14,-1.11319e-14,-31.5019,4.25887,-84.4562,30.9723,15.9996,-24.5655,3.61966,7.12502,1.93122,-26.3514,-6.83819e-14,-1.11319e-14,-33.6412,19.6996,72.2073,21.5684,-4.02448,-20.4527,23.2287,7.12502,5.90274,53.1265,-5.18381,-2.67712,20.1007,49.7424,6.68377,-4.1429,-16.4314,-17.8816,4.12544,-25.2787,29.6272,-17.0857,14.6747,14.6634
-10.9257,18.6453,4.07326,1.18244,32.4032,-0.968968,4.47391,4.02632,-4.23871,1.23048,5.14478,-3.81048,-1.25296,2.58849,-1.84017,-9.92244,5.50392,-4.40631,29.2205,7.27178,7.18653,10.5005,3.8487,4.19812,1.04561e-13,-4.6118e-14,-32.0156,4.39179,-84.5741,31.1949,15.7837,-24.8156,3.24849,7.12502,1.68961,-26.7246,1.04561e-13,-4.6118e-14,-33.7607,19.1576,72.3493,21.8436,-3.7245,-20.3527,23.7859,7.12502,5.99928,53.6809,-5.92445,-2.82152,19.1037,51.1805,8.58681,-2.76284,-16.8394,-17.3042,3.77378,-26.0883,29.3519,-16.9533,14.2952,14.3401
-10.8654,18.6364,4.13097,1.3454,33.2981,-0.454706,4.56866,4.04668,-4.68021,1.16638,5.14145,-3.88221,-1.40338,2.58994,-1.68298,-9.88285,5.40374,-4.62258,29.546,7.14169,7.37884,10.604,3.79134,4.30829,1.98785e-16,-3.18055e-14,-32.2233,4.7207,-84.6101,31.3506,15.5598,-24.9586,3.0412,7.12502,1.55158,-26.9329,1.98785e-16,-3.18055e-14,-33.8132,17.4672,73.2054,22.7227,-2.00616,-20.0149,24.2202,7.12502,6.32548,54.1058,-6.70546,-2.86503,18.3864,52.5995,9.73082,-1.33508,-18.3761,-16.7662,3.36205,-26.6532,29.0992,-16.8191,13.9109,14.3439
-10.8028,18.6286,4.18254,1.41346,34.2582,-0.0385542,4.65034,4.0333,-4.95371,1.20204,5.10792,-3.93226,-1.43062,2.57464,-1.58753,-9.93777,5.32526,-4.92716,29.7856,7.02596,7.69301,10.6832,3.74597,4.47824,6.65929e-14,1.74931e-14,-32.1787,4.75438,-84.5337,31.4332,15.2477,-24.9814,3.1615,7.12502,1.52951,-26.8128,6.65929e-14,1.74931e-14,-33.4115,17.2569,73.4451,22.7186,-1.75214,-19.7687,23.9183,7.12502,6.56311,53.7966,-7.40867,-2.99937,17.7351,53.9746,10.4623,0.243804,-18.8239,-16.253,2.99742,-27.1136,28.9397,-16.7293,13.3895,14.6107
-10.7348,18.6231,4.23074,1.26388,35.2988,0.0024105,4.83385,4.00175,-4.79556,1.16601,5.05816,-3.92202,-1.55716,2.55165,-1.67659,-9.81253,5.2621,-5.01894,30.0206,6.93572,7.81783,10.7436,3.71304,4.5393,-1.07145e-13,1.59028e-14,-32.2799,4.72494,-84.4537,31.5262,14.9708,-25.2194,3.19966,7.12502,1.29967,-26.7761,-1.07145e-13,1.59028e-14,-32.929,19.1065,72.723,21.8439,-3.95407,-19.7513,23.5403,7.12502,6.57991,53.418,-7.99448,-3.21517,17.423,55.2648,10.0994,1.47222,-19.6063,-15.7363,2.69403,-27.2646,28.9262,-16.639,12.7737,14.5083
-10.6674,18.6127,4.27796,1.11216,36.1252,-0.102079,4.94738,4.0158,-4.53597,1.0549,5.07532,-3.88431,-1.71671,2.56176,-1.79572,-9.61082,5.22282,-4.91293,30.2608,6.90922,7.68394,10.809,3.69934,4.4774,-3.75703e-14,-1.11319e-14,-32.4363,4.57877,-84.35,31.502,15.165,-25.4616,3.5463,7.12502,1.06571,-26.4308,-3.75703e-14,-1.11319e-14,-32.7284,21.6642,71.5577,21.0045,-7.21736,-19.5047,23.4722,7.12502,6.81796,53.3425,-8.72153,-3.15541,17.2659,56.5137,9.49157,2.37498,-19.0943,-15.369,2.29437,-27.271,28.9477,-16.6858,12.3288,14.6591
-10.6027,18.598,4.32644,1.29414,36.8042,0.0568746,4.77985,4.07163,-4.48782,0.956987,5.15916,-3.97485,-1.71213,2.60471,-1.91234,-9.53787,5.19042,-4.79666,30.4675,6.86116,7.66309,10.8834,3.69075,4.45635,-3.00165e-14,-5.24792e-14,-32.4449,4.33175,-84.306,31.4887,15.1134,-25.0124,3.76421,7.12502,1.49958,-26.2103,-3.00165e-14,-5.24792e-14,-32.4982,23.3554,70.7439,20.5743,-9.41388,-19.2207,23.2093,7.12502,7.09216,53.0705,-9.72035,-2.86407,16.8858,57.7221,8.51666,3.03774,-18.8884,-15.2963,1.87403,-27.5179,29.0499,-16.7918,12.0634,15.0265
-10.5379,18.5809,4.38179,1.41867,37.6506,0.214512,4.57059,4.11733,-4.48073,0.94015,5.23616,-3.99571,-1.61026,2.64291,-1.92645,-9.45856,5.14167,-4.92217,30.5818,6.79736,7.78621,10.9044,3.66716,4.52009,-6.71892e-14,-3.18055e-15,-32.4226,3.99638,-84.1136,31.5454,14.8679,-25.0924,3.35465,7.12502,1.42235,-26.6204,-6.71892e-14,-3.18055e-15,-32.1559,24.1388,70.5973,20.4736,-10.4625,-18.8216,23.1542,7.12502,7.47732,53.002,-10.5223,-2.62565,16.549,58.8423,7.28256,3.21956,-18.5775,-15.1318,1.46294,-27.752,29.1451,-16.84,11.7012,14.6861
-10.4743,18.5695,4.43982,1.32288,38.6245,0.21751,4.57108,4.14587,-4.37138,0.909057,5.27873,-3.93866,-1.63835,2.66427,-1.93207,-9.33615,5.0752,-5.19106,30.7407,6.71141,8.00926,10.9243,3.63032,4.64317,-1.17283e-14,3.81667e-14,-32.5296,3.6465,-83.8888,31.5463,14.8901,-26.3571,3.14649,7.12502,0.200884,-26.8332,-1.17283e-14,3.81667e-14,-31.8875,24.163,70.8078,20.6074,-10.7256,-18.2953,23.2036,7.12502,7.98536,53.0328,-11.0635,-2.4247,16.4173,59.8175,5.94311,2.91438,-17.9427,-14.7799,1.05456,-27.8225,29.2856,-16.9392,11.1961,14.0701
-10.4124,18.5582,4.49485,1.38139,39.6051,0.326333,4.54659,4.14222,-4.3068,0.831447,5.27511,-3.96687,-1.69638,2.66364,-1.99818,-9.22063,5.04087,-5.25394,30.9033,6.6538,8.14213,10.9587,3.61796,4.70268,-3.16068e-14,6.36111e-15,-32.6995,3.39379,-83.8561,31.4845,15.4466,-27.4725,2.79775,7.12502,-0.876406,-27.1802,-3.16068e-14,6.36111e-15,-31.6758,23.5616,71.1681,21.0055,-10.134,-18.2492,23.1936,7.12502,8.02984,53.0211,-11.7081,-2.24087,16.2108,60.6834,4.5748,2.27007,-17.6322,-14.5604,0.655492,-27.9832,29.4469,-16.9218,10.732,13.4139
-10.3501,18.5499,4.54562,1.35165,40.6173,0.274903,4.54986,4.12555,-4.08549,0.764,5.26043,-3.97921,-1.747,2.65647,-2.13478,-9.11474,5.01201,-5.24266,30.9454,6.6091,8.18648,10.9557,3.60932,4.71133,4.09496e-14,1.27222e-14,-32.8225,3.24232,-83.8702,31.3462,16.2019,-27.6855,2.58026,7.12502,-1.08213,-27.3967,4.09496e-14,1.27222e-14,-31.4911,23.1656,71.4241,21.4085,-9.72433,-18.3098,23.1662,7.12502,7.97135,52.9959,-12.3493,-2.05709,16.1507,61.3982,3.17134,1.48291,-17.9519,-14.4146,0.202598,-28.0138,29.6954,-16.9056,10.3279,13.3655
-10.2916,18.5354,4.5996,1.23507,41.6396,0.178689,4.56112,4.0644,-3.97563,0.694956,5.1805,-3.94495,-1.81856,2.61689,-2.15914,-8.87592,5.04334,-5.04813,30.9082,6.66045,8.04036,10.9056,3.64192,4.61729,-9.8796e-14,5.08889e-14,-32.9363,3.16183,-83.9079,31.2122,16.5832,-27.7928,2.8055,7.12502,-1.18579,-27.171,-9.8796e-14,5.08889e-14,-31.3339,22.8099,71.7977,21.8424,-8.58865,-18.2861,23.0974,7.12502,7.99419,52.9262,-12.9396,-1.80106,16.1614,62.0461,1.79045,0.480469,-17.9728,-14.135,-0.332422,-28.0172,29.904,-17.0138,10.0357,12.8702
-10.2318,18.5318,4.65706,1.1485,42.7145,0.196176,4.60807,3.966,-4.03057,0.6198,5.04007,-3.93203,-1.9292,2.54843,-2.11432,-8.61317,5.09143,-4.62322,30.9407,6.71904,7.80032,10.8923,3.69199,4.45496,3.78685e-14,-6.36111e-15,-33.0433,3.14889,-83.9994,31.1321,16.4523,-27.6732,2.8432,7.12502,-1.07032,-27.1339,3.78685e-14,-6.36111e-15,-31.0089,21.3321,72.8682,22.4797,-4.51499,-19.8358,23.8087,7.12502,6.49834,53.689,-13.4135,-1.36989,16.1232,62.5446,0.50112,-0.822278,-17.2782,-13.8471,-0.99557,-28.0728,30.0698,-17.0585,9.77812,12.6344
-10.172,18.5199,4.7093,1.08274,43.8045,0.209378,4.70853,3.86967,-3.99656,0.527938,4.90226,-3.89323,-2.08153,2.48091,-2.0965,-8.27339,5.12516,-4.36139,30.884,6.77426,7.60619,10.8205,3.72885,4.32719,-2.26615e-14,-7.95139e-15,-33.1818,2.98398,-83.9468,31.0788,16.5634,-27.6401,2.96178,7.12502,-1.03829,-27.0154,-2.26615e-14,-7.95139e-15,-31.0006,20.9644,73.0805,22.9352,-3.79522,-18.7401,23.5487,7.12502,7.55601,53.3938,-13.936,-0.791299,16.1206,63.0117,-0.755155,-2.19486,-17.1164,-13.4605,-1.58871,-28.1426,30.138,-17.186,9.32826,12.9488
-10.1108,18.5086,4.75791,1.07496,44.8791,0.265387,4.84225,3.81065,-3.88757,0.395442,4.81355,-3.89663,-2.28443,2.43775,-2.17084,-7.98759,5.13492,-4.32254,30.9047,6.76836,7.68666,10.7696,3.74689,4.33782,-7.10655e-14,1.27222e-14,-33.4161,2.67848,-83.8946,31.0116,16.749,-27.7841,2.84476,7.12502,-1.17741,-27.1317,-7.10655e-14,1.27222e-14,-31.0886,19.8585,73.4906,23.5665,-2.42089,-20.1685,24.4959,7.12502,6.17717,54.3858,-14.4679,-0.282981,16.0419,63.3716,-2.03595,-3.49853,-17.2085,-13.1724,-2.14942,-28.2448,30.1979,-17.2701,8.92268,12.8644
-10.0517,18.4948,4.80661,1.13367,45.9884,0.381899,4.78975,3.78256,-3.99232,0.403799,4.77621,-3.79985,-2.2635,2.42,-2.0066,-7.95651,5.11388,-4.38596,30.9986,6.75104,7.74515,10.795,3.74439,4.37355,5.27773e-14,-2.22639e-14,-33.4783,2.52224,-83.7107,30.984,16.6466,-27.9058,2.53181,7.12502,-1.29495,-27.444,5.27773e-14,-2.22639e-14,-30.9657,19.1969,73.9592,24.0464,-1.69862,-23.4868,25.7445,7.12502,2.97298,55.7035,-15.0627,0.101241,15.8851,63.6887,-3.33539,-4.80192,-16.4776,-12.8913,-2.75197,-28.3879,30.2457,-17.3547,8.51372,12.6304
-9.9943,18.4823,4.85747,0.990986,47.0846,0.274133,4.60214,3.7968,-4.1064,0.553597,4.81284,-3.53801,-2.0357,2.43635,-1.6556,-7.9228,5.06338,-4.50101,30.9118,6.73807,7.64133,10.7567,3.71815,4.34817,-2.3059e-14,-2.06736e-14,-33.3469,2.33635,-83.2665,30.9459,16.5474,-27.6562,2.50898,7.12502,-1.05385,-27.4682,-2.3059e-14,-2.06736e-14,-30.6899,19.2584,74.4194,24.4382,-1.91648,-22.8464,25.4283,7.12502,3.59148,55.3778,-15.5942,0.506167,15.9109,63.9016,-4.6038,-6.02833,-15.7574,-12.5829,-3.31461,-28.3416,30.3245,-17.4321,8.00904,12.8338
-9.94007,18.4677,4.91023,0.916972,48.2021,0.282233,4.56247,3.78865,-4.24677,0.630952,4.80371,-3.37953,-1.95873,2.43147,-1.40856,-7.81115,4.99988,-4.46365,30.7659,6.69284,7.4659,10.6934,3.68584,4.26129,-6.2319e-14,1.11319e-14,-33.2727,2.1917,-82.9777,30.9529,16.1881,-27.047,2.56033,7.12502,-0.465524,-27.4189,-6.2319e-14,1.11319e-14,-30.4566,18.7907,74.898,24.8892,-1.55523,-22.6536,25.2782,7.12502,3.77763,55.2245,-16.1141,0.998784,15.8647,64.0709,-5.90756,-7.17965,-14.8397,-12.2341,-3.7349,-28.3594,30.4278,-17.5787,7.34784,12.8022
-9.88416,18.4584,4.96388,1.13707,49.4156,0.65679,4.61572,3.74066,-4.56133,0.678739,4.72484,-3.2932,-1.97096,2.39421,-1.14387,-7.85829,4.94496,-4.6713,30.748,6.64616,7.5363,10.6871,3.65463,4.31925,-4.35338e-14,9.54166e-15,-33.2339,1.96129,-82.6196,31.0038,15.5852,-26.4185,2.7996,7.12502,0.141516,-27.1801,-4.35338e-14,9.54166e-15,-30.3342,17.6626,75.6071,25.5768,-0.340286,-22.8352,25.2916,7.12502,3.60223,55.2409,-16.6032,1.42379,15.5373,64.147,-7.28225,-8.36062,-13.4196,-11.946,-4.29842,-28.6253,30.5587,-17.7337,6.76664,12.5586
-9.82656,18.4453,5.01393,1.29258,50.6001,0.855604,4.6664,3.72925,-4.59301,0.691452,4.70648,-3.22806,-1.99387,2.38559,-1.06158,-7.98453,4.84498,-4.96991,30.7889,6.53699,7.68191,10.7162,3.59382,4.42146,2.85256e-14,2.06736e-14,-33.2529,1.40242,-82.1456,30.9837,15.7018,-25.961,3.29309,7.12502,0.583377,-26.6859,2.85256e-14,2.06736e-14,-30.0253,16.9833,76.2568,25.9501,0.354264,-23.3307,25.3729,7.12502,3.12373,55.3297,-17.1893,1.78675,15.3045,64.1798,-8.5403,-9.47139,-12.508,-11.6985,-4.79305,-28.783,30.6655,-17.7791,6.25938,11.5657
-9.76818,18.4374,5.06264,1.27485,51.8061,0.877969,4.77653,3.72935,-4.43642,0.680541,4.70723,-3.21158,-2.05554,2.38594,-1.13924,-7.96111,4.7175,-5.01574,30.7821,6.37089,7.70227,10.7192,3.521,4.42107,1.91827e-14,1.11319e-14,-33.3709,0.784403,-81.8357,30.8768,16.5057,-25.7456,3.74832,7.12502,0.791408,-26.23,1.91827e-14,1.11319e-14,-29.604,16.9011,76.6799,25.9735,0.465851,-24.2887,25.2712,7.12502,2.19854,55.2396,-17.6954,2.15134,15.2192,64.1061,-9.5842,-10.5404,-11.9716,-11.4357,-5.17029,-28.7824,30.7708,-17.8305,5.4889,12.0008
-9.71077,18.43,5.11455,1.34833,52.9696,1.0437,4.89456,3.7191,-4.46781,0.681581,4.68491,-3.20413,-2.12316,2.37615,-1.12146,-7.92531,4.61413,-4.94929,30.7428,6.24734,7.60741,10.7144,3.4658,4.36138,5.66536e-14,-1.43125e-14,-33.4616,0.731518,-81.8453,30.7042,16.6071,-26.4297,3.34762,7.12502,0.130691,-26.6321,5.66536e-14,-1.43125e-14,-29.3349,16.3877,77.1486,26.1833,1.01096,-25.2463,24.9206,7.12502,1.27373,54.8965,-18.1706,2.58273,15.0669,63.9469,-10.5997,-11.6525,-10.7231,-11.1292,-5.45524,-28.8755,30.8807,-17.9139,4.77243,12.4846
-9.65443,18.4241,5.16809,1.48374,54.0963,1.21269,5.0096,3.66695,-4.53598,0.635969,4.60226,-3.16424,-2.24193,2.33721,-1.04758,-7.93298,4.53365,-4.95823,30.734,6.18039,7.48302,10.7239,3.42384,4.31273,-3.68746e-14,1.98785e-14,-33.5814,1.12577,-82.0041,30.5988,16.0746,-27.4449,2.92901,7.12502,-0.849823,-27.049,-3.68746e-14,1.98785e-14,-29.2954,15.339,77.677,26.7096,1.31192,-25.5764,25.6671,7.12502,0.954861,55.6447,-18.677,3.18055,14.8929,63.6252,-11.6469,-12.7448,-9.61379,-10.9125,-6.06205,-28.9349,31.0066,-18.0474,4.23469,13.2958
-9.59731,18.4155,5.2194,1.61266,55.2861,1.31142,5.04752,3.60862,-4.47651,0.590249,4.52355,-3.15103,-2.30552,2.29877,-1.06556,-7.93893,4.44519,-5.00338,30.7367,6.07628,7.47925,10.7328,3.37571,4.31088,-9.12422e-14,-2.3059e-14,-33.6651,1.1143,-82.0369,30.4873,15.9364,-27.6801,2.80479,7.12502,-1.0769,-27.1722,-9.12422e-14,-2.3059e-14,-29.2093,14.5403,78.0475,27.1861,1.21466,-25.2758,26.4452,7.12502,1.2452,56.4213,-19.1988,3.78914,14.7371,63.1655,-12.6339,-13.6454,-9.43515,-10.737,-6.7118,-28.9524,31.1376,-18.1447,3.76103,13.3955
-9.54086,18.4067,5.26638,1.71447,56.5417,1.41276,5.07184,3.55041,-4.3667,0.628619,4.45362,-3.1604,-2.2692,2.26292,-1.13012,-8.02562,4.37233,-5.03024,30.7096,5.97058,7.54788,10.7437,3.33704,4.33346,1.31198e-14,1.35174e-14,-33.6153,0.863068,-81.976,30.3671,15.9665,-27.3619,2.99657,7.12502,-0.769642,-26.9818,1.31198e-14,1.35174e-14,-28.9562,14.3779,78.1782,27.495,1.14162,-24.5136,25.8985,7.12502,1.98134,55.8691,-19.6546,4.29974,14.5694,62.5922,-13.4608,-14.4385,-8.44048,-10.5437,-7.26612,-28.9731,31.2652,-18.1598,3.16977,13.4719
-9.48467,18.396,5.31503,1.71221,57.7553,1.44861,5.10065,3.50475,-4.29732,0.704951,4.40038,-3.08447,-2.20643,2.23491,-1.08479,-8.02582,4.32098,-5.11739,30.5727,5.92259,7.53522,10.6928,3.30825,4.33166,-2.42517e-14,1.03368e-14,-33.5406,0.880331,-81.8717,30.2857,15.7845,-27.0701,2.99584,7.12502,-0.487746,-26.9833,-2.42517e-14,1.03368e-14,-28.7043,14.0531,78.5092,27.7989,1.46805,-24.2659,25.5508,7.12502,2.2206,55.519,-20.0218,4.88812,14.4328,61.9275,-14.2512,-15.157,-7.03785,-10.2613,-7.7743,-28.979,31.3428,-18.0902,2.70183,12.5872
-9.43027,18.3809,5.37005,1.93621,58.9606,1.80475,5.1584,3.44497,-4.51466,0.783188,4.31112,-2.97704,-2.1807,2.19143,-0.848712,-7.96423,4.28308,-5.29343,30.434,5.92723,7.45787,10.6251,3.28613,4.32384,1.38155e-14,-1.59028e-15,-33.4494,0.879779,-81.6665,30.1334,15.7636,-26.5425,2.98425,7.12502,0.0218052,-26.9955,1.38155e-14,-1.59028e-15,-28.5303,13.6245,79.005,28.1113,1.93955,-24.9487,25.6611,7.12502,1.56116,55.6351,-20.3117,5.49102,14.104,61.2057,-15.1687,-15.621,-6.13847,-9.87661,-8.17646,-29.164,31.3579,-17.953,2.36223,10.4239
-9.37306,18.3734,5.42475,2.26893,60.2231,2.27278,5.25062,3.4794,-4.69525,0.769429,4.34085,-3.04903,-2.25463,2.20952,-0.83262,-7.7444,4.13442,-4.96987,30.4005,5.68729,7.37117,10.6032,3.20913,4.20567,9.64106e-14,5.56597e-15,-33.5707,0.140157,-81.4976,29.8527,16.1893,-26.3509,3.19545,7.12502,0.206816,-26.7842,9.64106e-14,5.56597e-15,-28.3363,12.8054,79.2853,28.2617,2.2027,-25.1776,25.5522,7.12502,1.34004,55.5277,-20.5876,5.94173,13.7311,60.4143,-15.8752,-16.1297,-6.58091,-9.46547,-8.76359,-29.3091,31.3004,-17.9946,1.53548,11.5943
-9.3141,18.3725,5.47216,2.51268,61.5454,2.51934,5.33884,3.61461,-4.49883,0.665366,4.52,-3.30588,-2.37946,2.30091,-1.22959,-7.33735,3.87882,-4.11336,30.2902,5.22436,7.18578,10.5526,3.07947,3.92912,2.36554e-14,1.27222e-14,-33.9017,-0.887103,-81.5007,29.628,16.4286,-26.3386,3.38964,7.12502,0.218697,-26.59,2.36554e-14,1.27222e-14,-28.129,11.2372,79.5093,28.4322,2.48044,-24.5717,25.2597,7.12502,1.92521,55.2308,-20.9943,6.34242,13.4803,59.5956,-16.1535,-16.6683,-7.83777,-9.11539,-9.24386,-29.337,31.1795,-17.9771,0.846319,11.9741
-9.25318,18.3709,5.51958,2.76972,62.8064,2.78912,5.36796,3.62142,-4.40027,0.693995,4.5356,-3.37612,-2.35295,2.3084,-1.35791,-7.36118,3.73396,-3.85979,30.3006,5.00571,7.11496,10.5877,3.0049,3.84248,7.05686e-15,-1.98785e-14,-33.9633,-1.10968,-81.5306,29.507,16.3204,-25.9149,3.48353,7.12502,0.627918,-26.4953,7.05686e-15,-1.98785e-14,-27.8517,10.2948,79.839,28.5868,2.72336,-24.1404,25.1208,7.12502,2.34175,55.0877,-21.369,6.91099,13.2,58.72,-16.3178,-17.0324,-8.69825,-8.75332,-9.82927,-29.3962,31.0984,-17.7831,0.376712,10.4849
-9.19646,18.3627,5.56516,3.42405,64.0315,3.4244,5.33198,3.47779,-4.65306,0.781831,4.33946,-3.22881,-2.26992,2.21125,-1.04548,-7.65414,3.74605,-4.32991,30.4207,5.11399,7.16415,10.6666,3.01135,3.9695,-5.35725e-14,0,-33.8442,-0.74313,-81.4059,29.4258,16.3398,-26.0028,3.34789,7.12502,0.543034,-26.6312,-5.35725e-14,0,-27.6095,10.2533,80.226,28.6937,2.58018,-24.2234,25.2046,7.12502,2.2616,55.1723,-21.8073,7.46362,12.7001,57.8127,-16.6723,-17.1443,-9.45241,-8.5494,-10.4727,-29.6006,31.0528,-17.52,-0.134099,9.60948
-9.13731,18.3603,5.60465,4.15368,65.2919,3.99721,5.27414,3.27932,-4.79181,0.754106,4.07119,-3.05321,-2.28389,2.07847,-0.76487,-7.76544,3.80912,-4.82678,30.4959,5.32319,7.13229,10.6876,3.05176,4.07222,4.05521e-14,1.51076e-14,-33.801,-0.243766,-81.2717,29.3048,16.4378,-26.4115,3.05411,7.12502,0.148334,-26.9256,4.05521e-14,1.51076e-14,-27.6059,10.1667,80.598,28.9383,2.56194,-23.9654,25.1679,7.12502,2.51078,55.1328,-22.3288,7.87463,12.1915,56.8063,-16.9901,-17.0711,-10.5937,-8.48461,-11.1804,-29.7339,31.0597,-17.4445,-0.630305,9.2816
-9.07855,18.3566,5.63912,4.63152,66.5252,4.46394,5.43062,3.08256,-4.76285,0.759204,3.80143,-2.86552,-2.37063,1.94436,-0.575905,-7.80626,3.8778,-5.34334,30.4624,5.53821,7.09775,10.6516,3.0919,4.16848,6.41081e-14,-2.06736e-14,-33.6769,0.34553,-81.0845,29.154,16.4503,-26.3444,3.40296,7.12502,0.213126,-26.5767,6.41081e-14,-2.06736e-14,-27.5794,10.0824,81.0418,29.1389,2.86119,-23.8391,25.0427,7.12502,2.63272,55.0062,-22.7009,8.39853,11.7132,55.7299,-17.3528,-16.8472,-10.4087,-8.25689,-11.8544,-29.847,31.0499,-17.4009,-1.08156,8.72861
-9.02005,18.3549,5.6695,4.82887,67.7582,4.70389,5.61063,2.88048,-4.51041,0.841946,3.54119,-2.66464,-2.37632,1.8115,-0.494785,-7.95192,3.91788,-5.94096,30.4735,5.7286,7.07917,10.6513,3.11295,4.28855,-1.01877e-13,3.81667e-14,-33.4561,1.05345,-80.9296,29.0104,16.2398,-26.5586,3.80874,7.12502,0.00622256,-26.171,-1.01877e-13,3.81667e-14,-27.4291,10.5559,81.4267,29.2078,2.60501,-23.8106,24.9092,7.12502,2.66028,54.8724,-22.9702,8.92856,11.3303,54.5773,-17.6188,-16.5779,-9.94518,-7.94009,-12.4742,-29.8527,31.0102,-17.3245,-1.64015,8.53183
-8.96247,18.3569,5.71877,5.19343,68.9241,5.07437,5.62995,2.63814,-4.62245,0.95716,3.2195,-2.41289,-2.28016,1.64948,-0.144618,-8.20352,4.03881,-6.44253,30.5211,6.05112,6.95971,10.6829,3.19113,4.37436,3.83157e-14,1.43125e-14,-33.1934,1.85684,-80.9416,28.8685,16.2725,-26.4636,3.97752,7.12502,0.0980241,-26.0022,3.83157e-14,1.43125e-14,-27.2545,11.449,81.6214,29.2177,2.10251,-23.5275,24.8864,7.12502,2.93364,54.8459,-23.2108,9.5826,10.9726,53.3834,-17.943,-16.3094,-10.1037,-7.58437,-12.9552,-29.8004,30.8472,-17.267,-2.36405,8.71955
-8.9065,18.3648,5.78246,5.82404,70.0488,5.6766,5.63476,2.61657,-4.89164,0.966259,3.17641,-2.39431,-2.28744,1.63057,0.0270149,-8.1648,4.0055,-6.14732,30.4976,6.02833,6.70649,10.6913,3.1881,4.22899,4.67144e-15,-2.54444e-14,-33.2287,1.45175,-80.9874,28.6787,16.942,-26.0832,4.19597,7.12502,0.46538,-25.7833,4.67144e-15,-2.54444e-14,-27.0083,11.2091,81.7061,29.115,2.10317,-23.2664,24.7777,7.12502,3.18586,54.7336,-23.4376,10.4952,10.5929,52.1567,-18.3252,-16.1665,-10.671,-7.23039,-13.387,-29.7476,30.6046,-17.2724,-3.12485,9.09416
-8.84677,18.3759,5.8411,6.45868,71.2025,6.32158,5.74995,2.94421,-4.71654,0.911444,3.61134,-2.73298,-2.39209,1.84979,-0.462452,-7.82015,3.63161,-5.3028,30.3721,5.36032,6.62391,10.6573,2.97781,3.9736,8.70677e-14,-5.64548e-14,-33.69,-0.169425,-80.9187,28.6921,17.3985,-26.1828,4.01197,7.12502,0.369197,-25.9675,8.70677e-14,-5.64548e-14,-26.5998,9.47447,81.8636,28.9358,2.31917,-23.3555,25.0535,7.12502,3.09983,55.0108,-23.57,11.4734,10.1823,50.8743,-18.5674,-16.0035,-10.384,-6.80731,-13.8532,-29.7183,30.3202,-17.266,-3.81286,9.80253
-8.78499,18.3794,5.90484,6.92649,72.3243,6.82301,5.83115,3.18095,-4.6061,0.915937,3.92858,-2.87289,-2.42441,2.00849,-0.698859,-7.66541,3.336,-4.93869,30.3225,4.88869,6.60591,10.6536,2.80928,3.85305,-2.95195e-14,-7.95139e-16,-33.9769,-0.847786,-80.8709,28.7275,17.1966,-26.2843,3.7788,7.12502,0.271163,-26.2008,-2.95195e-14,-7.95139e-16,-26.4655,8.37249,82.0701,28.9263,2.26561,-23.5949,25.2831,7.12502,2.86854,55.2436,-23.6834,12.3191,9.84095,49.5192,-18.439,-15.7937,-9.46349,-6.30749,-14.3098,-29.6312,29.9968,-17.236,-4.39002,10.3075
-8.7229,18.3838,5.97035,6.93266,73.4071,6.82812,5.84323,3.19096,-4.63304,0.956244,3.9431,-2.74919,-2.40034,2.01506,-0.557159,-7.67659,3.28032,-4.77357,30.3785,4.84362,6.43679,10.6922,2.79262,3.76396,-4.07509e-15,-9.54166e-15,-33.9505,-0.789618,-80.9331,28.5809,17.0806,-26.1103,3.84526,7.12502,0.43921,-26.134,-4.07509e-15,-9.54166e-15,-26.6515,8.34484,82.1711,29.0718,1.83456,-23.627,25.1127,7.12502,2.83756,55.0736,-23.8034,12.9321,9.67974,48.0907,-18.0516,-15.5342,-9.78988,-5.82942,-14.7497,-29.3515,29.668,-17.1838,-4.95395,10.8701
-8.66162,18.3974,6.03379,6.47463,74.5154,6.41663,5.97797,3.1748,-4.45635,0.99779,3.92692,-2.67259,-2.42582,2.00552,-0.581136,-7.56954,3.26389,-4.39555,30.2868,4.8341,6.15931,10.6589,2.80232,3.59053,2.11706e-14,-3.02153e-14,-33.9324,-0.883357,-81.098,28.4321,17.2623,-25.9895,3.79998,7.12502,0.555866,-26.179,2.11706e-14,-3.02153e-14,-26.6421,8.1381,82.1516,29.0895,1.64826,-23.1799,24.7209,7.12502,3.2694,54.6756,-23.7794,14.1293,9.65385,46.6182,-17.9845,-15.7147,-11.2552,-5.29799,-15.1389,-28.9531,29.3401,-17.2385,-5.61219,10.7737
-8.59812,18.41,6.09752,5.93285,75.6426,5.88711,6.01357,3.13201,-4.25921,1.09223,3.88663,-2.53984,-2.34336,1.98207,-0.54838,-7.48793,3.26901,-4.22245,30.0914,4.89177,5.86016,10.5821,2.81559,3.44686,-1.72943e-14,1.03368e-14,-33.8777,-0.631105,-81.2089,28.4392,17.2717,-25.979,4.09492,7.12502,0.565997,-25.8841,-1.72943e-14,1.03368e-14,-26.2595,8.07009,82.1874,28.8338,1.63121,-22.8073,24.1799,7.12502,3.62919,54.1287,-23.7201,16.5089,9.59657,45.1468,-18.4651,-16.7115,-10.549,-4.80192,-15.5983,-28.5385,29.0264,-17.3957,-6.24118,10.7497
-8.53596,18.4192,6.14829,5.69311,76.7262,5.56117,6.00148,3.05238,-4.05669,1.13552,3.79745,-2.3806,-2.28771,1.93462,-0.486558,-7.35255,3.27827,-4.11904,29.8987,5.00306,5.43058,10.4964,2.83096,3.27284,-3.55825e-14,1.82882e-14,-33.7691,-0.237216,-81.2012,28.4515,17.0393,-25.768,4.02166,7.12502,0.769795,-25.9567,-3.55825e-14,1.82882e-14,-26.0172,8.25476,82.2575,28.5845,1.5357,-22.8751,24.0805,7.12502,3.56374,54.0304,-23.9397,17.3648,9.32244,43.7059,-18.2941,-16.4381,-9.07725,-4.46032,-16.0833,-28.2132,28.6997,-17.3068,-6.70114,11.535
-8.47803,18.4226,6.18147,6.31569,77.9098,6.06257,6.03495,2.95854,-3.76184,1.16684,3.69132,-2.33533,-2.25624,1.87925,-0.594876,-7.34066,3.24806,-4.0729,29.8097,5.02353,5.19124,10.4705,2.82107,3.17771,-4.75095e-14,3.02153e-14,-33.5942,-0.432473,-80.9132,28.439,17.4012,-24.5653,4.84579,7.12502,1.9314,-25.1252,-4.75095e-14,3.02153e-14,-25.9208,8.27716,82.3915,28.458,1.35525,-23.072,24.0539,7.12502,3.37361,54.007,-24.2805,17.8985,8.72358,42.3409,-18.1338,-15.9617,-8.63039,-4.22899,-16.5292,-28.0953,28.348,-16.9982,-7.22509,11.2305
-8.41833,18.4273,6.21807,6.78135,79.1202,6.49744,6.08703,2.90479,-3.36244,1.25939,3.64732,-2.35687,-2.16292,1.85429,-0.833979,-7.60488,3.19997,-4.27488,30.0295,4.92145,5.55922,10.591,2.79972,3.3543,-1.16289e-14,3.97569e-15,-33.4372,-1.13033,-80.6051,28.3626,18.0958,-22.9795,6.22624,7.12502,3.46288,-23.7254,-1.16289e-14,3.97569e-15,-25.7451,8.06701,82.4489,28.3243,1.2232,-22.831,23.7036,7.12502,3.6063,53.6529,-24.486,18.6214,8.18251,41.0364,-18.2389,-15.4672,-8.45364,-3.87735,-16.9804,-27.9603,27.9654,-16.6679,-7.7864,10.0372
-8.35545,18.4371,6.26569,8.52146,80.2532,8.16073,6.03686,2.82831,-3.38697,1.33107,3.55137,-2.35951,-2.06109,1.80624,-0.809798,-7.83086,3.21437,-4.53145,30.2361,4.92984,5.88396,10.6935,2.8181,3.53486,-5.75482e-14,2.54444e-14,-33.3514,-1.05846,-80.6884,28.3853,17.6537,-21.9376,6.14251,7.12502,4.46905,-23.7903,-5.75482e-14,2.54444e-14,-25.7347,7.96137,82.5272,28.3878,1.36432,-22.8259,23.8334,7.12502,3.61119,53.7826,-24.7187,19.5089,7.44047,39.7136,-18.23,-15.2363,-9.40385,-3.5766,-17.5631,-28.008,27.6122,-16.4824,-8.2173,9.18781
-8.29266,18.4467,6.31957,11.2281,81.2997,10.7265,5.97023,2.75617,-3.57612,1.33877,3.44876,-2.38118,-2.02432,1.75635,-0.715025,-7.87329,3.22613,-4.61443,30.2289,4.94382,5.99307,10.6916,2.83208,3.59163,2.71341e-14,7.95139e-15,-33.3653,-0.519434,-81.0196,28.5348,17.0008,-22.2729,5.1981,7.12502,4.14526,-24.7413,2.71341e-14,7.95139e-15,-25.8718,7.69138,82.6216,28.5237,1.70635,-23.4822,24.4679,7.12502,2.97741,54.4269,-24.9818,20.5621,6.55902,38.2613,-17.9331,-15.1608,-10.2171,-3.39298,-18.094,-28.078,27.3611,-16.3673,-8.68747,8.98343
-8.23095,18.4467,6.37422,11.9852,82.3019,11.5632,6.1892,2.71181,-3.40279,1.39559,3.39292,-2.31921,-2.08073,1.7281,-0.752733,-7.84377,3.22836,-4.54844,30.1413,4.96264,5.91047,10.6566,2.84174,3.5476,4.85035e-14,-3.26007e-14,-33.3679,-0.314995,-81.1688,28.6826,16.9082,-22.973,4.49959,7.12502,3.46922,-25.4519,4.85035e-14,-3.26007e-14,-25.8694,7.6384,82.6187,28.3925,1.70469,-24.2532,24.7481,7.12502,2.23281,54.7162,-24.9559,21.8401,6.11172,36.7164,-17.5984,-14.9366,-9.83429,-2.94745,-18.3633,-27.8537,27.1523,-15.9487,-9.27294,10.1196
