JuanDHNZ/ProyectoFinalCD/preprocessing/sports_trials_csv/13_30.csv
root1,root2,root3,root4,root5,root6,lowerback1,lowerback2,lowerback3,upperback1,upperback2,upperback3,thorax1,thorax2,thorax3,lowerneck1,lowerneck2,lowerneck3,upperneck1,upperneck2,upperneck3,head1,head2,head3,rclavicle1,rclavicle2,rhumerus1,rhumerus2,rhumerus3,rradius1,rwrist1,rhand1,rhand2,rfingers1,rthumb1,rthumb2,lclavicle1,lclavicle2,lhumerus1,lhumerus2,lhumerus3,lradius1,lwrist1,lhand1,lhand2,lfingers1,lthumb1,lthumb2,rfemur1,rfemur2,rfemur3,rtibia1,rfoot1,rfoot2,rtoes1,lfemur1,lfemur2,lfemur3,ltibia1,lfoot1,lfoot2,ltoes1
0.189936,16.3812,-2.54321,-10.9896,-6.1819,1.98305,13.7264,-0.825911,-2.73742,2.45543,-1.50663,-0.142738,-5.03439,-0.703094,1.66412,-8.28044,-0.615244,-6.136,6.13263,-0.681107,7.15649,3.21758,-0.168251,3.14158,2.08413e-14,2.88238e-15,38.8038,-34.4896,-19.1767,104.658,5.19868,-44.2508,9.2198,7.12502,-17.0627,-20.0509,2.08413e-14,2.88238e-15,38.5148,28.4273,28.0885,103.105,24.3264,-36.3002,13.1939,7.12502,-9.39948,42.9643,-5.85794,23.4385,5.33305,53.0112,-32.504,-10.7263,-26.7792,-8.54418,-6.22509,-7.10811,59.13,-27.3655,-2.53475,-28.2786
0.224213,16.4512,-2.51971,-10.956,-6.36278,2.31812,13.297,-0.723377,-2.94634,2.27205,-1.38573,-0.0724513,-4.99051,-0.638615,1.82782,-9.29467,-0.427052,-6.66103,7.82013,-0.426366,7.62065,3.87797,-0.0103832,3.40259,1.77543e-14,9.93923e-16,37.9781,-33.185,-18.8431,104.01,5.39212,-43.9413,8.74775,7.12502,-16.7647,-20.5484,1.77543e-14,9.93923e-16,36.5584,26.4863,27.4242,103.145,23.9432,-36.3448,13.2353,7.12502,-9.44254,43.0038,-5.43215,23.4113,4.76291,51.8845,-31.8097,-10.1697,-26.3917,-7.78339,-5.98809,-7.737,57.8516,-27.2598,-2.09722,-28.0744
0.259937,16.5447,-2.49573,-10.7573,-6.62943,2.48521,12.7139,-0.637502,-2.89288,2.0436,-1.24538,-0.0137818,-4.91686,-0.568677,1.82639,-9.63711,-0.297969,-6.62512,8.66577,-0.264741,7.49887,4.17913,0.0721606,3.37878,-1.26321e-14,3.97569e-16,36.9199,-31.8282,-18.6449,103.274,5.54699,-43.512,8.14134,7.12502,-16.3514,-21.1894,-1.26321e-14,3.97569e-16,34.4815,24.5128,26.7603,102.99,23.7739,-36.0958,12.9915,7.12502,-9.2022,42.7707,-5.15235,23.4311,4.37042,50.6758,-30.6462,-9.94224,-26.8287,-7.15051,-5.58206,-8.19397,56.5157,-26.9224,-1.41476,-28.1
0.296981,16.6634,-2.46921,-10.4261,-7.06973,2.32037,12.0124,-0.546743,-2.46625,1.82386,-1.04204,0.137869,-4.77538,-0.474412,1.70123,-9.80885,-0.182029,-6.50296,9.17259,-0.116065,7.28896,4.35109,0.141518,3.30892,-2.8917e-14,6.36111e-15,35.8184,-30.5363,-18.6181,102.41,5.79963,-43.1657,7.5726,7.12502,-16.0179,-21.7852,-2.8917e-14,6.36111e-15,32.3212,22.5716,26.1715,102.664,23.6854,-35.9718,12.6519,7.12502,-9.08259,42.4363,-5.05858,23.6462,4.38023,49.4525,-29.245,-9.69867,-27.4745,-6.59331,-5.01488,-8.23241,55.1443,-26.2846,-1.02081,-27.5928
0.32979,16.8021,-2.44425,-10.0113,-7.59614,1.85081,11.3992,-0.459359,-1.79122,1.54347,-0.816045,0.387932,-4.74594,-0.370424,1.54002,-10.0931,-0.0920443,-6.39751,9.76614,0.000266402,7.11024,4.57173,0.197523,3.25187,-2.67738e-15,1.47101e-14,34.5364,-29.1722,-18.6167,101.389,5.95623,-43.0453,6.96767,7.12502,-15.902,-22.3994,-2.67738e-15,1.47101e-14,29.9364,20.6248,25.7233,102.257,23.548,-35.871,12.4656,7.12502,-8.98534,42.2542,-5.03773,24.0659,4.79629,48.2123,-27.6055,-9.36196,-27.2997,-6.125,-4.39602,-7.86215,53.7474,-25.2701,-0.816288,-26.9219
0.361843,16.962,-2.41913,-9.61853,-7.99933,1.49172,10.9147,-0.378539,-1.21489,1.21796,-0.622461,0.580384,-4.82907,-0.280572,1.38329,-10.5036,-0.0168131,-6.13703,10.4529,0.092013,6.80706,4.84559,0.240937,3.13115,-8.80865e-15,-2.0276e-14,32.8978,-27.7565,-18.5341,100.319,5.88892,-42.9229,6.50038,7.12502,-15.7841,-22.8761,-8.80865e-15,-2.0276e-14,27.4801,18.6566,25.4487,101.645,23.4216,-35.4818,12.7387,7.12502,-8.60971,42.5432,-4.93309,24.5434,5.13867,46.9722,-25.8263,-9.14973,-27.3643,-5.64353,-3.91495,-7.64154,52.3019,-24.0152,-0.535855,-26.8488
0.394396,17.1312,-2.39728,-9.22035,-8.32887,1.36143,10.3578,-0.302975,-0.904978,0.95302,-0.472134,0.744657,-4.80184,-0.209497,1.35389,-10.8392,0.148271,-5.92152,10.8168,0.318105,6.53725,5.00005,0.348273,3.03384,-1.2921e-15,-1.03368e-14,31.2303,-26.402,-18.5232,99.1909,5.74,-42.7425,6.09708,7.12502,-15.6104,-23.293,-1.2921e-15,-1.03368e-14,25.0184,16.8466,25.4357,100.824,23.5982,-34.6638,13.6521,7.12502,-7.82029,43.4875,-4.88242,25.0625,5.23215,45.7407,-23.8459,-9.26785,-28.1938,-5.1631,-3.62359,-7.7168,50.7784,-22.5441,-0.152726,-27.2117
0.421672,17.3067,-2.38277,-8.80693,-8.65704,1.29308,9.77895,-0.243012,-0.718999,0.747828,-0.360418,0.89472,-4.69642,-0.156212,1.38573,-11.04,0.341882,-5.74514,10.791,0.585847,6.35398,5.00977,0.477555,2.96762,-5.86415e-15,8.34896e-15,29.5925,-25.1576,-18.7704,97.9775,5.61089,-42.3875,5.58926,7.12502,-15.2684,-23.8272,-5.86415e-15,8.34896e-15,22.611,15.2609,25.7454,99.854,23.6502,-33.45,14.9414,7.12502,-6.64868,44.817,-4.92836,25.6981,5.28495,44.5088,-21.6034,-9.31947,-28.303,-4.71516,-3.48984,-7.84064,49.14,-20.7866,0.155983,-27.8589
0.445699,17.4966,-2.36831,-8.52227,-8.86331,1.36423,9.3526,-0.194577,-0.696484,0.555722,-0.287198,0.976928,-4.66024,-0.118829,1.44644,-11.5343,0.44085,-5.52846,11.1147,0.720381,6.1644,5.18645,0.546594,2.89113,-1.26228e-14,9.93923e-15,27.8005,-23.9571,-19.1491,96.7019,5.41073,-42.0549,5.04618,7.12502,-14.9481,-24.3944,-1.26228e-14,9.93923e-15,20.1752,13.7031,26.282,98.6934,23.4145,-32.2786,15.7399,7.12502,-5.51771,45.648,-4.79964,26.3719,5.27505,43.2576,-19.1373,-9.22426,-26.9999,-4.1444,-3.56511,-8.14702,47.3545,-18.8466,0.540127,-28.9422
0.466614,17.6933,-2.35835,-8.21226,-9.00074,1.3399,9.04774,-0.168665,-0.68091,0.300432,-0.242101,1.11406,-4.75674,-0.0933337,1.57378,-12.1579,0.524348,-5.32973,11.6971,0.832879,5.97714,5.4678,0.605167,2.82238,5.99087e-14,-1.15295e-14,25.9169,-22.7279,-19.5128,95.2839,5.07308,-41.8861,4.67527,7.12502,-14.7855,-24.7773,5.99087e-14,-1.15295e-14,17.6469,12.1743,27.0169,97.3139,23.8956,-31.3307,16.2941,7.12502,-4.60249,46.2241,-4.63818,27.0685,5.42592,41.9848,-16.5288,-9.4566,-25.5653,-3.59425,-3.69194,-8.30056,45.4638,-16.6944,0.750684,-30.0863
0.483837,17.8915,-2.35358,-7.88345,-9.20245,1.24016,9.01863,-0.17731,-0.751113,-0.0874567,-0.24696,1.33303,-5.14479,-0.0862484,1.84498,-12.5945,0.68733,-5.02128,12.1469,1.05011,5.63687,5.67339,0.705104,2.69226,-1.87852e-14,1.11319e-14,24.0402,-21.2865,-19.9885,93.7684,4.65483,-41.7946,4.14731,7.12502,-14.6973,-25.3117,-1.87852e-14,1.11319e-14,14.766,10.792,27.806,95.9464,25.0416,-30.4022,17.3768,7.12502,-3.70586,47.3244,-4.54164,27.8576,5.69889,40.6918,-13.9011,-10.0463,-24.8353,-3.0325,-3.84526,-8.32013,43.4835,-14.35,0.694556,-30.3387
0.500163,18.0905,-2.34578,-7.61085,-9.38595,1.16754,8.66954,-0.16512,-0.597332,-0.226019,-0.211101,1.37899,-5.0948,-0.0714349,1.79949,-13.024,0.76701,-4.78664,12.2917,1.14643,5.50387,5.78866,0.757917,2.62641,3.62782e-15,9.54166e-15,22.0722,-20.2733,-20.7681,92.1429,4.39003,-41.785,3.36482,7.12502,-14.688,-26.0949,3.62782e-15,9.54166e-15,12.2991,9.69335,28.6466,94.3361,26.1273,-29.9739,18.4642,7.12502,-3.29221,48.4186,-4.37931,28.599,5.97612,39.4035,-11.3477,-10.6732,-23.5666,-2.41763,-4.11918,-8.39734,41.4683,-11.9621,0.754764,-30.4316
0.515683,18.2886,-2.33539,-7.26573,-9.39981,1.26523,8.1554,-0.215804,-0.619738,-0.402503,-0.280274,1.36559,-4.98682,-0.10493,1.8036,-13.2615,0.847076,-4.65314,12.3675,1.23518,5.51029,5.84873,0.810687,2.61801,3.90612e-14,-1.59028e-14,20.1348,-19.3379,-21.7309,90.4408,3.89821,-41.616,3.1091,7.12502,-14.5252,-26.3624,3.90612e-14,-1.59028e-14,9.78121,8.75984,29.5147,92.5117,27.4163,-29.8185,18.8123,7.12502,-3.14218,48.7689,-4.30574,29.0845,6.00751,38.1471,-8.71161,-11.4153,-21.9318,-1.9708,-4.64988,-8.73877,39.4621,-9.45713,1.12322,-30.8089
0.528,18.4807,-2.32834,-6.9199,-9.31448,1.36844,7.63018,-0.294578,-0.660365,-0.508059,-0.389189,1.34823,-4.79653,-0.158784,1.817,-13.7128,0.910716,-4.49329,12.4477,1.31495,5.43994,5.94794,0.856826,2.58299,3.19049e-14,1.43125e-14,18.2315,-18.6761,-22.7244,88.6273,3.07206,-41.2198,3.01884,7.12502,-14.1435,-26.4798,3.19049e-14,1.43125e-14,7.44614,8.23963,30.5233,90.4811,28.9588,-29.5526,18.9484,7.12502,-2.88536,48.9087,-4.24904,29.4631,6.0741,36.9371,-5.99187,-12.3409,-20.3811,-1.58318,-5.28695,-9.10176,37.4952,-6.90107,1.59255,-30.2905
0.541459,18.6677,-2.31874,-6.59615,-9.20898,1.3547,7.1484,-0.388804,-0.551007,-0.635505,-0.503764,1.35982,-4.65403,-0.218501,1.77604,-14.1028,0.979653,-4.33988,12.5926,1.40847,5.29916,6.05725,0.902713,2.52822,-1.98785e-15,-6.36111e-15,16.3621,-18.0868,-23.8266,86.6278,2.58649,-40.8525,2.81896,7.12502,-13.7895,-26.704,-1.98785e-15,-6.36111e-15,5.14981,7.86785,31.5829,88.249,30.3651,-29.1988,19.7372,7.12502,-2.54373,49.7017,-4.12787,29.7258,6.31649,35.7767,-3.39888,-13.3229,-18.2997,-1.21458,-5.96229,-9.36802,35.6376,-4.37232,2.27998,-28.7771
0.555784,18.8507,-2.30674,-6.19644,-9.07419,1.14653,6.62738,-0.506666,-0.204263,-0.800369,-0.630466,1.39266,-4.53028,-0.289685,1.62344,-14.2546,1.01331,-4.07797,12.6113,1.4417,5.05543,6.09146,0.913413,2.41242,-8.34896e-15,-1.74931e-14,14.4838,-17.6261,-25.0001,84.4887,2.32694,-40.6406,2.5821,7.12502,-13.5853,-26.9547,-8.34896e-15,-1.74931e-14,2.8974,7.59636,32.6574,85.8195,31.2462,-28.8277,20.822,7.12502,-2.18531,50.7906,-4.03688,29.8048,6.76168,34.6977,-1.05166,-14.1341,-15.586,-0.977388,-6.71949,-9.44027,33.9463,-1.97882,3.16053,-26.74
0.568484,19.0227,-2.29907,-5.75901,-8.94021,0.760975,6.12239,-0.620961,0.290109,-0.92419,-0.742239,1.49624,-4.3754,-0.356614,1.45814,-14.4937,1.01001,-3.90356,12.549,1.4495,4.79924,6.11545,0.90725,2.30456,6.31141e-15,-7.95139e-16,12.6896,-17.4006,-26.1784,82.2523,1.93718,-40.1717,2.71982,7.12502,-13.1333,-26.8466,6.31141e-15,-7.95139e-16,0.87333,7.66999,33.8571,83.1385,31.5833,-28.5709,21.1162,7.12502,-1.93734,51.0871,-4.04855,29.7634,7.40073,33.7445,0.591036,-14.2258,-14.5751,-0.883382,-7.50919,-9.32689,32.4917,0.219536,4.23908,-25.0948
0.578391,19.1758,-2.29898,-5.38319,-8.82489,0.650413,5.70468,-0.704033,0.447598,-1.01398,-0.844015,1.53139,-4.23212,-0.410928,1.41012,-14.9142,1.00889,-3.80063,12.5319,1.46882,4.61122,6.18263,0.910223,2.23419,-1.43125e-14,-1.66979e-14,10.9349,-17.2625,-27.3202,79.9531,1.41719,-39.9186,2.91716,7.12502,-12.8893,-26.6648,-1.43125e-14,-1.66979e-14,-0.918339,8.10738,35.0316,80.1652,31.5429,-28.3853,20.9188,7.12502,-1.758,50.8913,-4.21141,29.5041,7.68098,32.9855,1.04726,-12.7699,-14.6737,-0.916193,-8.30912,-9.54271,31.3255,2.19502,5.46032,-21.6615
0.587847,19.3092,-2.30643,-5.02748,-8.74901,0.650232,5.42329,-0.744195,0.505278,-1.14063,-0.896975,1.49706,-4.20488,-0.438958,1.34389,-15.2505,0.980983,-3.68615,12.5439,1.43231,4.50682,6.24667,0.892513,2.18287,-1.08338e-14,6.36111e-15,9.05328,-17.1581,-28.3762,77.6421,0.846415,-39.848,2.82805,7.12502,-12.8212,-26.7582,-1.08338e-14,6.36111e-15,-2.53304,8.6192,36.114,76.9779,30.9662,-28.3344,21.0659,7.12502,-1.70885,51.0388,-4.53568,29.017,7.80295,32.4602,0.622627,-9.95986,-14.7939,-1.11139,-9.06734,-9.88364,30.4936,3.79701,6.74146,-16.0212
0.59959,19.4219,-2.31937,-4.67463,-8.70773,0.585641,5.1314,-0.731592,0.786789,-1.21061,-0.86785,1.41191,-4.11854,-0.432661,1.09125,-15.3917,0.879267,-3.66679,12.2652,1.30389,4.48912,6.18771,0.831333,2.1597,1.75924e-14,7.95139e-15,7.11647,-17.3207,-29.3764,75.3003,0.236791,-39.8451,2.46071,7.12502,-12.8185,-27.1257,1.75924e-14,7.95139e-15,-3.74398,9.25897,37.2534,73.6071,29.9598,-27.8634,21.1509,7.12502,-1.25402,51.127,-4.98802,28.5488,8.04072,32.1685,-0.0393882,-7.09016,-14.3708,-1.41835,-9.8044,-10.1662,29.9774,4.4801,7.8956,-13.1392
0.611601,19.5187,-2.33549,-4.33843,-8.68863,0.461925,4.82915,-0.664275,1.19677,-1.22318,-0.761214,1.3019,-3.96902,-0.39103,0.734191,-15.4386,0.716805,-3.59463,11.8411,1.09481,4.38974,6.07101,0.725847,2.0913,3.42904e-14,1.03368e-14,5.19309,-17.8178,-30.3653,73.0041,-0.378927,-39.8709,2.28683,7.12502,-12.8433,-27.298,3.42904e-14,1.03368e-14,-4.57086,10.1194,38.4536,70.107,28.9073,-27.2117,20.9071,7.12502,-0.624539,50.886,-5.48947,28.0565,8.42352,32.0652,-0.595992,-4.81979,-13.5043,-1.7729,-10.5399,-10.4158,29.7308,3.72309,8.76089,-13.1352
0.624228,19.6082,-2.34905,-4.06841,-8.66272,0.443069,4.6685,-0.611594,1.37598,-1.30606,-0.684028,1.24301,-3.96731,-0.357896,0.565357,-15.5803,0.587731,-3.80509,11.7358,0.945971,4.57374,6.06559,0.660473,2.17076,-1.88348e-14,3.18055e-15,3.31219,-18.2158,-31.2421,70.86,-1.39229,-39.7563,2.26047,7.12502,-12.7329,-27.3313,-1.88348e-14,3.18055e-15,-5.52637,11.0965,39.6538,66.6976,27.9029,-28.3828,21.4804,7.12502,-1.75566,51.4529,-5.93753,27.4298,8.75969,32.0874,-1.0471,-3.03459,-13.1969,-2.13023,-11.2123,-10.8228,29.7142,2.13065,9.40929,-13.1962
0.638695,19.6903,-2.35812,-3.85171,-8.63503,0.531382,4.61059,-0.56823,1.41718,-1.42374,-0.624315,1.20434,-4.05741,-0.330278,0.498008,-15.915,0.48401,-4.34707,11.8448,0.857499,5.08917,6.15506,0.638618,2.4214,-3.23025e-15,-1.82882e-14,1.43784,-18.4089,-31.954,68.8339,-2.76129,-39.9557,1.97831,7.12502,-12.9251,-27.6014,-3.23025e-15,-1.82882e-14,-6.56228,12.1953,40.8396,63.4446,26.8817,-29.8055,22.3124,7.12502,-3.12965,52.2691,-6.31238,26.9182,9.04173,32.1974,-1.34982,-1.80968,-12.6827,-2.48751,-11.8283,-11.3901,29.8588,0.478777,9.82845,-12.0835
0.656285,19.7563,-2.36999,-3.69505,-8.61785,0.620791,4.62918,-0.520403,1.53653,-1.46547,-0.554379,1.13913,-4.11292,-0.299716,0.358713,-16.0763,0.398617,-4.50949,11.5086,0.785881,5.14531,6.07768,0.603152,2.45625,-1.83876e-15,4.77083e-15,-0.398696,-18.6138,-32.63,66.9369,-4.3117,-40.2832,1.45676,7.12502,-13.2408,-28.1027,-1.83876e-15,4.77083e-15,-7.52813,13.4766,41.9725,60.3857,25.9516,-30.1193,22.7023,7.12502,-3.43265,52.6544,-6.59885,26.4753,9.37553,32.367,-1.60607,-1.0979,-12.3061,-2.84174,-12.3705,-11.98,30.1309,-1.12559,9.71288,-9.91101
0.674698,19.8086,-2.38483,-3.64863,-8.75012,0.808006,4.78285,-0.428498,1.57186,-1.4649,-0.428994,1.05601,-4.1995,-0.239798,0.244233,-15.9548,0.339915,-4.33348,10.8656,0.743845,4.70894,5.85805,0.554404,2.27411,-1.63003e-14,0,-2.1689,-18.7849,-33.2724,65.2812,-6.22347,-40.5516,0.936027,7.12502,-13.4995,-28.6064,-1.63003e-14,0,-8.51818,14.8717,43.0829,57.5802,25.1819,-29.7151,23.1887,7.12502,-3.04228,53.1467,-6.87085,26.12,9.6373,32.6251,-1.8274,-0.754554,-12.8078,-3.08944,-12.7001,-12.6918,30.483,-2.53396,9.40079,-9.20833
0.690389,19.8493,-2.40238,-3.59204,-8.95989,0.77159,5.00017,-0.302323,1.80562,-1.441,-0.241631,1.02092,-4.29768,-0.153806,0.0624155,-15.9224,0.284675,-4.30646,10.3519,0.709638,4.46204,5.69278,0.51982,2.18139,-2.43511e-15,7.95139e-15,-3.94395,-19.1142,-33.9473,63.8793,-8.39528,-40.7321,0.224524,7.12502,-13.6735,-29.3063,-2.43511e-15,7.95139e-15,-9.52217,16.2226,44.1684,55.1072,24.6762,-32.202,23.8878,7.12502,-5.44372,53.7978,-7.19569,25.8934,10.1954,33.0087,-1.98686,-0.78609,-13.3576,-3.32836,-12.8236,-13.1136,30.8368,-3.51355,8.98851,-9.56327
0.705808,19.8771,-2.42232,-3.52643,-9.04165,0.997738,5.19465,-0.20133,1.74896,-1.43602,-0.10951,0.927136,-4.40093,-0.0886021,-0.0134536,-16.0125,0.201722,-4.46381,9.94187,0.647577,4.44755,5.5805,0.483864,2.19292,-1.63003e-14,-9.54166e-15,-5.8619,-19.3119,-34.5418,62.8376,-10.8577,-40.4651,-0.524112,7.12502,-13.4161,-30.0721,-1.63003e-14,-9.54166e-15,-10.612,17.5944,45.2415,52.9846,24.4406,-32.1006,23.9005,7.12502,-5.34589,53.8131,-7.57762,25.5345,10.4419,33.5215,-2.50294,-0.976816,-14.2755,-3.6439,-12.7501,-13.8033,31.1303,-4.21635,8.03749,-10.5064
0.723415,19.894,-2.44077,-3.61959,-9.05689,1.69948,5.45416,-0.124594,1.21299,-1.39165,-0.0488201,0.709812,-4.49996,-0.0472995,0.0576174,-16.3365,0.146038,-4.5861,9.73463,0.617229,4.44924,5.56914,0.468056,2.21097,3.67752e-15,-1.19271e-14,-7.79923,-19.2724,-35.1147,62.0716,-13.3222,-40.0038,-1.5107,7.12502,-12.9715,-31.0875,3.67752e-15,-1.19271e-14,-11.7549,19.1552,46.2593,51.1794,24.3646,-30.7324,24.3452,7.12502,-4.02473,54.2869,-7.86601,24.9818,10.1838,34.1294,-3.39707,-1.10817,-15.8241,-3.8123,-12.4497,-15.0602,31.3813,-4.65199,6.6114,-12.0451
0.737447,19.8993,-2.46062,-3.80361,-9.18478,2.35398,5.83535,-0.0173685,0.713564,-1.26474,0.051795,0.478645,-4.58279,0.0129772,0.0895405,-16.8965,0.128446,-4.6527,9.70052,0.630161,4.4659,5.64886,0.478539,2.23253,-1.10822e-14,1.66979e-14,-9.63378,-19.2631,-35.7964,61.4072,-15.6637,-39.9832,-2.00486,7.12502,-12.9516,-31.5829,-1.10822e-14,1.66979e-14,-12.9478,20.7426,47.1481,49.695,24.3247,-29.6791,24.6041,7.12502,-3.00752,54.5626,-8.12852,24.5636,10.0666,34.8363,-4.09476,-1.37858,-16.0248,-3.85945,-11.8608,-16.2463,31.5958,-4.77336,4.94488,-13.1315
0.746015,19.8894,-2.48036,-4.01324,-9.39797,2.80487,6.27334,0.123586,0.381812,-1.09102,0.208262,0.288212,-4.64965,0.0968775,0.0627229,-17.3867,0.116825,-4.65679,9.4806,0.645062,4.43324,5.65825,0.488345,2.2259,3.23025e-15,-1.07344e-14,-11.4613,-19.4039,-36.5773,60.8874,-17.8746,-40.2926,-2.07891,7.12502,-13.2498,-31.6378,3.23025e-15,-1.07344e-14,-14.2947,21.986,47.9595,48.6144,24.4189,-30.2562,24.107,7.12502,-3.56484,54.057,-8.37594,24.2993,10.2391,35.6217,-4.48443,-1.79407,-15.1857,-3.87996,-10.9366,-17.1727,31.8503,-4.57879,3.0454,-14.5738
0.753649,19.8647,-2.49677,-4.2482,-9.5183,3.40382,6.67497,0.234035,-0.0992967,-0.96274,0.306353,0.0545942,-4.74436,0.155062,0.0796775,-17.5247,0.144405,-4.63564,9.03979,0.69814,4.38933,5.5386,0.514086,2.20999,2.45996e-14,1.11319e-14,-13.3371,-19.4463,-37.3995,60.5187,-19.6357,-40.462,-2.52566,7.12502,-13.4131,-32.0738,2.45996e-14,1.11319e-14,-15.9405,23.0035,48.7136,48.0705,24.9344,-30.6904,24.1572,7.12502,-3.98414,54.0997,-8.56328,23.9635,10.252,36.4463,-4.94573,-2.25385,-15.1121,-3.95757,-9.87006,-18.2485,32.2359,-4.25514,1.14009,-15.6786
0.760271,19.8235,-2.51731,-4.38313,-9.58404,4.04238,7.01378,0.330739,-0.596209,-0.867105,0.37926,-0.206863,-4.83813,0.200807,0.0785054,-17.5787,0.164613,-4.72807,8.56621,0.745899,4.49203,5.39461,0.543877,2.25772,9.79014e-15,1.47101e-14,-15.2901,-19.2073,-38.2589,60.3645,-21.2613,-40.7359,-2.93299,7.12502,-13.6771,-32.4636,9.79014e-15,1.47101e-14,-17.6542,23.8951,49.4242,47.8353,25.5426,-29.8336,24.9586,7.12502,-3.15672,54.915,-8.84341,23.5377,10.1655,37.2546,-5.38073,-2.59291,-15.4531,-4.25117,-8.78524,-19.338,32.7662,-3.86787,-0.562872,-15.9164
0.766674,19.7655,-2.5373,-4.36575,-9.6679,4.46524,7.20382,0.398236,-0.877969,-0.759834,0.434423,-0.388823,-4.83493,0.23283,0.0411951,-17.8313,0.165392,-4.7216,8.18211,0.782043,4.35061,5.31242,0.554461,2.21319,2.98177e-15,8.74653e-15,-17.4357,-18.0949,-39.0873,60.7226,-23.4251,-41.139,-3.29398,7.12502,-14.0655,-32.798,2.98177e-15,8.74653e-15,-19.4033,24.5141,50.0617,47.5997,26.0622,-29.5632,25.586,7.12502,-2.89566,55.5461,-9.23415,23.1743,10.276,38.0241,-5.55522,-2.76046,-15.3499,-4.72901,-7.73734,-20.1727,33.3384,-3.35332,-2.12154,-16.863
0.774286,19.6994,-2.55539,-4.27363,-9.64857,4.67491,7.28589,0.390437,-0.917774,-0.650533,0.414333,-0.512099,-4.7666,0.221798,-0.0620115,-18.0362,0.210178,-4.716,7.77243,0.875639,4.20245,5.21174,0.592361,2.17149,1.6934e-14,-1.59028e-15,-18.8738,-19.0897,-40.4477,60.5946,-23.4805,-40.7077,-3.10405,7.12502,-13.6499,-32.6365,1.6934e-14,-1.59028e-15,-21.2548,24.9846,50.6546,47.4656,26.4503,-30.2274,25.1681,7.12502,-3.53702,55.1185,-9.62001,22.7241,10.6226,38.7396,-5.5083,-2.74741,-15.3089,-5.30737,-6.83828,-20.7406,33.956,-2.64394,-3.57073,-17.8906
0.784514,19.626,-2.56973,-4.25357,-9.48208,5.07748,7.35565,0.34336,-1.10006,-0.532737,0.325905,-0.712484,-4.68269,0.179486,-0.157219,-18.1617,0.286436,-4.75941,7.44103,1.00398,4.16312,5.12099,0.653098,2.17567,-1.60394e-14,5.96354e-15,-20.6125,-19.1541,-41.6515,60.6346,-23.6382,-40.5455,-3.29141,7.12502,-13.4936,-32.8343,-1.60394e-14,5.96354e-15,-23.2383,25.3981,51.244,47.6239,26.5826,-30.4955,24.5683,7.12502,-3.79599,54.5142,-9.89593,22.2017,10.7549,39.4302,-5.39626,-2.50216,-14.8914,-5.82107,-6.23456,-21.5388,34.598,-1.77436,-4.4671,-17.4706
0.795134,19.5335,-2.58385,-4.22883,-9.30319,5.44186,7.37601,0.284836,-1.32018,-0.383857,0.223001,-0.859558,-4.53897,0.131111,-0.173778,-18.2598,0.366205,-4.77767,7.09778,1.13551,4.07417,5.02243,0.71253,2.15989,-2.70223e-15,2.22639e-14,-22.216,-19.3845,-42.8315,60.535,-22.8108,-39.4054,-3.49211,7.12502,-12.3945,-33.1047,-2.70223e-15,2.22639e-14,-25.1822,25.6604,51.9303,47.7263,26.5369,-30.1145,23.795,7.12502,-3.42806,53.7471,-10.1317,21.7436,10.9227,40.1202,-5.13232,-2.00744,-14.2162,-6.25944,-5.6285,-22.312,35.2674,-0.878009,-4.84074,-18.1914
0.803332,19.4237,-2.60182,-4.13319,-9.14526,5.67549,7.12033,0.229431,-1.43468,-0.0121561,0.145312,-0.975191,-4.00821,0.0904485,-0.217682,-18.644,0.404945,-4.77473,6.54392,1.22438,3.96667,4.90465,0.753904,2.13155,-3.74895e-15,-2.38542e-15,-23.4419,-19.8849,-44.203,60.4582,-22.1473,-38.531,-3.30084,7.12502,-11.5514,-32.9625,-3.74895e-15,-2.38542e-15,-26.546,25.8953,52.8909,47.6261,26.6255,-30.03,23.1213,7.12502,-3.34641,53.0747,-10.4572,21.3704,11.2342,40.8405,-4.65563,-1.27095,-14.265,-6.72267,-4.91436,-22.9096,35.9766,0.0633019,-5.12375,-19.9512
0.808693,19.3013,-2.62031,-4.03291,-9.00304,5.80475,7.34473,0.201168,-1.43613,0.00818819,0.0978759,-1.08961,-4.11277,0.0661547,-0.331125,-18.6217,0.432263,-4.70152,6.12559,1.26254,3.8434,4.76896,0.767555,2.07995,7.90247e-15,-7.95139e-16,-25.2054,-19.8806,-45.4453,60.5689,-21.8893,-38.3853,-3.10101,7.12502,-11.4109,-32.7705,7.90247e-15,-7.95139e-16,-28.2166,25.5835,53.7471,47.5626,26.856,-30.6418,23.5497,7.12502,-3.93723,53.493,-10.8217,21.141,11.7007,41.6903,-4.59371,-0.177064,-14.3028,-7.22961,-4.22304,-23.3501,36.8331,1.06287,-5.40816,-20.4121
0.814689,19.1721,-2.63846,-3.9163,-8.88786,5.92707,7.35929,0.178057,-1.52056,0.158049,0.0597978,-1.1444,-3.96528,0.0472613,-0.335745,-18.7998,0.448567,-4.80339,5.84663,1.31574,3.88546,4.70566,0.796779,2.11341,-2.37983e-14,2.42517e-14,-26.7538,-19.9386,-46.7168,60.7136,-21.5386,-38.0042,-2.67458,7.12502,-11.0433,-32.3641,-2.37983e-14,2.42517e-14,-29.616,25.4879,54.7963,47.4273,27.1396,-30.8334,23.8244,7.12502,-4.12227,53.7642,-11.2632,20.9286,12.1497,42.6867,-5.7643,1.15408,-13.9178,-7.8642,-3.55237,-23.7564,37.8293,1.50328,-5.75953,-18.5584
0.822411,19.0221,-2.65366,-3.80225,-8.76703,6.12363,7.29374,0.165985,-1.63049,0.271036,0.0337939,-1.2521,-3.81123,0.0342923,-0.381966,-18.8995,0.458954,-4.8886,5.65215,1.34834,3.96914,4.65752,0.818365,2.15557,-1.86361e-14,1.03368e-14,-28.3273,-19.9942,-48.058,60.9159,-21.4151,-37.8859,-2.32135,7.12502,-10.9292,-32.0169,-1.86361e-14,1.03368e-14,-30.9617,25.2489,55.9344,47.2576,27.5107,-30.6761,23.5231,7.12502,-3.97036,53.4659,-11.3597,20.388,12.5216,43.8298,-8.30143,2.40507,1.22859,-8.46297,-2.73024,-24.2742,39.0318,-0.114151,-6.79547,-15.0765
0.827348,18.8761,-2.66513,-3.67271,-8.68201,6.23823,7.20067,0.184882,-1.71861,0.352768,0.0534804,-1.31076,-3.67451,0.0441229,-0.394498,-18.8608,0.411917,-5.03378,5.44461,1.31338,4.05188,4.58666,0.804358,2.19947,1.08462e-14,8.34896e-15,-29.8654,-20.0491,-49.3784,61.1921,-21.6859,-38.0949,-2.65583,7.12502,-11.1308,-32.3406,1.08462e-14,8.34896e-15,-32.2345,24.9658,57.1947,47.0663,27.8915,-30.4031,23.3092,7.12502,-3.70673,53.2567,-11.5736,19.9925,12.9443,45.0329,-12.796,-1.64715,-4.91908,-8.84719,-1.72363,-24.7225,40.3677,-3.74106,-8.11557,-11.5906
0.829059,18.7225,-2.6839,-3.51015,-8.61275,6.07063,7.26768,0.184022,-1.61851,0.381294,0.0610661,-1.26673,-3.68244,0.0465313,-0.406097,-18.617,0.39359,-5.17747,5.08886,1.30646,4.15979,4.43659,0.805,2.25017,-3.50358e-15,1.98785e-15,-31.3365,-20.0829,-50.7392,61.4802,-22.2928,-37.6611,-2.8934,7.12502,-10.7124,-32.6003,-3.50358e-15,1.98785e-15,-33.511,24.6828,58.461,46.8581,28.439,-30.1353,23.1656,7.12502,-3.44812,53.1174,-11.8839,19.8381,13.591,46.1944,-15.2269,-6.19714,-8.18859,-9.2857,-1.01503,-24.8039,41.7756,-7.16677,-5.17541,-19.7178
0.825672,18.5559,-2.70622,-3.41501,-8.40278,5.83457,7.42633,0.152029,-1.50505,0.437136,0.0274934,-1.20228,-3.71322,0.0284724,-0.400023,-18.3347,0.392644,-5.25578,4.7584,1.30692,4.2495,4.28905,0.808925,2.28517,-4.89507e-15,-1.19271e-15,-32.7723,-20.252,-52.0941,61.6188,-22.6216,-36.4621,-2.02687,7.12502,-9.55572,-31.7902,-4.89507e-15,-1.19271e-15,-34.5923,24.3446,59.7982,46.5329,28.9949,-29.9812,23.578,7.12502,-3.29934,53.5322,-12.0146,19.7172,14.283,47.177,-18.0482,-6.19272,-9.19191,-9.73801,-0.810746,-24.7208,43.0698,-9.61462,-2.56689,-23.3275
0.815606,18.3937,-2.72001,-3.4366,-8.20654,5.59232,7.54243,0.133249,-1.49256,0.600416,0.00799989,-1.09031,-3.6089,0.018469,-0.28899,-18.0964,0.348858,-5.3483,4.40731,1.26389,4.2561,4.14454,0.78617,2.29294,1.35919e-14,-2.10712e-14,-34.0887,-20.4792,-53.458,61.7225,-22.5563,-36.3329,-1.65071,7.12502,-9.43099,-31.4197,1.35919e-14,-2.10712e-14,-35.5798,24.1401,61.212,46.2848,29.6121,-29.8065,24.3389,7.12502,-3.1306,54.2957,-11.9763,19.6325,15.0101,47.9786,-20.9413,-6.27068,-7.83686,-10.0216,-0.719701,-24.5708,44.1732,-12.0241,-4.74869,-18.1628
0.8151,18.2355,-2.72628,-3.62771,-7.97427,5.49398,7.80061,0.0870163,-1.4711,0.821919,-0.0534807,-1.07417,-3.52346,-0.013419,-0.27777,-17.9765,0.332617,-5.36053,4.1016,1.24438,4.25846,4.03201,0.777136,2.29021,-1.73564e-14,-1.35174e-14,-35.2561,-20.7273,-54.9319,61.8281,-22.7738,-36.9653,-2.21922,7.12502,-10.0411,-31.9597,-1.73564e-14,-1.35174e-14,-36.5275,23.9653,62.5018,46.0247,30.2065,-28.784,24.2162,7.12502,-2.14308,54.1852,-11.756,19.3865,15.4651,48.6395,-23.4251,-8.14611,-6.6775,-10.0072,-0.803586,-24.6131,45.0235,-14.2291,-6.73441,-13.6916
0.812688,18.0639,-2.73797,-3.90128,-7.65301,5.46642,8.25412,0.0164953,-1.53687,0.985232,-0.161509,-1.08227,-3.60678,-0.0663623,-0.237486,-17.8547,0.324248,-5.44448,3.93408,1.24059,4.35368,3.96065,0.779509,2.33063,1.4561e-14,-1.59028e-15,-36.3357,-20.8602,-56.4707,61.8358,-23.6535,-37.4234,-2.47344,7.12502,-10.4831,-32.1921,1.4561e-14,-1.59028e-15,-37.4149,23.9741,63.6058,45.4178,30.3683,-26.2508,22.8874,7.12502,0.303522,52.8669,-11.4536,19.0959,15.7551,49.2311,-25.7625,-9.45987,-5.65484,-9.86601,-1.14014,-24.6716,45.6864,-17.0875,-5.42279,-15.0216
0.812712,17.8957,-2.75069,-4.17892,-7.26036,5.53211,8.6834,-0.0604721,-1.67002,1.13281,-0.284765,-1.09349,-3.69179,-0.125832,-0.159749,-17.7286,0.291623,-5.47344,3.85035,1.20483,4.2871,3.91716,0.756675,2.30962,-1.10574e-14,7.95139e-15,-37.3935,-20.8862,-57.9904,61.8299,-24.8812,-37.7108,-2.62791,7.12502,-10.7603,-32.3323,-1.10574e-14,7.95139e-15,-38.1393,24.1308,64.6744,44.5482,30.1377,-23.9221,22.0502,7.12502,2.55264,52.0147,-11.2222,18.7689,15.8109,49.793,-28.0605,-9.90004,-5.46325,-9.70535,-1.67935,-24.8618,46.2834,-19.505,-4.15483,-14.58
0.815026,17.7562,-2.75711,-4.50097,-6.89891,5.56737,9.14883,-0.128156,-1.75802,1.28272,-0.391829,-1.0721,-3.79379,-0.177561,-0.0742527,-17.3985,0.277071,-5.60097,3.57859,1.19981,4.3045,3.78178,0.751715,2.32984,-1.54804e-14,8.74653e-15,-38.3496,-20.798,-59.4941,61.7076,-26.01,-37.9205,-3.10826,7.12502,-10.9626,-32.802,-1.54804e-14,8.74653e-15,-38.7402,24.3665,65.7277,43.5724,29.8257,-23.0211,22.6355,7.12502,3.42268,52.5878,-11.0117,18.5935,15.8332,50.3958,-29.9993,-9.9074,-5.92858,-9.55329,-2.23388,-25.0489,46.9102,-21.3257,-5.75756,-10.5365
0.812079,17.6267,-2.77581,-4.83305,-6.27954,5.45942,9.81226,-0.269941,-1.76744,1.43495,-0.594565,-1.04166,-4.00202,-0.276868,-0.00895186,-17.0381,0.265609,-5.70656,3.16793,1.18631,4.4206,3.59941,0.749276,2.37544,4.29872e-15,1.35174e-14,-39.0296,-20.7182,-61.126,61.2497,-26.9184,-38.18,-3.6188,7.12502,-11.2129,-33.2992,4.29872e-15,1.35174e-14,-38.9928,24.6015,66.6882,42.2573,29.3462,-22.5673,24.4301,7.12502,3.86097,54.3749,-10.782,18.3425,15.9994,51.081,-31.5713,-9.93857,-5.81733,-9.57672,-2.88534,-25.0098,47.6139,-22.6837,-7.04325,-5.65958
0.806084,17.4919,-2.80967,-5.25093,-5.41868,5.6283,10.6023,-0.436524,-2.09768,1.65768,-0.871151,-1.07178,-4.2009,-0.408507,0.188333,-16.8381,0.196617,-5.72284,2.69804,1.09991,4.37289,3.42857,0.704615,2.35141,-2.70844e-15,-7.55382e-15,-39.389,-20.7198,-62.7364,60.496,-27.6267,-38.1907,-3.92295,7.12502,-11.2232,-33.6027,-2.70844e-15,-7.55382e-15,-38.7225,24.9417,67.6662,40.3541,28.3654,-20.2929,22.3727,7.12502,6.05705,52.2661,-10.5972,17.9161,15.817,51.9556,-32.9093,-9.82579,-5.78601,-9.61678,-3.39872,-25.27,48.4263,-24.0385,-7.11182,-2.61363
0.799409,17.3801,-2.84731,-5.6958,-4.56317,6.1072,11.4032,-0.559252,-2.7498,1.86564,-1.13755,-1.16813,-4.41191,-0.530006,0.501372,-16.6772,0.126275,-5.81947,2.31291,1.02508,4.36864,3.28894,0.667037,2.35607,3.2054e-15,0,-39.6394,-20.6194,-64.2868,59.5843,-28.1368,-38.116,-4.07948,7.12502,-11.1512,-33.7632,3.2054e-15,0,-38.3007,25.3148,68.5592,38.1694,26.7556,-19.8161,22.6461,7.12502,6.51736,52.5258,-10.5787,17.4176,15.2355,52.9994,-33.8634,-9.60228,-7.01655,-9.68749,-3.67491,-25.9087,49.2803,-25.1963,-6.82732,-1.34597
0.788653,17.2795,-2.8898,-6.13689,-3.87735,6.69033,12.2087,-0.591375,-3.59153,2.02171,-1.32048,-1.25501,-4.67147,-0.605238,0.92287,-16.4295,0.0660751,-5.99731,1.99813,0.970807,4.40159,3.15633,0.639611,2.38689,-2.38293e-14,-2.10712e-14,-39.746,-20.2531,-65.7992,58.4703,-28.472,-38.4739,-4.39404,7.12502,-11.4963,-34.0588,-2.38293e-14,-2.10712e-14,-37.9432,25.7641,69.3009,35.9575,24.7137,-19.1254,23.5717,7.12502,7.18409,53.4298,-10.7893,16.9287,14.5578,54.2246,-34.3185,-9.40578,-8.18339,-9.88819,-3.77503,-26.6458,50.1324,-25.7893,-7.07439,-1.54279
0.776122,17.2001,-2.93126,-6.5352,-3.38078,7.42779,12.8687,-0.517377,-4.59869,2.17301,-1.39443,-1.38981,-4.85232,-0.624675,1.36953,-16.187,-0.00578541,-6.07791,1.67886,0.885255,4.37514,3.02567,0.595002,2.38184,5.73991e-15,3.57812e-15,-39.5712,-19.8046,-67.2956,57.0078,-28.5875,-38.7097,-4.70193,7.12502,-11.7237,-34.3539,5.73991e-15,3.57812e-15,-37.4528,26.1322,70.0056,33.7132,22.8012,-18.129,24.0603,7.12502,8.14584,53.8833,-11.1468,16.3956,13.7015,55.444,-34.7137,-8.96837,-7.86864,-10.1036,-3.64467,-27.5495,50.8602,-26.1683,-6.65344,-2.69832
0.767297,17.1534,-2.96323,-6.79999,-3.04711,8.14337,13.2762,-0.392806,-5.49304,2.25435,-1.38702,-1.56506,-4.974,-0.605888,1.69282,-15.7085,-0.0586422,-6.04307,1.02524,0.798597,4.14021,3.11325,0.529076,2.55019,2.23633e-16,3.97569e-16,-39.3487,-19.2169,-68.7391,55.3605,-28.5459,-38.6997,-4.84664,7.12502,-11.7141,-34.4991,2.23633e-16,3.97569e-16,-36.9607,26.4425,70.5469,31.5249,21.2242,-17.9803,24.7532,7.12502,8.28936,54.5706,-11.6116,15.7779,12.8313,56.4697,-35.2829,-8.58267,-6.95751,-10.3173,-3.31386,-28.4216,51.4468,-26.4461,-5.69758,-2.75985
0.767143,17.1426,-2.97461,-6.92478,-2.9384,8.40865,13.2872,-0.29574,-5.82363,2.30138,-1.30757,-1.63272,-4.92954,-0.56393,1.79353,-15.3359,-0.0786461,-5.98138,0.868818,0.744627,4.10358,2.99038,0.499869,2.51234,2.64384e-14,5.96354e-15,-39.1625,-18.3804,-70.0543,53.7245,-28.2687,-38.7057,-5.14212,7.12502,-11.7198,-34.7943,2.64384e-14,5.96354e-15,-36.7202,26.7307,70.9036,29.5865,20.0716,-17.6915,25.2208,7.12502,8.56808,55.0269,-11.9618,15.1517,12.4742,57.06,-35.4219,-8.63926,-6.60565,-10.4556,-2.9129,-28.7895,51.8535,-26.4319,-5.42158,-1.70724
0.773206,17.1555,-2.97361,-6.89408,-2.9984,7.97346,12.9544,-0.284157,-5.36639,2.367,-1.19527,-1.52448,-4.69238,-0.522367,1.62643,-15.2627,-0.0517722,-5.88187,1.00067,0.761002,4.02302,3.02053,0.503649,2.46806,-1.73937e-16,4.77083e-15,-38.8524,-17.5478,-71.2207,51.9783,-27.4337,-37.6777,-6.17319,7.12502,-10.7284,-35.8793,-1.73937e-16,4.77083e-15,-36.5909,26.9278,71.2241,28.1764,19.5288,-17.029,23.8697,7.12502,9.2074,53.6487,-12.0635,14.5805,12.9361,57.1073,-35.0893,-8.78453,-6.41511,-10.5727,-2.46919,-28.3298,52.0751,-26.1761,-5.68835,-1.41094
0.781021,17.1971,-2.96898,-6.71495,-3.1747,6.9693,12.4538,-0.328033,-4.28372,2.44172,-1.06084,-1.27433,-4.36287,-0.478015,1.25138,-15.5279,-0.0414211,-5.74996,1.34641,0.7657,3.92813,3.19055,0.501895,2.42181,5.06901e-15,1.19271e-15,-38.3921,-16.9252,-72.2044,50.2839,-25.9915,-34.9291,-3.69719,7.12502,-8.07634,-33.5229,5.06901e-15,1.19271e-15,-36.4461,27.1173,71.4991,27.4494,19.4053,-16.9987,25.711,7.12502,9.23663,55.4887,-11.9614,14.2767,14.0758,56.6034,-34.6838,-8.79953,-5.96507,-10.6646,-1.94302,-27.1518,52.0252,-25.8107,-5.72681,-2.08375
0.786096,17.2722,-2.95735,-6.46819,-3.42367,5.94259,11.8763,-0.348876,-3.21961,2.43103,-0.909863,-0.965725,-4.07636,-0.419685,0.945106,-15.8758,-0.0366279,-5.72276,2.212,0.771926,4.05125,3.14908,0.520406,2.21765,-1.90336e-14,-1.23246e-14,-37.9536,-16.2996,-72.9552,48.9468,-24.5141,-34.7729,-1.03866,7.12502,-7.92562,-30.8701,-1.90336e-14,-1.23246e-14,-36.5674,27.4477,71.5327,27.0418,19.1835,-16.9359,27.0093,7.12502,9.29723,56.7843,-11.7262,14.1963,15.2367,55.6787,-34.0237,-8.78004,-5.76243,-10.6065,-1.37793,-25.8634,51.5756,-25.2868,-5.63015,-3.06741
0.791379,17.3738,-2.9344,-6.4027,-3.58933,5.60602,11.3734,-0.311774,-2.86761,2.3531,-0.793006,-0.816447,-3.88804,-0.367157,0.880436,-15.8426,0.00734278,-6.01487,2.81545,0.8605,4.26217,3.32275,0.567102,2.33952,-1.84373e-14,-1.27222e-14,-37.7159,-15.7964,-73.3666,47.96,-23.0237,-34.2644,-0.38992,7.12502,-7.43477,-30.2393,-1.84373e-14,-1.27222e-14,-37.0239,27.8776,71.2226,26.7374,18.8895,-13.9397,24.419,7.12502,12.1873,54.044,-11.144,14.0763,15.5627,54.494,-33.0449,-8.68857,-5.9979,-10.1361,-1.0894,-25.3556,50.6697,-24.3182,-6.06625,-3.31477
0.794039,17.4944,-2.91033,-6.50286,-3.63039,5.88543,11.0539,-0.254585,-3.1096,2.23676,-0.738858,-0.885451,-3.83282,-0.337805,0.934465,-15.7197,0.0846212,-6.13391,3.36685,0.964069,4.34281,3.4667,0.615758,2.39386,-2.70844e-15,2.38542e-15,-37.6183,-15.7154,-73.5043,47.2794,-21.5684,-32.9123,-0.568954,7.12502,-6.1295,-30.4603,-2.70844e-15,2.38542e-15,-37.537,28.0142,70.8254,27.065,19.3911,-14.842,25.6275,7.12502,11.3171,55.3021,-10.2988,14.0328,15.179,53.1802,-32.0719,-8.32682,-5.91579,-9.33742,-0.993076,-25.5239,49.3585,-22.8386,-6.78459,-3.60391
0.793116,17.6271,-2.89665,-6.56354,-3.68582,6.32018,10.861,-0.16539,-3.56617,2.06499,-0.673916,-0.991368,-3.90373,-0.298203,1.07085,-15.6343,0.146174,-5.98018,3.83769,1.02095,4.12083,3.59649,0.629825,2.30704,2.28602e-15,1.55052e-14,-37.5621,-15.9306,-73.4088,47.0233,-20.3701,-32.8294,1.14473,7.12502,-6.04951,-28.7489,2.28602e-15,1.55052e-14,-37.9545,27.9486,70.5369,28.0371,20.4723,-14.1915,25.7996,7.12502,11.9445,55.4388,-9.56858,14.1948,14.5828,51.8216,-30.8405,-7.78827,-6.31232,-8.54857,-0.868971,-25.8113,47.8051,-21.0137,-7.1903,-4.62077
0.794963,17.7759,-2.88834,-6.53318,-3.77052,6.73168,10.7023,-0.0535143,-3.97577,1.83183,-0.575003,-1.07024,-4.06043,-0.239177,1.20469,-15.6421,0.183543,-5.97992,4.43227,1.06848,4.0455,3.77849,0.644334,2.29162,7.97623e-15,-4.77083e-15,-37.6004,-16.2703,-73.0748,47.2174,-19.5051,-32.4329,1.53562,7.12502,-5.66669,-28.3686,7.97623e-15,-4.77083e-15,-38.3146,27.8964,70.1925,29.1359,21.5565,-12.7641,26.1147,7.12502,13.3206,55.6689,-9.03161,14.4263,13.9005,50.4224,-28.8802,-6.93461,-7.18733,-7.87095,-0.78968,-26.0843,46.151,-18.9827,-7.32352,-5.9895
0.797017,17.9407,-2.88023,-6.47885,-3.72908,7.01561,10.5444,-0.00501574,-4.25792,1.55674,-0.544161,-1.09169,-4.25959,-0.212783,1.33615,-15.5811,0.206382,-6.07778,5.05603,1.11202,3.9765,3.95873,0.653862,2.2936,-1.83255e-14,-4.77083e-15,-37.7011,-16.5747,-72.5194,47.7414,-19.0343,-32.0649,1.96946,7.12502,-5.31143,-27.944,-1.83255e-14,-4.77083e-15,-38.6831,27.8719,69.673,30.2289,22.557,-14.2764,27.0679,7.12502,11.8626,56.7119,-8.4762,14.6403,13.336,48.975,-26.5065,-5.8818,-7.14009,-7.25494,-0.872337,-26.2319,44.4832,-16.6168,-7.6374,-7.03022
0.798597,18.1142,-2.86636,-6.42897,-3.69022,7.05128,10.258,-0.00916218,-4.28415,1.30355,-0.543419,-1.05661,-4.36468,-0.206294,1.38603,-15.3477,0.241251,-6.06168,5.5417,1.15144,3.80276,4.07084,0.656764,2.24194,1.87603e-15,3.97569e-15,-37.7885,-16.9468,-71.813,48.4556,-18.7784,-31.882,2.4646,7.12502,-5.1348,-27.4532,1.87603e-15,3.97569e-15,-39.0324,27.8316,68.9914,31.3907,23.361,-11.6892,26.1515,7.12502,14.3565,55.6351,-7.81272,14.9256,13.0818,47.4777,-24.2173,-5.09173,-7.74642,-6.58784,-0.958969,-26.0769,42.8311,-14.071,-8.13849,-8.23603
0.804661,18.2958,-2.84433,-6.21479,-3.73204,6.98117,9.66395,-0.0348598,-4.14899,1.07632,-0.534658,-0.994057,-4.27213,-0.202504,1.37076,-15.3635,0.276554,-6.19613,6.18677,1.22262,3.76247,4.26868,0.679612,2.26217,-2.43511e-15,-1.19271e-14,-37.7497,-17.3514,-70.9949,49.3561,-18.7707,-31.705,2.75777,7.12502,-4.96389,-27.1641,-2.43511e-15,-1.19271e-14,-39.2059,27.8465,68.2392,32.5294,24.1373,-11.5062,24.8765,7.12502,14.5328,54.3474,-7.33189,15.1974,12.8425,45.9179,-21.8183,-4.34794,-9.32453,-6.06638,-1.06743,-25.8283,41.2107,-11.4579,-8.47757,-9.46564
0.815624,18.4813,-2.81815,-5.81808,-3.8469,6.81889,8.82077,-0.0589491,-3.85287,0.814477,-0.497544,-0.925834,-4.07804,-0.188854,1.26604,-15.3795,0.332616,-6.32005,6.82173,1.31948,3.73482,4.46255,0.715309,2.28707,1.63283e-14,-5.96354e-15,-37.6049,-17.7227,-70.073,50.2966,-19.0037,-31.4002,2.98515,7.12502,-4.66957,-26.9434,1.63283e-14,-5.96354e-15,-39.3052,27.9538,67.3323,33.6306,24.7054,-11.1678,24.328,7.12502,14.8588,53.7752,-7.0925,15.4809,12.6032,44.2832,-19.2381,-3.41056,-10.2222,-5.79441,-1.16359,-25.4934,39.6749,-8.74694,-8.62086,-9.84309
0.830513,18.6663,-2.78829,-5.32465,-4.10822,6.25873,7.79543,-0.0449205,-3.0349,0.544743,-0.358425,-0.793659,-3.79527,-0.134042,0.92317,-15.1536,0.360913,-6.39112,7.26816,1.3581,3.68737,4.56297,0.722325,2.28905,-2.38231e-14,-3.97569e-15,-37.4286,-18.1021,-69.0301,51.2895,-19.3951,-31.4769,2.99642,7.12502,-4.74363,-26.9305,-2.38231e-14,-3.97569e-15,-39.3308,27.8169,66.4238,34.8659,25.3495,-11.2184,25.8161,7.12502,14.8101,55.2669,-6.93966,15.8068,12.7578,42.5694,-16.5003,-2.47765,-11.0384,-5.69976,-1.14002,-24.7025,38.315,-6.06166,-8.74507,-9.79429
0.847386,18.8523,-2.7602,-4.67106,-4.48515,5.33429,6.59989,-0.0290678,-1.83327,0.262508,-0.197248,-0.557403,-3.42619,-0.0734428,0.473007,-14.8442,0.368336,-6.51989,7.62529,1.36857,3.70492,4.62275,0.718246,2.31694,2.16178e-15,-8.74653e-15,-37.0721,-18.3796,-67.9421,52.3013,-19.866,-31.7691,2.59606,7.12502,-5.02574,-27.3243,2.16178e-15,-8.74653e-15,-39.2154,27.5485,65.5697,36.1805,26.4722,-9.82462,23.1734,7.12502,16.1525,52.5204,-6.97656,16.2353,13.2576,40.7725,-13.3589,-1.64177,-11.1319,-5.81713,-1.14284,-23.4973,37.0802,-3.47845,-8.76814,-10.4039
0.861718,19.0255,-2.73473,-3.91153,-4.92058,4.21295,5.35519,0.00996808,-0.471119,-0.0370538,-0.0246088,-0.263095,-3.04071,-0.00716759,-0.00442879,-14.6236,0.390949,-6.52656,8.02768,1.39538,3.58883,4.71172,0.716816,2.28585,-1.38031e-14,-1.82882e-14,-36.5616,-18.5929,-66.8454,53.3139,-20.2859,-31.3227,2.58641,7.12502,-4.59473,-27.3438,-1.38031e-14,-1.82882e-14,-38.959,27.2025,64.7346,37.5346,27.7307,-13.2804,24.0406,7.12502,12.8229,53.6268,-7.20292,16.7831,13.9328,39.0006,-10.0999,-0.923074,-10.777,-6.10238,-1.11147,-22.0322,35.8976,-0.757252,-8.7559,-11.5467
0.872367,19.1937,-2.71299,-3.21981,-5.05999,3.34347,4.18019,0.00320244,0.549293,-0.265248,0.0311166,-0.0243266,-2.61571,0.00773514,-0.335077,-14.7151,0.378911,-6.43775,8.63529,1.3928,3.33818,4.9187,0.693829,2.19971,-2.19906e-15,5.56597e-15,-35.8126,-18.7488,-65.7638,54.2986,-20.7307,-35.063,2.4543,7.12502,-8.20555,-27.3664,-2.19906e-15,5.56597e-15,-38.4963,26.9879,63.8356,38.8467,28.587,-14.6824,23.6998,7.12502,11.471,53.366,-7.3679,17.1625,14.3188,37.3314,-7.01309,-0.324103,-10.4699,-6.36771,-1.2416,-20.7858,34.6127,2.21043,-8.7319,-11.8173
0.87611,19.3467,-2.70617,-2.79625,-4.86407,3.14365,3.32054,-0.0693164,0.713944,-0.379179,-0.0619698,0.0594388,-2.2511,-0.0394355,-0.336106,-14.8767,0.347562,-6.44485,9.15959,1.37683,3.20199,5.11091,0.669741,2.16356,3.05631e-15,5.1684e-15,-34.7449,-18.8762,-64.7128,55.2253,-21.0933,-36.1107,1.4043,7.12502,-9.21657,-28.3743,3.05631e-15,5.1684e-15,-37.7116,26.9302,62.8836,40.0005,29.1425,-15.6311,23.4574,7.12502,10.556,53.1724,-7.42423,17.3337,14.0108,35.912,-4.00434,0.270407,-9.71803,-6.45824,-1.74163,-20.2277,33.2216,4.99949,-8.45931,-11.3138
0.875743,19.4922,-2.70945,-2.51183,-4.74759,3.24714,2.7724,-0.092019,0.471672,-0.519266,-0.104502,0.0772318,-2.08709,-0.0574153,-0.180499,-14.8004,0.330292,-6.52756,9.46949,1.36483,3.19596,5.19574,0.655505,2.17663,1.89591e-14,1.11319e-14,-33.6239,-19.1279,-63.5055,56.0439,-21.0557,-35.8547,0.510519,7.12502,-8.96962,-29.2788,1.89591e-14,1.11319e-14,-36.855,26.6943,61.9465,41.2172,29.6789,-16.6714,23.1996,7.12502,9.55243,52.9631,-7.53096,17.6916,13.4183,34.723,-1.27412,0.854397,-9.53503,-6.40377,-2.36123,-19.9942,31.7785,7.36037,-8.10207,-10.6845
0.869661,19.6222,-2.72319,-2.23869,-4.73315,3.27104,2.43547,-0.094116,0.210626,-0.715683,-0.115794,0.142973,-2.09886,-0.059582,0.033379,-14.828,0.314424,-6.6233,9.92874,1.35944,3.22466,5.34391,0.64469,2.20599,-2.31087e-15,1.27222e-14,-32.4302,-19.3214,-62.2194,56.7496,-20.6613,-35.6485,0.484734,7.12502,-8.7706,-29.313,-2.31087e-15,1.27222e-14,-36.0188,26.2816,61.0293,42.5994,30.3723,-17.7065,23.0284,7.12502,8.55362,52.8351,-7.75264,18.2558,12.9587,33.7596,0.541121,1.50726,-10.3213,-6.356,-2.76346,-19.6533,30.5123,9.70911,-7.87533,-9.29625
0.862313,19.7342,-2.7428,-1.94403,-4.75266,3.02082,2.10652,-0.0963186,0.258632,-0.880755,-0.11616,0.237109,-2.08339,-0.0598401,0.102573,-14.881,0.318517,-6.61719,10.4047,1.3631,3.24222,5.5021,0.641189,2.21677,-1.05604e-14,7.15625e-15,-31.1433,-19.3684,-61.0055,57.4475,-20.2221,-35.6302,0.7643,7.12502,-8.75298,-29.0342,-1.05604e-14,7.15625e-15,-34.9811,25.8899,60.0383,43.9747,30.9218,-18.8499,23.0071,7.12502,7.45001,52.8559,-8.02187,18.8898,12.8203,32.9744,1.10537,2.2086,-9.83313,-6.42075,-3.19814,-19.0302,29.6257,11.5951,-7.54684,-4.19992
0.859536,19.8301,-2.75392,-1.6417,-4.84058,2.45559,1.65295,-0.0571234,0.727392,-0.99962,-0.0514183,0.368291,-1.95093,-0.0328227,-0.0285766,-14.5793,0.295865,-6.5587,10.5001,1.30029,3.23623,5.48595,0.609406,2.19848,-3.97569e-16,-4.77083e-15,-29.8406,-19.4165,-59.6997,58.1886,-19.6271,-35.8411,0.323635,7.12502,-8.95647,-29.4663,-3.97569e-16,-4.77083e-15,-33.835,25.4397,58.9855,45.3845,31.1381,-20.2521,23.4915,7.12502,6.09643,53.3838,-8.21072,19.6513,13.0354,32.3824,0.132443,2.41963,-9.3079,-6.50348,-3.73626,-18.1139,29.166,10.245,-6.12602,-6.93515
0.8572,19.9071,-2.76272,-1.48098,-4.89622,2.05714,1.24615,-0.0367257,1.00863,-1.00834,-0.0214231,0.45464,-1.73139,-0.0201781,-0.0989619,-14.2645,0.293727,-6.42955,10.3625,1.25969,3.16872,5.39397,0.590052,2.14857,2.38542e-15,1.19271e-15,-28.4201,-19.4484,-58.4042,59.0126,-19.114,-36.2454,-0.178803,7.12502,-9.34663,-29.9516,2.38542e-15,1.19271e-15,-32.5163,25.0194,57.8985,46.6887,31.1552,-21.4824,23.8924,7.12502,4.90857,53.8156,-8.20867,20.4413,13.1209,32.0215,-1.95615,1.5616,-9.86869,-6.42046,-4.13901,-17.3946,29.0133,8.1148,-4.56982,-10.1428
0.853006,19.9667,-2.77807,-1.52759,-4.88945,1.90693,1.08216,-0.0303676,0.979645,-0.957126,-0.0157225,0.49608,-1.58671,-0.0160619,-0.0405811,-14.108,0.314694,-6.41862,10.3572,1.26495,3.24659,5.36552,0.598051,2.17055,-1.29707e-14,2.10712e-14,-26.9226,-19.1747,-57.1556,59.946,-19.5744,-37.0872,-0.045246,7.12502,-10.1587,-29.78,-1.29707e-14,2.10712e-14,-30.9889,24.6259,56.8261,47.8472,31.0746,-22.3324,24.3434,7.12502,4.08775,54.2839,-8.05859,21.0949,12.9985,31.8613,-4.06222,-0.401974,-10.3463,-6.18647,-4.59554,-16.9342,29.06,5.90382,-2.13715,-11.1777
0.848311,20.0156,-2.80203,-1.70821,-4.82141,1.94157,1.2544,-0.0407456,0.717153,-0.961574,-0.0324836,0.485623,-1.68787,-0.0217596,0.0963431,-13.9321,0.326849,-6.40049,10.4849,1.25409,3.33135,5.37635,0.596961,2.1935,-5.86415e-15,4.37326e-15,-25.4259,-18.7752,-55.8545,60.8258,-20.008,-38.183,0.0784192,7.12502,-11.2158,-29.6018,-5.86415e-15,4.37326e-15,-29.4981,24.1854,55.687,49.0867,31.0003,-23.1662,24.5434,7.12502,3.28259,54.4979,-7.93522,21.5938,12.6759,31.8626,-5.56473,-2.96825,-10.3737,-5.8691,-4.93192,-16.6426,29.1934,3.87698,0.512749,-10.9569
0.84225,20.0563,-2.83218,-1.90428,-4.71568,1.80925,1.58101,-0.068207,0.572976,-0.947471,-0.0681265,0.536482,-1.85671,-0.0377746,0.230661,-13.7479,0.304207,-6.34768,10.5508,1.20003,3.33663,5.36947,0.571111,2.18134,-1.14798e-14,-6.36111e-15,-23.7598,-18.9009,-54.35,61.4559,-18.739,-37.3571,-0.309742,7.12502,-10.4192,-30.0316,-1.14798e-14,-6.36111e-15,-27.9127,23.8152,54.5503,50.3798,31.0337,-23.7644,24.0767,7.12502,2.70486,54.0393,-7.83008,21.976,12.5307,31.9209,-6.50129,-5.06521,-9.14938,-5.52578,-4.88354,-16.0925,29.345,2.12744,2.2239,-12.1758
0.835761,20.0889,-2.86585,-2.13299,-4.59737,1.43019,1.90996,-0.0877375,0.713576,-0.843699,-0.0865864,0.61211,-1.93517,-0.0482962,0.230393,-13.6224,0.262877,-6.29235,10.5346,1.11017,3.45168,5.34743,0.537392,2.2002,1.48592e-14,-4.77083e-15,-21.9526,-18.7543,-53.0747,62.2091,-19.0269,-38.6335,0.24012,7.12502,-11.6502,-29.416,1.48592e-14,-4.77083e-15,-26.0087,23.5089,53.4238,51.5347,30.8197,-24.4738,23.9526,7.12502,2.01978,53.9228,-7.6258,22.2342,12.6912,31.9695,-7.14794,-6.4611,-7.61097,-5.15278,-4.81837,-15.2315,29.4911,0.774023,3.40089,-13.0636
0.829287,20.1116,-2.89637,-2.50029,-4.47944,0.992418,2.3366,-0.0868315,0.952962,-0.73455,-0.0726089,0.674295,-2.06311,-0.0441072,0.160064,-13.3499,0.235228,-6.30854,10.4915,1.02732,3.68981,5.29103,0.512308,2.26874,-2.45251e-14,-7.55382e-15,-20.2744,-18.5819,-51.657,62.8778,-18.9892,-39.5377,0.876498,7.12502,-12.5221,-28.7283,-2.45251e-14,-7.55382e-15,-23.95,23.4944,52.2665,52.389,29.9659,-24.8156,23.9446,7.12502,1.6897,53.9177,-7.22731,22.5018,12.9823,32.0147,-7.524,-7.67079,-6.45218,-4.63723,-4.93765,-14.3147,29.6539,-0.183792,4.588,-12.6699
0.830771,20.1186,-2.92771,-2.98997,-4.13092,0.90524,2.90353,-0.179099,0.914324,-0.618874,-0.190157,0.662167,-2.26325,-0.102684,0.175805,-12.9578,0.217729,-6.40171,10.3029,0.972277,3.88769,5.16813,0.495098,2.33677,-1.47598e-14,-1.98785e-14,-18.5485,-18.4564,-50.0985,63.479,-18.3577,-39.6242,1.1707,7.12502,-12.6055,-28.429,-1.47598e-14,-1.98785e-14,-21.9064,23.5056,51.1333,53.1903,29.3329,-24.6467,23.7793,7.12502,1.85276,53.751,-6.64901,22.3793,12.8533,32.1043,-7.70738,-8.7613,-5.69926,-4.05281,-5.19109,-13.8354,29.8393,-0.399745,5.57692,-11.7258
0.826107,20.1125,-2.96042,-3.50217,-3.82796,1.02373,3.46206,-0.255325,0.549414,-0.45813,-0.301969,0.627103,-2.41048,-0.153851,0.352129,-12.5709,0.216539,-6.40656,10.0701,0.941691,3.94878,5.0326,0.483791,2.34886,8.05078e-15,-2.90226e-14,-16.6958,-18.4008,-48.53,64.0367,-17.6251,-40.1352,1.66124,7.12502,-13.0982,-27.9074,8.05078e-15,-2.90226e-14,-19.894,22.8772,49.9105,54.0341,29.4376,-25.0495,23.5303,7.12502,1.46375,53.5051,-6.1267,22.33,12.5196,32.2958,-7.81953,-10.1216,-5.28826,-3.49852,-5.2318,-13.5194,30.1021,0.103344,5.9732,-10.5328
0.818792,20.0916,-2.99182,-3.91228,-3.59538,0.975691,3.88799,-0.294589,0.34579,-0.323692,-0.361417,0.602424,-2.51026,-0.180915,0.44632,-12.2092,0.229705,-6.38841,9.94795,0.91595,4.09926,4.93509,0.480518,2.38716,-5.66536e-15,2.90226e-14,-14.8253,-18.582,-46.9625,64.4698,-16.772,-40.6136,1.95421,7.12502,-13.5592,-27.5843,-5.66536e-15,2.90226e-14,-17.7469,22.3766,48.5927,54.682,29.2939,-25.861,22.7352,7.12502,0.680042,52.7138,-5.77279,22.3138,12.3365,32.5876,-7.65391,-11.5127,-5.17266,-3.11984,-5.35374,-12.9964,30.5503,0.626141,5.92572,-8.94516
0.811953,20.0513,-3.02234,-4.19097,-3.40756,0.902085,4.23671,-0.302842,0.221201,-0.269197,-0.377727,0.557358,-2.64946,-0.18759,0.472928,-11.8609,0.190105,-6.38888,9.89751,0.818564,4.2852,4.86581,0.442701,2.43521,-1.30452e-14,3.97569e-15,-12.9412,-18.932,-45.3663,64.7847,-16.0394,-39.8792,0.943468,7.12502,-12.8513,-28.6409,-1.30452e-14,3.97569e-15,-15.4192,22.1802,47.3309,55.1882,28.9171,-26.4308,22.3557,7.12502,0.129677,52.3354,-5.62727,22.3361,12.1138,32.9907,-7.68082,-12.7342,-3.5821,-2.94783,-5.64614,-12.461,31.2192,1.09498,5.69776,-7.82779
0.804159,19.9937,-3.05232,-4.42107,-3.24862,0.792197,4.50742,-0.321119,0.150126,-0.190432,-0.405419,0.535101,-2.71991,-0.20053,0.493226,-11.5582,0.135717,-6.43203,9.80135,0.719518,4.41339,4.79044,0.399043,2.472,6.07536e-15,8.74653e-15,-10.9534,-19.152,-43.8047,65.1058,-15.3379,-39.2904,-0.00275163,7.12502,-12.2837,-29.622,6.07536e-15,8.74653e-15,-13.0444,21.9543,46.0858,55.7185,28.923,-26.8145,22.4982,7.12502,-0.240908,52.4778,-5.54663,22.3727,11.921,33.4609,-7.56602,-13.3996,-3.01542,-2.8927,-5.83821,-11.8603,32.077,1.77216,5.12706,-7.99558
0.795833,19.9242,-3.08285,-4.60467,-3.08686,0.729412,4.66476,-0.318993,0.0354187,-0.0755562,-0.410209,0.480857,-2.68954,-0.201835,0.502699,-11.3112,0.0765731,-6.424,9.71542,0.606402,4.56474,4.72854,0.352016,2.50742,1.37286e-14,2.5842e-15,-9.05168,-19.3949,-42.1955,65.4823,-14.6129,-40.0095,0.0509571,7.12502,-12.977,-29.5255,1.37286e-14,2.5842e-15,-10.5101,21.8366,44.8501,56.191,29.0926,-26.8711,22.6727,7.12502,-0.295564,52.6523,-5.53573,22.4783,11.6659,33.9778,-7.10198,-13.8504,-2.59709,-2.98284,-5.992,-11.2926,33.0766,2.48512,4.24956,-8.58014
0.791768,19.8457,-3.10888,-4.75807,-2.84813,0.768964,4.74134,-0.32111,-0.117179,0.0591908,-0.424974,0.359136,-2.5935,-0.208278,0.464125,-11.2368,0.00350674,-6.41488,9.75976,0.470715,4.81832,4.73656,0.300955,2.57573,7.16867e-15,-2.18663e-15,-7.18302,-19.9047,-40.6039,65.8768,-13.9591,-40.8471,0.217377,7.12502,-13.7842,-29.306,7.16867e-15,-2.18663e-15,-7.89298,21.8111,43.6193,56.6143,29.1689,-26.8558,22.8689,7.12502,-0.280776,52.8485,-5.56292,22.5355,11.2589,34.5351,-6.45412,-14.1081,-1.96769,-3.15717,-6.322,-10.8882,34.1778,3.01595,3.16558,-8.77762
0.790811,19.7552,-3.13088,-4.90131,-2.51584,0.759757,4.83752,-0.375609,-0.162632,0.163387,-0.503389,0.241467,-2.5402,-0.247701,0.374335,-11.1437,-0.0324804,-6.47726,9.74615,0.389296,5.13387,4.72036,0.277956,2.67834,-9.54788e-15,-9.54166e-15,-5.23368,-20.4701,-39.0936,66.2262,-13.5247,-41.1374,0.429472,7.12502,-14.0641,-29.0747,-9.54788e-15,-9.54166e-15,-5.37345,21.7738,42.3039,56.9878,29.1705,-26.9685,23.0255,7.12502,-0.389639,53.0049,-5.54588,22.4905,10.8903,35.1133,-5.76673,-13.9265,-2.64582,-3.36655,-6.90073,-10.4941,35.356,3.45063,1.99469,-8.75987
0.78642,19.6484,-3.15747,-4.944,-2.21006,0.666073,4.89873,-0.44792,-0.170972,0.233017,-0.602086,0.173414,-2.50279,-0.297303,0.316091,-10.9484,-0.0415068,-6.47307,9.57315,0.349477,5.29739,4.63645,0.267692,2.72302,7.21837e-15,0,-3.14977,-21.095,-37.67,66.5301,-13.143,-41.3829,0.476686,7.12502,-14.3006,-29.0109,7.21837e-15,0,-2.74147,22.0662,41.0645,57.2402,29.0208,-26.9125,23.1038,7.12502,-0.335562,53.0833,-5.68345,22.6103,10.598,35.7232,-5.11937,-13.4397,-3.09103,-3.72798,-7.45691,-9.9738,36.5723,3.9773,0.734325,-9.03829
0.779696,19.524,-3.18554,-4.94981,-2.00564,0.422102,4.94119,-0.48123,-0.0303441,0.271744,-0.639653,0.134865,-2.48848,-0.317857,0.200394,-10.6923,-0.0806893,-6.37409,9.40858,0.264139,5.34759,4.54849,0.230284,2.71339,-4.69629e-15,-2.28602e-15,-1.23685,-21.7826,-36.2348,66.8995,-12.7322,-42.05,-0.0180385,7.12502,-14.9434,-29.459,-4.69629e-15,-2.28602e-15,0.0378726,22.5201,39.9927,57.4401,28.7302,-26.9403,23.4274,7.12502,-0.362385,53.4068,-5.91375,22.9131,10.4694,36.3508,-4.46242,-12.7493,-2.93724,-4.12487,-7.90532,-9.2416,37.8103,4.50508,-0.433742,-9.26624
0.775035,19.3867,-3.20878,-5.04323,-1.83813,0.354244,5.06574,-0.472843,-0.0300832,0.315785,-0.630825,0.0436525,-2.51402,-0.313902,0.106825,-10.6506,-0.170472,-6.3623,9.53749,0.118672,5.49199,4.58975,0.16701,2.74777,6.21202e-15,1.88845e-15,0.48545,-22.4374,-34.7139,67.3795,-12.4408,-42.3716,-0.870533,7.12502,-15.2531,-30.2882,6.21202e-15,1.88845e-15,2.79016,22.7966,38.957,57.6506,28.4472,-27.4795,23.8678,7.12502,-0.883155,53.8457,-6.02386,23.2686,10.1886,36.9962,-3.80967,-11.9153,-3.05485,-4.37455,-8.39146,-8.76089,38.9912,4.98407,-1.47617,-9.71649
0.773364,19.238,-3.22952,-5.15745,-1.57922,0.431511,5.1864,-0.502108,-0.157756,0.38885,-0.680073,-0.0641183,-2.50618,-0.337602,0.0719707,-10.6974,-0.246861,-6.50782,9.69946,0.00388591,5.77076,4.654,0.12254,2.85295,2.27127e-14,7.60351e-15,2.33074,-23.1936,-33.2411,67.8129,-12.1381,-42.2055,-0.28628,7.12502,-15.0931,-29.716,2.27127e-14,7.60351e-15,5.37656,23.1306,37.8947,57.9205,28.3706,-27.809,23.8611,7.12502,-1.20144,53.8374,-6.04512,23.7184,9.78862,37.6152,-3.21004,-10.9833,-3.58912,-4.58806,-9.07241,-8.53274,40.0719,5.38353,-2.37841,-10.9914
0.774373,19.0792,-3.24882,-5.26633,-1.28557,0.529656,5.27897,-0.536043,-0.261994,0.493735,-0.734825,-0.195978,-2.45042,-0.364533,-0.000780218,-10.7749,-0.292621,-6.595,9.76573,-0.0693529,6.00624,4.69177,0.098935,2.93718,5.70108e-15,-1.78906e-15,4.13003,-24.1197,-31.8279,68.3704,-11.7355,-42.085,0.756731,7.12502,-14.9771,-28.6817,5.70108e-15,-1.78906e-15,8.0729,23.7222,36.9868,58.2491,28.4699,-27.6427,24.099,7.12502,-1.04078,54.0762,-6.05796,24.1624,9.36135,38.2066,-2.64398,-9.6739,-4.32357,-4.78448,-9.83866,-8.37257,41.035,5.48797,-2.94411,-13.1818
0.774037,18.9083,-3.26718,-5.38415,-1.15215,0.481654,5.42579,-0.549094,-0.240356,0.559235,-0.753214,-0.269756,-2.46647,-0.374233,-0.0862536,-10.7952,-0.304563,-6.66173,9.84042,-0.0988067,6.19706,4.71992,0.0940691,3.00696,4.81432e-16,4.93234e-15,5.84693,-24.9699,-30.434,69.1097,-11.3462,-41.9879,1.02598,7.12502,-14.8835,-28.4194,4.81432e-16,4.93234e-15,10.5733,24.2371,36.0821,58.6763,28.3301,-27.8822,24.5748,7.12502,-1.27213,54.5507,-6.10042,24.8351,9.12597,38.8163,-2.85283,-8.26158,-6.36417,-4.89687,-10.4789,-8.02311,41.9517,4.75882,-3.17166,-17.3265
0.77035,18.7144,-3.28758,-5.57477,-1.09609,0.359237,5.70158,-0.555781,-0.196879,0.612852,-0.760694,-0.28309,-2.56637,-0.378325,-0.121203,-10.7376,-0.288276,-6.77598,9.85323,-0.0834389,6.37125,4.71303,0.107419,3.0814,8.2053e-15,1.48592e-14,7.67294,-25.8553,-29.1212,69.7769,-10.9654,-41.9968,0.985084,7.12502,-14.8921,-28.4596,8.2053e-15,1.48592e-14,12.6884,24.5205,34.9765,59.2198,28.0523,-28.2929,24.4831,7.12502,-1.66876,54.4563,-6.05306,25.7176,9.05371,39.5233,-4.70902,-7.42779,-11.5659,-4.85013,-11.1511,-7.58047,42.8646,2.47938,-3.61797,-23.7935
0.765565,18.4918,-3.31206,-5.73065,-1.06135,0.0629474,5.96161,-0.563671,0.0354909,0.669548,-0.75599,-0.256953,-2.65611,-0.378188,-0.222697,-10.767,-0.285533,-6.84201,9.86304,-0.082445,6.4939,4.72078,0.113581,3.13122,-6.30054e-15,-6.4605e-16,9.55204,-26.8195,-27.919,70.3853,-10.4619,-42.0648,0.971186,7.12502,-14.9575,-28.4687,-6.30054e-15,-6.4605e-16,14.8013,25.107,34.0601,59.9484,27.9895,-28.3356,24.2418,7.12502,-1.71001,54.2147,-5.95694,26.5496,9.20661,40.3499,-7.71423,-7.503,-17.7081,-4.81038,-11.8962,-6.92341,43.8358,-1.15285,-5.16924,-31.0083
0.763546,18.2699,-3.33267,-5.84763,-1.06323,-0.0760618,6.16551,-0.550594,0.120505,0.758677,-0.732926,-0.260673,-2.67933,-0.367511,-0.274593,-11.0214,-0.32292,-6.83472,9.93324,-0.117014,6.46147,4.78735,0.0985225,3.11969,6.62046e-15,9.59136e-15,11.4394,-27.864,-26.7656,71.1348,-9.75261,-42.3614,0.76171,7.12502,-15.2433,-28.6567,6.62046e-15,9.59136e-15,17.3396,26.4114,33.9653,60.9129,27.7856,-27.9847,24.3138,7.12502,-1.37116,54.2891,-5.88222,27.258,9.19256,41.2972,-11.0756,-7.7451,-21.3108,-4.78328,-12.5759,-6.4934,44.8402,-4.64894,-7.09188,-29.8133
0.762273,18.0582,-3.34355,-6.03395,-1.05305,-0.0445497,6.33297,-0.535021,0.0445517,0.921076,-0.718443,-0.309064,-2.60519,-0.359571,-0.282275,-11.3469,-0.35332,-6.80826,9.985,-0.132979,6.36972,4.8589,0.0905418,3.08778,-1.1632e-15,7.85199e-15,13.3852,-29.0161,-25.6861,71.9374,-9.14138,-42.7332,0.946316,7.12502,-15.6014,-28.4445,-1.1632e-15,7.85199e-15,19.206,26.9064,32.9576,62.1298,28.8494,-28.2501,24.3709,7.12502,-1.62742,54.3444,-5.77442,27.9466,9.05114,42.3375,-14.2462,-7.44747,-23.4152,-4.6495,-13.3619,-6.37748,45.8321,-7.73943,-7.80802,-30.9275
0.758789,17.8417,-3.35453,-6.32181,-1.089,-0.0831913,6.61757,-0.488187,0.0459273,1.10975,-0.656723,-0.34158,-2.56973,-0.328768,-0.320216,-11.5389,-0.379324,-6.81325,9.82933,-0.144887,6.32719,4.84384,0.085083,3.07368,-5.97131e-15,-6.36111e-15,15.192,-30.1918,-24.5663,72.7864,-8.74681,-42.6901,1.55973,7.12502,-15.5599,-27.8343,-5.97131e-15,-6.36111e-15,21.1303,27.4183,32.0707,63.5163,30.2342,-28.8074,24.4972,7.12502,-2.16571,54.4659,-5.67916,28.6972,9.03731,43.423,-17.122,-6.93844,-26.0541,-4.36715,-14.1511,-6.23559,46.7499,-10.7693,-7.7125,-34.776
0.750942,17.6216,-3.36688,-6.6436,-1.16488,0.0382886,7.02199,-0.416873,-0.234598,1.23733,-0.582669,-0.335188,-2.66049,-0.289396,-0.160017,-11.4858,-0.348749,-6.83318,9.4971,-0.0760156,6.18968,4.72801,0.1096,3.03465,-8.29305e-16,5.56597e-15,16.9995,-31.309,-23.4935,73.6911,-8.27463,-42.1297,2.0478,7.12502,-15.0201,-27.3874,-8.29305e-16,5.56597e-15,22.9395,28.1281,31.518,65.149,31.7624,-29.0096,24.5287,7.12502,-2.36096,54.4954,-5.66258,29.4721,8.90536,44.5728,-19.9136,-6.79886,-27.8039,-4.02106,-14.6455,-6.27332,47.5853,-13.6144,-7.95073,-33.1065
0.739295,17.4114,-3.37693,-6.98193,-1.25061,0.320036,7.4672,-0.34749,-0.763162,1.38374,-0.533596,-0.341197,-2.75269,-0.260494,0.128718,-11.4196,-0.281804,-6.76422,9.06581,0.044577,5.91255,4.57652,0.154598,2.93987,-5.30351e-15,-7.25564e-15,19.0516,-32.5296,-22.7955,74.6398,-7.39203,-41.9331,2.31663,7.12502,-14.8307,-27.1326,-5.30351e-15,-7.25564e-15,24.6428,29.0042,31.1262,67.0139,33.5495,-28.9868,24.295,7.12502,-2.33896,54.2619,-5.70721,30.2578,8.67797,45.8309,-22.6905,-6.78591,-27.6083,-3.68218,-14.9548,-6.53145,48.3838,-16.3609,-8.68219,-31.904
0.723883,17.2045,-3.39253,-7.37505,-1.28252,0.639076,8.03183,-0.311188,-1.27534,1.60066,-0.535791,-0.432066,-2.83901,-0.257896,0.3261,-11.4342,-0.229444,-6.60904,8.47753,0.135756,5.66443,4.39279,0.192324,2.83734,3.55793e-15,-1.08338e-14,21.2298,-33.9103,-22.5015,75.6163,-6.34231,-41.9749,2.62534,7.12502,-14.871,-26.821,3.55793e-15,-1.08338e-14,26.4824,30.0161,30.8371,68.9841,35.4454,-28.9872,23.519,7.12502,-2.33936,53.4859,-5.81074,31.0076,8.51187,47.281,-25.3054,-6.85894,-27.7256,-3.37055,-15.2538,-6.86795,49.2165,-19.1139,-9.16011,-31.6755
0.705846,16.9985,-3.41432,-7.819,-1.26836,1.08214,8.71416,-0.271295,-1.88999,1.81147,-0.553329,-0.588338,-2.99541,-0.261988,0.515997,-11.2944,-0.165449,-6.49598,7.74534,0.229457,5.53548,4.13995,0.235989,2.77731,3.02448e-15,8.24956e-15,23.2547,-35.1864,-22.3457,76.6644,-5.23012,-42.116,2.91276,7.12502,-15.0069,-26.5234,3.02448e-15,8.24956e-15,28.3324,31,30.6564,71.0656,37.27,-28.9264,22.6084,7.12502,-2.28063,52.576,-6.05266,31.6113,8.22891,48.9603,-27.6259,-7.05243,-28.1223,-3.14424,-15.4502,-7.36496,50.1614,-21.5363,-8.94472,-30.5446
0.685803,16.7984,-3.43869,-8.33462,-1.27564,1.56208,9.51213,-0.203297,-2.55932,2.01639,-0.552489,-0.762011,-3.22064,-0.255675,0.717208,-11.2,-0.123743,-6.3231,7.10178,0.287837,5.35966,3.92488,0.261643,2.69213,-7.56944e-16,-5.1684e-15,25.1501,-36.376,-22.293,77.8325,-3.91871,-42.2977,3.2697,7.12502,-15.1819,-26.1533,-7.56944e-16,-5.1684e-15,30.0874,31.8599,30.4819,73.2383,38.7848,-28.8683,21.2472,7.12502,-2.22452,51.2154,-6.34665,32.124,8.004,50.8699,-29.5673,-7.74372,-27.8119,-2.97395,-15.3544,-7.8811,51.2638,-23.5901,-8.95602,-28.9935
0.664565,16.6185,-3.46984,-8.8162,-1.24283,2.03276,10.4732,-0.118382,-3.21958,2.10883,-0.549732,-0.928759,-3.65174,-0.243894,0.92116,-11.01,-0.125164,-6.23505,6.46312,0.285322,5.28595,3.69975,0.259253,2.64858,-1.40322e-14,-2.96189e-14,26.8677,-37.4882,-22.306,79.2174,-2.84383,-42.0707,4.04606,7.12502,-14.9633,-25.3934,-1.40322e-14,-2.96189e-14,31.7023,32.5171,30.429,75.5814,39.8364,-28.9479,19.5608,7.12502,-2.30138,49.5281,-6.76165,32.5193,7.84611,52.9195,-31.2168,-8.59775,-27.8969,-3.00901,-15.0319,-8.34657,52.5263,-25.3924,-9.28402,-27.7188
0.644248,16.4572,-3.50242,-9.26404,-1.18878,2.62601,11.413,-0.0348025,-3.94173,2.17318,-0.575199,-1.17034,-4.09808,-0.242954,1.085,-10.5849,-0.0567273,-6.2897,5.61871,0.366603,5.48305,3.36916,0.306085,2.71436,6.30831e-15,2.78299e-15,28.5045,-38.4866,-22.591,80.7569,-1.95226,-41.8683,5.17299,7.12502,-14.7683,-24.2809,6.30831e-15,2.78299e-15,33.1911,33.0704,30.3468,77.9215,40.3332,-29.1799,17.7049,7.12502,-2.52548,47.6697,-7.29125,32.6743,7.49644,54.9616,-32.6947,-9.26456,-28.7696,-3.1675,-14.5753,-8.98083,53.9361,-27.1782,-8.43701,-27.9812
0.626598,16.3141,-3.5236,-9.71729,-1.21131,2.99495,12.1191,0.0455182,-4.399,2.32853,-0.56858,-1.36516,-4.32245,-0.232735,1.14142,-10.121,-0.010744,-6.37517,4.43193,0.442443,5.48736,3.26322,0.324816,3.02594,-3.27529e-15,1.11319e-14,30.0825,-39.4695,-23.0082,82.3286,-1.09783,-41.9417,6.66322,7.12502,-14.839,-22.7854,-3.27529e-15,1.11319e-14,34.5814,33.6451,30.2523,80.2481,40.1793,-29.4627,15.079,7.12502,-2.79859,45.0404,-7.73168,32.6051,7.4114,56.8325,-33.8807,-10.3035,-29.37,-3.31154,-14.0462,-9.39641,55.4357,-28.7152,-6.82808,-28.9952
0.612438,16.1933,-3.54302,-10.0372,-1.25813,3.03379,12.5915,0.100675,-4.50403,2.51674,-0.534003,-1.43973,-4.38627,-0.215958,1.11918,-9.94992,-0.0501819,-6.52185,3.75494,0.40398,5.69046,3.00218,0.313221,3.10625,2.95692e-15,-6.75868e-15,31.5285,-40.4483,-23.3021,83.9164,-0.615698,-42.2594,8.32126,7.12502,-15.145,-21.1046,2.95692e-15,-6.75868e-15,35.9262,34.2882,30.4681,82.7013,39.2539,-30.1128,11.7716,7.12502,-3.42637,41.7238,-8.19138,32.2179,7.59101,58.4318,-34.8399,-11.4592,-29.5184,-3.674,-13.5332,-9.40027,56.9563,-29.8121,-5.58899,-29.8003
0.601958,16.0914,-3.5652,-10.1512,-1.24217,2.86179,12.8284,0.101222,-4.34017,2.67267,-0.520111,-1.4478,-4.355,-0.213684,1.01733,-9.89992,-0.136025,-6.74155,3.20451,0.318796,5.87374,2.81371,0.276845,3.19648,-5.69021e-15,5.56597e-15,32.6873,-41.2585,-23.3216,85.5321,-0.730197,-42.8691,9.52406,7.12502,-15.7323,-19.8565,-5.69021e-15,5.56597e-15,37.196,34.8646,30.846,85.1564,37.6533,-31.053,8.60893,7.12502,-4.33429,38.5446,-8.73579,31.4452,7.8245,59.7053,-35.588,-12.4983,-29.7641,-4.30331,-13.0868,-9.09737,58.3909,-30.5421,-5.12901,-30.0898
0.591534,16.0076,-3.58271,-10.2275,-1.29788,2.35376,12.9542,0.073255,-3.82391,2.82777,-0.485442,-1.36688,-4.26695,-0.20533,0.806421,-9.92924,-0.223153,-6.95139,2.80598,0.232338,6.04863,2.69336,0.239838,3.28675,5.59703e-15,2.06736e-14,33.6828,-41.8624,-23.3231,87.0636,-1.23004,-43.7813,10.683,7.12502,-16.6107,-18.6262,5.59703e-15,2.06736e-14,38.3173,35.2825,31.0857,87.471,35.8165,-31.6887,6.31516,7.12502,-4.94814,36.2374,-9.15903,30.5657,8.44023,60.6213,-36.1451,-13.538,-29.9804,-4.86753,-12.6741,-8.35503,59.6104,-31.1164,-4.90555,-30.4512
0.582445,15.9525,-3.58935,-10.3131,-1.29122,1.82016,13.0252,0.0274843,-3.27457,2.91471,-0.46922,-1.2922,-4.21976,-0.20424,0.572894,-9.82587,-0.29223,-6.99325,2.55642,0.143931,6.09407,2.59644,0.197,3.29995,3.95706e-15,-6.75868e-15,34.3889,-42.1846,-23.2198,88.4413,-1.9762,-44.7574,11.9294,7.12502,-17.5502,-17.2984,3.95706e-15,-6.75868e-15,39.1411,35.4152,31.0683,89.7027,34.1281,-32.1696,5.56635,7.12502,-5.41244,35.4772,-9.32841,29.6861,9.11312,61.1379,-36.7045,-14.2655,-29.4561,-5.25947,-12.5177,-7.62672,60.4913,-31.4801,-4.79396,-30.5468
0.576761,15.9213,-3.5899,-10.421,-1.11768,1.64587,13.0601,-0.0221864,-3.09453,2.95854,-0.510288,-1.28193,-4.1932,-0.226909,0.489053,-9.67525,-0.359116,-7.06739,2.46986,0.057475,6.08109,2.54574,0.15113,3.30148,5.56597e-15,-9.54166e-15,34.8701,-42.2824,-22.8647,89.5984,-2.78188,-45.4455,12.8619,7.12502,-18.2123,-16.3055,5.56597e-15,-9.54166e-15,39.7053,35.3709,31.0033,91.7926,32.3149,-33.0053,5.06819,7.12502,-6.21937,34.9569,-9.24252,28.7032,9.33248,61.2832,-37.2338,-14.7308,-28.9768,-5.45551,-12.6407,-7.3955,60.9779,-31.5936,-4.93377,-30.1292
0.571682,15.909,-3.58444,-10.6082,-1.04405,1.6175,13.0784,-0.0216714,-3.06593,3.02967,-0.504984,-1.29359,-4.12907,-0.225987,0.459861,-9.56,-0.428002,-7.1253,2.46673,-0.0297437,5.98296,2.52895,0.102266,3.27211,-8.69062e-15,-1.39149e-14,35.2492,-42.2565,-22.4783,90.4932,-3.13531,-46.041,13.2726,7.12502,-18.7851,-15.8404,-8.69062e-15,-1.39149e-14,40.0219,35.153,30.8165,93.6673,30.4307,-33.9743,4.39419,7.12502,-7.15474,34.2533,-8.89486,27.8594,9.40073,61.0753,-37.6627,-14.9697,-28.3449,-5.30459,-12.6884,-7.3386,61.0681,-31.6491,-4.96583,-30.3183
0.566463,15.9157,-3.57364,-10.8433,-1.07884,1.51117,13.0764,0.00612946,-2.93455,3.11946,-0.448596,-1.30639,-4.03671,-0.201177,0.363194,-9.49791,-0.478501,-7.153,2.61128,-0.0995956,5.93452,2.57119,0.0637713,3.25861,3.49116e-15,8.34896e-15,35.543,-42.0658,-22.2337,91.0665,-2.78388,-46.8113,13.5235,7.12502,-19.5258,-15.5161,3.49116e-15,8.34896e-15,40.0778,34.6786,30.3914,95.2311,28.733,-35.1086,4.15646,7.12502,-8.24959,33.9754,-8.36106,27.1909,9.57305,60.5673,-37.9055,-15.0281,-27.5667,-4.87037,-12.774,-7.19943,60.7866,-31.5628,-5.42254,-30.0558
0.561561,15.9467,-3.55672,-11.0916,-1.14718,1.50655,13.0369,0.0578489,-2.94135,3.15098,-0.378893,-1.31199,-3.98393,-0.167593,0.349746,-9.45224,-0.485836,-7.21484,3.06243,-0.116929,5.91539,2.71768,0.0498651,3.2703,-5.05037e-15,7.95139e-16,35.7526,-41.5748,-22.0448,91.321,-2.12413,-47.5621,13.6346,7.12502,-20.2476,-15.33,-5.05037e-15,7.95139e-16,39.676,33.997,29.7118,96.4905,27.6234,-36.0526,4.48572,7.12502,-9.16058,34.2668,-7.72961,26.6334,9.58884,59.8133,-37.9216,-14.7566,-26.9292,-4.23485,-12.8987,-7.19561,60.1664,-31.2116,-6.42449,-28.7122
0.558462,16.0015,-3.53081,-11.3649,-1.30299,1.59721,12.9615,0.137641,-3.0539,3.11957,-0.285817,-1.30488,-3.97741,-0.120583,0.405436,-9.41971,-0.430634,-7.26226,3.69413,-0.050907,5.8089,2.92164,0.0729054,3.25654,5.28022e-16,6.36111e-15,35.7918,-40.8426,-21.8207,91.3306,-1.62546,-47.6582,13.3098,7.12502,-20.3399,-15.645,5.28022e-16,6.36111e-15,38.8923,33.1435,28.9016,97.4462,27.2065,-36.4525,4.50503,7.12502,-9.54641,34.2688,-6.99104,26.214,9.47218,58.8829,-37.6572,-14.2154,-26.7706,-3.35956,-12.8964,-7.36845,59.2652,-30.8165,-6.52649,-29.094
0.55881,16.0745,-3.50325,-11.5775,-1.49721,1.76126,12.8327,0.232048,-3.1854,2.99059,-0.178061,-1.33669,-4.04485,-0.064421,0.428726,-9.30132,-0.333991,-7.18487,4.37805,0.0543007,5.63084,3.12328,0.112778,3.1957,4.46489e-15,3.57812e-15,35.5471,-39.9349,-21.56,91.1486,-1.49858,-47.2122,12.7976,7.12502,-19.9113,-16.2024,4.46489e-15,3.57812e-15,37.8572,32.0221,28.0554,98.2057,27.1321,-36.53,4.41167,7.12502,-9.6212,34.172,-6.27942,26.0282,9.24463,57.8308,-37.1523,-13.4332,-26.8936,-2.44831,-12.855,-7.67758,58.2044,-30.3275,-6.28277,-30.0268
0.558311,16.1653,-3.47567,-11.6709,-1.77475,1.80749,12.6368,0.323707,-3.18811,2.79069,-0.0550007,-1.3487,-4.15097,-0.000616482,0.397799,-9.16868,-0.224866,-6.92211,5.06374,0.164293,5.31667,3.3206,0.152918,3.05194,-1.41168e-14,-1.98785e-15,35.0653,-38.8731,-21.2883,90.7444,-1.61848,-46.8759,12.6796,7.12502,-19.588,-16.3536,-1.41168e-14,-1.98785e-15,36.554,30.8202,27.0939,98.7405,27.0856,-36.7123,4.5452,7.12502,-9.79713,34.2973,-5.70449,26.0852,9.13554,56.6789,-36.4066,-12.3952,-26.7552,-1.6262,-12.7774,-7.83615,57.0562,-29.5073,-6.61799,-29.3573
0.557577,16.2738,-3.44761,-11.5886,-2.13339,1.65391,12.2666,0.39945,-2.98478,2.56893,0.0836655,-1.29784,-4.18427,0.0681645,0.314991,-9.12907,-0.119938,-6.65438,5.80664,0.280461,4.9454,3.55731,0.194117,2.8911,-9.64106e-15,-2.70347e-14,34.3502,-37.724,-20.943,90.1466,-1.73101,-46.7127,12.5364,7.12502,-19.4311,-16.5128,-9.64106e-15,-2.70347e-14,35.0334,29.6236,26.0459,98.9215,26.9057,-36.6512,4.64272,7.12502,-9.73817,34.3976,-5.35524,26.1503,9.17194,55.4465,-35.2354,-11.3803,-26.7635,-0.964394,-12.5892,-7.72484,55.8805,-28.4479,-6.78851,-28.8154
0.561232,16.4021,-3.41453,-11.4603,-2.40437,1.65457,11.7947,0.456915,-2.88216,2.3303,0.186372,-1.28688,-4.17697,0.119635,0.254087,-9.03545,-0.0148395,-6.54815,6.83287,0.378853,4.95619,3.48401,0.255278,2.59534,-8.90804e-15,3.97569e-16,33.4438,-36.5214,-20.5794,89.3738,-1.53853,-46.3968,11.9831,7.12502,-19.1273,-17.0963,-8.90804e-15,3.97569e-16,33.288,28.3616,24.9991,98.8692,26.4796,-36.3476,5.02832,7.12502,-9.4452,34.7967,-4.99927,26.194,9.01194,54.147,-33.8242,-10.3459,-26.9954,-0.312174,-12.4379,-7.87843,54.6577,-27.2605,-6.37572,-29.2549
0.565573,16.553,-3.37712,-11.2965,-2.61714,1.56653,11.3073,0.455982,-2.69445,2.03867,0.220995,-1.26229,-4.21336,0.137128,0.1703,-8.93226,0.131961,-6.48113,7.57975,0.551268,4.88158,3.68366,0.332572,2.57632,3.64024e-15,2.78299e-15,32.4542,-35.1954,-20.333,88.4105,-1.19688,-45.8278,11.253,7.12502,-18.58,-17.8797,3.64024e-15,2.78299e-15,31.3434,27.1346,24.0625,98.6723,25.4899,-36.4004,5.55813,7.12502,-9.49611,35.3242,-4.57605,26.3312,9.021,52.7901,-32.3315,-9.1694,-26.5273,0.268674,-12.4211,-8.00878,53.3592,-25.8581,-5.73808,-29.7921
0.564315,16.7192,-3.34404,-11.0274,-2.84961,1.2064,10.7773,0.421517,-2.30678,1.76643,0.238205,-1.16273,-4.20371,0.14271,0.0552831,-9.13855,0.267131,-6.31582,8.41165,0.717382,4.76698,3.96186,0.410201,2.5322,-4.52235e-15,-2.78299e-15,31.3098,-33.9118,-20.0863,87.4007,-0.947046,-45.4558,10.328,7.12502,-18.2222,-18.8385,-4.52235e-15,-2.78299e-15,29.3151,26.1162,23.2116,98.204,24.1892,-37.0083,5.88213,7.12502,-10.0826,35.6206,-4.23081,26.5081,9.39859,51.4086,-30.5811,-8.28461,-25.8107,0.677282,-12.4037,-7.76197,52.0148,-24.1534,-5.24425,-30.4649
0.56444,16.8959,-3.31257,-10.7443,-3.00319,1.08348,10.1748,0.420777,-2.12883,1.5624,0.273247,-1.14669,-4.08208,0.157967,-0.0301461,-9.40474,0.343114,-6.22782,9.13569,0.810621,4.74841,4.2218,0.455886,2.52663,1.15544e-14,-6.36111e-15,29.9579,-32.802,-19.8076,86.3996,-0.695942,-45.1565,9.04897,7.12502,-17.9342,-20.1441,1.15544e-14,-6.36111e-15,27.2999,25.1078,22.469,97.5252,23.0669,-36.4399,6.20031,7.12502,-9.53429,35.9646,-3.86749,26.6656,9.5181,50.0011,-28.6032,-7.66467,-25.5638,1.08082,-12.4606,-7.8231,50.6299,-22.2613,-4.65484,-31.9906
0.566113,17.0803,-3.28711,-10.4254,-3.04119,1.06045,9.6049,0.416735,-2.07253,1.34304,0.287138,-1.14755,-3.99355,0.164665,-0.0618548,-9.59312,0.410869,-6.08795,9.73582,0.892027,4.65088,4.4333,0.493035,2.48626,8.34896e-15,-2.78299e-15,28.5069,-31.7727,-19.5774,85.283,-0.448937,-44.6794,8.59007,7.12502,-17.4751,-20.6445,8.34896e-15,-2.78299e-15,25.235,24.0584,21.9045,96.7102,22.025,-34.3808,6.70754,7.12502,-7.54715,36.5529,-3.55898,26.7417,9.48488,48.5613,-26.3941,-7.08745,-25.6665,1.37685,-12.6857,-8.01822,49.2354,-20.1587,-4.22544,-32.9068
0.566006,17.2765,-3.26262,-10.1035,-3.11204,0.77038,9.09634,0.40661,-1.75569,1.10778,0.319062,-1.07835,-3.95401,0.177167,-0.169925,-9.7473,0.48697,-5.96965,10.2588,0.981055,4.60933,4.61531,0.536696,2.46671,1.43373e-14,-7.15625e-15,26.8839,-30.7544,-19.3977,84.1182,-0.180829,-44.389,8.50342,7.12502,-17.1956,-20.7557,1.43373e-14,-7.15625e-15,23.1104,23.0803,21.5719,95.8799,21.2291,-32.9207,7.33859,7.12502,-6.13762,37.2297,-3.25569,26.8823,9.82501,47.0702,-23.9392,-6.82489,-25.8684,1.63947,-13.009,-7.89257,47.8191,-17.8264,-4.04262,-31.7195
0.565219,17.483,-3.23052,-9.8433,-3.2328,0.488701,8.59489,0.402279,-1.44232,0.892586,0.354706,-1.02753,-3.89645,0.190929,-0.295208,-9.91629,0.564558,-5.99771,10.7606,1.06097,4.84512,4.79147,0.588137,2.55756,1.98785e-15,5.56597e-15,25.0451,-29.6565,-19.1171,82.9837,0.0168305,-44.2767,7.96606,7.12502,-17.0876,-21.3025,1.98785e-15,5.56597e-15,20.8193,22.1615,21.2308,95.0135,20.9152,-32.2939,8.16018,7.12502,-5.5325,38.068,-2.82806,27.1896,10.26,45.5336,-21.3805,-6.69873,-25.4668,2.01265,-13.3479,-7.81648,46.3599,-15.3463,-3.70443,-30.4635
0.565427,17.6931,-3.19751,-9.52961,-3.2705,0.329374,8.09289,0.388029,-1.23547,0.673131,0.362795,-1.01779,-3.84239,0.192187,-0.399726,-10.2861,0.601954,-6.00976,11.2957,1.09621,5.05445,5.01488,0.619282,2.63782,4.37326e-15,6.75868e-15,23.0733,-28.5811,-18.7765,81.8668,-0.0197251,-44.1416,7.04161,7.12502,-16.9575,-22.2381,4.37326e-15,6.75868e-15,18.5139,21.2892,21.0009,93.9835,21.0135,-31.7671,8.70914,7.12502,-5.02387,38.6296,-2.42641,27.4913,10.5265,43.9732,-18.8033,-6.53166,-24.5756,2.28482,-13.6886,-7.87425,44.8732,-12.71,-3.30124,-30.3814
0.567218,17.9041,-3.17028,-9.13916,-3.24111,0.360137,7.61768,0.377179,-1.22202,0.454224,0.354347,-1.05738,-3.80306,0.187905,-0.444948,-10.5706,0.617804,-5.9246,11.4646,1.10993,5.10225,5.11436,0.635055,2.6449,-8.17502e-15,-5.56597e-15,21.1126,-27.6111,-18.5378,80.7026,-0.239757,-44.2279,6.41341,7.12502,-17.0406,-22.8592,-8.17502e-15,-5.56597e-15,16.2929,20.5975,20.9714,92.8389,21.4556,-31.1079,9.35721,7.12502,-4.38737,39.2918,-2.1827,27.7853,10.5073,42.4019,-16.1703,-6.43801,-24.1053,2.40152,-14.021,-8.13117,43.3591,-9.96288,-2.81745,-30.6141
0.567643,18.1137,-3.14643,-8.71871,-3.31044,0.143921,7.13098,0.381121,-0.993267,0.265821,0.387073,-1.01263,-3.72422,0.200831,-0.527886,-10.6706,0.591748,-5.73901,11.357,1.07001,4.96993,5.10225,0.616197,2.56956,-9.61621e-15,3.97569e-15,19.1013,-26.7131,-18.3147,79.5887,-0.861176,-44.4725,5.99232,7.12502,-17.276,-23.2598,-9.61621e-15,3.97569e-15,14.0121,20.0644,20.9519,91.6193,22.0464,-30.3513,10.3568,7.12502,-3.65671,40.3052,-2.01296,28.2667,10.801,40.8301,-13.4985,-6.56637,-23.8609,2.47859,-14.3456,-8.0833,41.8689,-7.07591,-2.23262,-30.3302
0.567732,18.3201,-3.11957,-8.31951,-3.40212,-0.113936,6.61347,0.399655,-0.72237,0.117418,0.442042,-0.944818,-3.58577,0.2241,-0.611976,-10.9561,0.518603,-5.71464,11.4741,0.981215,4.95723,5.19193,0.575328,2.55937,1.28465e-14,-5.56597e-15,17.072,-25.86,-18.0641,78.4728,-2.00258,-44.3017,5.84994,7.12502,-17.1116,-23.4165,1.28465e-14,-5.56597e-15,11.7168,19.641,21.0513,90.3115,22.7254,-29.6404,11.2656,7.12502,-2.97022,41.2247,-1.79718,28.8698,11.1802,39.2519,-10.8465,-6.87604,-22.5521,2.55907,-14.8228,-8.05299,40.4473,-4.17943,-1.48427,-29.417
0.565463,18.5178,-3.09238,-7.89895,-3.52752,-0.366907,6.05471,0.41992,-0.46769,0.0153495,0.496131,-0.873383,-3.37573,0.247379,-0.681845,-11.5425,0.473434,-5.82586,11.7043,0.941001,5.13364,5.36287,0.568342,2.63888,1.44119e-14,-2.06736e-14,15.1358,-25.0754,-17.9182,77.3062,-3.19993,-44.2136,5.98213,7.12502,-17.0268,-23.2917,1.44119e-14,-2.06736e-14,9.52676,19.4627,21.2286,88.7961,23.3885,-29.1224,12.0437,7.12502,-2.46996,42.0091,-1.61657,29.5774,11.5758,37.6893,-8.2096,-7.42947,-20.1829,2.55025,-15.2648,-8.01619,39.124,-1.34761,-0.635479,-29.6049
0.567277,18.7042,-3.07403,-7.44786,-3.62639,-0.601607,5.60979,0.427769,-0.137729,-0.119903,0.532965,-0.839136,-3.26252,0.260651,-0.831609,-11.9835,0.433819,-5.87041,11.6545,0.912744,5.18767,5.42284,0.561589,2.66467,-1.19271e-15,1.59028e-15,13.1707,-24.3063,-17.8982,76.1528,-4.16068,-44.4592,5.75753,7.12502,-17.2632,-23.4957,-1.19271e-15,1.59028e-15,7.46012,19.4745,21.4463,87.0872,24.0286,-28.7358,12.6758,7.12502,-2.09657,42.6453,-1.54073,30.2217,11.8928,36.1895,-5.86869,-7.89884,-18.2462,2.40286,-15.6439,-7.97505,37.9138,1.33093,0.302554,-29.0739
0.567352,18.8779,-3.05621,-7.01001,-3.7667,-0.742534,5.24429,0.445125,0.0663938,-0.277006,0.570876,-0.816109,-3.21704,0.276203,-0.922984,-12.3251,0.408733,-5.75397,11.5294,0.902209,5.01994,5.44369,0.553774,2.59317,-1.30204e-14,6.75868e-15,11.2149,-23.4771,-17.9489,75.0001,-5.05782,-44.5666,4.96905,7.12502,-17.3666,-24.2751,-1.30204e-14,6.75868e-15,5.42168,19.7713,21.7533,85.3395,24.5166,-27.9718,13.4244,7.12502,-1.35867,43.3998,-1.56214,30.8006,12.0773,34.8291,-4.25282,-8.09641,-18.0229,2.19745,-15.9482,-8.0317,36.8552,3.72031,1.32665,-25.6589
0.567222,19.0404,-3.03864,-6.52056,-3.82884,-0.681341,4.83687,0.44566,0.0406567,-0.419816,0.570041,-0.84098,-3.13534,0.276001,-0.930918,-12.8346,0.388116,-5.63045,11.4994,0.904036,4.83933,5.52169,0.5523,2.52017,-6.06293e-15,-1.07344e-14,9.27715,-22.6419,-18.0089,73.8989,-5.97974,-44.7385,4.37092,7.12502,-17.532,-24.8586,-6.06293e-15,-1.07344e-14,3.45217,20.3209,22.1147,83.4717,24.8214,-27.2625,14.1126,7.12502,-0.6736,44.0913,-1.72508,31.3567,12.0244,33.6403,-3.66296,-7.77798,-18.7394,1.86508,-16.2341,-8.3257,36.0029,5.79378,2.30245,-22.423
0.564631,19.1873,-3.02713,-6.0117,-3.89581,-0.616622,4.42575,0.451273,-0.013363,-0.516732,0.574602,-0.87936,-3.00413,0.27907,-0.936894,-13.4852,0.359756,-5.53684,11.5569,0.895872,4.72801,5.65063,0.55032,2.4756,-4.96962e-17,7.95139e-16,7.35309,-21.9269,-18.1361,72.8353,-6.85216,-44.9166,4.02291,7.12502,-17.7034,-25.1912,-4.96962e-17,7.95139e-16,1.54957,20.9042,22.3029,81.4666,25.1046,-27.3159,14.7291,7.12502,-0.725173,44.7076,-2.0089,32.0062,12.0131,32.6468,-4.04236,-6.47432,-19.0544,1.42949,-16.3679,-8.55644,35.37,7.25054,2.98512,-20.3005
0.56246,19.3187,-3.02066,-5.54341,-4.02643,-0.760194,4.13415,0.477048,0.154089,-0.63886,0.618705,-0.866055,-2.96365,0.298226,-1.01797,-13.8683,0.327724,-5.45681,11.4596,0.867151,4.66581,5.68663,0.539441,2.44256,1.51076e-14,-8.34896e-15,5.36351,-21.1441,-18.2731,71.8068,-7.6609,-45.0547,3.72731,7.12502,-17.8363,-25.4747,1.51076e-14,-8.34896e-15,-0.359396,21.464,22.3992,79.4295,25.2794,-27.8107,15.1386,7.12502,-1.20308,45.115,-2.36396,32.4309,12.2174,31.8266,-4.71119,-4.16389,-18.056,0.961561,-16.3822,-8.54004,34.9617,8.05624,3.44564,-17.5946
0.564024,19.4367,-3.01446,-5.09021,-4.18998,-0.909798,3.88945,0.514876,0.361309,-0.785439,0.680215,-0.837365,-2.97383,0.32512,-1.10709,-13.9645,0.302317,-5.38157,11.1068,0.843491,4.56908,5.59398,0.526688,2.39394,-4.12478e-15,1.98785e-15,3.35507,-20.2566,-18.4167,70.8762,-8.42854,-45.2742,3.65931,7.12502,-18.0475,-25.5234,-4.12478e-15,1.98785e-15,-2.28452,22.1008,22.4769,77.4695,25.3264,-27.8203,15.6485,7.12502,-1.21231,45.6248,-2.79559,32.6176,12.3707,31.1669,-5.35692,-1.80877,-16.9933,0.475962,-16.3419,-8.58015,34.751,8.17507,3.82374,-15.087
0.566314,19.5391,-3.00822,-4.74392,-4.36239,-0.984224,3.76089,0.537827,0.519213,-0.900399,0.718019,-0.840437,-3.0172,0.340507,-1.20066,-13.9818,0.318907,-5.36061,10.6617,0.870464,4.57805,5.45585,0.543968,2.39046,-4.57205e-15,-3.18055e-15,1.47726,-19.4262,-18.7785,69.9632,-9.00362,-45.6808,3.49221,7.12502,-18.4387,-25.6539,-4.57205e-15,-3.18055e-15,-4.27019,22.8164,22.4012,75.5116,25.3239,-27.6868,16.2486,7.12502,-1.08337,46.2256,-3.13176,32.7184,12.528,30.6362,-5.98267,-0.373367,-18.6346,0.0692167,-16.2359,-8.76992,34.6972,7.51444,4.42238,-14.4799
0.569014,19.6283,-3.00246,-4.49693,-4.5258,-1.02964,3.7828,0.530776,0.663328,-0.983775,0.714556,-0.871392,-3.11352,0.334916,-1.31418,-14.1245,0.383093,-5.32115,10.3289,0.949674,4.67896,5.3707,0.594812,2.42002,4.89507e-15,1.98785e-15,-0.291246,-18.6789,-19.3609,69.0428,-9.26662,-45.7817,3.63732,7.12502,-18.5357,-25.4996,4.89507e-15,1.98785e-15,-6.33605,23.5567,22.2014,73.5948,25.4529,-27.5594,16.6595,7.12502,-0.960351,46.6371,-3.40581,32.6642,12.7301,30.2252,-6.3715,0.466817,-21.1578,-0.278899,-16.0343,-9.02259,34.7669,6.2327,5.28889,-14.3852
0.571644,19.7094,-3.00145,-4.2944,-4.76496,-1.17246,3.89073,0.550366,0.839838,-1.01588,0.75109,-0.834287,-3.20477,0.349326,-1.37908,-14.4154,0.43124,-5.32719,10.1278,1.01864,4.79741,5.35156,0.640839,2.46469,-1.36664e-14,2.38542e-15,-2.06595,-17.9465,-19.932,68.1925,-9.26243,-45.5528,3.87464,7.12502,-18.3155,-25.2831,-1.36664e-14,2.38542e-15,-8.27963,24.4703,22.2459,71.7374,25.708,-27.2062,16.8841,7.12502,-0.619278,46.863,-3.71551,32.5036,13.0835,29.9332,-6.49381,1.4671,-22.9,-0.624336,-15.6661,-9.15989,34.9612,4.78698,5.94845,-13.6359
0.57383,19.7798,-3.00598,-4.07436,-4.96867,-1.48009,3.98609,0.578391,1.15579,-1.00543,0.80862,-0.735749,-3.24325,0.372543,-1.45992,-14.5985,0.452651,-5.26528,9.76926,1.06001,4.73354,5.26807,0.662224,2.43527,-7.15625e-15,-7.55382e-15,-3.91334,-17.3027,-20.4955,67.4712,-8.99706,-45.4351,3.61183,7.12502,-18.2023,-25.5565,-7.15625e-15,-7.55382e-15,-10.0614,25.5616,22.4919,70.0353,26.1442,-27.2732,17.2677,7.12502,-0.683934,47.2464,-4.06474,32.27,13.6551,29.7633,-6.58654,2.71301,-22.8985,-1.10093,-15.1693,-9.06993,35.2896,3.36666,6.28979,-13.064
0.576321,19.8335,-3.00989,-3.93391,-5.00681,-1.74364,4.1242,0.55723,1.39355,-0.979646,0.798235,-0.617354,-3.2934,0.363578,-1.47238,-14.5765,0.489156,-5.25806,9.26925,1.12439,4.6788,5.1052,0.692058,2.41593,1.19271e-14,-1.07344e-14,-5.7621,-16.6827,-21.0776,66.8829,-8.64208,-45.317,3.28727,7.12502,-18.0887,-25.8916,1.19271e-14,-1.07344e-14,-12.0025,26.5684,22.692,68.5402,26.7171,-28.3821,17.5131,7.12502,-1.75498,47.4857,-4.26173,31.7355,14.2521,29.6988,-6.82095,3.73355,-20.317,-1.57253,-14.6938,-9.04102,35.7102,2.03813,6.35591,-12.2163
0.578486,19.8721,-3.0119,-3.80737,-5.04906,-1.86913,4.27246,0.566773,1.50225,-0.966727,0.82138,-0.539654,-3.36249,0.373128,-1.45684,-14.6827,0.502533,-5.29876,8.99629,1.16131,4.68011,5.03527,0.711054,2.42383,-1.47101e-14,1.43125e-14,-7.64806,-16.1487,-21.7593,66.3235,-8.20002,-45.1879,3.5854,7.12502,-17.9645,-25.6049,-1.47101e-14,1.43125e-14,-13.893,27.449,22.9214,67.0587,26.9687,-29.9757,17.5135,7.12502,-3.29399,47.4678,-4.46243,30.9291,14.6861,29.7453,-7.20941,4.19696,-21.1504,-2.03263,-14.1725,-9.18605,36.1731,0.76484,6.31516,-11.0258
0.578166,19.9047,-3.01332,-3.73976,-5.14643,-1.86726,4.4707,0.614966,1.50046,-0.921869,0.888456,-0.532382,-3.42562,0.406277,-1.45553,-14.915,0.501015,-5.31417,8.89576,1.16884,4.73633,5.04103,0.720947,2.44587,4.89507e-15,-1.19271e-14,-9.60428,-15.7277,-22.6318,65.8769,-7.65662,-45.2666,3.79431,7.12502,-18.0401,-25.3891,4.89507e-15,-1.19271e-14,-15.5386,28.5747,23.2539,65.5507,27.018,-30.2376,17.9354,7.12502,-3.54693,47.8856,-4.65943,30.0702,15.0238,29.9185,-7.58832,4.14915,-21.2627,-2.43679,-13.5414,-9.49562,36.6494,-0.342481,6.23561,-10.2766
0.575987,19.9238,-3.01922,-3.74816,-5.23399,-1.89578,4.80165,0.664878,1.53911,-0.840852,0.961352,-0.544033,-3.52502,0.44114,-1.49894,-15.1039,0.47942,-5.308,8.70574,1.1436,4.80392,5.01354,0.716357,2.46381,1.13804e-14,1.59028e-15,-11.5507,-15.4193,-23.6247,65.4333,-7.11395,-45.6298,3.70692,7.12502,-18.3896,-25.4438,1.13804e-14,1.59028e-15,-17.4456,29.4845,23.4647,64.5003,27.622,-29.0974,18.7065,7.12502,-2.44575,48.6723,-4.82674,29.265,15.4675,30.2393,-7.88012,3.95613,-20.4684,-2.7625,-12.8457,-9.77121,37.1124,-1.25172,5.92635,-10.733
0.573782,19.9258,-3.03059,-3.74437,-5.31888,-1.95685,5.17377,0.700204,1.58161,-0.773782,1.01702,-0.525928,-3.66297,0.467098,-1.51391,-15.2306,0.459246,-5.23505,8.5282,1.11753,4.75402,4.98087,0.70462,2.4333,-1.76421e-15,-5.56597e-15,-13.4161,-15.2714,-24.6594,64.9652,-6.38722,-45.5585,3.80169,7.12502,-18.321,-25.3555,-1.76421e-15,-5.56597e-15,-19.3351,30.4912,23.6688,63.4894,28.1264,-28.6475,19.3892,7.12502,-2.01127,49.3595,-5.06658,28.3443,15.9199,30.6682,-8.13484,3.93926,-19.4513,-3.14439,-12.0435,-9.97355,37.5844,-1.8645,5.29795,-11.1712
0.570725,19.915,-3.0406,-3.76722,-5.32284,-1.78762,5.52089,0.727616,1.37871,-0.734529,1.04285,-0.576227,-3.81958,0.482284,-1.45957,-15.2126,0.466249,-5.10017,8.31306,1.11868,4.62339,4.9123,0.701264,2.36773,-7.33018e-15,-1.19271e-15,-15.3383,-15.0915,-25.6809,64.5472,-5.83407,-45.1144,4.02917,7.12502,-17.8937,-25.1676,-7.33018e-15,-1.19271e-15,-21.1662,31.4923,23.8762,62.4467,28.31,-29.0118,19.7845,7.12502,-2.36312,49.7511,-5.31931,27.1964,16.1102,31.203,-8.47211,3.96944,-18.9147,-3.56757,-11.2694,-10.4468,38.0837,-2.18591,4.55928,-11.0291
0.567177,19.8914,-3.04855,-3.80669,-5.34107,-1.68091,5.85972,0.795856,1.2556,-0.668466,1.12694,-0.62753,-3.94049,0.525321,-1.45621,-15.2805,0.453534,-5.10952,8.14457,1.09778,4.73074,4.87128,0.699531,2.40017,1.61513e-14,-1.43125e-14,-17.3207,-14.9643,-26.7169,64.1529,-5.62154,-45.0104,3.81739,7.12502,-17.7936,-25.3885,1.61513e-14,-1.43125e-14,-22.853,32.3058,24.1855,61.4503,28.5893,-29.5099,20.0008,7.12502,-2.84418,49.9616,-5.56168,26.056,16.3943,31.8212,-8.81182,3.81725,-18.2395,-3.98763,-10.4115,-10.8538,38.6389,-2.49999,3.55286,-11.8216
0.562859,19.855,-3.06156,-3.81493,-5.45354,-1.65707,6.20448,0.886066,1.1938,-0.562774,1.24567,-0.634387,-4.02233,0.585279,-1.44499,-15.4422,0.419954,-5.11438,7.96966,1.05698,4.80124,4.84473,0.686558,2.41948,3.97569e-15,-1.47101e-14,-19.0942,-15.0388,-27.849,63.6523,-5.48205,-44.8056,3.77758,7.12502,-17.5966,-25.4461,3.97569e-15,-1.47101e-14,-24.4698,33.1913,24.576,60.4952,28.8573,-30.0263,20.2226,7.12502,-3.34284,50.1761,-5.85557,25.1856,16.7943,32.4806,-9.06384,3.30037,-17.4372,-4.45207,-9.37546,-11.1391,39.2381,-2.88753,2.28485,-12.9666
0.558437,19.8041,-3.07772,-3.71837,-5.51364,-1.47859,6.41417,0.93314,0.9467,-0.491283,1.28988,-0.66454,-4.06948,0.612155,-1.34505,-15.4386,0.440811,-5.00153,7.67302,1.08281,4.67518,4.7517,0.69509,2.36041,-1.75552e-14,1.59028e-15,-20.6806,-15.1505,-29.0526,63.0886,-5.43076,-44.3456,4.18333,7.12502,-17.1539,-25.0795,-1.75552e-14,1.59028e-15,-26.1405,34.2067,24.9144,59.5404,28.7898,-30.2484,20.4028,7.12502,-3.55731,50.3529,-6.28717,24.3598,16.9761,33.1643,-9.25005,2.70953,-16.875,-5.08586,-8.39153,-11.598,39.8931,-3.36412,0.904554,-13.2241
0.553178,19.7399,-3.09231,-3.60823,-5.55609,-1.38616,6.5038,0.970719,0.828256,-0.374392,1.32882,-0.722779,-3.99882,0.634477,-1.34281,-15.3689,0.469495,-4.82283,7.31848,1.09766,4.60423,4.63093,0.703442,2.30606,6.70898e-16,-6.75868e-15,-22.2979,-15.2694,-30.3619,62.6757,-5.68453,-44.4176,4.40857,7.12502,-17.2232,-24.8482,6.70898e-16,-6.75868e-15,-27.7058,35.0721,25.2596,58.6322,28.8128,-30.4776,20.3785,7.12502,-3.77865,50.3247,-6.72505,23.5544,17.2531,33.8778,-9.32464,2.33438,-16.6017,-5.74316,-7.40284,-11.9735,40.5921,-3.94193,-0.651801,-14.8859
0.550198,19.6632,-3.10771,-3.49461,-5.65851,-1.39299,6.78207,1.0386,0.810743,-0.344094,1.41881,-0.73423,-4.12162,0.678416,-1.35961,-15.3298,0.471687,-4.83899,7.07778,1.09071,4.76224,4.54953,0.710296,2.35487,-1.94809e-14,-3.18055e-15,-23.9702,-15.3132,-31.6939,62.3604,-6.06785,-44.8472,5.19838,7.12502,-17.6366,-24.0217,-1.94809e-14,-3.18055e-15,-29.3769,35.5893,25.6467,57.9132,29.099,-30.7527,20.3813,7.12502,-4.04434,50.3227,-7.16098,22.8739,17.6416,34.6201,-9.20489,2.05413,-16.6176,-6.37464,-6.38085,-12.254,41.2956,-4.42651,-2.1159,-16.0056
0.548616,19.5749,-3.12316,-3.31944,-5.72339,-1.27618,6.86398,1.09923,0.710073,-0.225013,1.48948,-0.789179,-4.04319,0.716125,-1.36715,-15.3175,0.46867,-4.93021,6.67526,1.09745,4.92348,4.42127,0.722341,2.41647,-1.21134e-14,0,-25.4387,-15.3607,-33.0799,61.9946,-6.60261,-44.9157,5.46188,7.12502,-17.7026,-23.7523,-1.21134e-14,0,-30.9136,36.1353,26.1599,57.2741,29.3948,-31.003,20.5067,7.12502,-4.28601,50.4433,-7.66272,22.2795,17.8508,35.3602,-8.90505,1.79858,-16.65,-7.07268,-5.44807,-12.7051,41.9763,-4.80192,-3.36372,-15.1742
0.54646,19.4755,-3.13622,-3.12988,-5.7997,-1.1568,6.94652,1.15999,0.645831,-0.151539,1.56186,-0.877218,-4.01062,0.752989,-1.43034,-15.1944,0.486497,-4.94178,6.28253,1.12078,4.99914,4.2786,0.737744,2.43864,-9.30561e-15,-1.59028e-15,-27.0217,-15.2417,-34.4802,61.7312,-7.37172,-44.5925,4.29492,7.12502,-17.3915,-24.947,-9.30561e-15,-1.59028e-15,-32.3448,36.6105,26.7082,56.6144,29.7673,-31.2863,20.5341,7.12502,-4.55956,50.465,-8.19503,21.8472,18.0484,36.0939,-8.40428,1.5935,-16.6025,-7.76269,-4.48248,-13.1632,42.6087,-5.09085,-4.45468,-15.2241
0.545463,19.3633,-3.14662,-2.9714,-5.88153,-1.06403,7.04256,1.20957,0.614322,-0.0786095,1.6234,-0.931098,-3.98651,0.784071,-1.47592,-15.154,0.489049,-5.05306,6.03412,1.1385,5.12573,4.19336,0.751519,2.49466,-5.51317e-15,1.15295e-14,-28.559,-15.3792,-35.9228,61.5806,-7.91559,-44.4858,3.55676,7.12502,-17.2888,-25.6942,-5.51317e-15,1.15295e-14,-33.8461,36.991,27.2794,56.0282,30.1705,-31.3576,20.4821,7.12502,-4.62841,50.4115,-8.67145,21.5236,18.2878,36.8209,-7.5215,1.59549,-15.7191,-8.37556,-3.57921,-13.6256,43.2063,-5.28109,-5.19621,-16.0495
0.543943,19.2419,-3.1599,-2.88813,-5.92709,-0.90982,7.19474,1.24098,0.498993,0.0378282,1.65409,-0.97782,-3.95218,0.801747,-1.4647,-15.0438,0.484583,-5.17457,5.68456,1.15144,5.2248,4.06625,0.760326,2.54159,-1.16693e-14,-3.97569e-16,-29.8216,-16.0298,-37.4534,61.3169,-7.88555,-44.9002,2.63535,7.12502,-17.6877,-26.5802,-1.16693e-14,-3.97569e-16,-35.3438,37.1415,27.9857,55.5927,30.5728,-31.3433,20.4161,7.12502,-4.61459,50.3458,-9.11513,21.2901,18.4806,37.5979,-6.45428,1.72034,-14.7197,-8.91882,-2.83828,-14.1745,43.7727,-5.3332,-5.65488,-16.2031
0.544209,19.1056,-3.17342,-2.78671,-5.9811,-0.79331,7.37317,1.27933,0.511125,0.115047,1.70202,-1.08299,-3.96738,0.824437,-1.58892,-14.824,0.470096,-5.09387,5.32648,1.12065,5.1832,3.92352,0.742563,2.50764,1.68159e-14,3.18055e-15,-31.057,-16.954,-39.003,60.8941,-7.76134,-44.8391,2.30268,7.12502,-17.6288,-26.9181,1.68159e-14,3.18055e-15,-36.698,36.9455,28.8313,55.3073,31.0933,-31.4542,20.6246,7.12502,-4.72168,50.552,-9.62585,21.0921,18.6985,38.5231,-5.94218,2.12486,-12.5695,-9.46474,-2.23305,-14.7021,44.2947,-5.21361,-5.88908,-16.1619
0.544541,18.9561,-3.18616,-2.667,-6.01595,-0.642709,7.5279,1.33468,0.497213,0.188771,1.76994,-1.19659,-3.97252,0.857569,-1.70902,-14.7794,0.407479,-5.06717,5.20929,1.03363,5.18043,3.88527,0.69976,2.49463,5.34234e-16,1.47101e-14,-32.3667,-17.6804,-40.4575,60.5511,-8.10104,-44.3185,3.57309,7.12502,-17.1278,-25.692,5.34234e-16,1.47101e-14,-37.8912,36.567,29.9094,55.1172,31.4974,-31.4557,20.8726,7.12502,-4.72316,50.7999,-10.1096,20.8107,18.8936,39.6856,-7.29964,2.90175,-9.87484,-10.0038,-1.53127,-15.2491,44.7899,-4.96687,-6.12998,-15.9412
0.543697,18.8069,-3.19777,-2.6286,-6.09512,-0.420129,7.67491,1.39382,0.356793,0.342441,1.83396,-1.2668,-3.89553,0.892439,-1.71106,-14.9169,0.371298,-5.15094,5.18781,1.00738,5.18705,3.90136,0.687056,2.50942,-1.54307e-14,3.18055e-15,-33.5819,-18.0168,-41.9654,60.5062,-8.63718,-44.1682,3.71861,7.12502,-16.9831,-25.5589,-1.54307e-14,3.18055e-15,-38.8968,36.6872,31.0377,54.6623,31.5087,-31.3801,20.8425,7.12502,-4.65015,50.7715,-10.4898,20.5387,19.0182,41.0366,-10.4013,3.13096,-0.717973,-10.4583,-0.776235,-15.8803,45.3985,-5.03312,-6.4193,-15.018
0.544574,18.6528,-3.20848,-2.5967,-6.16716,-0.130775,7.83351,1.43514,0.140266,0.466888,1.86693,-1.33805,-3.85877,0.912591,-1.66918,-14.8383,0.372102,-5.28752,4.96227,1.03296,5.23434,3.81735,0.698947,2.54527,2.62893e-14,-1.63003e-14,-34.7358,-18.2479,-43.5644,60.6181,-9.06381,-44.1387,2.90195,7.12502,-16.9548,-26.378,2.62893e-14,-1.63003e-14,-40.125,36.2465,32.3617,54.7076,32.001,-31.5437,20.8962,7.12502,-4.8081,50.8217,-10.909,20.3362,18.9961,42.4792,-13.4833,1.48489,-6.36524,-10.8699,-0.0315244,-16.6091,46.2591,-8.02476,-6.47583,-11.1961
0.54535,18.4846,-3.22547,-2.45241,-6.1041,0.0534416,7.96909,1.44472,-0.00661523,0.530114,1.86486,-1.36579,-3.87291,0.913836,-1.61815,-14.5565,0.364368,-5.43037,4.60382,1.04132,5.29153,3.66144,0.700729,2.58085,-7.57867e-16,3.57812e-15,-35.8813,-18.4584,-45.1352,60.727,-9.51496,-43.9078,2.64129,7.12502,-16.7325,-26.6576,-7.57867e-16,3.57812e-15,-41.349,35.2893,33.9487,54.9258,32.7295,-31.7088,20.9334,7.12502,-4.96755,50.8552,-11.479,20.1427,18.986,43.8853,-15.8086,-1.65219,-11.3618,-11.3856,0.721204,-17.1756,47.4419,-11.45,-5.87213,-11.7178
0.547317,18.3209,-3.24327,-2.37349,-6.06934,0.14199,8.11882,1.4603,-0.0412449,0.699303,1.88308,-1.35438,-3.78209,0.924457,-1.59005,-14.4611,0.347712,-5.54881,4.32721,1.04601,5.26678,3.56083,0.698948,2.58931,1.2424e-14,-5.56597e-15,-36.7959,-18.6654,-46.8,60.8128,-10.0642,-43.967,2.56956,7.12502,-16.7895,-26.7245,1.2424e-14,-5.56597e-15,-42.2765,34.8848,35.6051,54.9283,33.0575,-31.5828,20.8751,7.12502,-4.84586,50.7997,-12.0026,20.0364,19.0561,45.1916,-18.5042,-0.693094,-9.14196,-11.8795,1.3356,-17.6,48.8877,-13.9478,-2.28771,-17.2265
0.554365,18.1612,-3.25345,-2.49171,-6.33077,0.21273,8.41929,1.55558,0.00883102,0.916295,2.01376,-1.34901,-3.71982,0.989354,-1.63237,-14.3299,0.325618,-5.61325,4.04628,1.03693,5.1714,3.45465,0.687443,2.56594,2.48481e-15,5.96354e-15,-37.6181,-18.7748,-48.5688,60.9272,-10.6675,-44.1069,3.04188,7.12502,-16.9241,-26.2407,2.48481e-15,5.96354e-15,-43.1259,34.5015,37.3645,54.9511,33.4215,-31.363,20.6903,7.12502,-4.63368,50.6196,-12.4059,20.2537,19.1466,46.4331,-20.9596,0.630719,-4.64487,-12.1434,1.86512,-18.0126,50.3975,-16.469,-1.65329,-19.1153
0.561296,17.9904,-3.2713,-2.63937,-6.53106,0.344959,8.91595,1.62873,-0.0463438,1.08141,2.10228,-1.35421,-3.82482,1.03342,-1.63041,-14.1236,0.315925,-5.44031,3.60548,1.01757,4.86274,3.29044,0.663866,2.43594,-2.68359e-14,3.97569e-15,-38.3975,-18.824,-50.4078,61.0676,-11.2573,-44.0786,3.32956,7.12502,-16.8968,-25.9554,-2.68359e-14,3.97569e-15,-43.9639,34.0901,39.2083,55.048,33.578,-30.8993,20.6956,7.12502,-4.18588,50.6343,-12.9243,20.4879,19.096,47.7314,-23.2074,-0.448384,-4.89077,-12.4539,2.23688,-18.452,51.8017,-18.8301,-1.9349,-15.9651
0.562799,17.8188,-3.30653,-2.82856,-6.44892,0.496791,9.71577,1.59009,-0.245557,1.24018,2.02487,-1.31789,-4.11553,0.996218,-1.49526,-13.9104,0.351774,-5.4825,2.76825,1.09664,4.55387,3.363,0.674476,2.60951,2.02263e-14,-9.14409e-15,-38.8939,-18.8157,-52.3572,61.1056,-11.7371,-44.0553,3.0029,7.12502,-16.8744,-26.284,2.02263e-14,-9.14409e-15,-44.7205,33.9031,41.0834,55.0615,33.5501,-30.4078,20.8723,7.12502,-3.71129,50.8197,-13.516,20.4857,19.0159,49.1799,-25.1822,-1.38299,-6.01119,-12.8651,2.40209,-18.8089,53.0165,-20.9959,-0.422758,-16.2393
0.559767,17.6546,-3.34947,-3.02097,-6.26406,0.579612,10.5608,1.50507,-0.470959,1.41786,1.88155,-1.2344,-4.41357,0.927498,-1.28628,-13.7112,0.449626,-5.615,2.23671,1.24927,4.57345,3.13004,0.751216,2.63642,2.65874e-14,-8.74653e-15,-39.172,-18.8345,-54.3512,61.0179,-12.1757,-43.8574,2.93018,7.12502,-16.684,-26.3728,2.65874e-14,-8.74653e-15,-45.3151,33.7112,43.0853,54.9227,33.7124,-30.481,21.0962,7.12502,-3.782,51.0424,-14.2321,20.4794,19.0308,50.8049,-26.8416,-1.56151,-5.6106,-13.3254,2.323,-18.9904,54.0507,-22.6796,0.434546,-15.7679
0.559075,17.4986,-3.38918,-3.37656,-6.17534,0.904851,11.4799,1.48398,-0.952694,1.61914,1.78391,-1.20666,-4.7306,0.885654,-0.996379,-13.6186,0.534057,-5.6258,1.90006,1.37105,4.48302,2.98773,0.809356,2.60618,-3.08613e-14,2.14687e-14,-39.3412,-18.7668,-56.3428,60.751,-12.7246,-43.0617,3.21559,7.12502,-15.9178,-26.1503,-3.08613e-14,2.14687e-14,-45.8119,33.5301,45.1215,54.6173,33.9471,-30.3558,21.3783,7.12502,-3.66102,51.3266,-14.8887,20.5376,18.7867,52.5956,-28.365,-1.07788,-4.0762,-13.546,2.02798,-19.4147,54.9661,-24.2871,0.222331,-13.1274
0.563226,17.3549,-3.41252,-4.03537,-6.38219,1.59729,12.5193,1.58157,-1.75547,1.85019,1.78232,-1.28541,-5.08563,0.896554,-0.653514,-13.4669,0.623071,-5.55512,1.5716,1.48575,4.32098,2.83805,0.861546,2.53445,-1.81391e-14,-1.33186e-14,-39.4735,-18.4759,-58.3852,60.3014,-13.2132,-42.1114,3.09445,7.12502,-15.0025,-26.3421,-1.81391e-14,-1.33186e-14,-46.2716,33.4963,47.0154,53.9853,33.9114,-29.6116,21.5063,7.12502,-2.94232,51.4657,-15.2436,20.7546,18.2112,54.4844,-29.8284,-1.215,-4.88608,-13.2895,1.9324,-20.2424,55.838,-25.9065,-0.26707,-11.9136
0.563974,17.2242,-3.43488,-4.70678,-6.38375,2.50691,13.2329,1.62782,-2.66107,2.26535,1.688,-1.52459,-5.06049,0.860726,-0.391135,-13.2493,0.697566,-5.48199,0.90597,1.57459,4.32841,2.56351,0.909681,2.5108,1.10574e-14,-4.37326e-15,-39.2143,-18.4022,-60.6428,59.5296,-13.4334,-41.5798,3.08999,7.12502,-14.4903,-26.384,1.10574e-14,-4.37326e-15,-46.1717,33.5802,49.0406,53.0456,33.7414,-28.7765,21.4599,7.12502,-2.13588,51.4289,-15.6145,20.7543,17.4011,56.4246,-31.0555,-1.7352,-6.92375,-13.0604,1.8048,-21.2628,56.7498,-27.171,-0.178527,-12.4544
0.557448,17.1053,-3.47242,-5.23406,-6.03201,3.46317,14.0822,1.6026,-3.72395,2.48914,1.45167,-1.76139,-5.30706,0.759665,-0.0187448,-12.854,0.768603,-5.33102,0.358193,1.63884,4.29451,2.30023,0.941578,2.45599,1.97791e-14,5.36719e-15,-39.0232,-18.2742,-62.8047,58.6103,-13.7159,-41.0888,3.42782,7.12502,-14.0172,-26.0796,1.97791e-14,5.36719e-15,-46.1093,33.3293,51.0856,52.0231,33.7655,-28.7288,21.6619,7.12502,-2.08979,51.6315,-16.2232,20.4287,16.4751,58.3414,-31.992,-1.73388,-7.29894,-13.2116,1.40808,-22.2842,57.7253,-27.9974,0.0609515,-12.7406
0.550499,17.0019,-3.51209,-5.59052,-5.88924,4.35093,14.804,1.63869,-4.76177,2.60344,1.28815,-1.9443,-5.59446,0.69743,0.38681,-12.5175,0.847718,-5.16905,0.0335126,1.71628,4.1505,2.12471,0.975023,2.36846,-1.26974e-14,-2.127e-14,-38.8825,-17.9205,-64.9013,57.6973,-14.0752,-40.5277,3.52201,7.12502,-13.4764,-26.022,-1.26974e-14,-2.127e-14,-46.135,33.0203,53.1287,51.0075,33.9214,-29.2168,22.7811,7.12502,-2.56106,52.7454,-17.0611,20.1643,15.547,60.098,-32.6747,-1.59696,-6.85078,-13.6309,1.21748,-23.1866,58.7178,-28.507,-0.355634,-12.5619
0.548418,16.9161,-3.54216,-5.7769,-5.92289,4.84585,15.1781,1.66558,-5.37734,2.71538,1.19906,-2.00738,-5.68652,0.663597,0.676855,-12.1874,0.894609,-5.0618,-0.195282,1.75888,3.97072,1.98566,0.989365,2.27961,-1.23992e-14,1.74931e-14,-38.6867,-17.3825,-66.9573,56.7384,-14.3149,-40.315,3.03371,7.12502,-13.2714,-26.5238,-1.23992e-14,1.74931e-14,-46.0325,32.8025,55.1822,49.8376,33.9927,-28.864,23.6955,7.12502,-2.22034,53.6637,-17.8721,19.8783,15.0104,61.5411,-33.1282,-1.93191,-7.7599,-14.135,1.31532,-23.642,59.6952,-28.791,-1.06355,-11.878
0.547444,16.8552,-3.55648,-5.78102,-5.80913,4.70394,15.18,1.57198,-5.33479,2.85661,1.09604,-1.89179,-5.53299,0.60839,0.798604,-11.8617,0.937965,-4.90654,-0.394737,1.79133,3.74679,1.85883,0.997612,2.16792,6.31141e-15,4.96962e-15,-38.4681,-16.8266,-68.8572,55.6525,-14.509,-40.0044,2.7741,7.12502,-12.972,-26.8026,6.31141e-15,4.96962e-15,-45.7369,32.5925,57.2732,48.4851,33.7938,-27.4265,23.5979,7.12502,-0.832035,53.576,-18.402,19.4293,15.2264,62.5496,-33.4556,-2.43157,-8.4288,-14.6509,1.50694,-23.385,60.6112,-28.9706,-1.28409,-12.1217
0.546807,16.8233,-3.55621,-5.65183,-5.64391,4.18679,14.9416,1.42213,-4.88245,2.97661,1.00517,-1.68548,-5.26684,0.551987,0.787141,-11.633,0.965548,-4.76389,-0.471946,1.80519,3.58277,1.79173,0.998634,2.08224,-1.68222e-14,2.44505e-14,-38.3093,-16.1432,-70.6514,54.5769,-14.7818,-39.4193,2.9626,7.12502,-12.408,-26.6491,-1.68222e-14,2.44505e-14,-45.3288,32.1443,59.4231,47.0601,33.3945,-25.6155,23.614,7.12502,0.91711,53.5917,-18.6856,18.9978,15.879,63.1034,-33.6571,-2.71536,-7.60103,-15.1422,1.74362,-22.7154,61.4105,-29.0013,-0.995515,-14.3686
0.549146,16.8099,-3.55714,-5.4921,-5.56636,3.62244,14.7556,1.29647,-4.32987,3.02861,0.951775,-1.47658,-5.10298,0.516025,0.711113,-11.5726,0.93663,-4.70967,-0.213088,1.75581,3.49489,1.86928,0.969441,2.044,-1.88845e-15,-2.78299e-15,-38.166,-15.3125,-72.3706,53.5041,-15.002,-39.2035,3.5032,7.12502,-12.1998,-26.121,-1.88845e-15,-2.78299e-15,-44.7684,31.4599,61.6879,45.7505,33.2305,-24.6635,24.835,7.12502,1.83652,54.8068,-18.8588,18.6347,16.5519,63.3137,-33.6986,-3.14794,-7.61684,-15.5801,2.12015,-22.0083,62.0151,-28.98,-1.01746,-15.7113
0.551586,16.8056,-3.56059,-5.30856,-5.64155,2.97491,14.5123,1.22521,-3.67665,3.09156,0.984538,-1.27485,-4.89879,0.521154,0.55464,-11.657,0.901852,-4.71399,0.182548,1.70592,3.55133,2.01873,0.944415,2.06937,-2.43511e-15,-3.18055e-15,-37.9254,-14.6215,-74.004,52.4346,-15.0359,-38.8085,3.60746,7.12502,-11.819,-26.039,-2.43511e-15,-3.18055e-15,-43.9739,30.7546,63.9058,44.548,33.0878,-24.8706,26.393,7.12502,1.63657,56.3665,-18.9684,18.4208,17.3018,63.2637,-33.5895,-3.65164,-8.70621,-15.9437,2.72944,-21.1834,62.3754,-29.0302,-1.90885,-13.3169
0.554661,16.8184,-3.55589,-5.27315,-5.70441,2.7582,14.2709,1.21072,-3.4736,3.1666,1.01499,-1.18283,-4.68747,0.53084,0.536584,-11.749,0.910826,-4.79449,0.643917,1.71936,3.71427,2.18935,0.953823,2.14899,3.49613e-14,-4.37326e-15,-37.7392,-14.0255,-75.4648,51.4668,-14.7453,-38.3369,3.11396,7.12502,-11.3642,-26.5581,3.49613e-14,-4.37326e-15,-43.2911,30.2062,65.8034,43.3054,32.141,-24.0316,26.1772,7.12502,2.44683,56.1429,-18.841,18.3006,17.5686,63.0327,-33.4837,-3.78472,-9.04505,-15.9329,3.3614,-20.8713,62.3323,-28.9774,-2.45845,-11.5742
0.558103,16.8555,-3.5477,-5.3897,-5.73096,3.03112,14.2272,1.25268,-3.76075,3.15798,1.02732,-1.23242,-4.67678,0.539852,0.644612,-11.803,0.863164,-4.7523,1.28954,1.64003,3.75537,2.42096,0.912453,2.16356,-1.89094e-14,1.90833e-14,-37.795,-13.6682,-76.6553,50.576,-13.8822,-37.8149,2.91997,7.12502,-10.8607,-26.7792,-1.89094e-14,1.90833e-14,-42.7466,29.5769,67.5068,42.1807,30.9089,-22.5281,24.9068,7.12502,3.89882,54.8509,-18.4899,18.2644,17.2903,62.6129,-33.3165,-3.76328,-8.76144,-15.5653,3.8636,-21.1332,61.8817,-28.6273,-2.55241,-9.22906
0.559948,16.9077,-3.54242,-5.59067,-5.82975,3.52252,14.3291,1.34633,-4.30706,3.09153,1.05671,-1.3316,-4.81071,0.562768,0.839783,-11.7139,0.809547,-4.77078,1.90986,1.54998,3.89485,2.61949,0.868146,2.21878,-9.56651e-15,3.18055e-15,-38.0394,-13.3656,-77.6171,49.8833,-12.7918,-37.1903,3.04851,7.12502,-10.2583,-26.6813,-9.56651e-15,3.18055e-15,-42.3339,28.9116,69.1098,41.4019,29.8733,-22.1004,24.1543,7.12502,4.31182,54.0904,-18.0503,18.4063,16.7742,62.053,-32.9513,-3.68589,-8.4237,-14.9684,4.31991,-21.6192,61.0719,-27.9456,-2.69274,-4.76316
0.559817,16.9689,-3.53523,-5.89745,-6.01513,3.7675,14.467,1.43209,-4.57377,3.07725,1.11717,-1.39532,-4.90715,0.59695,0.908773,-11.4754,0.808592,-4.85376,2.3273,1.52676,4.18823,2.71861,0.862423,2.33543,-2.02512e-14,1.41137e-14,-38.3319,-13.011,-78.5712,49.4656,-12.1581,-36.6919,3.24166,7.12502,-9.7774,-26.5114,-2.02512e-14,1.41137e-14,-42.008,28.2597,70.5468,41.0171,28.9565,-22.2047,23.5277,7.12502,4.21108,53.4658,-17.3947,18.6781,16.6038,61.3217,-32.4374,-3.50797,-8.15672,-14.158,4.8309,-21.7778,60.0725,-27.1853,-2.76556,-2.1021
0.564398,17.0521,-3.52272,-6.06678,-5.96596,4.61896,14.3794,1.4876,-5.38762,3.0031,1.05819,-1.62503,-4.94357,0.578943,1.13579,-11.279,0.80902,-5.02147,2.78722,1.51229,4.5488,2.84025,0.862843,2.49377,-3.60297e-15,1.13307e-14,-38.6143,-12.6721,-79.4135,49.0968,-11.9337,-36.4049,3.54647,7.12502,-9.50049,-26.2194,-3.60297e-15,1.13307e-14,-41.777,27.7114,71.8298,40.8801,28.187,-21.5105,21.8445,7.12502,4.88142,51.7683,-16.8677,18.7491,15.589,60.4994,-31.8538,-2.92075,-7.26116,-13.4635,5.03757,-22.7135,58.9023,-26.4262,-2.52793,-1.67459
