JuanDHNZ/ProyectoFinalCD/preprocessing/sports_trials_csv/13_34.csv
root1,root2,root3,root4,root5,root6,lowerback1,lowerback2,lowerback3,upperback1,upperback2,upperback3,thorax1,thorax2,thorax3,lowerneck1,lowerneck2,lowerneck3,upperneck1,upperneck2,upperneck3,head1,head2,head3,rclavicle1,rclavicle2,rhumerus1,rhumerus2,rhumerus3,rradius1,rwrist1,rhand1,rhand2,rfingers1,rthumb1,rthumb2,lclavicle1,lclavicle2,lhumerus1,lhumerus2,lhumerus3,lradius1,lwrist1,lhand1,lhand2,lfingers1,lthumb1,lthumb2,rfemur1,rfemur2,rfemur3,rtibia1,rfoot1,rfoot2,rtoes1,lfemur1,lfemur2,lfemur3,ltibia1,lfoot1,lfoot2,ltoes1
7.6355,18.7436,8.05289,-163.969,-85.9201,170.196,9.50964,-1.299,-11.0618,1.82321,-3.01507,-1.89063,-2.96158,-1.46052,4.57043,-7.95625,-7.16089,-8.64126,20.0492,-11.7779,12.4412,8.80686,-5.33071,4.36528,1.94809e-14,2.38542e-14,-33.3694,-10.852,-72.4227,45.8285,17.3162,-21.9212,2.57001,7.12502,4.48482,-27.3625,1.94809e-14,2.38542e-14,-24.8525,13.4226,78.8032,19.7012,2.10579,-19.9532,25.8624,7.12502,6.38503,55.7461,-26.9416,26.6463,8.87122,36.2489,-14.844,2.11725,-13.3485,-14.4578,-0.769044,-24.133,25.2355,-29.916,33.285,14.9719
7.62339,18.7442,8.04149,-163.682,-85.9206,169.903,9.61383,-1.39899,-10.9663,1.8189,-3.15337,-1.91026,-3.00878,-1.52707,4.51588,-7.97721,-7.17327,-8.68009,19.9645,-11.7905,12.5071,8.79029,-5.33438,4.39118,3.10104e-14,5.08889e-14,-33.4992,-11.4267,-71.9045,46.1534,16.9993,-21.9533,2.01709,7.12502,4.45384,-27.9161,3.10104e-14,5.08889e-14,-24.6028,13.4617,78.8166,19.4782,1.98693,-19.9383,25.9807,7.12502,6.39937,55.8641,-27.008,26.7464,8.65933,35.8561,-15.1497,0.42166,-13.6661,-14.3733,-0.882488,-24.1026,25.1646,-29.8301,33.381,14.7072
7.60461,18.7472,8.0361,-163.747,-85.949,169.942,9.62784,-1.53269,-10.7917,1.87743,-3.30946,-1.90182,-2.93966,-1.61144,4.44305,-7.97851,-7.17587,-8.71725,19.734,-11.7633,12.5698,8.71554,-5.32103,4.42011,7.15625e-15,1.43125e-14,-33.5416,-11.77,-71.3448,46.509,16.4216,-22.1079,0.741417,7.12502,4.30458,-29.1948,7.15625e-15,1.43125e-14,-24.3093,13.8007,78.8383,19.2674,1.71877,-20.1624,26.0506,7.12502,6.18308,55.9403,-26.9946,26.7925,8.51906,35.4681,-15.391,-1.53973,-13.0334,-14.1774,-0.933065,-24.0747,24.9796,-29.5836,33.543,14.1963
7.59053,18.7533,8.03188,-162.64,-85.8881,168.766,9.80857,-1.57137,-10.7398,1.89767,-3.37802,-1.88304,-3.01016,-1.64294,4.4494,-8.03964,-7.23624,-8.90919,19.6253,-11.8204,12.6855,8.71678,-5.34917,4.48136,5.725e-14,2.06736e-14,-33.6302,-12.1717,-70.6104,46.7394,16.2798,-22.366,-0.0806058,7.12502,4.05531,-30.0218,5.725e-14,2.06736e-14,-24.081,14.1841,78.9644,19.1324,1.24755,-19.9738,26.0166,7.12502,6.36513,55.901,-26.9652,26.6495,8.32532,35.1132,-15.4722,-3.48234,-11.67,-13.9446,-0.742859,-24.1776,24.7689,-29.3066,33.5894,13.6798
7.57795,18.7618,8.02636,-162.167,-85.7582,168.253,9.96811,-1.57363,-10.6202,1.88923,-3.39437,-1.93468,-3.11595,-1.64689,4.33908,-7.95854,-7.29832,-8.79432,19.4026,-11.8904,12.6604,8.62649,-5.38222,4.44512,1.03368e-14,3.33958e-14,-33.7739,-12.8789,-69.9606,46.8085,16.5089,-22.7737,-0.118086,7.12502,3.6616,-30.0664,1.03368e-14,3.33958e-14,-23.7698,14.0148,79.1089,18.8708,1.13022,-20.02,26.0515,7.12502,6.32049,55.9372,-26.9931,26.3907,8.18969,34.7743,-15.5045,-5.20549,-10.2478,-13.7272,-0.533356,-24.2452,24.5111,-29.361,33.5372,13.865
7.56208,18.7684,8.01775,-161.37,-85.5789,167.504,9.93376,-1.58644,-10.5878,1.88934,-3.40553,-1.96676,-3.09911,-1.65401,4.28696,-7.87199,-7.33985,-8.72657,19.1679,-11.9108,12.5974,8.52566,-5.39792,4.41062,8.34896e-15,-3.97569e-14,-33.836,-13.5719,-69.2787,46.906,16.5314,-23.0546,-0.369128,7.12502,3.39037,-30.3219,8.34896e-15,-3.97569e-14,-23.4613,13.7434,79.3068,18.6918,1.15634,-19.8723,26.0611,7.12502,6.46312,55.9425,-27.1415,26.0844,8.02149,34.4603,-15.5541,-6.90149,-8.81319,-13.5928,-0.105101,-24.3482,24.2046,-29.0407,33.5257,13.576
7.54399,18.7756,8.00546,-161.384,-85.3948,167.491,10.0251,-1.59217,-10.6441,1.87063,-3.42801,-1.89135,-3.15802,-1.66005,4.40477,-7.92163,-7.38829,-8.85185,19.1565,-11.9521,12.5954,8.54385,-5.42296,4.42351,2.78299e-15,-1.90833e-14,-33.8528,-14.2043,-68.4281,46.9629,16.3461,-23.7632,-1.25305,7.12502,2.70604,-31.2156,2.78299e-15,-1.90833e-14,-23.3184,13.7029,79.5331,18.6624,1.31608,-19.8876,26.01,7.12502,6.44828,55.8918,-27.1864,25.741,7.9946,34.1258,-15.4987,-8.78739,-6.83556,-13.3495,0.244778,-24.3806,23.9067,-28.6555,33.5851,13.0157
7.52527,18.7833,7.99535,-162.531,-85.213,168.554,10.1823,-1.60261,-10.5416,1.87024,-3.44875,-1.84036,-3.24548,-1.6661,4.41191,-8.07524,-7.4309,-8.88799,19.2591,-12.0149,12.6037,8.61765,-5.44628,4.41957,2.14687e-14,-1.27222e-14,-33.8503,-14.7745,-67.6409,47.1184,15.7892,-24.5914,-2.63087,7.12502,1.9062,-32.6021,2.14687e-14,-1.27222e-14,-23.1341,14.4748,79.505,18.4937,0.644442,-19.9595,25.9214,7.12502,6.37896,55.8054,-27.1687,25.3097,8.15261,33.7948,-15.2863,-10.664,-5.68353,-13.0159,0.337949,-24.3018,23.5889,-28.5292,33.7281,12.916
7.5053,18.7915,7.99031,-164.085,-85.0258,170.1,10.1887,-1.65735,-10.2969,1.88776,-3.48815,-1.75931,-3.23384,-1.68773,4.36581,-8.12715,-7.42645,-8.96444,19.1906,-11.9633,12.5427,8.59863,-5.42898,4.41557,2.18663e-14,1.59028e-15,-33.7611,-15.2525,-66.8652,47.2626,15.303,-25.1684,-3.43742,7.12502,1.34889,-33.4129,2.18663e-14,1.59028e-15,-22.8393,15.4497,79.4922,18.169,-0.271356,-19.982,25.7974,7.12502,6.35718,55.682,-27.2321,24.7893,8.35299,33.4395,-14.9598,-12.2582,-4.58208,-12.7738,0.581368,-24.2104,23.2879,-28.1758,33.9106,12.2445
7.48292,18.801,7.98383,-164.016,-84.7667,170.013,10.1789,-1.66891,-10.3158,1.91216,-3.49672,-1.65965,-3.19339,-1.69391,4.48062,-8.17134,-7.41685,-9.07886,19.0835,-11.9019,12.5223,8.56908,-5.40691,4.43304,4.37326e-15,-5.88403e-14,-33.6569,-15.6051,-66.0862,47.328,15.1056,-25.6494,-3.1304,7.12502,0.884399,-33.1083,4.37326e-15,-5.88403e-14,-22.6136,15.4388,79.8019,18.1498,-0.134531,-19.9086,25.9049,7.12502,6.42804,55.7873,-27.2829,24.1761,8.42475,33.0947,-14.8595,-13.7155,-1.66196,-12.5065,0.733874,-24.2673,22.9963,-28.1977,33.9209,12.2035
7.46089,18.8084,7.97159,-164.966,-84.4742,170.968,10.1765,-1.65768,-10.2511,1.908,-3.47023,-1.58935,-3.19965,-1.68007,4.51585,-8.19765,-7.42328,-9.02398,19.0001,-11.8769,12.4126,8.53232,-5.39883,4.38801,4.85035e-14,4.77083e-15,-33.5508,-16.0668,-65.4028,47.3333,14.9842,-26.2146,-2.88826,7.12502,0.338444,-32.8677,4.85035e-14,4.77083e-15,-22.4659,14.8967,80.1501,18.284,0.653531,-20.1578,26.1999,7.12502,6.18743,56.0896,-27.3427,23.5921,8.63437,32.748,-14.7402,-15.1285,0.993343,-12.2651,0.76484,-24.2051,22.708,-28.3725,34.0379,12.4548
7.43948,18.8115,7.96248,-165.504,-84.226,171.52,10.1822,-1.66259,-10.0894,1.87848,-3.45923,-1.56155,-3.24356,-1.672,4.45553,-8.26432,-7.46747,-8.91307,19.0779,-11.9247,12.24,8.55848,-5.42343,4.3027,-2.62396e-14,-6.83819e-14,-33.5054,-16.6765,-64.6877,47.3485,14.8656,-26.9968,-2.72642,7.12502,-0.417017,-32.7058,-2.62396e-14,-6.83819e-14,-22.3014,14.5429,80.3909,18.3064,0.927318,-20.2638,26.235,7.12502,6.08514,56.1276,-27.3959,22.819,8.90146,32.4235,-14.2792,-16.3349,1.63259,-12.0151,0.749728,-24.1896,22.3752,-28.3069,34.3786,12.0998
7.41504,18.8158,7.95252,-166.073,-83.9054,172.071,10.1421,-1.62918,-9.90433,1.89943,-3.38905,-1.56487,-3.22072,-1.64097,4.33922,-8.43647,-7.54301,-8.8955,19.2113,-12.0409,12.2274,8.64769,-5.46886,4.2751,-2.0276e-14,-2.70347e-14,-33.505,-17.4898,-63.9459,47.3767,14.7856,-28.5791,-2.15464,7.12502,-1.94521,-32.1255,-2.0276e-14,-2.70347e-14,-22.0178,14.7923,80.4887,18.1572,0.631025,-20.5259,25.8945,7.12502,5.83209,55.7942,-27.4341,22.0475,9.19846,32.0913,-13.7889,-17.3579,1.66397,-11.693,0.785378,-24.1782,22.0225,-28.4096,34.557,12.2926
7.38973,18.8219,7.9419,-165.211,-83.5588,171.21,10.0822,-1.61964,-9.90129,1.9179,-3.36921,-1.57895,-3.17194,-1.63478,4.31708,-8.5953,-7.55085,-8.97321,19.2303,-12.0297,12.2366,8.68793,-5.45982,4.28696,-2.3059e-14,-3.33958e-14,-33.4395,-18.2654,-63.1615,47.4034,14.7462,-30.2568,-1.21063,7.12502,-3.56544,-31.1606,-2.3059e-14,-3.33958e-14,-21.8107,14.9375,80.638,18.1715,0.59909,-20.5516,25.8459,7.12502,5.8073,55.7464,-27.5117,21.2925,9.25054,31.7166,-13.5248,-18.246,2.78042,-11.4231,0.968961,-24.333,21.6961,-28.4008,34.6633,11.9456
7.36546,18.8253,7.93051,-163.873,-83.2269,169.826,10.1566,-1.61125,-10.0039,1.89219,-3.38074,-1.57649,-3.23262,-1.63594,4.38229,-8.62242,-7.51662,-9.05904,19.1463,-11.955,12.2573,8.6623,-5.42798,4.31641,-1.13307e-14,1.43125e-14,-33.3355,-18.8762,-62.3829,47.4617,14.5659,-31.6659,0.235605,7.12502,-4.92615,-29.6871,-1.13307e-14,1.43125e-14,-21.7559,15.007,80.7979,18.3511,0.408675,-19.9862,25.9762,7.12502,6.35311,55.861,-27.5061,20.5706,9.23756,31.2708,-12.9339,-19.1501,3.89173,-11.1376,0.95097,-24.5551,21.4406,-28.7582,34.7705,11.316
7.33562,18.8291,7.91799,-165.094,-82.9345,171.134,10.0271,-1.61523,-9.79582,1.85639,-3.34208,-1.48414,-3.21022,-1.61659,4.35424,-8.46475,-7.51797,-8.99364,18.9108,-11.9322,12.2087,8.54364,-5.42616,4.29581,2.00773e-14,1.11319e-14,-33.2381,-19.5027,-61.6163,47.5499,14.4373,-32.7283,1.37417,7.12502,-5.95193,-28.5222,2.00773e-14,1.11319e-14,-21.7338,14.2901,81.1321,18.7173,0.973558,-19.8819,26.4048,7.12502,6.45386,56.2865,-27.562,19.7102,9.65559,30.7891,-12.1117,-20.0043,3.37118,-10.9693,0.966915,-24.4276,21.203,-29.0016,34.9773,11.0864
7.30436,18.8355,7.90421,-167.659,-82.5931,173.825,9.85851,-1.61643,-9.33298,1.8118,-3.26882,-1.3997,-3.19501,-1.5813,4.17103,-8.3992,-7.54156,-8.86355,18.7824,-11.9464,12.0964,8.47463,-5.43737,4.23575,-2.0276e-14,-2.38542e-15,-33.2173,-20.2708,-60.8766,47.7206,14.173,-34.1419,2.25937,7.12502,-7.31655,-27.5941,-2.0276e-14,-2.38542e-15,-21.6885,13.3029,81.4636,19.0334,2.0909,-20.435,26.7958,7.12502,5.9198,56.6931,-27.6559,19.0344,10.253,30.3324,-11.4512,-20.8338,3.16284,-10.8163,0.897326,-24.1047,20.9443,-29.2782,35.3868,11.3565
7.27187,18.8412,7.89059,-167.909,-82.2466,174.039,9.81473,-1.59574,-9.1442,1.80412,-3.21745,-1.41289,-3.19725,-1.55716,4.04501,-8.4658,-7.57595,-8.90617,18.8953,-11.9966,12.0713,8.53184,-5.462,4.22594,1.98785e-15,2.06736e-14,-33.2467,-21.0275,-60.1211,48.0063,13.9005,-35.3858,2.99246,7.12502,-8.51707,-26.8158,1.98785e-15,2.06736e-14,-21.6298,13.0169,81.6332,19.2416,2.53572,-20.0612,27.0355,7.12502,6.28074,56.9224,-27.5899,18.6505,10.4356,29.9234,-11.5139,-21.5713,4.79447,-10.4762,0.623631,-24.1101,20.6812,-29.864,35.756,11.8551
7.23733,18.8408,7.87491,-165.465,-81.8735,171.448,9.86635,-1.58645,-9.48069,1.79333,-3.24878,-1.40845,-3.21394,-1.56927,4.24267,-8.51606,-7.55589,-9.12873,18.9476,-11.9471,12.1185,8.56979,-5.44675,4.28358,4.17448e-15,-3.89618e-14,-33.1308,-21.7722,-59.2802,48.2505,13.8271,-36.3479,3.21391,7.12502,-9.44547,-26.5544,4.17448e-15,-3.89618e-14,-21.6447,13.1227,81.8308,19.4451,2.46924,-16.8476,25.5547,7.12502,9.38244,55.3259,-27.4215,18.2186,10.2135,29.5262,-11.6072,-22.1836,5.44417,-10.0819,1.05727,-24.5474,20.4613,-29.663,35.6747,11.6392
7.20632,18.832,7.85736,-162.96,-81.4402,168.669,10.0928,-1.57365,-9.91765,1.80867,-3.30703,-1.3845,-3.28906,-1.59224,4.52744,-8.60547,-7.50471,-9.22395,18.9358,-11.818,11.9964,8.56468,-5.39678,4.27114,7.15625e-15,-3.97569e-15,-32.9804,-22.4096,-58.4833,48.644,13.6585,-39.8456,3.71887,7.12502,-12.8189,-25.8675,7.15625e-15,-3.97569e-15,-21.7232,12.873,82.1397,19.7302,2.62696,-9.7779,20.2194,7.12502,16.1975,49.5627,-27.1467,17.7981,10.0147,29.1376,-11.4632,-22.7361,5.43826,-9.5966,1.5752,-25.0496,20.2482,-29.1561,35.7636,10.6084
7.17606,18.8265,7.84089,-164.816,-81.0575,170.457,10.1614,-1.58614,-9.63001,1.77531,-3.29089,-1.21991,-3.3708,-1.57925,4.54324,-8.63496,-7.46176,-9.14424,18.8985,-11.6981,11.7313,8.52115,-5.354,4.18193,1.21259e-14,-1.98785e-14,-32.8156,-23.06,-57.7366,49.1164,13.2933,-41.3404,3.82807,7.12502,-14.2597,-25.6624,1.21259e-14,-1.98785e-14,-21.7937,12.3852,82.3985,20.0141,3.26049,-14.0999,23.602,7.12502,12.0328,53.2361,-26.9933,17.8134,10.4456,28.6178,-11.2922,-23.4538,5.35741,-9.37678,1.53107,-24.815,20.2603,-29.5871,36.1105,10.491
7.14133,18.8234,7.82423,-166.557,-80.7339,172.278,10.0391,-1.60587,-9.19552,1.70582,-3.24909,-1.10287,-3.3993,-1.55632,4.41577,-8.63947,-7.45626,-9.18668,18.9749,-11.6712,11.6251,8.54019,-5.35196,4.15647,8.13029e-14,1.19271e-14,-32.7883,-23.8158,-56.9491,49.6366,13.1541,-41.8812,3.41788,7.12502,-14.7807,-26.0351,8.13029e-14,1.19271e-14,-21.8169,11.8256,82.5846,20.2331,3.77748,-15.4757,24.4156,7.12502,10.7059,54.1229,-27.0207,17.7259,10.8427,28.2093,-11.2965,-24.0103,5.28038,-9.23896,1.52374,-24.5346,20.1616,-30.1493,36.1804,10.7599
7.09556,18.8242,7.79689,-169.893,-80.6432,176.122,9.37963,-1.7191,-8.35676,1.58995,-3.2273,-0.916098,-3.19228,-1.5539,4.1128,-8.65606,-7.46735,-9.11873,18.9918,-11.6852,11.5556,8.54196,-5.35913,4.11927,-2.80286e-14,-1.19271e-14,-32.8362,-24.6051,-56.2231,50.0994,13.2581,-42.1387,3.27395,7.12502,-15.0288,-26.1606,-2.80286e-14,-1.19271e-14,-21.7663,11.7219,82.6183,20.3707,3.67225,-15.5033,24.5601,7.12502,10.6793,54.2687,-27.6113,17.6622,11.5509,28.2735,-11.5304,-24.7733,4.92762,-9.04261,2.06555,-23.8157,19.0863,-29.1972,36.24,9.80225
7.07396,18.8109,7.78146,-163.652,-79.9058,169.346,9.96948,-1.52875,-9.41963,1.59044,-3.17579,-1.20152,-3.48656,-1.51052,4.42873,-8.65796,-7.47929,-9.22543,18.9836,-11.6776,11.5331,8.54378,-5.36416,4.12995,1.98785e-15,1.43125e-14,-32.8345,-25.329,-55.4259,50.6389,12.989,-42.8198,2.96078,7.12502,-15.6848,-26.4235,1.98785e-15,1.43125e-14,-21.7866,11.5439,82.7417,20.5027,3.8151,-16.0452,24.3998,7.12502,10.1565,54.1346,-27.2357,17.6882,10.4644,28.0352,-11.1932,-25.1234,4.42455,-8.3271,2.2016,-25.1608,18.8701,-29.5533,36.4335,9.6971
6.9502,18.7947,7.75417,-145.938,-79.5171,149.428,10.8367,-1.63201,-12.3842,2.28993,-3.80567,-2.06153,-3.00435,-1.87703,5.25533,-8.72074,-7.47565,-9.44629,18.9897,-11.6177,11.4906,8.56128,-5.34997,4.15732,1.5704e-14,2.38542e-15,-32.6951,-25.999,-54.613,51.2182,12.265,-43.886,2.73807,7.12502,-16.7114,-26.5626,1.5704e-14,2.38542e-15,-21.8046,11.6735,82.767,20.6305,2.82736,-15.2141,23.8465,7.12502,10.9582,53.5406,-24.4407,15.4572,7.79151,28.1575,-11.3133,-24.2374,4.87802,-5.42172,3.77629,-28.695,18.268,-27.3797,35.0107,6.97529
6.97846,18.8007,7.72134,-162.414,-79.3169,167.935,9.7597,-1.61445,-9.55521,1.60308,-3.26498,-0.982442,-3.32219,-1.55922,4.73336,-8.83221,-7.44358,-9.72794,18.9818,-11.4925,11.4214,8.57731,-5.30867,4.19237,4.96962e-15,3.89618e-14,-32.4858,-26.4445,-53.8133,51.9976,11.2995,-44.9506,3.10287,7.12502,-17.7361,-26.1083,4.96962e-15,3.89618e-14,-21.8367,10.5845,83.4417,21.1447,4.85356,-17.1755,24.7693,7.12502,9.06598,54.5545,-27.1416,17.8931,10.4661,28.1028,-11.0384,-25.8626,7.63082,-7.24167,2.61448,-25.4104,17.7976,-29.3901,36.4506,9.65991
6.93339,18.7938,7.68674,-158.265,-78.7618,163.834,9.42931,-1.60507,-10.3996,1.57341,-3.31227,-1.12257,-3.12314,-1.58604,5.04478,-8.86001,-7.43399,-9.78261,18.8959,-11.462,11.4537,8.55529,-5.29446,4.21481,1.80894e-14,0,-32.4109,-27.0982,-53.1455,52.7927,10.4048,-45.7923,3.07201,7.12502,-18.546,-26.0639,1.80894e-14,0,-21.7931,10.7005,83.3985,21.1966,4.15232,-16.5096,24.1459,7.12502,9.7085,53.9021,-27.3054,18.1846,9.54669,28.1842,-11.2102,-26.2998,9.49057,-6.99599,3.02479,-26.3347,17.382,-29.1125,36.3869,9.53065
6.8912,18.789,7.66379,-158.55,-78.545,164,9.48008,-1.68826,-10.1829,1.57374,-3.40107,-1.03895,-3.14397,-1.62978,5.02378,-8.85257,-7.37181,-9.87708,18.7596,-11.3296,11.4216,8.49593,-5.2412,4.23598,8.54774e-15,1.59028e-14,-32.1767,-27.5923,-52.5699,53.5097,9.31958,-46.1513,3.71825,7.12502,-18.8912,-25.3844,8.54774e-15,1.59028e-14,-21.8055,11.0397,83.3487,21.2974,3.70633,-15.7923,23.9081,7.12502,10.4005,53.6309,-26.8875,18.3736,9.76157,27.842,-10.5828,-26.5938,9.63843,-7.07234,3.37332,-26.3186,18.1051,-29.2481,36.2584,9.23719
6.85001,18.7826,7.6402,-158.577,-78.2718,163.761,9.70605,-1.81324,-10.1368,1.59974,-3.57652,-0.827752,-3.20277,-1.71321,5.24956,-9.04105,-7.31965,-10.3091,18.8372,-11.1353,11.2808,8.55076,-5.17877,4.27837,-1.51076e-14,1.27222e-14,-31.6444,-27.7498,-51.9937,54.2508,8.39225,-46.6674,4.11523,7.12502,-19.3875,-24.9383,-1.51076e-14,1.27222e-14,-21.8501,11.5646,83.5628,21.5051,3.91286,-16.0315,23.8345,7.12502,10.1697,53.5687,-26.6057,18.5716,9.93648,28.1104,-10.5199,-26.7347,9.68125,-6.40577,3.67374,-26.3967,17.6653,-28.9758,36.3585,9.3187
6.80979,18.7735,7.61537,-157.062,-77.827,161.943,9.97926,-1.82448,-10.361,1.59099,-3.65499,-0.871984,-3.34061,-1.74361,5.35144,-9.29013,-7.33958,-10.3913,19.0393,-11.115,11.1221,8.65786,-5.17621,4.23323,-9.34288e-14,-3.57812e-14,-31.4471,-27.9995,-51.4337,55.0904,7.65882,-47.0807,3.59117,7.12502,-19.7849,-25.4219,-9.34288e-14,-3.57812e-14,-21.8579,12.2062,83.4147,21.4989,3.02938,-15.5286,23.6637,7.12502,10.6549,53.3736,-26.2891,18.8136,9.67456,28.2896,-10.6576,-26.9571,9.87913,-5.86849,3.90574,-26.8847,17.4496,-28.7018,36.6167,8.94806
6.76249,18.7634,7.5838,-155.363,-77.3887,160.046,10.1186,-1.80015,-10.6132,1.50837,-3.68429,-1.02966,-3.49644,-1.74572,5.33906,-9.20277,-7.33538,-10.2312,19.0565,-11.1422,11.0657,8.6376,-5.18856,4.18683,8.24956e-15,1.35174e-14,-31.5263,-28.2155,-50.8778,55.8788,7.03038,-47.383,2.76287,7.12502,-20.0755,-26.22,8.24956e-15,1.35174e-14,-21.962,11.9196,83.3931,21.6683,3.64911,-16.6449,24.2157,7.12502,9.578,53.978,-26.0487,19.193,9.32806,28.4897,-10.7259,-27.2596,9.81321,-5.4292,4.39483,-27.3927,17.2166,-27.8651,36.8951,7.73945
6.71031,18.7576,7.557,-155.25,-77.11,160.06,9.86463,-1.81301,-10.2854,1.37671,-3.64153,-1.09355,-3.52628,-1.72063,5.07503,-9.0449,-7.38466,-10.0923,19.0744,-11.2562,11.0375,8.61788,-5.24392,4.14468,-4.50247e-14,-7.55382e-15,-31.7459,-28.7056,-50.241,56.7287,6.53098,-47.7395,2.24376,7.12502,-20.4181,-26.7027,-4.50247e-14,-7.55382e-15,-22.0673,12.0591,83.0984,21.5482,2.6145,-15.7319,23.1022,7.12502,10.4587,52.822,-26.0736,19.3179,9.38265,28.6478,-10.7889,-27.2524,9.39837,-5.26957,4.54182,-27.4711,16.9937,-27.6377,37.1705,7.40831
6.66042,18.7557,7.53403,-155.043,-76.796,160.154,9.40805,-1.77723,-9.79976,1.21623,-3.50054,-1.24101,-3.50229,-1.65173,4.61585,-8.84731,-7.47471,-9.85667,18.998,-11.4529,11.088,8.5677,-5.32759,4.1038,-1.89839e-14,7.15625e-15,-32.1635,-29.3485,-49.5163,57.6553,5.90345,-48.1068,0.530873,7.12502,-20.771,-28.3774,-1.89839e-14,7.15625e-15,-22.1556,10.9954,83.1881,21.7817,3.56834,-16.2658,23.3562,7.12502,9.94376,53.1014,-26.3459,19.4026,9.29685,28.7445,-10.7172,-27.2174,8.69977,-5.33929,4.4316,-27.5745,16.8141,-28.0601,37.3141,7.87251
6.6059,18.7572,7.50184,-155.531,-76.5543,160.746,9.022,-1.80048,-9.38398,1.20823,-3.44335,-1.27508,-3.32985,-1.63603,4.32362,-8.76086,-7.5104,-9.70182,18.9042,-11.5486,11.1659,8.52682,-5.36185,4.09497,-9.34288e-15,1.07344e-14,-32.2373,-29.8516,-48.9831,58.5617,5.30761,-48.7796,-0.951939,7.12502,-21.4173,-29.7881,-9.34288e-15,1.07344e-14,-22.228,10.1474,83.1637,22.0775,4.57226,-16.8325,23.7008,7.12502,9.39695,53.4714,-26.3343,19.8491,9.37744,28.7757,-10.9917,-27.4489,8.70759,-5.21958,4.53945,-27.4711,16.7347,-28.1477,37.4544,7.6137
6.55114,18.7572,7.46069,-155.765,-76.32,160.903,8.73468,-1.87328,-9.30203,1.32772,-3.48648,-1.17944,-3.0359,-1.67559,4.36372,-8.8966,-7.52575,-9.71615,18.8744,-11.5491,11.1607,8.5426,-5.35726,4.0905,3.85642e-14,-8.74653e-15,-31.9076,-30.1343,-48.6079,59.5392,4.63347,-49.2263,-0.0474969,7.12502,-21.8463,-28.8343,3.85642e-14,-8.74653e-15,-22.1695,10.1964,83.034,22.1375,4.52188,-16.393,23.4279,7.12502,9.82105,53.1789,-26.1028,20.3545,9.43499,28.7653,-11.3458,-27.6355,8.88294,-4.93876,4.84785,-27.413,16.7332,-28.0879,37.5094,7.13176
6.50003,18.7557,7.4206,-156,-76.1221,161.027,8.65181,-1.90284,-9.10917,1.34651,-3.49347,-1.12896,-2.97699,-1.68353,4.30512,-8.86698,-7.5822,-9.66433,18.8638,-11.6157,11.0512,8.53133,-5.39546,4.03702,1.33186e-14,-1.07344e-14,-31.7165,-30.4441,-48.1028,60.4949,4.00667,-49.32,0.534188,7.12502,-21.9363,-28.2421,1.33186e-14,-1.07344e-14,-22.1335,10.1068,82.9764,22.0907,4.61023,-16.3817,23.508,7.12502,9.83193,53.2584,-25.8056,20.684,9.53123,28.699,-11.6483,-27.6227,9.34117,-4.72683,5.18257,-27.3454,16.8858,-28.0332,37.5603,6.33667
6.44826,18.7566,7.38365,-157.55,-76.1904,162.374,8.7467,-1.96263,-8.39935,1.38959,-3.50697,-1.03754,-3.01922,-1.69477,4.01122,-8.82514,-7.65387,-9.61971,18.8662,-11.7333,11.0506,8.53535,-5.45069,4.01558,2.88238e-15,3.57812e-15,-31.4745,-30.775,-47.5882,61.4294,3.41433,-49.2857,-0.0779559,7.12502,-21.9033,-28.8581,2.88238e-15,3.57812e-15,-22.1431,9.89119,82.9765,22.1492,4.91508,-16.9396,24.0849,7.12502,9.29359,53.8601,-25.2297,20.6778,10.1823,28.5918,-11.691,-27.3752,9.1208,-4.40625,5.4142,-26.8468,17.1851,-28.2105,37.3739,5.89106
6.39814,18.7554,7.34305,-159.934,-76.3798,164.56,8.86781,-2.09571,-7.61684,1.44525,-3.6022,-0.775371,-3.04656,-1.74662,3.86319,-8.79226,-7.62026,-9.74393,18.7845,-11.6923,11.1932,8.51377,-5.43077,4.0904,4.57205e-15,-1.43125e-14,-31.1172,-30.6943,-47.147,62.3677,2.5118,-49.6058,-0.145363,7.12502,-22.2107,-28.8892,4.57205e-15,-1.43125e-14,-22.2224,10.0912,82.8976,22.2061,4.72123,-16.5712,23.8822,7.12502,9.6491,53.6412,-24.6007,20.4626,11.1431,28.4934,-11.724,-26.9818,8.8095,-4.08338,5.63239,-26.0725,17.5429,-28.1824,37.2146,5.51924
6.35296,18.7556,7.29664,-161.565,-76.4187,166.08,8.94252,-2.18864,-7.15556,1.46252,-3.67226,-0.50939,-3.07245,-1.78245,3.89374,-8.84677,-7.61894,-9.69515,18.7289,-11.6421,11.013,8.48488,-5.41519,4.0256,-3.68249e-14,3.97569e-15,-30.8049,-30.6514,-46.6082,63.32,1.53586,-49.8094,-0.654787,7.12502,-22.4061,-29.3753,-3.68249e-14,3.97569e-15,-22.2226,10.4195,82.9198,22.2126,4.78366,-16.5689,23.7026,7.12502,9.65133,53.4615,-24.1066,20.3251,11.8245,28.3516,-11.7722,-26.6032,8.56128,-3.96445,5.88659,-25.5092,17.9953,-27.8005,37.3207,4.27596
6.3026,18.7563,7.25177,-162.093,-76.2473,166.443,8.96682,-2.24587,-6.94194,1.47732,-3.72324,-0.392705,-3.0701,-1.80935,3.90207,-8.89431,-7.61208,-9.54354,18.7489,-11.5856,10.7081,8.46526,-5.40051,3.90327,-3.78188e-14,7.95139e-15,-30.4235,-30.8604,-46.1441,64.2396,0.869061,-50.0373,-1.7719,7.12502,-22.6249,-30.4659,-3.78188e-14,7.95139e-15,-22.2752,10.7192,82.8226,22.1817,4.77507,-16.6901,23.7838,7.12502,9.53432,53.5481,-23.6224,20.286,12.1031,28.2008,-11.9817,-26.1428,8.71559,-3.83716,6.20511,-25.3122,18.4984,-27.5507,37.4546,2.84742
6.24912,18.7578,7.20774,-163.139,-76.097,167.519,8.77356,-2.31846,-6.4155,1.45033,-3.74953,-0.327196,-3.01703,-1.82711,3.66922,-8.8646,-7.58313,-9.51781,18.76,-11.5767,10.7819,8.46538,-5.39171,3.9262,-3.05631e-14,1.39149e-15,-30.1106,-31.1925,-45.8074,65.1275,0.378439,-50.2147,-2.76122,7.12502,-22.7952,-31.4343,-3.05631e-14,1.39149e-15,-22.3249,11.1644,82.4994,22.0511,4.28617,-16.21,23.6322,7.12502,9.99753,53.3747,-23.3457,20.2156,12.4863,28.0522,-12.2516,-25.6391,8.71188,-3.88572,6.47527,-24.9348,18.9606,-27.5904,37.4926,2.01405
6.19559,18.7543,7.15573,-164.814,-75.7998,169.192,8.59638,-2.34521,-5.96467,1.44277,-3.72075,-0.155174,-2.94641,-1.81739,3.5839,-8.8344,-7.56366,-9.52003,18.7472,-11.552,10.7736,8.45224,-5.38329,3.92788,-4.73604e-14,-7.15625e-15,-29.5965,-31.4014,-45.5435,65.9624,-0.178544,-50.5347,-2.99479,7.12502,-23.1022,-31.6298,-4.73604e-14,-7.15625e-15,-22.388,11.1734,82.3948,22.0479,4.73681,-16.427,23.8037,7.12502,9.78821,53.5562,-22.9979,20.2984,13.0396,27.849,-12.4247,-25.1269,8.56238,-3.8607,6.90573,-24.3903,19.4983,-28.2189,37.0887,2.58553
6.145,18.7517,7.10044,-165.77,-75.1343,169.971,8.5636,-2.26089,-6.03158,1.48041,-3.60248,0.0767571,-2.88161,-1.76039,3.8479,-8.87518,-7.53322,-9.80105,18.7657,-11.4697,10.8133,8.47613,-5.35783,3.99625,2.06488e-14,2.74323e-14,-28.7776,-31.3793,-45.2518,66.7463,-0.858073,-51.3513,-2.87118,7.12502,-23.8855,-31.4059,2.06488e-14,2.74323e-14,-22.453,11.6221,82.3582,22.0195,4.69688,-16.5647,23.8029,7.12502,9.65531,53.5616,-22.548,20.4597,13.3582,27.6237,-12.1384,-24.531,7.66055,-3.69276,7.5245,-24.1539,20.105,-28.4383,37.0134,1.85063
6.09205,18.7581,7.0648,-166.565,-75.0881,171.088,8.11215,-2.42376,-5.36559,1.35843,-3.72238,0.218098,-2.77727,-1.82326,3.61213,-8.91404,-7.51757,-9.79094,18.8923,-11.4499,10.7306,8.5176,-5.3539,3.96806,2.17918e-14,8.94531e-16,-28.1973,-31.4824,-44.9852,67.6444,-1.36523,-52.1754,-2.94298,7.12502,-24.6756,-31.372,2.17918e-14,8.94531e-16,-22.5795,11.626,82.2648,22.0509,4.95182,-16.6425,23.8637,7.12502,9.58029,53.6258,-22.5961,20.1857,13.6836,27.4519,-12.1104,-24.0854,7.89697,-4.07804,7.51876,-23.7838,20.6443,-28.0293,37.1365,0.524517
6.04102,18.7605,7.01761,-167.253,-74.7961,171.864,7.80759,-2.46245,-4.88378,1.31226,-3.71341,0.228372,-2.68662,-1.82348,3.33708,-8.86549,-7.49941,-9.66133,18.9421,-11.4739,10.7606,8.52186,-5.35878,3.95572,8.56513e-14,-1.93815e-14,-27.7408,-31.7937,-44.8257,68.6146,-1.81917,-51.9341,-3.36728,7.12502,-24.4443,-31.8277,8.56513e-14,-1.93815e-14,-22.6801,11.5556,82.0386,22.0552,5.26714,-16.9746,23.8857,7.12502,9.25981,53.6624,-22.4613,20.0309,14.0297,27.3506,-12.155,-23.556,8.14243,-4.16718,7.75414,-23.4639,21.158,-27.6733,37.0995,-0.463726
5.9892,18.7612,6.9639,-167.321,-74.4487,171.702,7.76941,-2.41591,-4.79664,1.36489,-3.64208,0.231046,-2.62258,-1.7921,3.28104,-8.89679,-7.54492,-9.65425,19.006,-11.5624,10.8089,8.56187,-5.39589,3.95843,-1.82261e-14,4.37326e-15,-27.2383,-32.2988,-44.5262,69.573,-2.27907,-51.1646,-4.63016,7.12502,-23.7065,-33.1882,-1.82261e-14,4.37326e-15,-22.6716,11.518,81.9475,22.0147,5.43354,-17.3292,24.207,7.12502,8.91769,53.9986,-21.9589,19.6582,14.3099,27.257,-11.991,-22.878,7.77744,-3.96644,8.15117,-23.3071,21.7435,-27.3733,36.8628,-1.12763
5.93938,18.7636,6.90033,-167.953,-74.2646,172.434,7.47312,-2.48056,-4.57449,1.2896,-3.68856,0.364679,-2.53658,-1.81619,3.285,-8.97976,-7.4915,-9.61945,19.2433,-11.5046,10.7144,8.64222,-5.3721,3.92591,-3.91979e-14,-7.15625e-15,-26.6898,-32.3803,-44.3236,70.55,-2.84391,-50.5178,-5.80993,7.12502,-23.086,-34.4469,-3.91979e-14,-7.15625e-15,-22.8482,11.2916,81.8378,22.113,5.83966,-17.081,24.3398,7.12502,9.15721,54.121,-21.8372,19.5048,14.7747,27.2529,-11.9466,-22.5803,7.24972,-4.09574,8.7716,-22.8363,22.2593,-26.4995,36.5623,-2.24163
5.89221,18.7668,6.83351,-168.526,-74.0989,173.041,7.27283,-2.5662,-4.45772,1.20352,-3.77765,0.515007,-2.50355,-1.85921,3.37399,-8.9886,-7.43446,-9.50875,19.4658,-11.4326,10.5016,8.69047,-5.34982,3.84506,-1.21756e-14,1.59276e-14,-26.1392,-32.2877,-44.1944,71.5261,-3.28794,-50.3299,-6.12762,7.12502,-22.9057,-34.7871,-1.21756e-14,1.59276e-14,-23.0576,11.5679,81.579,22.0909,5.64644,-16.4308,23.8549,7.12502,9.7845,53.6076,-21.6814,19.6446,15.1956,27.3147,-12.1205,-22.5495,7.16839,-4.12328,9.39616,-22.3495,22.7315,-25.9485,35.9996,-2.71373
5.84506,18.7682,6.77023,-168.101,-73.6749,172.233,7.39373,-2.56332,-4.76262,1.23878,-3.80395,0.542283,-2.51019,-1.87116,3.58045,-8.93398,-7.384,-9.52993,19.6025,-11.3814,10.459,8.71918,-5.33545,3.84286,-5.13532e-14,6.83322e-15,-25.4376,-32.2573,-44.0961,72.4285,-3.80055,-50.082,-5.97149,7.12502,-22.6678,-34.6602,-5.13532e-14,6.83322e-15,-23.1576,11.7098,81.3918,21.9437,5.57009,-16.431,23.3871,7.12502,9.78431,53.1398,-21.1613,19.7147,15.2852,27.4309,-12.2466,-22.2233,7.03617,-3.72887,9.90535,-22.3046,23.2452,-25.6851,35.4984,-3.51687
5.79861,18.7684,6.70764,-167.522,-73.2572,171.112,7.6778,-2.5955,-5.19057,1.33822,-3.89779,0.560865,-2.52628,-1.91799,3.85987,-9.03526,-7.29423,-9.47543,19.8076,-11.2486,10.2858,8.77837,-5.28123,3.78919,-3.48619e-14,1.85367e-14,-24.5479,-32.1999,-44.1792,73.3022,-4.28818,-49.8009,-6.42162,7.12502,-22.398,-35.1431,-3.48619e-14,1.85367e-14,-23.2232,12.0168,81.2063,21.8532,5.51334,-16.7925,23.4679,7.12502,9.43551,53.2367,-20.5059,19.7292,15.3149,27.6043,-12.4667,-21.8542,6.95224,-3.18198,10.3302,-22.3206,23.7882,-25.4521,34.9557,-4.62456
5.75413,18.771,6.64475,-166.658,-72.8929,169.87,7.83895,-2.62735,-5.53223,1.35064,-3.98077,0.515631,-2.57442,-1.95631,4.02015,-9.16451,-7.23035,-9.60149,20.117,-11.1875,10.3262,8.91056,-5.2556,3.8282,2.49847e-14,-3.08116e-15,-23.8365,-32.297,-44.2543,74.2299,-4.39481,-49.5349,-7.14228,7.12502,-22.1426,-35.8943,2.49847e-14,-3.08116e-15,-23.3129,12.1848,80.9815,21.7817,5.51555,-16.5466,23.413,7.12502,9.67284,53.1709,-20.0632,19.3927,15.2591,27.804,-12.6299,-21.2092,7.14321,-2.91676,10.8055,-22.3866,24.4076,-24.8423,34.4802,-5.42749
5.71027,18.773,6.58689,-166.465,-72.567,169.45,7.83741,-2.62053,-5.41611,1.36851,-3.96602,0.404325,-2.57264,-1.95088,3.83784,-9.32318,-7.2439,-9.57618,20.4231,-11.2672,10.3898,9.05618,-5.28229,3.83104,-2.56184e-14,9.64106e-15,-23.3022,-32.4707,-44.2459,75.164,-4.66518,-49.2335,-7.5384,7.12502,-21.8533,-36.3244,-2.56184e-14,9.64106e-15,-23.2633,12.182,80.7036,21.7404,5.62653,-16.9704,23.8487,7.12502,9.26394,53.6252,-19.7324,18.9566,15.4073,27.949,-12.7172,-20.4962,6.63699,-2.9096,11.4002,-22.218,25.2537,-24.111,34.0814,-5.67803
5.66682,18.7752,6.5279,-166.57,-72.209,169.42,7.75819,-2.61394,-5.26177,1.35474,-3.94229,0.329099,-2.56124,-1.94029,3.66742,-9.31092,-7.25249,-9.41402,20.5936,-11.3382,10.3527,9.10809,-5.31102,3.78304,9.11925e-15,0,-22.7002,-32.5918,-44.282,75.9475,-4.92392,-49.0045,-7.12922,7.12502,-21.6333,-35.9407,9.11925e-15,0,-23.252,12.1683,80.3869,21.6523,5.51866,-18.512,24.5396,7.12502,7.77614,54.3766,-19.4383,18.7883,15.6118,28.0074,-12.9285,-19.9666,6.49513,-3.13105,11.913,-21.9734,26.398,-23.5869,33.9554,-6.14202
5.62518,18.7744,6.457,-167.053,-71.7457,170.012,7.46097,-2.6255,-5.21877,1.22582,-3.93348,0.404969,-2.52783,-1.93257,3.70791,-9.14142,-7.14796,-9.41707,20.7276,-11.2606,10.4304,9.118,-5.28065,3.82683,2.17545e-14,-1.88845e-15,-22.0295,-32.5398,-44.4116,76.7271,-5.00848,-48.7801,-7.22056,7.12502,-21.4179,-36.0567,2.17545e-14,-1.88845e-15,-23.4806,12.4646,80.0231,21.6206,4.93566,-19.3771,24.9248,7.12502,6.94114,54.791,-19.3926,18.7082,15.9653,27.9956,-12.8813,-19.3836,6.84737,-3.73263,12.6314,-21.5303,27.7903,-23.0544,33.7272,-6.38518
5.58796,18.7729,6.39611,-167.942,-71.3454,171.073,7.15958,-2.67177,-4.79638,1.14049,-3.94026,0.520855,-2.46795,-1.93757,3.57747,-9.15543,-7.05178,-9.6732,20.835,-11.1421,10.6026,9.16957,-5.23111,3.94446,3.30231e-14,-6.65929e-15,-21.1095,-32.4924,-44.5786,77.4109,-4.96819,-48.7573,-7.38493,7.12502,-21.396,-36.2236,3.30231e-14,-6.65929e-15,-23.6115,12.5836,79.8048,21.7157,4.76209,-19.3067,24.8429,7.12502,7.00912,54.7068,-19.3746,18.4135,16.4927,27.9372,-12.6993,-18.7085,6.55482,-4.50766,13.3545,-20.9358,29.3834,-22.5097,33.3399,-5.68063
5.5513,18.7714,6.35029,-168.78,-71.1705,172.015,7.06127,-2.74032,-4.01407,0.988293,-3.96616,0.51664,-2.6218,-1.94835,3.13859,-9.05426,-7.02847,-9.71266,21.0312,-11.1498,10.5853,9.22013,-5.24758,3.94824,1.27471e-14,1.54058e-14,-20.5736,-32.4601,-44.5733,78.24,-4.93245,-49.5938,-7.69802,7.12502,-22.1992,-36.4433,1.27471e-14,1.54058e-14,-23.7729,12.2688,79.6116,21.8433,5.12868,-19.3568,24.869,7.12502,6.96076,54.7346,-19.2405,17.7311,17.0436,27.8906,-12.5477,-17.9143,5.94397,-5.27518,13.9348,-20.3507,31.0673,-21.1862,33.0883,-5.7902
5.51605,18.7714,6.28764,-169.351,-70.5939,172.926,6.60515,-2.68984,-3.65118,0.805568,-3.85021,0.552705,-2.58715,-1.88968,2.94368,-8.97355,-6.98698,-9.54406,21.2385,-11.1477,10.4739,9.25898,-5.25216,3.88557,1.46604e-14,5.46658e-15,-20.0426,-32.3493,-44.6379,79.0863,-5.0227,-50.1326,-6.77881,7.12502,-22.7164,-35.4616,1.46604e-14,5.46658e-15,-23.9253,12.2934,79.2789,21.9593,5.24866,-19.3637,25.0445,7.12502,6.95412,54.9103,-19.4673,17.5286,17.4417,27.8888,-12.3868,-17.1657,5.69382,-6.28579,14.6472,-19.8736,32.7683,-19.7035,33.0134,-6.77088
5.47875,18.7691,6.21702,-169.709,-70.0769,173.282,6.32645,-2.64364,-3.62184,0.816901,-3.77405,0.58966,-2.42497,-1.8557,2.94296,-9.03713,-6.93929,-9.37193,21.3574,-11.1037,10.3697,9.2902,-5.22761,3.82517,5.52621e-14,-4.96962e-15,-19.2328,-32.4284,-44.887,79.8261,-4.83824,-49.9495,-6.71578,7.12502,-22.5406,-35.42,5.52621e-14,-4.96962e-15,-23.8971,12.5519,78.9333,22.009,5.30195,-19.1094,24.8883,7.12502,7.19951,54.7459,-19.3341,17.6631,17.7507,27.9725,-12.4508,-16.7111,5.51941,-6.93299,15.0398,-19.4766,34.4381,-19.004,32.792,-6.43613
5.44294,18.7636,6.15043,-169.77,-69.5714,173.1,6.27537,-2.57662,-3.65788,0.892047,-3.68754,0.517938,-2.32787,-1.8165,2.87735,-9.09104,-6.92735,-9.24837,21.4194,-11.1087,10.3295,9.31252,-5.2237,3.78849,-2.65874e-15,-1.68967e-14,-18.4804,-32.5935,-45.123,80.487,-4.44344,-49.7003,-6.15609,7.12502,-22.3015,-34.8891,-2.65874e-15,-1.68967e-14,-23.9545,12.494,78.559,22.2154,5.78072,-18.4803,24.1189,7.12502,7.80682,53.9548,-18.9948,17.7739,17.918,28.1169,-12.6782,-16.2612,5.85322,-7.33966,15.2007,-19.2448,36.0908,-18.7233,32.5479,-4.20946
5.41184,18.755,6.0903,-169.741,-69.053,172.764,6.43276,-2.49887,-3.77118,0.919589,-3.59886,0.524277,-2.38654,-1.771,2.94855,-9.20944,-6.93787,-9.3953,21.5985,-11.1047,10.2837,9.40277,-5.23306,3.79435,-1.41634e-15,-7.15625e-15,-17.722,-32.6492,-45.1198,81.0533,-3.95401,-49.3861,-5.47816,7.12502,-21.9998,-34.247,-1.41634e-15,-7.15625e-15,-24.1406,12.5525,78.3951,22.5258,6.05406,-18.3804,23.842,7.12502,7.90317,53.6743,-18.6561,17.7033,18.0302,28.288,-12.9951,-15.6983,6.11033,-7.72972,15.3629,-19.0735,37.7673,-18.2401,32.2751,-1.04693
5.38262,18.7467,6.02917,-170.052,-68.5087,172.679,6.70969,-2.40948,-3.89963,0.971,-3.50055,0.569933,-2.48495,-1.72027,3.07349,-9.26593,-6.95025,-9.40238,21.6971,-11.089,10.1124,9.43607,-5.23986,3.73645,1.27968e-14,-4.77083e-15,-16.9005,-32.5414,-45.1599,81.6045,-3.5477,-48.9522,-4.83551,7.12502,-21.5831,-33.6528,1.27968e-14,-4.77083e-15,-24.2784,12.5763,78.3758,22.8891,6.52569,-18.9037,24.3838,7.12502,7.39811,54.2344,-18.218,17.867,18.2577,28.4857,-13.3217,-15.3404,6.39279,-8.08577,15.4536,-18.8035,39.4915,-16.9892,32.2832,1.15156
5.35868,18.7376,5.96773,-170.974,-67.9568,173.269,7.05732,-2.36487,-3.67562,0.985568,-3.44006,0.572924,-2.68171,-1.68837,2.96487,-9.18204,-6.88661,-9.3349,21.6506,-11.0209,10.1223,9.39251,-5.20814,3.74019,-4.83295e-14,4.37326e-15,-16.1877,-32.3165,-45.5134,82.1943,-3.13847,-48.8927,-4.70638,7.12502,-21.526,-33.5302,-4.83295e-14,4.37326e-15,-24.4075,12.5605,78.175,23.2138,7.04727,-19.5929,24.8668,7.12502,6.73287,54.7398,-17.8111,18.3584,18.7731,28.6837,-13.2483,-15.2026,6.32031,-8.55369,15.5085,-18.2447,41.3091,-15.3095,32.1345,3.31202
5.33427,18.7295,5.91028,-171.034,-67.5227,173.099,7.19098,-2.39127,-3.52956,0.969265,-3.47549,0.394269,-2.79037,-1.70542,2.7095,-9.03574,-6.78236,-9.18818,21.6163,-10.9531,10.2493,9.34366,-5.16505,3.77343,-4.67144e-15,6.95746e-15,-15.2843,-32.267,-46.0651,82.6785,-2.36648,-48.1531,-5.35539,7.12502,-20.8155,-34.2588,-4.67144e-15,6.95746e-15,-24.4962,12.4399,77.7582,23.5276,7.3133,-19.8269,25.2758,7.12502,6.50689,55.1559,-17.5178,18.6212,18.9187,28.8009,-13.015,-14.9924,5.73558,-9.27081,15.2356,-18.0656,43.2125,-13.8016,31.8707,-1.67294
5.31307,18.7232,5.85159,-170.735,-67.1078,172.586,7.26359,-2.35217,-3.68391,0.961447,-3.44334,0.271563,-2.83985,-1.68734,2.67037,-8.94967,-6.75258,-9.11308,21.5963,-10.9624,10.3426,9.32237,-5.16217,3.79462,4.35338e-14,-3.37934e-15,-14.0536,-32.4192,-46.4509,82.9931,-1.64658,-46.5736,-6.87347,7.12502,-19.2973,-35.936,4.35338e-14,-3.37934e-15,-24.6065,12.1645,77.5354,23.887,7.66058,-19.9529,25.0432,7.12502,6.38527,54.9269,-17.2728,18.516,18.9142,28.8941,-12.939,-14.4739,5.28198,-10.1258,14.883,-18.0261,45.1906,-11.8289,31.2743,-1.75887
5.28827,18.7187,5.79832,-171.599,-66.6682,173.211,7.47798,-2.34962,-3.39264,1.00116,-3.42469,0.309919,-2.93432,-1.68009,2.55576,-9.01767,-6.72548,-9.01041,21.6431,-10.9153,10.2212,9.33285,-5.1415,3.73946,5.77469e-14,-9.93923e-16,-12.8484,-32.4528,-46.9497,83.4143,-0.988959,-45.4079,-7.44362,7.12502,-18.1761,-36.6144,5.77469e-14,-9.93923e-16,-24.7569,11.6426,77.4744,24.4296,8.71152,-20.1211,25.1214,7.12502,6.22289,55.01,-16.8782,18.5082,19.4165,28.9501,-13.05,-13.9655,5.31326,-10.8983,14.6786,-17.4482,47.2629,-9.75283,30.0527,0.578144
5.26441,18.7075,5.74637,-172.502,-66.1762,173.915,7.62199,-2.33998,-3.09508,1.07917,-3.39078,0.399716,-2.94784,-1.66778,2.48428,-9.15751,-6.71102,-8.88884,21.6863,-10.8453,9.97406,9.34484,-5.11506,3.63834,-5.60573e-14,1.19271e-15,-11.8072,-32.4272,-47.4753,83.9761,-0.347456,-44.6329,-7.18993,7.12502,-17.4304,-36.4284,-5.60573e-14,1.19271e-15,-24.7633,11.5712,77.4231,24.8895,9.34996,-20.1022,25.3519,7.12502,6.24117,55.2399,-16.5203,18.5249,19.9315,28.9629,-13.15,-13.407,5.7822,-11.7078,14.453,-16.8473,49.3948,-8.53793,28.6253,3.48385
5.24622,18.6963,5.68834,-173.591,-65.6908,174.866,7.70475,-2.3041,-2.80044,1.17975,-3.31862,0.531894,-2.90323,-1.63787,2.45055,-9.23575,-6.70699,-8.83813,21.656,-10.8255,9.92776,9.34128,-5.10285,3.61371,-1.3418e-14,3.18055e-15,-10.8577,-32.4858,-47.9972,84.3874,0.542387,-43.9696,-6.83907,7.12502,-16.7919,-36.1329,-1.3418e-14,3.18055e-15,-24.7152,11.5175,77.3761,25.4059,9.73541,-19.9985,25.5069,7.12502,6.34122,55.392,-16.1984,18.7182,20.5781,28.9517,-13.1916,-13.1229,6.1248,-12.6142,14.1673,-16.1065,51.5796,-7.47116,26.6897,5.49083
5.22961,18.6852,5.63226,-174.789,-65.1521,175.911,7.83649,-2.2774,-2.47676,1.27557,-3.25745,0.686244,-2.89013,-1.61306,2.42697,-9.27209,-6.65937,-8.88236,21.5979,-10.7506,9.976,9.32509,-5.06597,3.64614,-2.43511e-14,-1.78906e-15,-9.78592,-32.5047,-48.5699,84.5897,1.76274,-43.8149,-5.60872,7.12502,-16.643,-34.9152,-2.43511e-14,-1.78906e-15,-24.7663,11.3384,77.3221,26.0281,10.3944,-20.1381,26.002,7.12502,6.2065,55.8911,-15.8243,19.521,21.2885,28.9653,-13.3696,-13.4082,6.02964,-13.5207,13.9904,-15.3024,53.7604,-5.82548,23.9438,5.10013
5.20653,18.6736,5.59051,-175.262,-64.6,176.349,7.8343,-2.27184,-2.09884,1.29814,-3.21948,0.677831,-2.88911,-1.59839,2.20257,-9.43506,-6.63073,-9.18649,21.7807,-10.7774,10.3676,9.46317,-5.06397,3.82517,-2.60408e-14,2.38542e-15,-8.64005,-32.6502,-49.2494,84.9574,2.74399,-43.4483,-5.10377,7.12502,-16.29,-34.4395,-2.60408e-14,2.38542e-15,-24.683,11.6061,77.1095,26.3393,10.2842,-20.7391,26.6549,7.12502,5.62629,56.5602,-15.6913,18.8459,21.6345,28.9873,-13.3252,-12.2709,5.83849,-14.6871,13.7144,-14.9393,55.923,-4.39339,20.9104,2.52634
5.1843,18.6644,5.55555,-175.81,-64.1726,176.853,7.89622,-2.27431,-1.5618,1.32501,-3.18133,0.638203,-2.92926,-1.58475,1.8601,-9.56708,-6.68254,-9.61017,21.9297,-10.9621,10.997,9.62474,-5.1257,4.08859,-1.12736e-13,1.47101e-14,-7.75468,-32.7746,-49.8524,85.5613,3.28463,-42.8011,-5.38744,7.12502,-15.6668,-34.7731,-1.12736e-13,1.47101e-14,-24.5157,12.0125,76.7991,26.5184,9.66558,-20.9784,26.8556,7.12502,5.39521,56.7669,-15.5244,18.2393,22.001,29.0044,-13.302,-11.1994,6.13859,-15.8908,13.2976,-14.5717,58.0663,-3.60812,17.8493,-0.94769
5.16172,18.6539,5.51838,-176.455,-63.6489,177.414,8.0261,-2.27465,-1.04695,1.34319,-3.14285,0.58385,-3.01506,-1.57042,1.51839,-9.49662,-6.6424,-9.59004,21.8114,-10.9751,11.2596,9.58592,-5.11335,4.17678,-3.62285e-14,7.95139e-15,-6.97784,-32.7747,-50.5964,86.0151,3.89053,-42.1963,-5.78762,7.12502,-15.0842,-35.218,-3.62285e-14,7.95139e-15,-24.5086,11.7806,76.5744,27.0063,9.89467,-20.3473,26.7734,7.12502,6.00453,56.6683,-15.2949,18.0375,22.4096,29.033,-13.3336,-10.4434,6.67597,-17.02,13.1745,-14.1307,60.2203,-3.37986,15.0732,-3.85767
5.14224,18.6479,5.48189,-176.784,-63.0649,177.661,8.26703,-2.2465,-0.67653,1.25725,-3.07752,0.47103,-3.26588,-1.53881,1.20235,-9.3494,-6.60388,-9.30446,21.7548,-10.9815,11.2217,9.51935,-5.10858,4.11813,1.02871e-14,-5.56597e-15,-6.34557,-32.7443,-51.3385,86.3701,4.66074,-42.0628,-6.30676,7.12502,-14.9557,-35.7468,1.02871e-14,-5.56597e-15,-24.6642,10.7272,76.6919,27.7578,12.1897,-20.7936,26.2668,7.12502,5.57364,56.1735,-15.0957,18.3131,22.6543,29.0586,-13.4348,-10.0674,7.15659,-18.2244,13.0364,-13.9049,62.3684,-3.54014,13.1493,-5.78912
5.12617,18.6455,5.44487,-177.006,-62.4295,177.69,8.62248,-2.1551,-0.463869,1.22425,-2.94366,0.344561,-3.51848,-1.4736,0.955496,-9.35064,-6.59762,-9.00921,21.7689,-11.0372,11.2052,9.5127,-5.11684,4.05497,-1.06598e-14,-6.55989e-15,-5.6926,-32.8309,-52.0732,86.8239,5.05968,-42.0052,-6.77769,7.12502,-14.9002,-36.2218,-1.06598e-14,-6.55989e-15,-24.6129,10.9633,76.3058,27.9445,11.0102,-17.6489,24.1653,7.12502,8.60917,53.9698,-14.7983,18.9172,22.8312,29.1045,-13.6275,-9.98808,7.78851,-19.3634,12.7236,-13.8344,64.5104,-4.04477,12.02,-6.61667
5.11477,18.6396,5.40501,-177.246,-61.8533,177.82,8.76376,-2.10978,-0.39501,1.29005,-2.87998,0.35891,-3.53264,-1.44422,0.929021,-9.49265,-6.59091,-8.93292,21.7681,-11.0342,11.2174,9.53553,-5.10275,4.0423,-6.17226e-14,1.5704e-14,-4.7647,-32.7538,-52.8643,87.2458,5.08253,-41.7601,-6.59661,7.12502,-14.664,-36.0581,-6.17226e-14,1.5704e-14,-24.4495,10.6364,76.4013,28.4412,12.1541,-20.3255,26.1371,7.12502,6.02557,56.0314,-14.6319,19.2293,23.0499,29.1549,-13.8904,-9.68146,8.76466,-20.609,12.3719,-13.711,66.614,-4.70333,10.9952,-6.84435
5.10456,18.6347,5.37046,-177.305,-61.3295,177.84,8.83322,-2.10943,-0.405032,1.33212,-2.88094,0.409906,-3.52448,-1.44546,0.98934,-9.61567,-6.59846,-9.11256,21.7661,-11.0403,11.3657,9.57884,-5.10129,4.11985,5.04416e-14,-9.93923e-16,-3.80573,-32.5619,-53.6672,87.6649,4.88053,-41.0916,-6.85608,7.12502,-14.0199,-36.3633,5.04416e-14,-9.93923e-16,-24.2741,10.4686,76.5992,28.9041,13.4596,-21.0819,26.7534,7.12502,5.29525,56.6672,-14.579,19.4213,23.1561,29.1865,-13.962,-9.32403,9.20333,-22.0161,12.1015,-13.6893,68.6802,-5.29951,10.0427,-7.12035
5.0893,18.6387,5.34434,-177.133,-60.7428,177.476,9.05154,-2.01239,-0.398707,1.34474,-2.75786,0.299572,-3.64082,-1.3849,0.866414,-9.52591,-6.61274,-9.02053,21.6886,-11.0902,11.4023,9.53731,-5.12037,4.11218,6.17475e-14,-1.19271e-15,-3.19595,-32.5627,-54.3526,88.0707,4.86454,-40.8378,-7.19205,7.12502,-13.7753,-36.716,6.17475e-14,-1.19271e-15,-24.0431,10.1323,76.6844,29.2086,14.1308,-20.1118,26.6901,7.12502,6.2319,56.5784,-14.3872,19.7556,23.0594,29.2294,-14.0296,-9.12201,9.12611,-23.2628,12.1899,-13.894,70.6593,-5.74178,9.41285,-8.20907
5.07759,18.6419,5.30313,-177.061,-59.9855,177.149,9.22975,-1.76742,-0.610923,1.42159,-2.46108,0.212796,-3.65975,-1.23718,0.865195,-9.33974,-6.63013,-8.73787,21.5047,-11.1479,11.3577,9.42506,-5.13989,4.04515,2.5345e-14,-1.2921e-14,-2.82803,-32.6907,-54.8867,88.5704,4.83381,-40.6873,-7.30189,7.12502,-13.6303,-36.8356,2.5345e-14,-1.2921e-14,-23.7498,9.53135,76.8214,29.5216,14.6502,-18.7688,25.559,7.12502,7.52828,55.4051,-14.0614,20.1761,23.099,29.2512,-14.0718,-8.91597,8.54482,-24.3315,12.5124,-14.0093,72.5812,-5.99362,8.63703,-10.9017
5.06696,18.6376,5.27281,-177.155,-59.3397,177.188,9.31344,-1.63356,-0.560971,1.43404,-2.27987,0.217105,-3.69826,-1.1483,0.822424,-9.13877,-6.61094,-8.63147,21.3563,-11.1325,11.3374,9.32574,-5.13738,4.02721,5.62561e-14,5.36719e-15,-2.28417,-32.6341,-55.4908,89.0245,4.78925,-40.4476,-7.17185,7.12502,-13.3993,-36.7209,5.62561e-14,5.36719e-15,-23.5903,9.17812,77.0039,30.0226,14.9559,-15.3099,21.7138,7.12502,10.8658,51.4127,-13.9471,20.1739,23.2222,29.208,-13.8916,-8.31654,8.73475,-25.7231,12.2991,-14.086,74.5383,-6.41177,8.29202,-11.2564
5.05664,18.6371,5.24426,-177.212,-58.7029,177.134,9.47719,-1.5232,-0.548034,1.46111,-2.13638,0.186863,-3.76518,-1.07814,0.771163,-9.05907,-6.56325,-8.61616,21.3121,-11.1242,11.5204,9.30453,-5.12369,4.09148,3.70236e-15,6.55989e-15,-1.64599,-32.5006,-56.2,89.4286,4.65597,-39.9031,-7.09756,7.12502,-12.8743,-36.6805,3.70236e-15,6.55989e-15,-23.4238,8.81872,77.1099,30.553,15.3262,-20.177,26.2349,7.12502,6.16894,56.1251,-13.751,20.233,23.2827,29.0738,-13.7059,-7.79093,10.1154,-27.0752,12.1074,-14.1928,76.4813,-7.05617,8.11254,-9.9802
5.03778,18.6445,5.21794,-177.233,-58.0584,177.022,9.52483,-1.40007,-0.518024,1.56752,-1.9758,0.15209,-3.68583,-1.00187,0.697856,-9.21478,-6.56772,-8.3255,21.365,-11.1132,11.2682,9.31876,-5.11047,3.95184,-3.74958e-14,1.59028e-15,-0.97341,-32.3938,-56.8909,89.8543,4.59041,-39.349,-7.42893,7.12502,-12.3402,-37.0448,-3.74958e-14,1.59028e-15,-23.0408,9.2765,76.9701,30.7012,13.5319,-20.1145,27.353,7.12502,6.22926,57.2414,-13.4323,20.3129,23.3126,28.8531,-13.5608,-7.32458,11.5913,-28.3251,12.0715,-14.3407,78.3298,-7.54569,7.62774,-9.61621
5.01975,18.6534,5.1895,-177.586,-57.4095,177.329,9.5716,-1.30369,-0.331428,1.65346,-1.83036,0.219833,-3.62812,-0.934023,0.645047,-9.37758,-6.53954,-7.97366,21.4289,-11.0325,10.8845,9.31871,-5.07086,3.76568,8.22472e-15,-1.74931e-14,-0.281595,-32.1157,-57.5671,90.2469,4.58794,-39.2377,-8.26252,7.12502,-12.2329,-37.8848,8.22472e-15,-1.74931e-14,-22.7125,9.00629,77.1533,31.0674,13.7278,-20.1883,27.1906,7.12502,6.15804,57.0811,-13.0835,20.5265,23.6002,28.5332,-13.3716,-6.88531,11.2323,-29.6894,12.1012,-14.2481,80.1763,-7.86306,7.04356,-9.69066
5.00455,18.6605,5.16326,-178.052,-56.7274,177.872,9.64081,-1.20081,0.0406434,1.64004,-1.65334,0.301148,-3.69054,-0.850406,0.500228,-9.28425,-6.48465,-7.82584,21.3569,-10.9449,10.7527,9.24977,-5.03551,3.70929,5.38458e-14,-5.1684e-15,0.282205,-31.8144,-58.1939,90.6461,4.72776,-39.0563,-9.20081,7.12502,-12.058,-38.8334,5.38458e-14,-5.1684e-15,-22.5934,7.99371,77.5729,31.7934,15.9474,-21.4054,27.3427,7.12502,4.98287,57.2641,-12.8007,20.6893,23.9873,28.1179,-13.1306,-6.29694,9.99621,-31.1853,12.2877,-14.0256,81.9757,-8.05589,6.73467,-10.7329
4.98773,18.6669,5.13821,-178.375,-55.9517,178.159,9.71841,-1.07574,0.233722,1.68967,-1.46844,0.359411,-3.68652,-0.762349,0.429901,-9.28568,-6.39344,-7.72977,21.3764,-10.8249,10.6966,9.23476,-4.97839,3.68951,3.01159e-14,-1.8487e-14,0.77419,-31.4832,-58.9016,91.0492,4.95263,-38.6723,-9.42226,7.12502,-11.6876,-39.0762,3.01159e-14,-1.8487e-14,-22.3506,7.57153,77.7733,32.3104,16.3391,-21.1558,27.6515,7.12502,5.22388,57.5671,-12.4231,20.9606,24.2253,27.6691,-12.9342,-5.7369,10.0458,-32.5168,12.5713,-13.9292,83.7064,-8.47085,6.28698,-11.8719
4.96653,18.6789,5.11062,-178.706,-55.1193,178.503,9.66973,-0.942895,0.443319,1.77124,-1.2718,0.451841,-3.57793,-0.668875,0.380933,-9.36936,-6.2979,-7.62331,21.4133,-10.6836,10.599,9.23635,-4.90957,3.654,3.61788e-14,5.96354e-16,1.3515,-31.1239,-59.6393,91.3595,5.22011,-38.6156,-9.17873,7.12502,-11.633,-38.8358,3.61788e-14,5.96354e-16,-22.0676,7.04314,77.995,32.8362,16.698,-21.5628,27.6549,7.12502,4.83096,57.5799,-12.0954,21.4268,24.4953,27.2765,-12.7708,-5.45365,10.5874,-33.8579,12.9385,-13.8334,85.3363,-8.79127,5.63709,-12.6072
4.94652,18.6925,5.08974,-178.76,-54.4772,178.533,9.70809,-0.887079,0.572291,1.8146,-1.18597,0.492856,-3.55601,-0.628888,0.340391,-9.45456,-6.21275,-7.57308,21.4693,-10.5338,10.4474,9.24417,-4.84508,3.61038,-4.96962e-17,-7.95139e-16,2.12284,-30.6944,-60.3734,91.4177,5.59709,-38.63,-9.21065,7.12502,-11.6468,-38.8669,-4.96962e-17,-7.95139e-16,-21.8234,6.6685,78.1584,33.3983,16.8991,-21.7452,27.4486,7.12502,4.65481,57.3774,-11.8113,21.7129,24.5606,26.9681,-12.6642,-5.33896,10.5879,-35.2784,13.1158,-14.0254,86.8786,-8.97286,5.19723,-13.552
4.9324,18.7026,5.07704,-178.545,-53.9525,178.182,9.83854,-0.852275,0.460952,1.89453,-1.15496,0.511681,-3.54278,-0.61441,0.420159,-9.4871,-6.12093,-7.63325,21.3242,-10.3386,10.377,9.17876,-4.76106,3.61973,3.27498e-14,-1.35174e-14,2.92289,-30.3049,-61.0927,91.4698,6.10434,-38.283,-9.44279,7.12502,-11.3122,-39.1177,3.27498e-14,-1.35174e-14,-21.4798,6.32918,78.3664,33.964,17.1032,-21.7401,27.3924,7.12502,4.65971,57.3212,-11.5035,21.6784,24.3942,26.62,-12.4655,-5.0051,9.7824,-36.7026,13.08,-14.5231,88.3266,-9.06642,4.93831,-14.3524
4.91921,18.7143,5.06429,-178.079,-53.2583,177.452,10.0742,-0.731686,0.0864035,1.92616,-1.03965,0.420135,-3.6361,-0.554874,0.525007,-9.38279,-6.00538,-7.56352,21.1656,-10.162,10.3493,9.08048,-4.68064,3.62318,-5.92875e-14,-3.57812e-15,3.35658,-29.8581,-61.6672,91.715,6.4643,-37.8221,-9.50452,7.12502,-10.8677,-39.2033,-5.92875e-14,-3.57812e-15,-21.2192,5.79381,78.574,34.6047,17.5883,-21.8585,27.4698,7.12502,4.54542,57.401,-11.1154,21.599,23.9763,26.1722,-12.1795,-4.41249,9.82215,-38.0184,13.145,-15.2484,89.7311,-9.29102,4.62588,-14.0427
4.90159,18.719,5.04459,-178.933,-52.5859,178.184,10.3916,-0.639462,0.619531,2.00683,-0.862453,0.52914,-3.73503,-0.476013,0.319073,-9.4498,-5.93634,-7.39954,21.2415,-10.0834,10.2613,9.09751,-4.63779,3.57378,-3.51352e-14,-3.97569e-16,3.86207,-29.527,-62.3115,91.9955,6.86919,-37.0558,-9.93091,7.12502,-10.1285,-39.6671,-3.51352e-14,-3.97569e-16,-20.9348,5.1923,78.7513,35.2952,18.188,-22.0192,27.7887,7.12502,4.39027,57.7232,-10.4557,21.7801,24.6274,25.6374,-11.9742,-4.06784,9.88626,-39.2314,13.4024,-14.7652,91.2938,-9.70048,3.66194,-11.7735
4.88637,18.7125,5.01925,-180.777,-51.7999,180.073,10.7538,-0.561707,1.81338,2.12267,-0.624171,0.861246,-3.82246,-0.376644,-0.0362517,-9.51732,-5.87268,-7.23027,21.3574,-9.99375,10.0741,9.12186,-4.59772,3.49088,1.43324e-13,-1.70955e-14,4.52095,-29.1776,-62.9607,92.1959,7.38087,-36.2185,-10.0158,7.12502,-9.32064,-39.7898,1.43324e-13,-1.70955e-14,-20.6945,4.67411,78.8766,36.0664,18.6086,-21.8492,28.2741,7.12502,4.55435,58.2052,-9.67138,22.0494,26.1487,25.0262,-11.6129,-3.73631,9.49088,-40.4584,13.9338,-13.3785,92.9559,-9.96352,2.49777,-10.4359
4.87326,18.7072,4.9974,-181.864,-51.0808,181.185,11.0149,-0.522394,2.49201,2.20693,-0.492086,1.11336,-3.87926,-0.323808,-0.171845,-9.45462,-5.82103,-7.18958,21.3117,-9.90518,9.98503,9.07832,-4.56459,3.46601,-4.74101e-14,-5.96354e-15,5.07119,-28.6195,-63.5581,92.406,7.6967,-35.5327,-10.2793,7.12502,-8.65891,-40.0817,-4.74101e-14,-5.96354e-15,-20.4175,4.20469,78.9669,36.6869,18.8306,-21.5159,28.1064,7.12502,4.87624,58.0303,-9.06196,22.2407,27.0909,24.4575,-11.2567,-3.36545,9.59537,-41.7987,14.3051,-12.6498,94.4532,-10.1833,1.43399,-9.89191
4.85931,18.7115,4.97598,-182.138,-50.4681,181.315,11.2206,-0.443273,2.61153,2.31702,-0.376238,1.18444,-3.87529,-0.271365,-0.18026,-9.52147,-5.86299,-7.20195,21.2787,-9.94024,9.94034,9.08133,-4.58247,3.44619,-5.04416e-14,2.06736e-14,5.57776,-28.234,-64.1675,92.5692,8.20851,-35.0803,-10.5529,7.12502,-8.2223,-40.3729,-5.04416e-14,2.06736e-14,-20.0511,3.63323,79.0939,37.307,19.0705,-21.0094,27.5148,7.12502,5.36525,57.4269,-8.62673,22.3038,27.359,24.2024,-11.0906,-3.05235,9.42575,-43.0738,14.4459,-12.7101,95.6463,-10.396,0.513484,-9.64927
4.83963,18.727,4.96068,-181.267,-49.8583,180.27,11.2267,-0.318693,2.09232,2.33585,-0.275859,1.02126,-3.85598,-0.215263,-0.0725615,-9.54473,-5.86436,-7.2364,21.2181,-9.92163,9.93278,9.06439,-4.57569,3.45073,-5.57094e-14,9.14409e-15,5.84601,-27.8424,-64.7341,92.6896,8.94864,-34.8838,-10.6274,7.12502,-8.03258,-40.4548,-5.57094e-14,9.14409e-15,-19.7592,2.85342,79.1711,37.9611,19.3342,-20.2496,26.5118,7.12502,6.09888,56.4041,-8.59347,22.1844,26.6271,24.1347,-10.9712,-2.47782,9.20978,-44.5004,14.4302,-13.8121,96.601,-10.6205,0.136468,-9.85151
4.81,18.7637,4.95774,-178.706,-49.3257,177.472,10.8589,-0.206757,0.579235,2.24505,-0.311125,0.500813,-3.74522,-0.210976,0.24074,-9.53143,-5.79188,-7.1366,21.1347,-9.81296,9.88167,9.01451,-4.52291,3.43004,3.72721e-15,-9.93923e-15,5.95605,-27.3229,-65.2613,92.7439,9.77472,-34.6185,-10.774,7.12502,-7.77655,-40.611,3.72721e-15,-9.93923e-15,-19.428,2.14476,79.1085,38.398,19.4399,-19.3769,24.4379,7.12502,6.94133,54.3041,-9.06439,21.6249,24.3374,24.1722,-10.9569,-1.40679,9.03817,-46.0851,13.9583,-16.5873,97.1923,-10.9699,0.482882,-10.8763
4.78966,18.7735,4.94247,-178.723,-48.6701,177.365,10.9065,-0.144381,0.609062,2.34754,-0.233248,0.471191,-3.66487,-0.17544,0.18233,-9.54959,-5.6561,-6.94848,21.0737,-9.6187,9.78034,8.9631,-4.42647,3.38722,-1.54058e-14,1.74931e-14,6.18623,-26.81,-65.7951,92.8822,10.5699,-34.6129,-10.7269,7.12502,-7.77111,-40.5641,-1.54058e-14,1.74931e-14,-18.9668,1.98622,79.0338,38.763,19.0423,-18.5325,22.9528,7.12502,7.7564,52.7905,-8.88984,21.7139,24.3013,24.1674,-10.964,-0.925355,9.13141,-47.3641,14.1812,-17.0248,98.0566,-10.976,0.059055,-11.9615
4.7736,18.7824,4.92678,-178.829,-48.0963,177.48,10.9782,-0.125822,0.734964,2.39209,-0.196279,0.528565,-3.65803,-0.160067,0.166196,-9.67464,-5.55221,-6.99858,21.1191,-9.46595,9.80513,8.99093,-4.35165,3.41996,-7.35503e-15,8.74653e-15,6.55518,-26.2693,-66.3005,93.0448,11.4595,-34.5677,-10.4168,7.12502,-7.72751,-40.2556,-7.35503e-15,8.74653e-15,-18.5454,1.61723,79.053,39.4517,19.3521,-18.6641,23.879,7.12502,7.62935,53.7214,-8.81305,21.8696,24.3839,24.1148,-10.9271,-0.555506,9.61503,-48.8011,14.4256,-17.2912,98.9122,-11.0262,-0.776952,-13.2405
4.75549,18.7931,4.91328,-178.871,-47.5402,177.518,11.1017,-0.0726208,0.896365,2.37264,-0.106429,0.542207,-3.74626,-0.117914,0.0774964,-9.55338,-5.49788,-7.13715,21.0475,-9.39376,9.92182,8.949,-4.32435,3.4949,-6.95746e-15,5.96354e-15,6.75272,-25.8258,-66.6969,93.079,12.4201,-34.6444,-10.3845,7.12502,-7.80153,-40.2206,-6.95746e-15,5.96354e-15,-18.1289,1.01102,79.1218,40.1537,19.9498,-19.1899,25.0844,7.12502,7.12182,54.9445,-8.66151,21.8919,24.3966,23.8913,-10.7858,-0.123184,10.0836,-50.2187,14.5871,-17.6358,99.7483,-11.4161,-1.72858,-13.9349
4.73568,18.8044,4.90081,-178.657,-46.9041,177.125,11.2277,0.0321723,0.728013,2.4035,0.00862074,0.485943,-3.78314,-0.060956,0.0978586,-9.38415,-5.39793,-7.14045,20.875,-9.25316,9.97923,8.84722,-4.26148,3.53569,6.64935e-14,-5.40694e-14,6.99697,-25.4018,-67.0946,93.0665,13.3164,-35.0329,-10.2398,7.12502,-8.17651,-40.0616,6.64935e-14,-5.40694e-14,-17.618,0.373412,79.1698,40.681,20.5664,-19.5026,25.3996,7.12502,6.82003,55.2697,-8.42924,22.1019,24.1307,23.7249,-10.6931,0.183023,10.1625,-51.4042,14.6872,-18.3306,100.41,-11.9235,-2.29167,-13.8377
4.71809,18.8118,4.88861,-178.601,-46.2672,177,11.2482,0.115265,0.746055,2.49857,0.113138,0.468349,-3.6948,-0.011806,0.0545464,-9.36953,-5.30425,-7.09653,20.7081,-9.096,9.96576,8.76936,-4.18509,3.54221,5.96354e-16,-2.14687e-14,7.39144,-25.0198,-67.5781,93.0701,14.0091,-35.4125,-9.8413,7.12502,-8.54289,-39.6485,5.96354e-16,-2.14687e-14,-16.9675,-0.237436,79.1288,41.1679,21.0942,-19.4429,25.6037,7.12502,6.8776,55.472,-8.30742,22.3773,24.0496,23.634,-10.5711,0.417936,10.5269,-52.6606,14.823,-18.8563,101.036,-12.3474,-2.65689,-14.4101
4.70001,18.819,4.87707,-178.57,-45.6404,176.877,11.3451,0.192494,0.746338,2.55926,0.210682,0.474178,-3.68446,0.0341921,0.0466138,-9.36387,-5.21935,-7.08856,20.6352,-8.95762,9.93583,8.72802,-4.12201,3.54702,1.14599e-13,4.77083e-15,7.61708,-24.6327,-68.0315,93.2722,14.5694,-35.7191,-9.73907,7.12502,-8.8387,-39.534,1.14599e-13,4.77083e-15,-16.3623,-0.45735,79.0928,41.5052,21.0064,-19.2844,25.3196,7.12502,7.03066,55.1828,-8.17555,22.6598,23.9661,23.562,-10.4556,0.663281,11.1735,-53.8988,15.0252,-19.4012,101.616,-12.7452,-3.10366,-14.6046
4.68215,18.8245,4.86648,-178.51,-45.0364,176.697,11.5456,0.287053,0.771978,2.54292,0.335851,0.387629,-3.81059,0.0944855,-0.0763475,-9.32842,-5.14991,-6.92156,20.6997,-8.89726,9.88287,8.72716,-4.09008,3.50902,-6.79844e-14,2.42517e-14,7.56825,-24.3827,-68.4348,93.5233,14.9329,-35.8017,-9.43786,7.12502,-8.91845,-39.2294,-6.79844e-14,2.42517e-14,-15.8352,-0.987739,78.9786,41.9131,21.2127,-19.478,25.2431,7.12502,6.84373,55.1125,-7.99726,22.8431,23.8548,23.4387,-10.338,0.933244,11.2813,-55.075,15.1599,-19.9948,102.135,-13.1141,-3.47573,-13.8645
4.66078,18.8392,4.85205,-178.4,-44.439,176.403,11.6671,0.394279,0.659665,2.58125,0.458784,0.331964,-3.83712,0.154372,-0.089334,-9.43032,-5.0845,-6.77394,20.8422,-8.80386,9.70149,8.77037,-4.04773,3.43167,-3.74709e-14,5.96354e-15,7.68079,-24.1341,-68.7725,93.5549,15.2798,-35.9204,-9.40208,7.12502,-9.03302,-39.1887,-3.74709e-14,5.96354e-15,-15.21,-1.64726,78.9359,42.3421,21.8767,-19.9813,25.7414,7.12502,6.35789,55.626,-7.75539,23.0018,23.6603,23.3217,-10.2257,1.2087,11.6421,-56.1416,15.2501,-20.6886,102.587,-13.6592,-3.7825,-14.3546
4.63862,18.8555,4.83639,-178.478,-43.8109,176.49,11.652,0.461612,0.721145,2.6426,0.554067,0.433481,-3.76453,0.199347,-0.0319154,-9.51353,-4.98283,-6.79144,20.8429,-8.61822,9.58683,8.7639,-3.96734,3.41579,7.25564e-15,-1.03368e-14,7.92123,-23.7258,-69.1736,93.6183,15.7,-35.8886,-9.81964,7.12502,-9.00234,-39.6076,7.25564e-15,-1.03368e-14,-14.6055,-2.34698,78.9447,42.9667,22.5575,-20.4639,27.2471,7.12502,5.89192,57.1452,-7.67025,23.2931,23.7007,23.2682,-10.0929,1.43073,13.7357,-57.3356,15.4329,-21.0467,103.04,-14.065,-4.4359,-12.5668
4.61667,18.8661,4.82371,-178.41,-43.1737,176.31,11.6921,0.538814,0.645221,2.71718,0.641743,0.453694,-3.70947,0.241057,0.0192042,-9.56202,-4.8661,-6.79541,20.8276,-8.43209,9.53672,8.74795,-3.88227,3.42037,5.06901e-14,-9.54166e-15,8.16831,-23.2831,-69.564,93.7129,15.9637,-35.8544,-10.3786,7.12502,-8.9693,-40.1679,5.06901e-14,-9.54166e-15,-13.932,-2.91534,78.8843,43.468,22.7111,-20.4432,28.8812,7.12502,5.91191,58.7787,-7.5473,23.5386,23.5353,23.1969,-9.81118,1.59041,16.3924,-58.2772,15.5608,-21.5583,103.393,-14.4056,-5.44228,-7.39923
4.59201,18.8731,4.81553,-178.34,-42.6522,176.229,11.6991,0.557061,0.761774,2.75019,0.676063,0.442692,-3.67705,0.255913,-0.0627919,-9.57527,-4.76889,-6.78083,20.7851,-8.27259,9.47287,8.71744,-3.81093,3.41447,-7.0171e-14,2.22639e-14,8.39733,-22.8504,-69.8898,93.8323,16.143,-35.839,-10.8249,7.12502,-8.95444,-40.6149,-7.0171e-14,2.22639e-14,-13.2203,-3.13576,78.7313,43.6054,22.7945,-20.3323,28.0514,7.12502,6.019,57.9459,-7.45076,23.5328,23.4638,23.1058,-9.67376,1.74505,16.2504,-59.3361,15.5874,-22.1914,103.626,-14.7886,-5.88742,-5.50735
4.56647,18.8896,4.79936,-178.391,-42.175,176.224,11.7034,0.567327,0.882158,2.81014,0.699397,0.465292,-3.61537,0.264766,-0.110177,-9.63511,-4.67936,-6.85631,20.7833,-8.12962,9.48832,8.71824,-3.74552,3.44815,5.84427e-14,7.95139e-16,8.53142,-22.4559,-70.1402,93.8948,16.3078,-35.9616,-10.5833,7.12502,-9.07279,-40.3682,5.84427e-14,7.95139e-16,-12.5244,-3.30732,78.5798,43.692,22.8635,-20.4008,26.9158,7.12502,5.95282,56.8122,-7.21309,23.4349,23.5354,23.0011,-9.60775,1.90535,14.651,-60.3589,15.7621,-22.894,103.703,-15.2825,-5.63361,-8.6392
4.54736,18.9036,4.77678,-178.328,-41.6868,175.877,11.7498,0.586603,0.497012,2.94539,0.669345,0.498746,-3.50539,0.248689,0.146421,-9.59283,-4.54149,-6.73392,20.6258,-7.8856,9.29556,8.62111,-3.63836,3.39014,2.15681e-14,-1.19271e-14,8.78367,-21.9411,-70.4325,93.892,16.3831,-36.0511,-10.6887,7.12502,-9.15911,-40.4698,2.15681e-14,-1.19271e-14,-11.796,-3.38027,78.3726,43.9227,22.8902,-20.722,27.0237,7.12502,5.64272,56.9285,-6.86488,23.7246,23.3672,22.8936,-9.44586,1.81732,15.816,-61.1263,15.9064,-23.687,103.732,-15.6871,-5.82202,-10.0178
4.52708,18.9138,4.76148,-178.314,-41.257,175.713,11.8385,0.551952,0.370121,3.0019,0.602875,0.511098,-3.49677,0.213973,0.24018,-9.54805,-4.43166,-6.52047,20.5448,-7.69995,9.04198,8.54978,-3.55879,3.28954,-4.90004e-14,-1.11319e-14,9.00163,-21.3848,-70.7187,93.8764,16.3721,-36.0745,-11.0678,7.12502,-9.18173,-40.8479,-4.90004e-14,-1.11319e-14,-11.1208,-3.44403,78.0968,44.1513,23.1234,-20.6849,26.8256,7.12502,5.67856,56.7295,-6.6115,23.9841,23.2674,22.7338,-9.29064,1.77465,17.2974,-61.9944,15.8612,-24.3421,103.777,-16.089,-6.14187,-10.0019
4.50636,18.9211,4.75192,-178.206,-40.8533,175.562,11.9135,0.534494,0.317313,2.99932,0.57201,0.508137,-3.54106,0.198197,0.270971,-9.67731,-4.36214,-6.35103,20.6487,-7.57459,8.77598,8.58074,-3.50609,3.18292,4.01545e-14,-1.43125e-14,9.1928,-20.9283,-70.9923,93.8737,16.3911,-35.8826,-11.5194,7.12502,-8.99655,-41.3076,4.01545e-14,-1.43125e-14,-10.4485,-3.84922,77.8542,44.4378,23.5755,-20.7553,26.6163,7.12502,5.61058,56.522,-6.51946,24.0779,23.1454,22.6351,-9.26054,1.76273,16.8667,-62.9966,15.7353,-25.0919,103.786,-16.4809,-6.2225,-10.4294
4.48531,18.9339,4.74072,-178.099,-40.4388,175.231,12.0646,0.531812,0.183557,3.05658,0.543784,0.459021,-3.56498,0.182073,0.298878,-9.75645,-4.28122,-6.24332,20.6217,-7.42489,8.59743,8.56241,-3.43939,3.11966,1.41137e-14,1.19271e-14,9.48872,-20.4732,-71.3443,93.7441,16.6186,-35.5617,-11.6106,7.12502,-8.68686,-41.4119,1.41137e-14,1.19271e-14,-9.75125,-4.3441,77.5983,44.8301,24.256,-20.6837,26.5599,7.12502,5.67977,56.4637,-6.32847,24.2175,22.9165,22.6204,-9.22926,1.77162,16.753,-63.7713,15.6093,-25.9034,103.757,-16.7199,-6.5989,-10.1855
4.46422,18.9413,4.73483,-178.109,-40.0222,175.102,12.2585,0.495858,0.271226,3.10017,0.497848,0.392844,-3.62397,0.155703,0.186661,-9.76968,-4.17633,-6.0797,20.5284,-7.27116,8.5059,8.51088,-3.36212,3.0778,1.01579e-13,1.19271e-14,9.77285,-20.0229,-71.7754,93.5649,16.9932,-35.6185,-11.6909,7.12502,-8.74171,-41.4899,1.01579e-13,1.19271e-14,-9.02889,-4.65437,77.258,45.1591,24.5996,-20.3372,27.5129,7.12502,6.01426,57.4075,-6.23872,24.1483,22.7983,22.6893,-9.13921,2.06912,16.9394,-64.5336,15.4375,-26.4672,103.708,-16.7486,-7.30338,-10.1826
4.43946,18.9438,4.72809,-178.22,-39.4988,175.196,12.379,0.510732,0.623103,3.12905,0.554355,0.331673,-3.65525,0.179172,-0.084564,-9.83181,-4.13935,-5.98965,20.4884,-7.21922,8.47692,8.50026,-3.33125,3.05728,9.19379e-14,-6.36111e-15,9.92042,-19.708,-72.065,93.4884,17.1796,-35.4042,-11.9707,7.12502,-8.53483,-41.7782,9.19379e-14,-6.36111e-15,-8.2804,-5.03374,76.8849,45.5036,24.9197,-17.8782,24.5756,7.12502,8.38785,54.3891,-6.17519,23.922,22.839,22.6933,-9.01281,2.54855,15.9988,-65.2635,15.3946,-26.768,103.652,-16.8619,-8.25232,-9.07317
4.41857,18.9481,4.71794,-178.161,-38.9119,175.045,12.4243,0.567664,0.591933,3.1808,0.618607,0.2899,-3.62551,0.208982,-0.120327,-9.86966,-4.06382,-5.88084,20.4292,-7.09418,8.36517,8.46901,-3.2721,3.0143,7.60351e-14,-3.18055e-14,10.0859,-19.3286,-72.3048,93.3383,17.4725,-35.3002,-12.6025,7.12502,-8.43451,-42.4141,7.60351e-14,-3.18055e-14,-7.47439,-5.50974,76.5053,45.8231,25.4889,-17.4613,24.1377,7.12502,8.79018,53.9347,-6.12648,24.0741,22.6949,22.7277,-8.96499,2.77296,15.6605,-65.9817,15.4317,-27.4124,103.465,-17.1812,-8.7209,-9.84218
4.39777,18.9591,4.70615,-178.183,-38.3921,175.024,12.4699,0.579533,0.595994,3.24605,0.630242,0.351681,-3.58283,0.21191,-0.0599461,-10.0497,-3.97775,-6.02339,20.4976,-6.94054,8.36855,8.51786,-3.20289,3.05421,-8.74653e-15,-2.38542e-15,10.3603,-18.8706,-72.4485,93.1367,17.6008,-35.67,-13.1657,7.12502,-8.79134,-42.9626,-8.74653e-15,-2.38542e-15,-6.67949,-5.75679,76.23,46.1486,25.8224,-17.9822,24.939,7.12502,8.28752,54.7564,-6.05384,24.2646,22.651,22.6923,-8.89895,2.943,15.8804,-66.8346,15.4668,-28.2193,103.106,-17.7014,-7.86348,-15.3804
4.37337,18.9636,4.69461,-178.142,-37.8581,174.88,12.5943,0.57146,0.542381,3.25116,0.61056,0.366537,-3.64634,0.200657,-0.0119649,-10.1063,-3.83189,-6.22142,20.5307,-6.7223,8.47178,8.53153,-3.1042,3.14683,4.37326e-15,-8.74653e-15,10.5485,-18.2858,-72.5569,92.907,17.4647,-36.424,-13.7787,7.12502,-9.51889,-43.5437,4.37326e-15,-8.74653e-15,-6.03786,-5.82149,75.9362,46.4622,25.6823,-17.9546,25.2953,7.12502,8.31419,55.1116,-5.9487,24.3149,22.4884,22.633,-8.72264,3.21414,16.1582,-67.3147,15.3715,-28.6447,102.87,-17.682,-9.0636,-12.6598
4.34784,18.9796,4.68123,-178.107,-37.3885,174.719,12.792,0.595217,0.562969,3.17306,0.644903,0.279128,-3.83467,0.217647,-0.121853,-9.95577,-3.73452,-6.21995,20.485,-6.62556,8.59073,8.48378,-3.05591,3.19974,-2.04748e-14,-7.15625e-15,10.483,-17.9272,-72.6689,92.7572,17.4312,-37.1464,-14.6062,7.12502,-10.2159,-44.3382,-2.04748e-14,-7.15625e-15,-5.46162,-6.18691,75.5275,46.7245,25.5511,-17.7498,25.0096,7.12502,8.51175,54.818,-5.78823,24.2377,22.3073,22.5464,-8.54079,3.61446,15.8423,-67.8849,15.287,-29.2407,102.525,-17.9414,-9.42537,-14.0387
4.32111,18.9895,4.66451,-178.156,-36.9476,174.589,12.9225,0.631902,0.497429,3.19589,0.68055,0.272576,-3.88266,0.233528,-0.0981917,-9.87055,-3.69364,-6.24366,20.4078,-6.58631,8.68798,8.44259,-3.03469,3.24178,1.33186e-14,-1.03368e-14,10.5226,-17.5262,-72.6737,92.6435,17.4119,-37.6968,-14.8899,7.12502,-10.7468,-44.595,1.33186e-14,-1.03368e-14,-4.73651,-6.5876,75.2001,47.0142,25.8096,-18.8461,25.624,7.12502,7.45372,55.4727,-5.58709,24.1315,22.1924,22.5243,-8.3683,4.04253,15.5884,-68.2285,15.1955,-29.6286,102.21,-17.8,-10.5773,-12.5523
4.29735,18.997,4.65156,-178.189,-36.5154,174.51,12.9872,0.640198,0.463165,3.25174,0.680568,0.272132,-3.85996,0.231114,-0.0794566,-9.81779,-3.64717,-6.34155,20.2892,-6.52462,8.82898,8.39547,-3.00221,3.31298,-6.26172e-14,1.82882e-14,10.6182,-17.1082,-72.7359,92.6433,17.3503,-37.772,-14.409,7.12502,-10.8193,-44.1103,-6.26172e-14,1.82882e-14,-3.9885,-7.16879,74.7567,47.5322,26.4963,-21.1857,27.4563,7.12502,5.19507,57.3726,-5.44984,24.2186,22.1116,22.5044,-8.25349,4.27782,15.3671,-68.654,15.1314,-30.1778,101.752,-17.9121,-10.9403,-14.0394
4.27235,19.0078,4.64245,-178.094,-36.0337,174.251,13.1067,0.679641,0.347317,3.29175,0.709046,0.211288,-3.88396,0.243315,-0.0828698,-9.84249,-3.61982,-6.25129,20.1957,-6.45782,8.71012,8.35618,-2.97209,3.26372,-1.80894e-14,-1.59028e-14,10.7167,-16.7404,-72.7992,92.7095,17.4162,-37.6752,-14.4043,7.12502,-10.726,-44.1105,-1.80894e-14,-1.59028e-14,-3.1237,-7.61437,74.3704,47.8594,26.8444,-21.8348,28.1173,7.12502,4.56827,58.048,-5.40758,24.2949,21.8313,22.5769,-8.13066,4.58973,15.3307,-68.9964,15.0387,-30.7899,101.286,-18.0277,-11.5542,-14.1499
4.24872,19.0199,4.63268,-177.888,-35.5566,173.851,13.2894,0.695248,0.146284,3.28476,0.694,0.08688,-3.99216,0.235421,-0.0984395,-9.94534,-3.58365,-6.2121,20.1883,-6.40523,8.70611,8.3669,-2.94123,3.25993,1.11319e-14,1.35174e-14,10.7701,-16.3459,-72.926,92.8191,17.477,-37.4556,-14.3321,7.12502,-10.5141,-44.0492,1.11319e-14,1.35174e-14,-2.30696,-7.94811,73.9154,48.1655,26.9892,-21.1585,27.7043,7.12502,5.22135,57.62,-5.4408,24.3627,21.3826,22.6781,-8.074,4.93493,15.6802,-69.2554,14.8916,-31.4808,100.744,-18.0748,-12.0052,-13.9123
4.22654,19.0308,4.6215,-177.765,-35.1904,173.542,13.415,0.658811,0.0716146,3.31561,0.622191,-0.0728748,-4.02757,0.197729,-0.212188,-10.0261,-3.54639,-6.1436,20.1629,-6.37301,8.76638,8.37045,-2.91366,3.27082,1.19271e-15,-2.94201e-14,10.8403,-16.0385,-73.1389,92.9008,17.4728,-37.1964,-14.2134,7.12502,-10.2641,-43.943,1.19271e-15,-2.94201e-14,-1.4551,-8.27987,73.3393,48.5141,27.2287,-20.7728,27.3623,7.12502,5.5937,57.2685,-5.40108,24.1911,21.0323,22.7231,-7.94866,5.322,15.7687,-69.4209,14.6438,-32.0153,100.165,-17.9215,-12.5217,-13.075
4.20121,19.0431,4.60975,-177.807,-34.8366,173.568,13.419,0.615604,0.141895,3.34526,0.571941,-0.0529148,-3.99827,0.170957,-0.222486,-10.0778,-3.50888,-6.13538,20.1661,-6.3075,8.71655,8.37361,-2.88493,3.25906,-4.53229e-14,1.59028e-15,10.8948,-15.6189,-73.1433,93.0031,17.3349,-36.6343,-14.3692,7.12502,-9.72179,-44.1248,-4.53229e-14,1.59028e-15,-0.623876,-8.46765,72.9112,48.826,27.399,-20.6889,27.2046,7.12502,5.67468,57.1087,-5.3647,23.9832,20.9724,22.7111,-7.71499,5.71956,16.0112,-69.6771,14.4911,-32.2617,99.6692,-17.8106,-12.9933,-12.8218
4.17502,19.0527,4.59417,-178.019,-34.4625,173.711,13.4676,0.595965,0.303471,3.42153,0.561584,-0.0101064,-3.94332,0.161382,-0.267101,-10.0241,-3.46303,-6.00595,20.1001,-6.22198,8.54343,8.32491,-2.85183,3.18812,6.77856e-14,-3.02153e-14,10.9136,-15.259,-73.1188,93.1381,17.4252,-36.1859,-14.1903,7.12502,-9.28919,-43.9657,6.77856e-14,-3.02153e-14,0.213264,-8.66789,72.494,49.2092,27.5791,-20.6297,27.7118,7.12502,5.73183,57.6143,-5.13537,24.0907,21.1264,22.655,-7.53499,5.79619,16.2479,-69.7551,14.4605,-32.3792,99.1956,-17.9372,-13.1014,-13.6519
4.15193,19.0613,4.57757,-178.18,-34.0282,173.783,13.5121,0.585831,0.335291,3.51287,0.544834,0.0423221,-3.87203,0.148942,-0.227236,-9.91739,-3.42538,-5.95141,19.9596,-6.12437,8.36462,8.24297,-2.81946,3.12969,-6.30147e-14,-1.03368e-14,11.0004,-14.884,-73.1526,93.23,17.6773,-35.8244,-13.6208,7.12502,-8.94038,-43.4114,-6.30147e-14,-1.03368e-14,1.07505,-8.84686,72.0352,49.5076,27.7004,-20.6511,28.0289,7.12502,5.71122,57.9319,-4.92355,24.2459,21.2227,22.5843,-7.3397,5.9083,16.0749,-69.7717,14.4971,-32.4979,98.6836,-17.7341,-13.2699,-11.8397
4.12885,19.0654,4.56524,-178.261,-33.5913,173.812,13.6341,0.612265,0.25791,3.5055,0.572347,0.166967,-3.9482,0.161545,-0.0585501,-9.79654,-3.44497,-6.21872,19.9013,-6.10935,8.38923,8.20866,-2.83341,3.18617,-2.127e-14,7.95139e-16,10.9277,-14.5273,-72.9692,93.3293,17.9196,-35.0307,-13.3027,7.12502,-8.17442,-43.1246,-2.127e-14,7.95139e-16,1.82673,-9.03641,71.8092,49.7542,27.7672,-20.8284,27.9623,7.12502,5.53999,57.8698,-4.81447,24.3125,21.2227,22.5436,-7.13695,6.13012,16.2959,-69.7907,14.4482,-32.6394,98.1583,-17.5744,-13.1732,-10.0886
4.10364,19.0678,4.55096,-178.287,-33.1328,173.795,13.6969,0.673987,0.0788467,3.51177,0.633462,0.322443,-3.97973,0.191513,0.19462,-9.8706,-3.46318,-6.56289,19.9484,-6.09564,8.49837,8.25047,-2.83961,3.28226,3.598e-14,1.66979e-14,10.9619,-14.3238,-72.7276,93.3347,18.1592,-34.1586,-12.7929,7.12502,-7.33262,-42.6459,3.598e-14,1.66979e-14,2.62455,-9.14306,71.6694,49.9765,27.8596,-20.5803,27.4243,7.12502,5.77962,57.3255,-4.79622,24.2113,21.1403,22.5714,-6.92648,6.55272,16.2139,-69.7782,14.4421,-32.8402,97.6028,-17.5074,-12.9862,-9.28475
4.07723,19.0737,4.53246,-178.247,-32.7143,173.612,13.6247,0.659422,-0.0530255,3.59976,0.585838,0.273288,-3.84908,0.165564,0.226549,-9.97149,-3.38745,-6.66106,19.9792,-5.9942,8.61139,8.27686,-2.78625,3.34718,6.36111e-14,2.38542e-15,11.018,-14.1892,-72.7799,93.3169,18.2593,-33.8851,-11.5049,7.12502,-7.06863,-41.3669,6.36111e-14,2.38542e-15,3.52182,-9.1516,71.258,50.1967,27.6819,-19.7389,26.6021,7.12502,6.5919,56.4795,-4.69739,24.1711,20.9547,22.625,-6.9175,6.86658,15.3061,-69.603,14.3933,-33.1276,97.0325,-17.3497,-12.9003,-7.62973
4.04963,19.0856,4.51417,-178.174,-32.3783,173.416,13.6323,0.559035,-0.00593719,3.58124,0.450711,0.0747829,-3.86992,0.0986672,0.0148329,-9.90715,-3.25323,-6.46646,20.0038,-5.86555,8.63744,8.25691,-2.71518,3.33765,-9.00495e-14,1.74931e-14,10.8728,-13.9932,-73.0713,93.3517,18.1948,-33.6271,-10.4803,7.12502,-6.81957,-40.3505,-9.00495e-14,1.74931e-14,4.33368,-9.26165,70.5307,50.2284,27.4704,-21.5674,27.8882,7.12502,4.82648,57.8132,-4.59788,24.2935,20.7754,22.6849,-7.041,6.93014,14.5799,-69.3669,14.2328,-33.4085,96.4489,-17.2408,-12.6975,-6.38159
4.02067,19.0891,4.49744,-178.19,-31.9845,173.557,13.6016,0.504483,0.235371,3.49953,0.416904,0.0431578,-3.93642,0.083202,-0.149038,-9.87758,-3.17226,-6.22617,20.1154,-5.76065,8.38071,8.26553,-2.67483,3.22234,2.8625e-14,7.95139e-16,10.6798,-13.7634,-73.1298,93.3658,18.0757,-32.8675,-10.605,7.12502,-6.08632,-40.4976,2.8625e-14,7.95139e-16,5.0736,-9.54248,69.9313,50.3826,27.6338,-22.0322,28.1359,7.12502,4.37771,58.0707,-4.6424,24.4359,20.8416,22.7435,-6.90652,6.99313,14.6041,-69.2997,14.1303,-33.4047,95.9019,-17.0913,-12.5409,-4.96498
3.99201,19.0933,4.47737,-178.231,-31.5804,173.652,13.4849,0.48746,0.339937,3.52135,0.409037,0.0806214,-3.84936,0.0784841,-0.166997,-9.92697,-3.13711,-6.11827,20.1743,-5.67874,8.13507,8.27766,-2.64861,3.12964,-3.37934e-15,-2.06736e-14,10.684,-13.5379,-73.0434,93.118,18.1928,-32.7646,-10.7419,7.12502,-5.98696,-40.6373,-3.37934e-15,-2.06736e-14,5.91651,-9.72214,69.5132,50.6301,27.7325,-21.7809,28.2728,7.12502,4.62036,58.2024,-4.62003,24.3399,20.8559,22.7744,-6.75619,7.30708,14.9848,-69.0999,14.0959,-33.3715,95.3567,-16.8942,-12.5137,-4.14753
3.96235,19.0964,4.45394,-178.401,-31.1892,173.738,13.4906,0.485098,0.424173,3.56608,0.412459,0.0938452,-3.80486,0.0775697,-0.201113,-9.97492,-3.1048,-6.12564,20.2943,-5.64714,8.12498,8.3239,-2.63653,3.13103,-5.14852e-14,1.98785e-14,10.625,-13.3682,-73.0164,92.7816,18.5115,-32.817,-10.2641,7.12502,-6.03758,-40.158,-5.14852e-14,1.98785e-14,6.74145,-9.92207,69.0819,50.9171,27.8863,-21.8214,28.5413,7.12502,4.58121,58.4718,-4.386,24.1652,20.9301,22.7175,-6.62975,7.70577,14.9467,-68.6829,14.1078,-33.2863,94.8144,-16.6283,-12.5772,-4.06947
3.93724,19.0916,4.42989,-178.638,-30.7985,173.908,13.6277,0.448313,0.508077,3.57877,0.372695,0.143022,-3.86594,0.0549403,-0.190926,-10.0126,-3.02694,-6.17093,20.4167,-5.54208,8.10327,8.3638,-2.59405,3.14315,7.55382e-15,2.54444e-14,10.5399,-12.9711,-73,92.5467,18.653,-32.3211,-10.2853,7.12502,-5.55877,-40.1924,7.55382e-15,2.54444e-14,7.47201,-10.0284,68.6196,51.3076,28.2251,-21.7665,29.3407,7.12502,4.63422,59.27,-4.06977,24.3782,21.1433,22.6408,-6.52468,7.81895,15.1576,-68.3118,14.1431,-33.1173,94.3116,-16.2982,-12.5771,-4.53782
3.91285,19.0879,4.40938,-178.746,-30.3976,173.976,13.6633,0.456064,0.473015,3.59363,0.377814,0.210427,-3.87049,0.0561476,-0.101522,-9.96513,-2.96035,-6.14767,20.394,-5.4262,7.98338,8.33411,-2.55001,3.11148,-1.07344e-13,2.22639e-14,10.393,-12.4764,-72.8342,92.4081,18.3856,-31.7974,-11.338,7.12502,-5.05313,-41.2578,-1.07344e-13,2.22639e-14,8.33429,-9.65083,68.3534,51.2092,26.6923,-17.8597,26.6601,7.12502,8.40569,56.4728,-3.80995,24.7695,21.2234,22.5599,-6.37568,7.82292,15.6503,-68.02,14.1302,-33.037,93.7902,-15.661,-12.6269,-4.64057
3.88527,19.0869,4.38896,-178.669,-30.0656,173.885,13.5449,0.465522,0.374008,3.60183,0.377009,0.216002,-3.7984,0.0567514,-0.0392297,-9.92745,-2.93509,-6.14727,20.3084,-5.37786,7.96388,8.29405,-2.52923,3.10976,-4.79071e-14,2.70347e-14,10.2553,-11.9999,-72.6366,92.1464,17.8235,-31.966,-11.8204,7.12502,-5.21588,-41.7362,-4.79071e-14,2.70347e-14,9.16231,-9.88194,67.9934,51.536,26.7979,-15.326,23.8555,7.12502,10.8503,53.5552,-3.70273,24.7679,21.0497,22.4536,-6.21639,8.10894,15.911,-67.722,13.9817,-33.0968,93.2378,-14.7187,-12.8484,-3.32775
3.85653,19.0904,4.36817,-178.617,-29.7071,173.915,13.3984,0.437529,0.360562,3.64148,0.337377,0.267608,-3.67776,0.0365389,0.0293229,-10.1012,-2.91744,-6.20891,20.2923,-5.29206,7.84573,8.31255,-2.49549,3.08772,-7.81224e-14,2.62396e-14,10.2907,-11.338,-72.4104,91.8652,17.28,-32.1651,-12.4209,7.12502,-5.40814,-42.3319,-7.81224e-14,2.62396e-14,9.95124,-10.1519,67.6261,52.1083,27.8627,-16.3563,24.9378,7.12502,9.85646,54.6871,-3.6979,24.6114,20.9439,22.3205,-6.02174,8.53507,16.0644,-67.4251,13.8299,-33.0229,92.7318,-13.6616,-13.0102,0.469924
3.82651,19.0994,4.34996,-178.691,-29.3399,174.071,13.3992,0.3826,0.506385,3.63731,0.284624,0.30641,-3.68182,0.00915647,-0.00385574,-10.199,-2.88048,-6.24095,20.2805,-5.21022,7.79098,8.31959,-2.46015,3.08241,-2.5842e-14,1.66979e-14,10.2076,-10.5946,-72.2209,91.7064,16.7846,-32.5187,-12.9173,7.12502,-5.74953,-42.8193,-2.5842e-14,1.66979e-14,10.6226,-10.272,67.1994,52.625,28.342,-16.3094,25.1355,7.12502,9.90167,54.8826,-3.64712,24.5796,20.9945,22.251,-5.82669,8.89765,15.913,-67.0333,13.669,-32.8135,92.2948,-12.8967,-12.9445,5.67111
3.79737,19.1112,4.3326,-178.729,-28.9704,174.104,13.4593,0.335458,0.533444,3.59691,0.226947,0.289772,-3.75677,-0.0192312,-0.0271968,-10.2075,-2.77129,-6.08268,20.263,-5.06538,7.69998,8.29749,-2.38874,3.04008,-3.57812e-14,1.51076e-14,10.061,-9.86129,-72.0391,91.5326,16.1686,-33.1451,-12.9793,7.12502,-6.35425,-42.8639,-3.57812e-14,1.51076e-14,11.2695,-10.2728,66.8027,53.018,28.3352,-15.8136,24.9994,7.12502,10.38,54.7232,-3.60036,24.6164,20.9593,22.245,-5.60575,9.21007,15.5597,-66.5963,13.5884,-32.7466,91.9577,-12.8477,-12.6935,9.50483
3.76999,19.1173,4.3129,-178.752,-28.6268,174.242,13.3949,0.261929,0.571738,3.60276,0.134926,0.327504,-3.71596,-0.0652766,0.00569746,-10.2802,-2.62079,-5.93444,20.1604,-4.84217,7.61924,8.25375,-2.27511,3.01023,-6.75868e-15,-1.51076e-14,10.0415,-9.0427,-71.8731,91.4795,15.6403,-33.7909,-13.0163,7.12502,-6.97774,-42.8813,-6.75868e-15,-1.51076e-14,12.0362,-10.148,66.4245,53.3526,28.5239,-15.6309,24.682,7.12502,10.5562,54.3969,-3.65622,24.7237,21.0314,22.2826,-5.48974,9.40156,14.9213,-66.3422,13.534,-32.6324,91.8355,-13.5699,-11.976,9.59867
3.74438,19.1125,4.29292,-178.704,-28.2834,174.392,13.2143,0.260116,0.624795,3.64802,0.137885,0.376572,-3.57015,-0.0645355,0.0264332,-10.4111,-2.62308,-5.91211,20.0154,-4.8137,7.6114,8.22673,-2.25248,3.00472,-6.16232e-14,-1.51076e-14,10.0985,-8.61511,-71.7099,91.5571,15.3467,-34.0054,-12.5393,7.12502,-7.18476,-42.3973,-6.16232e-14,-1.51076e-14,12.8796,-10.2151,66.0585,53.8927,28.9457,-15.4079,24.7734,7.12502,10.7713,54.4772,-3.82881,24.6325,21.0513,22.3651,-5.41103,9.82682,14.3709,-66.2066,13.3836,-32.484,91.8397,-14.5216,-10.9854,8.44597
3.71936,19.1105,4.27289,-178.608,-27.8364,174.391,13.1188,0.280933,0.46185,3.64779,0.144926,0.402134,-3.51931,-0.0600908,0.143911,-10.4235,-2.61152,-5.84842,19.8089,-4.77234,7.58102,8.15494,-2.22678,2.98647,5.22804e-14,1.27222e-14,10.2263,-8.30429,-71.6672,91.5637,15.1844,-34.0179,-11.3054,7.12502,-7.19689,-41.163,5.22804e-14,1.27222e-14,13.6136,-10.1771,65.6851,54.3546,29.0248,-15.3474,25.0805,7.12502,10.8297,54.7813,-3.95469,24.7474,20.9089,22.4354,-5.34584,10.2321,14.3953,-66.0704,13.4134,-32.5212,91.908,-15.3735,-10.1141,8.16258
3.69593,19.1173,4.25656,-178.619,-27.436,174.388,13.2502,0.274701,0.32497,3.61585,0.119108,0.413613,-3.62488,-0.0729062,0.237459,-10.4351,-2.57714,-5.75299,19.6602,-4.70376,7.50503,8.09862,-2.1913,2.95083,3.1408e-14,1.43125e-14,10.2689,-7.84205,-71.5857,91.7295,15.1445,-33.7646,-11.9554,7.12502,-6.95234,-41.8212,3.1408e-14,1.43125e-14,14.3594,-10.0891,65.3717,54.6953,28.9614,-15.6143,25.1155,7.12502,10.5722,54.8296,-3.95885,24.9049,20.8186,22.4934,-5.22949,10.516,14.4767,-65.8625,13.4843,-32.5605,92.0347,-15.8408,-9.81435,8.55793
3.67031,19.1251,4.24071,-178.71,-27.1624,174.561,13.4204,0.218366,0.415144,3.56712,0.0591146,0.451053,-3.76814,-0.103394,0.235773,-10.4097,-2.51284,-5.70774,19.4834,-4.60367,7.51934,8.02713,-2.13757,2.95747,3.00165e-14,-1.03368e-14,10.1666,-7.34,-71.534,92.0628,15.3212,-33.5796,-13.8627,7.12502,-6.77374,-43.7344,3.00165e-14,-1.03368e-14,15.0428,-10.0942,65.0109,55.1001,29.0816,-15.4842,24.3138,7.12502,10.6977,54.0215,-3.87753,25.0238,20.9511,22.4874,-5.17102,10.6163,13.5888,-65.7163,13.4416,-32.4307,92.2489,-16.1794,-9.8153,9.58469
3.64447,19.1262,4.22256,-178.718,-26.9582,174.689,13.4765,0.152826,0.488372,3.53525,-0.0160542,0.45951,-3.83183,-0.140763,0.215835,-10.419,-2.49508,-5.70036,19.325,-4.5913,7.65909,7.97839,-2.11698,3.00305,-1.37161e-14,9.54166e-15,10.1705,-7.18791,-71.5662,92.2511,15.1133,-32.9857,-13.3899,7.12502,-6.20042,-43.2792,-1.37161e-14,9.54166e-15,15.6963,-10.1359,64.621,55.7009,29.4016,-15.2664,24.2385,7.12502,10.9078,53.9352,-3.85631,24.9239,21.0128,22.4542,-5.15346,10.8289,12.4462,-65.7015,13.3227,-32.3651,92.511,-16.5745,-9.31714,9.40693
3.61901,19.1276,4.20764,-178.689,-26.8001,174.736,13.5004,0.0602337,0.54231,3.56206,-0.135864,0.44746,-3.81673,-0.201963,0.192619,-10.6204,-2.47917,-5.77691,19.2213,-4.55592,7.80976,7.98327,-2.08326,3.068,-1.27222e-14,3.10104e-14,10.3562,-7.25521,-71.6383,92.2695,14.6281,-32.2588,-10.8662,7.12502,-5.49858,-40.7748,-1.27222e-14,3.10104e-14,16.5322,-10.0267,64.2788,56.1974,29.6459,-14.9667,24.6606,7.12502,11.1969,54.3418,-3.88404,24.6781,20.9287,22.4358,-4.94956,11.303,12.2416,-65.7208,13.1664,-32.4117,92.7681,-16.8859,-8.39242,8.22277
3.59691,19.1288,4.19298,-178.733,-26.4945,174.864,13.5974,0.0414649,0.564057,3.58217,-0.161578,0.463335,-3.84834,-0.217046,0.201709,-10.7552,-2.46153,-5.7458,19.0443,-4.51375,7.86931,7.94698,-2.04785,3.08479,1.13307e-14,1.19271e-14,10.4695,-7.26016,-71.6717,92.3299,14.1977,-31.7278,-9.54047,7.12502,-4.98591,-39.4618,1.13307e-14,1.19271e-14,17.4757,-9.94342,63.9886,56.5305,29.7966,-15.0234,25.0983,7.12502,11.1422,54.7825,-3.89707,24.834,20.9431,22.47,-4.819,11.6013,12.321,-65.7437,13.1524,-32.3383,92.9704,-16.9305,-7.87021,8.77242
3.57604,19.1341,4.17816,-178.709,-26.1987,174.954,13.6405,0.0291932,0.498616,3.60989,-0.190596,0.480619,-3.84259,-0.233014,0.261781,-10.8263,-2.42241,-5.7035,18.7955,-4.43981,7.93169,7.87278,-1.99764,3.10381,-2.8625e-14,-1.98785e-14,10.5131,-7.12737,-71.7634,92.4731,13.8636,-31.4541,-8.98696,7.12502,-4.72164,-38.9143,-2.8625e-14,-1.98785e-14,18.398,-9.82439,63.6575,56.854,30.1003,-14.6548,24.5957,7.12502,11.4977,54.2604,-3.99084,24.9702,20.8946,22.504,-4.66355,11.8485,12.8589,-65.7986,13.1419,-32.2942,93.1135,-17.0556,-7.69666,9.92304
3.55702,19.1416,4.16257,-178.664,-26.0222,174.999,13.5519,0.00688365,0.460127,3.719,-0.237681,0.443657,-3.6801,-0.2598,0.25177,-10.8969,-2.44318,-5.67129,18.4666,-4.45226,8.06319,7.78077,-1.98244,3.13782,1.19271e-14,-1.43125e-14,10.6552,-7.10629,-71.8195,92.5284,13.2571,-31.4363,-8.51146,7.12502,-4.70444,-38.4392,1.19271e-14,-1.43125e-14,19.4042,-9.74363,63.2872,57.2352,30.4594,-14.1231,24.219,7.12502,12.0104,53.8544,-4.06269,25.0589,20.8545,22.5139,-4.45679,11.9413,13.1928,-65.8819,13.0637,-32.3193,93.204,-17.0794,-7.47542,11.0757
3.53479,19.1444,4.14899,-178.679,-25.8555,175.118,13.6152,-0.055953,0.479151,3.73794,-0.32203,0.446421,-3.69457,-0.303399,0.258223,-11.0431,-2.42558,-5.57935,18.4471,-4.42814,8.04401,7.79684,-1.96116,3.11721,1.37161e-14,-4.29375e-14,10.7449,-6.95705,-71.8674,92.4868,12.7163,-31.3756,-7.94225,7.12502,-4.64582,-37.8713,1.37161e-14,-4.29375e-14,20.2223,-9.71323,62.9164,57.5945,30.77,-13.7664,24.2401,7.12502,12.3544,53.8551,-4.13199,24.9844,20.8793,22.5406,-4.20838,12.1918,13.1323,-66.0106,12.9581,-32.2957,93.3128,-17.0403,-6.87976,11.15
3.51249,19.1505,4.13272,-178.673,-25.5643,175.141,13.8148,-0.0458505,0.243668,3.67994,-0.335818,0.524687,-3.86257,-0.309108,0.477325,-11.1538,-2.41048,-5.61622,18.4701,-4.39386,8.04168,7.82262,-1.94395,3.12577,9.80008e-14,-2.22639e-14,10.6604,-6.76694,-71.7771,92.5105,12.2634,-31.383,-7.34204,7.12502,-4.65295,-37.2709,9.80008e-14,-2.22639e-14,21.1421,-9.66591,62.7758,57.6441,31.1027,-13.6839,24.1126,7.12502,12.4339,53.7228,-4.15349,25.0314,20.8145,22.5474,-4.00536,12.5465,12.8162,-66.0511,12.9868,-32.3055,93.4209,-16.9226,-6.5307,11.831
3.49398,19.1591,4.11683,-178.617,-25.2122,175.028,13.9866,0.0547688,-0.0806352,3.64921,-0.249325,0.500049,-3.98807,-0.264672,0.621654,-11.1601,-2.41322,-5.59687,18.3473,-4.41329,8.16376,7.78718,-1.94048,3.16004,2.5842e-14,-1.11319e-14,10.4119,-6.7774,-71.778,92.6341,11.9605,-31.3939,-7.03686,7.12502,-4.66352,-36.9655,2.5842e-14,-1.11319e-14,22.1102,-9.71331,62.6956,57.8536,31.4023,-13.7724,24.045,7.12502,12.3485,53.6603,-4.19794,25.2212,20.5983,22.5637,-3.75617,12.8414,13.4798,-66.0282,13.0772,-32.4133,93.5156,-16.7723,-6.50356,12.9032
3.47492,19.1649,4.10304,-178.678,-24.879,175.205,14.0947,0.115747,-0.039958,3.68923,-0.169903,0.506595,-4.00557,-0.228834,0.59256,-11.2202,-2.47893,-5.59784,18.1401,-4.49996,8.28967,7.73976,-1.96655,3.1909,4.33351e-14,1.51076e-14,10.2597,-6.83765,-71.8394,92.7815,11.7168,-31.3141,-7.16305,7.12502,-4.58643,-37.0934,4.33351e-14,1.51076e-14,23.0974,-9.71774,62.5454,58.1023,31.7799,-13.7551,24.1502,7.12502,12.3653,53.7645,-4.22236,25.3592,20.675,22.5266,-3.35106,13.035,14.4337,-66.1615,13.1972,-32.2597,93.6884,-16.6328,-6.05751,12.1373
3.45433,19.1716,4.08939,-178.703,-24.6634,175.219,14.3025,0.110885,-0.109286,3.68019,-0.192029,0.467034,-4.12765,-0.240843,0.59559,-11.3119,-2.50061,-5.71398,18.0968,-4.5532,8.54524,7.75462,-1.97546,3.28922,-1.92821e-14,2.14687e-14,10.0567,-6.80463,-71.9853,92.9501,11.4329,-31.3302,-7.10582,7.12502,-4.60196,-37.0358,-1.92821e-14,2.14687e-14,24.0209,-9.70812,62.4125,58.2174,32.1294,-13.951,23.9316,7.12502,12.1764,53.5572,-4.14049,25.4997,20.6272,22.4676,-2.95898,12.9952,15.1966,-66.1607,13.212,-32.2349,93.8512,-16.5259,-5.52508,11.2472
3.42722,19.1875,4.06904,-178.742,-24.412,175.177,14.399,0.109997,-0.250193,3.70358,-0.220904,0.426858,-4.15502,-0.256364,0.63885,-11.3961,-2.46643,-5.7975,18.1937,-4.53243,8.69736,7.80515,-1.95758,3.35681,-6.38099e-14,-1.11319e-14,9.85641,-6.7186,-72.1244,93.1269,11.1833,-31.4341,-6.76905,7.12502,-4.70235,-36.6969,-6.38099e-14,-1.11319e-14,24.9619,-9.61451,62.3114,58.2485,32.4876,-14.0157,23.9452,7.12502,12.1139,53.5745,-3.94996,25.6165,20.5532,22.3588,-2.63922,13.1295,15.5347,-65.9957,13.2823,-32.2178,93.9833,-16.5432,-5.21319,9.94049
3.3982,19.1956,4.04861,-178.743,-24.1333,175.379,14.31,0.108694,-0.0848131,3.70296,-0.199504,0.384757,-4.10807,-0.246503,0.496848,-11.4863,-2.4618,-5.80371,18.2945,-4.55461,8.78566,7.8586,-1.96011,3.38549,-3.77691e-14,2.06736e-14,9.63157,-6.73035,-72.2858,93.2727,10.9005,-31.4356,-6.5683,7.12502,-4.70374,-36.4961,-3.77691e-14,2.06736e-14,25.8971,-9.6514,62.0922,58.321,32.9957,-14.0049,23.8197,7.12502,12.1244,53.4484,-3.96197,25.6088,20.6343,22.2752,-2.33612,13.4845,15.4463,-66.0508,13.3473,-31.9811,94.1485,-16.548,-5.08392,8.36534
3.37439,19.2042,4.03361,-178.697,-23.9321,175.45,14.3367,0.0596369,-0.092048,3.69864,-0.268687,0.336294,-4.1267,-0.280954,0.462498,-11.5972,-2.44346,-5.6637,18.2909,-4.51812,8.65103,7.86875,-1.94055,3.31979,3.85642e-14,2.14687e-14,9.48599,-6.59257,-72.4512,93.3939,10.5158,-31.4961,-6.35037,7.12502,-4.76216,-36.2769,3.85642e-14,2.14687e-14,26.6598,-9.55802,61.8668,58.6289,33.4932,-14.0899,24.0424,7.12502,12.0424,53.6759,-4.00092,25.5302,20.5952,22.2235,-2.1312,13.8569,15.107,-66.105,13.3567,-31.8386,94.2684,-16.4485,-5.11814,8.18614
3.34869,19.2193,4.01321,-178.588,-23.5672,175.319,14.4022,0.0914289,-0.3198,3.65467,-0.261427,0.257386,-4.20839,-0.274651,0.50789,-11.5223,-2.44486,-5.75692,18.2107,-4.5135,8.72543,7.83193,-1.94072,3.36059,4.92986e-14,-9.54166e-15,9.28502,-6.41837,-72.4876,93.5221,10.1145,-31.5263,-5.91495,7.12502,-4.79135,-35.8408,4.92986e-14,-9.54166e-15,27.395,-9.4054,61.8628,58.803,33.9119,-14.0121,24.368,7.12502,12.1174,53.9971,-4.06079,25.533,20.3449,22.2035,-1.91479,14.327,14.7695,-66.0008,13.563,-31.8717,94.2846,-16.4161,-5.2295,8.22658
3.32588,19.2341,3.99355,-178.54,-23.2119,175.35,14.4701,0.136327,-0.415551,3.65354,-0.219713,0.238096,-4.24675,-0.254324,0.534903,-11.7067,-2.46952,-5.89568,18.3058,-4.52526,8.76368,7.90156,-1.94589,3.39579,-3.06128e-14,2.94201e-14,9.19046,-6.30404,-72.4992,93.6368,9.7971,-31.5369,-5.60624,7.12502,-4.80153,-35.5318,-3.06128e-14,2.94201e-14,28.3179,-9.24848,61.9134,58.7811,34.3202,-13.9635,24.338,7.12502,12.1643,53.9644,-4.19441,25.6955,20.2847,22.2319,-1.67395,14.6487,14.3847,-65.9464,13.7797,-31.7499,94.2691,-16.4745,-5.43192,6.80137
3.29711,19.2573,3.98074,-178.345,-22.93,175.214,14.4801,0.154046,-0.55499,3.62273,-0.219283,0.14674,-4.28477,-0.25203,0.517994,-11.7988,-2.45661,-5.9348,18.2636,-4.47058,8.70926,7.89958,-1.92209,3.38926,-3.08116e-14,1.35174e-14,9.04733,-6.21001,-72.5166,93.8151,9.47862,-31.7319,-5.56459,7.12502,-4.98986,-35.4858,-3.08116e-14,1.35174e-14,29.0996,-9.19033,61.8162,58.9432,34.9388,-14.2789,24.7217,7.12502,11.8602,54.3658,-4.39785,25.886,19.9861,22.2758,-1.43871,14.9541,13.8263,-65.87,13.7811,-31.8223,94.1388,-16.6889,-5.73975,5.90388
3.26928,19.2746,3.96895,-178.072,-22.6378,174.913,14.4733,0.194728,-0.895611,3.62151,-0.221119,0.0533155,-4.28213,-0.250825,0.612904,-11.9007,-2.47266,-5.97208,18.1712,-4.43321,8.59182,7.8829,-1.91004,3.35889,-3.79679e-14,-1.59028e-14,9.02276,-6.14929,-72.4888,93.9148,9.16662,-31.7438,-5.31001,7.12502,-5.00133,-35.231,-3.79679e-14,-1.59028e-14,29.8423,-9.00204,61.8972,59.1821,35.5061,-14.7569,25.0283,7.12502,11.3992,54.6984,-4.6054,26.024,19.5001,22.302,-1.30734,15.2941,12.9891,-65.812,13.7551,-32.0431,94.0264,-16.7689,-6.02763,5.86221
3.25265,19.2814,3.94658,-178.092,-22.3604,174.9,14.6308,0.220372,-1.13952,3.63888,-0.231825,0.0521735,-4.34852,-0.25675,0.752573,-12.0268,-2.44479,-5.97186,18.1864,-4.35076,8.4482,7.90101,-1.87742,3.31923,-2.46493e-14,-4.77083e-15,8.82194,-6.0685,-72.5723,94.0974,8.96804,-31.5213,-5.05241,7.12502,-4.78651,-34.9783,-2.46493e-14,-4.77083e-15,30.5848,-8.82184,61.8824,59.3236,36.1315,-14.7511,24.9195,7.12502,11.4048,54.5893,-4.55978,26.4094,19.4839,22.2722,-1.09176,15.3351,12.9141,-65.6807,13.9252,-31.9104,94.0008,-16.8057,-6.21942,5.18507
3.23544,19.2922,3.92347,-178.1,-22.0866,174.859,14.7848,0.22096,-1.32254,3.65509,-0.271192,-0.0200009,-4.41398,-0.277328,0.788493,-12.0369,-2.38061,-5.95363,18.0472,-4.23332,8.40253,7.84628,-1.8215,3.31213,-2.5842e-15,-6.36111e-15,8.75879,-6.00786,-72.7934,94.0883,8.83082,-31.379,-4.8467,7.12502,-4.64914,-34.7757,-2.5842e-15,-6.36111e-15,31.3015,-8.67257,61.7052,59.4886,36.7159,-14.2441,24.8001,7.12502,11.8938,54.4423,-4.50893,26.7368,19.444,22.3018,-0.945382,15.371,12.9027,-65.4918,14.1438,-31.8374,93.9362,-17.0479,-6.27464,3.31061
3.21247,19.3076,3.90648,-178.005,-21.7378,174.688,14.944,0.209265,-1.31767,3.65242,-0.311046,-0.319561,-4.50403,-0.299623,0.47942,-12.0084,-2.307,-5.73425,17.8273,-4.13447,8.3334,7.75545,-1.76452,3.2603,-5.62561e-14,-4.77083e-15,8.86575,-6.12489,-73.2702,93.877,8.70993,-31.269,-4.27738,7.12502,-4.54293,-34.2087,-5.62561e-14,-4.77083e-15,31.9518,-8.62067,61.3304,59.8167,37.3296,-13.932,24.7076,7.12502,12.1947,54.3321,-4.54922,27.2059,19.204,22.3443,-0.690632,15.3527,13.0159,-65.2488,14.3832,-31.924,93.8157,-17.3116,-6.45717,2.93618
3.18857,19.3206,3.89532,-177.815,-21.4407,174.529,15.2124,0.129013,-1.04175,3.53118,-0.405862,-0.796513,-4.78092,-0.347752,-0.158763,-12.1232,-2.25272,-5.49116,17.8021,-4.14326,8.51001,7.76784,-1.73652,3.27616,-1.31198e-14,-7.55382e-15,8.70053,-6.28923,-73.931,93.8763,8.54318,-31.2766,-3.46497,7.12502,-4.55027,-33.3961,-1.31198e-14,-7.55382e-15,32.5542,-8.7165,60.741,60.2016,38.0404,-13.5236,24.7148,7.12502,12.5884,54.3156,-4.75304,27.6335,18.8936,22.4189,-0.434029,15.3071,12.7688,-65.0957,14.5154,-32.0678,93.6644,-17.5688,-6.56856,3.3895
3.15995,19.3301,3.8783,-177.684,-21.1606,174.43,15.2153,0.166456,-1.42362,3.58071,-0.412678,-0.64641,-4.72704,-0.349656,0.216573,-12.295,-2.21672,-5.72588,17.7227,-3.95542,8.26753,7.7576,-1.67133,3.25403,-5.76476e-14,-5.56597e-15,8.73034,-6.03939,-73.6435,94.0623,8.23357,-31.2672,-3.13513,7.12502,-4.5412,-33.0664,-5.76476e-14,-5.56597e-15,33.1943,-8.31928,61.074,60.4355,38.5893,-13.1378,24.8277,7.12502,12.9603,54.4052,-4.9134,27.8636,18.6404,22.5068,-0.0417321,15.3835,13.253,-64.8733,14.6395,-32.1687,93.5103,-17.9586,-6.66862,3.79899
3.12913,19.3436,3.85863,-177.533,-20.8868,174.279,15.1229,0.182285,-1.75593,3.63113,-0.4424,-0.592208,-4.62098,-0.364022,0.466504,-12.3179,-2.12034,-5.79071,17.5838,-3.71813,7.98229,7.69362,-1.58108,3.19392,2.23633e-14,1.19271e-15,8.61479,-5.79147,-73.5058,94.3088,7.92694,-31.4637,-2.8027,7.12502,-4.73086,-32.7299,2.23633e-14,1.19271e-15,33.7766,-8.03067,61.2508,60.7537,39.2288,-13.0237,24.8287,7.12502,13.0704,54.3992,-5.06008,28.0516,18.3419,22.6211,0.266267,15.4879,13.3378,-64.6297,14.7748,-32.3729,93.3216,-18.4335,-6.65616,3.51782
3.09605,19.3524,3.84345,-177.363,-20.5423,174.424,14.9263,0.164636,-1.59391,3.70053,-0.440439,-0.61481,-4.4425,-0.367865,0.349249,-12.5243,-2.07707,-5.79757,17.4866,-3.58943,7.82822,7.68665,-1.52286,3.15607,2.23633e-14,-1.59028e-14,8.57796,-5.67336,-73.6119,94.5864,7.69348,-31.8867,-2.82214,7.12502,-5.13938,-32.7398,2.23633e-14,-1.59028e-14,34.5049,-7.77415,61.1853,61.0387,39.9038,-12.7953,24.9292,7.12502,13.2905,54.4854,-5.39282,28.3692,18.2578,22.7252,0.539615,15.539,13.18,-64.7314,15.093,-32.405,93.2251,-18.7857,-6.59316,3.50306
3.06287,19.3677,3.82581,-177.274,-20.1335,174.439,14.8609,0.193467,-1.50874,3.7997,-0.403935,-0.718012,-4.30448,-0.357062,0.185484,-12.6792,-2.0564,-5.81618,17.3124,-3.50755,7.77383,7.6508,-1.48053,3.14786,-3.19049e-14,1.11319e-14,8.53401,-5.59531,-73.7324,94.8748,7.64023,-31.9811,-3.03274,7.12502,-5.23048,-32.9482,-3.19049e-14,1.11319e-14,35.1775,-7.57929,61.0414,61.4025,40.6855,-12.6621,25.1065,7.12502,13.4189,54.6543,-5.5697,28.6372,18.1001,22.8193,0.856431,15.682,13.1574,-64.5586,15.4866,-32.5562,93.0619,-19.2717,-6.51989,4.29701
3.02986,19.3818,3.80876,-177.271,-19.8154,174.376,14.9677,0.188025,-1.48224,3.82992,-0.424225,-0.835876,-4.33132,-0.371111,0.0511114,-12.5709,-1.95164,-5.68822,17.118,-3.32824,7.56436,7.54903,-1.4048,3.07398,4.55217e-14,6.75868e-15,8.3723,-5.44929,-73.8215,95.0975,7.5863,-32.1765,-2.90683,7.12502,-5.4191,-32.8175,4.55217e-14,6.75868e-15,35.6525,-7.42922,60.9584,61.7474,41.4712,-12.2806,25.1132,7.12502,13.7865,54.6364,-5.59079,28.9131,17.9308,22.8935,1.20883,15.7475,13.7195,-64.18,15.8742,-32.7963,92.8537,-19.7572,-6.39756,5.0187
2.99711,19.3991,3.79706,-177.138,-19.5606,174.289,15.0131,0.122902,-1.50677,3.86145,-0.523924,-0.884395,-4.32189,-0.42316,0.0326303,-12.7394,-1.87496,-5.8046,17.1232,-3.1592,7.46283,7.56864,-1.33319,3.07757,-3.57812e-15,9.14409e-15,8.39553,-5.17954,-73.8267,95.299,7.44655,-32.2461,-2.70151,7.12502,-5.48635,-32.6105,-3.57812e-15,9.14409e-15,36.0977,-7.13092,60.8797,62.1424,42.3547,-11.8709,25.0543,7.12502,14.1814,54.5502,-5.75087,29.1364,17.6527,22.9398,1.46298,15.8236,13.8523,-64.0193,16.1926,-33.1704,92.641,-20.1076,-6.03835,4.40665
2.96443,19.4115,3.78662,-176.978,-19.2551,174.228,15.059,0.0617368,-1.5244,3.89836,-0.617167,-0.918788,-4.3071,-0.472376,0.0239522,-12.9481,-1.78855,-6.01029,17.0994,-2.9674,7.44418,7.58678,-1.24754,3.12602,-4.87022e-15,1.07344e-14,8.35478,-4.8653,-73.8331,95.6132,7.36924,-32.2487,-2.68565,7.12502,-5.48883,-32.5946,-4.87022e-15,1.07344e-14,36.4707,-6.83367,60.6495,62.6712,43.1952,-11.7108,25.4673,7.12502,14.3357,54.9524,-5.9807,29.2433,17.3424,22.9728,1.8466,16.1263,13.7482,-64.0093,16.5144,-33.5391,92.4627,-20.4462,-5.68041,4.19042
2.93175,19.4228,3.77262,-176.918,-18.9837,174.292,15.171,0.0119467,-1.43967,3.95652,-0.683485,-0.939844,-4.30674,-0.510334,-0.0329636,-13.1029,-1.72325,-5.91808,16.889,-2.79272,7.14231,7.52784,-1.17412,3.02655,-1.69961e-14,2.78299e-15,8.32135,-4.61597,-73.8736,95.8479,7.37599,-32.3963,-2.69924,7.12502,-5.6314,-32.6044,-1.69961e-14,2.78299e-15,36.9342,-6.70333,60.4936,62.9993,43.3959,-12.0536,25.3548,7.12502,14.0053,54.863,-6.07262,29.3323,17.2408,22.9499,2.20743,16.4696,13.24,-63.9693,16.8485,-33.734,92.325,-20.7675,-5.43658,4.31535
2.89642,19.4431,3.75678,-176.849,-18.6836,174.346,15.2458,0.00211498,-1.34619,4.02701,-0.696945,-0.987276,-4.27427,-0.522934,-0.132658,-13.2933,-1.69645,-5.79597,16.6843,-2.69866,6.93454,7.48427,-1.12912,2.94508,-2.0276e-14,7.15625e-15,8.30401,-4.49619,-73.8723,96.1065,7.20357,-32.5198,-2.68332,7.12502,-5.75063,-32.5853,-2.0276e-14,7.15625e-15,37.4688,-6.55056,60.438,63.375,43.6613,-12.1635,25.2179,7.12502,13.8994,54.7334,-6.17561,29.5104,17.1045,22.8676,2.60147,16.708,12.7552,-63.8896,17.2308,-33.95,92.1836,-21.1022,-5.14419,4.23511
2.85864,19.4653,3.74345,-176.734,-18.4116,174.403,15.2884,-0.0068505,-1.15184,4.09114,-0.693477,-1.07028,-4.23259,-0.527071,-0.330213,-13.5261,-1.67278,-5.68236,16.5758,-2.62535,6.77234,7.4819,-1.09149,2.87907,1.70955e-14,-2.10712e-14,8.22613,-4.5109,-73.9058,96.4606,6.95517,-32.6661,-2.45458,7.12502,-5.89184,-32.3527,1.70955e-14,-2.10712e-14,38.1006,-6.39559,60.4276,63.7802,44.2859,-11.712,25.4395,7.12502,14.3345,54.9247,-6.34916,29.6811,16.9212,22.7518,3.18147,16.7364,13.1283,-63.8855,17.5848,-34.2107,92.0624,-21.3193,-4.74489,3.71676
2.81943,19.4812,3.73064,-176.706,-18.2086,174.577,15.4452,-0.0711142,-0.841469,4.10596,-0.739513,-1.08696,-4.3047,-0.55364,-0.513366,-13.5785,-1.59703,-5.68043,16.4,-2.47813,6.67903,7.42277,-1.02398,2.86182,6.75868e-15,1.59028e-15,8.04257,-4.40633,-73.8615,96.8234,6.82852,-32.8977,-2.31508,7.12502,-6.1154,-32.2068,6.75868e-15,1.59028e-15,38.5189,-6.18967,60.5381,64.2856,44.9698,-10.8785,25.9918,7.12502,15.1376,55.4182,-6.41519,29.8017,16.9193,22.6199,3.66648,16.862,12.8456,-63.8611,17.7861,-34.2775,91.9846,-21.4377,-4.44727,3.659
2.78008,19.4959,3.71325,-176.61,-18.0952,174.553,15.5003,-0.167555,-0.795037,4.1148,-0.86341,-1.08536,-4.32605,-0.616181,-0.514067,-13.5388,-1.4865,-5.69063,16.2289,-2.27293,6.50746,7.34448,-0.93873,2.82672,-3.98563e-14,6.75868e-15,7.83559,-4.16381,-73.7817,97.1438,6.77282,-32.9177,-2.36533,7.12502,-6.13478,-32.2565,-3.98563e-14,6.75868e-15,38.877,-5.9441,60.7185,64.6804,45.4346,-10.1429,26.1995,7.12502,15.846,55.5711,-6.45346,29.9248,16.7205,22.5362,4.1505,16.9872,12.8569,-63.7733,17.8384,-34.4859,91.9118,-21.5346,-4.34059,4.4808
2.73798,19.5151,3.68791,-176.462,-18.0625,174.247,15.4678,-0.266716,-0.988165,4.19151,-1.03936,-1.17936,-4.2273,-0.707142,-0.471268,-13.6494,-1.3742,-5.63918,16.1504,-2.08463,6.37103,7.32417,-0.852345,2.79212,4.48259e-14,-2.0276e-14,7.68658,-3.97815,-73.7352,97.4797,6.64164,-33.0769,-2.28304,7.12502,-6.28842,-32.1697,4.48259e-14,-2.0276e-14,39.335,-5.78464,60.6759,65.0344,45.9143,-9.93886,26.2231,7.12502,16.0425,55.5789,-6.39113,29.9411,16.271,22.5355,4.54226,17.1249,13.117,-63.5217,17.8191,-34.9398,91.8096,-21.7033,-4.25479,4.96978
2.70741,19.5242,3.69025,-176.391,-17.743,174.572,15.7848,-0.300717,-0.683238,4.14095,-1.0405,-1.12485,-4.45481,-0.709054,-0.581771,-13.7066,-1.3018,-5.55588,15.9695,-1.95787,6.25411,7.26549,-0.7918,2.75119,7.97127e-14,-1.59028e-14,7.56249,-3.88269,-73.7878,97.8694,6.58666,-33.0303,-2.18946,7.12502,-6.24344,-32.0775,7.97127e-14,-1.59028e-14,39.7131,-5.61473,60.699,65.5395,46.2264,-9.86724,26.3762,7.12502,16.1115,55.7264,-6.79107,30.3076,16.3103,22.6192,5.072,17.1415,13.2316,-63.8499,18.1273,-34.7877,91.8731,-21.5846,-4.25073,4.62337
2.67531,19.5298,3.68735,-176.246,-17.5268,174.843,15.9882,-0.343997,-0.378204,4.05626,-1.04464,-1.09411,-4.65767,-0.710306,-0.718188,-13.7297,-1.27535,-5.4528,15.9107,-1.92389,6.18549,7.24681,-0.773858,2.71437,-1.39149e-15,-1.70955e-14,7.33042,-3.81069,-73.7765,98.2071,6.6009,-33.2702,-2.11351,7.12502,-6.47509,-31.9945,-1.39149e-15,-1.70955e-14,40.08,-5.51821,60.7535,66.0799,46.6106,-9.06193,26.7144,7.12502,16.8868,56.0002,-7.22664,30.5403,16.2905,22.7099,5.4821,17.2323,13.4271,-64.1522,18.2722,-34.669,91.9179,-21.3858,-4.32649,3.90366
2.64231,19.5393,3.68166,-176.06,-17.1013,174.998,16.1205,-0.335316,-0.284769,3.98838,-1.01434,-1.06085,-4.80114,-0.694369,-0.739962,-13.8028,-1.21979,-5.48048,15.9023,-1.82057,6.11513,7.25004,-0.729696,2.70659,-2.28602e-15,7.55382e-15,7.1915,-3.63189,-73.709,98.5477,6.53792,-33.2751,-2.06624,7.12502,-6.47975,-31.9471,-2.28602e-15,7.55382e-15,40.3947,-5.3166,60.8077,66.6005,46.8972,-8.6742,27.0335,7.12502,17.26,56.287,-7.7418,30.7873,16.0832,22.8177,6.08144,17.3789,14.237,-64.4508,18.536,-34.6746,91.9499,-21.2436,-4.46192,3.81491
2.60673,19.5614,3.67333,-176.006,-16.7996,174.864,16.3864,-0.327312,-0.446256,4.04181,-1.05137,-1.10023,-4.88637,-0.717851,-0.679387,-13.9989,-1.13732,-5.4929,15.9526,-1.68982,6.09635,7.29254,-0.664946,2.71705,3.53837e-14,-1.07344e-14,7.10588,-3.52598,-73.7015,98.8634,6.50981,-33.3447,-1.94078,7.12502,-6.54696,-31.8196,3.53837e-14,-1.07344e-14,40.7741,-5.21837,60.7665,67.0631,47.4197,-8.9765,27.0607,7.12502,16.9691,56.3395,-7.89105,30.9854,15.7604,22.886,6.60975,17.5164,14.3247,-64.3461,18.7166,-34.8469,91.8839,-21.1519,-4.72273,4.78292
2.56859,19.5797,3.64752,-176.097,-17.4541,174.561,16.6742,-0.609553,-0.508687,4.18375,-1.46561,-1.18173,-4.89527,-0.931163,-0.642097,-14.1133,-1.09762,-5.49775,15.9591,-1.64548,6.19119,7.31269,-0.633145,2.75417,-6.66923e-14,-7.55382e-15,6.89893,-3.55551,-73.6837,99.2224,6.48977,-33.5113,-1.88535,7.12502,-6.70783,-31.7591,-6.66923e-14,-7.55382e-15,41.2668,-5.24203,60.7694,67.5358,47.5944,-8.4438,27.1491,7.12502,17.4818,56.383,-7.33277,30.8639,15.7293,22.9078,6.59783,17.1446,14.2539,-63.6922,18.1221,-34.9843,91.7444,-21.1087,-5.05883,5.48557
2.5282,19.5979,3.63507,-176.243,-17.1371,174.402,17.1989,-0.567139,-0.622185,4.22292,-1.46201,-1.24103,-5.13395,-0.937099,-0.631781,-14.1101,-1.0938,-5.60166,15.9493,-1.64176,6.31651,7.31034,-0.626831,2.81312,-5.86415e-15,5.56597e-15,6.65141,-3.45484,-73.5705,99.575,6.42511,-33.776,-2.24224,7.12502,-6.96336,-32.1077,-5.86415e-15,5.56597e-15,41.6613,-5.26177,60.9124,68.0162,47.7416,-8.0127,27.3199,7.12502,17.8966,56.5165,-7.11849,30.879,15.5246,22.8624,7.21941,17.3713,15.2669,-63.3073,18.4171,-35.1997,91.6032,-21.1754,-4.86763,4.29351
2.49372,19.6163,3.62115,-176.215,-17.0369,174.364,17.5017,-0.647477,-0.7,4.17243,-1.5886,-1.22405,-5.34857,-0.99854,-0.536168,-13.999,-1.06448,-5.66939,15.9724,-1.59825,6.31978,7.29588,-0.613337,2.82985,-6.85807e-15,-6.36111e-15,6.52701,-3.11585,-73.5162,99.7925,6.1464,-33.9876,-2.6272,7.12502,-7.16759,-32.4858,-6.85807e-15,-6.36111e-15,41.7806,-5.19037,61.0178,68.6302,47.8933,-8.06419,27.7259,7.12502,17.8471,56.9269,-7.09963,30.967,15.4183,22.817,7.59914,17.2548,15.4702,-63.2014,18.4405,-35.2872,91.4584,-21.0733,-4.79048,3.45228
2.45138,19.6401,3.59694,-176.111,-17.0005,174.267,17.5622,-0.724437,-0.73018,4.11342,-1.69609,-1.27436,-5.44547,-1.04868,-0.547175,-13.7255,-1.02521,-5.67942,15.9622,-1.58278,6.41046,7.24389,-0.606816,2.86181,-3.72721e-14,-1.59028e-15,6.32615,-2.95307,-73.5618,99.9886,6.01874,-33.8922,-2.80894,7.12502,-7.07546,-32.6707,-3.72721e-14,-1.59028e-15,41.8922,-5.25286,61.1494,69.2437,48.0284,-7.90052,28.2665,7.12502,18.0046,57.4531,-7.06234,31.0897,15.2679,22.8121,7.81149,16.9674,15.6766,-63.0139,18.4783,-35.4594,91.2921,-21.0902,-4.90962,3.18988
2.40614,19.6646,3.57035,-176.021,-16.8819,174.081,17.6464,-0.765022,-0.821102,4.11625,-1.78012,-1.37745,-5.48913,-1.09141,-0.584725,-13.7324,-0.969525,-5.51114,16.0614,-1.53911,6.33657,7.27272,-0.58443,2.81486,3.65764e-14,-1.82882e-14,6.13436,-2.95216,-73.6803,100.233,6.11123,-33.8193,-2.85269,7.12502,-7.00515,-32.7168,3.65764e-14,-1.82882e-14,42.1288,-5.3479,61.1582,69.822,48.0763,-8.03731,28.9829,7.12502,17.8729,58.1816,-6.95706,31.1413,15.0369,22.8032,8.00707,16.8392,15.2728,-62.7118,18.6121,-35.7355,91.1072,-21.1767,-5.07382,3.34509
