JuanDHNZ/ProyectoFinalCD/preprocessing/sports_trials_csv/13_32.csv
root1,root2,root3,root4,root5,root6,lowerback1,lowerback2,lowerback3,upperback1,upperback2,upperback3,thorax1,thorax2,thorax3,lowerneck1,lowerneck2,lowerneck3,upperneck1,upperneck2,upperneck3,head1,head2,head3,rclavicle1,rclavicle2,rhumerus1,rhumerus2,rhumerus3,rradius1,rwrist1,rhand1,rhand2,rfingers1,rthumb1,rthumb2,lclavicle1,lclavicle2,lhumerus1,lhumerus2,lhumerus3,lradius1,lwrist1,lhand1,lhand2,lfingers1,lthumb1,lthumb2,rfemur1,rfemur2,rfemur3,rtibia1,rfoot1,rfoot2,rtoes1,lfemur1,lfemur2,lfemur3,ltibia1,lfoot1,lfoot2,ltoes1
-0.660048,18.9041,-11.8959,1.15417,-4.69578,1.18952,3.74189,0.2934,-2.32008,-0.0304567,0.266109,-1.05453,-2.13493,0.151703,0.203629,-7.69222,-6.28614,-9.28672,12.3391,-8.50432,8.55115,5.75019,-4.03542,3.54932,-5.46658e-15,1.23246e-14,-31.6853,-5.60116,-80.6066,25.0971,20.4224,-20.6581,-1.05489,7.12502,5.70448,-30.9581,-5.46658e-15,1.23246e-14,-34.6409,18.0609,75.2714,21.3721,-6.31428,-17.9753,24.8862,7.12502,8.29415,54.7033,-2.26638,22.5005,18.0474,15.9154,-13.5629,-16.8655,-4.17081,1.6036,-8.0786,-20.8271,10.5324,-12.7191,18.5325,-3.94762
-0.662405,18.9041,-11.8995,1.18523,-4.60335,1.26007,3.82087,0.27943,-2.41143,-0.0373489,0.24045,-1.06254,-2.1862,0.140333,0.247581,-7.78532,-6.12504,-9.20438,12.4577,-8.28804,8.50541,5.77732,-3.92638,3.53881,-5.95112e-15,-4.77083e-15,-31.7646,-5.47511,-80.6324,25.2105,20.2931,-20.7578,-1.13914,7.12502,5.60816,-31.0449,-5.95112e-15,-4.77083e-15,-34.6356,18.0012,75.2886,21.3695,-6.43203,-17.8007,25.2848,7.12502,8.46264,55.0952,-2.36227,22.4806,17.9734,16.0336,-13.6291,-16.9334,-3.98583,1.60999,-8.14021,-20.877,10.3626,-12.57,18.529,-3.92144
-0.663893,18.9029,-11.8994,1.19645,-4.5708,1.26438,3.89033,0.280621,-2.4116,-0.036145,0.239841,-1.0555,-2.22396,0.140403,0.254606,-8.01654,-5.97658,-9.08131,12.7191,-8.08347,8.39771,5.86992,-3.82095,3.49697,-2.06239e-15,-8.34896e-15,-31.8397,-5.35541,-80.6499,25.3381,20.1912,-20.6999,-1.29422,7.12502,5.66411,-31.1985,-2.06239e-15,-8.34896e-15,-34.645,17.9328,75.3282,21.3805,-6.43677,-17.6343,25.3489,7.12502,8.62325,55.1528,-2.38672,22.5514,17.9767,16.0689,-13.6617,-17.0301,-3.97363,1.55785,-8.14709,-20.8707,10.3935,-12.5322,18.5294,-3.91269
-0.667027,18.903,-11.9015,1.26578,-4.52539,1.19584,3.92379,0.267173,-2.3783,-0.0570524,0.222745,-1.01721,-2.26385,0.13222,0.276036,-8.18475,-5.80039,-9.09239,12.9556,-7.84547,8.41868,5.95209,-3.69906,3.52318,-1.32192e-14,-9.14409e-15,-31.8351,-5.36873,-80.636,25.3206,20.2615,-20.694,-1.48414,7.12502,5.6698,-31.3883,-1.32192e-14,-9.14409e-15,-34.6662,17.817,75.404,21.4301,-6.324,-17.6839,25.5746,7.12502,8.5754,55.3804,-2.50169,22.5985,18.0439,16.1298,-13.6744,-17.1206,-4.0255,1.47787,-8.15412,-20.7628,10.376,-12.4923,18.5098,-3.93152
-0.669135,18.9031,-11.9065,1.31667,-4.4259,1.19435,3.98819,0.231125,-2.42038,-0.0211575,0.171998,-0.991185,-2.26215,0.107282,0.329183,-8.53042,-5.64116,-9.13203,13.2486,-7.6171,8.45078,6.08519,-3.57776,3.55298,3.93842e-15,1.43125e-14,-31.6903,-5.28827,-80.6722,25.3008,20.1633,-20.654,-1.58132,7.12502,5.70845,-31.4844,3.93842e-15,1.43125e-14,-34.578,17.8594,75.465,21.4434,-6.39204,-17.9121,25.6512,7.12502,8.35514,55.4659,-2.57991,22.6352,18.046,16.1708,-13.6945,-17.2512,-3.98704,1.36866,-8.13736,-20.7278,10.4107,-12.3992,18.404,-4.34783
-0.669257,18.9019,-11.9108,1.31317,-4.37309,1.22754,4.07039,0.218225,-2.46185,0.0735775,0.152295,-0.985853,-2.2105,0.0967989,0.35906,-8.77498,-5.48542,-9.09102,13.2778,-7.38893,8.43729,6.11327,-3.4596,3.55812,-4.72114e-16,2.38542e-15,-31.5605,-5.16903,-80.7292,25.382,20.0616,-20.7791,-1.57438,7.12502,5.5876,-31.4807,-4.72114e-16,2.38542e-15,-34.3632,18.0048,75.505,21.4142,-6.5456,-17.87,25.5988,7.12502,8.39581,55.4119,-2.59463,22.5953,18.0117,16.2018,-13.7133,-17.2624,-3.8252,1.301,-8.09792,-20.7516,10.4813,-12.3001,18.3423,-4.60952
-0.669748,18.902,-11.9144,1.32574,-4.36636,1.19146,4.12169,0.220279,-2.42853,0.143505,0.156926,-0.962969,-2.16743,0.0979878,0.363668,-8.85593,-5.31024,-9.02985,13.2279,-7.14328,8.40817,6.08539,-3.33763,3.56041,1.63997e-15,2.18663e-14,-31.5187,-5.04999,-80.7519,25.4618,20.0332,-20.9502,-1.04994,7.12502,5.42241,-30.9606,1.63997e-15,2.18663e-14,-34.2108,17.9963,75.5927,21.443,-6.4856,-17.7833,25.5111,7.12502,8.47949,55.3208,-2.64245,22.5916,18.0522,16.2555,-13.7068,-17.2833,-3.84076,1.24706,-8.02799,-20.6931,10.5126,-12.2625,18.2771,-4.59673
-0.669395,18.9036,-11.9156,1.40642,-4.31966,1.21972,4.14986,0.218823,-2.4297,0.122473,0.153119,-0.980254,-2.20472,0.0965136,0.346636,-8.86319,-5.16599,-9.01434,13.2976,-6.95766,8.44667,6.09204,-3.24373,3.58789,3.00662e-15,-1.70955e-14,-31.6209,-5.03764,-80.7571,25.5881,20.0941,-21.0277,-0.823441,7.12502,5.34764,-30.736,3.00662e-15,-1.70955e-14,-34.2198,17.8978,75.6286,21.5125,-6.373,-17.8071,25.4571,7.12502,8.45652,55.2677,-2.77872,22.5524,17.9826,16.3317,-13.7441,-17.2726,-3.97523,1.14924,-7.99111,-20.7042,10.5172,-12.2435,18.1973,-4.4584
-0.670443,18.9051,-11.9179,1.48247,-4.2631,1.32013,4.24642,0.242703,-2.49952,0.0626625,0.175627,-1.0325,-2.32105,0.109723,0.330159,-8.75923,-5.0395,-8.91133,13.3652,-6.80274,8.38684,6.0751,-3.17,3.56868,-1.57288e-14,-5.56597e-15,-31.7277,-5.16396,-80.7377,25.6392,20.1826,-20.8707,-0.866595,7.12502,5.49921,-30.7752,-1.57288e-14,-5.56597e-15,-34.2846,17.7184,75.6573,21.5888,-6.36477,-17.9094,25.5559,7.12502,8.35781,55.3706,-2.89926,22.5145,17.837,16.3668,-13.7271,-17.2895,-4.07992,0.99843,-7.96777,-20.7883,10.5999,-12.1975,18.1261,-4.84048
-0.672463,18.9048,-11.9225,1.53073,-4.20193,1.35307,4.30841,0.246391,-2.52558,0.0640773,0.176701,-1.04874,-2.35445,0.110772,0.327761,-8.69378,-4.90698,-8.7782,13.4102,-6.62985,8.2666,6.05339,-3.0893,3.5257,-1.54804e-14,-2.0276e-14,-31.689,-5.17716,-80.7569,25.5711,20.1765,-20.8086,-0.758352,7.12502,5.55918,-30.6654,-1.54804e-14,-2.0276e-14,-34.2461,17.582,75.7163,21.6146,-6.29517,-17.9962,25.2921,7.12502,8.274,55.1101,-2.97902,22.5083,17.79,16.4023,-13.7359,-17.3595,-4.07629,0.85748,-7.98011,-20.7925,10.6961,-12.2188,18.0564,-4.82835
-0.674138,18.9051,-11.9261,1.59855,-4.12193,1.24562,4.30345,0.226309,-2.41692,0.111063,0.15736,-1.01783,-2.30257,0.0992954,0.30005,-8.65727,-4.76644,-8.7783,13.3905,-6.44786,8.32541,6.02618,-2.99786,3.56213,7.57867e-15,-1.98785e-14,-31.6082,-5.17659,-80.7666,25.5379,20.2583,-20.7382,-0.224776,7.12502,5.62716,-30.1301,7.57867e-15,-1.98785e-14,-34.1361,17.5622,75.7554,21.618,-6.38466,-18.023,25.0142,7.12502,8.24815,54.8332,-3.02644,22.5241,17.9061,16.3934,-13.7531,-17.4547,-4.02941,0.680372,-7.98635,-20.6419,10.8571,-12.2411,17.981,-4.9335
-0.674625,18.9068,-11.9304,1.70176,-4.02724,1.24224,4.29225,0.202586,-2.40211,0.14444,0.127613,-1.01831,-2.26122,0.0837102,0.29325,-8.58351,-4.62482,-8.872,13.3574,-6.27102,8.50195,5.99529,-2.90639,3.65188,-8.27441e-15,7.15625e-15,-31.5986,-5.07486,-80.8207,25.6488,20.2024,-20.7871,0.0925296,7.12502,5.57993,-29.814,-8.27441e-15,7.15625e-15,-34.0533,17.5136,75.8134,21.7145,-6.38682,-17.9379,25.1031,7.12502,8.33022,54.9189,-3.11169,22.5312,17.8778,16.3335,-13.7382,-17.5539,-3.97111,0.422126,-7.96298,-20.6008,11.0773,-12.3096,17.8622,-5.00379
-0.673938,18.9129,-11.9346,1.77551,-3.94053,1.34023,4.35877,0.202992,-2.44999,0.157725,0.122258,-1.08292,-2.28474,0.0813473,0.253855,-8.56908,-4.47888,-8.78679,13.3502,-6.09215,8.55494,5.97275,-2.812,3.67141,-7.1314e-15,-2.90226e-14,-31.6209,-5.10064,-80.8715,25.7104,20.2594,-20.8207,0.126217,7.12502,5.5475,-29.7812,-7.1314e-15,-2.90226e-14,-33.991,17.2829,75.8838,21.8402,-6.28148,-17.9239,25.0591,7.12502,8.34376,54.8743,-3.19232,22.4816,17.7336,16.3139,-13.7509,-17.5731,-3.91803,0.198596,-7.88188,-20.6652,11.2316,-12.2754,17.6967,-5.04155
-0.673333,18.9193,-11.9361,1.81341,-3.91048,1.44118,4.47793,0.233438,-2.51647,0.176074,0.154396,-1.13526,-2.33348,0.0981325,0.234913,-8.76739,-4.35827,-8.60579,13.4861,-5.92896,8.44237,6.02576,-2.72607,3.61723,7.28049e-15,2.18663e-14,-31.5766,-5.17025,-80.8856,25.6796,20.3037,-20.8053,0.194973,7.12502,5.56235,-29.712,7.28049e-15,2.18663e-14,-33.8579,17.139,75.9391,21.8834,-6.23821,-17.934,24.8962,7.12502,8.33398,54.7118,-3.28774,22.4648,17.595,16.3795,-13.7605,-17.5839,-4.06319,0.0835195,-7.81563,-20.7502,11.2909,-12.2384,17.5801,-5.11402
-0.673986,18.9132,-11.9382,1.85417,-3.85533,1.43893,4.57779,0.27148,-2.46216,0.233868,0.204808,-1.17138,-2.3308,0.122087,0.163893,-9.0978,-4.26287,-8.59033,13.7519,-5.80576,8.53289,6.15731,-2.64983,3.65122,9.24349e-15,1.39149e-14,-31.516,-5.33521,-80.8858,25.7539,20.329,-20.8144,0.166165,7.12502,5.5535,-29.7411,9.24349e-15,1.39149e-14,-33.6127,16.8774,76.0623,21.8809,-6.1513,-17.9451,25.1773,7.12502,8.32333,54.9933,-3.37208,22.4893,17.5913,16.4532,-13.8137,-17.6589,-4.01342,0.0102211,-7.69531,-20.7241,11.3407,-12.2232,17.404,-5.43733
-0.67591,18.9062,-11.9428,1.93653,-3.76039,1.342,4.63405,0.276282,-2.3537,0.259116,0.2163,-1.14014,-2.33627,0.126731,0.13433,-9.25065,-4.14008,-8.79772,13.9362,-5.6509,8.82074,6.24153,-2.56016,3.79222,-1.2424e-15,-3.18055e-15,-31.5282,-5.31265,-80.87,25.8194,20.2379,-20.9663,0.46339,7.12502,5.40687,-29.4476,-1.2424e-15,-3.18055e-15,-33.5155,16.756,76.1651,21.9559,-6.11598,-17.9944,25.6284,7.12502,8.27573,55.4463,-3.52199,22.5336,17.6886,16.5654,-13.827,-17.7905,-3.91314,-0.100217,-7.64594,-20.5783,11.342,-12.2007,17.2576,-6.4285
-0.677163,18.9051,-11.9461,2.00514,-3.66539,1.27719,4.71224,0.260636,-2.30668,0.264052,0.196275,-1.10676,-2.37455,0.116725,0.143304,-9.22358,-4.02338,-8.87168,13.9834,-5.50407,8.94474,6.24306,-2.48438,3.85925,-4.79568e-15,-7.95139e-15,-31.5487,-5.1787,-80.8917,25.7891,20.1461,-21.0584,0.511414,7.12502,5.31793,-29.4019,-4.79568e-15,-7.95139e-15,-33.4984,16.6796,76.2084,22.0726,-5.9455,-17.8362,26.0313,7.12502,8.42838,55.8431,-3.68393,22.5843,17.7497,16.7539,-13.9363,-17.9083,-3.85556,-0.186087,-7.71249,-20.4799,11.2977,-12.1232,17.2376,-7.42501
-0.676828,18.9063,-11.9517,2.10868,-3.55152,1.31407,4.77796,0.240444,-2.33195,0.261969,0.165822,-1.10542,-2.41303,0.102173,0.160605,-9.10477,-3.93472,-8.78645,13.9062,-5.37899,8.81574,6.18042,-2.43188,3.81564,3.72721e-16,-3.1408e-14,-31.5902,-5.01698,-80.9311,25.861,20.0091,-21.0098,0.284789,7.12502,5.36493,-29.6273,3.72721e-16,-3.1408e-14,-33.4274,16.7022,76.2284,22.0401,-6.10074,-17.7144,25.8709,7.12502,8.54592,55.678,-3.90744,22.5388,17.6627,16.9389,-14.0095,-17.9701,-3.85172,-0.377163,-7.71628,-20.4989,11.364,-12.0224,17.1619,-7.95021
-0.680271,18.9084,-11.9701,2.33852,-3.15908,1.4569,4.86851,0.134337,-2.47576,0.236238,0.0121886,-1.13492,-2.48731,0.0279221,0.221074,-9.09631,-3.84748,-8.70943,13.841,-5.25855,8.76017,6.14361,-2.37388,3.79536,6.28657e-15,-2.42517e-14,-31.5272,-4.95276,-80.9748,25.9666,19.9234,-21.002,0.278854,7.12502,5.37243,-29.633,6.28657e-15,-2.42517e-14,-33.2689,16.6115,76.3075,22.051,-6.258,-17.6679,25.9713,7.12502,8.59081,55.7765,-4.25067,22.4016,17.4435,17.097,-14.1213,-18.2115,-3.66932,-0.842508,-7.6513,-20.5457,11.5183,-11.8378,16.7375,-8.15801
-0.687367,18.9108,-11.9943,2.66381,-2.55942,1.57139,4.98799,-0.0413518,-2.65662,0.171584,-0.237254,-1.11446,-2.61467,-0.092317,0.360921,-9.15617,-3.72825,-8.76307,13.7666,-5.09278,8.85841,6.1189,-2.28799,3.84983,9.93923e-15,1.98785e-14,-31.453,-4.85601,-80.9856,26.0634,19.8161,-21.0042,0.159183,7.12502,5.37025,-29.7528,9.93923e-15,1.98785e-14,-33.1473,16.4745,76.4543,22.1937,-6.2726,-17.6106,26.0351,7.12502,8.64611,55.838,-4.65295,22.1331,17.2545,17.2293,-14.2423,-18.5287,-3.45033,-1.51531,-7.48496,-20.502,11.773,-11.554,16.0605,-8.48699
-0.690734,18.912,-12.0082,2.87511,-2.21528,1.60982,5.10765,-0.136649,-2.73387,0.12547,-0.373774,-1.09687,-2.72525,-0.157643,0.432541,-9.16499,-3.64498,-8.71082,13.7101,-4.9833,8.86511,6.09117,-2.23168,3.85258,7.0817e-15,-1.07344e-14,-31.5374,-4.71282,-81.0172,26.279,19.6982,-20.9079,-0.113988,7.12502,5.46332,-30.0236,7.0817e-15,-1.07344e-14,-33.1355,16.3316,76.5454,22.3241,-6.4264,-17.8099,25.7482,7.12502,8.45384,55.559,-4.91308,21.9848,17.1631,17.2996,-14.2704,-18.7183,-3.44941,-2.05685,-7.3779,-20.4474,12.1733,-11.4968,15.6476,-8.67288
-0.692821,18.9124,-12.0188,3.00071,-2.15233,1.40771,5.27931,-0.109844,-2.54407,0.109292,-0.332063,-1.0492,-2.84006,-0.137723,0.372792,-9.18673,-3.62161,-8.57739,13.7094,-4.96048,8.80569,6.08776,-2.21736,3.81287,-3.2054e-15,-1.43125e-14,-31.669,-4.71055,-81.0341,26.5097,19.6438,-20.8823,-0.127149,7.12502,5.48799,-30.0361,-3.2054e-15,-1.43125e-14,-33.0791,16.0395,76.6711,22.4879,-6.16315,-17.7679,25.6125,7.12502,8.49429,55.4216,-5.10313,22.0491,17.3412,17.3041,-14.2307,-18.8361,-3.30102,-2.48439,-7.26247,-20.168,12.6075,-11.5588,15.451,-8.86444
-0.697059,18.9134,-12.0296,3.14328,-2.1545,1.10979,5.39533,-0.0635964,-2.29731,0.147777,-0.25574,-0.960302,-2.86786,-0.102476,0.320465,-9.30656,-3.58226,-8.51354,13.7271,-4.90576,8.79023,6.10709,-2.18551,3.80089,4.57205e-15,1.19271e-15,-31.607,-4.70813,-81.046,26.625,19.5549,-20.9201,0.173683,7.12502,5.45149,-29.7362,4.57205e-15,1.19271e-15,-32.9001,15.7929,76.8276,22.7216,-5.56749,-17.4211,25.7143,7.12502,8.82897,55.5096,-5.32161,22.2243,17.6222,17.2905,-14.1275,-18.9976,-3.2735,-2.88655,-7.14487,-19.7808,12.9681,-11.603,15.3332,-9.02729
-0.697388,18.9144,-12.0305,3.21414,-2.09385,1.07421,5.38409,-0.0571036,-2.28511,0.246497,-0.242393,-0.910509,-2.75985,-0.0972998,0.363806,-9.2874,-3.54419,-8.46308,13.5876,-4.83541,8.6723,6.0496,-2.15819,3.75958,4.22417e-15,-1.82882e-14,-31.5168,-4.52579,-81.0435,26.7342,19.3638,-20.7985,0.425724,7.12502,5.56891,-29.4811,4.22417e-15,-1.82882e-14,-32.7906,15.6443,77.0162,22.9396,-5.32302,-17.3838,25.5459,7.12502,8.86495,55.3397,-5.40491,22.2899,17.6412,17.296,-14.1609,-19.097,-3.12783,-3.15614,-7.05624,-19.7207,13.313,-11.7115,15.1905,-8.85581
-0.692032,18.9136,-12.0333,3.3375,-2.19619,1.21442,5.40889,0.011302,-2.36619,0.256696,-0.158513,-0.966989,-2.76517,-0.0548851,0.344726,-9.22188,-3.53441,-8.30585,13.5107,-4.81872,8.49595,6.00473,-2.15643,3.67796,1.36664e-15,-1.98785e-15,-31.5699,-4.38939,-81.0664,26.8801,19.1629,-20.6791,0.406075,7.12502,5.68418,-29.4977,1.36664e-15,-1.98785e-15,-32.754,15.4246,77.1119,22.9875,-5.45337,-17.5759,25.272,7.12502,8.67965,55.0735,-5.61336,22.1336,17.3702,17.3501,-14.157,-18.8589,-3.18887,-3.4623,-6.89062,-19.8943,13.6257,-11.8082,15.1349,-8.96963
-0.687158,18.9136,-12.0475,3.65862,-2.53663,1.23159,5.39188,0.188988,-2.36371,0.207272,0.0765018,-1.00724,-2.81202,0.0625369,0.28369,-9.28929,-3.5054,-8.19243,13.5069,-4.78696,8.46995,6.009,-2.1354,3.65273,-8.34896e-15,-9.93923e-15,-31.63,-4.4348,-81.0544,27.0958,19.0482,-20.7817,0.240296,7.12502,5.58513,-29.6661,-8.34896e-15,-9.93923e-15,-32.6136,15.0736,77.2685,23.064,-5.42633,-17.5736,25.4708,7.12502,8.6818,55.2723,-6.19839,21.9613,17.0836,17.4589,-14.0324,-18.3877,-3.41305,-3.97848,-6.547,-19.9212,13.8669,-11.8126,15.151,-9.11428
-0.684524,18.9152,-12.0609,3.90739,-2.72431,1.19846,5.38197,0.300092,-2.2998,0.235551,0.228724,-1.02688,-2.78034,0.136886,0.216021,-9.32632,-3.47002,-8.15326,13.3872,-4.74286,8.5249,5.97431,-2.10764,3.66657,1.71452e-15,-2.70347e-14,-31.6333,-4.35799,-81.0895,27.374,18.923,-20.9124,-0.142559,7.12502,5.45893,-30.0522,1.71452e-15,-2.70347e-14,-32.4138,14.6563,77.4889,23.247,-5.16848,-17.4708,25.9875,7.12502,8.78107,55.7848,-6.68217,21.8947,16.9326,17.5913,-13.9023,-18.1536,-3.61342,-4.42313,-6.26446,-19.8752,14.1296,-11.8645,15.0698,-9.22026
-0.682289,18.9163,-12.066,4.00024,-2.71321,1.14617,5.43586,0.314267,-2.21029,0.336068,0.253972,-1.01063,-2.70708,0.147223,0.180789,-9.31215,-3.42317,-8.11421,13.1712,-4.67384,8.53367,5.89746,-2.0728,3.6675,1.98785e-15,6.16232e-15,-31.5882,-4.20819,-81.1143,27.5691,18.9286,-20.9694,-0.109028,7.12502,5.4039,-30.0201,1.98785e-15,6.16232e-15,-32.2825,14.5179,77.631,23.4628,-5.06529,-17.5362,25.7935,7.12502,8.71791,55.5934,-6.86996,21.8922,16.9332,17.6926,-13.9228,-18.1574,-3.68072,-4.72609,-6.10067,-19.812,14.486,-11.9103,14.9262,-9.54862
-0.681262,18.9152,-12.0715,4.08495,-2.7238,1.13805,5.52418,0.349676,-2.18922,0.426192,0.301776,-1.0011,-2.66454,0.169943,0.175008,-9.32892,-3.39618,-8.08559,12.9599,-4.62941,8.54859,5.83015,-2.04928,3.66969,-1.68967e-15,-9.93923e-16,-31.5229,-4.16692,-81.1009,27.6525,18.9787,-21.027,0.0990864,7.12502,5.34831,-29.8134,-1.68967e-15,-9.93923e-16,-32.1017,14.3318,77.7909,23.557,-4.88132,-17.6207,25.2438,7.12502,8.63637,55.0472,-7.02302,21.9652,16.8879,17.7474,-13.9349,-18.199,-3.643,-5.06748,-6.00625,-19.7947,14.9127,-12.0538,14.8293,-9.60235
-0.680907,18.9131,-12.0809,4.19077,-2.66873,1.06393,5.72749,0.375398,-2.13926,0.447937,0.335009,-0.942362,-2.7567,0.186806,0.203692,-9.3769,-3.38745,-8.14911,12.8828,-4.60594,8.59183,5.81478,-2.03708,3.69514,-4.96962e-16,1.13307e-14,-31.5744,-4.0324,-81.0492,27.819,18.9518,-21.0198,0.15197,7.12502,5.35521,-29.7604,-4.96962e-16,1.13307e-14,-31.9939,14.1105,77.9831,23.6838,-4.66458,-17.6557,24.8676,7.12502,8.60256,54.6724,-7.21086,21.9271,16.9163,17.8116,-13.9332,-18.1944,-3.4835,-5.45209,-5.94411,-19.6815,15.3313,-12.2135,14.6691,-9.54228
-0.681424,18.91,-12.0939,4.34614,-2.65705,0.789063,5.95494,0.397634,-1.87581,0.444619,0.37807,-0.848248,-2.8872,0.206512,0.147815,-9.47489,-3.34691,-8.22178,12.9313,-4.54422,8.65281,5.84434,-2.00375,3.73159,-9.93923e-17,2.48481e-14,-31.6577,-3.81208,-81.0666,28.0581,18.7955,-21.0411,0.414115,7.12502,5.33464,-29.4987,-9.93923e-17,2.48481e-14,-31.963,13.7266,78.1997,23.9465,-4.35151,-17.784,24.9693,7.12502,8.4788,54.7791,-7.49723,21.9989,17.1403,17.9052,-13.8683,-18.2451,-3.53939,-5.86756,-5.88437,-19.3406,15.7078,-12.3071,14.5799,-9.53331
-0.680492,18.9074,-12.106,4.51656,-2.69171,0.656135,6.07236,0.454958,-1.73218,0.468896,0.46238,-0.816338,-2.9284,0.246965,0.092248,-9.38906,-3.33268,-8.19355,12.7924,-4.52942,8.67249,5.78465,-1.99639,3.73434,-1.0138e-14,-1.39149e-15,-31.6898,-3.6412,-81.0918,28.2561,18.5315,-21.0755,0.539059,7.12502,5.30142,-29.3746,-1.0138e-14,-1.39149e-15,-31.9344,13.2736,78.4239,24.2718,-4.0747,-17.9179,25.0974,7.12502,8.34959,54.9124,-7.79552,22.1078,17.1838,17.9844,-13.861,-18.2758,-3.51289,-6.28722,-5.82993,-19.1727,16.0757,-12.3725,14.5309,-9.37006
-0.677851,18.9079,-12.1146,4.65788,-2.68844,0.676819,6.13941,0.490727,-1.72875,0.53862,0.509433,-0.823942,-2.89459,0.269748,0.0783312,-9.35051,-3.33192,-8.0912,12.6051,-4.52526,8.6056,5.71557,-1.99579,3.69516,-1.78906e-15,-9.93923e-16,-31.6601,-3.44929,-81.1269,28.3762,18.2593,-21.1127,0.608536,7.12502,5.26552,-29.306,-1.78906e-15,-9.93923e-16,-31.8063,12.9661,78.6028,24.4486,-3.92001,-18.1547,25.0289,7.12502,8.12107,54.8529,-8.03434,22.1815,17.0511,18.0338,-13.9502,-18.2412,-3.1662,-6.6819,-5.76045,-19.1896,16.4449,-12.429,14.4724,-9.36437
-0.673961,18.9067,-12.1218,4.78544,-2.71297,0.688766,6.2275,0.511909,-1.71516,0.613164,0.537244,-0.833742,-2.86718,0.282846,0.0579082,-9.35499,-3.2913,-7.95617,12.4127,-4.46716,8.52911,5.64668,-1.96716,3.65169,5.66536e-15,1.2921e-14,-31.602,-3.22583,-81.1981,28.4723,18.1317,-21.2837,0.682217,7.12502,5.10043,-29.2364,5.66536e-15,1.2921e-14,-31.6121,12.7983,78.7012,24.464,-3.88724,-18.2211,24.9492,7.12502,8.05696,54.7756,-8.28253,22.2335,16.9226,18.0951,-13.9107,-18.1982,-3.17818,-7.03394,-5.71922,-19.2101,16.7904,-12.4877,14.4872,-9.58382
-0.669313,18.903,-12.1272,4.92019,-2.74495,0.698634,6.33893,0.531545,-1.70148,0.630201,0.562196,-0.821123,-2.91229,0.295321,0.0601212,-9.18673,-3.25761,-7.96837,12.245,-4.41913,8.51785,5.56153,-1.94981,3.6547,-1.98785e-15,6.95746e-15,-31.5979,-2.90339,-81.2422,28.5204,18.001,-21.4117,0.597116,7.12502,4.97678,-29.3244,-1.98785e-15,6.95746e-15,-31.6084,12.5254,78.8466,24.6441,-3.68246,-18.1181,25.0798,7.12502,8.15635,54.9023,-8.53647,22.3283,16.8027,18.1771,-13.8737,-18.2251,-3.23997,-7.38179,-5.67025,-19.2328,17.1441,-12.6024,14.5122,-9.74033
-0.665233,18.8995,-12.1384,5.08997,-2.76445,0.645315,6.48733,0.559715,-1.60591,0.671156,0.603973,-0.805535,-2.9528,0.315053,0.0176751,-9.18451,-3.25901,-7.99654,12.1661,-4.4138,8.53,5.53711,-1.94805,3.66321,6.60959e-15,9.93923e-16,-31.5014,-2.70206,-81.2579,28.5482,17.933,-21.5663,0.764553,7.12502,4.82754,-29.1604,6.60959e-15,9.93923e-16,-31.5093,12.0784,79.0707,24.8841,-3.36743,-18.1104,25.0542,7.12502,8.16375,54.8765,-8.83888,22.4026,16.7458,18.2641,-13.7852,-18.2432,-3.33286,-7.82575,-5.59931,-19.1615,17.5405,-12.7435,14.495,-9.82316
-0.66202,18.8961,-12.1564,5.28858,-2.83434,0.60647,6.61625,0.60217,-1.5416,0.767195,0.663655,-0.800586,-2.92584,0.343436,-0.0193428,-9.31456,-3.25582,-7.97215,12.0178,-4.39544,8.53195,5.51139,-1.93549,3.65903,-3.13086e-15,1.07344e-14,-31.3444,-2.5989,-81.282,28.7093,17.9451,-21.7841,0.802955,7.12502,4.61728,-29.1267,-3.13086e-15,1.07344e-14,-31.2689,11.707,79.2891,25.1205,-3.13225,-18.1411,25.3427,7.12502,8.13412,55.1662,-9.25393,22.4797,16.6343,18.4164,-13.7325,-18.1802,-3.28652,-8.29924,-5.51309,-19.0983,17.897,-12.8343,14.5031,-9.76799
-0.659164,18.8939,-12.1708,5.43028,-2.92956,0.567998,6.76278,0.648671,-1.50994,0.873198,0.726857,-0.773133,-2.899,0.374042,-0.015429,-9.44577,-3.24442,-7.99091,11.9094,-4.36012,8.52222,5.49747,-1.91719,3.65996,-2.33572e-15,-9.93923e-16,-31.2107,-2.51793,-81.261,28.8947,17.936,-21.726,0.852471,7.12502,4.67332,-29.076,-2.33572e-15,-9.93923e-16,-31.1075,11.3148,79.5282,25.3524,-2.81006,-18.2723,25.7277,7.12502,8.00749,55.556,-9.61437,22.5792,16.5517,18.6514,-13.7774,-18.1127,-3.42283,-8.65549,-5.46469,-19.0467,18.1871,-12.8927,14.5411,-9.79706
-0.654735,18.894,-12.1805,5.58541,-3.05436,0.612284,6.91141,0.716147,-1.53155,0.907045,0.811551,-0.789055,-2.94813,0.416345,-0.0291721,-9.40548,-3.2223,-7.98448,11.7846,-4.32698,8.52784,5.449,-1.90185,3.66303,-3.8266e-15,5.96354e-16,-31.1908,-2.33392,-81.2614,29.0289,17.806,-21.6815,0.981634,7.12502,4.71631,-28.9459,-3.8266e-15,5.96354e-16,-31.1166,10.9612,79.6936,25.6271,-2.58406,-18.2541,25.8412,7.12502,8.02506,55.6688,-9.99884,22.6646,16.371,18.9378,-13.9403,-18.0077,-3.37147,-9.00453,-5.39567,-19.0981,18.4627,-12.985,14.5877,-9.56932
-0.646723,18.8923,-12.1939,5.79471,-3.12526,0.722382,7.10306,0.767587,-1.51437,0.876876,0.873764,-0.869391,-3.08558,0.447331,-0.130542,-9.26648,-3.21031,-7.97458,11.6538,-4.31759,8.5557,5.38431,-1.89881,3.67161,1.87355e-14,-9.34288e-15,-31.254,-2.09916,-81.3247,29.1809,17.5396,-21.6541,1.06352,7.12502,4.74275,-28.8634,1.87355e-14,-9.34288e-15,-31.1652,10.5686,79.7956,25.9244,-2.41263,-18.2303,25.5615,7.12502,8.04803,55.3883,-10.46,22.8125,16.084,19.2222,-14.0179,-18.0699,-3.57866,-9.449,-5.40107,-19.2156,18.7689,-13.1155,14.5985,-9.03703
-0.63928,18.8887,-12.2145,6.01963,-3.1267,0.69261,7.3631,0.784639,-1.37563,0.879267,0.900836,-0.891696,-3.22615,0.459424,-0.237904,-9.24186,-3.19922,-7.98152,11.5534,-4.30243,8.59524,5.34873,-1.89016,3.68624,6.90777e-15,-1.66979e-14,-31.2602,-1.77119,-81.4036,29.4084,17.231,-21.4533,0.859899,7.12502,4.93662,-29.0626,6.90777e-15,-1.66979e-14,-31.135,10.1781,79.943,26.2219,-2.21685,-18.1785,25.4513,7.12502,8.09806,55.2762,-10.9893,22.9973,15.9505,19.5414,-14.0441,-18.2199,-3.52449,-9.94959,-5.3289,-19.1642,19.0764,-13.1018,14.5393,-8.9626
-0.632919,18.8837,-12.2352,6.21225,-3.16134,0.602345,7.64481,0.799452,-1.23703,0.923453,0.927457,-0.867527,-3.33617,0.471124,-0.297316,-9.33727,-3.17693,-7.97938,11.4872,-4.26174,8.59474,5.34099,-1.86831,3.68771,1.98785e-16,9.14409e-15,-31.2742,-1.18953,-81.5267,29.7954,16.7211,-21.2537,0.466582,7.12502,5.12941,-29.4513,1.98785e-16,9.14409e-15,-31.0409,9.70511,80.1607,26.482,-1.85312,-18.1761,25.5298,7.12502,8.1004,55.3546,-11.4841,23.153,15.9008,19.8626,-14.1064,-18.3238,-3.49338,-10.4299,-5.25997,-19.0512,19.4307,-13.1487,14.5308,-9.19186
-0.624874,18.8789,-12.2476,6.38005,-3.35264,0.640919,7.83299,0.874769,-1.22199,0.993718,1.02468,-0.901303,-3.36808,0.518786,-0.353174,-9.49266,-3.16545,-7.90608,11.4873,-4.23725,8.52871,5.36252,-1.85381,3.65499,-7.8023e-15,-1.59028e-15,-31.2678,-0.560471,-81.6913,30.1233,16.2419,-21.2931,0.343839,7.12502,5.09132,-29.575,-7.8023e-15,-1.59028e-15,-30.9305,9.29384,80.3283,26.7247,-1.53168,-18.2478,25.2856,7.12502,8.03117,55.113,-11.9533,23.1707,15.6991,20.1903,-14.1772,-18.1314,-3.5588,-10.8556,-5.15586,-19.117,19.8365,-13.3477,14.5887,-9.21256
-0.618958,18.8755,-12.2614,6.58178,-3.54062,0.620039,8.00587,0.931469,-1.19926,1.0588,1.09928,-0.900922,-3.39702,0.55531,-0.375815,-9.51244,-3.14172,-7.85629,11.3484,-4.19343,8.45939,5.31672,-1.83499,3.62715,-1.24737e-14,-8.54774e-15,-31.1612,-0.220014,-81.7688,30.2459,16.1256,-21.5718,0.604318,7.12502,4.82223,-29.3208,-1.24737e-14,-8.54774e-15,-30.8831,9.07895,80.4409,26.9936,-1.40246,-18.408,24.5074,7.12502,7.87653,54.3407,-12.4784,23.2223,15.5579,20.534,-14.2144,-17.9566,-3.73144,-11.3188,-5.04677,-19.1044,20.2431,-13.5171,14.6216,-9.09549
-0.613385,18.8707,-12.2832,6.82212,-3.70018,0.615589,8.21357,0.976674,-1.16991,1.11889,1.15759,-0.9247,-3.44975,0.583561,-0.426381,-9.51592,-3.11254,-7.8055,11.1627,-4.14876,8.44837,5.2549,-1.81257,3.61771,-1.06847e-14,3.97569e-15,-30.9448,-0.141878,-81.7794,30.2995,16.1633,-21.7014,0.769512,7.12502,4.69706,-29.1584,-1.06847e-14,3.97569e-15,-30.8348,8.72661,80.5552,27.356,-1.18591,-18.5116,24.101,7.12502,7.77659,53.938,-13.092,23.412,15.3683,20.8887,-14.2362,-18.0059,-3.76376,-11.8596,-4.94583,-19.0925,20.6396,-13.6516,14.6397,-8.93747
-0.605799,18.8641,-12.3037,7.1088,-3.88889,0.609984,8.37321,1.04485,-1.0896,1.18031,1.25095,-0.976709,-3.47241,0.628349,-0.538024,-9.65544,-3.12257,-7.66911,11.046,-4.1563,8.37053,5.23891,-1.8129,3.56778,-1.11319e-14,1.23246e-14,-30.7404,-0.0510496,-81.8103,30.419,16.0546,-21.7212,0.718221,7.12502,4.67802,-29.2101,-1.11319e-14,1.23246e-14,-30.7648,8.3227,80.6765,27.7077,-0.929221,-18.5518,23.9632,7.12502,7.73775,53.8016,-13.7547,23.5832,15.1409,21.2416,-14.2519,-18.0474,-3.83041,-12.4647,-4.77994,-19.0926,21.0827,-13.787,14.6142,-8.86219
-0.598656,18.8571,-12.3211,7.30644,-4.10918,0.539795,8.6457,1.11838,-0.999034,1.24494,1.35275,-0.96908,-3.55529,0.677476,-0.597531,-9.68389,-3.13057,-7.72081,10.8831,-4.15505,8.42347,5.19559,-1.81124,3.59212,1.14301e-15,-3.18055e-15,-30.614,0.196433,-81.8169,30.6015,15.8878,-21.6947,0.682505,7.12502,4.70354,-29.2453,1.14301e-15,-3.18055e-15,-30.7499,8.03516,80.8202,28.0461,-0.701413,-18.7086,23.8338,7.12502,7.58642,53.6777,-14.3036,23.7732,15.0323,21.6186,-14.3002,-18.017,-3.93486,-12.9814,-4.5867,-19.0389,21.5892,-13.9736,14.6112,-8.98104
-0.592384,18.8484,-12.3442,7.56696,-4.37326,0.455383,8.91709,1.20427,-0.952112,1.28139,1.46755,-0.944823,-3.66784,0.733643,-0.617983,-9.65495,-3.09168,-7.75614,10.6475,-4.08895,8.45188,5.1138,-1.7805,3.61129,-9.19379e-15,-8.34896e-15,-30.5113,0.488783,-81.8276,30.7753,15.7072,-21.8354,0.882668,7.12502,4.56771,-29.0481,-9.19379e-15,-8.34896e-15,-30.7271,7.69429,80.9782,28.3963,-0.420476,-18.7119,23.7749,7.12502,7.58322,53.619,-15.0448,24.0649,14.8846,22.1296,-14.4244,-18.0199,-3.75547,-13.6285,-4.31941,-18.9602,22.1889,-14.1167,14.6131,-9.15686
-0.588686,18.8397,-12.3734,8.0717,-4.74541,0.357703,8.91962,1.31161,-0.9538,1.30391,1.61025,-0.933524,-3.64586,0.804271,-0.622042,-9.73516,-3.0301,-7.64812,10.3937,-3.98933,8.35556,5.03677,-1.73303,3.5687,1.44119e-14,1.98785e-16,-30.3145,0.727177,-81.8651,30.9623,15.5403,-22.0466,1.07371,7.12502,4.36375,-28.8613,1.44119e-14,1.98785e-16,-30.5324,7.46363,81.0913,28.5927,-0.261566,-18.8372,23.8988,7.12502,7.46227,53.7472,-16.159,24.2393,14.6296,22.6688,-14.4231,-17.8804,-3.85852,-14.571,-3.85972,-18.8437,22.7795,-14.2055,14.5203,-9.18293
-0.5971,18.8277,-12.4615,8.78338,-3.69081,0.488002,9.49647,0.93671,-1.04597,1.12711,1.0937,-0.881718,-4.15496,0.550694,-0.467894,-9.80826,-2.97528,-7.5909,10.1329,-3.90397,8.35526,4.96076,-1.68882,3.56393,-1.11319e-14,7.55382e-15,-30.0645,0.939125,-81.911,31.1591,15.4228,-22.1771,0.802049,7.12502,4.23774,-29.1355,-1.11319e-14,7.55382e-15,-30.3374,7.28316,81.1892,28.7948,-0.0929956,-18.9698,24.027,7.12502,7.3343,53.8799,-17.4704,23.5274,14.246,23.2822,-14.51,-18.2381,-3.76926,-16.1889,-4.24688,-18.7257,23.394,-13.7815,13.9403,-9.44536
-0.5912,18.8192,-12.4856,9.11816,-3.74985,0.561758,9.63601,0.93918,-1.07153,1.19788,1.09002,-0.93613,-4.15846,0.548646,-0.511224,-9.76468,-2.91804,-7.5634,9.74712,-3.82215,8.4426,4.82942,-1.64555,3.59184,2.19657e-14,-4.96962e-15,-29.8955,1.09876,-81.9629,31.386,15.3311,-22.194,0.524587,7.12502,4.22139,-29.4133,2.19657e-14,-4.96962e-15,-30.3124,6.87996,81.2988,29.2199,0.196757,-19.0369,24.132,7.12502,7.26954,53.9872,-18.3191,23.4263,13.9451,23.9323,-14.755,-18.0712,-3.63057,-16.9576,-4.1315,-18.7745,24.0021,-14.0082,13.7388,-8.89165
-0.587771,18.8067,-12.5162,9.4053,-3.74007,0.562209,9.95541,0.940708,-1.04031,1.21542,1.08927,-0.942969,-4.31741,0.547648,-0.541542,-9.62428,-2.89865,-7.59323,9.38855,-3.79162,8.54003,4.69596,-1.63115,3.62931,1.11319e-14,-1.11319e-14,-29.8539,1.34108,-81.9777,31.5621,15.3156,-22.5871,0.753362,7.12502,3.84182,-29.1918,1.11319e-14,-1.11319e-14,-30.3439,6.25602,81.4617,29.5829,0.66932,-18.9866,24.3263,7.12502,7.31807,54.1797,-19.1426,23.3983,13.7575,24.6149,-14.943,-18.0623,-3.65114,-17.6947,-3.99731,-18.7269,24.5865,-14.1834,13.4454,-8.35116
-0.587875,18.7926,-12.5522,9.62298,-3.83015,0.640334,10.4394,0.958623,-1.22303,1.21654,1.08439,-0.916801,-4.58977,0.548628,-0.419904,-9.55742,-2.85216,-7.61505,9.15892,-3.71326,8.51025,4.6078,-1.59807,3.62886,1.2275e-14,-1.39149e-15,-29.7565,1.6593,-81.9556,31.5983,15.54,-23.4329,1.19348,7.12502,3.02509,-28.7648,1.2275e-14,-1.39149e-15,-30.3513,5.91034,81.6068,29.8313,0.893171,-18.8584,24.524,7.12502,7.44187,54.3731,-19.9013,23.4947,13.4796,25.2344,-15.1498,-18.0318,-3.51837,-18.3339,-3.80003,-18.7865,25.1027,-14.2586,13.2325,-8.23179
-0.584091,18.7799,-12.5834,9.84065,-3.94747,0.774941,10.7875,0.965484,-1.40352,1.3128,1.06441,-0.951335,-4.68553,0.541398,-0.356628,-9.65019,-2.76784,-7.53799,8.91568,-3.5843,8.45547,4.53595,-1.53457,3.60663,5.56597e-15,-1.07344e-14,-29.536,1.93715,-81.9875,31.7474,15.5233,-23.81,1.67266,7.12502,2.66086,-28.2905,5.56597e-15,-1.07344e-14,-30.2814,5.60702,81.6922,30.1665,1.13916,-18.7912,24.6204,7.12502,7.50671,54.4672,-20.6562,23.5093,13.1252,25.8606,-15.3633,-17.8707,-3.19528,-18.9546,-3.64084,-18.9265,25.6263,-14.4417,13.0517,-8.02114
-0.575726,18.7661,-12.616,10.0777,-4.00352,0.927825,11.0785,0.955208,-1.52102,1.47389,1.02995,-0.994146,-4.67987,0.525379,-0.333236,-9.81352,-2.72458,-7.49622,8.59989,-3.5015,8.4348,4.45906,-1.49184,3.59675,-9.44227e-15,3.18055e-15,-29.2337,2.15288,-81.9814,32.0172,15.3275,-23.7535,1.84173,7.12502,2.71537,-28.1207,-9.44227e-15,3.18055e-15,-30.2145,5.29591,81.8149,30.6444,1.34575,-18.9323,24.6913,7.12502,7.37052,54.5429,-21.4346,23.3299,12.7599,26.4975,-15.5584,-17.657,-2.70096,-19.6081,-3.58765,-19.0897,26.1298,-14.5929,12.967,-8.07125
-0.568487,18.7524,-12.6468,10.2752,-4.14023,0.982883,11.4374,0.970979,-1.60429,1.63282,1.03513,-0.970842,-4.71459,0.528772,-0.267238,-10.0124,-2.68882,-7.51598,8.29369,-3.41467,8.37828,4.39112,-1.45029,3.58592,-7.45443e-16,1.78906e-15,-28.981,2.45652,-81.9174,32.2889,15.0657,-23.8173,1.9326,7.12502,2.65377,-28.0306,-7.45443e-16,1.78906e-15,-30.1766,5.065,81.9721,31.0675,1.39039,-19.2657,24.5062,7.12502,7.04868,54.3688,-22.1733,23.1262,12.5337,27.1339,-15.6771,-17.3389,-2.57655,-20.2073,-3.44748,-19.1661,26.6545,-14.7158,12.8903,-8.03107
-0.562388,18.7363,-12.6773,10.5047,-4.2523,1.10741,11.8317,0.97964,-1.76531,1.69793,1.01631,-0.981373,-4.86739,0.522215,-0.190845,-10.0832,-2.60801,-7.52167,7.98349,-3.28413,8.38616,4.29796,-1.38597,3.59708,1.48592e-14,-4.47266e-15,-28.8746,2.88656,-81.9193,32.5607,14.6508,-23.988,1.85211,7.12502,2.48891,-28.1131,1.48592e-14,-4.47266e-15,-30.2064,4.75962,82.0784,31.3732,1.50036,-19.7392,24.2498,7.12502,6.5916,54.1273,-22.9541,22.9618,12.203,27.7655,-15.8601,-17.0336,-2.23348,-20.8721,-3.21415,-19.3264,27.2237,-14.806,12.6703,-7.88927
-0.560063,18.7143,-12.7147,10.7757,-4.34269,1.1884,12.3162,0.988968,-1.92315,1.69078,0.993451,-0.993448,-5.1457,0.514687,-0.119501,-10.0477,-2.52634,-7.5058,7.67544,-3.16423,8.41061,4.18871,-1.32758,3.60967,-5.1684e-15,-4.57205e-15,-28.7938,3.23345,-81.9349,32.7504,14.3162,-24.2536,1.70169,7.12502,2.23244,-28.2664,-5.1684e-15,-4.57205e-15,-30.2758,4.29557,82.1665,31.6595,1.86323,-19.9865,24.2042,7.12502,6.35283,54.0889,-23.818,22.8694,11.8996,28.4091,-15.9915,-16.8207,-2.11869,-21.6346,-2.83802,-19.4334,27.7978,-14.817,12.3363,-7.83548
-0.558959,18.6936,-12.7525,11.0149,-4.47019,1.19672,12.8031,0.999757,-2.04584,1.74396,0.9782,-0.97585,-5.36147,0.510164,-0.0370918,-9.99803,-2.46989,-7.44838,7.22194,-3.06944,8.35668,4.03328,-1.28559,3.58849,1.32689e-14,-3.47873e-15,-28.607,3.48728,-81.8989,32.8698,14.1288,-24.6089,1.64223,7.12502,1.88927,-28.3291,1.32689e-14,-3.47873e-15,-30.3384,3.91629,82.2515,32.0444,2.12919,-20.0985,24.3065,7.12502,6.24477,54.1944,-24.655,22.8277,11.6932,29.0834,-16.0973,-16.6438,-2.0723,-22.3472,-2.49268,-19.4573,28.3586,-14.9105,12.083,-8.17875
-0.55445,18.6769,-12.7855,11.1778,-4.62263,1.37675,13.2061,1.0264,-2.2778,1.88467,0.967668,-1.01938,-5.43888,0.508452,0.044697,-9.99748,-2.43822,-7.33391,6.73617,-3.00787,8.26236,3.87778,-1.25954,3.54274,8.94531e-15,6.95746e-16,-28.3337,3.60627,-81.8195,32.8862,14.0113,-24.9557,1.79374,7.12502,1.55438,-28.1803,8.94531e-15,6.95746e-16,-30.358,3.65031,82.3014,32.4321,2.15536,-19.9573,24.4292,7.12502,6.38106,54.313,-25.3911,22.6698,11.3361,29.7848,-16.2949,-16.336,-2.13311,-22.9254,-2.26601,-19.6911,28.8857,-15.037,11.9442,-8.39584
-0.550357,18.6577,-12.8162,11.3574,-4.72884,1.56254,13.5421,1.05223,-2.44927,2.02732,0.96331,-1.09817,-5.47508,0.507971,0.0554059,-9.97023,-2.39637,-7.24273,6.24321,-2.93724,8.23495,3.71681,-1.22697,3.52266,-6.41081e-15,1.15295e-14,-28.0395,3.56934,-81.7364,32.8556,13.9796,-24.967,1.87088,7.12502,1.5434,-28.1033,-6.41081e-15,1.15295e-14,-30.2708,3.3027,82.3052,32.6221,2.12102,-19.7976,24.5004,7.12502,6.53526,54.3796,-26.1259,22.454,10.9835,30.4842,-16.5245,-16.009,-1.95208,-23.5055,-2.01502,-19.9321,29.3793,-15.0574,11.7116,-8.08173
-0.547011,18.6345,-12.8449,11.4784,-4.84751,1.77348,13.9437,1.08838,-2.68515,2.15073,0.959022,-1.1731,-5.56837,0.509242,0.104988,-9.88609,-2.34348,-7.1677,5.82899,-2.85709,8.20632,3.57006,-1.19105,3.50608,1.28216e-14,-6.06293e-15,-27.8581,3.58869,-81.6478,32.8691,13.9792,-25.0829,2.32866,7.12502,1.43149,-27.6463,1.28216e-14,-6.06293e-15,-30.2401,2.83827,82.3585,32.7732,2.36827,-19.9804,24.7102,7.12502,6.35872,54.5948,-26.8104,22.2971,10.6188,31.1751,-16.746,-15.7112,-1.72097,-24.0369,-1.71181,-20.2074,29.8743,-15.0743,11.4395,-7.7974
-0.546362,18.6103,-12.8763,11.6543,-4.91517,1.86366,14.389,1.10315,-2.86147,2.20012,0.934184,-1.18255,-5.76319,0.501369,0.192132,-9.74312,-2.2867,-7.12588,5.43541,-2.77218,8.18117,3.42034,-1.15453,3.49669,-3.18055e-15,-1.0138e-14,-27.8594,3.7655,-81.5756,32.9865,13.7294,-25.281,2.81612,7.12502,1.24014,-27.16,-3.18055e-15,-1.0138e-14,-30.4288,2.3405,82.4284,33.0603,2.85495,-20.2466,24.6078,7.12502,6.10177,54.4999,-27.5672,22.2329,10.3677,31.8461,-16.9022,-15.5553,-1.79925,-24.6449,-1.44742,-20.3145,30.3724,-15.1426,11.1475,-7.57245
-0.547344,18.5877,-12.9126,11.8825,-4.88711,1.87664,14.8766,1.08789,-2.93432,2.22704,0.884087,-1.16356,-6.00284,0.480187,0.255261,-9.72976,-2.23578,-7.14276,5.13546,-2.68887,8.20836,3.322,-1.11441,3.51253,1.98785e-15,-1.19271e-15,-27.9304,3.99037,-81.5092,33.2405,13.3798,-25.4231,2.39571,7.12502,1.10295,-27.5812,1.98785e-15,-1.19271e-15,-30.5278,1.8551,82.4932,33.0834,3.12594,-20.6236,24.2023,7.12502,5.73781,54.1046,-28.3507,22.1629,10.1951,32.4899,-17.0844,-15.4647,-1.69174,-25.3295,-1.24334,-20.3167,30.8791,-15.1111,10.857,-7.54559
-0.544805,18.5699,-12.942,11.9727,-4.88803,2.08462,15.3923,1.10075,-3.13833,2.34698,0.84438,-1.22366,-6.15917,0.464705,0.308038,-9.7469,-2.20678,-7.1257,4.71039,-2.63283,8.25883,3.19324,-1.08618,3.52792,-1.98785e-16,2.08724e-15,-27.9254,3.99458,-81.4079,33.4061,13.3067,-25.7245,2.15258,7.12502,0.811841,-27.8256,-1.98785e-16,2.08724e-15,-30.4873,1.30676,82.5469,33.0844,3.23829,-20.727,24.3577,7.12502,5.63792,54.2627,-28.9051,21.9407,9.89024,33.1041,-17.2967,-15.2262,-1.56011,-25.8225,-1.12837,-20.5589,31.3928,-15.197,10.6507,-7.64105
-0.540198,18.5509,-12.9683,12.1458,-4.90862,2.32244,15.7847,1.08649,-3.3496,2.43713,0.768226,-1.31611,-6.27725,0.431451,0.340122,-9.72907,-2.17841,-7.07447,4.29083,-2.58434,8.31261,3.06084,-1.06184,3.53848,-5.31749e-15,1.98785e-16,-27.9337,4.07305,-81.3634,33.4472,13.2414,-26.1659,2.73678,7.12502,0.385513,-27.2426,-5.31749e-15,1.98785e-16,-30.6773,0.715389,82.5757,33.4436,3.63938,-20.8212,24.9574,7.12502,5.54703,54.8648,-29.539,21.6684,9.52488,33.7065,-17.4559,-15.0093,-1.50733,-26.387,-1.03657,-20.8474,31.8906,-15.3037,10.4878,-7.63429
-0.538544,18.5295,-12.9956,12.3677,-4.92341,2.35033,16.171,1.07309,-3.37429,2.50353,0.726108,-1.36522,-6.41603,0.411646,0.305818,-9.76763,-2.16266,-6.92184,3.97143,-2.56052,8.26653,2.96689,-1.05053,3.50003,-3.35946e-14,-4.37326e-15,-27.8987,4.02093,-81.3288,33.327,13.2579,-26.6542,3.07839,7.12502,-0.086078,-26.9013,-3.35946e-14,-4.37326e-15,-30.8792,0.0380312,82.5759,33.6511,4.05797,-21.7001,24.5211,7.12502,4.69838,54.449,-30.243,21.5142,9.36229,34.3046,-17.6129,-14.8369,-1.46855,-26.9864,-0.947291,-20.874,32.3245,-15.4239,10.3322,-7.60568
-0.5376,18.5085,-13.0214,12.5196,-4.97265,2.4285,16.6037,1.08615,-3.42389,2.55041,0.709882,-1.43097,-6.60156,0.405477,0.261437,-9.68007,-2.14793,-6.88995,3.64659,-2.53517,8.30432,2.85364,-1.03999,3.50803,9.93923e-17,-4.57205e-15,-27.9969,3.81507,-81.2323,33.2186,13.4058,-27.048,3.25627,7.12502,-0.466434,-26.723,9.93923e-17,-4.57205e-15,-31.0645,-0.619322,82.5421,33.591,4.13581,-22.8495,23.3374,7.12502,3.5884,53.287,-30.8779,21.3945,9.16669,34.9079,-17.7436,-14.6921,-1.61014,-27.486,-0.838907,-20.9626,32.722,-15.5407,10.1715,-7.55692
-0.530346,18.4884,-13.0399,12.7152,-5.01084,2.6603,16.9052,1.07862,-3.53742,2.5615,0.656072,-1.54873,-6.7526,0.38216,0.207564,-9.49374,-2.1154,-6.87389,3.34309,-2.49337,8.3923,2.73064,-1.02174,3.53551,9.93923e-16,-1.49089e-14,-28.2942,3.68305,-81.1509,33.1952,13.4643,-27.4204,2.97737,7.12502,-0.8261,-27.0008,9.93923e-16,-1.49089e-14,-31.3795,-1.16055,82.4735,33.5343,4.18906,-23.0154,23.2303,7.12502,3.42821,53.1825,-31.5021,21.1243,8.79721,35.5036,-17.9596,-14.4513,-1.74131,-27.9971,-0.650203,-21.2842,33.1039,-15.5577,9.94869,-7.41852
-0.521286,18.4699,-13.0588,12.9691,-5.08958,2.95974,17.148,1.08012,-3.78691,2.6113,0.594125,-1.64448,-6.83105,0.357331,0.257461,-9.50446,-2.10027,-6.83602,3.0517,-2.46279,8.41282,2.64282,-1.00716,3.53712,-3.37934e-15,9.74045e-15,-28.4471,3.58766,-81.0103,33.0638,13.6047,-27.9384,2.29568,7.12502,-1.32642,-27.6799,-3.37934e-15,9.74045e-15,-31.6507,-1.59153,82.4817,33.41,4.60446,-23.1321,23.8241,7.12502,3.31551,53.778,-32.1956,20.9395,8.29146,36.0657,-18.1446,-14.2617,-1.86843,-28.5568,-0.502587,-21.6787,33.4422,-15.5625,9.75873,-7.23601
-0.517427,18.4506,-13.0843,13.3139,-5.13666,3.06622,17.4154,1.07937,-3.93047,2.64508,0.551504,-1.66205,-6.94011,0.340857,0.326273,-9.61093,-2.1073,-6.8573,2.75038,-2.44911,8.43736,2.56964,-0.999673,3.54837,-6.36111e-15,-6.55989e-15,-28.5092,3.39601,-80.8044,32.8402,13.7742,-28.2333,2.40016,7.12502,-1.61128,-27.5735,-6.36111e-15,-6.55989e-15,-31.7995,-1.89339,82.48,33.0519,4.86358,-23.6297,23.7227,7.12502,2.83496,53.6836,-33.0099,20.9188,7.94343,36.58,-18.2923,-14.2244,-1.7797,-29.2412,-0.456351,-21.798,33.763,-15.5477,9.65458,-7.0236
-0.513229,18.4362,-13.1037,13.6023,-5.1176,3.11759,17.6688,1.04902,-3.98087,2.691,0.489584,-1.66141,-7.0268,0.312748,0.367042,-9.61699,-2.09122,-6.90829,2.42665,-2.40668,8.49126,2.47216,-0.979511,3.57558,7.25564e-15,-6.16232e-15,-28.6535,3.21767,-80.6023,32.5934,13.9026,-28.3326,2.966,7.12502,-1.70715,-27.0069,7.25564e-15,-6.16232e-15,-32.0081,-2.19451,82.4629,32.7017,5.06814,-23.8552,23.7967,7.12502,2.61719,53.7604,-33.6733,20.8819,7.70693,37.019,-18.4077,-14.2039,-1.67746,-29.8207,-0.516512,-21.8407,34.0758,-15.6046,9.609,-7.09097
-0.505892,18.4246,-13.1142,13.9178,-5.06401,3.13388,17.8257,0.996617,-3.90444,2.72607,0.426518,-1.67816,-7.07137,0.280431,0.319091,-9.65808,-2.09091,-6.89963,2.16217,-2.39199,8.51252,2.39902,-0.972463,3.58135,-4.96962e-15,1.61016e-14,-28.8966,2.99366,-80.4163,32.3043,14.0797,-28.4571,3.32037,7.12502,-1.82734,-26.6516,-4.96962e-15,1.61016e-14,-32.3199,-2.46024,82.4151,32.3955,4.99738,-24.3195,24.0029,7.12502,2.16879,53.9717,-34.2446,20.7802,7.52814,37.3635,-18.5555,-14.2059,-1.66723,-30.3741,-0.628101,-21.8517,34.3818,-15.7107,9.59653,-6.96261
-0.499282,18.4134,-13.1275,14.3071,-5.01111,3.18517,17.9702,0.93038,-3.86595,2.7252,0.336955,-1.70579,-7.14744,0.236978,0.287154,-9.76554,-2.08145,-6.89305,1.90562,-2.36106,8.52625,2.33758,-0.956134,3.58577,1.78906e-15,-1.0138e-14,-29.2239,2.74599,-80.2318,32.1479,14.2973,-28.6847,2.98854,7.12502,-2.04723,-26.9814,1.78906e-15,-1.0138e-14,-32.5651,-2.44725,82.2011,31.9957,4.47401,-25.0212,23.9428,7.12502,1.49108,53.9173,-34.8785,20.6718,7.27775,37.6187,-18.6197,-14.2385,-1.73118,-31.0016,-0.76984,-21.8885,34.634,-15.7542,9.61995,-6.73295
-0.492548,18.4034,-13.1411,14.6782,-5.04259,3.25721,18.1185,0.90911,-3.90463,2.74947,0.292039,-1.7328,-7.20038,0.216384,0.289415,-9.85851,-2.07218,-6.87535,1.61864,-2.33002,8.52193,2.2643,-0.940815,3.58295,1.78906e-15,1.23246e-14,-29.4874,2.5121,-80.0214,31.8878,14.3451,-28.8599,2.07911,7.12502,-2.21645,-27.8891,1.78906e-15,1.23246e-14,-32.7228,-2.12856,81.8617,31.4478,3.79016,-24.9349,23.6412,7.12502,1.57448,53.6151,-35.5181,20.6291,6.96852,37.8002,-18.5617,-14.2224,-1.4506,-31.5777,-0.943717,-21.9391,34.8287,-15.8421,9.71725,-6.61358
-0.485178,18.3973,-13.1489,14.9613,-5.09757,3.33164,18.367,0.921302,-3.95723,2.76848,0.281225,-1.77041,-7.31449,0.21328,0.278875,-9.94681,-2.0959,-6.87473,1.39866,-2.35051,8.63437,2.2165,-0.947213,3.61611,1.78906e-14,1.25234e-14,-29.7965,2.22641,-79.812,31.4447,14.2788,-29.247,1.90531,7.12502,-2.59024,-28.0587,1.78906e-14,1.25234e-14,-33.1142,-1.8356,81.5412,31.0148,3.41039,-24.3729,22.7446,7.12502,2.11718,52.7138,-35.9755,20.5975,6.70719,37.914,-18.5545,-14.2072,-1.47564,-32.002,-1.0604,-22.0157,34.9681,-15.8875,9.79828,-6.36212
-0.477524,18.3939,-13.1552,15.2254,-5.15479,3.33786,18.6674,0.929233,-3.9264,2.77811,0.27878,-1.79449,-7.46685,0.212767,0.232821,-10.0406,-2.11339,-6.85026,1.14862,-2.3611,8.69916,2.15881,-0.950263,3.63129,-1.39149e-15,1.35174e-14,-30.1739,1.8078,-79.5509,30.9598,14.5906,-29.5094,2.29604,7.12502,-2.84369,-27.6648,-1.39149e-15,1.35174e-14,-33.4572,-1.6466,81.273,30.4135,3.26629,-24.5017,22.1785,7.12502,1.99278,52.149,-36.3668,20.5952,6.53289,37.9739,-18.5488,-14.1951,-1.41841,-32.3669,-1.17733,-22.0086,35.056,-15.91,9.87029,-5.8544
-0.468193,18.3919,-13.1604,15.5292,-5.22236,3.33172,18.8403,0.913053,-3.87125,2.82975,0.259911,-1.80247,-7.50363,0.201978,0.196329,-10.0567,-2.10277,-6.84675,0.727455,-2.32229,8.67523,2.0325,-0.934757,3.62583,5.76476e-15,6.16232e-15,-30.5043,1.35372,-79.2231,30.5087,15.2055,-29.6124,2.91425,7.12502,-2.94314,-27.0452,5.76476e-15,6.16232e-15,-33.6553,-1.35434,80.9995,29.6256,2.9925,-24.7995,22.0704,7.12502,1.7052,52.0434,-36.8135,20.5977,6.33923,38.0045,-18.4872,-14.2434,-1.31361,-32.7516,-1.26561,-22.0017,35.0966,-15.8292,9.96251,-5.41638
-0.457971,18.3892,-13.1632,15.8347,-5.2867,3.41027,18.9657,0.894052,-3.94405,2.90398,0.216744,-1.79291,-7.4897,0.182303,0.258241,-10.0706,-2.08659,-6.95086,0.150367,-2.25732,8.39191,2.06629,-0.926075,3.94918,-1.50082e-14,2.04748e-14,-30.8148,1.11564,-78.9154,30.1857,15.477,-30.2698,3.98175,7.12502,-3.57799,-25.968,-1.50082e-14,2.04748e-14,-33.9264,-0.923467,80.7429,28.952,2.6531,-24.816,22.203,7.12502,1.68924,52.176,-37.2369,20.5312,6.05987,38.0208,-18.4388,-14.2124,-1.12806,-33.1113,-1.3365,-22.1089,35.0997,-15.7529,10.0005,-5.21615
-0.449354,18.3881,-13.1649,16.1492,-5.38073,3.50867,19.1372,0.902151,-4.0678,2.92248,0.192608,-1.7966,-7.56187,0.174654,0.328951,-10.1096,-2.09156,-6.95101,-0.160319,-2.24555,8.37767,1.96781,-0.921099,3.94152,-1.89839e-14,2.52457e-14,-31.1999,0.807401,-78.599,29.8811,15.4681,-29.6369,2.87045,7.12502,-2.9668,-27.0887,-1.89839e-14,2.52457e-14,-34.3915,-0.422858,80.4363,28.4702,2.26867,-24.7478,22.1775,7.12502,1.75514,52.15,-37.6486,20.4889,5.74495,38.0104,-18.411,-14.1492,-0.912464,-33.4599,-1.41332,-22.2312,35.0689,-15.734,10.1174,-5.31729
-0.442114,18.3898,-13.1647,16.4617,-5.45806,3.52647,19.3425,0.935696,-4.13929,2.93398,0.212336,-1.76892,-7.66133,0.187566,0.392408,-10.1624,-2.1064,-7.00757,-0.479705,-2.24184,8.44574,1.87316,-0.917963,3.97439,8.24956e-15,-1.39149e-14,-31.6109,0.352705,-78.2169,29.5762,15.4142,-28.6645,1.91176,7.12502,-2.02772,-28.0583,8.24956e-15,-1.39149e-14,-34.8662,0.143204,80.0796,27.955,1.77294,-24.8343,21.8274,7.12502,1.67162,51.8006,-38.0297,20.4788,5.53271,37.9772,-18.4376,-14.1132,-0.928515,-33.7681,-1.50218,-22.2508,35.0023,-15.7626,10.239,-5.38628
-0.433935,18.3938,-13.161,16.7048,-5.57399,3.59235,19.6301,0.981972,-4.24843,2.96165,0.234539,-1.7592,-7.78778,0.202673,0.456455,-10.3888,-2.13046,-7.02131,-0.709117,-2.24797,8.44077,1.8386,-0.917565,3.97365,-4.87022e-15,-1.23246e-14,-32.053,-0.0992905,-77.8237,29.0849,15.7292,-28.2806,1.77794,7.12502,-1.6569,-28.1954,-4.87022e-15,-1.23246e-14,-35.3626,0.65324,79.7269,27.3935,1.40895,-24.9926,21.155,7.12502,1.51874,51.1293,-38.3185,20.5075,5.28262,37.9346,-18.4594,-14.0646,-1.03655,-33.9718,-1.59195,-22.3319,34.9121,-15.7698,10.392,-5.37922
-0.42416,18.3986,-13.1589,17.0287,-5.61583,3.62013,19.956,0.968911,-4.24387,2.86576,0.195002,-1.76044,-8.06722,0.188797,0.458371,-10.4761,-2.13301,-6.94486,-0.851903,-2.24692,8.38806,1.80376,-0.91716,3.93846,-5.06901e-15,-5.26779e-15,-32.6955,-0.422094,-77.503,28.3965,16.3417,-28.6923,2.10225,7.12502,-2.05451,-27.8676,-5.06901e-15,-5.26779e-15,-36.0766,1.13667,79.3225,26.9118,1.16737,-24.6061,21.2348,7.12502,1.89199,51.2062,-38.6858,20.47,5.05829,37.9099,-18.4882,-14.0419,-0.84334,-34.284,-1.75126,-22.3463,34.8245,-15.8019,10.5135,-5.2459
-0.416983,18.4009,-13.1626,17.5718,-5.55238,3.65661,19.7357,0.903195,-4.19664,2.96235,0.133897,-1.78913,-7.83998,0.153546,0.419809,-10.6609,-2.12751,-6.83463,-1.1825,-2.22586,8.38359,1.72277,-0.904586,3.91363,-5.46658e-15,-3.8763e-15,-32.9859,-0.693547,-77.3373,27.7801,16.7438,-27.7389,0.592709,7.12502,-1.13372,-29.384,-5.46658e-15,-3.8763e-15,-36.3465,1.43743,78.9748,26.4203,1.10909,-23.4282,23.3168,7.12502,3.02957,53.275,-39.2888,20.3042,4.77874,37.8995,-18.5061,-14.0217,-0.43174,-34.8774,-1.85332,-22.3604,34.7487,-15.7005,10.5008,-5.49204
-0.413369,18.3997,-13.1679,18.1856,-5.49286,3.73679,19.7089,0.870753,-4.31572,2.8462,0.0670296,-1.75564,-7.94994,0.128607,0.540065,-10.6701,-2.10226,-6.82031,-1.42178,-2.18044,8.36077,1.63988,-0.883356,3.90294,-1.98785e-15,7.95139e-15,-33.5939,-0.831509,-77.1015,27.3849,16.6827,-27.276,0.247017,7.12502,-0.686637,-29.7316,-1.98785e-15,7.95139e-15,-36.8919,1.78109,78.6702,25.787,0.93952,-22.9018,24.2444,7.12502,3.53794,54.1948,-39.9734,20.1194,4.43608,37.8687,-18.5222,-14.03,-0.00608961,-35.5696,-1.86031,-22.4329,34.692,-15.5002,10.4265,-5.71996
-0.408292,18.4,-13.1654,18.591,-5.51641,3.71829,19.832,0.876251,-4.34091,2.81749,0.06413,-1.71217,-8.04787,0.130469,0.600952,-10.6838,-2.10773,-6.90061,-1.70045,-2.16455,8.414,1.55108,-0.875082,3.93655,-6.95746e-15,-2.68359e-15,-34.1854,-1.16085,-76.7452,26.9726,16.7299,-27.1704,0.995289,7.12502,-0.584686,-28.9837,-6.95746e-15,-2.68359e-15,-37.4103,2.14216,78.3583,25.1521,0.652767,-23.1359,24.0215,7.12502,3.31184,53.9755,-40.408,20.0502,4.26923,37.7957,-18.4602,-14.075,0.106264,-35.987,-1.81257,-22.4325,34.6303,-15.4116,10.4324,-5.87211
-0.396024,18.406,-13.1527,18.9055,-5.63743,3.56874,19.8949,0.884369,-4.15157,2.87535,0.112403,-1.71759,-8.02031,0.146624,0.474975,-10.8169,-2.11562,-6.89767,-1.93522,-2.15775,8.47983,1.49795,-0.868724,3.95851,7.05686e-15,-1.00386e-14,-34.7286,-1.46659,-76.4848,26.4275,17.1745,-28.4446,2.01736,7.12502,-1.81528,-27.9547,7.05686e-15,-1.00386e-14,-37.9035,2.49334,77.964,24.6262,0.284317,-22.5301,25.1578,7.12502,3.8969,55.102,-40.6847,20.0489,4.24751,37.6678,-18.4365,-14.0144,0.0545789,-36.2337,-1.75831,-22.3258,34.557,-15.4163,10.5058,-5.83425
-0.381599,18.4123,-13.141,19.2364,-5.7333,3.53234,19.9276,0.882977,-4.03216,2.92796,0.133529,-1.74208,-7.98101,0.151658,0.375346,-10.9317,-2.12146,-6.87282,-2.16899,-2.15122,8.52108,1.44083,-0.86355,3.96729,-1.2921e-15,5.56597e-15,-35.2282,-1.82981,-76.1959,25.8666,17.7467,-29.2095,2.44172,7.12502,-2.55402,-27.5227,-1.2921e-15,5.56597e-15,-38.3608,2.9142,77.5476,24.0358,-0.139049,-24.2401,23.0252,7.12502,2.24552,52.9931,-40.9594,19.9475,4.1055,37.5002,-18.3865,-13.922,0.00773617,-36.5054,-1.68386,-22.3671,34.4653,-15.3987,10.5011,-5.80409
-0.369284,18.4154,-13.1326,19.5597,-5.77787,3.56635,20.0352,0.872409,-4.02171,2.95081,0.11775,-1.72891,-8.01354,0.144199,0.387137,-11.0687,-2.12687,-6.86793,-2.34358,-2.14234,8.501,1.40608,-0.857691,3.95872,-1.00386e-14,-4.96962e-15,-35.7405,-2.22035,-75.8307,25.3895,18.1892,-29.2355,2.61268,7.12502,-2.57915,-27.3515,-1.00386e-14,-4.96962e-15,-38.9178,3.35167,77.1962,23.5446,-0.660414,-23.1224,24.2474,7.12502,3.32488,54.2012,-41.226,19.8275,3.89777,37.3263,-18.3644,-13.8611,-0.11744,-36.7959,-1.67126,-22.4542,34.3646,-15.377,10.4883,-5.73397
-0.36001,18.4179,-13.1219,19.8629,-5.79612,3.47893,20.1797,0.858012,-3.88192,2.97281,0.121104,-1.7321,-8.06734,0.14215,0.302299,-11.187,-2.1533,-6.81489,-2.52591,-2.16921,8.53083,1.36868,-0.869464,3.95648,2.5842e-15,1.45113e-14,-36.2646,-2.6434,-75.5403,24.8677,18.4712,-29.5756,3.40419,7.12502,-2.90759,-26.5557,2.5842e-15,1.45113e-14,-39.4763,3.67814,76.7807,23.0836,-1.25731,-22.0583,25.5224,7.12502,4.35251,55.4577,-41.4517,19.7621,3.84802,37.18,-18.3635,-13.8377,-0.299939,-37.0513,-1.59003,-22.3996,34.2647,-15.3694,10.3644,-5.23567
-0.349272,18.421,-13.1105,20.1653,-5.87723,3.33677,20.3362,0.863079,-3.7084,2.97838,0.156255,-1.73353,-8.14644,0.154616,0.191283,-11.2372,-2.14837,-6.78133,-2.73648,-2.15365,8.56087,1.30643,-0.861447,3.96011,9.83984e-15,6.16232e-15,-36.7598,-3.07005,-75.2408,24.2958,18.8586,-29.6612,3.42081,7.12502,-2.99028,-26.538,9.83984e-15,6.16232e-15,-40.0159,4.02667,76.3504,22.6334,-1.91935,-21.6757,25.9014,7.12502,4.72192,55.8288,-41.7048,19.71,3.84197,37.047,-18.3068,-13.7478,-0.336748,-37.2871,-1.48115,-22.2989,34.1682,-15.429,10.2494,-4.72946
-0.34372,18.4228,-13.0993,20.386,-5.99566,3.32756,20.5354,0.912407,-3.76771,3.0073,0.198303,-1.72413,-8.22351,0.17703,0.22217,-11.2731,-2.11628,-6.80074,-2.96198,-2.09464,8.57659,1.2337,-0.831911,3.97139,6.75868e-15,-1.67973e-14,-37.2096,-3.49658,-74.8808,23.7055,19.3115,-29.44,2.82065,7.12502,-2.77663,-27.141,6.75868e-15,-1.67973e-14,-40.5497,4.43168,75.943,22.174,-2.65028,-21.1839,26.2583,7.12502,5.19679,56.1746,-41.8939,19.6999,3.71321,36.9158,-18.2892,-13.7215,-0.373183,-37.4407,-1.40559,-22.3311,34.076,-15.4636,10.2074,-4.38026
-0.340652,18.4277,-13.0807,20.576,-6.06436,3.35634,20.6815,0.951006,-3.85731,3.07076,0.2245,-1.70649,-8.23353,0.191791,0.284387,-11.3681,-2.11191,-6.88362,-3.1327,-2.06546,8.65228,1.19477,-0.814157,4.0159,3.42904e-15,-9.14409e-15,-37.6904,-3.76358,-74.5823,23.1665,19.5984,-29.2607,2.65998,7.12502,-2.60349,-27.3039,3.42904e-15,-9.14409e-15,-41.0607,4.77768,75.5793,21.7019,-3.18964,-21.097,26.3264,7.12502,5.28065,56.2406,-42.0118,19.7182,3.57103,36.7948,-18.3277,-13.7627,-0.466295,-37.5303,-1.27885,-22.4251,33.9725,-15.5007,10.0887,-4.13054
-0.333049,18.4321,-13.0578,20.7612,-5.96728,3.30807,20.8618,0.919297,-3.74057,3.12124,0.205318,-1.65998,-8.27412,0.179941,0.272574,-11.53,-2.15329,-6.99203,-3.16956,-2.09824,8.76074,1.21881,-0.824518,4.07521,-2.98177e-16,2.88238e-15,-38.2346,-3.84191,-74.3814,22.746,19.6432,-29.1008,2.59479,7.12502,-2.44905,-27.3709,-2.98177e-16,2.88238e-15,-41.5891,5.11728,75.2261,21.2063,-3.75295,-21.3023,25.8294,7.12502,5.08244,55.7485,-42.0286,19.6283,3.5871,36.6886,-18.4159,-13.801,-0.521916,-37.6135,-1.18649,-22.4283,33.8897,-15.5277,9.88197,-4.11898
-0.327238,18.4357,-13.0368,20.9089,-5.80593,3.35435,21.0968,0.842223,-3.6707,3.17741,0.112949,-1.63336,-8.33537,0.134722,0.285706,-11.7291,-2.17441,-7.01353,-3.14807,-2.11384,8.73648,1.26276,-0.828408,4.0707,-4.87022e-15,-2.61402e-14,-38.7395,-3.92009,-74.2095,22.3603,19.6481,-29.005,2.65626,7.12502,-2.35652,-27.3105,-4.87022e-15,-2.61402e-14,-42.1684,5.50394,74.8196,20.8551,-4.28812,-21.0995,25.6428,7.12502,5.27829,55.557,-41.9885,19.4598,3.56147,36.5997,-18.4669,-13.8233,-0.485399,-37.6864,-1.24767,-22.4808,33.8353,-15.5538,9.78729,-4.32649
-0.320664,18.4346,-13.0205,21.1229,-5.86155,3.27375,21.2269,0.847163,-3.61203,3.28732,0.130707,-1.61591,-8.2846,0.139876,0.266424,-12.0503,-2.17545,-6.95867,-3.20294,-2.101,8.68218,1.29844,-0.817122,4.04158,1.04859e-14,2.94201e-14,-39.0699,-4.01718,-74.0868,21.9524,19.5686,-29.0248,2.98037,7.12502,-2.3757,-26.9861,1.04859e-14,2.94201e-14,-42.5224,5.82091,74.4722,20.5155,-4.63079,-20.7011,26.0195,7.12502,5.66291,55.9238,-42.1338,19.3712,3.57629,36.5259,-18.4187,-13.7287,-0.770733,-37.8494,-1.21746,-22.4301,33.821,-15.6328,9.80631,-4.18336
-0.313466,18.4343,-13.0025,21.3901,-5.85382,3.17575,21.2927,0.853907,-3.49185,3.40904,0.169216,-1.59024,-8.18684,0.152731,0.215956,-12.4399,-2.20437,-6.99147,-3.28524,-2.11031,8.73891,1.34344,-0.812606,4.06904,1.41137e-14,-5.26779e-15,-39.2435,-4.24076,-73.9339,21.4179,19.5585,-28.9256,2.97421,7.12502,-2.27988,-26.9934,1.41137e-14,-5.26779e-15,-42.7567,6.1432,74.1242,20.1233,-5.04746,-20.6809,26.0121,7.12502,5.68242,55.9159,-42.3361,19.215,3.62621,36.5107,-18.4253,-13.5815,-0.792597,-38.0834,-1.24798,-22.338,33.8292,-15.6944,9.85856,-3.51055
-0.306535,18.4338,-12.9808,21.6107,-5.92426,3.11581,21.4173,0.909829,-3.50146,3.45298,0.240041,-1.52946,-8.20735,0.187168,0.267178,-12.7898,-2.23538,-7.04981,-3.13427,-2.11967,9.05325,1.30718,-0.794987,3.78712,-1.67476e-14,-1.79403e-14,-39.5332,-4.51147,-73.6008,20.8389,19.7747,-28.6716,2.71856,7.12502,-2.03458,-27.2515,-1.67476e-14,-1.79403e-14,-43.1584,6.5598,73.7829,19.7973,-5.58765,-20.4258,26.1514,7.12502,5.92878,56.0484,-42.5845,19.1177,3.62008,36.6555,-18.5125,-13.474,-0.928279,-38.3024,-1.20547,-22.3272,33.9464,-15.8543,9.84349,-1.81696
-0.305576,18.429,-12.9695,21.8686,-5.54027,3.20845,21.5946,0.784293,-3.44164,3.42871,0.0911198,-1.43608,-8.32403,0.118145,0.374898,-12.7869,-2.24756,-7.18227,-3.23822,-2.11205,9.08061,1.27703,-0.790344,3.81815,1.17283e-14,4.91992e-15,-39.9632,-4.56519,-73.3656,20.3702,19.7122,-28.6647,2.85557,7.12502,-2.02789,-27.1145,1.17283e-14,4.91992e-15,-43.6687,6.91769,73.4705,19.545,-6.10109,-20.0974,26.6584,7.12502,6.24579,56.5463,-42.7997,18.7817,3.59234,36.8777,-18.7101,-13.5753,-1.05868,-38.6536,-1.43824,-22.3302,34.099,-15.9564,9.59575,-2.48587
-0.311477,18.4014,-12.9983,22.8381,-4.9674,3.45789,21.3488,0.570102,-3.49042,3.17788,-0.185061,-1.36726,-8.45966,-0.00539703,0.554736,-12.7382,-2.23332,-7.22863,-3.43509,-2.07823,9.07728,1.20862,-0.775776,3.82749,-4.64659e-15,5.31749e-15,-40.3051,-4.7355,-73.1707,19.859,19.8841,-28.6651,3.30831,7.12502,-2.02831,-26.6618,-4.64659e-15,5.31749e-15,-44.1058,7.21053,73.1457,19.3237,-6.52566,-19.695,27.3676,7.12502,6.63429,57.2437,-43.9942,18.0203,3.20247,37.2129,-18.7343,-13.6889,-0.910888,-40.0507,-1.67024,-22.4694,34.3097,-15.6625,9.21415,-1.99681
-0.307043,18.3917,-12.9839,23.128,-4.86686,3.49191,21.3386,0.527336,-3.42272,3.28451,-0.223826,-1.39613,-8.3358,-0.02875,0.496197,-13.0487,-2.2374,-7.09038,-3.50903,-2.08041,9.02019,1.2321,-0.772997,3.78658,-6.98231e-15,2.0276e-14,-40.46,-5.48286,-72.8344,19.4675,20.6494,-28.2947,3.72106,7.12502,-1.67049,-26.2521,-6.98231e-15,2.0276e-14,-44.2868,7.40064,72.8605,19.1609,-6.7571,-19.1512,28.1573,7.12502,7.15923,58.0162,-44.3891,17.8184,3.12401,37.5358,-18.932,-13.625,-0.726661,-40.4716,-1.66569,-22.5287,34.5543,-15.7258,9.06013,-1.40397
-0.301303,18.3852,-12.9641,23.3369,-4.75057,3.5354,21.3433,0.486733,-3.34052,3.35105,-0.256654,-1.40553,-8.26449,-0.0482257,0.448625,-12.8952,-2.27426,-7.08177,-3.81773,-2.13787,8.71297,1.24998,-0.819455,4.07436,-1.40392e-14,1.963e-15,-40.9184,-6.03676,-72.528,19.4905,20.9097,-27.9625,4.05676,7.12502,-1.34969,-25.9187,-1.40392e-14,1.963e-15,-44.5901,7.43497,72.7018,19.0379,-6.69768,-19.2979,27.7883,7.12502,7.01757,57.652,-44.6451,17.5872,3.10333,37.8598,-19.1449,-13.5668,-0.758581,-40.812,-1.73214,-22.5795,34.8955,-15.9549,8.90782,-1.142
-0.296483,18.372,-12.9524,23.6888,-4.69218,3.47513,21.3806,0.468332,-3.23386,3.3386,-0.256326,-1.38245,-8.29857,-0.0502096,0.412732,-12.8807,-2.30221,-7.04499,-4.03354,-2.16967,8.66076,1.17601,-0.83836,4.0449,-4.24902e-15,3.77691e-15,-41.3137,-6.34888,-72.3445,19.4421,20.8113,-27.8806,4.21039,7.12502,-1.27062,-25.7656,-4.24902e-15,3.77691e-15,-44.9052,7.55081,72.5402,19.0153,-6.7069,-19.8198,26.7357,7.12502,6.51379,56.6156,-45.0879,17.3849,3.10922,38.0713,-19.225,-13.5365,-0.827203,-41.3266,-1.71877,-22.528,35.1868,-16.1022,8.75215,-0.517898
-0.298838,18.3524,-12.9458,23.9663,-4.59813,3.20892,21.7258,0.474945,-3.03755,3.2601,-0.210842,-1.27876,-8.57142,-0.0290038,0.39977,-12.8056,-2.26781,-7.0836,-4.26323,-2.11026,8.66049,1.08156,-0.81067,4.05443,-1.21756e-15,4.05024e-15,-41.6837,-6.65431,-72.1436,19.2395,20.9311,-27.7908,4.11151,7.12502,-1.1839,-25.865,-1.21756e-15,4.05024e-15,-45.3289,7.73591,72.341,19.1529,-6.8301,-20.2581,25.9554,7.12502,6.0906,55.8478,-45.5347,17.4352,3.30933,38.3288,-19.3344,-13.637,-0.631196,-41.8753,-1.60878,-22.2263,35.6517,-16.2714,8.59652,0.0426077
-0.295307,18.35,-12.9056,23.8689,-4.43422,3.17116,22.0695,0.418632,-2.88904,3.35957,-0.257711,-1.24749,-8.64426,-0.0550143,0.362357,-12.9064,-2.20995,-7.11562,-4.38964,-2.0154,8.66024,1.0495,-0.760931,4.06581,-2.04997e-15,-8.77137e-15,-41.9794,-6.94653,-71.9487,19.0396,21.0742,-27.504,4.0256,7.12502,-0.906908,-25.9522,-2.04997e-15,-8.77137e-15,-45.6717,7.85465,72.2111,19.273,-6.90645,-20.1738,25.7993,7.12502,6.17203,55.6894,-45.3282,17.3577,3.50915,38.6211,-19.6922,-13.642,-0.574791,-41.8501,-1.65314,-22.1899,36.1258,-16.6811,8.42827,0.329263
-0.296094,18.3079,-12.911,24.5375,-4.35021,2.68669,22.2375,0.418425,-2.4911,3.11915,-0.164248,-1.11399,-9.00363,-0.0162001,0.252384,-12.9361,-2.19768,-7.11912,-4.54714,-1.98827,8.63516,0.999308,-0.747742,4.05828,1.73937e-15,2.17048e-14,-42.2724,-7.05344,-71.8836,18.8561,20.8673,-27.3339,3.91881,7.12502,-0.742616,-26.0596,1.73937e-15,2.17048e-14,-45.9764,7.77809,72.2022,19.3401,-6.80166,-19.4398,26.6202,7.12502,6.88058,56.4884,-46.3898,17.3653,3.77738,38.9927,-19.6726,-13.7499,-0.620373,-42.983,-1.57645,-21.591,36.6829,-16.7643,8.44909,0.395781
-0.291775,18.2845,-12.8949,24.8294,-4.21696,2.77575,22.3986,0.376642,-2.4761,3.06073,-0.220407,-1.10383,-9.15345,-0.0409893,0.270764,-12.9703,-2.22359,-7.07174,-4.69812,-2.01955,8.53745,0.954608,-0.765897,4.01118,1.02498e-14,1.49089e-16,-42.4935,-7.29966,-71.7161,18.6597,20.8264,-27.012,3.51601,7.12502,-0.431642,-26.4633,1.02498e-14,1.49089e-16,-46.2634,7.73691,72.2528,19.5659,-6.58977,-18.8965,27.4876,7.12502,7.40503,57.338,-46.8559,17.1183,3.67409,39.4065,-19.8309,-13.7957,-0.884132,-43.5198,-1.62832,-21.6918,37.1449,-16.9672,8.28607,0.53404
-0.286387,18.268,-12.8678,24.9322,-4.1219,2.97315,22.5116,0.344695,-2.55351,3.1241,-0.285189,-1.13222,-9.14172,-0.0696319,0.303122,-12.986,-2.23458,-7.0964,-4.90592,-2.01949,8.56285,0.889082,-0.765661,4.02441,-4.57826e-15,-1.05294e-15,-42.6353,-7.73741,-71.4668,18.5015,20.8774,-26.7296,3.48416,7.12502,-0.158963,-26.4955,-4.57826e-15,-1.05294e-15,-46.4634,7.7405,72.31,19.855,-6.32673,-18.6814,27.7373,7.12502,7.61264,57.5803,-47.0568,16.8627,3.54099,39.878,-20.109,-13.7637,-1.24481,-43.786,-1.59743,-21.9849,37.6191,-17.2099,8.01129,0.541072
-0.281972,18.2476,-12.8374,24.9516,-4.12287,3.11034,22.7238,0.352067,-2.68432,3.21053,-0.31357,-1.14238,-9.15748,-0.0790129,0.375331,-13.0084,-2.23732,-7.15642,-5.15646,-2.00092,8.61628,0.810135,-0.755152,4.05585,-2.1315e-15,-2.7329e-15,-42.6661,-8.16371,-71.2265,18.3323,21.0224,-26.6973,3.63893,7.12502,-0.127769,-26.3408,-2.1315e-15,-2.7329e-15,-46.5934,7.98021,72.2511,20.1,-6.32374,-18.5242,27.7123,7.12502,7.76441,57.5497,-47.0876,16.7773,3.42625,40.1329,-20.3682,-13.7271,-1.15192,-43.8353,-1.54908,-22.2122,37.8544,-17.3954,7.83836,0.619448
-0.273841,18.2293,-12.7986,25.0319,-4.14832,3.2439,22.7693,0.365633,-2.82914,3.30642,-0.327083,-1.11345,-9.07357,-0.0815626,0.494346,-13.1041,-2.26226,-7.25604,-5.35405,-2.00527,8.5947,0.762555,-0.754996,4.06736,6.64686e-15,-1.63625e-14,-42.6739,-8.38164,-70.9944,18.2208,21.1224,-26.6303,3.65743,7.12502,-0.0630417,-26.3223,6.64686e-15,-1.63625e-14,-46.5975,8.06641,72.4739,20.3055,-5.977,-18.7027,27.4475,7.12502,7.59209,57.2913,-47.2888,16.6972,3.27619,40.6791,-20.7955,-13.68,-1.35331,-43.9584,-1.65298,-22.3868,38.1984,-17.752,7.78636,0.693461
-0.246811,18.2557,-12.6729,23.4517,-5.49457,2.90368,23.9022,0.927257,-3.07639,3.88521,0.287647,-1.23757,-9.04543,0.206108,0.310647,-13.1851,-2.29589,-7.33548,-5.45262,-2.02963,8.60911,0.747605,-0.764394,4.08704,1.51325e-14,2.39784e-14,-42.817,-8.43181,-70.9261,18.2527,20.9686,-26.4671,3.49473,7.12502,0.094623,-26.485,1.51325e-14,2.39784e-14,-46.6314,7.85912,72.8163,20.6126,-5.40718,-18.815,27.5261,7.12502,7.48375,57.3737,-45.6123,18.0164,3.69313,41.0809,-21.5083,-13.1723,-1.74174,-41.7112,-0.845837,-22.5807,38.5066,-18.9301,8.18175,0.835604
-0.271766,18.1822,-12.7408,25.239,-3.88137,3.70478,23.1376,0.307267,-3.11637,3.33816,-0.487728,-1.14003,-9.22708,-0.14551,0.677974,-13.2117,-2.31613,-7.27666,-5.64391,-2.05375,8.60712,0.689516,-0.777788,4.07272,-2.70844e-15,5.24295e-15,-42.8646,-8.46018,-71.021,18.4153,20.4241,-25.6346,2.84583,7.12502,0.898633,-27.132,-2.70844e-15,5.24295e-15,-46.6553,7.60785,73.1247,21.0435,-4.87674,-18.6671,27.7396,7.12502,7.62645,57.5821,-47.7743,16.1831,2.98502,41.9304,-21.7033,-13.5429,-1.46194,-44.4483,-1.72813,-22.9294,39.0247,-18.3265,7.28499,0.478805
-0.268259,18.1547,-12.7026,25.1917,-3.85021,3.80353,23.3519,0.296537,-3.17632,3.43951,-0.523467,-1.1519,-9.22614,-0.161148,0.71073,-13.2583,-2.31437,-7.23211,-5.89381,-2.04234,8.57409,0.611859,-0.773391,4.05203,1.55549e-14,1.24489e-14,-42.7729,-8.48467,-71.098,18.5311,19.8153,-24.7545,2.36834,7.12502,1.74871,-27.6042,1.55549e-14,1.24489e-14,-46.5876,7.43697,73.4606,21.4064,-4.36071,-18.7567,27.7585,7.12502,7.53998,57.6041,-47.8826,16.1185,2.94721,42.6358,-22.2329,-13.4491,-1.50779,-44.513,-1.65697,-23.1169,39.5314,-18.6799,7.0414,0.496023
-0.267643,18.1178,-12.6698,25.3405,-3.7813,4.08156,23.3813,0.273312,-3.38448,3.46756,-0.608854,-1.19356,-9.20554,-0.195226,0.810007,-13.3737,-2.2951,-7.27767,-6.06547,-1.994,8.61534,0.572097,-0.745724,4.07861,7.28049e-15,1.82882e-14,-42.6681,-8.56321,-71.1535,18.4108,19.5689,-24.9852,2.68461,7.12502,1.52586,-27.2897,7.28049e-15,1.82882e-14,-46.4935,7.0754,73.9231,21.7922,-3.65425,-19.0064,27.7968,7.12502,7.29894,57.6509,-48.348,15.8845,2.69365,43.6232,-22.8371,-13.4002,-1.80834,-44.9214,-1.65488,-23.4703,40.2177,-19.0702,6.78982,0.257353
-0.266204,18.0831,-12.636,25.5149,-3.64401,4.26824,23.3621,0.239232,-3.41472,3.48516,-0.663562,-1.24572,-9.17406,-0.221131,0.786386,-13.4614,-2.32554,-7.26053,-6.21836,-2.02388,8.63521,0.539064,-0.759489,4.08063,-8.05078e-15,5.01931e-15,-42.5858,-9.02671,-71.0234,18.1062,20.3153,-25.9394,3.52117,7.12502,0.604273,-26.4577,-8.05078e-15,5.01931e-15,-46.3556,6.73283,74.2707,22.1943,-3.03182,-19.1013,27.639,7.12502,7.20734,57.4962,-48.7865,15.5963,2.57134,44.4184,-23.3318,-13.298,-1.65883,-45.3231,-1.58245,-23.7403,40.8455,-19.47,6.41113,0.14833
-0.263738,18.0462,-12.6008,25.6249,-3.50228,4.42024,23.4241,0.192564,-3.37791,3.51131,-0.723997,-1.3224,-9.17716,-0.251869,0.699476,-13.4497,-2.35887,-7.17399,-6.48089,-2.06781,8.64462,0.452154,-0.784544,4.06402,4.64659e-15,1.40143e-14,-42.483,-9.14679,-71.1935,18.3893,19.6158,-24.4465,2.37266,7.12502,2.04618,-27.5973,4.64659e-15,1.40143e-14,-46.2004,6.28046,74.6475,22.6727,-2.41788,-18.9091,27.4486,7.12502,7.39286,57.2994,-49.1876,15.304,2.52498,45.2805,-23.8379,-13.1857,-1.78267,-45.6927,-1.44554,-24.0028,41.5459,-19.8694,5.97908,0.14526
-0.26189,17.9974,-12.5652,25.7992,-3.44859,4.6712,23.4592,0.151893,-3.52569,3.49834,-0.822584,-1.40101,-9.20577,-0.293711,0.727475,-13.5539,-2.34744,-7.11588,-6.63387,-2.04651,8.63331,0.416117,-0.773607,4.0495,4.42296e-15,2.1096e-14,-42.4092,-8.72864,-71.61,18.7452,18.789,-24.0651,2.2359,7.12502,2.4145,-27.7302,4.42296e-15,2.1096e-14,-45.9957,5.81665,75.1142,23.0925,-1.71845,-18.7491,27.5468,7.12502,7.54734,57.3921,-49.6898,15.0281,2.30569,46.192,-24.3681,-13.089,-2.21628,-46.1777,-1.34446,-24.3755,42.293,-20.2271,5.69553,0.106534
-0.256914,17.9418,-12.5298,26.0137,-3.35969,4.87816,23.4197,0.114547,-3.65074,3.4745,-0.899572,-1.39746,-9.20646,-0.325119,0.826106,-13.6371,-2.37183,-7.24623,-6.75504,-2.04949,8.68287,0.393366,-0.770423,4.09342,-6.33626e-15,-1.22998e-14,-42.2592,-8.58337,-71.7458,18.8492,18.7142,-24.4716,2.7578,7.12502,2.02191,-27.2124,-6.33626e-15,-1.22998e-14,-45.738,5.42361,75.6877,23.3727,-1.24211,-18.8453,27.4628,7.12502,7.45449,57.3115,-50.2274,14.7472,2.12336,47.1589,-24.871,-13.0472,-2.77917,-46.7749,-1.31996,-24.67,43.1772,-20.7037,5.46823,-0.0850522
-0.257009,17.8962,-12.4858,25.923,-3.00148,5.08323,23.6098,-0.00328247,-3.61487,3.57476,-1.04584,-1.38693,-9.18974,-0.395179,0.863198,-13.6137,-2.42325,-7.33307,-7.03957,-2.09277,8.74317,0.300794,-0.791249,4.1304,-6.36111e-15,8.19987e-15,-41.9666,-8.6376,-71.8775,18.784,18.9506,-24.9424,2.685,7.12502,1.56724,-27.289,-6.36111e-15,8.19987e-15,-45.436,5.08406,76.1562,23.7749,-0.98498,-18.9723,27.4088,7.12502,7.33184,57.2617,-50.276,14.4007,2.20436,48.1731,-25.5092,-13.0225,-3.12865,-47.0219,-1.44288,-24.8424,44.1899,-21.3317,5.11046,-0.250744
-0.259752,17.8347,-12.4565,26.0844,-2.81169,4.97066,23.7316,-0.0646626,-3.43907,3.55359,-1.08327,-1.34863,-9.27899,-0.415887,0.817531,-13.6367,-2.43697,-7.40185,-7.31497,-2.08472,8.83058,0.214947,-0.785133,4.1767,-6.01324e-15,4.72114e-15,-41.6927,-8.5156,-72.1679,18.7856,19.0379,-25.6804,2.81013,7.12502,0.854395,-27.1679,-6.01324e-15,4.72114e-15,-45.1255,4.8985,76.4578,24.2518,-0.759016,-18.8824,27.3969,7.12502,7.41869,57.2468,-50.8543,14.2111,2.44088,49.2538,-26.0435,-12.9063,-3.22128,-47.7121,-1.29869,-24.74,45.355,-21.831,4.76636,-0.899539
-0.267362,17.7565,-12.4319,26.2592,-2.58474,4.68317,23.9771,-0.103732,-3.18592,3.48323,-1.07172,-1.24195,-9.4906,-0.412867,0.789367,-13.8063,-2.44887,-7.38892,-7.43367,-2.08612,8.80964,0.203822,-0.783123,4.16661,-4.37326e-15,-1.63997e-15,-41.3919,-8.44015,-72.4385,18.834,19.1074,-26.5095,3.5059,7.12502,0.0536615,-26.4738,-4.37326e-15,-1.63997e-15,-44.7527,4.65706,76.7959,24.6223,-0.394263,-18.8907,27.2307,7.12502,7.41061,57.0809,-51.507,14.1668,2.83602,50.3913,-26.5536,-12.9474,-3.57643,-48.5036,-1.09974,-24.4099,46.5666,-22.2967,4.40776,-2.27334
-0.270243,17.6803,-12.3984,26.38,-2.298,4.66844,24.134,-0.161659,-3.07334,3.44447,-1.11707,-1.17038,-9.61609,-0.433913,0.81993,-13.9298,-2.47949,-7.33918,-7.56761,-2.12193,8.67897,0.179785,-0.801638,4.10749,-1.00386e-14,-1.25234e-14,-41.0839,-8.34215,-72.691,18.9536,19.0595,-26.9317,3.554,7.12502,-0.354128,-26.4254,-1.00386e-14,-1.25234e-14,-44.2645,4.27095,77.2705,24.7989,-0.136061,-18.8993,27.1104,7.12502,7.40233,56.9609,-52.0324,13.8749,3.04997,51.6157,-27.1098,-13.0103,-3.68225,-49.2076,-1.03233,-24.3898,47.8232,-22.8801,4.07397,-3.43229
-0.270709,17.6145,-12.3601,26.2981,-1.89733,4.88998,24.3598,-0.300319,-3.06064,3.50303,-1.29334,-1.12635,-9.66259,-0.514572,0.919423,-13.9969,-2.47817,-7.37373,-7.77638,-2.102,8.59773,0.118493,-0.79079,4.08649,-2.73329e-15,1.07841e-14,-40.6614,-8.20361,-72.8969,19.1867,19.3323,-26.4309,2.8139,7.12502,0.12954,-27.1658,-2.73329e-15,1.07841e-14,-43.7433,4.06368,77.7075,25.0288,-0.0975437,-19.4298,26.9204,7.12502,6.89031,56.7882,-52.2758,13.3346,3.20425,52.9127,-27.842,-12.9406,-3.64702,-49.6026,-1.17406,-24.5686,49.0481,-23.5244,3.77738,-3.76315
-0.272458,17.535,-12.3267,26.4427,-1.57204,4.98108,24.2833,-0.426779,-2.94419,3.52293,-1.42158,-1.12636,-9.59826,-0.579344,0.892096,-14.059,-2.49045,-7.36549,-8.00324,-2.10432,8.60017,0.0533069,-0.791498,4.08614,-9.0447e-15,1.98785e-16,-40.1968,-8.25504,-73.1177,19.4998,19.884,-25.4138,2.22846,7.12502,1.11192,-27.7484,-9.0447e-15,1.98785e-16,-43.1822,3.73831,78.0862,25.3161,0.120797,-20.31,27.1495,7.12502,6.0405,57.0434,-52.8835,12.7791,3.38861,54.2705,-28.461,-12.8414,-4.34466,-50.3111,-1.24121,-24.6218,50.2914,-24.0942,3.57669,-3.96422
-0.269959,17.4468,-12.2865,26.5155,-1.50797,5.13116,24.331,-0.432506,-2.94504,3.47305,-1.44222,-1.21784,-9.68143,-0.588731,0.798697,-14.1018,-2.55303,-7.2878,-8.17419,-2.18839,8.58666,0.00924632,-0.835702,4.06165,3.52843e-15,-1.15792e-14,-39.8832,-8.20828,-73.4505,19.7669,19.9234,-24.9659,2.17562,7.12502,1.5445,-27.7985,3.52843e-15,-1.15792e-14,-42.687,3.34065,78.3903,25.6123,0.299257,-20.0999,27.822,7.12502,6.24338,57.71,-53.54,12.3778,3.35163,55.6856,-28.9632,-12.6166,-5.31483,-50.9254,-1.13101,-24.8812,51.5489,-24.6915,3.55938,-4.59474
-0.270414,17.3624,-12.2383,26.3896,-1.26175,5.37873,24.5928,-0.473854,-3.01913,3.44009,-1.52735,-1.23935,-9.85259,-0.622268,0.848337,-14.1381,-2.56735,-7.30298,-8.28696,-2.19756,8.55829,-0.0219027,-0.839438,4.05428,-8.99501e-15,-2.05245e-14,-39.5203,-8.07787,-73.7644,19.8353,19.5942,-25.0644,2.33955,7.12502,1.44938,-27.6353,-8.99501e-15,-2.05245e-14,-42.1592,3.19007,78.6567,25.7723,0.075079,-19.4247,27.8505,7.12502,6.89516,57.7182,-53.878,11.9035,3.36936,57.1349,-29.4829,-12.4572,-6.11024,-51.3106,-1.14558,-25.1651,52.8441,-25.2752,3.58919,-5.31094
-0.272481,17.2785,-12.1928,26.2828,-0.850793,5.63925,24.7353,-0.598318,-2.98671,3.47336,-1.68429,-1.25983,-9.88663,-0.695647,0.85942,-14.3532,-2.59119,-7.3842,-8.25207,-2.20495,8.58378,0.0285843,-0.835676,4.07895,-5.36719e-15,-7.30534e-15,-39.0057,-8.02802,-74.1268,19.9131,19.2619,-25.3941,2.4302,7.12502,1.13096,-27.5465,-5.36719e-15,-7.30534e-15,-41.4182,3.17869,78.8132,25.8204,-0.293021,-19.3757,27.4714,7.12502,6.94245,57.3375,-54.173,11.2403,3.51229,58.6442,-30.0411,-12.414,-6.9449,-51.738,-1.29649,-25.3846,54.165,-25.834,3.51098,-6.15425
-0.27439,17.1897,-12.148,26.1965,-0.49695,5.80864,24.8207,-0.720886,-2.87303,3.49473,-1.81888,-1.3074,-9.90847,-0.762472,0.78614,-14.518,-2.63842,-7.35448,-8.29252,-2.26027,8.57254,0.0470447,-0.860978,4.0658,-1.14301e-14,-1.54058e-14,-38.4773,-7.80768,-74.6726,20.056,18.5738,-26.1494,2.69022,7.12502,0.40149,-27.2891,-1.14301e-14,-1.54058e-14,-40.6969,3.21509,78.8798,26.0076,-0.666067,-19.3128,27.6514,7.12502,7.00322,57.5156,-54.5812,10.596,3.76198,60.2231,-30.5003,-12.5145,-8.02297,-52.214,-1.33967,-25.546,55.5135,-26.3625,3.24489,-6.67148
-0.276335,17.093,-12.1014,26.154,-0.161474,5.90688,24.8666,-0.80981,-2.78039,3.48164,-1.90933,-1.30001,-9.94746,-0.806564,0.771493,-14.7313,-2.68971,-7.31693,-8.32704,-2.32122,8.48408,0.0742154,-0.889113,4.02272,-9.44227e-15,-6.95746e-15,-37.9531,-7.31061,-75.3014,20.2828,17.2975,-27.2707,3.17017,7.12502,-0.681505,-26.8085,-9.44227e-15,-6.95746e-15,-39.8973,3.41786,78.9226,26.1132,-1.25865,-19.1096,28.0946,7.12502,7.19936,57.9522,-55.1229,10.0322,4.00918,61.8853,-31.0036,-12.4188,-8.6372,-52.7619,-1.33851,-25.6324,56.9201,-26.8576,2.81803,-6.72815
-0.276401,16.9937,-12.0548,26.1053,0.206799,6.1498,24.9666,-0.910874,-2.75575,3.40709,-2.03791,-1.29933,-10.0813,-0.8638,0.802601,-14.889,-2.72163,-7.3929,-8.29892,-2.34447,8.4325,0.112321,-0.895533,4.01764,1.02374e-14,8.24956e-15,-37.5083,-6.88126,-75.7545,20.5389,16.1884,-27.9307,3.6746,7.12502,-1.31895,-26.3011,1.02374e-14,8.24956e-15,-39.1332,3.88345,78.9061,26.1345,-2.02245,-19.0654,28.2424,7.12502,7.242,58.0985,-55.6605,9.39938,4.05923,63.6317,-31.5901,-12.1306,-9.14376,-53.2678,-1.5089,-25.8121,58.3568,-27.4158,2.38127,-6.39001
-0.275087,16.8885,-12.0141,26.1277,0.506547,6.45272,25.1068,-1.01468,-2.74781,3.23505,-2.18804,-1.3704,-10.349,-0.928974,0.772945,-14.9836,-2.67058,-7.32959,-8.23232,-2.28145,8.41531,0.143899,-0.86289,4.0022,-1.22253e-14,1.59028e-15,-37.1374,-6.6579,-76.1377,20.6941,15.7441,-28.847,4.10535,7.12502,-2.2039,-25.863,-1.22253e-14,1.59028e-15,-38.4176,4.44078,78.7848,26.1656,-2.41268,-19.2927,28.235,7.12502,7.02261,58.0985,-56.3746,8.73466,3.97958,65.4471,-31.9547,-11.8412,-10.4639,-53.905,-1.63781,-26.0993,59.8253,-27.9432,2.0082,-5.99623
-0.271165,16.7809,-11.9666,26.0084,0.766716,6.62237,24.769,-1.03232,-2.80469,3.45363,-2.19907,-1.32476,-9.91896,-0.94,0.849482,-15.2632,-2.60119,-7.24225,-8.37559,-2.17598,8.38042,0.131828,-0.806421,3.97861,-4.05521e-14,-8.24956e-15,-36.2196,-6.37157,-76.5243,20.8888,14.9428,-29.9536,4.7913,7.12502,-3.27262,-25.1633,-4.05521e-14,-8.24956e-15,-37.0369,5.13728,78.8715,26.0518,-2.39074,-19.8794,28.1031,7.12502,6.45621,57.9847,-56.917,8.17039,4.02058,67.255,-32.0908,-11.574,-12.1445,-54.3963,-1.66772,-26.3161,61.3136,-28.4887,1.97513,-6.6554
-0.269878,16.68,-11.9062,25.5346,1.0239,6.70045,25.3477,-1.03418,-2.80104,3.38575,-2.21731,-1.27188,-10.2979,-0.938687,0.92664,-15.4144,-2.64007,-7.34393,-8.32475,-2.20532,8.3364,0.177471,-0.815221,3.98116,4.67144e-15,-8.94531e-16,-35.7413,-5.65841,-77.0375,21.0822,13.4232,-31.036,6.05504,7.12502,-4.3179,-23.8809,4.67144e-15,-8.94531e-16,-36.2746,5.83149,78.885,26.0977,-3.02694,-20.2213,28.0991,7.12502,6.12621,57.9905,-57.0033,7.82322,4.19268,69.0413,-32.229,-11.4973,-14.3904,-54.417,-1.68202,-26.4043,62.7903,-29.1596,1.97788,-7.4309
-0.269934,16.5818,-11.8428,25.016,1.2894,6.79748,25.9195,-1.03204,-2.7991,3.37863,-2.23256,-1.25955,-10.6059,-0.938128,0.958048,-15.5162,-2.8033,-7.46007,-8.53365,-2.39118,8.26882,0.140335,-0.904706,3.9692,-1.27222e-14,-1.54058e-14,-35.1578,-5.0872,-77.6004,21.4884,11.8008,-31.2564,5.70331,7.12502,-4.53069,-24.2282,-1.27222e-14,-1.54058e-14,-35.3586,6.53835,78.8706,26.2017,-4.28172,-20.0531,28.449,7.12502,6.28858,58.3356,-57.0484,7.48922,4.3553,70.8442,-32.401,-11.3041,-15.8757,-54.3282,-1.80465,-26.4384,64.2164,-29.7917,1.84352,-7.81823
-0.271241,16.4813,-11.78,24.642,1.63882,6.95731,25.9976,-1.09137,-2.71782,3.52415,-2.2923,-1.34321,-10.4865,-0.973061,0.837963,-15.605,-2.924,-7.40844,-8.9274,-2.53528,8.31068,0.0349227,-0.976915,3.96656,1.0138e-14,-1.30204e-14,-34.4771,-4.93816,-78.1837,22.6816,10.1491,-29.5163,3.10604,7.12502,-2.85037,-26.8547,1.0138e-14,-1.30204e-14,-34.0712,7.04252,78.8912,26.255,-4.90185,-20.4277,28.4841,7.12502,5.9269,58.3813,-57.2673,6.99022,4.46483,72.7367,-32.5647,-10.9027,-16.8579,-54.3968,-2.00004,-26.5225,65.6628,-30.239,1.77191,-8.74039
-0.269864,16.3974,-11.7083,23.7893,2.72613,7.59934,26.824,-1.47562,-2.50374,3.6388,-2.75408,-1.42287,-10.7884,-1.18701,0.804469,-15.4259,-2.97576,-7.44454,-9.38423,-2.58539,8.40449,-0.141868,-1.00407,4.00729,-1.51076e-14,-1.97791e-14,-33.996,-4.82804,-78.5979,24.0244,8.56704,-27.9407,1.21637,7.12502,-1.32866,-28.7592,-1.51076e-14,-1.97791e-14,-33.0395,7.27674,79.1684,26.511,-4.66451,-21.4201,28.6886,7.12502,4.96875,58.6103,-56.5831,5.81864,4.50191,74.6544,-32.8637,-10.5007,-17.6382,-53.7223,-2.9223,-26.8201,66.9819,-30.5459,1.64919,-9.75822
-0.276497,16.2868,-11.6538,23.5288,3.09265,7.92776,27.032,-1.52907,-2.6512,3.57017,-2.87407,-1.43216,-10.9653,-1.23127,0.927803,-15.2648,-3.01335,-7.55837,-9.84909,-2.60507,8.43352,-0.321363,-1.01354,4.04289,7.45443e-15,-5.96354e-16,-33.2874,-4.50748,-79.0176,24.8239,7.13383,-28.1807,0.952138,7.12502,-1.56039,-29.0219,7.45443e-15,-5.96354e-16,-32.0524,7.20622,79.7081,27.1087,-3.6299,-22.3416,29.4887,7.12502,4.07893,59.4294,-57.0916,5.1357,4.45715,76.6475,-32.7746,-10.1785,-18.5364,-53.9418,-3.18572,-27.0586,68.4353,-30.8704,1.60518,-10.5796
-0.28398,16.1716,-11.6026,23.3719,3.21067,8.17687,27.0301,-1.45208,-2.94995,3.58268,-2.85879,-1.42581,-10.9349,-1.21192,1.1005,-15.4239,-3.07064,-7.58843,-10.2793,-2.64799,8.35574,-0.437923,-1.03125,4.02093,-5.96354e-15,-1.5704e-14,-32.2919,-3.96728,-79.5295,25.5667,5.6582,-29.4624,0.71016,7.12502,-2.79829,-29.2512,-5.96354e-15,-1.5704e-14,-30.678,7.10822,80.3636,27.6547,-2.3619,-23.2693,30.3287,7.12502,3.18306,60.2846,-57.78,4.61185,4.40222,78.5654,-32.5957,-9.96881,-19.3978,-54.3436,-3.19517,-27.3285,69.9117,-31.215,1.63335,-11.454
-0.287597,16.0643,-11.5415,23.1164,3.41251,8.32504,27.0818,-1.3963,-3.07975,3.63313,-2.82249,-1.41849,-10.8981,-1.19022,1.17105,-15.7273,-3.14813,-7.43981,-10.6589,-2.74103,8.19881,-0.514311,-1.0779,3.93121,1.74931e-14,1.37161e-14,-31.2964,-3.36017,-80.0895,26.507,4.01878,-30.5028,0.295838,7.12502,-3.80302,-29.65,1.74931e-14,1.37161e-14,-29.0188,6.65505,81.1349,27.9604,-1.14487,-24.4554,31.4202,7.12502,2.03751,61.3902,-58.0956,4.04902,4.52024,80.3022,-32.4422,-9.80037,-19.9311,-54.5938,-3.24429,-27.4705,71.4273,-31.5642,1.55817,-12.2159
-0.290982,15.9723,-11.4741,22.8747,3.63499,8.24311,27.0274,-1.35158,-3.01524,3.63799,-2.73876,-1.37376,-10.868,-1.15423,1.15334,-15.7676,-3.19103,-7.21612,-11.1667,-2.81283,8.01854,-0.681302,-1.1223,3.82294,-2.78299e-15,-2.62396e-14,-30.2804,-2.72294,-80.6726,27.4449,2.5331,-31.3709,-0.775206,7.12502,-4.64133,-30.7044,-2.78299e-15,-2.62396e-14,-27.5101,5.80917,82.0256,28.6482,0.212061,-25.7311,33.3253,7.12502,0.805498,63.3035,-58.3338,3.6747,4.86293,81.8644,-32.4623,-9.62836,-20.2241,-54.8476,-3.20227,-27.3516,72.9587,-31.9264,1.27109,-12.4491
-0.295409,15.8821,-11.4082,22.6518,3.96263,8.12306,26.9116,-1.35572,-2.84569,3.64778,-2.68377,-1.31699,-10.8034,-1.1363,1.09717,-15.6133,-3.21503,-7.05351,-11.8381,-2.85327,7.90087,-0.935965,-1.15223,3.75578,1.41137e-14,-7.95139e-16,-29.1193,-2.06752,-81.2685,28.365,1.16286,-32.2155,-2.63329,7.12502,-5.45678,-32.543,1.41137e-14,-7.95139e-16,-26.0951,4.6943,82.9685,29.8315,1.82425,-27.1029,34.9084,7.12502,-0.519517,64.8875,-58.5834,3.26166,5.295,83.3358,-32.5392,-9.64519,-21.1425,-55.1735,-3.13846,-27.1798,74.5234,-32.1431,0.969182,-12.655
-0.301232,15.7768,-11.3504,22.3908,4.31343,8.03032,26.8854,-1.39945,-2.70287,3.67973,-2.69118,-1.2743,-10.7574,-1.14548,1.06451,-15.6121,-3.2403,-6.99185,-12.4315,-2.86609,7.94913,-1.13688,-1.16102,3.76878,1.47101e-14,-2.38542e-15,-27.8345,-1.27018,-81.9346,29.4633,-0.26567,-34.0477,-1.02932,7.12502,-7.22562,-30.886,1.47101e-14,-2.38542e-15,-24.5639,3.58812,83.8401,31.2276,3.44631,-28.3067,35.2002,7.12502,-1.68212,65.1733,-58.8342,2.73865,5.71166,84.7894,-32.6783,-9.53666,-22.0725,-55.5695,-3.07358,-27.0445,76.1364,-32.1894,0.924235,-13.4053
-0.309295,15.6751,-11.2937,22.1229,4.52386,8.02142,26.8487,-1.36592,-2.78837,3.68091,-2.66458,-1.22258,-10.7309,-1.12916,1.16128,-15.5728,-3.29372,-6.9623,-12.9634,-2.92015,7.95018,-1.32102,-1.19028,3.76949,2.18663e-14,9.93923e-16,-26.4815,-0.280651,-82.5775,30.6889,-1.63139,-35.4183,-1.46278,7.12502,-8.54848,-31.2697,2.18663e-14,9.93923e-16,-23.2003,2.18807,84.7757,33.0853,4.88533,-29.1868,34.9343,7.12502,-2.53209,64.899,-59.059,2.31129,5.96833,86.1406,-32.8534,-9.3546,-23.1906,-55.9464,-2.94929,-27.0309,77.7134,-32.1896,1.07177,-14.7249
-0.311509,15.5926,-11.2226,21.7994,4.72656,7.98338,26.6377,-1.33437,-2.81865,3.7305,-2.61735,-1.17284,-10.5619,-1.10945,1.21105,-15.4411,-3.34634,-6.89778,-13.5339,-2.98565,7.90032,-1.53472,-1.22853,3.74743,-3.91606e-14,1.78906e-15,-25.1348,0.785272,-83.1777,32.3159,-2.48675,-37.9693,-1.44587,7.12502,-11.0096,-31.1372,-3.91606e-14,1.78906e-15,-21.9429,0.292488,85.7049,35.4048,6.27738,-29.6849,34.6713,7.12502,-3.01312,64.6298,-58.9617,2.00153,6.1994,87.2626,-33.1684,-9.02641,-23.5928,-56.1112,-2.81235,-26.9935,79.1964,-32.175,0.964333,-15.3132
-0.308917,15.5166,-11.141,21.4461,5.05713,7.86166,26.2625,-1.38365,-2.68137,3.84552,-2.61461,-1.08412,-10.2375,-1.11982,1.21752,-15.383,-3.40996,-6.90852,-14.0565,-3.04883,7.92164,-1.7188,-1.26093,3.76525,1.82882e-14,-2.98177e-15,-23.7091,1.89723,-83.72,34.3688,-2.94549,-39.4578,-3.07702,7.12502,-12.445,-32.6865,1.82882e-14,-2.98177e-15,-20.5148,-1.86245,86.5624,38.0027,7.94303,-29.8817,34.8357,7.12502,-3.20323,64.7914,-58.5484,1.67033,6.5334,88.2005,-33.4714,-8.68427,-23.7401,-56.1411,-2.8036,-26.7999,80.6097,-32.1583,0.6285,-15.3115
-0.314044,15.4388,-11.0675,21.0946,5.33294,7.6422,25.9105,-1.40653,-2.57745,3.93077,-2.58852,-0.972094,-9.9575,-1.11643,1.26199,-15.2854,-3.46828,-6.8547,-14.5145,-3.12318,7.89517,-1.88864,-1.30274,3.75305,-4.17448e-15,-7.95139e-15,-22.2115,3.29719,-84.281,36.7895,-3.5067,-40.766,-4.48101,7.12502,-13.7061,-34.0096,-4.17448e-15,-7.95139e-15,-19.0287,-4.23036,87.279,40.9441,9.90209,-30.1378,35.5642,7.12502,-3.45057,65.516,-58.1845,1.53845,6.9422,89.0409,-33.7499,-8.55637,-24.0495,-56.1956,-2.69963,-26.479,81.9036,-32.0624,0.377119,-16.1651
-0.322937,15.3602,-10.9988,20.8073,5.47477,7.49036,25.4982,-1.34281,-2.61311,3.98502,-2.49381,-0.896895,-9.67953,-1.0769,1.32134,-15.095,-3.5722,-6.84861,-14.989,-3.25516,7.90446,-2.07416,-1.37302,3.76316,-1.45113e-14,8.15017e-15,-20.672,4.77156,-84.765,39.509,-4.11851,-42.2567,-4.64867,7.12502,-15.1425,-34.0747,-1.45113e-14,8.15017e-15,-17.4051,-6.72105,87.8121,44.0364,11.2126,-30.2348,35.9284,7.12502,-3.54421,65.8787,-57.9917,1.51854,7.21395,89.8354,-34.0263,-8.49677,-24.1779,-56.2311,-2.50903,-26.2415,83.0544,-31.9603,-0.107881,-16.9946
-0.330779,15.2887,-10.9299,20.5722,5.62864,7.55123,25.1125,-1.26577,-2.83465,3.98865,-2.43344,-0.825918,-9.46346,-1.04562,1.49563,-14.9693,-3.70138,-7.0517,-15.5621,-3.33918,8.24844,-2.00475,-1.42852,3.61472,1.78906e-14,6.95746e-15,-19.0568,6.27657,-85.049,42.3668,-5.02443,-43.4434,-2.74873,7.12502,-16.2853,-32.0849,1.78906e-14,6.95746e-15,-15.399,-9.12322,88.1158,46.9035,11.2556,-30.2417,35.8155,7.12502,-3.55091,65.7657,-57.7558,1.31893,7.26117,90.54,-34.3001,-8.42915,-24.5605,-56.2122,-2.52032,-26.1709,84.0903,-31.908,-0.763589,-16.9653
-0.340638,15.23,-10.8597,20.2997,5.73739,7.58954,24.851,-1.15264,-3.10527,3.93865,-2.34295,-0.743777,-9.37154,-0.995603,1.70569,-14.9123,-3.80455,-7.21065,-15.7945,-3.44398,8.31549,-2.07066,-1.47457,3.66322,9.14409e-15,4.77083e-15,-17.1267,7.70925,-85.1769,45.272,-5.25452,-42.8926,-3.82471,7.12502,-15.7549,-33.2035,9.14409e-15,4.77083e-15,-13.0242,-11.4567,88.0575,49.5908,10.4394,-30.1284,35.3431,7.12502,-3.44144,65.295,-57.4022,1.18293,7.33383,91.1172,-34.5462,-8.36005,-25.0374,-56.1412,-2.45942,-26.1014,84.9912,-31.8093,-0.970158,-16.8107
-0.351124,15.1903,-10.7833,19.9743,5.70708,7.44221,24.5877,-1.03508,-3.2765,3.90458,-2.22315,-0.693646,-9.2686,-0.936295,1.81428,-14.8762,-3.82638,-7.16183,-16.0778,-3.47219,8.27235,-2.1617,-1.49123,3.64665,4.17448e-15,-9.14409e-15,-14.7435,9.27091,-85.2948,47.6882,-5.62616,-42.2118,-1.58031,7.12502,-15.0992,-31.0096,4.17448e-15,-9.14409e-15,-10.2416,-13.5773,87.5209,52.1823,9.44243,-29.7423,35.0445,7.12502,-3.06862,65.0022,-56.9136,1.35382,7.56564,91.4947,-34.7912,-8.40538,-25.3411,-55.9714,-2.15326,-25.9046,85.71,-31.7651,-0.943391,-16.5415
-0.361155,15.1697,-10.7032,19.6595,5.71974,7.31223,24.2684,-0.981839,-3.29957,3.92632,-2.14985,-0.708404,-9.08044,-0.906862,1.77891,-14.902,-3.88685,-7.06885,-16.4322,-3.55183,8.2294,-2.26253,-1.5352,3.62181,2.52457e-14,1.07344e-14,-12.0015,10.6189,-85.2962,50.2348,-5.19202,-40.9639,0.727718,7.12502,-13.8968,-28.7879,2.52457e-14,1.07344e-14,-6.86267,-15.5678,86.5416,54.6399,8.66054,-29.8247,34.2969,7.12502,-3.14815,64.2534,-56.3287,1.54195,7.82162,91.6942,-34.9827,-8.52537,-25.5935,-55.5687,-1.97352,-25.6648,86.1216,-31.7103,-1.06837,-15.7438
-0.36461,15.1647,-10.6151,19.1404,6.05887,7.24648,24.1968,-1.10543,-3.06421,3.97744,-2.25014,-0.760625,-8.99269,-0.964287,1.61475,-15.0582,-4.0031,-7.00095,-16.5168,-3.69902,8.27861,-2.25453,-1.61051,3.6204,1.31198e-14,-3.97569e-15,-9.0127,12.0193,-85.1035,52.9909,-3.9912,-39.5309,1.56096,7.12502,-12.5156,-28.0442,1.31198e-14,-3.97569e-15,-3.02132,-17.4463,85.1343,56.9459,8.25583,-30.5588,32.8754,7.12502,-3.85713,62.8203,-55.2592,1.50695,8.12073,91.7319,-35.1928,-8.61761,-25.4952,-54.6177,-2.18238,-25.3951,86.2072,-31.767,-1.19612,-16.1035
-0.367121,15.1727,-10.5193,18.4353,6.60838,7.18365,24.548,-1.33935,-2.96982,3.89668,-2.53175,-0.66587,-9.25334,-1.09058,1.76524,-15.2076,-3.95561,-6.99697,-16.369,-3.63558,8.24191,-2.19453,-1.57475,3.60577,2.60408e-14,3.77691e-15,-5.94574,13.9379,-84.6195,55.6956,-2.66107,-38.4771,2.534,7.12502,-11.4994,-27.1306,2.60408e-14,3.77691e-15,0.800388,-18.9522,83.4863,59.224,8.46213,-31.119,31.9601,7.12502,-4.39805,61.8944,-53.83,1.36194,8.5162,91.6348,-35.3781,-8.83745,-25.4907,-53.2921,-2.54738,-25.1004,86.0536,-31.9549,-1.81959,-17.4634
-0.369769,15.1861,-10.4248,17.7596,6.95579,7.09488,24.83,-1.51716,-2.7922,3.82803,-2.72649,-0.668356,-9.47757,-1.18137,1.73356,-15.3867,-3.89054,-6.99073,-16.339,-3.53905,8.21793,-2.16794,-1.52171,3.59806,4.17448e-14,2.54444e-14,-2.51494,15.6529,-83.9358,58.1526,-1.10496,-36.9069,2.64072,7.12502,-9.98487,-27.1024,4.17448e-14,2.54444e-14,4.92729,-20.3263,81.4175,61.4289,8.86276,-31.0449,31.2573,7.12502,-4.32652,61.1931,-52.4801,1.41165,8.86763,91.4356,-35.4688,-9.01585,-25.5614,-51.9381,-2.68925,-24.8669,85.7519,-32.1808,-2.49151,-17.8178
-0.370529,15.2063,-10.3335,17.2035,6.93136,6.90618,24.8905,-1.54715,-2.75773,3.76994,-2.75766,-0.636408,-9.5731,-1.19438,1.76277,-15.6041,-3.84294,-6.9208,-16.3012,-3.48715,8.04669,-2.13687,-1.49212,3.53191,1.27222e-14,-1.37161e-14,1.37946,17.3157,-82.8639,60.3452,0.285791,-37.6412,4.91333,7.12502,-10.6932,-24.7945,1.27222e-14,-1.37161e-14,9.18062,-21.0208,79.196,63.6218,8.73646,-30.3731,30.3638,7.12502,-3.67771,60.3118,-51.2897,1.79606,9.19579,91.0839,-35.446,-9.19919,-25.793,-50.6731,-2.46208,-24.6752,85.3229,-32.6239,-2.21452,-18.7988
-0.372738,15.2425,-10.2405,16.6642,6.7781,6.66944,24.9629,-1.53388,-2.86232,3.70249,-2.76387,-0.54353,-9.67645,-1.18968,1.9319,-15.9812,-3.78656,-6.73029,-15.8955,-3.49572,7.5007,-2.24054,-1.47595,3.59331,1.07344e-14,1.33186e-14,5.50741,18.9158,-81.4919,62.7482,1.32832,-36.6458,4.55341,7.12502,-9.73293,-25.2017,1.07344e-14,1.33186e-14,13.43,-21.2072,76.8655,65.7109,8.65105,-30.2694,29.7161,7.12502,-3.57766,59.6658,-50.1111,2.36517,9.52756,90.5374,-35.3302,-9.37356,-25.9894,-49.3407,-2.08523,-24.4902,84.7216,-33.0444,-1.88263,-19.849
-0.374229,15.296,-10.1298,15.9505,6.5968,6.43799,25.2108,-1.51122,-3.04018,3.66408,-2.77702,-0.404935,-9.83252,-1.18288,2.2022,-16.6251,-3.71944,-6.61957,-15.4921,-3.42228,7.18879,-2.0099,-1.43226,3.44431,1.90833e-14,2.0276e-14,9.67722,20.4883,-79.7115,64.8045,1.79541,-36.0845,5.18289,7.12502,-9.19134,-24.5968,1.90833e-14,2.0276e-14,17.5786,-21.0172,74.4492,67.9551,8.43393,-29.6737,30.6836,7.12502,-3.00238,60.6422,-48.544,3.03139,9.87455,89.7566,-35.235,-9.65207,-26.2462,-47.6028,-1.65343,-24.352,83.8976,-33.3375,-1.80358,-20.1959
-0.369741,15.3645,-9.99997,15.117,6.1761,6.31798,25.4547,-1.39518,-3.35487,3.66392,-2.71594,-0.350567,-9.9455,-1.13929,2.43249,-17.3277,-3.63067,-6.5985,-15.041,-3.29274,7.00164,-1.75561,-1.35603,3.36079,-3.73715e-14,5.36719e-15,13.9261,21.5374,-77.7769,67.0368,2.76328,-34.8556,5.0719,7.12502,-8.00543,-24.7565,-3.73715e-14,5.36719e-15,21.5215,-20.5209,71.9894,70.0085,8.95302,-29.9239,30.2155,7.12502,-3.24392,60.1705,-46.6035,3.83893,10.032,88.7091,-35.2413,-9.73658,-26.3095,-45.5156,-1.01308,-24.443,82.8573,-33.6117,-1.47462,-20.6571
-0.364906,15.449,-9.859,14.2838,5.62645,6.16835,25.6104,-1.2129,-3.71423,3.66947,-2.57901,-0.286262,-10.009,-1.06014,2.67121,-17.8962,-3.5268,-6.50575,-14.8136,-3.15648,6.7893,-1.60346,-1.28274,3.26407,3.47873e-15,8.34896e-15,18.2312,22.2838,-75.6478,69.0825,3.21777,-35.0296,5.22629,7.12502,-8.17332,-24.5956,3.47873e-15,8.34896e-15,25.2966,-19.5627,69.6479,71.932,8.99069,-29.9893,30.7017,7.12502,-3.30712,60.6558,-44.5405,4.76031,10.2011,87.3785,-35.203,-9.77525,-26.4843,-43.3136,-0.172597,-24.5,81.6037,-33.7215,-1.29609,-20.7212
-0.362954,15.5535,-9.70439,13.3977,5.09314,5.68611,25.7381,-1.03044,-3.78864,3.67905,-2.35273,-0.118501,-10.069,-0.948188,2.83162,-18.5271,-3.44273,-6.46983,-14.4081,-3.0336,6.66148,-1.37702,-1.21327,3.20557,3.08116e-14,-3.37934e-15,22.5945,22.6913,-73.3239,70.8625,3.58685,-35.4805,5.16628,7.12502,-8.60847,-24.6382,3.08116e-14,-3.37934e-15,28.8551,-18.3303,67.4302,73.8052,9.0944,-29.4686,30.3357,7.12502,-2.80431,60.297,-42.232,5.76432,10.8192,85.7098,-35.154,-9.86535,-26.6753,-40.9851,0.780872,-24.1017,80.1794,-33.62,-1.4335,-20.4271
-0.35871,15.6754,-9.53137,12.7001,4.4779,5.65801,25.6885,-0.807059,-4.2012,3.60006,-2.17947,-0.108189,-10.1282,-0.85053,3.02315,-19.0288,-3.35336,-6.64502,-14.0153,-2.85336,6.84872,-1.16969,-1.10562,3.3059,2.46493e-14,6.95746e-15,26.7185,22.6968,-71.1366,72.4325,4.00816,-35.5351,4.98968,7.12502,-8.66122,-24.8126,2.46493e-14,6.95746e-15,32.0753,-16.9381,65.4409,75.5584,8.98762,-28.6374,29.8611,7.12502,-2.00148,59.8315,-39.9091,6.55893,10.9081,83.8099,-35.0613,-9.68567,-26.5855,-38.5894,1.61766,-24.1725,78.4766,-33.3678,-1.50925,-20.475
-0.350883,15.8127,-9.33737,11.8982,4.00299,5.46218,25.6709,-0.630449,-4.33813,3.45605,-1.98932,-0.0498178,-10.2902,-0.74991,3.10711,-19.3465,-3.27173,-6.73974,-13.6434,-2.71196,6.98082,-0.997745,-1.0241,3.37293,-1.5207e-14,-6.55989e-15,30.2789,22.3541,-69.1366,73.9442,4.20801,-35.3614,5.06389,7.12502,-8.49356,-24.7453,-1.5207e-14,-6.55989e-15,34.8983,-15.5122,63.8125,76.873,8.30285,-29.0264,30.2328,7.12502,-2.37722,60.1993,-37.2441,7.25673,11.2798,81.6201,-34.7985,-9.57395,-26.3906,-35.9626,2.3836,-23.9554,76.5749,-32.8847,-1.75174,-20.6852
-0.330902,15.9669,-9.11681,11.0887,3.54992,5.30034,25.4443,-0.456729,-4.37143,3.29608,-1.76487,0.00696411,-10.3681,-0.639901,3.11221,-19.4926,-3.18008,-6.59276,-13.4417,-2.62121,6.84465,-0.916887,-0.983417,3.29895,2.0276e-14,-1.76918e-14,33.274,21.6171,-67.3308,75.3476,4.29487,-35.1411,5.51313,7.12502,-8.28094,-24.3046,2.0276e-14,-1.76918e-14,37.326,-14.106,62.5163,77.9764,7.53523,-30.0411,30.3383,7.12502,-3.35716,60.2916,-34.3407,7.78021,11.6005,79.1985,-34.4261,-9.35742,-26.347,-33.1361,3.03538,-23.7523,74.4383,-32.1374,-2.24607,-20.4269
-0.303999,16.1372,-8.87456,10.4215,3.17125,5.13466,24.8624,-0.340017,-4.27695,3.10032,-1.56466,0.0498849,-10.3007,-0.550662,3.028,-19.2821,-3.03946,-6.32788,-13.5631,-2.50132,6.62979,-1.00764,-0.939559,3.18198,1.98785e-16,-5.56597e-15,35.7163,20.657,-65.8749,76.5656,4.21904,-35.1705,5.6274,7.12502,-8.3093,-24.1892,1.98785e-16,-5.56597e-15,39.3243,-12.6622,61.4536,79.026,7.16936,-30.0606,29.3476,7.12502,-3.37594,59.3007,-31.4524,8.15315,11.9123,76.5778,-33.7873,-8.98639,-25.983,-30.3227,3.58043,-23.5155,72.0881,-31.0842,-2.66162,-20.516
-0.280814,16.3149,-8.62392,10.0024,2.86461,4.88863,23.9596,-0.295795,-4.05363,2.80767,-1.4146,0.0822047,-10.1684,-0.490668,2.86979,-18.7437,-2.90756,-6.03948,-13.7239,-2.41261,6.44611,-1.15908,-0.917671,3.07231,-3.97569e-16,6.75868e-15,37.6922,19.5752,-64.857,77.5638,3.64872,-34.915,5.74532,7.12502,-8.0627,-24.0809,-3.97569e-16,6.75868e-15,40.9129,-11.2239,60.5919,79.9322,6.68,-28.7468,28.2999,7.12502,-2.1072,58.2693,-28.8233,8.43487,12.3201,73.8189,-32.7319,-8.62808,-25.6516,-27.7861,4.07986,-23.1088,69.5958,-29.5713,-3.36084,-20.187
-0.258264,16.5147,-8.3498,9.6764,2.50396,4.67482,22.864,-0.2255,-3.91012,2.38146,-1.2465,0.138028,-10.0748,-0.415403,2.77827,-18.2471,-2.79822,-5.99618,-13.4371,-2.31092,6.44561,-1.14465,-0.876265,3.06872,2.78299e-15,-1.51076e-14,39.1652,18.5276,-64.1334,78.2659,2.80264,-34.0214,5.55499,7.12502,-7.20025,-24.3025,2.78299e-15,-1.51076e-14,41.9436,-9.99111,59.9865,80.5648,5.88635,-28.3153,27.8974,7.12502,-1.69048,57.8704,-26.2161,8.71735,12.6922,70.8923,-31.2178,-8.51095,-26.3384,-25.1936,4.5575,-22.7098,66.8477,-27.7339,-4.22572,-19.7436
-0.235809,16.7357,-8.05223,9.26654,2.18873,4.56858,21.6712,-0.151052,-3.84949,1.95872,-1.08812,0.212601,-9.91305,-0.342005,2.75901,-17.9604,-2.70615,-6.01679,-12.8231,-2.22473,6.36386,-0.986473,-0.836682,3.04315,1.21259e-14,-1.31198e-14,40.2378,17.5972,-63.5103,78.6998,2.08255,-33.3355,5.16606,7.12502,-6.5381,-24.713,1.21259e-14,-1.31198e-14,42.6157,-8.95675,59.4685,80.8828,5.25973,-29.2477,27.6339,7.12502,-2.59093,57.5979,-23.3859,9.01241,12.974,67.8219,-29.4304,-8.19155,-26.5002,-22.3266,4.92385,-22.3969,63.8427,-25.5611,-4.84874,-19.8966
-0.214134,16.9716,-7.74114,8.68839,1.99026,4.54252,20.5586,-0.120973,-3.7761,1.55677,-0.990323,0.265204,-9.75986,-0.297467,2.72984,-17.7354,-2.65493,-6.04697,-11.9252,-2.19917,6.2409,-0.720468,-0.827009,2.99985,-2.60408e-14,-1.59028e-15,41.019,16.721,-63.0393,78.7405,1.67546,-33.1757,5.1369,7.12502,-6.38387,-24.7469,-2.60408e-14,-1.59028e-15,42.9097,-8.11778,58.9428,81.0719,4.85844,-29.8714,27.1186,7.12502,-3.19325,57.0744,-20.2816,9.2172,13.2017,64.6052,-27.1306,-7.66729,-25.0268,-19.1277,5.18909,-22.1274,60.5897,-22.9495,-5.20501,-20.4773
-0.191383,17.221,-7.41142,8.08055,1.85413,4.51108,19.5323,-0.145715,-3.6278,0.977154,-0.959565,0.289518,-9.84167,-0.280309,2.6508,-17.2688,-2.58928,-6.23939,-10.7637,-2.14266,6.26986,-0.403162,-0.799167,3.04315,1.78906e-15,-5.56597e-15,41.285,16.0398,-62.8907,78.3665,2.0069,-31.4892,3.88424,7.12502,-4.75549,-26.0424,1.78906e-15,-5.56597e-15,42.6467,-7.51562,58.3574,81.1314,4.56757,-29.7437,26.7014,7.12502,-3.06995,56.6591,-17.1139,9.44854,13.4291,61.282,-24.1582,-7.21317,-23.9516,-15.8042,5.29429,-21.8663,57.1308,-19.9483,-5.18496,-21.8767
-0.170502,17.5021,-7.05224,7.75225,1.71521,4.31614,17.5865,-0.175892,-3.41789,0.589173,-0.878556,0.395591,-9.19162,-0.259927,2.59422,-16.6956,-2.52177,-6.33495,-9.87101,-2.10257,6.1717,-0.198933,-0.786736,3.02638,-1.02374e-14,-1.66979e-14,41.5999,15.4067,-62.5622,77.493,1.9236,-31.4474,3.99796,7.12502,-4.71516,-25.9296,-1.02374e-14,-1.66979e-14,42.4892,-6.93393,57.8674,80.8647,4.37218,-29.8637,26.0709,7.12502,-3.18585,56.0268,-14.2179,9.84319,13.813,57.843,-20.4733,-6.72812,-24.0454,-12.752,5.29222,-21.4596,53.4701,-16.2873,-5.10214,-22.7838
-0.151291,17.8056,-6.67704,7.58849,1.61351,3.91061,15.409,-0.233905,-2.95634,0.130454,-0.791259,0.514163,-8.47894,-0.245632,2.40637,-16.142,-2.44951,-6.43504,-8.7043,-2.05997,6.1878,0.0999165,-0.772471,3.05113,-4.07509e-15,-4.37326e-15,41.6188,15.026,-62.135,76.4066,1.59295,-31.7761,3.62227,7.12502,-5.03253,-26.298,-4.07509e-15,-4.37326e-15,42.0308,-6.65737,57.3699,80.4296,4.19291,-29.8428,25.775,7.12502,-3.16563,55.7313,-11.5919,10.3227,14.4258,54.3645,-16.0514,-6.38126,-23.5524,-9.93694,5.18325,-20.8379,49.6926,-11.6867,-4.93334,-22.7697
-0.130308,18.1299,-6.30097,7.41722,1.60839,3.43104,13.4935,-0.357107,-2.33398,-0.446669,-0.791442,0.677985,-8.02507,-0.270927,2.20305,-15.5628,-2.35767,-6.85949,-7.2922,-1.94929,6.37871,0.478002,-0.715636,3.20549,-6.95746e-15,4.77083e-15,41.3294,14.9463,-61.6481,75.2757,1.64579,-31.5283,3.38098,7.12502,-4.79332,-26.5448,-6.95746e-15,4.77083e-15,41.0693,-6.50516,56.9613,79.9148,4.02797,-29.6819,25.9447,7.12502,-3.01022,55.9032,-9.148,10.7632,15.1116,50.9,-10.1722,-6.27039,-23.7028,-7.22901,4.80114,-20.1802,45.8182,-6.31306,-4.3806,-22.6692
-0.110872,18.4596,-5.93311,7.21504,1.68128,2.93539,11.8178,-0.52284,-1.71776,-1.07026,-0.872467,0.918488,-7.74224,-0.330193,2.10378,-14.8516,-2.21012,-7.22713,-5.96459,-1.78665,6.34004,0.793905,-0.643443,3.27474,-1.98785e-15,-1.35174e-14,40.8398,15.0687,-61.152,74.045,2.09528,-31.3122,3.78294,7.12502,-4.58462,-26.1474,-1.98785e-15,-1.35174e-14,39.743,-6.32656,56.6902,79.4298,3.84823,-29.6588,25.5851,7.12502,-2.98796,55.5439,-6.90704,11.1232,15.7836,47.5911,-4.1754,-6.44205,-23.9442,-4.65963,4.03584,-19.5805,41.9079,-0.359114,-3.38626,-22.3858
-0.0955708,18.789,-5.57375,7.08743,1.85497,2.50927,9.96688,-0.655715,-1.13169,-1.56076,-0.940598,1.07149,-7.2114,-0.38867,1.9176,-14.3528,-2.12416,-7.37397,-4.58501,-1.72739,6.2448,1.16486,-0.627691,3.27887,6.75868e-15,6.36111e-15,40.2253,15.0128,-60.641,72.8733,2.49614,-31.2804,4.04805,7.12502,-4.55387,-25.883,6.75868e-15,6.36111e-15,38.5543,-6.28737,56.3078,79.0936,3.44469,-30.2739,24.6404,7.12502,-3.58197,54.59,-5.02368,11.3338,16.3479,44.6224,1.78539,-6.74401,-22.8178,-2.3544,2.7962,-19.1386,37.9749,5.94944,-1.86522,-20.7497
-0.0842328,19.121,-5.22116,6.99261,1.88205,2.10575,7.99738,-0.658402,-0.613221,-1.91518,-0.870352,1.16434,-6.46891,-0.379382,1.68046,-13.9977,-2.12296,-7.42303,-3.14182,-1.78618,6.16612,1.59011,-0.671493,3.26652,5.1684e-15,-1.11319e-14,39.4271,14.7268,-60.1221,71.8863,3.25219,-30.84,4.13591,7.12502,-4.12866,-25.8038,5.1684e-15,-1.11319e-14,37.501,-6.43694,55.868,78.7864,2.63069,-31.6163,23.9704,7.12502,-4.87826,53.8943,-3.60348,11.5763,16.838,42.1907,8.04722,-6.96861,-18.6368,-0.237227,1.26006,-18.8551,34.1068,12.3959,0.377283,-17.5252
-0.0766244,19.4471,-4.88758,6.77203,1.59493,1.96753,6.40688,-0.54278,-0.451793,-2.22958,-0.698822,1.17485,-5.89795,-0.304376,1.55718,-13.5622,-2.10095,-7.43671,-1.85325,-1.82145,6.05645,1.94718,-0.705985,3.23818,6.21202e-15,-6.36111e-15,38.496,14.5245,-59.6544,71.0251,4.68778,-30.2012,3.88484,7.12502,-3.51172,-26.066,6.21202e-15,-6.36111e-15,36.285,-6.6792,55.4595,78.624,1.50192,-32.4787,24.607,7.12502,-5.71092,54.51,-2.55206,12.0636,16.9884,40.3867,14.6612,-7.07666,-13.1243,1.81985,-0.488577,-19.0546,30.4798,18.5161,3.14473,-13.3769
-0.0786734,19.7611,-4.58208,6.62716,1.09007,2.04438,5.13852,-0.349179,-0.647062,-2.56646,-0.457289,1.11517,-5.533,-0.180299,1.56653,-13.2377,-2.04619,-7.34333,-0.627116,-1.8176,5.93138,2.29926,-0.72027,3.1877,-1.70458e-14,-2.38542e-15,37.5139,14.4335,-59.1887,70.2895,5.97995,-29.7797,3.43503,7.12502,-3.10469,-26.5221,-1.70458e-14,-2.38542e-15,35.0441,-6.7385,55.2353,78.941,1.70329,-30.521,24.3671,7.12502,-3.82057,54.3126,-2.12368,12.7889,16.8588,39.2964,20.9717,-7.26665,-10.0003,3.4062,-2.36842,-19.6146,27.3211,23.7304,5.71527,-10.3681
-0.0676574,20.0585,-4.29907,6.58698,0.828416,1.75728,4.09501,-0.240511,-0.255765,-2.94246,-0.282524,1.12937,-5.33778,-0.107617,1.3388,-12.9528,-1.97713,-7.1556,0.463425,-1.79529,5.69812,2.60833,-0.727312,3.08216,1.2101e-14,0,36.4337,14.3856,-58.7559,69.6963,7.27015,-29.1032,2.93518,7.12502,-2.4514,-27.0305,1.2101e-14,0,33.6275,-6.8622,54.9919,79.0629,1.00568,-29.4213,24.3074,7.12502,-2.75862,54.2694,-2.20643,13.1035,17.0271,38.9044,26.4727,-7.14295,-9.84648,4.39421,-4.40486,-19.8095,24.9636,27.7619,7.59971,-9.37972
-0.055182,20.3449,-4.02495,6.62564,0.61618,1.47196,3.08782,-0.163999,0.165661,-3.28819,-0.156154,1.16077,-5.12838,-0.0598632,1.12029,-12.6496,-1.89604,-6.91782,1.29407,-1.75217,5.41175,2.82235,-0.723981,2.94734,3.98812e-15,6.36111e-15,35.2703,14.3114,-58.4519,69.2375,8.59688,-27.9678,3.03789,7.12502,-1.35477,-26.9376,3.98812e-15,6.36111e-15,32.0027,-6.92124,54.7617,79.1929,0.316744,-28.7868,24.3411,7.12502,-2.14578,54.3101,-2.71016,13.1368,17.1704,39.2599,30.2148,-6.85212,-9.62866,4.84544,-5.96864,-19.9128,23.59,31.0479,8.02042,-9.24178
-0.0402481,20.615,-3.7681,6.67749,0.282347,1.13369,2.13981,-0.0623749,0.688037,-3.50702,-0.000353537,1.20695,-4.8192,-0.00102026,0.861567,-12.4919,-1.78768,-6.77488,1.95525,-1.64875,5.25912,3.0074,-0.683512,2.88096,-6.98852e-15,0,34.2238,14.2848,-58.0753,68.9529,9.40851,-28.225,4.30495,7.12502,-1.60325,-25.6688,-6.98852e-15,0,30.3844,-6.76864,54.6884,79.4606,0.0480224,-29.2652,24.8154,7.12502,-2.6078,54.7792,-3.47364,12.9098,17.3443,40.2701,31.6528,-6.52916,-8.48091,4.9106,-6.58587,-19.8591,23.1281,32.292,8.05251,-3.45983
-0.0295029,20.868,-3.53644,6.62997,-0.228101,1.06873,1.5645,0.11605,0.844831,-3.62041,0.236222,1.17878,-4.61148,0.110501,0.730356,-12.3945,-1.69201,-6.75782,2.35681,-1.54321,5.30254,3.12155,-0.633193,2.90472,8.91658e-15,3.18055e-15,33.1567,14.2039,-57.6444,68.8486,9.84499,-29.0682,5.56754,7.12502,-2.41755,-24.3985,8.91658e-15,3.18055e-15,28.7473,-6.53851,54.7737,79.896,-0.194964,-29.9735,25.6661,7.12502,-3.29188,55.6205,-4.41694,12.6556,17.2511,41.828,31.6198,-6.60282,-7.05984,4.77443,-6.36826,-20.043,23.2711,32.5408,7.00233,1.30183
-0.0222277,21.1125,-3.31679,6.31552,-0.7321,1.43772,1.56656,0.258371,0.506995,-3.68811,0.408333,1.03612,-4.68539,0.205459,0.762795,-12.2782,-1.57964,-6.68656,2.58525,-1.41796,5.30746,3.16876,-0.572891,2.90351,2.09345e-15,-5.56597e-15,31.8827,14.1263,-57.379,68.7876,10.787,-29.0009,5.17441,7.12502,-2.35253,-24.7924,2.09345e-15,-5.56597e-15,26.8984,-6.20717,54.9544,80.439,-0.303214,-29.2767,25.6068,7.12502,-2.61898,55.5705,-5.25849,12.3391,16.7767,43.6645,30.7578,-7.53631,-8.85949,4.65198,-5.66767,-20.6417,23.7815,31.7499,6.18085,2.85867
