JuanDHNZ/ProyectoFinalCD/preprocessing/sports_trials_csv/13_39.csv
root1,root2,root3,root4,root5,root6,lowerback1,lowerback2,lowerback3,upperback1,upperback2,upperback3,thorax1,thorax2,thorax3,lowerneck1,lowerneck2,lowerneck3,upperneck1,upperneck2,upperneck3,head1,head2,head3,rclavicle1,rclavicle2,rhumerus1,rhumerus2,rhumerus3,rradius1,rwrist1,rhand1,rhand2,rfingers1,rthumb1,rthumb2,lclavicle1,lclavicle2,lhumerus1,lhumerus2,lhumerus3,lradius1,lwrist1,lhand1,lhand2,lfingers1,lthumb1,lthumb2,rfemur1,rfemur2,rfemur3,rtibia1,rfoot1,rfoot2,rtoes1,lfemur1,lfemur2,lfemur3,ltibia1,lfoot1,lfoot2,ltoes1
0.0964765,18.4785,-1.81861,4.40653,-6.77417,3.00799,9.45676,0.208683,-3.31119,1.49297,-0.14882,-2.08499,-3.74858,-0.0440842,-0.282703,-10.5487,-6.46515,-10.415,5.91277,-8.17351,10.8994,4.37647,-3.74032,4.45414,-1.65985e-14,-1.15295e-14,-28.4392,-2.72047,-83.3541,29.2893,18.0013,-24.8349,-6.22617,7.12502,1.67103,-36.1994,-1.65985e-14,-1.15295e-14,-33.457,13.3398,74.9597,27.8702,2.26565,-20.6628,26.9772,7.12502,5.69988,56.8806,-17.4243,17.7163,14.5249,35.2036,-22.1611,-14.1892,-2.22022,-15.0875,-0.29432,-22.1171,31.7604,-18.5777,8.14645,-7.11804
0.102157,18.4348,-1.84276,4.32378,-6.83774,2.93443,9.88562,0.25716,-3.15798,1.67335,-0.0822299,-2.0492,-3.80056,-0.0137133,-0.340662,-10.6513,-6.26759,-10.4694,5.45776,-7.86148,10.9671,4.22677,-3.58551,4.51297,-6.65929e-15,6.36111e-15,-28.2745,-2.41405,-83.3544,29.6987,18.0852,-25.9226,-3.82461,7.12502,0.620492,-33.8035,-6.65929e-15,6.36111e-15,-33.1818,12.9483,75.276,28.2872,2.11797,-20.7745,27.6828,7.12502,5.59205,57.5891,-17.965,17.487,14.5697,36.2075,-22.5526,-13.8754,-2.54001,-15.8202,0.143798,-22.0309,33.136,-19.0647,7.67827,-6.7906
0.106352,18.3866,-1.86747,4.25886,-6.83702,2.86803,10.3716,0.289049,-3.04106,1.83652,-0.0435574,-2.01109,-3.90093,0.00396861,-0.373113,-10.914,-6.08822,-10.4144,5.11043,-7.57092,10.9033,4.12814,-3.43927,4.50621,1.30204e-14,1.43125e-14,-28.0912,-2.07948,-83.3769,30.2475,17.8758,-25.7462,-4.15895,7.12502,0.790876,-34.1372,1.30204e-14,1.43125e-14,-32.9101,12.3233,75.6854,28.8386,2.46802,-21.1336,27.3511,7.12502,5.24538,57.2662,-18.4958,17.217,14.6003,37.191,-22.993,-13.4733,-2.20492,-16.5698,0.536255,-21.9466,34.542,-19.4337,7.17242,-6.29073
0.111334,18.3402,-1.88685,4.14904,-6.73806,2.89971,10.8783,0.286,-3.01074,2.00078,-0.0620708,-2.00033,-4.00996,-0.00560782,-0.377888,-11.0199,-5.89471,-10.2598,4.61549,-7.27284,10.7508,3.9513,-3.29719,4.46012,-1.0138e-14,-2.38542e-14,-27.9442,-1.73772,-83.4112,30.7286,17.7704,-25.7182,-4.25007,7.12502,0.817887,-34.2282,-1.0138e-14,-2.38542e-14,-32.7365,11.6444,76.0638,29.477,2.91877,-21.4058,26.8063,7.12502,4.98251,56.7277,-18.9638,16.759,14.5496,38.1781,-23.4221,-13.1231,-2.25284,-17.238,0.94838,-21.9872,35.9004,-19.6718,6.65606,-6.27196
0.119231,18.2951,-1.90156,4.09766,-6.64056,2.91324,11.2473,0.292839,-2.9323,2.17028,-0.0536573,-1.96315,-4.03707,-0.00311671,-0.385274,-11.1092,-5.71866,-10.1872,4.1591,-6.99146,10.5865,3.78856,-3.16526,4.42189,-1.17283e-14,4.37326e-15,-27.8701,-1.43212,-83.3665,31.2889,17.5737,-25.8355,-3.92199,7.12502,0.704604,-33.9006,-1.17283e-14,4.37326e-15,-32.5848,10.9388,76.4661,30.0855,3.31254,-21.6227,26.6281,7.12502,4.77309,56.5543,-19.4853,16.1614,14.5045,39.1771,-23.7459,-12.7851,-3.00027,-17.9607,1.33116,-22.0241,37.2356,-19.9188,6.21907,-6.54735
0.12576,18.248,-1.92254,4.1857,-6.55435,2.90477,11.6238,0.304146,-2.84902,2.22362,-0.0414868,-1.91165,-4.1895,0.00319763,-0.381734,-11.1636,-5.49369,-10.0964,3.81817,-6.65771,10.3993,3.64893,-3.00791,4.37759,-5.26779e-15,1.90833e-14,-27.8967,-1.15784,-83.3084,31.8826,17.4119,-25.9351,-3.68629,7.12502,0.608447,-33.6652,-5.26779e-15,1.90833e-14,-32.4738,10.2885,76.8473,30.6241,3.61862,-21.8152,26.3919,7.12502,4.58719,56.3222,-20.2099,15.5954,14.4444,40.2116,-24.0584,-12.4207,-3.91798,-18.8604,1.70829,-22.0304,38.5186,-20.1705,5.80771,-7.02442
0.133015,18.2014,-1.94467,4.2958,-6.46588,2.89507,11.9848,0.304173,-2.71798,2.2892,-0.0378838,-1.89106,-4.32021,0.00417663,-0.436007,-11.1975,-5.24344,-10.0438,3.41277,-6.29229,10.3219,3.48991,-2.83132,4.37639,-1.49089e-15,-1.78906e-14,-27.8518,-0.614634,-83.3439,32.4367,17.0518,-26.1314,-3.79704,7.12502,0.41888,-33.7764,-1.49089e-15,-1.78906e-14,-32.3096,9.43479,77.2574,31.2161,4.12288,-22.0657,26.5234,7.12502,4.34528,56.4589,-20.9718,15.0403,14.3777,41.2741,-24.3946,-12.0233,-4.44798,-19.7596,2.02051,-22.0301,39.7303,-20.3673,5.38105,-7.08346
0.138695,18.1512,-1.96476,4.31029,-6.42086,2.98706,12.3743,0.315019,-2.70469,2.42508,-0.0355073,-1.91283,-4.39244,0.00481745,-0.467923,-11.4786,-5.02686,-10.0728,3.18996,-5.9598,10.3615,3.43648,-2.65914,4.41658,5.66536e-15,-1.74931e-14,-27.6174,-0.0165795,-83.4179,32.8154,16.5482,-26.0211,-4.09131,7.12502,0.525363,-34.0704,5.66536e-15,-1.74931e-14,-32.1213,8.63792,77.6003,31.8629,4.5798,-22.3253,26.8253,7.12502,4.09469,56.7657,-21.6575,14.4537,14.2367,42.3691,-24.7689,-11.6625,-5.05976,-20.4988,2.36826,-22.1391,40.8606,-20.5862,4.94163,-6.72919
0.143424,18.101,-1.98394,4.32908,-6.34884,3.16507,12.7555,0.331524,-2.78843,2.54208,-0.0394121,-1.94788,-4.47926,0.00377508,-0.458244,-11.6139,-4.81832,-10.0392,2.85508,-5.64406,10.2747,3.32097,-2.50413,4.40841,-8.84592e-15,8.34896e-15,-27.4297,0.235115,-83.3995,33.1957,16.312,-26.0447,-4.11283,7.12502,0.502556,-34.092,-8.84592e-15,8.34896e-15,-32.0068,8.10076,77.8919,32.5273,4.79824,-22.5855,26.9416,7.12502,3.8434,56.8867,-22.3468,13.8571,13.9954,43.4598,-25.2306,-11.2896,-5.61586,-21.197,2.77446,-22.3508,41.9032,-20.8149,4.52759,-7.03088
0.147293,18.052,-2.00392,4.37163,-6.23482,3.35484,13.094,0.326937,-2.91332,2.67185,-0.0746673,-1.97489,-4.52817,-0.0125393,-0.411438,-11.5281,-4.59531,-10.0467,2.32041,-5.3158,10.2567,3.11265,-2.34722,4.43295,8.64713e-15,-1.39149e-15,-27.2761,0.298693,-83.3393,33.665,16.3739,-26.1227,-3.84137,7.12502,0.427217,-33.8207,8.64713e-15,-1.39149e-15,-31.8197,7.75771,78.1211,33.1251,4.94974,-22.5576,26.9862,7.12502,3.8703,56.9308,-23.0383,13.3053,13.7331,44.536,-25.6798,-10.9173,-6.05034,-21.877,3.0977,-22.5682,42.8753,-21.1022,4.1057,-7.2151
0.150888,18.0031,-2.02459,4.3684,-6.18041,3.50398,13.5271,0.355426,-3.03844,2.77764,-0.0701986,-1.96032,-4.65408,-0.00825838,-0.328095,-11.5194,-4.39971,-10.063,1.94735,-5.02172,10.1558,2.96637,-2.20723,4.42774,1.09332e-14,-3.29983e-14,-27.2133,0.611817,-83.259,34.2098,16.2466,-26.271,-3.70585,7.12502,0.284019,-33.6854,1.09332e-14,-3.29983e-14,-31.6727,7.45462,78.3513,33.6529,5.01855,-22.5547,26.8038,7.12502,3.87316,56.7483,-23.6741,12.8609,13.5367,45.5777,-26.09,-10.6106,-6.76545,-22.466,3.45528,-22.7348,43.8103,-21.3729,3.64101,-6.79546
0.153502,17.9547,-2.04316,4.34294,-6.14203,3.62185,13.9956,0.397814,-3.18378,2.87435,-0.0515436,-1.91131,-4.80853,0.00382911,-0.19991,-11.697,-4.22758,-9.97121,1.75182,-4.762,9.92819,2.90029,-2.08215,4.3592,5.51627e-15,1.55052e-14,-27.1098,1.01385,-83.1596,34.648,15.9145,-26.3913,-3.54442,7.12502,0.167815,-33.5241,5.51627e-15,1.55052e-14,-31.6108,7.14246,78.6125,34.2115,5.10857,-22.609,26.0239,7.12502,3.82068,55.9694,-24.2611,12.4655,13.3858,46.6082,-26.5641,-10.342,-7.30354,-23.0238,3.86642,-22.8547,44.7473,-21.691,3.13015,-6.23812
0.156256,17.9037,-2.05865,4.29936,-6.08886,3.64898,14.4204,0.431012,-3.20999,2.99502,-0.025865,-1.86917,-4.91361,0.0171303,-0.147093,-11.7701,-4.05905,-9.84801,1.45916,-4.51953,9.75023,2.79186,-1.96636,4.30128,1.10325e-14,3.57812e-15,-26.9988,1.11271,-83.0616,35.0399,15.7394,-26.1569,-3.69652,7.12502,0.394177,-33.6759,1.10325e-14,3.57812e-15,-31.5167,6.86011,78.8296,34.7365,5.18813,-22.5886,25.4243,7.12502,3.84043,55.3695,-24.7875,12.1271,13.3489,47.6133,-26.9797,-10.1188,-7.57831,-23.5377,4.2837,-22.8883,45.661,-21.998,2.71882,-6.3668
0.160497,17.845,-2.07653,4.25763,-6.0311,3.73566,14.8578,0.457482,-3.27084,3.09316,-0.0167892,-1.84274,-5.04839,0.0231735,-0.0885409,-11.702,-3.84297,-9.84783,1.09939,-4.21088,9.674,2.64076,-1.81832,4.30114,7.50412e-15,2.5842e-15,-26.8767,1.07636,-82.9337,35.405,15.728,-25.7097,-4.07088,7.12502,0.826089,-34.049,7.50412e-15,2.5842e-15,-31.3822,6.54096,79.056,35.1352,5.38634,-22.6813,25.27,7.12502,3.75091,55.2167,-25.3805,11.786,13.2342,48.6622,-27.3435,-9.92488,-7.97236,-24.0636,4.61643,-22.9887,46.5708,-22.3015,2.31281,-6.29611
0.167649,17.7947,-2.09442,4.18724,-5.89629,3.98368,15.3582,0.46389,-3.42552,3.1967,-0.0559742,-1.8762,-5.20987,0.00692506,-0.0312484,-11.6975,-3.6536,-9.77284,0.778868,-3.94301,9.53807,2.51275,-1.69012,4.26589,4.96962e-16,-6.16232e-15,-26.7099,1.13188,-82.832,35.6559,15.7269,-25.8858,-3.6504,7.12502,0.656089,-33.6291,4.96962e-16,-6.16232e-15,-31.1664,6.15587,79.2724,35.4186,5.62543,-22.7361,25.0817,7.12502,3.69797,55.0294,-25.9387,11.323,12.937,49.74,-27.7258,-9.82461,-8.49613,-24.5291,4.86011,-23.2683,47.4515,-22.6186,1.87135,-5.96175
0.170921,17.7408,-2.11678,4.19088,-5.62494,4.27744,15.8005,0.422857,-3.63024,3.32372,-0.164599,-1.93231,-5.31184,-0.0433783,0.0450604,-11.7315,-3.50765,-9.55469,0.345918,-3.74188,9.33098,2.35983,-1.59591,4.18042,-1.14301e-15,-8.74653e-15,-26.4425,1.11987,-82.7339,35.8025,15.7622,-26.2558,-3.35705,7.12502,0.298721,-33.3366,-1.14301e-15,-8.74653e-15,-30.8815,5.89341,79.4197,35.7601,5.73374,-22.7162,25.0588,7.12502,3.71714,55.0061,-26.5689,10.7888,12.595,50.878,-28.2361,-9.66544,-8.60305,-25.0901,5.01069,-23.5897,48.3146,-22.9033,1.44305,-5.79891
0.169748,17.6794,-2.14568,4.33558,-5.34784,4.41485,16.1586,0.387943,-3.76076,3.39749,-0.246919,-1.9116,-5.42439,-0.0806372,0.156433,-11.6479,-3.3602,-9.39282,-0.118903,-3.54046,9.11978,2.18058,-1.50448,4.10386,-1.20265e-14,-3.95581e-14,-26.1539,1.00027,-82.5807,35.9256,15.7409,-26.7169,-3.2936,7.12502,-0.146678,-33.2733,-1.20265e-14,-3.95581e-14,-30.674,5.67372,79.5971,36.1835,5.73096,-22.8364,25.2197,7.12502,3.60104,55.1691,-27.4005,10.3092,12.4465,52.0285,-28.6384,-9.66216,-9.15456,-25.851,5.11856,-23.7125,49.1812,-23.1335,0.9588,-5.16513
0.173078,17.6194,-2.1641,4.35061,-5.20217,4.52079,16.5853,0.412413,-3.84038,3.44173,-0.248,-1.88211,-5.60746,-0.0775621,0.231865,-11.3888,-3.20068,-9.38682,-0.543512,-3.32598,9.07677,1.99214,-1.40522,4.1065,-1.10325e-14,-8.94531e-15,-26.0555,0.848356,-82.4024,36.0821,15.4818,-27.1938,-2.76919,7.12502,-0.607271,-32.7481,-1.10325e-14,-8.94531e-15,-30.6533,5.35953,79.8143,36.578,5.76877,-23.2038,24.9494,7.12502,3.24624,54.9044,-28.0549,9.92592,12.3361,53.1642,-29.0388,-9.64957,-9.8457,-26.4398,5.33853,-23.8229,50.067,-23.4061,0.472731,-4.78532
0.180862,17.5626,-2.17658,4.25056,-5.0931,4.63281,17.1085,0.427704,-3.8429,3.50151,-0.256509,-1.90329,-5.82618,-0.0791474,0.211321,-11.3386,-3.04828,-9.21293,-0.77714,-3.13244,8.94047,1.89102,-1.31382,4.04857,1.64494e-14,-3.67752e-15,-26.0165,0.72909,-82.3006,36.2963,15.2008,-27.2144,-2.94358,7.12502,-0.627185,-32.9224,1.64494e-14,-3.67752e-15,-30.6152,4.90435,79.9853,36.9122,5.97579,-23.541,24.6487,7.12502,2.92065,54.6084,-28.522,9.62108,12.1951,54.2612,-29.5481,-9.43208,-9.8777,-26.8808,5.57177,-23.9563,50.966,-23.7507,0.0474099,-4.40629
0.185791,17.4979,-2.18998,4.20264,-4.91816,4.66101,17.5501,0.409455,-3.7962,3.62658,-0.288584,-1.86083,-5.92927,-0.0948374,0.236543,-11.6073,-2.96982,-9.13648,-0.876285,-3.00674,8.83118,1.88864,-1.24822,4.00805,4.91992e-15,-8.94531e-16,-25.8412,0.652545,-82.1368,36.5549,15.2629,-27.0019,-3.72019,7.12502,-0.421952,-33.6995,4.91992e-15,-8.94531e-16,-30.3566,4.60066,80.1938,37.1176,6.07413,-23.7185,24.8603,7.12502,2.74923,54.8224,-29.007,9.27477,12.1466,55.3326,-30.0818,-9.09062,-9.6683,-27.3976,5.73527,-23.9771,51.8862,-24.1046,-0.432614,-3.98944
0.190513,17.4359,-2.20003,4.14799,-4.71935,4.86914,17.9102,0.410127,-3.93494,3.78269,-0.326519,-1.85625,-5.95308,-0.112087,0.32831,-11.8388,-2.9221,-9.19047,-0.990154,-2.91097,8.83994,1.88328,-1.195,4.02409,1.25483e-14,-3.18055e-15,-25.6551,0.600926,-81.9408,36.7825,15.4202,-26.9901,-4.24219,7.12502,-0.410497,-34.2215,1.25483e-14,-3.18055e-15,-30.0834,4.37715,80.3978,37.3143,5.97242,-23.8797,25.1777,7.12502,2.59358,55.1416,-29.4804,8.84413,11.9104,56.3879,-30.5532,-8.86708,-9.82744,-27.8766,5.91208,-24.207,52.7992,-24.4204,-0.881394,-3.6593
0.196938,17.3776,-2.2089,4.10904,-4.5275,5.00684,18.2411,0.40426,-3.97256,3.87783,-0.355371,-1.84972,-6.02698,-0.125107,0.362962,-11.6821,-2.82287,-9.21463,-1.25539,-2.77488,8.84545,1.76792,-1.13041,4.03953,-8.3738e-15,3.67752e-15,-25.5902,0.529466,-81.7565,36.9681,15.393,-27.2848,-4.44205,7.12502,-0.695198,-34.4207,-8.3738e-15,3.67752e-15,-29.9652,4.2182,80.5569,37.506,5.87846,-24.0923,25.1896,7.12502,2.38824,55.156,-30.0017,8.43302,11.755,57.4171,-30.9061,-8.84251,-10.2329,-28.3675,6.12376,-24.3816,53.7316,-24.6932,-1.19029,-3.51352
0.20104,17.3184,-2.22213,4.1503,-4.29164,4.95767,18.5413,0.354375,-3.83292,3.91832,-0.406881,-1.82232,-6.14345,-0.150508,0.324884,-11.388,-2.70076,-9.00987,-1.59398,-2.64219,8.70382,1.60362,-1.07495,3.97265,3.3048e-15,9.14409e-15,-25.5883,0.314217,-81.6592,37.1561,15.306,-27.5494,-4.22923,7.12502,-0.950674,-34.2069,3.3048e-15,9.14409e-15,-29.8975,3.94685,80.6416,37.7303,5.91193,-24.2899,25.4007,7.12502,2.1974,55.3692,-30.6145,8.04518,11.8294,58.4362,-31.1479,-9.02705,-11.1196,-28.998,6.29218,-24.3434,54.6752,-24.876,-1.58429,-2.98131
0.205194,17.2559,-2.23462,4.20654,-4.0723,4.9699,18.819,0.320942,-3.74148,3.99796,-0.444675,-1.82382,-6.20578,-0.169862,0.280426,-11.4621,-2.57651,-8.91522,-1.74728,-2.47468,8.71036,1.554,-0.989778,3.96832,-2.87492e-14,-1.98785e-16,-25.4896,0.0493967,-81.5628,37.3248,15.2131,-27.5975,-3.48643,7.12502,-0.997199,-33.4638,-2.87492e-14,-1.98785e-16,-29.5941,3.56215,80.7226,37.8385,6.02027,-24.3222,25.1218,7.12502,2.1662,55.0906,-31.2327,7.63301,11.8262,59.4532,-31.4509,-9.15807,-11.8805,-29.6674,6.51512,-24.3849,55.632,-25.1006,-1.989,-2.91247
0.209289,17.191,-2.24801,4.22318,-3.88753,5.05747,19.187,0.319496,-3.76729,4.08655,-0.467256,-1.81903,-6.30552,-0.179447,0.305703,-11.6108,-2.50257,-8.89879,-1.89724,-2.35956,8.75712,1.52337,-0.92791,3.98603,8.19987e-16,2.13694e-15,-25.3739,-0.0383504,-81.4428,37.5222,14.9255,-28.3013,-2.31859,7.12502,-1.6769,-32.2917,8.19987e-16,2.13694e-15,-29.2335,3.11079,80.8678,37.9512,6.19079,-24.5465,24.9821,7.12502,1.94958,54.953,-31.8497,7.23084,11.7261,60.4934,-31.7946,-9.16011,-12.1845,-30.2812,6.73203,-24.5057,56.6095,-25.4045,-2.36393,-2.89784
0.209954,17.1238,-2.26323,4.16656,-3.71219,5.19512,19.594,0.346992,-3.9136,4.19687,-0.476564,-1.79872,-6.4008,-0.180803,0.413017,-11.498,-2.51466,-8.8203,-2.24858,-2.37607,8.67075,1.4001,-0.94134,3.94763,1.01256e-14,-3.926e-15,-25.2676,-0.0577668,-81.3209,37.7234,14.6613,-29.2672,-1.53313,7.12502,-2.60979,-31.4969,1.01256e-14,-3.926e-15,-29.0118,2.84215,81.0122,38.1772,5.99656,-24.8042,25.0875,7.12502,1.70063,55.0605,-32.4131,6.85927,11.602,61.5568,-32.1363,-9.19388,-12.8153,-30.8144,6.96107,-24.6733,57.6,-25.7415,-2.64263,-2.98824
0.21358,17.0533,-2.27627,4.12208,-3.57669,5.25294,19.9715,0.348941,-3.92295,4.29852,-0.492418,-1.79634,-6.49041,-0.187661,0.425139,-11.5342,-2.49504,-8.7238,-2.47756,-2.34767,8.63329,1.33344,-0.927949,3.92259,6.24929e-15,-1.36416e-14,-25.1476,-0.0679856,-81.2593,37.9445,14.5103,-29.1307,-2.07029,7.12502,-2.47792,-32.0356,6.24929e-15,-1.36416e-14,-28.8493,2.63589,81.0829,38.4484,5.71407,-25.0843,25.2561,7.12502,1.43016,55.231,-32.9602,6.51414,11.5339,62.6208,-32.529,-9.0304,-12.9168,-31.3676,7.23378,-24.7607,58.6164,-26.0408,-2.99066,-2.81298
0.217765,16.9829,-2.28733,4.11638,-3.45019,5.36713,20.3449,0.344745,-3.99614,4.36371,-0.531704,-1.80612,-6.61529,-0.203879,0.466364,-11.8268,-2.37744,-8.71762,-2.50481,-2.16801,8.7124,1.357,-0.829861,3.95403,-4.53478e-15,-1.32192e-14,-25.1106,0.105705,-81.2353,38.2153,13.9505,-29.1347,-2.55223,7.12502,-2.48178,-32.5175,-4.53478e-15,-1.32192e-14,-28.7423,2.32572,81.1761,38.7334,5.76721,-25.5026,25.359,7.12502,1.02616,55.3362,-33.5446,6.13677,11.3912,63.6862,-32.9028,-8.8514,-12.9617,-31.9668,7.44981,-24.9123,59.6426,-26.3482,-3.3428,-2.70001
0.221322,16.9142,-2.29785,4.09021,-3.28041,5.47357,20.6618,0.335899,-4.0682,4.48371,-0.570524,-1.79956,-6.64983,-0.22172,0.524877,-12.1194,-2.28413,-8.5951,-2.61406,-2.02974,8.62204,1.35508,-0.757248,3.91261,-1.24675e-14,-2.19657e-14,-25.0206,0.225042,-81.1455,38.4833,13.6913,-29.2169,-2.7844,7.12502,-2.56122,-32.7488,-1.24675e-14,-2.19657e-14,-28.5652,1.98796,81.2927,38.9918,5.94174,-25.8926,25.0992,7.12502,0.64951,55.0779,-34.0862,5.68819,11.2724,64.7589,-33.2797,-8.7177,-13.1689,-32.5419,7.57369,-25.0514,60.6894,-26.7406,-3.52455,-3.03777
0.223529,16.8401,-2.30822,4.0764,-3.19137,5.40168,20.9998,0.352287,-3.97521,4.54977,-0.542802,-1.76421,-6.7578,-0.208367,0.503504,-12.063,-2.30524,-8.55758,-2.82754,-2.05684,8.61374,1.28469,-0.772716,3.90353,2.18042e-15,-6.58474e-16,-24.9176,0.2026,-81.0309,38.6526,13.7603,-29.2514,-2.65141,7.12502,-2.59452,-32.6154,2.18042e-15,-6.58474e-16,-28.4833,1.66992,81.3565,39.2296,5.9332,-26.0603,24.4741,7.12502,0.487472,54.4533,-34.6764,5.33309,11.3611,65.8532,-33.6099,-8.59187,-13.392,-33.1714,7.77898,-24.9845,61.7868,-27.0614,-3.90077,-2.69928
0.224976,16.7594,-2.31969,4.09433,-3.21693,5.3337,21.3804,0.415571,-3.96029,4.55251,-0.475944,-1.73351,-6.95729,-0.172969,0.510666,-11.8972,-2.3267,-8.61064,-3.00786,-2.08441,8.75783,1.21127,-0.786788,3.95661,2.21346e-14,9.89808e-15,-24.8585,0.185588,-80.9548,38.7629,13.7243,-29.5721,-2.03029,7.12502,-2.90422,-31.9903,2.21346e-14,9.89808e-15,-28.4684,1.39268,81.3921,39.4454,5.84017,-26.217,23.9461,7.12502,0.336172,53.9256,-35.3718,5.10568,11.4347,66.9693,-33.9272,-8.44086,-13.4829,-33.8878,8.07995,-24.9415,62.9153,-27.3577,-4.14495,-2.80393
0.227342,16.6763,-2.33164,4.12747,-3.20341,5.331,21.7213,0.441965,-4.00423,4.5778,-0.467491,-1.71151,-7.10828,-0.165663,0.55725,-11.9935,-2.25761,-8.61263,-3.12778,-1.97903,8.82356,1.18285,-0.730632,3.98268,5.24916e-15,1.49927e-14,-24.7861,0.257633,-80.9102,39.0002,13.6527,-29.5384,-2.47572,7.12502,-2.87172,-32.4361,5.24916e-15,1.49927e-14,-28.4526,1.21831,81.4166,39.6861,5.75787,-26.5094,23.6586,7.12502,0.0537037,53.6383,-36.0633,4.79124,11.4409,68.1046,-34.2775,-8.29643,-13.3986,-34.6107,8.31981,-24.9992,64.0388,-27.6416,-4.27333,-3.06658
0.231586,16.5992,-2.33704,4.10254,-3.13029,5.383,21.9718,0.423439,-4.04231,4.68414,-0.510539,-1.72051,-7.12115,-0.186413,0.581279,-12.1303,-2.16849,-8.54399,-3.34813,-1.8472,8.81761,1.12656,-0.662711,3.97666,-9.51992e-15,-1.44492e-14,-24.6515,0.380687,-80.9107,39.2156,13.449,-29.7053,-2.47883,7.12502,-3.03283,-32.437,-9.51992e-15,-1.44492e-14,-28.2686,1.09485,81.3914,39.8503,5.78116,-26.69,23.7878,7.12502,-0.120711,53.7675,-36.6532,4.38207,11.3787,69.2141,-34.6231,-8.10283,-13.4666,-35.1808,8.48545,-25.1135,65.1255,-27.8886,-4.46167,-3.08461
0.234694,16.5197,-2.34178,4.04032,-3.14796,5.55054,22.263,0.470538,-4.23798,4.77685,-0.50898,-1.74648,-7.16975,-0.182377,0.664374,-12.2185,-2.16336,-8.52225,-3.5116,-1.82828,8.80242,1.08954,-0.652126,3.96981,1.45579e-14,-3.32343e-15,-24.4991,0.490698,-80.8541,39.3205,13.2393,-30.3474,-1.46822,7.12502,-3.65293,-31.4167,1.45579e-14,-3.32343e-15,-28.0593,1.02565,81.3782,39.9527,5.74377,-26.889,24.3603,7.12502,-0.312848,54.3398,-37.2556,4.03997,11.1804,70.3178,-34.9229,-7.93873,-13.3569,-35.6975,8.74253,-25.3385,66.1918,-28.1137,-4.90327,-1.92857
0.236854,16.4426,-2.35186,4.01625,-3.17039,5.63105,22.5745,0.523155,-4.35949,4.84078,-0.485407,-1.75617,-7.26163,-0.167939,0.716663,-12.3383,-2.13107,-8.38491,-3.64545,-1.78681,8.69707,1.0616,-0.632498,3.91708,-6.1996e-15,-2.045e-14,-24.3578,0.40296,-80.782,39.4527,13.2917,-30.7481,-0.987726,7.12502,-4.03986,-30.9292,-6.1996e-15,-2.045e-14,-27.9829,0.895657,81.36,40.1809,5.65112,-27.1543,24.7403,7.12502,-0.569141,54.7193,-37.9337,3.71028,11.1146,71.393,-35.1769,-7.93936,-13.4807,-36.3056,9.03549,-25.4728,67.2662,-28.3442,-5.22307,-1.26806
0.239301,16.369,-2.36016,4.04012,-3.15301,5.64462,22.856,0.547566,-4.42005,4.85579,-0.485207,-1.7678,-7.39104,-0.164498,0.738423,-12.3285,-2.05639,-8.2485,-3.85009,-1.69552,8.69874,0.990711,-0.588839,3.90053,-1.12018e-14,-4.27604e-14,-24.385,0.212967,-80.74,39.7722,13.6662,-30.3011,-1.4554,7.12502,-3.60827,-31.4046,-1.12018e-14,-4.27604e-14,-28.0303,0.725324,81.2946,40.4865,5.47145,-27.2913,24.7866,7.12502,-0.701427,54.7652,-38.6145,3.32488,11.1466,72.4341,-35.399,-8.02204,-13.6924,-36.9561,9.26192,-25.5478,68.3292,-28.6414,-5.23034,-1.98915
0.242277,16.2915,-2.36393,4.03281,-3.2035,5.68339,23.1263,0.592724,-4.53967,4.85696,-0.472072,-1.77234,-7.52949,-0.153393,0.797758,-12.1814,-2.00673,-8.2506,-4.07433,-1.6284,8.75275,0.896912,-0.55796,3.92195,8.77448e-15,-4.29406e-15,-24.4319,0.121055,-80.6905,40.073,13.9726,-29.8841,-2.0555,7.12502,-3.2055,-32.0112,8.77448e-15,-4.29406e-15,-28.0431,0.690305,81.2343,40.6526,5.37689,-27.4209,24.6783,7.12502,-0.82661,54.6565,-39.2257,2.92746,11.1504,73.4873,-35.7149,-8.05713,-13.8019,-37.5483,9.51182,-25.6438,69.4107,-28.9338,-5.25856,-2.68412
0.245623,16.2133,-2.36751,3.96216,-3.26663,5.78104,23.4178,0.65258,-4.65467,4.88329,-0.443419,-1.81523,-7.65218,-0.135739,0.807942,-12.0354,-1.99729,-8.27302,-4.26755,-1.61377,8.8208,0.817335,-0.552866,3.94841,-7.25875e-15,-1.18587e-14,-24.3526,0.0441688,-80.6471,40.1464,13.9931,-30.0931,-1.98731,7.12502,-3.40741,-31.9398,-7.25875e-15,-1.18587e-14,-27.9932,0.571611,81.189,40.6705,5.56566,-27.6552,24.4897,7.12502,-1.05292,54.4668,-39.7557,2.53185,11.0917,74.5342,-36.0344,-7.99717,-13.7205,-38.0737,9.781,-25.7874,70.5025,-29.2033,-5.36294,-3.49622
0.249465,16.1348,-2.37213,3.87506,-3.31228,5.79552,23.7155,0.695427,-4.68824,4.969,-0.414215,-1.84166,-7.71281,-0.121231,0.789541,-11.9089,-1.96157,-8.22804,-4.61916,-1.58083,8.50302,0.772279,-0.547676,4.25163,1.82323e-15,-1.6847e-14,-24.1695,-0.0695039,-80.6202,40.2032,13.9304,-30.4512,-1.14026,7.12502,-3.75321,-31.087,1.82323e-15,-1.6847e-14,-27.8462,0.497874,81.1191,40.6086,5.59613,-28.0389,24.42,7.12502,-1.42353,54.395,-40.281,2.15259,11.1244,75.5769,-36.3746,-7.78745,-13.5878,-38.588,10.0351,-25.8106,71.6265,-29.4128,-5.60788,-3.71827
0.249846,16.0588,-2.37758,3.84884,-3.38033,5.76895,23.9897,0.750821,-4.7693,5.0411,-0.376196,-1.82785,-7.77537,-0.101147,0.839459,-11.9899,-1.93983,-8.12505,-4.84052,-1.54836,8.45536,0.707636,-0.531779,4.21449,-2.2649e-14,-1.62382e-14,-23.9633,-0.111861,-80.621,40.294,13.6101,-30.8014,-0.899956,7.12502,-4.09138,-30.8404,-2.2649e-14,-1.62382e-14,-27.7282,0.506796,81.0596,40.6168,5.58304,-28.2558,24.5757,7.12502,-1.63297,54.5492,-40.8887,1.83146,11.2106,76.5925,-36.6185,-7.49758,-13.0525,-39.2095,10.28,-25.7701,72.7502,-29.5329,-5.97432,-3.48322
0.249192,15.9845,-2.38361,3.83388,-3.38418,5.67898,24.226,0.755233,-4.79458,5.12893,-0.384545,-1.78484,-7.79867,-0.104969,0.903652,-12.0834,-1.90457,-8.04822,-5.06019,-1.49409,8.39351,0.643936,-0.50466,4.17877,2.40281e-14,3.52346e-14,-23.7106,-0.143095,-80.6136,40.4782,13.4817,-30.5142,-1.97827,7.12502,-3.81399,-31.9239,2.40281e-14,3.52346e-14,-27.5921,0.659881,80.9793,40.667,5.56215,-28.1275,24.7117,7.12502,-1.50907,54.6861,-41.4712,1.38072,11.4003,77.5807,-36.653,-7.42458,-12.5891,-39.8605,10.4775,-25.6354,73.8798,-29.5536,-6.38656,-3.3236
0.250841,15.9155,-2.38718,3.81516,-3.39221,5.64681,24.4282,0.749699,-4.83767,5.20824,-0.412366,-1.78497,-7.81276,-0.118107,0.936615,-12.1574,-1.82496,-7.98093,-5.19709,-1.38438,8.36997,0.600233,-0.449445,4.1619,9.4547e-15,2.06736e-14,-23.4807,-0.34236,-80.6009,40.5682,13.6687,-30.5745,-2.16528,7.12502,-3.87227,-32.1098,9.4547e-15,2.06736e-14,-27.4851,0.807457,80.8438,40.7027,5.62436,-28.0423,24.8577,7.12502,-1.42679,54.8327,-42.0201,0.865566,11.5298,78.5553,-36.7403,-7.53508,-12.7028,-40.4653,10.6425,-25.5544,74.9998,-29.5755,-6.78202,-2.96985
0.253335,15.8463,-2.39057,3.77504,-3.41609,5.61028,24.6829,0.758861,-4.86784,5.26849,-0.421885,-1.77831,-7.87558,-0.121523,0.964057,-12.2327,-1.73005,-8.02431,-5.25902,-1.24313,8.43712,0.581693,-0.375256,4.2021,-3.50358e-15,-3.23025e-16,-23.3469,-0.45035,-80.6031,40.5721,13.3985,-30.7292,-2.02178,7.12502,-4.02168,-31.9636,-3.50358e-15,-3.23025e-16,-27.3666,0.896037,80.7287,40.6082,5.81992,-28.305,24.9378,7.12502,-1.68051,54.9109,-42.5728,0.395818,11.6503,79.5292,-36.9031,-7.51432,-12.6642,-41.034,10.7971,-25.4737,76.0948,-29.5985,-6.97052,-3.51508
0.255667,15.7734,-2.39536,3.7109,-3.43086,5.49971,24.9803,0.774029,-4.82883,5.33067,-0.405921,-1.73933,-7.9595,-0.113556,0.979758,-12.2725,-1.67309,-8.03506,-5.42574,-1.15459,8.43504,0.525259,-0.329718,4.20742,5.06901e-15,1.45113e-14,-23.2244,-0.541906,-80.586,40.614,13.0848,-30.3013,-2.70944,7.12502,-3.60838,-32.6586,5.06901e-15,1.45113e-14,-27.2262,1.09965,80.6476,40.4363,5.8222,-28.6383,24.3976,7.12502,-2.00236,54.368,-43.1315,0.0112738,11.8422,80.5307,-36.999,-7.40854,-12.6327,-41.5935,10.9285,-25.2976,77.1798,-29.5876,-7.18657,-3.99452
0.25846,15.7021,-2.3981,3.64762,-3.41359,5.41742,25.2684,0.760537,-4.79693,5.36943,-0.430496,-1.71982,-8.06241,-0.124094,0.990613,-12.2398,-1.61127,-8.03505,-5.63907,-1.0636,8.45717,0.440682,-0.284288,4.21895,-8.29926e-15,2.43511e-15,-23.0767,-0.643576,-80.5767,40.7181,12.7669,-30.7793,-2.12911,7.12502,-4.06998,-32.07,-8.29926e-15,2.43511e-15,-27.1991,1.25097,80.5633,40.3267,5.73368,-28.7576,24.1344,7.12502,-2.11762,54.1037,-43.6789,-0.403698,11.9776,81.5398,-37.0132,-7.17003,-12.9389,-42.1076,11.0487,-25.1348,78.2297,-29.5098,-7.73605,-3.13727
0.261504,15.6268,-2.40222,3.62994,-3.41364,5.33713,25.5241,0.742531,-4.77134,5.37487,-0.462449,-1.7087,-8.18536,-0.137243,0.998226,-12.26,-1.56795,-7.93556,-5.68541,-1.01511,8.38877,0.422442,-0.262223,4.17629,5.29264e-15,7.10655e-15,-22.9687,-0.834388,-80.5752,40.9323,12.6952,-30.9587,-2.44733,7.12502,-4.24326,-32.3848,5.29264e-15,7.10655e-15,-27.175,1.33423,80.4598,40.1673,5.82243,-28.7551,24.4549,7.12502,-2.11516,54.4242,-44.3132,-0.844083,12.1113,82.5634,-36.9875,-6.94103,-13.0932,-42.685,11.1955,-24.9916,79.2605,-29.4484,-8.27611,-2.20302
0.264755,15.5523,-2.40616,3.60577,-3.42405,5.30369,25.7485,0.759921,-4.80713,5.39964,-0.460033,-1.67814,-8.27121,-0.133657,1.05177,-12.373,-1.56296,-7.94866,-5.63998,-1.00128,8.38725,0.456092,-0.252816,4.1798,-6.38596e-15,7.8023e-15,-22.9427,-1.07479,-80.4758,41.2593,13.047,-30.2305,-4.22416,7.12502,-3.54005,-34.1745,-6.38596e-15,7.8023e-15,-27.0331,1.38783,80.412,39.8408,5.89115,-28.8027,24.6991,7.12502,-2.16121,54.6679,-44.9314,-1.26659,12.1821,83.563,-37.0197,-6.74086,-13.1382,-43.2256,11.3253,-24.9249,80.221,-29.506,-8.51442,-2.61237
0.266841,15.4857,-2.40595,3.53173,-3.46329,5.34437,25.9365,0.806783,-4.91634,5.47381,-0.438937,-1.68814,-8.28348,-0.122221,1.09663,-12.4538,-1.52517,-8.05244,-5.70258,-0.927717,8.50484,0.445358,-0.210683,4.24728,-9.31803e-15,8.44835e-16,-22.9004,-1.20985,-80.4396,41.4617,12.8327,-30.4397,-4.12501,7.12502,-3.74212,-34.0719,-9.31803e-15,8.44835e-16,-26.8487,1.55158,80.3269,39.4953,5.7874,-29.0143,24.3543,7.12502,-2.36556,54.3209,-45.4343,-1.59496,12.1414,84.5215,-37.0585,-6.3797,-12.9755,-43.6198,11.464,-24.9193,81.1025,-29.5822,-8.85075,-2.66217
0.269205,15.4362,-2.4035,3.4236,-3.54531,5.39223,26.1555,0.868336,-5.01849,5.55038,-0.403472,-1.73542,-8.30971,-0.104299,1.09135,-12.4361,-1.48734,-7.94237,-5.88652,-0.883662,8.45311,0.375384,-0.191486,4.20756,4.94477e-15,-2.23136e-14,-22.8316,-1.32599,-80.5075,41.5147,12.1137,-31.4073,-2.77335,7.12502,-4.6764,-32.7017,4.94477e-15,-2.23136e-14,-26.711,1.63948,80.2038,39.1859,5.72828,-29.2141,23.9555,7.12502,-2.55853,53.9199,-45.848,-1.91476,12.0911,85.3726,-36.947,-6.2018,-13.3911,-43.8784,11.6131,-24.9128,81.8731,-29.5712,-9.30612,-1.87015
0.273646,15.3733,-2.40306,3.35199,-3.57288,5.42934,26.3889,0.887901,-5.07379,5.60598,-0.408826,-1.75578,-8.36459,-0.105436,1.1021,-12.4275,-1.46637,-7.82437,-6.07084,-0.863707,8.32208,0.308098,-0.185499,4.13655,-6.4605e-16,-1.37161e-14,-22.713,-1.40948,-80.5216,41.5495,11.6289,-31.9178,-1.91838,7.12502,-5.16933,-31.8353,-6.4605e-16,-1.37161e-14,-26.5016,1.70837,80.1367,38.8235,5.76369,-29.104,24.1623,7.12502,-2.45211,54.128,-46.3702,-2.32753,12.0457,86.2736,-36.8332,-5.92487,-13.457,-44.2374,11.7322,-24.9453,82.6627,-29.5455,-9.58756,-1.43098
0.278587,15.3084,-2.40083,3.26314,-3.56485,5.50428,26.6257,0.889747,-5.12982,5.64725,-0.439093,-1.78609,-8.43568,-0.117734,1.11032,-12.4191,-1.44113,-7.85654,-6.19254,-0.820138,8.35662,0.263038,-0.162705,4.15721,1.08835e-14,1.09829e-14,-22.6138,-1.52433,-80.5019,41.5102,11.4003,-32.1129,-1.31529,7.12502,-5.35775,-31.2276,1.08835e-14,1.09829e-14,-26.3634,1.71792,80.0776,38.5468,5.82009,-29.0299,24.5287,7.12502,-2.38054,54.4951,-46.8396,-2.76149,11.9515,87.159,-36.816,-5.5394,-13.4716,-44.5766,11.8287,-25.0476,83.4177,-29.6952,-9.76775,-1.01778
0.285115,15.2467,-2.39571,3.13409,-3.58707,5.53849,26.8851,0.897588,-5.12743,5.68123,-0.449093,-1.82548,-8.52804,-0.121273,1.06826,-12.3908,-1.42759,-7.83286,-6.27028,-0.803218,8.34987,0.230532,-0.155303,4.15044,7.05686e-15,-9.54166e-15,-22.6007,-1.71382,-80.4737,41.507,11.649,-32.118,-0.811958,7.12502,-5.36271,-30.7241,7.05686e-15,-9.54166e-15,-26.301,1.80537,79.9915,38.2651,5.71602,-29.1747,24.5582,7.12502,-2.52041,54.5231,-47.1473,-3.1033,11.8667,87.9993,-36.9159,-5.11328,-13.5734,-44.8286,11.9647,-25.1234,84.1371,-29.9666,-9.99007,-0.00829921
0.290054,15.1883,-2.38973,3.01324,-3.59188,5.63542,27.1109,0.912059,-5.24602,5.74285,-0.478089,-1.84406,-8.56899,-0.132444,1.12518,-12.4867,-1.40377,-7.77836,-6.33056,-0.770121,8.26488,0.222701,-0.138843,4.11058,1.61016e-14,2.0276e-14,-22.6058,-1.76242,-80.4559,41.6968,11.875,-32.0221,-1.03549,7.12502,-5.27007,-30.95,1.61016e-14,2.0276e-14,-26.1896,2.02652,79.9203,37.9563,5.49768,-29.3526,24.2055,7.12502,-2.69228,54.1683,-47.3941,-3.42877,11.6912,88.7919,-37.0136,-4.51677,-13.1983,-45.0196,12.0612,-25.2878,84.7993,-30.3614,-9.9076,0.131457
0.293961,15.1345,-2.38526,2.94355,-3.5209,5.67285,27.3243,0.882638,-5.30292,5.78041,-0.54261,-1.82485,-8.62894,-0.160405,1.20096,-12.5481,-1.36754,-7.79477,-6.45705,-0.7106,8.19108,0.185273,-0.108199,4.08996,1.44119e-14,-2.98177e-16,-22.5855,-1.65973,-80.4609,41.7722,11.5342,-32.3251,-0.967117,7.12502,-5.56265,-30.8741,1.44119e-14,-2.98177e-16,-26.0363,2.24948,79.8737,37.5647,5.3184,-29.4494,23.9498,7.12502,-2.78569,53.9114,-47.7357,-3.8078,11.6268,89.5387,-36.9537,-4.34584,-13.3258,-45.2447,12.0938,-25.3871,85.4402,-30.715,-9.82915,0.144266
0.294088,15.0723,-2.38503,2.91992,-3.50551,5.61653,27.4689,0.874281,-5.28583,5.82447,-0.554924,-1.8069,-8.65085,-0.166511,1.21559,-12.5529,-1.35076,-7.82476,-6.6214,-0.676438,8.18873,0.128681,-0.0902371,4.09638,1.31198e-14,-1.48095e-14,-22.4445,-1.64277,-80.5008,41.7481,11.1948,-32.5223,-1.01681,7.12502,-5.75304,-30.9187,1.31198e-14,-1.48095e-14,-25.8342,2.32748,79.8326,37.1321,5.31329,-29.8268,23.4054,7.12502,-3.15022,53.3619,-48.2485,-4.11619,11.7219,90.3319,-36.8055,-4.45559,-13.8171,-45.6039,12.1847,-25.3723,86.1201,-31.0007,-9.84249,0.474575
0.295647,15.0032,-2.38071,2.85233,-3.59505,5.59196,27.5772,0.915159,-5.26041,5.90182,-0.504555,-1.84861,-8.62124,-0.145662,1.13767,-12.5967,-1.3376,-7.82356,-6.69378,-0.651151,8.26425,0.110819,-0.0757412,4.12473,1.27719e-14,2.5842e-15,-22.3237,-1.83068,-80.5587,41.7553,11.1919,-32.4033,-0.923026,7.12502,-5.63809,-30.828,1.27719e-14,2.5842e-15,-25.6294,2.28261,79.7768,36.7582,5.43757,-30.5599,22.6686,7.12502,-3.85818,52.6134,-48.7146,-4.29932,11.7352,91.1609,-36.8263,-4.24402,-14.0803,-45.9174,12.3771,-25.4172,86.8017,-31.3921,-9.67768,0.553808
0.301029,14.9431,-2.37172,2.76051,-3.72804,5.58033,27.6748,0.950457,-5.23688,5.95163,-0.462124,-1.88543,-8.61668,-0.127589,1.06878,-12.4966,-1.30656,-7.82577,-6.81897,-0.609582,8.28667,0.048523,-0.0564922,4.13443,4.96962e-17,1.00386e-14,-22.2959,-1.91375,-80.5862,41.7265,11.1595,-32.637,-0.282339,7.12502,-5.86379,-30.1812,4.96962e-17,1.00386e-14,-25.5032,2.34426,79.7006,36.3737,5.21391,-30.6813,23.037,7.12502,-3.97541,52.9796,-49.041,-4.38619,11.6917,91.8843,-36.9339,-3.90665,-13.9086,-46.0995,12.5831,-25.5044,87.4085,-31.9274,-9.43121,0.598103
0.304388,14.8909,-2.36886,2.7221,-3.78505,5.40865,27.8087,0.923273,-5.09369,5.96706,-0.463968,-1.86724,-8.66772,-0.130643,1.00758,-12.4602,-1.30998,-7.69156,-6.88745,-0.632914,8.15651,0.0193867,-0.073365,4.05904,-2.88238e-15,8.94531e-15,-22.2944,-1.81744,-80.6571,41.7312,11.0926,-32.8062,0.0348833,7.12502,-6.02715,-29.8594,-2.88238e-15,8.94531e-15,-25.3999,2.6219,79.5516,35.9798,4.63651,-29.9612,23.7676,7.12502,-3.28002,53.7221,-49.3534,-4.4789,11.8923,92.4826,-37.0385,-3.88908,-14.17,-46.3383,12.7424,-25.3866,87.9494,-32.3332,-9.27796,0.75092
0.304622,14.8385,-2.36608,2.70507,-3.8627,5.08717,27.9005,0.907185,-4.87855,6.00643,-0.420187,-1.78237,-8.67308,-0.114723,0.964216,-12.3895,-1.34536,-7.64677,-7.01165,-0.686287,8.10805,-0.0300948,-0.103245,4.02979,5.81445e-15,1.51076e-14,-22.2899,-1.79303,-80.7119,41.7994,11.1835,-32.8415,0.125835,7.12502,-6.0612,-29.7675,5.81445e-15,1.51076e-14,-25.2745,3.02281,79.4259,35.6154,4.03995,-29.4756,24.1391,7.12502,-2.81106,54.1003,-49.6347,-4.47761,12.3054,93.056,-37.1013,-4.0154,-14.4332,-46.6169,12.9168,-25.0747,88.4844,-32.706,-9.14275,0.686163
0.313225,14.7947,-2.36003,2.66621,-3.77658,5.28212,28.0302,0.872877,-4.98129,6.03162,-0.506717,-1.84529,-8.70397,-0.153049,0.982424,-12.2849,-1.35311,-7.78735,-7.08251,-0.67999,8.26436,-0.0696486,-0.097562,4.11429,-6.95746e-15,-1.41137e-14,-22.3207,-1.77589,-80.7432,41.8182,11.3509,-32.9678,-0.233372,7.12502,-6.18311,-30.1231,-6.95746e-15,-1.41137e-14,-25.1927,3.25321,79.3652,35.3083,3.73987,-29.5404,24.381,7.12502,-2.87365,54.3413,-49.7932,-4.81183,12.0339,93.5844,-37.2108,-3.90796,-14.7079,-46.6932,12.7171,-25.4088,88.8758,-33.1228,-8.70291,0.0469746
0.318569,14.7521,-2.35344,2.70424,-3.75938,5.27319,28.0578,0.865354,-4.96941,6.05014,-0.512666,-1.83384,-8.69642,-0.15635,0.99054,-12.2823,-1.34982,-7.88973,-7.10935,-0.660115,8.35152,-0.0792918,-0.0844554,4.16734,-3.47873e-15,-1.0635e-14,-22.2872,-1.72782,-80.7396,41.7435,11.3835,-32.8753,-0.489287,7.12502,-6.09381,-30.3816,-3.47873e-15,-1.0635e-14,-25.0257,3.4681,79.349,34.8708,3.60401,-29.6372,24.3517,7.12502,-2.96708,54.3108,-50.0412,-4.9445,12.0109,93.9711,-37.3874,-3.76599,-14.3037,-46.8889,12.6339,-25.5182,89.2975,-33.3172,-8.182,-1.31966
0.321172,14.7118,-2.34581,2.68088,-3.7175,5.24665,28.0872,0.848458,-4.9188,6.1142,-0.519866,-1.84376,-8.63891,-0.162814,0.95316,-12.3092,-1.35635,-7.82103,-7.20045,-0.67192,8.31418,-0.104627,-0.0917514,4.13956,1.38155e-14,2.28602e-14,-22.1571,-1.74877,-80.7709,41.5849,11.4555,-32.625,-0.239884,7.12502,-5.85219,-30.1391,1.38155e-14,2.28602e-14,-24.7754,3.59678,79.3068,34.3653,3.58327,-29.6968,23.7604,7.12502,-3.02463,53.7187,-50.2028,-5.08513,12.0209,94.3513,-37.6076,-3.63197,-14.3245,-47.0232,12.5232,-25.5643,89.6965,-33.5429,-7.73782,-2.38575
0.322759,14.6741,-2.33949,2.62728,-3.71211,5.21725,28.19,0.828218,-4.90834,6.15057,-0.549027,-1.85284,-8.64748,-0.177091,0.94716,-12.2873,-1.31243,-7.71078,-7.30909,-0.624826,8.22393,-0.150156,-0.0719023,4.08667,8.24956e-15,-1.07344e-14,-22.0962,-1.61508,-80.8508,41.4357,11.4161,-32.7305,0.0171072,7.12502,-5.95403,-29.8792,8.24956e-15,-1.07344e-14,-24.6006,3.86797,79.2305,33.8885,3.4662,-29.7499,23.155,7.12502,-3.07589,53.1126,-50.3778,-5.2262,12.0639,94.7587,-37.6753,-3.67784,-14.9766,-47.1355,12.4461,-25.5879,90.1146,-33.8872,-7.23904,-3.28529
0.322442,14.6341,-2.33722,2.68865,-3.74399,4.99974,28.2769,0.806867,-4.79446,6.11343,-0.544514,-1.78634,-8.73383,-0.174751,0.95454,-12.3202,-1.27785,-7.74307,-7.24968,-0.573953,8.28008,-0.128569,-0.0445016,4.11579,1.2921e-14,2.45499e-14,-22.1557,-1.47984,-80.9044,41.324,11.4432,-32.9,-0.103765,7.12502,-6.11762,-29.9954,1.2921e-14,2.45499e-14,-24.5176,4.14658,79.1935,33.4747,3.45292,-29.959,23.3448,7.12502,-3.27787,53.2993,-50.6997,-5.26393,12.3605,95.1995,-37.6225,-3.7848,-15.262,-47.4549,12.4478,-25.4125,90.5693,-34.6793,-6.9983,-2.41242
0.322738,14.5957,-2.33843,2.7988,-3.72828,4.66491,28.3727,0.754846,-4.58068,6.04687,-0.544633,-1.65451,-8.85839,-0.17511,0.9793,-12.3034,-1.24634,-7.88725,-7.22821,-0.513928,8.39041,-0.12798,-0.010387,4.18733,5.36719e-15,1.23246e-14,-22.1633,-1.40905,-80.8898,41.122,11.6448,-32.7041,-0.577096,7.12502,-5.92858,-30.4742,5.36719e-15,1.23246e-14,-24.5202,4.48174,79.2234,33.1975,3.42594,-30.1852,24.1508,7.12502,-3.49633,54.1019,-50.9969,-5.28444,12.7788,95.6167,-37.5134,-3.70768,-15.1313,-47.8464,12.4149,-25.0841,91.0134,-34.8266,-6.84461,-2.44195
0.325032,14.5671,-2.33651,2.78495,-3.66613,4.57995,28.4485,0.708936,-4.51874,6.07513,-0.585541,-1.6252,-8.86248,-0.195569,0.991005,-12.2873,-1.21344,-7.86951,-7.29803,-0.47016,8.37323,-0.158159,0.0107005,4.17929,5.46658e-16,1.09332e-15,-22.0489,-1.46608,-80.9018,40.8385,11.8084,-32.4122,-0.69692,7.12502,-5.6467,-30.6017,5.46658e-16,1.09332e-15,-24.359,4.77883,79.1952,32.8071,3.29234,-30.286,24.5765,7.12502,-3.59368,54.5259,-51.1065,-5.39701,12.8612,95.927,-37.4923,-3.48289,-14.7022,-47.9975,12.2405,-25.0022,91.3569,-34.6809,-6.56488,-3.55529
0.329277,14.549,-2.32243,2.62765,-3.71828,4.64624,28.4799,0.736945,-4.56809,6.19466,-0.566297,-1.67045,-8.74305,-0.189814,0.962349,-12.341,-1.23342,-7.79826,-7.36044,-0.499547,8.35707,-0.167454,-0.00488351,4.15808,-1.88845e-15,-1.50082e-14,-21.9508,-1.49613,-80.9442,40.6036,11.797,-32.4912,-0.495434,7.12502,-5.72298,-30.3981,-1.88845e-15,-1.50082e-14,-24.1452,5.00186,79.1611,32.4006,3.09508,-30.4601,24.2684,7.12502,-3.76178,54.215,-50.9834,-5.42982,12.7334,96.1224,-37.612,-3.29256,-14.2686,-47.7972,12.1092,-25.0593,91.5689,-34.8241,-6.426,-3.72496
0.333027,14.5301,-2.30878,2.5096,-3.85458,4.74301,28.5256,0.810266,-4.67084,6.27181,-0.509572,-1.73394,-8.67994,-0.164048,0.93074,-12.3883,-1.26849,-7.77023,-7.34982,-0.546636,8.3936,-0.15135,-0.0280194,4.16391,2.88238e-15,1.48095e-14,-21.8694,-1.57324,-81.003,40.3496,11.9967,-32.399,-0.739648,7.12502,-5.63396,-30.6448,2.88238e-15,1.48095e-14,-24.0049,5.09773,79.1422,32.1377,2.9671,-30.3354,23.8626,7.12502,-3.64136,53.8113,-50.9671,-5.41218,12.5965,96.3042,-37.6722,-3.34759,-14.6885,-47.6528,12.0393,-25.1653,91.7408,-35.1212,-6.22014,-3.78022
0.33492,14.5148,-2.30257,2.58603,-3.97821,4.69691,28.5135,0.850994,-4.69626,6.25699,-0.465819,-1.73667,-8.69251,-0.142894,0.926998,-12.4031,-1.29979,-7.85151,-7.33474,-0.575447,8.53502,-0.139422,-0.039187,4.23055,-2.57426e-14,-3.73715e-14,-21.835,-1.55708,-81.0406,40.1133,12.4561,-32,-1.71749,7.12502,-5.24872,-31.6325,-2.57426e-14,-3.73715e-14,-23.9091,5.34279,79.1232,31.8979,2.84803,-30.1043,23.8531,7.12502,-3.41816,53.8055,-51.1813,-5.34591,12.6621,96.4501,-37.72,-3.42409,-14.8863,-47.7946,11.97,-25.1499,91.8877,-35.3069,-5.98592,-3.88078
0.336283,14.5055,-2.29714,2.7064,-4.0694,4.62032,28.4292,0.873956,-4.71196,6.25166,-0.434639,-1.72001,-8.65804,-0.128711,0.943937,-12.5035,-1.32935,-7.92405,-7.26157,-0.600598,8.66051,-0.0938598,-0.0470319,4.29035,8.94531e-16,-7.95139e-15,-21.7551,-1.62456,-81.0586,39.8077,13.0091,-31.4267,-2.64654,7.12502,-4.69513,-32.5745,8.94531e-16,-7.95139e-15,-23.8308,5.62362,79.128,31.6881,2.77434,-30.1779,23.676,7.12502,-3.48928,53.6272,-51.3924,-5.30133,12.7815,96.5606,-37.7109,-3.42971,-14.7174,-47.9571,11.8922,-25.1068,91.9934,-35.5063,-5.65509,-4.28471
0.337844,14.4965,-2.28934,2.68177,-4.08097,4.69035,28.4505,0.886772,-4.78969,6.30639,-0.442819,-1.7496,-8.60534,-0.132973,0.958511,-12.5425,-1.38302,-7.89706,-7.34264,-0.670257,8.63644,-0.108115,-0.0822733,4.27321,-2.52457e-14,-3.57812e-14,-21.6333,-1.62543,-81.1083,39.3923,13.0532,-31.3993,-2.4879,7.12502,-4.66873,-32.4165,-2.52457e-14,-3.57812e-14,-23.6997,5.78794,79.1436,31.4437,2.68654,-30.3841,23.3481,7.12502,-3.6884,53.2959,-51.4039,-5.39135,12.7248,96.6716,-37.7005,-3.51293,-14.9967,-47.9062,11.7025,-25.1969,92.0562,-35.7762,-5.16414,-5.20218
0.341905,14.4908,-2.27909,2.64667,-4.05663,4.82597,28.4654,0.879987,-4.86717,6.35304,-0.478463,-1.80718,-8.55755,-0.150028,0.951074,-12.4441,-1.41122,-7.82718,-7.51867,-0.716771,8.55319,-0.180656,-0.110294,4.2264,-1.78906e-15,-2.38542e-14,-21.6524,-1.49704,-81.2035,39.0747,12.5705,-32.0471,-1.34577,7.12502,-5.29425,-31.2596,-1.78906e-15,-2.38542e-14,-23.5271,5.89626,79.1663,31.1138,2.59601,-30.5657,23.0644,7.12502,-3.86376,53.0091,-51.371,-5.58312,12.5957,96.7552,-37.7335,-3.79796,-15.7303,-47.7944,11.4419,-25.3746,92.0881,-36.0299,-4.79382,-5.68814
0.343947,14.4864,-2.27343,2.73563,-4.08205,4.75496,28.416,0.882556,-4.81642,6.35161,-0.456865,-1.79989,-8.53653,-0.1413,0.922678,-12.5016,-1.38625,-7.83474,-7.48224,-0.679399,8.58131,-0.161708,-0.0897886,4.23999,4.67144e-15,1.11319e-14,-21.6724,-1.56275,-81.2141,38.8671,12.6935,-31.876,-1.14812,7.12502,-5.12896,-31.066,4.67144e-15,1.11319e-14,-23.3899,6.01078,79.188,30.8515,2.4659,-30.4493,23.2648,7.12502,-3.75135,53.2115,-51.4633,-5.62753,12.7186,96.8037,-37.8474,-3.94108,-15.8514,-47.867,11.2863,-25.3215,92.1452,-36.1229,-4.69984,-5.73125
0.343759,14.4838,-2.2729,2.80297,-4.16276,4.5785,28.3852,0.889081,-4.71367,6.36128,-0.414853,-1.77527,-8.51355,-0.12424,0.876832,-12.587,-1.3424,-7.85785,-7.4233,-0.612664,8.67021,-0.132472,-0.0530467,4.28036,-1.48095e-14,-2.8625e-14,-21.5881,-1.81023,-81.227,38.6439,13.3086,-30.867,-2.13926,7.12502,-4.15467,-32.0785,-1.48095e-14,-2.8625e-14,-23.2957,6.17028,79.1869,30.6608,2.30154,-30.0872,23.7585,7.12502,-3.40168,53.7111,-51.5366,-5.54323,12.9574,96.8391,-37.9108,-3.87994,-15.6095,-47.9871,11.2359,-25.1308,92.2164,-36.1348,-4.48544,-5.93751
0.343405,14.4854,-2.27275,2.81242,-4.23889,4.51132,28.4296,0.920369,-4.70131,6.37103,-0.373184,-1.76341,-8.52637,-0.104909,0.868543,-12.5722,-1.38335,-7.89667,-7.46105,-0.660985,8.72045,-0.142418,-0.0764071,4.30439,9.0447e-15,1.82882e-14,-21.4956,-1.91452,-81.2554,38.3336,13.3775,-30.3862,-2.89039,7.12502,-3.69043,-32.8382,9.0447e-15,1.82882e-14,-23.2593,6.26986,79.2388,30.5673,2.22208,-29.9997,23.9848,7.12502,-3.31713,53.9388,-51.5598,-5.48664,13.0684,96.8711,-37.8438,-3.87791,-15.2233,-48.011,11.136,-25.054,92.2414,-36.1368,-4.31189,-5.88287
0.342386,14.4891,-2.2703,2.83232,-4.27822,4.48484,28.4555,0.934768,-4.71235,6.39393,-0.359293,-1.7664,-8.51372,-0.0988397,0.866793,-12.6657,-1.43743,-7.86625,-7.43629,-0.732941,8.71396,-0.111665,-0.111534,4.29304,5.96354e-15,2.18663e-15,-21.3688,-1.93945,-81.3248,37.9411,13.3217,-30.1765,-2.74134,7.12502,-3.48791,-32.6926,5.96354e-15,2.18663e-15,-23.1956,6.32141,79.2891,30.5114,2.15128,-30.0522,24.2126,7.12502,-3.36784,54.1658,-51.5803,-5.49958,13.1379,96.8831,-37.7906,-3.96582,-15.4455,-48.0099,10.997,-25.013,92.2557,-36.1254,-4.25935,-5.88545
0.342878,14.498,-2.26693,2.86024,-4.28646,4.38241,28.5327,0.925502,-4.59282,6.39365,-0.342765,-1.77384,-8.55432,-0.0926443,0.783843,-12.6699,-1.44585,-7.82733,-7.50033,-0.744881,8.74364,-0.131088,-0.118217,4.29551,-9.44227e-15,1.39149e-15,-21.3581,-1.95526,-81.4115,37.6454,13.3542,-30.2783,-2.40236,7.12502,-3.58626,-32.3519,-9.44227e-15,1.39149e-15,-23.1365,6.23298,79.3038,30.4693,2.04475,-29.9934,24.543,7.12502,-3.31113,54.497,-51.5744,-5.50403,13.2656,96.8505,-37.7478,-4.00075,-15.6087,-47.9979,10.8321,-24.882,92.2684,-36.0653,-4.25416,-5.90152
0.34527,14.5031,-2.2651,2.92377,-4.28609,4.33467,28.616,0.925849,-4.52479,6.33871,-0.331702,-1.78741,-8.65912,-0.0862203,0.725053,-12.5733,-1.43375,-7.78346,-7.60345,-0.735224,8.73316,-0.183315,-0.11664,4.28293,1.10325e-14,1.66979e-14,-21.4826,-1.95702,-81.4683,37.384,13.423,-30.5216,-2.22645,7.12502,-3.82118,-32.1719,1.10325e-14,1.66979e-14,-23.1733,6.128,79.3139,30.3802,1.77299,-29.9986,24.6635,7.12502,-3.31609,54.6175,-51.6617,-5.53423,13.2881,96.8584,-37.6239,-3.74685,-15.2906,-48.0774,10.6199,-24.8299,92.3134,-35.9755,-4.12968,-6.03244
0.347185,14.502,-2.26571,3.03394,-4.25377,4.24846,28.6694,0.910241,-4.46224,6.25048,-0.33612,-1.74896,-8.78583,-0.0858588,0.733027,-12.4214,-1.42535,-7.83261,-7.70244,-0.722342,8.75226,-0.243151,-0.112105,4.29999,-1.13307e-14,1.68967e-14,-21.6351,-1.92441,-81.4718,37.0934,13.5513,-30.4803,-2.05872,7.12502,-3.78126,-32.0049,-1.13307e-14,1.68967e-14,-23.2462,6.14069,79.3593,30.22,1.41387,-30.0729,24.2043,7.12502,-3.38787,54.1571,-51.8167,-5.57556,13.3641,96.8804,-37.4357,-3.59778,-15.7186,-48.2914,10.3741,-24.7164,92.4271,-35.859,-4.22727,-5.52766
0.347114,14.5047,-2.26992,3.17401,-4.25776,4.06498,28.7085,0.887673,-4.36066,6.1866,-0.332144,-1.67146,-8.87838,-0.0832197,0.759708,-12.3639,-1.42919,-7.81676,-7.80491,-0.731002,8.65089,-0.287481,-0.118976,4.25942,-1.25234e-14,3.57812e-15,-21.6884,-1.79203,-81.4906,36.7785,13.6694,-30.1663,-1.77129,7.12502,-3.47808,-31.7227,-1.25234e-14,3.57812e-15,-23.2165,6.16933,79.4277,30.1037,1.17598,-29.8814,23.9658,7.12502,-3.2029,53.9215,-52.0041,-5.49897,13.5687,96.8338,-37.1949,-3.61043,-16.501,-48.5929,10.2528,-24.4886,92.5742,-35.6517,-4.15735,-5.91367
0.346017,14.5141,-2.2748,3.29863,-4.31929,3.88616,28.7578,0.886328,-4.29216,6.15292,-0.310573,-1.59666,-8.94209,-0.0727143,0.796375,-12.4841,-1.40703,-7.80818,-7.81367,-0.69713,8.53547,-0.274065,-0.100461,4.21751,3.97569e-16,2.46493e-14,-21.6522,-1.67375,-81.5286,36.5884,13.563,-29.7127,-1.70418,7.12502,-3.03998,-31.6623,3.97569e-16,2.46493e-14,-23.203,6.16099,79.5248,30.1359,1.06996,-29.7401,24.348,7.12502,-3.06646,54.3057,-52.2009,-5.36984,13.7483,96.794,-36.9438,-3.56229,-16.9529,-48.8428,10.2269,-24.2648,92.6572,-35.4074,-3.96133,-6.71784
0.346826,14.5267,-2.2773,3.38086,-4.3676,3.80791,28.7713,0.879131,-4.23318,6.17101,-0.301653,-1.58376,-8.9291,-0.0703025,0.773879,-12.7038,-1.38697,-7.75362,-7.7785,-0.667262,8.41422,-0.228891,-0.0831438,4.16448,1.87852e-14,3.12092e-14,-21.5478,-1.6053,-81.5894,36.4636,13.2293,-28.9692,-2.09071,7.12502,-2.32201,-32.0578,1.87852e-14,3.12092e-14,-23.1267,5.97305,79.6146,30.18,1.09019,-29.7702,24.6257,7.12502,-3.09552,54.583,-52.3289,-5.31653,13.7688,96.7854,-36.7037,-3.32521,-17.1482,-49.005,10.1059,-24.1218,92.7024,-35.1444,-4.00347,-6.95672
0.346645,14.5446,-2.27909,3.42531,-4.34314,3.80157,28.835,0.864392,-4.19282,6.19131,-0.316046,-1.62556,-8.93757,-0.0782617,0.708723,-12.9437,-1.38632,-7.65996,-7.6913,-0.667449,8.37833,-0.159641,-0.0809122,4.13351,-7.45443e-15,-9.14409e-15,-21.4869,-1.6526,-81.6838,36.2524,13.2453,-28.2338,-3.26326,7.12502,-1.61171,-33.2369,-7.45443e-15,-9.14409e-15,-23.1161,5.58034,79.6705,30.3799,1.16448,-29.8323,24.6077,7.12502,-3.1555,54.5641,-52.3589,-5.3698,13.7124,96.7872,-36.4823,-2.92411,-17.1586,-49.1404,9.89676,-24.0203,92.7584,-34.836,-4.21778,-6.90366
0.346536,14.5665,-2.27656,3.43541,-4.31567,3.90624,28.9065,0.866179,-4.2794,6.19105,-0.346584,-1.65893,-8.97117,-0.0902097,0.731638,-13.0371,-1.3915,-7.67315,-7.68434,-0.66704,8.3753,-0.141341,-0.0784667,4.1355,2.28602e-15,-4.57205e-15,-21.6013,-1.56897,-81.7223,36.034,13.6742,-27.9122,-4.57039,7.12502,-1.30107,-34.5462,2.28602e-15,-4.57205e-15,-23.1422,5.37345,79.7621,30.5168,1.24206,-29.934,24.5099,7.12502,-3.25375,54.4648,-52.3333,-5.42893,13.4829,96.7736,-36.257,-2.28883,-16.8282,-49.245,9.61729,-23.9711,92.8599,-34.4985,-4.89776,-5.67142
0.346325,14.5833,-2.27144,3.48994,-4.36991,3.95047,28.8284,0.891319,-4.34246,6.19766,-0.329808,-1.67297,-8.92528,-0.0820854,0.746459,-13.0644,-1.40528,-7.74489,-7.67701,-0.673297,8.44174,-0.132555,-0.0786629,4.17392,2.98177e-16,7.55382e-15,-21.7713,-1.39076,-81.7571,35.863,13.9221,-28.2664,-4.32335,7.12502,-1.64319,-34.2968,2.98177e-16,7.55382e-15,-23.108,5.18913,79.8596,30.5597,1.3078,-30.0687,24.0631,7.12502,-3.38382,54.016,-52.3972,-5.38433,13.3141,96.7269,-35.9203,-1.69707,-16.2582,-49.3517,9.42727,-23.8269,92.9422,-34.1398,-5.90464,-3.66109
0.34506,14.5914,-2.27321,3.57697,-4.35969,3.95027,28.8308,0.893991,-4.33865,6.16558,-0.327568,-1.68225,-8.9632,-0.08009,0.732836,-12.9909,-1.40508,-7.79078,-7.76667,-0.665852,8.50983,-0.174737,-0.074679,4.208,2.98177e-15,-3.37934e-15,-21.8656,-1.26102,-81.8081,35.6868,13.8368,-28.9064,-2.74943,7.12502,-2.26131,-32.7172,2.98177e-15,-3.37934e-15,-23.1582,4.92509,79.9288,30.7076,1.30731,-29.938,23.2593,7.12502,-3.25754,53.2141,-52.5737,-5.44939,13.2579,96.7632,-35.5414,-1.45349,-16.4571,-49.3666,9.32276,-23.7561,92.8301,-33.7039,-6.0527,-3.50697
0.341901,14.5908,-2.2808,3.62072,-4.21591,3.95543,28.9999,0.853095,-4.32066,6.12355,-0.38415,-1.67207,-9.09216,-0.103695,0.753281,-12.8955,-1.38436,-7.81444,-7.98018,-0.63049,8.51939,-0.265284,-0.0581956,4.21765,-5.96354e-15,-6.55989e-15,-21.9066,-1.14268,-81.842,35.5573,13.6759,-28.9554,-1.46746,7.12502,-2.30861,-31.4347,-5.96354e-15,-6.55989e-15,-23.2236,4.63763,80.012,30.9262,1.34538,-29.7849,22.856,7.12502,-3.10972,52.8131,-52.7326,-5.63298,13.2094,96.9211,-35.2494,-1.28719,-17.0959,-49.2609,9.19862,-23.7406,92.7083,-33.3134,-5.67236,-4.63604
0.339766,14.5872,-2.28396,3.66737,-4.15548,3.95198,29.0564,0.837489,-4.33614,6.13436,-0.407039,-1.63494,-9.10614,-0.113421,0.812068,-12.9544,-1.35991,-7.87315,-8.14016,-0.579354,8.48551,-0.313329,-0.0298837,4.2199,-6.95746e-16,3.57812e-15,-21.9512,-0.87861,-81.8519,35.5489,13.5493,-28.8353,-1.30348,7.12502,-2.19265,-31.272,-6.95746e-16,3.57812e-15,-23.1566,4.41301,80.1514,31.0967,1.44929,-29.8943,22.8039,7.12502,-3.21541,52.7594,-52.9196,-5.70913,13.1284,97.1007,-34.9903,-0.971239,-17.4947,-49.289,9.12291,-23.6707,92.7508,-33.0115,-5.56183,-5.53604
0.336531,14.5664,-2.28716,3.71144,-4.1555,3.92736,29.055,0.840016,-4.32186,6.16951,-0.398101,-1.63406,-9.06591,-0.110703,0.801833,-13.094,-1.36266,-7.79246,-8.2114,-0.583122,8.39365,-0.314157,-0.0317418,4.17072,2.28602e-15,1.55052e-14,-21.9766,-0.767345,-81.9086,35.4665,13.7976,-29.074,-1.32736,7.12502,-2.42317,-31.2933,2.28602e-15,1.55052e-14,-23.0561,4.1534,80.224,31.2565,1.48479,-30.0317,22.9028,7.12502,-3.34807,52.8563,-53.2607,-5.75618,13.0825,97.3839,-34.6917,-0.672737,-17.8128,-49.5597,9.09425,-23.5417,92.962,-32.7433,-5.74437,-6.03202
0.3332,14.5642,-2.29125,3.76192,-4.13097,3.92787,29.1124,0.840641,-4.31328,6.16614,-0.398534,-1.6376,-9.09815,-0.110416,0.792917,-13.2302,-1.41301,-7.71901,-8.21484,-0.653724,8.30254,-0.287018,-0.0672195,4.12024,1.53064e-14,1.74931e-14,-22.032,-0.682108,-81.9379,35.4101,13.9168,-28.8003,-1.44256,7.12502,-2.1588,-31.4114,1.53064e-14,1.74931e-14,-23.0439,3.8093,80.2914,31.4854,1.55283,-29.9651,23.1056,7.12502,-3.28379,53.0601,-53.4781,-5.87318,13.0161,97.5537,-34.3758,-0.385373,-18.2084,-49.7453,9.05935,-23.4144,93.0628,-32.3528,-6.26326,-5.59312
0.331532,14.5602,-2.29698,3.85192,-4.0495,3.96155,29.1367,0.804048,-4.30372,6.1386,-0.443485,-1.63106,-9.13966,-0.130237,0.810664,-13.212,-1.43578,-7.78265,-8.35711,-0.670573,8.30788,-0.335766,-0.0742989,4.1344,-2.5842e-15,-7.35503e-15,-22.0873,-0.597964,-81.9211,35.4829,13.6238,-28.0887,-1.92696,7.12502,-1.47153,-31.9016,-2.5842e-15,-7.35503e-15,-23.0939,3.51672,80.3834,31.741,1.69205,-30.1763,23.0354,7.12502,-3.4877,52.9866,-53.7196,-6.06522,12.9125,97.7592,-34.1125,-0.156787,-19.0863,-49.9481,8.99667,-23.3593,93.1928,-32.0018,-6.69174,-5.36569
0.330176,14.5532,-2.3018,3.96545,-3.93067,3.99199,29.0974,0.749194,-4.26835,6.11296,-0.499157,-1.61681,-9.14744,-0.156131,0.826175,-13.1039,-1.42039,-7.96177,-8.57713,-0.620847,8.40439,-0.430526,-0.0455876,4.20793,-1.16289e-14,1.98785e-16,-22.129,-0.491795,-81.8983,35.6206,13.2354,-28.0956,-1.84486,7.12502,-1.47826,-31.8195,-1.16289e-14,1.98785e-16,-23.1309,3.30986,80.47,31.9904,1.82767,-30.3072,22.965,7.12502,-3.61413,52.9141,-54.0021,-6.29943,12.8133,97.9483,-33.7973,0.0547122,-19.7904,-50.1948,8.91663,-23.3207,93.3656,-31.7147,-6.97309,-5.49831
0.326908,14.5472,-2.30452,4.05076,-3.81996,4.05276,29.1202,0.715468,-4.26453,6.08822,-0.54372,-1.62809,-9.18519,-0.175794,0.827082,-13.0921,-1.40891,-8.10821,-8.74213,-0.576007,8.51359,-0.490392,-0.0180813,4.27979,4.77083e-15,3.97569e-16,-22.1912,-0.46447,-81.9033,35.7195,13.1732,-28.9229,-1.13809,7.12502,-2.27725,-31.1057,4.77083e-15,3.97569e-16,-23.1304,3.09828,80.5219,32.2662,1.91872,-30.2501,23.2171,7.12502,-3.55902,53.1672,-54.2447,-6.47765,12.6681,98.1329,-33.4608,0.392184,-19.7701,-50.4351,8.84657,-23.3088,93.555,-31.4434,-7.30103,-5.51508
0.322272,14.5373,-2.30949,4.07909,-3.73009,4.1223,29.2552,0.707271,-4.27174,6.07183,-0.567283,-1.65591,-9.26968,-0.184798,0.808225,-13.352,-1.4373,-8.0976,-8.77946,-0.564905,8.80477,-0.409052,-0.0132574,3.98362,-2.98177e-16,1.90833e-14,-22.3088,-0.463149,-81.9095,35.7913,13.3921,-29.0436,-1.53137,7.12502,-2.3938,-31.4977,-2.98177e-16,1.90833e-14,-23.1128,2.76719,80.5578,32.5895,2.0886,-30.141,23.1681,7.12502,-3.45358,53.1198,-54.4472,-6.63402,12.5195,98.3421,-33.1561,0.752029,-19.6875,-50.6455,8.89505,-23.3302,93.7672,-31.2391,-7.27955,-6.90009
0.318003,14.5215,-2.31425,4.10713,-3.68427,4.08286,29.3604,0.698815,-4.18013,6.05349,-0.558024,-1.66157,-9.34422,-0.181041,0.745614,-13.3352,-1.45404,-8.07621,-8.83221,-0.62015,8.47434,-0.475593,-0.0360912,4.25814,-9.74045e-15,-1.8487e-14,-22.3779,-0.540424,-81.92,35.8761,13.36,-29.0528,-1.23859,7.12502,-2.40268,-31.2048,-9.74045e-15,-1.8487e-14,-23.1387,2.48203,80.5717,32.9372,2.1631,-30.1544,22.7332,7.12502,-3.46655,52.6848,-54.6803,-6.73221,12.538,98.5562,-32.9485,0.913158,-20.0426,-50.9087,9.09464,-23.2399,94.0238,-31.0114,-7.2293,-8.43794
0.315749,14.5317,-2.31668,4.15626,-3.65782,3.97549,29.4565,0.685134,-3.9986,6.0027,-0.527961,-1.65645,-9.45334,-0.168983,0.635575,-13.2739,-1.47141,-7.99946,-8.9803,-0.653234,8.38701,-0.533717,-0.0565166,4.20959,-2.0276e-14,-2.44505e-14,-22.4901,-0.550156,-81.9396,36.0277,13.1171,-29.1588,-1.31101,7.12502,-2.50508,-31.276,-2.0276e-14,-2.44505e-14,-23.2122,2.08207,80.6085,33.3213,2.4253,-30.0823,22.6285,7.12502,-3.39696,52.5812,-54.7338,-6.74917,12.6253,98.5905,-32.7918,1.15034,-20.0255,-51.0752,9.29599,-23.0507,94.1454,-30.6641,-7.6951,-8.05867
0.310651,14.5193,-2.32145,4.19563,-3.52744,4.00982,29.5636,0.655451,-4.00004,5.94247,-0.571041,-1.63482,-9.57311,-0.18571,0.676143,-13.0942,-1.47469,-7.97685,-9.2546,-0.663809,8.28541,-0.656202,-0.0663222,4.16825,-3.37934e-15,-2.08724e-14,-22.6348,-0.355259,-81.9282,36.1673,12.8957,-29.1294,-2.22522,7.12502,-2.47672,-32.1906,-3.37934e-15,-2.08724e-14,-23.2662,1.75381,80.6784,33.6843,2.73408,-29.8149,22.8863,7.12502,-3.13867,52.843,-54.8895,-6.90992,12.5482,98.7885,-32.7313,1.49735,-19.5996,-51.3709,9.33415,-23.0055,94.4003,-30.2468,-8.31,-7.03519
0.307142,14.4943,-2.32296,4.17899,-3.40253,4.22116,29.6006,0.640242,-4.15423,5.96539,-0.640795,-1.66787,-9.56041,-0.2145,0.753214,-13.1959,-1.49215,-7.95778,-9.34372,-0.680912,8.22207,-0.667932,-0.0736084,4.14126,2.28602e-15,1.21259e-14,-22.719,-0.357801,-81.9164,36.3467,12.9377,-29.2578,-2.9383,7.12502,-2.60066,-32.9022,2.28602e-15,1.21259e-14,-23.2444,1.44438,80.7181,34.1168,2.93673,-29.583,23.1373,7.12502,-2.91474,53.0971,-55.0397,-7.11146,12.2533,99.0748,-32.726,1.74913,-19.4909,-51.5997,9.37179,-23.2144,94.7356,-30.0654,-8.55915,-7.25363
0.303812,14.4624,-2.32033,4.17356,-3.36386,4.22838,29.5872,0.628981,-4.1162,6.00662,-0.640939,-1.66675,-9.50716,-0.216813,0.73276,-13.3018,-1.51147,-7.88856,-9.4348,-0.708777,8.09965,-0.679386,-0.0880286,4.08234,-8.84592e-15,-1.13307e-14,-22.8298,-0.430621,-81.9009,36.6764,12.9241,-29.9157,-2.42677,7.12502,-3.23608,-32.382,-8.84592e-15,-1.13307e-14,-23.2141,1.10631,80.7457,34.6329,3.11439,-29.568,23.658,7.12502,-2.90028,53.618,-55.1924,-7.14157,12.2188,99.3912,-32.7849,1.79593,-19.7565,-51.8317,9.59309,-23.2158,95.1397,-30.0118,-8.67357,-8.90583
0.299622,14.4293,-2.31807,4.13096,-3.32826,4.16878,29.6351,0.624277,-4.02766,6.04572,-0.616703,-1.6262,-9.48768,-0.208032,0.718865,-13.3281,-1.51015,-8.04132,-9.5625,-0.677318,8.16073,-0.719643,-0.0661007,4.13723,1.49089e-15,7.35503e-15,-22.8426,-0.535797,-81.8297,37.0377,12.559,-29.6417,-2.1083,7.12502,-2.97147,-32.0673,1.49089e-15,7.35503e-15,-23.1675,0.717335,80.828,35.0752,3.44112,-29.6266,24.1635,7.12502,-2.95688,54.1227,-55.295,-7.15264,12.2703,99.7138,-32.9319,1.77281,-20.2889,-52.0272,9.87505,-23.1389,95.5517,-29.9898,-8.72951,-10.9941
0.29562,14.3961,-2.31875,4.03496,-3.25103,4.27652,29.7688,0.632971,-4.10477,6.08179,-0.633346,-1.61693,-9.50997,-0.21341,0.780068,-13.3903,-1.49762,-8.19579,-9.64672,-0.628249,8.26082,-0.74068,-0.0343901,4.20747,-1.43125e-14,-2.22639e-14,-22.7986,-0.550811,-81.7688,37.3513,11.9657,-29.0442,-2.51521,7.12502,-2.3944,-32.4815,-1.43125e-14,-2.22639e-14,-23.1236,0.45929,80.8855,35.4733,3.62122,-29.6161,24.2837,7.12502,-2.94674,54.2431,-55.3077,-7.27345,12.0994,100.074,-33.1424,2.0184,-20.2455,-52.1746,10.0345,-23.2424,95.9581,-29.9331,-8.92161,-11.555
0.291033,14.3548,-2.3211,4.05209,-3.21903,4.30112,29.8021,0.629008,-4.08699,6.07735,-0.63397,-1.60976,-9.53154,-0.213506,0.778145,-13.4207,-1.51853,-8.1969,-9.74192,-0.651485,8.2155,-0.765824,-0.0453335,4.19072,8.44835e-15,1.83876e-14,-22.8053,-0.439438,-81.741,37.5734,11.4863,-28.8603,-2.62762,7.12502,-2.21674,-32.5959,8.44835e-15,1.83876e-14,-23.1052,0.290399,80.9144,35.9106,3.71809,-29.7043,24.3301,7.12502,-3.03192,54.2882,-55.5104,-7.31283,12.0459,100.485,-33.3555,2.23089,-20.1187,-52.5007,10.1967,-23.2682,96.4189,-29.8604,-9.1762,-11.2475
0.285654,14.3019,-2.32289,4.07223,-3.16537,4.2174,29.8227,0.60271,-3.95816,6.07351,-0.626768,-1.5864,-9.54799,-0.212739,0.727618,-13.4576,-1.5345,-8.05999,-9.8742,-0.688904,8.04298,-0.802518,-0.0681883,4.09957,-2.48481e-15,1.13307e-14,-22.7875,-0.387814,-81.7232,37.7016,11.1359,-28.944,-2.57539,7.12502,-2.2976,-32.5428,-2.48481e-15,1.13307e-14,-23.092,0.0642537,80.9202,36.3463,3.87001,-29.8992,24.396,7.12502,-3.2201,54.3514,-55.8127,-7.33672,12.1583,100.972,-33.5668,2.21555,-20.1472,-52.8749,10.3459,-23.1564,96.9624,-29.7988,-9.54354,-10.5384
0.279146,14.2477,-2.32633,4.0349,-3.03571,4.21369,29.8694,0.577317,-3.89428,6.13173,-0.637719,-1.5728,-9.50453,-0.220267,0.71038,-13.6376,-1.5675,-7.96048,-9.93339,-0.736093,7.90618,-0.789401,-0.0919462,4.02854,9.14409e-15,2.25621e-14,-22.7249,-0.342961,-81.6931,37.8956,10.9664,-29.2441,-2.74914,7.12502,-2.58749,-32.7132,9.14409e-15,2.25621e-14,-22.9981,-0.093462,80.9371,36.8255,3.99919,-29.9494,24.1897,7.12502,-3.26862,54.1444,-56.068,-7.4524,12.2038,101.487,-33.7889,2.11843,-20.2316,-53.1808,10.4519,-23.147,97.5085,-29.8092,-9.68362,-10.4338
0.272992,14.1975,-2.33243,4.01109,-2.95799,4.32774,29.9614,0.575843,-3.96841,6.17996,-0.666254,-1.58737,-9.49215,-0.232201,0.747364,-13.8989,-1.58387,-8.00317,-9.92854,-0.732748,7.93454,-0.743838,-0.0835772,4.04789,2.6339e-15,-8.34896e-15,-22.6584,-0.322181,-81.6754,38.2171,10.903,-29.5854,-3.08171,7.12502,-2.91706,-33.0415,2.6339e-15,-8.34896e-15,-22.8928,-0.163277,80.9312,37.3511,4.15409,-30.0487,23.6705,7.12502,-3.36451,53.6237,-56.3478,-7.52088,12.1224,102.001,-34.0117,1.90555,-20.451,-53.4835,10.5778,-23.3032,98.0287,-29.9065,-9.6569,-10.5518
0.267403,14.1457,-2.33871,3.99645,-2.87119,4.43938,30.0949,0.555363,-3.99605,6.19335,-0.711077,-1.62498,-9.54043,-0.251608,0.737474,-14.0923,-1.5694,-8.02731,-10.0109,-0.690103,7.98902,-0.742365,-0.0569239,4.07522,-3.18055e-15,5.56597e-15,-22.5542,-0.269599,-81.7176,38.4706,10.5154,-29.6676,-3.205,7.12502,-2.99641,-33.1637,-3.18055e-15,5.56597e-15,-22.7749,-0.367435,80.9104,37.8024,4.53848,-30.4226,23.2469,7.12502,-3.72552,53.1941,-56.6423,-7.58413,12.061,102.514,-34.2148,1.63408,-20.8187,-53.8103,10.659,-23.4657,98.5265,-30.0526,-9.50851,-11.0005
0.262033,14.0933,-2.34389,3.98985,-2.79836,4.41564,30.1862,0.534038,-3.90985,6.18067,-0.71526,-1.61149,-9.60069,-0.254152,0.704644,-14.0364,-1.55514,-7.97566,-10.221,-0.676023,7.90257,-0.824703,-0.0523031,4.03514,9.49197e-15,7.45443e-15,-22.5197,-0.251329,-81.7217,38.6686,10.2019,-30.0076,-2.81232,7.12502,-3.32479,-32.7661,9.49197e-15,7.45443e-15,-22.752,-0.642145,80.9424,38.3668,5.03151,-30.6305,23.5357,7.12502,-3.92634,53.4792,-56.9389,-7.56275,12.1558,103.008,-34.4267,1.38414,-20.9608,-54.1697,10.7751,-23.4731,99.0396,-30.2143,-9.31474,-11.7939
0.25704,14.0465,-2.34844,3.98146,-2.76097,4.44821,30.2637,0.538323,-3.91398,6.14279,-0.715323,-1.60234,-9.68185,-0.252032,0.717402,-13.9489,-1.53771,-7.93274,-10.3229,-0.663841,7.81144,-0.875643,-0.0492125,3.99452,1.39149e-14,9.93923e-15,-22.5325,-0.269567,-81.7386,38.9136,9.64602,-30.2905,-2.8335,7.12502,-3.59795,-32.7829,1.39149e-14,9.93923e-15,-22.838,-0.860381,80.9593,39.0145,5.40562,-30.4353,24.2468,7.12502,-3.73784,54.1938,-57.201,-7.51872,12.1795,103.473,-34.6322,1.10565,-21.1276,-54.4627,10.8507,-23.5447,99.5116,-30.3741,-9.17649,-12.2787
0.252194,13.993,-2.3538,3.8893,-2.63177,4.55567,30.4323,0.505432,-3.97263,6.15302,-0.783378,-1.60619,-9.74875,-0.280519,0.772641,-13.9808,-1.50522,-7.94774,-10.3874,-0.61413,7.78632,-0.896583,-0.0228128,3.991,4.96962e-17,-1.07344e-14,-22.4355,-0.109413,-81.8061,39.1425,8.58346,-30.3657,-3.26216,7.12502,-3.67062,-33.2103,4.96962e-17,-1.07344e-14,-22.8156,-1.03951,80.9567,39.5745,5.72545,-30.2115,24.4338,7.12502,-3.52168,54.3845,-57.3615,-7.60993,12.1047,104.009,-34.811,0.818238,-21.3158,-54.6543,10.7675,-23.6635,99.984,-30.5251,-9.16947,-12.1926
0.246175,13.9207,-2.35958,3.7837,-2.44244,4.6321,30.559,0.442257,-3.98005,6.21415,-0.866408,-1.58359,-9.73626,-0.318762,0.834168,-13.9778,-1.48893,-7.99865,-10.5852,-0.578379,7.76572,-0.967105,-0.00242224,3.99648,-8.69683e-15,7.45443e-15,-22.2241,-0.111554,-81.7597,39.4022,8.18679,-30.4021,-3.35072,7.12502,-3.70574,-33.2982,-8.69683e-15,7.45443e-15,-22.7101,-1.22738,80.9841,40.1247,6.1245,-30.1273,24.41,7.12502,-3.44035,54.362,-57.6101,-7.80677,12.0867,104.687,-35.0275,0.780018,-21.1783,-54.9576,10.6369,-23.7185,100.586,-30.6083,-9.33641,-11.4788
0.243209,13.8519,-2.3654,3.74052,-2.32608,4.71165,30.6537,0.399089,-3.94229,6.23842,-0.914568,-1.59918,-9.7535,-0.341676,0.813128,-13.8924,-1.50396,-7.89311,-10.8857,-0.613649,7.60856,-1.08106,-0.024868,3.91914,5.31749e-15,1.98785e-15,-22.0891,-0.271792,-81.6906,39.7327,8.28784,-30.6618,-3.53236,7.12502,-3.95659,-33.4754,5.31749e-15,1.98785e-15,-22.5774,-1.39029,80.9782,40.6716,6.55559,-30.1295,24.2099,7.12502,-3.44254,54.1618,-58.0067,-7.95025,12.0986,105.365,-35.1935,0.642345,-21.1098,-55.2842,10.5467,-23.8106,101.192,-30.7715,-9.56043,-10.4554
0.240557,13.7894,-2.37044,3.70889,-2.20884,4.75194,30.775,0.357068,-3.88774,6.24177,-0.955263,-1.58997,-9.80796,-0.360406,0.807934,-13.8547,-1.51995,-7.8209,-11.1899,-0.642725,7.45663,-1.18885,-0.0418574,3.85121,-1.59028e-14,-9.93923e-17,-21.9952,-0.140986,-81.6928,40.1532,7.352,-30.9169,-3.88338,7.12502,-4.20292,-33.8217,-1.59028e-14,-9.93923e-17,-22.4137,-1.517,81.0073,41.1755,7.12663,-30.198,23.9835,7.12502,-3.50865,53.9343,-58.3944,-8.11337,12.1656,106.016,-35.3144,0.274199,-21.1892,-55.5843,10.4916,-23.8938,101.761,-31.0932,-9.44798,-10.3865
0.235877,13.7243,-2.37335,3.60243,-2.10627,4.83022,30.9067,0.343423,-3.89621,6.27832,-0.981085,-1.59923,-9.82873,-0.371758,0.812663,-14.0121,-1.5126,-7.75232,-11.2954,-0.630582,7.37002,-1.20006,-0.0349392,3.80779,-4.37326e-15,-8.94531e-16,-21.7906,-0.0642609,-81.7324,40.6203,5.79418,-30.9851,-3.26709,7.12502,-4.2688,-33.2041,-4.37326e-15,-8.94531e-16,-22.2289,-1.6755,81.0414,41.8134,7.78992,-29.8725,24.75,7.12502,-3.19435,54.7058,-58.7254,-8.36573,12.1818,106.67,-35.3786,-0.0880737,-21.475,-55.7878,10.4448,-23.9957,102.292,-31.4074,-9.21466,-10.5785
0.234172,13.6696,-2.37546,3.47806,-2.02141,4.99449,31.0397,0.342709,-3.97579,6.3206,-1.01379,-1.61754,-9.84168,-0.384702,0.850861,-14.2424,-1.496,-7.82396,-11.2631,-0.58183,7.39735,-1.15487,-0.00330583,3.83358,-2.28602e-15,-9.64106e-15,-21.5753,0.0456173,-81.7315,41.1235,4.45949,-31.4208,-2.67353,7.12502,-4.68951,-32.6016,-2.28602e-15,-9.64106e-15,-22.0293,-1.7927,81.0918,42.5821,8.39423,-29.4468,25.6905,7.12502,-2.78324,55.6521,-58.9229,-8.59412,12.0554,107.252,-35.4752,-0.274776,-21.5323,-55.8834,10.3283,-24.1876,102.705,-31.6988,-9.04436,-10.6143
0.232812,13.6257,-2.37216,3.30362,-1.91867,5.17529,31.181,0.333349,-4.04072,6.37767,-1.0541,-1.64722,-9.84162,-0.401995,0.870652,-14.4018,-1.48667,-7.92755,-11.2767,-0.539016,7.47316,-1.13621,0.0255409,3.8835,9.74045e-15,-4.32357e-15,-21.4074,0.233686,-81.7584,41.6515,3.33923,-32.0271,-3.06687,7.12502,-5.27486,-32.9812,9.74045e-15,-4.32357e-15,-21.8325,-1.84056,81.1156,43.1718,8.66929,-29.5169,25.2914,7.12502,-2.8509,55.2521,-58.9293,-8.71213,11.8622,107.765,-35.6594,-0.251038,-21.0197,-55.8096,10.1931,-24.3968,103.014,-32.0586,-8.72952,-11.2254
0.229888,13.5691,-2.37038,3.12179,-1.87398,5.18001,31.3205,0.318794,-3.98316,6.46119,-1.05812,-1.64614,-9.81354,-0.406425,0.840927,-14.5031,-1.50827,-7.86898,-11.5123,-0.562082,7.42242,-1.19783,0.0143943,3.85453,-1.63997e-14,-5.11871e-15,-21.1321,0.45354,-81.8112,42.2435,2.02318,-32.5882,-2.32378,7.12502,-5.81667,-32.2239,-1.63997e-14,-5.11871e-15,-21.5233,-1.85258,81.0906,43.5119,8.81487,-30.0515,24.2963,7.12502,-3.36722,54.2494,-59.0285,-8.69342,11.9197,108.293,-35.7529,-0.616658,-21.1853,-55.6735,10.2263,-24.3944,103.331,-32.4118,-8.76312,-11.19
0.22777,13.5034,-2.37105,3.01207,-1.92265,5.25411,31.3784,0.356335,-4.01624,6.49826,-1.02608,-1.67204,-9.79965,-0.391684,0.818563,-14.4189,-1.51253,-7.78195,-11.8892,-0.574201,7.35866,-1.33932,0.00484763,3.81711,1.21507e-14,2.03257e-14,-20.827,0.56455,-81.8528,42.7825,0.684863,-33.3223,-0.62066,7.12502,-6.52533,-30.5001,1.21507e-14,2.03257e-14,-21.2293,-2.10508,81.1367,44.1771,9.47661,-30.0639,24.964,7.12502,-3.3792,54.917,-59.3374,-8.67988,11.9367,108.845,-35.7626,-1.41832,-22.3944,-55.56,10.319,-24.5094,103.645,-32.8252,-8.74163,-11.148
0.224266,13.4562,-2.3734,2.88293,-1.90467,5.40161,31.4983,0.387066,-4.12189,6.50515,-1.02975,-1.69678,-9.8473,-0.38985,0.85339,-14.2557,-1.50815,-7.77299,-12.267,-0.569232,7.30963,-1.49585,0.00583575,3.80176,8.4235e-15,2.69353e-14,-20.5934,0.608304,-81.8875,43.3933,-0.160503,-33.9503,-0.18162,7.12502,-7.13157,-30.0415,8.4235e-15,2.69353e-14,-21.0694,-2.29549,81.1936,44.9021,10.2104,-30.3836,25.1864,7.12502,-3.68791,55.1342,-59.4786,-8.78784,11.8401,109.285,-35.7953,-1.88894,-23.063,-55.5414,10.2526,-24.6763,103.945,-33.0995,-8.71609,-9.65771
0.216682,13.4272,-2.3758,2.74957,-1.82804,5.48933,31.893,0.428518,-4.24502,6.07457,-1.04337,-1.64044,-9.71305,-0.388271,0.919317,-14.2547,-1.51718,-7.74778,-12.5152,-0.579298,7.2412,-1.58035,0.00109452,3.77446,1.46852e-14,8.69683e-15,-20.3612,0.478266,-81.9239,44.1076,-0.362163,-34.1678,-1.17487,7.12502,-7.34151,-31.0275,1.46852e-14,8.69683e-15,-20.7407,-2.35622,81.2192,45.4583,10.4203,-30.7272,25.4738,7.12502,-4.01975,55.4156,-59.465,-8.92611,11.8005,109.619,-35.8905,-1.88904,-22.7031,-55.6938,10.1502,-24.7512,104.261,-33.2504,-8.50751,-7.76254
0.210494,13.3863,-2.37664,2.64424,-1.79243,5.51829,31.9744,0.450856,-4.27963,6.09683,-1.02698,-1.61581,-9.72032,-0.379778,0.957787,-14.3796,-1.51182,-7.69754,-12.7278,-0.566418,7.16329,-1.63403,0.00898249,3.73924,-2.28602e-15,7.1314e-15,-20.0525,0.286873,-81.9546,44.9255,-0.51359,-34.3018,-2.03577,7.12502,-7.47087,-31.8838,-2.28602e-15,7.1314e-15,-20.2797,-2.30871,81.234,45.9175,10.4029,-31.1545,25.2697,7.12502,-4.43232,55.2033,-59.5604,-9.01544,11.8391,109.999,-35.9954,-1.90592,-22.1894,-55.8137,10.2128,-24.8023,104.608,-33.5039,-8.47981,-6.60316
0.203955,13.343,-2.37732,2.5012,-1.77566,5.41812,32.0368,0.475165,-4.22992,6.16523,-0.97279,-1.54801,-9.67186,-0.357517,0.982927,-14.5706,-1.54783,-7.55334,-13.0059,-0.619492,7.02149,-1.69414,-0.0191011,3.66087,-3.32343e-15,1.17531e-14,-19.6233,0.33917,-81.9494,45.7754,-0.764296,-34.3952,-1.86806,7.12502,-7.56103,-31.7129,-3.32343e-15,1.17531e-14,-19.7108,-2.17751,81.2679,46.4788,10.9208,-31.3461,24.1351,7.12502,-4.61736,54.0648,-59.6462,-9.08517,12.0857,110.383,-36.1176,-2.3085,-22.0686,-55.8483,10.4274,-24.7082,104.967,-33.7936,-8.57982,-6.09997
0.196681,13.3155,-2.37547,2.33461,-1.77707,5.21985,32.1397,0.489036,-4.10137,6.18334,-0.910432,-1.4809,-9.69773,-0.331306,0.962666,-14.532,-1.53703,-7.32706,-13.43,-0.635315,6.82628,-1.84549,-0.0352449,3.55163,4.51614e-15,1.09704e-14,-19.1956,0.459538,-82.0128,46.5438,-0.785997,-34.4247,-1.68926,7.12502,-7.58949,-31.5331,4.51614e-15,1.09704e-14,-19.156,-1.79085,81.1576,47.265,10.5345,-30.6023,25.6793,7.12502,-3.89913,55.6234,-59.5746,-9.09548,12.4532,110.694,-36.3605,-2.74662,-22.173,-55.7822,10.7083,-24.5311,105.209,-34.0999,-8.35798,-6.36
0.191137,13.3025,-2.37734,2.15413,-1.74183,5.22114,32.3138,0.508956,-4.10978,6.17327,-0.895461,-1.46221,-9.77853,-0.322283,0.981511,-14.433,-1.49892,-7.36602,-13.8475,-0.568933,6.84734,-2.01141,0.000467096,3.5753,2.20216e-15,2.48481e-17,-18.734,0.503746,-82.0606,47.3026,-0.761117,-34.7437,-2.03842,7.12502,-7.89738,-31.8709,2.20216e-15,2.48481e-17,-18.5707,-1.48432,81.1219,47.8946,10.4553,-30.7949,26.1026,7.12502,-4.08504,56.0432,-59.3835,-9.23023,12.5671,110.873,-36.5444,-3.00075,-22.0728,-55.5993,10.8911,-24.6457,105.285,-34.3775,-7.86985,-6.65816
0.185311,13.2934,-2.38233,2.0141,-1.60692,5.29882,32.4501,0.503766,-4.15259,6.17148,-0.921255,-1.44981,-9.83248,-0.331611,1.0269,-14.6059,-1.50479,-7.23047,-13.9955,-0.59049,6.66649,-2.0328,-0.0119001,3.48496,4.57282e-15,-4.58292e-15,-18.0718,0.589702,-82.0469,47.8855,-0.706471,-35.1688,-2.07468,7.12502,-8.30771,-31.8913,4.57282e-15,-4.58292e-15,-17.8658,-1.14623,81.1032,48.4022,10.1353,-31.5175,25.4984,7.12502,-4.78286,55.4245,-59.235,-9.49614,12.6335,110.965,-36.5789,-3.40664,-22.0874,-55.4964,10.9213,-24.8625,105.319,-34.537,-7.45495,-6.33252
0.179088,13.2862,-2.38414,1.84054,-1.48054,5.36184,32.5262,0.485774,-4.18237,6.2025,-0.958078,-1.46694,-9.82633,-0.347999,1.03795,-15.0368,-1.49921,-6.7545,-13.8805,-0.655548,6.20316,-1.91831,-0.0584159,3.22315,2.71232e-15,-8.00574e-16,-17.2492,0.653975,-82.0938,48.3155,-0.608269,-35.5971,-2.10124,7.12502,-8.72099,-31.9011,2.71232e-15,-8.00574e-16,-17.0608,-0.876964,81.0068,49.1034,10.224,-32.5404,25.2459,7.12502,-5.77049,55.1473,-59.0622,-9.69448,12.7199,111.02,-36.586,-3.82385,-21.8672,-55.3793,10.9823,-25.0622,105.364,-34.7038,-6.8481,-6.38935
0.171595,13.2825,-2.38947,1.73991,-1.39282,5.22662,32.5163,0.451017,-4.06285,6.21793,-0.956032,-1.42761,-9.80793,-0.35024,1.01515,-15.2629,-1.51057,-6.67022,-14.037,-0.661322,6.22841,-1.93522,-0.0615223,3.21719,-6.41585e-15,-1.93621e-14,-16.456,0.703609,-82.1224,48.8721,-0.664772,-35.746,-1.86487,7.12502,-8.86468,-31.6587,-6.41585e-15,-1.93621e-14,-16.225,-0.747757,80.9279,49.9062,10.9423,-33.6912,26.006,7.12502,-6.88153,55.8742,-59.0441,-9.72429,13.1031,111.037,-36.4901,-4.46844,-21.8835,-55.3738,11.1369,-24.9992,105.428,-34.7661,-6.53756,-6.13956
0.162483,13.2893,-2.39475,1.65708,-1.22993,5.01925,32.4829,0.36338,-3.89016,6.21629,-0.997475,-1.34827,-9.79816,-0.373345,1.02251,-15.0784,-1.53033,-7.03144,-14.5884,-0.59202,6.76548,-2.16124,-0.0133646,3.48925,7.37338e-15,-2.12315e-15,-15.6035,0.912953,-82.1144,49.4177,-0.813981,-35.676,-0.987062,7.12502,-8.79711,-30.7837,7.37338e-15,-2.12315e-15,-15.3239,-0.516555,80.8045,50.5787,11.4976,-34.835,26.8212,7.12502,-7.98552,56.6503,-58.9492,-9.79442,13.5974,110.984,-36.3761,-5.21243,-21.9922,-55.3467,11.2114,-24.8237,105.426,-34.7287,-6.50835,-5.62851
0.153306,13.3102,-2.39537,1.47274,-0.985732,4.89011,32.4461,0.248844,-3.77458,6.26631,-1.0911,-1.28223,-9.72651,-0.420779,1.06485,-14.9134,-1.48114,-7.16384,-15.0385,-0.483566,7.00706,-2.35483,0.0447177,3.61375,-7.48549e-15,8.33343e-15,-14.5042,1.32749,-82.0882,49.7991,-1.08854,-36.0863,-1.06648,7.12502,-9.19309,-30.8461,-7.48549e-15,8.33343e-15,-14.4238,-0.188239,80.6213,51.2164,11.877,-35.6493,25.7331,7.12502,-8.77138,55.5309,-58.5678,-9.96681,13.9329,110.826,-36.355,-5.70143,-21.673,-55.1106,11.1361,-24.6927,105.303,-34.6093,-6.49444,-4.84472
0.145273,13.3386,-2.39804,1.26369,-0.806782,4.70878,32.4805,0.155123,-3.5947,6.2851,-1.14246,-1.21841,-9.72126,-0.448585,1.05537,-14.9686,-1.43507,-7.08995,-15.2362,-0.421299,6.99267,-2.42027,0.0738764,3.59957,-1.25755e-14,1.81702e-15,-13.359,1.55413,-82.0323,50.1644,-1.33659,-36.893,-2.07481,7.12502,-9.97146,-31.8186,-1.25755e-14,1.81702e-15,-13.6118,-0.186067,80.4196,52.354,12.7504,-36.3025,26.0374,7.12502,-9.40166,55.8077,-58.1475,-10.0124,14.2846,110.612,-36.2792,-5.95941,-21.2103,-54.8104,11.1048,-24.4827,105.117,-34.5004,-6.34436,-4.98425
0.136169,13.3769,-2.40204,1.04428,-0.645282,4.69104,32.5555,0.0877914,-3.53085,6.33367,-1.20823,-1.22749,-9.69687,-0.480922,1.03573,-15.3376,-1.44918,-7.00004,-15.2635,-0.426982,7.00068,-2.36891,0.0724449,3.58398,-1.82944e-15,-7.95139e-15,-12.1843,1.43272,-81.9542,50.5011,-1.1546,-37.0505,-0.63694,7.12502,-10.1233,-30.3734,-1.82944e-15,-7.95139e-15,-12.5282,-0.269169,80.156,53.4683,13.7601,-36.3917,25.3611,7.12502,-9.48778,55.1275,-57.7193,-10.0118,14.4191,110.342,-36.0837,-6.31261,-21.058,-54.3874,11.009,-24.4364,104.803,-34.4418,-6.0368,-5.7674
0.124751,13.4273,-2.40975,0.865954,-0.496469,4.74124,32.6247,0.0435194,-3.58046,6.35396,-1.2826,-1.2307,-9.69773,-0.514026,1.08624,-15.6085,-1.48493,-6.9488,-15.3789,-0.460317,7.01345,-2.36284,0.0575225,3.57855,-9.57894e-15,-8.44835e-16,-11.0382,1.47469,-81.8461,51.1497,-0.97566,-36.8036,-0.0939308,7.12502,-9.88518,-29.8419,-9.57894e-15,-8.44835e-16,-11.3188,-0.32438,79.8362,54.5842,14.4785,-36.3332,24.8561,7.12502,-9.43127,54.6251,-57.3567,-9.84253,14.4746,109.987,-35.746,-6.76509,-20.7773,-53.9893,10.8359,-24.4166,104.355,-34.3164,-5.61768,-6.86397
0.1139,13.482,-2.41907,0.754835,-0.349417,4.67136,32.6556,-0.0134107,-3.56512,6.31718,-1.34512,-1.17789,-9.74764,-0.541755,1.15762,-15.753,-1.46709,-6.90279,-15.5494,-0.429289,6.99503,-2.40217,0.0735535,3.56661,-6.1499e-15,-1.87852e-14,-9.84953,1.64049,-81.6568,51.7959,-0.911687,-36.5203,0.305854,7.12502,-9.61183,-29.4549,-6.1499e-15,-1.87852e-14,-10.0705,-0.377,79.4527,55.774,14.8264,-35.6002,24.9636,7.12502,-8.724,54.7633,-57.0815,-9.57236,14.6504,109.56,-35.2558,-7.2266,-20.6738,-53.748,10.5596,-24.1805,103.865,-34.0231,-5.72817,-6.58855
0.106366,13.5444,-2.42545,0.631869,-0.118944,4.70673,32.7115,-0.111857,-3.56519,6.23728,-1.47134,-1.16022,-9.85323,-0.596689,1.22429,-15.8519,-1.4495,-6.83818,-15.7022,-0.408339,6.93777,-2.4418,0.0829246,3.53656,4.69008e-15,3.8266e-15,-8.70289,1.90296,-81.4165,52.6111,-0.876502,-36.6399,0.0856575,7.12502,-9.72727,-29.6697,4.69008e-15,3.8266e-15,-8.84914,-0.394926,79.0101,57.1416,14.8962,-37.149,25.0085,7.12502,-10.2184,54.7403,-56.6946,-9.48225,14.6158,109.076,-34.823,-7.35462,-20.3994,-53.4021,10.1004,-24.0679,103.265,-33.5856,-6.14272,-5.46647
0.0969066,13.61,-2.42816,0.521846,0.0819609,4.69586,32.6519,-0.195184,-3.56941,6.22312,-1.56814,-1.10411,-9.83992,-0.641196,1.32149,-16.0191,-1.42083,-6.81086,-16.1814,-0.316568,7.08475,-2.28911,0.111346,3.3148,2.40405e-15,-7.57867e-16,-7.34097,2.22342,-81.0762,53.4088,-0.882859,-37.0782,0.483686,7.12502,-10.1501,-29.2515,2.40405e-15,-7.57867e-16,-7.50473,-0.380958,78.4942,58.6721,14.963,-36.9172,26.3208,7.12502,-9.99475,56.0635,-56.257,-9.26952,14.6129,108.532,-34.4493,-7.40073,-19.8331,-52.835,9.74277,-23.9694,102.535,-33.2491,-6.10887,-5.29893
0.085884,13.6889,-2.43212,0.399111,0.280905,4.67361,32.541,-0.247195,-3.59021,6.31949,-1.62258,-1.0292,-9.68406,-0.669949,1.42954,-16.3583,-1.43358,-6.82046,-16.5367,-0.299529,7.07045,-2.35094,0.12668,3.31683,-1.27409e-14,-1.30018e-14,-5.6563,2.49395,-80.5687,54.1522,-0.903926,-37.379,1.0378,7.12502,-10.4403,-28.683,-1.27409e-14,-1.30018e-14,-5.97308,-0.431725,77.8872,60.5544,15.0511,-35.8638,26.7637,7.12502,-8.97834,56.5527,-55.738,-8.93839,14.6361,107.817,-33.9842,-7.66524,-19.6631,-52.1617,9.37059,-23.8566,101.678,-33.0315,-5.69233,-6.4544
0.0758936,13.7793,-2.44196,0.329534,0.532761,4.5971,32.517,-0.322425,-3.52483,6.32963,-1.68437,-0.955618,-9.66092,-0.700132,1.49482,-16.9289,-1.45043,-6.85289,-16.4731,-0.279362,7.12255,-2.25252,0.14866,3.33918,-1.41572e-14,9.06955e-16,-4.2065,2.80123,-79.9221,55.3036,-1.07137,-37.6753,1.23806,7.12502,-10.7261,-28.4681,-1.41572e-14,9.06955e-16,-4.53678,-0.607195,77.1418,62.753,15.2296,-35.1439,24.8596,7.12502,-8.28361,54.6772,-55.1981,-8.62305,14.7367,106.89,-33.462,-7.97298,-19.4879,-51.6027,8.87043,-23.6691,100.768,-32.7253,-5.46883,-7.03542
0.066552,13.8771,-2.44871,0.317284,0.81661,4.48171,32.3989,-0.415278,-3.36298,6.27288,-1.73512,-0.885072,-9.67838,-0.725857,1.50137,-17.2745,-1.46532,-6.89133,-16.4098,-0.270933,7.14907,-2.18556,0.161668,3.35399,1.56543e-14,1.52816e-14,-3.16096,3.0036,-79.1862,57.1316,-1.45754,-37.9448,1.33378,7.12502,-10.986,-28.3588,1.56543e-14,1.52816e-14,-3.16131,-0.989378,76.2049,65.0327,15.9795,-35.8657,23.0173,7.12502,-8.98023,52.8062,-54.627,-8.43191,14.9007,105.897,-33.0952,-8.26699,-19.2877,-51.0409,8.40264,-23.4683,99.7843,-32.4789,-5.28629,-7.49735
0.0559828,13.9817,-2.44684,0.20391,0.894937,4.33504,32.1713,-0.421591,-3.22668,6.31907,-1.68179,-0.835385,-9.542,-0.707658,1.45848,-17.3295,-1.48768,-6.90677,-16.7803,-0.275712,7.19068,-2.28979,0.161143,3.37381,-2.44754e-15,-1.41634e-15,-2.00953,3.04823,-78.363,59.2149,-1.8276,-37.8954,1.3342,7.12502,-10.9384,-28.3609,-2.44754e-15,-1.41634e-15,-1.66634,-1.2334,75.1043,67.6882,16.6246,-35.4722,23.2726,7.12502,-8.60045,53.0775,-53.8386,-8.01097,15.1169,104.828,-32.8369,-8.66863,-19.3904,-50.2683,8.24133,-23.2148,98.7215,-32.2966,-5.25201,-7.53482
0.0421179,14.0924,-2.45018,0.123989,0.953677,4.1979,32.065,-0.39822,-3.18357,6.2896,-1.62779,-0.773971,-9.5339,-0.683612,1.48013,-17.4629,-1.4965,-6.84197,-17.079,-0.275188,7.20724,-2.36226,0.160192,3.37187,1.82012e-14,1.54307e-14,-0.877794,3.19315,-77.3701,61.4543,-2.19632,-37.887,1.53079,7.12502,-10.9302,-28.1647,1.82012e-14,1.54307e-14,-0.219507,-1.29127,73.8607,70.4564,17.3177,-35.3577,23.4362,7.12502,-8.48996,53.2455,-53.0487,-7.5445,15.343,103.685,-32.6962,-9.02299,-19.2031,-49.5923,8.11919,-22.9863,97.5827,-31.9319,-5.37869,-6.65789
0.0307747,14.2175,-2.45193,0.0640941,1.01217,4.17637,32.0131,-0.347419,-3.24669,6.20383,-1.57854,-0.72152,-9.60639,-0.657145,1.55227,-17.7221,-1.49054,-6.75384,-17.159,-0.26378,7.17586,-2.35255,0.166396,3.34891,-8.07563e-15,4.37326e-15,0.201843,3.35217,-76.1432,63.8486,-2.47083,-37.6161,2.23304,7.12502,-10.669,-27.4761,-8.07563e-15,4.37326e-15,1.21356,-1.2802,72.4282,73.2412,17.8769,-35.469,23.2873,7.12502,-8.59737,53.0923,-52.1661,-7.10687,15.4025,102.38,-32.5696,-9.25542,-18.9208,-48.8441,7.86963,-22.9446,96.3043,-31.5482,-5.20576,-6.16189
0.0239809,14.3549,-2.44546,-0.0214302,1.08633,4.18102,31.5719,-0.314854,-3.24663,6.6128,-1.50926,-0.737772,-9.73408,-0.621829,1.62365,-17.8831,-1.46524,-6.72514,-17.3581,-0.214942,7.16978,-2.39491,0.192993,3.34642,5.86415e-15,3.8266e-15,1.33748,3.39845,-74.7134,66.3572,-2.25946,-37.3538,2.48739,7.12502,-10.416,-27.2346,5.86415e-15,3.8266e-15,2.87307,-1.20977,70.8066,75.8828,18.2486,-35.868,22.6132,7.12502,-8.98242,52.402,-51.0829,-6.74545,15.3869,100.882,-32.3759,-9.47696,-18.9542,-47.9509,7.55132,-22.9749,94.9309,-31.1884,-4.8848,-5.76729
0.0161351,14.4953,-2.44066,-0.00199162,1.13518,4.05945,31.2434,-0.26627,-3.16991,6.53393,-1.40185,-0.64034,-9.67169,-0.574065,1.64438,-17.9096,-1.48839,-6.67816,-17.5874,-0.245286,7.12629,-2.4603,0.176521,3.32653,-1.78409e-14,5.06901e-15,2.43849,3.30858,-73.1498,68.9132,-1.54657,-37.2808,2.16583,7.12502,-10.3455,-27.5597,-1.78409e-14,5.06901e-15,4.51845,-1.03045,69.0064,78.4335,18.5145,-36.0027,22.361,7.12502,-9.11238,52.1441,-50.0816,-6.29766,15.5391,99.2647,-32.2269,-9.72765,-18.9926,-47.2241,7.32763,-22.8662,93.5264,-30.87,-4.41227,-6.24193
0.0112977,14.6496,-2.42495,-0.0891385,0.855578,3.8429,30.9029,-0.111356,-3.10398,6.46033,-1.16161,-0.51303,-9.60205,-0.465101,1.65556,-18.0335,-1.48152,-6.67402,-17.5123,-0.233067,7.10219,-2.42174,0.185497,3.31794,1.14301e-15,1.78906e-15,3.51507,3.15988,-71.4558,71.4049,-0.380153,-37.2873,2.37575,7.12502,-10.3518,-27.3495,1.14301e-15,1.78906e-15,6.06449,-0.567176,67.0762,80.787,18.55,-36.0939,22.7888,7.12502,-9.20039,52.5681,-48.8684,-5.51243,15.7909,97.4696,-32.1594,-9.90811,-18.7279,-46.2085,7.51241,-22.6437,91.9878,-30.6879,-3.6091,-8.24479
0.00657418,14.8122,-2.4132,-0.200036,0.830595,3.7004,30.6095,-0.0296215,-2.98677,6.36588,-1.00207,-0.411293,-9.57655,-0.392992,1.64006,-18.1016,-1.46202,-6.75161,-17.3655,-0.18493,7.18263,-2.36927,0.215751,3.35635,-7.20594e-15,-5.26779e-15,4.52318,2.84783,-69.5872,73.8154,1.05853,-37.2533,2.84752,7.12502,-10.319,-26.8793,-7.20594e-15,-5.26779e-15,7.83038,0.302063,65.3654,82.8524,18.0348,-35.8556,23.0761,7.12502,-8.9705,52.8654,-47.5347,-5.04437,15.9333,95.5793,-32.0529,-9.89759,-18.0776,-45.1194,7.4426,-22.527,90.3184,-30.3067,-2.89891,-9.69066
0.00474704,14.9833,-2.40055,-0.393696,0.921264,3.72785,30.339,0.0119926,-2.86659,6.30909,-0.905024,-0.421433,-9.5175,-0.351449,1.51983,-18.0453,-1.45366,-6.89935,-17.2704,-0.128249,7.437,-2.3469,0.250495,3.46211,1.61016e-14,0,5.47458,2.35257,-67.6487,76.1707,2.59198,-36.9782,3.31897,7.12502,-10.0536,-26.4209,1.61016e-14,0,9.65804,1.23145,63.4957,84.6655,17.7081,-35.7379,23.3058,7.12502,-8.85685,53.0999,-46.0475,-4.77976,15.8264,93.5911,-31.8772,-9.87268,-17.9941,-43.8246,7.17298,-22.5937,88.4949,-29.7913,-2.50924,-9.65562
0.00343375,15.1648,-2.38227,-0.537499,0.985756,3.54933,29.9987,-0.000196333,-2.52958,6.17059,-0.809451,-0.418206,-9.52051,-0.314277,1.29029,-17.9349,-1.376,-6.808,-16.9583,-0.0493572,7.49487,-2.27069,0.283573,3.46382,-2.28602e-15,1.09332e-14,6.26098,1.81259,-65.6872,78.3806,4.15623,-36.556,3.53132,7.12502,-9.6463,-26.2278,-2.28602e-15,1.09332e-14,10.9997,1.9533,61.0112,86.323,17.8966,-36.2347,23.9604,7.12502,-9.33625,53.7336,-44.539,-4.51289,15.9702,91.4334,-31.5726,-9.9017,-18.0753,-42.5362,6.97027,-22.3829,86.5571,-29.1122,-2.4894,-8.64743
0.00315914,15.3613,-2.3566,-0.724405,0.934157,3.26199,29.6746,-0.00937145,-2.09003,6.00326,-0.681403,-0.403597,-9.56441,-0.26438,1.00343,-17.8296,-1.23035,-6.56271,-16.6214,0.0768537,7.35848,-2.19298,0.333911,3.38,-1.07344e-14,5.36719e-15,6.98017,1.22269,-63.7134,80.3949,5.87769,-36.156,3.09808,7.12502,-9.26037,-26.6786,-1.07344e-14,5.36719e-15,12.2407,2.90994,58.4173,87.671,17.9122,-36.71,24.2717,7.12502,-9.7949,54.0239,-42.8991,-4.10098,16.2396,89.0747,-31.0916,-9.83484,-17.5603,-41.1065,6.94624,-22.0179,84.4221,-28.2791,-2.40823,-8.3411
0.00321374,15.5776,-2.318,-1.02051,0.746114,3.16373,29.2568,0.0788492,-1.90722,5.92268,-0.507045,-0.407307,-9.45807,-0.189312,0.827469,-17.572,-1.0764,-6.22917,-16.5444,0.185156,7.02509,-2.21686,0.369015,3.22123,-8.94531e-16,-2.18663e-15,7.80236,0.5039,-61.7582,82.1462,7.52385,-35.8472,2.49377,7.12502,-8.96241,-27.2959,-8.94531e-16,-2.18663e-15,13.4521,4.23073,56.0495,88.6381,17.9955,-37.0825,24.3797,7.12502,-10.1542,54.1147,-41.0012,-3.61287,16.2694,86.5353,-30.5085,-9.64271,-16.9454,-39.3398,6.99462,-21.8388,82.0258,-27.4079,-2.16812,-8.69307
0.00335922,15.8228,-2.25978,-1.6594,0.294511,3.44548,29.0467,0.34749,-2.25516,5.91018,-0.268038,-0.438299,-9.37241,-0.0711995,0.906692,-17.2323,-0.931701,-6.00825,-16.2495,0.256901,6.52189,-2.46071,0.407897,3.25898,-8.44835e-15,8.54774e-15,8.5833,-0.211995,-59.7923,83.5803,8.55662,-35.8982,3.16701,7.12502,-9.0116,-26.6205,-8.44835e-15,8.54774e-15,14.1409,5.79723,53.8137,89.1191,18.3858,-37.2466,24.2613,7.12502,-10.3126,53.9885,-38.5437,-2.94646,15.8505,83.7794,-29.8117,-9.4233,-16.6934,-36.7922,7.24727,-22.0039,79.2662,-26.5185,-1.77907,-9.94544
0.000768013,16.0806,-2.19943,-2.18423,-0.179847,3.76861,28.7958,0.626739,-2.6776,5.78448,-0.0364059,-0.470435,-9.39683,0.0475397,1.03118,-16.9506,-0.81628,-5.99024,-15.8496,0.374259,6.46204,-2.37106,0.461143,3.23245,1.08338e-14,-2.18663e-15,9.12936,-0.811669,-57.8337,84.7512,8.77137,-36.4346,4.17512,7.12502,-9.52912,-25.5894,1.08338e-14,-2.18663e-15,14.5541,7.38939,51.4497,89.2457,18.8802,-36.8953,23.8617,7.12502,-9.97363,53.6054,-36.2067,-2.27996,15.416,80.9166,-28.8933,-9.15355,-16.2651,-34.3284,7.5162,-22.2017,76.3274,-25.1514,-1.20804,-11.7187
0.000656885,16.345,-2.13636,-2.40751,-0.656396,3.91255,28.2506,0.852018,-2.89581,5.53578,0.204168,-0.435233,-9.41696,0.167571,1.11137,-16.7208,-0.755616,-6.18539,-15.1834,0.45295,6.53676,-2.17986,0.505854,3.29022,1.2921e-15,-6.36111e-15,9.39485,-1.4152,-55.9054,85.8443,8.63976,-36.7512,4.51772,7.12502,-9.83464,-25.2326,1.2921e-15,-6.36111e-15,14.8226,8.75868,48.8493,89.1618,19.6242,-36.8025,23.9158,7.12502,-9.88413,53.6638,-34.2186,-1.664,15.1971,77.9253,-27.7265,-8.85748,-15.9597,-32.2021,7.77304,-22.2595,73.2706,-23.6587,-1.01181,-11.3068
0.00383483,16.6002,-2.06841,-2.30551,-0.923647,4.07793,27.1991,0.923085,-3.03962,5.28795,0.289639,-0.419627,-9.17294,0.210578,1.18457,-16.4702,-0.725813,-6.29872,-14.6323,0.472183,6.5236,-2.02894,0.515648,3.30088,-4.96962e-15,2.5842e-15,9.64873,-2.14673,-54.1433,86.6717,8.57284,-36.7219,4.68997,7.12502,-9.80635,-25.0617,-4.96962e-15,2.5842e-15,15.1116,10.2574,46.354,88.7258,20.367,-36.9121,24.1552,7.12502,-9.98986,53.8981,-32.5839,-1.30478,14.9255,74.9121,-26.4054,-8.38475,-14.921,-30.4383,7.78034,-22.4111,70.1777,-22.2839,-1.61233,-8.25163
0.00633175,16.8877,-1.99693,-2.08345,-1.02998,4.03345,26.0164,0.831713,-2.91689,5.03851,0.249482,-0.375451,-8.85136,0.187344,1.17969,-16.1826,-0.727834,-6.37449,-14.2141,0.44447,6.50726,-1.92774,0.498795,3.30327,-7.95139e-15,3.97569e-16,10.0696,-2.68826,-52.4423,87.0529,8.02492,-37.1085,4.57535,7.12502,-10.1793,-25.1584,-7.95139e-15,3.97569e-16,15.4808,12.1144,44.3852,87.9848,20.6913,-36.5459,24.0225,7.12502,-9.63651,53.7821,-30.8368,-0.967175,14.9242,71.5946,-24.8502,-8.05148,-13.7994,-28.6934,7.60163,-22.336,66.8361,-20.419,-2.00793,-6.56035
0.00887221,17.1995,-1.91538,-1.94415,-1.17962,3.86628,24.9029,0.699814,-2.64361,4.7964,0.188583,-0.339131,-8.54827,0.150511,1.08472,-16.2071,-0.760167,-6.57367,-13.4463,0.40986,6.66271,-1.65746,0.487921,3.38851,-1.53064e-14,1.59028e-15,10.5244,-3.03694,-50.8847,87.1635,7.09918,-37.6498,4.19686,7.12502,-10.7015,-25.5106,-1.53064e-14,1.59028e-15,15.6291,13.9033,42.4695,87.2025,21.0649,-35.9024,24.2183,7.12502,-9.01565,54.0056,-28.8296,-0.487149,15.0834,68.007,-22.9778,-7.95342,-13.354,-26.7366,7.4395,-22.093,63.2408,-18.2235,-1.79826,-8.66628
0.0096679,17.537,-1.82167,-1.91742,-1.34836,3.89985,23.9266,0.603437,-2.57582,4.49963,0.103188,-0.3805,-8.36954,0.108168,1.02776,-16.3062,-0.785728,-6.66375,-12.4639,0.359746,6.76498,-1.30152,0.465089,3.43372,1.68967e-15,3.57812e-15,10.6271,-3.37423,-49.6607,87.3479,6.40688,-38.1598,3.75181,7.12502,-11.1934,-25.9296,1.68967e-15,3.57812e-15,15.2932,15.2837,40.3876,86.4009,21.2241,-35.3392,24.9897,7.12502,-8.47211,54.7997,-26.5562,0.0627955,14.9894,64.1035,-20.6967,-7.95914,-13.4485,-24.4094,7.19859,-22.0453,59.2794,-15.8535,-1.46641,-11.6931
0.00324119,17.8915,-1.7188,-1.8176,-1.52619,4.0052,22.8299,0.548586,-2.69157,4.1639,0.0299983,-0.419225,-8.16506,0.0760895,1.0738,-16.2772,-0.79977,-6.72685,-11.5471,0.312589,6.81101,-0.990943,0.44072,3.45589,-1.59028e-14,-7.95139e-16,10.3492,-3.76011,-48.6854,87.729,5.9015,-38.5056,3.28918,7.12502,-11.5269,-26.3739,-1.59028e-14,-7.95139e-16,14.4995,16.3092,38.3319,85.6112,20.8249,-35.0962,25.634,7.12502,-8.23763,55.4534,-24.2623,0.798486,14.8289,59.9596,-17.9908,-8.04444,-13.4723,-22.0195,6.87601,-22.0553,55.015,-13.0482,-1.1269,-13.4569
-0.00840172,18.2581,-1.60445,-1.66855,-1.76409,3.99633,21.5808,0.561391,-2.80289,3.83538,0.060158,-0.388094,-7.86851,0.0927451,1.16295,-16.2971,-0.796908,-6.89518,-10.6532,0.311652,6.91657,-0.685299,0.445121,3.52452,-9.93923e-15,-6.36111e-15,9.72959,-4.21632,-47.7165,88.1162,5.53247,-38.608,3.32171,7.12502,-11.6256,-26.3358,-9.93923e-15,-6.36111e-15,13.4002,16.983,36.3765,84.9786,20.549,-34.9663,25.7087,7.12502,-8.11228,55.533,-21.8798,1.81109,14.8113,55.5734,-14.9114,-8.27733,-13.5929,-19.5564,6.44465,-21.9182,50.4732,-9.87295,-0.747136,-14.3488
-0.0173153,18.6387,-1.4861,-1.48047,-1.95523,3.94667,20.322,0.568215,-2.82803,3.47665,0.105087,-0.340051,-7.5924,0.115323,1.21759,-16.2957,-0.77935,-7.0446,-9.81959,0.325739,6.94381,-0.405548,0.455229,3.56441,-6.06293e-15,-6.36111e-15,8.67365,-4.63099,-46.661,88.3565,5.58241,-38.8061,3.89938,7.12502,-11.8167,-25.7472,-6.06293e-15,-6.36111e-15,12.0247,17.3244,34.447,84.5527,20.8826,-35.1053,26.0998,7.12502,-8.24641,55.9188,-19.4202,2.96719,14.8153,50.9635,-11.3751,-8.67694,-13.5623,-17.0676,5.73742,-21.7643,45.7203,-6.02209,-0.0215531,-15.5952
-0.0220248,19.0301,-1.36968,-1.07586,-2.04783,3.89549,18.9028,0.52014,-2.7985,3.04631,0.0961033,-0.266907,-7.29704,0.111612,1.28227,-16.3909,-0.803173,-7.20797,-8.7939,0.283492,6.87024,-0.0418953,0.43637,3.57199,1.50082e-14,-2.38542e-15,7.30326,-4.96083,-45.5305,88.5579,5.89333,-38.3139,4.69197,7.12502,-11.342,-24.9813,1.50082e-14,-2.38542e-15,10.314,17.4616,32.6572,84.2725,21.2989,-35.3133,26.4994,7.12502,-8.4471,56.3104,-17.1585,4.27403,14.7784,46.1575,-7.30062,-9.40578,-12.4817,-14.8205,4.81673,-21.6473,40.7922,-1.29004,0.932375,-15.6635
-0.0274296,19.4272,-1.25703,-0.441622,-2.17494,3.64414,17.2372,0.480041,-2.63352,2.61023,0.137371,-0.0848858,-6.86591,0.128514,1.37395,-16.5487,-0.824746,-7.39242,-7.78281,0.253271,6.64493,0.325316,0.420791,3.53392,-1.799e-14,-5.56597e-15,6.01656,-5.30604,-44.3923,88.5927,6.33119,-37.4731,5.02473,7.12502,-10.531,-24.6915,-1.799e-14,-5.56597e-15,8.50158,17.5433,31.1928,84.0374,21.403,-35.3598,26.7459,7.12502,-8.49202,56.5551,-15.1963,5.88427,14.934,41.1661,-2.69129,-10.7599,-11.2613,-12.8771,3.77064,-21.3062,35.7077,4.10122,2.12477,-14.7665
-0.0368393,19.8301,-1.1436,0.251992,-2.26788,3.39639,15.5728,0.451969,-2.51508,2.13348,0.179546,0.111591,-6.46792,0.148268,1.50683,-16.4776,-0.792304,-7.59837,-7.00981,0.296645,6.39301,0.568495,0.436939,3.49254,1.98785e-15,-1.03368e-14,4.68431,-5.59917,-43.2904,88.4318,7.01911,-37.6436,4.81079,7.12502,-10.6955,-24.897,1.98785e-15,-1.03368e-14,6.4383,17.473,29.8646,83.9872,21.2704,-35.2407,26.6672,7.12502,-8.37708,56.4811,-13.3269,7.80674,15.0504,36.0513,2.20063,-12.8079,-10.6747,-11.0446,2.35886,-20.942,30.5007,9.78725,4.44124,-12.9174
-0.0468709,20.2363,-1.02332,0.979948,-2.37528,3.01547,13.8419,0.435576,-2.21156,1.64018,0.25985,0.296164,-6.04125,0.182179,1.51489,-16.5318,-0.755844,-7.64869,-5.90491,0.321968,6.12273,0.945766,0.437692,3.42022,0,7.15625e-15,2.91669,-5.83455,-42.0227,88.3518,7.58939,-38.2124,4.27376,7.12502,-11.2441,-25.4049,0,7.15625e-15,4.19602,17.1558,28.5787,84.1062,21.0555,-35.1632,26.308,7.12502,-8.30231,56.1248,-11.511,10.1337,15.2451,30.876,7.13657,-15.7716,-9.10028,-9.29483,0.460629,-20.4101,25.3081,15.5683,8.4792,-8.30642
-0.0547924,20.6375,-0.90119,1.83031,-2.45389,2.59257,11.9125,0.448633,-1.74946,1.13574,0.387643,0.415439,-5.50582,0.234563,1.35939,-16.5784,-0.725523,-7.57746,-4.63666,0.3184,5.8965,1.38057,0.419698,3.34308,8.34896e-15,1.98785e-15,0.551546,-6.08105,-40.4985,88.4387,7.96027,-38.4681,4.42757,7.12502,-11.4907,-25.2375,8.34896e-15,1.98785e-15,2.09014,16.7055,27.5156,84.332,20.5264,-35.0154,25.8667,7.12502,-8.15961,55.6891,-9.90323,12.7774,15.3777,25.8128,11.7187,-19.8317,-4.92309,-7.79673,-2.08182,-19.8066,20.3157,20.7391,14.3949,0.422389
-0.0652295,21.0318,-0.789552,2.84094,-2.4305,2.06882,9.90774,0.456565,-1.11638,0.591011,0.506665,0.488415,-4.9569,0.279633,1.06683,-16.4645,-0.636533,-7.40316,-3.5281,0.370987,5.70209,1.73059,0.427755,3.25866,-1.49089e-15,1.98785e-15,-1.96926,-6.38925,-39.0469,88.3922,8.31883,-38.7852,4.25662,7.12502,-11.7965,-25.3912,-1.49089e-15,1.98785e-15,0.131823,16.2423,26.6015,84.6729,19.8582,-34.4692,25.6316,7.12502,-7.63242,55.4738,-8.73721,15.7344,15.5272,21.2261,15.2366,-24.1092,0.555538,-6.75455,-5.34677,-19.0112,15.9027,22.9312,21.8038,10.1199
-0.076248,21.4065,-0.693638,3.82986,-2.29974,1.63536,8.12902,0.453401,-0.542889,0.00619583,0.576795,0.531963,-4.56554,0.30324,0.788413,-16.3325,-0.532029,-7.11141,-2.33711,0.426028,5.38371,2.10505,0.431065,3.11129,-2.38542e-15,1.59028e-15,-4.35195,-6.65091,-37.7092,88.1159,8.57299,-38.7341,3.88444,7.12502,-11.7472,-25.7662,-2.38542e-15,1.59028e-15,-1.8971,15.7378,25.7801,85.0864,19.3491,-34.0381,25.0227,7.12502,-7.21632,54.8796,-7.94511,18.4502,15.5495,17.452,17.2568,-26.3939,4.2876,-6.23075,-8.95487,-18.2233,12.5623,20.5237,28.8622,17.0498
-0.0847224,21.7352,-0.61471,4.77772,-2.1245,1.41465,6.5116,0.422598,-0.108482,-0.519854,0.575593,0.500216,-4.19696,0.293483,0.520408,-16.0929,-0.440182,-6.91316,-1.39505,0.479938,5.20012,2.37853,0.439787,3.02479,3.18055e-15,1.03368e-14,-6.45419,-7.03492,-36.5683,87.6582,8.68651,-38.0116,3.89836,7.12502,-11.0504,-25.7907,3.18055e-15,1.03368e-14,-3.91869,15.3986,25.1044,85.4226,18.7534,-34.1289,24.0729,7.12502,-7.30399,53.9268,-7.49612,19.644,15.4686,14.769,17.373,-25.0917,4.40991,-6.06327,-8.58789,-18.058,10.8178,17.1414,30.3586,18.2878
-0.0909237,22.0477,-0.551674,5.57663,-1.86142,1.17221,5.15339,0.334635,0.37462,-0.890489,0.48962,0.506344,-3.81019,0.240695,0.270975,-15.7481,-0.295844,-6.90539,-1.00674,0.640531,5.15614,2.43763,0.510707,3.01972,-7.35503e-15,3.97569e-15,-8.23256,-7.58675,-35.576,87.0096,8.83643,-37.1255,4.06106,7.12502,-10.1957,-25.6719,-7.35503e-15,3.97569e-15,-5.85067,15.4907,24.7016,85.5807,18.0834,-34.0848,23.7237,7.12502,-7.26138,53.5791,-7.29633,19.006,15.7153,13.357,14.3509,-23.7467,7.21966,-6.54249,-6.33722,-17.992,10.6592,12.1443,29.1097,17.6596
-0.09946,22.3533,-0.506953,6.14707,-1.56365,0.845166,4.19322,0.232397,0.835927,-1.12479,0.37662,0.600028,-3.50832,0.176098,0.121915,-15.4,-0.0874356,-6.99795,-0.918862,0.906036,5.2282,2.38659,0.640759,3.07547,-1.16289e-14,-1.27222e-14,-9.80705,-8.23359,-34.6819,86.2404,9.13117,-36.5329,4.02214,7.12502,-9.62401,-25.738,-1.16289e-14,-1.27222e-14,-7.60761,16.0176,24.5837,85.4817,17.4023,-33.8371,23.4259,7.12502,-7.02228,53.2894,-7.40714,17.5694,16.2807,13.1666,13.0845,-25.618,3.63913,-7.18905,-3.99863,-17.8756,11.3794,8.29668,27.4776,17.6142
-0.108987,22.6527,-0.482126,6.33941,-1.38028,0.568449,3.89528,0.182684,1.15942,-1.20991,0.327989,0.71618,-3.42745,0.146413,0.064551,-15.4324,0.0209893,-7.07947,-0.679578,1.05829,5.29014,2.46506,0.716784,3.12831,4.96962e-17,-7.55382e-15,-11.299,-9.10823,-33.8587,85.3731,9.77003,-35.8303,3.89375,7.12502,-8.94608,-25.8966,4.96962e-17,-7.55382e-15,-9.15424,16.8496,24.7382,85.137,16.8881,-33.495,22.9847,7.12502,-6.69203,52.8589,-7.4875,16.0838,16.8815,13.6515,12.1408,-29.7997,5.07778,-7.56636,-2.32202,-17.7779,12.3242,9.59312,27.9451,17.345
-0.12085,22.9405,-0.484995,6.12211,-1.18621,0.446328,4.31081,0.157624,1.28018,-1.13626,0.309789,0.774666,-3.58576,0.134856,0.0570471,-15.9727,-0.00538421,-6.85514,0.0317681,1.01372,5.2627,2.47915,0.706934,2.77902,8.00108e-15,5.96354e-15,-12.7934,-10.2826,-33.1318,84.2694,10.5819,-35.0686,4.31506,7.12502,-8.21098,-25.5054,8.00108e-15,5.96354e-15,-10.6259,17.8408,25.038,84.8971,16.5975,-32.9214,22.7801,7.12502,-6.13837,52.6711,-7.41871,14.8502,17.3484,14.6247,11.663,-32.6111,14.8268,-7.62777,-1.3946,-17.7284,13.353,14.3968,28.8684,17.7684
-0.135219,23.2087,-0.510433,5.58363,-0.885393,0.473044,5.24605,0.104814,1.22771,-0.994854,0.252584,0.791487,-3.96814,0.106383,0.106069,-15.8016,-0.0148239,-6.75487,-0.349165,0.986411,4.8995,2.64856,0.667591,2.93845,4.42296e-15,-4.37326e-15,-14.3441,-11.4126,-32.4334,83.0014,11.0353,-35.1989,4.85327,7.12502,-8.33675,-24.9622,4.42296e-15,-4.37326e-15,-12.2342,18.8099,25.4136,84.7476,16.2545,-32.3888,22.2252,7.12502,-5.62412,52.1305,-7.28373,13.917,17.6795,16.0624,15.3976,-28.7725,11.4558,-7.51284,-0.624449,-17.7861,14.5877,16.3604,26.9338,15.1436
-0.149102,23.4565,-0.542199,4.81821,-0.592131,0.585403,6.44155,0.0440844,1.07726,-0.748814,0.1793,0.804768,-4.38884,0.0726087,0.209438,-15.6658,0.0115162,-6.67899,-0.713534,1.01171,4.79081,2.4946,0.678512,2.87786,-8.44835e-16,-5.1684e-15,-15.791,-12.5856,-31.8456,81.7119,11.401,-35.9653,4.11569,7.12502,-9.07628,-25.669,-8.44835e-16,-5.1684e-15,-13.8922,19.8853,25.96,84.5427,15.9644,-32.0947,21.6783,7.12502,-5.34015,51.591,-7.1099,13.1232,17.9204,17.9068,17.0245,-25.5544,9.50617,-7.24146,0.615599,-17.9802,16.0702,18.0322,23.5024,14.0022
-0.16484,23.686,-0.575833,4.02703,-0.360447,0.586663,7.63497,-0.0270303,1.00222,-0.449139,0.0965162,0.853802,-4.75109,0.0334475,0.311211,-15.5455,0.0742172,-6.73792,-1.1794,1.10401,4.88204,2.30691,0.731266,2.9156,1.05356e-14,-4.37326e-15,-17.0832,-13.956,-31.4829,80.3297,11.923,-36.2143,3.02306,7.12502,-9.31654,-26.7511,1.05356e-14,-4.37326e-15,-15.7128,21.0503,26.4723,84.4221,15.9261,-32.0481,21.871,7.12502,-5.29522,51.7848,-7.00653,12.2945,18.267,19.974,17.8174,-23.6584,7.84071,-7.02987,2.11494,-18.022,17.7712,20.7284,20.2774,15.3529
-0.181096,23.8979,-0.611036,3.39065,-0.108498,0.820327,8.62166,-0.0894277,0.73289,-0.189073,-0.00501509,0.774157,-5.03599,-0.0112301,0.393439,-15.5735,0.0618346,-6.86042,-1.34375,1.10224,5.22388,2.25838,0.744785,3.05559,-8.59744e-15,-3.57812e-15,-18.414,-15.4997,-31.2168,78.7047,12.4591,-35.6905,2.56446,7.12502,-8.81112,-27.2316,-8.59744e-15,-3.57812e-15,-17.398,22.3552,27.0203,83.9905,15.7775,-32.0298,22.4011,7.12502,-5.27752,52.3154,-7.14706,11.3345,18.2928,22.1137,18.7569,-22.4636,4.7725,-7.05285,3.34181,-18.2867,19.544,23.3072,18.6229,11.7387
-0.19887,24.1015,-0.645399,2.91676,0.0602223,1.16786,9.45022,-0.105014,0.395075,-0.0284712,-0.0638106,0.592388,-5.33421,-0.0339947,0.404001,-15.7844,-0.0147475,-6.78236,-1.05758,0.984034,5.45913,2.40505,0.694676,3.12523,-1.09829e-14,-5.96354e-15,-19.892,-16.9592,-30.9524,76.8364,12.8652,-35.3679,2.84097,7.12502,-8.49979,-26.968,-1.09829e-14,-5.96354e-15,-18.8858,23.862,27.6598,83.0965,15.5894,-31.6695,23.0694,7.12502,-4.92958,52.992,-7.48337,10.589,18.1041,24.1826,19.6247,-21.0257,2.87175,-7.24952,4.08401,-18.6756,21.2658,25.2045,16.9034,9.52411
-0.218843,24.2996,-0.673684,2.58211,0.112552,1.45671,10.0504,-0.0663482,0.0329086,0.0651254,-0.0590449,0.441843,-5.57364,-0.0238739,0.451678,-15.7525,-0.0665787,-6.42111,-0.812868,0.844722,5.39218,2.49102,0.621131,3.02711,1.19271e-15,4.37326e-15,-21.4221,-18.2541,-30.6357,74.8759,13.1989,-35.4449,2.59409,7.12502,-8.5741,-27.2118,1.19271e-15,4.37326e-15,-20.4616,25.2544,28.2622,82.1615,15.6426,-31.4182,23.6568,7.12502,-4.68692,53.5849,-7.92454,10.2007,17.9279,26.0933,20.2534,-18.8641,3.04224,-7.51004,4.44107,-18.9952,22.776,26.1714,14.9559,8.51262
-0.240241,24.4872,-0.694765,2.36093,0.150889,1.55396,10.3731,-0.0406237,-0.156921,0.135834,-0.0523316,0.34913,-5.68084,-0.0165629,0.461404,-15.3437,-0.0771848,-6.13889,-0.825183,0.756754,5.42338,2.41618,0.574294,2.96988,3.32964e-15,-3.18055e-15,-22.8506,-19.5161,-30.3507,72.7884,13.6387,-35.2687,1.87183,7.12502,-8.40406,-27.941,3.32964e-15,-3.18055e-15,-22.0568,26.4712,28.765,81.1044,15.5863,-31.5201,23.5441,7.12502,-4.78534,53.47,-8.40055,10.1108,17.9495,27.7648,20.6321,-16.2392,3.17656,-7.77112,4.69775,-19.0843,23.9871,27.086,12.7666,7.11771
-0.258526,24.6627,-0.709875,2.18926,0.180845,1.60046,10.5765,-0.0165345,-0.217771,0.21209,-0.0342532,0.240138,-5.71518,-0.00754442,0.379222,-15.0612,-0.0913929,-6.0507,-0.683379,0.695284,5.62572,2.41824,0.547267,3.01694,9.14409e-15,-8.74653e-15,-24.203,-20.8242,-30.1179,70.6355,13.8224,-35.3516,0.375885,7.12502,-8.48407,-29.4337,9.14409e-15,-8.74653e-15,-23.4539,27.6936,29.2845,79.7891,15.5587,-31.6673,23.2913,7.12502,-4.92748,53.214,-8.81498,10.1217,17.9984,29.1367,20.8368,-13.7097,2.07027,-7.96162,4.93808,-19.0889,24.8823,27.9806,10.7368,4.45635
-0.272428,24.8295,-0.718388,2.0491,0.156282,1.75096,10.7414,0.0305627,-0.345628,0.258658,0.00497562,0.116504,-5.75913,0.0135507,0.316021,-14.937,-0.111034,-6.07837,-0.323205,0.644705,5.90206,2.52522,0.52931,3.12028,1.15295e-14,-2.38542e-15,-25.4919,-22.0023,-29.8652,68.4505,13.9068,-35.9961,-1.59181,7.12502,-9.10608,-31.3752,1.15295e-14,-2.38542e-15,-24.8839,28.6629,29.7687,78.4171,15.8685,-31.7628,23.453,7.12502,-5.01968,53.3735,-9.12135,10.1717,17.8745,30.1545,21.072,-11.5322,0.0513756,-8.00636,5.00345,-19.2174,25.447,28.4016,9.40821,1.80148
-0.281718,24.9891,-0.722575,1.95374,0.215689,1.98911,10.8177,0.0312358,-0.544522,0.318708,-0.0264459,-0.00937912,-5.73855,0.00166662,0.301298,-14.9811,-0.147393,-5.90017,0.109373,0.551981,5.93489,2.68815,0.484294,3.10073,-8.87077e-15,8.34896e-15,-26.5494,-23.2305,-29.6716,66.1686,14.2287,-35.6203,-1.89673,7.12502,-8.74338,-31.6956,-8.87077e-15,8.34896e-15,-26.3002,29.523,30.2668,76.9868,16.3847,-32.1859,23.9942,7.12502,-5.42827,53.9047,-9.28694,10.2008,17.6276,30.8129,21.1094,-9.86497,-2.47035,-7.91493,4.75727,-19.469,25.648,28.5092,8.53285,0.306119
-0.287203,25.1388,-0.719514,1.83681,0.285155,2.21024,10.7976,0.00194266,-0.68742,0.424521,-0.0894267,-0.128829,-5.61532,-0.0276463,0.266572,-15.3711,-0.191625,-5.70808,1.03575,0.449546,6.10596,2.73418,0.459368,2.81968,9.69075e-15,1.59028e-15,-27.364,-24.496,-29.5736,63.783,14.3534,-34.1608,-0.767387,7.12502,-7.33475,-30.6203,9.69075e-15,1.59028e-15,-27.5422,30.3402,30.7574,75.3266,17.1924,-32.5909,24.4486,7.12502,-5.81929,54.3487,-9.25625,10.3565,17.4175,31.1541,20.7736,-8.67752,-3.95318,-7.62955,4.24748,-19.71,25.525,28.3297,7.99303,0.12888
