JuanDHNZ/ProyectoFinalCD/preprocessing/sports_trials_csv/13_35.csv
root1,root2,root3,root4,root5,root6,lowerback1,lowerback2,lowerback3,upperback1,upperback2,upperback3,thorax1,thorax2,thorax3,lowerneck1,lowerneck2,lowerneck3,upperneck1,upperneck2,upperneck3,head1,head2,head3,rclavicle1,rclavicle2,rhumerus1,rhumerus2,rhumerus3,rradius1,rwrist1,rhand1,rhand2,rfingers1,rthumb1,rthumb2,lclavicle1,lclavicle2,lhumerus1,lhumerus2,lhumerus3,lradius1,lwrist1,lhand1,lhand2,lfingers1,lthumb1,lthumb2,rfemur1,rfemur2,rfemur3,rtibia1,rfoot1,rfoot2,rtoes1,lfemur1,lfemur2,lfemur3,ltibia1,lfoot1,lfoot2,ltoes1
10.1767,18.94,5.01293,-0.687834,-43.0322,8.38058,5.20221,-2.45485,-1.39268,1.75712,-3.32252,3.26699,-0.829094,-1.68669,4.33826,-5.31788,-9.16723,-7.94707,26.5871,-14.7279,8.71215,10.6399,-6.85934,2.72623,7.39479e-14,4.77083e-15,-30.7319,-8.1357,-73.1266,25.0954,18.0295,-22.0776,5.74931,7.12502,4.33381,-24.1863,7.39479e-14,4.77083e-15,-26.3146,19.4153,83.6067,27.6983,-3.08828,-22.9031,24.1748,7.12502,3.53664,54.1252,-24.0141,18.7169,8.997,24.0898,-10.909,-30.4976,12.6831,5.33342,6.81807,-27.0795,15.5659,-10.3707,20.2546,-20.4749
10.0868,18.9479,5.04302,-0.96396,-43.2532,8.64706,5.20366,-2.46364,-1.34783,1.75121,-3.33205,3.22737,-0.840232,-1.69077,4.27257,-5.24001,-9.17818,-7.76974,26.4734,-14.7262,8.58967,10.5566,-6.85989,2.65983,-5.28767e-14,3.18055e-14,-30.6502,-6.63143,-73.89,25.4405,15.2594,-23.6202,5.31975,7.12502,2.8442,-24.641,-5.28767e-14,3.18055e-14,-26.2492,18.388,83.9053,27.8257,-1.81924,-24.0793,23.7255,7.12502,2.40077,53.6918,-23.798,18.6033,9.15367,24.3838,-11.0282,-30.1274,12.0734,5.36282,7.08278,-27.0295,16.1755,-9.91953,20.1116,-21.1
9.9959,18.9538,5.06498,-1.08818,-43.5245,8.74247,5.21761,-2.44118,-1.18986,1.75076,-3.29439,3.1991,-0.862437,-1.67098,4.15308,-5.2655,-9.21028,-7.74284,26.4531,-14.7925,8.64778,10.5635,-6.88181,2.66554,-9.38264e-14,-1.11319e-14,-30.5215,-6.14734,-74.1883,25.6808,14.4077,-24.2372,4.27483,7.12502,2.24829,-25.6931,-9.38264e-14,-1.11319e-14,-26.1705,17.7446,83.9776,27.9538,-1.27201,-24.2542,23.886,7.12502,2.23188,53.8541,-23.6038,18.8858,9.37819,24.5634,-11.3588,-30.0387,12.1788,5.19802,7.4583,-26.7803,17.0146,-9.58779,19.8342,-21.5411
9.9005,18.9599,5.08924,-1.20389,-43.9276,8.75638,5.29546,-2.422,-1.08589,1.72147,-3.26258,3.22581,-0.942834,-1.65353,4.12569,-5.29821,-9.19996,-7.80535,26.5919,-14.8174,8.72215,10.636,-6.88993,2.69574,3.69739e-14,-4.6118e-14,-30.4321,-5.98542,-74.2765,25.8744,14.4998,-24.1848,3.77428,7.12502,2.29892,-26.1931,3.69739e-14,-4.6118e-14,-26.407,18.0717,83.6895,28.3784,-1.65109,-23.0788,24.6245,7.12502,3.36698,54.5777,-23.3593,19.0909,9.7389,24.7397,-11.5145,-29.7664,11.9609,5.11821,7.89353,-26.4566,17.7763,-9.38806,19.6526,-21.5688
9.80251,18.9668,5.12194,-1.49298,-44.4104,8.96291,5.35079,-2.3752,-1.07957,1.67315,-3.19849,3.22004,-1.02919,-1.61951,4.11717,-5.1996,-9.1591,-7.76434,26.6689,-14.7652,8.63205,10.629,-6.87625,2.66964,9.70069e-14,-1.59028e-15,-30.3941,-6.11794,-74.1131,25.9216,15.2346,-24.5759,2.48768,7.12502,1.92118,-27.4834,9.70069e-14,-1.59028e-15,-26.7495,18.4676,83.4182,28.7995,-1.62392,-22.1867,24.9361,7.12502,4.22851,54.8739,-23.0447,19.1235,9.99437,24.8898,-11.5593,-29.2873,11.5164,5.06679,8.00465,-26.3468,18.6152,-9.7032,19.698,-20.3911
9.70752,18.9772,5.14466,-1.66197,-44.6759,9.19539,5.37931,-2.39507,-1.11145,1.55494,-3.223,3.23607,-1.16217,-1.62809,4.15842,-5.06811,-9.10848,-7.799,26.7007,-14.6958,8.58843,10.6072,-6.85916,2.67603,4.37326e-15,5.56597e-14,-30.3389,-7.05925,-73.4992,25.89,17.4643,-23.8891,2.06437,7.12502,2.58451,-27.8997,4.37326e-15,5.56597e-14,-27.0204,18.6161,83.2793,28.9354,-1.44325,-22.2045,24.6513,7.12502,4.21128,54.5895,-22.8591,19.0069,10.1742,25.038,-11.6347,-28.8932,11.2771,4.80833,7.83806,-26.2222,19.4814,-10.1479,19.5157,-18.5258
9.61099,18.9827,5.16661,-1.74818,-45.0003,9.33137,5.32612,-2.38966,-1.07597,1.4746,-3.2119,3.25731,-1.21691,-1.62061,4.15969,-5.06154,-9.0897,-7.93221,26.8302,-14.6961,8.65214,10.6711,-6.86565,2.71925,2.70347e-14,4.77083e-15,-30.274,-6.62964,-73.747,26.2092,16.5258,-23.4508,4.46295,7.12502,3.00773,-25.4956,2.70347e-14,4.77083e-15,-27.1416,18.612,83.1662,28.8856,-1.37349,-22.1975,24.714,7.12502,4.2181,54.652,-22.7119,18.9249,10.4235,25.1636,-11.7156,-28.4789,11.1473,4.49091,8.06939,-25.9888,20.4563,-9.74792,19.1946,-18.5763
9.51402,18.9864,5.18959,-1.93109,-45.4106,9.51592,5.27916,-2.38093,-1.05423,1.43969,-3.19858,3.26247,-1.22866,-1.61335,4.15072,-5.01336,-9.07718,-8.0019,26.8852,-14.6675,8.58688,10.6796,-6.86844,2.71326,3.26007e-14,1.11319e-14,-30.1727,-6.56469,-73.6858,26.3732,16.967,-24.6536,0.807478,7.12502,1.8461,-29.1643,3.26007e-14,1.11319e-14,-27.2407,18.7351,83.0071,28.8035,-1.33274,-22.0467,24.901,7.12502,4.36371,54.836,-22.5,18.929,10.656,25.2837,-11.8069,-28.0616,10.9982,4.22731,8.62843,-25.7888,21.5007,-8.67401,18.8982,-19.3153
9.41839,18.9915,5.20962,-1.9143,-45.7777,9.42199,5.21494,-2.40663,-0.791278,1.42189,-3.21923,3.29037,-1.2226,-1.62392,4.02996,-4.93605,-9.04776,-8.05396,26.9091,-14.6165,8.53033,10.6677,-6.86041,2.71227,3.10104e-14,-3.18055e-15,-30.0476,-6.06801,-73.8815,26.7156,16.797,-25.0859,-0.998118,7.12502,1.42856,-30.9731,3.10104e-14,-3.18055e-15,-27.2901,18.9526,82.7955,28.6616,-1.10882,-22.0649,24.8123,7.12502,4.34608,54.7477,-22.2766,18.9851,11.1131,25.4153,-11.9015,-27.744,10.6037,3.89643,9.19427,-25.3679,22.6602,-7.59119,18.6441,-20.4352
9.31433,18.9947,5.24524,-2.1915,-46.4138,9.49475,5.14405,-2.3492,-0.599155,1.4805,-3.13616,3.24844,-1.14182,-1.5842,3.86825,-4.99384,-9.02348,-7.96383,27.1094,-14.5799,8.35837,10.7283,-6.84942,2.63826,-8.34896e-15,1.43125e-14,-29.8535,-6.18268,-73.9642,26.8818,17.1,-25.1462,-1.19391,7.12502,1.3704,-31.1693,-8.34896e-15,1.43125e-14,-27.3951,19.1179,82.55,28.5225,-0.814417,-22.0981,24.6397,7.12502,4.31406,54.5757,-21.8815,19.0885,11.5204,25.5601,-11.896,-27.1991,10.0056,3.80991,9.90239,-25.1029,23.8335,-6.76241,18.6108,-22.6008
9.2146,18.9979,5.25532,-2.27997,-46.7269,9.77929,5.05538,-2.40009,-0.820878,1.33277,-3.21132,3.27594,-1.2252,-1.61865,4.02571,-4.80392,-8.97758,-8.21039,27.0151,-14.5431,8.55408,10.689,-6.84875,2.76153,1.05356e-13,-3.33958e-14,-29.6117,-6.4209,-73.9537,26.8877,17.524,-25.1541,-0.985285,7.12502,1.3627,-30.9607,1.05356e-13,-3.33958e-14,-27.6483,19.3836,82.2898,28.4028,-0.85298,-22.0465,24.6106,7.12502,4.36386,54.5457,-21.8761,18.9363,11.6315,25.6995,-12.0568,-26.6703,10.0685,3.20572,10.3844,-24.9392,25.0714,-5.98531,18.2848,-23.5596
9.10996,18.9965,5.27514,-2.59028,-47.4038,10.0434,4.99438,-2.33392,-0.924949,1.32417,-3.12902,3.26862,-1.20099,-1.57769,4.06945,-4.56496,-8.90235,-8.58325,26.799,-14.481,8.92613,10.6168,-6.83489,2.97358,8.54774e-14,-2.8625e-14,-29.4131,-6.28085,-74.1049,27.1298,17.2885,-24.3784,1.02836,7.12502,2.11191,-28.9409,8.54774e-14,-2.8625e-14,-27.78,19.6954,81.9887,28.1934,-0.690965,-21.7935,24.561,7.12502,4.6082,54.4909,-21.6794,19.0295,11.8576,25.908,-12.3022,-25.984,10.327,2.91217,11.1206,-24.7043,26.2472,-5.03734,18.0526,-24.2019
9.00548,18.9962,5.29588,-2.8271,-48.0652,10.1996,4.96499,-2.2357,-0.964479,1.29188,-2.99966,3.27321,-1.22548,-1.51227,4.08919,-4.71733,-8.83044,-8.2896,27.1491,-14.3231,8.42321,10.6947,-6.77596,2.76139,6.08281e-14,-3.18055e-14,-29.4329,-5.52832,-74.4693,27.6994,16.1265,-23.3621,4.04248,7.12502,3.0934,-25.9148,6.08281e-14,-3.18055e-14,-27.8869,20.0482,81.675,27.88,-0.599757,-21.4374,24.6577,7.12502,4.95198,54.5799,-21.4538,19.1451,12.183,26.1124,-12.3564,-25.4012,10.2786,2.57591,11.776,-24.4047,27.512,-4.17878,17.92,-24.7844
8.90147,18.9972,5.31615,-3.28709,-48.6311,10.5926,4.97691,-2.21814,-1.18492,1.2958,-2.98778,3.21905,-1.22054,-1.50598,4.15705,-5.00315,-8.74304,-7.87929,27.5658,-14.1358,7.83659,10.8064,-6.69612,2.49703,7.99114e-14,2.06736e-14,-29.3694,-4.78287,-74.8759,28.2191,15.2684,-23.6365,4.49234,7.12502,2.82839,-25.4687,7.99114e-14,2.06736e-14,-28.0374,20.5454,81.2769,27.6027,-0.752876,-21.2761,24.7432,7.12502,5.10778,54.6616,-21.1261,19.1727,12.3328,26.2761,-12.527,-24.7898,10.0726,2.25752,12.2547,-24.2752,28.8454,-3.57684,17.7309,-24.0112
8.80009,18.9978,5.33507,-3.47498,-49.1423,10.7234,4.90244,-2.26666,-1.11975,1.29531,-3.05013,3.15805,-1.18134,-1.53752,4.05653,-5.13904,-8.66886,-7.85493,27.7124,-14.0369,7.78079,10.8721,-6.6508,2.47867,1.43125e-13,-2.38542e-14,-29.162,-4.6516,-75.1135,28.5167,15.3991,-24.6472,2.5489,7.12502,1.85229,-27.4228,1.43125e-13,-2.38542e-14,-28.1246,20.9578,80.8069,27.267,-0.862191,-21.1655,24.8575,7.12502,5.21453,54.7733,-20.8885,19.0692,12.6309,26.4112,-12.6983,-24.0963,10.0833,1.75403,12.694,-23.9611,30.2782,-2.73373,17.5018,-23.4249
8.70088,18.9957,5.35276,-3.4552,-49.617,10.6175,4.85096,-2.26536,-0.84153,1.22973,-3.03363,3.13845,-1.2371,-1.52778,3.87813,-5.0868,-8.64538,-7.93666,27.7615,-14.0098,7.77927,10.8843,-6.65106,2.49685,-3.22031e-14,-3.18055e-15,-29.1036,-5.16167,-75.044,28.7663,16.2079,-25.0017,0.890227,7.12502,1.50995,-29.0842,-3.22031e-14,-3.18055e-15,-28.2257,20.9084,80.5687,26.7649,-1.43107,-21.6426,24.7126,7.12502,4.75391,54.6393,-20.6923,18.9939,13.0864,26.5441,-12.7851,-23.5066,9.95162,1.1674,13.1047,-23.4719,31.7308,-1.77253,17.2996,-22.6266
8.60378,18.9914,5.37379,-3.67351,-50.1335,10.7326,4.86449,-2.23771,-0.699513,1.14961,-2.98779,3.09666,-1.34006,-1.5025,3.7556,-4.96207,-8.58961,-7.96917,27.8041,-13.9379,7.74051,10.8682,-6.63337,2.50385,4.77083e-15,2.22639e-14,-29.1357,-5.39366,-75.0232,29.1054,16.5627,-24.8746,0.318262,7.12502,1.63273,-29.6552,4.77083e-15,2.22639e-14,-28.4347,20.6045,80.5765,26.0973,-3.11322,-23.3465,24.6549,7.12502,3.10848,54.612,-20.3686,18.7427,13.4401,26.6259,-12.8729,-22.7394,9.76117,0.600791,13.5153,-23.1489,33.2711,-0.714315,17.2116,-21.625
8.50535,18.9889,5.39751,-4.06628,-50.7269,10.9007,4.92433,-2.23629,-0.602585,1.16205,-2.98161,3.04656,-1.36879,-1.49934,3.6514,-4.91699,-8.52017,-8.01331,27.8625,-13.8287,7.66109,10.8678,-6.60072,2.49896,-2.8625e-14,-1.59028e-15,-29.1179,-4.71086,-75.3773,29.6702,15.6777,-24.8688,1.08175,7.12502,1.63831,-28.8917,-2.8625e-14,-1.59028e-15,-28.6694,21.1684,80.1188,25.779,-3.48845,-23.2746,24.5449,7.12502,3.17794,54.5009,-19.9092,18.3239,13.8386,26.7294,-12.7957,-21.8214,9.13721,0.184986,13.8029,-22.8846,34.8381,0.242305,17.385,-20.8514
8.408,18.9865,5.41152,-4.01281,-51.3021,10.7785,4.85728,-2.26598,-0.450149,1.12308,-3.01338,3.08116,-1.37535,-1.51535,3.60118,-4.86931,-8.46169,-8.19134,27.7618,-13.7511,7.78663,10.8365,-6.57615,2.58485,-1.07344e-14,1.59028e-15,-29.0242,-3.69258,-75.8601,30.3082,14.3745,-24.1028,3.27611,7.12502,2.37811,-26.6904,-1.07344e-14,1.59028e-15,-28.8348,21.7995,79.624,25.3818,-4.03754,-23.1958,24.4932,7.12502,3.25399,54.4482,-19.75,17.8033,14.3679,26.858,-12.5601,-20.8702,8.24099,-0.559896,14.1323,-22.4203,36.4662,1.33888,17.4688,-20.786
8.30954,18.9793,5.42573,-4.13703,-51.9113,10.7827,4.85657,-2.27579,-0.393209,1.09767,-3.02314,3.10797,-1.40196,-1.52009,3.59823,-4.72346,-8.38416,-8.59574,27.526,-13.6997,8.24865,10.7818,-6.55736,2.82879,5.1684e-15,1.11319e-14,-28.8569,-3.56899,-76.0332,30.661,14.2035,-23.2571,5.28502,7.12502,3.19482,-24.6708,5.1684e-15,1.11319e-14,-28.9958,22.3473,79.2078,24.9031,-4.61976,-23.1935,24.5686,7.12502,3.25622,54.5235,-19.4745,17.4433,14.8175,26.9578,-12.5331,-19.9616,7.73724,-1.20829,14.6163,-21.9733,38.1206,2.42766,17.4181,-20.009
8.2126,18.9682,5.43761,-4.27223,-52.5157,10.7115,4.92768,-2.26736,-0.22515,1.10435,-3.00338,3.08899,-1.44578,-1.51041,3.48639,-4.68459,-8.32694,-8.76653,27.4346,-13.636,8.41173,10.759,-6.5341,2.92468,-5.40694e-14,9.54166e-15,-28.6628,-3.7119,-76.1718,30.945,14.3831,-23.2127,5.48548,7.12502,3.23771,-24.4697,-5.40694e-14,9.54166e-15,-29.1344,22.6899,78.8276,24.5292,-4.9383,-23.3147,24.4775,7.12502,3.13916,54.4341,-19.103,17.2699,15.3185,27.0237,-12.5351,-19.2179,7.23951,-1.82894,15.0123,-21.476,39.8871,3.5497,17.3898,-18.8652
8.11493,18.959,5.46052,-4.42473,-53.2648,10.6035,4.9331,-2.23379,0.0562964,1.16921,-2.94761,3.02806,-1.40303,-1.48438,3.26051,-4.75216,-8.3707,-8.44042,27.4081,-13.6327,8.0319,10.7063,-6.53821,2.73326,-8.07066e-14,-1.11319e-14,-28.523,-3.15127,-76.526,31.4582,13.7559,-23.2282,5.32575,7.12502,3.2227,-24.6296,-8.07066e-14,-1.11319e-14,-29.2449,23.1115,78.3669,24.2011,-5.14401,-23.3593,24.3542,7.12502,3.09607,54.3114,-18.7063,17.2067,15.8117,27.1055,-12.6224,-18.4021,6.84685,-2.38929,15.2771,-21.045,41.6499,4.44183,17.6252,-17.299
8.02482,18.9506,5.46971,-4.25269,-53.8307,10.219,5.03962,-2.25473,0.393126,1.12941,-2.9555,3.04657,-1.51906,-1.48833,3.09756,-4.67303,-8.49136,-8.08135,27.2784,-13.7235,7.58349,10.5879,-6.59556,2.50856,-8.5875e-14,6.36111e-15,-28.4345,-2.88172,-76.7496,31.8905,13.3735,-23.1369,5.34782,7.12502,3.31085,-24.6062,-8.5875e-14,6.36111e-15,-29.4282,23.6687,77.8494,23.8276,-5.59196,-23.1408,24.5532,7.12502,3.30715,54.5073,-18.3728,17.154,16.4367,27.191,-12.943,-17.736,7.50722,-3.15221,15.4103,-20.4299,43.4091,5.72427,17.5971,-16.2031
7.9362,18.9452,5.48344,-4.19256,-54.4162,9.96154,5.13139,-2.24554,0.697969,1.09721,-2.92474,3.03715,-1.62071,-1.47329,2.92058,-4.48489,-8.50596,-7.94965,27.0571,-13.709,7.43641,10.4454,-6.60236,2.44807,3.22031e-14,-2.8625e-14,-28.3006,-3.23074,-76.7801,32.1637,13.6818,-23.3686,5.30812,7.12502,3.08718,-24.6493,3.22031e-14,-2.8625e-14,-29.6021,24.1798,77.4123,23.4484,-6.15768,-23.1078,24.8416,7.12502,3.33904,54.7952,-18.0113,17.0616,16.9671,27.2945,-13.2582,-17.0741,8.26987,-3.86829,15.4005,-19.987,45.0815,7.17449,17.5428,-14.5659
7.84606,18.9387,5.49993,-4.49904,-55.0706,10.1427,5.21589,-2.22886,0.714551,1.06103,-2.89885,2.99686,-1.7092,-1.45959,2.87321,-4.35372,-8.37167,-8.02709,26.9013,-13.5086,7.47398,10.3516,-6.52383,2.50664,-1.23246e-14,2.54444e-14,-28.1594,-3.29108,-76.8173,32.4344,13.9416,-23.243,5.17494,7.12502,3.20842,-24.7807,-1.23246e-14,2.54444e-14,-29.8182,24.6635,77.046,23.1017,-6.58384,-23.2195,24.9108,7.12502,3.23113,54.8661,-17.7014,16.9955,17.2018,27.4136,-13.4332,-16.3743,8.7282,-4.55132,15.3689,-19.8462,46.6838,8.33646,17.688,-11.9223
7.75527,18.9272,5.51622,-5.06757,-55.7489,10.6076,5.29931,-2.22271,0.488044,1.03027,-2.90034,2.97479,-1.77728,-1.45862,2.98234,-4.4426,-8.25895,-8.00457,26.9824,-13.2988,7.25247,10.3601,-6.4466,2.4469,1.19668e-13,1.74931e-14,-28.0296,-2.80066,-76.902,32.7891,13.6522,-23.3339,5.11179,7.12502,3.12065,-24.8451,1.19668e-13,1.74931e-14,-30.1121,25.417,76.6384,22.7296,-7.13425,-23.1236,24.7968,7.12502,3.32377,54.7506,-17.3848,16.9379,17.2598,27.5318,-13.6163,-15.6068,9.04281,-5.15826,15.3648,-19.872,48.1879,9.2831,17.8527,-9.99493
7.6641,18.9193,5.53192,-5.23799,-56.4845,10.5724,5.3414,-2.17844,0.590398,1.05388,-2.83619,2.98682,-1.78385,-1.42759,2.93456,-4.6261,-8.22649,-7.91316,27.1958,-13.231,7.04566,10.446,-6.42208,2.35754,-2.66371e-14,-1.43125e-14,-27.8176,-2.63389,-76.9886,33.0752,13.5578,-23.7619,5.54349,7.12502,2.70732,-24.4191,-2.66371e-14,-1.43125e-14,-30.2645,25.8338,76.3215,22.3654,-7.48323,-22.8242,24.7119,7.12502,3.61283,54.6611,-17.0198,17.058,17.6596,27.6377,-13.7971,-15.0864,9.02604,-5.75096,15.2891,-19.6178,49.6203,10.063,17.8579,-9.21735
7.57579,18.9133,5.53985,-5.34143,-57.3117,10.3917,5.49556,-2.12849,0.69507,1.10554,-2.76268,3.01592,-1.82354,-1.39216,2.90678,-4.64355,-8.14354,-7.82285,27.2001,-13.1183,6.99807,10.4298,-6.36937,2.33962,4.63168e-14,-1.74931e-14,-27.5266,-2.54895,-77.1273,33.2845,13.7167,-23.8592,5.91994,7.12502,2.61334,-24.0438,4.63168e-14,-1.74931e-14,-30.3125,26.1881,76.0129,21.9799,-7.66424,-22.727,24.7334,7.12502,3.70675,54.6809,-16.5966,17.3171,18.1956,27.7219,-14.0127,-14.4417,9.23922,-6.29851,15.2312,-19.2446,50.9975,10.4799,17.634,-7.90425
7.48833,18.9029,5.55194,-5.79916,-58.1772,10.6276,5.63458,-2.04674,0.619833,1.13942,-2.65724,2.93688,-1.87129,-1.33907,2.8654,-4.6205,-8.04401,-7.64043,27.2141,-13.0058,6.9678,10.404,-6.3084,2.3149,2.96189e-14,-1.43125e-14,-27.3288,-2.19466,-77.4056,33.5676,13.2168,-24.0652,5.19646,7.12502,2.41444,-24.7696,2.96189e-14,-1.43125e-14,-30.3855,26.502,75.6503,21.5779,-7.84484,-22.8754,24.6642,7.12502,3.56343,54.6142,-16.1728,17.3437,18.4924,27.7652,-14.2333,-13.372,8.85856,-6.79142,15.1602,-19.1317,52.3016,10.2827,17.2716,-6.04682
7.40498,18.8912,5.56434,-6.11112,-59.022,10.7987,5.70136,-1.96477,0.627291,1.13754,-2.54717,2.8613,-1.91916,-1.28373,2.77841,-4.72211,-7.95223,-7.74445,27.4036,-12.9528,7.1877,10.5131,-6.27216,2.40936,-5.08889e-14,-3.65764e-14,-27.1458,-2.01137,-77.6204,33.8269,12.9843,-24.5076,4.4706,7.12502,1.98709,-25.4999,-5.08889e-14,-3.65764e-14,-30.5279,26.8629,75.2643,21.2438,-8.11493,-23.0707,24.2924,7.12502,3.3748,54.2454,-15.8717,17.4461,18.7786,27.8009,-14.2762,-12.5609,8.28925,-7.41806,14.9743,-19.0261,53.5418,9.7316,16.601,-4.44704
7.32019,18.8794,5.5818,-6.12255,-59.9562,10.5979,5.71846,-1.88775,0.836292,1.17419,-2.43404,2.87572,-1.90384,-1.22921,2.66787,-4.81994,-7.85082,-7.85938,27.5003,-12.8413,7.31258,10.5752,-6.21963,2.48088,1.96797e-14,1.74931e-14,-26.8817,-2.25118,-77.5688,33.9467,13.6533,-24.2472,4.94556,7.12502,2.2386,-25.0224,1.96797e-14,1.74931e-14,-30.6763,27.2397,74.9662,20.9914,-8.41243,-23.1727,24.1965,7.12502,3.2763,54.1511,-15.5136,17.7198,19.2628,27.8383,-14.4009,-11.9597,8.50776,-8.0001,14.8119,-18.7319,54.6946,9.19117,15.5056,-4.00178
7.23667,18.8673,5.60213,-5.87323,-60.8944,10.0619,5.79003,-1.81979,1.24313,1.21103,-2.31988,2.92001,-1.92455,-1.17529,2.47934,-4.95498,-7.83945,-7.8183,27.6478,-12.8247,7.21787,10.6453,-6.21522,2.43524,4.07509e-14,1.11319e-14,-26.6717,-2.36259,-77.5211,34.0826,14.115,-23.9886,5.61447,7.12502,2.48835,-24.3508,4.07509e-14,1.11319e-14,-30.8292,27.6667,74.6436,20.731,-8.69083,-23.0098,24.4119,7.12502,3.43364,54.364,-15.0491,17.9132,19.9227,27.8625,-14.6376,-11.2582,8.62286,-8.52089,14.6967,-18.2795,55.7628,8.80197,13.9769,-6.01515
7.16126,18.8564,5.61861,-5.64419,-61.7985,9.53743,6.01817,-1.76481,1.65498,1.20395,-2.21513,2.93631,-2.07743,-1.12571,2.2667,-5.12012,-7.89639,-7.8229,27.8865,-12.9204,7.14445,10.7717,-6.26333,2.38764,4.96962e-14,-3.18055e-15,-26.5368,-2.13546,-77.6654,34.3233,14.0436,-24.5487,5.10705,7.12502,1.94745,-24.8638,4.96962e-14,-3.18055e-15,-31.0327,28.0337,74.306,20.4768,-9.00308,-22.9624,24.5797,7.12502,3.47943,54.531,-14.6132,17.9177,20.5499,27.9156,-14.7838,-10.3654,9.01254,-9.03147,14.4355,-17.9061,56.7016,8.17801,12.6869,-8.80655
7.08129,18.8486,5.63475,-5.6491,-62.859,9.35772,6.11066,-1.66576,1.81217,1.1881,-2.07022,2.96326,-2.1537,-1.05492,2.19914,-5.18165,-7.84266,-7.93357,28.0839,-12.8834,7.20759,10.868,-6.25287,2.42844,-5.04913e-14,3.81667e-14,-26.4039,-1.65751,-77.8696,34.5748,13.9808,-25.5485,3.91535,7.12502,0.981856,-26.0621,-5.04913e-14,3.81667e-14,-31.327,28.3176,74.0942,20.3229,-9.25187,-23.3059,24.8122,7.12502,3.1477,54.7687,-14.3053,18.2043,20.971,28.0313,-14.9968,-9.54499,9.89484,-9.57467,14.2414,-17.7213,57.5057,7.3741,11.7919,-10.1196
7.00083,18.8409,5.6483,-6.14605,-63.9015,9.76442,6.16667,-1.62497,1.61205,1.18636,-2.02702,2.97443,-2.18049,-1.0324,2.3215,-5.25612,-7.72516,-8.0478,28.1716,-12.7302,7.25634,10.9131,-6.19157,2.48028,-5.9039e-14,2.70347e-14,-26.0797,-1.27299,-77.9826,34.6575,13.9278,-25.6657,3.69385,7.12502,0.868664,-26.2841,-5.9039e-14,2.70347e-14,-31.7003,28.693,73.8887,20.2968,-9.52819,-23.6274,25.0234,7.12502,2.83718,54.9842,-14.0683,18.7312,21.0846,28.1769,-15.2602,-8.92143,10.4425,-10.1481,14.0245,-17.8258,58.1967,6.53965,11.1747,-10.1974
6.91835,18.8308,5.66226,-6.62666,-65.0164,10.2427,6.05874,-1.59158,1.43688,1.18258,-1.99762,2.97269,-2.1191,-1.01683,2.4119,-5.32187,-7.68335,-8.1227,28.2408,-12.6596,7.19599,10.9466,-6.17541,2.47601,6.16232e-14,-3.65764e-14,-25.6432,-1.13212,-78.0645,34.6197,13.5893,-24.6196,4.67827,7.12502,1.87895,-25.2932,6.16232e-14,-3.65764e-14,-32.0817,29.0994,73.6621,20.2346,-9.9514,-23.9817,25.1185,7.12502,2.49506,55.0837,-13.9461,19.1579,21.1694,28.3451,-15.3638,-8.20962,10.8179,-10.7853,13.8332,-17.9536,58.795,5.83504,10.5571,-10.0234
6.83887,18.818,5.67562,-6.5283,-66.1906,10.199,5.83258,-1.48556,1.52975,1.14695,-1.85719,3.00189,-2.03582,-0.947616,2.37247,-5.396,-7.66383,-8.04687,28.4121,-12.6161,6.99213,11.002,-6.17052,2.39142,4.13472e-14,-3.18055e-15,-25.324,-1.04165,-78.1689,34.7234,13.1777,-23.1529,5.25411,7.12502,3.29549,-24.7002,4.13472e-14,-3.18055e-15,-32.3695,29.5604,73.3808,20.0829,-10.3679,-23.9225,25.095,7.12502,2.55225,55.0595,-13.9573,19.4425,21.474,28.538,-15.3904,-7.37482,10.8353,-11.5541,13.6459,-17.851,59.3346,5.12722,10.0828,-8.57503
6.76194,18.8056,5.69331,-6.69825,-67.318,10.3124,5.69364,-1.32999,1.62777,1.18766,-1.65211,2.91265,-1.92771,-0.845968,2.20504,-5.44167,-7.64926,-7.73556,28.4573,-12.6139,6.84482,10.9941,-6.15562,2.28552,-6.7388e-14,7.95139e-15,-25.0673,-1.15979,-78.3107,34.8543,13.2524,-22.7505,5.00518,7.12502,3.68405,-24.9427,-6.7388e-14,7.95139e-15,-32.4235,29.852,73.0445,19.8953,-10.5435,-23.8266,24.8113,7.12502,2.64484,54.7746,-13.8195,19.7031,21.7322,28.7384,-15.4513,-6.53931,10.7351,-12.1554,13.3929,-17.8345,59.7699,4.43091,9.74394,-7.8583
6.6806,18.7981,5.7184,-7.85887,-68.4438,11.2738,5.72834,-1.16627,1.50756,1.2583,-1.44474,2.71745,-1.88183,-0.741476,2.05556,-5.34448,-7.61689,-7.5939,28.4085,-12.6046,6.85482,10.9455,-6.14458,2.27157,2.46493e-14,7.95139e-15,-24.9035,-1.44699,-78.4133,34.9331,13.6291,-23.8094,3.97232,7.12502,2.66143,-25.9908,2.46493e-14,7.95139e-15,-32.5565,29.6801,72.8958,19.8543,-9.97449,-23.3633,24.3154,7.12502,3.09222,54.2728,-13.4189,20.0297,21.7177,28.9418,-15.6108,-5.71255,11.0773,-12.4448,13.083,-18.1747,60.0651,3.80334,9.38321,-8.7484
6.59923,18.7912,5.74209,-9.09264,-69.5955,12.3747,5.70465,-0.997566,1.36167,1.30194,-1.23252,2.55527,-1.82939,-0.634464,1.95349,-5.25716,-7.5863,-7.62457,28.4061,-12.6053,6.9548,10.9368,-6.14591,2.31565,-2.44505e-14,-7.95139e-15,-24.8007,-1.67063,-78.545,35.0215,13.6481,-24.8228,3.34276,7.12502,1.6827,-26.6304,-2.44505e-14,-7.95139e-15,-32.7784,29.4019,72.8531,19.9129,-9.06317,-21.8708,23.7748,7.12502,4.53353,53.7063,-13.1268,20.2618,21.6562,29.1533,-15.7541,-4.7866,11.504,-12.8097,12.75,-18.5555,60.273,3.1877,9.07634,-10.0539
6.52723,18.78,5.75358,-10.0252,-70.6588,13.1843,5.78117,-0.893719,1.15156,1.34906,-1.10718,2.47849,-1.82416,-0.571137,1.98421,-5.38302,-7.55324,-7.54999,28.5045,-12.5793,6.93162,10.9896,-6.12837,2.29168,3.12092e-14,7.95139e-15,-24.4668,-1.72498,-78.7016,34.9049,13.3299,-24.9466,4.46096,7.12502,1.56319,-25.5131,3.12092e-14,7.95139e-15,-32.9644,29.504,72.7035,19.9619,-8.78691,-20.9286,23.6666,7.12502,5.44324,53.5767,-12.8912,20.5209,21.7609,29.3669,-15.8354,-4.09564,10.8608,-13.3001,12.4433,-18.7136,60.4337,2.70659,8.69286,-11.5709
6.4554,18.7689,5.7752,-10.7655,-71.7684,13.8126,5.7939,-0.790723,1.21341,1.389,-0.969334,2.34752,-1.79699,-0.502539,1.80414,-5.43664,-7.50225,-7.39784,28.5018,-12.5532,6.98555,10.9893,-6.09851,2.28668,-2.54444e-14,1.74931e-14,-24.1546,-1.81592,-78.8689,34.9029,12.9082,-24.4159,4.98754,7.12502,2.07571,-24.9821,-2.54444e-14,1.74931e-14,-33.0204,29.0708,72.785,20.077,-8.70401,-20.8997,24.3478,7.12502,5.4712,54.2572,-12.6726,20.8101,21.9139,29.5727,-15.917,-3.38932,10.6793,-13.8055,12.0488,-18.8109,60.5586,2.10441,8.4894,-10.5461
6.38236,18.7588,5.79864,-11.4105,-72.869,14.3302,5.8641,-0.669551,1.42902,1.37719,-0.794939,2.20897,-1.85701,-0.416122,1.52886,-5.39228,-7.47224,-7.27782,28.4697,-12.5624,7.05842,10.9654,-6.09002,2.29359,-3.75703e-14,-9.54166e-15,-24.0828,-1.87083,-79.0224,35.089,12.7797,-24.1377,4.30273,7.12502,2.34441,-25.6641,-3.75703e-14,-9.54166e-15,-33.1791,28.6141,72.8653,20.2132,-8.67851,-21.0195,24.7067,7.12502,5.35552,54.619,-12.436,21.0453,22.1234,29.7511,-16.0144,-2.61076,10.8934,-14.2867,11.4664,-18.8734,60.6598,1.30295,8.40038,-9.36994
6.30905,18.7506,5.81907,-12.5067,-74.0013,15.3073,6.0042,-0.493683,1.52711,1.3776,-0.553636,2.00684,-1.94145,-0.295871,1.2494,-5.45513,-7.5418,-6.96892,28.4111,-12.6882,6.98987,10.9393,-6.12474,2.19896,2.68359e-14,2.8625e-14,-24.0385,-1.80138,-79.3223,35.2968,12.7879,-24.8399,2.47473,7.12502,1.66617,-27.4985,2.68359e-14,2.8625e-14,-33.2425,28.0219,72.9489,20.3289,-8.35839,-21.1808,24.8023,7.12502,5.19982,54.7185,-12.1871,21.2038,22.2385,29.8835,-16.055,-1.78202,10.6225,-14.7638,10.9294,-19.0277,60.718,0.453903,8.28733,-10.4024
6.23399,18.7425,5.83797,-13.3238,-75.152,15.9762,6.09558,-0.316586,1.65028,1.42729,-0.312172,1.85768,-1.94518,-0.176114,1.00878,-5.6519,-7.68357,-6.60926,28.4198,-12.8873,6.78883,10.9575,-6.19487,2.03266,5.56597e-15,-2.54444e-14,-23.9344,-1.99833,-79.5298,35.5104,13.1672,-25.4596,1.56521,7.12502,1.0677,-28.4119,5.56597e-15,-2.54444e-14,-33.2298,27.5277,73.0124,20.4161,-8.10404,-21.4818,24.5751,7.12502,4.90914,54.4982,-11.9174,21.491,22.4936,30.0575,-16.2684,-1.09185,10.6431,-15.2481,10.5255,-18.9965,60.7372,-0.286801,8.0796,-11.627
6.15621,18.7328,5.85647,-13.784,-76.2637,16.2031,6.15928,-0.308469,1.78549,1.49241,-0.294562,1.89334,-1.91415,-0.168785,0.968446,-5.67,-7.62211,-6.55029,28.3548,-12.7445,6.58438,10.9041,-6.14905,1.96799,1.39149e-15,6.36111e-15,-23.7456,-1.73194,-79.4842,35.3795,13.6455,-25.44,4.0798,7.12502,1.08662,-25.8972,1.39149e-15,6.36111e-15,-33.5329,27.7179,72.8782,20.5421,-8.07121,-21.7392,24.4458,7.12502,4.66057,54.3746,-11.5299,21.9174,22.927,30.2644,-16.2665,-0.623485,11.6632,-15.6557,10.0181,-18.8123,60.6903,-1.00998,7.94385,-12.3509
6.08537,18.7226,5.87872,-16.0902,-77.1572,18.5242,6.11284,-0.447305,1.41092,1.42883,-0.500749,1.92759,-1.9496,-0.269755,1.22976,-5.49343,-7.32616,-6.86729,28.2426,-12.2414,6.47996,10.7989,-5.97594,2.05583,1.35174e-14,2.38542e-14,-23.6471,-0.134985,-79.5797,35.5349,12.8337,-25.4969,4.21103,7.12502,1.03168,-25.7662,1.35174e-14,2.38542e-14,-34.1439,28.2157,72.6949,20.7222,-8.1334,-21.6492,24.621,7.12502,4.74754,54.5479,-11.3348,22.0562,22.6774,30.3354,-16.2053,0.0850169,11.5372,-16.273,9.32126,-19.2668,60.6059,-1.81539,8.01429,-11.9468
6.01908,18.715,5.89957,-18.6691,-78.083,21.1608,6.10615,-0.45655,1.10793,1.37465,-0.530281,1.88435,-1.9991,-0.282509,1.35791,-5.42436,-7.1353,-7.10061,28.1296,-11.9609,6.59428,10.7423,-5.86745,2.17375,7.15625e-15,1.59028e-14,-23.4361,-0.0934095,-79.3645,35.3588,13.4055,-24.3904,6.65144,7.12502,2.10031,-23.318,7.15625e-15,1.59028e-14,-34.432,28.1518,72.7801,20.8587,-8.05899,-21.7615,24.7289,7.12502,4.63911,54.6581,-11.2692,21.9974,22.3994,30.4739,-16.166,1.13922,11.9575,-16.929,8.63243,-19.6682,60.4359,-2.6931,8.13546,-11.6815
5.94928,18.7003,5.91026,-14.9572,-79.6663,17.0459,6.45406,-0.362821,2.26323,1.44499,-0.326058,2.12422,-2.12815,-0.190611,0.943747,-5.38507,-7.07697,-7.12267,27.9715,-11.9163,6.77681,10.6846,-5.83664,2.24998,-1.37161e-14,9.54166e-15,-23.2814,-0.0898468,-79.547,35.469,13.2522,-24.4273,6.34325,7.12502,2.06468,-23.6265,-1.37161e-14,9.54166e-15,-34.5368,27.7723,72.8247,21.0132,-7.76203,-21.6797,24.758,7.12502,4.71802,54.6854,-10.8241,22.4186,23.9925,30.6553,-16.0287,1.83091,12.1255,-17.2906,8.29733,-18.1873,60.3034,-3.47021,7.93856,-11.5159
5.87303,18.6945,5.91605,-19.8591,-80.6545,22.058,6.29496,-0.24791,1.55918,1.45964,-0.225254,1.90282,-2.02297,-0.134578,1.10097,-5.30085,-6.99656,-7.13942,27.7374,-11.8307,6.95936,10.5857,-5.78829,2.33265,3.02153e-14,1.74931e-14,-23.1201,0.393671,-79.9025,35.6428,12.4514,-25.2818,5.39957,7.12502,1.23942,-24.5766,3.02153e-14,1.74931e-14,-34.6341,27.6925,72.7,21.0887,-7.52539,-21.4082,24.6292,7.12502,4.98016,54.5506,-10.857,22.9419,23.4845,30.9673,-15.9766,2.39529,12.0827,-17.8721,7.68897,-18.7936,59.8413,-4.12361,8.10463,-11.5042
5.80806,18.6899,5.93255,-28.1648,-81.4725,30.2658,6.44976,-0.10521,0.592902,1.53564,-0.0995758,1.63816,-2.03115,-0.0665935,1.36139,-5.30727,-6.90546,-6.99305,27.5678,-11.6766,6.87307,10.4941,-5.71516,2.2975,1.05356e-14,-1.74931e-14,-22.9198,1.09969,-80.1776,35.887,11.4992,-26.0529,3.88678,7.12502,0.494605,-26.0924,1.05356e-14,-1.74931e-14,-34.6694,27.7103,72.7176,21.1319,-7.40958,-21.695,24.5036,7.12502,4.70331,54.4314,-10.6683,23.31,22.6562,31.2964,-16.0001,3.23716,12.4455,-18.1474,7.00108,-19.7715,59.2382,-4.61944,8.42341,-11.7186
5.74692,18.6868,5.95688,-39.0408,-82.0073,40.8657,6.89328,0.0141332,-0.416399,1.6144,-0.0132168,1.32879,-2.19869,-0.0185975,1.60431,-5.28631,-6.82147,-6.96205,27.3919,-11.541,6.86308,10.4097,-5.65557,2.3069,-2.84262e-14,-2.8625e-14,-22.7594,1.92842,-80.4373,36.1526,10.7217,-26.606,1.94756,7.12502,-0.0395733,-28.0322,-2.84262e-14,-2.8625e-14,-34.6696,27.4401,72.88,21.1178,-7.03034,-21.9049,24.5332,7.12502,4.50064,54.4654,-10.3474,23.4347,21.6943,31.7366,-16.1159,4.28916,12.5421,-18.1208,6.32202,-20.8945,58.4633,-5.12058,8.82586,-11.5213
5.67782,18.6873,5.9797,-48.286,-82.5503,49.9235,7.14806,0.096181,-0.949518,1.65577,0.0517877,1.14836,-2.30015,0.0164125,1.71307,-5.34739,-6.73048,-7.08326,27.3456,-11.4178,6.95962,10.4074,-5.6033,2.37326,-6.55989e-15,1.74931e-14,-22.6093,2.27272,-80.543,36.1592,10.7673,-26.5854,1.7865,7.12502,-0.0196771,-28.1932,-6.55989e-15,1.74931e-14,-34.6498,26.9044,73.0775,21.0222,-6.38624,-21.557,24.4751,7.12502,4.8365,54.3999,-10.056,23.4599,21.221,32.011,-16.1352,5.27119,12.2933,-18.2569,5.74817,-21.4632,57.7365,-5.80489,9.24952,-10.8432
5.60741,18.686,5.9979,-56.1549,-83.6859,57.734,7.20677,0.262854,-0.620072,1.67002,0.295645,1.13068,-2.32538,0.135616,1.4874,-5.32722,-6.64837,-7.07006,27.2333,-11.3225,7.05429,10.3583,-5.55369,2.41706,9.34288e-15,3.33958e-14,-22.4013,1.75918,-80.5242,35.8578,11.8514,-25.7039,3.59781,7.12502,0.831763,-26.3803,9.34288e-15,3.33958e-14,-34.7481,26.4795,73.0814,21.1353,-5.90771,-21.2384,24.3386,7.12502,5.14415,54.2562,-9.83914,24.0114,21.6368,32.0659,-16.0308,5.95531,12.5257,-18.6498,5.43134,-21.0459,57.1099,-6.50914,9.58297,-10.9189
5.53235,18.6841,6.02022,-68.2302,-84.9725,69.713,7.24657,0.447081,-0.00668404,1.71728,0.584176,1.19126,-2.30207,0.27459,1.17861,-5.3302,-6.54177,-7.32332,27.1876,-11.2163,7.33966,10.3659,-5.50591,2.57244,1.2921e-14,-2.38542e-15,-22.2036,1.594,-80.5786,35.6579,12.4375,-25.1967,4.60321,7.12502,1.32157,-25.3724,1.2921e-14,-2.38542e-15,-35.0622,27.1984,72.5745,21.2328,-6.63174,-20.9542,24.2537,7.12502,5.41853,54.1645,-9.5403,24.7869,22.2746,31.9654,-15.8556,6.76607,12.7786,-19.0026,5.17633,-20.3772,56.5061,-7.24623,9.95802,-11.1028
5.46387,18.6842,6.04255,-82.4681,-85.6891,83.7681,7.47775,0.489403,0.359929,1.75759,0.667744,1.27485,-2.38755,0.312651,1.04978,-5.362,-6.43382,-7.93896,27.2512,-11.1296,7.8314,10.4564,-5.48206,2.85845,-2.18663e-15,-1.66979e-14,-22.0559,1.89784,-80.6534,35.6405,12.3821,-25.2746,4.45504,7.12502,1.24633,-25.5211,-2.18663e-15,-1.66979e-14,-35.3463,28.0263,72.1343,21.1976,-7.43861,-20.7126,24.1282,7.12502,5.65188,54.0328,-9.08343,25.0234,22.7348,31.7878,-15.6052,7.71879,13.4888,-19.2649,4.62837,-19.8781,55.8427,-8.06451,10.292,-9.73014
5.40357,18.6807,6.05798,-98.8581,-85.7889,100.034,7.76227,0.57539,0.351289,1.78923,0.781084,1.26708,-2.51488,0.367875,1.03379,-5.49376,-6.35637,-8.22768,27.284,-11.0536,8.09906,10.521,-5.44812,3.0066,-1.59028e-15,6.36111e-15,-21.8753,1.9236,-80.6993,35.5518,12.6308,-25.1924,4.89538,7.12502,1.32571,-25.0802,-1.59028e-15,6.36111e-15,-35.3434,28.1475,72.1003,21.2018,-7.33497,-20.7772,23.9909,7.12502,5.58944,53.8972,-8.68787,25.044,22.9246,31.6282,-15.385,8.73061,14.8405,-19.5296,4.23272,-19.6076,55.0406,-8.41934,10.3911,-10.5565
5.33291,18.6796,6.07755,-115.895,-85.4074,117.07,7.75702,0.716307,0.308001,1.86458,0.96045,1.21578,-2.43686,0.456296,0.988108,-5.56806,-6.30305,-8.27196,27.1089,-10.9731,8.21196,10.4714,-5.40314,3.06099,-3.57812e-15,-1.43125e-14,-21.6121,1.94726,-80.7941,35.359,12.8508,-25.5511,5.34151,7.12502,0.979274,-24.636,-3.57812e-15,-1.43125e-14,-35.2536,28.1785,72.172,21.2084,-7.2517,-21.4416,24.1465,7.12502,4.94798,54.0687,-8.4666,25.3122,22.9101,31.488,-15.1821,9.69915,16.5687,-19.8474,3.79727,-19.4991,54.1057,-8.4664,10.6249,-12.4939
5.256,18.6842,6.10066,-129.17,-84.7258,130.37,7.67945,0.796319,0.399591,1.92605,1.06799,1.09434,-2.32797,0.50876,0.802373,-5.60954,-6.24374,-8.19131,26.957,-10.877,8.20284,10.4074,-5.35319,3.05378,-2.98177e-15,2.14687e-14,-21.3659,2.19289,-81.0759,35.2062,12.4895,-25.9625,5.07727,7.12502,0.581985,-24.9017,-2.98177e-15,2.14687e-14,-35.2176,28.2968,72.0419,21.1515,-7.34865,-21.6367,24.1971,7.12502,4.7596,54.1236,-8.24434,25.7083,22.8594,31.3279,-14.9229,10.5447,18.1291,-20.1542,3.22758,-19.3835,53.1004,-8.76019,10.9654,-12.3258
5.17647,18.6906,6.12538,-139.273,-83.8352,140.467,7.66212,0.847211,0.507433,1.94558,1.1404,1.0023,-2.295,0.544009,0.640441,-5.7319,-6.09101,-8.18199,27.0559,-10.6676,8.17997,10.4444,-5.25967,3.06588,6.16232e-15,3.97569e-15,-21.2022,2.3722,-81.2958,35.0609,12.2745,-25.7376,5.25525,7.12502,0.799182,-24.723,6.16232e-15,3.97569e-15,-35.2971,28.4729,71.8246,21.0431,-7.44474,-21.3146,24.1045,7.12502,5.07055,54.0238,-7.93015,26.1423,22.8397,31.1166,-14.6718,11.0215,18.765,-20.3986,2.69023,-19.2438,52.0819,-9.19604,11.3727,-12.9068
5.10528,18.6989,6.15061,-149.569,-83.0128,150.849,7.70702,0.856509,0.976683,1.92091,1.18972,1.04753,-2.33696,0.565687,0.418131,-5.84791,-5.90836,-8.06305,27.0992,-10.411,8.11051,10.4455,-5.13867,3.04889,-1.86858e-14,1.74931e-14,-21.0391,2.46906,-81.5326,34.9148,12.4753,-25.5722,5.18212,7.12502,0.958879,-24.7955,-1.86858e-14,1.74931e-14,-35.5301,28.7044,71.5473,21.0754,-7.5418,-21.3974,24.1659,7.12502,4.99067,54.0871,-7.73927,26.4697,23.2107,30.8458,-14.4127,11.3157,18.6179,-20.7937,2.2144,-18.5882,51.0782,-9.40937,11.5785,-14.8042
5.04796,18.7031,6.16884,-158.253,-82.1087,159.803,7.74316,0.812735,1.4892,1.82038,1.17627,1.13484,-2.45197,0.55557,0.220477,-5.87281,-5.68403,-7.82211,27.0495,-10.1119,8.04866,10.3841,-4.98956,3.0218,7.85199e-15,-1.27222e-14,-20.8983,2.9893,-81.9159,34.8224,12.3354,-25.8225,4.8796,7.12502,0.71714,-25.0989,7.85199e-15,-1.27222e-14,-35.8986,29.3021,71.0114,21.147,-8.02991,-21.3095,24.2462,7.12502,5.07549,54.1654,-7.84386,26.8547,23.665,30.5625,-13.9846,11.8929,19.1779,-21.4582,1.72118,-17.7038,50.0257,-9.47337,11.7074,-16.1779
4.98185,18.71,6.18578,-161.479,-80.9408,163.249,7.68343,0.838108,1.39625,1.75291,1.20403,1.13193,-2.49018,0.570173,0.267258,-5.82334,-5.52438,-7.66725,26.9405,-9.86529,7.91084,10.2935,-4.88095,2.97724,-2.88238e-14,3.18055e-15,-20.7862,3.50309,-82.1185,34.6999,12.0759,-25.8144,4.92989,7.12502,0.725051,-25.0486,-2.88238e-14,3.18055e-15,-36.117,29.6205,70.7621,21.1666,-8.35259,-21.1247,24.2679,7.12502,5.25398,54.1828,-7.88939,27.2775,23.5468,30.3183,-13.5411,12.7081,20.1737,-21.9438,0.909514,-17.4191,48.8179,-9.79884,11.9457,-15.4257
4.90698,18.7207,6.21416,-162.036,-79.5787,163.728,7.76075,0.954301,1.136,1.84295,1.3318,0.969349,-2.44174,0.634793,0.232937,-5.93179,-5.44095,-7.73837,26.8886,-9.7291,7.936,10.2873,-4.8209,3.01087,-6.55989e-15,3.18055e-15,-20.5982,3.55527,-82.1869,34.5789,12.1631,-25.5085,5.02094,7.12502,1.0205,-24.9564,-6.55989e-15,3.18055e-15,-35.9835,29.5614,70.8799,21.1128,-8.22725,-21.2229,24.0656,7.12502,5.15909,53.9828,-7.60255,27.3847,23.0883,30.1277,-13.1001,13.7034,20.8185,-21.9384,0.0224126,-17.5854,47.4451,-10.3289,11.9705,-13.8845
4.84049,18.7313,6.24778,-162.199,-78.1358,163.667,8.06857,1.05726,0.82109,1.97776,1.43515,0.73412,-2.47492,0.685792,0.152871,-6.04672,-5.34409,-7.76699,26.7774,-9.56675,7.95342,10.2552,-4.74437,3.03736,-5.48646e-14,-3.97569e-15,-20.3696,3.51066,-82.3321,34.5069,12.4249,-25.342,4.66527,7.12502,1.18126,-25.3112,-5.48646e-14,-3.97569e-15,-35.8378,29.6334,70.8422,20.9995,-8.20795,-21.5226,23.6716,7.12502,4.8697,53.5956,-7.17761,27.4377,22.5045,29.9243,-12.7411,14.839,21.3223,-21.7872,-0.36285,-17.8788,45.9593,-10.4329,11.728,-13.5757
4.77541,18.7402,6.26715,-163.792,-76.9122,165.292,8.13857,1.10888,0.698627,2.03869,1.48895,0.653931,-2.45172,0.712132,0.132893,-6.12949,-5.2319,-7.5153,26.6588,-9.36794,7.74724,10.1848,-4.64771,2.94184,-1.64991e-14,1.66979e-14,-20.1632,3.69636,-82.519,34.4218,12.4161,-25.592,4.4034,7.12502,0.939841,-25.5743,-1.64991e-14,1.66979e-14,-35.6823,29.4757,70.7689,20.8966,-8.08415,-21.6705,23.699,7.12502,4.72697,53.6263,-6.99685,27.6296,22.3139,29.7057,-12.55,15.7073,21.0703,-21.9181,-0.518338,-17.6497,44.442,-10.3278,11.4543,-14.0003
4.70187,18.7497,6.2775,-165.836,-75.7843,167.494,8.02669,1.10301,0.647421,2.08629,1.47514,0.723986,-2.34373,0.705047,0.238021,-6.27358,-5.06545,-7.42475,26.5806,-9.08092,7.59478,10.145,-4.51872,2.90191,2.17669e-14,5.56597e-15,-19.9381,3.96599,-82.6611,34.3072,12.6363,-25.6548,4.27871,7.12502,0.879117,-25.6992,2.17669e-14,5.56597e-15,-35.5653,29.2076,70.851,20.8872,-7.69843,-21.6107,23.9243,7.12502,4.78472,53.8503,-6.86743,27.8789,22.3994,29.4577,-12.406,16.2703,20.0743,-22.0902,-1.00518,-17.1297,42.9294,-10.351,11.3582,-15.6492
4.62566,18.7669,6.29147,-166.895,-74.6434,168.803,7.79105,1.02368,0.408999,2.14463,1.35028,0.893757,-2.16254,0.643228,0.563884,-6.58039,-4.87038,-7.7945,26.5809,-8.68484,7.49966,10.1816,-4.37119,2.96984,-1.61016e-14,1.51076e-14,-19.6314,4.38464,-82.6645,34.1889,12.9955,-25.128,4.40143,7.12502,1.3879,-25.5738,-1.61016e-14,1.51076e-14,-35.6368,29.673,70.8953,20.9443,-7.52457,-21.4926,23.9001,7.12502,4.89868,53.8235,-6.83859,28.1066,22.246,29.1409,-12.0099,16.8321,19.5385,-22.3358,-1.63331,-16.7479,41.3965,-10.4959,11.2364,-15.9776
4.55322,18.7781,6.30694,-167.92,-73.5636,170.233,7.45257,1.0229,0.382549,2.12102,1.34829,0.991711,-2.00206,0.643147,0.685429,-6.70713,-4.74786,-7.96603,26.5351,-8.43759,7.40316,10.1701,-4.28016,2.99054,-5.36719e-15,1.11319e-14,-19.458,4.39454,-82.6395,34.097,13.3745,-24.6876,4.60899,7.12502,1.81328,-25.3631,-5.36719e-15,1.11319e-14,-35.6315,29.8493,70.9707,20.9968,-7.34263,-21.7355,23.8344,7.12502,4.66418,53.7631,-7.11875,28.0365,22.0892,28.9452,-11.568,17.5297,18.338,-22.7698,-2.2317,-16.2266,39.7068,-10.3794,11.1409,-14.8045
4.48069,18.7778,6.32963,-168.967,-72.5198,171.483,7.46318,1.10312,0.64112,2.00881,1.47604,0.881689,-2.11529,0.707338,0.414028,-6.59109,-4.65527,-7.8543,26.5035,-8.35665,7.45308,10.1248,-4.23614,3.00126,-9.93923e-15,1.03368e-14,-19.6203,4.08771,-82.7413,34.0378,13.4445,-25.3136,4.18019,7.12502,1.20865,-25.7961,-9.93923e-15,1.03368e-14,-35.6007,29.2701,70.9634,21.0715,-6.94376,-21.5638,23.9864,7.12502,4.82994,53.9114,-7.16525,27.6278,22.09,28.7069,-11.5316,18.2513,15.5473,-22.9581,-3.06376,-15.7157,37.9389,-10.1836,11.1585,-14.9912
4.40522,18.8129,6.36044,-169.327,-71.3324,171.869,7.73395,1.2285,0.793826,1.88616,1.65578,0.656835,-2.38161,0.796218,0.0727748,-6.5452,-4.59191,-7.76217,26.6163,-8.35735,7.58928,10.1583,-4.22386,3.03516,3.97569e-15,1.59028e-15,-19.912,3.98583,-82.8976,34.0528,13.1938,-26.5289,3.56469,7.12502,0.0349271,-26.4151,3.97569e-15,1.59028e-15,-35.6386,28.6198,70.886,21.1365,-6.78548,-21.2336,23.9495,7.12502,5.14878,53.8669,-6.84314,29.2767,21.504,28.4502,-10.0677,18.6952,22.1162,-22.7789,-4.06797,-15.4736,36.0615,-9.98893,11.138,-15.1684
4.32545,18.8168,6.38153,-169.28,-70.4732,171.771,7.86805,1.22917,0.596207,1.85925,1.63944,0.530989,-2.48585,0.788648,0.0521404,-6.52382,-4.55764,-7.65876,26.592,-8.35077,7.63822,10.1416,-4.21132,3.03546,2.13694e-14,-6.36111e-15,-20.1134,4.22695,-83.0196,34.1384,12.804,-26.8025,4.18401,7.12502,-0.229353,-25.7956,2.13694e-14,-6.36111e-15,-35.6466,28.4032,70.7822,21.0362,-7.29618,-21.3992,23.9206,7.12502,4.98894,53.8418,-6.51211,28.6357,21.2458,28.0538,-9.81096,19.4597,21.3848,-22.6115,-5.08048,-15.2576,34.2371,-9.59701,10.5553,-14.4021
4.24369,18.8242,6.40047,-170.806,-69.5578,173.196,8.13655,1.22268,0.904641,1.8929,1.65396,0.506258,-2.59045,0.79194,-0.153351,-6.44028,-4.47713,-7.45512,26.4339,-8.29171,7.73166,10.0564,-4.16147,3.04141,2.8128e-14,-5.56597e-15,-20.2244,4.25064,-83.2063,34.1754,12.7512,-25.7441,6.0129,7.12502,0.792882,-23.9654,2.8128e-14,-5.56597e-15,-35.6174,28.3699,70.5614,20.9027,-7.76957,-21.3747,23.8171,7.12502,5.01253,53.7378,-5.96988,28.4844,21.5629,27.6179,-9.33906,20.0508,21.5816,-22.2416,-6.15944,-14.4192,32.4073,-9.39438,10.0011,-12.9122
4.15831,18.838,6.41594,-172.499,-68.4653,174.842,8.36278,1.29364,1.32792,1.91414,1.78328,0.5027,-2.67958,0.851534,-0.412687,-6.43043,-4.39683,-7.20501,26.4025,-8.20755,7.6666,10.021,-4.10987,2.98481,1.0635e-14,-1.11319e-14,-20.3852,3.92578,-83.3096,34.2041,13.0345,-24.9616,6.70383,7.12502,1.54869,-23.2703,1.0635e-14,-1.11319e-14,-35.5771,28.088,70.4283,20.8642,-7.70893,-21.1711,23.4862,7.12502,5.20913,53.4021,-5.34038,29.1202,21.9504,27.0442,-8.57483,20.3034,22.8305,-21.8751,-7.29171,-13.415,30.656,-9.41846,9.56192,-11.7623
4.07455,18.8384,6.42725,-173.074,-67.2393,175.496,8.38906,1.41674,1.23438,1.88386,1.93967,0.501482,-2.72613,0.929451,-0.378959,-6.35707,-4.34149,-7.06389,26.3092,-8.10753,7.50242,9.95055,-4.07148,2.91474,1.53064e-14,2.38542e-15,-20.5728,3.59581,-83.2849,34.2578,13.3062,-24.8191,5.51416,7.12502,1.68628,-24.4589,1.53064e-14,2.38542e-15,-35.5965,27.7086,70.4474,20.935,-7.47083,-21.5269,23.4042,7.12502,4.86559,53.3283,-5.0059,28.9651,22.0194,26.5281,-8.5655,20.8847,20.5749,-21.6825,-8.13498,-12.8083,28.9007,-9.01444,9.06173,-12.4672
3.99142,18.8446,6.4416,-173.36,-66.1213,175.937,8.31611,1.49128,1.1362,1.84839,2.02948,0.455591,-2.72282,0.975171,-0.379192,-6.2422,-4.28399,-6.76349,26.1217,-7.99459,7.25017,9.8271,-4.02051,2.78862,-4.84041e-14,2.34566e-14,-20.7102,3.31239,-83.3266,34.3305,13.3919,-24.6137,4.54764,7.12502,1.88469,-25.4238,-4.84041e-14,2.34566e-14,-35.5655,27.1766,70.5101,21.0655,-7.14531,-21.9509,23.7203,7.12502,4.45616,53.6534,-4.82407,29.1706,21.8211,26.1097,-7.97812,21.4207,21.2065,-21.5759,-8.91217,-12.2739,27.1277,-8.40059,8.3402,-12.9895
3.90862,18.8523,6.45101,-174.187,-65.0075,176.846,8.31494,1.53628,1.25529,1.88569,2.09625,0.44039,-2.67773,1.00708,-0.467764,-6.29653,-4.1965,-6.51017,26.0948,-7.88188,7.13917,9.8028,-3.95725,2.71714,-1.19271e-14,1.78906e-14,-20.7914,3.08026,-83.4826,34.3451,13.455,-24.6434,4.50751,7.12502,1.85602,-25.4642,-1.19271e-14,1.78906e-14,-35.4665,26.7742,70.477,21.1927,-6.90017,-21.7133,24.2039,7.12502,4.68565,54.1321,-4.53107,29.5457,21.9208,25.7452,-7.34172,21.7951,21.969,-21.312,-9.95193,-11.4089,25.3616,-8.04966,7.74067,-11.8218
3.82397,18.8525,6.45651,-175.238,-63.6909,177.867,8.37502,1.57055,1.33789,2.05717,2.14191,0.532043,-2.53344,1.02751,-0.422817,-6.52278,-4.06973,-6.67774,26.0329,-7.67892,7.24873,9.81815,-3.86179,2.80163,-7.65321e-15,3.97569e-15,-20.6511,3.50128,-83.616,34.2807,13.134,-25.0989,4.36603,7.12502,1.41603,-25.609,-7.65321e-15,3.97569e-15,-35.3678,26.8603,70.3919,21.3422,-6.76472,-21.3277,24.4518,7.12502,5.0579,54.3714,-4.14942,30.0572,22.2647,25.4742,-6.93874,22.0595,21.9309,-20.819,-10.9696,-10.4629,23.5914,-7.70054,7.34386,-11.9806
3.73121,18.8572,6.5046,-175.257,-62.6754,177.949,8.45792,1.31772,1.46994,2.13217,1.81299,0.535046,-2.50285,0.861708,-0.460893,-6.81927,-3.80744,-6.95574,26.0493,-7.22617,7.20654,9.85173,-3.67533,2.8795,1.51076e-14,1.23246e-14,-20.4329,4.59191,-83.7236,34.2474,12.7037,-25.2967,4.19123,7.12502,1.22496,-25.785,1.51076e-14,1.23246e-14,-35.5307,27.5762,70.1456,21.443,-6.71463,-21.4355,24.5205,7.12502,4.95389,54.4426,-3.99855,29.7413,21.861,25.2034,-6.44827,22.837,22.2351,-20.5662,-12.2525,-10.0521,21.8805,-7.04509,6.91076,-14.7734
3.64274,18.8569,6.5239,-175.316,-61.6258,178.08,8.46231,1.1611,1.17256,2.12421,1.5804,0.583776,-2.52734,0.746864,-0.220016,-6.81899,-3.56264,-6.78856,25.991,-6.8238,6.89946,9.77923,-3.508,2.78712,-2.25621e-14,-8.74653e-15,-20.5072,5.14836,-83.8195,34.2737,12.7188,-25.1624,4.69093,7.12502,1.35469,-25.2845,-2.25621e-14,-8.74653e-15,-35.7677,28.1511,69.8229,21.414,-6.74379,-21.8075,24.3389,7.12502,4.59465,54.2691,-3.83998,29.7937,21.6153,25.0045,-6.16463,23.3422,21.925,-20.318,-13.4853,-9.5119,20.3279,-6.3856,6.39834,-16.3223
3.55408,18.8519,6.51296,-175.693,-60.6661,178.317,8.51985,1.15521,0.733603,2.20192,1.53194,0.628206,-2.49258,0.723251,0.0769467,-6.88058,-3.45383,-6.66855,26.0111,-6.69036,6.86969,9.78163,-3.44113,2.76933,-2.46493e-14,4.37326e-15,-20.6689,4.97701,-83.8458,34.206,13.0487,-24.9892,5.35634,7.12502,1.52204,-24.618,-2.46493e-14,4.37326e-15,-35.8131,28.5113,69.5013,21.3035,-7.09395,-21.6986,23.9399,7.12502,4.69976,53.8678,-3.26777,30.3654,21.8492,24.8345,-6.22124,23.3049,21.3275,-19.8036,-14.681,-8.92357,18.8938,-5.87365,5.89285,-16.2607
3.46757,18.8446,6.53813,-175.887,-59.0978,178.859,8.35551,1.38731,0.82232,2.1425,1.84862,0.61366,-2.45851,0.88157,-0.0176707,-6.98749,-3.42041,-6.82178,26.0318,-6.67906,7.08772,9.82115,-3.42925,2.87158,3.89618e-14,-1.11319e-14,-20.8137,4.91694,-83.7849,34.2253,13.018,-25.2208,5.06556,7.12502,1.29835,-24.9102,3.89618e-14,-1.11319e-14,-35.7117,27.9068,69.6267,21.4245,-6.5514,-21.5873,23.7478,7.12502,4.8073,53.6733,-3.67643,30.5891,21.5371,24.7768,-5.79672,24.1631,21.2287,-19.7853,-15.3607,-8.20798,17.6296,-5.37625,5.8476,-16.6306
3.37295,18.8381,6.54633,-176.371,-58.1353,179.292,8.36612,1.43086,0.825454,2.25492,1.90142,0.680952,-2.35014,0.905898,0.0460784,-6.99039,-3.42277,-6.96653,25.8833,-6.66731,7.18159,9.77553,-3.42745,2.9295,-5.80451e-14,-1.07344e-14,-20.9062,5.11561,-83.6604,34.2864,12.6439,-25.6077,4.25573,7.12502,0.924646,-25.722,-5.80451e-14,-1.07344e-14,-35.5285,26.6503,70.1398,21.6949,-5.27739,-21.5538,23.8951,7.12502,4.83961,53.8198,-3.34373,30.7492,21.705,24.7715,-5.82574,24.3634,20.993,-19.3891,-16.1266,-7.68784,16.554,-4.73295,5.31243,-17.7563
3.27603,18.8351,6.5695,-176.567,-57.1133,179.502,8.39773,1.47384,0.885418,2.30773,1.95948,0.670946,-2.31041,0.933353,-0.00368567,-6.96126,-3.42031,-7.06891,25.6837,-6.64359,7.24919,9.70213,-3.41867,2.97234,-2.55438e-14,-8.74653e-15,-20.9837,4.92006,-83.4978,34.2508,12.678,-25.4881,3.97446,7.12502,1.04013,-26.0028,-2.55438e-14,-8.74653e-15,-35.3611,26.1519,70.3987,21.7321,-4.87858,-21.7223,24.3079,7.12502,4.67695,54.2363,-3.23772,30.8484,21.4668,24.8139,-5.20459,24.7559,21.9975,-19.1334,-16.6087,-7.42393,15.8062,-4.24327,4.91351,-19.1208
3.17505,18.8291,6.58957,-176.765,-56.03,179.69,8.43811,1.47119,0.857175,2.33188,1.9508,0.645958,-2.30793,0.928162,-0.0133808,-7.05638,-3.29845,-7.09476,25.7415,-6.49484,7.31692,9.7309,-3.34825,3.01562,-1.03169e-13,1.70955e-14,-21.1511,4.64682,-83.4433,34.2609,13.3335,-24.9573,3.58639,7.12502,1.55284,-26.3877,-1.03169e-13,1.70955e-14,-35.3641,26.5331,70.1059,21.5652,-5.25261,-22.3183,24.5424,7.12502,4.10144,54.4827,-3.10339,31.122,21.2588,24.8861,-4.47772,25.0396,23.3476,-18.8324,-16.7418,-7.30558,15.2744,-3.81993,4.68983,-20.4365
3.07327,18.8127,6.6053,-177.048,-54.9489,179.974,8.43888,1.4789,0.861352,2.36609,1.95815,0.637548,-2.27253,0.930915,-0.0245658,-7.16127,-3.19899,-7.13296,25.8301,-6.39364,7.43057,9.77847,-3.29724,3.07215,2.78299e-14,-1.23246e-14,-21.3697,4.32927,-83.3712,34.387,13.843,-24.5043,2.99341,7.12502,1.99036,-26.977,2.78299e-14,-1.23246e-14,-35.3284,26.5141,70.0061,21.5144,-5.31721,-22.8136,25.213,7.12502,3.62309,55.162,-2.96572,31.2902,21.2772,25.0837,-4.43989,25.2813,22.9009,-18.5363,-16.7064,-7.18441,14.9626,-3.28366,4.51603,-20.5308
2.97241,18.7961,6.62373,-177.083,-53.8697,180.03,8.39216,1.51783,0.739824,2.37184,1.99721,0.581616,-2.24276,0.95071,-0.0166771,-7.08298,-3.14718,-7.0482,25.7485,-6.34758,7.44773,9.72741,-3.27248,3.06858,-5.76476e-14,-6.36111e-15,-21.6493,4.12944,-83.3148,34.4675,13.5662,-24.85,3.4365,7.12502,1.65645,-26.5368,-5.76476e-14,-6.36111e-15,-35.2658,26.3976,69.977,21.4655,-5.46287,-22.5711,25.2324,7.12502,3.85725,55.1773,-2.97334,31.2682,21.0511,25.3288,-4.61518,25.5891,21.7603,-18.3361,-16.4009,-7.30745,14.9367,-2.77267,4.29406,-18.7182
2.86751,18.7832,6.64367,-177.205,-52.8315,180.079,8.40603,1.48806,0.632332,2.41302,1.94448,0.535612,-2.2102,0.92375,0.00182786,-7.07886,-3.08585,-6.91271,25.7574,-6.26541,7.3211,9.71412,-3.23986,3.00896,1.54058e-14,3.57812e-15,-21.7954,4.2961,-83.3179,34.3759,13.002,-25.0403,3.89236,7.12502,1.47263,-26.0823,1.54058e-14,3.57812e-15,-35.3281,26.9543,69.5594,21.331,-6.06815,-21.7126,24.7197,7.12502,4.68627,54.6478,-2.8446,31.5942,20.8193,25.5875,-4.57144,25.6502,21.6632,-18.0829,-15.7818,-7.61669,15.2493,-2.54955,3.93111,-15.7429
2.75613,18.7713,6.65694,-177.335,-51.953,179.99,8.45609,1.42372,0.478975,2.51027,1.83891,0.488017,-2.1412,0.869421,0.0497102,-7.09797,-3.03245,-6.87235,25.7297,-6.1859,7.26101,9.69778,-3.20837,2.98843,-3.90612e-14,4.77083e-15,-21.8674,4.3157,-83.2158,34.2419,12.7668,-24.6269,3.89821,7.12502,1.8719,-26.0733,-3.90612e-14,4.77083e-15,-35.3512,27.5302,69.1443,21.187,-6.7972,-20.7402,24.2016,7.12502,5.62516,54.1069,-2.47199,32.2292,20.7941,26.0057,-4.88894,25.2083,21.5837,-17.7227,-15.2096,-8.12106,15.8161,-2.49613,3.64192,-14.1356
2.64396,18.755,6.6606,-177.582,-51.2609,180.027,8.46393,1.29969,0.260773,2.5856,1.65176,0.519397,-2.07533,0.774626,0.224246,-6.99361,-2.93516,-6.96895,25.621,-6.06321,7.35702,9.63384,-3.15794,3.05254,-7.96133e-14,3.57812e-15,-22.0023,4.31026,-83.0886,34.0058,12.8171,-24.6039,3.92595,7.12502,1.8941,-26.0454,-7.96133e-14,3.57812e-15,-35.4147,27.6929,68.9818,21.1399,-6.79587,-19.8102,23.6626,7.12502,6.52309,53.5421,-2.05974,32.7077,21.0232,26.5528,-5.56953,24.518,21.8073,-17.4129,-14.6543,-8.55944,16.6451,-2.64088,3.54597,-13.9936
2.53327,18.7311,6.68878,-177.707,-49.9829,180.289,8.38062,1.32687,0.412223,2.53314,1.70108,0.47233,-2.07759,0.800004,0.0870292,-6.94856,-2.82562,-6.95831,25.5806,-5.92624,7.37632,9.59876,-3.09805,3.0721,-2.38045e-14,-7.95139e-15,-22.1434,4.26817,-83.0052,33.7553,12.9366,-24.7755,3.88664,7.12502,1.72842,-26.0861,-2.38045e-14,-7.95139e-15,-35.4405,27.6845,68.8502,21.1076,-6.18493,-19.6459,23.5108,7.12502,6.68166,53.3854,-2.4709,32.6449,20.6911,27.1511,-5.65461,24.9043,22.1053,-17.441,-13.804,-8.83753,17.7798,-3.43703,3.98494,-14.5891
2.4214,18.7053,6.71568,-177.713,-48.7201,180.425,8.32904,1.39319,0.539849,2.43951,1.80177,0.387566,-2.13887,0.851533,-0.0820461,-7.05493,-2.7349,-6.88803,25.7598,-5.83141,7.3385,9.67145,-3.05767,3.05629,6.50026e-14,-4.37326e-15,-22.3971,4.02672,-82.8539,33.6523,13.0684,-24.7277,3.96583,7.12502,1.77456,-26.0065,6.50026e-14,-4.37326e-15,-35.5074,27.5162,68.6942,21.065,-5.6183,-19.9486,23.478,7.12502,6.38942,53.3616,-2.92841,32.2829,20.2238,27.7907,-5.88254,25.435,21.2777,-17.5738,-12.8415,-9.22867,19.1096,-4.55945,3.82342,-15.3249
2.30526,18.6842,6.74674,-178.04,-47.5431,180.758,8.42661,1.42935,0.836948,2.40894,1.87398,0.368873,-2.21362,0.886069,-0.278042,-7.09674,-2.67431,-6.89608,25.8842,-5.78076,7.35823,9.72007,-3.04076,3.0699,2.67117e-14,-5.96354e-16,-22.652,3.77962,-82.673,33.575,13.2074,-24.8271,3.95001,7.12502,1.67855,-26.0231,2.67117e-14,-5.96354e-16,-35.601,27.4068,68.5806,21.1282,-5.3156,-20.5156,23.7631,7.12502,5.84202,53.6625,-3.17684,31.8302,20.0597,28.5402,-6.19516,25.8482,19.7129,-17.5436,-11.973,-9.50181,20.4099,-5.71914,3.26072,-14.3072
2.19139,18.6632,6.77966,-178.725,-46.4941,181.423,8.64337,1.39929,1.37313,2.42259,1.87837,0.417063,-2.30305,0.884085,-0.534784,-7.04836,-2.64141,-6.82692,25.8981,-5.75928,7.31871,9.71045,-3.03656,3.04609,8.37629e-14,8.05078e-15,-22.8639,3.66163,-82.5442,33.4562,13.2872,-25.2724,3.83659,7.12502,1.24849,-26.1395,8.37629e-14,8.05078e-15,-35.6302,27.5621,68.3789,21.066,-5.49308,-21.7183,24.6331,7.12502,4.68081,54.5613,-3.30694,31.4602,20.2985,29.3687,-6.26139,25.9784,18.9506,-17.3973,-11.1476,-9.50037,21.553,-6.44757,3.18044,-13.0799
2.08442,18.6468,6.79117,-179.004,-45.438,181.628,8.67062,1.40902,1.33851,2.45931,1.88522,0.432254,-2.2817,0.88635,-0.500508,-7.17563,-2.62774,-6.93616,26.0243,-5.78783,7.47412,9.78989,-3.04959,3.11541,2.15681e-14,-8.34896e-15,-23.03,3.57631,-82.4335,33.2726,13.2012,-25.8057,4.00521,7.12502,0.733431,-25.9733,2.15681e-14,-8.34896e-15,-35.6028,27.4024,68.3651,21.0999,-5.19667,-22.2297,24.7694,7.12502,4.18696,54.708,-3.54769,31.2801,20.295,30.3676,-6.45942,25.691,18.0367,-17.2302,-10.322,-9.76505,22.4731,-6.84217,3.85879,-13.0341
1.98587,18.6377,6.78966,-178.783,-44.4354,181.185,8.5993,1.47153,0.693096,2.52044,1.90724,0.357146,-2.19801,0.898376,-0.215512,-7.34598,-2.63187,-7.1467,26.2067,-5.86534,7.75838,9.90923,-3.0821,3.24308,4.33599e-14,6.4605e-15,-23.104,3.33009,-82.251,32.9914,13.1121,-25.939,4.5742,7.12502,0.604647,-25.4047,4.33599e-14,6.4605e-15,-35.3813,27.0873,68.5107,21.051,-4.53413,-22.5026,24.5114,7.12502,3.92345,54.455,-3.90611,31.1841,19.884,31.6326,-7.16875,25.037,16.0184,-16.9726,-9.55068,-10.4811,23.1126,-7.24842,4.16908,-12.7393
1.89333,18.6343,6.80138,-178.175,-43.4629,180.357,8.56745,1.52063,-0.149366,2.50512,1.89726,0.184628,-2.2185,0.895332,0.0806119,-7.22406,-2.59128,-7.07504,26.1274,-5.82171,7.7116,9.84932,-3.06785,3.21867,5.72376e-14,9.93923e-16,-23.171,3.05187,-82.0548,32.8223,13.2192,-25.7305,4.37069,7.12502,0.806003,-25.6075,5.72376e-14,9.93923e-16,-35.3749,27.933,67.867,20.6603,-5.96147,-21.7527,23.8214,7.12502,4.64752,53.7504,-4.58516,31.1326,19.0377,33.1174,-8.03213,24.1962,13.633,-16.8113,-8.79982,-11.4878,23.5794,-7.61504,3.93675,-12.7422
1.80654,18.6303,6.82013,-177.328,-42.5536,179.153,8.59457,1.56359,-1.26608,2.52148,1.84833,-0.0868379,-2.24315,0.871584,0.431604,-7.08013,-2.57224,-6.60211,25.8704,-5.72129,7.21714,9.69339,-3.0263,2.97146,-4.47266e-15,1.02374e-14,-23.17,2.76758,-81.9181,32.6445,13.5122,-25.9921,3.67394,7.12502,0.553422,-26.3051,-4.47266e-15,1.02374e-14,-34.9759,27.7331,68.0023,20.4612,-5.52874,-21.6189,23.369,7.12502,4.77676,53.2951,-5.3705,30.9715,17.856,34.7271,-8.6677,23.2287,11.2558,-16.6554,-8.03906,-12.7885,23.9662,-7.86445,3.83976,-12.3139
1.71805,18.6191,6.84428,-176.728,-41.5443,178.297,8.65191,1.60095,-2.05898,2.48376,1.81939,-0.304902,-2.33084,0.858258,0.652247,-6.99583,-2.47742,-6.33729,25.7993,-5.54423,6.8685,9.62041,-2.95878,2.82214,-1.33372e-14,6.41081e-15,-23.2716,2.2896,-81.7709,32.4003,14.03,-26.3807,3.49117,7.12502,0.178082,-26.4885,-1.33372e-14,6.41081e-15,-34.7346,27.7098,67.943,20.2201,-5.73926,-21.7058,23.6267,7.12502,4.69284,53.5547,-6.30741,30.6629,16.8382,36.4099,-9.04262,22.1962,9.01108,-16.5018,-7.2302,-13.814,24.2642,-8.08616,4.05192,-11.2268
1.632,18.6112,6.85874,-176.503,-40.6853,177.831,8.77556,1.56197,-2.59032,2.44898,1.7087,-0.458295,-2.44288,0.804024,0.800199,-7.03935,-2.33178,-6.46664,25.9825,-5.39625,7.01223,9.68897,-2.89899,2.91111,-9.17127e-14,6.44808e-15,-23.427,1.56686,-81.6608,32.1944,14.5987,-26.4802,3.62715,7.12502,0.0819538,-26.3526,-9.17127e-14,6.44808e-15,-34.5531,27.5856,67.7917,20.0475,-5.68057,-22.6015,24.7798,7.12502,3.82796,54.7252,-7.02244,30.3095,16.3216,38.0951,-9.75097,20.6916,5.76233,-16.1987,-6.35031,-14.5208,24.446,-8.24795,3.73525,-11
1.5482,18.6059,6.87532,-176.077,-39.8406,177.108,8.83413,1.52914,-3.2019,2.445,1.59305,-0.721261,-2.48449,0.745349,0.88277,-7.34159,-2.24331,-7.22899,26.411,-5.44257,7.8949,9.94749,-2.9163,3.35193,1.01094e-13,-1.20762e-14,-23.4769,0.79119,-81.5731,31.9558,15.2234,-26.7859,3.65859,7.12502,-0.213289,-26.321,1.01094e-13,-1.20762e-14,-34.2527,27.465,67.6307,19.8966,-5.65791,-22.5561,25.0582,7.12502,3.87179,55.0028,-7.76467,29.8637,15.5478,39.7245,-10.6542,19.0501,1.95241,-15.915,-5.51664,-15.4489,24.5668,-8.39074,3.16152,-10.8958
1.46645,18.5982,6.89306,-175.616,-39.0358,176.213,8.8771,1.50031,-4.01263,2.52561,1.46122,-0.954215,-2.43332,0.674013,1.11112,-7.27836,-2.17565,-6.95453,26.1685,-5.25214,7.49255,9.81363,-2.83842,3.17936,6.04181e-14,-7.8023e-15,-23.4257,0.250971,-81.4308,31.7344,15.6048,-27.086,3.44182,7.12502,-0.503165,-26.5373,6.04181e-14,-7.8023e-15,-33.8767,27.7453,67.4339,19.6385,-6.0565,-22.2343,24.7665,7.12502,4.18252,54.7051,-8.401,29.2752,14.6567,41.2394,-11.5888,17.2321,-2.31252,-15.5589,-4.94109,-16.5066,24.6348,-8.55748,3.06566,-10.7159
1.38174,18.5945,6.90756,-175.404,-38.2821,175.647,8.84508,1.46124,-4.57497,2.6336,1.34746,-1.09067,-2.3073,0.609156,1.29958,-7.26708,-2.11676,-6.93598,26.0486,-5.10379,7.29382,9.75045,-2.78661,3.12041,-1.1322e-13,4.59193e-14,-23.435,-0.326953,-81.2443,31.6038,15.8814,-27.3134,3.39065,7.12502,-0.722803,-26.5879,-1.1322e-13,4.59193e-14,-33.4941,27.9336,67.3215,19.4169,-6.34845,-22.1274,24.5493,7.12502,4.28578,54.4859,-8.85165,28.8795,14.1592,42.5832,-12.4997,14.9562,-6.14292,-15.1826,-4.37385,-17.3045,24.7088,-8.7959,3.18261,-11.0368
1.29611,18.5962,6.92144,-175.438,-37.6087,175.684,8.75225,1.38318,-4.54805,2.6336,1.25021,-1.1234,-2.24924,0.559468,1.26306,-7.25911,-2.05103,-7.04874,26.0512,-4.97213,7.1918,9.73899,-2.75023,3.11784,9.76778e-14,-2.47487e-14,-23.6233,-0.73019,-81.0901,31.565,15.829,-27.7012,3.45593,7.12502,-1.09728,-26.521,9.76778e-14,-2.47487e-14,-33.2063,27.9938,67.211,19.3156,-6.71194,-22.1091,24.9126,7.12502,4.30341,54.8488,-9.28328,28.7389,14.2377,43.686,-13.2598,12.1617,-8.97468,-14.991,-3.81907,-17.5873,24.8622,-9.13956,3.11636,-11.1265
1.20853,18.6006,6.93692,-175.597,-36.8997,176.067,8.66242,1.3119,-4.09783,2.54128,1.20331,-1.14758,-2.28333,0.540562,0.991627,-7.25511,-1.96283,-7.06622,26.1351,-4.84747,7.11247,9.75607,-2.70976,3.10654,-4.43538e-14,3.15074e-14,-23.8598,-1.17654,-80.9601,31.4385,15.4638,-27.7887,3.83057,7.12502,-1.18185,-26.1459,-4.43538e-14,3.15074e-14,-33.0118,28.0412,67.0031,19.236,-7.21692,-22.3125,25.5516,7.12502,4.10701,55.4917,-9.7848,28.4432,14.5382,44.5618,-13.9511,9.37763,-11.3774,-14.9379,-3.33619,-17.5835,25.1154,-9.52226,3.23887,-11.2878
1.12066,18.6059,6.95129,-175.688,-36.1155,176.309,8.54965,1.2499,-3.80156,2.49661,1.15359,-1.18221,-2.25854,0.517081,0.79673,-7.40487,-1.84632,-7.00691,26.2746,-4.65875,6.93767,9.81392,-2.63709,3.05438,9.5193e-14,-3.20043e-14,-24.0306,-1.49654,-80.8731,31.4011,15.0131,-27.7405,3.83039,7.12502,-1.13526,-26.1463,9.5193e-14,-3.20043e-14,-32.77,28.1078,66.8324,19.1892,-7.66677,-22.374,25.7854,7.12502,4.04764,55.7267,-10.2614,27.9213,14.6548,45.2444,-14.6343,7.02758,-13.1715,-14.8631,-2.83523,-17.7066,25.3865,-9.90335,3.6129,-11.5511
1.03486,18.6144,6.96353,-175.896,-35.3755,176.6,8.52483,1.18402,-3.47149,2.45839,1.09872,-1.1596,-2.2765,0.491485,0.640987,-7.42855,-1.72906,-6.97646,26.3475,-4.45048,6.7015,9.82196,-2.56713,2.98798,-1.03368e-14,-5.1684e-15,-24.3912,-1.7754,-80.7843,31.5016,14.4444,-28.0222,3.79297,7.12502,-1.40739,-26.1821,-1.03368e-14,-5.1684e-15,-32.706,28.7198,66.2579,18.9275,-9.15676,-21.4836,24.2506,7.12502,4.90745,54.1738,-10.5947,27.2923,14.8994,45.7825,-15.3243,4.95876,-13.3999,-14.6366,-2.5796,-17.7769,25.5969,-10.2989,4.16182,-11.2946
0.958539,18.6216,6.96545,-176.029,-34.9779,176.807,8.51143,1.06345,-3.27453,2.37856,0.959708,-1.1435,-2.34363,0.425893,0.561273,-7.4414,-1.64852,-7.0301,26.5021,-4.35324,6.66545,9.8723,-2.54159,2.99567,1.59077e-13,7.55382e-15,-24.8883,-2.39693,-80.6755,31.5814,14.0941,-28.5392,4.23713,7.12502,-1.90668,-25.7341,1.59077e-13,7.55382e-15,-32.4297,28.4454,66.19,18.8842,-9.2289,-21.3846,24.1634,7.12502,5.00298,54.0843,-10.7921,26.5225,15.2677,46.2027,-16.1496,3.00334,-12.0437,-14.4011,-2.6945,-17.827,25.675,-10.7137,4.52406,-10.3629
0.885458,18.6243,6.97908,-175.908,-34.263,176.585,8.56613,1.05759,-3.39276,2.27405,0.9328,-1.26801,-2.48101,0.415642,0.499987,-7.42638,-1.56217,-7.06078,26.6603,-4.261,6.64303,9.91874,-2.51677,3.00384,-3.83903e-14,7.95139e-15,-25.3103,-2.84784,-80.5988,31.6597,13.8914,-28.6776,4.51596,7.12502,-2.04036,-25.454,-3.83903e-14,7.95139e-15,-32.1084,27.9677,66.2326,18.9766,-8.91388,-21.6429,24.5273,7.12502,4.75356,54.454,-11.1493,25.929,15.125,46.5296,-17.0245,1.44841,-10.5338,-14.1688,-2.51112,-18.3176,25.6878,-10.9789,5.006,-9.79096
0.815045,18.6252,6.99861,-175.599,-33.4048,176.046,8.64138,1.10863,-3.82523,2.21035,0.946462,-1.4245,-2.59352,0.423685,0.577348,-7.46794,-1.4984,-6.93417,26.6602,-4.13069,6.4089,9.90942,-2.46944,2.91197,2.96438e-14,4.77083e-15,-25.6235,-3.13767,-80.4685,31.8589,13.8063,-28.4441,4.55471,7.12502,-1.8148,-25.4173,2.96438e-14,4.77083e-15,-31.7024,27.3199,66.5091,19.2099,-8.44778,-21.8105,24.8216,7.12502,4.59177,54.7519,-11.5929,25.3537,14.6654,46.7706,-17.8424,-0.320964,-10.9652,-13.9489,-2.24942,-19.1224,25.6554,-11.1651,5.65772,-9.44659
0.748239,18.6237,7.01691,-175.428,-32.5789,175.674,8.808,1.13384,-4.14857,2.14618,0.930786,-1.53223,-2.75523,0.418111,0.645574,-7.58461,-1.44343,-6.94456,26.6836,-4.02596,6.32912,9.93094,-2.43001,2.89583,-1.23743e-14,3.08116e-14,-25.8935,-3.15521,-80.3722,32.0602,13.5839,-27.9596,4.08284,7.12502,-1.34689,-25.8927,-1.23743e-14,3.08116e-14,-31.3128,26.2344,66.9747,19.6294,-7.35974,-22.0464,25.3639,7.12502,4.36395,55.2989,-11.9902,24.6305,14.411,46.9292,-18.62,-2.08671,-12.193,-13.6838,-2.12487,-19.759,25.5597,-11.443,6.28078,-9.40916
0.686212,18.624,7.02751,-175.479,-31.7502,175.526,8.93579,1.18007,-4.35092,2.15244,0.956763,-1.60475,-2.8229,0.42987,0.679013,-7.56564,-1.38963,-6.93251,26.5707,-3.94728,6.34439,9.87998,-2.39051,2.90639,8.00108e-15,2.68359e-14,-26.0678,-3.03874,-80.3665,32.0834,13.4027,-27.4665,3.55633,7.12502,-0.870689,-26.4216,8.00108e-15,2.68359e-14,-30.918,25.4816,67.2259,20.0433,-6.49623,-22.2657,25.8293,7.12502,4.15219,55.7685,-12.3026,23.9088,14.4149,46.9787,-19.4109,-3.3285,-12.0974,-13.2817,-1.92074,-20.1688,25.4153,-11.7175,6.8224,-9.70873
0.626274,18.6312,7.03565,-175.438,-30.9796,175.274,8.90478,1.22861,-4.69615,2.22006,0.983972,-1.64469,-2.74187,0.439068,0.829012,-7.54171,-1.34168,-6.97421,26.4273,-3.85582,6.34257,9.81704,-2.34981,2.92147,-2.15433e-14,0,-26.1882,-2.88021,-80.323,32.1339,13.3598,-27.2283,3.32773,7.12502,-0.640563,-26.651,-2.15433e-14,0,-30.4722,25.5257,67.3603,20.3553,-6.16482,-22.6859,26.1497,7.12502,3.74645,56.0965,-12.6737,23.3602,14.3063,46.8814,-20.1104,-4.14973,-10.678,-12.9496,-1.66678,-20.6535,25.3173,-11.879,7.30474,-9.00291
0.570596,18.6428,7.04631,-175.285,-30.2229,175.085,8.84716,1.23579,-5.03717,2.194,0.964501,-1.62843,-2.74173,0.430932,1.03941,-7.62076,-1.2729,-7.07318,26.4142,-3.72358,6.30119,9.81827,-2.30175,2.9374,-6.3462e-14,8.34896e-15,-26.2978,-2.61233,-80.2671,32.1226,13.5922,-27.2771,2.97049,7.12502,-0.687752,-27.0081,-6.3462e-14,8.34896e-15,-30.1624,25.4249,67.5918,20.8417,-5.47485,-23.0516,26.8786,7.12502,3.39324,56.8313,-13.186,23.1357,14.2259,46.6043,-20.6405,-5.09992,-8.5779,-12.8373,-1.40357,-21.0618,25.2914,-12.0823,7.72432,-8.26534
0.515388,18.6523,7.05555,-175.238,-29.4769,175.223,8.75547,1.23424,-5.04206,2.12978,0.973179,-1.56958,-2.75898,0.439083,1.10281,-7.74564,-1.17865,-7.07181,26.4283,-3.55991,6.2214,9.83321,-2.2326,2.92584,-2.45996e-15,-2.98177e-15,-26.4106,-2.44027,-80.2194,32.0245,13.9763,-27.131,2.73766,7.12502,-0.54663,-27.2414,-2.45996e-15,-2.98177e-15,-29.9563,25.4145,67.6499,21.3425,-5.22536,-22.7966,26.8514,7.12502,3.63949,56.8001,-13.6469,23.003,14.4884,46.1254,-21.4521,-5.70117,-7.19341,-12.8439,-1.06942,-21.1598,25.3525,-12.3074,8.0663,-7.92204
0.457112,18.66,7.06158,-175.291,-28.769,175.633,8.55568,1.22112,-4.72261,2.10348,1.00736,-1.48626,-2.67329,0.456879,1.00939,-7.76599,-1.1361,-7.04625,26.2516,-3.47324,6.20989,9.76613,-2.18462,2.92474,-3.19049e-14,2.54444e-14,-26.5234,-2.3456,-80.1814,31.9685,14.1932,-26.9075,2.8588,7.12502,-0.33075,-27.1207,-3.19049e-14,2.54444e-14,-29.7052,25.258,67.7366,21.9067,-4.79128,-22.8678,26.7405,7.12502,3.57077,56.6903,-14.0349,22.797,15.0448,45.4856,-22.0605,-6.3131,-5.84806,-12.933,-0.826008,-21.0016,25.5585,-12.6146,8.47088,-7.37767
0.397459,18.6671,7.06558,-175.416,-28.0457,176.157,8.33467,1.17921,-4.24981,2.10549,1.01673,-1.40097,-2.54241,0.460542,0.83554,-7.83977,-1.08829,-7.10999,26.0903,-3.39272,6.32218,9.7185,-2.13449,2.98218,1.88348e-14,-3.69739e-14,-26.5676,-2.18895,-80.2076,31.8486,14.3962,-27.0788,3.65051,7.12502,-0.496177,-26.3287,1.88348e-14,-3.69739e-14,-29.4163,24.7393,67.9283,22.5992,-3.6566,-23.2557,27.0427,7.12502,3.1962,56.9985,-14.3716,22.5344,15.7074,44.7304,-22.4545,-6.55051,-3.93061,-13.0412,-0.448663,-20.7217,25.8807,-13.0019,8.72942,-7.22947
0.346014,18.6683,7.07023,-175.484,-27.2483,176.564,8.15226,1.1836,-3.97639,2.07956,1.0649,-1.31056,-2.46692,0.485674,0.773495,-7.88175,-1.05238,-7.18197,25.9836,-3.3427,6.43285,9.68674,-2.10377,3.03758,-1.18277e-14,2.90226e-14,-26.6234,-1.8421,-80.3045,31.6989,14.3997,-28.0325,5.38765,7.12502,-1.41732,-24.5874,-1.18277e-14,2.90226e-14,-29.2476,24.3192,68.0636,23.3513,-2.64619,-23.278,26.9669,7.12502,3.1746,56.923,-14.6919,22.2969,16.3096,43.9142,-22.9598,-6.96813,-3.41075,-13.1825,0.0117005,-20.5321,26.2173,-13.3519,8.95156,-7.22891
0.298382,18.6668,7.0732,-175.427,-26.456,176.711,7.97785,1.21195,-3.93456,2.02873,1.11969,-1.27952,-2.4248,0.514902,0.778864,-7.79696,-0.997104,-7.21174,25.8482,-3.28225,6.53083,9.61846,-2.06973,3.0821,2.7805e-14,-2.00773e-14,-26.7592,-1.764,-80.3658,31.6104,14.6995,-29.2413,7.31341,7.12502,-2.58479,-22.6507,2.7805e-14,-2.00773e-14,-29.165,23.9119,68.1816,24.1331,-1.69551,-23.3785,26.7698,7.12502,3.07753,56.7274,-14.9434,21.9812,16.7536,43.0948,-23.3166,-7.78382,-4.34692,-13.3018,0.375003,-20.5846,26.4927,-13.6037,9.27935,-7.27782
0.249703,18.6686,7.07391,-175.358,-25.7463,176.842,7.79398,1.20852,-3.83759,1.95949,1.135,-1.29795,-2.39266,0.524594,0.706392,-7.66452,-0.872668,-7.07912,25.7455,-3.15548,6.59082,9.54408,-1.99771,3.09214,5.09386e-15,1.33186e-14,-26.97,-1.73575,-80.4714,31.5624,15.1123,-29.2639,7.63344,7.12502,-2.6066,-22.3304,5.09386e-15,1.33186e-14,-29.147,23.5045,68.1359,24.8876,-0.950448,-23.3352,26.4096,7.12502,3.11943,56.3666,-15.1481,21.6731,17.1938,42.2708,-23.5922,-8.56603,-5.69963,-13.3929,0.653088,-20.6375,26.7292,-13.9267,9.58231,-7.11871
0.207117,18.6717,7.0777,-175.283,-25.1355,176.777,7.71919,1.19077,-3.9415,1.9367,1.10402,-1.34731,-2.37441,0.509136,0.717717,-7.75185,-0.78039,-6.98749,25.7815,-3.06852,6.67793,9.56565,-1.94228,3.1158,-6.41081e-15,-4.25399e-14,-27.1021,-1.7337,-80.5783,31.4885,15.638,-26.7192,4.83283,7.12502,-0.148855,-25.1469,-6.41081e-15,-4.25399e-14,-29.0825,23.3778,67.9356,25.4208,-0.792762,-22.9396,25.3562,7.12502,3.50138,55.3072,-15.2749,21.3725,17.4753,41.4476,-23.9721,-9.10297,-6.52133,-13.4066,0.914729,-20.857,26.9277,-14.1773,9.7699,-7.25721
0.172354,18.6733,7.08406,-175.332,-24.5055,176.872,7.75936,1.17093,-3.9894,1.95281,1.07129,-1.3196,-2.38011,0.492247,0.775879,-7.98542,-0.750301,-7.00143,25.8449,-3.04332,6.79182,9.63223,-1.91733,3.16121,-3.74709e-14,-1.19271e-15,-27.0356,-1.70464,-80.6688,31.3038,16.1451,-26.0866,4.63048,7.12502,0.462073,-25.3488,-3.74709e-14,-1.19271e-15,-28.7432,21.7554,68.7209,26.8303,2.53546,-24.396,28.9112,7.12502,2.09488,58.8807,-15.4015,21.2276,17.9277,40.6508,-24.4433,-9.41106,-6.19652,-13.3799,1.28872,-20.8833,27.1026,-14.3239,9.81264,-7.54538
0.140053,18.6698,7.09236,-175.35,-23.7275,176.967,7.79985,1.22183,-4.0205,1.93264,1.13492,-1.28543,-2.42749,0.525186,0.821317,-7.8448,-0.752808,-7.00517,25.5706,-3.03492,6.83149,9.50747,-1.9059,3.1731,6.85807e-15,-1.39149e-15,-27.1134,-1.82358,-80.66,31.3272,16.6388,-26.0836,4.8607,7.12502,0.464958,-25.1185,6.85807e-15,-1.39149e-15,-28.5324,20.7525,69.1251,27.8727,4.38385,-24.9326,29.985,7.12502,1.57668,59.959,-15.6958,21.3655,18.2785,39.9328,-24.8649,-9.54607,-5.01219,-13.3654,1.68354,-20.9137,27.2438,-14.6409,9.88727,-7.06261
0.111465,18.6642,7.1053,-175.306,-23.0122,176.969,7.86852,1.24478,-4.14339,1.89578,1.15196,-1.25022,-2.50763,0.536164,0.923092,-7.73943,-0.708208,-6.86224,25.3486,-2.92555,6.63358,9.39621,-1.8576,3.0873,2.9271e-14,-9.14409e-15,-27.3541,-1.99847,-80.5954,31.661,17.2312,-25.8676,5.06059,7.12502,0.673643,-24.9181,2.9271e-14,-9.14409e-15,-28.4445,20.1624,69.2861,28.7474,5.29163,-25.1292,30.2701,7.12502,1.38678,60.2453,-16.0191,21.3408,18.5831,39.2899,-25.0204,-10.1505,-5.37286,-13.4004,1.98359,-21.0362,27.3863,-15.0241,10.0096,-6.297
0.0882156,18.657,7.12075,-175.237,-22.3822,176.785,8.05184,1.23065,-4.49576,1.85585,1.08915,-1.24352,-2.65459,0.508447,1.13012,-7.83828,-0.608966,-6.85781,25.3646,-2.77588,6.60861,9.40835,-1.78987,3.09305,3.56322e-14,2.44505e-14,-27.5106,-2.10039,-80.6006,31.8691,17.775,-25.6124,4.33495,7.12502,0.920101,-25.6428,3.56322e-14,2.44505e-14,-28.4612,19.9912,69.1731,29.4624,5.42098,-24.5167,29.6535,7.12502,1.97834,59.6241,-16.2654,21.1278,18.7655,38.6757,-25.1459,-10.8144,-5.73522,-13.4184,2.19243,-21.3368,27.5154,-15.1712,10.2138,-5.62353
0.0593728,18.6494,7.1295,-175.166,-21.7237,176.538,8.19595,1.21393,-4.8115,1.82195,1.0241,-1.28634,-2.77121,0.478608,1.26676,-7.9196,-0.502052,-6.93646,25.3531,-2.62575,6.68989,9.40912,-1.71883,3.15031,-9.19379e-15,1.98785e-14,-27.4601,-1.77322,-80.7694,31.6048,17.8117,-26.583,3.60358,7.12502,-0.0173827,-26.3762,-9.19379e-15,1.98785e-14,-28.4792,19.8242,69.0619,30.2263,5.65255,-23.8668,28.3622,7.12502,2.60596,58.326,-16.4842,21.0274,18.8286,38.0726,-25.3888,-11.0832,-5.15876,-13.4,2.48102,-21.7151,27.6577,-15.2694,10.4045,-5.31296
0.0257081,18.6483,7.12867,-175.095,-21.1539,176.433,8.13224,1.20171,-4.84923,1.84192,1.00313,-1.35984,-2.71335,0.465122,1.21531,-8.00982,-0.464983,-6.93543,25.2501,-2.56459,6.75176,9.38551,-1.67764,3.1768,8.34896e-14,-1.41137e-14,-26.9608,-1.04396,-81.0704,30.6368,16.9634,-28.5109,5.2884,7.12502,-1.87933,-24.6831,8.34896e-14,-1.41137e-14,-28.2527,19.2109,69.1243,30.998,6.1894,-23.6352,27.991,7.12502,2.82965,57.952,-16.6722,20.8639,19.0333,37.4908,-25.5064,-11.2956,-4.93793,-13.4032,2.74749,-21.9326,27.7989,-15.4744,10.418,-5.22825
-0.0075354,18.6465,7.12595,-175.081,-20.4779,176.541,7.91825,1.22529,-4.70091,1.93749,1.06194,-1.35534,-2.49617,0.487077,1.13532,-8.25849,-0.443434,-6.89609,25.1989,-2.48414,6.68765,9.40798,-1.63073,3.15563,-4.47266e-14,2.04748e-14,-27.0155,-1.14705,-81.0979,31.0939,16.7962,-28.4271,6.83087,7.12502,-1.79844,-23.1413,-4.47266e-14,2.04748e-14,-27.9081,18.7302,69.2632,31.6977,6.63153,-23.8948,28.2653,7.12502,2.57892,58.2295,-16.8551,20.6573,19.4512,36.9104,-25.4196,-11.6475,-4.39787,-13.4215,3.06761,-21.9303,27.9536,-15.7743,10.4849,-4.92291
-0.0401406,18.6403,7.12414,-175.078,-19.5977,176.53,7.74223,1.29034,-4.71959,2.00935,1.15657,-1.36836,-2.32925,0.528448,1.12659,-8.52265,-0.368988,-6.85927,25.2833,-2.34488,6.59626,9.47628,-1.5666,3.13322,4.90004e-14,-1.70955e-14,-26.8287,-1.00566,-81.2202,30.8901,16.6621,-26.7752,6.38034,7.12502,-0.202929,-23.5993,4.90004e-14,-1.70955e-14,-27.6371,18.5531,69.2671,32.2729,6.79333,-23.821,27.4429,7.12502,2.6502,57.4062,-16.989,20.5625,19.7294,36.3988,-25.4487,-11.7695,-3.43934,-13.3639,3.49874,-22.0822,28.1126,-16.1259,10.6947,-5.20879
-0.0709217,18.6347,7.12579,-175.068,-18.8301,176.521,7.64735,1.33919,-4.63064,1.98688,1.23159,-1.43149,-2.30075,0.565069,1.00575,-8.57281,-0.296733,-6.79772,25.3663,-2.26067,6.56192,9.50746,-1.53051,3.12002,1.80397e-14,-2.66371e-14,-26.8315,-1.11362,-81.364,30.6101,16.772,-25.4594,5.5942,7.12502,1.06783,-24.3829,1.80397e-14,-2.66371e-14,-27.4516,18.1311,69.2096,32.8336,6.92327,-23.7716,26.7813,7.12502,2.69794,56.744,-17.1264,20.4352,20.0048,35.9851,-25.5305,-11.9251,-3.51741,-13.3403,3.83458,-22.2388,28.2762,-16.3624,10.967,-5.75062
-0.0972595,18.6288,7.13004,-175.076,-18.2126,176.491,7.63911,1.33863,-4.57928,1.98166,1.23324,-1.45911,-2.30005,0.565247,0.948471,-8.6023,-0.260001,-6.8072,25.3474,-2.1836,6.47905,9.50002,-1.50419,3.10014,-2.05742e-14,-2.34566e-14,-26.8422,-1.06019,-81.5051,30.463,16.7927,-25.1648,5.15034,7.12502,1.35242,-24.8251,-2.05742e-14,-2.34566e-14,-27.2541,17.7873,69.2143,33.4035,6.92154,-23.9615,26.8989,7.12502,2.51452,56.8638,-17.2589,20.1753,20.2817,35.6806,-25.5121,-12.308,-2.98097,-13.3118,4.2286,-22.3845,28.411,-16.3852,11.0346,-5.98907
-0.121274,18.6228,7.13409,-175.087,-17.6456,176.439,7.64693,1.32984,-4.52108,1.99358,1.22226,-1.49922,-2.28955,0.558037,0.875633,-8.62322,-0.228638,-6.84355,25.2918,-2.10449,6.40274,9.47821,-1.47684,3.08707,2.29596e-14,-3.00165e-14,-26.84,-0.889833,-81.6944,30.3571,16.6239,-25.2965,5.15044,7.12502,1.22518,-24.8258,2.29596e-14,-3.00165e-14,-27.0968,17.4543,69.2244,34.0563,6.92608,-23.9675,26.9288,7.12502,2.50874,56.8938,-17.3619,19.8328,20.5447,35.4596,-25.2543,-12.9647,-1.71998,-13.2671,4.58976,-22.5303,28.5235,-16.3669,11.084,-6.26299
-0.143731,18.6193,7.13706,-175.072,-17.077,176.363,7.62014,1.32934,-4.47976,1.97023,1.22328,-1.55147,-2.29695,0.558411,0.798742,-8.51827,-0.155787,-6.83036,25.2395,-1.99372,6.32133,9.4304,-1.43666,3.0664,3.68249e-14,-1.21259e-14,-26.9178,-0.80189,-81.876,30.3306,16.411,-25.3437,4.94656,7.12502,1.17964,-25.0299,3.68249e-14,-1.21259e-14,-27.0042,16.9966,69.2466,34.7401,7.089,-23.9975,26.9365,7.12502,2.47976,56.9018,-17.4808,19.4702,20.7658,35.3397,-24.8835,-13.6839,-0.472564,-13.2147,4.85445,-22.6989,28.5954,-16.5855,11.1439,-6.59265
-0.16388,18.6157,7.13965,-175.056,-16.387,176.165,7.60316,1.38874,-4.57364,1.91231,1.29072,-1.62029,-2.35119,0.593443,0.773162,-8.34139,-0.0749555,-6.82724,25.2857,-1.89772,6.23375,9.40471,-1.41381,3.04437,3.94588e-14,-2.16675e-14,-27.0873,-0.881398,-81.9878,30.2607,16.4691,-25.0998,4.88035,7.12502,1.41518,-25.0947,3.94588e-14,-2.16675e-14,-26.9549,16.607,69.2723,35.3111,7.17109,-24.0802,26.7676,7.12502,2.39986,56.7338,-17.6378,19.1626,20.8435,35.3521,-24.4968,-14.39,0.978026,-13.0681,5.1198,-22.9967,28.5823,-16.8927,11.2598,-6.75522
-0.181651,18.6113,7.13995,-175.094,-15.6986,175.911,7.6529,1.43033,-4.73707,1.81433,1.32343,-1.69005,-2.48394,0.613683,0.786826,-8.0548,0.0581513,-6.7767,25.375,-1.74288,6.07419,9.36815,-1.37444,2.99464,-3.33213e-14,4.59193e-14,-27.3609,-1.00902,-82.077,30.2034,16.8258,-24.8638,5.33134,7.12502,1.64313,-24.6421,-3.33213e-14,4.59193e-14,-27.0503,16.338,69.2052,35.7837,7.17996,-24.1907,26.7817,7.12502,2.29322,56.7491,-17.7255,18.8638,20.888,35.5023,-24.2685,-15.2114,3.31428,-12.7915,5.41837,-23.3379,28.4411,-17.1357,11.4456,-6.63351
-0.196383,18.6082,7.14068,-175.166,-15.1386,175.615,7.7702,1.44111,-4.96171,1.75692,1.30354,-1.75222,-2.61142,0.606217,0.846837,-7.79559,0.192541,-6.8371,25.3656,-1.59935,6.12581,9.30431,-1.32287,3.03563,1.0958e-14,1.19271e-14,-27.5554,-0.983671,-82.2004,30.1597,16.9766,-24.8158,5.22891,7.12502,1.68943,-24.7441,1.0958e-14,1.19271e-14,-27.1361,16.1456,69.1563,36.2693,7.19922,-24.2761,26.6962,7.12502,2.21067,56.6645,-17.7614,18.4779,20.8962,35.7539,-24.2912,-16.1035,5.59187,-12.4474,5.64885,-23.7108,28.2009,-17.294,11.595,-6.33279
-0.210971,18.6113,7.13992,-175.256,-14.5277,175.231,7.84017,1.46597,-5.26408,1.80886,1.29388,-1.84886,-2.60083,0.596576,0.916057,-7.88114,0.257641,-6.95485,25.5479,-1.56695,6.31599,9.3826,-1.31078,3.12786,1.11568e-14,-2.98177e-14,-27.5285,-0.677323,-82.4233,30.0416,16.7483,-24.8075,4.90105,7.12502,1.69753,-25.0719,1.11568e-14,-2.98177e-14,-26.9131,16.2707,69.121,36.4745,7.06665,-24.5352,26.3473,7.12502,1.96046,56.318,-17.8004,18.1911,20.7557,36.0388,-24.2419,-16.9768,7.14,-12.0512,5.94865,-24.1724,27.9178,-17.4768,11.7354,-6.09978
-0.225431,18.62,7.13727,-175.342,-13.9106,174.969,7.84139,1.47142,-5.41892,1.88779,1.28032,-1.90331,-2.52131,0.583379,0.948673,-8.17019,0.313663,-7.01445,25.8196,-1.48662,6.29599,9.52795,-1.28731,3.1441,-3.54831e-14,2.32578e-14,-27.3378,-0.499776,-82.6119,29.8551,16.7561,-24.6248,4.89849,7.12502,1.87395,-25.073,-3.54831e-14,2.32578e-14,-26.5877,16.6135,69.097,36.6091,6.7683,-24.6019,26.1171,7.12502,1.89604,56.0884,-17.8842,18.0833,20.6726,36.2758,-23.8172,-17.9243,8.99147,-11.7196,6.35285,-24.4992,27.6696,-17.5752,11.8375,-5.83887
-0.236671,18.6244,7.13398,-175.423,-13.355,174.835,7.86655,1.493,-5.43711,1.93502,1.30011,-1.9446,-2.4871,0.588993,0.914292,-8.47031,0.373716,-6.92383,26.0499,-1.37612,6.12853,9.65854,-1.24689,3.08544,-3.57564e-14,1.09332e-14,-27.1653,-0.449241,-82.7823,29.7233,16.8614,-24.5647,4.90055,7.12502,1.93201,-25.0704,-3.57564e-14,1.09332e-14,-26.4914,16.5704,69.1116,37.1674,6.64503,-24.5168,26.1856,7.12502,1.97828,56.1562,-17.9311,17.9991,20.6927,36.4299,-23.3143,-18.581,10.3242,-11.4598,6.69628,-24.6753,27.4732,-17.5079,11.9104,-5.96802
-0.249135,18.6223,7.12731,-175.541,-12.798,174.761,7.80421,1.52692,-5.37942,1.98257,1.35292,-1.96146,-2.40448,0.611122,0.861312,-8.48072,0.465791,-6.83748,26.0837,-1.22768,5.9696,9.66078,-1.18964,3.03006,4.01545e-14,6.06293e-15,-27.1683,-0.347076,-82.8892,29.7118,16.8783,-24.7315,5.18072,7.12502,1.77091,-24.7917,4.01545e-14,6.06293e-15,-26.6258,16.2644,69.1552,37.9512,6.76264,-24.1435,26.3538,7.12502,2.33875,56.3207,-17.8474,18.0138,20.7363,36.471,-22.881,-18.5806,11.2889,-11.2197,6.95801,-24.7939,27.4203,-17.4315,12.0374,-6.42238
-0.263077,18.6229,7.12017,-175.642,-12.2278,174.673,7.67275,1.51122,-5.33097,1.94128,1.34732,-1.96345,-2.37267,0.609695,0.835029,-8.06565,0.618118,-6.86346,26.0064,-1.04246,5.89025,9.53898,-1.13198,3.0208,-1.48095e-14,-1.0635e-14,-27.3962,0.0258843,-83.0365,29.7296,16.9417,-24.628,4.95142,7.12502,1.87086,-25.0201,-1.48095e-14,-1.0635e-14,-26.9834,16.0893,69.1323,38.6364,6.86694,-23.8392,26.0851,7.12502,2.63263,56.0486,-17.757,18.261,20.6605,36.4239,-22.4789,-18.2427,12.1658,-11.0331,7.20611,-24.9313,27.4988,-17.7302,12.091,-5.87679
-0.272797,18.6205,7.11575,-175.676,-11.6763,174.696,7.55943,1.5197,-5.15467,1.88809,1.38386,-1.96463,-2.36246,0.63017,0.733553,-7.99377,0.706197,-6.81632,26.0914,-0.935924,5.79965,9.54715,-1.09894,2.99145,-3.15571e-15,-5.66536e-15,-27.4812,0.155858,-83.1973,29.652,17.0634,-24.1728,4.50376,7.12502,2.31049,-25.4635,-3.15571e-15,-5.66536e-15,-27.1681,15.9854,69.1448,39.2067,6.6565,-23.4852,25.8157,7.12502,2.97455,55.7747,-17.7413,18.6862,20.615,36.3235,-22.3109,-17.9781,13.2638,-11.0386,7.59362,-24.9473,27.6703,-17.9295,12.0909,-5.44121
-0.281152,18.6144,7.11033,-175.782,-11.1675,174.704,7.55012,1.54623,-4.9711,1.98161,1.43388,-1.96431,-2.25864,0.649239,0.628227,-8.59329,0.738613,-6.79788,26.4447,-0.843886,5.70658,9.78254,-1.06124,2.97435,2.75068e-14,-1.42131e-14,-27.2367,0.160988,-83.3309,29.4999,17.0769,-24.0509,4.58288,7.12502,2.42816,-25.383,2.75068e-14,-1.42131e-14,-27.132,15.655,69.3138,39.7935,6.85458,-23.4366,25.7625,7.12502,3.02145,55.7208,-17.5968,19.0768,20.5785,36.2335,-22.2752,-17.8496,13.3206,-11.0052,8.01396,-24.9551,27.9213,-17.9311,12.0679,-5.7444
-0.289499,18.6099,7.09996,-175.962,-10.7551,174.637,7.51183,1.51181,-4.84948,2.10195,1.39716,-1.98732,-2.1078,0.623026,0.542843,-8.87387,0.805873,-6.76114,26.573,-0.7184,5.62707,9.87405,-1.00599,2.95705,-4.84538e-15,2.36554e-14,-27.0862,0.348101,-83.5193,29.4439,17.0788,-24.2183,4.99268,7.12502,2.26654,-24.975,-4.84538e-15,2.36554e-14,-27.1115,15.1319,69.4447,40.2375,7.59201,-23.6577,25.8704,7.12502,2.80798,55.8316,-17.2972,19.3048,20.5094,36.1516,-22.2968,-17.6634,12.8604,-10.9403,8.36023,-25.0111,28.3049,-17.9136,12.0418,-6.31484
-0.295365,18.6028,7.09296,-176.083,-10.4042,174.465,7.49192,1.45262,-4.8562,2.12532,1.31563,-2.02187,-2.06831,0.579811,0.519472,-8.72732,0.891274,-6.75407,26.4875,-0.5962,5.57006,9.80587,-0.9587,2.94555,-7.36746e-15,9.54166e-15,-27.1322,0.711074,-83.7152,29.4555,17.0712,-24.2718,4.83314,7.12502,2.21482,-25.1351,-7.36746e-15,9.54166e-15,-27.2339,14.8571,69.5078,40.6071,8.07042,-23.6873,25.8036,7.12502,2.7794,55.7652,-17.046,19.2757,20.311,36.0785,-22.2507,-17.2194,12.5872,-10.9883,8.74093,-25.1669,28.7831,-17.8423,11.9262,-6.64475
-0.298085,18.5955,7.09011,-176.176,-10.043,174.371,7.5063,1.43914,-4.79314,2.17282,1.3004,-2.02065,-2.0252,0.569358,0.487339,-8.83676,0.910094,-6.77704,26.4793,-0.526092,5.4815,9.81969,-0.934178,2.92639,-1.50331e-14,1.66979e-14,-27.0445,0.853108,-83.8132,29.4134,17.1377,-24.5344,4.61435,7.12502,1.96122,-25.3564,-1.50331e-14,1.66979e-14,-27.2147,14.8002,69.6768,40.9719,8.08675,-23.4577,25.7185,7.12502,3.00113,55.6771,-16.9136,19.2059,20.1429,36.0238,-22.2,-16.576,12.1194,-11.1461,9.10019,-25.2388,29.3739,-17.7887,11.7902,-7.0051
-0.296394,18.5905,7.08739,-176.333,-9.66406,174.278,7.64306,1.46625,-4.73616,2.21395,1.32765,-2.03096,-2.05844,0.58054,0.440042,-8.96921,0.903584,-6.76327,26.5004,-0.490746,5.35671,9.85134,-0.926692,2.88498,1.14177e-14,-1.2598e-14,-26.9781,0.788603,-83.8989,29.3155,17.3798,-24.8994,4.44162,7.12502,1.60869,-25.5321,1.14177e-14,-1.2598e-14,-27.1831,14.6187,69.8841,41.3355,8.20912,-23.4898,25.7656,7.12502,2.97007,55.7247,-16.7737,19.0843,19.9772,35.9916,-22.2184,-15.8511,11.7243,-11.3333,9.50058,-25.2689,30.1249,-17.6903,11.5811,-7.96076
-0.293982,18.589,7.08522,-176.489,-9.38748,174.193,7.83223,1.44821,-4.70948,2.18778,1.29449,-1.97934,-2.1897,0.567062,0.477362,-8.91856,0.955168,-6.7833,26.5177,-0.388418,5.20875,9.84137,-0.902368,2.84622,-6.91941e-15,7.87063e-15,-27.0315,0.923476,-83.9391,29.1585,17.4586,-25.4324,4.92063,7.12502,1.09396,-25.0563,-6.91941e-15,7.87063e-15,-27.3521,14.4347,70.132,41.6638,8.45404,-23.9429,26.0164,7.12502,2.53247,55.9811,-16.614,18.7977,19.8446,35.9495,-22.2148,-15.3164,11.2519,-11.6463,10.0084,-25.2498,31.0515,-17.2698,11.2151,-10.0625
-0.289755,18.5884,7.08564,-176.611,-9.16578,174.107,7.96644,1.4118,-4.68001,2.21741,1.23949,-1.9416,-2.23141,0.538962,0.503059,-9.0208,0.981538,-6.75182,26.5416,-0.306926,5.05445,9.86525,-0.876795,2.79594,2.15868e-14,9.96408e-15,-27.0109,1.08704,-83.9822,29.1485,17.2806,-25.7285,5.33488,7.12502,0.807974,-24.6433,2.15868e-14,9.96408e-15,-27.3499,14.4936,70.3595,41.7794,8.23186,-24.0618,26.0138,7.12502,2.41767,55.9798,-16.4802,18.3803,19.7375,35.8915,-22.0717,-14.8786,10.7016,-12.1133,10.4877,-25.2134,32.1727,-16.8298,10.806,-11.7794
-0.284406,18.5884,7.08567,-176.703,-8.94418,174.196,7.99275,1.39298,-4.46313,2.22638,1.23486,-1.89888,-2.23288,0.537375,0.426119,-8.93301,0.957045,-6.7521,26.4356,-0.342169,5.05711,9.81258,-0.891076,2.79082,-1.53437e-14,-1.06598e-14,-27.0343,0.863859,-83.9723,29.1552,17.4991,-25.7243,5.43439,7.12502,0.812019,-24.5438,-1.53437e-14,-1.06598e-14,-27.3407,14.3859,70.5623,41.8729,7.9592,-24.0303,25.6786,7.12502,2.4481,55.6443,-16.4043,17.9556,19.8123,35.7958,-21.8678,-14.3149,10.6509,-12.7894,10.9329,-24.9747,33.5734,-16.7051,10.2254,-11.8311
-0.276878,18.5875,7.08537,-176.783,-8.67881,174.454,7.99851,1.37078,-4.1486,2.17563,1.24469,-1.76432,-2.28503,0.548269,0.387484,-8.7339,0.971507,-6.83745,26.3279,-0.320803,5.05199,9.73393,-0.893347,2.80239,-1.08586e-14,-3.42904e-15,-27.1545,0.54599,-83.8833,29.1579,17.958,-26.1168,6.00058,7.12502,0.432963,-23.9787,-1.08586e-14,-3.42904e-15,-27.4543,14.4187,70.7384,41.9618,7.51797,-23.8893,25.5381,7.12502,2.58429,55.5022,-16.3347,17.6369,20.0717,35.6639,-21.7362,-13.7556,11.1354,-13.62,11.5329,-24.517,35.2178,-16.55,9.40381,-11.5961
-0.266863,18.584,7.08264,-176.884,-8.35125,174.926,7.9849,1.33715,-3.66164,2.14851,1.2593,-1.56764,-2.29973,0.56096,0.316557,-8.71337,1.02671,-6.77464,26.2887,-0.214165,4.90114,9.70966,-0.853831,2.7486,9.25591e-15,9.93923e-15,-27.2337,0.638285,-83.9192,29.2298,17.9128,-26.8691,6.84537,7.12502,-0.293634,-23.1342,9.25591e-15,9.93923e-15,-27.5546,14.5991,70.8627,42.0049,6.97059,-23.5059,25.833,7.12502,2.95455,55.7922,-16.2007,17.4843,20.5923,35.4873,-21.7042,-13.2906,11.2081,-14.5717,12.3065,-23.7892,37.0786,-16.0758,8.56443,-12.1899
-0.255795,18.5796,7.07681,-176.992,-8.15846,175.301,7.97497,1.31115,-3.25025,2.1393,1.27183,-1.42251,-2.29831,0.57019,0.234837,-8.67438,1.02138,-6.745,26.2293,-0.229889,4.91215,9.68187,-0.856171,2.74446,-1.03368e-14,2.83268e-14,-27.3354,0.641614,-83.9524,29.3155,17.672,-26.9771,7.16979,7.12502,-0.397972,-22.8096,-1.03368e-14,2.83268e-14,-27.6365,14.5509,71.1048,42.1063,6.6419,-23.3537,26.1458,7.12502,3.10151,56.103,-16.0103,17.236,21.056,35.3043,-21.6289,-12.901,11.1539,-15.5916,12.9446,-23.1233,39.0975,-15.3577,7.78121,-13.5178
-0.243739,18.573,7.07244,-177.039,-8.00146,175.64,7.95789,1.30116,-2.8584,2.11182,1.30341,-1.2903,-2.31226,0.589197,0.148567,-8.6534,0.962302,-6.77085,26.1507,-0.320539,4.98263,9.65556,-0.88997,2.76308,-2.85504e-14,1.27222e-14,-27.5014,0.660992,-83.9831,29.5253,17.2429,-26.613,7.06292,7.12502,-0.0463004,-22.9168,-2.85504e-14,1.27222e-14,-27.7039,14.4009,71.3533,42.208,6.12561,-23.1721,26.1169,7.12502,3.27687,56.0715,-15.9139,17.087,21.472,35.1154,-21.5191,-12.7127,10.8374,-16.7637,13.4753,-22.4836,41.2313,-14.4843,7.03195,-15.4777
-0.224244,18.561,7.0747,-177.093,-7.81469,176.021,8.11815,1.28334,-2.50471,2.04998,1.31441,-1.12862,-2.46099,0.599006,0.111942,-8.81758,0.949061,-6.83454,26.1506,-0.313886,5.02581,9.68658,-0.882414,2.79159,-2.25124e-14,1.51076e-14,-27.5983,0.732362,-84.0222,29.6046,17.122,-26.4032,6.90773,7.12502,0.156305,-23.072,-2.25124e-14,1.51076e-14,-27.8432,14.24,71.5635,42.3906,5.6994,-22.9558,26.069,7.12502,3.48577,56.0203,-15.8573,17.0778,21.9478,34.9506,-21.4233,-12.6472,10.6312,-18.007,14.0229,-21.7745,43.3918,-13.5949,6.32063,-17.7179
-0.201332,18.5502,7.07994,-177.162,-7.60387,176.401,8.29439,1.27483,-2.23283,2.00738,1.32973,-0.966723,-2.60062,0.609373,0.120814,-8.99861,0.933967,-6.72699,26.1613,-0.308119,4.93644,9.72572,-0.872801,2.74403,1.38901e-14,-4.57205e-15,-27.6653,0.709287,-84.0803,29.6221,17.2777,-26.4883,6.94991,7.12502,0.0741581,-23.0298,1.38901e-14,-4.57205e-15,-27.9817,14.0793,71.7824,42.5958,5.4629,-22.5801,25.9033,7.12502,3.8486,55.8483,-15.8027,17.1452,22.4272,34.7907,-21.3456,-12.4984,10.9434,-19.301,14.5123,-21.0441,45.5782,-12.6981,5.75256,-19.7576
-0.183017,18.5466,7.0818,-177.252,-7.41782,176.609,8.39723,1.28107,-2.09423,2.02838,1.35164,-0.838644,-2.63619,0.620069,0.171132,-9.0335,0.899129,-6.63854,26.049,-0.326009,4.8396,9.69443,-0.874367,2.69197,1.41386e-14,3.77691e-15,-27.7325,0.634947,-84.0628,29.7262,17.2699,-26.7492,7.24679,7.12502,-0.177899,-22.7329,1.41386e-14,3.77691e-15,-28.0675,13.9776,72.0776,42.7975,5.22432,-21.938,25.49,7.12502,4.46867,55.4229,-15.7129,17.1847,22.7229,34.6568,-21.2362,-12.3743,11.1356,-20.54,14.8205,-20.4854,47.7624,-11.716,5.26615,-22.0869
-0.170204,18.5452,7.08017,-177.413,-7.20978,176.742,8.57175,1.30455,-1.90283,2.06571,1.39329,-0.787793,-2.69181,0.638454,0.10874,-8.97838,0.85305,-6.65655,25.8118,-0.377192,4.92034,9.60246,-0.878152,2.71525,3.48619e-14,3.97569e-15,-27.786,0.602254,-84.0947,29.8126,17.0189,-26.7757,7.31974,7.12502,-0.203461,-22.6599,3.48619e-14,3.97569e-15,-28.1647,13.824,72.3405,42.9466,4.91512,-21.6395,25.2574,7.12502,4.75692,55.184,-15.5168,17.1186,22.9405,34.553,-21.1539,-12.1491,10.7799,-21.6239,15.0683,-19.9845,49.9341,-10.9096,4.54411,-24.0439
-0.155496,18.5422,7.08072,-177.579,-7.00469,176.873,8.82948,1.33229,-1.72752,2.0846,1.43739,-0.733389,-2.81288,0.658369,0.0565632,-8.97267,0.799666,-6.73062,25.6127,-0.449692,5.08803,9.53486,-0.888844,2.77723,2.44008e-14,-1.64991e-14,-27.8532,0.692091,-84.1489,29.9166,16.6274,-26.49,6.94088,7.12502,0.0725132,-23.0389,2.44008e-14,-1.64991e-14,-28.2712,13.6936,72.5964,43.0798,4.60083,-21.6691,24.8534,7.12502,4.72832,54.7806,-15.3543,16.9762,23.1412,34.5005,-21.1218,-11.7298,10.8798,-22.7151,15.2767,-19.4802,52.1031,-10.4816,3.59493,-26.0979
-0.138457,18.5395,7.08044,-177.704,-6.88557,176.989,9.03071,1.32813,-1.66846,2.10663,1.43347,-0.627711,-2.90275,0.655335,0.129088,-9.03936,0.745065,-6.79822,25.5188,-0.502914,5.1404,9.51813,-0.906169,2.8013,4.07509e-15,-4.57205e-15,-27.9869,0.964389,-84.2021,30.1261,16.2394,-26.3758,6.83896,7.12502,0.182755,-23.1407,4.07509e-15,-4.57205e-15,-28.4345,13.5955,72.8838,43.2877,4.38498,-21.5285,24.6173,7.12502,4.86403,54.5415,-15.239,16.9403,23.3238,34.4551,-21.2102,-11.4364,11.7116,-23.9345,15.5141,-19.0357,54.2855,-10.2313,2.17249,-28.3287
-0.123615,18.5314,7.08348,-177.891,-6.74698,177.121,9.36005,1.33436,-1.58222,2.10045,1.44226,-0.534583,-3.09195,0.658731,0.168949,-8.9352,0.70093,-6.68555,25.3532,-0.55106,5.03893,9.44352,-0.923006,2.73859,1.98288e-14,2.5842e-15,-28.1244,1.09771,-84.2532,30.2428,16.0621,-26.5365,6.78799,7.12502,0.0275661,-23.1918,1.98288e-14,2.5842e-15,-28.6515,13.4109,73.1447,43.421,4.16695,-21.4869,24.4727,7.12502,4.90418,54.3959,-15.073,16.9014,23.5342,34.4117,-21.2384,-11.1047,12.4528,-25.1307,15.8303,-18.5846,56.4929,-10.0731,-0.166919,-27.6808
-0.112444,18.5226,7.09052,-178.047,-6.54993,177.294,9.68014,1.36038,-1.35363,2.12288,1.48884,-0.48838,-3.24188,0.678157,0.0762841,-8.93536,0.643612,-6.62006,25.1858,-0.638044,5.11701,9.39016,-0.938998,2.74392,2.35063e-14,-5.96354e-15,-28.0986,1.04563,-84.3218,30.2813,15.9774,-26.6292,6.50649,7.12502,-0.0619462,-23.4732,2.35063e-14,-5.96354e-15,-28.6372,13.2351,73.4053,43.2872,3.88458,-21.5683,24.1399,7.12502,4.8256,54.0649,-14.9606,16.7295,23.7595,34.346,-21.0276,-10.8054,12.4241,-26.4099,16.0867,-18.1592,58.7468,-9.84006,-2.32423,-25.8177
-0.100351,18.5215,7.09595,-178.196,-6.4106,177.454,9.96385,1.35084,-1.17203,2.18654,1.48504,-0.404342,-3.33024,0.671421,0.0566674,-9.08702,0.597508,-6.62528,25.0816,-0.673943,5.16231,9.38503,-0.938689,2.75726,1.97294e-14,5.36719e-15,-27.9707,1.03383,-84.3061,30.2865,15.9144,-26.3827,6.24852,7.12502,0.176168,-23.7311,1.97294e-14,5.36719e-15,-28.6016,13.1751,73.7435,43.1555,3.66962,-21.713,23.9934,7.12502,4.68591,53.9216,-14.7986,16.5793,23.9776,34.2564,-20.8103,-10.6121,12.8601,-27.7146,16.2364,-17.8018,61.0092,-9.61681,-3.26374,-26.0156
-0.0900703,18.5251,7.09729,-178.298,-6.30071,177.599,10.1464,1.29022,-0.831931,2.2375,1.42883,-0.447814,-3.36792,0.637519,-0.175333,-9.15857,0.610652,-6.41542,24.9633,-0.652821,5.10936,9.35551,-0.905024,2.70435,-1.50082e-14,9.54166e-15,-27.7997,0.962308,-84.467,30.1185,15.9172,-26.2065,5.93319,7.12502,0.346306,-24.0463,-1.50082e-14,9.54166e-15,-28.6957,12.9402,73.9121,43.1447,3.61432,-22.0097,24.1384,7.12502,4.39937,54.0727,-14.6406,16.4708,24.1699,34.1611,-20.7407,-10.399,13.1416,-29.0444,16.3941,-17.5141,63.261,-9.66779,-3.30139,-26.5951
-0.0817398,18.5312,7.09729,-178.368,-6.17049,177.625,10.1882,1.21405,-0.43654,2.34987,1.34896,-0.671414,-3.25897,0.589234,-0.618221,-9.22361,0.616697,-6.07081,24.8026,-0.680832,5.12188,9.31264,-0.873484,2.64548,-1.15295e-14,-1.98785e-16,-27.4913,0.762734,-84.8496,29.8111,15.8856,-26.317,6.09056,7.12502,0.23957,-23.889,-1.15295e-14,-1.98785e-16,-28.6408,12.6434,73.8433,43.0058,3.52296,-22.218,24.0413,7.12502,4.19828,53.9797,-14.5277,16.3572,24.2117,34.0803,-20.7082,-10.1129,13.2281,-30.365,16.6487,-17.3859,65.4692,-9.9496,-3.40535,-26.3422
-0.0782147,18.5394,7.09774,-178.417,-6.0535,177.458,10.2123,1.20203,-0.325432,2.47547,1.3257,-0.840768,-3.13529,0.571327,-0.851878,-9.08224,0.549864,-5.9384,24.4292,-0.790871,5.24571,9.162,-0.884447,2.64966,-1.62258e-14,-5.36719e-15,-27.2428,0.576268,-84.9939,29.6014,15.8648,-26.4134,6.39117,7.12502,0.146446,-23.5885,-1.62258e-14,-5.36719e-15,-28.4183,12.552,73.9594,42.5601,3.20062,-22.351,23.8075,7.12502,4.06986,53.7484,-14.4117,16.1803,24.0163,33.9967,-20.682,-9.91435,13.2118,-31.6494,16.9113,-17.5306,67.6143,-10.408,-3.92524,-25.432
-0.076427,18.5456,7.10094,-178.411,-5.88616,177.422,10.3184,1.22093,-0.18395,2.52386,1.35863,-0.852919,-3.13938,0.584272,-0.949733,-8.94607,0.487005,-5.98795,24.099,-0.855788,5.33609,9.02597,-0.896693,2.67872,6.28657e-15,-1.19271e-15,-27.0535,0.3731,-84.904,29.4212,16.1583,-26.4534,6.16003,7.12502,0.107793,-23.8197,6.28657e-15,-1.19271e-15,-28.3234,12.6305,74.244,42.0863,2.82544,-22.4842,23.4689,7.12502,3.9412,53.4122,-14.3842,16.0393,23.9235,33.8888,-20.5965,-9.69908,13.499,-33.0414,17.2344,-17.6005,69.7474,-10.9006,-4.26753,-23.7653
-0.0740831,18.5528,7.10187,-178.42,-5.67753,177.388,10.4681,1.24979,-0.0570156,2.55548,1.40387,-0.85762,-3.18505,0.603467,-1.03456,-8.8765,0.441785,-6.05712,23.8734,-0.898492,5.41725,8.93789,-0.90481,2.71164,-8.94531e-16,2.18663e-15,-26.8868,0.12392,-84.8142,29.2602,16.5125,-26.519,5.76977,7.12502,0.0445031,-24.21,-8.94531e-16,2.18663e-15,-28.3424,12.6433,74.5122,41.6701,2.45878,-22.4943,23.4465,7.12502,3.93146,53.39,-14.3434,15.8079,23.8451,33.7649,-20.4141,-9.32027,13.7124,-34.4083,17.6803,-17.6897,71.8525,-11.4514,-3.83099,-22.8607
-0.0713444,18.5637,7.10223,-178.499,-5.48591,177.09,10.6842,1.29331,-0.224874,2.61373,1.42728,-0.942982,-3.24529,0.610812,-1.03558,-8.86781,0.411041,-6.06265,23.758,-0.936284,5.46821,8.899,-0.912065,2.72515,4.42296e-15,1.2921e-14,-26.7394,-0.087562,-84.7562,29.0976,16.6577,-26.3602,5.72963,7.12502,0.197836,-24.25,4.42296e-15,1.2921e-14,-28.3642,12.553,74.7155,41.1978,2.24759,-22.4963,23.282,7.12502,3.9295,53.2255,-14.2098,15.5841,23.5141,33.6314,-20.2919,-8.99479,13.4423,-35.6391,18.1483,-18.0799,73.8781,-12.0994,-2.89922,-22.5152
-0.0682679,18.5744,7.10254,-178.637,-5.34292,176.785,10.9797,1.31903,-0.427064,2.66585,1.42042,-1.01591,-3.35728,0.602606,-1.00235,-8.76913,0.390394,-6.10232,23.6053,-0.968994,5.55512,8.83012,-0.918519,2.75629,-4.25399e-14,2.10712e-14,-26.6156,-0.25391,-84.7187,28.9171,16.6156,-25.9128,5.62078,7.12502,0.629941,-24.358,-4.25399e-14,2.10712e-14,-28.4329,12.4924,74.9029,40.6904,2.13839,-22.2575,22.9083,7.12502,4.16014,52.8474,-13.9772,15.4632,23.2011,33.5049,-20.3597,-8.80239,12.9096,-36.8027,18.5921,-18.5089,75.8473,-12.7275,-2.04632,-20.5581
-0.0627273,18.5866,7.10281,-178.693,-5.18353,176.572,11.1936,1.35639,-0.581075,2.70688,1.43936,-1.04384,-3.43532,0.608583,-0.951444,-8.62714,0.364857,-6.15267,23.3897,-0.99856,5.63182,8.73166,-0.923582,2.78517,1.45113e-14,-5.36719e-15,-26.504,-0.404568,-84.6528,28.8727,16.5061,-25.4791,5.41179,7.12502,1.04883,-24.5654,1.45113e-14,-5.36719e-15,-28.4833,12.4857,75.157,40.1922,2.15381,-22.0439,22.9085,7.12502,4.3664,52.8435,-13.865,15.4656,22.9566,33.4024,-20.5499,-8.59133,12.5351,-38.0651,19.0385,-18.866,77.7319,-13.2244,-1.64308,-21.9503
-0.0585048,18.6025,7.10393,-178.723,-4.95709,176.286,11.3663,1.41883,-0.812727,2.77361,1.47947,-1.08674,-3.46546,0.624529,-0.874141,-8.63449,0.346652,-6.14939,23.2559,-1.00105,5.63094,8.68764,-0.916693,2.78286,-1.80894e-14,5.96354e-15,-26.3592,-0.502238,-84.5849,28.8269,16.5248,-25.3788,5.25442,7.12502,1.14569,-24.7223,-1.80894e-14,5.96354e-15,-28.5297,12.5872,75.4007,39.726,2.12153,-21.808,22.8656,7.12502,4.59412,52.7958,-13.8029,15.406,22.5965,33.2944,-20.5475,-8.26401,12.4213,-39.3219,19.5333,-19.3235,79.5214,-13.583,-1.27703,-21.0498
-0.0567416,18.6262,7.10349,-178.768,-4.66202,175.855,11.5587,1.51238,-1.20691,2.83,1.538,-1.15026,-3.52114,0.649967,-0.730309,-8.66958,0.326082,-6.14323,23.2215,-0.992453,5.51411,8.68224,-0.919833,2.74266,-7.20594e-15,-2.5842e-15,-26.2765,-0.369613,-84.5373,28.7814,16.5019,-25.7717,5.46139,7.12502,0.766286,-24.517,-7.20594e-15,-2.5842e-15,-28.6468,12.6354,75.6175,39.2336,2.24135,-21.7005,22.7966,7.12502,4.69802,52.7246,-13.6622,15.2844,22.0838,33.117,-20.3895,-7.94085,11.9559,-40.4973,20.0806,-19.9649,81.208,-13.8883,-0.624838,-20.1184
-0.0584698,18.6453,7.10006,-178.869,-4.32262,175.748,11.7472,1.58095,-1.25467,2.90155,1.61069,-1.11116,-3.55235,0.681379,-0.676663,-8.66493,0.325714,-6.13512,23.1544,-0.925796,5.27628,8.65472,-0.90679,2.66602,-5.56597e-15,8.15017e-15,-26.1531,-0.140823,-84.4876,28.7306,16.3823,-26.1765,5.42399,7.12502,0.375253,-24.5554,-5.56597e-15,8.15017e-15,-28.7355,12.5632,75.8938,38.664,2.69367,-21.6796,22.8925,7.12502,4.71816,52.82,-13.4183,15.2457,21.9492,32.8349,-20.1986,-7.63784,11.7239,-41.6498,20.71,-20.2337,82.8682,-14.2956,-0.218623,-19.5491
-0.0635492,18.655,7.09395,-178.972,-4.03904,175.837,11.8916,1.60194,-1.02497,2.9876,1.6567,-1.05839,-3.53646,0.698338,-0.759806,-8.79439,0.376446,-6.03942,23.209,-0.804215,5.03644,8.69012,-0.862043,2.58116,-1.29707e-14,0,-26.0249,0.0206185,-84.4965,28.7739,16.1635,-26.0981,5.06114,7.12502,0.450972,-24.9181,-1.29707e-14,0,-28.6897,12.6689,76.1163,37.905,2.95978,-21.8493,22.8138,7.12502,4.55433,52.7448,-13.1147,15.0838,22.0593,32.4644,-19.8995,-7.43028,11.0891,-42.8079,21.2471,-20.2834,84.485,-14.9464,-0.42678,-19.0575
-0.0707892,18.6593,7.08757,-178.983,-3.85656,175.892,11.9513,1.6205,-0.777971,3.05308,1.70516,-1.03956,-3.49358,0.718064,-0.886645,-8.94349,0.391084,-6.01884,23.2548,-0.775712,5.04423,8.73183,-0.842302,2.58463,-2.11209e-14,0,-25.922,0.030036,-84.4689,28.8746,16.0061,-26.032,5.12869,7.12502,0.514851,-24.8504,-2.11209e-14,0,-28.6052,12.8455,76.2951,37.1388,2.97384,-21.7808,22.499,7.12502,4.62046,52.4286,-12.8396,14.7114,22.1323,32.0229,-19.6435,-7.35519,9.22383,-44.0212,21.6013,-20.409,86.0383,-15.7291,-1.25535,-18.0342
-0.0771148,18.6711,7.08267,-178.914,-3.58801,175.939,11.9495,1.6746,-0.607804,3.07119,1.79931,-0.992968,-3.4688,0.763674,-0.947349,-8.94465,0.375206,-6.0626,23.1823,-0.783153,5.06533,8.70791,-0.843203,2.59802,9.83984e-15,7.95139e-15,-25.7839,0.0870435,-84.3939,28.8789,15.9494,-26.0765,5.41334,7.12502,0.471833,-24.5659,9.83984e-15,7.95139e-15,-28.7149,12.9654,76.4435,36.5488,2.95146,-21.4917,22.1086,7.12502,4.89954,52.032,-12.6665,14.4541,22.1255,31.57,-19.6466,-7.1123,7.67084,-45.3187,22.0257,-20.58,87.4831,-16.1693,-1.97805,-17.9905
-0.0842843,18.6868,7.07438,-178.938,-3.25882,176.101,11.9512,1.72583,-0.351801,3.13407,1.89903,-0.889324,-3.3978,0.810307,-0.996954,-8.91322,0.377603,-6.08537,23.1137,-0.74356,4.95999,8.67656,-0.8341,2.5691,-1.09332e-15,3.97569e-15,-25.653,0.428494,-84.3577,28.9032,15.8116,-26.2334,5.56735,7.12502,0.320331,-24.4122,-1.09332e-15,3.97569e-15,-28.8301,13.1718,76.5916,35.905,2.90865,-21.2514,21.9549,7.12502,5.13159,51.8728,-12.428,14.3464,22.2353,31.1789,-19.7566,-6.70152,7.02181,-46.4671,22.4963,-20.5884,88.8153,-16.4648,-2.40327,-18.8172
-0.0905247,18.6991,7.06781,-178.944,-2.98833,176.214,11.9809,1.75984,-0.136847,3.20164,1.96763,-0.805779,-3.33793,0.841023,-1.04046,-8.99501,0.367726,-6.19306,23.1402,-0.726898,4.94323,8.70031,-0.83529,2.58423,-6.65929e-15,-3.97569e-15,-25.5261,0.75293,-84.3394,29.0351,15.6424,-26.3768,5.74705,7.12502,0.181774,-24.2326,-6.65929e-15,-3.97569e-15,-28.8253,13.4885,76.7242,35.1209,2.84357,-21.0006,22.2169,7.12502,5.37374,52.1287,-12.2735,14.2783,22.3041,30.8716,-19.698,-6.36654,6.72017,-47.6147,22.8399,-20.6562,90.0382,-16.5947,-2.9457,-18.8741
-0.096592,18.7064,7.06414,-178.929,-2.7459,176.163,12.0684,1.80131,-0.0858437,3.2434,2.02306,-0.779011,-3.34044,0.865552,-1.05113,-9.04,0.36782,-6.26048,23.1078,-0.696426,4.91761,8.6961,-0.825406,2.59012,-3.28989e-14,1.31198e-14,-25.4767,1.09998,-84.3446,29.3547,15.4133,-26.1997,5.36557,7.12502,0.352832,-24.6139,-3.28989e-14,1.31198e-14,-28.8589,13.62,76.8596,34.414,2.90493,-20.8535,22.9344,7.12502,5.51576,52.8426,-12.1535,14.2682,22.1884,30.6287,-19.6778,-6.13778,6.30449,-48.7489,23.1084,-20.9281,91.1558,-16.4594,-3.64986,-18.6691
-0.105235,18.7154,7.06074,-178.918,-2.50962,176.027,12.2177,1.8261,-0.119123,3.21744,2.04961,-0.771553,-3.45022,0.877666,-1.03363,-8.88543,0.415212,-6.21764,23.0161,-0.619542,4.80839,8.63134,-0.797577,2.55118,7.95139e-16,-6.36111e-15,-25.4978,1.50433,-84.366,29.5817,15.2782,-25.9391,4.73829,7.12502,0.60461,-25.2406,7.95139e-16,-6.36111e-15,-29.1056,13.7921,76.8896,33.7611,2.76842,-20.8328,23.4731,7.12502,5.53579,53.3808,-12.0447,14.2234,21.9682,30.4475,-19.6974,-5.8177,6.09252,-49.808,23.3075,-21.3113,92.1331,-16.192,-4.45445,-18.2718
-0.111558,18.7276,7.05776,-178.956,-2.29104,175.944,12.4621,1.84939,-0.137081,3.18497,2.0754,-0.734323,-3.61938,0.888551,-0.996825,-8.77288,0.467523,-6.18927,22.9687,-0.539305,4.72021,8.58943,-0.768138,2.52288,4.57205e-15,-3.97569e-15,-25.4829,1.9083,-84.3563,29.7639,15.0405,-25.6761,4.92044,7.12502,0.858573,-25.0576,4.57205e-15,-3.97569e-15,-29.3656,14.1879,76.8474,33.0518,2.48931,-20.697,23.2189,7.12502,5.66689,53.1232,-11.9269,14.2106,21.8394,30.274,-19.6637,-5.67806,5.40028,-50.7808,23.4872,-21.5899,92.9886,-15.975,-5.3574,-17.794
-0.119652,18.7397,7.05306,-179.008,-2.08347,175.86,12.6934,1.87976,-0.123931,3.20506,2.11008,-0.690861,-3.72537,0.901822,-0.970996,-8.84306,0.495657,-6.26953,22.9677,-0.47411,4.71874,8.59833,-0.741448,2.54298,7.55382e-15,-7.15625e-15,-25.2808,2.10993,-84.2645,29.7866,14.8917,-25.5378,5.65211,7.12502,0.99212,-24.3253,7.55382e-15,-7.15625e-15,-29.5518,14.5974,76.8621,32.4027,2.2691,-20.7172,22.8372,7.12502,5.64741,52.7419,-11.7531,14.209,21.7066,30.0352,-19.5723,-5.71417,3.70015,-51.6977,23.6134,-21.8587,93.7458,-15.8966,-6.28772,-17.766
-0.130803,18.7505,7.04175,-179.105,-1.8617,175.687,12.917,1.93697,-0.169575,3.25636,2.16764,-0.676103,-3.79531,0.925263,-0.944862,-8.92855,0.518762,-6.26278,22.9705,-0.410161,4.63486,8.61175,-0.715368,2.52031,1.07344e-14,7.95139e-16,-25.1136,2.32684,-84.1831,29.8613,14.8894,-25.551,5.79183,7.12502,0.979433,-24.1857,1.07344e-14,7.95139e-16,-29.7458,14.993,76.883,31.7363,1.89606,-20.847,22.4931,7.12502,5.52209,52.4012,-11.4322,14.1341,21.4702,29.7601,-19.6843,-5.54404,2.72811,-52.4439,23.7023,-22.221,94.386,-15.9724,-7.16447,-18.3326
-0.142273,18.7634,7.02915,-179.165,-1.64838,175.56,13.0626,1.98564,-0.189792,3.27186,2.2236,-0.65864,-3.85924,0.950314,-0.928518,-8.79356,0.515316,-6.19517,22.8103,-0.392095,4.50868,8.53172,-0.709381,2.46532,-1.38155e-14,3.97569e-15,-25.0836,2.56979,-84.1314,30.082,14.9209,-25.676,5.71185,7.12502,0.858646,-24.2662,-1.38155e-14,3.97569e-15,-30.0162,15.3318,76.8169,31.0255,1.42772,-20.8573,22.2224,7.12502,5.51213,52.1307,-11.1631,13.886,21.2627,29.4672,-19.9375,-5.18163,3.26164,-53.2073,23.7841,-22.5584,94.9527,-16.1201,-7.86866,-18.6818
