JuanDHNZ/ProyectoFinalCD/preprocessing/sports_trials_csv/13_31.csv
root1,root2,root3,root4,root5,root6,lowerback1,lowerback2,lowerback3,upperback1,upperback2,upperback3,thorax1,thorax2,thorax3,lowerneck1,lowerneck2,lowerneck3,upperneck1,upperneck2,upperneck3,head1,head2,head3,rclavicle1,rclavicle2,rhumerus1,rhumerus2,rhumerus3,rradius1,rwrist1,rhand1,rhand2,rfingers1,rthumb1,rthumb2,lclavicle1,lclavicle2,lhumerus1,lhumerus2,lhumerus3,lradius1,lwrist1,lhand1,lhand2,lfingers1,lthumb1,lthumb2,rfemur1,rfemur2,rfemur3,rtibia1,rfoot1,rfoot2,rtoes1,lfemur1,lfemur2,lfemur3,ltibia1,lfoot1,lfoot2,ltoes1
-1.30651,18.692,-3.12679,1.58899,-8.32267,1.75717,3.31049,-0.543283,-4.40061,0.438237,-0.899064,-1.03543,-1.35512,-0.429391,1.4422,-8.43724,-6.22383,-10.7312,6.88159,-8.88821,18.1329,4.78838,-3.82287,6.8207,-1.799e-14,-8.74653e-15,-36.7065,-2.40885,-76.3951,29.2018,18.1709,-24.2007,4.56554,7.12502,2.28351,-25.402,-1.799e-14,-8.74653e-15,-31.556,13.5854,77.7523,21.3163,-11.6947,-28.6047,19.2307,7.12502,-1.96997,49.2014,-9.3764,19.5528,17.3319,27.0459,-19.7388,-18.4289,-1.51908,-6.52442,-5.29884,-19.3968,23.3618,-21.3411,21.6072,1.84454
-1.30621,18.6906,-3.13,1.55928,-8.24244,1.81945,3.35667,-0.501855,-4.39513,0.480566,-0.845062,-1.04632,-1.34079,-0.403368,1.42594,-8.44277,-6.22168,-10.7518,6.88583,-8.88413,18.1491,4.7918,-3.82008,6.82995,-1.42131e-14,-9.54166e-15,-36.7071,-2.18315,-76.3582,29.1935,17.8689,-22.895,-0.810501,7.12502,3.54447,-30.7608,-1.42131e-14,-9.54166e-15,-31.6575,13.3189,77.8262,21.8135,-11.4146,-28.4415,19.4869,7.12502,-1.81233,49.459,-9.36642,19.4834,17.2736,27.0996,-19.7673,-18.4344,-1.57614,-6.4392,-5.37384,-19.4514,23.2363,-21.4667,21.4444,2.18709
-1.30622,18.6923,-3.13285,1.53382,-8.13028,1.95013,3.34851,-0.479116,-4.41733,0.547933,-0.813573,-1.09605,-1.26913,-0.389998,1.3854,-8.35729,-6.2148,-10.7778,6.75698,-8.85932,18.1527,4.73609,-3.8165,6.83904,-8.52289e-15,-1.63003e-14,-36.6308,-2.18222,-76.221,29.221,18.2118,-23.1004,1.92902,7.12502,3.34617,-28.0245,-8.52289e-15,-1.63003e-14,-31.6672,13.1257,77.8441,22.1862,-11.1304,-28.3929,19.5813,7.12502,-1.76536,49.5537,-9.33738,19.341,17.1322,27.0877,-19.8018,-18.3866,-1.6736,-6.40392,-5.41438,-19.5892,23.2063,-21.4741,21.3794,2.05556
-1.30674,18.6947,-3.13785,1.58967,-8.02405,1.87507,3.37114,-0.439589,-4.2325,0.578456,-0.754407,-1.08838,-1.25605,-0.361873,1.28755,-8.36971,-6.20466,-10.7947,6.68275,-8.82995,18.1433,4.71195,-3.80441,6.84089,-6.03808e-15,-2.98177e-14,-36.5832,-1.98988,-76.2184,29.0509,17.0869,-23.9301,3.79231,7.12502,2.54483,-26.1723,-6.03808e-15,-2.98177e-14,-31.6082,12.8507,77.9124,22.4343,-10.7245,-28.528,19.5437,7.12502,-1.89588,49.515,-9.39672,19.2558,17.2029,27.101,-19.8423,-18.3929,-1.66608,-6.4246,-5.57426,-19.4951,23.1479,-21.5147,21.3894,2.29155
-1.30637,18.6949,-3.14291,1.62891,-7.94513,1.8723,3.40729,-0.402016,-4.131,0.609862,-0.701671,-1.0902,-1.24808,-0.33651,1.22689,-8.41793,-6.17238,-10.797,6.63324,-8.77022,18.114,4.69504,-3.77545,6.83596,2.24378e-14,1.43125e-14,-36.5145,-1.82399,-76.157,28.94,16.4367,-23.1756,-0.341572,7.12502,3.27356,-30.2962,2.24378e-14,1.43125e-14,-31.6303,12.5652,77.9839,22.8458,-10.2322,-28.7168,19.3093,7.12502,-2.07821,49.2789,-9.46468,19.1678,17.1859,27.1218,-19.8621,-18.3938,-1.51939,-6.44682,-5.79435,-19.4915,23.0922,-21.6467,21.4526,2.75762
-1.30723,18.6951,-3.14714,1.67317,-7.80731,1.93923,3.42178,-0.377288,-4.12504,0.626551,-0.668882,-1.09963,-1.2409,-0.32052,1.21253,-8.45223,-6.14506,-10.7649,6.59984,-8.71884,18.0312,4.6774,-3.75222,6.80698,-8.79622e-15,-8.74653e-15,-36.4473,-2.61893,-75.4156,29.2928,19.9954,-22.0505,1.33596,7.12502,4.36004,-28.5992,-8.79622e-15,-8.74653e-15,-31.7355,12.245,78.0783,23.3678,-9.79883,-28.836,19.3464,7.12502,-2.19328,49.3149,-9.52791,19.068,17.1016,27.1538,-19.8969,-18.4159,-1.29887,-6.4955,-5.88206,-19.5444,23.0386,-21.6493,21.3573,2.8355
-1.30821,18.6973,-3.15089,1.71542,-7.5986,2.07323,3.45102,-0.395696,-4.19913,0.643097,-0.697201,-1.1063,-1.238,-0.334639,1.2485,-8.53352,-6.10825,-10.7669,6.58949,-8.64936,17.9439,4.67333,-3.71827,6.78331,2.20154e-14,6.75868e-15,-36.3303,-2.51099,-75.2965,28.8263,19.0426,-24.0094,6.89421,7.12502,2.46826,-23.0713,2.20154e-14,6.75868e-15,-31.78,12.069,78.1289,23.7039,-9.463,-28.8493,19.4817,7.12502,-2.20621,49.45,-9.58903,18.8937,16.9493,27.1937,-19.9188,-18.4637,-1.27145,-6.56503,-5.95747,-19.6541,22.9975,-21.6568,21.1572,3.11478
-1.31062,18.7,-3.15808,1.81636,-7.37452,2.13427,3.45714,-0.410093,-4.20447,0.63419,-0.717101,-1.10299,-1.24944,-0.344194,1.25585,-8.54144,-6.07649,-10.6956,6.55804,-8.59148,17.7931,4.64552,-3.69514,6.72635,1.93318e-14,-9.14409e-15,-36.2306,-2.53263,-75.1216,28.5318,19.0015,-24.3409,5.42305,7.12502,2.1481,-24.5459,1.93318e-14,-9.14409e-15,-31.8004,11.8809,78.1297,23.9914,-9.25588,-28.8009,19.8347,7.12502,-2.1594,49.8035,-9.71099,18.7989,16.8687,27.2175,-19.9338,-18.5813,-1.03211,-6.74097,-6.01554,-19.6559,22.9967,-21.6146,20.9349,3.76461
-1.31587,18.7026,-3.17036,1.97173,-7.10176,2.06589,3.47982,-0.402876,-4.08171,0.593785,-0.705104,-1.07948,-1.30552,-0.337084,1.2113,-8.47902,-6.06319,-10.6093,6.50692,-8.56269,17.6342,4.60306,-3.6901,6.66282,-1.57288e-14,4.37326e-15,-36.2172,-2.8888,-74.6944,28.6407,20.5258,-22.6555,2.93775,7.12502,3.77581,-27.0085,-1.57288e-14,4.37326e-15,-31.8535,11.6562,78.1164,24.3529,-9.23603,-28.7584,20.0282,7.12502,-2.11842,49.9974,-9.88113,18.7774,16.9389,27.2251,-20.0301,-18.7777,-0.688624,-7.01093,-6.0089,-19.4818,23.0099,-21.412,20.6748,4.5301
-1.32153,18.7027,-3.17737,2.10415,-6.81524,1.95966,3.46828,-0.409746,-3.9456,0.598793,-0.707626,-1.03103,-1.29482,-0.339044,1.18491,-8.4559,-6.02888,-10.5431,6.39016,-8.49497,17.5129,4.54513,-3.66485,6.61774,1.73937e-15,1.31198e-14,-36.1871,-2.51114,-74.7318,28.5278,19.1583,-23.8808,3.74408,7.12502,2.59243,-26.2199,1.73937e-15,1.31198e-14,-31.8921,11.3804,78.145,24.7204,-8.9481,-28.8665,19.8923,7.12502,-2.22274,49.8605,-9.98229,18.7119,17.0679,27.216,-20.0769,-19.0667,-0.522772,-7.25401,-5.84813,-19.2703,23.0511,-21.1573,20.295,4.8473
-1.32637,18.6992,-3.17623,2.12404,-6.58175,1.95838,3.47086,-0.390611,-3.90366,0.636783,-0.679342,-1.02048,-1.25897,-0.326143,1.17087,-8.55379,-5.99502,-10.5112,6.45949,-8.44614,17.447,4.57075,-3.63609,6.59354,3.09359e-14,8.74653e-15,-36.1796,-2.17798,-74.7987,28.4137,17.6081,-25.1716,4.76457,7.12502,1.34588,-25.2109,3.09359e-14,8.74653e-15,-31.8988,10.9994,78.2015,24.9887,-8.52804,-29.0439,19.9241,7.12502,-2.39413,49.8904,-9.94666,18.6181,17.109,27.1972,-20.0218,-19.3694,-0.716011,-7.3499,-5.61897,-19.1977,23.1161,-20.9973,19.8001,4.12584
-1.33301,18.6968,-3.17953,2.16979,-6.34683,1.90083,3.52341,-0.354905,-3.80495,0.632903,-0.630477,-0.994885,-1.29557,-0.301413,1.1403,-8.68737,-5.96074,-10.4641,6.63467,-8.40314,17.3194,4.63113,-3.60784,6.54583,-1.28962e-14,-1.19271e-15,-36.106,-2.98159,-74.077,28.7125,20.3187,-21.5263,1.66406,7.12502,4.86619,-28.2601,-1.28962e-14,-1.19271e-15,-31.9357,10.789,78.1981,25.244,-8.42313,-29.2738,20.0232,7.12502,-2.61616,49.9869,-9.96255,18.6379,17.2206,27.1886,-19.9252,-19.7398,-0.927908,-7.46455,-5.49337,-19.0554,23.1751,-20.934,19.3424,2.67964
-1.33968,18.6986,-3.18902,2.23759,-6.02123,1.84025,3.63309,-0.33888,-3.69844,0.623207,-0.610131,-0.958134,-1.36866,-0.290296,1.11852,-8.76045,-5.92865,-10.4101,6.6752,-8.34576,17.1516,4.63662,-3.58104,6.48556,9.46712e-15,1.03368e-14,-36.0451,-2.62846,-74.1876,28.0918,17.118,-23.7664,3.20558,7.12502,2.70297,-26.757,9.46712e-15,1.03368e-14,-31.9225,10.665,78.1573,25.4689,-8.41298,-29.3707,19.8536,7.12502,-2.7097,49.8162,-9.9946,18.6657,17.3386,27.1822,-19.9948,-20.1199,-0.685849,-7.6469,-5.46116,-18.8924,23.2453,-20.9269,18.9377,2.87499
-1.34351,18.7003,-3.19823,2.29676,-5.6604,1.87009,3.76459,-0.322889,-3.69015,0.629735,-0.594156,-0.930331,-1.43611,-0.281257,1.14274,-8.97933,-5.91866,-10.3643,6.75256,-8.31427,17.0042,4.68362,-3.55843,6.42819,3.23025e-15,-1.74931e-14,-35.9618,-3.33259,-73.4591,28.1386,19.6657,-22.7406,3.66895,7.12502,3.69361,-26.2788,3.23025e-15,-1.74931e-14,-31.7941,10.5294,78.1427,25.571,-8.4181,-29.3199,20.0503,7.12502,-2.66069,50.0135,-10.0389,18.5359,17.3482,27.194,-19.9854,-20.5096,-0.99257,-7.84127,-5.26269,-18.8239,23.3213,-20.7587,18.4064,4.44982
-1.34558,18.7004,-3.20425,2.34349,-5.25648,1.82719,3.91765,-0.323796,-3.59977,0.60511,-0.598634,-0.876958,-1.54729,-0.28172,1.14859,-9.22335,-5.8877,-10.4288,6.96496,-8.26789,16.9699,4.78354,-3.52148,6.42887,6.48535e-15,1.61016e-14,-35.9615,-3.54948,-73.0211,28.0764,20.6038,-22.5985,4.7398,7.12502,3.83079,-25.2055,6.48535e-15,1.61016e-14,-31.7763,10.4354,78.1297,25.74,-8.42765,-29.3295,20.3821,7.12502,-2.66989,50.3452,-10.0631,18.3085,17.4388,27.2333,-19.9675,-20.8487,-1.50619,-8.00211,-4.98051,-18.677,23.3717,-20.4293,17.7235,5.1873
-1.35008,18.7006,-3.21084,2.36738,-4.78808,1.91979,4.02873,-0.317975,-3.60856,0.601555,-0.596682,-0.887472,-1.61327,-0.279588,1.14355,-9.25473,-5.86487,-10.4711,6.98276,-8.22259,16.9094,4.78639,-3.50107,6.4201,-1.15544e-14,7.15625e-15,-35.9266,-3.78661,-72.6965,27.8859,20.4962,-22.3647,3.13606,7.12502,4.05656,-26.8051,-1.15544e-14,7.15625e-15,-31.776,10.2766,78.0914,25.9638,-8.3583,-29.4032,20.3547,7.12502,-2.74115,50.3169,-10.0872,18.2071,17.3948,27.3057,-20.0763,-21.2197,-1.38769,-8.14027,-4.75894,-18.6768,23.3887,-20.0573,17.041,4.90158
-1.35511,18.7002,-3.21706,2.42294,-4.25352,2.11498,4.04646,-0.305399,-3.65886,0.625385,-0.583604,-0.965325,-1.59962,-0.273414,1.09108,-9.16623,-5.85412,-10.4773,6.80864,-8.18432,16.8609,4.71132,-3.49323,6.40951,2.29845e-14,1.59028e-15,-35.9025,-4.19147,-72.3358,27.7434,20.6091,-22.1239,3.23761,7.12502,4.28915,-26.6989,2.29845e-14,1.59028e-15,-31.6689,10.2794,77.9311,26.1234,-8.55586,-29.3246,20.4448,7.12502,-2.66523,50.4079,-10.1556,18.0204,17.2315,27.3979,-20.2025,-21.5703,-1.01599,-8.31945,-4.53236,-18.7776,23.3862,-19.6041,16.3266,3.77425
-1.35815,18.696,-3.2181,2.39856,-3.77632,2.25219,4.06431,-0.276592,-3.66523,0.69368,-0.545152,-1.01418,-1.54156,-0.255968,1.04231,-9.14743,-5.80607,-10.5149,6.71716,-8.10026,16.8497,4.66961,-3.45656,6.42012,8.32411e-15,-6.16232e-15,-35.8982,-4.44429,-72.0003,27.4402,20.4443,-22.3818,2.63618,7.12502,4.04013,-27.3053,8.32411e-15,-6.16232e-15,-31.5767,10.5029,77.6893,26.2887,-8.95203,-29.1532,20.2669,7.12502,-2.49966,50.232,-10.1097,17.8978,17.1632,27.5164,-20.4325,-21.9715,-0.823058,-8.37008,-4.32777,-18.8339,23.3774,-19.308,15.6198,2.11358
-1.35955,18.6941,-3.21746,2.26017,-3.32341,2.4562,4.14064,-0.208197,-3.7041,0.841745,-0.456523,-1.10636,-1.43646,-0.215031,0.964736,-9.28331,-5.76127,-10.621,6.73675,-8.02781,16.9606,4.69828,-3.41145,6.47924,6.95746e-16,1.63003e-14,-35.8961,-4.66831,-71.7465,27.1803,19.792,-22.8199,3.20084,7.12502,3.61704,-26.7482,6.95746e-16,1.63003e-14,-31.3212,10.6499,77.4782,26.3668,-9.2879,-29.1437,19.7166,7.12502,-2.49048,49.6818,-9.92016,17.8342,17.0548,27.6358,-20.6722,-22.4426,-0.81654,-8.30494,-4.34811,-18.9971,23.4233,-19.2455,15.0047,1.77364
-1.36393,18.6942,-3.2254,2.21857,-2.77601,2.52602,4.35439,-0.147769,-3.61798,0.87765,-0.382376,-1.15757,-1.52335,-0.177446,0.86104,-9.32656,-5.71987,-10.6693,6.69553,-7.95613,16.9772,4.68579,-3.37547,6.49882,9.79014e-15,1.15295e-14,-36.0052,-4.63087,-71.6068,27.2599,18.9082,-23.2443,3.78509,7.12502,3.20722,-26.1705,9.79014e-15,1.15295e-14,-31.1408,10.6392,77.2894,26.4858,-9.61971,-28.9208,19.4718,7.12502,-2.27525,49.4394,-9.84791,17.8454,17.0922,27.766,-20.8942,-23.0431,-0.661372,-8.42393,-4.24892,-18.9791,23.5095,-18.9744,14.2195,2.15527
-1.36977,18.6934,-3.23886,2.30433,-2.13971,2.53349,4.57901,-0.120765,-3.51907,0.791335,-0.35494,-1.15223,-1.73957,-0.16,0.810811,-9.30219,-5.69911,-10.645,6.70034,-7.91515,16.8276,4.66872,-3.36233,6.44977,-3.55328e-15,-1.09332e-14,-36.1571,-4.8675,-71.1071,27.4865,19.9334,-23.3238,4.76769,7.12502,3.1304,-25.1891,-3.55328e-15,-1.09332e-14,-31.1485,10.5195,77.1617,26.7657,-9.81375,-28.718,19.5421,7.12502,-2.07935,49.5117,-9.90496,17.942,17.1793,27.9224,-21.3265,-23.6026,0.176252,-8.73816,-3.94479,-18.8615,23.5986,-18.4518,13.2855,2.03368
-1.37561,18.6927,-3.2459,2.34398,-1.44479,2.72688,4.74005,-0.091358,-3.58893,0.751039,-0.329238,-1.20967,-1.87214,-0.144428,0.79001,-9.34355,-5.70212,-10.616,6.78152,-7.91782,16.7281,4.69448,-3.36302,6.41162,-1.40143e-14,-1.25234e-14,-36.3237,-4.96583,-70.7714,27.4967,20.0677,-22.5811,3.77014,7.12502,3.84767,-26.1749,-1.40143e-14,-1.25234e-14,-31.063,10.3518,77.054,26.9651,-9.82434,-28.8399,19.3431,7.12502,-2.1971,49.3115,-9.83995,17.9472,17.0895,28.0742,-21.893,-24.1364,0.852796,-9.01948,-3.57175,-18.9455,23.7451,-17.9517,12.2038,2.36831
-1.38093,18.6899,-3.24819,2.33686,-0.747778,2.9198,4.79164,-0.0395845,-3.66797,0.802765,-0.265788,-1.24452,-1.8501,-0.113186,0.794547,-9.43853,-5.63943,-10.8874,6.83551,-7.8188,16.9612,4.73458,-3.30437,6.54325,5.01931e-15,-9.93923e-16,-36.4163,-4.8622,-70.5382,27.4243,19.5874,-22.7846,3.89549,7.12502,3.65111,-26.053,5.01931e-15,-9.93923e-16,-30.8933,10.226,76.9831,27.2319,-9.76636,-29.036,19.172,7.12502,-2.38652,49.1384,-9.70192,17.8678,17.0162,28.1958,-22.3659,-24.7441,1.20486,-9.26188,-3.2748,-19.0496,23.98,-17.5288,11.1294,2.75821
-1.38733,18.6874,-3.25705,2.40334,-0.0409288,2.86143,4.8485,0.000414091,-3.52447,0.813295,-0.206273,-1.18872,-1.87379,-0.0839399,0.767991,-9.5704,-5.54812,-11.1764,6.90702,-7.6682,17.1214,4.77525,-3.2224,6.65895,8.29926e-15,2.14687e-14,-36.4811,-4.64035,-70.3065,27.446,19.3974,-24.0846,4.71902,7.12502,2.39565,-25.2473,8.29926e-15,2.14687e-14,-30.8688,10.0559,76.9414,27.8051,-9.67682,-29.0793,19.5704,7.12502,-2.42833,49.5363,-9.70944,17.8917,17.1978,28.2925,-22.6952,-25.4576,1.39869,-9.66865,-3.01181,-18.8575,24.2906,-17.0501,10.0991,2.37627
-1.39205,18.6867,-3.26739,2.4981,0.701279,2.73194,4.94944,0.0597146,-3.23145,0.799285,-0.116237,-1.15814,-1.94877,-0.0395893,0.62975,-9.6511,-5.53614,-11.1839,6.85685,-7.62104,16.9896,4.76119,-3.20287,6.61925,-3.85145e-15,8.94531e-15,-36.6407,-4.42967,-70.1124,27.7321,19.4822,-24.9885,5.09266,7.12502,1.52263,-24.8817,-3.85145e-15,8.94531e-15,-30.8208,9.67841,76.9094,28.4793,-9.46658,-28.8608,20.0356,7.12502,-2.21729,50.0038,-9.74097,17.7772,17.4288,28.3501,-23.0217,-25.9518,1.99605,-10.1646,-2.79721,-18.5774,24.7025,-16.6959,8.97545,2.66907
-1.39576,18.6843,-3.27759,2.57341,1.52856,2.726,5.06049,0.114108,-3.0349,0.8048,-0.0380444,-1.17293,-2.00809,-0.00117597,0.499329,-9.73931,-5.54192,-11.1613,6.79139,-7.59816,16.8402,4.74552,-3.19529,6.566,1.98785e-15,-9.74045e-15,-36.7862,-4.06605,-70.0247,28.0984,19.462,-25.5972,5.34678,7.12502,0.934822,-24.6309,1.98785e-15,-9.74045e-15,-30.7252,9.27248,76.8565,29.1996,-9.11026,-28.4041,20.3063,7.12502,-1.77617,50.2787,-9.69138,17.5176,17.5259,28.3655,-23.4437,-26.3895,2.60365,-10.7047,-2.6263,-18.441,25.2069,-16.253,7.92097,2.86262
-1.40176,18.6807,-3.28656,2.62921,2.3581,2.66094,5.11556,0.181579,-2.81586,0.834805,0.0626947,-1.16289,-2.01092,0.047458,0.380171,-9.82741,-5.52331,-11.2282,6.72359,-7.53895,16.78,4.73138,-3.16807,6.56126,1.32937e-15,1.98785e-15,-36.8516,-3.67432,-69.9631,28.3904,19.5067,-26.4243,6.32883,7.12502,0.135945,-23.6509,1.32937e-15,1.98785e-15,-30.7107,8.72718,76.8728,30.0573,-8.48352,-28.4224,20.8539,7.12502,-1.79383,50.8261,-9.62272,17.3726,17.7125,28.3715,-23.881,-27.1458,2.85937,-11.2616,-2.34797,-18.2311,25.7277,-15.6672,6.80227,2.55899
-1.4079,18.6789,-3.28804,2.65785,3.13974,2.65989,5.13427,0.287096,-2.68457,0.873865,0.21103,-1.15363,-1.98481,0.120077,0.306149,-9.81633,-5.51308,-11.245,6.56326,-7.48703,16.6442,4.66815,-3.15334,6.52316,1.2424e-15,-2.5842e-15,-36.9302,-3.16077,-69.9236,28.6729,19.6187,-27.4306,7.10335,7.12502,-0.835984,-22.8748,1.2424e-15,-2.5842e-15,-30.7358,8.10793,76.9249,30.9138,-7.84578,-28.5615,21.1878,7.12502,-1.92824,51.1589,-9.50864,17.3026,17.8453,28.3858,-24.2837,-27.8948,3.12526,-11.7387,-2.05247,-18.098,26.2288,-15.1789,5.62961,2.3471
-1.41113,18.6775,-3.28937,2.67311,4.00876,2.69533,5.19494,0.361449,-2.52355,0.941588,0.318075,-1.17551,-1.95077,0.171703,0.186132,-9.93882,-5.51013,-11.1804,6.42038,-7.44241,16.4583,4.62892,-3.13602,6.45189,-2.10339e-14,2.84262e-14,-36.885,-2.45392,-70.0064,29.0386,19.5528,-28.1524,7.02679,7.12502,-1.53306,-22.9474,-2.10339e-14,2.84262e-14,-30.6985,7.4744,76.9284,31.879,-7.37291,-28.457,21.1182,7.12502,-1.82729,51.0902,-9.34809,17.084,17.9419,28.3901,-24.6446,-28.3724,3.66624,-12.1869,-1.97815,-17.9948,26.7096,-14.7045,4.42998,2.97517
-1.41585,18.6747,-3.29995,2.73034,4.94806,2.60807,5.31133,0.422177,-2.26965,0.950055,0.41007,-1.14685,-2.0076,0.216604,0.0662554,-10.1542,-5.49874,-11.2024,6.47789,-7.3941,16.3053,4.6697,-3.10903,6.40671,1.06971e-14,-4.57205e-15,-36.7895,-1.77081,-70.0267,29.3642,19.533,-28.7946,6.66145,7.12502,-2.15334,-23.3074,1.06971e-14,-4.57205e-15,-30.7636,6.77944,76.9388,32.984,-6.97759,-28.5319,21.0433,7.12502,-1.89964,51.0146,-9.28945,16.8058,18.1555,28.3843,-24.9947,-28.8504,4.14389,-12.7383,-1.92945,-17.7324,27.1596,-14.1086,3.2414,3.67802
-1.42159,18.6732,-3.30601,2.78227,5.87964,2.5551,5.3685,0.502918,-2.04086,0.914559,0.527694,-1.16672,-2.07596,0.274482,-0.0913589,-10.0676,-5.44921,-11.1736,6.40716,-7.3121,16.1615,4.61417,-3.07995,6.36318,-1.01256e-14,2.78299e-15,-36.8202,-0.986999,-70.1085,29.7091,19.4926,-29.4562,6.84097,7.12502,-2.7923,-23.1205,-1.01256e-14,2.78299e-15,-30.9608,5.99062,76.8725,34.1615,-6.54874,-28.7187,20.9499,7.12502,-2.08002,50.9195,-9.19655,16.4883,18.3377,28.3793,-25.4282,-29.4235,4.42748,-13.2487,-1.82411,-17.5021,27.5925,-13.4899,1.95213,4.03084
-1.42781,18.6733,-3.30393,2.80593,6.80566,2.59835,5.27773,0.595035,-1.91013,0.985288,0.66104,-1.22249,-1.95217,0.339061,-0.229836,-10.017,-5.42623,-11.0484,6.26176,-7.26095,15.9444,4.54031,-3.06701,6.27523,1.77291e-14,-1.45113e-14,-36.7772,-0.146848,-70.2505,30.3089,19.2413,-30.0319,7.06519,7.12502,-3.34824,-22.8883,1.77291e-14,-1.45113e-14,-31.0849,5.42294,76.6984,35.4786,-6.49137,-29.0886,20.4896,7.12502,-2.43729,50.4554,-9.04698,16.1239,18.4265,28.3891,-25.8589,-30.0073,4.58267,-13.6495,-1.72969,-17.3682,27.9965,-12.8732,0.476519,4.2671
-1.43316,18.6704,-3.30249,2.78471,7.72659,2.66677,5.25352,0.698897,-1.80821,1.09416,0.806786,-1.29953,-1.82569,0.41014,-0.374866,-10.1307,-5.43364,-10.8609,6.17566,-7.25308,15.72,4.51596,-3.06569,6.16823,1.86361e-16,1.64991e-14,-36.6009,0.503043,-70.3429,30.905,19.0578,-30.2179,7.07306,7.12502,-3.52792,-22.8775,1.86361e-16,1.64991e-14,-31.1897,4.82565,76.4544,36.8541,-6.43274,-30.0598,19.0052,7.12502,-3.37517,48.9582,-8.85422,15.7386,18.4834,28.3974,-26.2113,-30.3132,4.96922,-13.9783,-1.65233,-17.2583,28.3742,-12.1168,-1.04807,4.80155
-1.43797,18.665,-3.30368,2.72662,8.73625,2.77624,5.40446,0.7667,-1.72664,1.17318,0.897557,-1.3946,-1.82663,0.454875,-0.525915,-10.2699,-5.43292,-10.8038,6.08476,-7.23173,15.6708,4.50531,-3.05158,6.1417,-8.10048e-15,1.05356e-14,-36.3994,1.10979,-70.3765,31.4327,18.852,-30.5403,7.81905,7.12502,-3.83926,-22.1261,-8.10048e-15,1.05356e-14,-31.3528,4.1457,76.1876,38.2494,-6.04396,-31.5654,18.3947,7.12502,-4.82914,48.3197,-8.58664,15.4108,18.5251,28.4004,-26.7212,-30.5876,5.63867,-14.2774,-1.68656,-17.1736,28.7416,-11.3083,-2.63152,5.5384
-1.44518,18.6624,-3.30375,2.6944,9.75673,2.81248,5.53539,0.869127,-1.60529,1.19557,1.0368,-1.45751,-1.87393,0.524006,-0.670229,-10.3679,-5.46,-10.7896,6.03668,-7.25096,15.6231,4.50757,-3.05917,6.12007,-3.58806e-14,4.37326e-15,-36.1985,1.66383,-70.3437,31.8575,18.7151,-31.7006,8.63452,7.12502,-4.95964,-21.2874,-3.58806e-14,4.37326e-15,-31.6126,3.36592,75.9589,39.7202,-5.55257,-33.0934,18.9194,7.12502,-6.30435,48.8055,-8.37977,15.0629,18.6493,28.4261,-27.1307,-31.1197,5.89375,-14.6034,-1.72178,-16.9722,29.0684,-10.4726,-4.36298,6.4142
-1.45345,18.6605,-3.30267,2.68133,10.7524,2.8095,5.61248,0.995567,-1.46427,1.23371,1.21108,-1.52651,-1.87341,0.610339,-0.833587,-10.6422,-5.46367,-10.7218,6.09306,-7.24173,15.5614,4.56463,-3.04247,6.08519,-1.81391e-14,6.95746e-15,-35.7768,2.01577,-70.2879,32.2324,18.8783,-32.7073,8.6992,7.12502,-5.9316,-21.1978,-1.81391e-14,6.95746e-15,-31.9114,2.53404,75.679,41.4467,-5.45822,-33.9992,20.1774,7.12502,-7.17879,50.0356,-8.2292,14.7224,18.8131,28.5125,-27.5671,-31.641,6.11806,-14.9463,-1.77287,-16.7075,29.3356,-9.59003,-6.11977,6.78702
-1.46294,18.6592,-3.30279,2.67324,11.768,3.134,5.6979,1.1195,-1.64753,1.37498,1.36349,-1.7065,-1.77508,0.68688,-0.926801,-11.0475,-5.43443,-10.6057,6.11476,-7.1852,15.5474,4.62761,-2.99418,6.06008,-3.07371e-14,2.8128e-14,-35.273,2.45611,-70.2761,32.8827,18.8805,-32.5166,8.25915,7.12502,-5.74751,-21.6429,-3.07371e-14,2.8128e-14,-32.0501,2.04405,75.1633,42.9372,-5.77471,-33.3051,18.0015,7.12502,-6.50874,47.8815,-8.02144,14.3553,18.6372,28.6462,-28.1307,-31.9561,6.67343,-15.2392,-1.90114,-16.7725,29.5768,-8.63224,-7.83284,7.11591
-1.47131,18.6548,-3.30431,2.69606,12.8955,3.59373,5.76669,1.22009,-1.91338,1.43467,1.47803,-1.92062,-1.75256,0.745135,-1.00713,-11.0062,-5.3744,-10.5766,6.07259,-7.1022,15.5277,4.59474,-2.95572,6.05714,4.10739e-14,4.57205e-15,-35.0264,3.11843,-70.2521,33.7155,18.4509,-32.528,8.10692,7.12502,-5.75855,-21.7948,4.10739e-14,4.57205e-15,-32.3497,1.50377,74.7445,44.6727,-5.90586,-33.7383,18.8583,7.12502,-6.92691,48.7249,-7.81543,13.7502,18.302,28.7822,-28.4709,-32.276,6.4613,-15.5416,-2.13506,-16.9779,29.8456,-7.67759,-9.48878,7.28023
-1.4824,18.6467,-3.30351,2.66361,13.9959,3.83377,5.87665,1.3396,-2.05512,1.36686,1.62116,-2.04302,-1.88354,0.817957,-1.06826,-10.5197,-5.31891,-10.6148,5.94809,-7.04147,15.4998,4.46658,-2.95078,6.06708,-8.77137e-15,-1.19271e-14,-34.744,3.89396,-70.2009,34.0977,17.9671,-33.0662,8.45259,7.12502,-6.27809,-21.4344,-8.77137e-15,-1.19271e-14,-32.7354,1.00414,74.2635,46.1871,-6.09606,-33.5814,18.7018,7.12502,-6.7755,48.5733,-7.59783,13.3382,18.2425,28.9365,-29.0511,-32.7191,6.53988,-15.8276,-2.32141,-16.9159,30.1232,-6.72417,-11.1909,6.22583
-1.4972,18.6388,-3.29771,2.48519,14.9838,3.75308,6.07527,1.49084,-1.96923,1.33537,1.81967,-2.07463,-2.02244,0.917322,-1.17027,-10.2415,-5.30841,-10.6556,5.94431,-7.04507,15.5306,4.42147,-2.96306,6.08811,8.27441e-15,-9.93923e-15,-34.135,4.57509,-70.0915,34.1193,18.0544,-33.2478,8.92879,7.12502,-6.45347,-20.9529,8.27441e-15,-9.93923e-15,-32.7951,0.587854,73.7077,47.4151,-6.45527,-33.2993,18.3208,7.12502,-6.50317,48.201,-7.28077,13.1727,18.5826,29.0712,-29.8351,-33.1081,7.42757,-16.0934,-2.51434,-16.4625,30.4795,-5.74898,-12.91,4.72312
-1.50457,18.6308,-3.29874,2.43997,16.0932,3.90731,6.25699,1.621,-1.96816,1.35281,1.9853,-2.19904,-2.10043,1.00042,-1.31749,-10.2545,-5.32899,-10.7571,6.03993,-7.07856,15.6436,4.46548,-2.97303,6.13952,6.00578e-14,-6.36111e-15,-33.4097,4.94333,-69.8005,34.3218,18.711,-33.4893,9.31126,7.12502,-6.6866,-20.5632,6.00578e-14,-6.36111e-15,-32.7893,0.0509623,73.18,48.8467,-6.6711,-33.2883,18.3148,7.12502,-6.49251,48.1953,-7.03774,12.5774,18.5709,29.1665,-30.3715,-33.2717,8.00346,-16.5066,-2.81855,-16.2948,30.8991,-4.65392,-14.6536,3.99861
-1.51429,18.621,-3.29937,2.34798,17.0647,3.86585,6.35984,1.81038,-1.84277,1.37379,2.24171,-2.27576,-2.12626,1.12796,-1.4905,-10.1745,-5.31488,-10.8156,6.06037,-7.06462,15.7067,4.46093,-2.96669,6.17281,2.16178e-14,-1.13307e-14,-32.8819,5.11083,-69.4673,34.8759,19.2479,-33.8144,9.56117,7.12502,-7.00043,-20.3031,2.16178e-14,-1.13307e-14,-32.8906,-0.457359,72.6012,50.3485,-6.90709,-33.5431,18.1499,7.12502,-6.73854,48.0227,-6.84562,12.1491,18.7692,29.2222,-30.7708,-33.5716,8.12762,-16.9747,-2.95154,-15.9106,31.3679,-3.48617,-16.3706,3.2757
-1.52117,18.6104,-3.296,2.30246,17.9605,3.86415,6.41123,2.01423,-1.76025,1.36742,2.5157,-2.34752,-2.1515,1.26447,-1.63509,-10.0711,-5.29865,-10.8651,6.04217,-7.03857,15.6874,4.43511,-2.96019,6.17888,6.75868e-14,0,-32.4187,5.25337,-69.1348,35.4941,19.6295,-34.1605,9.45122,7.12502,-7.33454,-20.4017,6.75868e-14,0,-32.9354,-0.673949,71.9296,51.6375,-7.32725,-33.4678,17.1397,7.12502,-6.66583,47.0147,-6.67967,11.894,18.9112,29.2989,-31.3649,-33.8362,8.55871,-17.4526,-3.18348,-15.5823,31.8397,-2.44193,-17.9392,2.282
-1.52522,18.5992,-3.28993,2.24243,18.8206,3.75006,6.39552,2.19977,-1.56817,1.40502,2.77705,-2.38536,-2.08919,1.39418,-1.80088,-10.2402,-5.29498,-10.8623,6.21061,-7.02723,15.5839,4.508,-2.94847,6.14397,4.22417e-16,3.97569e-15,-31.7269,5.58276,-68.7955,36.0346,19.8943,-34.8558,9.15085,7.12502,-8.00557,-20.6775,4.22417e-16,3.97569e-15,-32.9019,-0.823894,71.2196,52.9644,-7.3997,-33.1864,15.5187,7.12502,-6.39415,45.4022,-6.49905,11.6997,19.1804,29.3567,-32.0592,-34.1375,8.98775,-17.9355,-3.51521,-15.1377,32.3334,-1.54567,-19.3223,1.51688
-1.52698,18.5864,-3.28254,2.10635,19.5597,3.59334,6.37467,2.39832,-1.41654,1.41764,3.05278,-2.39576,-2.05092,1.53132,-1.91698,-10.291,-5.25252,-10.8158,6.4849,-6.98861,15.4635,4.58652,-2.92611,6.10118,-2.26863e-14,7.95139e-16,-31.0331,6.06889,-68.4552,36.6213,20.0101,-35.4606,9.13209,7.12502,-8.58932,-20.6732,-2.26863e-14,7.95139e-16,-33.0477,-1.07091,70.5637,54.4108,-7.06965,-33.2801,14.3995,7.12502,-6.48459,44.2802,-6.25941,11.3701,19.4593,29.3508,-32.4024,-34.3136,9.07844,-18.3251,-3.67306,-14.6731,32.8257,-0.839349,-20.525,0.920701
-1.52579,18.5751,-3.27299,1.90485,20.2004,3.3652,6.35733,2.61899,-1.24093,1.37131,3.3581,-2.37694,-2.07341,1.68281,-2.02043,-10.0853,-5.15586,-10.736,6.66949,-6.89175,15.3496,4.58578,-2.88655,6.06367,4.26642e-14,-2.14687e-14,-30.4045,6.66397,-68.1297,37.1826,19.9167,-35.7516,9.45829,7.12502,-8.8701,-20.3353,4.26642e-14,-2.14687e-14,-33.3961,-1.21948,69.854,55.9285,-6.77565,-33.2082,14.0245,7.12502,-6.41525,43.9074,-5.96584,10.9141,19.7814,29.2775,-32.542,-34.4161,9.20417,-18.6414,-3.83555,-14.1475,33.2873,-0.278595,-21.3307,0.777127
-1.5223,18.5657,-3.25675,1.59352,20.8134,3.00673,6.37817,2.85223,-0.892308,1.32726,3.69081,-2.35862,-2.10141,1.84702,-2.22483,-9.91,-5.07012,-10.7131,6.89766,-6.81139,15.3098,4.61075,-2.85057,6.05831,-3.11098e-14,1.43125e-14,-29.7553,7.20651,-67.8074,37.6834,19.795,-36.1639,10.0848,7.12502,-9.26794,-19.6915,-3.11098e-14,1.43125e-14,-33.7002,-1.24744,69.0306,57.3624,-6.70546,-32.6276,13.8106,7.12502,-5.8547,43.7097,-5.55104,10.6287,20.2819,29.1741,-32.8796,-34.5642,9.69728,-18.8203,-4.08864,-13.4847,33.6707,-0.182563,-21.7489,0.225289
-1.51675,18.5561,-3.23621,1.27963,21.4268,2.63212,6.33002,3.06712,-0.575857,1.32309,4.00022,-2.31666,-2.05078,2.00028,-2.37906,-9.80636,-5.00097,-10.7133,7.10015,-6.74088,15.2614,4.64207,-2.81817,6.05194,-1.78906e-15,-1.98785e-15,-28.9357,7.56052,-67.3599,38.2283,20.1723,-36.3992,10.5129,7.12502,-9.49497,-19.2532,-1.78906e-15,-1.98785e-15,-33.9369,-1.13131,68.1741,58.7486,-6.49884,-32.0614,13.0898,7.12502,-5.30798,43.0034,-5.1111,10.3282,20.7942,29.0439,-33.2347,-34.7044,9.98071,-18.9436,-4.37539,-12.8218,33.9356,-0.669065,-21.5281,-0.626035
-1.51431,18.5474,-3.22231,1.10504,21.9942,2.3975,6.29937,3.2844,-0.488688,1.27514,4.29583,-2.2782,-2.06918,2.14706,-2.41055,-9.74396,-4.95464,-10.6072,7.31454,-6.69977,15.0772,4.67907,-2.8024,5.97985,5.14355e-15,9.14409e-15,-28.0304,7.92728,-66.8472,38.8228,20.6614,-36.4124,10.8069,7.12502,-9.50773,-18.9586,5.14355e-15,9.14409e-15,-34.3132,-1.13516,67.3889,60.4128,-5.7327,-32.2098,13.324,7.12502,-5.45133,43.2339,-4.80631,10.116,21.1445,28.8905,-33.5084,-34.927,9.95491,-19.108,-4.67409,-12.3033,34.0387,-1.7817,-20.4721,-2.02208
-1.50838,18.5405,-3.20839,0.937254,22.571,2.30195,6.2924,3.4947,-0.513316,1.2631,4.57463,-2.27225,-2.06991,2.28639,-2.41206,-9.69141,-4.96185,-10.3375,7.46477,-6.72469,14.6886,4.69389,-2.82601,5.80674,-2.60408e-14,3.18055e-15,-27.0827,8.33553,-66.3497,39.4076,20.7973,-36.403,10.9974,7.12502,-9.4987,-18.7685,-2.60408e-14,3.18055e-15,-34.623,-1.10311,66.6196,62.0125,-4.97159,-33.6834,15.1374,7.12502,-6.87391,45.0058,-4.4376,9.84425,21.3415,28.7292,-33.8141,-35.0785,9.90696,-19.1302,-5.07954,-11.9498,33.9605,-3.50773,-18.6282,-3.93824
-1.49163,18.538,-3.18624,0.74166,23.1205,2.37138,6.21502,3.69167,-0.609597,1.30194,4.83241,-2.35036,-1.97861,2.41679,-2.45088,-9.74795,-4.94772,-10.1576,7.74726,-6.73563,14.5148,4.77712,-2.82685,5.71979,-5.23301e-14,3.93594e-14,-26.1151,8.79699,-65.9287,40.0834,20.7105,-36.3734,11.2367,7.12502,-9.4701,-18.5305,-5.23301e-14,3.93594e-14,-34.9213,-0.745527,65.5783,63.3679,-4.70454,-35.7201,18.6672,7.12502,-8.83973,48.4621,-3.93155,9.2359,21.2984,28.5728,-33.832,-35.0175,9.79111,-18.911,-5.58973,-11.8134,33.684,-5.27723,-16.2052,-4.86263
-1.47283,18.5378,-3.16081,0.601011,23.5422,2.37305,6.08504,3.92677,-0.693612,1.24949,5.14129,-2.39959,-1.95201,2.57157,-2.47018,-9.73901,-4.89715,-10.1383,8.12623,-6.70111,14.4515,4.88225,-2.80512,5.70197,-1.07841e-14,-4.77083e-15,-25.241,9.13751,-65.4517,40.8991,20.8728,-36.3282,11.4945,7.12502,-9.42653,-18.2747,-1.07841e-14,-4.77083e-15,-35.4045,-0.460756,64.5331,64.7751,-4.35179,-36.5846,19.3312,7.12502,-9.67384,49.0891,-3.51707,8.68356,21.2746,28.3688,-33.7677,-34.8772,9.81173,-18.7071,-6.15383,-11.6084,33.2658,-6.90834,-13.4486,-5.88955
-1.46068,18.5368,-3.13162,0.504039,23.9009,2.41456,5.96194,4.16588,-0.997182,1.15355,5.44123,-2.39581,-2.00024,2.72199,-2.31575,-9.65919,-4.83117,-10.149,8.49556,-6.641,14.3506,4.96869,-2.7772,5.68046,-2.3556e-14,-1.55052e-14,-24.3934,9.63125,-64.9719,41.8065,21.0028,-36.4085,11.8161,7.12502,-9.504,-17.9496,-2.3556e-14,-1.55052e-14,-36.0199,-0.342642,63.6489,66.2978,-3.83941,-36.4203,18.5234,7.12502,-9.51537,48.2885,-3.0958,8.57899,21.3086,28.083,-33.8955,-35.0437,9.90143,-18.4983,-6.7559,-11.407,32.7311,-8.16047,-10.6607,-6.69993
-1.44704,18.5373,-3.10109,0.369184,24.3216,2.41609,5.91742,4.3776,-1.16073,1.02634,5.70958,-2.47617,-2.10605,2.856,-2.33093,-9.55242,-4.78919,-10.0531,8.78592,-6.63242,14.3417,5.0336,-2.7678,5.66618,1.03368e-14,-1.07344e-14,-23.6012,10.1357,-64.6394,42.7608,20.9054,-36.3196,12.4661,7.12502,-9.41816,-17.3034,1.03368e-14,-1.07344e-14,-36.6426,-0.266172,62.5982,67.835,-3.1755,-34.5305,15.3899,7.12502,-7.69162,45.23,-2.57147,8.49191,21.4128,27.7292,-34.1185,-35.2248,10.2409,-18.2623,-7.30341,-11.1872,32.1187,-9.0325,-8.00022,-6.74705
-1.42534,18.5393,-3.0679,0.178497,24.7979,2.2761,5.79835,4.56376,-1.08382,0.920416,5.96162,-2.57767,-2.12289,2.98128,-2.49058,-9.44326,-4.80105,-9.90349,9.04839,-6.70461,14.3534,5.09918,-2.79494,5.64211,-3.51352e-14,-2.98177e-14,-22.757,10.4111,-64.353,43.6934,20.8201,-36.3039,13.0774,7.12502,-9.40306,-16.6928,-3.51352e-14,-2.98177e-14,-37.1664,0.0176541,61.3546,69.2107,-2.46399,-34.212,15.8214,7.12502,-7.38423,45.6726,-1.98589,8.35892,21.6391,27.3131,-34.3101,-35.4258,10.4417,-18.0517,-7.87433,-10.8684,31.4679,-9.48753,-5.56261,-5.33146
-1.39919,18.5413,-3.02948,-0.025979,25.1904,2.17598,5.59634,4.75567,-1.08672,0.876359,6.22121,-2.63827,-2.04097,3.11163,-2.55283,-9.41895,-4.87144,-9.87057,9.34996,-6.8358,14.336,5.20159,-2.85273,5.62201,1.34577e-13,-1.94809e-14,-21.8419,10.7486,-64.0098,44.7558,20.7021,-36.6007,13.3525,7.12502,-9.68941,-16.4046,1.34577e-13,-1.94809e-14,-37.6344,0.472744,60.1053,70.4007,-2.02014,-34.7384,16.2459,7.12502,-7.89231,46.0786,-1.34492,8.32499,21.819,26.8449,-34.4968,-35.6619,10.5757,-17.7803,-8.55111,-10.6187,30.7977,-9.49924,-3.27296,-3.93857
-1.37308,18.5421,-2.99392,-0.182988,25.6342,2.03608,5.39213,4.88489,-1.12854,0.836728,6.39632,-2.61388,-1.96968,3.1997,-2.4995,-9.62885,-4.93129,-9.99708,9.73025,-6.92004,14.3055,5.36759,-2.8841,5.62622,5.98839e-14,-7.95139e-15,-20.8495,11.3186,-63.6044,46.0175,20.3537,-37.1401,13.6007,7.12502,-10.2098,-16.1316,5.98839e-14,-7.95139e-15,-38.1486,1.10476,58.9266,71.5393,-1.83724,-34.1014,15.6215,7.12502,-7.2774,45.4763,-0.781993,8.05719,21.9891,26.3466,-34.5177,-35.8257,10.6008,-17.6381,-9.22845,-10.3257,30.1188,-8.98858,-1.57105,-3.09521
-1.34599,18.5394,-2.95968,-0.315864,26.1762,1.82743,5.11885,4.96806,-1.08903,0.82672,6.51778,-2.58035,-1.82358,3.26114,-2.46817,-9.92834,-4.9688,-10.1011,10.005,-6.95546,14.2521,5.5095,-2.89145,5.62128,8.88071e-14,-1.11319e-14,-19.6647,11.7213,-63.1413,47.2521,19.88,-37.7554,13.9216,7.12502,-10.8033,-15.7805,8.88071e-14,-1.11319e-14,-38.653,1.75764,57.6892,72.678,-1.66148,-33.5486,14.8106,7.12502,-6.74378,44.6832,-0.273017,7.73091,22.2173,25.8365,-34.563,-36.0151,10.4282,-17.6217,-9.87489,-9.95572,29.4449,-8.1351,-0.827136,-1.85675
-1.31563,18.5329,-2.92186,-0.512419,26.7091,1.54868,4.79381,5.08239,-0.967605,0.820446,6.68628,-2.54517,-1.63419,3.34605,-2.47605,-10.0725,-5.06462,-10.2949,10.265,-7.08161,14.3124,5.63978,-2.94566,5.66255,-7.94642e-14,2.70347e-14,-18.5314,12.0152,-62.6683,48.4408,19.6456,-38.6873,13.4037,7.12502,-11.7021,-16.2495,-7.94642e-14,2.70347e-14,-39.0768,2.35224,56.4809,73.6976,-1.50499,-33.4728,14.621,7.12502,-6.67065,44.496,0.305081,7.6747,22.5827,25.3169,-34.8106,-36.2914,10.5183,-17.6104,-10.4819,-9.52994,28.8188,-7.01623,-0.842952,-0.631829
-1.2845,18.5287,-2.88549,-0.851412,27.2661,1.19239,4.64495,5.24092,-0.728804,0.797062,6.91366,-2.51534,-1.54338,3.45939,-2.57408,-10.1301,-5.23426,-10.4569,10.5323,-7.32331,14.3872,5.77273,-3.05674,5.693,3.9086e-14,-7.95139e-16,-17.6836,12.5325,-62.214,49.806,19.8757,-39.5383,12.0538,7.12502,-12.5227,-17.5509,3.9086e-14,-7.95139e-16,-39.269,2.97347,55.2688,74.4403,-1.54008,-33.6564,14.9934,7.12502,-6.84792,44.8627,0.979062,7.64849,23.0512,24.8588,-35.033,-36.6519,10.7058,-17.5573,-11.1729,-9.07013,28.2237,-5.65625,-1.30411,0.293866
-1.24847,18.5211,-2.85004,-1.30797,27.8513,0.920284,4.7092,5.39107,-0.537271,0.788485,7.12254,-2.499,-1.55896,3.56305,-2.67993,-10.1376,-5.39249,-10.4706,10.747,-7.55167,14.3226,5.86823,-3.16722,5.65304,9.21615e-14,-1.35174e-14,-16.9448,13.2604,-61.7279,51.3882,19.9174,-39.8322,11.3759,7.12502,-12.806,-18.2113,9.21615e-14,-1.35174e-14,-39.463,3.6671,53.9784,75.1199,-1.72297,-32.9167,14.5785,7.12502,-6.13381,44.4697,1.78387,7.42582,23.4024,24.4944,-35.1934,-36.8996,10.6657,-17.3674,-11.9108,-8.78524,27.7039,-4.44043,-2.05471,1.8231
-1.20537,18.5025,-2.80889,-1.65408,28.4699,0.882458,4.82357,5.5404,-0.54133,0.660745,7.31562,-2.55297,-1.73968,3.65759,-2.76444,-9.79916,-5.51299,-10.5158,10.8562,-7.74672,14.3119,5.86983,-3.27474,5.64431,1.17631e-13,-1.59028e-14,-16.3807,13.9551,-61.2521,53.0253,19.5344,-39.6854,11.5652,7.12502,-12.6645,-18.0308,1.17631e-13,-1.59028e-14,-39.9274,4.06308,52.6228,75.9199,-1.75639,-32.4198,14.0087,7.12502,-5.65405,43.9133,2.57547,7.08451,23.4866,24.2153,-35.4967,-37.0021,10.402,-17.1047,-12.5725,-8.81104,27.3609,-3.834,-2.97146,3.42701
-1.16023,18.4826,-2.76803,-1.68128,29.0548,0.776537,4.25094,5.65385,-0.5735,0.655156,7.47804,-2.57392,-1.42176,3.74199,-2.71278,-9.61282,-5.62397,-10.4851,10.8205,-7.9041,14.2335,5.84244,-3.36249,5.60005,7.90169e-15,1.66979e-14,-15.3966,14.5351,-60.6929,54.6647,19.211,-39.7093,11.5185,7.12502,-12.6875,-18.0761,7.90169e-15,1.66979e-14,-40.1871,4.69406,51.3016,76.6148,-1.80987,-31.8962,13.2394,7.12502,-5.14855,43.1569,2.90676,6.81909,23.59,24.0702,-35.8326,-37.1154,10.1919,-17.2183,-13.1461,-8.71559,27.2261,-3.80395,-3.48521,3.67875
-1.12074,18.4655,-2.73546,-1.80845,29.5232,0.24519,3.96134,5.85311,-0.125596,0.427276,7.76415,-2.60686,-1.41993,3.88218,-2.98332,-9.37648,-5.7495,-10.4527,10.8997,-8.11333,14.2758,5.85381,-3.46646,5.59268,1.36167e-14,-7.95139e-16,-14.775,14.7832,-60.2782,56.3317,19.1869,-40.3704,11.7162,7.12502,-13.3248,-17.8378,1.36167e-14,-7.95139e-16,-40.2352,5.02834,49.9743,77.133,-1.96854,-31.4636,13.0157,7.12502,-4.7308,42.9428,3.00372,6.68186,24.1079,24.0299,-36.2066,-37.2867,10.236,-17.5458,-13.4823,-8.1793,27.3312,-4.06789,-3.40126,2.43797
-1.07854,18.4465,-2.70728,-2.00798,30.0087,-0.0372313,3.87319,6.06957,0.102614,0.298102,8.06161,-2.62841,-1.455,4.0288,-3.13903,-9.03552,-5.84896,-10.5664,10.8114,-8.26678,14.3933,5.79742,-3.55268,5.64119,-1.16438e-13,1.66979e-14,-14.0257,14.969,-59.6797,57.8526,19.1808,-40.8817,12.5173,7.12502,-13.8176,-17.0038,-1.16438e-13,1.66979e-14,-40.1995,5.25937,48.9201,77.6594,-1.70037,-32.1923,13.8091,7.12502,-5.43436,43.7194,3.30975,6.53968,24.3936,23.9687,-36.5381,-37.4159,10.5293,-17.6998,-13.7475,-7.98503,27.696,-4.50636,-3.34646,0.238305
-1.02994,18.4308,-2.67903,-2.1841,30.4297,-0.191476,3.77174,6.29244,0.221082,0.18571,8.3634,-2.63544,-1.48049,4.17808,-3.21736,-8.59927,-5.98563,-10.7282,10.6339,-8.4575,14.4589,5.702,-3.6685,5.67849,-1.66482e-14,-6.36111e-15,-13.2356,15.3307,-59.0407,59.3915,18.8305,-40.6939,12.8978,7.12502,-13.6366,-16.6355,-1.66482e-14,-6.36111e-15,-40.2504,5.33195,48.1237,78.28,-0.553716,-33.9758,15.0024,7.12502,-7.15617,44.8614,3.69947,6.34651,24.5016,23.8473,-36.8761,-37.3732,10.8862,-17.7779,-13.8423,-7.98805,28.2303,-4.93336,-3.98967,-1.56593
-0.979741,18.4136,-2.64753,-2.64057,30.7347,-0.653743,3.79033,6.51962,0.615555,0.0587176,8.68188,-2.59074,-1.55286,4.33296,-3.40712,-8.29977,-6.13639,-10.8115,10.6617,-8.69139,14.5401,5.69717,-3.79105,5.70279,1.36205e-13,-1.03368e-14,-12.4994,15.6578,-58.582,60.7956,18.76,-40.8452,12.7534,7.12502,-13.7825,-16.7701,1.36205e-13,-1.03368e-14,-40.3296,5.68306,46.9952,78.6662,-0.474291,-33.7825,14.3422,7.12502,-6.96959,44.2074,4.21798,6.16046,24.9167,23.7555,-37.1627,-37.333,11.0565,-17.6633,-13.7568,-7.72378,28.7621,-5.25379,-5.06039,-1.71777
-0.932249,18.3983,-2.61482,-3.16837,31.0403,-1.12012,3.84444,6.7418,0.999285,-0.0200342,8.99467,-2.55496,-1.59218,4.48557,-3.59995,-8.07831,-6.30253,-10.9148,10.7382,-8.95502,14.7102,5.73073,-3.91911,5.75568,1.5171e-13,-7.95139e-15,-11.6937,15.9659,-58.1757,62.0883,18.8519,-41.1016,12.4456,7.12502,-14.0296,-17.0609,1.5171e-13,-7.95139e-15,-40.3024,6.11693,45.906,79.0066,-0.707938,-33.2064,13.6623,7.12502,-6.41352,43.5452,4.7641,6.01467,25.3631,23.7112,-37.3842,-37.4231,10.9815,-17.472,-13.6848,-7.46718,29.2009,-5.59504,-5.66626,-1.80121
-0.888335,18.3857,-2.58923,-3.33611,31.4537,-1.28743,3.76161,6.94586,1.13587,-0.143871,9.2712,-2.63245,-1.6211,4.62157,-3.759,-7.80588,-6.48664,-10.947,10.7537,-9.2394,14.7952,5.73258,-4.0631,5.76712,1.17066e-13,-7.95139e-15,-10.884,16.097,-57.7829,63.4043,18.669,-40.6629,12.4084,7.12502,-13.6067,-17.127,1.17066e-13,-7.95139e-15,-40.1394,6.65804,44.8307,79.2532,-1.11605,-32.9658,13.5265,7.12502,-6.1812,43.4163,5.04364,5.8761,25.5017,23.6882,-37.6704,-37.5722,10.9237,-17.5696,-13.7123,-7.441,29.5491,-5.86546,-5.97024,-1.67504
-0.843088,18.3779,-2.56837,-3.29049,31.8391,-1.16377,3.61708,7.18481,1.04604,-0.277218,9.58368,-2.76858,-1.64771,4.77731,-3.84973,-7.45692,-6.67107,-10.9741,10.7121,-9.51891,14.8351,5.70057,-4.21193,5.76511,-9.73004e-14,4.77083e-15,-10.1096,16.1067,-57.3738,64.6685,18.6336,-40.2254,13.0376,7.12502,-13.185,-16.5255,-9.73004e-14,4.77083e-15,-39.9288,7.19562,43.7843,79.3885,-1.56461,-32.942,13.562,7.12502,-6.15818,43.4525,5.22882,5.69055,25.3208,23.6956,-37.8547,-37.6133,10.885,-17.6902,-13.8466,-7.67883,29.8193,-6.05751,-6.42356,-1.33957
-0.79667,18.3697,-2.54224,-3.40057,32.1553,-1.19868,3.45071,7.46935,1.04959,-0.335213,9.96346,-2.80122,-1.58185,4.96818,-3.87599,-7.29416,-6.91302,-11.1424,10.8202,-9.85905,14.8447,5.76113,-4.38726,5.76657,6.40521e-14,3.18055e-15,-9.25141,16.3255,-56.8447,65.8557,18.7352,-40.4853,13.8427,7.12502,-13.4355,-15.704,6.40521e-14,3.18055e-15,-39.7006,7.89536,42.8262,79.4704,-2.25937,-32.4581,13.0965,7.12502,-5.69107,43.0001,5.48055,5.4892,25.2939,23.7363,-37.9284,-37.586,10.7475,-17.6529,-14.0459,-7.76789,30.0542,-6.22941,-7.03435,-1.87183
-0.750246,18.3642,-2.511,-3.52085,32.5304,-1.18282,3.32985,7.72092,1.0191,-0.402189,10.2973,-2.87655,-1.55151,5.13579,-3.9322,-7.20311,-7.1609,-11.3388,11.0754,-10.2266,14.942,5.89045,-4.56503,5.79725,-3.05072e-14,1.59028e-15,-8.41152,16.7582,-56.4071,67.1027,18.4135,-40.6835,13.7756,7.12502,-13.6266,-15.7584,-3.05072e-14,1.59028e-15,-39.559,8.39093,41.8988,79.6322,-2.24216,-32.5262,12.7693,7.12502,-5.75679,42.6711,5.76163,5.13157,25.2006,23.8465,-38.0334,-37.4501,10.6037,-17.5685,-14.2718,-7.91254,30.2425,-6.36497,-7.4161,-3.30447
-0.704803,18.3655,-2.48283,-3.36694,32.9134,-0.883451,3.13022,7.92818,0.75427,-0.512311,10.5618,-3.03841,-1.55216,5.26994,-3.94241,-7.08983,-7.34391,-11.446,11.3062,-10.5079,14.9901,5.98987,-4.7016,5.80597,-4.31735e-14,7.95139e-15,-7.56196,17.2882,-56.0604,68.4265,17.6428,-40.126,12.2789,7.12502,-13.0892,-17.2903,-4.31735e-14,7.95139e-15,-39.5824,8.86983,40.8334,79.8981,-2.32936,-32.2173,12.5135,7.12502,-5.45857,42.4232,5.71747,4.82123,24.8164,24.3256,-38.3051,-37.2984,10.4476,-17.5186,-14.631,-8.28839,30.1465,-6.34857,-7.47012,-4.47309
-0.660147,18.3619,-2.45883,-2.98651,33.1484,-0.427476,2.83451,8.18161,0.411086,-0.664425,10.8861,-3.27879,-1.5389,5.43511,-3.9801,-6.92825,-7.48291,-11.5826,11.4553,-10.7317,15.1182,6.05429,-4.81046,5.85307,4.23411e-14,0,-6.733,17.8108,-55.7677,69.6082,17.4722,-39.9999,11.385,7.12502,-12.9677,-18.192,4.23411e-14,0,-39.6252,9.29383,39.8065,80.2092,-2.34897,-31.9726,12.2948,7.12502,-5.22231,42.2104,5.59689,4.82672,24.3262,24.5688,-38.3818,-37.3718,10.199,-17.6624,-15.0298,-8.74859,30.2558,-6.56078,-7.59387,-4.90164
-0.626399,18.36,-2.42476,-1.12953,33.6195,1.9681,2.10514,8.4122,-1.87226,-0.85275,11.129,-3.97617,-1.60371,5.5769,-3.40769,-6.75483,-7.62051,-11.7013,11.5684,-10.9641,15.3237,6.11114,-4.91898,5.92211,1.60891e-13,-3.97569e-14,-5.91056,18.2465,-55.5311,70.4951,18.0322,-40.0738,11.9201,7.12502,-13.0389,-17.6524,1.60891e-13,-3.97569e-14,-39.5975,9.69307,38.8406,80.5025,-2.23741,-31.9839,12.2473,7.12502,-5.23322,42.1626,4.9084,4.71085,22.0207,25.2121,-38.8404,-37.1249,10.2246,-18.0246,-15.667,-10.8868,29.9981,-6.56221,-7.69976,-4.36053
-0.576894,18.34,-2.41858,-2.68079,33.7549,-0.242145,2.50701,8.62442,0.442313,-1.00564,11.4753,-3.68035,-1.58131,5.72867,-4.38913,-6.59136,-7.7322,-11.7093,11.7115,-11.1514,15.3547,6.15615,-5.01053,5.91965,8.24459e-14,1.59028e-15,-5.0388,18.7034,-55.333,71.4202,18.4014,-39.7814,13.084,7.12502,-12.757,-16.5063,8.24459e-14,1.59028e-15,-39.6127,10.4305,37.9518,80.7732,-2.28365,-31.9028,12.0686,7.12502,-5.15484,41.986,5.25884,4.33581,23.9265,25.4891,-38.4865,-37.1353,9.23705,-17.6744,-15.5996,-8.97389,30.0795,-6.54915,-8.3953,-3.71002
-0.549623,18.35,-2.37993,-1.19095,33.6919,1.63064,1.85957,8.94711,-1.51617,-1.22902,11.8507,-4.21067,-1.70509,5.93456,-3.83858,-6.37999,-7.76692,-11.516,11.748,-11.2275,15.2589,6.12404,-5.05172,5.85503,2.38293e-14,7.95139e-15,-4.07453,19.1532,-55.2915,72.315,18.6382,-39.9653,14.0192,7.12502,-12.9343,-15.5599,2.38293e-14,7.95139e-15,-39.6429,11.3261,36.9802,80.9784,-2.5092,-31.4692,11.3843,7.12502,-4.7362,41.3113,4.76365,4.66798,22.1784,25.797,-38.2105,-37.3048,8.49269,-17.9462,-15.6196,-10.62,30.0306,-6.70052,-8.24924,-3.98987
-0.489408,18.3392,-2.37964,-2.31148,33.8191,0.244852,2.23649,9.10517,0.252631,-1.30186,12.1085,-4.09857,-1.63833,6.04685,-4.70294,-6.2732,-7.7668,-11.5164,11.7587,-11.2395,15.2818,6.11166,-5.0599,5.86525,-5.03422e-14,1.59028e-15,-2.90185,19.8312,-55.1747,73.0982,18.9698,-40.1665,13.1607,7.12502,-13.1283,-16.4061,-5.03422e-14,1.59028e-15,-39.7706,11.6716,36.0486,81.1971,-1.88308,-31.5856,11.3796,7.12502,-4.84858,41.3041,5.40028,3.85321,23.0748,25.5742,-37.1881,-37.0411,7.46742,-17.6341,-15.5561,-9.62602,30.4062,-6.96491,-8.74154,-4.01044
-0.448077,18.3353,-2.35866,-2.46894,33.8894,0.0887167,2.20516,9.29215,0.460667,-1.38401,12.3644,-4.14161,-1.63286,6.17281,-4.85709,-6.31537,-7.84315,-11.7044,11.9348,-11.3439,15.2991,6.20081,-5.11159,5.89031,2.0276e-14,-1.90833e-14,-1.70108,20.7146,-54.9401,73.9766,19.2584,-39.7237,11.6028,7.12502,-12.7014,-17.991,2.0276e-14,-1.90833e-14,-40.1022,11.8402,35.1551,81.6609,-1.41637,-31.915,12.1744,7.12502,-5.16664,42.0914,5.60986,3.64434,23.0446,25.6474,-36.9595,-36.7358,7.08608,-17.4332,-15.4754,-9.61442,30.419,-7.11793,-9.10175,-4.05607
-0.403602,18.3351,-2.34018,-2.33527,34.0978,0.12271,2.08179,9.52233,0.645557,-1.49182,12.6789,-4.33166,-1.56759,6.3306,-5.13069,-6.48551,-8.02961,-11.8402,12.1691,-11.6013,15.3066,6.35002,-5.22816,5.88178,-3.68249e-14,-3.18055e-15,-0.695883,21.2456,-54.7606,74.8667,19.5467,-39.4077,10.3995,7.12502,-12.3968,-19.2129,-3.68249e-14,-3.18055e-15,-40.3255,12.2371,34.4327,82.5355,-1.50753,-32.0638,13.4362,7.12502,-5.31032,43.3496,5.75656,3.36797,22.8046,25.5553,-36.7863,-36.3143,6.72903,-17.4973,-15.499,-9.7576,30.5076,-7.34536,-9.29394,-4.03577
-0.361666,18.3362,-2.32374,-2.17611,34.2205,0.329678,2.07468,9.85237,0.740901,-1.50861,13.1251,-4.54864,-1.46896,6.55781,-5.39515,-6.69832,-8.25181,-11.8561,12.1941,-11.8744,15.1743,6.42809,-5.35924,5.80076,-1.44069e-13,1.90833e-14,0.31371,21.5633,-54.4765,75.6893,19.9218,-39.5309,8.66038,7.12502,-12.5155,-20.9448,-1.44069e-13,1.90833e-14,-40.2581,12.7888,33.8553,83.0472,-1.4571,-32.0806,13.8162,7.12502,-5.32659,43.7292,5.82677,3.3171,22.4559,25.7433,-36.8154,-35.9337,6.74664,-17.3224,-15.5177,-10.0912,30.3133,-7.46119,-9.23278,-3.67178
-0.331973,18.3382,-2.30604,-1.40292,34.3728,1.29432,1.85629,10.1225,-0.118648,-1.54034,13.4627,-4.8307,-1.4756,6.73733,-5.20832,-6.79903,-8.37236,-11.9761,12.0699,-12.0033,15.1544,6.43223,-5.42719,5.79372,-1.13332e-13,-1.59028e-15,1.45959,22.1085,-54.135,76.4696,20.4727,-39.6252,8.69421,7.12502,-12.6065,-20.9054,-1.13332e-13,-1.59028e-15,-40.1219,13.6209,33.2395,82.9621,-0.994199,-31.858,12.8372,7.12502,-5.11165,42.7555,5.7531,3.49168,21.4985,25.6734,-36.5232,-36.0035,6.36425,-17.4662,-15.6586,-11.0402,30.2966,-7.68837,-9.04839,-3.33409
-0.305661,18.339,-2.28628,-0.672583,34.6052,2.11966,1.71236,10.3079,-0.969167,-1.68827,13.683,-5.04228,-1.6744,6.85323,-4.9898,-6.79498,-8.41844,-12.3238,12.0262,-12.043,15.2874,6.45438,-5.45546,5.88994,-3.41413e-14,5.08889e-14,2.54583,22.9257,-53.8821,77.2208,20.9262,-39.6608,10.7263,7.12502,-12.6408,-18.8712,-3.41413e-14,5.08889e-14,-40.306,14.3551,32.5795,83.0746,-0.44365,-31.5676,12.0018,7.12502,-4.83119,41.9267,5.68708,3.54934,20.6973,25.5786,-36.1614,-36.1124,5.75715,-17.6796,-15.7457,-11.8395,30.2774,-8.02508,-9.00879,-2.89329
-0.268277,18.3281,-2.2857,-2.27857,34.7253,-0.0399876,2.51218,10.4804,1.34583,-1.87116,13.9758,-4.72732,-1.81875,6.96738,-6.0062,-6.81737,-8.48542,-12.3949,12.0835,-12.1155,15.1726,6.48382,-5.49894,5.85395,6.2965e-14,9.54166e-15,3.55084,23.8142,-53.7294,78.0901,21.0062,-39.8554,12.9077,7.12502,-12.8284,-16.6781,6.2965e-14,9.54166e-15,-40.6191,14.8451,31.8276,83.4254,-0.164531,-31.5163,11.6953,7.12502,-4.7817,41.6214,6.38096,3.65846,22.6558,25.3419,-36.1751,-36.0534,5.7095,-17.3367,-15.581,-10.0864,30.4247,-8.46784,-9.27229,-2.04969
-0.238131,18.3228,-2.27644,-2.25821,34.9688,-0.000358024,2.57142,10.6562,1.31222,-1.87221,14.2093,-4.71342,-1.83856,7.08437,-5.98766,-6.92244,-8.58371,-12.4144,12.0098,-12.1864,14.862,6.47024,-5.55206,5.74023,2.54941e-14,1.59028e-14,4.77819,24.6499,-53.2253,79.003,20.9843,-39.6617,13.9541,7.12502,-12.6417,-15.6433,2.54941e-14,1.59028e-14,-40.9646,15.4762,31.3705,83.7907,0.0996596,-31.0151,11.3473,7.12502,-4.29776,41.2837,6.74765,3.92828,22.6263,24.9941,-36.403,-35.9282,6.24327,-17.4089,-15.7565,-10.2609,30.642,-8.98101,-9.13729,-1.71822
-0.202908,18.3152,-2.26662,-2.05499,35.1971,0.0695353,2.33635,10.8172,1.06003,-1.86222,14.4161,-4.54519,-1.78085,7.19097,-5.64539,-6.91401,-8.60533,-12.6652,11.7544,-12.1222,14.5961,6.37768,-5.55693,5.69875,1.00386e-13,-3.02153e-14,6.06923,25.5984,-52.5288,79.9211,21.2129,-39.3075,14.327,7.12502,-12.3001,-15.2912,1.00386e-13,-3.02153e-14,-41.581,16.1504,31.13,84.1722,0.558678,-31.0587,11.6246,7.12502,-4.33984,41.5601,7.01045,4.02409,22.4877,24.4434,-35.9416,-36.0525,5.68181,-17.7176,-16.0015,-10.4355,31.0269,-9.55022,-8.96979,-2.65871
-0.168144,18.3087,-2.25583,-2.12931,35.4136,-0.29964,2.31598,10.9183,1.6,-1.96323,14.5716,-4.57936,-1.71885,7.26375,-5.94953,-6.74551,-8.51494,-12.6406,11.3063,-11.9541,14.4875,6.17544,-5.49829,5.68317,1.68122e-13,9.54166e-15,7.21211,26.4774,-52.3591,80.8553,21.5373,-39.2181,14.7691,7.12502,-12.2139,-14.8542,1.68122e-13,9.54166e-15,-42.1024,16.6974,30.5106,84.5283,1.22174,-31.1664,11.9664,7.12502,-4.44384,41.8998,7.20023,4.21545,22.7999,24.151,-35.7816,-36.1486,5.21425,-17.9486,-16.2498,-10.2023,31.2617,-10.0065,-8.77361,-4.51049
-0.136716,18.3012,-2.24756,-2.36187,35.69,-0.836772,2.40758,11.0838,2.40242,-2.07017,14.8253,-4.66823,-1.63095,7.38423,-6.45784,-6.52191,-8.53465,-12.5226,10.8819,-11.9583,14.3822,5.99123,-5.51954,5.63623,2.74323e-14,1.11319e-14,8.13955,27.2146,-52.2108,81.8596,21.6457,-39.3445,14.5916,7.12502,-12.3359,-15.0244,2.74323e-14,1.11319e-14,-42.3279,17.0357,30.0723,84.8903,1.87657,-31.3987,12.106,7.12502,-4.66818,42.0346,7.49887,4.49027,23.3256,23.8575,-35.9245,-36.1779,5.15258,-18.2083,-16.6345,-9.79456,31.5897,-10.3851,-8.59977,-5.5264
-0.105014,18.2945,-2.24323,-2.17913,36.0075,-0.90273,2.39278,11.3535,2.55756,-2.22804,15.1908,-4.72485,-1.68752,7.56229,-6.60005,-6.22346,-8.64908,-12.457,10.513,-12.0806,14.1257,5.82182,-5.61095,5.53894,-1.96548e-13,-3.18055e-15,8.80887,27.9723,-51.8266,83.0322,21.2709,-38.8518,13.893,7.12502,-11.8608,-15.751,-1.96548e-13,-3.18055e-15,-42.5068,17.1412,30.0083,85.2454,2.43896,-31.4378,12.3752,7.12502,-4.70586,42.3029,7.63415,4.59641,23.3528,23.5459,-35.8687,-36.1667,5.16137,-18.6945,-17.0371,-9.7803,32.0017,-10.6489,-8.39772,-5.84004
-0.0739966,18.2855,-2.23898,-1.88566,36.3294,-0.902006,1.76316,11.604,1.8331,-2.07896,15.4948,-4.13574,-1.49878,7.72434,-5.5044,-6.10269,-8.71599,-12.9809,10.1227,-12.0281,13.6258,5.67332,-5.64851,5.47026,-3.22031e-14,1.43125e-14,10.0909,29.1748,-50.2526,84.2285,20.5372,-37.7781,13.2012,7.12502,-10.8252,-16.4998,-3.22031e-14,1.43125e-14,-43.2975,17.7454,30.6849,85.6545,2.84973,-31.3687,12.4556,7.12502,-4.63913,42.3848,7.65608,4.70646,23.3336,23.2421,-36.0421,-36.1698,5.44846,-19.3111,-17.3359,-9.81303,32.4662,-10.8631,-8.2522,-6.47681
-0.0466961,18.2765,-2.23395,-1.73678,36.7212,-0.931189,1.93059,11.5145,2.61471,-2.18083,15.4066,-4.69295,-1.35196,7.68165,-6.47701,-6.42306,-8.57815,-12.4062,9.93561,-11.8639,13.7568,5.62134,-5.52844,5.42729,5.92378e-14,3.97569e-14,11.4717,30.1587,-50.6445,85.169,20.0256,-37.6852,13.3669,7.12502,-10.7356,-16.3388,5.92378e-14,3.97569e-14,-43.6354,18.2811,29.4763,85.8961,3.45975,-31.4054,12.2097,7.12502,-4.67465,42.1382,7.7918,5.00495,23.4596,22.9776,-36.608,-36.3779,5.62829,-19.8523,-17.5618,-9.8509,32.9664,-11.0292,-8.25132,-6.28039
-0.0215235,18.2662,-2.23105,-1.63119,37.1866,-0.955571,2.11093,11.4521,3.06954,-2.27575,15.3443,-5.01124,-1.35412,7.64882,-7.06714,-6.58659,-8.50189,-12.0612,9.74859,-11.7641,13.7819,5.55918,-5.4616,5.38532,-3.64024e-14,-1.74931e-14,12.6937,31.3172,-50.6367,86.2671,19.7735,-38.1109,13.3041,7.12502,-11.1463,-16.3799,-3.64024e-14,-1.74931e-14,-44.1534,18.7557,28.6431,86.15,3.79076,-31.7522,12.7504,7.12502,-5.00948,42.6712,8.02154,5.19604,23.5536,22.6651,-37.1403,-36.3863,6.04135,-20.38,-17.7524,-9.90394,33.5149,-11.184,-8.33808,-5.0142
0.00250072,18.2551,-2.22985,-1.57453,37.5778,-1.06936,2.23577,11.4761,3.48093,-2.33599,15.3968,-5.2315,-1.31209,7.67509,-7.52013,-6.63905,-8.46401,-11.7184,9.40067,-11.7071,13.7684,5.43248,-5.42569,5.33112,-3.92351e-14,1.90833e-14,13.7283,32.1394,-50.6225,87.3832,20.0113,-37.4942,13.1858,7.12502,-10.5514,-16.5294,-3.92351e-14,1.90833e-14,-44.5639,19.2349,28.1296,86.3653,4.06643,-32.1445,14.1382,7.12502,-5.38826,44.0497,8.23703,5.31202,23.6891,22.2782,-37.4214,-36.4608,6.19899,-20.8904,-17.8807,-9.8678,34.0884,-11.3935,-8.43246,-4.38603
0.0297972,18.2455,-2.22495,-1.64049,37.8553,-1.45831,2.02422,11.6246,3.76048,-2.31549,15.6031,-5.15515,-1.09304,7.78348,-7.51719,-6.61415,-8.4946,-11.5309,8.98928,-11.7139,13.6326,5.28346,-5.43851,5.25909,-1.30316e-13,6.36111e-15,14.7482,32.9738,-50.2098,88.2758,19.8363,-36.9756,13.9214,7.12502,-10.0511,-15.8186,-1.30316e-13,6.36111e-15,-44.9857,19.6375,28.1697,86.5968,4.32445,-32.2935,14.6449,7.12502,-5.53208,44.5527,8.36937,5.5248,24.0798,21.8857,-37.5972,-36.7872,6.01833,-21.3903,-17.9192,-9.56913,34.6357,-11.5681,-8.54492,-4.45743
0.0559199,18.2382,-2.22164,-1.72975,38.1643,-1.901,1.78364,11.7455,3.90409,-2.33055,15.7624,-4.92858,-0.979702,7.86209,-7.29901,-6.48144,-8.50922,-11.6212,8.63224,-11.6949,13.5724,5.15088,-5.44769,5.26275,1.23868e-14,-3.97569e-14,15.8241,34.2043,-49.4795,89.2352,19.5473,-37.3945,14.2807,7.12502,-10.4552,-15.4393,1.23868e-14,-3.97569e-14,-45.667,19.9671,28.3159,86.7886,4.31213,-32.2205,14.2697,7.12502,-5.46159,44.1794,8.4724,5.67242,24.5076,21.5213,-37.8074,-37.1137,5.70201,-21.8991,-17.8894,-9.24429,35.1294,-11.7243,-8.66696,-5.31414
0.0763131,18.2308,-2.2255,-1.67808,38.4615,-2.10682,1.81789,11.7888,3.99682,-2.40868,15.8224,-4.81394,-1.07942,7.88415,-7.24657,-6.44988,-8.45416,-11.8479,8.40158,-11.5892,13.6785,5.08163,-5.40365,5.34596,-2.04549e-13,3.18055e-15,16.9742,35.5361,-48.8433,90.2007,19.7674,-37.9692,13.559,7.12502,-11.0096,-16.1322,-2.04549e-13,3.18055e-15,-46.5302,20.3899,28.2443,86.917,3.90468,-31.9633,13.9199,7.12502,-5.21333,43.8358,8.52411,5.71573,24.695,21.2133,-38.0633,-37.2514,5.96924,-22.3925,-17.8496,-9.12149,35.5398,-11.8535,-8.79067,-6.74082
0.0988289,18.2249,-2.22955,-1.49575,38.6687,-2.18184,1.76538,11.8492,4.03333,-2.47521,15.9026,-4.78784,-1.10611,7.92126,-7.23149,-6.54624,-8.39732,-11.88,8.24633,-11.4864,13.705,5.04085,-5.35195,5.36722,-4.27014e-14,-2.38542e-14,18.1715,36.8117,-48.2795,91.0525,19.9307,-38.0203,11.9589,7.12502,-11.0588,-17.7298,-4.27014e-14,-2.38542e-14,-47.3401,20.6909,28.1279,86.9889,3.63894,-31.9126,13.7763,7.12502,-5.16435,43.6934,8.48026,5.73813,24.7267,20.9729,-38.3591,-37.2286,6.61208,-22.8658,-17.8591,-9.07769,35.8807,-11.9777,-8.87173,-7.25755
0.121095,18.2189,-2.2308,-1.20755,38.8761,-2.02817,1.80818,11.8774,4.16797,-2.55875,15.9487,-5.03939,-1.1024,7.94572,-7.56452,-6.67002,-8.34312,-11.5318,8.09588,-11.4256,13.7566,4.99135,-5.3051,5.3305,-2.7395e-14,3.02153e-14,19.2678,37.9905,-48.109,91.8953,19.9237,-37.574,11.6782,7.12502,-10.6283,-18.033,-2.7395e-14,3.02153e-14,-47.8746,20.8017,27.7474,86.981,3.64496,-31.961,13.573,7.12502,-5.21104,43.489,8.45177,5.74104,24.5756,20.8153,-38.6496,-37.2139,7.02924,-23.223,-17.9417,-9.22383,36.1304,-12.0418,-8.93144,-6.91329
0.136902,18.2126,-2.23133,-1.17785,39.021,-2.1214,2.28274,11.8675,5.05767,-2.73411,15.9918,-5.62239,-1.13645,7.9639,-8.71118,-6.73175,-8.29074,-10.8938,7.81925,-11.4178,14.0761,4.90067,-5.26513,5.3303,3.17726e-13,1.59028e-14,20.2641,39.0105,-48.5101,92.6732,19.8683,-37.0953,12.9903,7.12502,-10.1666,-16.744,3.17726e-13,1.59028e-14,-48.0323,20.9037,26.9806,86.8267,3.53541,-31.9586,13.4882,7.12502,-5.20873,43.4042,8.48089,5.7857,24.6749,20.7077,-38.9091,-37.24,7.29852,-23.4397,-17.8763,-9.16713,36.3094,-12.0461,-9.09812,-6.73984
0.151591,18.2091,-2.23261,-1.20536,39.1058,-2.16007,2.39274,12.0515,4.83889,-2.64118,16.2295,-5.37657,-1.18632,8.08158,-8.35768,-6.75187,-8.39141,-11.054,7.55259,-11.4979,13.9492,4.83488,-5.32096,5.30783,-2.65833e-13,-2.22639e-14,21.3182,40.2493,-47.4403,93.4861,19.6056,-36.9831,13.9259,7.12502,-10.0583,-15.8137,-2.65833e-13,-2.22639e-14,-48.6889,21.1989,27.4947,86.8067,3.18946,-31.9049,13.4747,7.12502,-5.15693,43.3919,8.59311,5.92588,24.7366,20.6041,-39.1444,-37.2983,7.29507,-23.5139,-17.7379,-9.20146,36.4411,-12.0288,-9.26157,-6.78941
0.167215,18.2067,-2.23452,-1.08436,39.2155,-2.03039,2.42865,12.1827,4.52149,-2.56019,16.3905,-5.20497,-1.22934,8.16313,-8.02303,-6.85332,-8.45649,-11.203,7.42627,-11.5434,13.8794,4.82397,-5.34998,5.30144,8.4909e-14,6.36111e-15,22.3975,41.5181,-46.4914,94.2545,19.3098,-36.8421,14.5326,7.12502,-9.92235,-15.2135,8.4909e-14,6.36111e-15,-49.4396,21.4523,27.8843,86.7515,2.88948,-31.8586,13.1008,7.12502,-5.11216,43.0191,8.67522,6.04923,24.6442,20.4975,-39.3486,-37.3924,6.98124,-23.6141,-17.6495,-9.38291,36.5296,-12.0286,-9.28021,-6.92333
0.182425,18.2056,-2.23512,-1.03078,39.297,-2.14289,2.3186,12.3094,4.40661,-2.51523,16.5508,-5.0552,-1.17156,8.24568,-7.77743,-6.86436,-8.48647,-11.2128,7.2023,-11.5572,13.8561,4.75898,-5.36192,5.29511,-9.9411e-14,3.02153e-14,23.4614,42.7542,-45.7127,94.9338,19.1553,-36.6128,14.6131,7.12502,-9.70105,-15.1435,-9.9411e-14,3.02153e-14,-50.0792,21.584,28.1809,86.6065,2.59542,-31.8504,12.8459,7.12502,-5.10433,42.7645,8.6371,6.18807,24.7545,20.4237,-39.6393,-37.4145,7.02531,-23.7937,-17.4772,-9.31822,36.5806,-12.0161,-9.32767,-6.87716
0.198474,18.2077,-2.23556,-0.930362,39.3188,-2.15547,2.3358,12.3962,4.52541,-2.50238,16.6739,-5.15945,-1.08369,8.31252,-7.93122,-6.85928,-8.47113,-10.9372,6.87509,-11.5407,13.9656,4.6484,-5.34617,5.29003,-4.42296e-15,-6.36111e-15,24.4789,43.8725,-45.35,95.5176,19.0041,-36.3183,14.5227,7.12502,-9.41689,-15.247,-4.42296e-15,-6.36111e-15,-50.5723,21.6782,28.2251,86.4478,2.38072,-31.8782,12.4822,7.12502,-5.13111,42.4001,8.59088,6.38459,24.7754,20.3676,-39.762,-37.5573,7.34475,-23.9181,-17.2364,-9.34089,36.6157,-11.9919,-9.54609,-6.55706
0.214904,18.2109,-2.2369,-0.68054,39.3369,-2.04712,2.12369,12.4733,4.32158,-2.41086,16.7631,-5.10644,-0.92978,8.36661,-7.71051,-7.01498,-8.48953,-10.8378,6.69225,-11.5379,13.9089,4.60982,-5.34199,5.2519,7.11152e-14,-3.18055e-15,25.6811,45.1356,-44.4359,96.2292,18.8193,-36.1061,13.9587,7.12502,-9.21217,-15.8201,7.11152e-14,-3.18055e-15,-51.4082,21.9588,28.5609,86.3849,1.88823,-31.9363,12.2209,7.12502,-5.18723,42.1374,8.48363,6.39285,24.6101,20.2604,-39.7481,-37.5093,7.69517,-24.1221,-17.0404,-9.44834,36.6795,-11.9726,-9.74812,-6.24048
0.228989,18.2142,-2.23892,-0.58705,39.4115,-2.22188,1.94464,12.521,4.33268,-2.37613,16.8217,-5.0135,-0.811626,8.39947,-7.57036,-7.11421,-8.48928,-10.8878,6.54038,-11.5201,14.0315,4.58956,-5.32738,5.29756,6.51765e-14,1.90833e-14,26.8505,46.4422,-43.5755,96.8087,18.9045,-36.0244,13.2521,7.12502,-9.13335,-16.5301,6.51765e-14,1.90833e-14,-52.3365,22.2161,28.8999,86.2994,1.14024,-32.0531,11.7642,7.12502,-5.3,41.6779,8.3275,6.3821,24.7141,20.1762,-39.7317,-37.5582,7.74847,-24.3711,-16.9161,-9.29445,36.7233,-11.951,-9.89599,-5.7728
0.242789,18.2174,-2.24487,-0.800375,39.4397,-2.60252,2.07038,12.5484,4.68094,-2.38869,16.8741,-4.93481,-0.812175,8.4213,-7.68578,-7.01686,-8.45834,-10.9228,6.33541,-11.4796,14.2299,4.5213,-5.30655,5.37506,1.03617e-14,4.29375e-14,27.9087,47.7346,-42.9946,97.0875,18.9994,-36.0061,13.4042,7.12502,-9.11565,-16.3788,1.03617e-14,4.29375e-14,-53.139,22.3087,29.0875,86.0592,0.400739,-32.0418,11.2299,7.12502,-5.28911,41.1439,8.32377,6.27696,24.9741,20.1273,-39.5797,-37.574,7.73825,-24.4016,-16.7992,-9.02913,36.7315,-11.9405,-9.95998,-5.94694
0.258891,18.2217,-2.24876,-0.742536,39.4314,-2.43344,2.20025,12.5803,4.63225,-2.30662,16.9199,-4.95741,-0.796115,8.44816,-7.70218,-7.05812,-8.44334,-10.8638,6.22096,-11.4579,14.3278,4.49416,-5.28987,5.39802,1.49089e-16,-1.90833e-14,28.9656,48.9485,-42.1706,97.4765,18.9036,-35.7536,13.63,7.12502,-8.872,-16.1635,1.49089e-16,-1.90833e-14,-53.5852,22.334,29.2993,85.5652,-0.223882,-32.0233,10.9158,7.12502,-5.27123,40.8303,8.3967,6.05971,24.7029,20.108,-39.2817,-37.49,7.49998,-24.2883,-16.6884,-9.28211,36.7027,-11.8784,-9.99013,-5.77927
0.277033,18.2265,-2.2439,-0.480205,39.4381,-1.96153,2.18096,12.6439,4.2307,-2.17176,16.9902,-4.98163,-0.737953,8.49265,-7.50874,-7.15099,-8.49935,-10.8798,6.19234,-11.5263,14.3737,4.51411,-5.3181,5.40478,-1.4233e-13,3.18055e-15,29.9119,50.1181,-41.1776,97.8783,18.9338,-35.5195,13.8741,7.12502,-8.64617,-15.9288,-1.4233e-13,3.18055e-15,-53.8056,22.2485,29.6543,84.9429,-0.796639,-32.0123,11.2191,7.12502,-5.26059,41.1338,8.46548,5.97931,24.2187,20.1524,-39.2385,-37.3896,7.30018,-24.1219,-16.603,-9.79934,36.6352,-11.8925,-9.93666,-5.87095
0.287619,18.2321,-2.24925,-0.30584,39.3761,-1.82182,2.17265,12.6874,4.0054,-2.13774,17.0383,-4.90294,-0.77778,8.51613,-7.3172,-7.21951,-8.55365,-10.9789,6.27182,-11.592,14.3576,4.5628,-5.34925,5.40554,5.36719e-15,2.8625e-14,30.8686,51.3195,-40.3069,97.9938,19.3948,-35.382,14.4069,7.12502,-8.51346,-15.4014,5.36719e-15,2.8625e-14,-54.3978,22.2477,29.9901,84.5151,-1.49365,-31.7709,11.7252,7.12502,-5.02756,41.6455,8.29847,6.08712,24.0504,20.2688,-39.2366,-37.3842,7.23662,-24.1318,-16.41,-9.95891,36.5366,-11.8157,-9.86781,-6.21793
0.292184,18.2398,-2.26592,-0.29892,39.1622,-1.99411,2.35048,12.7745,4.16797,-2.202,17.1643,-4.87104,-0.886504,8.57232,-7.40946,-7.18868,-8.56596,-10.9959,6.246,-11.6164,14.4621,4.56101,-5.35809,5.44014,9.61621e-14,-1.59028e-14,31.4928,52.409,-39.818,98.1071,19.8229,-35.2098,14.7873,7.12502,-8.34729,-15.0277,9.61621e-14,-1.59028e-14,-54.9513,22.217,30.3193,84.1516,-2.41553,-31.6308,11.6815,7.12502,-4.89228,41.605,8.01391,6.30123,24.1416,20.417,-39.1812,-37.3783,7.05741,-24.2108,-16.1973,-9.80766,36.4358,-11.7065,-9.80434,-6.18627
0.299016,18.2472,-2.27827,-0.354203,38.9582,-2.13321,2.55385,12.8501,4.36167,-2.23312,17.2785,-4.86279,-0.959564,8.62468,-7.54131,-7.13449,-8.56698,-10.8948,6.20468,-11.6311,14.5038,4.53827,-5.36334,5.43813,1.19867e-13,-1.59028e-14,31.7763,53.408,-39.823,98.2334,20.0675,-34.5586,15.2101,7.12502,-7.71873,-14.629,1.19867e-13,-1.59028e-14,-55.3762,22.1353,30.6961,83.7776,-3.46862,-31.7643,11.5387,7.12502,-5.02118,41.4592,7.84441,6.40415,24.188,20.5781,-39.0927,-37.2364,7.17761,-24.1793,-16.0177,-9.71531,36.3582,-11.6297,-9.85412,-5.6283
0.310955,18.2538,-2.28759,-0.2631,38.8451,-2.09776,2.61612,12.8665,4.41147,-2.25593,17.3047,-4.90493,-0.985875,8.63677,-7.6236,-7.15496,-8.57902,-10.6971,6.29777,-11.6743,14.5011,4.56364,-5.3758,5.40001,-2.36554e-14,-1.59028e-15,31.9745,54.3956,-40.0096,98.2089,20.609,-34.0843,15.6332,7.12502,-7.26091,-14.2222,-2.36554e-14,-1.59028e-15,-55.8417,22.1192,30.9477,83.4485,-4.60831,-32.0288,11.466,7.12502,-5.27652,41.3803,7.67219,6.32258,24.0389,20.735,-38.7944,-37.1424,7.07202,-24.1755,-15.8577,-9.80104,36.2903,-11.6247,-9.85679,-5.54756
0.32301,18.2586,-2.29582,-0.193637,38.7801,-2.01572,2.71667,12.8505,4.48317,-2.29696,17.2903,-5.01281,-1.03178,8.62835,-7.79553,-7.14994,-8.60534,-10.3326,6.46284,-11.7542,14.4036,4.59478,-5.40541,5.30227,-7.00716e-15,6.36111e-15,32.1007,55.3737,-40.1192,98.1793,21.3064,-34.1456,15.7417,7.12502,-7.32012,-14.1117,-7.00716e-15,6.36111e-15,-56.2536,22.1079,31.0527,83.095,-5.81038,-32.0775,11.0896,7.12502,-5.32358,41.0027,7.57546,6.26748,23.8728,20.8764,-38.6054,-37.0652,6.85481,-24.1382,-15.7233,-9.94829,36.2331,-11.6233,-9.77023,-5.92551
0.335644,18.2627,-2.30425,-0.0933561,38.7432,-1.92433,2.79399,12.8667,4.4726,-2.36434,17.3137,-5.06756,-1.1266,8.63581,-7.87393,-7.06443,-8.67363,-10.1266,6.62942,-11.8814,14.2953,4.627,-5.46642,5.22475,2.05494e-14,6.36111e-15,31.8508,56.2953,-40.2186,98.2727,21.9961,-34.312,15.8781,7.12502,-7.48073,-13.9696,2.05494e-14,6.36111e-15,-56.6067,21.9224,31.3727,82.778,-6.89536,-31.9307,10.7873,7.12502,-5.18186,40.704,7.41095,6.1943,23.6746,21.0555,-38.4225,-36.9929,6.73631,-24.1469,-15.6603,-10.0831,36.1814,-11.5623,-9.69801,-6.17862
0.349616,18.2661,-2.31608,-0.0201707,38.6489,-1.91329,2.80363,12.9229,4.40613,-2.40157,17.3848,-4.98554,-1.20405,8.66647,-7.76782,-7.02026,-8.76331,-10.2038,6.83095,-12.0199,14.279,4.70122,-5.53395,5.21792,-8.01102e-14,-2.06736e-14,31.3195,57.1299,-40.292,98.4402,22.7484,-34.3416,15.9074,7.12502,-7.50932,-13.9393,-8.01102e-14,-2.06736e-14,-56.9962,21.7733,31.9172,82.5104,-7.9247,-31.9333,10.59,7.12502,-5.18429,40.5066,7.18925,6.08833,23.5048,21.2777,-38.1917,-36.7666,6.6812,-24.1671,-15.5934,-10.1412,36.119,-11.4828,-9.68385,-5.95432
0.363098,18.2724,-2.33201,-0.0607768,38.4696,-1.92991,2.95545,12.9404,4.4434,-2.4203,17.4133,-4.89026,-1.32094,8.6733,-7.73314,-7.01898,-8.79108,-10.3028,7.11695,-12.0778,14.2702,4.80008,-5.55857,5.22278,-5.35725e-14,-3.81667e-14,30.8645,57.9873,-40.4001,98.5236,23.3981,-34.4389,15.6339,7.12502,-7.60322,-14.2094,-5.35725e-14,-3.81667e-14,-57.4832,21.7385,32.2514,82.2563,-9.2225,-31.8138,10.4453,7.12502,-5.06897,40.3646,7.06964,5.91826,23.3565,21.498,-37.6564,-36.6586,5.80782,-24.051,-15.5325,-10.2044,36.0496,-11.4642,-9.58169,-5.50849
0.378486,18.2834,-2.34379,-0.0749174,38.3133,-1.86808,3.02413,12.8827,4.38903,-2.39013,17.3346,-4.76829,-1.3928,8.6298,-7.60628,-7.03959,-8.74634,-10.4023,7.39511,-12.0321,14.2502,4.88658,-5.53278,5.23429,-1.23346e-13,7.95139e-15,30.5068,58.7893,-40.4886,98.5414,23.9177,-34.1638,15.8125,7.12502,-7.33772,-14.0403,-1.23346e-13,7.95139e-15,-58.0197,21.7482,32.4384,81.9516,-10.4013,-31.4266,10.3564,7.12502,-4.69505,40.2844,7.00682,5.67552,23.1362,21.695,-37.052,-36.6091,4.59791,-23.9045,-15.4846,-10.356,35.9865,-11.482,-9.40251,-5.30857
0.39309,18.2895,-2.35201,-0.0773557,38.138,-1.81523,2.97056,12.8534,4.266,-2.29857,17.2871,-4.59752,-1.36323,8.60758,-7.3571,-7.0558,-8.77983,-10.5643,7.57132,-12.0764,14.2228,4.95631,-5.55629,5.24482,6.6568e-14,1.59028e-14,29.9188,59.2931,-40.6626,98.536,24.3015,-33.4424,16.5329,7.12502,-6.64128,-13.343,6.6568e-14,1.59028e-14,-58.367,21.7214,32.8653,81.6517,-10.9931,-31.2308,10.3748,7.12502,-4.50602,40.3069,6.9632,5.58795,22.9341,21.8408,-36.5628,-36.4944,3.83444,-23.7856,-15.4299,-10.4867,35.9603,-11.5182,-9.24303,-5.31965
0.408178,18.2892,-2.36428,-0.0845226,37.9022,-1.8587,2.90931,12.8616,4.34158,-2.2756,17.2998,-4.52644,-1.30457,8.61485,-7.30241,-7.04148,-8.85414,-10.6496,7.81745,-12.1992,14.2438,5.05099,-5.61236,5.25104,-9.18882e-14,2.38542e-14,28.9147,59.6999,-41.2916,98.3833,24.447,-33.1426,17.2005,7.12502,-6.35192,-12.6843,-9.18882e-14,2.38542e-14,-58.5935,21.6896,33.2093,81.4392,-11.4759,-30.8647,10.3402,7.12502,-4.15248,40.2795,6.891,5.65663,22.7872,21.8898,-36.1432,-36.2658,3.45465,-23.7563,-15.3254,-10.5153,35.9909,-11.5909,-9.13133,-5.48698
0.423499,18.2866,-2.37978,-0.0372085,37.6709,-1.91556,2.86254,12.8398,4.48084,-2.3338,17.2758,-4.5246,-1.30479,8.59994,-7.36291,-7.045,-8.88251,-10.7019,8.10321,-12.2763,14.3685,5.16031,-5.63728,5.28896,-6.83322e-14,1.27222e-14,27.8057,60.2135,-42.0412,98.2511,24.3629,-33.4656,17.1369,7.12502,-6.66371,-12.7382,-6.83322e-14,1.27222e-14,-58.8959,21.6508,33.3362,81.3607,-11.8517,-30.2683,9.86756,7.12502,-3.5766,39.8173,6.78982,5.78956,22.6304,21.8427,-35.9181,-35.8752,3.35491,-23.8409,-15.2154,-10.5099,36.0857,-11.641,-9.0235,-5.39508
0.437642,18.2843,-2.39569,-0.0932157,37.4587,-2.00683,2.91321,12.7775,4.6561,-2.36412,17.2023,-4.47607,-1.34093,8.55809,-7.41777,-7.08933,-8.90876,-10.6824,8.40421,-12.3387,14.3301,5.26378,-5.65958,5.26364,-7.77497e-14,2.06736e-14,26.6584,60.6612,-42.6981,98.32,24.2593,-33.8078,16.1065,7.12502,-6.99408,-13.758,-7.77497e-14,2.06736e-14,-59.2286,21.5926,33.4429,81.3156,-11.9867,-29.8551,9.39591,7.12502,-3.1775,39.352,6.83946,5.88161,22.5326,21.7527,-35.8807,-35.334,3.73169,-23.879,-15.1004,-10.4986,36.2234,-11.6577,-8.93154,-5.27527
0.452882,18.2843,-2.41058,-0.239161,37.2314,-2.13372,3.05683,12.6774,4.85994,-2.38449,17.0829,-4.38,-1.43143,8.48984,-7.46409,-7.19589,-8.94571,-10.7952,8.78761,-12.407,14.2993,5.41293,-5.68458,5.25811,1.79217e-13,9.54166e-15,25.4064,60.9982,-43.3759,98.4447,24.0099,-33.7688,15.5514,7.12502,-6.95637,-14.3143,1.79217e-13,9.54166e-15,-59.6158,21.5428,33.447,81.2259,-12.2547,-29.5515,9.18404,7.12502,-2.88432,39.1443,6.97627,5.92495,22.4865,21.6662,-35.6924,-34.9486,3.65667,-23.8263,-14.9209,-10.4888,36.3607,-11.727,-8.87243,-5.41265
0.469205,18.2855,-2.4265,-0.310183,36.8957,-2.30372,3.09449,12.5954,5.10066,-2.40101,16.9866,-4.2763,-1.44903,8.43577,-7.49111,-7.35728,-8.95659,-11.0255,9.09225,-12.4282,14.3904,5.55766,-5.68384,5.3137,-5.50509e-14,-9.54166e-15,24.1923,61.2149,-43.9691,98.5192,23.641,-33.6496,15.3496,7.12502,-6.84128,-14.5199,-5.50509e-14,-9.54166e-15,-59.8231,20.9496,33.7414,81.1639,-12.1686,-29.6727,9.60426,7.12502,-3.00139,39.5629,6.94615,6.11673,22.4836,21.5999,-35.2361,-34.8178,3.33118,-23.8482,-14.5981,-10.4185,36.4905,-11.8253,-8.83573,-5.63423
0.484287,18.2864,-2.44138,-0.294025,36.4568,-2.37586,3.01903,12.553,5.18184,-2.37667,16.9307,-4.1478,-1.4079,8.40709,-7.38299,-7.41555,-8.97677,-11.1996,9.17479,-12.445,14.4179,5.60818,-5.69278,5.34559,-1.76049e-14,4.77083e-14,23.0698,61.2775,-44.4003,98.4848,23.3675,-33.5005,15.2018,7.12502,-6.69739,-14.6723,-1.76049e-14,4.77083e-14,-60.4125,21.3249,33.7862,81.4939,-12.3145,-29.5736,9.58715,7.12502,-2.90568,39.5471,6.87831,6.42692,22.3967,21.5225,-34.7694,-34.72,2.98715,-23.8681,-14.2792,-10.4099,36.6167,-11.8866,-8.71668,-5.47292
0.496801,18.286,-2.4539,-0.396459,36.0184,-2.4881,3.04876,12.5127,5.33286,-2.37812,16.8852,-4.08163,-1.4111,8.38124,-7.39841,-7.34437,-9.03774,-11.1373,9.1756,-12.5384,14.3849,5.60236,-5.74086,5.31731,-2.35933e-14,-1.59028e-15,21.5277,61.0762,-45.4027,98.2771,23.1083,-33.1478,15.6398,7.12502,-6.35693,-14.2449,-2.35933e-14,-1.59028e-15,-60.2001,20.6626,33.9465,81.2455,-11.2348,-30.0629,9.77879,7.12502,-3.37817,39.7318,6.9491,6.77946,22.3876,21.4322,-34.5979,-34.561,2.51134,-23.7652,-14.0113,-10.3736,36.73,-11.9977,-8.54807,-5.20558
0.511051,18.2863,-2.4672,-0.600282,35.5932,-2.7534,3.14493,12.4115,5.72988,-2.40482,16.7743,-4.04714,-1.41058,8.31947,-7.58344,-7.36997,-9.04076,-11.1299,9.27587,-12.5643,14.4786,5.64721,-5.74403,5.34198,-3.61043e-14,-2.70347e-14,19.8934,60.756,-46.74,97.9213,23.0424,-33.133,16.2571,7.12502,-6.34264,-13.6279,-3.61043e-14,-2.70347e-14,-60.1491,20.373,33.7634,81.1157,-10.3005,-30.493,9.95656,7.12502,-3.79353,39.9025,7.02893,7.12485,22.5074,21.3616,-34.5275,-34.3868,2.24737,-23.6282,-13.7707,-10.2088,36.8013,-12.1538,-8.39872,-5.25469
0.525257,18.2879,-2.48115,-0.71271,34.9951,-2.82587,3.33048,12.3335,5.96978,-2.4459,16.6918,-4.02981,-1.50832,8.26896,-7.7359,-7.36919,-8.99373,-11.2229,9.37405,-12.521,14.643,5.68899,-5.71444,5.41455,1.53499e-14,1.11319e-14,18.5184,60.5593,-47.7098,97.6797,22.9992,-33.5732,16.2106,7.12502,-6.76761,-13.6612,1.53499e-14,1.11319e-14,-60.4208,20.3949,33.4419,81.1825,-10.0328,-30.571,10.0473,7.12502,-3.8689,39.9919,7.07863,7.4576,22.4133,21.3286,-34.2887,-34.1094,2.17521,-23.3948,-13.4407,-10.2242,36.8148,-12.3093,-8.21509,-5.47492
0.534797,18.2887,-2.4953,-0.643755,34.3109,-2.56745,3.50489,12.2921,5.8523,-2.43952,16.6386,-4.02821,-1.63836,8.23756,-7.72486,-7.29743,-8.96696,-11.279,9.31365,-12.4843,14.6921,5.66007,-5.70094,5.44655,1.44398e-13,-2.46493e-14,17.3575,60.3157,-48.2484,97.5735,22.6993,-33.5794,15.8572,7.12502,-6.77354,-14.0144,1.44398e-13,-2.46493e-14,-60.6108,20.4183,33.2047,81.204,-9.82633,-30.5098,10.0171,7.12502,-3.80982,39.9628,7.08974,7.82417,22.0286,21.3299,-34.0521,-33.7023,2.30117,-23.1342,-13.0573,-10.5314,36.7889,-12.3996,-7.933,-5.5989
0.547707,18.2878,-2.50909,-0.515345,33.6847,-2.24149,3.60095,12.1557,5.68552,-2.39947,16.4511,-4.02691,-1.72562,8.14238,-7.67184,-7.38962,-8.89777,-11.1816,9.30779,-12.3721,14.5284,5.64128,-5.64962,5.38733,-3.32188e-14,0,16.6132,60.0591,-48.571,97.3119,22.3342,-33.3826,15.5379,7.12502,-6.58358,-14.3398,-3.32188e-14,0,-60.8725,20.5246,32.8308,81.204,-9.36048,-30.5105,10.0515,7.12502,-3.81044,39.9972,7.03507,8.07599,21.5488,21.4099,-33.7678,-33.3082,2.17487,-22.8977,-12.6824,-10.9129,36.7375,-12.4798,-7.69632,-5.60882
0.563437,18.287,-2.52545,-0.483101,33.0165,-2.09615,3.60468,11.9581,5.68898,-2.29689,16.1866,-3.92713,-1.69195,8.01238,-7.57181,-7.61104,-8.77122,-11.2433,9.36507,-12.1659,14.4176,5.66545,-5.5489,5.37601,-2.21375e-13,1.27222e-14,16.2946,59.8138,-48.5159,97.0097,22.316,-33.3357,15.0303,7.12502,-6.53831,-14.8488,-2.21375e-13,1.27222e-14,-61.2858,20.8761,32.3315,81.2219,-8.76421,-30.4139,10.063,7.12502,-3.71716,40.0103,6.90978,8.21617,21.1789,21.5467,-33.4333,-32.9134,2.09958,-22.6484,-12.296,-11.1271,36.6958,-12.5878,-7.46913,-5.49568
0.573416,18.286,-2.54388,-0.578439,32.2023,-2.09103,3.61111,11.8464,5.90744,-2.12944,16.0479,-3.87271,-1.50066,7.95283,-7.60376,-7.79511,-8.70077,-11.1924,9.28937,-12.045,14.3592,5.65059,-5.48675,5.35571,1.18525e-13,-1.03368e-14,15.9653,59.2201,-48.4698,96.6681,22.463,-33.4288,15.0157,7.12502,-6.62817,-14.8605,1.18525e-13,-1.03368e-14,-61.3667,21.1318,31.9381,81.2423,-8.14751,-30.3681,10.2906,7.12502,-3.67295,40.2387,6.77614,8.4761,20.9833,21.7232,-33.1762,-32.5132,2.04478,-22.3391,-11.7896,-11.1957,36.6515,-12.6614,-7.22619,-5.67806
0.581517,18.286,-2.55891,-0.523913,31.3021,-2.00987,3.52378,11.8089,5.99006,-2.04621,15.9969,-3.86821,-1.35364,7.93549,-7.60732,-7.7781,-8.65119,-11.135,9.0886,-11.9678,14.3876,5.57416,-5.45151,5.36544,1.88709e-13,-1.03368e-14,15.3618,58.5174,-48.654,96.3465,22.5136,-32.9362,14.8524,7.12502,-6.15264,-15.0382,1.88709e-13,-1.03368e-14,-61.3374,21.1746,31.6331,81.3376,-7.61744,-30.4217,10.4048,7.12502,-3.72469,40.352,6.49013,8.84444,20.7287,21.926,-32.9173,-32.1746,1.7958,-22.1169,-11.2083,-11.2984,36.5863,-12.7255,-6.93206,-5.76147
0.593704,18.2895,-2.57323,-0.176958,30.2965,-1.5456,3.41102,11.7599,5.64424,-2.05781,15.9079,-3.87771,-1.4068,7.89193,-7.43089,-7.67882,-8.52646,-11.2905,8.97272,-11.7835,14.4563,5.51078,-5.37142,5.43714,9.95538e-14,-3.18055e-15,14.8131,58.0709,-48.6898,96.1577,22.3868,-32.032,14.5209,7.12502,-5.27961,-15.3933,9.95538e-14,-3.18055e-15,-61.5564,21.1933,31.2234,81.4139,-6.94253,-30.5133,10.3433,7.12502,-3.81315,40.2889,6.06932,9.1423,20.0256,22.1117,-32.4582,-31.8401,1.51177,-21.9198,-10.7102,-11.766,36.4978,-12.885,-6.4239,-5.89694
0.605203,18.2939,-2.58674,0.0755366,29.2618,-1.09215,3.43318,11.6678,5.29655,-2.07744,15.7677,-3.88896,-1.54936,7.81862,-7.29031,-7.75,-8.40524,-11.3893,9.04158,-11.61,14.4763,5.52782,-5.28585,5.47609,-4.34096e-14,-1.35174e-14,14.3372,57.6316,-48.7539,95.9209,22.3624,-31.9098,14.8141,7.12502,-5.16165,-15.103,-4.34096e-14,-1.35174e-14,-61.7064,21.2633,30.7142,81.3225,-6.26609,-30.6746,10.3871,7.12502,-3.96895,40.3299,5.70985,9.45911,19.3572,22.2994,-31.9905,-31.709,0.83714,-21.6192,-10.2561,-12.2433,36.3817,-13.0611,-5.87596,-6.21325
0.611913,18.2948,-2.59523,-0.0857679,28.2612,-1.18275,3.60748,11.5351,5.38488,-2.10983,15.6029,-3.77191,-1.71492,7.72477,-7.26904,-7.85791,-8.30665,-11.285,9.17184,-11.4709,14.3042,5.55014,-5.21796,5.41509,6.33548e-14,-1.82882e-14,13.8911,57.1543,-48.8276,95.7167,22.1939,-32.0667,15.484,7.12502,-5.3131,-14.4294,6.33548e-14,-1.82882e-14,-61.899,21.1316,30.1629,81.3037,-5.70925,-30.6796,10.5325,7.12502,-3.97371,40.4751,5.60988,9.84912,19.3196,22.327,-31.7157,-31.6545,0.377319,-21.2328,-9.82126,-12.1928,36.3579,-13.2668,-5.39429,-6.50699
0.619346,18.2981,-2.61028,-0.197533,27.1592,-1.13387,3.78783,11.3502,5.35079,-2.13461,15.3625,-3.66024,-1.91714,7.59308,-7.19577,-7.91841,-8.09632,-10.9495,9.24623,-11.1777,13.9255,5.50099,-5.08224,5.26883,3.1203e-14,1.59028e-14,13.7711,56.872,-48.7385,95.6034,21.9317,-32.2468,15.5693,7.12502,-5.48703,-14.3397,3.1203e-14,1.59028e-14,-62.3497,21.0315,29.4428,81.3774,-5.15175,-30.546,10.4074,7.12502,-3.84475,40.3524,5.49318,10.265,19.1137,22.3397,-31.3,-31.4677,-0.0199542,-20.8118,-9.34948,-12.2724,36.3199,-13.4739,-4.88218,-6.78058
0.630484,18.2983,-2.62883,-0.781159,26.1301,-1.97541,3.98073,11.0643,6.23561,-2.16625,15.0435,-3.38844,-1.9606,7.41405,-7.41266,-7.85602,-7.7948,-10.4621,9.14289,-10.7785,13.6209,5.36152,-4.89341,5.13721,-1.11288e-13,5.56597e-15,13.9279,56.6494,-48.5494,95.4781,21.6793,-32.5616,15.2236,7.12502,-5.79096,-14.6772,-1.11288e-13,5.56597e-15,-62.6602,21.1255,28.5264,81.3269,-4.5904,-30.4494,10.5212,7.12502,-3.75149,40.4679,5.43224,10.3696,19.7146,22.3674,-30.8484,-31.0806,-0.251637,-20.3528,-8.91424,-11.4798,36.3032,-13.7005,-4.48241,-6.57042
0.637936,18.3025,-2.6414,-0.690386,24.9639,-1.71604,4.00549,10.9696,6.05118,-2.09787,14.9064,-3.37128,-1.97485,7.3489,-7.30593,-8.10975,-7.64774,-10.4111,9.12648,-10.5614,13.6152,5.36967,-4.77739,5.14138,-9.51806e-14,1.35174e-14,14.0349,56.0619,-48.1532,95.4008,21.4594,-32.8754,14.6945,7.12502,-6.09393,-15.1979,-9.51806e-14,1.35174e-14,-62.4832,21.0151,27.9975,81.2286,-3.94863,-30.4744,10.8944,7.12502,-3.77554,40.8407,5.11166,10.77,19.2491,22.5001,-30.5377,-30.737,-0.14304,-19.9785,-8.50813,-11.7463,36.2029,-13.9105,-3.85828,-6.11746
0.645449,18.3082,-2.65163,-0.435326,23.7565,-1.15459,4.06112,10.9965,5.63771,-1.98764,14.9184,-3.44279,-1.97018,7.36474,-7.17236,-8.69662,-7.68273,-10.6504,9.36136,-10.5775,13.7702,5.56673,-4.75726,5.20919,-1.29204e-13,-2.70347e-14,13.8706,55.1348,-47.8289,95.4594,21.3366,-32.8117,13.6682,7.12502,-6.03238,-16.2259,-1.29204e-13,-2.70347e-14,-61.9766,20.6955,27.7761,81.1035,-3.23644,-30.5771,11.0014,7.12502,-3.87475,40.9459,4.72217,11.2644,18.496,22.6685,-30.0321,-30.5741,-0.427661,-19.6114,-8.11009,-12.3169,36.0691,-14.1207,-3.18492,-6.10166
0.658317,18.3119,-2.66553,-0.352965,22.4436,-1.02659,4.08102,10.9805,5.66737,-1.96146,14.8996,-3.41119,-1.9578,7.35586,-7.15664,-9.04523,-7.63024,-10.7823,9.54121,-10.49,13.8545,5.68292,-4.69752,5.25656,9.07514e-14,-1.11319e-14,13.6428,54.3317,-47.7618,95.4946,21.3133,-32.6153,12.7289,7.12502,-5.84282,-17.1706,9.07514e-14,-1.11319e-14,-61.7078,20.5596,27.464,81.1102,-2.64574,-30.0689,11.0915,7.12502,-3.38398,41.0444,4.18963,11.7398,18.1067,23.0151,-29.6254,-30.2114,-0.591407,-19.2189,-7.61525,-12.4744,35.8437,-14.2701,-2.4457,-6.00316
0.6687,18.3175,-2.6773,-0.397491,21.0249,-1.07576,4.12924,10.9197,5.77447,-1.95899,14.8281,-3.3054,-1.99499,7.31563,-7.11593,-9.0231,-7.46847,-10.7046,9.31926,-10.2523,13.811,5.57352,-4.58828,5.25613,-4.38382e-14,-6.36111e-15,13.4692,53.6814,-47.755,95.3725,21.0145,-32.5832,12.8177,7.12502,-5.81184,-17.0825,-4.38382e-14,-6.36111e-15,-61.6091,20.5471,27.1075,81.1369,-2.21627,-28.9696,10.8655,7.12502,-2.32232,40.8327,3.6906,12.3532,17.9267,23.3862,-29.2732,-29.83,-1.11336,-18.7585,-7.09007,-12.439,35.6173,-14.4308,-1.66781,-5.57918
0.676454,18.323,-2.69173,-0.370901,19.7842,-0.906867,4.19964,10.7792,5.66107,-1.92342,14.6369,-3.26021,-2.0657,7.2184,-7.03061,-9.06592,-7.31385,-10.4328,9.10573,-10.0258,13.6039,5.46066,-4.48429,5.16755,6.32508e-14,-3.49861e-14,13.4734,53.0691,-47.5102,95.3155,20.3808,-32.8301,13.0797,7.12502,-6.05016,-16.8139,6.32508e-14,-3.49861e-14,-61.4588,20.6435,26.7101,81.0402,-2.02833,-29.501,10.8415,7.12502,-2.83554,40.8023,3.24491,12.7418,17.5038,23.6779,-28.7248,-29.4247,-1.94131,-18.3419,-6.75228,-12.6202,35.4213,-14.6133,-0.939935,-5.36808
0.679886,18.3263,-2.71277,-0.27263,18.7255,-0.674425,4.30332,10.6182,5.44377,-1.91033,14.4138,-3.2191,-2.20587,7.10304,-6.90816,-9.37974,-7.2478,-10.3361,9.20969,-9.92425,13.5198,5.52408,-4.42276,5.12621,7.96008e-14,-7.95139e-16,13.3907,52.332,-47.2726,95.3155,20.1413,-33.6479,13.1262,7.12502,-6.83969,-16.7433,7.96008e-14,-7.95139e-16,-61.1347,20.8499,26.3392,80.7935,-1.86455,-29.6331,10.4673,7.12502,-2.96315,40.4264,2.78591,13.1,17.0304,23.9218,-28.3471,-28.9603,-2.24598,-18.0362,-6.63877,-12.8446,35.2376,-14.7565,-0.198222,-4.9749
0.683496,18.3284,-2.7266,-0.340538,17.6354,-0.547898,4.37537,10.495,5.33482,-1.78178,14.2452,-3.11941,-2.18752,7.02326,-6.75565,-9.84485,-7.24869,-10.3702,9.34295,-9.89976,13.5309,5.64427,-4.39119,5.12473,6.26917e-14,-2.3059e-14,13.3314,51.4412,-46.9608,95.3341,20.1848,-34.2597,13.0365,7.12502,-7.43022,-16.813,6.26917e-14,-2.3059e-14,-60.5854,20.8765,26.419,80.8098,-2.34582,-29.9215,12.544,7.12502,-3.24161,42.4991,2.53624,13.6875,16.7476,24.1068,-28.1029,-28.5403,-2.18113,-17.5926,-6.48211,-12.9783,35.1113,-14.966,0.515365,-4.60026
0.690123,18.3266,-2.73733,-0.515963,16.5033,-0.563298,4.42849,10.3525,5.42965,-1.61883,14.0625,-2.99154,-2.0835,6.93802,-6.66655,-10.1493,-7.17861,-10.4171,9.34195,-9.78298,13.6084,5.68838,-4.32014,5.16176,-7.78553e-14,1.59028e-15,13.3018,50.6137,-46.6538,95.5238,19.9566,-34.2223,12.9044,7.12502,-7.39411,-16.9464,-7.78553e-14,1.59028e-15,-60.186,20.7407,26.4048,81.0377,-1.31999,-30.1353,12.6698,7.12502,-3.44813,42.6217,2.37754,14.2406,16.5941,24.2077,-27.6485,-28.0631,-2.23752,-17.122,-6.1861,-12.9867,35.0675,-15.1885,1.15983,-5.04359
0.70135,18.3226,-2.75009,-0.619864,15.4207,-0.818418,4.50766,10.1615,5.80838,-1.64025,13.8366,-2.86493,-2.12766,6.81582,-6.74987,-10.1202,-6.99161,-10.3424,9.25905,-9.53598,13.6427,5.62502,-4.19874,5.18824,-6.06852e-14,-1.19271e-14,13.0459,49.9397,-46.6875,95.7591,19.6554,-34.05,13.1815,7.12502,-7.22786,-16.6751,-6.06852e-14,-1.19271e-14,-59.9598,20.5183,25.9895,81.1379,-0.109468,-29.7358,11.0952,7.12502,-3.06235,41.0529,2.08922,14.5562,16.6003,24.2779,-27.1723,-27.4884,-2.53672,-16.8319,-5.87024,-12.7439,35.062,-15.394,1.77676,-6.69016
0.709219,18.3202,-2.76099,-0.723746,14.397,-1.14641,4.56111,9.97317,6.1143,-1.67037,13.611,-2.65385,-2.20572,6.69226,-6.70859,-10.0374,-6.80342,-10.3246,9.17314,-9.27923,13.6473,5.55144,-4.07874,5.21631,-1.19395e-13,-7.95139e-16,12.7499,49.2517,-46.6659,95.9025,19.3962,-33.8327,13.8478,7.12502,-7.01804,-16.0159,-1.19395e-13,-7.95139e-16,-59.5919,20.3779,25.7063,81.0944,0.431071,-29.3878,10.1796,7.12502,-2.7262,40.1419,1.81992,14.8938,16.7349,24.3417,-26.7159,-27.0351,-3.23111,-16.5772,-5.54681,-12.3945,35.0874,-15.6079,2.27852,-8.6503
0.71166,18.3219,-2.77282,-0.781016,13.2765,-1.05005,4.75225,9.81582,5.96183,-1.66572,13.4042,-2.53129,-2.40124,6.58089,-6.54977,-10.042,-6.6462,-10.4146,9.18638,-9.06004,13.71,5.53602,-3.97197,5.27467,4.75965e-14,-7.95139e-15,12.4369,48.4818,-46.6537,95.9418,19.2241,-33.9769,14.9373,7.12502,-7.1573,-14.9217,4.75965e-14,-7.95139e-15,-59.0987,20.2271,25.5811,81.0291,0.168046,-29.5242,11.0033,7.12502,-2.85799,40.9639,1.55635,15.3975,16.44,24.3853,-26.1825,-26.5688,-3.94379,-16.244,-5.24441,-12.4873,35.1337,-15.8789,2.86331,-9.54869
0.713523,18.3234,-2.78412,-0.831176,12.1872,-1.07462,4.99105,9.65899,5.96619,-1.75319,13.2124,-2.44522,-2.67294,6.46877,-6.52516,-10.0698,-6.45939,-10.322,9.37177,-8.83269,13.696,5.564,-3.85474,5.27884,-1.75639e-13,1.19271e-15,11.8291,47.7179,-46.9388,96.0913,19.0603,-34.0021,15.5228,7.12502,-7.1816,-14.3354,-1.75639e-13,1.19271e-15,-58.497,19.9649,25.6106,81.1949,0.166544,-29.7468,11.7208,7.12502,-3.07295,41.6784,1.25467,15.8482,16.2793,24.4579,-25.7604,-25.9966,-4.34571,-15.9689,-4.98689,-12.4449,35.1774,-16.1546,3.42947,-8.64665
0.714855,18.3244,-2.79396,-0.897665,11.3078,-1.39715,5.00476,9.43971,6.23991,-1.79131,12.9437,-2.28188,-2.73972,6.32454,-6.5057,-10.0253,-6.25258,-10.0316,9.40087,-8.58388,13.5835,5.51574,-3.73152,5.22108,1.23743e-14,2.78299e-15,11.4009,46.9501,-46.9866,96.4362,18.785,-33.7028,15.7089,7.12502,-6.89271,-14.1589,1.23743e-14,2.78299e-15,-57.807,19.8582,25.6255,81.3339,0.33819,-29.9796,12.1256,7.12502,-3.29776,42.0798,0.971751,16.135,16.4763,24.5683,-25.4782,-25.5285,-4.8464,-15.7896,-4.82712,-12.0756,35.2111,-16.3657,3.8644,-6.77753
0.715241,18.3245,-2.80794,-0.841978,10.4946,-1.43029,4.95544,9.20808,6.22189,-1.80909,12.6335,-2.17501,-2.80526,6.16583,-6.38032,-9.98721,-6.04844,-9.87406,9.4134,-8.33032,13.575,5.4745,-3.6045,5.21897,5.19076e-14,-8.74653e-15,11.0433,46.2046,-46.9051,96.8246,18.451,-33.7092,15.6981,7.12502,-6.89881,-14.1695,5.19076e-14,-8.74653e-15,-57.036,19.5404,25.7294,81.3467,0.850646,-30.1243,12.1951,7.12502,-3.43753,42.1471,0.627647,16.4522,16.3374,24.6449,-25.2407,-25.1182,-4.87932,-15.7029,-4.67039,-12.0309,35.2633,-16.6235,4.2628,-5.94144
0.712633,18.3238,-2.8217,-0.832767,9.65799,-1.38479,4.97428,9.01164,6.07711,-1.80458,12.3653,-2.07073,-2.90303,6.02969,-6.20269,-9.98676,-5.86599,-9.75532,9.45622,-8.10779,13.6192,5.45729,-3.48859,5.23629,5.48273e-14,-5.96354e-15,10.5792,45.3598,-46.9165,97.1172,18.103,-33.6126,15.8872,7.12502,-6.80564,-13.9834,5.48273e-14,-5.96354e-15,-56.1891,19.183,25.9316,81.451,1.38921,-30.1191,12.1687,7.12502,-3.43247,42.1208,0.338302,16.9337,16.1703,24.7088,-25.0234,-24.8257,-4.91887,-15.5384,-4.49814,-12.0706,35.3047,-16.8692,4.72889,-5.81806
0.710053,18.3222,-2.83193,-0.886357,8.93733,-1.44313,4.9357,8.79376,6.03585,-1.73884,12.0711,-1.93612,-2.89209,5.88555,-6.02795,-10.03,-5.73063,-9.58047,9.5432,-7.94549,13.5515,5.46136,-3.40428,5.20086,1.21979e-13,-3.97569e-16,10.0591,44.3861,-47.0007,97.3695,17.779,-33.3092,16.5034,7.12502,-6.51275,-13.3765,1.21979e-13,-3.97569e-16,-55.2198,18.9275,26.2178,81.6117,1.83256,-30.0287,12.3199,7.12502,-3.34516,42.2734,0.138167,17.3314,16.1648,24.8054,-24.8452,-24.5696,-5.25814,-15.3373,-4.36293,-11.9974,35.3018,-17.0146,5.09443,-5.52784
0.708748,18.322,-2.84217,-0.942293,8.34235,-1.43059,4.98323,8.51685,5.98186,-1.70763,11.7022,-1.85161,-2.96559,5.69947,-5.91479,-10.0383,-5.58481,-9.41499,9.66825,-7.77309,13.4761,5.47027,-3.31644,5.16632,-5.69891e-14,-5.1684e-15,9.42033,43.3937,-47.2526,97.6344,17.5709,-33.0121,17.3691,7.12502,-6.22585,-12.5194,-5.69891e-14,-5.1684e-15,-54.2549,18.5903,26.4463,81.7271,2.12774,-30.01,12.3529,7.12502,-3.32711,42.3066,0.017345,17.6034,16.0927,24.8685,-24.6974,-24.3136,-5.46382,-15.1324,-4.29154,-12.0137,35.2805,-17.0807,5.3553,-5.90263
0.704679,18.3235,-2.85207,-0.945837,7.74551,-1.38842,5.03485,8.19725,5.93933,-1.73528,11.2766,-1.85639,-3.08886,5.48118,-5.90196,-9.92426,-5.35006,-9.19741,9.68336,-7.50156,13.5434,5.41718,-3.1761,5.18062,1.56543e-15,-1.59028e-15,8.8564,42.5164,-47.5969,97.9944,17.1512,-32.8322,16.4128,7.12502,-6.05218,-13.4808,1.56543e-15,-1.59028e-15,-53.3639,18.1279,26.5214,81.91,2.31077,-30.2164,12.4844,7.12502,-3.52643,42.435,-0.148559,17.953,15.9985,24.8785,-24.4983,-24.1947,-5.85093,-14.9758,-4.18178,-12.0523,35.2699,-17.1433,5.64797,-7.64164
0.69983,18.3246,-2.85625,-0.940685,7.12031,-1.48969,4.97409,7.90879,6.05195,-1.75107,10.896,-1.85668,-3.1035,5.28773,-5.94445,-9.90923,-5.12397,-9.06535,9.79189,-7.25557,13.7961,5.424,-3.03388,5.26562,-5.68151e-14,1.03368e-14,8.25623,41.5985,-47.9309,98.3546,16.716,-33.0244,14.2867,7.12502,-6.23773,-15.6015,-5.68151e-14,1.03368e-14,-52.2426,17.8108,26.7406,82.0131,2.77075,-31.1312,13.4703,7.12502,-4.40981,43.4044,-0.343474,18.4407,16.0811,24.9016,-24.4191,-24.1351,-5.98126,-14.8236,-4.10036,-11.9307,35.2465,-17.2286,6.05608,-8.8035
0.694489,18.3245,-2.86191,-1.01936,6.58295,-1.75851,4.96445,7.65397,6.25096,-1.74364,10.5718,-1.73936,-3.12306,5.12114,-5.92007,-10.025,-4.95972,-9.16089,10.126,-7.0906,14.1554,5.54424,-2.92285,5.41645,-6.98231e-14,1.07344e-14,7.49488,40.6277,-48.1961,98.6082,16.438,-33.4523,13.3653,7.12502,-6.6509,-16.5103,-6.98231e-14,1.07344e-14,-51.0459,17.5649,26.9856,82.0447,2.55514,-30.797,13.3842,7.12502,-4.08713,43.3247,-0.468473,18.8609,16.3865,24.9617,-24.2612,-24.1213,-6.08873,-14.632,-4.07887,-11.6177,35.2023,-17.314,6.35381,-8.63989
0.684813,18.3249,-2.86997,-1.15532,6.14858,-1.8125,4.98199,7.36394,6.13291,-1.63702,10.1784,-1.61542,-3.11887,4.93021,-5.7147,-10.159,-4.85092,-9.19898,10.3637,-6.9739,14.3123,5.6335,-2.84739,5.48639,8.97637e-14,3.97569e-15,6.87138,39.6085,-48.3113,98.9711,16.2015,-33.3309,12.2733,7.12502,-6.53365,-17.6059,8.97637e-14,3.97569e-15,-49.8298,17.2629,27.5096,82.2818,2.92389,-30.9169,13.8171,7.12502,-4.20287,43.7553,-0.463798,19.2457,16.5183,24.9939,-24.0694,-24.2127,-6.2952,-14.3765,-4.09596,-11.5378,35.1712,-17.405,6.55751,-8.17669
0.673068,18.3253,-2.87939,-1.25167,5.80612,-1.62673,5.0099,7.02478,5.79718,-1.54572,9.70374,-1.57234,-3.16493,4.70039,-5.47553,-10.0293,-4.74627,-9.10284,10.3159,-6.84099,14.2515,5.57386,-2.78981,5.46407,6.1499e-15,1.19271e-14,6.31357,38.5534,-48.4208,99.3056,16.0726,-33.178,11.8551,7.12502,-6.38608,-18.0286,6.1499e-15,1.19271e-14,-48.6696,16.8744,28.0033,82.5395,3.13645,-30.9497,13.9882,7.12502,-4.23455,43.9259,-0.429405,19.5344,16.3799,24.9888,-24.0281,-24.225,-6.07463,-14.1726,-4.12808,-11.7277,35.1672,-17.5252,6.76608,-8.07065
0.666067,18.3237,-2.88892,-1.38287,5.61778,-1.79518,5.05004,6.64953,5.84815,-1.46919,9.21101,-1.4274,-3.18773,4.45467,-5.33758,-9.97895,-4.65503,-8.98337,10.3248,-6.72397,14.1382,5.54488,-2.73785,5.41838,-1.10947e-14,-2.78299e-15,5.79194,37.4987,-48.43,99.5154,16.0437,-33.2982,12.0941,7.12502,-6.50206,-17.786,-1.10947e-14,-2.78299e-15,-47.4477,16.3298,28.6645,82.8414,3.35718,-31.0671,14.492,7.12502,-4.34789,44.4273,-0.376496,19.6506,16.6131,25.0176,-23.981,-24.1865,-5.97336,-13.9969,-4.16015,-11.5312,35.1364,-17.5814,6.84098,-7.7745
0.657215,18.3222,-2.89715,-1.51535,5.51048,-2.20356,4.95813,6.26389,5.96428,-1.33425,8.7048,-1.08896,-3.09649,4.20825,-5.01204,-10.1056,-4.60965,-9.01567,10.5537,-6.65312,13.9784,5.62324,-2.70588,5.37882,-6.93262e-14,-1.35174e-14,5.44968,36.5135,-48.1935,99.6569,16.1292,-33.2505,12.2048,7.12502,-6.45608,-17.6768,-6.93262e-14,-1.35174e-14,-46.2588,15.7685,29.5733,83.1971,3.67089,-31.5384,15.3445,7.12502,-4.80299,45.2701,-0.335435,19.8442,17.1536,25.0556,-23.9783,-24.2987,-5.64004,-13.8628,-4.2427,-11.0487,35.0695,-17.5283,6.92421,-7.5022
0.642789,18.3247,-2.90029,-1.48586,5.36623,-2.05955,4.64262,5.9142,5.38039,-1.17031,8.18508,-0.853972,-2.92693,3.97197,-4.38599,-10.1535,-4.5357,-9.17592,10.676,-6.53052,13.9232,5.65695,-2.65305,5.40029,-2.54072e-14,1.59028e-15,4.95989,35.5596,-48.0585,99.897,16.2816,-33.3514,13.0801,7.12502,-6.55345,-16.7985,-2.54072e-14,1.59028e-15,-45.0114,15.7187,30.3436,83.257,3.58986,-31.3438,14.99,7.12502,-4.61514,44.9197,-0.397366,20.1028,17.0597,25.0774,-24.0301,-24.3969,-5.28818,-13.8017,-4.32494,-11.1644,34.9677,-17.4903,7.08923,-7.45837
0.628762,18.3294,-2.90324,-1.44484,5.23148,-1.67546,4.40029,5.55606,4.74223,-1.07236,7.65445,-0.855054,-2.82865,3.7245,-3.98612,-9.97279,-4.41015,-9.23182,10.6214,-6.37265,14.0411,5.59504,-2.57976,5.4652,2.26552e-14,1.98785e-16,4.21144,34.6317,-48.2331,100.197,16.0516,-33.3279,14.3319,7.12502,-6.53072,-15.5474,2.26552e-14,1.98785e-16,-43.7018,15.4595,30.8708,83.356,3.61117,-30.5331,13.9515,7.12502,-3.8323,43.8968,-0.480351,20.1946,16.6466,25.1449,-24.1148,-24.2784,-5.11743,-13.6886,-4.4319,-11.5657,34.8239,-17.4627,7.30704,-7.92122
0.613942,18.3321,-2.91114,-1.47334,5.06478,-1.60294,4.39202,5.23553,4.49677,-1.09075,7.21357,-0.839803,-2.91817,3.50585,-3.81955,-9.69408,-4.34741,-9.1842,10.671,-6.32509,14.0913,5.55592,-2.56152,5.48205,-1.06741e-13,-2.78299e-15,3.3216,33.6405,-48.4605,100.442,15.7358,-32.8195,15.2267,7.12502,-6.03997,-14.6672,-1.06741e-13,-2.78299e-15,-42.326,14.779,31.5171,83.5924,3.85085,-30.0727,13.386,7.12502,-3.38767,43.3388,-0.573979,20.3126,16.6058,25.2838,-24.1275,-24.2428,-5.21019,-13.5384,-4.42526,-11.6041,34.6422,-17.4091,7.38531,-8.03967
0.597118,18.3339,-2.92129,-1.5615,4.96875,-1.56134,4.47337,4.9457,4.22044,-1.0443,6.81615,-0.762625,-2.9939,3.31154,-3.57781,-9.65523,-4.34079,-9.14142,10.8139,-6.33455,14.042,5.59097,-2.56642,5.45984,3.94588e-14,5.36719e-15,2.44944,32.588,-48.5732,100.779,15.9192,-32.417,14.4263,7.12502,-5.65135,-15.4783,3.94588e-14,5.36719e-15,-40.853,13.9092,32.443,83.9877,4.04531,-30.1327,13.3149,7.12502,-3.44556,43.2668,-0.58363,20.4019,16.6424,25.3914,-24.1521,-24.2751,-5.10642,-13.378,-4.3557,-11.5856,34.4776,-17.281,7.37649,-8.17546
0.579508,18.3347,-2.93427,-1.72107,5.02261,-1.51907,4.593,4.60897,3.90159,-0.922661,6.355,-0.62954,-3.02458,3.08923,-3.24894,-9.65061,-4.31761,-9.26249,10.8294,-6.29215,14.0737,5.59439,-2.54943,5.49506,2.83951e-14,-2.18663e-15,1.67531,31.6082,-48.5952,101.115,15.9918,-32.3547,13.3515,7.12502,-5.59121,-16.5547,2.83951e-14,-2.18663e-15,-39.0832,13.4252,33.5296,84.0176,3.95533,-30.3145,13.3299,7.12502,-3.62116,43.2789,-0.450034,20.3717,16.7154,25.4372,-24.1918,-24.261,-4.70729,-13.1913,-4.37521,-11.5635,34.3299,-17.1045,7.31432,-8.54917
0.562412,18.3352,-2.94605,-1.83987,5.02203,-1.51546,4.61074,4.25138,3.57534,-0.819014,5.86186,-0.49241,-3.01328,2.852,-2.89899,-9.6088,-4.27556,-9.30746,10.8543,-6.23041,14.0444,5.58722,-2.52501,5.49955,2.11488e-14,-5.96354e-15,1.00501,30.7942,-48.5821,101.348,15.6164,-32.9843,13.4834,7.12502,-6.19901,-16.4059,2.11488e-14,-5.96354e-15,-37.6547,12.6126,34.4487,84.348,4.14528,-30.6121,13.5731,7.12502,-3.90858,43.517,-0.371471,20.3494,16.7981,25.4707,-24.1225,-24.1935,-4.65883,-13.014,-4.34516,-11.5029,34.152,-16.9215,7.24364,-8.83674
0.547421,18.3387,-2.95082,-1.90227,4.91011,-1.37361,4.49645,3.91795,3.10159,-0.718433,5.38641,-0.417713,-2.92952,2.62719,-2.52048,-9.68023,-4.2106,-9.26718,11.0808,-6.15766,13.9744,5.65638,-2.48573,5.47835,-1.57319e-14,2.18663e-15,0.41469,30.0186,-48.5682,101.58,15.3258,-33.161,13.9161,7.12502,-6.36961,-15.9682,-1.57319e-14,2.18663e-15,-36.3663,11.7978,35.2652,84.8137,4.24462,-30.8645,13.8217,7.12502,-4.15228,43.761,-0.352062,20.307,16.6698,25.4926,-24.0096,-24.0422,-4.80052,-12.798,-4.2431,-11.6116,33.9485,-16.8488,7.19034,-8.80304
0.532485,18.3431,-2.9563,-1.97466,4.7666,-1.19573,4.46443,3.6284,2.66215,-0.58589,4.97307,-0.40402,-2.83857,2.43193,-2.23158,-9.94176,-4.15237,-9.29446,11.323,-6.09688,14.0777,5.77333,-2.43631,5.52334,2.24192e-14,-4.77083e-15,-0.127405,29.0604,-48.5667,101.832,15.3273,-32.5053,13.3816,7.12502,-5.73659,-16.5208,2.24192e-14,-4.77083e-15,-34.9727,10.997,36.0688,85.3171,4.43714,-30.8853,13.682,7.12502,-4.17238,43.6209,-0.322117,20.307,16.5074,25.4927,-23.8984,-23.9213,-4.89341,-12.577,-4.12934,-11.7627,33.744,-16.7391,7.16213,-8.94811
0.517369,18.3455,-2.96929,-2.02882,4.6738,-1.1255,4.48213,3.35302,2.30442,-0.399988,4.5862,-0.331117,-2.7116,2.24915,-1.92958,-10.345,-4.14505,-9.37063,11.4065,-6.07132,14.1733,5.87213,-2.40449,5.56754,-3.58278e-14,-9.54166e-15,-0.546801,27.9891,-48.464,102.021,15.2354,-31.9354,13.0807,7.12502,-5.18639,-16.8358,-3.58278e-14,-9.54166e-15,-33.7229,9.97492,36.8677,86.1185,4.82634,-30.6436,13.4994,7.12502,-3.93902,43.4428,-0.343556,20.393,16.4755,25.5078,-23.8688,-23.9011,-4.82032,-12.4367,-4.11515,-11.783,33.5588,-16.6339,7.17573,-8.9799
0.50509,18.3467,-2.9835,-2.0878,4.63057,-1.1586,4.48814,3.11099,2.12785,-0.332479,4.25507,-0.264416,-2.67889,2.08819,-1.74132,-10.2159,-4.17925,-9.41462,11.3441,-6.12307,14.2304,5.84005,-2.43447,5.58944,-5.5141e-14,-1.88845e-15,-1.28048,27.0433,-48.4878,102.228,14.9335,-32.0172,13.4613,7.12502,-5.26532,-16.4532,-5.5141e-14,-1.88845e-15,-32.2387,8.59959,37.8025,86.6787,4.92305,-30.3948,13.509,7.12502,-3.69873,43.4567,-0.361443,20.4895,16.5614,25.5476,-23.896,-23.9206,-4.79736,-12.3275,-4.19218,-11.6921,33.4019,-16.5634,7.14993,-8.45299
0.489943,18.348,-2.9993,-2.16519,4.49197,-1.22775,4.58739,2.8952,1.97797,-0.421191,3.96396,-0.213149,-2.85236,1.94233,-1.59701,-9.64687,-4.14005,-9.51253,11.2801,-6.11187,14.4045,5.72766,-2.4456,5.67019,2.07295e-14,3.77691e-15,-2.22887,26.401,-48.6426,102.425,14.6745,-31.9856,14.0033,7.12502,-5.23485,-15.912,2.07295e-14,3.77691e-15,-30.3237,7.22695,38.8844,86.6056,4.77854,-30.396,13.2688,7.12502,-3.69983,43.2165,-0.39692,20.6886,16.7129,25.6138,-23.9537,-23.9333,-4.78484,-12.19,-4.25444,-11.5415,33.2443,-16.5562,7.11617,-7.58618
0.473745,18.353,-3.01744,-2.21065,4.27044,-1.29869,4.71564,2.6767,1.77036,-0.400992,3.66501,-0.156505,-2.93197,1.79603,-1.41065,-9.67234,-4.08,-9.55171,11.3808,-6.06097,14.5994,5.76416,-2.40731,5.74779,-2.03428e-14,-1.13307e-14,-2.85932,25.7231,-48.697,102.554,14.4066,-31.5389,14.0645,7.12502,-4.80347,-15.861,-2.03428e-14,-1.13307e-14,-29.2457,5.92615,39.5525,87.4473,5.09058,-30.5195,13.0928,7.12502,-3.81915,43.0384,-0.533193,20.7982,16.8236,25.6958,-23.8048,-23.9209,-4.91024,-12.0743,-4.22405,-11.3806,33.0659,-16.5121,7.12814,-7.07958
0.461805,18.3578,-3.02798,-2.25435,4.09596,-1.12511,4.73153,2.47737,1.36642,-0.2638,3.37515,-0.159626,-2.83249,1.65982,-1.16608,-9.93604,-4.10651,-9.60748,11.4655,-6.09658,14.7051,5.84656,-2.40854,5.78796,-2.06829e-14,5.96354e-15,-3.35863,24.9511,-48.6391,102.725,14.0688,-31.5263,13.7816,7.12502,-4.79135,-16.1442,-2.06829e-14,5.96354e-15,-27.5223,4.84355,40.4578,87.7552,4.73411,-30.2391,13.1275,7.12502,-3.54833,43.0777,-0.641219,20.7337,16.6213,25.8188,-23.7172,-23.7254,-4.83144,-11.8635,-4.23274,-11.5358,32.8467,-16.4541,7.19015,-6.72697
0.448631,18.3605,-3.03758,-2.26609,3.9764,-0.885764,4.89326,2.29519,0.974766,-0.378581,3.10954,-0.256554,-3.06442,1.53004,-1.04007,-9.68615,-4.10827,-9.66379,11.5713,-6.14394,14.8658,5.8483,-2.43157,5.85115,2.72879e-14,-1.15295e-14,-4.3061,24.3667,-48.9175,102.93,13.8178,-31.4593,13.4189,7.12502,-4.72668,-16.5084,2.72879e-14,-1.15295e-14,-25.7275,3.26767,41.2549,87.7987,4.20138,-30.0835,13.0181,7.12502,-3.39811,42.9708,-0.760988,20.6965,16.3597,25.956,-23.6433,-23.6343,-5.00681,-11.6872,-4.29296,-11.7655,32.6203,-16.3768,7.28502,-6.7624
0.436608,18.3645,-3.05614,-2.20096,3.77465,-0.790951,5.19938,2.16402,0.777055,-0.653553,2.92241,-0.372998,-3.5286,1.43421,-1.05688,-9.21804,-4.10134,-9.7168,11.7242,-6.21369,15.1167,5.83182,-2.46727,5.94521,7.95139e-16,-1.39149e-15,-5.40939,23.8751,-49.2823,103.119,13.6123,-31.2975,13.4562,7.12502,-4.5704,-16.4745,7.95139e-16,-1.39149e-15,-24.2528,1.34398,41.8351,88.1015,3.79448,-30.2606,12.9111,7.12502,-3.56908,42.861,-1.04064,20.7597,16.2165,26.0966,-23.5451,-23.5369,-5.17339,-11.6367,-4.34834,-11.8299,32.3864,-16.3144,7.45734,-6.56494
0.425117,18.3708,-3.07658,-2.14043,3.50246,-0.798978,5.29203,2.07933,0.67967,-0.738128,2.80078,-0.461829,-3.6711,1.37329,-1.09042,-8.9038,-4.13774,-9.75064,11.7636,-6.32616,15.3905,5.81383,-2.51807,6.0365,3.9465e-14,3.57812e-15,-6.2674,23.2121,-49.4851,103.26,13.4949,-31.4261,13.5264,7.12502,-4.6946,-16.4016,3.9465e-14,3.57812e-15,-22.5872,-0.44213,42.3821,88.394,3.15225,-30.2657,12.8835,7.12502,-3.57405,42.8332,-1.33081,20.7638,16.1643,26.1978,-23.3645,-23.3739,-5.49253,-11.5946,-4.419,-11.7806,32.1683,-16.2939,7.67342,-5.99164
0.415046,18.3772,-3.08851,-2.15825,3.16694,-0.766953,5.09034,2.00051,0.52572,-0.588208,2.68273,-0.518323,-3.40943,1.31969,-1.0408,-8.81472,-4.16596,-9.78017,11.7084,-6.39161,15.5963,5.79817,-2.54352,6.10468,4.72517e-14,-3.18055e-15,-6.72926,22.5433,-49.5452,103.374,13.1829,-31.3825,13.4312,7.12502,-4.65252,-16.4977,4.72517e-14,-3.18055e-15,-20.7785,-1.93644,42.9124,88.5887,2.36364,-29.9436,12.4309,7.12502,-3.26294,42.3857,-1.46245,20.8139,16.1005,26.2467,-23.2148,-23.1499,-5.68833,-11.4268,-4.42428,-11.797,31.9776,-16.2764,7.90563,-5.91021
0.406047,18.3834,-3.09519,-2.2256,2.71648,-0.734543,4.83104,1.9291,0.350992,-0.357318,2.57559,-0.545378,-3.0339,1.27241,-0.946782,-8.89782,-4.19303,-9.73491,11.6557,-6.43231,15.646,5.80281,-2.55647,6.10781,2.98643e-14,4.57205e-15,-6.94971,21.9787,-49.5503,103.454,12.8323,-31.2691,13.4286,7.12502,-4.54304,-16.5027,2.98643e-14,4.57205e-15,-19.3864,-3.29962,43.2804,89.0835,1.4111,-29.4693,11.767,7.12502,-2.80491,41.7283,-1.5441,20.9662,16.0487,26.2546,-22.9767,-22.9658,-5.87679,-11.1733,-4.42866,-11.8313,31.8138,-16.3069,8.25012,-5.90575
0.398214,18.3869,-3.10607,-2.23234,2.25969,-0.802031,4.63984,1.8581,0.305922,-0.191923,2.47792,-0.56455,-2.75885,1.22636,-0.923095,-8.98736,-4.23195,-9.70239,11.6651,-6.49809,15.7189,5.83232,-2.5789,6.11964,-2.58063e-14,1.19271e-15,-7.19546,21.475,-49.5596,103.521,12.5734,-31.4498,13.9524,7.12502,-4.71748,-15.9751,-2.58063e-14,1.19271e-15,-18.1731,-4.76818,43.5056,89.663,0.378075,-29.3794,11.3744,7.12502,-2.71813,41.3368,-1.71803,21.0827,16.0573,26.228,-22.7302,-22.7312,-6.27516,-11.0197,-4.41578,-11.7471,31.673,-16.3151,8.62641,-5.76582
0.391709,18.3897,-3.12034,-2.13914,1.80083,-0.903023,4.83249,1.7955,0.285034,-0.345394,2.39311,-0.561187,-3.0276,1.18253,-0.912722,-9.03736,-4.24647,-9.6866,11.8935,-6.55023,15.745,5.9189,-2.59468,6.12433,-3.44767e-16,1.23246e-14,-7.74125,21.2862,-49.6054,103.63,12.2853,-32.1908,14.7112,7.12502,-5.43299,-15.1991,-3.44767e-16,1.23246e-14,-17.1473,-6.49091,43.739,90.1563,-0.520039,-29.2142,11.1591,7.12502,-2.55855,41.1235,-2.00552,21.1382,16.045,26.1758,-22.4805,-22.4388,-6.80623,-10.9979,-4.31775,-11.6098,31.5592,-16.3442,8.88681,-5.39815
0.388502,18.3948,-3.13433,-2.07498,1.33154,-0.970696,5.32589,1.72768,0.226631,-0.572767,2.30022,-0.511517,-3.54565,1.13425,-0.844646,-9.34401,-4.31976,-9.78325,12.2223,-6.65048,15.6908,6.08968,-2.63103,6.11589,3.31815e-14,-1.39149e-14,-8.21635,21.3057,-49.6452,103.636,12.3801,-33.1037,15.185,7.12502,-6.31429,-14.7008,3.31815e-14,-1.39149e-14,-16.2309,-8.12057,44.0312,90.5713,-1.36821,-28.5866,10.6764,7.12502,-1.95249,40.6472,-2.25453,21.1365,15.9869,26.1216,-22.2125,-22.0747,-7.01802,-10.9369,-4.23479,-11.532,31.4698,-16.4298,9.19871,-5.37262
0.384035,18.4014,-3.14897,-2.06234,0.83523,-1.07492,5.38898,1.66762,0.270878,-0.472895,2.2226,-0.525599,-3.47679,1.09521,-0.877517,-9.67191,-4.38213,-9.71543,12.2233,-6.71749,15.6288,6.15344,-2.65116,6.07284,-1.963e-14,-1.63003e-14,-8.30151,21.0536,-49.7424,103.547,12.6766,-33.5552,15.0514,7.12502,-6.75015,-14.821,-1.963e-14,-1.63003e-14,-14.7155,-9.45085,44.1317,90.6219,-2.17973,-28.3505,10.5003,7.12502,-1.7244,40.473,-2.4572,21.2173,16.0051,26.0919,-21.977,-21.7551,-7.12814,-10.8051,-4.20329,-11.4166,31.3553,-16.5609,9.57086,-5.07564
0.380277,18.4086,-3.16324,-1.99589,0.300316,-1.1441,5.1271,1.62805,0.297909,-0.338221,2.17036,-0.566848,-3.18867,1.07037,-0.919229,-9.63701,-4.36076,-9.68011,12.0977,-6.68946,15.6797,6.10535,-2.63771,6.08462,9.37083e-15,6.75868e-15,-8.29598,20.8568,-49.8357,103.463,12.7294,-33.7489,14.8012,7.12502,-6.93717,-15.0652,9.37083e-15,6.75868e-15,-13.3368,-10.7616,44.1266,90.7447,-2.74807,-29.0193,11.1874,7.12502,-2.37038,41.154,-2.75165,21.2697,15.9411,26.0814,-21.7865,-21.3345,-7.19956,-10.6853,-4.09235,-11.3429,31.1916,-16.591,10.0084,-5.21828
