JuanDHNZ/ProyectoFinalCD/preprocessing/sports_trials_csv/13_33.csv
root1,root2,root3,root4,root5,root6,lowerback1,lowerback2,lowerback3,upperback1,upperback2,upperback3,thorax1,thorax2,thorax3,lowerneck1,lowerneck2,lowerneck3,upperneck1,upperneck2,upperneck3,head1,head2,head3,rclavicle1,rclavicle2,rhumerus1,rhumerus2,rhumerus3,rradius1,rwrist1,rhand1,rhand2,rfingers1,rthumb1,rthumb2,lclavicle1,lclavicle2,lhumerus1,lhumerus2,lhumerus3,lradius1,lwrist1,lhand1,lhand2,lfingers1,lthumb1,lthumb2,rfemur1,rfemur2,rfemur3,rtibia1,rfoot1,rfoot2,rtoes1,lfemur1,lfemur2,lfemur3,ltibia1,lfoot1,lfoot2,ltoes1
7.98384,18.6758,8.82232,-175.283,-79.1323,176.327,6.74126,2.02379,-3.48701,1.69328,2.27758,-3.04511,-2.04308,1.10251,-1.37415,-8.84788,-1.79962,-6.5918,15.4028,-3.27782,9.83579,6.38125,-1.29881,3.97463,-4.57205e-15,-1.74931e-14,-33.2056,-1.15077,-81.1136,38.907,3.39945,-25.4207,5.72788,7.12502,1.10525,-24.249,-4.57205e-15,-1.74931e-14,-36.107,9.97042,71.1917,22.168,-1.58588,-19.8667,30.9976,7.12502,6.46853,60.8788,-16.0505,14.0262,11.6667,37.3457,-16.296,-10.9421,-5.18457,-8.61052,-1.24345,-24.6253,25.4092,-17.4019,13.6555,-4.28799
8.00243,18.6712,8.83089,-178.7,-78.8848,179.912,6.84327,1.85583,-3.01896,1.72729,2.09515,-2.83567,-2.05525,1.01329,-1.40631,-8.86451,-1.95646,-6.78694,15.378,-3.49757,10.0361,6.40224,-1.40209,4.05421,3.22031e-14,-6.36111e-15,-33.0584,-1.21931,-81.01,39.2871,2.91004,-25.5599,5.18194,7.12502,0.970795,-24.7956,3.22031e-14,-6.36111e-15,-36.1333,9.66569,71.2746,22.2458,-1.31103,-19.5741,30.8455,7.12502,6.751,60.7179,-16.8134,14.2215,12.2665,38.0556,-15.6615,-10.6781,-5.85404,-9.17518,-0.94714,-23.8774,26.1427,-17.6883,13.6072,-4.43232
8.00942,18.6661,8.83524,-179.916,-78.7103,181.102,6.94609,1.73149,-2.98283,1.8198,1.93129,-2.7663,-2.01843,0.930423,-1.34211,-8.61269,-2.13286,-6.86606,15.0795,-3.76008,10.277,6.29331,-1.52667,4.12073,2.62396e-14,-7.95139e-16,-33.0539,-1.54557,-80.8166,39.7321,2.64814,-26.0385,4.62999,7.12502,0.50858,-25.3491,2.62396e-14,-7.95139e-16,-36.1502,9.01126,71.5149,22.4068,-0.749951,-19.0329,30.8458,7.12502,7.27339,60.7008,-17.4533,14.3344,12.4413,39.0777,-15.2725,-10.3009,-6.69434,-9.18383,-0.662947,-23.6224,26.2108,-17.6665,13.497,-4.49103
8.01398,18.6583,8.8459,-178.352,-78.3819,179.27,7.22323,1.69967,-3.4518,1.98262,1.83103,-2.88113,-2.0155,0.875099,-1.19531,-8.40002,-2.30907,-6.88464,14.7504,-4.01154,10.4462,6.17959,-1.64696,4.15444,-6.36111e-15,1.98785e-14,-33.0281,-2.01077,-80.4958,40.151,2.71023,-26.1061,4.64713,7.12502,0.443252,-25.3322,-6.36111e-15,1.98785e-14,-36.0685,8.59315,71.6586,22.4106,-0.449263,-19.0986,30.6738,7.12502,7.20999,60.5309,-17.9785,14.447,11.9031,40.1218,-14.9394,-9.63621,-6.47315,-8.95169,-0.42102,-24.0777,26.2709,-17.8292,13.5606,-4.34046
8.02631,18.6463,8.86247,-174.767,-77.9207,175.296,7.69688,1.70369,-4.28714,2.15986,1.72175,-3.14443,-2.11133,0.812035,-1.00216,-8.34156,-2.4646,-7.03282,14.5363,-4.22462,10.6678,6.12962,-1.74668,4.23159,3.57812e-14,-4.77083e-15,-32.9282,-2.38765,-80.2324,40.5771,2.79492,-26.2571,4.35835,7.12502,0.297435,-25.6212,3.57812e-14,-4.77083e-15,-35.9262,8.54879,71.6076,22.2995,-0.684648,-19.3155,30.8396,7.12502,7.0006,60.7038,-18.5621,14.4957,10.7956,41.2409,-14.4981,-8.80209,-6.08908,-8.57571,-0.189157,-25.0773,26.1445,-17.8642,13.7659,-4.31677
8.0376,18.6351,8.87864,-172.597,-77.6176,172.855,8.04543,1.58037,-4.83208,2.32783,1.47637,-3.30378,-2.13673,0.682006,-0.84597,-8.4479,-2.60342,-7.32725,14.5161,-4.41879,10.9819,6.1732,-1.83252,4.3669,-1.53064e-14,3.97569e-15,-32.7473,-2.65043,-79.9929,40.9639,2.74393,-26.3006,4.28617,7.12502,0.255435,-25.6934,-1.53064e-14,3.97569e-15,-35.8397,8.54133,71.6128,22.2721,-0.834444,-19.1997,31.0236,7.12502,7.11241,60.8841,-19.1808,14.4912,10.0243,42.3373,-14.094,-8.08265,-5.87157,-8.27669,-0.0900153,-25.7463,25.9531,-17.8119,13.9138,-4.19317
8.04591,18.6283,8.89169,-172.124,-77.4057,172.176,8.31569,1.4166,-5.11475,2.4973,1.21259,-3.32705,-2.11053,0.544168,-0.689752,-8.55671,-2.73074,-7.54241,14.4689,-4.5943,11.2301,6.20515,-1.90945,4.46841,-7.95139e-15,-3.02153e-14,-32.6067,-3.00412,-79.6665,41.3895,2.43613,-25.7535,4.80837,7.12502,0.783799,-25.1699,-7.95139e-15,-3.02153e-14,-35.732,8.40531,71.7213,22.1488,-0.816057,-19.3727,30.9612,7.12502,6.94541,60.8273,-19.7577,14.6013,9.6936,43.3891,-13.6601,-7.57463,-5.78298,-7.99468,0.0426817,-25.9831,25.7534,-17.6778,14.0474,-4.27402
8.05586,18.6225,8.90094,-171.745,-77.1292,171.665,8.55991,1.30236,-5.50487,2.59621,1.00561,-3.31755,-2.14438,0.437144,-0.444907,-8.55285,-2.85112,-7.6961,14.3493,-4.77092,11.4834,6.1943,-1.98813,4.56071,-4.37326e-15,-7.15625e-15,-32.5747,-3.12148,-79.3716,41.8493,1.98418,-25.246,5.51602,7.12502,1.27394,-24.4599,-4.37326e-15,-7.15625e-15,-35.6349,8.28228,71.7896,21.9306,-0.85029,-19.4514,30.9273,7.12502,6.86943,60.7959,-20.419,14.7995,9.38174,44.3943,-13.1459,-7.10499,-5.77454,-7.79113,0.297619,-26.1623,25.5627,-17.6252,14.0456,-4.27517
8.06656,18.6141,8.90642,-169.985,-76.7362,169.715,8.82207,1.23311,-6.28301,2.68328,0.807549,-3.44627,-2.20064,0.331717,-0.128121,-8.53071,-2.95095,-7.69388,14.2496,-4.9447,11.7157,6.18286,-2.06032,4.62012,1.0138e-14,4.45278e-14,-32.5189,-3.02567,-79.2356,42.2531,1.31522,-25.1153,5.90104,7.12502,1.40018,-24.0741,1.0138e-14,4.45278e-14,-35.5128,8.30093,71.6515,21.7027,-0.975202,-19.2322,30.8522,7.12502,7.08098,60.7137,-21.0965,14.9888,8.69558,45.3757,-12.5578,-6.58598,-5.9808,-7.58212,0.619133,-26.705,25.3751,-17.6599,13.9734,-4.09784
8.07898,18.6018,8.91541,-167.377,-76.2577,166.801,9.22261,1.22666,-7.25057,2.78419,0.648427,-3.63964,-2.31755,0.243988,0.22044,-8.50995,-3.07158,-7.69091,14.1161,-5.13362,11.8996,6.16208,-2.14299,4.66171,2.54444e-14,-5.40694e-14,-32.456,-3.19915,-78.943,42.6036,0.829677,-25.1408,5.16871,7.12502,1.3756,-24.8066,2.54444e-14,-5.40694e-14,-35.371,8.17104,71.6553,21.5481,-1.06046,-19.2635,30.9768,7.12502,7.05075,60.8394,-21.6855,15.1381,7.73279,46.3109,-12.0681,-6.02596,-6.04,-7.3018,0.813912,-27.5632,25.1964,-17.6261,14.0996,-3.96237
8.08839,18.5894,8.92655,-166.251,-76.0056,165.475,9.55818,1.13334,-7.70264,2.87623,0.434358,-3.73623,-2.39694,0.132081,0.391492,-8.50072,-3.16213,-7.84104,13.9813,-5.27468,12.1913,6.14471,-2.20293,4.76898,-1.15295e-14,4.77083e-15,-32.447,-3.50951,-78.5936,42.9916,0.680667,-25.1928,4.72521,7.12502,1.32532,-25.2504,-1.15295e-14,4.77083e-15,-35.2394,8.10207,71.6395,21.3719,-1.39079,-19.2112,30.8429,7.12502,7.1013,60.7038,-22.2024,15.2268,7.21679,47.1346,-11.7204,-5.60005,-6.08128,-7.09329,0.888075,-27.9953,25.0378,-17.5884,14.2024,-3.85228
8.09284,18.582,8.93299,-166.414,-75.81,165.542,9.7625,1.00696,-7.89506,2.96598,0.228977,-3.67986,-2.40351,0.0265251,0.579569,-8.48774,-3.23818,-8.08462,13.7564,-5.37172,12.4982,6.09725,-2.24576,4.9001,-2.24627e-14,5.08889e-14,-32.4467,-3.53708,-78.2452,43.3641,0.374639,-25.7869,4.42398,7.12502,0.751593,-25.5544,-2.24627e-14,5.08889e-14,-35.1113,8.32738,71.5539,21.1443,-1.99899,-18.9303,30.3789,7.12502,7.37246,60.2305,-22.6919,15.4391,7.06497,47.7946,-11.363,-5.16574,-5.72572,-6.96118,1.07946,-28.0359,24.9493,-17.6181,14.1747,-3.89649
8.09515,18.5785,8.93692,-166.26,-75.5757,165.274,9.97605,0.905945,-8.13648,3.02484,0.0433182,-3.69451,-2.44703,-0.0685583,0.718939,-8.54018,-3.31894,-8.1216,13.6946,-5.50044,12.6737,6.10755,-2.29886,4.95138,1.72943e-14,-3.97569e-14,-32.5067,-3.77417,-77.8969,43.667,0.308784,-26.5719,3.72813,7.12502,-0.0065852,-26.2516,1.72943e-14,-3.97569e-14,-34.9538,8.41736,71.464,20.8609,-2.48051,-19.0382,30.3428,7.12502,7.26825,60.198,-23.1068,15.7294,6.81967,48.2947,-11.0967,-4.69703,-5.81519,-6.85941,1.26988,-28.1765,24.9557,-17.6872,14.1512,-3.87902
8.0949,18.5747,8.94015,-166.24,-75.3755,165.207,10.1375,0.837772,-8.18657,3.03251,-0.0806818,-3.79509,-2.51973,-0.130801,0.656022,-8.47594,-3.42427,-8.08592,13.6215,-5.6939,12.9106,6.10115,-2.38177,5.0055,-1.33186e-14,2.22639e-14,-32.6703,-4.28501,-77.5658,43.9631,0.179422,-27.0703,2.9054,7.12502,-0.487965,-27.0738,-1.33186e-14,2.22639e-14,-34.7338,8.10859,71.3682,20.5153,-2.72023,-19.1365,30.4554,7.12502,7.17338,60.3138,-23.5336,15.9646,6.63518,48.6749,-10.971,-4.14647,-6.44363,-6.82853,1.40471,-28.2655,24.9791,-17.7203,14.2092,-3.43364
8.09443,18.5707,8.94837,-166.47,-75.2355,165.419,10.2793,0.746566,-8.10907,3.06337,-0.21685,-3.88578,-2.55727,-0.200333,0.534862,-8.56252,-3.52257,-8.12329,13.6841,-5.89256,13.25,6.16987,-2.45743,5.10589,-1.59028e-15,-3.81667e-14,-32.7863,-4.83677,-77.1842,44.2713,-0.0294384,-26.6569,2.94735,7.12502,-0.0887523,-27.0324,-1.59028e-15,-3.81667e-14,-34.4305,7.89059,71.2344,20.1315,-3.03049,-18.9219,30.0397,7.12502,7.38053,59.891,-23.947,16.0794,6.52605,48.9537,-10.7792,-3.45903,-5.95545,-6.80777,1.39531,-28.2898,24.9959,-17.7179,14.3041,-2.30046
8.09379,18.5676,8.95772,-166.278,-75.1433,165.234,10.3979,0.606151,-8.20653,3.09949,-0.427557,-3.89163,-2.56969,-0.306495,0.608737,-8.729,-3.57609,-8.36012,13.7509,-5.98989,13.5823,6.24843,-2.48936,5.2471,0,1.59028e-14,-32.8261,-5.30018,-76.6775,44.587,-0.0912991,-26.0398,3.60701,7.12502,0.50731,-26.3721,0,1.59028e-14,-34.1023,7.94428,71.2089,19.7161,-3.28569,-18.2351,29.4647,7.12502,8.04347,59.2916,-24.3468,16.1719,6.30948,49.1424,-10.6752,-2.79491,-4.51472,-6.85032,1.4631,-28.4013,25.0275,-17.628,14.2745,-1.91675
8.08993,18.5671,8.96306,-166.122,-75.0737,165.121,10.4684,0.434501,-8.32788,3.10621,-0.672785,-3.84313,-2.58192,-0.42736,0.757096,-8.749,-3.6145,-8.63871,13.6735,-6.03564,13.8395,6.24917,-2.50997,5.37506,2.98177e-14,-6.04305e-14,-32.9109,-5.53019,-76.1932,44.923,-0.33355,-25.7311,3.49184,7.12502,0.805413,-26.4864,2.98177e-14,-6.04305e-14,-33.8318,8.03506,71.2494,19.2923,-3.45857,-17.542,29.0915,7.12502,8.71231,58.8917,-24.6908,16.2583,6.13816,49.202,-10.6292,-2.28241,-5.29207,-6.94522,1.6623,-28.4554,25.0952,-17.6242,14.1311,-1.98358
8.08187,18.568,8.96786,-166.428,-75.0337,165.526,10.4314,0.25588,-8.28853,3.1084,-0.892997,-3.76595,-2.54223,-0.535887,0.842809,-8.75731,-3.6277,-8.85566,13.6262,-6.04512,14.0116,6.24857,-2.51523,5.46819,7.7526e-15,-6.36111e-15,-32.9848,-5.71484,-75.6995,45.2353,-0.739917,-26.0977,2.228,7.12502,0.4514,-27.7513,7.7526e-15,-6.36111e-15,-33.5669,8.17322,71.2502,18.8294,-3.93993,-17.5953,28.9439,7.12502,8.66091,58.7462,-25.0231,16.3711,6.12751,49.1471,-10.5843,-1.94271,-5.82665,-7.03966,1.83012,-28.3557,25.1577,-17.7395,13.9207,-1.72471
8.07133,18.5707,8.97531,-167.334,-75.0149,166.642,10.2952,-0.0136772,-8.06466,3.05386,-1.19528,-3.60065,-2.50257,-0.680271,0.926844,-8.83382,-3.55098,-9.12509,13.7788,-5.91968,14.0609,6.3028,-2.45974,5.54491,2.98177e-15,1.1609e-13,-33.0285,-5.6072,-75.2093,45.5903,-1.28464,-26.9543,1.24835,7.12502,-0.375985,-28.7311,2.98177e-15,1.1609e-13,-33.3901,9.13022,70.9293,18.2495,-5.18746,-17.9398,28.9178,7.12502,8.32847,58.7336,-25.4084,16.5572,6.27034,48.9873,-10.6229,-1.71768,-5.43743,-7.2223,1.99757,-28.0725,25.2266,-17.7792,13.7165,-1.83186
8.06172,18.5764,8.98175,-167.957,-74.9569,167.384,10.2539,-0.264932,-8.01819,2.97615,-1.50406,-3.40187,-2.53342,-0.825242,1.14497,-8.71256,-3.47172,-9.4506,13.8204,-5.77387,14.067,6.2843,-2.4092,5.61886,-5.00937e-14,1.27222e-14,-33.1994,-5.55512,-74.5745,45.9575,-1.54178,-27.51,1.20643,7.12502,-0.912698,-28.7714,-5.00937e-14,1.27222e-14,-33.3351,10.0894,70.6638,17.8219,-6.30601,-17.7928,29.1183,7.12502,8.47029,58.9284,-25.703,16.6704,6.33382,48.7582,-10.5843,-1.51322,-5.99439,-7.33502,2.1095,-27.8996,25.3003,-17.8798,13.6318,-1.94135
8.05537,18.5786,8.98534,-168.165,-74.8732,167.623,10.3193,-0.337735,-7.92496,2.94991,-1.60122,-3.43469,-2.59337,-0.870963,1.07213,-8.49746,-3.54392,-9.32722,13.662,-5.89299,14.066,6.20852,-2.47275,5.58525,-5.18828e-14,-1.59028e-14,-33.558,-6.34741,-73.9539,46.3173,-1.57977,-27.7776,1.46507,7.12502,-1.17114,-28.5115,-5.18828e-14,-1.59028e-14,-32.9397,10.0841,70.5459,17.4136,-6.74663,-17.8056,29.4281,7.12502,8.45795,59.2387,-25.9041,16.7183,6.31512,48.469,-10.5755,-1.46405,-6.88662,-7.37135,2.15117,-27.8693,25.3681,-17.9909,13.6677,-1.96722
8.0498,18.5756,8.98889,-168.4,-74.7808,167.863,10.459,-0.355886,-7.75131,2.96235,-1.62912,-3.52464,-2.66365,-0.884858,0.888101,-8.55068,-3.68456,-9.13341,13.6363,-6.12269,14.1114,6.23539,-2.57139,5.54447,3.43897e-14,2.8625e-14,-33.8126,-7.42549,-73.3559,46.4984,-1.56566,-27.1546,1.79745,7.12502,-0.569447,-28.1815,3.43897e-14,2.8625e-14,-32.3327,10.4487,70.1814,16.8001,-7.49174,-18.3643,29.5092,7.12502,7.91875,59.3409,-26.0961,16.7116,6.36479,48.1442,-10.596,-1.66423,-6.62752,-7.35044,2.06445,-27.8567,25.3784,-18.0667,13.8639,-2.00939
8.04273,18.5703,8.99524,-168.302,-74.6146,167.665,10.6867,-0.369425,-7.77414,2.98328,-1.68023,-3.57182,-2.7648,-0.909626,0.861911,-8.61473,-3.80383,-9.15248,13.5977,-6.30387,14.2551,6.26321,-2.65006,5.57746,2.98177e-15,-1.59028e-15,-33.9042,-8.13799,-72.7397,46.5513,-1.87633,-26.9838,2.05553,7.12502,-0.404461,-27.9238,2.98177e-15,-1.59028e-15,-31.808,11.5911,69.5841,16.1336,-8.89974,-18.374,29.541,7.12502,7.90938,59.373,-26.2105,16.5934,6.33697,47.7809,-10.5347,-1.89944,-7.81034,-7.21857,1.95754,-27.9924,25.3822,-18.2068,14.0371,-2.08501
8.03755,18.5657,8.99554,-167.869,-74.3552,166.996,10.9422,-0.364005,-8.12208,3.09082,-1.74373,-3.59017,-2.77807,-0.946904,1.04715,-8.78137,-3.88317,-9.25818,13.5765,-6.40757,14.3936,6.30763,-2.69028,5.63007,-2.20651e-14,6.36111e-15,-33.8476,-8.57159,-72.1357,46.6747,-2.35862,-27.4642,1.93498,7.12502,-0.868404,-28.043,-2.20651e-14,6.36111e-15,-31.2521,12.2533,69.3507,15.6457,-9.51592,-18.3939,29.3552,7.12502,7.8902,59.1879,-26.1596,16.7046,6.13497,47.4385,-10.6287,-2.1606,-9.33966,-6.95411,1.86432,-28.2662,25.3766,-18.3889,14.2517,-2.01223
8.03145,18.5664,8.98657,-168.037,-74.1345,167.045,10.9886,-0.406505,-8.3791,3.24105,-1.82805,-3.54264,-2.62911,-1.00007,1.24864,-8.93109,-3.93547,-9.24931,13.4411,-6.44196,14.3513,6.29527,-2.70342,5.60711,-3.45885e-14,-6.36111e-15,-33.6781,-9.18552,-71.4975,46.7914,-2.51954,-28.0999,2.01502,7.12502,-1.48244,-27.9596,-3.45885e-14,-6.36111e-15,-30.6795,12.7638,69.2088,15.3355,-9.60104,-18.4526,29.7064,7.12502,7.83348,59.5413,-26.1635,17.0553,6.08085,47.1025,-10.7839,-2.56556,-8.92736,-6.78829,1.92191,-28.2826,25.3316,-18.4395,14.3744,-1.92991
8.02129,18.5676,8.98169,-167.952,-73.9671,166.952,10.9587,-0.426427,-8.52453,3.31253,-1.86619,-3.54651,-2.52955,-1.02609,1.3281,-9.03924,-4.03335,-9.14738,13.3797,-6.55611,14.2382,6.30335,-2.75627,5.53837,-3.89618e-14,2.38542e-14,-33.6997,-9.89289,-70.8265,46.9434,-2.76876,-29.1873,2.22985,7.12502,-2.53261,-27.7349,-3.89618e-14,2.38542e-14,-30.0998,13.4923,68.9729,14.9054,-10.2838,-18.6129,29.7565,7.12502,7.67883,59.597,-26.2705,17.2927,5.92104,46.7679,-10.9412,-2.88725,-7.52252,-6.71591,2.04871,-28.3396,25.2378,-18.3401,14.4476,-2.4961
8.01072,18.566,8.9833,-168.131,-73.8647,167.095,11.0507,-0.449999,-8.46112,3.35816,-1.9036,-3.58596,-2.53296,-1.04736,1.25801,-9.07892,-4.11991,-8.94821,13.2919,-6.68147,14.1649,6.29037,-2.81188,5.46542,-6.75868e-14,-4.29375e-14,-33.8344,-10.6612,-70.2141,47.2168,-3.28503,-28.7495,2.92757,7.12502,-2.10976,-27.0417,-6.75868e-14,-4.29375e-14,-29.5601,14.073,68.6908,14.5225,-11.0191,-18.7342,29.6284,7.12502,7.56167,59.4733,-26.2776,17.4336,5.83096,46.3754,-11.144,-3.07023,-5.48584,-6.55887,2.061,-28.3451,25.1021,-18.1873,14.612,-3.19823
7.99945,18.5698,8.98579,-168.573,-73.7431,167.559,11.1507,-0.505702,-8.31742,3.35373,-1.97426,-3.59974,-2.59278,-1.08027,1.17546,-9.05497,-4.17739,-8.68097,13.1622,-6.76278,14.0159,6.24218,-2.85104,5.36019,-3.04141e-14,2.06736e-14,-33.8673,-11.3594,-69.6252,47.3943,-3.96586,-26.6478,4.50622,7.12502,-0.0799465,-25.4735,-3.04141e-14,2.06736e-14,-29.1441,14.5866,68.3621,14.2262,-11.5421,-18.9023,29.603,7.12502,7.39948,59.4536,-26.4183,17.5544,5.83015,45.875,-11.1946,-3.30075,-3.24647,-6.45312,2.08402,-28.2694,24.9324,-17.9413,14.8725,-4.01184
7.98775,18.5809,8.98674,-168.541,-73.5218,167.57,11.1905,-0.501748,-8.27904,3.36128,-1.97768,-3.69493,-2.61175,-1.08357,1.05621,-9.17822,-4.25829,-8.43929,13.1148,-6.90222,14.0176,6.25893,-2.90399,5.30318,-1.39149e-15,-1.11319e-14,-33.8374,-12.0636,-69.101,47.485,-4.57926,-25.6995,5.0415,7.12502,0.83599,-24.9366,-1.39149e-15,-1.11319e-14,-28.5835,14.3829,68.3312,14.0697,-11.4059,-18.9574,30.0323,7.12502,7.34624,59.8847,-26.7395,17.6371,5.70989,45.2915,-10.9224,-3.71637,-2.5691,-6.35597,2.18453,-28.3306,24.6987,-17.8657,15.0058,-3.70455
7.97528,18.589,8.98815,-168.828,-73.3664,167.861,11.2377,-0.503137,-8.17758,3.40736,-1.97372,-3.7113,-2.59406,-1.08451,0.983033,-9.2761,-4.35145,-8.34233,13.0227,-7.03844,14.0672,6.2632,-2.96032,5.28696,-3.47873e-14,-6.36111e-14,-33.8139,-12.6968,-68.503,47.69,-5.12448,-27.4073,2.32794,7.12502,-0.813437,-27.6503,-3.47873e-14,-6.36111e-14,-27.9752,14.379,68.4154,13.9203,-11.4249,-19.0245,30.4293,7.12502,7.28154,60.284,-26.8615,17.5967,5.77729,44.6407,-10.7151,-4.37652,-2.93622,-6.17648,2.38047,-28.2776,24.4277,-17.7946,14.9953,-3.8242
7.9627,18.5903,8.98537,-168.579,-73.2543,167.502,11.3341,-0.531281,-8.34353,3.50875,-2.04007,-3.70748,-2.52913,-1.12498,1.08795,-9.44237,-4.44683,-8.35908,12.9176,-7.14742,14.0997,6.2754,-3.00601,5.28606,6.95746e-14,-1.27222e-14,-33.7382,-13.329,-67.8177,47.9804,-5.47199,-27.6898,2.11152,7.12502,-1.08632,-27.8655,6.95746e-14,-1.27222e-14,-27.4534,15.5404,68.1923,13.6711,-12.6383,-19.2571,30.8411,7.12502,7.05701,60.7034,-26.7647,17.6205,5.65635,43.9456,-10.6419,-5.02788,-2.1776,-5.89709,2.45999,-28.4081,24.1692,-17.7701,15.0237,-4.17174
7.94883,18.5919,8.98013,-168.153,-73.1476,166.963,11.4108,-0.573631,-8.66246,3.61318,-2.13838,-3.66726,-2.43935,-1.18264,1.31873,-9.58064,-4.50958,-8.30788,12.7913,-7.18898,13.9639,6.25883,-3.02686,5.22453,2.50469e-14,5.40694e-14,-33.6642,-13.8548,-67.106,48.3078,-5.69037,-27.6344,1.80378,7.12502,-1.03285,-28.1735,2.50469e-14,5.40694e-14,-27.1697,19.1334,66.8036,13.1344,-17.3691,-17.7439,30.1396,7.12502,8.51744,59.9478,-26.6538,17.5624,5.49215,43.2239,-10.5005,-5.68624,-1.82475,-5.64602,2.51247,-28.5913,23.956,-17.7096,15.0286,-4.12339
7.93302,18.5964,8.97699,-169.048,-73.0131,167.793,11.524,-0.644214,-8.51214,3.67432,-2.22066,-3.59474,-2.43336,-1.22503,1.32387,-9.63884,-4.55628,-8.25709,12.6895,-7.24457,13.9606,6.24241,-3.05119,5.20702,-3.29983e-14,-4.29375e-14,-33.5498,-14.2029,-66.5529,48.5588,-6.18487,-27.8099,1.00042,7.12502,-1.20232,-28.9759,-3.29983e-14,-4.29375e-14,-26.7818,20.7519,66.2024,12.8071,-18.7512,-17.4907,29.5283,7.12502,8.76184,59.3264,-26.5489,17.4844,5.78396,42.4703,-10.3453,-6.22257,-2.35179,-5.36618,2.6198,-28.3659,23.7234,-17.5763,15.0518,-3.08213
7.9184,18.602,8.97641,-169.528,-72.8447,168.29,11.6134,-0.763123,-8.41498,3.63698,-2.37351,-3.53423,-2.51043,-1.29525,1.35605,-9.61165,-4.56548,-8.63108,12.6569,-7.26782,14.3582,6.25903,-3.05853,5.40053,-9.93923e-15,-3.97569e-14,-33.4537,-14.2798,-66.0367,48.8225,-6.70175,-27.5616,-0.270194,7.12502,-0.962517,-30.2478,-9.93923e-15,-3.97569e-14,-26.3285,20.1673,66.5977,12.8085,-17.0355,-17.6488,29.0067,7.12502,8.60925,58.8112,-26.565,17.4735,5.89304,41.6838,-10.2271,-6.56417,-2.56672,-5.20555,2.69978,-28.2482,23.5149,-17.522,15.0318,-2.04285
7.90209,18.6071,8.97627,-169.261,-72.6685,168.041,11.6387,-0.942998,-8.59783,3.56077,-2.62952,-3.41891,-2.56833,-1.41539,1.61218,-9.57519,-4.48299,-9.19105,12.7069,-7.1104,14.5894,6.2762,-2.99376,5.59102,9.14409e-15,1.90833e-14,-33.214,-14.0739,-65.4708,49.0464,-7.25795,-27.5844,0.536963,7.12502,-0.984552,-29.4405,9.14409e-15,1.90833e-14,-26.0488,19.1982,67.3535,13.0209,-14.3844,-17.6929,28.7362,7.12502,8.56672,58.5425,-26.6037,17.3992,5.75748,40.8903,-9.9313,-6.92301,-2.43993,-5.07159,2.81598,-28.3718,23.2845,-17.4928,14.9832,-1.72026
7.88627,18.6111,8.97749,-169.612,-72.5019,168.431,11.6606,-1.08804,-8.55751,3.52619,-2.8076,-3.26588,-2.59455,-1.49856,1.77366,-9.57235,-4.45696,-9.4119,12.6846,-7.01155,14.4811,6.25922,-2.96094,5.60262,6.36111e-15,2.8625e-14,-32.8953,-13.9686,-64.8959,49.2352,-7.8986,-29.2023,1.60484,7.12502,-2.54712,-28.3597,6.36111e-15,2.8625e-14,-25.7504,18.6534,67.8924,13.2561,-12.8466,-17.668,28.7267,7.12502,8.59073,58.5319,-26.6405,17.3409,5.85517,40.113,-9.46488,-7.51397,-2.10104,-4.87391,2.89219,-28.3074,22.9584,-17.5493,15.0749,-1.31971
7.87026,18.6166,8.97754,-169.48,-72.2638,168.362,11.6221,-1.12579,-8.64756,3.51693,-2.85746,-3.17563,-2.56884,-1.52288,1.92254,-9.56014,-4.48668,-9.43937,12.5895,-7.00349,14.315,6.22115,-2.96844,5.5516,-1.80894e-14,-1.11319e-14,-32.615,-14.1169,-64.2441,49.4343,-8.52223,-30.4168,2.08187,7.12502,-3.71994,-27.8654,-1.80894e-14,-1.11319e-14,-25.3345,17.6613,68.5176,13.5925,-11.6625,-17.6139,29.1199,7.12502,8.6429,58.923,-26.7684,17.4242,5.73436,39.3497,-9.13871,-8.08057,-1.09333,-4.70074,2.90765,-28.4229,22.5823,-17.5573,15.2776,-1.09352
7.85349,18.6254,8.97079,-168.955,-72.0153,167.837,11.6295,-1.14327,-8.86945,3.5171,-2.912,-3.20569,-2.55752,-1.55186,2.02063,-9.49707,-4.46813,-9.36304,12.394,-6.9631,14.281,6.14029,-2.95285,5.52934,-2.98177e-15,1.59028e-15,-32.4267,-14.4612,-63.7718,49.6942,-8.90479,-30.5588,2.19632,7.12502,-3.85713,-27.7485,-2.98177e-15,1.59028e-15,-24.7908,16.2377,69.1777,13.8927,-9.73405,-18.3941,29.6752,7.12502,7.89001,59.508,-26.8243,17.5093,5.50667,38.5542,-8.93026,-8.42771,-0.726602,-4.47809,2.81952,-28.6623,22.2154,-17.6107,15.4637,-0.66231
7.83463,18.6342,8.9627,-169.17,-71.8027,168.042,11.6634,-1.21327,-8.84131,3.51194,-3.00714,-3.22088,-2.57477,-1.59846,2.0026,-9.43105,-4.415,-9.28554,12.2607,-6.89902,14.3223,6.07806,-2.92172,5.53509,5.76476e-15,-7.95139e-16,-32.2588,-14.7968,-63.4402,50.0259,-9.16825,-30.6315,1.78293,7.12502,-3.92731,-28.1606,5.76476e-15,-7.95139e-16,-24.3702,16.1187,69.3791,14.0473,-8.9933,-19.2008,29.7337,7.12502,7.11132,59.5942,-26.7594,17.5458,5.60999,37.7337,-8.74515,-8.80474,-1.01605,-4.17985,2.6,-28.662,21.848,-17.6883,15.7786,-0.0782405
7.81535,18.6412,8.95603,-169.588,-71.5809,168.45,11.7138,-1.29408,-8.79568,3.51796,-3.1121,-3.1847,-2.58637,-1.6499,2.03023,-9.52504,-4.39372,-9.19927,12.3001,-6.87696,14.2856,6.09985,-2.90557,5.50939,-1.35969e-13,-6.91771e-14,-32.0512,-15.121,-63.0709,50.4223,-9.38064,-30.587,1.73347,7.12502,-3.88432,-28.2109,-1.35969e-13,-6.91771e-14,-23.8937,16.7342,69.4463,14.0513,-9.50539,-18.9555,29.4049,7.12502,7.34814,59.2573,-26.7112,17.5782,5.76679,36.8925,-8.42384,-9.15146,-0.96172,-3.88495,2.41222,-28.5965,21.5171,-17.8246,16.0555,0.309775
7.79976,18.6446,8.95001,-169.653,-71.3506,168.609,11.6609,-1.33006,-8.81159,3.5324,-3.15286,-3.1578,-2.53563,-1.67246,2.06952,-9.72602,-4.40843,-9.11127,12.373,-6.89481,14.219,6.155,-2.90476,5.46862,-1.55052e-14,-2.46493e-14,-31.8423,-15.4974,-62.6311,50.9224,-9.77378,-30.2562,1.53122,7.12502,-3.56489,-28.4187,-1.55052e-14,-2.46493e-14,-23.3829,16.0131,69.8226,14.3703,-8.89148,-18.4812,29.4645,7.12502,7.80596,59.3004,-26.818,17.6598,5.752,36.0421,-8.15485,-9.31918,-0.48525,-3.78406,2.40937,-28.6223,21.2415,-17.7748,16.3518,-0.09448
7.78605,18.6488,8.94546,-169.498,-71.1355,168.576,11.6838,-1.35918,-8.806,3.46864,-3.19562,-3.15491,-2.61132,-1.68784,2.07743,-9.74741,-4.40141,-9.15921,12.3292,-6.8803,14.2763,6.14712,-2.89637,5.49645,5.28767e-14,-3.26007e-14,-31.4716,-15.6301,-62.1591,51.1611,-10.4253,-30.115,1.53825,7.12502,-3.42853,-28.4139,5.28767e-14,-3.26007e-14,-23.384,12.2375,70.7891,15.5656,-4.9817,-19.1446,30.5951,7.12502,7.16557,60.4538,-26.9507,17.7217,5.66868,35.2252,-7.90067,-9.45892,-0.443015,-3.71295,2.50954,-28.7,20.9166,-17.5987,16.5962,-0.845395
7.76624,18.6547,8.9376,-169.46,-70.8656,168.607,11.695,-1.36824,-8.85521,3.42138,-3.21105,-3.07663,-2.65796,-1.69074,2.18988,-9.72684,-4.45266,-9.40535,12.2734,-6.9241,14.3923,6.14434,-2.92263,5.57255,4.77083e-14,2.62396e-14,-30.8737,-15.6945,-61.6413,51.1649,-10.7152,-30.3665,1.47065,7.12502,-3.67142,-28.4775,4.77083e-14,2.62396e-14,-22.5947,14.9302,70.4736,14.8943,-8.54855,-18.9686,30.654,7.12502,7.33545,60.5069,-27.0073,17.8944,5.63717,34.4502,-7.65559,-9.80255,-0.286646,-3.54505,2.77677,-28.7293,20.5767,-17.4818,16.5945,-0.951946
7.74452,18.6637,8.92691,-169.312,-70.6085,168.469,11.6717,-1.37835,-8.95938,3.47067,-3.22912,-3.01646,-2.58158,-1.70482,2.30994,-9.87209,-4.52625,-9.51752,12.1694,-6.97831,14.3878,6.14861,-2.94794,5.58157,-6.75868e-15,-1.35174e-14,-30.3655,-15.9582,-61.228,51.363,-10.6147,-30.6521,1.12722,7.12502,-3.94715,-28.816,-6.75868e-15,-1.35174e-14,-22.1764,13.7216,71.0972,15.4139,-6.96759,-18.2524,29.8472,7.12502,8.02674,59.6748,-27.0211,18.2167,5.54118,33.7076,-7.48507,-10.1774,-0.361004,-3.29412,3.02696,-28.8014,20.1991,-17.4437,16.5205,-0.736407
7.72643,18.6707,8.91477,-169.429,-70.4304,168.642,11.6931,-1.44812,-8.93606,3.48746,-3.31744,-2.97055,-2.56498,-1.7495,2.35635,-9.9633,-4.51616,-9.54776,12.0373,-6.92915,14.3677,6.11782,-2.92381,5.582,5.18828e-14,-1.59028e-14,-30.0986,-16.1733,-60.9535,51.8039,-10.5648,-30.8652,0.988408,7.12502,-4.15296,-28.9509,5.18828e-14,-1.59028e-14,-21.8738,11.8506,71.7638,16.0941,-4.71247,-18.3658,29.7008,7.12502,7.91733,59.5326,-27.0437,18.5788,5.55804,32.9778,-7.41466,-10.5953,-0.0977618,-3.0776,2.99348,-28.775,19.81,-17.396,16.7414,-0.918092
7.70645,18.6786,8.89799,-169.636,-70.2288,168.892,11.7691,-1.52088,-8.92614,3.43573,-3.42299,-2.96092,-2.65027,-1.79597,2.37895,-9.79124,-4.46416,-9.5161,11.8247,-6.85493,14.3982,6.01213,-2.89567,5.59351,-9.20373e-14,-5.80451e-14,-29.9818,-16.3319,-60.783,52.3258,-10.6495,-30.8759,1.15073,7.12502,-4.16331,-28.7883,-9.20373e-14,-5.80451e-14,-21.6259,10.8634,72.0595,16.5813,-3.80171,-18.7501,29.9604,7.12502,7.5464,59.8058,-27.0651,18.8534,5.65882,32.2737,-7.21364,-11.0564,0.7339,-2.8288,3.01179,-28.7048,19.4246,-17.239,16.9475,-1.58833
7.68487,18.6872,8.88096,-169.955,-69.9997,169.384,11.6205,-1.58484,-8.84615,3.42667,-3.47543,-2.91374,-2.57462,-1.8233,2.38376,-9.87416,-4.45161,-9.40612,11.8173,-6.84248,14.3572,6.01773,-2.88452,5.56096,-1.92821e-14,-7.95139e-16,-29.699,-16.5608,-60.6154,52.7724,-10.5972,-31.0603,1.13569,7.12502,-4.34133,-28.7998,-1.92821e-14,-7.95139e-16,-21.2505,10.3444,72.3108,17.0057,-3.19316,-18.9489,29.8836,7.12502,7.35452,59.7357,-27.2044,19.1732,5.79194,31.5787,-7.03258,-11.6581,2.07724,-2.73438,2.96043,-28.5635,19.1206,-17.3468,17.2164,-2.15137
7.66467,18.6939,8.86499,-170.114,-69.8084,169.675,11.5542,-1.62434,-8.85199,3.4227,-3.51534,-2.84861,-2.53341,-1.84357,2.45659,-9.97189,-4.43564,-9.43234,11.8023,-6.81626,14.4114,6.02991,-2.86608,5.58456,2.5842e-14,8.74653e-15,-29.5971,-16.88,-60.4173,53.4427,-10.5141,-31.5752,1.43153,7.12502,-4.83851,-28.4932,2.5842e-14,8.74653e-15,-20.8074,9.41924,72.727,17.4185,-2.08111,-19.0362,29.5741,7.12502,7.27017,59.4292,-27.3129,19.394,5.89029,30.9384,-6.78247,-12.3706,2.85044,-2.62838,2.7993,-28.5103,18.8326,-17.4294,17.6516,-2.82915
7.6435,18.699,8.84749,-170.382,-69.6697,170.046,11.5528,-1.63084,-8.82679,3.40453,-3.51817,-2.80622,-2.5502,-1.84288,2.48774,-9.89681,-4.48814,-9.37474,11.6157,-6.88376,14.4301,5.96664,-2.90164,5.57272,2.70347e-14,1.27222e-14,-29.8083,-17.2757,-60.2412,54.3605,-10.3552,-32.0466,1.70708,7.12502,-5.29376,-28.2068,2.70347e-14,1.27222e-14,-20.3548,7.99372,73.1846,17.8773,-0.843554,-19.672,30.0664,7.12502,6.65648,59.9418,-27.3701,19.4443,6.12157,30.3409,-6.45331,-13.2225,3.20539,-2.4874,2.7426,-28.3919,18.565,-17.3867,17.9794,-3.60277
7.62442,18.7029,8.83048,-169.971,-69.4934,169.704,11.5459,-1.63866,-8.93001,3.40952,-3.54619,-2.87758,-2.53657,-1.859,2.47306,-9.85022,-4.5423,-9.17121,11.3739,-6.94837,14.3366,5.88188,-2.93587,5.49812,4.35338e-14,-4.05521e-14,-29.7342,-17.6052,-60.1031,55.0277,-10.3248,-32.1497,1.87577,7.12502,-5.39322,-28.0356,4.35338e-14,-4.05521e-14,-19.8561,6.84197,73.5046,18.2807,-0.139117,-19.7746,30.3976,7.12502,6.55741,60.2761,-27.4308,19.3473,6.14298,29.7906,-6.08542,-14.1196,3.38344,-2.39474,2.75648,-28.5292,18.3405,-17.4653,18.129,-3.19502
7.60238,18.7081,8.8141,-169.744,-69.3638,169.509,11.5893,-1.68479,-8.9194,3.41782,-3.61611,-2.93722,-2.54927,-1.89455,2.41536,-9.84804,-4.53821,-9.04968,11.1933,-6.94422,14.3579,5.82221,-2.93154,5.4826,6.30147e-14,3.18055e-14,-29.4059,-17.8015,-59.9608,55.4562,-10.3931,-32.1434,1.70499,7.12502,-5.38718,-28.2065,6.30147e-14,3.18055e-14,-19.4399,5.64709,73.845,18.762,0.750894,-19.8901,30.4956,7.12502,6.44593,60.3775,-27.3563,19.3277,6.21719,29.213,-5.8866,-15.2618,4.56159,-2.31821,2.8951,-28.5944,18.28,-17.5757,18.1476,-2.90872
7.58166,18.7149,8.80464,-169.881,-69.3257,169.893,11.5915,-1.84638,-8.70052,3.30598,-3.80393,-2.92171,-2.66237,-1.97652,2.3374,-9.7947,-4.47193,-8.81866,11.0976,-6.87065,14.2748,5.76338,-2.89638,5.42241,2.46493e-14,-1.03368e-14,-29.1528,-17.9964,-59.9547,56.0025,-10.3391,-32.1558,1.49122,7.12502,-5.39921,-28.42,2.46493e-14,-1.03368e-14,-19.1894,4.8999,74.0265,19.2655,1.49813,-19.8931,30.5927,7.12502,6.44299,60.4747,-27.4759,19.0938,6.50425,28.677,-5.76736,-16.511,5.75981,-2.4754,3.04502,-28.44,18.2808,-17.5269,18.0314,-3.17157
7.56449,18.7216,8.79733,-170.851,-69.2833,171.421,11.4458,-2.06856,-8.09951,3.10553,-4.00368,-2.84228,-2.80935,-2.05766,2.11229,-9.6408,-4.36148,-8.25651,10.9104,-6.74957,13.9743,5.63453,-2.84366,5.23943,-4.73108e-14,2.3059e-14,-29.0721,-18.2978,-60.1402,56.7597,-9.98923,-32.2594,1.5723,7.12502,-5.49923,-28.3363,-4.73108e-14,2.3059e-14,-19.2269,3.49831,74.0579,20.0351,2.78032,-19.6857,30.524,7.12502,6.64319,60.3998,-27.9123,18.7583,7.21396,28.2051,-5.60579,-17.8561,6.84031,-2.89752,3.03292,-27.8723,18.2706,-17.5772,18.0106,-3.35809
7.54472,18.7253,8.77381,-171.269,-69.1705,172.177,11.315,-2.17408,-7.91932,2.98024,-4.09683,-2.68728,-2.86117,-2.09355,2.18234,-9.34557,-4.34852,-8.26436,10.5689,-6.70221,13.9547,5.4722,-2.84006,5.23972,7.41467e-14,-7.15625e-15,-29.0483,-18.4785,-59.9962,57.5876,-9.66888,-32.1686,1.64765,7.12502,-5.41152,-28.2632,7.41467e-14,-7.15625e-15,-19.1728,2.28055,74.3947,20.6929,3.78847,-20.1925,30.7405,7.12502,6.15401,60.6311,-28.1703,18.6354,7.70537,27.8384,-5.44743,-19.4257,7.5947,-3.10891,2.9793,-27.5866,18.2353,-17.6087,18.2887,-3.6088
7.51804,18.7242,8.74563,-170.904,-69.0719,171.836,11.2737,-2.21922,-8.12235,2.9587,-4.16286,-2.49926,-2.8251,-2.12392,2.49567,-9.16107,-4.38524,-8.8211,10.3086,-6.65711,14.0648,5.37687,-2.84161,5.37508,-3.02153e-14,-4.85035e-14,-28.8701,-18.3439,-59.536,58.3249,-9.56678,-32.3146,1.86443,7.12502,-5.55244,-28.0428,-3.02153e-14,-4.85035e-14,-18.4751,2.36495,75.0522,20.5704,3.42913,-20.4793,30.8169,7.12502,5.87703,60.7154,-28.1014,18.3666,7.93741,27.5809,-5.33258,-20.7131,7.84194,-3.01048,2.91186,-27.7161,18.1649,-17.5198,18.6355,-3.64613
7.49063,18.725,8.72469,-170.549,-68.9794,171.529,11.2823,-2.33211,-8.30387,2.90665,-4.3231,-2.32218,-2.84011,-2.19784,2.80083,-9.04469,-4.33855,-9.30878,10.1362,-6.49972,14.0688,5.30017,-2.78631,5.47405,2.50469e-14,1.03368e-14,-28.5251,-18.0752,-59.1996,58.9879,-9.42475,-32.3421,2.05428,7.12502,-5.57899,-27.8523,2.50469e-14,1.03368e-14,-17.9247,2.38516,75.6282,20.5327,2.95228,-20.6862,30.9131,7.12502,5.67729,60.8171,-28.0947,17.9237,8.19979,27.4244,-5.42552,-21.7965,8.24676,-2.87509,2.78428,-27.8432,17.9892,-17.6101,18.8126,-3.26288
7.46522,18.7278,8.70151,-170.311,-68.8622,171.412,11.2515,-2.4176,-8.42191,2.87412,-4.44115,-2.23442,-2.82815,-2.25397,2.96997,-9.04116,-4.3843,-9.54608,9.98336,-6.51962,14.1553,5.26617,-2.80144,5.5397,-7.33515e-14,-1.59028e-14,-28.2118,-18.0148,-59.0418,59.6729,-9.11954,-32.3803,2.0965,7.12502,-5.61596,-27.8091,-7.33515e-14,-1.59028e-14,-17.5485,1.43862,76.0424,20.8578,3.09288,-21.0622,31.5779,7.12502,5.31432,61.4913,-28.1752,17.6037,8.48351,27.2837,-5.71049,-23.0245,9.30973,-2.78823,2.80411,-27.865,17.7605,-17.6082,18.8337,-3.11682
7.43602,18.7268,8.67515,-170.318,-68.8019,171.591,11.1153,-2.38877,-8.29179,2.94792,-4.36888,-2.21573,-2.69194,-2.22675,2.89817,-9.27823,-4.68007,-9.68171,9.85142,-6.90402,14.3712,5.32888,-2.97513,5.5936,6.06293e-14,-3.81667e-14,-28.1253,-18.4905,-58.8411,60.5007,-8.85139,-32.3033,2.00273,7.12502,-5.5416,-27.9048,6.06293e-14,-3.81667e-14,-16.7528,0.528739,76.4256,21.096,3.51669,-21.3982,32.1627,7.12502,4.98988,62.0839,-28.2322,17.1921,8.91134,27.0953,-5.94594,-24.114,10.9811,-2.75424,3.09516,-27.7298,17.5807,-17.4197,18.6692,-3.96064
7.40589,18.7256,8.65164,-170.236,-68.827,171.593,11.1231,-2.43295,-8.19479,3.03066,-4.4191,-2.27603,-2.61658,-2.2591,2.78514,-9.63707,-4.83521,-9.35848,9.84379,-7.12927,14.2969,5.40385,-3.06386,5.48731,8.94531e-15,7.95139e-16,-27.9917,-18.9447,-58.8952,61.2869,-8.57886,-32.166,1.929,7.12502,-5.40899,-27.982,8.94531e-15,7.95139e-16,-16.0715,-0.359601,76.5787,21.4544,4.39463,-21.2996,32.1283,7.12502,5.0851,62.0473,-28.1728,16.7196,9.30257,26.8637,-5.82017,-25.1727,11.6252,-2.63416,3.03034,-27.6717,17.4563,-17.582,18.561,-3.80884
7.37551,18.7258,8.62994,-170.095,-68.8569,171.53,11.1829,-2.57521,-8.14835,3.03275,-4.61089,-2.31592,-2.63446,-2.3539,2.74358,-9.9323,-4.79562,-8.87102,9.97779,-7.09687,13.9653,5.46198,-3.03453,5.29569,9.91935e-14,-7.95139e-15,-27.7237,-19.0631,-59.0588,61.9951,-8.35261,-32.2871,1.92316,7.12502,-5.52595,-27.9848,9.91935e-14,-7.95139e-15,-15.6798,-1.33638,76.713,21.8854,5.41667,-21.7105,32.4649,7.12502,4.68833,62.3931,-28.0849,16.2922,9.66162,26.6358,-5.623,-26.2022,11.687,-2.51544,2.68112,-27.6702,17.3555,-17.9577,18.6686,-3.0082
7.34219,18.7262,8.60324,-170.31,-68.7835,171.879,11.1664,-2.65148,-8.02206,2.97785,-4.68474,-2.15698,-2.67161,-2.38457,2.84862,-9.95334,-4.8066,-9.01835,9.95114,-7.06489,13.8693,5.45478,-3.02699,5.29201,-2.66371e-14,-3.33958e-14,-27.5581,-19.0722,-58.8493,62.8347,-8.23259,-32.3966,1.77604,7.12502,-5.6317,-28.1291,-2.66371e-14,-3.33958e-14,-15.2955,-1.72584,77.0841,22.1304,5.56461,-21.9717,33.4995,7.12502,4.43609,63.433,-28.0369,16.0192,10.1603,26.4308,-5.70533,-27.16,12.8967,-2.43462,2.53213,-27.51,17.2765,-18.1176,18.8252,-2.95375
7.30818,18.7226,8.57413,-170.095,-68.6908,171.762,11.1337,-2.7091,-8.06473,2.9302,-4.75534,-2.0409,-2.68216,-2.41563,3.00022,-9.925,-4.84978,-9.18153,9.86315,-7.07491,13.7979,5.42693,-3.0422,5.2953,-5.86415e-14,-4.13472e-14,-27.407,-19.0914,-58.6145,63.66,-8.01813,-32.6417,1.84294,7.12502,-5.86829,-28.0558,-5.86415e-14,-4.13472e-14,-14.8699,-1.95027,77.3721,22.3414,5.25297,-21.1525,33.3429,7.12502,5.22713,63.2584,-27.9609,15.6999,10.4911,26.2763,-5.79427,-27.8902,14.362,-2.35707,2.44962,-27.5315,17.2101,-18.1442,18.9578,-3.44476
7.27107,18.7166,8.54602,-170.066,-68.6728,171.839,11.0772,-2.78309,-7.8998,2.93097,-4.82609,-2.02129,-2.65489,-2.45146,2.93389,-10.0837,-4.86906,-9.14731,9.90014,-7.09909,13.7935,5.46738,-3.04618,5.28347,-1.05952e-13,2.3059e-14,-27.2035,-19.3554,-58.5173,64.333,-7.75115,-32.7923,2.09606,7.12502,-6.01374,-27.7986,-1.05952e-13,2.3059e-14,-14.4105,-2.78352,77.6309,22.7613,5.91758,-20.8031,32.7935,7.12502,5.56449,62.7004,-27.8025,15.4338,10.9109,26.1542,-6.03935,-28.468,15.3641,-2.24807,2.33543,-27.4557,17.1162,-18.2824,18.9746,-3.41621
7.23283,18.7159,8.51771,-170.083,-68.605,171.9,11.0917,-2.81173,-7.75947,2.9274,-4.84519,-1.96025,-2.67097,-2.45965,2.92339,-10.1679,-4.90011,-9.40364,9.90066,-7.11577,13.9423,5.49909,-3.05139,5.37254,-4.47266e-14,4.37326e-14,-27.0215,-19.5194,-58.2532,65.0126,-7.6432,-32.5529,2.14453,7.12502,-5.78257,-27.7566,-4.47266e-14,4.37326e-14,-13.8873,-3.50526,78.0155,22.9409,6.37802,-21.1959,32.4569,7.12502,5.18516,62.3734,-27.6424,15.6278,11.1852,26.1133,-6.93342,-29.3592,16.956,-2.00233,2.44725,-27.3707,16.9003,-18.4108,18.8381,-3.22567
7.19256,18.717,8.49044,-169.871,-68.5196,171.688,11.1426,-2.86086,-7.81394,2.91698,-4.91513,-1.85079,-2.68774,-2.49229,3.07868,-10.1894,-4.91985,-9.49242,9.81231,-7.10039,13.8597,5.47362,-3.05049,5.36112,-1.13307e-14,-2.06736e-14,-26.7097,-19.5297,-57.978,65.6301,-7.56928,-32.3664,2.36349,7.12502,-5.60245,-27.5425,-1.13307e-14,-2.06736e-14,-13.3984,-3.55969,78.3667,23.0096,5.82002,-20.6493,32.1091,7.12502,5.71299,62.012,-27.5339,15.7462,11.3489,26.1799,-7.415,-30.1092,17.6908,-1.61998,2.39332,-27.42,16.4915,-18.4942,18.9066,-3.22676
7.15,18.7153,8.46233,-169.628,-68.4816,171.485,11.1451,-2.97647,-7.86056,2.89185,-5.06437,-1.70142,-2.68107,-2.56395,3.27705,-10.2213,-4.88179,-9.38276,9.70039,-6.98741,13.4841,5.41227,-3.00957,5.2298,1.13108e-13,1.51076e-14,-26.1571,-19.4511,-57.8097,66.1655,-7.6355,-32.5258,2.44735,7.12502,-5.75637,-27.4545,1.13108e-13,1.51076e-14,-12.9695,-3.54277,78.7168,23.1505,5.35966,-20.3195,31.6561,7.12502,6.03136,61.5502,-27.4995,15.7414,11.5328,26.347,-7.39763,-30.5757,17.8818,-1.15553,1.98144,-27.5113,15.8973,-18.555,19.2568,-2.9208
7.10499,18.7154,8.43181,-169.563,-68.4034,171.537,11.0315,-3.07395,-7.74075,2.86944,-5.16139,-1.60409,-2.63272,-2.61194,3.31531,-10.331,-4.82724,-9.50881,9.70116,-6.89086,13.5378,5.42608,-2.9593,5.27622,-2.34566e-14,1.59028e-15,-25.5094,-19.5879,-57.7434,66.5602,-7.70599,-32.6194,2.64263,7.12502,-5.84677,-27.2567,-2.34566e-14,1.59028e-15,-12.618,-4.34227,79.0047,23.5372,5.74984,-20.3546,32.2556,7.12502,5.99746,62.1507,-27.5158,15.916,11.775,26.5204,-7.16543,-30.9525,17.8054,-0.741503,1.79269,-27.505,15.2959,-18.4368,19.5205,-2.88711
7.05768,18.7154,8.39978,-169.42,-68.211,171.529,10.8567,-3.09629,-7.65612,2.8438,-5.15883,-1.52485,-2.56371,-2.6114,3.33866,-10.4463,-4.79621,-9.71179,9.7708,-6.83452,13.6759,5.47255,-2.92577,5.35992,-1.19271e-14,9.54166e-15,-24.9905,-19.8055,-57.5922,66.9899,-7.70782,-32.508,2.85653,7.12502,-5.73919,-27.0457,-1.19271e-14,9.54166e-15,-12.2758,-5.17967,79.3651,23.9279,6.15924,-20.3045,32.1923,7.12502,6.04584,62.0861,-27.537,16.4125,11.8833,26.6669,-7.49068,-31.3305,18.1672,-0.420566,1.88915,-27.5058,14.7958,-18.3225,19.5957,-2.80741
7.00855,18.7171,8.36762,-169.467,-68.1106,171.722,10.7238,-3.12259,-7.39027,2.83215,-5.14671,-1.46599,-2.52242,-2.60586,3.24277,-10.6742,-4.84747,-9.68226,9.86075,-6.88459,13.575,5.54083,-2.94365,5.31447,-2.18663e-15,-1.11319e-14,-24.6757,-20.1483,-57.4357,67.58,-7.61764,-32.5787,2.67357,7.12502,-5.80745,-27.2268,-2.18663e-15,-1.11319e-14,-11.7166,-5.23733,79.6733,24.0003,5.93081,-19.6606,30.6857,7.12502,6.66743,60.5608,-27.4754,16.9162,12.0579,26.7353,-8.06525,-31.6181,18.8212,-0.186499,2.11838,-27.3723,14.4449,-18.177,19.5394,-3.49609
6.95695,18.7149,8.33363,-169.634,-68.1106,172.115,10.4668,-3.17249,-6.99815,2.83369,-5.14126,-1.41985,-2.41079,-2.6064,3.05493,-10.8703,-4.94316,-9.44644,9.87965,-7.01175,13.3816,5.58045,-2.99975,5.19608,-3.77691e-14,-3.65764e-14,-24.3726,-20.637,-57.3058,68.2005,-7.3497,-32.544,2.02608,7.12502,-5.77401,-27.8753,-3.77691e-14,-3.65764e-14,-11.2644,-5.91157,79.9409,24.3493,6.13347,-19.216,30.1393,7.12502,7.09661,60.0003,-27.3851,16.8258,12.4873,26.7212,-7.46983,-31.4193,17.7624,-0.100185,2.17344,-27.176,14.2671,-18.0611,19.6322,-4.57495
6.90192,18.7101,8.29644,-169.7,-68.0266,172.427,10.1175,-3.20035,-6.7783,2.80781,-5.11479,-1.28747,-2.25514,-2.59595,3.04305,-10.9444,-4.97849,-9.41699,9.85462,-7.04675,13.3237,5.58646,-3.01602,5.16744,-2.42517e-14,-1.74931e-14,-23.9556,-20.9492,-57.0137,68.747,-7.29889,-32.3564,1.66687,7.12502,-5.59284,-28.2393,-2.42517e-14,-1.74931e-14,-10.9415,-6.72595,80.3413,24.7696,6.62022,-19.7149,30.3413,7.12502,6.61509,60.2179,-27.2823,16.8605,12.8404,26.6317,-6.75687,-31.136,16.1181,-0.0738492,1.88056,-27.0622,14.236,-18.2035,19.9695,-5.237
6.84625,18.7055,8.2596,-169.686,-67.8672,172.477,9.94187,-3.1952,-6.63887,2.7887,-5.07491,-1.22972,-2.18924,-2.57691,3.0098,-10.8509,-4.97599,-9.31456,9.76966,-7.04766,13.2521,5.53792,-3.02174,5.12758,-6.20208e-14,-2.70347e-14,-23.665,-21.2114,-56.7854,69.3743,-7.42239,-32.4538,1.35592,7.12502,-5.68684,-28.5478,-6.20208e-14,-2.70347e-14,-10.6583,-7.34061,80.6679,25.1119,6.76375,-20.0056,30.2825,7.12502,6.33444,60.1678,-27.0248,17.3627,12.9655,26.5525,-7.22475,-31.0841,16.3179,0.121567,1.90365,-27.0195,14.2097,-18.3513,19.9931,-5.92754
6.78804,18.7012,8.22573,-170.514,-67.827,173.113,10.0876,-3.16493,-6.16368,2.80596,-4.99485,-1.16749,-2.29522,-2.53402,2.81457,-10.6093,-5.02398,-8.96988,9.68533,-7.1313,12.9332,5.45539,-3.07828,4.96128,-3.30976e-14,7.95139e-15,-23.5885,-21.5744,-56.481,69.9699,-7.50395,-32.4876,1.19697,7.12502,-5.71947,-28.7058,-3.30976e-14,7.95139e-15,-10.4878,-8.0857,81.0179,25.4576,6.9565,-19.8098,29.706,7.12502,6.52344,59.5856,-26.404,17.5217,13.4733,26.4902,-7.87315,-30.738,16.6743,0.682473,2.06406,-26.6891,14.1248,-18.4219,19.87,-6.75872
6.72805,18.6991,8.18822,-171.38,-67.8117,173.878,10.1534,-3.21634,-5.71066,2.83203,-5.01111,-0.975812,-2.32468,-2.54131,2.76802,-10.7047,-5.05053,-8.96951,9.79756,-7.14247,12.7484,5.50001,-3.08737,4.89936,5.36719e-14,-1.19271e-15,-23.1427,-21.8164,-56.1305,70.3607,-7.75249,-32.433,2.15879,7.12502,-5.66677,-27.7454,5.36719e-14,-1.19271e-15,-10.3133,-8.31176,81.4542,25.8432,7.03783,-19.5989,29.7821,7.12502,6.727,59.6552,-25.8465,17.3347,14.0962,26.404,-7.89692,-30.2606,16.0808,1.14443,1.94453,-26.3201,14.1057,-18.7535,19.838,-6.4486
6.67379,18.6956,8.14902,-170.574,-67.6537,173.419,9.74283,-3.28514,-5.83008,2.73082,-5.07374,-0.78729,-2.17022,-2.57173,3.00854,-10.9653,-5.03153,-9.28453,9.90079,-7.04859,12.7386,5.57627,-3.04007,4.95468,1.83876e-14,4.29375e-14,-22.5217,-21.9588,-55.7854,70.7874,-8.14534,-32.1551,4.00577,7.12502,-5.39845,-25.9055,1.83876e-14,4.29375e-14,-10.0169,-8.25318,81.9793,26.2213,7.14383,-19.7276,30.1343,7.12502,6.6028,60.0113,-25.9871,17.9171,13.7576,26.254,-8.51268,-30.48,16.7132,0.91946,1.85799,-26.4787,14.2116,-19.1239,19.751,-5.66841
6.6213,18.6912,8.10745,-170.079,-67.4796,173.28,9.30527,-3.33219,-5.81158,2.61086,-5.09595,-0.68537,-2.04375,-2.58075,3.07795,-10.9864,-5.00663,-9.29157,9.91516,-7.01299,12.7356,5.58029,-3.02221,4.95816,1.89839e-14,1.94809e-14,-22.0266,-22.1335,-55.6425,71.2974,-8.08438,-32.5146,4.09975,7.12502,-5.74559,-25.8024,1.89839e-14,1.94809e-14,-9.76414,-8.40561,82.3361,26.5165,7.30455,-20.4408,30.1286,7.12502,5.9143,60.026,-26.1414,17.8341,13.6362,26.0072,-9.07875,-30.2067,17.9644,0.613935,2.02123,-26.4624,14.4412,-19.4367,19.4743,-4.94486
6.56661,18.6915,8.06688,-170.468,-67.337,173.771,9.18015,-3.30986,-5.38528,2.51712,-5.01632,-0.685566,-2.11697,-2.53491,2.83033,-10.7289,-5.04407,-9.08135,9.87478,-7.13061,12.8007,5.53252,-3.0806,4.93627,-5.725e-14,4.96962e-14,-21.8001,-22.4331,-55.5378,71.907,-7.75499,-33.2265,2.42909,7.12502,-6.43285,-27.4532,-5.725e-14,4.96962e-14,-9.7313,-9.10114,82.5812,27.0104,7.73727,-20.9465,30.5546,7.12502,5.42604,60.4652,-25.9018,17.9394,13.9029,25.6663,-9.05747,-30.3413,18.0695,0.593067,2.0409,-26.2064,14.7658,-19.7887,19.4164,-4.61232
6.50811,18.695,8.02502,-172.043,-67.1579,175.316,9.26101,-3.24527,-4.48987,2.49091,-4.84712,-0.604484,-2.27168,-2.44594,2.41065,-10.5677,-5.10537,-8.97232,9.90574,-7.27763,12.9547,5.53376,-3.14761,4.95626,-1.99779e-14,1.70955e-14,-21.6762,-22.8164,-55.3093,72.5339,-7.67348,-33.5814,1.38034,7.12502,-6.77551,-28.4912,-1.99779e-14,1.70955e-14,-9.72035,-9.9708,82.842,27.5822,8.1173,-20.8592,30.9779,7.12502,5.51026,60.8863,-25.4062,18.2734,14.6747,25.3452,-9.16321,-30.449,17.8245,0.836803,2.02752,-25.5097,15.0784,-20.1203,19.4988,-4.66788
6.44734,18.6999,7.98373,-174.011,-66.9956,177.221,9.38412,-3.21466,-3.49988,2.50521,-4.71019,-0.401267,-2.39789,-2.3765,2.06677,-10.5516,-5.14724,-9.11923,10.026,-7.35721,13.1423,5.5903,-3.18084,5.0349,1.00386e-13,-1.03368e-14,-21.5063,-23.097,-55.0691,73.2255,-7.7666,-33.9074,0.812528,7.12502,-7.09022,-29.0487,1.00386e-13,-1.03368e-14,-9.66678,-10.5819,83.1694,28.0531,8.46476,-20.6756,30.885,7.12502,5.68753,60.7887,-24.8758,18.3811,15.662,25.1898,-9.5291,-30.1391,18.1111,1.31235,2.01511,-24.6391,15.1723,-20.4563,19.4885,-4.39908
6.38793,18.7028,7.94577,-173.933,-66.7286,177.196,9.25018,-3.2109,-3.3777,2.4554,-4.68225,-0.283091,-2.37706,-2.36141,2.11067,-10.5761,-5.1654,-9.23608,10.1077,-7.36804,13.1334,5.62473,-3.18808,5.05067,8.85586e-14,5.96354e-15,-20.9704,-23.2134,-54.895,73.7285,-7.88355,-34.45,0.408965,7.12502,-7.61394,-29.434,8.85586e-14,5.96354e-15,-9.59276,-10.7704,83.5785,28.5052,8.69162,-20.6701,30.3601,7.12502,5.69286,60.2636,-24.7417,18.0126,15.8027,25.1962,-9.31965,-29.4316,18.0632,1.52527,2.19668,-24.5898,15.1806,-20.6311,19.2779,-4.08936
6.33042,18.7039,7.90747,-172.481,-66.3359,175.764,9.04838,-3.19149,-3.9208,2.40048,-4.69613,-0.245307,-2.27442,-2.36776,2.43986,-10.7203,-5.1411,-9.2803,10.1906,-7.29319,12.9491,5.66021,-3.15529,5.00375,-7.35503e-14,-1.98785e-15,-20.1031,-23.272,-54.7764,74.0663,-7.92675,-34.6652,0.106661,7.12502,-7.82165,-29.7287,-7.35503e-14,-1.98785e-15,-9.388,-10.6963,84.0488,28.8899,8.82048,-20.6955,30.1546,7.12502,5.66835,60.0588,-24.8036,17.8117,15.2416,25.3531,-9.34476,-28.8929,17.4676,1.65456,2.30775,-25.1954,15.1249,-20.6596,19.1973,-4.12675
6.27413,18.7054,7.86498,-171.986,-65.9451,175.325,8.95424,-3.14885,-3.89507,2.31449,-4.63311,-0.284218,-2.32125,-2.33269,2.37663,-10.8236,-5.15091,-9.23903,10.3491,-7.33157,12.9838,5.73141,-3.16524,5.00348,-1.61513e-14,-1.03368e-14,-19.5358,-23.4379,-54.721,74.5187,-8.02138,-34.9149,0.145836,7.12502,-8.0626,-29.6804,-1.61513e-14,-1.03368e-14,-9.40413,-11.2733,84.2567,29.4713,9.27409,-20.6516,30.258,7.12502,5.71073,60.161,-24.8533,17.7932,15.1407,25.6263,-9.30704,-28.4507,15.8627,1.90742,2.17924,-25.4087,14.9679,-20.6776,19.3533,-4.58777
6.21555,18.706,7.81967,-172.102,-65.54,175.41,8.95262,-3.10855,-3.55672,2.21424,-4.55186,-0.400646,-2.46605,-2.28733,2.06562,-10.6509,-5.1414,-9.13575,10.4522,-7.40329,13.1955,5.74683,-3.19262,5.05138,-3.82164e-14,5.1684e-15,-19.24,-23.4923,-54.7444,75.0043,-8.20318,-35.2635,0.27917,7.12502,-8.39906,-29.5338,-3.82164e-14,5.1684e-15,-9.63716,-12.0302,84.2954,30.1517,9.87564,-20.6851,30.2867,7.12502,5.67839,60.1906,-24.7361,17.7201,15.3264,25.8455,-9.23154,-27.8618,15.2342,2.21301,2.1655,-25.3959,14.9846,-20.6437,19.6012,-5.67591
6.15375,18.7084,7.77721,-172.523,-65.1513,175.716,8.99617,-3.08602,-3.17546,2.17588,-4.48854,-0.405727,-2.56354,-2.25437,1.84733,-10.5149,-5.09145,-9.04045,10.544,-7.38409,13.2416,5.74763,-3.18289,5.05518,9.32797e-14,-1.21259e-14,-18.7775,-23.597,-54.7615,75.4253,-8.22839,-35.351,-0.226869,7.12502,-8.48355,-30.0365,9.32797e-14,-1.21259e-14,-9.72196,-12.2958,84.4956,30.6353,10.1348,-20.6345,30.1731,7.12502,5.72723,60.0757,-24.375,17.6117,15.6495,25.875,-9.42249,-27.2556,15.8242,2.42916,2.34462,-25.231,15.4174,-20.8091,19.5199,-5.97003
6.0987,18.7172,7.73253,-173.264,-64.7052,176.519,8.93571,-3.01077,-2.76929,2.1739,-4.34209,-0.236363,-2.5568,-2.18273,1.7776,-10.6241,-5.08027,-8.982,10.6704,-7.3858,13.233,5.80331,-3.1764,5.04137,-5.73991e-14,3.33958e-14,-18.1704,-23.8106,-54.7409,75.8785,-8.31071,-35.5704,-0.558283,7.12502,-8.69524,-30.3592,-5.73991e-14,3.33958e-14,-9.66498,-12.5504,84.8316,31.1108,10.4071,-20.7189,29.9524,7.12502,5.64576,59.8572,-24.1019,17.4891,16.2115,25.7837,-9.509,-26.6084,15.9906,2.40455,2.68595,-24.7507,16.0288,-21.064,19.1345,-6.1912
6.04974,18.7249,7.68229,-174.168,-64.2257,177.524,8.90901,-2.93574,-2.41637,2.12262,-4.19975,-0.00203146,-2.60961,-2.1108,1.80852,-10.5637,-5.07533,-8.91219,10.7012,-7.37863,13.1066,5.79366,-3.17927,4.99034,-3.10104e-14,9.34288e-15,-17.5372,-23.9047,-54.7545,76.2543,-8.33029,-36.1578,-0.506921,7.12502,-9.26204,-30.2835,-3.10104e-14,9.34288e-15,-9.79399,-12.7208,85.1654,31.6973,10.5811,-20.6472,29.9519,7.12502,5.71502,59.8548,-23.8468,17.463,16.9125,25.6218,-9.2874,-26.0767,15.3014,2.28587,2.93714,-24.1645,16.7287,-20.9955,19.1071,-7.41082
5.99636,18.7272,7.62725,-174.877,-63.7158,178.295,8.77568,-2.86268,-2.03527,2.12126,-4.05988,0.128039,-2.56074,-2.0434,1.70805,-10.5188,-5.07211,-8.90668,10.7179,-7.37854,13.0889,5.79003,-3.18179,4.98451,7.71533e-14,-9.34288e-15,-16.8051,-24.1149,-54.9277,76.4885,-8.20893,-36.5673,-0.362046,7.12502,-9.65722,-30.1207,7.71533e-14,-9.34288e-15,-9.8966,-12.8684,85.411,32.2544,10.6519,-20.5376,30.009,7.12502,5.82081,59.9091,-23.5523,18.1601,17.411,25.4171,-9.09935,-26.2533,14.6139,2.11755,3.36342,-23.6808,17.591,-20.7507,19.1718,-9.20338
5.93941,18.7277,7.57114,-175.485,-63.303,178.92,8.66845,-2.80944,-1.62406,2.12746,-3.94717,0.224481,-2.52066,-1.9897,1.56044,-10.5821,-5.08343,-8.86963,10.8663,-7.41305,13.0747,5.84897,-3.19395,4.9701,-1.37236e-13,1.16289e-14,-16.1021,-24.2885,-55.0378,76.6846,-8.17547,-36.8494,-0.753787,7.12502,-9.92933,-30.4996,-1.37236e-13,1.16289e-14,-10.0161,-13.2927,85.6682,32.8659,11.0081,-20.6132,30.1545,7.12502,5.74781,60.0566,-23.1856,18.6603,17.8999,25.2461,-8.96378,-26.3248,14.1799,2.02505,3.88282,-23.2003,18.4695,-20.7239,18.7261,-9.71629
5.88228,18.7348,7.51347,-175.671,-62.9163,179.183,8.47039,-2.78216,-1.43402,2.06225,-3.88636,0.290046,-2.48875,-1.95882,1.5067,-10.4271,-5.05533,-8.7632,10.9315,-7.40909,13.0371,5.83619,-3.19648,4.94338,5.91633e-14,-1.16289e-14,-15.4809,-24.2963,-55.1991,76.919,-8.2391,-37.1652,-0.98395,7.12502,-10.234,-30.715,5.91633e-14,-1.16289e-14,-10.2783,-13.767,85.8676,33.4947,11.4731,-20.6819,30.3828,7.12502,5.68148,60.2866,-22.9559,18.5762,18.2849,25.2044,-8.90229,-25.9161,13.5914,1.85681,4.45664,-22.8465,19.277,-20.6127,18.1217,-10.1216
5.82342,18.7462,7.45497,-175.564,-62.4754,179.135,8.21384,-2.7873,-1.36322,1.98775,-3.87996,0.294587,-2.42828,-1.95452,1.45902,-10.2442,-4.98689,-8.71572,11.0282,-7.35101,13.0308,5.82535,-3.17407,4.94285,-1.89591e-14,2.0276e-14,-14.8497,-24.1631,-55.492,77.1896,-8.28163,-37.7151,-0.91703,7.12502,-10.7645,-30.6212,-1.89591e-14,2.0276e-14,-10.6451,-14.0125,86.0152,34.1408,11.7849,-20.8469,30.5137,7.12502,5.52218,60.4218,-22.8011,18.8033,18.4448,25.24,-9.00158,-25.7539,13.0046,1.65734,4.98558,-22.6536,20.1091,-20.6179,17.5191,-10.1749
5.77018,18.7513,7.392,-175.381,-61.9733,178.915,8.07447,-2.72627,-1.42763,1.93578,-3.80036,0.294673,-2.40319,-1.91363,1.48108,-10.298,-4.97474,-8.70177,11.3288,-7.36227,12.9719,5.92598,-3.17695,4.92139,5.42682e-14,5.96354e-16,-14.2289,-24.1196,-55.7128,77.4594,-8.23422,-38.0019,-0.99529,7.12502,-11.0411,-30.6849,5.42682e-14,5.96354e-16,-10.9164,-14.1306,86.2258,34.6667,11.9388,-20.7364,30.243,7.12502,5.62886,60.1483,-22.6276,17.9689,18.7363,25.3561,-8.70464,-24.548,12.2627,1.48613,5.5596,-22.549,20.9921,-20.4791,17.026,-11.4875
5.71653,18.7545,7.32756,-175.36,-61.4648,178.857,7.93052,-2.67913,-1.48645,1.8892,-3.73702,0.357349,-2.36566,-1.88113,1.56571,-10.3716,-4.90439,-8.64204,11.6504,-7.2851,12.8181,6.02113,-3.13951,4.87005,4.22045e-14,-1.49089e-15,-13.4698,-23.9754,-55.9327,77.6208,-8.22036,-38.1914,-1.27856,7.12502,-11.2239,-30.9583,4.22045e-14,-1.49089e-15,-11.217,-14.0569,86.483,35.1858,12.0685,-20.303,29.9291,7.12502,6.04727,59.8228,-22.4688,18.7169,18.8441,25.5474,-8.98132,-24.7895,12.3801,1.31949,6.0123,-22.3828,21.8844,-20.0722,16.7791,-14.6422
5.66008,18.7564,7.2642,-175.257,-61.0099,178.601,7.86345,-2.65221,-1.53475,1.85099,-3.70371,0.334345,-2.3676,-1.86348,1.5634,-10.3248,-4.868,-8.67303,11.8242,-7.25262,12.7924,6.06311,-3.12707,4.87226,-1.00461e-13,-5.26779e-15,-12.7218,-23.8912,-56.1938,77.8139,-8.13342,-38.4199,-1.43183,7.12502,-11.4443,-31.0995,-1.00461e-13,-5.26779e-15,-11.5366,-14.2134,86.664,35.6926,12.4244,-20.1389,29.9288,7.12502,6.2057,59.8179,-22.2223,18.8063,18.9471,25.7943,-9.35719,-24.4267,12.4349,1.24036,6.33642,-22.3081,22.8706,-19.9243,16.3216,-15.941
5.60567,18.7564,7.19651,-174.945,-60.5252,178.065,7.75845,-2.61455,-1.75335,1.86465,-3.67212,0.243031,-2.28872,-1.84806,1.58207,-10.25,-4.86038,-8.73177,11.9458,-7.26939,12.8663,6.09467,-3.13609,4.90682,3.62968e-14,-8.39865e-15,-11.9615,-23.8244,-56.5333,78.1633,-7.93721,-38.3545,-1.87575,7.12502,-11.3812,-31.5469,3.62968e-14,-8.39865e-15,-11.8673,-14.5772,86.7461,36.2909,13.0342,-20.0925,29.9312,7.12502,6.25047,59.819,-21.9207,18.8305,18.9551,26.0612,-9.65903,-23.9645,12.1199,1.13667,7.00682,-22.2981,23.9754,-19.5479,15.7149,-16.5886
5.55834,18.7583,7.128,-174.584,-59.9113,177.704,7.51671,-2.54369,-2.00424,1.81508,-3.59067,0.239693,-2.19361,-1.80627,1.69955,-10.2284,-4.83525,-8.71308,12.0574,-7.2324,12.7417,6.1156,-3.12452,4.86786,-6.37105e-14,-2.90723e-15,-11.2066,-23.6539,-56.8879,78.4955,-7.72413,-38.2734,-2.50229,7.12502,-11.3029,-32.1777,-6.37105e-14,-2.90723e-15,-12.1792,-14.8826,86.8913,36.8753,13.5669,-20.1561,29.8012,7.12502,6.18914,59.6908,-21.9239,18.9065,18.9568,26.3523,-9.88646,-23.4075,12.2781,0.680671,7.99038,-22.1815,25.2308,-18.8397,15.2213,-18.4507
5.51033,18.761,7.07191,-174.31,-59.2864,177.4,7.42107,-2.46369,-2.06896,1.73431,-3.48663,0.188089,-2.22765,-1.75184,1.67107,-10.2663,-4.79201,-8.58818,12.2181,-7.18989,12.6083,6.15768,-3.10413,4.80801,8.56948e-15,9.05713e-15,-10.577,-23.4857,-57.2361,78.8147,-7.59886,-38.2358,-3.39318,7.12502,-11.2667,-33.0706,8.56948e-15,9.05713e-15,-12.4926,-15.2598,87.0389,37.4218,14.032,-20.1881,29.9735,7.12502,6.1582,59.864,-21.9375,18.557,18.9783,26.6354,-9.95464,-22.4333,12.2168,0.136811,8.82216,-22.1076,26.6598,-18.383,14.6554,-18.9753
5.45958,18.7618,7.01842,-174.359,-58.7458,177.263,7.46282,-2.42129,-1.99818,1.72597,-3.42766,0.138416,-2.2692,-1.72235,1.57787,-10.3118,-4.74505,-8.53816,12.3939,-7.1421,12.539,6.21044,-3.0802,4.78237,1.89591e-14,5.0628e-15,-9.90602,-23.2661,-57.5546,79.0464,-7.43472,-38.6445,-3.68696,7.12502,-11.6608,-33.3425,1.89591e-14,5.0628e-15,-12.843,-15.629,87.112,38.0125,14.3594,-20.1259,30.3351,7.12502,6.2183,60.2239,-21.6728,18.0464,19.1918,26.8658,-9.8963,-21.4437,11.3363,-0.305545,9.57498,-21.9232,28.2785,-17.9175,14.1175,-19.6191
5.40787,18.7598,6.96115,-174.689,-58.2512,177.38,7.49044,-2.39875,-1.80198,1.758,-3.38451,0.136173,-2.26477,-1.70276,1.46282,-10.2557,-4.70914,-8.54828,12.4511,-7.08915,12.4613,6.20972,-3.06161,4.76533,-6.55524e-15,-2.67117e-15,-9.20437,-22.9931,-57.8264,79.1471,-7.37231,-38.8917,-2.95469,7.12502,-11.8992,-32.5965,-6.55524e-15,-2.67117e-15,-13.1312,-15.7923,87.1746,38.4875,14.5046,-19.6057,30.4204,7.12502,6.72047,60.2938,-21.2525,17.6339,19.5993,27.0306,-9.8565,-20.6322,10.6987,-0.76098,10.2508,-21.55,30.0483,-17.3341,13.6245,-20.4866
5.35446,18.7544,6.9023,-175.175,-57.8303,177.725,7.47432,-2.38245,-1.46087,1.77752,-3.33566,0.184197,-2.25407,-1.68052,1.31626,-10.2717,-4.70202,-8.62095,12.5494,-7.06708,12.4015,6.24084,-3.05609,4.76079,-2.40685e-14,8.19987e-16,-8.59333,-22.8305,-58.0805,79.3306,-7.26127,-38.7125,-2.59828,7.12502,-11.7264,-32.2501,-2.40685e-14,8.19987e-16,-13.3952,-16.1622,87.2927,38.9616,14.9395,-19.2634,30.1278,7.12502,7.05089,59.9904,-20.8286,17.3207,20.1002,27.1456,-9.96477,-19.9344,10.4994,-1.28751,10.9142,-21.0046,31.948,-16.749,12.9164,-20.7001
5.30521,18.7495,6.83841,-175.592,-57.3621,178.064,7.38202,-2.39871,-1.23516,1.77515,-3.33663,0.256289,-2.21379,-1.68225,1.26002,-10.1554,-4.65327,-8.71398,12.5266,-6.98863,12.3897,6.20704,-3.0279,4.78213,1.76918e-14,4.17448e-15,-7.84813,-22.5553,-58.4947,79.4968,-6.85311,-38.5902,-2.49721,7.12502,-11.6085,-32.1557,1.76918e-14,4.17448e-15,-13.7297,-16.449,87.3812,39.543,15.6227,-19.4247,30.2479,7.12502,6.89517,60.1156,-20.4922,17.4884,20.5166,27.2449,-10.3639,-19.6133,10.9858,-1.95804,11.6949,-20.415,33.9588,-15.9669,12.2244,-21.6535
5.25662,18.7465,6.77947,-175.904,-56.8471,178.28,7.33401,-2.40528,-0.975891,1.7613,-3.32579,0.223443,-2.21843,-1.67765,1.07882,-10.024,-4.5575,-8.59752,12.4867,-6.87855,12.3545,6.1537,-2.97847,4.76346,-1.68532e-14,-3.45388e-15,-7.17393,-22.2975,-58.9859,79.5822,-6.46957,-39.0552,-2.01372,7.12502,-12.0569,-31.6464,-1.68532e-14,-3.45388e-15,-14.0557,-16.7036,87.3554,40.08,16.1174,-19.2872,30.2557,7.12502,7.02792,60.119,-20.1543,17.5359,20.8677,27.328,-10.539,-19.1538,10.9427,-2.69746,12.526,-19.8839,36.0394,-14.914,11.593,-22.8579
5.2108,18.7414,6.72097,-176.244,-56.3132,178.451,7.35711,-2.35073,-0.751157,1.78626,-3.23834,0.205229,-2.22112,-1.63574,0.927459,-9.97035,-4.51098,-8.49635,12.4692,-6.81338,12.2369,6.12381,-2.95215,4.71495,-2.52022e-14,-6.01324e-15,-6.5779,-22.1257,-59.313,79.6908,-6.21453,-39.5867,-1.45139,7.12502,-12.5693,-31.0533,-2.52022e-14,-6.01324e-15,-14.2364,-17.1077,87.4089,40.4464,16.5133,-19.1377,30.1147,7.12502,7.17224,59.9731,-19.7569,17.1264,21.2817,27.4178,-10.5054,-18.2758,10.366,-3.40422,13.3823,-19.3258,38.1539,-13.783,10.8609,-23.4936
5.16743,18.7356,6.66178,-176.67,-55.7683,178.698,7.45753,-2.29852,-0.573008,1.77821,-3.15547,0.26336,-2.29312,-1.59508,0.885396,-9.88998,-4.49452,-8.49415,12.5191,-6.76738,12.0376,6.11279,-2.94406,4.65557,2.42828e-14,-5.46658e-16,-5.9306,-21.8774,-59.642,79.7673,-5.91281,-39.7747,-1.22049,7.12502,-12.7506,-30.8112,2.42828e-14,-5.46658e-16,-14.4534,-17.3867,87.556,40.7834,16.9358,-19.2837,30.3899,7.12502,7.03133,60.2531,-19.3676,16.7892,21.7196,27.527,-10.6284,-17.4051,10.2678,-4.13146,13.952,-18.7502,40.2849,-12.6307,10.3141,-23.8501
5.12594,18.7288,6.60639,-176.924,-55.2349,178.815,7.48509,-2.24386,-0.408123,1.76417,-3.07037,0.265508,-2.33292,-1.55325,0.789506,-9.7145,-4.46248,-8.42018,12.4645,-6.71381,11.8717,6.05073,-2.93207,4.59637,1.03244e-14,-4.72114e-15,-5.27345,-21.6313,-59.9914,79.8384,-5.6582,-39.7324,-1.84277,7.12502,-12.7098,-31.436,1.03244e-14,-4.72114e-15,-14.6514,-17.6676,87.6395,41.1343,17.3608,-19.4544,30.6343,7.12502,6.86655,60.5029,-19.0653,16.6239,22.0242,27.6421,-10.7447,-16.705,10.2242,-4.98062,14.2433,-18.3446,42.4406,-11.4292,10.0082,-23.4227
5.08897,18.7205,6.55232,-177.303,-54.6641,179.031,7.65783,-2.21845,-0.208367,1.73928,-3.02209,0.265937,-2.46549,-1.52978,0.682523,-9.66369,-4.38309,-8.24948,12.4781,-6.61451,11.7256,6.02459,-2.88791,4.53036,9.25218e-14,-1.94312e-14,-4.49596,-21.2777,-60.4081,79.8516,-5.3561,-39.9441,-3.16777,7.12502,-12.9139,-32.7482,9.25218e-14,-1.94312e-14,-14.869,-17.8453,87.5884,41.4992,17.6262,-19.274,30.8359,7.12502,7.04065,60.6988,-18.6965,16.8489,22.3902,27.7397,-10.9037,-16.4091,10.2742,-5.82511,14.4865,-17.8403,44.6014,-9.96714,9.59765,-22.6418
5.05439,18.71,6.49723,-177.873,-54.0809,179.535,7.78025,-2.1797,0.0917723,1.6988,-2.94466,0.333538,-2.58758,-1.49241,0.583576,-9.52962,-4.31773,-8.03887,12.4679,-6.53832,11.5419,5.97674,-2.85887,4.44431,2.15681e-14,-1.22253e-14,-3.87393,-20.9691,-60.8257,79.9167,-5.112,-40.4011,-3.47104,7.12502,-13.3544,-33.0231,2.15681e-14,-1.22253e-14,-15.058,-17.8975,87.5402,41.7694,17.5709,-18.5741,30.4223,7.12502,7.71622,60.2615,-18.3599,16.9966,22.955,27.7972,-10.9905,-16.1033,9.79159,-6.78037,14.6825,-17.1404,46.7969,-8.17534,9.07476,-21.7841
5.01609,18.702,6.44069,-178.206,-53.6009,179.773,7.76788,-2.15501,0.222387,1.69989,-2.90032,0.396382,-2.58307,-1.47142,0.570365,-9.42446,-4.27243,-7.9096,12.4982,-6.48798,11.4114,5.95389,-2.84117,4.38668,-2.41648e-14,8.94531e-15,-3.28617,-20.6684,-61.2068,79.9565,-4.94695,-40.8281,-3.51137,7.12502,-13.766,-33.036,-2.41648e-14,8.94531e-15,-15.109,-17.9042,87.5855,41.9461,17.3611,-17.9929,30.2553,7.12502,8.27722,60.0731,-18.0136,17.0778,23.3233,27.834,-11.1656,-15.7574,9.7138,-7.80619,14.6962,-16.6684,48.973,-6.18502,8.76028,-21.9765
4.97993,18.6972,6.3886,-178.655,-53.1528,180.135,7.8696,-2.15275,0.53769,1.68601,-2.87127,0.419724,-2.66819,-1.45918,0.420198,-9.27335,-4.23,-7.66922,12.4252,-6.44511,11.2493,5.88741,-2.8267,4.2995,-7.34385e-14,3.08116e-15,-2.64593,-20.3564,-61.611,79.8572,-4.89884,-41.1495,-3.73398,7.12502,-14.0757,-33.2373,-7.34385e-14,3.08116e-15,-15.1881,-17.9055,87.5631,42.1383,17.2547,-17.727,30.1604,7.12502,8.53384,59.9679,-17.6297,17.2477,23.7497,27.8133,-11.3022,-15.4501,10.2433,-8.86691,14.5328,-16.1466,51.162,-4.29634,8.47151,-21.6503
4.94512,18.6906,6.34588,-178.94,-52.6396,180.355,7.97853,-2.11049,0.800866,1.65684,-2.79193,0.441057,-2.7703,-1.42165,0.292496,-9.07556,-4.2113,-7.42289,12.3006,-6.4156,10.9975,5.79527,-2.82503,4.18192,-9.24473e-14,1.35174e-14,-2.0771,-19.9488,-61.8549,79.8381,-4.99504,-41.4239,-4.35221,7.12502,-14.3401,-33.837,-9.24473e-14,1.35174e-14,-15.2432,-18.0469,87.5838,42.3819,17.4318,-17.4299,29.9841,7.12502,8.8205,59.7798,-17.3092,17.1848,24.0761,27.7572,-11.3094,-14.9526,10.2705,-9.99313,14.3051,-15.8111,53.2998,-2.49497,8.08065,-22.0802
4.90986,18.685,6.30197,-179.441,-52.0941,180.912,7.86908,-2.10839,1.18094,1.71671,-2.76005,0.552909,-2.65965,-1.40952,0.185955,-9.05609,-4.15923,-7.32322,12.303,-6.35043,10.9242,5.78068,-2.79471,4.14776,-1.86361e-14,4.37326e-15,-1.30512,-19.4612,-62.2148,79.7624,-4.93501,-41.716,-4.63775,7.12502,-14.6216,-34.1023,-1.86361e-14,4.37326e-15,-15.1027,-17.9493,87.5725,42.5855,17.7729,-17.5362,29.8735,7.12502,8.71791,59.6734,-17.0103,17.0716,24.6357,27.6747,-11.249,-14.4189,9.84938,-11.2071,14.0832,-15.2493,55.4222,-1.0239,7.36334,-22.5959
4.88159,18.6802,6.25665,-179.995,-51.4898,181.407,7.97259,-2.10755,1.50425,1.75948,-2.73394,0.576192,-2.6864,-1.4001,0.0298746,-8.97622,-4.06458,-7.15571,12.268,-6.26663,11.0047,5.74527,-2.74758,4.15396,7.72775e-15,-4.17448e-15,-0.601754,-19.0837,-62.7809,79.6104,-4.67415,-41.7742,-5.25047,7.12502,-14.6776,-34.7109,7.72775e-15,-4.17448e-15,-14.9748,-17.9113,87.4061,42.7249,18.0438,-17.7615,30.173,7.12502,8.50048,59.9819,-16.6434,17.1041,25.1957,27.6293,-11.1981,-13.9912,9.52965,-12.266,13.758,-14.6693,57.4633,-0.347457,6.42139,-21.4748
4.85114,18.6752,6.21496,-180.308,-50.8881,181.508,8.15289,-2.04116,1.56758,1.81211,-2.64108,0.589852,-2.73307,-1.35604,0.00488275,-8.69651,-4.00283,-7.11664,12.0591,-6.21117,11.155,5.63025,-2.72404,4.20358,1.0302e-13,-1.51076e-14,0.0658751,-18.7249,-63.1599,79.4056,-4.44729,-41.9854,-6.05692,7.12502,-14.881,-35.5025,1.0302e-13,-1.51076e-14,-14.83,-17.9507,87.4066,42.7887,18.1132,-17.9089,30.2721,7.12502,8.35824,60.0867,-16.1999,17.0257,25.4986,27.6013,-11.234,-13.4452,9.47779,-13.1884,13.3551,-14.3645,59.4242,-0.380588,5.20788,-20.0674
4.81696,18.6711,6.1739,-180.54,-50.3017,181.483,8.19265,-1.99033,1.49799,1.96188,-2.58646,0.650779,-2.59366,-1.33071,0.0987281,-8.44549,-3.91222,-7.19394,11.8451,-6.09953,11.3397,5.51772,-2.67477,4.28794,-2.73205e-14,2.48481e-15,0.920121,-18.3211,-63.5506,79.1058,-4.3498,-42.1831,-6.78467,7.12502,-15.0716,-36.216,-2.73205e-14,2.48481e-15,-14.5953,-17.9482,87.4108,42.9022,18.4022,-18.3526,30.5752,7.12502,7.93003,60.4064,-15.749,16.9295,25.709,27.6516,-11.2367,-12.9238,9.1861,-14.0091,12.9828,-14.1463,61.2811,-0.80127,4.06126,-19.518
4.79222,18.6673,6.13147,-180.965,-49.6973,181.763,8.3105,-1.94099,1.64634,2.04988,-2.51195,0.698209,-2.57121,-1.29665,0.0593237,-8.3448,-3.9176,-7.33433,11.8281,-6.15013,11.6636,5.51423,-2.69376,4.41248,-1.01169e-13,2.27608e-14,1.62558,-18.042,-64.1023,78.6104,-3.90998,-42.2427,-7.11129,7.12502,-15.129,-36.5383,-1.01169e-13,2.27608e-14,-14.3855,-17.9552,87.3124,42.9549,18.5172,-18.3569,30.7914,7.12502,7.92591,60.6228,-15.4211,17.0919,26.1164,27.7297,-11.0874,-12.5205,8.61284,-14.9081,12.6649,-13.6665,63.1082,-1.35699,3.26907,-19.2348
4.76616,18.6629,6.10114,-181.135,-49.0232,181.852,8.50087,-1.8418,1.91887,2.02938,-2.35541,0.592376,-2.71104,-1.22128,-0.211465,-8.26933,-4.0127,-7.5157,11.859,-6.34279,12.0936,5.54962,-2.77764,4.56604,-6.37975e-14,4.96962e-15,2.05469,-17.8776,-64.5919,78.1628,-3.3299,-42.4912,-6.7614,7.12502,-15.3683,-36.1702,-6.37975e-14,4.96962e-15,-14.2791,-18.0487,87.2103,43.0796,18.655,-18.1667,30.8555,7.12502,8.10941,60.6799,-15.3275,17.1779,26.2837,27.8076,-10.7163,-11.9117,8.25897,-16.0224,12.379,-13.4625,64.9125,-1.68478,2.77124,-19.5273
4.73937,18.6579,6.06514,-181.173,-48.3789,181.74,8.58591,-1.72439,1.83977,2.05377,-2.20734,0.564836,-2.72828,-1.14803,-0.209371,-8.14231,-4.02148,-7.89212,11.8966,-6.40253,12.5859,5.57279,-2.80304,4.78566,-5.44173e-15,2.68359e-15,2.52061,-17.6325,-64.8783,77.8231,-2.99491,-42.8469,-6.16247,7.12502,-15.7109,-35.5447,-5.44173e-15,2.68359e-15,-14.0843,-17.9699,87.2592,43.1122,18.7864,-17.991,30.9891,7.12502,8.27901,60.8069,-15.1437,17.4888,26.3512,27.8965,-10.2924,-11.6541,7.83739,-17.1251,12.1,-13.3588,66.7001,-1.89962,2.36155,-19.2228
4.71517,18.6567,6.02652,-181.322,-47.7639,181.687,8.66736,-1.6345,1.68029,2.10775,-2.10388,0.589307,-2.70914,-1.09697,-0.104601,-8.06354,-4.03523,-8.21276,12.0789,-6.49423,13.058,5.6505,-2.84094,4.98792,-4.48756e-14,-9.93923e-15,2.99364,-17.385,-65.2596,77.5731,-2.6515,-43.1876,-6.25274,7.12502,-16.039,-35.6089,-4.48756e-14,-9.93923e-15,-13.8556,-17.8041,87.2801,43.0004,18.7655,-18.0399,31.0113,7.12502,8.23185,60.831,-14.8411,17.9261,26.5285,28.0269,-10.3851,-11.6129,7.72114,-18.1238,11.7891,-13.145,68.4161,-2.15873,2.02404,-19.0119
4.68668,18.6618,5.98967,-181.398,-47.1781,181.536,8.74368,-1.5621,1.57249,2.18082,-2.02198,0.54584,-2.67249,-1.05701,-0.0971016,-8.1116,-4.07541,-8.23339,12.3538,-6.62604,13.2626,5.76606,-2.89402,5.04808,-1.76421e-14,1.39149e-15,3.4995,-17.136,-65.7244,77.2918,-2.05457,-43.3067,-6.69037,7.12502,-16.1537,-36.0372,-1.76421e-14,1.39149e-15,-13.6746,-17.791,87.2347,43.012,18.9425,-18.5783,30.6355,7.12502,7.71214,60.4748,-14.516,18.0805,26.6328,28.1525,-10.8444,-11.3583,7.77061,-19.0872,11.388,-13.0677,70.0411,-2.48252,1.79924,-19.3278
4.65674,18.6688,5.95735,-181.168,-46.5572,181.086,8.76552,-1.48097,1.29654,2.23068,-1.94378,0.443677,-2.62661,-1.01729,-0.0567484,-8.06276,-4.01203,-8.08166,12.5734,-6.59072,13.2008,5.81398,-2.87619,5.00782,-2.78795e-14,8.64713e-15,4.03419,-16.8928,-66.2159,77.0042,-1.5005,-43.3849,-7.08804,7.12502,-16.229,-36.4288,-2.78795e-14,8.64713e-15,-13.5044,-18.0471,87.1873,43.2147,19.4617,-19.3829,30.8499,7.12502,6.93555,60.7162,-14.3161,18.3334,26.4481,28.3054,-11.1504,-11.1555,7.67767,-20.1225,10.935,-13.3062,71.6078,-2.81236,1.77049,-19.7068
4.62964,18.6711,5.92757,-181.085,-45.9047,180.818,8.82776,-1.37723,1.13082,2.24565,-1.82358,0.355058,-2.64211,-0.957227,-0.0669846,-8.27511,-4.00993,-7.9957,13.2368,-6.68624,13.1798,6.0639,-2.9086,4.98105,-3.73342e-14,-4.96962e-16,4.34223,-16.7556,-66.7042,76.7938,-0.979106,-43.448,-7.56317,7.12502,-16.2897,-36.8989,-3.73342e-14,-4.96962e-16,-13.385,-18.203,87.1408,43.3839,19.6081,-19.3803,30.8673,7.12502,6.93806,60.7336,-14.1287,18.6889,26.3835,28.4825,-11.2613,-10.9628,7.67426,-21.2027,10.5685,-13.3656,73.2234,-3.09408,1.63194,-18.9148
4.60834,18.6675,5.90427,-181.067,-45.2235,180.672,8.97715,-1.27083,1.03353,2.2388,-1.69158,0.310197,-2.72913,-0.891969,-0.0693087,-8.66693,-4.14041,-8.12094,13.9774,-6.95859,13.2907,6.40356,-3.02011,5.01567,-2.52829e-15,-1.28216e-14,4.64979,-16.6754,-67.1998,76.6372,-0.534458,-43.1528,-8.34392,7.12502,-16.0055,-37.7027,-2.52829e-15,-1.28216e-14,-13.1811,-18.0907,87.1216,43.4127,19.576,-19.1816,30.6552,7.12502,7.12986,60.5151,-13.9821,18.9455,26.3889,28.6254,-11.3085,-10.6217,7.73109,-22.4049,10.2594,-13.3369,74.8928,-3.38845,1.40935,-17.7512
4.59227,18.6588,5.88434,-181.043,-44.5389,180.513,9.2059,-1.16885,0.949105,2.21048,-1.56414,0.235531,-2.88372,-0.829077,-0.107509,-8.69175,-4.19775,-8.29887,14.3298,-7.13363,13.5949,6.55593,-3.09586,5.13372,-2.4376e-14,1.06847e-14,4.89686,-16.5366,-67.6493,76.5348,-0.33645,-43.0686,-9.06064,7.12502,-15.9245,-38.4259,-2.4376e-14,1.06847e-14,-12.9999,-18.0365,87.0874,43.4768,19.5208,-19.6283,31.1331,7.12502,6.69867,61.0071,-13.8266,19.1816,26.3824,28.7282,-11.3927,-10.2559,8.01184,-23.6678,10.0174,-13.3081,76.5982,-3.75058,1.33109,-18.2577
4.57192,18.6574,5.85889,-180.96,-44.0074,180.251,9.3567,-1.09418,0.792582,2.20464,-1.48212,0.154055,-2.97078,-0.788186,-0.10986,-8.50273,-4.11903,-8.40848,14.4455,-7.1019,13.8579,6.56745,-3.08205,5.24747,2.05432e-14,-1.14301e-15,5.17772,-16.4589,-68.0446,76.3544,-0.402564,-43.1696,-9.37384,7.12502,-16.0217,-38.7314,2.05432e-14,-1.14301e-15,-12.8539,-18.057,87.0815,43.6528,19.5646,-19.9256,31.7568,7.12502,6.41169,61.6398,-13.5966,19.2753,26.3012,28.7588,-11.4301,-9.91455,8.03649,-24.893,9.61271,-13.3754,78.2595,-4.20962,1.43695,-19.4286
4.54628,18.6599,5.83899,-180.923,-43.4874,180.09,9.47068,-1.07946,0.786787,2.23344,-1.46759,0.0838463,-3.00555,-0.782316,-0.178767,-8.95236,-4.24167,-8.47936,15.0951,-7.32867,13.8222,6.88201,-3.17384,5.22748,-1.00672e-13,8.59744e-15,5.62468,-16.3392,-68.5597,76.1265,-0.356555,-43.5234,-9.34663,7.12502,-16.3624,-38.6764,-1.00672e-13,8.59744e-15,-12.6783,-17.9518,86.957,43.8567,19.5317,-19.3262,30.7524,7.12502,6.99025,60.617,-13.3848,19.243,26.2512,28.7178,-11.4005,-9.47235,8.04037,-26.1611,9.23499,-13.4055,79.8872,-4.77287,1.26013,-19.6873
4.51609,18.6633,5.82364,-181.113,-42.8792,180.358,9.51917,-1.03891,1.16357,2.24029,-1.37832,0.0849874,-3.03275,-0.741261,-0.399,-9.04756,-4.30988,-8.49914,15.3572,-7.46692,13.8425,7.0008,-3.2363,5.22568,-5.09883e-14,7.45443e-15,5.86357,-16.2335,-68.9771,75.9971,-0.121769,-43.3597,-9.75612,7.12502,-16.2048,-39.0988,-5.09883e-14,7.45443e-15,-12.5546,-18.0102,86.8871,44.1798,19.7866,-18.7011,30.2108,7.12502,7.5937,60.0544,-13.2382,19.3447,26.4935,28.6274,-11.4475,-9.10578,8.35726,-27.5402,9.02374,-13.0774,81.5032,-5.19574,1.2299,-20.021
4.48864,18.6689,5.80513,-181.299,-42.2452,180.545,9.63485,-0.941757,1.42685,2.24569,-1.22389,0.0944419,-3.09349,-0.667645,-0.553708,-9.04607,-4.37199,-8.4934,15.5391,-7.57866,13.7896,7.06978,-3.29354,5.19775,-9.98893e-14,6.06293e-15,6.00029,-16.1339,-69.2316,75.9212,-0.112606,-42.917,-10.5795,7.12502,-15.7784,-39.9564,-9.98893e-14,6.06293e-15,-12.4085,-18.2505,86.9561,44.5217,20.383,-22.8753,35.3986,7.12502,3.56349,65.3486,-12.9959,19.7546,26.7206,28.5078,-11.78,-8.99868,9.41252,-28.8354,8.87707,-12.7332,83.094,-5.37899,1.6146,-20.1166
4.46613,18.6711,5.78431,-181.333,-41.629,180.483,9.7715,-0.87038,1.43172,2.27995,-1.13154,0.0677111,-3.13214,-0.623611,-0.59344,-9.14016,-4.39917,-8.56219,15.7122,-7.62958,13.793,7.1509,-3.31708,5.20644,3.22528e-14,5.26779e-15,6.31935,-16.0506,-69.6069,75.8113,-0.295366,-42.6689,-10.7431,7.12502,-15.5395,-40.1388,3.22528e-14,5.26779e-15,-12.2819,-18.2953,86.9664,44.9544,20.7804,-24.18,37.0459,7.12502,2.30352,67.0132,-12.7356,19.8007,26.7581,28.344,-11.9689,-8.59709,9.96215,-30.0778,8.71923,-12.6015,84.6491,-5.75737,1.72653,-18.6709
4.44468,18.6696,5.76324,-181.404,-41.0026,180.478,9.87884,-0.805254,1.47107,2.33895,-1.04671,0.0154529,-3.12997,-0.583705,-0.679054,-9.25051,-4.40148,-8.59328,15.8464,-7.68045,13.9438,7.22733,-3.33009,5.25756,1.40081e-14,-4.05024e-15,6.64964,-16.0554,-70.1347,75.7469,-0.45606,-42.4813,-11.0578,7.12502,-15.3588,-40.4674,1.40081e-14,-4.05024e-15,-12.136,-18.5057,86.7903,45.4971,21.3365,-24.0458,36.5762,7.12502,2.43308,66.5421,-12.4934,19.4711,26.8357,28.1775,-11.5023,-7.81513,8.94517,-31.3922,8.62366,-12.4354,86.2326,-6.3447,1.23683,-19.0469
4.42372,18.6708,5.74639,-181.509,-40.3897,180.536,10.0208,-0.757157,1.53895,2.35751,-0.977263,0.0136452,-3.1885,-0.551472,-0.725881,-9.2937,-4.36806,-8.59723,16.0224,-7.67015,13.9676,7.29115,-3.32305,5.26941,7.59326e-14,-1.29459e-14,6.93496,-15.878,-70.5297,75.6673,-0.6348,-42.488,-11.1135,7.12502,-15.3652,-40.5225,7.59326e-14,-1.29459e-14,-11.9935,-18.587,86.6787,45.9596,21.7722,-23.8732,36.5471,7.12502,2.59979,66.511,-12.2928,19.5492,26.9369,28.075,-11.0833,-7.29908,8.97846,-32.7538,8.49606,-12.2427,87.7844,-6.7,0.934457,-21.2901
4.40331,18.6711,5.73274,-181.681,-39.7978,180.641,10.2433,-0.720645,1.74048,2.37163,-0.909297,-0.0197032,-3.29831,-0.521739,-0.879617,-9.33816,-4.33069,-8.61468,16.1779,-7.64938,13.9993,7.34822,-3.31107,5.28721,-8.0455e-14,1.0958e-14,7.19254,-15.739,-70.9251,75.5356,-0.984787,-42.5944,-11.0386,7.12502,-15.4677,-40.4398,-8.0455e-14,1.0958e-14,-11.8537,-18.6867,86.5368,46.4164,22.0325,-23.82,36.5959,7.12502,2.65117,66.5591,-12.0745,19.8352,27.0838,28.0135,-10.9661,-6.98974,9.8109,-34.0849,8.43337,-11.994,89.2993,-7.09706,0.634038,-22.7142
4.38618,18.6735,5.7213,-181.73,-39.2081,180.577,10.5288,-0.643552,1.76552,2.37736,-0.804065,-0.0422091,-3.44753,-0.472814,-0.927468,-9.29761,-4.34057,-8.65318,16.1412,-7.6408,13.9432,7.32705,-3.31467,5.27573,8.6375e-14,7.95139e-16,7.46132,-15.724,-71.2648,75.3699,-1.46546,-42.719,-10.923,7.12502,-15.5878,-40.3149,8.6375e-14,7.95139e-16,-11.6581,-18.8238,86.5028,46.8781,22.2294,-23.7986,36.3768,7.12502,2.67184,66.3399,-11.9028,19.9767,27.1273,27.9799,-10.8427,-6.71968,8.52495,-35.4008,8.36446,-11.8716,90.7318,-7.77448,-0.030382,-22.8834
4.36627,18.68,5.70861,-181.693,-38.6602,180.353,10.7236,-0.57197,1.55121,2.43841,-0.735334,-0.0173194,-3.48671,-0.439811,-0.788412,-9.40537,-4.34823,-8.75059,16.2049,-7.61408,13.8586,7.36396,-3.30623,5.26626,7.4917e-14,-1.47101e-14,7.80482,-15.6814,-71.583,75.2394,-1.69367,-42.5627,-11.1911,7.12502,-15.4372,-40.5946,7.4917e-14,-1.47101e-14,-11.4296,-18.9218,86.5091,47.4099,22.6379,-23.9236,36.1354,7.12502,2.55112,66.0999,-11.7009,20.1485,27.0435,27.9938,-10.7996,-6.52984,7.10786,-36.6518,8.25159,-11.9002,92.1054,-8.16012,-0.520442,-22.0341
4.3454,18.6884,5.69775,-181.653,-38.1008,180.189,10.8889,-0.518441,1.52362,2.46501,-0.672439,-0.102186,-3.54924,-0.410702,-0.86812,-9.53061,-4.32207,-8.7146,16.3389,-7.59708,13.8504,7.42608,-3.29142,5.25935,-6.03249e-14,8.39865e-15,7.94203,-15.7071,-72.0273,75.2229,-1.74293,-42.2074,-11.1842,7.12502,-15.095,-40.6138,-6.03249e-14,8.39865e-15,-11.2601,-19.0714,86.3296,47.9486,23.0607,-23.8242,35.8752,7.12502,2.64718,65.8385,-11.5701,20.4121,26.9482,28.0104,-10.8617,-6.31174,7.37216,-37.9487,8.1354,-11.9016,93.4413,-8.17245,-0.765963,-19.8665
4.32452,18.6931,5.69124,-181.542,-37.5507,180.026,11.0538,-0.495575,1.57149,2.46827,-0.641168,-0.205663,-3.63753,-0.39774,-1.00553,-9.74444,-4.26409,-8.72498,16.526,-7.52772,13.848,7.51693,-3.24889,5.26808,9.71933e-14,2.68359e-15,8.07833,-15.6337,-72.4496,75.1824,-1.77194,-41.7184,-10.8848,7.12502,-14.6239,-40.3491,9.71933e-14,2.68359e-15,-11.0442,-19.1535,86.103,48.5102,23.3679,-23.6103,35.433,7.12502,2.85368,65.3937,-11.5294,20.5021,26.7903,27.9841,-10.9448,-5.89263,7.96014,-39.3579,8.12103,-11.9458,94.7316,-8.19558,-1.11359,-18.6266
4.30482,18.6952,5.68168,-181.603,-37.0511,180.133,11.2113,-0.49598,1.73203,2.45156,-0.621992,-0.199816,-3.74247,-0.391406,-1.09122,-9.76484,-4.15796,-8.6875,16.5766,-7.38154,13.7956,7.51493,-3.18002,5.26036,1.1404e-13,-1.52319e-14,8.23803,-15.4434,-72.7464,75.0648,-1.76122,-41.2986,-10.7007,7.12502,-14.2193,-40.194,1.1404e-13,-1.52319e-14,-10.8403,-19.2962,85.9423,49.0341,23.6818,-23.5036,35.1661,7.12502,2.95674,65.1253,-11.4218,20.766,26.9054,27.9269,-10.9849,-5.71812,8.14551,-40.7881,8.14569,-11.735,95.9865,-8.5733,-1.7064,-19.2705
4.2862,18.7047,5.66565,-181.574,-36.6481,179.927,11.378,-0.504445,1.57719,2.47025,-0.655037,-0.258628,-3.81513,-0.408624,-1.05905,-9.62134,-4.05316,-8.55749,16.4569,-7.22836,13.6918,7.42217,-3.11431,5.21874,2.64974e-14,-3.40419e-15,8.40796,-15.1683,-73.0167,74.9546,-1.70337,-41.0369,-10.6795,7.12502,-13.9672,-40.1903,2.64974e-14,-3.40419e-15,-10.5813,-19.395,85.7531,49.4876,24.0569,-23.4823,34.9492,7.12502,2.97735,64.9081,-11.181,21.1289,26.8123,27.8972,-11.0091,-5.73823,7.89966,-42.0227,8.04013,-11.8354,97.0995,-9.07822,-2.14291,-20.2013
4.26406,18.7184,5.65011,-181.345,-36.152,179.372,11.4617,-0.463469,1.11931,2.55683,-0.666092,-0.357623,-3.76794,-0.412652,-0.901959,-9.6768,-3.96351,-8.51224,16.4647,-7.07933,13.5746,7.4103,-3.04523,5.18652,8.14582e-14,-1.31695e-15,8.66097,-14.8565,-73.2128,74.8285,-1.56607,-40.8415,-10.6997,7.12502,-13.7789,-40.2234,8.14582e-14,-1.31695e-15,-10.3005,-19.4113,85.5644,50.0958,24.4031,-23.3615,34.7458,7.12502,3.09395,64.7031,-10.9715,21.3202,26.3691,27.8833,-11.0245,-5.42881,8.03847,-43.1209,8.0162,-12.2857,98.0995,-9.47789,-2.36252,-20.8348
4.24278,18.7237,5.64298,-181.245,-35.5139,179.166,11.5815,-0.384527,0.992573,2.60855,-0.583165,-0.388124,-3.77712,-0.373085,-0.873532,-9.87772,-3.90106,-8.60972,16.5668,-6.97463,13.5893,7.47072,-2.98952,5.21923,1.00014e-15,-2.98177e-15,8.80649,-14.5715,-73.3452,74.7685,-1.36884,-40.8127,-10.7959,7.12502,-13.7511,-40.3215,1.00014e-15,-2.98177e-15,-10.0185,-19.465,85.3879,50.742,24.6409,-23.1891,34.2414,7.12502,3.26045,64.1962,-10.9392,21.3986,26.1679,27.9155,-10.9792,-4.85862,8.35767,-44.418,8.21218,-12.4143,99.1699,-9.74184,-2.67793,-21.2433
4.22478,18.7222,5.64469,-181.236,-34.8703,179.278,11.7966,-0.348404,1.24854,2.53383,-0.503213,-0.438531,-3.97382,-0.337198,-1.08062,-9.82012,-3.83181,-8.55272,16.5326,-6.88878,13.582,7.43622,-2.94982,5.21601,-1.24439e-13,3.2551e-15,8.78557,-14.2736,-73.5923,74.7072,-1.06429,-40.9118,-10.7286,7.12502,-13.8467,-40.2477,-1.24439e-13,3.2551e-15,-9.75836,-19.6446,85.0909,51.281,24.9212,-22.9543,33.9566,7.12502,3.48722,63.9078,-11.0711,21.4491,26.1936,27.9861,-10.9843,-4.29508,8.45699,-45.9653,8.43451,-12.2978,100.274,-10.0026,-3.04563,-21.3815
4.2096,18.7224,5.6454,-181.158,-34.2648,179.251,11.9146,-0.299166,1.33862,2.52848,-0.431363,-0.513256,-4.04333,-0.304425,-1.2196,-9.72087,-3.79133,-8.471,16.3938,-6.82508,13.5424,7.36148,-2.92289,5.19368,-1.98381e-14,-6.88292e-15,8.95265,-13.9913,-73.8324,74.5036,-0.75733,-41.0967,-9.95935,7.12502,-14.0248,-39.4662,-1.98381e-14,-6.88292e-15,-9.37553,-19.7905,84.7805,51.7907,25.1831,-22.9563,33.6561,7.12502,3.48528,63.6073,-11.2,21.6849,26.1172,28.0874,-11.0569,-3.96558,8.85803,-47.4495,8.65338,-12.3416,101.287,-10.3107,-3.40407,-21.3298
4.19313,18.7288,5.64198,-181.041,-33.6963,178.997,11.9244,-0.227353,1.12087,2.65619,-0.376559,-0.574265,-3.91289,-0.278223,-1.16867,-9.78431,-3.76446,-8.42598,16.3268,-6.76388,13.4801,7.34046,-2.89183,5.16934,2.56091e-14,-1.19271e-14,9.31486,-13.6364,-74.0249,74.2364,-0.370821,-41.0458,-9.55074,7.12502,-13.9758,-39.061,2.56091e-14,-1.19271e-14,-8.81792,-19.8811,84.4606,52.2542,25.3933,-22.8495,33.3339,7.12502,3.58844,63.2834,-11.2092,21.9815,25.8833,28.1884,-11.0081,-3.73095,8.66721,-48.7027,8.78961,-12.6195,102.143,-10.5825,-3.74847,-22.2566
4.17831,18.7348,5.63977,-180.842,-33.1859,178.626,11.9709,-0.17485,0.822281,2.76709,-0.35837,-0.67211,-3.82135,-0.270245,-1.10475,-9.89863,-3.72376,-8.33309,16.262,-6.68183,13.3909,7.3246,-2.84742,5.12928,5.93869e-14,-1.02623e-14,9.62736,-13.3256,-74.2482,74.0539,0.102056,-41.4889,-9.12932,7.12502,-14.4027,-38.6096,5.93869e-14,-1.02623e-14,-8.22454,-19.9104,84.093,52.7301,25.5209,-21.8549,31.9898,7.12502,4.54887,61.9209,-11.2371,22.3845,25.5357,28.2953,-10.8749,-3.61546,7.95592,-50.0317,8.85904,-13.0389,102.934,-10.7763,-4.05944,-22.4522
4.16188,18.7348,5.64044,-180.791,-32.7977,178.595,12.1663,-0.214348,0.93982,2.74545,-0.402013,-0.766691,-3.95357,-0.295121,-1.26243,-9.93856,-3.6589,-8.17922,16.2404,-6.59136,13.2893,7.30575,-2.80114,5.07682,-5.67714e-14,3.33353e-15,9.65314,-12.9955,-74.4801,73.9482,0.625164,-42.3697,-8.84975,7.12502,-15.2513,-38.2675,-5.67714e-14,3.33353e-15,-7.7967,-19.9585,83.7131,53.2286,25.6383,-19.578,28.7003,7.12502,6.74718,58.5728,-11.273,22.7343,25.4772,28.3481,-10.8203,-3.57474,7.57195,-51.4715,8.81514,-13.1593,103.707,-10.9822,-4.45678,-22.9324
4.14508,18.7357,5.63919,-180.786,-32.4275,178.626,12.3606,-0.246664,1.03397,2.71046,-0.433941,-0.788727,-4.09847,-0.313502,-1.33292,-9.89463,-3.6153,-8.19077,16.2016,-6.51902,13.2574,7.27581,-2.77171,5.0754,-1.08829e-13,1.49741e-14,9.59154,-12.5644,-74.5788,73.7702,1.23594,-42.118,-8.73411,7.12502,-15.0088,-38.1702,-1.08829e-13,1.49741e-14,-7.40669,-20.0865,83.4015,53.7634,25.967,-19.4541,28.8546,7.12502,6.86685,58.7233,-11.2639,22.9936,25.4834,28.3425,-10.7905,-3.48162,7.48602,-52.8347,8.73824,-13.1933,104.392,-11.0101,-4.89586,-22.087
4.12796,18.7416,5.63283,-180.787,-32.0897,178.326,12.6512,-0.260341,0.777929,2.74011,-0.495801,-0.862836,-4.22786,-0.345971,-1.25465,-9.84778,-3.57127,-8.23425,16.2009,-6.46082,13.2812,7.26204,-2.74782,5.09745,-1.31251e-13,1.33869e-14,9.58931,-12.0139,-74.625,73.5615,1.67932,-42.5102,-8.75217,7.12502,-15.3867,-38.1596,-1.31251e-13,1.33869e-14,-6.99209,-20.1242,83.0494,54.2101,26.1486,-21.081,31.2514,7.12502,5.29613,61.1652,-11.0003,23.126,25.2456,28.2759,-10.7276,-3.24774,7.99819,-53.8716,8.59559,-13.5737,104.953,-11.2769,-5.24226,-22.1809
4.11113,18.7484,5.62508,-180.805,-31.7944,178.12,12.8323,-0.297231,0.596667,2.80595,-0.581295,-0.936754,-4.25988,-0.390568,-1.2148,-9.77883,-3.49878,-8.04351,16.1002,-6.35367,13.1379,7.19404,-2.69933,5.02594,-9.31834e-14,-9.44227e-16,9.63822,-11.5021,-74.7457,73.4388,1.81437,-43.4807,-8.66766,7.12502,-16.3212,-38.0008,-9.31834e-14,-9.44227e-16,-6.48837,-20.069,82.6445,54.6233,26.1798,-19.5035,28.8989,7.12502,6.81916,58.7691,-10.7645,23.3816,25.0848,28.2097,-10.6735,-3.13448,8.75954,-54.9553,8.45042,-13.9063,105.441,-11.5618,-5.57498,-22.8048
4.0948,18.7515,5.62203,-180.788,-31.487,178.185,12.887,-0.349546,0.7019,2.8074,-0.639844,-0.968179,-4.29113,-0.421608,-1.29724,-9.71781,-3.41066,-7.89603,16.0874,-6.24663,13.0603,7.15936,-2.64916,4.98549,-6.99039e-14,8.4732e-15,9.56952,-11.0205,-74.877,73.4201,2.17081,-43.4276,-8.89765,7.12502,-16.2701,-38.235,-6.99039e-14,8.4732e-15,-5.92491,-20.0161,82.2509,55.0166,26.3082,-19.6189,28.7252,7.12502,6.70776,58.599,-10.7775,23.7039,25.1101,28.1947,-10.6892,-3.16453,8.77241,-56.3121,8.33994,-14.0085,105.912,-11.6696,-5.99615,-23.3535
4.07664,18.7556,5.62383,-180.637,-31.1197,178.009,12.9905,-0.355283,0.633396,2.80822,-0.663343,-1.03547,-4.34786,-0.434482,-1.3244,-9.72507,-3.3805,-7.95633,16.0322,-6.1913,13.0942,7.13937,-2.62351,5.01203,-1.12866e-13,1.41634e-14,9.61027,-10.5509,-74.9365,73.3353,2.57958,-43.1931,-9.26267,7.12502,-16.0443,-38.6184,-1.12866e-13,1.41634e-14,-5.33896,-19.956,81.9323,55.4184,26.3898,-19.7405,28.7293,7.12502,6.59037,58.6067,-10.858,24.0005,24.8664,28.2356,-10.7127,-3.02257,9.1574,-57.6331,8.16785,-14.3965,106.33,-11.8525,-6.27759,-23.1163
4.05651,18.7592,5.62379,-180.571,-30.7235,177.782,13.146,-0.332487,0.446104,2.85791,-0.668061,-1.06441,-4.37963,-0.438347,-1.24707,-9.77271,-3.38924,-8.01595,15.9492,-6.153,13.0093,7.11613,-2.61041,4.99594,1.45312e-13,-2.38293e-14,9.81828,-10.1589,-74.9472,73.2551,2.61563,-43.6518,-9.27512,7.12502,-16.486,-38.5947,1.45312e-13,-2.38293e-14,-4.70738,-19.8855,81.6398,55.8198,26.4818,-20.0014,28.9261,7.12502,6.33844,58.8113,-10.8042,24.0319,24.645,28.3031,-10.8282,-2.74733,8.61484,-58.7379,8.02525,-14.845,106.692,-12.2824,-6.52294,-23.6667
4.03778,18.7623,5.62373,-180.569,-30.3598,177.691,13.2878,-0.317782,0.3914,2.89259,-0.663728,-1.08595,-4.42047,-0.438488,-1.23853,-9.67564,-3.40117,-8.0319,15.8061,-6.13309,12.9297,7.04858,-2.61075,4.97257,1.22222e-14,2.62147e-15,9.98113,-9.83073,-74.9535,73.2198,2.62278,-44.2444,-9.40619,7.12502,-17.0564,-38.6774,1.22222e-14,2.62147e-15,-4.06372,-19.8641,81.3355,56.1637,26.6104,-20.375,28.9881,7.12502,5.97777,58.8838,-10.7593,24.0905,24.5509,28.3656,-10.9141,-2.53851,8.11548,-59.8339,7.86905,-15.1821,106.972,-12.7406,-6.69289,-24.2858
4.02109,18.7652,5.62556,-180.57,-30.0046,177.75,13.3752,-0.311366,0.511465,2.91117,-0.642931,-1.09703,-4.44945,-0.4312,-1.32103,-9.55302,-3.38686,-8.08024,15.646,-6.0876,12.9267,6.97144,-2.59696,4.98318,4.84134e-14,-1.60519e-14,10.0693,-9.51225,-74.971,73.1819,2.89022,-44.1448,-9.34701,7.12502,-16.9606,-38.6265,4.84134e-14,-1.60519e-14,-3.29474,-19.8963,80.9836,56.3744,26.7532,-20.6456,29.0333,7.12502,5.71652,58.9362,-10.7954,24.5628,24.5612,28.4093,-10.9444,-2.65048,8.15119,-61.0173,7.77652,-15.3825,107.195,-13.1633,-7.00855,-24.3235
4.00287,18.7672,5.62983,-180.531,-29.5948,177.723,13.4088,-0.288023,0.545043,2.97559,-0.614579,-1.10827,-4.39974,-0.420098,-1.35644,-9.54005,-3.35644,-8.15466,15.5297,-6.01018,12.9189,6.925,-2.56383,4.99956,5.18145e-14,9.64106e-15,10.236,-9.22857,-75.0127,73.1748,3.15366,-43.8271,-9.0592,7.12502,-16.6548,-38.3647,5.18145e-14,9.64106e-15,-2.5527,-19.8205,80.6444,56.6747,26.7244,-20.6416,29.2015,7.12502,5.72037,59.1043,-10.7736,25.1291,24.473,28.3237,-10.9317,-2.75502,8.23881,-62.1443,7.74087,-15.6646,107.379,-13.5207,-7.66485,-23.288
3.98214,18.7708,5.63141,-180.519,-29.1911,177.64,13.5278,-0.261387,0.559501,3.0006,-0.58528,-1.15217,-4.43822,-0.408486,-1.415,-9.53693,-3.33832,-8.03625,15.5207,-5.95597,12.6964,6.90533,-2.54516,4.90989,1.44429e-15,1.96176e-14,10.3291,-8.99261,-75.0623,73.2422,3.12346,-43.8716,-8.80922,7.12502,-16.6976,-38.1111,1.44429e-15,1.96176e-14,-2.01264,-19.7325,80.3622,57.0445,26.7606,-20.5914,28.9801,7.12502,5.76887,58.8816,-10.637,25.4586,24.3331,28.1029,-10.8227,-2.60103,8.86563,-63.1478,7.76336,-16.0659,107.517,-14.101,-7.80785,-23.569
3.96185,18.7837,5.63026,-180.654,-28.7623,177.69,13.758,-0.261746,0.693521,3.00491,-0.574348,-1.18665,-4.56051,-0.40774,-1.52783,-9.48963,-3.28819,-7.90484,15.5261,-5.87885,12.5248,6.88095,-2.5146,4.83793,2.97121e-14,1.09083e-14,10.4506,-8.70176,-75.183,73.2311,3.11394,-43.8235,-8.64189,7.12502,-16.6513,-37.9476,2.97121e-14,1.09083e-14,-1.47807,-19.662,80.0036,57.3809,26.9702,-20.4631,28.8485,7.12502,5.89271,58.7466,-10.3092,26.1928,24.4105,27.818,-10.7829,-2.84161,9.37317,-63.9355,7.93263,-16.2985,107.546,-14.6022,-8.10908,-23.2526
3.94349,18.8018,5.6319,-180.701,-28.3462,177.752,13.9065,-0.26472,0.807341,2.98008,-0.563183,-1.18517,-4.66815,-0.40488,-1.59203,-9.40628,-3.22692,-7.88922,15.5086,-5.78115,12.4315,6.84615,-2.47661,4.81417,2.38231e-15,9.19379e-16,10.6021,-8.37127,-75.2991,73.1704,3.2446,-43.7801,-8.6411,7.12502,-16.6095,-37.9504,2.38231e-15,9.19379e-16,-0.891568,-19.5949,79.6764,57.6424,27.1777,-20.3128,28.4782,7.12502,6.03788,58.3721,-10.0805,27.2119,24.499,27.57,-10.9047,-3.44499,9.38694,-64.7255,7.93174,-16.5161,107.48,-14.8044,-8.12581,-22.0599
3.92375,18.8044,5.63532,-180.739,-27.9268,177.901,13.9812,-0.238227,1.00721,2.96659,-0.496375,-1.13432,-4.72158,-0.374634,-1.66336,-9.27446,-3.18331,-7.98794,15.4146,-5.68724,12.382,6.78322,-2.44466,4.82368,2.10619e-14,-2.01269e-15,10.7487,-8.15842,-75.3595,73.1582,3.28963,-43.6907,-8.71205,7.12502,-16.5234,-38.0285,2.10619e-14,-2.01269e-15,-0.258113,-19.5709,79.4699,57.8582,27.2055,-20.4878,28.3292,7.12502,5.86883,58.2279,-10.0094,27.7773,24.5889,27.3916,-11.1347,-3.59627,10.0538,-65.6068,7.66925,-16.635,107.439,-15.0742,-7.94291,-21.9386
3.9039,18.7966,5.6355,-180.771,-27.51,177.9,14.0479,-0.192395,1.01335,3.01334,-0.439172,-1.10973,-4.70644,-0.348647,-1.6509,-9.26803,-3.13895,-7.96613,15.3769,-5.58744,12.2201,6.75394,-2.40481,4.77522,6.08339e-14,2.48481e-17,10.8716,-7.94913,-75.428,73.2193,3.21687,-43.5838,-8.72679,7.12502,-16.4205,-38.0518,6.08339e-14,2.48481e-17,0.482305,-19.45,79.2372,58.0488,27.1905,-20.5407,28.3067,7.12502,5.81778,58.2069,-9.9975,27.5853,24.5147,27.3531,-11.1291,-3.023,10.208,-66.4478,7.40662,-16.9005,107.422,-15.5491,-7.82925,-22.8188
3.87926,18.7872,5.63258,-180.801,-27.1318,177.747,14.1413,-0.146624,0.915315,3.07567,-0.402093,-1.12697,-4.69001,-0.332575,-1.61977,-9.35832,-3.08691,-7.90547,15.4611,-5.48575,12.016,6.77842,-2.36105,4.70716,-6.56952e-14,8.07563e-15,10.9483,-7.73429,-75.4732,73.2913,3.12671,-43.5971,-8.70039,7.12502,-16.4333,-38.0243,-6.56952e-14,8.07563e-15,1.14071,-19.3242,79.027,58.3205,27.1763,-20.54,28.4069,7.12502,5.81846,58.3071,-9.96864,26.8542,24.287,27.4617,-10.9959,-1.95397,9.55616,-67.1253,7.23538,-17.3205,107.368,-16.0599,-7.92249,-23.3481
3.85605,18.7811,5.62882,-180.785,-26.8304,177.7,14.2337,-0.154985,0.912603,3.02657,-0.412894,-1.1444,-4.79273,-0.338287,-1.63451,-9.30812,-3.01372,-7.89066,15.549,-5.38899,11.9362,6.78399,-2.32197,4.68894,1.20637e-14,-7.74018e-15,10.9491,-7.55853,-75.6138,73.3199,3.11459,-43.4989,-8.50164,7.12502,-16.3388,-37.8334,1.20637e-14,-7.74018e-15,1.56574,-19.2877,78.7732,58.6963,27.2343,-20.7553,28.2854,7.12502,5.6106,58.1911,-10.0304,26.4594,24.1502,27.6066,-11.0133,-1.29975,8.97791,-67.8704,7.07965,-17.6539,107.246,-16.5841,-8.21969,-24.1387
3.83596,18.7793,5.62762,-180.761,-26.523,177.626,14.3827,-0.165104,0.867283,2.96308,-0.43246,-1.16463,-4.9417,-0.348156,-1.62634,-9.23517,-2.93844,-7.87692,15.6264,-5.29106,11.8617,6.78229,-2.28319,4.67273,2.50966e-14,5.00689e-15,11.0009,-7.30295,-75.7307,73.2651,3.08614,-43.1281,-8.34347,7.12502,-15.9817,-37.7042,2.50966e-14,5.00689e-15,2.07749,-19.2977,78.4798,58.9747,27.4373,-20.965,28.6736,7.12502,5.40816,58.5846,-10.0711,26.2466,23.9913,27.6637,-11.1041,-0.77883,8.88483,-68.5429,6.91823,-18.0071,107.006,-16.8213,-8.70511,-23.9688
3.81253,18.7793,5.62326,-180.762,-26.171,177.591,14.358,-0.145276,0.856009,3.01122,-0.411558,-1.14861,-4.87643,-0.33894,-1.60683,-9.25049,-2.88405,-7.76111,15.6238,-5.17362,11.5855,6.76183,-2.23652,4.57213,-4.71555e-14,2.06985e-14,11.1759,-7.06166,-75.7995,73.1807,3.03328,-42.9945,-8.09771,7.12502,-15.8531,-37.4687,-4.71555e-14,2.06985e-14,2.78784,-19.203,78.1924,59.222,27.5798,-21.113,28.9549,7.12502,5.26528,58.8695,-10.0566,25.8657,23.8711,27.6623,-11.1978,-0.0869927,8.84915,-69.0469,6.72511,-18.2915,106.674,-16.8635,-9.35911,-22.6404
3.78998,18.7814,5.61752,-180.808,-25.7804,177.783,14.2774,-0.103852,1.0965,3.03363,-0.319816,-1.11463,-4.80603,-0.296208,-1.72408,-9.2098,-2.83442,-7.57363,15.5528,-5.07116,11.3094,6.71017,-2.19556,4.45756,7.33453e-14,-1.19022e-14,11.2955,-6.98422,-75.89,73.1095,3.01855,-43.1097,-7.69332,7.12502,-15.964,-37.0555,7.33453e-14,-1.19022e-14,3.38843,-19.2373,77.8642,59.5892,27.5275,-21.4106,29.1907,7.12502,4.97789,59.1122,-10.0373,25.8362,23.9896,27.6071,-11.2111,0.269479,8.53488,-69.5496,6.61148,-18.3385,106.283,-17.0397,-9.89137,-22.2979
3.77152,18.7791,5.61264,-180.808,-25.4108,177.843,14.2585,-0.0509467,1.11762,3.0332,-0.243525,-1.05645,-4.79303,-0.258526,-1.68863,-9.21786,-2.78999,-7.45716,15.5747,-4.97675,11.049,6.69994,-2.15979,4.36067,5.95236e-14,-3.23025e-15,11.4405,-6.90937,-75.9673,73.0136,3.06169,-43.1723,-7.24698,7.12502,-16.0243,-36.6043,5.95236e-14,-3.23025e-15,3.96761,-19.2261,77.6386,59.8909,27.5486,-21.6834,28.9998,7.12502,4.71444,58.9273,-9.98192,25.9983,23.9916,27.482,-11.13,0.443905,8.66893,-70.0126,6.49112,-18.5277,105.841,-17.2855,-10.2439,-22.5293
3.75248,18.7824,5.60728,-180.829,-25.0686,177.8,14.3308,-0.0309674,1.03308,3.02973,-0.230324,-1.03776,-4.83542,-0.252159,-1.62345,-9.19187,-2.719,-7.36914,15.5849,-4.86919,10.9104,6.68237,-2.11367,4.31013,3.3781e-14,-2.03754e-15,11.5979,-6.75029,-76.1137,72.8964,3.05862,-43.2711,-7.25821,7.12502,-16.1194,-36.6078,3.3781e-14,-2.03754e-15,4.5292,-19.1734,77.3923,60.1128,27.8619,-22.3793,29.0073,7.12502,4.04248,58.9487,-9.83887,25.9996,23.9109,27.3128,-11.1346,0.77447,8.9242,-70.2827,6.28712,-18.7762,105.343,-17.4795,-10.7433,-22.3304
3.73122,18.7897,5.59984,-180.899,-24.7153,177.886,14.3736,-0.0460326,1.15211,3.03881,-0.235538,-1.05058,-4.84956,-0.257432,-1.70338,-9.27587,-2.63278,-7.31484,15.6799,-4.76035,10.8783,6.71452,-2.05833,4.3009,1.48032e-14,1.42628e-14,11.7508,-6.63876,-76.3994,72.78,3.08331,-43.2158,-7.24935,7.12502,-16.0661,-36.6033,1.48032e-14,1.42628e-14,5.14849,-19.1102,76.9743,60.3796,28.46,-22.5265,28.6713,7.12502,3.90035,58.6153,-9.69952,26.0946,23.9693,27.1915,-11.2724,1.0069,9.61655,-70.5232,6.12526,-18.852,104.847,-17.5736,-11.0783,-22.6763
3.71283,18.793,5.59445,-180.915,-24.3804,177.941,14.382,-0.0560697,1.1783,3.03853,-0.245181,-1.03891,-4.85481,-0.262921,-1.70415,-9.29902,-2.54536,-7.27307,15.7125,-4.63358,10.8014,6.71367,-1.99961,4.28035,-2.74199e-14,8.69683e-15,11.9351,-6.48809,-76.6416,72.6212,3.11251,-43.209,-6.98812,7.12502,-16.0596,-36.3426,-2.74199e-14,8.69683e-15,5.84439,-18.9624,76.5634,60.6051,29.1182,-22.201,28.1568,7.12502,4.21465,58.0949,-9.62407,26.1989,23.969,27.071,-11.3416,1.23599,10.3005,-70.7769,5.91972,-18.9371,104.322,-17.6682,-11.2036,-23.2698
3.69109,18.7914,5.58929,-180.935,-24.1596,177.95,14.4167,-0.0771073,1.14546,3.04761,-0.276572,-0.987614,-4.86501,-0.278509,-1.62571,-9.3249,-2.49019,-7.40728,15.693,-4.53906,10.8569,6.70664,-1.95618,4.33003,-2.05245e-14,1.30204e-14,12.0899,-6.3522,-76.7712,72.5323,3.10752,-43.1394,-6.70778,7.12502,-15.9926,-36.0676,-2.05245e-14,1.30204e-14,6.50779,-18.8164,76.2934,60.7639,29.3905,-22.0296,27.7913,7.12502,4.3802,57.726,-9.52294,26.1174,23.9103,26.9502,-11.3607,1.60808,10.7946,-70.9234,5.58165,-19.0852,103.766,-17.6781,-11.4292,-23.0508
3.66469,18.7957,5.58144,-180.951,-23.9363,177.961,14.4379,-0.100958,1.2103,3.04345,-0.297259,-0.963638,-4.88177,-0.289714,-1.63339,-9.34722,-2.48705,-7.64172,15.6485,-4.51595,11.0103,6.70222,-1.94604,4.42234,-1.63749e-14,7.40473e-15,12.1354,-6.24452,-76.8833,72.4941,3.07183,-42.9932,-6.33311,7.12502,-15.8518,-35.7042,-1.63749e-14,7.40473e-15,7.09562,-18.8252,76.0409,60.9432,29.4249,-22.5158,28.0611,7.12502,3.9107,58.005,-9.4059,25.9758,23.8482,26.8538,-11.3212,1.98968,10.5203,-70.9734,5.25939,-19.2209,103.186,-17.4944,-11.9434,-21.9451
3.64105,18.8025,5.56883,-181.007,-23.7036,177.887,14.455,-0.105947,1.11519,3.08451,-0.322329,-0.951734,-4.84837,-0.302435,-1.56221,-9.36196,-2.48629,-7.71429,15.5781,-4.48969,11.009,6.6814,-1.93583,4.43577,-3.11843e-14,6.75868e-15,12.2072,-6.12128,-77.0221,72.4225,2.99195,-43.1018,-6.12963,7.12502,-15.9564,-35.4924,-3.11843e-14,6.75868e-15,7.70302,-18.9626,75.6903,61.1015,29.0963,-23.6631,29.0778,7.12502,2.80277,59.0391,-9.16993,26.0252,23.78,26.7657,-11.2378,2.11325,9.91486,-70.8344,4.95158,-19.406,102.573,-17.3868,-12.3697,-21.7313
3.62237,18.8056,5.55752,-181.116,-23.439,177.929,14.491,-0.118616,1.07239,3.13305,-0.350006,-0.928749,-4.81746,-0.317511,-1.50848,-9.40825,-2.42899,-7.63846,15.5371,-4.39855,10.9356,6.66434,-1.8905,4.40609,3.65764e-14,2.33572e-15,12.3095,-6.02563,-77.2798,72.3336,2.94194,-43.1028,-6.04122,7.12502,-15.9573,-35.4039,3.65764e-14,2.33572e-15,8.21816,-18.8414,75.2554,61.4061,29.2307,-23.4862,29.059,7.12502,2.97353,59.018,-8.93157,26.1482,23.8503,26.644,-11.2614,2.20719,9.77875,-70.7223,4.74249,-19.4652,101.952,-17.1694,-12.5045,-22.1555
3.60484,18.8016,5.54874,-181.212,-23.158,178.06,14.5094,-0.125684,1.07181,3.2069,-0.362494,-0.848671,-4.74937,-0.3257,-1.42141,-9.61687,-2.38946,-7.571,15.5157,-4.30649,10.8121,6.68179,-1.84105,4.36104,8.98631e-14,-1.37161e-14,12.5474,-5.93867,-77.4904,72.2035,2.9237,-42.9308,-6.00564,7.12502,-15.7917,-35.3815,8.98631e-14,-1.37161e-14,8.81576,-18.6138,74.9078,61.6737,29.2826,-23.4323,28.8009,7.12502,3.02565,58.7592,-8.74242,26.2537,23.9826,26.4841,-11.3169,2.37691,9.79612,-70.7162,4.53148,-19.4151,101.361,-16.7104,-12.5628,-22.0515
3.58334,18.8034,5.53758,-181.097,-22.9619,178.029,14.3768,-0.14061,1.02802,3.16602,-0.384444,-0.858912,-4.72097,-0.333605,-1.40375,-9.59238,-2.37288,-7.64758,15.4703,-4.28538,10.9035,6.66418,-1.83002,4.40573,-5.23425e-14,8.64713e-15,12.5443,-5.96179,-77.7084,72.1582,2.9537,-42.7755,-5.81877,7.12502,-15.6421,-35.2064,-5.23425e-14,8.64713e-15,9.73609,-18.5777,74.562,61.4855,29.3462,-23.4414,28.7231,7.12502,3.01687,58.6815,-8.72407,26.2788,23.8581,26.3151,-11.248,2.57567,9.52692,-70.7679,4.1024,-19.485,100.732,-15.8838,-12.7937,-20.847
3.56129,18.8121,5.52266,-181.002,-22.8392,178.055,14.2697,-0.177106,1.04136,3.06594,-0.419486,-0.846065,-4.76935,-0.347013,-1.39186,-9.50161,-2.35717,-7.84245,15.4943,-4.27832,11.0784,6.66189,-1.83035,4.49826,-7.14382e-15,-3.27995e-15,12.3611,-5.961,-77.8637,72.2018,2.89421,-42.6433,-5.12577,7.12502,-15.5149,-34.5233,-7.14382e-15,-3.27995e-15,9.76065,-18.5629,74.3424,62.03,29.3786,-23.5007,28.7892,7.12502,2.95954,58.7484,-8.67233,26.3863,23.8006,26.1327,-11.1526,2.68136,9.76087,-70.7828,3.69291,-19.4959,100.056,-14.6784,-13.2426,-19.6161
3.54015,18.8159,5.50492,-181.054,-22.7198,178.106,14.2254,-0.191227,1.05519,3.098,-0.438201,-0.834764,-4.71195,-0.356815,-1.38455,-9.59798,-2.39709,-7.89341,15.4746,-4.33148,11.1656,6.68122,-1.84905,4.53026,6.48038e-14,-6.95746e-16,12.3903,-6.05644,-78.0344,72.1595,2.89168,-42.3607,-4.48853,7.12502,-15.2426,-33.907,6.48038e-14,-6.95746e-16,10.4217,-18.5621,73.9653,62.0974,29.5093,-23.3895,28.5669,7.12502,3.06694,58.5246,-8.42654,26.4149,23.8655,25.9366,-11.2015,2.80206,9.84769,-70.5873,3.3752,-19.4659,99.3958,-13.2688,-13.754,-18.6189
3.51766,18.8189,5.48872,-181.183,-22.5653,178.141,14.2328,-0.222693,1.07177,3.17457,-0.484772,-0.827038,-4.63674,-0.382349,-1.37736,-9.78712,-2.43719,-7.93634,15.547,-4.38705,11.2321,6.74604,-1.86688,4.55476,7.71533e-15,6.26172e-15,12.5089,-6.06498,-78.2248,72.0858,2.92258,-42.3899,-3.86194,7.12502,-15.2708,-33.2782,7.71533e-15,6.26172e-15,11.4648,-18.5148,73.4942,61.8531,29.7464,-23.3928,28.6724,7.12502,3.06373,58.6301,-8.09263,26.2614,23.9371,25.7377,-11.2185,3.06747,9.82326,-70.2236,3.09345,-19.4562,98.7089,-11.5661,-14.3392,-16.6954
3.49794,18.8252,5.47623,-181.185,-22.3436,178.094,14.3262,-0.228419,0.986752,3.09823,-0.499458,-0.820548,-4.76813,-0.387911,-1.31929,-9.74583,-2.48239,-8.1787,15.5509,-4.44956,11.4144,6.75509,-1.90029,4.65127,-3.06874e-15,7.85199e-15,12.3442,-6.08197,-78.4299,72.1468,2.95265,-42.2356,-3.13506,7.12502,-15.1221,-32.5626,-3.06874e-15,7.85199e-15,12.279,-18.4372,73.182,61.648,29.8954,-23.4573,29.153,7.12502,3.0015,59.1116,-7.915,26.2464,23.8558,25.556,-11.2219,3.3057,10.1935,-69.9495,2.87722,-19.5083,98.0129,-9.73808,-15.0759,-14.238
3.47699,18.8299,5.46181,-181.06,-22.1654,178.029,14.3259,-0.225951,0.897936,2.96814,-0.500193,-0.853605,-4.90508,-0.384011,-1.30363,-9.67034,-2.54128,-8.32909,15.5559,-4.54969,11.5806,6.76052,-1.95009,4.72331,2.0363e-14,1.39149e-15,12.125,-6.18709,-78.6585,72.2027,2.94465,-41.9595,-2.64194,7.12502,-14.8562,-32.0893,2.0363e-14,1.39149e-15,12.7859,-18.4646,72.8622,61.6968,30.1087,-23.4053,28.9571,7.12502,3.05172,58.915,-7.8873,26.381,23.6871,25.3721,-11.255,3.45588,10.9634,-69.777,2.58532,-19.5869,97.3883,-8.32681,-15.5527,-12.982
3.45439,18.8355,5.44464,-181.048,-22.055,178.09,14.201,-0.259633,0.931461,2.97142,-0.540383,-0.881747,-4.8351,-0.403246,-1.34548,-9.8117,-2.59068,-8.45818,15.625,-4.64327,11.8149,6.82583,-1.98247,4.81518,3.11346e-14,-9.49197e-15,12.0675,-6.28366,-78.9328,72.2306,2.86182,-41.7101,-2.24116,7.12502,-14.6159,-31.7061,3.11346e-14,-9.49197e-15,13.4603,-18.4289,72.4513,61.7004,30.268,-23.4085,28.7523,7.12502,3.04856,58.7102,-7.75811,26.3711,23.6922,25.1778,-11.3128,3.60595,11.1869,-69.526,2.33835,-19.5904,96.881,-7.98596,-15.9374,-14.3355
3.43065,18.8413,5.42623,-181.054,-21.9364,178.217,14.0481,-0.278097,0.99224,2.9671,-0.552122,-0.858588,-4.75675,-0.407803,-1.35421,-9.86429,-2.6269,-8.57843,15.609,-4.70541,12.0023,6.8439,-2.00494,4.89204,-7.688e-14,8.39865e-15,11.8677,-6.32489,-79.0321,72.423,2.7455,-41.4942,-1.67804,7.12502,-14.4078,-31.158,-7.688e-14,8.39865e-15,14.2114,-18.3564,72.1381,61.5549,30.4953,-23.4169,28.3957,7.12502,3.04053,58.3538,-7.59223,26.3773,23.7799,24.956,-11.304,3.63652,11.102,-69.2336,2.12144,-19.4922,96.5814,-8.54337,-16.3002,-15.3282
3.40948,18.842,5.40973,-181.074,-21.7779,178.49,14.0022,-0.255043,1.20023,2.90408,-0.480981,-0.795311,-4.79641,-0.372668,-1.41838,-9.90527,-2.78115,-8.62855,15.6193,-4.91475,12.0256,6.88014,-2.10541,4.88823,-1.51138e-14,5.01931e-15,11.6865,-6.53854,-79.1208,72.5541,2.74157,-41.1109,-1.08232,7.12502,-14.0385,-30.5882,-1.51138e-14,5.01931e-15,15.0475,-18.3908,71.8791,61.3742,30.7198,-23.2479,28.3037,7.12502,3.20371,58.2593,-7.49018,26.417,24.0017,24.6928,-11.2643,3.63642,11.1699,-69.0565,1.9278,-19.1304,96.5907,-9.38755,-16.1615,-13.9541
3.39,18.8496,5.39376,-181.077,-21.5974,178.533,13.9854,-0.203287,1.14056,2.93083,-0.420906,-0.744467,-4.75636,-0.342668,-1.34195,-10.0628,-2.96079,-8.65983,15.555,-5.10708,11.9133,6.9083,-2.19802,4.83543,2.81405e-14,5.76476e-15,11.7373,-6.75178,-79.2488,72.5007,2.76594,-40.7307,-0.664575,7.12502,-13.6721,-30.1955,2.81405e-14,5.76476e-15,15.9446,-18.3762,71.6298,61.3323,31.1228,-23.3869,28.7762,7.12502,3.06949,58.7339,-7.30311,26.4009,24.0037,24.4072,-11.2333,3.83852,11.7241,-68.7998,1.72467,-18.9459,96.73,-10.1528,-15.4181,-11.9526
3.36576,18.8616,5.37511,-181.059,-21.3372,178.431,13.8641,-0.147019,0.989882,3.01685,-0.376688,-0.760661,-4.59757,-0.320492,-1.28185,-10.1318,-3.0605,-8.78623,15.4155,-5.20708,11.9811,6.89282,-2.24336,4.86751,-4.9721e-14,1.47598e-14,11.7122,-6.8961,-79.4162,72.5631,2.7349,-40.5197,-0.222194,7.12502,-13.4687,-29.7667,-4.9721e-14,1.47598e-14,16.7839,-18.3551,71.254,61.4014,31.7995,-24.0608,29.4634,7.12502,2.4186,59.4294,-7.05022,26.4525,23.8614,24.132,-11.185,4.10592,12.3123,-68.4374,1.62247,-18.9171,96.9195,-10.8165,-15.0047,-11.7147
3.33741,18.8676,5.35162,-180.902,-20.9769,178.434,13.5812,-0.092904,0.997275,2.98763,-0.300254,-0.789137,-4.47166,-0.279312,-1.32994,-10.0102,-3.12539,-8.88085,15.2291,-5.24714,11.9116,6.81721,-2.27477,4.85467,6.92827e-14,-1.48095e-14,11.5012,-6.95821,-79.5878,72.7883,2.68498,-40.4439,0.236263,7.12502,-13.3956,-29.3131,6.92827e-14,-1.48095e-14,17.5599,-18.272,70.8998,61.2478,32.0645,-23.854,29.1118,7.12502,2.61833,59.0754,-6.99993,26.7284,23.756,23.8505,-11.1474,4.21764,12.414,-68.2215,1.70209,-18.8107,97.1026,-11.3813,-15.4079,-13.3263
3.3162,18.87,5.33448,-180.881,-20.8406,178.543,13.5485,-0.0861893,1.08308,2.98433,-0.278817,-0.788987,-4.45675,-0.269269,-1.38206,-10.1312,-3.21602,-8.82952,15.1495,-5.29818,11.6455,6.81164,-2.30589,4.7502,4.30555e-14,-1.10822e-14,11.449,-7.06102,-79.6949,72.9583,2.60218,-40.5499,0.46906,7.12502,-13.4978,-29.0735,4.30555e-14,-1.10822e-14,18.4747,-18.095,70.609,60.9399,31.8429,-23.2068,28.4846,7.12502,3.24339,58.4396,-6.84326,26.8933,23.8295,23.5819,-11.0846,4.21313,12.3591,-68.0125,1.6704,-18.6503,97.2554,-11.7483,-15.9366,-14.7907
