JuanDHNZ/ProyectoFinalCD/preprocessing/sports_trials_csv/13_36.csv
root1,root2,root3,root4,root5,root6,lowerback1,lowerback2,lowerback3,upperback1,upperback2,upperback3,thorax1,thorax2,thorax3,lowerneck1,lowerneck2,lowerneck3,upperneck1,upperneck2,upperneck3,head1,head2,head3,rclavicle1,rclavicle2,rhumerus1,rhumerus2,rhumerus3,rradius1,rwrist1,rhand1,rhand2,rfingers1,rthumb1,rthumb2,lclavicle1,lclavicle2,lhumerus1,lhumerus2,lhumerus3,lradius1,lwrist1,lhand1,lhand2,lfingers1,lthumb1,lthumb2,rfemur1,rfemur2,rfemur3,rtibia1,rfoot1,rfoot2,rtoes1,lfemur1,lfemur2,lfemur3,ltibia1,lfoot1,lfoot2,ltoes1
13.085,18.724,6.3386,1.93091,-84.0757,1.48709,4.2876,-1.28624,-1.50618,-0.0121584,-1.77449,0.752307,-2.34584,-0.864882,1.72755,-10.6328,-4.92458,-8.63793,22.5696,-7.52041,8.04367,9.48461,-3.58259,3.33589,-3.53712e-14,-3.08116e-15,-33.6327,-8.83348,-73.2294,28.4294,18.0409,-26.4978,4.33948,7.12502,0.0649701,-25.6402,-3.53712e-14,-3.08116e-15,-34.7188,18.1066,78.952,20.9325,-1.70531,-35.2767,18.809,7.12502,-8.41179,48.6215,-14.424,20.6497,23.8208,27.3949,-18.6133,-18.5687,2.82329,-4.86328,-10.4163,-12.4873,17.4697,-24.2994,32.3086,5.67408
13.0677,18.7254,6.33453,0.369134,-84.3832,3.05671,4.30922,-1.30052,-1.61506,-0.028126,-1.7988,0.772187,-2.36948,-0.875237,1.81138,-10.687,-4.95287,-8.64663,22.5539,-7.56696,8.09395,9.49627,-3.59877,3.34773,-8.99501e-15,3.97569e-15,-33.6071,-8.79546,-73.0472,28.4988,17.7009,-26.7488,4.09885,7.12502,-0.177437,-25.8808,-8.99501e-15,3.97569e-15,-34.8377,18.5495,78.797,20.5251,-2.26386,-35.399,18.6033,7.12502,-8.52983,48.411,-14.4769,20.8141,23.6613,27.6178,-18.8529,-18.2943,3.17035,-4.54225,-10.1454,-12.6562,17.1031,-24.2044,32.3524,5.73503
13.0506,18.7259,6.33223,-1.44258,-84.723,4.90096,4.27108,-1.32704,-1.70318,-0.0299463,-1.83801,0.768744,-2.34567,-0.894022,1.85853,-10.7425,-4.94273,-8.53235,22.5065,-7.53682,7.97567,9.47795,-3.58507,3.28918,1.08835e-14,9.34288e-15,-33.546,-8.8301,-72.8957,28.523,17.489,-26.5631,4.24369,7.12502,0.00190162,-25.7361,1.08835e-14,9.34288e-15,-34.9523,18.88,78.6214,20.176,-2.82073,-35.5272,18.5639,7.12502,-8.65359,48.3665,-14.5054,20.9324,23.4655,27.7183,-19.1948,-17.9158,3.63798,-4.38543,-9.83621,-12.8304,17.0125,-24.3736,32.273,6.2554
13.0362,18.7196,6.333,-1.80361,-85.0673,5.24993,4.33313,-1.38243,-1.64578,-0.0494182,-1.90883,0.821707,-2.39745,-0.929023,1.88726,-10.7557,-4.85557,-8.32865,22.4105,-7.39914,7.79511,9.41832,-3.52126,3.20798,1.30452e-15,3.77691e-15,-33.5313,-8.68093,-72.8026,28.6385,17.2372,-26.4164,4.48585,7.12502,0.143578,-25.4938,1.30452e-15,3.77691e-15,-35.0808,19.0814,78.514,19.8082,-3.1694,-35.5996,18.5291,7.12502,-8.72343,48.3288,-14.5474,20.958,23.5088,27.8945,-19.1348,-17.8802,2.8187,-4.11371,-9.57113,-12.8618,16.7761,-24.505,32.2753,6.59937
13.0226,18.7144,6.33463,-2.54823,-85.3386,5.96687,4.40021,-1.44694,-1.57316,-0.0536396,-1.99141,0.856165,-2.43701,-0.970479,1.88916,-10.8065,-4.78188,-8.24269,22.4132,-7.31582,7.81403,9.41812,-3.47302,3.20958,9.93923e-16,1.39149e-15,-33.5193,-8.7605,-72.6174,28.7623,17.1752,-26.504,4.56887,7.12502,0.0589435,-25.4109,9.93923e-16,1.39149e-15,-35.1977,19.3239,78.3739,19.4455,-3.70202,-35.5364,18.4525,7.12502,-8.66248,48.2548,-14.6609,20.9047,23.5188,28.2243,-19.061,-17.8116,1.9264,-3.72922,-9.06278,-12.9067,16.2797,-24.0201,32.2439,6.19924
13.0091,18.7156,6.33521,-10.1239,-85.6377,13.5067,4.51998,-1.48009,-2.05344,-0.0564748,-2.06361,0.807562,-2.48904,-1.00005,2.11671,-10.8567,-4.72382,-8.2781,22.4096,-7.23426,7.85594,9.42164,-3.43301,3.23943,3.90115e-15,-3.97569e-16,-33.436,-9.08643,-72.2527,28.8066,17.477,-26.689,4.63391,7.12502,-0.119691,-25.3458,3.90115e-15,-3.97569e-16,-35.35,19.915,78.153,19.0823,-4.67328,-35.6555,18.5596,7.12502,-8.77732,48.357,-14.7943,20.8059,22.9419,28.6321,-19.1844,-17.408,1.21866,-3.23785,-8.4602,-13.5342,15.6651,-23.3799,32.3279,5.94923
12.9973,18.7221,6.33439,-27.0314,-85.6535,30.2789,4.7922,-1.44702,-3.20309,-0.0318259,-2.0955,0.568526,-2.58328,-1.00153,2.52555,-10.9367,-4.69882,-8.30848,22.4289,-7.18253,7.83117,9.43901,-3.41191,3.24102,3.3048e-14,9.74045e-15,-33.3715,-9.22658,-71.9712,28.902,17.5097,-26.1611,5.05237,7.12502,0.390178,-24.927,3.3048e-14,9.74045e-15,-35.4761,20.3737,77.9792,18.7999,-5.34155,-35.52,18.4551,7.12502,-8.64665,48.258,-14.8006,20.8682,21.6453,29.0656,-19.7933,-16.7199,2.34405,-2.60538,-8.11888,-14.929,15.07,-23.0729,32.6244,5.77483
12.9849,18.7251,6.33222,-35.566,-85.6343,38.7678,4.92216,-1.50154,-3.66031,-0.0307312,-2.20259,0.44968,-2.63586,-1.04881,2.67064,-11.0234,-4.63886,-8.20381,22.4916,-7.08645,7.69565,9.45928,-3.37064,3.18691,3.83903e-14,2.78299e-15,-33.2389,-9.20889,-71.8994,28.9025,17.4196,-25.8954,4.98519,7.12502,0.646819,-24.9936,3.83903e-14,2.78299e-15,-35.5654,20.4652,77.8545,18.583,-5.41377,-35.3656,18.335,7.12502,-8.49762,48.144,-14.8692,21.0769,21.0424,29.4474,-20.2933,-16.3399,3.50109,-2.17386,-7.53865,-15.5445,14.5565,-22.3075,32.7305,4.80671
12.9737,18.7227,6.32824,-36.7193,-85.8871,40.0952,4.83102,-1.7276,-3.59881,-0.105744,-2.49118,0.670519,-2.63406,-1.19082,2.88098,-11.0391,-4.49124,-8.35794,22.4694,-6.80985,7.56507,9.43024,-3.26756,3.20148,1.22004e-14,3.97569e-16,-32.9354,-8.76418,-71.7851,28.8858,17.4675,-26.0536,4.70875,7.12502,0.493949,-25.2704,1.22004e-14,3.97569e-16,-35.9309,21.6247,77.417,18.4237,-6.32091,-35.1703,18.2568,7.12502,-8.3091,48.0734,-15.1766,21.208,21.1133,29.7127,-20.256,-16.3886,3.11858,-2.1579,-6.72078,-15.3734,14.2387,-21.4287,32.6144,4.02208
12.9566,18.7214,6.32569,-38.7472,-86.1231,42.2476,4.75545,-2.00192,-3.63757,-0.162531,-2.84759,1.01402,-2.60422,-1.3659,3.27793,-11.1804,-4.32135,-9.06692,22.5219,-6.44841,7.71449,9.47259,-3.13966,3.41743,-2.83765e-14,-3.18055e-15,-32.56,-7.91803,-71.6043,28.9092,17.3547,-26.3728,4.61136,7.12502,0.185639,-25.3683,-2.83765e-14,-3.18055e-15,-36.4154,23.0334,77.0916,18.3613,-7.2593,-34.7477,18.0933,7.12502,-7.90126,47.9256,-15.3128,21.3551,21.1277,29.7853,-20.3114,-16.2909,3.24081,-2.30794,-6.04565,-15.301,14.3984,-21.0989,32.486,3.35825
12.9358,18.7181,6.32594,-42.1137,-86.3654,45.5739,4.77196,-2.10559,-3.60899,-0.14008,-2.98062,1.18144,-2.5719,-1.43313,3.44313,-11.3503,-4.27098,-9.73584,22.6716,-6.35484,8.19441,9.58728,-3.10183,3.71167,-2.67862e-14,-5.1684e-15,-32.3637,-7.62568,-71.4397,28.9197,17.2186,-26.6862,4.56446,7.12502,-0.116979,-25.4153,-2.67862e-14,-5.1684e-15,-36.5227,23.4238,77.1137,18.157,-7.67883,-34.7894,18.1964,7.12502,-7.94149,48.0272,-15.1816,21.4115,21.1544,29.7264,-20.345,-16.0388,3.39825,-2.42867,-5.65232,-15.3151,14.93,-21.5652,32.3198,3.53654
12.9132,18.7155,6.32465,-41.243,-86.8167,44.895,4.47544,-2.13535,-3.16722,-0.165994,-2.98409,1.29769,-2.44793,-1.44252,3.30244,-11.3263,-4.284,-9.80511,22.7151,-6.4344,8.44361,9.61634,-3.12284,3.80262,-1.17283e-14,4.37326e-15,-32.3146,-7.84453,-71.2948,28.8933,17.2252,-26.593,4.36493,7.12502,-0.0269555,-25.6148,-1.17283e-14,4.37326e-15,-36.4783,23.1362,77.2264,18.0126,-7.70583,-35.1147,18.3604,7.12502,-8.25549,48.1792,-15.3126,21.3784,21.4502,29.6387,-20.405,-15.6805,4.08626,-2.83937,-5.13291,-14.8936,15.5102,-22.0015,31.9961,3.7624
12.8903,18.7143,6.32017,-35.7356,-87.3676,39.8777,3.87679,-2.21029,-2.58127,-0.271535,-3.03544,1.54239,-2.23358,-1.47759,3.20388,-11.2682,-4.28189,-9.83582,22.6962,-6.4639,8.56244,9.6064,-3.13022,3.8467,-6.41081e-15,-1.19271e-14,-32.2691,-8.03239,-71.0794,28.9036,17.3911,-26.6526,4.35101,7.12502,-0.0845563,-25.6287,-6.41081e-15,-1.19271e-14,-36.5612,23.2818,77.1687,17.9607,-7.84813,-35.0459,18.4633,7.12502,-8.18911,48.2846,-15.7867,21.368,21.8512,29.5107,-20.4365,-15.3393,5.11215,-3.65524,-4.13355,-14.1558,16.1454,-21.4188,31.5557,2.5992
12.8696,18.7109,6.32304,-35.1829,-87.7221,39.4835,3.67673,-2.24746,-2.26419,-0.313732,-3.06514,1.66614,-2.17231,-1.49668,3.1469,-11.1693,-4.27177,-9.62482,22.6989,-6.48134,8.44512,9.57867,-3.13711,3.76807,2.20651e-14,7.55382e-15,-32.3197,-8.06742,-70.9656,29.0135,17.2599,-26.9653,4.21067,7.12502,-0.386551,-25.7687,2.20651e-14,7.55382e-15,-36.637,23.5168,77.0308,17.8798,-8.1319,-34.506,18.4503,7.12502,-7.66795,48.2913,-15.8534,21.3677,22.0577,29.3811,-20.3221,-15.1983,4.75759,-4.06741,-3.17714,-13.8478,16.7607,-21.0098,31.1173,1.15624
12.85,18.7104,6.3326,-33.3032,-88.0604,37.5297,3.76764,-2.29829,-1.7472,-0.301689,-3.11131,1.69701,-2.23313,-1.52524,2.89547,-11.1034,-4.26677,-9.20602,22.7392,-6.53511,8.26206,9.56427,-3.14999,3.62636,-1.19271e-15,7.95139e-15,-32.3842,-8.16899,-70.9626,29.1056,17.186,-26.9627,3.91862,7.12502,-0.384036,-26.0608,-1.19271e-15,7.95139e-15,-36.6639,23.2393,77.0491,17.9274,-8.07189,-34.1721,18.6231,7.12502,-7.34568,48.4756,-15.6486,21.4232,22.3597,29.296,-20.3842,-15.0237,4.87665,-4.13982,-2.58935,-13.5909,17.2742,-20.941,30.9282,0.235627
12.8303,18.7096,6.33905,-41.0259,-88.2551,44.9637,4.07175,-2.34569,-1.56344,-0.215153,-3.17092,1.62804,-2.32465,-1.55701,2.73708,-11.0868,-4.23785,-8.83185,22.8008,-6.55377,8.12512,9.56616,-3.14435,3.51275,1.75427e-14,-8.34896e-15,-32.3813,-8.47863,-70.9,29.1166,17.4427,-26.8174,4.05059,7.12502,-0.243764,-25.929,1.75427e-14,-8.34896e-15,-36.581,22.6018,77.2736,17.9998,-7.52736,-34.1108,18.7739,7.12502,-7.28653,48.6285,-15.214,21.3836,22.4028,29.2512,-20.4626,-14.6395,5.23076,-3.94696,-2.17803,-13.7028,17.7449,-20.918,30.938,-0.554037
12.8099,18.7039,6.33852,-56.3091,-88.2734,59.9256,4.38191,-2.34829,-1.80083,-0.107574,-3.19054,1.61306,-2.37464,-1.56446,2.8677,-11.0353,-4.22725,-8.653,22.8319,-6.55527,7.98864,9.55627,-3.14705,3.43494,-1.15792e-14,-1.59028e-15,-32.3461,-8.79801,-70.6373,29.0928,17.6115,-26.554,4.82017,7.12502,0.0106966,-25.1596,-1.15792e-14,-1.59028e-15,-36.5142,22.1026,77.5889,18.1108,-6.90608,-33.913,18.694,7.12502,-7.0956,48.5551,-14.7704,21.2623,22.2679,29.2192,-20.3112,-14.3365,4.94349,-3.74299,-1.59209,-13.9948,18.2532,-20.8861,30.7654,-0.918247
12.7876,18.6996,6.33409,-58.9023,-88.5803,62.6476,4.20182,-2.35329,-1.57603,-0.118205,-3.18181,1.78015,-2.28788,-1.56399,2.90483,-10.9136,-4.29424,-8.5496,22.7981,-6.64804,7.84665,9.52172,-3.1999,3.357,6.31141e-15,-9.14409e-15,-32.3488,-9.03131,-70.2867,29.0841,17.7201,-26.3783,5.42685,7.12502,0.18035,-24.5528,6.31141e-15,-9.14409e-15,-36.5248,21.9931,77.7512,18.2567,-6.8238,-33.8165,18.4028,7.12502,-7.00243,48.267,-14.8488,21.326,22.5062,29.1825,-20.1305,-14.3772,4.47735,-4.12158,-0.814094,-13.6654,18.8215,-20.6614,30.3511,-1.02075
12.7667,18.6972,6.33508,-59.4088,-88.8974,63.2809,4.07216,-2.40194,-1.15767,-0.147851,-3.22443,1.89803,-2.25931,-1.59044,2.78889,-10.8291,-4.30365,-8.38463,22.8007,-6.67512,7.71457,9.49849,-3.21569,3.2804,1.8487e-14,-1.74931e-14,-32.3868,-9.06165,-70.14,29.1175,17.6561,-26.365,5.62652,7.12502,0.193171,-24.3531,1.8487e-14,-1.74931e-14,-36.5317,21.9448,77.8016,18.4254,-6.88305,-33.6972,18.6264,7.12502,-6.88731,48.4944,-14.9084,21.3235,22.7691,29.117,-20.0155,-14.3443,3.90542,-4.58095,-0.117768,-13.3049,19.5432,-20.7185,29.8343,-0.901096
12.7462,18.6946,6.33559,-68.3483,-89.0869,72.1531,4.16255,-2.49304,-0.925656,-0.121045,-3.33522,1.94293,-2.28674,-1.64858,2.71528,-10.8548,-4.22805,-8.18407,22.9127,-6.61275,7.6634,9.52744,-3.17749,3.23675,2.27608e-14,-2.46493e-14,-32.3266,-8.74509,-70.2918,29.1094,17.2516,-26.5979,5.31058,7.12502,-0.0316993,-24.6692,2.27608e-14,-2.46493e-14,-36.4599,21.6732,77.912,18.5479,-6.41267,-33.62,18.6181,7.12502,-6.81273,48.4885,-14.7167,21.3377,22.9297,28.9986,-20.0158,-14.1889,3.70892,-4.88607,0.635524,-13.1395,20.4181,-20.4929,29.4453,-1.81714
12.7256,18.6912,6.33236,-76.4221,-89.2374,80.1761,4.19871,-2.54788,-0.758258,-0.0801498,-3.40054,2.00467,-2.26745,-1.68396,2.68948,-10.8864,-4.22341,-8.00728,23.0634,-6.65701,7.63732,9.58294,-3.18842,3.19282,6.87795e-14,-1.27222e-14,-32.2768,-8.50031,-70.3794,29.032,16.8413,-26.9021,4.64806,7.12502,-0.325541,-25.3314,6.87795e-14,-1.27222e-14,-36.2948,21.0233,78.2425,18.6954,-5.61994,-33.6396,18.1859,7.12502,-6.83169,48.0557,-14.5343,21.3885,23.1129,28.8827,-19.946,-14.1604,3.86481,-5.22975,1.27871,-12.9618,21.2935,-20.0615,29.1764,-3.05261
12.7045,18.6904,6.33051,-85.847,-89.3248,89.5815,4.21968,-2.5457,-0.631285,-0.0679109,-3.39105,2.09368,-2.26907,-1.68102,2.71037,-10.8458,-4.30129,-8.06517,23.2147,-6.80733,7.73131,9.64764,-3.25842,3.21876,-9.64106e-15,7.95139e-15,-32.3859,-8.67605,-70.178,29.0733,16.8051,-27.164,4.07185,7.12502,-0.578449,-25.9071,-9.64106e-15,7.95139e-15,-36.1604,20.3476,78.6591,18.9054,-5.04874,-33.4372,17.9469,7.12502,-6.63628,47.8229,-14.3976,21.4244,23.2307,28.8107,-19.8662,-14.1639,3.68157,-5.58348,1.71414,-12.8494,22.1093,-19.6186,29.0582,-4.21481
12.6803,18.6898,6.32997,-104.088,-89.3256,107.794,4.21518,-2.49917,-0.471911,-0.0460141,-3.32179,2.11429,-2.2553,-1.64877,2.63766,-10.6897,-4.38459,-8.09556,23.2364,-6.97847,7.86871,9.64727,-3.33366,3.25337,2.85256e-14,-1.98785e-14,-32.5829,-9.29705,-69.8694,29.1768,17.2148,-26.9463,3.84992,7.12502,-0.368196,-26.1295,2.85256e-14,-1.98785e-14,-36.0083,19.89,78.8961,19.0701,-4.95807,-33.2122,18.386,7.12502,-6.41903,48.2687,-14.2706,21.3363,23.2964,28.7654,-19.7803,-13.992,3.09978,-5.89802,2.23533,-12.7894,22.9054,-19.2175,28.9411,-5.41204
12.6555,18.6875,6.33045,-114.521,-89.1368,118.143,4.2602,-2.50057,-0.468479,-0.00343785,-3.32453,2.06856,-2.23947,-1.65067,2.58976,-10.564,-4.4253,-8.01731,23.2236,-7.08364,7.92685,9.62745,-3.37567,3.24916,2.59414e-14,-1.90833e-14,-32.7141,-9.7104,-69.7383,29.1959,17.5162,-26.8248,3.61423,7.12502,-0.250861,-26.3654,2.59414e-14,-1.90833e-14,-35.8541,19.3753,79.1187,19.2357,-4.53494,-33.2252,18.5526,7.12502,-6.43158,48.435,-14.0836,21.1926,23.1991,28.7488,-19.7621,-13.6352,2.98989,-6.16099,2.97137,-12.8686,23.709,-19.0452,28.4434,-5.81206
12.6326,18.6879,6.32921,-120.349,-88.9963,123.861,4.3121,-2.5772,-0.521633,0.0827497,-3.43073,2.08144,-2.17096,-1.70472,2.63855,-10.5226,-4.43397,-7.87383,23.2311,-7.11023,7.83192,9.61553,-3.38795,3.18867,-8.94531e-15,-7.15625e-15,-32.6829,-9.73604,-69.7727,29.1486,17.4178,-27.1306,3.13413,7.12502,-0.546253,-26.8449,-8.94531e-15,-7.15625e-15,-35.6904,19.15,79.2606,19.4334,-4.21796,-33.3656,18.4684,7.12502,-6.56719,48.3466,-13.8721,21.1529,23.152,28.7422,-19.8763,-13.3093,3.88588,-6.46386,3.6631,-12.8841,24.6266,-18.7486,27.9595,-6.37513
12.615,18.6887,6.32251,-126.877,-88.907,130.376,4.37195,-2.59502,-0.59503,0.111014,-3.45778,2.16567,-2.16458,-1.71806,2.77007,-10.4715,-4.44935,-7.74431,23.2799,-7.14591,7.72485,9.61716,-3.40742,3.12579,-4.16454e-14,5.56597e-15,-32.6733,-9.73253,-69.6923,29.0297,17.0778,-27.0916,3.1263,7.12502,-0.508523,-26.8528,-4.16454e-14,5.56597e-15,-35.5421,18.9537,79.4427,19.6669,-4.22966,-33.2945,18.4873,7.12502,-6.49849,48.3676,-13.7473,21.1644,23.193,28.684,-19.9342,-13.1138,4.4218,-6.92524,4.24567,-12.7924,25.6614,-18.5932,27.4905,-6.68326
12.6047,18.6834,6.30378,-136.838,-89.1081,140.648,4.20597,-2.65043,-0.513742,0.0178945,-3.5254,2.37835,-2.1556,-1.75249,2.9416,-10.3863,-4.44199,-7.71289,23.3192,-7.15457,7.70935,9.61357,-3.41467,3.1157,7.65321e-15,-1.51076e-14,-32.7375,-10.0027,-69.4691,28.8794,17.0382,-26.7472,3.69038,7.12502,-0.175957,-26.2893,7.65321e-15,-1.51076e-14,-35.376,18.56,79.6687,19.9067,-3.85352,-32.9685,18.1966,7.12502,-6.18381,48.0863,-13.9873,21.0568,23.4924,28.5949,-19.8092,-13.1245,4.39618,-7.84396,5.08521,-12.2974,26.7745,-18.0631,26.7425,-7.01032
12.5804,18.6784,6.29968,-167.147,-89.2707,170.937,4.20726,-2.7178,0.0536895,0.0335881,-3.58902,2.51357,-2.16289,-1.7913,2.7671,-10.3899,-4.45698,-7.94703,23.5495,-7.23159,7.97229,9.72157,-3.4488,3.2402,-1.87852e-14,1.35174e-14,-32.9278,-10.4316,-69.3207,28.8097,17.2535,-26.8794,3.79995,7.12502,-0.303629,-26.1796,-1.87852e-14,1.35174e-14,-35.2556,18.3097,79.6827,20.1722,-3.22011,-32.4638,17.3962,7.12502,-5.69655,47.2996,-13.7929,20.8975,24.0511,28.4724,-19.7,-13.0399,4.42322,-8.36913,5.49636,-11.7019,27.9204,-17.731,26.3932,-7.21066
12.5542,18.6745,6.29308,-176.68,-89.0597,180.368,4.25886,-2.65614,0.27457,0.0784184,-3.49722,2.50136,-2.16383,-1.74831,2.62741,-10.3987,-4.58309,-8.25979,23.8391,-7.48831,8.33864,9.87743,-3.56342,3.39301,-1.46107e-14,5.56597e-15,-33.2153,-10.8957,-69.2165,28.7719,17.5016,-26.9569,3.58516,7.12502,-0.378481,-26.3943,-1.46107e-14,5.56597e-15,-35.0794,17.6219,79.8951,20.4949,-2.52445,-32.2963,16.9482,7.12502,-5.53485,46.8559,-13.5218,21.0086,24.2806,28.3958,-19.6551,-12.9654,4.49012,-8.73153,6.00508,-11.4656,29.04,-17.283,26.1094,-7.58277
12.5303,18.6732,6.29295,-170.125,-88.9038,173.691,4.37118,-2.63749,0.258004,0.127431,-3.47298,2.44048,-2.18008,-1.73609,2.57707,-10.3023,-4.5936,-8.0052,23.915,-7.55279,8.23164,9.87724,-3.58767,3.3058,6.42074e-14,-3.65764e-14,-33.3691,-11.3127,-69.0925,28.6159,17.658,-26.6544,3.85425,7.12502,-0.0863349,-26.1255,6.42074e-14,-3.65764e-14,-34.8519,16.8875,80.1871,20.7338,-2.02703,-32.4106,16.9521,7.12502,-5.64521,46.8569,-13.2684,21.0204,24.2283,28.3808,-19.5534,-12.8512,4.72421,-9.06499,6.26643,-11.5422,30.062,-16.7126,26.001,-8.18131
12.5106,18.6752,6.29439,-157.308,-88.7417,160.855,4.50802,-2.70647,-0.0306788,0.0813182,-3.57562,2.46276,-2.28088,-1.78293,2.77657,-10.1527,-4.49261,-7.799,23.9616,-7.39072,7.91563,9.82861,-3.53329,3.18256,-2.5842e-15,-1.35174e-14,-33.404,-11.231,-68.9966,28.4026,17.2913,-26.5837,4.29165,7.12502,-0.0179897,-25.6881,-2.5842e-15,-1.35174e-14,-34.7759,16.8198,80.3198,20.9276,-1.7369,-32.4866,16.8211,7.12502,-5.7185,46.724,-13.2273,20.9369,23.9273,28.4716,-19.6018,-12.7688,4.35912,-9.52161,6.37919,-11.8251,31.0263,-16.2458,25.8878,-8.24029
12.4868,18.6814,6.29553,-147.101,-88.4277,150.66,4.53713,-2.68393,-0.288986,0.0616148,-3.55792,2.38527,-2.30752,-1.77031,2.84224,-10.2425,-4.59893,-8.51127,24.2939,-7.58839,8.4786,10.0355,-3.63339,3.48052,5.06901e-15,-1.27222e-14,-33.539,-11.1846,-68.9719,28.2278,16.7941,-26.6318,4.39693,7.12502,-0.0644925,-25.5828,5.06901e-15,-1.27222e-14,-34.6179,16.7211,80.3529,21.1232,-1.40801,-32.4085,16.2947,7.12502,-5.64311,46.1995,-13.2267,21.0052,23.4903,28.6379,-19.9218,-12.4194,5.29278,-9.94139,6.47675,-12.1902,31.9414,-15.9499,25.7323,-7.75713
12.4614,18.6858,6.29373,-144.189,-88.1938,147.72,4.54577,-2.62298,-0.364629,0.087493,-3.48166,2.27343,-2.29193,-1.7314,2.76423,-10.2163,-4.64857,-8.33158,24.423,-7.71517,8.45129,10.0808,-3.68261,3.42542,1.97791e-14,-1.03368e-14,-33.7892,-11.2739,-69.0169,28.1386,16.6521,-26.6102,4.23753,7.12502,-0.0436242,-25.7422,1.97791e-14,-1.03368e-14,-34.3769,16.1707,80.474,21.3912,-1.21258,-32.2008,16.1768,7.12502,-5.4426,46.0869,-13.2068,21.0615,23.2665,28.8595,-20.2699,-12.0715,6.23905,-10.3165,6.67202,-12.3513,32.793,-15.3035,25.5894,-8.20437
12.4363,18.6881,6.29206,-137.797,-87.9004,141.155,4.7204,-2.61345,-0.638015,0.133353,-3.48397,2.14667,-2.33397,-1.7291,2.79457,-10.172,-4.59727,-8.19367,24.5946,-7.70773,8.46257,10.1275,-3.67137,3.40959,-1.98785e-16,6.36111e-15,-33.997,-11.2827,-69.1026,27.9992,16.7937,-26.9132,3.80334,7.12502,-0.336294,-26.1761,-1.98785e-16,6.36111e-15,-34.2572,15.2442,80.8793,21.9387,-1.00993,-32.6531,17.282,7.12502,-5.87927,47.1804,-13.0073,21.0589,22.9609,29.0486,-20.4895,-11.9621,6.55857,-10.5455,6.78506,-12.6468,33.6297,-14.9104,25.2583,-7.65221
12.4072,18.6881,6.29712,-130.779,-87.3543,133.762,5.03097,-2.57564,-1.11433,0.250118,-3.46319,1.97506,-2.37106,-1.714,2.89566,-10.1457,-4.59481,-8.18768,24.7505,-7.72019,8.41334,10.1776,-3.68545,3.39149,2.09718e-14,4.77083e-15,-34.1692,-11.2775,-69.1658,27.8345,16.9637,-27.8117,3.20275,7.12502,-1.20409,-26.7736,2.09718e-14,4.77083e-15,-34.1226,14.6876,81.1929,22.4265,-0.844248,-32.869,18.046,7.12502,-6.08776,47.9385,-12.4859,20.9802,22.46,29.1095,-20.5546,-11.6849,6.72829,-10.5488,6.92713,-13.2014,34.5956,-14.5069,24.8628,-6.89526
12.3778,18.6835,6.30597,-131.017,-87.0023,133.709,5.26826,-2.48598,-1.19796,0.350613,-3.35225,1.89688,-2.40647,-1.65859,2.86403,-10.1119,-4.635,-8.28031,24.8644,-7.79908,8.47776,10.2268,-3.72696,3.42204,-8.12035e-14,1.35174e-14,-34.339,-11.5229,-69.0562,27.6408,17.045,-27.8661,2.8543,7.12502,-1.25663,-27.1217,-8.12035e-14,1.35174e-14,-33.935,14.2726,81.4336,22.8164,-0.455986,-32.7697,17.8335,7.12502,-5.99185,47.7288,-12.0471,20.7229,22.3069,29.0844,-20.3131,-11.3178,6.67696,-10.6853,7.0887,-13.4102,35.6644,-13.7492,24.6383,-6.83043
12.356,18.6803,6.30832,-138.492,-87.2258,141.359,5.17356,-2.45538,-0.612015,0.286742,-3.27516,2.02563,-2.44892,-1.62562,2.66109,-9.9898,-4.65989,-8.44864,24.933,-7.86892,8.6327,10.2485,-3.7652,3.50054,8.34896e-15,5.56597e-15,-34.5282,-11.6477,-68.9812,27.3971,17.0182,-27.449,3.04042,7.12502,-0.853727,-26.9376,8.34896e-15,5.56597e-15,-33.8133,13.5497,81.7683,23.3267,0.469336,-32.88,17.6891,7.12502,-6.09838,47.5814,-12.1515,20.4886,22.7511,28.9894,-19.8856,-11.2073,6.64216,-11.4871,7.09193,-12.8624,36.8136,-13.0457,24.3599,-5.86099
12.3309,18.6822,6.30976,-141.961,-87.2831,144.999,4.99893,-2.47225,-0.244674,0.246248,-3.2772,2.02166,-2.41357,-1.63071,2.44405,-9.85834,-4.66432,-8.52278,24.9701,-7.93241,8.80611,10.2531,-3.79082,3.57029,3.07122e-14,0,-34.7431,-11.9435,-68.9762,27.1562,17.3795,-27.7892,2.83196,7.12502,-1.18236,-27.1445,3.07122e-14,0,-33.7039,12.9841,81.8856,23.8522,1.10794,-32.7176,17.9122,7.12502,-5.9416,47.8089,-12.2303,20.4013,22.8938,28.8965,-19.6627,-11.2294,6.38914,-12.2756,7.11048,-12.5983,37.9537,-12.5332,23.9358,-4.70729
12.2993,18.6868,6.3156,-140.198,-87.0058,143.117,4.97447,-2.46067,-0.203769,0.356361,-3.26449,1.81697,-2.30121,-1.62643,2.20479,-9.95011,-4.61244,-8.29661,25.1605,-7.92065,8.7813,10.328,-3.76761,3.52474,3.38928e-14,-1.43125e-14,-34.8662,-12.24,-69.086,26.8932,17.8944,-27.9946,2.95784,7.12502,-1.38071,-27.0174,3.38928e-14,-1.43125e-14,-33.4637,12.81,81.7543,24.2121,1.24198,-32.6983,17.9382,7.12502,-5.92297,47.8354,-11.9349,20.4944,22.6695,28.831,-19.8025,-11.146,6.13882,-12.6473,7.23013,-12.7706,39.0232,-11.9282,23.4544,-3.98185
12.2671,18.6917,6.3233,-137.561,-86.6195,140.279,5.11206,-2.43362,-0.414112,0.449253,-3.24295,1.68043,-2.27962,-1.61449,2.18442,-10.0753,-4.53398,-8.10667,25.4215,-7.83501,8.63393,10.4245,-3.72521,3.45113,4.01545e-14,-2.38542e-14,-35.0081,-12.2055,-69.201,26.5745,18.5038,-27.8623,4.07012,7.12502,-1.25295,-25.9059,4.01545e-14,-2.38542e-14,-33.2927,12.8433,81.7388,24.5583,1.34052,-32.9557,17.9252,7.12502,-6.17141,47.8153,-11.5704,20.5484,22.2998,28.8275,-20.0937,-10.7267,6.93583,-12.8496,7.32961,-13.0801,39.9539,-11.184,23.041,-3.1941
12.2332,18.6962,6.32774,-137.283,-86.4074,139.865,5.20179,-2.41606,-0.556482,0.514538,-3.22849,1.70552,-2.25386,-1.60698,2.29125,-9.98839,-4.50637,-8.0553,25.3952,-7.76544,8.47271,10.3817,-3.70784,3.39452,6.26172e-15,4.77083e-15,-35.1464,-12.1112,-69.2815,26.3939,18.7637,-27.9047,3.89086,7.12502,-1.29391,-26.085,6.26172e-15,4.77083e-15,-33.1456,12.7927,81.9168,24.9497,1.5277,-32.8368,17.9522,7.12502,-6.05666,47.8457,-11.2873,20.4262,22.1535,28.8079,-20.2135,-10.3214,7.59116,-13.1267,7.29766,-13.1632,40.8292,-10.4013,22.65,-2.70046
12.1977,18.698,6.33351,-138.508,-86.2543,141.02,5.14838,-2.37585,-0.519683,0.594945,-3.17483,1.70925,-2.1453,-1.58253,2.26571,-9.887,-4.52903,-8.04138,25.3201,-7.78686,8.42361,10.3339,-3.72417,3.37261,-1.54058e-14,7.95139e-16,-35.2907,-12.4075,-69.2406,26.3349,18.8787,-27.1623,2.91654,7.12502,-0.576879,-27.0624,-1.54058e-14,7.95139e-16,-32.9497,12.2865,82.1766,25.4119,2.0312,-32.6119,17.9395,7.12502,-5.83953,47.8391,-11.048,20.2317,22.1436,28.7304,-20.0929,-10.1395,6.97847,-13.4869,7.1705,-13.149,41.7347,-9.58833,22.1967,-1.91945
12.1646,18.6981,6.3414,-140.985,-86.1091,143.441,5.20724,-2.30313,-0.325956,0.588884,-3.06748,1.66536,-2.20149,-1.53009,2.10835,-9.80788,-4.57347,-8.07763,25.4314,-7.90615,8.54068,10.3774,-3.77643,3.40811,-2.94201e-14,-7.15625e-15,-35.5224,-12.7466,-69.2059,26.2283,18.9003,-26.4262,2.14096,7.12502,0.134073,-27.8387,-2.94201e-14,-7.15625e-15,-32.8828,11.6355,82.3139,25.8658,2.52079,-32.3613,17.8116,7.12502,-5.59756,47.7177,-10.8112,20.2492,22.2167,28.6219,-19.986,-10.1288,6.43303,-13.8271,7.02372,-13.0432,42.5898,-9.02393,21.6353,-0.277261
12.1333,18.6975,6.34834,-144.028,-86.042,146.439,5.29608,-2.29236,-0.102749,0.557939,-3.03927,1.68644,-2.29451,-1.51722,2.00867,-9.63733,-4.53458,-8.09618,25.4883,-7.88574,8.57166,10.3644,-3.7747,3.42904,-4.07509e-15,3.02153e-14,-35.5842,-12.4524,-69.2978,25.9316,18.8543,-26.2494,2.31809,7.12502,0.304868,-27.6614,-4.07509e-15,3.02153e-14,-32.9011,11.4171,82.3241,26.3135,2.89869,-32.4374,17.7279,7.12502,-5.67108,47.632,-10.6073,20.3612,22.3834,28.5708,-20.077,-10.0314,6.47461,-14.1457,6.96845,-12.7979,43.2931,-8.40026,20.8442,1.07705
12.0903,18.7034,6.36047,-141.476,-85.5675,143.597,5.43386,-2.24231,-0.389533,0.673869,-2.99325,1.52715,-2.2476,-1.49299,2.00495,-9.55027,-4.5097,-8.16438,25.5124,-7.86948,8.63686,10.36,-3.77154,3.46836,1.42131e-14,5.56597e-15,-35.5125,-12.2204,-69.3578,25.4174,19.2653,-26.3459,3.2505,7.12502,0.211652,-26.7291,1.42131e-14,5.56597e-15,-32.8056,11.4158,82.3095,26.7386,2.98992,-32.3967,17.8298,7.12502,-5.63171,47.7349,-10.1043,20.3389,21.9573,28.5623,-20.295,-9.61306,6.88553,-14.0192,6.83646,-13.208,43.8332,-7.95196,20.0333,1.40871
12.0404,18.712,6.38243,-136.581,-84.6881,138.124,5.82951,-2.08032,-1.04827,0.845453,-2.82615,1.2327,-2.28107,-1.40578,2.07162,-9.4954,-4.54398,-8.1915,25.5644,-7.90842,8.56939,10.3706,-3.80154,3.44525,2.98177e-16,-9.54166e-15,-35.5883,-12.067,-69.3438,24.9389,19.2391,-26.8268,3.75765,7.12502,-0.252843,-26.2219,2.98177e-16,-9.54166e-15,-32.6938,11.6221,82.3178,27.0186,2.50972,-32.0071,17.9989,7.12502,-5.25558,47.9137,-9.27564,20.2619,21.0548,28.5864,-20.607,-8.94709,7.49897,-13.462,6.50872,-14.1913,44.2653,-7.72759,19.3682,1.16066
11.9987,18.7126,6.39859,-137.165,-84.2878,138.442,6.01443,-1.98289,-1.19748,0.919058,-2.70925,1.21266,-2.30751,-1.34724,2.13191,-9.3984,-4.5523,-8.31022,25.5763,-7.88947,8.50217,10.3564,-3.81451,3.44583,2.68359e-14,-1.27222e-14,-35.6615,-11.7246,-69.4002,24.663,18.9245,-27.1728,3.74342,7.12502,-0.586972,-26.2355,2.68359e-14,-1.27222e-14,-32.6217,11.705,82.4442,27.3221,2.60127,-31.8816,17.8286,7.12502,-5.13444,47.7464,-8.86659,20.1946,20.8474,28.6425,-20.6841,-8.65507,7.2069,-13.358,6.28129,-14.4112,44.6743,-7.23102,18.4001,0.207535
11.9657,18.7089,6.41293,-139.668,-84.2069,141.008,5.96716,-1.95699,-0.919916,0.904786,-2.65623,1.23187,-2.30989,-1.32287,1.9907,-9.3102,-4.53744,-8.30964,25.5967,-7.88163,8.49643,10.3453,-3.81603,3.44658,-1.86858e-14,1.82882e-14,-35.8382,-11.7146,-69.4868,24.5734,19.211,-27.4489,3.53659,7.12502,-0.853651,-26.4414,-1.86858e-14,1.82882e-14,-32.5742,11.2986,82.6006,27.7412,3.26045,-31.9819,17.6267,7.12502,-5.23124,47.5421,-8.85061,20.1781,20.9467,28.6497,-20.5927,-8.48936,6.77924,-13.7538,6.1192,-14.1985,45.157,-6.84261,17.1817,-0.777629
11.9303,18.7075,6.4266,-140.251,-84.0143,141.56,5.99789,-1.92036,-0.787204,0.906585,-2.60144,1.11097,-2.33893,-1.29636,1.78909,-9.18209,-4.53364,-8.20284,25.5909,-7.92947,8.54922,10.3202,-3.82916,3.44345,1.92821e-14,-6.36111e-15,-36.1377,-12.0557,-69.4736,24.6135,19.7666,-27.355,3.269,7.12502,-0.762968,-26.7094,1.92821e-14,-6.36111e-15,-32.5591,10.7727,82.677,28.157,3.81618,-32.2052,17.6238,7.12502,-5.44683,47.5338,-8.6852,20.1537,20.8038,28.6036,-20.6306,-8.08769,6.99645,-14.029,5.77396,-14.2238,45.6588,-6.90754,16.024,-0.91037
11.8938,18.703,6.42458,-143.802,-84.207,145.262,5.83414,-1.91654,-0.410009,0.866918,-2.56971,1.2099,-2.30149,-1.28346,1.67175,-9.13892,-4.51342,-7.96104,25.6821,-7.93339,8.41694,10.3292,-3.82598,3.35553,-2.88238e-14,7.15625e-15,-36.3634,-12.4178,-69.3883,24.5766,20.2661,-26.9189,3.09216,7.12502,-0.341767,-26.8873,-2.88238e-14,7.15625e-15,-32.5457,10.5251,82.6914,28.4939,4.27646,-32.3832,17.4971,7.12502,-5.61875,47.4027,-8.69197,20.3162,21.2452,28.5662,-20.6739,-8.02316,7.56235,-14.5559,5.58605,-13.6601,46.0961,-6.81396,14.9039,-1.87608
11.8596,18.6982,6.43131,-146.517,-84.232,148.16,5.68004,-1.88577,-0.154151,0.822894,-2.5111,1.2895,-2.26995,-1.25608,1.60106,-9.0938,-4.5064,-7.84863,25.72,-7.93679,8.34126,10.3263,-3.82758,3.3098,9.83984e-15,-2.38542e-15,-36.5121,-13.0566,-69.1871,24.3867,21.099,-26.4325,3.01518,7.12502,0.128032,-26.9645,9.83984e-15,-2.38542e-15,-32.445,10.7927,82.6342,28.7067,4.23039,-32.2728,17.3567,7.12502,-5.51216,47.265,-8.79927,20.3462,21.4636,28.5901,-20.6656,-7.9737,7.07291,-15.0683,5.47984,-13.3453,46.3399,-6.53473,13.9175,-4.12813
11.8237,18.6981,6.4533,-144.637,-83.8588,146.226,5.74656,-1.80183,-0.416863,0.846435,-2.41699,1.20055,-2.27848,-1.2071,1.65166,-9.10631,-4.55461,-7.95961,25.7613,-8.00783,8.40418,10.3586,-3.86418,3.34254,9.83984e-15,-2.70347e-14,-36.6396,-13.4962,-68.9828,24.1999,21.5639,-26.2748,3.18044,7.12502,0.280291,-26.7991,9.83984e-15,-2.70347e-14,-32.3131,11.1795,82.6625,28.8258,3.87008,-32.1866,17.009,7.12502,-5.4289,46.9194,-8.53892,20.1967,20.9953,28.358,-20.6046,-7.78725,6.48825,-15.2976,5.17296,-13.7798,46.5714,-6.44314,13.1298,-6.18519
11.7819,18.6951,6.45886,-141.504,-83.4953,143.168,5.55792,-1.79117,-1.04455,0.860437,-2.44025,1.16251,-2.13345,-1.21484,1.95806,-9.17192,-4.55193,-7.96151,25.8378,-7.9916,8.34032,10.3953,-3.86197,3.32138,2.51463e-14,-7.95139e-16,-36.6028,-13.3614,-69.0106,23.9733,21.6476,-26.4924,3.42368,7.12502,0.0701901,-26.556,2.51463e-14,-7.95139e-16,-32.2838,11.3345,82.7626,29.1391,4.04002,-32.281,16.8364,7.12502,-5.52002,46.7445,-8.48901,20.0055,20.4253,28.2573,-20.5938,-7.81454,5.67448,-15.5991,4.71751,-14.3069,46.608,-6.53631,12.4884,-6.89185
11.7459,18.6789,6.51271,-155.883,-83.8486,157.088,6.22721,-1.75441,1.12973,0.973458,-2.25354,1.42467,-2.47147,-1.14092,1.01901,-9.10898,-4.52263,-7.93069,25.9031,-7.95741,8.27917,10.3994,-3.85395,3.30033,-2.78299e-15,8.74653e-15,-36.611,-13.2238,-69.0429,23.7268,21.724,-26.7886,3.49515,7.12502,-0.215875,-26.4845,-2.78299e-15,8.74653e-15,-32.334,11.0947,82.8626,29.4067,4.44905,-32.5019,16.696,7.12502,-5.73328,46.5985,-7.74877,19.5725,22.1788,28.0696,-20.3304,-7.39826,4.20422,-15.2296,4.86892,-12.5532,46.756,-6.7675,11.6098,-6.85827
11.7014,18.68,6.49086,-150.558,-83.4168,151.873,5.98982,-1.67308,-0.0677595,0.927103,-2.22325,1.37421,-2.34356,-1.11464,1.62735,-9.09384,-4.51042,-8.07373,26.0434,-7.95184,8.3324,10.4559,-3.86291,3.34665,-1.2424e-14,2.38542e-15,-36.5049,-13.0385,-68.9769,23.4428,21.5582,-26.8026,3.4125,7.12502,-0.229476,-26.5671,-1.2424e-14,2.38542e-15,-32.4121,10.821,83.0512,29.6456,4.78773,-32.634,16.5891,7.12502,-5.86083,46.488,-7.6913,20.0918,21.4408,27.9634,-20.4894,-7.64274,4.54763,-15.5681,4.66258,-13.2297,46.6854,-6.80628,10.8578,-7.96169
11.6701,18.6766,6.48769,-153.68,-83.6811,155.421,5.66319,-1.74427,0.193928,0.791489,-2.29705,1.62151,-2.29883,-1.15273,1.73218,-9.08335,-4.47885,-8.23115,26.1166,-7.89727,8.36293,10.4834,-3.85177,3.39286,-1.5704e-14,4.77083e-15,-36.4517,-12.9503,-68.9401,23.2791,21.5713,-26.7127,3.30352,7.12502,-0.142631,-26.6762,-1.5704e-14,4.77083e-15,-32.469,10.9432,83.1267,29.8331,5.03938,-32.6048,16.5812,7.12502,-5.83268,46.4809,-7.94404,20.3724,21.822,27.7934,-20.8164,-7.58998,6.62392,-16.372,4.27097,-12.6124,46.6321,-6.86938,10.2351,-8.28094
11.6352,18.6719,6.49878,-155.868,-83.7929,157.822,5.51007,-1.84107,0.478153,0.730882,-2.40833,1.70437,-2.2807,-1.21041,1.66219,-9.04794,-4.43164,-8.23426,26.1257,-7.84938,8.40549,10.4766,-3.82868,3.41572,-5.24792e-14,1.43125e-14,-36.5594,-13.2729,-68.9504,23.2425,22.0406,-26.7179,3.31501,7.12502,-0.147636,-26.6647,-5.24792e-14,1.43125e-14,-32.4995,11.3161,82.978,29.968,5.07765,-32.743,16.4917,7.12502,-5.96611,46.3877,-8.11175,20.197,22.0396,27.8774,-21.2359,-7.3696,7.94287,-16.7908,3.8672,-12.2433,46.2904,-6.85442,9.88473,-8.06614
11.5907,18.6717,6.51653,-153.916,-83.4701,155.66,5.69112,-1.81502,0.181345,0.800196,-2.39259,1.58504,-2.30387,-1.20028,1.70962,-9.05594,-4.42637,-8.29169,26.1608,-7.87145,8.52267,10.5006,-3.83353,3.46546,-7.05686e-15,5.56597e-15,-36.5589,-13.3132,-69.0324,23.1979,21.905,-26.6016,3.25006,7.12502,-0.0352662,-26.7297,-7.05686e-15,5.56597e-15,-32.4703,11.595,82.9121,30.0144,4.90722,-32.8035,16.4668,7.12502,-6.0245,46.3612,-7.73149,20.0797,21.6988,27.8553,-21.2052,-7.22148,7.10597,-16.6144,3.59082,-12.6087,45.8733,-6.86401,9.63086,-9.15225
11.5449,18.672,6.53424,-153.188,-83.1846,154.715,5.85336,-1.76214,0.00630515,0.910284,-2.33556,1.5276,-2.27812,-1.17169,1.74773,-9.13495,-4.43887,-8.40228,26.1873,-7.88929,8.61447,10.5366,-3.84001,3.5144,9.44227e-15,-1.27222e-14,-36.4362,-13.2385,-69.0869,23.12,21.6182,-26.3245,3.13337,7.12502,0.232324,-26.8463,9.44227e-15,-1.27222e-14,-32.3808,11.5679,83.0264,30.0883,4.90332,-32.788,16.6363,7.12502,-6.00958,46.531,-7.28722,20.2011,21.485,27.7886,-21.1899,-7.05184,6.78543,-16.3595,3.15863,-12.8184,45.3499,-7.11112,9.54226,-9.6685
11.5067,18.6696,6.54376,-155.266,-83.2,157.025,5.66419,-1.77363,0.228804,0.868995,-2.33695,1.59296,-2.22108,-1.1741,1.6844,-9.15151,-4.42597,-8.27061,26.2169,-7.8841,8.55129,10.5418,-3.83202,3.46938,2.16675e-14,1.59028e-15,-36.3621,-13.1353,-69.2592,23.0469,21.4627,-26.3518,3.16914,7.12502,0.206009,-26.8105,2.16675e-14,1.59028e-15,-32.3883,11.445,83.0599,30.1927,4.87133,-32.7394,16.8758,7.12502,-5.96266,46.7719,-7.36928,20.4927,21.6737,27.7312,-21.3271,-7.08081,7.20503,-16.6496,2.6918,-12.4472,44.7125,-7.29355,9.48306,-8.59815
11.47,18.6683,6.55345,-157.174,-83.2028,159.192,5.47921,-1.7793,0.431683,0.801924,-2.33207,1.64356,-2.19287,-1.1728,1.61721,-9.14093,-4.42539,-8.17146,26.2494,-7.91575,8.56061,10.5509,-3.83814,3.45204,-8.94531e-15,-3.97569e-15,-36.3018,-12.9649,-69.4839,22.9833,21.2051,-27.2489,2.89788,7.12502,-0.66044,-27.0808,-8.94531e-15,-3.97569e-15,-32.4017,11.3106,83.0655,30.2153,4.94863,-32.6848,16.771,7.12502,-5.90986,46.6686,-7.50013,20.6242,21.8371,27.6777,-21.3868,-7.12972,7.02915,-16.9895,2.35695,-12.0894,43.9928,-7.37156,9.43434,-8.05055
11.4219,18.6703,6.57602,-155.068,-82.8267,156.828,5.67591,-1.7466,0.051766,0.868788,-2.31225,1.51427,-2.22476,-1.1601,1.70117,-9.05091,-4.39189,-8.23359,26.2428,-7.89244,8.65081,10.5345,-3.82887,3.50017,1.86858e-14,3.18055e-15,-36.3563,-13.0657,-69.5256,23.0371,21.2885,-27.6323,2.67506,7.12502,-1.03079,-27.3022,1.86858e-14,3.18055e-15,-32.4691,11.2096,83.0978,30.2478,5.08403,-32.7733,16.8423,7.12502,-5.99531,46.7374,-7.0337,20.5068,21.3873,27.6056,-21.5157,-6.7966,7.49656,-16.6319,1.87129,-12.5236,43.1971,-7.72382,9.63351,-8.29928
11.3745,18.6713,6.59883,-153.768,-82.4945,155.332,5.8058,-1.76078,-0.213133,0.926205,-2.34986,1.37716,-2.23227,-1.17713,1.71469,-8.9848,-4.31667,-8.14759,26.2816,-7.81413,8.63591,10.523,-3.79132,3.49171,8.94531e-16,-1.11319e-14,-36.347,-13.197,-69.6689,23.0736,21.5117,-27.2972,2.62117,7.12502,-0.707118,-27.3574,8.94531e-16,-1.11319e-14,-32.561,11.3686,82.9529,30.2436,4.91774,-32.9402,16.93,7.12502,-6.15646,46.8205,-6.6058,20.3638,21.0243,27.4414,-21.5841,-6.46612,8.1529,-16.3489,1.41476,-12.8469,42.3933,-8.01678,9.92622,-10.2051
11.338,18.6645,6.61162,-155.831,-82.5254,157.666,5.61907,-1.85287,-0.0311149,0.875562,-2.45986,1.47029,-2.18033,-1.23322,1.71072,-9.04929,-4.24371,-8.06202,26.3578,-7.71624,8.57356,10.5475,-3.74457,3.46659,4.94974e-14,-2.46493e-14,-36.0648,-13.0293,-69.8947,23.0376,21.6095,-26.9734,2.7182,7.12502,-0.394369,-27.2612,4.94974e-14,-2.46493e-14,-32.5624,12.0484,82.6527,30.0801,4.1692,-32.519,16.5355,7.12502,-5.74986,46.4375,-6.81399,20.1695,21.2455,27.4179,-21.4877,-6.5118,7.23935,-16.6372,1.12989,-12.4013,41.4591,-8.03259,9.87088,-12.155
11.3048,18.6466,6.63469,-157.111,-82.5555,159.24,5.43887,-1.89563,0.176559,0.835492,-2.50412,1.54167,-2.12532,-1.25684,1.66496,-9.18683,-4.25689,-8.09495,26.4308,-7.7277,8.57789,10.6046,-3.74827,3.47075,-5.91384e-14,1.27222e-14,-35.7032,-12.2883,-70.1827,23.0487,20.8945,-26.8905,2.80354,7.12502,-0.314334,-27.176,-5.91384e-14,1.27222e-14,-32.4491,12.4487,82.6141,29.9361,3.6353,-32.1099,16.2684,7.12502,-5.35481,46.1808,-6.98799,19.4595,21.4137,27.17,-20.8572,-7.14049,1.87171,-17.0414,0.666636,-12.051,40.6413,-8.29749,9.65661,-13.2124
11.2605,18.6722,6.65615,-157.548,-82.4882,159.756,5.43471,-1.9086,0.29759,0.823161,-2.51435,1.53164,-2.14106,-1.26268,1.58783,-9.19881,-4.25623,-8.06931,26.4488,-7.72282,8.53748,10.6104,-3.74779,3.45218,1.59028e-15,-6.36111e-15,-35.3475,-11.464,-70.5581,22.8991,20.1227,-27.2085,2.54134,7.12502,-0.621499,-27.4375,1.59028e-15,-6.36111e-15,-32.4531,12.3414,82.7059,29.8872,3.7699,-32.2414,16.1469,7.12502,-5.48183,46.056,-6.7414,20.676,21.1463,27.0433,-21.9234,-5.69223,10.6466,-16.9903,0.110812,-11.9234,39.5555,-8.47551,9.62574,-13.9252
11.2121,18.643,6.67098,-157.393,-82.2747,159.337,5.56603,-1.94749,-0.0269074,0.962515,-2.58778,1.54288,-2.05437,-1.29899,1.78781,-9.17829,-4.19091,-7.98861,26.4185,-7.60949,8.41973,10.5752,-3.70118,3.40999,4.87022e-15,-2.22639e-14,-35.3164,-11.4477,-70.7614,23.1001,20.4482,-26.8459,2.34081,7.12502,-0.271274,-27.6388,4.87022e-15,-2.22639e-14,-32.5167,12.3286,82.7221,29.879,4.03255,-32.5,16.1207,7.12502,-5.73149,46.0232,-6.28537,19.3404,21.3437,26.8124,-20.8426,-7.27761,0.0594957,-16.6174,-0.14172,-11.9464,38.4644,-8.53485,9.59638,-14.667
11.149,18.6605,6.6876,-154.71,-81.7458,156.086,5.89414,-1.90256,-0.794095,1.18102,-2.58087,1.38674,-1.98616,-1.29396,2.06394,-9.16791,-4.15305,-7.92014,26.4191,-7.54984,8.34319,10.5613,-3.67628,3.37814,1.85864e-14,1.59028e-15,-35.38,-11.5934,-70.8332,23.4323,20.8322,-26.5639,2.78966,7.12502,0.00114975,-27.1901,1.85864e-14,1.59028e-15,-32.5818,12.3929,82.7395,29.8574,4.02886,-32.7992,16.1963,7.12502,-6.02031,46.0908,-5.33469,20.054,20.7168,26.7267,-21.626,-6.40801,4.51508,-15.6894,-0.146944,-12.5663,37.1192,-8.64688,9.44737,-14.8188
11.0943,18.6632,6.71319,-153.2,-81.4482,154.377,6.00313,-1.81716,-1.09191,1.22991,-2.49014,1.17454,-1.99708,-1.2472,2.00894,-9.1291,-4.21224,-7.67813,26.5149,-7.69632,8.29921,10.5917,-3.72922,3.30304,7.35503e-15,-1.11319e-14,-35.5109,-11.784,-70.9762,23.5928,20.9131,-26.8692,3.03429,7.12502,-0.29374,-26.9452,7.35503e-15,-1.11319e-14,-32.6481,11.9101,82.7786,29.7737,4.15828,-33.0792,16.359,7.12502,-6.29068,46.2456,-4.79967,20.0222,20.3168,26.4614,-21.8357,-6.27481,4.07303,-15.3125,-0.505622,-12.8489,35.9603,-8.99938,9.16028,-12.9404
11.0555,18.6621,6.73375,-155.408,-81.5176,156.868,5.85658,-1.74772,-0.691012,1.09828,-2.36898,1.17246,-2.07225,-1.1863,1.77095,-8.91878,-4.30058,-7.61761,26.5555,-7.90131,8.40449,10.5871,-3.81743,3.30856,1.26228e-14,-4.77083e-15,-35.7734,-11.8875,-71.166,23.8698,20.8658,-27.0464,2.72662,7.12502,-0.464878,-27.2526,1.26228e-14,-4.77083e-15,-32.7517,11.3306,82.8222,29.6399,4.27699,-33.1342,16.3953,7.12502,-6.34379,46.2803,-4.93098,20.2871,20.5904,26.366,-21.9892,-6.35951,4.30529,-15.4975,-1.11977,-12.255,34.7396,-9.11851,8.86262,-11.6095
11.0259,18.6598,6.75233,-158.513,-81.6849,160.402,5.75595,-1.6834,-0.0944323,0.898486,-2.24117,1.23547,-2.24647,-1.12325,1.49319,-8.70344,-4.4067,-7.70405,26.5596,-8.12665,8.61449,10.5813,-3.91789,3.37479,-8.54774e-15,-1.59028e-15,-35.962,-12.0541,-71.2821,24.0982,20.708,-27.0482,2.49852,7.12502,-0.466606,-27.4807,-8.54774e-15,-1.59028e-15,-32.8196,11.1297,82.7835,29.4327,3.99127,-32.9208,16.3161,7.12502,-6.13771,46.2072,-5.20673,20.6621,21.0096,26.1857,-21.9822,-6.46967,5.12951,-15.9667,-1.70148,-11.4342,33.6096,-9.03764,8.56914,-10.9099
10.9892,18.6573,6.77302,-159.834,-81.8098,162.106,5.5296,-1.74113,0.162452,0.817379,-2.30101,1.28852,-2.20988,-1.15438,1.40203,-8.68653,-4.39292,-7.70292,26.5055,-8.1154,8.66605,10.5589,-3.90762,3.39446,-5.26779e-15,-1.35174e-14,-35.6728,-11.5806,-71.6622,24.1045,20.2304,-27.319,2.30118,7.12502,-0.728146,-27.6773,-5.26779e-15,-1.35174e-14,-32.7498,11.4423,82.6637,29.1619,3.47108,-32.744,16.2865,7.12502,-5.9671,46.1825,-5.41705,20.6892,21.1236,26.0023,-21.9175,-6.55563,4.49386,-16.3728,-2.32066,-10.9562,32.44,-8.92902,8.40279,-11.1332
10.936,18.6595,6.79937,-158.719,-81.5912,160.992,5.47776,-1.81217,-0.0883107,0.887965,-2.41291,1.23546,-2.09778,-1.20931,1.49219,-8.86674,-4.31271,-7.73169,26.5993,-7.98468,8.64365,10.6164,-3.84722,3.40576,4.73108e-14,0,-35.4817,-11.3079,-72.0215,24.2752,20.4503,-27.7324,2.05879,7.12502,-1.12749,-27.918,4.73108e-14,0,-32.6946,12.0155,82.5165,28.8885,3.0045,-32.8741,16.5366,7.12502,-6.09269,46.429,-5.16497,20.527,20.7569,25.8057,-21.9374,-6.22408,4.01464,-16.1931,-3.02923,-11.0724,31.1954,-9.0999,8.30734,-11.2645
10.8814,18.6619,6.82305,-157.787,-81.2732,159.882,5.61703,-1.81052,-0.439588,0.996151,-2.43453,1.16828,-2.05202,-1.21917,1.62394,-9.03479,-4.28927,-7.83961,26.7228,-7.94723,8.69124,10.6987,-3.83111,3.44496,2.60408e-14,-1.27222e-14,-35.1323,-10.5142,-72.4017,24.4351,19.957,-27.9299,2.02905,7.12502,-1.31826,-27.9466,2.60408e-14,-1.27222e-14,-32.6689,12.5486,82.3941,28.668,2.50274,-32.753,16.7083,7.12502,-5.97578,46.604,-4.65659,20.5651,20.4458,25.5299,-21.9479,-6.00081,3.61414,-15.7839,-3.77045,-11.218,29.9278,-9.25955,8.15804,-11.2287
10.8396,18.6619,6.84662,-159.897,-81.2912,162.189,5.59027,-1.83003,-0.239469,0.945388,-2.44589,1.2977,-2.09165,-1.22562,1.646,-9.04495,-4.30055,-7.94979,26.7456,-7.94418,8.69037,10.7137,-3.84061,3.46413,8.74653e-15,3.18055e-15,-34.922,-10.1394,-72.5517,24.5969,19.6782,-27.8597,2.18536,7.12502,-1.25042,-27.7907,8.74653e-15,3.18055e-15,-32.6769,12.7646,82.396,28.378,2.26659,-32.9712,16.6882,7.12502,-6.18639,46.5779,-4.54043,20.7678,20.7082,25.1642,-21.8649,-6.08247,3.76962,-15.9354,-4.45557,-10.6578,28.6873,-8.90274,8.07585,-12.9012
10.7972,18.6658,6.87045,-162.846,-81.2828,165.255,5.63737,-1.80317,0.106593,0.879939,-2.38678,1.39435,-2.19701,-1.19779,1.55086,-8.87769,-4.3144,-7.87179,26.7318,-7.98611,8.64661,10.6742,-3.8646,3.43203,1.16289e-14,-1.43125e-14,-34.969,-10.1572,-72.6493,24.8015,19.6432,-27.5561,2.35507,7.12502,-0.957168,-27.6225,1.16289e-14,-1.43125e-14,-32.7821,12.9324,82.2917,28.0781,1.87926,-32.9031,16.5179,7.12502,-6.12062,46.4095,-4.26641,21.1769,21.1408,24.7283,-21.8273,-6.24464,4.42466,-16.042,-5.11508,-9.92366,27.5374,-8.61518,7.80326,-13.7198
10.7485,18.6725,6.8978,-164.141,-81.1499,166.542,5.7226,-1.70845,0.246186,0.85498,-2.25166,1.34717,-2.28096,-1.13096,1.41799,-8.68091,-4.36589,-7.62841,26.7197,-8.11165,8.5756,10.6295,-3.91505,3.35132,2.49475e-14,-1.74931e-14,-35.0391,-10.0176,-72.8603,24.9643,19.1654,-27.6004,2.87019,7.12502,-0.999974,-27.1072,2.49475e-14,-1.74931e-14,-32.8814,12.8892,82.1719,27.8237,1.49405,-32.5419,16.2776,7.12502,-5.77192,46.179,-3.8681,21.4756,21.2813,24.3163,-21.7027,-6.41221,4.33178,-15.9452,-5.9892,-9.48744,26.4082,-8.62258,7.57548,-12.3115
10.6992,18.6767,6.92931,-165.606,-81.0436,168.064,5.76384,-1.65769,0.437869,0.837655,-2.17176,1.34254,-2.33085,-1.09254,1.30177,-8.60931,-4.40475,-7.62062,26.7529,-8.21242,8.66466,10.6413,-3.95602,3.37105,2.37548e-14,5.56597e-15,-35.0158,-9.58183,-73.1633,25.1793,18.5888,-27.8946,3.25995,7.12502,-1.28416,-26.7159,2.37548e-14,5.56597e-15,-32.9232,12.7043,82.1657,27.6135,1.5931,-32.6422,16.1818,7.12502,-5.86875,46.0805,-3.60393,21.5023,21.4075,23.9793,-21.4522,-6.39023,4.19757,-15.8455,-6.92559,-9.01936,25.1908,-8.51627,7.58652,-11.6533
10.6473,18.684,6.96079,-164.899,-80.9287,167.516,5.64489,-1.64631,0.325328,0.821104,-2.16476,1.27771,-2.27991,-1.08779,1.2938,-8.61985,-4.45773,-7.77123,26.7553,-8.30033,8.80142,10.6663,-3.99685,3.43522,-1.04362e-14,-3.18055e-15,-34.8486,-9.10106,-73.4409,25.3808,18.2889,-27.8396,3.35754,7.12502,-1.231,-26.6187,-1.04362e-14,-3.18055e-15,-32.9263,12.7292,82.1287,27.4344,1.57799,-32.7199,16.4208,7.12502,-5.94382,46.3174,-3.48203,21.4998,21.0816,23.698,-21.496,-6.02418,5.36565,-15.8764,-7.77928,-8.92679,23.9336,-8.23986,7.6481,-12.3575
10.597,18.6872,6.99071,-163.206,-80.7977,165.974,5.54717,-1.63067,0.0828007,0.814948,-2.16098,1.10777,-2.22933,-1.08359,1.25135,-8.58057,-4.51281,-7.68421,26.6153,-8.38705,8.83289,10.6129,-4.0246,3.41938,4.84041e-14,1.03368e-14,-34.6029,-9.27374,-73.5615,25.4549,18.5748,-27.5963,2.89548,7.12502,-0.995996,-27.0819,4.84041e-14,1.03368e-14,-32.879,12.889,81.9807,27.1621,1.30293,-32.5788,16.5287,7.12502,-5.8076,46.4291,-3.41267,21.5141,20.6121,23.4704,-21.5315,-5.85619,5.74678,-15.9204,-8.78031,-8.96315,22.6876,-8.02184,7.75491,-12.0006
10.5529,18.6832,7.02314,-164.659,-80.5895,167.343,5.81192,-1.56378,0.200976,0.878513,-2.06533,1.10114,-2.31816,-1.0375,1.17877,-8.60939,-4.55538,-7.73707,26.5388,-8.45295,8.93772,10.6043,-4.04683,3.4565,-3.97569e-15,5.56597e-15,-34.4009,-9.49282,-73.5878,25.7025,18.4965,-27.5012,2.36321,7.12502,-0.904147,-27.6146,-3.97569e-15,5.56597e-15,-32.781,13.1114,81.9271,26.859,1.21891,-32.5681,16.4683,7.12502,-5.79725,46.369,-3.14042,21.5174,20.7604,23.3005,-21.367,-5.957,4.53145,-15.6157,-9.6601,-8.5065,21.3959,-7.83229,7.96649,-10.581
10.5074,18.681,7.05852,-166.391,-80.3364,169.019,6.06867,-1.49664,0.312864,0.918862,-1.96745,1.16922,-2.42313,-0.990171,1.18594,-8.68595,-4.56535,-7.89417,26.5819,-8.45639,9.00926,10.6465,-4.05342,3.50819,-1.68967e-15,-3.18055e-15,-33.9851,-8.42538,-73.8348,25.897,17.2036,-27.2396,2.18548,7.12502,-0.651492,-27.7933,-1.68967e-15,-3.18055e-15,-32.7394,13.595,81.866,26.5461,0.992653,-32.5777,16.4025,7.12502,-5.80655,46.303,-2.88368,21.6688,20.9447,23.1221,-21.2442,-6.04504,3.95084,-15.333,-10.2968,-8.03819,20.1266,-7.54523,8.2224,-10.2188
10.4604,18.6857,7.09307,-165.202,-79.9548,167.849,6.18505,-1.39772,-0.0624115,0.918649,-1.86154,1.04525,-2.48239,-0.933783,1.26366,-8.74221,-4.56191,-7.83487,26.6444,-8.46459,8.99401,10.6784,-4.05187,3.49088,-4.27387e-15,7.95139e-16,-33.9689,-8.07054,-74.1732,26.1357,17.1866,-27.1922,2.60675,7.12502,-0.605678,-27.3721,-4.27387e-15,7.95139e-16,-32.6991,14.0135,81.6706,26.1864,0.621859,-32.5439,16.156,7.12502,-5.77384,46.0573,-2.70673,21.8545,20.5213,22.8909,-21.174,-6.08766,3.18309,-15.1943,-11.1344,-8.09524,18.9829,-7.33688,8.62624,-10.3393
10.4074,18.6941,7.12731,-163.279,-79.6249,165.966,6.17612,-1.28082,-0.475516,0.926178,-1.73747,0.819612,-2.46706,-0.868381,1.25257,-8.67509,-4.60128,-7.71355,26.5436,-8.55609,9.06145,10.6346,-4.07711,3.48261,4.6615e-14,-6.75868e-15,-34.072,-8.1695,-74.4764,26.3606,17.8707,-27.2112,3.14333,7.12502,-0.624039,-26.8355,4.6615e-14,-6.75868e-15,-32.6094,14.2217,81.4364,25.7779,0.215838,-32.5897,15.8442,7.12502,-5.81808,45.7443,-2.54187,22.0611,19.9572,22.7077,-21.215,-6.1685,2.77027,-15.0045,-12.3932,-8.16496,17.7915,-7.64617,9.08538,-7.18688
10.3462,18.6968,7.16123,-163.605,-79.4374,166.521,5.8819,-1.20241,-0.394513,0.955958,-1.62925,0.727415,-2.27965,-0.816191,1.09548,-8.69561,-4.64747,-7.69503,26.4193,-8.62708,9.14912,10.6034,-4.09596,3.50005,3.76697e-14,-6.75868e-15,-34.008,-7.8839,-74.8483,26.6791,17.6564,-27.3843,3.24912,7.12502,-0.791226,-26.7292,3.76697e-14,-6.75868e-15,-32.4864,14.5379,81.2164,25.4388,-0.0891561,-32.5187,15.7609,7.12502,-5.74957,45.6629,-2.52971,22.3605,19.8462,22.5612,-21.3133,-6.28676,3.11008,-14.8667,-13.7772,-7.61811,16.5082,-8.51663,9.57977,-0.898049
10.2843,18.7005,7.19579,-163.62,-79.1166,166.65,5.75383,-1.11111,-0.505168,0.971521,-1.51626,0.623616,-2.19444,-0.759549,1.03887,-8.65653,-4.66501,-7.63106,26.3189,-8.66029,9.17843,10.5603,-4.1028,3.49484,3.97569e-16,-5.96354e-15,-33.9658,-7.53997,-75.1902,27.0166,17.2188,-27.1988,3.27962,7.12502,-0.612055,-26.6992,3.97569e-16,-5.96354e-15,-32.4833,14.7555,81.0508,25.2158,-0.22216,-32.4528,16.0772,7.12502,-5.68596,45.9809,-2.41783,22.8059,19.6238,22.4383,-21.5014,-6.20169,3.9008,-14.6111,-14.8164,-7.35658,15.2132,-8.78178,10.1606,1.44758
10.2225,18.7072,7.23607,-162.694,-78.7364,165.685,5.78368,-0.988475,-0.786909,0.9986,-1.37524,0.417588,-2.18468,-0.687873,0.974849,-8.4456,-4.69905,-7.41467,26.114,-8.74375,9.19375,10.4421,-4.12683,3.45428,2.98674e-14,3.57812e-15,-33.9648,-7.41244,-75.4167,27.3141,17.1202,-26.7212,3.6594,7.12502,-0.150854,-26.3203,2.98674e-14,3.57812e-15,-32.4938,14.6052,80.9779,24.9863,-0.299101,-32.5039,16.3591,7.12502,-5.73521,46.2614,-2.1394,23.2436,19.1599,22.3375,-21.7331,-5.86417,5.24345,-14.2388,-15.7574,-7.48264,13.9553,-8.58499,10.7811,1.42361
10.164,18.7057,7.28419,-161.62,-78.2856,164.428,6.00291,-0.861721,-1.16086,1.06147,-1.23765,0.251707,-2.24122,-0.617759,1.00728,-8.30776,-4.70414,-7.40419,25.9396,-8.76703,9.29889,10.3577,-4.13066,3.48847,3.68249e-14,1.59028e-15,-33.8739,-7.22658,-75.4733,27.6237,16.9879,-26.3877,3.78833,7.12502,0.171302,-26.1913,3.68249e-14,1.59028e-15,-32.4593,14.8669,80.914,24.689,-0.375034,-32.8116,16.3229,7.12502,-6.03232,46.217,-1.76288,23.4341,18.6452,22.2822,-21.8954,-5.61693,5.64231,-13.6926,-16.7157,-7.78537,12.7136,-8.50883,11.4716,1.64928
10.1048,18.702,7.33204,-161.568,-77.8183,164.273,6.16437,-0.724198,-1.34613,1.122,-1.07248,0.165246,-2.27152,-0.535292,1.01165,-8.38055,-4.69902,-7.61884,25.9218,-8.76602,9.50312,10.3853,-4.12656,3.59766,-1.45113e-14,4.37326e-15,-33.7068,-6.91656,-75.5422,27.9043,16.6364,-26.2032,3.68034,7.12502,0.349477,-26.2991,-1.45113e-14,4.37326e-15,-32.4039,15.5778,80.7294,24.316,-0.843625,-32.937,16.2215,7.12502,-6.15336,46.1122,-1.50261,23.645,18.3418,22.2334,-22.0046,-5.55719,5.39772,-13.1888,-17.2223,-7.97281,11.5641,-8.1681,12.0439,0.601214
10.0415,18.7001,7.36935,-162.376,-77.5261,165.259,5.98118,-0.638218,-1.36151,1.12762,-0.955657,0.167753,-2.16631,-0.477608,1.01082,-8.40685,-4.69094,-7.6934,25.8516,-8.74596,9.58068,10.3698,-4.11453,3.6397,-1.3418e-15,-7.95139e-15,-33.5861,-6.52609,-75.7135,28.1594,16.879,-25.9789,3.67016,7.12502,0.566129,-26.3088,-1.3418e-15,-7.95139e-15,-32.4217,16.1481,80.5513,24.0191,-1.41365,-32.9193,16.457,7.12502,-6.13627,46.3481,-1.51878,23.9857,18.2991,22.1994,-22.1472,-5.59618,5.31292,-12.9936,-17.3008,-7.8005,10.4577,-7.58112,12.2159,-0.0954012
9.97475,18.6953,7.40903,-162.956,-77.2577,165.976,5.80687,-0.568574,-1.40352,1.13616,-0.863557,0.120624,-2.06282,-0.432241,0.976455,-8.40243,-4.68141,-7.60346,25.8102,-8.75904,9.63085,10.3533,-4.10791,3.64008,-2.84262e-14,-1.59028e-15,-33.4995,-6.00924,-76.0168,28.4283,17.1803,-25.6401,3.70753,7.12502,0.893319,-26.2703,-2.84262e-14,-1.59028e-15,-32.436,16.2117,80.4727,23.8171,-1.40948,-33.089,16.8296,7.12502,-6.30017,46.7159,-1.48711,24.1742,18.2306,22.1585,-22.1837,-5.64952,5.01126,-12.7796,-17.1775,-7.76288,9.4698,-7.05251,12.0808,-1.04228
9.90593,18.6897,7.46104,-162.362,-76.8704,165.196,5.92582,-0.4843,-1.6872,1.23977,-0.77652,-0.0248075,-2.02323,-0.389817,0.980388,-8.49471,-4.67515,-7.67644,25.8109,-8.76479,9.76079,10.382,-4.10082,3.69699,-4.12478e-15,-1.03368e-14,-33.3835,-5.41051,-76.2913,28.7332,17.0279,-25.4656,4.07903,7.12502,1.06184,-25.8981,-4.12478e-15,-1.03368e-14,-32.4194,16.3941,80.4054,23.5706,-1.40796,-33.1266,16.5768,7.12502,-6.33643,46.462,-1.14359,24.2234,17.8596,22.1535,-22.1693,-5.70735,3.88291,-12.2572,-17.1281,-8.29711,8.63594,-6.67517,11.8981,-1.72538
9.83697,18.6884,7.51591,-161.562,-76.4741,164.204,6.05949,-0.399556,-1.96517,1.32151,-0.691316,-0.229625,-2.01545,-0.348345,0.920294,-8.51304,-4.64381,-7.6286,25.7865,-8.745,9.83485,10.3758,-4.0797,3.71734,-2.28602e-15,-2.38542e-15,-33.3184,-4.77497,-76.6204,29.0442,16.8157,-25.2519,4.68614,7.12502,1.26827,-25.2898,-2.28602e-15,-2.38542e-15,-32.4807,16.8177,80.1782,23.3319,-1.65969,-32.9624,16.1773,7.12502,-6.1779,46.0672,-0.823519,24.4322,17.4077,22.2409,-22.3241,-5.75439,3.00321,-11.6646,-17.0927,-8.91657,7.7682,-6.23461,11.742,-2.0334
9.76952,18.6893,7.57227,-161.783,-76.11,164.396,6.10612,-0.328896,-1.94693,1.31271,-0.602474,-0.398495,-2.05526,-0.304448,0.73011,-8.3682,-4.60078,-7.39942,25.7086,-8.71032,9.7668,10.3011,-4.05644,3.65933,1.14301e-14,6.36111e-15,-33.2577,-4.25712,-76.9273,29.2568,16.5836,-25.0634,4.88714,7.12502,1.45037,-25.0877,1.14301e-14,6.36111e-15,-32.6115,17.0701,79.9691,23.1266,-1.33721,-33.4956,15.8064,7.12502,-6.6927,45.6807,-0.702148,24.6436,17.1737,22.3407,-22.4542,-5.76477,2.38008,-11.3272,-16.972,-9.20789,7.15426,-5.44165,11.6129,-3.073
9.69857,18.6877,7.63555,-162.128,-75.6949,164.593,6.26081,-0.222383,-1.88351,1.35109,-0.46662,-0.560374,-2.10758,-0.238296,0.518488,-8.26367,-4.60833,-7.20115,25.5986,-8.70915,9.62649,10.2245,-4.05521,3.57529,1.49585e-14,-2.22639e-14,-33.1747,-3.77842,-77.1533,29.4723,16.4162,-25.1299,4.49178,7.12502,1.38609,-25.4835,1.49585e-14,-2.22639e-14,-32.653,17.0671,79.9453,22.9157,-0.607459,-34.413,15.5121,7.12502,-7.57823,45.3563,-0.446871,24.5676,16.9357,22.3965,-22.3585,-5.6945,1.15933,-11.1266,-16.8377,-9.61862,7.26391,-4.6867,11.3935,-3.2812
9.62072,18.6808,7.69362,-162.929,-75.392,165.394,6.16419,-0.165564,-1.74053,1.38311,-0.380661,-0.609655,-2.02398,-0.197312,0.380205,-8.22149,-4.55821,-7.12583,25.5903,-8.62451,9.52624,10.1962,-4.02115,3.5377,6.90777e-15,1.98785e-15,-33.1008,-2.96046,-77.4465,29.7189,16.4502,-25.1182,4.4432,7.12502,1.39742,-25.532,6.90777e-15,1.98785e-15,-32.7621,17.362,79.782,22.7276,-0.822255,-34.6026,15.5427,7.12502,-7.76125,45.3803,-0.294998,24.6779,16.8734,22.4534,-22.3052,-5.56541,1.52263,-11.202,-16.7352,-9.79171,7.8663,-4.08403,10.9874,-1.30684
9.54248,18.6692,7.74705,-163.479,-75.1603,166.013,5.97907,-0.113792,-1.65468,1.39358,-0.303063,-0.670071,-1.91225,-0.159843,0.263168,-8.30398,-4.51123,-7.1484,25.7643,-8.58581,9.55719,10.2743,-4.00137,3.55805,2.69602e-14,4.96962e-15,-33.1163,-2.23659,-77.7462,30.0891,16.4334,-24.8947,4.5079,7.12502,1.61325,-25.4657,2.69602e-14,4.96962e-15,-32.8807,17.4995,79.6601,22.6289,-1.08685,-34.4991,15.8649,7.12502,-7.66128,45.7061,-0.190036,24.8808,16.7721,22.4736,-22.4079,-5.19871,4.00927,-11.4932,-16.6991,-9.95388,8.85286,-3.31254,10.3538,-0.492363
9.46785,18.662,7.80883,-163.113,-74.7277,165.427,6.13175,0.0195571,-1.796,1.45115,-0.147022,-0.897339,-1.94105,-0.0837778,0.0973189,-8.42691,-4.47144,-7.16715,25.987,-8.59934,9.707,10.3893,-3.99294,3.6141,1.68718e-14,-1.39149e-14,-33.1197,-2.08265,-77.909,30.3649,16.5549,-25.0737,4.61859,7.12502,1.44036,-25.3563,1.68718e-14,-1.39149e-14,-32.8747,17.5914,79.5186,22.3796,-1.24724,-34.4714,16.101,7.12502,-7.6346,45.9432,0.224219,24.9488,16.3297,22.3829,-22.3997,-4.84633,4.94239,-11.6971,-16.6281,-10.6541,10.3233,-2.80369,9.81408,-4.6027
9.39181,18.6597,7.86803,-163.683,-74.4391,166,6.10978,0.120911,-1.65639,1.42945,-0.0065594,-1.02088,-1.95327,-0.0145337,-0.118807,-8.43701,-4.43879,-6.99706,26.1464,-8.60693,9.6747,10.4415,-3.98634,3.57385,2.13942e-14,9.34288e-15,-33.1287,-2.05976,-78.0016,30.5766,16.6148,-25.3816,4.58476,7.12502,1.14297,-25.3919,2.13942e-14,9.34288e-15,-32.9637,17.8889,79.2434,22.1324,-1.6357,-34.4017,16.3008,7.12502,-7.56729,46.1454,0.433465,24.9801,16.1984,22.3057,-22.234,-4.76238,4.54068,-12.0897,-16.2292,-10.9676,11.7949,-3.07335,9.58852,-8.81372
9.31541,18.6615,7.9197,-165.808,-74.4421,168.521,5.71754,0.101825,-1.0854,1.31593,0.0187235,-0.911649,-1.85127,-0.0013947,-0.328386,-8.35916,-4.38519,-6.8585,26.2539,-8.5661,9.60337,10.4518,-3.96805,3.5321,-2.28727e-14,4.77083e-15,-33.1647,-1.95717,-78.0747,30.8206,16.8513,-25.5736,4.61581,7.12502,0.957608,-25.3618,-2.28727e-14,4.77083e-15,-33.1592,18.4024,78.9281,21.9399,-2.11035,-34.3154,16.4731,7.12502,-7.48403,46.3207,0.190778,24.9828,16.6512,22.3737,-22.0221,-4.97066,3.71784,-12.7666,-16.0624,-10.4191,12.9716,-3.74341,10.1506,-9.87033
9.241,18.6666,7.96874,-166.842,-74.2924,169.653,5.57982,0.0297912,-1.0928,1.32609,-0.0695053,-0.736933,-1.76353,-0.0447182,-0.138394,-8.46289,-4.25656,-7.12628,26.4026,-8.31933,9.52521,10.5096,-3.8846,3.58186,3.13831e-14,1.49089e-15,-33.0108,-1.58216,-77.9654,31.1107,17.3237,-25.4414,4.8372,7.12502,1.08529,-25.1398,3.13831e-14,1.49089e-15,-33.3237,19.2828,78.7467,21.7675,-2.5669,-34.0052,16.599,7.12502,-7.18462,46.4571,0.164337,24.9781,16.7971,22.5498,-21.8273,-5.19965,2.75973,-13.0821,-15.7816,-10.4004,13.9553,-4.13332,10.576,-10.3019
9.16859,18.6728,8.02009,-166.422,-73.8851,169.077,5.67837,0.0134676,-1.63947,1.42248,-0.124466,-0.645819,-1.71775,-0.0720578,0.265755,-8.74198,-4.13798,-7.57972,26.6217,-8.05091,9.48045,10.6356,-3.79858,3.67726,-4.32357e-14,6.55989e-15,-32.6776,-0.944733,-77.8402,31.3328,17.4738,-25.1467,4.83342,7.12502,1.36987,-25.1419,-4.32357e-14,6.55989e-15,-33.3547,20.3137,78.6019,21.4593,-3.04357,-33.9889,16.6207,7.12502,-7.16885,46.4793,0.276504,25.026,16.4205,22.8623,-21.671,-5.22138,1.90379,-13.0093,-15.2648,-11.0196,14.6944,-4.84358,10.2556,-8.05162
9.09775,18.6805,8.07826,-166.088,-73.4508,168.612,5.74879,0.0518839,-2.00614,1.50792,-0.0987345,-0.663626,-1.66897,-0.0604484,0.451336,-8.92671,-4.0802,-7.80561,26.7638,-7.90394,9.41057,10.7162,-3.75351,3.7092,-4.00054e-15,-9.34288e-15,-32.4007,-0.403915,-77.843,31.5075,17.1542,-25.2458,4.82824,7.12502,1.27419,-25.1477,-4.00054e-15,-9.34288e-15,-33.3068,20.9748,78.4736,21.1202,-3.38915,-34.0242,16.4026,7.12502,-7.20295,46.26,0.240672,25.1364,15.9972,23.3462,-21.5256,-5.1263,1.4949,-12.8329,-14.4607,-11.6558,15.1674,-5.40036,9.2806,-5.48339
9.0247,18.6879,8.13628,-165.768,-73.13,168.137,5.82887,0.0962149,-2.19137,1.55089,-0.0591182,-0.830119,-1.67034,-0.0420828,0.381368,-8.88953,-4.04208,-7.84151,26.7929,-7.85422,9.42093,10.7161,-3.73619,3.72679,-4.11733e-14,7.85199e-15,-32.3389,-0.366804,-77.9191,31.7062,16.8286,-25.2551,4.6717,7.12502,1.26515,-25.3043,-4.11733e-14,7.85199e-15,-33.2996,21.323,78.1973,20.78,-3.67478,-33.8063,16.1259,7.12502,-6.99264,45.9904,0.159448,25.0971,15.5867,23.9809,-21.357,-4.93989,1.28329,-12.5938,-13.8244,-12.2978,15.49,-5.46812,8.75005,-5.64586
8.95063,18.6947,8.19304,-165.537,-72.8375,167.766,5.89243,0.1315,-2.37561,1.57299,-0.0310032,-0.981851,-1.68367,-0.0290702,0.326714,-8.82546,-3.97696,-7.92344,26.8798,-7.78545,9.48219,10.734,-3.71227,3.77502,-4.63293e-14,2.68359e-15,-32.3712,-0.520792,-77.9423,31.9265,16.7417,-25.0579,4.77569,7.12502,1.45562,-25.1991,-4.63293e-14,2.68359e-15,-33.2667,21.5819,77.9044,20.3712,-3.90674,-33.6902,16.1043,7.12502,-6.88055,45.9725,-0.0257615,24.8898,15.1889,24.7516,-21.1327,-4.69283,0.640677,-12.3115,-13.305,-12.8788,15.6994,-5.52728,8.81007,-6.50143
8.87769,18.7009,8.24919,-165.691,-72.4956,167.85,5.88417,0.187894,-2.5033,1.60732,0.0335716,-1.05921,-1.64526,0.00179839,0.314156,-8.91144,-3.9176,-7.89619,27.0447,-7.69344,9.37606,10.7973,-3.678,3.74452,7.98866e-15,-1.13307e-14,-32.3021,-0.695446,-77.893,32.067,16.7513,-25.1287,4.95248,7.12502,1.3873,-25.0228,7.98866e-15,-1.13307e-14,-33.2316,22.1296,77.5532,19.9335,-4.46558,-33.7826,16.2201,7.12502,-6.96969,46.0853,-0.336981,24.7497,14.9185,25.642,-20.8161,-4.59572,-0.969933,-12.0776,-12.3231,-13.3951,15.8248,-5.19477,8.49453,-9.7191
8.80384,18.7053,8.30447,-165.787,-72.0884,167.868,5.88571,0.330291,-2.65806,1.60937,0.209413,-1.16623,-1.64833,0.0888409,0.278199,-8.8618,-3.91401,-7.79237,27.1042,-7.68839,9.25267,10.7997,-3.68162,3.68333,-3.60732e-14,7.8023e-15,-32.3273,-1.05885,-77.7662,32.2199,16.7153,-25.2721,4.7919,7.12502,1.2488,-25.1842,-3.60732e-14,7.8023e-15,-33.3041,22.8152,77.1138,19.5105,-5.46021,-33.9125,16.1771,7.12502,-7.09514,46.0382,-0.689231,24.6794,14.6075,26.607,-20.4744,-4.52146,-2.75728,-11.8831,-11.2528,-13.9997,15.961,-4.96185,7.95407,-13.001
8.72806,18.7107,8.36019,-166.023,-71.7958,168.082,5.82402,0.404549,-2.71491,1.58222,0.303876,-1.25933,-1.64398,0.135876,0.207746,-8.78631,-3.85974,-7.72767,27.1828,-7.62831,9.1934,10.8023,-3.65972,3.66044,-2.24378e-14,8.5291e-15,-32.4233,-1.27544,-77.7239,32.4427,16.5302,-25.5384,4.59416,7.12502,0.991618,-25.3833,-2.24378e-14,8.5291e-15,-33.4541,23.269,76.7262,19.2508,-5.93543,-33.8883,16.1435,7.12502,-7.07174,46.0053,-1.12945,24.7147,14.3761,27.6244,-20.2502,-4.3879,-3.41907,-11.7475,-10.5926,-14.4221,16.1348,-5.0344,7.68869,-14.3144
8.65078,18.7158,8.41811,-166.58,-71.5879,168.66,5.73558,0.415221,-2.65003,1.55086,0.32481,-1.28673,-1.62693,0.146609,0.142146,-8.76481,-3.78873,-7.65502,27.3065,-7.53235,9.08083,10.8265,-3.62476,3.62094,-3.28927e-15,5.2181e-16,-32.5322,-1.28848,-77.7495,32.6934,16.2064,-25.9583,4.48857,7.12502,0.585979,-25.4904,-3.28927e-15,5.2181e-16,-33.5736,23.6194,76.4097,19.0089,-6.00408,-33.898,16.3887,7.12502,-7.08113,46.2503,-1.63074,24.575,14.2204,28.6596,-20.0053,-4.01498,-3.61921,-11.634,-10.2047,-14.6365,16.3687,-5.09624,7.74271,-15.4254
8.57586,18.7214,8.47413,-167.096,-71.3594,169.214,5.62748,0.422135,-2.66324,1.53233,0.338454,-1.26672,-1.58617,0.153661,0.169725,-8.72819,-3.69892,-7.6943,27.3806,-7.39603,9.02806,10.8319,-3.57585,3.6277,3.52843e-15,1.18277e-14,-32.5527,-1.16105,-77.7584,32.9153,15.8031,-25.8898,4.49452,7.12502,0.652182,-25.4842,3.52843e-15,1.18277e-14,-33.7065,24.0463,76.1311,18.8309,-6.16929,-34.056,16.6549,7.12502,-7.2336,46.5112,-2.17922,24.2556,14.0123,29.687,-19.5144,-3.58103,-4.83358,-11.5693,-9.74214,-14.8311,16.6983,-5.34233,7.60298,-15.6561
8.50146,18.7255,8.52934,-167.541,-71.114,169.724,5.47025,0.439289,-2.7069,1.52503,0.366531,-1.23454,-1.50706,0.167525,0.22627,-8.76534,-3.63542,-7.87399,27.476,-7.28757,9.05416,10.8718,-3.54243,3.6838,-4.30245e-14,1.07344e-14,-32.5694,-0.946654,-77.7374,33.2091,15.3552,-25.7914,4.23025,7.12502,0.747222,-25.7482,-4.30245e-14,1.07344e-14,-33.8914,24.592,75.849,18.7591,-6.4598,-34.0788,16.8711,7.12502,-7.25563,46.7267,-2.77308,23.991,13.8223,30.7596,-18.9454,-3.29154,-6.24078,-11.5311,-9.40166,-15.0133,17.0245,-5.7057,7.36735,-15.2864
8.42284,18.73,8.58278,-167.696,-70.7309,169.643,5.5523,0.521577,-2.89982,1.58411,0.457993,-1.31688,-1.49506,0.211111,0.243211,-8.89869,-3.58373,-7.84933,27.6393,-7.20218,8.95736,10.9464,-3.50923,3.65551,-1.47598e-14,-1.49089e-15,-32.6343,-1.0569,-77.6831,33.5201,15.2094,-25.5379,4.13948,7.12502,0.992014,-25.838,-1.47598e-14,-1.49089e-15,-34.0156,24.8517,75.6307,18.7052,-6.36371,-34.2549,16.885,7.12502,-7.4256,46.7347,-3.11844,23.8879,13.5349,31.9409,-18.4503,-3.02585,-7.90065,-11.1314,-9.22296,-15.477,17.3047,-6.1161,7.44359,-15.1264
8.34594,18.7332,8.63469,-167.369,-70.2843,168.903,5.7972,0.629583,-3.33616,1.66523,0.556126,-1.50044,-1.55292,0.256907,0.290291,-8.91787,-3.52496,-7.57059,27.6809,-7.11911,8.75353,10.9387,-3.4655,3.54232,-1.81764e-14,4.27387e-15,-32.6948,-1.2214,-77.7001,33.7086,15.0208,-25.2187,4.44239,7.12502,1.30037,-25.5334,-1.81764e-14,4.27387e-15,-34.1067,24.9586,75.3701,18.606,-6.06809,-34.638,16.7356,7.12502,-7.79536,46.5719,-3.37982,23.7911,13.0017,33.2089,-17.8658,-2.56795,-9.00803,-10.5813,-9.17345,-16.2024,17.5728,-6.54376,7.7844,-14.7881
8.27526,18.7397,8.68878,-167.258,-70.0215,168.648,5.90325,0.635519,-3.61249,1.64246,0.536572,-1.59499,-1.63647,0.247449,0.347924,-8.83436,-3.42992,-7.38177,27.6628,-6.98767,8.61877,10.8892,-3.4054,3.47718,-1.91579e-14,-8.44835e-15,-32.847,-1.16445,-77.7998,33.9791,14.6131,-25.5964,4.47165,7.12502,0.935592,-25.506,-1.91579e-14,-8.44835e-15,-34.2292,24.8437,75.1935,18.5513,-5.46141,-34.7602,16.7318,7.12502,-7.9133,46.5637,-4.0102,23.5662,12.5507,34.5698,-17.1758,-2.05416,-9.26919,-10.3531,-9.03954,-16.6746,17.8024,-6.82783,7.828,-14.4351
8.20295,18.7432,8.73896,-167.762,-69.7344,168.967,6.02517,0.659641,-3.78871,1.6786,0.551907,-1.55323,-1.66966,0.254697,0.487396,-8.92285,-3.35419,-7.44998,27.7579,-6.85663,8.57056,10.9303,-3.35661,3.48836,1.95057e-14,-6.85807e-15,-32.803,-0.836292,-77.8377,34.0788,14.2339,-25.9517,4.36328,7.12502,0.59241,-25.6156,1.95057e-14,-6.85807e-15,-34.3218,24.7298,75.1965,18.5452,-4.86429,-34.7724,16.6805,7.12502,-7.92514,46.5119,-4.63346,23.3555,12.3589,36.0383,-16.4197,-1.57368,-9.21361,-9.99012,-8.84865,-16.9246,18.0085,-7.07189,7.70947,-14.6633
8.13164,18.743,8.78991,-167.984,-69.4292,168.964,6.16178,0.700994,-4.03084,1.73249,0.58121,-1.59073,-1.69325,0.267562,0.581029,-8.98193,-3.31852,-7.40808,27.76,-6.78561,8.49587,10.9316,-3.32603,3.46168,3.67752e-15,-1.8487e-14,-32.6,-0.473229,-77.9289,34.0304,13.9525,-25.7027,4.27088,7.12502,0.832899,-25.7072,3.67752e-15,-1.8487e-14,-34.2962,24.3064,75.3545,18.6316,-3.99882,-34.9159,16.662,7.12502,-8.06362,46.4882,-5.34258,22.822,12.0353,37.62,-15.5029,-1.2454,-11.1496,-9.6318,-8.74662,-17.288,18.3114,-7.34528,7.67033,-15.2472
8.06639,18.7431,8.84655,-167.671,-69.2449,168.735,6.09691,0.684829,-4.20411,1.65802,0.54797,-1.66965,-1.73332,0.252678,0.599324,-8.8952,-3.30729,-7.57941,27.6232,-6.75505,8.61171,10.8697,-3.31866,3.53719,-9.24349e-15,1.66979e-14,-32.5542,-0.20722,-77.982,34.1606,13.8597,-25.4085,4.36137,7.12502,1.11703,-25.6154,-9.24349e-15,1.66979e-14,-34.2764,23.9726,75.4773,18.6913,-3.22341,-35.1429,16.6366,7.12502,-8.2827,46.4542,-6.51023,22.0066,11.4599,39.3091,-14.4006,-0.884053,-13.7393,-9.72376,-8.69203,-17.6842,18.6369,-7.55173,7.80489,-15.9095
8.00892,18.7404,8.90294,-167.946,-69.1131,169.221,6.03294,0.666079,-4.13497,1.54387,0.530254,-1.67039,-1.81401,0.247813,0.561125,-8.78498,-3.30523,-7.77633,27.4788,-6.74557,8.76464,10.8047,-3.32045,3.62821,1.635e-14,-5.36719e-15,-32.6143,-0.124829,-78.0063,34.3349,13.7984,-25.5282,4.89251,7.12502,1.00142,-25.0849,1.635e-14,-5.36719e-15,-34.3162,23.8563,75.4156,18.6968,-3.30084,-34.8091,16.9086,7.12502,-7.96056,46.7387,-7.80173,21.5729,11.1711,41.0802,-13.26,-0.509161,-14.4707,-9.97813,-8.44626,-17.7866,18.9102,-7.70997,7.90565,-16.0848
7.94995,18.7374,8.95494,-168.252,-68.8902,169.522,6.12929,0.664847,-4.19252,1.49809,0.516124,-1.70715,-1.91458,0.24275,0.55536,-8.73293,-3.26453,-7.76215,27.3568,-6.68235,8.787,10.7421,-3.28837,3.64039,2.26615e-14,-1.11319e-14,-32.799,-0.173722,-78.0501,34.7998,13.9188,-25.4233,4.88312,7.12502,1.10276,-25.0938,2.26615e-14,-1.11319e-14,-34.4039,23.9481,74.973,18.5877,-4.50936,-33.5495,17.1989,7.12502,-6.74471,47.0715,-8.91348,21.2537,10.8991,42.8758,-12.0617,-0.155851,-14.2764,-9.92749,-8.298,-17.99,19.1171,-8.0042,7.99785,-14.8079
7.8867,18.7368,9.00194,-168.049,-68.6035,169.204,6.176,0.65968,-4.55411,1.51476,0.476275,-1.81524,-1.92383,0.221724,0.64888,-8.74204,-3.19581,-7.46312,27.2539,-6.56182,8.56929,10.6751,-3.22421,3.52123,3.59055e-14,-5.36719e-15,-32.9181,-0.183458,-78.1822,35.2011,14.1286,-25.3003,4.7198,7.12502,1.22153,-25.2564,3.59055e-14,-5.36719e-15,-34.2992,23.7589,74.7986,18.5254,-4.37686,-33.2206,17.4927,7.12502,-6.42714,47.3752,-9.96992,20.8208,10.3922,44.6426,-10.8239,0.202256,-14.0529,-9.72894,-8.14714,-18.4293,19.3244,-8.41922,7.96986,-12.6616
7.81891,18.7371,9.04285,-167.796,-68.2949,168.725,6.24426,0.646362,-5.02154,1.54538,0.415307,-1.93907,-1.92993,0.189462,0.786702,-8.59479,-3.11453,-7.11445,27.0629,-6.43909,8.35685,10.5434,-3.15917,3.39651,-3.97569e-15,2.38542e-15,-33.0511,-0.668413,-78.2577,35.4962,14.7613,-25.6529,4.6889,7.12502,0.880976,-25.289,-3.97569e-15,2.38542e-15,-34.3662,24.2844,74.2115,18.36,-5.01594,-33.0632,17.2897,7.12502,-6.27523,47.1768,-10.8736,20.3958,9.88641,46.3606,-9.58563,0.50708,-13.9283,-9.38365,-7.98791,-18.9379,19.5253,-8.89921,7.93738,-10.7087
7.75627,18.7372,9.08151,-167.86,-67.9972,168.561,6.43875,0.662826,-5.29605,1.53774,0.396249,-2.05096,-2.04653,0.180755,0.824492,-8.34881,-3.09091,-6.97096,26.8636,-6.40336,8.26829,10.4097,-3.14548,3.34361,2.77305e-14,2.14687e-14,-33.2021,-1.20212,-78.2789,35.7093,15.3559,-25.6358,4.8801,7.12502,0.89746,-25.0978,2.77305e-14,2.14687e-14,-34.407,24.3373,73.8261,18.2448,-5.32476,-32.7469,17.229,7.12502,-5.96984,47.1249,-11.7523,19.9228,9.59012,48.0458,-8.30921,0.656183,-13.9054,-8.98267,-7.76754,-19.2844,19.673,-9.30557,7.74997,-9.69724
7.70265,18.7378,9.12555,-168.121,-67.7609,168.835,6.50021,0.692081,-5.37209,1.50299,0.423101,-2.06071,-2.11867,0.196248,0.853918,-8.17327,-3.11934,-7.03893,26.6418,-6.40173,8.23239,10.2945,-3.15748,3.34183,-6.83322e-14,-3.4191e-14,-33.1814,-0.602903,-78.4664,35.7393,14.9528,-25.413,4.98887,7.12502,1.11273,-24.988,-6.83322e-14,-3.4191e-14,-34.2333,23.8939,73.8794,18.1145,-5.26261,-32.6171,17.0313,7.12502,-5.84458,46.9307,-12.9171,19.3712,9.40749,49.693,-6.92834,0.597138,-10.1923,-8.81388,-7.44891,-19.4163,19.7083,-9.44912,7.51071,-9.64879
7.65132,18.7344,9.17132,-167.918,-67.5171,168.605,6.49887,0.662132,-5.60195,1.58202,0.366977,-2.07964,-2.03437,0.164356,0.967724,-8.33839,-3.12498,-7.33435,26.5459,-6.33028,8.28054,10.2966,-3.13828,3.41597,6.17226e-14,1.03368e-14,-32.941,-0.0326833,-78.6234,35.8709,14.5528,-25.1778,4.80608,7.12502,1.33987,-25.1695,6.17226e-14,1.03368e-14,-33.8943,23.4052,74.1127,18.0777,-5.03589,-32.4711,17.2549,7.12502,-5.70356,47.1581,-14.0597,18.7932,9.01467,51.2711,-5.53875,0.447477,-7.91623,-8.64938,-7.04246,-19.788,19.6579,-9.5387,7.35605,-8.77131
7.59024,18.7289,9.20304,-167.276,-67.1718,167.633,6.48729,0.583896,-6.25386,1.76688,0.219272,-2.10145,-1.82988,0.080338,1.32152,-8.4774,-3.04803,-7.9239,26.4851,-6.13024,8.46605,10.3073,-3.07697,3.60769,-8.69186e-14,-2.5842e-14,-32.6799,0.241684,-78.6321,35.985,14.6737,-24.8564,4.90818,7.12502,1.65029,-25.0652,-8.69186e-14,-2.5842e-14,-33.6758,23.2335,74.2155,18.0231,-4.89243,-32.2771,17.6481,7.12502,-5.51632,47.5563,-14.8556,18.181,8.43062,52.7718,-4.20488,0.331869,-9.57809,-8.13626,-6.80063,-20.5129,19.5661,-9.71199,7.36809,-7.55401
7.52063,18.7284,9.22555,-167.369,-66.8682,167.302,6.57241,0.456538,-6.74993,1.87796,0.0133486,-2.00968,-1.74737,-0.0275971,1.70921,-8.32732,-2.87654,-8.65078,26.42,-5.81301,8.68692,10.2504,-2.98471,3.85355,-1.18774e-14,3.1408e-14,-32.5889,0.894855,-78.6954,35.9791,14.6967,-24.6031,5.06811,7.12502,1.89489,-24.9032,-1.18774e-14,3.1408e-14,-33.6762,23.3469,74.1569,17.842,-4.96367,-32.1553,18.0591,7.12502,-5.3987,47.9703,-15.3845,17.8147,8.28716,54.1573,-3.01683,-0.113523,-12.1473,-7.35248,-6.81922,-20.9791,19.3644,-10.0012,7.59784,-6.94264
7.46228,18.728,9.25299,-167.8,-66.5922,167.479,6.76197,0.463002,-6.9212,1.90501,-0.00855974,-2.00107,-1.82304,-0.0380848,1.81511,-8.15861,-2.81425,-8.85958,26.3285,-5.7034,8.73011,10.1796,-2.95545,3.9186,-2.22142e-14,-3.73715e-14,-32.6546,1.01621,-78.8,36.0152,14.5689,-24.7392,5.20242,7.12502,1.76348,-24.77,-2.22142e-14,-3.73715e-14,-33.5094,23.0941,74.0817,17.5918,-5.13602,-31.9867,18.4326,7.12502,-5.23592,48.348,-16.0847,17.5351,8.34913,55.4395,-1.94194,-0.697167,-10.7064,-6.72214,-6.86735,-21.1871,19.0832,-10.1978,7.83783,-6.06633
7.41327,18.7254,9.28551,-167.621,-66.2473,167.079,6.98531,0.641916,-7.13059,1.93684,0.174951,-2.27533,-1.92981,0.0501129,1.63183,-8.14281,-2.91912,-8.60665,26.2865,-5.92101,8.80252,10.1784,-3.02488,3.87398,1.20762e-14,4.25399e-14,-32.8222,0.542152,-79.0741,36.1346,14.3314,-24.9726,5.13637,7.12502,1.53807,-24.8378,1.20762e-14,4.25399e-14,-32.9543,22.2189,73.996,17.1573,-5.39212,-31.8605,18.3843,7.12502,-5.114,48.3026,-16.8993,17.0038,8.06956,56.6333,-1.29259,-1.11687,-10.4817,-6.26729,-6.64542,-21.644,18.8924,-10.3527,7.94132,-5.62485
7.34986,18.7243,9.31615,-167.441,-65.9814,166.602,7.06547,0.72883,-7.33608,2.05244,0.255033,-2.49984,-1.86108,0.0795791,1.50671,-8.2644,-2.98092,-8.50212,26.3537,-6.0395,8.84255,10.2373,-3.06312,3.85586,3.0265e-14,1.51076e-14,-32.8445,0.254301,-79.3266,36.1133,14.3287,-25.2358,5.07059,7.12502,1.28378,-24.9053,3.0265e-14,1.51076e-14,-32.3327,21.9204,73.7888,16.488,-6.10948,-31.8483,17.9488,7.12502,-5.10226,47.8674,-17.3873,16.4562,7.85401,57.6729,-1.36825,-1.7916,-10.6864,-5.76755,-6.41451,-22.1674,18.8775,-10.5668,8.03625,-5.92356
7.29339,18.7231,9.34018,-167.807,-65.7407,166.872,7.03109,0.745207,-7.42191,2.12696,0.274458,-2.51596,-1.76629,0.0831597,1.5365,-8.33394,-2.97699,-8.46815,26.3516,-6.00182,8.73627,10.2422,-3.05037,3.81496,1.49089e-16,1.03368e-14,-32.7738,0.13086,-79.4433,36.0485,14.6534,-24.9198,5.16091,7.12502,1.58907,-24.8129,1.49089e-16,1.03368e-14,-31.9719,22.3534,73.4239,15.9781,-7.33808,-31.8436,17.9252,7.12502,-5.09776,47.8439,-18.0026,15.9904,8.02572,58.5797,-1.87434,-2.62539,-9.49494,-5.42047,-6.28524,-22.3073,18.8134,-10.6928,8.18527,-6.59056
7.24182,18.7205,9.36317,-168.944,-65.5947,167.931,7.16541,0.766563,-7.0714,2.14924,0.316307,-2.51777,-1.82017,0.10511,1.33557,-8.31291,-2.98162,-8.31282,26.3637,-6.02172,8.65228,10.2371,-3.05542,3.75513,-2.72335e-14,-1.31198e-14,-32.886,-0.118666,-79.6174,36.1484,14.9312,-24.2589,5.17007,7.12502,2.22729,-24.7981,-2.72335e-14,-1.31198e-14,-31.7934,22.508,72.9602,15.6573,-8.36085,-31.679,18.0016,7.12502,-4.9388,47.924,-18.4885,15.5002,8.68975,59.3449,-2.71808,-3.52307,-9.25269,-4.99614,-6.21503,-22.0546,18.6736,-10.7871,8.40209,-7.07021
7.16616,18.7187,9.38385,-169.382,-65.4613,167.965,7.25238,0.766007,-6.93382,2.30994,0.308897,-2.72247,-1.70019,0.0893889,1.04812,-8.34528,-2.97369,-8.02913,26.3888,-6.05743,8.60865,10.2458,-3.05033,3.68519,3.84648e-14,1.47101e-14,-32.8901,-0.300869,-79.943,36.0807,14.9639,-23.779,5.49096,7.12502,2.69077,-24.4718,3.84648e-14,1.47101e-14,-31.4255,22.363,72.5406,15.2611,-8.97971,-31.4922,17.9369,7.12502,-4.75845,47.8635,-18.4728,14.9605,8.95787,59.9692,-4.05654,-4.4611,-8.66354,-4.23669,-6.17754,-22.3472,18.6312,-11.0874,8.59077,-7.20752
7.09041,18.713,9.40407,-168.943,-65.1839,167.14,7.21334,0.797307,-7.23402,2.44272,0.318492,-2.96604,-1.54157,0.0797186,0.962676,-8.40392,-2.96192,-7.84381,26.4444,-6.05441,8.513,10.2686,-3.04107,3.61853,-2.41523e-14,1.35174e-14,-32.9058,0.0313654,-80.348,35.8924,14.1303,-24.1608,6.16085,7.12502,2.32211,-23.8063,-2.41523e-14,1.35174e-14,-31.0252,22.9241,71.9324,14.698,-10.2207,-31.1804,18.0518,7.12502,-4.45734,47.9849,-18.6647,14.4007,8.7001,60.5538,-5.51316,-5.40637,-8.98782,-3.60926,-6.24374,-23.0699,18.6396,-11.5274,8.90535,-7.05633
7.03583,18.7046,9.42838,-169.408,-64.8268,167.445,7.27253,0.856166,-7.26986,2.49903,0.387245,-2.97646,-1.52095,0.110318,0.965655,-8.44034,-2.92762,-7.78298,26.4854,-6.00435,8.45187,10.2819,-3.01887,3.59186,-1.42131e-14,4.05521e-14,-33.0582,0.639732,-80.7397,35.9552,12.8371,-25.0778,6.48732,7.12502,1.43646,-23.4876,-1.42131e-14,4.05521e-14,-30.6685,23.9783,71.326,14.1318,-11.6614,-31.4447,18.7271,7.12502,-4.71255,48.6547,-19.1822,13.9634,8.9169,61.0447,-6.74139,-6.41502,-9.0828,-3.18065,-6.42725,-23.249,18.5914,-11.8662,9.42564,-6.92971
6.99294,18.6982,9.45423,-169.701,-64.4056,167.822,7.16551,0.950705,-7.4538,2.53092,0.51573,-2.88255,-1.43904,0.170947,1.15492,-8.50835,-2.96216,-7.63558,26.4176,-5.9995,8.22539,10.259,-3.02013,3.48292,-1.76918e-14,2.14687e-14,-33.1442,0.620343,-80.7562,36.1866,12.7029,-25.1939,6.48697,7.12502,1.32429,-23.4887,-1.76918e-14,2.14687e-14,-30.1961,24.9699,71.0325,13.6237,-12.8655,-31.7728,19.5791,7.12502,-5.02932,49.4994,-20.0485,13.5903,9.10506,61.4632,-7.89005,-7.30466,-9.23397,-3.16384,-6.56789,-23.3565,18.7182,-12.1213,9.99052,-7.21789
6.94232,18.6909,9.47822,-169.617,-64.07,167.726,7.08227,1.01929,-7.64453,2.54483,0.597539,-2.93488,-1.38539,0.207376,1.20043,-8.5208,-3.02805,-7.38538,26.4176,-6.06739,7.95647,10.2523,-3.05425,3.3337,4.17448e-15,6.36111e-15,-33.1837,0.311712,-80.7604,36.1556,13.2281,-24.7786,6.57303,7.12502,1.72539,-23.3997,4.17448e-15,6.36111e-15,-29.7831,25.9628,70.5997,13.1482,-14.0881,-30.3254,19.3545,7.12502,-3.63175,49.3033,-20.7241,13.1145,9.09576,61.7623,-9.02066,-8.01351,-8.82104,-3.19504,-6.86581,-23.6972,19.1099,-12.61,10.5573,-7.02573
6.88674,18.6791,9.49611,-169.999,-63.7974,168.047,7.06606,1.03831,-7.57613,2.55221,0.625848,-2.99283,-1.3699,0.220045,1.10038,-8.55424,-3.03787,-7.23377,26.5158,-6.10835,7.8865,10.2916,-3.06857,3.27767,5.26779e-15,4.37326e-14,-33.2698,0.259827,-80.9296,36.0725,13.6349,-24.1379,6.53334,7.12502,2.34422,-23.4335,5.26779e-15,4.37326e-14,-29.5727,27.5857,69.6757,12.5945,-15.87,-32.2866,20.5806,7.12502,-5.52546,50.4885,-21.1437,12.5341,9.3977,61.9223,-10.011,-8.89199,-8.64474,-3.07996,-7.13117,-23.8285,19.4918,-13.2213,10.9812,-6.05871
6.83444,18.6613,9.51069,-170.548,-63.4482,168.548,7.05104,1.04478,-7.54155,2.54043,0.639354,-2.9655,-1.37479,0.227714,1.10848,-8.47618,-2.98254,-7.23018,26.4939,-6.05462,7.93889,10.2644,-3.04315,3.30277,-8.62725e-14,-6.99722e-14,-33.3607,0.301092,-81.0281,36.0767,14.4593,-23.1892,6.01115,7.12502,3.26036,-23.9437,-8.62725e-14,-6.99722e-14,-29.5715,29.4472,68.6903,12.1239,-17.6296,-33.0319,21.1715,7.12502,-6.24503,51.0594,-21.5219,12.0353,9.84223,61.9537,-10.8924,-9.99317,-8.70108,-2.9512,-6.9535,-23.8242,19.7984,-13.6836,11.1348,-5.52263
6.78098,18.6499,9.52945,-170.579,-63.0958,168.37,7.18491,1.04912,-7.72498,2.53597,0.612156,-2.99943,-1.45309,0.214006,1.17573,-8.35784,-2.92594,-7.35047,26.4036,-5.98451,8.0514,10.2084,-3.01568,3.37262,-9.93923e-16,1.59028e-14,-33.3844,0.265177,-81.0552,35.9766,15.4784,-22.3785,5.85753,7.12502,4.0433,-24.0839,-9.93923e-16,1.59028e-14,-29.5932,30.9001,68.0091,11.824,-18.8613,-33.0613,21.2359,7.12502,-6.27343,51.123,-21.781,11.6394,9.94205,61.8552,-11.6764,-10.9484,-8.90516,-2.75382,-6.66324,-24.1605,20.1565,-14.0924,11.1718,-5.47508
6.7287,18.6437,9.54969,-170.487,-62.8033,168.126,7.29177,0.959302,-7.97471,2.54697,0.46278,-2.96044,-1.49111,0.13884,1.36637,-8.41101,-2.85639,-7.67359,26.3962,-5.84865,8.15933,10.2162,-2.97238,3.4832,-6.22196e-14,2.3059e-14,-33.3324,0.638448,-81.0914,35.9115,16.0371,-21.814,6.13991,7.12502,4.58839,-23.7904,-6.22196e-14,2.3059e-14,-29.5712,32.1583,67.6627,11.6976,-19.5761,-32.9533,21.6372,7.12502,-6.16909,51.5274,-22.129,11.2169,9.9961,61.6578,-12.3542,-11.7842,-8.66264,-2.65598,-6.41043,-24.5131,20.5442,-14.4131,11.2032,-5.77825
6.67986,18.6328,9.5646,-170.963,-62.4907,168.671,7.26493,0.82827,-7.92992,2.51815,0.30131,-2.85401,-1.49304,0.0617018,1.46594,-8.50458,-2.74269,-7.80381,26.4248,-5.66436,8.17864,10.2314,-2.89739,3.53406,1.3418e-14,-2.38542e-14,-33.3159,1.17136,-81.2369,35.9164,16.4544,-21.5911,6.30374,7.12502,4.80357,-23.6218,1.3418e-14,-2.38542e-14,-29.4986,33.2665,67.3254,11.5714,-20.0768,-33.0557,22.1412,7.12502,-6.26795,52.0284,-22.6231,10.8576,10.4468,61.3433,-13.0898,-12.679,-7.54342,-2.70447,-6.21523,-24.4438,20.9274,-14.7969,11.2753,-5.60645
6.62911,18.6149,9.57638,-171.426,-62.0973,169.106,7.28628,0.775234,-7.94821,2.48839,0.228856,-2.79873,-1.52996,0.0284001,1.5394,-8.51654,-2.61727,-7.76395,26.4674,-5.51848,8.22677,10.2346,-2.82553,3.56204,-1.14301e-14,-3.33958e-14,-33.4118,1.46972,-81.3757,35.9117,16.7407,-21.6319,6.35337,7.12502,4.76417,-23.5731,-1.14301e-14,-3.33958e-14,-29.4423,34.2228,66.9486,11.4313,-20.891,-32.0465,21.8738,7.12502,-5.29366,51.7877,-22.9385,10.5638,10.8751,60.9101,-13.8776,-13.5766,-7.08269,-2.65673,-6.1529,-24.4733,21.3541,-15.347,11.5068,-5.23794
6.57844,18.5991,9.58917,-171.761,-61.7423,169.343,7.36108,0.778657,-8.06776,2.50098,0.21936,-2.72276,-1.55787,0.0239729,1.68491,-8.4449,-2.61868,-7.68269,26.3563,-5.51097,8.15293,10.175,-2.82316,3.52064,-6.36111e-15,7.95139e-15,-33.3648,1.63055,-81.3583,35.7824,16.9353,-21.4651,6.30745,7.12502,4.92524,-23.6153,-6.36111e-15,7.95139e-15,-29.3061,35.0037,66.8329,11.3989,-21.6911,-31.0889,21.5493,7.12502,-4.36898,51.4843,-23.1165,10.2073,11.2755,60.3609,-14.4309,-14.419,-7.96807,-2.55635,-6.06637,-24.5982,21.7717,-15.7696,11.7384,-5.16726
6.5286,18.5896,9.6024,-172.223,-61.4373,169.724,7.46753,0.80363,-7.98291,2.52403,0.246839,-2.72146,-1.5955,0.0377053,1.63635,-8.43142,-2.6998,-7.49163,26.2984,-5.63753,8.06432,10.1556,-2.8727,3.43925,3.42904e-14,-7.95139e-15,-33.2377,1.3617,-81.3476,35.5243,17.3931,-21.1675,6.42659,7.12502,5.21261,-23.4893,3.42904e-14,-7.95139e-15,-28.9278,35.3317,66.9513,11.3462,-21.8296,-31.5306,21.9634,7.12502,-4.79552,51.8891,-23.3323,9.89043,11.7176,59.7225,-14.8924,-14.9356,-8.75705,-2.41289,-5.88838,-24.611,22.0869,-16.1999,11.837,-4.87756
6.47863,18.5845,9.61141,-172.498,-61.0999,169.919,7.56162,0.815369,-7.94215,2.54158,0.250422,-2.78193,-1.62982,0.0384136,1.5503,-8.48591,-2.75536,-7.41569,26.2629,-5.75366,8.15968,10.1647,-2.90849,3.44511,-4.6118e-14,3.02153e-14,-33.242,1.10778,-81.3971,35.4179,17.8044,-21.1303,6.61116,7.12502,5.24852,-23.3038,-4.6118e-14,3.02153e-14,-28.3622,34.9757,67.4303,11.356,-21.0252,-31.5968,21.5919,7.12502,-4.85946,51.5162,-23.5913,9.8074,11.9848,59.015,-15.4285,-15.2403,-8.15781,-2.22533,-5.48486,-24.6841,22.2678,-16.5074,11.7896,-5.17951
6.42888,18.5782,9.61704,-172.675,-60.6822,170.087,7.55428,0.800317,-8.02918,2.54414,0.222618,-2.79066,-1.62085,0.0231905,1.59203,-8.50542,-2.76634,-7.3217,26.1628,-5.78001,8.1752,10.1322,-2.90897,3.42915,-2.28602e-15,3.02153e-14,-33.3514,1.04508,-81.4281,35.5399,17.843,-21.7726,6.28272,7.12502,4.62832,-23.6467,-2.28602e-15,3.02153e-14,-27.7577,33.8426,68.2915,11.5989,-19.5794,-30.8037,20.5122,7.12502,-4.09363,50.4526,-23.9029,9.98191,12.2058,58.244,-16.1004,-15.4877,-7.60425,-2.07005,-4.95668,-24.7472,22.3269,-16.574,11.7788,-6.0293
6.3816,18.5724,9.62411,-173.027,-60.2122,170.4,7.66235,0.7739,-8.05245,2.52658,0.172567,-2.77104,-1.695,0.000788067,1.62929,-8.507,-2.74562,-7.36272,26.0893,-5.7798,8.32295,10.1109,-2.89916,3.48795,3.25013e-14,4.45278e-14,-33.4546,0.928876,-81.4329,35.6622,17.9158,-22.7092,5.60575,7.12502,3.72394,-24.3415,3.25013e-14,4.45278e-14,-27.4524,33.1792,68.7222,11.8821,-19.0211,-30.1226,19.9262,7.12502,-3.43581,49.8783,-24.1809,10.2983,12.4833,57.4198,-16.7463,-15.5967,-6.96282,-1.82444,-4.65474,-24.7794,22.3389,-16.8165,12.0308,-6.79275
6.33015,18.5699,9.63389,-173.203,-59.7625,170.493,7.78476,0.729014,-8.0801,2.53696,0.0948499,-2.77958,-1.74555,-0.0377717,1.64248,-8.51129,-2.72521,-7.49629,25.9397,-5.75855,8.5109,10.0645,-2.88172,3.57874,4.88016e-14,-1.11319e-14,-33.4895,0.866075,-81.4106,35.654,18.1707,-23.078,5.00845,7.12502,3.36781,-24.9447,4.88016e-14,-1.11319e-14,-27.0261,31.8762,69.3898,12.2102,-17.7395,-29.9927,20.4983,7.12502,-3.31037,50.4523,-24.4209,10.5609,12.6044,56.5353,-17.2236,-15.3901,-6.16333,-1.57936,-4.48137,-24.9663,22.4167,-17.1657,12.2642,-6.64894
6.28235,18.566,9.64452,-173.14,-59.3204,170.393,7.88736,0.670618,-8.11126,2.52424,-0.00666717,-2.89187,-1.80739,-0.0885616,1.55241,-8.63929,-2.69148,-7.37818,25.9603,-5.74629,8.56526,10.0937,-2.85794,3.57771,-7.25564e-15,-7.15625e-15,-33.5191,0.806927,-81.5325,35.5672,18.2683,-23.3415,4.74024,7.12502,3.11332,-25.2168,-7.25564e-15,-7.15625e-15,-26.4069,29.7031,70.3924,12.6265,-15.4443,-30.4168,21.4301,7.12502,-3.71999,51.3774,-24.7437,10.8083,12.5987,55.6226,-17.4882,-15.1327,-6.12779,-1.45494,-4.3181,-25.2421,22.5252,-17.4847,12.4362,-5.99742
6.24123,18.5604,9.65212,-173.215,-58.8381,170.521,8.06153,0.605699,-8.01018,2.43014,-0.117964,-3.02513,-1.99404,-0.137061,1.36834,-8.80337,-2.6295,-7.3072,26.0821,-5.72648,8.71438,10.1699,-2.82777,3.62126,7.60351e-14,7.39479e-14,-33.6906,0.722524,-81.7696,35.5561,18.3177,-23.7463,4.97745,7.12502,2.7224,-24.9849,7.60351e-14,7.39479e-14,-25.9283,28.2689,71.0144,12.9214,-13.9046,-30.7361,21.8673,7.12502,-4.02826,51.8089,-25.1843,11.1349,12.7269,54.6909,-17.6673,-15.0176,-6.62542,-1.42265,-4.03223,-25.3467,22.6419,-17.7456,12.586,-5.97215
6.19789,18.5491,9.66044,-173.282,-58.271,170.572,8.23185,0.568084,-8.00044,2.37122,-0.197586,-3.12042,-2.1445,-0.172447,1.2717,-8.88458,-2.58238,-7.39926,26.0849,-5.72392,8.99996,10.1969,-2.80782,3.7397,3.73715e-14,-4.37326e-14,-33.891,0.610727,-81.9163,35.6419,18.6132,-23.9715,5.41675,7.12502,2.50488,-24.5483,3.73715e-14,-4.37326e-14,-25.5095,26.9301,71.6659,13.2388,-12.3697,-31.0054,22.0193,7.12502,-4.28834,51.9559,-25.5713,11.5347,12.7671,53.7477,-17.8683,-14.6673,-6.93403,-1.29638,-3.60451,-25.5096,22.7089,-17.9919,12.697,-6.27785
6.15036,18.5386,9.66412,-173.577,-57.6837,170.839,8.3229,0.512621,-7.99214,2.3775,-0.283963,-3.14014,-2.18198,-0.215666,1.25534,-8.88312,-2.52871,-7.25695,25.9435,-5.66805,9.02538,10.1361,-2.76629,3.72752,-2.3059e-14,-2.94201e-14,-33.8107,0.663697,-81.9877,35.5132,18.6969,-24.2547,5.31178,7.12502,2.23136,-24.6563,-2.3059e-14,-2.94201e-14,-25.0912,25.3345,72.3907,13.6341,-10.5639,-31.0314,21.8654,7.12502,-4.31348,51.8014,-25.8425,12.0703,12.9275,52.7748,-18.0551,-14.257,-6.37193,-1.03921,-3.2569,-25.5664,22.6647,-18.2406,12.8987,-6.53929
6.09973,18.5339,9.664,-173.942,-57.1586,171.186,8.40151,0.43909,-7.87348,2.40136,-0.382325,-3.1691,-2.19429,-0.266107,1.16958,-8.97523,-2.5017,-7.13893,25.8664,-5.63233,9.0059,10.1187,-2.73776,3.70144,1.94809e-14,-4.13472e-14,-33.5479,0.742857,-82.0416,35.2734,18.5861,-24.6841,5.02085,7.12502,1.81663,-24.9512,1.94809e-14,-4.13472e-14,-24.6964,24.1304,72.9497,13.9938,-9.26561,-30.9782,21.8704,7.12502,-4.26208,51.8075,-26.0525,12.768,13.1146,51.7813,-18.4623,-14.1357,-5.59985,-0.713987,-2.87302,-25.5474,22.5289,-18.3545,13.0796,-7.20949
6.04832,18.5301,9.66695,-174.035,-56.6831,171.192,8.49555,0.385224,-7.87514,2.42003,-0.469343,-3.21576,-2.221,-0.311006,1.13114,-9.03731,-2.49973,-7.18035,25.8587,-5.61778,8.99926,10.1277,-2.73502,3.707,2.65378e-14,-9.54166e-15,-33.4868,0.658305,-81.9806,35.2314,18.5683,-24.8253,5.17927,7.12502,1.68032,-24.7939,2.65378e-14,-9.54166e-15,-24.348,23.4908,73.3759,14.2062,-9.01321,-30.6661,21.9861,7.12502,-3.96073,51.929,-26.2324,13.2747,13.1092,50.8043,-18.5972,-14.2934,-6.41712,-0.320684,-2.52369,-25.7212,22.3185,-18.4716,13.1955,-7.6627
5.99901,18.5218,9.66835,-174.108,-56.1538,171.237,8.54272,0.305656,-7.94687,2.38543,-0.58991,-3.22,-2.27335,-0.368722,1.17907,-8.96753,-2.40436,-7.06683,25.8066,-5.4694,8.85681,10.0733,-2.67468,3.65255,1.55052e-14,-1.11319e-14,-33.5951,0.72497,-81.9912,35.3089,18.4354,-24.8537,5.30888,7.12502,1.65284,-24.6645,1.55052e-14,-1.11319e-14,-24.1941,23.0949,73.6645,14.4616,-9.25139,-30.3238,22.0001,7.12502,-3.6302,51.9489,-26.4701,13.5869,13.1717,49.8664,-18.4536,-14.5703,-7.78442,0.0277918,-2.16229,-25.8778,22.0515,-18.5808,13.3567,-8.00932
5.94722,18.5174,9.66515,-174.204,-55.5854,171.35,8.50865,0.230713,-8.02836,2.36797,-0.693125,-3.19898,-2.26321,-0.419678,1.25644,-8.96313,-2.33407,-6.93558,25.7188,-5.34021,8.69083,10.0204,-2.61961,3.58326,4.91992e-14,-5.08889e-14,-33.6356,0.795962,-81.9725,35.3619,18.4336,-24.8249,5.40215,7.12502,1.68067,-24.571,4.91992e-14,-5.08889e-14,-23.9879,22.7027,74.0028,14.632,-9.66464,-30.3973,21.9824,7.12502,-3.70108,51.93,-26.7553,13.9427,13.2772,48.9802,-18.423,-14.9859,-7.08694,0.323347,-1.7211,-25.9878,21.7963,-18.6705,13.4617,-8.14051
5.89173,18.5131,9.66214,-174.381,-55.0554,171.467,8.54252,0.16364,-7.98528,2.40006,-0.783495,-3.21461,-2.24233,-0.46737,1.22567,-9.09646,-2.31708,-7.03781,25.7425,-5.32247,8.79502,10.0586,-2.60851,3.63971,1.21259e-14,4.13472e-14,-33.6794,0.775202,-81.943,35.4646,18.4262,-24.3396,5.81119,7.12502,2.14937,-24.1577,1.21259e-14,4.13472e-14,-23.684,22.3027,74.3251,14.6853,-10.2966,-30.3301,21.6143,7.12502,-3.63629,51.563,-26.975,14.172,13.4003,48.1543,-18.4449,-15.3849,-5.13386,0.704497,-1.4411,-26.128,21.5755,-18.8331,13.5872,-7.67504
5.84017,18.502,9.65803,-174.316,-54.613,171.357,8.60159,0.064274,-8.05424,2.40592,-0.933532,-3.25979,-2.25701,-0.54334,1.23267,-9.22981,-2.27379,-7.15037,25.7553,-5.25345,8.87153,10.0873,-2.57673,3.69414,2.88238e-14,-1.27222e-14,-33.7024,0.697585,-81.8873,35.551,18.4098,-26.2393,5.55599,7.12502,0.314604,-24.4235,2.88238e-14,-1.27222e-14,-23.3451,22.2172,74.5171,14.6886,-10.8849,-29.769,20.6962,7.12502,-3.09439,50.6535,-27.2379,14.0954,13.4159,47.375,-18.3702,-15.9752,-4.36142,1.02826,-1.30035,-26.3822,21.3225,-18.9762,13.671,-6.985
5.79662,18.4927,9.6522,-173.945,-54.2873,170.961,8.70296,-0.0760967,-8.35038,2.36455,-1.16742,-3.31144,-2.33301,-0.657522,1.36815,-9.29485,-2.19414,-7.25865,25.7004,-5.12302,8.93088,10.0714,-2.51889,3.7483,-3.05134e-14,-6.12257e-14,-33.7664,0.659387,-81.7911,35.7351,18.5265,-24.2204,5.49771,7.12502,2.2645,-24.47,-3.05134e-14,-6.12257e-14,-23.0526,22.0246,74.7911,14.814,-10.8272,-29.6341,20.0392,7.12502,-2.96406,49.9983,-27.5294,13.8848,13.2839,46.6581,-18.3935,-16.7827,-4.5294,1.24608,-1.19966,-26.7511,21.0614,-19.0688,13.6201,-5.87502
5.75544,18.4918,9.64311,-173.73,-54.0478,170.765,8.79165,-0.24564,-8.59595,2.33784,-1.42575,-3.27301,-2.38112,-0.782785,1.57186,-9.30782,-2.15381,-7.32341,25.5955,-5.01652,8.85628,10.0254,-2.48143,3.74309,-6.33129e-14,-2.3059e-14,-33.8201,0.764312,-81.6477,35.8562,18.8068,-25.1337,5.71211,7.12502,1.38242,-24.2632,-6.33129e-14,-2.3059e-14,-22.7774,22.1598,74.999,14.8598,-11.2859,-29.5116,19.6208,7.12502,-2.84575,49.5815,-27.7928,13.8718,13.2703,45.9856,-18.597,-17.3989,-3.7602,1.4263,-0.98738,-26.9374,20.8607,-19.1167,13.5153,-5.35122
5.70454,18.4915,9.63174,-173.693,-53.7295,170.686,8.85506,-0.36344,-8.6824,2.34143,-1.59856,-3.2655,-2.39455,-0.868568,1.64625,-9.31517,-2.12532,-7.21297,25.5053,-4.94036,8.68771,9.98035,-2.45165,3.67011,-9.03476e-14,-1.43125e-14,-33.8992,0.842158,-81.5745,35.8817,18.9569,-25.8048,5.86867,7.12502,0.73424,-24.1098,-9.03476e-14,-1.43125e-14,-22.3404,20.0301,76.063,15.393,-8.49724,-30.3912,21.0806,7.12502,-3.69523,51.0283,-27.9278,13.8787,13.346,45.3605,-18.7499,-17.7613,-2.3852,1.70791,-0.815109,-27.1227,20.7022,-19.1731,13.7057,-5.91389
5.65317,18.4855,9.6206,-173.737,-53.3583,170.682,8.95465,-0.448191,-8.67319,2.33894,-1.7251,-3.28229,-2.44198,-0.930548,1.63881,-9.31229,-2.08298,-7.13597,25.4026,-4.86267,8.61195,9.93177,-2.41531,3.63648,8.94531e-14,6.36111e-15,-33.9567,0.818058,-81.4846,36.026,18.3709,-25.622,6.15004,7.12502,0.910796,-23.8278,8.94531e-14,6.36111e-15,-21.955,19.0702,76.6354,15.6107,-7.66141,-30.5847,21.3073,7.12502,-3.88209,51.2516,-28.0217,13.7585,13.5202,44.7834,-18.938,-18.1252,-1.34405,1.97284,-0.632536,-27.2786,20.5897,-19.2556,13.89,-6.2338
5.60258,18.4773,9.60927,-173.611,-53.0651,170.587,8.92657,-0.584129,-8.72971,2.36782,-1.90672,-3.2797,-2.37768,-1.02431,1.69024,-9.40605,-2.04979,-7.23006,25.2772,-4.76974,8.61944,9.89858,-2.3738,3.66371,-5.31749e-14,-4.92986e-14,-33.9478,0.764327,-81.3127,36.3375,17.4559,-22.8231,5.72603,7.12502,3.61397,-24.2231,-5.31749e-14,-4.92986e-14,-21.4662,18.708,77.0656,15.6994,-7.68976,-30.3981,21.5786,7.12502,-3.70193,51.5261,-28.1744,13.5883,13.6397,44.2603,-19.0082,-18.5306,-1.22348,2.10157,-0.472833,-27.4778,20.5618,-19.568,13.9708,-6.08968
5.55127,18.4738,9.59268,-173.661,-52.8343,170.702,8.89103,-0.704806,-8.65815,2.39743,-2.05242,-3.25934,-2.31531,-1.09955,1.68522,-9.51898,-2.04198,-7.30627,25.181,-4.74016,8.69889,9.8868,-2.35309,3.70656,-8.26944e-14,-2.54444e-14,-34.0829,0.570405,-81.1425,36.5967,17.208,-23.3959,6.22691,7.12502,3.06077,-23.7309,-8.26944e-14,-2.54444e-14,-21.0058,18.3716,77.4339,15.7411,-8.32372,-30.4136,21.5198,7.12502,-3.71688,51.4671,-28.2826,13.3229,13.9549,43.821,-18.8542,-19.0355,-1.68698,2.23007,-0.3159,-27.5104,20.5912,-19.8788,14.0736,-6.20815
5.49925,18.474,9.57487,-173.793,-52.5706,170.88,8.95018,-0.82483,-8.52374,2.37014,-2.20278,-3.21423,-2.36624,-1.17017,1.67504,-9.5663,-2.01635,-7.49223,25.1148,-4.70017,8.86532,9.87614,-2.33333,3.80176,-8.34896e-15,1.98785e-14,-34.3446,0.527822,-80.9957,36.819,17.515,-22.2455,6.28861,7.12502,4.17173,-23.6503,-8.34896e-15,1.98785e-14,-20.7497,17.8824,77.7884,15.8686,-9.34574,-30.2662,21.54,7.12502,-3.57451,51.4898,-28.3944,13.0157,14.3119,43.4664,-18.6185,-19.4247,-0.991727,2.42145,-0.191346,-27.4935,20.5933,-20.1478,14.0559,-5.65744
5.44479,18.4745,9.55702,-173.768,-52.2817,170.894,8.95657,-0.931065,-8.47355,2.35676,-2.33704,-3.17674,-2.37201,-1.23528,1.70015,-9.65174,-1.99514,-7.58913,25.0639,-4.64973,8.91597,9.87284,-2.3102,3.84131,-4.18442e-14,-1.90833e-14,-34.529,0.511226,-80.7921,36.9857,17.8223,-21.2003,6.20484,7.12502,5.18095,-23.7118,-4.18442e-14,-1.90833e-14,-20.4179,17.3685,78.2523,15.9873,-10.0413,-30.296,22.1376,7.12502,-3.60333,52.0869,-28.5408,12.7842,14.5151,43.2049,-18.7093,-19.4802,0.135387,2.59519,-0.0568829,-27.5958,20.5858,-20.4219,13.9894,-4.64225
5.39019,18.4722,9.53493,-173.779,-52.0088,170.952,8.91909,-1.03236,-8.47333,2.36624,-2.46123,-3.11094,-2.3269,-1.29754,1.7793,-9.75187,-1.99103,-7.63901,25.0065,-4.60315,8.87177,9.8675,-2.29249,3.83805,8.44835e-15,3.65764e-14,-34.6848,0.383669,-80.5306,37.1378,18.1003,-20.5645,6.26515,7.12502,5.79481,-23.6356,8.44835e-15,3.65764e-14,-19.9649,16.9676,78.7419,16.0466,-10.2425,-30.6008,22.4211,7.12502,-3.89769,52.3652,-28.6378,12.6114,14.7839,43.0117,-18.8752,-19.5133,0.236753,2.69672,0.188189,-27.6503,20.6076,-20.468,14.0993,-4.994
5.34123,18.4672,9.51084,-173.799,-51.9063,171.063,8.94958,-1.19893,-8.46739,2.33638,-2.67813,-3.01781,-2.35056,-1.40094,1.89565,-9.75512,-1.95447,-7.59024,24.8464,-4.50942,8.77114,9.79865,-2.25069,3.80125,2.73329e-14,-8.74653e-15,-34.8657,0.414919,-80.3352,37.2037,18.2764,-20.2365,6.31765,7.12502,6.11153,-23.5742,2.73329e-14,-8.74653e-15,-19.6165,16.5947,79.1509,16.2176,-10.4355,-30.855,22.0977,7.12502,-4.14311,52.0372,-28.7523,12.2814,15.1291,42.8786,-18.7111,-19.6691,-0.0106496,2.74812,0.454576,-27.601,20.5922,-20.3379,14.2149,-6.30842
5.29332,18.461,9.48413,-173.752,-51.9056,171.195,8.95785,-1.40112,-8.37459,2.24745,-2.93275,-2.93252,-2.42417,-1.51852,1.96015,-9.74159,-1.89727,-7.52096,24.7332,-4.40385,8.68038,9.74209,-2.20302,3.76673,3.68746e-14,5.24792e-14,-35.1122,0.428148,-80.156,37.1743,18.4052,-20.3755,6.75829,7.12502,5.97731,-23.1374,3.68746e-14,5.24792e-14,-19.3927,15.8775,79.5818,16.4787,-10.3741,-31.063,21.773,7.12502,-4.34398,51.7085,-28.9492,11.9026,15.4558,42.7812,-18.4381,-19.8823,-0.175182,2.75015,0.601687,-27.5184,20.5743,-20.3935,14.1753,-7.11334
5.24107,18.4538,9.45579,-173.66,-51.8072,171.184,8.93703,-1.53036,-8.30162,2.21444,-3.09331,-2.9108,-2.43471,-1.59578,1.95799,-9.7905,-1.89863,-7.60049,24.6826,-4.40015,8.7565,9.73636,-2.19882,3.80694,2.83268e-14,-1.51076e-14,-35.3194,0.315422,-79.9677,37.1636,18.3559,-20.3403,6.9379,7.12502,6.01125,-22.9568,2.83268e-14,-1.51076e-14,-19.0997,14.5676,80.1687,16.8406,-9.77067,-31.0216,21.6959,7.12502,-4.30401,51.6322,-29.0243,11.717,15.6696,42.7094,-18.2567,-20.0039,-0.701588,2.83172,0.795791,-27.5453,20.6168,-20.5751,13.9832,-7.03085
5.1897,18.4466,9.42836,-173.571,-51.6338,171.083,8.98264,-1.60956,-8.34131,2.23002,-3.20468,-2.87369,-2.42894,-1.65142,2.03069,-9.79744,-1.9276,-7.62425,24.4693,-4.39334,8.7245,9.66153,-2.19431,3.79649,3.66758e-14,-3.26007e-14,-35.4675,0.28254,-79.7705,37.1431,18.1181,-20.0556,6.83756,7.12502,6.28614,-23.0492,3.66758e-14,-3.26007e-14,-18.8149,13.0974,80.8382,17.3718,-8.8092,-30.9289,21.9113,7.12502,-4.21449,51.8494,-29.0022,11.6764,15.7917,42.6552,-18.1435,-19.931,0.049786,2.99678,0.973234,-27.646,20.6432,-20.8063,13.841,-6.55491
5.14023,18.4398,9.39966,-173.474,-51.4968,171.027,9.02319,-1.70465,-8.39774,2.23324,-3.33456,-2.78901,-2.42713,-1.7145,2.16384,-9.81901,-1.93509,-7.56162,24.2287,-4.34681,8.61643,9.57308,-2.1694,3.74815,8.75646e-14,2.06736e-14,-35.5915,0.283621,-79.5182,37.0869,18.0649,-19.9273,7.00911,7.12502,6.40996,-22.8739,8.75646e-14,2.06736e-14,-18.5682,12.1283,81.4067,17.9423,-8.1977,-30.7031,22.408,7.12502,-3.99645,52.3503,-28.9924,11.6454,15.9248,42.6045,-17.9585,-19.9493,0.670439,3.12389,1.28369,-27.6739,20.6383,-20.8137,13.6294,-6.5563
5.08467,18.4388,9.36339,-173.451,-51.4327,171.034,9.05586,-1.81227,-8.29075,2.20537,-3.46867,-2.76056,-2.46594,-1.77786,2.14964,-9.86871,-1.93493,-7.57762,24.1315,-4.33901,8.67018,9.54903,-2.15797,3.7689,-1.20265e-14,0,-35.8521,0.303822,-79.3368,37.0514,18.0547,-19.8405,6.89148,7.12502,6.49383,-22.989,-1.20265e-14,0,-18.466,11.4912,81.7781,18.4613,-7.98283,-30.43,21.9699,7.12502,-3.73274,51.917,-28.8613,11.6166,16.1123,42.5371,-17.5491,-19.9352,0.457359,3.32125,1.76716,-27.5921,20.6322,-20.7452,13.2581,-6.89157
5.02596,18.4461,9.3231,-173.55,-51.4451,171.287,8.97868,-1.963,-7.98215,2.14807,-3.62469,-2.70505,-2.48337,-1.8508,2.05003,-9.86138,-1.93668,-7.69031,24.1026,-4.34825,8.78164,9.54272,-2.1623,3.82632,-7.02704e-14,5.56597e-15,-36.1432,0.347761,-79.1924,36.9293,17.9772,-19.6157,6.85578,7.12502,6.71078,-23.0179,-7.02704e-14,5.56597e-15,-18.4756,10.3734,82.1718,19.0434,-7.21775,-30.3459,21.5692,7.12502,-3.65145,51.5176,-28.7015,11.6861,16.4474,42.3749,-16.9021,-19.9256,-0.116002,3.41765,2.11815,-27.3512,20.6782,-20.6852,13.0649,-7.35588
4.97026,18.4426,9.27898,-173.34,-51.4392,171.234,8.82093,-2.1219,-7.98814,2.08752,-3.81256,-2.62148,-2.43521,-1.941,2.15113,-9.93346,-1.94337,-7.79576,24.1182,-4.3258,8.75652,9.56174,-2.16177,3.83831,5.66536e-15,-2.78299e-14,-36.3423,0.254847,-78.9224,36.6845,18.1412,-19.7347,7.2781,7.12502,6.59593,-22.5992,5.66536e-15,-2.78299e-14,-18.5527,9.36808,82.6024,19.8357,-6.31248,-30.1087,21.3798,7.12502,-3.42247,51.332,-28.6067,11.9559,16.4733,42.1313,-16.2732,-19.8369,0.516136,3.39238,2.5172,-27.2973,20.7696,-20.6116,12.8647,-8.1195
4.91628,18.43,9.23216,-173.091,-51.4552,171.045,8.73381,-2.2523,-8.07296,2.06555,-3.98135,-2.58347,-2.38525,-2.02457,2.24845,-10.1145,-1.9968,-7.7488,24.1563,-4.37551,8.66839,9.61257,-2.18353,3.79308,-1.10325e-14,-3.89618e-14,-36.507,-0.108014,-78.604,36.441,18.3619,-19.7679,7.91319,7.12502,6.56385,-21.9651,-1.10325e-14,-3.89618e-14,-18.4836,8.78748,82.9587,20.5076,-5.90719,-29.8458,21.0361,7.12502,-3.16857,50.9923,-28.4018,12.4447,16.3068,41.8174,-15.9375,-19.5663,3.55644,3.43141,2.95996,-27.2863,20.9027,-20.5981,12.4309,-8.44047
4.85933,18.4222,9.18659,-172.873,-51.4594,170.949,8.5917,-2.36126,-7.98506,2.00727,-4.10296,-2.58966,-2.36214,-2.08311,2.19848,-10.1286,-2.04808,-7.70207,24.0858,-4.45378,8.68621,9.5975,-2.21247,3.78067,7.49418e-14,6.20208e-14,-36.7606,-0.486229,-78.354,36.2632,18.4724,-19.6985,7.8051,7.12502,6.63085,-22.0711,7.49418e-14,6.20208e-14,-18.4089,8.10067,83.297,21.1263,-5.55009,-29.7357,21.2007,7.12502,-3.06224,51.1585,-28.173,12.8922,16.1804,41.4791,-15.8108,-19.1735,7.50662,3.42412,3.23837,-27.2515,21.0716,-20.6943,11.9599,-7.82207
4.79997,18.4195,9.13936,-172.447,-51.5142,170.624,8.46484,-2.4863,-8.00987,1.8955,-4.2625,-2.62256,-2.39412,-2.15675,2.18853,-10.048,-2.05578,-7.67859,23.9702,-4.46276,8.68519,9.54158,-2.21559,3.77326,-1.22948e-13,-2.94201e-14,-37.0778,-0.658142,-78.1523,36.0246,18.5314,-19.7011,7.53023,7.12502,6.62837,-22.346,-1.22948e-13,-2.94201e-14,-18.5799,7.0179,83.6519,21.9968,-4.63681,-29.6643,21.0571,7.12502,-2.99325,51.0158,-27.9063,13.1071,15.9606,41.1341,-15.8727,-18.8154,9.47912,3.36464,3.46836,-27.3602,21.3021,-20.7067,11.589,-7.74857
4.742,18.4148,9.08709,-172.054,-51.5782,170.266,8.39205,-2.60658,-8.13944,1.83715,-4.42539,-2.59072,-2.38677,-2.23444,2.30411,-10.128,-2.07385,-7.82698,23.9268,-4.46951,8.78629,9.54771,-2.21762,3.83311,3.19049e-14,-1.07344e-14,-37.2549,-0.819306,-77.8692,35.685,18.7053,-20.0482,7.65087,7.12502,6.29328,-22.2356,3.19049e-14,-1.07344e-14,-18.7151,6.09229,84.0487,22.9582,-3.65812,-29.5567,20.7015,7.12502,-2.88936,50.6617,-27.5138,13.4571,15.7591,40.7737,-15.5542,-19.8552,10.5737,3.37344,3.78024,-27.4424,21.5557,-20.656,11.1184,-7.98749
4.68396,18.4065,9.03257,-171.786,-51.6491,170.036,8.32589,-2.71094,-8.1475,1.77449,-4.55721,-2.56924,-2.40014,-2.29616,2.33998,-10.1717,-2.10754,-7.80324,23.917,-4.50307,8.73192,9.55452,-2.23478,3.80534,-1.53263e-13,3.57812e-14,-37.5128,-1.11193,-77.5603,35.4219,18.8016,-19.989,7.46115,7.12502,6.35043,-22.4237,-1.53263e-13,3.57812e-14,-18.8109,5.55313,84.3558,23.7969,-3.20168,-29.5128,20.7704,7.12502,-2.84696,50.7312,-27.0479,13.8828,15.6451,40.4053,-15.475,-20.718,11.9753,3.42547,3.9893,-27.4346,21.7938,-20.6523,10.5851,-7.35855
4.6276,18.3995,8.9749,-171.45,-51.7748,169.795,8.16281,-2.81196,-8.14362,1.70993,-4.67502,-2.58109,-2.36663,-2.35312,2.32717,-10.1592,-2.17816,-7.5631,23.8555,-4.59609,8.53809,9.53036,-2.27516,3.6829,3.27001e-14,4.37326e-15,-37.8392,-1.3717,-77.3345,35.2281,18.6748,-19.9341,7.30687,7.12502,6.40347,-22.5763,3.27001e-14,4.37326e-15,-18.8573,5.10552,84.604,24.537,-2.87665,-29.4887,20.5872,7.12502,-2.82368,50.5483,-26.6404,14.1743,15.5213,40.0287,-15.5807,-21.0355,12.1135,3.38121,4.17386,-27.3999,22.0814,-20.657,9.96223,-6.71176
4.57066,18.3919,8.91784,-171.08,-51.8672,169.491,8.04194,-2.91477,-8.20653,1.61608,-4.8053,-2.56446,-2.378,-2.41284,2.38482,-10.0938,-2.26198,-7.56282,23.7677,-4.7222,8.57301,9.49983,-2.33176,3.67918,6.24184e-14,-2.42517e-14,-38.1266,-1.77455,-76.9969,34.8743,18.7846,-20.1037,7.50829,7.12502,6.23973,-22.3798,6.24184e-14,-2.42517e-14,-18.9765,4.61573,84.8812,25.3374,-2.47499,-29.5604,20.1394,7.12502,-2.89293,50.0996,-26.2929,14.3711,15.3886,39.7587,-15.6995,-21.0415,12.8764,3.32558,4.61985,-27.3955,22.4006,-20.3512,9.50488,-7.97022
4.51274,18.3923,8.85986,-170.839,-51.9718,169.271,7.99088,-3.01356,-8.19679,1.55272,-4.92698,-2.50281,-2.39878,-2.46858,2.45173,-10.1113,-2.36606,-7.7525,23.7149,-4.84385,8.65499,9.5029,-2.39474,3.72591,-7.57867e-14,-1.66979e-14,-38.3156,-2.43143,-76.4684,34.3928,19.323,-20.2173,7.89862,7.12502,6.13007,-21.9927,-7.57867e-14,-1.66979e-14,-19.1018,4.27254,85.1824,26.1377,-2.32834,-29.574,19.7297,7.12502,-2.90607,49.6897,-25.9723,14.3589,15.4135,39.6659,-15.8412,-21.1868,12.7771,3.29612,5.08047,-27.3216,22.7678,-19.8981,9.19186,-10.2761
4.45448,18.4021,8.79683,-170.851,-52.0499,169.344,7.90806,-3.07861,-8.01859,1.53862,-4.98044,-2.40495,-2.36784,-2.49419,2.45409,-10.1951,-2.48339,-7.97907,23.7182,-4.98038,8.75018,9.54162,-2.46487,3.78251,1.13357e-13,4.73108e-14,-38.495,-3.01739,-75.9991,33.9817,19.8698,-20.6248,8.02659,7.12502,5.73658,-21.8758,1.13357e-13,4.73108e-14,-19.1923,3.74764,85.4824,26.9493,-1.96993,-29.6211,19.7109,7.12502,-2.95154,49.6703,-25.7163,14.2531,15.6937,39.7113,-15.6951,-21.4915,11.8616,3.24406,5.17549,-27.1015,23.2646,-19.7201,8.89668,-11.2932
