JuanDHNZ/ProyectoFinalCD/preprocessing/sports_trials_csv/13_41.csv
root1,root2,root3,root4,root5,root6,lowerback1,lowerback2,lowerback3,upperback1,upperback2,upperback3,thorax1,thorax2,thorax3,lowerneck1,lowerneck2,lowerneck3,upperneck1,upperneck2,upperneck3,head1,head2,head3,rclavicle1,rclavicle2,rhumerus1,rhumerus2,rhumerus3,rradius1,rwrist1,rhand1,rhand2,rfingers1,rthumb1,rthumb2,lclavicle1,lclavicle2,lhumerus1,lhumerus2,lhumerus3,lradius1,lwrist1,lhand1,lhand2,lfingers1,lthumb1,lthumb2,rfemur1,rfemur2,rfemur3,rtibia1,rfoot1,rfoot2,rtoes1,lfemur1,lfemur2,lfemur3,ltibia1,lfoot1,lfoot2,ltoes1
0.887311,18.9824,-1.46671,2.89044,-7.05262,0.186414,3.25635,0.0991603,-2.02455,-1.2137,0.0161065,-0.844898,-3.07464,0.0388589,0.26547,-9.54261,-6.26846,-10.7786,12.0822,-8.52769,11.4516,6.1856,-3.87269,4.67577,6.58474e-16,5.1684e-15,-32.4112,-5.36297,-81.4875,25.4747,21.1699,-27.4974,-0.460573,7.12502,-0.900479,-30.4384,6.58474e-16,5.1684e-15,-34.5308,21.7198,73.5212,21.6482,-6.09373,-19.5301,25.3976,7.12502,6.79349,55.2686,-4.44148,20.3063,19.0993,15.7389,-13.0765,-17.8087,-2.86725,-0.537458,-5.78699,-21.2938,12.1189,-14.3949,18.6868,-2.63862
0.893136,18.9815,-1.4679,2.83127,-7.04776,0.261006,3.37031,0.126934,-2.05178,-1.19363,0.0480852,-0.876418,-3.11885,0.0552306,0.246255,-9.59948,-6.291,-10.7111,12.1056,-8.54941,11.347,6.19765,-3.88496,4.62686,2.06239e-15,7.95139e-16,-32.4493,-5.32079,-81.4993,25.5977,21.0874,-26.6564,-0.451715,7.12502,-0.08824,-30.4314,2.06239e-15,7.95139e-16,-34.4304,21.6881,73.5407,21.5644,-6.09666,-19.4165,25.7893,7.12502,6.9031,55.6567,-4.4759,20.1952,19.0067,15.8794,-13.0306,-17.7387,-3.03974,-0.487447,-5.73809,-21.3977,12.1398,-14.4051,18.6153,-2.68358
0.895768,18.9792,-1.47146,2.78016,-7.04695,0.30012,3.52017,0.133812,-2.11043,-1.21393,0.0499976,-0.867076,-3.22448,0.0584116,0.288238,-9.57893,-6.27167,-10.6963,12.1231,-8.51604,11.2671,6.19135,-3.87401,4.60242,1.46852e-14,-1.39149e-14,-32.5253,-5.20064,-81.5094,25.7587,21.0545,-26.5848,0.510991,7.12502,-0.0190572,-29.4688,1.46852e-14,-1.39149e-14,-34.4601,21.5874,73.5739,21.5629,-5.9954,-19.3716,25.5994,7.12502,6.94644,55.4654,-4.52399,20.1236,18.9677,16.0458,-13.061,-17.684,-3.10612,-0.427267,-5.61969,-21.4387,12.0562,-14,18.6009,-4.56313
0.898728,18.978,-1.47298,2.7352,-7.01765,0.376501,3.60459,0.122237,-2.19481,-1.17668,0.0283095,-0.878647,-3.23335,0.0490513,0.324907,-9.63316,-6.2494,-10.6053,12.0773,-8.47274,11.1542,6.17233,-3.85506,4.55368,1.6114e-14,-1.07344e-14,-32.4597,-4.97246,-81.605,25.8469,20.6326,-26.0917,-0.18083,7.12502,0.457173,-30.1601,1.6114e-14,-1.07344e-14,-34.4111,21.6166,73.5769,21.4914,-6.18096,-19.7173,25.1029,7.12502,6.61273,54.9796,-4.55249,20.0688,18.8857,16.201,-13.1802,-17.6503,-3.14616,-0.385092,-5.49838,-21.522,12.0131,-13.7559,18.5097,-5.75344
0.902044,18.9758,-1.47399,2.69699,-7.00059,0.450057,3.66374,0.121274,-2.23129,-1.14137,0.0229732,-0.915318,-3.2302,0.0464966,0.307936,-9.59384,-6.20006,-10.571,11.9861,-8.40737,11.164,6.12836,-3.82329,4.55878,-1.27968e-15,1.07344e-14,-32.4473,-4.88107,-81.6808,25.9951,20.4276,-25.5453,-1.40609,7.12502,0.984904,-31.3836,-1.27968e-15,1.07344e-14,-34.3513,21.6354,73.5625,21.3537,-6.54456,-20.2698,24.7726,7.12502,6.07935,54.6654,-4.58786,20.0741,18.8006,16.3464,-13.2976,-17.6473,-3.1181,-0.377557,-5.51277,-21.6172,12.0414,-13.693,18.5223,-5.86123
0.903944,18.9736,-1.47922,2.68431,-7.02528,0.455045,3.7349,0.154375,-2.22987,-1.11818,0.0653489,-0.918652,-3.24729,0.0675357,0.300893,-9.61247,-6.16963,-10.5822,11.9534,-8.36293,11.1893,6.11788,-3.80021,4.57297,-7.64079e-15,1.23246e-14,-32.4904,-4.70884,-81.7664,26.2133,20.0368,-25.1769,-2.02677,7.12502,1.34072,-32.0023,-7.64079e-15,1.23246e-14,-34.2291,21.5782,73.6021,21.2161,-6.69631,-20.4729,24.5309,7.12502,5.88327,54.4292,-4.68055,20.1474,18.783,16.4971,-13.3646,-17.6688,-3.01761,-0.456043,-5.42226,-21.6184,12.1565,-13.6542,18.4632,-5.75529
0.906131,18.9723,-1.48376,2.71298,-7.00885,0.449943,3.73227,0.157849,-2.26023,-1.08121,0.0703949,-0.88482,-3.20786,0.0704374,0.352507,-9.74716,-6.14595,-10.5261,11.9945,-8.31167,11.0712,6.14052,-3.7759,4.52757,-7.85199e-15,-4.77083e-15,-32.5022,-4.22585,-81.9549,26.404,19.0077,-24.7962,-3.04596,7.12502,1.7084,-33.0189,-7.85199e-15,-4.77083e-15,-34.1095,21.6465,73.6458,21.1372,-6.90439,-20.2616,24.451,7.12502,6.08722,54.3436,-4.79661,20.0913,18.7639,16.6351,-13.4057,-17.6045,-3.16924,-0.629471,-5.16149,-21.5858,12.4142,-13.8743,18.1271,-5.0549
0.908145,18.9708,-1.4942,2.71964,-6.95194,0.496734,3.83803,0.175868,-2.28591,-1.05737,0.0885873,-0.938189,-3.2433,0.0796053,0.310589,-9.82766,-6.113,-10.3257,11.9857,-8.27093,10.9508,6.13323,-3.75267,4.45781,-8.68441e-15,-5.1684e-15,-32.5022,-4.14635,-82.0266,26.5092,18.6202,-24.7341,-3.03804,7.12502,1.76834,-33.0105,-8.68441e-15,-5.1684e-15,-33.9828,21.5738,73.6427,21.1351,-7.16547,-20.1675,24.5069,7.12502,6.17814,54.3968,-4.91649,20.0268,18.6962,16.7784,-13.4541,-17.5868,-3.15774,-0.88182,-4.91602,-21.5995,12.8009,-14.3159,17.7147,-3.38034
0.908961,18.9694,-1.50841,2.74787,-6.83752,0.436281,3.99652,0.171722,-2.20214,-1.03535,0.0816867,-0.97439,-3.30949,0.0745622,0.226492,-9.91384,-6.0624,-10.1745,11.9343,-8.21054,10.935,6.11821,-3.71534,4.43202,-1.55301e-14,1.78906e-14,-32.4823,-4.09321,-82.1544,26.6888,18.425,-25.2728,-2.066,7.12502,1.24805,-32.0421,-1.55301e-14,1.78906e-14,-33.8177,21.3698,73.6769,21.1938,-7.23854,-20.0815,24.3773,7.12502,6.26115,54.2647,-5.05614,20.0461,18.7625,16.9522,-13.491,-17.7017,-3.30112,-1.21446,-4.68835,-21.4814,13.2657,-14.554,17.3278,-2.4477
0.910976,18.9671,-1.51944,2.81866,-6.69749,0.396861,4.12252,0.146835,-2.15838,-1.04291,0.0467598,-0.974853,-3.38755,0.0569825,0.203555,-9.95171,-5.9988,-10.1122,11.8608,-8.12481,10.9453,6.09004,-3.66977,4.433,1.67973e-14,-1.03368e-14,-32.4888,-4.15497,-82.1458,27.1079,19.0771,-24.8631,-2.34095,7.12502,1.64378,-32.3144,1.67973e-14,-1.03368e-14,-33.7146,21.1096,73.7864,21.278,-7.12821,-20.0328,24.4986,7.12502,6.30818,54.3847,-5.25567,20.0255,18.778,17.1722,-13.5669,-17.8031,-3.35832,-1.607,-4.44482,-21.3882,13.7503,-14.6164,16.9499,-2.46005
0.91318,18.9622,-1.52982,2.79629,-6.58448,0.430609,4.35947,0.135085,-2.22031,-1.05456,0.0204937,-0.961517,-3.53288,0.0466257,0.253324,-9.9339,-5.93038,-10.0771,11.767,-8.02504,10.914,6.04374,-3.62337,4.42748,-4.72114e-16,-1.74931e-14,-32.5203,-3.9321,-82.2302,27.2474,18.2719,-25.6375,-1.03683,7.12502,0.895905,-31.0147,-4.72114e-16,-1.74931e-14,-33.6537,20.8806,73.8818,21.2522,-6.99329,-20.0704,24.47,7.12502,6.27186,54.3571,-5.37442,19.8969,18.7377,17.4067,-13.658,-17.779,-3.28514,-1.94512,-4.13649,-21.3831,14.3052,-14.6621,16.5672,-2.75743
0.915218,18.9568,-1.542,2.80911,-6.47218,0.429313,4.52814,0.127491,-2.2407,-1.04632,0.0051854,-0.929737,-3.61924,0.0405025,0.298351,-9.88556,-5.85654,-10.123,11.5881,-7.91105,10.9516,5.97035,-3.57074,4.45937,-3.97569e-16,-9.54166e-15,-32.5329,-3.79917,-82.2241,27.5664,18.1968,-26.4656,0.065316,7.12502,0.0960103,-29.9144,-3.97569e-16,-9.54166e-15,-33.5878,20.9508,73.8657,21.1749,-7.10428,-19.97,24.3941,7.12502,6.36881,54.2783,-5.56843,19.7454,18.7239,17.6915,-13.7481,-17.7522,-3.23611,-2.34397,-3.75746,-21.3294,14.8853,-14.5411,16.163,-3.95865
0.918013,18.9495,-1.55581,2.90378,-6.33242,0.271441,4.65191,0.0870415,-2.07305,-1.05746,-0.0406101,-0.87112,-3.69944,0.015501,0.268139,-9.92417,-5.77506,-10.1407,11.4901,-7.7849,10.9535,5.93319,-3.5098,4.4745,4.87022e-15,-1.74931e-14,-32.564,-3.63088,-82.2725,27.9048,18.0771,-26.6317,0.126788,7.12502,-0.0643299,-29.8529,4.87022e-15,-1.74931e-14,-33.5163,21.0702,73.8103,21.1282,-7.24224,-19.9892,24.2494,7.12502,6.35028,54.1342,-5.87123,19.6057,18.8602,18.0245,-13.8852,-17.7381,-3.13335,-2.87028,-3.39699,-21.0924,15.5114,-14.3748,15.7751,-5.75682
0.923372,18.9421,-1.56843,3.00777,-6.24927,0.219242,4.73704,0.0608993,-1.95709,-1.06606,-0.0713037,-0.879253,-3.75579,-0.00193076,0.19707,-10.0582,-5.6912,-10.0802,11.5045,-7.6585,10.886,5.94154,-3.44591,4.45267,-5.71506e-15,1.98785e-14,-32.5868,-3.32899,-82.4203,28.2678,17.6733,-26.2145,-0.452062,7.12502,0.338608,-30.4315,-5.71506e-15,1.98785e-14,-33.4066,20.8861,73.8537,21.1573,-7.16109,-20.1349,24.1972,7.12502,6.20955,54.0862,-6.2063,19.401,18.8461,18.355,-13.9936,-17.6067,-3.09013,-3.45395,-3.0142,-20.9955,16.2381,-14.4819,15.3404,-6.37393
0.928238,18.936,-1.5806,3.08921,-6.1795,0.239933,4.81659,0.0324403,-1.94951,-1.04643,-0.111165,-0.893537,-3.7797,-0.021994,0.18127,-10.1422,-5.56994,-10.0404,11.3971,-7.48094,10.8783,5.90105,-3.35681,4.45942,-5.34234e-15,1.98785e-15,-32.5459,-3.15068,-82.4636,28.815,18.3546,-25.8042,-0.653871,7.12502,0.734833,-30.6323,-5.34234e-15,1.98785e-15,-33.2197,20.8312,73.8692,21.1035,-7.11056,-20.0983,24.4826,7.12502,6.2449,54.3706,-6.52263,19.1677,18.7477,18.6886,-14.1323,-17.4364,-2.9396,-4.02732,-2.7303,-21.0014,17.0512,-14.7417,14.9622,-6.37794
0.93229,18.9286,-1.59523,3.15432,-6.02994,0.141014,4.91922,0.0097414,-1.8179,-0.972034,-0.13387,-0.874716,-3.76028,-0.0364681,0.128855,-10.2397,-5.49367,-9.96027,11.1915,-7.35642,10.83,5.83524,-3.29477,4.44023,1.05356e-14,6.75868e-15,-32.4314,-2.92853,-82.5494,29.1456,18.0877,-26.3237,0.178703,7.12502,0.233095,-29.8009,1.05356e-14,6.75868e-15,-32.9519,20.7897,73.9156,21.0735,-7.0733,-20.2004,24.4288,7.12502,6.14639,54.3196,-6.81659,18.9438,18.8138,19.0707,-14.2876,-17.3473,-2.7815,-4.60238,-2.51153,-20.872,17.89,-14.9196,14.623,-6.48687
0.938101,18.9189,-1.61079,3.21528,-5.86147,-0.0316607,5.00179,0.0109139,-1.56652,-0.881235,-0.116137,-0.85503,-3.71332,-0.0335607,0.00690942,-10.2305,-5.4508,-9.90666,10.8996,-7.28711,10.8589,5.73457,-3.25971,4.44669,-5.66536e-15,-1.39149e-14,-32.3281,-2.74624,-82.6692,29.3767,17.2398,-26.9394,0.653062,7.12502,-0.361589,-29.3264,-5.66536e-15,-1.39149e-14,-32.7326,20.5907,74.0282,21.1447,-7.16753,-20.3077,24.048,7.12502,6.04273,53.9418,-7.1515,18.6059,18.9558,19.4953,-14.3633,-17.1923,-3.00568,-5.19808,-2.2822,-20.659,18.7739,-15.0822,14.2341,-6.44142
0.94577,18.9081,-1.62746,3.26738,-5.63114,-0.120953,5.08313,-0.0246711,-1.38384,-0.790921,-0.152093,-0.849164,-3.66561,-0.0557835,-0.0864228,-10.2167,-5.34371,-9.80559,10.5903,-7.12719,10.8226,5.61384,-3.18327,4.43309,4.00054e-15,2.54444e-14,-32.298,-2.48653,-82.777,29.7948,16.6495,-26.9626,-0.111498,7.12502,-0.383935,-30.0909,4.00054e-15,2.54444e-14,-32.5045,20.3576,74.1594,21.2082,-7.23756,-20.2207,24.0342,7.12502,6.12673,53.9256,-7.52031,18.1818,18.9953,19.9532,-14.4698,-16.9957,-3.0688,-5.84663,-2.06259,-20.5355,19.7126,-15.2603,13.8003,-6.53584
0.951521,18.8985,-1.64884,3.31429,-5.37981,-0.166486,5.26288,-0.0724233,-1.29135,-0.719163,-0.211623,-0.82912,-3.69237,-0.0871521,-0.11249,-10.3496,-5.22686,-9.69807,10.4579,-6.94875,10.7258,5.56886,-3.09531,4.39845,1.2424e-16,-7.95139e-15,-32.2583,-2.14978,-82.8516,30.288,16.273,-26.6067,-1.1919,7.12502,-0.0402172,-31.1716,1.2424e-16,-7.95139e-15,-32.2597,20.2157,74.2797,21.2572,-7.23505,-20.0949,24.2771,7.12502,6.24821,54.1649,-7.90366,17.759,19.0075,20.4354,-14.5452,-16.8592,-3.25603,-6.55926,-1.89438,-20.4593,20.7049,-15.3705,13.4723,-7.19927
0.95313,18.8865,-1.67297,3.34142,-5.1624,-0.244451,5.54401,-0.105011,-1.24924,-0.655689,-0.254746,-0.774576,-3.7847,-0.108612,-0.0756697,-10.5904,-5.15926,-9.55634,10.433,-6.83505,10.5702,5.57944,-3.03712,4.33143,-1.42131e-14,-1.59028e-15,-32.1771,-1.94586,-82.8608,30.7227,16.0842,-27.8032,0.640463,7.12502,-1.19582,-29.3359,-1.42131e-14,-1.59028e-15,-32.0346,20.0982,74.3839,21.3644,-7.14055,-19.9542,24.1741,7.12502,6.384,54.0579,-8.22625,17.3683,19.0797,20.8716,-14.6008,-16.7141,-3.40357,-7.3309,-1.57475,-20.3312,21.8137,-15.5455,13.0636,-7.75417
0.953443,18.8729,-1.69514,3.34187,-5.00745,-0.499899,5.8215,-0.119032,-1.0352,-0.550676,-0.258359,-0.679403,-3.83265,-0.113915,-0.0966573,-10.7404,-5.06809,-9.44652,10.222,-6.68625,10.4757,5.51689,-2.96369,4.29388,9.51682e-15,6.36111e-15,-32.0891,-1.74978,-82.8922,31.1958,16.0466,-29.2764,2.94529,7.12502,-2.61861,-27.0184,9.51682e-15,6.36111e-15,-31.794,19.9585,74.5073,21.5403,-7.04682,-19.941,24,7.12502,6.39675,53.8834,-8.49273,17.0719,19.3629,21.2969,-14.7016,-16.5954,-3.47835,-8.05859,-1.17953,-19.9991,22.9678,-15.8669,12.5316,-7.17959
0.950866,18.8577,-1.71445,3.2592,-5.01922,-1.06,6.09827,-0.0799326,-0.561614,-0.375492,-0.16728,-0.507081,-3.80823,-0.0769346,-0.192511,-10.7909,-4.92649,-9.39288,9.88515,-6.47118,10.4734,5.39713,-2.85836,4.30278,1.25234e-14,-9.14409e-15,-31.9603,-1.46732,-82.9587,31.682,15.9934,-29.5514,3.21637,7.12502,-2.8842,-26.7439,1.25234e-14,-9.14409e-15,-31.4768,19.8854,74.6162,21.6195,-7.09964,-19.9315,24.03,7.12502,6.40594,53.9131,-8.65535,17.0516,20.0106,21.6854,-14.8271,-16.5261,-3.26688,-8.66707,-0.732089,-19.3295,24.1694,-16.2813,12.0896,-6.02695
0.957139,18.8406,-1.74091,3.27866,-4.91848,-1.23107,6.37214,-0.0732242,-0.425188,-0.27612,-0.146363,-0.418035,-3.85951,-0.0683928,-0.178835,-10.8273,-4.8039,-9.33058,9.55288,-6.27451,10.3878,5.2755,-2.76714,4.28178,-1.67973e-14,1.03368e-14,-31.8127,-1.11971,-82.9906,32.1492,15.7444,-29.0563,1.92697,7.12502,-2.40605,-28.0392,-1.67973e-14,1.03368e-14,-31.1091,19.5693,74.8886,21.6593,-6.96253,-19.96,24.4372,7.12502,6.37844,54.3211,-8.95115,16.7494,20.1224,22.0686,-15.0643,-16.204,-2.7516,-9.41952,-0.494994,-19.1404,25.3315,-16.5797,11.788,-5.65256
0.962839,18.8223,-1.77349,3.32279,-4.85756,-1.49892,6.721,-0.0561519,-0.214468,-0.193216,-0.103995,-0.294409,-3.96996,-0.0503137,-0.173318,-10.7422,-4.67252,-9.26295,9.04262,-6.06433,10.3025,5.07766,-2.67388,4.26236,-4.82053e-15,1.59028e-14,-31.6643,-0.753558,-83.022,32.6538,15.3467,-28.8687,1.4378,7.12502,-2.22489,-28.5303,-4.82053e-15,1.59028e-14,-30.7764,19.1297,75.2143,21.8414,-6.57747,-20.0964,24.5422,7.12502,6.24678,54.4301,-9.3054,16.5755,20.3134,22.4505,-15.3213,-15.857,-1.86073,-10.1796,-0.343713,-18.8353,26.4394,-16.8648,11.5823,-5.8434
0.966515,18.8021,-1.80397,3.25822,-4.78238,-1.7092,7.13026,-0.0192652,-0.0496237,-0.0470641,-0.0388933,-0.210125,-4.04846,-0.0205192,-0.185322,-10.8082,-4.55649,-9.32275,8.69612,-5.87723,10.3918,4.96814,-2.57995,4.31562,-3.47873e-16,2.38542e-15,-31.5066,-0.489386,-83.0234,33.1741,15.0935,-28.7974,1.82597,7.12502,-2.156,-28.1429,-3.47873e-16,2.38542e-15,-30.432,18.8057,75.4604,22.0634,-6.28407,-20.2308,24.2905,7.12502,6.117,54.1821,-9.58861,16.334,20.4915,22.9064,-15.5769,-15.517,-1.53735,-10.7284,-0.168832,-18.5798,27.4029,-17.1307,11.3133,-5.68201
0.970851,18.7833,-1.83064,3.21723,-4.70786,-1.92156,7.42808,0.0222102,0.112723,0.115488,0.0342719,-0.106416,-4.04686,0.0135754,-0.177128,-10.9989,-4.46217,-9.63722,8.54522,-5.70895,10.6944,4.95537,-2.48587,4.47624,7.70291e-15,6.75868e-15,-31.3153,-0.0763264,-83.0054,33.667,14.7885,-28.4239,1.1387,7.12502,-1.79531,-28.8335,7.70291e-15,6.75868e-15,-30.0591,18.536,75.716,22.2295,-6.16966,-20.0276,24.5198,7.12502,6.31321,54.4057,-9.87613,15.9783,20.6725,23.3419,-15.6542,-15.1844,-1.95675,-11.2549,0.0887309,-18.3233,28.2837,-17.336,10.9086,-5.28511
0.974831,18.7646,-1.86075,3.16288,-4.68098,-1.94189,7.77114,0.0812332,0.0955531,0.258926,0.112242,-0.0871752,-4.09032,0.0527086,-0.156466,-10.9575,-4.36259,-9.69695,8.12604,-5.54722,10.7862,4.8077,-2.40767,4.52882,-8.64713e-15,-5.96354e-15,-31.1483,0.302426,-83.0196,34.1614,14.5325,-28.5418,1.00947,7.12502,-1.90915,-28.9617,-8.64713e-15,-5.96354e-15,-29.6915,18.0314,75.9945,22.4118,-6.0071,-20.1432,24.7191,7.12502,6.20152,54.6083,-10.2011,15.6564,20.6263,23.7932,-15.8116,-14.8513,-2.61067,-11.7246,0.369644,-18.2899,29.0248,-17.4687,10.5956,-5.17866
0.982409,18.7458,-1.88848,3.06364,-4.69671,-1.94502,8.15347,0.1499,0.0968002,0.400404,0.20383,-0.0857234,-4.15749,0.0979913,-0.166842,-10.8301,-4.24018,-9.51417,7.61645,-5.36441,10.6275,4.60185,-2.32891,4.46361,4.47266e-16,7.55382e-15,-30.981,0.722061,-83.0773,34.6686,14.1629,-29.1844,1.73772,7.12502,-2.5298,-28.227,4.47266e-16,7.55382e-15,-29.4188,17.4225,76.2935,22.7235,-5.71061,-20.3729,24.3362,7.12502,5.97977,54.2319,-10.488,15.3469,20.56,24.275,-16.0257,-14.5032,-3.02756,-12.0616,0.60104,-18.3021,29.6692,-17.6304,10.402,-5.17595
0.99418,18.7308,-1.91266,2.94663,-4.66278,-1.84072,8.56887,0.193938,0.0155148,0.51425,0.253981,-0.0995255,-4.27204,0.124085,-0.142626,-10.792,-4.12153,-9.34846,7.25029,-5.18778,10.4647,4.45662,-2.25009,4.39872,-4.77083e-15,1.98785e-15,-30.8452,1.21307,-83.1166,35.1303,13.8507,-29.2715,1.70898,7.12502,-2.61389,-28.2547,-4.77083e-15,1.98785e-15,-29.2128,16.8962,76.5569,23.0628,-5.42628,-20.2679,24.3674,7.12502,6.0812,54.2601,-10.7559,14.9733,20.3756,24.797,-16.2185,-14.1497,-3.29411,-12.3127,0.694604,-18.4579,30.2261,-17.7708,10.3095,-5.27804
1.00343,18.7133,-1.93687,2.86712,-4.56962,-1.76231,8.95692,0.217806,-0.0434287,0.62185,0.278675,-0.117119,-4.37751,0.137123,-0.132113,-10.799,-4.03275,-9.19515,6.95383,-5.05602,10.3396,4.34679,-2.18975,4.3438,-1.02374e-14,-1.15295e-14,-30.7469,1.69425,-83.1866,35.6053,13.5945,-29.4322,1.37605,7.12502,-2.76908,-28.5857,-1.02374e-14,-1.15295e-14,-28.9747,16.4429,76.7472,23.3454,-5.16621,-20.1521,24.2273,7.12502,6.19301,54.1168,-11.0531,14.5826,20.2327,25.3635,-16.4414,-13.7133,-3.12219,-12.5988,0.711686,-18.5698,30.7346,-17.8641,10.2407,-5.52886
1.00888,18.6939,-1.96285,2.82234,-4.50494,-1.7518,9.31097,0.242597,-0.128742,0.739311,0.304492,-0.0689445,-4.45391,0.151811,-0.0386386,-10.8241,-3.93892,-9.06769,6.66264,-4.9073,10.1568,4.2393,-2.12424,4.27605,-5.96354e-16,1.82882e-14,-30.5425,2.08887,-83.1711,35.9605,13.6361,-30.0007,1.80914,7.12502,-3.31813,-28.1448,-5.96354e-16,1.82882e-14,-28.7325,16.0266,76.9791,23.6289,-4.79397,-20.3904,23.8316,7.12502,5.96292,53.7277,-11.4174,14.327,20.1732,26.0028,-16.6685,-13.429,-3.01661,-12.8997,0.73984,-18.5796,31.1948,-18.0275,10.1169,-5.25609
1.01288,18.6768,-1.99839,2.8875,-4.42362,-1.70644,9.66459,0.285851,-0.310767,0.818908,0.344882,-0.000821073,-4.57016,0.17578,0.127852,-10.8776,-3.8263,-9.02657,6.35315,-4.72701,10.0665,4.13303,-2.03982,4.25391,3.52843e-15,1.07344e-14,-30.2524,2.29475,-83.0245,36.2192,13.9325,-30.3086,2.53517,7.12502,-3.61546,-27.4139,3.52843e-15,1.07344e-14,-28.5038,15.545,77.2959,24.0129,-4.48104,-20.4748,23.9643,7.12502,5.88146,53.8626,-11.9823,14.0599,20.0546,26.6848,-16.8646,-13.2639,-3.08373,-13.3403,0.807755,-18.6212,31.629,-18.1188,9.94888,-5.08059
1.01631,18.6621,-2.03708,2.94483,-4.29545,-1.54361,10.0308,0.322696,-0.575405,0.906062,0.362782,-0.00396412,-4.68552,0.189688,0.269625,-10.9097,-3.7034,-8.91201,6.01197,-4.54523,9.98762,4.01254,-1.95292,4.22346,-1.04362e-15,9.34288e-15,-29.9615,2.40466,-82.916,36.4531,14.2075,-30.318,2.2829,7.12502,-3.6246,-27.666,-1.04362e-15,9.34288e-15,-28.2733,15.0823,77.5496,24.4027,-4.39066,-20.3653,24.4383,7.12502,5.98713,54.3337,-12.5614,13.6775,19.8047,27.3676,-17.0863,-12.9519,-2.862,-13.7873,0.837069,-18.7875,32.037,-18.2315,9.72687,-4.7429
1.02318,18.6465,-2.06609,2.91435,-4.26894,-1.34274,10.3217,0.368502,-0.819757,1.05649,0.392719,-0.0289005,-4.69252,0.208474,0.376094,-10.858,-3.57726,-8.84719,5.58748,-4.35446,9.9214,3.85412,-1.86485,4.20639,4.96962e-15,1.55052e-14,-29.665,2.63184,-82.8505,36.7124,14.2847,-29.9443,1.3971,7.12502,-3.26366,-28.5577,4.96962e-15,1.55052e-14,-28.026,14.6173,77.7791,24.752,-4.08301,-20.5095,24.4496,7.12502,5.84789,54.3489,-13.014,13.2502,19.5208,28.0342,-17.3097,-12.5377,-2.71901,-14.0899,0.888198,-19.0111,32.4289,-18.4383,9.51023,-3.99907
1.03232,18.6293,-2.09095,2.83836,-4.3929,-1.25862,10.6062,0.453544,-0.929366,1.24546,0.490443,-0.0300983,-4.65569,0.257808,0.421641,-10.7828,-3.49782,-8.75489,5.10617,-4.2245,9.7977,3.679,-1.80972,4.16221,1.23743e-14,-7.95139e-16,-29.362,2.83887,-82.7834,36.9981,14.3361,-30.1425,1.39268,7.12502,-3.45508,-28.5591,1.23743e-14,-7.95139e-16,-27.7142,14.0896,78.0123,25.0684,-3.53864,-20.6153,24.1853,7.12502,5.74581,54.0874,-13.4068,12.9471,19.3632,28.6744,-17.4639,-12.1685,-2.68606,-14.2801,1.03508,-19.1356,32.7986,-18.5931,9.4317,-3.94516
1.04359,18.6111,-2.11772,2.7512,-4.43252,-1.21917,10.9512,0.527486,-0.933275,1.40255,0.583516,-0.0512796,-4.68457,0.302985,0.386362,-10.6917,-3.43725,-8.58668,4.64071,-4.13178,9.64746,3.50794,-1.77277,4.09484,4.57205e-15,8.74653e-15,-29.1345,2.92334,-82.7087,37.3146,14.4509,-30.6957,1.6911,7.12502,-3.98927,-28.2513,4.57205e-15,8.74653e-15,-27.4412,13.4669,78.2102,25.3625,-3.09512,-20.6584,23.6792,7.12502,5.70413,53.5824,-13.7574,12.6559,19.2564,29.2891,-17.654,-11.7973,-2.70434,-14.4572,1.23577,-19.207,33.1464,-18.6855,9.21254,-3.71355
1.05441,18.5939,-2.1428,2.67442,-4.36476,-1.0718,11.2853,0.571362,-1.04697,1.54053,0.622672,-0.0843505,-4.72717,0.323523,0.408024,-10.5782,-3.3709,-8.56199,4.20361,-4.02449,9.61531,3.34674,-1.72631,4.08934,-4.22417e-15,3.57812e-15,-28.9917,3.0479,-82.6263,37.7199,14.4494,-30.7784,1.76857,7.12502,-4.06917,-28.1723,-4.22417e-15,3.57812e-15,-27.238,13.0331,78.3651,25.6699,-2.98044,-20.6325,23.6245,7.12502,5.72915,53.527,-14.0971,12.2684,19.0375,29.8958,-17.8319,-11.4895,-2.88377,-14.6462,1.42989,-19.3974,33.4411,-18.703,8.99879,-3.58598
1.06282,18.5785,-2.16789,2.64533,-4.27246,-0.803965,11.505,0.618715,-1.29812,1.72608,0.649353,-0.14255,-4.65721,0.339281,0.483923,-10.5891,-3.34116,-8.66678,3.83482,-3.95314,9.70599,3.23546,-1.6909,4.13979,7.90169e-15,-6.16232e-15,-28.7063,3.18204,-82.5511,38.0202,14.3358,-30.4041,1.24481,7.12502,-3.70767,-28.7027,7.90169e-15,-6.16232e-15,-26.9683,12.4659,78.5859,26.1085,-2.74742,-20.4266,24.1105,7.12502,5.92792,54.0076,-14.4963,11.8474,18.6818,30.496,-18.0145,-11.1825,-2.9728,-14.8785,1.53986,-19.7069,33.7033,-18.7898,8.75622,-3.10263
1.07098,18.5649,-2.19345,2.57181,-4.2575,-0.522993,11.7719,0.707814,-1.55565,1.93043,0.726835,-0.241711,-4.59428,0.379359,0.512338,-10.7497,-3.33921,-8.60974,3.60974,-3.93323,9.71442,3.19131,-1.67711,4.13311,-1.54058e-15,-3.77691e-15,-28.3745,3.23701,-82.5198,38.238,14.2472,-29.5216,-0.324694,7.12502,-2.85545,-30.2853,-1.54058e-15,-3.77691e-15,-26.7214,11.7349,78.7948,26.636,-2.27606,-20.3261,24.3716,7.12502,6.02499,54.2659,-14.8742,11.5797,18.3118,31.1052,-18.2138,-10.8601,-2.95955,-15.0428,1.64219,-20.0358,33.9334,-18.8405,8.61036,-2.95814
1.08181,18.5481,-2.22008,2.5029,-4.22603,-0.356697,12.1074,0.757035,-1.71096,2.07371,0.764489,-0.279231,-4.63178,0.399262,0.552205,-10.8816,-3.29392,-8.50042,3.53085,-3.86377,9.58466,3.17728,-1.64362,4.07834,-1.08835e-14,2.00773e-14,-28.1777,3.37245,-82.4661,38.5445,14.1919,-29.2177,-1.11225,7.12502,-2.56191,-31.0766,-1.08835e-14,2.00773e-14,-26.6349,11.2784,78.9272,27.1535,-1.92181,-20.2661,24.1601,7.12502,6.08288,54.0527,-15.2448,11.3284,18.0468,31.6913,-18.4811,-10.5342,-2.48104,-15.2397,1.82956,-20.2463,34.1992,-18.8096,8.42834,-2.9808
1.09417,18.5291,-2.24977,2.49828,-4.18333,-0.153058,12.4802,0.789247,-1.87426,2.12979,0.775576,-0.318113,-4.78058,0.407427,0.598084,-10.8383,-3.22735,-8.34708,3.34965,-3.76981,9.32758,3.09815,-1.60761,3.97999,3.03147e-15,0,-28.0832,3.55017,-82.4149,38.8057,14.109,-30.1383,-0.0386195,7.12502,-3.45106,-29.9904,3.03147e-15,0,-26.6015,10.8085,79.0453,27.57,-1.7318,-20.2394,24.0304,7.12502,6.10869,53.9224,-15.7084,11.0812,17.7101,32.2633,-18.7089,-10.2107,-1.90569,-15.5406,2.12705,-20.5047,34.4834,-18.7554,8.1547,-3.01026
1.10633,18.5083,-2.27929,2.48387,-4.10368,-0.112561,12.8857,0.818661,-1.82948,2.18355,0.810332,-0.334429,-4.94773,0.424304,0.545644,-10.6786,-3.16664,-8.24462,2.9944,-3.68277,9.17738,2.95259,-1.57495,3.92404,4.02539e-15,1.19271e-15,-27.9941,3.64049,-82.3494,38.9662,14.0326,-30.6494,1.09267,7.12502,-3.94454,-28.8506,4.02539e-15,1.19271e-15,-26.4652,10.2157,79.1918,27.8132,-1.52638,-20.3813,24.0357,7.12502,5.97172,53.9315,-16.0929,10.8086,17.5677,32.8187,-18.9315,-9.84446,-1.4168,-15.8418,2.48403,-20.5735,34.8152,-18.754,7.76006,-3.20113
1.12037,18.4906,-2.30463,2.43196,-3.99362,0.0810959,13.2587,0.844071,-1.90131,2.25012,0.821421,-0.407435,-5.08329,0.430734,0.503745,-10.4766,-3.11648,-8.19642,2.66751,-3.61207,9.09483,2.81307,-1.54904,3.89728,-6.95746e-16,1.98785e-15,-27.9541,3.76446,-82.3158,39.2249,13.9434,-30.9903,1.68871,7.12502,-4.27377,-28.2482,-6.95746e-16,1.98785e-15,-26.3642,9.49662,79.3333,28.1019,-1.19068,-20.594,23.66,7.12502,5.76636,53.5616,-16.4171,10.4215,17.2594,33.3795,-19.2165,-9.41013,-1.15638,-16.086,2.64705,-20.828,35.1594,-18.8294,7.50464,-3.31752
1.13467,18.4708,-2.33022,2.43628,-3.92237,0.271457,13.4927,0.873838,-1.95841,2.37511,0.844343,-0.474304,-5.08063,0.441533,0.45992,-10.4887,-3.10075,-8.14139,2.4903,-3.57875,8.95273,2.75472,-1.53784,3.84661,-6.31141e-15,3.37934e-15,-27.7652,3.87711,-82.2845,39.5106,13.8676,-31.8432,2.18309,7.12502,-5.09734,-27.7356,-6.31141e-15,3.37934e-15,-26.201,8.93198,79.4687,28.4822,-0.952632,-20.742,23.3301,7.12502,5.62343,53.2355,-16.8067,10.0637,16.9515,33.9191,-19.4513,-9.04299,-1.22206,-16.3959,2.77409,-21.0798,35.5245,-18.8772,7.26477,-3.08152
1.14691,18.4506,-2.35917,2.43884,-3.91911,0.315114,13.7633,0.925418,-1.92246,2.52564,0.912154,-0.477114,-5.07152,0.473049,0.422391,-10.7187,-3.0778,-8.10362,2.37362,-3.52387,8.84306,2.74879,-1.5095,3.80826,5.76476e-15,-1.11319e-14,-27.4252,4.05961,-82.2321,39.6438,13.602,-31.7462,1.03098,7.12502,-5.00368,-28.8899,5.76476e-15,-1.11319e-14,-25.9577,8.50833,79.6216,28.8257,-0.717764,-20.7172,23.6222,7.12502,5.64741,53.527,-17.2185,9.8032,16.8264,34.4622,-19.63,-8.72857,-1.49835,-16.7111,3.06766,-21.1544,35.8715,-18.8514,6.9516,-3.11245
1.15866,18.4309,-2.38572,2.46264,-3.90315,0.2857,14.0697,0.96464,-1.82814,2.59365,0.972716,-0.441109,-5.16818,0.501505,0.392286,-10.7762,-3.01742,-8.14384,2.18955,-3.41919,8.77204,2.69293,-1.46007,3.79933,-1.68967e-14,-4.37326e-15,-27.2328,4.39643,-82.164,39.7115,13.1346,-30.6297,-0.767721,7.12502,-3.92555,-30.7113,-1.68967e-14,-4.37326e-15,-25.8519,8.10173,79.7548,29.174,-0.423394,-20.3906,23.986,7.12502,5.96274,53.8821,-17.6208,9.5718,16.7814,35.0027,-19.8877,-8.42036,-1.74902,-17.0542,3.39606,-21.1371,36.2429,-18.9886,6.5725,-3.16189
1.17432,18.4094,-2.40416,2.49009,-3.83155,0.475118,14.2495,0.999554,-1.86442,2.67729,1.00671,-0.494864,-5.17868,0.517884,0.348149,-10.8076,-2.9644,-8.22764,2.07831,-3.3278,8.75915,2.65785,-1.4157,3.81469,1.00386e-14,-1.17283e-14,-27.1457,4.61928,-82.1142,39.8522,12.8272,-30.26,-1.40043,7.12502,-3.56851,-31.3503,1.00386e-14,-1.17283e-14,-25.7893,7.58798,79.885,29.5461,-0.309934,-20.2197,23.9792,7.12502,6.12767,53.8706,-17.9748,9.17877,16.465,35.5509,-20.3417,-7.94347,-1.68959,-17.3658,3.56948,-21.3859,36.6315,-19.2557,6.22955,-2.94743
1.18816,18.3873,-2.4267,2.53549,-3.76595,0.6245,14.4397,1.03141,-1.87863,2.77659,1.0394,-0.554437,-5.17761,0.533071,0.285509,-10.9883,-2.90717,-8.24384,2.09373,-3.2364,8.7552,2.68372,-1.36642,3.82044,3.97569e-15,-5.1684e-15,-27.0222,4.74751,-82.0669,40.1329,12.8413,-30.2801,-1.63331,7.12502,-3.58795,-31.5829,3.97569e-15,-5.1684e-15,-25.6854,6.98738,79.9861,29.9374,-0.151342,-20.399,23.9689,7.12502,5.95462,53.8653,-18.3976,8.76783,16.205,36.113,-20.7605,-7.49602,-1.51955,-17.7249,3.79257,-21.5828,37.0364,-19.3209,5.84032,-2.25373
1.20024,18.3664,-2.45781,2.58704,-3.71462,0.700837,14.7547,1.06725,-1.80811,2.86542,1.08685,-0.612128,-5.25431,0.554623,0.171765,-11.0628,-2.88748,-8.14364,1.87632,-3.19945,8.62396,2.62292,-1.35104,3.76561,9.83984e-15,-1.23246e-14,-26.8529,4.85785,-82.0226,40.5437,13.2242,-30.4488,-1.73204,7.12502,-3.75082,-31.6788,9.83984e-15,-1.23246e-14,-25.5092,6.51628,80.0415,30.2864,-0.0430562,-20.6564,24.0259,7.12502,5.70608,53.929,-18.9007,8.47108,16.044,36.7105,-21.1138,-7.18688,-1.41424,-18.1577,4.05274,-21.6975,37.4697,-19.2464,5.48677,-1.68475
1.21298,18.3421,-2.48403,2.62546,-3.67152,0.852892,15.002,1.11204,-1.82226,2.98696,1.13474,-0.678887,-5.26027,0.577125,0.097372,-10.9809,-2.87182,-7.98662,1.46231,-3.17151,8.38634,2.47592,-1.34752,3.66978,1.20265e-14,-5.86415e-15,-26.6526,5.02655,-81.9666,40.9184,13.5848,-31.0948,-0.899674,7.12502,-4.37466,-30.8345,1.20265e-14,-5.86415e-15,-25.1577,6.20326,80.0849,30.4429,-0.102216,-20.5649,24.2368,7.12502,5.7944,54.1376,-19.3651,8.18335,15.7986,37.3286,-21.5969,-6.8694,-1.6736,-18.5883,4.29186,-21.894,37.9503,-19.2495,5.20421,-1.52807
1.22248,18.3135,-2.51007,2.74485,-3.69516,0.971231,15.198,1.16326,-1.90275,3.02416,1.18339,-0.699213,-5.32952,0.601983,0.108817,-10.8156,-2.81306,-7.96526,1.16193,-3.0859,8.2594,2.3496,-1.31357,3.63421,2.48481e-15,-4.47266e-15,-26.5094,5.30542,-81.9368,41.1617,13.7244,-31.3787,-0.252153,7.12502,-4.64881,-30.1811,2.48481e-15,-4.47266e-15,-24.8695,5.77453,80.1575,30.5716,0.125185,-20.5074,24.4405,7.12502,5.84998,54.3398,-19.9604,7.98111,15.5888,37.9663,-22.0713,-6.54072,-1.7522,-19.1184,4.62707,-22.0531,38.4447,-19.2759,4.90194,-1.63084
1.2315,18.286,-2.53878,2.87309,-3.7432,0.980149,15.4603,1.1981,-1.88878,3.01534,1.22362,-0.704391,-5.48202,0.621956,0.0823374,-10.8079,-2.73797,-7.87118,1.06511,-2.98668,8.11654,2.30698,-1.26874,3.58095,-8.29926e-15,1.09332e-14,-26.3865,5.70016,-81.9612,41.2798,13.928,-31.7229,0.430874,7.12502,-4.98118,-29.4906,-8.29926e-15,1.09332e-14,-24.7438,5.41769,80.1728,30.777,0.494947,-20.7858,24.1209,7.12502,5.58113,54.0274,-20.5536,7.83175,15.5091,38.604,-22.4734,-6.25087,-1.96845,-19.6644,4.91047,-22.0781,38.9328,-19.3531,4.57032,-1.23068
1.24365,18.259,-2.56319,2.89659,-3.72511,1.09337,15.8084,1.21794,-1.89184,3.03886,1.23783,-0.736079,-5.646,0.62909,0.0411475,-10.8934,-2.68307,-7.86476,1.0267,-2.90101,8.00579,2.29979,-1.22802,3.55028,-2.03754e-15,-1.45113e-14,-26.3027,6.05041,-81.9411,41.3856,14.3724,-32.511,1.02529,7.12502,-5.74209,-28.8769,-2.03754e-15,-1.45113e-14,-24.7224,5.18348,80.1684,31.0401,0.67974,-20.8145,23.8186,7.12502,5.55349,53.7259,-21.0057,7.61184,15.3214,39.256,-22.9143,-5.88585,-2.33005,-20.0748,5.1179,-22.2223,39.4257,-19.5442,4.17595,-0.448141
1.2584,18.2316,-2.58338,2.93483,-3.65328,1.26455,16.1132,1.21634,-1.89631,3.07462,1.22326,-0.793129,-5.77218,0.621821,-0.0193002,-10.9142,-2.62803,-7.81544,0.864939,-2.81513,7.79425,2.24288,-1.19179,3.48237,7.77745e-15,-1.03368e-14,-26.2692,6.37853,-81.9221,41.6654,14.5943,-32.9984,0.881387,7.12502,-6.21267,-29.0075,7.77745e-15,-1.03368e-14,-24.7316,4.95121,80.1425,31.4384,0.737955,-20.524,23.9937,7.12502,5.83393,53.8934,-21.4553,7.30692,15.0666,39.9081,-23.3617,-5.54427,-2.98839,-20.475,5.31323,-22.4552,39.9412,-19.7373,3.8237,-0.0330757
1.27005,18.2034,-2.60981,3.03662,-3.57868,1.32688,16.3914,1.22064,-1.83526,3.14797,1.23174,-0.805388,-5.84368,0.624554,-0.0731701,-11.0449,-2.61121,-7.77077,0.663197,-2.77328,7.6342,2.19611,-1.17357,3.42801,-1.11071e-14,-5.76476e-15,-26.0751,6.55531,-81.8536,41.9808,14.6804,-33.306,0.496736,7.12502,-6.5096,-29.3832,-1.11071e-14,-5.76476e-15,-24.6139,4.66298,80.1986,31.8777,0.801664,-20.5667,24.24,7.12502,5.79273,54.1408,-21.9998,7.10014,14.9416,40.5737,-23.6951,-5.32087,-3.42522,-20.9952,5.53585,-22.5767,40.4806,-19.8464,3.61003,-0.419321
1.27886,18.1737,-2.63749,3.11061,-3.59865,1.33497,16.7168,1.26605,-1.80143,3.21518,1.29062,-0.782502,-5.94895,0.652571,-0.0863462,-11.1133,-2.55689,-7.80665,0.468731,-2.68087,7.59613,2.14129,-1.12772,3.4275,-5.36719e-15,1.05356e-14,-25.8316,6.81556,-81.7493,42.2492,14.7121,-33.7975,1.40587,7.12502,-6.9841,-28.4589,-5.36719e-15,1.05356e-14,-24.5248,4.35115,80.283,32.28,1.11595,-20.7445,24.163,7.12502,5.62105,54.0685,-22.5696,6.96703,14.8884,41.2884,-24.0802,-5.11088,-3.90271,-21.5286,5.82275,-22.6275,41.0882,-19.9818,3.35337,-0.624564
1.29073,18.1446,-2.65949,3.16456,-3.65968,1.41527,16.9781,1.30194,-1.80435,3.29482,1.32909,-0.810059,-6.00519,0.670673,-0.126684,-10.9919,-2.46912,-7.84251,-0.036782,-2.54567,7.28835,2.18909,-1.08362,3.71609,-4.22417e-16,7.45443e-16,-25.5978,7.13824,-81.7123,42.4668,14.7633,-34.2811,3.0451,7.12502,-7.45087,-26.8037,-4.22417e-16,7.45443e-16,-24.4,4.01121,80.3036,32.5686,1.57326,-20.7552,24.0661,7.12502,5.6107,53.9719,-23.1223,6.8093,14.7406,42.0377,-24.5265,-4.891,-4.63106,-22.015,6.04351,-22.7699,41.7294,-20.1894,3.15289,-0.875096
1.30018,18.1063,-2.68523,3.24491,-3.63989,1.53031,17.2547,1.3069,-1.87219,3.34501,1.31566,-0.820466,-6.10206,0.66507,-0.10159,-10.9613,-2.41999,-7.72079,-0.293376,-2.47997,7.08264,2.08272,-1.05583,3.62001,-8.44835e-16,5.66536e-15,-25.4315,7.36793,-81.6483,42.7459,14.8636,-34.2178,3.59189,7.12502,-7.38977,-26.259,-8.44835e-16,5.66536e-15,-24.2991,3.85164,80.301,32.7901,1.73759,-20.6002,23.8948,7.12502,5.76033,53.7965,-23.7562,6.58971,14.5668,42.8328,-24.8974,-4.82852,-5.10395,-22.5636,6.2012,-22.948,42.3905,-20.3457,2.93618,-0.992119
1.30523,18.0729,-2.71382,3.34971,-3.61804,1.60726,17.5761,1.3129,-1.94708,3.33175,1.30077,-0.814853,-6.29139,0.65971,-0.0569687,-10.8614,-2.35275,-7.65898,-0.47413,-2.39322,6.94692,1.99132,-1.01705,3.56268,1.55673e-14,1.00883e-14,-25.3515,7.61302,-81.6027,43.0218,14.9238,-34.0849,3.0202,7.12502,-7.2615,-26.8352,1.55673e-14,1.00883e-14,-24.3622,3.78131,80.2826,33.132,1.90134,-20.6165,23.7317,7.12502,5.74466,53.6338,-24.4103,6.42951,14.4716,43.614,-25.2347,-5.00709,-5.04281,-23.143,6.49397,-23.0719,43.0235,-20.5083,2.6183,-0.930604
1.31254,18.038,-2.73337,3.34771,-3.63514,1.78297,17.8948,1.33271,-2.07177,3.39917,1.29063,-0.874455,-6.392,0.656381,-0.0533088,-10.8381,-2.26585,-7.60312,-0.715239,-2.27463,6.88471,1.89369,-0.958845,3.53408,1.47846e-15,-1.26725e-14,-25.2117,7.78241,-81.5831,43.319,15.0545,-34.139,2.21395,7.12502,-7.31373,-27.6396,1.47846e-15,-1.26725e-14,-24.3396,3.41926,80.2582,33.5345,2.26277,-20.8428,24.39,7.12502,5.52609,54.2979,-24.9109,6.23894,14.2728,44.4048,-25.5821,-5.19749,-5.33836,-23.5453,6.76372,-23.3012,43.6488,-20.7259,2.28031,-0.585684
1.32019,18.0037,-2.74888,3.34377,-3.67059,1.88736,18.1405,1.34257,-2.11972,3.52368,1.28537,-0.918909,-6.39036,0.653377,-0.0756562,-11.0533,-2.19417,-7.57601,-0.868751,-2.16195,6.88839,1.87199,-0.898342,3.53566,3.19298e-15,-2.48481e-15,-24.99,7.88316,-81.5495,43.6534,15.3089,-34.2289,1.19932,7.12502,-7.40049,-28.6512,3.19298e-15,-2.48481e-15,-24.261,3.07908,80.2392,33.9122,2.58707,-21.0627,24.6865,7.12502,5.31385,54.5999,-25.3889,6.07056,14.1469,45.1773,-25.8624,-5.41868,-5.98732,-23.9159,6.94475,-23.4515,44.2811,-20.9381,2.0691,-0.590418
1.32728,17.9659,-2.77182,3.45079,-3.71007,1.99091,18.3494,1.34542,-2.20784,3.62108,1.26526,-0.942774,-6.39877,0.644252,-0.0493883,-11.3601,-2.13148,-7.44308,-0.970893,-2.06623,6.74061,1.87969,-0.849014,3.46304,2.66371e-14,-2.18166e-14,-24.7264,7.97336,-81.4909,44.0329,15.4433,-33.9736,0.0852803,7.12502,-7.1541,-29.7738,2.66371e-14,-2.18166e-14,-24.1429,2.64093,80.2401,34.1836,3.11655,-21.2987,24.267,7.12502,5.08592,54.186,-26.0727,5.91932,14.0008,45.9802,-26.0556,-5.55608,-6.87404,-24.4805,7.01484,-23.607,44.9398,-21.1963,1.91674,-0.282327
1.332,17.9241,-2.79854,3.59747,-3.69807,2.06242,18.6343,1.3535,-2.31656,3.63269,1.24771,-0.912115,-6.5418,0.638347,0.0434003,-11.3849,-2.05855,-7.35776,-1.23437,-1.9641,6.57869,1.7824,-0.80079,3.39272,-2.17048e-14,1.01132e-14,-24.5825,8.09341,-81.3892,44.3858,15.4812,-33.6354,-0.737017,7.12502,-6.82761,-30.6069,-2.17048e-14,1.01132e-14,-24.1311,2.19333,80.3066,34.4488,3.45959,-21.4326,23.9527,7.12502,4.95666,53.8747,-26.8069,5.71565,13.9016,46.8134,-26.3268,-5.52221,-7.50054,-25.1412,7.0089,-23.7206,45.6379,-21.4345,1.84537,-0.204648
1.33505,17.8815,-2.82463,3.73202,-3.65513,2.21445,18.9224,1.36428,-2.49151,3.62594,1.21819,-0.901305,-6.70666,0.62827,0.155345,-11.3638,-2.0136,-7.40187,-1.46279,-1.89064,6.53299,1.69635,-0.76452,3.38714,-1.35733e-14,5.2181e-16,-24.464,8.18364,-81.2673,44.7065,15.5514,-33.4093,-1.09191,7.12502,-6.60934,-30.9688,-1.35733e-14,5.2181e-16,-24.2025,2.13165,80.3277,34.8151,3.28951,-21.2782,23.9629,7.12502,5.10574,53.8814,-27.5035,5.54352,13.7186,47.6704,-26.6968,-5.55688,-7.88086,-25.7938,7.02096,-23.9137,46.3421,-21.6261,1.67409,0.0917148
1.33961,17.8396,-2.84613,3.79815,-3.63338,2.40353,19.1885,1.36669,-2.65434,3.66206,1.17639,-0.945114,-6.81134,0.611123,0.206248,-11.35,-1.95149,-7.43362,-1.65986,-1.79814,6.54773,1.62192,-0.717183,3.40172,-2.97929e-14,4.31114e-15,-24.3161,8.28895,-81.2106,45.0715,15.5119,-33.2273,-1.63039,7.12502,-6.43368,-31.5127,-2.97929e-14,4.31114e-15,-24.3118,1.98796,80.2917,35.2758,3.4122,-21.154,24.0029,7.12502,5.22566,53.9185,-28.1299,5.35333,13.4971,48.5361,-26.9975,-5.87163,-8.30778,-26.3312,7.06555,-24.1587,47.0503,-21.874,1.5309,0.356028
1.34429,17.799,-2.86383,3.82293,-3.62126,2.54627,19.4325,1.35944,-2.73942,3.76694,1.13821,-0.998433,-6.82789,0.593015,0.203571,-11.3726,-1.85056,-7.43187,-1.95034,-1.65234,6.56276,1.51831,-0.642233,3.41199,-5.34855e-15,-7.20594e-16,-24.0519,8.38974,-81.1597,45.3869,15.3722,-33.0423,-2.2977,7.12502,-6.25502,-32.1854,-5.34855e-15,-7.20594e-16,-24.2612,1.64949,80.2446,35.6112,3.64682,-21.1494,24.1509,7.12502,5.23009,54.0663,-28.6748,5.12917,13.3323,49.3974,-27.2598,-6.2297,-8.24249,-26.7921,7.098,-24.3491,47.7427,-22.1446,1.48929,0.0707923
1.34631,17.7521,-2.88556,3.891,-3.5756,2.69265,19.72,1.35599,-2.86911,3.84518,1.09435,-1.0372,-6.89694,0.573765,0.242213,-11.4633,-1.77367,-7.36461,-2.20003,-1.54268,6.52378,1.44125,-0.586,3.38925,2.27608e-14,-1.41386e-14,-23.8541,8.35969,-81.1078,45.7584,15.4245,-33.648,-1.57318,7.12502,-6.83974,-31.4427,2.27608e-14,-1.41386e-14,-24.1839,1.29107,80.2061,35.9006,3.79792,-21.3433,24.0999,7.12502,5.04292,54.0199,-29.2892,4.91264,13.1634,50.2659,-27.4527,-6.67158,-8.09334,-27.3568,7.14164,-24.5372,48.4642,-22.3406,1.41893,-0.203499
1.34957,17.7054,-2.90728,4.01235,-3.56251,2.86633,19.9701,1.35649,-2.98002,3.89961,1.05631,-1.1186,-6.97044,0.556906,0.223339,-11.5837,-1.76463,-7.13883,-2.43537,-1.54071,6.36945,1.37776,-0.586801,3.29009,1.51449e-14,-7.35503e-15,-23.7107,8.33341,-81.0923,46.2207,15.2459,-34.6606,0.985493,7.12502,-7.8172,-28.85,1.51449e-14,-7.35503e-15,-24.0824,0.809634,80.1616,36.1631,4.1063,-21.6402,24.0034,7.12502,4.75618,53.93,-29.9662,4.72956,12.9391,51.1309,-27.6526,-7.09813,-7.93621,-27.9978,7.22808,-24.7676,49.2268,-22.556,1.27476,0.107438
1.35027,17.6584,-2.92807,4.12456,-3.57449,2.85275,20.1738,1.36247,-2.92171,3.99994,1.06761,-1.14499,-6.96867,0.559938,0.156512,-11.679,-1.73162,-6.98772,-2.79335,-1.49669,6.29878,1.26915,-0.564394,3.23612,-3.07122e-14,1.4238e-14,-23.4642,8.28691,-81.0397,46.581,15.0382,-35.1807,2.33445,7.12502,-8.31919,-27.4817,-3.07122e-14,1.4238e-14,-23.988,0.225189,80.1422,36.539,4.50456,-21.7531,23.7621,7.12502,4.64714,53.6911,-30.6125,4.54953,12.9459,51.9975,-27.914,-7.48491,-7.71054,-28.6317,7.36387,-24.7735,50.0334,-22.8597,1.12379,0.282179
1.34551,17.6107,-2.94739,4.21678,-3.62419,2.69335,20.4373,1.38796,-2.8382,4.05256,1.11309,-1.08512,-7.05229,0.580571,0.157514,-11.5105,-1.62398,-7.06486,-3.20588,-1.34038,6.3285,1.09341,-0.485804,3.26545,1.73315e-15,-1.72446e-14,-23.312,8.33574,-80.969,46.9481,14.9124,-35.4248,2.15608,7.12502,-8.55474,-27.6506,1.73315e-15,-1.72446e-14,-24.0482,-0.110404,80.1108,36.9292,4.53356,-21.6455,23.4861,7.12502,4.75109,53.4128,-31.2723,4.43306,13.1562,52.8551,-28.0694,-8.01155,-7.68889,-29.2743,7.50669,-24.5872,50.8567,-23.1503,0.954295,0.398006
1.35228,17.5586,-2.96435,4.3671,-3.46317,2.75158,20.639,1.30343,-2.75917,4.10338,1.01141,-1.10418,-7.09985,0.52987,0.115603,-11.3183,-1.49678,-7.15581,-3.6142,-1.15803,6.33677,0.913179,-0.394581,3.29102,5.2181e-16,1.6201e-14,-23.1991,8.33794,-80.887,47.4376,14.9027,-35.5598,1.75314,7.12502,-8.68503,-28.0482,5.2181e-16,1.6201e-14,-24.0314,-0.313202,80.0677,37.2477,4.44048,-21.663,23.5685,7.12502,4.73415,53.4956,-31.9486,3.94881,13.0885,53.7305,-28.2627,-8.40873,-7.75374,-29.9397,7.40452,-24.7002,51.6508,-23.4244,0.849127,0.371557
1.35436,17.5072,-2.9789,4.55125,-3.36805,2.83354,20.7604,1.25564,-2.81062,4.15523,0.933272,-1.12004,-7.10632,0.492812,0.146949,-11.2298,-1.41303,-7.12476,-4.0061,-1.04246,6.29048,0.759491,-0.337383,3.2714,-7.17488e-15,-1.27968e-15,-23.0724,8.31913,-80.8246,47.8979,14.8206,-35.5518,1.34473,7.12502,-8.67729,-28.4569,-7.17488e-15,-1.27968e-15,-23.9682,-0.666715,80.0586,37.5258,4.43479,-21.8435,23.8366,7.12502,4.55984,53.7675,-32.6675,3.57558,12.9825,54.605,-28.505,-8.57901,-7.26797,-30.6195,7.3798,-24.836,52.4259,-23.6963,0.724639,0.556817
1.354,17.4582,-2.99437,4.66731,-3.29727,2.97577,20.9897,1.23246,-2.95008,4.16489,0.860111,-1.16458,-7.21641,0.460795,0.193866,-11.1037,-1.38332,-6.98332,-4.37827,-1.01541,6.19809,0.610907,-0.327324,3.21066,-1.54058e-15,1.19519e-14,-23.048,8.30905,-80.8446,48.303,14.7083,-35.6527,1.36563,7.12502,-8.77462,-28.432,-1.54058e-15,1.19519e-14,-24.1558,-1.21334,80.0106,38.0272,4.65681,-21.8223,23.8464,7.12502,4.58031,53.7769,-33.3187,3.22206,12.8204,55.4787,-28.74,-8.72015,-6.9342,-31.2313,7.4163,-25.0184,53.1833,-23.9751,0.539281,0.585128
1.3558,17.4066,-3.01096,4.79719,-3.19654,2.99413,21.2447,1.17961,-2.88842,4.19796,0.79257,-1.1936,-7.31224,0.427333,0.141848,-11.2058,-1.37379,-6.88217,-4.62048,-1.00032,6.15703,0.546756,-0.319236,3.1769,4.5969e-15,-1.39149e-15,-22.9432,8.38414,-80.8331,48.6841,14.4769,-35.8036,1.90757,7.12502,-8.92026,-27.8839,4.5969e-15,-1.39149e-15,-24.242,-1.77835,79.9482,38.4519,4.9911,-21.8533,23.8526,7.12502,4.55042,53.7837,-33.979,2.86873,12.8071,56.3311,-28.8346,-8.96247,-7.20584,-31.8747,7.37914,-25.0582,53.9734,-24.2656,0.37183,0.628445
1.35677,17.3527,-3.02818,4.92829,-3.16317,2.98185,21.5079,1.15434,-2.84442,4.24976,0.761383,-1.17374,-7.39348,0.411747,0.143399,-11.3326,-1.36978,-6.93106,-4.87768,-0.973103,6.14892,0.483027,-0.302086,3.18412,1.24551e-14,-6.70898e-15,-22.7937,8.45501,-80.7473,49.0839,14.2551,-36.101,2.20369,7.12502,-9.20723,-27.5753,1.24551e-14,-6.70898e-15,-24.1378,-2.15675,79.9681,38.6747,5.20846,-22.0466,23.908,7.12502,4.36373,53.843,-34.6682,2.57801,12.8271,57.1672,-28.9418,-9.07421,-7.33222,-32.5326,7.39078,-25.0762,54.7979,-24.5739,0.277834,0.528963
1.3558,17.2973,-3.04431,5.08217,-3.14963,3.05296,21.7276,1.15007,-2.92401,4.25472,0.728899,-1.17463,-7.5039,0.398615,0.193478,-11.2401,-1.33842,-6.95691,-5.20856,-0.92356,6.13886,0.355634,-0.276942,3.1862,-1.63376e-15,-5.77718e-15,-22.7927,8.41889,-80.6758,49.5564,14.2452,-36.3612,1.91259,7.12502,-9.45837,-27.8552,-1.63376e-15,-5.77718e-15,-24.1684,-2.48217,79.9744,38.9778,5.298,-22.2843,24.2092,7.12502,4.13424,54.1489,-35.408,2.21863,12.7653,58.0038,-28.9554,-9.15659,-7.61308,-33.221,7.39081,-25.1893,55.6274,-24.8799,0.251577,0.383249
1.3529,17.2425,-3.05749,5.22006,-3.12006,3.03029,21.9682,1.14057,-2.95041,4.23807,0.70306,-1.13978,-7.64891,0.388412,0.249901,-11.1414,-1.30657,-6.96479,-5.50064,-0.877142,6.13562,0.240154,-0.253777,3.18736,1.83255e-14,3.23025e-16,-22.9029,8.42592,-80.6048,50.0804,14.2526,-36.2989,1.91623,7.12502,-9.39823,-27.8542,1.83255e-14,3.23025e-16,-24.3228,-2.70184,79.9342,39.3426,5.17361,-22.2078,24.3263,7.12502,4.20814,54.2645,-36.1117,1.90624,12.8208,58.8604,-28.9515,-9.26675,-7.94984,-33.8813,7.40313,-25.1791,56.4497,-25.1428,0.188417,0.16617
1.35209,17.1892,-3.06728,5.30033,-3.12115,3.12624,22.2396,1.14624,-3.03453,4.2971,0.677735,-1.17574,-7.72654,0.377897,0.262752,-11.3895,-1.31527,-6.8482,-5.60728,-0.884025,6.06106,0.246454,-0.256025,3.13931,1.12313e-14,-1.70706e-14,-22.8919,8.44019,-80.5594,50.5673,14.1689,-36.3446,2.32526,7.12502,-9.44234,-27.4432,1.12313e-14,-1.70706e-14,-24.2853,-2.99765,79.8253,39.6134,5.12451,-21.9672,24.3177,7.12502,4.44044,54.2511,-36.7211,1.61844,12.7249,59.7369,-29.1112,-9.21114,-8.4513,-34.4435,7.40922,-25.2991,57.2481,-25.4714,0.0738881,0.281592
1.35171,17.1282,-3.07927,5.4104,-3.14615,3.36726,22.4853,1.171,-3.23442,4.35541,0.647057,-1.25383,-7.79147,0.36698,0.29767,-11.5805,-1.34893,-6.91604,-5.74719,-0.904039,6.12224,0.236117,-0.260792,3.17303,-1.35733e-14,3.31722e-15,-22.8126,8.48105,-80.5154,50.9871,14.0712,-36.4469,2.65059,7.12502,-9.54105,-27.1134,-1.35733e-14,3.31722e-15,-24.2782,-3.42699,79.7559,39.9675,5.23838,-22.0971,24.1856,7.12502,4.31498,54.1216,-37.4247,1.3193,12.4452,60.6601,-29.3571,-9.01334,-8.91031,-35.0701,7.38574,-25.5984,58.0517,-25.7784,0.00642309,0.415985
1.34963,17.0631,-3.09472,5.51724,-3.16225,3.39623,22.7958,1.16894,-3.23014,4.36867,0.629722,-1.27086,-7.93885,0.359614,0.277464,-11.4727,-1.34139,-7.04012,-6.11611,-0.873337,6.21425,0.0971186,-0.242088,3.22919,-6.39838e-15,-8.94531e-16,-22.7844,8.60067,-80.4878,51.3301,14.0378,-36.851,2.43284,7.12502,-9.93094,-27.3129,-6.39838e-15,-8.94531e-16,-24.389,-3.77011,79.7073,40.3264,5.2737,-22.5442,23.5484,7.12502,3.88325,53.4928,-38.1442,1.11233,12.415,61.5807,-29.5477,-8.96764,-9.23689,-35.7292,7.40775,-25.6703,58.8933,-26.0991,0.0921399,-0.262829
1.34755,16.9978,-3.10929,5.6483,-3.06256,3.37296,23.0649,1.10467,-3.16274,4.41422,0.552878,-1.25669,-8.02681,0.322033,0.273896,-11.5125,-1.29685,-7.04542,-6.50209,-0.799068,6.16911,-0.0280104,-0.202765,3.21716,3.91357e-16,5.45415e-15,-22.7088,8.6783,-80.4228,51.6721,13.992,-37.0878,2.58393,7.12502,-10.1593,-27.1508,3.91357e-16,5.45415e-15,-24.4039,-4.06908,79.6374,40.6494,5.34407,-22.966,23.0565,7.12502,3.47596,53.0079,-38.8522,0.809104,12.473,62.5097,-29.7129,-9.02574,-9.26481,-36.438,7.33612,-25.6722,59.7845,-26.4415,0.125083,-0.752302
1.3444,16.9373,-3.12149,5.78901,-2.9587,3.42205,23.2688,1.05865,-3.18668,4.50628,0.48041,-1.2639,-8.02962,0.287313,0.299592,-11.8272,-1.29146,-6.99753,-6.68385,-0.772035,6.13813,-0.0365884,-0.184977,3.19891,-1.8077e-15,1.86361e-15,-22.5986,8.65392,-80.3431,52.0713,13.9567,-37.1142,2.811,7.12502,-10.1848,-26.9225,-1.8077e-15,1.86361e-15,-24.3137,-4.41912,79.564,40.9224,5.47199,-23.1171,23.0336,7.12502,3.32998,52.9873,-39.5519,0.523112,12.4596,63.4229,-29.8574,-9.24501,-9.42712,-37.1503,7.21022,-25.7355,60.7011,-26.7619,0.0962443,-0.66575
1.33777,16.8682,-3.13318,5.95554,-2.92816,3.44077,23.4273,1.07669,-3.19014,4.56844,0.496354,-1.27597,-8.04388,0.294464,0.28241,-11.8922,-1.35947,-7.01549,-7.02422,-0.844843,6.18902,-0.131125,-0.218219,3.21723,3.78312e-15,-1.81267e-14,-22.6138,8.53774,-80.2671,52.5065,13.9051,-37.1375,2.65063,7.12502,-10.2073,-27.0817,3.78312e-15,-1.81267e-14,-24.2709,-4.88857,79.5155,41.2264,5.71547,-23.0985,23.1845,7.12502,3.34794,53.1379,-40.333,0.340436,12.4816,64.3772,-30.0706,-9.39538,-9.30849,-37.8973,7.12766,-25.7574,61.6532,-27.1339,0.0461439,-0.612506
1.33229,16.7993,-3.14386,6.05105,-2.87802,3.57262,23.7366,1.07218,-3.2825,4.58472,0.448625,-1.33702,-8.1855,0.274628,0.278968,-11.8307,-1.36577,-6.92921,-7.39375,-0.855915,6.17053,-0.262374,-0.225296,3.1939,4.84538e-15,7.05686e-15,-22.7076,8.51363,-80.2727,52.9411,13.6936,-37.2417,2.6575,7.12502,-10.3078,-27.0699,4.84538e-15,7.05686e-15,-24.2826,-5.24395,79.4262,41.3914,5.82691,-23.2744,22.8157,7.12502,3.17807,52.7718,-41.0481,0.132909,12.3599,65.3816,-30.2987,-9.41657,-9.38498,-38.5346,7.04201,-25.9166,62.5754,-27.4823,0.14194,-1.1199
1.33158,16.7347,-3.14792,6.10665,-2.80545,3.79085,24.0507,1.03115,-3.39854,4.61256,0.344674,-1.42505,-8.31471,0.22838,0.276833,-11.9489,-1.33825,-6.8754,-7.62045,-0.810888,6.16045,-0.320278,-0.201369,3.18226,3.37934e-15,-8.19987e-16,-22.7667,8.61851,-80.273,53.3316,13.4609,-37.3891,2.55335,7.12502,-10.45,-27.1669,3.37934e-15,-8.19987e-16,-24.3753,-5.62522,79.3406,41.6535,5.91726,-23.472,22.6289,7.12502,2.98731,52.5877,-41.6633,-0.151634,12.1306,66.4044,-30.5606,-9.29218,-9.30248,-39.0594,6.88181,-26.1789,63.445,-27.8789,0.176331,-1.14807
1.33297,16.6641,-3.15222,6.17558,-2.63326,4.05521,24.3172,0.963266,-3.47673,4.65653,0.218465,-1.50786,-8.40015,0.170479,0.266825,-12.0125,-1.34307,-7.01924,-7.86815,-0.784908,6.28545,-0.390708,-0.181851,3.25507,-3.90115e-15,-5.71506e-16,-22.8374,8.67343,-80.1993,53.6886,13.3717,-37.4715,2.07324,7.12502,-10.5295,-27.643,-3.90115e-15,-5.71506e-16,-24.5237,-6.07875,79.2969,42.0805,6.07675,-23.6011,22.7504,7.12502,2.86262,52.7109,-42.2595,-0.572538,11.8457,67.4499,-30.9529,-8.97363,-9.08306,-39.6103,6.62908,-26.4989,64.3041,-28.2808,0.185279,-0.840014
1.33165,16.5946,-3.15945,6.18971,-2.45572,4.31854,24.6926,0.920576,-3.58883,4.6731,0.112473,-1.55797,-8.57276,0.124838,0.305324,-11.722,-1.37347,-7.19482,-8.32051,-0.807226,6.36726,-0.585046,-0.190395,3.31791,-2.2736e-15,1.16289e-14,-23.047,8.74115,-80.098,54.0754,13.2361,-37.6734,2.12322,7.12502,-10.7242,-27.5831,-2.2736e-15,1.16289e-14,-24.7064,-6.53999,79.2983,42.4563,6.15698,-23.66,22.7328,7.12502,2.80571,52.694,-42.748,-0.91438,11.5554,68.452,-31.4536,-8.58734,-8.52738,-40.0945,6.37537,-26.8012,65.1554,-28.6819,0.290368,-0.943686
1.3258,16.5282,-3.16436,6.18134,-2.31961,4.38611,25.0568,0.873827,-3.60532,4.74297,0.0314895,-1.56494,-8.68028,0.0878783,0.330293,-11.6841,-1.42681,-7.15982,-8.61472,-0.87835,6.29952,-0.68369,-0.22665,3.28613,5.26158e-15,-9.79014e-15,-23.0839,8.80861,-80.0539,54.3375,13.0524,-37.8572,2.3894,7.12502,-10.9015,-27.3076,5.26158e-15,-9.79014e-15,-24.7588,-6.88021,79.2201,42.7504,6.20688,-23.5208,22.6051,7.12502,2.94011,52.5646,-43.213,-1.11991,11.5097,69.3769,-31.8033,-8.55862,-8.47848,-40.5723,6.19746,-26.8671,66.0253,-29.1021,0.446551,-1.30846
1.31688,16.4595,-3.17163,6.21254,-2.17402,4.34493,25.3617,0.813652,-3.57453,4.84727,-0.0465603,-1.53596,-8.71814,0.0503826,0.368415,-11.8583,-1.45787,-7.14869,-8.80362,-0.903403,6.31571,-0.714752,-0.236123,3.28951,-4.89507e-15,-7.28049e-15,-22.9654,8.80452,-80.0128,54.5253,12.9296,-38.0666,2.58422,7.12502,-11.1035,-27.102,-4.89507e-15,-7.28049e-15,-24.7378,-7.25292,79.1168,43.0279,6.40253,-23.5426,22.3898,7.12502,2.91912,52.3495,-43.8004,-1.31359,11.6309,70.2823,-32.0482,-8.8802,-9.05097,-41.1694,6.05478,-26.8031,66.9288,-29.3349,0.638515,-1.86031
1.30774,16.3893,-3.18047,6.32445,-1.88839,4.37379,25.6481,0.702285,-3.52715,4.8938,-0.188053,-1.52623,-8.80883,-0.0160777,0.396382,-11.8639,-1.4486,-7.17565,-9.14029,-0.875678,6.34365,-0.826551,-0.219633,3.30732,1.54058e-15,-5.73991e-15,-22.9997,8.76248,-79.9712,54.7696,12.8803,-38.4194,2.3452,7.12502,-11.4437,-27.3225,1.54058e-15,-5.73991e-15,-24.8206,-7.747,79.0487,43.3559,6.649,-23.9097,22.4352,7.12502,2.56457,52.3995,-44.4317,-1.66844,11.6908,71.2229,-32.334,-9.09366,-9.39963,-41.8644,5.7828,-26.8317,67.8364,-29.4118,0.912485,-2.80975
1.30001,16.3144,-3.19043,6.54088,-1.49624,4.44727,25.8957,0.560896,-3.45295,4.9148,-0.359374,-1.52116,-8.90735,-0.0966254,0.414395,-11.9827,-1.46471,-7.17678,-9.46937,-0.879307,6.32568,-0.915311,-0.217928,3.30296,-2.70844e-15,-1.71079e-14,-23.0814,8.71199,-79.888,55.0389,12.8437,-38.7721,2.18081,7.12502,-11.7839,-27.4677,-2.70844e-15,-1.71079e-14,-24.8641,-8.34402,79.0318,43.6615,7.02411,-24.3063,22.5646,7.12502,2.18158,52.5332,-45.1635,-2.18893,11.7167,72.2049,-32.6446,-9.21154,-9.56742,-42.6837,5.37052,-26.9186,68.7692,-29.5664,1.08198,-3.20735
1.29403,16.2372,-3.19917,6.76055,-1.17283,4.48664,26.1605,0.450466,-3.36227,4.91426,-0.485275,-1.49351,-9.04032,-0.155317,0.433984,-12.0697,-1.50511,-7.20475,-9.74409,-0.91631,6.31352,-0.989068,-0.232862,3.30452,-9.41121e-15,-1.03492e-14,-23.1897,8.73705,-79.7692,55.2466,12.7839,-38.7864,2.28536,7.12502,-11.7976,-27.3624,-9.41121e-15,-1.03492e-14,-24.9482,-8.97158,79.0684,43.9664,7.58492,-24.589,22.4486,7.12502,1.90855,52.4198,-45.9362,-2.62298,11.766,73.1843,-32.8062,-9.36467,-9.73377,-43.4984,4.97352,-26.9656,69.7133,-29.8221,1.2997,-3.70876
1.28813,16.1645,-3.20326,6.88029,-0.980989,4.57797,26.4605,0.391371,-3.37405,4.93236,-0.57642,-1.48961,-9.17025,-0.19546,0.475362,-12.0411,-1.52395,-7.19988,-9.99794,-0.938967,6.25216,-1.07686,-0.243458,3.28327,9.26212e-15,-3.03768e-15,-23.3369,8.7462,-79.6737,55.4148,12.8428,-38.8054,2.58316,7.12502,-11.816,-27.0635,9.26212e-15,-3.03768e-15,-25.17,-9.54389,79.0711,44.3983,8.19981,-24.8064,22.2903,7.12502,1.69856,52.2633,-46.5998,-2.92762,11.725,74.1382,-33.0143,-9.4699,-10.2205,-44.1634,4.67928,-27.067,70.6526,-30.1361,1.56381,-4.41194
1.28054,16.0921,-3.20422,7.02985,-0.813149,4.6158,26.7178,0.340361,-3.37309,4.96085,-0.649996,-1.47301,-9.26682,-0.228053,0.518329,-12.1581,-1.54722,-7.13576,-10.2454,-0.965818,6.17146,-1.13838,-0.255977,3.24341,-1.51115e-14,-2.95506e-14,-23.4452,8.78008,-79.5783,55.5847,12.8208,-39.0609,2.4133,7.12502,-12.0624,-27.219,-1.51115e-14,-2.95506e-14,-25.4123,-10.1773,79.0626,44.8891,8.8171,-25.009,22.0817,7.12502,1.50288,52.0561,-47.2804,-3.18282,11.7423,75.1062,-33.2992,-9.51496,-10.2319,-44.8536,4.415,-27.0989,71.5935,-30.3961,1.71196,-4.80191
1.27315,16.0166,-3.20419,7.24797,-0.646465,4.46833,26.8757,0.278162,-3.202,5.01182,-0.677345,-1.38185,-9.28986,-0.244122,0.531415,-12.3369,-1.58927,-7.22862,-10.5455,-0.98995,6.18657,-1.20647,-0.260439,3.26776,-9.10682e-15,-5.09386e-16,-23.4791,8.76955,-79.3992,55.7709,12.8024,-39.3159,1.97577,7.12502,-12.3082,-27.642,-9.10682e-15,-5.09386e-16,-25.5937,-10.7662,79.0905,45.4248,9.36686,-24.9871,21.8411,7.12502,1.52401,51.8154,-48.0345,-3.38765,11.9801,76.0883,-33.5797,-9.54312,-9.96017,-45.6469,4.1898,-26.9282,72.5743,-30.6491,1.74197,-4.74439
1.26702,15.94,-3.20188,7.48483,-0.492371,4.38627,27.0102,0.211287,-3.04884,5.00629,-0.721703,-1.34408,-9.36489,-0.267213,0.500932,-12.28,-1.63451,-7.30635,-10.8711,-1.03269,6.25185,-1.32091,-0.278246,3.30753,-5.9449e-15,-8.32411e-15,-23.7481,8.67713,-79.2765,56.0501,12.8263,-39.5192,1.94326,7.12502,-12.5043,-27.6626,-5.9449e-15,-8.32411e-15,-25.9182,-11.3797,79.0998,45.9999,9.85947,-24.9772,22.2173,7.12502,1.53357,52.1915,-48.8245,-3.65467,12.1465,77.1149,-33.9124,-9.53181,-10.1173,-46.4439,3.9553,-26.8384,73.5606,-30.9964,1.84381,-4.81971
1.26018,15.862,-3.20046,7.71338,-0.259005,4.39893,27.1884,0.121691,-2.94847,5.00238,-0.813783,-1.33489,-9.45873,-0.311043,0.485517,-12.2613,-1.7068,-7.30629,-11.1564,-1.12253,6.25622,-1.41286,-0.322151,3.30916,-3.49737e-15,5.49143e-15,-24.0096,8.56192,-79.1661,56.3097,12.7117,-39.6631,2.31625,7.12502,-12.643,-27.2811,-3.49737e-15,5.49143e-15,-26.3042,-12.1716,79.1171,46.6347,10.6158,-25.1424,22.5331,7.12502,1.37408,52.5085,-49.5612,-4.04097,12.2266,78.1533,-34.2987,-9.52983,-10.7074,-47.2182,3.6608,-26.8371,74.5228,-31.3371,1.85708,-4.60536
1.25252,15.782,-3.20116,7.94453,0.0588121,4.45244,27.3784,0.00278368,-2.86392,5.03214,-0.946409,-1.32684,-9.51913,-0.373779,0.492356,-12.4894,-1.75496,-7.28964,-11.3113,-1.17004,6.23289,-1.42362,-0.342225,3.29673,1.59028e-14,2.13321e-14,-24.1233,8.54297,-79.0334,56.4416,12.5725,-39.8339,2.45413,7.12502,-12.8077,-27.133,1.59028e-14,2.13321e-14,-26.6529,-12.8752,79.133,47.299,11.3767,-25.3698,22.523,7.12502,1.15443,52.4996,-50.2834,-4.49186,12.2612,79.1597,-34.5996,-9.45217,-10.9168,-48.0005,3.31947,-26.8753,75.4406,-31.5986,1.88032,-4.43204
1.24519,15.7059,-3.20003,8.12358,0.351162,4.50512,27.6421,-0.0998482,-2.77096,5.02355,-1.06106,-1.33331,-9.66154,-0.42713,0.473008,-12.6685,-1.76417,-7.27962,-11.4602,-1.16651,6.22811,-1.44428,-0.337013,3.29401,-3.98812e-15,-1.05107e-14,-24.4709,8.46086,-78.9204,56.7396,12.508,-39.9543,2.56901,7.12502,-12.9237,-27.0108,-3.98812e-15,-1.05107e-14,-27.1495,-13.5981,79.1528,48.0538,12.1699,-25.6532,22.5827,7.12502,0.880658,52.5606,-50.9754,-4.91666,12.2746,80.1359,-34.7493,-9.37353,-11.071,-48.6845,2.99916,-26.9166,76.3249,-31.9387,2.06647,-4.8366
1.2399,15.6382,-3.19219,8.26111,0.566086,4.63897,27.8674,-0.155652,-2.76416,5.06127,-1.14064,-1.37027,-9.73164,-0.463301,0.45701,-12.8049,-1.80665,-7.23052,-11.7356,-1.21152,6.22196,-1.51123,-0.357744,3.28337,-6.73383e-15,-5.93869e-15,-24.9138,8.23063,-78.8164,57.1467,12.3777,-39.7632,2.4,7.12502,-12.7395,-27.1914,-6.73383e-15,-5.93869e-15,-27.6842,-14.4165,79.168,48.9803,12.9738,-25.921,22.4949,7.12502,0.622059,52.4737,-51.5598,-5.35826,12.1766,81.0744,-35.0386,-9.16961,-11.3468,-49.223,2.70939,-27.0518,77.1776,-32.416,2.11894,-5.02615
1.23295,15.5597,-3.18687,8.48599,0.753204,4.69839,28.0159,-0.226442,-2.7346,5.08177,-1.22643,-1.37081,-9.78184,-0.502819,0.470711,-12.778,-1.8618,-7.26679,-12.143,-1.26785,6.28003,-1.64863,-0.382979,3.31421,-1.15792e-14,-4.77083e-15,-25.3017,8.09118,-78.6905,57.4489,12.111,-39.8421,2.53852,7.12502,-12.8155,-27.0481,-1.15792e-14,-4.77083e-15,-28.2918,-15.2042,79.2018,49.9821,13.7816,-26.064,22.3719,7.12502,0.483974,52.3511,-52.3145,-5.76795,12.1857,82.0617,-35.3224,-8.90164,-11.8076,-49.9451,2.45561,-27.093,78.1053,-32.8252,2.08604,-4.97492
1.22185,15.465,-3.18968,8.76673,0.915756,4.52948,28.2138,-0.270944,-2.56776,5.05909,-1.23075,-1.27309,-9.90886,-0.506061,0.487877,-12.8012,-1.90128,-7.3752,-12.4039,-1.29741,6.30614,-1.73069,-0.391286,3.34667,3.2054e-15,-6.41081e-15,-25.7404,7.97107,-78.4892,57.7864,11.882,-40.1818,2.98164,7.12502,-13.143,-26.5841,3.2054e-15,-6.41081e-15,-28.8504,-15.9402,79.3084,50.8346,14.5959,-26.3946,21.9085,7.12502,0.164598,51.8882,-53.2895,-6.06024,12.5054,83.1077,-35.4926,-8.87969,-11.5815,-50.9302,2.3012,-26.8645,79.1583,-33.1118,2.10849,-5.38179
1.20751,15.377,-3.18832,8.99292,1.06219,4.31784,28.3881,-0.275982,-2.44122,5.10171,-1.19084,-1.15879,-9.94903,-0.48894,0.530849,-13.0389,-1.92162,-7.34641,-12.5848,-1.30936,6.2449,-1.75249,-0.39306,3.32003,4.37326e-15,-9.69075e-15,-26.1697,7.84192,-78.2982,58.277,11.7416,-40.2782,2.47477,7.12502,-13.2359,-27.085,4.37326e-15,-9.69075e-15,-29.3325,-16.5591,79.3714,51.6434,15.2211,-27.0295,21.4117,7.12502,-0.448569,51.391,-54.1427,-6.26242,12.8903,84.1244,-35.7461,-8.90902,-10.8072,-51.8239,2.22291,-26.5755,80.233,-33.385,2.13401,-5.89732
1.19396,15.293,-3.18368,9.17853,1.23306,4.37161,28.6225,-0.27789,-2.51381,5.14367,-1.21564,-1.12293,-10.0158,-0.496123,0.624127,-13.2287,-1.94595,-7.36965,-12.8542,-1.31618,6.26323,-1.81229,-0.390658,3.33329,1.27222e-14,1.13804e-14,-26.6117,7.73381,-78.0999,58.8238,11.5912,-40.3077,1.77414,7.12502,-13.2643,-27.7838,1.27222e-14,1.13804e-14,-30.0246,-17.2074,79.4326,52.7729,15.8998,-27.159,21.8288,7.12502,-0.573687,51.8077,-54.9201,-6.55826,12.9549,85.1741,-35.8924,-8.86097,-10.5449,-52.5778,2.07984,-26.5837,81.2589,-33.6976,2.10578,-6.02425
1.181,15.2037,-3.18172,9.34212,1.4717,4.36144,28.9771,-0.332194,-2.48659,5.15001,-1.28068,-1.07124,-10.1841,-0.52287,0.694106,-13.2763,-1.99211,-7.35808,-13.1923,-1.36698,6.25415,-1.91635,-0.413652,3.33089,1.98785e-16,1.83876e-15,-27.1291,7.59582,-77.8991,59.3632,11.3964,-40.4342,1.45188,7.12502,-13.3864,-28.0981,1.98785e-16,1.83876e-15,-30.8062,-17.8493,79.5058,53.9426,16.6334,-26.971,22.5634,7.12502,-0.392101,52.5428,-55.7142,-6.96709,13.1106,86.2568,-36.0174,-8.87694,-10.9982,-53.3523,1.88183,-26.5058,82.2929,-33.9884,1.8656,-5.47735
1.17099,15.1168,-3.17624,9.55239,1.66259,4.37744,29.243,-0.372874,-2.46888,5.11301,-1.33198,-1.04078,-10.358,-0.543054,0.74044,-13.325,-2.01309,-7.25851,-13.4331,-1.40262,6.16445,-1.98902,-0.432967,3.28234,1.5704e-14,1.36167e-14,-27.7855,7.45844,-77.7301,59.8619,11.1974,-40.6143,1.19866,7.12502,-13.5599,-28.3398,1.5704e-14,1.36167e-14,-31.6784,-18.4143,79.5891,55.0549,17.0323,-27.3043,22.3915,7.12502,-0.713953,52.37,-56.5951,-7.47666,13.2292,87.3934,-36.038,-8.83686,-12.003,-54.1167,1.70378,-26.483,83.2914,-34.2862,1.62726,-4.82818
1.1637,15.0305,-3.16683,9.78664,1.73154,4.46614,29.4019,-0.380266,-2.56288,5.09283,-1.37514,-1.04316,-10.4572,-0.557691,0.81005,-13.4412,-2.0209,-7.23155,-13.6216,-1.40241,6.16832,-2.03472,-0.431169,3.28069,-1.16538e-14,-6.11263e-15,-28.4177,7.42873,-77.5821,60.3861,11.0543,-41.0579,0.979385,7.12502,-13.9874,-28.53,-1.16538e-14,-6.11263e-15,-32.6692,-18.8089,79.6669,56.2888,17.3959,-28.0443,21.9587,7.12502,-1.42869,51.9337,-57.5293,-7.9227,13.2246,88.5736,-36.0136,-8.65593,-12.8639,-54.873,1.60838,-26.5752,84.2748,-34.6245,1.56593,-4.77987
1.15687,14.9381,-3.16036,9.95128,1.8367,4.45789,29.664,-0.414905,-2.49443,5.12329,-1.40555,-1.04713,-10.5542,-0.572002,0.780473,-13.6044,-2.04732,-7.15416,-13.8796,-1.42971,6.14681,-2.09498,-0.444199,3.26036,7.85199e-15,7.60351e-15,-29.0326,7.28038,-77.4404,60.981,10.6781,-41.4498,1.08621,7.12502,-14.3651,-28.3968,7.85199e-15,7.60351e-15,-33.577,-19.2388,79.7078,57.4592,17.709,-28.3052,22.1438,7.12502,-1.68067,52.117,-58.3933,-8.31725,13.2888,89.7268,-36.1275,-8.32317,-12.7749,-55.6604,1.53629,-26.5744,85.2919,-34.909,1.7482,-5.73196
1.14646,14.8435,-3.15599,10.0528,2.01102,4.60772,30.001,-0.43222,-2.57395,5.1982,-1.46057,-1.05931,-10.6324,-0.592732,0.837169,-13.7163,-2.10605,-7.16848,-14.2444,-1.48585,6.18257,-2.19842,-0.467868,3.27927,1.89342e-14,3.08116e-15,-29.6949,7.05502,-77.2252,61.6933,9.96302,-41.4132,1.62404,7.12502,-14.3298,-27.8614,1.89342e-14,3.08116e-15,-34.4099,-19.7283,79.7681,58.6006,17.9805,-28.632,22.2187,7.12502,-1.99634,52.1891,-59.2237,-8.83844,13.1818,90.9207,-36.2202,-7.97588,-12.8334,-56.3472,1.36685,-26.7153,86.3159,-35.1852,1.80943,-6.31596
1.13553,14.768,-3.15261,10.2347,2.13026,4.68624,30.3248,-0.415857,-2.68701,5.18089,-1.47932,-1.01277,-10.8082,-0.592612,0.967268,-13.7596,-2.16874,-7.18112,-14.5308,-1.55814,6.17895,-2.28554,-0.501042,3.28287,1.29707e-14,8.99501e-15,-30.504,6.88106,-76.9962,62.4406,9.74812,-41.5264,1.16363,7.12502,-14.4389,-28.3141,1.29707e-14,8.99501e-15,-35.4329,-20.215,79.9427,59.789,18.4283,-29.2646,21.7276,7.12502,-2.60721,51.6914,-60.0463,-9.2407,13.1311,92.0236,-36.235,-7.42298,-12.892,-57.012,1.31582,-26.7768,87.2534,-35.4691,1.70527,-6.5606
1.12185,14.6506,-3.14971,10.4761,2.28829,4.56994,30.5468,-0.427808,-2.62938,5.18401,-1.46939,-0.908538,-10.9135,-0.585693,1.05224,-13.8989,-2.18535,-7.18254,-14.7568,-1.56849,6.12153,-2.34115,-0.501622,3.26536,-5.81445e-15,-1.2921e-15,-31.2778,6.66069,-76.7601,63.1789,9.92103,-41.7394,-0.521315,7.12502,-14.6441,-29.9842,-5.81445e-15,-1.2921e-15,-36.4114,-20.5924,80.1375,60.8907,18.8603,-29.812,21.0663,7.12502,-3.13591,51.023,-61.1346,-9.58724,13.2877,93.3649,-36.2853,-6.62258,-12.3529,-58.0407,1.36362,-26.6226,88.4153,-35.6367,1.59879,-6.83235
1.1083,14.5477,-3.14665,10.6878,2.47935,4.44644,30.7715,-0.450873,-2.52876,5.21549,-1.46096,-0.824191,-10.9887,-0.581954,1.09019,-14.0553,-2.21836,-7.2211,-14.9608,-1.58628,6.17721,-2.38513,-0.50517,3.29427,7.45443e-16,-6.06293e-15,-32.0828,6.38458,-76.5459,63.7591,9.67704,-41.9789,-0.629843,7.12502,-14.8749,-30.0758,7.45443e-16,-6.06293e-15,-37.4504,-20.8964,80.3082,62.1087,19.0724,-30.1683,21.0213,7.12502,-3.47994,50.9727,-62.1849,-10.0188,13.5087,94.6301,-36.1945,-6.21925,-12.564,-58.9899,1.42482,-26.4714,89.5065,-35.7192,1.5501,-7.50844
1.09789,14.4741,-3.14246,10.7993,2.64204,4.46092,31.3307,-0.441647,-2.54493,4.80969,-1.46686,-0.733467,-10.9028,-0.582283,1.13435,-14.2378,-2.28721,-7.23006,-15.1165,-1.66025,6.1794,-2.4043,-0.537988,3.29553,1.24737e-14,8.24956e-15,-32.996,6.10213,-76.2873,64.2362,9.26678,-42.2505,1.04912,7.12502,-15.1364,-28.3774,1.24737e-14,8.24956e-15,-38.5235,-21.2706,80.5511,63.2477,19.359,-30.5652,21.2424,7.12502,-3.86323,51.1872,-63.0233,-10.4977,13.585,95.7357,-35.9728,-6.13968,-13.5412,-59.5918,1.42948,-26.4692,90.4411,-35.9034,1.44488,-7.92884
1.08586,14.3816,-3.13583,10.892,2.81505,4.60189,31.7068,-0.446844,-2.66234,4.84334,-1.51878,-0.715596,-11.0152,-0.59887,1.23908,-14.4497,-2.29593,-7.23321,-15.3056,-1.65249,6.1553,-2.43694,-0.528699,3.28944,-4.27387e-15,9.93923e-17,-33.9431,5.94846,-76.0918,64.8307,8.88401,-42.5067,1.51495,7.12502,-15.3833,-27.8927,-4.27387e-15,9.93923e-17,-39.5536,-21.5632,80.7503,64.257,19.6678,-31.0736,21.3379,7.12502,-4.35423,51.2731,-63.8227,-10.9786,13.4565,96.8977,-35.8481,-5.7574,-14.095,-60.2303,1.33742,-26.5786,91.456,-36.0813,1.24082,-7.81309
1.07278,14.2819,-3.13177,11.0034,3.02445,4.73001,32.0668,-0.479977,-2.72973,4.8726,-1.59145,-0.712845,-11.1258,-0.626501,1.30878,-14.8012,-2.33069,-7.13967,-15.3436,-1.69084,6.08443,-2.39097,-0.546609,3.24241,-3.97569e-16,1.98785e-16,-35.0227,5.84797,-75.9644,65.6467,8.2748,-42.6503,0.533128,7.12502,-15.5216,-28.8639,-3.97569e-16,1.98785e-16,-40.7187,-21.6968,80.972,65.3483,19.7966,-31.4855,21.503,7.12502,-4.75194,51.4297,-64.5954,-11.5063,13.3098,98.1061,-35.8524,-4.96035,-13.6109,-60.9617,1.26477,-26.6884,92.5228,-36.1891,1.09796,-7.98461
1.05912,14.1822,-3.1316,11.1147,3.17345,4.6611,32.5097,-0.462392,-2.68833,4.87152,-1.55632,-0.624947,-11.3077,-0.606617,1.37175,-15.3352,-2.41006,-6.94677,-15.2265,-1.80637,5.87655,-2.25759,-0.606067,3.12067,0,1.81888e-14,-36.1553,5.71654,-75.7545,66.4647,7.39956,-42.7549,0.24101,7.12502,-15.6223,-29.1482,0,1.81888e-14,-41.9081,-21.8575,81.3356,66.3608,19.9759,-32.0281,21.3769,7.12502,-5.27584,51.2912,-65.4361,-11.8858,13.4077,99.3221,-35.8372,-4.3824,-13.5773,-61.8285,1.38705,-26.5898,93.687,-36.1625,0.761167,-8.16817
1.04506,14.0831,-3.12846,11.2257,3.27658,4.59047,32.9185,-0.425107,-2.69789,4.85594,-1.5104,-0.518954,-11.4891,-0.580025,1.47693,-15.417,-2.3961,-6.96884,-15.4887,-1.77329,5.84696,-2.33906,-0.584319,3.11979,-8.44835e-15,1.98785e-15,-37.3281,5.70368,-75.5624,67.2039,6.3914,-42.8696,0.49944,7.12502,-15.7328,-28.8811,-8.44835e-15,1.98785e-15,-43.1713,-21.9432,81.7507,67.2836,20.1341,-32.6711,20.7507,7.12502,-5.89667,50.6487,-66.3164,-12.228,13.5571,100.509,-35.6994,-4.22517,-14.5666,-62.7305,1.56557,-26.4751,94.9089,-36.1848,0.203461,-7.80701
1.03443,13.9826,-3.12082,11.4086,3.39544,4.55852,33.1289,-0.426469,-2.63942,4.8768,-1.4901,-0.471086,-11.5514,-0.570736,1.49071,-15.2748,-2.35276,-7.02231,-16.0174,-1.70036,5.86415,-2.55361,-0.54185,3.15043,1.33186e-14,6.95746e-15,-38.5026,5.62565,-75.4421,67.8287,5.52749,-42.9313,0.419971,7.12502,-15.7922,-28.9558,1.33186e-14,6.95746e-15,-44.5031,-21.8966,82.1006,68.2294,20.0308,-33.2568,20.0141,7.12502,-6.46208,49.8955,-67.2536,-12.6967,13.7067,101.688,-35.6063,-4.06523,-15.5744,-63.6711,1.64442,-26.4289,96.1492,-36.1894,-0.12079,-7.86429
1.02301,13.8737,-3.11282,11.5736,3.56666,4.51121,33.366,-0.433361,-2.58893,4.90852,-1.47381,-0.382131,-11.6103,-0.56262,1.55432,-15.4663,-2.41119,-6.90793,-16.2595,-1.78944,5.70166,-2.60393,-0.586454,3.07121,-1.2921e-15,1.19271e-15,-39.6634,5.56417,-75.2798,68.4107,4.61022,-42.8638,0.162524,7.12502,-15.7272,-29.2184,-1.2921e-15,1.19271e-15,-45.8674,-21.8363,82.5408,69.157,19.8989,-33.7045,19.7477,7.12502,-6.89435,49.6155,-68.182,-13.2329,13.8614,102.94,-35.4957,-3.62624,-16.5836,-64.6212,1.65543,-26.3564,97.4303,-36.1435,-0.230635,-8.35532
1.01204,13.7606,-3.10319,11.7552,3.78015,4.45236,33.6701,-0.479638,-2.52093,4.84385,-1.50442,-0.290367,-11.803,-0.573041,1.6324,-15.5187,-2.39661,-6.80188,-16.4605,-1.78737,5.56736,-2.66846,-0.587242,3.00755,4.77083e-15,-1.78906e-15,-40.9578,5.61251,-75.1837,68.9459,3.61721,-42.993,0.325474,7.12502,-15.8516,-29.0456,4.77083e-15,-1.78906e-15,-47.3744,-21.6999,83.0058,70.0185,19.7568,-33.7955,20.0025,7.12502,-6.9822,49.8673,-69.1128,-13.7735,13.9981,104.207,-35.2796,-3.14465,-17.9974,-65.6322,1.61563,-26.2609,98.7111,-36.0672,-0.16637,-9.0983
1.00383,13.6544,-3.09598,11.8827,4.00121,4.48535,34.0079,-0.542225,-2.461,4.83956,-1.56375,-0.250875,-11.9399,-0.597764,1.66992,-15.4842,-2.35269,-6.72288,-16.8509,-1.73844,5.48347,-2.81777,-0.562754,2.97346,1.69961e-14,-1.2921e-14,-42.1573,5.62379,-75.1109,69.4005,2.7477,-43.0419,0.387989,7.12502,-15.8987,-28.9794,1.69961e-14,-1.2921e-14,-48.6978,-21.5144,83.4687,70.6662,19.8594,-34.1193,19.9529,7.12502,-7.29468,49.8071,-69.9542,-14.3314,14.0236,105.334,-35.0844,-2.71627,-19.5113,-66.534,1.54745,-26.2606,99.8882,-35.9383,-0.241562,-9.77957
0.995253,13.5523,-3.09059,11.9957,4.25873,4.55458,34.2737,-0.609464,-2.41264,4.95182,-1.62692,-0.210442,-11.9147,-0.627414,1.71352,-15.5951,-2.36958,-6.71622,-17.2189,-1.74671,5.46752,-2.93207,-0.562095,2.97314,1.28216e-14,2.20651e-14,-43.1875,5.53076,-75.0353,69.8029,2.11587,-42.8499,0.186847,7.12502,-15.7138,-29.1952,1.28216e-14,2.20651e-14,-49.8255,-21.3187,83.9489,71.2133,20.3164,-34.4704,19.0327,7.12502,-7.63358,48.875,-70.7264,-14.9207,14.0292,106.411,-35.1159,-2.19011,-20.2382,-67.3588,1.4103,-26.2674,101.007,-35.8664,-0.484853,-10.1586
0.986645,13.4506,-3.08292,12.0495,4.53307,4.63129,34.6251,-0.676152,-2.36791,5.00147,-1.69287,-0.163301,-11.9927,-0.655509,1.76992,-15.5,-2.41153,-6.75854,-17.5489,-1.79375,5.49408,-3.06356,-0.581774,2.99754,6.16232e-15,-1.2921e-14,-44.3401,5.48931,-74.9977,70.1041,1.49676,-42.7649,0.282978,7.12502,-15.6319,-29.1054,6.16232e-15,-1.2921e-14,-50.9878,-20.9235,84.3059,71.65,19.7387,-34.1731,19.6275,7.12502,-7.34664,49.48,-71.3961,-15.5664,14.0098,107.509,-35.1852,-1.7587,-20.777,-68.0665,1.2126,-26.2573,102.118,-35.9038,-0.787465,-9.71112
0.975307,13.3505,-3.07781,12.0833,4.80919,4.7907,35.0975,-0.73607,-2.42446,5.01024,-1.794,-0.14149,-12.1583,-0.693291,1.87025,-15.66,-2.43628,-6.68338,-17.6881,-1.82521,5.4697,-3.08645,-0.598578,2.97524,4.96962e-15,-9.14409e-15,-45.3822,5.47122,-75.0124,70.1298,0.963334,-42.9096,0.731384,7.12502,-15.7713,-28.6461,4.96962e-15,-9.14409e-15,-52.171,-20.5509,84.7428,71.9572,19.4481,-34.2356,19.8269,7.12502,-7.407,49.6773,-72.0751,-16.2224,13.9393,108.589,-35.1273,-1.65626,-21.6013,-68.704,0.988304,-26.337,103.152,-35.9959,-0.904507,-9.77858
0.962283,13.252,-3.07302,12.1232,5.02909,4.85819,35.4679,-0.780212,-2.4586,5.08549,-1.85826,-0.0837342,-12.2084,-0.718051,1.98009,-15.7477,-2.42497,-6.67098,-18.0603,-1.79525,5.48015,-3.21043,-0.579823,2.98537,-2.40529e-14,-5.96354e-15,-46.1657,5.42823,-75.0139,69.9075,0.698893,-42.665,0.301198,7.12502,-15.5357,-29.0947,-2.40529e-14,-5.96354e-15,-53.1901,-20.1643,85.2047,72.1494,19.4529,-34.5635,19.5775,7.12502,-7.72348,49.4164,-72.7889,-16.7128,13.9904,109.635,-35.1108,-1.55717,-22.3571,-69.3575,0.880522,-26.354,104.141,-36.0543,-0.718386,-10.8587
0.953777,13.1523,-3.06137,12.1921,5.2128,5.04345,35.7157,-0.791013,-2.56578,5.13343,-1.90562,-0.0260389,-12.1232,-0.736105,2.10805,-15.5708,-2.425,-6.88365,-18.8469,-1.71544,5.75691,-3.10615,-0.546607,2.90958,9.14409e-15,-1.19271e-15,-46.8466,5.37033,-74.9548,69.5073,0.505633,-41.9996,-0.824966,7.12502,-14.8948,-30.2695,9.14409e-15,-1.19271e-15,-54.1105,-19.6377,85.724,72.2246,19.4845,-34.8387,18.9945,7.12502,-7.9891,48.8236,-73.47,-17.2866,13.8794,110.693,-35.2702,-1.25472,-22.971,-69.9217,0.626693,-26.4964,105.072,-36.1575,-0.672062,-11.0161
0.952132,13.0533,-3.04242,12.2446,5.36173,5.4833,35.8944,-0.813432,-2.77256,5.21586,-2.02475,-0.124538,-12.0869,-0.782319,2.16015,-15.6872,-2.45155,-6.79138,-19.0041,-1.75922,5.68394,-3.13797,-0.56989,2.87187,-4.17448e-15,1.49089e-14,-47.5912,5.23366,-75.0124,69.03,0.263403,-41.5929,-0.920216,7.12502,-14.503,-30.3933,-4.17448e-15,1.49089e-14,-54.9797,-19.1687,86.1697,72.1035,19.4629,-35.0359,18.849,7.12502,-8.17939,48.6707,-74.0268,-18.0547,13.3973,111.755,-35.4945,-0.717833,-23.3669,-70.3016,0.189392,-26.9299,105.932,-36.322,-0.6419,-10.6642
0.950067,12.96,-3.02565,12.2856,5.53441,5.67574,36.1285,-0.873278,-2.75387,5.28292,-2.10459,-0.194755,-12.0979,-0.817905,2.10902,-15.6245,-2.44478,-6.5557,-19.4771,-1.78772,5.5552,-3.29564,-0.59424,2.79901,-1.39149e-15,6.75868e-15,-48.1624,5.03863,-75.1241,68.3338,-0.158269,-41.8273,0.415539,7.12502,-14.7288,-29.0412,-1.39149e-15,6.75868e-15,-55.5551,-18.7381,86.4634,71.7389,19.362,-34.8926,19.1485,7.12502,-8.04112,48.9755,-74.5756,-18.6681,13.2398,112.734,-35.5916,-0.457916,-23.8798,-70.7431,-0.131051,-27.1051,106.781,-36.5309,-0.489564,-10.7665
0.947497,12.8724,-3.00789,12.2993,5.64305,5.78915,36.3291,-0.897302,-2.72928,5.39147,-2.12881,-0.217722,-12.0496,-0.830417,2.08162,-15.5935,-2.46226,-6.43326,-19.9615,-1.82601,5.48125,-3.45052,-0.616971,2.76218,-1.98785e-14,2.52457e-14,-48.4742,4.89138,-75.2179,67.3959,-0.747319,-42.2012,1.28643,7.12502,-15.089,-28.1436,-1.98785e-14,2.52457e-14,-55.9359,-18.2937,86.7403,71.2978,19.3111,-34.4822,19.1618,7.12502,-7.64501,49.0036,-75.0811,-19.1095,13.1589,113.653,-35.6588,-0.317877,-24.039,-71.1324,-0.336204,-27.2162,107.611,-36.8184,-0.306764,-11.0933
0.943957,12.7865,-2.99312,12.3591,5.72116,5.78235,36.4792,-0.902359,-2.63462,5.4537,-2.09415,-0.176359,-12.0381,-0.817929,2.06292,-15.6647,-2.51855,-6.42468,-20.2256,-1.8968,5.44568,-3.51964,-0.649239,2.75176,1.0138e-14,3.57812e-15,-48.6891,4.7955,-75.2699,66.3492,-1.8221,-41.9025,0.346631,7.12502,-14.8012,-29.1048,1.0138e-14,3.57812e-15,-56.2935,-17.8575,87.1056,70.7325,19.1777,-34.4563,18.3329,7.12502,-7.62002,48.1756,-75.6197,-19.3658,13.2085,114.505,-35.768,-0.154457,-23.7879,-71.6686,-0.456888,-27.2126,108.466,-37.0698,0.110088,-12.0197
0.932342,12.705,-2.98931,12.5402,5.79751,5.49494,36.6701,-0.890222,-2.42879,5.42248,-1.98353,-0.0219918,-12.152,-0.77182,2.07921,-15.6787,-2.60785,-6.48355,-20.5572,-1.99466,5.50909,-3.61357,-0.69394,2.78498,-1.09332e-14,1.05356e-14,-48.7457,4.70866,-75.3085,65.1901,-3.4138,-40.8986,-1.49312,7.12502,-13.8339,-31.0131,-1.09332e-14,1.05356e-14,-56.335,-17.2513,87.3974,69.8759,18.8703,-34.53,17.8237,7.12502,-7.69113,47.6638,-76.4295,-19.2868,13.7391,115.272,-35.8041,-0.402404,-23.5741,-72.5072,-0.401445,-26.8426,109.313,-37.1718,0.277966,-12.9661
0.922209,12.6313,-2.98757,12.7163,5.86549,5.22617,36.9071,-0.893475,-2.20194,5.3961,-1.89077,0.0822688,-12.2783,-0.734726,2.03801,-15.7273,-2.67645,-6.4517,-21.0021,-2.0756,5.53271,-3.74085,-0.734039,2.79265,3.97569e-16,-6.95746e-15,-48.6085,4.50629,-75.4023,63.9627,-4.98722,-40.266,-2.48375,7.12502,-13.2242,-32.0443,3.97569e-16,-6.95746e-15,-56.0462,-16.6204,87.4897,68.8781,18.3917,-34.0838,17.5516,7.12502,-7.26042,47.4071,-77.2189,-19.1672,14.2983,115.952,-35.7251,-1.00322,-24.0883,-73.374,-0.431463,-26.4713,110.148,-37.1934,0.53324,-13.6998
0.916452,12.56,-2.98402,12.8526,5.85124,5.13588,37.1904,-0.845675,-2.13348,5.28365,-1.80345,0.146301,-12.5157,-0.69207,2.04146,-15.4419,-2.67536,-6.38491,-21.4623,-2.09967,5.4638,-3.92598,-0.749433,2.76951,1.53064e-14,-8.74653e-15,-48.5144,4.30814,-75.4702,62.6317,-6.40018,-40.2937,-2.97082,7.12502,-13.2508,-32.5296,1.53064e-14,-8.74653e-15,-55.7632,-15.9482,87.588,67.8318,17.5598,-33.439,17.1429,7.12502,-6.63805,47.0188,-77.9565,-19.0536,14.6138,116.584,-35.5881,-1.61598,-24.5043,-74.0486,-0.519465,-26.3149,110.883,-37.2881,0.55518,-13.7069
0.906201,12.4889,-2.98184,12.882,5.80968,5.0628,37.5809,-0.743617,-2.14152,5.20082,-1.67753,0.22104,-12.7569,-0.629484,2.08077,-15.3337,-2.67656,-6.22945,-21.8227,-2.1459,5.26694,-4.05834,-0.776082,2.68738,-3.57812e-15,-3.18055e-15,-48.2149,4.00796,-75.4789,61.2637,-7.67393,-40.4895,-2.83669,7.12502,-13.4396,-32.3831,-3.57812e-15,-3.18055e-15,-55.2363,-15.269,87.6484,66.7144,16.3035,-33.0901,16.9395,7.12502,-6.30118,46.8257,-78.6028,-18.8576,14.9222,117.189,-35.4646,-2.22341,-24.7908,-74.4239,-0.471061,-26.1801,111.437,-37.47,0.240322,-13.2843
0.904726,12.4381,-2.96171,12.8265,5.83526,5.24294,37.884,-0.69241,-2.26124,5.2076,-1.66407,0.231159,-12.8558,-0.61572,2.15282,-15.2656,-2.69418,-6.05839,-22.311,-2.21324,5.06873,-4.22511,-0.813124,2.60381,5.76476e-15,-9.54166e-15,-47.6515,3.71555,-75.433,59.8079,-8.59017,-40.7336,-1.9905,7.12502,-13.6749,-31.5212,5.76476e-15,-9.54166e-15,-54.4787,-14.5557,87.674,65.5021,14.8757,-32.862,16.7843,7.12502,-6.08101,46.677,-78.7614,-18.9921,14.8124,117.68,-35.6835,-2.42788,-24.3821,-74.3736,-0.732872,-26.351,111.805,-37.8157,0.276496,-12.9129
0.927877,12.426,-2.89894,12.6396,5.84266,5.95314,37.8444,-0.687847,-2.57235,5.41217,-1.80058,0.0478856,-12.5942,-0.671005,2.17038,-15.1426,-2.75325,-5.9378,-22.9974,-2.31905,4.96179,-4.45879,-0.867952,2.56152,-1.21259e-14,1.15295e-14,-46.8671,3.35276,-75.3215,58.4482,-9.10124,-41.0036,-1.17302,7.12502,-13.9351,-30.6861,-1.21259e-14,1.15295e-14,-53.4292,-13.9024,87.668,64.2758,13.6544,-32.7487,16.4094,7.12502,-5.97157,46.3052,-78.0254,-19.6395,13.7986,117.934,-36.3233,-2.39736,-24.1258,-73.4527,-1.6233,-27.2383,111.871,-38.5891,1.44914,-13.7037
0.925854,12.3977,-2.88082,12.7089,5.69446,5.79663,37.9829,-0.591128,-2.47359,5.39703,-1.6373,0.107242,-12.6705,-0.600747,2.11547,-15.2131,-2.818,-5.8445,-23.394,-2.41543,4.90541,-4.57298,-0.917697,2.53319,1.11319e-14,5.56597e-15,-45.9823,2.88194,-75.1756,57.3005,-9.08287,-41.1017,-0.625388,7.12502,-14.0296,-30.1319,1.11319e-14,5.56597e-15,-52.1392,-13.2089,87.584,63.0183,12.7779,-32.7478,15.9335,7.12502,-5.97071,45.8294,-78.3547,-19.1806,14.2408,118.141,-36.3515,-3.42776,-24.0672,-73.6691,-1.52906,-27.1068,112.155,-38.7556,1.72726,-13.8996
0.928029,12.3846,-2.85528,12.7149,5.61093,5.66332,38.0872,-0.546208,-2.35178,5.36949,-1.5293,0.158557,-12.7469,-0.555886,2.0628,-15.2671,-2.82924,-5.59103,-23.6825,-2.48354,4.70339,-4.66224,-0.961945,2.42979,-3.97569e-15,7.95139e-15,-45.0104,2.37478,-75.0019,56.2835,-8.57101,-41.1603,-0.391573,7.12502,-14.0861,-29.8942,-3.97569e-15,7.95139e-15,-50.6946,-12.5082,87.452,61.8054,12.4419,-32.4978,15.6401,7.12502,-5.72931,45.5427,-78.4147,-18.8084,14.62,118.223,-36.4429,-4.51201,-24.2795,-73.6165,-1.51564,-27.0143,112.32,-39.0488,1.98743,-14.0492
0.932471,12.3797,-2.82742,12.7968,5.56648,5.55832,38.1352,-0.52225,-2.20364,5.26175,-1.43399,0.229387,-12.8954,-0.515826,2.02366,-15.0509,-2.82118,-5.37715,-24.1914,-2.54271,4.44719,-4.86256,-0.997047,2.32272,-1.27222e-14,-5.56597e-15,-43.9473,1.82551,-74.7506,55.3897,-7.79603,-41.1962,-0.769635,7.12502,-14.1207,-30.2698,-1.27222e-14,-5.56597e-15,-49.1005,-11.7704,87.3701,60.5448,12.3827,-32.3138,15.3595,7.12502,-5.55171,45.2668,-78.4078,-18.4971,14.9854,118.198,-36.6795,-5.55313,-24.0452,-73.5795,-1.57498,-26.9464,112.39,-39.3501,2.21657,-14.1344
0.939102,12.3863,-2.80411,12.8138,5.51621,5.35843,38.2944,-0.521254,-1.91881,5.13841,-1.3164,0.286921,-13.1063,-0.470865,1.88966,-14.8495,-2.78598,-5.14454,-24.7274,-2.5658,4.18535,-5.07275,-1.01408,2.21114,5.96354e-15,3.97569e-16,-42.7589,1.21627,-74.538,54.7799,-7.17081,-41.0335,-1.84361,7.12502,-13.9639,-31.3547,5.96354e-15,3.97569e-16,-47.2522,-11.1073,87.2657,59.3632,12.6896,-31.8285,16.2227,7.12502,-5.08309,46.1417,-78.2763,-18.091,15.4531,118.071,-36.9029,-6.72434,-23.6495,-73.5232,-1.53651,-26.8134,112.348,-39.4436,2.74835,-14.4663
0.945387,12.4026,-2.78117,12.8342,5.44096,5.23985,38.2992,-0.547381,-1.70087,5.08869,-1.26276,0.290424,-13.1727,-0.455408,1.75648,-14.5544,-2.72379,-5.04901,-25.4293,-2.50162,4.15142,-5.34817,-0.985727,2.20054,1.59028e-14,-1.35174e-14,-41.3371,0.619341,-74.4161,54.4175,-6.86044,-41.0922,-2.23344,7.12502,-14.0205,-31.7406,1.59028e-14,-1.35174e-14,-45.074,-10.2974,87.0288,58.3988,13.0335,-31.1893,18.4232,7.12502,-4.46598,48.3561,-78.129,-17.6837,15.8098,117.898,-37.0363,-7.87928,-23.4488,-73.3885,-1.48058,-26.7693,112.228,-39.481,3.34552,-15.0325
0.953427,12.4287,-2.75707,12.7659,5.36711,5.23218,38.2766,-0.570264,-1.62518,5.06427,-1.26137,0.292134,-13.1946,-0.457809,1.71814,-14.1547,-2.60975,-5.14957,-26.0942,-2.30231,4.38496,-5.62592,-0.887844,2.31078,-8.34896e-15,-1.03368e-14,-39.8428,0.0503266,-74.3297,54.3914,-6.96107,-41.3249,-2.6904,7.12502,-14.2447,-32.1819,-8.34896e-15,-1.03368e-14,-42.8117,-9.32821,86.8219,57.3951,12.5395,-31.099,19.7011,7.12502,-4.37878,49.6358,-77.8149,-17.3615,15.9601,117.695,-37.2619,-8.61989,-22.4845,-72.978,-1.50845,-26.7563,112.02,-39.6621,2.97314,-14.1047
0.960823,12.4644,-2.73756,12.5893,5.19768,5.10291,38.2877,-0.548868,-1.51662,5.03363,-1.19098,0.309049,-13.2387,-0.431319,1.6496,-13.7619,-2.49225,-5.1544,-26.6012,-2.12652,4.51393,-5.85547,-0.807253,2.36755,-7.15625e-15,3.65764e-14,-38.2866,-0.46969,-74.3016,54.7182,-7.3339,-41.304,-4.12273,7.12502,-14.2246,-33.6156,-7.15625e-15,3.65764e-14,-40.5828,-8.33834,86.6696,56.3584,11.1729,-31.4731,19.6773,7.12502,-4.73996,49.6043,-77.3887,-16.8281,16.1947,117.418,-37.492,-9.33362,-21.4025,-72.4597,-1.31461,-26.6257,111.761,-39.8052,2.39643,-12.965
0.96176,12.5065,-2.72606,12.3881,4.93781,4.88642,38.3071,-0.493722,-1.44839,4.9899,-1.09867,0.308988,-13.3008,-0.393877,1.57458,-13.5008,-2.36892,-5.14855,-26.8711,-1.92904,4.69376,-5.98829,-0.721109,2.43278,5.96354e-15,-1.19271e-15,-36.6363,-0.810961,-74.4732,55.4085,-7.98956,-41.1931,-6.03634,7.12502,-14.1177,-35.5367,5.96354e-15,-1.19271e-15,-38.3968,-7.46776,86.5324,55.6012,9.65084,-32.0073,19.4617,7.12502,-5.25573,49.3765,-77.0185,-15.9846,16.5523,117,-37.4601,-10.3944,-21.1129,-72.0201,-0.84692,-26.4234,111.465,-39.7726,2.07876,-12.4523
0.960768,12.5604,-2.71652,12.242,4.70175,4.75023,38.225,-0.446423,-1.44576,4.94878,-1.04165,0.304071,-13.3211,-0.369741,1.54318,-13.516,-2.30089,-5.21731,-26.8666,-1.78466,4.91476,-5.9859,-0.656102,2.51627,-5.96354e-15,-3.97569e-16,-34.8715,-0.977921,-74.7541,56.2874,-8.94606,-41.7661,-6.57444,7.12502,-14.6698,-36.0355,-5.96354e-15,-3.97569e-16,-36.2392,-6.84532,86.56,55.15,8.27888,-32.8743,19.3094,7.12502,-6.09285,49.2018,-76.6482,-15.148,16.7911,116.479,-37.3194,-11.371,-20.6426,-71.5786,-0.443501,-26.2703,111.059,-39.6516,1.69485,-11.9403
0.96313,12.6223,-2.70681,12.0978,4.52924,4.80401,38.0089,-0.433798,-1.51754,4.94986,-1.06309,0.242953,-13.2406,-0.378661,1.52208,-13.5826,-2.27102,-5.14454,-26.8571,-1.72482,5.0307,-5.97375,-0.640502,2.54089,9.93923e-15,-8.34896e-15,-33.0494,-0.940331,-75.1432,57.236,-10.2446,-43.753,-3.27434,7.12502,-16.5834,-32.5858,9.93923e-15,-8.34896e-15,-34.0792,-6.60053,86.6918,55.201,7.59566,-33.4339,19.1846,7.12502,-6.63308,49.0607,-76.1769,-14.5323,16.7249,115.974,-37.2127,-12.0268,-19.7791,-70.9994,-0.290774,-26.3305,110.541,-39.5278,1.60171,-12.0184
0.965319,12.6808,-2.69578,11.909,4.28658,4.8931,37.6961,-0.364318,-1.70166,4.98009,-1.05377,0.19862,-13.0893,-0.370643,1.56409,-13.6757,-2.22794,-5.36921,-26.8114,-1.57027,5.39835,-5.94287,-0.562946,2.69795,1.39149e-14,8.34896e-15,-31.1816,-0.717709,-75.5086,58.9381,-10.0665,-44.1488,-3.01125,7.12502,-16.9645,-32.2904,1.39149e-14,8.34896e-15,-31.9551,-6.65806,86.9672,55.9023,7.90806,-33.2879,19.4676,7.12502,-6.49216,49.3481,-75.6916,-13.9291,16.6371,115.459,-37.0026,-12.8551,-19.2202,-70.3673,-0.0826138,-26.4566,110.019,-39.4717,1.76221,-12.7269
0.967113,12.7554,-2.68273,11.6604,3.96177,4.88527,37.4061,-0.309972,-1.8715,4.98038,-1.05334,0.184568,-12.9798,-0.36664,1.63624,-13.7863,-2.15903,-5.68946,-26.7028,-1.37544,5.76062,-5.89121,-0.456359,2.8685,9.14409e-15,-1.55052e-14,-29.1635,-0.0754778,-75.9343,61.3544,-10.6506,-43.8672,-3.36951,7.12502,-16.6934,-32.6717,9.14409e-15,-1.55052e-14,-29.9796,-6.94782,87.3018,57.1479,8.58904,-33.0554,19.9972,7.12502,-6.26774,49.8844,-75.0474,-13.1005,16.6195,114.774,-36.7236,-13.8382,-19.2034,-69.6296,0.300469,-26.5162,109.383,-39.3314,2.21314,-13.6625
0.966134,12.8467,-2.67303,11.3904,3.74641,4.58983,37.158,-0.377658,-1.73331,4.92421,-1.07637,0.230587,-12.9546,-0.383683,1.62216,-13.7304,-2.11765,-5.75192,-26.6693,-1.31385,5.80929,-5.89033,-0.425931,2.89506,-1.98785e-14,-6.36111e-15,-27.0953,0.95564,-76.4059,63.911,-11.0065,-44.2258,-2.72593,7.12502,-17.0386,-31.9987,-1.98785e-14,-6.36111e-15,-28.1019,-7.87556,87.6421,58.7431,9.22601,-33.5285,20.8232,7.12502,-6.72444,50.6964,-74.2135,-12.0918,16.9117,113.907,-36.5271,-14.7042,-18.9527,-68.9024,0.719801,-26.2061,108.671,-39.0915,2.38954,-13.8975
0.966907,12.9481,-2.66564,11.0649,3.54158,4.12201,36.9299,-0.489449,-1.42586,4.86965,-1.08369,0.31846,-12.9375,-0.400449,1.55726,-13.6148,-2.09143,-5.78521,-26.7044,-1.29453,5.77791,-5.92064,-0.415676,2.89235,9.93923e-16,9.93923e-15,-24.9164,2.26391,-76.8258,66.7451,-11.3423,-44.3157,-2.20242,7.12502,-17.1251,-31.4677,9.93923e-16,9.93923e-15,-26.2891,-9.31101,87.9568,60.9559,9.91874,-34.5917,22.1215,7.12502,-7.75071,51.9595,-73.2115,-10.9977,17.3535,112.918,-36.4238,-15.3673,-18.2572,-68.0619,1.17722,-25.6724,107.879,-38.8443,2.10734,-13.6251
0.975693,13.0688,-2.64634,10.6165,3.31014,4.03156,36.5699,-0.609406,-1.43953,4.92612,-1.23733,0.31345,-12.7329,-0.472526,1.61956,-13.4495,-1.94056,-5.69581,-26.8984,-1.14665,5.56236,-6.02347,-0.343145,2.81105,1.07344e-14,-7.95139e-16,-22.4255,4.05942,-77.1917,69.7438,-11.7841,-43.7217,-1.25479,7.12502,-16.5532,-30.5688,1.07344e-14,-7.95139e-16,-24.4096,-10.932,87.9972,63.7244,10.2246,-36.1979,21.6699,7.12502,-9.30078,51.4447,-71.8432,-10.1474,17.2221,111.819,-36.3929,-15.8277,-17.4351,-66.803,1.39639,-25.6303,106.897,-38.65,2.44713,-14.0527
0.983941,13.1869,-2.62768,10.0876,3.14468,3.83623,36.2261,-0.790423,-1.33466,4.98878,-1.41572,0.353733,-12.5274,-0.560337,1.67722,-13.4002,-1.74249,-5.58555,-26.9077,-0.965913,5.1785,-6.0526,-0.245876,2.66544,1.96797e-14,-4.96962e-15,-19.7294,6.11652,-77.3498,72.9664,-12.2876,-43.188,-0.718863,7.12502,-16.0394,-30.075,1.96797e-14,-4.96962e-15,-22.3786,-12.7253,87.7269,66.8504,10.3763,-36.9735,19.7812,7.12502,-10.0491,49.5213,-70.3678,-9.31236,17.2259,110.656,-36.3279,-16.4607,-17.0251,-65.5472,1.60323,-25.4419,105.937,-38.3421,2.66056,-13.944
0.987729,13.3057,-2.61571,9.65961,2.89449,3.75314,35.8849,-0.905673,-1.35651,4.94674,-1.56688,0.36478,-12.4407,-0.629448,1.75975,-13.3579,-1.53254,-5.47073,-26.6981,-0.796896,4.66708,-6.00806,-0.148096,2.47293,2.5842e-15,6.75868e-15,-16.8397,8.24091,-77.266,76.1181,-13.0819,-43.963,-0.0629156,7.12502,-16.7856,-29.3573,2.5842e-15,6.75868e-15,-20.2527,-14.684,87.1493,70.2258,10.6628,-35.9809,19.1119,7.12502,-9.09138,48.896,-69.0864,-8.42674,17.1373,109.459,-36.1978,-17.0318,-16.8346,-64.4481,1.83352,-25.3354,104.932,-37.8626,2.70991,-13.7006
0.992601,13.4318,-2.60203,9.15125,2.66072,3.55723,35.372,-1.06168,-1.27434,5.02603,-1.72648,0.383096,-12.2687,-0.708373,1.79933,-13.3526,-1.3192,-5.44094,-26.3304,-0.58378,4.32219,-5.90339,-0.0311311,2.3474,9.14409e-15,-1.31198e-14,-13.6242,10.4138,-76.9088,79.1643,-13.7088,-43.7275,-0.0900486,7.12502,-16.5589,-29.4035,9.14409e-15,-1.31198e-14,-17.9608,-16.6796,86.2211,73.9151,11.0239,-36.2051,17.8363,7.12502,-9.30769,47.6108,-67.5966,-7.48141,17.1141,108.168,-36.1577,-17.4205,-16.6014,-63.2278,2.07702,-25.0868,103.902,-37.3488,2.69,-13.7332
0.997005,13.5659,-2.58694,8.57475,2.48356,3.28214,34.9376,-1.24497,-1.14033,5.03115,-1.89932,0.437729,-12.0931,-0.795232,1.84952,-13.5546,-1.13729,-5.5043,-25.5952,-0.365544,4.15962,-5.6443,0.0856039,2.29239,3.57812e-15,-4.37326e-15,-10.2027,12.5259,-76.2136,82.1916,-14.1131,-43.3395,0.114825,7.12502,-16.1853,-29.2295,3.57812e-15,-4.37326e-15,-15.2673,-18.4871,84.8278,77.2755,11.0318,-34.7166,18.9297,7.12502,-7.87124,48.7631,-65.9453,-6.56446,17.1775,106.764,-35.9669,-17.9275,-16.8992,-61.8933,2.28334,-24.7026,102.833,-36.8162,2.44155,-13.3432
1.00102,13.7085,-2.57417,7.93966,2.24143,3.12245,34.5995,-1.33996,-1.0971,5.01548,-2.00243,0.451655,-11.9778,-0.846736,1.87715,-13.8482,-1.06111,-5.52834,-24.6636,-0.276897,4.08551,-5.30229,0.129141,2.25872,-1.47101e-14,1.59028e-15,-6.60794,14.2265,-75.1172,85.2454,-13.9415,-42.9371,0.549427,7.12502,-15.7978,-28.826,-1.47101e-14,1.59028e-15,-12.2944,-20.2715,83.0767,80.9173,10.9172,-35.4696,18.9048,7.12502,-8.59796,48.7098,-64.1903,-5.71463,17.0863,105.253,-35.8073,-18.1278,-16.9311,-60.4414,2.48814,-24.4288,101.657,-36.2143,2.28555,-13.107
1.00757,13.8613,-2.5581,7.2126,1.92625,3.03,34.2794,-1.37817,-1.10533,5.00436,-2.06111,0.410539,-11.8649,-0.877023,1.85506,-14.0525,-1.03574,-5.57086,-23.6753,-0.226034,4.21788,-4.9536,0.144839,2.29552,-2.44505e-14,1.51076e-14,-2.89536,15.4608,-73.7146,88.273,-13.0923,-42.3585,-0.3146,7.12502,-15.2405,-29.7332,-2.44505e-14,1.51076e-14,-9.24459,-21.7838,80.9143,84.5306,10.9276,-35.6228,18.2765,7.12502,-8.7458,48.0753,-62.2643,-4.88301,16.8817,103.625,-35.6301,-18.1457,-16.9825,-58.8049,2.72871,-24.2401,100.347,-35.5947,2.52173,-13.9418
1.0145,14.031,-2.53473,6.37439,1.61147,2.87893,34.053,-1.38833,-1.03326,5.00155,-2.05915,0.34727,-11.784,-0.882513,1.74371,-14.3314,-1.01094,-5.56959,-22.5091,-0.165514,4.43776,-4.5403,0.160205,2.35101,7.55382e-15,4.37326e-15,0.99664,16.2555,-72.0282,90.745,-12.5524,-42.1159,0.163582,7.12502,-15.0068,-29.2726,7.55382e-15,4.37326e-15,-6.12217,-22.9809,78.4694,88.0012,10.9988,-35.7349,17.2817,7.12502,-8.85399,47.076,-60.0665,-4.03413,16.767,101.814,-35.4309,-18.1875,-16.7936,-56.9565,3.06599,-23.9669,98.8947,-34.8792,2.4992,-14.0659
1.02145,14.2107,-2.50546,5.45177,1.45248,2.75945,33.8582,-1.43159,-0.9431,4.99724,-2.09034,0.295988,-11.7161,-0.9028,1.64924,-14.4321,-0.95616,-5.44413,-21.3396,-0.106328,4.55141,-4.15706,0.170368,2.35246,3.37934e-15,2.78299e-15,4.84898,16.6457,-70.1141,93.1445,-12.1142,-41.9011,0.634938,7.12502,-14.7999,-28.8166,3.37934e-15,2.78299e-15,-3.00531,-23.7675,75.8235,91.3544,11.0692,-36.194,17.0611,7.12502,-9.29697,46.8361,-57.6658,-3.39382,16.6673,99.8949,-35.2047,-18.251,-16.4452,-54.911,3.26953,-23.6738,97.3002,-34.0374,1.63284,-12.2075
1.02974,14.3996,-2.46939,4.64304,1.24683,2.75105,33.4819,-1.39027,-1.04113,4.94039,-2.07194,0.312786,-11.6281,-0.893681,1.7062,-14.2414,-0.91459,-5.36951,-20.3199,-0.0843874,4.5954,-3.86529,0.167303,2.34283,2.68359e-14,-4.77083e-15,8.40463,16.5511,-67.9632,95.7773,-11.5441,-41.5195,0.588469,7.12502,-14.4322,-28.8897,2.68359e-14,-4.77083e-15,-0.0359104,-24.2098,73.1683,94.7546,11.6265,-35.706,17.2996,7.12502,-8.82614,47.095,-55.3401,-2.86202,16.4629,97.884,-34.7711,-18.2162,-16.4514,-52.8376,3.47529,-23.5456,95.5437,-33.0934,0.764251,-10.4024
1.04341,14.6082,-2.40962,3.74144,0.594736,2.78165,33.1038,-1.12799,-1.30707,4.94169,-1.83367,0.324105,-11.4746,-0.781078,1.76092,-14.6652,-0.962179,-5.40255,-18.5969,-0.172167,4.58,-3.68568,0.139968,2.49569,1.21259e-14,6.16232e-15,11.9618,15.9093,-65.5663,98.1371,-11.1573,-40.8381,0.418438,7.12502,-13.7756,-29.1055,1.21259e-14,6.16232e-15,2.84105,-24.022,70.4783,97.8549,12.1655,-35.7796,18.0822,7.12502,-8.89711,47.8746,-52.8415,-2.0401,16.1841,95.699,-34.1078,-18.1771,-16.9345,-50.3613,4.11377,-23.5351,93.5667,-32.2689,0.503459,-9.79307
1.05124,14.825,-2.34821,2.97539,0.0266656,2.84593,32.6386,-0.850118,-1.64304,4.92978,-1.58722,0.393681,-11.2982,-0.661638,1.91321,-15.0545,-1.10007,-5.61912,-17.2575,-0.315031,4.82331,-3.12407,0.0734574,2.59035,-1.05356e-14,4.77083e-15,15.5368,14.8941,-62.9946,100.021,-11.4446,-40.5333,1.46852,7.12502,-13.4818,-28.0751,-1.05356e-14,4.77083e-15,5.55605,-23.4936,67.7749,100.786,13.3912,-35.5842,18.4183,7.12502,-8.7086,48.2186,-50.494,-1.3315,15.9447,93.3832,-33.3608,-18.1192,-17.1938,-48.0398,4.72069,-23.526,91.4447,-31.3826,0.433194,-9.87382
1.05996,15.0659,-2.28098,2.08347,-0.399169,2.92803,32.3294,-0.572593,-1.93513,4.91503,-1.31632,0.522891,-11.1905,-0.530124,2.10085,-15.2212,-1.3136,-6.05469,-16.0511,-0.528855,5.20023,-2.65493,-0.0185963,2.77509,1.66979e-14,-2.38542e-14,18.7905,13.5108,-60.3034,101.621,-11.7795,-40.8353,2.29309,7.12502,-13.7729,-27.231,1.66979e-14,-2.38542e-14,8.13591,-22.7265,65.1382,103.355,14.6557,-35.9962,18.9135,7.12502,-9.10617,48.6969,-47.8461,-0.805701,15.69,90.8576,-32.7159,-17.5734,-16.4938,-45.4677,5.16412,-23.4959,89.0711,-30.2689,0.203339,-9.38542
1.07952,15.3253,-2.19449,1.03911,-0.789554,2.92844,32.139,-0.356567,-1.99035,4.88131,-1.0441,0.648516,-11.1599,-0.404223,2.15997,-15.3251,-1.55046,-6.40945,-14.8191,-0.795734,5.53044,-2.18915,-0.142214,2.92827,-5.1684e-15,-7.95139e-15,21.7412,11.845,-57.6391,102.905,-11.5525,-41.2905,1.59714,7.12502,-14.2115,-27.8967,-5.1684e-15,-7.95139e-15,10.3047,-21.7602,62.5766,105.736,15.9157,-36.4472,19.5342,7.12502,-9.54127,49.2981,-44.8164,-0.437489,15.5258,88.1211,-32.0228,-16.9993,-15.7043,-42.5273,5.55938,-23.4007,86.4994,-29.1381,0.0652342,-10.0849
1.10873,15.6012,-2.0836,0.0210144,-1.15099,2.96399,31.7654,-0.173893,-1.92176,4.80494,-0.771671,0.751448,-11.1048,-0.282104,2.12791,-15.2932,-1.80049,-6.66454,-13.5221,-1.11968,5.67424,-1.72462,-0.300222,2.99676,2.26615e-14,-2.38542e-15,24.3093,9.93214,-55.0895,103.597,-10.8861,-41.5919,1.55476,7.12502,-14.502,-27.9184,2.26615e-14,-2.38542e-15,11.9789,-20.6149,60.1954,107.856,17.572,-36.828,19.9065,7.12502,-9.90872,49.6533,-41.6482,-0.215421,15.3092,85.2006,-31.1937,-16.5107,-15.1251,-39.4315,5.93972,-23.3887,83.7656,-28.0738,0.212536,-12.5212
1.13297,15.8866,-1.97806,-0.762915,-1.10972,2.94769,31.2184,-0.151556,-1.68088,4.69303,-0.637602,0.888767,-11.0116,-0.22783,2.09153,-15.2536,-1.98771,-6.94758,-12.2859,-1.35633,5.78293,-1.29281,-0.413275,3.0647,-1.80894e-14,-3.18055e-15,26.5649,7.70518,-52.7494,103.822,-10.2195,-41.446,2.00119,7.12502,-14.3614,-27.482,-1.80894e-14,-3.18055e-15,13.4958,-19.3447,57.7827,109.626,19.6893,-37.1426,20.1791,7.12502,-10.2122,49.9112,-38.6813,-0.444054,15.2069,82.1359,-30.0622,-16.1451,-15.028,-36.6613,5.91848,-23.2996,80.8802,-26.5771,0.264923,-13.7836
1.16242,16.1604,-1.8665,-1.41948,-1.20015,3.01237,30.3196,-0.11065,-1.42041,5.03877,-0.482076,0.876034,-10.9939,-0.15317,2.01163,-15.4713,-2.08984,-7.35743,-11.022,-1.43531,6.07367,-0.820503,-0.439313,3.2303,-1.05356e-14,-5.56597e-15,28.699,5.32269,-50.6288,103.583,-9.39212,-41.4407,2.2752,7.12502,-14.3563,-27.2084,-1.05356e-14,-5.56597e-15,14.9386,-18.0686,55.183,111.079,21.7419,-37.6288,20.233,7.12502,-10.6812,49.9415,-35.9446,-0.651162,14.9838,79.0495,-28.7679,-15.5803,-14.7911,-34.0507,5.90367,-23.3176,77.8864,-24.8929,0.206239,-13.8772
1.19285,16.469,-1.74455,-1.93183,-1.35594,3.19898,29.4586,-0.0665338,-1.17745,4.88203,-0.349673,0.818212,-10.7526,-0.104494,1.74432,-15.6813,-2.14492,-7.59526,-9.67135,-1.48644,6.27114,-0.324504,-0.459312,3.33675,-6.36111e-15,3.97569e-15,30.576,3.04575,-48.7075,102.777,-8.46729,-41.6876,2.65917,7.12502,-14.5942,-26.8074,-6.36111e-15,3.97569e-15,15.9962,-16.8985,52.5193,112.215,23.2538,-38.1338,20.3057,7.12502,-11.1683,49.9885,-33.1666,-0.813604,14.6079,75.657,-27.3581,-14.9603,-14.2535,-31.3371,5.96475,-23.5071,74.565,-23.1767,0.33931,-14.5474
1.21493,16.7899,-1.61299,-2.25637,-1.58512,3.45467,28.376,0.0560621,-1.0854,4.61017,-0.163196,0.761055,-10.526,-0.0237251,1.54801,-15.5793,-2.22858,-7.83239,-8.52147,-1.59672,6.41128,0.0570696,-0.513748,3.42454,1.76918e-14,7.95139e-16,32.0015,1.05051,-46.7845,101.453,-7.57747,-42.4392,3.15067,7.12502,-15.3183,-26.262,1.76918e-14,7.95139e-16,16.5413,-15.9051,50.099,113.124,24.0361,-38.146,21.2317,7.12502,-11.1801,50.9138,-30.519,-0.929074,14.2121,72.0337,-25.6082,-14.5598,-14.3028,-28.6988,6.17666,-23.737,71.0367,-21.2458,0.438675,-15.0608
1.22898,17.1283,-1.47114,-2.45479,-1.75614,3.36586,27.0134,0.146119,-0.713623,4.35216,0.076877,0.826576,-10.1323,0.0740787,1.31286,-15.3162,-2.31829,-8.14786,-7.53902,-1.7112,6.60374,0.358703,-0.569977,3.54811,-8.94531e-15,-7.15625e-15,32.9229,-0.675162,-44.7448,99.7646,-6.66179,-43.4273,3.66428,7.12502,-16.2699,-25.6731,-8.94531e-15,-7.15625e-15,16.6678,-15.0454,47.9912,114.071,24.175,-37.1954,22.3947,7.12502,-10.2631,52.1244,-27.7803,-0.932019,14.284,68.0602,-23.5284,-14.3485,-14.3026,-26.0952,6.36608,-23.513,67.2341,-18.9271,0.371574,-15.6554
1.23565,17.4855,-1.31535,-2.65186,-1.82717,3.04846,25.4038,0.193444,-0.120556,4.21996,0.314289,0.931758,-9.45447,0.165013,1.0019,-15.0146,-2.48351,-8.39454,-6.52474,-1.94463,6.77803,0.673825,-0.689792,3.64661,1.15295e-14,0,33.3858,-2.13867,-42.6445,97.7222,-5.9005,-42.9607,2.75272,7.12502,-15.8205,-26.6209,1.15295e-14,0,16.5254,-14.4043,46.1091,114.867,22.8881,-36.273,23.2268,7.12502,-9.37323,52.9984,-24.7719,-0.876391,14.6701,63.7348,-21.2595,-14.2963,-14.0793,-23.3123,6.44066,-22.9868,63.1087,-16.3143,0.458167,-16.5108
1.23904,17.8637,-1.13981,-2.89867,-1.9791,3.07269,24.3192,0.420503,-0.0233533,3.65443,0.644846,1.01465,-9.52804,0.32123,0.932165,-14.7691,-2.68803,-8.5406,-4.80936,-2.26638,6.75814,1.23726,-0.864627,3.65545,1.19271e-14,1.59028e-15,32.7135,-2.69127,-40.1758,95.5279,-5.60843,-41.5788,0.840329,7.12502,-14.4893,-28.6338,1.19271e-14,1.59028e-15,15.4969,-14.7719,44.7554,115.294,19.5994,-36.3216,24.0441,7.12502,-9.42009,53.8136,-21.5036,-0.611332,14.6622,59.0603,-18.6587,-14.2987,-14.1124,-20.1697,6.49524,-22.8654,58.5558,-13.3324,0.930664,-17.6593
1.24325,18.2597,-0.950087,-3.13395,-2.24843,3.1738,22.9874,0.706473,-0.0441341,3.05223,1.01096,0.989988,-9.50106,0.496883,0.808017,-14.7917,-2.78811,-8.36679,-2.60928,-2.48499,7.02263,1.76475,-0.972955,3.34535,1.47101e-14,-7.95139e-16,31.2634,-2.66277,-37.7333,93.258,-5.11397,-41.0812,0.0698828,7.12502,-14.0099,-29.438,1.47101e-14,-7.95139e-16,13.9786,-15.537,43.4893,115.685,15.7013,-36.209,24.4706,7.12502,-9.31147,54.2449,-18.043,-0.0134899,14.5637,54.0171,-15.624,-14.3576,-14.184,-16.8073,6.56045,-22.8534,53.589,-9.79431,1.32826,-18.0993
1.24095,18.6688,-0.756752,-3.22094,-2.61367,3.00233,21.2581,0.971748,0.0663668,2.49329,1.38171,0.965936,-9.19464,0.67137,0.623356,-14.3032,-2.80485,-8.12061,-0.809444,-2.65897,7.21268,2.24755,-1.06738,3.34807,1.19271e-15,-1.27222e-14,29.3567,-2.27428,-35.49,90.9735,-4.33371,-40.5028,0.209518,7.12502,-13.4524,-29.3361,1.19271e-15,-1.27222e-14,12.0744,-16.3057,42.0555,116.259,12.0622,-35.584,24.2819,7.12502,-8.70841,54.0823,-14.6731,1.11767,14.8802,48.6459,-12.0124,-14.8645,-13.5203,-13.5202,6.56777,-22.5126,48.2722,-5.61522,1.58718,-18.1335
1.23828,19.0924,-0.559527,-3.10739,-2.72607,2.6459,19.179,1.03532,0.336232,2.04054,1.51944,0.974783,-8.55573,0.73247,0.467838,-13.957,-2.8458,-8.01651,0.985353,-2.8459,7.53506,2.75624,-1.15576,3.41517,6.16232e-15,1.11319e-14,27.4149,-1.59264,-33.405,88.6706,-3.52589,-39.7777,0.861767,7.12502,-12.7535,-28.7287,6.16232e-15,1.11319e-14,9.77842,-16.7262,40.5579,116.864,8.95968,-35.798,23.2945,7.12502,-8.91492,53.0862,-11.3757,2.36254,15.4664,42.9499,-7.68906,-16.0559,-12.6264,-10.3665,6.05475,-22.0245,42.6014,-0.89787,2.10965,-18.1068
1.23326,19.5238,-0.354477,-2.8205,-2.70132,2.2868,16.8178,0.981231,0.564134,1.69649,1.4809,1.02374,-7.62686,0.713475,0.434856,-14.1743,-2.90464,-8.024,2.92307,-3.00364,7.69436,3.39362,-1.22215,3.45101,-4.37326e-15,3.97569e-15,25.5236,-0.692939,-31.4003,86.4577,-2.45984,-38.7967,1.29833,7.12502,-11.8076,-28.3488,-4.37326e-15,3.97569e-15,6.98696,-16.9244,39.1439,117.597,6.45206,-36.5479,22.549,7.12502,-9.63845,52.3085,-8.14967,3.92282,16.1761,37.1222,-3.01066,-18.083,-12.5485,-7.33189,4.9496,-21.637,36.5656,4.54448,3.53964,-17.0128
1.22521,19.9691,-0.143711,-2.38725,-2.71415,1.74264,14.3237,0.915713,0.975258,1.338,1.44268,1.09941,-6.62194,0.690687,0.3274,-14.2573,-2.98666,-8.19588,4.66104,-3.17358,7.88946,3.95713,-1.29598,3.52716,2.5842e-15,-6.36111e-15,23.4637,0.432113,-29.4253,84.2795,-1.10058,-37.6158,1.8834,7.12502,-10.6687,-27.8257,2.5842e-15,-6.36111e-15,3.93356,-17.2388,37.6239,118.312,4.9724,-36.7879,22.4231,7.12502,-9.87006,52.1718,-5.33907,6.74351,17.164,31.344,1.88021,-22.0374,-9.57461,-4.38802,3.23973,-21.1569,30.2697,10.8505,6.65848,-12.6475
1.2113,20.443,0.0633232,-1.80919,-2.65523,1.12993,11.9446,0.881408,1.37907,0.693769,1.42819,1.16878,-5.97089,0.678373,0.20857,-13.3908,-2.97797,-8.35901,6.05198,-3.2859,8.10029,4.25988,-1.36001,3.61838,1.41634e-14,1.59028e-15,20.8431,2.0547,-27.4713,82.2781,0.262872,-37.001,2.52881,7.12502,-10.0756,-27.21,1.41634e-14,1.59028e-15,0.615801,-17.861,36.0741,118.93,5.25155,-36.927,22.4879,7.12502,-10.0042,52.2301,-3.05379,11.0505,18.3819,26.0885,5.68791,-28.9888,-5.60314,-1.66331,0.708021,-20.6814,23.8846,17.2094,12.1123,-4.85927
1.19303,20.9061,0.250908,-0.986243,-2.3195,0.538476,9.66176,0.73866,1.68291,-0.0115567,1.24306,1.28178,-5.42896,0.58423,0.214102,-16.4157,-3.64932,-6.76834,10.7216,-4.20392,5.66634,6.19821,-1.86444,2.4847,5.96354e-16,4.77083e-15,18.2512,3.80226,-25.6411,80.3694,1.73804,-36.8906,2.76007,7.12502,-9.96905,-26.9839,5.96354e-16,4.77083e-15,-2.97537,-18.1437,34.6327,119.355,6.56418,-38.0141,22.4848,7.12502,-11.0529,52.1738,-1.28333,16.6044,19.7801,21.5907,2.3403,-38.5359,10.3399,0.387497,-3.10622,-20.3075,18.0238,20.489,20.0447,1.68867
1.17829,21.3572,0.426912,0.0286178,-1.80697,0.160887,7.37949,0.585698,1.83726,-0.734812,1.00768,1.25805,-4.89666,0.466196,0.157764,-13.6229,-3.14147,-8.11303,9.84299,-3.64576,7.45975,5.4824,-1.56259,3.35635,-1.12438e-14,-1.74931e-14,15.4874,5.48654,-24.0847,78.4671,3.26014,-37.3133,2.78023,7.12502,-10.3769,-26.9437,-1.12438e-14,-1.74931e-14,-6.53528,-18.1752,33.1826,119.536,8.71367,-38.9242,21.8698,7.12502,-11.9306,51.5098,-0.602849,20.1601,20.523,18.5501,-5.89097,-44.0218,20.4072,1.62911,-7.70277,-20.181,13.2723,18.6435,28.0421,8.78568
1.17057,21.7838,0.587048,1.10936,-1.6208,0.149587,5.21548,0.567778,1.65546,-1.42922,0.920915,1.15511,-4.39691,0.428496,0.182744,-13.3668,-3.16281,-8.16878,10.8258,-3.73118,7.46259,5.75514,-1.6114,3.36546,8.46698e-15,3.97569e-15,12.6577,6.96868,-22.7307,76.8077,4.07214,-36.1145,3.64653,7.12502,-9.22024,-26.1319,8.46698e-15,3.97569e-15,-10.3393,-17.8063,31.9382,119.533,11.1649,-39.0704,20.9616,7.12502,-12.0715,50.5934,-0.58459,18.7121,20.6145,16.9144,-6.47857,-42.5304,21.3935,2.0063,-9.9912,-20.4743,10.8109,13.3448,30.2103,13.5059
1.16796,22.1479,0.710975,2.15996,-1.75712,0.161925,3.44208,0.733259,1.4932,-2.10716,1.09672,1.03687,-4.09509,0.518898,0.156061,-12.5178,-3.16662,-7.95554,10.7692,-3.78177,7.06005,5.58651,-1.6728,3.20249,-7.06307e-15,1.59028e-15,9.39673,8.29565,-21.5986,75.4458,5.09571,-36.3047,3.58434,7.12502,-9.40377,-26.1859,-7.06307e-15,1.59028e-15,-14.1626,-17.1705,30.9807,119.146,12.8202,-38.3914,19.9649,7.12502,-11.4167,49.6341,-1.2499,14.3695,20.477,16.7425,-4.08448,-37.0413,15.4948,1.35947,-6.0031,-20.4882,10.6058,10.1197,25.5634,11.0683
