JuanDHNZ/ProyectoFinalCD/preprocessing/sports_trials_csv/13_42.csv
root1,root2,root3,root4,root5,root6,lowerback1,lowerback2,lowerback3,upperback1,upperback2,upperback3,thorax1,thorax2,thorax3,lowerneck1,lowerneck2,lowerneck3,upperneck1,upperneck2,upperneck3,head1,head2,head3,rclavicle1,rclavicle2,rhumerus1,rhumerus2,rhumerus3,rradius1,rwrist1,rhand1,rhand2,rfingers1,rthumb1,rthumb2,lclavicle1,lclavicle2,lhumerus1,lhumerus2,lhumerus3,lradius1,lwrist1,lhand1,lhand2,lfingers1,lthumb1,lthumb2,rfemur1,rfemur2,rfemur3,rtibia1,rfoot1,rfoot2,rtoes1,lfemur1,lfemur2,lfemur3,ltibia1,lfoot1,lfoot2,ltoes1
0.758362,18.9924,-0.968601,1.38078,-4.97852,1.00054,3.25046,0.549096,-2.05547,-0.110625,0.622732,-1.49553,-1.94123,0.323681,-0.412394,-8.22299,-5.77803,-9.587,11.4431,-7.78156,9.36863,5.53927,-3.63626,3.91302,-3.75206e-15,1.59028e-15,-32.5907,-1.24393,-83.8,25.3732,22.1592,-24.4243,-5.48723,7.12502,2.06759,-35.457,-3.75206e-15,1.59028e-15,-34.9188,23.4198,71.2128,19.8219,-9.12272,-28.4752,34.4878,7.12502,-1.84489,64.4596,-0.918319,20.2562,18.9302,13.5669,-12.7996,-19.7939,-3.0317,0.115347,-7.52763,-21.1529,10.7787,-10.4757,15.4164,-8.64907
0.759309,18.994,-0.967607,1.42684,-5.00602,1.00398,3.1998,0.560781,-2.07306,-0.109039,0.639621,-1.48058,-1.91168,0.332167,-0.387455,-8.33509,-5.65464,-9.44522,11.5404,-7.6204,9.30415,5.56446,-3.55204,3.88152,1.72197e-14,-1.47101e-14,-32.5922,-1.14582,-83.8113,25.4871,21.8446,-24.0875,-5.43596,7.12502,2.39281,-35.4023,1.72197e-14,-1.47101e-14,-34.9487,23.3366,71.3039,19.9566,-9.03009,-28.452,34.2341,7.12502,-1.82244,64.206,-0.958609,20.3576,18.9146,13.577,-12.8304,-19.8393,-2.92628,0.0941353,-7.605,-21.1574,10.7031,-10.4489,15.5069,-8.42123
0.762512,18.9963,-0.967831,1.50365,-4.99213,0.994084,3.16701,0.555265,-2.0401,-0.145278,0.63395,-1.46906,-1.93021,0.329346,-0.393743,-8.19944,-5.48523,-9.34606,11.436,-7.40164,9.27056,5.48223,-3.44763,3.87776,2.85753e-15,-5.56597e-15,-32.634,-1.00076,-83.8308,25.5824,21.5559,-23.8367,-5.35033,7.12502,2.6351,-35.3138,2.85753e-15,-5.56597e-15,-35.0085,23.1984,71.3981,20.0593,-8.81221,-28.4335,33.9418,7.12502,-1.80457,63.9139,-1.0057,20.3534,18.8833,13.5284,-12.8723,-19.8241,-2.65417,-0.0301889,-7.62964,-21.1503,10.7982,-10.5283,15.5124,-7.97581
0.765811,18.9973,-0.971323,1.54719,-4.99554,0.985379,3.20462,0.553289,-2.00985,-0.164334,0.630936,-1.46286,-1.97059,0.327889,-0.404735,-8.01676,-5.2913,-9.31193,11.2032,-7.14936,9.3364,5.35546,-3.32544,3.91967,-5.39203e-15,1.98785e-15,-32.6306,-0.845345,-83.8743,25.6322,21.3243,-23.7092,-5.10301,7.12502,2.75824,-35.0649,-5.39203e-15,1.98785e-15,-35.0324,23.1639,71.4494,20.1401,-8.7298,-28.5111,33.6919,7.12502,-1.87955,63.6634,-1.06608,20.3565,18.8605,13.491,-12.7809,-19.8675,-2.72614,-0.0890625,-7.56173,-21.1474,10.841,-10.6168,15.456,-6.9723
0.768996,18.9987,-0.974665,1.61032,-4.98307,0.985347,3.22092,0.554949,-1.96337,-0.1746,0.63376,-1.48384,-1.98955,0.328867,-0.452686,-8.15668,-5.16494,-9.26443,11.2933,-6.98179,9.36537,5.39006,-3.23561,3.93293,-1.21507e-14,2.10712e-14,-32.6099,-0.72021,-83.9525,25.6616,21.1431,-23.5617,-4.72702,7.12502,2.90065,-34.687,-1.21507e-14,2.10712e-14,-34.9635,22.998,71.5813,20.2062,-8.56871,-28.6717,33.386,7.12502,-2.0346,63.3561,-1.14646,20.2772,18.8176,13.4768,-12.7497,-19.7852,-2.77583,-0.171455,-7.44032,-21.1405,10.8356,-10.6132,15.3469,-6.64592
0.773201,18.9981,-0.974748,1.63988,-4.93535,0.982005,3.2148,0.559312,-1.90667,-0.125542,0.64282,-1.49854,-1.93497,0.332268,-0.499492,-8.49658,-5.10745,-9.20169,11.4972,-6.89664,9.3546,5.50031,-3.1816,3.91998,6.23687e-15,7.95139e-16,-32.53,-0.75675,-83.9591,25.6712,21.1868,-23.3464,-4.49833,7.12502,3.10861,-34.4554,6.23687e-15,7.95139e-16,-34.7936,22.8346,71.7682,20.2256,-8.42023,-28.8104,33.0097,7.12502,-2.16864,62.9784,-1.18492,20.2034,18.7994,13.5088,-12.7496,-19.7748,-2.88437,-0.174265,-7.41078,-21.1375,10.7738,-10.545,15.2811,-6.52609
0.776155,18.9959,-0.974172,1.62305,-4.93968,1.10026,3.28092,0.587331,-1.99895,-0.0809424,0.674767,-1.53852,-1.92708,0.348689,-0.490829,-8.69488,-5.01407,-9.28229,11.5348,-6.77139,9.54845,5.54314,-3.10613,4.00262,1.21756e-15,5.56597e-15,-32.5012,-0.692833,-83.9919,25.7597,21.0677,-23.3102,-4.50129,7.12502,3.14355,-34.4579,1.21756e-15,5.56597e-15,-34.661,22.6432,71.9745,20.4003,-8.48926,-28.3491,33.4362,7.12502,-1.72312,63.409,-1.22083,20.1426,18.651,13.5637,-12.7507,-19.734,-3.05335,-0.115363,-7.47299,-21.282,10.6877,-10.5213,15.3117,-6.66957
0.778548,18.9944,-0.978798,1.60345,-4.96402,1.1054,3.40238,0.602948,-2.03337,-0.0567648,0.691576,-1.5037,-1.97134,0.357721,-0.437899,-8.77025,-4.83592,-9.38332,11.5022,-6.52584,9.69678,5.52982,-2.97956,4.08737,-8.10048e-15,1.59028e-14,-32.477,-0.59286,-83.9823,25.8472,21.0655,-23.4957,-4.26051,7.12502,2.96442,-34.2197,-8.10048e-15,1.59028e-14,-34.5853,22.4365,72.2213,20.637,-8.5267,-27.8188,34.1679,7.12502,-1.21094,64.1442,-1.26439,20.1448,18.6324,13.6146,-12.7596,-19.7131,-3.08075,-0.0926087,-7.44076,-21.2841,10.6057,-10.346,15.3043,-7.79912
0.781449,18.9943,-0.985942,1.58985,-4.9999,1.07964,3.53881,0.624516,-1.98557,-0.0436209,0.718264,-1.50057,-2.034,0.370872,-0.464397,-8.85995,-4.66032,-9.38281,11.4971,-6.29208,9.79679,5.52321,-2.85683,4.13871,-1.09332e-14,-1.35174e-14,-32.4261,-0.522478,-84.0269,25.8637,21.0549,-23.655,-4.2319,7.12502,2.81052,-34.1931,-1.09332e-14,-1.35174e-14,-34.4959,22.2244,72.3954,20.7376,-8.27306,-28.0734,33.93,7.12502,-1.45676,63.9047,-1.33413,20.2036,18.6496,13.7015,-12.7512,-19.7267,-3.10982,-0.0557231,-7.39143,-21.25,10.4813,-10.2336,15.3035,-8.22076
0.785592,18.9946,-0.989911,1.6659,-4.97067,1.07823,3.5493,0.62937,-1.93369,-0.0276991,0.726571,-1.51847,-2.02269,0.374294,-0.512247,-9.14156,-4.58985,-9.28908,11.6495,-6.19162,9.75843,5.60441,-2.7975,4.11579,-1.5704e-14,-3.97569e-15,-32.3307,-0.54422,-84.0423,25.8222,21.0435,-23.8129,-4.05604,7.12502,2.65806,-34.0192,-1.5704e-14,-3.97569e-15,-34.3536,22.2042,72.4655,20.7398,-8.33264,-28.3003,33.4108,7.12502,-1.67593,63.3839,-1.46532,20.2167,18.6141,13.7744,-12.7441,-19.7606,-3.21473,-0.126411,-7.37669,-21.2376,10.4043,-10.1513,15.2516,-8.15335
0.790095,18.9962,-0.991397,1.68948,-4.93696,1.14675,3.56694,0.644575,-1.95525,0.00720045,0.745396,-1.55747,-1.99662,0.383438,-0.541122,-9.37944,-4.56574,-9.13278,11.7908,-6.15474,9.63385,5.67662,-2.77331,4.04992,-3.50358e-15,-1.47101e-14,-32.2838,-0.560333,-84.053,25.8393,21.077,-23.9179,-4.04355,7.12502,2.55668,-34.008,-3.50358e-15,-1.47101e-14,-34.2115,22.0253,72.6239,20.8756,-8.32066,-28.1489,33.6581,7.12502,-1.52976,63.6324,-1.50935,20.2445,18.5123,13.8154,-12.8874,-19.835,-3.11279,-0.152277,-7.33759,-21.3212,10.3874,-10.1225,15.185,-8.17134
0.793185,18.9963,-0.993391,1.71364,-4.95922,1.18358,3.61295,0.671299,-2.02844,-0.0172105,0.776605,-1.52196,-2.04915,0.400269,-0.466191,-9.20778,-4.48344,-9.06782,11.6471,-6.03525,9.4928,5.58437,-2.72699,4.0067,-2.01269e-15,-1.27222e-14,-32.375,-0.425013,-84.0114,25.9444,21.0829,-24.039,-3.8231,7.12502,2.43972,-33.7889,-2.01269e-15,-1.27222e-14,-34.2176,21.9134,72.8089,20.9809,-8.20545,-28.2809,33.9944,7.12502,-1.65722,63.9677,-1.56155,20.3019,18.4455,13.8637,-13.0412,-19.8412,-2.95103,-0.156061,-7.38787,-21.3689,10.3394,-10.1623,15.2143,-7.98347
0.795918,18.9961,-0.99691,1.75364,-4.96912,1.18668,3.64092,0.704008,-2.03027,-0.0212345,0.819421,-1.50756,-2.06952,0.421846,-0.453117,-9.0709,-4.40139,-9.03274,11.5029,-5.9257,9.46865,5.50371,-2.67812,4.00442,1.26725e-15,-9.54166e-15,-32.4322,-0.42553,-83.9747,26.0388,21.1766,-24.2871,-3.27496,7.12502,2.20006,-33.2434,1.26725e-15,-9.54166e-15,-34.1475,21.7513,72.9887,21.0558,-8.11007,-28.2485,34.3109,7.12502,-1.6259,64.2845,-1.64112,20.2954,18.4168,13.9134,-13.0207,-19.8133,-2.71911,-0.189482,-7.39956,-21.3729,10.268,-10.0799,15.2617,-8.12837
0.798197,18.9978,-0.999174,1.79568,-4.94742,1.1512,3.61383,0.740319,-1.92689,0.0344065,0.873661,-1.54275,-1.99543,0.447118,-0.549073,-9.11132,-4.34052,-8.9564,11.4108,-5.85118,9.51975,5.47411,-2.63464,4.01373,-1.44367e-14,-3.22031e-14,-32.3864,-0.50112,-84.0161,26.1021,21.1214,-24.4539,-3.11215,7.12502,2.03902,-33.0822,-1.44367e-14,-3.22031e-14,-33.9475,21.4661,73.1695,21.1544,-7.90274,-28.2074,34.4559,7.12502,-1.5862,64.4297,-1.70735,20.3184,18.442,13.9202,-12.893,-19.8735,-2.80023,-0.24352,-7.43143,-21.3339,10.2689,-10.0841,15.2709,-8.0981
0.800518,18.9999,-1.00077,1.8342,-4.90568,1.19201,3.61832,0.745578,-1.93414,0.0606257,0.880277,-1.57045,-1.97073,0.450141,-0.573596,-9.00416,-4.26086,-8.95924,11.1776,-5.74762,9.61704,5.37655,-2.58241,4.055,-1.9133e-14,4.37326e-15,-32.3617,-0.498378,-84.0576,26.1544,21.0301,-24.5945,-3.13791,7.12502,1.90319,-33.1092,-1.9133e-14,4.37326e-15,-33.8282,21.2713,73.3111,21.2399,-7.72545,-28.2552,34.3482,7.12502,-1.63235,64.3217,-1.77019,20.3723,18.3838,13.9398,-12.8866,-19.9841,-2.72872,-0.288757,-7.39479,-21.3801,10.2695,-10.0976,15.2161,-7.78913
0.803953,19.003,-1.00053,1.87987,-4.84086,1.22365,3.64322,0.726575,-1.95493,0.0599181,0.853313,-1.56851,-1.98564,0.43697,-0.558905,-8.87369,-4.18907,-8.99882,10.9412,-5.6456,9.67462,5.27416,-2.53568,4.08957,5.11871e-15,1.23246e-14,-32.4047,-0.525962,-84.0393,26.2427,21.045,-24.8316,-3.1834,7.12502,1.67418,-33.1566,5.11871e-15,1.23246e-14,-33.7478,21.2689,73.3874,21.2611,-7.66873,-28.3699,34.2442,7.12502,-1.7432,64.2168,-1.82942,20.4291,18.3292,13.9946,-12.9993,-20.0734,-2.40386,-0.316755,-7.21616,-21.4126,10.2265,-10.0691,15.0294,-7.32152
0.809236,19.0041,-1.0003,1.87722,-4.77847,1.36849,3.74617,0.725111,-2.06534,0.0341211,0.842106,-1.59265,-2.07111,0.432874,-0.523044,-8.90597,-4.14792,-9.03225,10.9847,-5.58305,9.65912,5.28741,-2.50632,4.09517,-1.58034e-14,7.95139e-15,-32.4889,-0.570034,-83.9995,26.291,21.0533,-25.2992,-3.24344,7.12502,1.22257,-33.2197,-1.58034e-14,7.95139e-15,-33.7305,21.1014,73.5567,21.3125,-7.39519,-28.7292,33.8738,7.12502,-2.09022,63.8433,-1.84866,20.3171,18.1495,14.0563,-13.0696,-20.0176,-2.62606,-0.321688,-7.05567,-21.5819,10.2169,-10.069,14.843,-7.10443
0.812289,19.0028,-1.00529,1.89577,-4.74292,1.40156,3.88324,0.735353,-2.08729,-0.0069197,0.849333,-1.58499,-2.19068,0.437572,-0.505723,-9.06479,-4.10405,-9.11105,11.2043,-5.52065,9.70545,5.37958,-2.47066,4.12725,-8.79622e-15,5.56597e-15,-32.5158,-0.693732,-83.9416,26.2434,21.1511,-25.8309,-3.07815,7.12502,0.709061,-33.0567,-8.79622e-15,5.56597e-15,-33.7279,20.9406,73.7209,21.4474,-7.24395,-28.6045,33.8808,7.12502,-1.96978,63.8514,-1.91286,20.2532,18.092,14.1028,-13.0477,-20.0068,-2.83008,-0.404376,-6.97943,-21.5985,10.2807,-10.0933,14.6949,-7.31933
0.81326,19.0018,-1.01233,1.93104,-4.70596,1.32391,3.96935,0.727979,-2.03306,-0.00327119,0.840061,-1.54926,-2.23489,0.432784,-0.500057,-9.18644,-4.03949,-9.17011,11.2852,-5.43346,9.80526,5.42104,-2.42054,4.17542,-1.38901e-14,8.74653e-15,-32.4463,-0.670986,-83.9653,26.1782,21.1211,-26.172,-3.01773,7.12502,0.379625,-32.9971,-1.38901e-14,8.74653e-15,-33.6605,20.908,73.7872,21.5745,-7.341,-28.1484,34.3227,7.12502,-1.52924,64.297,-2.00155,20.2806,18.1613,14.1675,-13.1286,-20.0434,-2.44304,-0.529993,-6.93609,-21.4783,10.3578,-10.0161,14.5999,-8.15689
0.815754,19.0011,-1.01578,1.99791,-4.67802,1.24419,3.97186,0.737496,-1.94416,0.0179632,0.857703,-1.53227,-2.21349,0.440528,-0.533233,-9.23419,-4.00678,-9.08849,11.2445,-5.39188,9.78946,5.40984,-2.3967,4.15951,-1.46604e-14,-1.90833e-14,-32.4298,-0.668191,-83.9906,26.2552,21.0684,-26.4224,-3.13234,7.12502,0.137745,-33.112,-1.46604e-14,-1.90833e-14,-33.5679,20.7695,73.8977,21.6692,-7.2496,-28.1003,34.6099,7.12502,-1.48278,64.5845,-2.10477,20.2944,18.2124,14.2008,-13.1589,-20.062,-2.23638,-0.695978,-6.83551,-21.3652,10.4958,-10.0724,14.4367,-8.38969
0.817524,19.0021,-1.01824,2.05785,-4.64097,1.20498,3.94105,0.767682,-1.88047,0.0586217,0.902459,-1.54716,-2.1534,0.461676,-0.585899,-9.15899,-4.02653,-8.95137,11.0839,-5.42031,9.69289,5.34392,-2.41385,4.10341,-1.2921e-14,-5.96354e-15,-32.3804,-0.907078,-83.9464,26.3215,21.199,-26.4219,-3.15855,7.12502,0.138289,-33.1383,-1.2921e-14,-5.96354e-15,-33.4258,20.5196,74.0634,21.7647,-7.07457,-28.3878,34.5331,7.12502,-1.76044,64.5056,-2.18573,20.2129,18.2212,14.2144,-13.1806,-20.019,-2.28797,-0.880342,-6.76071,-21.3003,10.7011,-10.2184,14.2816,-8.23516
0.820035,19.0021,-1.02035,2.13259,-4.63726,1.20391,3.88806,0.788629,-1.84639,0.0761881,0.933677,-1.56038,-2.10498,0.476565,-0.619329,-9.07618,-4.01465,-8.99061,10.9716,-5.40546,9.7556,5.29648,-2.40722,4.13181,-1.91827e-14,-1.31198e-14,-32.2804,-1.06871,-83.9049,26.2599,21.2905,-26.2676,-3.29909,7.12502,0.287275,-33.2786,-1.91827e-14,-1.31198e-14,-33.3544,20.2048,74.2631,21.8573,-6.50836,-29.0125,34.0578,7.12502,-2.36375,64.0245,-2.2934,20.1708,18.1691,14.2534,-13.2207,-19.9372,-2.06846,-1.07996,-6.75084,-21.2912,10.8968,-10.2984,14.2412,-8.04193
0.824233,19.0014,-1.0211,2.28822,-4.617,1.14971,3.80233,0.784576,-1.7879,0.0575867,0.93402,-1.51649,-2.07578,0.476319,-0.605864,-9.16735,-4.0072,-9.08916,11.0043,-5.3839,9.81324,5.32425,-2.39449,4.16743,-8.92046e-15,9.14409e-15,-32.112,-1.07416,-83.8809,26.0785,21.2223,-26.3586,-3.54222,7.12502,0.19937,-33.5219,-8.92046e-15,9.14409e-15,-33.3463,19.9309,74.5256,21.9464,-5.59183,-30.0777,33.0984,7.12502,-3.39245,63.0512,-2.50934,20.0804,18.1424,14.3161,-13.2548,-19.8926,-2.50965,-1.35766,-6.70791,-21.2287,11.0927,-10.3316,14.1926,-8.12856
0.827615,19.0013,-1.02212,2.3809,-4.62045,1.17993,3.80614,0.79771,-1.8198,0.0413374,0.94962,-1.51671,-2.09519,0.484551,-0.589346,-9.14985,-3.99256,-9.11734,10.9296,-5.36407,9.8734,5.29868,-2.38314,4.19292,-5.76476e-15,1.82882e-14,-32.0674,-1.04498,-83.9121,26.0673,21.1301,-26.4167,-3.6366,7.12502,0.143243,-33.6163,-5.76476e-15,1.82882e-14,-33.2628,19.7148,74.6804,21.9813,-5.20604,-30.4362,32.7693,7.12502,-3.73868,62.7163,-2.69251,20.0665,18.0417,14.4057,-13.3347,-19.8622,-2.6856,-1.5876,-6.67194,-21.2668,11.3241,-10.3329,14.1725,-8.58226
0.828778,19.0011,-1.0254,2.39213,-4.65159,1.18695,3.95037,0.822415,-1.83796,0.0208599,0.97671,-1.5243,-2.19741,0.498714,-0.591107,-9.08705,-3.98665,-9.03435,10.8811,-5.36115,9.8114,5.26881,-2.38413,4.16007,-5.71506e-16,-7.15625e-15,-32.0995,-0.951605,-83.9828,26.1403,21.0739,-26.4904,-3.80047,7.12502,0.0721271,-33.7802,-5.71506e-16,-7.15625e-15,-33.1548,19.5381,74.7338,21.9536,-5.33808,-30.2966,32.9503,7.12502,-3.60386,62.8995,-2.79469,20.1479,18.0224,14.5023,-13.2973,-19.9105,-2.79751,-1.77238,-6.51669,-21.2654,11.6287,-10.5068,14.0554,-8.13515
0.829524,18.9997,-1.02977,2.40526,-4.7029,1.19088,4.0629,0.849203,-1.85782,0.00475484,1.00763,-1.52565,-2.27754,0.514734,-0.58529,-9.07158,-3.96749,-8.96722,10.9021,-5.33784,9.74106,5.26658,-2.37461,4.12867,4.5969e-15,1.35174e-14,-32.1471,-0.908648,-84.0081,26.197,21.1985,-26.71,-3.68783,7.12502,-0.140014,-33.6675,4.5969e-15,1.35174e-14,-33.1408,19.557,74.6805,22.0317,-5.76809,-29.6958,33.5548,7.12502,-3.02369,63.5131,-2.91544,20.1489,17.9861,14.639,-13.3699,-19.799,-2.56742,-1.93927,-6.41159,-21.2683,11.9345,-10.7467,13.9705,-7.05092
0.829856,18.9968,-1.03309,2.43289,-4.77186,1.06952,4.09582,0.875992,-1.79323,0.0313962,1.04747,-1.46361,-2.26872,0.534086,-0.56037,-9.12634,-3.94405,-8.93287,10.9078,-5.29637,9.66222,5.2706,-2.35631,4.10051,-1.19519e-14,1.51076e-14,-32.1385,-0.791519,-84.0109,26.2391,21.1552,-26.9263,-3.17497,7.12502,-0.348879,-33.1544,-1.19519e-14,1.51076e-14,-33.1217,19.5202,74.7104,22.2188,-6.08317,-28.9448,34.111,7.12502,-2.29837,64.0784,-3.03553,20.1231,18.0801,14.7768,-13.4764,-19.6404,-2.35659,-2.16436,-6.26411,-21.1285,12.3161,-10.9123,13.8919,-7.19079
0.830919,18.9913,-1.03761,2.43865,-4.8365,1.02896,4.15033,0.903657,-1.77335,0.0882251,1.08537,-1.44396,-2.241,0.55255,-0.553895,-9.16271,-3.92464,-8.91736,10.8255,-5.25877,9.62547,5.24643,-2.3391,4.08841,2.93207e-15,-2.66371e-14,-32.0556,-0.718158,-84.027,26.285,21.0102,-26.9816,-2.62353,7.12502,-0.402319,-32.6029,2.93207e-15,-2.66371e-14,-32.9894,19.4492,74.7803,22.301,-6.15737,-28.7065,33.9332,7.12502,-2.06829,63.9029,-3.19547,20.07,18.1012,14.9905,-13.4682,-19.5283,-2.61773,-2.39759,-6.16272,-21.0749,12.6975,-11.0204,13.8129,-8.0583
0.830489,18.9861,-1.04458,2.45014,-4.86145,0.954989,4.25264,0.938348,-1.70934,0.160366,1.13373,-1.42517,-2.22349,0.575764,-0.574366,-9.24483,-3.91941,-8.98536,10.7213,-5.24289,9.73571,5.23157,-2.32569,4.13471,-3.37934e-15,-1.39149e-14,-31.9193,-0.754464,-84.0364,26.378,20.8579,-26.9579,-2.48664,7.12502,-0.379399,-32.466,-3.37934e-15,-1.39149e-14,-32.7972,19.3135,74.9061,22.3715,-6.01299,-28.79,33.4341,7.12502,-2.14885,63.403,-3.38665,20.06,18.174,15.2493,-13.4048,-19.5089,-2.72611,-2.63967,-6.11819,-20.9747,13.0921,-11.15,13.7606,-8.49203
0.831416,18.9803,-1.05156,2.43319,-4.86739,0.995819,4.41048,0.954501,-1.78427,0.221932,1.14834,-1.42217,-2.25025,0.583685,-0.532437,-9.40187,-3.92173,-8.96447,10.6652,-5.23439,9.74594,5.24004,-2.31617,4.13293,-1.963e-14,1.11319e-14,-31.7915,-0.801564,-84.0222,26.4546,20.8781,-26.876,-2.30239,7.12502,-0.300279,-32.2819,-1.963e-14,1.11319e-14,-32.6589,19.2386,74.9819,22.4494,-5.85741,-28.7714,33.0334,7.12502,-2.13097,63.0025,-3.57235,19.9832,18.1094,15.5862,-13.5412,-19.3996,-2.65585,-2.86652,-6.02274,-21.0102,13.4926,-11.3581,13.6537,-8.40877
0.833949,18.9753,-1.05655,2.46644,-4.86673,1.02752,4.47358,0.951233,-1.80771,0.24442,1.14101,-1.43903,-2.26259,0.580146,-0.537075,-9.42623,-3.91336,-8.90665,10.5928,-5.22176,9.72435,5.21861,-2.3088,4.1168,1.47101e-14,-7.15625e-15,-31.7245,-0.970052,-83.9883,26.4796,21.0309,-26.8559,-2.02873,7.12502,-0.280926,-32.0083,1.47101e-14,-7.15625e-15,-32.6021,19.1643,74.9848,22.4878,-5.76896,-28.898,32.68,7.12502,-2.25324,62.6478,-3.86,19.7943,18.0232,15.9977,-13.7875,-19.2387,-3.12179,-3.16794,-5.86735,-21.0345,13.9352,-11.4936,13.4876,-8.42248
0.836251,18.9702,-1.06183,2.50465,-4.94803,1.0558,4.51705,0.952355,-1.87672,0.262585,1.13836,-1.42565,-2.26989,0.579522,-0.485109,-9.34855,-3.84855,-8.86604,10.4597,-5.12961,9.67345,5.15303,-2.26821,4.10179,1.07344e-14,-4.37326e-15,-31.6454,-0.842796,-84.0338,26.5238,20.8529,-26.9755,-1.8039,7.12502,-0.396418,-31.7833,1.07344e-14,-4.37326e-15,-32.6498,19.0213,75.0611,22.6191,-5.35098,-29.2918,32.1471,7.12502,-2.63356,62.1106,-4.22823,19.6967,17.9341,16.4927,-13.9833,-19.0382,-3.16972,-3.47602,-5.70644,-21.0613,14.3913,-11.6538,13.3758,-8.3094
0.837605,18.9613,-1.06911,2.50364,-5.10859,1.09149,4.62388,1.01022,-1.93082,0.301339,1.20976,-1.44271,-2.29108,0.615475,-0.478588,-9.27515,-3.76328,-8.87922,10.2924,-5.01407,9.73759,5.07992,-2.21132,4.13406,-3.52843e-15,-2.14687e-14,-31.5742,-0.798984,-84.0881,26.6015,20.8045,-27.0749,-1.76046,7.12502,-0.492443,-31.7396,-3.52843e-15,-2.14687e-14,-32.6066,18.6441,75.2454,22.801,-4.76427,-29.6925,32.133,7.12502,-3.02049,62.0914,-4.58885,19.7082,17.8472,17.0437,-14.1523,-18.8355,-2.82889,-3.7644,-5.64053,-21.1085,14.9288,-11.9635,13.3892,-7.88337
0.838947,18.9515,-1.07892,2.44317,-5.25728,1.1335,4.8881,1.07044,-1.96127,0.305638,1.27887,-1.4901,-2.43477,0.650596,-0.52033,-9.26792,-3.66331,-8.74136,10.2721,-4.88851,9.6721,5.05517,-2.1488,4.10054,1.9133e-14,-1.43125e-14,-31.6243,-0.689243,-84.1967,26.7787,20.726,-27.1602,-1.93266,7.12502,-0.574861,-31.9116,1.9133e-14,-1.43125e-14,-32.5766,18.2858,75.3165,22.9784,-4.58719,-29.4673,32.8064,7.12502,-2.80298,62.7677,-4.91435,19.6769,17.7782,17.6517,-14.3688,-18.685,-2.96814,-4.06908,-5.48743,-21.1685,15.5873,-12.2901,13.3616,-7.7829
0.836621,18.9417,-1.09552,2.37996,-5.30663,1.14865,5.20786,1.09487,-2.01643,0.336664,1.29786,-1.5187,-2.58271,0.660995,-0.526638,-9.32101,-3.59017,-8.53883,10.2342,-4.79768,9.56317,5.03626,-2.10191,4.03877,-2.08724e-15,-1.19271e-15,-31.6333,-0.643667,-84.297,27.0288,20.6531,-27.143,-2.25466,7.12502,-0.558193,-32.2337,-2.08724e-15,-1.19271e-15,-32.4653,18.0294,75.3563,23.0744,-4.46614,-29.3147,33.189,7.12502,-2.6556,63.1522,-5.26587,19.749,17.7754,18.3302,-14.7374,-18.6508,-2.53466,-4.43909,-5.23899,-21.1579,16.319,-12.5587,13.1568,-7.48632
0.830932,18.9293,-1.11381,2.28371,-5.17337,1.11721,5.57182,1.06802,-2.0224,0.395191,1.25062,-1.53819,-2.72572,0.637789,-0.546661,-9.40152,-3.55046,-8.36836,10.1569,-4.74913,9.49901,5.01608,-2.07385,3.99269,2.5345e-15,-5.1684e-15,-31.5907,-0.513583,-84.4426,27.2589,20.4307,-27.0145,-2.64797,7.12502,-0.434067,-32.6273,2.5345e-15,-5.1684e-15,-32.3923,17.8064,75.3456,23.2516,-4.53953,-29.0656,33.2097,7.12502,-2.41509,63.1758,-5.55725,19.6806,17.8734,19.066,-15.2558,-18.5904,-2.04994,-4.80741,-4.84154,-21.0561,17.1109,-12.8364,12.5961,-6.63703
0.829476,18.9145,-1.12674,2.19464,-5.05506,1.22454,5.85083,1.03182,-2.15337,0.442725,1.18518,-1.55623,-2.83492,0.60694,-0.491708,-9.35886,-3.49826,-8.3682,10.0322,-4.6725,9.49633,4.96336,-2.03848,3.99779,2.6339e-15,-1.98785e-15,-31.5766,-0.292752,-84.5237,27.4144,20.2915,-27.0581,-2.95383,7.12502,-0.476208,-32.933,2.6339e-15,-1.98785e-15,-32.3977,17.7618,75.3243,23.3998,-4.75948,-28.7893,33.2438,7.12502,-2.1482,63.2127,-5.90994,19.3725,17.7676,19.8734,-15.7738,-18.2949,-1.8456,-5.23557,-4.40444,-21.1286,17.9853,-13.1227,12.026,-6.38096
0.828622,18.8987,-1.14182,2.16661,-4.9934,1.33685,6.08982,1.02391,-2.27398,0.470943,1.15735,-1.60294,-2.94093,0.594687,-0.474382,-9.19424,-3.45043,-8.38322,9.80605,-4.61293,9.58539,4.86312,-2.01045,4.03396,-1.3418e-15,1.43125e-14,-31.5399,-0.245192,-84.5903,27.4962,20.3192,-27.4045,-2.78438,7.12502,-0.810734,-32.7626,-1.3418e-15,1.43125e-14,-32.3364,17.658,75.292,23.5208,-4.88307,-28.3384,33.6103,7.12502,-1.71274,63.5832,-6.3982,19.1289,17.6204,20.7277,-16.1211,-18.062,-1.49244,-5.77727,-4.17054,-21.2073,18.9223,-13.4672,11.6629,-6.42353
0.82727,18.8804,-1.16226,2.15153,-4.95799,1.46516,6.38965,1.01417,-2.41554,0.530064,1.12302,-1.65922,-3.04915,0.579326,-0.455256,-9.26111,-3.38674,-8.31334,9.64819,-4.52431,9.61294,4.81698,-1.96223,4.03657,1.19768e-14,-8.74653e-15,-31.4051,-0.186271,-84.6869,27.6179,20.3058,-27.5749,-2.52915,7.12502,-0.975388,-32.5067,1.19768e-14,-8.74653e-15,-32.185,17.3852,75.3659,23.7094,-4.67755,-28.1566,33.7265,7.12502,-1.53712,63.7007,-6.9871,18.9809,17.4445,21.686,-16.5559,-17.8806,-0.979043,-6.36558,-3.97259,-21.2968,19.89,-13.8051,11.3355,-6.27932
0.826594,18.8592,-1.18055,2.1532,-4.93903,1.54997,6.67308,1.00238,-2.5052,0.605695,1.09015,-1.70811,-3.13009,0.563862,-0.456973,-9.45945,-3.31114,-8.16862,9.55065,-4.41834,9.58316,4.80701,-1.90233,4.00892,-6.4605e-16,-9.14409e-15,-31.2729,-0.073471,-84.8006,27.8284,20.3362,-27.6829,-2.37255,7.12502,-1.07964,-32.3496,-6.4605e-16,-9.14409e-15,-31.9874,16.9581,75.5351,23.8623,-3.99245,-28.387,33.4861,7.12502,-1.75971,63.4586,-7.63969,18.8288,17.3056,22.7338,-17.0107,-17.6896,-0.756305,-6.96988,-3.67399,-21.3329,20.8631,-14.1761,10.8855,-6.08008
0.824081,18.8345,-1.20293,2.18925,-4.97743,1.58818,6.93163,1.01337,-2.57073,0.675893,1.09083,-1.72395,-3.20314,0.564953,-0.440759,-9.52973,-3.23005,-8.23131,9.3147,-4.29183,9.69383,4.73893,-1.83614,4.06242,7.45443e-15,1.19271e-15,-31.1125,0.0544827,-84.8663,28.0304,20.3337,-27.7771,-2.22818,7.12502,-1.17064,-32.2047,7.45443e-15,1.19271e-15,-31.7287,16.7448,75.6323,23.9043,-3.80776,-28.1914,33.8008,7.12502,-1.5708,63.7748,-8.38064,18.7032,17.2097,23.8013,-17.3036,-17.4737,-0.983993,-7.65314,-3.29289,-21.3205,21.8859,-14.4729,10.4834,-6.18631
0.821788,18.8085,-1.22378,2.13771,-5.01422,1.7543,7.19829,1.04714,-2.76989,0.792156,1.11086,-1.76532,-3.23526,0.576624,-0.377545,-9.53036,-3.16199,-8.35839,8.9846,-4.17346,9.81726,4.63267,-1.77797,4.13002,-9.34288e-15,2.34566e-14,-30.9521,0.316429,-84.942,28.2782,20.0572,-27.8065,-2.30881,7.12502,-1.19903,-32.2852,-9.34288e-15,2.34566e-14,-31.461,16.815,75.6045,23.7955,-4.00805,-28.449,33.6787,7.12502,-1.81953,63.6507,-9.05312,18.5704,16.9906,24.8874,-17.6912,-17.2126,-1.20776,-8.23947,-2.88661,-21.4697,22.9404,-14.7399,10.1004,-6.547
0.823936,18.7772,-1.24162,2.05475,-5.01634,1.82795,7.48724,1.06146,-2.80962,0.922964,1.11703,-1.7932,-3.26163,0.57928,-0.38864,-9.60395,-3.13442,-8.37358,8.76001,-4.10987,9.78434,4.57028,-1.74889,4.1251,1.26725e-14,7.55382e-15,-30.8436,0.510585,-84.9968,28.5735,19.8916,-28.0346,-1.97635,7.12502,-1.41937,-31.9514,1.26725e-14,7.55382e-15,-31.3101,16.55,75.7026,23.9101,-3.7863,-29.0012,33.1261,7.12502,-2.35288,63.0928,-9.65766,18.3457,16.8702,26.0183,-18.1093,-16.8336,-1.17613,-8.76551,-2.54869,-21.5351,23.996,-15.0244,9.73829,-7.0149
0.825347,18.7429,-1.26473,1.98321,-4.99228,1.86558,7.89062,1.07061,-2.82519,1.01701,1.11209,-1.81702,-3.38925,0.577129,-0.410847,-9.64227,-3.10158,-8.2064,8.44529,-4.04428,9.59439,4.46742,-1.72305,4.04026,5.91384e-15,1.43125e-14,-30.7692,0.640694,-85.0298,28.8519,19.8406,-28.4099,-1.10505,7.12502,-1.78182,-31.0774,5.91384e-15,1.43125e-14,-31.2013,16.3652,75.7105,24.1324,-3.99407,-28.8215,32.7991,7.12502,-2.1793,62.7677,-10.2583,18.0788,16.8009,27.1482,-18.4921,-16.4621,-0.830697,-9.34811,-2.24647,-21.5384,25.0479,-15.2727,9.33527,-7.33033
0.825608,18.7082,-1.28565,1.87519,-4.96857,2.02528,8.24009,1.09329,-2.9479,1.1822,1.11747,-1.90479,-3.41364,0.579786,-0.438243,-9.70632,-3.03694,-7.90443,8.01734,-3.9434,9.37383,4.32837,-1.67748,3.92573,-2.20154e-14,1.31198e-14,-30.5539,0.759199,-85.1165,29.0777,19.7885,-28.5693,-0.927421,7.12502,-1.93577,-30.8984,-2.20154e-14,1.31198e-14,-30.9314,16.1484,75.7392,24.2385,-4.14198,-28.8505,32.7919,7.12502,-2.20736,62.7603,-10.818,17.868,16.6202,28.2528,-18.9384,-16.2598,-1.47467,-9.92009,-1.9266,-21.6746,26.1487,-15.6571,8.95355,-7.37066
0.826932,18.6721,-1.30658,1.7813,-4.93038,2.14303,8.58261,1.10793,-3.0295,1.31754,1.11559,-1.96255,-3.46451,0.57889,-0.457233,-9.68761,-2.97968,-7.83983,7.64416,-3.8496,9.34705,4.2019,-1.63411,3.91218,-4.47266e-15,1.51076e-14,-30.4586,1.09351,-85.223,29.4186,19.575,-28.6638,-1.21224,7.12502,-2.02697,-31.1824,-4.47266e-15,1.51076e-14,-30.7378,15.5174,75.9659,24.4534,-3.59772,-29.3032,33.0805,7.12502,-2.64453,63.0438,-11.4262,17.695,16.4679,29.3918,-19.4318,-16.0413,-1.80983,-10.5075,-1.60176,-21.7668,27.2633,-16.0652,8.51855,-7.29856
0.826992,18.6306,-1.32833,1.65121,-4.91221,2.15228,9.00903,1.13089,-3.0163,1.43856,1.12959,-1.99831,-3.57549,0.585399,-0.510513,-9.59389,-2.95198,-7.85237,7.23722,-3.79796,9.41942,4.06028,-1.61078,3.94001,-9.93923e-17,2.62396e-14,-30.4991,1.3982,-85.3405,29.9126,19.3865,-28.7229,-1.32964,7.12502,-2.08409,-31.2992,-9.93923e-17,2.62396e-14,-30.5677,14.7634,76.1921,24.7238,-3.02812,-29.3446,33.1741,7.12502,-2.68454,63.137,-11.9933,17.577,16.4618,30.5337,-19.8903,-15.8423,-1.72932,-11.0466,-1.22511,-21.7279,28.3796,-16.4309,8.04331,-7.27345
0.826128,18.5867,-1.34766,1.42425,-4.89246,2.24716,9.50185,1.13896,-3.12531,1.61918,1.11034,-2.02905,-3.66287,0.576254,-0.486645,-9.6444,-2.91405,-7.80057,6.9041,-3.72226,9.34627,3.95879,-1.57709,3.91236,-1.04362e-14,1.59028e-15,-30.4978,1.73804,-85.4359,30.4281,19.2304,-28.9136,-1.47723,7.12502,-2.26831,-31.4449,-1.04362e-14,1.59028e-15,-30.3634,14.4901,76.1919,24.9134,-3.26376,-28.6117,33.2966,7.12502,-1.97673,63.2672,-12.4098,17.3585,16.4002,31.6585,-20.3063,-15.5871,-1.84713,-11.4895,-0.80407,-21.7754,29.5121,-16.8164,7.48168,-6.9884
0.82606,18.5449,-1.37103,1.29349,-4.8482,2.25819,9.95315,1.1357,-3.12635,1.77963,1.08891,-2.03335,-3.74599,0.56501,-0.49485,-9.75247,-2.89016,-7.78851,6.58478,-3.65896,9.28567,3.87321,-1.54834,3.89405,-9.64106e-15,2.34566e-14,-30.4291,2.14844,-85.5274,30.8838,19.0075,-29.458,-1.74695,7.12502,-2.79401,-31.7084,-9.64106e-15,2.34566e-14,-30.1858,14.2703,76.247,25.1771,-3.17405,-28.8023,33.5629,7.12502,-2.1608,63.5317,-12.9458,17.0836,16.3981,32.795,-20.5499,-15.3388,-2.19001,-12.0668,-0.503774,-21.7386,30.6664,-17.1808,7.0486,-6.97014
0.825991,18.5017,-1.39698,1.21382,-4.7995,2.31555,10.4206,1.12871,-3.20154,1.9101,1.05314,-2.02305,-3.87015,0.548149,-0.444936,-9.87639,-2.85188,-7.74317,6.15784,-3.56344,9.11276,3.75211,-1.50858,3.83708,-2.04748e-14,2.50469e-14,-30.3268,2.62819,-85.5698,31.34,18.863,-29.8153,-1.89651,7.12502,-3.13911,-31.8531,-2.04748e-14,2.50469e-14,-30.0803,13.8914,76.4432,25.5806,-2.60914,-29.526,33.3714,7.12502,-2.85968,63.332,-13.5579,16.8358,16.3157,33.9461,-20.9716,-15.085,-2.37197,-12.7133,-0.218479,-21.7627,31.827,-17.5543,6.67,-6.9778
0.826426,18.4528,-1.42047,1.09028,-4.76413,2.51573,10.8974,1.13502,-3.40986,2.0458,1.01576,-2.07705,-3.99436,0.531731,-0.386796,-9.96004,-2.77989,-7.68569,5.68121,-3.4359,9.06341,3.60923,-1.44791,3.81925,1.61016e-14,1.03368e-14,-30.2392,2.99348,-85.6168,31.7783,18.7354,-30.1783,-1.74855,7.12502,-3.48965,-31.6997,1.61016e-14,1.03368e-14,-29.9562,13.5134,76.5064,25.9415,-2.67287,-29.4599,33.1943,7.12502,-2.79583,63.1557,-14.0952,16.5002,16.0748,35.0734,-21.5584,-14.6995,-2.88212,-13.32,0.14651,-21.9361,32.9934,-17.9611,6.13677,-6.60418
0.828835,18.4031,-1.44239,1.0164,-4.76352,2.62711,11.2374,1.15394,-3.49494,2.1966,1.01615,-2.11905,-4.02536,0.531631,-0.387567,-9.92798,-2.73058,-7.68681,5.29726,-3.34879,9.06684,3.48099,-1.40815,3.82582,5.56597e-15,-4.17448e-14,-30.1438,3.33149,-85.6456,32.1469,18.6499,-30.6551,-1.28603,7.12502,-3.95005,-31.2292,5.56597e-15,-4.17448e-14,-29.8272,12.8392,76.6988,26.3845,-2.15675,-29.5974,33.3226,7.12502,-2.92867,63.2822,-14.6872,16.1872,15.9095,36.1956,-22.0801,-14.2887,-3.00036,-14.0005,0.510852,-22.0043,34.2024,-18.445,5.51232,-5.49396
0.832229,18.3544,-1.45775,0.883464,-4.87551,2.5927,11.6172,1.21356,-3.43829,2.3599,1.08716,-2.11856,-4.06448,0.564896,-0.434867,-9.85666,-2.70101,-7.73591,4.90471,-3.28604,9.0955,3.34727,-1.38122,3.84679,2.65378e-14,-4.21423e-14,-30.0915,3.6478,-85.637,32.5987,18.6515,-30.6795,-1.54983,7.12502,-3.97368,-31.4925,2.65378e-14,-4.21423e-14,-29.7327,12.3903,76.7774,26.7574,-2.18271,-29.8035,33.5404,7.12502,-3.12766,63.4972,-15.2002,16.0417,15.9061,37.28,-22.6168,-13.8383,-2.50945,-14.5597,0.909937,-21.9333,35.4463,-18.9462,5.00739,-4.85016
0.836388,18.2967,-1.47504,0.747325,-5.03123,2.52594,12.0372,1.27707,-3.37202,2.51044,1.16279,-2.10441,-4.13857,0.600763,-0.475764,-9.79737,-2.65623,-7.60825,4.38265,-3.20319,8.93069,3.16854,-1.34972,3.77969,5.1684e-15,-1.66979e-14,-30.0846,3.99465,-85.6294,33.0917,18.6284,-30.8075,-2.06166,7.12502,-4.09727,-32.002,5.1684e-15,-1.66979e-14,-29.4711,12.3592,76.6521,26.7167,-3.273,-29.7252,32.9796,7.12502,-3.05212,62.9375,-15.7108,15.8728,15.9304,38.3538,-23.1321,-13.3153,-2.17769,-15.1154,1.37658,-21.8467,36.7233,-19.4103,4.66047,-4.82686
0.838351,18.2428,-1.49675,0.719136,-5.0916,2.33486,12.4165,1.28996,-3.21238,2.64344,1.1883,-2.03461,-4.20648,0.611235,-0.502989,-9.79246,-2.61891,-7.50985,3.87687,-3.12471,8.75596,3.0046,-1.31967,3.71403,6.26172e-15,1.23246e-14,-30.0464,4.50945,-85.6363,33.5761,18.361,-31.2525,-2.1216,7.12502,-4.52694,-32.0532,6.26172e-15,1.23246e-14,-29.0447,12.0082,76.8067,26.6821,-3.2201,-29.8902,32.3904,7.12502,-3.21139,62.346,-16.3109,15.5857,16.0889,39.4034,-23.5416,-12.8688,-2.1051,-15.8152,1.85009,-21.5959,37.9762,-19.8001,4.14355,-4.56747
0.841596,18.1879,-1.51314,0.674301,-5.1087,2.22204,12.7909,1.2973,-3.0979,2.81655,1.20183,-1.99405,-4.22914,0.615557,-0.532863,-10.0609,-2.60177,-7.58907,3.66734,-3.06562,8.79809,2.98252,-1.28511,3.74192,1.05356e-14,1.31198e-14,-29.9097,4.82402,-85.5827,34.019,18.2324,-31.5617,-1.91876,7.12502,-4.82548,-31.8438,1.05356e-14,1.31198e-14,-28.701,11.2637,77.1389,26.9562,-2.19672,-30.403,32.331,7.12502,-3.70665,62.2785,-16.9119,15.1833,16.1667,40.4762,-23.9351,-12.4863,-2.41638,-16.4794,2.28937,-21.4394,39.2035,-20.2306,3.62709,-4.276
0.847041,18.135,-1.52766,0.645499,-5.10512,2.21873,13.136,1.30491,-3.09755,2.96623,1.20036,-1.98062,-4.26116,0.613829,-0.524283,-10.2506,-2.56206,-7.60348,3.45027,-2.98668,8.80629,2.942,-1.24283,3.75046,-1.98785e-16,1.27222e-14,-29.769,5.07608,-85.4946,34.409,18.1928,-31.7662,-1.66183,7.12502,-5.02303,-31.5823,-1.98785e-16,1.27222e-14,-28.5294,10.915,77.1996,27.2546,-2.24911,-30.4952,32.8711,7.12502,-3.79567,62.8171,-17.52,14.7742,16.1117,41.5476,-24.3419,-12.1195,-2.78866,-17.1176,2.59824,-21.4169,40.3646,-20.7122,3.18412,-3.93157
0.852638,18.0841,-1.54737,0.678409,-5.09667,2.21172,13.4916,1.31562,-3.10312,3.02772,1.19941,-1.95636,-4.39157,0.61383,-0.502841,-10.0305,-2.51018,-7.60913,2.96997,-2.90052,8.75834,2.75458,-1.20983,3.74303,-2.38542e-15,1.35174e-14,-29.7378,5.38044,-85.4032,34.7754,18.0759,-32.0923,-1.5244,7.12502,-5.33784,-31.4372,-2.38542e-15,1.35174e-14,-28.4639,10.8828,77.1005,27.4843,-3.21824,-30.0457,33.6363,7.12502,-3.36156,63.5895,-18.2075,14.3582,16.051,42.6306,-24.7143,-11.8255,-3.48257,-17.8262,2.77236,-21.3933,41.5013,-21.1798,2.85987,-3.67478
0.857648,18.0308,-1.56406,0.744461,-5.11164,2.20602,13.7807,1.32967,-3.11268,3.12833,1.20627,-1.94103,-4.44415,0.616817,-0.487624,-9.89544,-2.45817,-7.55145,2.41884,-2.81088,8.66455,2.55807,-1.17419,3.71085,-5.1684e-15,-2.78299e-15,-29.6282,5.67123,-85.2895,35.1041,17.8332,-32.2127,-1.26185,7.12502,-5.45409,-31.1717,-5.1684e-15,-2.78299e-15,-28.3255,10.8149,77.0542,27.7126,-3.61044,-29.988,33.146,7.12502,-3.30588,63.1001,-18.9628,13.9022,15.9721,43.7385,-25.1037,-11.4721,-3.93054,-18.523,3.05331,-21.3767,42.5997,-21.5945,2.50846,-3.71687
0.862599,17.9739,-1.5815,0.836402,-5.20826,2.08767,14.0397,1.36932,-2.99989,3.28792,1.2681,-1.91601,-4.4164,0.64464,-0.539133,-10.1399,-2.46286,-7.4162,2.04696,-2.7899,8.50202,2.47974,-1.16469,3.63873,-2.10712e-14,1.51076e-14,-29.3746,5.77972,-85.1284,35.3854,17.831,-32.2736,-0.973518,7.12502,-5.51289,-30.8818,-2.10712e-14,1.51076e-14,-28.0854,10.4286,77.1596,28.0205,-3.36091,-30.5135,32.5309,7.12502,-3.8133,62.4765,-19.7638,13.5498,16.0064,44.8551,-25.4811,-11.0496,-4.07697,-19.2315,3.46649,-21.2312,43.6666,-21.999,2.09549,-3.59731
0.86853,17.9158,-1.59911,0.822791,-5.38269,2.24491,14.4093,1.44945,-3.19,3.40608,1.32921,-1.9525,-4.49684,0.675698,-0.488478,-10.3394,-2.46698,-7.36057,1.86059,-2.77386,8.38013,2.45167,-1.15709,3.59209,-1.96797e-14,1.59028e-14,-29.2446,5.94893,-85.0044,35.6745,17.9192,-32.5177,-1.26664,7.12502,-5.74853,-31.1687,-1.96797e-14,1.59028e-14,-27.9631,9.72513,77.3943,28.4351,-2.52111,-31.2659,32.0416,7.12502,-4.53991,61.9729,-20.4993,13.2004,15.7474,46.0065,-25.8482,-10.622,-4.39846,-19.8187,3.85505,-21.3988,44.673,-22.4071,1.76688,-3.62017
0.875147,17.8612,-1.61353,0.751992,-5.59105,2.52833,14.8641,1.55308,-3.49556,3.43817,1.39282,-2.02198,-4.71597,0.71077,-0.412591,-10.1356,-2.39515,-7.51803,1.55083,-2.66116,8.51634,2.32211,-1.10378,3.66766,-9.14409e-15,2.38542e-15,-29.305,6.06395,-84.8822,35.9317,18.0316,-32.9167,-1.74218,7.12502,-6.13381,-31.6334,-9.14409e-15,2.38542e-15,-28.015,9.00552,77.5788,28.7946,-1.71677,-32.3055,30.6736,7.12502,-5.54371,60.5811,-21.1826,12.8744,15.3591,47.1511,-26.2131,-10.1762,-4.41955,-20.3094,4.22235,-21.721,45.6275,-22.8176,1.62758,-4.10311
0.880387,17.8033,-1.63333,0.729499,-5.77803,2.71994,15.3244,1.62527,-3.73139,3.47948,1.42282,-2.08518,-4.92619,0.728785,-0.363835,-9.84125,-2.28323,-7.48499,1.03929,-2.50743,8.52743,2.10991,-1.0357,3.67619,-2.54444e-14,-1.31198e-14,-29.2411,6.19272,-84.7875,36.0952,18.0648,-33.1665,-1.67592,7.12502,-6.37496,-31.56,-2.54444e-14,-1.31198e-14,-27.9877,8.76477,77.4654,28.9479,-1.87697,-32.3941,29.5515,7.12502,-5.62925,59.4568,-21.9381,12.6132,15.071,48.3112,-26.5919,-9.7444,-4.40499,-20.873,4.61615,-21.9222,46.5508,-23.1525,1.34698,-4.11826
0.885294,17.7432,-1.65187,0.716031,-5.87438,2.83795,15.7141,1.65881,-3.87276,3.61579,1.42271,-2.14238,-4.99418,0.729004,-0.352579,-9.86804,-2.21933,-7.39026,0.680585,-2.41191,8.51002,1.99837,-0.989426,3.66072,1.15295e-14,2.26615e-14,-28.9721,6.26444,-84.6699,36.1991,18.0911,-33.1869,-1.4669,7.12502,-6.39464,-31.3504,1.15295e-14,2.26615e-14,-27.7839,8.59463,77.3838,29.0648,-1.74211,-31.9013,29.6385,7.12502,-5.15338,59.5558,-22.6501,12.316,14.8822,49.4684,-27.0225,-9.45402,-4.66766,-21.4619,4.95663,-22.0495,47.4785,-23.4215,1.10042,-4.26101
0.891269,17.684,-1.67031,0.712559,-5.81498,3.06886,16.1305,1.64368,-4.06936,3.74963,1.34573,-2.21918,-5.07722,0.692369,-0.316196,-10.0651,-2.23777,-7.40197,0.424609,-2.41107,8.54587,1.95441,-0.985128,3.67324,1.54058e-14,1.59028e-14,-28.731,6.39814,-84.5263,36.2971,17.999,-33.2753,-1.43632,7.12502,-6.48,-31.3172,1.54058e-14,1.59028e-14,-27.5936,8.44094,77.354,29.1712,-1.98585,-31.8066,30.7306,7.12502,-5.06203,60.6502,-23.3482,11.8798,14.5639,50.6333,-27.4444,-9.20812,-5.06918,-22.0708,5.15718,-22.3175,48.4321,-23.7385,0.947285,-4.67802
0.896267,17.6231,-1.68969,0.838663,-5.73226,3.38189,16.4522,1.6365,-4.38441,3.82235,1.2611,-2.29897,-5.17519,0.65425,-0.212924,-10.2625,-2.27295,-7.32968,0.181854,-2.43957,8.47672,1.9138,-0.998121,3.63829,-2.34566e-14,0,-28.5376,6.49723,-84.3713,36.3499,17.945,-33.8243,-1.19109,7.12502,-7.00994,-31.055,-2.34566e-14,0,-27.5065,8.14688,77.3425,29.2869,-2.62276,-32.179,31.0108,7.12502,-5.42153,60.9214,-24.1817,11.3922,14.1082,51.8001,-27.9411,-8.72887,-4.84106,-22.8433,5.23193,-22.6926,49.4142,-24.0996,0.772504,-4.63324
0.902315,17.5607,-1.70876,0.915752,-5.80365,3.53608,16.8559,1.67324,-4.54899,3.89601,1.25283,-2.361,-5.31532,0.652347,-0.193355,-10.3789,-2.25942,-7.26955,-0.224614,-2.40122,8.13834,2.01014,-0.998512,3.91099,-4.87022e-15,-3.45885e-14,-28.3548,6.55958,-84.2461,36.3888,18.0034,-34.259,-0.859074,7.12502,-7.42955,-30.7086,-4.87022e-15,-3.45885e-14,-27.4263,7.31794,77.4716,29.637,-1.70006,-32.4956,30.8127,7.12502,-5.72722,60.7153,-24.9845,11.0784,13.8535,52.9336,-28.3157,-8.48839,-5.12494,-23.5763,5.4423,-22.892,50.418,-24.4655,0.631353,-4.84025
0.909833,17.4982,-1.72425,0.909573,-5.99357,3.60938,17.3119,1.75955,-4.65264,3.99019,1.31793,-2.38618,-5.46297,0.685449,-0.186031,-10.488,-2.23998,-7.26042,-0.467667,-2.35774,8.13341,1.94452,-0.975227,3.90776,-1.91827e-14,-1.51076e-14,-28.1975,6.50723,-84.0411,36.482,18.1311,-34.2531,-0.776246,7.12502,-7.42384,-30.626,-1.91827e-14,-1.51076e-14,-27.2771,6.51835,77.607,29.9747,-0.472611,-32.411,31.1023,7.12502,-5.6456,61.0071,-25.7175,10.9301,13.7161,54.0457,-28.5824,-8.47332,-5.72468,-24.2001,5.85163,-22.9996,51.4343,-24.8049,0.480202,-5.18036
0.918337,17.4358,-1.73654,0.905966,-6.0947,3.64151,17.7912,1.79162,-4.72257,4.06185,1.31713,-2.37155,-5.64464,0.686926,-0.142383,-10.5192,-2.22187,-7.35695,-0.723957,-2.309,8.17876,1.86338,-0.949748,3.94358,1.39149e-15,-4.37326e-15,-28.0671,6.63996,-83.8513,36.5457,17.9841,-34.4178,-0.752833,7.12502,-7.58286,-30.5969,1.39149e-15,-4.37326e-15,-27.1999,6.16837,77.6435,30.0524,-0.196434,-32.5017,30.9951,7.12502,-5.73309,60.8975,-26.3796,10.6294,13.6313,55.1237,-28.8933,-8.35362,-6.40757,-24.786,6.23411,-23.0595,52.4551,-25.19,0.233412,-5.3284
0.926978,17.375,-1.75014,1.00091,-6.12848,3.75284,18.1139,1.79416,-4.85572,4.15985,1.27523,-2.3947,-5.71245,0.667416,-0.0891292,-10.53,-2.18408,-7.31724,-1.06812,-2.24458,8.13108,1.74251,-0.919094,3.91886,1.89839e-14,1.55052e-14,-27.8734,6.80564,-83.6829,36.6465,17.7311,-34.8616,-0.671812,7.12502,-8.01119,-30.5,1.89839e-14,1.55052e-14,-27.11,5.98728,77.6194,30.2134,-0.235764,-32.5051,30.5978,7.12502,-5.73645,60.5002,-27.156,10.2035,13.4243,56.1992,-29.2422,-8.05342,-6.86827,-25.4718,6.49341,-23.221,53.46,-25.5766,0.00940744,-5.31283
0.934452,17.3125,-1.76405,1.10035,-6.15121,3.82934,18.4184,1.79395,-4.93675,4.28217,1.24042,-2.428,-5.74284,0.649883,-0.0764979,-10.6613,-2.16919,-7.27072,-1.34957,-2.20818,8.10551,1.66767,-0.8995,3.90034,8.34896e-15,-3.93594e-14,-27.6642,6.76974,-83.4782,36.7636,17.7622,-35.237,-0.513392,7.12502,-8.37349,-30.3274,8.34896e-15,-3.93594e-14,-27.0081,5.6187,77.5872,30.5075,-0.174009,-32.3933,30.4394,7.12502,-5.62846,60.3446,-27.9335,9.80191,13.2613,57.2688,-29.5769,-7.77255,-7.00923,-26.1745,6.74234,-23.334,54.4752,-25.9706,-0.379215,-4.88044
0.939554,17.2487,-1.77744,1.20275,-6.19041,3.91706,18.7725,1.81832,-5.03004,4.37815,1.22931,-2.46998,-5.82821,0.64506,-0.0735336,-10.8358,-2.21391,-7.2312,-1.59537,-2.24935,8.05101,1.61867,-0.918488,3.86925,-2.16675e-14,1.70955e-14,-27.5019,6.61439,-83.2735,36.8683,17.8542,-35.4446,-0.679303,7.12502,-8.57387,-30.4852,-2.16675e-14,1.70955e-14,-26.9272,5.21793,77.5292,30.7658,-0.42025,-32.3327,31.123,7.12502,-5.56995,61.0298,-28.7149,9.48046,13.1019,58.3368,-29.8908,-7.56969,-7.17084,-26.8819,7.06762,-23.457,55.5145,-26.4016,-0.686196,-5.19012
0.944799,17.1832,-1.79608,1.41369,-6.18725,3.93697,19.131,1.80927,-5.07072,4.42475,1.18334,-2.48692,-5.96707,0.624253,-0.0661597,-10.9046,-2.20484,-7.26924,-1.92238,-2.21411,8.1004,1.5211,-0.898938,3.894,1.66979e-14,-1.47101e-14,-27.363,6.51712,-83.0998,37.0366,17.9316,-35.6293,-0.737336,7.12502,-8.75208,-30.5359,1.66979e-14,-1.47101e-14,-26.8627,4.88033,77.4546,31.04,-0.799785,-32.3241,32.1698,7.12502,-5.56164,62.0768,-29.6308,9.11828,13.0071,59.4088,-30.1994,-7.31719,-7.34416,-27.7605,7.35017,-23.5182,56.5899,-26.7588,-0.928587,-5.43068
0.950608,17.1122,-1.81409,1.62523,-6.26497,3.85854,19.5026,1.81741,-5.05597,4.46278,1.17145,-2.46802,-6.1227,0.619685,-0.0601297,-10.9363,-2.17212,-7.31824,-2.30874,-2.14586,8.18917,1.39549,-0.862827,3.93641,1.19271e-15,5.56597e-15,-27.2441,6.5463,-82.9147,37.1918,17.938,-35.7649,-0.591148,7.12502,-8.88299,-30.3842,1.19271e-15,5.56597e-15,-26.7997,4.45891,77.4252,31.2905,-0.780504,-32.3143,31.5706,7.12502,-5.5522,61.4778,-30.578,8.81246,13.0309,60.492,-30.4641,-7.11099,-7.72956,-28.6701,7.69194,-23.4655,57.7039,-27.1217,-1.20196,-5.52523
0.959223,17.0412,-1.82985,1.77056,-6.31934,3.86732,19.9275,1.82331,-5.07667,4.55428,1.14582,-2.47896,-6.24759,0.607643,-0.0628496,-11.1677,-2.15674,-7.36054,-2.6338,-2.09204,8.28592,1.32742,-0.829769,3.98084,-1.05356e-14,-2.06736e-14,-27.0755,6.67136,-82.7241,37.3664,17.8481,-35.9728,-0.784084,7.12502,-9.08354,-30.5685,-1.05356e-14,-2.06736e-14,-26.6658,3.91243,77.4584,31.5253,-0.311823,-32.6541,30.6389,7.12502,-5.88025,60.5373,-31.438,8.40045,12.9473,61.6005,-30.7883,-6.80783,-8.09421,-29.4942,8.04234,-23.5262,58.8065,-27.5443,-1.48211,-5.73291
0.967373,16.9706,-1.84958,1.93008,-6.32462,3.93098,20.3398,1.82538,-5.14591,4.65548,1.10564,-2.50083,-6.3544,0.588895,-0.0454627,-11.341,-2.1511,-7.33303,-3.00242,-2.05955,8.29247,1.23273,-0.810916,3.97751,1.35174e-14,-6.75868e-15,-26.8651,6.78817,-82.5258,37.5266,17.7811,-36.3243,-1.11815,7.12502,-9.42273,-30.8875,1.35174e-14,-6.75868e-15,-26.5191,3.41875,77.4915,31.7536,0.203848,-33.1087,30.3414,7.12502,-6.31911,60.2272,-32.2897,7.92009,12.7882,62.7317,-31.1918,-6.23541,-7.64885,-30.3399,8.34179,-23.6596,59.8875,-27.9493,-1.67454,-5.97842
0.97344,16.897,-1.87332,2.09886,-6.32282,4.11912,20.7903,1.85568,-5.34503,4.67751,1.06441,-2.56033,-6.5677,0.574127,0.00261346,-11.2332,-2.1611,-7.33401,-3.41274,-2.05994,8.32881,1.07818,-0.813553,3.98811,-2.38542e-15,-2.18663e-14,-26.8421,6.75142,-82.3262,37.7117,17.8618,-36.571,-1.19511,7.12502,-9.66079,-30.9536,-2.38542e-15,-2.18663e-14,-26.5308,2.80291,77.4864,32.0725,0.470921,-33.2729,30.1051,7.12502,-6.47766,59.9861,-33.227,7.49373,12.5078,63.9152,-31.5687,-5.88133,-7.57124,-31.2233,8.57466,-23.9249,60.9591,-28.3037,-1.88058,-5.94549
0.980158,16.8238,-1.89452,2.22823,-6.22642,4.37131,21.3142,1.85851,-5.55825,4.70465,0.975837,-2.63042,-6.81122,0.537628,0.0584152,-11.1944,-2.17236,-7.44477,-3.81308,-2.04548,8.44656,0.941913,-0.80491,4.05139,-8.15017e-15,-1.98785e-15,-26.8724,6.68521,-82.1111,37.9715,17.8828,-36.8098,-0.908525,7.12502,-9.89114,-30.6562,-8.15017e-15,-1.98785e-15,-26.5941,2.24844,77.4325,32.4999,0.161453,-33.0467,30.2414,7.12502,-6.25928,60.129,-34.1388,7.03993,12.1722,65.1083,-31.8908,-5.77334,-8.18203,-32.046,8.77903,-24.2632,61.9985,-28.6842,-2.13888,-6.21815
0.985627,16.7401,-1.91751,2.49296,-6.18086,4.47039,21.6968,1.84297,-5.63573,4.75126,0.904372,-2.69114,-6.95759,0.505719,0.0475154,-11.2665,-2.19998,-7.40028,-4.26017,-2.06152,8.46443,0.807701,-0.812848,4.04656,1.88845e-14,1.35174e-14,-26.8273,6.70394,-81.9677,38.3247,17.7924,-37.0023,-0.99177,7.12502,-10.0768,-30.7305,1.88845e-14,1.35174e-14,-26.5252,1.69234,77.3449,32.8643,-0.122251,-33.0405,30.5417,7.12502,-6.25335,60.4294,-35.227,6.64338,11.9927,66.3268,-32.2735,-5.54615,-8.32733,-33.054,9.15195,-24.4507,63.0544,-29.0027,-2.52954,-6.23404
0.991873,16.6651,-1.93653,2.73823,-6.1767,4.62035,22.0507,1.854,-5.76985,4.79616,0.855759,-2.75478,-7.09178,0.48565,0.0601691,-11.2374,-2.24624,-7.41856,-4.76427,-2.09841,8.54785,0.641178,-0.831927,4.0772,-6.16232e-15,2.78299e-15,-26.8077,6.7648,-81.8011,38.6664,17.6672,-37.1013,-0.711862,7.12502,-10.1724,-30.4459,-6.16232e-15,2.78299e-15,-26.4857,1.06144,77.2989,33.2553,-0.0549602,-33.1333,30.336,7.12502,-6.34295,60.221,-36.2182,6.28813,11.7347,67.4921,-32.6986,-5.11652,-8.07823,-33.9794,9.51676,-24.7025,64.0501,-29.348,-2.83838,-6.36143
0.99948,16.6002,-1.94582,2.8409,-6.19391,4.9376,22.4044,1.88428,-6.06634,4.9207,0.794985,-2.85294,-7.13787,0.459616,0.132374,-11.3202,-2.26816,-7.38853,-5.21684,-2.10383,8.56236,0.506433,-0.834584,4.0756,-5.1684e-15,3.73715e-14,-26.7291,6.85644,-81.6147,38.9429,17.7159,-37.2472,-0.60225,7.12502,-10.3131,-30.3294,-5.1684e-15,3.73715e-14,-26.3734,0.411127,77.2544,33.6007,0.253927,-33.457,30.2413,7.12502,-6.65538,60.1167,-37.0001,5.88259,11.3108,68.5988,-33.074,-4.79076,-8.32205,-34.6247,9.74545,-25.118,64.9904,-29.7254,-3.1313,-6.12875
1.00786,16.5273,-1.95631,2.96094,-6.261,5.20751,22.796,1.92288,-6.3071,5.01521,0.750165,-2.95331,-7.23577,0.44166,0.164698,-11.4532,-2.28965,-7.33742,-5.60569,-2.1113,8.56784,0.401145,-0.837639,4.06682,1.59028e-15,-5.4467e-14,-26.6663,6.94733,-81.4657,39.1524,17.7048,-37.5096,-0.882861,7.12502,-10.5662,-30.5973,1.59028e-15,-5.4467e-14,-26.3194,-0.192671,77.2022,33.9467,0.403437,-33.6706,30.4542,7.12502,-6.86156,60.323,-37.8626,5.49547,10.9625,69.7214,-33.3311,-4.66104,-8.80697,-35.3282,10.0152,-25.4946,65.9679,-30.1738,-3.26981,-6.56606
1.01452,16.4419,-1.97456,3.16261,-6.30473,5.38159,23.2336,1.95711,-6.47926,5.03584,0.709007,-3.00963,-7.43845,0.428053,0.202763,-11.5611,-2.29357,-7.39432,-5.85586,-2.09045,8.62038,0.337378,-0.824138,4.09818,-2.98177e-15,1.43125e-14,-26.6861,7.18105,-81.3123,39.3563,17.4223,-37.7193,-0.473234,7.12502,-10.7685,-30.1772,-2.98177e-15,1.43125e-14,-26.4302,-0.848724,77.165,34.446,0.470489,-33.4335,30.4678,7.12502,-6.63271,60.3439,-38.8757,5.06307,10.7557,70.9031,-33.5926,-4.69034,-9.7167,-36.2486,10.3089,-25.7714,67.014,-30.4781,-3.46141,-7.06855
1.02169,16.3549,-1.99599,3.42873,-6.27431,5.46106,23.6667,1.94087,-6.51163,5.04803,0.637396,-3.03815,-7.64538,0.398189,0.20146,-11.6711,-2.30249,-7.50019,-6.12981,-2.06874,8.69431,0.267022,-0.809001,4.14732,-1.43125e-14,6.75868e-15,-26.6889,7.40613,-81.1401,39.5742,17.3599,-38.0349,-0.309903,7.12502,-11.0729,-29.9978,-1.43125e-14,6.75868e-15,-26.5263,-1.68602,77.1439,34.9872,0.817284,-33.4521,30.6575,7.12502,-6.65071,60.5331,-39.948,4.60827,10.6644,72.0976,-33.8279,-4.73559,-10.6958,-37.3054,10.5377,-25.9613,68.1113,-30.552,-3.61543,-7.86096
1.02777,16.2723,-2.01449,3.63158,-6.19964,5.60496,24.1144,1.88454,-6.58496,5.10605,0.50054,-3.11578,-7.80474,0.3362,0.190411,-11.8235,-2.32152,-7.44596,-6.46579,-2.07503,8.67468,0.181591,-0.811406,4.12938,-5.56597e-15,-5.1684e-15,-26.7313,7.60584,-81.0353,39.9773,17.3732,-38.1497,-0.88948,7.12502,-11.1837,-30.5714,-5.56597e-15,-5.1684e-15,-26.5703,-2.56046,77.0508,35.4655,1.25425,-33.7576,30.6003,7.12502,-6.94557,60.4663,-40.901,4.15263,10.4908,73.2872,-34.0932,-4.53337,-11.1619,-38.2504,10.7035,-26.2039,69.1837,-30.7402,-3.83574,-8.17508
1.03427,16.1906,-2.03265,3.83126,-6.08993,5.83342,24.5488,1.82422,-6.70101,5.1669,0.346573,-3.21644,-7.95227,0.266874,0.18479,-12.0169,-2.34059,-7.44708,-6.74889,-2.07422,8.70268,0.121753,-0.807643,4.1401,-1.98785e-16,1.66979e-14,-26.827,7.74591,-80.8949,40.4129,17.4103,-38.226,-0.973713,7.12502,-11.2572,-30.6517,-1.98785e-16,1.66979e-14,-26.6144,-3.3548,76.9425,35.9029,1.55313,-33.9259,30.3063,7.12502,-7.10808,60.1669,-41.8629,3.65358,10.2232,74.4895,-34.341,-4.34053,-11.3674,-39.1612,10.8148,-26.5426,70.2368,-31.0205,-4.19389,-7.82437
1.04117,16.1099,-2.05165,4.07849,-6.05196,5.92847,24.9759,1.80242,-6.74561,5.20975,0.264013,-3.25995,-8.11921,0.231275,0.180316,-12.2193,-2.37688,-7.42707,-7.0522,-2.09814,8.6884,0.0576134,-0.81702,4.13025,1.41137e-14,-9.93923e-15,-26.8903,7.9279,-80.7209,40.7359,17.3648,-38.4608,-0.834735,7.12502,-11.4837,-30.5002,1.41137e-14,-9.93923e-15,-26.6825,-4.33509,76.9185,36.3951,2.13958,-34.038,29.9472,7.12502,-7.21622,59.8042,-42.9248,3.2692,10.0979,75.6734,-34.5676,-4.11904,-11.1945,-40.1017,11.0037,-26.763,71.3003,-31.309,-4.34268,-7.94794
1.05175,16.0228,-2.06789,4.38974,-5.98983,5.96181,25.333,1.73733,-6.70096,5.22317,0.156726,-3.27275,-8.28175,0.182963,0.168512,-12.3807,-2.36837,-7.38527,-7.35141,-2.06861,8.6173,-0.01852,-0.801394,4.09826,5.1684e-15,-1.07344e-14,-27.0392,8.17563,-80.5342,41.1104,17.2818,-38.5749,-0.708249,7.12502,-11.5937,-30.3675,5.1684e-15,-1.07344e-14,-26.8979,-5.39483,76.9214,36.987,2.68628,-34.2583,29.674,7.12502,-7.42893,59.5236,-44.0445,2.87833,10.0105,76.861,-34.7815,-3.84169,-10.8071,-41.1521,11.1417,-26.9443,72.4115,-31.5298,-4.32139,-8.33946
1.06298,15.9324,-2.08152,4.61538,-5.91518,6.04548,25.7233,1.65882,-6.67422,5.25728,0.0248274,-3.29826,-8.43637,0.122943,0.161376,-12.3743,-2.34624,-7.45981,-7.75815,-2.00982,8.64925,-0.158314,-0.771197,4.12924,-5.1684e-15,3.65764e-14,-27.2968,8.47211,-80.3407,41.6492,17.0888,-38.4354,-0.647563,7.12502,-11.4592,-30.3144,-5.1684e-15,3.65764e-14,-27.2144,-6.36166,76.9011,37.6025,3.10362,-34.1771,29.5517,7.12502,-7.35053,59.404,-45.0471,2.41114,9.87378,78.0617,-34.995,-3.67519,-10.9742,-42.1188,11.2388,-27.1674,73.5592,-31.8099,-4.43139,-8.47427
1.07349,15.8456,-2.0984,4.84976,-5.80771,6.00421,26.0931,1.56722,-6.55567,5.34474,-0.0881436,-3.27201,-8.52144,0.0680513,0.155876,-12.426,-2.36813,-7.52688,-8.1741,-2.0082,8.64417,-0.287223,-0.768867,4.14294,7.95139e-16,1.03368e-14,-27.393,8.79367,-80.0886,42.1022,16.8764,-38.4587,-0.367067,7.12502,-11.4816,-30.0326,7.95139e-16,1.03368e-14,-27.5454,-7.48506,76.9275,38.4207,3.97784,-34.1177,29.4868,7.12502,-7.29313,59.3411,-46.0388,1.94612,9.89458,79.2639,-35.1588,-3.44353,-10.8489,-43.111,11.2845,-27.2371,74.7314,-32.0347,-4.64653,-8.3615
1.08078,15.7531,-2.11912,5.13164,-5.72105,5.87679,26.4451,1.48898,-6.37898,5.42187,-0.165994,-3.24342,-8.61083,0.0286836,0.109173,-12.5788,-2.37547,-7.49084,-8.5121,-1.99821,8.59134,-0.375979,-0.762892,4.11864,1.23246e-14,4.05521e-14,-27.4848,9.16932,-79.8596,42.4629,16.5817,-38.4165,-0.225861,7.12502,-11.441,-29.8937,1.23246e-14,4.05521e-14,-27.9473,-8.74211,76.9365,39.3549,4.97085,-34.3008,29.3245,7.12502,-7.46996,59.1726,-47.159,1.54965,10.046,80.5151,-35.2399,-3.23404,-10.7616,-44.2132,11.4264,-27.2229,75.9239,-32.2179,-4.83784,-8.31134
1.0875,15.6609,-2.13638,5.40649,-5.52937,5.80042,26.815,1.36572,-6.18332,5.49179,-0.299331,-3.24418,-8.71506,-0.0367482,0.0376111,-12.7426,-2.37564,-7.39555,-8.85773,-1.98545,8.52628,-0.466729,-0.757119,4.07843,5.96354e-16,1.31198e-14,-27.7238,9.58104,-79.6851,42.9026,16.2202,-38.6439,-0.297947,7.12502,-11.6603,-29.9535,5.96354e-16,1.31198e-14,-28.4009,-10.2008,76.9429,40.2294,5.91057,-34.5492,29.4366,7.12502,-7.7097,59.2761,-48.2003,1.03459,10.1488,81.8019,-35.4218,-3.0262,-10.7537,-45.2925,11.5249,-27.2829,77.0834,-32.3628,-4.92979,-8.66983
1.0955,15.5721,-2.15087,5.6343,-5.271,5.98872,27.2399,1.25097,-6.23785,5.53776,-0.496715,-3.25834,-8.86817,-0.124666,0.11534,-12.8479,-2.39665,-7.44251,-9.20686,-1.98595,8.50496,-0.565259,-0.754854,4.08233,-1.45113e-14,3.18055e-14,-28.0508,10.0582,-79.418,43.3832,15.8343,-39.013,-0.0958214,7.12502,-12.0162,-29.7309,-1.45113e-14,3.18055e-14,-28.9956,-11.6593,77.0553,41.1268,6.837,-34.863,29.714,7.12502,-8.01258,59.5421,-49.1793,0.313689,9.93708,83.1144,-35.571,-2.59954,-10.6241,-46.2723,11.4511,-27.6382,78.1742,-32.5014,-5.10631,-8.55229
1.10462,15.4803,-2.16704,5.87444,-5.13575,6.24989,27.6552,1.20674,-6.40586,5.55468,-0.639588,-3.28987,-9.0491,-0.183153,0.221024,-12.963,-2.41159,-7.37143,-9.44071,-2.00256,8.35157,-0.625878,-0.764236,4.01343,6.95746e-15,-9.54166e-15,-28.4934,10.5098,-79.1332,43.8929,15.4788,-39.3443,0.0527491,7.12502,-12.3356,-29.5634,6.95746e-15,-9.54166e-15,-29.7061,-13.0992,77.1937,42.0656,7.68633,-35.111,29.3391,7.12502,-8.25191,59.158,-50.3428,-0.342676,9.65651,84.4259,-35.4395,-2.48435,-11.2903,-47.253,11.4078,-28.0903,79.2718,-32.6828,-5.26238,-8.20886
1.11316,15.3875,-2.18149,6.12267,-5.06039,6.2549,28.0332,1.13579,-6.33416,5.60452,-0.741672,-3.29809,-9.17861,-0.229875,0.203972,-13.111,-2.38895,-7.20409,-9.71302,-1.97869,8.16573,-0.698855,-0.755868,3.91608,2.78299e-15,2.5842e-14,-28.907,10.9264,-78.9011,44.3685,15.1924,-39.4847,-0.122396,7.12502,-12.471,-29.7303,2.78299e-15,2.5842e-14,-30.4442,-14.646,77.2742,42.9965,8.50031,-35.2947,28.9093,7.12502,-8.42917,58.7211,-51.5018,-0.854878,9.69025,85.6894,-35.2434,-2.55352,-12.16,-48.2709,11.5134,-28.2474,80.4487,-32.8415,-5.53273,-7.88893
1.11897,15.2956,-2.19636,6.41182,-4.95572,6.25404,28.3635,1.06102,-6.26753,5.66952,-0.843497,-3.30377,-9.2664,-0.277328,0.193817,-13.2684,-2.38498,-7.1503,-10.0834,-1.95528,8.13836,-0.799382,-0.743715,3.8994,-1.98785e-15,3.4191e-14,-29.2661,11.2923,-78.6259,44.7389,14.8797,-39.5413,-0.0696292,7.12502,-12.5256,-29.6742,-1.98785e-15,3.4191e-14,-31.1997,-16.2418,77.3631,43.8641,9.12387,-35.5852,28.6394,7.12502,-8.70949,58.4397,-52.6802,-1.36635,9.74325,86.9506,-35.0123,-2.52984,-12.5754,-49.3838,11.5906,-28.3938,81.641,-32.9135,-5.70087,-7.94436
1.12395,15.2058,-2.21341,6.77069,-4.89608,6.22923,28.6445,1.01298,-6.20556,5.69644,-0.908506,-3.29383,-9.37394,-0.306384,0.191289,-13.452,-2.40968,-7.22871,-10.3971,-1.94839,8.25853,-0.871929,-0.73448,3.96081,-5.56597e-15,3.97569e-14,-29.7171,11.6923,-78.3229,45.0643,14.4716,-39.6294,-0.223163,7.12502,-12.6105,-29.8225,-5.56597e-15,3.97569e-14,-31.9709,-17.7532,77.4885,44.5039,9.01397,-36.1822,28.0949,7.12502,-9.28566,57.8704,-53.9559,-1.82499,9.81405,88.2185,-34.8078,-2.29913,-12.7055,-50.6212,11.6631,-28.5262,82.819,-32.861,-5.80513,-7.79992
1.12899,15.1149,-2.22827,7.00766,-4.82876,6.26528,29.046,0.973218,-6.23706,5.74283,-0.998134,-3.27163,-9.51522,-0.343552,0.265,-13.6309,-2.38353,-7.2723,-10.6528,-1.88437,8.27884,-0.932832,-0.697681,3.98155,-1.59028e-15,-2.10712e-14,-30.1752,12.0807,-77.9798,45.2844,14.1585,-39.9205,-0.0406746,7.12502,-12.8912,-29.6225,-1.59028e-15,-2.10712e-14,-32.8281,-19.114,77.6077,44.9684,7.84764,-36.9148,27.0102,7.12502,-9.99241,56.753,-55.0761,-2.28333,9.79105,89.5004,-34.7543,-1.90894,-12.5751,-51.6843,11.7075,-28.6929,83.9644,-32.8367,-5.92916,-7.66874
1.13327,15.0212,-2.23793,7.15622,-4.71138,6.39558,29.5003,0.918807,-6.34365,5.79701,-1.13475,-3.2661,-9.66885,-0.399982,0.380774,-13.7303,-2.35956,-7.32389,-10.885,-1.82838,8.2992,-0.998653,-0.66621,4.00379,1.45113e-14,9.54166e-15,-30.6889,12.5284,-77.6226,45.3914,14.0137,-40.2371,0.357488,7.12502,-13.1964,-29.2049,1.45113e-14,9.54166e-15,-33.8511,-20.4185,77.7161,45.4741,6.54242,-37.1369,26.1492,7.12502,-10.2067,55.8816,-56.0796,-2.82647,9.66734,90.7776,-34.6797,-1.64002,-12.7525,-52.5823,11.7374,-28.9344,85.0982,-32.8258,-6.15182,-7.62668
1.13668,14.9225,-2.25042,7.44622,-4.59889,6.36653,29.8329,0.854475,-6.27109,5.83357,-1.21944,-3.25296,-9.78849,-0.437653,0.38487,-13.8622,-2.3881,-7.31944,-11.1291,-1.84673,8.33535,-1.0571,-0.673626,4.01735,7.15625e-15,1.39149e-14,-31.3103,12.7279,-77.2586,45.4591,13.9566,-40.5276,0.652969,7.12502,-13.4763,-28.891,7.15625e-15,1.39149e-14,-34.9443,-21.8134,77.8922,46.038,5.97204,-37.5786,25.5462,7.12502,-10.6328,55.2572,-57.2445,-3.36126,9.74405,92.0395,-34.5375,-1.37216,-13.0814,-53.7004,11.7809,-29.0044,86.3044,-32.7007,-6.50309,-7.36323
1.13736,14.8248,-2.26522,7.74729,-4.5443,6.24922,30.2216,0.828642,-6.1947,5.82022,-1.25831,-3.20758,-9.99436,-0.451124,0.406427,-13.8325,-2.39323,-7.25918,-11.5355,-1.84618,8.31575,-1.20053,-0.677175,4.00358,-3.57812e-15,2.38542e-14,-32.0744,12.8592,-76.8837,45.4652,13.8167,-40.9365,0.982388,7.12502,-13.8705,-28.5351,-3.57812e-15,2.38542e-14,-36.3162,-23.0792,78.1483,46.6845,5.67064,-38.3785,24.4769,7.12502,-11.4043,54.1468,-58.4498,-3.79882,9.93648,93.2791,-34.3369,-1.08154,-13.3869,-54.8611,11.8872,-28.9602,87.5397,-32.4921,-6.67132,-7.8786
1.13674,14.7304,-2.27523,7.9406,-4.4645,6.2729,30.6545,0.825112,-6.28071,5.83316,-1.32183,-3.17229,-10.1853,-0.471742,0.519639,-13.9348,-2.40251,-7.1692,-11.8052,-1.8561,8.24377,-1.27593,-0.684356,3.96231,1.80894e-14,1.23246e-14,-32.7932,13.0941,-76.4702,45.2413,13.4913,-41.2819,1.18528,7.12502,-14.2032,-28.3091,1.80894e-14,1.23246e-14,-37.9259,-24.3897,78.5633,47.3477,5.91779,-38.4563,24.0216,7.12502,-11.4794,53.6873,-59.5113,-4.28915,9.98317,94.4796,-34.1592,-0.976024,-14.1733,-55.8169,11.9231,-29.0176,88.7282,-32.3122,-6.8649,-8.43033
1.13976,14.6368,-2.28001,8.16019,-4.29593,6.36014,30.9213,0.762538,-6.30609,5.92413,-1.42445,-3.16829,-10.2042,-0.517721,0.578659,-14.1254,-2.44036,-7.1281,-12.0557,-1.89036,8.23832,-1.32705,-0.700285,3.95306,9.14409e-15,3.77691e-14,-33.4473,13.1437,-75.9814,44.8733,13.362,-41.5744,1.47873,7.12502,-14.4851,-27.9957,9.14409e-15,3.77691e-14,-39.4585,-25.6647,78.9999,47.8456,6.30908,-38.6926,23.7932,7.12502,-11.7072,53.4461,-60.4934,-4.90776,9.91577,95.6334,-34.0628,-0.670883,-14.4939,-56.7438,11.7724,-29.1231,89.8762,-32.2741,-7.39416,-7.50445
1.14303,14.5441,-2.28691,8.36894,-4.15423,6.43631,31.4795,0.751586,-6.37976,5.55113,-1.51264,-3.11163,-10.0688,-0.542526,0.667308,-14.1629,-2.47669,-7.15265,-12.4174,-1.91869,8.22908,-1.44179,-0.713554,3.95848,-1.43125e-14,-2.62396e-14,-34.2267,12.88,-75.3802,44.4947,13.3591,-41.8158,1.45413,7.12502,-14.7177,-28.0034,-1.43125e-14,-2.62396e-14,-40.963,-26.6493,79.4103,48.1108,6.34955,-39.5657,22.9098,7.12502,-12.5491,52.5129,-61.443,-5.5342,9.84052,96.7543,-33.9006,-0.115437,-14.5161,-57.7116,11.6121,-29.1962,91.018,-32.3493,-7.93612,-6.28936
1.14384,14.4519,-2.29768,8.61357,-4.02563,6.43515,31.9072,0.752474,-6.42586,5.54467,-1.54891,-2.99434,-10.2427,-0.550978,0.829152,-14.1588,-2.50289,-7.30434,-12.8196,-1.91792,8.22103,-1.57939,-0.707084,3.99207,2.8625e-14,1.11319e-14,-35.0641,12.5723,-74.632,44.0758,13.1439,-41.6058,1.28081,7.12502,-14.5154,-28.1914,2.8625e-14,1.11319e-14,-42.5847,-27.3757,79.9864,48.2687,6.61845,-39.7452,22.1899,7.12502,-12.7221,51.7824,-62.4259,-6.13268,9.89295,97.8596,-33.5411,0.339564,-15.167,-58.7605,11.513,-29.1879,92.1633,-32.284,-8.47536,-5.19129
1.14416,14.3509,-2.30698,8.9029,-3.78333,6.43441,32.251,0.695955,-6.41205,5.54157,-1.63088,-2.89065,-10.3782,-0.582924,0.962264,-14.145,-2.4948,-7.36375,-13.1776,-1.88695,8.18729,-1.70755,-0.689028,3.99914,5.76476e-15,1.98785e-15,-35.9781,12.2176,-73.9226,43.5902,12.8911,-41.4828,1.57249,7.12502,-14.3969,-27.9082,5.76476e-15,1.98785e-15,-44.2488,-28.0016,80.4997,48.3533,6.7842,-40.1575,22.0401,7.12502,-13.1197,51.6074,-63.4596,-6.83899,9.96305,98.9932,-33.9277,0.794251,-15.0266,-59.8796,11.3445,-29.1862,93.3486,-32.2567,-8.92997,-4.86741
1.14558,14.2415,-2.31135,9.23497,-3.59043,6.37185,32.4619,0.631993,-6.28404,5.5682,-1.6771,-2.84094,-10.435,-0.605052,0.964645,-14.2493,-2.49145,-7.22561,-13.4743,-1.88917,8.05586,-1.79479,-0.693748,3.92858,2.5842e-15,1.59028e-14,-37.0099,11.6806,-73.2664,43.1005,12.518,-41.6034,1.38383,7.12502,-14.513,-28.0886,2.5842e-15,1.59028e-14,-45.9581,-28.6132,80.9238,48.3455,7.08675,-40.188,22.2169,7.12502,-13.149,51.7823,-64.5976,-7.45393,10.0792,100.158,-33.7814,1.1206,-15.7883,-61.0935,11.2653,-29.1525,94.5817,-32.3064,-9.19657,-5.31648
1.14738,14.145,-2.31543,9.54656,-3.46673,6.20512,32.7486,0.590789,-6.07594,5.57184,-1.67511,-2.79022,-10.5534,-0.605477,0.908324,-14.4687,-2.51193,-7.09407,-13.6524,-1.91807,7.9675,-1.81954,-0.70976,3.87095,-2.78299e-15,9.54166e-15,-38.1765,11.0832,-72.6004,42.6463,11.8962,-41.5809,1.04072,7.12502,-14.4914,-28.4332,-2.78299e-15,9.54166e-15,-47.781,-29.2341,81.4472,48.2077,7.89463,-38.7906,22.8553,7.12502,-11.8018,52.5028,-65.6667,-7.98624,10.328,101.256,-33.1833,1.07225,-18.6566,-62.2297,11.2742,-29.0026,95.772,-32.1553,-9.46046,-5.70938
1.14471,14.046,-2.32222,9.88927,-3.31307,6.09964,33.0113,0.563672,-5.96568,5.58492,-1.68378,-2.735,-10.6458,-0.608789,0.912352,-14.7396,-2.52501,-7.07105,-13.8228,-1.9124,7.9894,-1.83448,-0.702826,3.87548,-1.35174e-14,-1.19271e-14,-39.3106,10.4898,-71.9223,42.0419,11.2843,-41.3829,0.933596,7.12502,-14.3006,-28.5539,-1.35174e-14,-1.19271e-14,-49.549,-29.6829,81.9263,47.9425,8.66355,-37.7128,23.0117,7.12502,-10.7622,52.716,-66.8333,-8.63404,10.5631,102.368,-33.133,1.37707,-19.5072,-63.3968,11.2189,-28.8874,96.9375,-31.7547,-9.66358,-6.62364
1.14039,13.9431,-2.32744,10.2738,-3.16183,5.99281,33.2522,0.561527,-5.87083,5.59232,-1.66103,-2.656,-10.7353,-0.597306,0.937981,-14.8411,-2.5595,-7.08606,-14.2195,-1.93203,8.0059,-1.95371,-0.710069,3.89033,8.34896e-15,3.57812e-14,-40.4372,9.94059,-71.2036,41.334,10.5576,-41.1208,0.717464,7.12502,-14.048,-28.7878,8.34896e-15,3.57812e-14,-51.4376,-30.0709,82.5303,47.6967,9.49227,-37.6853,22.7044,7.12502,-10.7358,52.4101,-68.0502,-9.19772,10.7683,103.444,-33.0095,2.06793,-18.9558,-64.635,11.1903,-28.7701,98.0712,-31.3494,-9.97246,-7.23527
1.13715,13.8606,-2.32887,10.5485,-2.97721,6.03393,33.5675,0.546619,-5.889,5.61425,-1.70261,-2.61767,-10.8305,-0.611583,1.00444,-14.8662,-2.56099,-7.0272,-14.8709,-1.87849,8.19195,-1.92015,-0.705491,3.63338,1.43125e-14,6.36111e-15,-41.6352,9.41372,-70.4951,40.6361,9.70492,-40.9112,0.897582,7.12502,-13.846,-28.6216,1.43125e-14,6.36111e-15,-53.3845,-30.2311,83.0618,47.3849,9.91309,-37.507,22.4707,7.12502,-10.5637,52.1852,-68.9214,-9.67488,10.7384,104.355,-32.8079,2.66121,-18.741,-65.5836,11.1172,-28.8201,99.0673,-31.244,-10.0601,-8.25773
1.13475,13.8171,-2.33084,10.7226,-2.71597,6.07144,33.9671,0.506706,-5.8516,5.6652,-1.75867,-2.56661,-10.9263,-0.633975,1.0609,-15.0328,-2.56963,-7.02901,-15.1513,-1.86979,8.1492,-1.98252,-0.69757,3.62407,-3.43897e-14,-6.16232e-14,-42.9316,8.86409,-69.7609,39.8862,9.01066,-41.811,1.39346,7.12502,-14.7131,-28.0644,-3.43897e-14,-6.16232e-14,-55.2267,-30.1896,83.5255,46.9755,9.97971,-36.5656,22.7045,7.12502,-9.65551,52.4632,-69.4138,-10.2641,10.7436,104.995,-32.6262,3.02475,-19.3865,-66.2869,11.0052,-28.8323,99.8566,-31.0635,-10.3164,-8.7389
1.1341,13.7278,-2.32971,10.9941,-2.54618,6.00582,34.2624,0.498235,-5.7485,5.73397,-1.73863,-2.48227,-10.9657,-0.626048,1.08865,-15.4602,-2.61915,-7.04081,-15.3214,-1.90512,8.08759,-1.97186,-0.705299,3.60613,1.78906e-14,3.35946e-14,-44.1806,8.37456,-69.0272,39.0216,8.30939,-42.8801,1.67047,7.12502,-15.7429,-27.7092,1.78906e-14,3.35946e-14,-57.0656,-30.2251,84.1354,46.4611,10.3791,-36.1376,22.6045,7.12502,-9.24254,52.3819,-70.3567,-10.9059,10.8811,105.909,-32.5381,3.41433,-20.5648,-67.5013,10.9983,-28.7708,100.977,-30.7696,-10.8955,-8.4527
1.13708,13.6345,-2.32702,11.2883,-2.35019,6.30795,34.5872,0.482815,-5.90218,5.78759,-1.8316,-2.48505,-11.0184,-0.660602,1.20272,-15.6888,-2.63507,-7.01078,-15.7737,-1.90596,7.97594,-2.0794,-0.70214,3.57208,1.31198e-14,3.29983e-14,-45.3772,7.96619,-68.3007,38.0339,7.67208,-42.0443,1.26948,7.12502,-14.9378,-28.1719,1.31198e-14,3.29983e-14,-58.9696,-30.1673,84.7618,45.9448,10.7173,-36.9306,21.9775,7.12502,-10.0077,51.7196,-71.3316,-11.7345,10.5368,106.891,-32.5586,4.07295,-21.577,-68.4865,10.7343,-29.1422,101.997,-30.7947,-11.0918,-9.00865
1.13746,13.5408,-2.32755,11.631,-2.06306,6.55427,34.9537,0.429891,-5.96256,5.73585,-1.94256,-2.45497,-11.0913,-0.704344,1.28112,-15.583,-2.66357,-7.11523,-16.4775,-1.90274,8.01699,-2.30596,-0.698656,3.61429,9.54166e-15,1.13307e-14,-46.6539,7.58093,-67.5987,37.008,7.02718,-41.0271,0.834411,7.12502,-13.9578,-28.6771,9.54166e-15,1.13307e-14,-60.8024,-29.9059,85.243,45.3785,10.5995,-37.3096,21.7771,7.12502,-10.3733,51.5012,-72.3474,-12.5436,10.2135,107.873,-32.4352,5.17354,-20.9831,-69.3881,10.3972,-29.4053,102.979,-30.8186,-11.2465,-9.49326
1.12944,13.4405,-2.33192,11.942,-1.9037,6.24383,35.1581,0.411145,-5.71789,5.82583,-1.86751,-2.31538,-11.0772,-0.678098,1.27336,-15.5933,-2.66694,-7.09365,-17.0779,-1.89138,7.93882,-2.49019,-0.693343,3.5965,-1.45113e-14,-1.66979e-14,-47.9046,7.24209,-66.994,35.9969,6.26333,-40.9929,0.818491,7.12502,-13.9248,-28.6953,-1.45113e-14,-1.66979e-14,-62.498,-29.5372,85.6191,44.7396,10.3572,-37.2672,21.593,7.12502,-10.3324,51.3192,-73.4122,-12.8651,10.5808,108.858,-32.2227,5.92232,-20.2093,-70.4576,10.5283,-29.0379,104.1,-30.6606,-11.7386,-10.3412
1.11711,13.3364,-2.34288,12.3384,-1.79529,5.45564,35.3295,0.37168,-5.1312,5.89165,-1.68372,-2.10115,-11.0943,-0.612447,1.12383,-15.756,-2.64541,-6.91924,-17.5173,-1.87139,7.79221,-2.60803,-0.688078,3.52842,-1.07344e-14,6.55989e-15,-49.1517,6.80992,-66.4378,34.977,5.72291,-40.6772,0.767619,7.12502,-13.6205,-28.7668,-1.07344e-14,6.55989e-15,-64.0526,-29.0472,85.8037,43.9868,9.97342,-37.4926,21.0077,7.12502,-10.5498,50.7229,-74.5832,-12.8601,11.6735,109.784,-32.1031,5.8072,-21.4062,-71.8249,11.0193,-28.1927,105.318,-30.4398,-12.3659,-12.1207
1.10287,13.1869,-2.35403,12.804,-1.68077,4.42286,35.5139,0.357177,-4.36401,5.90783,-1.38898,-1.76889,-11.1767,-0.500152,0.961683,-16.0666,-2.70567,-6.92457,-17.7545,-1.92948,7.72102,-2.6348,-0.709413,3.50751,-4.77083e-15,-2.04748e-14,-50.4988,6.46666,-65.8526,34.0387,5.29192,-40.4762,0.34594,7.12502,-13.4268,-29.2013,-4.77083e-15,-2.04748e-14,-65.3719,-28.3885,85.8848,43.0486,9.4096,-37.6324,20.1878,7.12502,-10.6847,49.8961,-76.0882,-12.7506,13.0791,110.929,-32.004,5.70866,-22.505,-73.6035,11.7332,-27.0949,106.86,-30.1932,-13.2364,-13.2035
1.09351,13.0829,-2.35564,13.031,-1.5677,3.88429,35.7925,0.393021,-3.99398,5.97919,-1.19225,-1.55836,-11.2142,-0.421665,0.914786,-16.2069,-2.78267,-7.04695,-18.1182,-1.98282,7.81145,-2.71918,-0.727635,3.5604,-5.96354e-16,6.16232e-15,-51.8606,6.24758,-65.3564,33.0397,4.84859,-40.3222,-0.317252,7.12502,-13.2784,-29.8743,-5.96354e-16,6.16232e-15,-66.8467,-27.834,86.0656,42.3103,8.99,-37.4652,19.9017,7.12502,-10.5234,49.6183,-76.9696,-12.9041,13.7636,111.832,-31.9426,6.23903,-22.4678,-74.5944,12.2383,-26.4694,108.02,-30.1844,-13.9358,-13.9679
1.09349,13.0301,-2.35287,13.2515,-1.35884,4.20762,36.0273,0.398019,-4.15603,6.02273,-1.25822,-1.594,-11.2457,-0.444615,0.987953,-15.998,-2.8053,-7.07921,-18.7085,-1.99122,7.87116,-2.92682,-0.735153,3.59641,-1.37161e-14,-1.43125e-14,-53.284,6.00897,-64.9472,32.045,4.4318,-39.8209,-0.609675,7.12502,-12.7952,-30.1976,-1.37161e-14,-1.43125e-14,-68.4664,-27.3326,86.226,41.8407,8.72798,-37.0683,19.9564,7.12502,-10.1406,49.692,-77.5655,-13.7473,13.4798,112.514,-31.8825,6.97083,-22.6762,-75.0525,11.9739,-26.759,108.609,-30.2129,-14.2184,-14.7142
1.09736,12.9477,-2.34801,13.596,-1.00645,5.01408,36.2736,0.36042,-4.57539,5.99485,-1.48329,-1.69084,-11.3478,-0.527658,1.19493,-15.8689,-2.82728,-7.01817,-19.2084,-2.03679,7.69606,-3.10122,-0.760021,3.53984,5.36719e-15,1.76918e-14,-54.7631,5.7403,-64.429,31.3088,3.85636,-39.021,-0.953091,7.12502,-12.0239,-30.5877,5.36719e-15,1.76918e-14,-69.6746,-26.4344,85.9068,41.3807,7.97652,-36.6343,19.8919,7.12502,-9.72181,49.6475,-78.503,-15.1389,12.7004,113.414,-31.8128,7.90628,-22.8684,-75.7566,11.1013,-27.5529,109.222,-30.089,-14.309,-14.8324
1.09559,12.8524,-2.34512,14.0145,-0.568116,5.30439,36.4344,0.24084,-4.57219,6.00982,-1.6337,-1.68679,-11.3837,-0.592003,1.25857,-16.0686,-2.84081,-6.83292,-19.4728,-2.07866,7.4981,-3.15942,-0.784209,3.44861,-1.32192e-14,-4.77083e-15,-56.0532,5.44254,-63.974,30.5345,3.20071,-38.1569,-1.31504,7.12502,-11.1906,-30.9966,-1.32192e-14,-4.77083e-15,-70.5072,-25.4564,85.2913,40.7299,7.23656,-36.4337,19.5881,7.12502,-9.52823,49.3527,-79.5486,-16.2412,12.5881,114.347,-31.7669,8.59784,-22.8004,-76.7316,10.4951,-27.7901,109.978,-29.9899,-14.303,-16.0273
1.08795,12.7598,-2.3475,14.3615,-0.270979,5.16839,36.6146,0.189035,-4.32207,6.07902,-1.59662,-1.60204,-11.3797,-0.58209,1.20354,-16.1584,-2.90334,-6.89021,-19.8494,-2.12562,7.5673,-3.25765,-0.803077,3.48547,-1.72943e-14,-3.57812e-15,-57.1578,5.10865,-63.654,29.3616,2.95693,-37.9804,-1.01675,7.12502,-11.0203,-30.7075,-1.72943e-14,-3.57812e-15,-71.4128,-24.8498,85.0925,39.9777,7.31454,-36.6001,19.1688,7.12502,-9.68882,48.9259,-80.5889,-16.8685,13.0159,115.21,-31.6126,9.10966,-22.2665,-77.7946,10.3877,-27.5579,110.795,-29.7024,-14.7564,-16.4875
1.08237,12.6835,-2.35589,14.6712,-0.0521186,5.18298,36.9094,0.195936,-4.28269,6.09453,-1.57097,-1.49574,-11.4689,-0.567942,1.2878,-15.985,-2.93198,-6.96591,-20.4075,-2.14927,7.52413,-3.45408,-0.810764,3.49635,1.19271e-15,4.77083e-15,-58.2994,4.79905,-63.296,28.3252,3.07921,-38.5138,-0.533261,7.12502,-11.5348,-30.1959,1.19271e-15,4.77083e-15,-72.2402,-24.0164,84.7676,39.3676,7.24632,-36.5281,18.5319,7.12502,-9.61934,48.2923,-81.7,-17.531,13.396,115.978,-31.4178,9.16255,-22.1335,-78.7834,10.2234,-27.4321,111.496,-29.095,-15.7934,-14.9015
1.0779,12.6058,-2.36361,15.0304,0.1833,5.22979,37.1489,0.192573,-4.27086,6.09468,-1.5637,-1.37615,-11.5529,-0.561155,1.4083,-15.911,-2.93763,-6.95199,-20.9274,-2.16574,7.3545,-3.63063,-0.815071,3.45095,-9.93923e-17,4.77083e-15,-59.4463,4.38183,-62.781,27.8529,2.90721,-38.2807,-0.533357,7.12502,-11.31,-30.2084,-9.93923e-17,4.77083e-15,-72.7112,-22.8535,83.9262,38.8111,6.64468,-36.4912,17.9207,7.12502,-9.58374,47.6827,-82.8755,-18.2354,13.8126,116.755,-31.2474,8.72231,-22.7321,-79.8474,10.0021,-27.332,112.202,-28.4633,-16.8843,-13.0233
1.07001,12.5213,-2.37114,15.4082,0.493652,5.1362,37.3328,0.153143,-4.10382,6.1321,-1.53442,-1.24077,-11.58,-0.551136,1.45491,-16.0679,-2.98177,-6.90665,-21.2653,-2.22116,7.257,-3.71413,-0.839185,3.41669,1.963e-14,-7.20594e-15,-60.4025,3.83378,-62.2372,27.3838,2.32993,-37.1041,-1.09431,7.12502,-10.1751,-30.8283,1.963e-14,-7.20594e-15,-72.9503,-21.7614,83.0044,38.1917,5.82809,-36.791,17.595,7.12502,-9.87298,47.3435,-83.9025,-18.8492,14.3899,117.484,-31.1881,8.39729,-23.0726,-80.9542,9.82917,-27.0973,112.922,-28.0423,-17.6818,-12.2513
1.06166,12.4403,-2.38093,15.7628,0.814448,5.11813,37.5901,0.110343,-3.98393,6.15224,-1.5358,-1.14278,-11.6508,-0.55195,1.4992,-16.073,-3.00839,-6.89452,-21.6895,-2.24089,7.26678,-3.84503,-0.848694,3.4262,4.87022e-15,-2.48481e-15,-61.2218,3.22262,-61.7357,26.6518,2.07415,-36.4183,-1.51586,7.12502,-9.51342,-31.2811,4.87022e-15,-2.48481e-15,-73.0932,-20.6909,82.0374,37.6726,4.95186,-36.9552,17.5852,7.12502,-10.0314,47.3261,-84.9433,-19.4126,14.9044,118.165,-31.1415,8.22036,-23.0486,-81.9076,9.58103,-26.9753,113.538,-27.8247,-18.1616,-11.7831
1.05502,12.3663,-2.38528,16.0376,1.02004,5.06621,37.9046,0.124424,-3.84645,6.14604,-1.4695,-1.08361,-11.7759,-0.522179,1.46499,-15.8201,-3.00777,-6.76416,-22.233,-2.26454,7.17965,-4.05362,-0.870009,3.38968,-2.79541e-15,-4.82053e-15,-62.1175,2.524,-61.291,26.0176,2.01192,-36.328,-1.3065,7.12502,-9.42625,-31.0757,-2.79541e-15,-4.82053e-15,-73.1638,-19.6258,80.8637,37.3103,4.07583,-36.7539,17.5208,7.12502,-9.83717,47.271,-85.8503,-19.8289,15.4298,118.82,-31.2167,7.90378,-23.3179,-82.6735,9.43597,-26.8621,114.1,-27.799,-18.3878,-11.6905
1.04925,12.2924,-2.38807,16.3286,1.14046,5.13278,38.1311,0.193517,-3.84563,6.20007,-1.38364,-1.03895,-11.7967,-0.482625,1.47691,-15.7744,-3.05913,-6.81847,-22.5939,-2.31093,7.21427,-4.16944,-0.889009,3.41739,1.26477e-14,9.77772e-15,-62.822,1.87786,-60.9769,25.5324,1.5791,-36.4908,-1.22412,7.12502,-9.58339,-30.9862,1.26477e-14,9.77772e-15,-73.146,-18.6749,79.8367,37.1322,3.62648,-36.751,16.747,7.12502,-9.83445,46.4973,-86.7073,-20.2891,15.7992,119.495,-31.3629,7.78857,-23.4141,-83.4007,9.29508,-26.9733,114.633,-27.905,-18.3683,-11.3183
1.04406,12.2192,-2.39493,16.7531,1.26338,5.17707,38.2665,0.249696,-3.85647,6.21756,-1.3075,-0.937929,-11.8248,-0.446716,1.55981,-15.8484,-3.08993,-7.04221,-22.849,-2.29101,7.32922,-4.23584,-0.861937,3.49768,-1.77415e-14,-8.94531e-16,-63.3268,1.17499,-60.4973,25.0639,1.1698,-36.7294,-1.50467,7.12502,-9.81358,-31.256,-1.77415e-14,-8.94531e-16,-73.0095,-17.6334,78.9729,37.0446,3.36574,-36.7985,16.0043,7.12502,-9.88022,45.7525,-87.7623,-20.6439,16.1477,120.123,-31.34,7.98243,-22.776,-84.2729,9.08818,-27.1688,115.09,-28.0743,-18.0754,-10.649
1.04058,12.1586,-2.40116,17.1316,1.28794,5.21094,38.4426,0.322836,-3.8845,6.22118,-1.23059,-0.906308,-11.8841,-0.409568,1.57659,-15.8992,-3.08571,-7.07297,-23.0842,-2.25394,7.41016,-4.30326,-0.841225,3.53456,-9.14409e-15,7.85199e-15,-63.7306,0.426533,-60.147,24.5909,0.678439,-36.9784,-2.07664,7.12502,-10.0538,-31.8165,-9.14409e-15,7.85199e-15,-72.7491,-16.4889,77.8818,37.1669,2.93704,-36.2021,16.2725,7.12502,-9.30479,46.0471,-88.7261,-20.8066,16.4366,120.621,-31.2758,8.12402,-22.1269,-85.0238,8.93332,-27.4444,115.44,-28.2723,-17.6329,-9.31535
1.03748,12.1053,-2.40453,17.4125,1.28748,5.24061,38.6725,0.384819,-3.848,6.27261,-1.15234,-0.939066,-11.9104,-0.375178,1.48883,-15.9735,-3.1371,-7.02966,-23.3391,-2.30124,7.48949,-4.36866,-0.868691,3.55707,-1.90336e-14,-4.32357e-15,-63.937,-0.622993,-59.6552,24.1391,0.174388,-37.1756,-2.06418,7.12502,-10.244,-31.7947,-1.90336e-14,-4.32357e-15,-72.3609,-15.3945,76.7401,37.5512,2.62978,-35.2649,17.074,7.12502,-8.40044,46.8869,-89.4299,-20.9043,16.6464,121.058,-31.3666,8.13645,-22.071,-85.5579,8.80402,-27.8109,115.701,-28.7771,-16.8575,-8.35217
1.03503,12.0559,-2.40506,17.6367,1.21302,5.4732,38.9402,0.491647,-4.03018,6.34501,-1.10987,-0.993716,-11.9173,-0.350166,1.50619,-15.8846,-3.16098,-6.87247,-23.7691,-2.36346,7.36155,-4.51982,-0.907926,3.49906,6.65929e-15,-2.83268e-15,-63.9221,-1.80716,-58.9829,23.7442,-0.305491,-37.1686,-1.86731,7.12502,-10.2373,-31.5982,6.65929e-15,-2.83268e-15,-71.8435,-14.3316,75.8473,37.9664,2.5861,-35.1045,17.4473,7.12502,-8.24567,47.2664,-90.1413,-21.0439,16.5637,121.509,-31.4584,8.14638,-21.9766,-85.9256,8.61159,-28.4711,115.886,-29.4934,-15.8247,-7.05612
1.03152,12.0172,-2.4036,17.7629,1.21198,5.65329,39.3898,0.559542,-4.16572,6.36386,-1.10256,-1.00715,-12.046,-0.338583,1.55913,-15.7153,-3.13461,-6.84028,-24.1389,-2.33288,7.32956,-4.66556,-0.895296,3.49441,-7.25564e-15,-8.74653e-15,-63.8442,-2.95768,-58.3386,23.444,-0.699884,-36.9899,-1.97677,7.12502,-10.0649,-31.7161,-7.25564e-15,-8.74653e-15,-71.2535,-13.2445,75.015,38.4184,2.47372,-35.2812,17.2863,7.12502,-8.41615,47.0986,-90.6645,-21.1078,16.4905,121.887,-31.5644,7.97761,-21.8776,-86.1382,8.35414,-29.0936,115.982,-30.3436,-14.3791,-6.83979
1.02943,11.9863,-2.39913,17.8283,1.24065,5.67405,39.8714,0.603121,-4.13753,6.40911,-1.05897,-1.00799,-12.1594,-0.316953,1.52431,-15.7133,-3.10292,-6.86826,-24.3631,-2.26549,7.38246,-4.74075,-0.85942,3.52284,1.26228e-14,5.76476e-15,-63.6135,-4.16283,-57.8241,23.1584,-1.09722,-36.9256,-2.10178,7.12502,-10.0028,-31.8441,1.26228e-14,5.76476e-15,-70.4636,-12.2813,74.2562,38.9167,2.34213,-35.5022,17.2439,7.12502,-8.62948,47.0476,-90.8483,-21.0097,16.5367,122.118,-31.8272,7.58756,-21.7946,-86.2156,8.07844,-29.5257,115.973,-31.0527,-12.9247,-7.78871
1.03004,11.9563,-2.39652,18.0428,1.20331,5.58127,40.156,0.65517,-4.0208,6.47282,-0.957174,-0.995413,-12.1885,-0.275406,1.43234,-15.7779,-3.09251,-6.77895,-24.631,-2.25732,7.30737,-4.8221,-0.856871,3.4893,-3.18055e-15,-1.89839e-14,-63.1105,-5.54135,-57.2409,22.8656,-1.48519,-37.3233,-2.27739,7.12502,-10.3865,-32.0009,-3.18055e-15,-1.89839e-14,-69.3399,-11.2269,73.5679,39.451,2.28724,-36.1744,16.8925,7.12502,-9.27808,46.6683,-91.0761,-20.7025,16.7497,122.218,-32.1214,6.90393,-21.995,-86.4246,7.83559,-29.788,116.047,-31.6805,-11.714,-6.35451
1.03111,11.9356,-2.39451,18.3394,1.18017,5.42948,40.4304,0.695077,-3.85545,6.46521,-0.847686,-0.953302,-12.2966,-0.230064,1.34407,-15.7088,-3.09141,-6.67002,-24.9921,-2.27694,7.20144,-4.95189,-0.871128,3.44566,8.94531e-15,2.48481e-15,-62.5075,-6.79094,-56.8205,22.6898,-2.06669,-38.0883,-2.61222,7.12502,-11.1244,-32.2974,8.94531e-15,2.48481e-15,-68.009,-10.0418,72.8724,40.0412,2.47045,-35.8766,16.0031,7.12502,-8.99071,45.7915,-91.4017,-20.2544,17.0571,122.252,-32.3465,5.94296,-22.5413,-86.5713,7.56205,-29.907,116.178,-32.3482,-10.6811,-2.69364
1.03261,11.9295,-2.38607,18.5376,1.14478,5.22156,40.7635,0.729526,-3.67153,6.44938,-0.737866,-0.899786,-12.4325,-0.185127,1.25798,-15.4737,-3.03337,-6.61179,-25.4338,-2.21582,7.11723,-5.13595,-0.843575,3.42249,-8.15017e-15,-1.32192e-14,-61.747,-8.05844,-56.4455,22.4683,-2.57879,-38.5777,-2.83023,7.12502,-11.5964,-32.4894,-8.15017e-15,-1.32192e-14,-66.6289,-8.87615,72.3031,40.7077,2.69867,-34.5264,15.1731,7.12502,-7.68765,45.0134,-91.5088,-19.6801,17.3323,122.218,-32.541,5.03347,-22.549,-86.5451,7.26669,-29.9015,116.206,-33.3971,-9.5933,-2.17524
1.03723,11.9387,-2.36976,18.7274,1.04338,5.12225,41.0412,0.784451,-3.59634,6.45496,-0.65323,-0.904398,-12.5215,-0.149081,1.1758,-15.043,-2.93156,-6.41113,-26.0734,-2.12434,6.98518,-5.41831,-0.814291,3.36647,-7.95139e-16,-8.15017e-15,-60.6722,-9.2713,-56.3571,22.0674,-3.0394,-38.8669,-2.79838,7.12502,-11.8753,-32.4416,-7.95139e-16,-8.15017e-15,-64.9801,-7.596,71.8293,41.1649,2.37721,-34.2014,14.8297,7.12502,-7.37398,44.6812,-91.4706,-19.0894,17.4225,122.092,-32.7217,4.17007,-22.3181,-86.425,6.82382,-29.9422,116.049,-34.6446,-8.40845,-3.92413
1.03809,11.9579,-2.35501,18.8852,0.926187,4.93385,41.4269,0.87001,-3.48153,6.42431,-0.521486,-0.913436,-12.6889,-0.0926376,1.04663,-14.5371,-2.85614,-6.15824,-26.8084,-2.064,6.91178,-5.74188,-0.809749,3.32353,-4.77083e-15,-9.93923e-17,-59.4489,-10.2601,-56.7552,21.7636,-3.72565,-39.1487,-3.00453,7.12502,-12.147,-32.6319,-4.77083e-15,-9.93923e-17,-63.0562,-6.30015,71.4841,41.5752,2.305,-34.4936,14.7575,7.12502,-7.65603,44.599,-91.3517,-18.3375,17.6031,121.891,-32.8884,3.34312,-21.9153,-86.2414,6.49587,-29.7857,115.796,-35.571,-7.39522,-4.71679
1.03763,11.9806,-2.34981,19.1499,0.834898,4.43299,41.8227,0.91805,-3.14807,6.29884,-0.333688,-0.844679,-12.9733,-0.0184632,0.863052,-14.1093,-2.78762,-6.06965,-27.3301,-1.96918,6.98244,-5.98237,-0.780222,3.35018,-1.13307e-14,-1.77912e-14,-58.0217,-10.9458,-57.4804,21.4406,-4.61449,-39.1959,-3.23836,7.12502,-12.1925,-32.863,-1.13307e-14,-1.77912e-14,-60.9625,-5.01091,71.2992,42.039,2.89279,-33.9828,14.7719,7.12502,-7.16294,44.6307,-91.3644,-17.1747,18.1687,121.587,-32.916,1.98112,-21.835,-86.3607,6.34176,-29.2383,115.572,-36.1065,-6.52572,-5.13368
1.03688,12.0084,-2.34395,19.5468,0.724135,4.04092,41.9913,0.991943,-2.94245,6.16042,-0.159968,-0.789811,-13.1965,0.051988,0.736925,-13.6093,-2.73094,-6.02439,-27.8146,-1.89354,7.04066,-6.22155,-0.757033,3.38019,-1.98785e-16,9.83984e-15,-56.3559,-11.7424,-58.1202,20.7813,-4.90114,-39.0509,-2.75443,7.12502,-12.0527,-32.3873,-1.98785e-16,9.83984e-15,-58.6609,-3.77811,71.2876,42.5177,3.8365,-33.1119,15.1742,7.12502,-6.32228,45.0598,-91.5282,-16.0365,18.5827,121.257,-32.8973,0.8089,-21.6776,-86.5905,6.02266,-28.7095,115.282,-36.537,-5.6366,-6.03263
1.03559,12.0485,-2.33352,19.9104,0.651683,3.82171,42.0722,1.07831,-2.84505,6.06758,-0.0143624,-0.755319,-13.3359,0.112784,0.657191,-13.2225,-2.71556,-6.0021,-28.2377,-1.86291,7.12331,-6.42142,-0.753966,3.4199,3.37934e-15,-2.98177e-16,-54.4876,-12.4839,-58.9538,20.2342,-4.98024,-38.5894,-3.50182,7.12502,-11.6077,-33.1603,3.37934e-15,-2.98177e-16,-56.0731,-2.37792,71.329,42.9756,4.68607,-32.5611,16.1854,7.12502,-5.79043,46.0863,-91.5461,-15.0823,18.7638,120.861,-32.912,-0.293403,-21.7837,-86.5928,5.53187,-28.2799,114.852,-36.9693,-4.53113,-7.49263
1.03632,12.1022,-2.31614,20.1084,0.56505,3.65578,42.167,1.13779,-2.73915,6.07107,0.0957573,-0.774828,-13.3656,0.155784,0.529916,-13.0871,-2.75135,-5.97099,-28.5519,-1.87483,7.29959,-6.54274,-0.77585,3.48424,2.38542e-15,6.65929e-15,-52.2595,-13.2068,-59.9779,19.5112,-4.66911,-38.1557,-3.44049,7.12502,-11.1894,-33.1221,2.38542e-15,6.65929e-15,-53.0948,-0.835174,71.4138,43.0616,5.31654,-32.2083,16.4858,7.12502,-5.44988,46.3958,-91.245,-14.1553,18.7742,120.372,-32.9702,-1.43725,-22.1267,-86.2409,5.07499,-27.8866,114.329,-37.4218,-3.64008,-8.36327
1.04039,12.1632,-2.2932,20.224,0.43001,3.51893,42.237,1.16081,-2.61137,6.06528,0.157806,-0.877919,-13.3967,0.176747,0.321898,-12.8273,-2.78984,-5.81667,-28.8591,-1.91183,7.45788,-6.6807,-0.825185,3.5232,1.98785e-15,6.55989e-15,-49.7855,-13.7799,-61.2167,18.622,-3.86767,-37.7273,-2.94321,7.12502,-10.7762,-32.6468,1.98785e-15,6.55989e-15,-49.8728,0.463698,71.6838,42.7794,5.93437,-32.2156,15.74,7.12502,-5.45688,45.6498,-90.7583,-13.2773,18.669,119.831,-33.0831,-2.40005,-22.6013,-85.7117,4.66854,-27.5594,113.747,-37.839,-2.78446,-9.16528
1.0446,12.2259,-2.27287,20.3692,0.385631,3.3322,42.2044,1.10528,-2.38875,6.01984,0.166525,-0.99407,-13.4415,0.171294,0.0753462,-12.369,-2.77315,-5.68803,-29.2021,-1.86192,7.67702,-6.86556,-0.836882,3.59054,-3.97569e-16,5.66536e-15,-47.0936,-14.1796,-62.6181,17.6313,-2.49941,-37.0146,-2.20596,7.12502,-10.0888,-31.9441,-3.97569e-16,5.66536e-15,-46.5448,1.60583,72.1285,42.5696,6.78366,-32.1049,15.3063,7.12502,-5.34998,45.2188,-90.2669,-12.4272,18.5909,119.239,-33.13,-3.24364,-22.8132,-85.2787,4.18891,-27.1478,113.136,-38.1566,-2.00502,-9.4953
1.04316,12.301,-2.25098,20.3909,0.289351,3.13424,42.2291,1.12484,-2.34377,5.94423,0.196984,-1.04463,-13.5388,0.182447,-0.0178718,-11.9526,-2.74954,-5.70785,-29.4215,-1.78082,7.95394,-7.00178,-0.821938,3.69915,2.5842e-15,1.78906e-15,-44.2281,-14.0829,-64.2952,16.8388,-0.815253,-35.3923,-2.07141,7.12502,-8.5234,-31.8794,2.5842e-15,1.78906e-15,-43.1735,2.84015,72.7495,42.3351,7.49395,-32.1815,15.243,7.12502,-5.42395,45.1535,-89.5623,-11.4694,18.4521,118.551,-33.1469,-4.09273,-23.0607,-84.6756,3.92085,-26.7741,112.438,-38.4155,-1.57854,-9.14821
1.04302,12.3903,-2.2227,20.2483,0.118436,3.03385,42.4048,1.18666,-2.43945,5.79856,0.215717,-1.06376,-13.7654,0.195438,-0.000164555,-11.7845,-2.75334,-5.98002,-29.2887,-1.71517,8.27857,-6.9737,-0.786779,3.85362,-6.75868e-15,-1.78906e-15,-41.3029,-13.3053,-66.2143,16.2676,1.05849,-32.3948,-4.24663,7.12502,-5.62988,-34.1518,-6.75868e-15,-1.78906e-15,-39.8021,4.00361,73.6432,41.853,8.07934,-32.6261,14.984,7.12502,-5.85322,44.8831,-88.5905,-10.5587,18.1322,117.787,-33.1969,-4.79488,-23.2389,-83.7655,3.78375,-26.5743,111.669,-38.695,-1.26434,-8.4899
1.04309,12.482,-2.19996,20.1727,0.0701206,2.89686,42.3955,1.16107,-2.43568,5.6946,0.18369,-1.05841,-13.8848,0.182222,0.0181348,-11.7857,-2.76368,-6.16864,-29.1066,-1.67929,8.51028,-6.9045,-0.765961,3.95857,-9.34288e-15,-5.96354e-16,-38.1957,-11.4745,-68.7143,16.402,1.9961,-31.5942,-3.78878,7.12502,-4.85688,-33.7131,-9.34288e-15,-5.96354e-16,-36.1857,4.90884,74.7337,41.3429,8.90822,-32.6977,15.1253,7.12502,-5.92238,45.0226,-87.722,-9.72766,17.8756,116.989,-33.2028,-5.21525,-22.9129,-83.015,3.58562,-26.3463,110.877,-38.8095,-0.865717,-8.13244
1.04156,12.5716,-2.18334,20.1115,0.0882948,2.73833,42.1189,1.06654,-2.33635,5.73092,0.112042,-1.11475,-13.7538,0.145442,-0.0594238,-11.9249,-2.76887,-6.15766,-28.9731,-1.6583,8.64846,-6.83497,-0.764029,3.99698,8.34896e-15,1.7344e-14,-34.9606,-8.86172,-71.6045,17.0604,1.98722,-30.435,-3.78891,7.12502,-3.73752,-33.7359,8.34896e-15,1.7344e-14,-32.2906,5.25563,75.9453,41.1072,10.151,-33.0916,16.0202,7.12502,-6.30269,45.9065,-86.9262,-8.9639,17.7083,116.182,-33.1643,-5.72334,-23.0488,-82.3517,3.41601,-26.131,110.081,-38.8722,-0.168925,-8.9747
1.03665,12.6646,-2.16889,19.8702,0.131559,2.59216,41.937,0.966645,-2.25651,5.77263,0.0233868,-1.16358,-13.6464,0.102513,-0.111851,-12.0842,-2.72677,-6.19682,-28.7909,-1.57764,8.73648,-6.75156,-0.722247,4.02463,2.08724e-15,-1.09083e-14,-31.9745,-5.29441,-74.5156,18.5008,0.570397,-32.2736,-1.62859,7.12502,-5.5129,-31.5369,2.08724e-15,-1.09083e-14,-28.4647,5.1568,77.2725,41.219,11.2369,-34.0265,15.9999,7.12502,-7.20513,45.8573,-85.9265,-8.24626,17.5436,115.37,-33.155,-6.16669,-23.1418,-81.4671,3.40178,-25.9544,109.272,-38.8634,0.524097,-10.2293
1.03106,12.7629,-2.15305,19.5801,0.187135,2.38537,41.6519,0.853163,-2.1552,5.80514,-0.0650819,-1.18091,-13.5166,0.0586064,-0.140657,-12.095,-2.68535,-6.33027,-28.6491,-1.47875,8.92483,-6.7024,-0.671849,4.10585,-8.27752e-16,4.56584e-16,-29.3397,-1.35672,-76.9274,21.0318,-1.57585,-31.832,-2.1072,7.12502,-5.08652,-32.0262,-8.27752e-16,4.56584e-16,-24.8471,4.57232,78.6221,41.7274,12.2426,-34.6242,14.7701,7.12502,-7.78209,44.6069,-84.8124,-7.48952,17.4492,114.505,-33.1426,-6.52987,-22.876,-80.5242,3.50401,-25.7096,108.471,-38.836,0.882639,-11.0168
1.02342,12.8644,-2.14191,19.2993,0.17928,2.09038,41.2887,0.787898,-2.10967,5.81324,-0.109818,-1.14441,-13.389,0.0356135,-0.101492,-12.0784,-2.71099,-6.35163,-28.5964,-1.50847,9.00249,-6.68205,-0.691586,4.13466,6.31141e-15,6.73383e-15,-26.8542,2.45052,-78.67,24.0248,-4.24026,-31.031,-1.91591,7.12502,-4.31305,-31.852,6.31141e-15,6.73383e-15,-21.4251,3.40245,79.916,43.0762,12.8508,-33.5371,16.7507,7.12502,-6.73275,46.6237,-83.7159,-6.59846,17.4746,113.57,-33.0317,-7.07913,-22.55,-79.6394,3.73433,-25.3607,107.663,-38.7099,0.855478,-10.9068
1.01613,12.9662,-2.13747,19.1052,0.202692,1.81338,40.8225,0.684119,-2.09302,5.78946,-0.208528,-1.08705,-13.2623,-0.00940279,-0.000225838,-12.3058,-2.73776,-6.42597,-28.3845,-1.53132,9.07959,-6.57056,-0.697025,4.16416,-9.24349e-15,-5.56597e-15,-24.4118,5.98816,-79.8142,27.9184,-7.99765,-32.1679,-1.86812,7.12502,-5.41085,-31.779,-9.24349e-15,-5.56597e-15,-18.1549,1.71713,81.0247,44.9024,13.4488,-32.6607,17.7672,7.12502,-5.88662,47.6654,-82.7622,-5.77093,17.5435,112.61,-32.892,-7.70285,-22.1868,-78.8837,3.88134,-24.9999,106.822,-38.4891,0.780067,-10.3655
1.00904,13.0738,-2.13568,18.8749,0.294939,1.65547,40.3585,0.48736,-2.06649,5.72188,-0.428915,-1.09924,-13.1846,-0.107265,0.0732508,-12.4805,-2.67069,-6.60274,-28.1146,-1.39889,9.24455,-6.45697,-0.620557,4.23886,-3.47873e-15,-8.94531e-16,-22.0798,8.94799,-80.4422,32.2141,-10.3229,-30.6684,-4.30645,7.12502,-3.96297,-34.2493,-3.47873e-15,-8.94531e-16,-15.1081,-0.636232,81.7312,47.3061,13.8601,-31.5194,18.5168,7.12502,-4.78471,48.4428,-81.7847,-5.15571,17.5836,111.613,-32.7697,-8.32473,-21.7847,-78.0461,3.84668,-24.6929,105.892,-38.2076,0.681701,-9.89573
1.00193,13.1852,-2.13309,18.5032,0.383761,1.45795,40.0481,0.299403,-2.00301,5.62229,-0.628391,-1.10399,-13.1948,-0.196871,0.124603,-12.8858,-2.64689,-6.79213,-27.6668,-1.3091,9.47394,-6.24419,-0.562108,4.3296,-5.56597e-15,-9.93923e-16,-19.9005,12.1403,-80.8898,36.6329,-14.0974,-32.7435,-1.86421,7.12502,-5.96657,-31.7602,-5.56597e-15,-9.93923e-16,-12.0989,-3.49945,82.0555,50.0395,14.5912,-30.8662,19.2971,7.12502,-4.15396,49.2364,-80.6482,-4.52993,17.6954,110.547,-32.5988,-8.98939,-21.4165,-77.0467,3.79846,-24.2863,104.926,-37.8421,0.656217,-9.80387
0.999552,13.3027,-2.12575,18.1305,0.397808,1.37404,39.6552,0.137684,-2.03574,5.52218,-0.837455,-1.12933,-13.1746,-0.287578,0.207337,-13.5374,-2.64958,-6.93316,-27.0653,-1.26997,9.62554,-5.94387,-0.52205,4.37901,-5.76476e-15,2.5842e-15,-17.3935,13.8881,-80.4853,41.4451,-13.2815,-30.7754,-4.75771,7.12502,-4.0663,-34.6986,-5.76476e-15,2.5842e-15,-9.07544,-6.33344,81.8894,53.1233,15.3106,-31.0462,19.4439,7.12502,-4.32778,49.3796,-79.4886,-3.95696,17.6829,109.446,-32.4332,-9.56569,-21.0847,-75.9445,3.67386,-24.0111,103.89,-37.4688,0.746743,-9.85141
0.998768,13.4307,-2.11424,17.7162,0.350353,1.18587,39.1486,-0.0236674,-2.00785,5.43245,-1.01889,-1.15112,-13.1024,-0.370151,0.248767,-13.936,-2.59993,-7.11116,-26.564,-1.16191,9.78808,-5.72208,-0.450173,4.44521,-9.54166e-15,-1.19271e-15,-14.8279,16.2944,-79.9532,46.1867,-14.0781,-30.4062,-6.91938,7.12502,-3.70976,-36.8668,-9.54166e-15,-1.19271e-15,-6.09394,-8.86109,81.2439,56.3916,15.2216,-31.4692,18.0506,7.12502,-4.7362,47.9777,-78.1377,-3.26992,17.7712,108.214,-32.3177,-10.1619,-20.4751,-74.7293,3.64133,-23.6575,102.796,-37.1216,0.914144,-9.91692
0.997102,13.5658,-2.0993,17.1769,0.21005,1.0145,38.7264,-0.108385,-2.10685,5.32289,-1.15415,-1.12818,-13.0767,-0.426855,0.38447,-14.0485,-2.51182,-7.20631,-26.2642,-1.04722,9.78252,-5.61626,-0.381545,4.45031,1.63003e-14,1.11319e-14,-12.0959,18.704,-79.0164,50.4287,-14.6639,-34.3588,-4.42669,7.12502,-7.52591,-34.2728,1.63003e-14,1.11319e-14,-3.15052,-11.2097,80.2583,60.0337,15.3049,-30.9957,17.793,7.12502,-4.27899,47.7298,-76.6011,-2.55392,17.8398,106.887,-32.1804,-10.821,-19.7767,-73.3149,3.69317,-23.3408,101.641,-36.7925,1.1683,-10.4256
0.997475,13.7091,-2.08117,16.5496,0.0977115,0.86565,38.3642,-0.203382,-2.17381,5.20881,-1.28817,-1.09026,-13.0756,-0.483661,0.518676,-14.2728,-2.4352,-7.25032,-25.8563,-0.969729,9.67897,-5.45911,-0.32811,4.41,7.95139e-16,5.56597e-15,-9.19508,20.6353,-77.6323,54.6631,-13.3462,-34.0157,-4.39258,7.12502,-7.19473,-34.2503,7.95139e-16,5.56597e-15,-0.17879,-13.2738,78.9426,63.7916,15.6146,-32.1174,17.0459,7.12502,-5.36206,46.958,-74.8762,-1.94055,17.9359,105.463,-32.1727,-11.4093,-18.9371,-71.7255,3.5971,-22.9844,100.438,-36.4483,1.22757,-10.3689
0.999418,13.8575,-2.06761,15.9896,0.0349366,0.647466,37.9063,-0.349336,-2.07189,5.07506,-1.41876,-1.06884,-13.0659,-0.546308,0.543571,-14.4301,-2.32043,-7.12965,-25.5172,-0.884419,9.40431,-5.34114,-0.278957,4.28759,4.77083e-15,2.38542e-15,-6.09296,22.0785,-75.9646,59.1259,-13.2874,-35.2608,-3.65214,7.12502,-8.39651,-33.4652,4.77083e-15,2.38542e-15,2.83698,-14.8891,77.3332,67.5351,15.6706,-31.8652,17.0402,7.12502,-5.11853,46.9583,-73.1619,-1.4037,18.1947,103.957,-32.1892,-12.1149,-18.2062,-70.2498,3.39612,-22.5078,99.2289,-36.0276,1.10902,-10.0176
1.00081,13.997,-2.0554,15.3789,-0.129409,0.373486,37.4905,-0.424623,-2.00595,4.94835,-1.47265,-1.00806,-13.0603,-0.573759,0.596608,-14.6821,-2.19136,-7.16459,-25.0873,-0.735876,9.2651,-5.18094,-0.188384,4.2355,4.77083e-15,5.1684e-15,-2.71416,23.2385,-73.9953,63.1428,-12.5206,-35.4317,-3.06238,7.12502,-8.56141,-32.8688,4.77083e-15,5.1684e-15,5.90962,-16.3359,75.3961,71.3617,16.4206,-31.7558,17.7686,7.12502,-5.01291,47.6893,-71.4152,-0.77,18.5124,102.444,-32.2008,-12.8998,-17.7778,-68.7815,3.2424,-21.9864,98.0363,-35.6091,1.33995,-10.2752
1.0034,14.1048,-2.03756,14.699,-0.463771,0.23932,37.0393,-0.411783,-2.1415,4.85649,-1.50327,-1.00302,-12.9955,-0.584344,0.684395,-14.7223,-2.01391,-7.14153,-24.86,-0.517739,9.18819,-5.12176,-0.0774571,4.2018,5.1684e-15,3.18055e-15,0.894297,24.2389,-71.823,66.7779,-11.5274,-35.2468,-2.89701,7.12502,-8.38293,-32.7107,5.1684e-15,3.18055e-15,9.217,-17.4422,73.0575,74.9272,17.6693,-31.8236,18.2321,7.12502,-5.07842,48.1512,-69.7575,-0.15694,18.6632,101.123,-32.276,-13.3869,-16.76,-67.3334,3.11045,-21.6417,96.9997,-35.2854,1.57369,-10.2709
1.00858,14.2715,-2.02035,14.0039,-1.07221,0.108472,36.5109,-0.253478,-2.36938,4.809,-1.3923,-1.04978,-12.8501,-0.531365,0.704052,-14.6443,-1.85938,-7.13382,-24.7126,-0.314832,9.21266,-5.10162,0.0196459,4.20666,3.97569e-15,7.55382e-15,4.66792,24.9352,-69.3784,70.0631,-11.0055,-35.3271,-2.71575,7.12502,-8.46041,-32.5263,3.97569e-15,7.55382e-15,12.8203,-18.2052,70.4092,78.2606,18.9378,-33.0849,18.4802,7.12502,-6.29622,48.3666,-67.817,0.587517,18.7481,99.3895,-32.335,-13.5935,-15.3705,-65.4817,3.17154,-21.3494,95.5881,-34.8822,1.94418,-10.5215
1.01363,14.4345,-2.00864,13.5619,-1.65846,-0.126212,35.768,-0.0924981,-2.43103,4.74284,-1.20194,-1.07605,-12.6477,-0.450562,0.625232,-14.8369,-1.73027,-7.03953,-24.3095,-0.165105,9.15488,-4.95759,0.0946517,4.16185,1.98785e-15,-4.77083e-15,8.46642,25.17,-66.6578,73.0906,-11.0325,-35.6144,-2.80162,7.12502,-8.73773,-32.6008,1.98785e-15,-4.77083e-15,16.6544,-18.6188,67.5501,81.3399,20.0772,-33.562,18.7841,7.12502,-6.75679,48.6563,-66.2439,1.27574,18.98,97.5188,-32.0741,-13.9547,-14.0451,-64.0114,3.15115,-20.8964,94.1168,-34.2496,2.17331,-10.3828
1.02331,14.6282,-1.98537,13.2589,-2.03159,-0.0939242,34.7412,-0.00401269,-2.54729,4.7064,-1.11122,-1.12245,-12.4114,-0.41082,0.609613,-14.8281,-1.54139,-6.82528,-24.0224,0.0242059,8.94341,-4.88671,0.181211,4.04999,-1.47101e-14,-8.34896e-15,12.1842,25.1027,-63.7426,75.6492,-11.38,-35.9352,-2.88503,7.12502,-9.04724,-32.671,-1.47101e-14,-8.34896e-15,20.3824,-18.7367,64.7157,84.0618,21.0264,-34.0622,19.2846,7.12502,-7.23963,49.1408,-64.5978,1.50232,18.9745,95.2976,-31.5199,-14.362,-13.4309,-62.5072,2.82585,-20.7202,92.2516,-33.3062,2.51894,-10.5223
1.0387,14.8463,-1.92929,12.7128,-2.58596,0.144508,33.7064,0.186055,-2.8918,4.65458,-0.975407,-1.2085,-12.0601,-0.344345,0.643803,-14.1979,-1.25947,-6.69308,-24.2583,0.346825,8.74448,-5.08372,0.324574,3.96957,-2.38542e-15,-3.57812e-15,15.866,24.7844,-60.7749,77.5897,-11.5536,-36.127,-2.81475,7.12502,-9.23237,-32.5926,-2.38542e-15,-3.57812e-15,23.8921,-18.5563,61.9604,86.3593,21.8023,-34.1056,18.9857,7.12502,-7.28151,48.8404,-62.4076,1.72181,18.6249,92.8693,-31.1493,-14.2591,-12.7416,-60.3531,2.51424,-20.8324,90.1257,-32.5228,2.95917,-10.8748
1.04711,15.1181,-1.87743,11.6882,-3.06121,0.372394,33.4188,0.412045,-3.2625,4.64154,-0.815898,-1.23121,-11.9564,-0.261303,0.754301,-13.7009,-0.996344,-6.59561,-24.4145,0.633127,8.43621,-5.23478,0.462224,3.85528,-1.98785e-14,-2.38542e-14,19.4016,24.1185,-57.8487,79.0485,-11.3718,-36.2208,-2.0627,7.12502,-9.32285,-31.8366,-1.98785e-14,-2.38542e-14,27.1991,-17.9178,59.4795,88.5258,22.4869,-33.34,19.1121,7.12502,-6.54241,48.991,-59.3587,1.9147,18.3255,90.0555,-30.7121,-13.968,-12.3481,-57.3966,2.25706,-20.8988,87.613,-31.6784,3.29812,-11.13
1.05685,15.372,-1.82404,10.7269,-3.61911,0.270987,33.1569,0.634038,-3.28688,4.63803,-0.533979,-1.2137,-11.863,-0.136343,0.675662,-13.5466,-0.845401,-6.54565,-24.3081,0.7828,8.18315,-5.23852,0.542366,3.76096,-1.19271e-15,-5.56597e-15,22.6038,23.0761,-55.1755,80.1484,-10.7371,-36.2225,-1.15557,7.12502,-9.32448,-30.9294,-1.19271e-15,-5.56597e-15,30.0598,-16.989,57.3259,90.6212,22.9586,-32.75,19.6666,7.12502,-5.97285,49.5624,-56.4643,2.32283,18.3333,87.1987,-29.9889,-13.6774,-12.3523,-54.7322,2.17307,-20.6205,85.1376,-30.6456,3.68103,-11.7013
1.07324,15.642,-1.75012,9.58463,-4.22554,0.224348,33.073,0.847912,-3.24713,4.59613,-0.255433,-1.24616,-11.8855,-0.0135663,0.510853,-13.346,-0.694787,-6.35483,-24.0936,0.888491,7.79553,-5.21154,0.594285,3.59605,1.23246e-14,-1.31198e-14,25.3294,21.9122,-52.8509,80.8348,-9.57485,-36.2028,-0.65049,7.12502,-9.30552,-30.4251,1.23246e-14,-1.31198e-14,32.3482,-15.9939,55.4433,92.4378,23.1397,-32.6246,19.7526,7.12502,-5.8518,49.6518,-53.2028,2.70726,18.2187,84.1702,-29.2735,-13.0015,-12.1244,-51.5392,2.12386,-20.4719,82.3407,-29.4536,3.97709,-11.5099
1.09608,15.9265,-1.65311,8.27513,-4.79788,0.261863,33.0581,1.02186,-3.18203,4.54799,-0.0197531,-1.26946,-11.9409,0.0896569,0.358595,-13.0925,-0.537115,-6.28457,-23.7488,1.00859,7.42008,-5.15111,0.662174,3.45398,0,-3.18055e-15,27.5838,20.7221,-50.8302,81.1601,-8.11316,-36.131,-0.282947,7.12502,-9.23621,-30.0607,0,-3.18055e-15,34.0235,-14.9356,53.8705,94.08,23.0453,-32.4173,19.9294,7.12502,-5.65168,49.834,-49.576,2.91186,18.0113,80.9843,-28.4116,-12.1279,-11.9346,-47.7274,2.11311,-20.4956,79.2177,-28.2611,3.99927,-9.70496
1.11592,16.2143,-1.55077,7.02778,-5.19841,0.330602,32.9544,1.1229,-3.10504,4.48055,0.137451,-1.25866,-11.9799,0.15785,0.267798,-12.755,-0.367778,-6.41872,-23.4119,1.19389,7.25299,-5.10896,0.767643,3.4152,-4.37326e-15,6.75868e-15,29.416,19.6008,-49.0858,81.1688,-6.65794,-35.9788,0.34467,7.12502,-9.08934,-29.4395,-4.37326e-15,6.75868e-15,35.0481,-13.8661,52.5824,95.6836,22.8336,-32.0917,20.1603,7.12502,-5.33732,50.0731,-45.9974,2.86866,17.8412,77.6161,-27.1395,-11.4082,-12.3872,-43.9868,2.06291,-20.5861,75.8864,-26.9917,4.17772,-9.04948
1.13356,16.5384,-1.43994,5.92133,-5.52484,0.299921,32.6938,1.16727,-2.91471,4.39015,0.273193,-1.21847,-11.9808,0.212293,0.157671,-12.3111,-0.243507,-6.63799,-23.2593,1.35542,7.27842,-5.13931,0.85596,3.45634,6.16232e-15,-3.57812e-15,30.8613,18.6613,-47.5589,80.9402,-5.28849,-36.08,0.859317,7.12502,-9.18699,-28.9206,6.16232e-15,-3.57812e-15,35.5371,-12.899,51.5457,97.2044,22.4933,-31.8756,20.1659,7.12502,-5.12866,50.0839,-42.3408,2.78468,17.8154,73.8781,-25.6633,-10.7637,-12.4187,-40.2901,1.9988,-20.558,72.2124,-25.5816,4.34595,-8.94341
1.15061,16.8723,-1.31462,4.97467,-5.98314,0.313499,32.1377,1.22416,-2.81558,4.3028,0.401237,-1.20363,-11.8546,0.265595,0.0760062,-12.3606,-0.188617,-6.56091,-22.623,1.36338,7.07555,-4.93067,0.862975,3.3673,5.76476e-15,0,32.0567,18.0175,-46.1761,80.5646,-4.0841,-36.4415,1.26881,7.12502,-9.53582,-28.4954,5.76476e-15,0,35.6833,-11.9064,50.6446,98.5706,22.2817,-31.8962,20.1536,7.12502,-5.1485,50.0711,-38.7286,2.8523,17.6875,69.9128,-24.1323,-9.96914,-12.1413,-36.6062,2.08854,-20.6176,68.2606,-23.9787,4.49177,-8.88127
1.16184,17.2158,-1.17922,4.30707,-6.43855,0.320912,31.17,1.26909,-2.77724,4.18109,0.512943,-1.1627,-11.5911,0.314318,0.0669639,-12.6552,-0.0836749,-6.50635,-21.5977,1.43088,6.79817,-4.56894,0.908864,3.25491,5.1684e-15,2.78299e-15,33.2087,17.5911,-44.9079,79.9319,-3.24319,-36.4976,1.40016,7.12502,-9.58991,-28.3616,5.1684e-15,2.78299e-15,35.7371,-10.9244,49.8838,99.5567,21.913,-31.7944,19.9787,7.12502,-5.05018,49.8985,-35.2756,2.92355,17.5745,65.6411,-22.3131,-9.23583,-12.5993,-33.0793,2.23349,-20.6609,63.9902,-22.0233,4.70778,-9.30528
1.16532,17.576,-1.03023,3.95503,-6.73646,0.336884,29.6341,1.24392,-2.71225,4.37188,0.561529,-1.18099,-11.4568,0.328315,0.00828012,-12.7178,0.0693595,-6.64062,-20.7132,1.63536,6.91302,-4.29646,1.01663,3.30351,1.27222e-14,-6.75868e-15,34.3098,17.2737,-43.9537,78.8139,-2.65009,-36.1549,2.02524,7.12502,-9.25928,-27.7514,1.27222e-14,-6.75868e-15,35.6387,-10.3047,49.146,100.181,21.1029,-31.5398,20.2945,7.12502,-4.80434,50.22,-31.9702,2.94382,17.4935,61.0605,-20.1073,-8.67949,-12.8116,-29.78,2.33686,-20.6667,59.4139,-19.6617,4.85263,-9.31479
1.16824,17.9671,-0.8582,3.78255,-6.77425,0.20113,27.9561,1.07869,-2.36566,4.05162,0.511871,-1.20521,-10.9666,0.292354,-0.182191,-12.5293,0.165859,-6.82649,-19.8968,1.78572,7.26427,-4.07993,1.08781,3.43642,-1.05356e-14,2.18663e-14,34.9598,17.1552,-43.3201,77.5552,-1.90522,-35.4077,3.14266,7.12502,-8.53827,-26.6647,-1.05356e-14,2.18663e-14,35.3122,-10.0965,48.4845,100.48,20.0218,-31.1676,20.8502,7.12502,-4.44501,50.7836,-28.4818,2.9676,17.5897,56.0221,-17.4568,-8.38086,-12.804,-26.4586,2.27621,-20.4949,54.5324,-16.881,5.03339,-11.1305
1.16539,18.3752,-0.676444,3.72117,-6.62958,0.00565243,26.1377,0.897005,-2.074,3.64491,0.428456,-1.12478,-10.4861,0.246451,-0.211916,-12.3811,0.211685,-6.72179,-18.7946,1.77572,7.23889,-3.75952,1.07407,3.39708,-5.1684e-15,-7.95139e-15,35.1318,17.392,-42.8468,76.3311,-0.942672,-34.8405,3.86285,7.12502,-7.9908,-25.9661,-5.1684e-15,-7.95139e-15,34.5904,-10.2374,48.2141,100.503,18.7883,-30.8564,21.157,7.12502,-4.14448,51.0965,-24.9113,3.28191,17.7712,50.5435,-14.1405,-8.54876,-13.3477,-23.1549,1.9683,-20.2042,49.3522,-13.5798,5.18915,-14.6892
1.15597,18.7825,-0.494305,3.68736,-6.515,-0.220244,24.2507,0.796596,-1.92062,3.21366,0.411232,-0.961823,-9.98013,0.238087,-0.0958682,-12.3742,0.236961,-6.51699,-17.4787,1.69862,6.96291,-3.35142,1.03221,3.26195,3.97569e-15,6.75868e-15,34.973,17.8228,-42.5998,74.9831,0.247665,-34.5974,4.29998,7.12502,-7.75617,-25.5378,3.97569e-15,6.75868e-15,33.5047,-10.6702,48.3559,100.217,17.3787,-30.6527,20.7264,7.12502,-3.94773,50.6696,-21.2678,4.22104,17.9838,44.696,-10.0747,-9.09279,-13.9437,-19.8079,1.44643,-19.8281,43.8634,-9.65432,5.35548,-16.0147
1.14291,19.1991,-0.297759,3.73279,-6.53754,-0.440629,22.0209,0.761397,-1.81453,2.79336,0.466336,-0.809575,-9.25973,0.264124,0.0136872,-12.0071,0.241006,-6.68587,-16.3872,1.66003,7.02695,-3.0726,1.01546,3.29814,-2.0773e-14,-3.97569e-15,34.3945,18.2987,-42.7936,73.6687,1.70254,-34.1157,4.65707,7.12502,-7.29122,-25.1973,-2.0773e-14,-3.97569e-15,32.3581,-11.2996,48.6997,99.4793,15.9537,-30.9998,19.9295,7.12502,-4.28299,49.8662,-17.5859,5.88927,18.1607,38.5831,-5.45331,-10.1409,-13.361,-16.351,0.738403,-19.4628,38.0325,-4.83118,5.93252,-15.965
1.12711,19.6303,-0.0882405,3.8506,-6.54442,-0.529322,19.5535,0.713033,-1.76858,2.35672,0.48095,-0.744038,-8.40571,0.271053,0.0758584,-11.8981,0.155853,-6.87613,-14.5087,1.45772,6.95123,-2.82743,0.945064,3.58279,9.34288e-15,7.55382e-15,33.5079,18.84,-43.3548,72.3801,2.84665,-33.64,4.46475,7.12502,-6.83205,-25.405,9.34288e-15,7.55382e-15,31.0593,-12.0848,49.2351,98.5787,14.8633,-31.2062,19.2964,7.12502,-4.48227,49.229,-13.9978,8.45482,18.2114,32.3924,-0.371715,-12.321,-12.0379,-12.9016,-0.461039,-19.252,31.9223,0.707628,7.22967,-15.523
1.10756,20.0653,0.118148,4.13807,-6.3833,-0.639167,17.0007,0.59915,-1.64313,1.84041,0.417841,-0.712398,-7.56702,0.237813,0.0738715,-12.4645,-0.0129358,-6.38682,-11.9907,1.07485,6.38866,-1.81821,0.741167,3.25167,-1.97791e-14,1.39149e-14,32.425,19.4038,-44.1362,71.038,3.40139,-33.4821,3.84722,7.12502,-6.67964,-26.0274,-1.97791e-14,1.39149e-14,29.3989,-12.9606,49.9947,97.7557,14.1067,-30.6458,18.8092,7.12502,-3.94109,48.7525,-10.7795,12.0259,18.3478,26.3221,5.38503,-16.364,-10.4669,-9.74701,-2.58264,-18.9891,25.658,6.9136,10.1024,-12.8367
