JuanDHNZ/ProyectoFinalCD/preprocessing/sports_trials_csv/13_40.csv
root1,root2,root3,root4,root5,root6,lowerback1,lowerback2,lowerback3,upperback1,upperback2,upperback3,thorax1,thorax2,thorax3,lowerneck1,lowerneck2,lowerneck3,upperneck1,upperneck2,upperneck3,head1,head2,head3,rclavicle1,rclavicle2,rhumerus1,rhumerus2,rhumerus3,rradius1,rwrist1,rhand1,rhand2,rfingers1,rthumb1,rthumb2,lclavicle1,lclavicle2,lhumerus1,lhumerus2,lhumerus3,lradius1,lwrist1,lhand1,lhand2,lfingers1,lthumb1,lthumb2,rfemur1,rfemur2,rfemur3,rtibia1,rfoot1,rfoot2,rtoes1,lfemur1,lfemur2,lfemur3,ltibia1,lfoot1,lfoot2,ltoes1
0.474991,18.983,-2.39486,2.64613,-3.22105,1.54037,4.07383,0.7413,-2.93966,-0.137785,0.804692,-1.6542,-2.44333,0.427393,-0.101421,-9.68683,-2.51437,-8.84509,9.63288,-3.26149,9.86907,4.77812,-1.3369,4.30062,-1.29955e-14,-9.54166e-15,-34.0505,-4.52994,-79.8536,28.1992,18.4018,-21.7323,-0.491467,7.12502,4.66723,-30.4201,-1.29955e-14,-9.54166e-15,-36.3353,18.9641,71.678,25.8672,-3.17092,-17.8692,26.2972,7.12502,8.39661,56.1103,-3.48976,21.1763,16.9078,15.1114,-14.1729,-19.1368,-1.51364,-2.00929,-7.29392,-20.9379,11.6808,-11.8011,17.0547,-3.86957
0.474784,18.9825,-2.40019,2.6763,-3.22552,1.47024,4.11991,0.745575,-2.88352,-0.115312,0.812449,-1.62805,-2.44576,0.43059,-0.106829,-9.59341,-2.49946,-8.79383,9.497,-3.23919,9.80419,4.71682,-1.33096,4.27224,-5.36719e-15,1.03368e-14,-34.0386,-4.46663,-79.8987,28.3091,18.2672,-21.5475,-0.353842,7.12502,4.84573,-30.2784,-5.36719e-15,1.03368e-14,-36.1843,18.5899,71.8738,25.7505,-2.62386,-18.0357,26.0322,7.12502,8.2359,55.8516,-3.51363,21.1866,16.9659,15.0461,-14.1403,-19.1453,-1.55114,-2.18344,-7.26149,-20.851,11.9166,-11.8599,17.0197,-3.91293
0.474444,18.9824,-2.40664,2.71935,-3.26368,1.39805,4.20941,0.790002,-2.81551,-0.130076,0.870863,-1.62316,-2.51138,0.459574,-0.145026,-9.50257,-2.49815,-8.77381,9.44059,-3.24822,9.8451,4.68551,-1.33486,4.28121,-4.91992e-15,-4.77083e-15,-34.0933,-4.46075,-79.9376,28.394,18.2246,-21.6075,-0.326583,7.12502,4.78777,-30.2525,-4.91992e-15,-4.77083e-15,-36.1219,18.3353,71.9459,25.6485,-2.38416,-18.3548,25.7545,7.12502,7.92789,55.5858,-3.60345,21.2744,17.0167,15.0687,-14.1485,-19.1892,-1.44366,-2.28385,-7.25567,-20.7604,11.9886,-11.8984,16.9854,-3.69681
0.475485,18.9834,-2.41079,2.74122,-3.27345,1.39855,4.27139,0.808754,-2.81106,-0.0966598,0.894478,-1.62133,-2.51216,0.471066,-0.147734,-9.51894,-2.48979,-8.82492,9.40204,-3.23403,9.9154,4.67711,-1.32543,4.31282,1.39149e-15,1.19271e-14,-34.0438,-4.47277,-79.9451,28.4338,18.2214,-21.7509,-0.438825,7.12502,4.64929,-30.3678,1.39149e-15,1.19271e-14,-36.0433,18.3214,71.9749,25.6373,-2.38036,-18.5623,25.6883,7.12502,7.72762,55.5271,-3.67039,21.2877,16.9941,15.0977,-14.1454,-19.1571,-1.40931,-2.37167,-7.22316,-20.7576,12.0756,-11.9011,16.9552,-3.73315
0.479555,18.9834,-2.4126,2.76852,-3.24437,1.46723,4.27263,0.79217,-2.84007,-0.0190177,0.872606,-1.64355,-2.43259,0.459142,-0.152092,-9.65462,-2.51008,-8.77839,9.38175,-3.24989,9.85645,4.69374,-1.33157,4.28428,1.88348e-14,-3.57812e-15,-33.9256,-4.41277,-79.9879,28.4736,18.1745,-21.9809,-0.523375,7.12502,4.42724,-30.4571,1.88348e-14,-3.57812e-15,-35.9274,18.3437,72.0108,25.6931,-2.31282,-18.5155,25.3321,7.12502,7.77281,55.1692,-3.75792,21.195,16.8828,15.182,-14.1814,-19.0754,-1.33049,-2.43178,-7.24095,-20.8438,12.1191,-11.9318,16.9605,-3.73542
0.481931,18.982,-2.41638,2.79314,-3.25247,1.46542,4.30395,0.784611,-2.81661,0.0518598,0.864217,-1.65418,-2.37649,0.453641,-0.175295,-9.80888,-2.52912,-8.63768,9.36817,-3.26686,9.71122,4.71269,-1.33946,4.21241,9.34288e-15,-6.75868e-15,-33.8478,-4.43719,-80.0219,28.5433,18.2221,-22.089,-0.328666,7.12502,4.32282,-30.2645,9.34288e-15,-6.75868e-15,-35.848,18.4058,71.9873,25.8228,-2.37557,-17.9966,25.4524,7.12502,8.27358,55.2704,-3.87064,21.1319,16.8543,15.3148,-14.1544,-19.0239,-1.25708,-2.47706,-7.23287,-20.8469,12.1299,-11.9415,16.9818,-3.77509
0.483129,18.98,-2.419,2.76443,-3.26879,1.53719,4.37461,0.801514,-2.87827,0.110292,0.881873,-1.67315,-2.35696,0.462432,-0.161885,-9.88236,-2.5105,-8.62495,9.40783,-3.23962,9.70336,4.73424,-1.32402,4.20984,8.59744e-15,-3.29983e-14,-33.8302,-4.37494,-80.0577,28.6188,18.0681,-22.1449,-0.191553,7.12502,4.26886,-30.1285,8.59744e-15,-3.29983e-14,-35.7933,18.4157,72.0037,25.9833,-2.57113,-17.4941,26.5855,7.12502,8.75855,56.3838,-3.94301,21.0986,16.7697,15.4854,-14.1102,-18.9929,-1.06694,-2.47084,-7.18614,-20.9323,12.1371,-11.9297,16.941,-3.77229
0.484741,18.9786,-2.42152,2.76575,-3.23678,1.63895,4.43887,0.79413,-2.96787,0.129355,0.864798,-1.69098,-2.37417,0.45483,-0.129773,-9.8238,-2.46826,-8.7501,9.35515,-3.18185,9.84828,4.70702,-1.29343,4.2811,1.67476e-14,-3.18055e-15,-33.8467,-4.31384,-80.0698,28.6766,17.9895,-22.0793,-0.16171,7.12502,4.33221,-30.0974,1.67476e-14,-3.18055e-15,-35.8248,18.4672,71.973,26.046,-2.63669,-17.6316,26.8512,7.12502,8.62583,56.655,-4.0494,21.1106,16.6458,15.6675,-14.218,-18.9922,-0.753979,-2.53149,-7.14441,-21.0402,12.1986,-11.8846,16.8279,-3.70421
0.487344,18.9767,-2.42567,2.76327,-3.19802,1.74477,4.56942,0.773569,-3.10379,0.117568,0.824271,-1.68255,-2.46087,0.437141,-0.0444718,-9.76609,-2.41781,-8.83904,9.32571,-3.11304,9.93642,4.68432,-1.25934,4.32919,-5.76476e-15,1.94809e-14,-33.8966,-4.11359,-80.0865,28.7165,17.8486,-22.0989,-0.0293883,7.12502,4.31329,-29.9655,-5.76476e-15,1.94809e-14,-35.8687,18.41,72.0086,26.0409,-2.45452,-17.8234,26.2876,7.12502,8.44077,56.099,-4.15545,21.0479,16.5175,15.8593,-14.3458,-18.9781,-0.636488,-2.59198,-7.08698,-21.1589,12.2729,-11.8726,16.7162,-3.6496
0.488054,18.9753,-2.4302,2.78369,-3.2239,1.74975,4.66979,0.788958,-3.14152,0.1183,0.838738,-1.65897,-2.51766,0.445484,-0.00157076,-9.65969,-2.4016,-8.94159,9.24117,-3.08848,10.0208,4.64104,-1.24922,4.37472,5.96354e-16,1.35174e-14,-33.9049,-4.0209,-80.0794,28.7201,17.777,-22.0925,0.186445,7.12502,4.31949,-29.7495,5.96354e-16,1.35174e-14,-35.834,18.1004,72.164,26.0658,-2.12751,-18.0201,26.0332,7.12502,8.25093,55.8521,-4.29947,21.0286,16.4887,16.0596,-14.4209,-18.9063,-0.558752,-2.66747,-6.99416,-21.154,12.3662,-11.9728,16.5918,-3.29085
0.488502,18.974,-2.43363,2.82134,-3.23668,1.78231,4.69051,0.787188,-3.19734,0.149827,0.833665,-1.64845,-2.49766,0.443191,0.0408403,-9.60452,-2.38313,-8.96233,9.17342,-3.05555,9.98067,4.60752,-1.23786,4.36739,1.28216e-14,-5.96354e-15,-33.7869,-3.98184,-80.0812,28.6337,17.7528,-22.184,0.0964716,7.12502,4.23111,-29.8413,1.28216e-14,-5.96354e-15,-35.8169,17.8848,72.2844,26.1488,-1.86672,-18.1738,25.9834,7.12502,8.1026,55.808,-4.46231,20.9883,16.4218,16.251,-14.5046,-18.8468,-0.50753,-2.79875,-6.95372,-21.178,12.5224,-12.0813,16.5132,-3.26408
0.487628,18.9719,-2.43802,2.79955,-3.23906,1.8151,4.81088,0.810826,-3.26422,0.207051,0.857598,-1.64909,-2.5078,0.455486,0.0747492,-9.72757,-2.39049,-8.92714,9.24672,-3.06182,9.94516,4.65015,-1.2382,4.34993,-1.19271e-15,-1.31198e-14,-33.6962,-3.95159,-80.094,28.6142,17.7057,-22.1532,-0.0696993,7.12502,4.26088,-30.0068,-1.19271e-15,-1.31198e-14,-35.7403,17.9288,72.2467,26.1317,-1.97807,-18.0118,25.9307,7.12502,8.25894,55.7492,-4.57377,20.9764,16.3897,16.4527,-14.5495,-18.8635,-0.625718,-2.90857,-6.89065,-21.211,12.7339,-12.1231,16.4675,-3.11777
0.48795,18.969,-2.44559,2.8214,-3.28605,1.73597,4.92775,0.838774,-3.19627,0.281009,0.895785,-1.63442,-2.49722,0.473072,0.0481808,-9.99298,-2.39807,-8.85314,9.35282,-3.06467,9.90246,4.72584,-1.23211,4.32375,-2.18663e-15,-7.95139e-15,-33.5842,-3.92863,-80.1363,28.65,17.6446,-22.1121,-0.0855552,7.12502,4.30052,-30.0219,-2.18663e-15,-7.95139e-15,-35.6237,18.0834,72.1664,26.1483,-2.17736,-17.977,26.2389,7.12502,8.29253,56.0561,-4.78885,20.9184,16.4522,16.6884,-14.5172,-18.8186,-1.11903,-3.08506,-6.84642,-21.1161,12.9614,-12.1616,16.484,-3.3024
0.488254,18.9665,-2.4535,2.85378,-3.33403,1.73088,4.98513,0.885336,-3.17053,0.365937,0.958287,-1.66979,-2.44236,0.502454,-0.00701628,-10.0418,-2.42872,-8.77062,9.28262,-3.10921,9.89286,4.71569,-1.25064,4.30274,-7.95139e-15,-2.38542e-14,-33.4532,-4.10365,-80.1318,28.6721,17.7806,-22.103,0.110593,7.12502,4.30933,-29.8256,-7.95139e-15,-2.38542e-14,-35.4756,17.9515,72.2248,26.2861,-2.10525,-18.0401,26.6247,7.12502,8.23163,56.4443,-5.03646,20.7834,16.4133,16.9686,-14.5923,-18.6558,-1.09771,-3.29063,-6.75907,-21.1022,13.2245,-12.2017,16.4344,-3.48741
0.488834,18.9639,-2.46244,2.88498,-3.30236,1.79772,5.10001,0.909341,-3.20174,0.367119,0.981593,-1.72705,-2.50565,0.514739,-0.0520833,-9.88825,-2.46854,-8.64413,9.2279,-3.17702,9.78408,4.676,-1.28997,4.24196,6.36111e-15,3.18055e-14,-33.4557,-4.26341,-80.11,28.6563,17.9474,-22.109,0.150494,7.12502,4.30347,-29.7858,6.36111e-15,3.18055e-14,-35.454,17.7242,72.258,26.408,-1.97022,-18.0052,26.989,7.12502,8.26532,56.8074,-5.27486,20.6124,16.3039,17.2712,-14.6817,-18.5126,-1.07688,-3.55913,-6.68071,-21.1601,13.559,-12.2214,16.3213,-3.84302
0.489368,18.9612,-2.47254,2.96878,-3.32267,1.83827,5.26887,0.929245,-3.28895,0.307592,0.992721,-1.73313,-2.6634,0.523348,-0.0140561,-9.80025,-2.47411,-8.5147,9.21707,-3.19493,9.66159,4.65556,-1.30359,4.18032,-1.63997e-15,1.19271e-14,-33.4867,-4.34066,-80.0599,28.5883,18.125,-22.0034,0.00673132,7.12502,4.40546,-29.9274,-1.63997e-15,1.19271e-14,-35.4707,17.7193,72.1846,26.2956,-2.02158,-17.9108,26.6048,7.12502,8.35644,56.4195,-5.61055,20.5558,16.1973,17.6067,-14.7445,-18.3942,-1.02914,-3.88882,-6.62149,-21.1852,13.9158,-12.2926,16.2717,-3.94836
0.488078,18.957,-2.48366,3.0495,-3.44019,1.76964,5.47543,0.988294,-3.31357,0.26467,1.0597,-1.68535,-2.82653,0.559329,0.0394401,-9.73676,-2.45655,-8.5001,9.11574,-3.16843,9.63647,4.61083,-1.29365,4.17133,1.82882e-14,-1.15295e-14,-33.5114,-4.29082,-80.0075,28.5747,18.1606,-21.9369,-0.170824,7.12502,4.46974,-30.1037,1.82882e-14,-1.15295e-14,-35.5413,17.6607,72.1838,26.2985,-1.85689,-17.8732,25.5908,7.12502,8.39268,55.404,-5.98615,20.6737,16.2058,17.9862,-14.9054,-18.2841,-0.62911,-4.19115,-6.58381,-21.0947,14.2694,-12.4715,16.3169,-3.57922
0.487626,18.952,-2.49348,3.10369,-3.54088,1.72298,5.63266,1.05295,-3.29013,0.274,1.14024,-1.674,-2.9069,0.5999,0.0286523,-9.76658,-2.45643,-8.54647,9.08411,-3.1655,9.70751,4.60783,-1.28914,4.20149,-1.15792e-14,2.10712e-14,-33.4756,-4.35956,-79.9584,28.5825,18.1849,-21.8723,-0.2371,7.12502,4.53205,-30.1686,-1.15792e-14,2.10712e-14,-35.5875,17.4177,72.2988,26.568,-1.56577,-17.7706,25.6378,7.12502,8.49169,55.4471,-6.34809,20.7239,16.2053,18.4106,-15.0341,-18.2241,-0.81048,-4.47435,-6.45693,-21.0261,14.6403,-12.6792,16.2401,-3.3763
0.488369,18.9456,-2.50042,3.18003,-3.6092,1.81958,5.673,1.06554,-3.42542,0.317739,1.14742,-1.68238,-2.8871,0.604527,0.0948754,-9.90277,-2.43047,-8.65523,9.10098,-3.11855,9.82036,4.63491,-1.25983,4.25862,5.2181e-15,1.15295e-14,-33.3374,-4.28173,-79.9653,28.5761,18.087,-21.7365,-0.196899,7.12502,4.66318,-30.1256,5.2181e-15,1.15295e-14,-35.5728,17.3983,72.3576,26.7721,-1.56031,-17.7711,25.9497,7.12502,8.49126,55.759,-6.75799,20.6314,16.0361,18.8911,-15.199,-18.1184,-1.05568,-4.79177,-6.28863,-21.1253,15.0252,-12.7821,16.1207,-3.55103
0.489396,18.9382,-2.50759,3.31858,-3.65699,1.87683,5.69215,1.05568,-3.51194,0.327712,1.12796,-1.68473,-2.88868,0.595844,0.142179,-10.0242,-2.40341,-8.68322,9.13567,-3.07413,9.84734,4.6625,-1.23417,4.27505,-1.71949e-14,-2.0276e-14,-33.2196,-4.18138,-79.9858,28.5605,17.9502,-21.6462,-0.184295,7.12502,4.75044,-30.111,-1.71949e-14,-2.0276e-14,-35.55,17.4566,72.3512,26.7894,-1.54579,-18.0783,25.5094,7.12502,8.19478,55.3305,-7.251,20.4634,15.8891,19.4148,-15.3066,-17.9423,-1.31603,-5.19879,-6.19522,-21.178,15.4391,-12.8531,16.1019,-3.96562
0.48985,18.9309,-2.51797,3.43654,-3.71752,1.90751,5.75554,1.05818,-3.53289,0.348136,1.12638,-1.71614,-2.90287,0.595078,0.120706,-10.0369,-2.39172,-8.67113,9.07288,-3.05655,9.8601,4.64385,-1.2244,4.27783,8.64713e-15,-2.78299e-15,-33.1248,-4.13347,-80.0423,28.6523,17.8498,-21.446,-0.492928,7.12502,4.94372,-30.4153,8.64713e-15,-2.78299e-15,-35.5112,17.4205,72.3339,26.8196,-1.44121,-18.4591,25.4576,7.12502,7.82726,55.2927,-7.74825,20.4114,15.781,19.9699,-15.4346,-17.8582,-1.45953,-5.60175,-6.10828,-21.1914,15.8852,-13.0225,16.0648,-4.03958
0.4883,18.9233,-2.53108,3.51714,-3.80241,1.87468,5.84555,1.07712,-3.53853,0.415529,1.14878,-1.71747,-2.88441,0.605392,0.119797,-10.0887,-2.39068,-8.67583,8.95178,-3.04721,9.89842,4.6155,-1.2171,4.2903,-8.74653e-15,-3.65764e-14,-32.9818,-4.16165,-80.0708,28.7523,17.8432,-21.2586,-0.63597,7.12502,5.12465,-30.554,-8.74653e-15,-3.65764e-14,-35.4099,17.2779,72.3853,26.8913,-1.1936,-18.7386,25.7362,7.12502,7.55742,55.5812,-8.24041,20.5277,15.7751,20.5621,-15.5688,-17.9676,-1.72413,-5.97601,-5.96925,-21.1215,16.3683,-13.2777,15.9037,-3.74238
0.484687,18.9145,-2.5418,3.55102,-3.92535,1.80557,5.97833,1.11171,-3.58128,0.504288,1.18927,-1.67615,-2.87,0.625213,0.181463,-10.2646,-2.37234,-8.57344,8.87705,-3.01083,9.81827,4.61608,-1.19629,4.24917,3.35946e-14,-9.14409e-15,-32.8315,-4.09404,-80.0986,28.8464,17.8041,-21.214,-0.771104,7.12502,5.16774,-30.6881,3.35946e-14,-9.14409e-15,-35.3136,17.0863,72.4924,26.9945,-0.831594,-18.9483,25.7436,7.12502,7.35503,55.5958,-8.70957,20.7268,15.8363,21.2089,-15.6843,-18.1411,-2.25511,-6.28306,-5.81617,-21.0243,16.8387,-13.4717,15.8294,-3.69762
0.4805,18.9045,-2.55333,3.54496,-4.0761,1.83764,6.21209,1.18614,-3.66801,0.554084,1.27069,-1.70919,-2.95312,0.666964,0.184612,-10.3024,-2.37808,-8.46237,8.71699,-3.01949,9.79378,4.57257,-1.19814,4.22076,4.77083e-15,1.55052e-14,-32.7607,-4.03373,-80.1651,28.8961,17.7279,-21.3624,-0.660089,7.12502,5.02445,-30.5805,4.77083e-15,1.55052e-14,-35.2039,16.8968,72.5208,26.9866,-0.563001,-19.4221,25.4162,7.12502,6.89775,55.2839,-9.15576,20.8308,15.7876,21.8923,-15.8482,-18.0987,-2.41311,-6.55603,-5.55908,-21.0419,17.2969,-13.6319,15.6926,-3.66576
0.477604,18.8947,-2.5662,3.56432,-4.09952,2.04634,6.38831,1.22402,-3.86441,0.614789,1.29638,-1.81488,-2.99185,0.681299,0.18009,-10.2512,-2.39617,-8.47972,8.46362,-3.04124,9.90639,4.49113,-1.20582,4.25599,9.0447e-15,-1.98785e-14,-32.6945,-3.9337,-80.2706,28.9547,17.6701,-21.7168,-0.543587,7.12502,4.68225,-30.4718,9.0447e-15,-1.98785e-14,-35.056,16.7356,72.5427,26.9819,-0.249001,-19.7561,24.7413,7.12502,6.57526,54.6192,-9.61262,20.7614,15.5305,22.6076,-16.2223,-17.8906,-2.207,-6.88552,-5.244,-21.2526,17.7403,-13.6527,15.4489,-4.13035
0.476903,18.8838,-2.58028,3.56959,-4.04442,2.25907,6.58534,1.21925,-4.07454,0.704441,1.26428,-1.89571,-3.01115,0.666633,0.214052,-10.3373,-2.40535,-8.50847,8.28965,-3.04069,9.98615,4.45444,-1.20087,4.28451,8.10048e-15,-2.78299e-15,-32.5783,-4.01229,-80.2834,29.0504,17.7796,-21.7016,-0.547002,7.12502,4.69694,-30.4749,8.10048e-15,-2.78299e-15,-34.9196,16.7807,72.4854,27.0777,-0.545041,-19.2553,24.7128,7.12502,7.05872,54.5751,-10.0622,20.6193,15.2802,23.3605,-16.5703,-17.7602,-2.10253,-7.20606,-4.9511,-21.4573,18.1858,-13.7125,15.0656,-4.09553
0.473663,18.8718,-2.59534,3.5965,-4.02761,2.43537,6.80357,1.23278,-4.29798,0.750764,1.25242,-1.952,-3.08854,0.66358,0.277769,-10.3284,-2.41448,-8.47844,8.15049,-3.04638,9.96198,4.4104,-1.20521,4.27036,-8.59744e-15,1.59028e-15,-32.5116,-4.00147,-80.3099,29.1803,17.7343,-21.5633,-0.660713,7.12502,4.83044,-30.5857,-8.59744e-15,1.59028e-15,-34.8326,16.8128,72.356,27.1242,-1.12704,-18.7103,25.2989,7.12502,7.5848,55.1429,-10.578,20.5673,15.0556,24.121,-16.9113,-17.7341,-1.78501,-7.56582,-4.73561,-21.6164,18.6706,-13.8453,14.7946,-4.0716
0.468171,18.8579,-2.60981,3.61094,-4.007,2.53796,7.09432,1.24027,-4.46016,0.732753,1.22944,-1.99159,-3.27174,0.656814,0.323035,-10.1572,-2.41432,-8.4917,8.03174,-3.05444,10.0174,4.34761,-1.21175,4.28928,2.48481e-15,-2.5842e-14,-32.6089,-3.64896,-80.4512,29.3708,17.4074,-21.4869,-0.536149,7.12502,4.90424,-30.4594,2.48481e-15,-2.5842e-14,-34.9434,16.7598,72.2145,27.2609,-1.53154,-18.2707,25.5751,7.12502,8.00903,55.4033,-11.0634,20.5879,14.9389,24.872,-17.232,-17.8003,-1.56845,-7.93555,-4.47426,-21.6867,19.1913,-13.9408,14.5223,-4.3105
0.462671,18.8411,-2.62576,3.58642,-3.97732,2.6908,7.41425,1.2433,-4.66061,0.770757,1.19557,-2.05838,-3.41283,0.643858,0.363003,-10.0485,-2.40175,-8.48867,7.82193,-3.03959,10.0928,4.26567,-1.20453,4.31263,-1.14301e-14,7.15625e-15,-32.6299,-3.16424,-80.6923,29.6258,16.8945,-21.5183,-0.401757,7.12502,4.87387,-30.3257,-1.14301e-14,7.15625e-15,-34.9849,16.3779,72.2849,27.5622,-1.20714,-17.8108,25.246,7.12502,8.45289,55.0568,-11.4937,20.5703,14.7776,25.6062,-17.5307,-17.749,-1.36792,-8.28729,-4.25351,-21.807,19.7418,-14.1053,14.2168,-4.132
0.458302,18.823,-2.64158,3.55374,-3.88479,2.98034,7.65069,1.21483,-4.97755,0.907356,1.11737,-2.15965,-3.4041,0.606627,0.440527,-10.1307,-2.36923,-8.42157,7.52503,-2.98097,10.1047,4.1832,-1.17301,4.30702,-1.23246e-14,-4.77083e-15,-32.4272,-2.77976,-80.918,29.8141,16.4856,-21.5998,-0.479061,7.12502,4.79525,-30.4048,-1.23246e-14,-4.77083e-15,-34.7951,16.0739,72.4023,27.733,-0.795406,-17.7227,25.105,7.12502,8.53794,54.9124,-11.8996,20.4358,14.4555,26.3174,-17.8643,-17.6417,-1.17083,-8.68155,-4.00887,-22.0873,20.3631,-14.2298,13.8514,-4.23988
0.450712,18.8063,-2.66124,3.52938,-3.67001,3.23037,7.9722,1.16417,-5.27808,1.00356,1.00275,-2.2308,-3.4826,0.553306,0.542084,-10.2404,-2.37946,-8.38208,7.3499,-2.98157,10.1079,4.14813,-1.17041,4.29984,1.17283e-14,-5.1684e-15,-32.273,-2.69952,-81.003,29.9603,16.4212,-21.5791,-0.793533,7.12502,4.8152,-30.7188,1.17283e-14,-5.1684e-15,-34.6384,15.9918,72.3936,27.8428,-0.895733,-17.4464,25.8581,7.12502,8.80456,55.6545,-12.2904,20.2807,14.1989,27.0038,-18.1828,-17.6349,-1.014,-9.12991,-3.69031,-22.2991,21.0338,-14.2353,13.3368,-4.70681
0.438502,18.789,-2.68934,3.53095,-3.33859,3.31429,8.49256,1.07429,-5.45045,0.985093,0.82717,-2.24115,-3.78651,0.474751,0.638147,-10.1561,-2.41091,-8.37428,7.18685,-3.02131,10.119,4.0887,-1.19263,4.29843,1.5207e-14,-2.34566e-14,-32.2348,-2.68074,-81.0426,29.9808,16.64,-21.9348,-0.735164,7.12502,4.47171,-30.668,1.5207e-14,-2.34566e-14,-34.7057,15.8251,72.3686,28.0962,-0.812723,-17.4469,26.0942,7.12502,8.80413,55.8906,-12.6967,20.1502,14.1443,27.6846,-18.574,-17.7046,-0.712184,-9.63163,-3.29831,-22.2874,21.7032,-14.2091,12.6378,-5.10373
0.428099,18.7714,-2.71271,3.57556,-3.04149,3.39144,8.89034,0.993428,-5.61648,0.967887,0.672755,-2.22961,-4.021,0.405992,0.755125,-10.062,-2.41708,-8.42577,7.06972,-3.02078,10.1166,4.0383,-1.19728,4.3059,-3.27995e-15,7.95139e-16,-32.2275,-2.60245,-81.0382,29.9332,17.0836,-22.6885,-0.0455955,7.12502,3.74393,-29.9925,-3.27995e-15,7.95139e-16,-34.7802,15.6382,72.4018,28.2554,-0.609454,-17.9131,25.4951,7.12502,8.35416,55.3099,-13.1127,20.0215,14.075,28.3361,-18.9443,-17.7399,-0.438028,-10.186,-3.08431,-22.2775,22.4248,-14.3185,12.092,-5.02669
0.421532,18.7528,-2.72534,3.54117,-2.76506,3.6092,9.11126,0.953343,-5.83275,1.07969,0.583187,-2.30263,-4.02416,0.362903,0.809331,-10.022,-2.43846,-8.40672,6.88554,-3.0422,10.1095,3.97775,-1.21009,4.29802,-1.81888e-14,1.51076e-14,-32.1497,-2.73145,-81.0284,29.9866,17.2858,-23.0771,0.560043,7.12502,3.36863,-29.3931,-1.81888e-14,1.51076e-14,-34.5805,15.3859,72.4504,28.2519,-0.724784,-17.959,25.6007,7.12502,8.3099,55.4172,-13.393,19.8888,13.8754,28.9828,-19.3043,-17.7506,-0.461519,-10.6347,-2.9367,-22.4684,23.1852,-14.482,11.6802,-5.21743
0.415784,18.7324,-2.73734,3.52375,-2.46349,3.68588,9.32327,0.891772,-5.87588,1.1691,0.482839,-2.34634,-4.04323,0.312712,0.798997,-9.87939,-2.43431,-8.42762,6.61828,-3.03156,10.171,3.87388,-1.20808,4.32067,4.17448e-15,-2.70347e-14,-32.1329,-2.71159,-81.0841,30.1449,17.1459,-23.093,0.504916,7.12502,3.35325,-29.4485,4.17448e-15,-2.70347e-14,-34.4396,15.3171,72.3514,28.1991,-1.13128,-17.757,25.6139,7.12502,8.50489,55.4226,-13.6497,19.705,13.8349,29.6041,-19.6557,-17.7523,-0.265237,-11.1111,-2.88106,-22.5054,23.9849,-14.6844,11.2982,-5.32468
0.413215,18.7092,-2.75064,3.53585,-2.21344,3.70788,9.60353,0.828108,-5.86908,1.19182,0.377338,-2.3494,-4.16977,0.262958,0.802796,-9.74791,-2.42584,-8.49532,6.4304,-3.01235,10.2247,3.79557,-1.20262,4.34966,3.57812e-15,1.07344e-14,-32.1414,-2.51271,-81.131,30.2402,16.9814,-23.1458,0.43739,7.12502,3.30228,-29.5168,3.57812e-15,1.07344e-14,-34.365,15.3767,72.2371,28.0564,-1.36667,-17.8371,25.2568,7.12502,8.42753,55.0687,-13.9359,19.4723,13.8149,30.1748,-19.9807,-17.6939,-0.380853,-11.66,-2.78716,-22.4971,24.8537,-14.9034,10.9482,-5.45115
0.410592,18.6868,-2.76648,3.59977,-1.96064,3.58869,9.83338,0.775807,-5.72968,1.24336,0.309565,-2.29461,-4.23957,0.228458,0.789294,-9.72636,-2.4606,-8.53174,6.23648,-3.04105,10.2039,3.73662,-1.22071,4.34632,-6.26172e-15,1.51076e-14,-32.0622,-2.43047,-81.0756,30.3436,16.9726,-23.2682,0.658642,7.12502,3.18412,-29.2973,-6.26172e-15,1.51076e-14,-34.1114,15.1112,72.4331,28.0072,-0.94863,-18.1027,25.1589,7.12502,8.17122,54.9809,-14.2674,19.2717,13.9267,30.6818,-20.2399,-17.6601,-0.302074,-12.3129,-2.72449,-22.3235,25.8065,-15.2344,10.589,-5.26186
0.405131,18.6637,-2.78205,3.6812,-1.68474,3.29622,10.0129,0.720064,-5.42127,1.31417,0.262672,-2.21159,-4.26167,0.200463,0.708882,-9.75912,-2.50111,-8.48727,6.09303,-3.08155,10.1098,3.70049,-1.24428,4.30577,8.54774e-15,5.96354e-15,-31.9787,-2.36281,-81.0635,30.4977,16.9855,-23.2563,0.81889,7.12502,3.19554,-29.1369,8.54774e-15,5.96354e-15,-33.7457,14.7061,72.6594,27.9165,-0.498969,-18.3226,24.7674,7.12502,7.95896,54.5975,-14.6139,19.0994,14.2415,31.1624,-20.4979,-17.6214,0.121982,-12.9926,-2.66892,-21.9409,26.7787,-15.5289,10.2157,-5.2003
0.400588,18.6399,-2.79231,3.67868,-1.44414,3.11068,10.2226,0.682974,-5.20369,1.39659,0.227511,-2.17921,-4.2895,0.179339,0.624712,-9.8006,-2.52513,-8.47049,6.00112,-3.10755,10.1131,3.68207,-1.25615,4.30166,-5.56597e-15,1.70955e-14,-31.9447,-2.34155,-81.0561,30.657,17.0203,-22.9653,0.865996,7.12502,3.47663,-29.0854,-5.56597e-15,1.70955e-14,-33.4275,14.5291,72.7199,27.8158,-0.530377,-18.3422,24.4487,7.12502,7.94007,54.2796,-14.8362,18.9221,14.4709,31.6356,-20.7934,-17.553,0.429251,-13.5804,-2.51748,-21.695,27.7931,-15.8406,9.80008,-5.46534
0.396238,18.6148,-2.80194,3.63659,-1.24622,3.02644,10.4731,0.684054,-5.11994,1.47495,0.2253,-2.15206,-4.34648,0.177186,0.605048,-9.83485,-2.57764,-8.51648,5.91985,-3.16983,10.1747,3.67117,-1.28478,4.32398,6.4605e-15,2.0276e-14,-31.9466,-2.29487,-81.0094,30.7885,17.0047,-22.8082,0.940251,7.12502,3.62828,-29.0086,6.4605e-15,2.0276e-14,-33.2245,14.4245,72.751,27.8388,-0.733154,-18.08,24.4675,7.12502,8.19316,54.2887,-15.0258,18.7185,14.5967,32.1105,-21.0338,-17.4616,0.521476,-14.1315,-2.31751,-21.5602,28.8452,-16.2356,9.28362,-5.19859
0.392095,18.5854,-2.81298,3.66214,-1.03105,2.87121,10.6232,0.644282,-5.01971,1.56915,0.182393,-2.05806,-4.32899,0.153553,0.652735,-9.82572,-2.60112,-8.58332,5.7248,-3.18139,10.1886,3.61347,-1.29307,4.33789,-5.06901e-15,1.47101e-14,-31.8376,-2.17846,-80.929,30.8735,16.9382,-22.8634,1.139,7.12502,3.57506,-28.8108,-5.06901e-15,1.47101e-14,-32.9908,14.6,72.7459,27.7123,-1.07606,-18.3468,24.5518,7.12502,7.93558,54.3829,-15.3043,18.4495,14.7674,32.6,-21.2261,-17.3087,0.386812,-14.7956,-2.12143,-21.3538,29.9184,-16.5376,8.84029,-5.1375
0.392471,18.5538,-2.82704,3.70725,-0.863652,2.56747,10.7614,0.60523,-4.70758,1.66765,0.166908,-1.94757,-4.3012,0.140165,0.595171,-9.80367,-2.6113,-8.55361,5.505,-3.17879,10.1017,3.54148,-1.29729,4.30508,6.95746e-15,5.96354e-15,-31.7463,-2.06195,-80.8742,31.0408,16.8025,-22.9429,1.36916,7.12502,3.49819,-28.5819,6.95746e-15,5.96354e-15,-32.6879,14.856,72.7159,27.5773,-1.64306,-18.4983,25.6025,7.12502,7.78943,55.439,-15.6306,18.1806,15.055,33.1074,-21.5086,-17.0103,0.319139,-15.5126,-1.97721,-21.0008,31.0326,-16.868,8.52074,-5.14849
0.394554,18.5232,-2.84136,3.68257,-0.785438,2.23463,10.9779,0.594531,-4.36297,1.74181,0.18806,-1.82495,-4.34391,0.146093,0.525882,-9.79439,-2.59182,-8.61606,5.43262,-3.13843,10.0822,3.51489,-1.28034,4.31176,1.98785e-15,0,-31.7496,-1.76168,-80.8406,31.2806,16.6763,-23.0653,1.52349,7.12502,3.38008,-28.4295,1.98785e-15,0,-32.4761,14.9723,72.7495,27.5493,-1.95172,-18.3612,26.2982,7.12502,7.9217,56.1298,-15.9267,17.9831,15.3821,33.6425,-21.8018,-16.73,0.167021,-16.1687,-1.79924,-20.6296,32.1792,-17.2668,8.22695,-4.9532
0.396495,18.4906,-2.85255,3.65479,-0.821164,1.91898,11.1707,0.620047,-4.04936,1.79311,0.253926,-1.73282,-4.39896,0.174745,0.435305,-9.84515,-2.59765,-8.59769,5.45685,-3.14192,10.0252,3.52949,-1.28276,4.29043,8.44835e-15,2.3059e-14,-31.7659,-1.48728,-80.8498,31.4427,16.5278,-23.2802,1.45598,7.12502,3.17248,-28.5002,8.44835e-15,2.3059e-14,-32.3209,14.9496,72.8008,27.5671,-1.84836,-18.1931,26.1981,7.12502,8.084,56.0235,-16.2554,17.8115,15.681,34.1987,-22.0234,-16.3836,0.112099,-16.788,-1.55798,-20.2844,33.2959,-17.6431,8.03528,-5.29707
0.398302,18.4552,-2.86123,3.67672,-0.854754,1.64062,11.3768,0.663885,-3.79874,1.78289,0.334995,-1.6371,-4.52612,0.2134,0.380546,-9.82124,-2.63079,-8.52608,5.40469,-3.18289,9.88516,3.51001,-1.30877,4.2319,-8.15017e-15,2.22639e-14,-31.78,-1.48713,-80.7325,31.4652,16.5587,-23.2153,1.48924,7.12502,3.23519,-28.466,-8.15017e-15,2.22639e-14,-32.2707,14.8021,72.9134,27.7105,-1.52033,-18.1061,25.6627,7.12502,8.16795,55.4849,-16.6353,17.5839,15.9382,34.7793,-22.1585,-16.0529,-0.0861852,-17.4141,-1.29533,-19.9812,34.3379,-17.9735,7.83478,-5.38893
0.397849,18.4219,-2.8703,3.65464,-0.859407,1.35329,11.6218,0.708967,-3.57488,1.80234,0.416316,-1.51299,-4.64366,0.252091,0.369821,-9.76285,-2.62477,-8.59204,5.2982,-3.16518,9.90721,3.46817,-1.3026,4.25087,-9.14409e-15,2.18663e-14,-31.7757,-1.45133,-80.5691,31.5195,16.5751,-23.0614,1.4248,7.12502,3.3838,-28.5281,-9.14409e-15,2.18663e-14,-32.2555,14.7234,73.036,27.9821,-1.3969,-17.631,24.8962,7.12502,8.62644,54.7,-16.9826,17.353,16.2464,35.3996,-22.3631,-15.7672,0.0336285,-17.9444,-1.09204,-19.6445,35.287,-18.3044,7.5904,-5.36012
0.399762,18.3905,-2.87693,3.55284,-0.909594,1.17383,11.8671,0.763191,-3.43626,1.88143,0.499959,-1.43194,-4.69879,0.291486,0.36169,-9.79136,-2.6043,-8.66271,5.24426,-3.12992,9.99649,3.45611,-1.28226,4.29253,-4.57205e-15,2.38542e-15,-31.733,-1.20705,-80.5026,31.5712,16.4293,-23.2458,1.27703,7.12502,3.20568,-28.6786,-4.57205e-15,2.38542e-15,-32.1777,14.615,73.1768,28.2225,-1.23507,-17.7112,24.9912,7.12502,8.54905,54.7981,-17.256,17.1534,16.4435,36.051,-22.6153,-15.4512,0.152895,-18.312,-0.895669,-19.4377,36.1637,-18.669,7.33324,-5.03432
0.400889,18.3581,-2.8818,3.43524,-0.994082,1.14424,12.0943,0.843159,-3.44698,1.97383,0.59701,-1.41457,-4.73078,0.338988,0.368682,-9.86858,-2.59996,-8.58492,5.22558,-3.12273,9.93669,3.46023,-1.27785,4.2609,2.78299e-15,-3.97569e-16,-31.6643,-0.991062,-80.4784,31.5824,16.2943,-23.4865,1.00777,7.12502,2.97329,-28.9513,2.78299e-15,-3.97569e-16,-32.0735,14.4129,73.3072,28.3938,-0.772238,-18.2242,25.4651,7.12502,8.05395,55.2916,-17.5422,16.9346,16.4861,36.7438,-22.7538,-15.2161,-0.395258,-18.5967,-0.695161,-19.3962,36.9444,-19.0557,7.11338,-4.80244
0.400517,18.3249,-2.89184,3.39376,-1.08664,1.15971,12.3503,0.931503,-3.52048,1.98608,0.691394,-1.42433,-4.86322,0.387916,0.381245,-9.77754,-2.57692,-8.57022,5.1379,-3.10008,10.0061,3.41793,-1.26616,4.28186,4.77083e-15,-3.18055e-15,-31.6622,-1.01404,-80.3946,31.6,16.3556,-23.3208,0.973404,7.12502,3.13331,-28.9833,4.77083e-15,-3.18055e-15,-32.0926,14.0684,73.392,28.6413,-0.269421,-18.4739,25.4418,7.12502,7.81293,55.2775,-17.9765,16.734,16.4537,37.4688,-22.8505,-14.9901,-0.812672,-18.9597,-0.497914,-19.4027,37.6488,-19.3315,6.95501,-4.92655
0.399172,18.2909,-2.90038,3.31001,-1.25206,1.23996,12.6211,1.03,-3.67437,2.00628,0.785678,-1.46294,-4.9962,0.437835,0.407932,-9.56116,-2.54757,-8.50628,4.89168,-3.0741,10.0806,3.30663,-1.25608,4.2966,5.06901e-15,2.94201e-14,-31.6176,-1.04374,-80.3433,31.5469,16.5401,-23.0936,0.972665,7.12502,3.35271,-28.9807,5.06901e-15,2.94201e-14,-32.1329,13.7758,73.4363,28.8751,-0.0567812,-18.596,25.4493,7.12502,7.69509,55.2893,-18.3902,16.5645,16.3661,38.2548,-23.096,-14.704,-1.12713,-19.209,-0.338217,-19.4802,38.2612,-19.6177,6.85802,-4.76428
0.400507,18.2596,-2.89958,3.15443,-1.38184,1.40327,12.8387,1.11054,-3.86479,2.09752,0.854178,-1.5238,-5.02435,0.473533,0.437235,-9.55989,-2.54309,-8.29112,4.78997,-3.07787,9.93332,3.2704,-1.26078,4.2144,-1.18277e-14,1.19271e-14,-31.4604,-0.942191,-80.3372,31.3999,16.5846,-23.1303,0.939109,7.12502,3.31731,-29.0148,-1.18277e-14,1.19271e-14,-32.1371,13.5372,73.4704,29.1189,0.0939373,-18.6162,25.3307,7.12502,7.67557,55.1714,-18.6436,16.3415,16.2101,39.072,-23.5402,-14.362,-1.12236,-19.2978,-0.205358,-19.6605,38.832,-19.9827,6.69126,-4.34081
0.404083,18.2279,-2.90006,3.00877,-1.47715,1.79004,13.0469,1.17204,-4.31217,2.20632,0.861715,-1.59259,-5.02994,0.482867,0.613212,-9.72289,-2.5219,-8.25421,4.78261,-3.03612,9.85052,3.28895,-1.23882,4.18417,-6.85807e-15,4.37326e-15,-31.2458,-0.707781,-80.2963,31.222,16.5133,-23.3905,1.30958,7.12502,3.06599,-28.6481,-6.85807e-15,4.37326e-15,-32.2203,13.3824,73.5512,29.5714,0.248081,-18.0896,25.2975,7.12502,8.18382,55.119,-18.9379,16.1002,15.789,39.9212,-23.9523,-14.0903,-1.34274,-19.3844,-0.0702589,-20.1047,39.3644,-20.2875,6.5577,-4.22147
0.407572,18.1913,-2.90827,2.82305,-1.65566,2.12111,13.4253,1.25267,-4.6958,2.28083,0.88857,-1.67235,-5.16514,0.502787,0.734841,-9.86613,-2.48513,-8.30888,4.76647,-2.97297,9.90799,3.30362,-1.2026,4.21443,-8.94531e-16,-1.59028e-14,-30.9911,-0.64925,-80.2437,30.908,16.6188,-23.7714,1.59079,7.12502,2.69813,-28.3719,-8.94531e-16,-1.59028e-14,-32.3855,13.3153,73.5384,30.0785,0.193332,-17.471,25.7187,7.12502,8.78081,55.5161,-19.2765,16.0017,15.4317,40.8084,-24.257,-13.85,-1.62517,-19.4891,0.124746,-20.4769,39.9276,-20.5147,6.43933,-4.17867
0.410044,18.1532,-2.91538,2.66241,-1.92081,2.31234,13.7866,1.39036,-4.90747,2.31738,1.01231,-1.74687,-5.3334,0.568538,0.74678,-9.93544,-2.47863,-8.28739,4.72717,-2.96098,9.92382,3.30211,-1.19406,4.21614,-1.76918e-14,1.98785e-15,-30.8205,-0.706115,-80.154,30.6477,16.6812,-23.7296,1.92504,7.12502,2.73852,-28.0371,-1.76918e-14,1.98785e-15,-32.452,13.0348,73.5802,30.3152,0.354416,-17.5678,25.9813,7.12502,8.68739,55.7825,-19.6958,16.0037,15.2175,41.7227,-24.5667,-13.6241,-1.92573,-19.6608,0.38198,-20.6869,40.5464,-20.7583,6.36617,-4.24959
0.41308,18.1107,-2.92392,2.58999,-2.14848,2.58178,14.0341,1.51022,-5.17569,2.3418,1.10713,-1.86193,-5.45103,0.620251,0.753785,-9.79284,-2.45044,-8.17574,4.45712,-2.928,9.89819,3.19281,-1.18239,4.19164,-1.41137e-14,4.25399e-14,-30.6803,-0.835506,-80.0923,30.4662,16.8078,-23.6692,1.97833,7.12502,2.79681,-27.9831,-1.41137e-14,4.25399e-14,-32.4153,12.6926,73.6313,30.4079,0.639394,-17.9466,25.4424,7.12502,8.3219,55.2585,-20.2378,15.9832,14.8837,42.6542,-24.8601,-13.3915,-2.04211,-19.9856,0.646083,-20.9932,41.2359,-21.0339,6.29726,-4.39841
0.418071,18.0663,-2.93248,2.53009,-2.29168,2.83759,14.2325,1.57601,-5.41162,2.43444,1.1416,-1.96181,-5.46578,0.639189,0.771581,-9.72602,-2.39713,-8.00606,4.10068,-2.85253,9.79913,3.06422,-1.15056,4.13678,-6.95746e-16,2.10712e-14,-30.3957,-1.03732,-80.0164,30.3163,17.0076,-23.5473,1.39232,7.12502,2.91456,-28.5675,-6.95746e-16,2.10712e-14,-32.3748,12.4214,73.7245,30.673,1.01692,-18.4487,25.0181,7.12502,7.83732,54.8528,-20.7321,15.8866,14.5579,43.5738,-25.2628,-13.1277,-2.09521,-20.3491,0.898853,-21.2951,41.984,-21.3459,6.18285,-4.49647
0.42335,18.0234,-2.94013,2.49126,-2.40031,2.94747,14.4148,1.59684,-5.55093,2.53976,1.13875,-1.95944,-5.45627,0.638223,0.850707,-9.93576,-2.35943,-8.02718,4.02101,-2.77973,9.79191,3.06818,-1.11044,4.14136,-1.94809e-14,1.07344e-14,-30.0042,-1.11243,-79.8828,30.1412,17.165,-23.4064,1.13616,7.12502,3.05064,-28.8218,-1.94809e-14,1.07344e-14,-32.3705,12.3245,73.8564,30.9122,1.44861,-19.2609,25.0395,7.12502,7.05334,54.902,-21.2059,15.7832,14.3921,44.4656,-25.7294,-12.8461,-1.87612,-20.7295,1.10923,-21.4312,42.7486,-21.6314,6.0499,-4.71655
0.427497,17.9768,-2.94675,2.46333,-2.55632,2.92513,14.6072,1.65208,-5.53643,2.56426,1.20125,-1.93573,-5.53948,0.669704,0.851713,-9.96584,-2.35379,-8.14596,3.98674,-2.75816,9.87296,3.0639,-1.09792,4.18738,1.00386e-14,-1.31198e-14,-29.8741,-1.14611,-79.7593,30.0716,17.2789,-23.5342,1.23878,7.12502,2.9272,-28.7209,1.00386e-14,-1.31198e-14,-32.4812,12.0792,73.9575,31.1565,1.67591,-19.5165,25.0985,7.12502,6.80656,54.9691,-21.7179,15.7498,14.3831,45.3217,-26.0446,-12.674,-1.71479,-21.1404,1.34862,-21.4177,43.5213,-21.9227,5.99607,-5.17298
0.434113,17.9349,-2.95025,2.34856,-2.76094,2.89622,14.9099,1.73653,-5.46059,2.56676,1.3005,-1.94247,-5.70664,0.719559,0.775375,-9.78169,-2.33144,-8.15421,3.77512,-2.7251,9.86203,2.96747,-1.08836,4.18762,3.04141e-14,-1.35174e-14,-29.868,-1.25199,-79.6588,30.0637,17.2874,-23.7011,1.28402,7.12502,2.76601,-28.6778,3.04141e-14,-1.35174e-14,-32.6335,11.8593,73.9761,31.3809,1.5245,-19.375,24.8638,7.12502,6.94319,54.73,-22.0736,15.6993,14.4073,46.136,-26.2888,-12.5002,-1.90039,-21.4112,1.59665,-21.4073,44.2442,-22.2207,5.94996,-5.33728
0.44222,17.8939,-2.95208,2.20111,-2.8936,2.88583,15.247,1.78523,-5.38457,2.61372,1.35174,-1.96301,-5.84184,0.74439,0.693172,-9.75299,-2.31169,-8.09832,3.63041,-2.69407,9.79767,2.91486,-1.07643,4.16001,-1.78906e-15,7.15625e-15,-29.7343,-1.45817,-79.5616,30.0106,17.3037,-23.6107,1.32451,7.12502,2.85329,-28.6362,-1.78906e-15,7.15625e-15,-32.6832,11.7058,73.9589,31.4455,1.57685,-19.58,24.5,7.12502,6.74523,54.3726,-22.3483,15.5143,14.4246,46.931,-26.5476,-12.3233,-2.50097,-21.6229,1.76995,-21.4186,44.9419,-22.5119,5.88569,-5.33227
0.450852,17.8533,-2.95226,2.07207,-2.9229,3.09832,15.5218,1.7889,-5.53196,2.67979,1.31084,-2.01662,-5.92125,0.726965,0.721907,-9.82202,-2.27687,-8.10534,3.55012,-2.6333,9.74635,2.89575,-1.04724,4.14837,4.57205e-15,-9.54166e-15,-29.5717,-1.54499,-79.4731,29.964,17.305,-23.625,1.31452,7.12502,2.83957,-28.6463,4.57205e-15,-9.54166e-15,-32.741,11.6741,73.934,31.5919,1.59703,-19.5444,24.5103,7.12502,6.77964,54.3817,-22.6485,15.236,14.1698,47.7296,-26.8756,-12.0289,-2.55467,-21.8376,1.88255,-21.6786,45.627,-22.8288,5.73452,-5.05489
0.460041,17.8144,-2.95323,1.99098,-2.96658,3.23596,15.7663,1.76054,-5.56528,2.73345,1.24769,-2.07137,-5.99343,0.696651,0.690722,-9.89026,-2.24458,-8.10838,3.40363,-2.57131,9.67689,2.85628,-1.01856,4.13037,1.68967e-15,1.11319e-14,-29.4293,-1.47551,-79.459,30.0048,17.1753,-23.4835,1.38765,7.12502,2.97615,-28.5713,1.68967e-15,1.11319e-14,-32.8279,11.6203,73.8873,31.8761,1.60309,-19.1798,24.9388,7.12502,7.13157,54.7986,-23.0152,14.9599,13.9854,48.5377,-27.1937,-11.7621,-2.82162,-22.1202,2.06063,-21.8462,46.3489,-23.129,5.48334,-4.57245
0.467043,17.77,-2.95591,1.91877,-3.07268,3.27206,16.0214,1.75848,-5.53201,2.80183,1.23075,-2.11356,-6.05698,0.687254,0.625921,-10.0104,-2.22298,-8.01093,3.23542,-2.52803,9.54468,2.8182,-0.99896,4.07498,2.9122e-14,-7.15625e-15,-29.1962,-1.48018,-79.4645,30.0597,17.0655,-23.2472,1.28977,7.12502,3.20442,-28.6659,2.9122e-14,-7.15625e-15,-32.8331,11.4915,73.8514,32.0096,1.89247,-19.348,24.9962,7.12502,6.9692,54.8615,-23.4279,14.7867,13.9176,49.3462,-27.4982,-11.5903,-3.11216,-22.449,2.3335,-21.8961,47.1278,-23.4253,5.21993,-4.18059
0.474144,17.7216,-2.96026,1.84707,-3.13214,3.28248,16.2916,1.77318,-5.48726,2.8545,1.23868,-2.11783,-6.14729,0.690799,0.588964,-10.071,-2.21648,-7.96463,3.0927,-2.50789,9.46944,2.78176,-0.990672,4.0447,1.35174e-14,2.06736e-14,-29.0624,-1.54908,-79.3985,30.1628,17.0358,-23.1671,0.854248,7.12502,3.28173,-29.1002,1.35174e-14,2.06736e-14,-32.8293,11.3105,73.8964,32.0001,2.18977,-19.7709,24.635,7.12502,6.56099,54.5134,-23.8235,14.6075,13.8787,50.1274,-27.7726,-11.4605,-3.45172,-22.8051,2.49374,-21.912,47.9371,-23.7465,4.98852,-3.98247
0.481979,17.6782,-2.96605,1.80124,-3.13193,3.1651,16.5736,1.75574,-5.30835,2.88069,1.22985,-2.06908,-6.26991,0.684973,0.535818,-9.98441,-2.19648,-7.9931,2.84645,-2.46788,9.46273,2.6909,-0.975132,4.0496,-8.74653e-15,6.36111e-15,-29.0124,-1.52708,-79.3049,30.3259,17.0393,-23.308,0.749151,7.12502,3.14562,-29.2074,-8.74653e-15,6.36111e-15,-32.8628,11.1891,73.9515,32.0196,2.33791,-19.9588,24.5176,7.12502,6.37962,54.4016,-24.2079,14.3995,13.994,50.8725,-27.9874,-11.4138,-3.88062,-23.2061,2.62482,-21.7783,48.7578,-24.0758,4.70839,-3.92923
0.490626,17.6379,-2.96823,1.81425,-3.0225,3.18534,16.7604,1.70549,-5.19278,2.91437,1.17139,-2.07758,-6.33015,0.654677,0.470805,-9.89945,-2.17366,-8.0502,2.58425,-2.42082,9.47767,2.59568,-0.955616,4.06633,-9.93923e-15,9.14409e-15,-29.0136,-1.5327,-79.2342,30.6227,17.0822,-23.3699,0.751182,7.12502,3.08584,-29.2062,-9.93923e-15,9.14409e-15,-32.8752,11.0687,73.9795,32.0441,2.51208,-20.2705,24.3152,7.12502,6.07869,54.208,-24.6254,14.0209,13.9397,51.6055,-28.2223,-11.3535,-4.35393,-23.6597,2.64853,-21.818,49.5654,-24.4461,4.57226,-4.03373
0.499078,17.5918,-2.96826,1.85914,-2.86864,3.36129,16.8807,1.64908,-5.19662,2.98818,1.08607,-2.15173,-6.31078,0.611361,0.411479,-9.98979,-2.17049,-8.06099,2.3915,-2.39638,9.45531,2.55041,-0.943374,4.06205,-1.30204e-14,1.98785e-14,-28.9219,-1.47869,-79.2306,30.8922,17.0594,-23.5365,0.815714,7.12502,2.92502,-29.144,-1.30204e-14,1.98785e-14,-32.7989,11.0277,74.0022,32.0857,2.67459,-20.6616,24.2183,7.12502,5.70108,54.1216,-25.0683,13.5187,13.6885,52.3572,-28.5194,-11.1214,-4.75749,-24.159,2.65173,-22.038,50.3889,-24.7787,4.39782,-3.9226
0.506753,17.5439,-2.97287,1.96619,-2.7811,3.32589,16.9672,1.58689,-5.07441,3.0464,1.02289,-2.14854,-6.29039,0.577193,0.359329,-10.1366,-2.17516,-7.97755,2.25447,-2.38715,9.30721,2.52894,-0.940427,4.0023,4.17448e-15,-2.18663e-14,-28.7494,-1.33303,-79.2502,31.0454,17.0047,-23.6881,1.01527,7.12502,2.77856,-28.9464,4.17448e-15,-2.18663e-14,-32.6601,11.2441,73.8949,32.6904,0.749749,-17.2174,28.2823,7.12502,9.02559,58.0692,-25.6319,13.1424,13.6537,53.1383,-28.845,-10.8239,-4.85471,-24.76,2.76952,-22.0254,51.2304,-25.094,4.2161,-4.10875
0.51262,17.4983,-2.97921,2.16523,-2.74518,3.06506,16.9938,1.52857,-4.79999,3.04564,1,-2.05768,-6.30197,0.561689,0.306176,-10.1447,-2.16991,-7.89904,2.07543,-2.37131,9.16144,2.47205,-0.937721,3.94502,1.86858e-14,-3.18055e-14,-28.6235,-1.16964,-79.2403,31.2342,16.8974,-23.6211,1.20969,7.12502,2.84325,-28.7511,1.86858e-14,-3.18055e-14,-32.4986,11.0893,74.0378,31.257,3.80802,-22.6777,18.4498,7.12502,3.75433,48.3965,-26.3397,12.8612,13.8641,53.9311,-29.1051,-10.7299,-5.3397,-25.4861,2.94062,-21.7486,52.1229,-25.4151,3.93599,-4.06335
0.519738,17.4534,-2.97938,2.32027,-2.71088,2.90976,17.0827,1.4868,-4.61008,3.00207,0.976779,-1.98344,-6.39444,0.549167,0.28084,-10.0563,-2.15785,-7.87089,1.89431,-2.34663,9.01512,2.39883,-0.933247,3.89679,-1.66979e-14,1.03368e-14,-28.5959,-0.977675,-79.1913,31.4712,16.7886,-23.4905,1.17939,7.12502,2.9694,-28.7797,-1.66979e-14,1.03368e-14,-32.4506,11.2335,74.0124,31.3357,3.10153,-21.9234,20.7934,7.12502,4.4827,50.7259,-26.9621,12.5725,13.968,54.7318,-29.3782,-10.6401,-5.82621,-26.1316,3.02589,-21.5971,53.0328,-25.753,3.72148,-3.84745
0.528486,17.3965,-2.98143,2.38622,-2.68169,2.82746,17.2938,1.44946,-4.47802,2.99578,0.941833,-1.92555,-6.51347,0.531687,0.271563,-10.0384,-2.13113,-7.90683,1.71366,-2.2944,8.9548,2.33699,-0.910917,3.88697,1.14301e-14,1.59028e-15,-28.5702,-0.817925,-79.1069,31.7896,16.7576,-23.3495,1.1763,7.12502,3.10554,-28.7808,1.14301e-14,1.59028e-15,-32.4316,11.5711,73.8883,31.5634,1.65677,-20.1322,23.8072,7.12502,6.2122,53.6961,-27.4409,12.2239,13.9939,55.5352,-29.6409,-10.3375,-6.50333,-26.7014,3.06691,-21.5373,53.9536,-26.1173,3.591,-3.67144
0.534467,17.3324,-2.98873,2.46384,-2.68797,2.79669,17.5021,1.44606,-4.38985,3.01926,0.943089,-1.89872,-6.60037,0.531485,0.246326,-10.0649,-2.14248,-8.0294,1.51749,-2.2858,9.03691,2.28478,-0.905254,3.93289,1.71949e-14,-7.95139e-15,-28.5506,-0.713972,-79.0292,32.2009,16.7479,-23.397,1.01406,7.12502,3.05972,-28.9437,1.71949e-14,-7.95139e-15,-32.2521,11.2308,74.1521,31.1942,3.16191,-21.3341,20.8089,7.12502,5.05173,50.7286,-27.9656,11.8222,13.9626,56.3745,-29.9054,-9.98138,-7.58125,-27.3118,3.18005,-21.5271,54.8504,-26.4408,3.40452,-3.41499
0.54432,17.2804,-2.99163,2.53947,-2.58391,2.92816,17.6827,1.40371,-4.38383,3.04417,0.875941,-1.93124,-6.66833,0.49914,0.220475,-10.176,-2.13996,-8.14523,1.44207,-2.26104,9.13897,2.28099,-0.888249,3.98445,-1.21259e-14,2.14687e-14,-28.4495,-0.674466,-78.969,32.3843,16.7313,-23.5957,1.2478,7.12502,2.86783,-28.7127,-1.21259e-14,2.14687e-14,-32.0985,11.0845,74.3043,30.9798,3.81643,-21.8856,19.8802,7.12502,4.5192,49.812,-28.4342,11.2428,13.7335,57.217,-30.551,-9.37426,-7.23662,-27.8575,3.16907,-21.7237,55.6916,-26.8123,3.31327,-3.6002
0.557202,17.2287,-2.99179,2.62752,-2.34423,3.15273,17.8731,1.30891,-4.42116,3.06202,0.72813,-2.00419,-6.74626,0.428661,0.19468,-10.4226,-2.12964,-8.08496,1.43162,-2.23681,9.13074,2.31456,-0.870289,3.9725,-4.07509e-15,3.06128e-14,-28.3787,-0.571534,-78.9684,32.6186,16.5971,-23.7397,1.56052,7.12502,2.72878,-28.4018,-4.07509e-15,3.06128e-14,-32.0267,11.3224,74.1685,30.9358,3.05916,-21.2907,20.1859,7.12502,5.09365,50.1047,-28.9044,10.4714,13.3974,58.0879,-31.2557,-8.7386,-6.54039,-28.3759,3.01237,-22.0338,56.4859,-27.219,3.30977,-3.98879
0.56485,17.1735,-2.99417,2.73701,-2.19136,3.13788,18.046,1.21111,-4.32685,3.05767,0.608467,-1.98385,-6.83953,0.370273,0.188355,-10.4949,-2.11066,-7.99437,1.26391,-2.20335,9.01884,2.27041,-0.855797,3.92462,1.90833e-14,-4.01545e-14,-28.3532,-0.416619,-78.9553,32.9566,16.5257,-23.6201,1.5721,7.12502,2.8443,-28.3887,1.90833e-14,-4.01545e-14,-32.0267,11.6104,74.0182,30.9997,2.32568,-20.4201,20.8332,7.12502,5.93424,50.7301,-29.4776,9.865,13.3606,58.9608,-31.4251,-8.56658,-7.7188,-28.9333,2.96219,-22.0487,57.2644,-27.5543,3.21624,-4.04939
0.571522,17.1195,-2.99595,2.81654,-2.15694,3.0973,18.2364,1.16723,-4.2663,3.05394,0.554531,-1.93268,-6.94468,0.344788,0.21877,-10.3757,-2.08433,-7.95349,0.96349,-2.15957,8.90233,2.15569,-0.841591,3.88474,5.06901e-15,2.06736e-14,-28.3192,-0.249819,-78.895,33.2806,16.3499,-23.5217,1.34248,7.12502,2.93924,-28.617,5.06901e-15,2.06736e-14,-32.0385,11.776,73.9839,31.1773,1.71816,-19.4996,22.569,7.12502,6.82287,52.439,-30.0655,9.35038,13.3796,59.8414,-31.4808,-8.60616,-9.3203,-29.4343,3.01133,-22.0315,58.0253,-27.8433,3.08112,-4.05743
0.577951,17.0656,-2.99658,2.82374,-2.13792,3.20491,18.5353,1.19249,-4.36139,3.06655,0.551795,-1.9226,-7.09352,0.347632,0.279616,-10.4361,-2.10626,-7.93784,0.8165,-2.17747,8.86996,2.12237,-0.850697,3.87113,1.33186e-14,-1.63003e-14,-28.2744,-0.192613,-78.8043,33.5571,16.0334,-23.3425,1.12038,7.12502,3.11233,-28.8366,1.33186e-14,-1.63003e-14,-31.9678,11.9252,73.974,31.1369,1.05055,-19.2346,23.8569,7.12502,7.07868,53.7185,-30.5823,8.82568,13.243,60.7327,-31.7998,-8.42908,-9.85027,-29.8448,3.08101,-22.1674,58.7765,-28.1679,2.91935,-4.00349
0.584678,17.0095,-2.9992,2.86182,-2.07919,3.23876,18.793,1.18685,-4.3375,3.09761,0.534889,-1.91561,-7.19834,0.340081,0.274269,-10.5498,-2.13615,-7.95773,0.667991,-2.20132,8.91851,2.0994,-0.859236,3.88785,-5.06901e-15,1.59028e-15,-28.1731,-0.242246,-78.7199,33.7849,15.969,-23.3044,1.01737,7.12502,3.14914,-28.9391,-5.06901e-15,1.59028e-15,-31.836,11.9401,74.012,31.0053,0.786187,-19.5777,23.9569,7.12502,6.74747,53.8294,-31.1227,8.35967,13.1624,61.6234,-32.2025,-8.08552,-9.94272,-30.3184,3.09701,-22.2287,59.5487,-28.424,2.85652,-4.12897
0.591944,16.9531,-3.00273,2.91609,-1.99056,3.27152,18.9898,1.14386,-4.28871,3.14166,0.478128,-1.91469,-7.25433,0.311875,0.259429,-10.5199,-2.11375,-7.97921,0.395831,-2.1579,8.97235,2.01114,-0.837956,3.91065,-5.46658e-15,1.31198e-14,-28.0616,-0.282567,-78.6532,34.0153,15.9847,-23.335,1.06312,7.12502,3.11957,-28.8938,-5.46658e-15,1.31198e-14,-31.685,11.8508,74.1006,31.0606,0.584757,-19.3168,24.9646,7.12502,6.99939,54.8289,-31.6798,7.84439,13.0616,62.5251,-32.5616,-7.53067,-9.73937,-30.8274,3.08014,-22.2994,60.3464,-28.7017,2.83488,-4.27372
0.599143,16.8929,-3.00664,2.99391,-1.89352,3.29756,19.1582,1.09868,-4.2561,3.16895,0.417394,-1.90353,-7.31318,0.282522,0.266191,-10.5495,-2.10167,-7.94816,0.245948,-2.13529,8.96943,1.96899,-0.82668,3.90589,-1.05356e-14,1.31198e-14,-28.032,-0.365728,-78.5732,34.3519,15.9257,-23.268,1.25112,7.12502,3.1843,-28.7048,-1.05356e-14,1.31198e-14,-31.5659,11.8332,74.1574,31.0728,0.185463,-18.8854,25.9519,7.12502,7.41575,55.8019,-32.2787,7.263,12.9762,63.4473,-32.8479,-7.03162,-9.45,-31.3864,3.11499,-22.3565,61.1984,-29.0713,2.61913,-4.23616
0.605258,16.8328,-3.01195,3.05698,-1.79582,3.32914,19.3942,1.07441,-4.23771,3.18492,0.376044,-1.90029,-7.42142,0.263581,0.266759,-10.6661,-2.14545,-7.8946,0.230288,-2.19146,8.95308,1.98686,-0.852409,3.88875,-1.68967e-15,1.39149e-14,-27.9987,-0.473918,-78.5097,34.6543,15.773,-23.1642,1.06624,7.12502,3.28451,-28.8882,-1.68967e-15,1.39149e-14,-31.4856,11.7207,74.2189,30.9448,0.0896265,-19.355,25.0843,7.12502,6.96248,54.9498,-32.886,6.6828,12.924,64.3964,-33.1171,-6.92173,-10.0933,-31.9438,3.1853,-22.4125,62.0787,-29.4327,2.37005,-4.14025
0.608565,16.7696,-3.0224,3.19809,-1.6685,3.34366,19.6124,1.02442,-4.23229,3.1972,0.300473,-1.88532,-7.52291,0.228655,0.296607,-10.7632,-2.16154,-7.94162,0.0760278,-2.19637,9.06705,1.9594,-0.850173,3.93126,1.22253e-14,-1.19271e-14,-27.8563,-0.513494,-78.4652,34.8855,15.6326,-23.041,0.979837,7.12502,3.40353,-28.9727,1.22253e-14,-1.19271e-14,-31.3076,11.6743,74.2981,30.8069,0.021669,-20.0664,24.4035,7.12502,6.2757,54.2905,-33.6279,6.13682,12.9093,65.3833,-33.3487,-6.97464,-11.0525,-32.653,3.25497,-22.4433,62.9943,-29.7436,2.11967,-4.0751
0.611547,16.7007,-3.03556,3.38176,-1.48389,3.39496,19.8642,0.958149,-4.28943,3.16145,0.188887,-1.84521,-7.69358,0.180053,0.398039,-10.752,-2.16104,-7.93421,-0.19048,-2.18209,9.0518,1.87681,-0.845084,3.92652,-4.27387e-15,8.74653e-15,-27.7955,-0.502306,-78.3739,35.1975,15.5216,-23.055,0.954381,7.12502,3.38994,-28.9984,-4.27387e-15,8.74653e-15,-31.2075,11.6036,74.4194,30.801,-0.202707,-20.6745,24.102,7.12502,5.68866,54.0057,-34.4175,5.53329,12.8397,66.3657,-33.5801,-6.80695,-11.1387,-33.4516,3.33325,-22.5217,63.9107,-29.9645,1.90435,-4.19215
0.61882,16.6334,-3.0422,3.46141,-1.37647,3.38538,20.1481,0.932876,-4.24028,3.12624,0.150616,-1.81353,-7.88341,0.16408,0.411259,-10.6559,-2.17107,-7.85033,-0.375813,-2.2001,8.98782,1.80599,-0.858894,3.89275,4.96962e-15,1.19271e-15,-27.8194,-0.642336,-78.2695,35.4651,15.4598,-23.2678,1.29197,7.12502,3.18444,-28.664,4.96962e-15,1.19271e-15,-31.2727,11.2304,74.5932,30.8295,-0.541295,-21.6631,23.1165,7.12502,4.73409,53.0436,-35.0367,5.04919,12.8226,67.2926,-33.8337,-6.71633,-11.4298,-34.0698,3.44844,-22.5373,64.8093,-30.3036,1.6408,-3.99222
0.628524,16.5755,-3.0395,3.44165,-1.38626,3.47102,20.2977,0.964126,-4.27227,3.22235,0.178976,-1.818,-7.85973,0.177069,0.416649,-10.6881,-2.20156,-7.89486,-0.511069,-2.22831,9.06531,1.77525,-0.870834,3.92265,-5.26779e-15,5.96354e-15,-27.665,-0.909204,-78.1263,35.5562,15.5219,-23.5341,1.67321,7.12502,2.92726,-28.2864,-5.26779e-15,5.96354e-15,-31.1393,10.8232,74.7996,30.7639,-1.18215,-22.7151,22.2851,7.12502,3.71824,52.2324,-35.4944,4.70498,12.6844,68.1908,-34.1115,-6.64919,-11.7701,-34.4575,3.56888,-22.6813,65.6576,-30.7131,1.52417,-3.95742
0.638137,16.5157,-3.03343,3.402,-1.38641,3.63495,20.3872,0.989314,-4.37974,3.39223,0.18811,-1.84152,-7.72221,0.180025,0.450801,-10.8706,-2.24461,-7.87658,-0.710279,-2.26512,9.06612,1.74795,-0.885987,3.91779,-5.76476e-15,-1.88845e-14,-27.3367,-1.18708,-77.9828,35.6037,15.5702,-23.361,1.1883,7.12502,3.09448,-28.769,-5.76476e-15,-1.88845e-14,-30.8656,10.517,74.9852,30.7083,-1.87178,-23.4869,21.9922,7.12502,2.97285,51.9512,-35.9419,4.35532,12.4505,69.1428,-34.4173,-6.38706,-11.9341,-34.7999,3.63478,-22.9172,66.5084,-31.0046,1.45163,-4.21189
0.646948,16.4411,-3.03338,3.41901,-1.32722,3.62628,20.6294,0.960152,-4.29991,3.43842,0.155682,-1.82709,-7.79993,0.163319,0.427901,-10.9774,-2.26811,-7.7989,-0.883345,-2.28785,9.00041,1.71324,-0.897573,3.88364,2.28602e-15,2.16675e-14,-27.1661,-1.42559,-77.8675,35.7745,15.5345,-22.9738,0.789789,7.12502,3.46837,-29.1617,2.28602e-15,2.16675e-14,-30.7586,10.2154,75.0941,30.6679,-2.76823,-24.3095,22.1398,7.12502,2.17845,52.1084,-36.4697,3.97687,12.4253,70.1587,-34.757,-6.11475,-11.8591,-35.3154,3.66436,-22.9406,67.4269,-31.264,1.27893,-4.12867
0.655786,16.3614,-3.03875,3.40959,-1.26145,3.62832,21.0648,0.911115,-4.21943,3.3935,0.083552,-1.80307,-8.0794,0.131707,0.423315,-10.7934,-2.24447,-7.83586,-1.17962,-2.24712,8.98845,1.5929,-0.883312,3.88964,4.47266e-15,-8.34896e-15,-27.1775,-1.62177,-77.7372,36.0355,15.4868,-22.742,1.02812,7.12502,3.69228,-28.9196,4.47266e-15,-8.34896e-15,-30.8113,10.0954,75.1393,30.6619,-4.00213,-25.0013,22.9121,7.12502,1.51029,52.8865,-37.0247,3.56748,12.3947,71.2215,-35.1285,-5.82002,-11.8118,-35.8568,3.70155,-22.9673,68.3578,-31.5845,1.07199,-3.84391
0.665767,16.2894,-3.04103,3.38541,-1.19551,3.73728,21.4103,0.898522,-4.20308,3.40536,0.0492919,-1.8194,-8.24972,0.117185,0.402803,-10.7387,-2.26945,-7.95332,-1.34016,-2.26416,9.11416,1.54178,-0.890558,3.94748,1.08338e-14,-3.95581e-14,-27.1356,-1.99071,-77.5654,36.2353,15.2566,-22.618,1.0791,7.12502,3.81195,-28.8666,1.08338e-14,-3.95581e-14,-30.7913,9.91688,75.2055,30.7143,-5.0613,-25.3719,23.0574,7.12502,1.15239,53.034,-37.587,3.15303,12.2387,72.2658,-35.4016,-5.61151,-11.7887,-36.3221,3.70828,-23.1377,69.234,-31.9552,1.02685,-3.98639
0.676491,16.2246,-3.04126,3.36091,-1.12423,3.87709,21.6594,0.88806,-4.20056,3.47714,0.021179,-1.85466,-8.30249,0.103377,0.369412,-10.8417,-2.29167,-8.08052,-1.40987,-2.27119,9.26929,1.54241,-0.887896,4.01566,-3.8763e-15,-2.96189e-14,-26.9807,-2.44146,-77.4026,36.4161,14.9802,-22.3761,0.805514,7.12502,4.04554,-29.1358,-3.8763e-15,-2.96189e-14,-30.6829,9.66389,75.2884,30.6924,-6.12186,-25.897,21.6832,7.12502,0.645211,51.6619,-38.1275,2.71657,12.0421,73.2667,-35.606,-5.33235,-11.6994,-36.7368,3.71374,-23.3604,70.0487,-32.3122,1.15742,-4.39332
0.684604,16.1564,-3.04359,3.31204,-1.01842,3.98664,21.8998,0.844804,-4.20111,3.60667,-0.0469106,-1.88502,-8.28504,0.0690955,0.355302,-11.0268,-2.27919,-8.05895,-1.53515,-2.23721,9.26208,1.53112,-0.86743,4.01129,-5.26779e-15,-2.24627e-14,-26.7282,-2.90233,-77.3201,36.6066,14.8757,-22.1062,0.268516,7.12502,4.30618,-29.6677,-5.26779e-15,-2.24627e-14,-30.3899,9.51398,75.3496,30.5158,-7.13317,-26.7927,20.3827,7.12502,-0.21987,50.3623,-38.6398,2.28512,11.9218,74.282,-35.8592,-5.27244,-12.3138,-37.1486,3.71792,-23.5233,70.8601,-32.6205,1.16904,-4.77329
0.692674,16.0849,-3.04696,3.27411,-0.985431,4.13225,22.1775,0.8314,-4.27467,3.67179,-0.0991228,-1.92462,-8.3586,0.0462956,0.367394,-11.1129,-2.25085,-7.98218,-1.65541,-2.19505,9.21141,1.50357,-0.846457,3.98524,-1.37161e-14,-1.82882e-14,-26.6279,-3.3597,-77.2445,36.8959,14.8302,-21.8866,-0.575298,7.12502,4.51825,-30.5071,-1.37161e-14,-1.82882e-14,-30.1826,9.13611,75.4607,30.5006,-7.61927,-27.6408,20.1953,7.12502,-1.03903,50.1725,-39.1959,1.95239,11.7514,75.3065,-36.0975,-5.21587,-13.187,-37.5767,3.75956,-23.7282,71.6809,-32.9117,1.08113,-4.72531
0.703225,16.0069,-3.04968,3.23212,-0.934368,4.30575,22.4956,0.833928,-4.33593,3.69569,-0.130844,-1.94862,-8.49951,0.0347072,0.383121,-11.223,-2.30241,-7.93694,-1.62465,-2.26154,9.09599,1.53289,-0.879924,3.93838,5.46658e-15,-2.18663e-15,-26.5725,-3.87484,-77.0465,37.1089,14.8571,-21.8204,-0.977711,7.12502,4.58222,-30.9082,5.46658e-15,-2.18663e-15,-30.0754,8.68237,75.6421,30.5725,-7.97406,-28.3424,20.1714,7.12502,-1.71658,50.1442,-39.729,1.65142,11.5112,76.3476,-36.3097,-4.94872,-13.2664,-38.0104,3.79987,-23.973,72.5395,-33.2248,1.07372,-5.04265
0.715227,15.9332,-3.05415,3.21232,-0.869153,4.46839,22.7878,0.82153,-4.34893,3.77295,-0.166707,-1.97104,-8.56721,0.0181807,0.375206,-11.4007,-2.37678,-7.97728,-1.66201,-2.34072,9.04276,1.55572,-0.916751,3.92397,-1.49089e-15,-5.76476e-15,-26.3539,-4.44439,-76.8244,37.1627,14.9458,-21.942,-0.454078,7.12502,4.46479,-30.387,-1.49089e-15,-5.76476e-15,-29.8048,8.33534,75.8224,30.5519,-8.36517,-28.9007,20.0217,7.12502,-2.25585,49.9895,-40.303,1.34378,11.2754,77.4025,-36.5032,-4.59256,-13.0636,-38.4705,3.85529,-24.2044,73.3858,-33.5264,0.952628,-4.86462
0.724655,15.8664,-3.06099,3.23289,-0.844089,4.4679,23.1137,0.798868,-4.27933,3.80039,-0.195707,-1.9465,-8.70804,0.00479049,0.369215,-11.5608,-2.36728,-8.05141,-1.73301,-2.30426,9.07636,1.55808,-0.89405,3.94803,-1.07344e-14,-7.95139e-15,-26.1509,-5.04636,-76.6496,37.1805,15.0237,-21.9624,-0.00861504,7.12502,4.44509,-29.942,-1.07344e-14,-7.95139e-15,-29.5391,8.18037,75.9184,30.4946,-8.68942,-29.4423,19.6438,7.12502,-2.77887,49.6054,-40.9535,1.11319,11.2504,78.4599,-36.544,-4.43778,-13.0144,-38.9915,3.95553,-24.2442,74.2426,-33.809,0.860792,-4.97452
0.732785,15.7938,-3.06488,3.22692,-0.844076,4.46969,23.4099,0.783409,-4.26972,3.7998,-0.226544,-1.89702,-8.86357,-0.00686457,0.425679,-11.5765,-2.32143,-8.11136,-1.85667,-2.22649,9.05024,1.51718,-0.855811,3.95424,-1.25731e-14,1.37161e-14,-26.0421,-5.56339,-76.4734,37.2959,15.0394,-22.0723,-0.424398,7.12502,4.33899,-30.3599,-1.25731e-14,1.37161e-14,-29.4307,8.17782,75.9762,30.5142,-9.09102,-29.8504,19.2201,7.12502,-3.17297,49.1762,-41.6214,0.902425,11.218,79.6011,-36.5619,-4.33799,-13.1725,-39.4725,4.0513,-24.2891,75.1267,-34.071,0.745481,-5.01306
0.743125,15.7134,-3.06634,3.17827,-0.853603,4.58098,23.611,0.79673,-4.30471,3.88342,-0.226403,-1.89548,-8.87605,-0.00631911,0.446916,-11.6018,-2.34161,-8.12373,-2.03084,-2.23908,8.97363,1.46898,-0.864073,3.93252,1.07344e-14,2.78299e-15,-25.8736,-6.14968,-76.2824,37.4064,15.0358,-22.2343,-1.17765,7.12502,4.18252,-31.1163,1.07344e-14,2.78299e-15,-29.2406,8.07116,76.0871,30.6099,-9.2877,-30.3685,19.0967,7.12502,-3.67335,49.0448,-42.2594,0.654319,11.0419,80.7979,-36.4914,-4.26568,-13.6765,-39.9126,4.12818,-24.4677,76.0318,-34.342,0.74407,-5.28222
0.753686,15.6286,-3.0692,3.16979,-0.869586,4.78781,23.8116,0.816805,-4.40575,3.97528,-0.237936,-1.93558,-8.87818,-0.0101819,0.463589,-11.7279,-2.39299,-8.22457,-2.19222,-2.27839,9.03318,1.44637,-0.879522,3.96554,-4.96962e-17,1.74931e-14,-25.6582,-6.60494,-76.136,37.5207,14.9771,-22.4662,-1.66155,7.12502,3.95855,-31.6045,-4.96962e-17,1.74931e-14,-29.0344,7.89681,76.1929,30.869,-9.38574,-30.8139,19.6156,7.12502,-4.10347,49.5558,-42.976,0.395947,10.7577,82.0224,-36.2642,-4.29756,-14.5186,-40.4318,4.25759,-24.7597,76.9592,-34.651,0.759911,-5.81622
0.763243,15.5473,-3.07069,3.13665,-0.879393,4.9837,24.0885,0.838542,-4.49187,4.025,-0.252375,-1.99245,-8.96715,-0.0141983,0.453238,-11.8285,-2.40388,-8.26022,-2.2943,-2.27643,9.07835,1.43291,-0.875308,3.98545,9.34288e-15,1.14301e-14,-25.5292,-7.03892,-76.016,37.6155,14.8876,-22.9366,-0.928578,7.12502,3.50431,-30.8795,9.34288e-15,1.14301e-14,-28.8762,7.67712,76.2491,31.1199,-9.41612,-30.9709,19.9943,7.12502,-4.25501,49.9316,-43.6606,0.126613,10.5148,83.2105,-36.0899,-4.38393,-14.8825,-40.8708,4.41747,-25.0208,77.8791,-35.0034,0.538222,-5.77819
0.772457,15.4671,-3.07115,3.05014,-0.926932,5.19429,24.4145,0.877532,-4.65154,4.06278,-0.265679,-2.02837,-9.09413,-0.014373,0.507217,-11.8386,-2.36969,-8.15408,-2.49065,-2.23037,8.91753,1.36768,-0.857191,3.92156,2.68359e-15,2.14687e-14,-25.4188,-7.43244,-75.8945,37.7307,14.8139,-22.9464,-0.545639,7.12502,3.49482,-30.4967,2.68359e-15,2.14687e-14,-28.7232,7.41472,76.363,31.2173,-9.11414,-31.3381,19.6764,7.12502,-4.60965,49.6063,-44.249,-0.0850829,10.2396,84.3651,-36.5438,-4.12448,-14.0279,-41.2169,4.62269,-25.2971,78.7813,-35.3491,0.229909,-5.27046
0.779374,15.384,-3.07062,2.99545,-0.948268,5.24121,24.7203,0.885736,-4.68218,4.04427,-0.282221,-2.01099,-9.27372,-0.0175318,0.547217,-11.7726,-2.31532,-8.06564,-2.66102,-2.16182,8.7383,1.29637,-0.829654,3.85627,-1.93815e-15,-8.84592e-15,-25.3837,-7.74873,-75.7624,37.839,14.8363,-22.742,-0.875518,7.12502,3.69228,-30.8233,-1.93815e-15,-8.84592e-15,-28.674,7.22172,76.4383,31.248,-8.93008,-31.8004,19.4573,7.12502,-5.05601,49.377,-44.8274,-0.252672,10.1417,85.4918,-36.0754,-4.27636,-15.9079,-41.669,4.80406,-25.3765,79.7064,-35.6331,0.0446653,-5.12724
0.786977,15.302,-3.07083,2.91651,-0.920935,5.34966,24.986,0.883637,-4.7229,4.06928,-0.31342,-2.02551,-9.38279,-0.0293333,0.563109,-11.731,-2.27704,-8.09727,-2.82112,-2.10131,8.75713,1.23796,-0.800156,3.8711,6.11263e-15,-4.57205e-15,-25.2591,-8.15596,-75.6394,37.8214,14.8686,-22.5684,-1.07718,7.12502,3.85992,-31.022,6.11263e-15,-4.57205e-15,-28.5265,7.18485,76.4496,31.2562,-8.92055,-32.0296,19.5923,7.12502,-5.27732,49.5066,-45.4103,-0.535058,9.97272,86.6138,-36.5245,-3.67983,-14.4258,-42.1007,4.95104,-25.5278,80.6065,-35.9166,-0.0661774,-5.22415
0.797243,15.2311,-3.06851,2.80112,-0.845639,5.49715,25.2017,0.873805,-4.73936,4.20683,-0.340143,-2.04542,-9.33913,-0.04378,0.559222,-11.9655,-2.31476,-8.11039,-2.89517,-2.12938,8.73776,1.25446,-0.809496,3.86539,7.35503e-15,1.40143e-14,-25.0086,-8.67972,-75.5132,37.9365,14.7485,-22.3141,-1.58804,7.12502,4.10543,-31.5282,7.35503e-15,1.40143e-14,-28.2236,7.09473,76.5397,31.3505,-8.86314,-32.2463,19.807,7.12502,-5.48655,49.7159,-45.9433,-0.947058,9.77747,87.6743,-36.2533,-3.68203,-14.8726,-42.3962,5.04957,-25.7411,81.4391,-36.233,-0.0326998,-5.87526
0.805675,15.1598,-3.07066,2.73052,-0.807796,5.58417,25.4468,0.863079,-4.69323,4.3326,-0.35619,-2.08546,-9.3248,-0.0547974,0.493445,-12.1773,-2.37118,-8.04336,-3.07743,-2.1887,8.67366,1.23607,-0.836976,3.83169,8.84592e-15,2.98177e-15,-24.7353,-9.16974,-75.4727,38.0965,14.5845,-22.4989,-2.08955,7.12502,3.92705,-32.0331,8.84592e-15,2.98177e-15,-27.8586,6.92235,76.5944,31.4217,-8.79306,-32.5888,19.8624,7.12502,-5.81718,49.7626,-46.6464,-1.33903,9.72061,88.7168,-35.1254,-4.36384,-17.4609,-42.7685,5.2149,-25.8775,82.2779,-36.4388,-0.190101,-5.95025
0.810949,15.0892,-3.07899,2.79595,-0.768777,5.54988,25.7046,0.84126,-4.61131,4.32285,-0.376395,-2.05514,-9.469,-0.0635213,0.485514,-12.24,-2.37228,-8.14853,-3.21378,-2.16568,8.75871,1.20614,-0.82168,3.87672,4.12478e-15,-1.72943e-14,-24.578,-9.43514,-75.437,38.0637,14.3385,-23.3873,-1.92854,7.12502,3.06907,-31.8862,4.12478e-15,-1.72943e-14,-27.6106,6.8845,76.6465,31.3996,-8.74948,-32.8974,19.3913,7.12502,-6.11514,49.283,-47.5924,-1.70497,9.82486,89.7358,-34.8807,-4.94128,-18.9553,-43.362,5.40983,-25.891,83.1584,-36.5932,-0.247227,-6.31703
0.817608,15.0068,-3.08141,2.82257,-0.682568,5.61024,26.0097,0.80508,-4.6277,4.24767,-0.44744,-2.02678,-9.70864,-0.0904553,0.548018,-12.1918,-2.30371,-8.21335,-3.29877,-2.06427,8.7691,1.16571,-0.77141,3.89624,-1.2424e-15,3.0911e-14,-24.5571,-9.45757,-75.3956,37.9924,13.7501,-23.5439,-1.57988,7.12502,2.91785,-31.5397,-1.2424e-15,3.0911e-14,-27.5728,6.77299,76.7116,31.4433,-8.59155,-33.0936,19.0544,7.12502,-6.30455,48.9406,-47.9728,-2.07766,9.63976,90.7168,-35.2227,-4.22313,-18.2248,-43.9509,5.56354,-26.0278,84.1074,-36.7719,-0.219252,-6.89916
0.825426,14.9228,-3.08124,2.77883,-0.605218,5.63955,26.3198,0.781157,-4.54627,4.21903,-0.477114,-2.02811,-9.90127,-0.103035,0.508335,-12.114,-2.26295,-8.15173,-3.51095,-2.01176,8.70296,1.08433,-0.749319,3.86958,7.90169e-15,-1.00386e-14,-24.5787,-9.729,-75.2725,38.0821,13.6,-23.5359,-0.44639,7.12502,2.92561,-30.4061,7.90169e-15,-1.00386e-14,-27.4707,6.48228,76.8015,31.5444,-8.36158,-33.4132,19.1927,7.12502,-6.61313,49.0694,-48.2196,-2.4312,9.44772,91.6679,-35.5182,-3.23892,-16.9602,-44.4682,5.75397,-26.1224,85.0827,-36.9894,-0.293034,-7.1827
0.831631,14.8435,-3.08437,2.76324,-0.469553,5.67255,26.5508,0.728113,-4.45511,4.25503,-0.53391,-2.03965,-9.97868,-0.13147,0.46195,-12.0651,-2.27722,-8.01986,-3.87055,-2.04722,8.23757,1.08294,-0.783442,4.09315,5.01931e-15,2.15184e-14,-24.4662,-10.027,-75.1758,38.5114,14.474,-23.311,-0.618974,7.12502,3.14275,-30.5756,5.01931e-15,2.15184e-14,-27.2014,6.30625,76.8466,31.5332,-8.21724,-33.7326,19.1248,7.12502,-6.9214,48.9916,-48.6592,-2.84818,9.29038,92.6355,-35.603,-2.58121,-16.5513,-44.9883,5.85279,-26.2138,86.0252,-37.1852,-0.43036,-7.2196
0.835036,14.7693,-3.08947,2.75351,-0.280136,5.74392,26.7407,0.676498,-4.42434,4.32002,-0.600849,-2.0483,-10.0006,-0.163648,0.457522,-12.2266,-2.31195,-7.87714,-3.99303,-2.09442,8.12529,1.06981,-0.807409,4.02121,1.30204e-14,4.32357e-15,-24.234,-10.2693,-75.1546,38.6615,14.4208,-23.0749,-1.18504,7.12502,3.37074,-31.1381,1.30204e-14,4.32357e-15,-26.8435,6.15599,76.9118,31.5326,-8.05067,-33.8973,19.1272,7.12502,-7.08039,48.9887,-49.2186,-3.34525,9.12039,93.648,-35.5732,-2.26384,-16.9525,-45.4833,5.89856,-26.3506,86.907,-37.2839,-0.359834,-7.82869
0.838362,14.6994,-3.09054,2.67557,-0.0837741,5.7773,26.9662,0.631029,-4.39189,4.3884,-0.658382,-2.03178,-10.0368,-0.190785,0.477321,-12.3184,-2.30313,-7.84634,-4.16768,-2.07207,8.12216,1.02528,-0.794596,4.0145,3.72721e-15,1.53561e-14,-24.0116,-10.3718,-75.1821,38.6359,13.9741,-23.0989,-1.91621,7.12502,3.34764,-31.8697,3.72721e-15,1.53561e-14,-26.4959,6.03877,77.0022,31.5599,-7.99827,-33.8741,19.7132,7.12502,-7.05801,49.5755,-49.6649,-3.82424,8.98459,94.6089,-35.5859,-1.94717,-17.3474,-45.8729,5.98634,-26.4173,87.7354,-37.2988,-0.678265,-7.41281
0.844123,14.6346,-3.08673,2.62453,0.0611685,5.94212,27.1154,0.623615,-4.49712,4.43764,-0.702953,-2.02255,-10.0539,-0.20753,0.563643,-12.3202,-2.30413,-7.90132,-4.38923,-2.05559,8.09844,0.950766,-0.785771,4.01684,1.72446e-14,1.42131e-14,-23.863,-10.2858,-75.1593,38.6731,13.3699,-23.8962,-1.18835,7.12502,2.57761,-31.1525,1.72446e-14,1.42131e-14,-26.1323,5.97026,77.1333,31.456,-7.94172,-33.6708,20.1891,7.12502,-6.86177,50.0579,-50.0192,-4.31068,8.69873,95.4134,-35.4831,-1.5527,-17.7447,-46.2288,6.10184,-26.6646,88.5048,-37.3364,-0.862716,-7.2511
0.84944,14.5763,-3.08206,2.58392,0.0749893,6.09078,27.2373,0.661145,-4.62216,4.48993,-0.693875,-2.01001,-10.0551,-0.199174,0.646547,-12.3603,-2.31177,-8.06314,-4.57065,-2.03369,8.17523,0.899996,-0.770273,4.0775,-7.33018e-16,-6.33626e-15,-23.779,-10.1543,-75.0924,38.9651,12.8816,-24.1591,-0.83004,7.12502,2.32371,-30.7971,-7.33018e-16,-6.33626e-15,-25.7787,5.8572,77.2847,31.3531,-7.98188,-33.7138,20.298,7.12502,-6.90332,50.1654,-50.3675,-4.58087,8.40159,96.1443,-35.3077,-1.06779,-18.7442,-46.5648,6.31938,-26.9166,89.2527,-37.3809,-0.76664,-7.98862
0.850795,14.5165,-3.08017,2.52563,0.0890127,6.06303,27.4404,0.673565,-4.60711,4.51754,-0.681059,-1.97373,-10.1277,-0.191838,0.674217,-12.447,-2.29956,-8.07946,-4.71611,-2.00224,8.17568,0.864284,-0.752268,4.08226,-5.55976e-15,-9.42985e-15,-23.6755,-10.1,-75.0943,39.1206,12.684,-24.1925,-0.884532,7.12502,2.29149,-30.852,-5.55976e-15,-9.42985e-15,-25.4584,5.59218,77.4187,31.2581,-7.84365,-33.9356,20.4241,7.12502,-7.11736,50.2844,-50.8128,-4.75164,8.29938,96.918,-35.1256,-0.473661,-19.8633,-46.9458,6.62371,-26.9169,90.0322,-37.4139,-1.06614,-7.87437
0.851766,14.4483,-3.07907,2.47849,0.14425,6.02547,27.6521,0.666768,-4.57785,4.53802,-0.688476,-1.92937,-10.212,-0.193869,0.709953,-12.6343,-2.28972,-8.05457,-4.80055,-1.97495,8.14227,0.865505,-0.735598,4.06679,-6.85807e-15,-5.47279e-15,-23.4842,-10.1075,-75.0971,39.1051,12.6891,-27.2095,1.55079,7.12502,-0.622383,-28.428,-6.85807e-15,-5.47279e-15,-25.1134,5.38417,77.5414,31.1443,-7.60708,-34.1386,20.0024,7.12502,-7.31331,49.856,-51.3305,-5.05628,8.23314,97.7432,-34.9719,0.0182613,-20.4217,-47.3758,6.92678,-26.9042,90.794,-37.4695,-1.28445,-8.04094
0.851917,14.3849,-3.07638,2.44244,0.128066,6.07304,27.7985,0.699518,-4.64316,4.59492,-0.671185,-1.92253,-10.2213,-0.183792,0.749311,-12.939,-2.30183,-8.06707,-4.84568,-1.96564,8.16587,0.903915,-0.724175,4.079,8.50581e-15,9.39568e-15,-23.2525,-10.2828,-75.1294,39.3661,12.7758,-27.1792,1.99666,7.12502,-0.593128,-27.9823,8.50581e-15,9.39568e-15,-24.7288,5.08814,77.657,31.1435,-7.4121,-34.2113,19.5646,7.12502,-7.38349,49.4157,-51.7997,-5.36081,8.09557,98.4886,-34.8469,0.411916,-20.8592,-47.7495,7.22706,-26.999,91.4513,-37.5572,-1.22762,-8.8379
0.854589,14.3417,-3.06874,2.3652,0.119099,6.09223,27.8977,0.715124,-4.654,4.662,-0.657325,-1.92106,-10.1954,-0.178119,0.752627,-13.381,-2.32104,-8.04208,-4.6292,-1.95553,8.49331,0.936053,-0.700927,3.79174,-2.78376e-16,8.7442e-15,-23.0505,-10.4221,-75.1735,39.7189,12.6388,-26.0727,0.986851,7.12502,0.475562,-28.9924,-2.78376e-16,8.7442e-15,-24.3986,4.75853,77.7383,31.1351,-7.43191,-34.195,19.7681,7.12502,-7.36778,49.6198,-52.0607,-5.61672,7.99326,99.0722,-34.7646,0.69026,-21.7192,-47.9113,7.45779,-27.0693,91.958,-37.6651,-1.23196,-8.9908
0.854482,14.3014,-3.0611,2.23848,0.161158,6.02654,28.0062,0.715068,-4.60051,4.73196,-0.641062,-1.88491,-10.1714,-0.172853,0.75726,-13.4994,-2.34065,-8.07605,-4.68042,-1.9659,8.53816,0.940904,-0.702239,3.81056,9.64727e-15,2.44132e-15,-22.8442,-10.4516,-75.2205,39.7683,12.4455,-25.627,0.57313,7.12502,0.905994,-29.4047,9.64727e-15,2.44132e-15,-24.1007,4.13377,77.8831,31.1314,-7.12351,-34.1502,20.0189,7.12502,-7.32459,49.8721,-52.1797,-5.83148,7.9944,99.5789,-34.7701,1.10531,-21.9629,-47.9958,7.6756,-27.0176,92.4317,-37.7935,-1.4523,-8.40139
0.853223,14.2592,-3.05504,2.1565,0.172125,6.0603,28.1311,0.735232,-4.66421,4.75754,-0.637952,-1.86285,-10.2045,-0.168423,0.817702,-13.5679,-2.34496,-8.06539,-4.81481,-1.96143,8.4767,0.909465,-0.700117,3.79064,2.30466e-15,9.64106e-15,-22.6871,-10.3303,-75.2439,39.9678,12.1314,-25.7037,0.696543,7.12502,0.831942,-29.2816,2.30466e-15,9.64106e-15,-23.8208,3.4302,78.0577,31.1343,-6.95543,-34.2231,20.2264,7.12502,-7.39487,50.0772,-52.3604,-6.04682,7.88959,100.069,-34.7156,1.51879,-21.9003,-48.1296,7.94574,-27.1169,92.8573,-38.0084,-1.37981,-8.50321
0.851293,14.213,-3.04983,2.11919,0.203338,6.02302,28.239,0.724533,-4.62987,4.79028,-0.645476,-1.85154,-10.2216,-0.172767,0.813573,-13.628,-2.33264,-8.02767,-5.0857,-1.95188,8.13108,0.941933,-0.704271,4.06045,-7.0258e-15,8.33653e-15,-22.4824,-10.3104,-75.3005,40.3458,11.7969,-25.7991,0.880088,7.12502,0.739826,-29.0984,-7.0258e-15,8.33653e-15,-23.4777,2.71855,78.1223,31.215,-7.50006,-33.3801,21.4792,7.12502,-6.58116,51.3569,-52.6201,-6.25318,7.92128,100.537,-34.6231,1.62634,-22.0014,-48.3345,8.19861,-27.167,93.2913,-38.2308,-1.14647,-9.12302
0.847126,14.1721,-3.04524,2.07256,0.276463,5.91808,28.3423,0.673026,-4.52647,4.86565,-0.683027,-1.84513,-10.1874,-0.194801,0.775317,-14.3972,-2.28749,-7.91393,-4.71696,-1.85254,8.43188,1.05286,-0.630212,3.75541,9.51827e-15,-4.88498e-15,-22.0543,-10.6085,-75.3845,40.5821,11.7097,-25.2946,1.40464,7.12502,1.22703,-28.5716,9.51827e-15,-4.88498e-15,-23.1354,1.77847,78.1406,31.393,-7.91251,-32.3764,22.6009,7.12502,-5.61214,52.5066,-52.8168,-6.45151,8.05536,100.942,-34.6111,1.63836,-22.0679,-48.5275,8.40088,-27.1295,93.6766,-38.3429,-1.00547,-9.0597
0.842114,14.1543,-3.04097,2.07062,0.407396,5.74599,28.4467,0.588535,-4.36831,4.88846,-0.743775,-1.79705,-10.2131,-0.226886,0.760745,-15.0385,-2.24875,-7.90262,-4.46157,-1.7698,8.4348,1.21865,-0.574203,3.75704,6.3021e-15,-1.51325e-14,-21.7323,-10.8344,-75.4212,41.0442,11.5258,-25.0907,1.80526,7.12502,1.42401,-28.1697,6.3021e-15,-1.51325e-14,-22.9729,0.421456,78.2744,31.5079,-7.46652,-32.867,21.9788,7.12502,-6.08583,51.8714,-52.8634,-6.63026,8.28937,101.121,-34.62,1.64788,-22.0763,-48.6557,8.52574,-27.0195,93.8889,-38.4888,-0.917239,-8.78625
0.837761,14.1622,-3.03204,2.07687,0.517581,5.56135,28.494,0.494965,-4.21577,4.91074,-0.813842,-1.74538,-10.2102,-0.263664,0.756889,-15.6053,-2.22672,-7.85559,-4.25145,-1.71829,8.38259,1.36052,-0.537561,3.73492,-4.28629e-16,1.96548e-14,-21.5099,-11.1347,-75.4438,41.7822,11.42,-24.9108,2.3803,7.12502,1.59771,-27.5935,-4.28629e-16,1.96548e-14,-22.8712,-1.31231,78.4133,31.4097,-7.07702,-34.1249,20.5395,7.12502,-7.30017,50.3936,-52.7495,-6.74791,8.56528,101.063,-34.6006,1.53769,-22.1705,-48.7024,8.69805,-26.9183,93.9398,-38.6151,-0.488517,-8.95526
0.833225,14.1918,-3.01729,2.07503,0.562337,5.42651,28.4747,0.450829,-4.17291,4.96019,-0.847482,-1.68712,-10.1421,-0.281465,0.81035,-16.0803,-2.15362,-7.81385,-4.13518,-1.59875,8.27256,1.4538,-0.470761,3.70074,4.85159e-15,-1.84373e-14,-21.2208,-11.6053,-75.3812,42.6083,11.3085,-25.0915,3.59999,7.12502,1.4232,-26.375,4.85159e-15,-1.84373e-14,-22.9562,-3.28982,78.5666,31.4277,-7.10112,-35.5412,18.8617,7.12502,-8.66712,48.6638,-52.4587,-6.74704,8.76497,100.808,-34.6105,1.5238,-21.8528,-48.64,8.90285,-26.8641,93.8269,-38.6742,0.0618768,-9.58393
0.826238,14.2207,-3.00256,2.10138,0.584089,5.30195,28.4399,0.411358,-4.16845,4.97988,-0.886201,-1.62131,-10.0991,-0.299591,0.896018,-16.4569,-2.01366,-7.82847,-4.13449,-1.38161,8.19547,1.49102,-0.356043,3.69289,4.50993e-15,-9.93923e-16,-20.9019,-12.2369,-75.267,43.5022,11.0954,-25.5736,4.85306,7.12502,0.957604,-25.1245,4.50993e-15,-9.93923e-16,-23.1477,-4.43345,78.3234,32.0801,-10.4853,-33.1099,20.6627,7.12502,-6.32028,50.5484,-52.2232,-6.68983,8.97111,100.506,-34.5688,1.44366,-21.6283,-48.5415,9.07251,-26.7917,93.6191,-38.6982,0.302971,-9.98007
0.816889,14.2465,-2.99043,2.11772,0.603396,5.09462,28.4494,0.364829,-4.10411,4.96236,-0.916899,-1.52501,-10.122,-0.31385,0.978818,-17.117,-1.89655,-7.81394,-3.89452,-1.19088,8.07635,1.64287,-0.250219,3.66611,-9.93923e-17,-9.21864e-15,-20.6656,-12.9866,-75.0855,44.6114,10.815,-25.557,5.01221,7.12502,0.973653,-24.9653,-9.93923e-17,-9.21864e-15,-23.5437,-6.07635,78.2604,32.6579,-11.8339,-32.9026,19.2549,7.12502,-6.12018,49.1465,-52.0205,-6.53537,9.30919,100.181,-34.4908,1.19707,-21.5345,-48.4153,9.19381,-26.5779,93.3749,-38.6348,0.255565,-9.63146
0.808204,14.2808,-2.98115,2.1004,0.670926,5.04072,28.543,0.306539,-4.15306,4.9249,-1.00672,-1.4755,-10.206,-0.350901,1.09585,-18.0918,-1.79871,-7.65109,-3.3619,-1.04175,7.76407,1.9281,-0.167745,3.55395,-9.59136e-15,-2.19906e-14,-20.4802,-13.8073,-74.8509,45.9218,10.4108,-25.3774,5.04804,7.12502,1.14709,-24.9286,-9.59136e-15,-2.19906e-14,-24.127,-7.8837,78.1481,33.4174,-12.981,-34.3438,16.9584,7.12502,-7.5114,46.805,-51.7138,-6.43293,9.44475,99.7723,-34.423,1.1145,-21.1377,-48.1952,9.19566,-26.4969,93.016,-38.4974,-0.0134871,-8.57971
0.79988,14.328,-2.97402,2.13114,0.754397,4.94603,28.5804,0.204598,-4.17553,4.88382,-1.13894,-1.40328,-10.2636,-0.408481,1.23858,-19.0663,-1.70968,-7.4216,-2.93599,-0.91059,7.33267,2.1804,-0.102072,3.39411,-8.48562e-15,-1.26725e-15,-20.3483,-14.5055,-74.5754,47.6318,9.81628,-25.2416,4.85701,7.12502,1.27825,-25.1189,-8.48562e-15,-1.26725e-15,-24.6502,-9.62839,77.866,34.3625,-14.7274,-35.341,16.1108,7.12502,-8.47389,45.9208,-51.4143,-6.35681,9.66222,99.2716,-34.3439,0.873854,-20.8484,-47.9887,9.14912,-26.3525,92.5416,-38.2732,-0.0314103,-8.28545
0.793925,14.394,-2.96033,2.18336,0.848272,4.83054,28.4629,0.0844857,-4.16472,4.84945,-1.275,-1.32364,-10.2351,-0.470853,1.37042,-19.778,-1.61848,-7.02613,-2.81315,-0.814574,6.74575,2.30272,-0.0690708,3.15593,8.64713e-15,-3.23025e-15,-20.3955,-15.1535,-74.1922,49.726,9.20794,-25.2081,4.66336,7.12502,1.31061,-25.3124,8.64713e-15,-3.23025e-15,-25.1688,-11.5198,77.5504,35.3447,-16.0165,-34.784,15.8307,7.12502,-7.9363,45.6617,-51.0259,-6.305,9.92393,98.6321,-34.2022,0.47241,-20.8975,-47.6506,8.99195,-26.169,91.9079,-37.9803,-0.050711,-8.26082
0.78804,14.4743,-2.94077,2.19422,0.87122,4.76906,28.2909,0.0428267,-4.21736,4.80489,-1.32945,-1.26329,-10.1933,-0.494047,1.48659,-20.3036,-1.53289,-6.63803,-2.7992,-0.73825,6.23751,2.36832,-0.0473123,2.94176,-1.70955e-14,6.41081e-15,-20.6045,-15.7178,-73.6548,51.992,8.48456,-25.7985,4.63204,7.12502,0.740385,-25.3464,-1.70955e-14,6.41081e-15,-25.8373,-13.4142,77.2253,36.5362,-16.6712,-34.1829,15.426,7.12502,-7.35607,45.2781,-50.517,-6.1719,10.1407,97.8212,-33.9522,0.0197164,-21.027,-47.1242,8.81179,-26.0326,91.1155,-37.7128,0.249562,-8.9813
0.781842,14.5677,-2.91817,2.17674,0.762922,4.56412,28.092,0.0754869,-4.19562,4.75972,-1.25987,-1.15068,-10.1453,-0.461801,1.5741,-20.7608,-1.46628,-6.31916,-2.88533,-0.679112,5.84438,2.39674,-0.0305271,2.77341,3.86388e-15,-1.32192e-14,-20.865,-16.2007,-72.9388,54.3146,7.85494,-27.1264,4.49437,7.12502,-0.542182,-25.4847,3.86388e-15,-1.32192e-14,-26.5968,-15.3489,76.867,38.0022,-16.5275,-34.0695,15.1418,7.12502,-7.24662,44.9977,-49.9132,-5.82771,10.5461,96.8491,-33.6378,-0.480777,-20.9541,-46.5019,8.77567,-25.7107,90.1788,-37.41,0.578536,-9.76132
0.775937,14.6742,-2.89304,2.10056,0.548893,4.28414,27.912,0.139582,-4.14812,4.70869,-1.14446,-1.03891,-10.1169,-0.408789,1.62998,-21.1015,-1.38977,-6.07796,-3.16608,-0.600833,5.68987,2.35138,0.00521715,2.6935,1.18525e-14,8.49804e-15,-21.2256,-16.5924,-72.0726,56.7554,7.44494,-27.8175,4.78524,7.12502,-1.20962,-25.1911,1.18525e-14,8.49804e-15,-27.453,-17.2188,76.3897,39.6971,-15.5922,-33.684,15.0161,7.12502,-6.87449,44.8845,-49.1939,-5.30008,11.0307,95.7397,-33.3032,-0.934283,-20.5289,-45.7538,8.86877,-25.2881,89.117,-37.059,0.737319,-10.3688
0.770573,14.7971,-2.86496,1.95817,0.412371,4.08139,27.8416,0.185645,-4.11668,4.6184,-1.06877,-0.970234,-10.1875,-0.371393,1.66217,-21.1085,-1.29911,-6.0015,-3.70462,-0.488079,5.88957,2.18341,0.0705541,2.75246,-1.51573e-15,-6.4605e-15,-21.7182,-16.923,-71.0225,59.2953,7.0475,-27.9333,4.81555,7.12502,-1.32153,-25.1601,-1.51573e-15,-6.4605e-15,-28.5378,-19.1473,75.8564,41.7299,-13.8929,-33.2468,15.5735,7.12502,-6.45246,45.4552,-48.2557,-4.8867,11.4029,94.4744,-32.9644,-1.26323,-20.1147,-44.779,8.92308,-24.9296,87.861,-36.613,0.56274,-10.0482
0.764502,14.9348,-2.83815,1.78423,0.408976,4.06208,27.832,0.245586,-4.21412,4.52448,-1.01832,-0.927657,-10.2899,-0.340554,1.74872,-21.006,-1.28819,-6.0039,-4.25051,-0.468232,6.18538,2.00513,0.0917555,2.84646,2.08724e-15,-6.4605e-15,-22.1587,-17.2828,-69.7429,61.7002,6.85545,-28.1187,4.50722,7.12502,-1.50052,-25.4672,2.08724e-15,-6.4605e-15,-29.6574,-21.3188,75.3493,43.9427,-11.5444,-32.9724,16.7038,7.12502,-6.18754,46.5934,-47.148,-4.69727,11.542,93.0782,-32.6357,-1.52819,-19.9447,-43.6479,8.86477,-24.7816,86.4065,-36.1186,0.364959,-9.43172
0.757922,15.0814,-2.81209,1.57903,0.412259,3.93099,27.8428,0.298821,-4.20724,4.41104,-0.94531,-0.86376,-10.4284,-0.301361,1.79153,-21.0296,-1.3006,-5.93704,-4.52,-0.494909,6.42573,1.9312,0.0877969,2.90906,3.6154e-15,9.7156e-15,-22.5886,-17.6176,-68.3183,63.9816,6.89851,-28.2149,4.25207,7.12502,-1.59344,-25.7217,3.6154e-15,9.7156e-15,-30.7874,-23.6587,74.8105,46.1557,-8.85995,-33.0268,17.8433,7.12502,-6.2401,47.7314,-45.9291,-4.44336,11.8029,91.5139,-32.1698,-1.90776,-20.1352,-42.3689,8.83178,-24.5274,84.7582,-35.5923,0.257197,-8.93846
0.751871,15.2369,-2.7807,1.30069,0.324359,3.80243,27.8224,0.369504,-4.18809,4.29174,-0.847907,-0.823791,-10.5602,-0.252062,1.79115,-21.0832,-1.35982,-6.01996,-4.5632,-0.559588,6.84931,1.93607,0.0746641,3.05062,-5.13113e-15,-1.54804e-14,-22.9941,-17.8166,-66.8114,66.0566,6.72154,-28.2873,3.6994,7.12502,-1.66336,-26.2739,-5.13113e-15,-1.54804e-14,-32.0322,-26.2038,74.2739,48.4319,-5.58865,-33.212,18.8366,7.12502,-6.41888,48.7194,-44.5711,-4.05166,12.0136,89.7634,-31.4613,-2.16179,-20.2115,-40.8546,8.89519,-24.2831,82.8813,-35.0042,0.104249,-7.95084
0.750305,15.4174,-2.73694,0.957446,0.128383,3.83188,27.6807,0.48432,-4.28011,4.19175,-0.726692,-0.844982,-10.6083,-0.191149,1.77595,-21.0077,-1.44529,-6.13666,-4.49019,-0.663367,7.2857,1.96199,0.0409123,3.1982,-7.87063e-15,-7.85199e-15,-23.2931,-17.9717,-65.1993,67.8482,6.58576,-27.9482,3.27881,7.12502,-1.33593,-26.6968,-7.87063e-15,-7.85199e-15,-33.3426,-29.1919,73.8449,50.7027,-1.7204,-33.3984,20.4366,7.12502,-6.59882,50.3138,-42.9819,-3.57602,11.9848,87.7503,-30.6014,-2.26883,-20.5686,-39.0969,9.0741,-24.2346,80.7484,-34.356,0.192942,-7.55151
0.750222,15.6292,-2.68116,0.651738,-0.142599,3.75849,27.3464,0.615969,-4.28406,4.04103,-0.546681,-0.843995,-10.6197,-0.106214,1.71328,-20.7805,-1.5177,-6.19236,-4.30372,-0.774514,7.5883,2.00008,-0.00512777,3.29262,-3.10601e-15,-2.045e-14,-23.6038,-18.1379,-63.4941,69.4817,6.70523,-26.9926,2.85617,7.12502,-0.412901,-27.1232,-3.10601e-15,-2.045e-14,-34.7661,-32.6079,73.5971,52.8628,2.38215,-33.5448,22.4793,7.12502,-6.74012,52.352,-41.211,-3.0252,12.0662,85.4176,-29.8116,-2.26231,-20.2153,-37.3074,9.36508,-24.0497,78.4079,-33.5172,0.316754,-7.70708
0.752843,15.8655,-2.61427,0.299792,-0.416743,3.64515,26.9498,0.747228,-4.27423,3.87977,-0.351407,-0.774207,-10.6102,-0.013437,1.7157,-20.806,-1.6144,-6.30346,-3.7219,-0.909471,7.79012,2.19428,-0.0594827,3.36384,-2.51121e-15,6.33316e-15,-23.6999,-18.1607,-61.7354,70.8001,6.6448,-26.401,2.36861,7.12502,0.158463,-27.6111,-2.51121e-15,6.33316e-15,-36.1871,-36.0401,73.5715,54.6351,5.74036,-33.8977,23.8631,7.12502,-7.08086,53.7246,-39.1676,-2.47657,12.1476,82.8,-29.2483,-1.82164,-18.2716,-35.3373,9.63617,-23.7942,75.8378,-32.4479,0.41229,-7.59819
0.757778,16.1047,-2.53826,-0.199642,-0.697802,3.54879,26.4827,0.86794,-4.24959,3.81906,-0.158413,-0.706784,-10.4482,0.0735191,1.70907,-21.0894,-1.70366,-6.38451,-2.77991,-1.04344,7.88522,2.53346,-0.110692,3.39816,7.53518e-15,1.2101e-14,-23.5234,-18.1617,-60.0498,71.7375,6.80649,-26.4628,2.18269,7.12502,0.0987324,-27.797,7.53518e-15,1.2101e-14,-37.4382,-39.362,73.563,56.0924,8.11889,-34.2161,24.7503,7.12502,-7.3882,54.6013,-36.846,-1.89266,12.1769,80.0201,-28.2509,-1.46464,-17.4812,-32.9538,9.88999,-23.505,73.0525,-31.3674,0.0167652,-6.19613
0.765404,16.3515,-2.45577,-0.704526,-0.935227,3.44685,25.9032,0.961281,-4.19332,3.73992,0.015077,-0.625573,-10.2466,0.150516,1.7081,-21.0848,-1.76611,-6.53798,-1.9648,-1.13483,7.98342,2.79153,-0.14666,3.4474,1.11444e-14,4.82053e-15,-23.2285,-18.1414,-58.413,72.3639,7.22807,-26.65,1.64962,7.12502,-0.0820127,-28.3301,1.11444e-14,4.82053e-15,-38.744,-42.3021,73.5669,57.5791,9.83987,-34.1706,25.4194,7.12502,-7.3442,55.2719,-34.4367,-1.34807,12.2226,77.0861,-27.1604,-1.12236,-16.7716,-30.4399,10.0995,-23.2199,70.0814,-30.1002,-0.266115,-5.39348
0.773315,16.6149,-2.36916,-0.927195,-1.09678,3.26839,25.0164,0.992493,-4.08057,3.51167,0.141709,-0.480911,-10.0482,0.207594,1.7629,-20.876,-1.83561,-6.75649,-1.18943,-1.22698,8.01479,3.00792,-0.191291,3.48522,-3.08116e-15,3.03147e-15,-22.802,-17.9922,-56.815,72.6369,7.53084,-27.4571,1.08446,7.12502,-0.861592,-28.8935,-3.08116e-15,3.03147e-15,-40.2679,-44.7353,73.7459,58.993,10.8117,-33.9716,25.3361,7.12502,-7.15214,55.1952,-32.2198,-0.931661,12.4109,73.9423,-25.828,-1.10175,-16.6747,-28.2551,10.1863,-22.8947,66.9583,-28.3924,-0.236099,-4.94391
0.780442,16.897,-2.278,-0.981864,-1.19148,3.2194,23.8932,0.976965,-4.11066,3.24852,0.175636,-0.372175,-9.75345,0.22498,1.89076,-21.014,-1.86282,-6.93626,-0.0559103,-1.26975,8.03993,3.38122,-0.204142,3.52201,-4.96962e-17,0,-22.1703,-17.5377,-55.4337,72.5935,7.3232,-29.1144,0.639101,7.12502,-2.46217,-29.3264,-4.96962e-17,0,-41.6873,-46.686,73.9092,60.0006,10.3316,-34.0851,24.769,7.12502,-7.26173,54.6244,-30.1145,-0.647972,12.4722,70.6107,-24.1565,-1.16309,-16.8934,-26.1507,10.0904,-22.731,63.5966,-26.3339,-0.169589,-4.37781
0.787132,17.2062,-2.17913,-1.03136,-1.24983,3.30042,22.7311,0.951758,-4.26027,2.95491,0.162276,-0.325825,-9.46236,0.223768,2.03196,-21.1408,-1.82327,-7.06312,1.14232,-1.23976,8.06272,3.76901,-0.182011,3.55755,7.28049e-15,1.49089e-15,-21.5586,-16.6854,-54.2982,72.3249,6.41619,-31.2473,-0.0578233,7.12502,-4.52197,-29.9896,7.28049e-15,1.49089e-15,-43.1198,-48.2589,74.0606,60.7115,8.45592,-34.4734,23.8495,7.12502,-7.63655,53.6916,-27.91,-0.358819,12.3627,67.0383,-22.2249,-0.869412,-16.2102,-23.8867,9.8558,-22.7155,59.9446,-23.9711,0.0870758,-5.85022
0.793314,17.5267,-2.07533,-1.1791,-1.31903,3.41606,21.6285,0.948116,-4.4531,2.63923,0.166852,-0.272195,-9.22222,0.233971,2.19947,-21.206,-1.78813,-7.16589,2.39499,-1.2153,7.9434,4.16451,-0.173731,3.54484,5.93869e-15,-1.98785e-16,-21.0549,-15.6756,-53.3064,71.769,5.20813,-33.0949,-1.1158,7.12502,-6.30585,-31.0019,5.93869e-15,-1.98785e-16,-44.4898,-49.407,74.288,61.2332,6.13506,-34.8783,22.8253,7.12502,-8.0273,52.6529,-25.5125,0.0781788,12.2161,63.2229,-19.9315,-0.719281,-15.3593,-21.3455,9.45011,-22.7131,56.001,-21.2462,0.269007,-6.7412
0.79945,17.8689,-1.96606,-1.35099,-1.44188,3.3704,20.4949,0.929347,-4.49154,2.33067,0.198767,-0.146703,-8.95285,0.252232,2.34925,-21.2566,-1.81725,-7.38701,3.61887,-1.24092,7.81901,4.55543,-0.195064,3.54587,-7.05686e-15,-1.59028e-15,-20.5202,-14.8405,-52.4608,70.8228,3.98555,-34.0393,-1.59611,7.12502,-7.21747,-31.453,-7.05686e-15,-1.59028e-15,-45.6334,-49.9498,74.4272,61.7003,3.70705,-34.9614,21.4238,7.12502,-8.10748,51.2483,-22.9368,0.669372,12.2769,59.061,-17.0586,-0.945202,-14.5782,-18.6399,8.87398,-22.5232,51.7718,-18.0758,0.649269,-7.41079
0.808692,18.2432,-1.84421,-1.4445,-1.59295,3.36764,19.233,0.908766,-4.445,2.00684,0.246572,-0.087094,-8.62457,0.272881,2.37415,-21.1557,-1.91523,-7.62113,4.61953,-1.35202,7.70849,4.86259,-0.263449,3.54333,-1.03368e-14,-2.18663e-15,-20.1466,-14.3667,-51.8198,69.7232,3.14143,-34.0871,-1.42858,7.12502,-7.26361,-31.2839,-1.03368e-14,-2.18663e-15,-46.5441,-50.056,74.3781,62.107,1.16258,-35.1851,19.3707,7.12502,-8.3234,49.1867,-20.2316,1.3692,12.2747,54.5084,-13.6886,-1.29475,-14.1855,-15.8908,8.03987,-22.4275,47.2522,-14.3958,1.4266,-10.0625
0.81953,18.6377,-1.71415,-1.38217,-1.74261,3.25041,17.7869,0.859502,-4.19624,1.62102,0.303894,-0.0157529,-8.25504,0.291672,2.29533,-20.8671,-2.01186,-7.88769,5.4047,-1.45604,7.61303,5.07438,-0.333478,3.54934,-1.67476e-14,-1.13307e-14,-20.105,-14.0751,-51.3274,68.7607,2.82472,-33.7229,-1.07797,7.12502,-6.91205,-30.9451,-1.67476e-14,-1.13307e-14,-47.3669,-49.7752,74.3195,62.5303,-1.08978,-35.5834,17.513,7.12502,-8.70781,47.3134,-17.4715,2.27002,12.4042,49.5381,-9.88578,-1.91265,-13.8743,-13.2198,6.85377,-22.2622,42.4609,-10.1224,2.4916,-12.6796
0.831305,19.0466,-1.58483,-1.16172,-1.98426,2.87523,16.2256,0.798292,-3.73035,1.14987,0.388779,0.156073,-7.90584,0.320181,2.19672,-20.5598,-2.06126,-8.17229,6.28749,-1.4997,7.53585,5.31023,-0.375484,3.57154,-4.77083e-15,-1.19271e-14,-20.255,-13.8563,-50.9345,67.8132,2.90268,-32.9453,-0.72634,7.12502,-6.16142,-30.6167,-4.77083e-15,-1.19271e-14,-48.1078,-49.0753,74.3218,62.867,-2.64883,-35.6388,15.8325,7.12502,-8.7613,45.6307,-14.7777,3.52486,12.831,44.1755,-5.50529,-3.13934,-13.1058,-10.6772,5.40559,-21.8428,37.3899,-5.19754,3.83704,-13.2435
0.842226,19.4651,-1.45304,-0.828438,-2.33915,2.33668,14.5047,0.800919,-3.09605,0.670063,0.577395,0.350561,-7.4706,0.392756,2.00776,-20.1193,-2.11806,-8.34166,7.06655,-1.58326,7.41113,5.49475,-0.441215,3.55453,-7.42958e-15,-1.39149e-15,-20.5924,-13.8168,-50.5812,66.7265,3.06077,-31.8313,-0.303624,7.12502,-5.08589,-30.2226,-7.42958e-15,-1.39149e-15,-48.6435,-48.16,74.2582,63.1899,-3.43163,-35.3348,14.5948,7.12502,-8.4679,44.4051,-12.1666,5.16028,13.4522,38.501,-0.696563,-5.15753,-12.2849,-8.17733,3.72572,-21.2653,32.0531,0.313341,5.75153,-12.5352
0.849313,19.883,-1.31936,-0.321164,-2.70052,1.83854,12.6299,0.872561,-2.49358,0.154618,0.827299,0.466122,-6.97644,0.495881,1.74966,-19.5227,-2.20457,-8.40179,7.69974,-1.75376,7.38325,5.6159,-0.541386,3.54092,-1.01877e-14,-5.1684e-15,-21.2171,-13.8911,-50.3061,65.6212,3.20732,-30.773,0.102514,7.12502,-4.06397,-29.8385,-1.01877e-14,-5.1684e-15,-49.0311,-47.117,74.0387,63.515,-3.65255,-35.0042,13.8639,7.12502,-8.14885,43.6867,-9.70032,7.21111,14.0163,32.6392,4.22583,-8.28538,-10.2523,-5.84036,1.61182,-20.7589,26.5046,6.20509,8.73864,-10.7336
0.85185,20.3038,-1.18667,0.365373,-3.16575,1.33966,10.6902,1.00614,-1.99781,-0.463495,1.12363,0.589328,-6.54522,0.62867,1.56419,-19.0041,-2.26943,-8.40662,8.59852,-1.92364,7.41974,5.8335,-0.633933,3.54264,-2.03009e-14,-1.90833e-14,-21.9611,-13.8311,-50.058,64.3711,3.64059,-29.7018,0.0189239,7.12502,-3.0295,-29.9393,-2.03009e-14,-1.90833e-14,-49.523,-45.8217,73.8767,63.8145,-3.12884,-34.9063,13.34,7.12502,-8.05435,43.1665,-7.50862,9.97454,14.5649,26.7984,8.68624,-13.1478,-6.5127,-3.7596,-1.02661,-20.2486,20.8658,11.7188,13.44,-6.60549
0.856167,20.7255,-1.05227,1.19714,-3.67517,0.737569,8.56162,1.15822,-1.38345,-1.05386,1.44111,0.734965,-5.96304,0.768171,1.34995,-18.6146,-2.30522,-8.29913,9.51615,-2.06294,7.37592,6.07292,-0.711264,3.50406,-7.98866e-15,7.95139e-16,-22.6091,-13.816,-49.8376,62.8973,4.52269,-28.5667,-0.164494,7.12502,-1.93319,-30.1355,-7.98866e-15,7.95139e-16,-49.8093,-44.1642,73.5837,63.9658,-2.26468,-34.7908,13.2227,7.12502,-7.94286,43.0534,-5.64969,13.2801,15.1643,21.2592,12.3208,-19.9076,0.0366897,-1.91815,-4.63297,-19.6335,15.3625,15.6377,20.5666,2.14454
0.862759,21.1273,-0.92175,2.21186,-4.07175,0.1177,6.19977,1.30969,-0.611496,-1.59141,1.73874,0.804307,-5.17363,0.89262,0.993406,-18.2751,-2.36534,-8.12854,10.323,-2.2457,7.35713,6.28841,-0.802929,3.458,1.01256e-14,4.57205e-15,-23.4578,-13.9488,-49.6846,61.6082,5.68904,-27.1646,0.121072,7.12502,-0.579064,-29.8579,1.01256e-14,4.57205e-15,-49.9407,-42.4655,73.2232,63.8573,-1.88401,-34.9971,13.7409,7.12502,-8.14196,43.564,-4.24691,16.4054,15.6647,16.4701,14.174,-26.277,8.19899,-0.388836,-9.31387,-18.9917,10.2496,16.586,29.4032,12.8773
0.866786,21.4933,-0.811902,3.32275,-4.35246,-0.315481,3.91326,1.44778,-0.0287201,-2.0906,1.96444,0.7898,-4.38034,0.988922,0.680727,-18.1228,-2.43691,-7.91419,11.1479,-2.4461,7.36519,6.54195,-0.894212,3.41211,1.64867e-14,-1.49089e-14,-24.357,-14.0657,-49.6726,60.515,6.97207,-25.9687,0.550092,7.12502,0.575955,-29.4289,1.64867e-14,-1.49089e-14,-49.9159,-40.7292,72.7902,63.6515,-1.35949,-35.8383,13.8703,7.12502,-8.95379,43.6603,-3.42707,18.6461,15.9062,12.9029,13.0406,-30.2045,15.5997,0.865961,-7.8471,-18.3781,5.50107,15.7851,33.3108,23.5805
0.869201,21.8143,-0.734672,4.34424,-4.55165,-0.411859,2.049,1.53743,0.154543,-2.50519,2.08358,0.71684,-3.74636,1.04411,0.541003,-18.0179,-2.49751,-7.73861,11.6935,-2.61396,7.41746,6.71246,-0.96505,3.3877,-1.49281e-14,4.37326e-15,-24.9438,-14.1734,-49.8423,59.4079,8.38104,-25.3051,0.433637,7.12502,1.21691,-29.5426,-1.49281e-14,4.37326e-15,-49.6354,-38.6341,72.1536,63.5255,-0.0652255,-37.129,13.1517,7.12502,-10.1991,42.8844,-3.35284,18.8423,15.8287,11.1011,11.4132,-30.55,17.9033,1.99562,-6.47193,-18.1271,1.50276,14.712,33.9666,23.4857
0.870841,22.1236,-0.693503,5.21168,-4.69306,-0.295116,0.853373,1.59144,0.0751962,-2.91398,2.14582,0.603856,-3.49251,1.07705,0.495099,-17.9219,-2.55829,-7.64305,12.0792,-2.76959,7.56043,6.83461,-1.02465,3.40606,-1.02607e-14,1.88845e-14,-25.4283,-14.2362,-50.1447,58.3736,9.81494,-24.5204,-0.167204,7.12502,1.97474,-30.1378,-1.02607e-14,1.88845e-14,-49.2752,-36.1853,71.4632,63.2859,1.07706,-37.9509,12.6963,7.12502,-10.9919,42.3885,-3.8208,17.7523,15.6564,10.7398,7.62267,-28.1668,12.8745,0.377801,-5.17855,-18.466,3.05299,8.57399,31.7486,22.0864
0.8697,22.4241,-0.687489,5.8254,-4.82959,-0.0764435,0.392851,1.60344,-0.178238,-3.26191,2.15233,0.480647,-3.59719,1.08647,0.517812,-17.8013,-2.60872,-7.66457,12.0952,-2.8973,7.89407,6.83617,-1.05996,3.50602,-6.56921e-15,-5.36719e-15,-25.7759,-14.4608,-50.5904,57.332,11.3305,-23.3262,-0.344681,7.12502,3.12809,-30.3015,-6.56921e-15,-5.36719e-15,-48.794,-33.4356,70.6862,62.8373,1.44418,-37.9398,13.2549,7.12502,-10.9812,42.9477,-4.63128,16.1105,15.4703,11.4075,5.37807,-27.0099,8.44588,-1.7365,-3.91569,-18.8196,5.8274,6.82555,30.1837,22.0805
0.880611,22.7149,-0.71195,5.85367,-4.45226,-0.331501,0.951679,1.48777,0.346221,-3.34793,2.01316,0.424795,-3.98072,0.999277,0.154914,-17.8054,-2.67761,-7.59999,11.7484,-3.03393,8.17239,6.7407,-1.0989,3.5683,1.14425e-14,1.51076e-14,-25.9775,-14.9879,-51.1012,56.2625,12.9468,-22.3579,-0.660434,7.12502,4.06315,-30.6014,1.14425e-14,1.51076e-14,-47.8586,-30.5668,69.7448,62.14,1.38355,-37.4298,14.0545,7.12502,-10.4892,43.7728,-4.90946,13.9217,15.9442,12.4132,7.31514,-29.3144,5.67951,-3.11804,-3.12717,-18.5487,8.23139,12.6816,31.2111,20.5646
0.880334,22.996,-0.752695,5.34177,-4.13247,-0.556551,2.19209,1.41526,0.688353,-3.16797,1.93813,0.401418,-4.48546,0.947861,-0.0885091,-18.0169,-2.80094,-7.27138,11.3282,-3.21725,7.99007,6.64754,-1.18477,3.42865,-1.67822e-14,-2.19657e-14,-26.1315,-15.5806,-51.61,55.1677,14.148,-22.2448,-0.749069,7.12502,4.17234,-30.688,-1.67822e-14,-2.19657e-14,-46.6308,-27.609,68.864,61.2705,1.35765,-36.7545,15.3731,7.12502,-9.8378,45.1232,-4.76897,12.6813,16.4899,13.5849,13.0015,-30.3044,12.6436,-3.88797,-2.29163,-18.2812,10.5435,19.8531,30.7981,18.3666
0.870155,23.2572,-0.806248,4.35569,-3.93175,-0.857488,3.93958,1.38752,0.931441,-2.76889,1.93381,0.451895,-5.058,0.934727,-0.213859,-18.1872,-2.95005,-7.03844,10.6409,-3.41754,7.91788,6.46591,-1.27663,3.33763,-1.92573e-16,-1.04362e-14,-26.2754,-16.2276,-52.0933,54.0576,14.9719,-22.4853,-0.388356,7.12502,3.94012,-30.3317,-1.92573e-16,-1.04362e-14,-45.2641,-24.5549,68.112,60.2061,1.34798,-36.3044,16.3842,7.12502,-9.40354,46.1544,-4.27787,12.0467,17.2102,14.9368,16.3053,-27.49,11.5259,-4.00161,-1.44246,-17.9223,12.6583,22.2392,26.7349,15.8816
0.859589,23.4928,-0.86523,3.29326,-3.69055,-0.970485,5.67438,1.31535,0.959215,-2.27622,1.85944,0.485488,-5.53279,0.894296,-0.226669,-18.1667,-3.01072,-7.12318,9.62597,-3.47087,8.24307,6.15117,-1.28479,3.4443,1.70194e-14,7.35503e-15,-26.3257,-16.759,-52.6441,52.9808,15.6979,-22.8244,-0.373128,7.12502,3.61266,-30.3223,1.70194e-14,7.35503e-15,-43.8324,-21.2953,67.4377,58.8761,1.0591,-36.0519,17.1066,7.12502,-9.15993,46.8876,-3.89116,11.2972,17.6761,16.6054,19.3226,-23.8026,9.80018,-3.84019,-0.505439,-17.748,14.3665,24.0791,22.5439,15.0239
0.853055,23.711,-0.92521,2.40647,-3.40576,-0.823119,7.22386,1.27538,0.775385,-1.85324,1.80232,0.438084,-5.97729,0.868554,-0.20004,-18.0087,-3.06218,-7.17887,8.52801,-3.49983,8.43882,5.78482,-1.29562,3.50681,-6.3549e-15,1.35174e-14,-26.5456,-17.0671,-53.123,52.0077,16.1301,-23.131,-0.951638,7.12502,3.3166,-30.9056,-6.3549e-15,1.35174e-14,-42.4298,-18.1363,66.9386,57.3053,0.614467,-35.6741,18.2476,7.12502,-8.79531,48.0443,-3.74633,10.5647,17.7576,18.3923,21.9282,-20.4327,8.50521,-3.80502,0.348012,-17.8277,15.7335,26.9229,20.26,12.2954
0.845914,23.9222,-0.988614,1.71339,-3.14408,-0.641284,8.63298,1.25403,0.529878,-1.51995,1.7553,0.375504,-6.43555,0.849836,-0.151618,-17.9751,-3.11816,-7.04467,7.77921,-3.56012,8.40023,5.54479,-1.32907,3.46174,2.85132e-15,1.09332e-14,-26.9157,-17.1539,-53.6086,51.1711,16.3633,-23.1156,-1.75822,7.12502,3.33148,-31.7119,2.85132e-15,1.09332e-14,-41.2044,-15.0953,66.5366,55.7241,0.105956,-35.0238,19.3871,7.12502,-8.16777,49.2093,-3.84116,10.0602,17.7656,20.1317,23.8302,-19.0207,4.04736,-3.87822,0.682002,-17.9335,16.6628,28.8653,18.8242,9.45032
0.840476,24.1293,-1.05145,1.28077,-2.95852,-0.391056,9.73836,1.25343,0.240887,-1.26538,1.71931,0.276708,-6.80206,0.838449,-0.11064,-17.9156,-3.17037,-6.9295,7.30468,-3.6349,8.41409,5.39037,-1.36558,3.43754,1.65178e-14,1.65985e-14,-27.2508,-17.0476,-54.145,50.3014,16.4486,-23.1597,-2.42969,7.12502,3.28886,-32.3841,1.65178e-14,1.65985e-14,-40.1579,-12.2175,66.1858,54.2636,-0.50519,-34.6377,20.255,7.12502,-7.7951,50.0913,-4.21546,9.7702,17.6343,21.6782,25.3923,-18.3717,3.11291,-4.04008,0.345187,-18.1443,17.0796,29.921,17.864,8.1581
0.835179,24.3284,-1.09382,1.04433,-2.93303,-0.0952059,10.3109,1.33454,-0.105774,-1.01559,1.77665,0.168188,-6.87007,0.876504,-0.0490831,-17.8475,-3.21028,-6.90536,7.05861,-3.69777,8.52943,5.30983,-1.39057,3.46346,-1.44554e-14,8.44835e-16,-27.5395,-16.8677,-54.6743,49.2042,16.3138,-23.6914,-2.80868,7.12502,2.77539,-32.7704,-1.44554e-14,8.44835e-16,-39.1937,-9.67961,66.0285,52.7857,-0.760194,-34.5693,21.6838,7.12502,-7.72908,51.5225,-4.64862,9.75252,17.4122,22.9002,26.4294,-17.787,4.3276,-4.11084,-0.306432,-18.4384,17.0137,29.8776,17.2157,8.36096
0.829279,24.5159,-1.1085,0.852767,-3.01016,0.145749,10.5535,1.43873,-0.426981,-0.832108,1.86709,0.0772529,-6.82071,0.930448,0.0180384,-17.7383,-3.19245,-6.80565,7.08136,-3.70781,8.55351,5.29928,-1.39311,3.4544,-3.03084e-14,-1.44616e-14,-27.8185,-16.4809,-55.2373,47.9086,16.1887,-24.085,-2.99303,7.12502,2.39522,-32.9593,-3.03084e-14,-1.44616e-14,-38.483,-7.51783,66.0411,51.3252,-0.41224,-34.1447,22.8329,7.12502,-7.31922,52.6863,-4.90415,9.9752,17.2618,23.7613,26.789,-17.0292,5.396,-3.85725,-1.23704,-18.7028,16.4613,28.8484,17.0444,8.95529
0.824549,24.6926,-1.10578,0.684233,-2.99346,0.387029,10.7148,1.46628,-0.734473,-0.76066,1.8563,-0.0206455,-6.84312,0.934128,0.0867546,-17.5958,-3.10402,-6.62413,7.32761,-3.65195,8.53491,5.34579,-1.36294,3.42606,2.58669e-14,8.79622e-15,-28.0527,-16.0069,-55.8617,46.5211,16.5742,-23.776,-2.90283,7.12502,2.69366,-32.8656,2.58669e-14,8.79622e-15,-38.0107,-5.65451,66.0822,49.908,0.0642704,-33.8158,23.2433,7.12502,-7.00173,53.1075,-4.92122,10.2737,17.1269,24.2356,26.8533,-16.4601,5.72417,-3.41194,-2.16982,-18.9578,15.5524,28.4038,17.5903,7.9533
0.823531,24.86,-1.09502,0.767119,-2.83537,0.843851,10.5758,1.42092,-1.24298,-0.799643,1.72377,-0.142763,-6.81606,0.885749,0.269185,-17.4852,-3.00435,-6.53379,7.72904,-3.56164,8.47207,5.44388,-1.31969,3.40254,4.77083e-15,-1.14301e-14,-28.2249,-15.5716,-56.4444,45.1744,17.1866,-22.7715,-2.73847,7.12502,3.66375,-32.6867,4.77083e-15,-1.14301e-14,-37.7034,-4.09797,66.3099,48.4381,0.86583,-34.2551,23.7113,7.12502,-7.42583,53.561,-5.00323,10.5617,16.6782,24.3341,26.695,-16.2085,5.49835,-3.23466,-2.88267,-19.4388,14.5659,27.7236,17.8003,6.82211
0.827401,25.0183,-1.08586,1.15014,-2.48079,1.18551,10.1949,1.27858,-1.51502,-0.958567,1.49663,-0.275039,-6.76825,0.782968,0.32655,-17.3655,-2.92085,-6.43223,8.22319,-3.49333,8.34803,5.56994,-1.29065,3.3559,-1.04377e-14,-9.16894e-15,-28.4499,-15.2746,-57.0858,43.8241,17.7602,-22.0398,-3.01669,7.12502,4.3703,-32.9516,-1.04377e-14,-9.16894e-15,-37.466,-2.97159,66.6446,46.921,2.01167,-34.9094,23.8603,7.12502,-8.05736,53.6868,-5.2301,10.8019,16.291,24.0811,26.1737,-16.3359,5.22905,-3.49247,-3.63699,-19.7824,13.7653,26.5136,18.3714,6.48384
0.830072,25.1636,-1.07702,1.67265,-2.06543,1.15443,9.6888,1.09294,-1.38098,-1.15555,1.27048,-0.322862,-6.68045,0.667383,0.244213,-17.243,-2.82593,-6.31025,8.70859,-3.40937,8.19747,5.69104,-1.25547,3.29909,-8.90804e-15,-4.31114e-15,-28.6528,-15.1432,-57.7383,42.3796,18.4289,-21.5929,-2.86535,7.12502,4.80183,-32.7909,-8.90804e-15,-4.31114e-15,-37.2703,-2.03771,66.9253,45.5046,2.73863,-34.8227,23.6493,7.12502,-7.97368,53.4789,-5.46131,11.1224,16.3348,23.5669,25.3519,-16.3439,4.23996,-3.98339,-4.20076,-19.6902,13.1825,25.1539,19.2709,6.29174
0.828362,25.2974,-1.06276,2.11671,-1.66897,0.923464,9.21153,0.882859,-1.12148,-1.34248,1.03115,-0.265473,-6.59857,0.542391,0.200714,-17.0265,-2.67871,-6.25016,9.07648,-3.24261,8.08641,5.75574,-1.18244,3.27332,6.56611e-15,6.47293e-15,-28.8385,-14.9608,-58.3298,40.9553,19.0472,-21.2896,-2.28189,7.12502,5.09473,-32.2006,6.56611e-15,6.47293e-15,-37.2013,-0.972789,67.0907,44.151,2.68568,-33.7609,23.9108,7.12502,-6.94878,53.7768,-5.50956,11.6448,16.6438,22.8638,24.3762,-16.2036,2.86803,-4.52471,-4.4541,-19.3601,12.9246,23.6682,19.8813,3.72323
0.823049,25.4191,-1.04449,2.43985,-1.27157,0.977032,8.79652,0.703555,-1.21505,-1.4497,0.786528,-0.272543,-6.47325,0.425939,0.286304,-16.7475,-2.55747,-6.12611,9.17439,-3.11053,7.96264,5.72663,-1.12841,3.22769,-1.45249e-14,1.20451e-14,-29.064,-14.9744,-58.8659,39.749,19.618,-20.93,-1.8985,7.12502,5.4419,-31.8086,-1.45249e-14,1.20451e-14,-37.0277,0.0165745,67.2133,42.812,1.99718,-32.5756,24.4256,7.12502,-5.80451,54.3261,-5.39572,12.283,16.6533,22.05,23.273,-16.2826,1.91935,-5.10561,-4.419,-19.3506,13.0331,22.1649,19.9227,0.752972
0.818165,25.5247,-1.0296,2.83741,-0.871206,1.07676,8.34817,0.55987,-1.33805,-1.5176,0.588992,-0.261697,-6.28768,0.333335,0.398721,-16.6171,-2.49389,-6.09962,9.18321,-3.01787,7.81592,5.69785,-1.0963,3.18566,-7.63457e-15,-3.2551e-15,-29.3273,-15.1216,-59.2878,38.8086,19.9788,-20.5169,-1.85053,7.12502,5.8408,-31.75,-7.63457e-15,-3.2551e-15,-36.8008,0.589899,67.6363,41.5763,1.98563,-31.5282,23.577,7.12502,-4.79321,53.5028,-5.35273,12.9094,16.5714,21.1687,22.0438,-16.4377,0.605689,-5.89243,-4.30614,-19.4102,13.4323,20.8477,19.7587,-0.842907
0.816092,25.6169,-1.02238,3.24233,-0.398406,1.00428,7.98254,0.403899,-1.20131,-1.55952,0.404479,-0.199101,-6.1193,0.238342,0.414573,-16.6872,-2.48163,-6.19658,9.22345,-2.96132,7.69375,5.71677,-1.08,3.16796,9.45314e-15,-7.95139e-16,-29.6724,-15.3198,-59.6027,38.0389,20.3124,-20.0554,-1.57237,7.12502,6.28634,-31.4591,9.45314e-15,-7.95139e-16,-36.5157,0.755777,68.3695,40.3103,3.10816,-30.8416,21.3159,7.12502,-4.13014,51.2556,-5.34236,13.3488,16.6472,20.3332,20.8339,-16.6405,-0.646136,-6.75247,-3.9667,-19.2908,13.9544,20.7469,19.2999,-1.71448
0.817251,25.6967,-1.02097,3.60965,0.0423642,0.637949,7.71103,0.28303,-0.661622,-1.57015,0.305884,-0.10959,-5.97108,0.17189,0.218742,-16.8183,-2.50914,-6.20597,9.18542,-2.96127,7.50231,5.7226,-1.09257,3.10726,-1.23309e-15,8.44835e-16,-30.1059,-15.6564,-59.8694,37.362,20.6298,-19.7737,-1.25063,7.12502,6.55831,-31.1291,-1.23309e-15,8.44835e-16,-36.0523,0.998118,68.9015,39.2052,2.40765,-29.5695,22.5257,7.12502,-2.90174,52.4857,-5.38156,13.733,17.0393,19.6302,19.8177,-16.8789,-1.42869,-7.62041,-3.72407,-18.8593,14.5722,21.0278,18.6927,-2.04469
0.816176,25.7616,-1.02984,3.82534,0.431374,0.390959,7.64105,0.184516,-0.320576,-1.50821,0.212382,-0.0439742,-5.86397,0.114889,0.10769,-16.8919,-2.50002,-6.19362,8.99224,-2.92273,7.39107,5.6686,-1.0816,3.07195,3.68683e-15,-5.26779e-15,-30.4085,-15.8844,-60.2191,36.6608,20.6775,-19.8584,-1.1361,7.12502,6.47654,-31.0171,3.68683e-15,-5.26779e-15,-35.7778,1.30511,69.3338,38.4266,1.16094,-28.687,22.2771,7.12502,-2.04945,52.247,-5.40039,14.1731,17.3412,19.0927,18.8814,-17.1769,-2.08334,-8.35287,-3.64841,-18.5477,15.1889,21.055,17.8834,-2.95688
0.810053,25.8116,-1.04861,3.93902,0.693708,0.437047,7.82932,0.116899,-0.4203,-1.48264,0.112899,-0.019313,-5.94415,0.0698507,0.201722,-16.9875,-2.42951,-6.29709,8.91971,-2.80423,7.45943,5.6555,-1.02108,3.1222,4.14031e-15,-9.44227e-15,-30.7323,-16.0437,-60.5511,35.9429,20.6252,-20.0573,-0.656792,7.12502,6.2845,-30.5436,4.14031e-15,-9.44227e-15,-35.6678,1.62999,69.7585,37.7434,-0.350022,-28.1939,21.4881,7.12502,-1.57322,51.462,-5.47159,14.6589,17.3257,18.6866,17.8738,-17.5679,-2.11897,-8.95842,-3.59712,-18.526,15.7646,21.0026,17.2272,-5.06417
0.806638,25.8496,-1.06733,3.93991,0.874533,0.581966,8.14353,0.0945091,-0.577875,-1.44701,0.064947,-0.0241069,-6.0856,0.0519153,0.291274,-17.0079,-2.42725,-6.37184,8.79384,-2.77131,7.4211,5.61701,-1.01094,3.12453,5.18393e-15,-5.91384e-15,-31.1757,-16.1475,-60.8053,35.3107,20.4577,-20.2058,-0.151014,7.12502,6.14109,-30.042,5.18393e-15,-5.91384e-15,-35.5356,1.75704,70.2767,37.0045,-1.84743,-28.2043,20.7563,7.12502,-1.58327,50.7301,-5.47252,14.9801,17.1856,18.3883,16.7697,-17.59,-2.53419,-9.33702,-3.63935,-18.6328,16.2688,20.7131,16.5419,-3.33099
0.810328,25.8754,-1.08292,3.84234,1.11256,0.499626,8.44973,0.0496639,-0.414083,-1.31285,0.0241482,0.0305429,-6.11809,0.0269352,0.261607,-16.9682,-2.44029,-6.41572,8.47984,-2.75637,7.35396,5.50988,-1.0126,3.10971,4.03781e-16,-6.90777e-15,-31.4673,-16.1349,-61.1032,34.7401,19.9649,-20.2771,-0.501685,7.12502,6.07227,-30.3947,4.03781e-16,-6.90777e-15,-35.3623,1.69714,70.86,36.3962,-3.03089,-28.4906,19.8693,7.12502,-1.8597,49.841,-5.34221,15.0497,17.3118,18.1578,15.8461,-17.3761,-3.31114,-9.55991,-3.73838,-18.5161,16.7533,21.1852,15.5075,-4.14108
0.819359,25.8888,-1.09436,3.71767,1.32759,0.313656,8.70973,-0.010089,-0.092264,-1.12262,-0.0165872,0.113379,-6.06519,-0.00296875,0.172655,-17.0014,-2.34548,-6.33071,8.18734,-2.60465,7.14178,5.40761,-0.952254,3.04094,2.82026e-15,-1.0138e-14,-31.634,-16.0832,-61.4491,34.1967,19.4292,-20.458,-1.50213,7.12502,5.89761,-31.4,2.82026e-15,-1.0138e-14,-35.1639,1.68103,71.4573,35.8799,-3.92178,-28.6627,19.3909,7.12502,-2.02596,49.361,-5.18014,15.0726,17.5345,17.9499,15.2125,-17.1483,-3.08404,-9.74366,-3.78391,-18.3046,17.2601,22.2301,14.325,-3.99664
0.827055,25.8877,-1.10618,3.69147,1.44866,0.220742,8.93302,-0.0345469,0.101898,-1.00531,-0.0247829,0.1662,-6.0685,-0.0126458,0.119798,-17.1251,-2.25909,-6.29678,8.10637,-2.47308,7.04416,5.39088,-0.89224,3.01641,-5.46658e-16,-2.78299e-15,-31.8281,-15.9115,-61.8189,33.5959,19.0846,-20.8506,-2.96129,7.12502,5.51863,-32.8694,-5.46658e-16,-2.78299e-15,-34.9882,1.49385,72.094,35.3048,-4.56513,-28.9004,18.967,7.12502,-2.25549,48.9348,-5.17781,15.1878,17.6179,17.7724,14.6149,-17.0304,-2.85746,-10.04,-3.90645,-18.1848,17.7965,22.321,13.1023,-5.0267
0.830396,25.8754,-1.12326,3.68783,1.57656,0.052329,9.23546,-0.0619231,0.302823,-0.978264,-0.0307831,0.281077,-6.21193,-0.0203747,0.128006,-17.267,-2.19623,-6.29825,8.23638,-2.36382,6.86726,5.44418,-0.849176,2.97125,4.5472e-15,-1.25234e-14,-32.0816,-15.4892,-62.15,32.99,18.6808,-21.3531,-4.48877,7.12502,5.03339,-34.409,4.5472e-15,-1.25234e-14,-34.9225,1.25641,72.8033,34.8032,-4.99972,-29.071,18.7699,7.12502,-2.42025,48.7359,-5.24307,15.311,17.7953,17.6727,13.96,-16.7987,-4.12168,-10.3889,-4.0556,-17.9512,18.3502,21.7306,12.0165,-6.67294
