JuanDHNZ/ProyectoFinalCD/preprocessing/sports_trials_csv/14_04.csv
root1,root2,root3,root4,root5,root6,lowerback1,lowerback2,lowerback3,upperback1,upperback2,upperback3,thorax1,thorax2,thorax3,lowerneck1,lowerneck2,lowerneck3,upperneck1,upperneck2,upperneck3,head1,head2,head3,rclavicle1,rclavicle2,rhumerus1,rhumerus2,rhumerus3,rradius1,rwrist1,rhand1,rhand2,rfingers1,rthumb1,rthumb2,lclavicle1,lclavicle2,lhumerus1,lhumerus2,lhumerus3,lradius1,lwrist1,lhand1,lhand2,lfingers1,lthumb1,lthumb2,rfemur1,rfemur2,rfemur3,rtibia1,rfoot1,rfoot2,rtoes1,lfemur1,lfemur2,lfemur3,ltibia1,lfoot1,lfoot2,ltoes1
0.83387,17.997,-0.81163,2.9077,-28.7281,0.64953,0.205121,0.445606,-2.90584,-0.065865,0.587713,0.854908,-0.220752,0.298409,2.50353,-16.689,1.23624,-8.2405,39.8751,4.7877,-0.521229,17.305,0.445309,2.0853,-2.13694e-15,1.78906e-15,-7.90882,34.9942,-71.6107,110.486,8.91451,-19.2448,20.3193,7.12502,7.06884,-9.54264,-2.13694e-15,1.78906e-15,-31.3844,-30.9087,100.473,83.0222,14.5355,-18.088,23.2185,7.12502,8.1854,53.0399,-10.4174,2.83009,11.4148,22.224,-14.9204,-11.985,3.81438,-4.066,0.989317,-22.6912,15.7967,-10.1911,5.35934,-11.2271
0.830619,17.9963,-0.808693,2.81964,-28.6469,0.703735,0.347592,0.431748,-3.03034,-0.0996641,0.564317,0.883273,-0.335285,0.28928,2.60152,-16.974,1.25769,-7.94566,40.0895,4.84209,-0.710736,17.5136,0.467506,1.96713,-6.71644e-14,1.19271e-15,-8.84498,33.9606,-72.4408,110.245,8.26131,-19.4757,19.4186,7.12502,6.84593,-10.4507,-6.71644e-14,1.19271e-15,-31.4768,-30.7155,100.557,83.6102,14.2436,-18.4944,23.2359,7.12502,7.79322,53.0722,-10.3127,2.76501,11.3746,22.2425,-14.9681,-11.9601,3.701,-3.93917,0.982155,-22.7297,15.7087,-10.1553,5.25424,-10.9816
0.82791,17.9961,-0.808616,2.76171,-28.5634,0.707966,0.5609,0.416618,-3.22007,-0.172204,0.536143,1.00463,-0.530394,0.280274,2.83144,-16.4476,1.16683,-8.37062,39.6689,4.67337,-0.497034,17.1311,0.398983,2.0897,3.35698e-14,-1.98785e-15,-9.75384,32.9978,-73.0839,109.942,7.71396,-19.6205,18.5505,7.12502,6.70618,-11.3233,3.35698e-14,-1.98785e-15,-31.5704,-30.4458,100.743,84.1881,13.9755,-18.6458,23.3922,7.12502,7.64702,53.2339,-10.2139,2.71126,11.3856,22.2269,-14.9721,-11.9564,3.09548,-3.879,0.988191,-22.7161,15.7087,-10.1459,5.15873,-11.019
0.825414,17.9965,-0.809416,2.75942,-28.4936,0.712656,0.644837,0.390974,-3.34798,-0.204665,0.498226,1.07322,-0.609792,0.263825,2.97386,-16.2427,1.12871,-8.47238,39.4639,4.59563,-0.458588,16.9664,0.372935,2.10315,5.42806e-14,-1.19271e-15,-10.5931,31.9842,-73.7688,109.582,7.32645,-19.7531,18.0257,7.12502,6.57816,-11.8521,5.42806e-14,-1.19271e-15,-31.5551,-30.2086,100.798,84.7949,13.8367,-18.8266,23.5658,7.12502,7.47257,53.4138,-10.1829,2.75452,11.3984,22.2178,-15.0919,-12.0311,3.06938,-3.88057,1.00898,-22.7074,15.7097,-10.158,5.09225,-11.2316
0.823323,17.9972,-0.807261,2.79539,-28.4649,0.697781,0.607756,0.378507,-3.35594,-0.204736,0.482797,1.08365,-0.588049,0.255748,2.98953,-16.1805,1.10908,-8.47252,39.3691,4.52284,-0.388221,16.8982,0.360217,2.11891,5.22431e-14,9.93923e-16,-11.3849,30.8556,-74.5801,109.157,7.06872,-19.702,17.6174,7.12502,6.62754,-12.2589,5.22431e-14,9.93923e-16,-31.4911,-30.0691,100.785,85.419,13.649,-19.2321,23.752,7.12502,7.08112,53.6135,-10.1925,2.75838,11.4223,22.2128,-15.1673,-12.0628,3.3976,-3.92531,0.973155,-22.6898,15.7391,-10.1826,5.11392,-11.3914
0.821367,17.997,-0.806202,2.80781,-28.4113,0.670341,0.618656,0.363408,-3.37119,-0.206103,0.462367,1.12558,-0.594484,0.245803,3.04151,-16.0682,1.07215,-8.58122,39.2336,4.44036,-0.28597,16.7933,0.334947,2.1643,-6.33626e-16,-7.95139e-16,-12.2103,29.6917,-75.348,108.696,6.98329,-19.6062,17.1392,7.12502,6.72002,-12.7342,-6.33626e-16,-7.95139e-16,-31.415,-29.9869,100.821,86.0679,13.3276,-19.643,24.0224,7.12502,6.68443,53.8969,-10.1734,2.6288,11.454,22.2183,-15.1419,-11.9686,3.48286,-3.9529,0.988147,-22.6483,15.7857,-10.1928,5.03335,-11.3133
0.818148,17.9966,-0.804715,2.81506,-28.3764,0.658469,0.610672,0.362082,-3.39636,-0.188494,0.460908,1.14287,-0.572177,0.2445,3.07365,-15.9159,1.04345,-8.6017,38.9585,4.3637,-0.269241,16.6097,0.321999,2.15425,-6.11511e-14,-7.95139e-15,-13.0903,28.5205,-76.0465,108.206,7.12622,-19.6064,16.8354,7.12502,6.71976,-13.038,-6.11511e-14,-7.95139e-15,-31.2698,-29.9161,100.773,86.7359,12.8997,-19.8162,24.4268,7.12502,6.51725,54.3065,-10.1596,2.51674,11.4708,22.2392,-15.0186,-11.9039,2.9499,-3.96834,0.968709,-22.6334,15.8293,-10.2086,5.03033,-11.3176
0.815818,17.9956,-0.803379,2.80939,-28.359,0.634041,0.637816,0.369345,-3.42026,-0.168144,0.46981,1.16658,-0.567622,0.248676,3.11136,-15.6842,1.0104,-8.732,38.5702,4.2562,-0.135508,16.3428,0.304786,2.20611,-7.70291e-15,-1.39149e-15,-13.8929,27.4192,-76.6658,107.58,7.41513,-19.7049,16.5098,7.12502,6.62468,-13.3666,-7.70291e-15,-1.39149e-15,-31.1332,-29.8132,100.725,87.4931,12.756,-20.0351,24.8586,7.12502,6.30594,54.7447,-10.1395,2.50633,11.4984,22.2642,-14.985,-11.8898,2.75728,-3.95843,0.914816,-22.6091,15.8683,-10.2229,5.07703,-11.2953
0.813128,17.9947,-0.803088,2.78241,-28.349,0.634835,0.70132,0.391091,-3.45609,-0.157495,0.496481,1.16291,-0.594717,0.262503,3.12705,-15.5542,0.954787,-8.79322,38.3192,4.11829,-0.0192431,16.1803,0.27256,2.23705,-5.66536e-15,9.93923e-16,-14.6749,26.296,-77.3113,106.867,7.83344,-19.9814,16.1265,7.12502,6.35777,-13.7581,-5.66536e-15,9.93923e-16,-30.9877,-29.7599,100.65,88.3232,12.9889,-20.2273,25.14,7.12502,6.12037,55.0316,-10.1206,2.5196,11.5044,22.2925,-15.1254,-11.882,3.03302,-3.94641,0.893482,-22.5977,15.911,-10.2802,5.07819,-11.2477
0.809282,17.994,-0.800648,2.76288,-28.3748,0.609725,0.724501,0.437707,-3.46388,-0.135602,0.558092,1.1757,-0.590379,0.29295,3.14371,-15.4894,0.892463,-8.85723,38.1761,3.9923,0.0799975,16.0918,0.235059,2.26621,5.16095e-14,6.16232e-15,-15.4848,25.1124,-77.8908,106.082,8.47291,-20.2518,16.0092,7.12502,6.09672,-13.8831,5.16095e-14,6.16232e-15,-30.8037,-29.7285,100.58,89.1255,13.1084,-20.349,25.4363,7.12502,6.0029,55.3312,-10.0962,2.58765,11.5368,22.3109,-15.2369,-11.8718,3.80921,-3.9195,0.844764,-22.5741,15.9524,-10.3048,5.16883,-11.2911
0.804402,17.9934,-0.799531,2.7921,-28.3713,0.570453,0.693312,0.449668,-3.51295,-0.112276,0.575108,1.2215,-0.551292,0.30056,3.21872,-15.5143,0.86704,-8.85522,38.1201,3.9482,0.0966336,16.0708,0.222865,2.26517,-1.61264e-14,1.0138e-14,-16.2395,23.9989,-78.4213,105.277,9.0291,-20.2398,15.7816,7.12502,6.1083,-14.1103,-1.61264e-14,1.0138e-14,-30.5639,-29.6776,100.456,89.9029,12.7676,-20.4345,25.7667,7.12502,5.92031,55.664,-10.0872,2.62748,11.5885,22.2983,-15.1984,-11.9064,4.30674,-3.94807,0.957677,-22.5312,16.0091,-10.3,5.11739,-11.8783
0.801388,17.9938,-0.796737,2.85078,-28.3342,0.537321,0.6122,0.431832,-3.52317,-0.0744509,0.554459,1.25359,-0.465695,0.287978,3.25865,-15.6513,0.864475,-8.85866,38.1085,3.95123,0.131063,16.0962,0.228271,2.28384,-9.20621e-15,-6.55989e-15,-16.9698,22.9466,-78.8973,104.471,9.49583,-20.2148,15.3972,7.12502,6.1324,-14.494,-9.20621e-15,-6.55989e-15,-30.205,-29.6665,100.257,90.6221,12.3436,-20.6781,26.1652,7.12502,5.68518,56.0689,-10.0943,2.59527,11.6198,22.2691,-15.2075,-11.9332,3.92152,-3.99755,1.08235,-22.5009,16.0582,-10.3497,5.04045,-12.2421
0.798482,17.9934,-0.792768,2.90071,-28.3175,0.437837,0.57993,0.400939,-3.45634,-0.0426295,0.51522,1.29987,-0.411509,0.266622,3.26953,-15.6758,0.838531,-8.96936,37.9889,3.90846,0.23058,16.0371,0.215566,2.33722,6.12505e-15,-3.18055e-15,-17.6114,21.998,-79.3686,103.509,9.8406,-20.3094,15.1117,7.12502,6.04114,-14.7822,6.12505e-15,-3.18055e-15,-29.8113,-29.5712,100.038,91.3094,12.1279,-21.0119,26.4333,7.12502,5.36287,56.3455,-10.0612,2.61548,11.7195,22.2395,-15.264,-11.9771,3.46314,-3.98981,1.00511,-22.4035,16.0696,-10.412,5.09334,-12.0703
0.795056,17.9932,-0.787026,2.87883,-28.3056,0.405985,0.592908,0.352521,-3.48511,-0.0408318,0.450195,1.36048,-0.412311,0.234182,3.34893,-15.5413,0.809132,-9.21617,37.8319,3.86043,0.382954,15.9172,0.191982,2.43198,5.889e-15,1.78906e-15,-18.3401,21.1076,-79.8758,102.5,10.0581,-20.2793,14.8643,7.12502,6.07022,-15.0288,5.889e-15,1.78906e-15,-29.508,-29.3382,99.8692,92.0431,11.8708,-21.1282,26.8038,7.12502,5.25053,56.7187,-9.98497,2.64382,11.7542,22.2203,-15.2622,-11.9904,3.70881,-3.9082,0.953946,-22.375,16.033,-10.4145,5.12648,-12.0952
0.790362,17.9933,-0.778893,2.84471,-28.2994,0.477144,0.55216,0.32636,-3.63595,-0.0778522,0.415452,1.39859,-0.425955,0.218095,3.4739,-15.5029,0.837201,-9.1794,37.7872,3.89421,0.353574,15.8845,0.210059,2.41692,-2.93207e-15,-1.05356e-14,-19.2246,20.2158,-80.364,101.494,10.2362,-20.4961,14.5504,7.12502,5.86088,-15.3485,-2.93207e-15,-1.05356e-14,-29.2852,-29.1247,99.7728,92.787,11.6325,-21.1289,27.1893,7.12502,5.24985,57.1043,-9.95038,2.54971,11.6793,22.2179,-15.1586,-11.9075,3.4677,-3.84592,0.940848,-22.4455,15.9825,-10.4078,5.105,-11.9557
0.785683,17.9938,-0.772345,2.83121,-28.2668,0.531571,0.506249,0.321133,-3.79532,-0.101998,0.40902,1.45401,-0.426029,0.215765,3.62142,-15.7413,0.848089,-8.91807,37.871,3.9459,0.135153,15.9955,0.230764,2.29228,3.10601e-14,-7.95139e-15,-20.0617,19.2338,-80.7524,100.402,10.4545,-20.7428,14.5865,7.12502,5.62269,-15.3189,3.10601e-14,-7.95139e-15,-29.02,-29.0424,99.729,93.5858,11.4983,-21.2379,27.5835,7.12502,5.1446,57.501,-9.93333,2.46871,11.6302,22.2307,-15.1602,-11.8744,3.28795,-3.79788,0.890264,-22.4893,15.913,-10.3821,5.09323,-11.7519
0.78219,17.9941,-0.769867,2.8544,-28.1938,0.589317,0.447192,0.305598,-3.89552,-0.11111,0.389761,1.45098,-0.401187,0.205993,3.67536,-15.9242,0.814837,-8.79815,37.8712,3.8932,0.104046,16.0459,0.220127,2.25259,-4.53974e-14,-3.97569e-16,-20.774,18.1819,-81.1326,99.2155,10.5608,-20.8338,14.6379,7.12502,5.53482,-15.2698,-4.53974e-14,-3.97569e-16,-28.6528,-29.1778,99.5194,94.3717,11.2974,-21.4466,28.0522,7.12502,4.94315,57.9745,-9.97142,2.36755,11.5889,22.2694,-15.1966,-11.8694,3.06564,-3.78401,0.829317,-22.5352,15.8071,-10.349,5.06791,-11.785
0.779903,17.9965,-0.768171,2.91181,-28.0692,0.567151,0.37439,0.271124,-3.80593,-0.0989284,0.346863,1.39046,-0.342899,0.182746,3.56294,-15.7615,0.76171,-8.9429,37.5692,3.72251,0.375789,15.8473,0.186966,2.35755,2.48108e-14,8.54774e-15,-21.4575,17.1213,-81.5686,98.0178,10.5208,-21.018,14.5249,7.12502,5.35694,-15.3874,2.48108e-14,8.54774e-15,-28.2231,-29.3969,99.159,95.1829,11.1053,-21.9122,28.5579,7.12502,4.49356,58.4903,-9.99784,2.28786,11.6279,22.3197,-15.2349,-11.9097,2.91713,-3.77683,0.786066,-22.5031,15.6976,-10.3435,4.98902,-11.7733
0.775651,17.9966,-0.766941,2.88275,-28.0451,0.617777,0.351582,0.242551,-3.85931,-0.0789597,0.309456,1.35038,-0.306287,0.162945,3.55209,-15.6304,0.735579,-9.07861,37.295,3.61271,0.602918,15.6718,0.171442,2.45225,3.08365e-14,1.0138e-14,-22.0923,16.1571,-81.9673,96.7599,10.6336,-21.2153,14.3659,7.12502,5.16645,-15.5511,3.08365e-14,1.0138e-14,-27.7953,-29.4476,98.8009,96.0239,10.9775,-22.3205,29.1523,7.12502,4.09928,59.0926,-10.0039,2.34279,11.5874,22.3755,-15.2733,-11.9776,2.85491,-3.72227,0.777106,-22.5356,15.6098,-10.3108,4.96454,-11.5047
0.769114,17.9957,-0.763586,2.8784,-28.2909,0.675225,0.27749,0.285703,-4.0267,-0.0792855,0.369232,1.36965,-0.271686,0.192419,3.66649,-15.7249,0.729879,-9.12594,37.2314,3.59483,0.695358,15.6588,0.173271,2.49754,-6.10517e-14,-2.38542e-15,-22.7292,15.2024,-82.2707,95.4634,10.8747,-21.3323,14.4375,7.12502,5.0535,-15.4823,-6.10517e-14,-2.38542e-15,-27.387,-29.3098,98.5315,96.8011,10.695,-22.8921,29.5254,7.12502,3.54729,59.4756,-10.1011,2.4825,11.5272,22.4293,-15.1635,-11.9354,2.40159,-3.66816,0.920993,-22.589,15.5223,-10.2947,5.0321,-11.287
0.762257,17.9946,-0.7641,2.89036,-28.605,0.695718,0.319704,0.366596,-4.22683,-0.145905,0.474074,1.43785,-0.375943,0.249098,3.84891,-15.6774,0.696091,-9.21476,37.0862,3.55306,0.717233,15.5762,0.154805,2.51115,3.13707e-14,-4.17448e-15,-23.5845,14.284,-82.5047,94.2369,11.0497,-21.5217,14.4863,7.12502,4.87058,-15.4377,3.13707e-14,-4.17448e-15,-27.0114,-29.162,98.3325,97.551,10.4653,-23.845,29.7917,7.12502,2.62707,59.7553,-10.2454,2.66805,11.5048,22.5277,-15.1723,-11.779,2.88224,-3.58295,1.124,-22.6158,15.3716,-10.2044,5.16372,-11.5932
0.756845,17.9959,-0.765133,2.95568,-28.8124,0.718106,0.456869,0.417648,-4.50687,-0.318927,0.533199,1.56562,-0.640733,0.289927,4.13752,-15.4595,0.669816,-9.28985,36.8461,3.53457,0.62395,15.4109,0.138277,2.47193,5.00068e-14,9.14409e-15,-24.6218,13.4361,-82.6509,93.038,11.1537,-21.4761,14.449,7.12502,4.91461,-15.474,5.00068e-14,9.14409e-15,-26.7723,-28.9859,98.3008,98.3041,10.2531,-24.2772,30.1956,7.12502,2.20966,60.1639,-10.4229,2.81541,11.481,22.6346,-15.2218,-11.7007,3.42904,-3.56881,1.32395,-22.6372,15.2166,-10.1317,5.16613,-11.8583
0.752151,17.9964,-0.761973,2.91792,-28.8162,0.94326,0.29183,0.388063,-4.75674,-0.28207,0.499991,1.52158,-0.508586,0.269994,4.23492,-15.4455,0.635977,-9.34539,36.5786,3.46411,0.696083,15.2771,0.126736,2.49472,-8.52289e-15,-9.14409e-15,-25.0744,12.4881,-82.8682,91.5426,11.3302,-21.4699,14.3064,7.12502,4.9206,-15.6165,-8.52289e-15,-9.14409e-15,-26.1952,-28.9956,97.8767,99.1,10.1092,-23.567,30.6873,7.12502,2.89549,60.6474,-10.5292,2.7537,11.2518,22.7367,-15.2192,-11.6382,3.04039,-3.55937,1.27684,-22.8506,15.0916,-10.0857,5.14622,-11.4818
0.747571,17.9963,-0.756013,2.82689,-28.6806,1.14247,0.200293,0.298485,-4.9548,-0.248894,0.384385,1.4872,-0.411655,0.20935,4.31297,-15.3475,0.614198,-9.49891,36.275,3.40808,0.828109,15.1033,0.118621,2.55944,4.02539e-15,-1.35174e-14,-25.415,11.6413,-83.0505,89.8839,11.3867,-21.6123,14.2463,7.12502,4.78311,-15.6797,4.02539e-15,-1.35174e-14,-25.6388,-29.0095,97.4269,99.8587,10.0127,-22.4584,31.0373,7.12502,3.96615,60.9801,-10.5159,2.59398,11.0613,22.8346,-15.2415,-11.6055,2.47299,-3.48394,1.07529,-23.0305,14.974,-10.0501,5.141,-10.9819
0.741861,17.9947,-0.751431,2.78433,-28.6243,1.13639,0.0654901,0.236054,-4.90695,-0.118633,0.309759,1.43289,-0.19292,0.162925,4.23091,-15.2086,0.602547,-9.6427,35.8163,3.31745,1.0603,14.8457,0.120721,2.65409,-4.52235e-14,-3.18055e-15,-25.674,10.69,-83.3105,88.3027,11.5636,-21.811,14.1816,7.12502,4.5913,-15.7486,-4.52235e-14,-3.18055e-15,-24.9353,-29.0674,96.8186,100.625,9.94301,-21.9381,31.4065,7.12502,4.46857,61.3394,-10.4679,2.52992,11.0887,22.9117,-15.3015,-11.6122,2.23456,-3.37497,1.11561,-23.0179,14.8875,-10.0104,5.10681,-11.5134
0.739331,17.9917,-0.746937,2.74946,-28.5288,1.11864,-0.142094,0.158932,-4.76892,0.0703632,0.21983,1.35374,0.128859,0.105108,4.07204,-15.1399,0.582781,-9.70768,35.3301,3.2236,1.2301,14.599,0.123991,2.70832,1.9953e-14,-7.7526e-15,-25.9094,9.60015,-83.6045,86.8087,12.202,-21.9737,14.0622,7.12502,4.43416,-15.8714,1.9953e-14,-7.7526e-15,-24.0926,-29.1175,96.129,101.378,9.85818,-22.0377,31.5323,7.12502,4.37235,61.4672,-10.4077,2.44271,11.1207,22.9506,-15.3199,-11.6336,2.30497,-3.30559,1.09183,-23.0064,14.8795,-10.0126,5.11551,-12.0853
0.739946,17.9897,-0.741833,2.71526,-28.2743,1.11374,-0.249863,0.0546384,-4.64129,0.185278,0.0872646,1.30238,0.321863,0.0315345,3.94667,-15.1416,0.517016,-9.87559,34.982,3.08217,1.47449,14.4366,0.0951041,2.80744,2.52457e-14,2.18663e-15,-26.3056,8.57072,-83.7723,85.3697,12.7999,-22.2106,13.9665,7.12502,4.20538,-15.9718,2.52457e-14,2.18663e-15,-23.3313,-29.2267,95.5543,102.117,9.85252,-22.5592,31.9814,7.12502,3.86875,61.926,-10.2916,2.27372,11.1402,22.9514,-15.373,-11.6906,2.40637,-3.32285,0.891755,-22.9822,14.9829,-10.0931,5.00508,-11.5757
0.737528,17.9895,-0.740624,2.75341,-28.3465,1.07176,-0.330106,0.0764881,-4.6095,0.226308,0.120598,1.30445,0.405728,0.0452967,3.93124,-15.1128,0.454313,-9.94144,34.6866,2.9894,1.50225,14.2998,0.0671008,2.80788,6.21202e-17,-1.78906e-15,-26.7011,7.61539,-83.8037,83.8037,13.5396,-22.5937,14.0492,7.12502,3.83548,-15.896,6.21202e-17,-1.78906e-15,-22.6522,-29.387,95.0926,102.871,9.82804,-23.4378,33.2288,7.12502,3.02026,63.1872,-10.3244,2.35085,11.1871,22.956,-15.3535,-11.7074,2.22106,-3.40426,0.86239,-22.924,15.1085,-10.161,5.03854,-11.0878
0.732474,17.9879,-0.741698,2.81139,-28.7431,0.905956,-0.355099,0.2052,-4.54993,0.253956,0.293291,1.35879,0.430513,0.130624,3.95508,-15.0092,0.436219,-9.93304,34.3669,2.95919,1.44366,14.1353,0.0651769,2.76825,2.05369e-14,5.96354e-15,-27.1234,6.67175,-83.7869,82.196,14.4993,-23.0145,14.3411,7.12502,3.42911,-15.611,2.05369e-14,5.96354e-15,-22.0565,-29.4931,94.6787,103.658,9.73137,-23.5001,34.1312,7.12502,2.9601,64.0904,-10.421,2.57473,11.348,22.9752,-15.2027,-11.6003,1.89306,-3.39606,1.20833,-22.775,15.2122,-10.2409,5.12044,-11.5623
0.728908,17.9868,-0.741214,2.82945,-28.9633,0.854928,-0.349676,0.249044,-4.59427,0.248102,0.35144,1.41759,0.414905,0.160024,4.04139,-14.9678,0.429051,-9.93669,34.076,2.95797,1.3844,13.9971,0.0719557,2.73701,-1.0092e-13,1.59028e-15,-27.6306,5.92636,-83.7187,80.7513,15.2094,-23.1862,14.329,7.12502,3.2633,-15.6257,-1.0092e-13,1.59028e-15,-21.4624,-29.4493,94.3034,104.364,9.62341,-22.927,34.2128,7.12502,3.51358,64.1636,-10.4861,2.61331,11.3955,23.0174,-15.1394,-11.4732,1.87904,-3.39774,1.49374,-22.7349,15.2822,-10.2708,5.12241,-12.0309
0.726663,17.9863,-0.742496,2.78384,-29.0072,0.953177,-0.312795,0.214581,-4.82653,0.260362,0.304867,1.4864,0.410265,0.135772,4.24378,-15.0931,0.423376,-9.94121,33.8522,2.99847,1.28449,13.9259,0.08655,2.70054,1.75427e-14,-5.76476e-15,-28.0277,5.29998,-83.5875,79.3012,15.7543,-23.2514,14.088,7.12502,3.2003,-15.8677,1.75427e-14,-5.76476e-15,-20.718,-29.4109,93.8925,105.054,9.49882,-22.7305,34.766,7.12502,3.70339,64.7136,-10.5118,2.6466,11.3013,23.0427,-15.2245,-11.4085,2.53032,-3.43301,1.54865,-22.8123,15.3424,-10.303,5.08277,-11.6298
0.724699,17.984,-0.74149,2.65199,-28.9134,1.02342,-0.209681,0.143282,-5.01744,0.319536,0.206173,1.55598,0.423364,0.0839434,4.42342,-15.2076,0.40858,-9.98798,33.6241,3.00939,1.26257,13.8497,0.0941808,2.69813,1.90585e-14,4.37326e-15,-28.3727,4.67964,-83.4451,77.7919,16.0274,-23.4647,13.8521,7.12502,2.99437,-16.1066,1.90585e-14,4.37326e-15,-19.9599,-29.3932,93.4635,105.742,9.346,-22.9237,35.6062,7.12502,3.51678,65.5569,-10.377,2.6369,11.2525,23.053,-15.3029,-11.435,2.7998,-3.33439,1.48264,-22.8519,15.3524,-10.325,5.0251,-11.3383
0.726547,17.9834,-0.736972,2.55511,-28.5317,1.04566,-0.0730385,0.00598615,-5.01575,0.325312,0.0161885,1.56948,0.374248,-0.00997732,4.43539,-15.1096,0.362232,-10.1232,33.339,2.90967,1.41242,13.7026,0.070534,2.75808,3.40667e-14,2.38542e-15,-28.853,4.00597,-83.3502,76.3682,15.8438,-23.6324,13.4637,7.12502,2.83242,-16.4973,3.40667e-14,2.38542e-15,-19.317,-29.4039,93.0244,106.411,9.20507,-22.8898,35.7894,7.12502,3.54949,65.7396,-10.1822,2.44834,11.2622,23.0407,-15.32,-11.6362,2.35419,-3.26635,1.22603,-22.8517,15.3491,-10.3042,4.89736,-11.2334
0.730869,17.985,-0.730603,2.6817,-28.3189,1.01774,-0.167638,-0.0808442,-4.88915,0.283683,-0.0960553,1.5611,0.396959,-0.0654879,4.3544,-14.9835,0.330221,-10.2522,33.0387,2.824,1.56687,13.543,0.0552341,2.8198,5.51379e-14,-8.74653e-15,-29.2755,3.27901,-83.2354,74.8716,15.4985,-23.7689,13.3102,7.12502,2.70052,-16.6525,5.51379e-14,-8.74653e-15,-18.6367,-29.4969,92.5248,107.032,9.11194,-22.9376,35.8437,7.12502,3.50341,65.7947,-10.2463,2.22121,11.2833,23.0098,-15.292,-11.6973,2.74588,-3.40954,1.02983,-22.8362,15.3566,-10.2948,4.86564,-11.2776
0.73147,17.9863,-0.726219,2.77497,-28.3688,1.00535,-0.310169,-0.110456,-4.88977,0.297533,-0.128705,1.59342,0.494978,-0.084934,4.38794,-15.0308,0.308403,-10.3359,32.7511,2.77993,1.67866,13.4269,0.0563788,2.8659,6.5102e-15,1.43125e-14,-29.5312,2.57972,-83.0941,73.2531,15.2233,-23.8813,13.3299,7.12502,2.59199,-16.6341,6.5102e-15,1.43125e-14,-17.8959,-29.508,92.0005,107.62,8.90816,-23.0898,36.2232,7.12502,3.35637,66.1766,-10.3308,2.18972,11.276,22.9912,-15.2923,-11.6271,2.96101,-3.47138,1.08151,-22.8508,15.3361,-10.2906,4.90605,-11.7604
0.729364,17.9843,-0.721179,2.60249,-28.2054,1.05416,-0.238867,-0.176474,-4.95227,0.378348,-0.218864,1.60414,0.54867,-0.133676,4.43386,-14.9543,0.219689,-10.4733,32.2987,2.60933,1.86283,13.2214,0.0145467,2.9247,9.61621e-15,1.31198e-14,-29.8369,1.9031,-82.9399,71.7133,14.9004,-23.9563,13.2945,7.12502,2.51958,-16.6704,9.61621e-15,1.31198e-14,-17.1364,-29.5286,91.4599,108.144,8.64706,-23.2104,36.5416,7.12502,3.23995,66.4967,-10.094,2.14161,11.2405,23.0185,-15.4439,-11.6144,2.74378,-3.24693,1.03186,-22.8954,15.2723,-10.2748,4.84414,-12.361
0.726602,17.9796,-0.715638,2.32782,-27.99,1.18032,-0.074985,-0.225093,-5.02848,0.447203,-0.290183,1.54946,0.535852,-0.17077,4.42012,-14.828,0.142795,-10.5766,31.9461,2.43684,2.06392,13.0502,-0.0273482,2.98549,6.23687e-15,-1.59028e-15,-30.2848,1.2021,-82.7749,70.3336,14.6193,-23.9276,13.231,7.12502,2.54727,-16.7335,6.23687e-15,-1.59028e-15,-16.3788,-29.676,90.8598,108.654,8.44112,-23.102,36.5774,7.12502,3.3446,66.5309,-9.79796,2.07458,11.1387,23.0769,-15.5836,-11.6782,2.26878,-2.94833,0.880806,-23.0008,15.1887,-10.2581,4.7915,-12.3727
0.725073,17.9776,-0.711304,2.25145,-27.9539,1.28131,-0.055802,-0.249254,-5.10239,0.459399,-0.322784,1.51992,0.541673,-0.187771,4.43113,-14.7202,0.124352,-10.6707,31.6445,2.36651,2.21848,12.8999,-0.0328078,3.04254,5.86663e-14,-3.97569e-15,-30.6981,0.598605,-82.5793,68.958,14.4524,-23.7035,13.1626,7.12502,2.76374,-16.7992,5.86663e-14,-3.97569e-15,-15.6207,-29.7721,90.2238,109.243,8.36158,-23.0422,36.8079,7.12502,3.40231,66.7605,-9.78022,2.05906,11.0388,23.15,-15.6502,-11.6791,2.36638,-2.83856,0.776038,-23.1021,15.0761,-10.2133,4.83879,-12.1556
0.723898,17.9778,-0.709031,2.27591,-27.9689,1.2837,-0.0330467,-0.282389,-5.14619,0.421264,-0.368677,1.53331,0.495288,-0.208762,4.46978,-14.5284,0.13214,-10.7105,31.325,2.3205,2.32813,12.7251,-0.0267104,3.07416,4.68138e-14,-2.0276e-14,-31.0879,0.0219924,-82.3555,67.5315,14.4533,-23.395,13.0512,7.12502,3.06168,-16.9066,4.68138e-14,-2.0276e-14,-14.9236,-29.7691,89.651,109.825,8.23572,-23.0706,37.1792,7.12502,3.37496,67.1323,-9.82621,2.07394,11.0322,23.2135,-15.7353,-11.6292,2.63809,-2.80517,0.659453,-23.1096,14.9805,-10.1709,4.9423,-11.906
0.722259,17.9775,-0.704382,2.23972,-28.0142,1.33469,-0.0495505,-0.308729,-5.19067,0.430635,-0.402581,1.51214,0.518328,-0.226743,4.47264,-14.5271,0.142078,-10.6165,31.1501,2.29943,2.34451,12.653,-0.013992,3.05696,6.3462e-14,2.78299e-15,-31.3824,-0.556364,-82.1698,66.0278,14.5294,-23.5362,13.2011,7.12502,2.92524,-16.7586,6.3462e-14,2.78299e-15,-14.2437,-29.7701,89.0625,110.39,8.1017,-23.0802,37.5601,7.12502,3.36562,67.5133,-9.81704,2.05302,10.9781,23.262,-15.7413,-11.559,2.55542,-2.73924,0.557028,-23.1643,14.9279,-10.1858,5.04054,-11.5364
0.72128,17.9758,-0.701172,2.23538,-28.0287,1.36842,-0.0714782,-0.338398,-5.18483,0.425228,-0.441078,1.50043,0.529386,-0.246153,4.45678,-14.6016,0.124188,-10.5562,30.9859,2.25921,2.36071,12.6034,-0.0144203,3.04424,-4.76586e-14,0,-31.6965,-1.08843,-81.9842,64.5471,14.372,-24.0836,13.5434,7.12502,2.39664,-16.4228,-4.76586e-14,0,-13.6471,-29.7824,88.5702,110.95,7.88846,-23.0767,37.7057,7.12502,3.36901,67.6588,-9.83188,2.02381,10.9466,23.2808,-15.7197,-11.5407,2.40252,-2.73343,0.535991,-23.1971,14.9215,-10.2281,5.06228,-11.354
0.720973,17.9761,-0.700818,2.27775,-28.0351,1.35015,-0.0252418,-0.369372,-5.20114,0.372982,-0.485816,1.54548,0.455332,-0.265383,4.51306,-14.5975,0.117947,-10.6245,30.8158,2.2426,2.43633,12.5313,-0.0112969,3.07828,6.78353e-15,1.31198e-14,-32.0894,-1.55013,-81.7221,63.1379,14.3874,-24.6732,13.5811,7.12502,1.82717,-16.3908,6.78353e-15,1.31198e-14,-13.0632,-29.7967,88.157,111.493,7.75383,-23.2033,37.866,7.12502,3.24676,67.821,-9.88189,1.98852,10.972,23.2835,-15.6635,-11.5687,2.14955,-2.77439,0.558587,-23.1807,14.9267,-10.2165,5.06321,-11.6503
0.720137,17.9762,-0.699197,2.30695,-28.079,1.29644,-0.0229803,-0.375246,-5.16647,0.377655,-0.49392,1.57161,0.459743,-0.269629,4.52053,-14.6118,0.119605,-10.6963,30.7035,2.22243,2.57397,12.4852,-0.00467134,3.13807,4.94228e-14,9.14409e-15,-32.4208,-2.0889,-81.4107,61.763,14.5881,-25.0955,13.6366,7.12502,1.41933,-16.3384,4.94228e-14,9.14409e-15,-12.3488,-29.843,87.5979,111.97,7.60351,-23.415,38.0679,7.12502,3.04232,68.0259,-9.89411,1.99234,11.0297,23.2764,-15.5963,-11.5849,1.72467,-2.78138,0.580189,-23.1314,14.9561,-10.2334,5.07596,-11.7095
0.72005,17.9763,-0.695512,2.32128,-28.1328,1.30874,-0.0688835,-0.371801,-5.11635,0.391945,-0.486674,1.52604,0.498502,-0.267123,4.44442,-14.5435,0.111926,-10.728,30.5127,2.15586,2.74023,12.3927,-0.00643609,3.19201,9.24349e-15,-3.57812e-15,-32.6693,-2.73156,-81.1388,60.3628,14.6352,-25.199,13.6738,7.12502,1.31938,-16.3018,9.24349e-15,-3.57812e-15,-11.6383,-29.8767,86.9619,112.381,7.36644,-23.593,38.2322,7.12502,2.87043,68.1927,-9.92645,2.01063,11.0143,23.2715,-15.5108,-11.5805,1.46823,-2.79906,0.475525,-23.1587,14.9733,-10.2434,5.22547,-11.6363
0.719895,17.9736,-0.692338,2.31022,-28.1525,1.37345,-0.0590842,-0.404883,-5.15033,0.379957,-0.531257,1.49774,0.485838,-0.288857,4.43406,-14.3728,0.146242,-10.7774,30.2115,2.15915,2.84477,12.2309,0.0176707,3.22999,-8.84592e-15,1.74931e-14,-32.916,-3.31849,-80.8527,58.9623,14.6718,-25.1556,13.9197,7.12502,1.3613,-16.0557,-8.84592e-15,1.74931e-14,-10.9535,-29.8456,86.3304,112.841,7.20574,-23.7856,38.6305,7.12502,2.68444,68.5934,-9.95075,1.94779,10.9509,23.2586,-15.4088,-11.5762,1.33329,-2.8173,0.380955,-23.2299,14.9873,-10.2699,5.31967,-11.4442
0.719634,17.9731,-0.689941,2.29188,-28.1497,1.40148,-0.00404244,-0.441419,-5.17494,0.362917,-0.583153,1.51794,0.443844,-0.313392,4.46917,-14.2524,0.188494,-10.9067,29.9673,2.19519,2.97881,12.0999,0.0484136,3.29931,4.99198e-14,-7.15625e-15,-33.2367,-3.8531,-80.4891,57.6429,14.7554,-25.0901,13.9665,7.12502,1.42457,-16.0085,4.99198e-14,-7.15625e-15,-10.2566,-29.8011,85.7867,113.269,7.09065,-23.8312,38.7699,7.12502,2.64042,68.7333,-9.94422,1.93501,10.9217,23.2657,-15.3958,-11.6228,1.42396,-2.78879,0.434814,-23.2594,14.9653,-10.261,5.27603,-11.5274
0.720799,17.9738,-0.687193,2.31881,-28.1338,1.33422,0.0117707,-0.461641,-5.08075,0.36747,-0.611217,1.54523,0.442149,-0.32725,4.44411,-14.2137,0.170554,-10.987,29.7646,2.14704,3.10008,12.0109,0.0434943,3.34623,-4.83544e-14,-4.37326e-15,-33.5345,-4.51713,-80.086,56.3033,14.892,-25.0658,14.0203,7.12502,1.44805,-15.9545,-4.83544e-14,-4.37326e-15,-9.53379,-29.7745,85.2881,113.556,6.80213,-23.8349,38.4605,7.12502,2.63683,68.4239,-9.93031,1.92893,10.9794,23.2974,-15.4466,-11.6172,1.2672,-2.74274,0.469042,-23.1976,14.9074,-10.2455,5.22851,-11.6612
0.720678,17.9741,-0.683879,2.31252,-28.1853,1.39305,-0.0274784,-0.45116,-5.05817,0.3767,-0.594878,1.48584,0.470899,-0.319837,4.36932,-14.2519,0.138273,-10.9293,29.6019,2.06312,3.18505,11.9583,0.0314086,3.35347,6.13002e-14,1.23246e-14,-33.7944,-5.39522,-79.699,54.9365,15.2323,-24.9694,14.024,7.12502,1.54115,-15.9502,6.13002e-14,1.23246e-14,-8.86277,-29.8247,84.7017,113.991,6.55643,-23.7003,38.4821,7.12502,2.76676,68.4439,-9.96054,1.96376,10.9017,23.3242,-15.5579,-11.5217,1.44947,-2.72605,0.470613,-23.2693,14.8651,-10.2255,5.26198,-11.577
0.719821,17.9737,-0.680384,2.26433,-28.2469,1.47891,-0.0078675,-0.447965,-5.09535,0.370249,-0.591443,1.44922,0.452858,-0.317492,4.35256,-14.2639,0.137558,-10.862,29.4453,2.04196,3.19281,11.8999,0.0379594,3.33789,1.71452e-14,1.51076e-14,-34.0671,-6.17489,-79.2834,53.6438,15.6109,-24.7559,13.648,7.12502,1.74732,-16.3246,1.71452e-14,1.51076e-14,-8.31456,-29.8722,84.2045,114.548,6.41195,-23.4978,38.9626,7.12502,2.96237,68.9217,-9.96696,2.01806,10.8046,23.3407,-15.6274,-11.4645,1.76557,-2.69012,0.517304,-23.3742,14.8541,-10.2221,5.31875,-11.875
0.720707,17.9739,-0.67902,2.2644,-28.2972,1.44668,-0.00665535,-0.443672,-5.1245,0.399288,-0.585544,1.51008,0.482426,-0.316336,4.43221,-14.2693,0.133322,-10.8643,29.2384,2.02776,3.22104,11.8194,0.0449412,3.34133,-4.7112e-14,3.18055e-15,-34.3298,-6.7548,-78.8274,52.5231,15.6385,-24.6927,13.0696,7.12502,1.80832,-16.9024,-4.7112e-14,3.18055e-15,-7.62035,-29.8502,83.7419,114.951,6.21398,-23.3817,39.402,7.12502,3.07444,69.3595,-9.98231,2.04249,10.833,23.369,-15.5802,-11.4494,1.44239,-2.66007,0.596771,-23.356,14.8363,-10.2036,5.34233,-12.2596
0.722519,17.9741,-0.678416,2.30807,-28.3298,1.36688,-0.0420758,-0.438776,-5.06496,0.450702,-0.576822,1.54846,0.554055,-0.315074,4.43791,-14.212,0.117557,-10.8958,28.914,1.97225,3.32822,11.6815,0.0455898,3.36965,-3.43152e-14,-4.77083e-15,-34.5111,-7.38239,-78.4062,51.3805,15.5303,-24.9377,12.9886,7.12502,1.57174,-16.9853,-3.43152e-14,-4.77083e-15,-6.82379,-29.7872,83.2184,115.257,6.00808,-23.3079,39.792,7.12502,3.14577,69.7485,-10.0002,2.07815,10.9094,23.38,-15.593,-11.453,1.2118,-2.67101,0.623883,-23.2772,14.8414,-10.2081,5.32654,-12.2214
0.723503,17.973,-0.675168,2.29886,-28.3853,1.36306,-0.0826444,-0.422764,-4.98921,0.504662,-0.552658,1.50542,0.628393,-0.305796,4.34991,-14.0908,0.105886,-10.9022,28.5802,1.90116,3.45658,11.5287,0.044436,3.39821,-1.33186e-14,2.38542e-15,-34.7188,-8.20881,-77.9817,50.217,15.7042,-25.0337,13.15,7.12502,1.479,-16.8246,-1.33186e-14,2.38542e-15,-6.13008,-29.7904,82.6782,115.552,5.80706,-23.3702,40.0628,7.12502,3.0856,70.0202,-9.97693,2.12356,10.9067,23.3666,-15.5783,-11.4188,1.47507,-2.66331,0.630175,-23.2812,14.8791,-10.2426,5.36785,-12.167
0.724775,17.9717,-0.671401,2.23134,-28.3637,1.37618,-0.0178541,-0.45303,-4.9269,0.535725,-0.595848,1.47635,0.627828,-0.327697,4.28447,-14.0257,0.138488,-10.924,28.327,1.91116,3.56873,11.4129,0.0721837,3.43688,4.76338e-14,-1.51076e-14,-34.9508,-8.9516,-77.5372,49.0489,15.9435,-25.2042,13.2462,7.12502,1.31439,-16.7295,4.76338e-14,-1.51076e-14,-5.5577,-29.8088,82.1653,115.831,5.57933,-23.6485,40.2952,7.12502,2.8168,70.2564,-9.89775,2.1178,10.8925,23.358,-15.5774,-11.4474,1.5738,-2.58733,0.56845,-23.3016,14.8871,-10.2727,5.40951,-11.9184
0.727231,17.9716,-0.668263,2.17698,-28.2499,1.34098,0.0950827,-0.526707,-4.82786,0.557141,-0.699686,1.48594,0.596813,-0.378872,4.2385,-14.1269,0.167363,-10.8921,28.2317,1.94419,3.61499,11.3922,0.101034,3.45188,5.12119e-14,-2.06736e-14,-35.2091,-9.43485,-77.1522,48.035,15.9677,-25.5398,13.0188,7.12502,0.990257,-16.9587,5.12119e-14,-2.06736e-14,-5.05132,-29.7622,81.7264,116.047,5.2578,-23.8676,40.5863,7.12502,2.60522,70.5501,-9.79949,2.0714,10.9295,23.3622,-15.5961,-11.5396,1.21553,-2.49339,0.386407,-23.2659,14.8408,-10.2803,5.39483,-11.4997
0.728643,17.9726,-0.664708,2.15428,-28.2879,1.37287,0.124891,-0.566235,-4.83966,0.571725,-0.75375,1.5042,0.601446,-0.406527,4.26398,-14.2989,0.198061,-10.8926,28.1924,1.99553,3.67098,11.4055,0.133627,3.48118,3.83406e-14,0,-35.4481,-9.77555,-76.7773,47.1187,15.9011,-25.6889,12.5523,7.12502,0.846207,-17.4257,3.83406e-14,0,-4.5727,-29.616,81.3608,116.221,4.87637,-23.8837,40.7371,7.12502,2.58969,70.7012,-9.8084,2.06668,10.8887,23.3847,-15.5646,-11.5101,1.44216,-2.43678,0.356699,-23.309,14.7563,-10.2865,5.44966,-11.5492
0.729431,17.9742,-0.659291,2.16277,-28.4617,1.4086,0.0931755,-0.56217,-4.89974,0.560635,-0.747099,1.54996,0.608598,-0.403626,4.34529,-14.3985,0.224705,-10.9532,28.1402,2.04184,3.74513,11.3991,0.160168,3.52521,-3.01159e-14,9.93923e-15,-35.7002,-10.2247,-76.3063,46.1797,15.8146,-25.6106,12.334,7.12502,0.921857,-17.6437,-3.01159e-14,9.93923e-15,-4.19546,-29.4727,81.1088,116.423,4.54847,-23.9233,40.9089,7.12502,2.55143,70.8734,-9.84434,2.20081,10.8003,23.4022,-15.7495,-11.2446,3.52156,-2.39713,0.434275,-23.369,14.705,-10.2908,5.5623,-11.5993
0.730199,17.9736,-0.655003,2.08434,-28.6297,1.50533,0.102284,-0.566565,-4.99625,0.565781,-0.753258,1.5722,0.611174,-0.407483,4.42308,-14.408,0.282835,-10.9599,28.0557,2.12958,3.7379,11.3606,0.201972,3.53259,-1.04362e-15,-7.95139e-16,-35.9086,-10.8593,-75.7998,45.1812,15.7898,-25.6204,12.4758,7.12502,0.912383,-17.502,-1.04362e-15,-7.95139e-16,-3.87804,-29.3284,80.8459,116.667,4.31049,-23.883,41.0848,7.12502,2.59037,71.0488,-9.82896,2.33298,10.6638,23.4266,-15.9685,-10.9878,5.46446,-2.31296,0.533998,-23.4837,14.67,-10.2728,5.63486,-11.7252
0.731996,17.9706,-0.653563,2.07323,-28.7405,1.49236,0.14457,-0.573345,-4.9696,0.550784,-0.764826,1.60228,0.573349,-0.411861,4.43972,-14.3326,0.366264,-10.9698,27.9251,2.221,3.80484,11.2848,0.256463,3.56565,5.04665e-14,-6.36111e-15,-36.1634,-11.4738,-75.2946,44.2602,15.7341,-25.6584,12.5824,7.12502,0.875687,-17.3956,5.04665e-14,-6.36111e-15,-3.58998,-29.2234,80.5655,116.945,4.16809,-23.8678,41.3013,7.12502,2.605,71.2651,-9.87442,2.31956,10.6985,23.4442,-15.7048,-11.1071,3.62255,-2.26928,0.551711,-23.4886,14.6453,-10.2714,5.74086,-11.8104
0.733478,17.9692,-0.65134,2.09491,-28.8115,1.4677,0.178422,-0.572678,-4.92586,0.518486,-0.76621,1.62753,0.52096,-0.410243,4.44175,-14.309,0.388568,-10.9984,27.8333,2.22688,3.90872,11.2409,0.273308,3.60657,-2.41275e-14,3.57812e-15,-36.4722,-12.0276,-74.7795,43.4599,15.6509,-25.4822,12.5565,7.12502,1.04588,-17.4207,-2.41275e-14,3.57812e-15,-3.30557,-29.225,80.2781,117.186,4.11589,-24.0392,41.5179,7.12502,2.4395,71.4837,-9.92797,2.25607,10.7422,23.4425,-15.3664,-11.263,0.977664,-2.27556,0.604691,-23.479,14.6629,-10.2749,5.77925,-11.7139
0.734855,17.9685,-0.647488,2.07966,-28.8677,1.5129,0.154985,-0.586829,-4.92372,0.519207,-0.783944,1.62433,0.536798,-0.419559,4.43683,-14.2862,0.39519,-10.9497,27.6689,2.21665,3.91917,11.1741,0.282356,3.5954,4.21672e-14,3.18055e-15,-36.7161,-12.5633,-74.2789,42.7619,15.6664,-25.2214,12.613,7.12502,1.29775,-17.3628,4.21672e-14,3.18055e-15,-3.01288,-29.19,79.9905,117.374,3.98478,-24.1138,41.5463,7.12502,2.36746,71.5129,-9.94004,2.23616,10.6879,23.4279,-15.2461,-11.28,0.0614663,-2.29342,0.687622,-23.533,14.705,-10.2998,5.74239,-11.7798
0.736008,17.9685,-0.645325,2.10236,-28.9422,1.47405,0.104014,-0.618811,-4.8383,0.552413,-0.823965,1.62929,0.602923,-0.441791,4.39251,-14.2671,0.432066,-10.9376,27.4703,2.24193,3.99245,11.09,0.312986,3.61716,3.96575e-14,-1.11319e-14,-36.8976,-12.9813,-73.8416,42.1236,15.6304,-24.9871,12.6099,7.12502,1.52402,-17.3644,3.96575e-14,-1.11319e-14,-2.70033,-29.072,79.6748,117.542,3.82634,-24.2044,41.4738,7.12502,2.28,71.4413,-9.96978,2.2777,10.7227,23.421,-15.2175,-11.2952,0.348976,-2.29573,0.679228,-23.5012,14.7057,-10.3071,5.78671,-11.4177
0.737765,17.9672,-0.640993,2.11281,-29.049,1.44976,0.0548224,-0.645918,-4.77726,0.572427,-0.857988,1.66235,0.654525,-0.460508,4.39128,-14.2226,0.503263,-10.9614,27.2925,2.32912,4.04193,11.0041,0.364051,3.64397,-2.04003e-14,3.57812e-15,-37.0629,-13.2771,-73.4018,41.4,15.4067,-25.1613,12.1021,7.12502,1.35578,-17.8733,-2.04003e-14,3.57812e-15,-2.40982,-28.9166,79.3955,117.702,3.63045,-24.2477,41.4457,7.12502,2.23813,71.4137,-9.96344,2.39133,10.726,23.4098,-15.2954,-11.2431,1.28346,-2.25857,0.645695,-23.5036,14.6952,-10.3696,5.91753,-11.3953
0.739939,17.9658,-0.63272,2.07127,-29.17,1.46308,0.0361273,-0.665892,-4.74782,0.571268,-0.884101,1.69157,0.666745,-0.47386,4.40452,-14.1073,0.585475,-10.9548,27.1384,2.43145,4.02948,10.914,0.416083,3.64395,3.83157e-14,-1.07344e-14,-37.3183,-13.5655,-72.9587,40.7804,15.235,-25.2811,11.6954,7.12502,1.24011,-18.2808,3.83157e-14,-1.07344e-14,-2.21007,-28.7928,79.1771,117.861,3.43951,-24.166,41.4167,7.12502,2.31708,71.3839,-9.90834,2.48164,10.6798,23.3899,-15.3186,-11.1383,1.28146,-2.17553,0.693542,-23.5523,14.6944,-10.4438,6.00898,-11.8025
0.742661,17.9654,-0.62606,2.06536,-29.2883,1.44221,0.00176184,-0.659303,-4.65112,0.595744,-0.873815,1.69105,0.708501,-0.469832,4.34869,-14.0161,0.62375,-10.9499,26.9328,2.4643,4.05635,10.8148,0.443668,3.64883,-4.39563e-14,-4.37326e-15,-37.5693,-13.9341,-72.5518,40.2824,15.1047,-25.177,11.6334,7.12502,1.34058,-18.3421,-4.39563e-14,-4.37326e-15,-1.99785,-28.7009,79.0105,118.003,3.25775,-24.0076,41.2627,7.12502,2.47005,71.2281,-9.91513,2.54422,10.6761,23.3946,-15.3328,-11.0851,1.21149,-2.12159,0.795129,-23.5497,14.6654,-10.4475,6.00444,-11.9781
0.745896,17.9643,-0.620422,2.0909,-29.415,1.39204,-0.0356879,-0.642893,-4.54041,0.622888,-0.85047,1.69596,0.753208,-0.459283,4.29067,-13.9904,0.646207,-10.8846,26.7912,2.47974,4.04118,10.756,0.461629,3.62927,5.84427e-14,-2.10712e-14,-37.8013,-14.2708,-72.1708,39.8311,14.7544,-25.1752,11.5188,7.12502,1.34239,-18.4567,5.84427e-14,-2.10712e-14,-1.8044,-28.6532,78.8496,118.096,2.99199,-24.0488,41.1005,7.12502,2.43027,71.0664,-9.94448,2.59944,10.7055,23.4054,-15.3326,-11.0361,1.22553,-2.10278,0.811104,-23.5129,14.6397,-10.4535,6.06178,-11.6391
0.749848,17.9623,-0.614411,2.07749,-29.5377,1.42689,-0.0542892,-0.65606,-4.51844,0.622577,-0.867455,1.70924,0.765028,-0.46802,4.29163,-14.0014,0.705508,-10.8669,26.7248,2.55946,4.04471,10.7261,0.503191,3.63539,1.74682e-14,-1.27222e-14,-38.011,-14.7264,-71.6836,39.2392,14.6421,-25.1349,12.0314,7.12502,1.3813,-17.9438,1.74682e-14,-1.27222e-14,-1.73666,-28.5129,78.7663,118.15,2.69183,-24.1215,40.9225,7.12502,2.36003,70.8892,-9.98359,2.6631,10.6461,23.4384,-15.3035,-10.9996,1.06711,-2.0719,0.917435,-23.5652,14.6032,-10.4638,6.04437,-11.4303
0.754166,17.9609,-0.60815,2.0535,-29.6109,1.48404,-0.0649385,-0.675879,-4.48056,0.616671,-0.893638,1.70387,0.767031,-0.4808,4.26423,-14.0614,0.767229,-10.8973,26.7186,2.63079,4.16091,10.7252,0.547584,3.69255,-3.09856e-14,3.57812e-15,-38.1987,-15.2578,-71.1665,38.575,14.8375,-25.2553,12.8522,7.12502,1.26498,-17.1238,-3.09856e-14,3.57812e-15,-1.66504,-28.395,78.6931,118.179,2.25766,-24.1277,40.7972,7.12502,2.35403,70.764,-10.0218,2.68451,10.5607,23.4946,-15.3052,-10.9423,0.867008,-2.02572,1.06166,-23.644,14.5452,-10.5072,5.94783,-11.4199
0.756948,17.96,-0.60454,2.02347,-29.6494,1.57384,-0.0774769,-0.703667,-4.48884,0.612737,-0.929959,1.67594,0.773573,-0.498989,4.2394,-14.0702,0.830019,-10.9064,26.6452,2.68575,4.2969,10.6899,0.591838,3.74814,4.1869e-14,-1.31198e-14,-38.3975,-15.7298,-70.7662,38.1325,14.9876,-25.4953,12.9359,7.12502,1.03324,-17.0414,4.1869e-14,-1.31198e-14,-1.52673,-28.3337,78.5312,118.279,2.01248,-24.1318,40.8094,7.12502,2.35006,70.7762,-10.0681,2.6667,10.4493,23.5663,-15.2433,-10.8702,0.416355,-1.99399,1.13235,-23.7461,14.4735,-10.4877,5.90234,-11.913
0.757972,17.9592,-0.603774,2.02755,-29.6923,1.59581,-0.071859,-0.7223,-4.45881,0.603857,-0.955058,1.64702,0.762908,-0.510776,4.19224,-14.0414,0.880268,-10.8322,26.5429,2.72041,4.34525,10.6417,0.625415,3.75347,-1.48095e-14,-1.98785e-15,-38.6322,-16.0733,-70.4875,37.8921,14.9417,-25.6715,12.4217,7.12502,0.863045,-17.5563,-1.48095e-14,-1.98785e-15,-1.36702,-28.3649,78.3093,118.414,1.83966,-24.2402,40.8668,7.12502,2.24538,70.8348,-10.1065,2.67803,10.4218,23.6042,-15.2023,-10.8494,0.135383,-1.99276,1.1339,-23.7709,14.4499,-10.4698,5.92806,-12.0295
0.759048,17.9593,-0.602241,2.06338,-29.7842,1.60548,-0.0876223,-0.765387,-4.4723,0.584745,-1.0123,1.68063,0.759042,-0.539173,4.23407,-14.0655,0.932949,-10.8787,26.5006,2.79653,4.39379,10.6218,0.663316,3.78715,-5.71506e-16,8.74653e-15,-38.8129,-16.2812,-70.1581,37.6278,14.8614,-25.7726,11.9688,7.12502,0.76538,-18.0096,-5.71506e-16,8.74653e-15,-1.28829,-28.3058,78.1562,118.527,1.53891,-24.4288,40.9662,7.12502,2.06327,70.936,-10.1809,2.71547,10.4023,23.6189,-15.2205,-10.819,0.301293,-2.03639,1.19078,-23.7904,14.458,-10.4675,5.96652,-11.927
0.760993,17.9601,-0.599901,2.08662,-29.9071,1.6059,-0.0990615,-0.797168,-4.49407,0.5566,-1.05497,1.75006,0.742845,-0.559983,4.31806,-14.0214,0.987046,-10.9718,26.4551,2.88437,4.41661,10.5868,0.698634,3.81904,-1.66482e-15,2.38542e-15,-39.0583,-16.5608,-69.6861,37.3951,14.9287,-25.8728,11.4918,7.12502,0.668559,-18.4869,-1.66482e-15,2.38542e-15,-1.29879,-28.1316,78.0929,118.605,1.27372,-24.326,40.8243,7.12502,2.16249,70.7931,-10.2359,2.82793,10.3896,23.6236,-15.2872,-10.8054,1.04082,-2.058,1.28533,-23.8096,14.4596,-10.4291,6.00371,-11.9365
0.764374,17.961,-0.596948,2.05952,-30.0527,1.60044,-0.0754899,-0.831256,-4.49363,0.573603,-1.10186,1.81273,0.75349,-0.584422,4.38259,-14.03,1.05527,-10.9772,26.3791,2.99878,4.35877,10.5518,0.74668,3.81008,9.22858e-14,2.38542e-15,-39.1639,-16.8776,-69.2631,37.1319,15.0194,-25.9514,11.2377,7.12502,0.592727,-18.7412,9.22858e-14,2.38542e-15,-1.26852,-27.867,78.0241,118.656,1.081,-24.2495,40.4659,7.12502,2.23639,70.434,-10.2545,2.92171,10.3847,23.6416,-15.2686,-10.7824,1.40997,-2.00757,1.46518,-23.8207,14.4378,-10.4495,5.98896,-12.0463
0.767077,17.9594,-0.593216,1.98517,-30.189,1.62667,-0.0204356,-0.854083,-4.50827,0.589137,-1.13478,1.84983,0.743283,-0.601268,4.42979,-14.0808,1.11591,-11.0002,26.3705,3.09249,4.37541,10.5492,0.789841,3.83186,-9.95414e-14,3.97569e-15,-39.2599,-17.1131,-68.9479,36.9442,14.9463,-25.9548,10.9334,7.12502,0.589433,-19.0455,-9.95414e-14,3.97569e-15,-1.21824,-27.7394,77.9584,118.715,0.895193,-24.5094,40.5167,7.12502,1.9854,70.4873,-10.225,3.01356,10.3443,23.647,-15.2093,-10.7421,0.905466,-1.92048,1.44322,-23.8657,14.4276,-10.535,6.11248,-11.8954
0.770284,17.9561,-0.589365,1.88473,-30.2708,1.69215,0.154735,-0.898733,-4.58779,0.50438,-1.20272,1.90359,0.568133,-0.629487,4.53384,-13.9439,1.17316,-11.0976,26.3438,3.17289,4.39689,10.5034,0.819949,3.86134,6.22196e-14,3.57812e-15,-39.5416,-17.1107,-68.6127,36.8385,14.6378,-25.8645,10.7877,7.12502,0.676575,-19.191,6.22196e-14,3.57812e-15,-1.37683,-27.6549,78.0243,118.81,0.691226,-24.7023,40.8219,7.12502,1.79912,70.7941,-10.1825,3.05489,10.266,23.6743,-15.1776,-10.6923,0.477796,-1.82096,1.44534,-23.9451,14.3929,-10.5276,6.19966,-11.6853
0.774578,17.9558,-0.584935,1.84382,-30.3267,1.6975,0.401635,-0.973645,-4.63688,0.329636,-1.31519,1.97525,0.265192,-0.674213,4.64198,-13.6672,1.27713,-11.1397,26.289,3.28816,4.40686,10.4176,0.870756,3.87698,9.66342e-14,-5.56597e-15,-39.9327,-17.1476,-68.1772,36.6686,14.4889,-25.8207,11.094,7.12502,0.718961,-18.8845,9.66342e-14,-5.56597e-15,-1.67064,-27.4808,78.1121,118.845,0.602074,-24.6659,40.9821,7.12502,1.83422,70.954,-10.1646,3.0736,10.242,23.7015,-15.1908,-10.6303,0.550783,-1.74974,1.48789,-23.9669,14.3567,-10.4903,6.21229,-11.8261
0.778795,17.954,-0.583093,1.8171,-30.3282,1.7013,0.479747,-1.01552,-4.54574,0.288107,-1.37432,1.93268,0.182114,-0.700321,4.54789,-13.5358,1.33152,-11.103,26.2067,3.30551,4.52332,10.3558,0.89947,3.90887,6.15487e-14,6.36111e-15,-40.1707,-17.2056,-68.0607,36.654,13.9165,-26.119,10.8458,7.12502,0.4308,-19.1335,6.15487e-14,6.36111e-15,-1.59816,-27.4182,77.9459,118.804,0.472682,-24.6419,41.004,7.12502,1.85747,70.9757,-10.142,3.09634,10.229,23.7117,-15.139,-10.6741,0.327058,-1.72146,1.49779,-23.9778,14.3479,-10.4819,6.20426,-11.8997
0.782084,17.9528,-0.581864,1.82193,-30.3357,1.64615,0.394663,-1.00473,-4.31491,0.385031,-1.35459,1.83388,0.319416,-0.695188,4.31164,-13.5594,1.33251,-10.9872,26.0717,3.25438,4.62429,10.3129,0.905828,3.9159,-7.45443e-17,-3.18055e-15,-40.2663,-17.2718,-68.2119,36.8499,12.8374,-26.4943,9.98675,7.12502,0.0682982,-19.993,-7.45443e-17,-3.18055e-15,-1.26464,-27.4905,77.6485,118.768,0.205322,-24.6537,41.0697,7.12502,1.846,71.0415,-10.1146,3.15159,10.278,23.7175,-15.0997,-10.7345,-0.115187,-1.69568,1.43808,-23.9359,14.34,-10.4727,6.23666,-11.5233
0.784713,17.9522,-0.578448,1.79673,-30.3843,1.63296,0.3147,-0.994991,-4.1684,0.461325,-1.33737,1.76977,0.435863,-0.690281,4.15982,-13.5827,1.3346,-10.9079,25.9791,3.23375,4.65092,10.2851,0.911537,3.90718,4.52235e-15,1.31198e-14,-40.3827,-17.4383,-68.1682,36.9425,12.2788,-26.6787,9.53188,7.12502,-0.10973,-20.4478,4.52235e-15,1.31198e-14,-1.0072,-27.5232,77.4434,118.774,-0.015541,-24.6373,41.1252,7.12502,1.86189,71.0968,-10.088,3.16326,10.273,23.729,-15.1156,-10.6745,-0.0397338,-1.6366,1.43092,-23.9484,14.3337,-10.4948,6.30146,-11.784
0.786764,17.952,-0.576489,1.75252,-30.4505,1.72122,0.235426,-0.993583,-4.16664,0.512504,-1.33169,1.71021,0.530894,-0.690524,4.09498,-13.6337,1.32039,-10.8636,25.9094,3.20502,4.66736,10.272,0.90786,3.90114,1.37907e-14,1.15295e-14,-40.4842,-17.7424,-67.9611,36.8896,12.2534,-26.6691,9.65392,7.12502,-0.100511,-20.3258,1.37907e-14,1.15295e-14,-0.738675,-27.4846,77.2499,118.709,-0.218686,-24.704,40.9977,7.12502,1.79745,70.9699,-10.1016,3.14838,10.1628,23.7385,-15.111,-10.5633,0.0393436,-1.63043,1.4662,-24.0541,14.3501,-10.502,6.3588,-11.8447
0.788604,17.9516,-0.577613,1.75836,-30.485,1.7335,0.135599,-1.00547,-4.13805,0.589555,-1.34307,1.69799,0.666336,-0.700842,4.06326,-13.7411,1.29228,-10.8842,25.8121,3.16909,4.72753,10.2583,0.901311,3.92129,-3.3371e-14,7.95139e-16,-40.49,-17.9166,-67.8083,36.8599,12.2161,-26.7449,9.67423,7.12502,-0.173738,-20.3054,-3.3371e-14,7.95139e-16,-0.436773,-27.3527,77.0859,118.601,-0.519412,-24.6881,40.8532,7.12502,1.81285,70.8252,-10.1407,3.2014,10.1486,23.7479,-15.1513,-10.5825,0.187661,-1.66445,1.5069,-24.0688,14.3749,-10.4513,6.38725,-11.8159
0.790805,17.95,-0.578311,1.76988,-30.5379,1.71965,0.0692637,-1.00395,-4.08962,0.64005,-1.3383,1.70319,0.753976,-0.701304,4.03947,-13.81,1.28167,-10.847,25.7317,3.16682,4.68044,10.2446,0.902068,3.89669,-3.42158e-14,-1.19271e-15,-40.6011,-17.8967,-67.7134,36.9881,12.031,-26.7656,9.69316,7.12502,-0.193687,-20.2865,-3.42158e-14,-1.19271e-15,-0.249209,-27.2639,77.0216,118.533,-0.815024,-24.6337,40.8764,7.12502,1.86534,70.8479,-10.1931,3.26991,10.1621,23.7811,-15.2003,-10.6257,0.560548,-1.68305,1.60089,-24.0547,14.3818,-10.4154,6.36041,-11.8342
0.79424,17.9489,-0.576879,1.76922,-30.5776,1.68885,0.0365478,-1.01261,-3.99943,0.679423,-1.34871,1.70666,0.811759,-0.708106,3.99091,-13.8647,1.30561,-10.8104,25.6748,3.20766,4.64757,10.2322,0.923258,3.88273,-1.07592e-13,-3.97569e-15,-40.722,-17.9492,-67.5834,37.1075,11.9305,-26.8176,9.8293,7.12502,-0.24389,-20.1503,-1.07592e-13,-3.97569e-15,-0.0709475,-27.1944,76.9561,118.447,-0.97711,-24.7355,40.777,7.12502,1.76706,70.7495,-10.2027,3.2986,10.1808,23.7978,-15.1779,-10.6179,0.439885,-1.68315,1.7235,-24.0297,14.4071,-10.4707,6.25231,-11.7867
0.797419,17.9467,-0.573834,1.69646,-30.6461,1.7697,-0.00673923,-1.01321,-3.98463,0.730672,-1.34724,1.66198,0.887136,-0.709772,3.93488,-13.9582,1.32599,-10.7054,25.6404,3.24224,4.57292,10.2383,0.94234,3.84329,-9.58888e-14,-2.38542e-15,-40.7335,-18.3495,-67.3141,36.9608,12.2836,-27.01,9.54414,7.12502,-0.429739,-20.4352,-9.58888e-14,-2.38542e-15,0.102519,-27.1439,76.8422,118.311,-1.01585,-25.0437,40.4474,7.12502,1.46934,70.4221,-10.18,3.26179,10.0814,23.794,-15.1353,-10.5209,0.531527,-1.64828,1.80871,-24.1278,14.4373,-10.5311,6.21656,-11.8772
0.799336,17.9462,-0.572182,1.64374,-30.7041,1.7959,-0.0282195,-1.01953,-3.96701,0.780601,-1.3545,1.64654,0.950437,-0.715625,3.90789,-14.0827,1.34768,-10.5207,25.61,3.28739,4.40347,10.2551,0.962467,3.7586,1.71452e-15,-1.47101e-14,-40.738,-18.7738,-66.963,36.7422,12.7913,-27.1958,9.03946,7.12502,-0.609213,-20.9394,1.71452e-15,-1.47101e-14,0.234257,-27.1018,76.7693,118.179,-1.1151,-25.429,40.3417,7.12502,1.09725,70.3186,-10.1456,3.25238,10.0496,23.7895,-15.0992,-10.473,0.47841,-1.58521,1.80986,-24.1669,14.422,-10.5694,6.25887,-11.8917
0.801174,17.9471,-0.571013,1.62797,-30.7171,1.71282,0.0100511,-1.03831,-3.87275,0.792814,-1.38169,1.68089,0.942673,-0.728803,3.89045,-14.0985,1.36754,-10.4787,25.569,3.32955,4.31762,10.243,0.977372,3.72464,-4.2192e-14,1.19271e-15,-40.8443,-18.9648,-66.6974,36.7428,13.0884,-27.2395,8.79547,7.12502,-0.651399,-21.1833,-4.2192e-14,1.19271e-15,0.344615,-27.0047,76.7678,118.108,-1.16138,-25.639,40.2143,7.12502,0.894425,70.1922,-10.0899,3.3059,10.1285,23.8007,-15.137,-10.4748,0.56921,-1.48296,1.75593,-24.1,14.3496,-10.5274,6.34624,-11.9181
0.803497,17.9466,-0.5689,1.57502,-30.7277,1.76048,0.0172171,-1.06637,-3.86732,0.776145,-1.41946,1.67482,0.924853,-0.746913,3.88095,-13.9969,1.39522,-10.5382,25.4668,3.35801,4.36398,10.1813,0.994213,3.74868,1.21408e-13,1.19271e-15,-40.9186,-18.942,-66.6393,36.8321,13.0531,-26.8458,9.48733,7.12502,-0.271113,-20.4922,1.21408e-13,1.19271e-15,0.466469,-26.9102,76.7194,118.061,-1.15652,-25.7844,40.007,7.12502,0.754009,69.9854,-10.0579,3.38322,10.0753,23.8091,-15.1117,-10.5156,0.255699,-1.41236,1.71973,-24.1544,14.2812,-10.4665,6.37614,-11.427
0.805432,17.9451,-0.566471,1.51644,-30.7525,1.88498,-0.0483695,-1.08477,-3.91906,0.785194,-1.44093,1.63455,0.973319,-0.759067,3.86676,-14.0198,1.40034,-10.4988,25.4252,3.36368,4.34301,10.1712,0.999904,3.7344,-2.13694e-14,-1.19271e-14,-40.8593,-18.9197,-66.6927,36.875,12.8436,-26.2862,10.5594,7.12502,0.269356,-19.4201,-2.13694e-14,-1.19271e-14,0.654874,-26.8783,76.6367,117.971,-1.28301,-25.8168,40.1533,7.12502,0.722693,70.1319,-10.0706,3.39199,9.94084,23.8236,-15.0704,-10.5172,-0.0478538,-1.37485,1.7493,-24.2897,14.2121,-10.4276,6.37347,-11.5801
0.806092,17.9452,-0.565377,1.4774,-30.7751,1.97415,-0.132439,-1.08835,-3.94828,0.81223,-1.44182,1.59101,1.048,-0.761676,3.83615,-14.1326,1.37834,-10.4723,25.4724,3.33083,4.37933,10.2121,0.990124,3.74338,1.56791e-14,2.78299e-15,-40.8171,-18.9593,-66.6916,36.874,12.8645,-26.5189,10.0459,7.12502,0.0445825,-19.9338,1.56791e-14,2.78299e-15,0.818955,-26.92,76.5594,117.897,-1.50407,-25.7794,40.2958,7.12502,0.758849,70.2742,-10.0977,3.36512,9.84557,23.8562,-15.0949,-10.4619,0.00410161,-1.337,1.83696,-24.3784,14.1163,-10.4205,6.31295,-11.8655
0.806766,17.9452,-0.564712,1.45813,-30.8221,2.00949,-0.179675,-1.08311,-3.93728,0.81411,-1.43295,1.57471,1.07487,-0.757677,3.81222,-14.1588,1.35693,-10.528,25.4681,3.29552,4.46468,10.2152,0.979047,3.77966,3.13583e-14,-1.19271e-15,-40.7708,-19.1706,-66.5258,36.7072,13.187,-27.0628,8.73245,7.12502,-0.480733,-21.2468,3.13583e-14,-1.19271e-15,0.889177,-26.9442,76.5728,117.77,-1.84198,-25.8413,40.0158,7.12502,0.699028,69.9944,-10.1206,3.40079,9.80725,23.8809,-15.1129,-10.4672,-0.156061,-1.29064,1.87508,-24.4212,14.032,-10.402,6.35098,-12.2233
0.808328,17.9448,-0.561367,1.41176,-30.8921,2.02083,-0.218159,-1.09884,-3.88364,0.839462,-1.45262,1.56198,1.12266,-0.768533,3.76737,-14.1772,1.36686,-10.5816,25.4083,3.30442,4.54431,10.1928,0.990137,3.81659,4.36084e-14,-2.50469e-14,-40.6427,-19.3112,-66.4365,36.5347,13.367,-27.1979,8.30995,7.12502,-0.611264,-21.6689,4.36084e-14,-2.50469e-14,0.987652,-26.8471,76.5344,117.686,-1.94883,-25.9573,39.8311,7.12502,0.586966,69.8101,-10.0858,3.43718,9.78665,23.8786,-15.1538,-10.4191,0.228862,-1.21066,1.92008,-24.4381,13.9865,-10.4367,6.36256,-12.2335
0.808687,17.9439,-0.55805,1.39695,-30.9011,1.98604,-0.296463,-1.11747,-3.77337,0.875607,-1.47513,1.54293,1.20242,-0.781101,3.68299,-14.153,1.34968,-10.6979,25.3367,3.26687,4.69506,10.159,0.982637,3.88273,-1.13879e-13,2.38542e-15,-40.5323,-19.3333,-66.4473,36.4764,13.3043,-27.1287,8.32886,7.12502,-0.544353,-21.6502,-1.13879e-13,2.38542e-15,1.19149,-26.7749,76.4176,117.583,-1.80115,-26.0748,39.4912,7.12502,0.473502,69.4705,-10.0332,3.40687,9.81395,23.8646,-15.1695,-10.3468,0.642068,-1.14704,1.99525,-24.4031,13.9676,-10.4454,6.30911,-11.9152
0.810104,17.9439,-0.556527,1.35562,-30.9246,1.99643,-0.30562,-1.19711,-3.84053,0.866607,-1.58145,1.6134,1.21215,-0.835465,3.79177,-14.1108,1.3987,-10.8005,25.3226,3.3562,4.69339,10.1366,1.01393,3.90793,2.56432e-14,-9.93923e-15,-40.3762,-19.0627,-66.4862,36.4873,13.1022,-27.0722,8.55979,7.12502,-0.48981,-21.4194,2.56432e-14,-9.93923e-15,1.23439,-26.5171,76.4061,117.508,-1.75847,-26.2311,39.1652,7.12502,0.32256,69.1447,-9.98704,3.35347,9.79517,23.8404,-15.071,-10.3082,0.443028,-1.11346,2.08849,-24.4133,13.9877,-10.4378,6.25663,-11.7492
0.813462,17.9438,-0.558392,1.34072,-30.9414,1.93383,-0.158741,-1.29932,-3.97407,0.732954,-1.725,1.79131,1.01568,-0.902645,4.05414,-13.9122,1.49538,-10.7986,25.3783,3.52504,4.4617,10.1115,1.06035,3.84092,-3.04638e-14,2.18663e-14,-40.383,-18.5052,-66.4321,36.5456,12.8945,-27.1937,8.60544,7.12502,-0.607171,-21.3734,-3.04638e-14,2.18663e-14,0.993904,-26.2201,76.6445,117.421,-1.94957,-26.416,38.9056,7.12502,0.143979,68.8853,-9.95317,3.37867,9.85332,23.8321,-15.0034,-10.3397,0.593686,-1.09875,2.06578,-24.357,14.0222,-10.4523,6.29162,-11.8618
0.81556,17.9426,-0.559147,1.32095,-30.9981,1.88601,-0.0271566,-1.32987,-4.01508,0.53532,-1.77234,1.88853,0.747728,-0.916981,4.18355,-13.4992,1.56599,-10.7818,25.4245,3.59867,4.32835,10.047,1.0757,3.79025,-3.60546e-14,1.59028e-15,-40.6443,-18.2842,-66.1909,36.5475,13.0687,-27.2153,8.26307,7.12502,-0.628069,-21.7158,-3.60546e-14,1.59028e-15,0.719368,-26.1438,76.861,117.323,-2.21,-26.497,38.9008,7.12502,0.0657234,68.8805,-9.9329,3.50796,9.9037,23.8329,-15.0326,-10.3915,0.819929,-1.06527,2.04168,-24.3204,14.0424,-10.4536,6.40033,-12.0824
0.816462,17.9409,-0.559191,1.30063,-31.0387,1.89719,-0.0181779,-1.35957,-4.03019,0.449824,-1.81281,1.90082,0.659785,-0.933578,4.20584,-13.4403,1.60078,-10.6635,25.5549,3.63264,4.24199,10.0843,1.08607,3.74639,-8.67695e-14,3.18055e-15,-40.6844,-18.1988,-66.1559,36.561,13.1391,-26.9119,8.71824,7.12502,-0.33502,-21.2612,-8.67695e-14,3.18055e-15,0.773741,-26.0639,76.7913,117.24,-2.38267,-26.3863,38.9416,7.12502,0.172608,68.9213,-9.94097,3.56042,9.88984,23.8504,-15.0287,-10.401,0.411754,-1.04552,2.06233,-24.3427,14.0408,-10.4346,6.46926,-12.0452
0.818503,17.9422,-0.55972,1.31236,-31.0298,1.93262,-0.0984727,-1.41019,-4.0716,0.465391,-1.87727,1.90439,0.729002,-0.968063,4.22974,-13.7129,1.59984,-10.5303,25.7342,3.65559,4.16132,10.2049,1.09274,3.71052,-7.53891e-14,7.95139e-16,-40.4537,-18.1152,-66.3203,36.6085,12.9798,-26.4601,9.91993,7.12502,0.101374,-20.0598,-7.53891e-14,7.95139e-16,1.13365,-25.9406,76.5555,117.139,-2.37348,-26.4504,38.9131,7.12502,0.110694,68.8928,-9.99326,3.48414,9.84664,23.8748,-14.992,-10.3449,0.0415185,-1.06984,2.01617,-24.3859,14.0105,-10.4001,6.49658,-11.9285
0.820197,17.9422,-0.560401,1.27207,-31.0399,1.99523,-0.151623,-1.41902,-4.12062,0.507087,-1.88631,1.86989,0.803118,-0.975311,4.21945,-13.8346,1.5779,-10.4619,25.7161,3.61638,4.18794,10.2251,1.08578,3.70652,-1.53064e-14,-3.97569e-15,-40.2557,-18.2077,-66.4367,36.6463,12.8769,-26.3833,10.3113,7.12502,0.175569,-19.6684,-1.53064e-14,-3.97569e-15,1.5949,-25.921,76.2547,117.014,-2.42262,-26.7784,39.0129,7.12502,-0.206091,68.9926,-10.0139,3.42364,9.78054,23.9078,-14.9611,-10.273,-0.133382,-1.03401,1.99149,-24.452,13.9444,-10.3697,6.52031,-11.8466
0.821531,17.9411,-0.556447,1.21752,-31.0768,2.04792,-0.226213,-1.41234,-4.13851,0.543082,-1.87404,1.84495,0.880478,-0.971723,4.20133,-13.8665,1.57168,-10.4664,25.6617,3.58621,4.28872,10.2102,1.0862,3.73886,8.94531e-15,-1.51076e-14,-40.1166,-18.4091,-66.3776,36.6127,13.0117,-26.7116,9.61458,7.12502,-0.141547,-20.3651,8.94531e-15,-1.51076e-14,2.05361,-25.9384,76.0018,116.853,-2.74688,-27.0869,39.3648,7.12502,-0.503994,69.344,-9.98734,3.41958,9.71847,23.9269,-15.0097,-10.2088,0.14485,-0.958721,1.98916,-24.5179,13.8848,-10.3587,6.55863,-11.6477
0.822487,17.9417,-0.554201,1.19801,-31.1142,2.07363,-0.262995,-1.41589,-4.14944,0.517235,-1.87763,1.86,0.875778,-0.97303,4.22247,-13.8341,1.59897,-10.546,25.638,3.61261,4.3942,10.1881,1.10437,3.79132,2.05494e-14,-1.11319e-14,-40.0312,-18.4514,-66.3001,36.6008,13.1948,-26.9299,9.2439,7.12502,-0.352402,-20.7356,2.05494e-14,-1.11319e-14,2.41053,-25.8964,75.8038,116.698,-3.00776,-27.2606,39.4842,7.12502,-0.671812,69.4629,-9.98845,3.43223,9.6834,23.9382,-15.0462,-10.1804,0.270979,-0.928635,1.99132,-24.5551,13.8618,-10.3448,6.60756,-11.7625
0.823634,17.9409,-0.554516,1.17701,-31.1401,2.08554,-0.21621,-1.43155,-4.173,0.440705,-1.90102,1.8981,0.77533,-0.981079,4.2774,-13.7051,1.61812,-10.5802,25.5748,3.63782,4.36826,10.1384,1.1117,3.78525,1.04362e-14,0,-39.9798,-18.323,-66.2968,36.6761,13.1602,-26.4698,10.0747,7.12502,0.092029,-19.905,1.04362e-14,0,2.64265,-25.7894,75.643,116.579,-2.98363,-27.5845,39.189,7.12502,-0.984644,69.1665,-9.99357,3.40723,9.66532,23.9478,-14.9584,-10.1507,-0.00548886,-0.909676,2.01423,-24.5699,13.8376,-10.3149,6.6219,-11.6723
0.82459,17.9403,-0.555222,1.14214,-31.1275,2.10189,-0.147498,-1.45072,-4.22321,0.374188,-1.92978,1.94096,0.67458,-0.992113,4.3528,-13.6914,1.62877,-10.5515,25.5905,3.662,4.29925,10.1423,1.11654,3.75871,1.14227e-13,5.56597e-15,-39.9674,-18.162,-66.3008,36.8262,13.0362,-25.9069,10.7579,7.12502,0.635711,-19.2209,1.14227e-13,5.56597e-15,2.95948,-25.6731,75.4981,116.435,-2.90358,-27.7769,38.9165,7.12502,-1.17044,68.8931,-9.9692,3.37999,9.65036,23.9456,-14.9032,-10.1261,0.154905,-0.891675,2.00837,-24.5882,13.8379,-10.2779,6.63345,-11.487
0.825448,17.9395,-0.555683,1.09599,-31.0869,2.14384,-0.123012,-1.47133,-4.2752,0.353916,-1.95812,1.93646,0.644647,-1.00536,4.37816,-13.785,1.65332,-10.5326,25.6451,3.67634,4.40548,10.1752,1.13587,3.79934,2.23136e-14,1.11319e-14,-39.9472,-18.0798,-66.3688,36.986,13.0685,-25.7702,10.8487,7.12502,0.767694,-19.1297,2.23136e-14,1.11319e-14,3.43256,-25.5338,75.2614,116.251,-2.78972,-27.8052,38.6012,7.12502,-1.19779,68.5775,-9.92841,3.37112,9.6107,23.9403,-14.9225,-10.1434,0.72458,-0.877009,1.97968,-24.6243,13.8616,-10.3305,6.5962,-11.3465
0.826523,17.94,-0.55778,1.09846,-31.0778,2.11597,-0.124764,-1.50392,-4.25384,0.361385,-2.00154,1.9308,0.657046,-1.02746,4.3594,-13.9461,1.64931,-10.5592,25.6719,3.65668,4.56295,10.2116,1.14276,3.86288,-4.008e-14,-2.38542e-15,-39.799,-18.0286,-66.5132,37.0503,13.2145,-25.8625,10.898,7.12502,0.678545,-19.0807,-4.008e-14,-2.38542e-15,3.92533,-25.3345,74.9197,116.073,-2.60532,-27.8117,38.2719,7.12502,-1.20409,68.2483,-9.91393,3.42277,9.64232,23.9309,-14.9457,-10.2174,1.01627,-0.889566,1.98106,-24.5892,13.8922,-10.3817,6.57012,-11.4373
0.827248,17.9397,-0.558388,1.11333,-31.1065,2.07186,-0.143925,-1.51573,-4.2055,0.353383,-2.01686,1.93529,0.659655,-1.03482,4.33607,-14.1591,1.63017,-10.4866,25.7867,3.64046,4.55672,10.2975,1.13747,3.85606,-4.68883e-14,-3.97569e-15,-39.6661,-17.9369,-66.6416,37.1324,13.2036,-26.0388,10.8819,7.12502,0.50823,-19.0972,-4.68883e-14,-3.97569e-15,4.34482,-25.2181,74.6375,115.91,-2.6495,-27.9513,38.1074,7.12502,-1.33883,68.0829,-9.92384,3.42334,9.68225,23.9414,-14.939,-10.1799,0.720247,-0.87874,2.00598,-24.5512,13.8899,-10.3517,6.58147,-11.653
0.827374,17.9396,-0.557535,1.10624,-31.1101,2.06181,-0.144104,-1.52902,-4.21726,0.315509,-2.03511,1.97356,0.624567,-1.04255,4.38284,-14.3134,1.62383,-10.4252,25.8932,3.65808,4.47348,10.3689,1.13743,3.82555,-7.85696e-14,-1.59028e-15,-39.5785,-17.6568,-66.7372,37.3162,13.0631,-26.1277,10.663,7.12502,0.422399,-19.3163,-7.85696e-14,-1.59028e-15,4.77321,-25.0459,74.4125,115.706,-2.75735,-28.0281,37.9058,7.12502,-1.41304,67.8809,-9.91425,3.36711,9.68756,23.9508,-14.9309,-10.1235,0.212332,-0.865864,2.02398,-24.5522,13.8993,-10.362,6.60382,-11.8416
0.828079,17.9375,-0.556728,1.03466,-31.1079,2.12474,-0.133012,-1.54942,-4.29266,0.302113,-2.06276,1.99604,0.61111,-1.05622,4.449,-14.3915,1.63457,-10.3886,25.8639,3.6977,4.38622,10.3737,1.15022,3.79361,4.72114e-16,-7.95139e-15,-39.4276,-17.4427,-66.8246,37.4318,13.1051,-26.0118,10.5503,7.12502,0.534317,-19.4288,4.72114e-16,-7.95139e-15,5.29973,-24.8188,74.1344,115.459,-2.89219,-28.1691,37.8446,7.12502,-1.54926,67.8187,-9.87595,3.30829,9.62151,23.9634,-14.9278,-10.0733,0.518624,-0.822558,2.03077,-24.6165,13.9166,-10.4052,6.60141,-11.8168
0.828564,17.9367,-0.557833,1.01847,-31.1358,2.1304,-0.123943,-1.55198,-4.32397,0.265063,-2.06701,2.03963,0.571125,-1.05688,4.51285,-14.3713,1.63881,-10.4568,25.7708,3.7272,4.35581,10.3334,1.15754,3.79376,1.5207e-14,-7.15625e-15,-39.2788,-17.2337,-66.9067,37.5208,13.0975,-25.9392,10.4003,7.12502,0.604478,-19.5786,1.5207e-14,-7.15625e-15,5.76259,-24.7031,73.8915,115.2,-3.19496,-28.5558,37.9968,7.12502,-1.92274,67.9679,-9.88119,3.36743,9.6179,23.9778,-14.9868,-10.0946,0.72293,-0.804094,1.94798,-24.6288,13.9148,-10.4041,6.696,-11.3217
0.828903,17.9371,-0.560079,1.02441,-31.1475,2.07716,-0.136233,-1.55539,-4.2885,0.261632,-2.07141,2.06121,0.574503,-1.05907,4.51483,-14.3884,1.66167,-10.3949,25.6638,3.75895,4.30756,10.2974,1.17721,3.76654,-2.88983e-14,-6.36111e-15,-39.1412,-17.0929,-67.0489,37.6562,13.1531,-26.0361,10.189,7.12502,0.510886,-19.7901,-2.88983e-14,-6.36111e-15,6.27734,-24.5962,73.5566,114.976,-3.42696,-28.8623,38.0038,7.12502,-2.21873,67.972,-9.87948,3.4427,9.67814,23.9979,-14.9856,-10.1623,0.227201,-0.778513,1.90099,-24.5746,13.8794,-10.3118,6.76289,-11.1057
0.828064,17.9366,-0.558826,0.990355,-31.1476,2.08021,-0.206964,-1.55754,-4.27281,0.296179,-2.07127,2.04118,0.64841,-1.06144,4.48242,-14.5726,1.67403,-10.2971,25.6927,3.76909,4.3308,10.3432,1.19383,3.76544,9.85723e-14,-1.82882e-14,-38.9409,-17.0041,-67.2426,37.6856,13.2485,-26.1048,10.2924,7.12502,0.444504,-19.6869,9.85723e-14,-1.82882e-14,6.87214,-24.5089,73.1073,114.824,-3.42462,-29.0651,37.716,7.12502,-2.41455,67.6821,-9.83926,3.39578,9.67549,23.996,-14.8965,-10.1102,-0.285946,-0.730644,1.84491,-24.581,13.868,-10.2943,6.81506,-11.1504
0.827274,17.9358,-0.555822,0.935193,-31.1765,2.13195,-0.280409,-1.56799,-4.30585,0.301635,-2.08215,2.03361,0.69735,-1.06835,4.49079,-14.7053,1.69829,-10.296,25.7139,3.80221,4.39897,10.3713,1.21725,3.79776,8.84592e-14,6.36111e-15,-38.7697,-16.8948,-67.3706,37.7304,13.264,-26.0418,10.5796,7.12502,0.505399,-19.3996,8.84592e-14,6.36111e-15,7.41149,-24.3294,72.7455,114.597,-3.4467,-29.2911,37.3492,7.12502,-2.63288,67.3127,-9.79523,3.32903,9.61755,23.9771,-14.8974,-10.0156,0.038152,-0.693109,1.83164,-24.6399,13.8981,-10.356,6.85467,-11.3069
0.826665,17.9354,-0.55445,0.94488,-31.1951,2.08581,-0.309921,-1.57048,-4.28028,0.277746,-2.08495,2.06783,0.689991,-1.06912,4.51137,-14.9123,1.68962,-10.34,25.8224,3.80444,4.48889,10.4472,1.22122,3.84696,2.17669e-14,-1.59028e-15,-38.6439,-16.8911,-67.3982,37.7827,13.4536,-25.9929,10.7504,7.12502,0.552612,-19.2286,2.17669e-14,-1.59028e-15,8.00137,-24.1907,72.3952,114.209,-3.70354,-29.5789,36.8894,7.12502,-2.91075,66.8493,-9.767,3.33442,9.66016,23.9598,-14.9436,-10.0043,0.459396,-0.676329,1.85846,-24.6012,13.9329,-10.4235,6.84835,-11.4091
0.826816,17.9356,-0.556135,0.993245,-31.1431,1.98389,-0.307239,-1.58109,-4.20948,0.311677,-2.09975,2.10123,0.723724,-1.07796,4.50522,-15.3456,1.64325,-10.3168,25.942,3.77495,4.54109,10.577,1.21311,3.87406,4.83544e-14,0,-38.3919,-16.9059,-67.5157,37.8333,13.6342,-25.9898,10.8062,7.12502,0.555637,-19.1728,4.83544e-14,0,8.8114,-24.1118,71.8876,113.845,-4.17829,-29.7019,36.8129,7.12502,-3.02956,66.7711,-9.74212,3.33936,9.76547,23.9421,-14.9308,-10.0495,0.29129,-0.695524,1.85121,-24.4981,13.9701,-10.425,6.82449,-11.5739
0.826967,17.9355,-0.558502,1.00963,-31.086,1.93803,-0.324083,-1.59833,-4.18518,0.367304,-2.12225,2.12228,0.792826,-1.09214,4.51145,-15.6691,1.61541,-10.2529,25.8932,3.77538,4.48613,10.6252,1.21634,3.85023,2.61402e-14,-7.95139e-15,-38.0942,-16.8726,-67.6895,37.8916,13.8286,-26.0474,10.7886,7.12502,0.499975,-19.1906,2.61402e-14,-7.95139e-15,9.64053,-23.9685,71.3738,113.535,-4.42342,-29.7665,36.7784,7.12502,-3.09194,66.7357,-9.71558,3.35866,9.81901,23.9201,-14.8904,-10.1312,-0.193655,-0.724029,1.77599,-24.4476,14.0251,-10.437,6.82111,-11.6577
0.826136,17.9358,-0.558791,0.986176,-31.1324,1.9744,-0.368553,-1.60872,-4.23694,0.362667,-2.1343,2.13429,0.816747,-1.09903,4.55174,-15.7374,1.63907,-10.135,25.77,3.83124,4.31777,10.5962,1.23813,3.77377,-5.75482e-14,2.06736e-14,-37.8671,-16.7577,-67.821,37.8737,14.0722,-26.051,10.9569,7.12502,0.496474,-19.0223,-5.75482e-14,2.06736e-14,10.2513,-23.6807,70.9344,113.26,-4.39108,-30.0156,36.2698,7.12502,-3.3325,66.2235,-9.71845,3.39198,9.78339,23.9162,-14.9495,-10.0761,0.350083,-0.73599,1.78754,-24.4852,14.0563,-10.4531,6.8713,-11.5484
0.825253,17.9359,-0.558862,0.943435,-31.1627,2.00275,-0.378324,-1.61813,-4.29962,0.372481,-2.14646,2.17464,0.83765,-1.10646,4.6285,-15.8956,1.64786,-10.1422,25.7064,3.88235,4.25867,10.6014,1.25689,3.76171,2.53699e-14,-1.90833e-14,-37.5973,-16.6453,-67.8985,37.8303,14.2657,-26.1298,11.239,7.12502,0.420346,-18.7403,2.53699e-14,-1.90833e-14,10.9215,-23.3971,70.5244,113.012,-4.3381,-30.1871,36.2259,7.12502,-3.49812,66.1769,-9.69277,3.37509,9.75638,23.9217,-14.9982,-10.0043,0.715268,-0.70586,1.85016,-24.5123,14.0588,-10.4439,6.87773,-11.6307
0.824612,17.9357,-0.562359,0.883412,-31.1501,2.05075,-0.31401,-1.60752,-4.37762,0.338629,-2.13476,2.20923,0.769666,-1.09873,4.71147,-15.948,1.64695,-10.241,25.6321,3.90735,4.28992,10.5795,1.26634,3.7913,-4.35338e-14,-3.18055e-15,-37.4681,-16.3283,-67.9824,37.8957,14.1797,-26.1588,11.4094,7.12502,0.392353,-18.57,-4.35338e-14,-3.18055e-15,11.5552,-23.2704,70.1966,112.821,-4.35653,-30.2848,36.7052,7.12502,-3.59251,66.6546,-9.6714,3.33685,9.72013,23.9242,-14.9362,-10.0134,0.376464,-0.680459,1.9038,-24.5367,14.0671,-10.4358,6.8106,-11.3334
0.822737,17.9369,-0.565965,0.873535,-31.1542,2.04887,-0.286894,-1.58983,-4.42456,0.283074,-2.11263,2.25228,0.698097,-1.08499,4.7851,-15.95,1.65626,-10.2952,25.5486,3.9405,4.27487,10.5461,1.27835,3.79607,-5.32246e-14,1.19271e-14,-37.4333,-15.9867,-68.0454,38.0007,14.0898,-26.1267,11.9658,7.12502,0.423357,-18.0135,-5.32246e-14,1.19271e-14,12.1624,-23.1551,69.843,112.595,-4.35252,-30.4902,37.0058,7.12502,-3.79084,66.9518,-9.66805,3.41291,9.74102,23.9237,-14.8604,-10.1286,-0.117351,-0.702533,2.00418,-24.5135,14.1072,-10.4449,6.69905,-11.3603
0.821923,17.9382,-0.56915,0.892394,-31.1631,2.01735,-0.30096,-1.58837,-4.44421,0.270614,-2.11051,2.29582,0.69532,-1.08391,4.84142,-16.1612,1.66506,-10.2095,25.5555,3.98397,4.17476,10.5912,1.29452,3.75674,-3.58309e-14,1.35174e-14,-37.2836,-15.8579,-68.1006,38.0707,14.2417,-26.097,12.3874,7.12502,0.4521,-17.5918,-3.58309e-14,1.35174e-14,12.8293,-22.9439,69.3785,112.456,-4.19906,-30.5785,37.0148,7.12502,-3.8761,66.9593,-9.67929,3.43186,9.78161,23.9206,-14.8465,-10.1437,-0.12579,-0.747673,2.07704,-24.4651,14.1644,-10.4864,6.62044,-11.5712
0.821435,17.9378,-0.573216,0.90518,-31.1088,1.96978,-0.267475,-1.59432,-4.42322,0.245248,-2.12006,2.30464,0.651076,-1.0869,4.84,-16.4193,1.62589,-10.0974,25.6026,3.94399,4.12515,10.6659,1.27955,3.72354,-7.36e-14,1.51076e-14,-37.1569,-15.828,-68.1871,38.1351,14.3546,-25.9781,12.5661,7.12502,0.566875,-17.4129,-7.36e-14,1.51076e-14,13.4305,-22.8883,68.9687,112.194,-4.4984,-31.0917,37.3548,7.12502,-4.3717,67.2896,-9.66591,3.40557,9.84021,23.9238,-14.8662,-10.1653,0.283502,-0.777138,2.15033,-24.4113,14.2152,-10.4339,6.58034,-11.9542
0.822573,17.9383,-0.574362,0.933038,-31.0807,1.92479,-0.273132,-1.49587,-4.32038,0.175785,-1.98823,2.19921,0.559861,-1.01594,4.67509,-16.3479,1.53104,-9.86242,25.5061,3.71459,4.19726,10.6361,1.21071,3.6768,-8.17999e-14,-1.82882e-14,-37.2974,-16.1243,-68.2176,38.1863,14.4697,-25.9587,12.8884,7.12502,0.585641,-17.0905,-8.17999e-14,-1.82882e-14,14.0648,-23.198,68.4826,111.788,-5.13065,-31.8689,37.8718,7.12502,-5.12212,67.7899,-9.67687,3.38632,9.88013,23.9329,-14.9564,-10.1313,1.09614,-0.809377,2.1984,-24.3733,14.2583,-10.4253,6.57231,-12.2643
0.822176,17.9369,-0.573815,0.887678,-31.0835,1.98446,-0.32774,-1.23159,-4.2086,0.0971304,-1.63194,1.88782,0.456696,-0.831462,4.29308,-15.8735,1.36894,-9.24435,25.1934,3.2438,4.24438,10.4731,1.07174,3.51027,-4.48011e-14,6.36111e-15,-37.791,-16.8966,-68.2543,38.2735,14.5936,-26.0947,13.2593,7.12502,0.454296,-16.7199,-4.48011e-14,6.36111e-15,14.9807,-23.864,67.7541,111.561,-4.88102,-32.1405,37.3664,7.12502,-5.38437,67.278,-9.6671,3.38034,9.82078,23.9509,-15.0318,-10.0806,1.49358,-0.796469,2.10384,-24.4308,14.2778,-10.4592,6.63992,-11.995
0.821602,17.9365,-0.573641,0.881276,-31.0999,1.99774,-0.374651,-0.967719,-4.04012,0.0124463,-1.2777,1.59081,0.347799,-0.648475,3.89434,-15.4835,1.19544,-8.56618,24.9299,2.79009,4.17598,10.3457,0.927674,3.29915,-3.25634e-14,4.37326e-15,-38.2882,-17.569,-68.2987,38.4334,14.6558,-26.105,13.5899,7.12502,0.444364,-16.3894,-3.25634e-14,4.37326e-15,15.9526,-24.441,67.1198,111.294,-4.42252,-32.1255,36.3078,7.12502,-5.36991,66.2198,-9.67501,3.38106,9.80658,23.965,-15.0713,-10.0498,1.69169,-0.791608,2.06515,-24.4391,14.2774,-10.4949,6.66397,-11.5006
0.821092,17.9375,-0.573472,0.88092,-31.0979,2.00413,-0.397406,-1.04201,-4.06698,0.0116424,-1.37627,1.66666,0.371886,-0.698632,3.9865,-15.6543,1.2319,-8.72563,24.8296,2.8999,4.19189,10.3319,0.969454,3.34576,5.06404e-14,-5.1684e-15,-37.9808,-17.2326,-68.4158,38.4287,14.8004,-26.0827,13.6846,7.12502,0.465888,-16.2946,5.06404e-14,-5.1684e-15,16.5155,-23.9593,66.8205,111.033,-4.32521,-32.1793,35.7092,7.12502,-5.42183,65.6199,-9.68697,3.36641,9.8059,23.986,-15.0041,-10.077,0.829279,-0.801166,2.09152,-24.445,14.2691,-10.4328,6.65254,-11.6424
0.821041,17.9378,-0.574169,0.886448,-31.0781,1.9937,-0.374419,-1.62949,-4.33105,0.143701,-2.16388,2.30152,0.608003,-1.10507,4.78226,-16.7357,1.61035,-10.2139,24.9825,3.9308,4.3639,10.489,1.32134,3.81403,-5.96354e-16,-1.66979e-14,-36.4671,-15.2451,-68.6775,38.2218,14.7535,-26.0831,13.8066,7.12502,0.465478,-16.1727,-5.96354e-16,-1.66979e-14,16.4376,-21.8124,66.9492,110.942,-4.25365,-32.2796,35.4973,7.12502,-5.51867,65.4055,-9.69784,3.32739,9.82109,23.9986,-14.8991,-10.1307,-0.063181,-0.82181,2.10969,-24.4287,14.2829,-10.4383,6.62783,-11.6863
0.819605,17.937,-0.576158,0.850512,-31.0742,2.00586,-0.34805,-1.5893,-4.33374,0.141748,-2.11098,2.27871,0.584315,-1.07779,4.7618,-17.0025,1.58689,-10.1183,25.0113,3.90826,4.35093,10.5552,1.31833,3.7987,5.77718e-14,3.18055e-15,-36.3509,-15.2189,-68.8292,38.3794,14.6034,-26.0553,13.3357,7.12502,0.492344,-16.6435,5.77718e-14,3.18055e-15,17.109,-21.6714,66.5394,110.71,-4.09267,-32.4523,35.224,7.12502,-5.68543,65.1278,-9.67865,3.36926,9.8177,24.0175,-14.8822,-10.166,0.0299632,-0.791521,2.1058,-24.4304,14.2786,-10.4453,6.60975,-11.6897
0.81774,17.9366,-0.576465,0.819308,-31.0841,2.03807,-0.365394,-1.59635,-4.35707,0.121007,-2.11977,2.28471,0.574788,-1.0816,4.78097,-17.1381,1.60362,-10.0971,24.9561,3.95564,4.30445,10.5591,1.33916,3.7859,3.36443e-14,-4.77083e-15,-36.2289,-14.725,-69.1052,38.6666,14.3918,-26.3459,12.4111,7.12502,0.211696,-17.5686,3.36443e-14,-4.77083e-15,17.5762,-21.3711,66.2009,110.489,-4.15559,-32.5515,34.9207,7.12502,-5.78119,64.8218,-9.67437,3.37257,9.78781,24.0452,-14.9618,-10.1046,0.841163,-0.761122,2.131,-24.4545,14.2627,-10.4529,6.5965,-11.6643
0.817456,17.9363,-0.575704,0.783214,-31.0785,2.10117,-0.395172,-1.64363,-4.39243,0.119569,-2.18186,2.31297,0.599655,-1.11361,4.82848,-17.3045,1.63735,-10.1471,24.806,4.05107,4.25852,10.529,1.37953,3.7886,3.02898e-14,-1.59028e-15,-36.049,-14.073,-69.3641,38.9074,14.2029,-26.5931,12.0491,7.12502,-0.0270441,-17.9306,3.02898e-14,-1.59028e-15,18.0711,-20.9822,65.9148,110.261,-4.27884,-32.5859,34.8364,7.12502,-5.8144,64.7366,-9.68434,3.31351,9.72436,24.0841,-15.0224,-10.0344,1.04909,-0.740079,2.08334,-24.5176,14.236,-10.4402,6.64483,-11.4712
0.816539,17.936,-0.575792,0.749037,-31.102,2.12789,-0.394873,-1.67939,-4.40195,0.125629,-2.22982,2.34144,0.612849,-1.13832,4.86256,-17.5159,1.65831,-10.1763,24.6725,4.12272,4.2324,10.5152,1.41286,3.79384,5.3647e-14,-1.03368e-14,-35.8503,-13.668,-69.5416,39.0149,14.1347,-26.5046,11.9144,7.12502,0.0584198,-18.0654,5.3647e-14,-1.03368e-14,18.5965,-20.4896,65.6678,109.973,-4.17318,-32.6228,33.9047,7.12502,-5.85007,63.804,-9.68152,3.27375,9.70331,24.116,-15.0318,-9.98456,0.643261,-0.710102,2.12855,-24.533,14.2141,-10.4559,6.59088,-11.5474
0.814813,17.9348,-0.577755,0.730618,-31.1081,2.12851,-0.403243,-1.73285,-4.43387,0.156204,-2.30119,2.40341,0.661302,-1.17655,4.94306,-17.8384,1.6921,-10.2943,24.6443,4.23116,4.28999,10.5536,1.46096,3.85546,7.28546e-14,-1.27222e-14,-35.5305,-13.4114,-69.6615,39.0191,14.1404,-26.3909,11.6945,7.12502,0.168243,-18.2852,7.28546e-14,-1.27222e-14,19.1236,-19.84,65.4326,109.717,-3.80788,-32.5802,32.6557,7.12502,-5.80894,62.5561,-9.67516,3.2884,9.71268,24.1352,-15.0072,-9.9717,0.848838,-0.680381,2.17689,-24.519,14.2056,-10.4875,6.51483,-11.9022
0.813049,17.9349,-0.580028,0.696927,-31.0714,2.13465,-0.386695,-1.79022,-4.50715,0.189865,-2.37869,2.47973,0.702287,-1.21804,5.06262,-18.1769,1.72894,-10.3821,24.6187,4.35376,4.28832,10.5974,1.51072,3.89322,-6.90777e-15,-1.11319e-14,-35.285,-13.0378,-69.7674,39.1511,14.0509,-26.3305,11.7913,7.12502,0.226576,-18.1883,-6.90777e-15,-1.11319e-14,19.6469,-19.3377,65.1405,109.597,-3.52019,-32.6227,32.4567,7.12502,-5.84992,62.356,-9.6334,3.28202,9.71948,24.144,-15.0185,-9.98032,1.10304,-0.658331,2.26121,-24.5065,14.2207,-10.492,6.44209,-12.1672
0.812002,17.9351,-0.581125,0.672232,-31.0826,2.1005,-0.3659,-1.78318,-4.45719,0.209776,-2.37028,2.47749,0.707949,-1.21421,5.0324,-18.3789,1.73022,-10.3101,24.5198,4.36756,4.25798,10.6011,1.52496,3.87408,7.0991e-14,-9.54166e-15,-35.2085,-12.8051,-69.9225,39.3397,13.9639,-26.4226,11.8278,7.12502,0.137621,-18.1519,7.0991e-14,-9.54166e-15,20.1956,-19.0542,64.7788,109.457,-3.34536,-32.7409,32.0221,7.12502,-5.96409,61.9182,-9.58653,3.30917,9.76,24.1454,-15.0667,-9.98352,1.03737,-0.622988,2.34101,-24.4676,14.2378,-10.4913,6.42068,-12.4932
0.81104,17.9343,-0.581051,0.653469,-31.103,2.10437,-0.390494,-1.75879,-4.37381,0.22509,-2.33656,2.4149,0.727376,-1.19742,4.91936,-18.5458,1.72636,-10.2424,24.4341,4.34637,4.3176,10.6022,1.53364,3.88325,-1.57164e-13,-1.90833e-14,-35.0698,-12.9755,-70.0333,39.3123,14.1293,-26.537,11.8741,7.12502,0.0271103,-18.1056,-1.57164e-13,-1.90833e-14,20.7716,-18.8203,64.4066,109.259,-3.21576,-32.9536,31.4637,7.12502,-6.16938,61.3538,-9.57139,3.30924,9.76404,24.1361,-14.9852,-10.0107,0.237488,-0.613372,2.30045,-24.4843,14.2638,-10.4926,6.50879,-12.6418
0.811514,17.9343,-0.581055,0.640237,-31.1059,2.10897,-0.36724,-1.73811,-4.30632,0.202636,-2.30975,2.36366,0.683134,-1.18171,4.82942,-18.7669,1.73745,-10.1821,24.4786,4.34371,4.42244,10.6581,1.55029,3.9188,3.77691e-14,-9.54166e-15,-35.0194,-13.0296,-70.1227,39.3224,14.2169,-26.6158,11.8974,7.12502,-0.0489915,-18.0824,3.77691e-14,-9.54166e-15,21.3267,-18.5903,64.0721,109.048,-3.11437,-33.1481,31.3006,7.12502,-6.35715,61.1852,-9.57044,3.27216,9.75535,24.1356,-14.9,-9.97485,-0.0496665,-0.591116,2.1597,-24.4973,14.2535,-10.4528,6.61194,-12.3156
0.811681,17.9351,-0.583132,0.670197,-31.1299,2.08825,-0.288911,-1.70791,-4.29109,0.103947,-2.27278,2.37507,0.533114,-1.15708,4.83782,-18.8086,1.71479,-10.2187,24.4354,4.31325,4.47899,10.65,1.54234,3.94096,4.87271e-14,-2.38542e-15,-35.1111,-12.724,-70.17,39.4508,13.9825,-26.5917,11.9849,7.12502,-0.0256941,-17.9949,4.87271e-14,-2.38542e-15,21.761,-18.3294,63.8596,108.872,-2.98699,-33.1888,31.2074,7.12502,-6.39647,61.0908,-9.62562,3.29401,9.77696,24.1572,-14.8433,-9.9707,0.0414952,-0.597584,2.1074,-24.4748,14.1981,-10.378,6.66858,-11.9679
0.811095,17.9364,-0.583042,0.667099,-31.1848,2.11778,-0.237216,-1.68351,-4.32266,0.0339725,-2.24229,2.38321,0.430062,-1.13766,4.86773,-18.7763,1.69575,-10.1828,24.2249,4.29309,4.39461,10.572,1.53487,3.89311,2.83517e-14,1.59028e-14,-35.1124,-12.538,-70.1903,39.5492,13.9096,-26.4523,12.0733,7.12502,0.108918,-17.9064,2.83517e-14,1.59028e-14,22.1405,-18.0015,63.6787,108.74,-2.77277,-33.1283,31.0213,7.12502,-6.33804,60.9065,-9.6646,3.29903,9.74256,24.1709,-14.8311,-9.92445,-0.124078,-0.583786,2.03985,-24.5152,14.1595,-10.367,6.79201,-11.6561
0.809494,17.9362,-0.582081,0.606506,-31.2543,2.17092,-0.171917,-1.6689,-4.42042,0.00176854,-2.22519,2.40152,0.362756,-1.12686,4.94526,-18.8708,1.72166,-10.0279,24.0814,4.33187,4.24889,10.5424,1.55491,3.81728,-1.01927e-13,3.73715e-14,-35.0455,-12.3595,-70.2352,39.6036,13.9187,-26.3634,12.1007,7.12502,0.194787,-17.879,-1.01927e-13,3.73715e-14,22.5027,-17.6433,63.5324,108.603,-2.51787,-33.0117,30.4312,7.12502,-6.22548,60.3198,-9.63046,3.29655,9.68242,24.172,-14.8766,-9.80381,0.0803975,-0.530656,1.97425,-24.5803,14.1685,-10.3767,6.93672,-11.7082
0.808202,17.9361,-0.585023,0.625936,-31.2588,2.12255,-0.0982872,-1.694,-4.46192,-0.0282138,-2.26195,2.45653,0.298792,-1.14318,5.02867,-19.0498,1.78183,-9.91842,24.0077,4.42355,4.17697,10.5465,1.60154,3.78745,-3.3371e-14,-2.3059e-14,-34.9105,-12.0204,-70.3503,39.6323,13.8257,-26.3084,12.0675,7.12502,0.247844,-17.9121,-3.3371e-14,-2.3059e-14,22.8504,-17.3242,63.3405,108.448,-2.68168,-33.1785,30.3727,7.12502,-6.3865,60.2565,-9.63924,3.35956,9.73695,24.1868,-14.9436,-9.81993,0.446033,-0.539741,1.90858,-24.5281,14.1688,-10.3731,6.9881,-11.6095
0.807158,17.9371,-0.590656,0.671086,-31.2536,2.04103,-0.0301137,-1.69548,-4.45006,-0.0481384,-2.26691,2.50541,0.242151,-1.14385,5.07552,-19.257,1.78532,-9.83722,23.9539,4.45945,4.0603,10.5695,1.61319,3.74039,8.57756e-14,-2.38542e-15,-34.7879,-11.7751,-70.4255,39.6544,13.7895,-26.3559,12.1267,7.12502,0.202034,-17.8529,8.57756e-14,-2.38542e-15,23.2598,-17.1591,63.0549,108.305,-3.18506,-33.5969,31.2812,7.12502,-6.79049,61.1523,-9.67387,3.42651,9.83628,24.2034,-14.9898,-9.91335,0.575223,-0.583438,1.83562,-24.4392,14.1907,-10.4022,7.03099,-11.473
0.806121,17.9363,-0.594981,0.62097,-31.2346,2.10025,0.0358333,-1.70135,-4.53675,-0.0574402,-2.27738,2.52081,0.200861,-1.14789,5.1431,-19.4041,1.76078,-9.77,23.838,4.46425,3.8979,10.5623,1.60584,3.67118,5.2181e-16,2.3059e-14,-34.678,-11.7172,-70.4474,39.665,13.9788,-26.4263,12.123,7.12502,0.133965,-17.8567,5.2181e-16,2.3059e-14,23.6561,-16.9463,62.7821,108.262,-3.36103,-33.7774,31.8683,7.12502,-6.96465,61.7337,-9.66361,3.46932,9.79508,24.2061,-15.0701,-9.9372,0.828185,-0.599821,1.79564,-24.4859,14.241,-10.4188,7.03393,-11.4872
0.804074,17.9352,-0.595436,0.590262,-31.1964,2.16438,-0.00837443,-1.72624,-4.60004,-0.0475223,-2.30895,2.53314,0.242795,-1.16526,5.18988,-19.4654,1.7521,-9.84089,23.5975,4.47208,3.92641,10.4828,1.6173,3.6873,-1.22998e-14,6.36111e-15,-34.544,-11.6874,-70.4823,39.6545,14.1732,-26.5217,11.9926,7.12502,0.0418641,-17.9871,-1.22998e-14,6.36111e-15,24.1268,-16.6915,62.4304,108.261,-3.23675,-33.7533,31.9211,7.12502,-6.94142,61.7873,-9.66766,3.41501,9.73777,24.2094,-15.0491,-9.91416,0.876302,-0.617495,1.80175,-24.5373,14.2829,-10.4037,7.00905,-11.7253
0.802577,17.9357,-0.595416,0.592837,-31.1701,2.12253,-0.0491689,-1.71752,-4.52635,-0.0238356,-2.29564,2.53016,0.285409,-1.16023,5.1432,-19.4859,1.74127,-9.93872,23.3411,4.45475,4.05239,10.3876,1.62804,3.73791,-2.80783e-15,-1.03368e-14,-34.4471,-11.6715,-70.5366,39.6381,14.2215,-26.6936,11.9938,7.12502,-0.124189,-17.9859,-2.80783e-15,-1.03368e-14,24.702,-16.5048,62.0903,108.159,-3.15333,-33.7792,31.7213,7.12502,-6.96638,61.5867,-9.65864,3.37736,9.78698,24.2275,-15.0017,-9.95297,0.541312,-0.593731,1.79115,-24.492,14.286,-10.4182,7.00624,-11.5476
0.801673,17.9352,-0.596785,0.581424,-31.1625,2.08531,-0.048306,-1.69375,-4.44974,-0.00903014,-2.26382,2.51263,0.292564,-1.14461,5.08153,-19.5821,1.71512,-9.98529,23.2086,4.41851,4.14789,10.356,1.62542,3.77303,7.50412e-15,1.11319e-14,-34.4413,-11.6458,-70.5867,39.68,14.2665,-26.7664,12.0364,7.12502,-0.1945,-17.9433,7.50412e-15,1.11319e-14,25.1977,-16.3062,61.8264,107.978,-3.07282,-33.9217,31.363,7.12502,-7.10395,61.2237,-9.62615,3.35712,9.83238,24.2459,-15.0155,-9.92778,0.516358,-0.561466,1.85779,-24.4414,14.2832,-10.4452,6.91418,-11.1573
0.800217,17.9342,-0.598777,0.55919,-31.1524,2.10819,-0.0200575,-1.67944,-4.46342,-0.0408081,-2.24586,2.51361,0.242362,-1.13352,5.0921,-19.6775,1.69495,-10.002,23.1273,4.39681,4.18573,10.3444,1.62254,3.7862,-1.02846e-13,-7.95139e-15,-34.5869,-11.4191,-70.6073,39.846,14.2548,-26.7237,12.0085,7.12502,-0.153273,-17.9712,-1.02846e-13,-7.95139e-15,25.4954,-16.1076,61.7178,107.875,-3.12212,-33.9741,30.9902,7.12502,-7.15454,60.8492,-9.62241,3.24398,9.81694,24.2678,-14.9784,-9.84881,0.458812,-0.542146,1.91254,-24.4489,14.2686,-10.4682,6.82856,-11.332
0.798718,17.9328,-0.600406,0.527893,-31.0969,2.16114,0.0179869,-1.6823,-4.50142,-0.0768607,-2.25123,2.51132,0.185896,-1.13384,5.1132,-19.7277,1.6881,-10.0115,22.9779,4.4,4.16807,10.2998,1.6275,3.77788,8.07811e-14,-2.22639e-14,-34.6561,-11.173,-70.6389,39.9294,14.2268,-26.7897,11.953,7.12502,-0.21698,-18.0267,8.07811e-14,-2.22639e-14,25.8015,-15.9156,61.5878,107.797,-3.18071,-34.0172,30.7622,7.12502,-7.19615,60.6199,-9.61425,3.16899,9.773,24.3041,-14.9813,-9.82371,0.486994,-0.522685,1.84023,-24.4948,14.2394,-10.4811,6.82371,-11.7952
0.797419,17.9322,-0.601494,0.475977,-31.0396,2.29825,0.0221299,-1.70587,-4.59654,-0.112297,-2.28287,2.47644,0.153204,-1.14789,5.13133,-19.6233,1.69743,-10.0321,22.6591,4.41349,4.13212,10.1646,1.64084,3.75609,1.65488e-14,-3.18055e-15,-34.6568,-11.0086,-70.6856,39.9721,14.2736,-26.7412,11.9304,7.12502,-0.170082,-18.0492,1.65488e-14,-3.18055e-15,26.1118,-15.6503,61.4481,107.671,-3.10039,-34.0192,30.2318,7.12502,-7.19812,60.0894,-9.63586,3.14592,9.63782,24.3499,-15.068,-9.77698,1.10393,-0.522416,1.88275,-24.6089,14.1879,-10.477,6.75133,-11.9978
0.795661,17.9326,-0.603538,0.476585,-31.0112,2.3431,0.0188728,-1.70871,-4.62767,-0.153467,-2.28674,2.47126,0.114081,-1.14775,5.1443,-19.5773,1.69632,-10.0296,22.4066,4.41607,4.08302,10.0667,1.64677,3.7285,1.0143e-13,7.95139e-16,-34.6773,-10.9692,-70.6649,40.0308,14.3413,-26.5852,11.8622,7.12502,-0.0194391,-18.1175,1.0143e-13,7.95139e-16,26.3915,-15.4485,61.3069,107.602,-3.07748,-34.0977,30.1384,7.12502,-7.27387,59.9933,-9.6735,3.09265,9.59569,24.3914,-15.063,-9.74938,1.21019,-0.525574,2.00072,-24.6321,14.1261,-10.4245,6.624,-11.835
0.794902,17.9333,-0.606264,0.46662,-30.9881,2.34055,0.080169,-1.69657,-4.60895,-0.178128,-2.27305,2.46971,0.0517892,-1.13853,5.13476,-19.6837,1.68242,-10.0577,22.253,4.39947,4.15284,10.0295,1.65226,3.75332,3.07371e-14,-2.06736e-14,-34.6561,-10.8478,-70.6707,40.056,14.2408,-26.5045,11.8916,7.12502,0.0584795,-18.0882,3.07371e-14,-2.06736e-14,26.7656,-15.2776,61.0968,107.508,-3.19707,-34.1837,30.4619,7.12502,-7.35693,60.3139,-9.66569,3.06699,9.60354,24.4117,-15.0922,-9.73772,0.935494,-0.502914,1.96919,-24.627,14.0904,-10.3781,6.63689,-11.7914
0.793737,17.9328,-0.609581,0.405702,-30.9641,2.37932,0.209607,-1.69842,-4.65747,-0.214772,-2.281,2.47427,-0.0555557,-1.13858,5.17215,-19.7521,1.69209,-10.0651,22.0888,4.41597,4.17797,9.98077,1.66954,3.76168,2.37051e-14,3.18055e-15,-34.6086,-10.7378,-70.6766,39.9645,14.2417,-26.6399,12.0531,7.12502,-0.0722929,-17.9267,2.37051e-14,3.18055e-15,27.0169,-15.0618,60.9351,107.422,-3.2229,-34.3074,30.6769,7.12502,-7.47631,60.5248,-9.62124,3.07397,9.57864,24.4005,-15.0297,-9.75418,0.422375,-0.480962,1.9099,-24.6508,14.1207,-10.3883,6.65583,-11.5605
0.793417,17.9325,-0.612744,0.40118,-30.9421,2.3609,0.126269,-1.7454,-4.53193,-0.11057,-2.33916,2.3734,0.0965634,-1.17417,4.99013,-19.9167,1.72692,-9.80282,21.8032,4.42436,4.07902,9.91666,1.69541,3.6794,-4.37823e-14,-1.03368e-14,-34.4124,-10.518,-71.0094,39.9902,14.0666,-26.7081,11.9998,7.12502,-0.138204,-17.9799,-4.37823e-14,-1.03368e-14,27.4677,-14.6934,60.5034,107.275,-3.17127,-34.3601,30.631,7.12502,-7.52711,60.4771,-9.61366,3.04628,9.60495,24.3847,-14.9362,-9.77891,0.0707102,-0.502478,1.89396,-24.6249,14.1706,-10.4215,6.6288,-11.5063
0.792625,17.933,-0.6144,0.464043,-30.9154,2.24244,0.0779034,-1.8154,-4.41183,-0.0303908,-2.43003,2.33345,0.210461,-1.22443,4.87609,-20.2022,1.79717,-9.45795,21.6469,4.47928,3.94251,9.9205,1.73954,3.58413,8.54774e-15,-3.02153e-14,-34.2992,-9.8022,-71.4267,40.168,13.5189,-26.7208,11.8558,7.12502,-0.150474,-18.1239,8.54774e-15,-3.02153e-14,27.816,-14.2864,60.0911,107.146,-3.23568,-34.3835,30.5102,7.12502,-7.54971,60.3555,-9.60291,3.03288,9.73326,24.3652,-14.8883,-9.85033,-0.188759,-0.5456,1.92756,-24.501,14.2465,-10.4483,6.58637,-11.6481
0.792295,17.9338,-0.617375,0.497412,-30.8844,2.24285,0.0894606,-1.85643,-4.4374,-0.0435901,-2.4853,2.32274,0.197482,-1.25148,4.87952,-20.338,1.83326,-9.41359,21.4964,4.50599,4.03657,9.8869,1.77366,3.6122,6.87298e-14,-1.90833e-14,-34.2909,-9.38263,-71.5875,40.2543,13.197,-26.7117,11.7724,7.12502,-0.141641,-18.2072,6.87298e-14,-1.90833e-14,28.0464,-13.9614,59.8674,107.067,-3.3118,-34.3019,30.3259,7.12502,-7.47099,60.1739,-9.62848,3.03779,9.74315,24.3454,-14.8962,-9.90654,-0.365127,-0.648716,1.93018,-24.4933,14.3417,-10.4641,6.5761,-11.4857
0.79158,17.9337,-0.622553,0.541002,-30.8873,2.19445,0.134323,-1.84481,-4.41415,-0.084644,-2.47178,2.34338,0.128374,-1.24198,4.89052,-20.3274,1.82122,-9.56151,21.2608,4.48617,4.2259,9.79269,1.7852,3.69242,3.90115e-15,3.18055e-15,-34.3232,-9.3009,-71.577,40.234,13.1381,-26.674,11.7224,7.12502,-0.10527,-18.2573,3.90115e-15,3.18055e-15,28.3232,-13.759,59.7102,106.996,-3.26048,-34.1145,30.2019,7.12502,-7.29004,60.0563,-9.65736,3.10143,9.80179,24.3188,-14.974,-9.95798,0.131471,-0.736095,1.91784,-24.435,14.4374,-10.4737,6.59741,-11.379
0.78983,17.9344,-0.627116,0.571927,-30.8694,2.15354,0.162451,-1.84308,-4.39331,-0.118973,-2.47081,2.37671,0.0777254,-1.23948,4.91521,-20.3039,1.82515,-9.63353,21.0196,4.50683,4.23876,9.69916,1.79996,3.70241,-6.60959e-15,7.95139e-16,-34.3842,-9.26793,-71.5313,40.2573,13.2472,-26.6179,11.7255,7.12502,-0.0510252,-18.2542,-6.60959e-15,7.95139e-16,28.5947,-13.5918,59.5323,106.899,-3.19262,-34.1721,30.1807,7.12502,-7.34572,60.0331,-9.67118,3.14518,9.85463,24.3044,-15.0717,-9.99185,0.769464,-0.790487,1.78785,-24.387,14.4936,-10.4504,6.71393,-11.3208
0.788336,17.9352,-0.628943,0.607201,-30.7967,2.09409,0.176427,-1.83568,-4.34593,-0.132262,-2.46169,2.44724,0.0562518,-1.23428,4.96271,-20.39,1.75105,-9.78818,20.8565,4.46997,4.20314,9.65856,1.77247,3.70693,2.9768e-14,7.95139e-15,-34.4184,-9.22816,-71.3702,40.2635,13.3637,-26.6319,11.8435,7.12502,-0.0645487,-18.1362,2.9768e-14,7.95139e-15,28.8715,-13.4583,59.4745,106.764,-3.24092,-34.4521,30.0939,7.12502,-7.61593,59.9367,-9.64667,3.06001,9.92085,24.2945,-15.0498,-9.97559,0.459607,-0.81472,1.713,-24.3227,14.5196,-10.4967,6.69651,-11.1804
0.787306,17.9355,-0.631642,0.615659,-30.772,2.06925,0.234868,-1.79646,-4.33147,-0.134207,-2.41166,2.50777,0.0175728,-1.2083,5.02017,-20.5813,1.66665,-9.96244,20.7382,4.41907,4.24532,9.65103,1.74506,3.7445,8.90555e-14,-3.18055e-15,-34.4126,-9.28086,-71.1713,40.2568,13.5328,-26.7213,11.9001,7.12502,-0.150946,-18.0796,8.90555e-14,-3.18055e-15,29.2254,-13.3034,59.4097,106.685,-3.22014,-34.6069,29.8031,7.12502,-7.76537,59.6405,-9.65168,3.01247,9.95658,24.304,-14.9907,-9.9768,0.395792,-0.802989,1.7404,-24.2906,14.4924,-10.4912,6.66459,-11.3682
0.786269,17.9352,-0.632445,0.544356,-30.7566,2.1387,0.339554,-1.78424,-4.40533,-0.156861,-2.39958,2.52946,-0.0619734,-1.19959,5.08904,-20.7415,1.64118,-10.0759,20.6151,4.42453,4.29974,9.63214,1.75052,3.78269,2.19906e-14,3.18055e-15,-34.3891,-9.39353,-71.0211,40.1368,13.7484,-26.7894,11.8695,7.12502,-0.21672,-18.1101,2.19906e-14,3.18055e-15,29.4707,-13.1406,59.2631,106.68,-3.18499,-34.6124,29.5397,7.12502,-7.77072,59.3769,-9.62718,2.99485,9.8909,24.3286,-15.0273,-9.94357,1.05628,-0.73522,1.71416,-24.3519,14.4364,-10.4594,6.66086,-11.5929
0.785442,17.9347,-0.631948,0.470216,-30.7349,2.26496,0.302892,-1.7775,-4.47441,-0.116603,-2.38909,2.46528,-0.00113473,-1.19667,5.0592,-20.8334,1.6055,-10.0673,20.3498,4.37189,4.33723,9.55816,1.74212,3.78117,1.00411e-13,1.19271e-14,-34.2184,-9.77325,-70.964,39.84,14.0417,-26.6897,11.9765,7.12502,-0.120358,-18.0032,1.00411e-13,1.19271e-14,29.8581,-12.9954,58.961,106.639,-3.14933,-34.5816,29.5563,7.12502,-7.74094,59.3946,-9.61457,2.92525,9.75982,24.3637,-15.0853,-9.84223,1.17658,-0.683906,1.70109,-24.4719,14.3615,-10.4361,6.63812,-11.7249
0.784315,17.9356,-0.635403,0.462721,-30.7328,2.27467,0.390622,-1.74953,-4.48899,-0.150123,-2.35526,2.45777,-0.0887144,-1.17646,5.06368,-20.8867,1.58235,-10.0471,20.1482,4.34095,4.32517,9.50005,1.73591,3.76431,-4.42296e-14,6.36111e-15,-34.2268,-10.0492,-70.8363,39.6784,14.2136,-26.4277,12.1715,7.12502,0.132666,-17.8082,-4.42296e-14,6.36111e-15,30.1445,-12.8536,58.7802,106.559,-3.07191,-34.7034,29.3715,7.12502,-7.85854,59.2054,-9.63598,2.90052,9.7506,24.4017,-15.0439,-9.80227,0.542875,-0.658507,1.68367,-24.4736,14.2959,-10.3804,6.65757,-11.3379
0.783378,17.9363,-0.638428,0.458222,-30.7458,2.25736,0.497023,-1.72465,-4.46993,-0.187401,-2.32614,2.45913,-0.19104,-1.15818,5.05894,-20.8793,1.57918,-10.0382,19.8753,4.33412,4.31047,9.40394,1.74229,3.74753,5.86415e-15,0,-34.3557,-10.0698,-70.7578,39.6817,14.3087,-26.3416,12.211,7.12502,0.215864,-17.7687,5.86415e-15,0,30.3913,-12.6402,58.6181,106.472,-3.07581,-34.9029,29.0366,7.12502,-8.0511,58.8633,-9.65837,2.89389,9.77789,24.4361,-15.0003,-9.80834,0.602515,-0.631134,1.60304,-24.4568,14.2654,-10.328,6.77176,-11.153
0.781432,17.935,-0.642304,0.42617,-30.7272,2.26277,0.511142,-1.70025,-4.47434,-0.136813,-2.29385,2.4481,-0.151021,-1.14421,5.04946,-20.9994,1.55146,-10.0608,19.6153,4.30941,4.33341,9.33512,1.74218,3.75049,4.12727e-14,7.95139e-16,-34.4684,-9.67228,-70.8346,39.8968,13.9388,-26.3248,11.9786,7.12502,0.232057,-18.001,4.12727e-14,7.95139e-16,30.7794,-12.4229,58.455,106.416,-3.15316,-34.9268,28.8876,7.12502,-8.07408,58.7134,-9.6269,2.89634,9.79174,24.4443,-15.0255,-9.80433,1.12774,-0.622995,1.62326,-24.4422,14.2929,-10.356,6.70948,-11.2249
0.779172,17.9338,-0.647333,0.415519,-30.6959,2.26595,0.595293,-1.67263,-4.50231,-0.142018,-2.26039,2.44608,-0.206642,-1.12571,5.06632,-21.2029,1.51861,-10.1064,19.5101,4.27901,4.42971,9.33307,1.74079,3.78939,-1.93815e-14,1.59028e-15,-34.6509,-9.06243,-70.9475,40.1309,13.3248,-26.3611,11.7659,7.12502,0.19696,-18.2137,-1.93815e-14,1.59028e-15,31.1375,-12.2633,58.3362,106.318,-3.24939,-34.8505,28.7703,7.12502,-8.00048,58.5989,-9.62431,2.96292,9.80812,24.4436,-15.0464,-9.86291,0.912119,-0.65634,1.7258,-24.4129,14.335,-10.3932,6.5727,-11.4297
0.777863,17.9348,-0.650537,0.463569,-30.6503,2.25487,0.618063,-1.67611,-4.51445,-0.154812,-2.26607,2.45064,-0.231259,-1.12757,5.07901,-21.4213,1.48873,-10.1086,19.3752,4.25044,4.48295,9.32534,1.7395,3.80577,5.55106e-14,0,-34.664,-8.88265,-70.9694,40.0741,13.1208,-26.475,11.8943,7.12502,0.0869575,-18.0854,5.55106e-14,0,31.4738,-12.0573,58.1824,106.271,-3.31971,-34.7886,28.8944,7.12502,-7.94076,58.7253,-9.67558,2.94612,9.82843,24.4496,-15.0162,-9.91842,0.261461,-0.732245,1.76362,-24.3794,14.3632,-10.3957,6.48879,-11.0472
0.777611,17.9363,-0.651958,0.509629,-30.6114,2.26245,0.621624,-1.6778,-4.51129,-0.184738,-2.26858,2.44846,-0.263999,-1.12722,5.07568,-21.5062,1.46722,-10.0438,19.1196,4.22565,4.40578,9.25679,1.7333,3.7588,-4.41799e-14,2.22639e-14,-34.6526,-9.01702,-70.8774,39.9017,13.266,-26.5011,12.0936,7.12502,0.0617305,-17.8861,-4.41799e-14,2.22639e-14,31.7831,-11.8632,58.0231,106.239,-3.46575,-34.8501,29.2002,7.12502,-8.00013,59.0288,-9.71257,2.91938,9.81631,24.4614,-15.0526,-9.88029,0.373119,-0.797786,1.73822,-24.3858,14.3689,-10.3536,6.48689,-11.0223
0.775832,17.9363,-0.652797,0.500254,-30.6001,2.31577,0.663253,-1.69114,-4.5978,-0.233579,-2.289,2.4735,-0.330835,-1.13431,5.1534,-21.5129,1.46824,-9.99442,18.8304,4.23577,4.29144,9.16089,1.73874,3.70292,2.38045e-14,7.15625e-15,-34.6962,-9.00042,-70.8004,39.8267,13.3777,-26.5218,12.1081,7.12502,0.0417555,-17.8717,2.38045e-14,7.15625e-15,31.9144,-11.59,57.9652,106.207,-3.53626,-34.828,29.2319,7.12502,-7.97873,59.0613,-9.7254,2.88875,9.7671,24.4719,-15.0891,-9.86547,0.537966,-0.800403,1.71093,-24.4402,14.3567,-10.3604,6.52578,-11.4868
0.773845,17.9346,-0.65448,0.492678,-30.6044,2.34952,0.70601,-1.69206,-4.65264,-0.253751,-2.29253,2.48343,-0.372657,-1.13428,5.19684,-21.4659,1.47041,-9.98386,18.4272,4.23563,4.25047,9.01387,1.74941,3.67295,-1.39895e-14,8.74653e-15,-34.6952,-9.0448,-70.7556,39.6949,13.5382,-26.7112,12.0535,7.12502,-0.141154,-17.9262,-1.39895e-14,8.74653e-15,32.1185,-11.2981,57.8672,106.122,-3.56878,-34.8875,29.0706,7.12502,-8.03616,58.8978,-9.75799,2.84472,9.75101,24.4863,-15.0183,-9.91556,0.131275,-0.784477,1.61142,-24.4749,14.3241,-10.365,6.60195,-11.507
0.772058,17.9347,-0.656838,0.500021,-30.5979,2.39205,0.746662,-1.6896,-4.72319,-0.280195,-2.29172,2.48858,-0.419899,-1.13167,5.24429,-21.4665,1.47052,-9.93664,18.0555,4.23345,4.17823,8.88862,1.75685,3.62842,3.2551e-14,4.77083e-15,-34.7675,-9.01194,-70.7047,39.6711,13.5974,-26.728,11.9935,7.12502,-0.157378,-17.9862,3.2551e-14,4.77083e-15,32.3966,-11.0303,57.7597,106.017,-3.64074,-35.0223,28.9505,7.12502,-8.16625,58.7727,-9.80724,2.81172,9.71706,24.5102,-15.0234,-9.86588,0.214213,-0.807328,1.60124,-24.5103,14.2856,-10.3107,6.61224,-11.8046
0.769839,17.9354,-0.657961,0.524204,-30.5561,2.39249,0.763289,-1.71115,-4.75858,-0.292463,-2.32161,2.50972,-0.435863,-1.14583,5.28738,-21.499,1.46493,-9.98295,17.7174,4.23233,4.21682,8.7756,1.76999,3.63938,-8.08308e-14,-1.59028e-14,-34.8093,-8.91346,-70.673,39.6478,13.6265,-26.6395,12.0305,7.12502,-0.0719331,-17.9492,-8.08308e-14,-1.59028e-14,32.6764,-10.7285,57.6823,105.985,-3.58058,-35.1536,28.8539,7.12502,-8.29302,58.6711,-9.82772,2.78633,9.72083,24.5209,-15.08,-9.86243,0.416333,-0.838046,1.55121,-24.5026,14.2844,-10.3167,6.61007,-11.8729
0.768081,17.9352,-0.659737,0.521977,-30.5321,2.41105,0.785311,-1.74041,-4.80687,-0.283394,-2.36204,2.5329,-0.430845,-1.16637,5.33968,-21.6097,1.47884,-10.0764,17.449,4.273,4.2987,8.69482,1.80222,3.68193,6.13251e-14,1.43125e-14,-34.7751,-8.82452,-70.6612,39.5797,13.6565,-26.6819,11.9124,7.12502,-0.112836,-18.0673,6.13251e-14,1.43125e-14,32.9752,-10.3325,57.599,105.974,-3.39547,-35.1761,28.7841,7.12502,-8.31476,58.6005,-9.85003,2.72508,9.70713,24.5388,-15.0495,-9.86527,0.181103,-0.843266,1.50479,-24.5135,14.2807,-10.3276,6.61536,-11.8238
0.766769,17.9343,-0.66098,0.540595,-30.5472,2.39139,0.801363,-1.73519,-4.79722,-0.263815,-2.35551,2.54293,-0.420457,-1.16393,5.34482,-21.8251,1.45339,-10.1437,17.2408,4.26217,4.39059,8.65731,1.81127,3.72176,1.81888e-14,3.49861e-14,-34.7438,-8.8428,-70.6386,39.5219,13.7179,-26.7583,11.8023,7.12502,-0.18669,-18.1774,1.81888e-14,3.49861e-14,33.3472,-9.98627,57.524,105.869,-3.36413,-35.0131,28.6078,7.12502,-8.15738,58.4303,-9.87223,2.75375,9.72506,24.5634,-15.0727,-9.82886,0.233933,-0.848051,1.51934,-24.4856,14.2693,-10.3352,6.59363,-11.5211
0.765398,17.9339,-0.662246,0.525875,-30.5569,2.43332,0.842389,-1.7205,-4.84426,-0.238771,-2.33794,2.5434,-0.418025,-1.15565,5.37296,-22.0063,1.40942,-10.2337,16.9361,4.23513,4.45281,8.58258,1.81106,3.74912,6.36111e-15,-1.66979e-14,-34.6988,-8.82469,-70.5825,39.4576,13.7461,-26.6812,11.8936,7.12502,-0.112219,-18.0861,6.36111e-15,-1.66979e-14,33.73,-9.65722,57.4718,105.725,-3.47738,-34.8487,28.3733,7.12502,-7.9987,58.202,-9.88655,2.75358,9.68622,24.5775,-15.062,-9.79916,0.226704,-0.860613,1.49296,-24.5212,14.2881,-10.3469,6.61967,-11.2694
0.764838,17.9354,-0.665424,0.571173,-30.5239,2.42724,0.899858,-1.71075,-4.83717,-0.253516,-2.32731,2.54863,-0.466919,-1.14851,5.37675,-22.1519,1.3612,-10.3928,16.6623,4.19527,4.63743,8.50844,1.81321,3.82826,-1.05356e-14,3.49861e-14,-34.6908,-8.71374,-70.5619,39.3943,13.6349,-26.6039,11.9572,7.12502,-0.0375658,-18.0225,-1.05356e-14,3.49861e-14,34.0876,-9.37024,57.4054,105.66,-3.43437,-34.8818,28.0453,7.12502,-8.03067,57.8727,-9.94376,2.73658,9.7017,24.5806,-15.067,-9.8635,0.0358388,-0.932838,1.40885,-24.5281,14.3197,-10.2986,6.74328,-11.7459
0.764488,17.9371,-0.668781,0.66451,-30.4956,2.30726,0.953793,-1.72017,-4.71784,-0.274169,-2.34078,2.56627,-0.520724,-1.15359,5.32978,-22.2858,1.34149,-10.434,16.3738,4.17347,4.73873,8.43065,1.82245,3.86127,-4.42793e-14,-1.59028e-15,-34.694,-8.60961,-70.576,39.3158,13.6214,-26.4903,12.1192,7.12502,0.0721971,-17.8605,-4.42793e-14,-1.59028e-15,34.3979,-9.06348,57.2328,105.628,-3.40707,-35.0847,27.944,7.12502,-8.2265,57.7639,-9.98162,2.7866,9.82374,24.5867,-15.1796,-9.89185,0.371203,-0.998148,1.34385,-24.4217,14.3476,-10.275,6.80654,-12.1065
0.763029,17.9374,-0.671101,0.696038,-30.5021,2.26742,1.00157,-1.72337,-4.68337,-0.289858,-2.34664,2.56064,-0.56457,-1.15496,5.30639,-22.3846,1.32753,-10.3545,16.0705,4.15311,4.66545,8.34933,1.82033,3.81386,1.64991e-14,-1.98785e-14,-34.7062,-8.61824,-70.5616,39.2081,13.7788,-26.3983,12.1945,7.12502,0.161097,-17.7852,1.64991e-14,-1.98785e-14,34.7189,-8.77547,56.9907,105.525,-3.49719,-35.3675,28.129,7.12502,-8.49948,57.9379,-9.98813,2.82956,9.87009,24.5711,-15.2172,-9.92588,0.508659,-1.03283,1.2889,-24.3872,14.3919,-10.2828,6.88141,-12.1646
0.761983,17.9384,-0.675011,0.736556,-30.4955,2.23911,1.0239,-1.7337,-4.6717,-0.259012,-2.361,2.57165,-0.543476,-1.16358,5.31144,-22.6103,1.30434,-10.3591,15.7701,4.1508,4.64205,8.28597,1.82727,3.80232,-3.926e-14,-9.54166e-15,-34.627,-8.64351,-70.5517,39.1333,13.9275,-26.4368,12.0757,7.12502,0.123836,-17.9041,-3.926e-14,-9.54166e-15,35.115,-8.40067,56.8285,105.436,-3.48702,-35.3581,28.372,7.12502,-8.49032,58.1813,-10.005,2.83285,9.91102,24.5387,-15.161,-9.98544,0.449348,-1.1001,1.25437,-24.3554,14.4347,-10.2665,6.91671,-12.3736
0.760539,17.9402,-0.676528,0.751059,-30.4729,2.1588,1.06483,-1.75574,-4.61329,-0.200623,-2.39098,2.60505,-0.503369,-1.18144,5.31346,-22.8056,1.30322,-10.5324,15.4374,4.18156,4.85432,8.19361,1.86715,3.90084,-2.03009e-14,2.38542e-15,-34.5282,-8.57727,-70.5704,39.0531,13.9236,-26.5616,11.8217,7.12502,0.00336759,-18.158,-2.03009e-14,2.38542e-15,35.5247,-8.03013,56.6724,105.363,-3.40798,-35.2702,28.4271,7.12502,-8.40556,58.2399,-9.96153,2.80957,9.99814,24.5237,-15.1243,-9.96616,0.388919,-1.06557,1.17174,-24.2636,14.4289,-10.316,6.8999,-12.0509
0.759122,17.94,-0.675889,0.725043,-30.5153,2.20195,1.09118,-1.71483,-4.62535,-0.210398,-2.33761,2.56212,-0.53628,-1.15335,5.27637,-22.7631,1.29176,-10.5786,15.0334,4.1462,4.99034,8.04763,1.87623,3.93721,-9.12173e-14,-1.59028e-15,-34.6727,-8.72812,-70.5212,39.0231,13.986,-26.5776,11.8542,7.12502,-0.012126,-18.1255,-9.12173e-14,-1.59028e-15,35.9605,-7.85134,56.462,105.28,-3.32247,-35.3037,28.4599,7.12502,-8.43789,58.2714,-9.97492,2.79673,9.95896,24.5273,-15.0958,-9.91921,0.4145,-1.02704,1.14287,-24.2975,14.3775,-10.3402,6.90188,-11.8237
0.75779,17.9407,-0.678054,0.731323,-30.5706,2.20258,1.12661,-1.68232,-4.63114,-0.232008,-2.29578,2.54217,-0.584291,-1.13039,5.26033,-22.6738,1.30121,-10.4886,14.572,4.13541,4.89739,7.88219,1.88082,3.87388,-9.8299e-14,1.98785e-14,-34.8182,-8.75734,-70.4891,39.0291,13.9956,-26.5074,11.9238,7.12502,0.0557147,-18.056,-9.8299e-14,1.98785e-14,36.3638,-7.61661,56.2132,105.192,-3.14002,-35.4612,28.3947,7.12502,-8.58991,58.2,-10.0014,2.80347,9.96461,24.514,-15.0643,-9.88101,0.280158,-1.00798,1.22866,-24.2923,14.3201,-10.2684,6.91172,-12.1895
0.755462,17.9419,-0.677466,0.702404,-30.5982,2.2464,1.09842,-1.67127,-4.66048,-0.204869,-2.28021,2.52307,-0.542084,-1.12433,5.25537,-22.6518,1.2895,-10.4522,14.1145,4.11727,4.81933,7.72906,1.88033,3.82546,1.22451e-13,1.51076e-14,-34.8467,-8.63421,-70.5253,39.0416,13.7992,-26.4341,11.7994,7.12502,0.126513,-18.1803,1.22451e-13,1.51076e-14,36.7423,-7.31054,55.9978,105.121,-3.02923,-35.5543,28.2118,7.12502,-8.67969,58.0133,-9.98479,2.81964,9.91336,24.5145,-15.0895,-9.82364,0.527488,-0.964117,1.26239,-24.335,14.2628,-10.2079,6.94831,-12.2761
0.75433,17.9433,-0.676997,0.717684,-30.6069,2.20033,1.1418,-1.66987,-4.60622,-0.207114,-2.27929,2.53019,-0.570655,-1.12318,5.23354,-22.6696,1.28235,-10.469,13.6917,4.11268,4.81406,7.59044,1.89011,3.814,-1.76173e-14,1.43125e-14,-34.8975,-8.52557,-70.5456,39.0347,13.7126,-26.2921,11.8339,7.12502,0.263582,-18.1457,-1.76173e-14,1.43125e-14,37.0872,-7.00845,55.7934,104.983,-2.92509,-35.5895,28.0279,7.12502,-8.71369,57.828,-9.96313,2.87812,9.95294,24.5195,-15.1162,-9.82057,0.977065,-0.930506,1.21404,-24.2851,14.2246,-10.2158,6.96754,-11.9431
0.752518,17.9438,-0.680166,0.771621,-30.6145,2.19221,1.22385,-1.67207,-4.64753,-0.278456,-2.28635,2.56158,-0.686529,-1.12152,5.29435,-22.7881,1.31008,-10.5023,13.4725,4.16264,4.86494,7.53027,1.92496,3.83863,3.72721e-16,-2.06736e-14,-34.9891,-8.46804,-70.4714,38.9726,13.7935,-26.245,11.9684,7.12502,0.30914,-18.0111,3.72721e-16,-2.06736e-14,37.3863,-6.71957,55.651,104.818,-2.84808,-35.5843,27.8833,7.12502,-8.70865,57.6837,-10.0261,2.89546,9.9725,24.5371,-15.145,-9.8148,1.22022,-0.983273,1.25762,-24.2548,14.1963,-10.2082,6.90476,-11.7867
0.751598,17.9444,-0.682034,0.805044,-30.6093,2.18837,1.25616,-1.68231,-4.6524,-0.284901,-2.3014,2.56384,-0.709133,-1.12823,5.30091,-22.8676,1.34549,-10.4693,13.0716,4.20632,4.86196,7.40637,1.96006,3.82778,9.75784e-14,-2.3059e-14,-34.9595,-8.53667,-70.4353,38.8556,13.9217,-26.2187,12.064,7.12502,0.334519,-17.9155,9.75784e-14,-2.3059e-14,37.7078,-6.4098,55.4417,104.754,-2.81541,-35.6435,27.6088,7.12502,-8.76581,57.4068,-10.0514,2.85025,9.9783,24.5341,-15.1686,-9.77722,1.33699,-1.04325,1.30082,-24.2498,14.2395,-10.2183,6.89673,-12.0574
0.750462,17.9436,-0.68573,0.779809,-30.6134,2.19889,1.32246,-1.6785,-4.64262,-0.225412,-2.29859,2.52787,-0.687188,-1.12886,5.25877,-22.9681,1.3102,-10.4084,12.5175,4.15492,4.81413,7.24484,1.95086,3.78302,-7.68054e-14,-2.38542e-14,-34.8395,-8.73488,-70.4357,38.7147,14.0852,-26.2973,12.1816,7.12502,0.258564,-17.798,-7.68054e-14,-2.38542e-14,38.1388,-6.0887,55.1502,104.728,-2.84427,-35.6332,27.1999,7.12502,-8.75584,56.9983,-10.0269,2.88196,9.97053,24.5428,-15.2601,-9.70474,1.70079,-1.04818,1.3726,-24.2519,14.2935,-10.2548,6.86031,-12.2199
0.749568,17.9438,-0.691419,0.830587,-30.5731,2.10012,1.43688,-1.68811,-4.54635,-0.218369,-2.31428,2.51352,-0.746515,-1.13554,5.1932,-23.1539,1.30649,-10.2963,12.167,4.13869,4.77592,7.16267,1.95586,3.74523,-1.96548e-14,1.59028e-15,-34.8145,-8.87374,-70.4633,38.6482,14.2204,-26.3242,12.1313,7.12502,0.232652,-17.8483,-1.96548e-14,1.59028e-15,38.5541,-5.76183,54.9142,104.585,-2.78523,-35.6444,26.8588,7.12502,-8.76664,56.6567,-10.0175,2.93931,10.0811,24.5455,-15.3087,-9.70948,1.83827,-1.09187,1.42407,-24.1316,14.338,-10.2413,6.77017,-12.2814
