JuanDHNZ/ProyectoFinalCD/preprocessing/sports_trials_csv/14_08.csv
root1,root2,root3,root4,root5,root6,lowerback1,lowerback2,lowerback3,upperback1,upperback2,upperback3,thorax1,thorax2,thorax3,lowerneck1,lowerneck2,lowerneck3,upperneck1,upperneck2,upperneck3,head1,head2,head3,rclavicle1,rclavicle2,rhumerus1,rhumerus2,rhumerus3,rradius1,rwrist1,rhand1,rhand2,rfingers1,rthumb1,rthumb2,lclavicle1,lclavicle2,lhumerus1,lhumerus2,lhumerus3,lradius1,lwrist1,lhand1,lhand2,lfingers1,lthumb1,lthumb2,rfemur1,rfemur2,rfemur3,rtibia1,rfoot1,rfoot2,rtoes1,lfemur1,lfemur2,lfemur3,ltibia1,lfoot1,lfoot2,ltoes1
1.41428,17.4965,1.81642,-12.3131,-75.9115,16.5223,0.949411,0.795651,-5.432,0.845584,1.02228,1.14241,0.222462,0.484301,4.21817,-25.9849,1.93606,-9.43617,18.1563,6.87733,-3.26499,9.89692,2.00194,1.39998,-1.35174e-14,5.56597e-15,-32.6302,-8.74254,-78.8736,31.4167,15.2639,-18.6411,5.84106,7.12502,7.65155,-24.0005,-1.35174e-14,5.56597e-15,-30.0187,6.55389,82.7307,30.7854,-8.0288,-10.0339,25.5059,7.12502,15.951,54.8691,-19.3581,0.210457,11.041,41.8258,-23.8086,3.17553,0.768169,-14.6621,3.18419,-28.2376,31.254,-17.2407,-1.38287,-0.280994
1.4038,17.4995,1.82669,-12.0772,-76.0212,16.1704,0.90215,0.830931,-5.31327,0.882213,1.07337,1.08712,0.283928,0.507823,4.09425,-25.8813,1.86424,-9.44331,18.0839,6.73905,-3.16129,9.85145,1.95894,1.41428,1.28216e-14,1.66979e-14,-32.567,-9.22889,-78.6499,31.0566,16.4497,-18.3698,7.62047,7.12502,7.91343,-22.2114,1.28216e-14,1.66979e-14,-29.8917,6.56826,82.6254,30.7843,-7.91486,-9.98428,25.6654,7.12502,15.9988,55.0248,-19.1445,0.914134,11.2249,41.5759,-22.8131,2.38689,6.10898,-14.4683,3.11283,-28.1615,31.2033,-17.2877,-1.12732,-0.658601
1.40014,17.4983,1.83494,-12.655,-76.0067,16.7155,0.892566,0.845157,-5.46311,0.877718,1.09205,1.03326,0.281105,0.51677,4.1229,-25.7795,1.78963,-9.52806,18.01,6.6406,-3.12922,9.80673,1.91808,1.42112,6.06293e-15,-3.18055e-15,-32.5259,-9.02495,-78.7235,31.1344,16.5957,-18.231,6.62737,7.12502,8.04744,-23.1994,6.06293e-15,-3.18055e-15,-29.8012,6.96939,82.5335,30.7669,-8.08558,-9.97739,25.6901,7.12502,16.0054,55.0489,-19.002,1.58194,11.0887,41.516,-22.6144,1.0746,7.89878,-14.364,3.22406,-28.3491,31.1586,-17.2822,-1.07713,-1.63194
1.39988,17.4961,1.84216,-13.0273,-75.934,17.1254,0.851024,0.829228,-5.55483,0.864726,1.07261,0.942386,0.293368,0.506751,4.08118,-25.8421,1.71625,-9.57365,18.0569,6.54131,-3.00691,9.83034,1.88174,1.45811,2.99668e-14,-1.03368e-14,-32.4388,-9.12365,-78.7107,31.0477,16.9129,-18.0589,6.56277,7.12502,8.21348,-23.2576,2.99668e-14,-1.03368e-14,-29.7058,7.14981,82.416,30.8231,-8.16874,-10.0299,25.7384,7.12502,15.9549,55.1013,-18.8896,2.14177,10.9471,41.393,-23.249,-0.731853,4.73782,-14.3719,3.14917,-28.5113,31.1542,-17.2928,-0.941059,-2.2389
1.39596,17.4989,1.8481,-12.1395,-75.926,16.1657,0.876375,0.8189,-5.31809,0.840866,1.05822,0.917277,0.260478,0.502223,3.92114,-25.8159,1.65936,-9.51439,18.0832,6.42042,-2.91372,9.83607,1.8426,1.46403,9.14409e-15,8.34896e-15,-32.3915,-9.27108,-78.7143,30.864,17.1572,-17.9997,6.70291,7.12502,8.27059,-23.1152,9.14409e-15,8.34896e-15,-29.6638,7.02119,82.3144,30.8927,-7.87844,-10.2305,25.8502,7.12502,15.7617,55.2284,-18.7088,2.88662,11.1969,41.2771,-23.9686,-2.34206,1.6706,-14.3092,2.87254,-28.2787,31.1689,-17.3024,-0.74013,-2.05966
1.38984,17.5047,1.85261,-10.905,-75.9308,14.882,0.882833,0.774894,-5.07116,0.782583,0.999675,0.9807,0.205846,0.476796,3.84753,-25.6728,1.63704,-9.60721,17.9863,6.37057,-2.79672,9.76984,1.83705,1.50847,-3.18055e-15,-8.74653e-15,-32.3654,-9.12108,-78.6824,30.7056,17.1283,-18.0749,6.99736,7.12502,8.19805,-22.8236,-3.18055e-15,-8.74653e-15,-29.6805,7.34016,82.1992,30.9153,-7.77678,-10.5232,25.8537,7.12502,15.4798,55.254,-18.5714,3.67333,11.5338,41.1299,-23.9883,-2.73202,3.18561,-14.2905,2.75777,-27.9487,31.2153,-17.3456,-0.688477,-2.09646
1.38323,17.5075,1.85667,-10.2405,-75.9624,14.1576,0.881953,0.724445,-4.96173,0.750507,0.93261,1.02018,0.18126,0.445008,3.82712,-25.6686,1.65104,-9.76909,18.0033,6.39714,-2.56826,9.75855,1.86707,1.61786,-6.85807e-14,-1.59028e-14,-32.3003,-8.97023,-78.6485,30.5201,17.1399,-18.2585,7.52473,7.12502,8.02088,-22.3031,-6.85807e-14,-1.59028e-14,-29.7356,7.87313,82.0484,30.9539,-7.70171,-10.855,25.792,7.12502,15.1602,55.2167,-18.4308,4.22082,11.7158,40.981,-23.51,-2.11247,7.10566,-14.2509,2.78849,-27.769,31.2625,-17.3627,-0.643457,-2.42526
1.37576,17.5102,1.86227,-9.77287,-75.9827,13.5976,0.90345,0.697286,-4.92238,0.738948,0.89532,1.04421,0.161322,0.427239,3.82982,-25.6945,1.66273,-9.69437,17.9849,6.38531,-2.55358,9.75772,1.87007,1.60997,2.13694e-15,-6.75868e-15,-32.2506,-9.05732,-78.5883,30.3827,17.3566,-18.2698,7.46664,7.12502,8.00996,-22.3616,2.13694e-15,-6.75868e-15,-29.7764,8.4083,81.9268,30.9937,-7.61394,-11.2219,25.9047,7.12502,14.8067,55.3557,-18.2571,4.47322,11.8548,40.8575,-23.2483,-1.73265,8.94158,-14.1491,2.63251,-27.6315,31.2753,-17.4045,-0.553014,-2.03034
1.36777,17.5126,1.87161,-9.71443,-75.9618,13.4963,0.82825,0.660839,-4.96011,0.748757,0.850594,1.05027,0.21763,0.403015,3.85886,-25.6861,1.63098,-9.6919,17.9057,6.33231,-2.54686,9.72945,1.85172,1.60267,-3.0911e-14,-7.95139e-16,-32.1679,-8.91872,-78.5297,30.3698,17.3982,-18.1392,7.05244,7.12502,8.13597,-22.7709,-3.0911e-14,-7.95139e-16,-29.8144,8.86502,81.8542,31.0542,-7.57861,-11.4853,25.9839,7.12502,14.553,55.4534,-18.1398,4.56863,11.8592,40.7966,-23.2974,-2.2996,6.05277,-14.0521,2.38642,-27.6467,31.2518,-17.4012,-0.309602,-1.9389
1.35412,17.5188,1.88418,-9.41864,-75.9817,13.0986,0.67822,0.671065,-4.8301,0.829249,0.873714,1.05485,0.383938,0.408957,3.79256,-25.7643,1.55627,-9.76679,17.8577,6.25518,-2.50973,9.72499,1.81717,1.61613,-3.86139e-14,-7.95139e-16,-32.0448,-8.71722,-78.4727,30.3721,17.0467,-18.2247,6.74587,7.12502,8.05346,-23.0807,-3.86139e-14,-7.95139e-16,-29.7099,9.15263,81.8496,31.023,-7.52279,-11.6658,25.9886,7.12502,14.379,55.4706,-17.9335,4.81954,11.9382,40.7413,-23.2431,-2.98397,2.68787,-13.8678,2.0975,-27.5959,31.2209,-17.4432,0.101317,-2.48627
1.35046,17.5226,1.88984,-9.13355,-75.7283,12.8096,0.678284,0.610471,-4.84106,0.816563,0.792747,1.03386,0.379219,0.368852,3.77745,-25.8756,1.49306,-9.80156,17.8346,6.18083,-2.44915,9.73484,1.78819,1.63304,-9.59136e-15,-7.95139e-15,-31.9761,-8.73367,-78.3777,30.3227,16.885,-18.2176,6.57396,7.12502,8.06028,-23.2523,-9.59136e-15,-7.95139e-15,-29.6328,9.47147,81.8309,30.9663,-7.60214,-11.6303,25.9336,7.12502,14.4133,55.4131,-17.8159,4.7736,11.9562,40.6884,-22.8967,-3.13905,1.90136,-13.8371,1.79847,-27.5953,31.1886,-17.409,0.14688,-2.60688
1.34583,17.5248,1.89827,-8.52643,-75.5524,12.1867,0.658241,0.549099,-4.77174,0.792706,0.711768,1.05599,0.374589,0.329284,3.76179,-25.9845,1.48271,-9.72496,17.8752,6.15622,-2.44695,9.77075,1.77882,1.62073,1.963e-14,-1.59028e-15,-31.9397,-8.69567,-78.2718,30.338,16.9492,-18.4309,5.75203,7.12502,7.85441,-24.0821,1.963e-14,-1.59028e-15,-29.6585,9.66208,81.8624,30.9674,-7.49717,-11.5409,26.043,7.12502,14.4994,55.5164,-17.6863,4.75104,12.0505,40.6024,-22.688,-2.91101,2.82937,-13.7925,1.51314,-27.4962,31.1686,-17.4068,0.289506,-2.33331
1.34207,17.5288,1.90491,-7.92588,-75.4658,11.5657,0.658172,0.524015,-4.72693,0.766956,0.677997,1.10462,0.351421,0.313652,3.78686,-26.062,1.44402,-9.72076,17.8614,6.09518,-2.37522,9.77793,1.76056,1.63725,3.18552e-14,-1.51076e-14,-31.9122,-9.25863,-77.7839,30.18,17.9809,-18.6349,5.52868,7.12502,7.65754,-24.3127,3.18552e-14,-1.51076e-14,-29.7119,9.529,82.0132,31.0206,-6.91448,-11.7517,26.288,7.12502,14.2963,55.7759,-17.5744,4.83409,12.1605,40.5073,-22.823,-2.97354,2.46891,-13.7631,1.2904,-27.3735,31.1578,-17.3847,0.460856,-2.26885
1.3393,17.5328,1.9112,-7.59849,-75.3698,11.274,0.615875,0.525535,-4.75379,0.744149,0.681699,1.1323,0.350721,0.31587,3.83093,-26.1753,1.3597,-9.74588,17.8376,5.9934,-2.33558,9.79031,1.71695,1.64112,1.52567e-14,7.95139e-15,-31.8833,-9.73096,-77.3686,30.0852,18.4894,-18.7419,5.60546,7.12502,7.55427,-24.2396,1.52567e-14,7.95139e-15,-29.6973,9.36742,82.2076,31.0422,-6.38861,-11.9821,26.4762,7.12502,14.0742,55.9796,-17.5447,4.68457,12.1918,40.4164,-22.9846,-3.02147,2.51758,-13.7801,1.16629,-27.3297,31.1315,-17.3879,0.505414,-2.46385
1.33506,17.5357,1.91863,-7.47799,-75.2877,11.163,0.596633,0.534404,-4.80023,0.733647,0.694261,1.12569,0.349029,0.322262,3.85037,-26.3054,1.26358,-9.75731,17.7837,5.85749,-2.23635,9.79345,1.6685,1.65857,-7.8023e-15,6.36111e-15,-31.8227,-10.0391,-77.1153,30.0351,18.7087,-18.6901,5.69875,7.12502,7.60432,-24.1445,-7.8023e-15,6.36111e-15,-29.6633,9.31559,82.3214,31.0276,-6.22091,-11.9848,26.6356,7.12502,14.0717,56.1392,-17.49,4.24738,12.1999,40.3482,-22.7649,-2.77053,3.37912,-13.7358,1.28025,-27.3253,31.0781,-17.4307,0.333797,-2.67095
1.32936,17.5407,1.92287,-7.42227,-75.1976,11.1128,0.596932,0.550031,-4.85666,0.703647,0.714633,1.08921,0.315737,0.33386,3.84414,-26.3313,1.13099,-9.84763,17.6311,5.65902,-2.0422,9.73975,1.60568,1.70932,1.65488e-14,1.59028e-15,-31.8546,-10.1198,-76.9652,30.1392,18.6313,-18.59,5.40919,7.12502,7.70085,-24.4306,1.65488e-14,1.59028e-15,-29.622,9.29376,82.3855,30.962,-6.14669,-11.6373,26.6302,7.12502,14.4065,56.1102,-17.4161,4.00845,12.1915,40.3013,-22.6414,-2.55748,4.0204,-13.6946,1.44097,-27.3271,31.0111,-17.3866,0.0842268,-2.44406
1.32261,17.5454,1.92638,-7.01425,-75.096,10.7441,0.539665,0.534124,-4.89026,0.675175,0.69585,1.10344,0.319975,0.324856,3.87835,-26.3996,1.01788,-9.95152,17.498,5.51006,-1.8967,9.70087,1.5559,1.75316,-4.37823e-14,-4.77083e-15,-31.8677,-9.91851,-76.85,30.2759,18.179,-18.5486,5.63679,7.12502,7.74082,-24.2015,-4.37823e-14,-4.77083e-15,-29.6223,9.42604,82.4679,30.9237,-6.1764,-11.3718,26.4531,7.12502,14.6623,55.9147,-17.3917,3.85868,12.2573,40.259,-22.6688,-2.39696,4.43515,-13.684,1.33089,-27.2452,30.9375,-17.3443,0.0676498,-2.36563
1.31578,17.5463,1.92935,-6.59944,-74.9726,10.3134,0.541617,0.506893,-4.92908,0.659811,0.659028,1.14138,0.306065,0.306917,3.93964,-26.4055,0.949525,-10.0002,17.292,5.41023,-1.8475,9.62872,1.52471,1.75978,2.50469e-14,7.95139e-16,-31.9038,-9.62016,-76.7367,30.4278,17.6394,-18.6758,5.97329,7.12502,7.61807,-23.8695,2.50469e-14,7.95139e-16,-29.6511,9.39794,82.6047,30.9129,-6.23782,-11.3006,26.3592,7.12502,14.7309,55.8158,-17.3035,3.61906,12.3586,40.2088,-22.7157,-2.35966,4.28487,-13.6154,1.14392,-27.1521,30.8771,-17.346,0.144461,-2.43007
1.30708,17.5471,1.93548,-6.47124,-74.878,10.1683,0.517056,0.481758,-4.97913,0.656364,0.626557,1.16485,0.318987,0.290159,3.99261,-26.4226,0.856415,-10.188,17.0952,5.29814,-1.65365,9.55358,1.49634,1.83729,-1.46107e-14,8.74653e-15,-31.8955,-9.54857,-76.5204,30.5263,17.4242,-18.5923,6.22507,7.12502,7.69871,-23.6148,-1.46107e-14,8.74653e-15,-29.7017,9.26987,82.8038,30.9337,-6.2995,-11.1376,26.2975,7.12502,14.8879,55.7425,-17.2003,3.34797,12.3652,40.1442,-22.6488,-2.2176,4.5447,-13.5396,1.15663,-27.149,30.8353,-17.3483,0.0866085,-2.3131
1.29959,17.5493,1.93988,-6.33167,-74.7893,10.1099,0.434503,0.459914,-5.04628,0.615798,0.601112,1.14453,0.325859,0.277995,4.0101,-26.5387,0.764758,-10.3362,17.0079,5.17582,-1.37063,9.53238,1.47065,1.94182,1.02871e-14,-5.1684e-15,-31.8384,-9.64694,-76.3482,30.5236,17.4333,-18.4857,6.48515,7.12502,7.80153,-23.3509,1.02871e-14,-5.1684e-15,-29.7881,9.03554,82.9803,30.9868,-6.23829,-11.2009,26.2976,7.12502,14.827,55.7472,-17.2094,3.14216,12.3409,40.0713,-22.5687,-2.10436,4.73702,-13.6022,1.18521,-27.1657,30.8188,-17.316,0.00726662,-2.22069
1.29395,17.5526,1.94241,-6.03126,-74.7625,9.91513,0.364904,0.481755,-5.10115,0.542867,0.632792,1.13196,0.286047,0.2965,4.02818,-26.5559,0.683876,-10.3217,16.8476,5.02216,-1.2287,9.47934,1.42866,1.96455,9.49197e-14,-1.47101e-14,-31.8593,-9.94154,-76.1527,30.5603,17.6506,-18.8757,6.75697,7.12502,7.42509,-23.0927,9.49197e-14,-1.47101e-14,-29.9041,8.86055,83.1473,31.027,-6.26949,-11.4028,26.229,7.12502,14.6324,55.6927,-17.26,3.09113,12.3648,39.9858,-22.511,-2.03263,5.09245,-13.6982,1.06125,-27.1092,30.8186,-17.3037,-0.0207598,-1.80955
1.28874,17.5545,1.94383,-5.70429,-74.8095,9.57449,0.394591,0.521553,-5.1317,0.520088,0.683838,1.15062,0.239889,0.323726,4.06415,-26.5623,0.590549,-10.3088,16.6035,4.88445,-1.27001,9.40155,1.3736,1.92359,3.73715e-14,-7.95139e-16,-31.8117,-10.1267,-75.9621,30.5899,17.7565,-19.397,6.75168,7.12502,6.92194,-23.1152,3.73715e-14,-7.95139e-16,-30.0364,8.63508,83.3275,31.0933,-6.34166,-11.2575,25.9603,7.12502,14.7724,55.4138,-17.1877,3.1668,12.4495,39.8791,-22.4668,-1.95696,5.14829,-13.6921,1.00859,-27.0006,30.8589,-17.364,0.0292472,-1.68238
1.28296,17.5546,1.94567,-5.33288,-74.9025,9.17037,0.432749,0.562431,-5.16841,0.498685,0.735844,1.17782,0.190018,0.351499,4.11229,-26.5176,0.450611,-10.4415,16.2779,4.70261,-1.20944,9.28196,1.30611,1.9326,1.75179e-14,1.31198e-14,-31.7734,-10.1283,-75.8671,30.6481,17.6822,-19.6543,6.47748,7.12502,6.67351,-23.3974,1.75179e-14,1.31198e-14,-30.176,8.44071,83.4564,31.1869,-6.4712,-10.936,25.7509,7.12502,15.0821,55.1815,-17.1126,3.20351,12.5517,39.7554,-22.5395,-1.69418,6.43408,-13.6775,1.02047,-26.8792,30.9224,-17.4273,0.129314,-1.70835
1.27696,17.5517,1.94504,-5.17608,-75.012,9.03518,0.413799,0.610517,-5.28885,0.471499,0.800328,1.17475,0.164099,0.384854,4.17682,-26.4041,0.310399,-10.5905,15.8885,4.48193,-0.99451,9.12486,1.24378,1.99123,-5.30507e-14,0,-31.7184,-10.2185,-75.7726,30.6392,17.8281,-19.6758,6.33319,7.12502,6.65284,-23.5423,-5.30507e-14,0,-30.3021,7.99197,83.6008,31.2876,-6.44429,-10.6575,25.7223,7.12502,15.3504,55.1325,-17.1026,3.18555,12.5851,39.6349,-22.7499,-1.36564,8.31754,-13.7144,0.984138,-26.8291,30.9847,-17.4644,0.289236,-1.68181
1.27128,17.5495,1.94506,-5.05603,-75.0869,8.9463,0.368715,0.629009,-5.36429,0.461044,0.827198,1.1759,0.174625,0.398073,4.22096,-26.3414,0.199699,-10.7467,15.5263,4.31789,-0.802164,8.9851,1.20153,2.05226,3.86388e-14,7.15625e-15,-31.6333,-10.1115,-75.6994,30.7062,17.7534,-19.2437,6.17375,7.12502,7.06996,-23.6882,3.86388e-14,7.15625e-15,-30.3613,7.62347,83.7566,31.2867,-6.47171,-10.6101,25.6448,7.12502,15.3961,55.0515,-17.085,3.13506,12.5984,39.5181,-22.8236,-1.05852,9.6717,-13.7507,0.959948,-26.7967,31.0516,-17.5326,0.390543,-1.65942
1.2655,17.5498,1.946,-5.21252,-75.1467,9.09654,0.38341,0.625147,-5.44845,0.439471,0.820692,1.14918,0.144162,0.396046,4.2405,-26.2234,0.109757,-10.953,15.141,4.18266,-0.56399,8.82544,1.17648,2.14013,3.0091e-14,-7.15625e-15,-31.5593,-9.90962,-75.6872,30.7547,17.6045,-18.9852,5.93908,7.12502,7.31948,-23.9143,3.0091e-14,-7.15625e-15,-30.5008,7.29601,83.8727,31.2889,-6.60178,-10.5001,25.4415,7.12502,15.502,54.84,-17.0017,3.18744,12.5418,39.4168,-22.7973,-0.867545,10.3326,-13.7305,0.898313,-26.8378,31.119,-17.6079,0.52003,-1.66626
1.25956,17.5524,1.94707,-4.59651,-75.2567,8.48555,0.348292,0.650575,-5.29697,0.428867,0.85671,1.11335,0.151463,0.414507,4.11788,-26.1401,-0.0391337,-11.1395,14.718,3.93299,-0.161663,8.66095,1.12101,2.26585,6.63941e-14,-1.35174e-14,-31.4154,-9.89212,-75.7249,30.6907,17.4942,-19.1874,6.09592,7.12502,7.12421,-23.7642,6.63941e-14,-1.35174e-14,-30.5609,6.88203,83.9599,31.2421,-6.60493,-10.5079,25.3486,7.12502,15.4945,54.7478,-16.986,3.28022,12.7396,39.3257,-22.6315,-0.976542,9.55525,-13.7605,0.823553,-26.6665,31.1738,-17.6552,0.774383,-2.18967
1.25831,17.5554,1.94923,-3.66228,-75.347,7.54692,0.39445,0.71324,-5.0329,0.394815,0.937735,1.06729,0.086303,0.458234,3.91965,-25.8929,-0.24616,-11.2862,14.0767,3.56666,0.208222,8.40503,1.01959,2.35295,8.27441e-15,6.36111e-15,-31.3162,-9.8597,-75.7579,30.6385,17.2466,-19.5011,6.4543,7.12502,6.82142,-23.4158,8.27441e-15,6.36111e-15,-30.615,6.2469,84.0924,31.1898,-6.46827,-10.7697,25.3169,7.12502,15.2423,54.7354,-16.9938,3.44795,13.0158,39.2379,-22.5283,-1.12885,9.31117,-13.8157,0.717158,-26.4011,31.2327,-17.6461,0.962761,-1.96856
1.25608,17.5543,1.95017,-3.47468,-75.3889,7.39228,0.411792,0.77891,-5.05319,0.368242,1.02387,0.996055,0.0410965,0.503143,3.85625,-25.6185,-0.487867,-11.3606,13.3672,3.14914,0.45255,8.13263,0.883425,2.37822,2.7159e-14,1.98785e-15,-31.2491,-9.8374,-75.7407,30.6399,17.1003,-19.4143,6.76066,7.12502,6.90521,-23.1067,2.7159e-14,1.98785e-15,-30.6507,5.80922,84.2099,31.1152,-6.502,-10.6791,25.2573,7.12502,15.3296,54.6691,-17.0035,3.64981,13.0428,39.176,-22.7626,-0.999314,10.9576,-13.8655,0.611364,-26.35,31.2741,-17.656,1.06192,-1.61768
1.25173,17.5535,1.94948,-3.40482,-75.395,7.38785,0.369456,0.819052,-5.13776,0.368531,1.07944,0.934147,0.0590327,0.530328,3.8401,-25.4239,-0.779016,-11.6248,12.6282,2.72231,0.80823,7.86263,0.742806,2.47123,3.58309e-14,-1.25234e-14,-31.1598,-9.81956,-75.7736,30.6936,16.8895,-19.5924,6.53865,7.12502,6.73328,-23.3343,3.58309e-14,-1.25234e-14,-30.6902,5.50654,84.3173,31.0604,-6.71802,-10.5284,25.2116,7.12502,15.4747,54.6122,-17.0423,3.68951,13.0426,39.1474,-22.9428,-0.880321,11.808,-13.9218,0.641093,-26.3383,31.2724,-17.7005,0.985071,-1.82569
1.24404,17.5517,1.95235,-4.01775,-75.3838,7.98675,0.359193,0.796965,-5.31671,0.429248,1.05124,0.828786,0.12914,0.512513,3.83287,-25.2078,-1.04547,-11.9324,11.6607,2.33198,1.1699,7.51316,0.624622,2.57536,5.24295e-15,9.54166e-15,-30.991,-9.89272,-75.8652,30.7158,16.8404,-19.7946,6.42839,7.12502,6.53814,-23.4507,5.24295e-15,9.54166e-15,-30.7665,5.34313,84.376,31.058,-6.97973,-10.5998,25.4184,7.12502,15.406,54.8244,-16.9823,3.64866,12.876,39.1696,-22.9872,-0.852813,11.436,-13.8209,0.688168,-26.5085,31.2111,-17.7093,0.925136,-1.78915
1.23644,17.5499,1.95775,-4.76619,-75.3334,8.71152,0.334895,0.756483,-5.48739,0.533185,1.00044,0.682885,0.255018,0.480612,3.77967,-25.0087,-1.32064,-12.1052,10.5296,1.90239,1.42434,7.122,0.485529,2.61697,-3.08862e-14,1.78906e-15,-30.7443,-10.0276,-76.0079,30.7288,16.9791,-19.5608,6.66429,7.12502,6.76379,-23.2077,-3.08862e-14,1.78906e-15,-30.8099,5.15784,84.3991,31.0989,-7.10243,-10.7595,25.4371,7.12502,15.2522,54.8548,-16.9004,3.51349,12.6741,39.2043,-22.9882,-0.915147,10.5632,-13.687,0.637838,-26.7348,31.1501,-17.728,1.0099,-1.98643
1.23378,17.5491,1.96144,-5.16969,-75.3859,9.07336,0.425124,0.808289,-5.54766,0.585644,1.06484,0.558357,0.25287,0.511377,3.68353,-24.6379,-1.66815,-12.3511,9.27327,1.36609,1.74256,6.67455,0.299955,2.67884,3.03147e-15,-1.0138e-14,-30.5908,-10.1421,-76.0827,30.7759,17.0265,-19.4585,6.75292,7.12502,6.86257,-23.1159,3.03147e-15,-1.0138e-14,-30.9032,4.8442,84.4491,31.1009,-7.12861,-10.8243,25.3114,7.12502,15.1898,54.7338,-16.8555,3.52336,12.5786,39.2529,-23.025,-0.930018,10.4454,-13.5676,0.589371,-26.8443,31.0889,-17.7154,1.15033,-2.14676
1.23143,17.548,1.96031,-5.04378,-75.5278,8.82471,0.589025,0.856156,-5.49053,0.660549,1.12023,0.509166,0.234211,0.537976,3.59823,-24.2292,-2.10255,-12.8708,7.85487,0.746512,2.40223,6.17825,0.0975531,2.88951,-3.61291e-14,1.59028e-15,-30.3982,-10.2749,-76.155,30.8032,17.2997,-19.8407,6.49747,7.12502,6.49361,-23.383,-3.61291e-14,1.59028e-15,-30.9414,4.7284,84.4153,31.0481,-7.20268,-10.8469,25.1474,7.12502,15.168,54.5715,-16.7703,3.70978,12.6772,39.2824,-23.0944,-0.925863,10.9336,-13.4275,0.632048,-26.7573,31.0692,-17.7131,1.29571,-2.35099
1.22867,17.5465,1.95748,-5.03944,-75.5925,8.75097,0.717537,0.82933,-5.5101,0.725869,1.07763,0.4393,0.234731,0.514951,3.53597,-23.741,-2.5951,-13.5269,6.20241,0.0505836,3.31288,5.61258,-0.123799,3.19831,2.36926e-14,-5.46658e-15,-30.2171,-10.3259,-76.2869,30.816,17.6605,-19.8741,6.84744,7.12502,6.46132,-23.034,2.36926e-14,-5.46658e-15,-31.0033,4.92917,84.2242,31.0285,-7.49229,-10.572,25.125,7.12502,15.4328,54.5289,-16.7186,3.84255,12.7171,39.3035,-23.1103,-0.936975,10.8688,-13.3644,0.68765,-26.7245,31.0898,-17.734,1.34671,-2.34097
1.22819,17.5449,1.95557,-4.90027,-75.6026,8.61078,0.814741,0.781683,-5.51941,0.781709,1.00896,0.367208,0.245814,0.478869,3.46641,-23.0082,-3.1107,-14.3512,4.17677,-0.669568,4.30671,4.91252,-0.355653,3.56135,8.01972e-14,-7.05686e-15,-30.0732,-10.2107,-76.4718,30.8959,17.7708,-19.5952,7.20439,7.12502,6.73063,-22.6686,8.01972e-14,-7.05686e-15,-31.0847,5.28938,84.0185,31.0262,-7.96179,-10.0781,25.2226,7.12502,15.9084,54.5892,-16.729,3.87943,12.7657,39.3259,-23.1612,-0.906841,10.8592,-13.3836,0.663942,-26.6803,31.1242,-17.7282,1.44256,-2.41163
1.22695,17.5421,1.95123,-5.08279,-75.637,8.81953,0.893178,0.779695,-5.67847,0.831934,1.00119,0.31849,0.252701,0.472771,3.50486,-22.2244,-3.5293,-14.997,2.11907,-1.28222,4.99977,4.20409,-0.565796,3.81799,-1.16662e-14,1.71949e-14,-29.9159,-9.85091,-76.7122,31.0712,17.3165,-19.0146,7.47417,7.12502,7.29106,-22.3802,-1.16662e-14,1.71949e-14,-31.1882,5.30696,84.0255,31.0482,-8.06311,-10.0026,25.4677,7.12502,15.9811,54.8285,-16.781,3.97084,12.7329,39.3951,-23.2546,-0.913995,11.0695,-13.3937,0.73704,-26.7191,31.1004,-17.7192,1.45792,-2.74923
1.22562,17.5392,1.94423,-5.57729,-75.6413,9.26199,1.07952,0.800006,-5.87229,0.904718,1.01553,0.218425,0.220384,0.477954,3.50813,-21.5918,-3.78051,-15.0166,0.181331,-1.76468,5.07496,3.54616,-0.756756,3.79888,1.77167e-14,1.98785e-15,-29.7889,-9.2762,-77.1146,31.385,16.2669,-18.5345,8.05088,7.12502,7.75444,-21.7869,1.77167e-14,1.98785e-15,-31.19,5.13654,84.0155,30.9277,-7.97601,-10.4074,25.4833,7.12502,15.5913,54.8749,-16.7708,4.09315,12.6422,39.5125,-23.3498,-0.897123,11.4559,-13.2948,0.815426,-26.8084,31.0116,-17.6896,1.37328,-2.81436
1.22842,17.5367,1.94113,-7.12967,-75.5568,10.8265,1.31606,0.804884,-6.28924,0.926684,0.99999,0.0177762,0.108989,0.470575,3.53184,-20.8131,-3.99732,-14.9848,-1.84954,-2.23886,5.10038,2.84353,-0.950281,3.7682,-2.50686e-14,1.0312e-14,-29.863,-8.43501,-77.4851,31.9201,15.3315,-18.3497,8.35849,7.12502,7.93284,-21.4727,-2.50686e-14,1.0312e-14,-31.2488,4.95453,83.9673,30.7791,-7.79219,-10.3361,25.3224,7.12502,15.6599,54.7086,-16.7958,3.99776,12.1938,39.6267,-23.343,-0.738455,11.5599,-13.2321,0.828166,-27.2294,30.9258,-17.6486,1.28466,-2.51605
1.22972,17.5343,1.94566,-8.31779,-75.527,12.0685,1.43084,0.791106,-6.56061,0.954118,0.968671,-0.154448,0.0751171,0.453578,3.50515,-20.0622,-4.28421,-15.2143,-3.8542,-2.75364,5.4383,2.17253,-1.15352,3.88564,-2.23967e-14,7.11276e-15,-29.8937,-7.48434,-77.7907,32.4689,14.7012,-18.3968,8.20353,7.12502,7.88734,-21.6293,-2.23967e-14,7.11276e-15,-31.3391,4.85643,83.9486,30.6654,-7.61457,-10.1923,25.3488,7.12502,15.7984,54.7242,-16.8616,3.68091,11.8252,39.6867,-23.0883,-0.741711,9.46715,-13.2157,0.769388,-27.5962,30.8999,-17.6487,1.36903,-2.63989
1.22129,17.5424,1.94192,-6.79176,-75.6322,10.5938,1.35989,0.746823,-6.31669,0.974197,0.919659,-0.069687,0.143044,0.427832,3.4579,-19.321,-4.55563,-15.4804,-5.85336,-3.24103,5.80842,1.51144,-1.34772,4.03163,-3.00041e-14,8.74653e-15,-29.7944,-6.73222,-78.0419,32.8454,14.4586,-18.539,7.96478,7.12502,7.75013,-21.8732,-3.00041e-14,8.74653e-15,-31.4659,4.89029,83.9682,30.553,-7.55162,-10.4955,25.5488,7.12502,15.5064,54.947,-16.9429,3.71479,12.2823,39.68,-22.9316,-1.13314,6.92875,-13.3271,0.841664,-27.1614,30.9407,-17.6842,1.32399,-2.5071
1.21192,17.5488,1.93914,-4.49116,-75.7937,8.33445,1.26742,0.751636,-5.78351,1.0046,0.940287,0.010284,0.230305,0.437788,3.24249,-18.6264,-4.84076,-15.6949,-7.85562,-3.75097,6.21535,0.866511,-1.55814,4.18963,1.09766e-14,1.98785e-16,-29.5892,-6.56898,-78.222,33.0328,14.7485,-18.7732,7.76512,7.12502,7.52407,-22.0811,1.09766e-14,1.98785e-16,-31.5259,4.81316,83.941,30.4484,-7.40048,-9.32691,25.5039,7.12502,16.6317,54.8113,-17.004,3.89892,12.9605,39.5989,-22.8074,-1.46222,5.60382,-13.4883,0.913126,-26.5099,31.0612,-17.7494,1.36347,-2.47608
1.21065,17.5452,1.94352,-4.18342,-75.8915,8.15097,1.26202,0.75199,-5.68544,0.98396,0.941437,-0.0210915,0.21384,0.439851,3.15497,-17.962,-5.085,-16.0407,-9.75988,-4.1766,6.60798,0.253767,-1.72997,4.37807,-5.57094e-14,8.44835e-16,-29.4992,-6.41221,-78.229,33.3389,15.3101,-19.0989,7.32532,7.12502,7.20972,-22.5319,-5.57094e-14,8.44835e-16,-31.6233,5.00938,83.9188,30.2883,-7.32222,-7.27448,25.6258,7.12502,18.6068,54.7559,-17.1131,3.70246,12.9999,39.465,-22.6531,-1.24604,6.21493,-13.6975,0.894511,-26.4672,31.248,-17.8288,1.48877,-2.28731
1.20883,17.5423,1.94659,-4.08349,-75.9069,8.11653,1.32128,0.701227,-5.71496,0.971083,0.869055,-0.026741,0.174024,0.404893,3.16589,-17.6141,-5.33112,-16.1936,-11.2946,-4.59133,6.78255,-0.211362,-1.91266,4.4648,-3.66137e-14,-7.85199e-15,-29.4779,-5.80595,-78.2937,33.7651,15.6958,-19.8984,6.21345,7.12502,6.43786,-23.6687,-3.66137e-14,-7.85199e-15,-31.7193,5.27595,83.9101,30.0732,-7.33698,-7.66115,25.7015,7.12502,18.2349,54.8668,-17.1192,3.491,12.9985,39.3082,-22.5685,-0.997878,7.14106,-13.8363,0.730029,-26.4687,31.4492,-17.8964,1.63623,-2.23884
1.20264,17.5427,1.94369,-3.32512,-75.9633,7.37682,1.37264,0.67544,-5.67671,0.954693,0.831484,0.00968825,0.131934,0.387866,3.18185,-17.3191,-5.57199,-16.2544,-12.6884,-5.00365,6.97166,-0.625341,-2.10027,4.54368,1.40392e-15,-1.15295e-14,-29.458,-4.99535,-78.4666,34.1501,15.6223,-20.4951,5.3852,7.12502,5.86187,-24.5137,1.40392e-15,-1.15295e-14,-31.8446,5.5108,83.8115,29.8886,-7.37476,-9.12852,25.4848,7.12502,16.8227,54.7761,-17.0836,3.58708,13.2512,39.1647,-22.5627,-1.21669,6.60892,-13.9503,0.629903,-26.2506,31.6396,-18.0112,1.76753,-2.03107
1.19707,17.5456,1.94263,-1.60977,-76.0793,5.72272,1.35251,0.685138,-5.30523,0.94216,0.849861,0.00779869,0.13331,0.399121,2.97132,-17.0583,-5.79166,-16.3304,-14.0578,-5.36712,7.35689,-1.02113,-2.26397,4.69385,1.3741e-14,6.75868e-15,-29.3665,-4.84368,-78.6161,34.347,15.808,-20.149,5.73536,7.12502,6.19594,-24.154,1.3741e-14,6.75868e-15,-31.8898,5.89184,83.4848,29.6859,-7.56142,-9.96982,25.0007,7.12502,16.0127,54.3589,-17.139,3.81053,13.7091,39.0255,-22.6146,-1.25937,7.33895,-14.1432,0.518938,-25.8031,31.8503,-18.1137,2.00515,-2.34106
1.19628,17.5516,1.94401,0.209534,-76.2819,4.1094,1.22633,0.705441,-4.82284,0.887767,0.888089,-0.101137,0.152874,0.421232,2.58923,-17.072,-6.02534,-16.0166,-15.0831,-5.77397,7.46939,-1.28839,-2.47357,4.68246,-1.60767e-14,6.95746e-15,-29.3156,-4.75453,-78.8883,34.6567,15.8949,-19.8644,6.0105,7.12502,6.47072,-23.8707,-1.60767e-14,6.95746e-15,-31.9277,5.94831,83.1338,29.5018,-7.57633,-11.1947,24.7012,7.12502,14.8329,54.1503,-17.4229,4.01366,14.1007,38.9154,-22.5251,-1.16835,8.0317,-14.5215,0.327499,-25.3751,32.0649,-18.1973,2.37691,-2.49094
1.20133,17.5494,1.94256,0.870139,-76.4906,3.74988,1.13506,0.71887,-4.67725,0.779296,0.909304,-0.251217,0.0952747,0.435851,2.35336,-16.9885,-6.21394,-15.7336,-15.9842,-6.13698,7.43801,-1.54439,-2.6633,4.63395,8.34896e-15,-1.8487e-14,-29.307,-4.28065,-79.1476,35.0147,15.6154,-20.0353,6.01241,7.12502,6.30577,-23.8737,8.34896e-15,-1.8487e-14,-31.9859,5.62757,82.9873,29.3209,-7.32681,-11.6393,24.9277,7.12502,14.4046,54.4079,-17.828,4.1241,14.1787,38.8408,-22.4649,-1.04807,9.27682,-14.9856,0.153448,-25.2672,32.2629,-18.2438,2.70404,-2.37902
1.20174,17.5451,1.93699,0.824567,-76.6627,4.06052,1.04589,0.695816,-4.80424,0.689382,0.879309,-0.372012,0.0551897,0.422844,2.30114,-17.1164,-6.38333,-15.5358,-16.9897,-6.42001,7.65542,-1.7985,-2.81155,4.6827,1.17283e-14,-3.77691e-15,-29.2705,-3.69431,-79.3882,35.3535,15.4183,-20.1007,5.91246,7.12502,6.24264,-23.9756,1.17283e-14,-3.77691e-15,-32.0387,5.32176,82.883,29.0652,-7.19049,-10.4014,25.3043,7.12502,15.5971,54.6954,-18.1688,4.11416,14.1243,38.805,-22.4187,-1.01513,9.46614,-15.3394,0.120479,-25.3299,32.4049,-18.3008,2.92376,-2.68511
1.19769,17.5429,1.93311,1.00639,-76.7609,3.81388,1.19895,0.64859,-4.82054,0.71133,0.806759,-0.463188,-0.0015667,0.387099,2.21581,-17.3164,-6.47165,-15.2526,-17.762,-6.59463,7.78654,-1.9896,-2.9134,4.68934,6.26172e-15,-3.97569e-16,-29.0945,-3.38772,-79.6513,35.5068,15.3463,-20.0871,6.41252,7.12502,6.25571,-23.4751,6.26172e-15,-3.97569e-16,-32.0474,5.32974,82.6281,28.7244,-7.38793,-9.35139,25.5279,7.12502,16.6082,54.8373,-18.1104,3.95808,14.2333,38.7902,-22.2707,-0.99329,8.49632,-15.2836,0.195888,-25.2513,32.4758,-18.3415,2.94944,-2.53716
1.18914,17.5479,1.93189,1.60572,-76.8943,3.26938,1.1757,0.641218,-4.78817,0.690549,0.797853,-0.493379,-0.00840396,0.383244,2.16692,-17.5264,-6.65778,-15.3081,-18.3857,-6.82109,8.07766,-2.11352,-3.02552,4.7926,1.06847e-14,-8.74653e-15,-28.9618,-2.93946,-79.8197,35.7014,14.9486,-20.3887,6.64953,7.12502,5.96459,-23.2465,1.06847e-14,-8.74653e-15,-32.0949,5.5699,82.4531,28.3682,-7.7518,-9.30223,25.4865,7.12502,16.6555,54.7919,-18.1739,3.8696,14.3944,38.7598,-22.0266,-1.09212,6.66641,-15.3443,0.41216,-25.0945,32.5125,-18.4055,2.85287,-2.43097
1.18071,17.5536,1.93142,2.00976,-76.9415,2.98886,1.12437,0.621369,-4.80942,0.622775,0.771949,-0.540386,-0.0470252,0.372275,2.13099,-17.7565,-6.82866,-15.2262,-18.9126,-7.05628,8.20461,-2.21683,-3.14865,4.81812,3.70733e-14,-4.77083e-15,-28.8849,-2.61055,-79.8728,35.9332,14.8662,-20.4679,5.9869,7.12502,5.88806,-23.9113,3.70733e-14,-4.77083e-15,-32.1888,5.88451,82.2852,28.0569,-8.05755,-9.4007,25.4688,7.12502,16.5607,54.7821,-18.252,3.89979,14.4395,38.6967,-21.8843,-1.01558,6.42127,-15.461,0.346859,-25.0182,32.5559,-18.4726,2.98847,-2.46229
1.1725,17.5517,1.9339,2.30293,-77.0652,2.76697,1.07837,0.615891,-4.77947,0.551836,0.765046,-0.609329,-0.0923564,0.371035,2.04354,-17.9195,-6.89748,-15.0048,-19.3257,-7.19485,8.18457,-2.31591,-3.23071,4.77888,7.65321e-15,1.19271e-14,-28.843,-2.57433,-79.8123,36.1012,15.1205,-20.2103,5.89256,7.12502,6.13678,-23.9986,7.65321e-15,1.19271e-14,-32.3566,5.94977,82.1519,27.8347,-8.11637,-9.4734,25.4509,7.12502,16.4907,54.7701,-18.2899,3.89757,14.4626,38.6035,-21.9624,-0.649307,8.3032,-15.526,0.337582,-24.9702,32.6068,-18.5339,3.12482,-2.62284
1.16002,17.5473,1.93665,2.82984,-77.2326,2.23891,0.99085,0.616287,-4.67513,0.521811,0.770726,-0.643258,-0.072767,0.374178,1.95103,-18.1277,-6.94869,-14.9519,-19.6122,-7.25662,8.29173,-2.36637,-3.26642,4.80575,-2.85753e-14,8.74653e-15,-28.7554,-2.46823,-79.7724,36.2035,15.148,-20.2589,6.10797,7.12502,6.08991,-23.7845,-2.85753e-14,8.74653e-15,-32.4698,5.94045,82.0452,27.5605,-8.22042,-9.36609,25.4802,7.12502,16.594,54.7908,-18.2543,3.84723,14.5961,38.4924,-21.9925,-0.436386,9.22271,-15.5076,0.415894,-24.8594,32.657,-18.6643,3.20959,-2.75565
1.14496,17.5468,1.93687,3.54894,-77.2771,1.40997,0.970324,0.58607,-4.56514,0.548787,0.733469,-0.652138,-0.0295777,0.354456,1.88125,-18.5689,-7.05854,-14.9416,-19.651,-7.33824,8.4654,-2.3027,-3.31042,4.84353,-1.5704e-14,4.33351e-14,-28.5532,-2.47031,-79.7619,36.1553,15.1028,-20.3935,6.77227,7.12502,5.95992,-23.1239,-1.5704e-14,4.33351e-14,-32.501,5.88417,81.972,27.1943,-8.51089,-9.43094,25.6583,7.12502,16.5316,54.9741,-18.0692,3.7553,14.8237,38.4291,-21.9563,-0.390966,8.98557,-15.3354,0.321658,-24.662,32.6658,-18.7807,3.39791,-2.96903
1.13127,17.549,1.93273,3.78748,-77.317,1.0801,1.04468,0.57607,-4.59788,0.502941,0.713661,-0.697558,-0.116881,0.346897,1.85211,-19.0088,-7.25333,-15.1159,-19.5172,-7.46952,8.82661,-2.16378,-3.36903,4.95975,-2.83268e-15,-2.10712e-14,-28.4909,-2.5648,-79.7155,36.1513,15.0837,-20.3088,7.58692,7.12502,6.04168,-22.3069,-2.83268e-15,-2.10712e-14,-32.6402,5.6034,81.9637,26.8862,-8.58634,-9.45179,26.0326,7.12502,16.5115,55.3501,-17.9278,3.76703,14.9217,38.4447,-22.0043,-0.209295,9.37346,-15.1492,0.274573,-24.5529,32.6141,-18.8468,3.43804,-2.91463
1.12385,17.5524,1.92705,2.68069,-77.4025,2.3899,0.951913,0.574444,-5.04176,0.371423,0.706448,-0.823192,-0.203164,0.346183,1.97149,-19.4169,-7.4124,-15.2254,-19.401,-7.5795,9.08501,-2.0448,-3.41871,5.03586,3.15571e-14,1.55052e-14,-28.4784,-2.46503,-79.6623,36.3535,15.2037,-20.148,6.8414,7.12502,6.19697,-23.048,3.15571e-14,1.55052e-14,-32.7547,5.54805,81.8768,26.5918,-8.82092,-9.19966,26.0227,7.12502,16.7542,55.3198,-18.1516,3.78599,14.6021,38.5303,-21.8449,-0.204165,8.55232,-15.2698,0.426521,-24.8422,32.5366,-18.8272,3.34424,-2.89307
1.12183,17.5537,1.92502,1.48309,-77.5073,3.81008,0.86122,0.581169,-5.44494,0.275222,0.711315,-0.972083,-0.254566,0.350365,2.04403,-19.8274,-7.49524,-15.1257,-19.3817,-7.65308,9.13104,-1.97905,-3.46054,5.01772,-2.29099e-14,2.78299e-15,-28.3468,-2.15675,-79.7266,36.6202,14.7879,-20.0049,5.97155,7.12502,6.33509,-23.9137,-2.29099e-14,2.78299e-15,-32.7565,5.52746,81.7948,26.3168,-8.96636,-9.02347,25.9758,7.12502,16.9238,55.2584,-18.4491,3.78999,14.2642,38.6483,-21.6721,-0.334282,6.99461,-15.4358,0.460484,-25.1718,32.4514,-18.7587,3.44688,-3.17573
1.11566,17.5488,1.9221,1.33391,-77.6186,3.99382,0.856449,0.583193,-5.61663,0.22749,0.709938,-1.00979,-0.302522,0.351404,2.10091,-20.0167,-7.51857,-15.0266,-19.5444,-7.69016,9.14532,-2.00385,-3.4853,5.00515,7.20594e-15,-9.93923e-15,-28.184,-1.91799,-79.6895,36.7637,14.3354,-19.8459,6.06528,7.12502,6.48858,-23.8153,7.20594e-15,-9.93923e-15,-32.7711,5.37726,81.7935,26.0743,-8.90614,-9.17017,26.0931,7.12502,16.7826,55.3877,-18.5525,3.87405,14.2362,38.767,-21.8787,-0.101656,8.45319,-15.4195,0.515265,-25.1922,32.3682,-18.7211,3.46896,-3.02861
1.10464,17.5479,1.91872,1.3037,-77.6759,4.0336,0.804516,0.622308,-5.72179,0.158496,0.760693,-1.07885,-0.348837,0.378788,2.08804,-20.0101,-7.58402,-14.9617,-19.7317,-7.79502,9.19392,-2.05018,-3.54166,5.00967,-1.78906e-15,-1.51076e-14,-28.1606,-2.04025,-79.4705,36.8987,14.6033,-19.9605,5.72445,7.12502,6.37791,-24.1595,-1.78906e-15,-1.51076e-14,-32.7955,5.23818,81.7051,25.7778,-9.13628,-9.26688,26.1926,7.12502,16.6895,55.4952,-18.5563,3.8388,14.2546,38.8283,-21.9078,0.0357902,8.6979,-15.3553,0.418043,-25.178,32.3252,-18.7351,3.58047,-3.01243
1.09318,17.5531,1.91644,1.38209,-77.6679,4.02197,0.688865,0.639565,-5.79763,0.0934614,0.786988,-1.17758,-0.35266,0.392628,2.02936,-20.2325,-7.63978,-14.9098,-19.6828,-7.83162,9.34175,-1.99395,-3.5622,5.03737,-7.85199e-15,3.4191e-14,-28.1055,-2.32598,-79.265,37.0147,15.0281,-20.0107,5.42777,7.12502,6.32946,-24.4577,-7.85199e-15,3.4191e-14,-32.7104,5.40665,81.457,25.3958,-9.63347,-9.03203,26.0774,7.12502,16.9156,55.3608,-18.5653,3.79998,14.2813,38.8151,-21.6481,-0.237181,6.12173,-15.3818,0.219831,-25.1668,32.3384,-18.77,3.79565,-3.2905
1.08201,17.5526,1.91484,1.41095,-77.7192,3.95336,0.661997,0.641955,-5.87799,0.0816932,0.790165,-1.21328,-0.350573,0.394125,2.03767,-20.6227,-7.70766,-15.0058,-19.5186,-7.82937,9.52993,-1.87955,-3.55386,5.09587,-4.5969e-14,-1.19271e-14,-27.9323,-2.26898,-79.0598,37.0988,14.8967,-19.8439,5.7867,7.12502,6.49054,-24.0938,-4.5969e-14,-1.19271e-14,-32.6565,5.50422,81.3519,25.1052,-9.87804,-8.79127,26.1485,7.12502,17.1474,55.4119,-18.496,3.85885,14.3296,38.7832,-21.6432,-0.379586,5.25906,-15.2877,-0.199022,-25.1407,32.3363,-18.7641,4.27854,-3.11227
1.07316,17.5521,1.91314,1.68874,-77.8371,3.6605,0.655344,0.689532,-5.90334,0.0134115,0.850337,-1.23753,-0.421938,0.427157,2.02568,-20.875,-7.80555,-15.1872,-19.3268,-7.86006,9.75519,-1.76538,-3.55642,5.17973,-1.85367e-14,-1.35174e-14,-27.9064,-2.20707,-78.8433,37.2758,14.7493,-19.8359,6.05443,7.12502,6.4982,-23.8259,-1.85367e-14,-1.35174e-14,-32.7068,5.16764,81.4128,24.9169,-9.70414,-8.56008,26.1783,7.12502,17.3699,55.4222,-18.4664,3.89927,14.4331,38.7471,-21.7374,-0.316418,5.78263,-15.2367,-0.247418,-25.0562,32.3157,-18.7843,4.4689,-3.15711
1.06612,17.5577,1.91255,2.46035,-77.9229,2.8812,0.681527,0.714425,-5.80741,-0.0745779,0.878753,-1.23885,-0.527995,0.445639,1.96939,-20.9761,-7.88945,-15.3414,-19.3299,-7.91004,9.95652,-1.73059,-3.57192,5.26159,1.49585e-14,2.14687e-14,-27.8498,-2.28216,-78.6302,37.4639,14.8194,-19.9765,5.94495,7.12502,6.3625,-23.9395,1.49585e-14,2.14687e-14,-32.7971,5.02565,81.401,24.7951,-9.61404,-8.39582,26.0522,7.12502,17.528,55.2821,-18.4203,3.92234,14.6197,38.6944,-21.5774,-0.272931,5.2376,-15.2318,0.132493,-24.8724,32.3159,-18.7914,4.31582,-3.7598
1.04755,17.5598,1.92075,2.52952,-78.0874,2.6702,0.645323,0.722738,-5.77075,-0.0855912,0.891716,-1.2749,-0.518878,0.451729,1.91209,-20.9957,-7.8672,-15.4113,-19.4885,-7.85914,10.1261,-1.76906,-3.54392,5.33653,1.53064e-14,1.74931e-14,-27.6896,-2.09747,-78.4539,37.5827,14.6713,-20.1027,5.90291,7.12502,6.24071,-23.9852,1.53064e-14,1.74931e-14,-32.8378,5.61568,81.1075,24.511,-10.2922,-8.15627,26.0207,7.12502,17.7585,55.2298,-18.1818,3.86219,14.6361,38.6403,-21.3969,-0.0862774,4.50436,-14.9834,0.125432,-24.8735,32.342,-18.909,4.57158,-4.23894
1.0308,17.556,1.92395,2.82571,-78.1728,2.28076,0.557228,0.717149,-5.74346,-0.0862827,0.890668,-1.29559,-0.469306,0.449772,1.87678,-21.0427,-7.8673,-15.3658,-19.6544,-7.8688,10.1738,-1.81163,-3.55245,5.34901,5.71506e-15,-1.03368e-14,-27.4845,-1.66896,-78.3131,37.728,14.3148,-20.0887,5.9068,7.12502,6.25417,-23.9809,5.71506e-15,-1.03368e-14,-32.7861,6.24539,80.7963,24.1919,-10.977,-8.03467,25.8474,7.12502,17.8755,55.0459,-18.0064,3.81784,14.7249,38.5957,-21.4006,0.0608784,4.53815,-14.8337,0.148993,-24.7993,32.3803,-19.0148,4.6501,-4.22562
1.02478,17.5546,1.91786,3.73598,-78.1595,1.3622,0.567448,0.70668,-5.69039,-0.131972,0.874612,-1.29181,-0.520113,0.443812,1.85076,-21.1448,-7.93874,-15.3484,-19.7636,-7.95206,10.2703,-1.81756,-3.59546,5.37177,1.73937e-14,-1.59028e-14,-27.3243,-1.78653,-78.1626,37.8718,14.3791,-20.0213,5.92331,7.12502,6.31922,-23.9624,1.73937e-14,-1.59028e-14,-32.7598,6.10226,80.7646,24.1447,-10.861,-8.03014,25.7286,7.12502,17.8798,54.9267,-17.9959,3.85103,14.9845,38.5596,-21.4093,-0.101154,3.96188,-14.8966,0.320598,-24.5423,32.4342,-19.021,4.44026,-3.86083
1.01952,17.5528,1.91267,4.04919,-78.1504,1.01453,0.623373,0.661034,-5.74035,-0.167743,0.807048,-1.31548,-0.583739,0.412186,1.85421,-21.2333,-7.98036,-15.4344,-19.854,-7.96812,10.4683,-1.81652,-3.59985,5.44856,2.45002e-14,-5.56597e-15,-27.2171,-1.94405,-78.0444,38.0713,14.5714,-20.227,5.92814,7.12502,6.12066,-23.9634,2.45002e-14,-5.56597e-15,-32.791,6.03669,80.707,24.2081,-10.6725,-8.38952,25.9315,7.12502,17.534,55.1608,-17.9447,3.88545,15.1056,38.5299,-21.4318,-0.21813,3.70713,-14.9025,0.294271,-24.4216,32.5142,-19.1168,4.38927,-3.5836
1.00946,17.5519,1.90975,4.06618,-78.144,0.977556,0.581129,0.467403,-5.88622,-0.169583,0.553203,-1.18303,-0.54572,0.285889,2.07551,-21.4637,-7.96964,-15.9929,-19.8898,-7.79131,10.8563,-1.77936,-3.48081,5.67337,-6.11263e-15,5.56597e-15,-26.9805,-1.12051,-77.8748,38.3812,14.383,-20.6605,5.91594,7.12502,5.7021,-23.9873,-6.11263e-15,5.56597e-15,-32.877,7.04878,80.525,24.1894,-11.0035,-8.60638,26.1259,7.12502,17.3253,55.3737,-17.8753,3.81404,15.1398,38.5104,-21.4283,-0.159866,3.62483,-14.8705,0.154664,-24.3998,32.5958,-19.2068,4.54545,-3.80373
0.99914,17.5524,1.90544,4.1286,-78.1663,0.915587,0.50293,0.358669,-6.03404,-0.187886,0.412217,-1.16755,-0.510745,0.215314,2.17604,-21.6561,-7.89201,-15.9946,-19.9334,-7.66348,10.9502,-1.77774,-3.41784,5.71209,-2.51463e-14,-4.6118e-14,-26.7964,-0.610605,-77.7646,38.7058,14.1716,-20.936,5.83636,7.12502,5.43611,-24.0739,-2.51463e-14,-4.6118e-14,-32.9155,7.52335,80.3021,24.1866,-11.1609,-8.75872,26.1475,7.12502,17.1787,55.4081,-17.8458,3.75514,15.1671,38.495,-21.3954,-0.00650585,4.1874,-14.8589,0.0420977,-24.3823,32.6556,-19.2217,4.76236,-3.99796
0.988917,17.5521,1.90682,4.48049,-78.2559,0.47542,0.468647,0.541691,-5.89779,-0.160554,0.654991,-1.47791,-0.478227,0.332326,1.77866,-21.7963,-7.92787,-15.2702,-19.9356,-7.84406,10.8021,-1.76639,-3.54819,5.5285,3.02153e-14,2.62396e-14,-26.8304,-1.10523,-77.7982,39.1006,13.7821,-21.1978,5.48074,7.12502,5.18341,-24.4359,3.02153e-14,2.62396e-14,-32.6434,6.4016,80.1467,24.2109,-10.6398,-8.75687,26.4027,7.12502,17.1805,55.6632,-17.7309,3.72376,15.2683,38.4717,-21.3571,0.127685,4.24105,-14.7396,-0.0348192,-24.2978,32.7023,-19.2743,4.97027,-3.66688
0.97776,17.5511,1.90734,4.53495,-78.3537,0.291661,0.465795,0.713913,-5.9077,-0.116353,0.884034,-1.59632,-0.4465,0.444006,1.66029,-21.7792,-8.05866,-15.235,-20.0668,-8.01871,10.8742,-1.78508,-3.6358,5.53623,-2.85256e-14,-2.94201e-14,-26.8236,-1.34114,-77.5381,39.5124,13.3733,-21.4399,5.21324,7.12502,4.94961,-24.709,-2.85256e-14,-2.94201e-14,-32.4125,5.74644,80.2159,24.2244,-10.3163,-8.78287,26.4975,7.12502,17.1554,55.7601,-17.5495,3.70699,15.3143,38.4226,-21.3056,0.286996,4.43382,-14.5877,-0.0982762,-24.2575,32.7807,-19.3769,5.10075,-3.66145
0.96566,17.5499,1.90348,4.3054,-78.3835,0.510622,0.392083,0.76384,-6.16616,-0.142782,0.952984,-1.57446,-0.442116,0.479208,1.82667,-21.5959,-8.1558,-15.6153,-20.2646,-8.07619,11.1298,-1.83399,-3.64334,5.68659,-4.1049e-14,-5.48646e-14,-26.7581,-1.13304,-77.1988,39.8583,12.6683,-21.321,5.75072,7.12502,5.06441,-24.1688,-4.1049e-14,-5.48646e-14,-32.3589,5.80755,80.236,24.198,-10.5878,-8.77116,26.2106,7.12502,17.1667,55.4723,-17.5245,3.46618,15.3555,38.3558,-21.2146,-0.0732261,1.9578,-14.5727,-0.229978,-24.2882,32.8752,-19.4612,5.28255,-3.83056
0.954545,17.5442,1.89962,4.07092,-78.362,0.782497,0.312813,0.768151,-6.39873,-0.197677,0.958482,-1.65956,-0.45726,0.48285,1.86918,-21.5208,-8.19684,-15.644,-20.3688,-8.11734,11.3368,-1.85333,-3.66423,5.75969,2.46493e-14,-1.11319e-14,-26.7543,-0.648037,-77.1537,40.3059,11.3384,-21.3063,6.33165,7.12502,5.07862,-23.5875,2.46493e-14,-1.11319e-14,-32.347,5.53093,80.174,24.3338,-10.3097,-8.58298,26.2503,7.12502,17.3478,55.4961,-17.5734,3.11951,15.3879,38.3297,-21.2301,-0.29987,0.353612,-14.6008,-0.258975,-24.3218,32.9383,-19.536,5.22719,-3.54276
0.945259,17.5431,1.89551,4.73608,-78.4187,0.0778589,0.291934,0.772367,-6.37971,-0.2197,0.964472,-1.67633,-0.468118,0.486364,1.84138,-21.6336,-8.22347,-15.6796,-20.4009,-8.1192,11.4898,-1.83664,-3.66295,5.81261,1.80894e-14,-1.43125e-14,-26.7335,0.0646217,-77.1435,40.948,9.89315,-22.2166,5.57172,7.12502,4.19964,-24.3666,1.80894e-14,-1.43125e-14,-32.3129,5.49227,80.1013,24.4929,-10.1131,-8.43202,26.3381,7.12502,17.4931,55.571,-17.4974,3.38981,15.5128,38.3361,-21.4278,0.117332,3.55789,-14.5628,-0.148556,-24.1425,32.9869,-19.5906,5.15067,-3.43857
0.936801,17.5464,1.89279,4.8662,-78.4632,-0.159044,0.355216,0.76448,-6.49342,-0.226968,0.946858,-1.68828,-0.511541,0.478917,1.89158,-21.6911,-8.15842,-15.498,-20.5045,-8.07606,11.416,-1.87728,-3.65289,5.76648,2.44505e-14,-6.36111e-15,-26.7307,0.569006,-76.9985,41.5986,9.13005,-23.1668,4.75931,7.12502,3.28204,-25.1952,2.44505e-14,-6.36111e-15,-32.3285,5.88688,79.895,24.6159,-10.3933,-8.47506,26.4204,7.12502,17.4517,55.657,-17.3204,3.68156,15.5174,38.3587,-21.3977,0.39089,5.16106,-14.4497,0.0685792,-24.0825,33.0453,-19.6674,5.09533,-4.19458
0.930606,17.5435,1.88857,4.82587,-78.4069,-0.141767,0.40439,0.749359,-6.7293,-0.29644,0.916916,-1.66362,-0.612826,0.468911,2.04721,-21.5518,-8.11917,-15.4445,-20.6817,-8.0601,11.4085,-1.95294,-3.6505,5.76773,-1.09332e-14,2.54444e-14,-26.7246,0.495393,-76.461,42.1021,9.8258,-22.6702,5.0051,7.12502,3.76157,-24.9415,-1.09332e-14,2.54444e-14,-32.3822,5.92343,79.8943,24.7678,-10.2602,-8.78158,26.4562,7.12502,17.1567,55.7187,-17.2763,3.59751,15.5507,38.3801,-21.3803,0.413913,4.98487,-14.4487,0.239349,-24.056,33.0966,-19.7415,4.93952,-4.8968
0.924153,17.5357,1.88854,4.84512,-78.3474,-0.146603,0.38174,0.716185,-6.86334,-0.358325,0.871053,-1.61758,-0.662974,0.449591,2.16953,-21.3119,-8.12016,-15.5683,-20.9824,-8.07282,11.4963,-2.06475,-3.65412,5.83368,-3.27995e-15,-2.38542e-14,-26.5924,0.451747,-75.8216,42.5446,10.5332,-22.0145,5.26461,7.12502,4.39479,-24.6698,-3.27995e-15,-2.38542e-14,-32.4741,5.79779,80.0292,25.0156,-9.8477,-9.15991,26.4241,7.12502,16.7925,55.7179,-17.2984,3.39084,15.5787,38.4049,-21.5715,0.66959,6.72705,-14.4533,0.123404,-24.0448,33.1256,-19.7802,4.96156,-4.74808
0.914054,17.5315,1.89167,4.78276,-78.3802,-0.138311,0.344002,0.693306,-6.96281,-0.366701,0.84267,-1.60687,-0.64966,0.435568,2.23667,-21.1473,-8.12373,-15.679,-21.2707,-8.07799,11.6409,-2.16038,-3.65533,5.91424,-2.90226e-14,-9.54166e-15,-26.3895,0.732394,-75.4706,43.0378,10.0763,-22.2941,5.04702,7.12502,4.12473,-24.8928,-2.90226e-14,-9.54166e-15,-32.5178,5.88411,80.0313,25.2475,-9.62376,-9.22572,26.2726,7.12502,16.7292,55.5718,-17.2286,3.3496,15.5754,38.4202,-21.6584,0.883237,7.76892,-14.3534,-0.00818601,-24.0654,33.1524,-19.8311,5.20009,-4.64869
0.901335,17.5325,1.89434,5.15027,-78.4474,-0.629782,0.334575,0.707228,-6.93446,-0.347191,0.861877,-1.66886,-0.624574,0.443228,2.15711,-21.1232,-8.08911,-15.4804,-21.4506,-8.08511,11.6206,-2.22504,-3.67373,5.8834,8.84592e-15,1.82882e-14,-26.2437,1.03728,-75.2376,43.6301,9.51475,-22.6547,4.89238,7.12502,3.77659,-25.0539,8.84592e-15,1.82882e-14,-32.4862,5.8135,79.8947,25.4389,-9.51996,-9.19754,26.2712,7.12502,16.7563,55.5681,-17.0693,3.35686,15.6806,38.4424,-21.5185,0.929252,7.49134,-14.1599,-0.199756,-23.9632,33.166,-19.9318,5.3877,-3.8838
0.890438,17.5336,1.89362,5.32869,-78.4682,-0.896798,0.329407,0.759347,-6.95344,-0.335378,0.930485,-1.73733,-0.614801,0.476207,2.09648,-21.0803,-8.10983,-15.3776,-21.6414,-8.14464,11.6225,-2.28554,-3.711,5.87178,1.33186e-14,-1.43125e-14,-26.2314,1.27522,-74.8061,44.4359,9.3186,-22.847,4.92149,7.12502,3.59082,-25.028,1.33186e-14,-1.43125e-14,-32.3476,5.72068,79.7924,25.5367,-9.5777,-8.98794,26.1047,7.12502,16.958,55.3844,-16.9621,3.44512,15.7574,38.5062,-21.5283,0.841212,7.20841,-14.0047,-0.277605,-23.9003,33.1425,-19.9747,5.51266,-4.11838
0.880472,17.532,1.89268,5.37653,-78.4311,-0.993798,0.32006,0.804929,-7.05848,-0.33541,0.990858,-1.7398,-0.61678,0.506587,2.15172,-21.1452,-8.22696,-15.4512,-21.6945,-8.26457,11.7503,-2.26843,-3.76571,5.91497,-4.28381e-14,-6.36111e-15,-26.1662,1.30226,-74.1383,45.2108,9.5088,-22.8866,5.14137,7.12502,3.55256,-24.8088,-4.28381e-14,-6.36111e-15,-32.2257,5.44994,79.8783,25.7166,-9.38541,-8.6966,26.0685,7.12502,17.2385,55.3239,-16.9019,3.55011,15.7963,38.5923,-21.6715,0.828437,7.66311,-13.8949,-0.264921,-23.8673,33.1048,-19.9705,5.56702,-4.67801
0.871671,17.5338,1.89345,5.78497,-78.4157,-1.46032,0.354768,0.827912,-7.13817,-0.34694,1.01756,-1.70642,-0.652683,0.521796,2.22941,-21.3324,-8.30458,-15.4538,-21.6344,-8.32485,11.8964,-2.20788,-3.79438,5.94914,4.21423e-14,2.14687e-14,-26.0573,1.30697,-73.4111,45.957,10.1082,-23.1803,5.39356,7.12502,3.26901,-24.5611,4.21423e-14,2.14687e-14,-32.0918,5.07131,80.0182,25.9174,-8.79279,-8.75832,26.3572,7.12502,17.1791,55.6178,-16.8477,3.64648,15.8713,38.6908,-21.7522,1.09021,9.19224,-13.7916,-0.225762,-23.7616,33.0585,-19.9335,5.60372,-4.79057
0.863796,17.5395,1.89286,6.43012,-78.4732,-2.05324,0.279353,0.786667,-7.21628,-0.367694,0.967626,-1.70659,-0.628608,0.496761,2.27421,-21.557,-8.18897,-15.1172,-21.7011,-8.21956,11.8751,-2.22411,-3.76449,5.894,5.07895e-14,3.4191e-14,-25.8994,1.68713,-72.8365,46.9418,10.5925,-23.727,5.29628,7.12502,2.74105,-24.6659,5.07895e-14,3.4191e-14,-31.9601,4.89645,79.9604,26.0914,-8.45432,-8.90731,26.4863,7.12502,17.0357,55.7593,-16.9438,3.77063,15.9298,38.7709,-21.6753,1.50957,11.5035,-13.8176,-0.198156,-23.6441,33.0333,-19.8985,5.78983,-5.16212
0.851684,17.5442,1.89201,6.69186,-78.6916,-2.14099,0.0156477,0.790787,-7.4602,-0.431612,0.992286,-1.69906,-0.553488,0.508674,2.42054,-21.7477,-8.07968,-14.87,-21.7343,-8.11098,11.8262,-2.2343,-3.72601,5.84419,-3.57812e-14,9.54166e-15,-25.772,2.15584,-72.1204,48.0742,10.8942,-24.1166,5.08434,7.12502,2.36473,-24.8823,-3.57812e-14,9.54166e-15,-31.9424,4.62163,80.0154,26.317,-8.49102,-9.30898,26.473,7.12502,16.649,55.7789,-17.1729,3.87299,15.8852,38.8381,-21.5838,1.74885,12.2923,-13.9547,-0.00523203,-23.6541,33.0284,-19.941,5.86826,-5.69775
0.838866,17.5416,1.89168,6.92545,-78.715,-2.39718,-0.0635731,0.843069,-7.65437,-0.436551,1.06981,-1.61718,-0.527004,0.547891,2.61337,-21.8422,-8.16957,-15.0307,-21.7217,-8.16576,12.0003,-2.19486,-3.7417,5.91837,-2.78299e-15,3.97569e-15,-25.6875,2.0969,-71.078,49.2166,11.3766,-24.4446,5.13799,7.12502,2.04798,-24.8319,-2.78299e-15,3.97569e-15,-31.8676,4.11923,80.3385,26.4962,-8.54452,-9.91995,26.7607,7.12502,16.0607,56.1151,-17.1527,3.78272,15.9362,38.8932,-21.6809,1.89951,12.8052,-13.8863,0.0997314,-23.5888,33.0496,-20.0251,5.76628,-5.83215
0.828582,17.5382,1.89504,7.15525,-78.4895,-2.75877,0.0196403,0.795707,-7.76868,-0.402378,1.00232,-1.51578,-0.535411,0.515093,2.78127,-21.9398,-8.18379,-15.0207,-21.7744,-8.16491,12.1154,-2.19075,-3.74262,5.95355,-3.40916e-14,4.05521e-14,-25.5074,1.9927,-69.9786,50.3737,11.6463,-24.8403,5.04985,7.12502,1.6658,-24.9234,-3.40916e-14,4.05521e-14,-31.7257,3.78383,80.5789,26.6311,-8.27051,-10.1767,26.7324,7.12502,15.8135,56.1066,-16.9756,3.56487,16.0385,38.9612,-21.7823,2.09898,13.5864,-13.7458,0.146727,-23.4681,33.0866,-20.1029,5.48538,-5.40135
0.817935,17.5376,1.89721,7.49503,-78.3864,-3.1011,-0.00738099,0.740462,-7.96177,-0.431753,0.9325,-1.33798,-0.549531,0.483847,3.07316,-21.8159,-8.17075,-15.1669,-22.0377,-8.13158,12.256,-2.27745,-3.72262,6.04053,-5.76476e-15,2.62396e-14,-25.2684,2.06689,-68.6894,51.5745,11.5988,-25.1391,4.77005,7.12502,1.37719,-25.2053,-5.76476e-15,2.62396e-14,-31.7285,3.4984,80.8891,26.9218,-7.827,-9.9793,26.5677,7.12502,16.0036,55.9267,-16.96,3.50125,16.1489,39.0396,-21.7531,1.97738,12.8614,-13.7592,0.321421,-23.3601,33.1362,-20.1839,5.1933,-5.20292
0.807937,17.5365,1.89697,7.46322,-78.5312,-3.03206,-0.100326,0.8108,-8.22514,-0.444594,1.03482,-1.25641,-0.528682,0.535905,3.30448,-21.767,-8.22779,-15.289,-22.3163,-8.1933,12.3317,-2.35524,-3.74859,6.09354,7.8023e-15,3.97569e-15,-24.9765,1.78061,-67.3687,52.7022,11.5041,-25.5444,4.41094,7.12502,0.98575,-25.5665,7.8023e-15,3.97569e-15,-31.5917,3.24171,81.0875,27.1061,-7.84881,-9.57393,26.2466,7.12502,16.3939,55.5738,-17.032,3.63146,16.1209,39.1555,-21.6968,2.04407,13.3943,-13.7566,0.488397,-23.3894,33.1581,-20.2562,5.18157,-5.26401
0.798921,17.5369,1.89871,7.68979,-78.5887,-3.26822,-0.14498,0.933695,-8.1928,-0.400064,1.20322,-1.37151,-0.474159,0.615381,3.16715,-21.9914,-8.36477,-15.1205,-22.4254,-8.37689,12.3908,-2.34091,-3.84911,6.06792,1.0138e-14,2.38542e-14,-24.6604,0.961341,-66.2024,53.7808,11.2859,-25.8784,4.16079,7.12502,0.66321,-25.8179,1.0138e-14,2.38542e-14,-31.305,2.77883,81.055,27.2878,-7.95512,-9.55286,25.9925,7.12502,16.4142,55.318,-17.0805,3.62731,16.1538,39.3247,-21.6008,2.33054,14.6702,-13.7009,0.557608,-23.3374,33.129,-20.3252,5.12761,-5.48484
0.790714,17.5402,1.9024,7.81982,-78.5192,-3.49523,-0.0699063,0.991836,-8.05376,-0.351233,1.2734,-1.51626,-0.4674,0.647092,2.93876,-22.146,-8.47742,-14.9869,-22.5283,-8.51607,12.5834,-2.3257,-3.92862,6.09592,-2.31584e-14,-1.59028e-15,-24.2962,0.160537,-65.0724,54.8637,10.9392,-26.0653,3.98217,7.12502,0.482688,-25.997,-2.31584e-14,-1.59028e-15,-31.105,2.31138,80.962,27.5977,-7.87103,-9.54678,25.8964,7.12502,16.4201,55.2214,-17.0503,3.19133,16.2351,39.5442,-21.3506,2.41521,13.5739,-13.5396,0.648868,-23.267,33.0476,-20.365,4.90563,-5.35542
0.780892,17.5426,1.90766,7.79909,-78.4966,-3.6016,0.0254057,0.979255,-8.02214,-0.334654,1.24702,-1.56473,-0.499125,0.634065,2.86979,-22.3297,-8.52417,-14.9826,-22.4977,-8.53388,12.8081,-2.27306,-3.93846,6.15935,3.23025e-14,5.56597e-15,-23.8502,-0.254252,-63.8968,55.9949,10.4931,-26.3262,3.49626,7.12502,0.230649,-26.4834,3.23025e-14,5.56597e-15,-31.1203,2.04889,80.8921,28.0553,-7.65375,-9.72262,25.6952,7.12502,16.2507,55.0342,-17.0208,2.5521,16.3224,39.7826,-20.9424,2.32099,11.3859,-13.3303,1.01965,-23.237,32.957,-20.3499,4.63402,-5.52568
0.769317,17.545,1.91456,7.59763,-78.5287,-3.50243,0.0762478,0.973768,-8.10097,-0.324994,1.23449,-1.56446,-0.518131,0.628357,2.91318,-22.4706,-8.51539,-14.9369,-22.5646,-8.51149,12.8923,-2.27453,-3.93107,6.18061,-3.85642e-14,3.18055e-14,-23.3268,-0.612585,-62.5875,57.0978,10.1841,-26.7365,2.85895,7.12502,-0.165576,-27.1207,-3.85642e-14,3.18055e-14,-31.1433,1.87492,80.8741,28.4545,-7.47788,-9.5398,25.2373,7.12502,16.4268,54.5618,-17.0143,2.07134,16.3362,40.0175,-20.5895,2.29388,10.7758,-13.1237,1.12354,-23.2717,32.8968,-20.3854,4.5892,-5.3519
0.760709,17.5467,1.9197,7.89339,-78.4931,-3.79879,0.0957256,0.964186,-8.11154,-0.401013,1.21809,-1.43667,-0.609011,0.626864,3.05006,-22.3953,-8.6344,-15.4162,-22.6685,-8.55067,13.2061,-2.272,-3.92175,6.36329,6.10269e-14,-4.37326e-14,-22.8706,-0.986611,-60.9793,58.2133,10.209,-27.1956,2.51162,7.12502,-0.609018,-27.4673,6.10269e-14,-4.37326e-14,-31.3065,1.51181,81.1577,28.8764,-6.99977,-9.33874,24.9773,7.12502,16.6203,54.2857,-17.1299,1.71847,16.4269,40.2193,-20.5102,2.32584,10.8114,-13.087,1.01101,-23.2094,32.8964,-20.4333,4.6253,-5.04462
0.753442,17.5473,1.92323,9.28578,-78.3956,-5.24382,0.151359,0.924641,-7.86929,-0.462011,1.16184,-1.2892,-0.694847,0.604416,3.06675,-22.3275,-8.70573,-15.693,-22.8055,-8.58124,13.4223,-2.29348,-3.92268,6.4839,1.81888e-14,-1.43125e-14,-22.2833,-1.36819,-59.461,59.319,10.3586,-27.454,2.63834,7.12502,-0.858598,-27.3397,1.81888e-14,-1.43125e-14,-31.4748,0.974178,81.3814,29.3771,-6.35089,-9.712,24.9778,7.12502,16.261,54.3159,-17.2008,1.11179,16.7917,40.3617,-20.3449,2.42935,10.1622,-13.0714,0.790977,-22.8825,32.9824,-20.4672,4.79133,-4.91645
0.744587,17.5484,1.92743,10.9448,-78.2434,-7.12782,0.332138,0.825649,-7.49843,-0.447235,1.01875,-1.22156,-0.759217,0.534401,2.92929,-22.4479,-8.61995,-15.4848,-22.8492,-8.49561,13.4908,-2.30306,-3.89722,6.479,-3.47873e-14,2.94201e-14,-21.5231,-1.65787,-58.1731,60.3604,10.5964,-27.8786,2.65317,7.12502,-1.26864,-27.3228,-3.47873e-14,2.94201e-14,-31.5711,0.597694,81.2421,29.8764,-5.88862,-10.1322,24.9486,7.12502,15.8563,54.3193,-17.0668,0.390526,17.2705,40.5048,-20.0574,2.46587,9.12236,-12.88,0.465025,-22.4519,33.0902,-20.5639,5.04911,-4.99661
0.733211,17.5468,1.93387,12.5571,-78.1593,-9.00341,0.463639,0.737839,-7.10862,-0.39379,0.898301,-1.16622,-0.759179,0.472253,2.76957,-22.5727,-8.51981,-15.2378,-22.9048,-8.40012,13.5642,-2.31764,-3.87062,6.47073,1.0635e-14,-8.74653e-15,-20.6592,-1.87914,-56.8873,61.3566,11.0994,-28.4383,2.44109,7.12502,-1.8092,-27.531,1.0635e-14,-8.74653e-15,-31.6397,0.270339,81.0506,30.4118,-5.41056,-10.2085,25.0047,7.12502,15.7829,54.3813,-16.9029,0.0341536,17.6975,40.7033,-19.9674,2.58886,9.16922,-12.61,0.360593,-22.0386,33.1577,-20.6603,5.12369,-4.98254
0.722203,17.5457,1.9391,12.2578,-78.3037,-8.84515,0.567384,0.69633,-7.16066,-0.42143,0.830542,-1.21186,-0.839435,0.44135,2.75098,-22.6695,-8.41982,-15.0518,-22.8723,-8.29638,13.5915,-2.31108,-3.83323,6.45472,-6.75868e-15,-4.77083e-15,-19.8248,-2.04369,-55.5629,62.4472,11.6002,-28.949,2.13813,7.12502,-2.30247,-27.8292,-6.75868e-15,-4.77083e-15,-31.8096,-0.00804501,80.9168,30.9422,-4.91439,-10.0715,25.1834,7.12502,15.9148,54.5494,-16.9332,0.0206442,17.6033,41.008,-19.9791,2.68357,10.0047,-12.3667,0.308366,-22.1347,33.1354,-20.7159,5.28757,-5.00418
0.715229,17.55,1.9392,11.4711,-78.398,-8.04396,0.617581,0.635863,-7.36136,-0.505454,0.736226,-1.29016,-0.947044,0.399751,2.78237,-22.7541,-8.34435,-14.8787,-22.8327,-8.22226,13.6288,-2.29872,-3.80949,6.44118,7.90169e-15,1.11319e-14,-18.9343,-2.29338,-54.2188,63.5229,11.923,-29.469,1.99226,7.12502,-2.80463,-27.969,7.90169e-15,1.11319e-14,-31.976,-0.344547,80.7476,31.4441,-4.53719,-9.75574,24.9462,7.12502,16.2189,54.2878,-17.175,-0.11151,17.4312,41.4122,-19.865,2.57459,9.81207,-12.2616,0.165,-22.3296,33.0261,-20.6987,5.45213,-4.87627
0.709774,17.552,1.94676,11.1433,-78.4141,-7.79392,0.724632,0.589317,-7.36541,-0.528013,0.662373,-1.3153,-1.02277,0.365668,2.75873,-22.8282,-8.3151,-14.8475,-22.8472,-8.181,13.6803,-2.29618,-3.79225,6.45558,1.2275e-14,7.95139e-15,-17.8911,-2.66251,-52.6779,64.4667,12.0003,-29.8767,2.31563,7.12502,-3.19843,-27.6401,1.2275e-14,7.95139e-15,-32.0239,-0.648801,80.6156,31.8796,-4.24627,-9.50116,24.5812,7.12502,16.464,53.9026,-17.3248,-0.607686,17.3757,41.8469,-19.3819,2.62272,9.0784,-12.0583,-0.046125,-22.4195,32.8743,-20.6233,5.67164,-4.96066
0.702443,17.5525,1.9576,10.6664,-78.478,-7.40483,0.79484,0.588213,-7.32871,-0.538231,0.65252,-1.38408,-1.07057,0.36155,2.66671,-22.9767,-8.31153,-14.6768,-22.7591,-8.20712,13.5627,-2.26254,-3.8126,6.37926,-2.34566e-14,9.54166e-15,-16.8335,-3.19987,-51.0554,65.411,12.0116,-29.8718,2.75064,7.12502,-3.19367,-27.2052,-2.34566e-14,9.54166e-15,-32.0185,-1.03,80.4928,32.3185,-4.02592,-9.71367,24.5303,7.12502,16.2594,53.8685,-17.4536,-1.17663,17.2698,42.2779,-18.7235,2.70707,7.2271,-11.8338,-0.10112,-22.5555,32.7237,-20.5703,5.83742,-4.93786
0.684752,17.5541,1.95494,11.3823,-78.4654,-8.25131,0.763589,0.565242,-7.26592,-0.52157,0.630031,-1.26232,-1.03395,0.349826,2.75827,-23.0384,-8.35631,-14.7433,-22.7307,-8.25121,13.5274,-2.24282,-3.8281,6.37205,7.00716e-15,3.18055e-15,-15.6564,-3.67975,-49.2265,66.3217,12.1246,-29.7503,3.07912,7.12502,-3.07634,-26.8784,7.00716e-15,3.18055e-15,-32.0121,-1.31323,80.4929,32.7085,-3.86462,-9.97995,24.5124,7.12502,16.003,53.8714,-17.4755,-1.37422,17.4739,42.6162,-18.5506,2.73016,6.46768,-11.6025,-0.315731,-22.3554,32.6414,-20.5637,6.00802,-4.35573
0.672256,17.5501,1.95944,10.9636,-78.5334,-7.92257,0.777869,0.568952,-7.31651,-0.538796,0.632208,-1.25005,-1.06083,0.352586,2.79883,-23.0644,-8.38592,-14.8523,-22.6518,-8.26401,13.5105,-2.21215,-3.82419,6.37908,-2.83268e-15,8.74653e-15,-14.4904,-4.17813,-47.4191,67.2781,12.3187,-29.8464,2.83511,7.12502,-3.16912,-27.1211,-2.83268e-15,8.74653e-15,-31.9921,-1.69803,80.4789,33.0339,-3.82475,-9.86345,24.5001,7.12502,16.1151,53.85,-17.5309,-1.57658,17.3471,42.9642,-18.55,2.983,6.94302,-11.3658,-0.544325,-22.4752,32.5366,-20.5806,6.29306,-4.34794
0.653181,17.5516,1.9571,12.0694,-78.5908,-9.2108,0.792494,0.562434,-7.19008,-0.53638,0.627569,-1.12663,-1.06574,0.351052,2.85574,-23.0234,-8.35,-14.9392,-22.5937,-8.19946,13.5342,-2.20203,-3.78613,6.40544,3.80673e-14,2.94201e-14,-13.2349,-4.47702,-45.6743,68.3255,11.9477,-30.0371,2.8739,7.12502,-3.35328,-27.0795,3.80673e-14,2.94201e-14,-31.9155,-2.01974,80.3651,33.2898,-3.81427,-9.38448,24.5255,7.12502,16.5763,53.8375,-17.5119,-1.6517,17.5685,43.2696,-18.3405,3.2931,8.07131,-11.0693,-0.684283,-22.2189,32.4546,-20.6126,6.56831,-4.7454
0.640507,17.5549,1.96033,11.8262,-78.7172,-9.11678,0.89405,0.517266,-7.21633,-0.565685,0.557232,-1.09093,-1.14659,0.319816,2.9076,-23.0273,-8.39341,-15.1777,-22.5701,-8.17328,13.9021,-2.1591,-3.76238,6.56519,1.31198e-14,4.77083e-15,-11.783,-4.76601,-43.9329,69.2543,11.2956,-29.9533,3.4038,7.12502,-3.27232,-26.5508,1.31198e-14,4.77083e-15,-31.8641,-2.27703,80.2068,33.55,-3.76244,-8.92485,24.4371,7.12502,17.0188,53.7116,-17.5594,-1.96684,17.4601,43.6315,-17.7386,3.66703,8.45685,-10.7734,-0.678199,-22.2747,32.3459,-20.6586,6.64964,-4.58462
0.624014,17.5574,1.95507,11.9116,-78.6959,-9.3007,0.916613,0.41467,-7.17624,-0.587732,0.418128,-1.09295,-1.16724,0.251346,2.88582,-23.0954,-8.40872,-15.2438,-22.4915,-8.15407,14.1168,-2.10807,-3.75063,6.64232,8.49804e-15,-1.35174e-14,-10.2258,-5.4439,-42.3974,69.9418,11.0269,-29.7739,3.03469,7.12502,-3.09911,-26.9225,8.49804e-15,-1.35174e-14,-31.7464,-2.5729,79.9183,33.7528,-3.74286,-8.707,24.3941,7.12502,17.2285,53.6504,-17.6124,-2.37596,17.54,43.9648,-17.1025,3.68311,7.9365,-10.5669,-0.693106,-22.1964,32.2527,-20.6698,6.60799,-4.57237
0.614186,17.5563,1.95702,11.4467,-78.6916,-8.94245,1.05858,0.371504,-7.16967,-0.639538,0.343702,-1.15264,-1.29263,0.218757,2.8211,-23.1867,-8.41567,-15.1798,-22.301,-8.15749,14.1656,-2.0339,-3.75328,6.63598,-1.23246e-14,-1.27222e-14,-8.75542,-6.16273,-40.8055,70.6269,10.8585,-30.0061,2.2723,7.12502,-3.32335,-27.6815,-1.23246e-14,-1.27222e-14,-31.6166,-3.06307,79.7102,33.9455,-3.69049,-8.90683,24.4557,7.12502,17.0361,53.7287,-17.6486,-2.86334,17.471,44.2891,-16.6683,3.74249,6.18683,-10.339,-0.755652,-22.2483,32.1491,-20.6998,6.5029,-4.4135
0.59614,17.5587,1.94938,11.5101,-78.6496,-9.00625,1.11029,0.362443,-7.5395,-0.799477,0.317706,-0.910942,-1.4892,0.222002,3.27713,-23.1636,-8.41925,-15.2364,-22.0835,-8.16366,13.9491,-1.98482,-3.745,6.56495,2.89729e-14,-1.59028e-15,-7.413,-6.42283,-38.6787,71.5521,10.5564,-30.5954,1.43881,7.12502,-3.8924,-28.5054,2.89729e-14,-1.59028e-15,-31.6003,-3.5046,79.8798,34.1078,-3.52835,-9.09074,24.4743,7.12502,16.8591,53.7625,-17.7569,-3.02268,17.4915,44.5549,-16.529,3.80244,5.90677,-10.232,-0.837407,-22.1912,32.0773,-20.7403,6.5133,-4.82797
0.575555,17.5628,1.94067,12.2177,-78.6885,-9.83536,1.09683,0.312039,-7.42415,-0.835927,0.252731,-0.894813,-1.51126,0.190396,3.23096,-23.2121,-8.38506,-15.1093,-21.911,-8.13612,13.9678,-1.92944,-3.73805,6.54352,1.43373e-14,1.74931e-14,-5.7871,-7.0028,-37.1179,72.178,10.5308,-31.0827,1.22915,7.12502,-4.36295,-28.7059,1.43373e-14,1.74931e-14,-31.4843,-3.90519,79.5408,34.3274,-3.40728,-9.25708,24.5813,7.12502,16.699,53.8831,-17.7627,-3.09277,17.641,44.8019,-16.193,4.00712,7.0886,-10.0063,-0.697234,-21.9497,31.996,-20.7555,6.37094,-4.73706
0.558309,17.5653,1.94131,11.8644,-78.7609,-9.62399,1.18339,0.241931,-7.33479,-0.893077,0.14816,-0.969922,-1.60688,0.141066,3.10561,-23.3273,-8.31489,-14.9802,-21.633,-8.05741,13.9295,-1.84463,-3.70206,6.50223,2.15681e-14,6.36111e-15,-3.90035,-7.65444,-35.5929,72.4934,10.409,-31.462,1.64488,7.12502,-4.72924,-28.2823,2.15681e-14,6.36111e-15,-31.4207,-4.11787,79.1278,34.5066,-3.49374,-9.41126,24.4692,7.12502,16.5505,53.7834,-17.6875,-3.43747,17.5136,44.9439,-15.7051,4.35025,7.07741,-9.74261,-0.845368,-21.9896,31.9986,-20.9636,6.31926,-3.98696
0.544796,17.5644,1.94502,10.8211,-78.7465,-8.63076,1.22509,0.172637,-7.24791,-0.970444,0.0439334,-1.1605,-1.69881,0.090542,2.86263,-23.2969,-8.22196,-14.7679,-21.5197,-7.98679,13.8737,-1.83084,-3.67999,6.45129,2.56929e-14,-9.54166e-15,-2.21122,-8.55192,-34.155,72.9019,10.0404,-31.727,1.81199,7.12502,-4.98516,-28.1094,2.56929e-14,-9.54166e-15,-31.2554,-4.60469,78.6849,34.6038,-3.51844,-9.37893,24.4563,7.12502,16.5817,53.7679,-17.6289,-3.66579,17.2496,45.0415,-15.3435,4.55205,7.02144,-9.60779,-0.927624,-22.1848,32.0496,-21.1258,6.23267,-3.66915
0.512429,17.568,1.92625,14.406,-78.4339,-12.496,1.31733,0.1581,-6.64092,-1.05018,0.0375986,-0.824138,-1.83007,0.0911005,2.87111,-23.0863,-8.33053,-15.0998,-21.3945,-8.0626,13.9773,-1.78904,-3.69445,6.53107,5.38831e-14,-1.59028e-14,-0.772897,-9.38642,-32.2894,73.393,9.54651,-31.8755,1.17605,7.12502,-5.12853,-28.7419,5.38831e-14,-1.59028e-14,-31.1142,-4.9356,78.6133,34.567,-3.81235,-9.43114,24.4296,7.12502,16.5314,53.7453,-17.3076,-3.47169,18.2192,45.1701,-15.4889,4.36584,7.20681,-9.3023,-0.881178,-21.1814,32.0289,-21.1931,5.92775,-3.1444
0.485996,17.5686,1.91279,16.193,-78.2704,-14.4931,1.44072,0.232411,-6.25393,-1.16027,0.141528,-0.491845,-2.02222,0.150428,2.99429,-23.1398,-8.7043,-15.9261,-20.9205,-8.34703,13.9991,-1.57638,-3.76626,6.62371,-7.07549e-15,-2.06736e-14,0.742858,-9.96426,-29.8759,73.8425,8.86999,-32.2439,0.561009,7.12502,-5.48419,-29.348,-7.07549e-15,-2.06736e-14,-30.9234,-5.18591,78.886,34.5103,-3.99152,-9.68356,24.6203,7.12502,16.2884,53.9561,-17.0381,-3.5293,18.7417,45.2,-15.4422,4.32744,6.87598,-9.09449,-0.652527,-20.6057,32.1274,-21.2527,5.64468,-3.06019
0.474204,17.5651,1.90812,11.0211,-78.5218,-8.88902,1.00295,0.0780714,-6.96588,-1.26432,-0.071021,-1.11976,-1.86551,0.0421428,2.75001,-23.5271,-8.6063,-15.2458,-20.5413,-8.33794,13.7664,-1.45114,-3.79557,6.41241,-6.70898e-16,1.98785e-14,2.5758,-10.791,-28.7485,74.1708,8.3741,-32.8253,0.889494,7.12502,-6.0456,-29.0042,-6.70898e-16,1.98785e-14,-30.5398,-5.44492,78.0018,34.5362,-4.16984,-9.47315,24.7741,7.12502,16.4909,54.0933,-17.512,-3.91413,17.4528,45.4218,-15.0939,4.66607,6.59918,-9.38154,-0.507436,-21.8448,32.107,-21.14,5.58878,-3.22814
0.444482,17.5694,1.89507,15.1866,-78.0323,-13.6009,1.20809,-0.156606,-5.64961,-1.15899,-0.364629,-1.14636,-1.84598,-0.122993,1.99615,-23.4863,-8.36117,-14.6355,-20.5274,-8.15563,13.8453,-1.48155,-3.74975,6.35572,-6.30617e-15,-1.43125e-14,4.41436,-11.7037,-27.8301,74.397,8.00248,-33.3319,1.2719,7.12502,-6.53459,-28.6073,-6.30617e-15,-1.43125e-14,-30.2362,-5.65826,76.9883,34.4967,-4.39296,-9.45361,24.7246,7.12502,16.5098,54.0422,-16.8242,-4.02657,18.6254,45.3242,-15.0975,4.55985,6.47922,-8.92322,-0.664729,-20.6243,32.3071,-21.2597,5.49902,-3.656
0.426297,17.5668,1.89028,11.1645,-78.1821,-9.20126,0.906326,-0.213074,-6.36243,-1.36076,-0.456273,-1.52524,-1.87824,-0.161312,2.00467,-23.0481,-8.23838,-14.6047,-20.77,-8.03787,14.0049,-1.60931,-3.70637,6.43306,3.63341e-14,1.11319e-14,5.97417,-12.7537,-26.438,74.6163,7.88828,-33.5961,1.46626,7.12502,-6.78972,-28.4049,3.63341e-14,1.11319e-14,-30.0203,-6.16156,76.4723,34.4945,-4.4066,-9.27895,24.5681,7.12502,16.6779,53.8716,-17.1445,-4.3169,17.6121,45.3619,-14.7989,4.74162,6.25588,-9.25431,-0.738752,-21.62,32.461,-21.3029,5.58694,-3.88508
0.393094,17.5723,1.87216,18.0201,-77.5618,-16.8115,1.35596,-0.114318,-4.64271,-1.25669,-0.298025,-1.16695,-2.03705,-0.0970728,1.41146,-23.0076,-8.34981,-14.4217,-20.6978,-8.23273,13.8093,-1.58883,-3.80831,6.31829,-1.758e-14,1.59028e-14,7.00218,-14.0832,-24.7379,74.8893,7.8446,-33.8736,1.49911,7.12502,-7.05759,-28.3632,-1.758e-14,1.59028e-14,-29.5889,-7.12662,76.1762,34.5138,-4.26211,-9.14655,24.7128,7.12502,16.8054,54.0055,-16.1606,-4.18741,19.5777,45.035,-14.897,4.4451,6.21415,-8.73322,-0.574734,-19.6009,32.8591,-21.5893,5.178,-4.01823
0.365878,17.5726,1.85673,20.1792,-77.1543,-19.1654,1.4289,-0.0367573,-4.01478,-1.30278,-0.181079,-1.07229,-2.13226,-0.0438122,1.15434,-23.4947,-8.51465,-13.9511,-20.1443,-8.52476,13.2418,-1.38597,-3.95676,5.99619,-6.24929e-15,1.59028e-14,8.07345,-15.3112,-22.9023,75.0825,7.88405,-34.2864,1.1589,7.12502,-7.45604,-28.6897,-6.24929e-15,1.59028e-14,-29.1036,-7.74371,75.9947,34.4393,-4.3842,-9.40084,25.2221,7.12502,16.5606,54.5355,-15.8196,-4.18635,20.3389,44.9037,-14.9541,4.22526,6.00591,-8.64896,-0.629784,-18.8283,33.114,-21.6956,5.04416,-4.47237
0.344212,17.5709,1.84155,19.6282,-77.0063,-18.6162,1.48268,0.0240438,-4.01628,-1.43453,-0.111091,-1.16876,-2.30202,-0.00598229,1.05372,-23.809,-8.61038,-13.6915,-19.6571,-8.6812,12.8901,-1.21684,-4.03071,5.79909,-1.27471e-14,-3.49861e-14,9.24768,-16.4715,-20.9842,75.134,7.99013,-34.6771,1.23019,7.12502,-7.83315,-28.6047,-1.27471e-14,-3.49861e-14,-28.6599,-8.04819,75.7518,34.297,-4.81835,-9.65851,25.5038,7.12502,16.3125,54.8376,-15.6479,-4.23092,20.3113,44.7062,-14.9089,4.13494,6.15522,-8.7384,-0.493985,-18.809,33.4463,-21.825,4.85226,-5.18842
0.32095,17.5715,1.8248,19.4551,-76.8143,-18.5511,1.63044,0.161796,-3.81643,-1.53615,0.0641173,-1.25003,-2.49756,0.0811989,0.851835,-23.4949,-8.87058,-14.2025,-19.7198,-8.90181,13.2337,-1.20282,-4.10865,5.97843,-6.88292e-15,1.43125e-14,10.1396,-17.739,-18.8314,75.0975,8.17482,-35.3848,1.57427,7.12502,-8.51609,-28.234,-6.88292e-15,1.43125e-14,-28.1467,-8.45958,75.5786,34.1041,-5.48989,-9.92579,25.3668,7.12502,16.0551,54.7216,-15.4169,-4.08874,20.4062,44.6694,-14.9727,4.12146,7.20068,-8.65494,-0.47768,-18.6675,33.6064,-21.8787,4.70495,-5.45481
0.298238,17.5729,1.80284,19.7946,-76.56,-18.949,1.7175,0.259278,-3.62655,-1.64081,0.192798,-1.2209,-2.65903,0.145855,0.769903,-22.9279,-9.19364,-15.1641,-20.0322,-9.11055,14.0551,-1.23888,-4.16479,6.40121,2.15681e-14,0,11.3593,-19.0107,-16.8375,74.69,8.78128,-36.4972,2.01079,7.12502,-9.58955,-27.751,2.15681e-14,0,-27.6146,-8.53941,75.4579,33.8822,-6.19555,-10.3491,25.1119,7.12502,15.6474,54.4991,-15.2741,-3.84118,20.6964,44.6814,-15.191,3.95595,7.46357,-8.63349,-0.360661,-18.3448,33.7061,-21.8856,4.49333,-5.94191
0.272684,17.5726,1.78353,19.8515,-76.3891,-19.0671,1.76646,0.286951,-3.54068,-1.7661,0.225859,-1.20818,-2.81675,0.164159,0.732801,-22.5993,-9.3165,-15.5699,-20.0689,-9.19467,14.3408,-1.23936,-4.18573,6.55905,2.6662e-14,5.24792e-14,12.8783,-20.0951,-15.0979,74.1261,9.41066,-37.514,2.30052,7.12502,-10.5705,-27.4137,2.6662e-14,5.24792e-14,-27.2185,-8.068,75.242,33.679,-6.98978,-10.4536,25.0027,7.12502,15.5468,54.3978,-15.1176,-3.67095,20.8789,44.6872,-15.3123,3.77182,6.70267,-8.59496,-0.163105,-18.1278,33.8313,-21.8177,4.28507,-6.16683
0.246307,17.5697,1.76736,19.5334,-76.2214,-18.8175,1.83292,0.307713,-3.41638,-1.94178,0.243994,-1.30975,-3.03515,0.173212,0.556869,-22.2405,-9.33175,-15.5007,-20.0251,-9.27701,14.1586,-1.27592,-4.23223,6.48772,-1.59525e-14,-9.54166e-15,14.3833,-21.0346,-13.4224,73.3943,9.94302,-38.1819,2.61997,7.12502,-11.2147,-27.0603,-1.59525e-14,-9.54166e-15,-27.0227,-8.02076,74.9266,33.6515,-7.35305,-10.4063,25.1342,7.12502,15.5923,54.5257,-14.9377,-3.68993,20.943,44.6744,-15.3193,3.72063,6.33695,-8.53935,-0.39327,-18.0739,34.0025,-21.819,4.41895,-5.96293
0.221417,17.5676,1.74741,19.4969,-75.99,-18.8129,1.9053,0.298118,-3.28748,-2.13912,0.222296,-1.36947,-3.27826,0.162783,0.422911,-21.6533,-9.39188,-15.6364,-20.2992,-9.38227,14.3599,-1.3939,-4.2901,6.59018,-6.31141e-15,2.38542e-14,16.0817,-22.1113,-12.032,72.3635,10.6952,-38.7067,3.28777,7.12502,-11.7208,-26.3643,-6.31141e-15,2.38542e-14,-26.9469,-8.3808,74.6102,33.8108,-7.30926,-10.5812,25.2754,7.12502,15.4239,54.68,-14.7883,-3.82788,21.1141,44.6513,-15.3533,3.67035,5.48815,-8.55662,-0.685218,-17.914,34.2015,-21.8482,4.44511,-5.61454
0.201169,17.5725,1.71694,19.8317,-75.6558,-19.0619,1.99622,0.238167,-3.24829,-2.38528,0.131192,-1.33624,-3.58159,0.122058,0.437943,-21.2802,-9.43727,-15.7238,-20.3875,-9.45567,14.4923,-1.44086,-4.32853,6.65273,-3.32467e-14,-1.11319e-14,17.7011,-23.3216,-10.697,71.219,11.3102,-39.316,4.05115,7.12502,-12.3084,-25.5666,-3.32467e-14,-1.11319e-14,-26.8665,-8.60794,74.3547,33.9713,-7.29642,-10.7907,25.308,7.12502,15.2221,54.728,-14.7605,-3.76381,21.4764,44.5887,-15.4827,3.41504,4.73687,-8.79415,-0.460524,-17.5252,34.4351,-21.8188,3.99895,-6.05685
0.187992,17.5798,1.68044,19.3245,-75.2186,-18.6076,2.37929,0.0962828,-3.37439,-2.58206,-0.0881362,-1.32543,-3.99624,0.0230594,0.52974,-21.1742,-9.44502,-15.7277,-20.2365,-9.47403,14.4663,-1.40633,-4.33536,6.63897,6.4605e-16,9.54166e-15,19.5784,-24.4419,-9.51553,69.8171,11.5314,-39.931,4.50683,7.12502,-12.9012,-25.0744,6.4605e-16,9.54166e-15,-26.5967,-8.43912,74.0146,33.9867,-7.38682,-10.8671,25.5128,7.12502,15.1485,54.9384,-14.5495,-3.55628,21.7222,44.5028,-15.7535,2.98372,4.40722,-8.94387,-0.0785982,-17.2206,34.7056,-21.7238,3.26569,-6.66876
0.168337,17.5824,1.6534,19.1389,-74.9048,-18.5215,2.64116,-0.0442634,-3.32636,-2.73708,-0.291014,-1.30905,-4.29923,-0.0738999,0.531752,-21.0179,-9.48195,-16.0157,-20.0551,-9.4605,14.7216,-1.33709,-4.31286,6.76429,-5.76476e-15,-1.90833e-14,21.5641,-25.4858,-8.48577,68.4373,11.5154,-40.3096,4.54922,7.12502,-13.2662,-25.0086,-5.76476e-15,-1.90833e-14,-26.3167,-8.01801,73.6322,33.9171,-7.6039,-10.914,25.7378,7.12502,15.1033,55.1667,-14.3021,-3.3482,21.9471,44.3877,-15.8338,2.75121,5.47543,-9.00131,-0.241615,-17.0006,35.0101,-21.677,3.14512,-6.94321
0.141573,17.5827,1.63094,19.6065,-74.6686,-19.0744,2.72036,-0.10156,-3.0745,-2.87401,-0.366523,-1.35255,-4.48529,-0.117283,0.350776,-20.8053,-9.5376,-16.3158,-19.9214,-9.46552,15.1166,-1.27309,-4.30145,6.93807,2.14687e-14,-6.36111e-15,23.3583,-26.5783,-7.64142,66.9068,11.6026,-40.5455,4.58586,7.12502,-13.4936,-24.957,2.14687e-14,-6.36111e-15,-26.0556,-7.81901,73.1563,33.9021,-8.09534,-10.6063,25.4823,7.12502,15.3998,54.8887,-14.081,-3.21643,22.2894,44.2674,-15.8327,2.65752,5.95306,-9.06096,-0.391868,-16.6868,35.3224,-21.6641,3.25911,-7.30866
0.115662,17.5868,1.60546,20.2702,-74.3602,-19.7575,2.72151,-0.129896,-2.73231,-2.99339,-0.399574,-1.49383,-4.61174,-0.146372,0.0154185,-20.6263,-9.57795,-16.1815,-19.896,-9.54638,15.3295,-1.25925,-4.35417,6.97871,-1.36167e-14,6.36111e-15,24.8367,-27.7072,-6.83113,65.3218,11.8623,-40.5468,4.57497,7.12502,-13.4948,-24.9678,-1.36167e-14,6.36111e-15,-25.6287,-7.76095,72.5025,33.8277,-8.77293,-9.78783,24.5876,7.12502,16.188,53.9317,-13.9315,-3.14888,22.7336,44.1135,-15.8097,2.39424,5.02379,-9.23306,-0.195022,-16.2189,35.6764,-21.6614,2.84606,-6.9278
0.0915791,17.5904,1.57428,20.7415,-74.0522,-20.3328,2.85707,-0.161218,-2.49487,-3.08919,-0.445085,-1.6223,-4.79031,-0.178098,-0.246961,-20.5178,-9.5284,-15.661,-19.936,-9.59456,15.2831,-1.29948,-4.41238,6.87819,-4.77083e-15,2.22639e-14,26.4414,-28.8425,-6.16068,63.5711,12.199,-40.1018,4.89795,7.12502,-13.0659,-24.6728,-4.77083e-15,2.22639e-14,-25.2659,-7.75035,71.9543,33.8754,-8.98492,-9.52487,23.9977,7.12502,16.4411,53.321,-13.7012,-2.91669,23.2011,43.9707,-15.9127,1.94225,4.11343,-9.31309,0.0178443,-15.7447,36.0355,-21.6556,2.43,-7.00727
0.0672181,17.5964,1.54428,21.261,-73.7375,-20.9649,3.01779,-0.221938,-2.30111,-3.19364,-0.528026,-1.66358,-4.99166,-0.225258,-0.391922,-20.4999,-9.43509,-15.2074,-19.8457,-9.57344,15.0559,-1.3132,-4.42554,6.73026,-3.33958e-14,-2.8625e-14,28.3659,-29.9458,-5.71545,61.6485,12.6542,-39.6555,5.27745,7.12502,-12.6357,-24.3204,-3.33958e-14,-2.8625e-14,-25.0703,-7.83885,71.6255,34.0715,-8.63119,-10.176,23.8787,7.12502,15.8141,53.2528,-13.4774,-2.74926,23.6763,43.8442,-15.9843,1.59687,4.29886,-9.3898,0.0189242,-15.3026,36.3672,-21.5755,2.33256,-7.76803
0.0431054,17.6012,1.51274,21.0737,-73.4906,-20.8778,3.20801,-0.295497,-2.29054,-3.28849,-0.643983,-1.79159,-5.20039,-0.284818,-0.521113,-20.351,-9.44502,-15.2465,-19.7799,-9.58053,15.2295,-1.29215,-4.42956,6.79193,6.12257e-14,9.54166e-15,30.325,-31.0366,-5.47997,59.7043,13.2143,-39.2221,5.51838,7.12502,-12.2178,-24.1048,6.12257e-14,9.54166e-15,-24.9079,-7.81806,71.3174,34.3585,-8.21281,-11.1955,24.4719,7.12502,14.8321,53.921,-13.2838,-2.79112,23.9051,43.7676,-15.9833,1.29908,3.73344,-9.43667,0.0722742,-15.0728,36.6364,-21.4656,2.01154,-8.09808
0.0189727,17.6037,1.47867,20.3987,-73.2848,-20.3612,3.45963,-0.346239,-2.34921,-3.33381,-0.742473,-2.04999,-5.39476,-0.336775,-0.747273,-20.3419,-9.5431,-15.1735,-19.6292,-9.70467,15.4727,-1.20927,-4.49488,6.83714,8.44835e-15,-3.81667e-14,32.0395,-32.0941,-5.30051,57.7253,13.7701,-38.9632,6.06338,7.12502,-11.9682,-23.5745,8.44835e-15,-3.81667e-14,-24.6608,-8.09247,70.93,34.7006,-7.51052,-12.2279,25.3855,7.12502,13.8374,54.9052,-12.9973,-2.79829,23.9998,43.703,-16.0846,1.02428,3.25735,-9.38331,0.196854,-14.9529,36.8766,-21.2777,1.6146,-8.44486
-0.00319863,17.6094,1.44635,20.159,-73.1063,-20.2391,3.61344,-0.394362,-2.32164,-3.36515,-0.825254,-2.2491,-5.5194,-0.383464,-0.961867,-20.5895,-9.58901,-14.9057,-19.3178,-9.78383,15.5132,-1.07762,-4.53854,6.77654,6.67916e-14,-1.11319e-14,33.8827,-33.1461,-5.19961,55.5624,14.3522,-38.8549,6.59824,7.12502,-11.8638,-23.0457,6.67916e-14,-1.11319e-14,-24.3556,-8.33589,70.5085,34.9405,-7.09102,-12.4742,25.6785,7.12502,13.6,55.2143,-12.7656,-2.58511,24.2082,43.6381,-16.2378,0.70482,3.28585,-9.36693,0.14929,-14.7664,37.1077,-21.0653,1.6194,-9.33759
-0.0274754,17.6169,1.41661,20.294,-72.9478,-20.4809,3.69639,-0.446464,-2.26423,-3.40396,-0.902312,-2.33983,-5.61032,-0.425914,-1.08143,-20.905,-9.55005,-14.5619,-18.9597,-9.77844,15.2851,-0.963254,-4.53915,6.6243,-7.35503e-15,1.59028e-14,36.0592,-34.1888,-5.30515,53.2076,15.1355,-38.6156,6.52466,7.12502,-11.6329,-23.1324,-7.35503e-15,1.59028e-14,-24.1444,-8.18125,70.1604,35.1728,-7.09702,-12.5832,25.5935,7.12502,13.495,55.1363,-12.5211,-2.31566,24.5124,43.5342,-16.3437,0.443524,3.82942,-9.36534,0.135923,-14.4845,37.3651,-20.8739,1.61044,-9.64925
-0.0515644,17.624,1.38555,20.4127,-72.7683,-20.7562,3.87039,-0.487841,-2.19306,-3.46038,-0.969029,-2.43942,-5.77289,-0.463711,-1.21811,-21.0171,-9.53292,-14.2691,-18.738,-9.81042,15.1247,-0.902796,-4.56297,6.50987,1.05356e-14,-1.59028e-15,38.1296,-35.1404,-5.44593,50.9661,15.8648,-38.3162,6.41279,7.12502,-11.3442,-23.2604,1.05356e-14,-1.59028e-15,-23.9911,-8.13767,69.8592,35.4326,-7.02777,-12.7547,25.7333,7.12502,13.3297,55.287,-12.2492,-2.10205,24.8362,43.4495,-16.4549,0.227401,4.68303,-9.34066,0.305954,-14.1278,37.6012,-20.6653,1.29243,-10.2127
-0.0740693,17.6333,1.35508,20.6106,-72.6156,-21.0556,3.9819,-0.523608,-2.01469,-3.52462,-1.0235,-2.60329,-5.91143,-0.502363,-1.48329,-21.0527,-9.59236,-14.0499,-18.558,-9.92745,15.1414,-0.83458,-4.6287,6.45813,2.0276e-14,-1.11319e-14,40.0346,-36.049,-5.68001,48.9142,16.4052,-37.8107,6.31456,7.12502,-10.8566,-23.3848,2.0276e-14,-1.11319e-14,-23.7998,-8.0805,69.4773,35.6393,-6.96535,-12.8743,25.6512,7.12502,13.2144,55.2124,-12.0701,-1.99906,25.1585,43.3775,-16.4525,-0.043742,4.30003,-9.38885,0.310498,-13.7943,37.8421,-20.3531,1.07378,-10.8983
-0.0948757,17.6425,1.32484,18.9881,-72.645,-19.3286,3.97095,-0.536442,-2.45714,-3.59487,-1.10181,-2.96292,-5.98216,-0.534536,-1.6035,-21.0981,-9.67137,-13.8836,-18.3523,-10.0534,15.2459,-0.746034,-4.69505,6.44022,-4.41302e-14,1.27222e-14,42.0072,-37.0533,-6.21056,46.8825,17.1467,-37.1163,6.42262,7.12502,-10.1868,-23.3107,-4.41302e-14,1.27222e-14,-23.6071,-8.17568,69.1356,35.9228,-6.84549,-13.1672,25.6951,7.12502,12.9321,55.2744,-12.0086,-1.97058,24.7755,43.2497,-16.4072,-0.300904,3.93378,-9.60889,0.22116,-14.1796,38.1811,-20.1039,0.868302,-11.2107
-0.11625,17.6515,1.29564,18.0285,-72.537,-18.345,4.00455,-0.54888,-2.69533,-3.65424,-1.16067,-3.22632,-6.06803,-0.562295,-1.73969,-21.1808,-9.73477,-13.7037,-18.1138,-10.1626,15.2581,-0.654513,-4.75061,6.39055,3.51849e-14,1.59028e-14,43.9218,-37.9605,-6.75282,44.9619,17.9307,-36.1979,6.43317,7.12502,-9.30073,-23.3417,3.51849e-14,1.59028e-14,-23.4651,-8.31165,68.9096,36.2692,-6.79772,-13.501,25.7159,7.12502,12.6102,55.3153,-11.8692,-2.06574,24.6362,43.0471,-16.3076,-0.45421,4.32949,-9.81977,0.165851,-14.2587,38.598,-19.877,0.520377,-11.5209
-0.143676,17.6599,1.26431,20.7098,-72.0977,-21.3145,4.08135,-0.584005,-1.77958,-3.68434,-1.13551,-3.08777,-6.15542,-0.58342,-2.11067,-21.3193,-9.80793,-13.653,-17.776,-10.2551,15.2429,-0.525597,-4.78612,6.34943,-1.27222e-14,-1.59028e-15,45.9432,-38.6947,-7.36082,43.1483,18.6336,-35.1498,5.80879,7.12502,-8.28933,-24.0086,-1.27222e-14,-1.59028e-15,-23.3614,-8.39593,68.7492,36.5663,-6.66466,-13.6829,25.6515,7.12502,12.4348,55.2616,-11.5219,-2.03475,25.9004,42.8144,-16.2378,-0.69467,4.61072,-9.89946,0.353272,-12.8856,39.0147,-19.579,-0.0228943,-12.6447
-0.167434,17.6709,1.23892,22.4579,-71.8617,-23.1804,4.0364,-0.580158,-1.07252,-3.75348,-1.0831,-3.1117,-6.21429,-0.58939,-2.5389,-21.3444,-9.85617,-13.5833,-17.5763,-10.3289,15.2574,-0.453297,-4.81971,6.32553,-1.19271e-14,-6.36111e-15,48.1743,-39.4458,-8.39477,41.3867,19.4157,-34.3406,5.33063,7.12502,-7.50835,-24.5161,-1.19271e-14,-6.36111e-15,-23.2299,-8.61171,68.5527,36.8122,-6.32896,-13.8283,25.5869,7.12502,12.2947,55.2055,-11.3129,-1.88071,26.7237,42.5704,-16.1167,-0.928628,4.18749,-10.0471,0.342786,-11.9941,39.4006,-19.2928,-0.303313,-13.7041
-0.189363,17.6827,1.21021,21.0788,-72.0136,-21.6683,3.95089,-0.526241,-1.48263,-3.85786,-1.07072,-3.45811,-6.27699,-0.578859,-2.67344,-21.292,-9.94731,-13.6059,-17.4024,-10.4408,15.4016,-0.377542,-4.86947,6.35594,2.8625e-14,1.43125e-14,50.426,-40.2009,-9.69722,39.8039,20.342,-33.558,5.00197,7.12502,-6.7529,-24.8703,2.8625e-14,1.43125e-14,-23.1583,-8.97884,68.4117,37.1483,-5.99924,-13.9738,25.5949,7.12502,12.1544,55.2218,-11.2463,-1.82246,26.2982,42.3617,-15.9313,-1.06546,3.6799,-10.23,0.221039,-12.3757,39.7093,-18.9825,-0.457069,-14.3927
-0.218856,17.6947,1.17706,20.1657,-71.9983,-20.9703,4.12077,-0.482715,-1.85203,-3.89201,-1.05534,-3.55181,-6.40702,-0.558333,-2.56504,-21.2107,-10.109,-13.9731,-17.1595,-10.5746,15.5937,-0.262644,-4.90935,6.45221,6.06293e-14,0,52.5188,-40.7962,-10.6608,38.4845,20.9399,-32.8615,4.76298,7.12502,-6.08051,-25.1298,6.06293e-14,0,-23.2012,-9.1051,68.5724,37.5071,-5.78872,-14.1852,25.7648,7.12502,11.9505,55.4037,-10.8201,-1.90183,26.2083,42.1958,-15.8064,-1.13178,3.29264,-10.0645,0.165697,-12.3514,39.9623,-18.6104,-0.982492,-14.4752
-0.241216,17.7124,1.14483,20.2632,-72.0176,-21.2455,4.30697,-0.385847,-1.98829,-3.97193,-0.947714,-3.54579,-6.59395,-0.499033,-2.493,-21.2774,-10.2822,-14.2438,-16.7612,-10.7395,15.5474,-0.104973,-4.96198,6.44417,4.83047e-14,-3.65764e-14,54.4863,-41.2925,-11.5985,37.3551,21.2507,-32.4093,4.63467,7.12502,-5.64389,-25.2702,4.83047e-14,-3.65764e-14,-23.2411,-9.12185,68.8032,37.8249,-5.74495,-14.4936,25.7527,7.12502,11.6531,55.4087,-10.5024,-1.63867,26.4582,41.9938,-15.6323,-1.35812,3.20216,-10.0301,0.0261315,-12.0392,40.2572,-18.1673,-1.39545,-14.4318
-0.252196,17.7248,1.11729,21.5336,-71.9448,-22.4567,4.35043,-0.320163,-1.67609,-4.16028,-0.849971,-3.56366,-6.8211,-0.467782,-2.69944,-21.4195,-10.2831,-13.9148,-16.2993,-10.8139,15.0499,0.000750227,-4.99977,6.20557,1.66979e-14,-5.24792e-14,56.8501,-41.7935,-13.3658,36.2923,21.9172,-32.0259,4.38344,7.12502,-5.27378,-25.5309,1.66979e-14,-5.24792e-14,-23.2987,-9.16244,68.8641,38.171,-5.73329,-14.6465,25.8255,7.12502,11.5057,55.4898,-10.4918,-1.35595,27.0139,41.6501,-15.387,-1.55691,3.68374,-10.4546,-0.153393,-11.4235,40.7158,-17.7899,-1.67727,-14.4963
-0.276275,17.7355,1.09387,23.6881,-71.5879,-24.6963,4.29527,-0.268548,-0.872922,-4.29858,-0.717826,-3.50098,-6.93973,-0.440867,-3.10139,-21.3653,-10.364,-13.8106,-15.9957,-10.9539,14.802,0.0756488,-5.06637,6.08554,2.28602e-14,0,59.4158,-42.2998,-15.6433,35.3606,23.0152,-31.5725,3.99751,7.12502,-4.83592,-25.9273,2.28602e-14,0,-23.3137,-9.53468,68.9853,38.4551,-5.4057,-14.8219,25.6907,7.12502,11.3365,55.3643,-10.2834,-1.45933,27.9367,41.2567,-15.1377,-1.53878,3.8232,-10.7498,-0.0387929,-10.3204,41.1967,-17.5188,-2.17052,-15.4169
-0.305184,17.7474,1.07074,25.4753,-71.2428,-26.6222,4.22522,-0.213422,-0.202619,-4.38291,-0.587081,-3.42392,-6.98844,-0.407914,-3.41308,-21.2827,-10.5174,-13.9286,-15.8202,-11.1351,14.8339,0.149394,-5.14534,6.08864,-8.74653e-15,3.49861e-14,61.991,-42.6979,-18.0035,34.6569,23.8018,-31.3804,3.92182,7.12502,-4.65046,-26.0071,-8.74653e-15,3.49861e-14,-23.2738,-9.96196,69.1433,38.666,-4.8905,-15.2944,25.3197,7.12502,10.8808,55.0178,-10.0017,-1.6485,28.7526,40.9195,-14.7348,-1.51259,2.95137,-10.8847,0.197814,-9.30096,41.5834,-17.2581,-2.75296,-16.4985
-0.329641,17.7611,1.04428,25.459,-71.324,-26.7522,4.3185,-0.0988816,-0.301443,-4.44644,-0.450292,-3.47251,-7.10223,-0.339134,-3.42417,-21.0674,-10.6518,-14.2006,-15.8178,-11.2708,14.9232,0.16063,-5.20129,6.14971,3.4191e-14,-9.54166e-15,64.0739,-42.9036,-19.7511,34.2851,23.8027,-31.2677,3.52474,7.12502,-4.54162,-26.4066,3.4191e-14,-9.54166e-15,-23.326,-10.2067,69.4549,38.9553,-4.57123,-15.6688,25.4514,7.12502,10.5197,55.1681,-9.67547,-1.56175,28.8257,40.6454,-14.3617,-1.51861,2.59929,-10.8013,0.213918,-9.10534,41.8453,-16.9091,-3.07306,-17.2266
-0.3509,17.7764,1.01725,24.1723,-71.6047,-25.6571,4.59039,0.0518549,-0.839863,-4.49775,-0.313148,-3.60819,-7.30592,-0.251406,-3.28112,-20.957,-10.7926,-14.4239,-15.677,-11.4194,14.8647,0.212162,-5.26065,6.14715,-9.14409e-15,1.59028e-14,66.0463,-43.0007,-21.3547,33.9843,23.71,-31.0838,3.00309,7.12502,-4.36404,-26.9319,-9.14409e-15,1.59028e-14,-23.4659,-10.2872,69.9382,39.2519,-4.25393,-16.152,25.4736,7.12502,10.0535,55.2134,-9.27173,-1.50263,28.3959,40.4071,-14.0121,-1.39632,3.49353,-10.5751,0.100655,-9.41438,42.0525,-16.4488,-3.37913,-17.1852
-0.37095,17.7915,0.993132,24.234,-71.6216,-25.8101,4.67167,0.0655264,-0.831974,-4.52215,-0.312036,-3.76752,-7.38171,-0.25852,-3.45574,-21.2228,-10.7782,-13.9881,-15.414,-11.4708,14.69,0.295428,-5.29579,6.00008,3.22031e-14,9.54166e-15,68.3436,-43.0413,-23.7192,33.699,23.7642,-31.0408,2.74643,7.12502,-4.32249,-27.1895,3.22031e-14,9.54166e-15,-23.5445,-10.3308,70.0095,39.5633,-3.42312,-17.0512,25.1345,7.12502,9.18597,54.9145,-9.05231,-1.70777,28.4714,40.1672,-13.4835,-1.24516,3.87188,-10.6053,0.169338,-9.1465,42.283,-15.9299,-3.91062,-16.9389
-0.394402,17.8051,0.977655,26.218,-71.4538,-27.7427,4.40318,0.045973,-0.156501,-4.57609,-0.283068,-3.82227,-7.28622,-0.28184,-3.89741,-21.3969,-10.7347,-13.5219,-15.3258,-11.4985,14.6913,0.326952,-5.32676,5.91515,-4.33351e-14,9.54166e-15,70.4509,-42.9599,-26.0103,33.4643,23.7872,-31.164,2.39199,7.12502,-4.44147,-27.5414,-4.33351e-14,9.54166e-15,-23.6086,-10.3058,69.8979,39.9175,-2.86676,-17.6317,24.9785,7.12502,8.62578,54.7823,-9.06243,-2.00689,29.1495,39.8941,-12.7986,-1.08364,3.73131,-10.8567,0.447847,-8.23028,42.5582,-15.4898,-4.45722,-16.9749
-0.416707,17.8225,0.965318,27.9875,-71.3929,-29.4397,4.17095,0.158737,0.435502,-4.7252,-0.087272,-3.8217,-7.29979,-0.219298,-4.25336,-21.0978,-10.8657,-13.761,-15.4277,-11.6384,15.0173,0.319119,-5.39116,6.04946,2.38542e-15,-1.27222e-14,71.4599,-42.777,-26.7887,33.3589,23.3442,-31.1978,1.9844,7.12502,-4.47414,-27.9483,2.38542e-15,-1.27222e-14,-23.8439,-10.406,70.1092,40.3585,-2.71073,-17.5509,24.9776,7.12502,8.70372,54.7782,-9.09037,-2.07797,29.6947,39.6368,-12.187,-0.937946,3.87731,-11.0734,0.706652,-7.492,42.7987,-14.9826,-4.85529,-17.0366
-0.443408,17.8472,0.945592,27.9334,-71.6104,-29.306,4.07335,0.255456,0.294651,-4.82809,0.0108713,-4.00498,-7.34706,-0.174065,-4.37928,-21.0732,-10.9049,-13.6327,-15.4291,-11.7173,15.0736,0.325162,-5.43578,6.03798,-2.0276e-14,-3.18055e-15,72.5387,-42.5953,-27.5563,33.0841,23.1194,-31.1648,1.58227,7.12502,-4.44229,-28.3511,-2.0276e-14,-3.18055e-15,-24.0451,-10.4399,70.2378,40.7997,-2.55679,-17.3406,24.8529,7.12502,8.90666,54.6449,-9.03414,-1.96552,29.5616,39.4246,-11.6533,-0.797081,4.96057,-11.1855,1.0685,-7.44292,42.9745,-14.3562,-5.35924,-17.0998
-0.468635,17.8678,0.926246,26.1054,-71.9945,-27.7502,4.36014,0.346881,-0.372521,-4.756,0.0495207,-4.30887,-7.4358,-0.132149,-4.33126,-21.2921,-10.8885,-13.2365,-15.3492,-11.763,14.8856,0.344986,-5.4699,5.90275,-2.06736e-14,-4.77083e-14,73.3579,-42.4708,-28.0872,32.8936,22.9938,-31.1384,1.29527,7.12502,-4.4168,-28.6387,-2.06736e-14,-4.77083e-14,-24.1915,-10.4872,70.3415,41.2421,-2.34932,-17.1606,24.7707,7.12502,9.08041,54.5553,-8.57068,-2.11364,28.8641,39.3151,-11.0597,-0.493618,5.73991,-10.8195,1.40888,-7.87285,43.0659,-13.5915,-6.067,-15.9892
-0.48536,17.8869,0.913638,26.0107,-72.1246,-27.83,4.54186,0.461969,-0.408566,-4.78204,0.18847,-4.37886,-7.56014,-0.0664756,-4.40475,-21.2276,-11.0554,-13.4727,-15.3677,-11.9328,14.9992,0.37403,-5.54166,5.95698,-5.1684e-14,1.59028e-14,73.8541,-42.3024,-28.2504,32.8828,23.1429,-30.7618,1.06813,7.12502,-4.05314,-28.8731,-5.1684e-14,1.59028e-14,-24.4274,-10.4439,70.7059,41.634,-2.28064,-16.9886,24.6459,7.12502,9.24636,54.4231,-8.36798,-2.25771,28.8142,39.2591,-10.5543,-0.401415,5.18504,-10.6757,1.82374,-7.62942,43.146,-12.5611,-6.88955,-13.9867
-0.487417,17.9069,0.88759,26.5027,-72.048,-28.2754,4.73007,0.454222,-0.316557,-4.88452,0.168678,-4.44338,-7.78258,-0.0886626,-4.53085,-21.2599,-11.1836,-13.7011,-15.3788,-12.0397,15.4002,0.439833,-5.58061,6.10195,2.34566e-14,2.54444e-14,74.4651,-42.1601,-28.6613,32.7261,23.6138,-30.3593,0.793647,7.12502,-3.66443,-29.1546,2.34566e-14,2.54444e-14,-24.7016,-10.2856,70.8519,42.1353,-2.20578,-16.7877,24.2577,7.12502,9.44021,54.0262,-8.51204,-2.30494,29.0946,39.225,-10.154,-0.566545,4.56932,-10.9113,2.47801,-7.039,43.1845,-11.195,-8.01426,-11.9784
-0.495309,17.9322,0.866179,25.985,-72.0986,-27.6834,4.83785,0.442707,-0.525696,-4.95254,0.110876,-4.60594,-7.9255,-0.116119,-4.58384,-21.3734,-11.2385,-13.7245,-15.364,-12.0907,15.6253,0.489414,-5.59988,6.16417,-3.81667e-14,-6.36111e-15,74.7804,-42.0228,-28.7396,32.6277,24.0365,-30.1808,0.622401,7.12502,-3.49202,-29.3287,-3.81667e-14,-6.36111e-15,-25.0375,-10.4872,70.9993,42.7413,-1.7152,-16.7588,24.0959,7.12502,9.4681,53.8632,-8.51777,-2.41938,28.9211,39.0447,-9.58932,-0.523317,5.36808,-11.1615,3.22628,-6.83403,43.2819,-9.83042,-9.23346,-11.1118
-0.520013,17.9617,0.869236,24.8902,-72.581,-26.6944,4.86285,0.611522,-0.86089,-4.96076,0.281662,-4.84598,-7.93889,-0.0250537,-4.67111,-21.4693,-11.3795,-13.8297,-15.3265,-12.2396,15.7469,0.549074,-5.66221,6.19476,4.25399e-14,-4.45278e-14,74.7416,-41.8887,-28.3622,32.5621,24.3271,-30.0301,0.654421,7.12502,-3.3465,-29.2991,4.25399e-14,-4.45278e-14,-25.4098,-10.9843,71.3295,43.3129,-0.978612,-17.0315,23.9468,7.12502,9.2049,53.7259,-8.16934,-2.48473,28.2915,38.7604,-8.86305,-0.169774,6.21841,-10.9697,3.87153,-7.01078,43.363,-8.52968,-10.1342,-9.12145
-0.548419,17.9895,0.846542,26.3077,-72.2077,-28.1558,4.78437,0.505575,-0.431712,-4.9606,0.180456,-4.851,-7.89942,-0.0985355,-4.90725,-21.8016,-11.3968,-13.5124,-15.25,-12.3003,15.8391,0.6154,-5.69622,6.15211,2.10712e-14,-3.18055e-15,75.2448,-41.8233,-28.8766,32.2803,24.9,-29.8951,0.62475,7.12502,-3.21614,-29.3307,2.10712e-14,-3.18055e-15,-25.6463,-11.1706,71.2841,43.8115,-0.494439,-16.6744,23.5506,7.12502,9.54955,53.3142,-7.94069,-2.77353,28.9302,38.3463,-8.30784,-0.181676,6.09332,-11.1595,4.51543,-5.84953,43.469,-6.87142,-11.407,-7.4499
-0.56262,18.0134,0.822101,27.7175,-71.7448,-29.7703,5.01142,0.357468,0.135118,-4.93249,0.0246154,-4.89792,-8.01673,-0.210192,-5.2677,-22.1078,-11.3608,-13.0583,-15.1975,-12.3281,15.9372,0.660775,-5.72246,6.09594,2.42517e-14,-8.5875e-14,75.8326,-41.8061,-29.6703,31.9108,25.524,-29.6339,0.400049,7.12502,-2.96387,-29.5591,2.42517e-14,-8.5875e-14,-25.8663,-11.4924,71.0548,44.3202,-0.0998838,-15.8492,23.1719,7.12502,10.3456,52.8974,-7.58914,-2.97005,29.7212,37.8505,-7.70654,-0.446391,5.7707,-11.3005,5.064,-4.53047,43.5811,-5.05683,-12.8678,-6.72473
-0.579212,18.0423,0.812814,28.4897,-71.6031,-30.5067,4.98765,0.397817,0.379013,-5.02705,0.0904737,-4.95625,-8.10018,-0.19807,-5.48048,-22.1223,-11.512,-13.2607,-15.1747,-12.4745,16.2157,0.72748,-5.78004,6.1927,1.59028e-15,-2.54444e-14,75.7903,-41.7136,-29.5051,31.6906,25.7242,-29.3872,-0.0962269,7.12502,-2.72567,-30.0586,1.59028e-15,-2.54444e-14,-26.1768,-12.1528,71.2168,44.8277,0.337036,-15.2717,22.7285,7.12502,10.9027,52.4255,-7.45859,-2.9633,30.052,37.3522,-6.97156,-0.708044,5.96671,-11.6067,5.47351,-3.7268,43.6672,-3.30767,-14.2734,-6.03126
-0.592651,18.0708,0.806834,29.7028,-71.2561,-31.7142,5.02066,0.474387,0.837381,-5.17847,0.233664,-4.89576,-8.26924,-0.158042,-5.70069,-21.946,-11.7876,-13.6959,-15.168,-12.7487,16.4505,0.78974,-5.89384,6.30199,5.36719e-14,9.54166e-15,75.6625,-41.5877,-29.1889,31.4382,25.9251,-29.2268,-0.351028,7.12502,-2.57074,-30.3153,5.36719e-14,9.54166e-15,-26.5353,-12.9071,71.5835,45.3616,0.65463,-14.7668,22.3698,7.12502,11.3897,52.0405,-7.40052,-3.13162,30.5992,37.0092,-6.28976,-0.814329,5.22982,-11.9216,5.63967,-2.66468,43.5962,-1.32966,-15.626,-5.3405
-0.598886,18.101,0.796904,29.502,-71.1314,-31.5774,5.37007,0.555394,0.80969,-5.37562,0.317648,-4.95012,-8.68185,-0.131269,-5.77094,-21.5207,-12.0426,-14.1478,-15.2434,-13.0192,16.6556,0.79489,-6.01531,6.41593,-2.78299e-15,9.85972e-14,75.8071,-41.3965,-29.3247,31.1199,26.4248,-28.8938,-0.666886,7.12502,-2.24912,-30.6348,-2.78299e-15,9.85972e-14,-26.9775,-13.6813,71.943,45.9551,0.849599,-14.0942,21.9982,7.12502,12.0382,51.6319,-7.27266,-3.20568,30.6205,36.7545,-5.71564,-0.965289,4.89468,-12.0223,5.42462,-2.1778,43.3399,0.527456,-16.5882,-6.09145
-0.60171,18.1346,0.782795,27.6479,-71.2725,-29.7255,5.81067,0.604597,0.151914,-5.55023,0.26939,-5.18934,-9.14267,-0.139812,-5.66795,-21.1718,-12.2332,-14.5095,-15.2864,-13.2237,16.8209,0.802754,-6.1068,6.50852,-2.18663e-14,2.54444e-14,75.7943,-41.2264,-29.3362,30.8696,26.6032,-28.5936,-0.893882,7.12502,-1.95919,-30.8646,-2.18663e-14,2.54444e-14,-27.3043,-14.4774,72.1151,46.4432,0.929161,-13.9535,21.5979,7.12502,12.174,51.2237,-7.12755,-3.17511,29.9946,36.5104,-5.20885,-1.23844,5.41315,-12.0258,4.88136,-2.38028,42.936,2.26573,-17.2471,-9.23354
-0.625334,18.1693,0.78743,28.0241,-71.2252,-30.0171,5.62598,0.613726,0.399634,-5.62185,0.288674,-5.35475,-9.11123,-0.156772,-5.99032,-21.1554,-12.2896,-14.3872,-15.3067,-13.3264,16.8426,0.803888,-6.16354,6.48365,3.97569e-15,2.8625e-14,75.8493,-41.2045,-29.5683,30.6372,26.6572,-28.503,-1.19428,7.12502,-1.87167,-31.1658,3.97569e-15,2.8625e-14,-27.3507,-15.267,71.8896,46.844,0.900822,-13.8566,21.3311,7.12502,12.2674,50.9513,-7.08713,-3.23577,30.0056,36.2697,-4.4425,-1.18141,5.03331,-12.0313,4.41261,-1.84315,42.4596,3.64956,-17.9499,-14.3801
-0.650271,18.2062,0.805165,29.0777,-71.1249,-31.0899,5.42607,0.632513,1.0043,-5.62615,0.372615,-5.42802,-8.98774,-0.155909,-6.42305,-21.3198,-12.325,-14.1657,-15.2921,-13.4056,16.7266,0.813731,-6.20744,6.39708,3.69739e-14,6.36111e-15,76.181,-41.2769,-30.1041,30.3814,27.0198,-28.4248,-1.52637,7.12502,-1.79621,-31.4986,3.69739e-14,6.36111e-15,-27.2619,-15.9467,71.673,47.1519,0.658893,-13.8204,20.9063,7.12502,12.3023,50.5244,-6.99795,-3.51785,30.1455,36.0751,-3.45161,-0.911635,4.80387,-11.8771,3.80512,-1.12986,41.9036,4.50466,-18.5785,-19.1788
-0.658674,18.2454,0.823584,29.9628,-71.1312,-31.8511,5.3331,0.688988,1.44487,-5.72847,0.487282,-5.44306,-9.03038,-0.133086,-6.70971,-21.3777,-12.4398,-14.312,-15.2912,-13.5177,16.7094,0.841368,-6.25199,6.39713,-3.33958e-14,-3.18055e-15,76.7538,-41.2211,-30.7421,30.0577,27.5614,-28.3149,-2.00484,7.12502,-1.69004,-31.9779,-3.33958e-14,-3.18055e-15,-27.1295,-16.3119,71.576,47.4366,-0.153852,-13.1691,20.6717,7.12502,12.9301,50.2511,-7.17805,-3.66416,30.1715,35.9935,-2.39837,-0.795957,4.25015,-11.8943,3.35994,-0.588097,41.2795,4.8968,-19.3921,-24.1132
-0.66537,18.2816,0.835799,29.8098,-71.4307,-31.7246,5.49918,0.77488,1.39053,-5.81037,0.578235,-5.55162,-9.20837,-0.0984405,-6.819,-21.2943,-12.5372,-14.6143,-15.3499,-13.5846,16.9176,0.862209,-6.27228,6.50315,-1.59028e-14,-4.13472e-14,77.073,-41.0943,-31.0704,29.7754,27.7498,-28.4555,-2.44626,7.12502,-1.82588,-32.4182,-1.59028e-14,-4.13472e-14,-27.0026,-16.5833,71.2763,47.8103,-1.31823,-11.9463,20.155,7.12502,14.1087,49.6561,-7.22481,-3.38279,29.8628,36.011,-1.51444,-0.936065,3.31751,-11.6687,2.73103,-0.503775,40.6095,4.77487,-20.0633,-26.8963
-0.663222,18.3136,0.824952,27.144,-71.9008,-29.2477,6.18812,0.849099,0.312222,-5.84229,0.511429,-5.83199,-9.6694,-0.0880093,-6.52447,-21.2831,-12.5741,-14.7234,-15.3437,-13.6081,16.9974,0.881068,-6.27687,6.54114,-3.26007e-14,5.08889e-14,76.8493,-41.0734,-30.8646,29.595,27.5323,-28.9128,-2.56651,7.12502,-2.26754,-32.5342,-3.26007e-14,5.08889e-14,-26.7834,-17.1356,70.9139,48.1553,-2.00351,-11.2138,19.5782,7.12502,14.8145,49.0287,-7.1178,-2.97799,28.9092,36.1125,-0.691868,-1.29499,2.65725,-11.3288,1.77452,-1.20742,39.925,4.81364,-20.2277,-25.0852
-0.672614,18.3517,0.831552,26.9165,-72.0156,-28.9942,6.27681,0.917434,0.179875,-5.91348,0.570319,-5.9179,-9.79609,-0.0603679,-6.55857,-21.2099,-12.5767,-14.7454,-15.3826,-13.6126,16.9654,0.858202,-6.28009,6.53838,-2.22639e-14,2.8625e-14,76.6192,-41.0668,-30.6285,29.4209,27.4407,-29.2814,-2.68174,7.12502,-2.62343,-32.6454,-2.22639e-14,2.8625e-14,-26.5792,-17.5646,70.5675,48.5801,-2.63549,-11.023,19.1541,7.12502,14.9983,48.5909,-7.27014,-2.79259,28.6892,36.2019,0.268803,-1.47551,3.12313,-11.2486,0.945804,-1.08906,39.2456,4.39587,-20.2952,-22.8876
-0.697008,18.3976,0.883531,29.5929,-72.3612,-30.9142,5.06428,1.1164,1.00147,-6.18031,0.93615,-5.92731,-9.31515,0.0664409,-7.05373,-21.2233,-12.6009,-14.8463,-15.3061,-13.6225,16.9098,0.883502,-6.27698,6.53196,1.59028e-14,-7.63333e-14,76.8,-40.9448,-30.8541,29.1994,27.7071,-29.2569,-3.02517,7.12502,-2.59978,-32.9891,1.59028e-14,-7.63333e-14,-26.4634,-17.6757,70.2394,49.0644,-3.30845,-10.9598,18.8695,7.12502,15.0593,48.3018,-8.15608,-2.68718,28.7699,36.2212,1.53513,-1.22645,3.8613,-11.635,0.577091,-0.612761,38.5953,2.92518,-20.1171,-24.5804
-0.699488,18.4348,0.879504,28.3351,-72.5014,-30.1949,5.89434,1.09753,0.568792,-6.13465,0.858886,-5.85587,-9.77473,0.051393,-6.74977,-21.3107,-12.6511,-15.1101,-15.1338,-13.6239,16.8722,0.956906,-6.25698,6.55071,-6.75868e-15,2.54444e-14,77.1785,-40.7057,-31.1251,28.9569,28.0913,-29.2017,-3.25568,7.12502,-2.54654,-33.2202,-6.75868e-15,2.54444e-14,-26.4347,-17.7548,70.0705,49.5758,-3.67588,-11.283,18.8091,7.12502,14.7479,48.2645,-7.60999,-2.66509,28.3775,36.1019,2.43729,-1.55692,4.06246,-10.974,-0.447882,-0.688155,37.9935,1.77779,-19.6558,-26.103
-0.707289,18.4785,0.897185,27.5383,-72.8452,-29.5056,6.12348,1.13058,0.201854,-6.19249,0.851156,-5.85356,-9.98155,0.0662411,-6.5482,-21.3383,-12.6456,-15.2332,-15.0386,-13.5888,16.8499,0.988735,-6.23066,6.56289,-2.10712e-14,1.39944e-13,77.4231,-40.4314,-31.2688,28.7731,28.4659,-29.1093,-3.20749,7.12502,-2.45724,-33.1731,-2.10712e-14,1.39944e-13,-26.3752,-17.7216,69.7577,50.1506,-3.95686,-11.4483,18.864,7.12502,14.5886,48.331,-7.48998,-2.59206,27.839,35.9293,3.58835,-1.73103,3.89551,-10.6542,-1.4548,-0.942855,37.4228,0.764569,-18.3359,-25.8268
-0.724646,18.5258,0.92292,27.5916,-73.1138,-29.5024,5.94308,1.14574,0.1165,-6.24714,0.862899,-5.84481,-9.93389,0.0778463,-6.48579,-21.2766,-12.6082,-15.2465,-15.1033,-13.5439,16.9128,0.963408,-6.21201,6.59527,-9.93923e-15,-6.36111e-15,77.4986,-40.1929,-31.3195,28.6575,28.7162,-28.8817,-3.11337,7.12502,-2.23749,-33.0814,-9.93923e-15,-6.36111e-15,-26.1968,-17.6595,69.2223,50.7233,-4.03807,-11.6625,18.8494,7.12502,14.3822,48.3311,-7.54198,-2.41776,27.5153,35.7723,4.68444,-1.95095,4.50752,-10.4495,-2.55488,-1.00472,36.8516,-0.231593,-16.3515,-24.81
-0.740418,18.5656,0.952992,27.3801,-73.4542,-29.3044,5.79173,1.20191,0.0294057,-6.26398,0.934137,-5.82303,-9.85473,0.121331,-6.41544,-21.2274,-12.6363,-15.4954,-15.0513,-13.5337,16.986,0.993607,-6.19536,6.65708,1.55052e-14,4.45278e-14,77.2966,-39.9757,-30.8528,28.5326,28.8012,-28.6987,-3.19467,7.12502,-2.06074,-33.1645,1.55052e-14,4.45278e-14,-25.9318,-17.6718,68.7746,51.2994,-3.84271,-12.002,19.0066,7.12502,14.055,48.5113,-7.47949,-2.20722,27.0755,35.5799,5.68653,-2.11466,4.83772,-10.1674,-3.42073,-1.23077,36.3706,-1.53002,-14.0587,-25.8321
-0.748266,18.5973,0.977733,27.166,-73.6673,-28.9874,5.65748,1.24439,-0.0966295,-6.35893,0.977968,-5.78721,-9.87693,0.150455,-6.30857,-21.191,-12.6539,-15.6667,-14.8292,-13.5294,16.9037,1.05587,-6.18148,6.65108,2.18663e-14,-3.18055e-15,76.7037,-39.7804,-29.8729,28.3955,28.6489,-28.468,-3.27512,7.12502,-1.83793,-33.247,2.18663e-14,-3.18055e-15,-25.624,-17.9222,68.3081,51.9426,-3.30634,-12.3793,19.4252,7.12502,13.6915,48.9548,-7.52815,-1.91514,26.716,35.3684,6.52693,-2.54877,6.34884,-10.1307,-3.88162,-1.38025,35.984,-2.509,-11.7668,-27.9511
-0.754884,18.6301,1.00165,27.1088,-73.8718,-28.8319,5.55384,1.24867,-0.212426,-6.47167,0.969011,-5.74923,-9.94326,0.151653,-6.20054,-21.1745,-12.5825,-15.558,-14.5929,-13.4696,16.7052,1.08931,-6.15449,6.57302,8.34896e-15,-2.8625e-14,76.3832,-39.4868,-29.3555,28.2299,28.5954,-28.2823,-3.18806,7.12502,-1.65853,-33.1614,8.34896e-15,-2.8625e-14,-25.266,-18.278,67.6308,52.623,-2.81269,-12.5913,19.7223,7.12502,13.4871,49.2656,-7.56909,-1.54947,26.4385,35.1283,7.35639,-3.02191,7.00587,-10.1366,-4.29396,-1.4729,35.6949,-3.06444,-9.28729,-29.0439
-0.766222,18.6594,1.03193,27.1942,-74.0532,-28.8472,5.39968,1.24324,-0.241171,-6.5832,0.968731,-5.62624,-9.97571,0.157038,-6.04782,-21.071,-12.5197,-15.633,-14.4662,-13.3877,16.5979,1.0958,-6.11244,6.56179,-2.26615e-14,1.90833e-14,76.1777,-39.0829,-28.921,28.169,28.5531,-28.1683,-3.0998,7.12502,-1.5485,-33.0739,-2.26615e-14,1.90833e-14,-24.9149,-18.4077,66.9889,53.2924,-2.87554,-12.1345,19.4981,7.12502,13.9274,49.0117,-7.54122,-1.38678,26.168,34.7973,8.38959,-3.24513,6.5336,-10.1644,-4.82575,-1.5583,35.5461,-3.22433,-6.54546,-27.9448
-0.784047,18.6876,1.07278,28.4367,-74.1052,-30.0373,5.08531,1.27479,0.167371,-6.68723,1.08553,-5.38109,-9.88468,0.198727,-6.01936,-20.8709,-12.5093,-15.9056,-14.3413,-13.3426,16.5253,1.1088,-6.0818,6.58983,4.6118e-14,-2.54444e-14,75.7052,-38.7619,-28.0495,28.2124,28.4239,-27.9902,-3.08525,7.12502,-1.37644,-33.0606,4.6118e-14,-2.54444e-14,-24.5225,-18.4485,66.433,54.0384,-3.01961,-11.5411,19.3166,7.12502,14.4991,48.79,-7.45789,-1.21863,26.2018,34.3842,9.2974,-3.56368,7.35663,-10.2635,-5.26695,-1.32548,35.5268,-2.97894,-3.83615,-24.9134
-0.808346,18.7096,1.12218,31.1812,-74.0041,-32.7464,4.57953,1.27691,1.14293,-6.71298,1.22224,-5.15295,-9.58052,0.216239,-6.32404,-21.0124,-12.4287,-15.7636,-14.0701,-13.2578,16.4074,1.17715,-6.0388,6.52798,-3.57812e-14,-6.36111e-15,75.7039,-38.6014,-28.0333,28.1608,28.6342,-27.5308,-3.09314,7.12502,-0.932718,-33.0708,-3.57812e-14,-6.36111e-15,-23.8455,-18.4565,65.4707,54.7898,-3.18405,-11.4631,19.0796,7.12502,14.5743,48.5475,-7.36603,-0.895039,26.6909,33.9722,9.98026,-3.99759,8.66646,-10.4435,-5.33239,-0.628437,35.5898,-2.46841,-1.75546,-22.5293
-0.82311,18.7305,1.16539,32.6971,-74.0608,-34.1683,4.21968,1.28118,1.69072,-6.70671,1.28949,-5.10395,-9.34234,0.220168,-6.57634,-21.3201,-12.284,-15.2613,-13.8451,-13.1483,16.1554,1.2156,-5.99699,6.3693,-3.33958e-14,-2.22639e-14,75.9368,-38.5295,-28.5113,28.0628,28.9676,-27.1449,-3.13317,7.12502,-0.56008,-33.1122,-3.33958e-14,-2.22639e-14,-22.9189,-18.573,64.259,55.5941,-3.47145,-11.358,19.0167,7.12502,14.6756,48.4773,-7.37109,-0.55719,26.8191,33.6433,10.6443,-4.42991,9.11126,-10.7303,-5.09118,-0.342114,35.6556,-1.68278,-0.458557,-22.3016
-0.827858,18.7451,1.20213,32.6634,-74.2965,-34.0254,4.1516,1.38131,1.64061,-6.80876,1.42471,-5.00538,-9.39922,0.290607,-6.45695,-21.3145,-12.3373,-15.4617,-13.5968,-13.1776,15.9916,1.28651,-5.99802,6.33658,-1.19271e-14,6.04305e-14,75.6615,-38.3837,-28.0422,28.0704,28.8876,-26.9302,-2.9807,7.12502,-0.352667,-32.9601,-1.19271e-14,6.04305e-14,-22.0722,-18.8392,63.4921,56.4425,-3.8914,-11.177,19.1433,7.12502,14.85,48.5912,-7.43838,-0.271693,26.5141,33.4605,11.1232,-4.88243,8.78892,-11.0435,-4.8561,-0.557954,35.675,-0.717993,0.238776,-21.6466
