JuanDHNZ/ProyectoFinalCD/preprocessing/sports_trials_csv/14_05.csv
root1,root2,root3,root4,root5,root6,lowerback1,lowerback2,lowerback3,upperback1,upperback2,upperback3,thorax1,thorax2,thorax3,lowerneck1,lowerneck2,lowerneck3,upperneck1,upperneck2,upperneck3,head1,head2,head3,rclavicle1,rclavicle2,rhumerus1,rhumerus2,rhumerus3,rradius1,rwrist1,rhand1,rhand2,rfingers1,rthumb1,rthumb2,lclavicle1,lclavicle2,lhumerus1,lhumerus2,lhumerus3,lradius1,lwrist1,lhand1,lhand2,lfingers1,lthumb1,lthumb2,rfemur1,rfemur2,rfemur3,rtibia1,rfoot1,rfoot2,rtoes1,lfemur1,lfemur2,lfemur3,ltibia1,lfoot1,lfoot2,ltoes1
-0.0509533,18.0012,-0.688964,3.91565,-14.0166,1.03355,1.17503,-1.64115,-3.16239,0.0501395,-2.22123,2.02258,-0.406439,-1.10566,3.88383,-14.9358,-9.4979,-14.8411,19.0785,-11.4438,8.20085,9.87364,-5.58983,3.68547,-1.75924e-14,2.18663e-14,-40.048,-11.3983,-73.2963,38.1334,16.6932,-18.2993,5.14791,7.12502,7.98151,-24.6814,-1.75924e-14,2.18663e-14,-44.4342,27.7073,66.0554,22.3438,-2.24267,-21.7031,18.0766,7.12502,4.69545,48.0045,-9.8693,9.08541,14.4942,24.4672,-14.9048,-0.043512,6.22395,0.657159,-1.86411,-22.0239,10.5336,-10.4032,9.63259,-12.3309
-0.0501309,18.0025,-0.697048,3.91123,-13.9624,1.05176,1.27331,-1.64835,-3.1918,0.0250543,-2.23377,2.01713,-0.485255,-1.10982,3.89876,-14.9437,-9.49083,-14.8686,19.164,-11.4299,8.19169,9.90496,-5.58686,3.68863,3.65267e-14,0,-40.006,-11.031,-73.6044,38.402,16.189,-18.6021,4.93303,7.12502,7.68923,-24.9072,3.65267e-14,0,-44.4713,27.8823,66.0624,22.4458,-2.25309,-21.7064,18.1558,7.12502,4.69231,48.0839,-9.9,9.11132,14.4845,24.4712,-14.8815,-0.114804,6.31451,0.657986,-1.94172,-22.0317,10.4604,-10.361,9.65242,-12.1801
-0.0510239,18.003,-0.703849,3.89215,-13.9353,1.09705,1.35021,-1.64437,-3.24305,0.00599866,-2.2314,1.98015,-0.547686,-1.10684,3.89242,-14.9425,-9.4858,-14.8398,19.2528,-11.4293,8.16014,9.93223,-5.58865,3.67334,-1.963e-14,1.19271e-15,-39.9682,-10.9868,-73.7257,38.5744,16.4829,-18.3083,5.2607,7.12502,7.9728,-24.5689,-1.963e-14,1.19271e-15,-44.4879,27.9359,66.1009,22.6005,-2.05772,-21.6357,18.0076,7.12502,4.76056,47.9341,-9.92652,9.16709,14.4503,24.4916,-14.8844,-0.227566,6.01408,0.658684,-1.97466,-22.065,10.4319,-10.3466,9.64355,-11.9017
-0.0519373,18.0036,-0.712147,3.9159,-13.8665,1.1145,1.38731,-1.66423,-3.27719,-0.00545035,-2.2595,1.9685,-0.576837,-1.12001,3.90145,-14.9455,-9.46974,-14.8962,19.316,-11.4078,8.20591,9.95924,-5.57863,3.70192,-1.30204e-14,1.03368e-14,-39.8518,-11.0927,-73.7528,38.7128,17.123,-17.927,5.60847,7.12502,8.34077,-24.2069,-1.30204e-14,1.03368e-14,-44.4434,27.9357,66.265,22.8431,-1.71123,-21.4344,17.9605,7.12502,4.95487,47.8825,-9.97371,9.17355,14.4391,24.5142,-14.8816,-0.271398,6.34245,0.605973,-1.90222,-22.0485,10.3792,-10.2752,9.49687,-11.6764
-0.0518991,18.0048,-0.719064,3.94293,-13.7673,1.11522,1.39399,-1.68329,-3.26079,0.00153461,-2.28497,1.93763,-0.572965,-1.13298,3.86065,-14.9043,-9.45817,-14.9065,19.2709,-11.4085,8.27437,9.94071,-5.57359,3.7292,1.75924e-14,-1.98785e-15,-39.7657,-11.0508,-73.915,38.9424,17.2859,-17.8506,5.67795,7.12502,8.41456,-24.1344,1.75924e-14,-1.98785e-15,-44.309,27.9625,66.4161,23.0179,-1.61571,-21.2049,18.2811,7.12502,5.17651,48.1979,-10.0012,9.18178,14.4419,24.5248,-14.9082,-0.349554,6.58703,0.53732,-1.86911,-22.0239,10.3748,-10.2345,9.35891,-11.5235
-0.0508432,18.006,-0.724105,3.94105,-13.7214,1.19347,1.37889,-1.67443,-3.30088,0.0350349,-2.27354,1.87769,-0.532005,-1.12853,3.8199,-14.9204,-9.489,-14.8646,19.2128,-11.4527,8.26495,9.92522,-5.59076,3.7113,-8.05078e-15,1.31198e-14,-39.6949,-10.8429,-74.1998,39.2683,16.8938,-17.9979,5.36774,7.12502,8.27232,-24.4503,-8.05078e-15,1.31198e-14,-44.1392,28.0472,66.545,23.0991,-1.62275,-21.1458,18.6433,7.12502,5.23357,48.5587,-10.0248,9.17236,14.3531,24.5213,-14.9234,-0.425289,6.19607,0.469258,-1.73825,-22.0901,10.4163,-10.276,9.16916,-11.7142
-0.0491686,18.0068,-0.730641,3.95562,-13.6732,1.12737,1.42278,-1.66678,-3.21462,0.0575726,-2.26304,1.88504,-0.53744,-1.12373,3.7798,-14.9863,-9.51819,-14.8821,19.2383,-11.4769,8.25062,9.94984,-5.60268,3.70248,-3.28492e-14,-3.97569e-15,-39.6353,-10.5881,-74.4616,39.5908,16.3291,-18.2034,5.13371,7.12502,8.07406,-24.6921,-3.28492e-14,-3.97569e-15,-43.9808,28.0104,66.7748,23.1221,-1.43529,-21.3887,18.5915,7.12502,4.99907,48.5125,-10.0276,9.20714,14.427,24.5077,-14.9389,-0.519252,6.07421,0.429449,-1.59766,-21.9984,10.423,-10.272,8.9668,-11.9292
-0.0468853,18.0077,-0.735004,3.96088,-13.6518,1.09916,1.42737,-1.65,-3.16159,0.0587561,-2.23991,1.8818,-0.543019,-1.11217,3.74642,-15.0014,-9.5129,-14.9044,19.3346,-11.4633,8.22872,9.98525,-5.60062,3.70005,2.49972e-14,-2.78299e-15,-39.6032,-10.4532,-74.6306,39.8259,16.106,-18.4006,5.21243,7.12502,7.88368,-24.6206,2.49972e-14,-2.78299e-15,-43.8552,27.9035,66.998,23.1249,-1.13116,-21.4244,18.0725,7.12502,4.96458,47.9943,-10.0414,9.19298,14.4557,24.5079,-14.9201,-0.539146,5.94276,0.438581,-1.60166,-21.9709,10.3682,-10.2146,8.93078,-11.9778
-0.0449601,18.0074,-0.736286,3.9355,-13.6468,1.14681,1.40527,-1.61551,-3.17721,0.0624653,-2.1937,1.84665,-0.531695,-1.08926,3.71752,-14.9639,-9.53439,-14.8652,19.3614,-11.4911,8.14536,9.98349,-5.62042,3.66109,2.93207e-15,-5.56597e-15,-39.6136,-10.4276,-74.7322,40.0665,16.2376,-18.3879,5.33214,7.12502,7.89595,-24.5004,2.93207e-15,-5.56597e-15,-43.7245,27.7724,67.231,23.1854,-0.852511,-21.5096,17.7074,7.12502,4.88234,47.6311,-10.0374,9.18452,14.3987,24.514,-14.9061,-0.51351,6.08164,0.485116,-1.61924,-22.0317,10.2983,-10.1727,8.9573,-11.9084
-0.0430182,18.0087,-0.738372,3.93775,-13.6442,1.2192,1.38331,-1.58773,-3.22993,0.0549461,-2.15709,1.80017,-0.530174,-1.07068,3.69821,-15.0497,-9.5546,-14.7985,19.5029,-11.5204,8.09244,10.0455,-5.63317,3.62424,2.48481e-15,2.78299e-15,-39.5715,-10.4096,-74.8374,40.2486,16.3112,-18.2169,5.24432,7.12502,8.06104,-24.5819,2.48481e-15,2.78299e-15,-43.6209,27.6601,67.4456,23.3523,-0.631107,-21.7919,17.8881,7.12502,4.60975,47.8179,-10.068,9.16656,14.3026,24.5315,-14.9105,-0.452023,6.76053,0.49423,-1.60442,-22.1177,10.1765,-10.1172,8.94551,-11.7135
-0.0404968,18.0092,-0.743488,4.02107,-13.6227,1.27018,1.28841,-1.57778,-3.25039,0.0687748,-2.14163,1.76197,-0.46485,-1.06443,3.66671,-15.2606,-9.53166,-14.6893,19.6484,-11.4613,7.96481,10.1133,-5.60609,3.56442,3.8117e-14,-8.34896e-15,-39.439,-10.327,-74.978,40.3539,16.0969,-18.2655,5.37809,7.12502,8.01412,-24.45,3.8117e-14,-8.34896e-15,-43.42,27.5645,67.7093,23.4805,-0.488061,-21.867,18.257,7.12502,4.53717,48.1884,-10.1938,9.13357,14.2169,24.5575,-14.8816,-0.414351,7.11148,0.4085,-1.69131,-22.1773,10.0401,-10.0066,9.02135,-11.624
-0.0384293,18.0103,-0.747884,4.06635,-13.5918,1.24197,1.22313,-1.5746,-3.22423,0.110766,-2.13506,1.76641,-0.386492,-1.06347,3.65354,-15.449,-9.45254,-14.4645,19.6722,-11.3109,7.68986,10.1053,-5.54383,3.45029,-2.5842e-15,-1.74931e-14,-39.2671,-10.2261,-75.1027,40.4126,15.9885,-18.4355,5.65307,7.12502,7.84998,-24.1812,-2.5842e-15,-1.74931e-14,-43.2662,27.5321,67.9671,23.6597,-0.605708,-21.6303,18.6405,7.12502,4.76579,48.5669,-10.2622,9.08892,14.2395,24.5563,-14.881,-0.469596,6.6323,0.353063,-1.6667,-22.1398,9.995,-9.92933,8.97728,-11.6112
-0.0367662,18.0109,-0.751877,4.0424,-13.6251,1.2719,1.22902,-1.55954,-3.2643,0.127034,-2.11563,1.76218,-0.373489,-1.05422,3.67144,-15.5734,-9.36511,-14.3034,19.7433,-11.1572,7.45637,10.1098,-5.48298,3.36366,1.70458e-14,-6.75868e-15,-39.1238,-10.1216,-75.202,40.4593,16.0862,-18.4918,5.8504,7.12502,7.79569,-23.9859,1.70458e-14,-6.75868e-15,-43.1624,27.3873,68.2739,23.92,-0.439129,-21.5236,18.9181,7.12502,4.86882,48.8421,-10.2713,9.08697,14.2036,24.5321,-14.8896,-0.507215,6.29156,0.334198,-1.57994,-22.1714,10.0412,-9.95668,8.91173,-11.4977
-0.0350552,18.013,-0.757208,4.04525,-13.6147,1.24917,1.2149,-1.54762,-3.21622,0.139679,-2.09871,1.74027,-0.356627,-1.04632,3.62087,-15.5572,-9.32743,-14.2442,19.7865,-11.1065,7.38208,10.1077,-5.4641,3.33721,2.30093e-14,-2.3059e-14,-39.0324,-10.0749,-75.307,40.5484,16.1797,-18.4726,6.1967,7.12502,7.81424,-23.6389,2.30093e-14,-2.3059e-14,-43.0306,27.2184,68.5102,24.1032,-0.168851,-21.4994,18.9911,7.12502,4.89214,48.9146,-10.2633,9.06839,14.2255,24.4755,-14.8388,-0.492581,6.52659,0.266301,-1.53293,-22.1446,10.1557,-10.0171,8.8459,-11.5775
-0.0336399,18.0143,-0.764243,4.03152,-13.5695,1.1782,1.28085,-1.52847,-3.13936,0.150929,-2.0739,1.72033,-0.387668,-1.03352,3.55862,-15.5025,-9.31074,-14.0924,19.7703,-11.0971,7.2506,10.0725,-5.46388,3.27071,-1.46107e-14,4.77083e-15,-38.9726,-10.0871,-75.419,40.6796,16.2874,-18.4918,6.16912,7.12502,7.7957,-23.6672,-1.46107e-14,4.77083e-15,-42.9207,27.1564,68.6066,24.1897,-0.172615,-21.548,18.7355,7.12502,4.84525,48.6601,-10.2295,9.03465,14.3106,24.4276,-14.7724,-0.511196,6.47096,0.229294,-1.56346,-22.0636,10.2452,-10.0367,8.83732,-11.5852
-0.0324624,18.0144,-0.766907,4.0549,-13.543,1.10909,1.27155,-1.51328,-3.06071,0.156627,-2.05231,1.70828,-0.381652,-1.02299,3.50127,-15.4996,-9.2986,-13.9851,19.7668,-11.0862,7.16268,10.0569,-5.46029,3.22499,-2.68359e-15,-5.56597e-15,-38.8952,-9.99402,-75.5529,40.7695,16.3898,-18.6453,5.98829,7.12502,7.64751,-23.8534,-2.68359e-15,-5.56597e-15,-42.8054,26.9522,68.8513,24.4475,0.0234336,-21.7586,19.1236,7.12502,4.64187,49.0528,-10.2261,8.96398,14.3787,24.3901,-14.7382,-0.505768,6.23989,0.179555,-1.5732,-21.9921,10.3153,-10.0511,8.82877,-11.6115
-0.0304737,18.0145,-0.766785,4.07544,-13.5114,1.10541,1.20354,-1.51151,-3.0364,0.157941,-2.04791,1.69317,-0.34396,-1.02155,3.4698,-15.4916,-9.27315,-13.97,19.7795,-11.0572,7.16658,10.0558,-5.44588,3.22916,-1.4561e-14,8.34896e-15,-38.8083,-9.85939,-75.645,40.7924,16.4384,-18.8683,6.01932,7.12502,7.43225,-23.8301,-1.4561e-14,8.34896e-15,-42.7066,26.5186,69.2767,24.9164,0.517804,-21.585,20.035,7.12502,4.80954,49.9604,-10.2244,8.8296,14.3716,24.3693,-14.6792,-0.403171,6.15164,0.137848,-1.62844,-21.999,10.3607,-10.0775,8.85323,-11.7477
-0.0293749,18.0134,-0.770857,4.06572,-13.5228,1.09487,1.20889,-1.5086,-3.05244,0.14171,-2.04446,1.6842,-0.363675,-1.01916,3.47002,-15.3412,-9.21885,-14.0244,19.713,-11.0162,7.29212,10.0107,-5.42162,3.2944,4.12478e-15,9.54166e-15,-38.7674,-9.71451,-75.7631,40.8401,16.4859,-19.0784,6.0365,7.12502,7.22946,-23.82,4.12478e-15,9.54166e-15,-42.7379,26.2879,69.4889,25.2803,0.891608,-21.4159,19.9875,7.12502,4.9728,49.9092,-10.2194,8.84617,14.3766,24.3349,-14.6243,-0.400764,6.48453,0.091703,-1.7068,-21.9881,10.4464,-10.1649,8.91832,-11.4227
-0.0286515,18.0138,-0.777929,4.1593,-13.7081,1.03306,1.09898,-1.42747,-3.03603,0.137567,-1.93321,1.68195,-0.316142,-0.964327,3.45426,-15.2068,-9.18418,-14.1169,19.6123,-11.0048,7.48706,9.96651,-5.40581,3.38454,2.13694e-15,6.75868e-15,-38.6719,-9.58102,-75.9002,40.9079,16.4788,-19.2719,5.88414,7.12502,7.04272,-23.9787,2.13694e-15,6.75868e-15,-42.65,26.0385,69.774,25.6082,1.29145,-21.6168,20.1325,7.12502,4.77881,50.0586,-10.3569,8.96495,14.4019,24.2841,-14.5273,-0.397355,6.57215,-0.0707594,-1.71406,-21.9424,10.5733,-10.2215,9.09325,-11.329
-0.0255398,18.0165,-0.784903,4.40044,-13.9716,0.868512,0.92323,-1.30312,-2.9001,0.0813635,-1.7615,1.71461,-0.292524,-0.878125,3.40616,-15.2216,-9.15581,-14.1387,19.652,-10.9699,7.52907,9.9832,-5.3869,3.40812,-2.60905e-14,-1.51076e-14,-38.5652,-9.55823,-75.9436,40.8784,16.5585,-19.4332,6.19007,7.12502,6.88694,-23.6779,-2.60905e-14,-1.51076e-14,-42.5573,25.6458,70.2065,26.1222,1.74869,-21.6321,21.2421,7.12502,4.764,51.1686,-10.6429,9.02344,14.495,24.209,-14.3206,-0.274802,6.32691,-0.388871,-1.62209,-21.8057,10.7585,-10.2694,9.2665,-11.2515
-0.0249012,18.0182,-0.790806,4.53828,-14.0686,0.710978,0.857726,-1.23171,-2.77796,0.059113,-1.66347,1.74556,-0.289089,-0.828941,3.36728,-15.4233,-9.15465,-13.9956,19.8143,-10.9389,7.3405,10.0539,-5.37752,3.31711,2.5842e-14,1.47101e-14,-38.4002,-9.62071,-75.9547,40.7477,16.7239,-19.5813,6.41982,7.12502,6.74403,-23.4528,2.5842e-14,1.47101e-14,-42.445,25.4908,70.4822,26.4727,1.84474,-21.4637,21.9742,7.12502,4.92657,51.8969,-10.7626,9.02564,14.6317,24.1242,-14.1976,-0.203396,6.43539,-0.615277,-1.53853,-21.638,10.9648,-10.3458,9.29113,-11.1057
-0.0255725,18.0195,-0.794887,4.57786,-14.078,0.663559,0.834409,-1.21854,-2.77542,0.0595673,-1.64534,1.75021,-0.276918,-0.820099,3.36994,-15.5327,-9.12487,-13.8224,19.8401,-10.8777,7.14145,10.0529,-5.35476,3.22588,5.22307e-14,-2.38542e-14,-38.1893,-9.72808,-75.9879,40.5801,16.9682,-19.7708,6.36764,7.12502,6.56111,-23.5107,5.22307e-14,-2.38542e-14,-42.3646,25.5706,70.5459,26.6231,1.73807,-21.4115,21.969,7.12502,4.97704,51.8906,-10.7867,9.00766,14.6831,24.0553,-14.1323,-0.227997,6.49704,-0.708858,-1.52119,-21.5773,11.1189,-10.4317,9.26911,-11.3961
-0.0263532,18.0203,-0.797615,4.5983,-14.1112,0.630895,0.801847,-1.20042,-2.79802,0.0497972,-1.62064,1.75652,-0.26983,-0.807702,3.38838,-15.5582,-9.05734,-13.7911,19.8908,-10.7845,7.11781,10.0615,-5.31197,3.22715,-8.74653e-15,5.56597e-15,-38.079,-9.75468,-76.0377,40.5249,17.1295,-19.9634,6.25098,7.12502,6.37517,-23.6331,-8.74653e-15,5.56597e-15,-42.2732,25.3767,70.7416,26.8005,2.07328,-21.4628,21.8589,7.12502,4.9275,51.7816,-10.8171,9.02816,14.7176,24.0272,-14.0822,-0.248423,6.34266,-0.732087,-1.5044,-21.5388,11.1786,-10.4502,9.25572,-11.7448
-0.0268123,18.0205,-0.799565,4.59357,-14.1241,0.620394,0.795692,-1.19824,-2.81339,0.0226011,-1.61777,1.75407,-0.294159,-0.805406,3.39476,-15.584,-8.97818,-13.7971,20.0507,-10.6663,7.06874,10.1073,-5.26428,3.22922,2.78299e-14,-2.42517e-14,-38.0907,-9.67076,-76.0962,40.5823,17.2545,-20.0809,6.0777,7.12502,6.26173,-23.8097,2.78299e-14,-2.42517e-14,-42.279,25.2428,70.8911,27.0395,2.34858,-21.5711,21.8167,7.12502,4.82291,51.7418,-10.8194,9.02514,14.7346,24.0242,-14.0461,-0.261433,6.00259,-0.744303,-1.49017,-21.5289,11.1747,-10.4501,9.27658,-11.6939
-0.0273907,18.02,-0.801545,4.58127,-14.1529,0.63176,0.82039,-1.1803,-2.84147,-0.00693265,-1.5947,1.75161,-0.339456,-0.792553,3.40895,-15.5987,-8.94638,-13.8075,20.113,-10.6019,6.99278,10.1213,-5.24378,3.21383,1.89839e-14,3.57812e-15,-38.0905,-9.53423,-76.1424,40.616,17.2797,-20.1982,5.9119,7.12502,6.14849,-23.9789,1.89839e-14,3.57812e-15,-42.2925,25.2132,71.0011,27.2666,2.34738,-21.5163,21.9185,7.12502,4.8758,51.8424,-10.8334,9.01217,14.7221,24.0429,-14.0277,-0.230807,5.93523,-0.73968,-1.52547,-21.5488,11.1455,-10.4475,9.35762,-11.3441
-0.0275884,18.0211,-0.803385,4.58128,-14.1872,0.656212,0.803047,-1.14151,-2.88601,-0.0234211,-1.54299,1.74886,-0.349702,-0.766153,3.43071,-15.6242,-8.90388,-13.8426,20.1618,-10.5336,6.99855,10.1382,-5.21422,3.23172,-2.55438e-14,1.47101e-14,-38.0496,-9.49085,-76.1325,40.5927,17.2235,-20.4293,5.90336,7.12502,5.92532,-23.9938,-2.55438e-14,1.47101e-14,-42.2637,25.1395,71.1536,27.4426,2.38561,-21.4736,21.676,7.12502,4.91706,51.5989,-10.8736,9.05078,14.6927,24.0808,-14.0677,-0.238207,5.84345,-0.711155,-1.52351,-21.5747,11.1074,-10.4325,9.36543,-11.3817
-0.0273479,18.0211,-0.804553,4.58285,-14.192,0.704989,0.720399,-1.11451,-2.93773,-0.022474,-1.50551,1.71641,-0.304968,-0.748127,3.42424,-15.7311,-8.83849,-13.836,20.3147,-10.4381,7.00386,10.2018,-5.16816,3.24489,-1.29707e-14,-5.96354e-15,-38.0227,-9.565,-76.1207,40.5547,17.2288,-20.535,5.96503,7.12502,5.82333,-23.9349,-1.29707e-14,-5.96354e-15,-42.1742,24.9426,71.3356,27.5763,2.55923,-21.5325,21.1889,7.12502,4.86016,51.1131,-10.9058,9.11835,14.6346,24.1229,-14.1172,-0.276003,5.9084,-0.695955,-1.51562,-21.6306,11.0791,-10.3903,9.36817,-11.6102
-0.0283588,18.0187,-0.806994,4.56438,-14.1476,0.772323,0.68115,-1.10252,-3.02269,-0.0557772,-1.4894,1.67026,-0.317518,-0.739161,3.42399,-15.6675,-8.76925,-13.805,20.3817,-10.3581,6.98537,10.2018,-5.13369,3.24894,1.6201e-14,9.54166e-15,-38.0451,-9.66338,-76.1256,40.4844,17.2994,-20.7392,6.01348,7.12502,5.62612,-23.8918,1.6201e-14,9.54166e-15,-42.1884,24.644,71.4907,27.8224,2.72362,-21.6759,20.9856,7.12502,4.72176,50.913,-10.9021,9.12698,14.5682,24.158,-14.1576,-0.276537,6.17597,-0.717577,-1.49246,-21.6928,11.0561,-10.3694,9.31583,-11.524
-0.0287784,18.019,-0.811142,4.56535,-14.0886,0.779759,0.699967,-1.08148,-3.05722,-0.11008,-1.46228,1.67296,-0.385093,-0.723399,3.44726,-15.6015,-8.70898,-13.8328,20.4426,-10.2681,6.93835,10.2002,-5.10201,3.25352,-2.5345e-15,3.57812e-15,-38.036,-9.73522,-76.0972,40.4222,17.3044,-20.9341,5.99818,7.12502,5.43795,-23.912,-2.5345e-15,3.57812e-15,-42.2615,24.5515,71.5937,28.0773,2.566,-21.8837,21.1996,7.12502,4.52112,51.1313,-10.9186,9.12162,14.5702,24.189,-14.1937,-0.322063,6.3108,-0.763424,-1.513,-21.6831,11.0442,-10.3444,9.27975,-11.4086
-0.0284307,18.0216,-0.813825,4.56132,-14.0734,0.767652,0.713592,-1.0588,-3.08638,-0.139645,-1.43265,1.6977,-0.424184,-0.70729,3.48977,-15.6891,-8.59258,-13.7662,20.5682,-10.0801,6.79531,10.2281,-5.0253,3.22006,2.71093e-14,8.74653e-15,-37.9505,-9.7863,-76.0641,40.3494,17.3444,-21.0416,5.76572,7.12502,5.33421,-24.1471,2.71093e-14,8.74653e-15,-42.2633,24.9207,71.4969,28.1331,1.94658,-21.9031,21.5333,7.12502,4.50234,51.4654,-10.9416,9.13735,14.592,24.222,-14.2415,-0.397523,6.11606,-0.73046,-1.50493,-21.6619,11.0051,-10.3382,9.21477,-11.4997
-0.0291148,18.0231,-0.816869,4.5602,-14.0301,0.754482,0.683961,-1.0569,-3.10536,-0.152851,-1.42951,1.71017,-0.420611,-0.705534,3.51287,-15.7222,-8.4435,-13.6434,20.6177,-9.87024,6.67527,10.2141,-4.93242,3.19126,-8.03339e-14,2.06736e-14,-37.8807,-9.78685,-76.0782,40.3058,17.436,-21.2227,5.62256,7.12502,5.15929,-24.2946,-8.03339e-14,2.06736e-14,-42.1426,25.0598,71.5383,28.1566,1.69682,-22.0809,21.2846,7.12502,4.3307,51.2203,-10.9436,9.16217,14.6168,24.2289,-14.2819,-0.481759,6.08817,-0.698539,-1.49552,-21.6332,10.9657,-10.3185,9.12272,-11.6384
-0.0291197,18.0225,-0.819063,4.53981,-13.9757,0.809713,0.655775,-1.03811,-3.15915,-0.161607,-1.40428,1.67428,-0.41553,-0.692725,3.5055,-15.8443,-8.33559,-13.4218,20.7539,-9.71613,6.47398,10.2447,-4.8651,3.10602,6.28657e-14,-1.23246e-14,-37.8515,-9.8039,-76.1107,40.2954,17.5709,-21.4388,5.71545,7.12502,4.95065,-24.2067,6.28657e-14,-1.23246e-14,-42.03,24.7992,71.7675,28.3958,1.71518,-22.3053,20.82,7.12502,4.11399,50.7601,-10.9219,9.17073,14.5612,24.222,-14.3053,-0.534339,6.01052,-0.689214,-1.54636,-21.6862,10.9377,-10.3036,9.09995,-11.5149
-0.0288716,18.0226,-0.821374,4.5167,-13.9062,0.784189,0.661959,-1.00872,-3.13479,-0.155995,-1.36502,1.66618,-0.4173,-0.673184,3.48321,-16.0067,-8.21521,-13.2012,20.908,-9.54296,6.28662,10.2886,-4.78694,3.02769,7.65321e-15,-3.97569e-16,-37.8329,-9.78378,-76.1349,40.3817,17.8103,-21.4905,5.73037,7.12502,4.90073,-24.193,7.65321e-15,-3.97569e-16,-41.8412,24.5046,72.0711,28.6423,1.55327,-22.4246,21.1192,7.12502,3.99872,51.0614,-10.8735,9.18721,14.6,24.2153,-14.3292,-0.60363,6.17541,-0.660644,-1.63578,-21.6523,10.9104,-10.2705,9.11902,-11.4013
-0.0293252,18.0215,-0.822859,4.4659,-13.8151,0.735646,0.671901,-0.998058,-3.09252,-0.147099,-1.35063,1.67743,-0.415641,-0.666255,3.47098,-15.9772,-8.02449,-13.1098,20.951,-9.30375,6.28095,10.2669,-4.6722,3.0511,2.24875e-14,-1.98785e-14,-37.8391,-9.6937,-76.1735,40.5312,18.1653,-21.5328,5.62157,7.12502,4.85993,-24.3027,2.24875e-14,-1.98785e-14,-41.6504,24.1521,72.4364,28.9006,1.45224,-22.5105,21.9192,7.12502,3.91582,51.863,-10.7755,9.20832,14.6749,24.2109,-14.3601,-0.646033,6.70044,-0.622582,-1.64814,-21.5842,10.8819,-10.266,9.04942,-11.2485
-0.0288926,18.0186,-0.822846,4.4166,-13.6863,0.7226,0.631655,-1.03341,-3.07467,-0.126294,-1.39646,1.70447,-0.367659,-0.690492,3.488,-16.099,-7.80777,-13.0665,21.1008,-9.00087,6.28255,10.3084,-4.52898,3.09047,-5.38458e-14,-1.98785e-15,-37.7267,-9.52957,-76.2425,40.564,18.5472,-21.7829,5.76502,7.12502,4.61843,-24.1646,-5.38458e-14,-1.98785e-15,-41.4719,23.8548,72.7995,29.0957,1.55741,-22.5007,21.9494,7.12502,3.92527,51.893,-10.6745,9.1428,14.712,24.2026,-14.3984,-0.65898,6.72995,-0.598679,-1.66971,-21.5529,10.8549,-10.2536,8.94881,-11.1319
-0.0284278,18.0179,-0.826091,4.33433,-13.5435,0.747417,0.715327,-1.06884,-3.13343,-0.140213,-1.44637,1.74362,-0.422266,-0.714065,3.56387,-16.4438,-7.5847,-12.9817,21.5317,-8.65123,6.15833,10.481,-4.37391,3.08057,-2.48481e-17,-5.96354e-15,-37.6562,-9.27265,-76.3161,40.6195,18.942,-22.0915,5.94535,7.12502,4.32044,-23.9906,-2.48481e-17,-5.96354e-15,-41.3259,23.5896,73.1467,29.2458,1.64579,-22.5544,21.4832,7.12502,3.87344,51.4277,-10.5661,9.03334,14.7246,24.198,-14.4174,-0.740472,6.1943,-0.519014,-1.73702,-21.5609,10.8444,-10.2162,8.84897,-11.0788
-0.0281041,18.0198,-0.828538,4.28053,-13.4394,0.825505,0.733747,-1.07454,-3.2498,-0.156518,-1.45553,1.76637,-0.445108,-0.717627,3.65375,-16.7499,-7.37157,-12.9038,22.0154,-8.32296,6.04219,10.6708,-4.23093,3.07354,-2.44505e-14,-1.98785e-15,-37.6445,-8.92698,-76.4099,40.8158,19.3115,-22.2884,6.06822,7.12502,4.13028,-23.8715,-2.44505e-14,-1.98785e-15,-41.1875,23.3449,73.5335,29.454,1.511,-22.7313,21.221,7.12502,3.70262,51.1686,-10.5236,8.97079,14.6565,24.2126,-14.4435,-0.791938,6.07543,-0.481486,-1.77505,-21.6288,10.836,-10.1898,8.75655,-11.3082
-0.0287851,18.0191,-0.828782,4.25044,-13.3962,0.827131,0.686713,-1.03803,-3.25914,-0.139546,-1.40551,1.76871,-0.405393,-0.69364,3.65988,-17.0952,-7.15694,-12.7345,22.5035,-8.00686,5.90697,10.8676,-4.08817,3.04297,-4.69629e-15,-6.36111e-15,-37.6176,-8.61716,-76.5887,41.0937,19.663,-22.3328,6.28589,7.12502,4.08736,-23.6546,-4.69629e-15,-6.36111e-15,-40.9514,23.0367,73.9422,29.6955,1.33865,-22.9634,21.3649,7.12502,3.4784,51.3163,-10.4789,9.04977,14.6518,24.227,-14.5201,-0.785019,6.73852,-0.469398,-1.74448,-21.615,10.8457,-10.1511,8.67759,-11.5987
-0.0290151,18.0176,-0.830992,4.21703,-13.3493,0.856344,0.664531,-1.02929,-3.30276,-0.140309,-1.39362,1.7646,-0.393853,-0.687803,3.67973,-17.7008,-6.93814,-12.1464,23.2382,-7.62246,5.18009,11.158,-3.94752,2.73399,-2.61899e-14,9.14409e-15,-37.5094,-8.20814,-76.8591,41.3875,19.8267,-22.2703,6.3159,7.12502,4.14777,-23.6235,-2.61899e-14,9.14409e-15,-40.6185,22.7829,74.2829,29.7652,1.1385,-22.9683,21.43,7.12502,3.47375,51.3815,-10.4528,9.0858,14.6222,24.2521,-14.5512,-0.78316,7.10298,-0.451072,-1.71406,-21.6347,10.854,-10.1582,8.57288,-11.3643
-0.0285218,18.0175,-0.831021,4.21794,-13.2736,0.83741,0.58322,-1.0286,-3.2606,-0.199495,-1.3903,1.76452,-0.410313,-0.684943,3.65488,-18.087,-6.66896,-11.5823,23.9489,-7.20122,4.503,11.4061,-3.79325,2.4566,2.127e-14,-3.18055e-15,-37.5815,-7.63972,-77.203,41.8645,19.8077,-22.4314,5.97466,7.12502,3.99222,-23.9677,2.127e-14,-3.18055e-15,-40.3417,22.0526,74.7982,29.8375,1.38388,-23.0549,21.2241,7.12502,3.39006,51.1769,-10.4532,9.03553,14.6505,24.2838,-14.5815,-0.849008,6.75846,-0.456839,-1.68788,-21.6099,10.8849,-10.1724,8.50005,-11.2944
-0.0285665,18.0168,-0.831171,4.2007,-13.2319,0.863348,0.419279,-0.99744,-3.26897,-0.215929,-1.34426,1.76921,-0.338975,-0.66305,3.66108,-17.7491,-6.28143,-11.6607,23.9969,-6.75103,4.78245,11.3295,-3.57049,2.65593,-3.10601e-14,7.55382e-15,-37.619,-6.95716,-77.571,42.4019,19.7082,-22.7574,5.7181,7.12502,3.67741,-24.2299,-3.10601e-14,7.55382e-15,-40.0178,20.9707,75.5823,29.9754,1.80728,-23.5286,21.0575,7.12502,2.9326,51.0171,-10.473,9.01342,14.6398,24.337,-14.6142,-0.931581,6.33779,-0.448178,-1.67217,-21.6364,10.8771,-10.14,8.47756,-11.3936
-0.0297667,18.0143,-0.832612,4.14643,-13.2167,0.945424,0.296063,-0.957717,-3.3582,-0.212405,-1.2882,1.76803,-0.26926,-0.636269,3.70765,-17.5823,-5.87009,-11.7824,24.1715,-6.2583,5.1424,11.3317,-3.32179,2.89541,1.79652e-14,-5.56597e-15,-37.5476,-6.35686,-77.9042,42.8859,19.8821,-23.0104,5.61703,7.12502,3.43306,-24.3351,1.79652e-14,-5.56597e-15,-39.6838,20.0197,76.371,30.1591,2.09115,-24.1391,20.8573,7.12502,2.34299,50.8242,-10.4644,9.02124,14.5736,24.3764,-14.6127,-0.962675,6.46342,-0.418595,-1.66459,-21.7117,10.8788,-10.15,8.43741,-11.5446
-0.030031,18.0131,-0.83513,4.11004,-13.1947,1.01123,0.263311,-0.927766,-3.41288,-0.257882,-1.24773,1.76016,-0.300234,-0.614472,3.73025,-17.9199,-5.50447,-11.6034,24.8731,-5.74763,5.05089,11.604,-3.0938,2.91718,7.42958e-15,-1.07344e-14,-37.561,-5.77621,-78.2303,43.4537,20.2246,-22.9261,5.23996,7.12502,3.51449,-24.7108,7.42958e-15,-1.07344e-14,-39.4423,19.3684,76.9334,30.4074,2.20837,-24.1907,20.5254,7.12502,2.29318,50.4928,-10.4696,9.04924,14.5107,24.4397,-14.6601,-0.977354,6.34045,-0.375138,-1.69862,-21.7749,10.8157,-10.1471,8.41173,-11.5199
-0.0303077,18.013,-0.837293,4.09033,-13.176,0.986604,0.248641,-0.899584,-3.41018,-0.316049,-1.20987,1.79976,-0.354364,-0.59339,3.77002,-18.2252,-5.16861,-11.2724,25.5406,-5.2434,4.66887,11.8498,-2.892,2.80465,-9.21864e-15,-1.98785e-14,-37.5623,-4.98578,-78.6561,44.1077,20.1368,-22.591,3.94449,7.12502,3.83803,-26.0007,-9.21864e-15,-1.98785e-14,-39.2179,18.7738,77.467,30.6459,2.29765,-24.0431,20.1945,7.12502,2.43571,50.1604,-10.462,9.09362,14.5473,24.4975,-14.7343,-1.03826,6.05978,-0.335765,-1.68418,-21.7401,10.7611,-10.1322,8.36269,-11.3753
-0.0300854,18.0114,-0.836812,3.99335,-13.2049,1.14532,0.172365,-0.854571,-3.56763,-0.318226,-1.14817,1.78199,-0.31676,-0.562827,3.83922,-18.3717,-4.82749,-11.0739,26.0499,-4.75966,4.48361,12.0201,-2.68825,2.78594,2.63638e-14,-6.36111e-15,-37.4578,-4.08435,-79.1815,44.7937,19.7412,-22.1254,2.83657,7.12502,4.28773,-27.1,2.63638e-14,-6.36111e-15,-38.8913,18.1299,78.0858,30.8298,2.44628,-23.9987,20.231,7.12502,2.47859,50.1963,-10.4151,9.13091,14.3785,24.5539,-14.8259,-1.01472,5.9048,-0.252057,-1.61985,-21.9153,10.7291,-10.1138,8.31641,-11.3704
-0.028916,18.009,-0.839665,3.9405,-13.2161,1.23863,0.0369693,-0.807214,-3.61948,-0.288726,-1.08069,1.75215,-0.216421,-0.531621,3.83509,-18.4195,-4.45971,-11.0239,26.4987,-4.28375,4.58293,12.1609,-2.46741,2.90058,-1.20762e-14,-1.15295e-14,-37.3,-3.34449,-79.6549,45.3306,19.89,-22.0731,3.21531,7.12502,4.33818,-26.7203,-1.20762e-14,-1.15295e-14,-38.4822,17.4132,78.7212,31.0273,2.62758,-23.9426,20.4375,7.12502,2.53283,50.4022,-10.4329,9.14377,14.2861,24.6085,-14.8351,-1.07012,5.68418,-0.195606,-1.62619,-22.0225,10.6722,-10.0661,8.31942,-11.5982
-0.0276742,18.0086,-0.844946,3.94647,-13.1722,1.20752,0.0702601,-0.753035,-3.60493,-0.414499,-1.01005,1.80618,-0.370198,-0.490664,3.88457,-18.4468,-4.11373,-10.9292,27.1154,-3.80437,4.49923,12.3609,-2.26934,2.94189,1.52816e-14,-1.55052e-14,-37.3723,-2.41207,-80.0426,45.8022,20.2517,-22.568,4.06962,7.12502,3.86027,-25.8752,1.52816e-14,-1.55052e-14,-38.2179,16.6325,79.4007,31.2005,2.7077,-23.9718,20.7148,7.12502,2.50462,50.6799,-10.4895,9.1504,14.3281,24.6835,-14.8647,-1.12231,5.83844,-0.169764,-1.59718,-21.9719,10.5494,-9.99449,8.20878,-11.5143
-0.0247387,18.0097,-0.846073,3.88565,-13.1532,1.20607,0.414718,-0.679567,-3.77097,-0.732619,-0.924883,1.99672,-0.893084,-0.429122,4.18393,-18.4449,-3.76442,-10.904,27.9367,-3.24335,4.22442,12.6337,-2.0751,2.93874,1.55549e-14,2.38542e-15,-37.8308,-0.93923,-80.3648,46.5762,20.0725,-22.9551,4.59314,7.12502,3.48647,-25.3581,1.55549e-14,2.38542e-15,-38.3208,15.8887,80.2124,31.4278,2.84454,-23.9825,20.5639,7.12502,2.49421,50.5291,-10.4225,9.17948,14.3215,24.7203,-14.8918,-1.07961,6.32852,-0.13137,-1.62542,-21.9743,10.5272,-9.99855,8.19449,-11.2122
-0.0232379,18.0085,-0.844299,3.75786,-13.1722,1.22506,0.375105,-0.621537,-3.73859,-0.724846,-0.845827,1.99236,-0.871277,-0.390413,4.15977,-18.4846,-3.37154,-10.5352,28.4342,-2.70134,3.91183,12.7812,-1.85003,2.85384,1.59773e-14,3.18055e-15,-37.8979,0.11927,-80.9461,47.5571,20.1965,-22.891,4.90468,7.12502,3.54838,-25.0455,1.59773e-14,3.18055e-15,-37.9471,15.0439,80.894,31.655,3.14937,-23.9754,20.0956,7.12502,2.50115,50.0607,-10.2767,9.19297,14.311,24.7292,-14.9188,-1.07677,6.24837,-0.0320997,-1.53521,-21.9993,10.5505,-10.0564,8.13852,-10.9913
-0.0214442,18.0068,-0.845668,3.66884,-13.1606,1.2321,0.317827,-0.590627,-3.67301,-0.656703,-0.802037,1.96639,-0.774579,-0.372459,4.094,-18.6891,-2.95728,-9.95101,28.853,-2.12481,3.44219,12.9283,-1.60414,2.67423,-1.41883e-14,4.77083e-15,-37.7385,0.960333,-81.565,48.5782,20.6576,-22.7928,4.77602,7.12502,3.64324,-25.1726,-1.41883e-14,4.77083e-15,-37.4184,14.2465,81.5403,31.9047,3.37065,-23.9848,19.6595,7.12502,2.49206,49.6247,-10.1755,9.20883,14.3147,24.7083,-14.9366,-1.09865,6.07249,0.0620845,-1.40577,-22.0055,10.5927,-10.0786,8.01535,-11.1755
-0.0198852,18.0061,-0.849367,3.63994,-13.1499,1.21171,0.194572,-0.593466,-3.60253,-0.532107,-0.80106,1.94932,-0.578533,-0.379086,4.03379,-19.2288,-2.61075,-9.71812,29.4849,-1.62467,3.39329,13.2571,-1.37912,2.71119,2.43511e-15,-2.46493e-14,-37.4131,1.88952,-82.2644,49.6561,21.2408,-22.7405,4.69177,7.12502,3.69371,-25.256,2.43511e-15,-2.46493e-14,-36.767,13.3716,82.2387,32.1779,3.52786,-24.206,19.5287,7.12502,2.27838,49.4963,-10.1299,9.19432,14.358,24.648,-14.8946,-1.18638,5.40906,0.0357615,-1.37458,-21.9838,10.7482,-10.1212,7.96959,-11.4229
-0.0175124,18.0069,-0.854966,3.68181,-13.1186,1.19002,0.0981796,-0.602418,-3.52812,-0.530192,-0.809744,1.94819,-0.522615,-0.385068,3.9893,-19.6954,-2.33047,-9.87565,30.3556,-1.21143,3.69583,13.6928,-1.19873,2.95024,2.96438e-14,-1.19271e-14,-37.3328,2.97934,-82.9583,50.802,21.4602,-22.9319,4.81367,7.12502,3.50883,-25.1372,2.96438e-14,-1.19271e-14,-36.3147,12.4226,82.9547,32.502,3.62813,-24.2758,19.6731,7.12502,2.21103,49.6414,-10.155,9.15485,14.3812,24.5667,-14.8358,-1.2422,5.18864,-0.136846,-1.38632,-21.9572,10.9657,-10.1905,7.95602,-11.5345
-0.0156855,18.0082,-0.862757,3.69855,-13.0509,1.15043,0.127096,-0.580508,-3.44776,-0.600211,-0.78116,1.97016,-0.614222,-0.367878,3.96741,-19.9714,-2.05549,-9.88128,31.1059,-0.804216,3.7768,14.0415,-1.03416,3.07581,-1.29459e-14,4.77083e-15,-37.4024,3.96952,-83.5542,51.9253,21.4994,-23.0573,4.84937,7.12502,3.38781,-25.1035,-1.29459e-14,4.77083e-15,-35.9722,11.3921,83.7057,32.902,3.94329,-24.3035,19.5402,7.12502,2.18421,49.5088,-10.1404,9.146,14.4304,24.5119,-14.842,-1.29202,5.39574,-0.259623,-1.27743,-21.8894,11.1136,-10.2304,7.77959,-11.6327
-0.0134768,18.0093,-0.869157,3.66957,-13.0411,1.15939,0.160394,-0.538332,-3.38425,-0.655781,-0.725743,1.95051,-0.6962,-0.33779,3.91167,-20.1194,-1.75546,-9.68197,31.7184,-0.381878,3.67036,14.3046,-0.862838,3.09055,-4.17448e-15,9.14409e-15,-37.1872,4.85689,-84.1979,52.7866,21.7325,-23.2263,5.18725,7.12502,3.22455,-24.7681,-4.17448e-15,9.14409e-15,-35.658,10.4184,84.3694,33.3611,4.18534,-24.2572,19.0664,7.12502,2.22893,49.0345,-10.1219,9.18697,14.4233,24.4927,-14.8002,-1.32079,5.74267,-0.281266,-1.20926,-21.8902,11.1746,-10.2898,7.67531,-11.5159
-0.012095,18.0092,-0.873161,3.59194,-13.0903,1.2354,-0.348884,-0.499959,-3.15971,-0.311575,-0.659437,1.72944,-0.0680448,-0.324174,3.54826,-20.309,-1.48655,-9.3449,31.9264,-0.0792914,3.6517,14.4081,-0.699702,3.08651,2.18415e-14,-2.38542e-15,-36.0595,5.60007,-85.0618,53.3464,22.2418,-23.4658,5.49827,7.12502,2.99327,-24.4605,2.18415e-14,-2.38542e-15,-34.6951,9.2357,84.9099,33.736,4.46341,-24.1541,19.1352,7.12502,2.32858,49.1022,-10.0895,9.21874,14.3409,24.4921,-14.7254,-1.33197,5.68894,-0.236829,-1.09906,-21.9762,11.2118,-10.3164,7.62323,-11.6268
-0.0105853,18.0087,-0.87586,3.50004,-13.1104,1.33179,-0.637027,-0.477545,-3.10285,-0.119331,-0.621048,1.61343,0.285721,-0.314698,3.39291,-20.3637,-1.18687,-8.97525,32.1416,0.314893,3.42215,14.4823,-0.524484,3.00498,3.97072e-14,-1.63003e-14,-35.3591,6.65861,-85.8002,54.3496,22.8335,-23.6027,5.4024,7.12502,2.86103,-24.5582,3.97072e-14,-1.63003e-14,-33.9466,8.1124,85.5437,34.1024,4.83485,-24.2683,19.716,7.12502,2.21826,49.6842,-10.0248,9.21539,14.2383,24.4957,-14.7462,-1.31615,5.40852,-0.174255,-1.06032,-22.088,11.2365,-10.2897,7.61817,-11.7671
-0.00809577,18.0083,-0.880144,3.49044,-13.0698,1.29119,-0.729177,-0.463242,-2.99753,-0.12542,-0.600359,1.61637,0.328403,-0.304935,3.33598,-20.3832,-0.887026,-8.76926,32.5799,0.750125,3.24455,14.6504,-0.353219,2.98667,-3.50358e-15,-1.94809e-14,-35.2224,8.0105,-86.4863,55.6951,23.0375,-24.0629,5.38759,7.12502,2.41657,-24.5785,-3.50358e-15,-1.94809e-14,-33.4559,7.11224,86.2056,34.4356,5.06636,-24.5252,20.2245,7.12502,1.9701,50.1951,-10.0286,9.18942,14.2799,24.5276,-14.7814,-1.31771,5.19629,-0.155398,-1.08721,-22.044,11.1978,-10.2496,7.58864,-11.5699
-0.00424509,18.0074,-0.884946,3.47325,-13.032,1.20929,-0.726923,-0.429956,-2.84246,-0.174386,-0.55744,1.63983,0.272219,-0.2816,3.27341,-20.389,-0.659976,-8.64771,33.0399,1.10497,3.08322,14.8364,-0.226462,2.97599,-5.54112e-15,3.97569e-16,-35.1218,9.51735,-87.1783,57.0158,22.9446,-24.6163,5.31289,7.12502,1.88213,-24.6586,-5.54112e-15,3.97569e-16,-33.0953,6.11806,86.8776,34.8321,5.054,-24.7361,20.3147,7.12502,1.76647,50.2872,-10.0237,9.15737,14.3644,24.5605,-14.7661,-1.31797,5.21162,-0.131167,-1.13559,-21.9663,11.1789,-10.2361,7.60793,-11.4735
-0.000632317,18.0042,-0.889593,3.36429,-12.9922,1.29449,-0.689883,-0.39782,-2.82691,-0.200547,-0.515465,1.60247,0.220862,-0.259264,3.22692,-20.2525,-0.478289,-8.65784,33.3773,1.37505,3.0655,14.94,-0.127849,3.02743,2.00773e-14,-5.96354e-15,-34.8873,10.775,-87.8291,58.3093,23.1742,-24.9944,5.11276,7.12502,1.51699,-24.8616,2.00773e-14,-5.96354e-15,-32.7787,5.00544,87.5615,35.3319,5.1323,-25.0442,20.3121,7.12502,1.46891,50.2868,-9.94957,9.04711,14.2741,24.594,-14.7484,-1.25292,5.12907,-0.0784847,-1.19231,-22.0742,11.2036,-10.1982,7.64221,-11.5476
0.00234504,18.0024,-0.895031,3.29278,-12.9306,1.32846,-0.656671,-0.377196,-2.76883,-0.239855,-0.489107,1.57052,0.159136,-0.244416,3.16184,-20.0856,-0.266481,-8.57417,33.6886,1.68587,2.95607,15.0245,-0.0125382,3.03009,-1.04859e-14,9.14409e-15,-34.6538,11.8498,-88.4753,59.5924,23.5964,-25.4434,4.91543,7.12502,1.08335,-25.0616,-1.04859e-14,9.14409e-15,-32.4748,3.92687,88.1884,35.8591,5.39879,-25.277,20.5349,7.12502,1.24405,50.511,-9.91131,8.97973,14.2476,24.6446,-14.7704,-1.27321,4.93859,-0.0417763,-1.21078,-22.1108,11.1881,-10.1638,7.5753,-11.5134
0.00431972,18.0017,-0.899846,3.2233,-12.8752,1.3236,-0.639644,-0.346271,-2.7478,-0.239723,-0.448454,1.60201,0.146748,-0.223869,3.18292,-20.1339,-0.0677646,-8.43326,34.1134,2.03067,2.72113,15.2153,0.100755,2.98305,1.86112e-14,3.57812e-15,-34.3615,13.0186,-89.018,60.9304,23.7844,-25.7706,4.85127,7.12502,0.76735,-25.1271,1.86112e-14,3.57812e-15,-32.0223,2.9262,88.875,36.3192,5.72878,-25.3496,20.3056,7.12502,1.17396,50.2821,-9.87497,9.02931,14.2588,24.7276,-14.8556,-1.30961,5.41383,0.0439476,-1.17566,-22.0982,11.1092,-10.1402,7.48243,-11.6289
0.00518567,18.0015,-0.905531,3.15061,-12.872,1.39782,-0.666122,-0.29605,-2.81593,-0.194227,-0.380262,1.59843,0.203506,-0.191353,3.21798,-20.3375,0.0521078,-8.36092,34.5466,2.26646,2.58677,15.4557,0.171662,2.97394,2.39784e-14,3.97569e-15,-33.9001,14.2424,-89.5587,62.2888,23.828,-25.8996,4.77779,7.12502,0.642693,-25.201,2.39784e-14,3.97569e-15,-31.3909,1.97068,89.5053,36.697,6.07736,-25.7054,19.4224,7.12502,0.830282,49.4005,-9.86905,9.10022,14.1767,24.7952,-14.9098,-1.31119,5.70613,0.0911188,-1.15318,-22.1739,11.0807,-10.1082,7.45351,-11.6795
0.00686486,18.0011,-0.910839,3.06802,-12.9109,1.48564,-0.761777,-0.247485,-2.8079,-0.120987,-0.312712,1.5142,0.32657,-0.160636,3.12663,-20.3488,0.169946,-8.11437,34.7235,2.45749,2.31519,15.5392,0.237583,2.85615,2.11209e-14,8.74653e-15,-33.4014,15.4507,-90.1885,63.6525,23.9699,-26.215,5.08801,7.12502,0.338092,-24.8915,2.11209e-14,8.74653e-15,-30.8016,1.00604,89.9972,37.0317,6.34029,-26.0421,18.9778,7.12502,0.505116,48.9569,-9.83173,9.04908,14.0853,24.8147,-14.8626,-1.2722,5.16434,0.122952,-1.1989,-22.2788,11.1263,-10.0973,7.51701,-11.5761
0.00875684,17.9977,-0.914418,2.99408,-12.9425,1.44921,-0.840666,-0.216442,-2.71807,-0.107039,-0.270182,1.51112,0.381483,-0.140358,3.07297,-20.1014,0.337418,-7.84605,34.8422,2.71439,1.9674,15.5339,0.326574,2.70727,3.23025e-14,-1.11319e-14,-33.0787,16.7282,-90.7812,65.0141,24.2011,-26.6858,5.39855,7.12502,-0.11667,-24.5812,3.23025e-14,-1.11319e-14,-30.3967,0.149106,90.5013,37.4092,6.29603,-25.949,19.2617,7.12502,0.595033,49.2406,-9.7317,9.04963,14.1409,24.7402,-14.7993,-1.29922,5.05635,0.0670162,-1.17767,-22.2419,11.3206,-10.1654,7.55493,-11.319
0.0108736,17.9965,-0.917154,2.96397,-12.869,1.26867,-0.85435,-0.213241,-2.59014,-0.142864,-0.267475,1.63457,0.352223,-0.138002,3.12816,-20.0377,0.514322,-7.71113,35.1591,3.01313,1.75541,15.6616,0.425883,2.6561,-1.06598e-14,1.59028e-15,-32.7861,18.0455,-91.2325,66.4078,24.3449,-26.8199,5.07914,7.12502,-0.246188,-24.9005,-1.06598e-14,1.59028e-15,-30.0622,-0.673677,91.111,37.8833,6.1704,-25.9572,19.159,7.12502,0.587046,49.1379,-9.58002,9.06948,14.3615,24.5728,-14.7823,-1.44023,4.866,-0.0774999,-1.16336,-22.0301,11.6647,-10.3516,7.49948,-10.8896
0.0146909,17.9998,-0.919927,2.97169,-12.7094,0.897761,-0.79963,-0.22546,-2.22075,-0.182997,-0.288706,1.7819,0.280911,-0.146802,3.07173,-20.1514,0.661109,-7.5931,35.5325,3.27421,1.60162,15.8622,0.511442,2.63091,-2.2736e-14,-1.19271e-15,-32.5012,19.3219,-91.6714,67.8516,24.4197,-26.9641,4.87947,7.12502,-0.385371,-25.0999,-2.2736e-14,-1.19271e-15,-29.781,-1.58719,91.7296,38.4094,6.37103,-26.4401,18.5304,7.12502,0.120719,48.5101,-9.40575,9.05738,14.7834,24.4301,-14.7559,-1.53281,5.18767,-0.121886,-1.15206,-21.6188,11.9469,-10.4684,7.35736,-11.1726
0.0211753,18.0015,-0.924904,2.82821,-12.4397,0.6729,-0.591729,-0.281463,-1.88646,-0.189291,-0.36881,1.82927,0.161736,-0.185054,2.93217,-20.1925,0.724989,-7.48099,35.7987,3.4192,1.40288,16.005,0.545336,2.56107,-5.09386e-15,0,-32.1962,20.6739,-92.1718,69.2707,24.5407,-27.3393,4.99858,7.12502,-0.747828,-24.9799,-5.09386e-15,0,-29.5005,-2.50955,92.2645,38.9627,6.55664,-26.7625,18.7052,7.12502,-0.190686,48.6849,-9.11544,8.91327,15.0636,24.3484,-14.7441,-1.60218,5.48417,-0.0124803,-1.18513,-21.3753,12.1346,-10.5243,7.1579,-11.5852
0.0216984,18.001,-0.933701,2.7683,-12.5206,0.945133,-0.616579,-0.238289,-2.14584,-0.180308,-0.309034,1.74928,0.181895,-0.155487,2.99635,-20.2498,0.7373,-7.49677,35.9916,3.49836,1.3014,16.1152,0.551516,2.54114,1.41634e-15,3.18055e-15,-31.7174,22.1731,-92.6,70.608,24.6655,-27.701,4.99468,7.12502,-1.09713,-24.9822,1.41634e-15,3.18055e-15,-29.0707,-3.47602,92.7448,39.4649,6.55988,-26.8932,19.3074,7.12502,-0.316946,49.2869,-9.15624,8.93815,14.7609,24.3367,-14.6867,-1.61405,5.54706,-0.0922473,-1.13433,-21.6754,12.253,-10.5769,7.18476,-11.6375
0.0154177,18.0014,-0.943747,2.81122,-12.8989,1.1893,-0.746897,-0.0818938,-2.4965,-0.195546,-0.0953793,1.67988,0.225216,-0.0490412,3.12421,-20.3607,0.750625,-7.50659,36.2413,3.554,1.2802,16.266,0.557618,2.55344,-2.31336e-14,5.56597e-15,-31.1441,23.4887,-92.9822,71.8129,24.931,-28.032,5.06319,7.12502,-1.41684,-24.9118,-2.31336e-14,5.56597e-15,-28.5769,-4.53399,93.2217,39.9125,6.69587,-27.108,19.5543,7.12502,-0.524357,49.5334,-9.41252,9.20175,14.471,24.4075,-14.6067,-1.56904,5.45815,-0.199342,-0.942377,-21.9416,12.2477,-10.6057,7.33588,-11.3315
0.0147493,17.9998,-0.95139,2.80132,-12.9546,1.19189,-0.749915,-0.0106341,-2.48277,-0.216884,-0.000153817,1.62624,0.198101,-0.000626863,3.06204,-20.3697,0.759095,-7.37026,36.3911,3.5727,1.14953,16.3511,0.558043,2.48066,1.71452e-15,2.62396e-14,-30.4414,24.6564,-93.3829,72.6823,25.2798,-28.5766,5.18039,7.12502,-1.9428,-24.7905,1.71452e-15,2.62396e-14,-28.1934,-5.69292,93.6665,40.4637,6.95808,-27.346,19.8407,7.12502,-0.754224,49.8191,-9.51707,9.24572,14.4728,24.5415,-14.6361,-1.5684,4.90704,-0.142732,-0.922206,-21.9455,12.0969,-10.4804,7.3919,-11.6318
0.0140742,18,-0.9564,2.82979,-13.0018,1.14461,-0.740932,0.0519884,-2.49563,-0.303914,0.0831833,1.66424,0.0977737,0.0438423,3.10912,-20.3219,0.754383,-7.36012,36.5763,3.61907,1.01488,16.4384,0.550376,2.43271,1.08338e-14,2.5842e-14,-29.7501,25.9346,-93.6802,73.4199,25.5696,-29.1536,5.13898,7.12502,-2.50009,-24.8261,1.08338e-14,2.5842e-14,-28.0401,-6.6343,94.198,41.1728,7.11338,-27.4549,20.1233,7.12502,-0.859398,50.1013,-9.60769,9.27288,14.5213,24.6204,-14.6293,-1.5774,4.52523,-0.124788,-0.778162,-21.8883,11.9916,-10.3869,7.30897,-12.0731
0.0131199,18.0012,-0.960464,2.88523,-12.9943,1.22423,-0.767947,0.0523424,-2.70673,-0.460202,0.0853944,1.74556,-0.0480774,0.0498559,3.31209,-20.1174,0.763608,-7.54021,36.7071,3.70061,0.984839,16.4508,0.549816,2.46544,1.75427e-14,-1.39149e-14,-29.4135,27.2795,-93.928,74.6188,25.8717,-29.6027,5.08975,7.12502,-2.93376,-24.8698,1.75427e-14,-1.39149e-14,-28.0031,-7.26033,94.762,41.8842,7.28585,-27.6947,20.0112,7.12502,-1.09103,49.9881,-9.71542,9.30864,14.4145,24.6556,-14.6855,-1.5906,4.84629,-0.172648,-0.696022,-21.9693,11.9075,-10.3481,7.23687,-11.997
0.01793,17.9997,-0.967214,2.81066,-12.587,1.30757,-0.637002,-0.06978,-2.76433,-0.555542,-0.0801911,1.75409,-0.206403,-0.0287627,3.35244,-19.9379,0.756862,-7.61523,36.7504,3.7227,0.933565,16.4297,0.540305,2.45752,-1.2188e-14,-3.18055e-15,-29.1631,28.5012,-94.1712,76.0863,26.2232,-29.967,5.17404,7.12502,-3.2856,-24.7804,-1.2188e-14,-3.18055e-15,-27.9001,-7.98955,95.243,42.6139,7.46014,-27.9066,19.9992,7.12502,-1.29566,49.975,-9.61409,9.0959,14.3473,24.7036,-14.819,-1.68369,5.50044,-0.106571,-0.919541,-22.0315,11.7498,-10.2412,7.02239,-11.4835
0.0174363,17.9992,-0.975646,2.65752,-12.1704,1.40957,-0.556691,-0.180283,-2.83065,-0.48952,-0.229068,1.69059,-0.171988,-0.104737,3.3237,-19.9264,0.745373,-7.62914,36.7237,3.69889,0.959376,16.4132,0.533999,2.46591,1.75179e-14,3.97569e-16,-28.4258,29.5935,-94.3388,77.181,26.6629,-30.1399,4.98404,7.12502,-3.45257,-24.9677,1.75179e-14,3.97569e-16,-27.5341,-8.89394,95.5827,43.2473,7.62812,-28.1443,20.0851,7.12502,-1.52525,50.0594,-9.44667,8.93788,14.3083,24.8208,-15.0138,-1.87979,5.24643,0.050506,-1.04951,-22.0795,11.4884,-10.0541,6.72351,-11.0529
0.0164896,17.9995,-0.980219,2.53003,-12.0275,1.55274,-0.703528,-0.208065,-2.92098,-0.358116,-0.261697,1.59213,0.0476595,-0.126804,3.27206,-19.8406,0.720922,-7.71529,36.634,3.64188,1.06191,16.3439,0.518999,2.511,-1.90958e-14,-6.75868e-15,-27.5211,30.6236,-94.4654,78.0655,27.0631,-30.2183,4.51367,7.12502,-3.52825,-25.4369,-1.90958e-14,-6.75868e-15,-27.0497,-9.77648,95.8331,43.7922,7.67951,-28.2207,20.0385,7.12502,-1.59907,50.0123,-9.40983,8.91778,14.1887,25.0321,-15.199,-1.95596,4.8982,0.263174,-1.13316,-22.2105,11.1512,-9.87037,6.64415,-10.6756
0.00725554,17.9986,-0.981334,2.52778,-12.5169,1.71824,-0.98973,-0.0274968,-3.21639,-0.328275,-0.010451,1.52863,0.218977,-0.00448382,3.37528,-19.6267,0.664255,-7.79434,36.5668,3.53433,1.12544,16.2606,0.478125,2.52627,-4.17448e-14,-8.34896e-15,-26.7925,31.6019,-94.611,78.9221,27.5119,-30.2324,3.93177,7.12502,-3.5419,-26.0185,-4.17448e-14,-8.34896e-15,-26.7607,-10.6709,96.1453,44.4486,7.90707,-28.9616,19.57,7.12502,-2.31464,49.5372,-9.63197,9.21764,13.9815,25.2217,-15.1306,-1.75046,5.07355,0.442794,-0.754794,-22.4038,10.885,-9.79477,6.75625,-10.7996
-0.0113949,17.9957,-0.987288,2.55188,-13.4104,2.06052,-1.18335,0.284015,-3.8956,-0.40078,0.418421,1.4688,0.213013,0.211797,3.70273,-19.4945,0.603983,-7.79935,36.5772,3.4339,1.1159,16.2409,0.435049,2.50197,9.31803e-16,-7.95139e-15,-26.1375,32.5576,-94.6985,79.7582,28.1837,-30.1985,3.46002,7.12502,-3.50918,-26.4908,9.31803e-16,-7.95139e-15,-26.6833,-11.5117,96.4873,45.28,8.27256,-29.9859,19.2131,7.12502,-3.3038,49.1673,-9.99159,9.78441,13.5665,25.2882,-14.9178,-1.51928,5.42354,0.475904,-0.0586846,-22.7739,10.7881,-9.81577,6.93693,-11.0642
-0.00831549,17.996,-0.988498,2.53627,-13.1932,1.97163,-1.24959,0.250042,-3.7164,-0.341006,0.374138,1.40616,0.317363,0.186229,3.53684,-19.6259,0.536134,-7.75492,36.5506,3.32664,1.12011,16.2664,0.397576,2.47801,2.82523e-14,-1.15295e-14,-25.2912,33.3871,-94.666,80.6876,28.9852,-30.137,3.35539,7.12502,-3.44976,-26.5964,2.82523e-14,-1.15295e-14,-26.3882,-12.3268,96.6704,46.1135,8.2393,-29.4438,20.6202,7.12502,-2.78034,50.5819,-9.90019,9.73324,13.6757,25.2643,-14.9956,-1.61895,5.67487,0.512056,-0.202242,-22.6741,10.7282,-9.75473,6.86782,-11.0456
0.0126479,18.0047,-0.981484,2.49019,-12.0536,1.4885,-1.19535,-0.0537974,-2.83818,-0.242948,-0.0432311,1.39464,0.424242,-0.0256629,3.02331,-19.7974,0.445064,-7.70861,36.5131,3.18044,1.14252,16.2977,0.347352,2.45477,-2.36926e-14,4.37326e-15,-24.5521,34.0956,-94.5798,81.7803,29.7363,-30.1205,3.18967,7.12502,-3.43383,-26.7624,-2.36926e-14,4.37326e-15,-26.0543,-13.0862,96.8442,47.0179,7.84526,-28.5207,22.0928,7.12502,-1.88879,52.0642,-9.40027,9.08868,14.2486,25.1526,-15.2618,-1.94569,6.26295,0.591615,-0.969742,-22.1507,10.7224,-9.6679,6.5259,-10.9669
0.0235771,18.0125,-0.975987,2.44772,-11.349,1.34511,-1.14607,-0.219248,-2.49764,-0.287661,-0.269274,1.3696,0.365746,-0.136917,2.80225,-19.7687,0.359443,-7.71826,36.5631,3.05277,1.14506,16.3246,0.29165,2.43444,2.11084e-14,1.27222e-14,-24.0777,34.7143,-94.5304,82.7922,30.5062,-30.1081,3.01463,7.12502,-3.42183,-26.9376,2.11084e-14,1.27222e-14,-25.9366,-13.7985,97.1654,47.9117,7.49985,-29.1166,21.6674,7.12502,-2.46427,51.6329,-9.03204,8.73869,14.4045,24.937,-15.3793,-2.0899,8.27278,0.539808,-1.37262,-21.9896,10.8778,-9.69026,6.27392,-11.0372
0.0255012,18.0146,-0.976522,2.37171,-11.1137,1.29625,-1.00219,-0.260275,-2.47884,-0.378196,-0.327632,1.41445,0.196354,-0.162395,2.8378,-19.6668,0.283876,-7.77456,36.6045,2.99171,1.04154,16.3293,0.241829,2.38653,-4.46769e-14,1.59028e-14,-23.5551,35.4299,-94.3931,83.6129,31.3235,-29.9828,2.84552,7.12502,-3.30083,-27.1087,-4.46769e-14,1.59028e-14,-25.9335,-14.5714,97.5798,48.8336,7.52837,-29.8974,21.5314,7.12502,-3.21839,51.4868,-8.80203,8.63819,14.4659,24.7828,-15.4114,-2.11678,9.53347,0.578756,-1.4847,-21.9277,10.9546,-9.6994,6.17541,-11.376
0.0247449,18.0134,-0.978882,2.27482,-11.0072,1.16945,-0.809569,-0.255984,-2.50116,-0.442742,-0.32611,1.54296,0.0229343,-0.158048,2.9838,-19.5889,0.202679,-7.93087,36.6207,2.93357,1.01187,16.3233,0.191214,2.38878,-3.03519e-14,-6.36111e-15,-22.9484,36.0824,-94.0857,84.3656,32.3758,-29.9198,2.70018,7.12502,-3.24003,-27.2549,-3.03519e-14,-6.36111e-15,-25.9892,-15.1733,98.0597,49.8706,7.58873,-30.13,22.0471,7.12502,-3.44297,51.999,-8.66788,8.59078,14.6464,24.8223,-15.4672,-2.18376,9.63556,0.766743,-1.46257,-21.7715,10.8008,-9.60523,6.04597,-11.5742
0.0232136,18.0113,-0.978686,2.27266,-11.0021,1.3978,-0.932771,-0.231788,-2.85759,-0.467011,-0.288405,1.54004,0.0660324,-0.139028,3.18172,-19.4251,0.107087,-8.1528,36.478,2.8096,1.11527,16.2138,0.132034,2.44325,-2.74571e-15,-1.59028e-15,-22.1932,36.5854,-93.7117,85.0665,33.5183,-29.7912,3.0009,7.12502,-3.11584,-26.9561,-2.74571e-15,-1.59028e-15,-26.0138,-15.4416,98.4204,51.0712,7.28676,-30.1797,22.8929,7.12502,-3.49097,52.844,-8.77543,8.51211,14.4091,24.9359,-15.4668,-2.19558,8.57672,0.807021,-1.47027,-22.0235,10.6311,-9.5114,6.03892,-11.5412
0.0211826,18.0091,-0.97821,2.39562,-10.9781,1.9336,-1.2807,-0.231159,-3.46058,-0.518178,-0.271461,1.38959,0.209066,-0.131834,3.3658,-19.1438,0.01114,-8.34875,36.2425,2.63848,1.26525,16.0316,0.0687826,2.50059,1.11941e-14,2.38542e-15,-21.3915,37.017,-93.4199,85.7048,34.4495,-29.5621,3.30999,7.12502,-2.89452,-26.6501,1.11941e-14,2.38542e-15,-25.9805,-15.9857,98.695,52.1773,7.15318,-30.504,23.8205,7.12502,-3.80422,53.7663,-9.05317,8.4259,13.7908,24.9848,-15.4392,-2.18272,7.90288,0.577985,-1.53281,-22.61,10.59,-9.43422,6.08934,-11.6157
0.0206284,18.0104,-0.980369,2.38696,-10.8231,1.96506,-1.31766,-0.253029,-3.48968,-0.527851,-0.29897,1.33704,0.222037,-0.145704,3.32743,-19.0417,-0.0628067,-8.4147,36.1357,2.49708,1.3644,15.9592,0.0209471,2.52486,5.57839e-15,-6.36111e-15,-20.7012,37.544,-93.2141,86.4097,35.255,-29.3826,2.72589,7.12502,-2.72116,-27.2365,5.57839e-15,-6.36111e-15,-25.9299,-16.7767,98.9636,53.0344,6.90699,-31.3341,23.8184,7.12502,-4.60571,53.7484,-9.01272,8.46889,13.7501,24.9897,-15.5747,-2.24371,9.1857,0.584327,-1.58583,-22.6326,10.5229,-9.36255,5.98066,-11.8661
0.0222964,18.0137,-0.979845,2.34718,-10.5954,1.49963,-1.23926,-0.277887,-2.97879,-0.507838,-0.340724,1.4157,0.199885,-0.166919,3.12003,-19.1356,-0.147295,-8.39612,36.1649,2.37546,1.36229,16.0052,-0.0294734,2.50053,6.83322e-15,0,-20.0062,38.0959,-92.9277,87.1885,36.1591,-28.8665,1.54635,7.12502,-2.22282,-28.4218,6.83322e-15,0,-25.8942,-17.698,99.2426,53.6468,5.98149,-32.4065,22.7292,7.12502,-5.64121,52.6341,-8.77841,8.41257,14.2852,24.9467,-15.6927,-2.27763,10.3412,0.734221,-1.52426,-22.0953,10.4526,-9.32577,5.7215,-11.6236
0.020972,18.0173,-0.974613,2.47526,-10.5284,1.27196,-1.40298,-0.281339,-2.80774,-0.560884,-0.343817,1.483,0.236948,-0.168516,3.09237,-19.1699,-0.207292,-8.44555,36.1693,2.30991,1.35764,16.0206,-0.0648716,2.49558,-9.26212e-15,-5.96354e-15,-19.3494,38.484,-92.5867,87.9259,37.3447,-28.2577,1.22175,7.12502,-1.63482,-28.7517,-9.26212e-15,-5.96354e-15,-25.6917,-18.1597,99.3281,54.8912,7.5191,-32.1232,23.5019,7.12502,-5.36766,53.414,-8.77339,8.32602,14.5453,24.833,-15.6536,-2.32015,10.1824,0.598793,-1.26228,-21.7985,10.5574,-9.37284,5.43254,-11.3028
0.01957,18.0171,-0.974501,2.44957,-10.4322,1.34711,-1.43249,-0.287102,-2.96124,-0.561393,-0.348649,1.4688,0.254073,-0.171092,3.16409,-19.2072,-0.269903,-8.51278,36.1227,2.22916,1.39681,16.0106,-0.100124,2.50879,1.61078e-14,5.56597e-15,-18.6759,38.7459,-92.1949,88.6105,38.6183,-27.5445,1.14097,7.12502,-0.945939,-28.8367,1.61078e-14,5.56597e-15,-25.6776,-19.1534,99.6884,55.814,6.53255,-32.9169,25.3783,7.12502,-6.13402,55.2695,-8.66604,8.24349,14.4764,24.6931,-15.6235,-2.35349,10.0349,0.493123,-1.19112,-21.8576,10.7957,-9.53811,5.26479,-11.0904
0.0174807,18.0149,-0.980474,2.30711,-10.2715,1.39032,-1.33776,-0.259294,-3.04314,-0.501532,-0.312448,1.41767,0.259735,-0.153881,3.15838,-19.1269,-0.393833,-8.60571,35.9442,2.02444,1.49626,15.9133,-0.174825,2.52502,-9.0447e-15,-6.36111e-15,-17.9166,38.9742,-91.7641,89.2021,39.8763,-27.1743,0.348122,7.12502,-0.588474,-29.6308,-9.0447e-15,-6.36111e-15,-25.4207,-19.4684,99.6594,56.8672,7.97866,-32.4739,23.8976,7.12502,-5.70626,53.8008,-8.46326,8.18085,14.4712,24.6135,-15.6243,-2.45454,9.75204,0.514272,-1.22101,-21.887,11.0026,-9.66057,5.13129,-11.2437
0.0146867,18.0102,-0.984701,2.12881,-10.1241,1.3058,-1.19901,-0.239151,-2.97955,-0.440787,-0.289619,1.38835,0.242086,-0.143043,3.09301,-19.0661,-0.478468,-8.63163,35.8083,1.85804,1.59416,15.8399,-0.226839,2.53734,4.54285e-14,3.97569e-16,-17.1768,39.2346,-91.3397,89.6998,41.3022,-27.7162,-0.578302,7.12502,-1.11182,-30.5551,4.54285e-14,3.97569e-16,-25.2966,-20.0766,99.7343,57.8674,8.34864,-32.5996,23.5758,7.12502,-5.82767,53.4757,-8.21605,8.13718,14.6306,24.5769,-15.6396,-2.5809,9.40216,0.616565,-1.18674,-21.7685,11.1175,-9.74729,5.00592,-11.4024
0.012478,18.0047,-0.981737,2.058,-10.1002,1.20337,-1.23662,-0.196231,-2.87993,-0.406322,-0.23225,1.35845,0.293705,-0.115747,3.0067,-19.0316,-0.519842,-8.53604,35.7109,1.75373,1.59338,15.7905,-0.252684,2.49861,3.61043e-14,-8.74653e-15,-16.5037,39.456,-90.9288,90.2863,42.1266,-27.0788,-0.978961,7.12502,-0.496241,-30.9581,3.61043e-14,-8.74653e-15,-25.356,-20.7882,99.9023,58.9475,7.83611,-32.933,24.7326,7.12502,-6.1495,54.6233,-8.08825,8.08216,14.7997,24.5477,-15.6056,-2.69494,7.8463,0.623425,-1.12798,-21.6466,11.2635,-9.8321,4.9755,-11.5273
0.0135313,18.0073,-0.950712,2.51644,-10.7154,1.24337,-2.17681,0.00167992,-2.86922,-0.490966,0.0555519,1.30923,0.712692,0.022214,2.95581,-18.9069,-0.551955,-8.58762,35.6795,1.68245,1.66236,15.7484,-0.277555,2.52202,-1.6524e-15,-4.77083e-15,-16.029,39.8581,-90.5806,90.8901,42.8376,-26.6767,-1.83031,7.12502,-0.107794,-31.81,-1.6524e-15,-4.77083e-15,-25.534,-21.3231,100.131,60.036,7.47636,-33.385,25.7709,7.12502,-6.58592,55.6485,-8.61572,8.29854,14.6476,24.5112,-15.41,-2.49893,6.21214,0.224135,-0.913959,-21.7593,11.3949,-10.0149,5.36746,-11.3135
0.012932,18.003,-0.963902,2.24219,-10.1762,1.32836,-1.67586,-0.120236,-2.99561,-0.545464,-0.118008,1.27879,0.388778,-0.0583024,2.99118,-18.8056,-0.637141,-8.72586,35.6942,1.55465,1.76541,15.7387,-0.33518,2.5663,3.15819e-14,-3.57812e-15,-15.6175,40.1107,-90.2621,91.4643,43.7758,-26.2452,-2.77357,7.12502,0.308886,-32.7531,3.15819e-14,-3.57812e-15,-25.7284,-21.8672,100.367,61.0663,7.30185,-33.7477,26.2885,7.12502,-6.93606,56.1549,-8.22823,8.03836,14.6133,24.4654,-15.5206,-2.65076,6.2641,0.3523,-1.41479,-21.8467,11.5296,-10.0042,5.31114,-11.0353
0.0119154,18.0022,-0.968434,2.13809,-9.92573,1.28663,-1.46036,-0.147762,-2.99329,-0.581316,-0.160854,1.26853,0.234365,-0.0765159,2.97881,-18.8324,-0.696573,-8.79479,35.7081,1.47039,1.83054,15.757,-0.370921,2.59176,2.56867e-15,4.77083e-15,-15.1397,40.2325,-89.9147,91.9879,44.9187,-25.5756,-3.6568,7.12502,0.955672,-33.6344,2.56867e-15,4.77083e-15,-25.8489,-22.3522,100.523,62.0787,7.11531,-33.9006,26.8247,7.12502,-7.08364,56.6862,-8.03996,7.9449,14.6907,24.4101,-15.5703,-2.73037,6.93754,0.39398,-1.60931,-21.7877,11.6292,-10.004,5.23251,-11.1999
0.0100726,18.0032,-0.968392,2.16509,-9.8617,1.11266,-1.47039,-0.151645,-2.86375,-0.585479,-0.167681,1.29451,0.23599,-0.080024,2.93245,-18.9559,-0.684795,-8.71574,35.6929,1.49359,1.77996,15.7781,-0.357391,2.56156,2.62023e-14,1.98785e-15,-14.677,40.3789,-89.5956,92.531,46.0235,-24.7881,-4.29977,7.12502,1.71621,-34.2726,2.62023e-14,1.98785e-15,-25.8899,-22.7365,100.596,63.134,7.17264,-34.0504,27.41,7.12502,-7.22817,57.2666,-7.99132,8.01372,14.9067,24.3437,-15.5792,-2.84457,7.15349,0.326843,-1.60358,-21.5769,11.7878,-10.0735,5.16086,-11.3683
0.00841605,18.0042,-0.967474,2.16648,-9.75357,1.01707,-1.49457,-0.171979,-2.81018,-0.562151,-0.194875,1.31027,0.275337,-0.0946528,2.91795,-19.1084,-0.695871,-8.71373,35.6862,1.47948,1.82024,15.811,-0.357263,2.57774,-1.13525e-14,1.15295e-14,-14.1604,40.5156,-89.2036,93.0858,47.1299,-23.8252,-4.84316,7.12502,2.6462,-34.8065,-1.13525e-14,1.15295e-14,-25.8538,-23.0924,100.68,64.1521,7.3916,-34.1935,28.0384,7.12502,-7.36633,57.8902,-7.90591,8.02648,15.0403,24.2578,-15.5885,-2.99728,6.62108,0.264887,-1.59038,-21.4515,11.9412,-10.1223,5.06241,-11.3447
0.00643606,18.0044,-0.965564,2.16424,-9.58456,1.04253,-1.54579,-0.210457,-2.92542,-0.555901,-0.243265,1.33218,0.314423,-0.119538,3.00448,-19.2071,-0.74225,-8.83429,35.6951,1.42623,1.92794,15.8407,-0.38095,2.63696,-1.42814e-14,7.95139e-16,-13.6913,40.6674,-88.7246,93.6428,48.1172,-22.9176,-5.37725,7.12502,3.52266,-35.3279,-1.42814e-14,7.95139e-16,-25.8327,-23.3775,100.84,65.0939,7.32856,-34.4017,28.7429,7.12502,-7.56732,58.5876,-7.82317,7.96323,15.0367,24.191,-15.6419,-3.12157,6.69258,0.205541,-1.57993,-21.4575,12.041,-10.1501,4.91586,-11.3925
0.00511891,18.0045,-0.961772,2.16907,-9.4274,1.04665,-1.61706,-0.224186,-2.9986,-0.557697,-0.25863,1.34621,0.354002,-0.127861,3.05971,-19.2191,-0.797374,-8.92396,35.6589,1.36104,1.97382,15.8301,-0.412056,2.65967,9.55409e-15,3.97569e-16,-13.2919,40.7463,-88.2666,94.1983,48.922,-22.0319,-5.89581,7.12502,4.37792,-35.8306,9.55409e-15,3.97569e-16,-25.8429,-23.897,101.049,65.9301,6.96067,-34.5125,29.4035,7.12502,-7.67426,59.2442,-7.76448,7.8681,15.0498,24.1611,-15.6839,-3.21372,6.45437,0.185442,-1.59668,-21.4437,12.0655,-10.2135,4.75032,-11.5284
0.00332229,18.004,-0.958426,2.19003,-9.33164,1.10554,-1.73757,-0.228934,-3.11415,-0.550786,-0.259513,1.31883,0.429035,-0.129741,3.09625,-19.1748,-0.817898,-8.92145,35.5598,1.3227,1.97319,15.7734,-0.423202,2.64892,-1.4474e-15,1.86858e-14,-12.862,40.8206,-87.806,94.7375,49.4135,-21.2322,-6.35224,7.12502,5.15011,-36.2697,-1.4474e-15,1.86858e-14,-25.8445,-24.4959,101.216,66.7629,6.57393,-34.7998,30.1175,7.12502,-7.95159,59.9479,-7.75982,7.83418,14.9966,24.1645,-15.7274,-3.2376,6.56019,0.15912,-1.5878,-21.4968,12.0526,-10.2053,4.64481,-11.6783
0.00271272,18.0035,-0.9562,2.22731,-9.21641,1.13096,-1.85731,-0.240168,-3.16291,-0.557041,-0.26999,1.28444,0.490575,-0.136032,3.0877,-19.1,-0.824101,-8.87725,35.4487,1.29459,1.95089,15.7032,-0.426967,2.62285,-1.39553e-14,3.18055e-15,-12.4522,40.8582,-87.405,95.1837,49.7474,-20.8374,-6.79615,7.12502,5.53131,-36.704,-1.39553e-14,3.18055e-15,-25.9408,-24.7043,101.39,67.7115,6.32587,-35.1937,30.6831,7.12502,-8.33169,60.4988,-7.77142,7.82266,14.9666,24.1794,-15.8235,-3.23202,7.26107,0.125386,-1.66688,-21.519,12.0215,-10.1255,4.61697,-11.5434
0.00294285,18.0035,-0.955655,2.24087,-9.07288,1.15526,-1.89543,-0.270094,-3.19049,-0.580002,-0.308254,1.25571,0.4913,-0.154861,3.07265,-19.055,-0.82239,-8.90189,35.3769,1.28412,1.99294,15.6571,-0.425221,2.64107,-1.16475e-15,-1.31198e-14,-12.1577,40.8872,-87.0942,95.6164,50.0558,-20.5312,-7.21551,7.12502,5.82697,-37.1154,-1.16475e-15,-1.31198e-14,-26.1651,-24.6183,101.537,68.7225,5.9521,-35.2773,31.053,7.12502,-8.41239,60.8655,-7.76337,7.73884,14.9442,24.1918,-15.8813,-3.28569,7.02674,0.110181,-1.76125,-21.5404,11.9851,-10.0891,4.56426,-11.7714
0.0026644,18.0048,-0.952321,2.24958,-8.92243,1.15325,-1.93509,-0.276278,-3.20276,-0.623335,-0.315335,1.24123,0.469572,-0.157367,3.06442,-18.9501,-0.831074,-8.85342,35.3075,1.25543,1.95209,15.6012,-0.433018,2.60704,-5.3237e-15,2.38542e-15,-11.9962,40.8681,-86.8095,96.0669,50.3246,-20.0972,-7.716,7.12502,6.24601,-37.6039,-5.3237e-15,2.38542e-15,-26.3511,-24.6121,101.668,69.582,5.61538,-35.0096,31.27,7.12502,-8.15403,61.0927,-7.73088,7.6945,14.9408,24.1984,-15.952,-3.31012,7.40752,0.11705,-1.82394,-21.5306,11.9467,-10.0688,4.45788,-11.846
0.00238239,18.0069,-0.948434,2.23911,-8.69882,1.17187,-1.94131,-0.300625,-3.2683,-0.655897,-0.346602,1.23481,0.442348,-0.172011,3.09404,-18.9332,-0.83315,-8.86101,35.3453,1.22894,2.02084,15.6159,-0.436132,2.63402,-1.15714e-14,7.55382e-15,-11.795,40.8806,-86.4626,96.5658,50.4976,-19.4429,-8.24939,7.12502,6.87764,-38.1177,-1.15714e-14,7.55382e-15,-26.4641,-24.7161,101.764,70.3635,5.81355,-35.0667,31.2857,7.12502,-8.20917,61.1062,-7.64933,7.61565,14.9319,24.1867,-16.0548,-3.37952,7.68912,0.116785,-1.89179,-21.536,11.9548,-10.1158,4.30541,-11.8645
0.00267348,18.0086,-0.944907,2.2863,-8.42812,1.20938,-2.03,-0.379408,-3.35868,-0.662526,-0.447242,1.24206,0.493775,-0.223234,3.1496,-19.1095,-0.837625,-8.88415,35.4378,1.24251,2.05332,15.7014,-0.433029,2.65893,2.57923e-14,-5.56597e-15,-11.5105,40.982,-86.0701,97.0474,50.5644,-18.7934,-8.65736,7.12502,7.50454,-38.5042,2.57923e-14,-5.56597e-15,-26.525,-24.7944,101.848,71.1091,6.16057,-35.426,31.1938,7.12502,-8.55591,61.0004,-7.62294,7.41626,14.8991,24.1561,-16.0913,-3.45983,7.7033,0.0162675,-2.0044,-21.5585,12.0324,-10.2108,4.17594,-11.6874
0.00137559,18.0082,-0.943434,2.34767,-8.32417,1.0997,-2.10849,-0.390293,-3.29069,-0.666766,-0.460832,1.26042,0.534134,-0.230737,3.12943,-19.2204,-0.864975,-8.86593,35.4431,1.22206,2.01872,15.7328,-0.444608,2.6385,2.16691e-14,-1.98785e-15,-11.3646,41.0548,-85.7518,97.6102,50.66,-18.01,-9.16626,7.12502,8.26072,-38.9848,2.16691e-14,-1.98785e-15,-26.6536,-25.0589,102.005,71.8142,5.6948,-35.6373,31.8289,7.12502,-8.75984,61.6271,-7.63008,7.37077,15.0285,24.1286,-16.1273,-3.50376,7.96184,-0.0980508,-2.05389,-21.4225,12.1368,-10.2615,4.14294,-11.6154
-0.00150576,18.0035,-0.944128,2.3019,-8.30388,1.02303,-2.06811,-0.346455,-3.26025,-0.66485,-0.404157,1.25232,0.508764,-0.201922,3.1056,-19.0921,-0.872705,-8.79156,35.3188,1.19937,1.93085,15.6449,-0.450906,2.57913,2.49879e-15,7.95139e-15,-11.3211,41.0431,-85.4878,98.1882,50.9258,-17.2115,-9.72266,7.12502,9.03125,-39.5093,2.49879e-15,7.95139e-15,-26.7594,-25.1743,102.079,72.4651,5.79735,-36.1367,32.1172,7.12502,-9.24167,61.8947,-7.54763,7.42027,15.1591,24.0965,-16.1378,-3.62493,6.73778,-0.121588,-2.06532,-21.3245,12.2732,-10.3077,4.13867,-11.5378
-0.00350111,17.9999,-0.94566,2.21644,-8.25887,1.11185,-2.02107,-0.330059,-3.39374,-0.626244,-0.380458,1.21157,0.520716,-0.190889,3.13954,-19.0616,-0.84043,-8.73456,35.201,1.23196,1.90468,15.5777,-0.427887,2.56088,2.41492e-15,-2.78299e-15,-11.2049,41.005,-85.1985,98.7391,51.3532,-16.4441,-10.0122,7.12502,9.77167,-39.7654,2.41492e-15,-2.78299e-15,-26.8118,-25.7459,102.225,72.9344,4.572,-36.2198,32.6981,7.12502,-9.32185,62.472,-7.47012,7.40176,15.1085,24.081,-16.0977,-3.78341,5.04504,-0.124345,-2.04436,-21.4147,12.4152,-10.3465,4.07694,-11.638
-0.00489632,18.0001,-0.943072,2.16358,-8.20321,1.07331,-2.01262,-0.329215,-3.40008,-0.591812,-0.379261,1.22775,0.551383,-0.191416,3.15978,-19.1333,-0.816938,-8.74625,35.1639,1.26787,1.93815,15.573,-0.407848,2.5838,-3.30293e-14,2.34566e-14,-11.0624,41.0399,-84.8928,99.2119,51.6119,-15.5878,-10.2404,7.12502,10.5978,-39.9532,-3.30293e-14,2.34566e-14,-26.6106,-26.1662,102.181,73.4743,4.88997,-36.4564,33.6678,7.12502,-9.55015,63.4314,-7.40121,7.42056,15.1756,24.0999,-16.1523,-3.88393,4.92562,-0.0823089,-2.05407,-21.3676,12.4809,-10.3874,4.02507,-11.669
-0.00556103,17.9982,-0.937442,2.13897,-8.16744,1.06079,-2.07207,-0.327164,-3.41176,-0.560895,-0.374116,1.23523,0.616156,-0.19059,3.17388,-19.2035,-0.820644,-8.77738,35.1691,1.27824,1.9515,15.5912,-0.406024,2.59777,1.50797e-15,1.19271e-14,-10.8955,41.0924,-84.5846,99.6032,51.7724,-14.9629,-10.7208,7.12502,11.2005,-40.4018,1.50797e-15,1.19271e-14,-26.4238,-26.849,102.181,73.9104,4.74891,-36.4738,34.4261,7.12502,-9.56699,64.1889,-7.34852,7.40212,15.1923,24.1421,-16.214,-3.86492,5.18007,-0.0294062,-2.09066,-21.3535,12.4758,-10.4218,3.99784,-11.4561
-0.00648257,17.9958,-0.934661,2.13934,-8.15377,1.1368,-2.1419,-0.332898,-3.52212,-0.555439,-0.37694,1.22381,0.661707,-0.193101,3.22395,-19.2948,-0.784017,-8.75426,35.1933,1.34726,1.92468,15.6199,-0.37894,2.59655,1.70287e-14,-6.75868e-15,-10.789,41.1372,-84.3497,99.9907,51.8923,-14.6543,-11.2442,7.12502,11.4982,-40.9089,1.70287e-14,-6.75868e-15,-26.2761,-27.4343,102.17,74.2472,4.62193,-36.7634,35.0693,7.12502,-9.84633,64.8191,-7.33595,7.36966,15.1085,24.1255,-16.1838,-3.88337,4.96297,-0.0565393,-2.09237,-21.4372,12.5231,-10.4374,3.98369,-11.6341
-0.00935536,17.9957,-0.932211,2.15075,-8.13268,1.14532,-2.18002,-0.34942,-3.61013,-0.609687,-0.396574,1.25838,0.629742,-0.201512,3.3087,-19.3066,-0.69533,-8.66341,35.2791,1.48801,1.82742,15.6563,-0.32516,2.5671,3.63947e-14,-5.1684e-15,-10.8539,41.2023,-84.2173,100.355,51.8905,-14.5884,-11.5414,7.12502,11.5617,-41.2025,3.63947e-14,-5.1684e-15,-26.5038,-27.8164,102.347,74.4147,3.35898,-37.0638,34.4767,7.12502,-10.1362,64.2125,-7.33803,7.38025,15.1161,24.1118,-16.1703,-3.94724,4.58263,-0.0853424,-1.96919,-21.4248,12.5618,-10.4541,3.87565,-11.5135
-0.00724772,18.0026,-0.932861,2.41163,-7.81876,0.983185,-2.35181,-0.458834,-3.46322,-0.755059,-0.541976,1.32878,0.588299,-0.27105,3.29385,-19.1952,-0.632187,-8.60224,35.3235,1.58954,1.72051,15.647,-0.291173,2.5289,-2.9469e-14,7.55382e-15,-10.9362,41.2397,-84.1069,100.713,51.75,-14.4924,-11.7725,7.12502,11.6543,-41.4283,-2.9469e-14,7.55382e-15,-26.67,-27.8517,102.496,74.6801,3.17996,-37.2547,34.357,7.12502,-10.3203,64.0837,-7.54714,7.27703,15.2654,24.0805,-16.2274,-4.13989,4.64146,-0.412524,-2.36527,-21.2581,12.5853,-10.3653,3.9345,-11.1681
-0.00746731,18.0033,-0.929761,2.42947,-7.69258,0.947214,-2.37911,-0.492356,-3.45175,-0.79286,-0.586594,1.35492,0.568616,-0.292385,3.31299,-19.1493,-0.602437,-8.62345,35.3503,1.65286,1.68329,15.646,-0.273715,2.52828,-8.62384e-15,-5.56597e-15,-10.9944,41.2163,-83.9923,101.095,51.5399,-14.3606,-11.9984,7.12502,11.7813,-41.647,-8.62384e-15,-5.56597e-15,-26.6689,-27.8957,102.601,74.9139,3.57131,-37.3217,35.1079,7.12502,-10.385,64.8314,-7.50296,7.18827,15.3112,24.0239,-16.2136,-4.23471,4.61821,-0.456387,-2.42978,-21.214,12.6261,-10.3932,3.8566,-11.2669
-0.00751984,18.0025,-0.925444,2.3618,-7.55131,0.994905,-2.35055,-0.519444,-3.49058,-0.783204,-0.622437,1.32465,0.56558,-0.310407,3.30275,-19.2613,-0.578712,-8.54898,35.4298,1.70761,1.60384,15.7097,-0.255903,2.49455,-2.02419e-14,6.36111e-15,-11.0246,41.1854,-83.8956,101.509,51.2742,-14.3225,-12.1736,7.12502,11.8182,-41.8202,-2.02419e-14,6.36111e-15,-26.7267,-28.0499,102.624,75.4598,4.31328,-37.3397,36.4638,7.12502,-10.4024,66.1865,-7.35883,7.10717,15.2744,23.971,-16.2736,-4.2829,4.78502,-0.407845,-2.48058,-21.2588,12.6714,-10.4433,3.76941,-11.7372
-0.00602151,18.0029,-0.921541,2.32877,-7.33758,0.983947,-2.34046,-0.582867,-3.45641,-0.768079,-0.707863,1.30739,0.581978,-0.353718,3.2631,-19.3938,-0.548058,-8.44721,35.5246,1.76855,1.51454,15.786,-0.234131,2.45351,2.7381e-14,-3.97569e-16,-10.9596,41.211,-83.7625,101.858,51.1219,-14.1977,-12.4314,7.12502,11.9385,-42.071,2.7381e-14,-3.97569e-16,-26.6822,-28.0116,102.479,75.9137,5.40701,-37.6577,36.7967,7.12502,-10.7091,66.5037,-7.26059,7.0039,15.3044,23.9784,-16.3765,-4.35329,4.74072,-0.37494,-2.68513,-21.2452,12.6669,-10.4683,3.76804,-11.682
-0.00673998,18.0005,-0.920981,2.20136,-7.34612,0.999097,-2.23799,-0.570258,-3.47554,-0.724201,-0.693363,1.27829,0.568308,-0.34688,3.24495,-19.5014,-0.52341,-8.33813,35.6318,1.80676,1.44556,15.8638,-0.218351,2.41569,1.27397e-14,-1.19271e-15,-10.8865,41.186,-83.6492,102.151,51.2251,-13.9671,-12.5631,7.12502,12.1608,-42.1897,1.27397e-14,-1.19271e-15,-26.7514,-28.2359,102.497,76.157,4.98409,-37.7101,37.0942,7.12502,-10.7596,66.7986,-7.12753,7.06143,15.3097,23.9944,-16.4306,-4.39349,4.59579,-0.223742,-2.59389,-21.2622,12.6423,-10.4743,3.70895,-11.222
-0.00788823,17.9982,-0.920485,2.12243,-7.48034,0.998106,-2.17316,-0.534343,-3.50384,-0.724134,-0.64703,1.28096,0.528563,-0.322906,3.26555,-19.5408,-0.458792,-8.26857,35.7091,1.90996,1.38154,15.9063,-0.178543,2.39736,-1.33675e-14,-5.96354e-15,-10.8654,41.2454,-83.5453,102.434,51.4224,-13.5832,-12.6299,7.12502,12.531,-42.2342,-1.33675e-14,-5.96354e-15,-26.9362,-28.4991,102.589,76.3639,4.33405,-37.8851,37.1726,7.12502,-10.9285,66.8682,-7.07278,7.19775,15.323,24.0163,-16.4294,-4.38658,4.41289,-0.105364,-2.44972,-21.2639,12.6089,-10.4718,3.70402,-10.8996
-0.00649646,17.9971,-0.914185,2.16206,-7.42236,1.06348,-2.31421,-0.578251,-3.5443,-0.716953,-0.699638,1.24987,0.619401,-0.351169,3.25349,-19.6036,-0.384699,-8.23011,35.7275,2.02324,1.36202,15.9232,-0.129909,2.40454,1.56426e-14,-3.97569e-16,-10.7507,41.325,-83.4122,102.691,51.5663,-13.0501,-12.6699,7.12502,13.0449,-42.242,1.56426e-14,-3.97569e-16,-26.8866,-28.5016,102.45,76.7757,5.23056,-38.0853,37.6599,7.12502,-11.1215,67.3452,-7.10232,7.16195,15.241,24.0522,-16.4872,-4.36665,4.70903,-0.13304,-2.48534,-21.3373,12.59,-10.4721,3.68004,-11.057
-0.00464307,17.9969,-0.909305,2.19462,-7.32422,1.1565,-2.48293,-0.6359,-3.58132,-0.670177,-0.768858,1.19452,0.767435,-0.389524,3.21319,-19.6205,-0.342999,-8.20602,35.6522,2.09317,1.32041,15.8862,-0.10048,2.39379,-1.07383e-14,-1.07344e-14,-10.6286,41.3957,-83.2906,102.947,51.3984,-12.6953,-12.5659,7.12502,13.3869,-42.1158,-1.07383e-14,-1.07344e-14,-27.0569,-29.073,102.6,76.8511,3.31541,-37.9012,38.142,7.12502,-10.9439,67.8368,-7.12685,7.08177,15.1329,24.0959,-16.5523,-4.37417,4.87199,-0.159807,-2.51264,-21.4323,12.5671,-10.4435,3.59202,-11.1116
-0.00398204,17.9957,-0.908571,2.17667,-7.29178,1.17646,-2.49573,-0.658933,-3.61426,-0.657429,-0.798242,1.2034,0.790689,-0.404949,3.23973,-19.599,-0.333995,-8.25442,35.6015,2.13668,1.28169,15.8544,-0.0924671,2.39199,8.49455e-15,2.78299e-15,-10.6159,41.4564,-83.1622,103.183,51.1531,-12.5869,-12.3052,7.12502,13.4913,-41.8482,8.49455e-15,2.78299e-15,-27.1622,-29.1272,102.639,77.0754,3.46706,-38.0098,37.8914,7.12502,-11.0488,67.5806,-7.1088,7.05539,15.1148,24.1287,-16.5816,-4.37523,4.91975,-0.139466,-2.44341,-21.447,12.5458,-10.4473,3.48813,-11.0975
-0.00335797,17.9951,-0.907348,2.11363,-7.28107,1.16598,-2.3833,-0.668294,-3.67634,-0.679016,-0.813898,1.25707,0.708406,-0.410861,3.33095,-19.5749,-0.310245,-8.28675,35.6066,2.20264,1.23039,15.8487,-0.076992,2.38741,5.01854e-15,-3.97569e-16,-10.6691,41.606,-83.0082,103.403,51.024,-12.6323,-12.2257,7.12502,13.4476,-41.7716,5.01854e-15,-3.97569e-16,-27.3918,-29.16,102.783,77.3773,3.46086,-37.894,38.0078,7.12502,-10.937,67.703,-7.05429,7.06368,15.1415,24.1641,-16.5906,-4.47706,4.3015,-0.0598387,-2.40415,-21.4366,12.5303,-10.4664,3.42252,-11.3513
-0.00245068,17.9927,-0.903102,2.03166,-7.31297,1.12088,-2.30622,-0.678044,-3.66003,-0.662313,-0.830149,1.29307,0.684066,-0.418771,3.35913,-19.6175,-0.253101,-8.2947,35.6393,2.30875,1.20389,15.8689,-0.0394237,2.39829,-1.7125e-14,-1.59028e-15,-10.6876,41.8083,-82.9108,103.591,50.8914,-12.745,-12.1003,7.12502,13.339,-41.6534,-1.7125e-14,-1.59028e-15,-27.5295,-29.131,102.839,77.6893,3.59235,-37.6687,38.1106,7.12502,-10.7197,67.8171,-6.9729,7.09638,15.2039,24.196,-16.5907,-4.50019,3.87305,0.0568512,-2.39391,-21.3986,12.5346,-10.4691,3.46304,-11.6405
-0.00081422,17.9922,-0.900855,1.97363,-7.35567,1.1457,-2.24862,-0.683276,-3.69751,-0.662049,-0.838386,1.30187,0.653413,-0.422297,3.38973,-19.646,-0.215259,-8.31867,35.6686,2.38576,1.18839,15.8856,-0.0144407,2.41104,7.91334e-15,9.54166e-15,-10.7523,41.9581,-82.8751,103.739,50.7206,-12.833,-11.7072,7.12502,13.2542,-41.2658,7.91334e-15,9.54166e-15,-27.7254,-29.0086,102.867,78.0562,3.8361,-37.3773,38.1119,7.12502,-10.4386,67.8328,-6.92893,7.11715,15.1767,24.2231,-16.5999,-4.40272,4.16844,0.12943,-2.34341,-21.4326,12.5283,-10.44,3.47157,-11.6448
0.000748359,17.9913,-0.899262,1.93411,-7.37906,1.17098,-2.24148,-0.685707,-3.72126,-0.639258,-0.841053,1.2947,0.67328,-0.424445,3.39557,-19.6989,-0.203841,-8.28985,35.6951,2.42705,1.1167,15.9114,-0.00552941,2.384,-1.44818e-14,3.97569e-15,-10.7618,42.0179,-82.8433,103.804,50.6315,-13.0985,-11.1415,7.12502,12.9983,-40.7166,-1.44818e-14,3.97569e-15,-27.9246,-28.9226,102.868,78.4026,4.28932,-37.0633,37.7629,7.12502,-10.1357,67.4987,-6.88884,7.14159,15.1472,24.2283,-16.5955,-4.37236,4.46824,0.177871,-2.34473,-21.4731,12.5489,-10.4856,3.49257,-11.5645
0.00315899,17.9907,-0.895298,1.91014,-7.40073,1.2121,-2.24909,-0.693328,-3.74376,-0.642577,-0.850415,1.28776,0.675158,-0.429131,3.40075,-19.6892,-0.186306,-8.31293,35.7106,2.46961,1.09696,15.9147,0.00537413,2.38752,-1.27882e-14,9.14409e-15,-10.8079,42.1427,-82.817,103.847,50.5566,-13.5155,-10.4252,7.12502,12.5962,-40.0254,-1.27882e-14,9.14409e-15,-28.1209,-28.8208,102.915,78.627,4.8577,-36.6883,36.9234,7.12502,-9.77393,66.6766,-6.84767,7.09464,15.0876,24.2151,-16.5915,-4.30185,4.37883,0.195621,-2.37951,-21.5405,12.626,-10.5829,3.52536,-11.4221
0.00347722,17.9919,-0.895696,1.93169,-7.46419,1.16215,-2.17921,-0.6957,-3.72499,-0.715761,-0.857607,1.32904,0.561772,-0.429116,3.43387,-19.5863,-0.157317,-8.31839,35.6748,2.53204,1.01917,15.8712,0.0212988,2.36403,1.14177e-14,-1.27222e-14,-10.9578,42.3134,-82.8361,103.878,50.4402,-14.0362,-9.59034,7.12502,12.0942,-39.2208,1.14177e-14,-1.27222e-14,-28.403,-28.6484,103.019,78.8519,5.2989,-36.1675,35.9991,7.12502,-9.27139,65.7752,-6.87296,7.15056,15.1419,24.1991,-16.5713,-4.34583,4.05741,0.140094,-2.38949,-21.487,12.7285,-10.6636,3.56996,-11.0572
0.00267751,17.9916,-0.899547,1.98047,-7.53144,0.977723,-2.11719,-0.685159,-3.57783,-0.768434,-0.8497,1.38971,0.471085,-0.422429,3.41479,-19.5153,-0.122821,-8.27378,35.6113,2.57599,0.967829,15.8218,0.041527,2.33982,-2.07606e-14,-1.27222e-14,-11.062,42.4095,-82.8797,103.883,50.2163,-14.4974,-9.01742,7.12502,11.6495,-38.6736,-2.07606e-14,-1.27222e-14,-28.6026,-28.52,103.016,79.0754,5.44098,-35.5437,35.385,7.12502,-8.66949,65.187,-6.92119,7.25685,15.3635,24.1825,-16.5515,-4.43869,3.86788,0.0310309,-2.30932,-21.2615,12.8425,-10.6842,3.55248,-11.08
0.0027502,17.9909,-0.90154,1.96554,-7.59366,0.898361,-2.09454,-0.673181,-3.49477,-0.747198,-0.836017,1.39695,0.478021,-0.416105,3.37589,-19.5229,-0.0923844,-8.22551,35.5411,2.61736,0.927735,15.7877,0.0626169,2.32038,5.85172e-15,3.57812e-15,-11.0449,42.4577,-82.88,103.898,49.8158,-14.8597,-8.62839,7.12502,11.3001,-38.304,5.85172e-15,3.57812e-15,-28.6926,-28.4242,102.926,79.2251,5.35886,-34.8878,34.9677,7.12502,-8.0365,64.7949,-6.91576,7.35284,15.4589,24.1822,-16.5806,-4.43232,4.23715,-0.00798204,-2.18291,-21.1606,12.93,-10.6931,3.53291,-11.4055
0.00486286,17.9887,-0.898334,1.92288,-7.6695,0.929491,-2.12419,-0.662506,-3.48059,-0.701525,-0.820533,1.3712,0.539685,-0.41033,3.34109,-19.6356,-0.0761677,-8.22591,35.5473,2.65409,0.931675,15.815,0.0772804,2.33065,-3.00771e-14,-3.97569e-15,-11.0587,42.5154,-82.8846,103.953,49.2287,-15.2,-8.26213,7.12502,10.9719,-37.9554,-3.00771e-14,-3.97569e-15,-28.7948,-28.4211,102.887,79.3608,5.37476,-34.5381,34.7526,7.12502,-7.69895,64.5925,-6.89228,7.35344,15.412,24.2269,-16.5696,-4.33957,4.27849,0.0566634,-2.2292,-21.218,12.9411,-10.7077,3.69173,-11.4066
0.00786517,17.9875,-0.89436,1.87858,-7.72184,1.02389,-2.16119,-0.656775,-3.54622,-0.664079,-0.809756,1.34527,0.598475,-0.406736,3.35101,-19.6691,-0.0463483,-8.18301,35.484,2.71677,0.84834,15.7909,0.0996469,2.298,-2.07947e-15,9.54166e-15,-11.0986,42.5473,-82.8907,103.983,48.4197,-15.5195,-7.74528,7.12502,10.6637,-37.4547,-2.07947e-15,9.54166e-15,-29.0265,-28.5152,102.921,79.5877,5.62895,-34.3623,34.5372,7.12502,-7.52927,64.3832,-6.88972,7.31226,15.287,24.3003,-16.5776,-4.24429,4.28229,0.151518,-2.28123,-21.3534,12.8753,-10.7166,3.76793,-11.3013
0.00971472,17.9865,-0.894222,1.82179,-7.75867,1.15284,-2.145,-0.659384,-3.67547,-0.640216,-0.810575,1.31603,0.615285,-0.407946,3.39372,-19.6688,-0.0260727,-8.15433,35.42,2.75254,0.799786,15.7589,0.114206,2.27736,1.6614e-14,-4.37326e-15,-11.1421,42.5898,-82.8954,103.985,47.4618,-15.8039,-7.25304,7.12502,10.3894,-36.9764,1.6614e-14,-4.37326e-15,-29.3486,-28.6424,103.011,79.8465,5.72217,-34.333,34.4589,7.12502,-7.50103,64.3059,-6.88728,7.27887,15.1373,24.3656,-16.5705,-4.20025,4.06338,0.232133,-2.3068,-21.5135,12.8226,-10.7007,3.77736,-11.1044
0.0127026,17.985,-0.892845,1.77657,-7.81866,1.2024,-2.12902,-0.653766,-3.67808,-0.632182,-0.80332,1.29154,0.613648,-0.404404,3.37022,-19.6309,-0.0160892,-8.14308,35.3394,2.76157,0.783633,15.7103,0.120986,2.26785,2.14454e-14,-4.37326e-15,-11.2282,42.6536,-82.9605,103.993,46.3475,-16.1124,-6.66444,7.12502,10.0917,-36.4024,2.14454e-14,-4.37326e-15,-29.7091,-28.8954,103.122,80.1248,5.68192,-34.378,34.4954,7.12502,-7.54445,64.3409,-6.88044,7.26794,15.0675,24.4164,-16.5797,-4.14077,4.08068,0.309957,-2.27275,-21.5863,12.7827,-10.6713,3.80463,-10.9961
0.0152906,17.9846,-0.890538,1.74045,-7.88361,1.15609,-2.11842,-0.637192,-3.59049,-0.624007,-0.783362,1.29251,0.613284,-0.394483,3.32245,-19.5777,-0.0130673,-8.16225,35.2657,2.75657,0.803323,15.661,0.122923,2.27633,1.25452e-14,-8.74653e-15,-11.3867,42.6819,-83.0546,104.039,45.2594,-16.5025,-5.9026,7.12502,9.71539,-35.6585,1.25452e-14,-8.74653e-15,-29.9977,-29.1393,103.215,80.3446,5.87326,-34.3601,34.4546,7.12502,-7.52718,64.3007,-6.86694,7.29371,15.1117,24.4687,-16.616,-4.09206,4.23419,0.400938,-2.15802,-21.5373,12.7242,-10.6574,3.75931,-10.9246
0.0177499,17.9857,-0.888539,1.80487,-7.95394,1.13299,-2.20373,-0.617501,-3.53574,-0.631928,-0.755452,1.29193,0.649915,-0.381089,3.29098,-19.6141,-0.00263083,-8.13521,35.2179,2.77716,0.770584,15.6462,0.132297,2.26094,1.90787e-14,-1.39149e-14,-11.5347,42.7044,-83.136,104.07,44.431,-16.8269,-5.12763,7.12502,9.4024,-34.8979,1.90787e-14,-1.39149e-14,-30.2084,-29.2774,103.292,80.4682,6.13078,-34.3763,34.3705,7.12502,-7.5428,64.216,-6.96541,7.28055,15.1133,24.4999,-16.5821,-4.05424,3.6845,0.366867,-2.11587,-21.5219,12.7029,-10.6773,3.7759,-11.406
0.0212843,17.9841,-0.880462,1.80886,-8.14198,1.21313,-2.36522,-0.580004,-3.57011,-0.576935,-0.698376,1.26457,0.792208,-0.356312,3.28208,-19.7216,0.0160245,-8.06985,35.1858,2.83087,0.668046,15.6567,0.148935,2.21646,3.56803e-14,-5.1684e-15,-11.5822,42.782,-83.1445,104.039,43.9324,-17.0657,-4.49998,7.12502,9.17199,-34.2805,3.56803e-14,-5.1684e-15,-30.3805,-29.4047,103.353,80.6398,6.44566,-34.4518,34.5026,7.12502,-7.61571,64.3454,-7.01581,7.27013,14.9878,24.523,-16.4733,-3.93599,3.28551,0.408869,-2.179,-21.6645,12.7019,-10.7276,4.01358,-11.7144
0.0248146,17.9811,-0.87083,1.67134,-8.42992,1.24412,-2.39614,-0.531023,-3.58194,-0.469049,-0.630742,1.27609,0.914998,-0.32675,3.30209,-19.859,0.0429585,-7.99539,35.1346,2.9104,0.52654,15.6653,0.172161,2.1585,1.1493e-14,0,-11.5569,42.9357,-83.1134,103.974,43.5068,-17.2881,-3.88909,7.12502,8.95734,-33.6789,1.1493e-14,0,-30.5777,-29.3704,103.411,80.9218,6.86343,-34.4929,34.7251,7.12502,-7.65529,64.5665,-6.91262,7.39352,14.9337,24.5442,-16.4175,-3.77049,3.40136,0.606462,-2.09323,-21.7524,12.7123,-10.7846,4.21925,-11.4515
0.0271319,17.9801,-0.867524,1.57521,-8.59199,1.21848,-2.32318,-0.499977,-3.54291,-0.421155,-0.592483,1.29057,0.91987,-0.308394,3.29662,-19.9537,0.0528721,-7.94589,35.0906,2.94411,0.450575,15.6673,0.182655,2.12409,-1.44899e-14,-3.97569e-16,-11.6762,43.0603,-83.1617,103.98,42.8235,-17.5567,-3.27785,7.12502,8.69815,-33.0786,-1.44899e-14,-3.97569e-16,-30.9059,-29.33,103.485,81.2323,7.15766,-34.306,34.6159,7.12502,-7.47492,64.4639,-6.83416,7.53863,14.961,24.553,-16.4464,-3.72093,3.54119,0.707483,-2.01687,-21.7443,12.7666,-10.8414,4.30771,-11.187
0.0278571,17.9806,-0.869981,1.563,-8.6127,1.17088,-2.24251,-0.492527,-3.50035,-0.406955,-0.586284,1.30342,0.888436,-0.304786,3.28659,-20.0528,0.0357506,-7.93257,35.0505,2.92758,0.438279,15.6725,0.176594,2.11407,-3.96754e-15,9.14409e-15,-11.7972,43.1903,-83.2136,103.992,41.9984,-17.6926,-3.02631,7.12502,8.56704,-32.8325,-3.96754e-15,9.14409e-15,-31.2368,-29.438,103.554,81.4461,7.12414,-34.0108,34.2227,7.12502,-7.18994,64.0806,-6.83181,7.5771,15.0176,24.5566,-16.4374,-3.72527,3.61639,0.678066,-1.96213,-21.6857,12.8366,-10.8419,4.28917,-11.4197
0.0292818,17.9813,-0.87305,1.62512,-8.58726,1.10531,-2.23228,-0.519531,-3.44412,-0.401803,-0.624235,1.33306,0.890888,-0.32379,3.28434,-20.1657,0.039788,-7.95203,34.9867,2.93861,0.471279,15.6658,0.185315,2.13392,-5.11948e-15,-1.31198e-14,-11.8401,43.4637,-83.1993,103.965,41.052,-17.77,-3.10694,7.12502,8.49235,-32.9162,-5.11948e-15,-1.31198e-14,-31.4789,-29.4625,103.608,81.614,7.21994,-33.8681,33.7671,7.12502,-7.05226,63.6296,-6.89022,7.5754,15.0782,24.5531,-16.4258,-3.74827,3.65987,0.55571,-1.94728,-21.6075,12.9316,-10.8513,4.24639,-11.7582
0.031368,17.9816,-0.874231,1.63979,-8.54679,1.16839,-2.19631,-0.556737,-3.51026,-0.421009,-0.673653,1.33235,0.855822,-0.347693,3.31975,-20.2033,0.0569263,-7.92234,34.923,2.97835,0.408493,15.6438,0.199043,2.10858,-6.86836e-15,-3.18055e-15,-11.9622,43.8066,-83.2076,104.003,39.7869,-17.8533,-3.05557,7.12502,8.41188,-32.8681,-6.86836e-15,-3.18055e-15,-31.7968,-29.3495,103.711,81.8073,7.51986,-33.6802,33.6611,7.12502,-6.87083,63.5296,-6.91582,7.51848,14.9997,24.5488,-16.3948,-3.79288,3.33011,0.460812,-2.08479,-21.6901,13.0526,-10.871,4.32751,-11.5754
0.0337358,17.9802,-0.874805,1.63302,-8.55792,1.15556,-2.10381,-0.572709,-3.50753,-0.480648,-0.69891,1.36431,0.74518,-0.357181,3.35156,-20.1612,0.0716698,-7.90937,34.9102,3.01461,0.343477,15.6284,0.207074,2.08438,-9.02878e-15,8.34896e-15,-12.2607,44.1726,-83.2641,104.108,38.5306,-18.0481,-2.91451,7.12502,8.22387,-32.7345,-9.02878e-15,8.34896e-15,-32.2395,-29.1525,103.896,81.9913,7.59637,-33.2524,33.888,7.12502,-6.45788,63.7695,-6.91794,7.51705,15.0042,24.5566,-16.4154,-3.75075,3.64491,0.424109,-2.06977,-21.6877,13.1301,-10.8824,4.34276,-11.7301
0.0357701,17.9781,-0.87223,1.59271,-8.66325,1.067,-2.04258,-0.557281,-3.45026,-0.502565,-0.682269,1.42698,0.687051,-0.347304,3.3851,-20.1117,0.0761626,-7.91723,34.8945,3.03603,0.294979,15.6099,0.208733,2.06792,3.53775e-15,1.19271e-14,-12.5425,44.5129,-83.3064,104.2,37.6075,-18.2657,-2.63843,7.12502,8.01387,-32.4665,3.53775e-15,1.19271e-14,-32.7246,-28.9913,104.121,82.1949,7.39611,-32.916,33.8868,7.12502,-6.13308,63.7781,-6.88172,7.60979,15.0968,24.5826,-16.4288,-3.68307,4.1684,0.497622,-2.07792,-21.6126,13.1415,-10.8952,4.44417,-11.8261
0.0390588,17.9746,-0.867952,1.5,-8.76883,1.05529,-2.01157,-0.544848,-3.459,-0.439739,-0.666377,1.46995,0.733469,-0.341365,3.43483,-20.149,0.068243,-7.91213,34.7916,3.04995,0.220372,15.5709,0.208331,2.03637,-3.47058e-15,0,-12.7073,44.8664,-83.2851,104.295,36.9723,-18.4959,-2.41949,7.12502,7.79176,-32.2559,-3.47058e-15,0,-33.1281,-28.7921,104.33,82.4125,7.19168,-32.5589,33.9218,7.12502,-5.78833,63.8228,-6.7842,7.6886,15.1003,24.5853,-16.4225,-3.63597,4.12433,0.599221,-2.12701,-21.6414,13.1935,-10.9339,4.62299,-11.9502
0.0420709,17.9724,-0.866347,1.44939,-8.77719,1.07996,-1.96929,-0.548131,-3.47337,-0.396698,-0.671483,1.47003,0.754582,-0.345078,3.44302,-20.2359,0.0482504,-7.8707,34.7296,3.03041,0.169075,15.5646,0.199987,2.00383,-8.8929e-15,-2.14687e-14,-12.9103,45.1297,-83.3252,104.435,36.5537,-18.6862,-2.23021,7.12502,7.60807,-32.0734,-8.8929e-15,-2.14687e-14,-33.4787,-28.7719,104.496,82.6171,7.28475,-32.1955,34.098,7.12502,-5.43748,64.0083,-6.73328,7.66217,15.0666,24.5979,-16.4099,-3.62358,3.71611,0.642,-2.17169,-21.6865,13.2225,-10.9743,4.66507,-11.5442
0.0438218,17.9741,-0.867618,1.44426,-8.77894,1.05089,-1.88879,-0.558261,-3.46887,-0.415421,-0.688138,1.51029,0.692091,-0.351885,3.48243,-20.2885,0.030678,-7.91006,34.7156,3.02995,0.154766,15.5706,0.19237,2.0048,-2.19919e-14,-3.18055e-15,-13.163,45.4577,-83.3912,104.601,36.1274,-18.92,-1.97663,7.12502,7.38236,-31.8278,-2.19919e-14,-3.18055e-15,-33.8317,-28.9154,104.716,82.7981,7.95609,-32.152,33.6141,7.12502,-5.39552,63.5254,-6.74545,7.64886,15.0928,24.6269,-16.4042,-3.61192,3.62602,0.662776,-2.14385,-21.6588,13.209,-10.9876,4.64186,-11.5176
0.0428093,17.9754,-0.874823,1.4219,-8.71832,1.10922,-1.7382,-0.590989,-3.63849,-0.446041,-0.734185,1.56509,0.582967,-0.372475,3.63525,-20.3272,0.0101568,-7.97721,34.6914,3.02973,0.151131,15.568,0.183336,2.01476,1.59202e-14,7.95139e-16,-13.3489,45.8481,-83.3654,104.763,35.648,-19.1589,-1.60729,7.12502,7.1518,-31.4664,1.59202e-14,7.95139e-16,-34.1413,-29.007,104.971,82.964,8.80027,-32.6024,32.2756,7.12502,-5.83035,62.1754,-6.75653,7.59892,15.0545,24.6464,-16.3567,-3.70874,3.29598,0.649222,-1.95732,-21.6771,13.2155,-10.9601,4.39236,-11.5215
0.0418907,17.9739,-0.879201,1.40563,-8.70702,1.11349,-1.66317,-0.604838,-3.72192,-0.438828,-0.754047,1.61463,0.551814,-0.382018,3.73386,-20.3792,-0.00676285,-8.00844,34.6315,3.03227,0.118187,15.5523,0.177479,2.00616,1.96316e-14,-5.1684e-15,-13.5025,46.2168,-83.3444,104.928,35.0147,-19.3729,-1.08194,7.12502,6.94516,-30.948,1.96316e-14,-5.1684e-15,-34.4499,-28.9893,105.152,83.1435,9.17048,-32.7699,30.1833,7.12502,-5.99204,60.0785,-6.73977,7.5911,15.066,24.6324,-16.3626,-3.73898,3.36206,0.602975,-1.8097,-21.6454,13.2922,-10.963,4.22957,-11.6506
0.0473039,17.9719,-0.87023,1.39328,-8.88164,1.05296,-1.74317,-0.555185,-3.59375,-0.415147,-0.687339,1.63346,0.613598,-0.35022,3.68164,-20.364,-0.0228556,-8.05524,34.5579,3.01228,0.140904,15.513,0.169697,2.01867,-1.41662e-14,8.34896e-15,-13.7802,46.585,-83.4421,105.199,34.1231,-19.5506,-0.818764,7.12502,6.77368,-30.6904,-1.41662e-14,8.34896e-15,-34.8174,-29.0269,105.324,83.3781,9.9499,-31.9241,30.6813,7.12502,-5.17546,60.5981,-6.72876,7.66254,15.0892,24.6266,-16.3581,-3.62355,3.60301,0.630977,-1.90905,-21.649,13.3642,-11.0375,4.51064,-11.4843
0.0522866,17.9734,-0.86669,1.43451,-8.97786,0.93014,-1.75211,-0.535263,-3.47008,-0.431537,-0.663384,1.70931,0.599123,-0.337553,3.69081,-20.3971,-0.0220953,-8.03268,34.5355,3.04365,0.0455056,15.5123,0.172284,1.98002,-8.90183e-15,5.96354e-15,-14.063,47.038,-83.4768,105.491,33.1231,-19.868,-0.751554,7.12502,6.4672,-30.6328,-8.90183e-15,5.96354e-15,-35.3327,-28.9489,105.54,83.8181,11.2495,-31.5707,29.3321,7.12502,-4.83421,59.2569,-6.77258,7.72947,15.1905,24.6258,-16.3332,-3.60213,3.98965,0.602758,-2.01951,-21.567,13.4157,-11.0809,4.72049,-11.4164
0.0515511,17.975,-0.874162,1.48101,-8.88891,0.950564,-1.67699,-0.569732,-3.54209,-0.457884,-0.710726,1.72789,0.535277,-0.359566,3.75041,-20.3979,-0.00789825,-8.00067,34.4394,3.0582,0.019095,15.4664,0.183244,1.96447,-1.62524e-14,1.19271e-15,-14.2213,47.4201,-83.4839,105.658,32.2649,-20.2129,-0.31966,7.12502,6.13426,-30.2108,-1.62524e-14,1.19271e-15,-35.9718,-28.7103,105.699,84.3738,11.5623,-31.0252,27.43,7.12502,-4.30747,57.3662,-6.83648,7.68054,15.1771,24.6298,-16.309,-3.64033,4.02849,0.497003,-1.91558,-21.5461,13.4547,-11.0861,4.51315,-11.3187
0.0535702,17.974,-0.875867,1.41965,-8.91076,1.08395,-1.62601,-0.578205,-3.60134,-0.428922,-0.721957,1.65201,0.537218,-0.365717,3.70543,-20.3041,0.0395367,-7.98187,34.2798,3.08436,0.0698435,15.3642,0.212645,1.98379,3.34168e-15,7.95139e-15,-14.3564,47.7293,-83.5732,105.771,31.5434,-20.4603,0.697259,7.12502,5.89538,-29.2007,3.34168e-15,7.95139e-15,-36.1861,-28.8372,105.741,84.3865,11.4019,-30.479,26.3535,7.12502,-3.78004,56.2997,-6.81882,7.66029,15.0222,24.6514,-16.3023,-3.58269,3.91193,0.53139,-1.89069,-21.7021,13.4733,-11.112,4.5185,-11.305
0.0597783,17.9717,-0.872036,1.31034,-9.01492,1.11826,-1.58449,-0.586626,-3.53049,-0.352212,-0.735082,1.63607,0.592874,-0.374663,3.64857,-20.3167,0.093628,-8.03009,34.1523,3.16941,0.0959323,15.3001,0.251617,2.01662,-4.32745e-15,-6.75868e-15,-14.3862,48.1349,-83.5407,105.904,30.9907,-20.8387,1.69826,7.12502,5.53004,-28.2096,-4.32745e-15,-6.75868e-15,-35.9638,-29.2352,105.732,83.978,11.7197,-30.0507,26.0102,7.12502,-3.36643,55.9634,-6.74769,7.67922,14.9567,24.7034,-16.3097,-3.49664,4.14007,0.695252,-2.01583,-21.8106,13.4371,-11.0759,4.78944,-11.5163
0.0637786,17.9709,-0.87283,1.292,-9.03256,1.1493,-1.52505,-0.620637,-3.53104,-0.335487,-0.782374,1.65527,0.581238,-0.398407,3.66815,-20.4107,0.150541,-8.03151,34.1025,3.28431,0.0413208,15.2941,0.293013,2.01525,-4.54192e-14,-6.75868e-15,-14.3788,48.6026,-83.4736,106.071,30.6531,-21.2796,2.26121,7.12502,5.10437,-27.6573,-4.54192e-14,-6.75868e-15,-36.0229,-29.4214,105.756,83.9095,12.056,-29.3082,25.6617,7.12502,-2.64936,55.625,-6.77385,7.65217,14.8999,24.7546,-16.328,-3.44829,4.23499,0.735925,-2.08403,-21.8743,13.375,-10.9907,4.89029,-11.6749
0.0666836,17.9713,-0.876819,1.35262,-8.99164,1.1691,-1.50337,-0.646721,-3.52309,-0.356393,-0.818065,1.64777,0.5506,-0.415256,3.65546,-20.4848,0.169802,-8.00535,34.1036,3.3116,0.041413,15.3103,0.307171,2.01688,5.21142e-14,3.57812e-15,-14.4485,49.0056,-83.4802,106.27,30.481,-21.5637,2.74728,7.12502,4.83004,-27.1777,5.21142e-14,3.57812e-15,-36.3497,-29.5125,105.857,84.1004,12.1621,-28.5182,25.1384,7.12502,-1.88636,55.1098,-6.88525,7.60596,14.8573,24.8051,-16.317,-3.42003,3.89976,0.68265,-2.17542,-21.9006,13.2987,-10.9292,4.92043,-11.563
0.0703871,17.9713,-0.877483,1.39048,-8.90947,1.2131,-1.49662,-0.672845,-3.50916,-0.381459,-0.853335,1.62224,0.523636,-0.431879,3.62066,-20.4896,0.158395,-7.99581,34.1008,3.28182,0.0658661,15.3107,0.299599,2.02013,2.03692e-14,1.98785e-15,-14.6168,49.3834,-83.5228,106.454,30.5339,-21.9473,3.22968,7.12502,4.45968,-26.7034,2.03692e-14,1.98785e-15,-36.6389,-29.7151,105.974,84.2045,12.3062,-27.844,24.4647,7.12502,-1.23523,54.4409,-6.95015,7.51519,14.7941,24.8511,-16.3271,-3.39179,3.58736,0.646045,-2.23673,-21.9588,13.2241,-10.8719,4.89226,-11.392
0.0731181,17.9714,-0.878473,1.43088,-8.83804,1.33273,-1.52356,-0.69433,-3.58203,-0.405738,-0.879883,1.57741,0.516534,-0.444643,3.61473,-20.4721,0.169341,-7.946,34.0639,3.27043,0.0782293,15.2893,0.305227,2.01391,-1.92107e-15,-3.97569e-16,-14.7287,49.7266,-83.5363,106.667,30.5474,-22.3414,3.70899,7.12502,4.07906,-26.2317,-1.92107e-15,-3.97569e-16,-36.8295,-30.054,106.063,84.2252,12.5476,-27.1236,23.9023,7.12502,-0.53943,53.8814,-7.01785,7.40964,14.6392,24.8915,-16.3393,-3.36111,3.89472,0.597106,-2.23356,-22.0895,13.1594,-10.845,4.81095,-11.3855
0.0745469,17.971,-0.879329,1.43669,-8.85336,1.38422,-1.3677,-0.681419,-3.70911,-0.496444,-0.867053,1.64235,0.337627,-0.432918,3.75646,-20.4568,0.163931,-7.99678,34.079,3.29644,0.0377629,15.2931,0.302999,2.01033,4.2234e-15,-1.07344e-14,-14.9779,50.1852,-83.495,107.069,30.16,-22.3246,4.32294,7.12502,4.09534,-25.6174,4.2234e-15,-1.07344e-14,-37.1584,-30.2764,106.36,84.2487,12.568,-26.428,23.4994,7.12502,0.132385,53.4791,-7.04402,7.42345,14.5707,24.923,-16.3692,-3.33016,4.00417,0.611189,-2.16343,-22.1431,13.0932,-10.8118,4.75375,-11.6
0.0759608,17.9708,-0.882724,1.43211,-8.85194,1.30996,-0.985951,-0.676778,-3.79936,-0.711896,-0.874874,1.82004,-0.0931535,-0.42312,3.99764,-20.3117,0.160365,-8.14066,34.157,3.36008,-0.0331608,15.2961,0.298004,2.01587,6.54592e-15,-8.74653e-15,-15.4918,50.7952,-83.5299,107.627,29.3572,-21.7935,4.72973,7.12502,4.60817,-25.2001,6.54592e-15,-8.74653e-15,-37.7406,-30.2279,106.908,84.2746,12.2512,-25.8948,23.0078,7.12502,0.647357,52.9866,-7.04708,7.44143,14.654,24.9299,-16.3386,-3.34495,3.73706,0.593758,-2.17599,-22.0611,13.0632,-10.7982,4.76321,-11.6553
0.0778691,17.9709,-0.884367,1.46241,-8.8907,1.30107,-1.05425,-0.667066,-3.70336,-0.679602,-0.860147,1.78781,-0.024891,-0.418176,3.90902,-20.2617,0.155565,-8.14304,34.0651,3.33859,-0.0208683,15.2413,0.295342,2.01526,-1.0944e-14,9.54166e-15,-15.3906,51.0747,-83.3665,107.769,29.4516,-22.4195,6.04883,7.12502,4.00369,-23.8933,-1.0944e-14,9.54166e-15,-37.9133,-30.4332,106.968,84.2935,12.2456,-25.5266,22.4175,7.12502,1.00298,52.3949,-7.08607,7.4906,14.6534,24.9196,-16.3519,-3.33992,3.86825,0.536912,-2.27737,-22.0687,13.0779,-10.8254,4.88228,-11.0548
0.081865,17.974,-0.881524,1.52695,-8.94755,1.26858,-1.5338,-0.636881,-3.33812,-0.391873,-0.806649,1.58202,0.526741,-0.408152,3.48317,-20.4038,0.136977,-8.02876,33.8144,3.222,0.11249,15.1559,0.291525,2.02836,3.91668e-15,1.90833e-14,-14.7568,51.2104,-83.015,108.022,29.5087,-22.1261,6.75586,7.12502,4.28703,-23.1807,3.91668e-15,1.90833e-14,-37.5784,-30.9235,106.503,84.2784,12.6079,-24.9494,21.6888,7.12502,1.56045,51.6628,-7.14886,7.51997,14.6575,24.9043,-16.3291,-3.34,4.08631,0.506014,-2.30245,-22.0645,13.1077,-10.8664,4.95196,-11.0706
0.0858966,17.974,-0.881521,1.54245,-8.96802,1.27767,-1.74601,-0.620286,-3.18232,-0.198914,-0.779153,1.4839,0.838093,-0.40292,3.29116,-20.5998,0.113254,-7.97496,33.651,3.15623,0.179973,15.1246,0.286615,2.03539,-5.5287e-16,4.37326e-15,-14.1908,51.3682,-82.5223,108.291,29.4361,-22.4868,8.28001,7.12502,3.93869,-21.6633,-5.5287e-16,4.37326e-15,-37.2984,-31.1257,106.208,84.3064,12.9992,-24.1739,20.7866,7.12502,2.30937,50.7538,-7.17125,7.49296,14.6243,24.8956,-16.2985,-3.34323,3.83544,0.495257,-2.2894,-22.0945,13.1341,-10.8669,4.97287,-11.309
0.0862321,17.9724,-0.886313,1.49658,-9.00266,1.26331,-1.64043,-0.613633,-3.20372,-0.146976,-0.772954,1.52087,0.832527,-0.400675,3.34234,-20.7118,0.112296,-7.97143,33.5992,3.17002,0.16387,15.1257,0.291864,2.03116,2.08662e-14,-9.93923e-15,-13.9319,51.6028,-82.0986,108.597,29.4749,-23.0028,10.112,7.12502,3.44041,-19.8399,2.08662e-14,-9.93923e-15,-37.298,-31.0682,106.217,84.4565,13.2053,-23.5341,20.0027,7.12502,2.92729,49.9624,-7.14066,7.5988,14.6552,24.9039,-16.338,-3.37984,4.19529,0.524182,-2.21026,-22.0674,13.1287,-10.8471,4.92466,-11.3036
0.0877724,17.9712,-0.890522,1.43862,-9.0171,1.27807,-1.40438,-0.618493,-3.29943,-0.204383,-0.785657,1.60399,0.644719,-0.402955,3.48469,-20.6956,0.12904,-8.00232,33.5896,3.23158,0.0914719,15.1171,0.303672,2.0169,1.88348e-14,-4.77083e-15,-13.9742,51.876,-81.8062,108.963,29.575,-23.3605,11.8016,7.12502,3.09493,-18.1557,1.88348e-14,-4.77083e-15,-37.469,-30.9531,106.393,84.5842,13.1741,-22.8408,19.3978,7.12502,3.59682,49.3472,-7.1109,7.66045,14.6435,24.9341,-16.3892,-3.36193,4.47983,0.588739,-2.16282,-22.0823,13.0867,-10.8315,4.89431,-11.3598
0.0924805,17.9707,-0.891789,1.39646,-9.04322,1.38761,-1.14586,-0.608381,-3.46271,-0.327595,-0.778711,1.65068,0.375429,-0.392331,3.62879,-20.6778,0.136737,-8.04234,33.6433,3.2612,0.0855109,15.1369,0.307819,2.02732,8.96395e-15,1.59028e-15,-14.1853,52.0032,-81.631,109.26,29.9224,-23.8804,13.8277,7.12502,2.59284,-16.1363,8.96395e-15,1.59028e-15,-37.7509,-30.8172,106.585,84.7491,12.9873,-21.8059,18.8225,7.12502,4.5962,48.7527,-7.10841,7.59506,14.5003,24.9491,-16.3258,-3.29102,4.29924,0.623944,-2.22054,-22.23,13.0759,-10.8127,4.96283,-11.4117
0.0959189,17.971,-0.894712,1.35708,-9.05445,1.4386,-1.0136,-0.602028,-3.517,-0.329432,-0.773883,1.67454,0.29998,-0.388351,3.68564,-20.7477,0.127832,-8.08511,33.6176,3.26722,0.0973005,15.1397,0.30712,2.04118,-1.57785e-14,-1.59028e-14,-14.0556,52.006,-81.27,109.585,30.2497,-23.9787,15.7441,7.12502,2.49793,-14.221,-1.57785e-14,-1.59028e-14,-37.7627,-30.6026,106.532,84.9803,13.1689,-20.3641,18.3435,7.12502,5.98827,48.2389,-7.08947,7.6034,14.4371,24.9345,-16.3025,-3.3048,4.14771,0.642999,-2.18807,-22.298,13.087,-10.8101,4.96243,-11.6677
0.0980495,17.9723,-0.901639,1.36576,-9.0777,1.33926,-0.955287,-0.579052,-3.39129,-0.266157,-0.746012,1.70171,0.328539,-0.376017,3.64332,-20.8628,0.0950969,-8.11941,33.5448,3.23409,0.118942,15.1325,0.294253,2.05034,-1.91827e-14,-3.18055e-15,-13.8073,51.8531,-80.8669,110.001,30.5971,-23.5981,17.1824,7.12502,2.86546,-12.7781,-1.91827e-14,-3.18055e-15,-37.58,-30.4942,106.32,85.2531,13.873,-18.9735,18.3073,7.12502,7.33073,48.1603,-7.09926,7.73168,14.5523,24.9097,-16.3253,-3.38157,4.38199,0.614716,-2.10353,-22.1769,13.0882,-10.7708,4.8978,-11.4829
0.0994697,17.9732,-0.906701,1.37328,-9.11806,1.26032,-0.873414,-0.545329,-3.31788,-0.250352,-0.704162,1.73838,0.294742,-0.354623,3.64106,-20.9471,0.0589123,-8.17911,33.5173,3.19541,0.164624,15.1389,0.277543,2.07326,-5.15163e-14,1.59028e-15,-13.7214,51.594,-80.6097,110.471,30.958,-22.6,17.9836,7.12502,3.82938,-11.9617,-5.15163e-14,1.59028e-15,-37.5159,-30.5072,106.245,85.415,14.095,-18.1115,18.2192,7.12502,8.16272,48.0416,-7.10012,7.80414,14.6484,24.8595,-16.284,-3.46005,4.24967,0.577463,-2.03651,-22.0824,13.1382,-10.7803,4.88431,-11.2134
0.100853,17.9741,-0.908232,1.41988,-9.18651,1.27591,-0.914968,-0.505135,-3.3476,-0.248375,-0.649149,1.7614,0.315831,-0.327574,3.68201,-20.8904,0.0365721,-8.18604,33.3984,3.15802,0.150672,15.0727,0.265036,2.0589,2.16054e-14,-1.59028e-14,-13.6236,51.2368,-80.3686,110.941,31.2975,-21.2037,18.4396,7.12502,5.17762,-11.4772,2.16054e-14,-1.59028e-14,-37.4624,-30.4771,106.239,85.4972,13.8588,-16.4602,17.5387,7.12502,9.7562,47.2927,-7.14792,7.84131,14.6147,24.7904,-16.2011,-3.47089,3.88448,0.482032,-1.93786,-22.097,13.208,-10.8287,4.8389,-11.3395
0.10296,17.9757,-0.909065,1.4649,-9.25177,1.21364,-0.955912,-0.464167,-3.27553,-0.229073,-0.594142,1.8059,0.353478,-0.301099,3.68763,-20.8166,0.0190308,-8.19788,33.2353,3.13636,0.108226,14.9825,0.256518,2.03544,-1.72011e-14,1.27222e-14,-13.5486,50.8075,-80.1243,111.413,31.645,-19.8297,18.9301,7.12502,6.50421,-10.95,-1.72011e-14,1.27222e-14,-37.3887,-30.4199,106.221,85.6444,13.7556,-16.6419,17.2189,7.12502,9.58089,46.9811,-7.18607,7.87606,14.6673,24.7486,-16.1542,-3.48023,3.40072,0.441761,-1.89878,-22.037,13.2162,-10.8509,4.86781,-11.3381
0.104816,17.979,-0.909767,1.49148,-9.24119,1.20445,-0.965817,-0.452714,-3.26176,-0.209907,-0.578805,1.83532,0.37753,-0.294237,3.71034,-20.8281,0.0124471,-8.27402,33.1524,3.13405,0.162554,14.9441,0.257803,2.06938,-1.93815e-15,-2.78299e-15,-13.5134,50.365,-79.8473,111.879,31.9703,-18.5719,19.2615,7.12502,7.71837,-10.5776,-1.93815e-15,-2.78299e-15,-37.3348,-30.539,106.182,85.8156,13.8329,-16.3166,17.3688,7.12502,9.8947,47.1163,-7.20031,7.86263,14.6643,24.729,-16.1517,-3.48217,3.79359,0.432174,-1.83693,-22.0219,13.1989,-10.8687,4.78618,-11.3391
0.108236,17.979,-0.91178,1.50655,-9.17632,1.28274,-0.996996,-0.437836,-3.28852,-0.181572,-0.55757,1.80848,0.422215,-0.284975,3.69765,-20.8552,-0.0174344,-8.32305,33.1026,3.08716,0.225272,14.927,0.243323,2.09488,-1.36043e-14,-1.51076e-14,-13.5485,49.8404,-79.658,112.258,32.3525,-17.4313,19.1041,7.12502,8.81912,-10.6916,-1.36043e-14,-1.51076e-14,-37.2383,-30.8061,106.116,85.8897,13.8742,-15.8199,17.5299,7.12502,10.3739,47.254,-7.20409,7.7396,14.5554,24.7046,-16.1363,-3.40999,4.15585,0.399179,-1.84081,-22.1116,13.2062,-10.8848,4.70372,-11.4378
0.112323,17.9783,-0.915654,1.48104,-9.14063,1.31173,-0.950614,-0.422665,-3.24749,-0.156978,-0.53885,1.78952,0.419237,-0.27586,3.65535,-20.8149,-0.0387026,-8.33417,33.0318,3.0489,0.234202,14.8868,0.23083,2.0918,1.46107e-14,-3.57812e-15,-13.6184,49.3678,-79.515,112.659,32.7362,-16.3041,18.8853,7.12502,9.90679,-10.8616,1.46107e-14,-3.57812e-15,-37.1588,-30.9441,106.073,85.9386,13.8037,-16.0219,17.3012,7.12502,10.179,47.0349,-7.17167,7.67238,14.5054,24.6685,-16.0832,-3.36264,4.1092,0.387112,-1.9155,-22.1665,13.2588,-10.8961,4.74735,-11.5232
0.117211,17.9792,-0.918672,1.50069,-9.21467,1.23954,-0.927615,-0.37969,-3.10018,-0.157969,-0.483667,1.80131,0.399373,-0.247625,3.58522,-20.7186,-0.0389114,-8.35293,32.9156,3.03327,0.250968,14.8114,0.230718,2.09585,2.33945e-14,6.36111e-15,-13.6533,48.9071,-79.3941,113.066,33.0939,-15.2961,18.7226,7.12502,10.8792,-10.9755,2.33945e-14,6.36111e-15,-37.2296,-30.8494,106.085,86.1901,13.607,-16.5976,17.2869,7.12502,9.62362,47.0471,-7.20538,7.70025,14.5579,24.6335,-16.008,-3.31763,4.38555,0.348607,-2.01585,-22.1216,13.304,-10.9295,4.92256,-11.4928
0.116495,17.9828,-0.939366,1.53488,-8.94128,1.16103,-0.637356,-0.450279,-3.04716,-0.216967,-0.585904,1.83333,0.184567,-0.293745,3.58952,-20.7193,-0.0211671,-8.36952,32.8422,3.0429,0.306495,14.7748,0.244523,2.12217,1.62879e-14,-1.59028e-15,-13.5556,48.4277,-79.2478,113.423,33.424,-14.2487,18.7308,7.12502,11.8893,-10.9116,1.62879e-14,-1.59028e-15,-37.4118,-30.5088,106.045,86.6434,13.5504,-16.776,17.5201,7.12502,9.45146,47.2881,-7.22211,7.60039,14.6788,24.6021,-16.0318,-3.49989,4.29207,0.199462,-1.96228,-21.9706,13.3209,-10.8026,4.60904,-11.5345
0.117731,17.986,-0.945195,1.58088,-8.83353,1.16516,-0.618284,-0.477532,-2.99259,-0.199102,-0.622954,1.80232,0.194439,-0.312732,3.52634,-20.8854,-0.0194566,-8.31589,32.8334,3.03569,0.33045,14.8077,0.250858,2.12378,2.32702e-14,1.66979e-14,-13.3466,47.9319,-79.0272,113.764,33.7193,-13.2457,19.2251,7.12502,12.8563,-10.359,2.32702e-14,1.66979e-14,-37.3595,-30.2907,105.838,86.9094,13.7319,-16.2534,17.9775,7.12502,9.95566,47.722,-7.24916,7.53845,14.6666,24.5838,-16.0797,-3.52479,4.11869,0.134703,-1.95364,-21.9572,13.2918,-10.7653,4.43952,-11.3564
0.120812,17.9866,-0.945098,1.61049,-8.80098,1.26457,-0.70956,-0.485364,-2.97994,-0.165045,-0.630873,1.71791,0.28015,-0.318742,3.43092,-21.0288,-0.0299163,-8.22743,32.8364,2.99584,0.349823,14.8431,0.246667,2.11156,-7.98866e-15,1.35174e-14,-13.2119,47.3934,-78.8827,114.121,34.0182,-12.0873,19.6797,7.12502,13.9729,-9.83078,-7.98866e-15,1.35174e-14,-37.22,-30.3289,105.611,86.9361,13.641,-15.9153,18.2749,7.12502,10.2818,48.0036,-7.28222,7.47094,14.5336,24.593,-16.072,-3.48596,4.18721,0.138096,-1.87943,-22.0693,13.2048,-10.7621,4.3041,-11.1664
0.123698,17.9877,-0.948623,1.61916,-8.78359,1.36035,-0.699736,-0.510856,-2.93779,-0.179036,-0.665099,1.61755,0.261414,-0.335204,3.30329,-20.9703,-0.0219869,-8.14977,32.7433,2.96648,0.348802,14.7889,0.248444,2.09012,-2.45748e-14,7.95139e-16,-13.2188,46.9136,-78.9346,114.463,34.3565,-10.8169,19.7526,7.12502,15.1969,-9.66928,-2.45748e-14,7.95139e-16,-37.1614,-30.343,105.386,86.9585,13.4397,-16.0415,18.1587,7.12502,10.1601,47.8933,-7.33688,7.39417,14.4085,24.6264,-16.0227,-3.47142,3.99514,0.189526,-1.87868,-22.1815,13.0296,-10.702,4.30309,-11.2989
0.127875,17.9883,-0.944853,1.72625,-8.85333,1.43612,-0.924819,-0.488956,-2.78188,-0.123099,-0.630851,1.4615,0.438849,-0.321611,3.05253,-21.0524,-0.0257258,-8.05455,32.6441,2.90306,0.420746,14.7627,0.247938,2.09157,-3.05507e-14,-7.15625e-15,-13.0129,46.3721,-78.9168,114.716,34.7185,-9.79888,19.8876,7.12502,16.1773,-9.45731,-3.05507e-14,-7.15625e-15,-36.9557,-30.5004,105.041,86.973,13.302,-15.927,18.3057,7.12502,10.2706,48.0349,-7.50653,7.30232,14.2717,24.6757,-15.9615,-3.37405,3.61135,0.141887,-1.84446,-22.2872,12.885,-10.6168,4.35013,-11.37
0.132573,17.9902,-0.930807,1.95041,-9.10572,1.51113,-1.40584,-0.385617,-2.63104,-0.0338842,-0.48236,1.31861,0.786607,-0.253519,2.81909,-21.3321,-0.0602194,-7.94732,32.6318,2.827,0.461628,14.8228,0.233648,2.07989,4.16205e-15,2.78299e-15,-12.71,45.8074,-78.7873,114.972,35.0936,-8.87674,19.9865,7.12502,17.0651,-9.28403,4.16205e-15,2.78299e-15,-36.6882,-30.6607,104.711,86.9928,12.9907,-15.3626,18.8951,7.12502,10.815,48.5967,-7.80993,7.3768,14.1089,24.7188,-15.9021,-3.21886,3.66351,-0.00418955,-1.67709,-22.4005,12.7714,-10.5717,4.42756,-11.3664
0.128798,17.9904,-0.947617,1.89589,-8.7813,1.53148,-1.16982,-0.465264,-2.7056,0.00140603,-0.592922,1.32253,0.698855,-0.308172,2.86438,-21.4647,-0.0834617,-7.92251,32.6094,2.79086,0.478883,14.8437,0.22408,2.07754,-1.06101e-14,1.51076e-14,-12.5241,45.3488,-78.5798,115.278,35.4437,-7.94294,19.6591,7.12502,17.9637,-9.53125,-1.06101e-14,1.51076e-14,-36.4612,-30.6812,104.496,87.0375,12.9612,-15.1752,19.2403,7.12502,10.9958,48.9323,-7.73375,7.2943,14.1456,24.7442,-16.0398,-3.36636,4.07477,0.00246032,-1.48019,-22.3338,12.6805,-10.4758,3.91157,-11.8411
0.128091,17.9897,-0.952414,1.8801,-8.69324,1.57248,-0.998935,-0.495716,-2.87965,-0.0705587,-0.636616,1.43047,0.535445,-0.327034,3.07466,-21.5073,-0.0824471,-8.0287,32.708,2.85455,0.447973,14.8962,0.228427,2.09674,1.85988e-14,-2.34566e-14,-12.6144,45.0363,-78.3857,115.457,35.7844,-7.63582,20.0101,7.12502,18.2592,-9.15286,1.85988e-14,-2.34566e-14,-36.4333,-30.4811,104.539,87.0656,13.0552,-15.8889,19.0226,7.12502,10.3073,48.7501,-7.70746,7.32709,14.112,24.7464,-16.0856,-3.42006,4.45197,0.0184315,-1.44838,-22.3566,12.6172,-10.4413,3.77086,-12.1922
0.129237,17.9888,-0.949883,1.83345,-8.7629,1.56327,-0.705915,-0.475638,-3.06865,-0.240235,-0.61724,1.62169,0.199698,-0.309236,3.38221,-21.4738,-0.0768626,-8.19233,32.8744,2.95882,0.371659,14.9625,0.233264,2.11447,-1.80397e-14,-1.47101e-14,-12.8953,44.8806,-78.1945,115.59,36.1019,-7.45202,20.7139,7.12502,18.436,-8.43244,-1.80397e-14,-1.47101e-14,-36.6535,-30.1386,104.855,87.056,12.814,-16.5971,18.9701,7.12502,9.62411,48.7303,-7.65654,7.43534,14.1236,24.7333,-16.1025,-3.44628,4.32006,0.0765032,-1.44127,-22.3567,12.616,-10.4542,3.82155,-12.1283
