JuanDHNZ/ProyectoFinalCD/preprocessing/sports_trials_csv/14_09.csv
root1,root2,root3,root4,root5,root6,lowerback1,lowerback2,lowerback3,upperback1,upperback2,upperback3,thorax1,thorax2,thorax3,lowerneck1,lowerneck2,lowerneck3,upperneck1,upperneck2,upperneck3,head1,head2,head3,rclavicle1,rclavicle2,rhumerus1,rhumerus2,rhumerus3,rradius1,rwrist1,rhand1,rhand2,rfingers1,rthumb1,rthumb2,lclavicle1,lclavicle2,lhumerus1,lhumerus2,lhumerus3,lradius1,lwrist1,lhand1,lhand2,lfingers1,lthumb1,lthumb2,rfemur1,rfemur2,rfemur3,rtibia1,rfoot1,rfoot2,rtoes1,lfemur1,lfemur2,lfemur3,ltibia1,lfoot1,lfoot2,ltoes1
-0.679606,17.5123,4.69555,0.469098,-35.5328,3.11188,0.285657,-1.19729,-6.60075,-0.577342,-1.62973,2.17939,-0.510031,-0.781331,5.98186,-18.4969,-4.42032,-13.7232,30.5677,-3.3962,4.03082,13.8592,-2.63057,3.34344,7.06928e-15,1.19271e-14,-37.5036,-18.0999,-71.0908,27.1786,12.3813,-23.0519,4.87749,7.12502,3.39295,-25.0753,7.06928e-15,1.19271e-14,-33.9697,16.5688,80.7395,23.4195,-8.8821,-17.5859,23.3019,7.12502,8.66995,53.1039,-21.217,-2.08743,18.8805,41.4944,-22.8142,-11.2563,9.40271,-3.32566,-1.49672,-26.0564,29.1603,-18.6981,4.44182,-11.0824
-0.696539,17.5183,4.69698,0.529584,-35.4436,3.08526,0.342844,-1.19648,-6.5405,-0.601027,-1.63239,2.1782,-0.567911,-0.780069,5.94802,-18.4525,-4.42191,-13.6211,30.5189,-3.4257,3.98888,13.8275,-2.63522,3.30339,-8.0632e-15,-1.74931e-14,-37.4546,-17.9854,-71.2661,27.2614,12.5768,-23.0869,4.58769,7.12502,3.35918,-25.3656,-8.0632e-15,-1.74931e-14,-33.9577,16.402,80.8665,23.5084,-8.77892,-17.5926,23.2954,7.12502,8.66348,53.0976,-21.148,-2.13443,18.9467,41.3726,-22.8401,-11.2283,9.52783,-3.36151,-1.56703,-25.9688,29.1622,-18.6061,4.35965,-11.1276
-0.716917,17.5263,4.70264,0.65833,-35.4409,3.06774,0.169207,-1.15488,-6.47986,-0.582287,-1.56509,2.18553,-0.462426,-0.75113,5.9167,-18.4528,-4.47572,-13.6151,30.4671,-3.50234,3.98316,13.8136,-2.66566,3.28549,1.22377e-14,3.18055e-15,-37.3286,-17.9453,-71.4136,27.3449,12.7729,-22.8805,4.3226,7.12502,3.55847,-25.6274,1.22377e-14,3.18055e-15,-33.7703,16.2055,81.0967,23.4847,-8.63274,-17.5342,23.4454,7.12502,8.71983,53.2452,-21.1295,-2.06933,18.998,41.2231,-22.8424,-11.2608,9.59493,-3.43206,-1.74952,-25.9167,29.1682,-18.5448,4.34483,-10.1881
-0.738403,17.5332,4.70785,0.752066,-35.5015,2.97374,0.0459244,-1.06319,-6.38964,-0.531945,-1.43356,2.23278,-0.361703,-0.69074,5.91182,-18.419,-4.57362,-13.8,30.3865,-3.62862,4.11305,13.7942,-2.72043,3.34576,2.07481e-15,-6.36111e-15,-37.1757,-17.6204,-71.6467,27.4991,12.6236,-22.5952,3.96731,7.12502,3.83397,-25.9779,2.07481e-15,-6.36111e-15,-33.5849,16.0457,81.3398,23.4594,-8.51701,-17.4174,23.4611,7.12502,8.83252,53.2563,-21.0192,-1.91919,19.1235,41.066,-22.9372,-11.2128,10.2549,-3.41254,-1.88257,-25.8181,29.2029,-18.4116,4.40903,-9.13803
-0.755445,17.5394,4.70533,0.803736,-35.4319,2.89529,0.121688,-1.01871,-6.30069,-0.542701,-1.37865,2.22496,-0.425785,-0.660882,5.85476,-18.185,-4.63067,-13.8184,30.1702,-3.77416,4.21378,13.6687,-2.76521,3.36194,9.528e-14,1.19271e-14,-37.0983,-17.3906,-71.9056,27.6147,12.5546,-22.4191,3.83019,7.12502,4.00405,-26.1119,9.528e-14,1.19271e-14,-33.5203,15.7121,81.5065,23.6316,-8.31165,-17.3647,23.5524,7.12502,8.8834,53.3455,-20.9085,-1.86175,19.2611,40.9148,-22.8566,-11.3843,9.79787,-3.41706,-1.95024,-25.6887,29.2297,-18.2271,4.42148,-9.27143
-0.772015,17.5461,4.7023,0.92911,-35.281,2.80427,0.0943093,-1.0489,-6.18771,-0.516165,-1.41641,2.21661,-0.380131,-0.682676,5.78045,-18.0374,-4.65629,-13.8342,29.9646,-3.86367,4.32941,13.5608,-2.78315,3.39323,6.17226e-14,-3.02153e-14,-36.8792,-17.1019,-72.2571,27.7099,12.6102,-22.3224,3.78142,7.12502,4.09745,-26.1589,6.17226e-14,-3.02153e-14,-33.3727,15.606,81.5683,23.7907,-8.28455,-17.2807,23.552,7.12502,8.96453,53.3415,-20.863,-1.83227,19.4094,40.7665,-22.8312,-11.5908,9.32032,-3.51993,-2.01437,-25.5221,29.2682,-18.1878,4.33363,-9.693
-0.791528,17.5521,4.70562,1.0038,-35.1861,2.80861,-0.078129,-1.03001,-6.13076,-0.423365,-1.37922,2.17472,-0.194977,-0.673393,5.69931,-18.1601,-4.72754,-13.842,29.9386,-3.98303,4.45588,13.5914,-2.81543,3.42353,5.14355e-15,-1.03368e-14,-36.6229,-17.1303,-72.471,27.7233,12.9809,-22.2364,4.03802,7.12502,4.18047,-25.9007,5.14355e-15,-1.03368e-14,-33.1245,15.3725,81.7226,23.8902,-8.19107,-17.2099,23.5166,7.12502,9.03279,53.3033,-20.8064,-1.79942,19.4591,40.633,-22.9289,-11.702,9.48176,-3.56814,-2.10132,-25.4766,29.2858,-18.1534,4.2866,-9.48359
-0.809601,17.5568,4.70841,1.1232,-35.1194,2.75562,-0.174155,-0.983714,-6.03314,-0.415567,-1.31158,2.16115,-0.145131,-0.641671,5.62784,-18.2154,-4.78488,-13.7827,29.9564,-4.07903,4.46247,13.6198,-2.84888,3.3993,-4.36332e-14,8.74653e-15,-36.5124,-17.006,-72.6306,27.748,13.1669,-22.2846,4.396,7.12502,4.13392,-25.5436,-4.36332e-14,8.74653e-15,-32.9367,15.0605,81.9277,23.9256,-8.17062,-17.2614,23.5695,7.12502,8.9831,53.3583,-20.7842,-1.75179,19.5588,40.522,-23.0227,-11.7764,9.70675,-3.61545,-2.27728,-25.4052,29.2613,-18.1446,4.4168,-9.88968
-0.82793,17.564,4.71194,1.17192,-35.0594,2.81206,-0.219208,-0.948776,-6.07616,-0.45439,-1.26298,2.17279,-0.165738,-0.615421,5.66453,-18.0546,-4.82068,-13.7693,29.8256,-4.14341,4.41492,13.5359,-2.87825,3.36534,-2.81032e-14,-1.51076e-14,-36.4905,-16.4266,-72.8895,27.999,12.9491,-22.2897,4.2799,7.12502,4.12906,-25.6598,-2.81032e-14,-1.51076e-14,-32.7635,14.7408,82.1836,23.9329,-8.12101,-17.5443,23.6669,7.12502,8.71014,53.4672,-20.7762,-1.73475,19.5556,40.4271,-22.9846,-11.8948,9.28224,-3.63799,-2.40967,-25.4254,29.2112,-18.0434,4.48175,-10.0548
-0.844957,17.5689,4.71773,1.09531,-34.9851,2.99668,-0.228359,-0.907565,-6.18695,-0.46559,-1.20753,2.14305,-0.178587,-0.586534,5.69687,-17.8791,-4.87499,-13.8175,29.6755,-4.24124,4.44381,13.4484,-2.91842,3.36677,8.57259e-15,4.77083e-15,-36.3656,-15.8889,-73.2322,28.2306,12.7116,-22.086,3.88934,7.12502,4.32571,-26.0465,8.57259e-15,4.77083e-15,-32.5687,14.2753,82.4765,23.9635,-7.89665,-17.7168,23.5651,7.12502,8.54363,53.3723,-20.7034,-1.77582,19.4184,40.3488,-23.0057,-11.8757,9.31339,-3.6043,-2.39287,-25.5422,29.1654,-17.863,4.36911,-9.78795
-0.859834,17.5705,4.7229,1.04202,-34.901,3.07784,-0.229666,-0.897356,-6.18328,-0.419518,-1.19294,2.12321,-0.132793,-0.582122,5.67354,-17.8491,-4.90893,-13.9022,29.5848,-4.30647,4.57344,13.4163,-2.93554,3.42052,-4.08254e-14,-8.74653e-15,-36.1162,-14.598,-74.0643,28.7904,11.518,-21.9225,2.75424,7.12502,4.48357,-27.1783,-4.08254e-14,-8.74653e-15,-32.3814,13.9936,82.6804,24.0689,-7.70706,-17.6355,23.4321,7.12502,8.62206,53.2361,-20.5928,-1.79924,19.3729,40.2716,-23.0063,-11.864,9.39252,-3.5522,-2.3681,-25.5627,29.1462,-17.8158,4.29439,-10.0863
-0.875012,17.5745,4.72694,1.12766,-34.8719,3.07612,-0.278314,-0.900792,-6.11565,-0.417814,-1.19468,2.13033,-0.104618,-0.584198,5.64154,-17.8197,-4.91207,-13.8627,29.4587,-4.30946,4.52883,13.3548,-2.93335,3.39337,-9.51185e-14,2.22639e-14,-35.9717,-12.8518,-75.0274,29.5453,10.0416,-21.9727,1.52318,7.12502,4.43512,-28.4104,-9.51185e-14,2.22639e-14,-32.2732,13.9868,82.771,24.2349,-7.70016,-17.4006,23.4951,7.12502,8.84875,53.2895,-20.5914,-1.75573,19.4059,40.1949,-23.07,-11.8674,9.59712,-3.61904,-2.3493,-25.5238,29.1508,-17.7355,4.31494,-10.6845
-0.89072,17.5781,4.72521,1.21468,-34.8326,3.03035,-0.255897,-0.893082,-6.05588,-0.420219,-1.18585,2.15717,-0.121556,-0.579255,5.6361,-17.7696,-4.93508,-13.8307,29.3465,-4.33787,4.46755,13.2981,-2.94621,3.35688,1.73937e-14,-1.43125e-14,-35.7845,-12.2108,-75.3414,29.7202,9.91328,-21.9961,1.76657,7.12502,4.41249,-28.1675,1.73937e-14,-1.43125e-14,-32.1753,14.0308,82.8611,24.4495,-7.77192,-17.0824,23.6188,7.12502,9.15583,53.4001,-20.5797,-1.6332,19.4899,40.1231,-23.2106,-11.8769,10.3853,-3.68732,-2.42347,-25.4268,29.154,-17.6755,4.27712,-10.4622
-0.906222,17.581,4.72385,1.29448,-34.7325,2.97527,-0.272655,-0.896629,-5.98156,-0.388036,-1.1892,2.17744,-0.0794121,-0.58345,5.6143,-17.835,-4.97456,-13.9316,29.3349,-4.39685,4.61283,13.3202,-2.96221,3.42101,4.78574e-14,-5.56597e-15,-35.535,-12.4373,-75.2063,29.5341,10.9713,-21.6281,2.91812,7.12502,4.76786,-27.0082,4.78574e-14,-5.56597e-15,-32.0032,13.7111,83.085,24.6712,-7.55566,-17.1244,23.6019,7.12502,9.11534,53.3849,-20.5387,-1.5705,19.5833,40.0531,-23.2546,-11.9493,10.7497,-3.71512,-2.57247,-25.3246,29.1605,-17.6905,4.2513,-10.1352
-0.920387,17.5832,4.72706,1.28934,-34.6462,3.03433,-0.262238,-0.87891,-5.99578,-0.372681,-1.1659,2.2015,-0.0719241,-0.572439,5.64786,-17.8966,-5.03019,-14.1042,29.3675,-4.46886,4.79099,13.3654,-2.98941,3.509,-2.81777e-14,-1.51076e-14,-35.3294,-12.6774,-74.9568,29.3774,12.261,-20.9695,4.0446,7.12502,5.40378,-25.8665,-2.81777e-14,-1.51076e-14,-31.7998,13.1574,83.4602,24.8214,-7.19727,-17.1125,23.5968,7.12502,9.12675,53.3793,-20.4852,-1.64235,19.562,39.9834,-23.1797,-12.0131,10.346,-3.71064,-2.69772,-25.3352,29.1749,-17.7848,4.24379,-10.192
-0.932369,17.5839,4.72567,1.3672,-34.5721,3.02213,-0.231475,-0.874922,-5.96639,-0.390705,-1.16275,2.25606,-0.107728,-0.569234,5.68909,-17.7653,-5.03134,-14.249,29.2354,-4.4635,4.86146,13.2885,-2.99037,3.56115,6.65929e-14,1.90833e-14,-35.1814,-12.4476,-74.9501,29.4283,12.6275,-20.6942,5.02748,7.12502,5.66961,-24.8767,6.65929e-14,1.90833e-14,-31.6641,12.915,83.7207,24.9578,-7.14364,-17.1788,23.6032,7.12502,9.06277,53.3885,-20.4759,-1.59223,19.6006,39.8961,-23.3029,-12.0046,10.5055,-3.80259,-2.76665,-25.2551,29.2103,-17.8777,4.18512,-10.798
-0.944741,17.5888,4.72425,1.50933,-34.4958,2.87915,-0.20252,-0.856559,-5.74423,-0.392419,-1.13999,2.25019,-0.133269,-0.557362,5.55684,-17.6057,-5.05601,-14.3524,29.0498,-4.55324,5.06821,13.1951,-3.00866,3.64388,-1.67973e-14,-1.35174e-14,-35.0307,-12.0854,-75.185,29.579,12.6175,-20.6494,5.35511,7.12502,5.7129,-24.5479,-1.67973e-14,-1.35174e-14,-31.5738,12.7759,83.7991,25.1956,-7.32818,-17.3035,23.4693,7.12502,8.94246,53.2598,-20.4532,-1.51347,19.7633,39.8086,-23.4342,-11.9968,10.7362,-3.86894,-2.86418,-25.0877,29.2328,-17.7286,4.20612,-10.8775
-0.957523,17.5925,4.72527,1.66157,-34.4431,2.74008,-0.189561,-0.790819,-5.4554,-0.387869,-1.05285,2.19932,-0.153844,-0.513705,5.33958,-17.5366,-5.12958,-14.4962,28.886,-4.74031,5.44752,13.1471,-3.05107,3.7853,-3.49861e-14,0,-34.8885,-11.9582,-75.3961,29.8249,13.1244,-20.5279,4.6596,7.12502,5.8302,-25.2402,-3.49861e-14,0,-31.4637,12.2501,83.9545,25.5388,-7.24151,-17.2848,23.5916,7.12502,8.96057,53.3813,-20.4542,-1.53681,19.9199,39.7206,-23.4159,-12.0296,10.5413,-3.94377,-2.88317,-24.9194,29.2564,-17.5751,4.12022,-10.3112
-0.968856,17.5925,4.72494,1.72207,-34.4092,2.76302,-0.223361,-0.709732,-5.29982,-0.33261,-0.942063,2.10117,-0.0965812,-0.461582,5.14796,-17.4262,-5.21406,-14.4518,28.5964,-4.92373,5.57505,13.0268,-3.10002,3.79219,1.33683e-14,-8.74653e-15,-34.6756,-11.9626,-75.576,30.0903,13.6326,-20.4149,4.0655,7.12502,5.93928,-25.8313,1.33683e-14,-8.74653e-15,-31.2452,11.7338,84.1155,25.7928,-7.15109,-17.1918,23.5137,7.12502,9.0503,53.2995,-20.4746,-1.68438,19.9221,39.6359,-23.2593,-11.9333,10.1369,-4.0111,-2.9743,-24.8993,29.2715,-17.601,4.14821,-10.1503
-0.980671,17.5946,4.72228,1.7676,-34.3495,2.84627,-0.230314,-0.679174,-5.33158,-0.307453,-0.900542,2.10544,-0.071524,-0.442111,5.17044,-17.457,-5.26121,-14.4616,28.5254,-4.95393,5.49566,13.0069,-3.12076,3.75493,6.34372e-14,1.43125e-14,-34.4231,-11.8241,-75.5881,30.2476,14.0909,-20.323,4.29393,7.12502,6.02799,-25.6003,6.34372e-14,1.43125e-14,-30.9793,11.4889,84.3474,25.9234,-7.07797,-17.073,23.5335,7.12502,9.16486,53.3144,-20.5314,-1.70794,19.8792,39.5696,-23.1559,-12.0147,9.55502,-4.10455,-3.10326,-24.9215,29.2603,-17.6169,4.19583,-10.8739
-0.99351,17.5995,4.72436,1.79561,-34.2735,2.86685,-0.149544,-0.710643,-5.36821,-0.346221,-0.947247,2.19809,-0.148739,-0.462143,5.28937,-17.4092,-5.24357,-14.6027,28.5298,-4.89921,5.51817,12.9985,-3.11017,3.79739,-1.26477e-14,2.38542e-15,-34.3207,-11.2466,-75.6383,30.5038,14.2158,-20.2815,4.52356,7.12502,6.06806,-25.3695,-1.26477e-14,2.38542e-15,-30.9675,11.424,84.5545,26.2207,-6.84663,-16.9168,23.7562,7.12502,9.31558,53.5303,-20.5078,-1.72946,19.8963,39.5284,-23.1067,-12.1407,9.06955,-4.09848,-3.1572,-24.913,29.2249,-17.4849,4.18704,-11.9458
-1.00581,17.6024,4.72832,1.80124,-34.2308,2.93249,-0.0924854,-0.705614,-5.35896,-0.377929,-0.943794,2.22188,-0.213708,-0.457592,5.31009,-17.3404,-5.24766,-14.756,28.4626,-4.90007,5.62748,12.9651,-3.11155,3.8657,-2.78795e-14,9.54166e-15,-34.2647,-10.6036,-75.842,30.8727,13.752,-20.2554,4.59339,7.12502,6.09325,-25.299,-2.78795e-14,9.54166e-15,-30.9715,11.1365,84.7755,26.5284,-6.57935,-16.7301,23.9174,7.12502,9.49574,53.6835,-20.4863,-1.71677,19.8585,39.4931,-23.1484,-12.1133,9.29357,-4.10108,-3.08785,-24.9429,29.2098,-17.3977,4.13827,-12.5767
-1.0136,17.6034,4.72674,1.7356,-34.1489,3.01782,0.0899902,-0.697144,-5.29397,-0.371379,-0.941249,2.17525,-0.311506,-0.453544,5.22683,-17.098,-5.258,-14.9588,28.1703,-4.97327,5.91908,12.8175,-3.121,3.99922,-6.64189e-14,1.11319e-14,-34.0582,-10.1486,-76.1131,31.0841,13.3485,-20.3606,4.59219,7.12502,5.99165,-25.3031,-6.64189e-14,1.11319e-14,-30.8772,10.8066,84.9221,26.7447,-6.39732,-16.9493,23.8142,7.12502,9.28428,53.5898,-20.4358,-1.57265,19.7991,39.4754,-23.3115,-12.2154,9.40987,-4.07997,-3.09048,-24.9786,29.2036,-17.3645,4.13402,-12.9545
-1.02116,17.6048,4.72455,1.77352,-34.1023,3.03301,0.164238,-0.689881,-5.14382,-0.349171,-0.934398,2.12643,-0.33424,-0.450387,5.09121,-16.9307,-5.26444,-15.0894,27.9118,-5.02965,6.14323,12.6941,-3.12416,4.09624,7.90169e-14,-4.77083e-15,-33.7954,-9.90057,-76.3428,31.2162,13.2144,-20.5521,4.47576,7.12502,5.80681,-25.4247,7.90169e-14,-4.77083e-15,-30.7714,10.4919,85.0178,27.0197,-6.17776,-17.2104,23.6212,7.12502,9.03228,53.4078,-20.4631,-1.38202,19.8156,39.4666,-23.4222,-12.3657,9.48807,-4.12848,-3.09593,-24.9387,29.2063,-17.3365,4.04204,-12.8587
-1.0304,17.6052,4.72294,1.87842,-34.1844,3.0801,0.073948,-0.648655,-5.08267,-0.292643,-0.874233,2.10739,-0.234013,-0.424772,5.03483,-17.0917,-5.28443,-15.1078,27.879,-5.03003,6.17448,12.7156,-3.11752,4.10938,3.3048e-14,1.19271e-14,-33.4939,-9.70885,-76.4848,31.3753,13.2611,-20.6543,4.45434,7.12502,5.70813,-25.4488,3.3048e-14,1.19271e-14,-30.5854,10.4211,85.1196,27.2521,-6.24085,-17.2496,23.4138,7.12502,8.99446,53.2021,-20.6031,-1.21428,19.8028,39.4805,-23.4821,-12.3417,9.89031,-4.25202,-3.08225,-24.937,29.2009,-17.4287,4.05135,-12.9833
-1.0402,17.6075,4.7193,2.04088,-34.3572,3.0411,0.0474819,-0.577068,-5.06021,-0.293413,-0.777429,2.1804,-0.231344,-0.376402,5.09807,-16.859,-5.33917,-15.4583,27.5241,-5.1287,6.50668,12.5582,-3.14673,4.27638,-9.00992e-14,2.3059e-14,-33.2473,-9.3596,-76.5117,31.5623,13.2347,-20.5807,4.4319,7.12502,5.77915,-25.4693,-9.00992e-14,2.3059e-14,-30.4481,10.1446,85.3596,27.4599,-6.11271,-17.2578,23.4662,7.12502,8.9866,53.2548,-20.7591,-0.84945,19.8514,39.4966,-23.6557,-12.2959,10.9984,-4.39088,-2.90034,-24.8541,29.1782,-17.5302,4.07334,-13.7303
-1.04627,17.6094,4.71569,2.13486,-34.3975,3.06426,0.193503,-0.546663,-5.0304,-0.373787,-0.744318,2.24093,-0.39997,-0.352896,5.14663,-16.8828,-5.37655,-15.4177,27.5807,-5.10758,6.22652,12.5766,-3.16982,4.16295,1.55549e-14,3.97569e-15,-33.1851,-8.62325,-76.6281,31.929,12.7028,-20.7626,4.35918,7.12502,5.60356,-25.5467,1.55549e-14,3.97569e-15,-30.4558,9.71339,85.6334,27.7356,-5.81549,-17.3108,23.6376,7.12502,8.93548,53.4284,-20.873,-0.665441,19.8239,39.5322,-23.8817,-12.145,12.1239,-4.49097,-2.8588,-24.8353,29.1279,-17.4867,4.0373,-13.6974
-1.05028,17.6111,4.71486,2.08504,-34.4303,3.23726,0.244906,-0.504856,-4.99134,-0.307756,-0.690009,2.17307,-0.368844,-0.328289,5.05348,-17.2713,-5.40472,-15.0313,27.7875,-5.05125,5.72992,12.7077,-3.16726,3.91201,-7.55382e-15,-7.95139e-15,-32.9673,-8.22738,-76.8629,32.2747,12.3051,-21.0135,4.4617,7.12502,5.36135,-25.4505,-7.55382e-15,-7.95139e-15,-30.2598,9.39258,85.7812,27.9822,-5.71711,-17.2602,23.6969,7.12502,8.98425,53.4856,-20.9416,-0.585819,19.6594,39.5747,-23.934,-12.0967,12.3801,-4.51283,-2.90285,-24.9714,29.0858,-17.4455,3.96191,-12.7801
-1.05391,17.6107,4.71494,2.04779,-34.4829,3.36065,0.281179,-0.415269,-4.83119,-0.226044,-0.570556,2.02986,-0.322729,-0.27209,4.81248,-17.2746,-5.45513,-14.9753,27.6111,-5.17571,5.87164,12.6527,-3.19087,3.93404,-2.7482e-14,-1.59028e-15,-32.6957,-8.41943,-77.0069,32.4319,12.3888,-21.05,4.45206,7.12502,5.32612,-25.461,-2.7482e-14,-1.59028e-15,-30.0496,8.96819,85.8466,28.2033,-5.65189,-17.2313,23.5959,7.12502,9.01214,53.3834,-20.9919,-0.505194,19.546,39.6094,-23.7652,-12.182,11.5288,-4.52637,-2.90764,-25.0708,29.0708,-17.4659,3.92888,-12.0441
-1.05527,17.6081,4.71065,2.07573,-34.4905,3.45563,0.377942,-0.376523,-4.7112,-0.204699,-0.522358,1.95839,-0.362456,-0.2476,4.67038,-17.3509,-5.4778,-14.9319,27.5356,-5.21222,5.8991,12.6411,-3.19427,3.92908,-3.47873e-15,3.97569e-15,-32.3987,-8.36275,-77.133,32.5492,12.4327,-21.2766,4.07098,7.12502,5.10732,-25.8475,-3.47873e-15,3.97569e-15,-29.9335,8.69437,85.9473,28.4226,-5.61465,-17.3256,23.5125,7.12502,8.92113,53.3039,-21.1148,-0.507995,19.4746,39.6476,-23.5543,-12.2564,10.5799,-4.64154,-2.76307,-25.1123,29.0847,-17.4855,3.84866,-11.9627
-1.05497,17.607,4.70448,2.16548,-34.455,3.46847,0.484954,-0.419321,-4.56546,-0.174629,-0.58293,1.965,-0.385847,-0.278362,4.5956,-17.2129,-5.45536,-15.2759,27.1633,-5.21032,6.3269,12.4855,-3.16377,4.14873,3.37934e-15,-1.11319e-14,-32.051,-7.97648,-77.3013,32.7506,12.3975,-21.439,4.16373,7.12502,4.95042,-25.7584,3.37934e-15,-1.11319e-14,-29.8554,8.53563,86.0513,28.7139,-5.54914,-17.352,23.3959,7.12502,8.89569,53.1884,-21.2541,-0.578244,19.4678,39.6706,-23.5546,-12.0802,11.1776,-4.82422,-2.62352,-25.0789,29.1727,-17.4841,3.81788,-11.8528
-1.05433,17.6062,4.69807,2.23446,-34.4225,3.51746,0.63981,-0.454746,-4.5177,-0.141247,-0.635929,2.01849,-0.432281,-0.304526,4.6258,-17.3383,-5.48022,-15.4486,27.01,-5.17247,6.36556,12.4531,-3.15133,4.19392,6.26172e-14,-1.98785e-14,-31.6605,-7.6665,-77.3398,32.8662,12.477,-21.3374,4.96527,7.12502,5.04862,-24.9546,6.26172e-14,-1.98785e-14,-29.6999,8.34294,86.2257,28.9855,-5.26357,-17.2531,23.5145,7.12502,8.99116,53.3029,-21.3855,-0.6215,19.4079,39.6961,-23.5914,-11.8418,12.117,-5.03322,-2.54789,-25.0849,29.321,-17.4672,3.73405,-11.3867
-1.05131,17.6079,4.68935,2.36657,-34.3403,3.54418,0.824351,-0.478602,-4.42109,-0.152525,-0.674391,2.04886,-0.543815,-0.320858,4.60493,-17.8371,-5.50971,-15.1148,27.2443,-5.07705,5.84112,12.6131,-3.13994,3.94759,-7.05686e-14,-2.38542e-15,-31.392,-7.32114,-77.3816,33.091,12.466,-21.1575,5.54461,7.12502,5.22225,-24.371,-7.05686e-14,-2.38542e-15,-29.522,8.07004,86.3895,29.195,-5.04966,-17.1044,23.7195,7.12502,9.1346,53.5017,-21.5624,-0.673065,19.3764,39.7085,-23.4671,-11.8224,11.655,-5.37299,-2.34544,-25.043,29.5365,-17.4667,3.51095,-11.6256
-1.04765,17.6114,4.68455,2.48034,-34.2629,3.6659,0.942826,-0.510947,-4.3443,-0.212502,-0.721844,2.04631,-0.667659,-0.340359,4.56102,-17.6436,-5.50615,-15.4613,26.8984,-5.10406,6.241,12.4601,-3.12719,4.15254,-7.17116e-14,-2.3059e-14,-31.2954,-6.80133,-77.4425,33.4733,12.2801,-21.1136,5.54363,7.12502,5.26469,-24.371,-7.17116e-14,-2.3059e-14,-29.5009,7.96067,86.5194,29.4352,-5.03343,-17.277,23.9043,7.12502,8.96804,53.6937,-21.7666,-0.798482,19.2502,39.7234,-23.2997,-11.7728,11.2942,-5.7651,-2.02085,-25.0985,29.8132,-17.4563,3.2565,-12.0701
-1.04228,17.6137,4.68193,2.63971,-34.2023,3.67084,1.01663,-0.552611,-4.14412,-0.245563,-0.777925,2.06744,-0.739119,-0.366802,4.47127,-17.5038,-5.46757,-15.5498,26.6319,-5.03298,6.23627,12.3193,-3.0974,4.17231,8.04084e-14,-1.27222e-14,-31.1737,-6.35265,-77.4682,33.8561,12.1891,-21.1304,5.48127,7.12502,5.24843,-24.4337,8.04084e-14,-1.27222e-14,-29.471,7.9956,86.6279,29.5867,-5.12569,-17.5291,23.8181,7.12502,8.72481,53.6178,-21.9433,-1.06471,19.2429,39.6896,-23.0194,-11.7289,10.498,-6.2036,-1.70074,-25.0559,30.2203,-17.4417,2.92106,-11.7253
-1.03417,17.6161,4.67608,2.83765,-34.1088,3.69549,1.0029,-0.613203,-3.97575,-0.223218,-0.856057,2.0718,-0.702248,-0.408086,4.38093,-17.8129,-5.46665,-15.1569,26.7046,-4.92733,5.66316,12.3709,-3.07948,3.89845,2.70347e-14,5.56597e-15,-30.8243,-5.98814,-77.5281,34.0707,12.0453,-21.2817,5.72083,7.12502,5.10234,-24.1977,2.70347e-14,5.56597e-15,-29.3102,7.70343,86.765,29.7956,-4.93765,-17.5896,23.7362,7.12502,8.66639,53.5383,-22.1441,-1.29321,19.2112,39.565,-22.8237,-11.7419,9.60309,-6.80328,-1.53042,-25.0386,30.8067,-17.465,2.69461,-11.4179
-1.02468,17.6233,4.66964,3.3117,-33.9838,3.39317,0.962257,-0.645491,-3.52335,-0.259457,-0.892146,2.15174,-0.718292,-0.427141,4.20766,-17.7044,-5.52375,-15.4556,26.4159,-5.03643,6.04105,12.2672,-3.10108,4.0724,-4.92986e-14,-3.57812e-14,-30.5514,-5.72037,-77.5086,34.3111,12.0533,-21.2553,6.03307,7.12502,5.12787,-23.8849,-4.92986e-14,-3.57812e-14,-29.173,7.40697,86.9463,30.096,-4.59081,-17.3215,24.0972,7.12502,8.92515,53.8884,-22.3931,-1.41457,19.4697,39.3472,-22.687,-11.7441,9.74212,-7.61855,-1.38716,-24.7162,31.5679,-17.5116,2.44967,-10.7517
-1.01558,17.6289,4.66095,4.05326,-33.8925,2.6676,0.902902,-0.638867,-2.7585,-0.285851,-0.872331,2.32645,-0.722402,-0.420317,3.95469,-17.5905,-5.58217,-15.8068,26.0874,-5.15759,6.51492,12.1539,-3.1202,4.2893,1.46504e-13,4.77083e-15,-30.2726,-5.47683,-77.4859,34.5886,11.9291,-21.1612,6.17977,7.12502,5.21867,-23.736,1.46504e-13,4.77083e-15,-28.9286,7.33614,87.0655,30.3009,-4.28259,-16.8183,24.2781,7.12502,9.41064,54.048,-22.7039,-1.43931,20.1524,39.1329,-22.3852,-11.8774,9.72708,-8.47814,-1.29095,-23.9925,32.3317,-17.5593,2.28788,-10.4572
-1.00846,17.6341,4.64621,4.9229,-34.4242,2.1052,0.664609,-0.465174,-2.30411,-0.374366,-0.631316,2.47807,-0.704083,-0.300909,3.84946,-17.7264,-5.60265,-15.8867,26.0279,-5.15274,6.58302,12.1619,-3.11231,4.3272,6.72886e-14,2.62396e-14,-29.9217,-5.26803,-77.4922,34.7518,11.9261,-21.0787,6.22091,7.12502,5.29832,-23.6929,6.72886e-14,2.62396e-14,-28.6791,7.07034,87.1945,30.3234,-4.02505,-16.8135,24.2215,7.12502,9.41528,53.9912,-23.3882,-1.02353,20.666,38.9883,-21.9389,-11.8933,9.40566,-9.52424,-0.795,-23.4641,33.0058,-17.5355,2.3268,-10.3786
-1.00022,17.6384,4.63481,4.79318,-34.5641,2.54556,0.847444,-0.473614,-2.66814,-0.354789,-0.649163,2.43006,-0.781776,-0.306785,4.00796,-17.8666,-5.57257,-15.9245,25.9971,-5.08291,6.62992,12.1709,-3.07511,4.36151,-2.98177e-14,4.77083e-15,-29.5473,-5.10155,-77.493,34.8932,12.0711,-21.1219,6.21709,7.12502,5.25663,-23.6977,-2.98177e-14,4.77083e-15,-28.487,6.68755,87.3558,30.2787,-4.0992,-17.072,23.9733,7.12502,9.16588,53.7541,-23.5814,-0.902701,20.2351,38.9629,-21.7936,-11.8814,9.32037,-10.0073,-0.685029,-23.8274,33.5563,-17.4839,2.27197,-10.0201
-0.990151,17.6411,4.62495,4.19572,-34.5152,3.3895,1.23925,-0.531504,-3.33883,-0.283492,-0.744349,2.30143,-0.913418,-0.349204,4.26024,-17.92,-5.55472,-16.0096,25.9981,-5.04709,6.72068,12.1823,-3.05527,4.41682,-8.73659e-14,-7.95139e-16,-29.2312,-4.81069,-77.4246,35.0527,12.0812,-21.0177,6.26816,7.12502,5.35722,-23.6441,-8.73659e-14,-7.95139e-16,-28.3955,6.40969,87.5597,30.2961,-4.52787,-17.5535,23.8672,7.12502,8.70121,53.6679,-23.5385,-0.97909,19.445,39.0314,-21.7913,-11.9016,9.19552,-10.1937,-0.827032,-24.544,34.0161,-17.3873,2.22116,-10.4762
-0.979028,17.6424,4.61093,3.908,-34.4345,3.8115,1.58957,-0.578647,-3.66534,-0.211244,-0.822817,2.25836,-1.02423,-0.385396,4.40635,-18.0026,-5.55309,-16.0017,25.9264,-5.02925,6.72589,12.1679,-3.0413,4.41802,-8.29926e-14,1.35174e-14,-28.825,-4.52838,-77.3332,35.1454,12.0967,-20.8658,6.55246,7.12502,5.50394,-23.3561,-8.29926e-14,1.35174e-14,-28.2713,6.27185,87.7198,30.3802,-4.98957,-17.8262,23.8713,7.12502,8.43809,53.6828,-23.6005,-0.93397,19.0445,39.1405,-21.8156,-12.004,9.08396,-10.4965,-0.915943,-24.8276,34.4421,-17.2249,2.01193,-11.7541
-0.965594,17.6455,4.59801,3.94196,-34.356,3.82155,1.84204,-0.576975,-3.60949,-0.139515,-0.826788,2.25856,-1.09246,-0.387489,4.37791,-18.1249,-5.59819,-15.8493,25.7972,-5.08407,6.63073,12.1409,-3.0547,4.34195,-8.05078e-14,-9.54166e-15,-28.4502,-4.59947,-77.2458,35.3126,12.2703,-20.9332,6.6614,7.12502,5.43887,-23.2488,-8.05078e-14,-9.54166e-15,-27.9859,6.03243,87.8076,30.5306,-4.69109,-17.245,23.8201,7.12502,8.9989,53.6082,-23.733,-0.824621,19.0206,39.2048,-21.8275,-12.1493,9.0086,-10.9685,-1.0304,-24.7063,34.9712,-17.2169,1.69122,-12.7894
-0.951315,17.6464,4.58989,3.96185,-34.3631,3.86995,1.96647,-0.563114,-3.56172,-0.0288673,-0.810922,2.23652,-1.05102,-0.382917,4.32823,-18.1889,-5.64996,-15.8321,25.5918,-5.16806,6.72133,12.0853,-3.06979,4.35481,3.97569e-14,-6.36111e-15,-28.077,-4.64755,-77.1688,35.5639,12.3813,-20.7944,6.64107,7.12502,5.57288,-23.2657,3.97569e-14,-6.36111e-15,-27.6963,5.46676,88.0335,30.3662,-5.47284,-17.9763,23.1793,7.12502,8.29319,52.9965,-23.8436,-0.773438,18.9417,39.203,-21.744,-12.1407,9.21589,-11.4813,-1.17693,-24.6389,35.6323,-17.4338,1.4723,-14.0026
-0.934651,17.6468,4.58055,4.02314,-34.3843,3.81168,2.12513,-0.573704,-3.47612,0.0679672,-0.827368,2.26567,-1.03951,-0.393715,4.31178,-18.5437,-5.6494,-15.3989,25.7421,-5.1103,6.2629,12.1808,-3.05722,4.114,1.19271e-15,-1.19271e-14,-27.75,-4.5314,-77.0241,35.8311,12.4306,-20.4046,7.1033,7.12502,5.94919,-22.7932,1.19271e-15,-1.19271e-14,-27.4569,5.19094,88.1319,30.4876,-5.41059,-17.5457,23.165,7.12502,8.70874,52.9654,-23.9069,-0.770208,18.9559,39.1455,-21.6808,-12.1136,9.52541,-11.9607,-1.34809,-24.4776,36.3479,-17.7345,1.1491,-14.6009
-0.917445,17.6481,4.56678,4.0993,-34.3449,3.69557,2.43311,-0.598443,-3.38496,0.118704,-0.866015,2.32316,-1.15666,-0.411868,4.3251,-18.958,-5.67299,-14.9541,25.957,-5.06301,5.73014,12.3142,-3.05962,3.84069,7.05686e-14,1.82882e-14,-27.4216,-4.45522,-76.8421,35.9944,12.4033,-20.5068,7.44177,7.12502,5.8505,-22.4575,7.05686e-14,1.82882e-14,-27.2636,5.02859,88.2327,30.6412,-5.71958,-17.012,23.5513,7.12502,9.22381,53.3295,-23.9549,-0.655739,19.0368,39.0667,-21.6255,-12.2957,9.48132,-12.4346,-1.61634,-24.2179,37.0141,-18.0002,0.570124,-14.1713
-0.902816,17.6509,4.55651,4.17183,-34.324,3.52377,2.76267,-0.597041,-3.28915,0.129322,-0.86905,2.40919,-1.3304,-0.410252,4.36542,-19.0059,-5.71954,-14.9929,25.9247,-5.11397,5.75361,12.3195,-3.08093,3.84622,5.63555e-14,4.77083e-15,-27.1522,-4.40849,-76.6315,36.1165,12.3757,-20.9839,7.52301,7.12502,5.38986,-22.3884,5.63555e-14,4.77083e-15,-27.1536,4.82179,88.3423,30.7158,-6.18897,-16.581,23.6121,7.12502,9.63964,53.3716,-23.953,-0.514868,19.1668,38.9685,-21.5533,-12.4857,9.28671,-12.8774,-2.06827,-23.8657,37.6049,-18.3329,-0.130988,-12.3997
-0.887445,17.654,4.55408,4.19535,-34.4055,3.45339,2.93694,-0.607069,-3.29778,0.177913,-0.886475,2.48209,-1.37514,-0.418831,4.44916,-19.3035,-5.71502,-14.7398,26.0607,-5.05414,5.45785,12.4096,-3.06672,3.69848,7.2457e-14,3.18055e-15,-26.8314,-4.24819,-76.4407,36.2792,12.4085,-21.4441,7.70256,7.12502,4.94552,-22.2197,7.2457e-14,3.18055e-15,-27.031,4.55294,88.4757,30.7198,-6.50051,-16.7734,23.3801,7.12502,9.454,53.148,-23.9483,-0.422171,19.1767,38.8698,-21.4578,-12.536,9.14105,-13.2549,-2.6718,-23.5896,38.1007,-18.714,-0.862656,-9.96205
-0.868524,17.6549,4.55494,4.19671,-34.6084,3.39456,3.03041,-0.60168,-3.29242,0.323172,-0.881536,2.54063,-1.27769,-0.421433,4.50684,-19.7861,-5.7331,-14.4781,26.1717,-4.99963,5.17389,12.5281,-3.04879,3.55011,4.7112e-14,7.95139e-16,-26.3837,-4.03889,-76.2327,36.5154,12.3493,-21.681,7.74259,7.12502,4.71682,-22.1849,4.7112e-14,7.95139e-16,-26.8101,4.23236,88.628,30.7829,-6.66496,-17.0225,23.3489,7.12502,9.21363,53.1276,-23.9152,-0.418398,19.1588,38.7615,-21.3599,-12.2521,9.82294,-13.5587,-3.3204,-23.3558,38.5034,-19.0351,-1.1639,-8.50968
-0.850057,17.6553,4.55413,4.17027,-34.8371,3.4173,3.11172,-0.590581,-3.40227,0.446715,-0.872573,2.59199,-1.19455,-0.420833,4.62247,-19.9878,-5.77445,-14.4603,25.9985,-5.01008,5.13369,12.499,-3.04717,3.52407,6.36111e-15,2.22639e-14,-25.9796,-3.87388,-75.9653,36.7826,12.2982,-22.1476,7.97795,7.12502,4.26623,-21.9591,6.36111e-15,2.22639e-14,-26.5904,3.98899,88.7606,30.8443,-6.76467,-16.9259,23.3792,7.12502,9.30688,53.1538,-23.9454,-0.402734,19.0794,38.6908,-21.1689,-12.0701,9.97431,-13.8458,-3.72806,-23.203,38.7822,-19.2151,-1.09377,-8.15458
-0.833822,17.6596,4.55554,4.19117,-35.0359,3.38643,3.20481,-0.578895,-3.45709,0.471164,-0.860832,2.65125,-1.22107,-0.414667,4.71628,-19.8205,-5.81976,-14.769,25.64,-5.07913,5.44121,12.3497,-3.05851,3.67827,-2.74323e-14,1.74931e-14,-25.7418,-3.80431,-75.6269,37.07,12.2338,-22.4996,8.16572,7.12502,3.92634,-21.7779,-2.74323e-14,1.74931e-14,-26.5587,3.69749,88.8845,30.9612,-6.79265,-17.0498,23.317,7.12502,9.18725,53.0969,-23.9954,-0.41004,19.0545,38.6714,-21.0309,-11.8685,10.1267,-14.0426,-4.13994,-22.9966,38.9228,-19.4295,-0.749073,-8.45117
-0.816477,17.6609,4.56194,4.18111,-35.3082,3.42797,3.20178,-0.545661,-3.53902,0.525882,-0.81931,2.67496,-1.16595,-0.396024,4.78543,-19.5359,-5.88332,-15.2852,25.0557,-5.21728,6.09007,12.1142,-3.07143,3.98366,-4.69132e-14,-1.51076e-14,-25.5698,-3.62002,-75.3191,37.4666,11.8483,-22.6888,7.55866,7.12502,3.74364,-22.3882,-4.69132e-14,-1.51076e-14,-26.5972,3.52255,88.9616,31.2175,-6.93323,-17.0781,22.9034,7.12502,9.15999,52.6845,-24.0771,-0.534984,18.9672,38.6801,-20.7983,-11.5719,9.81112,-14.1904,-4.66458,-22.8249,38.9617,-19.7123,-0.373238,-9.38582
-0.796982,17.6563,4.56983,4.07897,-35.6413,3.59492,3.21053,-0.484489,-3.72589,0.586415,-0.744727,2.64391,-1.11459,-0.360486,4.85606,-19.5979,-5.93559,-15.3731,24.7196,-5.27518,6.22199,12.0086,-3.07579,4.03163,6.63941e-14,-3.97569e-15,-25.3791,-3.57906,-75.0093,37.7941,11.4947,-23.202,7.29079,7.12502,3.248,-22.6642,6.63941e-14,-3.97569e-15,-26.5589,3.4015,88.9449,31.3999,-7.19526,-16.5418,22.5933,7.12502,9.67748,52.351,-24.166,-0.547542,18.7547,38.686,-20.5298,-11.4191,9.21271,-14.3316,-5.3866,-22.6801,38.9136,-19.8915,-0.332764,-8.52915
-0.776949,17.6551,4.57562,4.08641,-36.0225,3.59951,3.26489,-0.442301,-3.79875,0.585728,-0.692638,2.62725,-1.15091,-0.333212,4.87892,-19.8035,-5.94444,-15.1615,24.5702,-5.2416,5.97179,11.9724,-3.06329,3.90039,1.31198e-14,-9.54166e-15,-25.1102,-3.70823,-74.706,37.963,11.3991,-23.8461,7.81631,7.12502,2.62601,-22.1473,1.31198e-14,-9.54166e-15,-26.5612,3.18743,88.8516,31.5884,-6.91326,-16.0121,22.313,7.12502,10.1885,52.0463,-24.275,-0.425645,18.6796,38.6747,-20.3457,-11.264,8.75059,-14.4793,-5.91182,-22.4225,38.8059,-20.1535,0.0778483,-8.7424
-0.759201,17.6622,4.58367,4.01907,-36.4293,3.62057,3.27682,-0.395049,-3.8571,0.643882,-0.632583,2.57842,-1.10433,-0.305358,4.85843,-19.9355,-5.96643,-14.9713,24.2448,-5.24638,5.7886,11.8604,-3.05697,3.79009,-2.78299e-15,-1.74931e-14,-24.7918,-3.87062,-74.4158,38.1651,11.2299,-24.4222,7.85935,7.12502,2.06957,-22.1104,-2.78299e-15,-1.74931e-14,-26.4994,3.00173,88.6929,31.7808,-6.63158,-15.5864,22.126,7.12502,10.5992,51.8387,-24.2604,-0.353279,18.5921,38.6486,-20.1837,-10.913,9.0805,-14.4923,-6.15878,-22.2782,38.6525,-20.2843,1.07989,-12.1158
-0.741463,17.6707,4.59249,3.87291,-36.8445,3.69591,3.33887,-0.319807,-3.91544,0.744484,-0.537551,2.4397,-1.04695,-0.261116,4.74303,-20.2331,-6.05507,-14.5771,23.8819,-5.35654,5.50884,11.7687,-3.08729,3.58979,-3.18055e-14,7.95139e-15,-24.5317,-4.03797,-74.1649,38.5684,10.8288,-24.8006,7.63372,7.12502,1.70413,-22.3392,-3.18055e-14,7.95139e-15,-26.3761,2.74131,88.3328,32.0216,-6.78718,-14.9843,21.8051,7.12502,11.1799,51.4872,-24.1818,-0.259318,18.4586,38.5812,-19.9782,-10.6498,9.24393,-14.445,-6.4426,-22.1534,38.4619,-20.0417,1.61853,-13.5964
-0.720435,17.6722,4.60065,3.77505,-37.2993,3.80967,3.42698,-0.27535,-4.07489,0.763817,-0.487512,2.34688,-1.08136,-0.235098,4.73571,-20.6646,-6.14092,-14.1506,23.5783,-5.40742,5.05627,11.7129,-3.11097,3.32866,-5.52621e-14,-1.59028e-15,-24.2922,-3.96102,-73.8133,39.0079,10.2805,-25.0408,7.45554,7.12502,1.47213,-22.5191,-5.52621e-14,-1.59028e-15,-26.4184,2.71331,87.9146,32.4187,-7.14635,-14.1586,21.4744,7.12502,11.9762,51.1118,-24.2065,-0.142527,18.2932,38.4857,-19.681,-10.4669,8.89568,-14.4512,-6.90271,-21.9971,38.1912,-19.9771,1.77094,-13.224
-0.698818,17.6744,4.60942,3.73052,-37.8248,3.86949,3.50252,-0.273158,-4.23499,0.702457,-0.493435,2.30229,-1.18523,-0.233437,4.78177,-20.8618,-6.23286,-14.0369,23.0858,-5.46813,4.85082,11.5588,-3.13523,3.21267,2.18663e-15,1.19271e-14,-23.9758,-3.76909,-73.4241,39.3024,9.88295,-25.2571,7.41734,7.12502,1.26327,-22.5587,2.18663e-15,1.19271e-14,-26.7383,2.82201,87.5338,32.9838,-6.77635,-12.3964,21.1696,7.12502,13.675,50.7003,-24.2557,0.187163,18.1501,38.3912,-19.5157,-10.2976,9.15172,-14.473,-7.42811,-21.7611,37.8198,-20.0949,1.85123,-12.6816
-0.678184,17.6833,4.62131,3.75954,-38.4227,3.86446,3.44739,-0.243023,-4.28402,0.691432,-0.453798,2.2216,-1.17048,-0.213509,4.72326,-20.8458,-6.45024,-14.3658,22.2385,-5.75192,5.26903,11.289,-3.21331,3.36496,-1.17283e-13,-3.97569e-15,-23.5216,-3.74612,-73.0381,39.5674,9.56215,-25.3009,7.50176,7.12502,1.22097,-22.4745,-1.17283e-13,-3.97569e-15,-26.9036,2.66934,87.1315,33.4884,-5.90714,-13.1739,20.4341,7.12502,12.9256,50.0138,-24.3244,0.538216,18.0632,38.3019,-19.3434,-10.128,9.04238,-14.5307,-7.99637,-21.4482,37.3944,-20.1071,1.70509,-10.7386
-0.653981,17.6869,4.63429,3.72602,-38.9952,3.85486,3.46171,-0.206769,-4.32551,0.69704,-0.408053,2.16736,-1.17802,-0.190391,4.68843,-20.8027,-6.6732,-14.5865,21.2307,-6.03123,5.52651,10.9506,-3.29704,3.43823,-3.60794e-14,7.15625e-15,-23.0565,-3.73423,-72.5281,39.8984,9.38831,-25.4717,7.36345,7.12502,1.056,-22.6137,-3.60794e-14,7.15625e-15,-27.0129,2.41782,86.7616,33.9528,-5.14463,-11.4544,20.2172,7.12502,14.5827,49.6846,-24.3248,0.834655,17.9703,38.2236,-19.1823,-9.84413,9.36435,-14.4772,-8.46895,-21.1603,36.9462,-20.1513,1.52204,-9.42284
-0.628816,17.687,4.64392,3.67263,-39.468,3.88176,3.58231,-0.213538,-4.47118,0.64524,-0.427844,2.12436,-1.29599,-0.195385,4.72876,-20.7859,-6.84035,-14.5743,20.196,-6.23361,5.52304,10.587,-3.35904,3.39082,1.95803e-14,6.36111e-15,-22.6138,-3.61888,-71.9351,40.3388,8.9591,-25.6999,7.05148,7.12502,0.835607,-22.9266,1.95803e-14,6.36111e-15,-27.1545,2.08065,86.331,34.533,-4.09999,-9.87944,20.1396,7.12502,16.0997,49.4909,-24.3632,0.988977,17.8617,38.173,-19.0475,-9.56966,9.6988,-14.4128,-8.80788,-20.915,36.4684,-20.205,1.26196,-9.15564
-0.603673,17.6843,4.65364,3.61905,-39.9326,3.88178,3.62353,-0.235533,-4.57436,0.676794,-0.463642,2.04155,-1.28225,-0.214024,4.70283,-20.8212,-7.11869,-14.6639,18.9488,-6.55976,5.59586,10.1812,-3.47137,3.3666,-4.50247e-14,1.51076e-14,-21.9422,-3.63304,-71.3878,40.7427,8.44552,-26.1424,6.59425,7.12502,0.408211,-23.3851,-4.50247e-14,1.51076e-14,-27.1336,1.8076,85.7813,35.197,-3.26006,-9.4084,20.1055,7.12502,16.5533,49.4195,-24.4207,1.0944,17.7904,38.1619,-18.8675,-9.35592,9.53453,-14.3082,-9.27083,-20.6534,35.9787,-20.252,1.05943,-9.34756
-0.577067,17.6813,4.66646,3.63746,-40.3461,3.783,3.56796,-0.25363,-4.46023,0.732767,-0.48228,1.92547,-1.19327,-0.227474,4.51686,-20.8705,-7.51533,-14.8824,17.6146,-7.01515,5.72513,9.77476,-3.64559,3.36352,-4.67144e-15,6.36111e-15,-21.1654,-3.88962,-70.8454,41.105,8.12402,-26.5265,6.33966,7.12502,0.0372221,-23.6401,-4.67144e-15,6.36111e-15,-27.02,1.45277,85.1587,35.8209,-2.77489,-8.98092,19.9422,7.12502,16.9648,49.2213,-24.4589,1.15884,17.7852,38.1601,-18.6736,-9.10537,9.20206,-14.2045,-9.72024,-20.3126,35.5038,-20.3239,0.847069,-9.19147
-0.548687,17.6794,4.67109,3.81932,-40.6076,3.67746,3.54473,-0.358091,-4.47765,0.634807,-0.622344,1.87776,-1.26601,-0.29327,4.48358,-20.7542,-7.71013,-14.9902,16.296,-7.27277,5.94079,9.32849,-3.71788,3.41286,-1.14798e-13,-8.74653e-15,-20.3702,-3.94975,-70.2095,41.3902,7.91221,-26.9747,6.50098,7.12502,-0.395648,-23.4784,-1.14798e-13,-8.74653e-15,-26.986,0.971733,84.4927,36.4505,-2.40397,-8.77991,19.7789,7.12502,17.1583,49.0413,-24.6725,1.18606,17.8009,38.143,-18.4672,-8.98213,8.75296,-14.3371,-10.0295,-19.9159,35.0605,-20.2561,0.448229,-9.45651
-0.520961,17.6761,4.6742,3.90032,-41.0286,3.47822,3.66978,-0.418157,-4.49088,0.622361,-0.708663,1.85236,-1.33953,-0.334199,4.4702,-20.756,-7.82316,-14.9554,14.9532,-7.44799,6.20792,8.88786,-3.73821,3.47089,-2.23633e-14,1.59028e-15,-19.422,-4.0197,-69.5466,41.7739,7.92259,-27.6253,6.20579,7.12502,-1.02401,-23.7715,-2.23633e-14,1.59028e-15,-26.7964,0.245479,83.8126,37.032,-1.93469,-8.28456,20.3003,7.12502,17.635,49.5206,-24.7401,1.32826,17.9059,38.1143,-18.2052,-8.80027,8.28866,-14.2823,-10.1946,-19.485,34.642,-20.261,0.1645,-10.4648
-0.492662,17.6743,4.68617,3.9548,-41.4493,3.37203,3.54922,-0.470488,-4.41,0.695548,-0.771433,1.72239,-1.19249,-0.371449,4.28947,-21.0749,-8.01715,-14.777,13.7073,-7.70321,6.37483,8.53792,-3.79841,3.45388,1.41137e-14,-1.90833e-14,-18.4091,-4.03718,-68.9536,42.3613,7.90047,-28.4178,5.72622,7.12502,-1.78943,-24.246,1.41137e-14,-1.90833e-14,-26.5765,-0.35774,83.0612,37.8278,-1.74364,-8.21614,20.9897,7.12502,17.7009,50.2041,-24.8095,1.45681,17.893,38.0734,-18.0043,-8.57647,8.41219,-14.2436,-10.4416,-19.1738,34.2859,-20.2564,-0.102162,-10.5057
-0.461316,17.6708,4.69982,3.93489,-41.7415,3.27899,3.4812,-0.568576,-4.21044,0.761628,-0.893839,1.53153,-1.07951,-0.437487,3.98168,-21.1148,-8.16282,-14.4831,12.2437,-7.93601,6.38958,8.05715,-3.86398,3.37915,-6.39093e-14,-1.47101e-14,-17.4087,-4.06989,-68.3377,42.98,8.1262,-29.2114,5.35622,7.12502,-2.55587,-24.6082,-6.39093e-14,-1.47101e-14,-26.3287,-0.693173,82.1084,38.6138,-2.04423,-9.38618,20.4849,7.12502,16.5747,49.7971,-24.7876,1.5307,17.8555,38.0282,-17.8586,-8.40177,8.69287,-14.1506,-10.6488,-18.8939,33.9899,-20.116,-0.623965,-9.98359
-0.428302,17.6656,4.70719,4.08069,-42.0385,2.97159,3.5128,-0.704144,-3.92281,0.779492,-1.06663,1.41674,-1.06921,-0.525177,3.70742,-20.8588,-8.25937,-14.3091,10.4677,-8.12,6.49159,7.43373,-3.90993,3.37248,3.50855e-14,7.55382e-15,-16.3004,-3.92822,-67.7206,43.607,8.44598,-30.1446,4.81046,7.12502,-3.45713,-25.1413,3.50855e-14,7.55382e-15,-26.0174,-0.92345,81.0003,39.4684,-2.13306,-10.1275,19.9834,7.12502,15.8608,49.3538,-24.8288,1.67498,18.0025,38.0018,-17.7139,-8.24302,8.8528,-14.1348,-10.6246,-18.465,33.726,-19.7975,-0.920289,-10.5951
-0.39204,17.6584,4.71021,4.36091,-42.3649,2.51909,3.66099,-0.845574,-3.78124,0.724731,-1.25469,1.51205,-1.19198,-0.615844,3.73749,-20.7258,-8.38467,-14.4337,8.79084,-8.25594,6.67848,6.88281,-3.94086,3.44729,-8.93537e-14,-3.97569e-16,-15.0145,-3.51814,-66.9032,44.2177,8.73199,-30.8537,4.26742,7.12502,-4.14191,-25.6721,-8.93537e-14,-3.97569e-16,-25.7069,-0.991738,80.033,40.3087,-2.30575,-10.1424,19.9372,7.12502,15.8465,49.3087,-24.9586,1.84354,18.2827,38.0059,-17.5522,-8.15893,8.83022,-14.1465,-10.5781,-17.9222,33.4634,-19.2772,-0.954065,-11.6013
-0.355403,17.6475,4.71576,4.48601,-42.7541,2.31736,3.83862,-0.970824,-4.05971,0.58769,-1.43727,1.72985,-1.40308,-0.698361,4.13473,-20.3916,-8.50762,-14.71,7.00479,-8.37399,6.82532,6.27423,-3.97532,3.54298,-5.62561e-14,-9.93923e-15,-13.7472,-2.6669,-65.7555,44.9546,8.91856,-31.3075,3.92264,7.12502,-4.58006,-26.0078,-5.62561e-14,-9.93923e-15,-25.5,-0.855493,79.2333,41.1462,-2.65638,-10.2941,19.7802,7.12502,15.7005,49.1633,-25.1148,1.88872,18.3572,38.0495,-17.352,-7.91476,8.76042,-14.1106,-10.522,-17.6074,33.1945,-18.6659,-0.95694,-12.6518
-0.321931,17.6362,4.72433,4.40737,-43.2269,2.25057,4.04219,-1.02833,-4.37782,0.490842,-1.53411,1.86832,-1.59495,-0.738023,4.47004,-19.8587,-8.62963,-15.0049,4.9676,-8.53555,7.11046,5.57509,-4.02092,3.6925,-3.94588e-14,-2.42517e-14,-12.5488,-1.4966,-64.4595,45.8446,8.79078,-31.9791,3.42841,7.12502,-5.22854,-26.4871,-3.94588e-14,-2.42517e-14,-25.1811,-0.895004,78.3742,42.006,-2.58183,-10.5024,19.6986,7.12502,15.4998,49.0973,-25.1587,2.05841,18.2995,38.1396,-17.281,-7.57837,9.44253,-13.9235,-10.2197,-17.4762,32.9014,-18.1051,-1.10613,-13.8766
-0.288803,17.6269,4.735,4.18999,-43.6917,2.28069,4.15493,-1.0642,-4.58676,0.519479,-1.59621,1.84458,-1.61673,-0.767918,4.56925,-19.808,-8.75725,-14.8305,3.23923,-8.72995,7.15391,5.02759,-4.08805,3.67783,1.92324e-14,-4.77083e-15,-11.1823,-0.414678,-63.2288,46.7096,8.58789,-32.7882,2.69302,7.12502,-6.00975,-27.2017,1.92324e-14,-4.77083e-15,-24.6513,-0.992625,77.2898,43.0178,-2.50374,-10.1593,19.8204,7.12502,15.8302,49.1932,-25.1366,2.30834,18.1466,38.2823,-17.3256,-7.31822,10.0956,-13.641,-9.90239,-17.4899,32.5924,-17.7385,-1.46383,-14.0492
-0.25109,17.6188,4.74314,4.1346,-44.0901,2.22878,4.18709,-1.08962,-4.69697,0.539207,-1.63721,1.79079,-1.60824,-0.788504,4.5782,-19.8586,-8.92707,-14.509,1.56246,-9.00043,7.14326,4.51427,-4.19743,3.616,-4.04527e-14,-1.19271e-15,-9.75815,0.42913,-61.9438,47.5695,8.68542,-33.4186,2.3505,7.12502,-6.61832,-27.5261,-4.04527e-14,-1.19271e-15,-23.9311,-1.39778,76.1259,44.0699,-2.36616,-10.0775,19.9786,7.12502,15.9091,49.3452,-25.2441,2.46753,18.0679,38.4245,-17.2137,-7.23547,9.17069,-13.4652,-9.56872,-17.443,32.3347,-17.6618,-2.30049,-13.9262
-0.2118,17.6061,4.75116,4.11338,-44.5295,2.15091,4.26054,-1.10336,-4.85808,0.496737,-1.66592,1.84018,-1.68392,-0.798659,4.72527,-19.6416,-9.09791,-14.6046,-0.329493,-9.23231,7.36798,3.92456,-4.28425,3.71229,-4.86525e-14,-3.97569e-16,-8.08543,1.32345,-60.4147,48.2983,8.99447,-33.6459,2.9909,7.12502,-6.83774,-26.8787,-4.86525e-14,-3.97569e-16,-23.2266,-1.73633,75.031,45.1137,-2.2251,-10.4894,20.1642,7.12502,15.5124,49.5619,-25.3866,2.69341,17.9999,38.5694,-17.1154,-7.1053,8.95654,-13.2738,-8.97873,-17.4141,32.144,-17.8486,-3.47931,-13.4337
-0.171929,17.5962,4.76034,4.14988,-44.961,1.91467,4.37639,-1.15281,-4.92289,0.447302,-1.73863,1.97592,-1.78527,-0.830308,4.91172,-19.3535,-9.20487,-14.8155,-2.23355,-9.36872,7.59823,3.32218,-4.32741,3.84589,1.58829e-13,-2.06736e-14,-6.28083,2.43764,-58.7604,49.0621,9.42184,-33.9953,3.58801,7.12502,-7.17499,-26.2704,1.58829e-13,-2.06736e-14,-22.5575,-1.94259,73.9278,46.2276,-2.00116,-11.0832,20.1557,7.12502,14.9403,49.5968,-25.4706,2.86713,18.065,38.7235,-16.9829,-6.93319,8.61147,-13.0209,-8.40586,-17.3276,32.0029,-18.0598,-4.15494,-12.7588
-0.130784,17.5884,4.77012,4.08512,-45.3782,1.80799,4.47006,-1.21486,-5.01174,0.418709,-1.82986,2.00939,-1.85245,-0.872522,5.0053,-19.0057,-9.28294,-14.8937,-4.20201,-9.51313,7.91213,2.69897,-4.37391,3.99278,-1.44119e-14,-4.37326e-15,-4.46012,3.36291,-57.18,49.8869,10.2098,-34.3417,3.79653,7.12502,-7.50938,-26.0502,-1.44119e-14,-4.37326e-15,-21.7508,-2.27825,72.6367,47.3846,-1.66758,-11.6463,20.4771,7.12502,14.3978,49.9578,-25.5823,2.87726,18.0434,38.9162,-16.7442,-6.71929,7.87009,-12.734,-7.95678,-17.3904,31.8608,-18.1962,-4.20026,-12.4777
-0.0896244,17.5762,4.78034,3.82986,-45.762,1.96749,4.39117,-1.2843,-5.10464,0.510661,-1.92487,1.85935,-1.70354,-0.926409,4.90166,-18.7769,-9.4491,-14.8748,-6.15021,-9.77891,8.27282,2.11617,-4.48336,4.12749,5.4964e-14,-1.59028e-14,-2.47904,3.84376,-55.6577,50.7018,11.401,-34.5365,4.19327,7.12502,-7.69738,-25.6466,5.4964e-14,-1.59028e-14,-20.5812,-2.81441,71.0725,48.5318,-1.22099,-12.4303,20.5052,7.12502,13.6423,50.0381,-25.7019,2.85847,17.8214,39.1314,-16.5677,-6.47625,7.49206,-12.4572,-7.66121,-17.6755,31.7328,-18.4753,-4.27312,-11.9621
-0.0481442,17.5595,4.789,3.66091,-46.1487,2.09932,4.19562,-1.40374,-5.06354,0.592721,-2.07527,1.62822,-1.5009,-1.01011,4.63622,-18.5819,-9.52401,-14.7828,-8.02292,-9.93375,8.71173,1.55815,-4.54336,4.28908,6.66923e-14,7.95139e-15,-0.436435,4.28619,-54.2171,51.552,12.6134,-34.8182,4.56347,7.12502,-7.96927,-25.2663,6.66923e-14,7.95139e-15,-19.237,-3.43591,69.2718,49.6063,-0.628241,-13.1006,20.6949,7.12502,12.9963,50.2701,-25.913,3.11147,17.5799,39.3888,-16.5596,-6.33004,8.06477,-12.2645,-7.39511,-17.9457,31.568,-18.7406,-4.56189,-10.429
-0.00321974,17.544,4.79083,3.54898,-46.4056,2.01053,4.27263,-1.54638,-4.93632,0.659391,-2.26508,1.47434,-1.4642,-1.10835,4.41409,-18.6244,-9.55022,-14.53,-9.59219,-10.0201,8.96927,1.10193,-4.58206,4.36523,7.34509e-14,1.59028e-15,1.71235,4.74158,-52.7189,52.3881,13.3865,-35.1079,4.71005,7.12502,-8.24894,-25.1089,7.34509e-14,1.59028e-15,-17.749,-4.13218,67.3969,50.6161,-0.0331869,-12.9102,21.2645,7.12502,13.1798,50.8279,-25.9959,3.39146,17.5122,39.6765,-16.6388,-6.27414,8.22315,-12.0036,-6.84523,-18.0801,31.3665,-19.0109,-4.56263,-10.7677
0.0419351,17.5282,4.80237,3.43714,-46.7488,1.904,4.28291,-1.62799,-4.79051,0.71559,-2.3688,1.36222,-1.41107,-1.16369,4.21911,-18.7232,-9.54797,-14.2396,-10.9805,-10.0713,9.05233,0.691392,-4.61189,4.38093,5.56349e-14,-2.16675e-14,3.88652,5.09647,-51.087,53.149,13.89,-35.4612,4.83166,7.12502,-8.58989,-24.9736,5.56349e-14,-2.16675e-14,-16.2358,-4.63132,65.579,51.5662,0.235583,-13.0954,21.53,7.12502,13.0012,51.1049,-26.0775,3.55209,17.4487,39.9795,-16.641,-6.09545,8.23058,-11.6604,-6.4822,-18.2971,31.1514,-19.2345,-3.84485,-11.2062
0.0885007,17.5134,4.81647,3.20369,-47.0937,1.99388,4.3071,-1.69543,-4.77506,0.700978,-2.46075,1.27194,-1.43446,-1.2087,4.12216,-18.7764,-9.59876,-14.2479,-12.161,-10.1374,9.29917,0.363591,-4.64034,4.48765,7.68551e-14,-7.95139e-15,6.00608,5.51371,-49.146,53.9828,14.1995,-35.86,4.85465,7.12502,-8.97469,-24.9345,7.68551e-14,-7.95139e-15,-14.7358,-4.88942,63.8425,52.5418,0.544239,-13.8454,21.1778,7.12502,12.2782,50.7974,-26.2189,3.5131,17.267,40.3077,-16.5081,-5.85923,7.59451,-11.3414,-6.36539,-18.6889,30.9187,-19.357,-3.0689,-10.2629
0.132609,17.5001,4.82752,2.97814,-47.4305,2.1621,4.32152,-1.73755,-4.8366,0.610336,-2.5235,1.1577,-1.53198,-1.23494,4.04401,-18.7895,-9.66329,-14.2698,-13.2294,-10.2193,9.62084,0.0733869,-4.67751,4.61717,-7.5886e-14,-2.38542e-15,8.01079,5.72254,-47.1467,54.8757,14.4809,-36.1621,4.93769,7.12502,-9.2662,-24.8387,-7.5886e-14,-2.38542e-15,-13.1492,-5.1102,62.1253,53.6578,1.12033,-14.4983,21.562,7.12502,11.6486,51.2182,-26.4314,3.71316,17.0041,40.6321,-16.5526,-5.82063,7.21788,-11.0886,-6.27652,-19.1148,30.6926,-19.6084,-2.44337,-9.88385
0.175509,17.485,4.83771,2.4894,-47.7947,2.53296,4.39373,-1.72577,-5.03713,0.618917,-2.52418,0.969666,-1.56335,-1.23367,3.96467,-19.0428,-9.7529,-14.1873,-14.0808,-10.3208,9.88587,-0.125585,-4.72763,4.69754,-5.49391e-14,7.95139e-15,10.0077,5.55914,-45.2316,55.7221,14.7087,-36.4335,4.97782,7.12502,-9.5281,-24.7868,-5.49391e-14,7.95139e-15,-11.3618,-5.53009,60.3983,54.7811,1.51842,-15.3831,22.0849,7.12502,10.7952,51.7875,-26.5254,3.95964,16.5995,40.9464,-16.6337,-5.76171,7.65785,-10.6991,-6.40495,-19.6985,30.513,-19.8458,-1.53505,-10.4539
0.217389,17.475,4.85154,2.26601,-48.1669,2.73266,4.34839,-1.69105,-5.16796,0.556826,-2.48447,0.877842,-1.60481,-1.21055,3.94093,-19.4058,-9.86191,-14.2064,-14.6875,-10.4159,10.0492,-0.24154,-4.76941,4.75148,-5.56349e-14,-9.93923e-15,12.0088,5.29885,-43.2143,56.449,14.63,-36.8012,4.77457,7.12502,-9.88281,-24.9735,-5.56349e-14,-9.93923e-15,-9.59612,-5.90463,58.7431,56.0003,1.90764,-16.2895,22.4909,7.12502,9.92087,52.2371,-26.7298,4.05775,16.3274,41.2093,-16.5792,-5.58438,7.6467,-10.5327,-6.60649,-20.1069,30.4402,-19.8936,-0.682151,-10.5812
0.260441,17.4702,4.86492,2.2314,-48.4433,2.89039,4.18235,-1.70789,-5.20231,0.408307,-2.50395,0.780456,-1.66608,-1.21496,3.85731,-19.7074,-9.94803,-14.1961,-15.1629,-10.4952,10.1695,-0.331737,-4.80575,4.78684,-5.56349e-14,2.28602e-15,13.896,4.92278,-41.2622,57.1769,14.531,-37.2148,4.64835,7.12502,-10.2819,-25.0803,-5.56349e-14,2.28602e-15,-7.6571,-5.98197,56.983,57.0478,2.91408,-16.7733,22.5019,7.12502,9.45407,52.2699,-27.083,4.19262,16.0703,41.4234,-16.4774,-5.61933,7.10621,-10.6611,-6.71335,-20.4009,30.47,-19.8955,-0.435202,-9.66534
0.301477,17.4619,4.87496,2.19168,-48.6837,3.01635,4.04077,-1.75399,-5.30917,0.285398,-2.56595,0.720941,-1.70532,-1.24133,3.85587,-20.0596,-10.0002,-14.2181,-15.5853,-10.5156,10.3224,-0.401845,-4.81097,4.83948,7.70291e-15,2.98177e-16,15.9508,4.44352,-39.4444,57.7371,14.1542,-37.6362,4.7742,7.12502,-10.6883,-24.9339,7.70291e-15,2.98177e-16,-5.615,-5.85397,55.2341,57.9309,3.76663,-17.1106,22.1477,7.12502,9.1286,51.9301,-27.4184,4.30537,15.8723,41.5976,-16.3204,-5.80135,6.24894,-10.8454,-6.80127,-20.6167,30.5956,-19.9895,-0.39669,-9.38747
0.340305,17.455,4.88175,1.98491,-48.9276,3.15214,4.10187,-1.78597,-5.47875,0.181123,-2.62344,0.670289,-1.8362,-1.26253,3.90629,-20.3098,-10.0106,-14.2902,-16.0203,-10.481,10.527,-0.48818,-4.78774,4.92521,-5.16033e-14,7.65321e-15,18.1352,3.81214,-37.8882,57.9956,13.7132,-38.1511,4.59963,7.12502,-11.185,-25.0822,-5.16033e-14,7.65321e-15,-3.60308,-5.76871,53.5493,58.7885,4.16716,-17.6096,22.3003,7.12502,8.64706,52.1033,-27.5855,4.38389,15.706,41.7678,-16.1298,-5.97724,4.81674,-10.8952,-6.61812,-20.798,30.7453,-20.0854,-0.536835,-8.37086
0.374877,17.4502,4.88678,1.58574,-49.2202,3.44162,4.22951,-1.78596,-5.81666,0.0957006,-2.65067,0.628277,-1.98025,-1.26678,4.06117,-20.652,-10.0326,-14.4284,-16.3236,-10.4386,10.6656,-0.527357,-4.75546,4.9942,6.15487e-14,3.03147e-15,20.2816,3.05828,-36.417,58.1927,13.0186,-38.7083,4.24029,7.12502,-11.7224,-25.4117,6.15487e-14,3.03147e-15,-1.50002,-5.7543,51.8529,59.5726,4.47157,-18.5687,22.7686,7.12502,7.72149,52.6076,-27.645,4.66602,15.4128,41.9619,-16.1147,-6.10166,4.79759,-10.8739,-5.94603,-21.0554,30.87,-20.1278,-0.974006,-5.0981
0.406535,17.4441,4.89213,1.16052,-49.475,3.82656,4.2852,-1.74891,-6.11393,0.0150717,-2.62758,0.403048,-2.09527,-1.24763,3.99761,-21.0806,-10.0555,-14.1423,-16.5149,-10.471,10.7362,-0.534704,-4.77981,4.96226,-1.10419e-13,-1.25856e-14,22.0448,2.12906,-35.1854,58.4735,11.8788,-39.1916,3.73788,7.12502,-12.1884,-25.887,-1.10419e-13,-1.25856e-14,0.880613,-5.90297,49.8622,60.2965,4.78154,-19.4329,23.1826,7.12502,6.88724,53.0506,-27.7276,4.94089,15.0454,42.1757,-16.275,-6.13715,5.68465,-10.8564,-5.09675,-21.3569,30.9448,-20.1701,-1.7052,-7.33531
0.435531,17.4354,4.89511,0.964431,-49.705,3.90137,4.29603,-1.66967,-6.13801,0.00387722,-2.53152,0.132363,-2.13516,-1.19928,3.72648,-21.7241,-10.1511,-13.6717,-16.5403,-10.6142,10.7311,-0.467757,-4.86432,4.85436,-6.5717e-14,1.47598e-14,23.6088,0.81905,-34.223,58.6795,10.7442,-39.5595,3.6318,7.12502,-12.5432,-25.9717,-6.5717e-14,1.47598e-14,3.57199,-5.64747,48.0228,60.8035,5.00568,-19.8492,23.4229,7.12502,6.48544,53.3036,-27.8046,5.15223,14.9358,42.4015,-16.3583,-6.16441,5.46859,-10.8004,-4.45349,-21.3948,30.9615,-20.1798,-2.49534,-7.27566
0.465699,17.4294,4.89705,0.611864,-49.9459,4.0933,4.3765,-1.56887,-6.25484,0.0147661,-2.4148,-0.0855849,-2.18663,-1.13974,3.56302,-22.2927,-10.3017,-13.5946,-16.5679,-10.7521,10.8522,-0.387142,-4.92587,4.84905,-4.09993e-14,-1.25234e-14,25.201,-0.512607,-33.1539,58.8277,9.60652,-39.9166,3.37102,7.12502,-12.8874,-26.2111,-4.09993e-14,-1.25234e-14,6.28753,-5.09943,46.5278,61.1498,5.1184,-20.1771,23.5995,7.12502,6.16888,53.4897,-27.7992,5.34726,14.7451,42.6127,-16.4314,-6.13727,5.7538,-10.6715,-3.8293,-21.5149,30.9468,-20.1763,-3.22383,-7.51312
0.497045,17.422,4.90444,0.291359,-50.1059,4.19241,4.44923,-1.51699,-6.3934,0.0417986,-2.35956,-0.160076,-2.20315,-1.11136,3.5626,-22.774,-10.4084,-13.6107,-16.6352,-10.8295,10.8941,-0.339683,-4.95498,4.84429,1.16041e-14,7.15625e-15,27.0132,-1.72983,-31.9049,58.7116,8.35642,-40.3429,3.00514,7.12502,-13.2983,-26.5506,1.16041e-14,7.15625e-15,8.8489,-4.69503,45.0339,61.5385,5.1939,-20.8955,23.1972,7.12502,5.47524,53.1064,-27.6916,5.39171,14.6215,42.7573,-16.5092,-6.10458,5.59641,-10.4968,-3.42101,-21.59,30.9715,-20.1978,-3.87138,-7.5074
0.528087,17.4154,4.91262,0.0387244,-50.1581,4.1417,4.60756,-1.54105,-6.22104,0.0694357,-2.39961,-0.369431,-2.275,-1.13282,3.25684,-23.1983,-10.4366,-13.3912,-16.7436,-10.8652,10.9423,-0.324194,-4.97705,4.81284,-1.60767e-14,1.86858e-14,28.8136,-3.04356,-31.0938,58.4446,7.26934,-40.4914,2.87518,7.12502,-13.4415,-26.6711,-1.60767e-14,1.86858e-14,11.4428,-4.41687,43.162,61.8979,5.31671,-21.5323,23.1069,7.12502,4.86039,53.0312,-27.4635,5.3154,14.6236,42.8312,-16.6285,-6.06747,4.37579,-10.3101,-3.20813,-21.5933,31.0604,-20.1944,-4.35525,-6.58686
0.557728,17.4144,4.92492,0.0779124,-50.2749,3.80907,4.75893,-1.56587,-5.76585,-0.0240244,-2.4262,-0.503979,-2.47822,-1.14382,2.87253,-23.477,-10.4497,-13.3915,-16.7049,-10.8464,10.9917,-0.277402,-4.96095,4.8203,1.17581e-13,-2.66371e-14,30.5069,-4.23678,-30.2651,58.1347,6.40762,-40.6523,2.94234,7.12502,-13.5965,-26.5937,1.17581e-13,-2.66371e-14,13.9,-4.07401,41.4814,62.1649,5.33183,-21.982,23.2845,7.12502,4.42617,53.2182,-27.2376,5.25458,14.7983,42.8336,-17.0164,-5.93376,3.45403,-10.2039,-3.00828,-21.4513,31.2298,-20.2208,-4.51905,-6.08319
0.58584,17.4133,4.93775,0.213368,-50.4377,3.42422,4.85653,-1.57226,-5.42429,-0.134824,-2.42612,-0.515381,-2.66189,-1.1406,2.67592,-23.8531,-10.4908,-13.4983,-16.5271,-10.8279,11.0102,-0.175426,-4.93689,4.82674,2.04003e-14,2.60408e-14,32.4339,-5.53109,-29.5242,57.5162,6.09856,-40.7084,3.07239,7.12502,-13.6506,-26.46,2.04003e-14,2.60408e-14,16.2042,-3.65117,40.0343,62.3736,4.85173,-22.8958,23.6948,7.12502,3.54377,53.6451,-27.051,5.21662,15.0021,42.8119,-17.3922,-5.77168,2.03822,-10.1472,-2.80493,-21.2859,31.4309,-20.3068,-4.54126,-5.87539
0.611884,17.4125,4.94839,0.235769,-50.5325,3.10487,5.04262,-1.6154,-5.24582,-0.200129,-2.48763,-0.523466,-2.83649,-1.16763,2.5801,-24.438,-10.4754,-13.4207,-16.2929,-10.7556,11.0121,-0.0458833,-4.89237,4.79777,7.70788e-14,5.96354e-16,34.6097,-6.8874,-29.1347,56.5882,6.08596,-40.8927,3.33268,7.12502,-13.8282,-26.1877,7.70788e-14,5.96354e-16,18.5107,-3.07654,38.6144,62.4668,4.31343,-23.7223,23.6287,7.12502,2.74554,53.5908,-26.7727,5.09461,15.191,42.7849,-17.7976,-5.522,0.190042,-10.0354,-2.6545,-21.1794,31.6406,-20.3922,-4.46536,-6.25523
0.639527,17.4151,4.96126,0.107874,-50.6216,2.9857,5.24957,-1.65166,-5.14678,-0.28576,-2.54695,-0.552589,-3.04219,-1.19168,2.50839,-24.9507,-10.4533,-13.3296,-16.0731,-10.6907,10.9441,0.0644964,-4.85421,4.74763,-5.33737e-14,2.38542e-14,36.7338,-8.17527,-28.7323,55.5616,6.19604,-41.0035,4.16605,7.12502,-13.935,-25.347,-5.33737e-14,2.38542e-14,20.8605,-2.33733,37.3755,62.5023,4.36306,-24.1297,23.3063,7.12502,2.35211,53.2731,-26.5079,4.82972,15.2117,42.7752,-18.371,-4.93469,0.150008,-9.90809,-2.72635,-21.2536,31.8088,-20.4398,-4.04081,-6.84426
0.666854,17.4159,4.97585,0.0758668,-50.7256,2.84074,5.32418,-1.66826,-4.97872,-0.359298,-2.56672,-0.586483,-3.16742,-1.19989,2.38545,-25.3457,-10.4814,-13.2472,-15.9419,-10.7064,10.8252,0.137191,-4.85924,4.68087,-1.46107e-14,-2.78299e-15,38.725,-9.48315,-28.2639,54.5692,6.32452,-40.9968,4.80738,7.12502,-13.9286,-24.7061,-1.46107e-14,-2.78299e-15,23.2384,-1.49598,36.2766,62.3439,4.12998,-24.9183,23.2044,7.12502,1.59044,53.1782,-26.3529,4.51629,15.2527,42.7743,-18.971,-4.49031,-0.387223,-9.82992,-2.86872,-21.3178,31.9253,-20.4493,-3.68676,-6.88472
0.686874,17.4169,4.99512,0.0929634,-50.9304,2.68207,5.24934,-1.60885,-4.82894,-0.42985,-2.47517,-0.57174,-3.21083,-1.15441,2.30919,-25.5879,-10.6055,-13.4661,-15.8862,-10.7794,10.8832,0.201014,-4.87734,4.71585,-4.49502e-14,2.62396e-14,40.6064,-10.8956,-27.7025,53.6124,6.72209,-41.0815,4.60586,7.12502,-14.0102,-24.902,-4.49502e-14,2.62396e-14,25.5669,-0.759284,35.3487,62.1562,3.42116,-25.1971,22.9711,7.12502,1.32124,52.9468,-26.2348,4.22057,15.3271,42.7943,-19.4312,-4.32393,-2.10198,-9.7129,-2.96467,-21.3727,31.9882,-20.5104,-3.3274,-6.7773
0.701098,17.4185,5.02029,0.291362,-51.2661,2.37284,4.97819,-1.52328,-4.55284,-0.465856,-2.32686,-0.50755,-3.11422,-1.08649,2.20184,-25.9613,-10.7274,-13.6882,-15.7301,-10.8358,10.8147,0.297262,-4.88651,4.70668,7.35503e-14,-7.95139e-16,42.5279,-12.3038,-27.1833,52.6692,7.12453,-41.4409,3.98638,7.12502,-14.3565,-25.4972,7.35503e-14,-7.95139e-16,27.839,-0.014475,34.4548,62.103,2.97812,-25.1551,23.0358,7.12502,1.36176,53.0112,-26.158,3.92692,15.4927,42.8335,-19.9178,-4.1986,-3.34174,-9.59701,-3.05841,-21.3249,32.05,-20.6151,-2.84909,-6.3186
0.719203,17.4186,5.0332,0.371711,-51.5555,2.08605,4.99014,-1.4698,-4.38886,-0.514352,-2.24562,-0.453604,-3.18066,-1.04598,2.16154,-26.254,-10.7952,-13.9387,-15.6125,-10.8157,10.9547,0.385111,-4.85478,4.77924,-2.22018e-14,7.55382e-15,44.5208,-13.5915,-27.1474,51.6061,7.71767,-42.0137,3.50636,7.12502,-14.9084,-25.9372,-2.22018e-14,7.55382e-15,30.0888,0.854801,33.6154,61.8941,2.54318,-25.3695,23.3988,7.12502,1.15469,53.3754,-26.0466,3.71621,15.6686,42.9392,-20.3606,-4.38163,-3.00058,-9.42313,-3.1543,-21.2461,32.0713,-20.6415,-2.48991,-6.08639
0.739891,17.4192,5.03836,0.382716,-51.8052,1.84365,5.23576,-1.40961,-4.38618,-0.617055,-2.17761,-0.354792,-3.42633,-1.00375,2.26716,-26.6028,-10.8439,-14.0992,-15.3809,-10.7882,10.98,0.500245,-4.82389,4.79789,1.27645e-13,3.97569e-16,46.5306,-14.8237,-27.3276,50.4345,8.41471,-42.4293,3.23828,7.12502,-15.3087,-26.1751,1.27645e-13,3.97569e-16,32.264,1.61409,32.7266,61.5361,2.24148,-25.7689,23.373,7.12502,0.768911,53.3514,-25.9405,3.52854,15.8406,43.1303,-20.8057,-4.85597,-2.30181,-9.25071,-3.14578,-21.1577,32.0469,-20.5976,-2.32595,-6.14088
0.757469,17.4177,5.05233,0.241079,-52.0649,1.88138,5.32344,-1.35142,-4.45858,-0.698326,-2.11077,-0.326066,-3.56127,-0.964302,2.33659,-26.8465,-10.9781,-14.373,-15.3214,-10.8519,11.1299,0.574125,-4.83363,4.87088,-9.51185e-14,-3.77691e-15,48.5828,-16.0513,-27.5263,49.1477,8.91383,-42.8014,2.86145,7.12502,-15.6671,-26.5242,-9.51185e-14,-3.77691e-15,34.4768,2.38353,31.6892,61.1239,2.00512,-26.1057,23.6199,7.12502,0.443625,53.5992,-25.9095,3.07501,15.8246,43.4075,-21.2321,-5.22816,-1.97106,-9.07701,-3.24164,-21.2912,31.9825,-20.597,-2.10208,-5.69232
0.771649,17.4169,5.06226,-0.0514233,-52.2525,2.14525,5.36422,-1.31128,-4.68461,-0.798354,-2.07874,-0.349082,-3.68396,-0.939453,2.43987,-27.0134,-11.1395,-14.7389,-15.2557,-10.9296,11.4073,0.658461,-4.84396,4.99785,1.6114e-14,1.98785e-16,50.5469,-17.2152,-27.8109,47.9692,9.15072,-43.1224,2.69833,7.12502,-15.9762,-26.6628,1.6114e-14,1.98785e-16,36.6041,3.32281,31.0455,60.7953,1.30818,-26.1112,23.8392,7.12502,0.438301,53.8185,-25.8906,2.64634,15.667,43.7158,-21.8087,-5.74621,-0.880637,-8.94488,-3.3899,-21.5493,31.9248,-20.5999,-1.87301,-5.56544
0.782062,17.4197,5.06859,-0.191483,-52.4742,2.0911,5.57883,-1.23876,-4.8641,-0.93097,-2.00651,-0.243928,-3.93921,-0.889497,2.65243,-27.0351,-11.1986,-15.004,-15.2539,-10.9264,11.5058,0.678917,-4.8259,5.0693,8.74218e-14,7.15625e-15,52.4771,-18.2394,-28.0768,46.768,9.127,-43.3197,2.56668,7.12502,-16.1662,-26.7792,8.74218e-14,7.15625e-15,38.6449,4.24247,30.6524,60.3863,0.870104,-25.9785,23.7621,7.12502,0.566555,53.741,-25.7516,2.24694,15.7486,44.048,-22.3611,-6.38621,0.00676302,-8.70834,-3.32567,-21.5638,31.8645,-20.5893,-1.76967,-5.74947
0.790619,17.4274,5.0775,0.0218788,-52.7329,1.57633,5.7537,-1.18935,-4.68676,-0.995957,-1.93429,-0.121546,-4.11259,-0.850412,2.68029,-27.2669,-11.219,-14.9873,-15.2027,-10.9295,11.3916,0.708257,-4.8257,5.02297,-7.31093e-14,2.38542e-15,54.4816,-19.282,-28.5404,45.5414,9.13038,-43.4342,1.58549,7.12502,-16.2765,-27.7514,-7.31093e-14,2.38542e-15,40.7532,5.21711,30.1458,59.7834,0.873975,-25.9269,23.3449,7.12502,0.616329,53.3238,-25.5723,1.86229,16.1423,44.3965,-22.6597,-7.11243,0.404279,-8.45792,-3.16086,-21.2761,31.8023,-20.5251,-1.69737,-5.46813
0.79639,17.4301,5.08609,0.123351,-53.0019,1.3209,5.77012,-1.21617,-4.64711,-0.964744,-1.96708,-0.121022,-4.08789,-0.868766,2.66139,-27.9021,-11.2124,-14.7921,-14.9679,-10.8914,11.434,0.842582,-4.80256,4.98775,-6.60338e-14,2.78299e-15,56.6422,-20.3662,-29.4209,44.4507,9.14386,-43.4382,0.454576,7.12502,-16.2803,-28.882,-6.60338e-14,2.78299e-15,42.8753,6.41185,29.4727,59.059,0.536957,-26.2104,22.7297,7.12502,0.342526,52.7092,-25.4675,1.63206,16.3353,44.7855,-22.921,-7.74551,1.32477,-8.29554,-3.05207,-21.179,31.7486,-20.4908,-1.45794,-5.82743
0.799478,17.4333,5.09572,0.0708046,-53.2669,1.31983,5.65241,-1.44161,-4.64442,-0.703468,-2.26992,-0.509476,-3.7414,-1.03726,2.27436,-29.1756,-10.7224,-13.1902,-14.7504,-10.5857,11.2621,0.945335,-4.71013,4.69026,-1.46976e-14,-1.03368e-14,59.2951,-21.6609,-31.6016,43.2935,9.2618,-43.4054,-0.0984181,7.12502,-16.2488,-29.4375,-1.46976e-14,-1.03368e-14,44.9008,7.96173,27.7163,58.5099,0.181693,-26.4095,22.9176,7.12502,0.150235,52.8973,-25.4323,1.27136,16.3551,45.2527,-23.1326,-8.35908,1.55127,-8.12607,-2.89497,-21.2177,31.6434,-20.4914,-1.46656,-5.67347
0.803187,17.4362,5.10662,0.0858975,-53.4567,1.28773,5.68341,-1.35758,-4.74061,-0.92879,-2.17193,-0.464308,-3.99543,-0.975906,2.37204,-28.9178,-10.8639,-13.4957,-14.817,-10.7002,11.4513,0.936453,-4.75064,4.79018,1.00858e-13,7.95139e-16,60.803,-22.4772,-31.7319,42.3356,8.85834,-43.1538,-0.648289,7.12502,-16.0065,-30.007,1.00858e-13,7.95139e-16,46.8608,8.53082,27.3816,57.9254,-0.164042,-26.4792,23.2946,7.12502,0.0829039,53.2743,-25.4488,0.799448,16.3867,45.8081,-23.2701,-8.88165,1.59542,-7.96693,-2.64848,-21.2064,31.4509,-20.4425,-1.68422,-4.89705
0.808215,17.4398,5.11612,-0.165023,-53.6342,1.57309,5.751,-1.36063,-5.0253,-1.04448,-2.20573,-0.48373,-4.14277,-0.98052,2.51836,-29.1701,-10.9195,-13.617,-14.6993,-10.7031,11.6552,1.0229,-4.73419,4.8636,1.78906e-14,8.34896e-15,62.6867,-23.273,-32.3526,41.4048,8.40975,-42.9923,-0.762431,7.12502,-15.8509,-30.1336,1.78906e-14,8.34896e-15,48.7442,9.42634,27.0735,57.2491,-0.405211,-26.469,23.2285,7.12502,0.0928046,53.2083,-25.4784,0.338275,16.2062,46.4215,-23.2901,-9.2562,1.82614,-7.77569,-2.46209,-21.4246,31.187,-20.3466,-1.74733,-4.21994
0.809861,17.4456,5.13027,-0.473387,-53.8167,1.97471,5.67536,-1.37597,-5.28416,-1.08947,-2.24809,-0.608223,-4.1397,-0.996529,2.53596,-29.5509,-10.9464,-13.5843,-14.5694,-10.7013,11.854,1.12048,-4.71966,4.90953,1.18997e-13,4.77083e-15,64.532,-24.0945,-33.1856,40.547,7.86118,-42.7959,-0.772962,7.12502,-15.6618,-30.1591,1.18997e-13,4.77083e-15,50.6847,10.434,26.5713,56.5119,-0.314718,-26.3252,22.5989,7.12502,0.23165,52.5786,-25.5029,-0.117905,15.9025,47.0527,-23.3561,-9.29799,2.85602,-7.59512,-2.34008,-21.7623,30.9341,-20.2863,-1.565,-4.27167
0.805676,17.4524,5.14923,-0.399626,-54.041,1.99567,5.39962,-1.36231,-5.22851,-1.15753,-2.21535,-0.706931,-4.06324,-0.98418,2.39205,-29.9063,-11.0358,-13.5773,-14.3568,-10.7741,12.0146,1.24625,-4.73955,4.93562,2.14687e-14,-1.59028e-15,66.1599,-24.8494,-33.7947,39.6461,7.2543,-42.8101,-0.881341,7.12502,-15.6755,-30.2664,2.14687e-14,-1.59028e-15,52.586,11.3748,25.8516,55.7422,0.129836,-26.3962,22.1577,7.12502,0.163122,52.1374,-25.538,-0.495253,15.8206,47.6874,-23.313,-9.30953,3.06692,-7.47997,-2.11197,-21.8478,30.7195,-20.287,-1.4723,-4.84634
0.80835,17.4549,5.15332,-0.445678,-54.0941,1.97609,5.58226,-1.36032,-5.28541,-1.28193,-2.23227,-0.679071,-4.29211,-0.982239,2.46232,-30.11,-11.1844,-13.8484,-14.2195,-10.8541,12.2081,1.34588,-4.75292,5.01973,-1.55251e-13,-7.55382e-15,67.7455,-25.4904,-34.1805,38.8187,6.81846,-42.7829,-1.43759,7.12502,-15.6493,-30.8247,-1.55251e-13,-7.55382e-15,54.3943,12.2138,25.4425,54.8756,0.287248,-26.625,22.0789,7.12502,-0.057876,52.0586,-25.4417,-0.689929,15.7951,48.2918,-23.2477,-9.48259,3.97241,-7.35603,-1.96013,-21.8241,30.5848,-20.1999,-1.61633,-4.8051
0.817113,17.4535,5.14644,-0.785629,-54.0126,2.08634,6.18886,-1.3768,-5.50183,-1.39505,-2.31364,-0.635026,-4.73846,-1.00091,2.6587,-30.2287,-11.3773,-14.2191,-14.2091,-10.9691,12.5068,1.41432,-4.77942,5.1536,6.69501e-14,-2.62396e-14,69.2494,-26.088,-34.4664,38.033,6.26256,-42.7598,-1.97037,7.12502,-15.627,-31.3592,6.69501e-14,-2.62396e-14,56.2499,12.9882,25.3437,53.9091,0.254326,-26.9098,22.1369,7.12502,-0.332998,52.1164,-25.1884,-0.900128,15.7213,48.8753,-23.1596,-9.65084,4.97234,-7.15372,-1.79982,-21.8388,30.5247,-20.0775,-1.87968,-4.46625
0.819001,17.4576,5.14706,-0.601181,-54.0112,1.56556,6.61772,-1.39263,-5.32849,-1.46658,-2.34229,-0.468966,-5.05366,-1.00632,2.75362,-30.2981,-11.5713,-14.6008,-14.2551,-11.0893,12.685,1.44937,-4.81432,5.25274,6.14742e-14,3.97569e-15,70.7597,-26.6405,-34.713,37.225,5.72337,-42.6625,-1.9502,7.12502,-15.5333,-31.3463,6.14742e-14,3.97569e-15,57.8844,13.7829,25.2678,53.2349,0.518503,-26.7237,22.609,7.12502,-0.153245,52.5887,-24.8588,-1.15375,16.0336,49.4322,-23.001,-9.68593,4.93156,-6.89947,-1.68589,-21.489,30.4971,-20.2144,-1.82841,-5.52536
0.817131,17.4638,5.15246,-0.354976,-54.0829,1.19982,6.76109,-1.39931,-5.19201,-1.5554,-2.34393,-0.331441,-5.2274,-1.00204,2.82757,-30.3996,-11.7599,-15.0734,-14.221,-11.1691,12.8794,1.51373,-4.82274,5.37337,2.2298e-14,2.26615e-14,72.1651,-27.1843,-34.8159,36.4587,5.39927,-42.5791,-1.99742,7.12502,-15.453,-31.3997,2.2298e-14,2.26615e-14,59.2745,14.6111,25.2215,52.8509,0.723292,-26.2739,23.1031,7.12502,0.281205,53.0827,-24.6962,-1.39862,16.2187,49.9883,-22.8146,-9.59024,4.84932,-6.78364,-1.58857,-21.2595,30.4434,-20.4068,-1.57837,-7.01552
0.816666,17.4661,5.15797,-0.370062,-54.1517,1.19437,6.85909,-1.39765,-5.20402,-1.62593,-2.34953,-0.296732,-5.35505,-0.99874,2.87602,-30.5906,-11.9172,-15.4137,-14.1603,-11.2371,13.045,1.58712,-4.82949,5.46347,2.68266e-14,-7.55382e-15,73.4729,-27.7715,-34.9007,35.77,5.28317,-42.4966,-2.55157,7.12502,-15.3735,-31.96,2.68266e-14,-7.55382e-15,60.855,15.4625,25.2902,52.282,0.533792,-25.9204,23.1516,7.12502,0.622655,53.1305,-24.5777,-1.67598,16.1629,50.5414,-22.5783,-9.46007,4.77435,-6.68797,-1.58095,-21.2771,30.3396,-20.4479,-1.3991,-7.54863
0.816791,17.4702,5.16457,-0.417621,-54.2139,1.22551,6.97403,-1.35424,-5.19642,-1.69303,-2.30169,-0.314823,-5.49637,-0.97031,2.85317,-30.7126,-12.0861,-15.6207,-14.219,-11.3682,13.2254,1.62039,-4.87479,5.5337,6.02896e-15,9.93923e-15,74.6095,-28.4098,-34.9863,35.1528,5.31967,-42.2356,-2.94069,7.12502,-15.1221,-32.3682,6.02896e-15,9.93923e-15,62.6669,16.1784,25.4337,51.4982,0.107805,-26.0599,22.8991,7.12502,0.487916,52.8783,-24.4525,-1.92756,16.0566,51.0932,-22.4154,-9.25899,4.84042,-6.55434,-1.6329,-21.3335,30.1735,-20.3793,-1.29493,-7.41918
0.811793,17.4762,5.17734,-0.352243,-54.4251,1.20386,6.95163,-1.26272,-5.15524,-1.81202,-2.17785,-0.296888,-5.62043,-0.904588,2.83683,-30.8531,-12.2036,-15.7308,-14.1624,-11.4613,13.2133,1.66478,-4.91021,5.52857,-1.57102e-13,-2.38542e-14,75.4567,-28.9848,-34.6983,34.6725,5.40045,-42.0301,-3.12973,7.12502,-14.9242,-32.5721,-1.57102e-13,-2.38542e-14,64.3195,16.8142,25.5696,50.7478,-0.1494,-26.3843,22.1885,7.12502,0.174548,52.1681,-24.3478,-1.92094,15.9518,51.6358,-22.4345,-8.98351,5.4419,-6.42052,-1.64134,-21.3861,29.9869,-20.399,-1.03933,-7.64699
0.805044,17.4789,5.19016,-0.418249,-54.6786,1.31898,6.94303,-1.20394,-5.30917,-1.9541,-2.10999,-0.156366,-5.76153,-0.856283,3.06498,-30.8751,-12.2874,-16.0898,-14.1778,-11.4511,13.2292,1.67366,-4.88843,5.59052,-7.77621e-14,1.98785e-15,76.4788,-29.3485,-34.3854,34.2266,5.74616,-41.8557,-3.34178,7.12502,-14.7562,-32.7965,-7.77621e-14,1.98785e-15,65.5379,17.5427,25.7484,50.1827,-0.0043735,-26.9966,20.5683,7.12502,-0.416815,50.5476,-24.1984,-1.85516,15.7644,52.1482,-22.3338,-8.88994,5.13147,-6.25919,-1.54961,-21.5176,29.818,-20.4311,-0.780701,-8.09692
0.801943,17.4796,5.19062,-0.639309,-54.7443,1.37676,7.2675,-1.18929,-5.53665,-2.02808,-2.12524,0.00903297,-6.01091,-0.842692,3.38001,-30.8323,-12.3708,-16.5046,-14.2366,-11.4326,13.3027,1.66908,-4.86048,5.68348,5.85048e-14,-2.18663e-15,77.6453,-29.7038,-34.2405,33.6989,6.28802,-41.6994,-3.29136,7.12502,-14.6055,-32.7571,5.85048e-14,-2.18663e-15,66.7072,18.2702,26.0107,49.7287,0.0141799,-27.4525,19.5245,7.12502,-0.857173,49.5025,-23.8342,-1.84158,15.663,52.6273,-22.3024,-8.96333,4.93921,-5.9884,-1.48372,-21.5545,29.6762,-20.3646,-0.763643,-8.10804
0.798349,17.4829,5.19049,-0.585199,-54.7694,1.22048,7.49773,-1.18247,-5.49148,-2.11007,-2.12478,0.0825636,-6.22836,-0.833815,3.44132,-30.872,-12.4472,-16.7951,-14.2042,-11.4306,13.3667,1.69858,-4.84243,5.7472,-5.47776e-14,-8.54774e-15,78.6909,-30.1274,-34.3431,33.2499,7.34744,-41.3766,-3.47177,7.12502,-14.2946,-32.9597,-5.47776e-14,-8.54774e-15,68.0934,18.9133,26.3064,49.3178,-0.0370211,-27.2555,19.7701,7.12502,-0.666852,49.7488,-23.5798,-1.91073,15.7015,53.0651,-22.221,-9.05854,4.54622,-5.87313,-1.21527,-21.4079,29.5711,-20.324,-0.979537,-8.50235
0.791104,17.4874,5.1948,-0.504539,-54.8215,1.14069,7.5492,-1.18363,-5.338,-2.19969,-2.11976,0.046434,-6.35948,-0.832248,3.32007,-30.9504,-12.5331,-17.0362,-14.1135,-11.4496,13.4816,1.75693,-4.83303,5.81395,1.74589e-14,2.98177e-15,79.5839,-30.6081,-34.4569,32.8526,8.46956,-41.0825,-3.78798,7.12502,-14.0111,-33.2958,1.74589e-14,2.98177e-15,69.5076,19.5026,26.62,48.9086,-0.0698423,-27.1258,19.5607,7.12502,-0.541623,49.5398,-23.369,-2.04456,15.6597,53.4545,-22.143,-8.98289,4.63907,-5.83651,-0.99319,-21.3323,29.497,-20.2972,-1.13472,-8.58889
0.782479,17.4902,5.19654,-0.452624,-54.9286,1.06666,7.70034,-1.15822,-5.31609,-2.33274,-2.0947,0.09343,-6.58919,-0.809952,3.36191,-30.9308,-12.5998,-17.3302,-14.0877,-11.4425,13.5476,1.77827,-4.81368,5.88105,4.16889e-14,-1.70955e-14,80.2888,-31.0273,-34.211,32.5298,9.32471,-41.0641,-3.56569,7.12502,-13.9934,-33.0747,4.16889e-14,-1.70955e-14,70.7735,20.0301,27.0571,48.5127,-0.377454,-27.055,19.1061,7.12502,-0.473241,49.0853,-23.1091,-2.0029,15.6313,53.786,-22.1231,-8.98292,5.66875,-5.76682,-0.867819,-21.2671,29.4335,-20.2767,-1.16769,-8.51238
0.769328,17.4937,5.20235,-0.185121,-55.0691,0.890707,7.58733,-1.11498,-5.26015,-2.43614,-2.02057,0.204603,-6.63922,-0.769892,3.43656,-31.1717,-12.6991,-17.4875,-13.8641,-11.4792,13.3981,1.86551,-4.82194,5.83927,-4.99198e-14,-2.06736e-14,80.8178,-31.5129,-33.6554,32.3156,9.91693,-41.0308,-3.27889,7.12502,-13.9613,-32.7901,-4.99198e-14,-2.06736e-14,72.0847,20.5567,27.6807,48.1344,-0.62287,-27.2945,19.0636,7.12502,-0.704527,49.0422,-22.9451,-1.9453,15.6588,54.0716,-22.1107,-8.94584,6.90139,-5.7911,-0.799707,-21.1514,29.376,-20.2784,-1.07966,-8.20273
0.7534,17.4982,5.21531,0.221151,-55.1866,0.606462,7.30634,-1.11839,-5.02741,-2.52746,-1.98064,0.319226,-6.58115,-0.75776,3.41399,-31.3384,-12.7738,-17.6286,-13.6977,-11.5016,13.2925,1.92984,-4.82573,5.81457,2.26118e-14,-1.03368e-14,81.4134,-31.928,-33.1751,32.0756,10.6916,-41.0024,-3.24534,7.12502,-13.934,-32.7585,2.26118e-14,-1.03368e-14,73.3381,21.0619,28.275,47.6426,-0.837893,-27.5579,19.3968,7.12502,-0.958901,49.3744,-22.7943,-2.09801,15.7557,54.339,-21.8018,-9.11768,6.11216,-5.82703,-0.751994,-20.9943,29.3062,-20.3039,-0.997704,-8.04951
0.743342,17.4983,5.21975,0.204458,-55.2329,0.610001,7.42022,-1.13843,-5.02978,-2.63811,-2.0119,0.408872,-6.75851,-0.763429,3.51972,-31.2403,-12.8256,-17.8696,-13.7712,-11.507,13.3489,1.91051,-4.8195,5.87303,-4.98825e-15,-1.09332e-14,82.0442,-32.2487,-32.8152,31.8865,11.6233,-41.175,-3.52576,7.12502,-14.1003,-33.0274,-4.98825e-15,-1.09332e-14,74.436,21.5392,28.771,47.1488,-1.11983,-27.7038,19.845,7.12502,-1.09988,49.8219,-22.4736,-2.18722,15.6978,54.6041,-21.6901,-9.2556,5.45054,-5.72,-0.731625,-20.9949,29.2327,-20.2837,-0.964156,-8.15554
0.738358,17.4949,5.21219,-0.272959,-55.2362,1.11835,7.76102,-1.12552,-5.42629,-2.78063,-2.05989,0.427811,-7.09134,-0.7554,3.78386,-31.0978,-12.8907,-18.1891,-13.7983,-11.5103,13.4753,1.9115,-4.80629,5.96585,6.60835e-14,-2.98177e-15,82.515,-32.5889,-32.4326,31.8047,12.5841,-41.3963,-3.98197,7.12502,-14.3135,-33.4686,6.60835e-14,-2.98177e-15,75.503,21.947,29.2805,46.7336,-1.43817,-27.7192,20.1333,7.12502,-1.11471,50.1101,-22.1752,-2.07373,15.3259,54.849,-21.773,-9.31853,5.17719,-5.64012,-0.689908,-21.2706,29.1848,-20.2188,-0.986704,-8.16824
0.726926,17.4926,5.20643,-0.510411,-55.3634,1.44254,7.854,-1.07369,-5.6556,-2.88171,-2.02515,0.425979,-7.25134,-0.720485,3.91199,-31.0858,-13.0596,-18.6333,-13.7088,-11.5829,13.7449,1.99037,-4.8117,6.1072,-1.03113e-13,-1.48095e-14,83.0992,-32.9482,-32.3842,31.7627,13.4158,-41.4369,-3.85503,7.12502,-14.3526,-33.3389,-1.03113e-13,-1.48095e-14,76.6919,22.3118,29.8712,46.2605,-1.62211,-28.0778,20.0037,7.12502,-1.46107,49.9784,-21.9369,-1.8721,15.0949,55.0371,-21.745,-9.46499,4.65966,-5.63225,-0.606145,-21.4415,29.1671,-20.1606,-0.862105,-8.02472
0.70605,17.4955,5.2101,-0.105861,-55.5422,0.965626,7.76161,-1.06571,-5.40009,-2.92307,-1.97246,0.567309,-7.24966,-0.702165,3.90854,-31.12,-13.2018,-19.0358,-13.6497,-11.6289,13.9416,2.05152,-4.8087,6.22291,6.25333e-14,1.53064e-14,83.9321,-33.1954,-32.6326,31.7345,14.1536,-41.3991,-3.47829,7.12502,-14.3162,-32.9647,6.25333e-14,1.53064e-14,77.6848,22.73,30.3475,45.9555,-1.7086,-28.5673,19.9462,7.12502,-1.93381,49.9172,-21.5703,-1.73927,15.3842,55.132,-21.7165,-9.49505,3.78189,-5.54834,-0.539345,-21.1299,29.1755,-20.2056,-0.744183,-7.42707
0.687864,17.4958,5.21435,0.0845784,-55.59,0.768045,7.73526,-1.07743,-5.27433,-2.97956,-1.96856,0.658178,-7.29564,-0.701198,3.93377,-31.2153,-13.3271,-19.189,-13.6067,-11.7229,13.8424,2.0792,-4.84992,6.19554,2.55252e-14,1.04362e-14,84.7843,-33.445,-32.9566,31.6602,14.8833,-41.351,-3.343,7.12502,-14.2699,-32.8327,2.55252e-14,1.04362e-14,78.5602,23.1757,30.65,45.8588,-1.74751,-28.7627,20.1772,7.12502,-2.12253,50.1464,-21.1835,-1.64223,15.4673,55.1697,-21.9253,-9.31756,3.88027,-5.52705,-0.478186,-20.9838,29.2121,-20.2559,-0.753388,-7.30376
0.677039,17.4937,5.20616,-0.163372,-55.6057,1.10358,7.95955,-1.06097,-5.49206,-3.12313,-1.9892,0.652732,-7.57268,-0.688684,4.06469,-31.1814,-13.4713,-19.3982,-13.5985,-11.8446,13.793,2.09431,-4.90344,6.19183,1.64898e-14,1.76918e-14,85.5143,-33.6436,-33.2774,31.5869,15.492,-41.6017,-3.30914,7.12502,-14.5115,-32.7816,1.64898e-14,1.76918e-14,79.2543,23.5265,30.8065,45.9159,-1.56244,-28.8343,20.5794,7.12502,-2.19164,50.5479,-20.8839,-1.49122,15.2423,55.1729,-21.9171,-9.44779,4.35388,-5.6029,-0.269525,-21.1265,29.2529,-20.2312,-0.79976,-8.07916
0.661317,17.4944,5.19789,-0.294794,-55.6741,1.30228,8.04114,-1.06812,-5.60875,-3.24823,-2.02111,0.659232,-7.74849,-0.689735,4.14762,-31.1023,-13.4998,-19.5309,-13.5066,-11.853,13.697,2.11021,-4.90814,6.1775,1.77291e-14,4.96962e-15,86.1108,-33.7931,-33.4127,31.6169,15.3733,-41.9798,-3.26048,7.12502,-14.8757,-32.7064,1.77291e-14,4.96962e-15,80.0155,23.8162,31.1465,45.7822,-1.39844,-28.8934,20.6536,7.12502,-2.24873,50.6215,-20.5392,-1.29217,15.1178,55.1165,-21.7506,-9.4829,5.00329,-5.63811,-0.15832,-21.1981,29.2996,-20.2908,-0.697245,-8.99934
0.639503,17.4927,5.20105,-0.200273,-55.8386,1.36242,7.85189,-1.0825,-5.57641,-3.38591,-2.02683,0.708311,-7.78583,-0.689205,4.17882,-31.0674,-13.4686,-19.6974,-13.3104,-11.7658,13.5859,2.15085,-4.86443,6.17438,6.11946e-14,2.78299e-15,86.7732,-33.8547,-33.6001,31.6525,15.0909,-42.4229,-3.11849,7.12502,-15.3025,-32.5324,6.11946e-14,2.78299e-15,80.7331,24.1061,31.5573,45.4597,-1.52232,-28.9658,20.4596,7.12502,-2.31869,50.4267,-20.2716,-1.1597,15.0644,55.002,-21.5041,-9.46714,4.65267,-5.6901,-0.263355,-21.2423,29.3442,-20.3955,-0.400658,-9.14007
0.61853,17.4859,5.20546,0.0343106,-56.0717,1.19048,7.69273,-1.02968,-5.36991,-3.4558,-1.92472,0.730258,-7.78438,-0.648246,4.06779,-31.1459,-13.5157,-19.7372,-13.1758,-11.7967,13.4753,2.19414,-4.88005,6.13316,-1.5722e-13,-2.23136e-14,87.4994,-34.0379,-34.1126,31.6317,15.3424,-42.5651,-3.06618,7.12502,-15.4395,-32.4695,-1.5722e-13,-2.23136e-14,81.605,24.3623,31.9683,45.1251,-1.71709,-29.2397,20.2361,7.12502,-2.58323,50.2002,-19.9452,-1.05653,15.1956,54.8023,-21.1252,-9.66508,3.25145,-5.67592,-0.412042,-21.1684,29.3859,-20.5355,0.0994745,-9.81086
0.600404,17.4799,5.19652,-0.0508379,-56.189,1.34055,7.7515,-0.991866,-5.44799,-3.55053,-1.89248,0.694896,-7.92403,-0.62296,4.07401,-31.1262,-13.5568,-19.7578,-13.0944,-11.845,13.4765,2.2255,-4.90282,6.12641,-3.72411e-14,-1.26228e-14,88.1162,-34.2301,-34.5713,31.6568,15.0444,-42.6142,-3.01909,7.12502,-15.4868,-32.4188,-3.72411e-14,-1.26228e-14,82.4187,24.5678,32.3117,44.9197,-1.807,-29.4511,20.3693,7.12502,-2.78739,50.3308,-19.5614,-0.934757,15.1254,54.5725,-20.9892,-9.45839,4.01534,-5.67575,-0.449089,-21.2134,29.4045,-20.5444,0.279916,-9.96
0.582097,17.4785,5.18685,-0.180751,-56.36,1.62471,7.73689,-0.956363,-5.66227,-3.671,-1.8717,0.710033,-8.04342,-0.594727,4.21045,-31.0478,-13.5772,-19.9722,-12.9969,-11.8164,13.6385,2.27005,-4.87565,6.21463,1.85538e-14,-8.57259e-15,88.5666,-34.4179,-34.6365,31.8717,13.8591,-42.5171,-3.29094,7.12502,-15.3932,-32.6979,1.85538e-14,-8.57259e-15,83.1223,24.8044,32.776,44.7381,-2.01571,-29.5261,20.4089,7.12502,-2.85975,50.3695,-19.2633,-0.630712,14.9434,54.3072,-20.8337,-8.96386,6.0656,-5.77103,-0.223201,-21.3032,29.4517,-20.5098,0.0913407,-9.53199
0.562589,17.4783,5.18442,-0.17082,-56.622,1.922,7.52296,-0.919754,-5.7898,-3.82464,-1.8279,0.73717,-8.08707,-0.561672,4.30165,-31.1846,-13.6471,-20.3238,-12.6855,-11.7651,13.8969,2.41548,-4.82214,6.34821,6.8927e-14,5.889e-15,89.2674,-34.4688,-34.998,32.0083,13.135,-42.6462,-3.59594,7.12502,-15.5177,-32.9933,6.8927e-14,5.889e-15,83.6974,25.0738,33.1996,44.5229,-2.32432,-29.3604,20.7513,7.12502,-2.69978,50.714,-19.1364,-0.29718,14.7582,53.9669,-20.4859,-8.59015,6.07727,-6.02471,0.162819,-21.4062,29.5371,-20.4246,-0.262818,-8.54289
0.538332,17.4738,5.17824,0.0528531,-56.7997,1.86032,7.38901,-0.918266,-5.69212,-3.96848,-1.81331,0.73196,-8.16888,-0.554831,4.23772,-31.3191,-13.7093,-20.5438,-12.3649,-11.7475,14.128,2.56178,-4.7908,6.44796,2.02822e-15,1.25607e-14,90.0027,-34.407,-35.6797,32.0607,12.9579,-42.9697,-4.15563,7.12502,-15.8292,-33.5285,2.02822e-15,1.25607e-14,84.2081,25.2985,33.2821,44.2749,-2.40097,-29.2561,21.106,7.12502,-2.59901,51.0699,-18.8399,-0.0449863,14.8506,53.5313,-20.413,-8.29695,4.02546,-6.19732,0.420539,-21.2765,29.6658,-20.4703,-0.441426,-8.11014
0.509521,17.4613,5.17237,0.264321,-57.0239,1.65289,7.29886,-0.868845,-5.56044,-4.06435,-1.73144,0.728523,-8.23233,-0.518554,4.14778,-31.3555,-13.6894,-20.4675,-12.1193,-11.738,14.0293,2.63018,-4.79164,6.39692,-9.41276e-15,-1.95057e-14,90.4079,-34.4595,-36.0212,32.1186,12.5039,-43.1634,-4.14379,7.12502,-16.0157,-33.5018,-9.41276e-15,-1.95057e-14,84.7193,25.4532,33.3528,44.0751,-2.46503,-29.4304,21.161,7.12502,-2.76736,51.1228,-18.3648,0.074574,15.0845,52.967,-20.6612,-7.9453,-0.184327,-6.21366,0.665818,-21.062,29.8328,-20.6269,-0.461923,-8.26723
0.482108,17.4487,5.16707,0.302862,-57.3758,1.74093,7.11733,-0.789125,-5.59559,-4.17432,-1.62273,0.721636,-8.25768,-0.46135,4.14226,-31.3089,-13.6214,-20.2682,-12.0327,-11.7224,13.6998,2.60896,-4.80794,6.2586,-8.77075e-14,-1.61016e-14,90.6934,-34.5193,-36.1175,32.239,11.9069,-43.292,-4.01086,7.12502,-16.1396,-33.3589,-8.77075e-14,-1.61016e-14,85.1188,25.642,33.425,43.8858,-2.59134,-29.6818,21.13,7.12502,-3.01018,51.0885,-18.0059,0.252973,15.1407,52.3345,-21.2336,-7.38112,-4.02757,-6.29878,0.908683,-21.046,30.0133,-20.8343,-0.303262,-8.68577
0.450102,17.443,5.16412,0.586263,-57.6754,1.59418,6.79843,-0.766096,-5.44471,-4.25938,-1.56001,0.729287,-8.17257,-0.441115,4.0492,-31.3325,-13.6152,-20.3675,-11.8645,-11.6784,13.7341,2.66629,-4.78104,6.28648,7.48611e-14,1.34925e-14,91.1341,-34.5258,-36.4257,32.3081,11.6748,-43.5465,-4.52597,7.12502,-16.3846,-33.8539,7.48611e-14,1.34925e-14,85.4387,25.9017,33.4064,43.7247,-2.90703,-29.7332,21.3738,7.12502,-3.05975,51.3316,-17.5986,0.518361,15.2829,51.627,-22.086,-6.56204,-3.0149,-6.408,0.948606,-20.9123,30.1913,-21.0299,-0.0399244,-9.16981
0.415594,17.4377,5.16201,0.796078,-57.9053,1.49295,6.47903,-0.728436,-5.30797,-4.29472,-1.4819,0.686399,-8.03548,-0.416597,3.90794,-31.5782,-13.6497,-20.4626,-11.5393,-11.644,13.8814,2.80959,-4.74646,6.34113,1.07157e-14,1.42628e-14,91.5118,-34.6656,-36.7586,32.3321,11.5254,-43.7093,-4.68788,7.12502,-16.5414,-34.0028,1.07157e-14,1.42628e-14,85.9839,26.1222,33.5201,43.4137,-3.28683,-29.8103,21.3951,7.12502,-3.13422,51.3519,-17.184,0.689649,15.413,50.8711,-22.8423,-6.23945,0.0223238,-6.47021,0.838844,-20.8156,30.3623,-21.2081,0.236113,-9.49734
0.386283,17.4301,5.14672,0.679506,-58.1379,1.70264,6.41945,-0.632245,-5.49314,-4.34196,-1.37584,0.61286,-8.0628,-0.355299,3.9199,-31.7115,-13.6452,-20.3273,-11.4143,-11.6547,13.8066,2.85229,-4.75526,6.28809,3.44643e-14,3.18055e-15,91.8401,-34.8396,-37.0571,32.2651,11.5011,-43.8607,-4.41714,7.12502,-16.6871,-33.7199,3.44643e-14,3.18055e-15,86.5374,26.2863,33.6597,43.1685,-3.56763,-29.938,21.5391,7.12502,-3.25762,51.4939,-16.8756,0.760621,15.4879,50.0935,-23.3013,-6.67996,-0.259779,-6.53417,0.949277,-20.8301,30.5228,-21.3269,0.331983,-9.88637
0.358943,17.4196,5.1287,0.591154,-58.4407,1.89156,6.37774,-0.545003,-5.64571,-4.41661,-1.28066,0.541245,-8.12995,-0.299282,3.91778,-31.7386,-13.6072,-20.1403,-11.3425,-11.6605,13.6166,2.8526,-4.77282,6.19333,2.62209e-14,5.41688e-15,92.1824,-34.8787,-37.428,32.1954,11.6618,-44.0706,-4.33609,7.12502,-16.8892,-33.6217,2.62209e-14,5.41688e-15,86.848,26.5176,33.4982,42.9825,-3.71686,-30.2782,21.2035,7.12502,-3.58615,51.153,-16.6096,0.726067,15.5841,49.3332,-23.5193,-7.05826,-3.04082,-6.60231,1.12589,-20.8461,30.672,-21.458,0.529766,-10.6062
0.328133,17.4136,5.11849,0.548234,-58.7944,2.12011,6.08694,-0.48747,-5.66209,-4.46921,-1.19874,0.425058,-8.02788,-0.265371,3.78718,-31.7909,-13.5226,-19.9677,-11.2758,-11.6001,13.4964,2.85325,-4.75402,6.13478,-6.60151e-14,-4.47266e-15,92.5496,-34.8699,-37.863,32.1796,11.8692,-44.3354,-4.59417,7.12502,-17.144,-33.8578,-6.60151e-14,-4.47266e-15,87.0929,26.807,33.2853,42.7953,-3.95109,-30.6859,20.8348,7.12502,-3.97986,50.7774,-16.3123,0.79699,15.5616,48.6348,-24.0353,-6.74424,-3.61827,-6.70039,1.25231,-20.9244,30.8201,-21.5885,0.859758,-11.0471
0.296768,17.4128,5.1099,0.541788,-59.0944,2.24852,5.83627,-0.421423,-5.59531,-4.49064,-1.09884,0.300506,-7.91774,-0.228126,3.6,-31.9758,-13.4999,-19.8831,-11.1355,-11.5657,13.5597,2.91668,-4.73136,6.14154,-5.95236e-14,5.76476e-15,92.5944,-35.0739,-37.9581,32.2689,11.8204,-44.5391,-4.70083,7.12502,-17.3401,-33.9473,-5.95236e-14,5.76476e-15,87.4205,27.0583,33.1905,42.6406,-4.24377,-30.7054,20.7615,7.12502,-3.99867,50.7038,-15.895,1.05101,15.5528,47.9793,-24.9552,-5.81723,0.429818,-6.74524,1.25373,-20.9355,30.9651,-21.696,1.12383,-10.9661
0.26497,17.4088,5.0998,0.717623,-59.2697,2.11767,5.70104,-0.366801,-5.52187,-4.53953,-1.01519,0.267943,-7.90126,-0.192399,3.51197,-32.1124,-13.5358,-19.9429,-10.9369,-11.5669,13.7044,3.01217,-4.71748,6.1904,1.77415e-14,3.47873e-15,92.7603,-35.2038,-38.1835,32.2514,12.1118,-44.5956,-4.82833,7.12502,-17.3945,-34.07,1.77415e-14,3.47873e-15,87.6745,27.2704,33.0808,42.4919,-4.40166,-30.6838,20.7761,7.12502,-3.97784,50.7187,-15.5412,0.86167,15.7621,47.3552,-25.3805,-5.62403,1.93267,-6.74448,1.08408,-20.7939,31.0594,-21.7221,1.43057,-11.2471
0.229194,17.4064,5.08827,0.990916,-59.4284,1.92712,5.50761,-0.361724,-5.48067,-4.62649,-0.995965,0.282387,-7.88432,-0.184491,3.49929,-32.2111,-13.462,-19.8102,-10.7629,-11.4969,13.565,3.04988,-4.69192,6.12922,2.4376e-14,1.30204e-14,92.9778,-35.1707,-38.4293,32.2025,12.3714,-44.7274,-4.9838,7.12502,-17.5213,-34.2142,2.4376e-14,1.30204e-14,87.7606,27.5042,32.9115,42.3499,-4.60104,-30.764,20.7126,7.12502,-4.05521,50.6538,-15.2929,0.41782,16.0557,46.7345,-25.5391,-5.94825,0.809115,-6.79754,1.03522,-20.6046,31.149,-21.7269,1.63647,-11.9045
0.194016,17.4075,5.07582,1.07499,-59.6505,1.89836,5.27463,-0.364998,-5.44674,-4.62762,-0.986596,0.240386,-7.75101,-0.187741,3.43045,-32.3323,-13.3193,-19.5909,-10.7176,-11.3663,13.3992,3.03495,-4.6416,6.05975,1.75676e-14,2.04748e-14,93.1203,-35.2219,-38.5687,32.2785,12.3319,-44.874,-4.90003,7.12502,-17.6624,-34.1178,1.75676e-14,2.04748e-14,87.9216,27.8372,32.6917,42.0545,-4.85832,-30.7786,20.6922,7.12502,-4.06937,50.6331,-14.9682,0.372344,16.2322,46.1198,-25.9753,-5.90943,1.23883,-6.80177,1.05976,-20.4871,31.2832,-21.8383,1.70642,-12.1314
0.161983,17.4032,5.06088,1.22168,-59.8624,1.80263,5.09104,-0.316549,-5.34333,-4.63167,-0.909395,0.137859,-7.65759,-0.162077,3.25192,-32.5999,-13.2469,-19.3051,-10.4975,-11.3201,13.2696,3.10444,-4.62687,5.97096,-4.52111e-14,-1.07344e-14,92.9126,-35.4698,-38.4198,32.4487,12.0724,-44.8846,-4.85465,7.12502,-17.6726,-34.0715,-4.52111e-14,-1.07344e-14,88.2076,28.0739,32.5183,41.8524,-5.04067,-30.6375,20.8185,7.12502,-3.93306,50.762,-14.6982,0.231204,16.4735,45.5299,-26.3315,-6.04053,0.739267,-6.81747,0.849778,-20.3593,31.4372,-21.9919,2.07462,-12.3599
0.130485,17.3946,5.04436,1.31871,-60.0755,1.76659,4.91969,-0.267855,-5.2841,-4.64328,-0.837341,0.03131,-7.57854,-0.135975,3.09546,-32.8497,-13.1896,-19.0509,-10.2902,-11.2895,13.2333,3.18122,-4.61407,5.91619,3.99184e-14,1.11319e-14,92.8221,-35.6533,-38.4801,32.5537,12.0144,-44.979,-4.7065,7.12502,-17.7635,-33.9152,3.99184e-14,1.11319e-14,88.3873,28.3143,32.3455,41.7782,-5.33411,-30.358,20.9111,7.12502,-3.66319,50.8593,-14.5009,-0.266979,16.7125,44.9866,-26.3349,-6.59903,-1.39098,-6.80929,0.329,-20.3353,31.5648,-22.0326,2.89998,-13.3445
0.0970713,17.391,5.02644,1.33374,-60.2964,1.82018,4.75497,-0.244324,-5.32671,-4.65386,-0.805316,-0.0377786,-7.49764,-0.122769,3.04071,-33.0781,-13.1023,-18.816,-10.1572,-11.2177,13.0968,3.21615,-4.58772,5.84031,-6.31887e-14,-5.76476e-15,92.857,-35.7135,-38.6145,32.6303,12.0109,-45.1162,-4.59663,7.12502,-17.8955,-33.7933,-6.31887e-14,-5.76476e-15,88.459,28.6387,32.0709,41.5929,-5.50329,-30.3859,20.9333,7.12502,-3.69012,50.8811,-14.2904,-0.550735,16.8545,44.4878,-26.5317,-6.82743,-1.78118,-6.80364,-0.0142365,-20.3378,31.673,-22.037,3.45526,-13.5055
0.0639621,17.3945,5.00814,1.51023,-60.4636,1.70674,4.59928,-0.250687,-5.27562,-4.66962,-0.804056,-0.0766505,-7.42451,-0.128386,2.96892,-33.1982,-12.9926,-18.6222,-10.1398,-11.1238,12.9689,3.20257,-4.55257,5.78192,-3.05134e-14,-1.39149e-15,92.8896,-35.7588,-38.7457,32.7893,11.8849,-45.0898,-4.49852,7.12502,-17.8701,-33.6975,-3.05134e-14,-1.39149e-15,88.5543,28.9861,31.8125,41.3348,-5.67071,-30.4956,20.9834,7.12502,-3.79608,50.9293,-14.0482,-0.341198,17.0429,44.0264,-27.1031,-6.36099,0.995315,-6.84809,0.00856204,-20.1735,31.7554,-21.9989,3.59055,-13.5758
0.0318891,17.3997,4.99219,1.79569,-60.6146,1.41282,4.47195,-0.263614,-5.09678,-4.67923,-0.801081,-0.0920474,-7.36139,-0.138865,2.85038,-33.2192,-12.8653,-18.3997,-10.2525,-11.0387,12.9319,3.14752,-4.52061,5.75289,4.25151e-14,-1.19271e-15,92.8969,-35.8106,-38.8446,32.9885,11.741,-44.9869,-4.89611,7.12502,-17.771,-34.1041,4.25151e-14,-1.19271e-15,88.5732,29.3101,31.5486,41.1133,-5.99406,-30.5271,20.7793,7.12502,-3.82649,50.7247,-13.7363,-0.0985985,17.2872,43.5948,-27.673,-5.50938,4.77753,-6.81591,-0.10137,-19.9397,31.8203,-21.9439,3.81904,-13.5902
0.000854427,17.4071,4.97779,1.84425,-60.7928,1.36198,4.32702,-0.253938,-4.95012,-4.62619,-0.772905,-0.193728,-7.22383,-0.140543,2.65593,-33.4457,-12.7937,-18.1868,-10.262,-10.9889,13.0094,3.16223,-4.49315,5.75189,4.68138e-14,1.55052e-14,92.7773,-36.0088,-38.8463,33.2056,11.5773,-45.1022,-5.36362,7.12502,-17.882,-34.5615,4.68138e-14,1.55052e-14,88.6019,29.6629,31.3165,41.0634,-6.25809,-30.3047,20.7998,7.12502,-3.61167,50.7489,-13.4534,-0.0573599,17.3837,43.1782,-27.9645,-4.93903,7.09891,-6.74035,-0.385947,-19.8962,31.9038,-21.9535,4.34543,-14.2011
-0.0321366,17.4079,4.95821,1.99789,-61.0276,1.19214,4.16793,-0.240712,-4.86617,-4.55396,-0.739469,-0.238361,-7.05719,-0.135134,2.55621,-33.6463,-12.711,-17.9698,-10.3237,-10.9304,12.992,3.14619,-4.4686,5.72184,-4.25399e-14,-1.27222e-14,92.7889,-36.1351,-38.9683,33.3724,11.3842,-45.2532,-5.57199,7.12502,-18.0273,-34.7565,-4.25399e-14,-1.27222e-14,88.6339,30.0741,31.108,41.0524,-6.27415,-30.2265,21.0826,7.12502,-3.53615,51.033,-13.2394,-0.0244288,17.6395,42.7516,-27.9341,-5.37961,5.72253,-6.70382,-0.454331,-19.7367,32.0379,-21.9461,4.66266,-14.883
-0.0643258,17.399,4.93478,2.15688,-61.2275,0.987027,4.05238,-0.249981,-4.90781,-4.48543,-0.742324,-0.19406,-6.91581,-0.137518,2.62462,-33.7636,-12.5459,-17.6983,-10.512,-10.7984,12.8347,3.0561,-4.4217,5.65336,3.45637e-14,1.07344e-14,92.8757,-36.1133,-39.1351,33.6247,11.2253,-45.3021,-5.83097,7.12502,-18.0743,-35.0112,3.45637e-14,1.07344e-14,88.5472,30.5315,30.8384,40.9489,-6.24149,-30.1462,21.2183,7.12502,-3.45863,51.17,-13.0235,0.0227041,17.9577,42.3374,-27.7189,-6.22957,2.42603,-6.64341,-0.719848,-19.5577,32.1995,-21.974,5.00793,-14.8103
-0.0952314,17.398,4.9129,2.37036,-61.3938,0.732331,3.89178,-0.270346,-4.79882,-4.38419,-0.750256,-0.228474,-6.71435,-0.154239,2.52568,-33.8387,-12.3778,-17.4617,-10.7747,-10.6634,12.8669,2.95855,-4.36313,5.65607,-3.78188e-14,-6.75868e-15,92.9762,-36.1097,-39.4398,33.853,11.2293,-45.4714,-6.13522,7.12502,-18.2372,-35.3003,-3.78188e-14,-6.75868e-15,88.5826,30.9673,30.6358,40.8684,-6.4447,-29.8264,21.0755,7.12502,-3.14978,51.032,-12.7651,0.184027,18.2575,41.9146,-27.6407,-6.61437,0.819432,-6.61143,-1.08919,-19.3676,32.3896,-21.9949,5.42374,-14.6135
-0.129689,17.4033,4.88748,2.53389,-61.5726,0.568161,3.60434,-0.311075,-4.70555,-4.21257,-0.780221,-0.315967,-6.36405,-0.186743,2.38019,-34.1695,-12.2184,-17.2274,-10.8888,-10.4998,12.9147,2.93138,-4.28298,5.66166,-5.29264e-15,0,93.3003,-36.1793,-39.9483,33.9578,11.3395,-45.5558,-6.56916,7.12502,-18.3184,-35.7266,-5.29264e-15,0,88.6492,31.4881,30.4169,40.8784,-6.53413,-29.5911,21.0589,7.12502,-2.92258,51.0186,-12.5197,0.597625,18.5023,41.5093,-27.7757,-6.69575,1.43149,-6.61185,-1.326,-19.1979,32.569,-22.0137,5.76069,-14.9106
-0.164062,17.4067,4.86099,2.65843,-61.7037,0.295532,3.49086,-0.364065,-4.58899,-4.01394,-0.831306,-0.368816,-6.08483,-0.227398,2.26157,-34.5125,-12.0008,-16.8171,-11.028,-10.3226,12.7597,2.87062,-4.21397,5.57527,-1.39895e-14,1.55052e-14,93.6591,-36.2614,-40.4586,34.051,11.2965,-45.5968,-7.09059,7.12502,-18.3579,-36.2443,-1.39895e-14,1.55052e-14,88.7667,31.969,30.3446,40.8572,-6.6643,-29.3588,21.0442,7.12502,-2.69822,51.0069,-12.1295,1.0576,18.8153,41.1038,-27.868,-6.94956,1.55607,-6.47006,-1.51515,-18.9476,32.7337,-22.0616,5.91136,-15.374
-0.194965,17.4027,4.83564,2.68262,-61.7634,0.10243,3.44851,-0.428202,-4.50302,-3.8332,-0.904414,-0.425094,-5.86495,-0.275585,2.15918,-34.7196,-11.7585,-16.304,-11.2838,-10.175,12.5815,2.75882,-4.16919,5.4649,-4.9075e-14,1.47101e-14,93.9276,-36.2994,-40.8984,34.2601,11.0962,-45.4082,-7.50842,7.12502,-18.1764,-36.6792,-4.9075e-14,1.47101e-14,88.8967,32.3933,30.3706,40.8229,-6.60595,-29.1496,20.7901,7.12502,-2.49615,50.7553,-11.7126,1.42718,19.0949,40.7284,-27.8643,-7.28182,0.795101,-6.29008,-1.77508,-18.7505,32.8672,-22.0951,6.15507,-15.7331
-0.224415,17.399,4.8078,2.6658,-61.8326,-0.000787161,3.41724,-0.517281,-4.45306,-3.69126,-1.01567,-0.481312,-5.69041,-0.339497,2.08032,-35.0085,-11.5617,-15.9234,-11.3882,-10.0296,12.477,2.71504,-4.11426,5.39402,-4.06763e-14,-1.94809e-14,94.3271,-36.1499,-41.4712,34.429,10.9109,-45.1867,-7.46419,7.12502,-17.9633,-36.6546,-4.06763e-14,-1.94809e-14,88.9817,32.8309,30.3525,40.6777,-6.71491,-29.0575,20.5699,7.12502,-2.40722,50.536,-11.3335,1.85094,19.3342,40.3611,-27.9176,-7.57537,0.276715,-6.16456,-1.91701,-18.5829,33.0061,-22.1116,6.34803,-16.0764
-0.254182,17.3965,4.77844,2.59071,-61.9252,-0.0452414,3.38638,-0.590533,-4.45802,-3.53195,-1.10918,-0.55205,-5.49939,-0.393183,2.01526,-35.2781,-11.2983,-15.4147,-11.5543,-9.85064,12.2552,2.63176,-4.0558,5.27106,-3.19298e-14,5.96354e-15,94.6362,-36.0314,-41.8831,34.6456,10.7242,-44.9681,-7.26946,7.12502,-17.753,-36.4791,-3.19298e-14,5.96354e-15,89.1624,33.223,30.4362,40.5073,-6.75145,-28.8668,20.9585,7.12502,-2.22306,50.9266,-10.9657,2.31345,19.5214,40.0262,-28.0272,-7.63507,0.862886,-6.03104,-1.96928,-18.4057,33.1336,-22.1456,6.26288,-15.6653
-0.284088,17.394,4.75004,2.6161,-61.9089,-0.232973,3.3576,-0.692991,-4.35131,-3.32713,-1.23381,-0.639079,-5.2621,-0.468287,1.87257,-35.6864,-11.0616,-14.9041,-11.6152,-9.69325,12.1471,2.60913,-3.99738,5.17801,-4.0229e-14,-1.70955e-14,94.5177,-36.2174,-41.7336,35.0302,10.2308,-44.7318,-7.51173,7.12502,-17.5256,-36.7418,-4.0229e-14,-1.70955e-14,89.6049,33.582,30.802,40.4086,-6.7594,-28.0372,21.5305,7.12502,-1.42185,51.5055,-10.581,2.65971,19.7895,39.7296,-28.3057,-7.63943,1.75997,-5.90235,-1.82954,-18.1043,33.2525,-22.2179,5.93513,-15.4095
-0.313795,17.3909,4.72453,2.57699,-61.8242,-0.329912,3.29621,-0.846146,-4.25896,-3.12569,-1.4245,-0.705388,-5.00643,-0.575106,1.76323,-36.1631,-10.8823,-14.5206,-11.5465,-9.55884,12.118,2.64779,-3.9388,5.12364,3.24267e-14,6.75868e-15,94.3146,-36.445,-41.4378,35.4869,9.60426,-44.4609,-7.93547,7.12502,-17.2648,-37.1886,3.24267e-14,6.75868e-15,90.0713,33.9271,31.3289,40.3129,-6.77252,-27.1685,21.9063,7.12502,-0.582842,51.8853,-10.2024,2.82336,20.0063,39.4836,-28.6143,-7.55394,2.67189,-5.79665,-1.89925,-17.8983,33.3629,-22.2994,5.85474,-15.5415
-0.340603,17.3814,4.69872,2.61587,-61.8014,-0.502386,3.2272,-0.981909,-4.11168,-2.93232,-1.5897,-0.785354,-4.75963,-0.670844,1.60625,-36.3901,-10.6948,-14.1199,-11.6903,-9.45933,12.1782,2.60692,-3.90181,5.09841,3.97818e-14,1.59028e-15,94.5853,-36.4522,-41.7409,35.7082,9.40115,-44.0146,-7.59286,7.12502,-16.8352,-36.8831,3.97818e-14,1.59028e-15,90.6234,34.2172,31.967,40.1368,-6.78203,-26.4818,22.4287,7.12502,0.0804278,52.4084,-9.87677,2.91841,20.2706,39.2659,-28.7316,-7.80859,1.5732,-5.69225,-2.05534,-17.6746,33.5134,-22.4521,5.80859,-14.9576
-0.364862,17.3679,4.67236,2.61276,-61.7901,-0.609889,3.18742,-1.1123,-3.97777,-2.77542,-1.7527,-0.883106,-4.5699,-0.763393,1.43866,-36.5271,-10.5183,-13.7246,-11.8519,-9.38446,12.2611,2.55728,-3.87801,5.07877,2.78795e-14,2.3059e-14,94.8894,-36.3284,-42.0866,35.8351,9.45805,-43.5808,-7.42549,7.12502,-16.4176,-36.7507,2.78795e-14,2.3059e-14,91.0726,34.4645,32.5541,40.072,-6.62065,-25.7136,22.9441,7.12502,0.822317,52.9223,-9.59629,3.04976,20.4999,39.0797,-28.928,-7.92106,1.87792,-5.63662,-2.11853,-17.4757,33.7179,-22.6436,5.76369,-14.9017
-0.391334,17.358,4.64373,2.78497,-61.7661,-0.938139,3.19071,-1.26289,-3.82546,-2.62999,-1.93984,-0.888074,-4.41441,-0.865357,1.35903,-36.9759,-10.2796,-13.2835,-11.6329,-9.20965,12.1239,2.62714,-3.80652,4.9823,-5.75979e-14,-2.38542e-15,95.0292,-36.2124,-42.1069,35.9674,9.68416,-43.3944,-7.54865,7.12502,-16.2382,-36.8886,-5.75979e-14,-2.38542e-15,91.3947,34.7489,33.0541,39.9941,-6.38658,-25.0682,23.3115,7.12502,1.44572,53.2863,-9.2945,3.26894,20.8555,38.8878,-29.2983,-7.82239,3.66078,-5.61232,-2.08387,-17.1514,34.0271,-22.8313,5.7673,-15.0826
-0.419876,17.3455,4.61504,3.03134,-61.677,-1.39332,3.20457,-1.42691,-3.62029,-2.44637,-2.14101,-0.886159,-4.2272,-0.976245,1.25711,-37.4635,-10.0207,-12.7853,-11.407,-9.03255,11.9882,2.70185,-3.73467,4.87774,7.88927e-14,-1.59028e-15,95.3028,-36.1208,-42.2647,36.0331,10.0635,-43.3148,-7.29916,7.12502,-16.1615,-36.6454,7.88927e-14,-1.59028e-15,91.9801,34.9735,33.7684,39.7005,-6.22096,-24.7327,23.4004,7.12502,1.7697,53.3728,-8.9574,3.25386,21.289,38.6945,-29.4509,-8.04174,3.30636,-5.60941,-2.0773,-16.7446,34.4498,-23.0196,5.57304,-14.6155
-0.444686,17.3334,4.59241,3.47947,-61.4963,-2.04586,3.15578,-1.60641,-3.17967,-2.2368,-2.34904,-0.915075,-3.98898,-1.09818,0.989403,-37.662,-9.86535,-12.4061,-11.4786,-8.97932,12.0587,2.68814,-3.71868,4.85057,-8.19987e-15,7.95139e-16,95.5644,-36.1511,-42.4757,36.1276,10.5953,-43.362,-7.00026,7.12502,-16.2069,-36.3428,-8.19987e-15,7.95139e-16,92.7656,35.1464,34.624,39.3335,-6.00353,-24.5302,23.4026,7.12502,1.96529,53.3733,-8.66677,2.9365,21.7741,38.4974,-29.4288,-8.15673,2.69044,-5.7291,-2.25259,-16.2753,34.9874,-23.1371,5.49555,-14.4118
-0.466609,17.3258,4.56746,3.60165,-61.3122,-2.39612,3.32119,-1.78537,-2.89437,-2.08588,-2.57634,-0.956749,-3.9307,-1.22113,0.804441,-37.7774,-9.72915,-12.1867,-11.5368,-8.89689,12.18,2.67701,-3.68104,4.86989,4.89507e-15,1.66979e-14,95.8113,-36.0968,-42.7588,36.2787,11.5022,-43.3565,-7.12473,7.12502,-16.2017,-36.4677,4.89507e-15,1.66979e-14,93.4583,35.2631,35.4348,38.9653,-5.77907,-24.3083,23.6021,7.12502,2.17962,53.5707,-8.33409,2.62403,22.0617,38.3198,-29.4757,-7.92463,3.3296,-5.90263,-2.30989,-15.9703,35.6443,-23.1162,5.51205,-14.8567
-0.490294,17.3177,4.53913,3.39634,-61.1333,-2.33865,3.50848,-2.05828,-2.93116,-1.97777,-2.94367,-0.905241,-3.90771,-1.4026,0.906181,-38.234,-9.45415,-11.916,-11.3122,-8.62888,12.0837,2.7488,-3.5568,4.82867,-2.33572e-14,1.11319e-14,96.3885,-35.7818,-43.1083,36.3122,12.3239,-43.454,-6.99935,7.12502,-16.2955,-36.3346,-2.33572e-14,1.11319e-14,93.6358,35.6333,35.8321,38.5994,-5.35044,-24.1975,24.0766,7.12502,2.28659,54.0441,-8.02273,2.18127,22.1267,38.1126,-29.3712,-7.82338,3.13972,-6.20148,-2.13328,-15.8519,36.4523,-22.9968,5.49032,-15.4048
-0.511832,17.3089,4.51088,3.49577,-60.9369,-2.63825,3.73618,-2.40787,-2.87186,-1.89242,-3.40373,-0.700737,-3.92245,-1.62944,1.12132,-38.5888,-9.10141,-11.7393,-11.1928,-8.24154,11.9644,2.76643,-3.37986,4.81516,-2.77926e-14,-1.11319e-14,97.1421,-35.2992,-43.4751,36.3345,12.9337,-43.5363,-6.75777,7.12502,-16.3748,-36.0865,-2.77926e-14,-1.11319e-14,93.5108,36.1669,35.9896,38.1455,-4.85344,-23.8646,24.6251,7.12502,2.60814,54.5889,-7.71667,1.78185,22.4095,37.8873,-29.2415,-7.83253,2.75964,-6.56966,-1.80887,-15.5293,37.3976,-22.837,5.18638,-14.0174
-0.534577,17.3091,4.48339,4.13993,-60.8402,-3.61933,3.9781,-2.63044,-2.58005,-1.75102,-3.6762,-0.41329,-3.90067,-1.76879,1.28082,-38.8204,-8.89351,-11.6735,-11.2008,-8.00418,12.0143,2.76333,-3.26511,4.85672,4.07012e-14,-8.74653e-15,97.862,-34.9554,-43.8272,36.3157,13.4848,-43.6109,-6.76284,7.12502,-16.4466,-36.0857,4.07012e-14,-8.74653e-15,93.7263,36.5741,36.3785,37.5528,-4.35301,-23.6474,25.2733,7.12502,2.81784,55.2344,-7.34,1.6064,23.0607,37.6266,-29.1786,-7.67259,3.45097,-6.94081,-1.38619,-14.8314,38.4686,-22.6606,4.68897,-12.1332
-0.554874,17.3108,4.45623,4.71674,-60.7432,-4.53347,4.24244,-2.75711,-2.29247,-1.57471,-3.82451,-0.23109,-3.86709,-1.84832,1.32719,-39.067,-8.76033,-11.5589,-11.2488,-7.87849,12.1801,2.76794,-3.19691,4.91414,8.54774e-14,8.74653e-15,98.4937,-34.8068,-44.2303,36.2398,13.8667,-43.8029,-6.71437,7.12502,-16.6314,-36.0218,8.54774e-14,8.74653e-15,94.1584,36.8444,36.8525,37.1632,-3.66568,-23.5056,25.8727,7.12502,2.9548,55.8319,-6.9929,1.31383,23.643,37.3617,-28.9292,-7.59188,3.32479,-7.3638,-0.986911,-14.162,39.6256,-22.3045,4.41833,-13.1259
-0.573097,17.316,4.42947,4.88104,-60.7372,-4.96233,4.52581,-2.82938,-2.18216,-1.4249,-3.9165,-0.179145,-3.87183,-1.89647,1.33684,-39.1945,-8.62096,-11.3734,-11.3886,-7.7826,12.3188,2.73164,-3.15162,4.94867,-1.65861e-14,6.36111e-15,98.878,-34.7505,-44.4888,36.3263,13.7589,-43.9756,-6.82241,7.12502,-16.7977,-36.1158,-1.65861e-14,6.36111e-15,94.5837,37.0504,37.2577,36.9489,-2.98148,-23.3459,26.2806,7.12502,3.10902,56.2377,-6.69623,1.13525,23.9514,37.146,-28.6785,-7.42305,3.78663,-7.78431,-0.596667,-13.8063,40.7873,-21.7697,4.10482,-12.4385
-0.591511,17.3262,4.40194,4.89646,-60.8459,-5.28355,4.89425,-2.84592,-2.14638,-1.29767,-3.94269,-0.166003,-3.94826,-1.90933,1.34933,-39.2004,-8.4403,-11.0406,-11.5721,-7.69895,12.2767,2.65404,-3.13308,4.89734,2.65253e-14,-9.54166e-15,99.1554,-34.6571,-44.7635,36.4623,13.3474,-44.1198,-6.94549,7.12502,-16.9366,-36.227,2.65253e-14,-9.54166e-15,94.9019,37.2559,37.4292,36.7729,-2.19477,-23.1798,26.8983,7.12502,3.26948,56.853,-6.36726,1.13893,24.2265,37.0343,-28.4215,-7.32726,4.23979,-8.09441,-0.0743204,-13.4941,41.8878,-21.203,3.72423,-11.4233
-0.608604,17.3381,4.37351,4.77585,-60.9395,-5.41695,5.27741,-2.82425,-2.29404,-1.19219,-3.93092,-0.149121,-4.04452,-1.89845,1.46628,-39.4303,-8.32271,-10.784,-11.4764,-7.64098,12.1894,2.6868,-3.11332,4.83385,2.67117e-14,1.03368e-14,99.4537,-34.6287,-45.0987,36.5173,12.9454,-44.4419,-7.25251,7.12502,-17.2466,-36.5072,2.67117e-14,1.03368e-14,95.1972,37.4551,37.5196,36.6158,-1.51204,-22.6189,27.7312,7.12502,3.81108,57.6769,-6.10875,1.31065,24.4373,36.9953,-28.1277,-7.45268,4.80148,-8.44713,0.572349,-13.1876,42.9174,-20.4209,3.33971,-12.76
-0.628796,17.3532,4.34748,4.62041,-61.0536,-5.50918,5.55267,-2.69024,-2.33729,-1.02021,-3.76667,-0.316571,-4.03627,-1.81912,1.31422,-39.8375,-8.31616,-10.4073,-11.2641,-7.75253,12.0707,2.78334,-3.17176,4.71371,4.62361e-14,-7.95139e-16,99.3568,-35.064,-45.2462,36.5746,12.3954,-44.8059,-7.43989,7.12502,-17.5968,-36.6636,4.62361e-14,-7.95139e-16,95.9594,37.4514,37.7199,36.3703,-1.01202,-22.0027,28.2293,7.12502,4.40617,58.1635,-5.85556,1.30893,24.5597,36.9503,-27.7643,-7.34908,5.46394,-8.76043,1.23051,-12.8917,43.8738,-19.5651,2.91278,-15.4489
-0.652645,17.372,4.32314,4.50276,-61.2357,-5.71167,5.76598,-2.42003,-2.274,-0.780656,-3.41644,-0.616905,-3.94287,-1.65356,0.943828,-40.079,-8.40035,-9.87613,-11.2432,-8.0517,11.9938,2.81975,-3.33004,4.5588,4.78015e-14,-5.56597e-15,98.8697,-35.8709,-45.1092,36.6615,11.6982,-44.9484,-7.66171,7.12502,-17.734,-36.873,4.78015e-14,-5.56597e-15,97.2814,37.178,38.2326,35.9545,-0.8714,-21.4646,28.1997,7.12502,4.92579,58.1224,-5.54535,1.15931,24.711,36.9172,-27.1996,-7.27075,4.94149,-8.92895,1.85664,-12.5104,44.6945,-18.5569,2.28178,-18.3991
-0.67789,17.4024,4.30506,4.22358,-61.4587,-5.56838,5.86457,-2.37821,-2.44272,-0.680415,-3.37878,-0.72759,-3.89278,-1.63405,0.922473,-40.196,-8.28911,-9.63942,-11.2459,-8.01132,12.0454,2.82419,-3.31373,4.54496,-6.06495e-14,2.06736e-14,99.139,-35.8534,-45.5341,36.6047,11.286,-45.1469,-7.95894,7.12502,-17.925,-37.1529,-6.06495e-14,2.06736e-14,97.4503,37.4504,37.8758,35.5282,-0.749421,-21.2135,27.9224,7.12502,5.16821,57.8394,-5.33401,1.1018,24.6869,36.8268,-26.6041,-7.26214,4.36524,-9.19922,2.13023,-12.3049,45.3813,-17.4427,1.28642,-18.3248
