JuanDHNZ/ProyectoFinalCD/preprocessing/sports_trials_csv/14_02.csv
root1,root2,root3,root4,root5,root6,lowerback1,lowerback2,lowerback3,upperback1,upperback2,upperback3,thorax1,thorax2,thorax3,lowerneck1,lowerneck2,lowerneck3,upperneck1,upperneck2,upperneck3,head1,head2,head3,rclavicle1,rclavicle2,rhumerus1,rhumerus2,rhumerus3,rradius1,rwrist1,rhand1,rhand2,rfingers1,rthumb1,rthumb2,lclavicle1,lclavicle2,lhumerus1,lhumerus2,lhumerus3,lradius1,lwrist1,lhand1,lhand2,lfingers1,lthumb1,lthumb2,rfemur1,rfemur2,rfemur3,rtibia1,rfoot1,rfoot2,rtoes1,lfemur1,lfemur2,lfemur3,ltibia1,lfoot1,lfoot2,ltoes1
-1.0388,17.5044,-2.91597,5.77999,-22.4692,-0.0628854,2.79847,-1.02248,-5.17558,0.602703,-1.50222,1.17272,-0.784042,-0.743253,4.16414,-18.4256,-5.26784,-12.6773,23.0229,-4.74391,4.28007,10.9304,-2.78552,2.93735,-2.04003e-14,-7.40473e-15,-26.8414,14.8201,-87.5192,123.606,-0.940721,-17.5565,20.5734,7.12502,8.6983,-9.22736,-2.04003e-14,-7.40473e-15,-28.4762,-14.2599,88.0711,110.274,-10.1631,-17.2235,12.7917,7.12502,9.01968,42.5789,-22.6075,5.41306,12.3617,38.7582,-18.5467,-0.162077,-1.76099,-13.9459,3.18929,-20.7149,34.0793,-20.864,8.47646,-11.5414
-1.06158,17.5074,-2.90432,5.65176,-22.4281,-0.0250846,2.81124,-0.931792,-5.18231,0.530451,-1.38373,1.15348,-0.879087,-0.679584,4.14586,-18.3227,-5.25284,-12.753,23.0387,-4.73547,4.35524,10.92,-2.7811,2.98033,1.33931e-14,1.01877e-14,-26.5766,14.9175,-87.3478,123.397,-1.06741,-17.5849,20.5078,7.12502,8.67097,-9.29417,1.33931e-14,1.01877e-14,-28.0257,-14.5331,87.9555,110.277,-9.51618,-16.9557,12.913,7.12502,9.27809,42.6889,-22.2381,5.44924,12.4734,38.6177,-18.4077,0.440627,0.713466,-13.6953,3.05002,-20.6728,33.9068,-20.676,8.53034,-11.9899
-1.08184,17.5126,-2.89291,5.51444,-22.3141,0.0512837,2.80538,-0.918662,-5.1396,0.489834,-1.36604,1.09225,-0.922167,-0.668682,4.05814,-18.48,-5.19752,-12.7006,23.2774,-4.66132,4.37691,11.0303,-2.7449,2.99208,-4.00862e-14,7.45443e-15,-26.3601,15.0984,-87.2494,123.13,-1.14201,-17.6526,20.6671,7.12502,8.6056,-9.13752,-4.00862e-14,7.45443e-15,-27.5425,-14.6536,87.72,110.342,-8.79773,-16.6586,13.0996,7.12502,9.56475,42.8625,-21.9003,5.60795,12.4977,38.4916,-18.625,0.152775,1.29641,-13.484,2.89599,-20.6719,33.7773,-20.5643,8.46912,-11.5495
-1.10335,17.516,-2.88716,5.41312,-22.2286,0.0632199,2.80521,-0.882922,-5.03237,0.453766,-1.3165,1.03332,-0.968471,-0.642123,3.93551,-18.5593,-5.14751,-12.6813,23.4716,-4.60657,4.44029,11.1132,-2.71511,3.02244,6.40087e-14,2.43511e-15,-26.1837,15.2043,-87.2174,122.809,-1.02782,-17.7109,20.8025,7.12502,8.54932,-9.00445,6.40087e-14,2.43511e-15,-27.0178,-14.8351,87.4467,110.39,-8.17396,-16.3662,13.2306,7.12502,9.84688,42.9804,-21.6775,5.88872,12.5774,38.3824,-19.0152,-0.679522,0.264676,-13.2986,2.76639,-20.603,33.6847,-20.5291,8.45737,-11.1822
-1.12583,17.5157,-2.88459,5.29782,-22.2157,0.0792479,2.82862,-0.807864,-4.96354,0.410423,-1.21686,0.993652,-1.03907,-0.589669,3.85347,-18.462,-5.10111,-12.7045,23.5545,-4.55029,4.44011,11.1208,-2.69544,3.03732,3.82785e-14,1.36167e-14,-26.0689,15.2909,-87.1326,122.516,-0.97793,-17.7332,20.863,7.12502,8.52778,-8.94479,3.82785e-14,1.36167e-14,-26.5182,-15.0212,87.2655,110.39,-7.79072,-16.0841,13.1372,7.12502,10.119,42.8739,-21.5288,6.14498,12.6539,38.3067,-19.1072,-1.11424,-0.818694,-13.1178,2.50722,-20.544,33.6544,-20.5428,8.65225,-11.2106
-1.14699,17.5144,-2.88159,5.2073,-22.1405,0.025651,3.00625,-0.749081,-4.85342,0.277403,-1.14636,1.01251,-1.28485,-0.54541,3.81349,-18.1117,-5.03902,-12.992,23.4474,-4.5068,4.74062,11.0241,-2.66693,3.20582,2.85753e-16,5.26779e-15,-26.0949,15.4183,-86.9937,122.279,-1.13606,-17.6491,20.8431,7.12502,8.60901,-8.96141,2.85753e-16,5.26779e-15,-26.1733,-15.1274,87.1594,110.394,-7.395,-15.9291,12.9682,7.12502,10.2686,42.6976,-21.375,6.32488,12.784,38.2783,-18.9068,-0.929635,0.0924294,-12.9282,2.18891,-20.4351,33.686,-20.6048,8.91322,-11.2288
-1.16794,17.5137,-2.87572,5.14975,-22.0509,-0.107183,3.11155,-0.677247,-4.64201,0.224979,-1.04921,1.03356,-1.41118,-0.493601,3.71489,-17.9807,-5.0149,-13.1514,23.3686,-4.49828,4.9487,10.9776,-2.65169,3.31105,4.22355e-14,-1.01877e-14,-25.7479,15.5328,-86.8311,121.982,-1.31248,-17.6359,20.6494,7.12502,8.62171,-9.1546,4.22355e-14,-1.01877e-14,-25.6305,-15.2424,87.0275,110.379,-6.93322,-15.9525,12.7456,7.12502,10.246,42.476,-21.2066,6.52686,12.9857,38.2893,-18.7915,-0.862881,1.02499,-12.751,1.921,-20.2544,33.7446,-20.72,9.14493,-11.1332
-1.18943,17.5134,-2.87029,4.99556,-22.0355,-0.0953515,2.9173,-0.557774,-4.4072,0.467198,-0.871099,0.874937,-1.07629,-0.41908,3.40627,-18.6525,-5.12347,-12.6995,23.6681,-4.58761,4.55758,11.2058,-2.69744,3.07354,-3.74461e-14,8.84592e-15,-24.6678,15.4562,-86.6723,121.553,-1.27479,-17.6453,20.4164,7.12502,8.61269,-9.38796,-3.74461e-14,8.84592e-15,-24.6187,-15.5724,86.6493,110.395,-6.53021,-15.9708,12.9455,7.12502,10.2283,42.6769,-21.0073,6.63367,13.0488,38.3306,-18.9744,-1.05184,0.635392,-12.5999,1.96513,-20.2059,33.81,-20.7114,9.14423,-11.0251
-1.21179,17.5162,-2.86489,4.85173,-21.9886,-0.0288275,2.92431,-0.434318,-4.26692,0.548886,-0.703181,0.706337,-1.0154,-0.33871,3.14666,-19.1427,-5.21047,-12.2274,23.9148,-4.69791,4.21703,11.3814,-2.74595,2.84802,5.79333e-14,9.34288e-15,-24.0324,15.3245,-86.6524,121.309,-1.00095,-17.7003,20.1921,7.12502,8.55956,-9.61441,5.79333e-14,9.34288e-15,-24.0193,-15.902,86.3872,110.539,-6.15382,-16.0868,13.2381,7.12502,10.1164,42.9749,-20.8436,6.60641,13.0639,38.379,-19.0891,-1.15197,0.21538,-12.4879,2.09406,-20.2024,33.8557,-20.6348,9.05124,-11.1445
-1.23636,17.5185,-2.86161,4.79255,-21.8704,-0.0403665,2.97545,-0.405356,-4.2166,0.534447,-0.6655,0.71266,-1.06267,-0.31869,3.1242,-19.2372,-5.17955,-12.2135,23.8653,-4.65057,4.24451,11.3763,-2.71716,2.86209,1.01877e-14,2.38542e-15,-23.7372,15.4697,-86.5523,121.305,-0.567386,-17.845,20.1176,7.12502,8.41991,-9.69456,1.01877e-14,2.38542e-15,-23.622,-15.9457,86.2858,110.727,-5.81262,-16.3583,13.4782,7.12502,9.85453,43.2276,-20.7428,6.49666,13.1877,38.4298,-19.0244,-1.10677,0.257777,-12.3989,1.96927,-20.1112,33.8702,-20.6506,9.13428,-11.3088
-1.26123,17.521,-2.86002,4.73042,-21.6585,-0.0444895,2.98053,-0.444332,-4.2752,0.547138,-0.717879,0.831211,-1.04571,-0.345205,3.28147,-19.4755,-5.09952,-12.2781,23.9646,-4.46508,4.17931,11.4436,-2.64713,2.87655,2.52581e-14,4.57205e-15,-23.4067,15.799,-86.2773,121.392,-0.18677,-17.8438,20.0698,7.12502,8.42108,-9.74227,2.52581e-14,4.57205e-15,-23.1272,-15.8153,86.2896,110.845,-5.60321,-16.7466,13.4953,7.12502,9.47988,43.2621,-20.6131,6.35561,13.3225,38.4711,-19.0123,-1.15073,0.643842,-12.3073,1.54645,-20.0246,33.8769,-20.7181,9.37144,-11.6165
-1.28439,17.5229,-2.86029,4.67453,-21.3855,-0.0700473,3.00039,-0.439265,-4.19601,0.577912,-0.708676,0.860756,-1.0266,-0.341831,3.26705,-19.5434,-5.09939,-12.4299,23.8804,-4.46307,4.39476,11.4335,-2.62964,2.98088,4.98266e-14,-7.15625e-15,-23.1448,15.9143,-86.0805,121.671,0.0934158,-17.7419,20.0275,7.12502,8.51938,-9.78067,4.98266e-14,-7.15625e-15,-22.6346,-15.8591,86.2733,110.987,-5.31943,-17.192,13.3259,7.12502,9.05008,43.1117,-20.4557,6.19068,13.4866,38.5007,-19.1419,-1.3752,0.416458,-12.2571,1.1236,-19.9076,33.9012,-20.7107,9.54233,-12.0568
-1.30809,17.5238,-2.8609,4.71644,-21.1163,-0.16109,3.00035,-0.416957,-3.95946,0.574049,-0.671914,0.826316,-1.037,-0.323855,3.09696,-19.5278,-5.11834,-12.5746,23.7451,-4.53338,4.72535,11.3968,-2.62944,3.11586,2.42704e-14,-2.50966e-14,-22.9056,15.9294,-86.0618,121.993,0.403691,-17.7869,20.1107,7.12502,8.47604,-9.69917,2.42704e-14,-2.50966e-14,-22.174,-16.0389,86.1603,111.196,-4.82191,-17.4779,13.3873,7.12502,8.77418,43.1849,-20.396,5.97859,13.7102,38.5234,-19.2641,-1.55336,0.215479,-12.2916,1.06092,-19.6986,33.9319,-20.6855,9.34866,-11.9866
-1.33384,17.5248,-2.85997,4.75408,-20.8639,-0.234326,3.02542,-0.41095,-3.83274,0.553037,-0.660839,0.854148,-1.07471,-0.317515,3.05435,-19.8273,-5.04348,-12.2473,23.9278,-4.38486,4.33696,11.4914,-2.58197,2.93971,7.65942e-15,-2.48481e-16,-22.5889,16.043,-86.0062,122.279,0.679101,-17.8283,20.3929,7.12502,8.43601,-9.41863,7.65942e-15,-2.48481e-16,-21.7247,-16.2176,86.1027,111.39,-4.34848,-17.9405,13.4961,7.12502,8.32777,43.312,-20.3355,5.73761,13.9188,38.5274,-19.3277,-1.64043,0.18462,-12.3207,1.10599,-19.505,33.9735,-20.707,9.09807,-11.9739
-1.36212,17.5273,-2.85789,4.7957,-20.5329,-0.28605,3.12563,-0.428558,-3.83024,0.433251,-0.68813,0.976936,-1.25033,-0.325238,3.18276,-20.0643,-4.94749,-11.9627,24.1672,-4.1804,3.86678,11.5923,-2.52688,2.74995,5.72779e-14,-9.06955e-15,-22.4713,16.2168,-85.8693,122.704,0.669435,-17.8033,20.7222,7.12502,8.46014,-9.08831,5.72779e-14,-9.06955e-15,-21.4405,-16.3106,86.2547,111.6,-3.89613,-18.2797,13.589,7.12502,8.00043,43.4176,-20.2478,5.43506,14.111,38.525,-19.4034,-1.69438,0.256695,-12.3656,0.972169,-19.3206,34.0025,-20.679,8.93629,-12.1293
-1.38886,17.5302,-2.85559,4.85645,-20.1307,-0.350968,3.30524,-0.478002,-3.7716,0.257207,-0.759239,1.09291,-1.5254,-0.351929,3.27614,-20.1983,-4.82415,-11.9267,24.3501,-3.98732,3.81754,11.6687,-2.44678,2.75817,2.61728e-14,2.10215e-14,-22.4089,16.4894,-85.6859,123.225,0.41542,-17.8209,20.8941,7.12502,8.44323,-8.9171,2.61728e-14,2.10215e-14,-21.3313,-16.3135,86.4131,111.86,-3.48116,-18.3414,13.631,7.12502,7.94081,43.4618,-20.1426,5.21039,14.3021,38.5232,-19.5626,-1.81818,0.41589,-12.4155,0.691194,-19.1295,34.0012,-20.6641,8.83607,-12.2813
-1.41477,17.5296,-2.85175,4.87196,-19.7867,-0.311402,3.33922,-0.516522,-3.75658,0.207031,-0.811188,1.13457,-1.59131,-0.375594,3.3139,-20.4266,-4.69747,-11.8487,24.4773,-3.78762,3.76606,11.7405,-2.35748,2.75847,-7.8551e-15,1.26725e-14,-22.1512,16.7751,-85.4764,123.761,0.0590568,-17.8651,20.849,7.12502,8.40049,-8.96394,-7.8551e-15,1.26725e-14,-21.1319,-16.2951,86.5032,112.162,-2.98881,-18.3966,13.3933,7.12502,7.88759,43.2262,-20.0388,5.10817,14.3587,38.5211,-19.7939,-1.90865,0.61867,-12.4696,0.423727,-19.0589,33.9831,-20.5634,8.70529,-11.935
-1.44145,17.5284,-2.8504,4.87922,-19.5133,-0.173654,3.30428,-0.529684,-3.85133,0.163669,-0.831179,1.15072,-1.61311,-0.383621,3.38481,-20.4109,-4.58131,-11.7451,24.3852,-3.61678,3.62328,11.6813,-2.28682,2.71512,-2.53016e-14,-3.8763e-15,-22.0445,16.9848,-85.3605,124.315,-0.244406,-17.9959,20.8479,7.12502,8.27432,-8.97008,-2.53016e-14,-3.8763e-15,-20.9359,-16.3771,86.6471,112.505,-2.41717,-18.5539,13.6154,7.12502,7.73571,43.4539,-19.9887,5.03857,14.3114,38.5194,-19.9892,-2.04385,0.438606,-12.547,0.237321,-19.0866,33.9562,-20.4349,8.56344,-11.4722
-1.46859,17.5281,-2.85498,4.92649,-19.1912,-0.225681,3.48076,-0.566322,-3.78146,0.053534,-0.884061,1.21583,-1.82094,-0.403872,3.41889,-20.5644,-4.47198,-11.5982,24.4858,-3.44326,3.4583,11.7282,-2.2178,2.65731,1.15606e-14,-1.3418e-15,-21.8734,17.1433,-85.3592,124.711,-0.514848,-18.0608,20.8383,7.12502,8.21168,-8.98209,1.15606e-14,-1.3418e-15,-20.6762,-16.5168,86.6798,112.778,-1.89368,-18.8011,14.1466,7.12502,7.49712,43.9938,-19.8962,5.02734,14.4769,38.5006,-20.1757,-2.20653,0.7626,-12.6062,0.0886522,-18.8958,33.9432,-20.4383,8.48088,-11.829
-1.49423,17.5282,-2.85667,4.95187,-18.8425,-0.289511,2.80326,-0.596392,-3.2904,0.594865,-0.881497,0.970728,-0.895846,-0.433406,2.87374,-21.1835,-4.47671,-11.2456,24.2713,-3.52295,3.61064,11.7634,-2.18718,2.63634,-9.91633e-15,-2.51276e-15,-20.5887,16.8643,-85.4743,124.951,-0.704061,-17.9665,20.8147,7.12502,8.30271,-9.00217,-9.91633e-15,-2.51276e-15,-19.2589,-16.9097,85.949,112.85,-1.259,-18.8195,14.242,7.12502,7.4794,44.0898,-19.7635,4.97482,14.6452,38.466,-20.3517,-2.39204,0.530429,-12.6396,-0.0657603,-18.7049,33.9533,-20.4647,8.40195,-12.4462
-1.51936,17.5277,-2.8579,5.02322,-18.5132,-0.335288,2.80348,-0.59612,-3.27123,0.56563,-0.879757,1.07711,-0.924725,-0.431575,2.9728,-21.2689,-4.40772,-11.2238,24.3544,-3.43173,3.64528,11.8039,-2.14098,2.66162,-1.41634e-14,5.2181e-16,-20.4829,16.9274,-85.3039,125.502,-0.939034,-17.8862,20.8922,7.12502,8.38019,-8.9216,-1.41634e-14,5.2181e-16,-18.8738,-17.0483,86.0581,113.001,-0.651259,-18.6913,14.0635,7.12502,7.60314,43.9068,-19.6917,4.87616,14.7899,38.4095,-20.5242,-2.47446,1.0925,-12.7592,-0.183314,-18.5307,34.0044,-20.407,8.19454,-12.3462
-1.54646,17.526,-2.8654,5.09242,-18.2124,-0.396842,3.34725,-0.612226,-3.44608,0.182468,-0.9241,1.34743,-1.61281,-0.432809,3.36418,-21.1053,-4.2716,-11.411,24.5985,-3.18794,3.60373,11.8502,-2.06389,2.72184,1.18277e-14,-5.56597e-15,-21.0004,17.2449,-85.105,126.157,-1.14811,-17.9863,21.0589,7.12502,8.2836,-8.75866,1.18277e-14,-5.56597e-15,-19.1296,-16.9295,86.5456,113.184,-0.260869,-18.5759,13.955,7.12502,7.71449,43.7943,-19.6566,4.85382,14.9713,38.3718,-20.7119,-2.56615,1.85646,-12.897,-0.32528,-18.3302,34.0649,-20.2977,7.9957,-11.8034
-1.57367,17.5257,-2.87482,5.22989,-17.8997,-0.402643,3.28598,-0.663482,-3.41915,0.152761,-0.988595,1.41513,-1.60289,-0.464783,3.42111,-21.1756,-4.16593,-11.422,24.5927,-3.02066,3.59426,11.8471,-1.99035,2.74764,-2.86001e-14,-6.85807e-15,-20.8122,17.3282,-85.0546,126.552,-1.20452,-18.1778,21.2337,7.12502,8.09871,-8.59108,-2.86001e-14,-6.85807e-15,-18.7477,-16.9526,86.5392,113.276,0.00599688,-18.733,13.7061,7.12502,7.5629,43.5509,-19.7374,4.75464,15.0931,38.358,-20.8389,-2.7232,2.01822,-13.129,-0.408277,-18.1844,34.1183,-20.2671,7.72286,-11.2466
-1.5971,17.5263,-2.8827,5.42059,-17.5267,-0.288012,3.1672,-0.705428,-3.5692,0.0845399,-1.04494,1.52546,-1.59708,-0.490524,3.62106,-21.1276,-4.08104,-11.4433,24.489,-2.87545,3.51829,11.7847,-1.93441,2.74553,-4.14466e-14,-6.95746e-15,-20.6509,17.3749,-84.8493,126.84,-1.2106,-18.2857,21.3094,7.12502,7.99461,-8.51941,-4.14466e-14,-6.95746e-15,-18.3801,-16.9797,86.7266,113.349,0.391152,-18.9066,13.389,7.12502,7.39526,43.2397,-19.9266,4.4305,15.0694,38.3812,-20.8899,-2.80792,1.89545,-13.4492,-0.400344,-18.1797,34.1432,-20.1849,7.43572,-11.5904
-1.62078,17.5263,-2.88867,5.44663,-17.2301,-0.158368,3.18027,-0.701131,-3.65485,0.115871,-1.04229,1.53975,-1.57065,-0.489648,3.684,-21.2732,-4.01995,-11.3879,24.4619,-2.79216,3.53795,11.7938,-1.88681,2.75665,1.05927e-13,-1.66979e-14,-20.3971,17.3402,-84.7248,127.062,-1.08257,-18.3034,21.2807,7.12502,7.97751,-8.54878,1.05927e-13,-1.66979e-14,-17.9943,-17.0209,86.7965,113.449,0.83645,-18.69,13.1081,7.12502,7.60435,42.9514,-19.9323,4.22235,15.039,38.421,-21.014,-2.84044,2.05755,-13.5464,-0.564959,-18.2029,34.1356,-20.1718,7.32558,-11.5914
-1.64652,17.5272,-2.89503,5.41031,-17.0155,-0.138277,3.29446,-0.680203,-3.56965,0.168406,-1.015,1.51742,-1.58493,-0.477274,3.61305,-21.5642,-3.93649,-11.3472,24.6274,-2.67726,3.63695,11.904,-1.82066,2.80781,2.74323e-14,1.68967e-14,-20.1338,17.2479,-84.7204,127.166,-0.869465,-18.35,21.3979,7.12502,7.93255,-8.43325,2.74323e-14,1.68967e-14,-17.6172,-17.1446,86.7553,113.509,1.02038,-18.5003,13.151,7.12502,7.78751,42.9876,-19.8826,4.16352,15.1517,38.4869,-21.1436,-3.03849,1.5799,-13.5159,-0.830913,-18.1131,34.0875,-20.142,7.35715,-11.5493
-1.67298,17.5299,-2.90395,5.47363,-16.7991,-0.133551,3.35706,-0.665089,-3.47964,0.170499,-0.994044,1.48064,-1.62188,-0.46677,3.52431,-21.7336,-3.84204,-11.1909,24.7057,-2.58197,3.65931,11.9551,-1.76077,2.80726,1.05356e-14,-2.38542e-14,-19.917,17.0926,-84.7579,127.149,-0.643024,-18.3782,21.6806,7.12502,7.90532,-8.15161,1.05356e-14,-2.38542e-14,-17.3255,-17.3899,86.719,113.555,0.926843,-18.5567,13.3007,7.12502,7.733,43.1393,-19.95,4.13138,15.2714,38.5411,-21.2615,-3.26144,1.16525,-13.5934,-1.05235,-18.0022,34.0483,-20.1336,7.35968,-11.414
-1.69905,17.5319,-2.91291,5.49785,-16.6485,0.0301058,3.38972,-0.638743,-3.55664,0.177125,-0.963905,1.4155,-1.63586,-0.451105,3.49951,-21.7562,-3.76825,-11.0345,24.6452,-2.51905,3.62713,11.9263,-1.71969,2.77899,3.81667e-14,-7.55382e-15,-19.7313,17.0064,-84.7691,127.104,-0.410619,-18.4331,21.7084,7.12502,7.85233,-8.1258,3.81667e-14,-7.55382e-15,-17.1505,-17.564,86.7693,113.672,0.745921,-18.4477,13.6577,7.12502,7.8382,43.4924,-20.0173,4.11372,15.2038,38.5926,-21.3516,-3.39003,1.28756,-13.6784,-1.1202,-18.0728,34.0409,-20.1395,7.29637,-11.4511
-1.72325,17.5327,-2.92313,5.52081,-16.5196,0.022952,3.48653,-0.62603,-3.48181,0.188932,-0.946781,1.43636,-1.68031,-0.442301,3.47958,-21.7611,-3.68456,-11.0779,24.6154,-2.4175,3.74477,11.9083,-1.6618,2.84773,2.64632e-14,1.74931e-14,-19.5463,17.0126,-84.7316,126.95,-0.198,-18.4063,21.5199,7.12502,7.87815,-8.31327,2.64632e-14,1.74931e-14,-16.9392,-17.4264,86.8421,113.616,0.899578,-18.2908,12.9183,7.12502,7.98969,42.7473,-20.0462,4.14428,15.3159,38.6396,-21.4468,-3.47457,1.82843,-13.7576,-1.12338,-17.968,34.0653,-20.0981,7.31075,-12.0073
-1.74785,17.5329,-2.93332,5.61203,-16.3275,-0.0937793,3.54316,-0.621228,-3.27946,0.208541,-0.933552,1.46158,-1.69576,-0.437154,3.39158,-21.72,-3.6154,-11.1094,24.4938,-2.36296,3.92153,11.8497,-1.61359,2.92773,-1.24489e-14,-7.95139e-16,-19.3876,16.8946,-84.7421,126.641,0.0740992,-18.3578,21.6333,7.12502,7.92497,-8.19817,-1.24489e-14,-7.95139e-16,-16.6983,-17.4784,86.8825,113.575,0.839588,-18.381,12.7437,7.12502,7.90262,42.576,-20.1172,4.10529,15.5578,38.7006,-21.5347,-3.63102,1.59188,-13.9016,-1.07168,-17.7333,34.0962,-20.0292,7.26878,-12.7356
-1.77441,17.5334,-2.94251,5.6466,-16.1403,-0.0452737,3.59154,-0.583346,-3.25876,0.216121,-0.883997,1.43752,-1.71987,-0.41224,3.35337,-21.4997,-3.5939,-11.041,24.2736,-2.39097,3.95014,11.7227,-1.61118,2.91975,-2.84262e-14,-3.97569e-16,-19.2906,16.7,-84.7334,126.226,0.462188,-18.523,21.8307,7.12502,7.76555,-8.00668,-2.84262e-14,-3.97569e-16,-16.5336,-17.6852,86.9617,113.594,0.908227,-18.4718,12.8006,7.12502,7.81501,42.6362,-20.1751,4.01861,15.6284,38.7889,-21.657,-3.73926,1.36192,-13.9889,-1.04672,-17.6664,34.1082,-19.9795,7.19003,-13.1237
-1.79847,17.5312,-2.95163,5.57852,-16.0253,0.0916942,3.70816,-0.53624,-3.29226,0.261905,-0.82687,1.37511,-1.74327,-0.383866,3.3063,-21.447,-3.56448,-11.0244,24.1694,-2.39629,4.07626,11.673,-1.59276,2.96246,-1.9133e-14,1.13307e-14,-19.1238,16.5484,-84.7276,125.756,0.716894,-18.6978,21.7748,7.12502,7.5968,-8.06874,-1.9133e-14,1.13307e-14,-16.3428,-17.7921,87.0168,113.627,1.06764,-18.2051,12.8802,7.12502,8.07241,42.706,-20.1757,3.91066,15.5907,38.8994,-21.7642,-3.75376,1.42511,-13.9692,-1.0764,-17.7122,34.1,-19.9479,7.10746,-13.1534
-1.82105,17.5276,-2.9609,5.60215,-15.9104,0.260549,3.72354,-0.515093,-3.37899,0.341283,-0.802876,1.33618,-1.67153,-0.374069,3.31328,-21.666,-3.53359,-11.0478,24.143,-2.35547,4.22004,11.7027,-1.55476,3.02667,3.94091e-14,-9.34288e-15,-18.8269,16.4146,-84.6657,125.195,0.893758,-18.6625,21.6849,7.12502,7.63092,-8.15747,3.94091e-14,-9.34288e-15,-16.1146,-17.8047,87.0961,113.62,0.940375,-18.1573,13.0206,7.12502,8.11849,42.8446,-20.318,3.70539,15.5012,39.0312,-21.8115,-3.76275,1.15925,-14.0699,-1.17037,-17.7913,34.0651,-19.8942,7.07888,-13.1891
-1.84481,17.5245,-2.97289,5.70913,-15.7114,0.307096,3.7641,-0.518926,-3.35136,0.365865,-0.808371,1.31045,-1.66925,-0.377503,3.2717,-21.7599,-3.51378,-10.8948,24.093,-2.36322,4.20361,11.6988,-1.54352,2.99288,-1.89342e-14,1.45113e-14,-18.6837,16.2773,-84.7018,124.575,1.06858,-18.7307,21.7004,7.12502,7.56513,-8.1443,-1.89342e-14,1.45113e-14,-15.9487,-17.8008,87.1636,113.6,1.08382,-18.1186,12.6611,7.12502,8.15583,42.4837,-20.4988,3.49421,15.559,39.1434,-21.8807,-3.75583,0.886933,-14.2593,-1.30143,-17.7118,34.0421,-19.8307,6.99279,-13.2454
-1.87084,17.523,-2.98575,5.80735,-15.5318,0.30208,3.85797,-0.539891,-3.3075,0.336595,-0.837663,1.30664,-1.75029,-0.390358,3.24616,-21.7593,-3.46542,-10.7534,24.1455,-2.3428,4.19409,11.7138,-1.5237,2.97033,1.35919e-14,-5.76476e-15,-18.6092,16.2464,-84.732,123.862,1.1975,-19.0084,21.7051,7.12502,7.29709,-8.14904,1.35919e-14,-5.76476e-15,-15.9359,-17.7997,87.3016,113.732,1.27412,-17.8357,12.6361,7.12502,8.42891,42.4479,-20.6352,3.41538,15.6779,39.2356,-21.9743,-3.80175,1.09043,-14.4172,-1.33447,-17.5621,34.0303,-19.8086,6.8175,-13.0183
-1.89519,17.5234,-2.99713,5.89193,-15.3987,0.27181,3.92171,-0.551424,-3.21041,0.337827,-0.850547,1.31838,-1.78492,-0.396816,3.20515,-21.7458,-3.41147,-10.7782,24.158,-2.29427,4.3159,11.7128,-1.48866,3.02903,4.94477e-15,2.22639e-14,-18.4925,16.1698,-84.7152,123.108,1.17527,-19.1091,21.5878,7.12502,7.19986,-8.26977,4.94477e-15,2.22639e-14,-15.8847,-17.7939,87.4001,113.809,1.45263,-17.6885,12.4941,7.12502,8.57094,42.3002,-20.7333,3.34798,15.8139,39.2867,-22.0517,-3.83067,1.55654,-14.5372,-1.40152,-17.3935,34.0518,-19.9034,6.66298,-12.7783
-1.91844,17.5218,-3.00798,5.96461,-15.28,0.220562,3.94944,-0.518375,-3.08434,0.386803,-0.801359,1.32627,-1.75554,-0.374469,3.1396,-21.7204,-3.42323,-10.8211,24.0942,-2.34126,4.46821,11.6892,-1.49215,3.08508,-4.9398e-14,1.66979e-14,-18.3588,15.9838,-84.6821,122.315,1.0257,-19.0725,21.558,7.12502,7.23512,-8.29835,-4.9398e-14,1.66979e-14,-15.7689,-17.9116,87.5549,113.843,1.51631,-17.7311,12.4306,7.12502,8.52983,42.2383,-20.8216,3.26974,15.9678,39.3365,-22.1138,-3.85982,1.5816,-14.6412,-1.46921,-17.2006,34.0755,-19.9956,6.45344,-12.2728
-1.94235,17.5182,-3.01918,6.01692,-15.1592,0.172461,4.05138,-0.493485,-2.97603,0.414562,-0.765893,1.33621,-1.7881,-0.357319,3.08813,-21.6947,-3.43094,-10.7755,24.0461,-2.37937,4.49949,11.6684,-1.49971,3.0823,4.08006e-14,1.49089e-14,-18.2354,15.8714,-84.6865,121.428,0.987351,-19.2425,21.5713,7.12502,7.07103,-8.29063,4.08006e-14,1.49089e-14,-15.6981,-17.9846,87.7332,113.989,1.80369,-17.5712,12.3378,7.12502,8.68417,42.1392,-20.9069,3.03841,16.1259,39.3906,-22.077,-3.79721,1.45545,-14.741,-1.47181,-17.0232,34.1086,-19.9829,6.27849,-12.2138
-1.96593,17.516,-3.03163,6.08466,-15.0334,0.195779,4.17364,-0.481417,-2.92759,0.400592,-0.750978,1.33367,-1.87276,-0.348485,3.05922,-21.6961,-3.43323,-10.8006,24.0781,-2.38946,4.55383,11.6827,-1.50018,3.10604,6.58474e-15,-1.19271e-14,-18.1546,15.813,-84.6428,120.616,0.881043,-19.3259,21.3641,7.12502,6.99056,-8.50048,6.58474e-15,-1.19271e-14,-15.7056,-18.0368,87.9256,114.185,1.98666,-17.2584,12.3661,7.12502,8.98601,42.1547,-21.0509,2.63764,16.224,39.449,-21.9321,-3.7923,0.456561,-14.914,-1.40386,-16.9118,34.1595,-20.0515,5.99708,-12.2584
-1.98697,17.5135,-3.04637,6.18531,-14.8594,0.238549,4.24003,-0.488403,-2.85091,0.451835,-0.759117,1.28707,-1.85822,-0.354248,2.96874,-21.8247,-3.4521,-10.7627,24.0463,-2.43562,4.63555,11.6992,-1.5043,3.12243,-1.22998e-14,7.95139e-15,-18.0104,15.6863,-84.6612,119.909,0.608598,-19.3813,21.2509,7.12502,6.93713,-8.61546,-1.22998e-14,7.95139e-15,-15.5356,-18.0376,87.9946,114.339,2.20549,-17.0385,12.3004,7.12502,9.19816,42.0798,-21.2107,2.35695,16.28,39.4978,-21.9004,-3.67412,0.481067,-15.1742,-1.34707,-16.8072,34.2382,-20.0918,5.64248,-12.5667
-2.00687,17.514,-3.05755,6.28458,-14.6309,0.275323,4.22806,-0.528575,-2.76606,0.555352,-0.808278,1.27054,-1.74285,-0.382887,2.90543,-21.949,-3.40795,-10.6884,23.9367,-2.40372,4.71415,11.677,-1.46842,3.14303,-7.85199e-15,2.22639e-14,-17.7597,15.6373,-84.6391,119.262,0.285194,-19.4929,21.1219,7.12502,6.82933,-8.74798,-7.85199e-15,2.22639e-14,-15.3345,-18.0319,88.0888,114.511,2.36786,-16.812,12.139,7.12502,9.41676,41.9086,-21.3481,2.06502,16.3373,39.5612,-21.8824,-3.55404,0.679684,-15.4087,-1.3653,-16.7077,34.3245,-19.9868,5.30379,-12.5404
-2.02722,17.5173,-3.06605,6.34029,-14.4236,0.394883,4.25574,-0.562916,-2.73783,0.593043,-0.8539,1.23479,-1.71731,-0.406866,2.85516,-21.8859,-3.28624,-10.5005,23.8301,-2.28762,4.65849,11.609,-1.40391,3.10804,4.25399e-14,1.11319e-14,-17.6703,15.6546,-84.6458,118.741,-0.0137786,-19.396,20.7531,7.12502,6.92292,-9.11368,4.25399e-14,1.11319e-14,-15.2992,-18.0251,88.2424,114.724,2.5885,-16.6066,12.1089,7.12502,9.61493,41.8695,-21.4512,1.73976,16.2952,39.6392,-21.8394,-3.32244,0.883389,-15.5941,-1.33709,-16.7169,34.4102,-19.8501,5.00064,-12.2976
-2.04857,17.5179,-3.07891,6.3891,-14.3493,0.562678,4.3899,-0.524761,-2.79925,0.579053,-0.810772,1.16028,-1.81005,-0.383306,2.81258,-21.6986,-3.28489,-10.5026,23.6685,-2.32414,4.72754,11.5149,-1.40935,3.1255,1.45113e-14,-3.18055e-15,-17.6837,15.5931,-84.7091,118.372,-0.160063,-19.2151,20.3049,7.12502,7.09756,-9.55611,1.45113e-14,-3.18055e-15,-15.2923,-18.0689,88.3563,114.961,2.92981,-16.4583,11.9531,7.12502,9.75798,41.707,-21.6201,1.50695,16.1888,39.7289,-21.7357,-3.10469,1.14127,-15.8117,-1.11098,-16.7807,34.4893,-19.7409,4.73876,-12.0901
-2.06989,17.519,-3.0942,6.48528,-14.2547,0.739514,4.58251,-0.466782,-2.93602,0.526643,-0.74645,1.1211,-1.97509,-0.346692,2.84861,-21.6274,-3.36274,-10.6637,23.5801,-2.42517,4.87221,11.481,-1.44932,3.18861,-3.90612e-14,-4.77083e-15,-17.7944,15.4941,-84.7012,118.223,-0.0469739,-19.1112,20.2625,7.12502,7.19782,-9.59512,-3.90612e-14,-4.77083e-15,-15.3114,-18.1628,88.5944,115.239,3.18858,-16.0285,11.9384,7.12502,10.1727,41.6725,-21.8502,1.20297,16.0832,39.8146,-21.5857,-2.93783,1.14898,-16.102,-0.827231,-16.8407,34.5788,-19.7143,4.42787,-11.5649
-2.0903,17.5248,-3.11055,6.6217,-14.0287,0.877591,4.87717,-0.437104,-3.11404,0.382178,-0.723825,1.19935,-2.28746,-0.325738,3.0338,-21.6591,-3.37059,-10.7393,23.6822,-2.41181,4.8871,11.5265,-1.45034,3.21099,3.42904e-15,1.59028e-15,-18.0853,15.505,-84.5465,118.283,0.290337,-19.1389,20.4948,7.12502,7.17106,-9.3637,3.42904e-15,1.59028e-15,-15.4367,-18.124,89.0352,115.422,3.36571,-15.5827,11.4968,7.12502,10.6028,41.2093,-22.0741,0.836232,16.0296,39.894,-21.4633,-2.81147,0.887738,-16.4067,-0.528984,-16.8587,34.694,-19.9051,4.25998,-12.211
-2.10807,17.5312,-3.1244,6.77263,-13.772,0.905419,4.90552,-0.450788,-2.95391,0.403256,-0.735113,1.15069,-2.28335,-0.333494,2.89414,-21.6802,-3.39117,-10.6755,23.577,-2.4649,4.91167,11.4942,-1.46214,3.19892,-1.71452e-14,-2.26615e-14,-18.2012,15.49,-84.622,118.575,0.682519,-19.0483,20.6548,7.12502,7.25856,-9.20069,-1.71452e-14,-2.26615e-14,-15.3129,-18.1665,89.1314,115.639,3.65562,-15.1141,11.1982,7.12502,11.0547,40.8871,-22.2572,0.470604,16.0805,39.9357,-21.2525,-2.67356,0.781549,-16.6916,-0.0304351,-16.7813,34.8571,-20.3789,4.23952,-14.5046
-2.12188,17.5348,-3.13498,6.87156,-13.5303,0.94668,4.7569,-0.425451,-2.79703,0.522244,-0.689168,1.10893,-2.08312,-0.317284,2.75657,-21.3764,-3.45518,-10.7705,23.1821,-2.5782,5.00954,11.2995,-1.50293,3.22563,7.20594e-15,1.49089e-14,-18.2101,15.3969,-84.634,119.118,0.88949,-18.6595,20.7354,7.12502,7.63385,-9.10678,7.20594e-15,1.49089e-14,-15.0696,-18.3826,89.2812,115.925,3.774,-14.6592,11.4017,7.12502,11.4934,41.0666,-22.3707,0.136745,16.0934,39.9549,-21.0505,-2.44938,1.38012,-16.9335,0.487941,-16.7389,35.0562,-20.9013,4.04734,-16.7749
-2.13425,17.5411,-3.14484,6.96903,-13.2982,1.05335,4.71487,-0.39792,-2.82735,0.587844,-0.651812,1.14427,-1.99384,-0.300713,2.80675,-21.2004,-3.47874,-10.8775,22.9203,-2.59392,5.02247,11.1713,-1.51347,3.24079,3.47873e-16,1.35174e-14,-18.2429,15.4341,-84.543,119.831,0.960351,-18.4602,20.8371,7.12502,7.82619,-8.99805,3.47873e-16,1.35174e-14,-14.8555,-18.4993,89.5637,116.174,3.71561,-14.4114,11.5851,7.12502,11.7324,41.2365,-22.4969,-0.228781,16.0286,39.9582,-20.8752,-2.22939,1.67544,-17.2059,0.964249,-16.7842,35.2984,-21.3032,3.54676,-18.3393
-2.14592,17.5521,-3.15465,7.02257,-13.1123,1.20284,4.7505,-0.378389,-2.8762,0.659702,-0.629238,1.12487,-1.94106,-0.291043,2.8127,-21.2482,-3.47619,-10.9498,22.8514,-2.59119,5.14502,11.1567,-1.50071,3.29764,-3.30976e-14,-9.14409e-15,-18.2271,15.5741,-84.5296,120.647,0.998776,-18.3919,20.9592,7.12502,7.89211,-8.87347,-3.30976e-14,-9.14409e-15,-14.6433,-18.5096,89.7408,116.422,3.72391,-14.1283,11.4408,7.12502,12.0054,41.0765,-22.5983,-0.586144,15.9064,39.9623,-20.6623,-1.93657,1.99351,-17.4252,1.36944,-16.8785,35.5638,-21.666,3.00232,-19.4858
-2.15531,17.565,-3.16694,7.03098,-12.9821,1.25193,4.5936,-0.348771,-2.58077,0.919377,-0.573509,0.918382,-1.59512,-0.274357,2.42633,-21.2814,-3.49088,-10.9237,22.6677,-2.70781,5.49672,11.1075,-1.5019,3.40254,1.62506e-14,9.93923e-15,-17.9011,15.5752,-84.7986,121.533,0.950349,-18.1971,20.9958,7.12502,8.08011,-8.82973,1.62506e-14,9.93923e-15,-14.1291,-18.6876,89.471,116.641,3.85781,-13.873,11.0047,7.12502,12.2515,40.6258,-22.6419,-0.733671,15.8892,39.9431,-20.4108,-1.73855,2.7454,-17.59,1.77184,-16.8626,35.8799,-22.0092,2.70948,-20.7855
-2.16173,17.579,-3.18139,7.03988,-12.8506,1.32951,5.18498,-0.28968,-2.79435,0.628459,-0.518601,1.11547,-2.22501,-0.231228,2.75481,-20.9345,-3.49556,-11.1785,22.8027,-2.6592,5.43849,11.0925,-1.51715,3.43381,-1.74434e-14,-7.95139e-16,-18.2923,15.9833,-84.595,122.566,0.644909,-17.9755,20.9908,7.12502,8.294,-8.82637,-1.74434e-14,-7.95139e-16,-14.5875,-18.6218,90.1577,116.956,3.73255,-13.621,10.6881,7.12502,12.4945,40.2945,-22.7169,-0.778366,15.8313,39.9125,-20.15,-1.7445,3.53227,-17.7633,2.25488,-16.8868,36.2556,-22.2622,2.56314,-21.7263
-2.16475,17.5973,-3.19303,7.07212,-12.741,1.39652,5.38076,-0.287867,-2.8657,0.571927,-0.523467,1.20967,-2.39108,-0.229021,2.89534,-20.685,-3.46652,-11.2469,22.7101,-2.59539,5.32937,11.005,-1.50867,3.41278,-1.03368e-14,-1.11319e-14,-18.1983,16.4886,-84.4649,123.543,0.276589,-17.9247,21.1918,7.12502,8.34297,-8.62349,-1.03368e-14,-1.11319e-14,-14.7111,-18.5732,90.5161,117.291,3.58129,-13.5492,10.7336,7.12502,12.5638,40.3358,-22.8291,-0.910239,15.7853,39.8861,-19.7613,-1.8507,3.05108,-17.9155,2.78625,-16.9214,36.6879,-22.42,2.54284,-22.6085
-2.16403,17.6202,-3.2018,7.0357,-12.7829,1.44416,5.54055,-0.246822,-2.83459,0.576066,-0.470548,1.23212,-2.48012,-0.201371,2.89883,-20.5049,-3.42101,-11.3181,22.6944,-2.5392,5.36163,10.9612,-1.48713,3.44524,-4.57205e-15,-1.03368e-14,-17.8924,17.0255,-84.3913,124.478,-0.150183,-17.8342,21.2488,7.12502,8.43038,-8.56297,-4.57205e-15,-1.03368e-14,-14.7716,-18.56,90.7454,117.641,3.4599,-13.5468,10.8918,7.12502,12.5661,40.4939,-22.8819,-0.925123,15.7196,39.8859,-19.2832,-1.89541,2.54973,-17.899,3.37587,-16.9634,37.1628,-22.5983,2.59181,-23.035
-2.15942,17.647,-3.20791,6.97501,-12.9619,1.59611,5.63697,-0.160721,-2.86308,0.604058,-0.361728,1.16897,-2.51319,-0.146943,2.84208,-20.4699,-3.37224,-11.232,22.8082,-2.50059,5.34142,10.9912,-1.46768,3.43196,1.45113e-14,-2.78299e-15,-17.4233,17.5057,-84.358,125.388,-0.449429,-17.6647,21.2815,7.12502,8.59391,-8.52359,1.45113e-14,-2.78299e-15,-14.7718,-18.5866,90.8552,117.99,3.6306,-13.404,11.1202,7.12502,12.7037,40.7138,-22.9276,-0.91033,15.5041,39.9213,-18.7586,-1.7437,2.77493,-17.8209,3.91193,-17.1386,37.6941,-22.8708,2.58137,-23.0566
-2.15054,17.6739,-3.2167,6.88663,-13.1437,1.81467,5.54765,-0.108224,-2.81188,0.778945,-0.290215,0.977766,-2.28907,-0.11869,2.60846,-20.4996,-3.31527,-11.0138,22.8149,-2.50084,5.38536,10.995,-1.44275,3.41233,1.98785e-14,1.19271e-14,-16.8113,17.8949,-84.4397,126.214,-0.408325,-17.6625,21.4427,7.12502,8.59606,-8.36226,1.98785e-14,1.19271e-14,-14.4849,-18.6646,90.6392,118.272,3.82757,-13.1694,11.1246,7.12502,12.9299,40.704,-23.005,-0.930789,15.2042,39.9964,-18.1229,-1.66042,2.45227,-17.718,4.46437,-17.3996,38.2759,-23.1113,2.65877,-22.8853
-2.13883,17.7024,-3.22992,6.81379,-13.3345,1.94929,5.23044,-0.0996385,-2.50041,1.13176,-0.257518,0.656185,-1.75356,-0.11769,2.09554,-20.5739,-3.25666,-10.7125,22.6927,-2.54961,5.54656,10.9631,-1.41445,3.41218,-4.33848e-14,8.74653e-15,-15.9552,18.1971,-84.7417,126.909,-0.0778635,-17.8929,21.8699,7.12502,8.3737,-7.94411,-4.33848e-14,8.74653e-15,-13.8477,-18.8149,90.0236,118.489,3.84483,-13.0906,10.9496,7.12502,13.0058,40.5241,-23.1417,-0.910856,14.9864,40.0899,-17.3888,-1.60687,1.92044,-17.6238,5.155,-17.5559,38.9202,-23.1475,2.66397,-22.6666
-2.12234,17.7369,-3.24107,6.75632,-13.5081,2.07603,5.76939,-0.071834,-2.78094,0.827629,-0.249267,0.837293,-2.36637,-0.0984569,2.4441,-20.2819,-3.12651,-10.7868,23.062,-2.33354,5.34937,11.0246,-1.3597,3.39265,-7.95139e-16,3.57812e-15,-16.0735,18.9843,-84.5443,127.737,0.120923,-18.0514,22.3453,7.12502,8.22076,-7.4748,-7.95139e-16,3.57812e-15,-14.3431,-18.5688,90.5203,118.744,3.79092,-13.1227,10.8621,7.12502,12.9749,40.4387,-23.3127,-1.0096,14.7625,40.1855,-16.5406,-1.52243,1.33337,-17.5262,5.69814,-17.7031,39.6273,-23.1198,2.73196,-22.6745
-2.10128,17.7753,-3.25163,6.67551,-13.6652,2.15601,6.09226,-0.101358,-2.80707,0.698381,-0.298606,0.894341,-2.67683,-0.115881,2.52455,-20.0014,-2.95336,-10.7489,23.2387,-2.11509,5.25444,11.0148,-1.27671,3.38843,-1.5704e-14,-5.1684e-15,-15.8537,19.7104,-84.4593,128.467,0.346599,-17.8627,22.3568,7.12502,8.40286,-7.456,-1.5704e-14,-5.1684e-15,-14.5918,-18.2458,90.7003,118.928,3.94627,-12.8515,10.6233,7.12502,13.2363,40.1831,-23.4682,-1.09525,14.5587,40.3018,-15.6242,-1.43143,1.41979,-17.3777,6.02508,-17.8035,40.3821,-23.0952,2.8679,-22.1154
-2.07593,17.8164,-3.26169,6.61133,-13.8908,2.14927,6.32785,-0.104617,-2.62085,0.639269,-0.297244,0.883848,-2.8708,-0.11352,2.41074,-19.6875,-2.79765,-10.5983,23.2968,-1.9536,5.14078,10.9579,-1.20911,3.34675,1.00386e-14,-6.75868e-15,-15.4528,20.2767,-84.3895,129.106,0.537665,-17.6547,22.2393,7.12502,8.60355,-7.56543,1.00386e-14,-6.75868e-15,-14.7849,-18.0175,90.749,119.163,4.09388,-12.5627,10.5549,7.12502,13.5147,40.0964,-23.6775,-1.08231,14.4116,40.4993,-14.6261,-1.3165,2.05347,-17.198,6.38152,-17.8313,41.1443,-22.9327,2.92866,-21.4598
-2.04655,17.8583,-3.27238,6.56548,-14.1909,2.25565,6.42604,-0.084594,-2.53979,0.631783,-0.268365,0.854314,-2.93576,-0.0992172,2.33277,-19.507,-2.66862,-10.5493,23.4175,-1.8042,5.11132,10.9533,-1.14554,3.35266,-1.20265e-14,-1.11319e-14,-14.9021,20.7704,-84.2247,129.591,0.844683,-17.7788,22.5777,7.12502,8.48385,-7.23191,-1.20265e-14,-1.11319e-14,-14.8218,-17.8519,90.7967,119.333,4.09954,-12.6053,10.5966,7.12502,13.4737,40.1408,-24.0327,-1.1344,14.1229,40.8209,-13.5533,-1.06476,2.89519,-17.0416,6.77947,-17.9895,41.8839,-22.6363,2.86824,-21.1103
-2.01215,17.8963,-3.28549,6.48428,-14.5046,2.46203,6.43888,-0.0691259,-2.51281,0.72927,-0.248272,0.769933,-2.84388,-0.0925253,2.22817,-19.5784,-2.58777,-10.498,23.5894,-1.70823,5.13436,11.0213,-1.09803,3.37119,4.22417e-14,-1.74931e-14,-14.1206,21.1548,-83.935,130.001,1.1787,-17.7699,22.791,7.12502,8.4924,-7.01823,4.22417e-14,-1.74931e-14,-14.6031,-17.696,90.7028,119.378,4.0638,-12.7072,10.5759,7.12502,13.3754,40.1266,-24.4951,-1.39103,13.7158,41.3013,-12.3148,-0.717701,3.46887,-16.8377,7.03718,-18.2497,42.5947,-22.2261,2.81273,-20.7643
-1.97432,17.9333,-3.29517,6.31949,-14.844,2.74096,6.5572,-0.0518677,-2.57691,0.835021,-0.235343,0.669421,-2.80171,-0.0877946,2.15951,-19.7975,-2.50954,-10.372,23.7824,-1.61499,5.12764,11.125,-1.04764,3.36685,-6.06293e-15,1.98785e-15,-13.3285,21.5348,-83.5497,130.412,1.51081,-17.6288,22.556,7.12502,8.62856,-7.24768,-6.06293e-15,1.98785e-15,-14.4164,-17.4532,90.5913,119.407,4.08779,-12.6532,10.5418,7.12502,13.4275,40.089,-24.9954,-1.68528,13.2019,41.951,-10.9014,-0.343858,3.66528,-16.5313,7.13414,-18.5893,43.2543,-21.5481,2.75749,-20.3604
-1.93363,17.9708,-3.30185,6.19988,-15.1955,2.95682,6.64288,-0.00966652,-2.58355,0.926803,-0.183952,0.584131,-2.75796,-0.0643152,2.07069,-19.9539,-2.39428,-10.1991,23.8699,-1.49584,5.13982,11.1743,-0.976781,3.36328,-3.47873e-15,3.77691e-14,-12.6032,21.8217,-83.2057,130.703,1.55153,-17.654,22.5267,7.12502,8.60423,-7.27792,-3.47873e-15,3.77691e-14,-14.2348,-17.2854,90.5024,119.438,4.14116,-12.5091,10.6639,7.12502,13.5664,40.2019,-25.6457,-1.97595,12.7435,42.7498,-9.31654,-0.0537492,3.57198,-16.2672,7.26063,-18.8515,43.8825,-20.6448,2.32229,-19.3639
-1.89001,18.0076,-3.31633,6.1201,-15.5913,3.12518,6.75412,0.0508347,-2.56446,1.01019,-0.106324,0.526206,-2.73841,-0.0274563,1.99342,-19.8858,-2.27704,-10.0064,23.7293,-1.3745,5.05224,11.0945,-0.912441,3.31337,-1.41137e-14,-2.3059e-14,-11.8501,22.0664,-82.9618,130.858,1.25289,-17.9176,22.7713,7.12502,8.34986,-7.0437,-1.41137e-14,-2.3059e-14,-13.9817,-17.1418,90.3617,119.404,4.1756,-12.5117,10.5594,7.12502,13.5639,40.0976,-26.482,-2.22086,12.3386,43.6863,-7.5934,0.0602971,3.40101,-16.0392,7.3972,-19.0659,44.4887,-19.5742,1.88751,-19.0512
-1.84487,18.0405,-3.33403,6.05213,-16.0505,3.28982,6.90634,0.109715,-2.59848,1.05614,-0.0349721,0.509796,-2.77975,0.00825069,1.98955,-20.0296,-2.20336,-10.1186,23.8673,-1.28584,5.28853,11.1672,-0.854779,3.43769,-3.00165e-14,-3.18055e-15,-11.0715,22.2904,-82.6095,130.928,0.851952,-18.1093,22.9623,7.12502,8.16485,-6.85998,-3.00165e-14,-3.18055e-15,-13.8123,-16.8672,90.2668,119.357,4.17114,-12.5659,10.2263,7.12502,13.5116,39.768,-27.472,-2.37529,11.9323,44.7612,-5.86362,-0.00803619,3.27533,-15.8129,7.39171,-19.2862,45.0798,-18.3196,1.52509,-18.452
-1.79678,18.0621,-3.34601,5.95338,-16.5329,3.46019,7.10683,0.147974,-2.66483,1.01975,0.0053407,0.525911,-2.93151,0.0315494,2.04039,-20.0425,-2.08728,-10.1227,23.9941,-1.13735,5.34214,11.2034,-0.784376,3.48429,2.37548e-14,1.70955e-14,-10.5145,22.526,-82.258,130.99,0.439138,-18.1257,22.7461,7.12502,8.14903,-7.07678,2.37548e-14,1.70955e-14,-13.8037,-16.4628,90.2417,119.369,4.07602,-12.5872,10.4122,7.12502,13.4911,39.9552,-28.5277,-2.59702,11.5169,45.9658,-4.19846,-0.170205,2.81516,-15.5166,7.41262,-19.5194,45.6393,-16.855,1.12141,-17.7528
-1.74876,18.0734,-3.35707,5.78131,-17.0701,3.73254,7.33908,0.240301,-2.87987,0.983075,0.104414,0.540766,-3.10505,0.0861919,2.16769,-19.7788,-1.97472,-9.9552,23.7948,-0.990284,5.09,11.0628,-0.731974,3.37789,-2.14687e-14,1.15295e-14,-10.0939,22.6533,-81.8588,131.1,-0.0929713,-18.1586,22.2415,7.12502,8.11723,-7.58257,-2.14687e-14,1.15295e-14,-13.7109,-16.1113,90.2343,119.387,4.11525,-12.5255,10.7432,7.12502,13.5505,40.2823,-29.6576,-2.78355,11.0056,47.2651,-2.77081,-0.551788,0.886593,-15.1372,7.54695,-19.8511,46.1534,-15.2643,0.666424,-18.2807
-1.70237,18.0771,-3.36704,5.63337,-17.5664,3.94722,7.47032,0.326394,-3.0438,1.02631,0.201933,0.545546,-3.13993,0.136436,2.25527,-19.7839,-1.90768,-9.84884,23.6845,-0.899973,4.98761,11.0136,-0.691423,3.33293,4.08502e-14,-3.97569e-16,-9.53724,22.6522,-81.4335,131.102,-0.756879,-18.255,21.9372,7.12502,8.02418,-7.89052,4.08502e-14,-3.97569e-16,-13.4352,-15.8054,90.07,119.394,4.32487,-12.3054,10.7207,7.12502,13.7627,40.2455,-30.8068,-2.87133,10.561,48.6111,-1.69211,-1.02568,-2.10498,-14.7375,7.60928,-20.0825,46.6073,-13.5234,-0.0744355,-19.1179
-1.65717,18.0703,-3.37684,5.52283,-17.9892,4.02442,7.55142,0.348322,-3.04894,1.10643,0.228797,0.551242,-3.10393,0.148083,2.26134,-19.8479,-1.80505,-9.67775,23.525,-0.786337,4.93244,10.9547,-0.626711,3.29736,-3.8763e-15,-2.46493e-14,-9.02771,22.6197,-81.1384,131.013,-1.36001,-18.3599,21.9169,7.12502,7.923,-7.91464,-3.8763e-15,-2.46493e-14,-13.0969,-15.4975,89.7173,119.466,4.55283,-12.1964,10.767,7.12502,13.8678,40.2847,-31.8971,-2.89042,10.2618,49.9333,-1.06136,-1.45614,-5.145,-14.3355,7.63942,-20.1259,46.9809,-11.6468,-1.02298,-20.1881
-1.61452,18.0451,-3.38632,5.37612,-18.4205,4.17808,7.62179,0.401065,-3.11773,1.15382,0.289973,0.514189,-3.09805,0.178209,2.25541,-19.6894,-1.70541,-9.45526,23.2445,-0.705136,4.83748,10.8114,-0.576266,3.22949,6.16232e-15,1.59028e-15,-8.77643,22.3394,-80.9573,131.001,-1.91492,-18.2818,21.8515,7.12502,7.99839,-7.97714,6.16232e-15,1.59028e-15,-12.7477,-15.2725,89.3358,119.555,4.70767,-12.2367,10.8079,7.12502,13.8289,40.3283,-32.923,-2.92851,9.90986,51.1754,-0.892345,-1.76619,-8.24567,-13.9102,7.79482,-20.2194,47.2623,-10.0738,-2.02891,-20.804
-1.57598,18.0072,-3.39184,5.19059,-18.8315,4.33641,7.69041,0.463602,-3.24612,1.1873,0.359918,0.502001,-3.10671,0.21387,2.30782,-19.4827,-1.59597,-9.311,22.9895,-0.606658,4.8043,10.6683,-0.518476,3.20036,1.38155e-14,1.82882e-14,-8.44825,22.0093,-80.8166,130.87,-2.34027,-18.2443,21.5696,7.12502,8.03452,-8.25767,1.38155e-14,1.82882e-14,-12.3399,-15.0209,88.9831,119.622,4.99962,-12.2691,10.5586,7.12502,13.7977,40.0811,-33.8207,-2.9788,9.58203,52.2802,-0.978179,-1.71735,-9.86639,-13.3723,7.92695,-20.2907,47.4319,-8.88162,-3.02519,-21.1112
-1.53773,17.9567,-3.39529,5.02102,-19.1684,4.4434,7.76684,0.471474,-3.36503,1.22918,0.358948,0.527877,-3.10676,0.214076,2.40162,-19.4755,-1.47456,-9.10974,22.8398,-0.480573,4.73621,10.6002,-0.448167,3.15663,4.27387e-14,1.98785e-14,-8.00724,21.8651,-80.6753,130.531,-2.57685,-18.5177,21.4412,7.12502,7.77065,-8.39605,4.27387e-14,1.98785e-14,-11.8014,-14.7062,88.6047,119.647,5.31212,-12.3635,10.2723,7.12502,13.7067,39.8009,-34.6444,-3.11612,9.33267,53.2139,-1.26002,-1.16866,-8.60125,-12.7954,7.98349,-20.304,47.4589,-8.07771,-3.96911,-21.8772
-1.50007,17.8917,-3.39797,4.88051,-19.4215,4.5728,7.74941,0.484232,-3.48304,1.26176,0.367258,0.534349,-3.06456,0.218189,2.47405,-19.5024,-1.46573,-9.0926,22.7828,-0.507721,4.87711,10.5857,-0.440264,3.20013,2.68359e-15,-5.56597e-15,-7.69069,21.6182,-80.4962,130.107,-2.64203,-18.9822,21.4766,7.12502,7.32229,-8.37674,2.68359e-15,-5.56597e-15,-11.2416,-14.5279,88.2118,119.715,5.53112,-12.65,10.1526,7.12502,13.4305,39.6996,-35.4002,-3.24121,9.06858,53.9514,-1.71059,-0.45731,-6.15495,-12.2209,7.96502,-20.3321,47.3071,-7.66317,-4.97774,-21.6596
-1.46562,17.8201,-3.3993,4.793,-19.5569,4.65575,7.66624,0.460044,-3.57,1.26033,0.331514,0.545588,-3.01771,0.200557,2.53856,-19.5252,-1.44294,-9.01504,22.8357,-0.529886,4.99137,10.6099,-0.430625,3.22708,-5.99336e-14,1.82882e-14,-7.43091,21.2806,-80.4057,129.626,-2.61115,-19.2208,21.4758,7.12502,7.09201,-8.38535,-5.99336e-14,1.82882e-14,-10.7016,-14.3597,87.7834,119.908,5.81731,-12.6001,10.4161,7.12502,13.4787,39.9599,-36.0473,-3.32265,8.84076,54.4866,-2.29216,-0.0648108,-5.36556,-11.6478,7.74971,-20.3126,46.9511,-7.5544,-6.02293,-21.1636
-1.43295,17.7454,-3.39861,4.77647,-19.5187,4.58766,7.65465,0.37742,-3.58102,1.20407,0.224614,0.663785,-3.06249,0.149853,2.67834,-19.5366,-1.36497,-8.9471,22.8552,-0.444078,5.00064,10.6116,-0.384737,3.23205,-4.96962e-16,-3.18055e-15,-7.14814,20.9921,-80.2119,129.027,-2.53459,-19.3071,21.5287,7.12502,7.00867,-8.33523,-4.96962e-16,-3.18055e-15,-10.0811,-14.1445,87.4432,120.045,6.05484,-12.5041,10.6186,7.12502,13.5712,40.1563,-36.5387,-3.48056,8.75109,54.8365,-2.99768,-0.039337,-6.2017,-11.069,7.1836,-20.1498,46.3908,-7.8576,-6.88533,-22.1561
-1.40192,17.6563,-3.39843,4.77479,-19.3635,4.42605,7.5925,0.276235,-3.47981,1.20212,0.104522,0.776341,-3.02108,0.0888923,2.75023,-19.7082,-1.36492,-9.0648,22.9824,-0.463995,5.27069,10.692,-0.372116,3.35225,-4.27387e-14,-2.38542e-15,-6.76159,20.5818,-80.0561,128.361,-2.32633,-19.4235,21.6742,7.12502,6.89637,-8.19349,-4.27387e-14,-2.38542e-15,-9.16837,-13.974,87.0097,120.039,6.28219,-12.6597,10.5781,7.12502,13.4212,40.1257,-36.8825,-3.66856,8.78189,55.0616,-3.75817,-0.127902,-7.9821,-10.4481,6.27955,-19.8936,45.6371,-8.69984,-7.59849,-23.9589
-1.37327,17.547,-3.39746,4.7654,-19.2032,4.33237,7.20577,0.176282,-3.2339,1.3845,0.0028643,0.659847,-2.60923,0.0254433,2.49936,-20.0269,-1.40604,-8.89722,23.0323,-0.622193,5.55663,10.7822,-0.391609,3.41006,-5.75482e-14,2.06736e-14,-6.11238,19.8957,-80.1719,127.602,-2.02024,-19.4373,21.7225,7.12502,6.88301,-8.14562,-5.75482e-14,2.06736e-14,-7.89132,-13.9875,86.1818,120.065,6.54465,-12.6851,10.5463,7.12502,13.3967,40.0956,-37.174,-3.76906,8.72291,55.2369,-4.41712,-0.166972,-8.41835,-9.84754,5.14933,-19.7192,44.8321,-10.3002,-8.50052,-25.8914
-1.34753,17.422,-3.39391,4.75153,-19.0608,4.29534,7.67552,0.234917,-3.95542,0.893916,0.0208064,1.25025,-3.38144,0.0683862,3.52185,-19.8312,-1.49697,-9.2759,23.3592,-0.5905,5.31733,10.867,-0.450315,3.39691,3.12092e-14,0,-6.60194,19.7449,-79.4141,126.996,-1.96715,-19.3981,21.5969,7.12502,6.92088,-8.26994,3.12092e-14,0,-7.81618,-13.8052,86.8247,120.176,6.43932,-12.8064,10.4693,7.12502,13.2798,40.0263,-37.4339,-3.87743,8.59131,55.4715,-5.16393,0.322758,-7.7406,-9.19979,4.02071,-19.6436,44.1406,-12.9509,-9.57095,-28.8881
-1.32148,17.2942,-3.39259,4.68826,-18.7462,4.18776,7.82682,0.198885,-4.08858,0.727316,-0.0380625,1.45961,-3.63392,0.051562,3.82391,-19.7164,-1.54128,-9.28583,23.2715,-0.669262,5.35174,10.8193,-0.481929,3.3965,1.15295e-14,8.74653e-15,-6.75178,19.2939,-79.1166,126.33,-1.86565,-19.4782,21.4938,7.12502,6.84351,-8.3756,1.15295e-14,8.74653e-15,-7.09168,-13.8094,86.7253,120.22,6.46651,-12.8455,10.5822,7.12502,13.2421,40.1416,-37.4937,-4.22339,8.59706,55.8929,-6.39501,1.21319,-6.96503,-8.42931,3.00122,-19.5119,43.7044,-16.1651,-9.95742,-31.9485
-1.29555,17.1822,-3.39169,4.56523,-18.241,4.05403,7.87803,0.0633429,-3.8783,0.736971,-0.202373,1.44816,-3.63729,-0.0334196,3.71086,-19.6558,-1.53639,-8.99466,22.9514,-0.759579,5.37014,10.6949,-0.488389,3.33269,-1.31198e-14,-1.11319e-14,-6.64593,18.6851,-79.1353,125.737,-1.93267,-19.3523,21.2476,7.12502,6.96506,-8.61777,-1.31198e-14,-1.11319e-14,-6.03006,-13.8343,86.2627,120.147,6.35122,-12.7057,10.8698,7.12502,13.3769,40.4204,-37.3017,-4.65979,8.64955,56.5744,-7.94727,1.86875,-5.90339,-7.7427,2.08412,-19.3448,43.5655,-18.9118,-9.55695,-34.3103
-1.27225,17.0655,-3.39057,4.45468,-17.7551,4.11673,7.89466,-0.0561293,-3.94365,0.681768,-0.368017,1.44759,-3.68824,-0.11236,3.7658,-19.5516,-1.56792,-8.93,22.6501,-0.843485,5.43043,10.571,-0.508467,3.32357,1.05356e-14,3.97569e-15,-6.64297,18.2169,-79.1434,125.244,-2.27197,-19.021,20.9027,7.12502,7.28487,-8.95194,1.05356e-14,3.97569e-15,-4.9516,-13.7928,85.844,120.079,6.36456,-12.4817,10.8685,7.12502,13.5928,40.4047,-37.2003,-5.06762,8.48447,57.5228,-9.28246,2.5473,-5.23603,-7.41028,1.37103,-19.423,43.7077,-21.2551,-9.15359,-33.5905
-1.25024,16.9385,-3.39604,4.42524,-17.22,4.23074,8.0462,-0.16332,-4.1041,0.504869,-0.532124,1.45073,-3.94058,-0.181457,3.88165,-19.5721,-1.61972,-9.03575,22.5349,-0.937099,5.65616,10.5414,-0.530266,3.40758,-1.43125e-14,1.51076e-14,-6.8685,17.8698,-79.1868,124.814,-2.5613,-19.1242,20.7159,7.12502,7.18523,-9.14215,-1.43125e-14,1.51076e-14,-3.92143,-13.8181,85.3842,120.19,6.84751,-12.5223,10.6859,7.12502,13.5537,40.2248,-37.3415,-5.6294,8.28617,58.6141,-10.4523,3.63455,-5.36027,-7.41022,0.791074,-19.6365,44.0245,-23.0555,-8.89955,-31.8391
-1.22839,16.823,-3.40672,4.35225,-16.6419,4.36179,8.43652,-0.247005,-4.24511,0.293339,-0.675092,1.43761,-4.36524,-0.234657,3.97274,-19.7093,-1.68135,-9.23602,22.5543,-1.02561,5.95656,10.5839,-0.550045,3.53985,-1.83876e-14,1.11319e-14,-7.21016,17.4928,-79.2562,124.53,-2.72728,-19.2609,20.7133,7.12502,7.05326,-9.14915,-1.83876e-14,1.11319e-14,-2.99423,-13.9211,85.0363,120.329,7.20029,-12.3776,11.0035,7.12502,13.6931,40.533,-37.5611,-6.18471,8.04815,59.6765,-11.762,4.52289,-5.54969,-7.4497,0.400829,-19.9362,44.4181,-24.6133,-8.03068,-31.3037
-1.20699,16.7205,-3.41471,4.22804,-16.1185,4.59976,8.72507,-0.303366,-4.44093,0.18416,-0.784613,1.40006,-4.62891,-0.275757,4.06411,-19.8759,-1.7621,-9.5494,22.51,-1.09018,6.2234,10.6082,-0.571034,3.68118,-2.59414e-14,1.27222e-14,-7.52841,17.0961,-79.3064,124.441,-2.89957,-19.2328,20.9177,7.12502,7.08044,-8.94387,-2.59414e-14,1.27222e-14,-2.05536,-14.0073,84.7721,120.394,7.07035,-11.997,11.0461,7.12502,14.0599,40.5505,-37.8549,-6.72049,7.71712,60.6727,-13.1149,4.71272,-6.18326,-7.49931,0.0670501,-20.3952,44.853,-26.4706,-6.25309,-31.3353
-1.18553,16.6291,-3.42224,4.11358,-15.5952,4.72046,8.95453,-0.338599,-4.4328,0.167581,-0.843941,1.33736,-4.77019,-0.301719,4.0056,-20.0788,-1.90547,-9.8427,22.3723,-1.22614,6.43372,10.6123,-0.627285,3.78576,1.98785e-16,1.35174e-14,-7.86881,16.6719,-79.3208,124.434,-3.07279,-19.3051,21.1047,7.12502,7.01069,-8.7592,1.98785e-16,1.35174e-14,-1.0453,-14.2218,84.5227,120.39,6.66731,-12.1334,10.3552,7.12502,13.9284,39.8687,-38.1596,-7.2974,7.59019,61.6205,-14.2872,4.40272,-6.61844,-7.58492,-0.387449,-20.7723,45.3353,-28.0824,-4.52744,-29.2332
-1.16426,16.5391,-3.43148,4.09033,-15.1172,4.68913,9.24109,-0.349511,-4.28654,0.105058,-0.857607,1.31011,-4.9979,-0.304781,3.90228,-20.2702,-2.03956,-10.0585,22.2008,-1.34865,6.55209,10.6003,-0.681201,3.84429,-4.08502e-14,1.74931e-14,-8.30683,16.2833,-79.3428,124.52,-3.1009,-19.214,21.2764,7.12502,7.09855,-8.5846,-4.08502e-14,1.74931e-14,-0.118846,-14.4342,84.3964,120.288,6.36532,-12.43,9.71413,7.12502,13.6426,39.247,-38.6096,-7.79139,7.67668,62.6279,-15.046,4.00528,-8.34201,-7.68344,-0.65993,-21.0202,45.8255,-29.4547,-2.89621,-27.6527
-1.14528,16.4613,-3.43692,4.22987,-14.7165,4.45149,9.33636,-0.393059,-4.00935,0.152391,-0.886779,1.35463,-5.00189,-0.326168,3.79704,-20.7647,-2.16632,-10.1802,21.9478,-1.4145,6.51965,10.609,-0.713648,3.83953,-3.44891e-14,4.77083e-15,-8.54521,15.9363,-79.3795,124.76,-3.02276,-18.8651,21.304,7.12502,7.43533,-8.54538,-3.44891e-14,4.77083e-15,0.862167,-14.3975,84.2125,120.211,6.31251,-12.3824,9.4002,7.12502,13.6885,38.93,-39.2116,-8.14137,7.97236,63.7125,-15.4468,3.71418,-10.0627,-7.8461,-0.722894,-21.0405,46.2642,-30.6474,-1.15846,-28.1352
-1.13053,16.4088,-3.43477,4.48229,-14.3866,4.09862,9.14056,-0.425453,-3.66363,0.383438,-0.881521,1.40065,-4.65404,-0.343765,3.6415,-21.6391,-2.27872,-10.0905,21.6352,-1.46111,6.39295,10.6617,-0.724628,3.76827,3.53837e-14,-2.06736e-14,-8.55983,15.5972,-79.3634,125.051,-2.86246,-18.8171,21.6056,7.12502,7.48173,-8.24213,3.53837e-14,-2.06736e-14,1.98956,-14.32,83.9057,120.272,6.36924,-12.0983,9.32643,7.12502,13.9623,38.8376,-39.9205,-8.3895,8.36698,64.8415,-15.6011,3.42041,-9.21116,-8.03505,-0.899057,-20.938,46.5732,-31.5447,0.426463,-28.012
-1.11799,16.3714,-3.42755,4.71793,-13.964,3.84295,8.92175,-0.450947,-3.40767,0.558914,-0.879044,1.4354,-4.35106,-0.357455,3.5258,-22.4512,-2.33534,-10.1371,21.5282,-1.48162,6.58781,10.777,-0.700294,3.84792,-2.50469e-14,-1.03368e-14,-8.58641,15.2776,-79.3868,125.409,-2.56424,-18.9779,21.8065,7.12502,7.32651,-8.0466,-2.50469e-14,-1.03368e-14,2.90278,-14.3658,83.7231,120.383,6.46161,-11.8057,9.25225,7.12502,14.2442,38.7438,-40.6611,-8.71641,8.63139,66.0156,-15.4224,2.94112,-8.36738,-8.15696,-1.39458,-20.9042,46.6827,-32.235,1.57131,-27.1619
-1.10801,16.3383,-3.41841,4.76361,-13.4257,3.72112,8.86402,-0.471587,-3.3046,0.675968,-0.891165,1.49151,-4.19608,-0.370279,3.52488,-22.801,-2.45731,-10.2685,21.319,-1.57615,6.64951,10.7761,-0.737592,3.87479,4.57205e-14,-1.19271e-14,-8.51838,14.9307,-79.4507,125.902,-2.42975,-18.6747,21.4683,7.12502,7.61917,-8.37448,4.57205e-14,-1.19271e-14,3.48442,-14.5733,83.8095,120.555,6.45134,-11.6882,9.2915,7.12502,14.3574,38.775,-41.2739,-9.07509,8.67075,67.2464,-14.7011,2.5895,-9.39482,-8.03474,-2.00732,-20.9055,46.5745,-32.8337,2.10054,-26.6138
-1.10118,16.3159,-3.4073,4.7135,-12.8049,3.54703,8.84627,-0.521571,-3.1619,0.814985,-0.939704,1.55204,-4.03821,-0.402037,3.51089,-22.9336,-2.5869,-10.2386,21.0111,-1.69998,6.48573,10.6985,-0.80417,3.78222,8.34896e-15,-2.06736e-14,-8.53156,14.5847,-79.5727,126.372,-2.4433,-18.4034,21.4692,7.12502,7.88096,-8.36387,8.34896e-15,-2.06736e-14,3.91381,-14.884,83.8817,120.784,6.31249,-11.7267,9.67763,7.12502,14.3203,39.1638,-41.7824,-9.40831,8.68044,68.5232,-13.5151,2.37148,-10.6188,-7.74161,-2.60302,-20.7467,46.2935,-33.3155,2.29083,-26.1021
-1.10045,16.3077,-3.39261,4.68999,-12.1118,3.40662,8.73626,-0.608122,-3.21368,0.924092,-1.05031,1.69533,-3.85015,-0.460913,3.69912,-23.0012,-2.60085,-10.3946,20.8626,-1.6866,6.61999,10.6578,-0.790143,3.85653,-4.11484e-14,-4.77083e-15,-8.65355,14.4199,-79.5401,126.727,-2.40998,-18.6386,21.7285,7.12502,7.65396,-8.11295,-4.11484e-14,-4.77083e-15,4.27208,-15.1013,84.0309,120.868,6.14729,-11.7606,9.60361,7.12502,14.2877,39.0921,-42.3215,-9.84772,8.59055,69.7999,-11.9383,2.28545,-10.3362,-7.47786,-3.17814,-20.5458,45.9021,-33.6064,2.35322,-26.1807
-1.10692,16.3116,-3.37665,4.70344,-11.4299,3.26399,8.60945,-0.707033,-3.53034,0.998255,-1.19506,2.02324,-3.67596,-0.531428,4.23454,-22.9329,-2.59997,-10.8263,20.6846,-1.58502,6.81446,10.5761,-0.752014,4.01081,-3.1408e-14,-1.27222e-14,-8.5996,14.505,-79.2104,127.024,-2.68906,-18.6987,21.7581,7.12502,7.59599,-8.0855,-3.1408e-14,-1.27222e-14,4.56918,-15.0361,84.3931,120.988,6.00076,-11.3024,9.67312,7.12502,14.7292,39.1298,-42.9605,-10.2659,8.46555,71.0005,-10.012,2.13163,-10.4084,-7.29763,-3.66354,-20.2826,45.4486,-33.6922,2.35375,-26.7102
-1.12071,16.3297,-3.35684,4.6816,-10.7275,3.0953,8.74528,-0.838229,-3.67058,0.942165,-1.37999,2.19879,-3.78437,-0.616284,4.52431,-22.8526,-2.62605,-11.0411,20.6481,-1.59314,6.96586,10.5522,-0.754708,4.09975,-2.0276e-14,-3.33958e-14,-8.83109,14.6236,-79.2326,127.409,-3.25405,-18.4606,21.635,7.12502,7.82581,-8.20014,-2.0276e-14,-3.33958e-14,4.6134,-15.1046,84.6011,121.209,5.70633,-10.8054,10.032,7.12502,15.2079,39.4531,-43.5343,-10.5544,8.31713,72.0648,-7.77801,1.88002,-10.422,-7.04776,-4.01748,-19.9201,44.9215,-33.6528,1.95194,-26.4992
-1.13845,16.3615,-3.33017,4.65027,-10.0679,2.97517,8.87836,-0.895082,-3.84578,0.855716,-1.47203,2.31462,-3.9319,-0.652726,4.76235,-22.5994,-2.68389,-11.0225,20.5302,-1.69034,6.90064,10.4725,-0.806845,4.05253,2.38542e-15,-2.06736e-14,-9.10247,14.6477,-79.3172,127.751,-3.67615,-18.4528,21.5174,7.12502,7.83336,-8.31753,2.38542e-15,-2.06736e-14,4.48744,-15.4896,84.886,121.279,5.41186,-10.7891,9.64351,7.12502,15.2237,39.0634,-44.0073,-10.7164,8.05867,72.9518,-5.43743,1.6981,-9.18342,-6.72643,-4.23436,-19.5932,44.3477,-33.4372,1.25015,-26.0297
-1.16136,16.4026,-3.30086,4.61203,-9.48775,2.97191,8.71841,-0.933571,-4.03221,0.92057,-1.53739,2.27672,-3.76374,-0.688529,4.82952,-22.2972,-2.75911,-10.7667,20.2218,-1.86402,6.72048,10.3188,-0.88611,3.90727,2.40529e-14,-1.90833e-14,-9.03702,14.556,-79.4798,127.958,-3.96019,-18.5006,21.6232,7.12502,7.78718,-8.21344,2.40529e-14,-1.90833e-14,4.62467,-15.9955,84.9293,121.18,5.24548,-11.1343,8.75347,7.12502,14.8911,38.1983,-44.4822,-10.7808,7.67939,73.6693,-3.07406,1.46853,-8.36919,-6.34994,-4.24965,-19.4128,43.7259,-32.9891,1.25749,-27.7444
-1.18955,16.4548,-3.27328,4.59875,-8.88391,2.92133,8.7557,-1.02649,-4.25888,0.885921,-1.68346,2.29481,-3.79725,-0.755738,4.99608,-22.1184,-2.79365,-10.7037,20.1217,-1.97189,6.80222,10.2605,-0.921383,3.90705,-2.08724e-14,4.77083e-15,-9.10427,14.7092,-79.6676,128.19,-4.17619,-18.3754,21.4257,7.12502,7.90803,-8.40638,-2.08724e-14,4.77083e-15,4.60595,-16.3536,84.946,121.219,5.12206,-11.3536,8.08583,7.12502,14.6798,37.5461,-44.9166,-10.7905,7.39122,74.1794,-0.554817,0.986002,-7.60977,-6.00668,-4.2185,-19.1431,43.0544,-32.2711,1.15773,-29.745
-1.22064,16.5308,-3.23832,4.61891,-8.33965,2.72116,8.78235,-1.13255,-4.34275,0.843847,-1.8327,2.32291,-3.8351,-0.826284,5.09217,-22.0498,-2.79208,-10.6733,20.1724,-2.04758,7.03218,10.2752,-0.927877,3.9759,7.95139e-16,1.03368e-14,-9.18531,15.0152,-79.934,128.436,-4.17378,-18.5322,21.0933,7.12502,7.75669,-8.74442,7.95139e-16,1.03368e-14,4.5374,-16.6805,84.84,121.369,4.9709,-11.3974,7.86222,7.12502,14.6376,37.3256,-45.2236,-10.6741,7.31798,74.4272,1.98045,0.500545,-7.46578,-5.71506,-4.34208,-18.6872,42.3412,-31.0774,-0.703814,-27.2022
-1.25487,16.6241,-3.1956,4.59054,-7.90607,2.51884,8.77482,-1.16698,-4.41871,0.871355,-1.88483,2.33645,-3.79303,-0.852808,5.15457,-22.1475,-2.85249,-10.5492,20.2858,-2.18596,7.10715,10.3471,-0.972915,3.96524,-2.06736e-14,1.59028e-15,-9.19547,15.2475,-80.1242,128.69,-4.10383,-18.7214,20.9113,7.12502,7.57409,-8.93306,-2.06736e-14,1.59028e-15,4.57273,-17.0698,84.778,121.503,4.63988,-11.1461,7.97901,7.12502,14.8798,37.4247,-45.3573,-10.4175,7.27067,74.4353,4.44829,0.219272,-7.02142,-5.35958,-4.46219,-18.2775,41.6118,-29.2664,-3.01532,-22.004
-1.28971,16.7222,-3.15002,4.58902,-7.46489,2.27503,8.75804,-1.19045,-4.39712,0.883944,-1.91231,2.35805,-3.76714,-0.867731,5.16716,-22.1578,-2.96205,-10.4925,20.326,-2.37541,7.17333,10.3827,-1.04773,3.95225,-1.43125e-14,9.54166e-15,-9.2468,15.4432,-80.2119,128.948,-3.97413,-18.7242,21.0149,7.12502,7.57139,-8.82963,-1.43125e-14,9.54166e-15,4.62053,-17.3947,84.7926,121.589,4.14506,-10.7306,8.10404,7.12502,15.28,37.5196,-45.4131,-10.088,7.29028,74.2606,6.58559,0.0612327,-5.94561,-5.00671,-4.51603,-17.8518,40.8929,-27.5139,-4.05563,-19.763
-1.32447,16.8199,-3.10072,4.5656,-7.08715,2.0029,8.73675,-1.20781,-4.26542,0.846739,-1.92239,2.34818,-3.79756,-0.873033,5.08297,-21.8866,-3.06977,-10.6055,20.2972,-2.58318,7.4346,10.3488,-1.12445,4.03357,-6.26172e-15,2.3059e-14,-9.45572,15.6608,-80.3343,129.221,-3.59212,-18.7448,21.2086,7.12502,7.55144,-8.63663,-6.26172e-15,2.3059e-14,4.5559,-17.7231,84.788,121.673,3.79794,-10.6616,8.19277,7.12502,15.3465,37.6033,-45.3541,-9.64489,7.37315,73.9175,8.0437,-0.37186,-6.33256,-4.58146,-4.70918,-17.4477,40.1727,-26.2258,-3.98807,-22.4456
-1.36258,16.9167,-3.05059,4.49338,-6.75365,1.80159,8.73153,-1.19513,-4.21885,0.820183,-1.90343,2.28499,-3.82829,-0.86317,4.98819,-21.5899,-3.16378,-10.6692,20.3221,-2.79968,7.71874,10.3308,-1.20026,4.1153,-3.21037e-14,1.35174e-14,-9.60156,15.7901,-80.414,129.427,-3.12876,-18.5255,21.1286,7.12502,7.76319,-8.70887,-3.21037e-14,1.35174e-14,4.56818,-18.1213,84.7431,121.719,3.45311,-10.6475,8.30401,7.12502,15.3601,37.7135,-45.193,-9.23652,7.46814,73.4079,8.31937,-1.38388,-8.79149,-4.14683,-5.13606,-17.144,39.4989,-24.8633,-4.01488,-25.4967
-1.39996,17.0141,-2.99522,4.45468,-6.43702,1.69393,8.68472,-1.19423,-4.23524,0.796556,-1.90596,2.19209,-3.82914,-0.864168,4.89873,-21.4657,-3.26482,-10.7145,20.4319,-3.00752,7.96527,10.3742,-1.27353,4.1845,-2.50469e-14,7.95139e-15,-9.59271,15.9939,-80.3508,129.533,-2.58842,-18.3829,20.9946,7.12502,7.90079,-8.83778,-2.50469e-14,7.95139e-15,4.5821,-18.4224,84.703,121.708,2.79116,-10.7845,8.60819,7.12502,15.2281,38.0277,-44.9714,-8.92094,7.51897,72.6943,7.36711,-2.96095,-10.4371,-3.77402,-5.65175,-16.9571,38.8827,-23.2203,-4.30476,-26.7752
-1.43864,17.1157,-2.9346,4.47461,-6.23807,1.64675,8.49505,-1.15089,-4.30596,0.800831,-1.85238,2.08142,-3.72622,-0.840294,4.80951,-21.3886,-3.39566,-10.7627,20.5093,-3.23823,8.16604,10.4173,-1.36166,4.23321,6.06293e-15,3.57812e-15,-9.45973,16.2271,-80.1306,129.537,-1.8382,-18.5128,21.0581,7.12502,7.77545,-8.77894,6.06293e-15,3.57812e-15,4.57396,-18.6856,84.6857,121.628,1.9787,-10.9919,8.87237,7.12502,15.0283,38.307,-44.7515,-8.5482,7.56618,71.7312,5.77452,-4.76468,-9.61839,-3.44835,-6.06494,-16.8524,38.317,-21.5054,-4.53377,-27.3421
-1.47936,17.2209,-2.87631,4.46187,-6.0787,1.5021,8.41554,-1.10693,-4.30429,0.800551,-1.79344,2.01113,-3.69107,-0.812478,4.72545,-21.262,-3.51338,-10.8674,20.5629,-3.4383,8.37317,10.4413,-1.44022,4.29773,-5.76476e-15,-2.0276e-14,-9.37286,16.4358,-79.8965,129.589,-1.18743,-18.3589,21.1356,7.12502,7.92392,-8.69588,-5.76476e-15,-2.0276e-14,4.51192,-18.8199,84.6535,121.631,1.4126,-10.9348,8.79187,7.12502,15.0833,38.2223,-44.4245,-8.08119,7.7902,70.4662,3.94512,-6.37969,-6.89674,-3.13772,-6.5338,-16.6549,37.7784,-19.7256,-4.68207,-27.7672
-1.5229,17.3298,-2.81709,4.53189,-5.93351,1.30216,8.2635,-1.08821,-4.25595,0.815478,-1.76025,1.95644,-3.5974,-0.800092,4.63142,-21.2815,-3.63204,-10.9041,20.6351,-3.62916,8.50976,10.496,-1.51478,4.32704,1.3418e-14,-1.55052e-14,-9.18689,16.632,-79.6721,129.592,-0.79348,-18.1144,21.3464,7.12502,8.15993,-8.476,1.3418e-14,-1.55052e-14,4.55659,-18.8467,84.6073,121.646,1.10855,-10.9372,8.48654,7.12502,15.081,37.9172,-44.0942,-7.55793,8.11143,68.9023,2.02276,-7.91988,-4.33847,-2.98268,-7.01367,-16.3805,37.2542,-17.8101,-4.9365,-28.0235
-1.56768,17.4382,-2.75402,4.5572,-5.81814,1.21846,8.11471,-1.06099,-4.28405,0.860701,-1.72467,1.84412,-3.47366,-0.787116,4.51978,-21.4132,-3.74858,-10.938,20.773,-3.82217,8.69567,10.5972,-1.58238,4.37588,2.22142e-14,-2.14687e-14,-8.85591,16.8235,-79.3863,129.347,-0.383765,-18.2076,21.6154,7.12502,8.06996,-8.21052,2.22142e-14,-2.14687e-14,4.63313,-18.8849,84.5807,121.606,0.748885,-11.2485,8.32347,7.12502,14.7811,37.7764,-43.6318,-7.02528,8.28414,67.0483,0.300283,-9.61907,-3.04711,-2.80636,-7.37466,-16.2352,36.7373,-15.8252,-5.24811,-27.9944
-1.61268,17.5425,-2.68911,4.54957,-5.75439,1.17304,8.1158,-1.0213,-4.35174,0.810774,-1.68286,1.72617,-3.53247,-0.763276,4.43127,-21.4506,-3.83018,-11.0407,21.0023,-3.97571,8.94251,10.7135,-1.63294,4.46788,-5.2181e-15,1.63003e-14,-8.61907,16.9861,-79.1041,128.922,0.230218,-18.2953,21.7078,7.12502,7.98534,-8.12135,-5.2181e-15,1.63003e-14,4.54634,-18.921,84.5944,121.576,0.430395,-11.5528,8.44379,7.12502,14.4879,37.918,-43.0983,-6.4527,8.39958,64.9428,-1.37344,-11.1742,-2.64322,-2.56098,-7.67881,-16.1567,36.2346,-13.8308,-5.34148,-27.147
-1.65725,17.6433,-2.6278,4.59911,-5.70986,1.03091,8.16588,-1.00818,-4.32407,0.737932,-1.66853,1.65288,-3.64092,-0.752384,4.34037,-21.6466,-3.90361,-11.1433,21.319,-4.10198,9.17343,10.8893,-1.67007,4.56183,3.76697e-14,-2.38542e-15,-8.30341,17.136,-78.7657,128.393,0.752626,-18.266,21.9378,7.12502,8.01357,-7.89025,3.76697e-14,-2.38542e-15,4.44521,-18.806,84.5935,121.62,0.293209,-11.5963,8.54373,7.12502,14.446,38.0209,-42.6002,-5.81767,8.6331,62.6006,-2.89452,-12.3051,-2.15998,-2.40025,-8.0117,-15.9745,35.778,-12.0722,-5.29467,-26.7201
-1.69981,17.7317,-2.56625,4.69393,-5.6147,0.839147,8.13387,-1.04005,-4.18806,0.701419,-1.69992,1.59582,-3.66338,-0.769049,4.20656,-21.9863,-3.96216,-11.2894,21.6755,-4.19661,9.46869,11.1076,-1.68536,4.69538,8.10048e-15,1.53064e-14,-7.79904,17.2766,-78.3455,127.788,0.94703,-18.2564,22.0046,7.12502,8.02289,-7.82316,8.10048e-15,1.53064e-14,4.45941,-18.6473,84.5616,121.727,0.35019,-11.6729,8.74933,7.12502,14.3722,38.2318,-42.1009,-5.21714,8.88687,60.0717,-4.07034,-12.8691,-0.520107,-2.32688,-8.33043,-15.7466,35.4039,-10.7405,-5.16026,-27.4322
-1.73994,17.8062,-2.50367,4.7879,-5.52059,0.657373,8.11862,-1.09139,-3.99816,0.65316,-1.75332,1.53521,-3.70715,-0.796795,4.04175,-22.1794,-3.98227,-11.4441,21.851,-4.23443,9.74302,11.2249,-1.67941,4.82675,-3.8266e-15,-6.55989e-15,-7.22575,17.4151,-77.8908,127.093,1.00045,-18.2124,21.9578,7.12502,8.06536,-7.86831,-3.8266e-15,-6.55989e-15,4.42445,-18.4621,84.5608,121.903,0.480095,-11.8286,8.95737,7.12502,14.2222,38.4504,-41.5658,-4.65737,9.07032,57.4029,-4.80383,-13.1026,1.73332,-2.26426,-8.5228,-15.551,35.1477,-9.63299,-4.92571,-27.527
-1.77939,17.8682,-2.44142,4.80183,-5.39416,0.533645,8.17171,-1.16282,-3.85648,0.650568,-1.83967,1.47778,-3.73733,-0.841416,3.91248,-22.307,-3.99231,-11.6182,21.8844,-4.23792,9.97559,11.2722,-1.66471,4.94669,-9.16894e-15,-2.5842e-15,-6.5697,17.5146,-77.3404,126.258,1.02129,-18.2012,22.0629,7.12502,8.07619,-7.76275,-9.16894e-15,-2.5842e-15,4.44856,-18.1772,84.5145,122.033,0.753626,-12.0315,8.72583,7.12502,14.0267,38.2325,-40.9336,-4.12344,9.13326,54.644,-4.92528,-13.0226,1.85124,-2.14621,-8.78435,-15.4514,34.9902,-8.60022,-4.44716,-26.1644
-1.8179,17.9157,-2.37914,4.76457,-5.13364,0.397894,8.44022,-1.2874,-3.72966,0.553637,-2.00332,1.494,-3.9768,-0.916634,3.88706,-22.3521,-3.9697,-11.7954,21.9418,-4.14759,9.99862,11.2954,-1.63585,5.00291,-2.95941e-14,1.39149e-14,-5.9504,17.6683,-76.6413,125.331,0.997325,-18.3357,21.9967,7.12502,7.94636,-7.83392,-2.95941e-14,1.39149e-14,4.35284,-17.8607,84.5776,122.205,1.0532,-12.1532,8.89404,7.12502,13.9094,38.4088,-40.2437,-3.69753,9.20012,51.828,-4.29989,-12.5484,-0.150651,-2.03784,-9.11716,-15.3292,34.924,-7.91761,-3.94217,-25.4057
-1.85295,17.9512,-2.3155,4.77371,-4.94726,0.0972058,8.90421,-1.40006,-3.45729,0.276656,-2.13921,1.60149,-4.51917,-0.969561,3.88565,-22.2994,-3.88054,-11.6583,22.0797,-3.97587,9.60099,11.3023,-1.59831,4.85976,7.42958e-15,1.2921e-14,-5.49597,17.8445,-75.871,124.442,0.99125,-18.3687,21.6608,7.12502,7.91452,-8.17105,7.42958e-15,1.2921e-14,3.97352,-17.5593,84.8095,122.501,1.29236,-12.2681,9.47326,7.12502,13.7986,38.9956,-39.6279,-3.2546,9.41074,48.9779,-3.26751,-11.728,-2.05201,-1.9406,-9.24794,-15.0446,34.9292,-7.75154,-3.58662,-25.928
-1.88427,17.9748,-2.24971,4.87888,-4.95541,-0.154917,7.77878,-1.45642,-2.89435,0.990212,-2.13327,1.40932,-3.17444,-1.01972,3.30638,-22.6181,-3.89282,-11.0487,21.3416,-4.01706,9.20117,11.0685,-1.59873,4.57345,-6.08778e-15,-1.49089e-14,-3.47864,17.2924,-75.0434,123.343,0.970829,-18.3774,21.3654,7.12502,7.9061,-8.46673,-6.08778e-15,-1.49089e-14,5.3857,-17.4141,84.142,122.564,1.6583,-12.501,9.64009,7.12502,13.5742,39.1776,-39.1788,-2.7925,9.53206,46.1282,-1.85109,-10.5868,-3.23152,-1.87919,-9.21822,-14.8809,35.0102,-8.0832,-3.59192,-26.6623
-1.91421,17.9804,-2.18455,4.94345,-4.9314,-0.257957,7.37602,-1.50543,-2.66264,1.22955,-2.1705,1.35595,-2.70977,-1.0535,3.10364,-22.7,-3.8654,-10.747,21.0175,-3.97093,8.88199,10.9439,-1.58687,4.39966,-1.09829e-14,8.44835e-15,-2.04454,16.9875,-74.1891,122.254,0.716908,-18.3685,21.0241,7.12502,7.91469,-8.80774,-1.09829e-14,8.44835e-15,6.00399,-17.1947,83.9783,122.665,1.85995,-12.7937,9.76094,7.12502,13.292,39.3171,-38.7654,-2.48738,9.53297,43.3291,0.0159218,-9.46264,-4.22956,-1.7973,-9.26812,-14.9038,35.1177,-8.68497,-4.36357,-26.9697
-1.94561,17.9683,-2.12231,4.98215,-4.83577,-0.388677,7.65843,-1.59,-2.6815,0.992928,-2.28541,1.55418,-3.09508,-1.09903,3.34711,-22.6579,-3.8106,-11.0967,21.2943,-3.82257,9.00092,11.0317,-1.53778,4.5361,9.69075e-16,1.11319e-14,-1.19961,17.0613,-73.1989,121.099,0.390502,-18.42,20.9441,7.12502,7.86497,-8.88956,9.69075e-16,1.11319e-14,5.86695,-16.8681,84.3618,122.802,1.83234,-12.9987,10.0131,7.12502,13.0945,39.582,-38.3974,-2.21749,9.60369,40.6794,2.00681,-8.6182,-4.23885,-1.7225,-9.2197,-14.8514,35.1891,-9.44245,-5.91766,-27.0477
-1.97945,17.9483,-2.06047,5.02707,-4.84537,-0.494725,7.6378,-1.62277,-2.66748,0.961195,-2.32514,1.62623,-3.11098,-1.11795,3.4179,-22.8563,-3.773,-11.4132,21.5803,-3.76026,9.40762,11.1837,-1.4849,4.76483,7.95139e-16,-2.43511e-14,-0.216871,16.8352,-72.3562,119.876,0.0284538,-18.5853,20.9236,7.12502,7.70541,-8.91603,7.95139e-16,-2.43511e-14,6.20102,-16.7005,84.4679,122.836,1.78862,-12.9586,10.0548,7.12502,13.1331,39.6213,-38.1655,-1.89683,9.67979,38.2714,3.98002,-8.13938,-3.62855,-1.59144,-8.9684,-14.8245,35.1813,-10.1976,-7.64287,-27.1522
-2.01488,17.9192,-1.99974,5.00951,-4.90917,-0.341773,7.55649,-1.62486,-2.87927,1.04998,-2.34578,1.54974,-2.96666,-1.13045,3.45419,-23.0352,-3.74163,-11.2354,21.5532,-3.73483,9.3245,11.1983,-1.46434,4.70715,-1.37161e-14,9.83984e-15,0.901403,16.431,-71.7431,118.639,-0.346013,-18.5893,20.8053,7.12502,7.70159,-9.03445,-1.37161e-14,9.83984e-15,6.74409,-16.654,84.3868,122.81,1.74775,-13.0598,9.84481,7.12502,13.0355,39.4175,-37.9911,-1.68553,9.51182,36.2014,5.64572,-7.91771,-3.79699,-1.38658,-8.7511,-15.1152,35.0739,-10.5652,-9.42505,-26.6131
-2.05009,17.8751,-1.93933,4.98453,-5.01872,-0.14834,7.84919,-1.61223,-3.17264,0.830915,-2.36436,1.49368,-3.3463,-1.12465,3.58048,-22.7146,-3.65725,-10.7664,21.4505,-3.67444,8.80595,11.0712,-1.46752,4.43587,1.11319e-14,-2.98177e-15,1.61799,16.2429,-71.2899,117.363,-0.681441,-18.6537,20.6751,7.12502,7.63939,-9.16692,1.11319e-14,-2.98177e-15,6.81283,-16.635,84.5082,122.776,1.67674,-13.0875,9.77382,7.12502,13.0089,39.3482,-37.9575,-1.63653,9.39496,34.5579,6.89858,-7.91345,-3.68255,-1.12479,-8.47669,-15.4725,34.8373,-10.6244,-11.2037,-26.3729
-2.08195,17.8182,-1.88127,5.00641,-5.17159,-0.0360007,7.87745,-1.5566,-3.39266,0.741824,-2.31083,1.49876,-3.45027,-1.09117,3.70798,-22.7007,-3.63962,-10.6848,21.603,-3.68864,8.80363,11.1252,-1.46932,4.42359,-1.96051e-14,-3.27995e-14,2.49769,15.9644,-70.6735,116.117,-1.16551,-18.8276,20.557,7.12502,7.47159,-9.29106,-1.96051e-14,-3.27995e-14,7.22691,-16.6759,84.6411,122.727,1.56838,-12.8369,10.1156,7.12502,13.2504,39.6745,-38.1347,-1.76271,9.52009,33.4249,7.5161,-8.25186,-1.58574,-0.807013,-8.14706,-15.8022,34.4781,-10.7392,-12.4947,-27.5318
-2.11401,17.7537,-1.82493,5.04467,-5.35286,0.0731135,7.19198,-1.5531,-3.27851,1.15994,-2.28178,1.21456,-2.65263,-1.10419,3.30842,-23.2546,-3.67633,-10.7645,21.7177,-3.85962,9.54206,11.3108,-1.45043,4.69674,-2.92213e-14,4.57205e-15,4.12146,15.2838,-70.4739,114.791,-1.53046,-19.0552,20.4795,7.12502,7.25189,-9.37626,-2.92213e-14,4.57205e-15,8.56106,-16.7793,84.0385,122.531,1.6195,-12.6452,10.3326,7.12502,13.4352,39.8794,-38.449,-2.07338,9.84841,32.7785,7.58204,-8.9206,0.405912,-0.497487,-7.77585,-16.135,34.1029,-10.7382,-13.3993,-29.1653
-2.14742,17.6814,-1.76958,5.06043,-5.59467,0.228096,7.49396,-1.51846,-3.57906,0.902509,-2.27178,1.22105,-3.07668,-1.0823,3.50121,-23.273,-3.62607,-10.885,22.0605,-3.80726,9.69507,11.4429,-1.42092,4.79708,-7.1811e-15,-8.69683e-15,4.83039,15.1502,-70.1451,113.688,-1.84025,-19.2864,20.4415,7.12502,7.02871,-9.42183,-7.1811e-15,-8.69683e-15,8.76133,-16.7509,84.1735,122.316,1.5177,-12.6684,10.0632,7.12502,13.4128,39.6114,-38.8588,-2.56257,10.2924,32.5744,7.39298,-10.0381,1.21717,-0.222093,-7.41657,-16.5336,33.8637,-10.8606,-13.7489,-31.502
-2.17884,17.6012,-1.71369,5.0474,-5.83703,0.369854,7.34295,-1.49873,-3.68416,0.950411,-2.25191,1.10879,-2.94487,-1.07563,3.43506,-23.1443,-3.59019,-10.807,21.8535,-3.80676,9.77021,11.3405,-1.40561,4.80448,-1.83876e-14,8.49804e-15,5.66947,14.7941,-69.9551,112.797,-2.09349,-19.4034,20.2553,7.12502,6.91574,-9.61176,-1.83876e-14,8.49804e-15,9.41143,-16.6747,83.9985,122.049,1.6217,-12.414,9.43685,7.12502,13.658,38.9687,-39.2615,-3.11586,10.7928,32.7754,6.8678,-11.5436,3.04042,0.133074,-7.12929,-16.9517,33.8643,-11.3953,-13.0765,-25.5151
-2.21038,17.5176,-1.65822,5.02277,-6.07265,0.461194,7.24553,-1.49657,-3.7963,0.98743,-2.25565,1.05449,-2.84964,-1.07944,3.43761,-23.2102,-3.54188,-10.7817,21.7822,-3.76652,9.88115,11.3231,-1.36927,4.8473,-1.56543e-14,-4.77083e-15,6.45573,14.5525,-69.7834,112.05,-2.26807,-19.5294,20.0138,7.12502,6.79413,-9.85719,-1.56543e-14,-4.77083e-15,10.1171,-16.4944,83.8326,121.754,1.97114,-12.1012,8.8539,7.12502,13.9595,38.3653,-39.6571,-3.62305,11.3739,33.3584,6.43587,-12.6903,5.70262,0.557115,-6.85912,-17.2741,34.1363,-11.8895,-11.6312,-22.3115
-2.24222,17.4262,-1.6027,4.95024,-6.29231,0.556552,7.48367,-1.45075,-4.17303,0.846669,-2.23125,1.2124,-3.11002,-1.05337,3.82425,-23.2295,-3.50751,-10.8893,21.8907,-3.657,9.78467,11.3539,-1.34169,4.85084,1.16165e-14,6.4605e-15,6.75007,14.53,-69.345,111.594,-2.2833,-19.8152,19.894,7.12502,6.5182,-9.98571,1.16165e-14,6.4605e-15,10.5975,-16.414,84.0025,121.506,2.03871,-12.0206,8.86764,7.12502,14.0371,38.3736,-40.0443,-4.34957,12.0972,34.2828,7.18241,-12.1339,9.14446,0.974715,-6.51072,-17.543,34.6243,-12.6971,-10.5555,-22.6005
-2.27516,17.322,-1.54919,4.76403,-6.36777,0.596202,7.53757,-1.46128,-4.27706,0.900051,-2.25511,1.21811,-3.07815,-1.06585,3.89185,-23.1437,-3.4805,-10.8938,21.7778,-3.64549,9.87921,11.296,-1.32599,4.88507,5.69021e-15,-1.44119e-14,6.95875,14.2831,-69.236,111.341,-2.12099,-20.0899,19.8695,7.12502,6.25303,-10.0182,5.69021e-15,-1.44119e-14,11.2365,-16.4636,83.8781,121.225,1.84305,-11.9929,9.15151,7.12502,14.0638,38.6557,-40.319,-5.31964,12.9351,35.4824,8.73724,-9.26878,12.7822,1.50743,-6.15866,-17.7388,35.211,-14.2748,-10.2358,-22.3545
-2.30735,17.2178,-1.49776,4.61803,-6.35602,0.632039,7.84644,-1.49789,-4.43389,0.725137,-2.33036,1.29506,-3.41585,-1.08799,4.08428,-22.7779,-3.4599,-10.7774,21.662,-3.61629,9.6043,11.1715,-1.34438,4.75812,2.07481e-15,-5.76476e-15,6.9116,14.1137,-69.295,111.297,-1.70321,-19.8916,19.8999,7.12502,6.44443,-9.98203,2.07481e-15,-5.76476e-15,11.3191,-16.4808,84.0237,121.008,1.65784,-11.883,9.23589,7.12502,14.1698,38.7326,-40.6383,-6.05308,13.5617,36.8789,9.31767,-5.84083,13.543,1.99138,-5.74817,-17.8877,35.7768,-16.166,-9.83003,-22.0689
-2.33846,17.1218,-1.44849,4.5287,-6.35457,0.630099,8.08967,-1.52023,-4.50712,0.633053,-2.37666,1.34975,-3.63784,-1.10124,4.19971,-22.4347,-3.49465,-10.4747,21.3594,-3.64166,9.05001,10.9795,-1.40361,4.48017,-1.55425e-14,1.27222e-14,6.9979,13.7872,-69.4272,111.434,-1.08547,-19.4906,19.9639,7.12502,6.83156,-9.90592,-1.55425e-14,1.27222e-14,11.5539,-16.5007,84.108,120.826,1.61394,-11.4276,9.17678,7.12502,14.6085,38.6423,-41.0611,-6.35227,13.9747,38.3889,8.64706,-3.74876,11.0225,2.26338,-5.40612,-17.929,36.2788,-17.913,-8.73857,-23.3596
-2.37007,17.0288,-1.402,4.43656,-6.35414,0.603794,8.09744,-1.52236,-4.4544,0.760401,-2.37416,1.32028,-3.5131,-1.10713,4.13583,-22.5343,-3.55931,-10.259,21.2279,-3.7392,8.85873,10.9522,-1.45011,4.35211,-1.36664e-16,1.6201e-14,7.18358,13.2946,-69.6461,111.732,-0.761939,-19.1205,19.9479,7.12502,7.18883,-9.90996,-1.36664e-16,1.6201e-14,12.1889,-16.4955,83.9859,120.558,1.53031,-11.0387,8.8479,7.12502,14.9832,38.2859,-41.5783,-6.343,14.2375,39.9559,7.47252,-2.74585,8.83262,2.48215,-5.30404,-17.9286,36.7334,-19.4316,-7.56141,-25.2414
-2.39835,16.9338,-1.35703,4.35176,-6.34885,0.609449,8.34462,-1.51515,-4.47312,0.688686,-2.37668,1.35894,-3.72342,-1.10021,4.19916,-22.5823,-3.61362,-10.2998,21.3157,-3.81509,8.90856,11.0044,-1.48162,4.36828,-1.41137e-14,-2.19657e-14,6.86447,13.0346,-69.88,112.309,-1.01952,-18.677,19.8834,7.12502,7.61693,-9.95948,-1.41137e-14,-2.19657e-14,12.4284,-16.4738,84.0916,120.286,1.15293,-11.0142,8.48105,7.12502,15.0068,37.9172,-42.2106,-6.29325,14.3757,41.561,6.32921,-2.03318,8.35095,2.73563,-5.272,-17.9579,37.1734,-20.8695,-6.89283,-25.7778
-2.42451,16.8359,-1.30945,4.23693,-6.38247,0.641239,8.35375,-1.51598,-4.41728,0.769122,-2.37333,1.31839,-3.64896,-1.10341,4.1231,-22.5132,-3.67747,-10.3525,21.1583,-3.92174,9.04846,10.9497,-1.51754,4.40757,1.75179e-15,-1.13307e-14,6.5837,12.7438,-70.2487,113.026,-1.69785,-18.2834,19.9647,7.12502,7.99681,-9.86404,1.75179e-15,-1.13307e-14,12.7611,-16.5811,84.0699,120.075,0.646545,-11.0718,8.29173,7.12502,14.9513,37.7321,-42.8633,-6.3247,14.4927,43.1942,5.35174,-1.22916,8.60703,3.05902,-5.25848,-18.0142,37.6052,-22.3219,-6.3312,-25.4944
-2.45151,16.7356,-1.26075,4.07723,-6.47928,0.566667,8.58281,-1.51433,-4.3032,0.737333,-2.36906,1.35738,-3.81354,-1.09739,4.10928,-22.3225,-3.67889,-10.5318,21.0755,-3.92448,9.23007,10.892,-1.51512,4.50265,-1.61761e-14,-1.32192e-14,6.11116,12.7303,-70.6219,113.733,-2.5638,-18.2361,20.1322,7.12502,8.04243,-9.69476,-1.61761e-14,-1.32192e-14,12.6352,-16.7191,84.2705,119.98,-0.259187,-11.1212,8.69026,7.12502,14.9037,38.1341,-43.4577,-6.26981,14.7191,44.8449,4.44588,-0.452764,9.1792,3.48731,-5.17752,-17.9451,37.9828,-23.7571,-5.67745,-25.6675
-2.47561,16.6452,-1.20966,3.9789,-6.70582,0.14082,9.54533,-1.46601,-4.13074,0.200562,-2.31289,1.7768,-4.91003,-1.02642,4.50118,-22.0456,-3.65915,-10.924,21.4607,-3.77614,9.08751,10.9704,-1.50775,4.55016,-1.02374e-14,2.0276e-14,4.99231,13.3382,-70.698,114.483,-3.57753,-18.3129,20.205,7.12502,7.96838,-9.6248,-1.02374e-14,2.0276e-14,11.4557,-16.5532,85.1744,119.991,-1.05757,-10.9089,8.82506,7.12502,15.1082,38.2537,-44.0227,-5.9465,15.2489,46.4751,3.41081,0.0960743,8.95092,3.94617,-4.94942,-17.4825,38.2935,-25.1441,-5.25004,-26.1162
-2.49683,16.5663,-1.15174,3.97279,-6.96583,-0.336715,9.41372,-1.50241,-3.64822,0.352803,-2.29288,1.98656,-4.68824,-1.03486,4.43598,-22.3143,-3.67589,-11.0022,21.4258,-3.72551,9.03421,11.0027,-1.49163,4.55129,-1.1455e-14,-6.95746e-15,4.78124,13.5958,-71.0499,115.223,-4.52625,-18.2979,20.0422,7.12502,7.98283,-9.787,-1.1455e-14,-6.95746e-15,11.324,-16.0272,85.3892,119.874,-0.973684,-10.4133,8.12314,7.12502,15.5857,37.5152,-44.6229,-5.57406,15.7865,48.0661,2.35675,0.588082,7.83835,4.38391,-4.7571,-16.9642,38.4875,-26.3593,-5.00504,-26.1327
-2.51692,16.49,-1.09504,4.09255,-7.09411,-0.580302,9.1084,-1.61147,-3.43085,0.482869,-2.39685,2.18205,-4.37067,-1.1006,4.51384,-22.5141,-3.64046,-11.0542,21.2611,-3.59052,8.90692,10.9618,-1.44408,4.52934,3.08116e-15,9.93923e-15,4.53349,13.9422,-71.3681,116.053,-5.15138,-18.2753,19.7652,7.12502,8.00464,-10.0632,3.08116e-15,9.93923e-15,11.1418,-15.3738,85.4871,119.806,-0.791877,-10.1492,7.77696,7.12502,15.84,37.149,-45.3805,-5.31127,16.0571,49.6217,1.44647,1.00293,7.18628,4.65934,-4.63424,-16.6538,38.5451,-27.3517,-4.64275,-26.2352
-2.53936,16.4174,-1.03792,4.16128,-7.20948,-0.574771,8.63692,-1.71096,-3.40217,0.671638,-2.51245,2.20915,-3.89783,-1.1748,4.51209,-22.4349,-3.55094,-10.8703,20.8841,-3.47296,8.74111,10.7871,-1.39286,4.44288,4.67144e-14,7.95139e-16,4.16016,14.1554,-71.7721,116.925,-5.36911,-18.1897,19.7337,7.12502,8.08729,-10.0916,4.67144e-14,7.95139e-16,10.94,-14.9584,85.3615,119.781,-0.907872,-10.3111,7.91135,7.12502,15.6841,37.2957,-46.1024,-4.97087,15.9537,51.157,0.651908,1.22064,8.5416,4.99805,-4.53316,-16.6197,38.4569,-28.2104,-4.236,-26.2487
-2.56547,16.3538,-0.978221,4.09111,-7.30345,-0.40357,8.03793,-1.84708,-3.43882,0.988814,-2.68606,2.05238,-3.22124,-1.28526,4.34908,-22.3551,-3.42941,-10.467,20.5902,-3.40422,8.62125,10.6461,-1.34172,4.33217,1.76421e-14,-7.15625e-15,3.76972,14.343,-72.4271,117.771,-5.23526,-18.1123,19.919,7.12502,8.16197,-9.9034,1.76421e-14,-7.15625e-15,10.7668,-14.5888,85.1037,119.736,-0.968495,-10.3529,7.97824,7.12502,15.6438,37.3657,-46.663,-4.55749,15.5762,52.6596,-0.16286,1.37868,10.6663,5.50207,-4.49264,-16.7768,38.2786,-28.9597,-4.00217,-25.9576
-2.59051,16.2938,-0.918068,3.9508,-7.33889,-0.161912,8.16351,-1.9539,-3.93197,0.837063,-2.87052,2.2298,-3.39745,-1.36241,4.84306,-22.0108,-3.31674,-10.424,20.6516,-3.22147,8.31126,10.578,-1.30008,4.23865,5.02428e-14,-3.00165e-14,2.7896,14.9871,-72.6111,118.725,-4.8289,-17.7667,19.8132,7.12502,8.4955,-9.99594,5.02428e-14,-3.00165e-14,9.69552,-14.0597,85.65,119.872,-0.992655,-10.1886,8.19242,7.12502,15.802,37.5675,-47.1262,-4.25403,15.1971,54.1069,-0.962474,1.57045,10.7038,6.07067,-4.47073,-17.0121,38.0395,-29.6068,-3.75653,-25.9075
-2.61407,16.2347,-0.857148,3.79834,-7.30963,0.113834,8.20874,-2.09815,-4.23615,0.750572,-3.0919,2.24248,-3.47146,-1.46432,5.05581,-21.8302,-3.2049,-10.2032,20.722,-3.08684,8.01494,10.5465,-1.26095,4.11388,7.95139e-15,1.59028e-14,1.78342,15.5532,-72.9546,119.761,-4.00957,-17.2674,19.8017,7.12502,8.97733,-9.98731,7.95139e-15,1.59028e-14,8.75531,-13.2344,85.9554,120.024,-0.0388675,-8.91993,7.42554,7.12502,17.0235,36.6996,-47.5322,-4.11856,14.9033,55.4592,-1.7804,1.72648,9.0759,6.65404,-4.53177,-17.3097,37.7736,-30.1613,-3.37018,-26.4121
-2.64062,16.182,-0.796333,3.5737,-7.232,0.454251,8.16284,-2.25472,-4.75152,0.79368,-3.34231,2.32694,-3.33703,-1.58714,5.45664,-21.9332,-3.11635,-10.0842,20.9647,-2.92805,7.72038,10.6306,-1.21557,4.01635,-1.99779e-14,-2.78299e-15,0.938125,16.2015,-73.1006,120.816,-2.99877,-16.9159,20.0356,7.12502,9.31653,-9.73856,-1.99779e-14,-2.78299e-15,8.05974,-12.3483,86.1288,120.157,0.453973,-8.15634,7.34184,7.12502,17.7584,36.551,-47.7608,-4.015,14.563,56.6772,-2.68168,1.76653,8.0284,7.29252,-4.64509,-17.6798,37.5053,-30.6424,-2.90456,-27.1011
-2.67057,16.1367,-0.738198,3.39767,-7.04744,0.776121,8.22299,-2.43919,-5.37379,0.763525,-3.64246,2.47931,-3.315,-1.72811,6.00319,-21.9825,-3.01681,-10.0917,21.1974,-2.75452,7.578,10.705,-1.15669,3.9983,5.46658e-14,-3.73715e-14,0.0258284,16.9614,-73.1644,121.932,-2.08422,-16.5596,20.1071,7.12502,9.66032,-9.65134,5.46658e-14,-3.73715e-14,7.38822,-11.4453,86.2506,120.212,0.649595,-8.01408,7.07038,7.12502,17.8953,36.267,-47.8925,-3.93241,14.2656,57.7129,-3.66719,1.64707,7.54419,7.82679,-4.7368,-17.9445,37.233,-30.9877,-2.68214,-27.2374
-2.70448,16.101,-0.681146,3.30295,-6.71067,1.0638,8.3411,-2.65434,-5.9721,0.648638,-3.98698,2.6246,-3.40129,-1.88464,6.54115,-21.9037,-2.90881,-10.1607,21.3044,-2.59345,7.58012,10.7138,-1.09169,4.03836,2.90226e-14,2.18663e-14,-1.0253,17.7175,-73.2513,123.151,-1.47154,-16.237,20.1541,7.12502,9.97153,-9.5897,2.90226e-14,2.18663e-14,6.7481,-10.591,86.307,120.17,0.455575,-8.07458,6.719,7.12502,17.8371,35.921,-47.9563,-3.95698,14.0762,58.5485,-4.73544,1.33558,6.30469,8.22201,-4.80993,-18.0543,36.9459,-31.1551,-2.73794,-26.9584
-2.74067,16.0701,-0.623011,3.21759,-6.26882,1.33347,8.3828,-2.8429,-6.45751,0.568082,-4.28614,2.66719,-3.42411,-2.02339,6.89575,-21.9245,-2.84512,-10.0659,21.4692,-2.54111,7.57579,10.7711,-1.06251,4.03372,2.23633e-15,-1.86858e-14,-2.15693,18.2906,-73.4245,124.41,-1.07759,-15.9547,20.1713,7.12502,10.2439,-9.55924,2.23633e-15,-1.86858e-14,6.22185,-9.95788,86.2038,120.151,0.160981,-8.20721,6.65307,7.12502,17.7095,35.8666,-47.8952,-4.06478,13.9431,59.1794,-5.88514,0.838986,4.50521,8.59469,-4.79276,-18.0492,36.637,-31.2239,-2.92523,-26.9727
-2.77789,16.0461,-0.561628,3.20507,-5.69801,1.51499,8.28015,-3.02601,-6.78444,0.515626,-4.55565,2.67154,-3.35196,-2.15493,7.10397,-21.9731,-2.81682,-9.76129,21.5802,-2.57714,7.46383,10.8184,-1.06785,3.93857,-2.0276e-14,-1.39149e-14,-3.29095,18.7108,-73.6029,125.723,-0.944194,-15.6215,20.0538,7.12502,10.5653,-9.66068,-2.0276e-14,-1.39149e-14,5.65281,-9.40908,86.0925,120.187,0.0182749,-8.17577,6.56402,7.12502,17.7397,35.7748,-47.74,-4.21932,13.9163,59.5958,-7.14634,0.0965974,3.09873,8.91173,-4.67769,-17.8295,36.279,-31.2394,-3.56792,-26.9878
-2.81824,16.0372,-0.497963,3.25221,-4.90273,1.54196,8.17048,-3.28832,-7.01511,0.452919,-4.91707,2.79195,-3.26513,-2.33415,7.38685,-22.0408,-2.75949,-9.55841,21.6049,-2.52273,7.31967,10.8297,-1.04295,3.86037,-9.12919e-14,5.56597e-15,-4.38378,19.2131,-73.5966,127.197,-1.12585,-15.1928,19.6899,7.12502,10.9788,-10.003,-9.12919e-14,5.56597e-15,4.99524,-8.73409,86.0773,120.203,-0.170614,-8.088,6.3367,7.12502,17.8242,35.5399,-47.4059,-4.49639,14.0667,59.7785,-8.4628,-0.738461,2.73485,9.16359,-4.56079,-17.2899,35.8345,-31.1126,-4.67843,-26.568
-2.85978,16.0467,-0.435334,3.29223,-3.95293,1.41278,8.18788,-3.54981,-7.07909,0.407344,-5.26866,2.9406,-3.24081,-2.5084,7.61279,-22.1841,-2.76481,-9.45039,21.5676,-2.54412,7.2916,10.8428,-1.04407,3.82814,1.98785e-15,-1.51076e-14,-5.43876,19.5988,-73.5064,128.764,-1.24022,-14.7498,19.3607,7.12502,11.406,-10.309,1.98785e-15,-1.51076e-14,4.61186,-8.19751,86.0201,120.069,-0.376525,-8.12952,6.30576,7.12502,17.7842,35.5125,-46.8568,-4.89035,14.403,59.6887,-9.77257,-1.56776,2.59594,9.39206,-4.51545,-16.4942,35.3237,-30.843,-5.89568,-26.1427
-2.90695,16.0712,-0.374128,3.24785,-2.88107,1.23305,8.28568,-3.75506,-7.16865,0.524074,-5.55036,3.06611,-3.10059,-2.65893,7.82062,-22.7706,-2.84608,-9.34227,21.6456,-2.68561,7.45522,10.996,-1.06946,3.85361,1.55549e-14,-7.15625e-15,-6.24274,19.7004,-73.4156,130.353,-1.04857,-14.3084,19.1405,7.12502,11.8317,-10.5053,1.55549e-14,-7.15625e-15,4.70058,-7.86877,85.8654,119.888,-0.343604,-8.28029,6.72293,7.12502,17.6391,35.9428,-46.0448,-5.26522,14.751,59.339,-11.1387,-2.37379,2.91205,9.63054,-4.43784,-15.5097,34.7848,-30.4191,-7.29525,-26.1088
-2.95571,16.1076,-0.313915,3.18095,-1.67128,0.845019,8.41055,-3.91879,-7.11983,0.725553,-5.76183,3.25595,-2.90388,-2.78237,8.01071,-23.6082,-2.9747,-9.21302,21.7602,-2.90682,7.7109,11.2196,-1.11235,3.89952,-2.4699e-14,6.75868e-15,-6.91515,19.5957,-73.2393,132.042,-0.595197,-13.737,19.0094,7.12502,12.3827,-10.6038,-2.4699e-14,6.75868e-15,5.00677,-7.67837,85.7988,119.615,-0.312912,-8.38402,7.13009,7.12502,17.5393,36.3589,-45.0161,-5.62678,15.2701,58.7537,-12.3143,-3.13915,2.37992,9.79969,-4.34047,-14.1641,34.2595,-29.7276,-9.31411,-25.3236
-3.00125,16.1519,-0.26102,3.15505,-0.38952,0.54204,8.49797,-3.99625,-7.17534,0.860969,-5.86651,3.47249,-2.76133,-2.84675,8.2817,-24.0184,-3.2012,-9.28851,21.6249,-3.23214,8.00748,11.2857,-1.21877,3.96853,6.0033e-14,-4.57205e-14,-7.6766,19.3756,-72.8168,133.925,0.217774,-13.0808,18.8251,7.12502,13.0153,-10.7489,6.0033e-14,-4.57205e-14,5.24806,-7.67272,86.0348,119.268,-0.387831,-8.42335,7.52675,7.12502,17.5015,36.7589,-43.9812,-6.09519,15.6287,58.0137,-12.9971,-3.68729,1.88074,9.7581,-4.2902,-12.8777,33.8116,-28.6265,-11.7899,-23.8415
-3.04202,16.2106,-0.215132,3.24076,0.950264,0.469185,8.95521,-3.99824,-7.40748,0.601908,-5.91822,3.66348,-3.2348,-2.83509,8.68627,-23.907,-3.45111,-9.49541,21.5412,-3.57014,8.21599,11.2773,-1.36378,4.0228,-3.89618e-14,-4.77083e-15,-8.78496,19.2687,-72.323,135.861,1.31109,-12.283,18.5022,7.12502,13.7843,-11.0211,-3.89618e-14,-4.77083e-15,4.94827,-7.83677,86.5656,118.885,-0.582118,-8.80393,7.95302,7.12502,17.1352,37.2174,-43.1105,-6.78593,15.6874,57.185,-13.2399,-4.00889,2.45475,9.39929,-4.21957,-11.8416,33.5206,-27.2196,-14.2865,-22.8654
-3.07634,16.2863,-0.175343,3.41137,2.39391,0.358626,9.19286,-3.97052,-7.38348,0.468744,-5.89285,3.73,-3.50837,-2.80213,8.77579,-23.8238,-3.75094,-9.64644,21.3501,-4.02883,8.56574,11.2508,-1.53955,4.09789,4.62174e-14,-1.27222e-14,-9.37894,18.9976,-71.7793,137.707,2.49604,-11.5585,18.099,7.12502,14.4825,-11.3756,4.62174e-14,-1.27222e-14,4.92985,-8.27552,87.0196,118.545,-0.824234,-9.05249,8.2762,7.12502,16.8959,37.5612,-42.3386,-7.69813,15.788,56.2571,-13.1671,-4.34056,3.01354,8.74951,-4.26305,-10.804,33.4028,-25.5461,-16.6384,-22.3456
-3.10606,16.3766,-0.143142,3.63395,3.942,-0.00333475,9.25925,-3.89984,-6.89288,0.482499,-5.74796,3.76254,-3.60461,-2.73167,8.52479,-24.0247,-4.10555,-9.82523,21.1864,-4.57187,9.07977,11.3055,-1.72921,4.22674,4.07509e-15,-1.23246e-14,-9.40841,18.4217,-70.975,139.449,3.61826,-11.0986,17.7956,7.12502,14.9255,-11.6466,4.07509e-15,-1.23246e-14,5.25025,-8.97421,87.4787,118.208,-0.895474,-8.90698,8.2228,7.12502,17.036,37.4958,-41.5732,-8.68019,16.1879,55.1876,-12.9952,-4.79257,3.06618,7.81627,-4.3302,-9.44844,33.4244,-23.252,-19.0796,-20.9093
-3.13347,16.4786,-0.118389,3.8663,5.51439,-0.397522,9.46215,-3.81051,-6.38683,0.436534,-5.58153,3.83741,-3.83903,-2.64176,8.3254,-24.3517,-4.39973,-10.0048,21.1431,-5.0048,9.5228,11.4187,-1.87517,4.35061,-6.41081e-14,2.74323e-14,-8.91652,17.9556,-69.8383,140.813,4.58777,-11.1006,17.6672,7.12502,14.9236,-11.7752,-6.41081e-14,2.74323e-14,5.58593,-9.68215,88.0074,117.779,-1.14124,-9.07111,8.04228,7.12502,16.878,37.3288,-40.7508,-9.64571,16.62,53.9478,-12.728,-5.24453,2.83972,6.68657,-4.41132,-8.05258,33.543,-20.4092,-21.5671,-18.7034
-3.16036,16.5933,-0.0979949,4.08863,7.12883,-0.696371,9.58542,-3.68989,-6.01835,0.468275,-5.38177,3.90112,-3.93899,-2.54325,8.17502,-24.566,-4.70504,-10.0382,20.9362,-5.43589,9.70653,11.4388,-2.04259,4.34507,-1.59028e-14,-1.35174e-14,-7.64934,17.4344,-68.1545,141.7,5.28783,-11.7095,17.1889,7.12502,14.337,-12.2961,-1.59028e-14,-1.35174e-14,6.05078,-10.4884,88.5381,117.4,-1.4645,-9.28061,8.04209,7.12502,16.6763,37.3457,-39.8134,-10.4767,16.8847,52.533,-12.4042,-5.8045,2.29503,5.39327,-4.55147,-6.78366,33.7231,-17.2902,-23.9933,-17.5056
-3.18525,16.7188,-0.0844541,4.32581,8.79725,-0.770013,9.72064,-3.49659,-5.80547,0.483644,-5.10566,3.87571,-4.0691,-2.40248,8.01073,-24.441,-5.10683,-10.0919,20.5463,-6.00671,9.86263,11.3442,-2.28722,4.30191,-2.8128e-14,1.59028e-14,-5.84493,16.5284,-65.8825,141.948,5.50018,-13.022,16.7304,7.12502,13.072,-12.8399,-2.8128e-14,1.59028e-14,6.41579,-11.7054,89.1738,117.155,-1.82329,-9.25483,8.54526,7.12502,16.7011,37.8468,-38.8006,-11.0945,16.7844,50.9869,-12.1336,-6.49113,3.08383,3.96876,-4.78475,-5.80649,33.899,-13.9787,-26.0211,-17.925
-3.20667,16.8488,-0.081115,4.62548,10.4408,-0.755916,9.89384,-3.27317,-5.57626,0.433132,-4.79228,3.77843,-4.30178,-2.23738,7.76097,-24.2764,-5.50016,-10.1812,20.3105,-6.59917,10.1371,11.3107,-2.53174,4.31027,-1.78906e-15,3.26007e-14,-3.64391,15.4028,-63.5433,141.174,5.26107,-14.5943,16.0702,7.12502,11.556,-13.5912,-1.78906e-15,3.26007e-14,6.74467,-13.1421,89.8279,116.891,-1.93874,-9.23777,8.85611,7.12502,16.7175,38.1563,-37.8426,-11.469,16.5308,49.3688,-11.6579,-7.37365,3.13786,2.42704,-5.13453,-4.99499,34.0554,-10.5255,-27.3846,-18.9538
-3.2252,16.9807,-0.0878172,4.94365,11.964,-0.695091,10.0512,-3.07178,-5.39721,0.38649,-4.51421,3.65767,-4.5102,-2.09139,7.5142,-24.1094,-5.77683,-10.3168,20.2254,-7.05435,10.5299,11.3268,-2.70373,4.39969,-2.47487e-14,3.45885e-14,-1.03405,14.1993,-61.3488,139.465,4.64602,-15.5414,14.4985,7.12502,10.6425,-15.212,-2.47487e-14,3.45885e-14,7.29616,-14.5057,90.1898,116.694,-1.40131,-9.14307,8.46844,7.12502,16.8087,37.7609,-36.954,-11.5953,16.185,47.7625,-10.8938,-8.37675,2.22437,0.807566,-5.49746,-4.31204,34.1866,-7.05782,-28.0174,-20.5885
-3.23915,17.1108,-0.101995,5.26422,13.3232,-0.643362,10.3137,-2.82492,-5.08659,0.250396,-4.16879,3.45276,-4.89553,-1.90623,7.10455,-23.7562,-6.01854,-10.3547,20.1801,-7.51081,10.8938,11.3207,-2.87801,4.46347,4.65156e-14,2.14687e-14,1.78407,12.4666,-59.1602,136.765,3.65912,-16.0874,13.2632,7.12502,10.1158,-16.4736,4.65156e-14,2.14687e-14,7.82217,-16.225,90.3393,116.624,-0.983423,-9.36534,8.09065,7.12502,16.5947,37.4011,-36.1421,-11.324,15.7368,46.2563,-10.2087,-9.43329,3.0376,-0.840551,-5.89255,-3.72384,34.3169,-4.34912,-27.8634,-24.3418
-3.24369,17.2373,-0.122945,5.61778,14.577,-0.419285,10.5167,-2.49728,-4.64429,0.247417,-3.70527,3.07058,-5.1378,-1.67939,6.39921,-23.6951,-6.39697,-10.4042,20.1648,-8.15527,11.3493,11.4126,-3.11766,4.52857,6.17226e-14,-1.59028e-14,5.02172,9.93117,-56.8838,132.707,3.3017,-16.8269,12.581,7.12502,9.40237,-17.1893,6.17226e-14,-1.59028e-14,8.53304,-18.5,90.1648,116.655,-0.96233,-10.2056,8.13656,7.12502,15.7857,37.5129,-35.4336,-10.856,14.9991,44.92,-9.5391,-10.5707,4.10549,-2.4566,-6.48109,-3.4661,34.4939,-2.90684,-26.8431,-28.6907
-3.24024,17.366,-0.150945,6.00018,15.708,0.00673643,10.803,-2.16454,-4.16224,0.332798,-3.23833,2.57053,-5.32899,-1.45932,5.54342,-23.8879,-6.78447,-10.4102,20.1421,-8.80039,11.7903,11.5509,-3.3468,4.57692,-5.77966e-14,1.94809e-14,8.60305,7.20579,-54.7323,127.395,4.21154,-17.0544,11.3079,7.12502,9.18289,-18.4722,-5.77966e-14,1.94809e-14,9.58003,-20.774,89.5274,116.791,-0.844852,-10.8179,8.33346,7.12502,15.1959,37.7554,-34.902,-10.4037,14.0132,43.7814,-8.68473,-11.8304,4.5371,-4.00926,-7.0762,-3.54305,34.7761,-3.05384,-25.0905,-31.4498
-3.23654,17.489,-0.193919,6.42184,16.6571,0.535975,11.2709,-1.82838,-3.72607,0.332596,-2.77933,2.05811,-5.6938,-1.23717,4.7116,-23.8386,-7.06169,-10.3471,20.0198,-9.26977,12.0199,11.5693,-3.52659,4.56341,-3.79679e-14,2.0276e-14,12.2727,4.58126,-52.6662,120.929,6.46803,-16.3461,9.88277,7.12502,9.8663,-19.8661,-3.79679e-14,2.0276e-14,10.6688,-22.7782,88.7679,117.048,-0.724869,-10.6087,8.23711,7.12502,15.3974,37.6437,-34.5989,-9.83971,12.9253,42.829,-7.84692,-13.1166,5.59635,-5.60016,-7.55995,-3.79892,35.1823,-4.04282,-22.647,-31.9064
-3.23504,17.6025,-0.249943,6.81114,17.5571,1.10756,11.5906,-1.4826,-3.39703,0.501972,-2.30753,1.65744,-5.77277,-1.01853,4.03794,-23.7288,-7.29164,-10.3078,19.6319,-9.56764,11.9912,11.4381,-3.66944,4.48073,-1.06847e-14,4.77083e-15,16.362,1.87463,-50.4178,113.096,10.201,-14.7951,8.90901,7.12502,11.3623,-20.7632,-1.06847e-14,4.77083e-15,12.0285,-24.5592,88.0625,117.386,-0.847308,-9.99557,7.81369,7.12502,15.9879,37.1739,-34.3595,-9.15805,11.7876,42.0201,-6.97863,-14.6793,7.6019,-7.23194,-8.04088,-4.12118,35.732,-5.08008,-19.8328,-31.7962
-3.23319,17.7119,-0.307427,7.15539,18.4259,1.66989,12.3746,-1.24906,-2.85822,0.437309,-1.97547,1.17657,-6.34631,-0.860952,3.2027,-23.6688,-7.40357,-10.2667,19.4925,-9.73121,11.9979,11.3944,-3.74252,4.44298,4.23908e-14,-9.74045e-15,20.6459,-0.398515,-48.3463,103.834,14.9508,-12.566,7.99857,7.12502,13.5115,-21.5431,4.23908e-14,-9.74045e-15,12.8618,-26.0262,87.2901,117.923,-1.33977,-9.22615,7.37226,7.12502,16.7287,36.6715,-34.1491,-8.49654,10.6877,41.3212,-6.3091,-16.5002,8.99069,-8.76589,-8.57526,-4.43956,36.3497,-5.77714,-17.0762,-31.559
-3.22667,17.81,-0.361132,7.40356,19.0191,2.12545,12.5658,-0.992513,-2.17918,0.848024,-1.56903,0.689017,-6.07904,-0.696578,2.23089,-23.7359,-7.55341,-10.4057,18.9156,-9.89557,12.2785,11.24,-3.79992,4.52676,-8.29926e-15,1.94809e-14,26.1209,-2.98626,-46.3455,92.8316,19.9755,-10.3376,7.08655,7.12502,15.6585,-22.2998,-8.29926e-15,1.94809e-14,14.3914,-27.2502,86.1625,118.476,-1.97636,-8.75233,6.88574,7.12502,17.1848,36.1458,-33.9526,-7.85982,9.80166,40.6911,-6.19726,-18.2014,10.2286,-10.0173,-8.89781,-4.69898,36.9584,-6.00655,-14.5845,-30.1714
-3.21817,17.9039,-0.413042,7.61421,19.2373,2.48834,13.1138,-0.680806,-1.55091,0.948374,-1.10192,0.253771,-6.32351,-0.487488,1.34509,-23.4436,-7.55898,-10.3266,18.5979,-9.89725,12.1852,11.0579,-3.82171,4.47472,2.2413e-14,-2.28602e-14,31.9523,-4.92205,-44.526,80.0806,24.9169,-8.92771,6.3942,7.12502,17.016,-22.8805,2.2413e-14,-2.28602e-14,15.0655,-28.2568,85.3507,119.295,-2.47617,-8.38034,6.6897,7.12502,17.5428,35.9182,-33.9297,-7.15411,9.08131,40.1001,-5.91793,-19.6252,11.2261,-11.0148,-8.87923,-4.95825,37.4932,-5.96878,-12.3838,-28.9891
-3.21228,17.9973,-0.460887,7.70982,19.2212,2.60359,13.62,-0.321983,-1.00877,1.02843,-0.565076,0.0467666,-6.54582,-0.241324,0.72661,-23.3215,-7.52132,-9.93028,18.6313,-9.78987,11.3911,10.9586,-3.84161,4.13451,3.38928e-14,7.95139e-15,37.9339,-6.31387,-42.943,66.5759,30.57,-7.51587,5.6257,7.12502,18.3746,-23.5265,3.38928e-14,7.95139e-15,15.2978,-29.0448,84.8268,120.319,-3.0411,-7.98343,6.96286,7.12502,17.9248,36.1568,-34.0071,-6.32883,8.67436,39.5045,-5.13443,-20.5549,10.3518,-11.7798,-8.56506,-5.01631,37.9804,-5.78239,-10.6158,-29.179
-3.20723,18.0727,-0.500279,7.69082,19.0557,2.63319,14.5393,-0.0347528,-0.561243,0.742031,-0.134155,-0.0839246,-7.37482,-0.0430826,0.255648,-22.9538,-7.30281,-9.33265,19.1688,-9.45601,10.163,10.9383,-3.79633,3.65672,2.05742e-14,-2.42517e-14,42.6224,-6.94837,-42.2073,54.6315,37.7344,-3.97742,5.19659,7.12502,21.7756,-23.5985,2.05742e-14,-2.42517e-14,14.5702,-29.4626,84.7146,121.182,-3.5907,-7.65792,7.09385,7.12502,18.238,36.2588,-33.9361,-5.49415,8.44059,38.8739,-4.08162,-20.5129,9.94606,-12.229,-8.00096,-5.00128,38.4381,-5.09198,-9.48095,-29.2075
-3.2041,18.1277,-0.530774,7.64079,18.7887,2.58906,14.6558,0.382794,-0.502257,1.02323,0.446869,0.144713,-7.14441,0.240265,0.345816,-22.9923,-7.22381,-9.3922,19.3261,-9.12215,9.355,10.9195,-3.74364,3.42961,1.49089e-15,3.18055e-15,46.2004,-8.14648,-41.5704,46.3993,47.9924,0.793656,5.21925,7.12502,26.3503,-22.9701,1.49089e-15,3.18055e-15,14.9978,-29.5515,84.6699,121.588,-3.4024,-7.51787,7.10095,7.12502,18.3727,36.2533,-33.791,-4.71196,8.3939,38.1816,-2.65168,-19.3278,9.94265,-12.48,-7.30041,-4.88344,38.8921,-4.13053,-8.46965,-29.4237
-3.20589,18.1711,-0.555982,7.6326,18.7591,2.50265,15.9305,0.549233,0.0210487,0.620774,0.742824,0.0159675,-8.28507,0.361893,-0.164424,-23.0467,-7.06393,-9.53583,19.8609,-8.919,9.47607,11.12,-3.63949,3.54108,-3.29983e-14,1.70955e-14,45.9433,-9.67291,-44.0258,44.5548,56.035,1.96204,8.41838,7.12502,27.4683,-19.5986,-3.29983e-14,1.70955e-14,14.3341,-29.7907,84.4986,121.882,-2.45037,-7.79433,6.93782,7.12502,18.1067,36.115,-33.6597,-4.00936,8.43573,37.4122,-1.91346,-17.6034,8.21809,-12.7975,-6.66218,-4.61817,39.3392,-3.32868,-7.46985,-31.3701
-3.21152,18.2039,-0.571466,7.60279,19.2112,2.30531,16.3899,0.743764,0.436889,0.842151,1.08502,0.092833,-8.2949,0.51287,-0.400696,-23.3635,-7.20934,-10.0576,19.5259,-9.10445,10.3254,11.1522,-3.65375,3.89939,-1.39149e-15,-1.98785e-15,44.9732,-10.9997,-44.7706,46.3509,53.0774,5.30789,7.55073,7.12502,30.6636,-19.9143,-1.39149e-15,-1.98785e-15,14.9373,-30.2629,84.1985,121.903,-1.58687,-8.23572,6.71838,7.12502,17.682,35.9344,-33.4009,-3.60181,8.65409,36.5719,-1.83554,-15.9093,4.05443,-13.2066,-6.21727,-4.09891,39.73,-1.73184,-7.18375,-31.3029
-3.22051,18.2266,-0.571718,7.61513,19.9044,2.11248,16.4055,0.953391,0.603739,1.29379,1.40237,0.207783,-7.81061,0.666862,-0.440457,-23.6599,-7.49496,-10.5286,18.7019,-9.52419,11.445,11.0479,-3.74428,4.299,-5.10877e-14,-6.75868e-15,42.8254,-11.6917,-44.1198,50.2718,43.3902,2.43212,5.23236,7.12502,27.9178,-22.7124,-5.10877e-14,-6.75868e-15,15.8775,-30.8204,83.8486,121.935,-1.32559,-8.33163,6.65393,7.12502,17.5897,35.8782,-33.0873,-3.43779,8.9452,35.6917,-1.739,-14.1294,-0.489646,-13.5857,-6.00756,-3.51692,40.0315,0.0789534,-7.38077,-29.8335
-3.23465,18.2416,-0.555268,7.77381,20.6469,1.93414,16.2558,1.18211,0.442643,1.56164,1.68188,0.306782,-7.44365,0.812469,-0.299706,-23.678,-7.78562,-10.6562,17.8864,-10.0562,12.4433,10.8955,-3.88726,4.57796,-4.7112e-14,7.95139e-15,39.9676,-11.5596,-43.2693,55.1783,30.8506,-2.12487,2.99157,7.12502,23.5536,-25.5861,-4.7112e-14,7.95139e-15,16.1509,-31.432,83.7267,122.162,-1.69278,-8.13284,6.723,7.12502,17.781,35.9301,-32.9485,-3.22188,9.26003,34.8183,-1.48116,-12.3573,-4.34188,-13.9679,-5.88831,-2.90792,40.2445,0.593125,-7.55527,-30.6203
-3.25324,18.2416,-0.526406,8.09059,21.5208,1.86594,16.0335,1.32705,-0.0431167,1.51227,1.79314,0.392411,-7.39103,0.883189,0.0464624,-23.0593,-7.90289,-10.4415,17.159,-10.4363,13.1066,10.6063,-4.0048,4.71253,-1.88845e-14,9.54166e-15,37.3969,-11.1491,-44.0845,59.6776,21.2583,-3.90051,1.77892,7.12502,21.8495,-27.0075,-1.88845e-14,9.54166e-15,15.5098,-31.8996,83.8749,122.477,-2.37022,-8.05279,6.60276,7.12502,17.858,35.8028,-32.9409,-2.93926,9.45262,34.0153,-1.31987,-10.9326,-5.89902,-14.4199,-5.79817,-2.34885,40.3751,1.70184,-8.01686,-29.4242
-3.27011,18.223,-0.490406,8.46766,22.561,1.90457,15.7295,1.23873,-0.54036,1.32321,1.59137,0.409423,-7.43929,0.801663,0.394664,-22.1667,-7.7657,-9.91059,16.6692,-10.4718,13.2378,10.2551,-4.01608,4.6702,-3.24019e-14,4.37326e-15,35.4033,-10.6453,-46.5349,63.4666,16.3301,-2.19547,1.27548,7.12502,23.4859,-27.3109,-3.24019e-14,4.37326e-15,14.2994,-31.968,84.0375,122.775,-3.38704,-8.36061,6.2862,7.12502,17.5618,35.513,-32.9838,-2.78067,9.55401,33.3908,-1.18826,-9.90833,-5.99381,-14.8678,-5.72066,-1.87024,40.4208,4.07015,-8.52701,-26.4863
-3.28301,18.1911,-0.447726,8.74632,23.7726,2.01449,15.3157,0.871208,-1.01081,1.21846,1.0351,0.501749,-7.32437,0.549247,0.885558,-21.4947,-7.38165,-9.52861,16.6686,-10.0528,12.9981,10.0421,-3.85174,4.60361,3.0911e-14,-1.55052e-14,33.694,-9.88802,-49.3589,67.0395,15.2705,0.270651,1.36974,7.12502,25.8496,-26.8935,3.0911e-14,-1.55052e-14,12.8381,-31.3579,84.2198,123.07,-4.43181,-8.78481,5.72542,7.12502,17.1536,34.9882,-32.948,-2.78572,9.65442,33.0656,-0.897739,-9.15386,-5.21414,-15.1204,-5.86493,-1.45532,40.3419,5.67398,-8.62335,-25.2184
-3.29462,18.1542,-0.401489,8.86247,25.0218,2.12354,14.9111,0.348592,-1.50371,1.22926,0.286945,0.762541,-7.07274,0.204646,1.60252,-21.2392,-6.90861,-9.51786,17.1791,-9.34926,12.4855,10.0528,-3.58354,4.54975,-3.54831e-14,-5.96354e-15,31.9371,-8.96775,-52.0374,70.6052,17.0199,1.51566,1.7635,7.12502,27.0413,-26.3205,-3.54831e-14,-5.96354e-15,11.3467,-30.0464,84.604,123.417,-4.85403,-8.54716,5.31725,7.12502,17.3823,34.56,-32.8211,-2.9302,9.86574,33.146,-0.459591,-8.44468,0.155933,-15.05,-6.25416,-1.06032,40.0957,6.24789,-8.32626,-26.0974
-3.30417,18.1161,-0.355179,8.91662,26.0755,2.19429,14.5765,-0.164167,-1.99537,1.2642,-0.440539,1.0984,-6.81364,-0.132271,2.38482,-21.2742,-6.53827,-9.80061,17.8928,-8.67293,11.9053,10.2059,-3.34399,4.51388,3.03147e-14,2.46493e-14,30.0751,-8.0302,-54.3705,74.0592,19.6644,2.14119,2.20762,7.12502,27.6396,-25.782,3.03147e-14,2.46493e-14,10.0423,-28.4297,85.119,123.725,-4.79344,-8.09069,5.42743,7.12502,17.8216,34.6308,-32.7576,-3.06535,10.1673,33.6674,-0.252219,-7.77665,11.6676,-14.6975,-6.70301,-0.686815,39.6607,8.10053,-8.07713,-25.9965
-3.31181,18.068,-0.310135,8.84759,26.774,2.20007,14.4465,-0.544747,-2.45076,1.30353,-0.99495,1.35676,-6.65575,-0.388299,3.02583,-21.5526,-6.31582,-10.1761,18.6525,-8.19078,11.5057,10.463,-3.17614,4.52519,2.01766e-14,-1.23246e-14,27.9347,-7.13501,-56.4263,77.5384,20.9229,2.84252,2.47001,7.12502,28.3101,-25.4103,2.01766e-14,-1.23246e-14,8.99067,-26.821,85.5531,123.867,-4.5114,-7.9881,5.68302,7.12502,17.9203,34.8774,-32.7403,-2.86298,10.4497,34.6075,-2.73549,-9.52331,9.38206,-14.0059,-6.97178,-0.345115,39.0561,8.80367,-7.7964,-26.0949
-3.3192,18.0069,-0.269456,8.72144,27.2069,2.1406,14.364,-0.75842,-2.76817,1.41071,-1.32202,1.39257,-6.46456,-0.543456,3.30392,-21.9942,-6.21401,-10.3443,19.2455,-7.99443,11.4569,10.7394,-3.0836,4.57929,5.01931e-14,-1.19271e-15,25.4397,-6.47436,-58.3975,81.0206,19.9699,2.93914,2.413,7.12502,28.4024,-25.452,5.01931e-14,-1.19271e-15,8.2532,-25.5023,85.6146,123.941,-3.94621,-8.16706,5.82786,7.12502,17.7481,35.0379,-32.8857,-2.34099,10.6401,35.8847,-5.82968,-11.9288,-0.207025,-13.1487,-7.09522,-0.0151623,38.3309,10.8677,-8.20569,-24.6993
-3.32604,17.9417,-0.238829,8.58514,27.6227,2.05397,14.4069,-0.855864,-2.84414,1.47479,-1.47594,1.20144,-6.4114,-0.620633,3.17316,-22.2326,-6.23331,-10.1156,19.6323,-8.12544,11.5032,10.9346,-3.10739,4.54346,3.598e-14,-1.19271e-14,22.5965,-6.11635,-60.2597,84.5198,17.3176,2.74309,2.40562,7.12502,28.215,-25.4904,3.598e-14,-1.19271e-14,7.75888,-24.7229,85.4083,124.002,-3.2147,-8.45078,6.30668,7.12502,17.4751,35.5412,-33.2233,-1.85326,10.7245,37.4017,-5.71591,-11.27,3.43146,-12.2908,-7.3092,0.290046,37.5648,11.8595,-8.74035,-26.2531
-3.33236,17.8726,-0.215609,8.56658,28.0772,2.12277,14.5163,-0.8904,-2.98037,1.47071,-1.56382,0.943811,-6.47352,-0.661485,2.9967,-22.3071,-6.36876,-9.75768,19.8459,-8.44258,11.4629,11.049,-3.22212,4.41716,-2.97183e-14,5.76476e-15,19.6356,-5.88243,-61.8924,88.1842,14.3723,2.54646,2.61553,7.12502,28.0271,-25.3114,-2.97183e-14,5.76476e-15,7.62065,-24.29,85.2603,123.81,-2.57989,-8.88766,6.93973,7.12502,17.0546,36.2111,-33.755,-1.36431,10.485,39.077,-4.3216,-8.77889,11.3414,-11.5341,-7.62665,0.400776,36.8335,12.4412,-9.45183,-30.7516
-3.33568,17.7918,-0.198149,8.65798,28.6012,2.33058,14.6205,-0.936296,-3.25491,1.43739,-1.68195,0.799922,-6.55491,-0.711036,3.02615,-22.2095,-6.55183,-9.79335,19.7939,-8.71033,11.5307,11.0507,-3.342,4.40075,7.77248e-14,-4.17448e-15,16.671,-5.52402,-63.2562,92.0877,12.0159,2.18915,3.1811,7.12502,27.6855,-24.8012,7.77248e-14,-4.17448e-15,7.72803,-23.8752,85.4122,123.36,-2.39952,-9.26262,7.27896,7.12502,16.6936,36.5812,-34.4474,-0.882236,9.92787,40.8923,-4.22299,-7.74731,12.2064,-10.8801,-7.99926,0.331301,36.1923,12.2053,-10.3136,-31.426
